(X8 SHOOTING BEARING BLOCK HOLES)
(T3  D=0.118 CR=0. - ZMIN=-0.6 - FLAT END MILL)
G90 G94 G91.1 G40 G49 G17
G20

(2D POCKET3)
M5
T3 M6
S15000 M3
g4 p5
g0 z.5
G54
M8
G0 X0.1965 Y0.1875
G43 Z0.6 H3
Z0.2
G1 Z0.1194 F40.
Z-0.08 F20.
G3 X0.1785 I-0.009 J0. F40.
X0.1965 I0.009 J0.
G1 Z-0.16 F20.
G3 X0.1785 I-0.009 J0. F40.
X0.1965 I0.009 J0.
G1 Z-0.24 F20.
G3 X0.1785 I-0.009 J0. F40.
X0.1965 I0.009 J0.
G1 Z-0.32 F20.
G3 X0.1785 I-0.009 J0. F40.
X0.1965 I0.009 J0.
G1 Z-0.4 F20.
G3 X0.1785 I-0.009 J0. F40.
X0.1965 I0.009 J0.
G1 Z-0.48 F20.
G3 X0.1785 I-0.009 J0. F40.
X0.1965 I0.009 J0.
G1 Z-0.56 F20.
G3 X0.1785 I-0.009 J0. F40.
X0.1965 I0.009 J0.
G1 Z-0.6 F20.
G3 X0.1785 I-0.009 J0. F40.
X0.1965 I0.009 J0.
G1 X0.1962 Y0.1897 Z-0.5996
X0.1954 Y0.1918 Z-0.5991
X0.1943 Y0.1934 Z-0.5978
X0.1929 Y0.1947 Z-0.5965
X0.1918 Y0.1954 Z-0.5946
X0.1907 Y0.1959 Z-0.5927
X0.1898 Y0.1962 Z-0.5882
G0 Z0.2
X0.1875 Y1.3035
G1 Z0.1194 F20.
Z-0.08
G3 Y1.3215 I0. J0.009 F40.
Y1.3035 I0. J-0.009
G1 Z-0.16 F20.
G3 Y1.3215 I0. J0.009 F40.
Y1.3035 I0. J-0.009
G1 Z-0.24 F20.
G3 Y1.3215 I0. J0.009 F40.
Y1.3035 I0. J-0.009
G1 Z-0.32 F20.
G3 Y1.3215 I0. J0.009 F40.
Y1.3035 I0. J-0.009
G1 Z-0.4 F20.
G3 Y1.3215 I0. J0.009 F40.
Y1.3035 I0. J-0.009
G1 Z-0.48 F20.
G3 Y1.3215 I0. J0.009 F40.
Y1.3035 I0. J-0.009
G1 Z-0.56 F20.
G3 Y1.3215 I0. J0.009 F40.
Y1.3035 I0. J-0.009
G1 Z-0.6 F20.
G3 Y1.3215 I0. J0.009 F40.
Y1.3035 I0. J-0.009
G1 X0.1897 Y1.3038 Z-0.5996
X0.1918 Y1.3046 Z-0.5991
X0.1934 Y1.3057 Z-0.5978
X0.1947 Y1.3071 Z-0.5965
X0.1954 Y1.3082 Z-0.5946
X0.1959 Y1.3093 Z-0.5927
X0.1962 Y1.3102 Z-0.5882
G0 Z0.2
X1.3215 Y1.3125
G1 Z0.1194 F20.
Z-0.08
G3 X1.3035 I-0.009 J0. F40.
X1.3215 I0.009 J0.
G1 Z-0.16 F20.
G3 X1.3035 I-0.009 J0. F40.
X1.3215 I0.009 J0.
G1 Z-0.24 F20.
G3 X1.3035 I-0.009 J0. F40.
X1.3215 I0.009 J0.
G1 Z-0.32 F20.
G3 X1.3035 I-0.009 J0. F40.
X1.3215 I0.009 J0.
G1 Z-0.4 F20.
G3 X1.3035 I-0.009 J0. F40.
X1.3215 I0.009 J0.
G1 Z-0.48 F20.
G3 X1.3035 I-0.009 J0. F40.
X1.3215 I0.009 J0.
G1 Z-0.56 F20.
G3 X1.3035 I-0.009 J0. F40.
X1.3215 I0.009 J0.
G1 Z-0.6 F20.
G3 X1.3035 I-0.009 J0. F40.
X1.3215 I0.009 J0.
G1 X1.3212 Y1.3147 Z-0.5996
X1.3204 Y1.3168 Z-0.5991
X1.3193 Y1.3184 Z-0.5978
X1.3179 Y1.3197 Z-0.5965
X1.3168 Y1.3204 Z-0.5946
X1.3157 Y1.3209 Z-0.5927
X1.3148 Y1.3212 Z-0.5882
G0 Z0.2
X1.3125 Y0.1965
G1 Z0.1194 F20.
Z-0.08
G3 Y0.1785 I0. J-0.009 F40.
Y0.1965 I0. J0.009
G1 Z-0.16 F20.
G3 Y0.1785 I0. J-0.009 F40.
Y0.1965 I0. J0.009
G1 Z-0.24 F20.
G3 Y0.1785 I0. J-0.009 F40.
Y0.1965 I0. J0.009
G1 Z-0.32 F20.
G3 Y0.1785 I0. J-0.009 F40.
Y0.1965 I0. J0.009
G1 Z-0.4 F20.
G3 Y0.1785 I0. J-0.009 F40.
Y0.1965 I0. J0.009
G1 Z-0.48 F20.
G3 Y0.1785 I0. J-0.009 F40.
Y0.1965 I0. J0.009
G1 Z-0.56 F20.
G3 Y0.1785 I0. J-0.009 F40.
Y0.1965 I0. J0.009
G1 Z-0.6 F20.
G3 Y0.1785 I0. J-0.009 F40.
Y0.1965 I0. J0.009
G1 X1.3103 Y0.1962 Z-0.5996
X1.3082 Y0.1954 Z-0.5991
X1.3066 Y0.1943 Z-0.5978
X1.3053 Y0.1929 Z-0.5965
X1.3046 Y0.1918 Z-0.5946
X1.3041 Y0.1907 Z-0.5927
X1.3038 Y0.1898 Z-0.5882
G0 Z0.6

M9
M30
