(X8 TURRET CENTER PLATE HOLES)
(T7  D=0.3937 CR=0. TAPER=118DEG - ZMIN=-0.0312 - CENTER DRILL)
G90 G94 G91.1 G40 G49 G17
G20

(DRILL1)
M5
T7 M6
S5000 M3
g4 p5
g0 z.5
G54
M8
G0 X-4.6558 Y1.9285
G43 Z0.6 H7
Z0.2
G98 G81 X-4.6558 Y1.9285 Z-0.0312 R0.2 F5.
X-3.5634 Y3.5634
X-1.9285 Y4.6558
X0. Y5.0394
X1.9285 Y4.6558
X3.5634 Y3.5634
X4.6558 Y1.9285
X5.0394 Y0.
X4.6558 Y-1.9285
X3.5634 Y-3.5634
X1.9285 Y-4.6558
X0. Y-5.0394
X-1.9285 Y-4.6558
X-3.5634 Y-3.5634
X-4.6558 Y-1.9285
X-5.0394 Y0.
G80
Z0.6
g0 x0 y0

M9
M30
