(1001)
(T1  D=6.35 CR=0. - ZMIN=-4.175 - FLAT END MILL)
G90 G94 G91.1 G40 G49 G17
G21
M5
G0 Z15
G0 X0 Y0

(2D CONTOUR3)
M5
T1 M6
S15000 M3
G54
M8
G0 X-0.644 Y82.259
G43 Z17. H1
Z7.
G1 Z4.135 F1600.
G19 G3 Y82.894 Z3.5 J0.635 K0.
G1 Y83.529
G17 G2 X-0.009 Y82.894 I0. J-0.635
G1 Y65.217 Z3.482
G3 X3.166 Y62.042 Z3.477 I3.175 J0.
G1 X15.866 Z3.465
G2 X38.091 Y39.817 Z3.43 I0. J-22.225
G1 Y1.717 Z3.392
G3 X41.266 Y-1.458 Z3.387 I3.175 J0.
G1 X66.666 Z3.362
G3 X69.841 Y1.717 Z3.357 I0. J3.175
G1 Y62.042 Z3.297
X76.834 Z3.29
G3 X80.009 Y65.217 Z3.285 I0. J3.175
G1 Y182.896 Z3.167
G3 X78.757 Y185.422 Z3.164 I-3.175 J0.
G1 X58.548 Y200.809 Z3.139
G3 X54.098 Y200.206 Z3.134 I-1.923 J-2.526
G1 X7.939 Y139.577 Z3.058
G3 X-0.009 Y116.017 Z3.033 I30.946 J-23.56
G1 Y65.217 Z2.982
G3 X3.166 Y62.042 Z2.977 I3.175 J0.
G1 X15.866 Z2.965
G2 X38.091 Y39.817 Z2.93 I0. J-22.225
G1 Y1.717 Z2.892
G3 X41.266 Y-1.458 Z2.887 I3.175 J0.
G1 X66.666 Z2.862
G3 X69.841 Y1.717 Z2.857 I0. J3.175
G1 Y62.042 Z2.797
X76.834 Z2.79
G3 X80.009 Y65.217 Z2.785 I0. J3.175
G1 Y182.896 Z2.667
G3 X78.757 Y185.422 Z2.664 I-3.175 J0.
G1 X58.548 Y200.809 Z2.639
G3 X54.098 Y200.206 Z2.634 I-1.923 J-2.526
G1 X7.939 Y139.577 Z2.558
G3 X-0.009 Y116.017 Z2.533 I30.946 J-23.56
G1 Y65.217 Z2.482
G3 X3.166 Y62.042 Z2.477 I3.175 J0.
G1 X15.866 Z2.465
G2 X38.091 Y39.817 Z2.43 I0. J-22.225
G1 Y1.717 Z2.392
G3 X41.266 Y-1.458 Z2.387 I3.175 J0.
G1 X66.666 Z2.362
G3 X69.841 Y1.717 Z2.357 I0. J3.175
G1 Y62.042 Z2.297
X76.834 Z2.29
G3 X80.009 Y65.217 Z2.285 I0. J3.175
G1 Y182.896 Z2.167
G3 X78.757 Y185.422 Z2.164 I-3.175 J0.
G1 X58.548 Y200.809 Z2.139
G3 X54.098 Y200.206 Z2.134 I-1.923 J-2.526
G1 X7.939 Y139.577 Z2.058
G3 X-0.009 Y116.017 Z2.033 I30.946 J-23.56
G1 Y65.217 Z1.982
G3 X3.166 Y62.042 Z1.977 I3.175 J0.
G1 X15.866 Z1.965
G2 X38.091 Y39.817 Z1.93 I0. J-22.225
G1 Y1.717 Z1.892
G3 X41.266 Y-1.458 Z1.887 I3.175 J0.
G1 X66.666 Z1.862
G3 X69.841 Y1.717 Z1.857 I0. J3.175
G1 Y62.042 Z1.797
X76.834 Z1.79
G3 X80.009 Y65.217 Z1.785 I0. J3.175
G1 Y182.896 Z1.667
G3 X78.757 Y185.422 Z1.664 I-3.175 J0.
G1 X58.548 Y200.809 Z1.639
G3 X54.098 Y200.206 Z1.634 I-1.923 J-2.526
G1 X7.939 Y139.577 Z1.558
G3 X-0.009 Y116.017 Z1.533 I30.946 J-23.56
G1 Y65.217 Z1.482
G3 X3.166 Y62.042 Z1.477 I3.175 J0.
G1 X15.866 Z1.465
G2 X38.091 Y39.817 Z1.43 I0. J-22.225
G1 Y1.717 Z1.392
G3 X41.266 Y-1.458 Z1.387 I3.175 J0.
G1 X66.666 Z1.362
G3 X69.841 Y1.717 Z1.357 I0. J3.175
G1 Y62.042 Z1.297
X76.834 Z1.29
G3 X80.009 Y65.217 Z1.285 I0. J3.175
G1 Y182.896 Z1.167
G3 X78.757 Y185.422 Z1.164 I-3.175 J0.
G1 X58.548 Y200.809 Z1.139
G3 X54.098 Y200.206 Z1.134 I-1.923 J-2.526
G1 X7.939 Y139.577 Z1.058
G3 X-0.009 Y116.017 Z1.033 I30.946 J-23.56
G1 Y65.217 Z0.982
G3 X3.166 Y62.042 Z0.977 I3.175 J0.
G1 X15.866 Z0.965
G2 X38.091 Y39.817 Z0.93 I0. J-22.225
G1 Y1.717 Z0.892
G3 X41.266 Y-1.458 Z0.887 I3.175 J0.
G1 X66.666 Z0.862
G3 X69.841 Y1.717 Z0.857 I0. J3.175
G1 Y62.042 Z0.797
X76.834 Z0.79
G3 X80.009 Y65.217 Z0.785 I0. J3.175
G1 Y100. Z0.75
Y182.896
G3 X78.757 Y185.422 I-3.175 J0.
G1 X58.548 Y200.809
G3 X54.098 Y200.206 I-1.923 J-2.526
G1 X7.939 Y139.577
G3 X-0.009 Y116.017 I30.946 J-23.56
G1 Y65.217
G3 X3.166 Y62.042 I3.175 J0.
G1 X15.866
G2 X38.091 Y39.817 I0. J-22.225
G1 Y1.717
G3 X41.266 Y-1.458 I3.175 J0.
G1 X66.666
G3 X69.841 Y1.717 I0. J3.175
G1 Y62.042
X76.834
G3 X80.009 Y65.217 I0. J3.175
G1 Y100.
Y182.896 Z0.667
G3 X78.757 Y185.422 Z0.664 I-3.175 J0.
G1 X58.548 Y200.809 Z0.639
G3 X54.098 Y200.206 Z0.634 I-1.923 J-2.526
G1 X7.939 Y139.577 Z0.558
G3 X-0.009 Y116.017 Z0.533 I30.946 J-23.56
G1 Y82.894 Z0.5
Y65.217
G3 X3.166 Y62.042 I3.175 J0.
G1 X15.866
G2 X38.091 Y39.817 I0. J-22.225
G1 Y1.717
G3 X41.266 Y-1.458 I3.175 J0.
G1 X66.666
G3 X69.841 Y1.717 I0. J3.175
G1 Y62.042
X76.834
G3 X80.009 Y65.217 I0. J3.175
G1 Y182.896
G3 X78.757 Y185.422 I-3.175 J0.
G1 X58.548 Y200.809
G3 X54.098 Y200.206 I-1.923 J-2.526
G1 X7.939 Y139.577
G3 X-0.009 Y116.017 I30.946 J-23.56
G1 Y82.894
Y65.217 Z0.482
G3 X3.166 Y62.042 Z0.477 I3.175 J0.
G1 X15.866 Z0.465
G2 X38.091 Y39.817 Z0.43 I0. J-22.225
G1 Y1.717 Z0.392
G3 X41.266 Y-1.458 Z0.387 I3.175 J0.
G1 X66.666 Z0.362
G3 X69.841 Y1.717 Z0.357 I0. J3.175
G1 Y62.042 Z0.297
X76.834 Z0.29
G3 X80.009 Y65.217 Z0.285 I0. J3.175
G1 Y100. Z0.25
Y182.896
G3 X78.757 Y185.422 I-3.175 J0.
G1 X58.548 Y200.809
G3 X54.098 Y200.206 I-1.923 J-2.526
G1 X7.939 Y139.577
G3 X-0.009 Y116.017 I30.946 J-23.56
G1 Y82.894
Y65.217
G3 X3.166 Y62.042 I3.175 J0.
G1 X15.866
G2 X38.091 Y39.817 I0. J-22.225
G1 Y1.717
G3 X41.266 Y-1.458 I3.175 J0.
G1 X66.666
G3 X69.841 Y1.717 I0. J3.175
G1 Y62.042
X76.834
G3 X80.009 Y65.217 I0. J3.175
G1 Y100.
Y182.896 Z0.167
G3 X78.757 Y185.422 Z0.164 I-3.175 J0.
G1 X58.548 Y200.809 Z0.139
G3 X54.098 Y200.206 Z0.134 I-1.923 J-2.526
G1 X7.939 Y139.577 Z0.058
G3 X-0.009 Y116.017 Z0.033 I30.946 J-23.56
G1 Y82.894 Z0.
Y65.217
G3 X3.166 Y62.042 I3.175 J0.
G1 X15.866
G2 X38.091 Y39.817 I0. J-22.225
G1 Y1.717
G3 X41.266 Y-1.458 I3.175 J0.
G1 X66.666
G3 X69.841 Y1.717 I0. J3.175
G1 Y62.042
X76.834
G3 X80.009 Y65.217 I0. J3.175
G1 Y182.896
G3 X78.757 Y185.422 I-3.175 J0.
G1 X58.548 Y200.809
G3 X54.098 Y200.206 I-1.923 J-2.526
G1 X7.939 Y139.577
G3 X-0.009 Y116.017 I30.946 J-23.56
G1 Y82.894
Y65.217 Z-0.018
G3 X3.166 Y62.042 Z-0.023 I3.175 J0.
G1 X15.866 Z-0.035
G2 X38.091 Y39.817 Z-0.07 I0. J-22.225
G1 Y1.717 Z-0.108
G3 X41.266 Y-1.458 Z-0.113 I3.175 J0.
G1 X66.666 Z-0.138
G3 X69.841 Y1.717 Z-0.143 I0. J3.175
G1 Y62.042 Z-0.203
X76.834 Z-0.21
G3 X80.009 Y65.217 Z-0.215 I0. J3.175
G1 Y100. Z-0.25
Y182.896
G3 X78.757 Y185.422 I-3.175 J0.
G1 X58.548 Y200.809
G3 X54.098 Y200.206 I-1.923 J-2.526
G1 X7.939 Y139.577
G3 X-0.009 Y116.017 I30.946 J-23.56
G1 Y82.894
Y65.217
G3 X3.166 Y62.042 I3.175 J0.
G1 X15.866
G2 X38.091 Y39.817 I0. J-22.225
G1 Y1.717
G3 X41.266 Y-1.458 I3.175 J0.
G1 X66.666
G3 X69.841 Y1.717 I0. J3.175
G1 Y62.042
X76.834
G3 X80.009 Y65.217 I0. J3.175
G1 Y100.
Y182.896 Z-0.333
G3 X78.757 Y185.422 Z-0.336 I-3.175 J0.
G1 X58.548 Y200.809 Z-0.361
G3 X54.098 Y200.206 Z-0.366 I-1.923 J-2.526
G1 X7.939 Y139.577 Z-0.442
G3 X-0.009 Y116.017 Z-0.467 I30.946 J-23.56
G1 Y82.894 Z-0.5
Y65.217
G3 X3.166 Y62.042 I3.175 J0.
G1 X15.866
G2 X38.091 Y39.817 I0. J-22.225
G1 Y1.717
G3 X41.266 Y-1.458 I3.175 J0.
G1 X66.666
G3 X69.841 Y1.717 I0. J3.175
G1 Y62.042
X76.834
G3 X80.009 Y65.217 I0. J3.175
G1 Y182.896
G3 X78.757 Y185.422 I-3.175 J0.
G1 X58.548 Y200.809
G3 X54.098 Y200.206 I-1.923 J-2.526
G1 X7.939 Y139.577
G3 X-0.009 Y116.017 I30.946 J-23.56
G1 Y82.894
Y65.217 Z-0.518
G3 X3.166 Y62.042 Z-0.523 I3.175 J0.
G1 X15.866 Z-0.535
G2 X38.091 Y39.817 Z-0.57 I0. J-22.225
G1 Y1.717 Z-0.608
G3 X41.266 Y-1.458 Z-0.613 I3.175 J0.
G1 X66.666 Z-0.638
G3 X69.841 Y1.717 Z-0.643 I0. J3.175
G1 Y62.042 Z-0.703
X76.834 Z-0.71
G3 X80.009 Y65.217 Z-0.715 I0. J3.175
G1 Y100. Z-0.75
Y182.896
G3 X78.757 Y185.422 I-3.175 J0.
G1 X58.548 Y200.809
G3 X54.098 Y200.206 I-1.923 J-2.526
G1 X7.939 Y139.577
G3 X-0.009 Y116.017 I30.946 J-23.56
G1 Y82.894
Y65.217
G3 X3.166 Y62.042 I3.175 J0.
G1 X15.866
G2 X38.091 Y39.817 I0. J-22.225
G1 Y1.717
G3 X41.266 Y-1.458 I3.175 J0.
G1 X66.666
G3 X69.841 Y1.717 I0. J3.175
G1 Y62.042
X76.834
G3 X80.009 Y65.217 I0. J3.175
G1 Y100.
Y182.896 Z-0.833
G3 X78.757 Y185.422 Z-0.836 I-3.175 J0.
G1 X58.548 Y200.809 Z-0.861
G3 X54.098 Y200.206 Z-0.866 I-1.923 J-2.526
G1 X7.939 Y139.577 Z-0.942
G3 X-0.009 Y116.017 Z-0.967 I30.946 J-23.56
G1 Y82.894 Z-1.
Y65.217
G3 X3.166 Y62.042 I3.175 J0.
G1 X15.866
G2 X38.091 Y39.817 I0. J-22.225
G1 Y1.717
G3 X41.266 Y-1.458 I3.175 J0.
G1 X66.666
G3 X69.841 Y1.717 I0. J3.175
G1 Y62.042
X76.834
G3 X80.009 Y65.217 I0. J3.175
G1 Y182.896
G3 X78.757 Y185.422 I-3.175 J0.
G1 X58.548 Y200.809
G3 X54.098 Y200.206 I-1.923 J-2.526
G1 X7.939 Y139.577
G3 X-0.009 Y116.017 I30.946 J-23.56
G1 Y82.894
Y65.217 Z-1.018
G3 X3.166 Y62.042 Z-1.023 I3.175 J0.
G1 X15.866 Z-1.035
G2 X38.091 Y39.817 Z-1.07 I0. J-22.225
G1 Y1.717 Z-1.108
G3 X41.266 Y-1.458 Z-1.113 I3.175 J0.
G1 X66.666 Z-1.138
G3 X69.841 Y1.717 Z-1.143 I0. J3.175
G1 Y62.042 Z-1.203
X76.834 Z-1.21
G3 X80.009 Y65.217 Z-1.215 I0. J3.175
G1 Y100. Z-1.25
Y182.896
G3 X78.757 Y185.422 I-3.175 J0.
G1 X58.548 Y200.809
G3 X54.098 Y200.206 I-1.923 J-2.526
G1 X7.939 Y139.577
G3 X-0.009 Y116.017 I30.946 J-23.56
G1 Y82.894
Y65.217
G3 X3.166 Y62.042 I3.175 J0.
G1 X15.866
G2 X38.091 Y39.817 I0. J-22.225
G1 Y1.717
G3 X41.266 Y-1.458 I3.175 J0.
G1 X66.666
G3 X69.841 Y1.717 I0. J3.175
G1 Y62.042
X76.834
G3 X80.009 Y65.217 I0. J3.175
G1 Y100.
Y182.896 Z-1.333
G3 X78.757 Y185.422 Z-1.336 I-3.175 J0.
G1 X58.548 Y200.809 Z-1.361
G3 X54.098 Y200.206 Z-1.366 I-1.923 J-2.526
G1 X7.939 Y139.577 Z-1.442
G3 X-0.009 Y116.017 Z-1.467 I30.946 J-23.56
G1 Y82.894 Z-1.5
Y65.217
G3 X3.166 Y62.042 I3.175 J0.
G1 X15.866
G2 X38.091 Y39.817 I0. J-22.225
G1 Y1.717
G3 X41.266 Y-1.458 I3.175 J0.
G1 X66.666
G3 X69.841 Y1.717 I0. J3.175
G1 Y62.042
X76.834
G3 X80.009 Y65.217 I0. J3.175
G1 Y182.896
G3 X78.757 Y185.422 I-3.175 J0.
G1 X58.548 Y200.809
G3 X54.098 Y200.206 I-1.923 J-2.526
G1 X7.939 Y139.577
G3 X-0.009 Y116.017 I30.946 J-23.56
G1 Y82.894
Y65.217 Z-1.518
G3 X3.166 Y62.042 Z-1.523 I3.175 J0.
G1 X15.866 Z-1.535
G2 X38.091 Y39.817 Z-1.57 I0. J-22.225
G1 Y1.717 Z-1.608
G3 X41.266 Y-1.458 Z-1.613 I3.175 J0.
G1 X66.666 Z-1.638
G3 X69.841 Y1.717 Z-1.643 I0. J3.175
G1 Y62.042 Z-1.703
X76.834 Z-1.71
G3 X80.009 Y65.217 Z-1.715 I0. J3.175
G1 Y100. Z-1.75
Y182.896
G3 X78.757 Y185.422 I-3.175 J0.
G1 X58.548 Y200.809
G3 X54.098 Y200.206 I-1.923 J-2.526
G1 X7.939 Y139.577
G3 X-0.009 Y116.017 I30.946 J-23.56
G1 Y82.894
Y65.217
G3 X3.166 Y62.042 I3.175 J0.
G1 X15.866
G2 X38.091 Y39.817 I0. J-22.225
G1 Y1.717
G3 X41.266 Y-1.458 I3.175 J0.
G1 X66.666
G3 X69.841 Y1.717 I0. J3.175
G1 Y62.042
X76.834
G3 X80.009 Y65.217 I0. J3.175
G1 Y100.
Y182.896 Z-1.833
G3 X78.757 Y185.422 Z-1.836 I-3.175 J0.
G1 X58.548 Y200.809 Z-1.861
G3 X54.098 Y200.206 Z-1.866 I-1.923 J-2.526
G1 X7.939 Y139.577 Z-1.942
G3 X-0.009 Y116.017 Z-1.967 I30.946 J-23.56
G1 Y82.894 Z-2.
Y65.217
G3 X3.166 Y62.042 I3.175 J0.
G1 X15.866
G2 X38.091 Y39.817 I0. J-22.225
G1 Y1.717
G3 X41.266 Y-1.458 I3.175 J0.
G1 X66.666
G3 X69.841 Y1.717 I0. J3.175
G1 Y62.042
X76.834
G3 X80.009 Y65.217 I0. J3.175
G1 Y182.896
G3 X78.757 Y185.422 I-3.175 J0.
G1 X58.548 Y200.809
G3 X54.098 Y200.206 I-1.923 J-2.526
G1 X7.939 Y139.577
G3 X-0.009 Y116.017 I30.946 J-23.56
G1 Y82.894
Y65.217 Z-2.018
G3 X3.166 Y62.042 Z-2.023 I3.175 J0.
G1 X15.866 Z-2.035
G2 X38.091 Y39.817 Z-2.07 I0. J-22.225
G1 Y1.717 Z-2.108
G3 X41.266 Y-1.458 Z-2.113 I3.175 J0.
G1 X66.666 Z-2.138
G3 X69.841 Y1.717 Z-2.143 I0. J3.175
G1 Y62.042 Z-2.203
X76.834 Z-2.21
G3 X80.009 Y65.217 Z-2.215 I0. J3.175
G1 Y100. Z-2.25
Y182.896
G3 X78.757 Y185.422 I-3.175 J0.
G1 X58.548 Y200.809
G3 X54.098 Y200.206 I-1.923 J-2.526
G1 X7.939 Y139.577
G3 X-0.009 Y116.017 I30.946 J-23.56
G1 Y82.894
Y65.217
G3 X3.166 Y62.042 I3.175 J0.
G1 X15.866
G2 X38.091 Y39.817 I0. J-22.225
G1 Y1.717
G3 X41.266 Y-1.458 I3.175 J0.
G1 X66.666
G3 X69.841 Y1.717 I0. J3.175
G1 Y62.042
X76.834
G3 X80.009 Y65.217 I0. J3.175
G1 Y100.
Y182.896 Z-2.333
G3 X78.757 Y185.422 Z-2.336 I-3.175 J0.
G1 X58.548 Y200.809 Z-2.361
G3 X54.098 Y200.206 Z-2.366 I-1.923 J-2.526
G1 X7.939 Y139.577 Z-2.442
G3 X-0.009 Y116.017 Z-2.467 I30.946 J-23.56
G1 Y82.894 Z-2.5
Y65.217
G3 X3.166 Y62.042 I3.175 J0.
G1 X15.866
G2 X38.091 Y39.817 I0. J-22.225
G1 Y1.717
G3 X41.266 Y-1.458 I3.175 J0.
G1 X66.666
G3 X69.841 Y1.717 I0. J3.175
G1 Y62.042
X76.834
G3 X80.009 Y65.217 I0. J3.175
G1 Y182.896
G3 X78.757 Y185.422 I-3.175 J0.
G1 X58.548 Y200.809
G3 X54.098 Y200.206 I-1.923 J-2.526
G1 X7.939 Y139.577
G3 X-0.009 Y116.017 I30.946 J-23.56
G1 Y82.894
Y65.217 Z-2.518
G3 X3.166 Y62.042 Z-2.523 I3.175 J0.
G1 X15.866 Z-2.535
G2 X38.091 Y39.817 Z-2.57 I0. J-22.225
G1 Y1.717 Z-2.608
G3 X41.266 Y-1.458 Z-2.613 I3.175 J0.
G1 X66.666 Z-2.638
G3 X69.841 Y1.717 Z-2.643 I0. J3.175
G1 Y62.042 Z-2.703
X76.834 Z-2.71
G3 X80.009 Y65.217 Z-2.715 I0. J3.175
G1 Y100. Z-2.75
Y182.896
G3 X78.757 Y185.422 I-3.175 J0.
G1 X58.548 Y200.809
G3 X54.098 Y200.206 I-1.923 J-2.526
G1 X7.939 Y139.577
G3 X-0.009 Y116.017 I30.946 J-23.56
G1 Y82.894
Y65.217
G3 X3.166 Y62.042 I3.175 J0.
G1 X15.866
G2 X38.091 Y39.817 I0. J-22.225
G1 Y1.717
G3 X41.266 Y-1.458 I3.175 J0.
G1 X66.666
G3 X69.841 Y1.717 I0. J3.175
G1 Y62.042
X76.834
G3 X80.009 Y65.217 I0. J3.175
G1 Y100.
Y182.896 Z-2.833
G3 X78.757 Y185.422 Z-2.836 I-3.175 J0.
G1 X58.548 Y200.809 Z-2.861
G3 X54.098 Y200.206 Z-2.866 I-1.923 J-2.526
G1 X7.939 Y139.577 Z-2.942
G3 X-0.009 Y116.017 Z-2.967 I30.946 J-23.56
G1 Y82.894 Z-3.
Y65.217
G3 X3.166 Y62.042 I3.175 J0.
G1 X15.866
G2 X38.091 Y39.817 I0. J-22.225
G1 Y1.717
G3 X41.266 Y-1.458 I3.175 J0.
G1 X66.666
G3 X69.841 Y1.717 I0. J3.175
G1 Y62.042
X76.834
G3 X80.009 Y65.217 I0. J3.175
G1 Y182.896
G3 X78.757 Y185.422 I-3.175 J0.
G1 X58.548 Y200.809
G3 X54.098 Y200.206 I-1.923 J-2.526
G1 X7.939 Y139.577
G3 X-0.009 Y116.017 I30.946 J-23.56
G1 Y82.894
Y65.217 Z-3.018
G3 X3.166 Y62.042 Z-3.023 I3.175 J0.
G1 X15.866 Z-3.035
G2 X38.091 Y39.817 Z-3.07 I0. J-22.225
G1 Y1.717 Z-3.108
G3 X41.266 Y-1.458 Z-3.113 I3.175 J0.
G1 X66.666 Z-3.138
G3 X69.841 Y1.717 Z-3.143 I0. J3.175
G1 Y62.042 Z-3.203
X76.834 Z-3.21
G3 X80.009 Y65.217 Z-3.215 I0. J3.175
G1 Y100. Z-3.25
Y182.896
G3 X78.757 Y185.422 I-3.175 J0.
G1 X58.548 Y200.809
G3 X54.098 Y200.206 I-1.923 J-2.526
G1 X7.939 Y139.577
G3 X-0.009 Y116.017 I30.946 J-23.56
G1 Y82.894
Y65.217
G3 X3.166 Y62.042 I3.175 J0.
G1 X15.866
G2 X38.091 Y39.817 I0. J-22.225
G1 Y1.717
G3 X41.266 Y-1.458 I3.175 J0.
G1 X66.666
G3 X69.841 Y1.717 I0. J3.175
G1 Y62.042
X76.834
G3 X80.009 Y65.217 I0. J3.175
G1 Y100.
Y182.896 Z-3.333
G3 X78.757 Y185.422 Z-3.336 I-3.175 J0.
G1 X58.548 Y200.809 Z-3.361
G3 X54.098 Y200.206 Z-3.366 I-1.923 J-2.526
G1 X7.939 Y139.577 Z-3.442
G3 X-0.009 Y116.017 Z-3.467 I30.946 J-23.56
G1 Y82.894 Z-3.5
Y65.217
G3 X3.166 Y62.042 I3.175 J0.
G1 X15.866
G2 X38.091 Y39.817 I0. J-22.225
G1 Y1.717
G3 X41.266 Y-1.458 I3.175 J0.
G1 X66.666
G3 X69.841 Y1.717 I0. J3.175
G1 Y62.042
X76.834
G3 X80.009 Y65.217 I0. J3.175
G1 Y182.896
G3 X78.757 Y185.422 I-3.175 J0.
G1 X58.548 Y200.809
G3 X54.098 Y200.206 I-1.923 J-2.526
G1 X7.939 Y139.577
G3 X-0.009 Y116.017 I30.946 J-23.56
G1 Y82.894
Y65.217 Z-3.518
G3 X3.166 Y62.042 Z-3.523 I3.175 J0.
G1 X15.866 Z-3.535
G2 X38.091 Y39.817 Z-3.57 I0. J-22.225
G1 Y1.717 Z-3.608
G3 X41.266 Y-1.458 Z-3.613 I3.175 J0.
G1 X66.666 Z-3.638
G3 X69.841 Y1.717 Z-3.643 I0. J3.175
G1 Y62.042 Z-3.703
X76.834 Z-3.71
G3 X80.009 Y65.217 Z-3.715 I0. J3.175
G1 Y100. Z-3.75
Y182.896
G3 X78.757 Y185.422 I-3.175 J0.
G1 X58.548 Y200.809
G3 X54.098 Y200.206 I-1.923 J-2.526
G1 X7.939 Y139.577
G3 X-0.009 Y116.017 I30.946 J-23.56
G1 Y82.894
Y65.217
G3 X3.166 Y62.042 I3.175 J0.
G1 X15.866
G2 X38.091 Y39.817 I0. J-22.225
G1 Y1.717
G3 X41.266 Y-1.458 I3.175 J0.
G1 X66.666
G3 X69.841 Y1.717 I0. J3.175
G1 Y62.042
X76.834
G3 X80.009 Y65.217 I0. J3.175
G1 Y100.
Y182.896 Z-3.833
G3 X78.757 Y185.422 Z-3.836 I-3.175 J0.
G1 X58.548 Y200.809 Z-3.861
G3 X54.098 Y200.206 Z-3.866 I-1.923 J-2.526
G1 X7.939 Y139.577 Z-3.942
G3 X-0.009 Y116.017 Z-3.967 I30.946 J-23.56
G1 Y82.894 Z-4.
Y65.217
G3 X3.166 Y62.042 I3.175 J0.
G1 X15.866
G2 X38.091 Y39.817 I0. J-22.225
G1 Y1.717
G3 X41.266 Y-1.458 I3.175 J0.
G1 X66.666
G3 X69.841 Y1.717 I0. J3.175
G1 Y62.042
X76.834
G3 X80.009 Y65.217 I0. J3.175
G1 Y182.896
G3 X78.757 Y185.422 I-3.175 J0.
G1 X58.548 Y200.809
G3 X54.098 Y200.206 I-1.923 J-2.526
G1 X7.939 Y139.577
G3 X-0.009 Y116.017 I30.946 J-23.56
G1 Y82.894
Y65.217 Z-4.018
G3 X3.166 Y62.042 Z-4.023 I3.175 J0.
G1 X15.866 Z-4.035
G2 X38.091 Y39.817 Z-4.07 I0. J-22.225
G1 Y1.717 Z-4.108
G3 X41.266 Y-1.458 Z-4.113 I3.175 J0.
G1 X66.666 Z-4.138
G3 X69.841 Y1.717 Z-4.143 I0. J3.175
G1 Y33.554 Z-4.175
Y62.042
X76.834
G3 X80.009 Y65.217 I0. J3.175
G1 Y182.896
G3 X78.757 Y185.422 I-3.175 J0.
G1 X58.548 Y200.809
G3 X54.098 Y200.206 I-1.923 J-2.526
G1 X7.939 Y139.577
G3 X-0.009 Y116.017 I30.946 J-23.56
G1 Y82.894
Y65.217
G3 X3.166 Y62.042 I3.175 J0.
G1 X15.866
G2 X38.091 Y39.817 I0. J-22.225
G1 Y1.717
G3 X41.266 Y-1.458 I3.175 J0.
G1 X66.666
G3 X69.841 Y1.717 I0. J3.175
G1 Y33.554
G2 X70.476 Y34.189 I0.635 J0.
G1 Y33.554
G19 G2 Y32.919 Z-3.54 J0. K0.635
G0 Z17.
G17
G0 Z15

M9
M30
