(1001)
(T1  D=6.35 CR=0. - ZMIN=-3.175 - FLAT END MILL)
G90 G94 G91.1 G40 G49 G17
G21

(2D CONTOUR3)
M5
T1 M6
S15000 M3
G54
M8
G0 X36.186 Y17.438
G43 Z15. H1
Z5.
G1 Z3.135 F1600.
G18 G2 X36.821 Z2.5 I0.635 K0.
G1 X37.456
G17 G2 X38.091 Y16.802 I0. J-0.635
G1 Y1.717 Z2.237
G3 X41.266 Y-1.458 Z2.15 I3.175 J0.
G1 X66.666 Z1.706
G3 X69.841 Y1.717 Z1.619 I0. J3.175
G1 Y62.042 Z0.566
X76.834 Z0.444
G3 X80.009 Y65.217 Z0.357 I0. J3.175
G1 Y100. Z-0.25
Y182.896
G3 X78.757 Y185.422 I-3.175 J0.
G1 X58.548 Y200.809
G3 X54.098 Y200.206 I-1.923 J-2.526
G1 X7.939 Y139.577
G3 X-0.009 Y116.017 I30.946 J-23.56
G1 Y65.217
G3 X3.166 Y62.042 I3.175 J0.
G1 X15.866
G2 X38.091 Y39.817 I0. J-22.225
G1 Y1.717
G3 X41.266 Y-1.458 I3.175 J0.
G1 X66.666
G3 X69.841 Y1.717 I0. J3.175
G1 Y62.042
X76.834
G3 X80.009 Y65.217 I0. J3.175
G1 Y100.
Y114.323 Z-0.5
Y182.896
G3 X78.757 Y185.422 I-3.175 J0.
G1 X58.548 Y200.809
G3 X54.098 Y200.206 I-1.923 J-2.526
G1 X7.939 Y139.577
G3 X-0.009 Y116.017 I30.946 J-23.56
G1 Y65.217
G3 X3.166 Y62.042 I3.175 J0.
G1 X15.866
G2 X38.091 Y39.817 I0. J-22.225
G1 Y1.717
G3 X41.266 Y-1.458 I3.175 J0.
G1 X66.666
G3 X69.841 Y1.717 I0. J3.175
G1 Y62.042
X76.834
G3 X80.009 Y65.217 I0. J3.175
G1 Y100.
Y114.323
Y128.645 Z-0.75
Y182.896
G3 X78.757 Y185.422 I-3.175 J0.
G1 X58.548 Y200.809
G3 X54.098 Y200.206 I-1.923 J-2.526
G1 X7.939 Y139.577
G3 X-0.009 Y116.017 I30.946 J-23.56
G1 Y65.217
G3 X3.166 Y62.042 I3.175 J0.
G1 X15.866
G2 X38.091 Y39.817 I0. J-22.225
G1 Y1.717
G3 X41.266 Y-1.458 I3.175 J0.
G1 X66.666
G3 X69.841 Y1.717 I0. J3.175
G1 Y62.042
X76.834
G3 X80.009 Y65.217 I0. J3.175
G1 Y114.323
Y128.645
Y142.968 Z-1.
Y182.896
G3 X78.757 Y185.422 I-3.175 J0.
G1 X58.548 Y200.809
G3 X54.098 Y200.206 I-1.923 J-2.526
G1 X7.939 Y139.577
G3 X-0.009 Y116.017 I30.946 J-23.56
G1 Y65.217
G3 X3.166 Y62.042 I3.175 J0.
G1 X15.866
G2 X38.091 Y39.817 I0. J-22.225
G1 Y1.717
G3 X41.266 Y-1.458 I3.175 J0.
G1 X66.666
G3 X69.841 Y1.717 I0. J3.175
G1 Y62.042
X76.834
G3 X80.009 Y65.217 I0. J3.175
G1 Y128.645
Y142.968
Y157.29 Z-1.25
Y182.896
G3 X78.757 Y185.422 I-3.175 J0.
G1 X58.548 Y200.809
G3 X54.098 Y200.206 I-1.923 J-2.526
G1 X7.939 Y139.577
G3 X-0.009 Y116.017 I30.946 J-23.56
G1 Y65.217
G3 X3.166 Y62.042 I3.175 J0.
G1 X15.866
G2 X38.091 Y39.817 I0. J-22.225
G1 Y1.717
G3 X41.266 Y-1.458 I3.175 J0.
G1 X66.666
G3 X69.841 Y1.717 I0. J3.175
G1 Y62.042
X76.834
G3 X80.009 Y65.217 I0. J3.175
G1 Y142.968
Y157.29
Y171.613 Z-1.5
Y182.896
G3 X78.757 Y185.422 I-3.175 J0.
G1 X58.548 Y200.809
G3 X54.098 Y200.206 I-1.923 J-2.526
G1 X7.939 Y139.577
G3 X-0.009 Y116.017 I30.946 J-23.56
G1 Y65.217
G3 X3.166 Y62.042 I3.175 J0.
G1 X15.866
G2 X38.091 Y39.817 I0. J-22.225
G1 Y1.717
G3 X41.266 Y-1.458 I3.175 J0.
G1 X66.666
G3 X69.841 Y1.717 I0. J3.175
G1 Y62.042
X76.834
G3 X80.009 Y65.217 I0. J3.175
G1 Y157.29
Y171.613
Y182.896 Z-1.697
G3 X78.757 Y185.422 Z-1.748 I-3.175 J0.
G1 X78.663 Y185.494 Z-1.75
X58.548 Y200.809
G3 X54.098 Y200.206 I-1.923 J-2.526
G1 X7.939 Y139.577
G3 X-0.009 Y116.017 I30.946 J-23.56
G1 Y65.217
G3 X3.166 Y62.042 I3.175 J0.
G1 X15.866
G2 X38.091 Y39.817 I0. J-22.225
G1 Y1.717
G3 X41.266 Y-1.458 I3.175 J0.
G1 X66.666
G3 X69.841 Y1.717 I0. J3.175
G1 Y62.042
X76.834
G3 X80.009 Y65.217 I0. J3.175
G1 Y171.613
Y182.896
G3 X78.757 Y185.422 I-3.175 J0.
G1 X78.663 Y185.494
X67.268 Y194.17 Z-2.
X58.548 Y200.809
G3 X54.098 Y200.206 I-1.923 J-2.526
G1 X7.939 Y139.577
G3 X-0.009 Y116.017 I30.946 J-23.56
G1 Y65.217
G3 X3.166 Y62.042 I3.175 J0.
G1 X15.866
G2 X38.091 Y39.817 I0. J-22.225
G1 Y1.717
G3 X41.266 Y-1.458 I3.175 J0.
G1 X66.666
G3 X69.841 Y1.717 I0. J3.175
G1 Y62.042
X76.834
G3 X80.009 Y65.217 I0. J3.175
G1 Y182.896
G3 X78.757 Y185.422 I-3.175 J0.
G1 X67.268 Y194.17
X58.548 Y200.809 Z-2.191
G3 X55.364 Y201.197 Z-2.25 I-1.923 J-2.526
X54.098 Y200.206 I1.261 J-2.914
G1 X7.939 Y139.577
G3 X-0.009 Y116.017 I30.946 J-23.56
G1 Y65.217
G3 X3.166 Y62.042 I3.175 J0.
G1 X15.866
G2 X38.091 Y39.817 I0. J-22.225
G1 Y1.717
G3 X41.266 Y-1.458 I3.175 J0.
G1 X66.666
G3 X69.841 Y1.717 I0. J3.175
G1 Y62.042
X76.834
G3 X80.009 Y65.217 I0. J3.175
G1 Y182.896
G3 X78.757 Y185.422 I-3.175 J0.
G1 X67.268 Y194.17
X58.548 Y200.809
G3 X55.364 Y201.197 I-1.923 J-2.526
X54.098 Y200.206 Z-2.278 I1.261 J-2.914
G1 X46.407 Y190.103 Z-2.5
X7.939 Y139.577
G3 X-0.009 Y116.017 I30.946 J-23.56
G1 Y65.217
G3 X3.166 Y62.042 I3.175 J0.
G1 X15.866
G2 X38.091 Y39.817 I0. J-22.225
G1 Y1.717
G3 X41.266 Y-1.458 I3.175 J0.
G1 X66.666
G3 X69.841 Y1.717 I0. J3.175
G1 Y62.042
X76.834
G3 X80.009 Y65.217 I0. J3.175
G1 Y182.896
G3 X78.757 Y185.422 I-3.175 J0.
G1 X58.548 Y200.809
G3 X54.098 Y200.206 I-1.923 J-2.526
G1 X46.407 Y190.103
X37.731 Y178.708 Z-2.75
X7.939 Y139.577
G3 X-0.009 Y116.017 I30.946 J-23.56
G1 Y65.217
G3 X3.166 Y62.042 I3.175 J0.
G1 X15.866
G2 X38.091 Y39.817 I0. J-22.225
G1 Y1.717
G3 X41.266 Y-1.458 I3.175 J0.
G1 X66.666
G3 X69.841 Y1.717 I0. J3.175
G1 Y62.042
X76.834
G3 X80.009 Y65.217 I0. J3.175
G1 Y182.896
G3 X78.757 Y185.422 I-3.175 J0.
G1 X58.548 Y200.809
G3 X54.098 Y200.206 I-1.923 J-2.526
G1 X37.731 Y178.708
X29.055 Y167.312 Z-3.
X7.939 Y139.577
G3 X-0.009 Y116.017 I30.946 J-23.56
G1 Y65.217
G3 X3.166 Y62.042 I3.175 J0.
G1 X15.866
G2 X38.091 Y39.817 I0. J-22.225
G1 Y1.717
G3 X41.266 Y-1.458 I3.175 J0.
G1 X66.666
G3 X69.841 Y1.717 I0. J3.175
G1 Y62.042
X76.834
G3 X80.009 Y65.217 I0. J3.175
G1 Y182.896
G3 X78.757 Y185.422 I-3.175 J0.
G1 X58.548 Y200.809
G3 X54.098 Y200.206 I-1.923 J-2.526
G1 X37.731 Y178.708
X29.055 Y167.312
X22.981 Y159.335 Z-3.175
X7.939 Y139.577
G3 X-0.009 Y116.017 I30.946 J-23.56
G1 Y65.217
G3 X3.166 Y62.042 I3.175 J0.
G1 X15.866
G2 X38.091 Y39.817 I0. J-22.225
G1 Y1.717
G3 X41.266 Y-1.458 I3.175 J0.
G1 X66.666
G3 X69.841 Y1.717 I0. J3.175
G1 Y62.042
X76.834
G3 X80.009 Y65.217 I0. J3.175
G1 Y182.896
G3 X78.757 Y185.422 I-3.175 J0.
G1 X58.548 Y200.809
G3 X54.098 Y200.206 I-1.923 J-2.526
G1 X29.055 Y167.312
X22.981 Y159.335
G2 X22.092 Y159.214 I-0.505 J0.385
G1 X21.586 Y159.599
X21.507 Y159.659 Z-3.167
X21.43 Y159.718 Z-3.144
X21.357 Y159.774 Z-3.106
X21.289 Y159.825 Z-3.054
X21.229 Y159.871 Z-2.989
X21.178 Y159.91 Z-2.913
X21.136 Y159.942 Z-2.828
X21.106 Y159.965 Z-2.736
X21.087 Y159.979 Z-2.639
X21.081 Y159.984 Z-2.54
G0 Z15.

M9
M30
