(TOP CENTER GUESSET CUTOUT)
(T1  D=6.35 CR=0. - ZMIN=-3.175 - FLAT END MILL)
G90 G94 G91.1 G40 G49 G17
G21
M5
G0 Z15
G0 X0 Y0

(2D CONTOUR3)
M5
T1 M6
S15000 M3
G54
M8
G0 X51.703 Y246.853
G43 Z15. H1
Z5.
G1 Z1. F1600.
Z-2.54
X51.704 Y246.846 Z-2.639
X51.707 Y246.823 Z-2.736
X51.711 Y246.785 Z-2.828
X51.717 Y246.733 Z-2.913
X51.724 Y246.669 Z-2.989
X51.733 Y246.593 Z-3.054
X51.743 Y246.509 Z-3.106
X51.753 Y246.418 Z-3.144
X51.764 Y246.321 Z-3.167
X51.776 Y246.223 Z-3.175
X51.848 Y245.592
G2 X51.289 Y244.889 I-0.631 J-0.072
G3 X19.3 Y226.699 I5.335 J-46.606
G1 X-26.858 Y166.07
G3 X-43.744 Y116.017 I65.744 J-50.053
G1 Y65.217
G3 X-5.93 Y19.244 I46.854 J0.
G2 X-5.599 Y18.84 I-0.08 J-0.403
G1 X-5.644 Y1.717
G3 X41.266 Y-45.193 I46.91 J0.
G1 X66.666
G3 X113.576 Y1.717 I0. J46.91
G1 X113.531 Y35.471
G2 X113.893 Y36.531 I1.732 J0.
G3 X123.744 Y65.217 I-37.23 J28.819
G1 Y182.896
G3 X105.251 Y220.219 I-46.91 J0.
G1 X85.041 Y235.606
G3 X51.289 Y244.889 I-28.417 J-37.323
X49.14 Y243.034 I0.287 J-2.504
G2 X47.092 Y241.069 I-2.643 J0.705
G3 X21.747 Y224.836 I9.532 J-42.786
G1 X-24.412 Y164.207
G3 X-40.669 Y116.017 I63.297 J-48.19
G1 Y65.217
G3 X-2.851 Y21.843 I43.783 J0.
G2 X-2.524 Y21.467 I-0.052 J-0.376
G1 X-2.569 Y1.717
G3 X41.266 Y-42.118 I43.835 J0.
G1 X66.666
G3 X110.501 Y1.717 I0. J43.835
G1 X110.456 Y36.583
G2 X110.818 Y37.601 I1.614 J0.
G3 X120.669 Y65.217 I-34.141 J27.744
G1 Y182.896
G3 X103.388 Y217.773 I-43.835 J0.
G1 X83.179 Y233.16
G3 X47.092 Y241.069 I-26.554 J-34.877
X45.148 Y238.994 I0.548 J-2.462
G2 X43.325 Y236.812 I-2.722 J0.422
G3 X24.194 Y222.974 I13.299 J-38.529
G1 X-21.965 Y162.345
G3 X-37.594 Y116.017 I60.85 J-46.328
G1 Y65.217
G3 X0.228 Y24.609 I40.712 J0.
G2 X0.551 Y24.261 I-0.025 J-0.347
G1 X0.506 Y1.717
G3 X41.266 Y-39.043 I40.76 J0.
G1 X66.666
G3 X107.426 Y1.717 I0. J40.76
G1 X107.381 Y37.74
G2 X107.742 Y38.714 I1.497 J0.
G3 X117.594 Y65.217 I-31.05 J26.625
G1 Y182.896
G3 X101.525 Y215.326 I-40.76 J0.
G1 X81.316 Y230.713
G3 X43.325 Y236.812 I-24.692 J-32.43
X41.627 Y234.525 I0.824 J-2.386
G2 X40.071 Y232.138 I-2.775 J0.108
G3 X26.64 Y221.111 I16.553 J-33.855
G1 X-19.519 Y160.482
G3 X-34.519 Y116.017 I58.404 J-44.465
G1 Y65.217
G3 X3.307 Y27.577 I37.64 J0.
G2 X3.626 Y27.258 I0. J-0.319
G1 X3.581 Y1.717
G3 X41.266 Y-35.968 I37.685 J0.
G1 X66.666
G3 X104.351 Y1.717 I0. J37.685
G1 X104.306 Y38.948
G2 X104.666 Y39.877 I1.38 J0.
G3 X114.519 Y65.217 I-27.96 J25.457
G1 Y182.896
G3 X99.663 Y212.879 I-37.685 J0.
G1 X79.453 Y228.266
G3 X40.071 Y232.138 I-22.829 J-29.983
X38.664 Y229.653 I1.11 J-2.269
G2 X37.425 Y227.08 I-2.795 J-0.239
G3 X29.087 Y219.248 I19.199 J-28.797
G1 X-17.072 Y158.619
G3 X-31.444 Y116.017 I55.957 J-42.602
G1 Y65.217
G3 X3.166 Y30.607 I34.61 J0.
X4.774 Y30.63 I0. J57.458
G2 X6.382 Y30.652 I1.608 J-57.435
X6.701 Y30.333 I0. J-0.319
G1 X6.656 Y1.717
G3 X41.266 Y-32.893 I34.61 J0.
G1 X66.666
G3 X101.276 Y1.717 I0. J34.61
G1 X101.231 Y40.214
G2 X101.59 Y41.095 I1.263 J0.
G3 X111.444 Y65.217 I-24.87 J24.234
G1 Y182.896
G3 X97.8 Y210.433 I-34.61 J0.
G1 X77.59 Y225.82
G3 X37.425 Y227.08 I-20.966 J-27.537
X36.361 Y224.421 I1.403 J-2.104
G2 X35.494 Y221.691 I-2.769 J-0.623
G3 X31.534 Y217.386 I21.131 J-23.408
G1 X-14.625 Y156.757
G3 X-28.369 Y116.017 I53.511 J-40.74
G1 Y65.217
G3 X3.166 Y33.682 I31.535 J0.
X6.312 Y33.705 I0. J219.857
G2 X9.457 Y33.727 I3.145 J-219.835
X9.776 Y33.408 I0. J-0.319
G1 X9.731 Y1.717
G3 X41.266 Y-29.818 I31.535 J0.
G1 X66.666
G3 X98.201 Y1.717 I0. J31.535
G1 X98.156 Y41.547
G2 X98.513 Y42.378 I1.145 J0.
G3 X108.369 Y65.217 I-21.779 J22.944
G1 Y182.896
G3 X95.937 Y207.986 I-31.535 J0.
G1 X75.728 Y223.373
G3 X35.494 Y221.691 I-19.103 J-25.09
X34.83 Y218.895 I1.696 J-1.879
G2 X34.395 Y216.055 I-2.684 J-1.043
G3 X33.98 Y215.523 I22.229 J-17.772
G1 X-12.179 Y154.894
G3 X-25.294 Y116.017 I51.064 J-38.877
G1 Y65.217
G3 X3.166 Y36.757 I28.46 J0.
G1 X12.532 Y36.802
G2 X12.851 Y36.483 I0. J-0.319
G1 X12.806 Y1.717
G3 X41.266 Y-26.743 I28.46 J0.
G1 X66.666
G3 X95.126 Y1.717 I0. J28.46
G1 X95.081 Y42.961
G2 X95.436 Y43.738 I1.028 J0.
G3 X105.294 Y65.217 I-18.688 J21.578
G1 Y182.896
G3 X94.074 Y205.54 I-28.46 J0.
G1 X73.865 Y220.927
G3 X34.395 Y216.055 I-17.24 J-22.644
X34.18 Y213.263 I1.944 J-1.554
G2 X33.997 Y210.469 I-2.198 J-1.259
G1 X-9.732 Y153.031
G3 X-22.219 Y116.017 I48.617 J-37.014
G1 Y65.217
G3 X3.166 Y39.832 I25.385 J0.
G1 X15.607 Y39.877
G2 X15.926 Y39.558 I0. J-0.319
G1 X15.881 Y1.717
G3 X41.266 Y-23.668 I25.385 J0.
G1 X66.666
G3 X92.051 Y1.717 I0. J25.385
G1 X92.006 Y44.471
G2 X92.359 Y45.19 I0.911 J0.
G3 X102.219 Y65.217 I-15.597 J20.119
G1 Y182.896
G3 X92.211 Y203.093 I-25.385 J0.
G1 X72.002 Y218.48
G3 X36.427 Y213.66 I-15.378 J-20.197
G1 X33.997 Y210.469
G3 X33.824 Y207.703 I1.988 J-1.513
G2 X33.65 Y204.936 I-2.162 J-1.253
G1 X-7.286 Y151.168
G3 X-19.144 Y116.017 I46.171 J-35.151
G1 Y65.217
G3 X3.166 Y42.907 I22.31 J0.
G1 X15.866
G2 X18.956 Y39.817 I0. J-3.09
G1 Y1.717
G3 X41.266 Y-20.593 I22.31 J0.
G1 X66.666
G3 X88.976 Y1.717 I0. J22.31
G1 X88.931 Y46.099
G2 X89.281 Y46.757 I0.793 J0.
G3 X99.144 Y65.217 I-12.504 J18.546
G1 Y182.896
G3 X90.349 Y200.647 I-22.31 J0.
G1 X70.139 Y216.034
G3 X38.873 Y211.797 I-13.515 J-17.751
G1 X33.65 Y204.936
G3 X33.476 Y202.17 I1.988 J-1.513
G2 X33.303 Y199.404 I-2.162 J-1.253
G1 X-4.839 Y149.306
G3 X-16.069 Y116.017 I43.724 J-33.289
G1 Y65.217
G3 X3.166 Y45.982 I19.235 J0.
G1 X15.866
G2 X22.031 Y39.817 I0. J-6.165
G1 Y1.717
G3 X41.266 Y-17.518 I19.235 J0.
G1 X66.666
G3 X85.901 Y1.717 I0. J19.235
G1 X85.856 Y47.88
G2 X86.202 Y48.469 I0.675 J0.
G3 X96.069 Y65.217 I-9.411 J16.825
G1 Y182.896
G3 X88.486 Y198.2 I-19.235 J0.
G1 X68.277 Y213.587
G3 X41.32 Y209.935 I-11.652 J-15.304
G1 X33.303 Y199.404
G3 X33.129 Y196.637 I1.988 J-1.513
G2 X32.955 Y193.871 I-2.162 J-1.253
G1 X-2.392 Y147.443
G3 X-12.994 Y116.017 I41.277 J-31.426
G1 Y65.217
G3 X3.166 Y49.057 I16.16 J0.
G1 X15.866
G2 X25.106 Y39.817 I0. J-9.24
G1 Y1.717
G3 X41.266 Y-14.443 I16.16 J0.
G1 X66.666
G3 X82.826 Y1.717 I0. J16.16
G1 X82.781 Y49.866
G2 X83.121 Y50.38 I0.557 J0.
G3 X92.994 Y65.217 I-6.316 J14.906
G1 Y182.896
G3 X86.623 Y195.753 I-16.16 J0.
G1 X66.414 Y211.14
G3 X43.767 Y208.072 I-9.789 J-12.857
G1 X32.955 Y193.871
G3 X32.781 Y191.105 I1.988 J-1.513
G2 X32.608 Y188.339 I-2.162 J-1.253
G1 X0.054 Y145.58
G3 X-9.919 Y116.017 I38.831 J-29.563
G1 Y65.217
G3 X3.166 Y52.132 I13.085 J0.
G1 X15.866
G2 X28.181 Y39.817 I0. J-12.315
G1 Y1.717
G3 X41.266 Y-11.368 I13.085 J0.
G1 X66.666
G3 X79.751 Y1.717 I0. J13.085
G1 X79.706 Y52.151
G2 X80.037 Y52.577 I0.439 J0.
G3 X89.919 Y65.217 I-3.218 J12.698
G1 Y182.896
G3 X84.76 Y193.307 I-13.085 J0.
G1 X64.551 Y208.694
G3 X46.213 Y206.209 I-7.927 J-10.411
G1 X32.608 Y188.339
G3 X32.434 Y185.572 I1.988 J-1.513
G2 X32.26 Y182.806 I-2.162 J-1.253
G1 X2.501 Y143.718
G3 X-6.844 Y116.017 I36.384 J-27.701
G1 Y65.217
G3 X3.166 Y55.207 I10.01 J0.
G1 X15.866
G2 X31.256 Y39.817 I0. J-15.39
G1 Y1.717
G3 X41.266 Y-8.293 I10.01 J0.
G1 X66.666
G3 X76.676 Y1.717 I0. J10.01
G1 X76.631 Y54.933
G2 X76.948 Y55.253 I0.321 J0.
G3 X86.844 Y65.217 I-0.115 J10.01
G1 Y182.896
G3 X82.898 Y190.86 I-10.01 J0.
G1 X62.688 Y206.247
G3 X48.66 Y204.347 I-6.064 J-7.964
G1 X32.26 Y182.806
G3 X32.087 Y180.04 I1.988 J-1.513
G2 X31.913 Y177.273 I-2.162 J-1.253
G1 X4.948 Y141.855
G3 X-3.769 Y116.017 I33.938 J-25.838
G1 Y65.217
G3 X3.166 Y58.282 I6.935 J0.
G1 X15.866
G2 X34.331 Y39.817 I0. J-18.465
G1 Y1.717
G3 X41.266 Y-5.218 I6.935 J0.
G1 X66.666
G3 X73.601 Y1.717 I0. J6.935
G1 X73.556 Y58.008
G2 X73.876 Y58.327 I0.319 J0.
X75.355 Y58.305 I0. J-48.629
G3 X76.834 Y58.282 I1.479 J48.607
X83.769 Y65.217 I0. J6.935
G1 Y182.896
G3 X81.035 Y188.414 I-6.935 J0.
G1 X60.2 Y204.225
G3 X51.107 Y202.484 I-3.576 J-5.942
G1 X31.913 Y177.273
G3 X31.736 Y174.462 I2.02 J-1.538
G2 X31.56 Y171.651 I-2.197 J-1.273
G1 X7.434 Y139.962
G3 X-0.644 Y116.017 I31.451 J-23.945
G1 Y65.217
G3 X3.166 Y61.407 I3.81 J0.
G1 X15.866
G2 X37.456 Y39.817 I0. J-21.59
G1 Y1.717
G3 X41.266 Y-2.093 I3.81 J0.
G1 X66.666
G3 X70.476 Y1.717 I0. J3.81
G1 Y61.407
X76.834
G3 X80.644 Y65.217 I0. J3.81
G1 Y182.896
G3 X79.142 Y185.927 I-3.81 J0.
G1 X58.932 Y201.314
G3 X53.593 Y200.591 I-2.308 J-3.031
G1 X31.56 Y171.651
G3 X31.524 Y171.079 I0.411 J-0.313
G2 X31.488 Y170.508 I-0.446 J-0.259
G1 X7.939 Y139.577
G3 X-0.009 Y116.017 I30.946 J-23.56
G1 Y65.217
G3 X3.166 Y62.042 I3.175 J0.
G1 X15.866
G2 X38.091 Y39.817 I0. J-22.225
G1 Y1.717
G3 X41.266 Y-1.458 I3.175 J0.
G1 X66.666
G3 X69.841 Y1.717 I0. J3.175
G1 Y62.042
X76.834
G3 X80.009 Y65.217 I0. J3.175
G1 Y182.896
G3 X78.757 Y185.422 I-3.175 J0.
G1 X58.548 Y200.809
G3 X54.098 Y200.206 I-1.923 J-2.526
G1 X31.488 Y170.508
G2 X30.598 Y170.388 I-0.505 J0.385
G1 X30.093 Y170.772
X30.014 Y170.832 Z-3.167
X29.937 Y170.891 Z-3.144
X29.863 Y170.947 Z-3.106
X29.796 Y170.998 Z-3.054
X29.736 Y171.044 Z-2.989
X29.684 Y171.083 Z-2.913
X29.643 Y171.115 Z-2.828
X29.612 Y171.138 Z-2.736
X29.594 Y171.152 Z-2.639
X29.588 Y171.157 Z-2.54
G0 Z15.
G0 Z15

M9
M30
