(X8 LATCHING PLATE POCKET)
(T3  D=0.118 CR=0. - ZMIN=-0.16 - FLAT END MILL)
G90 G94 G91.1 G40 G49 G17
G20

(2D POCKET2)
M5
T3 M6
S15000 M3
g4 p5
g0 z.5
G54
M8
G0 X1.7735 Y1.9293
G43 Z0.6 H3
Z0.2
G1 Z0.1118 F40.
X1.772 Y1.9297 Z0.106 F20.
X1.7679 Y1.9304 Z0.1017
X1.7622 Y1.931 Z0.1
G3 X1.7569 Y1.819 Z0.0939 I-0.0027 J-0.056
X1.7622 Y1.931 Z0.0877 I0.0027 J0.056
X1.7569 Y1.819 Z0.0816 I-0.0027 J-0.056
X1.7622 Y1.931 Z0.0754 I0.0027 J0.056
X1.7569 Y1.819 Z0.0693 I-0.0027 J-0.056
X1.7622 Y1.931 Z0.0631 I0.0027 J0.056
X1.7569 Y1.819 Z0.057 I-0.0027 J-0.056
X1.7622 Y1.931 Z0.0508 I0.0027 J0.056
X1.7569 Y1.819 Z0.0447 I-0.0027 J-0.056
X1.7622 Y1.931 Z0.0385 I0.0027 J0.056
X1.7569 Y1.819 Z0.0324 I-0.0027 J-0.056
X1.7622 Y1.931 Z0.0262 I0.0027 J0.056
X1.7569 Y1.819 Z0.0201 I-0.0027 J-0.056
X1.7622 Y1.931 Z0.0139 I0.0027 J0.056
X1.7569 Y1.819 Z0.0078 I-0.0027 J-0.056
X1.7622 Y1.931 Z0.0016 I0.0027 J0.056
X1.7569 Y1.819 Z-0.0045 I-0.0027 J-0.056
X1.7622 Y1.931 Z-0.0107 I0.0027 J0.056
X1.7569 Y1.819 Z-0.0168 I-0.0027 J-0.056
X1.8156 Y1.875 Z-0.02 I0.0027 J0.056
X1.7961 I-0.0098 J0.
X1.816 I0.0099 J0. F40.
X1.684 I-0.066 J0.
X1.816 I0.066 J0.
G1 X1.8158 Y1.8769
X1.8151 Y1.8786
X1.8141 Y1.8802
X1.8127 Y1.8815
X1.8111 Y1.8824
X1.7289 Y1.9166
X1.7271 Y1.9171
X1.7253 Y1.9172
X1.7234 Y1.9169
X1.7217 Y1.9161
X1.7203 Y1.9149
G3 X1.7989 Y1.8351 Z-0.0261 I0.0393 J-0.0399 F20.
X1.7203 Y1.9149 Z-0.0323 I-0.0393 J0.0399
X1.7989 Y1.8351 Z-0.0384 I0.0393 J-0.0399
X1.8156 Y1.875 Z-0.04 I-0.0393 J0.0399
X1.7961 I-0.0098 J0.
X1.816 I0.0099 J0. F40.
X1.684 I-0.066 J0.
X1.816 I0.066 J0.
G1 X1.8158 Y1.8769
X1.8151 Y1.8786
X1.8141 Y1.8802
X1.8127 Y1.8815
X1.8111 Y1.8824
X1.7289 Y1.9166
X1.7271 Y1.9171
X1.7253 Y1.9172
X1.7234 Y1.9169
X1.7217 Y1.9161
X1.7203 Y1.9149
G3 X1.7989 Y1.8351 Z-0.0461 I0.0393 J-0.0399 F20.
X1.7203 Y1.9149 Z-0.0523 I-0.0393 J0.0399
X1.7989 Y1.8351 Z-0.0584 I0.0393 J-0.0399
X1.8156 Y1.875 Z-0.06 I-0.0393 J0.0399
X1.7961 I-0.0098 J0.
X1.816 I0.0099 J0. F40.
X1.684 I-0.066 J0.
X1.816 I0.066 J0.
G1 X1.8158 Y1.8769
X1.8151 Y1.8786
X1.8141 Y1.8802
X1.8127 Y1.8815
X1.8111 Y1.8824
X1.7289 Y1.9166
X1.7271 Y1.9171
X1.7253 Y1.9172
X1.7234 Y1.9169
X1.7217 Y1.9161
X1.7203 Y1.9149
G3 X1.7989 Y1.8351 Z-0.0661 I0.0393 J-0.0399 F20.
X1.7203 Y1.9149 Z-0.0723 I-0.0393 J0.0399
X1.7989 Y1.8351 Z-0.0784 I0.0393 J-0.0399
X1.8156 Y1.875 Z-0.08 I-0.0393 J0.0399
X1.7961 I-0.0098 J0.
X1.816 I0.0099 J0. F40.
X1.684 I-0.066 J0.
X1.816 I0.066 J0.
G1 X1.8158 Y1.8769
X1.8151 Y1.8786
X1.8141 Y1.8802
X1.8127 Y1.8815
X1.8111 Y1.8824
X1.7289 Y1.9166
X1.7271 Y1.9171
X1.7253 Y1.9172
X1.7234 Y1.9169
X1.7217 Y1.9161
X1.7203 Y1.9149
G3 X1.7989 Y1.8351 Z-0.0861 I0.0393 J-0.0399 F20.
X1.7203 Y1.9149 Z-0.0923 I-0.0393 J0.0399
X1.7989 Y1.8351 Z-0.0984 I0.0393 J-0.0399
X1.8156 Y1.875 Z-0.1 I-0.0393 J0.0399
X1.7961 I-0.0098 J0.
X1.816 I0.0099 J0. F40.
X1.684 I-0.066 J0.
X1.816 I0.066 J0.
G1 X1.8158 Y1.8769
X1.8151 Y1.8786
X1.8141 Y1.8802
X1.8127 Y1.8815
X1.8111 Y1.8824
X1.7289 Y1.9166
X1.7271 Y1.9171
X1.7253 Y1.9172
X1.7234 Y1.9169
X1.7217 Y1.9161
X1.7203 Y1.9149
G3 X1.7989 Y1.8351 Z-0.1061 I0.0393 J-0.0399 F20.
X1.7203 Y1.9149 Z-0.1123 I-0.0393 J0.0399
X1.7989 Y1.8351 Z-0.1184 I0.0393 J-0.0399
X1.8156 Y1.875 Z-0.12 I-0.0393 J0.0399
X1.7961 I-0.0098 J0.
X1.816 I0.0099 J0. F40.
X1.684 I-0.066 J0.
X1.816 I0.066 J0.
G1 X1.8158 Y1.8769
X1.8151 Y1.8786
X1.8141 Y1.8802
X1.8127 Y1.8815
X1.8111 Y1.8824
X1.7289 Y1.9166
X1.7271 Y1.9171
X1.7253 Y1.9172
X1.7234 Y1.9169
X1.7217 Y1.9161
X1.7203 Y1.9149
G3 X1.7989 Y1.8351 Z-0.1261 I0.0393 J-0.0399 F20.
X1.7203 Y1.9149 Z-0.1323 I-0.0393 J0.0399
X1.7989 Y1.8351 Z-0.1384 I0.0393 J-0.0399
X1.8156 Y1.875 Z-0.14 I-0.0393 J0.0399
X1.7961 I-0.0098 J0.
X1.816 I0.0099 J0. F40.
X1.684 I-0.066 J0.
X1.816 I0.066 J0.
G1 X1.8158 Y1.8769
X1.8151 Y1.8786
X1.8141 Y1.8802
X1.8127 Y1.8815
X1.8111 Y1.8824
X1.7289 Y1.9166
X1.7271 Y1.9171
X1.7253 Y1.9172
X1.7234 Y1.9169
X1.7217 Y1.9161
X1.7203 Y1.9149
G3 X1.7989 Y1.8351 Z-0.1461 I0.0393 J-0.0399 F20.
X1.7203 Y1.9149 Z-0.1523 I-0.0393 J0.0399
X1.7989 Y1.8351 Z-0.1584 I0.0393 J-0.0399
X1.8156 Y1.875 Z-0.16 I-0.0393 J0.0399
X1.7961 I-0.0098 J0.
X1.816 I0.0099 J0. F40.
X1.684 I-0.066 J0.
X1.816 I0.066 J0.
G1 X1.8158 Y1.8772 Z-0.1596
X1.8151 Y1.8794 Z-0.1591
X1.8143 Y1.8811 Z-0.1578
X1.8132 Y1.8827 Z-0.1565
X1.8113 Y1.8844 Z-0.1527
X1.8106 Y1.8849 Z-0.1482
G0 Z0.6
g0 x0 y0

M9
M30
