(X8 RAMP GUIDE POCKET)
(T3  D=0.118 CR=0. - ZMIN=-0.27 - FLAT END MILL)
G90 G94 G91.1 G40 G49 G17
G20

(2D POCKET1)
M5
T3 M6
S15000 M3
g4 p5
G54
M8
G0 X1.5768 Y17.5868
G43 Z0.6 H3
Z0.2
G1 Z0.1118 F40.
X1.5778 Y17.5879 Z0.106 F20.
X1.5805 Y17.5912 Z0.1017
X1.5836 Y17.5959 Z0.1
G3 X1.4875 Y17.6535 Z0.0939 I-0.0481 J0.0288
X1.5836 Y17.5959 Z0.0877 I0.0481 J-0.0288
X1.4875 Y17.6535 Z0.0816 I-0.0481 J0.0288
X1.5836 Y17.5959 Z0.0754 I0.0481 J-0.0288
X1.4875 Y17.6535 Z0.0693 I-0.0481 J0.0288
X1.5836 Y17.5959 Z0.0631 I0.0481 J-0.0288
X1.4875 Y17.6535 Z0.057 I-0.0481 J0.0288
X1.5836 Y17.5959 Z0.0508 I0.0481 J-0.0288
X1.4875 Y17.6535 Z0.0447 I-0.0481 J0.0288
X1.5836 Y17.5959 Z0.0385 I0.0481 J-0.0288
X1.4875 Y17.6535 Z0.0324 I-0.0481 J0.0288
X1.5836 Y17.5959 Z0.0262 I0.0481 J-0.0288
X1.4875 Y17.6535 Z0.0201 I-0.0481 J0.0288
X1.5836 Y17.5959 Z0.0139 I0.0481 J-0.0288
X1.4875 Y17.6535 Z0.0078 I-0.0481 J0.0288
X1.5836 Y17.5959 Z0.0016 I0.0481 J-0.0288
X1.4875 Y17.6535 Z-0.0045 I-0.0481 J0.0288
X1.5836 Y17.5959 Z-0.0107 I0.0481 J-0.0288
X1.4875 Y17.6535 Z-0.0168 I-0.0481 J0.0288
X1.5836 Y17.5959 Z-0.023 I0.0481 J-0.0288
X1.4875 Y17.6535 Z-0.0291 I-0.0481 J0.0288
X1.5836 Y17.5959 Z-0.0353 I0.0481 J-0.0288
X1.4875 Y17.6535 Z-0.0414 I-0.0481 J0.0288
X1.5836 Y17.5959 Z-0.0476 I0.0481 J-0.0288
X1.4875 Y17.6535 Z-0.0537 I-0.0481 J0.0288
X1.5836 Y17.5959 Z-0.0599 I0.0481 J-0.0288
X1.4875 Y17.6535 Z-0.066 I-0.0481 J0.0288
X1.5836 Y17.5959 Z-0.0722 I0.0481 J-0.0288
X1.4875 Y17.6535 Z-0.0783 I-0.0481 J0.0288
X1.5836 Y17.5959 Z-0.0845 I0.0481 J-0.0288
X1.4875 Y17.6535 Z-0.0906 I-0.0481 J0.0288
X1.5836 Y17.5959 Z-0.0968 I0.0481 J-0.0288
X1.4875 Y17.6535 Z-0.1029 I-0.0481 J0.0288
X1.5836 Y17.5959 Z-0.1091 I0.0481 J-0.0288
X1.4875 Y17.6535 Z-0.1152 I-0.0481 J0.0288
X1.5836 Y17.5959 Z-0.1214 I0.0481 J-0.0288
X1.4875 Y17.6535 Z-0.1275 I-0.0481 J0.0288
X1.5836 Y17.5959 Z-0.1337 I0.0481 J-0.0288
X1.4875 Y17.6535 Z-0.1398 I-0.0481 J0.0288
X1.5836 Y17.5959 Z-0.146 I0.0481 J-0.0288
X1.4875 Y17.6535 Z-0.1521 I-0.0481 J0.0288
X1.5836 Y17.5959 Z-0.1583 I0.0481 J-0.0288
X1.4875 Y17.6535 Z-0.1644 I-0.0481 J0.0288
X1.5836 Y17.5959 Z-0.1706 I0.0481 J-0.0288
X1.4875 Y17.6535 Z-0.1767 I-0.0481 J0.0288
X1.5836 Y17.5959 Z-0.1829 I0.0481 J-0.0288
X1.4875 Y17.6535 Z-0.189 I-0.0481 J0.0288
X1.5836 Y17.5959 Z-0.1952 I0.0481 J-0.0288
X1.4875 Y17.6535 Z-0.2013 I-0.0481 J0.0288
X1.5836 Y17.5959 Z-0.2075 I0.0481 J-0.0288
X1.4875 Y17.6535 Z-0.2136 I-0.0481 J0.0288
X1.5836 Y17.5959 Z-0.2198 I0.0481 J-0.0288
X1.4875 Y17.6535 Z-0.2259 I-0.0481 J0.0288
X1.5836 Y17.5959 Z-0.232 I0.0481 J-0.0288
X1.4875 Y17.6535 Z-0.2382 I-0.0481 J0.0288
X1.5836 Y17.5959 Z-0.2443 I0.0481 J-0.0288
X1.4875 Y17.6535 Z-0.2505 I-0.0481 J0.0288
X1.5836 Y17.5959 Z-0.2566 I0.0481 J-0.0288
X1.4875 Y17.6535 Z-0.2628 I-0.0481 J0.0288
X1.5836 Y17.5959 Z-0.2689 I0.0481 J-0.0288
X1.5916 Y17.6247 Z-0.27 I-0.0481 J0.0288
X1.5274 I-0.0321 J0. F40.
X1.7037 I0.0882 J0.
X1.4153 I-0.1442 J0.
X1.8158 I0.2003 J0.
X1.3032 I-0.2563 J0.
X1.9279 I0.3124 J0.
X1.1911 I-0.3684 J0.
X2.04 I0.4245 J0.
X1.079 I-0.4805 J0.
X2.04 I0.4805 J0.
G1 X2.0398 Y17.627 Z-0.2696
X2.0391 Y17.6291 Z-0.2691
X2.0383 Y17.6308 Z-0.2678
X2.0372 Y17.6324 Z-0.2665
X2.0353 Y17.6341 Z-0.2627
X2.0346 Y17.6347 Z-0.2582
G0 Z0.6
g0 x0 y0

M9
M30
