(AIR TANK INTERIOR CONTOUR)
(T1  D=0.25 CR=0. - ZMIN=-0.77 - FLAT END MILL)
G90 G94 G91.1 G40 G49 G17
G20

(2D CONTOUR1)
M5
T1 M6
S15000 M3
g4 p5
g0 z.5
G54
M8
G0 X7.3233 Y4.475
G43 Z0.6 H1
Z0.2
G1 Z-0.175 F13.3
G18 G2 X7.3483 Z-0.2 I0.025 K0. F60.
G1 X7.3733
G17 G3 X7.3983 Y4.5 I0. J0.025
X1.6017 I-2.8983 J0.
X7.3983 I2.8983 J0.
X7.3733 Y4.525 I-0.025 J0.
G1 X7.3483
G18 G3 X7.3233 Z-0.175 I0. K0.025
G0 Z0.2
Y4.475
G1 Z0. F13.3
Z-0.375
G2 X7.3483 Z-0.4 I0.025 K0. F60.
G1 X7.3733
G17 G3 X7.3983 Y4.5 I0. J0.025
X1.6017 I-2.8983 J0.
X7.3983 I2.8983 J0.
X7.3733 Y4.525 I-0.025 J0.
G1 X7.3483
G18 G3 X7.3233 Z-0.375 I0. K0.025
G0 Z0.2
Y4.475
G1 Z-0.2 F13.3
Z-0.575
G2 X7.3483 Z-0.6 I0.025 K0. F60.
G1 X7.3733
G17 G3 X7.3983 Y4.5 I0. J0.025
X1.6017 I-2.8983 J0.
X7.3983 I2.8983 J0.
X7.3733 Y4.525 I-0.025 J0.
G1 X7.3483
G18 G3 X7.3233 Z-0.575 I0. K0.025
G0 Z0.2
Y4.475
G1 Z-0.4 F13.3
Z-0.745
G2 X7.3483 Z-0.77 I0.025 K0. F60.
G1 X7.3733
G17 G3 X7.3983 Y4.5 I0. J0.025
X1.6017 I-2.8983 J0.
X7.3983 I2.8983 J0.
X7.3733 Y4.525 I-0.025 J0.
G1 X7.3483
G18 G3 X7.3233 Z-0.745 I0. K0.025
G0 Z0.6
G17

M9
M30
