(X8 TURRET RACEWAY 3 CONTOUR)
(T3  D=0.118 CR=0. - ZMIN=-0.99 - FLAT END MILL)
G90 G94 G91.1 G40 G49 G17
G20

(2D CONTOUR1)
M5
T3 M6
S15000 M3
G54
M8
G0 X1.7329 Y8.1119
G43 Z0.6 H3
Z0.2
G1 Z0.1394 F20.
Z0.1118
X1.7326 Y8.1117 Z0.1092 F40.
X1.7318 Y8.1113 Z0.1067
X1.7306 Y8.1106 Z0.1044
X1.729 Y8.1097 Z0.1026
X1.727 Y8.1086 Z0.1012
X1.7249 Y8.1074 Z0.1003
X1.7226 Y8.1061 Z0.1
X1.7123 Y8.1004
G3 X1.7078 Y8.0843 I0.0058 J-0.0103
G1 X2.6447 Y6.4126 Z0.0331 F20.
G2 X3.7636 Y2.7991 Z-0.1 I-7.8947 J-4.4247
X3.7361 Y0.9145 I-9.0136 J-0.8111 F40.
X3.6673 Y0.8634 I-0.0586 J0.007
G1 X3.5438 Y0.8852
G3 X3.4674 Y0.8317 I-0.0115 J-0.065
G1 X3.3371 Y0.093
G2 X3.124 Y-0.0562 I-0.1812 J0.0319
G1 X3.0005 Y-0.0344
G2 X2.9533 Y0.0373 I0.0102 J0.0581
G3 X2.1056 Y6.1105 I-8.2033 J1.9507
G1 X-0.0515 Y9.9591
G2 X0. Y10.047 I0.0515 J0.0288
G1 X0.5732
G2 X0.6246 Y10.0168 I0. J-0.059
G1 X2.6447 Y6.4126
G2 X3.7636 Y2.7991 I-7.8947 J-4.4247
X3.7361 Y0.9145 Z-0.1659 I-9.0136 J-0.8111 F20.
X3.6673 Y0.8634 Z-0.1693 I-0.0586 J0.007
G1 X3.5438 Y0.8852 Z-0.1737
G3 X3.4674 Y0.8317 Z-0.1773 I-0.0115 J-0.065
G1 X3.3544 Y0.1911 Z-0.2
X3.3371 Y0.093 F40.
G2 X3.124 Y-0.0562 I-0.1812 J0.0319
G1 X3.0005 Y-0.0344
G2 X2.9533 Y0.0373 I0.0102 J0.0581
G3 X2.1056 Y6.1105 I-8.2033 J1.9507
G1 X-0.0515 Y9.9591
G2 X0. Y10.047 I0.0515 J0.0288
G1 X0.5732
G2 X0.6246 Y10.0168 I0. J-0.059
G1 X2.6447 Y6.4126
G2 X3.7361 Y0.9145 I-7.8947 J-4.4247
X3.6673 Y0.8634 I-0.0586 J0.007
G1 X3.5438 Y0.8852
G3 X3.4674 Y0.8317 I-0.0115 J-0.065
G1 X3.3544 Y0.1911
X3.3371 Y0.093 Z-0.2035 F20.
G2 X3.124 Y-0.0562 Z-0.2136 I-0.1812 J0.0319
G1 X3.0005 Y-0.0344 Z-0.218
G2 X2.9533 Y0.0373 Z-0.2213 I0.0102 J0.0581
G3 X3.1772 Y2.2729 Z-0.3 I-8.2033 J1.9507
X2.1056 Y6.1105 I-8.4272 J-0.2849 F40.
G1 X-0.0515 Y9.9591
G2 X0. Y10.047 I0.0515 J0.0288
G1 X0.5732
G2 X0.6246 Y10.0168 I0. J-0.059
G1 X2.6447 Y6.4126
G2 X3.7361 Y0.9145 I-7.8947 J-4.4247
X3.6673 Y0.8634 I-0.0586 J0.007
G1 X3.5438 Y0.8852
G3 X3.4674 Y0.8317 I-0.0115 J-0.065
G1 X3.3544 Y0.1911
X3.3371 Y0.093
G2 X3.124 Y-0.0562 I-0.1812 J0.0319
G1 X3.0005 Y-0.0344
G2 X2.9533 Y0.0373 I0.0102 J0.0581
G3 X3.1772 Y2.2729 I-8.2033 J1.9507
X2.601 Y5.0639 Z-0.4 I-8.4272 J-0.2849 F20.
X2.1056 Y6.1105 I-7.851 J-3.0759 F40.
G1 X-0.0515 Y9.9591
G2 X0. Y10.047 I0.0515 J0.0288
G1 X0.5732
G2 X0.6246 Y10.0168 I0. J-0.059
G1 X2.6447 Y6.4126
G2 X3.7361 Y0.9145 I-7.8947 J-4.4247
X3.6673 Y0.8634 I-0.0586 J0.007
G1 X3.5438 Y0.8852
G3 X3.4674 Y0.8317 I-0.0115 J-0.065
G1 X3.3371 Y0.093
G2 X3.124 Y-0.0562 I-0.1812 J0.0319
G1 X3.0005 Y-0.0344
G2 X2.9533 Y0.0373 I0.0102 J0.0581
G3 X2.601 Y5.0639 I-8.2033 J1.9507
X2.1056 Y6.1105 Z-0.4405 I-7.851 J-3.0759 F20.
G1 X1.2721 Y7.5976 Z-0.5
X-0.0515 Y9.9591 F40.
G2 X0. Y10.047 I0.0515 J0.0288
G1 X0.5732
G2 X0.6246 Y10.0168 I0. J-0.059
G1 X2.6447 Y6.4126
G2 X3.7361 Y0.9145 I-7.8947 J-4.4247
X3.6673 Y0.8634 I-0.0586 J0.007
G1 X3.5438 Y0.8852
G3 X3.4674 Y0.8317 I-0.0115 J-0.065
G1 X3.3371 Y0.093
G2 X3.124 Y-0.0562 I-0.1812 J0.0319
G1 X3.0005 Y-0.0344
G2 X2.9533 Y0.0373 I0.0102 J0.0581
G3 X2.1056 Y6.1105 I-8.2033 J1.9507
G1 X1.2721 Y7.5976
X-0.0515 Y9.9591 Z-0.5945 F20.
G2 X0. Y10.047 Z-0.5988 I0.0515 J0.0288
G1 X0.0337 Z-0.6
X0.5732 F40.
G2 X0.6246 Y10.0168 I0. J-0.059
G1 X2.6447 Y6.4126
G2 X3.7361 Y0.9145 I-7.8947 J-4.4247
X3.6673 Y0.8634 I-0.0586 J0.007
G1 X3.5438 Y0.8852
G3 X3.4674 Y0.8317 I-0.0115 J-0.065
G1 X3.3371 Y0.093
G2 X3.124 Y-0.0562 I-0.1812 J0.0319
G1 X3.0005 Y-0.0344
G2 X2.9533 Y0.0373 I0.0102 J0.0581
G3 X2.1056 Y6.1105 I-8.2033 J1.9507
G1 X-0.0515 Y9.9591
G2 X0. Y10.047 I0.0515 J0.0288
G1 X0.0337
X0.5732 Z-0.6188 F20.
G2 X0.6246 Y10.0168 Z-0.621 I0. J-0.059
G1 X1.7304 Y8.044 Z-0.7
X2.6447 Y6.4126 F40.
G2 X3.7361 Y0.9145 I-7.8947 J-4.4247
X3.6673 Y0.8634 I-0.0586 J0.007
G1 X3.5438 Y0.8852
G3 X3.4674 Y0.8317 I-0.0115 J-0.065
G1 X3.3371 Y0.093
G2 X3.124 Y-0.0562 I-0.1812 J0.0319
G1 X3.0005 Y-0.0344
G2 X2.9533 Y0.0373 I0.0102 J0.0581
G3 X2.1056 Y6.1105 I-8.2033 J1.9507
G1 X-0.0515 Y9.9591
G2 X0. Y10.047 I0.0515 J0.0288
G1 X0.5732
G2 X0.6246 Y10.0168 I0. J-0.059
G1 X1.7304 Y8.044
X2.6447 Y6.4126 Z-0.7653 F20.
G2 X3.0819 Y5.521 Z-0.8 I-7.8947 J-4.4247
X3.7361 Y0.9145 I-8.3319 J-3.533 F40.
X3.6673 Y0.8634 I-0.0586 J0.007
G1 X3.5438 Y0.8852
G3 X3.4674 Y0.8317 I-0.0115 J-0.065
G1 X3.3371 Y0.093
G2 X3.124 Y-0.0562 I-0.1812 J0.0319
G1 X3.0005 Y-0.0344
G2 X2.9533 Y0.0373 I0.0102 J0.0581
G3 X2.1056 Y6.1105 I-8.2033 J1.9507
G1 X-0.0515 Y9.9591
G2 X0. Y10.047 I0.0515 J0.0288
G1 X0.5732
G2 X0.6246 Y10.0168 I0. J-0.059
G1 X1.7304 Y8.044
X2.6447 Y6.4126
G2 X3.0819 Y5.521 I-7.8947 J-4.4247
X3.7676 Y2.753 Z-0.9 I-8.3319 J-3.533 F20.
X3.7361 Y0.9145 I-9.0176 J-0.765 F40.
X3.6673 Y0.8634 I-0.0586 J0.007
G1 X3.5438 Y0.8852
G3 X3.4674 Y0.8317 I-0.0115 J-0.065
G1 X3.3371 Y0.093
G2 X3.124 Y-0.0562 I-0.1812 J0.0319
G1 X3.0005 Y-0.0344
G2 X2.9533 Y0.0373 I0.0102 J0.0581
G3 X2.1056 Y6.1105 I-8.2033 J1.9507
G1 X-0.0515 Y9.9591
G2 X0. Y10.047 I0.0515 J0.0288
G1 X0.5732
G2 X0.6246 Y10.0168 I0. J-0.059
G1 X2.6447 Y6.4126
G2 X3.7676 Y2.753 I-7.8947 J-4.4247
X3.7361 Y0.9145 Z-0.9643 I-9.0176 J-0.765 F20.
X3.6673 Y0.8634 Z-0.9677 I-0.0586 J0.007
G1 X3.5438 Y0.8852 Z-0.9721
G3 X3.4674 Y0.8317 Z-0.9757 I-0.0115 J-0.065
G1 X3.3961 Y0.4276 Z-0.99
X3.3371 Y0.093 F40.
G2 X3.124 Y-0.0562 I-0.1812 J0.0319
G1 X3.0005 Y-0.0344
G2 X2.9533 Y0.0373 I0.0102 J0.0581
G3 X2.1056 Y6.1105 I-8.2033 J1.9507
G1 X-0.0515 Y9.9591
G2 X0. Y10.047 I0.0515 J0.0288
G1 X0.5732
G2 X0.6246 Y10.0168 I0. J-0.059
G1 X2.6447 Y6.4126
G2 X3.7361 Y0.9145 I-7.8947 J-4.4247
X3.6673 Y0.8634 I-0.0586 J0.007
G1 X3.5438 Y0.8852
G3 X3.4674 Y0.8317 I-0.0115 J-0.065
G1 X3.3961 Y0.4276
G3 X3.4057 Y0.4139 I0.0116 J-0.002
G1 X3.4173 Y0.4119
X3.4199 Y0.4114 Z-0.9897
X3.4223 Y0.411 Z-0.9888
X3.4245 Y0.4106 Z-0.9874
X3.4264 Y0.4103 Z-0.9856
X3.4278 Y0.41 Z-0.9833
X3.4286 Y0.4099 Z-0.9808
X3.4289 Y0.4098 Z-0.9782
G0 Z0.6

M9
M30
