(X8 STATIC HOOK COMPLETE)
(T3  D=0.118 CR=0. - ZMIN=-0.165 - FLAT END MILL)
G90 G94 G91.1 G40 G49 G17
G20

(2D POCKET1)
M5
T3 M6
S15000 M3
G54
M8
G0 X2.4138 Y4.2963
G43 Z0.64 H3
Z0.24
G1 Z0.1518 F40.
X2.4136 Y4.2975 Z0.1465 F20.
X2.4129 Y4.2991 Z0.1444
X2.4118 Y4.3004 Z0.1424
X2.4104 Y4.3011 Z0.1415
X2.4088 Y4.3014 Z0.1407
X2.4071 Y4.3011 Z0.1403
X2.4056 Y4.3002 Z0.14
G3 X2.412 Y4.2925 Z0.1395 I0.0032 J-0.0038
X2.4056 Y4.3002 Z0.1389 I-0.0032 J0.0038
X2.412 Y4.2925 Z0.1384 I0.0032 J-0.0038
X2.4056 Y4.3002 Z0.1378 I-0.0032 J0.0038
X2.412 Y4.2925 Z0.1373 I0.0032 J-0.0038
X2.4056 Y4.3002 Z0.1367 I-0.0032 J0.0038
X2.412 Y4.2925 Z0.1362 I0.0032 J-0.0038
X2.4056 Y4.3002 Z0.1356 I-0.0032 J0.0038
X2.412 Y4.2925 Z0.1351 I0.0032 J-0.0038
X2.4056 Y4.3002 Z0.1345 I-0.0032 J0.0038
X2.412 Y4.2925 Z0.134 I0.0032 J-0.0038
X2.4056 Y4.3002 Z0.1334 I-0.0032 J0.0038
X2.412 Y4.2925 Z0.1329 I0.0032 J-0.0038
X2.4056 Y4.3002 Z0.1323 I-0.0032 J0.0038
X2.412 Y4.2925 Z0.1318 I0.0032 J-0.0038
X2.4056 Y4.3002 Z0.1312 I-0.0032 J0.0038
X2.412 Y4.2925 Z0.1307 I0.0032 J-0.0038
X2.4056 Y4.3002 Z0.1301 I-0.0032 J0.0038
X2.412 Y4.2925 Z0.1296 I0.0032 J-0.0038
X2.4056 Y4.3002 Z0.129 I-0.0032 J0.0038
X2.412 Y4.2925 Z0.1285 I0.0032 J-0.0038
X2.4056 Y4.3002 Z0.1279 I-0.0032 J0.0038
X2.412 Y4.2925 Z0.1274 I0.0032 J-0.0038
X2.4056 Y4.3002 Z0.1268 I-0.0032 J0.0038
X2.412 Y4.2925 Z0.1263 I0.0032 J-0.0038
X2.4056 Y4.3002 Z0.1257 I-0.0032 J0.0038
X2.412 Y4.2925 Z0.1252 I0.0032 J-0.0038
X2.4056 Y4.3002 Z0.1246 I-0.0032 J0.0038
X2.412 Y4.2925 Z0.1241 I0.0032 J-0.0038
X2.4056 Y4.3002 Z0.1235 I-0.0032 J0.0038
X2.412 Y4.2925 Z0.123 I0.0032 J-0.0038
X2.4056 Y4.3002 Z0.1224 I-0.0032 J0.0038
X2.412 Y4.2925 Z0.1219 I0.0032 J-0.0038
X2.4056 Y4.3002 Z0.1213 I-0.0032 J0.0038
X2.412 Y4.2925 Z0.1208 I0.0032 J-0.0038
X2.4056 Y4.3002 Z0.1203 I-0.0032 J0.0038
X2.412 Y4.2925 Z0.1197 I0.0032 J-0.0038
X2.4056 Y4.3002 Z0.1192 I-0.0032 J0.0038
X2.412 Y4.2925 Z0.1186 I0.0032 J-0.0038
X2.4056 Y4.3002 Z0.1181 I-0.0032 J0.0038
X2.412 Y4.2925 Z0.1175 I0.0032 J-0.0038
X2.4056 Y4.3002 Z0.117 I-0.0032 J0.0038
X2.412 Y4.2925 Z0.1164 I0.0032 J-0.0038
X2.4056 Y4.3002 Z0.1159 I-0.0032 J0.0038
X2.412 Y4.2925 Z0.1153 I0.0032 J-0.0038
X2.4056 Y4.3002 Z0.1148 I-0.0032 J0.0038
X2.412 Y4.2925 Z0.1142 I0.0032 J-0.0038
X2.4056 Y4.3002 Z0.1137 I-0.0032 J0.0038
X2.412 Y4.2925 Z0.1131 I0.0032 J-0.0038
X2.4056 Y4.3002 Z0.1126 I-0.0032 J0.0038
X2.412 Y4.2925 Z0.112 I0.0032 J-0.0038
X2.4056 Y4.3002 Z0.1115 I-0.0032 J0.0038
X2.412 Y4.2925 Z0.1109 I0.0032 J-0.0038
X2.4056 Y4.3002 Z0.1104 I-0.0032 J0.0038
X2.412 Y4.2925 Z0.1098 I0.0032 J-0.0038
X2.4056 Y4.3002 Z0.1093 I-0.0032 J0.0038
X2.412 Y4.2925 Z0.1087 I0.0032 J-0.0038
X2.4056 Y4.3002 Z0.1082 I-0.0032 J0.0038
X2.412 Y4.2925 Z0.1076 I0.0032 J-0.0038
X2.4056 Y4.3002 Z0.1071 I-0.0032 J0.0038
X2.412 Y4.2925 Z0.1065 I0.0032 J-0.0038
X2.4056 Y4.3002 Z0.106 I-0.0032 J0.0038
X2.412 Y4.2925 Z0.1054 I0.0032 J-0.0038
X2.4056 Y4.3002 Z0.1049 I-0.0032 J0.0038
X2.412 Y4.2925 Z0.1043 I0.0032 J-0.0038
X2.4056 Y4.3002 Z0.1038 I-0.0032 J0.0038
X2.412 Y4.2925 Z0.1032 I0.0032 J-0.0038
X2.4056 Y4.3002 Z0.1027 I-0.0032 J0.0038
X2.412 Y4.2925 Z0.1022 I0.0032 J-0.0038
X2.4056 Y4.3002 Z0.1016 I-0.0032 J0.0038
X2.412 Y4.2925 Z0.1011 I0.0032 J-0.0038
X2.4056 Y4.3002 Z0.1005 I-0.0032 J0.0038
X2.412 Y4.2925 Z0.1 I0.0032 J-0.0038
X2.4056 Y4.3002 Z0.0994 I-0.0032 J0.0038
X2.412 Y4.2925 Z0.0989 I0.0032 J-0.0038
X2.4056 Y4.3002 Z0.0983 I-0.0032 J0.0038
X2.412 Y4.2925 Z0.0978 I0.0032 J-0.0038
X2.4056 Y4.3002 Z0.0972 I-0.0032 J0.0038
X2.412 Y4.2925 Z0.0967 I0.0032 J-0.0038
X2.4056 Y4.3002 Z0.0961 I-0.0032 J0.0038
X2.412 Y4.2925 Z0.0956 I0.0032 J-0.0038
X2.4056 Y4.3002 Z0.095 I-0.0032 J0.0038
X2.412 Y4.2925 Z0.0945 I0.0032 J-0.0038
X2.4056 Y4.3002 Z0.0939 I-0.0032 J0.0038
X2.412 Y4.2925 Z0.0934 I0.0032 J-0.0038
X2.4056 Y4.3002 Z0.0928 I-0.0032 J0.0038
X2.412 Y4.2925 Z0.0923 I0.0032 J-0.0038
X2.4056 Y4.3002 Z0.0917 I-0.0032 J0.0038
X2.412 Y4.2925 Z0.0912 I0.0032 J-0.0038
X2.4056 Y4.3002 Z0.0906 I-0.0032 J0.0038
X2.412 Y4.2925 Z0.0901 I0.0032 J-0.0038
X2.4056 Y4.3002 Z0.0895 I-0.0032 J0.0038
X2.412 Y4.2925 Z0.089 I0.0032 J-0.0038
X2.4056 Y4.3002 Z0.0884 I-0.0032 J0.0038
X2.412 Y4.2925 Z0.0879 I0.0032 J-0.0038
X2.4056 Y4.3002 Z0.0873 I-0.0032 J0.0038
X2.412 Y4.2925 Z0.0868 I0.0032 J-0.0038
X2.4056 Y4.3002 Z0.0862 I-0.0032 J0.0038
X2.412 Y4.2925 Z0.0857 I0.0032 J-0.0038
X2.4056 Y4.3002 Z0.0851 I-0.0032 J0.0038
X2.412 Y4.2925 Z0.0846 I0.0032 J-0.0038
X2.4056 Y4.3002 Z0.084 I-0.0032 J0.0038
X2.412 Y4.2925 Z0.0835 I0.0032 J-0.0038
X2.4056 Y4.3002 Z0.083 I-0.0032 J0.0038
X2.412 Y4.2925 Z0.0824 I0.0032 J-0.0038
X2.4056 Y4.3002 Z0.0819 I-0.0032 J0.0038
X2.412 Y4.2925 Z0.0813 I0.0032 J-0.0038
X2.4056 Y4.3002 Z0.0808 I-0.0032 J0.0038
X2.412 Y4.2925 Z0.0802 I0.0032 J-0.0038
X2.4056 Y4.3002 Z0.0797 I-0.0032 J0.0038
X2.412 Y4.2925 Z0.0791 I0.0032 J-0.0038
X2.4056 Y4.3002 Z0.0786 I-0.0032 J0.0038
X2.412 Y4.2925 Z0.078 I0.0032 J-0.0038
X2.4056 Y4.3002 Z0.0775 I-0.0032 J0.0038
X2.412 Y4.2925 Z0.0769 I0.0032 J-0.0038
X2.4056 Y4.3002 Z0.0764 I-0.0032 J0.0038
X2.412 Y4.2925 Z0.0758 I0.0032 J-0.0038
X2.4056 Y4.3002 Z0.0753 I-0.0032 J0.0038
X2.412 Y4.2925 Z0.0747 I0.0032 J-0.0038
X2.4056 Y4.3002 Z0.0742 I-0.0032 J0.0038
X2.412 Y4.2925 Z0.0736 I0.0032 J-0.0038
X2.4056 Y4.3002 Z0.0731 I-0.0032 J0.0038
X2.412 Y4.2925 Z0.0725 I0.0032 J-0.0038
X2.4056 Y4.3002 Z0.072 I-0.0032 J0.0038
X2.412 Y4.2925 Z0.0714 I0.0032 J-0.0038
X2.4056 Y4.3002 Z0.0709 I-0.0032 J0.0038
X2.412 Y4.2925 Z0.0703 I0.0032 J-0.0038
X2.4056 Y4.3002 Z0.0698 I-0.0032 J0.0038
X2.412 Y4.2925 Z0.0692 I0.0032 J-0.0038
X2.4056 Y4.3002 Z0.0687 I-0.0032 J0.0038
X2.412 Y4.2925 Z0.0681 I0.0032 J-0.0038
X2.4056 Y4.3002 Z0.0676 I-0.0032 J0.0038
X2.412 Y4.2925 Z0.067 I0.0032 J-0.0038
X2.4056 Y4.3002 Z0.0665 I-0.0032 J0.0038
X2.412 Y4.2925 Z0.0659 I0.0032 J-0.0038
X2.4056 Y4.3002 Z0.0654 I-0.0032 J0.0038
X2.412 Y4.2925 Z0.0649 I0.0032 J-0.0038
X2.4056 Y4.3002 Z0.0643 I-0.0032 J0.0038
X2.412 Y4.2925 Z0.0638 I0.0032 J-0.0038
X2.4056 Y4.3002 Z0.0632 I-0.0032 J0.0038
X2.412 Y4.2925 Z0.0627 I0.0032 J-0.0038
X2.4056 Y4.3002 Z0.0621 I-0.0032 J0.0038
X2.412 Y4.2925 Z0.0616 I0.0032 J-0.0038
X2.4056 Y4.3002 Z0.061 I-0.0032 J0.0038
X2.412 Y4.2925 Z0.0605 I0.0032 J-0.0038
X2.4056 Y4.3002 Z0.0599 I-0.0032 J0.0038
X2.412 Y4.2925 Z0.0594 I0.0032 J-0.0038
X2.4056 Y4.3002 Z0.0588 I-0.0032 J0.0038
X2.412 Y4.2925 Z0.0583 I0.0032 J-0.0038
X2.4056 Y4.3002 Z0.0577 I-0.0032 J0.0038
X2.412 Y4.2925 Z0.0572 I0.0032 J-0.0038
X2.4056 Y4.3002 Z0.0566 I-0.0032 J0.0038
X2.412 Y4.2925 Z0.0561 I0.0032 J-0.0038
X2.4056 Y4.3002 Z0.0555 I-0.0032 J0.0038
X2.412 Y4.2925 Z0.055 I0.0032 J-0.0038
X2.4056 Y4.3002 Z0.0544 I-0.0032 J0.0038
X2.412 Y4.2925 Z0.0539 I0.0032 J-0.0038
X2.4056 Y4.3002 Z0.0533 I-0.0032 J0.0038
X2.412 Y4.2925 Z0.0528 I0.0032 J-0.0038
X2.4056 Y4.3002 Z0.0522 I-0.0032 J0.0038
X2.412 Y4.2925 Z0.0517 I0.0032 J-0.0038
X2.4056 Y4.3002 Z0.0511 I-0.0032 J0.0038
X2.412 Y4.2925 Z0.0506 I0.0032 J-0.0038
X2.4056 Y4.3002 Z0.05 I-0.0032 J0.0038
X2.412 Y4.2925 Z0.0495 I0.0032 J-0.0038
X2.4056 Y4.3002 Z0.0489 I-0.0032 J0.0038
X2.412 Y4.2925 Z0.0484 I0.0032 J-0.0038
X2.4056 Y4.3002 Z0.0478 I-0.0032 J0.0038
X2.412 Y4.2925 Z0.0473 I0.0032 J-0.0038
X2.4056 Y4.3002 Z0.0467 I-0.0032 J0.0038
X2.412 Y4.2925 Z0.0462 I0.0032 J-0.0038
X2.4056 Y4.3002 Z0.0457 I-0.0032 J0.0038
X2.412 Y4.2925 Z0.0451 I0.0032 J-0.0038
X2.4056 Y4.3002 Z0.0446 I-0.0032 J0.0038
X2.412 Y4.2925 Z0.044 I0.0032 J-0.0038
X2.4056 Y4.3002 Z0.0435 I-0.0032 J0.0038
X2.412 Y4.2925 Z0.0429 I0.0032 J-0.0038
X2.4056 Y4.3002 Z0.0424 I-0.0032 J0.0038
X2.412 Y4.2925 Z0.0418 I0.0032 J-0.0038
X2.4056 Y4.3002 Z0.0413 I-0.0032 J0.0038
X2.412 Y4.2925 Z0.0407 I0.0032 J-0.0038
X2.4056 Y4.3002 Z0.0402 I-0.0032 J0.0038
X2.412 Y4.2925 Z0.0396 I0.0032 J-0.0038
X2.4056 Y4.3002 Z0.0391 I-0.0032 J0.0038
X2.412 Y4.2925 Z0.0385 I0.0032 J-0.0038
X2.4056 Y4.3002 Z0.038 I-0.0032 J0.0038
X2.412 Y4.2925 Z0.0374 I0.0032 J-0.0038
X2.4056 Y4.3002 Z0.0369 I-0.0032 J0.0038
X2.412 Y4.2925 Z0.0363 I0.0032 J-0.0038
X2.4056 Y4.3002 Z0.0358 I-0.0032 J0.0038
X2.412 Y4.2925 Z0.0352 I0.0032 J-0.0038
X2.4056 Y4.3002 Z0.0347 I-0.0032 J0.0038
X2.412 Y4.2925 Z0.0341 I0.0032 J-0.0038
X2.4056 Y4.3002 Z0.0336 I-0.0032 J0.0038
X2.412 Y4.2925 Z0.033 I0.0032 J-0.0038
X2.4056 Y4.3002 Z0.0325 I-0.0032 J0.0038
X2.412 Y4.2925 Z0.0319 I0.0032 J-0.0038
X2.4056 Y4.3002 Z0.0314 I-0.0032 J0.0038
X2.412 Y4.2925 Z0.0308 I0.0032 J-0.0038
X2.4056 Y4.3002 Z0.0303 I-0.0032 J0.0038
X2.412 Y4.2925 Z0.0297 I0.0032 J-0.0038
X2.4056 Y4.3002 Z0.0292 I-0.0032 J0.0038
X2.412 Y4.2925 Z0.0286 I0.0032 J-0.0038
X2.4056 Y4.3002 Z0.0281 I-0.0032 J0.0038
X2.412 Y4.2925 Z0.0276 I0.0032 J-0.0038
X2.4056 Y4.3002 Z0.027 I-0.0032 J0.0038
X2.412 Y4.2925 Z0.0265 I0.0032 J-0.0038
X2.4056 Y4.3002 Z0.0259 I-0.0032 J0.0038
X2.412 Y4.2925 Z0.0254 I0.0032 J-0.0038
X2.4056 Y4.3002 Z0.0248 I-0.0032 J0.0038
X2.412 Y4.2925 Z0.0243 I0.0032 J-0.0038
X2.4056 Y4.3002 Z0.0237 I-0.0032 J0.0038
X2.412 Y4.2925 Z0.0232 I0.0032 J-0.0038
X2.4056 Y4.3002 Z0.0226 I-0.0032 J0.0038
X2.412 Y4.2925 Z0.0221 I0.0032 J-0.0038
X2.4056 Y4.3002 Z0.0215 I-0.0032 J0.0038
X2.4038 Y4.2964 Z0.0214 I0.0032 J-0.0038
X2.4307 I0.0134 J0. F40.
X2.2917 I-0.0695 J0.
X2.4307 I0.0695 J0.
G1 X2.4304 Y4.2973
X2.4298 Y4.2981
X2.429 Y4.2986
X2.428
X2.4172 Y4.2964
X2.4064 Y4.2984
X2.4054 Y4.2983
X2.4045 Y4.2978
X2.4039 Y4.297
X2.4038 Y4.296
G3 X2.4137 Y4.2968 Z0.0208 I0.005 J0.0004 F20.
X2.4038 Y4.296 Z0.0203 I-0.005 J-0.0004
X2.4137 Y4.2968 Z0.0197 I0.005 J0.0004
X2.4038 Y4.296 Z0.0192 I-0.005 J-0.0004
X2.4137 Y4.2968 Z0.0186 I0.005 J0.0004
X2.4038 Y4.296 Z0.0181 I-0.005 J-0.0004
X2.4137 Y4.2968 Z0.0175 I0.005 J0.0004
X2.4038 Y4.296 Z0.017 I-0.005 J-0.0004
X2.4137 Y4.2968 Z0.0164 I0.005 J0.0004
X2.4038 Y4.296 Z0.0159 I-0.005 J-0.0004
X2.4137 Y4.2968 Z0.0153 I0.005 J0.0004
X2.4038 Y4.296 Z0.0148 I-0.005 J-0.0004
X2.4137 Y4.2968 Z0.0142 I0.005 J0.0004
X2.4038 Y4.296 Z0.0137 I-0.005 J-0.0004
X2.4137 Y4.2968 Z0.0131 I0.005 J0.0004
X2.4038 Y4.296 Z0.0126 I-0.005 J-0.0004
X2.4137 Y4.2968 Z0.012 I0.005 J0.0004
X2.4038 Y4.296 Z0.0115 I-0.005 J-0.0004
X2.4137 Y4.2968 Z0.0109 I0.005 J0.0004
X2.4038 Y4.296 Z0.0104 I-0.005 J-0.0004
X2.4137 Y4.2968 Z0.0098 I0.005 J0.0004
X2.4038 Y4.296 Z0.0093 I-0.005 J-0.0004
X2.4137 Y4.2968 Z0.0087 I0.005 J0.0004
X2.4038 Y4.296 Z0.0082 I-0.005 J-0.0004
X2.4137 Y4.2968 Z0.0077 I0.005 J0.0004
X2.4038 Y4.296 Z0.0071 I-0.005 J-0.0004
X2.4137 Y4.2968 Z0.0066 I0.005 J0.0004
X2.4038 Y4.296 Z0.006 I-0.005 J-0.0004
X2.4137 Y4.2968 Z0.0055 I0.005 J0.0004
X2.4038 Y4.296 Z0.0049 I-0.005 J-0.0004
X2.4137 Y4.2968 Z0.0044 I0.005 J0.0004
X2.4038 Y4.296 Z0.0038 I-0.005 J-0.0004
X2.4137 Y4.2968 Z0.0033 I0.005 J0.0004
X2.4038 Y4.2964 Z0.0027 I-0.005 J-0.0004
X2.4307 I0.0134 J0. F40.
X2.2917 I-0.0695 J0.
X2.4307 I0.0695 J0.
G1 X2.4304 Y4.2973
X2.4298 Y4.2981
X2.429 Y4.2986
X2.428
X2.4172 Y4.2964
X2.4064 Y4.2984
X2.4054 Y4.2983
X2.4045 Y4.2978
X2.4039 Y4.297
X2.4038 Y4.296
G3 X2.4137 Y4.2968 Z0.0022 I0.005 J0.0004 F20.
X2.4038 Y4.296 Z0.0016 I-0.005 J-0.0004
X2.4137 Y4.2968 Z0.0011 I0.005 J0.0004
X2.4038 Y4.296 Z0.0005 I-0.005 J-0.0004
X2.4137 Y4.2968 Z0. I0.005 J0.0004
X2.4038 Y4.296 Z-0.0006 I-0.005 J-0.0004
X2.4137 Y4.2968 Z-0.0011 I0.005 J0.0004
X2.4038 Y4.296 Z-0.0017 I-0.005 J-0.0004
X2.4137 Y4.2968 Z-0.0022 I0.005 J0.0004
X2.4038 Y4.296 Z-0.0028 I-0.005 J-0.0004
X2.4137 Y4.2968 Z-0.0033 I0.005 J0.0004
X2.4038 Y4.296 Z-0.0039 I-0.005 J-0.0004
X2.4137 Y4.2968 Z-0.0044 I0.005 J0.0004
X2.4038 Y4.296 Z-0.005 I-0.005 J-0.0004
X2.4137 Y4.2968 Z-0.0055 I0.005 J0.0004
X2.4038 Y4.296 Z-0.006 I-0.005 J-0.0004
X2.4137 Y4.2968 Z-0.0066 I0.005 J0.0004
X2.4038 Y4.296 Z-0.0071 I-0.005 J-0.0004
X2.4137 Y4.2968 Z-0.0077 I0.005 J0.0004
X2.4038 Y4.296 Z-0.0082 I-0.005 J-0.0004
X2.4137 Y4.2968 Z-0.0088 I0.005 J0.0004
X2.4038 Y4.296 Z-0.0093 I-0.005 J-0.0004
X2.4137 Y4.2968 Z-0.0099 I0.005 J0.0004
X2.4038 Y4.296 Z-0.0104 I-0.005 J-0.0004
X2.4137 Y4.2968 Z-0.011 I0.005 J0.0004
X2.4038 Y4.296 Z-0.0115 I-0.005 J-0.0004
X2.4137 Y4.2968 Z-0.0121 I0.005 J0.0004
X2.4038 Y4.296 Z-0.0126 I-0.005 J-0.0004
X2.4137 Y4.2968 Z-0.0132 I0.005 J0.0004
X2.4038 Y4.296 Z-0.0137 I-0.005 J-0.0004
X2.4137 Y4.2968 Z-0.0143 I0.005 J0.0004
X2.4038 Y4.296 Z-0.0148 I-0.005 J-0.0004
X2.4137 Y4.2968 Z-0.0154 I0.005 J0.0004
X2.4038 Y4.2964 Z-0.0159 I-0.005 J-0.0004
X2.4307 I0.0134 J0. F40.
X2.2917 I-0.0695 J0.
X2.4307 I0.0695 J0.
G1 X2.4304 Y4.2973
X2.4298 Y4.2981
X2.429 Y4.2986
X2.428
X2.4172 Y4.2964
X2.4064 Y4.2984
X2.4054 Y4.2983
X2.4045 Y4.2978
X2.4039 Y4.297
X2.4038 Y4.296
G3 X2.4137 Y4.2968 Z-0.0165 I0.005 J0.0004 F20.
X2.4038 Y4.296 Z-0.017 I-0.005 J-0.0004
X2.4137 Y4.2968 Z-0.0176 I0.005 J0.0004
X2.4038 Y4.296 Z-0.0181 I-0.005 J-0.0004
X2.4137 Y4.2968 Z-0.0187 I0.005 J0.0004
X2.4038 Y4.296 Z-0.0192 I-0.005 J-0.0004
X2.4137 Y4.2968 Z-0.0197 I0.005 J0.0004
X2.4038 Y4.296 Z-0.0203 I-0.005 J-0.0004
X2.4137 Y4.2968 Z-0.0208 I0.005 J0.0004
X2.4038 Y4.296 Z-0.0214 I-0.005 J-0.0004
X2.4137 Y4.2968 Z-0.0219 I0.005 J0.0004
X2.4038 Y4.296 Z-0.0225 I-0.005 J-0.0004
X2.4137 Y4.2968 Z-0.023 I0.005 J0.0004
X2.4038 Y4.296 Z-0.0236 I-0.005 J-0.0004
X2.4137 Y4.2968 Z-0.0241 I0.005 J0.0004
X2.4038 Y4.296 Z-0.0247 I-0.005 J-0.0004
X2.4137 Y4.2968 Z-0.0252 I0.005 J0.0004
X2.4038 Y4.296 Z-0.0258 I-0.005 J-0.0004
X2.4137 Y4.2968 Z-0.0263 I0.005 J0.0004
X2.4038 Y4.296 Z-0.0269 I-0.005 J-0.0004
X2.4137 Y4.2968 Z-0.0274 I0.005 J0.0004
X2.4038 Y4.296 Z-0.028 I-0.005 J-0.0004
X2.4137 Y4.2968 Z-0.0285 I0.005 J0.0004
X2.4038 Y4.296 Z-0.0291 I-0.005 J-0.0004
X2.4137 Y4.2968 Z-0.0296 I0.005 J0.0004
X2.4038 Y4.296 Z-0.0302 I-0.005 J-0.0004
X2.4137 Y4.2968 Z-0.0307 I0.005 J0.0004
X2.4038 Y4.296 Z-0.0313 I-0.005 J-0.0004
X2.4137 Y4.2968 Z-0.0318 I0.005 J0.0004
X2.4038 Y4.296 Z-0.0324 I-0.005 J-0.0004
X2.4137 Y4.2968 Z-0.0329 I0.005 J0.0004
X2.4038 Y4.296 Z-0.0335 I-0.005 J-0.0004
X2.4137 Y4.2968 Z-0.034 I0.005 J0.0004
X2.4038 Y4.2964 Z-0.0345 I-0.005 J-0.0004
X2.4307 I0.0134 J0. F40.
X2.2917 I-0.0695 J0.
X2.4307 I0.0695 J0.
G1 X2.4304 Y4.2973
X2.4298 Y4.2981
X2.429 Y4.2986
X2.428
X2.4172 Y4.2964
X2.4064 Y4.2984
X2.4054 Y4.2983
X2.4045 Y4.2978
X2.4039 Y4.297
X2.4038 Y4.296
G3 X2.4137 Y4.2968 Z-0.0351 I0.005 J0.0004 F20.
X2.4038 Y4.296 Z-0.0356 I-0.005 J-0.0004
X2.4137 Y4.2968 Z-0.0362 I0.005 J0.0004
X2.4038 Y4.296 Z-0.0367 I-0.005 J-0.0004
X2.4137 Y4.2968 Z-0.0373 I0.005 J0.0004
X2.4038 Y4.296 Z-0.0378 I-0.005 J-0.0004
X2.4137 Y4.2968 Z-0.0384 I0.005 J0.0004
X2.4038 Y4.296 Z-0.0389 I-0.005 J-0.0004
X2.4137 Y4.2968 Z-0.0395 I0.005 J0.0004
X2.4038 Y4.296 Z-0.04 I-0.005 J-0.0004
X2.4137 Y4.2968 Z-0.0406 I0.005 J0.0004
X2.4038 Y4.296 Z-0.0411 I-0.005 J-0.0004
X2.4137 Y4.2968 Z-0.0417 I0.005 J0.0004
X2.4038 Y4.296 Z-0.0422 I-0.005 J-0.0004
X2.4137 Y4.2968 Z-0.0428 I0.005 J0.0004
X2.4038 Y4.296 Z-0.0433 I-0.005 J-0.0004
X2.4137 Y4.2968 Z-0.0439 I0.005 J0.0004
X2.4038 Y4.296 Z-0.0444 I-0.005 J-0.0004
X2.4137 Y4.2968 Z-0.045 I0.005 J0.0004
X2.4038 Y4.296 Z-0.0455 I-0.005 J-0.0004
X2.4137 Y4.2968 Z-0.0461 I0.005 J0.0004
X2.4038 Y4.296 Z-0.0466 I-0.005 J-0.0004
X2.4137 Y4.2968 Z-0.0472 I0.005 J0.0004
X2.4038 Y4.296 Z-0.0477 I-0.005 J-0.0004
X2.4137 Y4.2968 Z-0.0483 I0.005 J0.0004
X2.4038 Y4.296 Z-0.0488 I-0.005 J-0.0004
X2.4137 Y4.2968 Z-0.0494 I0.005 J0.0004
X2.4038 Y4.296 Z-0.0499 I-0.005 J-0.0004
X2.4137 Y4.2968 Z-0.0505 I0.005 J0.0004
X2.4038 Y4.296 Z-0.051 I-0.005 J-0.0004
X2.4137 Y4.2968 Z-0.0516 I0.005 J0.0004
X2.4038 Y4.296 Z-0.0521 I-0.005 J-0.0004
X2.4137 Y4.2968 Z-0.0526 I0.005 J0.0004
X2.4038 Y4.2964 Z-0.0532 I-0.005 J-0.0004
X2.4307 I0.0134 J0. F40.
X2.2917 I-0.0695 J0.
X2.4307 I0.0695 J0.
G1 X2.4304 Y4.2973
X2.4298 Y4.2981
X2.429 Y4.2986
X2.428
X2.4172 Y4.2964
X2.4064 Y4.2984
X2.4054 Y4.2983
X2.4045 Y4.2978
X2.4039 Y4.297
X2.4038 Y4.296
G3 X2.4137 Y4.2968 Z-0.0537 I0.005 J0.0004 F20.
X2.4038 Y4.296 Z-0.0543 I-0.005 J-0.0004
X2.4137 Y4.2968 Z-0.0548 I0.005 J0.0004
X2.4038 Y4.296 Z-0.0554 I-0.005 J-0.0004
X2.4137 Y4.2968 Z-0.0559 I0.005 J0.0004
X2.4038 Y4.296 Z-0.0565 I-0.005 J-0.0004
X2.4137 Y4.2968 Z-0.057 I0.005 J0.0004
X2.4038 Y4.296 Z-0.0576 I-0.005 J-0.0004
X2.4137 Y4.2968 Z-0.0581 I0.005 J0.0004
X2.4038 Y4.296 Z-0.0587 I-0.005 J-0.0004
X2.4137 Y4.2968 Z-0.0592 I0.005 J0.0004
X2.4038 Y4.296 Z-0.0598 I-0.005 J-0.0004
X2.4137 Y4.2968 Z-0.0603 I0.005 J0.0004
X2.4038 Y4.296 Z-0.0609 I-0.005 J-0.0004
X2.4137 Y4.2968 Z-0.0614 I0.005 J0.0004
X2.4038 Y4.296 Z-0.062 I-0.005 J-0.0004
X2.4137 Y4.2968 Z-0.0625 I0.005 J0.0004
X2.4038 Y4.296 Z-0.0631 I-0.005 J-0.0004
X2.4137 Y4.2968 Z-0.0636 I0.005 J0.0004
X2.4038 Y4.296 Z-0.0642 I-0.005 J-0.0004
X2.4137 Y4.2968 Z-0.0647 I0.005 J0.0004
X2.4038 Y4.296 Z-0.0652 I-0.005 J-0.0004
X2.4137 Y4.2968 Z-0.0658 I0.005 J0.0004
X2.4038 Y4.296 Z-0.0663 I-0.005 J-0.0004
X2.4137 Y4.2968 Z-0.0669 I0.005 J0.0004
X2.4038 Y4.296 Z-0.0674 I-0.005 J-0.0004
X2.4137 Y4.2968 Z-0.068 I0.005 J0.0004
X2.4038 Y4.296 Z-0.0685 I-0.005 J-0.0004
X2.4137 Y4.2968 Z-0.0691 I0.005 J0.0004
X2.4038 Y4.296 Z-0.0696 I-0.005 J-0.0004
X2.4137 Y4.2968 Z-0.0702 I0.005 J0.0004
X2.4038 Y4.296 Z-0.0707 I-0.005 J-0.0004
X2.4137 Y4.2968 Z-0.0713 I0.005 J0.0004
X2.4038 Y4.2964 Z-0.0718 I-0.005 J-0.0004
X2.4307 I0.0134 J0. F40.
X2.2917 I-0.0695 J0.
X2.4307 I0.0695 J0.
G1 X2.4304 Y4.2973
X2.4298 Y4.2981
X2.429 Y4.2986
X2.428
X2.4172 Y4.2964
X2.4064 Y4.2984
X2.4054 Y4.2983
X2.4045 Y4.2978
X2.4039 Y4.297
X2.4038 Y4.296
G3 X2.4137 Y4.2968 Z-0.0724 I0.005 J0.0004 F20.
X2.4038 Y4.296 Z-0.0729 I-0.005 J-0.0004
X2.4137 Y4.2968 Z-0.0735 I0.005 J0.0004
X2.4038 Y4.296 Z-0.074 I-0.005 J-0.0004
X2.4137 Y4.2968 Z-0.0746 I0.005 J0.0004
X2.4038 Y4.296 Z-0.0751 I-0.005 J-0.0004
X2.4137 Y4.2968 Z-0.0757 I0.005 J0.0004
X2.4038 Y4.296 Z-0.0762 I-0.005 J-0.0004
X2.4137 Y4.2968 Z-0.0768 I0.005 J0.0004
X2.4038 Y4.296 Z-0.0773 I-0.005 J-0.0004
X2.4137 Y4.2968 Z-0.0779 I0.005 J0.0004
X2.4038 Y4.296 Z-0.0784 I-0.005 J-0.0004
X2.4137 Y4.2968 Z-0.0789 I0.005 J0.0004
X2.4038 Y4.296 Z-0.0795 I-0.005 J-0.0004
X2.4137 Y4.2968 Z-0.08 I0.005 J0.0004
X2.4038 Y4.296 Z-0.0806 I-0.005 J-0.0004
X2.4137 Y4.2968 Z-0.0811 I0.005 J0.0004
X2.4038 Y4.296 Z-0.0817 I-0.005 J-0.0004
X2.4137 Y4.2968 Z-0.0822 I0.005 J0.0004
X2.4038 Y4.296 Z-0.0828 I-0.005 J-0.0004
X2.4137 Y4.2968 Z-0.0833 I0.005 J0.0004
X2.4038 Y4.296 Z-0.0839 I-0.005 J-0.0004
X2.4137 Y4.2968 Z-0.0844 I0.005 J0.0004
X2.4038 Y4.296 Z-0.085 I-0.005 J-0.0004
X2.4137 Y4.2968 Z-0.0855 I0.005 J0.0004
X2.4038 Y4.296 Z-0.0861 I-0.005 J-0.0004
X2.4137 Y4.2968 Z-0.0866 I0.005 J0.0004
X2.4038 Y4.296 Z-0.0872 I-0.005 J-0.0004
X2.4137 Y4.2968 Z-0.0877 I0.005 J0.0004
X2.4038 Y4.296 Z-0.0883 I-0.005 J-0.0004
X2.4137 Y4.2968 Z-0.0888 I0.005 J0.0004
X2.4038 Y4.296 Z-0.0894 I-0.005 J-0.0004
X2.4137 Y4.2968 Z-0.0899 I0.005 J0.0004
X2.4038 Y4.2964 Z-0.0905 I-0.005 J-0.0004
X2.4307 I0.0134 J0. F40.
X2.2917 I-0.0695 J0.
X2.4307 I0.0695 J0.
G1 X2.4304 Y4.2973
X2.4298 Y4.2981
X2.429 Y4.2986
X2.428
X2.4172 Y4.2964
X2.4064 Y4.2984
X2.4054 Y4.2983
X2.4045 Y4.2978
X2.4039 Y4.297
X2.4038 Y4.296
G3 X2.4137 Y4.2968 Z-0.091 I0.005 J0.0004 F20.
X2.4038 Y4.296 Z-0.0916 I-0.005 J-0.0004
X2.4137 Y4.2968 Z-0.0921 I0.005 J0.0004
X2.4038 Y4.296 Z-0.0926 I-0.005 J-0.0004
X2.4137 Y4.2968 Z-0.0932 I0.005 J0.0004
X2.4038 Y4.296 Z-0.0937 I-0.005 J-0.0004
X2.4137 Y4.2968 Z-0.0943 I0.005 J0.0004
X2.4038 Y4.296 Z-0.0948 I-0.005 J-0.0004
X2.4137 Y4.2968 Z-0.0954 I0.005 J0.0004
X2.4038 Y4.296 Z-0.0959 I-0.005 J-0.0004
X2.4137 Y4.2968 Z-0.0965 I0.005 J0.0004
X2.4038 Y4.296 Z-0.097 I-0.005 J-0.0004
X2.4137 Y4.2968 Z-0.0976 I0.005 J0.0004
X2.4038 Y4.296 Z-0.0981 I-0.005 J-0.0004
X2.4137 Y4.2968 Z-0.0987 I0.005 J0.0004
X2.4038 Y4.296 Z-0.0992 I-0.005 J-0.0004
X2.4137 Y4.2968 Z-0.0998 I0.005 J0.0004
X2.4038 Y4.296 Z-0.1003 I-0.005 J-0.0004
X2.4137 Y4.2968 Z-0.1009 I0.005 J0.0004
X2.4038 Y4.296 Z-0.1014 I-0.005 J-0.0004
X2.4137 Y4.2968 Z-0.102 I0.005 J0.0004
X2.4038 Y4.296 Z-0.1025 I-0.005 J-0.0004
X2.4137 Y4.2968 Z-0.1031 I0.005 J0.0004
X2.4038 Y4.296 Z-0.1036 I-0.005 J-0.0004
X2.4137 Y4.2968 Z-0.1042 I0.005 J0.0004
X2.4038 Y4.296 Z-0.1047 I-0.005 J-0.0004
X2.4137 Y4.2968 Z-0.1053 I0.005 J0.0004
X2.4038 Y4.296 Z-0.1058 I-0.005 J-0.0004
X2.4137 Y4.2968 Z-0.1064 I0.005 J0.0004
X2.4038 Y4.296 Z-0.1069 I-0.005 J-0.0004
X2.4137 Y4.2968 Z-0.1075 I0.005 J0.0004
X2.4038 Y4.296 Z-0.108 I-0.005 J-0.0004
X2.4137 Y4.2968 Z-0.1086 I0.005 J0.0004
X2.4038 Y4.2964 Z-0.1091 I-0.005 J-0.0004
X2.4307 I0.0134 J0. F40.
X2.2917 I-0.0695 J0.
X2.4307 I0.0695 J0.
G1 X2.4304 Y4.2973
X2.4298 Y4.2981
X2.429 Y4.2986
X2.428
X2.4172 Y4.2964
X2.4064 Y4.2984
X2.4054 Y4.2983
X2.4045 Y4.2978
X2.4039 Y4.297
X2.4038 Y4.296
G3 X2.4137 Y4.2968 Z-0.1096 I0.005 J0.0004 F20.
X2.4038 Y4.296 Z-0.1102 I-0.005 J-0.0004
X2.4137 Y4.2968 Z-0.1107 I0.005 J0.0004
X2.4038 Y4.296 Z-0.1113 I-0.005 J-0.0004
X2.4137 Y4.2968 Z-0.1118 I0.005 J0.0004
X2.4038 Y4.296 Z-0.1124 I-0.005 J-0.0004
X2.4137 Y4.2968 Z-0.1129 I0.005 J0.0004
X2.4038 Y4.296 Z-0.1135 I-0.005 J-0.0004
X2.4137 Y4.2968 Z-0.114 I0.005 J0.0004
X2.4038 Y4.296 Z-0.1146 I-0.005 J-0.0004
X2.4137 Y4.2968 Z-0.1151 I0.005 J0.0004
X2.4038 Y4.296 Z-0.1157 I-0.005 J-0.0004
X2.4137 Y4.2968 Z-0.1162 I0.005 J0.0004
X2.4038 Y4.296 Z-0.1168 I-0.005 J-0.0004
X2.4137 Y4.2968 Z-0.1173 I0.005 J0.0004
X2.4038 Y4.296 Z-0.1179 I-0.005 J-0.0004
X2.4137 Y4.2968 Z-0.1184 I0.005 J0.0004
X2.4038 Y4.296 Z-0.119 I-0.005 J-0.0004
X2.4137 Y4.2968 Z-0.1195 I0.005 J0.0004
X2.4038 Y4.296 Z-0.1201 I-0.005 J-0.0004
X2.4137 Y4.2968 Z-0.1206 I0.005 J0.0004
X2.4038 Y4.296 Z-0.1212 I-0.005 J-0.0004
X2.4137 Y4.2968 Z-0.1217 I0.005 J0.0004
X2.4038 Y4.296 Z-0.1223 I-0.005 J-0.0004
X2.4137 Y4.2968 Z-0.1228 I0.005 J0.0004
X2.4038 Y4.296 Z-0.1234 I-0.005 J-0.0004
X2.4137 Y4.2968 Z-0.1239 I0.005 J0.0004
X2.4038 Y4.296 Z-0.1244 I-0.005 J-0.0004
X2.4137 Y4.2968 Z-0.125 I0.005 J0.0004
X2.4038 Y4.296 Z-0.1255 I-0.005 J-0.0004
X2.4137 Y4.2968 Z-0.1261 I0.005 J0.0004
X2.4038 Y4.296 Z-0.1266 I-0.005 J-0.0004
X2.4137 Y4.2968 Z-0.1272 I0.005 J0.0004
X2.4038 Y4.2964 Z-0.1277 I-0.005 J-0.0004
X2.4307 I0.0134 J0. F40.
X2.2917 I-0.0695 J0.
X2.4307 I0.0695 J0.
G1 X2.4304 Y4.2973
X2.4298 Y4.2981
X2.429 Y4.2986
X2.428
X2.4172 Y4.2964
X2.4064 Y4.2984
X2.4054 Y4.2983
X2.4045 Y4.2978
X2.4039 Y4.297
X2.4038 Y4.296
G3 X2.4137 Y4.2968 Z-0.1283 I0.005 J0.0004 F20.
X2.4038 Y4.296 Z-0.1288 I-0.005 J-0.0004
X2.4137 Y4.2968 Z-0.1294 I0.005 J0.0004
X2.4038 Y4.296 Z-0.1299 I-0.005 J-0.0004
X2.4137 Y4.2968 Z-0.1305 I0.005 J0.0004
X2.4038 Y4.296 Z-0.131 I-0.005 J-0.0004
X2.4137 Y4.2968 Z-0.1316 I0.005 J0.0004
X2.4038 Y4.296 Z-0.1321 I-0.005 J-0.0004
X2.4137 Y4.2968 Z-0.1327 I0.005 J0.0004
X2.4038 Y4.296 Z-0.1332 I-0.005 J-0.0004
X2.4137 Y4.2968 Z-0.1338 I0.005 J0.0004
X2.4038 Y4.296 Z-0.1343 I-0.005 J-0.0004
X2.4137 Y4.2968 Z-0.1349 I0.005 J0.0004
X2.4038 Y4.296 Z-0.1354 I-0.005 J-0.0004
X2.4137 Y4.2968 Z-0.136 I0.005 J0.0004
X2.4038 Y4.296 Z-0.1365 I-0.005 J-0.0004
X2.4137 Y4.2968 Z-0.1371 I0.005 J0.0004
X2.4038 Y4.296 Z-0.1376 I-0.005 J-0.0004
X2.4137 Y4.2968 Z-0.1381 I0.005 J0.0004
X2.4038 Y4.296 Z-0.1387 I-0.005 J-0.0004
X2.4137 Y4.2968 Z-0.1392 I0.005 J0.0004
X2.4038 Y4.296 Z-0.1398 I-0.005 J-0.0004
X2.4137 Y4.2968 Z-0.1403 I0.005 J0.0004
X2.4038 Y4.296 Z-0.1409 I-0.005 J-0.0004
X2.4137 Y4.2968 Z-0.1414 I0.005 J0.0004
X2.4038 Y4.296 Z-0.142 I-0.005 J-0.0004
X2.4137 Y4.2968 Z-0.1425 I0.005 J0.0004
X2.4038 Y4.296 Z-0.1431 I-0.005 J-0.0004
X2.4137 Y4.2968 Z-0.1436 I0.005 J0.0004
X2.4038 Y4.296 Z-0.1442 I-0.005 J-0.0004
X2.4137 Y4.2968 Z-0.1447 I0.005 J0.0004
X2.4038 Y4.296 Z-0.1453 I-0.005 J-0.0004
X2.4137 Y4.2968 Z-0.1458 I0.005 J0.0004
X2.4038 Y4.2964 Z-0.1464 I-0.005 J-0.0004
X2.4307 I0.0134 J0. F40.
X2.2917 I-0.0695 J0.
X2.4307 I0.0695 J0.
G1 X2.4304 Y4.2973
X2.4298 Y4.2981
X2.429 Y4.2986
X2.428
X2.4172 Y4.2964
X2.4064 Y4.2984
X2.4054 Y4.2983
X2.4045 Y4.2978
X2.4039 Y4.297
X2.4038 Y4.296
G3 X2.4137 Y4.2968 Z-0.1469 I0.005 J0.0004 F20.
X2.4038 Y4.296 Z-0.1475 I-0.005 J-0.0004
X2.4137 Y4.2968 Z-0.148 I0.005 J0.0004
X2.4038 Y4.296 Z-0.1486 I-0.005 J-0.0004
X2.4137 Y4.2968 Z-0.1491 I0.005 J0.0004
X2.4038 Y4.296 Z-0.1497 I-0.005 J-0.0004
X2.4137 Y4.2968 Z-0.1502 I0.005 J0.0004
X2.4038 Y4.296 Z-0.1508 I-0.005 J-0.0004
X2.4137 Y4.2968 Z-0.1513 I0.005 J0.0004
X2.4038 Y4.296 Z-0.1518 I-0.005 J-0.0004
X2.4137 Y4.2968 Z-0.1524 I0.005 J0.0004
X2.4038 Y4.296 Z-0.1529 I-0.005 J-0.0004
X2.4137 Y4.2968 Z-0.1535 I0.005 J0.0004
X2.4038 Y4.296 Z-0.154 I-0.005 J-0.0004
X2.4137 Y4.2968 Z-0.1546 I0.005 J0.0004
X2.4038 Y4.296 Z-0.1551 I-0.005 J-0.0004
X2.4137 Y4.2968 Z-0.1557 I0.005 J0.0004
X2.4038 Y4.296 Z-0.1562 I-0.005 J-0.0004
X2.4137 Y4.2968 Z-0.1568 I0.005 J0.0004
X2.4038 Y4.296 Z-0.1573 I-0.005 J-0.0004
X2.4137 Y4.2968 Z-0.1579 I0.005 J0.0004
X2.4038 Y4.296 Z-0.1584 I-0.005 J-0.0004
X2.4137 Y4.2968 Z-0.159 I0.005 J0.0004
X2.4038 Y4.296 Z-0.1595 I-0.005 J-0.0004
X2.4137 Y4.2968 Z-0.1601 I0.005 J0.0004
X2.4038 Y4.296 Z-0.1606 I-0.005 J-0.0004
X2.4137 Y4.2968 Z-0.1612 I0.005 J0.0004
X2.4038 Y4.296 Z-0.1617 I-0.005 J-0.0004
X2.4137 Y4.2968 Z-0.1623 I0.005 J0.0004
X2.4038 Y4.296 Z-0.1628 I-0.005 J-0.0004
X2.4137 Y4.2968 Z-0.1634 I0.005 J0.0004
X2.4038 Y4.296 Z-0.1639 I-0.005 J-0.0004
X2.4137 Y4.2968 Z-0.1645 I0.005 J0.0004
X2.4038 Y4.2964 Z-0.165 I-0.005 J-0.0004
X2.4307 I0.0134 J0. F40.
X2.2917 I-0.0695 J0.
X2.4307 I0.0695 J0.
G1 X2.4304 Y4.2986 Z-0.1646
X2.4298 Y4.3008 Z-0.1641
X2.4289 Y4.3025 Z-0.1628
X2.4278 Y4.304 Z-0.1615
X2.426 Y4.3058 Z-0.1577
X2.4252 Y4.3063 Z-0.1532
G0 Z0.24
X1.3707 Y3.1932
G1 Z0.1518 F40.
X1.3694 Y3.1931 Z0.1465 F20.
X1.3679 Y3.1924 Z0.1444
X1.3666 Y3.1912 Z0.1424
X1.3659 Y3.1899 Z0.1415
X1.3656 Y3.1883 Z0.1407
X1.3659 Y3.1866 Z0.1403
X1.3668 Y3.185 Z0.14
G3 X1.3744 Y3.1914 Z0.1395 I0.0038 J0.0032
X1.3668 Y3.185 Z0.1389 I-0.0038 J-0.0032
X1.3744 Y3.1914 Z0.1384 I0.0038 J0.0032
X1.3668 Y3.185 Z0.1378 I-0.0038 J-0.0032
X1.3744 Y3.1914 Z0.1373 I0.0038 J0.0032
X1.3668 Y3.185 Z0.1367 I-0.0038 J-0.0032
X1.3744 Y3.1914 Z0.1362 I0.0038 J0.0032
X1.3668 Y3.185 Z0.1356 I-0.0038 J-0.0032
X1.3744 Y3.1914 Z0.1351 I0.0038 J0.0032
X1.3668 Y3.185 Z0.1345 I-0.0038 J-0.0032
X1.3744 Y3.1914 Z0.134 I0.0038 J0.0032
X1.3668 Y3.185 Z0.1334 I-0.0038 J-0.0032
X1.3744 Y3.1914 Z0.1329 I0.0038 J0.0032
X1.3668 Y3.185 Z0.1323 I-0.0038 J-0.0032
X1.3744 Y3.1914 Z0.1318 I0.0038 J0.0032
X1.3668 Y3.185 Z0.1312 I-0.0038 J-0.0032
X1.3744 Y3.1914 Z0.1307 I0.0038 J0.0032
X1.3668 Y3.185 Z0.1301 I-0.0038 J-0.0032
X1.3744 Y3.1914 Z0.1296 I0.0038 J0.0032
X1.3668 Y3.185 Z0.129 I-0.0038 J-0.0032
X1.3744 Y3.1914 Z0.1285 I0.0038 J0.0032
X1.3668 Y3.185 Z0.1279 I-0.0038 J-0.0032
X1.3744 Y3.1914 Z0.1274 I0.0038 J0.0032
X1.3668 Y3.185 Z0.1268 I-0.0038 J-0.0032
X1.3744 Y3.1914 Z0.1263 I0.0038 J0.0032
X1.3668 Y3.185 Z0.1257 I-0.0038 J-0.0032
X1.3744 Y3.1914 Z0.1252 I0.0038 J0.0032
X1.3668 Y3.185 Z0.1246 I-0.0038 J-0.0032
X1.3744 Y3.1914 Z0.1241 I0.0038 J0.0032
X1.3668 Y3.185 Z0.1235 I-0.0038 J-0.0032
X1.3744 Y3.1914 Z0.123 I0.0038 J0.0032
X1.3668 Y3.185 Z0.1224 I-0.0038 J-0.0032
X1.3744 Y3.1914 Z0.1219 I0.0038 J0.0032
X1.3668 Y3.185 Z0.1213 I-0.0038 J-0.0032
X1.3744 Y3.1914 Z0.1208 I0.0038 J0.0032
X1.3668 Y3.185 Z0.1203 I-0.0038 J-0.0032
X1.3744 Y3.1914 Z0.1197 I0.0038 J0.0032
X1.3668 Y3.185 Z0.1192 I-0.0038 J-0.0032
X1.3744 Y3.1914 Z0.1186 I0.0038 J0.0032
X1.3668 Y3.185 Z0.1181 I-0.0038 J-0.0032
X1.3744 Y3.1914 Z0.1175 I0.0038 J0.0032
X1.3668 Y3.185 Z0.117 I-0.0038 J-0.0032
X1.3744 Y3.1914 Z0.1164 I0.0038 J0.0032
X1.3668 Y3.185 Z0.1159 I-0.0038 J-0.0032
X1.3744 Y3.1914 Z0.1153 I0.0038 J0.0032
X1.3668 Y3.185 Z0.1148 I-0.0038 J-0.0032
X1.3744 Y3.1914 Z0.1142 I0.0038 J0.0032
X1.3668 Y3.185 Z0.1137 I-0.0038 J-0.0032
X1.3744 Y3.1914 Z0.1131 I0.0038 J0.0032
X1.3668 Y3.185 Z0.1126 I-0.0038 J-0.0032
X1.3744 Y3.1914 Z0.112 I0.0038 J0.0032
X1.3668 Y3.185 Z0.1115 I-0.0038 J-0.0032
X1.3744 Y3.1914 Z0.1109 I0.0038 J0.0032
X1.3668 Y3.185 Z0.1104 I-0.0038 J-0.0032
X1.3744 Y3.1914 Z0.1098 I0.0038 J0.0032
X1.3668 Y3.185 Z0.1093 I-0.0038 J-0.0032
X1.3744 Y3.1914 Z0.1087 I0.0038 J0.0032
X1.3668 Y3.185 Z0.1082 I-0.0038 J-0.0032
X1.3744 Y3.1914 Z0.1076 I0.0038 J0.0032
X1.3668 Y3.185 Z0.1071 I-0.0038 J-0.0032
X1.3744 Y3.1914 Z0.1065 I0.0038 J0.0032
X1.3668 Y3.185 Z0.106 I-0.0038 J-0.0032
X1.3744 Y3.1914 Z0.1054 I0.0038 J0.0032
X1.3668 Y3.185 Z0.1049 I-0.0038 J-0.0032
X1.3744 Y3.1914 Z0.1043 I0.0038 J0.0032
X1.3668 Y3.185 Z0.1038 I-0.0038 J-0.0032
X1.3744 Y3.1914 Z0.1032 I0.0038 J0.0032
X1.3668 Y3.185 Z0.1027 I-0.0038 J-0.0032
X1.3744 Y3.1914 Z0.1022 I0.0038 J0.0032
X1.3668 Y3.185 Z0.1016 I-0.0038 J-0.0032
X1.3744 Y3.1914 Z0.1011 I0.0038 J0.0032
X1.3668 Y3.185 Z0.1005 I-0.0038 J-0.0032
X1.3744 Y3.1914 Z0.1 I0.0038 J0.0032
X1.3668 Y3.185 Z0.0994 I-0.0038 J-0.0032
X1.3744 Y3.1914 Z0.0989 I0.0038 J0.0032
X1.3668 Y3.185 Z0.0983 I-0.0038 J-0.0032
X1.3744 Y3.1914 Z0.0978 I0.0038 J0.0032
X1.3668 Y3.185 Z0.0972 I-0.0038 J-0.0032
X1.3744 Y3.1914 Z0.0967 I0.0038 J0.0032
X1.3668 Y3.185 Z0.0961 I-0.0038 J-0.0032
X1.3744 Y3.1914 Z0.0956 I0.0038 J0.0032
X1.3668 Y3.185 Z0.095 I-0.0038 J-0.0032
X1.3744 Y3.1914 Z0.0945 I0.0038 J0.0032
X1.3668 Y3.185 Z0.0939 I-0.0038 J-0.0032
X1.3744 Y3.1914 Z0.0934 I0.0038 J0.0032
X1.3668 Y3.185 Z0.0928 I-0.0038 J-0.0032
X1.3744 Y3.1914 Z0.0923 I0.0038 J0.0032
X1.3668 Y3.185 Z0.0917 I-0.0038 J-0.0032
X1.3744 Y3.1914 Z0.0912 I0.0038 J0.0032
X1.3668 Y3.185 Z0.0906 I-0.0038 J-0.0032
X1.3744 Y3.1914 Z0.0901 I0.0038 J0.0032
X1.3668 Y3.185 Z0.0895 I-0.0038 J-0.0032
X1.3744 Y3.1914 Z0.089 I0.0038 J0.0032
X1.3668 Y3.185 Z0.0884 I-0.0038 J-0.0032
X1.3744 Y3.1914 Z0.0879 I0.0038 J0.0032
X1.3668 Y3.185 Z0.0873 I-0.0038 J-0.0032
X1.3744 Y3.1914 Z0.0868 I0.0038 J0.0032
X1.3668 Y3.185 Z0.0862 I-0.0038 J-0.0032
X1.3744 Y3.1914 Z0.0857 I0.0038 J0.0032
X1.3668 Y3.185 Z0.0851 I-0.0038 J-0.0032
X1.3744 Y3.1914 Z0.0846 I0.0038 J0.0032
X1.3668 Y3.185 Z0.084 I-0.0038 J-0.0032
X1.3744 Y3.1914 Z0.0835 I0.0038 J0.0032
X1.3668 Y3.185 Z0.083 I-0.0038 J-0.0032
X1.3744 Y3.1914 Z0.0824 I0.0038 J0.0032
X1.3668 Y3.185 Z0.0819 I-0.0038 J-0.0032
X1.3744 Y3.1914 Z0.0813 I0.0038 J0.0032
X1.3668 Y3.185 Z0.0808 I-0.0038 J-0.0032
X1.3744 Y3.1914 Z0.0802 I0.0038 J0.0032
X1.3668 Y3.185 Z0.0797 I-0.0038 J-0.0032
X1.3744 Y3.1914 Z0.0791 I0.0038 J0.0032
X1.3668 Y3.185 Z0.0786 I-0.0038 J-0.0032
X1.3744 Y3.1914 Z0.078 I0.0038 J0.0032
X1.3668 Y3.185 Z0.0775 I-0.0038 J-0.0032
X1.3744 Y3.1914 Z0.0769 I0.0038 J0.0032
X1.3668 Y3.185 Z0.0764 I-0.0038 J-0.0032
X1.3744 Y3.1914 Z0.0758 I0.0038 J0.0032
X1.3668 Y3.185 Z0.0753 I-0.0038 J-0.0032
X1.3744 Y3.1914 Z0.0747 I0.0038 J0.0032
X1.3668 Y3.185 Z0.0742 I-0.0038 J-0.0032
X1.3744 Y3.1914 Z0.0736 I0.0038 J0.0032
X1.3668 Y3.185 Z0.0731 I-0.0038 J-0.0032
X1.3744 Y3.1914 Z0.0725 I0.0038 J0.0032
X1.3668 Y3.185 Z0.072 I-0.0038 J-0.0032
X1.3744 Y3.1914 Z0.0714 I0.0038 J0.0032
X1.3668 Y3.185 Z0.0709 I-0.0038 J-0.0032
X1.3744 Y3.1914 Z0.0703 I0.0038 J0.0032
X1.3668 Y3.185 Z0.0698 I-0.0038 J-0.0032
X1.3744 Y3.1914 Z0.0692 I0.0038 J0.0032
X1.3668 Y3.185 Z0.0687 I-0.0038 J-0.0032
X1.3744 Y3.1914 Z0.0681 I0.0038 J0.0032
X1.3668 Y3.185 Z0.0676 I-0.0038 J-0.0032
X1.3744 Y3.1914 Z0.067 I0.0038 J0.0032
X1.3668 Y3.185 Z0.0665 I-0.0038 J-0.0032
X1.3744 Y3.1914 Z0.0659 I0.0038 J0.0032
X1.3668 Y3.185 Z0.0654 I-0.0038 J-0.0032
X1.3744 Y3.1914 Z0.0649 I0.0038 J0.0032
X1.3668 Y3.185 Z0.0643 I-0.0038 J-0.0032
X1.3744 Y3.1914 Z0.0638 I0.0038 J0.0032
X1.3668 Y3.185 Z0.0632 I-0.0038 J-0.0032
X1.3744 Y3.1914 Z0.0627 I0.0038 J0.0032
X1.3668 Y3.185 Z0.0621 I-0.0038 J-0.0032
X1.3744 Y3.1914 Z0.0616 I0.0038 J0.0032
X1.3668 Y3.185 Z0.061 I-0.0038 J-0.0032
X1.3744 Y3.1914 Z0.0605 I0.0038 J0.0032
X1.3668 Y3.185 Z0.0599 I-0.0038 J-0.0032
X1.3744 Y3.1914 Z0.0594 I0.0038 J0.0032
X1.3668 Y3.185 Z0.0588 I-0.0038 J-0.0032
X1.3744 Y3.1914 Z0.0583 I0.0038 J0.0032
X1.3668 Y3.185 Z0.0577 I-0.0038 J-0.0032
X1.3744 Y3.1914 Z0.0572 I0.0038 J0.0032
X1.3668 Y3.185 Z0.0566 I-0.0038 J-0.0032
X1.3744 Y3.1914 Z0.0561 I0.0038 J0.0032
X1.3668 Y3.185 Z0.0555 I-0.0038 J-0.0032
X1.3744 Y3.1914 Z0.055 I0.0038 J0.0032
X1.3668 Y3.185 Z0.0544 I-0.0038 J-0.0032
X1.3744 Y3.1914 Z0.0539 I0.0038 J0.0032
X1.3668 Y3.185 Z0.0533 I-0.0038 J-0.0032
X1.3744 Y3.1914 Z0.0528 I0.0038 J0.0032
X1.3668 Y3.185 Z0.0522 I-0.0038 J-0.0032
X1.3744 Y3.1914 Z0.0517 I0.0038 J0.0032
X1.3668 Y3.185 Z0.0511 I-0.0038 J-0.0032
X1.3744 Y3.1914 Z0.0506 I0.0038 J0.0032
X1.3668 Y3.185 Z0.05 I-0.0038 J-0.0032
X1.3744 Y3.1914 Z0.0495 I0.0038 J0.0032
X1.3668 Y3.185 Z0.0489 I-0.0038 J-0.0032
X1.3744 Y3.1914 Z0.0484 I0.0038 J0.0032
X1.3668 Y3.185 Z0.0478 I-0.0038 J-0.0032
X1.3744 Y3.1914 Z0.0473 I0.0038 J0.0032
X1.3668 Y3.185 Z0.0467 I-0.0038 J-0.0032
X1.3744 Y3.1914 Z0.0462 I0.0038 J0.0032
X1.3668 Y3.185 Z0.0457 I-0.0038 J-0.0032
X1.3744 Y3.1914 Z0.0451 I0.0038 J0.0032
X1.3668 Y3.185 Z0.0446 I-0.0038 J-0.0032
X1.3744 Y3.1914 Z0.044 I0.0038 J0.0032
X1.3668 Y3.185 Z0.0435 I-0.0038 J-0.0032
X1.3744 Y3.1914 Z0.0429 I0.0038 J0.0032
X1.3668 Y3.185 Z0.0424 I-0.0038 J-0.0032
X1.3744 Y3.1914 Z0.0418 I0.0038 J0.0032
X1.3668 Y3.185 Z0.0413 I-0.0038 J-0.0032
X1.3744 Y3.1914 Z0.0407 I0.0038 J0.0032
X1.3668 Y3.185 Z0.0402 I-0.0038 J-0.0032
X1.3744 Y3.1914 Z0.0396 I0.0038 J0.0032
X1.3668 Y3.185 Z0.0391 I-0.0038 J-0.0032
X1.3744 Y3.1914 Z0.0385 I0.0038 J0.0032
X1.3668 Y3.185 Z0.038 I-0.0038 J-0.0032
X1.3744 Y3.1914 Z0.0374 I0.0038 J0.0032
X1.3668 Y3.185 Z0.0369 I-0.0038 J-0.0032
X1.3744 Y3.1914 Z0.0363 I0.0038 J0.0032
X1.3668 Y3.185 Z0.0358 I-0.0038 J-0.0032
X1.3744 Y3.1914 Z0.0352 I0.0038 J0.0032
X1.3668 Y3.185 Z0.0347 I-0.0038 J-0.0032
X1.3744 Y3.1914 Z0.0341 I0.0038 J0.0032
X1.3668 Y3.185 Z0.0336 I-0.0038 J-0.0032
X1.3744 Y3.1914 Z0.033 I0.0038 J0.0032
X1.3668 Y3.185 Z0.0325 I-0.0038 J-0.0032
X1.3744 Y3.1914 Z0.0319 I0.0038 J0.0032
X1.3668 Y3.185 Z0.0314 I-0.0038 J-0.0032
X1.3744 Y3.1914 Z0.0308 I0.0038 J0.0032
X1.3668 Y3.185 Z0.0303 I-0.0038 J-0.0032
X1.3744 Y3.1914 Z0.0297 I0.0038 J0.0032
X1.3668 Y3.185 Z0.0292 I-0.0038 J-0.0032
X1.3744 Y3.1914 Z0.0286 I0.0038 J0.0032
X1.3668 Y3.185 Z0.0281 I-0.0038 J-0.0032
X1.3744 Y3.1914 Z0.0276 I0.0038 J0.0032
X1.3668 Y3.185 Z0.027 I-0.0038 J-0.0032
X1.3744 Y3.1914 Z0.0265 I0.0038 J0.0032
X1.3668 Y3.185 Z0.0259 I-0.0038 J-0.0032
X1.3744 Y3.1914 Z0.0254 I0.0038 J0.0032
X1.3668 Y3.185 Z0.0248 I-0.0038 J-0.0032
X1.3744 Y3.1914 Z0.0243 I0.0038 J0.0032
X1.3668 Y3.185 Z0.0237 I-0.0038 J-0.0032
X1.3744 Y3.1914 Z0.0232 I0.0038 J0.0032
X1.3668 Y3.185 Z0.0226 I-0.0038 J-0.0032
X1.3744 Y3.1914 Z0.0221 I0.0038 J0.0032
X1.3668 Y3.185 Z0.0215 I-0.0038 J-0.0032
X1.3706 Y3.1832 Z0.0214 I0.0038 J0.0032
Y3.2012 I0. J0.009 F40.
Y3.1832 I0. J-0.009
Y3.2012 Z0.0204 I0. J0.009 F20.
Y3.1832 Z0.0194 I0. J-0.009
Y3.2012 Z0.0184 I0. J0.009
Y3.1832 Z0.0174 I0. J-0.009
Y3.2012 Z0.0164 I0. J0.009
Y3.1832 Z0.0154 I0. J-0.009
Y3.2012 Z0.0145 I0. J0.009
Y3.1832 Z0.0135 I0. J-0.009
Y3.2012 Z0.0125 I0. J0.009
Y3.1832 Z0.0115 I0. J-0.009
Y3.2012 Z0.0105 I0. J0.009
Y3.1832 Z0.0095 I0. J-0.009
Y3.2012 Z0.0085 I0. J0.009
Y3.1832 Z0.0075 I0. J-0.009
Y3.2012 Z0.0066 I0. J0.009
Y3.1832 Z0.0056 I0. J-0.009
Y3.2012 Z0.0046 I0. J0.009
Y3.1832 Z0.0036 I0. J-0.009
X1.374 Y3.2006 Z0.0027 I0. J0.009
X1.3672 Y3.1839 I-0.0034 J-0.0083 F40.
X1.374 Y3.2006 I0.0034 J0.0083
X1.3672 Y3.1839 Z0.0017 I-0.0034 J-0.0083 F20.
X1.374 Y3.2006 Z0.0008 I0.0034 J0.0083
X1.3672 Y3.1839 Z-0.0002 I-0.0034 J-0.0083
X1.374 Y3.2006 Z-0.0012 I0.0034 J0.0083
X1.3672 Y3.1839 Z-0.0022 I-0.0034 J-0.0083
X1.374 Y3.2006 Z-0.0032 I0.0034 J0.0083
X1.3672 Y3.1839 Z-0.0042 I-0.0034 J-0.0083
X1.374 Y3.2006 Z-0.0052 I0.0034 J0.0083
X1.3672 Y3.1839 Z-0.0062 I-0.0034 J-0.0083
X1.374 Y3.2006 Z-0.0071 I0.0034 J0.0083
X1.3672 Y3.1839 Z-0.0081 I-0.0034 J-0.0083
X1.374 Y3.2006 Z-0.0091 I0.0034 J0.0083
X1.3672 Y3.1839 Z-0.0101 I-0.0034 J-0.0083
X1.374 Y3.2006 Z-0.0111 I0.0034 J0.0083
X1.3672 Y3.1839 Z-0.0121 I-0.0034 J-0.0083
X1.374 Y3.2006 Z-0.0131 I0.0034 J0.0083
X1.3672 Y3.1839 Z-0.0141 I-0.0034 J-0.0083
X1.374 Y3.2006 Z-0.015 I0.0034 J0.0083
X1.3642 Y3.1859 Z-0.0159 I-0.0034 J-0.0083
X1.377 Y3.1986 I0.0064 J0.0064 F40.
X1.3642 Y3.1859 I-0.0064 J-0.0064
X1.377 Y3.1986 Z-0.0169 I0.0064 J0.0064 F20.
X1.3642 Y3.1859 Z-0.0179 I-0.0064 J-0.0064
X1.377 Y3.1986 Z-0.0189 I0.0064 J0.0064
X1.3642 Y3.1859 Z-0.0199 I-0.0064 J-0.0064
X1.377 Y3.1986 Z-0.0208 I0.0064 J0.0064
X1.3642 Y3.1859 Z-0.0218 I-0.0064 J-0.0064
X1.377 Y3.1986 Z-0.0228 I0.0064 J0.0064
X1.3642 Y3.1859 Z-0.0238 I-0.0064 J-0.0064
X1.377 Y3.1986 Z-0.0248 I0.0064 J0.0064
X1.3642 Y3.1859 Z-0.0258 I-0.0064 J-0.0064
X1.377 Y3.1986 Z-0.0268 I0.0064 J0.0064
X1.3642 Y3.1859 Z-0.0278 I-0.0064 J-0.0064
X1.377 Y3.1986 Z-0.0287 I0.0064 J0.0064
X1.3642 Y3.1859 Z-0.0297 I-0.0064 J-0.0064
X1.377 Y3.1986 Z-0.0307 I0.0064 J0.0064
X1.3642 Y3.1859 Z-0.0317 I-0.0064 J-0.0064
X1.377 Y3.1986 Z-0.0327 I0.0064 J0.0064
X1.3642 Y3.1859 Z-0.0337 I-0.0064 J-0.0064
X1.3789 Y3.1957 Z-0.0345 I0.0064 J0.0064
X1.3623 Y3.1888 I-0.0083 J-0.0034 F40.
X1.3789 Y3.1957 I0.0083 J0.0034
X1.3623 Y3.1888 Z-0.0355 I-0.0083 J-0.0034 F20.
X1.3789 Y3.1957 Z-0.0365 I0.0083 J0.0034
X1.3623 Y3.1888 Z-0.0375 I-0.0083 J-0.0034
X1.3789 Y3.1957 Z-0.0385 I0.0083 J0.0034
X1.3623 Y3.1888 Z-0.0395 I-0.0083 J-0.0034
X1.3789 Y3.1957 Z-0.0405 I0.0083 J0.0034
X1.3623 Y3.1888 Z-0.0415 I-0.0083 J-0.0034
X1.3789 Y3.1957 Z-0.0424 I0.0083 J0.0034
X1.3623 Y3.1888 Z-0.0434 I-0.0083 J-0.0034
X1.3789 Y3.1957 Z-0.0444 I0.0083 J0.0034
X1.3623 Y3.1888 Z-0.0454 I-0.0083 J-0.0034
X1.3789 Y3.1957 Z-0.0464 I0.0083 J0.0034
X1.3623 Y3.1888 Z-0.0474 I-0.0083 J-0.0034
X1.3789 Y3.1957 Z-0.0484 I0.0083 J0.0034
X1.3623 Y3.1888 Z-0.0494 I-0.0083 J-0.0034
X1.3789 Y3.1957 Z-0.0503 I0.0083 J0.0034
X1.3623 Y3.1888 Z-0.0513 I-0.0083 J-0.0034
X1.3789 Y3.1957 Z-0.0523 I0.0083 J0.0034
X1.3616 Y3.1923 Z-0.0532 I-0.0083 J-0.0034
X1.3796 Y3.1922 I0.009 J0. F40.
X1.3616 Y3.1923 I-0.009 J0.
X1.3796 Y3.1922 Z-0.0542 I0.009 J0. F20.
X1.3616 Y3.1923 Z-0.0552 I-0.009 J0.
X1.3796 Y3.1922 Z-0.0561 I0.009 J0.
X1.3616 Y3.1923 Z-0.0571 I-0.009 J0.
X1.3796 Y3.1922 Z-0.0581 I0.009 J0.
X1.3616 Y3.1923 Z-0.0591 I-0.009 J0.
X1.3796 Y3.1922 Z-0.0601 I0.009 J0.
X1.3616 Y3.1923 Z-0.0611 I-0.009 J0.
X1.3796 Y3.1922 Z-0.0621 I0.009 J0.
X1.3616 Y3.1923 Z-0.0631 I-0.009 J0.
X1.3796 Y3.1922 Z-0.064 I0.009 J0.
X1.3616 Y3.1923 Z-0.065 I-0.009 J0.
X1.3796 Y3.1922 Z-0.066 I0.009 J0.
X1.3616 Y3.1923 Z-0.067 I-0.009 J0.
X1.3796 Y3.1922 Z-0.068 I0.009 J0.
X1.3616 Y3.1923 Z-0.069 I-0.009 J0.
X1.3796 Y3.1922 Z-0.07 I0.009 J0.
X1.3616 Y3.1923 Z-0.071 I-0.009 J0.
X1.3789 Y3.1888 Z-0.0718 I0.009 J0.
X1.3623 Y3.1957 I-0.0083 J0.0034 F40.
X1.3789 Y3.1888 I0.0083 J-0.0034
X1.3623 Y3.1957 Z-0.0728 I-0.0083 J0.0034 F20.
X1.3789 Y3.1888 Z-0.0738 I0.0083 J-0.0034
X1.3623 Y3.1957 Z-0.0748 I-0.0083 J0.0034
X1.3789 Y3.1888 Z-0.0758 I0.0083 J-0.0034
X1.3623 Y3.1957 Z-0.0768 I-0.0083 J0.0034
X1.3789 Y3.1888 Z-0.0777 I0.0083 J-0.0034
X1.3623 Y3.1957 Z-0.0787 I-0.0083 J0.0034
X1.3789 Y3.1888 Z-0.0797 I0.0083 J-0.0034
X1.3623 Y3.1957 Z-0.0807 I-0.0083 J0.0034
X1.3789 Y3.1888 Z-0.0817 I0.0083 J-0.0034
X1.3623 Y3.1957 Z-0.0827 I-0.0083 J0.0034
X1.3789 Y3.1888 Z-0.0837 I0.0083 J-0.0034
X1.3623 Y3.1957 Z-0.0847 I-0.0083 J0.0034
X1.3789 Y3.1888 Z-0.0856 I0.0083 J-0.0034
X1.3623 Y3.1957 Z-0.0866 I-0.0083 J0.0034
X1.3789 Y3.1888 Z-0.0876 I0.0083 J-0.0034
X1.3623 Y3.1957 Z-0.0886 I-0.0083 J0.0034
X1.3789 Y3.1888 Z-0.0896 I0.0083 J-0.0034
X1.3642 Y3.1986 Z-0.0905 I-0.0083 J0.0034
X1.377 Y3.1859 I0.0064 J-0.0064 F40.
X1.3642 Y3.1986 I-0.0064 J0.0064
X1.377 Y3.1859 Z-0.0914 I0.0064 J-0.0064 F20.
X1.3642 Y3.1986 Z-0.0924 I-0.0064 J0.0064
X1.377 Y3.1859 Z-0.0934 I0.0064 J-0.0064
X1.3642 Y3.1986 Z-0.0944 I-0.0064 J0.0064
X1.377 Y3.1859 Z-0.0954 I0.0064 J-0.0064
X1.3642 Y3.1986 Z-0.0964 I-0.0064 J0.0064
X1.377 Y3.1859 Z-0.0974 I0.0064 J-0.0064
X1.3642 Y3.1986 Z-0.0984 I-0.0064 J0.0064
X1.377 Y3.1859 Z-0.0993 I0.0064 J-0.0064
X1.3642 Y3.1986 Z-0.1003 I-0.0064 J0.0064
X1.377 Y3.1859 Z-0.1013 I0.0064 J-0.0064
X1.3642 Y3.1986 Z-0.1023 I-0.0064 J0.0064
X1.377 Y3.1859 Z-0.1033 I0.0064 J-0.0064
X1.3642 Y3.1986 Z-0.1043 I-0.0064 J0.0064
X1.377 Y3.1859 Z-0.1053 I0.0064 J-0.0064
X1.3642 Y3.1986 Z-0.1063 I-0.0064 J0.0064
X1.377 Y3.1859 Z-0.1072 I0.0064 J-0.0064
X1.3642 Y3.1986 Z-0.1082 I-0.0064 J0.0064
X1.374 Y3.1839 Z-0.1091 I0.0064 J-0.0064
X1.3672 Y3.2006 I-0.0034 J0.0083 F40.
X1.374 Y3.1839 I0.0034 J-0.0083
X1.3672 Y3.2006 Z-0.1101 I-0.0034 J0.0083 F20.
X1.374 Y3.1839 Z-0.1111 I0.0034 J-0.0083
X1.3672 Y3.2006 Z-0.1121 I-0.0034 J0.0083
X1.374 Y3.1839 Z-0.113 I0.0034 J-0.0083
X1.3672 Y3.2006 Z-0.114 I-0.0034 J0.0083
X1.374 Y3.1839 Z-0.115 I0.0034 J-0.0083
X1.3672 Y3.2006 Z-0.116 I-0.0034 J0.0083
X1.374 Y3.1839 Z-0.117 I0.0034 J-0.0083
X1.3672 Y3.2006 Z-0.118 I-0.0034 J0.0083
X1.374 Y3.1839 Z-0.119 I0.0034 J-0.0083
X1.3672 Y3.2006 Z-0.12 I-0.0034 J0.0083
X1.374 Y3.1839 Z-0.1209 I0.0034 J-0.0083
X1.3672 Y3.2006 Z-0.1219 I-0.0034 J0.0083
X1.374 Y3.1839 Z-0.1229 I0.0034 J-0.0083
X1.3672 Y3.2006 Z-0.1239 I-0.0034 J0.0083
X1.374 Y3.1839 Z-0.1249 I0.0034 J-0.0083
X1.3672 Y3.2006 Z-0.1259 I-0.0034 J0.0083
X1.374 Y3.1839 Z-0.1269 I0.0034 J-0.0083
X1.3706 Y3.2012 Z-0.1277 I-0.0034 J0.0083
Y3.1832 I0. J-0.009 F40.
Y3.2012 I0. J0.009
Y3.1832 Z-0.1287 I0. J-0.009 F20.
Y3.2012 Z-0.1297 I0. J0.009
Y3.1832 Z-0.1307 I0. J-0.009
Y3.2012 Z-0.1317 I0. J0.009
Y3.1832 Z-0.1327 I0. J-0.009
Y3.2012 Z-0.1337 I0. J0.009
Y3.1832 Z-0.1346 I0. J-0.009
Y3.2012 Z-0.1356 I0. J0.009
Y3.1832 Z-0.1366 I0. J-0.009
Y3.2012 Z-0.1376 I0. J0.009
Y3.1832 Z-0.1386 I0. J-0.009
Y3.2012 Z-0.1396 I0. J0.009
Y3.1832 Z-0.1406 I0. J-0.009
Y3.2012 Z-0.1416 I0. J0.009
Y3.1832 Z-0.1425 I0. J-0.009
Y3.2012 Z-0.1435 I0. J0.009
Y3.1832 Z-0.1445 I0. J-0.009
Y3.2012 Z-0.1455 I0. J0.009
X1.3672 Y3.1839 Z-0.1464 I0. J-0.009
X1.374 Y3.2006 I0.0034 J0.0083 F40.
X1.3672 Y3.1839 I-0.0034 J-0.0083
X1.374 Y3.2006 Z-0.1474 I0.0034 J0.0083 F20.
X1.3672 Y3.1839 Z-0.1483 I-0.0034 J-0.0083
X1.374 Y3.2006 Z-0.1493 I0.0034 J0.0083
X1.3672 Y3.1839 Z-0.1503 I-0.0034 J-0.0083
X1.374 Y3.2006 Z-0.1513 I0.0034 J0.0083
X1.3672 Y3.1839 Z-0.1523 I-0.0034 J-0.0083
X1.374 Y3.2006 Z-0.1533 I0.0034 J0.0083
X1.3672 Y3.1839 Z-0.1543 I-0.0034 J-0.0083
X1.374 Y3.2006 Z-0.1552 I0.0034 J0.0083
X1.3672 Y3.1839 Z-0.1562 I-0.0034 J-0.0083
X1.374 Y3.2006 Z-0.1572 I0.0034 J0.0083
X1.3672 Y3.1839 Z-0.1582 I-0.0034 J-0.0083
X1.374 Y3.2006 Z-0.1592 I0.0034 J0.0083
X1.3672 Y3.1839 Z-0.1602 I-0.0034 J-0.0083
X1.374 Y3.2006 Z-0.1612 I0.0034 J0.0083
X1.3672 Y3.1839 Z-0.1622 I-0.0034 J-0.0083
X1.374 Y3.2006 Z-0.1631 I0.0034 J0.0083
X1.3672 Y3.1839 Z-0.1641 I-0.0034 J-0.0083
X1.377 Y3.1986 Z-0.165 I0.0034 J0.0083
X1.3642 Y3.1859 I-0.0064 J-0.0064 F40.
X1.377 Y3.1986 I0.0064 J0.0064
G1 X1.3755 Y3.1998 Z-0.1647
X1.3739 Y3.2006 Z-0.1644
X1.3723 Y3.2011 Z-0.1635
X1.3706 Y3.2012 Z-0.1626
X1.3689 Y3.2011 Z-0.1606
X1.3672 Y3.2006 Z-0.1585
X1.3661 Y3.2 Z-0.1532
G0 Z0.24
X0.9817 Y1.7558
G1 Z0.1518 F40.
X0.9816 Y1.757 Z0.1465 F20.
X0.9809 Y1.7586 Z0.1444
X0.9797 Y1.7598 Z0.1424
X0.9783 Y1.7606 Z0.1415
X0.9768 Y1.7608 Z0.1407
X0.975 Y1.7605 Z0.1403
X0.9735 Y1.7597 Z0.14
G3 X0.9799 Y1.752 Z0.1395 I0.0032 J-0.0038
X0.9735 Y1.7597 Z0.1389 I-0.0032 J0.0038
X0.9799 Y1.752 Z0.1384 I0.0032 J-0.0038
X0.9735 Y1.7597 Z0.1378 I-0.0032 J0.0038
X0.9799 Y1.752 Z0.1373 I0.0032 J-0.0038
X0.9735 Y1.7597 Z0.1367 I-0.0032 J0.0038
X0.9799 Y1.752 Z0.1362 I0.0032 J-0.0038
X0.9735 Y1.7597 Z0.1356 I-0.0032 J0.0038
X0.9799 Y1.752 Z0.1351 I0.0032 J-0.0038
X0.9735 Y1.7597 Z0.1345 I-0.0032 J0.0038
X0.9799 Y1.752 Z0.134 I0.0032 J-0.0038
X0.9735 Y1.7597 Z0.1334 I-0.0032 J0.0038
X0.9799 Y1.752 Z0.1329 I0.0032 J-0.0038
X0.9735 Y1.7597 Z0.1323 I-0.0032 J0.0038
X0.9799 Y1.752 Z0.1318 I0.0032 J-0.0038
X0.9735 Y1.7597 Z0.1312 I-0.0032 J0.0038
X0.9799 Y1.752 Z0.1307 I0.0032 J-0.0038
X0.9735 Y1.7597 Z0.1301 I-0.0032 J0.0038
X0.9799 Y1.752 Z0.1296 I0.0032 J-0.0038
X0.9735 Y1.7597 Z0.129 I-0.0032 J0.0038
X0.9799 Y1.752 Z0.1285 I0.0032 J-0.0038
X0.9735 Y1.7597 Z0.1279 I-0.0032 J0.0038
X0.9799 Y1.752 Z0.1274 I0.0032 J-0.0038
X0.9735 Y1.7597 Z0.1268 I-0.0032 J0.0038
X0.9799 Y1.752 Z0.1263 I0.0032 J-0.0038
X0.9735 Y1.7597 Z0.1257 I-0.0032 J0.0038
X0.9799 Y1.752 Z0.1252 I0.0032 J-0.0038
X0.9735 Y1.7597 Z0.1246 I-0.0032 J0.0038
X0.9799 Y1.752 Z0.1241 I0.0032 J-0.0038
X0.9735 Y1.7597 Z0.1235 I-0.0032 J0.0038
X0.9799 Y1.752 Z0.123 I0.0032 J-0.0038
X0.9735 Y1.7597 Z0.1224 I-0.0032 J0.0038
X0.9799 Y1.752 Z0.1219 I0.0032 J-0.0038
X0.9735 Y1.7597 Z0.1213 I-0.0032 J0.0038
X0.9799 Y1.752 Z0.1208 I0.0032 J-0.0038
X0.9735 Y1.7597 Z0.1203 I-0.0032 J0.0038
X0.9799 Y1.752 Z0.1197 I0.0032 J-0.0038
X0.9735 Y1.7597 Z0.1192 I-0.0032 J0.0038
X0.9799 Y1.752 Z0.1186 I0.0032 J-0.0038
X0.9735 Y1.7597 Z0.1181 I-0.0032 J0.0038
X0.9799 Y1.752 Z0.1175 I0.0032 J-0.0038
X0.9735 Y1.7597 Z0.117 I-0.0032 J0.0038
X0.9799 Y1.752 Z0.1164 I0.0032 J-0.0038
X0.9735 Y1.7597 Z0.1159 I-0.0032 J0.0038
X0.9799 Y1.752 Z0.1153 I0.0032 J-0.0038
X0.9735 Y1.7597 Z0.1148 I-0.0032 J0.0038
X0.9799 Y1.752 Z0.1142 I0.0032 J-0.0038
X0.9735 Y1.7597 Z0.1137 I-0.0032 J0.0038
X0.9799 Y1.752 Z0.1131 I0.0032 J-0.0038
X0.9735 Y1.7597 Z0.1126 I-0.0032 J0.0038
X0.9799 Y1.752 Z0.112 I0.0032 J-0.0038
X0.9735 Y1.7597 Z0.1115 I-0.0032 J0.0038
X0.9799 Y1.752 Z0.1109 I0.0032 J-0.0038
X0.9735 Y1.7597 Z0.1104 I-0.0032 J0.0038
X0.9799 Y1.752 Z0.1098 I0.0032 J-0.0038
X0.9735 Y1.7597 Z0.1093 I-0.0032 J0.0038
X0.9799 Y1.752 Z0.1087 I0.0032 J-0.0038
X0.9735 Y1.7597 Z0.1082 I-0.0032 J0.0038
X0.9799 Y1.752 Z0.1076 I0.0032 J-0.0038
X0.9735 Y1.7597 Z0.1071 I-0.0032 J0.0038
X0.9799 Y1.752 Z0.1065 I0.0032 J-0.0038
X0.9735 Y1.7597 Z0.106 I-0.0032 J0.0038
X0.9799 Y1.752 Z0.1054 I0.0032 J-0.0038
X0.9735 Y1.7597 Z0.1049 I-0.0032 J0.0038
X0.9799 Y1.752 Z0.1043 I0.0032 J-0.0038
X0.9735 Y1.7597 Z0.1038 I-0.0032 J0.0038
X0.9799 Y1.752 Z0.1032 I0.0032 J-0.0038
X0.9735 Y1.7597 Z0.1027 I-0.0032 J0.0038
X0.9799 Y1.752 Z0.1022 I0.0032 J-0.0038
X0.9735 Y1.7597 Z0.1016 I-0.0032 J0.0038
X0.9799 Y1.752 Z0.1011 I0.0032 J-0.0038
X0.9735 Y1.7597 Z0.1005 I-0.0032 J0.0038
X0.9799 Y1.752 Z0.1 I0.0032 J-0.0038
X0.9735 Y1.7597 Z0.0994 I-0.0032 J0.0038
X0.9799 Y1.752 Z0.0989 I0.0032 J-0.0038
X0.9735 Y1.7597 Z0.0983 I-0.0032 J0.0038
X0.9799 Y1.752 Z0.0978 I0.0032 J-0.0038
X0.9735 Y1.7597 Z0.0972 I-0.0032 J0.0038
X0.9799 Y1.752 Z0.0967 I0.0032 J-0.0038
X0.9735 Y1.7597 Z0.0961 I-0.0032 J0.0038
X0.9799 Y1.752 Z0.0956 I0.0032 J-0.0038
X0.9735 Y1.7597 Z0.095 I-0.0032 J0.0038
X0.9799 Y1.752 Z0.0945 I0.0032 J-0.0038
X0.9735 Y1.7597 Z0.0939 I-0.0032 J0.0038
X0.9799 Y1.752 Z0.0934 I0.0032 J-0.0038
X0.9735 Y1.7597 Z0.0928 I-0.0032 J0.0038
X0.9799 Y1.752 Z0.0923 I0.0032 J-0.0038
X0.9735 Y1.7597 Z0.0917 I-0.0032 J0.0038
X0.9799 Y1.752 Z0.0912 I0.0032 J-0.0038
X0.9735 Y1.7597 Z0.0906 I-0.0032 J0.0038
X0.9799 Y1.752 Z0.0901 I0.0032 J-0.0038
X0.9735 Y1.7597 Z0.0895 I-0.0032 J0.0038
X0.9799 Y1.752 Z0.089 I0.0032 J-0.0038
X0.9735 Y1.7597 Z0.0884 I-0.0032 J0.0038
X0.9799 Y1.752 Z0.0879 I0.0032 J-0.0038
X0.9735 Y1.7597 Z0.0873 I-0.0032 J0.0038
X0.9799 Y1.752 Z0.0868 I0.0032 J-0.0038
X0.9735 Y1.7597 Z0.0862 I-0.0032 J0.0038
X0.9799 Y1.752 Z0.0857 I0.0032 J-0.0038
X0.9735 Y1.7597 Z0.0851 I-0.0032 J0.0038
X0.9799 Y1.752 Z0.0846 I0.0032 J-0.0038
X0.9735 Y1.7597 Z0.084 I-0.0032 J0.0038
X0.9799 Y1.752 Z0.0835 I0.0032 J-0.0038
X0.9735 Y1.7597 Z0.083 I-0.0032 J0.0038
X0.9799 Y1.752 Z0.0824 I0.0032 J-0.0038
X0.9735 Y1.7597 Z0.0819 I-0.0032 J0.0038
X0.9799 Y1.752 Z0.0813 I0.0032 J-0.0038
X0.9735 Y1.7597 Z0.0808 I-0.0032 J0.0038
X0.9799 Y1.752 Z0.0802 I0.0032 J-0.0038
X0.9735 Y1.7597 Z0.0797 I-0.0032 J0.0038
X0.9799 Y1.752 Z0.0791 I0.0032 J-0.0038
X0.9735 Y1.7597 Z0.0786 I-0.0032 J0.0038
X0.9799 Y1.752 Z0.078 I0.0032 J-0.0038
X0.9735 Y1.7597 Z0.0775 I-0.0032 J0.0038
X0.9799 Y1.752 Z0.0769 I0.0032 J-0.0038
X0.9735 Y1.7597 Z0.0764 I-0.0032 J0.0038
X0.9799 Y1.752 Z0.0758 I0.0032 J-0.0038
X0.9735 Y1.7597 Z0.0753 I-0.0032 J0.0038
X0.9799 Y1.752 Z0.0747 I0.0032 J-0.0038
X0.9735 Y1.7597 Z0.0742 I-0.0032 J0.0038
X0.9799 Y1.752 Z0.0736 I0.0032 J-0.0038
X0.9735 Y1.7597 Z0.0731 I-0.0032 J0.0038
X0.9799 Y1.752 Z0.0725 I0.0032 J-0.0038
X0.9735 Y1.7597 Z0.072 I-0.0032 J0.0038
X0.9799 Y1.752 Z0.0714 I0.0032 J-0.0038
X0.9735 Y1.7597 Z0.0709 I-0.0032 J0.0038
X0.9799 Y1.752 Z0.0703 I0.0032 J-0.0038
X0.9735 Y1.7597 Z0.0698 I-0.0032 J0.0038
X0.9799 Y1.752 Z0.0692 I0.0032 J-0.0038
X0.9735 Y1.7597 Z0.0687 I-0.0032 J0.0038
X0.9799 Y1.752 Z0.0681 I0.0032 J-0.0038
X0.9735 Y1.7597 Z0.0676 I-0.0032 J0.0038
X0.9799 Y1.752 Z0.067 I0.0032 J-0.0038
X0.9735 Y1.7597 Z0.0665 I-0.0032 J0.0038
X0.9799 Y1.752 Z0.0659 I0.0032 J-0.0038
X0.9735 Y1.7597 Z0.0654 I-0.0032 J0.0038
X0.9799 Y1.752 Z0.0649 I0.0032 J-0.0038
X0.9735 Y1.7597 Z0.0643 I-0.0032 J0.0038
X0.9799 Y1.752 Z0.0638 I0.0032 J-0.0038
X0.9735 Y1.7597 Z0.0632 I-0.0032 J0.0038
X0.9799 Y1.752 Z0.0627 I0.0032 J-0.0038
X0.9735 Y1.7597 Z0.0621 I-0.0032 J0.0038
X0.9799 Y1.752 Z0.0616 I0.0032 J-0.0038
X0.9735 Y1.7597 Z0.061 I-0.0032 J0.0038
X0.9799 Y1.752 Z0.0605 I0.0032 J-0.0038
X0.9735 Y1.7597 Z0.0599 I-0.0032 J0.0038
X0.9799 Y1.752 Z0.0594 I0.0032 J-0.0038
X0.9735 Y1.7597 Z0.0588 I-0.0032 J0.0038
X0.9799 Y1.752 Z0.0583 I0.0032 J-0.0038
X0.9735 Y1.7597 Z0.0577 I-0.0032 J0.0038
X0.9799 Y1.752 Z0.0572 I0.0032 J-0.0038
X0.9735 Y1.7597 Z0.0566 I-0.0032 J0.0038
X0.9799 Y1.752 Z0.0561 I0.0032 J-0.0038
X0.9735 Y1.7597 Z0.0555 I-0.0032 J0.0038
X0.9799 Y1.752 Z0.055 I0.0032 J-0.0038
X0.9735 Y1.7597 Z0.0544 I-0.0032 J0.0038
X0.9799 Y1.752 Z0.0539 I0.0032 J-0.0038
X0.9735 Y1.7597 Z0.0533 I-0.0032 J0.0038
X0.9799 Y1.752 Z0.0528 I0.0032 J-0.0038
X0.9735 Y1.7597 Z0.0522 I-0.0032 J0.0038
X0.9799 Y1.752 Z0.0517 I0.0032 J-0.0038
X0.9735 Y1.7597 Z0.0511 I-0.0032 J0.0038
X0.9799 Y1.752 Z0.0506 I0.0032 J-0.0038
X0.9735 Y1.7597 Z0.05 I-0.0032 J0.0038
X0.9799 Y1.752 Z0.0495 I0.0032 J-0.0038
X0.9735 Y1.7597 Z0.0489 I-0.0032 J0.0038
X0.9799 Y1.752 Z0.0484 I0.0032 J-0.0038
X0.9735 Y1.7597 Z0.0478 I-0.0032 J0.0038
X0.9799 Y1.752 Z0.0473 I0.0032 J-0.0038
X0.9735 Y1.7597 Z0.0467 I-0.0032 J0.0038
X0.9799 Y1.752 Z0.0462 I0.0032 J-0.0038
X0.9735 Y1.7597 Z0.0457 I-0.0032 J0.0038
X0.9799 Y1.752 Z0.0451 I0.0032 J-0.0038
X0.9735 Y1.7597 Z0.0446 I-0.0032 J0.0038
X0.9799 Y1.752 Z0.044 I0.0032 J-0.0038
X0.9735 Y1.7597 Z0.0435 I-0.0032 J0.0038
X0.9799 Y1.752 Z0.0429 I0.0032 J-0.0038
X0.9735 Y1.7597 Z0.0424 I-0.0032 J0.0038
X0.9799 Y1.752 Z0.0418 I0.0032 J-0.0038
X0.9735 Y1.7597 Z0.0413 I-0.0032 J0.0038
X0.9799 Y1.752 Z0.0407 I0.0032 J-0.0038
X0.9735 Y1.7597 Z0.0402 I-0.0032 J0.0038
X0.9799 Y1.752 Z0.0396 I0.0032 J-0.0038
X0.9735 Y1.7597 Z0.0391 I-0.0032 J0.0038
X0.9799 Y1.752 Z0.0385 I0.0032 J-0.0038
X0.9735 Y1.7597 Z0.038 I-0.0032 J0.0038
X0.9799 Y1.752 Z0.0374 I0.0032 J-0.0038
X0.9735 Y1.7597 Z0.0369 I-0.0032 J0.0038
X0.9799 Y1.752 Z0.0363 I0.0032 J-0.0038
X0.9735 Y1.7597 Z0.0358 I-0.0032 J0.0038
X0.9799 Y1.752 Z0.0352 I0.0032 J-0.0038
X0.9735 Y1.7597 Z0.0347 I-0.0032 J0.0038
X0.9799 Y1.752 Z0.0341 I0.0032 J-0.0038
X0.9735 Y1.7597 Z0.0336 I-0.0032 J0.0038
X0.9799 Y1.752 Z0.033 I0.0032 J-0.0038
X0.9735 Y1.7597 Z0.0325 I-0.0032 J0.0038
X0.9799 Y1.752 Z0.0319 I0.0032 J-0.0038
X0.9735 Y1.7597 Z0.0314 I-0.0032 J0.0038
X0.9799 Y1.752 Z0.0308 I0.0032 J-0.0038
X0.9735 Y1.7597 Z0.0303 I-0.0032 J0.0038
X0.9799 Y1.752 Z0.0297 I0.0032 J-0.0038
X0.9735 Y1.7597 Z0.0292 I-0.0032 J0.0038
X0.9799 Y1.752 Z0.0286 I0.0032 J-0.0038
X0.9735 Y1.7597 Z0.0281 I-0.0032 J0.0038
X0.9799 Y1.752 Z0.0276 I0.0032 J-0.0038
X0.9735 Y1.7597 Z0.027 I-0.0032 J0.0038
X0.9799 Y1.752 Z0.0265 I0.0032 J-0.0038
X0.9735 Y1.7597 Z0.0259 I-0.0032 J0.0038
X0.9799 Y1.752 Z0.0254 I0.0032 J-0.0038
X0.9735 Y1.7597 Z0.0248 I-0.0032 J0.0038
X0.9799 Y1.752 Z0.0243 I0.0032 J-0.0038
X0.9735 Y1.7597 Z0.0237 I-0.0032 J0.0038
X0.9799 Y1.752 Z0.0232 I0.0032 J-0.0038
X0.9735 Y1.7597 Z0.0226 I-0.0032 J0.0038
X0.9799 Y1.752 Z0.0221 I0.0032 J-0.0038
X0.9735 Y1.7597 Z0.0215 I-0.0032 J0.0038
X0.9717 Y1.7558 Z0.0214 I0.0032 J-0.0038
X1.0174 I0.0229 J0. F40.
X0.8596 I-0.0789 J0.
X1.1295 I0.135 J0.
X0.7475 I-0.191 J0.
X1.1295 I0.191 J0.
G1 X1.1292 Y1.7577
X1.1283 Y1.7594
X1.1269 Y1.7607
X1.1251 Y1.7615
X1.1232 Y1.7617
X1.0505 Y1.7572
X0.978 Y1.7618
X0.9763 Y1.7617
X0.9747 Y1.7611
X0.9734 Y1.76
X0.9724 Y1.7587
X0.9718 Y1.7571
X0.9717 Y1.7554
G3 X0.9817 Y1.7562 Z0.0208 I0.005 J0.0004 F20.
X0.9717 Y1.7554 Z0.0203 I-0.005 J-0.0004
X0.9817 Y1.7562 Z0.0197 I0.005 J0.0004
X0.9717 Y1.7554 Z0.0192 I-0.005 J-0.0004
X0.9817 Y1.7562 Z0.0186 I0.005 J0.0004
X0.9717 Y1.7554 Z0.0181 I-0.005 J-0.0004
X0.9817 Y1.7562 Z0.0175 I0.005 J0.0004
X0.9717 Y1.7554 Z0.017 I-0.005 J-0.0004
X0.9817 Y1.7562 Z0.0164 I0.005 J0.0004
X0.9717 Y1.7554 Z0.0159 I-0.005 J-0.0004
X0.9817 Y1.7562 Z0.0153 I0.005 J0.0004
X0.9717 Y1.7554 Z0.0148 I-0.005 J-0.0004
X0.9817 Y1.7562 Z0.0142 I0.005 J0.0004
X0.9717 Y1.7554 Z0.0137 I-0.005 J-0.0004
X0.9817 Y1.7562 Z0.0131 I0.005 J0.0004
X0.9717 Y1.7554 Z0.0126 I-0.005 J-0.0004
X0.9817 Y1.7562 Z0.012 I0.005 J0.0004
X0.9717 Y1.7554 Z0.0115 I-0.005 J-0.0004
X0.9817 Y1.7562 Z0.0109 I0.005 J0.0004
X0.9717 Y1.7554 Z0.0104 I-0.005 J-0.0004
X0.9817 Y1.7562 Z0.0098 I0.005 J0.0004
X0.9717 Y1.7554 Z0.0093 I-0.005 J-0.0004
X0.9817 Y1.7562 Z0.0087 I0.005 J0.0004
X0.9717 Y1.7554 Z0.0082 I-0.005 J-0.0004
X0.9817 Y1.7562 Z0.0077 I0.005 J0.0004
X0.9717 Y1.7554 Z0.0071 I-0.005 J-0.0004
X0.9817 Y1.7562 Z0.0066 I0.005 J0.0004
X0.9717 Y1.7554 Z0.006 I-0.005 J-0.0004
X0.9817 Y1.7562 Z0.0055 I0.005 J0.0004
X0.9717 Y1.7554 Z0.0049 I-0.005 J-0.0004
X0.9817 Y1.7562 Z0.0044 I0.005 J0.0004
X0.9717 Y1.7554 Z0.0038 I-0.005 J-0.0004
X0.9817 Y1.7562 Z0.0033 I0.005 J0.0004
X0.9717 Y1.7558 Z0.0027 I-0.005 J-0.0004
X1.0174 I0.0229 J0. F40.
X0.8596 I-0.0789 J0.
X1.1295 I0.135 J0.
X0.7475 I-0.191 J0.
X1.1295 I0.191 J0.
G1 X1.1292 Y1.7577
X1.1283 Y1.7594
X1.1269 Y1.7607
X1.1251 Y1.7615
X1.1232 Y1.7617
X1.0505 Y1.7572
X0.978 Y1.7618
X0.9763 Y1.7617
X0.9747 Y1.7611
X0.9734 Y1.76
X0.9724 Y1.7587
X0.9718 Y1.7571
X0.9717 Y1.7554
G3 X0.9817 Y1.7562 Z0.0022 I0.005 J0.0004 F20.
X0.9717 Y1.7554 Z0.0016 I-0.005 J-0.0004
X0.9817 Y1.7562 Z0.0011 I0.005 J0.0004
X0.9717 Y1.7554 Z0.0005 I-0.005 J-0.0004
X0.9817 Y1.7562 Z0. I0.005 J0.0004
X0.9717 Y1.7554 Z-0.0006 I-0.005 J-0.0004
X0.9817 Y1.7562 Z-0.0011 I0.005 J0.0004
X0.9717 Y1.7554 Z-0.0017 I-0.005 J-0.0004
X0.9817 Y1.7562 Z-0.0022 I0.005 J0.0004
X0.9717 Y1.7554 Z-0.0028 I-0.005 J-0.0004
X0.9817 Y1.7562 Z-0.0033 I0.005 J0.0004
X0.9717 Y1.7554 Z-0.0039 I-0.005 J-0.0004
X0.9817 Y1.7562 Z-0.0044 I0.005 J0.0004
X0.9717 Y1.7554 Z-0.005 I-0.005 J-0.0004
X0.9817 Y1.7562 Z-0.0055 I0.005 J0.0004
X0.9717 Y1.7554 Z-0.006 I-0.005 J-0.0004
X0.9817 Y1.7562 Z-0.0066 I0.005 J0.0004
X0.9717 Y1.7554 Z-0.0071 I-0.005 J-0.0004
X0.9817 Y1.7562 Z-0.0077 I0.005 J0.0004
X0.9717 Y1.7554 Z-0.0082 I-0.005 J-0.0004
X0.9817 Y1.7562 Z-0.0088 I0.005 J0.0004
X0.9717 Y1.7554 Z-0.0093 I-0.005 J-0.0004
X0.9817 Y1.7562 Z-0.0099 I0.005 J0.0004
X0.9717 Y1.7554 Z-0.0104 I-0.005 J-0.0004
X0.9817 Y1.7562 Z-0.011 I0.005 J0.0004
X0.9717 Y1.7554 Z-0.0115 I-0.005 J-0.0004
X0.9817 Y1.7562 Z-0.0121 I0.005 J0.0004
X0.9717 Y1.7554 Z-0.0126 I-0.005 J-0.0004
X0.9817 Y1.7562 Z-0.0132 I0.005 J0.0004
X0.9717 Y1.7554 Z-0.0137 I-0.005 J-0.0004
X0.9817 Y1.7562 Z-0.0143 I0.005 J0.0004
X0.9717 Y1.7554 Z-0.0148 I-0.005 J-0.0004
X0.9817 Y1.7562 Z-0.0154 I0.005 J0.0004
X0.9717 Y1.7558 Z-0.0159 I-0.005 J-0.0004
X1.0174 I0.0229 J0. F40.
X0.8596 I-0.0789 J0.
X1.1295 I0.135 J0.
X0.7475 I-0.191 J0.
X1.1295 I0.191 J0.
G1 X1.1292 Y1.7577
X1.1283 Y1.7594
X1.1269 Y1.7607
X1.1251 Y1.7615
X1.1232 Y1.7617
X1.0505 Y1.7572
X0.978 Y1.7618
X0.9763 Y1.7617
X0.9747 Y1.7611
X0.9734 Y1.76
X0.9724 Y1.7587
X0.9718 Y1.7571
X0.9717 Y1.7554
G3 X0.9817 Y1.7562 Z-0.0165 I0.005 J0.0004 F20.
X0.9717 Y1.7554 Z-0.017 I-0.005 J-0.0004
X0.9817 Y1.7562 Z-0.0176 I0.005 J0.0004
X0.9717 Y1.7554 Z-0.0181 I-0.005 J-0.0004
X0.9817 Y1.7562 Z-0.0187 I0.005 J0.0004
X0.9717 Y1.7554 Z-0.0192 I-0.005 J-0.0004
X0.9817 Y1.7562 Z-0.0197 I0.005 J0.0004
X0.9717 Y1.7554 Z-0.0203 I-0.005 J-0.0004
X0.9817 Y1.7562 Z-0.0208 I0.005 J0.0004
X0.9717 Y1.7554 Z-0.0214 I-0.005 J-0.0004
X0.9817 Y1.7562 Z-0.0219 I0.005 J0.0004
X0.9717 Y1.7554 Z-0.0225 I-0.005 J-0.0004
X0.9817 Y1.7562 Z-0.023 I0.005 J0.0004
X0.9717 Y1.7554 Z-0.0236 I-0.005 J-0.0004
X0.9817 Y1.7562 Z-0.0241 I0.005 J0.0004
X0.9717 Y1.7554 Z-0.0247 I-0.005 J-0.0004
X0.9817 Y1.7562 Z-0.0252 I0.005 J0.0004
X0.9717 Y1.7554 Z-0.0258 I-0.005 J-0.0004
X0.9817 Y1.7562 Z-0.0263 I0.005 J0.0004
X0.9717 Y1.7554 Z-0.0269 I-0.005 J-0.0004
X0.9817 Y1.7562 Z-0.0274 I0.005 J0.0004
X0.9717 Y1.7554 Z-0.028 I-0.005 J-0.0004
X0.9817 Y1.7562 Z-0.0285 I0.005 J0.0004
X0.9717 Y1.7554 Z-0.0291 I-0.005 J-0.0004
X0.9817 Y1.7562 Z-0.0296 I0.005 J0.0004
X0.9717 Y1.7554 Z-0.0302 I-0.005 J-0.0004
X0.9817 Y1.7562 Z-0.0307 I0.005 J0.0004
X0.9717 Y1.7554 Z-0.0313 I-0.005 J-0.0004
X0.9817 Y1.7562 Z-0.0318 I0.005 J0.0004
X0.9717 Y1.7554 Z-0.0324 I-0.005 J-0.0004
X0.9817 Y1.7562 Z-0.0329 I0.005 J0.0004
X0.9717 Y1.7554 Z-0.0335 I-0.005 J-0.0004
X0.9817 Y1.7562 Z-0.034 I0.005 J0.0004
X0.9717 Y1.7558 Z-0.0345 I-0.005 J-0.0004
X1.0174 I0.0229 J0. F40.
X0.8596 I-0.0789 J0.
X1.1295 I0.135 J0.
X0.7475 I-0.191 J0.
X1.1295 I0.191 J0.
G1 X1.1292 Y1.7577
X1.1283 Y1.7594
X1.1269 Y1.7607
X1.1251 Y1.7615
X1.1232 Y1.7617
X1.0505 Y1.7572
X0.978 Y1.7618
X0.9763 Y1.7617
X0.9747 Y1.7611
X0.9734 Y1.76
X0.9724 Y1.7587
X0.9718 Y1.7571
X0.9717 Y1.7554
G3 X0.9817 Y1.7562 Z-0.0351 I0.005 J0.0004 F20.
X0.9717 Y1.7554 Z-0.0356 I-0.005 J-0.0004
X0.9817 Y1.7562 Z-0.0362 I0.005 J0.0004
X0.9717 Y1.7554 Z-0.0367 I-0.005 J-0.0004
X0.9817 Y1.7562 Z-0.0373 I0.005 J0.0004
X0.9717 Y1.7554 Z-0.0378 I-0.005 J-0.0004
X0.9817 Y1.7562 Z-0.0384 I0.005 J0.0004
X0.9717 Y1.7554 Z-0.0389 I-0.005 J-0.0004
X0.9817 Y1.7562 Z-0.0395 I0.005 J0.0004
X0.9717 Y1.7554 Z-0.04 I-0.005 J-0.0004
X0.9817 Y1.7562 Z-0.0406 I0.005 J0.0004
X0.9717 Y1.7554 Z-0.0411 I-0.005 J-0.0004
X0.9817 Y1.7562 Z-0.0417 I0.005 J0.0004
X0.9717 Y1.7554 Z-0.0422 I-0.005 J-0.0004
X0.9817 Y1.7562 Z-0.0428 I0.005 J0.0004
X0.9717 Y1.7554 Z-0.0433 I-0.005 J-0.0004
X0.9817 Y1.7562 Z-0.0439 I0.005 J0.0004
X0.9717 Y1.7554 Z-0.0444 I-0.005 J-0.0004
X0.9817 Y1.7562 Z-0.045 I0.005 J0.0004
X0.9717 Y1.7554 Z-0.0455 I-0.005 J-0.0004
X0.9817 Y1.7562 Z-0.0461 I0.005 J0.0004
X0.9717 Y1.7554 Z-0.0466 I-0.005 J-0.0004
X0.9817 Y1.7562 Z-0.0472 I0.005 J0.0004
X0.9717 Y1.7554 Z-0.0477 I-0.005 J-0.0004
X0.9817 Y1.7562 Z-0.0483 I0.005 J0.0004
X0.9717 Y1.7554 Z-0.0488 I-0.005 J-0.0004
X0.9817 Y1.7562 Z-0.0494 I0.005 J0.0004
X0.9717 Y1.7554 Z-0.0499 I-0.005 J-0.0004
X0.9817 Y1.7562 Z-0.0505 I0.005 J0.0004
X0.9717 Y1.7554 Z-0.051 I-0.005 J-0.0004
X0.9817 Y1.7562 Z-0.0516 I0.005 J0.0004
X0.9717 Y1.7554 Z-0.0521 I-0.005 J-0.0004
X0.9817 Y1.7562 Z-0.0526 I0.005 J0.0004
X0.9717 Y1.7558 Z-0.0532 I-0.005 J-0.0004
X1.0174 I0.0229 J0. F40.
X0.8596 I-0.0789 J0.
X1.1295 I0.135 J0.
X0.7475 I-0.191 J0.
X1.1295 I0.191 J0.
G1 X1.1292 Y1.7577
X1.1283 Y1.7594
X1.1269 Y1.7607
X1.1251 Y1.7615
X1.1232 Y1.7617
X1.0505 Y1.7572
X0.978 Y1.7618
X0.9763 Y1.7617
X0.9747 Y1.7611
X0.9734 Y1.76
X0.9724 Y1.7587
X0.9718 Y1.7571
X0.9717 Y1.7554
G3 X0.9817 Y1.7562 Z-0.0537 I0.005 J0.0004 F20.
X0.9717 Y1.7554 Z-0.0543 I-0.005 J-0.0004
X0.9817 Y1.7562 Z-0.0548 I0.005 J0.0004
X0.9717 Y1.7554 Z-0.0554 I-0.005 J-0.0004
X0.9817 Y1.7562 Z-0.0559 I0.005 J0.0004
X0.9717 Y1.7554 Z-0.0565 I-0.005 J-0.0004
X0.9817 Y1.7562 Z-0.057 I0.005 J0.0004
X0.9717 Y1.7554 Z-0.0576 I-0.005 J-0.0004
X0.9817 Y1.7562 Z-0.0581 I0.005 J0.0004
X0.9717 Y1.7554 Z-0.0587 I-0.005 J-0.0004
X0.9817 Y1.7562 Z-0.0592 I0.005 J0.0004
X0.9717 Y1.7554 Z-0.0598 I-0.005 J-0.0004
X0.9817 Y1.7562 Z-0.0603 I0.005 J0.0004
X0.9717 Y1.7554 Z-0.0609 I-0.005 J-0.0004
X0.9817 Y1.7562 Z-0.0614 I0.005 J0.0004
X0.9717 Y1.7554 Z-0.062 I-0.005 J-0.0004
X0.9817 Y1.7562 Z-0.0625 I0.005 J0.0004
X0.9717 Y1.7554 Z-0.0631 I-0.005 J-0.0004
X0.9817 Y1.7562 Z-0.0636 I0.005 J0.0004
X0.9717 Y1.7554 Z-0.0642 I-0.005 J-0.0004
X0.9817 Y1.7562 Z-0.0647 I0.005 J0.0004
X0.9717 Y1.7554 Z-0.0652 I-0.005 J-0.0004
X0.9817 Y1.7562 Z-0.0658 I0.005 J0.0004
X0.9717 Y1.7554 Z-0.0663 I-0.005 J-0.0004
X0.9817 Y1.7562 Z-0.0669 I0.005 J0.0004
X0.9717 Y1.7554 Z-0.0674 I-0.005 J-0.0004
X0.9817 Y1.7562 Z-0.068 I0.005 J0.0004
X0.9717 Y1.7554 Z-0.0685 I-0.005 J-0.0004
X0.9817 Y1.7562 Z-0.0691 I0.005 J0.0004
X0.9717 Y1.7554 Z-0.0696 I-0.005 J-0.0004
X0.9817 Y1.7562 Z-0.0702 I0.005 J0.0004
X0.9717 Y1.7554 Z-0.0707 I-0.005 J-0.0004
X0.9817 Y1.7562 Z-0.0713 I0.005 J0.0004
X0.9717 Y1.7558 Z-0.0718 I-0.005 J-0.0004
X1.0174 I0.0229 J0. F40.
X0.8596 I-0.0789 J0.
X1.1295 I0.135 J0.
X0.7475 I-0.191 J0.
X1.1295 I0.191 J0.
G1 X1.1292 Y1.7577
X1.1283 Y1.7594
X1.1269 Y1.7607
X1.1251 Y1.7615
X1.1232 Y1.7617
X1.0505 Y1.7572
X0.978 Y1.7618
X0.9763 Y1.7617
X0.9747 Y1.7611
X0.9734 Y1.76
X0.9724 Y1.7587
X0.9718 Y1.7571
X0.9717 Y1.7554
G3 X0.9817 Y1.7562 Z-0.0724 I0.005 J0.0004 F20.
X0.9717 Y1.7554 Z-0.0729 I-0.005 J-0.0004
X0.9817 Y1.7562 Z-0.0735 I0.005 J0.0004
X0.9717 Y1.7554 Z-0.074 I-0.005 J-0.0004
X0.9817 Y1.7562 Z-0.0746 I0.005 J0.0004
X0.9717 Y1.7554 Z-0.0751 I-0.005 J-0.0004
X0.9817 Y1.7562 Z-0.0757 I0.005 J0.0004
X0.9717 Y1.7554 Z-0.0762 I-0.005 J-0.0004
X0.9817 Y1.7562 Z-0.0768 I0.005 J0.0004
X0.9717 Y1.7554 Z-0.0773 I-0.005 J-0.0004
X0.9817 Y1.7562 Z-0.0779 I0.005 J0.0004
X0.9717 Y1.7554 Z-0.0784 I-0.005 J-0.0004
X0.9817 Y1.7562 Z-0.0789 I0.005 J0.0004
X0.9717 Y1.7554 Z-0.0795 I-0.005 J-0.0004
X0.9817 Y1.7562 Z-0.08 I0.005 J0.0004
X0.9717 Y1.7554 Z-0.0806 I-0.005 J-0.0004
X0.9817 Y1.7562 Z-0.0811 I0.005 J0.0004
X0.9717 Y1.7554 Z-0.0817 I-0.005 J-0.0004
X0.9817 Y1.7562 Z-0.0822 I0.005 J0.0004
X0.9717 Y1.7554 Z-0.0828 I-0.005 J-0.0004
X0.9817 Y1.7562 Z-0.0833 I0.005 J0.0004
X0.9717 Y1.7554 Z-0.0839 I-0.005 J-0.0004
X0.9817 Y1.7562 Z-0.0844 I0.005 J0.0004
X0.9717 Y1.7554 Z-0.085 I-0.005 J-0.0004
X0.9817 Y1.7562 Z-0.0855 I0.005 J0.0004
X0.9717 Y1.7554 Z-0.0861 I-0.005 J-0.0004
X0.9817 Y1.7562 Z-0.0866 I0.005 J0.0004
X0.9717 Y1.7554 Z-0.0872 I-0.005 J-0.0004
X0.9817 Y1.7562 Z-0.0877 I0.005 J0.0004
X0.9717 Y1.7554 Z-0.0883 I-0.005 J-0.0004
X0.9817 Y1.7562 Z-0.0888 I0.005 J0.0004
X0.9717 Y1.7554 Z-0.0894 I-0.005 J-0.0004
X0.9817 Y1.7562 Z-0.0899 I0.005 J0.0004
X0.9717 Y1.7558 Z-0.0905 I-0.005 J-0.0004
X1.0174 I0.0229 J0. F40.
X0.8596 I-0.0789 J0.
X1.1295 I0.135 J0.
X0.7475 I-0.191 J0.
X1.1295 I0.191 J0.
G1 X1.1292 Y1.7577
X1.1283 Y1.7594
X1.1269 Y1.7607
X1.1251 Y1.7615
X1.1232 Y1.7617
X1.0505 Y1.7572
X0.978 Y1.7618
X0.9763 Y1.7617
X0.9747 Y1.7611
X0.9734 Y1.76
X0.9724 Y1.7587
X0.9718 Y1.7571
X0.9717 Y1.7554
G3 X0.9817 Y1.7562 Z-0.091 I0.005 J0.0004 F20.
X0.9717 Y1.7554 Z-0.0916 I-0.005 J-0.0004
X0.9817 Y1.7562 Z-0.0921 I0.005 J0.0004
X0.9717 Y1.7554 Z-0.0926 I-0.005 J-0.0004
X0.9817 Y1.7562 Z-0.0932 I0.005 J0.0004
X0.9717 Y1.7554 Z-0.0937 I-0.005 J-0.0004
X0.9817 Y1.7562 Z-0.0943 I0.005 J0.0004
X0.9717 Y1.7554 Z-0.0948 I-0.005 J-0.0004
X0.9817 Y1.7562 Z-0.0954 I0.005 J0.0004
X0.9717 Y1.7554 Z-0.0959 I-0.005 J-0.0004
X0.9817 Y1.7562 Z-0.0965 I0.005 J0.0004
X0.9717 Y1.7554 Z-0.097 I-0.005 J-0.0004
X0.9817 Y1.7562 Z-0.0976 I0.005 J0.0004
X0.9717 Y1.7554 Z-0.0981 I-0.005 J-0.0004
X0.9817 Y1.7562 Z-0.0987 I0.005 J0.0004
X0.9717 Y1.7554 Z-0.0992 I-0.005 J-0.0004
X0.9817 Y1.7562 Z-0.0998 I0.005 J0.0004
X0.9717 Y1.7554 Z-0.1003 I-0.005 J-0.0004
X0.9817 Y1.7562 Z-0.1009 I0.005 J0.0004
X0.9717 Y1.7554 Z-0.1014 I-0.005 J-0.0004
X0.9817 Y1.7562 Z-0.102 I0.005 J0.0004
X0.9717 Y1.7554 Z-0.1025 I-0.005 J-0.0004
X0.9817 Y1.7562 Z-0.1031 I0.005 J0.0004
X0.9717 Y1.7554 Z-0.1036 I-0.005 J-0.0004
X0.9817 Y1.7562 Z-0.1042 I0.005 J0.0004
X0.9717 Y1.7554 Z-0.1047 I-0.005 J-0.0004
X0.9817 Y1.7562 Z-0.1053 I0.005 J0.0004
X0.9717 Y1.7554 Z-0.1058 I-0.005 J-0.0004
X0.9817 Y1.7562 Z-0.1064 I0.005 J0.0004
X0.9717 Y1.7554 Z-0.1069 I-0.005 J-0.0004
X0.9817 Y1.7562 Z-0.1075 I0.005 J0.0004
X0.9717 Y1.7554 Z-0.108 I-0.005 J-0.0004
X0.9817 Y1.7562 Z-0.1086 I0.005 J0.0004
X0.9717 Y1.7558 Z-0.1091 I-0.005 J-0.0004
X1.0174 I0.0229 J0. F40.
X0.8596 I-0.0789 J0.
X1.1295 I0.135 J0.
X0.7475 I-0.191 J0.
X1.1295 I0.191 J0.
G1 X1.1292 Y1.7577
X1.1283 Y1.7594
X1.1269 Y1.7607
X1.1251 Y1.7615
X1.1232 Y1.7617
X1.0505 Y1.7572
X0.978 Y1.7618
X0.9763 Y1.7617
X0.9747 Y1.7611
X0.9734 Y1.76
X0.9724 Y1.7587
X0.9718 Y1.7571
X0.9717 Y1.7554
G3 X0.9817 Y1.7562 Z-0.1096 I0.005 J0.0004 F20.
X0.9717 Y1.7554 Z-0.1102 I-0.005 J-0.0004
X0.9817 Y1.7562 Z-0.1107 I0.005 J0.0004
X0.9717 Y1.7554 Z-0.1113 I-0.005 J-0.0004
X0.9817 Y1.7562 Z-0.1118 I0.005 J0.0004
X0.9717 Y1.7554 Z-0.1124 I-0.005 J-0.0004
X0.9817 Y1.7562 Z-0.1129 I0.005 J0.0004
X0.9717 Y1.7554 Z-0.1135 I-0.005 J-0.0004
X0.9817 Y1.7562 Z-0.114 I0.005 J0.0004
X0.9717 Y1.7554 Z-0.1146 I-0.005 J-0.0004
X0.9817 Y1.7562 Z-0.1151 I0.005 J0.0004
X0.9717 Y1.7554 Z-0.1157 I-0.005 J-0.0004
X0.9817 Y1.7562 Z-0.1162 I0.005 J0.0004
X0.9717 Y1.7554 Z-0.1168 I-0.005 J-0.0004
X0.9817 Y1.7562 Z-0.1173 I0.005 J0.0004
X0.9717 Y1.7554 Z-0.1179 I-0.005 J-0.0004
X0.9817 Y1.7562 Z-0.1184 I0.005 J0.0004
X0.9717 Y1.7554 Z-0.119 I-0.005 J-0.0004
X0.9817 Y1.7562 Z-0.1195 I0.005 J0.0004
X0.9717 Y1.7554 Z-0.1201 I-0.005 J-0.0004
X0.9817 Y1.7562 Z-0.1206 I0.005 J0.0004
X0.9717 Y1.7554 Z-0.1212 I-0.005 J-0.0004
X0.9817 Y1.7562 Z-0.1217 I0.005 J0.0004
X0.9717 Y1.7554 Z-0.1223 I-0.005 J-0.0004
X0.9817 Y1.7562 Z-0.1228 I0.005 J0.0004
X0.9717 Y1.7554 Z-0.1234 I-0.005 J-0.0004
X0.9817 Y1.7562 Z-0.1239 I0.005 J0.0004
X0.9717 Y1.7554 Z-0.1244 I-0.005 J-0.0004
X0.9817 Y1.7562 Z-0.125 I0.005 J0.0004
X0.9717 Y1.7554 Z-0.1255 I-0.005 J-0.0004
X0.9817 Y1.7562 Z-0.1261 I0.005 J0.0004
X0.9717 Y1.7554 Z-0.1266 I-0.005 J-0.0004
X0.9817 Y1.7562 Z-0.1272 I0.005 J0.0004
X0.9717 Y1.7558 Z-0.1277 I-0.005 J-0.0004
X1.0174 I0.0229 J0. F40.
X0.8596 I-0.0789 J0.
X1.1295 I0.135 J0.
X0.7475 I-0.191 J0.
X1.1295 I0.191 J0.
G1 X1.1292 Y1.7577
X1.1283 Y1.7594
X1.1269 Y1.7607
X1.1251 Y1.7615
X1.1232 Y1.7617
X1.0505 Y1.7572
X0.978 Y1.7618
X0.9763 Y1.7617
X0.9747 Y1.7611
X0.9734 Y1.76
X0.9724 Y1.7587
X0.9718 Y1.7571
X0.9717 Y1.7554
G3 X0.9817 Y1.7562 Z-0.1283 I0.005 J0.0004 F20.
X0.9717 Y1.7554 Z-0.1288 I-0.005 J-0.0004
X0.9817 Y1.7562 Z-0.1294 I0.005 J0.0004
X0.9717 Y1.7554 Z-0.1299 I-0.005 J-0.0004
X0.9817 Y1.7562 Z-0.1305 I0.005 J0.0004
X0.9717 Y1.7554 Z-0.131 I-0.005 J-0.0004
X0.9817 Y1.7562 Z-0.1316 I0.005 J0.0004
X0.9717 Y1.7554 Z-0.1321 I-0.005 J-0.0004
X0.9817 Y1.7562 Z-0.1327 I0.005 J0.0004
X0.9717 Y1.7554 Z-0.1332 I-0.005 J-0.0004
X0.9817 Y1.7562 Z-0.1338 I0.005 J0.0004
X0.9717 Y1.7554 Z-0.1343 I-0.005 J-0.0004
X0.9817 Y1.7562 Z-0.1349 I0.005 J0.0004
X0.9717 Y1.7554 Z-0.1354 I-0.005 J-0.0004
X0.9817 Y1.7562 Z-0.136 I0.005 J0.0004
X0.9717 Y1.7554 Z-0.1365 I-0.005 J-0.0004
X0.9817 Y1.7562 Z-0.1371 I0.005 J0.0004
X0.9717 Y1.7554 Z-0.1376 I-0.005 J-0.0004
X0.9817 Y1.7562 Z-0.1381 I0.005 J0.0004
X0.9717 Y1.7554 Z-0.1387 I-0.005 J-0.0004
X0.9817 Y1.7562 Z-0.1392 I0.005 J0.0004
X0.9717 Y1.7554 Z-0.1398 I-0.005 J-0.0004
X0.9817 Y1.7562 Z-0.1403 I0.005 J0.0004
X0.9717 Y1.7554 Z-0.1409 I-0.005 J-0.0004
X0.9817 Y1.7562 Z-0.1414 I0.005 J0.0004
X0.9717 Y1.7554 Z-0.142 I-0.005 J-0.0004
X0.9817 Y1.7562 Z-0.1425 I0.005 J0.0004
X0.9717 Y1.7554 Z-0.1431 I-0.005 J-0.0004
X0.9817 Y1.7562 Z-0.1436 I0.005 J0.0004
X0.9717 Y1.7554 Z-0.1442 I-0.005 J-0.0004
X0.9817 Y1.7562 Z-0.1447 I0.005 J0.0004
X0.9717 Y1.7554 Z-0.1453 I-0.005 J-0.0004
X0.9817 Y1.7562 Z-0.1458 I0.005 J0.0004
X0.9717 Y1.7558 Z-0.1464 I-0.005 J-0.0004
X1.0174 I0.0229 J0. F40.
X0.8596 I-0.0789 J0.
X1.1295 I0.135 J0.
X0.7475 I-0.191 J0.
X1.1295 I0.191 J0.
G1 X1.1292 Y1.7577
X1.1283 Y1.7594
X1.1269 Y1.7607
X1.1251 Y1.7615
X1.1232 Y1.7617
X1.0505 Y1.7572
X0.978 Y1.7618
X0.9763 Y1.7617
X0.9747 Y1.7611
X0.9734 Y1.76
X0.9724 Y1.7587
X0.9718 Y1.7571
X0.9717 Y1.7554
G3 X0.9817 Y1.7562 Z-0.1469 I0.005 J0.0004 F20.
X0.9717 Y1.7554 Z-0.1475 I-0.005 J-0.0004
X0.9817 Y1.7562 Z-0.148 I0.005 J0.0004
X0.9717 Y1.7554 Z-0.1486 I-0.005 J-0.0004
X0.9817 Y1.7562 Z-0.1491 I0.005 J0.0004
X0.9717 Y1.7554 Z-0.1497 I-0.005 J-0.0004
X0.9817 Y1.7562 Z-0.1502 I0.005 J0.0004
X0.9717 Y1.7554 Z-0.1508 I-0.005 J-0.0004
X0.9817 Y1.7562 Z-0.1513 I0.005 J0.0004
X0.9717 Y1.7554 Z-0.1518 I-0.005 J-0.0004
X0.9817 Y1.7562 Z-0.1524 I0.005 J0.0004
X0.9717 Y1.7554 Z-0.1529 I-0.005 J-0.0004
X0.9817 Y1.7562 Z-0.1535 I0.005 J0.0004
X0.9717 Y1.7554 Z-0.154 I-0.005 J-0.0004
X0.9817 Y1.7562 Z-0.1546 I0.005 J0.0004
X0.9717 Y1.7554 Z-0.1551 I-0.005 J-0.0004
X0.9817 Y1.7562 Z-0.1557 I0.005 J0.0004
X0.9717 Y1.7554 Z-0.1562 I-0.005 J-0.0004
X0.9817 Y1.7562 Z-0.1568 I0.005 J0.0004
X0.9717 Y1.7554 Z-0.1573 I-0.005 J-0.0004
X0.9817 Y1.7562 Z-0.1579 I0.005 J0.0004
X0.9717 Y1.7554 Z-0.1584 I-0.005 J-0.0004
X0.9817 Y1.7562 Z-0.159 I0.005 J0.0004
X0.9717 Y1.7554 Z-0.1595 I-0.005 J-0.0004
X0.9817 Y1.7562 Z-0.1601 I0.005 J0.0004
X0.9717 Y1.7554 Z-0.1606 I-0.005 J-0.0004
X0.9817 Y1.7562 Z-0.1612 I0.005 J0.0004
X0.9717 Y1.7554 Z-0.1617 I-0.005 J-0.0004
X0.9817 Y1.7562 Z-0.1623 I0.005 J0.0004
X0.9717 Y1.7554 Z-0.1628 I-0.005 J-0.0004
X0.9817 Y1.7562 Z-0.1634 I0.005 J0.0004
X0.9717 Y1.7554 Z-0.1639 I-0.005 J-0.0004
X0.9817 Y1.7562 Z-0.1645 I0.005 J0.0004
X0.9717 Y1.7558 Z-0.165 I-0.005 J-0.0004
X1.0174 I0.0229 J0. F40.
X0.8596 I-0.0789 J0.
X1.1295 I0.135 J0.
X0.7475 I-0.191 J0.
X1.1295 I0.191 J0.
G1 X1.1293 Y1.7581 Z-0.1646
X1.1286 Y1.7602 Z-0.1641
X1.1278 Y1.7619 Z-0.1628
X1.1267 Y1.7635 Z-0.1615
X1.1248 Y1.7652 Z-0.1577
X1.1241 Y1.7658 Z-0.1532
G0 Z0.24
X5.4264 Y2.3759
G1 Z0.1518 F40.
X5.4262 Y2.3771 Z0.1465 F20.
X5.4256 Y2.3787 Z0.1444
X5.4244 Y2.38 Z0.1424
X5.423 Y2.3807 Z0.1415
X5.4214 Y2.381 Z0.1407
X5.4197 Y2.3807 Z0.1403
X5.4182 Y2.3798 Z0.14
G3 X5.4246 Y2.3721 Z0.1395 I0.0032 J-0.0038
X5.4182 Y2.3798 Z0.1389 I-0.0032 J0.0038
X5.4246 Y2.3721 Z0.1384 I0.0032 J-0.0038
X5.4182 Y2.3798 Z0.1378 I-0.0032 J0.0038
X5.4246 Y2.3721 Z0.1373 I0.0032 J-0.0038
X5.4182 Y2.3798 Z0.1367 I-0.0032 J0.0038
X5.4246 Y2.3721 Z0.1362 I0.0032 J-0.0038
X5.4182 Y2.3798 Z0.1356 I-0.0032 J0.0038
X5.4246 Y2.3721 Z0.1351 I0.0032 J-0.0038
X5.4182 Y2.3798 Z0.1345 I-0.0032 J0.0038
X5.4246 Y2.3721 Z0.134 I0.0032 J-0.0038
X5.4182 Y2.3798 Z0.1334 I-0.0032 J0.0038
X5.4246 Y2.3721 Z0.1329 I0.0032 J-0.0038
X5.4182 Y2.3798 Z0.1323 I-0.0032 J0.0038
X5.4246 Y2.3721 Z0.1318 I0.0032 J-0.0038
X5.4182 Y2.3798 Z0.1312 I-0.0032 J0.0038
X5.4246 Y2.3721 Z0.1307 I0.0032 J-0.0038
X5.4182 Y2.3798 Z0.1301 I-0.0032 J0.0038
X5.4246 Y2.3721 Z0.1296 I0.0032 J-0.0038
X5.4182 Y2.3798 Z0.129 I-0.0032 J0.0038
X5.4246 Y2.3721 Z0.1285 I0.0032 J-0.0038
X5.4182 Y2.3798 Z0.1279 I-0.0032 J0.0038
X5.4246 Y2.3721 Z0.1274 I0.0032 J-0.0038
X5.4182 Y2.3798 Z0.1268 I-0.0032 J0.0038
X5.4246 Y2.3721 Z0.1263 I0.0032 J-0.0038
X5.4182 Y2.3798 Z0.1257 I-0.0032 J0.0038
X5.4246 Y2.3721 Z0.1252 I0.0032 J-0.0038
X5.4182 Y2.3798 Z0.1246 I-0.0032 J0.0038
X5.4246 Y2.3721 Z0.1241 I0.0032 J-0.0038
X5.4182 Y2.3798 Z0.1235 I-0.0032 J0.0038
X5.4246 Y2.3721 Z0.123 I0.0032 J-0.0038
X5.4182 Y2.3798 Z0.1224 I-0.0032 J0.0038
X5.4246 Y2.3721 Z0.1219 I0.0032 J-0.0038
X5.4182 Y2.3798 Z0.1213 I-0.0032 J0.0038
X5.4246 Y2.3721 Z0.1208 I0.0032 J-0.0038
X5.4182 Y2.3798 Z0.1203 I-0.0032 J0.0038
X5.4246 Y2.3721 Z0.1197 I0.0032 J-0.0038
X5.4182 Y2.3798 Z0.1192 I-0.0032 J0.0038
X5.4246 Y2.3721 Z0.1186 I0.0032 J-0.0038
X5.4182 Y2.3798 Z0.1181 I-0.0032 J0.0038
X5.4246 Y2.3721 Z0.1175 I0.0032 J-0.0038
X5.4182 Y2.3798 Z0.117 I-0.0032 J0.0038
X5.4246 Y2.3721 Z0.1164 I0.0032 J-0.0038
X5.4182 Y2.3798 Z0.1159 I-0.0032 J0.0038
X5.4246 Y2.3721 Z0.1153 I0.0032 J-0.0038
X5.4182 Y2.3798 Z0.1148 I-0.0032 J0.0038
X5.4246 Y2.3721 Z0.1142 I0.0032 J-0.0038
X5.4182 Y2.3798 Z0.1137 I-0.0032 J0.0038
X5.4246 Y2.3721 Z0.1131 I0.0032 J-0.0038
X5.4182 Y2.3798 Z0.1126 I-0.0032 J0.0038
X5.4246 Y2.3721 Z0.112 I0.0032 J-0.0038
X5.4182 Y2.3798 Z0.1115 I-0.0032 J0.0038
X5.4246 Y2.3721 Z0.1109 I0.0032 J-0.0038
X5.4182 Y2.3798 Z0.1104 I-0.0032 J0.0038
X5.4246 Y2.3721 Z0.1098 I0.0032 J-0.0038
X5.4182 Y2.3798 Z0.1093 I-0.0032 J0.0038
X5.4246 Y2.3721 Z0.1087 I0.0032 J-0.0038
X5.4182 Y2.3798 Z0.1082 I-0.0032 J0.0038
X5.4246 Y2.3721 Z0.1076 I0.0032 J-0.0038
X5.4182 Y2.3798 Z0.1071 I-0.0032 J0.0038
X5.4246 Y2.3721 Z0.1065 I0.0032 J-0.0038
X5.4182 Y2.3798 Z0.106 I-0.0032 J0.0038
X5.4246 Y2.3721 Z0.1054 I0.0032 J-0.0038
X5.4182 Y2.3798 Z0.1049 I-0.0032 J0.0038
X5.4246 Y2.3721 Z0.1043 I0.0032 J-0.0038
X5.4182 Y2.3798 Z0.1038 I-0.0032 J0.0038
X5.4246 Y2.3721 Z0.1032 I0.0032 J-0.0038
X5.4182 Y2.3798 Z0.1027 I-0.0032 J0.0038
X5.4246 Y2.3721 Z0.1022 I0.0032 J-0.0038
X5.4182 Y2.3798 Z0.1016 I-0.0032 J0.0038
X5.4246 Y2.3721 Z0.1011 I0.0032 J-0.0038
X5.4182 Y2.3798 Z0.1005 I-0.0032 J0.0038
X5.4246 Y2.3721 Z0.1 I0.0032 J-0.0038
X5.4182 Y2.3798 Z0.0994 I-0.0032 J0.0038
X5.4246 Y2.3721 Z0.0989 I0.0032 J-0.0038
X5.4182 Y2.3798 Z0.0983 I-0.0032 J0.0038
X5.4246 Y2.3721 Z0.0978 I0.0032 J-0.0038
X5.4182 Y2.3798 Z0.0972 I-0.0032 J0.0038
X5.4246 Y2.3721 Z0.0967 I0.0032 J-0.0038
X5.4182 Y2.3798 Z0.0961 I-0.0032 J0.0038
X5.4246 Y2.3721 Z0.0956 I0.0032 J-0.0038
X5.4182 Y2.3798 Z0.095 I-0.0032 J0.0038
X5.4246 Y2.3721 Z0.0945 I0.0032 J-0.0038
X5.4182 Y2.3798 Z0.0939 I-0.0032 J0.0038
X5.4246 Y2.3721 Z0.0934 I0.0032 J-0.0038
X5.4182 Y2.3798 Z0.0928 I-0.0032 J0.0038
X5.4246 Y2.3721 Z0.0923 I0.0032 J-0.0038
X5.4182 Y2.3798 Z0.0917 I-0.0032 J0.0038
X5.4246 Y2.3721 Z0.0912 I0.0032 J-0.0038
X5.4182 Y2.3798 Z0.0906 I-0.0032 J0.0038
X5.4246 Y2.3721 Z0.0901 I0.0032 J-0.0038
X5.4182 Y2.3798 Z0.0895 I-0.0032 J0.0038
X5.4246 Y2.3721 Z0.089 I0.0032 J-0.0038
X5.4182 Y2.3798 Z0.0884 I-0.0032 J0.0038
X5.4246 Y2.3721 Z0.0879 I0.0032 J-0.0038
X5.4182 Y2.3798 Z0.0873 I-0.0032 J0.0038
X5.4246 Y2.3721 Z0.0868 I0.0032 J-0.0038
X5.4182 Y2.3798 Z0.0862 I-0.0032 J0.0038
X5.4246 Y2.3721 Z0.0857 I0.0032 J-0.0038
X5.4182 Y2.3798 Z0.0851 I-0.0032 J0.0038
X5.4246 Y2.3721 Z0.0846 I0.0032 J-0.0038
X5.4182 Y2.3798 Z0.084 I-0.0032 J0.0038
X5.4246 Y2.3721 Z0.0835 I0.0032 J-0.0038
X5.4182 Y2.3798 Z0.083 I-0.0032 J0.0038
X5.4246 Y2.3721 Z0.0824 I0.0032 J-0.0038
X5.4182 Y2.3798 Z0.0819 I-0.0032 J0.0038
X5.4246 Y2.3721 Z0.0813 I0.0032 J-0.0038
X5.4182 Y2.3798 Z0.0808 I-0.0032 J0.0038
X5.4246 Y2.3721 Z0.0802 I0.0032 J-0.0038
X5.4182 Y2.3798 Z0.0797 I-0.0032 J0.0038
X5.4246 Y2.3721 Z0.0791 I0.0032 J-0.0038
X5.4182 Y2.3798 Z0.0786 I-0.0032 J0.0038
X5.4246 Y2.3721 Z0.078 I0.0032 J-0.0038
X5.4182 Y2.3798 Z0.0775 I-0.0032 J0.0038
X5.4246 Y2.3721 Z0.0769 I0.0032 J-0.0038
X5.4182 Y2.3798 Z0.0764 I-0.0032 J0.0038
X5.4246 Y2.3721 Z0.0758 I0.0032 J-0.0038
X5.4182 Y2.3798 Z0.0753 I-0.0032 J0.0038
X5.4246 Y2.3721 Z0.0747 I0.0032 J-0.0038
X5.4182 Y2.3798 Z0.0742 I-0.0032 J0.0038
X5.4246 Y2.3721 Z0.0736 I0.0032 J-0.0038
X5.4182 Y2.3798 Z0.0731 I-0.0032 J0.0038
X5.4246 Y2.3721 Z0.0725 I0.0032 J-0.0038
X5.4182 Y2.3798 Z0.072 I-0.0032 J0.0038
X5.4246 Y2.3721 Z0.0714 I0.0032 J-0.0038
X5.4182 Y2.3798 Z0.0709 I-0.0032 J0.0038
X5.4246 Y2.3721 Z0.0703 I0.0032 J-0.0038
X5.4182 Y2.3798 Z0.0698 I-0.0032 J0.0038
X5.4246 Y2.3721 Z0.0692 I0.0032 J-0.0038
X5.4182 Y2.3798 Z0.0687 I-0.0032 J0.0038
X5.4246 Y2.3721 Z0.0681 I0.0032 J-0.0038
X5.4182 Y2.3798 Z0.0676 I-0.0032 J0.0038
X5.4246 Y2.3721 Z0.067 I0.0032 J-0.0038
X5.4182 Y2.3798 Z0.0665 I-0.0032 J0.0038
X5.4246 Y2.3721 Z0.0659 I0.0032 J-0.0038
X5.4182 Y2.3798 Z0.0654 I-0.0032 J0.0038
X5.4246 Y2.3721 Z0.0649 I0.0032 J-0.0038
X5.4182 Y2.3798 Z0.0643 I-0.0032 J0.0038
X5.4246 Y2.3721 Z0.0638 I0.0032 J-0.0038
X5.4182 Y2.3798 Z0.0632 I-0.0032 J0.0038
X5.4246 Y2.3721 Z0.0627 I0.0032 J-0.0038
X5.4182 Y2.3798 Z0.0621 I-0.0032 J0.0038
X5.4246 Y2.3721 Z0.0616 I0.0032 J-0.0038
X5.4182 Y2.3798 Z0.061 I-0.0032 J0.0038
X5.4246 Y2.3721 Z0.0605 I0.0032 J-0.0038
X5.4182 Y2.3798 Z0.0599 I-0.0032 J0.0038
X5.4246 Y2.3721 Z0.0594 I0.0032 J-0.0038
X5.4182 Y2.3798 Z0.0588 I-0.0032 J0.0038
X5.4246 Y2.3721 Z0.0583 I0.0032 J-0.0038
X5.4182 Y2.3798 Z0.0577 I-0.0032 J0.0038
X5.4246 Y2.3721 Z0.0572 I0.0032 J-0.0038
X5.4182 Y2.3798 Z0.0566 I-0.0032 J0.0038
X5.4246 Y2.3721 Z0.0561 I0.0032 J-0.0038
X5.4182 Y2.3798 Z0.0555 I-0.0032 J0.0038
X5.4246 Y2.3721 Z0.055 I0.0032 J-0.0038
X5.4182 Y2.3798 Z0.0544 I-0.0032 J0.0038
X5.4246 Y2.3721 Z0.0539 I0.0032 J-0.0038
X5.4182 Y2.3798 Z0.0533 I-0.0032 J0.0038
X5.4246 Y2.3721 Z0.0528 I0.0032 J-0.0038
X5.4182 Y2.3798 Z0.0522 I-0.0032 J0.0038
X5.4246 Y2.3721 Z0.0517 I0.0032 J-0.0038
X5.4182 Y2.3798 Z0.0511 I-0.0032 J0.0038
X5.4246 Y2.3721 Z0.0506 I0.0032 J-0.0038
X5.4182 Y2.3798 Z0.05 I-0.0032 J0.0038
X5.4246 Y2.3721 Z0.0495 I0.0032 J-0.0038
X5.4182 Y2.3798 Z0.0489 I-0.0032 J0.0038
X5.4246 Y2.3721 Z0.0484 I0.0032 J-0.0038
X5.4182 Y2.3798 Z0.0478 I-0.0032 J0.0038
X5.4246 Y2.3721 Z0.0473 I0.0032 J-0.0038
X5.4182 Y2.3798 Z0.0467 I-0.0032 J0.0038
X5.4246 Y2.3721 Z0.0462 I0.0032 J-0.0038
X5.4182 Y2.3798 Z0.0457 I-0.0032 J0.0038
X5.4246 Y2.3721 Z0.0451 I0.0032 J-0.0038
X5.4182 Y2.3798 Z0.0446 I-0.0032 J0.0038
X5.4246 Y2.3721 Z0.044 I0.0032 J-0.0038
X5.4182 Y2.3798 Z0.0435 I-0.0032 J0.0038
X5.4246 Y2.3721 Z0.0429 I0.0032 J-0.0038
X5.4182 Y2.3798 Z0.0424 I-0.0032 J0.0038
X5.4246 Y2.3721 Z0.0418 I0.0032 J-0.0038
X5.4182 Y2.3798 Z0.0413 I-0.0032 J0.0038
X5.4246 Y2.3721 Z0.0407 I0.0032 J-0.0038
X5.4182 Y2.3798 Z0.0402 I-0.0032 J0.0038
X5.4246 Y2.3721 Z0.0396 I0.0032 J-0.0038
X5.4182 Y2.3798 Z0.0391 I-0.0032 J0.0038
X5.4246 Y2.3721 Z0.0385 I0.0032 J-0.0038
X5.4182 Y2.3798 Z0.038 I-0.0032 J0.0038
X5.4246 Y2.3721 Z0.0374 I0.0032 J-0.0038
X5.4182 Y2.3798 Z0.0369 I-0.0032 J0.0038
X5.4246 Y2.3721 Z0.0363 I0.0032 J-0.0038
X5.4182 Y2.3798 Z0.0358 I-0.0032 J0.0038
X5.4246 Y2.3721 Z0.0352 I0.0032 J-0.0038
X5.4182 Y2.3798 Z0.0347 I-0.0032 J0.0038
X5.4246 Y2.3721 Z0.0341 I0.0032 J-0.0038
X5.4182 Y2.3798 Z0.0336 I-0.0032 J0.0038
X5.4246 Y2.3721 Z0.033 I0.0032 J-0.0038
X5.4182 Y2.3798 Z0.0325 I-0.0032 J0.0038
X5.4246 Y2.3721 Z0.0319 I0.0032 J-0.0038
X5.4182 Y2.3798 Z0.0314 I-0.0032 J0.0038
X5.4246 Y2.3721 Z0.0308 I0.0032 J-0.0038
X5.4182 Y2.3798 Z0.0303 I-0.0032 J0.0038
X5.4246 Y2.3721 Z0.0297 I0.0032 J-0.0038
X5.4182 Y2.3798 Z0.0292 I-0.0032 J0.0038
X5.4246 Y2.3721 Z0.0286 I0.0032 J-0.0038
X5.4182 Y2.3798 Z0.0281 I-0.0032 J0.0038
X5.4246 Y2.3721 Z0.0276 I0.0032 J-0.0038
X5.4182 Y2.3798 Z0.027 I-0.0032 J0.0038
X5.4246 Y2.3721 Z0.0265 I0.0032 J-0.0038
X5.4182 Y2.3798 Z0.0259 I-0.0032 J0.0038
X5.4246 Y2.3721 Z0.0254 I0.0032 J-0.0038
X5.4182 Y2.3798 Z0.0248 I-0.0032 J0.0038
X5.4246 Y2.3721 Z0.0243 I0.0032 J-0.0038
X5.4182 Y2.3798 Z0.0237 I-0.0032 J0.0038
X5.4246 Y2.3721 Z0.0232 I0.0032 J-0.0038
X5.4182 Y2.3798 Z0.0226 I-0.0032 J0.0038
X5.4246 Y2.3721 Z0.0221 I0.0032 J-0.0038
X5.4182 Y2.3798 Z0.0215 I-0.0032 J0.0038
X5.4164 Y2.376 Z0.0214 I0.0032 J-0.0038
X5.4433 I0.0135 J0. F40.
X5.3043 I-0.0695 J0.
X5.4433 I0.0695 J0.
G1 X5.4431 Y2.3769
X5.4425 Y2.3777
X5.4416 Y2.3781
X5.4406 Y2.3782
X5.4298 Y2.376
X5.419 Y2.378
X5.418 Y2.3779
X5.4171 Y2.3774
X5.4165 Y2.3766
X5.4164 Y2.3756
G3 X5.4264 Y2.3764 Z0.0208 I0.005 J0.0004 F20.
X5.4164 Y2.3756 Z0.0203 I-0.005 J-0.0004
X5.4264 Y2.3764 Z0.0197 I0.005 J0.0004
X5.4164 Y2.3756 Z0.0192 I-0.005 J-0.0004
X5.4264 Y2.3764 Z0.0186 I0.005 J0.0004
X5.4164 Y2.3756 Z0.0181 I-0.005 J-0.0004
X5.4264 Y2.3764 Z0.0175 I0.005 J0.0004
X5.4164 Y2.3756 Z0.017 I-0.005 J-0.0004
X5.4264 Y2.3764 Z0.0164 I0.005 J0.0004
X5.4164 Y2.3756 Z0.0159 I-0.005 J-0.0004
X5.4264 Y2.3764 Z0.0153 I0.005 J0.0004
X5.4164 Y2.3756 Z0.0148 I-0.005 J-0.0004
X5.4264 Y2.3764 Z0.0142 I0.005 J0.0004
X5.4164 Y2.3756 Z0.0137 I-0.005 J-0.0004
X5.4264 Y2.3764 Z0.0131 I0.005 J0.0004
X5.4164 Y2.3756 Z0.0126 I-0.005 J-0.0004
X5.4264 Y2.3764 Z0.012 I0.005 J0.0004
X5.4164 Y2.3756 Z0.0115 I-0.005 J-0.0004
X5.4264 Y2.3764 Z0.0109 I0.005 J0.0004
X5.4164 Y2.3756 Z0.0104 I-0.005 J-0.0004
X5.4264 Y2.3764 Z0.0098 I0.005 J0.0004
X5.4164 Y2.3756 Z0.0093 I-0.005 J-0.0004
X5.4264 Y2.3764 Z0.0087 I0.005 J0.0004
X5.4164 Y2.3756 Z0.0082 I-0.005 J-0.0004
X5.4264 Y2.3764 Z0.0077 I0.005 J0.0004
X5.4164 Y2.3756 Z0.0071 I-0.005 J-0.0004
X5.4264 Y2.3764 Z0.0066 I0.005 J0.0004
X5.4164 Y2.3756 Z0.006 I-0.005 J-0.0004
X5.4264 Y2.3764 Z0.0055 I0.005 J0.0004
X5.4164 Y2.3756 Z0.0049 I-0.005 J-0.0004
X5.4264 Y2.3764 Z0.0044 I0.005 J0.0004
X5.4164 Y2.3756 Z0.0038 I-0.005 J-0.0004
X5.4264 Y2.3764 Z0.0033 I0.005 J0.0004
X5.4164 Y2.376 Z0.0027 I-0.005 J-0.0004
X5.4433 I0.0135 J0. F40.
X5.3043 I-0.0695 J0.
X5.4433 I0.0695 J0.
G1 X5.4431 Y2.3769
X5.4425 Y2.3777
X5.4416 Y2.3781
X5.4406 Y2.3782
X5.4298 Y2.376
X5.419 Y2.378
X5.418 Y2.3779
X5.4171 Y2.3774
X5.4165 Y2.3766
X5.4164 Y2.3756
G3 X5.4264 Y2.3764 Z0.0022 I0.005 J0.0004 F20.
X5.4164 Y2.3756 Z0.0016 I-0.005 J-0.0004
X5.4264 Y2.3764 Z0.0011 I0.005 J0.0004
X5.4164 Y2.3756 Z0.0005 I-0.005 J-0.0004
X5.4264 Y2.3764 Z0. I0.005 J0.0004
X5.4164 Y2.3756 Z-0.0006 I-0.005 J-0.0004
X5.4264 Y2.3764 Z-0.0011 I0.005 J0.0004
X5.4164 Y2.3756 Z-0.0017 I-0.005 J-0.0004
X5.4264 Y2.3764 Z-0.0022 I0.005 J0.0004
X5.4164 Y2.3756 Z-0.0028 I-0.005 J-0.0004
X5.4264 Y2.3764 Z-0.0033 I0.005 J0.0004
X5.4164 Y2.3756 Z-0.0039 I-0.005 J-0.0004
X5.4264 Y2.3764 Z-0.0044 I0.005 J0.0004
X5.4164 Y2.3756 Z-0.005 I-0.005 J-0.0004
X5.4264 Y2.3764 Z-0.0055 I0.005 J0.0004
X5.4164 Y2.3756 Z-0.006 I-0.005 J-0.0004
X5.4264 Y2.3764 Z-0.0066 I0.005 J0.0004
X5.4164 Y2.3756 Z-0.0071 I-0.005 J-0.0004
X5.4264 Y2.3764 Z-0.0077 I0.005 J0.0004
X5.4164 Y2.3756 Z-0.0082 I-0.005 J-0.0004
X5.4264 Y2.3764 Z-0.0088 I0.005 J0.0004
X5.4164 Y2.3756 Z-0.0093 I-0.005 J-0.0004
X5.4264 Y2.3764 Z-0.0099 I0.005 J0.0004
X5.4164 Y2.3756 Z-0.0104 I-0.005 J-0.0004
X5.4264 Y2.3764 Z-0.011 I0.005 J0.0004
X5.4164 Y2.3756 Z-0.0115 I-0.005 J-0.0004
X5.4264 Y2.3764 Z-0.0121 I0.005 J0.0004
X5.4164 Y2.3756 Z-0.0126 I-0.005 J-0.0004
X5.4264 Y2.3764 Z-0.0132 I0.005 J0.0004
X5.4164 Y2.3756 Z-0.0137 I-0.005 J-0.0004
X5.4264 Y2.3764 Z-0.0143 I0.005 J0.0004
X5.4164 Y2.3756 Z-0.0148 I-0.005 J-0.0004
X5.4264 Y2.3764 Z-0.0154 I0.005 J0.0004
X5.4164 Y2.376 Z-0.0159 I-0.005 J-0.0004
X5.4433 I0.0135 J0. F40.
X5.3043 I-0.0695 J0.
X5.4433 I0.0695 J0.
G1 X5.4431 Y2.3769
X5.4425 Y2.3777
X5.4416 Y2.3781
X5.4406 Y2.3782
X5.4298 Y2.376
X5.419 Y2.378
X5.418 Y2.3779
X5.4171 Y2.3774
X5.4165 Y2.3766
X5.4164 Y2.3756
G3 X5.4264 Y2.3764 Z-0.0165 I0.005 J0.0004 F20.
X5.4164 Y2.3756 Z-0.017 I-0.005 J-0.0004
X5.4264 Y2.3764 Z-0.0176 I0.005 J0.0004
X5.4164 Y2.3756 Z-0.0181 I-0.005 J-0.0004
X5.4264 Y2.3764 Z-0.0187 I0.005 J0.0004
X5.4164 Y2.3756 Z-0.0192 I-0.005 J-0.0004
X5.4264 Y2.3764 Z-0.0197 I0.005 J0.0004
X5.4164 Y2.3756 Z-0.0203 I-0.005 J-0.0004
X5.4264 Y2.3764 Z-0.0208 I0.005 J0.0004
X5.4164 Y2.3756 Z-0.0214 I-0.005 J-0.0004
X5.4264 Y2.3764 Z-0.0219 I0.005 J0.0004
X5.4164 Y2.3756 Z-0.0225 I-0.005 J-0.0004
X5.4264 Y2.3764 Z-0.023 I0.005 J0.0004
X5.4164 Y2.3756 Z-0.0236 I-0.005 J-0.0004
X5.4264 Y2.3764 Z-0.0241 I0.005 J0.0004
X5.4164 Y2.3756 Z-0.0247 I-0.005 J-0.0004
X5.4264 Y2.3764 Z-0.0252 I0.005 J0.0004
X5.4164 Y2.3756 Z-0.0258 I-0.005 J-0.0004
X5.4264 Y2.3764 Z-0.0263 I0.005 J0.0004
X5.4164 Y2.3756 Z-0.0269 I-0.005 J-0.0004
X5.4264 Y2.3764 Z-0.0274 I0.005 J0.0004
X5.4164 Y2.3756 Z-0.028 I-0.005 J-0.0004
X5.4264 Y2.3764 Z-0.0285 I0.005 J0.0004
X5.4164 Y2.3756 Z-0.0291 I-0.005 J-0.0004
X5.4264 Y2.3764 Z-0.0296 I0.005 J0.0004
X5.4164 Y2.3756 Z-0.0302 I-0.005 J-0.0004
X5.4264 Y2.3764 Z-0.0307 I0.005 J0.0004
X5.4164 Y2.3756 Z-0.0313 I-0.005 J-0.0004
X5.4264 Y2.3764 Z-0.0318 I0.005 J0.0004
X5.4164 Y2.3756 Z-0.0324 I-0.005 J-0.0004
X5.4264 Y2.3764 Z-0.0329 I0.005 J0.0004
X5.4164 Y2.3756 Z-0.0335 I-0.005 J-0.0004
X5.4264 Y2.3764 Z-0.034 I0.005 J0.0004
X5.4164 Y2.376 Z-0.0345 I-0.005 J-0.0004
X5.4433 I0.0135 J0. F40.
X5.3043 I-0.0695 J0.
X5.4433 I0.0695 J0.
G1 X5.4431 Y2.3769
X5.4425 Y2.3777
X5.4416 Y2.3781
X5.4406 Y2.3782
X5.4298 Y2.376
X5.419 Y2.378
X5.418 Y2.3779
X5.4171 Y2.3774
X5.4165 Y2.3766
X5.4164 Y2.3756
G3 X5.4264 Y2.3764 Z-0.0351 I0.005 J0.0004 F20.
X5.4164 Y2.3756 Z-0.0356 I-0.005 J-0.0004
X5.4264 Y2.3764 Z-0.0362 I0.005 J0.0004
X5.4164 Y2.3756 Z-0.0367 I-0.005 J-0.0004
X5.4264 Y2.3764 Z-0.0373 I0.005 J0.0004
X5.4164 Y2.3756 Z-0.0378 I-0.005 J-0.0004
X5.4264 Y2.3764 Z-0.0384 I0.005 J0.0004
X5.4164 Y2.3756 Z-0.0389 I-0.005 J-0.0004
X5.4264 Y2.3764 Z-0.0395 I0.005 J0.0004
X5.4164 Y2.3756 Z-0.04 I-0.005 J-0.0004
X5.4264 Y2.3764 Z-0.0406 I0.005 J0.0004
X5.4164 Y2.3756 Z-0.0411 I-0.005 J-0.0004
X5.4264 Y2.3764 Z-0.0417 I0.005 J0.0004
X5.4164 Y2.3756 Z-0.0422 I-0.005 J-0.0004
X5.4264 Y2.3764 Z-0.0428 I0.005 J0.0004
X5.4164 Y2.3756 Z-0.0433 I-0.005 J-0.0004
X5.4264 Y2.3764 Z-0.0439 I0.005 J0.0004
X5.4164 Y2.3756 Z-0.0444 I-0.005 J-0.0004
X5.4264 Y2.3764 Z-0.045 I0.005 J0.0004
X5.4164 Y2.3756 Z-0.0455 I-0.005 J-0.0004
X5.4264 Y2.3764 Z-0.0461 I0.005 J0.0004
X5.4164 Y2.3756 Z-0.0466 I-0.005 J-0.0004
X5.4264 Y2.3764 Z-0.0472 I0.005 J0.0004
X5.4164 Y2.3756 Z-0.0477 I-0.005 J-0.0004
X5.4264 Y2.3764 Z-0.0483 I0.005 J0.0004
X5.4164 Y2.3756 Z-0.0488 I-0.005 J-0.0004
X5.4264 Y2.3764 Z-0.0494 I0.005 J0.0004
X5.4164 Y2.3756 Z-0.0499 I-0.005 J-0.0004
X5.4264 Y2.3764 Z-0.0505 I0.005 J0.0004
X5.4164 Y2.3756 Z-0.051 I-0.005 J-0.0004
X5.4264 Y2.3764 Z-0.0516 I0.005 J0.0004
X5.4164 Y2.3756 Z-0.0521 I-0.005 J-0.0004
X5.4264 Y2.3764 Z-0.0526 I0.005 J0.0004
X5.4164 Y2.376 Z-0.0532 I-0.005 J-0.0004
X5.4433 I0.0135 J0. F40.
X5.3043 I-0.0695 J0.
X5.4433 I0.0695 J0.
G1 X5.4431 Y2.3769
X5.4425 Y2.3777
X5.4416 Y2.3781
X5.4406 Y2.3782
X5.4298 Y2.376
X5.419 Y2.378
X5.418 Y2.3779
X5.4171 Y2.3774
X5.4165 Y2.3766
X5.4164 Y2.3756
G3 X5.4264 Y2.3764 Z-0.0537 I0.005 J0.0004 F20.
X5.4164 Y2.3756 Z-0.0543 I-0.005 J-0.0004
X5.4264 Y2.3764 Z-0.0548 I0.005 J0.0004
X5.4164 Y2.3756 Z-0.0554 I-0.005 J-0.0004
X5.4264 Y2.3764 Z-0.0559 I0.005 J0.0004
X5.4164 Y2.3756 Z-0.0565 I-0.005 J-0.0004
X5.4264 Y2.3764 Z-0.057 I0.005 J0.0004
X5.4164 Y2.3756 Z-0.0576 I-0.005 J-0.0004
X5.4264 Y2.3764 Z-0.0581 I0.005 J0.0004
X5.4164 Y2.3756 Z-0.0587 I-0.005 J-0.0004
X5.4264 Y2.3764 Z-0.0592 I0.005 J0.0004
X5.4164 Y2.3756 Z-0.0598 I-0.005 J-0.0004
X5.4264 Y2.3764 Z-0.0603 I0.005 J0.0004
X5.4164 Y2.3756 Z-0.0609 I-0.005 J-0.0004
X5.4264 Y2.3764 Z-0.0614 I0.005 J0.0004
X5.4164 Y2.3756 Z-0.062 I-0.005 J-0.0004
X5.4264 Y2.3764 Z-0.0625 I0.005 J0.0004
X5.4164 Y2.3756 Z-0.0631 I-0.005 J-0.0004
X5.4264 Y2.3764 Z-0.0636 I0.005 J0.0004
X5.4164 Y2.3756 Z-0.0642 I-0.005 J-0.0004
X5.4264 Y2.3764 Z-0.0647 I0.005 J0.0004
X5.4164 Y2.3756 Z-0.0652 I-0.005 J-0.0004
X5.4264 Y2.3764 Z-0.0658 I0.005 J0.0004
X5.4164 Y2.3756 Z-0.0663 I-0.005 J-0.0004
X5.4264 Y2.3764 Z-0.0669 I0.005 J0.0004
X5.4164 Y2.3756 Z-0.0674 I-0.005 J-0.0004
X5.4264 Y2.3764 Z-0.068 I0.005 J0.0004
X5.4164 Y2.3756 Z-0.0685 I-0.005 J-0.0004
X5.4264 Y2.3764 Z-0.0691 I0.005 J0.0004
X5.4164 Y2.3756 Z-0.0696 I-0.005 J-0.0004
X5.4264 Y2.3764 Z-0.0702 I0.005 J0.0004
X5.4164 Y2.3756 Z-0.0707 I-0.005 J-0.0004
X5.4264 Y2.3764 Z-0.0713 I0.005 J0.0004
X5.4164 Y2.376 Z-0.0718 I-0.005 J-0.0004
X5.4433 I0.0135 J0. F40.
X5.3043 I-0.0695 J0.
X5.4433 I0.0695 J0.
G1 X5.4431 Y2.3769
X5.4425 Y2.3777
X5.4416 Y2.3781
X5.4406 Y2.3782
X5.4298 Y2.376
X5.419 Y2.378
X5.418 Y2.3779
X5.4171 Y2.3774
X5.4165 Y2.3766
X5.4164 Y2.3756
G3 X5.4264 Y2.3764 Z-0.0724 I0.005 J0.0004 F20.
X5.4164 Y2.3756 Z-0.0729 I-0.005 J-0.0004
X5.4264 Y2.3764 Z-0.0735 I0.005 J0.0004
X5.4164 Y2.3756 Z-0.074 I-0.005 J-0.0004
X5.4264 Y2.3764 Z-0.0746 I0.005 J0.0004
X5.4164 Y2.3756 Z-0.0751 I-0.005 J-0.0004
X5.4264 Y2.3764 Z-0.0757 I0.005 J0.0004
X5.4164 Y2.3756 Z-0.0762 I-0.005 J-0.0004
X5.4264 Y2.3764 Z-0.0768 I0.005 J0.0004
X5.4164 Y2.3756 Z-0.0773 I-0.005 J-0.0004
X5.4264 Y2.3764 Z-0.0779 I0.005 J0.0004
X5.4164 Y2.3756 Z-0.0784 I-0.005 J-0.0004
X5.4264 Y2.3764 Z-0.0789 I0.005 J0.0004
X5.4164 Y2.3756 Z-0.0795 I-0.005 J-0.0004
X5.4264 Y2.3764 Z-0.08 I0.005 J0.0004
X5.4164 Y2.3756 Z-0.0806 I-0.005 J-0.0004
X5.4264 Y2.3764 Z-0.0811 I0.005 J0.0004
X5.4164 Y2.3756 Z-0.0817 I-0.005 J-0.0004
X5.4264 Y2.3764 Z-0.0822 I0.005 J0.0004
X5.4164 Y2.3756 Z-0.0828 I-0.005 J-0.0004
X5.4264 Y2.3764 Z-0.0833 I0.005 J0.0004
X5.4164 Y2.3756 Z-0.0839 I-0.005 J-0.0004
X5.4264 Y2.3764 Z-0.0844 I0.005 J0.0004
X5.4164 Y2.3756 Z-0.085 I-0.005 J-0.0004
X5.4264 Y2.3764 Z-0.0855 I0.005 J0.0004
X5.4164 Y2.3756 Z-0.0861 I-0.005 J-0.0004
X5.4264 Y2.3764 Z-0.0866 I0.005 J0.0004
X5.4164 Y2.3756 Z-0.0872 I-0.005 J-0.0004
X5.4264 Y2.3764 Z-0.0877 I0.005 J0.0004
X5.4164 Y2.3756 Z-0.0883 I-0.005 J-0.0004
X5.4264 Y2.3764 Z-0.0888 I0.005 J0.0004
X5.4164 Y2.3756 Z-0.0894 I-0.005 J-0.0004
X5.4264 Y2.3764 Z-0.0899 I0.005 J0.0004
X5.4164 Y2.376 Z-0.0905 I-0.005 J-0.0004
X5.4433 I0.0135 J0. F40.
X5.3043 I-0.0695 J0.
X5.4433 I0.0695 J0.
G1 X5.4431 Y2.3769
X5.4425 Y2.3777
X5.4416 Y2.3781
X5.4406 Y2.3782
X5.4298 Y2.376
X5.419 Y2.378
X5.418 Y2.3779
X5.4171 Y2.3774
X5.4165 Y2.3766
X5.4164 Y2.3756
G3 X5.4264 Y2.3764 Z-0.091 I0.005 J0.0004 F20.
X5.4164 Y2.3756 Z-0.0916 I-0.005 J-0.0004
X5.4264 Y2.3764 Z-0.0921 I0.005 J0.0004
X5.4164 Y2.3756 Z-0.0926 I-0.005 J-0.0004
X5.4264 Y2.3764 Z-0.0932 I0.005 J0.0004
X5.4164 Y2.3756 Z-0.0937 I-0.005 J-0.0004
X5.4264 Y2.3764 Z-0.0943 I0.005 J0.0004
X5.4164 Y2.3756 Z-0.0948 I-0.005 J-0.0004
X5.4264 Y2.3764 Z-0.0954 I0.005 J0.0004
X5.4164 Y2.3756 Z-0.0959 I-0.005 J-0.0004
X5.4264 Y2.3764 Z-0.0965 I0.005 J0.0004
X5.4164 Y2.3756 Z-0.097 I-0.005 J-0.0004
X5.4264 Y2.3764 Z-0.0976 I0.005 J0.0004
X5.4164 Y2.3756 Z-0.0981 I-0.005 J-0.0004
X5.4264 Y2.3764 Z-0.0987 I0.005 J0.0004
X5.4164 Y2.3756 Z-0.0992 I-0.005 J-0.0004
X5.4264 Y2.3764 Z-0.0998 I0.005 J0.0004
X5.4164 Y2.3756 Z-0.1003 I-0.005 J-0.0004
X5.4264 Y2.3764 Z-0.1009 I0.005 J0.0004
X5.4164 Y2.3756 Z-0.1014 I-0.005 J-0.0004
X5.4264 Y2.3764 Z-0.102 I0.005 J0.0004
X5.4164 Y2.3756 Z-0.1025 I-0.005 J-0.0004
X5.4264 Y2.3764 Z-0.1031 I0.005 J0.0004
X5.4164 Y2.3756 Z-0.1036 I-0.005 J-0.0004
X5.4264 Y2.3764 Z-0.1042 I0.005 J0.0004
X5.4164 Y2.3756 Z-0.1047 I-0.005 J-0.0004
X5.4264 Y2.3764 Z-0.1053 I0.005 J0.0004
X5.4164 Y2.3756 Z-0.1058 I-0.005 J-0.0004
X5.4264 Y2.3764 Z-0.1064 I0.005 J0.0004
X5.4164 Y2.3756 Z-0.1069 I-0.005 J-0.0004
X5.4264 Y2.3764 Z-0.1075 I0.005 J0.0004
X5.4164 Y2.3756 Z-0.108 I-0.005 J-0.0004
X5.4264 Y2.3764 Z-0.1086 I0.005 J0.0004
X5.4164 Y2.376 Z-0.1091 I-0.005 J-0.0004
X5.4433 I0.0135 J0. F40.
X5.3043 I-0.0695 J0.
X5.4433 I0.0695 J0.
G1 X5.4431 Y2.3769
X5.4425 Y2.3777
X5.4416 Y2.3781
X5.4406 Y2.3782
X5.4298 Y2.376
X5.419 Y2.378
X5.418 Y2.3779
X5.4171 Y2.3774
X5.4165 Y2.3766
X5.4164 Y2.3756
G3 X5.4264 Y2.3764 Z-0.1096 I0.005 J0.0004 F20.
X5.4164 Y2.3756 Z-0.1102 I-0.005 J-0.0004
X5.4264 Y2.3764 Z-0.1107 I0.005 J0.0004
X5.4164 Y2.3756 Z-0.1113 I-0.005 J-0.0004
X5.4264 Y2.3764 Z-0.1118 I0.005 J0.0004
X5.4164 Y2.3756 Z-0.1124 I-0.005 J-0.0004
X5.4264 Y2.3764 Z-0.1129 I0.005 J0.0004
X5.4164 Y2.3756 Z-0.1135 I-0.005 J-0.0004
X5.4264 Y2.3764 Z-0.114 I0.005 J0.0004
X5.4164 Y2.3756 Z-0.1146 I-0.005 J-0.0004
X5.4264 Y2.3764 Z-0.1151 I0.005 J0.0004
X5.4164 Y2.3756 Z-0.1157 I-0.005 J-0.0004
X5.4264 Y2.3764 Z-0.1162 I0.005 J0.0004
X5.4164 Y2.3756 Z-0.1168 I-0.005 J-0.0004
X5.4264 Y2.3764 Z-0.1173 I0.005 J0.0004
X5.4164 Y2.3756 Z-0.1179 I-0.005 J-0.0004
X5.4264 Y2.3764 Z-0.1184 I0.005 J0.0004
X5.4164 Y2.3756 Z-0.119 I-0.005 J-0.0004
X5.4264 Y2.3764 Z-0.1195 I0.005 J0.0004
X5.4164 Y2.3756 Z-0.1201 I-0.005 J-0.0004
X5.4264 Y2.3764 Z-0.1206 I0.005 J0.0004
X5.4164 Y2.3756 Z-0.1212 I-0.005 J-0.0004
X5.4264 Y2.3764 Z-0.1217 I0.005 J0.0004
X5.4164 Y2.3756 Z-0.1223 I-0.005 J-0.0004
X5.4264 Y2.3764 Z-0.1228 I0.005 J0.0004
X5.4164 Y2.3756 Z-0.1234 I-0.005 J-0.0004
X5.4264 Y2.3764 Z-0.1239 I0.005 J0.0004
X5.4164 Y2.3756 Z-0.1244 I-0.005 J-0.0004
X5.4264 Y2.3764 Z-0.125 I0.005 J0.0004
X5.4164 Y2.3756 Z-0.1255 I-0.005 J-0.0004
X5.4264 Y2.3764 Z-0.1261 I0.005 J0.0004
X5.4164 Y2.3756 Z-0.1266 I-0.005 J-0.0004
X5.4264 Y2.3764 Z-0.1272 I0.005 J0.0004
X5.4164 Y2.376 Z-0.1277 I-0.005 J-0.0004
X5.4433 I0.0135 J0. F40.
X5.3043 I-0.0695 J0.
X5.4433 I0.0695 J0.
G1 X5.4431 Y2.3769
X5.4425 Y2.3777
X5.4416 Y2.3781
X5.4406 Y2.3782
X5.4298 Y2.376
X5.419 Y2.378
X5.418 Y2.3779
X5.4171 Y2.3774
X5.4165 Y2.3766
X5.4164 Y2.3756
G3 X5.4264 Y2.3764 Z-0.1283 I0.005 J0.0004 F20.
X5.4164 Y2.3756 Z-0.1288 I-0.005 J-0.0004
X5.4264 Y2.3764 Z-0.1294 I0.005 J0.0004
X5.4164 Y2.3756 Z-0.1299 I-0.005 J-0.0004
X5.4264 Y2.3764 Z-0.1305 I0.005 J0.0004
X5.4164 Y2.3756 Z-0.131 I-0.005 J-0.0004
X5.4264 Y2.3764 Z-0.1316 I0.005 J0.0004
X5.4164 Y2.3756 Z-0.1321 I-0.005 J-0.0004
X5.4264 Y2.3764 Z-0.1327 I0.005 J0.0004
X5.4164 Y2.3756 Z-0.1332 I-0.005 J-0.0004
X5.4264 Y2.3764 Z-0.1338 I0.005 J0.0004
X5.4164 Y2.3756 Z-0.1343 I-0.005 J-0.0004
X5.4264 Y2.3764 Z-0.1349 I0.005 J0.0004
X5.4164 Y2.3756 Z-0.1354 I-0.005 J-0.0004
X5.4264 Y2.3764 Z-0.136 I0.005 J0.0004
X5.4164 Y2.3756 Z-0.1365 I-0.005 J-0.0004
X5.4264 Y2.3764 Z-0.1371 I0.005 J0.0004
X5.4164 Y2.3756 Z-0.1376 I-0.005 J-0.0004
X5.4264 Y2.3764 Z-0.1381 I0.005 J0.0004
X5.4164 Y2.3756 Z-0.1387 I-0.005 J-0.0004
X5.4264 Y2.3764 Z-0.1392 I0.005 J0.0004
X5.4164 Y2.3756 Z-0.1398 I-0.005 J-0.0004
X5.4264 Y2.3764 Z-0.1403 I0.005 J0.0004
X5.4164 Y2.3756 Z-0.1409 I-0.005 J-0.0004
X5.4264 Y2.3764 Z-0.1414 I0.005 J0.0004
X5.4164 Y2.3756 Z-0.142 I-0.005 J-0.0004
X5.4264 Y2.3764 Z-0.1425 I0.005 J0.0004
X5.4164 Y2.3756 Z-0.1431 I-0.005 J-0.0004
X5.4264 Y2.3764 Z-0.1436 I0.005 J0.0004
X5.4164 Y2.3756 Z-0.1442 I-0.005 J-0.0004
X5.4264 Y2.3764 Z-0.1447 I0.005 J0.0004
X5.4164 Y2.3756 Z-0.1453 I-0.005 J-0.0004
X5.4264 Y2.3764 Z-0.1458 I0.005 J0.0004
X5.4164 Y2.376 Z-0.1464 I-0.005 J-0.0004
X5.4433 I0.0135 J0. F40.
X5.3043 I-0.0695 J0.
X5.4433 I0.0695 J0.
G1 X5.4431 Y2.3769
X5.4425 Y2.3777
X5.4416 Y2.3781
X5.4406 Y2.3782
X5.4298 Y2.376
X5.419 Y2.378
X5.418 Y2.3779
X5.4171 Y2.3774
X5.4165 Y2.3766
X5.4164 Y2.3756
G3 X5.4264 Y2.3764 Z-0.1469 I0.005 J0.0004 F20.
X5.4164 Y2.3756 Z-0.1475 I-0.005 J-0.0004
X5.4264 Y2.3764 Z-0.148 I0.005 J0.0004
X5.4164 Y2.3756 Z-0.1486 I-0.005 J-0.0004
X5.4264 Y2.3764 Z-0.1491 I0.005 J0.0004
X5.4164 Y2.3756 Z-0.1497 I-0.005 J-0.0004
X5.4264 Y2.3764 Z-0.1502 I0.005 J0.0004
X5.4164 Y2.3756 Z-0.1508 I-0.005 J-0.0004
X5.4264 Y2.3764 Z-0.1513 I0.005 J0.0004
X5.4164 Y2.3756 Z-0.1518 I-0.005 J-0.0004
X5.4264 Y2.3764 Z-0.1524 I0.005 J0.0004
X5.4164 Y2.3756 Z-0.1529 I-0.005 J-0.0004
X5.4264 Y2.3764 Z-0.1535 I0.005 J0.0004
X5.4164 Y2.3756 Z-0.154 I-0.005 J-0.0004
X5.4264 Y2.3764 Z-0.1546 I0.005 J0.0004
X5.4164 Y2.3756 Z-0.1551 I-0.005 J-0.0004
X5.4264 Y2.3764 Z-0.1557 I0.005 J0.0004
X5.4164 Y2.3756 Z-0.1562 I-0.005 J-0.0004
X5.4264 Y2.3764 Z-0.1568 I0.005 J0.0004
X5.4164 Y2.3756 Z-0.1573 I-0.005 J-0.0004
X5.4264 Y2.3764 Z-0.1579 I0.005 J0.0004
X5.4164 Y2.3756 Z-0.1584 I-0.005 J-0.0004
X5.4264 Y2.3764 Z-0.159 I0.005 J0.0004
X5.4164 Y2.3756 Z-0.1595 I-0.005 J-0.0004
X5.4264 Y2.3764 Z-0.1601 I0.005 J0.0004
X5.4164 Y2.3756 Z-0.1606 I-0.005 J-0.0004
X5.4264 Y2.3764 Z-0.1612 I0.005 J0.0004
X5.4164 Y2.3756 Z-0.1617 I-0.005 J-0.0004
X5.4264 Y2.3764 Z-0.1623 I0.005 J0.0004
X5.4164 Y2.3756 Z-0.1628 I-0.005 J-0.0004
X5.4264 Y2.3764 Z-0.1634 I0.005 J0.0004
X5.4164 Y2.3756 Z-0.1639 I-0.005 J-0.0004
X5.4264 Y2.3764 Z-0.1645 I0.005 J0.0004
X5.4164 Y2.376 Z-0.165 I-0.005 J-0.0004
X5.4433 I0.0135 J0. F40.
X5.3043 I-0.0695 J0.
X5.4433 I0.0695 J0.
G1 X5.4431 Y2.3782 Z-0.1646
X5.4424 Y2.3804 Z-0.1641
X5.4416 Y2.3821 Z-0.1628
X5.4405 Y2.3836 Z-0.1615
X5.4386 Y2.3854 Z-0.1577
X5.4379 Y2.3859 Z-0.1532
G0 Z0.24
X4.4506 Y4.5777
G1 Z0.1518 F40.
X4.4505 Y4.5789 Z0.1465 F20.
X4.4498 Y4.5805 Z0.1444
X4.4486 Y4.5818 Z0.1424
X4.4472 Y4.5825 Z0.1415
X4.4457 Y4.5828 Z0.1407
X4.444 Y4.5825 Z0.1403
X4.4424 Y4.5816 Z0.14
G3 X4.4488 Y4.5739 Z0.1395 I0.0032 J-0.0038
X4.4424 Y4.5816 Z0.1389 I-0.0032 J0.0038
X4.4488 Y4.5739 Z0.1384 I0.0032 J-0.0038
X4.4424 Y4.5816 Z0.1378 I-0.0032 J0.0038
X4.4488 Y4.5739 Z0.1373 I0.0032 J-0.0038
X4.4424 Y4.5816 Z0.1367 I-0.0032 J0.0038
X4.4488 Y4.5739 Z0.1362 I0.0032 J-0.0038
X4.4424 Y4.5816 Z0.1356 I-0.0032 J0.0038
X4.4488 Y4.5739 Z0.1351 I0.0032 J-0.0038
X4.4424 Y4.5816 Z0.1345 I-0.0032 J0.0038
X4.4488 Y4.5739 Z0.134 I0.0032 J-0.0038
X4.4424 Y4.5816 Z0.1334 I-0.0032 J0.0038
X4.4488 Y4.5739 Z0.1329 I0.0032 J-0.0038
X4.4424 Y4.5816 Z0.1323 I-0.0032 J0.0038
X4.4488 Y4.5739 Z0.1318 I0.0032 J-0.0038
X4.4424 Y4.5816 Z0.1312 I-0.0032 J0.0038
X4.4488 Y4.5739 Z0.1307 I0.0032 J-0.0038
X4.4424 Y4.5816 Z0.1301 I-0.0032 J0.0038
X4.4488 Y4.5739 Z0.1296 I0.0032 J-0.0038
X4.4424 Y4.5816 Z0.129 I-0.0032 J0.0038
X4.4488 Y4.5739 Z0.1285 I0.0032 J-0.0038
X4.4424 Y4.5816 Z0.1279 I-0.0032 J0.0038
X4.4488 Y4.5739 Z0.1274 I0.0032 J-0.0038
X4.4424 Y4.5816 Z0.1268 I-0.0032 J0.0038
X4.4488 Y4.5739 Z0.1263 I0.0032 J-0.0038
X4.4424 Y4.5816 Z0.1257 I-0.0032 J0.0038
X4.4488 Y4.5739 Z0.1252 I0.0032 J-0.0038
X4.4424 Y4.5816 Z0.1246 I-0.0032 J0.0038
X4.4488 Y4.5739 Z0.1241 I0.0032 J-0.0038
X4.4424 Y4.5816 Z0.1235 I-0.0032 J0.0038
X4.4488 Y4.5739 Z0.123 I0.0032 J-0.0038
X4.4424 Y4.5816 Z0.1224 I-0.0032 J0.0038
X4.4488 Y4.5739 Z0.1219 I0.0032 J-0.0038
X4.4424 Y4.5816 Z0.1213 I-0.0032 J0.0038
X4.4488 Y4.5739 Z0.1208 I0.0032 J-0.0038
X4.4424 Y4.5816 Z0.1203 I-0.0032 J0.0038
X4.4488 Y4.5739 Z0.1197 I0.0032 J-0.0038
X4.4424 Y4.5816 Z0.1192 I-0.0032 J0.0038
X4.4488 Y4.5739 Z0.1186 I0.0032 J-0.0038
X4.4424 Y4.5816 Z0.1181 I-0.0032 J0.0038
X4.4488 Y4.5739 Z0.1175 I0.0032 J-0.0038
X4.4424 Y4.5816 Z0.117 I-0.0032 J0.0038
X4.4488 Y4.5739 Z0.1164 I0.0032 J-0.0038
X4.4424 Y4.5816 Z0.1159 I-0.0032 J0.0038
X4.4488 Y4.5739 Z0.1153 I0.0032 J-0.0038
X4.4424 Y4.5816 Z0.1148 I-0.0032 J0.0038
X4.4488 Y4.5739 Z0.1142 I0.0032 J-0.0038
X4.4424 Y4.5816 Z0.1137 I-0.0032 J0.0038
X4.4488 Y4.5739 Z0.1131 I0.0032 J-0.0038
X4.4424 Y4.5816 Z0.1126 I-0.0032 J0.0038
X4.4488 Y4.5739 Z0.112 I0.0032 J-0.0038
X4.4424 Y4.5816 Z0.1115 I-0.0032 J0.0038
X4.4488 Y4.5739 Z0.1109 I0.0032 J-0.0038
X4.4424 Y4.5816 Z0.1104 I-0.0032 J0.0038
X4.4488 Y4.5739 Z0.1098 I0.0032 J-0.0038
X4.4424 Y4.5816 Z0.1093 I-0.0032 J0.0038
X4.4488 Y4.5739 Z0.1087 I0.0032 J-0.0038
X4.4424 Y4.5816 Z0.1082 I-0.0032 J0.0038
X4.4488 Y4.5739 Z0.1076 I0.0032 J-0.0038
X4.4424 Y4.5816 Z0.1071 I-0.0032 J0.0038
X4.4488 Y4.5739 Z0.1065 I0.0032 J-0.0038
X4.4424 Y4.5816 Z0.106 I-0.0032 J0.0038
X4.4488 Y4.5739 Z0.1054 I0.0032 J-0.0038
X4.4424 Y4.5816 Z0.1049 I-0.0032 J0.0038
X4.4488 Y4.5739 Z0.1043 I0.0032 J-0.0038
X4.4424 Y4.5816 Z0.1038 I-0.0032 J0.0038
X4.4488 Y4.5739 Z0.1032 I0.0032 J-0.0038
X4.4424 Y4.5816 Z0.1027 I-0.0032 J0.0038
X4.4488 Y4.5739 Z0.1022 I0.0032 J-0.0038
X4.4424 Y4.5816 Z0.1016 I-0.0032 J0.0038
X4.4488 Y4.5739 Z0.1011 I0.0032 J-0.0038
X4.4424 Y4.5816 Z0.1005 I-0.0032 J0.0038
X4.4488 Y4.5739 Z0.1 I0.0032 J-0.0038
X4.4424 Y4.5816 Z0.0994 I-0.0032 J0.0038
X4.4488 Y4.5739 Z0.0989 I0.0032 J-0.0038
X4.4424 Y4.5816 Z0.0983 I-0.0032 J0.0038
X4.4488 Y4.5739 Z0.0978 I0.0032 J-0.0038
X4.4424 Y4.5816 Z0.0972 I-0.0032 J0.0038
X4.4488 Y4.5739 Z0.0967 I0.0032 J-0.0038
X4.4424 Y4.5816 Z0.0961 I-0.0032 J0.0038
X4.4488 Y4.5739 Z0.0956 I0.0032 J-0.0038
X4.4424 Y4.5816 Z0.095 I-0.0032 J0.0038
X4.4488 Y4.5739 Z0.0945 I0.0032 J-0.0038
X4.4424 Y4.5816 Z0.0939 I-0.0032 J0.0038
X4.4488 Y4.5739 Z0.0934 I0.0032 J-0.0038
X4.4424 Y4.5816 Z0.0928 I-0.0032 J0.0038
X4.4488 Y4.5739 Z0.0923 I0.0032 J-0.0038
X4.4424 Y4.5816 Z0.0917 I-0.0032 J0.0038
X4.4488 Y4.5739 Z0.0912 I0.0032 J-0.0038
X4.4424 Y4.5816 Z0.0906 I-0.0032 J0.0038
X4.4488 Y4.5739 Z0.0901 I0.0032 J-0.0038
X4.4424 Y4.5816 Z0.0895 I-0.0032 J0.0038
X4.4488 Y4.5739 Z0.089 I0.0032 J-0.0038
X4.4424 Y4.5816 Z0.0884 I-0.0032 J0.0038
X4.4488 Y4.5739 Z0.0879 I0.0032 J-0.0038
X4.4424 Y4.5816 Z0.0873 I-0.0032 J0.0038
X4.4488 Y4.5739 Z0.0868 I0.0032 J-0.0038
X4.4424 Y4.5816 Z0.0862 I-0.0032 J0.0038
X4.4488 Y4.5739 Z0.0857 I0.0032 J-0.0038
X4.4424 Y4.5816 Z0.0851 I-0.0032 J0.0038
X4.4488 Y4.5739 Z0.0846 I0.0032 J-0.0038
X4.4424 Y4.5816 Z0.084 I-0.0032 J0.0038
X4.4488 Y4.5739 Z0.0835 I0.0032 J-0.0038
X4.4424 Y4.5816 Z0.083 I-0.0032 J0.0038
X4.4488 Y4.5739 Z0.0824 I0.0032 J-0.0038
X4.4424 Y4.5816 Z0.0819 I-0.0032 J0.0038
X4.4488 Y4.5739 Z0.0813 I0.0032 J-0.0038
X4.4424 Y4.5816 Z0.0808 I-0.0032 J0.0038
X4.4488 Y4.5739 Z0.0802 I0.0032 J-0.0038
X4.4424 Y4.5816 Z0.0797 I-0.0032 J0.0038
X4.4488 Y4.5739 Z0.0791 I0.0032 J-0.0038
X4.4424 Y4.5816 Z0.0786 I-0.0032 J0.0038
X4.4488 Y4.5739 Z0.078 I0.0032 J-0.0038
X4.4424 Y4.5816 Z0.0775 I-0.0032 J0.0038
X4.4488 Y4.5739 Z0.0769 I0.0032 J-0.0038
X4.4424 Y4.5816 Z0.0764 I-0.0032 J0.0038
X4.4488 Y4.5739 Z0.0758 I0.0032 J-0.0038
X4.4424 Y4.5816 Z0.0753 I-0.0032 J0.0038
X4.4488 Y4.5739 Z0.0747 I0.0032 J-0.0038
X4.4424 Y4.5816 Z0.0742 I-0.0032 J0.0038
X4.4488 Y4.5739 Z0.0736 I0.0032 J-0.0038
X4.4424 Y4.5816 Z0.0731 I-0.0032 J0.0038
X4.4488 Y4.5739 Z0.0725 I0.0032 J-0.0038
X4.4424 Y4.5816 Z0.072 I-0.0032 J0.0038
X4.4488 Y4.5739 Z0.0714 I0.0032 J-0.0038
X4.4424 Y4.5816 Z0.0709 I-0.0032 J0.0038
X4.4488 Y4.5739 Z0.0703 I0.0032 J-0.0038
X4.4424 Y4.5816 Z0.0698 I-0.0032 J0.0038
X4.4488 Y4.5739 Z0.0692 I0.0032 J-0.0038
X4.4424 Y4.5816 Z0.0687 I-0.0032 J0.0038
X4.4488 Y4.5739 Z0.0681 I0.0032 J-0.0038
X4.4424 Y4.5816 Z0.0676 I-0.0032 J0.0038
X4.4488 Y4.5739 Z0.067 I0.0032 J-0.0038
X4.4424 Y4.5816 Z0.0665 I-0.0032 J0.0038
