(TURRETBASE_INSIDECONT)
(T1  D=0.25 CR=0. - ZMIN=-0.165 - FLAT END MILL)
G90 G94 G91.1 G40 G49 G17
G20

(2D CONTOUR1)
G0 X0. Y0. Z0.6
M5
T1 M6
S15000 M3
G4 P5.
G54
M8
G0 X0.0821 Y5.1744
G43 Z0.6 H1
Z0.2
G1 Z0.125 F20.
Y5.1747 Z0.1211 F60.
X0.0822 Y5.1756 Z0.1173
Y5.1771 Z0.1137
Y5.1792 Z0.1103
Y5.1817 Z0.1073
X0.0823 Y5.1847 Z0.1048
Y5.1881 Z0.1027
Y5.1917 Z0.1012
X0.0824 Y5.1955 Z0.1003
Y5.1994 Z0.1
X0.0827 Y5.2244
G3 X0.058 Y5.2497 I-0.025 J0.0003
X-3.15 Y4.2 Z-0.02 I-0.058 J-5.2497 F20.
X3.15 Y-4.2 I3.15 J-4.2 F60.
X-3.15 Y4.2 I-3.15 J4.2
X-3.6516 Y3.7721 Z-0.04 I3.15 J-4.2 F20.
X3.6516 Y-3.7721 I3.6516 J-3.7721 F60.
X-3.6516 Y3.7721 I-3.6516 J3.7721
X-4.0955 Y3.2847 Z-0.06 I3.6516 J-3.7721 F20.
X4.0955 Y-3.2847 I4.0955 J-3.2847 F60.
X-4.0955 Y3.2847 I-4.0955 J3.2847
X-4.4749 Y2.7455 Z-0.08 I4.0955 J-3.2847 F20.
X4.4749 Y-2.7455 I4.4749 J-2.7455 F60.
X-4.4749 Y2.7455 I-4.4749 J2.7455
X-4.7837 Y2.163 Z-0.1 I4.4749 J-2.7455 F20.
X4.7837 Y-2.163 I4.7837 J-2.163 F60.
X-4.7837 Y2.163 I-4.7837 J2.163
X-5.0171 Y1.5463 Z-0.12 I4.7837 J-2.163 F20.
X5.0171 Y-1.5463 I5.0171 J-1.5463 F60.
X-5.0171 Y1.5463 I-5.0171 J1.5463
X-5.1713 Y0.9053 Z-0.14 I5.0171 J-1.5463 F20.
X5.1713 Y-0.9053 I5.1713 J-0.9053 F60.
X-5.1713 Y0.9053 I-5.1713 J0.9053
X-5.2264 Y0.4968 Z-0.1525 I5.1713 J-0.9053 F20.
X5.2264 Y-0.4968 I5.2264 J-0.4968 F60.
X-5.2264 Y0.4968 I-5.2264 J0.4968
X-5.2493 Y0.0852 Z-0.165 I5.2264 J-0.4968 F20.
X5.2493 Y-0.0852 I5.2493 J-0.0852 F60.
X-5.2493 Y0.0852 I-5.2493 J0.0852
X-5.2247 Y0.0598 I0.025 J-0.0004
G1 X-5.1997 Y0.0594
X-5.1958 Y0.0593 Z-0.1647
X-5.192 Z-0.1638
X-5.1884 Y0.0592 Z-0.1623
X-5.185 Z-0.1602
X-5.182 Y0.0591 Z-0.1577
X-5.1795 Z-0.1547
X-5.1774 Z-0.1513
X-5.1759 Y0.059 Z-0.1477
X-5.175 Z-0.1439
X-5.1747 Z-0.14
G0 Z0.6

M9
M30
