(TURRETBASE_OUTSIDE)
(T1  D=0.25 CR=0. - ZMIN=-0.155 - FLAT END MILL)
G90 G94 G91.1 G40 G49 G17
G20

(2D CONTOUR2)
G0 X0. Y0. Z0.6
M5
T1 M6
S15000 M3
G4 P5.
G54
M8
G0 X-3.8151 Y5.2132
G43 Z0.6 H1
Z0.2
G1 Z0.125 F13.3
X-3.8149 Y5.2129 Z0.1211 F60.
X-3.8144 Y5.2122 Z0.1173
X-3.8135 Y5.211 Z0.1137
X-3.8123 Y5.2093 Z0.1103
X-3.8108 Y5.2073 Z0.1073
X-3.809 Y5.2048 Z0.1048
X-3.8071 Y5.2021 Z0.1027
X-3.8049 Y5.1992 Z0.1012
X-3.8027 Y5.1961 Z0.1003
X-3.8004 Y5.193 Z0.1
X-3.7857 Y5.1727
G3 X-3.7508 Y5.1672 I0.0202 J0.0147
G2 X0. Y6.385 Z-0.04 I3.7508 J-5.1672 F13.3
X5.0745 Y3.8752 I0. J-6.385 F60.
G1 X6.3493 Y2.2059
G2 X6.375 Y2.13 I-0.0993 J-0.0759
G1 Y0.3572
G2 Y-0.3572 I-6.375 J-0.3572
G1 Y-1.87
G2 X6.3548 Y-1.9381 I-0.125 J0.
G1 X5.3546 Y-3.478
G2 X-5.3546 I-5.3546 J3.478
G1 X-6.3548 Y-1.9381
G2 X-6.375 Y-1.87 I0.1048 J0.0681
G1 Y-0.3572
G2 Y0.3572 I6.375 J0.3572
G1 Y2.13
G2 X-6.3493 Y2.2059 I0.125 J0.
G1 X-5.0745 Y3.8752
G2 X0. Y6.385 I5.0745 J-3.8752
X1.6071 Y6.1794 Z-0.08 I0. J-6.385 F13.3
X5.0745 Y3.8752 I-1.6071 J-6.1794 F60.
G1 X6.3493 Y2.2059
G2 X6.375 Y2.13 I-0.0993 J-0.0759
G1 Y0.3572
G2 Y-0.3572 I-6.375 J-0.3572
G1 Y-1.87
G2 X6.3548 Y-1.9381 I-0.125 J0.
G1 X5.3546 Y-3.478
G2 X-5.3546 I-5.3546 J3.478
G1 X-6.3548 Y-1.9381
G2 X-6.375 Y-1.87 I0.1048 J0.0681
G1 Y-0.3572
G2 Y0.3572 I6.375 J0.3572
G1 Y2.13
G2 X-6.3493 Y2.2059 I0.125 J0.
G1 X-5.0745 Y3.8752
G2 X1.6071 Y6.1794 I5.0745 J-3.8752
X3.1108 Y5.576 Z-0.12 I-1.6071 J-6.1794 F13.3
X5.0745 Y3.8752 I-3.1108 J-5.576 F60.
G1 X6.3493 Y2.2059
G2 X6.375 Y2.13 I-0.0993 J-0.0759
G1 Y0.3572
G2 Y-0.3572 I-6.375 J-0.3572
G1 Y-1.87
G2 X6.3548 Y-1.9381 I-0.125 J0.
G1 X5.3546 Y-3.478
G2 X-5.3546 I-5.3546 J3.478
G1 X-6.3548 Y-1.9381
G2 X-6.375 Y-1.87 I0.1048 J0.0681
G1 Y-0.3572
G2 Y0.3572 I6.375 J0.3572
G1 Y2.13
G2 X-6.3493 Y2.2059 I0.125 J0.
G1 X-5.0745 Y3.8752
G2 X3.1108 Y5.576 I5.0745 J-3.8752
X4.2651 Y4.7515 Z-0.155 I-3.1108 J-5.576 F13.3
X5.0745 Y3.8752 I-4.2651 J-4.7515 F60.
G1 X6.3493 Y2.2059
G2 X6.375 Y2.13 I-0.0993 J-0.0759
G1 Y0.3572
G2 Y-0.3572 I-6.375 J-0.3572
G1 Y-1.87
G2 X6.3548 Y-1.9381 I-0.125 J0.
G1 X5.3546 Y-3.478
G2 X-5.3546 I-5.3546 J3.478
G1 X-6.3548 Y-1.9381
G2 X-6.375 Y-1.87 I0.1048 J0.0681
G1 Y-0.3572
G2 Y0.3572 I6.375 J0.3572
G1 Y2.13
G2 X-6.3493 Y2.2059 I0.125 J0.
G1 X-5.0745 Y3.8752
G2 X4.2651 Y4.7515 I5.0745 J-3.8752
G3 X4.3004 Y4.7534 I0.0167 J0.0186
G1 X4.3171 Y4.772
X4.3198 Y4.7749 Z-0.1547
X4.3223 Y4.7778 Z-0.1538
X4.3247 Y4.7805 Z-0.1523
X4.327 Y4.7829 Z-0.1502
X4.329 Y4.7852 Z-0.1477
X4.3307 Y4.7871 Z-0.1447
X4.332 Y4.7886 Z-0.1413
X4.333 Y4.7897 Z-0.1377
X4.3336 Y4.7904 Z-0.1339
X4.3338 Y4.7906 Z-0.13
G0 Z0.6

M9
M30
