(X8 UPPER TURRET BRACE 3OF4 HOLES)
(T3  D=0.118 CR=0. - ZMIN=-0.54 - FLAT END MILL)
G90 G94 G91.1 G40 G49 G17
G20

(2D POCKET1)
M5
T3 M6
S15000 M3
G54
M8
G0 X2.361 Y0.9522
G43 Z0.6 H3
Z0.2
G1 Z0.1394 F40.
Z-0.1 F20.
G3 X2.379 I0.009 J0. F40.
X2.361 I-0.009 J0.
G1 Z-0.2 F20.
G3 X2.379 I0.009 J0. F40.
X2.361 I-0.009 J0.
G1 Z-0.3 F20.
G3 X2.379 I0.009 J0. F40.
X2.361 I-0.009 J0.
G1 Z-0.4 F20.
G3 X2.379 I0.009 J0. F40.
X2.361 I-0.009 J0.
G1 Z-0.5 F20.
G3 X2.379 I0.009 J0. F40.
X2.361 I-0.009 J0.
G1 Z-0.54 F20.
G3 X2.379 I0.009 J0. F40.
X2.361 I-0.009 J0.
G1 X2.3613 Y0.95 Z-0.5396
X2.3621 Y0.9479 Z-0.5391
X2.3632 Y0.9463 Z-0.5378
X2.3646 Y0.945 Z-0.5365
X2.3657 Y0.9443 Z-0.5346
X2.3668 Y0.9438 Z-0.5327
X2.3677 Y0.9435 Z-0.5282
G0 Z0.2
X1.9615 Y0.5612
G1 Z0.1394 F20.
Z-0.1
G3 X1.9435 I-0.009 J0. F40.
X1.9615 I0.009 J0.
G1 Z-0.2 F20.
G3 X1.9435 I-0.009 J0. F40.
X1.9615 I0.009 J0.
G1 Z-0.3 F20.
G3 X1.9435 I-0.009 J0. F40.
X1.9615 I0.009 J0.
G1 Z-0.4 F20.
G3 X1.9435 I-0.009 J0. F40.
X1.9615 I0.009 J0.
G1 Z-0.5 F20.
G3 X1.9435 I-0.009 J0. F40.
X1.9615 I0.009 J0.
G1 Z-0.54 F20.
G3 X1.9435 I-0.009 J0. F40.
X1.9615 I0.009 J0.
G1 X1.9612 Y0.5634 Z-0.5396
X1.9604 Y0.5655 Z-0.5391
X1.9593 Y0.5671 Z-0.5378
X1.9579 Y0.5684 Z-0.5365
X1.9568 Y0.5691 Z-0.5346
X1.9557 Y0.5696 Z-0.5327
X1.9548 Y0.5699 Z-0.5282
G0 Z0.2
X2.752 Y1.3697
G1 Z0.1394 F20.
Z-0.1
G3 X2.77 I0.009 J0. F40.
X2.752 I-0.009 J0.
G1 Z-0.2 F20.
G3 X2.77 I0.009 J0. F40.
X2.752 I-0.009 J0.
G1 Z-0.3 F20.
G3 X2.77 I0.009 J0. F40.
X2.752 I-0.009 J0.
G1 Z-0.4 F20.
G3 X2.77 I0.009 J0. F40.
X2.752 I-0.009 J0.
G1 Z-0.5 F20.
G3 X2.77 I0.009 J0. F40.
X2.752 I-0.009 J0.
G1 Z-0.54 F20.
G3 X2.77 I0.009 J0. F40.
X2.752 I-0.009 J0.
G1 X2.7523 Y1.3675 Z-0.5396
X2.7531 Y1.3654 Z-0.5391
X2.7542 Y1.3638 Z-0.5378
X2.7556 Y1.3625 Z-0.5365
X2.7567 Y1.3618 Z-0.5346
X2.7578 Y1.3613 Z-0.5327
X2.7587 Y1.361 Z-0.5282
G0 Z0.2
X1.7067 Y2.59
G1 Z0.1394 F20.
Z-0.0882
X1.7074 Y2.5906 Z-0.0927
X1.7093 Y2.5923 Z-0.0965
X1.7104 Y2.5939 Z-0.0978
X1.7113 Y2.5956 Z-0.0991
X1.7119 Y2.5977 Z-0.0996
X1.7121 Y2.6 Z-0.1
G3 X1.6601 I-0.026 J0. F40.
X1.7121 I0.026 J0.
G1 X1.7119 Y2.6012
X1.7111 Y2.6022
X1.71 Y2.6027
X1.7088
X1.7076 Y2.6023
X1.7068 Y2.6013
X1.7027 Y2.5938
X1.7023 Y2.5926
X1.7025 Y2.5914
X1.7032 Y2.5904
X1.7043 Y2.5897
X1.7055 Y2.5896
X1.7067 Y2.59
Z-0.1882 F20.
X1.7074 Y2.5906 Z-0.1927
X1.7093 Y2.5923 Z-0.1965
X1.7104 Y2.5939 Z-0.1978
X1.7113 Y2.5956 Z-0.1991
X1.7119 Y2.5977 Z-0.1996
X1.7121 Y2.6 Z-0.2
G3 X1.6601 I-0.026 J0. F40.
X1.7121 I0.026 J0.
G1 X1.7119 Y2.6012
X1.7111 Y2.6022
X1.71 Y2.6027
X1.7088
X1.7076 Y2.6023
X1.7068 Y2.6013
X1.7027 Y2.5938
X1.7023 Y2.5926
X1.7025 Y2.5914
X1.7032 Y2.5904
X1.7043 Y2.5897
X1.7055 Y2.5896
X1.7067 Y2.59
Z-0.2882 F20.
X1.7074 Y2.5906 Z-0.2927
X1.7093 Y2.5923 Z-0.2965
X1.7104 Y2.5939 Z-0.2978
X1.7113 Y2.5956 Z-0.2991
X1.7119 Y2.5977 Z-0.2996
X1.7121 Y2.6 Z-0.3
G3 X1.6601 I-0.026 J0. F40.
X1.7121 I0.026 J0.
G1 X1.7119 Y2.6012
X1.7111 Y2.6022
X1.71 Y2.6027
X1.7088
X1.7076 Y2.6023
X1.7068 Y2.6013
X1.7027 Y2.5938
X1.7023 Y2.5926
X1.7025 Y2.5914
X1.7032 Y2.5904
X1.7043 Y2.5897
X1.7055 Y2.5896
X1.7067 Y2.59
Z-0.3882 F20.
X1.7074 Y2.5906 Z-0.3927
X1.7093 Y2.5923 Z-0.3965
X1.7104 Y2.5939 Z-0.3978
X1.7113 Y2.5956 Z-0.3991
X1.7119 Y2.5977 Z-0.3996
X1.7121 Y2.6 Z-0.4
G3 X1.6601 I-0.026 J0. F40.
X1.7121 I0.026 J0.
G1 X1.7119 Y2.6012
X1.7111 Y2.6022
X1.71 Y2.6027
X1.7088
X1.7076 Y2.6023
X1.7068 Y2.6013
X1.7027 Y2.5938
X1.7023 Y2.5926
X1.7025 Y2.5914
X1.7032 Y2.5904
X1.7043 Y2.5897
X1.7055 Y2.5896
X1.7067 Y2.59
Z-0.4882 F20.
X1.7074 Y2.5906 Z-0.4927
X1.7093 Y2.5923 Z-0.4965
X1.7104 Y2.5939 Z-0.4978
X1.7113 Y2.5956 Z-0.4991
X1.7119 Y2.5977 Z-0.4996
X1.7121 Y2.6 Z-0.5
G3 X1.6601 I-0.026 J0. F40.
X1.7121 I0.026 J0.
G1 X1.7119 Y2.6012
X1.7111 Y2.6022
X1.71 Y2.6027
X1.7088
X1.7076 Y2.6023
X1.7068 Y2.6013
X1.7027 Y2.5938
X1.7023 Y2.5926
X1.7025 Y2.5914
X1.7032 Y2.5904
X1.7043 Y2.5897
X1.7055 Y2.5896
X1.7067 Y2.59
Z-0.5282 F20.
X1.7074 Y2.5906 Z-0.5327
X1.7093 Y2.5923 Z-0.5365
X1.7104 Y2.5939 Z-0.5378
X1.7113 Y2.5956 Z-0.5391
X1.7119 Y2.5977 Z-0.5396
X1.7121 Y2.6 Z-0.54
G3 X1.6601 I-0.026 J0. F40.
X1.7121 I0.026 J0.
G1 X1.7119 Y2.6022 Z-0.5396
X1.7113 Y2.6044 Z-0.5391
X1.7104 Y2.6061 Z-0.5378
X1.7093 Y2.6076 Z-0.5365
X1.7074 Y2.6094 Z-0.5327
X1.7067 Y2.6099 Z-0.5282
G0 Z0.2
X0.7853 Y2.5459
G1 Z0.1394 F20.
Z-0.1
G3 Y2.5279 I0. J-0.009 F40.
Y2.5459 I0. J0.009
G1 Z-0.2 F20.
G3 Y2.5279 I0. J-0.009 F40.
Y2.5459 I0. J0.009
G1 Z-0.3 F20.
G3 Y2.5279 I0. J-0.009 F40.
Y2.5459 I0. J0.009
G1 Z-0.4 F20.
G3 Y2.5279 I0. J-0.009 F40.
Y2.5459 I0. J0.009
G1 Z-0.5 F20.
G3 Y2.5279 I0. J-0.009 F40.
Y2.5459 I0. J0.009
G1 Z-0.54 F20.
G3 Y2.5279 I0. J-0.009 F40.
Y2.5459 I0. J0.009
G1 X0.7831 Y2.5456 Z-0.5396
X0.781 Y2.5448 Z-0.5391
X0.7794 Y2.5437 Z-0.5378
X0.7781 Y2.5423 Z-0.5365
X0.7775 Y2.5412 Z-0.5346
X0.7769 Y2.54 Z-0.5327
X0.7766 Y2.5392 Z-0.5282
G0 Z0.2
X0.7222 Y1.6271
G1 Z0.1394 F20.
Z-0.1
G3 Y1.6451 I0. J0.009 F40.
Y1.6271 I0. J-0.009
G1 Z-0.2 F20.
G3 Y1.6451 I0. J0.009 F40.
Y1.6271 I0. J-0.009
G1 Z-0.3 F20.
G3 Y1.6451 I0. J0.009 F40.
Y1.6271 I0. J-0.009
G1 Z-0.4 F20.
G3 Y1.6451 I0. J0.009 F40.
Y1.6271 I0. J-0.009
G1 Z-0.5 F20.
G3 Y1.6451 I0. J0.009 F40.
Y1.6271 I0. J-0.009
G1 Z-0.54 F20.
G3 Y1.6451 I0. J0.009 F40.
Y1.6271 I0. J-0.009
G1 X0.7245 Y1.6274 Z-0.5396
X0.7266 Y1.6282 Z-0.5391
X0.7281 Y1.6293 Z-0.5378
X0.7294 Y1.6307 Z-0.5365
X0.7301 Y1.6318 Z-0.5346
X0.7307 Y1.6329 Z-0.5327
X0.7309 Y1.6338 Z-0.5282
G0 Z0.6

M9
M30
