(X4 GEARBOX ARCH CUTOUT RUN 4)
(T3  D=0.118 CR=0. - ZMIN=-0.3 - FLAT END MILL)
G90 G94 G91.1 G40 G49 G17
G20

(2D POCKET5)
M5
T3 M6
S15000 M3
g4 p5
g0 z.5
G54
M8
G0 X3.2591 Y5.6123
G43 Z0.64 H3
Z0.24
G1 Z0.1518 F40.
X3.2583 Y5.6111 Z0.146 F20.
X3.2561 Y5.6075 Z0.1417
X3.2535 Y5.6025 Z0.14
G3 X3.3558 Y5.5567 Z0.1339 I0.0512 J-0.0229
X3.2535 Y5.6025 Z0.1277 I-0.0512 J0.0229
X3.3558 Y5.5567 Z0.1216 I0.0512 J-0.0229
X3.2535 Y5.6025 Z0.1154 I-0.0512 J0.0229
X3.3558 Y5.5567 Z0.1093 I0.0512 J-0.0229
X3.2535 Y5.6025 Z0.1031 I-0.0512 J0.0229
X3.3558 Y5.5567 Z0.097 I0.0512 J-0.0229
X3.2535 Y5.6025 Z0.0908 I-0.0512 J0.0229
X3.3558 Y5.5567 Z0.0847 I0.0512 J-0.0229
X3.2535 Y5.6025 Z0.0785 I-0.0512 J0.0229
X3.3558 Y5.5567 Z0.0724 I0.0512 J-0.0229
X3.2535 Y5.6025 Z0.0662 I-0.0512 J0.0229
X3.3558 Y5.5567 Z0.0601 I0.0512 J-0.0229
X3.2535 Y5.6025 Z0.0539 I-0.0512 J0.0229
X3.3558 Y5.5567 Z0.0478 I0.0512 J-0.0229
X3.2535 Y5.6025 Z0.0416 I-0.0512 J0.0229
X3.3558 Y5.5567 Z0.0355 I0.0512 J-0.0229
X3.2535 Y5.6025 Z0.0293 I-0.0512 J0.0229
X3.3558 Y5.5567 Z0.0232 I0.0512 J-0.0229
X3.3251 Y5.6318 Z0.02 I-0.0512 J0.0229
X3.2943 Y5.5531 I-0.0154 J-0.0393
G1 X3.2965 Y5.5524 F40.
X3.2988 Y5.5518
G3 X3.3144 Y5.5561 I0.0033 J0.0182
X3.3162 Y5.5838 I-0.013 J0.0147
X3.2976 Y5.6043 I-0.4998 J-0.4337
X2.1613 Y5.5841 I-0.559 J-0.5276
X2.191 Y5.5579 I0.0148 J-0.0131
G2 X3.0522 Y5.7345 I0.5478 J-0.4829
X3.2442 Y5.602 I-0.3068 J-0.6498
X3.2649 Y5.5813 I-0.5785 J-0.6005
X3.2848 Y5.5598 I-0.4547 J-0.4399
G3 X3.2943 Y5.5531 I0.0185 J0.0163
G2 X3.3143 Y5.5299 I-0.012 J-0.0306
G3 X3.3434 Y5.5201 I0.0175 J0.0041
X3.3508 Y5.6146 I-0.0421 J0.0509
X2.1266 I-0.6121 J-0.5396
X2.1325 Y5.5215 I0.0495 J-0.0437
X2.2256 Y5.5273 I0.0437 J0.0495
G1 X2.2273 Y5.5292
G2 X3.2518 Y5.5273 I0.5114 J-0.4542
G3 X3.3434 Y5.5201 I0.0495 J0.0437
G1 X3.3446 Y5.5215
X3.3453 Y5.5232
X3.3455 Y5.5251
X3.3451 Y5.5269
X3.3441 Y5.5285
X3.3427 Y5.5297
X3.3021 Y5.5548
X3.26 Y5.5656
G3 X3.2531 Y5.5575 I-0.0014 J-0.0057
X3.3562 Y5.6016 Z0.0139 I0.0515 J0.0221 F20.
X3.2531 Y5.5575 Z0.0077 I-0.0515 J-0.0221
X3.3562 Y5.6016 Z0.0016 I0.0515 J0.0221
X3.3251 Y5.6318 Z0. I-0.0515 J-0.0221
X3.2943 Y5.5531 I-0.0154 J-0.0393
G1 X3.2965 Y5.5524 F40.
X3.2988 Y5.5518
G3 X3.3144 Y5.5561 I0.0033 J0.0182
X3.3162 Y5.5838 I-0.013 J0.0147
X3.2976 Y5.6043 I-0.4998 J-0.4337
X2.1613 Y5.5841 I-0.559 J-0.5276
X2.191 Y5.5579 I0.0148 J-0.0131
G2 X3.0522 Y5.7345 I0.5478 J-0.4829
X3.2442 Y5.602 I-0.3068 J-0.6498
X3.2649 Y5.5813 I-0.5785 J-0.6005
X3.2848 Y5.5598 I-0.4547 J-0.4399
G3 X3.2943 Y5.5531 I0.0185 J0.0163
G2 X3.3143 Y5.5299 I-0.012 J-0.0306
G3 X3.3434 Y5.5201 I0.0175 J0.0041
X3.3508 Y5.6146 I-0.0421 J0.0509
X2.1266 I-0.6121 J-0.5396
X2.1325 Y5.5215 I0.0495 J-0.0437
X2.2256 Y5.5273 I0.0437 J0.0495
G1 X2.2273 Y5.5292
G2 X3.2518 Y5.5273 I0.5114 J-0.4542
G3 X3.3434 Y5.5201 I0.0495 J0.0437
G1 X3.3446 Y5.5215
X3.3453 Y5.5232
X3.3455 Y5.5251
X3.3451 Y5.5269
X3.3441 Y5.5285
X3.3427 Y5.5297
X3.3021 Y5.5548
X3.26 Y5.5656
G3 X3.2531 Y5.5575 I-0.0014 J-0.0057
X3.3562 Y5.6016 Z-0.0061 I0.0515 J0.0221 F20.
X3.2531 Y5.5575 Z-0.0123 I-0.0515 J-0.0221
X3.3562 Y5.6016 Z-0.0184 I0.0515 J0.0221
X3.3251 Y5.6318 Z-0.02 I-0.0515 J-0.0221
X3.2943 Y5.5531 I-0.0154 J-0.0393
G1 X3.2965 Y5.5524 F40.
X3.2988 Y5.5518
G3 X3.3144 Y5.5561 I0.0033 J0.0182
X3.3162 Y5.5838 I-0.013 J0.0147
X3.2976 Y5.6043 I-0.4998 J-0.4337
X2.1613 Y5.5841 I-0.559 J-0.5276
X2.191 Y5.5579 I0.0148 J-0.0131
G2 X3.0522 Y5.7345 I0.5478 J-0.4829
X3.2442 Y5.602 I-0.3068 J-0.6498
X3.2649 Y5.5813 I-0.5785 J-0.6005
X3.2848 Y5.5598 I-0.4547 J-0.4399
G3 X3.2943 Y5.5531 I0.0185 J0.0163
G2 X3.3143 Y5.5299 I-0.012 J-0.0306
G3 X3.3434 Y5.5201 I0.0175 J0.0041
X3.3508 Y5.6146 I-0.0421 J0.0509
X2.1266 I-0.6121 J-0.5396
X2.1325 Y5.5215 I0.0495 J-0.0437
X2.2256 Y5.5273 I0.0437 J0.0495
G1 X2.2273 Y5.5292
G2 X3.2518 Y5.5273 I0.5114 J-0.4542
G3 X3.3434 Y5.5201 I0.0495 J0.0437
G1 X3.3446 Y5.5215
X3.3453 Y5.5232
X3.3455 Y5.5251
X3.3451 Y5.5269
X3.3441 Y5.5285
X3.3427 Y5.5297
X3.3021 Y5.5548
X3.26 Y5.5656
G3 X3.2531 Y5.5575 I-0.0014 J-0.0057
X3.3562 Y5.6016 Z-0.0261 I0.0515 J0.0221 F20.
X3.2531 Y5.5575 Z-0.0323 I-0.0515 J-0.0221
X3.3562 Y5.6016 Z-0.0384 I0.0515 J0.0221
X3.3251 Y5.6318 Z-0.04 I-0.0515 J-0.0221
X3.2943 Y5.5531 I-0.0154 J-0.0393
G1 X3.2965 Y5.5524 F40.
X3.2988 Y5.5518
G3 X3.3144 Y5.5561 I0.0033 J0.0182
X3.3162 Y5.5838 I-0.013 J0.0147
X3.2976 Y5.6043 I-0.4998 J-0.4337
X2.1613 Y5.5841 I-0.559 J-0.5276
X2.191 Y5.5579 I0.0148 J-0.0131
G2 X3.0522 Y5.7345 I0.5478 J-0.4829
X3.2442 Y5.602 I-0.3068 J-0.6498
X3.2649 Y5.5813 I-0.5785 J-0.6005
X3.2848 Y5.5598 I-0.4547 J-0.4399
G3 X3.2943 Y5.5531 I0.0185 J0.0163
G2 X3.3143 Y5.5299 I-0.012 J-0.0306
G3 X3.3434 Y5.5201 I0.0175 J0.0041
X3.3508 Y5.6146 I-0.0421 J0.0509
X2.1266 I-0.6121 J-0.5396
X2.1325 Y5.5215 I0.0495 J-0.0437
X2.2256 Y5.5273 I0.0437 J0.0495
G1 X2.2273 Y5.5292
G2 X3.2518 Y5.5273 I0.5114 J-0.4542
G3 X3.3434 Y5.5201 I0.0495 J0.0437
G1 X3.3446 Y5.5215
X3.3453 Y5.5232
X3.3455 Y5.5251
X3.3451 Y5.5269
X3.3441 Y5.5285
X3.3427 Y5.5297
X3.3021 Y5.5548
X3.26 Y5.5656
G3 X3.2531 Y5.5575 I-0.0014 J-0.0057
X3.3562 Y5.6016 Z-0.0461 I0.0515 J0.0221 F20.
X3.2531 Y5.5575 Z-0.0523 I-0.0515 J-0.0221
X3.3562 Y5.6016 Z-0.0584 I0.0515 J0.0221
X3.3251 Y5.6318 Z-0.06 I-0.0515 J-0.0221
X3.2943 Y5.5531 I-0.0154 J-0.0393
G1 X3.2965 Y5.5524 F40.
X3.2988 Y5.5518
G3 X3.3144 Y5.5561 I0.0033 J0.0182
X3.3162 Y5.5838 I-0.013 J0.0147
X3.2976 Y5.6043 I-0.4998 J-0.4337
X2.1613 Y5.5841 I-0.559 J-0.5276
X2.191 Y5.5579 I0.0148 J-0.0131
G2 X3.0522 Y5.7345 I0.5478 J-0.4829
X3.2442 Y5.602 I-0.3068 J-0.6498
X3.2649 Y5.5813 I-0.5785 J-0.6005
X3.2848 Y5.5598 I-0.4547 J-0.4399
G3 X3.2943 Y5.5531 I0.0185 J0.0163
G2 X3.3143 Y5.5299 I-0.012 J-0.0306
G3 X3.3434 Y5.5201 I0.0175 J0.0041
X3.3508 Y5.6146 I-0.0421 J0.0509
X2.1266 I-0.6121 J-0.5396
X2.1325 Y5.5215 I0.0495 J-0.0437
X2.2256 Y5.5273 I0.0437 J0.0495
G1 X2.2273 Y5.5292
G2 X3.2518 Y5.5273 I0.5114 J-0.4542
G3 X3.3434 Y5.5201 I0.0495 J0.0437
G1 X3.3446 Y5.5215
X3.3453 Y5.5232
X3.3455 Y5.5251
X3.3451 Y5.5269
X3.3441 Y5.5285
X3.3427 Y5.5297
X3.3021 Y5.5548
X3.26 Y5.5656
G3 X3.2531 Y5.5575 I-0.0014 J-0.0057
X3.3562 Y5.6016 Z-0.0661 I0.0515 J0.0221 F20.
X3.2531 Y5.5575 Z-0.0723 I-0.0515 J-0.0221
X3.3562 Y5.6016 Z-0.0784 I0.0515 J0.0221
X3.3251 Y5.6318 Z-0.08 I-0.0515 J-0.0221
X3.2943 Y5.5531 I-0.0154 J-0.0393
G1 X3.2965 Y5.5524 F40.
X3.2988 Y5.5518
G3 X3.3144 Y5.5561 I0.0033 J0.0182
X3.3162 Y5.5838 I-0.013 J0.0147
X3.2976 Y5.6043 I-0.4998 J-0.4337
X2.1613 Y5.5841 I-0.559 J-0.5276
X2.191 Y5.5579 I0.0148 J-0.0131
G2 X3.0522 Y5.7345 I0.5478 J-0.4829
X3.2442 Y5.602 I-0.3068 J-0.6498
X3.2649 Y5.5813 I-0.5785 J-0.6005
X3.2848 Y5.5598 I-0.4547 J-0.4399
G3 X3.2943 Y5.5531 I0.0185 J0.0163
G2 X3.3143 Y5.5299 I-0.012 J-0.0306
G3 X3.3434 Y5.5201 I0.0175 J0.0041
X3.3508 Y5.6146 I-0.0421 J0.0509
X2.1266 I-0.6121 J-0.5396
X2.1325 Y5.5215 I0.0495 J-0.0437
X2.2256 Y5.5273 I0.0437 J0.0495
G1 X2.2273 Y5.5292
G2 X3.2518 Y5.5273 I0.5114 J-0.4542
G3 X3.3434 Y5.5201 I0.0495 J0.0437
G1 X3.3446 Y5.5215
X3.3453 Y5.5232
X3.3455 Y5.5251
X3.3451 Y5.5269
X3.3441 Y5.5285
X3.3427 Y5.5297
X3.3021 Y5.5548
X3.26 Y5.5656
G3 X3.2531 Y5.5575 I-0.0014 J-0.0057
X3.3562 Y5.6016 Z-0.0861 I0.0515 J0.0221 F20.
X3.2531 Y5.5575 Z-0.0923 I-0.0515 J-0.0221
X3.3562 Y5.6016 Z-0.0984 I0.0515 J0.0221
X3.3251 Y5.6318 Z-0.1 I-0.0515 J-0.0221
X3.2943 Y5.5531 I-0.0154 J-0.0393
G1 X3.2965 Y5.5524 F40.
X3.2988 Y5.5518
G3 X3.3144 Y5.5561 I0.0033 J0.0182
X3.3162 Y5.5838 I-0.013 J0.0147
X3.2976 Y5.6043 I-0.4998 J-0.4337
X2.1613 Y5.5841 I-0.559 J-0.5276
X2.191 Y5.5579 I0.0148 J-0.0131
G2 X3.0522 Y5.7345 I0.5478 J-0.4829
X3.2442 Y5.602 I-0.3068 J-0.6498
X3.2649 Y5.5813 I-0.5785 J-0.6005
X3.2848 Y5.5598 I-0.4547 J-0.4399
G3 X3.2943 Y5.5531 I0.0185 J0.0163
G2 X3.3143 Y5.5299 I-0.012 J-0.0306
G3 X3.3434 Y5.5201 I0.0175 J0.0041
X3.3508 Y5.6146 I-0.0421 J0.0509
X2.1266 I-0.6121 J-0.5396
X2.1325 Y5.5215 I0.0495 J-0.0437
X2.2256 Y5.5273 I0.0437 J0.0495
G1 X2.2273 Y5.5292
G2 X3.2518 Y5.5273 I0.5114 J-0.4542
G3 X3.3434 Y5.5201 I0.0495 J0.0437
G1 X3.3446 Y5.5215
X3.3453 Y5.5232
X3.3455 Y5.5251
X3.3451 Y5.5269
X3.3441 Y5.5285
X3.3427 Y5.5297
X3.3021 Y5.5548
X3.26 Y5.5656
G3 X3.2531 Y5.5575 I-0.0014 J-0.0057
X3.3562 Y5.6016 Z-0.1061 I0.0515 J0.0221 F20.
X3.2531 Y5.5575 Z-0.1123 I-0.0515 J-0.0221
X3.3562 Y5.6016 Z-0.1184 I0.0515 J0.0221
X3.3251 Y5.6318 Z-0.12 I-0.0515 J-0.0221
X3.2943 Y5.5531 I-0.0154 J-0.0393
G1 X3.2965 Y5.5524 F40.
X3.2988 Y5.5518
G3 X3.3144 Y5.5561 I0.0033 J0.0182
X3.3162 Y5.5838 I-0.013 J0.0147
X3.2976 Y5.6043 I-0.4998 J-0.4337
X2.1613 Y5.5841 I-0.559 J-0.5276
X2.191 Y5.5579 I0.0148 J-0.0131
G2 X3.0522 Y5.7345 I0.5478 J-0.4829
X3.2442 Y5.602 I-0.3068 J-0.6498
X3.2649 Y5.5813 I-0.5785 J-0.6005
X3.2848 Y5.5598 I-0.4547 J-0.4399
G3 X3.2943 Y5.5531 I0.0185 J0.0163
G2 X3.3143 Y5.5299 I-0.012 J-0.0306
G3 X3.3434 Y5.5201 I0.0175 J0.0041
X3.3508 Y5.6146 I-0.0421 J0.0509
X2.1266 I-0.6121 J-0.5396
X2.1325 Y5.5215 I0.0495 J-0.0437
X2.2256 Y5.5273 I0.0437 J0.0495
G1 X2.2273 Y5.5292
G2 X3.2518 Y5.5273 I0.5114 J-0.4542
G3 X3.3434 Y5.5201 I0.0495 J0.0437
G1 X3.3446 Y5.5215
X3.3453 Y5.5232
X3.3455 Y5.5251
X3.3451 Y5.5269
X3.3441 Y5.5285
X3.3427 Y5.5297
X3.3021 Y5.5548
X3.26 Y5.5656
G3 X3.2531 Y5.5575 I-0.0014 J-0.0057
X3.3562 Y5.6016 Z-0.1261 I0.0515 J0.0221 F20.
X3.2531 Y5.5575 Z-0.1323 I-0.0515 J-0.0221
X3.3562 Y5.6016 Z-0.1384 I0.0515 J0.0221
X3.3251 Y5.6318 Z-0.14 I-0.0515 J-0.0221
X3.2943 Y5.5531 I-0.0154 J-0.0393
G1 X3.2965 Y5.5524 F40.
X3.2988 Y5.5518
G3 X3.3144 Y5.5561 I0.0033 J0.0182
X3.3162 Y5.5838 I-0.013 J0.0147
X3.2976 Y5.6043 I-0.4998 J-0.4337
X2.1613 Y5.5841 I-0.559 J-0.5276
X2.191 Y5.5579 I0.0148 J-0.0131
G2 X3.0522 Y5.7345 I0.5478 J-0.4829
X3.2442 Y5.602 I-0.3068 J-0.6498
X3.2649 Y5.5813 I-0.5785 J-0.6005
X3.2848 Y5.5598 I-0.4547 J-0.4399
G3 X3.2943 Y5.5531 I0.0185 J0.0163
G2 X3.3143 Y5.5299 I-0.012 J-0.0306
G3 X3.3434 Y5.5201 I0.0175 J0.0041
X3.3508 Y5.6146 I-0.0421 J0.0509
X2.1266 I-0.6121 J-0.5396
X2.1325 Y5.5215 I0.0495 J-0.0437
X2.2256 Y5.5273 I0.0437 J0.0495
G1 X2.2273 Y5.5292
G2 X3.2518 Y5.5273 I0.5114 J-0.4542
G3 X3.3434 Y5.5201 I0.0495 J0.0437
G1 X3.3446 Y5.5215
X3.3453 Y5.5232
X3.3455 Y5.5251
X3.3451 Y5.5269
X3.3441 Y5.5285
X3.3427 Y5.5297
X3.3021 Y5.5548
X3.26 Y5.5656
G3 X3.2531 Y5.5575 I-0.0014 J-0.0057
X3.3562 Y5.6016 Z-0.1461 I0.0515 J0.0221 F20.
X3.2531 Y5.5575 Z-0.1523 I-0.0515 J-0.0221
X3.3562 Y5.6016 Z-0.1584 I0.0515 J0.0221
X3.3251 Y5.6318 Z-0.16 I-0.0515 J-0.0221
X3.2943 Y5.5531 I-0.0154 J-0.0393
G1 X3.2965 Y5.5524 F40.
X3.2988 Y5.5518
G3 X3.3144 Y5.5561 I0.0033 J0.0182
X3.3162 Y5.5838 I-0.013 J0.0147
X3.2976 Y5.6043 I-0.4998 J-0.4337
X2.1613 Y5.5841 I-0.559 J-0.5276
X2.191 Y5.5579 I0.0148 J-0.0131
G2 X3.0522 Y5.7345 I0.5478 J-0.4829
X3.2442 Y5.602 I-0.3068 J-0.6498
X3.2649 Y5.5813 I-0.5785 J-0.6005
X3.2848 Y5.5598 I-0.4547 J-0.4399
G3 X3.2943 Y5.5531 I0.0185 J0.0163
G2 X3.3143 Y5.5299 I-0.012 J-0.0306
G3 X3.3434 Y5.5201 I0.0175 J0.0041
X3.3508 Y5.6146 I-0.0421 J0.0509
X2.1266 I-0.6121 J-0.5396
X2.1325 Y5.5215 I0.0495 J-0.0437
X2.2256 Y5.5273 I0.0437 J0.0495
G1 X2.2273 Y5.5292
G2 X3.2518 Y5.5273 I0.5114 J-0.4542
G3 X3.3434 Y5.5201 I0.0495 J0.0437
G1 X3.3446 Y5.5215
X3.3453 Y5.5232
X3.3455 Y5.5251
X3.3451 Y5.5269
X3.3441 Y5.5285
X3.3427 Y5.5297
X3.3021 Y5.5548
X3.26 Y5.5656
G3 X3.2531 Y5.5575 I-0.0014 J-0.0057
X3.3562 Y5.6016 Z-0.1661 I0.0515 J0.0221 F20.
X3.2531 Y5.5575 Z-0.1723 I-0.0515 J-0.0221
X3.3562 Y5.6016 Z-0.1784 I0.0515 J0.0221
X3.3251 Y5.6318 Z-0.18 I-0.0515 J-0.0221
X3.2943 Y5.5531 I-0.0154 J-0.0393
G1 X3.2965 Y5.5524 F40.
X3.2988 Y5.5518
G3 X3.3144 Y5.5561 I0.0033 J0.0182
X3.3162 Y5.5838 I-0.013 J0.0147
X3.2976 Y5.6043 I-0.4998 J-0.4337
X2.1613 Y5.5841 I-0.559 J-0.5276
X2.191 Y5.5579 I0.0148 J-0.0131
G2 X3.0522 Y5.7345 I0.5478 J-0.4829
X3.2442 Y5.602 I-0.3068 J-0.6498
X3.2649 Y5.5813 I-0.5785 J-0.6005
X3.2848 Y5.5598 I-0.4547 J-0.4399
G3 X3.2943 Y5.5531 I0.0185 J0.0163
G2 X3.3143 Y5.5299 I-0.012 J-0.0306
G3 X3.3434 Y5.5201 I0.0175 J0.0041
X3.3508 Y5.6146 I-0.0421 J0.0509
X2.1266 I-0.6121 J-0.5396
X2.1325 Y5.5215 I0.0495 J-0.0437
X2.2256 Y5.5273 I0.0437 J0.0495
G1 X2.2273 Y5.5292
G2 X3.2518 Y5.5273 I0.5114 J-0.4542
G3 X3.3434 Y5.5201 I0.0495 J0.0437
G1 X3.3446 Y5.5215
X3.3453 Y5.5232
X3.3455 Y5.5251
X3.3451 Y5.5269
X3.3441 Y5.5285
X3.3427 Y5.5297
X3.3021 Y5.5548
X3.26 Y5.5656
G3 X3.2531 Y5.5575 I-0.0014 J-0.0057
X3.3562 Y5.6016 Z-0.1861 I0.0515 J0.0221 F20.
X3.2531 Y5.5575 Z-0.1923 I-0.0515 J-0.0221
X3.3562 Y5.6016 Z-0.1984 I0.0515 J0.0221
X3.3251 Y5.6318 Z-0.2 I-0.0515 J-0.0221
X3.2943 Y5.5531 I-0.0154 J-0.0393
G1 X3.2965 Y5.5524 F40.
X3.2988 Y5.5518
G3 X3.3144 Y5.5561 I0.0033 J0.0182
X3.3162 Y5.5838 I-0.013 J0.0147
X3.2976 Y5.6043 I-0.4998 J-0.4337
X2.1613 Y5.5841 I-0.559 J-0.5276
X2.191 Y5.5579 I0.0148 J-0.0131
G2 X3.0522 Y5.7345 I0.5478 J-0.4829
X3.2442 Y5.602 I-0.3068 J-0.6498
X3.2649 Y5.5813 I-0.5785 J-0.6005
X3.2848 Y5.5598 I-0.4547 J-0.4399
G3 X3.2943 Y5.5531 I0.0185 J0.0163
G2 X3.3143 Y5.5299 I-0.012 J-0.0306
G3 X3.3434 Y5.5201 I0.0175 J0.0041
X3.3508 Y5.6146 I-0.0421 J0.0509
X2.1266 I-0.6121 J-0.5396
X2.1325 Y5.5215 I0.0495 J-0.0437
X2.2256 Y5.5273 I0.0437 J0.0495
G1 X2.2273 Y5.5292
G2 X3.2518 Y5.5273 I0.5114 J-0.4542
G3 X3.3434 Y5.5201 I0.0495 J0.0437
G1 X3.3446 Y5.5215
X3.3453 Y5.5232
X3.3455 Y5.5251
X3.3451 Y5.5269
X3.3441 Y5.5285
X3.3427 Y5.5297
X3.3021 Y5.5548
X3.26 Y5.5656
G3 X3.2531 Y5.5575 I-0.0014 J-0.0057
X3.3562 Y5.6016 Z-0.2061 I0.0515 J0.0221 F20.
X3.2531 Y5.5575 Z-0.2123 I-0.0515 J-0.0221
X3.3562 Y5.6016 Z-0.2184 I0.0515 J0.0221
X3.3251 Y5.6318 Z-0.22 I-0.0515 J-0.0221
X3.2943 Y5.5531 I-0.0154 J-0.0393
G1 X3.2965 Y5.5524 F40.
X3.2988 Y5.5518
G3 X3.3144 Y5.5561 I0.0033 J0.0182
X3.3162 Y5.5838 I-0.013 J0.0147
X3.2976 Y5.6043 I-0.4998 J-0.4337
X2.1613 Y5.5841 I-0.559 J-0.5276
X2.191 Y5.5579 I0.0148 J-0.0131
G2 X3.0522 Y5.7345 I0.5478 J-0.4829
X3.2442 Y5.602 I-0.3068 J-0.6498
X3.2649 Y5.5813 I-0.5785 J-0.6005
X3.2848 Y5.5598 I-0.4547 J-0.4399
G3 X3.2943 Y5.5531 I0.0185 J0.0163
G2 X3.3143 Y5.5299 I-0.012 J-0.0306
G3 X3.3434 Y5.5201 I0.0175 J0.0041
X3.3508 Y5.6146 I-0.0421 J0.0509
X2.1266 I-0.6121 J-0.5396
X2.1325 Y5.5215 I0.0495 J-0.0437
X2.2256 Y5.5273 I0.0437 J0.0495
G1 X2.2273 Y5.5292
G2 X3.2518 Y5.5273 I0.5114 J-0.4542
G3 X3.3434 Y5.5201 I0.0495 J0.0437
G1 X3.3446 Y5.5215
X3.3453 Y5.5232
X3.3455 Y5.5251
X3.3451 Y5.5269
X3.3441 Y5.5285
X3.3427 Y5.5297
X3.3021 Y5.5548
X3.26 Y5.5656
G3 X3.2531 Y5.5575 I-0.0014 J-0.0057
X3.3562 Y5.6016 Z-0.2261 I0.0515 J0.0221 F20.
X3.2531 Y5.5575 Z-0.2323 I-0.0515 J-0.0221
X3.3562 Y5.6016 Z-0.2384 I0.0515 J0.0221
X3.3251 Y5.6318 Z-0.24 I-0.0515 J-0.0221
X3.2943 Y5.5531 I-0.0154 J-0.0393
G1 X3.2965 Y5.5524 F40.
X3.2988 Y5.5518
G3 X3.3144 Y5.5561 I0.0033 J0.0182
X3.3162 Y5.5838 I-0.013 J0.0147
X3.2976 Y5.6043 I-0.4998 J-0.4337
X2.1613 Y5.5841 I-0.559 J-0.5276
X2.191 Y5.5579 I0.0148 J-0.0131
G2 X3.0522 Y5.7345 I0.5478 J-0.4829
X3.2442 Y5.602 I-0.3068 J-0.6498
X3.2649 Y5.5813 I-0.5785 J-0.6005
X3.2848 Y5.5598 I-0.4547 J-0.4399
G3 X3.2943 Y5.5531 I0.0185 J0.0163
G2 X3.3143 Y5.5299 I-0.012 J-0.0306
G3 X3.3434 Y5.5201 I0.0175 J0.0041
X3.3508 Y5.6146 I-0.0421 J0.0509
X2.1266 I-0.6121 J-0.5396
X2.1325 Y5.5215 I0.0495 J-0.0437
X2.2256 Y5.5273 I0.0437 J0.0495
G1 X2.2273 Y5.5292
G2 X3.2518 Y5.5273 I0.5114 J-0.4542
G3 X3.3434 Y5.5201 I0.0495 J0.0437
G1 X3.3446 Y5.5215
X3.3453 Y5.5232
X3.3455 Y5.5251
X3.3451 Y5.5269
X3.3441 Y5.5285
X3.3427 Y5.5297
X3.3021 Y5.5548
X3.26 Y5.5656
G3 X3.2531 Y5.5575 I-0.0014 J-0.0057
X3.3562 Y5.6016 Z-0.2461 I0.0515 J0.0221 F20.
X3.2531 Y5.5575 Z-0.2523 I-0.0515 J-0.0221
X3.3562 Y5.6016 Z-0.2584 I0.0515 J0.0221
X3.3251 Y5.6318 Z-0.26 I-0.0515 J-0.0221
X3.2943 Y5.5531 I-0.0154 J-0.0393
G1 X3.2965 Y5.5524 F40.
X3.2988 Y5.5518
G3 X3.3144 Y5.5561 I0.0033 J0.0182
X3.3162 Y5.5838 I-0.013 J0.0147
X3.2976 Y5.6043 I-0.4998 J-0.4337
X2.1613 Y5.5841 I-0.559 J-0.5276
X2.191 Y5.5579 I0.0148 J-0.0131
G2 X3.0522 Y5.7345 I0.5478 J-0.4829
X3.2442 Y5.602 I-0.3068 J-0.6498
X3.2649 Y5.5813 I-0.5785 J-0.6005
X3.2848 Y5.5598 I-0.4547 J-0.4399
G3 X3.2943 Y5.5531 I0.0185 J0.0163
G2 X3.3143 Y5.5299 I-0.012 J-0.0306
G3 X3.3434 Y5.5201 I0.0175 J0.0041
X3.3508 Y5.6146 I-0.0421 J0.0509
X2.1266 I-0.6121 J-0.5396
X2.1325 Y5.5215 I0.0495 J-0.0437
X2.2256 Y5.5273 I0.0437 J0.0495
G1 X2.2273 Y5.5292
G2 X3.2518 Y5.5273 I0.5114 J-0.4542
G3 X3.3434 Y5.5201 I0.0495 J0.0437
G1 X3.3446 Y5.5215
X3.3453 Y5.5232
X3.3455 Y5.5251
X3.3451 Y5.5269
X3.3441 Y5.5285
X3.3427 Y5.5297
X3.3021 Y5.5548
X3.26 Y5.5656
G3 X3.2531 Y5.5575 I-0.0014 J-0.0057
X3.3562 Y5.6016 Z-0.2661 I0.0515 J0.0221 F20.
X3.2531 Y5.5575 Z-0.2723 I-0.0515 J-0.0221
X3.3562 Y5.6016 Z-0.2784 I0.0515 J0.0221
X3.3251 Y5.6318 Z-0.28 I-0.0515 J-0.0221
X3.2943 Y5.5531 I-0.0154 J-0.0393
G1 X3.2965 Y5.5524 F40.
X3.2988 Y5.5518
G3 X3.3144 Y5.5561 I0.0033 J0.0182
X3.3162 Y5.5838 I-0.013 J0.0147
X3.2976 Y5.6043 I-0.4998 J-0.4337
X2.1613 Y5.5841 I-0.559 J-0.5276
X2.191 Y5.5579 I0.0148 J-0.0131
G2 X3.0522 Y5.7345 I0.5478 J-0.4829
X3.2442 Y5.602 I-0.3068 J-0.6498
X3.2649 Y5.5813 I-0.5785 J-0.6005
X3.2848 Y5.5598 I-0.4547 J-0.4399
G3 X3.2943 Y5.5531 I0.0185 J0.0163
G2 X3.3143 Y5.5299 I-0.012 J-0.0306
G3 X3.3434 Y5.5201 I0.0175 J0.0041
X3.3508 Y5.6146 I-0.0421 J0.0509
X2.1266 I-0.6121 J-0.5396
X2.1325 Y5.5215 I0.0495 J-0.0437
X2.2256 Y5.5273 I0.0437 J0.0495
G1 X2.2273 Y5.5292
G2 X3.2518 Y5.5273 I0.5114 J-0.4542
G3 X3.3434 Y5.5201 I0.0495 J0.0437
G1 X3.3446 Y5.5215
X3.3453 Y5.5232
X3.3455 Y5.5251
X3.3451 Y5.5269
X3.3441 Y5.5285
X3.3427 Y5.5297
X3.3021 Y5.5548
X3.26 Y5.5656
G3 X3.2531 Y5.5575 I-0.0014 J-0.0057
X3.3562 Y5.6016 Z-0.2861 I0.0515 J0.0221 F20.
X3.2531 Y5.5575 Z-0.2923 I-0.0515 J-0.0221
X3.3562 Y5.6016 Z-0.2984 I0.0515 J0.0221
X3.3251 Y5.6318 Z-0.3 I-0.0515 J-0.0221
X3.2943 Y5.5531 I-0.0154 J-0.0393
G1 X3.2965 Y5.5524 F40.
X3.2988 Y5.5518
G3 X3.3144 Y5.5561 I0.0033 J0.0182
X3.3162 Y5.5838 I-0.013 J0.0147
X3.2976 Y5.6043 I-0.4998 J-0.4337
X2.1613 Y5.5841 I-0.559 J-0.5276
X2.191 Y5.5579 I0.0148 J-0.0131
G2 X3.0522 Y5.7345 I0.5478 J-0.4829
X3.2442 Y5.602 I-0.3068 J-0.6498
X3.2649 Y5.5813 I-0.5785 J-0.6005
X3.2848 Y5.5598 I-0.4547 J-0.4399
G3 X3.2943 Y5.5531 I0.0185 J0.0163
G2 X3.3143 Y5.5299 I-0.012 J-0.0306
G3 X3.3434 Y5.5201 I0.0175 J0.0041
X3.3508 Y5.6146 I-0.0421 J0.0509
X2.1266 I-0.6121 J-0.5396
X2.1325 Y5.5215 I0.0495 J-0.0437
X2.2256 Y5.5273 I0.0437 J0.0495
G1 X2.2273 Y5.5292
G2 X3.2518 Y5.5273 I0.5114 J-0.4542
G3 X3.3434 Y5.5201 I0.0495 J0.0437
G1 X3.345 Y5.5217 Z-0.2996
X3.3462 Y5.5236 Z-0.2991
X3.347 Y5.5253 Z-0.2978
X3.3475 Y5.5272 Z-0.2965
X3.3476 Y5.5297 Z-0.2927
Y5.5306 Z-0.2882
G0 Z0.24
X4.902 Y3.7618
G1 Z0.1518 F40.
X4.9008 Y3.7627 Z0.146 F20.
X4.8973 Y3.7649 Z0.1417
X4.8923 Y3.7676 Z0.14
G3 X4.8455 Y3.6657 Z0.1339 I-0.0234 J-0.0509
X4.8923 Y3.7676 Z0.1277 I0.0234 J0.0509
X4.8455 Y3.6657 Z0.1216 I-0.0234 J-0.0509
X4.8923 Y3.7676 Z0.1154 I0.0234 J0.0509
X4.8455 Y3.6657 Z0.1093 I-0.0234 J-0.0509
X4.8923 Y3.7676 Z0.1031 I0.0234 J0.0509
X4.8455 Y3.6657 Z0.097 I-0.0234 J-0.0509
X4.8923 Y3.7676 Z0.0908 I0.0234 J0.0509
X4.8455 Y3.6657 Z0.0847 I-0.0234 J-0.0509
X4.8923 Y3.7676 Z0.0785 I0.0234 J0.0509
X4.8455 Y3.6657 Z0.0724 I-0.0234 J-0.0509
X4.8923 Y3.7676 Z0.0662 I0.0234 J0.0509
X4.8455 Y3.6657 Z0.0601 I-0.0234 J-0.0509
X4.8923 Y3.7676 Z0.0539 I0.0234 J0.0509
X4.8455 Y3.6657 Z0.0478 I-0.0234 J-0.0509
X4.8923 Y3.7676 Z0.0416 I0.0234 J0.0509
X4.8455 Y3.6657 Z0.0355 I-0.0234 J-0.0509
X4.8923 Y3.7676 Z0.0293 I0.0234 J0.0509
X4.8455 Y3.6657 Z0.0232 I-0.0234 J-0.0509
X4.9209 Y3.6957 Z0.02 I0.0234 J0.0509
X4.8344 Y3.7305 I-0.0432 J0.0174
X4.8375 Y3.7094 I0.0197 J-0.0079 F40.
G2 X4.8598 Y2.8321 I-0.5682 J-0.4534
X4.6918 Y2.6632 I-0.605 J0.434
X4.6457 Y2.6326 I-0.4383 J0.6103
G3 X4.6391 Y2.6054 I0.0103 J-0.0169
X4.666 Y2.5988 I0.0168 J0.0102
X4.6895 Y2.6136 I-0.3394 J0.5659
X4.8668 Y3.736 I-0.4226 J0.642
X4.8388 Y3.7374 I-0.0146 J-0.0117
G1 X4.8371 Y3.7353
X4.8356 Y3.733
X4.8344 Y3.7305
G2 X4.811 Y3.7103 I-0.0313 J0.0126
G3 X4.8009 Y3.6811 I0.0043 J-0.0178
G1 X4.8013 Y3.6805
G2 X4.6216 Y2.6721 I-0.5362 J-0.4247
G3 X4.6904 Y2.5594 I0.0344 J-0.0563
X4.903 Y3.7648 I-0.4253 J0.6964
X4.8102 Y3.7753 I-0.0516 J-0.0412
X4.7998 Y3.6825 I0.0412 J-0.0516
G1 X4.8009 Y3.6811
X4.8022 Y3.6799
X4.8038 Y3.6791
X4.8056 Y3.6789
X4.8073 Y3.6791
X4.8089 Y3.6799
X4.8102 Y3.6812
X4.8405 Y3.7205
X4.8551 Y3.7609
G3 X4.8473 Y3.7683 I-0.0056 J0.002
X4.8905 Y3.6649 Z0.0139 I0.0216 J-0.0517 F20.
X4.8473 Y3.7683 Z0.0077 I-0.0216 J0.0517
X4.8905 Y3.6649 Z0.0016 I0.0216 J-0.0517
X4.9209 Y3.6958 Z0. I-0.0216 J0.0517
X4.8344 Y3.7305 I-0.0433 J0.0174
X4.8375 Y3.7094 I0.0197 J-0.0079 F40.
G2 X4.8598 Y2.8321 I-0.5682 J-0.4534
X4.6918 Y2.6632 I-0.605 J0.434
X4.6457 Y2.6326 I-0.4383 J0.6103
G3 X4.6391 Y2.6054 I0.0103 J-0.0169
X4.666 Y2.5988 I0.0168 J0.0102
X4.6895 Y2.6136 I-0.3394 J0.5659
X4.8668 Y3.736 I-0.4226 J0.642
X4.8388 Y3.7374 I-0.0146 J-0.0117
G1 X4.8371 Y3.7353
X4.8356 Y3.733
X4.8344 Y3.7305
G2 X4.811 Y3.7103 I-0.0313 J0.0126
G3 X4.801 Y3.681 I0.0043 J-0.0178
G1 X4.8013 Y3.6805
G2 X4.6216 Y2.6721 I-0.5362 J-0.4247
G3 X4.6904 Y2.5594 I0.0344 J-0.0563
X4.903 Y3.7648 I-0.4253 J0.6964
X4.8102 Y3.7753 I-0.0516 J-0.0412
X4.7998 Y3.6825 I0.0412 J-0.0516
G1 X4.801 Y3.681
X4.8023 Y3.6798
X4.8039 Y3.679
X4.8056 Y3.6788
X4.8074 Y3.6791
X4.809 Y3.6799
X4.8103 Y3.6811
X4.8405 Y3.7205
X4.8551 Y3.7609
G3 X4.8473 Y3.7683 I-0.0056 J0.002
X4.8905 Y3.6649 Z-0.0061 I0.0216 J-0.0517 F20.
X4.8473 Y3.7683 Z-0.0123 I-0.0216 J0.0517
X4.8905 Y3.6649 Z-0.0184 I0.0216 J-0.0517
X4.9209 Y3.6958 Z-0.02 I-0.0216 J0.0517
X4.8344 Y3.7305 I-0.0433 J0.0174
X4.8375 Y3.7094 I0.0197 J-0.0079 F40.
G2 X4.8598 Y2.8321 I-0.5682 J-0.4534
X4.6918 Y2.6632 I-0.605 J0.434
X4.6457 Y2.6326 I-0.4383 J0.6103
G3 X4.6391 Y2.6054 I0.0103 J-0.0169
X4.666 Y2.5988 I0.0168 J0.0102
X4.6895 Y2.6136 I-0.3394 J0.5659
X4.8668 Y3.736 I-0.4226 J0.642
X4.8388 Y3.7374 I-0.0146 J-0.0117
G1 X4.8371 Y3.7353
X4.8356 Y3.733
X4.8344 Y3.7305
G2 X4.811 Y3.7103 I-0.0313 J0.0126
G3 X4.801 Y3.681 I0.0043 J-0.0178
G1 X4.8013 Y3.6805
G2 X4.6216 Y2.6721 I-0.5362 J-0.4247
G3 X4.6904 Y2.5594 I0.0344 J-0.0563
X4.903 Y3.7648 I-0.4253 J0.6964
X4.8102 Y3.7753 I-0.0516 J-0.0412
X4.7998 Y3.6825 I0.0412 J-0.0516
G1 X4.801 Y3.681
X4.8023 Y3.6798
X4.8039 Y3.679
X4.8056 Y3.6788
X4.8074 Y3.6791
X4.809 Y3.6799
X4.8103 Y3.6811
X4.8405 Y3.7205
X4.8551 Y3.7609
G3 X4.8473 Y3.7683 I-0.0056 J0.002
X4.8905 Y3.6649 Z-0.0261 I0.0216 J-0.0517 F20.
X4.8473 Y3.7683 Z-0.0323 I-0.0216 J0.0517
X4.8905 Y3.6649 Z-0.0384 I0.0216 J-0.0517
X4.9209 Y3.6958 Z-0.04 I-0.0216 J0.0517
X4.8344 Y3.7305 I-0.0433 J0.0174
X4.8375 Y3.7094 I0.0197 J-0.0079 F40.
G2 X4.8598 Y2.8321 I-0.5682 J-0.4534
X4.6918 Y2.6632 I-0.605 J0.434
X4.6457 Y2.6326 I-0.4383 J0.6103
G3 X4.6391 Y2.6054 I0.0103 J-0.0169
X4.666 Y2.5988 I0.0168 J0.0102
X4.6895 Y2.6136 I-0.3394 J0.5659
X4.8668 Y3.736 I-0.4226 J0.642
X4.8388 Y3.7374 I-0.0146 J-0.0117
G1 X4.8371 Y3.7353
X4.8356 Y3.733
X4.8344 Y3.7305
G2 X4.811 Y3.7103 I-0.0313 J0.0126
G3 X4.801 Y3.681 I0.0043 J-0.0178
G1 X4.8013 Y3.6805
G2 X4.6216 Y2.6721 I-0.5362 J-0.4247
G3 X4.6904 Y2.5594 I0.0344 J-0.0563
X4.903 Y3.7648 I-0.4253 J0.6964
X4.8102 Y3.7753 I-0.0516 J-0.0412
X4.7998 Y3.6825 I0.0412 J-0.0516
G1 X4.801 Y3.681
X4.8023 Y3.6798
X4.8039 Y3.679
X4.8056 Y3.6788
X4.8074 Y3.6791
X4.809 Y3.6799
X4.8103 Y3.6811
X4.8405 Y3.7205
X4.8551 Y3.7609
G3 X4.8473 Y3.7683 I-0.0056 J0.002
X4.8905 Y3.6649 Z-0.0461 I0.0216 J-0.0517 F20.
X4.8473 Y3.7683 Z-0.0523 I-0.0216 J0.0517
X4.8905 Y3.6649 Z-0.0584 I0.0216 J-0.0517
X4.9209 Y3.6958 Z-0.06 I-0.0216 J0.0517
X4.8344 Y3.7305 I-0.0433 J0.0174
X4.8375 Y3.7094 I0.0197 J-0.0079 F40.
G2 X4.8598 Y2.8321 I-0.5682 J-0.4534
X4.6918 Y2.6632 I-0.605 J0.434
X4.6457 Y2.6326 I-0.4383 J0.6103
G3 X4.6391 Y2.6054 I0.0103 J-0.0169
X4.666 Y2.5988 I0.0168 J0.0102
X4.6895 Y2.6136 I-0.3394 J0.5659
X4.8668 Y3.736 I-0.4226 J0.642
X4.8388 Y3.7374 I-0.0146 J-0.0117
G1 X4.8371 Y3.7353
X4.8356 Y3.733
X4.8344 Y3.7305
G2 X4.811 Y3.7103 I-0.0313 J0.0126
G3 X4.801 Y3.681 I0.0043 J-0.0178
G1 X4.8013 Y3.6805
G2 X4.6216 Y2.6721 I-0.5362 J-0.4247
G3 X4.6904 Y2.5594 I0.0344 J-0.0563
X4.903 Y3.7648 I-0.4253 J0.6964
X4.8102 Y3.7753 I-0.0516 J-0.0412
X4.7998 Y3.6825 I0.0412 J-0.0516
G1 X4.801 Y3.681
X4.8023 Y3.6798
X4.8039 Y3.679
X4.8056 Y3.6788
X4.8074 Y3.6791
X4.809 Y3.6799
X4.8103 Y3.6811
X4.8405 Y3.7205
X4.8551 Y3.7609
G3 X4.8473 Y3.7683 I-0.0056 J0.002
X4.8905 Y3.6649 Z-0.0661 I0.0216 J-0.0517 F20.
X4.8473 Y3.7683 Z-0.0723 I-0.0216 J0.0517
X4.8905 Y3.6649 Z-0.0784 I0.0216 J-0.0517
X4.9209 Y3.6958 Z-0.08 I-0.0216 J0.0517
X4.8344 Y3.7305 I-0.0433 J0.0174
X4.8375 Y3.7094 I0.0197 J-0.0079 F40.
G2 X4.8598 Y2.8321 I-0.5682 J-0.4534
X4.6918 Y2.6632 I-0.605 J0.434
X4.6457 Y2.6326 I-0.4383 J0.6103
G3 X4.6391 Y2.6054 I0.0103 J-0.0169
X4.666 Y2.5988 I0.0168 J0.0102
X4.6895 Y2.6136 I-0.3394 J0.5659
X4.8668 Y3.736 I-0.4226 J0.642
X4.8388 Y3.7374 I-0.0146 J-0.0117
G1 X4.8371 Y3.7353
X4.8356 Y3.733
X4.8344 Y3.7305
G2 X4.811 Y3.7103 I-0.0313 J0.0126
G3 X4.801 Y3.681 I0.0043 J-0.0178
G1 X4.8013 Y3.6805
G2 X4.6216 Y2.6721 I-0.5362 J-0.4247
G3 X4.6904 Y2.5594 I0.0344 J-0.0563
X4.903 Y3.7648 I-0.4253 J0.6964
X4.8102 Y3.7753 I-0.0516 J-0.0412
X4.7998 Y3.6825 I0.0412 J-0.0516
G1 X4.801 Y3.681
X4.8023 Y3.6798
X4.8039 Y3.679
X4.8056 Y3.6788
X4.8074 Y3.6791
X4.809 Y3.6799
X4.8103 Y3.6811
X4.8405 Y3.7205
X4.8551 Y3.7609
G3 X4.8473 Y3.7683 I-0.0056 J0.002
X4.8905 Y3.6649 Z-0.0861 I0.0216 J-0.0517 F20.
X4.8473 Y3.7683 Z-0.0923 I-0.0216 J0.0517
X4.8905 Y3.6649 Z-0.0984 I0.0216 J-0.0517
X4.9209 Y3.6958 Z-0.1 I-0.0216 J0.0517
X4.8344 Y3.7305 I-0.0433 J0.0174
X4.8375 Y3.7094 I0.0197 J-0.0079 F40.
G2 X4.8598 Y2.8321 I-0.5682 J-0.4534
X4.6918 Y2.6632 I-0.605 J0.434
X4.6457 Y2.6326 I-0.4383 J0.6103
G3 X4.6391 Y2.6054 I0.0103 J-0.0169
X4.666 Y2.5988 I0.0168 J0.0102
X4.6895 Y2.6136 I-0.3394 J0.5659
X4.8668 Y3.736 I-0.4226 J0.642
X4.8388 Y3.7374 I-0.0146 J-0.0117
G1 X4.8371 Y3.7353
X4.8356 Y3.733
X4.8344 Y3.7305
G2 X4.811 Y3.7103 I-0.0313 J0.0126
G3 X4.801 Y3.681 I0.0043 J-0.0178
G1 X4.8013 Y3.6805
G2 X4.6216 Y2.6721 I-0.5362 J-0.4247
G3 X4.6904 Y2.5594 I0.0344 J-0.0563
X4.903 Y3.7648 I-0.4253 J0.6964
X4.8102 Y3.7753 I-0.0516 J-0.0412
X4.7998 Y3.6825 I0.0412 J-0.0516
G1 X4.801 Y3.681
X4.8023 Y3.6798
X4.8039 Y3.679
X4.8056 Y3.6788
X4.8074 Y3.6791
X4.809 Y3.6799
X4.8103 Y3.6811
X4.8405 Y3.7205
X4.8551 Y3.7609
G3 X4.8473 Y3.7683 I-0.0056 J0.002
X4.8905 Y3.6649 Z-0.1061 I0.0216 J-0.0517 F20.
X4.8473 Y3.7683 Z-0.1123 I-0.0216 J0.0517
X4.8905 Y3.6649 Z-0.1184 I0.0216 J-0.0517
X4.9209 Y3.6958 Z-0.12 I-0.0216 J0.0517
X4.8344 Y3.7305 I-0.0433 J0.0174
X4.8375 Y3.7094 I0.0197 J-0.0079 F40.
G2 X4.8598 Y2.8321 I-0.5682 J-0.4534
X4.6918 Y2.6632 I-0.605 J0.434
X4.6457 Y2.6326 I-0.4383 J0.6103
G3 X4.6391 Y2.6054 I0.0103 J-0.0169
X4.666 Y2.5988 I0.0168 J0.0102
X4.6895 Y2.6136 I-0.3394 J0.5659
X4.8668 Y3.736 I-0.4226 J0.642
X4.8388 Y3.7374 I-0.0146 J-0.0117
G1 X4.8371 Y3.7353
X4.8356 Y3.733
X4.8344 Y3.7305
G2 X4.811 Y3.7103 I-0.0313 J0.0126
G3 X4.801 Y3.681 I0.0043 J-0.0178
G1 X4.8013 Y3.6805
G2 X4.6216 Y2.6721 I-0.5362 J-0.4247
G3 X4.6904 Y2.5594 I0.0344 J-0.0563
X4.903 Y3.7648 I-0.4253 J0.6964
X4.8102 Y3.7753 I-0.0516 J-0.0412
X4.7998 Y3.6825 I0.0412 J-0.0516
G1 X4.801 Y3.681
X4.8023 Y3.6798
X4.8039 Y3.679
X4.8056 Y3.6788
X4.8074 Y3.6791
X4.809 Y3.6799
X4.8103 Y3.6811
X4.8405 Y3.7205
X4.8551 Y3.7609
G3 X4.8473 Y3.7683 I-0.0056 J0.002
X4.8905 Y3.6649 Z-0.1261 I0.0216 J-0.0517 F20.
X4.8473 Y3.7683 Z-0.1323 I-0.0216 J0.0517
X4.8905 Y3.6649 Z-0.1384 I0.0216 J-0.0517
X4.9209 Y3.6958 Z-0.14 I-0.0216 J0.0517
X4.8344 Y3.7305 I-0.0433 J0.0174
X4.8375 Y3.7094 I0.0197 J-0.0079 F40.
G2 X4.8598 Y2.8321 I-0.5682 J-0.4534
X4.6918 Y2.6632 I-0.605 J0.434
X4.6457 Y2.6326 I-0.4383 J0.6103
G3 X4.6391 Y2.6054 I0.0103 J-0.0169
X4.666 Y2.5988 I0.0168 J0.0102
X4.6895 Y2.6136 I-0.3394 J0.5659
X4.8668 Y3.736 I-0.4226 J0.642
X4.8388 Y3.7374 I-0.0146 J-0.0117
G1 X4.8371 Y3.7353
X4.8356 Y3.733
X4.8344 Y3.7305
G2 X4.811 Y3.7103 I-0.0313 J0.0126
G3 X4.801 Y3.681 I0.0043 J-0.0178
G1 X4.8013 Y3.6805
G2 X4.6216 Y2.6721 I-0.5362 J-0.4247
G3 X4.6904 Y2.5594 I0.0344 J-0.0563
X4.903 Y3.7648 I-0.4253 J0.6964
X4.8102 Y3.7753 I-0.0516 J-0.0412
X4.7998 Y3.6825 I0.0412 J-0.0516
G1 X4.801 Y3.681
X4.8023 Y3.6798
X4.8039 Y3.679
X4.8056 Y3.6788
X4.8074 Y3.6791
X4.809 Y3.6799
X4.8103 Y3.6811
X4.8405 Y3.7205
X4.8551 Y3.7609
G3 X4.8473 Y3.7683 I-0.0056 J0.002
X4.8905 Y3.6649 Z-0.1461 I0.0216 J-0.0517 F20.
X4.8473 Y3.7683 Z-0.1523 I-0.0216 J0.0517
X4.8905 Y3.6649 Z-0.1584 I0.0216 J-0.0517
X4.9209 Y3.6958 Z-0.16 I-0.0216 J0.0517
X4.8344 Y3.7305 I-0.0433 J0.0174
X4.8375 Y3.7094 I0.0197 J-0.0079 F40.
G2 X4.8598 Y2.8321 I-0.5682 J-0.4534
X4.6918 Y2.6632 I-0.605 J0.434
X4.6457 Y2.6326 I-0.4383 J0.6103
G3 X4.6391 Y2.6054 I0.0103 J-0.0169
X4.666 Y2.5988 I0.0168 J0.0102
X4.6895 Y2.6136 I-0.3394 J0.5659
X4.8668 Y3.736 I-0.4226 J0.642
X4.8388 Y3.7374 I-0.0146 J-0.0117
G1 X4.8371 Y3.7353
X4.8356 Y3.733
X4.8344 Y3.7305
G2 X4.811 Y3.7103 I-0.0313 J0.0126
G3 X4.801 Y3.681 I0.0043 J-0.0178
G1 X4.8013 Y3.6805
G2 X4.6216 Y2.6721 I-0.5362 J-0.4247
G3 X4.6904 Y2.5594 I0.0344 J-0.0563
X4.903 Y3.7648 I-0.4253 J0.6964
X4.8102 Y3.7753 I-0.0516 J-0.0412
X4.7998 Y3.6825 I0.0412 J-0.0516
G1 X4.801 Y3.681
X4.8023 Y3.6798
X4.8039 Y3.679
X4.8056 Y3.6788
X4.8074 Y3.6791
X4.809 Y3.6799
X4.8103 Y3.6811
X4.8405 Y3.7205
X4.8551 Y3.7609
G3 X4.8473 Y3.7683 I-0.0056 J0.002
X4.8905 Y3.6649 Z-0.1661 I0.0216 J-0.0517 F20.
X4.8473 Y3.7683 Z-0.1723 I-0.0216 J0.0517
X4.8905 Y3.6649 Z-0.1784 I0.0216 J-0.0517
X4.9209 Y3.6958 Z-0.18 I-0.0216 J0.0517
X4.8344 Y3.7305 I-0.0433 J0.0174
X4.8375 Y3.7094 I0.0197 J-0.0079 F40.
G2 X4.8598 Y2.8321 I-0.5682 J-0.4534
X4.6918 Y2.6632 I-0.605 J0.434
X4.6457 Y2.6326 I-0.4383 J0.6103
G3 X4.6391 Y2.6054 I0.0103 J-0.0169
X4.666 Y2.5988 I0.0168 J0.0102
X4.6895 Y2.6136 I-0.3394 J0.5659
X4.8668 Y3.736 I-0.4226 J0.642
X4.8388 Y3.7374 I-0.0146 J-0.0117
G1 X4.8371 Y3.7353
X4.8356 Y3.733
X4.8344 Y3.7305
G2 X4.811 Y3.7103 I-0.0313 J0.0126
G3 X4.801 Y3.681 I0.0043 J-0.0178
G1 X4.8013 Y3.6805
G2 X4.6216 Y2.6721 I-0.5362 J-0.4247
G3 X4.6904 Y2.5594 I0.0344 J-0.0563
X4.903 Y3.7648 I-0.4253 J0.6964
X4.8102 Y3.7753 I-0.0516 J-0.0412
X4.7998 Y3.6825 I0.0412 J-0.0516
G1 X4.801 Y3.681
X4.8023 Y3.6798
X4.8039 Y3.679
X4.8056 Y3.6788
X4.8074 Y3.6791
X4.809 Y3.6799
X4.8103 Y3.6811
X4.8405 Y3.7205
X4.8551 Y3.7609
G3 X4.8473 Y3.7683 I-0.0056 J0.002
X4.8905 Y3.6649 Z-0.1861 I0.0216 J-0.0517 F20.
X4.8473 Y3.7683 Z-0.1923 I-0.0216 J0.0517
X4.8905 Y3.6649 Z-0.1984 I0.0216 J-0.0517
X4.9209 Y3.6958 Z-0.2 I-0.0216 J0.0517
X4.8344 Y3.7305 I-0.0433 J0.0174
X4.8375 Y3.7094 I0.0197 J-0.0079 F40.
G2 X4.8598 Y2.8321 I-0.5682 J-0.4534
X4.6918 Y2.6632 I-0.605 J0.434
X4.6457 Y2.6326 I-0.4383 J0.6103
G3 X4.6391 Y2.6054 I0.0103 J-0.0169
X4.666 Y2.5988 I0.0168 J0.0102
X4.6895 Y2.6136 I-0.3394 J0.5659
X4.8668 Y3.736 I-0.4226 J0.642
X4.8388 Y3.7374 I-0.0146 J-0.0117
G1 X4.8371 Y3.7353
X4.8356 Y3.733
X4.8344 Y3.7305
G2 X4.811 Y3.7103 I-0.0313 J0.0126
G3 X4.801 Y3.681 I0.0043 J-0.0178
G1 X4.8013 Y3.6805
G2 X4.6216 Y2.6721 I-0.5362 J-0.4247
G3 X4.6904 Y2.5594 I0.0344 J-0.0563
X4.903 Y3.7648 I-0.4253 J0.6964
X4.8102 Y3.7753 I-0.0516 J-0.0412
X4.7998 Y3.6825 I0.0412 J-0.0516
G1 X4.801 Y3.681
X4.8023 Y3.6798
X4.8039 Y3.679
X4.8056 Y3.6788
X4.8074 Y3.6791
X4.809 Y3.6799
X4.8103 Y3.6811
X4.8405 Y3.7205
X4.8551 Y3.7609
G3 X4.8473 Y3.7683 I-0.0056 J0.002
X4.8905 Y3.6649 Z-0.2061 I0.0216 J-0.0517 F20.
X4.8473 Y3.7683 Z-0.2123 I-0.0216 J0.0517
X4.8905 Y3.6649 Z-0.2184 I0.0216 J-0.0517
X4.9209 Y3.6958 Z-0.22 I-0.0216 J0.0517
X4.8344 Y3.7305 I-0.0433 J0.0174
X4.8375 Y3.7094 I0.0197 J-0.0079 F40.
G2 X4.8598 Y2.8321 I-0.5682 J-0.4534
X4.6918 Y2.6632 I-0.605 J0.434
X4.6457 Y2.6326 I-0.4383 J0.6103
G3 X4.6391 Y2.6054 I0.0103 J-0.0169
X4.666 Y2.5988 I0.0168 J0.0102
X4.6895 Y2.6136 I-0.3394 J0.5659
X4.8668 Y3.736 I-0.4226 J0.642
X4.8388 Y3.7374 I-0.0146 J-0.0117
G1 X4.8371 Y3.7353
X4.8356 Y3.733
X4.8344 Y3.7305
G2 X4.811 Y3.7103 I-0.0313 J0.0126
G3 X4.801 Y3.681 I0.0043 J-0.0178
G1 X4.8013 Y3.6805
G2 X4.6216 Y2.6721 I-0.5362 J-0.4247
G3 X4.6904 Y2.5594 I0.0344 J-0.0563
X4.903 Y3.7648 I-0.4253 J0.6964
X4.8102 Y3.7753 I-0.0516 J-0.0412
X4.7998 Y3.6825 I0.0412 J-0.0516
G1 X4.801 Y3.681
X4.8023 Y3.6798
X4.8039 Y3.679
X4.8056 Y3.6788
X4.8074 Y3.6791
X4.809 Y3.6799
X4.8103 Y3.6811
X4.8405 Y3.7205
X4.8551 Y3.7609
G3 X4.8473 Y3.7683 I-0.0056 J0.002
X4.8905 Y3.6649 Z-0.2261 I0.0216 J-0.0517 F20.
X4.8473 Y3.7683 Z-0.2323 I-0.0216 J0.0517
X4.8905 Y3.6649 Z-0.2384 I0.0216 J-0.0517
X4.9209 Y3.6958 Z-0.24 I-0.0216 J0.0517
X4.8344 Y3.7305 I-0.0433 J0.0174
X4.8375 Y3.7094 I0.0197 J-0.0079 F40.
G2 X4.8598 Y2.8321 I-0.5682 J-0.4534
X4.6918 Y2.6632 I-0.605 J0.434
X4.6457 Y2.6326 I-0.4383 J0.6103
G3 X4.6391 Y2.6054 I0.0103 J-0.0169
X4.666 Y2.5988 I0.0168 J0.0102
X4.6895 Y2.6136 I-0.3394 J0.5659
X4.8668 Y3.736 I-0.4226 J0.642
X4.8388 Y3.7374 I-0.0146 J-0.0117
G1 X4.8371 Y3.7353
X4.8356 Y3.733
X4.8344 Y3.7305
G2 X4.811 Y3.7103 I-0.0313 J0.0126
G3 X4.801 Y3.681 I0.0043 J-0.0178
G1 X4.8013 Y3.6805
G2 X4.6216 Y2.6721 I-0.5362 J-0.4247
G3 X4.6904 Y2.5594 I0.0344 J-0.0563
X4.903 Y3.7648 I-0.4253 J0.6964
X4.8102 Y3.7753 I-0.0516 J-0.0412
X4.7998 Y3.6825 I0.0412 J-0.0516
G1 X4.801 Y3.681
X4.8023 Y3.6798
X4.8039 Y3.679
X4.8056 Y3.6788
X4.8074 Y3.6791
X4.809 Y3.6799
X4.8103 Y3.6811
X4.8405 Y3.7205
X4.8551 Y3.7609
G3 X4.8473 Y3.7683 I-0.0056 J0.002
X4.8905 Y3.6649 Z-0.2461 I0.0216 J-0.0517 F20.
X4.8473 Y3.7683 Z-0.2523 I-0.0216 J0.0517
X4.8905 Y3.6649 Z-0.2584 I0.0216 J-0.0517
X4.9209 Y3.6958 Z-0.26 I-0.0216 J0.0517
X4.8344 Y3.7305 I-0.0433 J0.0174
X4.8375 Y3.7094 I0.0197 J-0.0079 F40.
G2 X4.8598 Y2.8321 I-0.5682 J-0.4534
X4.6918 Y2.6632 I-0.605 J0.434
X4.6457 Y2.6326 I-0.4383 J0.6103
G3 X4.6391 Y2.6054 I0.0103 J-0.0169
X4.666 Y2.5988 I0.0168 J0.0102
X4.6895 Y2.6136 I-0.3394 J0.5659
X4.8668 Y3.736 I-0.4226 J0.642
X4.8388 Y3.7374 I-0.0146 J-0.0117
G1 X4.8371 Y3.7353
X4.8356 Y3.733
X4.8344 Y3.7305
G2 X4.811 Y3.7103 I-0.0313 J0.0126
G3 X4.801 Y3.681 I0.0043 J-0.0178
G1 X4.8013 Y3.6805
G2 X4.6216 Y2.6721 I-0.5362 J-0.4247
G3 X4.6904 Y2.5594 I0.0344 J-0.0563
X4.903 Y3.7648 I-0.4253 J0.6964
X4.8102 Y3.7753 I-0.0516 J-0.0412
X4.7998 Y3.6825 I0.0412 J-0.0516
G1 X4.801 Y3.681
X4.8023 Y3.6798
X4.8039 Y3.679
X4.8056 Y3.6788
X4.8074 Y3.6791
X4.809 Y3.6799
X4.8103 Y3.6811
X4.8405 Y3.7205
X4.8551 Y3.7609
G3 X4.8473 Y3.7683 I-0.0056 J0.002
X4.8905 Y3.6649 Z-0.2661 I0.0216 J-0.0517 F20.
X4.8473 Y3.7683 Z-0.2723 I-0.0216 J0.0517
X4.8905 Y3.6649 Z-0.2784 I0.0216 J-0.0517
X4.9209 Y3.6958 Z-0.28 I-0.0216 J0.0517
X4.8344 Y3.7305 I-0.0433 J0.0174
X4.8375 Y3.7094 I0.0197 J-0.0079 F40.
G2 X4.8598 Y2.8321 I-0.5682 J-0.4534
X4.6918 Y2.6632 I-0.605 J0.434
X4.6457 Y2.6326 I-0.4383 J0.6103
G3 X4.6391 Y2.6054 I0.0103 J-0.0169
X4.666 Y2.5988 I0.0168 J0.0102
X4.6895 Y2.6136 I-0.3394 J0.5659
X4.8668 Y3.736 I-0.4226 J0.642
X4.8388 Y3.7374 I-0.0146 J-0.0117
G1 X4.8371 Y3.7353
X4.8356 Y3.733
X4.8344 Y3.7305
G2 X4.811 Y3.7103 I-0.0313 J0.0126
G3 X4.801 Y3.681 I0.0043 J-0.0178
G1 X4.8013 Y3.6805
G2 X4.6216 Y2.6721 I-0.5362 J-0.4247
G3 X4.6904 Y2.5594 I0.0344 J-0.0563
X4.903 Y3.7648 I-0.4253 J0.6964
X4.8102 Y3.7753 I-0.0516 J-0.0412
X4.7998 Y3.6825 I0.0412 J-0.0516
G1 X4.801 Y3.681
X4.8023 Y3.6798
X4.8039 Y3.679
X4.8056 Y3.6788
X4.8074 Y3.6791
X4.809 Y3.6799
X4.8103 Y3.6811
X4.8405 Y3.7205
X4.8551 Y3.7609
G3 X4.8473 Y3.7683 I-0.0056 J0.002
X4.8905 Y3.6649 Z-0.2861 I0.0216 J-0.0517 F20.
X4.8473 Y3.7683 Z-0.2923 I-0.0216 J0.0517
X4.8905 Y3.6649 Z-0.2984 I0.0216 J-0.0517
X4.9209 Y3.6958 Z-0.3 I-0.0216 J0.0517
X4.8344 Y3.7305 I-0.0433 J0.0174
X4.8375 Y3.7094 I0.0197 J-0.0079 F40.
G2 X4.8598 Y2.8321 I-0.5682 J-0.4534
X4.6918 Y2.6632 I-0.605 J0.434
X4.6457 Y2.6326 I-0.4383 J0.6103
G3 X4.6391 Y2.6054 I0.0103 J-0.0169
X4.666 Y2.5988 I0.0168 J0.0102
X4.6895 Y2.6136 I-0.3394 J0.5659
X4.8668 Y3.736 I-0.4226 J0.642
X4.8388 Y3.7374 I-0.0146 J-0.0117
G1 X4.8371 Y3.7353
X4.8356 Y3.733
X4.8344 Y3.7305
G2 X4.811 Y3.7103 I-0.0313 J0.0126
G3 X4.801 Y3.681 I0.0043 J-0.0178
G1 X4.8013 Y3.6805
G2 X4.6216 Y2.6721 I-0.5362 J-0.4247
G3 X4.6904 Y2.5594 I0.0344 J-0.0563
X4.903 Y3.7648 I-0.4253 J0.6964
X4.8102 Y3.7753 I-0.0516 J-0.0412
X4.7998 Y3.6825 I0.0412 J-0.0516
G1 X4.801 Y3.681
X4.8025 Y3.6794 Z-0.2996
X4.8044 Y3.6781 Z-0.2991
X4.8061 Y3.6773 Z-0.2978
X4.8079 Y3.6768 Z-0.2965
X4.8105 Y3.6766 Z-0.2927
X4.8114 Z-0.2882
G0 Z0.24
X0.5875 Y3.6759
G1 Z0.1518 F40.
X0.5888 Y3.6751 Z0.146 F20.
X0.5925 Y3.6733 Z0.1417
X0.5979 Y3.6712 Z0.14
G3 X0.6337 Y3.7774 Z0.1339 I0.0179 J0.0531
X0.5979 Y3.6712 Z0.1277 I-0.0179 J-0.0531
X0.6337 Y3.7774 Z0.1216 I0.0179 J0.0531
X0.5979 Y3.6712 Z0.1154 I-0.0179 J-0.0531
X0.6337 Y3.7774 Z0.1093 I0.0179 J0.0531
X0.5979 Y3.6712 Z0.1031 I-0.0179 J-0.0531
X0.6337 Y3.7774 Z0.097 I0.0179 J0.0531
X0.5979 Y3.6712 Z0.0908 I-0.0179 J-0.0531
X0.6337 Y3.7774 Z0.0847 I0.0179 J0.0531
X0.5979 Y3.6712 Z0.0785 I-0.0179 J-0.0531
X0.6337 Y3.7774 Z0.0724 I0.0179 J0.0531
X0.5979 Y3.6712 Z0.0662 I-0.0179 J-0.0531
X0.6337 Y3.7774 Z0.0601 I0.0179 J0.0531
X0.5979 Y3.6712 Z0.0539 I-0.0179 J-0.0531
X0.6337 Y3.7774 Z0.0478 I0.0179 J0.0531
X0.5979 Y3.6712 Z0.0416 I-0.0179 J-0.0531
X0.6337 Y3.7774 Z0.0355 I0.0179 J0.0531
X0.5979 Y3.6712 Z0.0293 I-0.0179 J-0.0531
X0.6337 Y3.7774 Z0.0232 I0.0179 J0.0531
X0.5619 Y3.7396 Z0.02 I-0.0179 J-0.0531
X0.591 Y3.6873 I0.0408 J-0.0116
X0.6434 Y3.7164 I0.0116 J0.0408
X0.6387 Y3.7369 I-0.0209 J0.006 F40.
X0.6107 Y3.7361 I-0.0137 J-0.0122
X0.6518 Y2.7281 I0.6016 J-0.4803
X0.7822 Y2.6174 I0.5731 J0.5426
X0.8112 Y2.5988 I0.3815 J0.5629
X0.8378 Y2.6076 I0.0096 J0.0157
X0.8291 Y2.6342 I-0.0202 J0.0081
G2 X0.5116 Y3.4617 I0.3859 J0.6226
X0.6152 Y3.6763 I0.7053 J-0.2081
X0.6396 Y3.7089 I0.579 J-0.407
G1 X0.6412 Y3.7112
X0.6424 Y3.7137
X0.6434 Y3.7164
G2 X0.6657 Y3.7388 I0.0314 J-0.009
G3 X0.6739 Y3.7693 I-0.0052 J0.0178
X0.5745 Y3.7649 I-0.0477 J-0.0456
X0.7871 Y2.5594 I0.6377 J-0.5091
X0.8559 Y2.672 I0.0344 J0.0563
G2 X0.6777 Y3.6826 I0.3564 J0.5838
G3 X0.6739 Y3.7693 I-0.0516 J0.0412
G1 X0.6724 Y3.7705
X0.6706 Y3.7711
X0.6688
X0.667 Y3.7706
X0.6655 Y3.7695
X0.6644 Y3.768
X0.6414 Y3.7248
X0.634 Y3.6812
G3 X0.6426 Y3.6751 I0.0058 J-0.001
X0.5889 Y3.7735 Z0.0139 I-0.0269 J0.0492 F20.
X0.6426 Y3.6751 Z0.0077 I0.0269 J-0.0492
X0.5889 Y3.7735 Z0.0016 I-0.0269 J0.0492
X0.5619 Y3.7396 Z0. I0.0269 J-0.0492
X0.591 Y3.6873 I0.0408 J-0.0116
X0.6434 Y3.7164 I0.0116 J0.0408
X0.6387 Y3.7369 I-0.0209 J0.006 F40.
X0.6107 Y3.7361 I-0.0137 J-0.0122
X0.6518 Y2.7281 I0.6016 J-0.4803
X0.7822 Y2.6174 I0.5731 J0.5426
X0.8112 Y2.5988 I0.3815 J0.5629
X0.8378 Y2.6076 I0.0096 J0.0157
X0.8291 Y2.6342 I-0.0202 J0.0081
G2 X0.5116 Y3.4617 I0.3859 J0.6226
X0.6152 Y3.6763 I0.7053 J-0.2081
X0.6396 Y3.7089 I0.579 J-0.407
G1 X0.6412 Y3.7112
X0.6424 Y3.7137
X0.6434 Y3.7164
G2 X0.6657 Y3.7388 I0.0314 J-0.009
G3 X0.6739 Y3.7693 I-0.0052 J0.0178
X0.5745 Y3.7649 I-0.0477 J-0.0456
X0.7871 Y2.5594 I0.6377 J-0.5091
X0.8559 Y2.672 I0.0344 J0.0563
G2 X0.6777 Y3.6826 I0.3564 J0.5838
G3 X0.6739 Y3.7693 I-0.0516 J0.0412
G1 X0.6724 Y3.7705
X0.6706 Y3.7711
X0.6688
X0.667 Y3.7706
X0.6655 Y3.7695
X0.6644 Y3.768
X0.6414 Y3.7248
X0.634 Y3.6812
G3 X0.6426 Y3.6751 I0.0058 J-0.001
X0.5889 Y3.7735 Z-0.0061 I-0.0269 J0.0492 F20.
X0.6426 Y3.6751 Z-0.0123 I0.0269 J-0.0492
X0.5889 Y3.7735 Z-0.0184 I-0.0269 J0.0492
X0.5619 Y3.7396 Z-0.02 I0.0269 J-0.0492
X0.591 Y3.6873 I0.0408 J-0.0116
X0.6434 Y3.7164 I0.0116 J0.0408
X0.6387 Y3.7369 I-0.0209 J0.006 F40.
X0.6107 Y3.7361 I-0.0137 J-0.0122
X0.6518 Y2.7281 I0.6016 J-0.4803
X0.7822 Y2.6174 I0.5731 J0.5426
X0.8112 Y2.5988 I0.3815 J0.5629
X0.8378 Y2.6076 I0.0096 J0.0157
X0.8291 Y2.6342 I-0.0202 J0.0081
G2 X0.5116 Y3.4617 I0.3859 J0.6226
X0.6152 Y3.6763 I0.7053 J-0.2081
X0.6396 Y3.7089 I0.579 J-0.407
G1 X0.6412 Y3.7112
X0.6424 Y3.7137
X0.6434 Y3.7164
G2 X0.6657 Y3.7388 I0.0314 J-0.009
G3 X0.6739 Y3.7693 I-0.0052 J0.0178
X0.5745 Y3.7649 I-0.0477 J-0.0456
X0.7871 Y2.5594 I0.6377 J-0.5091
X0.8559 Y2.672 I0.0344 J0.0563
G2 X0.6777 Y3.6826 I0.3564 J0.5838
G3 X0.6739 Y3.7693 I-0.0516 J0.0412
G1 X0.6724 Y3.7705
X0.6706 Y3.7711
X0.6688
X0.667 Y3.7706
X0.6655 Y3.7695
X0.6644 Y3.768
X0.6414 Y3.7248
X0.634 Y3.6812
G3 X0.6426 Y3.6751 I0.0058 J-0.001
X0.5889 Y3.7735 Z-0.0261 I-0.0269 J0.0492 F20.
X0.6426 Y3.6751 Z-0.0323 I0.0269 J-0.0492
X0.5889 Y3.7735 Z-0.0384 I-0.0269 J0.0492
X0.5619 Y3.7396 Z-0.04 I0.0269 J-0.0492
X0.591 Y3.6873 I0.0408 J-0.0116
X0.6434 Y3.7164 I0.0116 J0.0408
X0.6387 Y3.7369 I-0.0209 J0.006 F40.
X0.6107 Y3.7361 I-0.0137 J-0.0122
X0.6518 Y2.7281 I0.6016 J-0.4803
X0.7822 Y2.6174 I0.5731 J0.5426
X0.8112 Y2.5988 I0.3815 J0.5629
X0.8378 Y2.6076 I0.0096 J0.0157
X0.8291 Y2.6342 I-0.0202 J0.0081
G2 X0.5116 Y3.4617 I0.3859 J0.6226
X0.6152 Y3.6763 I0.7053 J-0.2081
X0.6396 Y3.7089 I0.579 J-0.407
G1 X0.6412 Y3.7112
X0.6424 Y3.7137
X0.6434 Y3.7164
G2 X0.6657 Y3.7388 I0.0314 J-0.009
G3 X0.6739 Y3.7693 I-0.0052 J0.0178
X0.5745 Y3.7649 I-0.0477 J-0.0456
X0.7871 Y2.5594 I0.6377 J-0.5091
X0.8559 Y2.672 I0.0344 J0.0563
G2 X0.6777 Y3.6826 I0.3564 J0.5838
G3 X0.6739 Y3.7693 I-0.0516 J0.0412
G1 X0.6724 Y3.7705
X0.6706 Y3.7711
X0.6688
X0.667 Y3.7706
X0.6655 Y3.7695
X0.6644 Y3.768
X0.6414 Y3.7248
X0.634 Y3.6812
G3 X0.6426 Y3.6751 I0.0058 J-0.001
X0.5889 Y3.7735 Z-0.0461 I-0.0269 J0.0492 F20.
X0.6426 Y3.6751 Z-0.0523 I0.0269 J-0.0492
X0.5889 Y3.7735 Z-0.0584 I-0.0269 J0.0492
X0.5619 Y3.7396 Z-0.06 I0.0269 J-0.0492
X0.591 Y3.6873 I0.0408 J-0.0116
X0.6434 Y3.7164 I0.0116 J0.0408
X0.6387 Y3.7369 I-0.0209 J0.006 F40.
X0.6107 Y3.7361 I-0.0137 J-0.0122
X0.6518 Y2.7281 I0.6016 J-0.4803
X0.7822 Y2.6174 I0.5731 J0.5426
X0.8112 Y2.5988 I0.3815 J0.5629
X0.8378 Y2.6076 I0.0096 J0.0157
X0.8291 Y2.6342 I-0.0202 J0.0081
G2 X0.5116 Y3.4617 I0.3859 J0.6226
X0.6152 Y3.6763 I0.7053 J-0.2081
X0.6396 Y3.7089 I0.579 J-0.407
G1 X0.6412 Y3.7112
X0.6424 Y3.7137
X0.6434 Y3.7164
G2 X0.6657 Y3.7388 I0.0314 J-0.009
G3 X0.6739 Y3.7693 I-0.0052 J0.0178
X0.5745 Y3.7649 I-0.0477 J-0.0456
X0.7871 Y2.5594 I0.6377 J-0.5091
X0.8559 Y2.672 I0.0344 J0.0563
G2 X0.6777 Y3.6826 I0.3564 J0.5838
G3 X0.6739 Y3.7693 I-0.0516 J0.0412
G1 X0.6724 Y3.7705
X0.6706 Y3.7711
X0.6688
X0.667 Y3.7706
X0.6655 Y3.7695
X0.6644 Y3.768
X0.6414 Y3.7248
X0.634 Y3.6812
G3 X0.6426 Y3.6751 I0.0058 J-0.001
X0.5889 Y3.7735 Z-0.0661 I-0.0269 J0.0492 F20.
X0.6426 Y3.6751 Z-0.0723 I0.0269 J-0.0492
X0.5889 Y3.7735 Z-0.0784 I-0.0269 J0.0492
X0.5619 Y3.7396 Z-0.08 I0.0269 J-0.0492
X0.591 Y3.6873 I0.0408 J-0.0116
X0.6434 Y3.7164 I0.0116 J0.0408
X0.6387 Y3.7369 I-0.0209 J0.006 F40.
X0.6107 Y3.7361 I-0.0137 J-0.0122
X0.6518 Y2.7281 I0.6016 J-0.4803
X0.7822 Y2.6174 I0.5731 J0.5426
X0.8112 Y2.5988 I0.3815 J0.5629
X0.8378 Y2.6076 I0.0096 J0.0157
X0.8291 Y2.6342 I-0.0202 J0.0081
G2 X0.5116 Y3.4617 I0.3859 J0.6226
X0.6152 Y3.6763 I0.7053 J-0.2081
X0.6396 Y3.7089 I0.579 J-0.407
G1 X0.6412 Y3.7112
X0.6424 Y3.7137
X0.6434 Y3.7164
G2 X0.6657 Y3.7388 I0.0314 J-0.009
G3 X0.6739 Y3.7693 I-0.0052 J0.0178
X0.5745 Y3.7649 I-0.0477 J-0.0456
X0.7871 Y2.5594 I0.6377 J-0.5091
X0.8559 Y2.672 I0.0344 J0.0563
G2 X0.6777 Y3.6826 I0.3564 J0.5838
G3 X0.6739 Y3.7693 I-0.0516 J0.0412
G1 X0.6724 Y3.7705
X0.6706 Y3.7711
X0.6688
X0.667 Y3.7706
X0.6655 Y3.7695
X0.6644 Y3.768
X0.6414 Y3.7248
X0.634 Y3.6812
G3 X0.6426 Y3.6751 I0.0058 J-0.001
X0.5889 Y3.7735 Z-0.0861 I-0.0269 J0.0492 F20.
X0.6426 Y3.6751 Z-0.0923 I0.0269 J-0.0492
X0.5889 Y3.7735 Z-0.0984 I-0.0269 J0.0492
X0.5619 Y3.7396 Z-0.1 I0.0269 J-0.0492
X0.591 Y3.6873 I0.0408 J-0.0116
X0.6434 Y3.7164 I0.0116 J0.0408
X0.6387 Y3.7369 I-0.0209 J0.006 F40.
X0.6107 Y3.7361 I-0.0137 J-0.0122
X0.6518 Y2.7281 I0.6016 J-0.4803
X0.7822 Y2.6174 I0.5731 J0.5426
X0.8112 Y2.5988 I0.3815 J0.5629
X0.8378 Y2.6076 I0.0096 J0.0157
X0.8291 Y2.6342 I-0.0202 J0.0081
G2 X0.5116 Y3.4617 I0.3859 J0.6226
X0.6152 Y3.6763 I0.7053 J-0.2081
X0.6396 Y3.7089 I0.579 J-0.407
G1 X0.6412 Y3.7112
X0.6424 Y3.7137
X0.6434 Y3.7164
G2 X0.6657 Y3.7388 I0.0314 J-0.009
G3 X0.6739 Y3.7693 I-0.0052 J0.0178
X0.5745 Y3.7649 I-0.0477 J-0.0456
X0.7871 Y2.5594 I0.6377 J-0.5091
X0.8559 Y2.672 I0.0344 J0.0563
G2 X0.6777 Y3.6826 I0.3564 J0.5838
G3 X0.6739 Y3.7693 I-0.0516 J0.0412
G1 X0.6724 Y3.7705
X0.6706 Y3.7711
X0.6688
X0.667 Y3.7706
X0.6655 Y3.7695
X0.6644 Y3.768
X0.6414 Y3.7248
X0.634 Y3.6812
G3 X0.6426 Y3.6751 I0.0058 J-0.001
X0.5889 Y3.7735 Z-0.1061 I-0.0269 J0.0492 F20.
X0.6426 Y3.6751 Z-0.1123 I0.0269 J-0.0492
X0.5889 Y3.7735 Z-0.1184 I-0.0269 J0.0492
X0.5619 Y3.7396 Z-0.12 I0.0269 J-0.0492
X0.591 Y3.6873 I0.0408 J-0.0116
X0.6434 Y3.7164 I0.0116 J0.0408
X0.6387 Y3.7369 I-0.0209 J0.006 F40.
X0.6107 Y3.7361 I-0.0137 J-0.0122
X0.6518 Y2.7281 I0.6016 J-0.4803
X0.7822 Y2.6174 I0.5731 J0.5426
X0.8112 Y2.5988 I0.3815 J0.5629
X0.8378 Y2.6076 I0.0096 J0.0157
X0.8291 Y2.6342 I-0.0202 J0.0081
G2 X0.5116 Y3.4617 I0.3859 J0.6226
X0.6152 Y3.6763 I0.7053 J-0.2081
X0.6396 Y3.7089 I0.579 J-0.407
G1 X0.6412 Y3.7112
X0.6424 Y3.7137
X0.6434 Y3.7164
G2 X0.6657 Y3.7388 I0.0314 J-0.009
G3 X0.6739 Y3.7693 I-0.0052 J0.0178
X0.5745 Y3.7649 I-0.0477 J-0.0456
X0.7871 Y2.5594 I0.6377 J-0.5091
X0.8559 Y2.672 I0.0344 J0.0563
G2 X0.6777 Y3.6826 I0.3564 J0.5838
G3 X0.6739 Y3.7693 I-0.0516 J0.0412
G1 X0.6724 Y3.7705
X0.6706 Y3.7711
X0.6688
X0.667 Y3.7706
X0.6655 Y3.7695
X0.6644 Y3.768
X0.6414 Y3.7248
X0.634 Y3.6812
G3 X0.6426 Y3.6751 I0.0058 J-0.001
X0.5889 Y3.7735 Z-0.1261 I-0.0269 J0.0492 F20.
X0.6426 Y3.6751 Z-0.1323 I0.0269 J-0.0492
X0.5889 Y3.7735 Z-0.1384 I-0.0269 J0.0492
X0.5619 Y3.7396 Z-0.14 I0.0269 J-0.0492
X0.591 Y3.6873 I0.0408 J-0.0116
X0.6434 Y3.7164 I0.0116 J0.0408
X0.6387 Y3.7369 I-0.0209 J0.006 F40.
X0.6107 Y3.7361 I-0.0137 J-0.0122
X0.6518 Y2.7281 I0.6016 J-0.4803
X0.7822 Y2.6174 I0.5731 J0.5426
X0.8112 Y2.5988 I0.3815 J0.5629
X0.8378 Y2.6076 I0.0096 J0.0157
X0.8291 Y2.6342 I-0.0202 J0.0081
G2 X0.5116 Y3.4617 I0.3859 J0.6226
X0.6152 Y3.6763 I0.7053 J-0.2081
X0.6396 Y3.7089 I0.579 J-0.407
G1 X0.6412 Y3.7112
X0.6424 Y3.7137
X0.6434 Y3.7164
G2 X0.6657 Y3.7388 I0.0314 J-0.009
G3 X0.6739 Y3.7693 I-0.0052 J0.0178
X0.5745 Y3.7649 I-0.0477 J-0.0456
X0.7871 Y2.5594 I0.6377 J-0.5091
X0.8559 Y2.672 I0.0344 J0.0563
G2 X0.6777 Y3.6826 I0.3564 J0.5838
G3 X0.6739 Y3.7693 I-0.0516 J0.0412
G1 X0.6724 Y3.7705
X0.6706 Y3.7711
X0.6688
X0.667 Y3.7706
X0.6655 Y3.7695
X0.6644 Y3.768
X0.6414 Y3.7248
X0.634 Y3.6812
G3 X0.6426 Y3.6751 I0.0058 J-0.001
X0.5889 Y3.7735 Z-0.1461 I-0.0269 J0.0492 F20.
X0.6426 Y3.6751 Z-0.1523 I0.0269 J-0.0492
X0.5889 Y3.7735 Z-0.1584 I-0.0269 J0.0492
X0.5619 Y3.7396 Z-0.16 I0.0269 J-0.0492
X0.591 Y3.6873 I0.0408 J-0.0116
X0.6434 Y3.7164 I0.0116 J0.0408
X0.6387 Y3.7369 I-0.0209 J0.006 F40.
X0.6107 Y3.7361 I-0.0137 J-0.0122
X0.6518 Y2.7281 I0.6016 J-0.4803
X0.7822 Y2.6174 I0.5731 J0.5426
X0.8112 Y2.5988 I0.3815 J0.5629
X0.8378 Y2.6076 I0.0096 J0.0157
X0.8291 Y2.6342 I-0.0202 J0.0081
G2 X0.5116 Y3.4617 I0.3859 J0.6226
X0.6152 Y3.6763 I0.7053 J-0.2081
X0.6396 Y3.7089 I0.579 J-0.407
G1 X0.6412 Y3.7112
X0.6424 Y3.7137
X0.6434 Y3.7164
G2 X0.6657 Y3.7388 I0.0314 J-0.009
G3 X0.6739 Y3.7693 I-0.0052 J0.0178
X0.5745 Y3.7649 I-0.0477 J-0.0456
X0.7871 Y2.5594 I0.6377 J-0.5091
X0.8559 Y2.672 I0.0344 J0.0563
G2 X0.6777 Y3.6826 I0.3564 J0.5838
G3 X0.6739 Y3.7693 I-0.0516 J0.0412
G1 X0.6724 Y3.7705
X0.6706 Y3.7711
X0.6688
X0.667 Y3.7706
X0.6655 Y3.7695
X0.6644 Y3.768
X0.6414 Y3.7248
X0.634 Y3.6812
G3 X0.6426 Y3.6751 I0.0058 J-0.001
X0.5889 Y3.7735 Z-0.1661 I-0.0269 J0.0492 F20.
X0.6426 Y3.6751 Z-0.1723 I0.0269 J-0.0492
X0.5889 Y3.7735 Z-0.1784 I-0.0269 J0.0492
X0.5619 Y3.7396 Z-0.18 I0.0269 J-0.0492
X0.591 Y3.6873 I0.0408 J-0.0116
X0.6434 Y3.7164 I0.0116 J0.0408
X0.6387 Y3.7369 I-0.0209 J0.006 F40.
X0.6107 Y3.7361 I-0.0137 J-0.0122
X0.6518 Y2.7281 I0.6016 J-0.4803
X0.7822 Y2.6174 I0.5731 J0.5426
X0.8112 Y2.5988 I0.3815 J0.5629
X0.8378 Y2.6076 I0.0096 J0.0157
X0.8291 Y2.6342 I-0.0202 J0.0081
G2 X0.5116 Y3.4617 I0.3859 J0.6226
X0.6152 Y3.6763 I0.7053 J-0.2081
X0.6396 Y3.7089 I0.579 J-0.407
G1 X0.6412 Y3.7112
X0.6424 Y3.7137
X0.6434 Y3.7164
G2 X0.6657 Y3.7388 I0.0314 J-0.009
G3 X0.6739 Y3.7693 I-0.0052 J0.0178
X0.5745 Y3.7649 I-0.0477 J-0.0456
X0.7871 Y2.5594 I0.6377 J-0.5091
X0.8559 Y2.672 I0.0344 J0.0563
G2 X0.6777 Y3.6826 I0.3564 J0.5838
G3 X0.6739 Y3.7693 I-0.0516 J0.0412
G1 X0.6724 Y3.7705
X0.6706 Y3.7711
X0.6688
X0.667 Y3.7706
X0.6655 Y3.7695
X0.6644 Y3.768
X0.6414 Y3.7248
X0.634 Y3.6812
G3 X0.6426 Y3.6751 I0.0058 J-0.001
X0.5889 Y3.7735 Z-0.1861 I-0.0269 J0.0492 F20.
X0.6426 Y3.6751 Z-0.1923 I0.0269 J-0.0492
X0.5889 Y3.7735 Z-0.1984 I-0.0269 J0.0492
X0.5619 Y3.7396 Z-0.2 I0.0269 J-0.0492
X0.591 Y3.6873 I0.0408 J-0.0116
X0.6434 Y3.7164 I0.0116 J0.0408
X0.6387 Y3.7369 I-0.0209 J0.006 F40.
X0.6107 Y3.7361 I-0.0137 J-0.0122
X0.6518 Y2.7281 I0.6016 J-0.4803
X0.7822 Y2.6174 I0.5731 J0.5426
X0.8112 Y2.5988 I0.3815 J0.5629
X0.8378 Y2.6076 I0.0096 J0.0157
X0.8291 Y2.6342 I-0.0202 J0.0081
G2 X0.5116 Y3.4617 I0.3859 J0.6226
X0.6152 Y3.6763 I0.7053 J-0.2081
X0.6396 Y3.7089 I0.579 J-0.407
G1 X0.6412 Y3.7112
X0.6424 Y3.7137
X0.6434 Y3.7164
G2 X0.6657 Y3.7388 I0.0314 J-0.009
G3 X0.6739 Y3.7693 I-0.0052 J0.0178
X0.5745 Y3.7649 I-0.0477 J-0.0456
X0.7871 Y2.5594 I0.6377 J-0.5091
X0.8559 Y2.672 I0.0344 J0.0563
G2 X0.6777 Y3.6826 I0.3564 J0.5838
G3 X0.6739 Y3.7693 I-0.0516 J0.0412
G1 X0.6724 Y3.7705
X0.6706 Y3.7711
X0.6688
X0.667 Y3.7706
X0.6655 Y3.7695
X0.6644 Y3.768
X0.6414 Y3.7248
X0.634 Y3.6812
G3 X0.6426 Y3.6751 I0.0058 J-0.001
X0.5889 Y3.7735 Z-0.2061 I-0.0269 J0.0492 F20.
X0.6426 Y3.6751 Z-0.2123 I0.0269 J-0.0492
X0.5889 Y3.7735 Z-0.2184 I-0.0269 J0.0492
X0.5619 Y3.7396 Z-0.22 I0.0269 J-0.0492
X0.591 Y3.6873 I0.0408 J-0.0116
X0.6434 Y3.7164 I0.0116 J0.0408
X0.6387 Y3.7369 I-0.0209 J0.006 F40.
X0.6107 Y3.7361 I-0.0137 J-0.0122
X0.6518 Y2.7281 I0.6016 J-0.4803
X0.7822 Y2.6174 I0.5731 J0.5426
X0.8112 Y2.5988 I0.3815 J0.5629
X0.8378 Y2.6076 I0.0096 J0.0157
X0.8291 Y2.6342 I-0.0202 J0.0081
G2 X0.5116 Y3.4617 I0.3859 J0.6226
X0.6152 Y3.6763 I0.7053 J-0.2081
X0.6396 Y3.7089 I0.579 J-0.407
G1 X0.6412 Y3.7112
X0.6424 Y3.7137
X0.6434 Y3.7164
G2 X0.6657 Y3.7388 I0.0314 J-0.009
G3 X0.6739 Y3.7693 I-0.0052 J0.0178
X0.5745 Y3.7649 I-0.0477 J-0.0456
X0.7871 Y2.5594 I0.6377 J-0.5091
X0.8559 Y2.672 I0.0344 J0.0563
G2 X0.6777 Y3.6826 I0.3564 J0.5838
G3 X0.6739 Y3.7693 I-0.0516 J0.0412
G1 X0.6724 Y3.7705
X0.6706 Y3.7711
X0.6688
X0.667 Y3.7706
X0.6655 Y3.7695
X0.6644 Y3.768
X0.6414 Y3.7248
X0.634 Y3.6812
G3 X0.6426 Y3.6751 I0.0058 J-0.001
X0.5889 Y3.7735 Z-0.2261 I-0.0269 J0.0492 F20.
X0.6426 Y3.6751 Z-0.2323 I0.0269 J-0.0492
X0.5889 Y3.7735 Z-0.2384 I-0.0269 J0.0492
X0.5619 Y3.7396 Z-0.24 I0.0269 J-0.0492
X0.591 Y3.6873 I0.0408 J-0.0116
X0.6434 Y3.7164 I0.0116 J0.0408
X0.6387 Y3.7369 I-0.0209 J0.006 F40.
X0.6107 Y3.7361 I-0.0137 J-0.0122
X0.6518 Y2.7281 I0.6016 J-0.4803
X0.7822 Y2.6174 I0.5731 J0.5426
X0.8112 Y2.5988 I0.3815 J0.5629
X0.8378 Y2.6076 I0.0096 J0.0157
X0.8291 Y2.6342 I-0.0202 J0.0081
G2 X0.5116 Y3.4617 I0.3859 J0.6226
X0.6152 Y3.6763 I0.7053 J-0.2081
X0.6396 Y3.7089 I0.579 J-0.407
G1 X0.6412 Y3.7112
X0.6424 Y3.7137
X0.6434 Y3.7164
G2 X0.6657 Y3.7388 I0.0314 J-0.009
G3 X0.6739 Y3.7693 I-0.0052 J0.0178
X0.5745 Y3.7649 I-0.0477 J-0.0456
X0.7871 Y2.5594 I0.6377 J-0.5091
X0.8559 Y2.672 I0.0344 J0.0563
G2 X0.6777 Y3.6826 I0.3564 J0.5838
G3 X0.6739 Y3.7693 I-0.0516 J0.0412
G1 X0.6724 Y3.7705
X0.6706 Y3.7711
X0.6688
X0.667 Y3.7706
X0.6655 Y3.7695
X0.6644 Y3.768
X0.6414 Y3.7248
X0.634 Y3.6812
G3 X0.6426 Y3.6751 I0.0058 J-0.001
X0.5889 Y3.7735 Z-0.2461 I-0.0269 J0.0492 F20.
X0.6426 Y3.6751 Z-0.2523 I0.0269 J-0.0492
X0.5889 Y3.7735 Z-0.2584 I-0.0269 J0.0492
X0.5619 Y3.7396 Z-0.26 I0.0269 J-0.0492
X0.591 Y3.6873 I0.0408 J-0.0116
X0.6434 Y3.7164 I0.0116 J0.0408
X0.6387 Y3.7369 I-0.0209 J0.006 F40.
X0.6107 Y3.7361 I-0.0137 J-0.0122
X0.6518 Y2.7281 I0.6016 J-0.4803
X0.7822 Y2.6174 I0.5731 J0.5426
X0.8112 Y2.5988 I0.3815 J0.5629
X0.8378 Y2.6076 I0.0096 J0.0157
X0.8291 Y2.6342 I-0.0202 J0.0081
G2 X0.5116 Y3.4617 I0.3859 J0.6226
X0.6152 Y3.6763 I0.7053 J-0.2081
X0.6396 Y3.7089 I0.579 J-0.407
G1 X0.6412 Y3.7112
X0.6424 Y3.7137
X0.6434 Y3.7164
G2 X0.6657 Y3.7388 I0.0314 J-0.009
G3 X0.6739 Y3.7693 I-0.0052 J0.0178
X0.5745 Y3.7649 I-0.0477 J-0.0456
X0.7871 Y2.5594 I0.6377 J-0.5091
X0.8559 Y2.672 I0.0344 J0.0563
G2 X0.6777 Y3.6826 I0.3564 J0.5838
G3 X0.6739 Y3.7693 I-0.0516 J0.0412
G1 X0.6724 Y3.7705
X0.6706 Y3.7711
X0.6688
X0.667 Y3.7706
X0.6655 Y3.7695
X0.6644 Y3.768
X0.6414 Y3.7248
X0.634 Y3.6812
G3 X0.6426 Y3.6751 I0.0058 J-0.001
X0.5889 Y3.7735 Z-0.2661 I-0.0269 J0.0492 F20.
X0.6426 Y3.6751 Z-0.2723 I0.0269 J-0.0492
X0.5889 Y3.7735 Z-0.2784 I-0.0269 J0.0492
X0.5619 Y3.7396 Z-0.28 I0.0269 J-0.0492
X0.591 Y3.6873 I0.0408 J-0.0116
X0.6434 Y3.7164 I0.0116 J0.0408
X0.6387 Y3.7369 I-0.0209 J0.006 F40.
X0.6107 Y3.7361 I-0.0137 J-0.0122
X0.6518 Y2.7281 I0.6016 J-0.4803
X0.7822 Y2.6174 I0.5731 J0.5426
X0.8112 Y2.5988 I0.3815 J0.5629
X0.8378 Y2.6076 I0.0096 J0.0157
X0.8291 Y2.6342 I-0.0202 J0.0081
G2 X0.5116 Y3.4617 I0.3859 J0.6226
X0.6152 Y3.6763 I0.7053 J-0.2081
X0.6396 Y3.7089 I0.579 J-0.407
G1 X0.6412 Y3.7112
X0.6424 Y3.7137
X0.6434 Y3.7164
G2 X0.6657 Y3.7388 I0.0314 J-0.009
G3 X0.6739 Y3.7693 I-0.0052 J0.0178
X0.5745 Y3.7649 I-0.0477 J-0.0456
X0.7871 Y2.5594 I0.6377 J-0.5091
X0.8559 Y2.672 I0.0344 J0.0563
G2 X0.6777 Y3.6826 I0.3564 J0.5838
G3 X0.6739 Y3.7693 I-0.0516 J0.0412
G1 X0.6724 Y3.7705
X0.6706 Y3.7711
X0.6688
X0.667 Y3.7706
X0.6655 Y3.7695
X0.6644 Y3.768
X0.6414 Y3.7248
X0.634 Y3.6812
G3 X0.6426 Y3.6751 I0.0058 J-0.001
X0.5889 Y3.7735 Z-0.2861 I-0.0269 J0.0492 F20.
X0.6426 Y3.6751 Z-0.2923 I0.0269 J-0.0492
X0.5889 Y3.7735 Z-0.2984 I-0.0269 J0.0492
X0.5619 Y3.7396 Z-0.3 I0.0269 J-0.0492
X0.591 Y3.6873 I0.0408 J-0.0116
X0.6434 Y3.7164 I0.0116 J0.0408
X0.6387 Y3.7369 I-0.0209 J0.006 F40.
X0.6107 Y3.7361 I-0.0137 J-0.0122
X0.6518 Y2.7281 I0.6016 J-0.4803
X0.7822 Y2.6174 I0.5731 J0.5426
X0.8112 Y2.5988 I0.3815 J0.5629
X0.8378 Y2.6076 I0.0096 J0.0157
X0.8291 Y2.6342 I-0.0202 J0.0081
G2 X0.5116 Y3.4617 I0.3859 J0.6226
X0.6152 Y3.6763 I0.7053 J-0.2081
X0.6396 Y3.7089 I0.579 J-0.407
G1 X0.6412 Y3.7112
X0.6424 Y3.7137
X0.6434 Y3.7164
G2 X0.6657 Y3.7388 I0.0314 J-0.009
G3 X0.6739 Y3.7693 I-0.0052 J0.0178
X0.5745 Y3.7649 I-0.0477 J-0.0456
X0.7871 Y2.5594 I0.6377 J-0.5091
X0.8559 Y2.672 I0.0344 J0.0563
G2 X0.6777 Y3.6826 I0.3564 J0.5838
G3 X0.6739 Y3.7693 I-0.0516 J0.0412
G1 X0.6722 Y3.7708 Z-0.2996
X0.6702 Y3.7719 Z-0.2991
X0.6684 Y3.7726 Z-0.2978
X0.6665 Y3.7729 Z-0.2965
X0.664 Z-0.2927
X0.6631 Y3.7728 Z-0.2882
G0 Z0.64

M9
M30
