(20.01.01.01.03)
(T1  D=6.35 CR=0. - ZMIN=-5.175 - FLAT END MILL)
G90 G94 G91.1 G40 G49 G17
G21
(HOLE 1)
G0 Z15

(BORE1)
M5
T1 M6
S16000 M3
G54
G0 X133.173 Y15.994
G43 Z20. H1
Z2.365
G1 Z1. F800.
Y15.677
G2 X132.975 Y15.478 I-0.198 J0.
Y16.272 Z0.938 I0. J0.397
Y15.478 Z0.875 I0. J-0.397
Y16.272 Z0.813 I0. J0.397
Y15.478 Z0.751 I0. J-0.397
Y16.272 Z0.688 I0. J0.397
Y15.478 Z0.626 I0. J-0.397
Y16.272 Z0.564 I0. J0.397
Y15.478 Z0.501 I0. J-0.397
Y16.272 Z0.439 I0. J0.397
Y15.478 Z0.377 I0. J-0.397
Y16.272 Z0.314 I0. J0.397
Y15.478 Z0.252 I0. J-0.397
Y16.272 Z0.189 I0. J0.397
Y15.478 Z0.127 I0. J-0.397
Y16.272 Z0.065 I0. J0.397
Y15.478 Z0.002 I0. J-0.397
Y16.272 Z-0.06 I0. J0.397
Y15.478 Z-0.122 I0. J-0.397
Y16.272 Z-0.185 I0. J0.397
Y15.478 Z-0.247 I0. J-0.397
Y16.272 Z-0.309 I0. J0.397
Y15.478 Z-0.372 I0. J-0.397
Y16.272 Z-0.434 I0. J0.397
Y15.478 Z-0.496 I0. J-0.397
Y16.272 Z-0.559 I0. J0.397
Y15.478 Z-0.621 I0. J-0.397
Y16.272 Z-0.683 I0. J0.397
Y15.478 Z-0.746 I0. J-0.397
Y16.272 Z-0.808 I0. J0.397
Y15.478 Z-0.87 I0. J-0.397
Y16.272 Z-0.933 I0. J0.397
Y15.478 Z-0.995 I0. J-0.397
Y16.272 Z-1.057 I0. J0.397
Y15.478 Z-1.12 I0. J-0.397
Y16.272 Z-1.182 I0. J0.397
Y15.478 Z-1.245 I0. J-0.397
Y16.272 Z-1.307 I0. J0.397
Y15.478 Z-1.369 I0. J-0.397
Y16.272 Z-1.432 I0. J0.397
Y15.478 Z-1.494 I0. J-0.397
Y16.272 Z-1.556 I0. J0.397
Y15.478 Z-1.619 I0. J-0.397
Y16.272 Z-1.681 I0. J0.397
Y15.478 Z-1.743 I0. J-0.397
Y16.272 Z-1.806 I0. J0.397
Y15.478 Z-1.868 I0. J-0.397
Y16.272 Z-1.93 I0. J0.397
Y15.478 Z-1.993 I0. J-0.397
Y16.272 Z-2.055 I0. J0.397
Y15.478 Z-2.117 I0. J-0.397
Y16.272 Z-2.18 I0. J0.397
Y15.478 Z-2.242 I0. J-0.397
Y16.272 Z-2.304 I0. J0.397
Y15.478 Z-2.367 I0. J-0.397
Y16.272 Z-2.429 I0. J0.397
Y15.478 Z-2.491 I0. J-0.397
Y16.272 Z-2.554 I0. J0.397
Y15.478 Z-2.616 I0. J-0.397
Y16.272 Z-2.678 I0. J0.397
Y15.478 Z-2.741 I0. J-0.397
Y16.272 Z-2.803 I0. J0.397
Y15.478 Z-2.866 I0. J-0.397
Y16.272 Z-2.928 I0. J0.397
Y15.478 Z-2.99 I0. J-0.397
Y16.272 Z-3.053 I0. J0.397
Y15.478 Z-3.115 I0. J-0.397
Y16.272 Z-3.177 I0. J0.397
Y15.478 Z-3.24 I0. J-0.397
Y16.272 Z-3.302 I0. J0.397
Y15.478 Z-3.364 I0. J-0.397
Y16.272 Z-3.427 I0. J0.397
Y15.478 Z-3.489 I0. J-0.397
Y16.272 Z-3.551 I0. J0.397
Y15.478 Z-3.614 I0. J-0.397
Y16.272 Z-3.676 I0. J0.397
Y15.478 Z-3.738 I0. J-0.397
Y16.272 Z-3.801 I0. J0.397
Y15.478 Z-3.863 I0. J-0.397
Y16.272 Z-3.925 I0. J0.397
Y15.478 Z-3.988 I0. J-0.397
Y16.272 Z-4.05 I0. J0.397
Y15.478 Z-4.112 I0. J-0.397
Y16.272 Z-4.175 I0. J0.397
Y15.478 Z-4.237 I0. J-0.397
Y16.272 Z-4.3 I0. J0.397
Y15.478 Z-4.362 I0. J-0.397
Y16.272 Z-4.424 I0. J0.397
Y15.478 Z-4.487 I0. J-0.397
Y16.272 Z-4.549 I0. J0.397
Y15.478 Z-4.611 I0. J-0.397
Y16.272 Z-4.674 I0. J0.397
Y15.478 Z-4.736 I0. J-0.397
Y16.272 Z-4.798 I0. J0.397
Y15.478 Z-4.861 I0. J-0.397
Y16.272 Z-4.923 I0. J0.397
Y15.478 Z-4.985 I0. J-0.397
Y16.272 Z-5.048 I0. J0.397
Y15.478 Z-5.11 I0. J-0.397
X132.579 Y15.901 Z-5.143 I0. J0.397
X133.027 Y16.268 Z-5.175 I0.396 J-0.026
X132.923 Y15.482 I-0.052 J-0.393
X133.027 Y16.268 I0.052 J0.393
X133.198 Y16.046 I-0.026 J-0.197
G1 X133.156 Y15.731
G0 Z5.
X133.173 Y38.219
Z2.365
G1 Z1. F800.
Y37.902
G2 X132.975 Y37.703 I-0.198 J0.
Y38.497 Z0.938 I0. J0.397
Y37.703 Z0.875 I0. J-0.397
Y38.497 Z0.813 I0. J0.397
Y37.703 Z0.751 I0. J-0.397
Y38.497 Z0.688 I0. J0.397
Y37.703 Z0.626 I0. J-0.397
Y38.497 Z0.564 I0. J0.397
Y37.703 Z0.501 I0. J-0.397
Y38.497 Z0.439 I0. J0.397
Y37.703 Z0.377 I0. J-0.397
Y38.497 Z0.314 I0. J0.397
Y37.703 Z0.252 I0. J-0.397
Y38.497 Z0.189 I0. J0.397
Y37.703 Z0.127 I0. J-0.397
Y38.497 Z0.065 I0. J0.397
Y37.703 Z0.002 I0. J-0.397
Y38.497 Z-0.06 I0. J0.397
Y37.703 Z-0.122 I0. J-0.397
Y38.497 Z-0.185 I0. J0.397
Y37.703 Z-0.247 I0. J-0.397
Y38.497 Z-0.309 I0. J0.397
Y37.703 Z-0.372 I0. J-0.397
Y38.497 Z-0.434 I0. J0.397
Y37.703 Z-0.496 I0. J-0.397
Y38.497 Z-0.559 I0. J0.397
Y37.703 Z-0.621 I0. J-0.397
Y38.497 Z-0.683 I0. J0.397
Y37.703 Z-0.746 I0. J-0.397
Y38.497 Z-0.808 I0. J0.397
Y37.703 Z-0.87 I0. J-0.397
Y38.497 Z-0.933 I0. J0.397
Y37.703 Z-0.995 I0. J-0.397
Y38.497 Z-1.057 I0. J0.397
Y37.703 Z-1.12 I0. J-0.397
Y38.497 Z-1.182 I0. J0.397
Y37.703 Z-1.245 I0. J-0.397
Y38.497 Z-1.307 I0. J0.397
Y37.703 Z-1.369 I0. J-0.397
Y38.497 Z-1.432 I0. J0.397
Y37.703 Z-1.494 I0. J-0.397
Y38.497 Z-1.556 I0. J0.397
Y37.703 Z-1.619 I0. J-0.397
Y38.497 Z-1.681 I0. J0.397
Y37.703 Z-1.743 I0. J-0.397
Y38.497 Z-1.806 I0. J0.397
Y37.703 Z-1.868 I0. J-0.397
Y38.497 Z-1.93 I0. J0.397
Y37.703 Z-1.993 I0. J-0.397
Y38.497 Z-2.055 I0. J0.397
Y37.703 Z-2.117 I0. J-0.397
Y38.497 Z-2.18 I0. J0.397
Y37.703 Z-2.242 I0. J-0.397
Y38.497 Z-2.304 I0. J0.397
Y37.703 Z-2.367 I0. J-0.397
Y38.497 Z-2.429 I0. J0.397
Y37.703 Z-2.491 I0. J-0.397
Y38.497 Z-2.554 I0. J0.397
Y37.703 Z-2.616 I0. J-0.397
Y38.497 Z-2.678 I0. J0.397
Y37.703 Z-2.741 I0. J-0.397
Y38.497 Z-2.803 I0. J0.397
Y37.703 Z-2.866 I0. J-0.397
Y38.497 Z-2.928 I0. J0.397
Y37.703 Z-2.99 I0. J-0.397
Y38.497 Z-3.053 I0. J0.397
Y37.703 Z-3.115 I0. J-0.397
Y38.497 Z-3.177 I0. J0.397
Y37.703 Z-3.24 I0. J-0.397
Y38.497 Z-3.302 I0. J0.397
Y37.703 Z-3.364 I0. J-0.397
Y38.497 Z-3.427 I0. J0.397
Y37.703 Z-3.489 I0. J-0.397
Y38.497 Z-3.551 I0. J0.397
Y37.703 Z-3.614 I0. J-0.397
Y38.497 Z-3.676 I0. J0.397
Y37.703 Z-3.738 I0. J-0.397
Y38.497 Z-3.801 I0. J0.397
Y37.703 Z-3.863 I0. J-0.397
Y38.497 Z-3.925 I0. J0.397
Y37.703 Z-3.988 I0. J-0.397
Y38.497 Z-4.05 I0. J0.397
Y37.703 Z-4.112 I0. J-0.397
Y38.497 Z-4.175 I0. J0.397
Y37.703 Z-4.237 I0. J-0.397
Y38.497 Z-4.3 I0. J0.397
Y37.703 Z-4.362 I0. J-0.397
Y38.497 Z-4.424 I0. J0.397
Y37.703 Z-4.487 I0. J-0.397
Y38.497 Z-4.549 I0. J0.397
Y37.703 Z-4.611 I0. J-0.397
Y38.497 Z-4.674 I0. J0.397
Y37.703 Z-4.736 I0. J-0.397
Y38.497 Z-4.798 I0. J0.397
Y37.703 Z-4.861 I0. J-0.397
Y38.497 Z-4.923 I0. J0.397
Y37.703 Z-4.985 I0. J-0.397
Y38.497 Z-5.048 I0. J0.397
Y37.703 Z-5.11 I0. J-0.397
X132.579 Y38.126 Z-5.143 I0. J0.397
X133.027 Y38.493 Z-5.175 I0.396 J-0.026
X132.923 Y37.707 I-0.052 J-0.393
X133.027 Y38.493 I0.052 J0.393
X133.198 Y38.271 I-0.026 J-0.197
G1 X133.156 Y37.956
G0 Z20.
M5
G0 Z15
G0 X0 Y0

M30
