(20.01.01.01.03)
(T1  D=3.175 CR=0. - ZMIN=-5.175 - FLAT END MILL)
G90 G94 G91.1 G40 G49 G17
G21
(HOLE 1)
G0 Z15

(BORE1)
M5
T1 M6
S16000 M3
G54
M8
G0 X133.292 Y14.684
G43 Z20. H1
Z3.
G1 Z1.317 F400.
G19 G2 Y14.367 Z1. J-0.318 K0.
G1 Y14.208
G17 G2 X132.975 Y13.891 I-0.317 J0.
Y17.859 Z0.938 I0. J1.984
Y13.891 Z0.875 I0. J-1.984
Y17.859 Z0.813 I0. J1.984
Y13.891 Z0.751 I0. J-1.984
Y17.859 Z0.688 I0. J1.984
Y13.891 Z0.626 I0. J-1.984
Y17.859 Z0.564 I0. J1.984
Y13.891 Z0.501 I0. J-1.984
Y17.859 Z0.439 I0. J1.984
Y13.891 Z0.377 I0. J-1.984
Y17.859 Z0.314 I0. J1.984
Y13.891 Z0.252 I0. J-1.984
Y17.859 Z0.189 I0. J1.984
Y13.891 Z0.127 I0. J-1.984
Y17.859 Z0.065 I0. J1.984
Y13.891 Z0.002 I0. J-1.984
Y17.859 Z-0.06 I0. J1.984
Y13.891 Z-0.122 I0. J-1.984
Y17.859 Z-0.185 I0. J1.984
Y13.891 Z-0.247 I0. J-1.984
Y17.859 Z-0.309 I0. J1.984
Y13.891 Z-0.372 I0. J-1.984
Y17.859 Z-0.434 I0. J1.984
Y13.891 Z-0.496 I0. J-1.984
Y17.859 Z-0.559 I0. J1.984
Y13.891 Z-0.621 I0. J-1.984
Y17.859 Z-0.683 I0. J1.984
Y13.891 Z-0.746 I0. J-1.984
Y17.859 Z-0.808 I0. J1.984
Y13.891 Z-0.87 I0. J-1.984
Y17.859 Z-0.933 I0. J1.984
Y13.891 Z-0.995 I0. J-1.984
Y17.859 Z-1.057 I0. J1.984
Y13.891 Z-1.12 I0. J-1.984
Y17.859 Z-1.182 I0. J1.984
Y13.891 Z-1.245 I0. J-1.984
Y17.859 Z-1.307 I0. J1.984
Y13.891 Z-1.369 I0. J-1.984
Y17.859 Z-1.432 I0. J1.984
Y13.891 Z-1.494 I0. J-1.984
Y17.859 Z-1.556 I0. J1.984
Y13.891 Z-1.619 I0. J-1.984
Y17.859 Z-1.681 I0. J1.984
Y13.891 Z-1.743 I0. J-1.984
Y17.859 Z-1.806 I0. J1.984
Y13.891 Z-1.868 I0. J-1.984
Y17.859 Z-1.93 I0. J1.984
Y13.891 Z-1.993 I0. J-1.984
Y17.859 Z-2.055 I0. J1.984
Y13.891 Z-2.117 I0. J-1.984
Y17.859 Z-2.18 I0. J1.984
Y13.891 Z-2.242 I0. J-1.984
Y17.859 Z-2.304 I0. J1.984
Y13.891 Z-2.367 I0. J-1.984
Y17.859 Z-2.429 I0. J1.984
Y13.891 Z-2.491 I0. J-1.984
Y17.859 Z-2.554 I0. J1.984
Y13.891 Z-2.616 I0. J-1.984
Y17.859 Z-2.678 I0. J1.984
Y13.891 Z-2.741 I0. J-1.984
Y17.859 Z-2.803 I0. J1.984
Y13.891 Z-2.866 I0. J-1.984
Y17.859 Z-2.928 I0. J1.984
Y13.891 Z-2.99 I0. J-1.984
Y17.859 Z-3.053 I0. J1.984
Y13.891 Z-3.115 I0. J-1.984
Y17.859 Z-3.177 I0. J1.984
Y13.891 Z-3.24 I0. J-1.984
Y17.859 Z-3.302 I0. J1.984
Y13.891 Z-3.364 I0. J-1.984
Y17.859 Z-3.427 I0. J1.984
Y13.891 Z-3.489 I0. J-1.984
Y17.859 Z-3.551 I0. J1.984
Y13.891 Z-3.614 I0. J-1.984
Y17.859 Z-3.676 I0. J1.984
Y13.891 Z-3.738 I0. J-1.984
Y17.859 Z-3.801 I0. J1.984
Y13.891 Z-3.863 I0. J-1.984
Y17.859 Z-3.925 I0. J1.984
Y13.891 Z-3.988 I0. J-1.984
Y17.859 Z-4.05 I0. J1.984
Y13.891 Z-4.112 I0. J-1.984
Y17.859 Z-4.175 I0. J1.984
Y13.891 Z-4.237 I0. J-1.984
Y17.859 Z-4.3 I0. J1.984
Y13.891 Z-4.362 I0. J-1.984
Y17.859 Z-4.424 I0. J1.984
Y13.891 Z-4.487 I0. J-1.984
Y17.859 Z-4.549 I0. J1.984
Y13.891 Z-4.611 I0. J-1.984
Y17.859 Z-4.674 I0. J1.984
Y13.891 Z-4.736 I0. J-1.984
Y17.859 Z-4.798 I0. J1.984
Y13.891 Z-4.861 I0. J-1.984
Y17.859 Z-4.923 I0. J1.984
Y13.891 Z-4.985 I0. J-1.984
Y17.859 Z-5.048 I0. J1.984
Y13.891 Z-5.11 I0. J-1.984
X130.995 Y16.006 Z-5.143 I0. J1.984
X133.236 Y17.842 Z-5.175 I1.98 J-0.131
X132.714 Y13.908 I-0.261 J-1.967
X133.236 Y17.842 I0.261 J1.967
X133.509 Y17.486 I-0.042 J-0.315
G1 X133.488 Y17.328
X133.479 Y17.258 Z-5.167
X133.47 Y17.192 Z-5.144
X133.462 Y17.132 Z-5.106
X133.455 Y17.082 Z-5.055
X133.45 Y17.045 Z-4.995
X133.447 Y17.021 Z-4.928
X133.446 Y17.014 Z-4.858
G0 Z5.
X133.292 Y36.909
Z3.
G1 Z1.317 F400.
G19 G2 Y36.592 Z1. J-0.318 K0.
G1 Y36.433
G17 G2 X132.975 Y36.116 I-0.317 J0.
Y40.084 Z0.938 I0. J1.984
Y36.116 Z0.875 I0. J-1.984
Y40.084 Z0.813 I0. J1.984
Y36.116 Z0.751 I0. J-1.984
Y40.084 Z0.688 I0. J1.984
Y36.116 Z0.626 I0. J-1.984
Y40.084 Z0.564 I0. J1.984
Y36.116 Z0.501 I0. J-1.984
Y40.084 Z0.439 I0. J1.984
Y36.116 Z0.377 I0. J-1.984
Y40.084 Z0.314 I0. J1.984
Y36.116 Z0.252 I0. J-1.984
Y40.084 Z0.189 I0. J1.984
Y36.116 Z0.127 I0. J-1.984
Y40.084 Z0.065 I0. J1.984
Y36.116 Z0.002 I0. J-1.984
Y40.084 Z-0.06 I0. J1.984
Y36.116 Z-0.122 I0. J-1.984
Y40.084 Z-0.185 I0. J1.984
Y36.116 Z-0.247 I0. J-1.984
Y40.084 Z-0.309 I0. J1.984
Y36.116 Z-0.372 I0. J-1.984
Y40.084 Z-0.434 I0. J1.984
Y36.116 Z-0.496 I0. J-1.984
Y40.084 Z-0.559 I0. J1.984
Y36.116 Z-0.621 I0. J-1.984
Y40.084 Z-0.683 I0. J1.984
Y36.116 Z-0.746 I0. J-1.984
Y40.084 Z-0.808 I0. J1.984
Y36.116 Z-0.87 I0. J-1.984
Y40.084 Z-0.933 I0. J1.984
Y36.116 Z-0.995 I0. J-1.984
Y40.084 Z-1.057 I0. J1.984
Y36.116 Z-1.12 I0. J-1.984
Y40.084 Z-1.182 I0. J1.984
Y36.116 Z-1.245 I0. J-1.984
Y40.084 Z-1.307 I0. J1.984
Y36.116 Z-1.369 I0. J-1.984
Y40.084 Z-1.432 I0. J1.984
Y36.116 Z-1.494 I0. J-1.984
Y40.084 Z-1.556 I0. J1.984
Y36.116 Z-1.619 I0. J-1.984
Y40.084 Z-1.681 I0. J1.984
Y36.116 Z-1.743 I0. J-1.984
Y40.084 Z-1.806 I0. J1.984
Y36.116 Z-1.868 I0. J-1.984
Y40.084 Z-1.93 I0. J1.984
Y36.116 Z-1.993 I0. J-1.984
Y40.084 Z-2.055 I0. J1.984
Y36.116 Z-2.117 I0. J-1.984
Y40.084 Z-2.18 I0. J1.984
Y36.116 Z-2.242 I0. J-1.984
Y40.084 Z-2.304 I0. J1.984
Y36.116 Z-2.367 I0. J-1.984
Y40.084 Z-2.429 I0. J1.984
Y36.116 Z-2.491 I0. J-1.984
Y40.084 Z-2.554 I0. J1.984
Y36.116 Z-2.616 I0. J-1.984
Y40.084 Z-2.678 I0. J1.984
Y36.116 Z-2.741 I0. J-1.984
Y40.084 Z-2.803 I0. J1.984
Y36.116 Z-2.866 I0. J-1.984
Y40.084 Z-2.928 I0. J1.984
Y36.116 Z-2.99 I0. J-1.984
Y40.084 Z-3.053 I0. J1.984
Y36.116 Z-3.115 I0. J-1.984
Y40.084 Z-3.177 I0. J1.984
Y36.116 Z-3.24 I0. J-1.984
Y40.084 Z-3.302 I0. J1.984
Y36.116 Z-3.364 I0. J-1.984
Y40.084 Z-3.427 I0. J1.984
Y36.116 Z-3.489 I0. J-1.984
Y40.084 Z-3.551 I0. J1.984
Y36.116 Z-3.614 I0. J-1.984
Y40.084 Z-3.676 I0. J1.984
Y36.116 Z-3.738 I0. J-1.984
Y40.084 Z-3.801 I0. J1.984
Y36.116 Z-3.863 I0. J-1.984
Y40.084 Z-3.925 I0. J1.984
Y36.116 Z-3.988 I0. J-1.984
Y40.084 Z-4.05 I0. J1.984
Y36.116 Z-4.112 I0. J-1.984
Y40.084 Z-4.175 I0. J1.984
Y36.116 Z-4.237 I0. J-1.984
Y40.084 Z-4.3 I0. J1.984
Y36.116 Z-4.362 I0. J-1.984
Y40.084 Z-4.424 I0. J1.984
Y36.116 Z-4.487 I0. J-1.984
Y40.084 Z-4.549 I0. J1.984
Y36.116 Z-4.611 I0. J-1.984
Y40.084 Z-4.674 I0. J1.984
Y36.116 Z-4.736 I0. J-1.984
Y40.084 Z-4.798 I0. J1.984
Y36.116 Z-4.861 I0. J-1.984
Y40.084 Z-4.923 I0. J1.984
Y36.116 Z-4.985 I0. J-1.984
Y40.084 Z-5.048 I0. J1.984
Y36.116 Z-5.11 I0. J-1.984
X130.995 Y38.231 Z-5.143 I0. J1.984
X133.236 Y40.067 Z-5.175 I1.98 J-0.131
X132.714 Y36.133 I-0.261 J-1.967
X133.236 Y40.067 I0.261 J1.967
X133.509 Y39.711 I-0.042 J-0.315
G1 X133.488 Y39.553
X133.479 Y39.483 Z-5.167
X133.47 Y39.417 Z-5.144
X133.462 Y39.357 Z-5.106
X133.455 Y39.307 Z-5.055
X133.45 Y39.27 Z-4.995
X133.447 Y39.246 Z-4.928
X133.446 Y39.239 Z-4.858
G0 Z20.
M5
G0 Z15
G0 X0 Y0

M9
M30
