(1001)
(T1  D=6.35 CR=0. - ZMIN=-5.175 - FLAT END MILL)
G90 G94 G91.1 G40 G49 G17
G21
G0 Z15

(BORE1 2)
M5
T1 M6
S15000 M3
G54
M8
G0 X12.898 Y98.544
G43 Z15. H1
Z3.865
G1 Z2.5 F1600.
Y98.227
G2 X12.7 Y98.028 I-0.198 J0.
Y98.822 Z2.438 I0. J0.397
Y98.028 Z2.375 I0. J-0.397
Y98.822 Z2.313 I0. J0.397
Y98.028 Z2.251 I0. J-0.397
Y98.822 Z2.188 I0. J0.397
Y98.028 Z2.126 I0. J-0.397
Y98.822 Z2.064 I0. J0.397
Y98.028 Z2.001 I0. J-0.397
Y98.822 Z1.939 I0. J0.397
Y98.028 Z1.877 I0. J-0.397
Y98.822 Z1.814 I0. J0.397
Y98.028 Z1.752 I0. J-0.397
Y98.822 Z1.689 I0. J0.397
Y98.028 Z1.627 I0. J-0.397
Y98.822 Z1.565 I0. J0.397
Y98.028 Z1.502 I0. J-0.397
Y98.822 Z1.44 I0. J0.397
Y98.028 Z1.378 I0. J-0.397
Y98.822 Z1.315 I0. J0.397
Y98.028 Z1.253 I0. J-0.397
Y98.822 Z1.191 I0. J0.397
Y98.028 Z1.128 I0. J-0.397
Y98.822 Z1.066 I0. J0.397
Y98.028 Z1.004 I0. J-0.397
Y98.822 Z0.941 I0. J0.397
Y98.028 Z0.879 I0. J-0.397
Y98.822 Z0.817 I0. J0.397
Y98.028 Z0.754 I0. J-0.397
Y98.822 Z0.692 I0. J0.397
Y98.028 Z0.63 I0. J-0.397
Y98.822 Z0.567 I0. J0.397
Y98.028 Z0.505 I0. J-0.397
Y98.822 Z0.443 I0. J0.397
Y98.028 Z0.38 I0. J-0.397
Y98.822 Z0.318 I0. J0.397
Y98.028 Z0.255 I0. J-0.397
Y98.822 Z0.193 I0. J0.397
Y98.028 Z0.131 I0. J-0.397
Y98.822 Z0.068 I0. J0.397
Y98.028 Z0.006 I0. J-0.397
Y98.822 Z-0.056 I0. J0.397
Y98.028 Z-0.119 I0. J-0.397
Y98.822 Z-0.181 I0. J0.397
Y98.028 Z-0.243 I0. J-0.397
Y98.822 Z-0.306 I0. J0.397
Y98.028 Z-0.368 I0. J-0.397
Y98.822 Z-0.43 I0. J0.397
Y98.028 Z-0.493 I0. J-0.397
Y98.822 Z-0.555 I0. J0.397
Y98.028 Z-0.617 I0. J-0.397
Y98.822 Z-0.68 I0. J0.397
Y98.028 Z-0.742 I0. J-0.397
Y98.822 Z-0.804 I0. J0.397
Y98.028 Z-0.867 I0. J-0.397
Y98.822 Z-0.929 I0. J0.397
Y98.028 Z-0.991 I0. J-0.397
Y98.822 Z-1.054 I0. J0.397
Y98.028 Z-1.116 I0. J-0.397
Y98.822 Z-1.178 I0. J0.397
Y98.028 Z-1.241 I0. J-0.397
Y98.822 Z-1.303 I0. J0.397
Y98.028 Z-1.366 I0. J-0.397
Y98.822 Z-1.428 I0. J0.397
Y98.028 Z-1.49 I0. J-0.397
Y98.822 Z-1.553 I0. J0.397
Y98.028 Z-1.615 I0. J-0.397
Y98.822 Z-1.677 I0. J0.397
Y98.028 Z-1.74 I0. J-0.397
Y98.822 Z-1.802 I0. J0.397
Y98.028 Z-1.864 I0. J-0.397
Y98.822 Z-1.927 I0. J0.397
Y98.028 Z-1.989 I0. J-0.397
Y98.822 Z-2.051 I0. J0.397
Y98.028 Z-2.114 I0. J-0.397
Y98.822 Z-2.176 I0. J0.397
Y98.028 Z-2.238 I0. J-0.397
Y98.822 Z-2.301 I0. J0.397
Y98.028 Z-2.363 I0. J-0.397
Y98.822 Z-2.425 I0. J0.397
Y98.028 Z-2.488 I0. J-0.397
Y98.822 Z-2.55 I0. J0.397
Y98.028 Z-2.612 I0. J-0.397
Y98.822 Z-2.675 I0. J0.397
Y98.028 Z-2.737 I0. J-0.397
Y98.822 Z-2.8 I0. J0.397
Y98.028 Z-2.862 I0. J-0.397
Y98.822 Z-2.924 I0. J0.397
Y98.028 Z-2.987 I0. J-0.397
Y98.822 Z-3.049 I0. J0.397
Y98.028 Z-3.111 I0. J-0.397
Y98.822 Z-3.174 I0. J0.397
Y98.028 Z-3.236 I0. J-0.397
Y98.822 Z-3.298 I0. J0.397
Y98.028 Z-3.361 I0. J-0.397
Y98.822 Z-3.423 I0. J0.397
Y98.028 Z-3.485 I0. J-0.397
Y98.822 Z-3.548 I0. J0.397
Y98.028 Z-3.61 I0. J-0.397
Y98.822 Z-3.672 I0. J0.397
Y98.028 Z-3.735 I0. J-0.397
Y98.822 Z-3.797 I0. J0.397
Y98.028 Z-3.859 I0. J-0.397
Y98.822 Z-3.922 I0. J0.397
Y98.028 Z-3.984 I0. J-0.397
Y98.822 Z-4.046 I0. J0.397
Y98.028 Z-4.109 I0. J-0.397
Y98.822 Z-4.171 I0. J0.397
Y98.028 Z-4.234 I0. J-0.397
Y98.822 Z-4.296 I0. J0.397
Y98.028 Z-4.358 I0. J-0.397
Y98.822 Z-4.421 I0. J0.397
Y98.028 Z-4.483 I0. J-0.397
Y98.822 Z-4.545 I0. J0.397
Y98.028 Z-4.608 I0. J-0.397
Y98.822 Z-4.67 I0. J0.397
Y98.028 Z-4.732 I0. J-0.397
Y98.822 Z-4.795 I0. J0.397
Y98.028 Z-4.857 I0. J-0.397
Y98.822 Z-4.919 I0. J0.397
Y98.028 Z-4.982 I0. J-0.397
Y98.822 Z-5.044 I0. J0.397
Y98.028 Z-5.106 I0. J-0.397
Y98.822 Z-5.169 I0. J0.397
X12.824 Y98.802 Z-5.175 I0. J-0.397
X12.576 Y98.048 I-0.124 J-0.377
X12.824 Y98.802 I0.124 J0.377
X12.95 Y98.552 I-0.062 J-0.189
G1 X12.852 Y98.25
G0 Z5.
X12.898 Y120.769
Z3.865
G1 Z2.5 F1600.
Y120.452
G2 X12.7 Y120.253 I-0.198 J0.
Y121.047 Z2.438 I0. J0.397
Y120.253 Z2.375 I0. J-0.397
Y121.047 Z2.313 I0. J0.397
Y120.253 Z2.251 I0. J-0.397
Y121.047 Z2.188 I0. J0.397
Y120.253 Z2.126 I0. J-0.397
Y121.047 Z2.064 I0. J0.397
Y120.253 Z2.001 I0. J-0.397
Y121.047 Z1.939 I0. J0.397
Y120.253 Z1.877 I0. J-0.397
Y121.047 Z1.814 I0. J0.397
Y120.253 Z1.752 I0. J-0.397
Y121.047 Z1.689 I0. J0.397
Y120.253 Z1.627 I0. J-0.397
Y121.047 Z1.565 I0. J0.397
Y120.253 Z1.502 I0. J-0.397
Y121.047 Z1.44 I0. J0.397
Y120.253 Z1.378 I0. J-0.397
Y121.047 Z1.315 I0. J0.397
Y120.253 Z1.253 I0. J-0.397
Y121.047 Z1.191 I0. J0.397
Y120.253 Z1.128 I0. J-0.397
Y121.047 Z1.066 I0. J0.397
Y120.253 Z1.004 I0. J-0.397
Y121.047 Z0.941 I0. J0.397
Y120.253 Z0.879 I0. J-0.397
Y121.047 Z0.817 I0. J0.397
Y120.253 Z0.754 I0. J-0.397
Y121.047 Z0.692 I0. J0.397
Y120.253 Z0.63 I0. J-0.397
Y121.047 Z0.567 I0. J0.397
Y120.253 Z0.505 I0. J-0.397
Y121.047 Z0.443 I0. J0.397
Y120.253 Z0.38 I0. J-0.397
Y121.047 Z0.318 I0. J0.397
Y120.253 Z0.255 I0. J-0.397
Y121.047 Z0.193 I0. J0.397
Y120.253 Z0.131 I0. J-0.397
Y121.047 Z0.068 I0. J0.397
Y120.253 Z0.006 I0. J-0.397
Y121.047 Z-0.056 I0. J0.397
Y120.253 Z-0.119 I0. J-0.397
Y121.047 Z-0.181 I0. J0.397
Y120.253 Z-0.243 I0. J-0.397
Y121.047 Z-0.306 I0. J0.397
Y120.253 Z-0.368 I0. J-0.397
Y121.047 Z-0.43 I0. J0.397
Y120.253 Z-0.493 I0. J-0.397
Y121.047 Z-0.555 I0. J0.397
Y120.253 Z-0.617 I0. J-0.397
Y121.047 Z-0.68 I0. J0.397
Y120.253 Z-0.742 I0. J-0.397
Y121.047 Z-0.804 I0. J0.397
Y120.253 Z-0.867 I0. J-0.397
Y121.047 Z-0.929 I0. J0.397
Y120.253 Z-0.991 I0. J-0.397
Y121.047 Z-1.054 I0. J0.397
Y120.253 Z-1.116 I0. J-0.397
Y121.047 Z-1.178 I0. J0.397
Y120.253 Z-1.241 I0. J-0.397
Y121.047 Z-1.303 I0. J0.397
Y120.253 Z-1.366 I0. J-0.397
Y121.047 Z-1.428 I0. J0.397
Y120.253 Z-1.49 I0. J-0.397
Y121.047 Z-1.553 I0. J0.397
Y120.253 Z-1.615 I0. J-0.397
Y121.047 Z-1.677 I0. J0.397
Y120.253 Z-1.74 I0. J-0.397
Y121.047 Z-1.802 I0. J0.397
Y120.253 Z-1.864 I0. J-0.397
Y121.047 Z-1.927 I0. J0.397
Y120.253 Z-1.989 I0. J-0.397
Y121.047 Z-2.051 I0. J0.397
Y120.253 Z-2.114 I0. J-0.397
Y121.047 Z-2.176 I0. J0.397
Y120.253 Z-2.238 I0. J-0.397
Y121.047 Z-2.301 I0. J0.397
Y120.253 Z-2.363 I0. J-0.397
Y121.047 Z-2.425 I0. J0.397
Y120.253 Z-2.488 I0. J-0.397
Y121.047 Z-2.55 I0. J0.397
Y120.253 Z-2.612 I0. J-0.397
Y121.047 Z-2.675 I0. J0.397
Y120.253 Z-2.737 I0. J-0.397
Y121.047 Z-2.8 I0. J0.397
Y120.253 Z-2.862 I0. J-0.397
Y121.047 Z-2.924 I0. J0.397
Y120.253 Z-2.987 I0. J-0.397
Y121.047 Z-3.049 I0. J0.397
Y120.253 Z-3.111 I0. J-0.397
Y121.047 Z-3.174 I0. J0.397
Y120.253 Z-3.236 I0. J-0.397
Y121.047 Z-3.298 I0. J0.397
Y120.253 Z-3.361 I0. J-0.397
Y121.047 Z-3.423 I0. J0.397
Y120.253 Z-3.485 I0. J-0.397
Y121.047 Z-3.548 I0. J0.397
Y120.253 Z-3.61 I0. J-0.397
Y121.047 Z-3.672 I0. J0.397
Y120.253 Z-3.735 I0. J-0.397
Y121.047 Z-3.797 I0. J0.397
Y120.253 Z-3.859 I0. J-0.397
Y121.047 Z-3.922 I0. J0.397
Y120.253 Z-3.984 I0. J-0.397
Y121.047 Z-4.046 I0. J0.397
Y120.253 Z-4.109 I0. J-0.397
Y121.047 Z-4.171 I0. J0.397
Y120.253 Z-4.234 I0. J-0.397
Y121.047 Z-4.296 I0. J0.397
Y120.253 Z-4.358 I0. J-0.397
Y121.047 Z-4.421 I0. J0.397
Y120.253 Z-4.483 I0. J-0.397
Y121.047 Z-4.545 I0. J0.397
Y120.253 Z-4.608 I0. J-0.397
Y121.047 Z-4.67 I0. J0.397
Y120.253 Z-4.732 I0. J-0.397
Y121.047 Z-4.795 I0. J0.397
Y120.253 Z-4.857 I0. J-0.397
Y121.047 Z-4.919 I0. J0.397
Y120.253 Z-4.982 I0. J-0.397
Y121.047 Z-5.044 I0. J0.397
Y120.253 Z-5.106 I0. J-0.397
Y121.047 Z-5.169 I0. J0.397
X12.824 Y121.027 Z-5.175 I0. J-0.397
X12.576 Y120.273 I-0.124 J-0.377
X12.824 Y121.027 I0.124 J0.377
X12.95 Y120.777 I-0.062 J-0.189
G1 X12.852 Y120.475
G0 Z5.
X12.898 Y236.657
Z3.865
G1 Z2.5 F1600.
Y236.339
G2 X12.7 Y236.141 I-0.198 J0.
Y236.934 Z2.438 I0. J0.397
Y236.141 Z2.375 I0. J-0.397
Y236.934 Z2.313 I0. J0.397
Y236.141 Z2.251 I0. J-0.397
Y236.934 Z2.188 I0. J0.397
Y236.141 Z2.126 I0. J-0.397
Y236.934 Z2.064 I0. J0.397
Y236.141 Z2.001 I0. J-0.397
Y236.934 Z1.939 I0. J0.397
Y236.141 Z1.877 I0. J-0.397
Y236.934 Z1.814 I0. J0.397
Y236.141 Z1.752 I0. J-0.397
Y236.934 Z1.689 I0. J0.397
Y236.141 Z1.627 I0. J-0.397
Y236.934 Z1.565 I0. J0.397
Y236.141 Z1.502 I0. J-0.397
Y236.934 Z1.44 I0. J0.397
Y236.141 Z1.378 I0. J-0.397
Y236.934 Z1.315 I0. J0.397
Y236.141 Z1.253 I0. J-0.397
Y236.934 Z1.191 I0. J0.397
Y236.141 Z1.128 I0. J-0.397
Y236.934 Z1.066 I0. J0.397
Y236.141 Z1.004 I0. J-0.397
Y236.934 Z0.941 I0. J0.397
Y236.141 Z0.879 I0. J-0.397
Y236.934 Z0.817 I0. J0.397
Y236.141 Z0.754 I0. J-0.397
Y236.934 Z0.692 I0. J0.397
Y236.141 Z0.63 I0. J-0.397
Y236.934 Z0.567 I0. J0.397
Y236.141 Z0.505 I0. J-0.397
Y236.934 Z0.443 I0. J0.397
Y236.141 Z0.38 I0. J-0.397
Y236.934 Z0.318 I0. J0.397
Y236.141 Z0.255 I0. J-0.397
Y236.934 Z0.193 I0. J0.397
Y236.141 Z0.131 I0. J-0.397
Y236.934 Z0.068 I0. J0.397
Y236.141 Z0.006 I0. J-0.397
Y236.934 Z-0.056 I0. J0.397
Y236.141 Z-0.119 I0. J-0.397
Y236.934 Z-0.181 I0. J0.397
Y236.141 Z-0.243 I0. J-0.397
Y236.934 Z-0.306 I0. J0.397
Y236.141 Z-0.368 I0. J-0.397
Y236.934 Z-0.43 I0. J0.397
Y236.141 Z-0.493 I0. J-0.397
Y236.934 Z-0.555 I0. J0.397
Y236.141 Z-0.617 I0. J-0.397
Y236.934 Z-0.68 I0. J0.397
Y236.141 Z-0.742 I0. J-0.397
Y236.934 Z-0.804 I0. J0.397
Y236.141 Z-0.867 I0. J-0.397
Y236.934 Z-0.929 I0. J0.397
Y236.141 Z-0.991 I0. J-0.397
Y236.934 Z-1.054 I0. J0.397
Y236.141 Z-1.116 I0. J-0.397
Y236.934 Z-1.178 I0. J0.397
Y236.141 Z-1.241 I0. J-0.397
Y236.934 Z-1.303 I0. J0.397
Y236.141 Z-1.366 I0. J-0.397
Y236.934 Z-1.428 I0. J0.397
Y236.141 Z-1.49 I0. J-0.397
Y236.934 Z-1.553 I0. J0.397
Y236.141 Z-1.615 I0. J-0.397
Y236.934 Z-1.677 I0. J0.397
Y236.141 Z-1.74 I0. J-0.397
Y236.934 Z-1.802 I0. J0.397
Y236.141 Z-1.864 I0. J-0.397
Y236.934 Z-1.927 I0. J0.397
Y236.141 Z-1.989 I0. J-0.397
Y236.934 Z-2.051 I0. J0.397
Y236.141 Z-2.114 I0. J-0.397
Y236.934 Z-2.176 I0. J0.397
Y236.141 Z-2.238 I0. J-0.397
Y236.934 Z-2.301 I0. J0.397
Y236.141 Z-2.363 I0. J-0.397
Y236.934 Z-2.425 I0. J0.397
Y236.141 Z-2.488 I0. J-0.397
Y236.934 Z-2.55 I0. J0.397
Y236.141 Z-2.612 I0. J-0.397
Y236.934 Z-2.675 I0. J0.397
Y236.141 Z-2.737 I0. J-0.397
Y236.934 Z-2.8 I0. J0.397
Y236.141 Z-2.862 I0. J-0.397
Y236.934 Z-2.924 I0. J0.397
Y236.141 Z-2.987 I0. J-0.397
Y236.934 Z-3.049 I0. J0.397
Y236.141 Z-3.111 I0. J-0.397
Y236.934 Z-3.174 I0. J0.397
Y236.141 Z-3.236 I0. J-0.397
Y236.934 Z-3.298 I0. J0.397
Y236.141 Z-3.361 I0. J-0.397
Y236.934 Z-3.423 I0. J0.397
Y236.141 Z-3.485 I0. J-0.397
Y236.934 Z-3.548 I0. J0.397
Y236.141 Z-3.61 I0. J-0.397
Y236.934 Z-3.672 I0. J0.397
Y236.141 Z-3.735 I0. J-0.397
Y236.934 Z-3.797 I0. J0.397
Y236.141 Z-3.859 I0. J-0.397
Y236.934 Z-3.922 I0. J0.397
Y236.141 Z-3.984 I0. J-0.397
Y236.934 Z-4.046 I0. J0.397
Y236.141 Z-4.109 I0. J-0.397
Y236.934 Z-4.171 I0. J0.397
Y236.141 Z-4.234 I0. J-0.397
Y236.934 Z-4.296 I0. J0.397
Y236.141 Z-4.358 I0. J-0.397
Y236.934 Z-4.421 I0. J0.397
Y236.141 Z-4.483 I0. J-0.397
Y236.934 Z-4.545 I0. J0.397
Y236.141 Z-4.608 I0. J-0.397
Y236.934 Z-4.67 I0. J0.397
Y236.141 Z-4.732 I0. J-0.397
Y236.934 Z-4.795 I0. J0.397
Y236.141 Z-4.857 I0. J-0.397
Y236.934 Z-4.919 I0. J0.397
Y236.141 Z-4.982 I0. J-0.397
Y236.934 Z-5.044 I0. J0.397
Y236.141 Z-5.106 I0. J-0.397
Y236.934 Z-5.169 I0. J0.397
X12.824 Y236.915 Z-5.175 I0. J-0.397
X12.576 Y236.16 I-0.124 J-0.377
X12.824 Y236.915 I0.124 J0.377
X12.95 Y236.664 I-0.062 J-0.189
G1 X12.852 Y236.363
G0 Z5.
X12.898 Y262.057
Z3.865
G1 Z2.5 F1600.
Y261.739
G2 X12.7 Y261.541 I-0.198 J0.
Y262.334 Z2.438 I0. J0.397
Y261.541 Z2.375 I0. J-0.397
Y262.334 Z2.313 I0. J0.397
Y261.541 Z2.251 I0. J-0.397
Y262.334 Z2.188 I0. J0.397
Y261.541 Z2.126 I0. J-0.397
Y262.334 Z2.064 I0. J0.397
Y261.541 Z2.001 I0. J-0.397
Y262.334 Z1.939 I0. J0.397
Y261.541 Z1.877 I0. J-0.397
Y262.334 Z1.814 I0. J0.397
Y261.541 Z1.752 I0. J-0.397
Y262.334 Z1.689 I0. J0.397
Y261.541 Z1.627 I0. J-0.397
Y262.334 Z1.565 I0. J0.397
Y261.541 Z1.502 I0. J-0.397
Y262.334 Z1.44 I0. J0.397
Y261.541 Z1.378 I0. J-0.397
Y262.334 Z1.315 I0. J0.397
Y261.541 Z1.253 I0. J-0.397
Y262.334 Z1.191 I0. J0.397
Y261.541 Z1.128 I0. J-0.397
Y262.334 Z1.066 I0. J0.397
Y261.541 Z1.004 I0. J-0.397
Y262.334 Z0.941 I0. J0.397
Y261.541 Z0.879 I0. J-0.397
Y262.334 Z0.817 I0. J0.397
Y261.541 Z0.754 I0. J-0.397
Y262.334 Z0.692 I0. J0.397
Y261.541 Z0.63 I0. J-0.397
Y262.334 Z0.567 I0. J0.397
Y261.541 Z0.505 I0. J-0.397
Y262.334 Z0.443 I0. J0.397
Y261.541 Z0.38 I0. J-0.397
Y262.334 Z0.318 I0. J0.397
Y261.541 Z0.255 I0. J-0.397
Y262.334 Z0.193 I0. J0.397
Y261.541 Z0.131 I0. J-0.397
Y262.334 Z0.068 I0. J0.397
Y261.541 Z0.006 I0. J-0.397
Y262.334 Z-0.056 I0. J0.397
Y261.541 Z-0.119 I0. J-0.397
Y262.334 Z-0.181 I0. J0.397
Y261.541 Z-0.243 I0. J-0.397
Y262.334 Z-0.306 I0. J0.397
Y261.541 Z-0.368 I0. J-0.397
Y262.334 Z-0.43 I0. J0.397
Y261.541 Z-0.493 I0. J-0.397
Y262.334 Z-0.555 I0. J0.397
Y261.541 Z-0.617 I0. J-0.397
Y262.334 Z-0.68 I0. J0.397
Y261.541 Z-0.742 I0. J-0.397
Y262.334 Z-0.804 I0. J0.397
Y261.541 Z-0.867 I0. J-0.397
Y262.334 Z-0.929 I0. J0.397
Y261.541 Z-0.991 I0. J-0.397
Y262.334 Z-1.054 I0. J0.397
Y261.541 Z-1.116 I0. J-0.397
Y262.334 Z-1.178 I0. J0.397
Y261.541 Z-1.241 I0. J-0.397
Y262.334 Z-1.303 I0. J0.397
Y261.541 Z-1.366 I0. J-0.397
Y262.334 Z-1.428 I0. J0.397
Y261.541 Z-1.49 I0. J-0.397
Y262.334 Z-1.553 I0. J0.397
Y261.541 Z-1.615 I0. J-0.397
Y262.334 Z-1.677 I0. J0.397
Y261.541 Z-1.74 I0. J-0.397
Y262.334 Z-1.802 I0. J0.397
Y261.541 Z-1.864 I0. J-0.397
Y262.334 Z-1.927 I0. J0.397
Y261.541 Z-1.989 I0. J-0.397
Y262.334 Z-2.051 I0. J0.397
Y261.541 Z-2.114 I0. J-0.397
Y262.334 Z-2.176 I0. J0.397
Y261.541 Z-2.238 I0. J-0.397
Y262.334 Z-2.301 I0. J0.397
Y261.541 Z-2.363 I0. J-0.397
Y262.334 Z-2.425 I0. J0.397
Y261.541 Z-2.488 I0. J-0.397
Y262.334 Z-2.55 I0. J0.397
Y261.541 Z-2.612 I0. J-0.397
Y262.334 Z-2.675 I0. J0.397
Y261.541 Z-2.737 I0. J-0.397
Y262.334 Z-2.8 I0. J0.397
Y261.541 Z-2.862 I0. J-0.397
Y262.334 Z-2.924 I0. J0.397
Y261.541 Z-2.987 I0. J-0.397
Y262.334 Z-3.049 I0. J0.397
Y261.541 Z-3.111 I0. J-0.397
Y262.334 Z-3.174 I0. J0.397
Y261.541 Z-3.236 I0. J-0.397
Y262.334 Z-3.298 I0. J0.397
Y261.541 Z-3.361 I0. J-0.397
Y262.334 Z-3.423 I0. J0.397
Y261.541 Z-3.485 I0. J-0.397
Y262.334 Z-3.548 I0. J0.397
Y261.541 Z-3.61 I0. J-0.397
Y262.334 Z-3.672 I0. J0.397
Y261.541 Z-3.735 I0. J-0.397
Y262.334 Z-3.797 I0. J0.397
Y261.541 Z-3.859 I0. J-0.397
Y262.334 Z-3.922 I0. J0.397
Y261.541 Z-3.984 I0. J-0.397
Y262.334 Z-4.046 I0. J0.397
Y261.541 Z-4.109 I0. J-0.397
Y262.334 Z-4.171 I0. J0.397
Y261.541 Z-4.234 I0. J-0.397
Y262.334 Z-4.296 I0. J0.397
Y261.541 Z-4.358 I0. J-0.397
Y262.334 Z-4.421 I0. J0.397
Y261.541 Z-4.483 I0. J-0.397
Y262.334 Z-4.545 I0. J0.397
Y261.541 Z-4.608 I0. J-0.397
Y262.334 Z-4.67 I0. J0.397
Y261.541 Z-4.732 I0. J-0.397
Y262.334 Z-4.795 I0. J0.397
Y261.541 Z-4.857 I0. J-0.397
Y262.334 Z-4.919 I0. J0.397
Y261.541 Z-4.982 I0. J-0.397
Y262.334 Z-5.044 I0. J0.397
Y261.541 Z-5.106 I0. J-0.397
Y262.334 Z-5.169 I0. J0.397
X12.824 Y262.315 Z-5.175 I0. J-0.397
X12.576 Y261.56 I-0.124 J-0.377
X12.824 Y262.315 I0.124 J0.377
X12.95 Y262.064 I-0.062 J-0.189
G1 X12.852 Y261.763
G0 Z5.
X12.898 Y287.457
Z3.865
G1 Z2.5 F1600.
Y287.139
G2 X12.7 Y286.941 I-0.198 J0.
Y287.734 Z2.438 I0. J0.397
Y286.941 Z2.375 I0. J-0.397
Y287.734 Z2.313 I0. J0.397
Y286.941 Z2.251 I0. J-0.397
Y287.734 Z2.188 I0. J0.397
Y286.941 Z2.126 I0. J-0.397
Y287.734 Z2.064 I0. J0.397
Y286.941 Z2.001 I0. J-0.397
Y287.734 Z1.939 I0. J0.397
Y286.941 Z1.877 I0. J-0.397
Y287.734 Z1.814 I0. J0.397
Y286.941 Z1.752 I0. J-0.397
Y287.734 Z1.689 I0. J0.397
Y286.941 Z1.627 I0. J-0.397
Y287.734 Z1.565 I0. J0.397
Y286.941 Z1.502 I0. J-0.397
Y287.734 Z1.44 I0. J0.397
Y286.941 Z1.378 I0. J-0.397
Y287.734 Z1.315 I0. J0.397
Y286.941 Z1.253 I0. J-0.397
Y287.734 Z1.191 I0. J0.397
Y286.941 Z1.128 I0. J-0.397
Y287.734 Z1.066 I0. J0.397
Y286.941 Z1.004 I0. J-0.397
Y287.734 Z0.941 I0. J0.397
Y286.941 Z0.879 I0. J-0.397
Y287.734 Z0.817 I0. J0.397
Y286.941 Z0.754 I0. J-0.397
Y287.734 Z0.692 I0. J0.397
Y286.941 Z0.63 I0. J-0.397
Y287.734 Z0.567 I0. J0.397
Y286.941 Z0.505 I0. J-0.397
Y287.734 Z0.443 I0. J0.397
Y286.941 Z0.38 I0. J-0.397
Y287.734 Z0.318 I0. J0.397
Y286.941 Z0.255 I0. J-0.397
Y287.734 Z0.193 I0. J0.397
Y286.941 Z0.131 I0. J-0.397
Y287.734 Z0.068 I0. J0.397
Y286.941 Z0.006 I0. J-0.397
Y287.734 Z-0.056 I0. J0.397
Y286.941 Z-0.119 I0. J-0.397
Y287.734 Z-0.181 I0. J0.397
Y286.941 Z-0.243 I0. J-0.397
Y287.734 Z-0.306 I0. J0.397
Y286.941 Z-0.368 I0. J-0.397
Y287.734 Z-0.43 I0. J0.397
Y286.941 Z-0.493 I0. J-0.397
Y287.734 Z-0.555 I0. J0.397
Y286.941 Z-0.617 I0. J-0.397
Y287.734 Z-0.68 I0. J0.397
Y286.941 Z-0.742 I0. J-0.397
Y287.734 Z-0.804 I0. J0.397
Y286.941 Z-0.867 I0. J-0.397
Y287.734 Z-0.929 I0. J0.397
Y286.941 Z-0.991 I0. J-0.397
Y287.734 Z-1.054 I0. J0.397
Y286.941 Z-1.116 I0. J-0.397
Y287.734 Z-1.178 I0. J0.397
Y286.941 Z-1.241 I0. J-0.397
Y287.734 Z-1.303 I0. J0.397
Y286.941 Z-1.366 I0. J-0.397
Y287.734 Z-1.428 I0. J0.397
Y286.941 Z-1.49 I0. J-0.397
Y287.734 Z-1.553 I0. J0.397
Y286.941 Z-1.615 I0. J-0.397
Y287.734 Z-1.677 I0. J0.397
Y286.941 Z-1.74 I0. J-0.397
Y287.734 Z-1.802 I0. J0.397
Y286.941 Z-1.864 I0. J-0.397
Y287.734 Z-1.927 I0. J0.397
Y286.941 Z-1.989 I0. J-0.397
Y287.734 Z-2.051 I0. J0.397
Y286.941 Z-2.114 I0. J-0.397
Y287.734 Z-2.176 I0. J0.397
Y286.941 Z-2.238 I0. J-0.397
Y287.734 Z-2.301 I0. J0.397
Y286.941 Z-2.363 I0. J-0.397
Y287.734 Z-2.425 I0. J0.397
Y286.941 Z-2.488 I0. J-0.397
Y287.734 Z-2.55 I0. J0.397
Y286.941 Z-2.612 I0. J-0.397
Y287.734 Z-2.675 I0. J0.397
Y286.941 Z-2.737 I0. J-0.397
Y287.734 Z-2.8 I0. J0.397
Y286.941 Z-2.862 I0. J-0.397
Y287.734 Z-2.924 I0. J0.397
Y286.941 Z-2.987 I0. J-0.397
Y287.734 Z-3.049 I0. J0.397
Y286.941 Z-3.111 I0. J-0.397
Y287.734 Z-3.174 I0. J0.397
Y286.941 Z-3.236 I0. J-0.397
Y287.734 Z-3.298 I0. J0.397
Y286.941 Z-3.361 I0. J-0.397
Y287.734 Z-3.423 I0. J0.397
Y286.941 Z-3.485 I0. J-0.397
Y287.734 Z-3.548 I0. J0.397
Y286.941 Z-3.61 I0. J-0.397
Y287.734 Z-3.672 I0. J0.397
Y286.941 Z-3.735 I0. J-0.397
Y287.734 Z-3.797 I0. J0.397
Y286.941 Z-3.859 I0. J-0.397
Y287.734 Z-3.922 I0. J0.397
Y286.941 Z-3.984 I0. J-0.397
Y287.734 Z-4.046 I0. J0.397
Y286.941 Z-4.109 I0. J-0.397
Y287.734 Z-4.171 I0. J0.397
Y286.941 Z-4.234 I0. J-0.397
Y287.734 Z-4.296 I0. J0.397
Y286.941 Z-4.358 I0. J-0.397
Y287.734 Z-4.421 I0. J0.397
Y286.941 Z-4.483 I0. J-0.397
Y287.734 Z-4.545 I0. J0.397
Y286.941 Z-4.608 I0. J-0.397
Y287.734 Z-4.67 I0. J0.397
Y286.941 Z-4.732 I0. J-0.397
Y287.734 Z-4.795 I0. J0.397
Y286.941 Z-4.857 I0. J-0.397
Y287.734 Z-4.919 I0. J0.397
Y286.941 Z-4.982 I0. J-0.397
Y287.734 Z-5.044 I0. J0.397
Y286.941 Z-5.106 I0. J-0.397
Y287.734 Z-5.169 I0. J0.397
X12.824 Y287.715 Z-5.175 I0. J-0.397
X12.576 Y286.96 I-0.124 J-0.377
X12.824 Y287.715 I0.124 J0.377
X12.95 Y287.464 I-0.062 J-0.189
G1 X12.852 Y287.163
G0 Z15.
M5
G0 Z15
G0 X0 Y0

M9
M30
