(SUPPORT RAIL HOLES 14IN)
(T1  D=6.35 CR=0. - ZMIN=21.813 - FLAT END MILL)
G90 G94 G91.1 G40 G49 G17
G21
G0 Z45

(BORE1)
M5
T1 M6
S15000 M3
G54
M8
G0 X132.877 Y10.613
G43 Z41.4 H1
Z29.9
G1 Z28.535 F1600.
X132.881 Y10.62 Z28.436
X132.893 Y10.64 Z28.339
X132.912 Y10.673 Z28.247
X132.939 Y10.718 Z28.162
X132.971 Y10.774 Z28.086
X133.01 Y10.839 Z28.021
X133.053 Y10.912 Z27.969
X133.099 Y10.992 Z27.931
X133.148 Y11.075 Z27.908
X133.199 Y11.161 Z27.9
X133.359 Y11.435
G2 X134.228 Y11.661 I0.548 J-0.321
X131.722 Y7.389 Z27.801 I-1.253 J-2.136
X134.228 Y11.661 Z27.703 I1.253 J2.136
X131.722 Y7.389 Z27.604 I-1.253 J-2.136
X134.228 Y11.661 Z27.505 I1.253 J2.136
X131.722 Y7.389 Z27.407 I-1.253 J-2.136
X134.228 Y11.661 Z27.308 I1.253 J2.136
X131.722 Y7.389 Z27.209 I-1.253 J-2.136
X134.228 Y11.661 Z27.111 I1.253 J2.136
X131.722 Y7.389 Z27.012 I-1.253 J-2.136
X134.228 Y11.661 Z26.914 I1.253 J2.136
X131.722 Y7.389 Z26.815 I-1.253 J-2.136
X134.228 Y11.661 Z26.716 I1.253 J2.136
X131.722 Y7.389 Z26.618 I-1.253 J-2.136
X134.228 Y11.661 Z26.519 I1.253 J2.136
X131.722 Y7.389 Z26.42 I-1.253 J-2.136
X134.228 Y11.661 Z26.322 I1.253 J2.136
X131.722 Y7.389 Z26.223 I-1.253 J-2.136
X134.228 Y11.661 Z26.124 I1.253 J2.136
X131.722 Y7.389 Z26.026 I-1.253 J-2.136
X134.228 Y11.661 Z25.927 I1.253 J2.136
X131.722 Y7.389 Z25.828 I-1.253 J-2.136
X134.228 Y11.661 Z25.73 I1.253 J2.136
X131.722 Y7.389 Z25.631 I-1.253 J-2.136
X134.228 Y11.661 Z25.532 I1.253 J2.136
X131.722 Y7.389 Z25.434 I-1.253 J-2.136
X134.228 Y11.661 Z25.335 I1.253 J2.136
X131.722 Y7.389 Z25.237 I-1.253 J-2.136
X134.228 Y11.661 Z25.138 I1.253 J2.136
X131.722 Y7.389 Z25.039 I-1.253 J-2.136
X134.228 Y11.661 Z24.941 I1.253 J2.136
X131.722 Y7.389 Z24.842 I-1.253 J-2.136
X134.228 Y11.661 Z24.743 I1.253 J2.136
X131.722 Y7.389 Z24.645 I-1.253 J-2.136
X134.228 Y11.661 Z24.546 I1.253 J2.136
X131.722 Y7.389 Z24.447 I-1.253 J-2.136
X134.228 Y11.661 Z24.349 I1.253 J2.136
X131.722 Y7.389 Z24.25 I-1.253 J-2.136
X134.228 Y11.661 Z24.151 I1.253 J2.136
X131.722 Y7.389 Z24.053 I-1.253 J-2.136
X134.228 Y11.661 Z23.954 I1.253 J2.136
X131.722 Y7.389 Z23.855 I-1.253 J-2.136
X134.228 Y11.661 Z23.757 I1.253 J2.136
X131.722 Y7.389 Z23.658 I-1.253 J-2.136
X134.228 Y11.661 Z23.56 I1.253 J2.136
X131.722 Y7.389 Z23.461 I-1.253 J-2.136
X134.228 Y11.661 Z23.362 I1.253 J2.136
X131.722 Y7.389 Z23.264 I-1.253 J-2.136
X134.228 Y11.661 Z23.165 I1.253 J2.136
X131.722 Y7.389 Z23.066 I-1.253 J-2.136
X134.228 Y11.661 Z22.968 I1.253 J2.136
X131.722 Y7.389 Z22.869 I-1.253 J-2.136
X134.228 Y11.661 Z22.77 I1.253 J2.136
X131.722 Y7.389 Z22.672 I-1.253 J-2.136
X134.228 Y11.661 Z22.573 I1.253 J2.136
X131.722 Y7.389 Z22.474 I-1.253 J-2.136
X134.228 Y11.661 Z22.376 I1.253 J2.136
X131.722 Y7.389 Z22.277 I-1.253 J-2.136
X134.228 Y11.661 Z22.178 I1.253 J2.136
X131.722 Y7.389 Z22.08 I-1.253 J-2.136
X134.228 Y11.661 Z21.981 I1.253 J2.136
X131.722 Y7.389 Z21.883 I-1.253 J-2.136
X132.053 Y11.824 Z21.813 I1.253 J2.136
X133.897 Y7.226 I0.922 J-2.299
X132.053 Y11.824 I-0.922 J2.299
X132.879 Y11.471 I0.236 J-0.589
G1 X132.997 Y11.176
X133.034 Y11.084 Z21.82
X133.07 Y10.994 Z21.844
X133.105 Y10.908 Z21.882
X133.136 Y10.829 Z21.934
X133.164 Y10.759 Z21.998
X133.188 Y10.699 Z22.074
X133.208 Y10.651 Z22.159
X133.222 Y10.615 Z22.251
X133.231 Y10.594 Z22.348
X133.234 Y10.586 Z22.448
G0 Z31.4
X132.975 Y28.575
Z29.265
G1 Z27.9 F1600.
X132.959 Y28.636
X132.976 Y28.652
X132.998 Y28.658
X133.02 Y28.652
X133.048 Y28.626 Z27.892
X133.062 Y28.592 Z27.885
X133.061 Y28.554 Z27.877
X133.045 Y28.521 Z27.869
X133.017 Y28.496 Z27.861
X132.98 Y28.486 Z27.854
X132.943 Y28.492 Z27.846
X132.912 Y28.512 Z27.838
X132.892 Y28.544 Z27.831
X132.886 Y28.581 Z27.823
X132.897 Y28.617 Z27.815
X132.921 Y28.646 Z27.808
X132.955 Y28.662 Z27.8
X132.992 Z27.792
X133.027 Y28.647 Z27.784
X133.052 Y28.62 Z27.777
X133.063 Y28.584 Z27.769
X133.059 Y28.547 Z27.761
X133.04 Y28.514 Z27.754
X133.009 Y28.493 Z27.746
X132.972 Y28.486 Z27.738
X132.936 Y28.495 Z27.73
X132.907 Y28.518 Z27.723
X132.889 Y28.552 Z27.715
X132.887 Y28.589 Z27.707
X132.901 Y28.624 Z27.7
X132.928 Y28.65 Z27.692
X132.963 Y28.663 Z27.684
X133. Y28.66 Z27.677
X133.033 Y28.642 Z27.669
X133.056 Y28.612 Z27.661
X133.064 Y28.576 Z27.653
X133.056 Y28.539 Z27.646
X133.034 Y28.509 Z27.638
X133.002 Y28.49 Z27.63
X132.964 Y28.487 Z27.623
X132.929 Y28.499 Z27.615
X132.902 Y28.525 Z27.607
X132.887 Y28.559 Z27.599
X132.889 Y28.597 Z27.592
X132.906 Y28.63 Z27.584
X132.935 Y28.654 Z27.576
X132.971 Y28.664 Z27.569
X133.008 Y28.658 Z27.561
X133.039 Y28.637 Z27.553
X133.059 Y28.605 Z27.546
X133.064 Y28.568 Z27.538
X133.053 Y28.532 Z27.53
X133.028 Y28.504 Z27.522
X132.994 Y28.488 Z27.515
X132.956 Z27.507
X132.922 Y28.503 Z27.499
X132.897 Y28.532 Z27.492
X132.886 Y28.567 Z27.484
X132.891 Y28.605 Z27.476
X132.911 Y28.636 Z27.468
X132.942 Y28.657 Z27.461
X132.979 Y28.664 Z27.453
X133.015 Y28.654 Z27.445
X133.044 Y28.631 Z27.438
X133.061 Y28.597 Z27.43
X133.063 Y28.56 Z27.422
X133.049 Y28.525 Z27.415
X133.021 Y28.499 Z27.407
X132.986 Y28.487 Z27.399
X132.949 Y28.49 Z27.391
X132.916 Y28.508 Z27.384
X132.894 Y28.539 Z27.376
X132.886 Y28.575 Z27.368
X132.894 Y28.612 Z27.361
X132.917 Y28.642 Z27.353
X132.949 Y28.66 Z27.345
X132.987 Y28.663 Z27.337
X133.022 Y28.65 Z27.33
X133.049 Y28.624 Z27.322
X133.063 Y28.589 Z27.314
X133.061 Y28.552 Z27.307
X133.044 Y28.519 Z27.299
X133.014 Y28.495 Z27.291
X132.978 Y28.486 Z27.284
X132.941 Y28.493 Z27.276
X132.91 Y28.514 Z27.268
X132.891 Y28.546 Z27.26
X132.887 Y28.583 Z27.253
X132.898 Y28.619 Z27.245
X132.923 Y28.647 Z27.237
X132.957 Y28.662 Z27.23
X132.995 Z27.222
X133.029 Y28.646 Z27.214
X133.053 Y28.617 Z27.206
X133.064 Y28.581 Z27.199
X133.058 Y28.544 Z27.191
X133.038 Y28.513 Z27.183
X133.007 Y28.492 Z27.176
X132.97 Y28.486 Z27.168
X132.934 Y28.496 Z27.16
X132.905 Y28.52 Z27.153
X132.889 Y28.554 Z27.145
X132.888 Y28.591 Z27.137
X132.902 Y28.626 Z27.129
X132.93 Y28.651 Z27.122
X132.965 Y28.663 Z27.114
X133.003 Y28.66 Z27.106
X133.035 Y28.641 Z27.099
X133.057 Y28.61 Z27.091
X133.064 Y28.573 Z27.083
X133.055 Y28.537 Z27.075
X133.032 Y28.507 Z27.068
X132.999 Y28.49 Z27.06
X132.962 Y28.487 Z27.052
X132.927 Y28.5 Z27.045
X132.9 Y28.527 Z27.037
X132.887 Y28.562 Z27.029
X132.889 Y28.599 Z27.022
X132.907 Y28.632 Z27.014
X132.937 Y28.655 Z27.006
X132.973 Y28.664 Z26.998
X133.01 Y28.657 Z26.991
X133.041 Y28.635 Z26.983
X133.06 Y28.603 Z26.975
X133.063 Y28.565 Z26.968
X133.052 Y28.53 Z26.96
X133.026 Y28.502 Z26.952
X132.992 Y28.488 Z26.944
X132.954 Y28.489 Z26.937
X132.92 Y28.505 Z26.929
X132.896 Y28.534 Z26.921
X132.886 Y28.57 Z26.914
X132.892 Y28.607 Z26.906
X132.913 Y28.638 Z26.898
X132.944 Y28.658 Z26.891
X132.981 Y28.664 Z26.883
X133.017 Y28.653 Z26.875
X133.046 Y28.629 Z26.867
X133.062 Y28.595 Z26.86
Y28.557 Z26.852
X133.047 Y28.523 Z26.844
X133.019 Y28.498 Z26.837
X132.984 Y28.487 Z26.829
X132.946 Y28.491 Z26.821
X132.914 Y28.51 Z26.813
X132.893 Y28.541 Z26.806
X132.886 Y28.578 Z26.798
X132.895 Y28.614 Z26.79
X132.919 Y28.644 Z26.783
X132.952 Y28.661 Z26.775
X132.989 Y28.663 Z26.767
X133.024 Y28.649 Z26.76
X133.05 Y28.622 Z26.752
X133.063 Y28.587 Z26.744
X133.06 Y28.55 Z26.736
X133.042 Y28.517 Z26.729
X133.012 Y28.494 Z26.721
X132.976 Y28.486 Z26.713
X132.939 Y28.494 Z26.706
X132.909 Y28.516 Z26.698
X132.89 Y28.549 Z26.69
X132.887 Y28.586 Z26.682
X132.899 Y28.621 Z26.675
X132.925 Y28.648 Z26.667
X132.96 Y28.663 Z26.659
X132.997 Y28.661 Z26.652
X133.031 Y28.644 Z26.644
X133.054 Y28.615 Z26.636
X133.064 Y28.579 Z26.629
X133.058 Y28.542 Z26.621
X133.037 Y28.511 Z26.613
X133.005 Y28.491 Z26.605
X132.967 Y28.486 Z26.598
X132.932 Y28.497 Z26.59
X132.903 Y28.522 Z26.582
X132.888 Y28.556 Z26.575
Y28.594 Z26.567
X132.904 Y28.628 Z26.559
X132.932 Y28.653 Z26.552
X132.968 Y28.664 Z26.544
X133.005 Y28.659 Z26.536
X133.037 Y28.639 Z26.528
X133.058 Y28.608 Z26.521
X133.064 Y28.571 Z26.513
X133.054 Y28.535 Z26.505
X133.031 Y28.506 Z26.498
X132.997 Y28.489 Z26.49
X132.959 Y28.487 Z26.482
X132.925 Y28.502 Z26.474
X132.899 Y28.529 Z26.467
X132.887 Y28.564 Z26.459
X132.89 Y28.602 Z26.451
X132.909 Y28.634 Z26.444
X132.939 Y28.656 Z26.436
X132.976 Y28.664 Z26.428
X133.012 Y28.656 Z26.421
X133.042 Y28.633 Z26.413
X133.06 Y28.6 Z26.405
X133.063 Y28.563 Z26.397
X133.05 Y28.528 Z26.39
X133.024 Y28.501 Z26.382
X132.989 Y28.487 Z26.374
X132.952 Y28.489 Z26.367
X132.918 Y28.506 Z26.359
X132.895 Y28.536 Z26.351
X132.886 Y28.572 Z26.343
X132.893 Y28.609 Z26.336
X132.914 Y28.64 Z26.328
X132.947 Y28.659 Z26.32
X132.984 Y28.663 Z26.313
X133.019 Y28.652 Z26.305
X133.047 Y28.627 Z26.297
X133.062 Y28.592 Z26.29
Y28.555 Z26.282
X133.046 Y28.521 Z26.274
X133.017 Y28.497 Z26.266
X132.981 Y28.486 Z26.259
X132.944 Y28.492 Z26.251
X132.912 Y28.512 Z26.243
X132.892 Y28.543 Z26.236
X132.886 Y28.58 Z26.228
X132.896 Y28.616 Z26.22
X132.92 Y28.645 Z26.212
X132.954 Y28.661 Z26.205
X132.992 Y28.662 Z26.197
X133.026 Y28.648 Z26.189
X133.052 Y28.62 Z26.182
X133.063 Y28.584 Z26.174
X133.059 Y28.547 Z26.166
X133.04 Y28.515 Z26.159
X133.01 Y28.493 Z26.151
X132.973 Y28.486 Z26.143
X132.937 Y28.495 Z26.135
X132.907 Y28.518 Z26.128
X132.889 Y28.551 Z26.12
X132.887 Y28.588 Z26.112
X132.9 Y28.623 Z26.105
X132.927 Y28.65 Z26.097
X132.962 Y28.663 Z26.089
X133. Y28.66 Z26.081
X133.033 Y28.643 Z26.074
X133.055 Y28.613 Z26.066
X133.064 Y28.576 Z26.058
X133.057 Y28.54 Z26.051
X133.035 Y28.509 Z26.043
X133.002 Y28.49 Z26.035
X132.965 Y28.487 Z26.028
X132.929 Y28.499 Z26.02
X132.902 Y28.524 Z26.012
X132.888 Y28.559 Z26.004
X132.889 Y28.596 Z25.997
X132.905 Y28.63 Z25.989
X132.934 Y28.654 Z25.981
X132.97 Y28.664 Z25.974
X133.007 Y28.658 Z25.966
X133.038 Y28.637 Z25.958
X133.059 Y28.606 Z25.95
X133.064 Y28.568 Z25.943
X133.053 Y28.532 Z25.935
X133.029 Y28.504 Z25.927
X132.995 Y28.488 Z25.92
X132.957 Z25.912
X132.923 Y28.503 Z25.904
X132.898 Y28.531 Z25.897
X132.886 Y28.567 Z25.889
X132.891 Y28.604 Z25.881
X132.91 Y28.636 Z25.873
X132.941 Y28.657 Z25.866
X132.978 Y28.664 Z25.858
X133.015 Y28.655 Z25.85
X133.044 Y28.631 Z25.843
X133.061 Y28.598 Z25.835
X133.063 Y28.56 Z25.827
X133.049 Y28.526 Z25.819
X133.022 Y28.499 Z25.812
X132.987 Y28.487 Z25.804
X132.949 Y28.49 Z25.796
X132.916 Y28.508 Z25.789
X132.894 Y28.538 Z25.781
X132.886 Y28.575 Z25.773
X132.894 Y28.611 Z25.766
X132.916 Y28.642 Z25.758
X132.949 Y28.66 Z25.75
X132.986 Y28.663 Z25.742
X133.022 Y28.651 Z25.735
X133.049 Y28.625 Z25.727
X133.063 Y28.59 Z25.719
X133.061 Y28.553 Z25.712
X133.044 Y28.519 Z25.704
X133.015 Y28.496 Z25.696
X132.979 Y28.486 Z25.688
X132.942 Y28.493 Z25.681
X132.911 Y28.514 Z25.673
X132.891 Y28.546 Z25.665
X132.886 Y28.583 Z25.658
X132.898 Y28.619 Z25.65
X132.922 Y28.647 Z25.642
X132.957 Y28.662 Z25.635
X132.994 Z25.627
X133.028 Y28.646 Z25.619
X133.053 Y28.618 Z25.611
X133.064 Y28.582 Z25.604
X133.059 Y28.545 Z25.596
X133.039 Y28.513 Z25.588
X133.008 Y28.492 Z25.581
X132.971 Y28.486 Z25.573
X132.934 Y28.496 Z25.565
X132.905 Y28.52 Z25.557
X132.889 Y28.553 Z25.55
X132.888 Y28.591 Z25.542
X132.902 Y28.625 Z25.534
X132.929 Y28.651 Z25.527
X132.965 Y28.663 Z25.519
X133.002 Y28.66 Z25.511
X133.034 Y28.641 Z25.504
X133.056 Y28.611 Z25.496
X133.064 Y28.574 Z25.488
X133.056 Y28.537 Z25.48
X133.033 Y28.508 Z25.473
X133. Y28.49 Z25.465
X132.963 Y28.487 Z25.457
X132.927 Y28.5 Z25.45
X132.901 Y28.526 Z25.442
X132.887 Y28.561 Z25.434
X132.889 Y28.599 Z25.426
X132.907 Y28.632 Z25.419
X132.936 Y28.655 Z25.411
X132.973 Y28.664 Z25.403
X133.009 Y28.657 Z25.396
X133.04 Y28.635 Z25.388
X133.059 Y28.603 Z25.38
X133.063 Y28.566 Z25.373
X133.052 Y28.53 Z25.365
X133.027 Y28.503 Z25.357
X132.992 Y28.488 Z25.349
X132.955 Z25.342
X132.921 Y28.505 Z25.334
X132.897 Y28.533 Z25.326
X132.886 Y28.569 Z25.319
X132.892 Y28.606 Z25.311
X132.912 Y28.638 Z25.303
X132.944 Y28.658 Z25.295
X132.981 Y28.664 Z25.288
X133.017 Y28.653 Z25.28
X133.045 Y28.629 Z25.272
X133.062 Y28.595 Z25.265
Y28.558 Z25.257
X133.047 Y28.524 Z25.249
X133.02 Y28.498 Z25.242
X132.984 Y28.487 Z25.234
X132.947 Y28.491 Z25.226
X132.915 Y28.51 Z25.218
X132.893 Y28.54 Z25.211
X132.886 Y28.577 Z25.203
X132.895 Y28.614 Z25.195
X132.918 Y28.643 Z25.188
X132.951 Y28.661 Z25.18
X132.989 Y28.663 Z25.172
X133.024 Y28.649 Z25.164
X133.05 Y28.623 Z25.157
X133.063 Y28.588 Z25.149
X133.06 Y28.55 Z25.141
X133.043 Y28.517 Z25.134
X133.013 Y28.494 Z25.126
X132.976 Y28.486 Z25.118
X132.939 Y28.494 Z25.111
X132.909 Y28.515 Z25.103
X132.89 Y28.548 Z25.095
X132.887 Y28.585 Z25.087
X132.899 Y28.621 Z25.08
X132.924 Y28.648 Z25.072
X132.959 Y28.662 Z25.064
X132.997 Y28.661 Z25.057
X133.03 Y28.645 Z25.049
X133.054 Y28.616 Z25.041
X133.064 Y28.58 Z25.033
X133.058 Y28.543 Z25.026
X133.037 Y28.511 Z25.018
X133.005 Y28.491 Z25.01
X132.968 Y28.486 Z25.003
X132.932 Y28.497 Z24.995
X132.904 Y28.522 Z24.987
X132.888 Y28.556 Z24.98
Y28.593 Z24.972
X132.903 Y28.628 Z24.964
X132.931 Y28.652 Z24.956
X132.967 Y28.664 Z24.949
X133.004 Y28.659 Z24.941
X133.036 Y28.639 Z24.933
X133.057 Y28.608 Z24.926
X133.064 Y28.571 Z24.918
X133.054 Y28.535 Z24.91
X133.031 Y28.506 Z24.902
X132.998 Y28.489 Z24.895
X132.96 Y28.487 Z24.887
X132.925 Y28.501 Z24.879
X132.899 Y28.528 Z24.872
X132.887 Y28.564 Z24.864
X132.89 Y28.601 Z24.856
X132.908 Y28.634 Z24.849
X132.938 Y28.656 Z24.841
X132.975 Y28.664 Z24.833
X133.012 Y28.656 Z24.825
X133.042 Y28.634 Z24.818
X133.06 Y28.601 Z24.81
X133.063 Y28.563 Z24.802
X133.051 Y28.528 Z24.795
X133.025 Y28.501 Z24.787
X132.99 Y28.487 Z24.779
X132.952 Y28.489 Z24.771
X132.919 Y28.506 Z24.764
X132.895 Y28.535 Z24.756
X132.886 Y28.572 Z24.748
X132.893 Y28.609 Z24.741
X132.914 Y28.64 Z24.733
X132.946 Y28.659 Z24.725
X132.983 Y28.664 Z24.718
X133.019 Y28.652 Z24.71
X133.047 Y28.627 Z24.702
X133.062 Y28.593 Z24.694
Y28.556 Z24.687
X133.046 Y28.522 Z24.679
X133.018 Y28.497 Z24.671
X132.982 Y28.486 Z24.664
X132.945 Y28.491 Z24.656
X132.913 Y28.511 Z24.648
X132.892 Y28.543 Z24.64
X132.886 Y28.58 Z24.633
X132.896 Y28.616 Z24.625
X132.92 Y28.645 Z24.617
X132.954 Y28.661 Z24.61
X132.991 Y28.662 Z24.602
X133.026 Y28.648 Z24.594
X133.051 Y28.621 Z24.587
X133.063 Y28.585 Z24.579
X133.06 Y28.548 Z24.571
X133.041 Y28.515 Z24.563
X133.01 Y28.493 Z24.556
X132.974 Y28.486 Z24.548
X132.937 Y28.495 Z24.54
X132.907 Y28.517 Z24.533
X132.89 Y28.55 Z24.525
X132.887 Y28.588 Z24.517
X132.9 Y28.623 Z24.509
X132.927 Y28.65 Z24.502
X132.962 Y28.663 Z24.494
X132.999 Y28.661 Z24.486
X133.032 Y28.643 Z24.479
X133.055 Y28.614 Z24.471
X133.064 Y28.577 Z24.463
X133.057 Y28.54 Z24.456
X133.035 Y28.51 Z24.448
X133.003 Y28.491 Z24.44
X132.966 Y28.487 Z24.432
X132.93 Y28.498 Z24.425
X132.902 Y28.524 Z24.417
X132.888 Y28.558 Z24.409
X132.889 Y28.596 Z24.402
X132.905 Y28.629 Z24.394
X132.933 Y28.654 Z24.386
X132.97 Y28.664 Z24.378
X133.007 Y28.658 Z24.371
X133.038 Y28.638 Z24.363
X133.058 Y28.606 Z24.355
X133.064 Y28.569 Z24.348
X133.053 Y28.533 Z24.34
X133.029 Y28.504 Z24.332
X132.995 Y28.488 Z24.325
X132.958 Z24.317
X132.923 Y28.503 Z24.309
X132.898 Y28.53 Z24.301
X132.887 Y28.566 Z24.294
X132.891 Y28.603 Z24.286
X132.91 Y28.636 Z24.278
X132.941 Y28.657 Z24.271
X132.978 Y28.664 Z24.263
X133.014 Y28.655 Z24.255
X133.043 Y28.632 Z24.247
X133.061 Y28.598 Z24.24
X133.063 Y28.561 Z24.232
X133.049 Y28.526 Z24.224
X133.022 Y28.5 Z24.217
X132.987 Y28.487 Z24.209
X132.95 Y28.49 Z24.201
X132.917 Y28.508 Z24.194
X132.894 Y28.538 Z24.186
X132.886 Y28.574 Z24.178
X132.894 Y28.611 Z24.17
X132.916 Y28.641 Z24.163
X132.948 Y28.66 Z24.155
X132.986 Y28.663 Z24.147
X133.021 Y28.651 Z24.14
X133.048 Y28.625 Z24.132
X133.063 Y28.591 Z24.124
X133.061 Y28.553 Z24.117
X133.044 Y28.52 Z24.109
X133.015 Y28.496 Z24.101
X132.979 Y28.486 Z24.093
X132.942 Y28.492 Z24.086
X132.911 Y28.513 Z24.078
X132.891 Y28.545 Z24.07
X132.886 Y28.582 Z24.063
X132.897 Y28.618 Z24.055
X132.922 Y28.646 Z24.047
X132.956 Y28.662 Z24.039
X132.994 Z24.032
X133.028 Y28.647 Z24.024
X133.053 Y28.618 Z24.016
X133.064 Y28.583 Z24.009
X133.059 Y28.545 Z24.001
X133.039 Y28.513 Z23.993
X133.008 Y28.492 Z23.986
X132.971 Y28.486 Z23.978
X132.935 Y28.496 Z23.97
X132.906 Y28.519 Z23.962
X132.889 Y28.553 Z23.955
X132.887 Y28.59 Z23.947
X132.901 Y28.625 Z23.939
X132.929 Y28.651 Z23.932
X132.964 Y28.663 Z23.924
X133.001 Y28.66 Z23.916
X133.034 Y28.641 Z23.908
X133.056 Y28.611 Z23.901
X133.064 Y28.575 Z23.893
X133.056 Y28.538 Z23.885
X133.033 Y28.508 Z23.878
X133.001 Y28.49 Z23.87
X132.963 Y28.487 Z23.862
X132.928 Y28.5 Z23.855
X132.901 Y28.526 Z23.847
X132.887 Y28.561 Z23.839
X132.889 Y28.598 Z23.831
X132.906 Y28.631 Z23.824
X132.936 Y28.655 Z23.816
X132.972 Y28.664 Z23.808
X133.009 Y28.657 Z23.801
X133.04 Y28.636 Z23.793
X133.059 Y28.604 Z23.785
X133.064 Y28.567 Z23.777
X133.052 Y28.531 Z23.77
X133.027 Y28.503 Z23.762
X132.993 Y28.488 Z23.754
X132.955 Z23.747
X132.921 Y28.504 Z23.739
X132.897 Y28.533 Z23.731
X132.886 Y28.569 Z23.724
X132.892 Y28.606 Z23.716
X132.912 Y28.637 Z23.708
X132.943 Y28.658 Z23.7
X132.98 Y28.664 Z23.693
X133.016 Y28.654 Z23.685
X133.045 Y28.63 Z23.677
X133.061 Y28.596 Z23.67
X133.062 Y28.559 Z23.662
X133.048 Y28.524 Z23.654
X133.02 Y28.499 Z23.646
X132.985 Y28.487 Z23.639
X132.947 Y28.49 Z23.631
X132.915 Y28.509 Z23.623
X132.893 Y28.54 Z23.616
X132.886 Y28.577 Z23.608
X132.895 Y28.613 Z23.6
X132.918 Y28.643 Z23.593
X132.951 Y28.661 Z23.585
X132.988 Y28.663 Z23.577
X133.023 Y28.65 Z23.569
X133.05 Y28.623 Z23.562
X133.063 Y28.588 Z23.554
X133.061 Y28.551 Z23.546
X133.043 Y28.518 Z23.539
X133.013 Y28.495 Z23.531
X132.977 Y28.486 Z23.523
X132.94 Y28.493 Z23.515
X132.909 Y28.515 Z23.508
X132.89 Y28.547 Z23.5
X132.887 Y28.585 Z23.492
X132.898 Y28.62 Z23.485
X132.924 Y28.648 Z23.477
X132.959 Y28.662 Z23.469
X132.996 Y28.661 Z23.462
X133.03 Y28.645 Z23.454
X133.054 Y28.616 Z23.446
X133.064 Y28.58 Z23.438
X133.058 Y28.543 Z23.431
X133.037 Y28.512 Z23.423
X133.006 Y28.492 Z23.415
X132.969 Y28.486 Z23.408
X132.933 Y28.497 Z23.4
X132.904 Y28.521 Z23.392
X132.888 Y28.555 Z23.384
Y28.593 Z23.377
X132.903 Y28.627 Z23.369
X132.931 Y28.652 Z23.361
X132.966 Y28.663 Z23.354
X133.004 Y28.659 Z23.346
X133.036 Y28.64 Z23.338
X133.057 Y28.609 Z23.331
X133.064 Y28.572 Z23.323
X133.055 Y28.536 Z23.315
X133.031 Y28.506 Z23.307
X132.998 Y28.489 Z23.3
X132.961 Y28.487 Z23.292
X132.926 Y28.501 Z23.284
X132.9 Y28.528 Z23.277
X132.887 Y28.563 Z23.269
X132.89 Y28.6 Z23.261
X132.908 Y28.633 Z23.253
X132.938 Y28.656 Z23.246
X132.975 Y28.664 Z23.238
X133.011 Y28.656 Z23.23
X133.041 Y28.634 Z23.223
X133.06 Y28.601 Z23.215
X133.063 Y28.564 Z23.207
X133.051 Y28.529 Z23.2
X133.025 Y28.502 Z23.192
X132.99 Y28.487 Z23.184
X132.953 Y28.489 Z23.176
X132.919 Y28.506 Z23.169
X132.896 Y28.535 Z23.161
X132.886 Y28.571 Z23.153
X132.892 Y28.608 Z23.146
X132.913 Y28.639 Z23.138
X132.945 Y28.659 Z23.13
X132.983 Y28.664 Z23.122
X133.018 Y28.653 Z23.115
X133.047 Y28.628 Z23.107
X133.062 Y28.594 Z23.099
Y28.556 Z23.092
X133.046 Y28.522 Z23.084
X133.018 Y28.497 Z23.076
X132.982 Y28.486 Z23.069
X132.945 Y28.491 Z23.061
X132.913 Y28.511 Z23.053
X132.892 Y28.542 Z23.045
X132.886 Y28.579 Z23.038
X132.896 Y28.615 Z23.03
X132.92 Y28.644 Z23.022
X132.953 Y28.661 Z23.015
X132.991 Y28.663 Z23.007
X133.025 Y28.648 Z22.999
X133.051 Y28.621 Z22.991
X133.063 Y28.586 Z22.984
X133.06 Y28.548 Z22.976
X133.041 Y28.516 Z22.968
X133.011 Y28.494 Z22.961
X132.974 Y28.486 Z22.953
X132.938 Y28.494 Z22.945
X132.908 Y28.517 Z22.938
X132.89 Y28.55 Z22.93
X132.887 Y28.587 Z22.922
X132.9 Y28.622 Z22.914
X132.926 Y28.649 Z22.907
X132.961 Y28.663 Z22.899
X132.998 Y28.661 Z22.891
X133.032 Y28.644 Z22.884
X133.055 Y28.614 Z22.876
X133.064 Y28.578 Z22.868
X133.057 Y28.541 Z22.86
X133.036 Y28.51 Z22.853
X133.003 Y28.491 Z22.845
X132.966 Y28.487 Z22.837
X132.931 Y28.498 Z22.83
X132.903 Y28.523 Z22.822
X132.888 Y28.558 Z22.814
Y28.595 Z22.807
X132.904 Y28.629 Z22.799
X132.933 Y28.653 Z22.791
X132.969 Y28.664 Z22.783
X133.006 Y28.658 Z22.776
X133.038 Y28.638 Z22.768
X133.058 Y28.607 Z22.76
X133.064 Y28.57 Z22.753
X133.054 Y28.534 Z22.745
X133.03 Y28.505 Z22.737
X132.996 Y28.489 Z22.729
X132.958 Y28.488 Z22.722
X132.924 Y28.502 Z22.714
X132.898 Y28.53 Z22.706
X132.887 Y28.566 Z22.699
X132.891 Y28.603 Z22.691
X132.91 Y28.635 Z22.683
X132.94 Y28.657 Z22.676
X132.977 Y28.664 Z22.668
X133.013 Y28.655 Z22.66
X133.043 Y28.632 Z22.652
X133.061 Y28.599 Z22.645
X133.063 Y28.562 Z22.637
X133.05 Y28.527 Z22.629
X133.023 Y28.5 Z22.622
X132.988 Y28.487 Z22.614
X132.95 Y28.49 Z22.606
X132.917 Y28.507 Z22.598
X132.895 Y28.537 Z22.591
X132.886 Y28.574 Z22.583
X132.893 Y28.61 Z22.575
X132.915 Y28.641 Z22.568
X132.948 Y28.66 Z22.56
X132.985 Y28.663 Z22.552
X133.021 Y28.651 Z22.545
X133.048 Y28.626 Z22.537
X133.062 Y28.591 Z22.529
X133.061 Y28.554 Z22.521
X133.045 Y28.52 Z22.514
X133.016 Y28.496 Z22.506
X132.98 Y28.486 Z22.498
X132.943 Y28.492 Z22.491
X132.912 Y28.513 Z22.483
X132.892 Y28.544 Z22.475
X132.886 Y28.582 Z22.467
X132.897 Y28.618 Z22.46
X132.921 Y28.646 Z22.452
X132.955 Y28.662 Z22.444
X132.993 Z22.437
X133.027 Y28.647 Z22.429
X133.052 Y28.619 Z22.421
X133.064 Y28.583 Z22.414
X133.059 Y28.546 Z22.406
X133.04 Y28.514 Z22.398
X133.009 Y28.493 Z22.39
X132.972 Y28.486 Z22.383
X132.935 Y28.495 Z22.375
X132.906 Y28.519 Z22.367
X132.889 Y28.552 Z22.36
X132.887 Y28.59 Z22.352
X132.901 Y28.624 Z22.344
X132.928 Y28.651 Z22.336
X132.963 Y28.663 Z22.329
X133.001 Y28.66 Z22.321
X133.034 Y28.642 Z22.313
X133.056 Y28.612 Z22.306
X133.064 Y28.575 Z22.298
X133.056 Y28.539 Z22.29
X133.034 Y28.508 Z22.283
X133.001 Y28.49 Z22.275
X132.964 Y28.487 Z22.267
X132.928 Y28.499 Z22.259
X132.901 Y28.525 Z22.252
X132.887 Y28.56 Z22.244
X132.889 Y28.597 Z22.236
X132.906 Y28.631 Z22.229
X132.935 Y28.654 Z22.221
X132.971 Y28.664 Z22.213
X133.008 Y28.657 Z22.205
X133.039 Y28.636 Z22.198
X133.059 Y28.604 Z22.19
X133.064 Y28.567 Z22.182
X133.052 Y28.531 Z22.175
X133.028 Y28.503 Z22.167
X132.993 Y28.488 Z22.159
X132.956 Z22.152
X132.922 Y28.504 Z22.144
X132.897 Y28.532 Z22.136
X132.886 Y28.568 Z22.128
X132.891 Y28.605 Z22.121
X132.911 Y28.637 Z22.113
X132.942 Y28.658 Z22.105
X132.979 Y28.664 Z22.098
X133.016 Y28.654 Z22.09
X133.045 Y28.63 Z22.082
X133.061 Y28.597 Z22.074
X133.062 Y28.559 Z22.067
X133.048 Y28.525 Z22.059
X133.021 Y28.499 Z22.051
X132.985 Y28.487 Z22.044
X132.948 Y28.49 Z22.036
X132.916 Y28.509 Z22.028
X132.894 Y28.539 Z22.021
X132.886 Y28.576 Z22.013
X132.894 Y28.613 Z22.005
X132.917 Y28.642 Z21.997
X132.95 Y28.66 Z21.99
X132.987 Y28.663 Z21.982
X133.023 Y28.65 Z21.974
X133.049 Y28.624 Z21.967
X133.063 Y28.589 Z21.959
X133.061 Y28.551 Z21.951
X133.043 Y28.518 Z21.943
X133.014 Y28.495 Z21.936
X132.977 Y28.486 Z21.928
X132.941 Y28.493 Z21.92
X132.91 Y28.515 Z21.913
X132.891 Y28.547 Z21.905
X132.887 Y28.584 Z21.897
X132.898 Y28.62 Z21.89
X132.923 Y28.647 Z21.882
X132.958 Y28.662 Z21.874
X132.995 Z21.866
X133.029 Y28.645 Z21.859
X133.053 Y28.617 Z21.851
X133.064 Y28.581 Z21.843
X133.058 Y28.544 Z21.836
X133.038 Y28.512 Z21.828
X133.006 Y28.492 Z21.82
X132.969 Y28.486 Z21.813
G2 X132.981 Y28.664 I0.006 J0.089
X132.969 Y28.486 I-0.006 J-0.089
G1 X132.948 Y28.494
X132.932 Y28.511
X132.928 Y28.533
X132.975 Y28.575
G0 Z31.4
Y47.625
Z29.265
G1 Z27.9 F1600.
X132.959 Y47.686
X132.976 Y47.702
X132.998 Y47.708
X133.02 Y47.702
X133.048 Y47.676 Z27.892
X133.062 Y47.642 Z27.885
X133.061 Y47.604 Z27.877
X133.045 Y47.571 Z27.869
X133.017 Y47.546 Z27.861
X132.98 Y47.536 Z27.854
X132.943 Y47.542 Z27.846
X132.912 Y47.562 Z27.838
X132.892 Y47.594 Z27.831
X132.886 Y47.631 Z27.823
X132.897 Y47.667 Z27.815
X132.921 Y47.696 Z27.808
X132.955 Y47.712 Z27.8
X132.992 Z27.792
X133.027 Y47.697 Z27.784
X133.052 Y47.67 Z27.777
X133.063 Y47.634 Z27.769
X133.059 Y47.597 Z27.761
X133.04 Y47.564 Z27.754
X133.009 Y47.543 Z27.746
X132.972 Y47.536 Z27.738
X132.936 Y47.545 Z27.73
X132.907 Y47.568 Z27.723
X132.889 Y47.602 Z27.715
X132.887 Y47.639 Z27.707
X132.901 Y47.674 Z27.7
X132.928 Y47.7 Z27.692
X132.963 Y47.713 Z27.684
X133. Y47.71 Z27.677
X133.033 Y47.692 Z27.669
X133.056 Y47.662 Z27.661
X133.064 Y47.626 Z27.653
X133.056 Y47.589 Z27.646
X133.034 Y47.559 Z27.638
X133.002 Y47.54 Z27.63
X132.964 Y47.537 Z27.623
X132.929 Y47.549 Z27.615
X132.902 Y47.575 Z27.607
X132.887 Y47.609 Z27.599
X132.889 Y47.647 Z27.592
X132.906 Y47.68 Z27.584
X132.935 Y47.704 Z27.576
X132.971 Y47.714 Z27.569
X133.008 Y47.708 Z27.561
X133.039 Y47.687 Z27.553
X133.059 Y47.655 Z27.546
X133.064 Y47.618 Z27.538
X133.053 Y47.582 Z27.53
X133.028 Y47.554 Z27.522
X132.994 Y47.538 Z27.515
X132.956 Z27.507
X132.922 Y47.553 Z27.499
X132.897 Y47.582 Z27.492
X132.886 Y47.617 Z27.484
X132.891 Y47.655 Z27.476
X132.911 Y47.686 Z27.468
X132.942 Y47.707 Z27.461
X132.979 Y47.714 Z27.453
X133.015 Y47.704 Z27.445
X133.044 Y47.681 Z27.438
X133.061 Y47.647 Z27.43
X133.063 Y47.61 Z27.422
X133.049 Y47.575 Z27.415
X133.021 Y47.549 Z27.407
X132.986 Y47.537 Z27.399
X132.949 Y47.54 Z27.391
X132.916 Y47.558 Z27.384
X132.894 Y47.589 Z27.376
X132.886 Y47.625 Z27.368
X132.894 Y47.662 Z27.361
X132.917 Y47.692 Z27.353
X132.949 Y47.71 Z27.345
X132.987 Y47.713 Z27.337
X133.022 Y47.7 Z27.33
X133.049 Y47.674 Z27.322
X133.063 Y47.639 Z27.314
X133.061 Y47.602 Z27.307
X133.044 Y47.569 Z27.299
X133.014 Y47.545 Z27.291
X132.978 Y47.536 Z27.284
X132.941 Y47.543 Z27.276
X132.91 Y47.564 Z27.268
X132.891 Y47.596 Z27.26
X132.887 Y47.633 Z27.253
X132.898 Y47.669 Z27.245
X132.923 Y47.697 Z27.237
X132.957 Y47.712 Z27.23
X132.995 Z27.222
X133.029 Y47.696 Z27.214
X133.053 Y47.667 Z27.206
X133.064 Y47.631 Z27.199
X133.058 Y47.594 Z27.191
X133.038 Y47.563 Z27.183
X133.007 Y47.542 Z27.176
X132.97 Y47.536 Z27.168
X132.934 Y47.546 Z27.16
X132.905 Y47.57 Z27.153
X132.889 Y47.604 Z27.145
X132.888 Y47.641 Z27.137
X132.902 Y47.676 Z27.129
X132.93 Y47.701 Z27.122
X132.965 Y47.713 Z27.114
X133.003 Y47.71 Z27.106
X133.035 Y47.691 Z27.099
X133.057 Y47.66 Z27.091
X133.064 Y47.623 Z27.083
X133.055 Y47.587 Z27.075
X133.032 Y47.557 Z27.068
X132.999 Y47.539 Z27.06
X132.962 Y47.537 Z27.052
X132.927 Y47.55 Z27.045
X132.9 Y47.577 Z27.037
X132.887 Y47.612 Z27.029
X132.889 Y47.649 Z27.022
X132.907 Y47.682 Z27.014
X132.937 Y47.705 Z27.006
X132.973 Y47.714 Z26.998
X133.01 Y47.707 Z26.991
X133.041 Y47.685 Z26.983
X133.06 Y47.653 Z26.975
X133.063 Y47.615 Z26.968
X133.052 Y47.58 Z26.96
X133.026 Y47.552 Z26.952
X132.992 Y47.538 Z26.944
X132.954 Y47.539 Z26.937
X132.92 Y47.555 Z26.929
X132.896 Y47.584 Z26.921
X132.886 Y47.62 Z26.914
X132.892 Y47.657 Z26.906
X132.913 Y47.688 Z26.898
X132.944 Y47.708 Z26.891
X132.981 Y47.714 Z26.883
X133.017 Y47.703 Z26.875
X133.046 Y47.679 Z26.867
X133.062 Y47.645 Z26.86
Y47.607 Z26.852
X133.047 Y47.573 Z26.844
X133.019 Y47.548 Z26.837
X132.984 Y47.537 Z26.829
X132.946 Y47.541 Z26.821
X132.914 Y47.56 Z26.813
X132.893 Y47.591 Z26.806
X132.886 Y47.628 Z26.798
X132.895 Y47.664 Z26.79
X132.919 Y47.694 Z26.783
X132.952 Y47.711 Z26.775
X132.989 Y47.713 Z26.767
X133.024 Y47.699 Z26.76
X133.05 Y47.672 Z26.752
X133.063 Y47.637 Z26.744
X133.06 Y47.6 Z26.736
X133.042 Y47.567 Z26.729
X133.012 Y47.544 Z26.721
X132.976 Y47.536 Z26.713
X132.939 Y47.544 Z26.706
X132.909 Y47.566 Z26.698
X132.89 Y47.599 Z26.69
X132.887 Y47.636 Z26.682
X132.899 Y47.671 Z26.675
X132.925 Y47.698 Z26.667
X132.96 Y47.713 Z26.659
X132.997 Y47.711 Z26.652
X133.031 Y47.694 Z26.644
X133.054 Y47.665 Z26.636
X133.064 Y47.629 Z26.629
X133.058 Y47.592 Z26.621
X133.037 Y47.561 Z26.613
X133.005 Y47.541 Z26.605
X132.967 Y47.536 Z26.598
X132.932 Y47.547 Z26.59
X132.903 Y47.572 Z26.582
X132.888 Y47.606 Z26.575
Y47.644 Z26.567
X132.904 Y47.678 Z26.559
X132.932 Y47.703 Z26.552
X132.968 Y47.714 Z26.544
X133.005 Y47.709 Z26.536
X133.037 Y47.689 Z26.528
X133.058 Y47.658 Z26.521
X133.064 Y47.621 Z26.513
X133.054 Y47.585 Z26.505
X133.031 Y47.556 Z26.498
X132.997 Y47.539 Z26.49
X132.959 Y47.537 Z26.482
X132.925 Y47.552 Z26.474
X132.899 Y47.579 Z26.467
X132.887 Y47.614 Z26.459
X132.89 Y47.652 Z26.451
X132.909 Y47.684 Z26.444
X132.939 Y47.706 Z26.436
X132.976 Y47.714 Z26.428
X133.012 Y47.706 Z26.421
X133.042 Y47.683 Z26.413
X133.06 Y47.65 Z26.405
X133.063 Y47.613 Z26.397
X133.05 Y47.578 Z26.39
X133.024 Y47.551 Z26.382
X132.989 Y47.537 Z26.374
X132.952 Y47.539 Z26.367
X132.918 Y47.556 Z26.359
X132.895 Y47.586 Z26.351
X132.886 Y47.622 Z26.343
X132.893 Y47.659 Z26.336
X132.914 Y47.69 Z26.328
X132.947 Y47.709 Z26.32
X132.984 Y47.713 Z26.313
X133.019 Y47.702 Z26.305
X133.047 Y47.677 Z26.297
X133.062 Y47.642 Z26.29
Y47.605 Z26.282
X133.046 Y47.571 Z26.274
X133.017 Y47.547 Z26.266
X132.981 Y47.536 Z26.259
X132.944 Y47.542 Z26.251
X132.912 Y47.562 Z26.243
X132.892 Y47.593 Z26.236
X132.886 Y47.63 Z26.228
X132.896 Y47.666 Z26.22
X132.92 Y47.695 Z26.212
X132.954 Y47.711 Z26.205
X132.992 Y47.712 Z26.197
X133.026 Y47.698 Z26.189
X133.052 Y47.67 Z26.182
X133.063 Y47.634 Z26.174
X133.059 Y47.597 Z26.166
X133.04 Y47.565 Z26.159
X133.01 Y47.543 Z26.151
X132.973 Y47.536 Z26.143
X132.937 Y47.545 Z26.135
X132.907 Y47.568 Z26.128
X132.889 Y47.601 Z26.12
X132.887 Y47.638 Z26.112
X132.9 Y47.673 Z26.105
X132.927 Y47.7 Z26.097
X132.962 Y47.713 Z26.089
X133. Y47.71 Z26.081
X133.033 Y47.693 Z26.074
X133.055 Y47.663 Z26.066
X133.064 Y47.626 Z26.058
X133.057 Y47.59 Z26.051
X133.035 Y47.559 Z26.043
X133.002 Y47.54 Z26.035
X132.965 Y47.537 Z26.028
X132.929 Y47.549 Z26.02
X132.902 Y47.574 Z26.012
X132.888 Y47.609 Z26.004
X132.889 Y47.646 Z25.997
X132.905 Y47.68 Z25.989
X132.934 Y47.704 Z25.981
X132.97 Y47.714 Z25.974
X133.007 Y47.708 Z25.966
X133.038 Y47.687 Z25.958
X133.059 Y47.656 Z25.95
X133.064 Y47.618 Z25.943
X133.053 Y47.582 Z25.935
X133.029 Y47.554 Z25.927
X132.995 Y47.538 Z25.92
X132.957 Z25.912
X132.923 Y47.553 Z25.904
X132.898 Y47.581 Z25.897
X132.886 Y47.617 Z25.889
X132.891 Y47.654 Z25.881
X132.91 Y47.686 Z25.873
X132.941 Y47.707 Z25.866
X132.978 Y47.714 Z25.858
X133.015 Y47.705 Z25.85
X133.044 Y47.681 Z25.843
X133.061 Y47.648 Z25.835
X133.063 Y47.61 Z25.827
X133.049 Y47.576 Z25.819
X133.022 Y47.549 Z25.812
X132.987 Y47.537 Z25.804
X132.949 Y47.54 Z25.796
X132.916 Y47.558 Z25.789
X132.894 Y47.588 Z25.781
X132.886 Y47.625 Z25.773
X132.894 Y47.661 Z25.766
X132.916 Y47.692 Z25.758
X132.949 Y47.71 Z25.75
X132.986 Y47.713 Z25.742
X133.022 Y47.701 Z25.735
X133.049 Y47.675 Z25.727
X133.063 Y47.64 Z25.719
X133.061 Y47.603 Z25.712
X133.044 Y47.569 Z25.704
X133.015 Y47.546 Z25.696
X132.979 Y47.536 Z25.688
X132.942 Y47.543 Z25.681
X132.911 Y47.564 Z25.673
X132.891 Y47.596 Z25.665
X132.886 Y47.633 Z25.658
X132.898 Y47.669 Z25.65
X132.922 Y47.697 Z25.642
X132.957 Y47.712 Z25.635
X132.994 Z25.627
X133.028 Y47.696 Z25.619
X133.053 Y47.668 Z25.611
X133.064 Y47.632 Z25.604
X133.059 Y47.595 Z25.596
X133.039 Y47.563 Z25.588
X133.008 Y47.542 Z25.581
X132.971 Y47.536 Z25.573
X132.934 Y47.546 Z25.565
X132.905 Y47.57 Z25.557
X132.889 Y47.603 Z25.55
X132.888 Y47.641 Z25.542
X132.902 Y47.675 Z25.534
X132.929 Y47.701 Z25.527
X132.965 Y47.713 Z25.519
X133.002 Y47.71 Z25.511
X133.034 Y47.691 Z25.504
X133.056 Y47.661 Z25.496
X133.064 Y47.624 Z25.488
X133.056 Y47.587 Z25.48
X133.033 Y47.558 Z25.473
X133. Y47.54 Z25.465
X132.963 Y47.537 Z25.457
X132.927 Y47.55 Z25.45
X132.901 Y47.576 Z25.442
X132.887 Y47.611 Z25.434
X132.889 Y47.649 Z25.426
X132.907 Y47.682 Z25.419
X132.936 Y47.705 Z25.411
X132.973 Y47.714 Z25.403
X133.009 Y47.707 Z25.396
X133.04 Y47.685 Z25.388
X133.059 Y47.653 Z25.38
X133.063 Y47.616 Z25.373
X133.052 Y47.58 Z25.365
X133.027 Y47.553 Z25.357
X132.992 Y47.538 Z25.349
X132.955 Z25.342
X132.921 Y47.555 Z25.334
X132.897 Y47.583 Z25.326
X132.886 Y47.619 Z25.319
X132.892 Y47.656 Z25.311
X132.912 Y47.688 Z25.303
X132.944 Y47.708 Z25.295
X132.981 Y47.714 Z25.288
X133.017 Y47.703 Z25.28
X133.045 Y47.679 Z25.272
X133.062 Y47.645 Z25.265
Y47.608 Z25.257
X133.047 Y47.574 Z25.249
X133.02 Y47.548 Z25.242
X132.984 Y47.537 Z25.234
X132.947 Y47.541 Z25.226
X132.915 Y47.56 Z25.218
X132.893 Y47.59 Z25.211
X132.886 Y47.627 Z25.203
X132.895 Y47.664 Z25.195
X132.918 Y47.693 Z25.188
X132.951 Y47.711 Z25.18
X132.989 Y47.713 Z25.172
X133.024 Y47.699 Z25.164
X133.05 Y47.673 Z25.157
X133.063 Y47.638 Z25.149
X133.06 Y47.6 Z25.141
X133.043 Y47.567 Z25.134
X133.013 Y47.544 Z25.126
X132.976 Y47.536 Z25.118
X132.939 Y47.544 Z25.111
X132.909 Y47.565 Z25.103
X132.89 Y47.598 Z25.095
X132.887 Y47.635 Z25.087
X132.899 Y47.671 Z25.08
X132.924 Y47.698 Z25.072
X132.959 Y47.712 Z25.064
X132.997 Y47.711 Z25.057
X133.03 Y47.695 Z25.049
X133.054 Y47.666 Z25.041
X133.064 Y47.63 Z25.033
X133.058 Y47.593 Z25.026
X133.037 Y47.561 Z25.018
X133.005 Y47.541 Z25.01
X132.968 Y47.536 Z25.003
X132.932 Y47.547 Z24.995
X132.904 Y47.572 Z24.987
X132.888 Y47.606 Z24.98
Y47.643 Z24.972
X132.903 Y47.678 Z24.964
X132.931 Y47.702 Z24.956
X132.967 Y47.714 Z24.949
X133.004 Y47.709 Z24.941
X133.036 Y47.689 Z24.933
X133.057 Y47.658 Z24.926
X133.064 Y47.621 Z24.918
X133.054 Y47.585 Z24.91
X133.031 Y47.556 Z24.902
X132.998 Y47.539 Z24.895
X132.96 Y47.537 Z24.887
X132.925 Y47.551 Z24.879
X132.899 Y47.578 Z24.872
X132.887 Y47.614 Z24.864
X132.89 Y47.651 Z24.856
X132.908 Y47.684 Z24.849
X132.938 Y47.706 Z24.841
X132.975 Y47.714 Z24.833
X133.012 Y47.706 Z24.825
X133.042 Y47.684 Z24.818
X133.06 Y47.651 Z24.81
X133.063 Y47.613 Z24.802
X133.051 Y47.578 Z24.795
X133.025 Y47.551 Z24.787
X132.99 Y47.537 Z24.779
X132.952 Y47.539 Z24.771
X132.919 Y47.556 Z24.764
X132.895 Y47.585 Z24.756
X132.886 Y47.622 Z24.748
X132.893 Y47.659 Z24.741
X132.914 Y47.69 Z24.733
X132.946 Y47.709 Z24.725
X132.983 Y47.714 Z24.718
X133.019 Y47.702 Z24.71
X133.047 Y47.677 Z24.702
X133.062 Y47.643 Z24.694
Y47.606 Z24.687
X133.046 Y47.572 Z24.679
X133.018 Y47.547 Z24.671
X132.982 Y47.536 Z24.664
X132.945 Y47.541 Z24.656
X132.913 Y47.561 Z24.648
X132.892 Y47.593 Z24.64
X132.886 Y47.63 Z24.633
X132.896 Y47.666 Z24.625
X132.92 Y47.695 Z24.617
X132.954 Y47.711 Z24.61
X132.991 Y47.712 Z24.602
X133.026 Y47.698 Z24.594
X133.051 Y47.671 Z24.587
X133.063 Y47.635 Z24.579
X133.06 Y47.598 Z24.571
X133.041 Y47.565 Z24.563
X133.01 Y47.543 Z24.556
X132.974 Y47.536 Z24.548
X132.937 Y47.545 Z24.54
X132.907 Y47.567 Z24.533
X132.89 Y47.6 Z24.525
X132.887 Y47.638 Z24.517
X132.9 Y47.673 Z24.509
X132.927 Y47.7 Z24.502
X132.962 Y47.713 Z24.494
X132.999 Y47.711 Z24.486
X133.032 Y47.693 Z24.479
X133.055 Y47.664 Z24.471
X133.064 Y47.627 Z24.463
X133.057 Y47.59 Z24.456
X133.035 Y47.56 Z24.448
X133.003 Y47.541 Z24.44
X132.966 Y47.537 Z24.432
X132.93 Y47.548 Z24.425
X132.902 Y47.574 Z24.417
X132.888 Y47.608 Z24.409
X132.889 Y47.646 Z24.402
X132.905 Y47.679 Z24.394
X132.933 Y47.704 Z24.386
X132.97 Y47.714 Z24.378
X133.007 Y47.708 Z24.371
X133.038 Y47.688 Z24.363
X133.058 Y47.656 Z24.355
X133.064 Y47.619 Z24.348
X133.053 Y47.583 Z24.34
X133.029 Y47.554 Z24.332
X132.995 Y47.538 Z24.325
X132.958 Z24.317
X132.923 Y47.553 Z24.309
X132.898 Y47.58 Z24.301
X132.887 Y47.616 Z24.294
X132.891 Y47.653 Z24.286
X132.91 Y47.686 Z24.278
X132.941 Y47.707 Z24.271
X132.978 Y47.714 Z24.263
X133.014 Y47.705 Z24.255
X133.043 Y47.682 Z24.247
X133.061 Y47.648 Z24.24
X133.063 Y47.611 Z24.232
X133.049 Y47.576 Z24.224
X133.022 Y47.55 Z24.217
X132.987 Y47.537 Z24.209
X132.95 Y47.54 Z24.201
X132.917 Y47.558 Z24.194
X132.894 Y47.588 Z24.186
X132.886 Y47.624 Z24.178
X132.894 Y47.661 Z24.17
X132.916 Y47.691 Z24.163
X132.948 Y47.71 Z24.155
X132.986 Y47.713 Z24.147
X133.021 Y47.701 Z24.14
X133.048 Y47.675 Z24.132
X133.063 Y47.641 Z24.124
X133.061 Y47.603 Z24.117
X133.044 Y47.57 Z24.109
X133.015 Y47.546 Z24.101
X132.979 Y47.536 Z24.093
X132.942 Y47.542 Z24.086
X132.911 Y47.563 Z24.078
X132.891 Y47.595 Z24.07
X132.886 Y47.632 Z24.063
X132.897 Y47.668 Z24.055
X132.922 Y47.696 Z24.047
X132.956 Y47.712 Z24.039
X132.994 Z24.032
X133.028 Y47.697 Z24.024
X133.053 Y47.668 Z24.016
X133.064 Y47.633 Z24.009
X133.059 Y47.595 Z24.001
X133.039 Y47.563 Z23.993
X133.008 Y47.542 Z23.986
X132.971 Y47.536 Z23.978
X132.935 Y47.546 Z23.97
X132.906 Y47.569 Z23.962
X132.889 Y47.603 Z23.955
X132.887 Y47.64 Z23.947
X132.901 Y47.675 Z23.939
X132.929 Y47.701 Z23.932
X132.964 Y47.713 Z23.924
X133.001 Y47.71 Z23.916
X133.034 Y47.691 Z23.908
X133.056 Y47.661 Z23.901
X133.064 Y47.625 Z23.893
X133.056 Y47.588 Z23.885
X133.033 Y47.558 Z23.878
X133.001 Y47.54 Z23.87
X132.963 Y47.537 Z23.862
X132.928 Y47.55 Z23.855
X132.901 Y47.576 Z23.847
X132.887 Y47.611 Z23.839
X132.889 Y47.648 Z23.831
X132.906 Y47.681 Z23.824
X132.936 Y47.705 Z23.816
X132.972 Y47.714 Z23.808
X133.009 Y47.707 Z23.801
X133.04 Y47.686 Z23.793
X133.059 Y47.654 Z23.785
X133.064 Y47.617 Z23.777
X133.052 Y47.581 Z23.77
X133.027 Y47.553 Z23.762
X132.993 Y47.538 Z23.754
X132.955 Z23.747
X132.921 Y47.554 Z23.739
X132.897 Y47.583 Z23.731
X132.886 Y47.619 Z23.724
X132.892 Y47.656 Z23.716
X132.912 Y47.687 Z23.708
X132.943 Y47.708 Z23.7
X132.98 Y47.714 Z23.693
X133.016 Y47.704 Z23.685
X133.045 Y47.68 Z23.677
X133.061 Y47.646 Z23.67
X133.062 Y47.609 Z23.662
X133.048 Y47.574 Z23.654
X133.02 Y47.549 Z23.646
X132.985 Y47.537 Z23.639
X132.947 Y47.54 Z23.631
X132.915 Y47.559 Z23.623
X132.893 Y47.59 Z23.616
X132.886 Y47.627 Z23.608
X132.895 Y47.663 Z23.6
X132.918 Y47.693 Z23.593
X132.951 Y47.711 Z23.585
X132.988 Y47.713 Z23.577
X133.023 Y47.7 Z23.569
X133.05 Y47.673 Z23.562
X133.063 Y47.638 Z23.554
X133.061 Y47.601 Z23.546
X133.043 Y47.568 Z23.539
X133.013 Y47.545 Z23.531
X132.977 Y47.536 Z23.523
X132.94 Y47.543 Z23.515
X132.909 Y47.565 Z23.508
X132.89 Y47.597 Z23.5
X132.887 Y47.635 Z23.492
X132.898 Y47.67 Z23.485
X132.924 Y47.698 Z23.477
X132.959 Y47.712 Z23.469
X132.996 Y47.711 Z23.462
X133.03 Y47.695 Z23.454
X133.054 Y47.666 Z23.446
X133.064 Y47.63 Z23.438
X133.058 Y47.593 Z23.431
X133.037 Y47.562 Z23.423
X133.006 Y47.542 Z23.415
X132.969 Y47.536 Z23.408
X132.933 Y47.547 Z23.4
X132.904 Y47.571 Z23.392
X132.888 Y47.605 Z23.384
Y47.643 Z23.377
X132.903 Y47.677 Z23.369
X132.931 Y47.702 Z23.361
X132.966 Y47.713 Z23.354
X133.004 Y47.709 Z23.346
X133.036 Y47.69 Z23.338
X133.057 Y47.659 Z23.331
X133.064 Y47.622 Z23.323
X133.055 Y47.586 Z23.315
X133.031 Y47.556 Z23.307
X132.998 Y47.539 Z23.3
X132.961 Y47.537 Z23.292
X132.926 Y47.551 Z23.284
X132.9 Y47.578 Z23.277
X132.887 Y47.613 Z23.269
X132.89 Y47.65 Z23.261
X132.908 Y47.683 Z23.253
X132.938 Y47.706 Z23.246
X132.975 Y47.714 Z23.238
X133.011 Y47.706 Z23.23
X133.041 Y47.684 Z23.223
X133.06 Y47.651 Z23.215
X133.063 Y47.614 Z23.207
X133.051 Y47.579 Z23.2
X133.025 Y47.552 Z23.192
X132.99 Y47.537 Z23.184
X132.953 Y47.539 Z23.176
X132.919 Y47.556 Z23.169
X132.896 Y47.585 Z23.161
X132.886 Y47.621 Z23.153
X132.892 Y47.658 Z23.146
X132.913 Y47.689 Z23.138
X132.945 Y47.709 Z23.13
X132.983 Y47.714 Z23.122
X133.018 Y47.703 Z23.115
X133.047 Y47.678 Z23.107
X133.062 Y47.644 Z23.099
Y47.606 Z23.092
X133.046 Y47.572 Z23.084
X133.018 Y47.547 Z23.076
X132.982 Y47.536 Z23.069
X132.945 Y47.541 Z23.061
X132.913 Y47.561 Z23.053
X132.892 Y47.592 Z23.045
X132.886 Y47.629 Z23.038
X132.896 Y47.665 Z23.03
X132.92 Y47.694 Z23.022
X132.953 Y47.711 Z23.015
X132.991 Y47.713 Z23.007
X133.025 Y47.698 Z22.999
X133.051 Y47.671 Z22.991
X133.063 Y47.636 Z22.984
X133.06 Y47.598 Z22.976
X133.041 Y47.566 Z22.968
X133.011 Y47.544 Z22.961
X132.974 Y47.536 Z22.953
X132.938 Y47.544 Z22.945
X132.908 Y47.567 Z22.938
X132.89 Y47.6 Z22.93
X132.887 Y47.637 Z22.922
X132.9 Y47.672 Z22.914
X132.926 Y47.699 Z22.907
X132.961 Y47.713 Z22.899
X132.998 Y47.711 Z22.891
X133.032 Y47.694 Z22.884
X133.055 Y47.664 Z22.876
X133.064 Y47.628 Z22.868
X133.057 Y47.591 Z22.86
X133.036 Y47.56 Z22.853
X133.003 Y47.541 Z22.845
X132.966 Y47.537 Z22.837
X132.931 Y47.548 Z22.83
X132.903 Y47.573 Z22.822
X132.888 Y47.608 Z22.814
Y47.645 Z22.807
X132.904 Y47.679 Z22.799
X132.933 Y47.703 Z22.791
X132.969 Y47.714 Z22.783
X133.006 Y47.708 Z22.776
X133.038 Y47.688 Z22.768
X133.058 Y47.657 Z22.76
X133.064 Y47.62 Z22.753
X133.054 Y47.584 Z22.745
X133.03 Y47.555 Z22.737
X132.996 Y47.539 Z22.729
X132.958 Y47.538 Z22.722
X132.924 Y47.552 Z22.714
X132.898 Y47.58 Z22.706
X132.887 Y47.616 Z22.699
X132.891 Y47.653 Z22.691
X132.91 Y47.685 Z22.683
X132.94 Y47.707 Z22.676
X132.977 Y47.714 Z22.668
X133.013 Y47.705 Z22.66
X133.043 Y47.682 Z22.652
X133.061 Y47.649 Z22.645
X133.063 Y47.612 Z22.637
X133.05 Y47.577 Z22.629
X133.023 Y47.55 Z22.622
X132.988 Y47.537 Z22.614
X132.95 Y47.54 Z22.606
X132.917 Y47.557 Z22.598
X132.895 Y47.587 Z22.591
X132.886 Y47.624 Z22.583
X132.893 Y47.66 Z22.575
X132.915 Y47.691 Z22.568
X132.948 Y47.71 Z22.56
X132.985 Y47.713 Z22.552
X133.021 Y47.701 Z22.545
X133.048 Y47.676 Z22.537
X133.062 Y47.641 Z22.529
X133.061 Y47.604 Z22.521
X133.045 Y47.57 Z22.514
X133.016 Y47.546 Z22.506
X132.98 Y47.536 Z22.498
X132.943 Y47.542 Z22.491
X132.912 Y47.563 Z22.483
X132.892 Y47.594 Z22.475
X132.886 Y47.632 Z22.467
X132.897 Y47.668 Z22.46
X132.921 Y47.696 Z22.452
X132.955 Y47.712 Z22.444
X132.993 Z22.437
X133.027 Y47.697 Z22.429
X133.052 Y47.669 Z22.421
X133.064 Y47.633 Z22.414
X133.059 Y47.596 Z22.406
X133.04 Y47.564 Z22.398
X133.009 Y47.543 Z22.39
X132.972 Y47.536 Z22.383
X132.935 Y47.545 Z22.375
X132.906 Y47.569 Z22.367
X132.889 Y47.602 Z22.36
X132.887 Y47.64 Z22.352
X132.901 Y47.674 Z22.344
X132.928 Y47.701 Z22.336
X132.963 Y47.713 Z22.329
X133.001 Y47.71 Z22.321
X133.034 Y47.692 Z22.313
X133.056 Y47.662 Z22.306
X133.064 Y47.625 Z22.298
X133.056 Y47.589 Z22.29
X133.034 Y47.558 Z22.283
X133.001 Y47.54 Z22.275
X132.964 Y47.537 Z22.267
X132.928 Y47.549 Z22.259
X132.901 Y47.575 Z22.252
X132.887 Y47.61 Z22.244
X132.889 Y47.647 Z22.236
X132.906 Y47.681 Z22.229
X132.935 Y47.704 Z22.221
X132.971 Y47.714 Z22.213
X133.008 Y47.707 Z22.205
X133.039 Y47.686 Z22.198
X133.059 Y47.654 Z22.19
X133.064 Y47.617 Z22.182
X133.052 Y47.581 Z22.175
X133.028 Y47.553 Z22.167
X132.993 Y47.538 Z22.159
X132.956 Z22.152
X132.922 Y47.554 Z22.144
X132.897 Y47.582 Z22.136
X132.886 Y47.618 Z22.128
X132.891 Y47.655 Z22.121
X132.911 Y47.687 Z22.113
X132.942 Y47.708 Z22.105
X132.979 Y47.714 Z22.098
X133.016 Y47.704 Z22.09
X133.045 Y47.68 Z22.082
X133.061 Y47.647 Z22.074
X133.062 Y47.609 Z22.067
X133.048 Y47.575 Z22.059
X133.021 Y47.549 Z22.051
X132.985 Y47.537 Z22.044
X132.948 Y47.54 Z22.036
X132.916 Y47.559 Z22.028
X132.894 Y47.589 Z22.021
X132.886 Y47.626 Z22.013
X132.894 Y47.663 Z22.005
X132.917 Y47.692 Z21.997
X132.95 Y47.71 Z21.99
X132.987 Y47.713 Z21.982
X133.023 Y47.7 Z21.974
X133.049 Y47.674 Z21.967
X133.063 Y47.639 Z21.959
X133.061 Y47.601 Z21.951
X133.043 Y47.568 Z21.943
X133.014 Y47.545 Z21.936
X132.977 Y47.536 Z21.928
X132.941 Y47.543 Z21.92
X132.91 Y47.565 Z21.913
X132.891 Y47.597 Z21.905
X132.887 Y47.634 Z21.897
X132.898 Y47.67 Z21.89
X132.923 Y47.697 Z21.882
X132.958 Y47.712 Z21.874
X132.995 Z21.866
X133.029 Y47.695 Z21.859
X133.053 Y47.667 Z21.851
X133.064 Y47.631 Z21.843
X133.058 Y47.594 Z21.836
X133.038 Y47.562 Z21.828
X133.006 Y47.542 Z21.82
X132.969 Y47.536 Z21.813
G2 X132.981 Y47.714 I0.006 J0.089
X132.969 Y47.536 I-0.006 J-0.089
G1 X132.948 Y47.544
X132.932 Y47.561
X132.928 Y47.583
X132.975 Y47.625
G0 Z31.4
Y66.675
Z29.265
G1 Z27.9 F1600.
X132.959 Y66.736
X132.976 Y66.752
X132.998 Y66.758
X133.02 Y66.752
X133.048 Y66.726 Z27.892
X133.062 Y66.692 Z27.885
X133.061 Y66.654 Z27.877
X133.045 Y66.621 Z27.869
X133.017 Y66.596 Z27.861
X132.98 Y66.586 Z27.854
X132.943 Y66.592 Z27.846
X132.912 Y66.612 Z27.838
X132.892 Y66.644 Z27.831
X132.886 Y66.681 Z27.823
X132.897 Y66.717 Z27.815
X132.921 Y66.746 Z27.808
X132.955 Y66.762 Z27.8
X132.992 Z27.792
X133.027 Y66.747 Z27.784
X133.052 Y66.72 Z27.777
X133.063 Y66.684 Z27.769
X133.059 Y66.647 Z27.761
X133.04 Y66.614 Z27.754
X133.009 Y66.593 Z27.746
X132.972 Y66.586 Z27.738
X132.936 Y66.595 Z27.73
X132.907 Y66.618 Z27.723
X132.889 Y66.652 Z27.715
X132.887 Y66.689 Z27.707
X132.901 Y66.724 Z27.7
X132.928 Y66.75 Z27.692
X132.963 Y66.763 Z27.684
X133. Y66.76 Z27.677
X133.033 Y66.742 Z27.669
X133.056 Y66.712 Z27.661
X133.064 Y66.676 Z27.653
X133.056 Y66.639 Z27.646
X133.034 Y66.609 Z27.638
X133.002 Y66.59 Z27.63
X132.964 Y66.587 Z27.623
X132.929 Y66.599 Z27.615
X132.902 Y66.625 Z27.607
X132.887 Y66.659 Z27.599
X132.889 Y66.697 Z27.592
X132.906 Y66.73 Z27.584
X132.935 Y66.754 Z27.576
X132.971 Y66.764 Z27.569
X133.008 Y66.758 Z27.561
X133.039 Y66.737 Z27.553
X133.059 Y66.705 Z27.546
X133.064 Y66.668 Z27.538
X133.053 Y66.632 Z27.53
X133.028 Y66.604 Z27.522
X132.994 Y66.588 Z27.515
X132.956 Z27.507
X132.922 Y66.603 Z27.499
X132.897 Y66.632 Z27.492
X132.886 Y66.667 Z27.484
X132.891 Y66.705 Z27.476
X132.911 Y66.736 Z27.468
X132.942 Y66.757 Z27.461
X132.979 Y66.764 Z27.453
X133.015 Y66.754 Z27.445
X133.044 Y66.731 Z27.438
X133.061 Y66.697 Z27.43
X133.063 Y66.66 Z27.422
X133.049 Y66.625 Z27.415
X133.021 Y66.599 Z27.407
X132.986 Y66.587 Z27.399
X132.949 Y66.59 Z27.391
X132.916 Y66.609 Z27.384
X132.894 Y66.639 Z27.376
X132.886 Y66.675 Z27.368
X132.894 Y66.712 Z27.361
X132.917 Y66.742 Z27.353
X132.949 Y66.76 Z27.345
X132.987 Y66.763 Z27.337
X133.022 Y66.75 Z27.33
X133.049 Y66.724 Z27.322
X133.063 Y66.689 Z27.314
X133.061 Y66.652 Z27.307
X133.044 Y66.619 Z27.299
X133.014 Y66.595 Z27.291
X132.978 Y66.586 Z27.284
X132.941 Y66.593 Z27.276
X132.91 Y66.614 Z27.268
X132.891 Y66.646 Z27.26
X132.887 Y66.683 Z27.253
X132.898 Y66.719 Z27.245
X132.923 Y66.747 Z27.237
X132.957 Y66.762 Z27.23
X132.995 Z27.222
X133.029 Y66.746 Z27.214
X133.053 Y66.717 Z27.206
X133.064 Y66.681 Z27.199
X133.058 Y66.644 Z27.191
X133.038 Y66.613 Z27.183
X133.007 Y66.592 Z27.176
X132.97 Y66.586 Z27.168
X132.934 Y66.596 Z27.16
X132.905 Y66.62 Z27.153
X132.889 Y66.654 Z27.145
X132.888 Y66.691 Z27.137
X132.902 Y66.726 Z27.129
X132.93 Y66.751 Z27.122
X132.965 Y66.763 Z27.114
X133.003 Y66.76 Z27.106
X133.035 Y66.741 Z27.099
X133.057 Y66.71 Z27.091
X133.064 Y66.673 Z27.083
X133.055 Y66.637 Z27.075
X133.032 Y66.607 Z27.068
X132.999 Y66.59 Z27.06
X132.962 Y66.587 Z27.052
X132.927 Y66.6 Z27.045
X132.9 Y66.627 Z27.037
X132.887 Y66.662 Z27.029
X132.889 Y66.699 Z27.022
X132.907 Y66.732 Z27.014
X132.937 Y66.755 Z27.006
X132.973 Y66.764 Z26.998
X133.01 Y66.757 Z26.991
X133.041 Y66.735 Z26.983
X133.06 Y66.703 Z26.975
X133.063 Y66.665 Z26.968
X133.052 Y66.63 Z26.96
X133.026 Y66.602 Z26.952
X132.992 Y66.588 Z26.944
X132.954 Y66.589 Z26.937
X132.92 Y66.605 Z26.929
X132.896 Y66.634 Z26.921
X132.886 Y66.67 Z26.914
X132.892 Y66.707 Z26.906
X132.913 Y66.738 Z26.898
X132.944 Y66.758 Z26.891
X132.981 Y66.764 Z26.883
X133.017 Y66.753 Z26.875
X133.046 Y66.729 Z26.867
X133.062 Y66.695 Z26.86
Y66.657 Z26.852
X133.047 Y66.623 Z26.844
X133.019 Y66.598 Z26.837
X132.984 Y66.587 Z26.829
X132.946 Y66.591 Z26.821
X132.914 Y66.61 Z26.813
X132.893 Y66.641 Z26.806
X132.886 Y66.678 Z26.798
X132.895 Y66.714 Z26.79
X132.919 Y66.744 Z26.783
X132.952 Y66.761 Z26.775
X132.989 Y66.763 Z26.767
X133.024 Y66.749 Z26.76
X133.05 Y66.722 Z26.752
X133.063 Y66.687 Z26.744
X133.06 Y66.65 Z26.736
X133.042 Y66.617 Z26.729
X133.012 Y66.594 Z26.721
X132.976 Y66.586 Z26.713
X132.939 Y66.594 Z26.706
X132.909 Y66.616 Z26.698
X132.89 Y66.649 Z26.69
X132.887 Y66.686 Z26.682
X132.899 Y66.721 Z26.675
X132.925 Y66.748 Z26.667
X132.96 Y66.763 Z26.659
X132.997 Y66.761 Z26.652
X133.031 Y66.744 Z26.644
X133.054 Y66.715 Z26.636
X133.064 Y66.679 Z26.629
X133.058 Y66.642 Z26.621
X133.037 Y66.611 Z26.613
X133.005 Y66.591 Z26.605
X132.967 Y66.586 Z26.598
X132.932 Y66.597 Z26.59
X132.903 Y66.622 Z26.582
X132.888 Y66.656 Z26.575
Y66.694 Z26.567
X132.904 Y66.728 Z26.559
X132.932 Y66.753 Z26.552
X132.968 Y66.764 Z26.544
X133.005 Y66.759 Z26.536
X133.037 Y66.739 Z26.528
X133.058 Y66.708 Z26.521
X133.064 Y66.671 Z26.513
X133.054 Y66.635 Z26.505
X133.031 Y66.606 Z26.498
X132.997 Y66.589 Z26.49
X132.959 Y66.587 Z26.482
X132.925 Y66.602 Z26.474
X132.899 Y66.629 Z26.467
X132.887 Y66.664 Z26.459
X132.89 Y66.702 Z26.451
X132.909 Y66.734 Z26.444
X132.939 Y66.756 Z26.436
X132.976 Y66.764 Z26.428
X133.012 Y66.756 Z26.421
X133.042 Y66.733 Z26.413
X133.06 Y66.7 Z26.405
X133.063 Y66.663 Z26.397
X133.05 Y66.628 Z26.39
X133.024 Y66.601 Z26.382
X132.989 Y66.587 Z26.374
X132.952 Y66.589 Z26.367
X132.918 Y66.606 Z26.359
X132.895 Y66.636 Z26.351
X132.886 Y66.672 Z26.343
X132.893 Y66.709 Z26.336
X132.914 Y66.74 Z26.328
X132.947 Y66.759 Z26.32
X132.984 Y66.763 Z26.313
X133.019 Y66.752 Z26.305
X133.047 Y66.727 Z26.297
X133.062 Y66.692 Z26.29
Y66.655 Z26.282
X133.046 Y66.621 Z26.274
X133.017 Y66.597 Z26.266
X132.981 Y66.586 Z26.259
X132.944 Y66.592 Z26.251
X132.912 Y66.612 Z26.243
X132.892 Y66.643 Z26.236
X132.886 Y66.68 Z26.228
X132.896 Y66.716 Z26.22
X132.92 Y66.745 Z26.212
X132.954 Y66.761 Z26.205
X132.992 Y66.762 Z26.197
X133.026 Y66.748 Z26.189
X133.052 Y66.72 Z26.182
X133.063 Y66.684 Z26.174
X133.059 Y66.647 Z26.166
X133.04 Y66.615 Z26.159
X133.01 Y66.593 Z26.151
X132.973 Y66.586 Z26.143
X132.937 Y66.595 Z26.135
X132.907 Y66.618 Z26.128
X132.889 Y66.651 Z26.12
X132.887 Y66.688 Z26.112
X132.9 Y66.723 Z26.105
X132.927 Y66.75 Z26.097
X132.962 Y66.763 Z26.089
X133. Y66.76 Z26.081
X133.033 Y66.743 Z26.074
X133.055 Y66.713 Z26.066
X133.064 Y66.676 Z26.058
X133.057 Y66.64 Z26.051
X133.035 Y66.609 Z26.043
X133.002 Y66.59 Z26.035
X132.965 Y66.587 Z26.028
X132.929 Y66.599 Z26.02
X132.902 Y66.624 Z26.012
X132.888 Y66.659 Z26.004
X132.889 Y66.696 Z25.997
X132.905 Y66.73 Z25.989
X132.934 Y66.754 Z25.981
X132.97 Y66.764 Z25.974
X133.007 Y66.758 Z25.966
X133.038 Y66.737 Z25.958
X133.059 Y66.706 Z25.95
X133.064 Y66.668 Z25.943
X133.053 Y66.632 Z25.935
X133.029 Y66.604 Z25.927
X132.995 Y66.588 Z25.92
X132.957 Z25.912
X132.923 Y66.603 Z25.904
X132.898 Y66.631 Z25.897
X132.886 Y66.667 Z25.889
X132.891 Y66.704 Z25.881
X132.91 Y66.736 Z25.873
X132.941 Y66.757 Z25.866
X132.978 Y66.764 Z25.858
X133.015 Y66.755 Z25.85
X133.044 Y66.731 Z25.843
X133.061 Y66.698 Z25.835
X133.063 Y66.66 Z25.827
X133.049 Y66.626 Z25.819
X133.022 Y66.599 Z25.812
X132.987 Y66.587 Z25.804
X132.949 Y66.59 Z25.796
X132.916 Y66.608 Z25.789
X132.894 Y66.638 Z25.781
X132.886 Y66.675 Z25.773
X132.894 Y66.711 Z25.766
X132.916 Y66.742 Z25.758
X132.949 Y66.76 Z25.75
X132.986 Y66.763 Z25.742
X133.022 Y66.751 Z25.735
X133.049 Y66.725 Z25.727
X133.063 Y66.69 Z25.719
X133.061 Y66.653 Z25.712
X133.044 Y66.619 Z25.704
X133.015 Y66.596 Z25.696
X132.979 Y66.586 Z25.688
X132.942 Y66.593 Z25.681
X132.911 Y66.614 Z25.673
X132.891 Y66.646 Z25.665
X132.886 Y66.683 Z25.658
X132.898 Y66.719 Z25.65
X132.922 Y66.747 Z25.642
X132.957 Y66.762 Z25.635
X132.994 Z25.627
X133.028 Y66.746 Z25.619
X133.053 Y66.718 Z25.611
X133.064 Y66.682 Z25.604
X133.059 Y66.645 Z25.596
X133.039 Y66.613 Z25.588
X133.008 Y66.592 Z25.581
X132.971 Y66.586 Z25.573
X132.934 Y66.596 Z25.565
X132.905 Y66.62 Z25.557
X132.889 Y66.653 Z25.55
X132.888 Y66.691 Z25.542
X132.902 Y66.725 Z25.534
X132.929 Y66.751 Z25.527
X132.965 Y66.763 Z25.519
X133.002 Y66.76 Z25.511
X133.034 Y66.741 Z25.504
X133.056 Y66.711 Z25.496
X133.064 Y66.674 Z25.488
X133.056 Y66.637 Z25.48
X133.033 Y66.608 Z25.473
X133. Y66.59 Z25.465
X132.963 Y66.587 Z25.457
X132.927 Y66.6 Z25.45
X132.901 Y66.626 Z25.442
X132.887 Y66.661 Z25.434
X132.889 Y66.699 Z25.426
X132.907 Y66.732 Z25.419
X132.936 Y66.755 Z25.411
X132.973 Y66.764 Z25.403
X133.009 Y66.757 Z25.396
X133.04 Y66.735 Z25.388
X133.059 Y66.703 Z25.38
X133.063 Y66.666 Z25.373
X133.052 Y66.63 Z25.365
X133.027 Y66.603 Z25.357
X132.992 Y66.588 Z25.349
X132.955 Z25.342
X132.921 Y66.605 Z25.334
X132.897 Y66.633 Z25.326
X132.886 Y66.669 Z25.319
X132.892 Y66.706 Z25.311
X132.912 Y66.738 Z25.303
X132.944 Y66.758 Z25.295
X132.981 Y66.764 Z25.288
X133.017 Y66.753 Z25.28
X133.045 Y66.729 Z25.272
X133.062 Y66.695 Z25.265
Y66.658 Z25.257
X133.047 Y66.624 Z25.249
X133.02 Y66.598 Z25.242
X132.984 Y66.587 Z25.234
X132.947 Y66.591 Z25.226
X132.915 Y66.61 Z25.218
X132.893 Y66.64 Z25.211
X132.886 Y66.677 Z25.203
X132.895 Y66.714 Z25.195
X132.918 Y66.743 Z25.188
X132.951 Y66.761 Z25.18
X132.989 Y66.763 Z25.172
X133.024 Y66.749 Z25.164
X133.05 Y66.723 Z25.157
X133.063 Y66.688 Z25.149
X133.06 Y66.65 Z25.141
X133.043 Y66.617 Z25.134
X133.013 Y66.594 Z25.126
X132.976 Y66.586 Z25.118
X132.939 Y66.594 Z25.111
X132.909 Y66.615 Z25.103
X132.89 Y66.648 Z25.095
X132.887 Y66.685 Z25.087
X132.899 Y66.721 Z25.08
X132.924 Y66.748 Z25.072
X132.959 Y66.762 Z25.064
X132.997 Y66.761 Z25.057
X133.03 Y66.745 Z25.049
X133.054 Y66.716 Z25.041
X133.064 Y66.68 Z25.033
X133.058 Y66.643 Z25.026
X133.037 Y66.611 Z25.018
X133.005 Y66.591 Z25.01
X132.968 Y66.586 Z25.003
X132.932 Y66.597 Z24.995
X132.904 Y66.622 Z24.987
X132.888 Y66.656 Z24.98
Y66.693 Z24.972
X132.903 Y66.728 Z24.964
X132.931 Y66.752 Z24.956
X132.967 Y66.764 Z24.949
X133.004 Y66.759 Z24.941
X133.036 Y66.739 Z24.933
X133.057 Y66.708 Z24.926
X133.064 Y66.671 Z24.918
X133.054 Y66.635 Z24.91
X133.031 Y66.606 Z24.902
X132.998 Y66.589 Z24.895
X132.96 Y66.587 Z24.887
X132.925 Y66.601 Z24.879
X132.899 Y66.628 Z24.872
X132.887 Y66.664 Z24.864
X132.89 Y66.701 Z24.856
X132.908 Y66.734 Z24.849
X132.938 Y66.756 Z24.841
X132.975 Y66.764 Z24.833
X133.012 Y66.756 Z24.825
X133.042 Y66.734 Z24.818
X133.06 Y66.701 Z24.81
X133.063 Y66.663 Z24.802
X133.051 Y66.628 Z24.795
X133.025 Y66.601 Z24.787
X132.99 Y66.587 Z24.779
X132.952 Y66.589 Z24.771
X132.919 Y66.606 Z24.764
X132.895 Y66.635 Z24.756
X132.886 Y66.672 Z24.748
X132.893 Y66.709 Z24.741
X132.914 Y66.74 Z24.733
X132.946 Y66.759 Z24.725
X132.983 Y66.764 Z24.718
X133.019 Y66.752 Z24.71
X133.047 Y66.727 Z24.702
X133.062 Y66.693 Z24.694
Y66.656 Z24.687
X133.046 Y66.622 Z24.679
X133.018 Y66.597 Z24.671
X132.982 Y66.586 Z24.664
X132.945 Y66.591 Z24.656
X132.913 Y66.611 Z24.648
X132.892 Y66.643 Z24.64
X132.886 Y66.68 Z24.633
X132.896 Y66.716 Z24.625
X132.92 Y66.745 Z24.617
X132.954 Y66.761 Z24.61
X132.991 Y66.762 Z24.602
X133.026 Y66.748 Z24.594
X133.051 Y66.721 Z24.587
X133.063 Y66.685 Z24.579
X133.06 Y66.648 Z24.571
X133.041 Y66.615 Z24.563
X133.01 Y66.593 Z24.556
X132.974 Y66.586 Z24.548
X132.937 Y66.595 Z24.54
X132.907 Y66.617 Z24.533
X132.89 Y66.65 Z24.525
X132.887 Y66.688 Z24.517
X132.9 Y66.723 Z24.509
X132.927 Y66.75 Z24.502
X132.962 Y66.763 Z24.494
X132.999 Y66.761 Z24.486
X133.032 Y66.743 Z24.479
X133.055 Y66.714 Z24.471
X133.064 Y66.677 Z24.463
X133.057 Y66.64 Z24.456
X133.035 Y66.61 Z24.448
X133.003 Y66.591 Z24.44
X132.966 Y66.587 Z24.432
X132.93 Y66.598 Z24.425
X132.902 Y66.624 Z24.417
X132.888 Y66.658 Z24.409
X132.889 Y66.696 Z24.402
X132.905 Y66.729 Z24.394
X132.933 Y66.754 Z24.386
X132.97 Y66.764 Z24.378
X133.007 Y66.758 Z24.371
X133.038 Y66.738 Z24.363
X133.058 Y66.706 Z24.355
X133.064 Y66.669 Z24.348
X133.053 Y66.633 Z24.34
X133.029 Y66.604 Z24.332
X132.995 Y66.588 Z24.325
X132.958 Z24.317
X132.923 Y66.603 Z24.309
X132.898 Y66.63 Z24.301
X132.887 Y66.666 Z24.294
X132.891 Y66.703 Z24.286
X132.91 Y66.736 Z24.278
X132.941 Y66.757 Z24.271
X132.978 Y66.764 Z24.263
X133.014 Y66.755 Z24.255
X133.043 Y66.732 Z24.247
X133.061 Y66.698 Z24.24
X133.063 Y66.661 Z24.232
X133.049 Y66.626 Z24.224
X133.022 Y66.6 Z24.217
X132.987 Y66.587 Z24.209
X132.95 Y66.59 Z24.201
X132.917 Y66.608 Z24.194
X132.894 Y66.638 Z24.186
X132.886 Y66.674 Z24.178
X132.894 Y66.711 Z24.17
X132.916 Y66.741 Z24.163
X132.948 Y66.76 Z24.155
X132.986 Y66.763 Z24.147
X133.021 Y66.751 Z24.14
X133.048 Y66.725 Z24.132
X133.063 Y66.691 Z24.124
X133.061 Y66.653 Z24.117
X133.044 Y66.62 Z24.109
X133.015 Y66.596 Z24.101
X132.979 Y66.586 Z24.093
X132.942 Y66.592 Z24.086
X132.911 Y66.613 Z24.078
X132.891 Y66.645 Z24.07
X132.886 Y66.682 Z24.063
X132.897 Y66.718 Z24.055
X132.922 Y66.746 Z24.047
X132.956 Y66.762 Z24.039
X132.994 Z24.032
X133.028 Y66.747 Z24.024
X133.053 Y66.718 Z24.016
X133.064 Y66.683 Z24.009
X133.059 Y66.645 Z24.001
X133.039 Y66.613 Z23.993
X133.008 Y66.592 Z23.986
X132.971 Y66.586 Z23.978
X132.935 Y66.596 Z23.97
X132.906 Y66.619 Z23.962
X132.889 Y66.653 Z23.955
X132.887 Y66.69 Z23.947
X132.901 Y66.725 Z23.939
X132.929 Y66.751 Z23.932
X132.964 Y66.763 Z23.924
X133.001 Y66.76 Z23.916
X133.034 Y66.741 Z23.908
X133.056 Y66.711 Z23.901
X133.064 Y66.675 Z23.893
X133.056 Y66.638 Z23.885
X133.033 Y66.608 Z23.878
X133.001 Y66.59 Z23.87
X132.963 Y66.587 Z23.862
X132.928 Y66.6 Z23.855
X132.901 Y66.626 Z23.847
X132.887 Y66.661 Z23.839
X132.889 Y66.698 Z23.831
X132.906 Y66.731 Z23.824
X132.936 Y66.755 Z23.816
X132.972 Y66.764 Z23.808
X133.009 Y66.757 Z23.801
X133.04 Y66.736 Z23.793
X133.059 Y66.704 Z23.785
X133.064 Y66.667 Z23.777
X133.052 Y66.631 Z23.77
X133.027 Y66.603 Z23.762
X132.993 Y66.588 Z23.754
X132.955 Z23.747
X132.921 Y66.604 Z23.739
X132.897 Y66.633 Z23.731
X132.886 Y66.669 Z23.724
X132.892 Y66.706 Z23.716
X132.912 Y66.737 Z23.708
X132.943 Y66.758 Z23.7
X132.98 Y66.764 Z23.693
X133.016 Y66.754 Z23.685
X133.045 Y66.73 Z23.677
X133.061 Y66.696 Z23.67
X133.062 Y66.659 Z23.662
X133.048 Y66.624 Z23.654
X133.02 Y66.599 Z23.646
X132.985 Y66.587 Z23.639
X132.947 Y66.59 Z23.631
X132.915 Y66.609 Z23.623
X132.893 Y66.64 Z23.616
X132.886 Y66.677 Z23.608
X132.895 Y66.713 Z23.6
X132.918 Y66.743 Z23.593
X132.951 Y66.761 Z23.585
X132.988 Y66.763 Z23.577
X133.023 Y66.75 Z23.569
X133.05 Y66.723 Z23.562
X133.063 Y66.688 Z23.554
X133.061 Y66.651 Z23.546
X133.043 Y66.618 Z23.539
X133.013 Y66.595 Z23.531
X132.977 Y66.586 Z23.523
X132.94 Y66.593 Z23.515
X132.909 Y66.615 Z23.508
X132.89 Y66.647 Z23.5
X132.887 Y66.685 Z23.492
X132.898 Y66.72 Z23.485
X132.924 Y66.748 Z23.477
X132.959 Y66.762 Z23.469
X132.996 Y66.761 Z23.462
X133.03 Y66.745 Z23.454
X133.054 Y66.716 Z23.446
X133.064 Y66.68 Z23.438
X133.058 Y66.643 Z23.431
X133.037 Y66.612 Z23.423
X133.006 Y66.592 Z23.415
X132.969 Y66.586 Z23.408
X132.933 Y66.597 Z23.4
X132.904 Y66.621 Z23.392
X132.888 Y66.655 Z23.384
Y66.693 Z23.377
X132.903 Y66.727 Z23.369
X132.931 Y66.752 Z23.361
X132.966 Y66.763 Z23.354
X133.004 Y66.759 Z23.346
X133.036 Y66.74 Z23.338
X133.057 Y66.709 Z23.331
X133.064 Y66.672 Z23.323
X133.055 Y66.636 Z23.315
X133.031 Y66.606 Z23.307
X132.998 Y66.589 Z23.3
X132.961 Y66.587 Z23.292
X132.926 Y66.601 Z23.284
X132.9 Y66.628 Z23.277
X132.887 Y66.663 Z23.269
X132.89 Y66.7 Z23.261
X132.908 Y66.733 Z23.253
X132.938 Y66.756 Z23.246
X132.975 Y66.764 Z23.238
X133.011 Y66.756 Z23.23
X133.041 Y66.734 Z23.223
X133.06 Y66.701 Z23.215
X133.063 Y66.664 Z23.207
X133.051 Y66.629 Z23.2
X133.025 Y66.602 Z23.192
X132.99 Y66.587 Z23.184
X132.953 Y66.589 Z23.176
X132.919 Y66.606 Z23.169
X132.896 Y66.635 Z23.161
X132.886 Y66.671 Z23.153
X132.892 Y66.708 Z23.146
X132.913 Y66.739 Z23.138
X132.945 Y66.759 Z23.13
X132.983 Y66.764 Z23.122
X133.018 Y66.753 Z23.115
X133.047 Y66.728 Z23.107
X133.062 Y66.694 Z23.099
Y66.656 Z23.092
X133.046 Y66.622 Z23.084
X133.018 Y66.597 Z23.076
X132.982 Y66.586 Z23.069
X132.945 Y66.591 Z23.061
X132.913 Y66.611 Z23.053
X132.892 Y66.642 Z23.045
X132.886 Y66.679 Z23.038
X132.896 Y66.715 Z23.03
X132.92 Y66.744 Z23.022
X132.953 Y66.761 Z23.015
X132.991 Y66.763 Z23.007
X133.025 Y66.748 Z22.999
X133.051 Y66.721 Z22.991
X133.063 Y66.686 Z22.984
X133.06 Y66.648 Z22.976
X133.041 Y66.616 Z22.968
X133.011 Y66.594 Z22.961
X132.974 Y66.586 Z22.953
X132.938 Y66.594 Z22.945
X132.908 Y66.617 Z22.938
X132.89 Y66.65 Z22.93
X132.887 Y66.687 Z22.922
X132.9 Y66.722 Z22.914
X132.926 Y66.749 Z22.907
X132.961 Y66.763 Z22.899
X132.998 Y66.761 Z22.891
X133.032 Y66.744 Z22.884
X133.055 Y66.714 Z22.876
X133.064 Y66.678 Z22.868
X133.057 Y66.641 Z22.86
X133.036 Y66.61 Z22.853
X133.003 Y66.591 Z22.845
X132.966 Y66.587 Z22.837
X132.931 Y66.598 Z22.83
X132.903 Y66.623 Z22.822
X132.888 Y66.658 Z22.814
Y66.695 Z22.807
X132.904 Y66.729 Z22.799
X132.933 Y66.753 Z22.791
X132.969 Y66.764 Z22.783
X133.006 Y66.758 Z22.776
X133.038 Y66.738 Z22.768
X133.058 Y66.707 Z22.76
X133.064 Y66.67 Z22.753
X133.054 Y66.634 Z22.745
X133.03 Y66.605 Z22.737
X132.996 Y66.589 Z22.729
X132.958 Y66.588 Z22.722
X132.924 Y66.602 Z22.714
X132.898 Y66.63 Z22.706
X132.887 Y66.666 Z22.699
X132.891 Y66.703 Z22.691
X132.91 Y66.735 Z22.683
X132.94 Y66.757 Z22.676
X132.977 Y66.764 Z22.668
X133.013 Y66.755 Z22.66
X133.043 Y66.732 Z22.652
X133.061 Y66.699 Z22.645
X133.063 Y66.662 Z22.637
X133.05 Y66.627 Z22.629
X133.023 Y66.6 Z22.622
X132.988 Y66.587 Z22.614
X132.95 Y66.59 Z22.606
X132.917 Y66.607 Z22.598
X132.895 Y66.637 Z22.591
X132.886 Y66.674 Z22.583
X132.893 Y66.71 Z22.575
X132.915 Y66.741 Z22.568
X132.948 Y66.76 Z22.56
X132.985 Y66.763 Z22.552
X133.021 Y66.751 Z22.545
X133.048 Y66.726 Z22.537
X133.062 Y66.691 Z22.529
X133.061 Y66.654 Z22.521
X133.045 Y66.62 Z22.514
X133.016 Y66.596 Z22.506
X132.98 Y66.586 Z22.498
X132.943 Y66.592 Z22.491
X132.912 Y66.613 Z22.483
X132.891 Y66.644 Z22.475
X132.886 Y66.682 Z22.467
X132.897 Y66.718 Z22.46
X132.921 Y66.746 Z22.452
X132.955 Y66.762 Z22.444
X132.993 Z22.437
X133.027 Y66.747 Z22.429
X133.052 Y66.719 Z22.421
X133.064 Y66.683 Z22.414
X133.059 Y66.646 Z22.406
X133.04 Y66.614 Z22.398
X133.009 Y66.593 Z22.39
X132.972 Y66.586 Z22.383
X132.935 Y66.595 Z22.375
X132.906 Y66.619 Z22.367
X132.889 Y66.652 Z22.36
X132.887 Y66.69 Z22.352
X132.901 Y66.724 Z22.344
X132.928 Y66.751 Z22.336
X132.963 Y66.763 Z22.329
X133.001 Y66.76 Z22.321
X133.034 Y66.742 Z22.313
X133.056 Y66.712 Z22.306
X133.064 Y66.675 Z22.298
X133.056 Y66.639 Z22.29
X133.034 Y66.608 Z22.283
X133.001 Y66.59 Z22.275
X132.964 Y66.587 Z22.267
X132.928 Y66.599 Z22.259
X132.901 Y66.625 Z22.252
X132.887 Y66.66 Z22.244
X132.889 Y66.697 Z22.236
X132.906 Y66.731 Z22.229
X132.935 Y66.754 Z22.221
X132.971 Y66.764 Z22.213
X133.008 Y66.757 Z22.205
X133.039 Y66.736 Z22.198
X133.059 Y66.704 Z22.19
X133.064 Y66.667 Z22.182
X133.052 Y66.631 Z22.175
X133.028 Y66.603 Z22.167
X132.993 Y66.588 Z22.159
X132.956 Z22.152
X132.922 Y66.604 Z22.144
X132.897 Y66.632 Z22.136
X132.886 Y66.668 Z22.128
X132.891 Y66.705 Z22.121
X132.911 Y66.737 Z22.113
X132.942 Y66.758 Z22.105
X132.979 Y66.764 Z22.098
X133.016 Y66.754 Z22.09
X133.045 Y66.73 Z22.082
X133.061 Y66.697 Z22.074
X133.062 Y66.659 Z22.067
X133.048 Y66.625 Z22.059
X133.021 Y66.599 Z22.051
X132.985 Y66.587 Z22.044
X132.948 Y66.59 Z22.036
X132.916 Y66.609 Z22.028
X132.894 Y66.639 Z22.021
X132.886 Y66.676 Z22.013
X132.894 Y66.713 Z22.005
X132.917 Y66.742 Z21.997
X132.95 Y66.76 Z21.99
X132.987 Y66.763 Z21.982
X133.023 Y66.75 Z21.974
X133.049 Y66.724 Z21.967
X133.063 Y66.689 Z21.959
X133.061 Y66.651 Z21.951
X133.043 Y66.618 Z21.943
X133.014 Y66.595 Z21.936
X132.977 Y66.586 Z21.928
X132.941 Y66.593 Z21.92
X132.91 Y66.615 Z21.913
X132.891 Y66.647 Z21.905
X132.887 Y66.684 Z21.897
X132.898 Y66.72 Z21.89
X132.923 Y66.747 Z21.882
X132.958 Y66.762 Z21.874
X132.995 Z21.866
X133.029 Y66.745 Z21.859
X133.053 Y66.717 Z21.851
X133.064 Y66.681 Z21.843
X133.058 Y66.644 Z21.836
X133.038 Y66.612 Z21.828
X133.006 Y66.592 Z21.82
X132.969 Y66.586 Z21.813
G2 X132.981 Y66.764 I0.006 J0.089
X132.969 Y66.586 I-0.006 J-0.089
G1 X132.948 Y66.594
X132.932 Y66.611
X132.928 Y66.633
X132.975 Y66.675
G0 Z31.4
X133.296 Y378.373
Z29.9
G1 Z28.535 F1600.
X133.303 Y378.369 Z28.436
X133.323 Y378.357 Z28.339
X133.356 Y378.338 Z28.247
X133.401 Y378.311 Z28.162
X133.457 Y378.279 Z28.086
X133.522 Y378.24 Z28.021
X133.595 Y378.197 Z27.969
X133.675 Y378.151 Z27.931
X133.758 Y378.102 Z27.908
X133.844 Y378.051 Z27.9
X134.118 Y377.891
G2 X134.344 Y377.022 I-0.321 J-0.548
X131.606 Y378.628 Z27.817 I-1.369 J0.803
X134.344 Y377.022 Z27.734 I1.369 J-0.803
X131.606 Y378.628 Z27.651 I-1.369 J0.803
X134.344 Y377.022 Z27.567 I1.369 J-0.803
X131.606 Y378.628 Z27.484 I-1.369 J0.803
X134.344 Y377.022 Z27.401 I1.369 J-0.803
X131.606 Y378.628 Z27.318 I-1.369 J0.803
X134.344 Y377.022 Z27.235 I1.369 J-0.803
X131.606 Y378.628 Z27.152 I-1.369 J0.803
X134.344 Y377.022 Z27.069 I1.369 J-0.803
X131.606 Y378.628 Z26.986 I-1.369 J0.803
X134.344 Y377.022 Z26.902 I1.369 J-0.803
X131.606 Y378.628 Z26.819 I-1.369 J0.803
X134.344 Y377.022 Z26.736 I1.369 J-0.803
X131.606 Y378.628 Z26.653 I-1.369 J0.803
X134.344 Y377.022 Z26.57 I1.369 J-0.803
X131.606 Y378.628 Z26.487 I-1.369 J0.803
X134.344 Y377.022 Z26.404 I1.369 J-0.803
X131.606 Y378.628 Z26.321 I-1.369 J0.803
X134.344 Y377.022 Z26.237 I1.369 J-0.803
X131.606 Y378.628 Z26.154 I-1.369 J0.803
X134.344 Y377.022 Z26.071 I1.369 J-0.803
X131.606 Y378.628 Z25.988 I-1.369 J0.803
X134.344 Y377.022 Z25.905 I1.369 J-0.803
X131.606 Y378.628 Z25.822 I-1.369 J0.803
X134.344 Y377.022 Z25.739 I1.369 J-0.803
X131.606 Y378.628 Z25.655 I-1.369 J0.803
X134.344 Y377.022 Z25.572 I1.369 J-0.803
X131.606 Y378.628 Z25.489 I-1.369 J0.803
X134.344 Y377.022 Z25.406 I1.369 J-0.803
X131.606 Y378.628 Z25.323 I-1.369 J0.803
X134.344 Y377.022 Z25.24 I1.369 J-0.803
X131.606 Y378.628 Z25.157 I-1.369 J0.803
X134.344 Y377.022 Z25.074 I1.369 J-0.803
X131.606 Y378.628 Z24.99 I-1.369 J0.803
X134.344 Y377.022 Z24.907 I1.369 J-0.803
X131.606 Y378.628 Z24.824 I-1.369 J0.803
X134.344 Y377.022 Z24.741 I1.369 J-0.803
X131.606 Y378.628 Z24.658 I-1.369 J0.803
X134.344 Y377.022 Z24.575 I1.369 J-0.803
X131.606 Y378.628 Z24.492 I-1.369 J0.803
X134.344 Y377.022 Z24.409 I1.369 J-0.803
X131.606 Y378.628 Z24.325 I-1.369 J0.803
X134.344 Y377.022 Z24.242 I1.369 J-0.803
X131.606 Y378.628 Z24.159 I-1.369 J0.803
X134.344 Y377.022 Z24.076 I1.369 J-0.803
X131.606 Y378.628 Z23.993 I-1.369 J0.803
X134.344 Y377.022 Z23.91 I1.369 J-0.803
X131.606 Y378.628 Z23.827 I-1.369 J0.803
X134.344 Y377.022 Z23.744 I1.369 J-0.803
X131.606 Y378.628 Z23.66 I-1.369 J0.803
X134.344 Y377.022 Z23.577 I1.369 J-0.803
X131.606 Y378.628 Z23.494 I-1.369 J0.803
X134.344 Y377.022 Z23.411 I1.369 J-0.803
X131.606 Y378.628 Z23.328 I-1.369 J0.803
X134.344 Y377.022 Z23.245 I1.369 J-0.803
X131.606 Y378.628 Z23.162 I-1.369 J0.803
X134.344 Y377.022 Z23.078 I1.369 J-0.803
X131.606 Y378.628 Z22.995 I-1.369 J0.803
X134.344 Y377.022 Z22.912 I1.369 J-0.803
X131.606 Y378.628 Z22.829 I-1.369 J0.803
X134.344 Y377.022 Z22.746 I1.369 J-0.803
X131.606 Y378.628 Z22.663 I-1.369 J0.803
X134.344 Y377.022 Z22.58 I1.369 J-0.803
X131.606 Y378.628 Z22.497 I-1.369 J0.803
X134.344 Y377.022 Z22.413 I1.369 J-0.803
X131.606 Y378.628 Z22.33 I-1.369 J0.803
X134.344 Y377.022 Z22.247 I1.369 J-0.803
X131.606 Y378.628 Z22.164 I-1.369 J0.803
X134.344 Y377.022 Z22.081 I1.369 J-0.803
X131.606 Y378.628 Z21.998 I-1.369 J0.803
X134.344 Y377.022 Z21.915 I1.369 J-0.803
X131.606 Y378.628 Z21.832 I-1.369 J0.803
X132.474 Y379.331 Z21.813 I1.369 J-0.803
X133.476 Y376.319 I0.501 J-1.506
X132.474 Y379.331 I-0.501 J1.506
X133.277 Y378.929 I0.2 J-0.603
G1 X133.377 Y378.628
X133.408 Y378.534 Z21.82
X133.439 Y378.442 Z21.844
X133.468 Y378.354 Z21.882
X133.495 Y378.274 Z21.934
X133.519 Y378.202 Z21.998
X133.539 Y378.14 Z22.074
X133.556 Y378.091 Z22.159
X133.568 Y378.055 Z22.251
X133.575 Y378.033 Z22.348
X133.578 Y378.025 Z22.448
G0 Z41.4
M5
G0 Z45
G0 X0 Y0

M9
M30
