(TOP SUPPORT GUESSET CUTOUT )
(T1  D=6.35 CR=0. - ZMIN=-4.675 - FLAT END MILL)
G90 G94 G91.1 G40 G49 G17
G21
G0 Z15

(2D CONTOUR1)
M5
T1 M6
S15000 M3
G54
M8
G0 X46.336 Y13.395
G43 Z17. H1
Z7.
G1 Z5.135 F1600.
X46.332 Y13.402 Z5.036
X46.32 Y13.422 Z4.939
X46.3 Y13.454 Z4.847
X46.272 Y13.499 Z4.762
X46.238 Y13.554 Z4.686
X46.198 Y13.618 Z4.621
X46.153 Y13.69 Z4.569
X46.105 Y13.769 Z4.531
X46.054 Y13.851 Z4.508
X46.002 Y13.935 Z4.5
X45.667 Y14.475
G2 X45.873 Y15.349 I0.54 J0.334
G3 X48.96 Y17.473 Z4.435 I-20.473 J33.069
G1 X112.915 Y66.164 Z3.032
G3 X113.518 Y70.614 Z2.944 I-1.923 J2.526
G1 X98.131 Y90.823 Z2.501
G3 X95.605 Y92.075 Z2.45 I-2.526 J-1.923
G1 X55.496 Z1.75
X0.
G3 X-3.175 Y88.9 I0. J-3.175
G1 Y12.7
G3 X0. Y9.525 I3.175 J0.
G1 X25.4
G3 X48.96 Y17.473 I0. J38.894
G1 X112.915 Y66.164
G3 X113.518 Y70.614 I-1.923 J2.526
G1 X98.131 Y90.823
G3 X95.605 Y92.075 I-2.526 J-1.923
G1 X55.496
X41.174 Z1.5
X0.
G3 X-3.175 Y88.9 I0. J-3.175
G1 Y12.7
G3 X0. Y9.525 I3.175 J0.
G1 X25.4
G3 X48.96 Y17.473 I0. J38.894
G1 X112.915 Y66.164
G3 X113.518 Y70.614 I-1.923 J2.526
G1 X98.131 Y90.823
G3 X95.605 Y92.075 I-2.526 J-1.923
G1 X55.496
X41.174
X26.851 Z1.25
X0.
G3 X-3.175 Y88.9 I0. J-3.175
G1 Y12.7
G3 X0. Y9.525 I3.175 J0.
G1 X25.4
G3 X48.96 Y17.473 I0. J38.894
G1 X112.915 Y66.164
G3 X113.518 Y70.614 I-1.923 J2.526
G1 X98.131 Y90.823
G3 X95.605 Y92.075 I-2.526 J-1.923
G1 X41.174
X26.851
X12.529 Z1.
X0.
G3 X-3.175 Y88.9 I0. J-3.175
G1 Y12.7
G3 X0. Y9.525 I3.175 J0.
G1 X25.4
G3 X48.96 Y17.473 I0. J38.894
G1 X112.915 Y66.164
G3 X113.518 Y70.614 I-1.923 J2.526
G1 X98.131 Y90.823
G3 X95.605 Y92.075 I-2.526 J-1.923
G1 X26.851
X12.529
X0. Z0.781
G3 X-1.7 Y91.582 Z0.75 I0. J-3.175
X-3.175 Y88.9 I1.7 J-2.682
G1 Y12.7
G3 X0. Y9.525 I3.175 J0.
G1 X25.4
G3 X48.96 Y17.473 I0. J38.894
G1 X112.915 Y66.164
G3 X113.518 Y70.614 I-1.923 J2.526
G1 X98.131 Y90.823
G3 X95.605 Y92.075 I-2.526 J-1.923
G1 X12.529
X0.
G3 X-1.7 Y91.582 I0. J-3.175
X-3.175 Y88.9 Z0.694 I1.7 J-2.682
G1 Y77.771 Z0.5
Y12.7
G3 X0. Y9.525 I3.175 J0.
G1 X25.4
G3 X48.96 Y17.473 I0. J38.894
G1 X112.915 Y66.164
G3 X113.518 Y70.614 I-1.923 J2.526
G1 X98.131 Y90.823
G3 X95.605 Y92.075 I-2.526 J-1.923
G1 X0.
G3 X-3.175 Y88.9 I0. J-3.175
G1 Y77.771
Y63.448 Z0.25
Y12.7
G3 X0. Y9.525 I3.175 J0.
G1 X25.4
G3 X48.96 Y17.473 I0. J38.894
G1 X112.915 Y66.164
G3 X113.518 Y70.614 I-1.923 J2.526
G1 X98.131 Y90.823
G3 X95.605 Y92.075 I-2.526 J-1.923
G1 X0.
G3 X-3.175 Y88.9 I0. J-3.175
G1 Y63.448
Y49.126 Z0.
Y12.7
G3 X0. Y9.525 I3.175 J0.
G1 X25.4
G3 X48.96 Y17.473 I0. J38.894
G1 X112.915 Y66.164
G3 X113.518 Y70.614 I-1.923 J2.526
G1 X98.131 Y90.823
G3 X95.605 Y92.075 I-2.526 J-1.923
G1 X0.
G3 X-3.175 Y88.9 I0. J-3.175
G1 Y63.448
Y49.126
Y34.803 Z-0.25
Y12.7
G3 X0. Y9.525 I3.175 J0.
G1 X25.4
G3 X48.96 Y17.473 I0. J38.894
G1 X112.915 Y66.164
G3 X113.518 Y70.614 I-1.923 J2.526
G1 X98.131 Y90.823
G3 X95.605 Y92.075 I-2.526 J-1.923
G1 X0.
G3 X-3.175 Y88.9 I0. J-3.175
G1 Y49.126
Y34.803
Y20.481 Z-0.5
Y12.7
G3 X0. Y9.525 I3.175 J0.
G1 X25.4
G3 X48.96 Y17.473 I0. J38.894
G1 X112.915 Y66.164
G3 X113.518 Y70.614 I-1.923 J2.526
G1 X98.131 Y90.823
G3 X95.605 Y92.075 I-2.526 J-1.923
G1 X0.
G3 X-3.175 Y88.9 I0. J-3.175
G1 Y34.803
Y20.481
Y12.7 Z-0.636
G3 X0. Y9.525 Z-0.723 I3.175 J0.
G1 X1.554 Z-0.75
X25.4
G3 X48.96 Y17.473 I0. J38.894
G1 X112.915 Y66.164
G3 X113.518 Y70.614 I-1.923 J2.526
G1 X98.131 Y90.823
G3 X95.605 Y92.075 I-2.526 J-1.923
G1 X0.
G3 X-3.175 Y88.9 I0. J-3.175
G1 Y20.481
Y12.7
G3 X0. Y9.525 I3.175 J0.
G1 X1.554
X15.877 Z-1.
X25.4
G3 X48.96 Y17.473 I0. J38.894
G1 X112.915 Y66.164
G3 X113.518 Y70.614 I-1.923 J2.526
G1 X98.131 Y90.823
G3 X95.605 Y92.075 I-2.526 J-1.923
G1 X0.
G3 X-3.175 Y88.9 I0. J-3.175
G1 Y12.7
G3 X0. Y9.525 I3.175 J0.
G1 X15.877
X25.4 Z-1.166
G3 X30.187 Y9.821 Z-1.25 I0. J38.894
X48.96 Y17.473 I-4.787 J38.598
G1 X112.915 Y66.164
G3 X113.518 Y70.614 I-1.923 J2.526
G1 X98.131 Y90.823
G3 X95.605 Y92.075 I-2.526 J-1.923
G1 X0.
G3 X-3.175 Y88.9 I0. J-3.175
G1 Y12.7
G3 X0. Y9.525 I3.175 J0.
G1 X15.877
X25.4
G3 X30.187 Y9.821 I0. J38.894
X43.761 Y14.132 Z-1.5 I-4.787 J38.598
X48.96 Y17.473 I-18.361 J34.287
G1 X112.915 Y66.164
G3 X113.518 Y70.614 I-1.923 J2.526
G1 X98.131 Y90.823
G3 X95.605 Y92.075 I-2.526 J-1.923
G1 X0.
G3 X-3.175 Y88.9 I0. J-3.175
G1 Y12.7
G3 X0. Y9.525 I3.175 J0.
G1 X25.4
G3 X43.761 Y14.132 I0. J38.894
X48.96 Y17.473 Z-1.608 I-18.361 J34.287
G1 X55.433 Y22.401 Z-1.75
X112.915 Y66.164
G3 X113.518 Y70.614 I-1.923 J2.526
G1 X98.131 Y90.823
G3 X95.605 Y92.075 I-2.526 J-1.923
G1 X0.
G3 X-3.175 Y88.9 I0. J-3.175
G1 Y12.7
G3 X0. Y9.525 I3.175 J0.
G1 X25.4
G3 X48.96 Y17.473 I0. J38.894
G1 X55.433 Y22.401
X66.829 Y31.077 Z-2.
X112.915 Y66.164
G3 X113.518 Y70.614 I-1.923 J2.526
G1 X98.131 Y90.823
G3 X95.605 Y92.075 I-2.526 J-1.923
G1 X0.
G3 X-3.175 Y88.9 I0. J-3.175
G1 Y12.7
G3 X0. Y9.525 I3.175 J0.
G1 X25.4
G3 X48.96 Y17.473 I0. J38.894
G1 X66.829 Y31.077
X78.225 Y39.753 Z-2.25
X112.915 Y66.164
G3 X113.518 Y70.614 I-1.923 J2.526
G1 X98.131 Y90.823
G3 X95.605 Y92.075 I-2.526 J-1.923
G1 X0.
G3 X-3.175 Y88.9 I0. J-3.175
G1 Y12.7
G3 X0. Y9.525 I3.175 J0.
G1 X25.4
G3 X48.96 Y17.473 I0. J38.894
G1 X66.829 Y31.077
X78.225 Y39.753
X89.62 Y48.429 Z-2.5
X112.915 Y66.164
G3 X113.518 Y70.614 I-1.923 J2.526
G1 X98.131 Y90.823
G3 X95.605 Y92.075 I-2.526 J-1.923
G1 X0.
G3 X-3.175 Y88.9 I0. J-3.175
G1 Y12.7
G3 X0. Y9.525 I3.175 J0.
G1 X25.4
G3 X48.96 Y17.473 I0. J38.894
G1 X78.225 Y39.753
X89.62 Y48.429
X101.016 Y57.105 Z-2.75
X112.915 Y66.164
G3 X113.518 Y70.614 I-1.923 J2.526
G1 X98.131 Y90.823
G3 X95.605 Y92.075 I-2.526 J-1.923
G1 X0.
G3 X-3.175 Y88.9 I0. J-3.175
G1 Y12.7
G3 X0. Y9.525 I3.175 J0.
G1 X25.4
G3 X48.96 Y17.473 I0. J38.894
G1 X89.62 Y48.429
X101.016 Y57.105
X112.412 Y65.781 Z-3.
X112.915 Y66.164
G3 X113.518 Y70.614 I-1.923 J2.526
G1 X98.131 Y90.823
G3 X95.605 Y92.075 I-2.526 J-1.923
G1 X0.
G3 X-3.175 Y88.9 I0. J-3.175
G1 Y12.7
G3 X0. Y9.525 I3.175 J0.
G1 X25.4
G3 X48.96 Y17.473 I0. J38.894
G1 X101.016 Y57.105
X112.412 Y65.781
X112.915 Y66.164 Z-3.011
G3 X113.518 Y70.614 Z-3.098 I-1.923 J2.526
G1 X108.247 Y77.538 Z-3.25
X98.131 Y90.823
G3 X95.605 Y92.075 I-2.526 J-1.923
G1 X0.
G3 X-3.175 Y88.9 I0. J-3.175
G1 Y12.7
G3 X0. Y9.525 I3.175 J0.
G1 X25.4
G3 X48.96 Y17.473 I0. J38.894
G1 X112.412 Y65.781
X112.915 Y66.164
G3 X113.518 Y70.614 I-1.923 J2.526
G1 X108.247 Y77.538
X99.571 Y88.933 Z-3.5
X98.131 Y90.823
G3 X95.605 Y92.075 I-2.526 J-1.923
G1 X0.
G3 X-3.175 Y88.9 I0. J-3.175
G1 Y12.7
G3 X0. Y9.525 I3.175 J0.
G1 X25.4
G3 X48.96 Y17.473 I0. J38.894
G1 X112.915 Y66.164
G3 X113.518 Y70.614 I-1.923 J2.526
G1 X99.571 Y88.933
X98.131 Y90.823 Z-3.541
G3 X95.605 Y92.075 Z-3.592 I-2.526 J-1.923
G1 X86.58 Z-3.75
X0.
G3 X-3.175 Y88.9 I0. J-3.175
G1 Y12.7
G3 X0. Y9.525 I3.175 J0.
G1 X25.4
G3 X48.96 Y17.473 I0. J38.894
G1 X112.915 Y66.164
G3 X113.518 Y70.614 I-1.923 J2.526
G1 X99.571 Y88.933
X98.131 Y90.823
G3 X95.605 Y92.075 I-2.526 J-1.923
G1 X86.58
X72.257 Z-4.
X0.
G3 X-3.175 Y88.9 I0. J-3.175
G1 Y12.7
G3 X0. Y9.525 I3.175 J0.
G1 X25.4
G3 X48.96 Y17.473 I0. J38.894
G1 X112.915 Y66.164
G3 X113.518 Y70.614 I-1.923 J2.526
G1 X98.131 Y90.823
G3 X95.605 Y92.075 I-2.526 J-1.923
G1 X72.257
X57.935 Z-4.25
X0.
G3 X-3.175 Y88.9 I0. J-3.175
G1 Y12.7
G3 X0. Y9.525 I3.175 J0.
G1 X25.4
G3 X48.96 Y17.473 I0. J38.894
G1 X112.915 Y66.164
G3 X113.518 Y70.614 I-1.923 J2.526
G1 X98.131 Y90.823
G3 X95.605 Y92.075 I-2.526 J-1.923
G1 X72.257
X57.935
X43.612 Z-4.5
X0.
G3 X-3.175 Y88.9 I0. J-3.175
G1 Y12.7
G3 X0. Y9.525 I3.175 J0.
G1 X25.4
G3 X48.96 Y17.473 I0. J38.894
G1 X112.915 Y66.164
G3 X113.518 Y70.614 I-1.923 J2.526
G1 X98.131 Y90.823
G3 X95.605 Y92.075 I-2.526 J-1.923
G1 X57.935
X43.612
X33.586 Z-4.675
X0.
G3 X-3.175 Y88.9 I0. J-3.175
G1 Y12.7
G3 X0. Y9.525 I3.175 J0.
G1 X25.4
G3 X48.96 Y17.473 I0. J38.894
G1 X112.915 Y66.164
G3 X113.518 Y70.614 I-1.923 J2.526
G1 X98.131 Y90.823
G3 X95.605 Y92.075 I-2.526 J-1.923
G1 X43.612
X33.586
G2 X32.951 Y92.71 I0. J0.635
G1 Y93.345
G19 G3 Y93.98 Z-4.04 J0. K0.635
G0 Z17.
G17
M5
G0 Z15
G0 X0 Y0

M9
M30
