(X4 GEARBOX FRAME)
(T3  D=0.118 CR=0. - ZMIN=-0.25 - FLAT END MILL)
G90 G94 G91.1 G40 G49 G17
G20

(2D CONTOUR1)
M5
T3 M6
S15000 M3
G54
M8
G0 X0.0944 Y1.2705
G43 Z0.6 H3
Z0.2
G1 Z0.1118 F20.
G18 G3 X0.0826 Z0.1 I-0.0118 K0. F40.
G1 X0.0708
G17 G3 X0.059 Y1.2587 I0. J-0.0118
G1 Y0.059 Z0.0581 F20.
X5.941 Z-0.1473
Y3. Z-0.25
Y6.941 F40.
X0.059
Y0.059
X5.941
Y3.
G3 X5.9292 Y3.0118 I-0.0118 J0.
G1 X5.9174
G18 G3 X5.9056 Z-0.2382 I0. K0.0118
G0 Z0.6
G17

M9
M30
