(X8 ARM PLATE HOLES)
(T3  D=0.118 CR=0. - ZMIN=-0.44 - FLAT END MILL)
G90 G94 G91.1 G40 G49 G17
G20

(2D POCKET2)
M5
T3 M6
S15000 M3
G54
M8
G0 X2.5515 Y4.8107
G43 Z0.64 H3
Z0.24
G1 Z0.1518 F40.
Y4.8092 Z0.146 F20.
X2.552 Y4.8051 Z0.1417
X2.5532 Y4.7995 Z0.14
G3 X2.6617 Y4.8276 Z0.1339 I0.0543 J0.0141
X2.5532 Y4.7995 Z0.1277 I-0.0543 J-0.0141
X2.6617 Y4.8276 Z0.1216 I0.0543 J0.0141
X2.5532 Y4.7995 Z0.1154 I-0.0543 J-0.0141
X2.6617 Y4.8276 Z0.1093 I0.0543 J0.0141
X2.5532 Y4.7995 Z0.1031 I-0.0543 J-0.0141
X2.6617 Y4.8276 Z0.097 I0.0543 J0.0141
X2.5532 Y4.7995 Z0.0908 I-0.0543 J-0.0141
X2.6617 Y4.8276 Z0.0847 I0.0543 J0.0141
X2.5532 Y4.7995 Z0.0785 I-0.0543 J-0.0141
X2.6617 Y4.8276 Z0.0724 I0.0543 J0.0141
X2.5532 Y4.7995 Z0.0662 I-0.0543 J-0.0141
X2.6617 Y4.8276 Z0.0601 I0.0543 J0.0141
X2.5532 Y4.7995 Z0.0539 I-0.0543 J-0.0141
X2.6617 Y4.8276 Z0.0478 I0.0543 J0.0141
X2.5532 Y4.7995 Z0.0416 I-0.0543 J-0.0141
X2.6617 Y4.8276 Z0.0355 I0.0543 J0.0141
X2.5532 Y4.7995 Z0.0293 I-0.0543 J-0.0141
X2.6617 Y4.8276 Z0.0232 I0.0543 J0.0141
X2.5532 Y4.7995 Z0.017 I-0.0543 J-0.0141
X2.6617 Y4.8276 Z0.0109 I0.0543 J0.0141
X2.5532 Y4.7995 Z0.0047 I-0.0543 J-0.0141
X2.6617 Y4.8276 Z-0.0014 I0.0543 J0.0141
X2.5532 Y4.7995 Z-0.0076 I-0.0543 J-0.0141
X2.6617 Y4.8276 Z-0.0137 I0.0543 J0.0141
X2.5532 Y4.7995 Z-0.0199 I-0.0543 J-0.0141
X2.6617 Y4.8276 Z-0.026 I0.0543 J0.0141
X2.5532 Y4.7995 Z-0.0322 I-0.0543 J-0.0141
X2.6617 Y4.8276 Z-0.0383 I0.0543 J0.0141
X2.5532 Y4.7995 Z-0.0445 I-0.0543 J-0.0141
X2.6617 Y4.8276 Z-0.0506 I0.0543 J0.0141
X2.5532 Y4.7995 Z-0.0568 I-0.0543 J-0.0141
X2.6617 Y4.8276 Z-0.0629 I0.0543 J0.0141
X2.5532 Y4.7995 Z-0.0691 I-0.0543 J-0.0141
X2.6617 Y4.8276 Z-0.0752 I0.0543 J0.0141
X2.5532 Y4.7995 Z-0.0814 I-0.0543 J-0.0141
X2.6617 Y4.8276 Z-0.0875 I0.0543 J0.0141
X2.5532 Y4.7995 Z-0.0937 I-0.0543 J-0.0141
X2.6617 Y4.8276 Z-0.0998 I0.0543 J0.0141
X2.5532 Y4.7995 Z-0.106 I-0.0543 J-0.0141
X2.6617 Y4.8276 Z-0.1121 I0.0543 J0.0141
X2.5532 Y4.7995 Z-0.1183 I-0.0543 J-0.0141
X2.6617 Y4.8276 Z-0.1244 I0.0543 J0.0141
X2.5532 Y4.7995 Z-0.1306 I-0.0543 J-0.0141
X2.6617 Y4.8276 Z-0.1367 I0.0543 J0.0141
X2.5532 Y4.7995 Z-0.1429 I-0.0543 J-0.0141
X2.6617 Y4.8276 Z-0.149 I0.0543 J0.0141
X2.5532 Y4.7995 Z-0.1552 I-0.0543 J-0.0141
X2.6617 Y4.8276 Z-0.1613 I0.0543 J0.0141
X2.5532 Y4.7995 Z-0.1675 I-0.0543 J-0.0141
X2.6617 Y4.8276 Z-0.1736 I0.0543 J0.0141
X2.5532 Y4.7995 Z-0.1798 I-0.0543 J-0.0141
X2.6617 Y4.8276 Z-0.1859 I0.0543 J0.0141
X2.5532 Y4.7995 Z-0.192 I-0.0543 J-0.0141
X2.6617 Y4.8276 Z-0.1982 I0.0543 J0.0141
X2.5532 Y4.7995 Z-0.2043 I-0.0543 J-0.0141
X2.6635 Y4.8135 Z-0.21 I0.0543 J0.0141
X2.5593 I-0.0521 J0. F40.
X2.7756 I0.1081 J0.
X2.4472 I-0.1642 J0.
X2.8877 I0.2202 J0.
X2.3351 I-0.2763 J0.
X2.9998 I0.3323 J0.
X2.223 I-0.3884 J0.
X3.1119 I0.4444 J0.
X2.1109 I-0.5005 J0.
X3.1119 I0.5005 J0.
G1 X3.1116 Y4.8152
X3.1109 Y4.8168
X3.1098 Y4.8181
X3.1083 Y4.819
X3.1066 Y4.8194
X3.1049 Y4.8193
X2.794 Y4.7625
X2.7925 Y4.7622
X2.7909 Y4.7623
X2.7894 Y4.7629
X2.5953 Y4.8666
X2.5939 Y4.8672
X2.5923 Y4.8673
X2.5908 Y4.8671
G3 X2.6241 Y4.76 Z-0.2161 I0.0166 J-0.0535 F20.
X2.5908 Y4.8671 Z-0.2223 I-0.0166 J0.0535
X2.6241 Y4.76 Z-0.2284 I0.0166 J-0.0535
X2.5908 Y4.8671 Z-0.2346 I-0.0166 J0.0535
X2.6241 Y4.76 Z-0.2407 I0.0166 J-0.0535
X2.5908 Y4.8671 Z-0.2469 I-0.0166 J0.0535
X2.6241 Y4.76 Z-0.253 I0.0166 J-0.0535
X2.5908 Y4.8671 Z-0.2592 I-0.0166 J0.0535
X2.6241 Y4.76 Z-0.2653 I0.0166 J-0.0535
X2.5908 Y4.8671 Z-0.2715 I-0.0166 J0.0535
X2.6241 Y4.76 Z-0.2776 I0.0166 J-0.0535
X2.5908 Y4.8671 Z-0.2838 I-0.0166 J0.0535
X2.6241 Y4.76 Z-0.2899 I0.0166 J-0.0535
X2.5908 Y4.8671 Z-0.2961 I-0.0166 J0.0535
X2.6241 Y4.76 Z-0.3022 I0.0166 J-0.0535
X2.5908 Y4.8671 Z-0.3084 I-0.0166 J0.0535
X2.6241 Y4.76 Z-0.3145 I0.0166 J-0.0535
X2.5908 Y4.8671 Z-0.3207 I-0.0166 J0.0535
X2.6241 Y4.76 Z-0.3268 I0.0166 J-0.0535
X2.5908 Y4.8671 Z-0.333 I-0.0166 J0.0535
X2.6241 Y4.76 Z-0.3391 I0.0166 J-0.0535
X2.5908 Y4.8671 Z-0.3453 I-0.0166 J0.0535
X2.6241 Y4.76 Z-0.3514 I0.0166 J-0.0535
X2.5908 Y4.8671 Z-0.3576 I-0.0166 J0.0535
X2.6241 Y4.76 Z-0.3637 I0.0166 J-0.0535
X2.5908 Y4.8671 Z-0.3699 I-0.0166 J0.0535
X2.6241 Y4.76 Z-0.376 I0.0166 J-0.0535
X2.5908 Y4.8671 Z-0.3822 I-0.0166 J0.0535
X2.6241 Y4.76 Z-0.3883 I0.0166 J-0.0535
X2.5908 Y4.8671 Z-0.3945 I-0.0166 J0.0535
X2.6241 Y4.76 Z-0.4006 I0.0166 J-0.0535
X2.5908 Y4.8671 Z-0.4068 I-0.0166 J0.0535
X2.6241 Y4.76 Z-0.4129 I0.0166 J-0.0535
X2.5908 Y4.8671 Z-0.4191 I-0.0166 J0.0535
X2.6241 Y4.76 Z-0.4252 I0.0166 J-0.0535
X2.5908 Y4.8671 Z-0.4314 I-0.0166 J0.0535
X2.6241 Y4.76 Z-0.4375 I0.0166 J-0.0535
X2.6635 Y4.8135 Z-0.44 I-0.0166 J0.0535
X2.5593 I-0.0521 J0. F40.
X2.7756 I0.1081 J0.
X2.4472 I-0.1642 J0.
X2.8877 I0.2202 J0.
X2.3351 I-0.2763 J0.
X2.9998 I0.3323 J0.
X2.223 I-0.3884 J0.
X3.1119 I0.4444 J0.
X2.1109 I-0.5005 J0.
X3.1119 I0.5005 J0.
G1 X3.1117 Y4.8158 Z-0.4396
X3.111 Y4.8179 Z-0.4391
X3.1102 Y4.8196 Z-0.4378
X3.1091 Y4.8212 Z-0.4365
X3.1072 Y4.8229 Z-0.4327
X3.1065 Y4.8235 Z-0.4282
G0 Z0.24
X0.9401 Y0.9972
G1 Z0.1518 F40.
X0.9402 Y0.9957 Z0.146 F20.
X0.9406 Y0.9915 Z0.1417
X0.9418 Y0.9859 Z0.14
G3 X1.0503 Y1.0141 Z0.1339 I0.0543 J0.0141
X0.9418 Y0.9859 Z0.1277 I-0.0543 J-0.0141
X1.0503 Y1.0141 Z0.1216 I0.0543 J0.0141
X0.9418 Y0.9859 Z0.1154 I-0.0543 J-0.0141
X1.0503 Y1.0141 Z0.1093 I0.0543 J0.0141
X0.9418 Y0.9859 Z0.1031 I-0.0543 J-0.0141
X1.0503 Y1.0141 Z0.097 I0.0543 J0.0141
X0.9418 Y0.9859 Z0.0908 I-0.0543 J-0.0141
X1.0503 Y1.0141 Z0.0847 I0.0543 J0.0141
X0.9418 Y0.9859 Z0.0785 I-0.0543 J-0.0141
X1.0503 Y1.0141 Z0.0724 I0.0543 J0.0141
X0.9418 Y0.9859 Z0.0662 I-0.0543 J-0.0141
X1.0503 Y1.0141 Z0.0601 I0.0543 J0.0141
X0.9418 Y0.9859 Z0.0539 I-0.0543 J-0.0141
X1.0503 Y1.0141 Z0.0478 I0.0543 J0.0141
X0.9418 Y0.9859 Z0.0416 I-0.0543 J-0.0141
X1.0503 Y1.0141 Z0.0355 I0.0543 J0.0141
X0.9418 Y0.9859 Z0.0293 I-0.0543 J-0.0141
X1.0503 Y1.0141 Z0.0232 I0.0543 J0.0141
X0.9418 Y0.9859 Z0.017 I-0.0543 J-0.0141
X1.0503 Y1.0141 Z0.0109 I0.0543 J0.0141
X0.9418 Y0.9859 Z0.0047 I-0.0543 J-0.0141
X1.0503 Y1.0141 Z-0.0014 I0.0543 J0.0141
X0.9418 Y0.9859 Z-0.0076 I-0.0543 J-0.0141
X1.0503 Y1.0141 Z-0.0137 I0.0543 J0.0141
X0.9418 Y0.9859 Z-0.0199 I-0.0543 J-0.0141
X1.0503 Y1.0141 Z-0.026 I0.0543 J0.0141
X0.9418 Y0.9859 Z-0.0322 I-0.0543 J-0.0141
X1.0503 Y1.0141 Z-0.0383 I0.0543 J0.0141
X0.9418 Y0.9859 Z-0.0445 I-0.0543 J-0.0141
X1.0503 Y1.0141 Z-0.0506 I0.0543 J0.0141
X0.9418 Y0.9859 Z-0.0568 I-0.0543 J-0.0141
X1.0503 Y1.0141 Z-0.0629 I0.0543 J0.0141
X0.9418 Y0.9859 Z-0.0691 I-0.0543 J-0.0141
X1.0503 Y1.0141 Z-0.0752 I0.0543 J0.0141
X0.9418 Y0.9859 Z-0.0814 I-0.0543 J-0.0141
X1.0503 Y1.0141 Z-0.0875 I0.0543 J0.0141
X0.9418 Y0.9859 Z-0.0937 I-0.0543 J-0.0141
X1.0503 Y1.0141 Z-0.0998 I0.0543 J0.0141
X0.9418 Y0.9859 Z-0.106 I-0.0543 J-0.0141
X1.0503 Y1.0141 Z-0.1121 I0.0543 J0.0141
X0.9418 Y0.9859 Z-0.1183 I-0.0543 J-0.0141
X1.0503 Y1.0141 Z-0.1244 I0.0543 J0.0141
X0.9418 Y0.9859 Z-0.1306 I-0.0543 J-0.0141
X1.0503 Y1.0141 Z-0.1367 I0.0543 J0.0141
X0.9418 Y0.9859 Z-0.1429 I-0.0543 J-0.0141
X1.0503 Y1.0141 Z-0.149 I0.0543 J0.0141
X0.9418 Y0.9859 Z-0.1552 I-0.0543 J-0.0141
X1.0503 Y1.0141 Z-0.1613 I0.0543 J0.0141
X0.9418 Y0.9859 Z-0.1675 I-0.0543 J-0.0141
X1.0503 Y1.0141 Z-0.1736 I0.0543 J0.0141
X0.9418 Y0.9859 Z-0.1798 I-0.0543 J-0.0141
X1.0503 Y1.0141 Z-0.1859 I0.0543 J0.0141
X0.9418 Y0.9859 Z-0.192 I-0.0543 J-0.0141
X1.0503 Y1.0141 Z-0.1982 I0.0543 J0.0141
X0.9418 Y0.9859 Z-0.2043 I-0.0543 J-0.0141
X1.0521 Y1. Z-0.21 I0.0543 J0.0141
X0.9479 I-0.0521 J0. F40.
X1.1642 I0.1081 J0.
X0.8358 I-0.1642 J0.
X1.2763 I0.2202 J0.
X0.7237 I-0.2763 J0.
X1.3884 I0.3323 J0.
X0.6116 I-0.3884 J0.
X1.5005 I0.4444 J0.
X0.4995 I-0.5005 J0.
X1.5005 I0.5005 J0.
G1 X1.5002 Y1.0017
X1.4995 Y1.0033
X1.4984 Y1.0045
X1.4969 Y1.0054
X1.4953 Y1.0059
X1.4935 Y1.0058
X1.1826 Y0.9489
X1.1811 Y0.9486
X1.1795 Y0.9488
X1.178 Y0.9493
X0.9839 Y1.0531
X0.9825 Y1.0536
X0.9809 Y1.0538
X0.9794 Y1.0535
G3 X1.0127 Y0.9465 Z-0.2161 I0.0166 J-0.0535 F20.
X0.9794 Y1.0535 Z-0.2223 I-0.0166 J0.0535
X1.0127 Y0.9465 Z-0.2284 I0.0166 J-0.0535
X0.9794 Y1.0535 Z-0.2346 I-0.0166 J0.0535
X1.0127 Y0.9465 Z-0.2407 I0.0166 J-0.0535
X0.9794 Y1.0535 Z-0.2469 I-0.0166 J0.0535
X1.0127 Y0.9465 Z-0.253 I0.0166 J-0.0535
X0.9794 Y1.0535 Z-0.2592 I-0.0166 J0.0535
X1.0127 Y0.9465 Z-0.2653 I0.0166 J-0.0535
X0.9794 Y1.0535 Z-0.2715 I-0.0166 J0.0535
X1.0127 Y0.9465 Z-0.2776 I0.0166 J-0.0535
X0.9794 Y1.0535 Z-0.2838 I-0.0166 J0.0535
X1.0127 Y0.9465 Z-0.2899 I0.0166 J-0.0535
X0.9794 Y1.0535 Z-0.2961 I-0.0166 J0.0535
X1.0127 Y0.9465 Z-0.3022 I0.0166 J-0.0535
X0.9794 Y1.0535 Z-0.3084 I-0.0166 J0.0535
X1.0127 Y0.9465 Z-0.3145 I0.0166 J-0.0535
X0.9794 Y1.0535 Z-0.3207 I-0.0166 J0.0535
X1.0127 Y0.9465 Z-0.3268 I0.0166 J-0.0535
X0.9794 Y1.0535 Z-0.333 I-0.0166 J0.0535
X1.0127 Y0.9465 Z-0.3391 I0.0166 J-0.0535
X0.9794 Y1.0535 Z-0.3453 I-0.0166 J0.0535
X1.0127 Y0.9465 Z-0.3514 I0.0166 J-0.0535
X0.9794 Y1.0535 Z-0.3576 I-0.0166 J0.0535
X1.0127 Y0.9465 Z-0.3637 I0.0166 J-0.0535
X0.9794 Y1.0535 Z-0.3699 I-0.0166 J0.0535
X1.0127 Y0.9465 Z-0.376 I0.0166 J-0.0535
X0.9794 Y1.0535 Z-0.3822 I-0.0166 J0.0535
X1.0127 Y0.9465 Z-0.3883 I0.0166 J-0.0535
X0.9794 Y1.0535 Z-0.3945 I-0.0166 J0.0535
X1.0127 Y0.9465 Z-0.4006 I0.0166 J-0.0535
X0.9794 Y1.0535 Z-0.4068 I-0.0166 J0.0535
X1.0127 Y0.9465 Z-0.4129 I0.0166 J-0.0535
X0.9794 Y1.0535 Z-0.4191 I-0.0166 J0.0535
X1.0127 Y0.9465 Z-0.4252 I0.0166 J-0.0535
X0.9794 Y1.0535 Z-0.4314 I-0.0166 J0.0535
X1.0127 Y0.9465 Z-0.4375 I0.0166 J-0.0535
X1.0521 Y1. Z-0.44 I-0.0166 J0.0535
X0.9479 I-0.0521 J0. F40.
X1.1642 I0.1081 J0.
X0.8358 I-0.1642 J0.
X1.2763 I0.2202 J0.
X0.7237 I-0.2763 J0.
X1.3884 I0.3323 J0.
X0.6116 I-0.3884 J0.
X1.5005 I0.4444 J0.
X0.4995 I-0.5005 J0.
X1.5005 I0.5005 J0.
G1 X1.5003 Y1.0022 Z-0.4396
X1.4996 Y1.0044 Z-0.4391
X1.4988 Y1.0061 Z-0.4378
X1.4977 Y1.0077 Z-0.4365
X1.4958 Y1.0094 Z-0.4327
X1.4951 Y1.0099 Z-0.4282
G0 Z0.24
X4. Y9.714
G1 Z0.1518 F40.
X3.9999 Y9.7155 Z0.146 F20.
X3.9994 Y9.7196 Z0.1417
X3.9983 Y9.7252 Z0.14
G3 X3.8898 Y9.6971 Z0.1339 I-0.0543 J-0.0141
X3.9983 Y9.7252 Z0.1277 I0.0543 J0.0141
X3.8898 Y9.6971 Z0.1216 I-0.0543 J-0.0141
X3.9983 Y9.7252 Z0.1154 I0.0543 J0.0141
X3.8898 Y9.6971 Z0.1093 I-0.0543 J-0.0141
X3.9983 Y9.7252 Z0.1031 I0.0543 J0.0141
X3.8898 Y9.6971 Z0.097 I-0.0543 J-0.0141
X3.9983 Y9.7252 Z0.0908 I0.0543 J0.0141
X3.8898 Y9.6971 Z0.0847 I-0.0543 J-0.0141
X3.9983 Y9.7252 Z0.0785 I0.0543 J0.0141
X3.8898 Y9.6971 Z0.0724 I-0.0543 J-0.0141
X3.9983 Y9.7252 Z0.0662 I0.0543 J0.0141
X3.8898 Y9.6971 Z0.0601 I-0.0543 J-0.0141
X3.9983 Y9.7252 Z0.0539 I0.0543 J0.0141
X3.8898 Y9.6971 Z0.0478 I-0.0543 J-0.0141
X3.9983 Y9.7252 Z0.0416 I0.0543 J0.0141
X3.8898 Y9.6971 Z0.0355 I-0.0543 J-0.0141
X3.9983 Y9.7252 Z0.0293 I0.0543 J0.0141
X3.8898 Y9.6971 Z0.0232 I-0.0543 J-0.0141
X3.9983 Y9.7252 Z0.017 I0.0543 J0.0141
X3.8898 Y9.6971 Z0.0109 I-0.0543 J-0.0141
X3.9983 Y9.7252 Z0.0047 I0.0543 J0.0141
X3.8898 Y9.6971 Z-0.0014 I-0.0543 J-0.0141
X3.9983 Y9.7252 Z-0.0076 I0.0543 J0.0141
X3.8898 Y9.6971 Z-0.0137 I-0.0543 J-0.0141
X3.9983 Y9.7252 Z-0.0199 I0.0543 J0.0141
X3.8898 Y9.6971 Z-0.026 I-0.0543 J-0.0141
X3.9983 Y9.7252 Z-0.0322 I0.0543 J0.0141
X3.8898 Y9.6971 Z-0.0383 I-0.0543 J-0.0141
X3.9983 Y9.7252 Z-0.0445 I0.0543 J0.0141
X3.8898 Y9.6971 Z-0.0506 I-0.0543 J-0.0141
X3.9983 Y9.7252 Z-0.0568 I0.0543 J0.0141
X3.8898 Y9.6971 Z-0.0629 I-0.0543 J-0.0141
X3.9983 Y9.7252 Z-0.0691 I0.0543 J0.0141
X3.8898 Y9.6971 Z-0.0752 I-0.0543 J-0.0141
X3.9983 Y9.7252 Z-0.0814 I0.0543 J0.0141
X3.8898 Y9.6971 Z-0.0875 I-0.0543 J-0.0141
X3.9983 Y9.7252 Z-0.0937 I0.0543 J0.0141
X3.8898 Y9.6971 Z-0.0998 I-0.0543 J-0.0141
X3.9983 Y9.7252 Z-0.106 I0.0543 J0.0141
X3.8898 Y9.6971 Z-0.1121 I-0.0543 J-0.0141
X3.9983 Y9.7252 Z-0.1183 I0.0543 J0.0141
X3.8898 Y9.6971 Z-0.1244 I-0.0543 J-0.0141
X3.9983 Y9.7252 Z-0.1306 I0.0543 J0.0141
X3.8898 Y9.6971 Z-0.1367 I-0.0543 J-0.0141
X3.9983 Y9.7252 Z-0.1429 I0.0543 J0.0141
X3.8898 Y9.6971 Z-0.149 I-0.0543 J-0.0141
X3.9983 Y9.7252 Z-0.1552 I0.0543 J0.0141
X3.8898 Y9.6971 Z-0.1613 I-0.0543 J-0.0141
X3.9983 Y9.7252 Z-0.1675 I0.0543 J0.0141
X3.8898 Y9.6971 Z-0.1736 I-0.0543 J-0.0141
X3.9983 Y9.7252 Z-0.1798 I0.0543 J0.0141
X3.8898 Y9.6971 Z-0.1859 I-0.0543 J-0.0141
X3.9983 Y9.7252 Z-0.192 I0.0543 J0.0141
X3.8898 Y9.6971 Z-0.1982 I-0.0543 J-0.0141
X3.9983 Y9.7252 Z-0.2043 I0.0543 J0.0141
X3.888 Y9.7111 Z-0.21 I-0.0543 J-0.0141
X3.9575 I0.0348 J0. F40.
X3.7759 I-0.0908 J0.
X4.0696 I0.1469 J0.
X3.6638 I-0.2029 J0.
X4.1817 I0.259 J0.
X3.5517 I-0.315 J0.
X4.1817 I0.315 J0.
G1 X4.1814 Y9.7129
X4.1806 Y9.7145
X4.1794 Y9.7158
X4.1778 Y9.7167
X4.176 Y9.717
X4.0177 Y9.7238
X4.0159
X4.0142 Y9.7232
X4.0127 Y9.7222
X3.9549 Y9.6675
G3 X3.9607 Y9.6576 I0.0041 J-0.0043
X3.9274 Y9.7647 Z-0.2161 I-0.0166 J0.0535 F20.
X3.9607 Y9.6576 Z-0.2223 I0.0166 J-0.0535
X3.9274 Y9.7647 Z-0.2284 I-0.0166 J0.0535
X3.9607 Y9.6576 Z-0.2346 I0.0166 J-0.0535
X3.9274 Y9.7647 Z-0.2407 I-0.0166 J0.0535
X3.9607 Y9.6576 Z-0.2469 I0.0166 J-0.0535
X3.9274 Y9.7647 Z-0.253 I-0.0166 J0.0535
X3.9607 Y9.6576 Z-0.2592 I0.0166 J-0.0535
X3.9274 Y9.7647 Z-0.2653 I-0.0166 J0.0535
X3.9607 Y9.6576 Z-0.2715 I0.0166 J-0.0535
X3.9274 Y9.7647 Z-0.2776 I-0.0166 J0.0535
X3.9607 Y9.6576 Z-0.2838 I0.0166 J-0.0535
X3.9274 Y9.7647 Z-0.2899 I-0.0166 J0.0535
X3.9607 Y9.6576 Z-0.2961 I0.0166 J-0.0535
X3.9274 Y9.7647 Z-0.3022 I-0.0166 J0.0535
X3.9607 Y9.6576 Z-0.3084 I0.0166 J-0.0535
X3.9274 Y9.7647 Z-0.3145 I-0.0166 J0.0535
X3.9607 Y9.6576 Z-0.3207 I0.0166 J-0.0535
X3.9274 Y9.7647 Z-0.3268 I-0.0166 J0.0535
X3.9607 Y9.6576 Z-0.333 I0.0166 J-0.0535
X3.9274 Y9.7647 Z-0.3391 I-0.0166 J0.0535
X3.9607 Y9.6576 Z-0.3453 I0.0166 J-0.0535
X3.9274 Y9.7647 Z-0.3514 I-0.0166 J0.0535
X3.9607 Y9.6576 Z-0.3576 I0.0166 J-0.0535
X3.9274 Y9.7647 Z-0.3637 I-0.0166 J0.0535
X3.9607 Y9.6576 Z-0.3699 I0.0166 J-0.0535
X3.9274 Y9.7647 Z-0.376 I-0.0166 J0.0535
X3.9607 Y9.6576 Z-0.3822 I0.0166 J-0.0535
X3.9274 Y9.7647 Z-0.3883 I-0.0166 J0.0535
X3.9607 Y9.6576 Z-0.3945 I0.0166 J-0.0535
X3.9274 Y9.7647 Z-0.4006 I-0.0166 J0.0535
X3.9607 Y9.6576 Z-0.4068 I0.0166 J-0.0535
X3.9274 Y9.7647 Z-0.4129 I-0.0166 J0.0535
X3.9607 Y9.6576 Z-0.4191 I0.0166 J-0.0535
X3.9274 Y9.7647 Z-0.4252 I-0.0166 J0.0535
X3.9607 Y9.6576 Z-0.4314 I0.0166 J-0.0535
X3.9274 Y9.7647 Z-0.4375 I-0.0166 J0.0535
X3.888 Y9.7111 Z-0.44 I0.0166 J-0.0535
X3.9575 I0.0348 J0. F40.
X3.7759 I-0.0908 J0.
X4.0696 I0.1469 J0.
X3.6638 I-0.2029 J0.
X4.1817 I0.259 J0.
X3.5517 I-0.315 J0.
X4.1817 I0.315 J0.
G1 X4.1815 Y9.7134 Z-0.4396
X4.1808 Y9.7155 Z-0.4391
X4.18 Y9.7173 Z-0.4378
X4.1789 Y9.7188 Z-0.4365
X4.177 Y9.7206 Z-0.4327
X4.1763 Y9.7211 Z-0.4282
G0 Z0.24
X1.44 Y13.7418
G1 Z0.1518 F40.
X1.4401 Y13.7403 Z0.146 F20.
X1.4406 Y13.7362 Z0.1417
X1.4418 Y13.7306 Z0.14
G3 X1.5503 Y13.7587 Z0.1339 I0.0543 J0.0141
X1.4418 Y13.7306 Z0.1277 I-0.0543 J-0.0141
X1.5503 Y13.7587 Z0.1216 I0.0543 J0.0141
X1.4418 Y13.7306 Z0.1154 I-0.0543 J-0.0141
X1.5503 Y13.7587 Z0.1093 I0.0543 J0.0141
X1.4418 Y13.7306 Z0.1031 I-0.0543 J-0.0141
X1.5503 Y13.7587 Z0.097 I0.0543 J0.0141
X1.4418 Y13.7306 Z0.0908 I-0.0543 J-0.0141
X1.5503 Y13.7587 Z0.0847 I0.0543 J0.0141
X1.4418 Y13.7306 Z0.0785 I-0.0543 J-0.0141
X1.5503 Y13.7587 Z0.0724 I0.0543 J0.0141
X1.4418 Y13.7306 Z0.0662 I-0.0543 J-0.0141
X1.5503 Y13.7587 Z0.0601 I0.0543 J0.0141
X1.4418 Y13.7306 Z0.0539 I-0.0543 J-0.0141
X1.5503 Y13.7587 Z0.0478 I0.0543 J0.0141
X1.4418 Y13.7306 Z0.0416 I-0.0543 J-0.0141
X1.5503 Y13.7587 Z0.0355 I0.0543 J0.0141
X1.4418 Y13.7306 Z0.0293 I-0.0543 J-0.0141
X1.5503 Y13.7587 Z0.0232 I0.0543 J0.0141
X1.4418 Y13.7306 Z0.017 I-0.0543 J-0.0141
X1.5503 Y13.7587 Z0.0109 I0.0543 J0.0141
X1.4418 Y13.7306 Z0.0047 I-0.0543 J-0.0141
X1.5503 Y13.7587 Z-0.0014 I0.0543 J0.0141
X1.4418 Y13.7306 Z-0.0076 I-0.0543 J-0.0141
X1.5503 Y13.7587 Z-0.0137 I0.0543 J0.0141
X1.4418 Y13.7306 Z-0.0199 I-0.0543 J-0.0141
X1.5503 Y13.7587 Z-0.026 I0.0543 J0.0141
X1.4418 Y13.7306 Z-0.0322 I-0.0543 J-0.0141
X1.5503 Y13.7587 Z-0.0383 I0.0543 J0.0141
X1.4418 Y13.7306 Z-0.0445 I-0.0543 J-0.0141
X1.5503 Y13.7587 Z-0.0506 I0.0543 J0.0141
X1.4418 Y13.7306 Z-0.0568 I-0.0543 J-0.0141
X1.5503 Y13.7587 Z-0.0629 I0.0543 J0.0141
X1.4418 Y13.7306 Z-0.0691 I-0.0543 J-0.0141
X1.5503 Y13.7587 Z-0.0752 I0.0543 J0.0141
X1.4418 Y13.7306 Z-0.0814 I-0.0543 J-0.0141
X1.5503 Y13.7587 Z-0.0875 I0.0543 J0.0141
X1.4418 Y13.7306 Z-0.0937 I-0.0543 J-0.0141
X1.5503 Y13.7587 Z-0.0998 I0.0543 J0.0141
X1.4418 Y13.7306 Z-0.106 I-0.0543 J-0.0141
X1.5503 Y13.7587 Z-0.1121 I0.0543 J0.0141
X1.4418 Y13.7306 Z-0.1183 I-0.0543 J-0.0141
X1.5503 Y13.7587 Z-0.1244 I0.0543 J0.0141
X1.4418 Y13.7306 Z-0.1306 I-0.0543 J-0.0141
X1.5503 Y13.7587 Z-0.1367 I0.0543 J0.0141
X1.4418 Y13.7306 Z-0.1429 I-0.0543 J-0.0141
X1.5503 Y13.7587 Z-0.149 I0.0543 J0.0141
X1.4418 Y13.7306 Z-0.1552 I-0.0543 J-0.0141
X1.5503 Y13.7587 Z-0.1613 I0.0543 J0.0141
X1.4418 Y13.7306 Z-0.1675 I-0.0543 J-0.0141
X1.5503 Y13.7587 Z-0.1736 I0.0543 J0.0141
X1.4418 Y13.7306 Z-0.1798 I-0.0543 J-0.0141
X1.5503 Y13.7587 Z-0.1859 I0.0543 J0.0141
X1.4418 Y13.7306 Z-0.192 I-0.0543 J-0.0141
X1.5503 Y13.7587 Z-0.1982 I0.0543 J0.0141
X1.4418 Y13.7306 Z-0.2043 I-0.0543 J-0.0141
X1.5521 Y13.7446 Z-0.21 I0.0543 J0.0141
X1.4479 I-0.0521 J0. F40.
X1.6642 I0.1081 J0.
X1.3358 I-0.1642 J0.
X1.7763 I0.2202 J0.
X1.2237 I-0.2763 J0.
X1.8884 I0.3323 J0.
X1.1116 I-0.3884 J0.
X2.0005 I0.4444 J0.
X0.9995 I-0.5005 J0.
X2.0005 I0.5005 J0.
G1 X2.0002 Y13.7463
X1.9995 Y13.7479
X1.9984 Y13.7492
X1.9969 Y13.7501
X1.9952 Y13.7505
X1.9935 Y13.7504
X1.6826 Y13.6936
X1.6811 Y13.6933
X1.6795 Y13.6934
X1.678 Y13.694
X1.4839 Y13.7977
X1.4825 Y13.7983
X1.4809 Y13.7984
X1.4794 Y13.7982
G3 X1.5127 Y13.6911 Z-0.2161 I0.0166 J-0.0535 F20.
X1.4794 Y13.7982 Z-0.2223 I-0.0166 J0.0535
X1.5127 Y13.6911 Z-0.2284 I0.0166 J-0.0535
X1.4794 Y13.7982 Z-0.2346 I-0.0166 J0.0535
X1.5127 Y13.6911 Z-0.2407 I0.0166 J-0.0535
X1.4794 Y13.7982 Z-0.2469 I-0.0166 J0.0535
X1.5127 Y13.6911 Z-0.253 I0.0166 J-0.0535
X1.4794 Y13.7982 Z-0.2592 I-0.0166 J0.0535
X1.5127 Y13.6911 Z-0.2653 I0.0166 J-0.0535
X1.4794 Y13.7982 Z-0.2715 I-0.0166 J0.0535
X1.5127 Y13.6911 Z-0.2776 I0.0166 J-0.0535
X1.4794 Y13.7982 Z-0.2838 I-0.0166 J0.0535
X1.5127 Y13.6911 Z-0.2899 I0.0166 J-0.0535
X1.4794 Y13.7982 Z-0.2961 I-0.0166 J0.0535
X1.5127 Y13.6911 Z-0.3022 I0.0166 J-0.0535
X1.4794 Y13.7982 Z-0.3084 I-0.0166 J0.0535
X1.5127 Y13.6911 Z-0.3145 I0.0166 J-0.0535
X1.4794 Y13.7982 Z-0.3207 I-0.0166 J0.0535
X1.5127 Y13.6911 Z-0.3268 I0.0166 J-0.0535
X1.4794 Y13.7982 Z-0.333 I-0.0166 J0.0535
X1.5127 Y13.6911 Z-0.3391 I0.0166 J-0.0535
X1.4794 Y13.7982 Z-0.3453 I-0.0166 J0.0535
X1.5127 Y13.6911 Z-0.3514 I0.0166 J-0.0535
X1.4794 Y13.7982 Z-0.3576 I-0.0166 J0.0535
X1.5127 Y13.6911 Z-0.3637 I0.0166 J-0.0535
X1.4794 Y13.7982 Z-0.3699 I-0.0166 J0.0535
X1.5127 Y13.6911 Z-0.376 I0.0166 J-0.0535
X1.4794 Y13.7982 Z-0.3822 I-0.0166 J0.0535
X1.5127 Y13.6911 Z-0.3883 I0.0166 J-0.0535
X1.4794 Y13.7982 Z-0.3945 I-0.0166 J0.0535
X1.5127 Y13.6911 Z-0.4006 I0.0166 J-0.0535
X1.4794 Y13.7982 Z-0.4068 I-0.0166 J0.0535
X1.5127 Y13.6911 Z-0.4129 I0.0166 J-0.0535
X1.4794 Y13.7982 Z-0.4191 I-0.0166 J0.0535
X1.5127 Y13.6911 Z-0.4252 I0.0166 J-0.0535
X1.4794 Y13.7982 Z-0.4314 I-0.0166 J0.0535
X1.5127 Y13.6911 Z-0.4375 I0.0166 J-0.0535
X1.5521 Y13.7446 Z-0.44 I-0.0166 J0.0535
X1.4479 I-0.0521 J0. F40.
X1.6642 I0.1081 J0.
X1.3358 I-0.1642 J0.
X1.7763 I0.2202 J0.
X1.2237 I-0.2763 J0.
X1.8884 I0.3323 J0.
X1.1116 I-0.3884 J0.
X2.0005 I0.4444 J0.
X0.9995 I-0.5005 J0.
X2.0005 I0.5005 J0.
G1 X2.0003 Y13.7469 Z-0.4396
X1.9996 Y13.749 Z-0.4391
X1.9988 Y13.7508 Z-0.4378
X1.9976 Y13.7523 Z-0.4365
X1.9958 Y13.7541 Z-0.4327
X1.9951 Y13.7546 Z-0.4282
G0 Z0.64

M9
M30
