(X8 ARM PLATE HOLES)
(T3  D=0.118 CR=0. - ZMIN=-0.44 - FLAT END MILL)
G90 G94 G91.1 G40 G49 G17
G20

(2D POCKET1)
M5
T3 M6
S15000 M3
G54
M8
G0 X5.7344 Y5.1886
G43 Z0.64 H3
Z0.24
G1 Z0.1518 F40.
X5.7331 Y5.188 Z0.1461 F20.
X5.7296 Y5.1861 Z0.1419
X5.725 Y5.183 Z0.14
X5.7247 Y5.1827
G3 X5.7926 Y5.0935 Z0.1339 I0.0339 J-0.0446
X5.7247 Y5.1827 Z0.1277 I-0.0339 J0.0446
X5.7926 Y5.0935 Z0.1216 I0.0339 J-0.0446
X5.7247 Y5.1827 Z0.1154 I-0.0339 J0.0446
X5.7926 Y5.0935 Z0.1093 I0.0339 J-0.0446
X5.7247 Y5.1827 Z0.1031 I-0.0339 J0.0446
X5.7926 Y5.0935 Z0.097 I0.0339 J-0.0446
X5.7247 Y5.1827 Z0.0908 I-0.0339 J0.0446
X5.7926 Y5.0935 Z0.0847 I0.0339 J-0.0446
X5.7247 Y5.1827 Z0.0785 I-0.0339 J0.0446
X5.7926 Y5.0935 Z0.0724 I0.0339 J-0.0446
X5.7247 Y5.1827 Z0.0662 I-0.0339 J0.0446
X5.7926 Y5.0935 Z0.0601 I0.0339 J-0.0446
X5.7247 Y5.1827 Z0.0539 I-0.0339 J0.0446
X5.7926 Y5.0935 Z0.0478 I0.0339 J-0.0446
X5.7247 Y5.1827 Z0.0416 I-0.0339 J0.0446
X5.7926 Y5.0935 Z0.0355 I0.0339 J-0.0446
X5.7247 Y5.1827 Z0.0293 I-0.0339 J0.0446
X5.7926 Y5.0935 Z0.0232 I0.0339 J-0.0446
X5.7247 Y5.1827 Z0.017 I-0.0339 J0.0446
X5.7926 Y5.0935 Z0.0109 I0.0339 J-0.0446
X5.7247 Y5.1827 Z0.0047 I-0.0339 J0.0446
X5.7926 Y5.0935 Z-0.0014 I0.0339 J-0.0446
X5.7247 Y5.1827 Z-0.0076 I-0.0339 J0.0446
X5.7926 Y5.0935 Z-0.0137 I0.0339 J-0.0446
X5.7247 Y5.1827 Z-0.0199 I-0.0339 J0.0446
X5.7926 Y5.0935 Z-0.026 I0.0339 J-0.0446
X5.7247 Y5.1827 Z-0.0322 I-0.0339 J0.0446
X5.7926 Y5.0935 Z-0.0383 I0.0339 J-0.0446
X5.7247 Y5.1827 Z-0.0445 I-0.0339 J0.0446
X5.7926 Y5.0935 Z-0.0506 I0.0339 J-0.0446
X5.7247 Y5.1827 Z-0.0568 I-0.0339 J0.0446
X5.7926 Y5.0935 Z-0.0629 I0.0339 J-0.0446
X5.7247 Y5.1827 Z-0.0691 I-0.0339 J0.0446
X5.7926 Y5.0935 Z-0.0752 I0.0339 J-0.0446
X5.7247 Y5.1827 Z-0.0814 I-0.0339 J0.0446
X5.7926 Y5.0935 Z-0.0875 I0.0339 J-0.0446
X5.7247 Y5.1827 Z-0.0937 I-0.0339 J0.0446
X5.7926 Y5.0935 Z-0.0998 I0.0339 J-0.0446
X5.7247 Y5.1827 Z-0.106 I-0.0339 J0.0446
X5.7926 Y5.0935 Z-0.1121 I0.0339 J-0.0446
X5.7247 Y5.1827 Z-0.1183 I-0.0339 J0.0446
X5.7926 Y5.0935 Z-0.1244 I0.0339 J-0.0446
X5.7247 Y5.1827 Z-0.1306 I-0.0339 J0.0446
X5.7926 Y5.0935 Z-0.1367 I0.0339 J-0.0446
X5.7247 Y5.1827 Z-0.1429 I-0.0339 J0.0446
X5.7926 Y5.0935 Z-0.149 I0.0339 J-0.0446
X5.7247 Y5.1827 Z-0.1552 I-0.0339 J0.0446
X5.7926 Y5.0935 Z-0.1613 I0.0339 J-0.0446
X5.7247 Y5.1827 Z-0.1675 I-0.0339 J0.0446
X5.7926 Y5.0935 Z-0.1736 I0.0339 J-0.0446
X5.7247 Y5.1827 Z-0.1798 I-0.0339 J0.0446
X5.7926 Y5.0935 Z-0.1859 I0.0339 J-0.0446
X5.7247 Y5.1827 Z-0.192 I-0.0339 J0.0446
X5.7926 Y5.0935 Z-0.1982 I0.0339 J-0.0446
X5.8147 Y5.1381 Z-0.2 I-0.0339 J0.0446
X5.7105 I-0.0521 J0. F40.
X5.9268 I0.1081 J0.
X5.5984 I-0.1642 J0.
X6.0389 I0.2202 J0.
X5.4863 I-0.2763 J0.
X6.151 I0.3323 J0.
X5.3742 I-0.3884 J0.
X6.2631 I0.4444 J0.
X5.2621 I-0.5005 J0.
X6.2631 I0.5005 J0.
G1 X6.2628 Y5.14
X6.2619 Y5.1416
X6.2606 Y5.143
X6.2589 Y5.1438
X6.257 Y5.144
X5.9827 Y5.1341
X5.709 Y5.1488
X5.7073 Y5.1486
X5.7056 Y5.1479
X5.7042 Y5.1467
X5.7033 Y5.1452
X5.7028 Y5.1434
G3 X5.8144 Y5.1328 Z-0.2061 I0.0558 J-0.0053 F20.
X5.7028 Y5.1434 Z-0.2123 I-0.0558 J0.0053
X5.8144 Y5.1328 Z-0.2184 I0.0558 J-0.0053
X5.7028 Y5.1434 Z-0.2246 I-0.0558 J0.0053
X5.8144 Y5.1328 Z-0.2307 I0.0558 J-0.0053
X5.7028 Y5.1434 Z-0.2369 I-0.0558 J0.0053
X5.8144 Y5.1328 Z-0.243 I0.0558 J-0.0053
X5.7028 Y5.1434 Z-0.2492 I-0.0558 J0.0053
X5.8144 Y5.1328 Z-0.2553 I0.0558 J-0.0053
X5.7028 Y5.1434 Z-0.2615 I-0.0558 J0.0053
X5.8144 Y5.1328 Z-0.2676 I0.0558 J-0.0053
X5.7028 Y5.1434 Z-0.2738 I-0.0558 J0.0053
X5.8144 Y5.1328 Z-0.2799 I0.0558 J-0.0053
X5.7028 Y5.1434 Z-0.2861 I-0.0558 J0.0053
X5.8144 Y5.1328 Z-0.2922 I0.0558 J-0.0053
X5.7028 Y5.1434 Z-0.2984 I-0.0558 J0.0053
X5.8144 Y5.1328 Z-0.3045 I0.0558 J-0.0053
X5.7028 Y5.1434 Z-0.3107 I-0.0558 J0.0053
X5.8144 Y5.1328 Z-0.3168 I0.0558 J-0.0053
X5.7028 Y5.1434 Z-0.323 I-0.0558 J0.0053
X5.8144 Y5.1328 Z-0.3291 I0.0558 J-0.0053
X5.7028 Y5.1434 Z-0.3353 I-0.0558 J0.0053
X5.8144 Y5.1328 Z-0.3414 I0.0558 J-0.0053
X5.7028 Y5.1434 Z-0.3476 I-0.0558 J0.0053
X5.8144 Y5.1328 Z-0.3537 I0.0558 J-0.0053
X5.7028 Y5.1434 Z-0.3599 I-0.0558 J0.0053
X5.8144 Y5.1328 Z-0.366 I0.0558 J-0.0053
X5.7028 Y5.1434 Z-0.3722 I-0.0558 J0.0053
X5.8144 Y5.1328 Z-0.3783 I0.0558 J-0.0053
X5.7028 Y5.1434 Z-0.3845 I-0.0558 J0.0053
X5.8144 Y5.1328 Z-0.3906 I0.0558 J-0.0053
X5.7028 Y5.1434 Z-0.3968 I-0.0558 J0.0053
X5.8144 Y5.1328 Z-0.4029 I0.0558 J-0.0053
X5.7028 Y5.1434 Z-0.4091 I-0.0558 J0.0053
X5.8144 Y5.1328 Z-0.4152 I0.0558 J-0.0053
X5.7028 Y5.1434 Z-0.4214 I-0.0558 J0.0053
X5.8144 Y5.1328 Z-0.4275 I0.0558 J-0.0053
X5.7028 Y5.1434 Z-0.4337 I-0.0558 J0.0053
X5.756 Y5.0821 Z-0.4368 I0.0558 J-0.0053
X5.8147 Y5.1381 Z-0.44 I0.0027 J0.056
X5.7105 I-0.0521 J0. F40.
X5.9268 I0.1081 J0.
X5.5984 I-0.1642 J0.
X6.0389 I0.2202 J0.
X5.4863 I-0.2763 J0.
X6.151 I0.3323 J0.
X5.3742 I-0.3884 J0.
X6.2631 I0.4444 J0.
X5.2621 I-0.5005 J0.
X6.2631 I0.5005 J0.
G1 X6.2629 Y5.1404 Z-0.4396
X6.2622 Y5.1425 Z-0.4391
X6.2614 Y5.1442 Z-0.4378
X6.2603 Y5.1458 Z-0.4365
X6.2584 Y5.1475 Z-0.4327
X6.2577 Y5.148 Z-0.4282
G0 Z0.24
X5.6094 Y1.0505
G1 Z0.1518 F40.
X5.6081 Y1.0499 Z0.1461 F20.
X5.6046 Y1.0479 Z0.1419
X5.6 Y1.0448 Z0.14
X5.5997 Y1.0446
G3 X5.6676 Y0.9554 Z0.1339 I0.0339 J-0.0446
X5.5997 Y1.0446 Z0.1277 I-0.0339 J0.0446
X5.6676 Y0.9554 Z0.1216 I0.0339 J-0.0446
X5.5997 Y1.0446 Z0.1154 I-0.0339 J0.0446
X5.6676 Y0.9554 Z0.1093 I0.0339 J-0.0446
X5.5997 Y1.0446 Z0.1031 I-0.0339 J0.0446
X5.6676 Y0.9554 Z0.097 I0.0339 J-0.0446
X5.5997 Y1.0446 Z0.0908 I-0.0339 J0.0446
X5.6676 Y0.9554 Z0.0847 I0.0339 J-0.0446
X5.5997 Y1.0446 Z0.0785 I-0.0339 J0.0446
X5.6676 Y0.9554 Z0.0724 I0.0339 J-0.0446
X5.5997 Y1.0446 Z0.0662 I-0.0339 J0.0446
X5.6676 Y0.9554 Z0.0601 I0.0339 J-0.0446
X5.5997 Y1.0446 Z0.0539 I-0.0339 J0.0446
X5.6676 Y0.9554 Z0.0478 I0.0339 J-0.0446
X5.5997 Y1.0446 Z0.0416 I-0.0339 J0.0446
X5.6676 Y0.9554 Z0.0355 I0.0339 J-0.0446
X5.5997 Y1.0446 Z0.0293 I-0.0339 J0.0446
X5.6676 Y0.9554 Z0.0232 I0.0339 J-0.0446
X5.5997 Y1.0446 Z0.017 I-0.0339 J0.0446
X5.6676 Y0.9554 Z0.0109 I0.0339 J-0.0446
X5.5997 Y1.0446 Z0.0047 I-0.0339 J0.0446
X5.6676 Y0.9554 Z-0.0014 I0.0339 J-0.0446
X5.5997 Y1.0446 Z-0.0076 I-0.0339 J0.0446
X5.6676 Y0.9554 Z-0.0137 I0.0339 J-0.0446
X5.5997 Y1.0446 Z-0.0199 I-0.0339 J0.0446
X5.6676 Y0.9554 Z-0.026 I0.0339 J-0.0446
X5.5997 Y1.0446 Z-0.0322 I-0.0339 J0.0446
X5.6676 Y0.9554 Z-0.0383 I0.0339 J-0.0446
X5.5997 Y1.0446 Z-0.0445 I-0.0339 J0.0446
X5.6676 Y0.9554 Z-0.0506 I0.0339 J-0.0446
X5.5997 Y1.0446 Z-0.0568 I-0.0339 J0.0446
X5.6676 Y0.9554 Z-0.0629 I0.0339 J-0.0446
X5.5997 Y1.0446 Z-0.0691 I-0.0339 J0.0446
X5.6676 Y0.9554 Z-0.0752 I0.0339 J-0.0446
X5.5997 Y1.0446 Z-0.0814 I-0.0339 J0.0446
X5.6676 Y0.9554 Z-0.0875 I0.0339 J-0.0446
X5.5997 Y1.0446 Z-0.0937 I-0.0339 J0.0446
X5.6676 Y0.9554 Z-0.0998 I0.0339 J-0.0446
X5.5997 Y1.0446 Z-0.106 I-0.0339 J0.0446
X5.6676 Y0.9554 Z-0.1121 I0.0339 J-0.0446
X5.5997 Y1.0446 Z-0.1183 I-0.0339 J0.0446
X5.6676 Y0.9554 Z-0.1244 I0.0339 J-0.0446
X5.5997 Y1.0446 Z-0.1306 I-0.0339 J0.0446
X5.6676 Y0.9554 Z-0.1367 I0.0339 J-0.0446
X5.5997 Y1.0446 Z-0.1429 I-0.0339 J0.0446
X5.6676 Y0.9554 Z-0.149 I0.0339 J-0.0446
X5.5997 Y1.0446 Z-0.1552 I-0.0339 J0.0446
X5.6676 Y0.9554 Z-0.1613 I0.0339 J-0.0446
X5.5997 Y1.0446 Z-0.1675 I-0.0339 J0.0446
X5.6676 Y0.9554 Z-0.1736 I0.0339 J-0.0446
X5.5997 Y1.0446 Z-0.1798 I-0.0339 J0.0446
X5.6676 Y0.9554 Z-0.1859 I0.0339 J-0.0446
X5.5997 Y1.0446 Z-0.192 I-0.0339 J0.0446
X5.6676 Y0.9554 Z-0.1982 I0.0339 J-0.0446
X5.6897 Y1. Z-0.2 I-0.0339 J0.0446
X5.5855 I-0.0521 J0. F40.
X5.8018 I0.1082 J0.
X5.4734 I-0.1642 J0.
X5.9139 I0.2203 J0.
X5.3613 I-0.2763 J0.
X6.026 I0.3324 J0.
X5.2492 I-0.3884 J0.
X6.1381 I0.4445 J0.
X5.1371 I-0.5005 J0.
X6.1381 I0.5005 J0.
G1 X6.1378 Y1.0019
X6.1369 Y1.0035
X6.1356 Y1.0048
X6.1339 Y1.0057
X6.132 Y1.0059
X5.8577 Y0.996
X5.584 Y1.0107
X5.5823 Y1.0105
X5.5806 Y1.0098
X5.5792 Y1.0086
X5.5783 Y1.0071
X5.5779 Y1.0053
G3 X5.6894 Y0.9947 Z-0.2061 I0.0558 J-0.0053 F20.
X5.5779 Y1.0053 Z-0.2123 I-0.0558 J0.0053
X5.6894 Y0.9947 Z-0.2184 I0.0558 J-0.0053
X5.5779 Y1.0053 Z-0.2246 I-0.0558 J0.0053
X5.6894 Y0.9947 Z-0.2307 I0.0558 J-0.0053
X5.5779 Y1.0053 Z-0.2369 I-0.0558 J0.0053
X5.6894 Y0.9947 Z-0.243 I0.0558 J-0.0053
X5.5779 Y1.0053 Z-0.2492 I-0.0558 J0.0053
X5.6894 Y0.9947 Z-0.2553 I0.0558 J-0.0053
X5.5779 Y1.0053 Z-0.2615 I-0.0558 J0.0053
X5.6894 Y0.9947 Z-0.2676 I0.0558 J-0.0053
X5.5779 Y1.0053 Z-0.2738 I-0.0558 J0.0053
X5.6894 Y0.9947 Z-0.2799 I0.0558 J-0.0053
X5.5779 Y1.0053 Z-0.2861 I-0.0558 J0.0053
X5.6894 Y0.9947 Z-0.2922 I0.0558 J-0.0053
X5.5779 Y1.0053 Z-0.2984 I-0.0558 J0.0053
X5.6894 Y0.9947 Z-0.3045 I0.0558 J-0.0053
X5.5779 Y1.0053 Z-0.3107 I-0.0558 J0.0053
X5.6894 Y0.9947 Z-0.3168 I0.0558 J-0.0053
X5.5779 Y1.0053 Z-0.323 I-0.0558 J0.0053
X5.6894 Y0.9947 Z-0.3291 I0.0558 J-0.0053
X5.5779 Y1.0053 Z-0.3353 I-0.0558 J0.0053
X5.6894 Y0.9947 Z-0.3414 I0.0558 J-0.0053
X5.5779 Y1.0053 Z-0.3476 I-0.0558 J0.0053
X5.6894 Y0.9947 Z-0.3537 I0.0558 J-0.0053
X5.5779 Y1.0053 Z-0.3599 I-0.0558 J0.0053
X5.6894 Y0.9947 Z-0.366 I0.0558 J-0.0053
X5.5779 Y1.0053 Z-0.3722 I-0.0558 J0.0053
X5.6894 Y0.9947 Z-0.3783 I0.0558 J-0.0053
X5.5779 Y1.0053 Z-0.3845 I-0.0558 J0.0053
X5.6894 Y0.9947 Z-0.3906 I0.0558 J-0.0053
X5.5779 Y1.0053 Z-0.3968 I-0.0558 J0.0053
X5.6894 Y0.9947 Z-0.4029 I0.0558 J-0.0053
X5.5779 Y1.0053 Z-0.4091 I-0.0558 J0.0053
X5.6894 Y0.9947 Z-0.4152 I0.0558 J-0.0053
X5.5779 Y1.0053 Z-0.4214 I-0.0558 J0.0053
X5.6894 Y0.9947 Z-0.4275 I0.0558 J-0.0053
X5.5779 Y1.0053 Z-0.4337 I-0.0558 J0.0053
X5.631 Y0.944 Z-0.4368 I0.0558 J-0.0053
X5.6897 Y1. Z-0.44 I0.0027 J0.056
X5.5855 I-0.0521 J0. F40.
X5.8018 I0.1082 J0.
X5.4734 I-0.1642 J0.
X5.9139 I0.2203 J0.
X5.3613 I-0.2763 J0.
X6.026 I0.3324 J0.
X5.2492 I-0.3884 J0.
X6.1381 I0.4445 J0.
X5.1371 I-0.5005 J0.
X6.1381 I0.5005 J0.
G1 X6.1379 Y1.0022 Z-0.4396
X6.1372 Y1.0044 Z-0.4391
X6.1364 Y1.0061 Z-0.4378
X6.1353 Y1.0077 Z-0.4365
X6.1334 Y1.0094 Z-0.4327
X6.1327 Y1.0099 Z-0.4282
G0 Z0.24
X5.2655 Y10.1079
G1 Z0.1518 F40.
X5.2668 Y10.1086 Z0.1461 F20.
X5.2703 Y10.1105 Z0.1419
X5.2749 Y10.1136 Z0.14
X5.2752 Y10.1139
G3 X5.2073 Y10.2031 Z0.1339 I-0.0339 J0.0446
X5.2752 Y10.1139 Z0.1277 I0.0339 J-0.0446
X5.2073 Y10.2031 Z0.1216 I-0.0339 J0.0446
X5.2752 Y10.1139 Z0.1154 I0.0339 J-0.0446
X5.2073 Y10.2031 Z0.1093 I-0.0339 J0.0446
X5.2752 Y10.1139 Z0.1031 I0.0339 J-0.0446
X5.2073 Y10.2031 Z0.097 I-0.0339 J0.0446
X5.2752 Y10.1139 Z0.0908 I0.0339 J-0.0446
X5.2073 Y10.2031 Z0.0847 I-0.0339 J0.0446
X5.2752 Y10.1139 Z0.0785 I0.0339 J-0.0446
X5.2073 Y10.2031 Z0.0724 I-0.0339 J0.0446
X5.2752 Y10.1139 Z0.0662 I0.0339 J-0.0446
X5.2073 Y10.2031 Z0.0601 I-0.0339 J0.0446
X5.2752 Y10.1139 Z0.0539 I0.0339 J-0.0446
X5.2073 Y10.2031 Z0.0478 I-0.0339 J0.0446
X5.2752 Y10.1139 Z0.0416 I0.0339 J-0.0446
X5.2073 Y10.2031 Z0.0355 I-0.0339 J0.0446
X5.2752 Y10.1139 Z0.0293 I0.0339 J-0.0446
X5.2073 Y10.2031 Z0.0232 I-0.0339 J0.0446
X5.2752 Y10.1139 Z0.017 I0.0339 J-0.0446
X5.2073 Y10.2031 Z0.0109 I-0.0339 J0.0446
X5.2752 Y10.1139 Z0.0047 I0.0339 J-0.0446
X5.2073 Y10.2031 Z-0.0014 I-0.0339 J0.0446
X5.2752 Y10.1139 Z-0.0076 I0.0339 J-0.0446
X5.2073 Y10.2031 Z-0.0137 I-0.0339 J0.0446
X5.2752 Y10.1139 Z-0.0199 I0.0339 J-0.0446
X5.2073 Y10.2031 Z-0.026 I-0.0339 J0.0446
X5.2752 Y10.1139 Z-0.0322 I0.0339 J-0.0446
X5.2073 Y10.2031 Z-0.0383 I-0.0339 J0.0446
X5.2752 Y10.1139 Z-0.0445 I0.0339 J-0.0446
X5.2073 Y10.2031 Z-0.0506 I-0.0339 J0.0446
X5.2752 Y10.1139 Z-0.0568 I0.0339 J-0.0446
X5.2073 Y10.2031 Z-0.0629 I-0.0339 J0.0446
X5.2752 Y10.1139 Z-0.0691 I0.0339 J-0.0446
X5.2073 Y10.2031 Z-0.0752 I-0.0339 J0.0446
X5.2752 Y10.1139 Z-0.0814 I0.0339 J-0.0446
X5.2073 Y10.2031 Z-0.0875 I-0.0339 J0.0446
X5.2752 Y10.1139 Z-0.0937 I0.0339 J-0.0446
X5.2073 Y10.2031 Z-0.0998 I-0.0339 J0.0446
X5.2752 Y10.1139 Z-0.106 I0.0339 J-0.0446
X5.2073 Y10.2031 Z-0.1121 I-0.0339 J0.0446
X5.2752 Y10.1139 Z-0.1183 I0.0339 J-0.0446
X5.2073 Y10.2031 Z-0.1244 I-0.0339 J0.0446
X5.2752 Y10.1139 Z-0.1306 I0.0339 J-0.0446
X5.2073 Y10.2031 Z-0.1367 I-0.0339 J0.0446
X5.2752 Y10.1139 Z-0.1429 I0.0339 J-0.0446
X5.2073 Y10.2031 Z-0.149 I-0.0339 J0.0446
X5.2752 Y10.1139 Z-0.1552 I0.0339 J-0.0446
X5.2073 Y10.2031 Z-0.1613 I-0.0339 J0.0446
X5.2752 Y10.1139 Z-0.1675 I0.0339 J-0.0446
X5.2073 Y10.2031 Z-0.1736 I-0.0339 J0.0446
X5.2752 Y10.1139 Z-0.1798 I0.0339 J-0.0446
X5.2073 Y10.2031 Z-0.1859 I-0.0339 J0.0446
X5.2752 Y10.1139 Z-0.192 I0.0339 J-0.0446
X5.2073 Y10.2031 Z-0.1982 I-0.0339 J0.0446
X5.1852 Y10.1585 Z-0.2 I0.0339 J-0.0446
X5.2547 I0.0348 J0. F40.
X5.0731 I-0.0908 J0.
X5.3668 I0.1469 J0.
X4.961 I-0.2029 J0.
X5.4789 I0.259 J0.
X4.8489 I-0.315 J0.
X5.4789 I0.315 J0.
G1 X5.4787 Y10.1603
X5.4778 Y10.162
X5.4764 Y10.1633
X5.4748 Y10.1641
X5.4729 Y10.1644
X5.2975 Y10.1601
X5.2907 Y10.1596
G3 X5.2917 Y10.1478 I0.0005 J-0.0059
X5.2971 Y10.1532 I-0.0005 J0.0059
X5.1855 Y10.1638 Z-0.2061 I-0.0558 J0.0053 F20.
X5.2971 Y10.1532 Z-0.2123 I0.0558 J-0.0053
X5.1855 Y10.1638 Z-0.2184 I-0.0558 J0.0053
X5.2971 Y10.1532 Z-0.2246 I0.0558 J-0.0053
X5.1855 Y10.1638 Z-0.2307 I-0.0558 J0.0053
X5.2971 Y10.1532 Z-0.2369 I0.0558 J-0.0053
X5.1855 Y10.1638 Z-0.243 I-0.0558 J0.0053
X5.2971 Y10.1532 Z-0.2492 I0.0558 J-0.0053
X5.1855 Y10.1638 Z-0.2553 I-0.0558 J0.0053
X5.2971 Y10.1532 Z-0.2615 I0.0558 J-0.0053
X5.1855 Y10.1638 Z-0.2676 I-0.0558 J0.0053
X5.2971 Y10.1532 Z-0.2738 I0.0558 J-0.0053
X5.1855 Y10.1638 Z-0.2799 I-0.0558 J0.0053
X5.2971 Y10.1532 Z-0.2861 I0.0558 J-0.0053
X5.1855 Y10.1638 Z-0.2922 I-0.0558 J0.0053
X5.2971 Y10.1532 Z-0.2984 I0.0558 J-0.0053
X5.1855 Y10.1638 Z-0.3045 I-0.0558 J0.0053
X5.2971 Y10.1532 Z-0.3107 I0.0558 J-0.0053
X5.1855 Y10.1638 Z-0.3168 I-0.0558 J0.0053
X5.2971 Y10.1532 Z-0.323 I0.0558 J-0.0053
X5.1855 Y10.1638 Z-0.3291 I-0.0558 J0.0053
X5.2971 Y10.1532 Z-0.3353 I0.0558 J-0.0053
X5.1855 Y10.1638 Z-0.3414 I-0.0558 J0.0053
X5.2971 Y10.1532 Z-0.3476 I0.0558 J-0.0053
X5.1855 Y10.1638 Z-0.3537 I-0.0558 J0.0053
X5.2971 Y10.1532 Z-0.3599 I0.0558 J-0.0053
X5.1855 Y10.1638 Z-0.366 I-0.0558 J0.0053
X5.2971 Y10.1532 Z-0.3722 I0.0558 J-0.0053
X5.1855 Y10.1638 Z-0.3783 I-0.0558 J0.0053
X5.2971 Y10.1532 Z-0.3845 I0.0558 J-0.0053
X5.1855 Y10.1638 Z-0.3906 I-0.0558 J0.0053
X5.2971 Y10.1532 Z-0.3968 I0.0558 J-0.0053
X5.1855 Y10.1638 Z-0.4029 I-0.0558 J0.0053
X5.2971 Y10.1532 Z-0.4091 I0.0558 J-0.0053
X5.1855 Y10.1638 Z-0.4152 I-0.0558 J0.0053
X5.2971 Y10.1532 Z-0.4214 I0.0558 J-0.0053
X5.1855 Y10.1638 Z-0.4275 I-0.0558 J0.0053
X5.2971 Y10.1532 Z-0.4337 I0.0558 J-0.0053
X5.244 Y10.2145 Z-0.4368 I-0.0558 J0.0053
X5.1852 Y10.1585 Z-0.44 I-0.0027 J-0.056
X5.2547 I0.0348 J0. F40.
X5.0731 I-0.0908 J0.
X5.3668 I0.1469 J0.
X4.961 I-0.2029 J0.
X5.4789 I0.259 J0.
X4.8489 I-0.315 J0.
X5.4789 I0.315 J0.
G1 X5.4787 Y10.1607 Z-0.4396
X5.4781 Y10.1629 Z-0.4391
X5.4772 Y10.1646 Z-0.4378
X5.4761 Y10.1661 Z-0.4365
X5.4743 Y10.1679 Z-0.4327
X5.4735 Y10.1684 Z-0.4282
G0 Z0.24
X1.4718 Y13.1152
G1 Z0.1518 F40.
X1.4705 Y13.1145 Z0.1461 F20.
X1.467 Y13.1126 Z0.1419
X1.4624 Y13.1095 Z0.14
X1.4621 Y13.1092
G3 X1.53 Y13.02 Z0.1339 I0.0339 J-0.0446
X1.4621 Y13.1092 Z0.1277 I-0.0339 J0.0446
X1.53 Y13.02 Z0.1216 I0.0339 J-0.0446
X1.4621 Y13.1092 Z0.1154 I-0.0339 J0.0446
X1.53 Y13.02 Z0.1093 I0.0339 J-0.0446
X1.4621 Y13.1092 Z0.1031 I-0.0339 J0.0446
X1.53 Y13.02 Z0.097 I0.0339 J-0.0446
X1.4621 Y13.1092 Z0.0908 I-0.0339 J0.0446
X1.53 Y13.02 Z0.0847 I0.0339 J-0.0446
X1.4621 Y13.1092 Z0.0785 I-0.0339 J0.0446
X1.53 Y13.02 Z0.0724 I0.0339 J-0.0446
X1.4621 Y13.1092 Z0.0662 I-0.0339 J0.0446
X1.53 Y13.02 Z0.0601 I0.0339 J-0.0446
X1.4621 Y13.1092 Z0.0539 I-0.0339 J0.0446
X1.53 Y13.02 Z0.0478 I0.0339 J-0.0446
X1.4621 Y13.1092 Z0.0416 I-0.0339 J0.0446
X1.53 Y13.02 Z0.0355 I0.0339 J-0.0446
X1.4621 Y13.1092 Z0.0293 I-0.0339 J0.0446
X1.53 Y13.02 Z0.0232 I0.0339 J-0.0446
X1.4621 Y13.1092 Z0.017 I-0.0339 J0.0446
X1.53 Y13.02 Z0.0109 I0.0339 J-0.0446
X1.4621 Y13.1092 Z0.0047 I-0.0339 J0.0446
X1.53 Y13.02 Z-0.0014 I0.0339 J-0.0446
X1.4621 Y13.1092 Z-0.0076 I-0.0339 J0.0446
X1.53 Y13.02 Z-0.0137 I0.0339 J-0.0446
X1.4621 Y13.1092 Z-0.0199 I-0.0339 J0.0446
X1.53 Y13.02 Z-0.026 I0.0339 J-0.0446
X1.4621 Y13.1092 Z-0.0322 I-0.0339 J0.0446
X1.53 Y13.02 Z-0.0383 I0.0339 J-0.0446
X1.4621 Y13.1092 Z-0.0445 I-0.0339 J0.0446
X1.53 Y13.02 Z-0.0506 I0.0339 J-0.0446
X1.4621 Y13.1092 Z-0.0568 I-0.0339 J0.0446
X1.53 Y13.02 Z-0.0629 I0.0339 J-0.0446
X1.4621 Y13.1092 Z-0.0691 I-0.0339 J0.0446
X1.53 Y13.02 Z-0.0752 I0.0339 J-0.0446
X1.4621 Y13.1092 Z-0.0814 I-0.0339 J0.0446
X1.53 Y13.02 Z-0.0875 I0.0339 J-0.0446
X1.4621 Y13.1092 Z-0.0937 I-0.0339 J0.0446
X1.53 Y13.02 Z-0.0998 I0.0339 J-0.0446
X1.4621 Y13.1092 Z-0.106 I-0.0339 J0.0446
X1.53 Y13.02 Z-0.1121 I0.0339 J-0.0446
X1.4621 Y13.1092 Z-0.1183 I-0.0339 J0.0446
X1.53 Y13.02 Z-0.1244 I0.0339 J-0.0446
X1.4621 Y13.1092 Z-0.1306 I-0.0339 J0.0446
X1.53 Y13.02 Z-0.1367 I0.0339 J-0.0446
X1.4621 Y13.1092 Z-0.1429 I-0.0339 J0.0446
X1.53 Y13.02 Z-0.149 I0.0339 J-0.0446
X1.4621 Y13.1092 Z-0.1552 I-0.0339 J0.0446
X1.53 Y13.02 Z-0.1613 I0.0339 J-0.0446
X1.4621 Y13.1092 Z-0.1675 I-0.0339 J0.0446
X1.53 Y13.02 Z-0.1736 I0.0339 J-0.0446
X1.4621 Y13.1092 Z-0.1798 I-0.0339 J0.0446
X1.53 Y13.02 Z-0.1859 I0.0339 J-0.0446
X1.4621 Y13.1092 Z-0.192 I-0.0339 J0.0446
X1.53 Y13.02 Z-0.1982 I0.0339 J-0.0446
X1.5521 Y13.0646 Z-0.2 I-0.0339 J0.0446
X1.4479 I-0.0521 J0. F40.
X1.6642 I0.1081 J0.
X1.3358 I-0.1642 J0.
X1.7763 I0.2202 J0.
X1.2237 I-0.2763 J0.
X1.8884 I0.3323 J0.
X1.1116 I-0.3884 J0.
X2.0005 I0.4444 J0.
X0.9995 I-0.5005 J0.
X2.0005 I0.5005 J0.
G1 X2.0002 Y13.0665
X1.9993 Y13.0682
X1.998 Y13.0695
X1.9963 Y13.0703
X1.9944 Y13.0705
X1.7201 Y13.0606
X1.4464 Y13.0753
X1.4447 Y13.0751
X1.443 Y13.0744
X1.4416 Y13.0732
X1.4407 Y13.0717
X1.4403 Y13.07
G3 X1.5518 Y13.0593 Z-0.2061 I0.0558 J-0.0053 F20.
X1.4403 Y13.07 Z-0.2123 I-0.0558 J0.0053
X1.5518 Y13.0593 Z-0.2184 I0.0558 J-0.0053
X1.4403 Y13.07 Z-0.2246 I-0.0558 J0.0053
X1.5518 Y13.0593 Z-0.2307 I0.0558 J-0.0053
X1.4403 Y13.07 Z-0.2369 I-0.0558 J0.0053
X1.5518 Y13.0593 Z-0.243 I0.0558 J-0.0053
X1.4403 Y13.07 Z-0.2492 I-0.0558 J0.0053
X1.5518 Y13.0593 Z-0.2553 I0.0558 J-0.0053
X1.4403 Y13.07 Z-0.2615 I-0.0558 J0.0053
X1.5518 Y13.0593 Z-0.2676 I0.0558 J-0.0053
X1.4403 Y13.07 Z-0.2738 I-0.0558 J0.0053
X1.5518 Y13.0593 Z-0.2799 I0.0558 J-0.0053
X1.4403 Y13.07 Z-0.2861 I-0.0558 J0.0053
X1.5518 Y13.0593 Z-0.2922 I0.0558 J-0.0053
X1.4403 Y13.07 Z-0.2984 I-0.0558 J0.0053
X1.5518 Y13.0593 Z-0.3045 I0.0558 J-0.0053
X1.4403 Y13.07 Z-0.3107 I-0.0558 J0.0053
X1.5518 Y13.0593 Z-0.3168 I0.0558 J-0.0053
X1.4403 Y13.07 Z-0.323 I-0.0558 J0.0053
X1.5518 Y13.0593 Z-0.3291 I0.0558 J-0.0053
X1.4403 Y13.07 Z-0.3353 I-0.0558 J0.0053
X1.5518 Y13.0593 Z-0.3414 I0.0558 J-0.0053
X1.4403 Y13.07 Z-0.3476 I-0.0558 J0.0053
X1.5518 Y13.0593 Z-0.3537 I0.0558 J-0.0053
X1.4403 Y13.07 Z-0.3599 I-0.0558 J0.0053
X1.5518 Y13.0593 Z-0.366 I0.0558 J-0.0053
X1.4403 Y13.07 Z-0.3722 I-0.0558 J0.0053
X1.5518 Y13.0593 Z-0.3783 I0.0558 J-0.0053
X1.4403 Y13.07 Z-0.3845 I-0.0558 J0.0053
X1.5518 Y13.0593 Z-0.3906 I0.0558 J-0.0053
X1.4403 Y13.07 Z-0.3968 I-0.0558 J0.0053
X1.5518 Y13.0593 Z-0.4029 I0.0558 J-0.0053
X1.4403 Y13.07 Z-0.4091 I-0.0558 J0.0053
X1.5518 Y13.0593 Z-0.4152 I0.0558 J-0.0053
X1.4403 Y13.07 Z-0.4214 I-0.0558 J0.0053
X1.5518 Y13.0593 Z-0.4275 I0.0558 J-0.0053
X1.4403 Y13.07 Z-0.4337 I-0.0558 J0.0053
X1.4934 Y13.0087 Z-0.4368 I0.0558 J-0.0053
X1.5521 Y13.0646 Z-0.44 I0.0027 J0.056
X1.4479 I-0.0521 J0. F40.
X1.6642 I0.1081 J0.
X1.3358 I-0.1642 J0.
X1.7763 I0.2202 J0.
X1.2237 I-0.2763 J0.
X1.8884 I0.3323 J0.
X1.1116 I-0.3884 J0.
X2.0005 I0.4444 J0.
X0.9995 I-0.5005 J0.
X2.0005 I0.5005 J0.
G1 X2.0003 Y13.0669 Z-0.4396
X1.9996 Y13.0691 Z-0.4391
X1.9988 Y13.0708 Z-0.4378
X1.9977 Y13.0723 Z-0.4365
X1.9958 Y13.0741 Z-0.4327
X1.9951 Y13.0746 Z-0.4282
G0 Z0.64

M9
M30
