(X8 ARM PLATE HOLES)
(T3  D=0.118 CR=0. - ZMIN=-0.02 - FLAT END MILL)
G90 G94 G91.1 G40 G49 G17
G20

(2D POCKET2)
M5
T3 M6
S15000 M3
g4 p5
G54
M8
G0 X2.6615 Y4.7988
G43 Z0.64 H3
Z0.24
G1 Z0.1518 F40.
X2.6619 Y4.8002 Z0.146 F20.
X2.6627 Y4.8043 Z0.1417
X2.6634 Y4.81 Z0.14
G3 X2.5515 Y4.8171 Z0.1339 I-0.0559 J0.0036
X2.6634 Y4.81 Z0.1277 I0.0559 J-0.0036
X2.5515 Y4.8171 Z0.1216 I-0.0559 J0.0036
X2.6634 Y4.81 Z0.1154 I0.0559 J-0.0036
X2.5515 Y4.8171 Z0.1093 I-0.0559 J0.0036
X2.6634 Y4.81 Z0.1031 I0.0559 J-0.0036
X2.5515 Y4.8171 Z0.097 I-0.0559 J0.0036
X2.6634 Y4.81 Z0.0908 I0.0559 J-0.0036
X2.5515 Y4.8171 Z0.0847 I-0.0559 J0.0036
X2.6634 Y4.81 Z0.0785 I0.0559 J-0.0036
X2.5515 Y4.8171 Z0.0724 I-0.0559 J0.0036
X2.6634 Y4.81 Z0.0662 I0.0559 J-0.0036
X2.5515 Y4.8171 Z0.0601 I-0.0559 J0.0036
X2.6634 Y4.81 Z0.0539 I0.0559 J-0.0036
X2.5515 Y4.8171 Z0.0478 I-0.0559 J0.0036
X2.6634 Y4.81 Z0.0416 I0.0559 J-0.0036
X2.5515 Y4.8171 Z0.0355 I-0.0559 J0.0036
X2.6634 Y4.81 Z0.0293 I0.0559 J-0.0036
X2.5515 Y4.8171 Z0.0232 I-0.0559 J0.0036
X2.6634 Y4.81 Z0.017 I0.0559 J-0.0036
X2.5515 Y4.8171 Z0.0109 I-0.0559 J0.0036
X2.6634 Y4.81 Z0.0047 I0.0559 J-0.0036
X2.5515 Y4.8171 Z-0.0014 I-0.0559 J0.0036
X2.6634 Y4.81 Z-0.0076 I0.0559 J-0.0036
X2.5515 Y4.8171 Z-0.0137 I-0.0559 J0.0036
X2.6057 Y4.7575 Z-0.0169 I0.0559 J-0.0036
X2.6635 Y4.8135 Z-0.02 I0.0018 J0.056
X2.5593 I-0.0521 J0. F40.
X2.7756 I0.1081 J0.
X2.4472 I-0.1642 J0.
X2.8877 I0.2202 J0.
X2.3351 I-0.2763 J0.
X2.9998 I0.3323 J0.
X2.223 I-0.3884 J0.
X3.1119 I0.4444 J0.
X2.1109 I-0.5005 J0.
X3.1119 I0.5005 J0.
G1 X3.1117 Y4.8158 Z-0.0196
X3.111 Y4.8179 Z-0.0191
X3.1102 Y4.8196 Z-0.0178
X3.1091 Y4.8212 Z-0.0165
X3.1072 Y4.8229 Z-0.0127
X3.1065 Y4.8235 Z-0.0082
G0 Z0.24
X1.0501 Y0.9852
G1 Z0.1518 F40.
X1.0505 Y0.9867 Z0.146 F20.
X1.0513 Y0.9908 Z0.1417
X1.052 Y0.9964 Z0.14
G3 X0.9401 Y1.0036 Z0.1339 I-0.0559 J0.0036
X1.052 Y0.9964 Z0.1277 I0.0559 J-0.0036
X0.9401 Y1.0036 Z0.1216 I-0.0559 J0.0036
X1.052 Y0.9964 Z0.1154 I0.0559 J-0.0036
X0.9401 Y1.0036 Z0.1093 I-0.0559 J0.0036
X1.052 Y0.9964 Z0.1031 I0.0559 J-0.0036
X0.9401 Y1.0036 Z0.097 I-0.0559 J0.0036
X1.052 Y0.9964 Z0.0908 I0.0559 J-0.0036
X0.9401 Y1.0036 Z0.0847 I-0.0559 J0.0036
X1.052 Y0.9964 Z0.0785 I0.0559 J-0.0036
X0.9401 Y1.0036 Z0.0724 I-0.0559 J0.0036
X1.052 Y0.9964 Z0.0662 I0.0559 J-0.0036
X0.9401 Y1.0036 Z0.0601 I-0.0559 J0.0036
X1.052 Y0.9964 Z0.0539 I0.0559 J-0.0036
X0.9401 Y1.0036 Z0.0478 I-0.0559 J0.0036
X1.052 Y0.9964 Z0.0416 I0.0559 J-0.0036
X0.9401 Y1.0036 Z0.0355 I-0.0559 J0.0036
X1.052 Y0.9964 Z0.0293 I0.0559 J-0.0036
X0.9401 Y1.0036 Z0.0232 I-0.0559 J0.0036
X1.052 Y0.9964 Z0.017 I0.0559 J-0.0036
X0.9401 Y1.0036 Z0.0109 I-0.0559 J0.0036
X1.052 Y0.9964 Z0.0047 I0.0559 J-0.0036
X0.9401 Y1.0036 Z-0.0014 I-0.0559 J0.0036
X1.052 Y0.9964 Z-0.0076 I0.0559 J-0.0036
X0.9401 Y1.0036 Z-0.0137 I-0.0559 J0.0036
X0.9943 Y0.944 Z-0.0169 I0.0559 J-0.0036
X1.0521 Y1. Z-0.02 I0.0018 J0.056
X0.9479 I-0.0521 J0. F40.
X1.1642 I0.1081 J0.
X0.8358 I-0.1642 J0.
X1.2763 I0.2202 J0.
X0.7237 I-0.2763 J0.
X1.3884 I0.3323 J0.
X0.6116 I-0.3884 J0.
X1.5005 I0.4444 J0.
X0.4995 I-0.5005 J0.
X1.5005 I0.5005 J0.
G1 X1.5003 Y1.0022 Z-0.0196
X1.4996 Y1.0044 Z-0.0191
X1.4988 Y1.0061 Z-0.0178
X1.4977 Y1.0077 Z-0.0165
X1.4958 Y1.0094 Z-0.0127
X1.4951 Y1.0099 Z-0.0082
G0 Z0.24
X3.89 Y9.7259
G1 Z0.1518 F40.
X3.8896 Y9.7244 Z0.146 F20.
X3.8887 Y9.7204 Z0.1417
X3.8881 Y9.7147 Z0.14
G3 X4. Y9.7076 Z0.1339 I0.0559 J-0.0036
X3.8881 Y9.7147 Z0.1277 I-0.0559 J0.0036
X4. Y9.7076 Z0.1216 I0.0559 J-0.0036
X3.8881 Y9.7147 Z0.1154 I-0.0559 J0.0036
X4. Y9.7076 Z0.1093 I0.0559 J-0.0036
X3.8881 Y9.7147 Z0.1031 I-0.0559 J0.0036
X4. Y9.7076 Z0.097 I0.0559 J-0.0036
X3.8881 Y9.7147 Z0.0908 I-0.0559 J0.0036
X4. Y9.7076 Z0.0847 I0.0559 J-0.0036
X3.8881 Y9.7147 Z0.0785 I-0.0559 J0.0036
X4. Y9.7076 Z0.0724 I0.0559 J-0.0036
X3.8881 Y9.7147 Z0.0662 I-0.0559 J0.0036
X4. Y9.7076 Z0.0601 I0.0559 J-0.0036
X3.8881 Y9.7147 Z0.0539 I-0.0559 J0.0036
X4. Y9.7076 Z0.0478 I0.0559 J-0.0036
X3.8881 Y9.7147 Z0.0416 I-0.0559 J0.0036
X4. Y9.7076 Z0.0355 I0.0559 J-0.0036
X3.8881 Y9.7147 Z0.0293 I-0.0559 J0.0036
X4. Y9.7076 Z0.0232 I0.0559 J-0.0036
X3.8881 Y9.7147 Z0.017 I-0.0559 J0.0036
X4. Y9.7076 Z0.0109 I0.0559 J-0.0036
X3.8881 Y9.7147 Z0.0047 I-0.0559 J0.0036
X4. Y9.7076 Z-0.0014 I0.0559 J-0.0036
X3.8881 Y9.7147 Z-0.0076 I-0.0559 J0.0036
X4. Y9.7076 Z-0.0137 I0.0559 J-0.0036
X3.9458 Y9.7672 Z-0.0169 I-0.0559 J0.0036
X3.888 Y9.7111 Z-0.02 I-0.0018 J-0.056
X3.9575 I0.0348 J0. F40.
X3.7759 I-0.0908 J0.
X4.0696 I0.1469 J0.
X3.6638 I-0.2029 J0.
X4.1817 I0.259 J0.
X3.5517 I-0.315 J0.
X4.1817 I0.315 J0.
G1 X4.1815 Y9.7134 Z-0.0196
X4.1808 Y9.7155 Z-0.0191
X4.18 Y9.7173 Z-0.0178
X4.1789 Y9.7188 Z-0.0165
X4.177 Y9.7206 Z-0.0127
X4.1763 Y9.7211 Z-0.0082
G0 Z0.24
X1.5501 Y13.7299
G1 Z0.1518 F40.
X1.5505 Y13.7313 Z0.146 F20.
X1.5513 Y13.7354 Z0.1417
X1.552 Y13.7411 Z0.14
G3 X1.4401 Y13.7482 Z0.1339 I-0.0559 J0.0036
X1.552 Y13.7411 Z0.1277 I0.0559 J-0.0036
X1.4401 Y13.7482 Z0.1216 I-0.0559 J0.0036
X1.552 Y13.7411 Z0.1154 I0.0559 J-0.0036
X1.4401 Y13.7482 Z0.1093 I-0.0559 J0.0036
X1.552 Y13.7411 Z0.1031 I0.0559 J-0.0036
X1.4401 Y13.7482 Z0.097 I-0.0559 J0.0036
X1.552 Y13.7411 Z0.0908 I0.0559 J-0.0036
X1.4401 Y13.7482 Z0.0847 I-0.0559 J0.0036
X1.552 Y13.7411 Z0.0785 I0.0559 J-0.0036
X1.4401 Y13.7482 Z0.0724 I-0.0559 J0.0036
X1.552 Y13.7411 Z0.0662 I0.0559 J-0.0036
X1.4401 Y13.7482 Z0.0601 I-0.0559 J0.0036
X1.552 Y13.7411 Z0.0539 I0.0559 J-0.0036
X1.4401 Y13.7482 Z0.0478 I-0.0559 J0.0036
X1.552 Y13.7411 Z0.0416 I0.0559 J-0.0036
X1.4401 Y13.7482 Z0.0355 I-0.0559 J0.0036
X1.552 Y13.7411 Z0.0293 I0.0559 J-0.0036
X1.4401 Y13.7482 Z0.0232 I-0.0559 J0.0036
X1.552 Y13.7411 Z0.017 I0.0559 J-0.0036
X1.4401 Y13.7482 Z0.0109 I-0.0559 J0.0036
X1.552 Y13.7411 Z0.0047 I0.0559 J-0.0036
X1.4401 Y13.7482 Z-0.0014 I-0.0559 J0.0036
X1.552 Y13.7411 Z-0.0076 I0.0559 J-0.0036
X1.4401 Y13.7482 Z-0.0137 I-0.0559 J0.0036
X1.4942 Y13.6886 Z-0.0169 I0.0559 J-0.0036
X1.5521 Y13.7446 Z-0.02 I0.0018 J0.056
X1.4479 I-0.0521 J0. F40.
X1.6642 I0.1081 J0.
X1.3358 I-0.1642 J0.
X1.7763 I0.2202 J0.
X1.2237 I-0.2763 J0.
X1.8884 I0.3323 J0.
X1.1116 I-0.3884 J0.
X2.0005 I0.4444 J0.
X0.9995 I-0.5005 J0.
X2.0005 I0.5005 J0.
G1 X2.0003 Y13.7469 Z-0.0196
X1.9996 Y13.749 Z-0.0191
X1.9988 Y13.7508 Z-0.0178
X1.9976 Y13.7523 Z-0.0165
X1.9958 Y13.7541 Z-0.0127
X1.9951 Y13.7546 Z-0.0082
G0 Z0.64

M9
M30
