(BOTTOM CENTER PLATE CUTOUT )
(T1  D=6.35 CR=0. - ZMIN=-4.675 - FLAT END MILL)
G90 G94 G91.1 G40 G49 G17
G21
G0 Z45

(2D CONTOUR1)
M5
T1 M6
S15000 M3
G54
M8
G0 X33.508 Y129.403
G43 Z16. H1
Z6.
G1 Z4.135 F1600.
X33.513 Y129.397 Z4.036
X33.527 Y129.378 Z3.939
X33.549 Y129.347 Z3.847
X33.58 Y129.305 Z3.762
X33.618 Y129.253 Z3.686
X33.662 Y129.191 Z3.621
X33.712 Y129.123 Z3.569
X33.766 Y129.048 Z3.531
X33.823 Y128.97 Z3.508
X33.882 Y128.889 Z3.5
X34.255 Y128.376
G2 X34.114 Y127.489 I-0.514 J-0.373
G1 X25.085 Y120.929 Z3.305
G3 X23.932 Y117.379 Z3.236 I1.866 J-2.569
G1 X52.445 Y29.624 Z1.625
G3 X55.465 Y27.43 Z1.555 I3.02 J0.981
G1 X101.6 Z0.75
X147.735
G3 X150.755 Y29.624 I0. J3.175
G1 X179.269 Y117.379
G3 X178.115 Y120.929 I-3.02 J0.981
G1 X103.466 Y175.164
G3 X99.734 I-1.866 J-2.569
G1 X25.085 Y120.929
G3 X23.932 Y117.379 I1.866 J-2.569
G1 X52.445 Y29.624
G3 X55.465 Y27.43 I3.02 J0.981
G1 X101.6
X115.923 Z0.5
X147.735
G3 X150.755 Y29.624 I0. J3.175
G1 X179.269 Y117.379
G3 X178.115 Y120.929 I-3.02 J0.981
G1 X103.466 Y175.164
G3 X99.734 I-1.866 J-2.569
G1 X25.085 Y120.929
G3 X23.932 Y117.379 I1.866 J-2.569
G1 X52.445 Y29.624
G3 X55.465 Y27.43 I3.02 J0.981
G1 X101.6
X115.923
X130.245 Z0.25
X147.735
G3 X150.755 Y29.624 I0. J3.175
G1 X179.269 Y117.379
G3 X178.115 Y120.929 I-3.02 J0.981
G1 X103.466 Y175.164
G3 X99.734 I-1.866 J-2.569
G1 X25.085 Y120.929
G3 X23.932 Y117.379 I1.866 J-2.569
G1 X52.445 Y29.624
G3 X55.465 Y27.43 I3.02 J0.981
G1 X115.923
X130.245
X144.568 Z0.
X147.735
G3 X150.755 Y29.624 I0. J3.175
G1 X179.269 Y117.379
G3 X178.115 Y120.929 I-3.02 J0.981
G1 X103.466 Y175.164
G3 X99.734 I-1.866 J-2.569
G1 X25.085 Y120.929
G3 X23.932 Y117.379 I1.866 J-2.569
G1 X52.445 Y29.624
G3 X55.465 Y27.43 I3.02 J0.981
G1 X130.245
X144.568
X147.735 Z-0.055
G3 X150.755 Y29.624 Z-0.125 I0. J3.175
G1 X152.969 Y36.438 Z-0.25
X179.269 Y117.379
G3 X178.115 Y120.929 I-3.02 J0.981
G1 X103.466 Y175.164
G3 X99.734 I-1.866 J-2.569
G1 X25.085 Y120.929
G3 X23.932 Y117.379 I1.866 J-2.569
G1 X52.445 Y29.624
G3 X55.465 Y27.43 I3.02 J0.981
G1 X144.568
X147.735
G3 X150.755 Y29.624 I0. J3.175
G1 X152.969 Y36.438
X157.395 Y50.06 Z-0.5
X179.269 Y117.379
G3 X178.115 Y120.929 I-3.02 J0.981
G1 X103.466 Y175.164
G3 X99.734 I-1.866 J-2.569
G1 X25.085 Y120.929
G3 X23.932 Y117.379 I1.866 J-2.569
G1 X52.445 Y29.624
G3 X55.465 Y27.43 I3.02 J0.981
G1 X147.735
G3 X150.755 Y29.624 I0. J3.175
G1 X157.395 Y50.06
X161.821 Y63.681 Z-0.75
X179.269 Y117.379
G3 X178.115 Y120.929 I-3.02 J0.981
G1 X103.466 Y175.164
G3 X99.734 I-1.866 J-2.569
G1 X25.085 Y120.929
G3 X23.932 Y117.379 I1.866 J-2.569
G1 X52.445 Y29.624
G3 X55.465 Y27.43 I3.02 J0.981
G1 X147.735
G3 X150.755 Y29.624 I0. J3.175
G1 X157.395 Y50.06
X161.821 Y63.681
X166.247 Y77.303 Z-1.
X179.269 Y117.379
G3 X178.115 Y120.929 I-3.02 J0.981
G1 X103.466 Y175.164
G3 X99.734 I-1.866 J-2.569
G1 X25.085 Y120.929
G3 X23.932 Y117.379 I1.866 J-2.569
G1 X52.445 Y29.624
G3 X55.465 Y27.43 I3.02 J0.981
G1 X147.735
G3 X150.755 Y29.624 I0. J3.175
G1 X161.821 Y63.681
X166.247 Y77.303
X170.673 Y90.924 Z-1.25
X179.269 Y117.379
G3 X178.115 Y120.929 I-3.02 J0.981
G1 X103.466 Y175.164
G3 X99.734 I-1.866 J-2.569
G1 X25.085 Y120.929
G3 X23.932 Y117.379 I1.866 J-2.569
G1 X52.445 Y29.624
G3 X55.465 Y27.43 I3.02 J0.981
G1 X147.735
G3 X150.755 Y29.624 I0. J3.175
G1 X166.247 Y77.303
X170.673 Y90.924
X175.099 Y104.546 Z-1.5
X179.269 Y117.379
G3 X178.115 Y120.929 I-3.02 J0.981
G1 X103.466 Y175.164
G3 X99.734 I-1.866 J-2.569
G1 X25.085 Y120.929
G3 X23.932 Y117.379 I1.866 J-2.569
G1 X52.445 Y29.624
G3 X55.465 Y27.43 I3.02 J0.981
G1 X147.735
G3 X150.755 Y29.624 I0. J3.175
G1 X170.673 Y90.924
X175.099 Y104.546
X179.269 Y117.379 Z-1.736
G3 X179.42 Y118.191 Z-1.75 I-3.02 J0.981
X178.115 Y120.929 I-3.171 J0.169
G1 X103.466 Y175.164
G3 X99.734 I-1.866 J-2.569
G1 X25.085 Y120.929
G3 X23.932 Y117.379 I1.866 J-2.569
G1 X52.445 Y29.624
G3 X55.465 Y27.43 I3.02 J0.981
G1 X147.735
G3 X150.755 Y29.624 I0. J3.175
G1 X175.099 Y104.546
X179.269 Y117.379
G3 X179.42 Y118.191 I-3.02 J0.981
X178.115 Y120.929 Z-1.805 I-3.171 J0.169
G1 X169.085 Y127.489 Z-2.
X103.466 Y175.164
G3 X99.734 I-1.866 J-2.569
G1 X25.085 Y120.929
G3 X23.932 Y117.379 I1.866 J-2.569
G1 X52.445 Y29.624
G3 X55.465 Y27.43 I3.02 J0.981
G1 X147.735
G3 X150.755 Y29.624 I0. J3.175
G1 X179.269 Y117.379
G3 X178.115 Y120.929 I-3.02 J0.981
G1 X169.085 Y127.489
X157.498 Y135.908 Z-2.25
X103.466 Y175.164
G3 X99.734 I-1.866 J-2.569
G1 X25.085 Y120.929
G3 X23.932 Y117.379 I1.866 J-2.569
G1 X52.445 Y29.624
G3 X55.465 Y27.43 I3.02 J0.981
G1 X147.735
G3 X150.755 Y29.624 I0. J3.175
G1 X179.269 Y117.379
G3 X178.115 Y120.929 I-3.02 J0.981
G1 X157.498 Y135.908
X145.911 Y144.326 Z-2.5
X103.466 Y175.164
G3 X99.734 I-1.866 J-2.569
G1 X25.085 Y120.929
G3 X23.932 Y117.379 I1.866 J-2.569
G1 X52.445 Y29.624
G3 X55.465 Y27.43 I3.02 J0.981
G1 X147.735
G3 X150.755 Y29.624 I0. J3.175
G1 X179.269 Y117.379
G3 X178.115 Y120.929 I-3.02 J0.981
G1 X157.498 Y135.908
X145.911 Y144.326
X134.324 Y152.745 Z-2.75
X103.466 Y175.164
G3 X99.734 I-1.866 J-2.569
G1 X25.085 Y120.929
G3 X23.932 Y117.379 I1.866 J-2.569
G1 X52.445 Y29.624
G3 X55.465 Y27.43 I3.02 J0.981
G1 X147.735
G3 X150.755 Y29.624 I0. J3.175
G1 X179.269 Y117.379
G3 X178.115 Y120.929 I-3.02 J0.981
G1 X145.911 Y144.326
X134.324 Y152.745
X122.737 Y161.163 Z-3.
X103.466 Y175.164
G3 X99.734 I-1.866 J-2.569
G1 X25.085 Y120.929
G3 X23.932 Y117.379 I1.866 J-2.569
G1 X52.445 Y29.624
G3 X55.465 Y27.43 I3.02 J0.981
G1 X147.735
G3 X150.755 Y29.624 I0. J3.175
G1 X179.269 Y117.379
G3 X178.115 Y120.929 I-3.02 J0.981
G1 X134.324 Y152.745
X122.737 Y161.163
X111.149 Y169.581 Z-3.25
X103.466 Y175.164
G3 X99.734 I-1.866 J-2.569
G1 X25.085 Y120.929
G3 X23.932 Y117.379 I1.866 J-2.569
G1 X52.445 Y29.624
G3 X55.465 Y27.43 I3.02 J0.981
G1 X147.735
G3 X150.755 Y29.624 I0. J3.175
G1 X179.269 Y117.379
G3 X178.115 Y120.929 I-3.02 J0.981
G1 X122.737 Y161.163
X111.149 Y169.581
X103.466 Y175.164 Z-3.416
G3 X99.734 Z-3.485 I-1.866 J-2.569
G1 X99.058 Y174.672 Z-3.5
X25.085 Y120.929
G3 X23.932 Y117.379 I1.866 J-2.569
G1 X52.445 Y29.624
G3 X55.465 Y27.43 I3.02 J0.981
G1 X147.735
G3 X150.755 Y29.624 I0. J3.175
G1 X179.269 Y117.379
G3 X178.115 Y120.929 I-3.02 J0.981
G1 X111.149 Y169.581
X103.466 Y175.164
G3 X99.734 I-1.866 J-2.569
G1 X99.058 Y174.672
X87.471 Y166.254 Z-3.75
X25.085 Y120.929
G3 X23.932 Y117.379 I1.866 J-2.569
G1 X52.445 Y29.624
G3 X55.465 Y27.43 I3.02 J0.981
G1 X147.735
G3 X150.755 Y29.624 I0. J3.175
G1 X179.269 Y117.379
G3 X178.115 Y120.929 I-3.02 J0.981
G1 X103.466 Y175.164
G3 X99.734 I-1.866 J-2.569
G1 X87.471 Y166.254
X75.883 Y157.835 Z-4.
X25.085 Y120.929
G3 X23.932 Y117.379 I1.866 J-2.569
G1 X52.445 Y29.624
G3 X55.465 Y27.43 I3.02 J0.981
G1 X147.735
G3 X150.755 Y29.624 I0. J3.175
G1 X179.269 Y117.379
G3 X178.115 Y120.929 I-3.02 J0.981
G1 X103.466 Y175.164
G3 X99.734 I-1.866 J-2.569
G1 X87.471 Y166.254
X75.883 Y157.835
X64.296 Y149.417 Z-4.25
X25.085 Y120.929
G3 X23.932 Y117.379 I1.866 J-2.569
G1 X52.445 Y29.624
G3 X55.465 Y27.43 I3.02 J0.981
G1 X147.735
G3 X150.755 Y29.624 I0. J3.175
G1 X179.269 Y117.379
G3 X178.115 Y120.929 I-3.02 J0.981
G1 X103.466 Y175.164
G3 X99.734 I-1.866 J-2.569
G1 X75.883 Y157.835
X64.296 Y149.417
X52.709 Y140.998 Z-4.5
X25.085 Y120.929
G3 X23.932 Y117.379 I1.866 J-2.569
G1 X52.445 Y29.624
G3 X55.465 Y27.43 I3.02 J0.981
G1 X147.735
G3 X150.755 Y29.624 I0. J3.175
G1 X179.269 Y117.379
G3 X178.115 Y120.929 I-3.02 J0.981
G1 X103.466 Y175.164
G3 X99.734 I-1.866 J-2.569
G1 X64.296 Y149.417
X52.709 Y140.998
X44.598 Y135.105 Z-4.675
X25.085 Y120.929
G3 X23.932 Y117.379 I1.866 J-2.569
G1 X52.445 Y29.624
G3 X55.465 Y27.43 I3.02 J0.981
G1 X147.735
G3 X150.755 Y29.624 I0. J3.175
G1 X179.269 Y117.379
G3 X178.115 Y120.929 I-3.02 J0.981
G1 X103.466 Y175.164
G3 X99.734 I-1.866 J-2.569
G1 X52.709 Y140.998
X44.598 Y135.105
G2 X43.711 Y135.246 I-0.373 J0.514
G1 X43.338 Y135.76
X43.279 Y135.84 Z-4.667
X43.222 Y135.918 Z-4.644
X43.168 Y135.993 Z-4.606
X43.118 Y136.062 Z-4.554
X43.074 Y136.123 Z-4.489
X43.036 Y136.175 Z-4.413
X43.005 Y136.217 Z-4.328
X42.983 Y136.248 Z-4.236
X42.969 Y136.267 Z-4.139
X42.965 Y136.273 Z-4.04
G0 Z16.
M5
G0 Z45
G0 X0 Y0

M9
M30
