(BOTTOM CENTER PLATE 0.125 HOLES )
(T1  D=3.175 CR=0. - ZMIN=-5.175 - FLAT END MILL)
G90 G94 G91.1 G40 G49 G17
G21
G0 Z45

(BORE1 4)
M5
T1 M6
S15000 M3
G54
M8
G0 X80.504 Y82.384
G43 Z15. H1
Z4.5
G1 Z2.818 F800.
X80.5 Y82.39 Z2.747
X80.489 Y82.411 Z2.68
X80.47 Y82.444 Z2.62
X80.445 Y82.487 Z2.569
X80.414 Y82.539 Z2.531
X80.381 Y82.597 Z2.508
X80.346 Y82.659 Z2.5
X80.266 Y82.796
G2 X80.382 Y83.23 I0.275 J0.159
X81.573 Y81.167 Z2.452 I0.595 J-1.031
X80.382 Y83.23 Z2.403 I-0.595 J1.031
X81.573 Y81.167 Z2.355 I0.595 J-1.031
X80.382 Y83.23 Z2.306 I-0.595 J1.031
X81.573 Y81.167 Z2.258 I0.595 J-1.031
X80.382 Y83.23 Z2.209 I-0.595 J1.031
X81.573 Y81.167 Z2.161 I0.595 J-1.031
X80.382 Y83.23 Z2.112 I-0.595 J1.031
X81.573 Y81.167 Z2.064 I0.595 J-1.031
X80.382 Y83.23 Z2.015 I-0.595 J1.031
X81.573 Y81.167 Z1.967 I0.595 J-1.031
X80.382 Y83.23 Z1.918 I-0.595 J1.031
X81.573 Y81.167 Z1.87 I0.595 J-1.031
X80.382 Y83.23 Z1.821 I-0.595 J1.031
X81.573 Y81.167 Z1.773 I0.595 J-1.031
X80.382 Y83.23 Z1.724 I-0.595 J1.031
X81.573 Y81.167 Z1.676 I0.595 J-1.031
X80.382 Y83.23 Z1.627 I-0.595 J1.031
X81.573 Y81.167 Z1.579 I0.595 J-1.031
X80.382 Y83.23 Z1.53 I-0.595 J1.031
X81.573 Y81.167 Z1.482 I0.595 J-1.031
X80.382 Y83.23 Z1.433 I-0.595 J1.031
X81.573 Y81.167 Z1.385 I0.595 J-1.031
X80.382 Y83.23 Z1.336 I-0.595 J1.031
X81.573 Y81.167 Z1.288 I0.595 J-1.031
X80.382 Y83.23 Z1.239 I-0.595 J1.031
X81.573 Y81.167 Z1.191 I0.595 J-1.031
X80.382 Y83.23 Z1.142 I-0.595 J1.031
X81.573 Y81.167 Z1.094 I0.595 J-1.031
X80.382 Y83.23 Z1.045 I-0.595 J1.031
X81.573 Y81.167 Z0.997 I0.595 J-1.031
X80.382 Y83.23 Z0.948 I-0.595 J1.031
X81.573 Y81.167 Z0.9 I0.595 J-1.031
X80.382 Y83.23 Z0.851 I-0.595 J1.031
X81.573 Y81.167 Z0.803 I0.595 J-1.031
X80.382 Y83.23 Z0.754 I-0.595 J1.031
X81.573 Y81.167 Z0.706 I0.595 J-1.031
X80.382 Y83.23 Z0.657 I-0.595 J1.031
X81.573 Y81.167 Z0.609 I0.595 J-1.031
X80.382 Y83.23 Z0.56 I-0.595 J1.031
X81.573 Y81.167 Z0.512 I0.595 J-1.031
X80.382 Y83.23 Z0.463 I-0.595 J1.031
X81.573 Y81.167 Z0.415 I0.595 J-1.031
X80.382 Y83.23 Z0.366 I-0.595 J1.031
X81.573 Y81.167 Z0.318 I0.595 J-1.031
X80.382 Y83.23 Z0.269 I-0.595 J1.031
X81.573 Y81.167 Z0.221 I0.595 J-1.031
X80.382 Y83.23 Z0.172 I-0.595 J1.031
X81.573 Y81.167 Z0.124 I0.595 J-1.031
X80.382 Y83.23 Z0.075 I-0.595 J1.031
X81.573 Y81.167 Z0.027 I0.595 J-1.031
X80.382 Y83.23 Z-0.022 I-0.595 J1.031
X81.573 Y81.167 Z-0.07 I0.595 J-1.031
X80.382 Y83.23 Z-0.119 I-0.595 J1.031
X81.573 Y81.167 Z-0.167 I0.595 J-1.031
X80.382 Y83.23 Z-0.216 I-0.595 J1.031
X81.573 Y81.167 Z-0.264 I0.595 J-1.031
X80.382 Y83.23 Z-0.313 I-0.595 J1.031
X81.573 Y81.167 Z-0.361 I0.595 J-1.031
X80.382 Y83.23 Z-0.41 I-0.595 J1.031
X81.573 Y81.167 Z-0.458 I0.595 J-1.031
X80.382 Y83.23 Z-0.507 I-0.595 J1.031
X81.573 Y81.167 Z-0.555 I0.595 J-1.031
X80.382 Y83.23 Z-0.604 I-0.595 J1.031
X81.573 Y81.167 Z-0.652 I0.595 J-1.031
X80.382 Y83.23 Z-0.7 I-0.595 J1.031
X81.573 Y81.167 Z-0.749 I0.595 J-1.031
X80.382 Y83.23 Z-0.797 I-0.595 J1.031
X81.573 Y81.167 Z-0.846 I0.595 J-1.031
X80.382 Y83.23 Z-0.894 I-0.595 J1.031
X81.573 Y81.167 Z-0.943 I0.595 J-1.031
X80.382 Y83.23 Z-0.991 I-0.595 J1.031
X81.573 Y81.167 Z-1.04 I0.595 J-1.031
X80.382 Y83.23 Z-1.088 I-0.595 J1.031
X81.573 Y81.167 Z-1.137 I0.595 J-1.031
X80.382 Y83.23 Z-1.185 I-0.595 J1.031
X81.573 Y81.167 Z-1.234 I0.595 J-1.031
X80.382 Y83.23 Z-1.282 I-0.595 J1.031
X81.573 Y81.167 Z-1.331 I0.595 J-1.031
X80.382 Y83.23 Z-1.379 I-0.595 J1.031
X81.573 Y81.167 Z-1.428 I0.595 J-1.031
X80.382 Y83.23 Z-1.476 I-0.595 J1.031
X81.573 Y81.167 Z-1.525 I0.595 J-1.031
X80.382 Y83.23 Z-1.573 I-0.595 J1.031
X81.573 Y81.167 Z-1.622 I0.595 J-1.031
X80.382 Y83.23 Z-1.67 I-0.595 J1.031
X81.573 Y81.167 Z-1.719 I0.595 J-1.031
X80.382 Y83.23 Z-1.767 I-0.595 J1.031
X81.573 Y81.167 Z-1.816 I0.595 J-1.031
X80.382 Y83.23 Z-1.864 I-0.595 J1.031
X81.573 Y81.167 Z-1.913 I0.595 J-1.031
X80.382 Y83.23 Z-1.961 I-0.595 J1.031
X81.573 Y81.167 Z-2.01 I0.595 J-1.031
X80.382 Y83.23 Z-2.058 I-0.595 J1.031
X81.573 Y81.167 Z-2.107 I0.595 J-1.031
X80.382 Y83.23 Z-2.155 I-0.595 J1.031
X81.573 Y81.167 Z-2.204 I0.595 J-1.031
X80.382 Y83.23 Z-2.252 I-0.595 J1.031
X81.573 Y81.167 Z-2.301 I0.595 J-1.031
X80.382 Y83.23 Z-2.349 I-0.595 J1.031
X81.573 Y81.167 Z-2.398 I0.595 J-1.031
X80.382 Y83.23 Z-2.446 I-0.595 J1.031
X81.573 Y81.167 Z-2.495 I0.595 J-1.031
X80.382 Y83.23 Z-2.543 I-0.595 J1.031
X81.573 Y81.167 Z-2.592 I0.595 J-1.031
X80.382 Y83.23 Z-2.64 I-0.595 J1.031
X81.573 Y81.167 Z-2.689 I0.595 J-1.031
X80.382 Y83.23 Z-2.737 I-0.595 J1.031
X81.573 Y81.167 Z-2.786 I0.595 J-1.031
X80.382 Y83.23 Z-2.834 I-0.595 J1.031
X81.573 Y81.167 Z-2.883 I0.595 J-1.031
X80.382 Y83.23 Z-2.931 I-0.595 J1.031
X81.573 Y81.167 Z-2.98 I0.595 J-1.031
X80.382 Y83.23 Z-3.028 I-0.595 J1.031
X81.573 Y81.167 Z-3.077 I0.595 J-1.031
X80.382 Y83.23 Z-3.125 I-0.595 J1.031
X81.573 Y81.167 Z-3.174 I0.595 J-1.031
X80.382 Y83.23 Z-3.222 I-0.595 J1.031
X81.573 Y81.167 Z-3.271 I0.595 J-1.031
X80.382 Y83.23 Z-3.319 I-0.595 J1.031
X81.573 Y81.167 Z-3.368 I0.595 J-1.031
X80.382 Y83.23 Z-3.416 I-0.595 J1.031
X81.573 Y81.167 Z-3.465 I0.595 J-1.031
X80.382 Y83.23 Z-3.513 I-0.595 J1.031
X81.573 Y81.167 Z-3.562 I0.595 J-1.031
X80.382 Y83.23 Z-3.61 I-0.595 J1.031
X81.573 Y81.167 Z-3.659 I0.595 J-1.031
X80.382 Y83.23 Z-3.707 I-0.595 J1.031
X81.573 Y81.167 Z-3.756 I0.595 J-1.031
X80.382 Y83.23 Z-3.804 I-0.595 J1.031
X81.573 Y81.167 Z-3.852 I0.595 J-1.031
X80.382 Y83.23 Z-3.901 I-0.595 J1.031
X81.573 Y81.167 Z-3.949 I0.595 J-1.031
X80.382 Y83.23 Z-3.998 I-0.595 J1.031
X81.573 Y81.167 Z-4.046 I0.595 J-1.031
X80.382 Y83.23 Z-4.095 I-0.595 J1.031
X81.573 Y81.167 Z-4.143 I0.595 J-1.031
X80.382 Y83.23 Z-4.192 I-0.595 J1.031
X81.573 Y81.167 Z-4.24 I0.595 J-1.031
X80.382 Y83.23 Z-4.289 I-0.595 J1.031
X81.573 Y81.167 Z-4.337 I0.595 J-1.031
X80.382 Y83.23 Z-4.386 I-0.595 J1.031
X81.573 Y81.167 Z-4.434 I0.595 J-1.031
X80.382 Y83.23 Z-4.483 I-0.595 J1.031
X81.573 Y81.167 Z-4.531 I0.595 J-1.031
X80.382 Y83.23 Z-4.58 I-0.595 J1.031
X81.573 Y81.167 Z-4.628 I0.595 J-1.031
X80.382 Y83.23 Z-4.677 I-0.595 J1.031
X81.573 Y81.167 Z-4.725 I0.595 J-1.031
X80.382 Y83.23 Z-4.774 I-0.595 J1.031
X81.573 Y81.167 Z-4.822 I0.595 J-1.031
X80.382 Y83.23 Z-4.871 I-0.595 J1.031
X81.573 Y81.167 Z-4.919 I0.595 J-1.031
X80.382 Y83.23 Z-4.968 I-0.595 J1.031
X81.573 Y81.167 Z-5.016 I0.595 J-1.031
X80.382 Y83.23 Z-5.065 I-0.595 J1.031
X81.573 Y81.167 Z-5.113 I0.595 J-1.031
X80.382 Y83.23 Z-5.162 I-0.595 J1.031
X81.366 Y83.324 Z-5.175 I0.595 J-1.031
X80.59 Y81.073 I-0.388 J-1.126
X81.366 Y83.324 I0.388 J1.126
X81.563 Y82.92 I-0.104 J-0.3
G1 X81.511 Y82.77
X81.488 Y82.704 Z-5.167
X81.466 Y82.64 Z-5.144
X81.446 Y82.583 Z-5.106
X81.43 Y82.536 Z-5.055
X81.418 Y82.5 Z-4.995
X81.41 Y82.478 Z-4.928
X81.407 Y82.47 Z-4.858
G0 Z5.
X101.203 Y69.975
Z4.5
G1 Z2.818 F800.
G18 G3 X100.886 Z2.5 I-0.317 K0.
G1 X100.727
G17 G2 X100.409 Y70.292 I0. J0.318
X102.791 Z2.452 I1.191 J0.
X100.409 Z2.403 I-1.191 J0.
X102.791 Z2.355 I1.191 J0.
X100.409 Z2.306 I-1.191 J0.
X102.791 Z2.258 I1.191 J0.
X100.409 Z2.209 I-1.191 J0.
X102.791 Z2.161 I1.191 J0.
X100.409 Z2.112 I-1.191 J0.
X102.791 Z2.064 I1.191 J0.
X100.409 Z2.015 I-1.191 J0.
X102.791 Z1.967 I1.191 J0.
X100.409 Z1.918 I-1.191 J0.
X102.791 Z1.87 I1.191 J0.
X100.409 Z1.821 I-1.191 J0.
X102.791 Z1.773 I1.191 J0.
X100.409 Z1.724 I-1.191 J0.
X102.791 Z1.676 I1.191 J0.
X100.409 Z1.627 I-1.191 J0.
X102.791 Z1.579 I1.191 J0.
X100.409 Z1.53 I-1.191 J0.
X102.791 Z1.482 I1.191 J0.
X100.409 Z1.433 I-1.191 J0.
X102.791 Z1.385 I1.191 J0.
X100.409 Z1.336 I-1.191 J0.
X102.791 Z1.288 I1.191 J0.
X100.409 Z1.239 I-1.191 J0.
X102.791 Z1.191 I1.191 J0.
X100.409 Z1.142 I-1.191 J0.
X102.791 Z1.094 I1.191 J0.
X100.409 Z1.045 I-1.191 J0.
X102.791 Z0.997 I1.191 J0.
X100.409 Z0.948 I-1.191 J0.
X102.791 Z0.9 I1.191 J0.
X100.409 Z0.851 I-1.191 J0.
X102.791 Z0.803 I1.191 J0.
X100.409 Z0.754 I-1.191 J0.
X102.791 Z0.706 I1.191 J0.
X100.409 Z0.657 I-1.191 J0.
X102.791 Z0.609 I1.191 J0.
X100.409 Z0.56 I-1.191 J0.
X102.791 Z0.512 I1.191 J0.
X100.409 Z0.463 I-1.191 J0.
X102.791 Z0.415 I1.191 J0.
X100.409 Z0.366 I-1.191 J0.
X102.791 Z0.318 I1.191 J0.
X100.409 Z0.269 I-1.191 J0.
X102.791 Z0.221 I1.191 J0.
X100.409 Z0.172 I-1.191 J0.
X102.791 Z0.124 I1.191 J0.
X100.409 Z0.075 I-1.191 J0.
X102.791 Z0.027 I1.191 J0.
X100.409 Z-0.022 I-1.191 J0.
X102.791 Z-0.07 I1.191 J0.
X100.409 Z-0.119 I-1.191 J0.
X102.791 Z-0.167 I1.191 J0.
X100.409 Z-0.216 I-1.191 J0.
X102.791 Z-0.264 I1.191 J0.
X100.409 Z-0.313 I-1.191 J0.
X102.791 Z-0.361 I1.191 J0.
X100.409 Z-0.41 I-1.191 J0.
X102.791 Z-0.458 I1.191 J0.
X100.409 Z-0.507 I-1.191 J0.
X102.791 Z-0.555 I1.191 J0.
X100.409 Z-0.604 I-1.191 J0.
X102.791 Z-0.652 I1.191 J0.
X100.409 Z-0.7 I-1.191 J0.
X102.791 Z-0.749 I1.191 J0.
X100.409 Z-0.797 I-1.191 J0.
X102.791 Z-0.846 I1.191 J0.
X100.409 Z-0.894 I-1.191 J0.
X102.791 Z-0.943 I1.191 J0.
X100.409 Z-0.991 I-1.191 J0.
X102.791 Z-1.04 I1.191 J0.
X100.409 Z-1.088 I-1.191 J0.
X102.791 Z-1.137 I1.191 J0.
X100.409 Z-1.185 I-1.191 J0.
X102.791 Z-1.234 I1.191 J0.
X100.409 Z-1.282 I-1.191 J0.
X102.791 Z-1.331 I1.191 J0.
X100.409 Z-1.379 I-1.191 J0.
X102.791 Z-1.428 I1.191 J0.
X100.409 Z-1.476 I-1.191 J0.
X102.791 Z-1.525 I1.191 J0.
X100.409 Z-1.573 I-1.191 J0.
X102.791 Z-1.622 I1.191 J0.
X100.409 Z-1.67 I-1.191 J0.
X102.791 Z-1.719 I1.191 J0.
X100.409 Z-1.767 I-1.191 J0.
X102.791 Z-1.816 I1.191 J0.
X100.409 Z-1.864 I-1.191 J0.
X102.791 Z-1.913 I1.191 J0.
X100.409 Z-1.961 I-1.191 J0.
X102.791 Z-2.01 I1.191 J0.
X100.409 Z-2.058 I-1.191 J0.
X102.791 Z-2.107 I1.191 J0.
X100.409 Z-2.155 I-1.191 J0.
X102.791 Z-2.204 I1.191 J0.
X100.409 Z-2.252 I-1.191 J0.
X102.791 Z-2.301 I1.191 J0.
X100.409 Z-2.349 I-1.191 J0.
X102.791 Z-2.398 I1.191 J0.
X100.409 Z-2.446 I-1.191 J0.
X102.791 Z-2.495 I1.191 J0.
X100.409 Z-2.543 I-1.191 J0.
X102.791 Z-2.592 I1.191 J0.
X100.409 Z-2.64 I-1.191 J0.
X102.791 Z-2.689 I1.191 J0.
X100.409 Z-2.737 I-1.191 J0.
X102.791 Z-2.786 I1.191 J0.
X100.409 Z-2.834 I-1.191 J0.
X102.791 Z-2.883 I1.191 J0.
X100.409 Z-2.931 I-1.191 J0.
X102.791 Z-2.98 I1.191 J0.
X100.409 Z-3.028 I-1.191 J0.
X102.791 Z-3.077 I1.191 J0.
X100.409 Z-3.125 I-1.191 J0.
X102.791 Z-3.174 I1.191 J0.
X100.409 Z-3.222 I-1.191 J0.
X102.791 Z-3.271 I1.191 J0.
X100.409 Z-3.319 I-1.191 J0.
X102.791 Z-3.368 I1.191 J0.
X100.409 Z-3.416 I-1.191 J0.
X102.791 Z-3.465 I1.191 J0.
X100.409 Z-3.513 I-1.191 J0.
X102.791 Z-3.562 I1.191 J0.
X100.409 Z-3.61 I-1.191 J0.
X102.791 Z-3.659 I1.191 J0.
X100.409 Z-3.707 I-1.191 J0.
X102.791 Z-3.756 I1.191 J0.
X100.409 Z-3.804 I-1.191 J0.
X102.791 Z-3.852 I1.191 J0.
X100.409 Z-3.901 I-1.191 J0.
X102.791 Z-3.949 I1.191 J0.
X100.409 Z-3.998 I-1.191 J0.
X102.791 Z-4.046 I1.191 J0.
X100.409 Z-4.095 I-1.191 J0.
X102.791 Z-4.143 I1.191 J0.
X100.409 Z-4.192 I-1.191 J0.
X102.791 Z-4.24 I1.191 J0.
X100.409 Z-4.289 I-1.191 J0.
X102.791 Z-4.337 I1.191 J0.
X100.409 Z-4.386 I-1.191 J0.
X102.791 Z-4.434 I1.191 J0.
X100.409 Z-4.483 I-1.191 J0.
X102.791 Z-4.531 I1.191 J0.
X100.409 Z-4.58 I-1.191 J0.
X102.791 Z-4.628 I1.191 J0.
X100.409 Z-4.677 I-1.191 J0.
X102.791 Z-4.725 I1.191 J0.
X100.409 Z-4.774 I-1.191 J0.
X102.791 Z-4.822 I1.191 J0.
X100.409 Z-4.871 I-1.191 J0.
X102.791 Z-4.919 I1.191 J0.
X100.409 Z-4.968 I-1.191 J0.
X102.791 Z-5.016 I1.191 J0.
X100.409 Z-5.065 I-1.191 J0.
X102.791 Z-5.113 I1.191 J0.
X100.409 Z-5.162 I-1.191 J0.
X100.819 Y71.191 Z-5.175 I1.191 J0.
X102.381 Y69.393 I0.781 J-0.899
X100.819 Y71.191 I-0.781 J0.899
X101.267 Y71.16 I0.208 J-0.24
G1 X101.371 Y71.04
X101.418 Y70.987 Z-5.167
X101.462 Y70.936 Z-5.144
X101.501 Y70.89 Z-5.106
X101.534 Y70.852 Z-5.055
X101.559 Y70.824 Z-4.995
X101.574 Y70.806 Z-4.928
X101.579 Y70.8 Z-4.858
G0 Z5.
X122.299 Y81.696
Z4.5
G1 Z2.818 F800.
X122.295 Y81.689 Z2.747
X122.283 Y81.669 Z2.68
X122.264 Y81.636 Z2.62
X122.239 Y81.593 Z2.569
X122.209 Y81.54 Z2.531
X122.175 Y81.482 Z2.508
X122.14 Y81.421 Z2.5
X122.061 Y81.284
G2 X121.627 Y81.167 I-0.275 J0.159
X122.818 Y83.23 Z2.452 I0.595 J1.031
X121.627 Y81.167 Z2.403 I-0.595 J-1.031
X122.818 Y83.23 Z2.355 I0.595 J1.031
X121.627 Y81.167 Z2.306 I-0.595 J-1.031
X122.818 Y83.23 Z2.258 I0.595 J1.031
X121.627 Y81.167 Z2.209 I-0.595 J-1.031
X122.818 Y83.23 Z2.161 I0.595 J1.031
X121.627 Y81.167 Z2.112 I-0.595 J-1.031
X122.818 Y83.23 Z2.064 I0.595 J1.031
X121.627 Y81.167 Z2.015 I-0.595 J-1.031
X122.818 Y83.23 Z1.967 I0.595 J1.031
X121.627 Y81.167 Z1.918 I-0.595 J-1.031
X122.818 Y83.23 Z1.87 I0.595 J1.031
X121.627 Y81.167 Z1.821 I-0.595 J-1.031
X122.818 Y83.23 Z1.773 I0.595 J1.031
X121.627 Y81.167 Z1.724 I-0.595 J-1.031
X122.818 Y83.23 Z1.676 I0.595 J1.031
X121.627 Y81.167 Z1.627 I-0.595 J-1.031
X122.818 Y83.23 Z1.579 I0.595 J1.031
X121.627 Y81.167 Z1.53 I-0.595 J-1.031
X122.818 Y83.23 Z1.482 I0.595 J1.031
X121.627 Y81.167 Z1.433 I-0.595 J-1.031
X122.818 Y83.23 Z1.385 I0.595 J1.031
X121.627 Y81.167 Z1.336 I-0.595 J-1.031
X122.818 Y83.23 Z1.288 I0.595 J1.031
X121.627 Y81.167 Z1.239 I-0.595 J-1.031
X122.818 Y83.23 Z1.191 I0.595 J1.031
X121.627 Y81.167 Z1.142 I-0.595 J-1.031
X122.818 Y83.23 Z1.094 I0.595 J1.031
X121.627 Y81.167 Z1.045 I-0.595 J-1.031
X122.818 Y83.23 Z0.997 I0.595 J1.031
X121.627 Y81.167 Z0.948 I-0.595 J-1.031
X122.818 Y83.23 Z0.9 I0.595 J1.031
X121.627 Y81.167 Z0.851 I-0.595 J-1.031
X122.818 Y83.23 Z0.803 I0.595 J1.031
X121.627 Y81.167 Z0.754 I-0.595 J-1.031
X122.818 Y83.23 Z0.706 I0.595 J1.031
X121.627 Y81.167 Z0.657 I-0.595 J-1.031
X122.818 Y83.23 Z0.609 I0.595 J1.031
X121.627 Y81.167 Z0.56 I-0.595 J-1.031
X122.818 Y83.23 Z0.512 I0.595 J1.031
X121.627 Y81.167 Z0.463 I-0.595 J-1.031
X122.818 Y83.23 Z0.415 I0.595 J1.031
X121.627 Y81.167 Z0.366 I-0.595 J-1.031
X122.818 Y83.23 Z0.318 I0.595 J1.031
X121.627 Y81.167 Z0.269 I-0.595 J-1.031
X122.818 Y83.23 Z0.221 I0.595 J1.031
X121.627 Y81.167 Z0.172 I-0.595 J-1.031
X122.818 Y83.23 Z0.124 I0.595 J1.031
X121.627 Y81.167 Z0.075 I-0.595 J-1.031
X122.818 Y83.23 Z0.027 I0.595 J1.031
X121.627 Y81.167 Z-0.022 I-0.595 J-1.031
X122.818 Y83.23 Z-0.07 I0.595 J1.031
X121.627 Y81.167 Z-0.119 I-0.595 J-1.031
X122.818 Y83.23 Z-0.167 I0.595 J1.031
X121.627 Y81.167 Z-0.216 I-0.595 J-1.031
X122.818 Y83.23 Z-0.264 I0.595 J1.031
X121.627 Y81.167 Z-0.313 I-0.595 J-1.031
X122.818 Y83.23 Z-0.361 I0.595 J1.031
X121.627 Y81.167 Z-0.41 I-0.595 J-1.031
X122.818 Y83.23 Z-0.458 I0.595 J1.031
X121.627 Y81.167 Z-0.507 I-0.595 J-1.031
X122.818 Y83.23 Z-0.555 I0.595 J1.031
X121.627 Y81.167 Z-0.604 I-0.595 J-1.031
X122.818 Y83.23 Z-0.652 I0.595 J1.031
X121.627 Y81.167 Z-0.7 I-0.595 J-1.031
X122.818 Y83.23 Z-0.749 I0.595 J1.031
X121.627 Y81.167 Z-0.797 I-0.595 J-1.031
X122.818 Y83.23 Z-0.846 I0.595 J1.031
X121.627 Y81.167 Z-0.894 I-0.595 J-1.031
X122.818 Y83.23 Z-0.943 I0.595 J1.031
X121.627 Y81.167 Z-0.991 I-0.595 J-1.031
X122.818 Y83.23 Z-1.04 I0.595 J1.031
X121.627 Y81.167 Z-1.088 I-0.595 J-1.031
X122.818 Y83.23 Z-1.137 I0.595 J1.031
X121.627 Y81.167 Z-1.185 I-0.595 J-1.031
X122.818 Y83.23 Z-1.234 I0.595 J1.031
X121.627 Y81.167 Z-1.282 I-0.595 J-1.031
X122.818 Y83.23 Z-1.331 I0.595 J1.031
X121.627 Y81.167 Z-1.379 I-0.595 J-1.031
X122.818 Y83.23 Z-1.428 I0.595 J1.031
X121.627 Y81.167 Z-1.476 I-0.595 J-1.031
X122.818 Y83.23 Z-1.525 I0.595 J1.031
X121.627 Y81.167 Z-1.573 I-0.595 J-1.031
X122.818 Y83.23 Z-1.622 I0.595 J1.031
X121.627 Y81.167 Z-1.67 I-0.595 J-1.031
X122.818 Y83.23 Z-1.719 I0.595 J1.031
X121.627 Y81.167 Z-1.767 I-0.595 J-1.031
X122.818 Y83.23 Z-1.816 I0.595 J1.031
X121.627 Y81.167 Z-1.864 I-0.595 J-1.031
X122.818 Y83.23 Z-1.913 I0.595 J1.031
X121.627 Y81.167 Z-1.961 I-0.595 J-1.031
X122.818 Y83.23 Z-2.01 I0.595 J1.031
X121.627 Y81.167 Z-2.058 I-0.595 J-1.031
X122.818 Y83.23 Z-2.107 I0.595 J1.031
X121.627 Y81.167 Z-2.155 I-0.595 J-1.031
X122.818 Y83.23 Z-2.204 I0.595 J1.031
X121.627 Y81.167 Z-2.252 I-0.595 J-1.031
X122.818 Y83.23 Z-2.301 I0.595 J1.031
X121.627 Y81.167 Z-2.349 I-0.595 J-1.031
X122.818 Y83.23 Z-2.398 I0.595 J1.031
X121.627 Y81.167 Z-2.446 I-0.595 J-1.031
X122.818 Y83.23 Z-2.495 I0.595 J1.031
X121.627 Y81.167 Z-2.543 I-0.595 J-1.031
X122.818 Y83.23 Z-2.592 I0.595 J1.031
X121.627 Y81.167 Z-2.64 I-0.595 J-1.031
X122.818 Y83.23 Z-2.689 I0.595 J1.031
X121.627 Y81.167 Z-2.737 I-0.595 J-1.031
X122.818 Y83.23 Z-2.786 I0.595 J1.031
X121.627 Y81.167 Z-2.834 I-0.595 J-1.031
X122.818 Y83.23 Z-2.883 I0.595 J1.031
X121.627 Y81.167 Z-2.931 I-0.595 J-1.031
X122.818 Y83.23 Z-2.98 I0.595 J1.031
X121.627 Y81.167 Z-3.028 I-0.595 J-1.031
X122.818 Y83.23 Z-3.077 I0.595 J1.031
X121.627 Y81.167 Z-3.125 I-0.595 J-1.031
X122.818 Y83.23 Z-3.174 I0.595 J1.031
X121.627 Y81.167 Z-3.222 I-0.595 J-1.031
X122.818 Y83.23 Z-3.271 I0.595 J1.031
X121.627 Y81.167 Z-3.319 I-0.595 J-1.031
X122.818 Y83.23 Z-3.368 I0.595 J1.031
X121.627 Y81.167 Z-3.416 I-0.595 J-1.031
X122.818 Y83.23 Z-3.465 I0.595 J1.031
X121.627 Y81.167 Z-3.513 I-0.595 J-1.031
X122.818 Y83.23 Z-3.562 I0.595 J1.031
X121.627 Y81.167 Z-3.61 I-0.595 J-1.031
X122.818 Y83.23 Z-3.659 I0.595 J1.031
X121.627 Y81.167 Z-3.707 I-0.595 J-1.031
X122.818 Y83.23 Z-3.756 I0.595 J1.031
X121.627 Y81.167 Z-3.804 I-0.595 J-1.031
X122.818 Y83.23 Z-3.852 I0.595 J1.031
X121.627 Y81.167 Z-3.901 I-0.595 J-1.031
X122.818 Y83.23 Z-3.949 I0.595 J1.031
X121.627 Y81.167 Z-3.998 I-0.595 J-1.031
X122.818 Y83.23 Z-4.046 I0.595 J1.031
X121.627 Y81.167 Z-4.095 I-0.595 J-1.031
X122.818 Y83.23 Z-4.143 I0.595 J1.031
X121.627 Y81.167 Z-4.192 I-0.595 J-1.031
X122.818 Y83.23 Z-4.24 I0.595 J1.031
X121.627 Y81.167 Z-4.289 I-0.595 J-1.031
X122.818 Y83.23 Z-4.337 I0.595 J1.031
X121.627 Y81.167 Z-4.386 I-0.595 J-1.031
X122.818 Y83.23 Z-4.434 I0.595 J1.031
X121.627 Y81.167 Z-4.483 I-0.595 J-1.031
X122.818 Y83.23 Z-4.531 I0.595 J1.031
X121.627 Y81.167 Z-4.58 I-0.595 J-1.031
X122.818 Y83.23 Z-4.628 I0.595 J1.031
X121.627 Y81.167 Z-4.677 I-0.595 J-1.031
X122.818 Y83.23 Z-4.725 I0.595 J1.031
X121.627 Y81.167 Z-4.774 I-0.595 J-1.031
X122.818 Y83.23 Z-4.822 I0.595 J1.031
X121.627 Y81.167 Z-4.871 I-0.595 J-1.031
X122.818 Y83.23 Z-4.919 I0.595 J1.031
X121.627 Y81.167 Z-4.968 I-0.595 J-1.031
X122.818 Y83.23 Z-5.016 I0.595 J1.031
X121.627 Y81.167 Z-5.065 I-0.595 J-1.031
X122.818 Y83.23 Z-5.113 I0.595 J1.031
X121.627 Y81.167 Z-5.162 I-0.595 J-1.031
X121.053 Y81.972 Z-5.175 I0.595 J1.031
X123.391 Y82.425 I1.169 J0.227
X121.053 Y81.972 I-1.169 J-0.227
X121.305 Y82.344 I0.312 J0.06
G1 X121.46 Y82.374
X121.53 Y82.388 Z-5.167
X121.596 Y82.401 Z-5.144
X121.655 Y82.412 Z-5.106
X121.704 Y82.422 Z-5.055
X121.741 Y82.429 Z-4.995
X121.764 Y82.433 Z-4.928
X121.772 Y82.435 Z-4.858
G0 Z5.
X122.696 Y105.826
Z4.5
G1 Z2.818 F800.
X122.7 Y105.819 Z2.747
X122.711 Y105.799 Z2.68
X122.73 Y105.766 Z2.62
X122.755 Y105.723 Z2.569
X122.785 Y105.67 Z2.531
X122.819 Y105.612 Z2.508
X122.854 Y105.551 Z2.5
X122.934 Y105.414
G2 X122.818 Y104.98 I-0.275 J-0.159
X121.627 Y107.042 Z2.452 I-0.595 J1.031
X122.818 Y104.98 Z2.403 I0.595 J-1.031
X121.627 Y107.042 Z2.355 I-0.595 J1.031
X122.818 Y104.98 Z2.306 I0.595 J-1.031
X121.627 Y107.042 Z2.258 I-0.595 J1.031
X122.818 Y104.98 Z2.209 I0.595 J-1.031
X121.627 Y107.042 Z2.161 I-0.595 J1.031
X122.818 Y104.98 Z2.112 I0.595 J-1.031
X121.627 Y107.042 Z2.064 I-0.595 J1.031
X122.818 Y104.98 Z2.015 I0.595 J-1.031
X121.627 Y107.042 Z1.967 I-0.595 J1.031
X122.818 Y104.98 Z1.918 I0.595 J-1.031
X121.627 Y107.042 Z1.87 I-0.595 J1.031
X122.818 Y104.98 Z1.821 I0.595 J-1.031
X121.627 Y107.042 Z1.773 I-0.595 J1.031
X122.818 Y104.98 Z1.724 I0.595 J-1.031
X121.627 Y107.042 Z1.676 I-0.595 J1.031
X122.818 Y104.98 Z1.627 I0.595 J-1.031
X121.627 Y107.042 Z1.579 I-0.595 J1.031
X122.818 Y104.98 Z1.53 I0.595 J-1.031
X121.627 Y107.042 Z1.482 I-0.595 J1.031
X122.818 Y104.98 Z1.433 I0.595 J-1.031
X121.627 Y107.042 Z1.385 I-0.595 J1.031
X122.818 Y104.98 Z1.336 I0.595 J-1.031
X121.627 Y107.042 Z1.288 I-0.595 J1.031
X122.818 Y104.98 Z1.239 I0.595 J-1.031
X121.627 Y107.042 Z1.191 I-0.595 J1.031
X122.818 Y104.98 Z1.142 I0.595 J-1.031
X121.627 Y107.042 Z1.094 I-0.595 J1.031
X122.818 Y104.98 Z1.045 I0.595 J-1.031
X121.627 Y107.042 Z0.997 I-0.595 J1.031
X122.818 Y104.98 Z0.948 I0.595 J-1.031
X121.627 Y107.042 Z0.9 I-0.595 J1.031
X122.818 Y104.98 Z0.851 I0.595 J-1.031
X121.627 Y107.042 Z0.803 I-0.595 J1.031
X122.818 Y104.98 Z0.754 I0.595 J-1.031
X121.627 Y107.042 Z0.706 I-0.595 J1.031
X122.818 Y104.98 Z0.657 I0.595 J-1.031
X121.627 Y107.042 Z0.609 I-0.595 J1.031
X122.818 Y104.98 Z0.56 I0.595 J-1.031
X121.627 Y107.042 Z0.512 I-0.595 J1.031
X122.818 Y104.98 Z0.463 I0.595 J-1.031
X121.627 Y107.042 Z0.415 I-0.595 J1.031
X122.818 Y104.98 Z0.366 I0.595 J-1.031
X121.627 Y107.042 Z0.318 I-0.595 J1.031
X122.818 Y104.98 Z0.269 I0.595 J-1.031
X121.627 Y107.042 Z0.221 I-0.595 J1.031
X122.818 Y104.98 Z0.172 I0.595 J-1.031
X121.627 Y107.042 Z0.124 I-0.595 J1.031
X122.818 Y104.98 Z0.075 I0.595 J-1.031
X121.627 Y107.042 Z0.027 I-0.595 J1.031
X122.818 Y104.98 Z-0.022 I0.595 J-1.031
X121.627 Y107.042 Z-0.07 I-0.595 J1.031
X122.818 Y104.98 Z-0.119 I0.595 J-1.031
X121.627 Y107.042 Z-0.167 I-0.595 J1.031
X122.818 Y104.98 Z-0.216 I0.595 J-1.031
X121.627 Y107.042 Z-0.264 I-0.595 J1.031
X122.818 Y104.98 Z-0.313 I0.595 J-1.031
X121.627 Y107.042 Z-0.361 I-0.595 J1.031
X122.818 Y104.98 Z-0.41 I0.595 J-1.031
X121.627 Y107.042 Z-0.458 I-0.595 J1.031
X122.818 Y104.98 Z-0.507 I0.595 J-1.031
X121.627 Y107.042 Z-0.555 I-0.595 J1.031
X122.818 Y104.98 Z-0.604 I0.595 J-1.031
X121.627 Y107.042 Z-0.652 I-0.595 J1.031
X122.818 Y104.98 Z-0.7 I0.595 J-1.031
X121.627 Y107.042 Z-0.749 I-0.595 J1.031
X122.818 Y104.98 Z-0.797 I0.595 J-1.031
X121.627 Y107.042 Z-0.846 I-0.595 J1.031
X122.818 Y104.98 Z-0.894 I0.595 J-1.031
X121.627 Y107.042 Z-0.943 I-0.595 J1.031
X122.818 Y104.98 Z-0.991 I0.595 J-1.031
X121.627 Y107.042 Z-1.04 I-0.595 J1.031
X122.818 Y104.98 Z-1.088 I0.595 J-1.031
X121.627 Y107.042 Z-1.137 I-0.595 J1.031
X122.818 Y104.98 Z-1.185 I0.595 J-1.031
X121.627 Y107.042 Z-1.234 I-0.595 J1.031
X122.818 Y104.98 Z-1.282 I0.595 J-1.031
X121.627 Y107.042 Z-1.331 I-0.595 J1.031
X122.818 Y104.98 Z-1.379 I0.595 J-1.031
X121.627 Y107.042 Z-1.428 I-0.595 J1.031
X122.818 Y104.98 Z-1.476 I0.595 J-1.031
X121.627 Y107.042 Z-1.525 I-0.595 J1.031
X122.818 Y104.98 Z-1.573 I0.595 J-1.031
X121.627 Y107.042 Z-1.622 I-0.595 J1.031
X122.818 Y104.98 Z-1.67 I0.595 J-1.031
X121.627 Y107.042 Z-1.719 I-0.595 J1.031
X122.818 Y104.98 Z-1.767 I0.595 J-1.031
X121.627 Y107.042 Z-1.816 I-0.595 J1.031
X122.818 Y104.98 Z-1.864 I0.595 J-1.031
X121.627 Y107.042 Z-1.913 I-0.595 J1.031
X122.818 Y104.98 Z-1.961 I0.595 J-1.031
X121.627 Y107.042 Z-2.01 I-0.595 J1.031
X122.818 Y104.98 Z-2.058 I0.595 J-1.031
X121.627 Y107.042 Z-2.107 I-0.595 J1.031
X122.818 Y104.98 Z-2.155 I0.595 J-1.031
X121.627 Y107.042 Z-2.204 I-0.595 J1.031
X122.818 Y104.98 Z-2.252 I0.595 J-1.031
X121.627 Y107.042 Z-2.301 I-0.595 J1.031
X122.818 Y104.98 Z-2.349 I0.595 J-1.031
X121.627 Y107.042 Z-2.398 I-0.595 J1.031
X122.818 Y104.98 Z-2.446 I0.595 J-1.031
X121.627 Y107.042 Z-2.495 I-0.595 J1.031
X122.818 Y104.98 Z-2.543 I0.595 J-1.031
X121.627 Y107.042 Z-2.592 I-0.595 J1.031
X122.818 Y104.98 Z-2.64 I0.595 J-1.031
X121.627 Y107.042 Z-2.689 I-0.595 J1.031
X122.818 Y104.98 Z-2.737 I0.595 J-1.031
X121.627 Y107.042 Z-2.786 I-0.595 J1.031
X122.818 Y104.98 Z-2.834 I0.595 J-1.031
X121.627 Y107.042 Z-2.883 I-0.595 J1.031
X122.818 Y104.98 Z-2.931 I0.595 J-1.031
X121.627 Y107.042 Z-2.98 I-0.595 J1.031
X122.818 Y104.98 Z-3.028 I0.595 J-1.031
X121.627 Y107.042 Z-3.077 I-0.595 J1.031
X122.818 Y104.98 Z-3.125 I0.595 J-1.031
X121.627 Y107.042 Z-3.174 I-0.595 J1.031
X122.818 Y104.98 Z-3.222 I0.595 J-1.031
X121.627 Y107.042 Z-3.271 I-0.595 J1.031
X122.818 Y104.98 Z-3.319 I0.595 J-1.031
X121.627 Y107.042 Z-3.368 I-0.595 J1.031
X122.818 Y104.98 Z-3.416 I0.595 J-1.031
X121.627 Y107.042 Z-3.465 I-0.595 J1.031
X122.818 Y104.98 Z-3.513 I0.595 J-1.031
X121.627 Y107.042 Z-3.562 I-0.595 J1.031
X122.818 Y104.98 Z-3.61 I0.595 J-1.031
X121.627 Y107.042 Z-3.659 I-0.595 J1.031
X122.818 Y104.98 Z-3.707 I0.595 J-1.031
X121.627 Y107.042 Z-3.756 I-0.595 J1.031
X122.818 Y104.98 Z-3.804 I0.595 J-1.031
X121.627 Y107.042 Z-3.852 I-0.595 J1.031
X122.818 Y104.98 Z-3.901 I0.595 J-1.031
X121.627 Y107.042 Z-3.949 I-0.595 J1.031
X122.818 Y104.98 Z-3.998 I0.595 J-1.031
X121.627 Y107.042 Z-4.046 I-0.595 J1.031
X122.818 Y104.98 Z-4.095 I0.595 J-1.031
X121.627 Y107.042 Z-4.143 I-0.595 J1.031
X122.818 Y104.98 Z-4.192 I0.595 J-1.031
X121.627 Y107.042 Z-4.24 I-0.595 J1.031
X122.818 Y104.98 Z-4.289 I0.595 J-1.031
X121.627 Y107.042 Z-4.337 I-0.595 J1.031
X122.818 Y104.98 Z-4.386 I0.595 J-1.031
X121.627 Y107.042 Z-4.434 I-0.595 J1.031
X122.818 Y104.98 Z-4.483 I0.595 J-1.031
X121.627 Y107.042 Z-4.531 I-0.595 J1.031
X122.818 Y104.98 Z-4.58 I0.595 J-1.031
X121.627 Y107.042 Z-4.628 I-0.595 J1.031
X122.818 Y104.98 Z-4.677 I0.595 J-1.031
X121.627 Y107.042 Z-4.725 I-0.595 J1.031
X122.818 Y104.98 Z-4.774 I0.595 J-1.031
X121.627 Y107.042 Z-4.822 I-0.595 J1.031
X122.818 Y104.98 Z-4.871 I0.595 J-1.031
X121.627 Y107.042 Z-4.919 I-0.595 J1.031
X122.818 Y104.98 Z-4.968 I0.595 J-1.031
X121.627 Y107.042 Z-5.016 I-0.595 J1.031
X122.818 Y104.98 Z-5.065 I0.595 J-1.031
X121.627 Y107.042 Z-5.113 I-0.595 J1.031
X122.818 Y104.98 Z-5.162 I0.595 J-1.031
X121.834 Y104.886 Z-5.175 I-0.595 J1.031
X122.61 Y107.137 I0.388 J1.126
X121.834 Y104.886 I-0.388 J-1.126
X121.637 Y105.289 I0.104 J0.3
G1 X121.689 Y105.439
X121.712 Y105.506 Z-5.167
X121.734 Y105.569 Z-5.144
X121.754 Y105.626 Z-5.106
X121.77 Y105.674 Z-5.055
X121.782 Y105.71 Z-4.995
X121.79 Y105.732 Z-4.928
X121.793 Y105.739 Z-4.858
G0 Z5.
X101.997 Y118.235
Z4.5
G1 Z2.818 F800.
G18 G2 X102.314 Z2.5 I0.318 K0.
G1 X102.473
G17 G2 X102.791 Y117.917 I0. J-0.317
X100.409 Z2.452 I-1.191 J0.
X102.791 Z2.403 I1.191 J0.
X100.409 Z2.355 I-1.191 J0.
X102.791 Z2.306 I1.191 J0.
X100.409 Z2.258 I-1.191 J0.
X102.791 Z2.209 I1.191 J0.
X100.409 Z2.161 I-1.191 J0.
X102.791 Z2.112 I1.191 J0.
X100.409 Z2.064 I-1.191 J0.
X102.791 Z2.015 I1.191 J0.
X100.409 Z1.967 I-1.191 J0.
X102.791 Z1.918 I1.191 J0.
X100.409 Z1.87 I-1.191 J0.
X102.791 Z1.821 I1.191 J0.
X100.409 Z1.773 I-1.191 J0.
X102.791 Z1.724 I1.191 J0.
X100.409 Z1.676 I-1.191 J0.
X102.791 Z1.627 I1.191 J0.
X100.409 Z1.579 I-1.191 J0.
X102.791 Z1.53 I1.191 J0.
X100.409 Z1.482 I-1.191 J0.
X102.791 Z1.433 I1.191 J0.
X100.409 Z1.385 I-1.191 J0.
X102.791 Z1.336 I1.191 J0.
X100.409 Z1.288 I-1.191 J0.
X102.791 Z1.239 I1.191 J0.
X100.409 Z1.191 I-1.191 J0.
X102.791 Z1.142 I1.191 J0.
X100.409 Z1.094 I-1.191 J0.
X102.791 Z1.045 I1.191 J0.
X100.409 Z0.997 I-1.191 J0.
X102.791 Z0.948 I1.191 J0.
X100.409 Z0.9 I-1.191 J0.
X102.791 Z0.851 I1.191 J0.
X100.409 Z0.803 I-1.191 J0.
X102.791 Z0.754 I1.191 J0.
X100.409 Z0.706 I-1.191 J0.
X102.791 Z0.657 I1.191 J0.
X100.409 Z0.609 I-1.191 J0.
X102.791 Z0.56 I1.191 J0.
X100.409 Z0.512 I-1.191 J0.
X102.791 Z0.463 I1.191 J0.
X100.409 Z0.415 I-1.191 J0.
X102.791 Z0.366 I1.191 J0.
X100.409 Z0.318 I-1.191 J0.
X102.791 Z0.269 I1.191 J0.
X100.409 Z0.221 I-1.191 J0.
X102.791 Z0.172 I1.191 J0.
X100.409 Z0.124 I-1.191 J0.
X102.791 Z0.075 I1.191 J0.
X100.409 Z0.027 I-1.191 J0.
X102.791 Z-0.022 I1.191 J0.
X100.409 Z-0.07 I-1.191 J0.
X102.791 Z-0.119 I1.191 J0.
X100.409 Z-0.167 I-1.191 J0.
X102.791 Z-0.216 I1.191 J0.
X100.409 Z-0.264 I-1.191 J0.
X102.791 Z-0.313 I1.191 J0.
X100.409 Z-0.361 I-1.191 J0.
X102.791 Z-0.41 I1.191 J0.
X100.409 Z-0.458 I-1.191 J0.
X102.791 Z-0.507 I1.191 J0.
X100.409 Z-0.555 I-1.191 J0.
X102.791 Z-0.604 I1.191 J0.
X100.409 Z-0.652 I-1.191 J0.
X102.791 Z-0.7 I1.191 J0.
X100.409 Z-0.749 I-1.191 J0.
X102.791 Z-0.797 I1.191 J0.
X100.409 Z-0.846 I-1.191 J0.
X102.791 Z-0.894 I1.191 J0.
X100.409 Z-0.943 I-1.191 J0.
X102.791 Z-0.991 I1.191 J0.
X100.409 Z-1.04 I-1.191 J0.
X102.791 Z-1.088 I1.191 J0.
X100.409 Z-1.137 I-1.191 J0.
X102.791 Z-1.185 I1.191 J0.
X100.409 Z-1.234 I-1.191 J0.
X102.791 Z-1.282 I1.191 J0.
X100.409 Z-1.331 I-1.191 J0.
X102.791 Z-1.379 I1.191 J0.
X100.409 Z-1.428 I-1.191 J0.
X102.791 Z-1.476 I1.191 J0.
X100.409 Z-1.525 I-1.191 J0.
X102.791 Z-1.573 I1.191 J0.
X100.409 Z-1.622 I-1.191 J0.
X102.791 Z-1.67 I1.191 J0.
X100.409 Z-1.719 I-1.191 J0.
X102.791 Z-1.767 I1.191 J0.
X100.409 Z-1.816 I-1.191 J0.
X102.791 Z-1.864 I1.191 J0.
X100.409 Z-1.913 I-1.191 J0.
X102.791 Z-1.961 I1.191 J0.
X100.409 Z-2.01 I-1.191 J0.
X102.791 Z-2.058 I1.191 J0.
X100.409 Z-2.107 I-1.191 J0.
X102.791 Z-2.155 I1.191 J0.
X100.409 Z-2.204 I-1.191 J0.
X102.791 Z-2.252 I1.191 J0.
X100.409 Z-2.301 I-1.191 J0.
X102.791 Z-2.349 I1.191 J0.
X100.409 Z-2.398 I-1.191 J0.
X102.791 Z-2.446 I1.191 J0.
X100.409 Z-2.495 I-1.191 J0.
X102.791 Z-2.543 I1.191 J0.
X100.409 Z-2.592 I-1.191 J0.
X102.791 Z-2.64 I1.191 J0.
X100.409 Z-2.689 I-1.191 J0.
X102.791 Z-2.737 I1.191 J0.
X100.409 Z-2.786 I-1.191 J0.
X102.791 Z-2.834 I1.191 J0.
X100.409 Z-2.883 I-1.191 J0.
X102.791 Z-2.931 I1.191 J0.
X100.409 Z-2.98 I-1.191 J0.
X102.791 Z-3.028 I1.191 J0.
X100.409 Z-3.077 I-1.191 J0.
X102.791 Z-3.125 I1.191 J0.
X100.409 Z-3.174 I-1.191 J0.
X102.791 Z-3.222 I1.191 J0.
X100.409 Z-3.271 I-1.191 J0.
X102.791 Z-3.319 I1.191 J0.
X100.409 Z-3.368 I-1.191 J0.
X102.791 Z-3.416 I1.191 J0.
X100.409 Z-3.465 I-1.191 J0.
X102.791 Z-3.513 I1.191 J0.
X100.409 Z-3.562 I-1.191 J0.
X102.791 Z-3.61 I1.191 J0.
X100.409 Z-3.659 I-1.191 J0.
X102.791 Z-3.707 I1.191 J0.
X100.409 Z-3.756 I-1.191 J0.
X102.791 Z-3.804 I1.191 J0.
X100.409 Z-3.852 I-1.191 J0.
X102.791 Z-3.901 I1.191 J0.
X100.409 Z-3.949 I-1.191 J0.
X102.791 Z-3.998 I1.191 J0.
X100.409 Z-4.046 I-1.191 J0.
X102.791 Z-4.095 I1.191 J0.
X100.409 Z-4.143 I-1.191 J0.
X102.791 Z-4.192 I1.191 J0.
X100.409 Z-4.24 I-1.191 J0.
X102.791 Z-4.289 I1.191 J0.
X100.409 Z-4.337 I-1.191 J0.
X102.791 Z-4.386 I1.191 J0.
X100.409 Z-4.434 I-1.191 J0.
X102.791 Z-4.483 I1.191 J0.
X100.409 Z-4.531 I-1.191 J0.
X102.791 Z-4.58 I1.191 J0.
X100.409 Z-4.628 I-1.191 J0.
X102.791 Z-4.677 I1.191 J0.
X100.409 Z-4.725 I-1.191 J0.
X102.791 Z-4.774 I1.191 J0.
X100.409 Z-4.822 I-1.191 J0.
X102.791 Z-4.871 I1.191 J0.
X100.409 Z-4.919 I-1.191 J0.
X102.791 Z-4.968 I1.191 J0.
X100.409 Z-5.016 I-1.191 J0.
X102.791 Z-5.065 I1.191 J0.
X100.409 Z-5.113 I-1.191 J0.
X102.791 Z-5.162 I1.191 J0.
X102.381 Y117.018 Z-5.175 I-1.191 J0.
X100.819 Y118.816 I-0.781 J0.899
X102.381 Y117.018 I0.781 J-0.899
X101.933 Y117.05 I-0.208 J0.24
G1 X101.829 Y117.17
X101.782 Y117.223 Z-5.167
X101.738 Y117.274 Z-5.144
X101.699 Y117.319 Z-5.106
X101.666 Y117.357 Z-5.055
X101.641 Y117.386 Z-4.995
X101.626 Y117.403 Z-4.928
X101.62 Y117.41 Z-4.858
G0 Z5.
X80.901 Y106.514
Z4.5
G1 Z2.818 F800.
X80.905 Y106.52 Z2.747
X80.917 Y106.541 Z2.68
X80.936 Y106.574 Z2.62
X80.961 Y106.617 Z2.569
X80.991 Y106.669 Z2.531
X81.025 Y106.727 Z2.508
X81.06 Y106.789 Z2.5
X81.139 Y106.926
G2 X81.573 Y107.042 I0.275 J-0.159
X80.382 Y104.98 Z2.452 I-0.595 J-1.031
X81.573 Y107.042 Z2.403 I0.595 J1.031
X80.382 Y104.98 Z2.355 I-0.595 J-1.031
X81.573 Y107.042 Z2.306 I0.595 J1.031
X80.382 Y104.98 Z2.258 I-0.595 J-1.031
X81.573 Y107.042 Z2.209 I0.595 J1.031
X80.382 Y104.98 Z2.161 I-0.595 J-1.031
X81.573 Y107.042 Z2.112 I0.595 J1.031
X80.382 Y104.98 Z2.064 I-0.595 J-1.031
X81.573 Y107.042 Z2.015 I0.595 J1.031
X80.382 Y104.98 Z1.967 I-0.595 J-1.031
X81.573 Y107.042 Z1.918 I0.595 J1.031
X80.382 Y104.98 Z1.87 I-0.595 J-1.031
X81.573 Y107.042 Z1.821 I0.595 J1.031
X80.382 Y104.98 Z1.773 I-0.595 J-1.031
X81.573 Y107.042 Z1.724 I0.595 J1.031
X80.382 Y104.98 Z1.676 I-0.595 J-1.031
X81.573 Y107.042 Z1.627 I0.595 J1.031
X80.382 Y104.98 Z1.579 I-0.595 J-1.031
X81.573 Y107.042 Z1.53 I0.595 J1.031
X80.382 Y104.98 Z1.482 I-0.595 J-1.031
X81.573 Y107.042 Z1.433 I0.595 J1.031
X80.382 Y104.98 Z1.385 I-0.595 J-1.031
X81.573 Y107.042 Z1.336 I0.595 J1.031
X80.382 Y104.98 Z1.288 I-0.595 J-1.031
X81.573 Y107.042 Z1.239 I0.595 J1.031
X80.382 Y104.98 Z1.191 I-0.595 J-1.031
X81.573 Y107.042 Z1.142 I0.595 J1.031
X80.382 Y104.98 Z1.094 I-0.595 J-1.031
X81.573 Y107.042 Z1.045 I0.595 J1.031
X80.382 Y104.98 Z0.997 I-0.595 J-1.031
X81.573 Y107.042 Z0.948 I0.595 J1.031
X80.382 Y104.98 Z0.9 I-0.595 J-1.031
X81.573 Y107.042 Z0.851 I0.595 J1.031
X80.382 Y104.98 Z0.803 I-0.595 J-1.031
X81.573 Y107.042 Z0.754 I0.595 J1.031
X80.382 Y104.98 Z0.706 I-0.595 J-1.031
X81.573 Y107.042 Z0.657 I0.595 J1.031
X80.382 Y104.98 Z0.609 I-0.595 J-1.031
X81.573 Y107.042 Z0.56 I0.595 J1.031
X80.382 Y104.98 Z0.512 I-0.595 J-1.031
X81.573 Y107.042 Z0.463 I0.595 J1.031
X80.382 Y104.98 Z0.415 I-0.595 J-1.031
X81.573 Y107.042 Z0.366 I0.595 J1.031
X80.382 Y104.98 Z0.318 I-0.595 J-1.031
X81.573 Y107.042 Z0.269 I0.595 J1.031
X80.382 Y104.98 Z0.221 I-0.595 J-1.031
X81.573 Y107.042 Z0.172 I0.595 J1.031
X80.382 Y104.98 Z0.124 I-0.595 J-1.031
X81.573 Y107.042 Z0.075 I0.595 J1.031
X80.382 Y104.98 Z0.027 I-0.595 J-1.031
X81.573 Y107.042 Z-0.022 I0.595 J1.031
X80.382 Y104.98 Z-0.07 I-0.595 J-1.031
X81.573 Y107.042 Z-0.119 I0.595 J1.031
X80.382 Y104.98 Z-0.167 I-0.595 J-1.031
X81.573 Y107.042 Z-0.216 I0.595 J1.031
X80.382 Y104.98 Z-0.264 I-0.595 J-1.031
X81.573 Y107.042 Z-0.313 I0.595 J1.031
X80.382 Y104.98 Z-0.361 I-0.595 J-1.031
X81.573 Y107.042 Z-0.41 I0.595 J1.031
X80.382 Y104.98 Z-0.458 I-0.595 J-1.031
X81.573 Y107.042 Z-0.507 I0.595 J1.031
X80.382 Y104.98 Z-0.555 I-0.595 J-1.031
X81.573 Y107.042 Z-0.604 I0.595 J1.031
X80.382 Y104.98 Z-0.652 I-0.595 J-1.031
X81.573 Y107.042 Z-0.7 I0.595 J1.031
X80.382 Y104.98 Z-0.749 I-0.595 J-1.031
X81.573 Y107.042 Z-0.797 I0.595 J1.031
X80.382 Y104.98 Z-0.846 I-0.595 J-1.031
X81.573 Y107.042 Z-0.894 I0.595 J1.031
X80.382 Y104.98 Z-0.943 I-0.595 J-1.031
X81.573 Y107.042 Z-0.991 I0.595 J1.031
X80.382 Y104.98 Z-1.04 I-0.595 J-1.031
X81.573 Y107.042 Z-1.088 I0.595 J1.031
X80.382 Y104.98 Z-1.137 I-0.595 J-1.031
X81.573 Y107.042 Z-1.185 I0.595 J1.031
X80.382 Y104.98 Z-1.234 I-0.595 J-1.031
X81.573 Y107.042 Z-1.282 I0.595 J1.031
X80.382 Y104.98 Z-1.331 I-0.595 J-1.031
X81.573 Y107.042 Z-1.379 I0.595 J1.031
X80.382 Y104.98 Z-1.428 I-0.595 J-1.031
X81.573 Y107.042 Z-1.476 I0.595 J1.031
X80.382 Y104.98 Z-1.525 I-0.595 J-1.031
X81.573 Y107.042 Z-1.573 I0.595 J1.031
X80.382 Y104.98 Z-1.622 I-0.595 J-1.031
X81.573 Y107.042 Z-1.67 I0.595 J1.031
X80.382 Y104.98 Z-1.719 I-0.595 J-1.031
X81.573 Y107.042 Z-1.767 I0.595 J1.031
X80.382 Y104.98 Z-1.816 I-0.595 J-1.031
X81.573 Y107.042 Z-1.864 I0.595 J1.031
X80.382 Y104.98 Z-1.913 I-0.595 J-1.031
X81.573 Y107.042 Z-1.961 I0.595 J1.031
X80.382 Y104.98 Z-2.01 I-0.595 J-1.031
X81.573 Y107.042 Z-2.058 I0.595 J1.031
X80.382 Y104.98 Z-2.107 I-0.595 J-1.031
X81.573 Y107.042 Z-2.155 I0.595 J1.031
X80.382 Y104.98 Z-2.204 I-0.595 J-1.031
X81.573 Y107.042 Z-2.252 I0.595 J1.031
X80.382 Y104.98 Z-2.301 I-0.595 J-1.031
X81.573 Y107.042 Z-2.349 I0.595 J1.031
X80.382 Y104.98 Z-2.398 I-0.595 J-1.031
X81.573 Y107.042 Z-2.446 I0.595 J1.031
X80.382 Y104.98 Z-2.495 I-0.595 J-1.031
X81.573 Y107.042 Z-2.543 I0.595 J1.031
X80.382 Y104.98 Z-2.592 I-0.595 J-1.031
X81.573 Y107.042 Z-2.64 I0.595 J1.031
X80.382 Y104.98 Z-2.689 I-0.595 J-1.031
X81.573 Y107.042 Z-2.737 I0.595 J1.031
X80.382 Y104.98 Z-2.786 I-0.595 J-1.031
X81.573 Y107.042 Z-2.834 I0.595 J1.031
X80.382 Y104.98 Z-2.883 I-0.595 J-1.031
X81.573 Y107.042 Z-2.931 I0.595 J1.031
X80.382 Y104.98 Z-2.98 I-0.595 J-1.031
X81.573 Y107.042 Z-3.028 I0.595 J1.031
X80.382 Y104.98 Z-3.077 I-0.595 J-1.031
X81.573 Y107.042 Z-3.125 I0.595 J1.031
X80.382 Y104.98 Z-3.174 I-0.595 J-1.031
X81.573 Y107.042 Z-3.222 I0.595 J1.031
X80.382 Y104.98 Z-3.271 I-0.595 J-1.031
X81.573 Y107.042 Z-3.319 I0.595 J1.031
X80.382 Y104.98 Z-3.368 I-0.595 J-1.031
X81.573 Y107.042 Z-3.416 I0.595 J1.031
X80.382 Y104.98 Z-3.465 I-0.595 J-1.031
X81.573 Y107.042 Z-3.513 I0.595 J1.031
X80.382 Y104.98 Z-3.562 I-0.595 J-1.031
X81.573 Y107.042 Z-3.61 I0.595 J1.031
X80.382 Y104.98 Z-3.659 I-0.595 J-1.031
X81.573 Y107.042 Z-3.707 I0.595 J1.031
X80.382 Y104.98 Z-3.756 I-0.595 J-1.031
X81.573 Y107.042 Z-3.804 I0.595 J1.031
X80.382 Y104.98 Z-3.852 I-0.595 J-1.031
X81.573 Y107.042 Z-3.901 I0.595 J1.031
X80.382 Y104.98 Z-3.949 I-0.595 J-1.031
X81.573 Y107.042 Z-3.998 I0.595 J1.031
X80.382 Y104.98 Z-4.046 I-0.595 J-1.031
X81.573 Y107.042 Z-4.095 I0.595 J1.031
X80.382 Y104.98 Z-4.143 I-0.595 J-1.031
X81.573 Y107.042 Z-4.192 I0.595 J1.031
X80.382 Y104.98 Z-4.24 I-0.595 J-1.031
X81.573 Y107.042 Z-4.289 I0.595 J1.031
X80.382 Y104.98 Z-4.337 I-0.595 J-1.031
X81.573 Y107.042 Z-4.386 I0.595 J1.031
X80.382 Y104.98 Z-4.434 I-0.595 J-1.031
X81.573 Y107.042 Z-4.483 I0.595 J1.031
X80.382 Y104.98 Z-4.531 I-0.595 J-1.031
X81.573 Y107.042 Z-4.58 I0.595 J1.031
X80.382 Y104.98 Z-4.628 I-0.595 J-1.031
X81.573 Y107.042 Z-4.677 I0.595 J1.031
X80.382 Y104.98 Z-4.725 I-0.595 J-1.031
X81.573 Y107.042 Z-4.774 I0.595 J1.031
X80.382 Y104.98 Z-4.822 I-0.595 J-1.031
X81.573 Y107.042 Z-4.871 I0.595 J1.031
X80.382 Y104.98 Z-4.919 I-0.595 J-1.031
X81.573 Y107.042 Z-4.968 I0.595 J1.031
X80.382 Y104.98 Z-5.016 I-0.595 J-1.031
X81.573 Y107.042 Z-5.065 I0.595 J1.031
X80.382 Y104.98 Z-5.113 I-0.595 J-1.031
X81.573 Y107.042 Z-5.162 I0.595 J1.031
X82.147 Y106.238 Z-5.175 I-0.595 J-1.031
X79.809 Y105.784 I-1.169 J-0.227
X82.147 Y106.238 I1.169 J0.227
X81.895 Y105.866 I-0.312 J-0.06
G1 X81.74 Y105.835
X81.67 Y105.822 Z-5.167
X81.604 Y105.809 Z-5.144
X81.545 Y105.798 Z-5.106
X81.496 Y105.788 Z-5.055
X81.459 Y105.781 Z-4.995
X81.436 Y105.776 Z-4.928
X81.428 Y105.775 Z-4.858
G0 Z15.
M5
G0 Z45
G0 X0 Y0

M9
M30
