(CAROASEL BOTTOM MOUNT HOLES )
(T1  D=3.175 CR=0. - ZMIN=-4.675 - FLAT END MILL)
G90 G94 G91.1 G40 G49 G17
G21
G0 Z15

(BORE1)
M5
T1 M6
S15000 M3
G54
M8
G0 X21.019 Y90.011
G43 Z16. H1
Z3.
G1 Z1.317 F800.
G18 G2 X21.337 Z1. I0.318 K0.
G1 X21.495
G17 G2 X21.813 Y89.694 I0. J-0.318
X19.432 Z0.976 I-1.191 J0.
X21.813 Z0.952 I1.191 J0.
X19.432 Z0.927 I-1.191 J0.
X21.813 Z0.903 I1.191 J0.
X19.432 Z0.879 I-1.191 J0.
X21.813 Z0.855 I1.191 J0.
X19.432 Z0.83 I-1.191 J0.
X21.813 Z0.806 I1.191 J0.
X19.432 Z0.782 I-1.191 J0.
X21.813 Z0.758 I1.191 J0.
X19.432 Z0.733 I-1.191 J0.
X21.813 Z0.709 I1.191 J0.
X19.432 Z0.685 I-1.191 J0.
X21.813 Z0.661 I1.191 J0.
X19.432 Z0.636 I-1.191 J0.
X21.813 Z0.612 I1.191 J0.
X19.432 Z0.588 I-1.191 J0.
X21.813 Z0.564 I1.191 J0.
X19.432 Z0.539 I-1.191 J0.
X21.813 Z0.515 I1.191 J0.
X19.432 Z0.491 I-1.191 J0.
X21.813 Z0.467 I1.191 J0.
X19.432 Z0.442 I-1.191 J0.
X21.813 Z0.418 I1.191 J0.
X19.432 Z0.394 I-1.191 J0.
X21.813 Z0.37 I1.191 J0.
X19.432 Z0.345 I-1.191 J0.
X21.813 Z0.321 I1.191 J0.
X19.432 Z0.297 I-1.191 J0.
X21.813 Z0.273 I1.191 J0.
X19.432 Z0.248 I-1.191 J0.
X21.813 Z0.224 I1.191 J0.
X19.432 Z0.2 I-1.191 J0.
X21.813 Z0.176 I1.191 J0.
X19.432 Z0.151 I-1.191 J0.
X21.813 Z0.127 I1.191 J0.
X19.432 Z0.103 I-1.191 J0.
X21.813 Z0.079 I1.191 J0.
X19.432 Z0.054 I-1.191 J0.
X21.813 Z0.03 I1.191 J0.
X19.432 Z0.006 I-1.191 J0.
X21.813 Z-0.018 I1.191 J0.
X19.432 Z-0.043 I-1.191 J0.
X21.813 Z-0.067 I1.191 J0.
X19.432 Z-0.091 I-1.191 J0.
X21.813 Z-0.115 I1.191 J0.
X19.432 Z-0.139 I-1.191 J0.
X21.813 Z-0.164 I1.191 J0.
X19.432 Z-0.188 I-1.191 J0.
X21.813 Z-0.212 I1.191 J0.
X19.432 Z-0.236 I-1.191 J0.
X21.813 Z-0.261 I1.191 J0.
X19.432 Z-0.285 I-1.191 J0.
X21.813 Z-0.309 I1.191 J0.
X19.432 Z-0.333 I-1.191 J0.
X21.813 Z-0.358 I1.191 J0.
X19.432 Z-0.382 I-1.191 J0.
X21.813 Z-0.406 I1.191 J0.
X19.432 Z-0.43 I-1.191 J0.
X21.813 Z-0.455 I1.191 J0.
X19.432 Z-0.479 I-1.191 J0.
X21.813 Z-0.503 I1.191 J0.
X19.432 Z-0.527 I-1.191 J0.
X21.813 Z-0.552 I1.191 J0.
X19.432 Z-0.576 I-1.191 J0.
X21.813 Z-0.6 I1.191 J0.
X19.432 Z-0.624 I-1.191 J0.
X21.813 Z-0.649 I1.191 J0.
X19.432 Z-0.673 I-1.191 J0.
X21.813 Z-0.697 I1.191 J0.
X19.432 Z-0.721 I-1.191 J0.
X21.813 Z-0.746 I1.191 J0.
X19.432 Z-0.77 I-1.191 J0.
X21.813 Z-0.794 I1.191 J0.
X19.432 Z-0.818 I-1.191 J0.
X21.813 Z-0.843 I1.191 J0.
X19.432 Z-0.867 I-1.191 J0.
X21.813 Z-0.891 I1.191 J0.
X19.432 Z-0.915 I-1.191 J0.
X21.813 Z-0.94 I1.191 J0.
X19.432 Z-0.964 I-1.191 J0.
X21.813 Z-0.988 I1.191 J0.
X19.432 Z-1.012 I-1.191 J0.
X21.813 Z-1.037 I1.191 J0.
X19.432 Z-1.061 I-1.191 J0.
X21.813 Z-1.085 I1.191 J0.
X19.432 Z-1.109 I-1.191 J0.
X21.813 Z-1.134 I1.191 J0.
X19.432 Z-1.158 I-1.191 J0.
X21.813 Z-1.182 I1.191 J0.
X19.432 Z-1.206 I-1.191 J0.
X21.813 Z-1.23 I1.191 J0.
X19.432 Z-1.255 I-1.191 J0.
X21.813 Z-1.279 I1.191 J0.
X19.432 Z-1.303 I-1.191 J0.
X21.813 Z-1.327 I1.191 J0.
X19.432 Z-1.352 I-1.191 J0.
X21.813 Z-1.376 I1.191 J0.
X19.432 Z-1.4 I-1.191 J0.
X21.813 Z-1.424 I1.191 J0.
X19.432 Z-1.449 I-1.191 J0.
X21.813 Z-1.473 I1.191 J0.
X19.432 Z-1.497 I-1.191 J0.
X21.813 Z-1.521 I1.191 J0.
X19.432 Z-1.546 I-1.191 J0.
X21.813 Z-1.57 I1.191 J0.
X19.432 Z-1.594 I-1.191 J0.
X21.813 Z-1.618 I1.191 J0.
X19.432 Z-1.643 I-1.191 J0.
X21.813 Z-1.667 I1.191 J0.
X19.432 Z-1.691 I-1.191 J0.
X21.813 Z-1.715 I1.191 J0.
X19.432 Z-1.74 I-1.191 J0.
X21.813 Z-1.764 I1.191 J0.
X19.432 Z-1.788 I-1.191 J0.
X21.813 Z-1.812 I1.191 J0.
X19.432 Z-1.837 I-1.191 J0.
X21.813 Z-1.861 I1.191 J0.
X19.432 Z-1.885 I-1.191 J0.
X21.813 Z-1.909 I1.191 J0.
X19.432 Z-1.934 I-1.191 J0.
X21.813 Z-1.958 I1.191 J0.
X19.432 Z-1.982 I-1.191 J0.
X21.813 Z-2.006 I1.191 J0.
X19.432 Z-2.031 I-1.191 J0.
X21.813 Z-2.055 I1.191 J0.
X19.432 Z-2.079 I-1.191 J0.
X21.813 Z-2.103 I1.191 J0.
X19.432 Z-2.128 I-1.191 J0.
X21.813 Z-2.152 I1.191 J0.
X19.432 Z-2.176 I-1.191 J0.
X21.813 Z-2.2 I1.191 J0.
X19.432 Z-2.224 I-1.191 J0.
X21.813 Z-2.249 I1.191 J0.
X19.432 Z-2.273 I-1.191 J0.
X21.813 Z-2.297 I1.191 J0.
X19.432 Z-2.321 I-1.191 J0.
X21.813 Z-2.346 I1.191 J0.
X19.432 Z-2.37 I-1.191 J0.
X21.813 Z-2.394 I1.191 J0.
X19.432 Z-2.418 I-1.191 J0.
X21.813 Z-2.443 I1.191 J0.
X19.432 Z-2.467 I-1.191 J0.
X21.813 Z-2.491 I1.191 J0.
X19.432 Z-2.515 I-1.191 J0.
X21.813 Z-2.54 I1.191 J0.
X19.432 Z-2.564 I-1.191 J0.
X21.813 Z-2.588 I1.191 J0.
X19.432 Z-2.612 I-1.191 J0.
X21.813 Z-2.637 I1.191 J0.
X19.432 Z-2.661 I-1.191 J0.
X21.813 Z-2.685 I1.191 J0.
X19.432 Z-2.709 I-1.191 J0.
X21.813 Z-2.734 I1.191 J0.
X19.432 Z-2.758 I-1.191 J0.
X21.813 Z-2.782 I1.191 J0.
X19.432 Z-2.806 I-1.191 J0.
X21.813 Z-2.831 I1.191 J0.
X19.432 Z-2.855 I-1.191 J0.
X21.813 Z-2.879 I1.191 J0.
X19.432 Z-2.903 I-1.191 J0.
X21.813 Z-2.928 I1.191 J0.
X19.432 Z-2.952 I-1.191 J0.
X21.813 Z-2.976 I1.191 J0.
X19.432 Z-3. I-1.191 J0.
X21.813 Z-3.025 I1.191 J0.
X19.432 Z-3.049 I-1.191 J0.
X21.813 Z-3.073 I1.191 J0.
X19.432 Z-3.097 I-1.191 J0.
X21.813 Z-3.122 I1.191 J0.
X19.432 Z-3.146 I-1.191 J0.
X21.813 Z-3.17 I1.191 J0.
X19.432 Z-3.194 I-1.191 J0.
X21.813 Z-3.219 I1.191 J0.
X19.432 Z-3.243 I-1.191 J0.
X21.813 Z-3.267 I1.191 J0.
X19.432 Z-3.291 I-1.191 J0.
X21.813 Z-3.315 I1.191 J0.
X19.432 Z-3.34 I-1.191 J0.
X21.813 Z-3.364 I1.191 J0.
X19.432 Z-3.388 I-1.191 J0.
X21.813 Z-3.412 I1.191 J0.
X19.432 Z-3.437 I-1.191 J0.
X21.813 Z-3.461 I1.191 J0.
X19.432 Z-3.485 I-1.191 J0.
X21.813 Z-3.509 I1.191 J0.
X19.432 Z-3.534 I-1.191 J0.
X21.813 Z-3.558 I1.191 J0.
X19.432 Z-3.582 I-1.191 J0.
X21.813 Z-3.606 I1.191 J0.
X19.432 Z-3.631 I-1.191 J0.
X21.813 Z-3.655 I1.191 J0.
X19.432 Z-3.679 I-1.191 J0.
X21.813 Z-3.703 I1.191 J0.
X19.432 Z-3.728 I-1.191 J0.
X21.813 Z-3.752 I1.191 J0.
X19.432 Z-3.776 I-1.191 J0.
X21.813 Z-3.8 I1.191 J0.
X19.432 Z-3.825 I-1.191 J0.
X21.813 Z-3.849 I1.191 J0.
X19.432 Z-3.873 I-1.191 J0.
X21.813 Z-3.897 I1.191 J0.
X19.432 Z-3.922 I-1.191 J0.
X21.813 Z-3.946 I1.191 J0.
X19.432 Z-3.97 I-1.191 J0.
X21.813 Z-3.994 I1.191 J0.
X19.432 Z-4.019 I-1.191 J0.
X21.813 Z-4.043 I1.191 J0.
X19.432 Z-4.067 I-1.191 J0.
X21.813 Z-4.091 I1.191 J0.
X19.432 Z-4.116 I-1.191 J0.
X21.813 Z-4.14 I1.191 J0.
X19.432 Z-4.164 I-1.191 J0.
X21.813 Z-4.188 I1.191 J0.
X19.432 Z-4.213 I-1.191 J0.
X21.813 Z-4.237 I1.191 J0.
X19.432 Z-4.261 I-1.191 J0.
X21.813 Z-4.285 I1.191 J0.
X19.432 Z-4.31 I-1.191 J0.
X21.813 Z-4.334 I1.191 J0.
X19.432 Z-4.358 I-1.191 J0.
X21.813 Z-4.382 I1.191 J0.
X19.432 Z-4.406 I-1.191 J0.
X21.813 Z-4.431 I1.191 J0.
X19.432 Z-4.455 I-1.191 J0.
X21.813 Z-4.479 I1.191 J0.
X19.432 Z-4.503 I-1.191 J0.
X21.813 Z-4.528 I1.191 J0.
X19.432 Z-4.552 I-1.191 J0.
X21.813 Z-4.576 I1.191 J0.
X19.432 Z-4.6 I-1.191 J0.
X21.813 Z-4.625 I1.191 J0.
X19.432 Z-4.649 I-1.191 J0.
X20.763 Y90.876 Z-4.662 I1.191 J0.
X21.78 Y89.415 Z-4.675 I-0.141 J-1.182
X19.465 Y89.973 I-1.157 J0.279
X21.78 Y89.415 I1.157 J-0.279
X21.397 Y89.18 I-0.309 J0.074
G1 X21.242 Y89.218
X21.174 Y89.234 Z-4.667
X21.108 Y89.25 Z-4.644
X21.05 Y89.264 Z-4.606
X21.001 Y89.276 Z-4.555
X20.964 Y89.285 Z-4.495
X20.941 Y89.29 Z-4.428
X20.934 Y89.292 Z-4.358
G0 Z6.
X0.397 Y78.105
Z3.
G1 Z1.317 F800.
G18 G2 X0.714 Z1. I0.318 K0.
G1 X0.873
G17 G2 X1.191 Y77.787 I0. J-0.318
X-1.191 Z0.976 I-1.191 J0.
X1.191 Z0.952 I1.191 J0.
X-1.191 Z0.927 I-1.191 J0.
X1.191 Z0.903 I1.191 J0.
X-1.191 Z0.879 I-1.191 J0.
X1.191 Z0.855 I1.191 J0.
X-1.191 Z0.83 I-1.191 J0.
X1.191 Z0.806 I1.191 J0.
X-1.191 Z0.782 I-1.191 J0.
X1.191 Z0.758 I1.191 J0.
X-1.191 Z0.733 I-1.191 J0.
X1.191 Z0.709 I1.191 J0.
X-1.191 Z0.685 I-1.191 J0.
X1.191 Z0.661 I1.191 J0.
X-1.191 Z0.636 I-1.191 J0.
X1.191 Z0.612 I1.191 J0.
X-1.191 Z0.588 I-1.191 J0.
X1.191 Z0.564 I1.191 J0.
X-1.191 Z0.539 I-1.191 J0.
X1.191 Z0.515 I1.191 J0.
X-1.191 Z0.491 I-1.191 J0.
X1.191 Z0.467 I1.191 J0.
X-1.191 Z0.442 I-1.191 J0.
X1.191 Z0.418 I1.191 J0.
X-1.191 Z0.394 I-1.191 J0.
X1.191 Z0.37 I1.191 J0.
X-1.191 Z0.345 I-1.191 J0.
X1.191 Z0.321 I1.191 J0.
X-1.191 Z0.297 I-1.191 J0.
X1.191 Z0.273 I1.191 J0.
X-1.191 Z0.248 I-1.191 J0.
X1.191 Z0.224 I1.191 J0.
X-1.191 Z0.2 I-1.191 J0.
X1.191 Z0.176 I1.191 J0.
X-1.191 Z0.151 I-1.191 J0.
X1.191 Z0.127 I1.191 J0.
X-1.191 Z0.103 I-1.191 J0.
X1.191 Z0.079 I1.191 J0.
X-1.191 Z0.054 I-1.191 J0.
X1.191 Z0.03 I1.191 J0.
X-1.191 Z0.006 I-1.191 J0.
X1.191 Z-0.018 I1.191 J0.
X-1.191 Z-0.043 I-1.191 J0.
X1.191 Z-0.067 I1.191 J0.
X-1.191 Z-0.091 I-1.191 J0.
X1.191 Z-0.115 I1.191 J0.
X-1.191 Z-0.139 I-1.191 J0.
X1.191 Z-0.164 I1.191 J0.
X-1.191 Z-0.188 I-1.191 J0.
X1.191 Z-0.212 I1.191 J0.
X-1.191 Z-0.236 I-1.191 J0.
X1.191 Z-0.261 I1.191 J0.
X-1.191 Z-0.285 I-1.191 J0.
X1.191 Z-0.309 I1.191 J0.
X-1.191 Z-0.333 I-1.191 J0.
X1.191 Z-0.358 I1.191 J0.
X-1.191 Z-0.382 I-1.191 J0.
X1.191 Z-0.406 I1.191 J0.
X-1.191 Z-0.43 I-1.191 J0.
X1.191 Z-0.455 I1.191 J0.
X-1.191 Z-0.479 I-1.191 J0.
X1.191 Z-0.503 I1.191 J0.
X-1.191 Z-0.527 I-1.191 J0.
X1.191 Z-0.552 I1.191 J0.
X-1.191 Z-0.576 I-1.191 J0.
X1.191 Z-0.6 I1.191 J0.
X-1.191 Z-0.624 I-1.191 J0.
X1.191 Z-0.649 I1.191 J0.
X-1.191 Z-0.673 I-1.191 J0.
X1.191 Z-0.697 I1.191 J0.
X-1.191 Z-0.721 I-1.191 J0.
X1.191 Z-0.746 I1.191 J0.
X-1.191 Z-0.77 I-1.191 J0.
X1.191 Z-0.794 I1.191 J0.
X-1.191 Z-0.818 I-1.191 J0.
X1.191 Z-0.843 I1.191 J0.
X-1.191 Z-0.867 I-1.191 J0.
X1.191 Z-0.891 I1.191 J0.
X-1.191 Z-0.915 I-1.191 J0.
X1.191 Z-0.94 I1.191 J0.
X-1.191 Z-0.964 I-1.191 J0.
X1.191 Z-0.988 I1.191 J0.
X-1.191 Z-1.012 I-1.191 J0.
X1.191 Z-1.037 I1.191 J0.
X-1.191 Z-1.061 I-1.191 J0.
X1.191 Z-1.085 I1.191 J0.
X-1.191 Z-1.109 I-1.191 J0.
X1.191 Z-1.134 I1.191 J0.
X-1.191 Z-1.158 I-1.191 J0.
X1.191 Z-1.182 I1.191 J0.
X-1.191 Z-1.206 I-1.191 J0.
X1.191 Z-1.23 I1.191 J0.
X-1.191 Z-1.255 I-1.191 J0.
X1.191 Z-1.279 I1.191 J0.
X-1.191 Z-1.303 I-1.191 J0.
X1.191 Z-1.327 I1.191 J0.
X-1.191 Z-1.352 I-1.191 J0.
X1.191 Z-1.376 I1.191 J0.
X-1.191 Z-1.4 I-1.191 J0.
X1.191 Z-1.424 I1.191 J0.
X-1.191 Z-1.449 I-1.191 J0.
X1.191 Z-1.473 I1.191 J0.
X-1.191 Z-1.497 I-1.191 J0.
X1.191 Z-1.521 I1.191 J0.
X-1.191 Z-1.546 I-1.191 J0.
X1.191 Z-1.57 I1.191 J0.
X-1.191 Z-1.594 I-1.191 J0.
X1.191 Z-1.618 I1.191 J0.
X-1.191 Z-1.643 I-1.191 J0.
X1.191 Z-1.667 I1.191 J0.
X-1.191 Z-1.691 I-1.191 J0.
X1.191 Z-1.715 I1.191 J0.
X-1.191 Z-1.74 I-1.191 J0.
X1.191 Z-1.764 I1.191 J0.
X-1.191 Z-1.788 I-1.191 J0.
X1.191 Z-1.812 I1.191 J0.
X-1.191 Z-1.837 I-1.191 J0.
X1.191 Z-1.861 I1.191 J0.
X-1.191 Z-1.885 I-1.191 J0.
X1.191 Z-1.909 I1.191 J0.
X-1.191 Z-1.934 I-1.191 J0.
X1.191 Z-1.958 I1.191 J0.
X-1.191 Z-1.982 I-1.191 J0.
X1.191 Z-2.006 I1.191 J0.
X-1.191 Z-2.031 I-1.191 J0.
X1.191 Z-2.055 I1.191 J0.
X-1.191 Z-2.079 I-1.191 J0.
X1.191 Z-2.103 I1.191 J0.
X-1.191 Z-2.128 I-1.191 J0.
X1.191 Z-2.152 I1.191 J0.
X-1.191 Z-2.176 I-1.191 J0.
X1.191 Z-2.2 I1.191 J0.
X-1.191 Z-2.224 I-1.191 J0.
X1.191 Z-2.249 I1.191 J0.
X-1.191 Z-2.273 I-1.191 J0.
X1.191 Z-2.297 I1.191 J0.
X-1.191 Z-2.321 I-1.191 J0.
X1.191 Z-2.346 I1.191 J0.
X-1.191 Z-2.37 I-1.191 J0.
X1.191 Z-2.394 I1.191 J0.
X-1.191 Z-2.418 I-1.191 J0.
X1.191 Z-2.443 I1.191 J0.
X-1.191 Z-2.467 I-1.191 J0.
X1.191 Z-2.491 I1.191 J0.
X-1.191 Z-2.515 I-1.191 J0.
X1.191 Z-2.54 I1.191 J0.
X-1.191 Z-2.564 I-1.191 J0.
X1.191 Z-2.588 I1.191 J0.
X-1.191 Z-2.612 I-1.191 J0.
X1.191 Z-2.637 I1.191 J0.
X-1.191 Z-2.661 I-1.191 J0.
X1.191 Z-2.685 I1.191 J0.
X-1.191 Z-2.709 I-1.191 J0.
X1.191 Z-2.734 I1.191 J0.
X-1.191 Z-2.758 I-1.191 J0.
X1.191 Z-2.782 I1.191 J0.
X-1.191 Z-2.806 I-1.191 J0.
X1.191 Z-2.831 I1.191 J0.
X-1.191 Z-2.855 I-1.191 J0.
X1.191 Z-2.879 I1.191 J0.
X-1.191 Z-2.903 I-1.191 J0.
X1.191 Z-2.928 I1.191 J0.
X-1.191 Z-2.952 I-1.191 J0.
X1.191 Z-2.976 I1.191 J0.
X-1.191 Z-3. I-1.191 J0.
X1.191 Z-3.025 I1.191 J0.
X-1.191 Z-3.049 I-1.191 J0.
X1.191 Z-3.073 I1.191 J0.
X-1.191 Z-3.097 I-1.191 J0.
X1.191 Z-3.122 I1.191 J0.
X-1.191 Z-3.146 I-1.191 J0.
X1.191 Z-3.17 I1.191 J0.
X-1.191 Z-3.194 I-1.191 J0.
X1.191 Z-3.219 I1.191 J0.
X-1.191 Z-3.243 I-1.191 J0.
X1.191 Z-3.267 I1.191 J0.
X-1.191 Z-3.291 I-1.191 J0.
X1.191 Z-3.315 I1.191 J0.
X-1.191 Z-3.34 I-1.191 J0.
X1.191 Z-3.364 I1.191 J0.
X-1.191 Z-3.388 I-1.191 J0.
X1.191 Z-3.412 I1.191 J0.
X-1.191 Z-3.437 I-1.191 J0.
X1.191 Z-3.461 I1.191 J0.
X-1.191 Z-3.485 I-1.191 J0.
X1.191 Z-3.509 I1.191 J0.
X-1.191 Z-3.534 I-1.191 J0.
X1.191 Z-3.558 I1.191 J0.
X-1.191 Z-3.582 I-1.191 J0.
X1.191 Z-3.606 I1.191 J0.
X-1.191 Z-3.631 I-1.191 J0.
X1.191 Z-3.655 I1.191 J0.
X-1.191 Z-3.679 I-1.191 J0.
X1.191 Z-3.703 I1.191 J0.
X-1.191 Z-3.728 I-1.191 J0.
X1.191 Z-3.752 I1.191 J0.
X-1.191 Z-3.776 I-1.191 J0.
X1.191 Z-3.8 I1.191 J0.
X-1.191 Z-3.825 I-1.191 J0.
X1.191 Z-3.849 I1.191 J0.
X-1.191 Z-3.873 I-1.191 J0.
X1.191 Z-3.897 I1.191 J0.
X-1.191 Z-3.922 I-1.191 J0.
X1.191 Z-3.946 I1.191 J0.
X-1.191 Z-3.97 I-1.191 J0.
X1.191 Z-3.994 I1.191 J0.
X-1.191 Z-4.019 I-1.191 J0.
X1.191 Z-4.043 I1.191 J0.
X-1.191 Z-4.067 I-1.191 J0.
X1.191 Z-4.091 I1.191 J0.
X-1.191 Z-4.116 I-1.191 J0.
X1.191 Z-4.14 I1.191 J0.
X-1.191 Z-4.164 I-1.191 J0.
X1.191 Z-4.188 I1.191 J0.
X-1.191 Z-4.213 I-1.191 J0.
X1.191 Z-4.237 I1.191 J0.
X-1.191 Z-4.261 I-1.191 J0.
X1.191 Z-4.285 I1.191 J0.
X-1.191 Z-4.31 I-1.191 J0.
X1.191 Z-4.334 I1.191 J0.
X-1.191 Z-4.358 I-1.191 J0.
X1.191 Z-4.382 I1.191 J0.
X-1.191 Z-4.406 I-1.191 J0.
X1.191 Z-4.431 I1.191 J0.
X-1.191 Z-4.455 I-1.191 J0.
X1.191 Z-4.479 I1.191 J0.
X-1.191 Z-4.503 I-1.191 J0.
X1.191 Z-4.528 I1.191 J0.
X-1.191 Z-4.552 I-1.191 J0.
X1.191 Z-4.576 I1.191 J0.
X-1.191 Z-4.6 I-1.191 J0.
X1.191 Z-4.625 I1.191 J0.
X-1.191 Z-4.649 I-1.191 J0.
X0.141 Y78.97 Z-4.662 I1.191 J0.
X1.157 Y77.508 Z-4.675 I-0.141 J-1.182
X-1.157 Y78.067 I-1.157 J0.279
X1.157 Y77.508 I1.157 J-0.279
X0.774 Y77.274 I-0.309 J0.074
G1 X0.62 Y77.311
X0.551 Y77.328 Z-4.667
X0.486 Y77.344 Z-4.644
X0.428 Y77.358 Z-4.606
X0.379 Y77.37 Z-4.555
X0.342 Y77.378 Z-4.495
X0.319 Y77.384 Z-4.428
X0.311 Y77.386 Z-4.358
G0 Z6.
X-20.225 Y90.011
Z3.
G1 Z1.317 F800.
G18 G2 X-19.908 Z1. I0.318 K0.
G1 X-19.749
G17 G2 X-19.432 Y89.694 I0. J-0.318
X-21.813 Z0.976 I-1.191 J0.
X-19.432 Z0.952 I1.191 J0.
X-21.813 Z0.927 I-1.191 J0.
X-19.432 Z0.903 I1.191 J0.
X-21.813 Z0.879 I-1.191 J0.
X-19.432 Z0.855 I1.191 J0.
X-21.813 Z0.83 I-1.191 J0.
X-19.432 Z0.806 I1.191 J0.
X-21.813 Z0.782 I-1.191 J0.
X-19.432 Z0.758 I1.191 J0.
X-21.813 Z0.733 I-1.191 J0.
X-19.432 Z0.709 I1.191 J0.
X-21.813 Z0.685 I-1.191 J0.
X-19.432 Z0.661 I1.191 J0.
X-21.813 Z0.636 I-1.191 J0.
X-19.432 Z0.612 I1.191 J0.
X-21.813 Z0.588 I-1.191 J0.
X-19.432 Z0.564 I1.191 J0.
X-21.813 Z0.539 I-1.191 J0.
X-19.432 Z0.515 I1.191 J0.
X-21.813 Z0.491 I-1.191 J0.
X-19.432 Z0.467 I1.191 J0.
X-21.813 Z0.442 I-1.191 J0.
X-19.432 Z0.418 I1.191 J0.
X-21.813 Z0.394 I-1.191 J0.
X-19.432 Z0.37 I1.191 J0.
X-21.813 Z0.345 I-1.191 J0.
X-19.432 Z0.321 I1.191 J0.
X-21.813 Z0.297 I-1.191 J0.
X-19.432 Z0.273 I1.191 J0.
X-21.813 Z0.248 I-1.191 J0.
X-19.432 Z0.224 I1.191 J0.
X-21.813 Z0.2 I-1.191 J0.
X-19.432 Z0.176 I1.191 J0.
X-21.813 Z0.151 I-1.191 J0.
X-19.432 Z0.127 I1.191 J0.
X-21.813 Z0.103 I-1.191 J0.
X-19.432 Z0.079 I1.191 J0.
X-21.813 Z0.054 I-1.191 J0.
X-19.432 Z0.03 I1.191 J0.
X-21.813 Z0.006 I-1.191 J0.
X-19.432 Z-0.018 I1.191 J0.
X-21.813 Z-0.043 I-1.191 J0.
X-19.432 Z-0.067 I1.191 J0.
X-21.813 Z-0.091 I-1.191 J0.
X-19.432 Z-0.115 I1.191 J0.
X-21.813 Z-0.139 I-1.191 J0.
X-19.432 Z-0.164 I1.191 J0.
X-21.813 Z-0.188 I-1.191 J0.
X-19.432 Z-0.212 I1.191 J0.
X-21.813 Z-0.236 I-1.191 J0.
X-19.432 Z-0.261 I1.191 J0.
X-21.813 Z-0.285 I-1.191 J0.
X-19.432 Z-0.309 I1.191 J0.
X-21.813 Z-0.333 I-1.191 J0.
X-19.432 Z-0.358 I1.191 J0.
X-21.813 Z-0.382 I-1.191 J0.
X-19.432 Z-0.406 I1.191 J0.
X-21.813 Z-0.43 I-1.191 J0.
X-19.432 Z-0.455 I1.191 J0.
X-21.813 Z-0.479 I-1.191 J0.
X-19.432 Z-0.503 I1.191 J0.
X-21.813 Z-0.527 I-1.191 J0.
X-19.432 Z-0.552 I1.191 J0.
X-21.813 Z-0.576 I-1.191 J0.
X-19.432 Z-0.6 I1.191 J0.
X-21.813 Z-0.624 I-1.191 J0.
X-19.432 Z-0.649 I1.191 J0.
X-21.813 Z-0.673 I-1.191 J0.
X-19.432 Z-0.697 I1.191 J0.
X-21.813 Z-0.721 I-1.191 J0.
X-19.432 Z-0.746 I1.191 J0.
X-21.813 Z-0.77 I-1.191 J0.
X-19.432 Z-0.794 I1.191 J0.
X-21.813 Z-0.818 I-1.191 J0.
X-19.432 Z-0.843 I1.191 J0.
X-21.813 Z-0.867 I-1.191 J0.
X-19.432 Z-0.891 I1.191 J0.
X-21.813 Z-0.915 I-1.191 J0.
X-19.432 Z-0.94 I1.191 J0.
X-21.813 Z-0.964 I-1.191 J0.
X-19.432 Z-0.988 I1.191 J0.
X-21.813 Z-1.012 I-1.191 J0.
X-19.432 Z-1.037 I1.191 J0.
X-21.813 Z-1.061 I-1.191 J0.
X-19.432 Z-1.085 I1.191 J0.
X-21.813 Z-1.109 I-1.191 J0.
X-19.432 Z-1.134 I1.191 J0.
X-21.813 Z-1.158 I-1.191 J0.
X-19.432 Z-1.182 I1.191 J0.
X-21.813 Z-1.206 I-1.191 J0.
X-19.432 Z-1.23 I1.191 J0.
X-21.813 Z-1.255 I-1.191 J0.
X-19.432 Z-1.279 I1.191 J0.
X-21.813 Z-1.303 I-1.191 J0.
X-19.432 Z-1.327 I1.191 J0.
X-21.813 Z-1.352 I-1.191 J0.
X-19.432 Z-1.376 I1.191 J0.
X-21.813 Z-1.4 I-1.191 J0.
X-19.432 Z-1.424 I1.191 J0.
X-21.813 Z-1.449 I-1.191 J0.
X-19.432 Z-1.473 I1.191 J0.
X-21.813 Z-1.497 I-1.191 J0.
X-19.432 Z-1.521 I1.191 J0.
X-21.813 Z-1.546 I-1.191 J0.
X-19.432 Z-1.57 I1.191 J0.
X-21.813 Z-1.594 I-1.191 J0.
X-19.432 Z-1.618 I1.191 J0.
X-21.813 Z-1.643 I-1.191 J0.
X-19.432 Z-1.667 I1.191 J0.
X-21.813 Z-1.691 I-1.191 J0.
X-19.432 Z-1.715 I1.191 J0.
X-21.813 Z-1.74 I-1.191 J0.
X-19.432 Z-1.764 I1.191 J0.
X-21.813 Z-1.788 I-1.191 J0.
X-19.432 Z-1.812 I1.191 J0.
X-21.813 Z-1.837 I-1.191 J0.
X-19.432 Z-1.861 I1.191 J0.
X-21.813 Z-1.885 I-1.191 J0.
X-19.432 Z-1.909 I1.191 J0.
X-21.813 Z-1.934 I-1.191 J0.
X-19.432 Z-1.958 I1.191 J0.
X-21.813 Z-1.982 I-1.191 J0.
X-19.432 Z-2.006 I1.191 J0.
X-21.813 Z-2.031 I-1.191 J0.
X-19.432 Z-2.055 I1.191 J0.
X-21.813 Z-2.079 I-1.191 J0.
X-19.432 Z-2.103 I1.191 J0.
X-21.813 Z-2.128 I-1.191 J0.
X-19.432 Z-2.152 I1.191 J0.
X-21.813 Z-2.176 I-1.191 J0.
X-19.432 Z-2.2 I1.191 J0.
X-21.813 Z-2.224 I-1.191 J0.
X-19.432 Z-2.249 I1.191 J0.
X-21.813 Z-2.273 I-1.191 J0.
X-19.432 Z-2.297 I1.191 J0.
X-21.813 Z-2.321 I-1.191 J0.
X-19.432 Z-2.346 I1.191 J0.
X-21.813 Z-2.37 I-1.191 J0.
X-19.432 Z-2.394 I1.191 J0.
X-21.813 Z-2.418 I-1.191 J0.
X-19.432 Z-2.443 I1.191 J0.
X-21.813 Z-2.467 I-1.191 J0.
X-19.432 Z-2.491 I1.191 J0.
X-21.813 Z-2.515 I-1.191 J0.
X-19.432 Z-2.54 I1.191 J0.
X-21.813 Z-2.564 I-1.191 J0.
X-19.432 Z-2.588 I1.191 J0.
X-21.813 Z-2.612 I-1.191 J0.
X-19.432 Z-2.637 I1.191 J0.
X-21.813 Z-2.661 I-1.191 J0.
X-19.432 Z-2.685 I1.191 J0.
X-21.813 Z-2.709 I-1.191 J0.
X-19.432 Z-2.734 I1.191 J0.
X-21.813 Z-2.758 I-1.191 J0.
X-19.432 Z-2.782 I1.191 J0.
X-21.813 Z-2.806 I-1.191 J0.
X-19.432 Z-2.831 I1.191 J0.
X-21.813 Z-2.855 I-1.191 J0.
X-19.432 Z-2.879 I1.191 J0.
X-21.813 Z-2.903 I-1.191 J0.
X-19.432 Z-2.928 I1.191 J0.
X-21.813 Z-2.952 I-1.191 J0.
X-19.432 Z-2.976 I1.191 J0.
X-21.813 Z-3. I-1.191 J0.
X-19.432 Z-3.025 I1.191 J0.
X-21.813 Z-3.049 I-1.191 J0.
X-19.432 Z-3.073 I1.191 J0.
X-21.813 Z-3.097 I-1.191 J0.
X-19.432 Z-3.122 I1.191 J0.
X-21.813 Z-3.146 I-1.191 J0.
X-19.432 Z-3.17 I1.191 J0.
X-21.813 Z-3.194 I-1.191 J0.
X-19.432 Z-3.219 I1.191 J0.
X-21.813 Z-3.243 I-1.191 J0.
X-19.432 Z-3.267 I1.191 J0.
X-21.813 Z-3.291 I-1.191 J0.
X-19.432 Z-3.315 I1.191 J0.
X-21.813 Z-3.34 I-1.191 J0.
X-19.432 Z-3.364 I1.191 J0.
X-21.813 Z-3.388 I-1.191 J0.
X-19.432 Z-3.412 I1.191 J0.
X-21.813 Z-3.437 I-1.191 J0.
X-19.432 Z-3.461 I1.191 J0.
X-21.813 Z-3.485 I-1.191 J0.
X-19.432 Z-3.509 I1.191 J0.
X-21.813 Z-3.534 I-1.191 J0.
X-19.432 Z-3.558 I1.191 J0.
X-21.813 Z-3.582 I-1.191 J0.
X-19.432 Z-3.606 I1.191 J0.
X-21.813 Z-3.631 I-1.191 J0.
X-19.432 Z-3.655 I1.191 J0.
X-21.813 Z-3.679 I-1.191 J0.
X-19.432 Z-3.703 I1.191 J0.
X-21.813 Z-3.728 I-1.191 J0.
X-19.432 Z-3.752 I1.191 J0.
X-21.813 Z-3.776 I-1.191 J0.
X-19.432 Z-3.8 I1.191 J0.
X-21.813 Z-3.825 I-1.191 J0.
X-19.432 Z-3.849 I1.191 J0.
X-21.813 Z-3.873 I-1.191 J0.
X-19.432 Z-3.897 I1.191 J0.
X-21.813 Z-3.922 I-1.191 J0.
X-19.432 Z-3.946 I1.191 J0.
X-21.813 Z-3.97 I-1.191 J0.
X-19.432 Z-3.994 I1.191 J0.
X-21.813 Z-4.019 I-1.191 J0.
X-19.432 Z-4.043 I1.191 J0.
X-21.813 Z-4.067 I-1.191 J0.
X-19.432 Z-4.091 I1.191 J0.
X-21.813 Z-4.116 I-1.191 J0.
X-19.432 Z-4.14 I1.191 J0.
X-21.813 Z-4.164 I-1.191 J0.
X-19.432 Z-4.188 I1.191 J0.
X-21.813 Z-4.213 I-1.191 J0.
X-19.432 Z-4.237 I1.191 J0.
X-21.813 Z-4.261 I-1.191 J0.
X-19.432 Z-4.285 I1.191 J0.
X-21.813 Z-4.31 I-1.191 J0.
X-19.432 Z-4.334 I1.191 J0.
X-21.813 Z-4.358 I-1.191 J0.
X-19.432 Z-4.382 I1.191 J0.
X-21.813 Z-4.406 I-1.191 J0.
X-19.432 Z-4.431 I1.191 J0.
X-21.813 Z-4.455 I-1.191 J0.
X-19.432 Z-4.479 I1.191 J0.
X-21.813 Z-4.503 I-1.191 J0.
X-19.432 Z-4.528 I1.191 J0.
X-21.813 Z-4.552 I-1.191 J0.
X-19.432 Z-4.576 I1.191 J0.
X-21.813 Z-4.6 I-1.191 J0.
X-19.432 Z-4.625 I1.191 J0.
X-21.813 Z-4.649 I-1.191 J0.
X-20.482 Y90.876 Z-4.662 I1.191 J0.
X-19.465 Y89.415 Z-4.675 I-0.141 J-1.182
X-21.78 Y89.973 I-1.157 J0.279
X-19.465 Y89.415 I1.157 J-0.279
X-19.848 Y89.18 I-0.309 J0.074
G1 X-20.002 Y89.218
X-20.071 Y89.234 Z-4.667
X-20.136 Y89.25 Z-4.644
X-20.195 Y89.264 Z-4.606
X-20.244 Y89.276 Z-4.555
X-20.28 Y89.285 Z-4.495
X-20.303 Y89.29 Z-4.428
X-20.311 Y89.292 Z-4.358
G0 Z6.
X-20.225 Y113.824
Z3.
G1 Z1.317 F800.
G18 G2 X-19.908 Z1. I0.318 K0.
G1 X-19.749
G17 G2 X-19.432 Y113.506 I0. J-0.318
X-21.813 Z0.976 I-1.191 J0.
X-19.432 Z0.952 I1.191 J0.
X-21.813 Z0.927 I-1.191 J0.
X-19.432 Z0.903 I1.191 J0.
X-21.813 Z0.879 I-1.191 J0.
X-19.432 Z0.855 I1.191 J0.
X-21.813 Z0.83 I-1.191 J0.
X-19.432 Z0.806 I1.191 J0.
X-21.813 Z0.782 I-1.191 J0.
X-19.432 Z0.758 I1.191 J0.
X-21.813 Z0.733 I-1.191 J0.
X-19.432 Z0.709 I1.191 J0.
X-21.813 Z0.685 I-1.191 J0.
X-19.432 Z0.661 I1.191 J0.
X-21.813 Z0.636 I-1.191 J0.
X-19.432 Z0.612 I1.191 J0.
X-21.813 Z0.588 I-1.191 J0.
X-19.432 Z0.564 I1.191 J0.
X-21.813 Z0.539 I-1.191 J0.
X-19.432 Z0.515 I1.191 J0.
X-21.813 Z0.491 I-1.191 J0.
X-19.432 Z0.467 I1.191 J0.
X-21.813 Z0.442 I-1.191 J0.
X-19.432 Z0.418 I1.191 J0.
X-21.813 Z0.394 I-1.191 J0.
X-19.432 Z0.37 I1.191 J0.
X-21.813 Z0.345 I-1.191 J0.
X-19.432 Z0.321 I1.191 J0.
X-21.813 Z0.297 I-1.191 J0.
X-19.432 Z0.273 I1.191 J0.
X-21.813 Z0.248 I-1.191 J0.
X-19.432 Z0.224 I1.191 J0.
X-21.813 Z0.2 I-1.191 J0.
X-19.432 Z0.176 I1.191 J0.
X-21.813 Z0.151 I-1.191 J0.
X-19.432 Z0.127 I1.191 J0.
X-21.813 Z0.103 I-1.191 J0.
X-19.432 Z0.079 I1.191 J0.
X-21.813 Z0.054 I-1.191 J0.
X-19.432 Z0.03 I1.191 J0.
X-21.813 Z0.006 I-1.191 J0.
X-19.432 Z-0.018 I1.191 J0.
X-21.813 Z-0.043 I-1.191 J0.
X-19.432 Z-0.067 I1.191 J0.
X-21.813 Z-0.091 I-1.191 J0.
X-19.432 Z-0.115 I1.191 J0.
X-21.813 Z-0.139 I-1.191 J0.
X-19.432 Z-0.164 I1.191 J0.
X-21.813 Z-0.188 I-1.191 J0.
X-19.432 Z-0.212 I1.191 J0.
X-21.813 Z-0.236 I-1.191 J0.
X-19.432 Z-0.261 I1.191 J0.
X-21.813 Z-0.285 I-1.191 J0.
X-19.432 Z-0.309 I1.191 J0.
X-21.813 Z-0.333 I-1.191 J0.
X-19.432 Z-0.358 I1.191 J0.
X-21.813 Z-0.382 I-1.191 J0.
X-19.432 Z-0.406 I1.191 J0.
X-21.813 Z-0.43 I-1.191 J0.
X-19.432 Z-0.455 I1.191 J0.
X-21.813 Z-0.479 I-1.191 J0.
X-19.432 Z-0.503 I1.191 J0.
X-21.813 Z-0.527 I-1.191 J0.
X-19.432 Z-0.552 I1.191 J0.
X-21.813 Z-0.576 I-1.191 J0.
X-19.432 Z-0.6 I1.191 J0.
X-21.813 Z-0.624 I-1.191 J0.
X-19.432 Z-0.649 I1.191 J0.
X-21.813 Z-0.673 I-1.191 J0.
X-19.432 Z-0.697 I1.191 J0.
X-21.813 Z-0.721 I-1.191 J0.
X-19.432 Z-0.746 I1.191 J0.
X-21.813 Z-0.77 I-1.191 J0.
X-19.432 Z-0.794 I1.191 J0.
X-21.813 Z-0.818 I-1.191 J0.
X-19.432 Z-0.843 I1.191 J0.
X-21.813 Z-0.867 I-1.191 J0.
X-19.432 Z-0.891 I1.191 J0.
X-21.813 Z-0.915 I-1.191 J0.
X-19.432 Z-0.94 I1.191 J0.
X-21.813 Z-0.964 I-1.191 J0.
X-19.432 Z-0.988 I1.191 J0.
X-21.813 Z-1.012 I-1.191 J0.
X-19.432 Z-1.037 I1.191 J0.
X-21.813 Z-1.061 I-1.191 J0.
X-19.432 Z-1.085 I1.191 J0.
X-21.813 Z-1.109 I-1.191 J0.
X-19.432 Z-1.134 I1.191 J0.
X-21.813 Z-1.158 I-1.191 J0.
X-19.432 Z-1.182 I1.191 J0.
X-21.813 Z-1.206 I-1.191 J0.
X-19.432 Z-1.23 I1.191 J0.
X-21.813 Z-1.255 I-1.191 J0.
X-19.432 Z-1.279 I1.191 J0.
X-21.813 Z-1.303 I-1.191 J0.
X-19.432 Z-1.327 I1.191 J0.
X-21.813 Z-1.352 I-1.191 J0.
X-19.432 Z-1.376 I1.191 J0.
X-21.813 Z-1.4 I-1.191 J0.
X-19.432 Z-1.424 I1.191 J0.
X-21.813 Z-1.449 I-1.191 J0.
X-19.432 Z-1.473 I1.191 J0.
X-21.813 Z-1.497 I-1.191 J0.
X-19.432 Z-1.521 I1.191 J0.
X-21.813 Z-1.546 I-1.191 J0.
X-19.432 Z-1.57 I1.191 J0.
X-21.813 Z-1.594 I-1.191 J0.
X-19.432 Z-1.618 I1.191 J0.
X-21.813 Z-1.643 I-1.191 J0.
X-19.432 Z-1.667 I1.191 J0.
X-21.813 Z-1.691 I-1.191 J0.
X-19.432 Z-1.715 I1.191 J0.
X-21.813 Z-1.74 I-1.191 J0.
X-19.432 Z-1.764 I1.191 J0.
X-21.813 Z-1.788 I-1.191 J0.
X-19.432 Z-1.812 I1.191 J0.
X-21.813 Z-1.837 I-1.191 J0.
X-19.432 Z-1.861 I1.191 J0.
X-21.813 Z-1.885 I-1.191 J0.
X-19.432 Z-1.909 I1.191 J0.
X-21.813 Z-1.934 I-1.191 J0.
X-19.432 Z-1.958 I1.191 J0.
X-21.813 Z-1.982 I-1.191 J0.
X-19.432 Z-2.006 I1.191 J0.
X-21.813 Z-2.031 I-1.191 J0.
X-19.432 Z-2.055 I1.191 J0.
X-21.813 Z-2.079 I-1.191 J0.
X-19.432 Z-2.103 I1.191 J0.
X-21.813 Z-2.128 I-1.191 J0.
X-19.432 Z-2.152 I1.191 J0.
X-21.813 Z-2.176 I-1.191 J0.
X-19.432 Z-2.2 I1.191 J0.
X-21.813 Z-2.224 I-1.191 J0.
X-19.432 Z-2.249 I1.191 J0.
X-21.813 Z-2.273 I-1.191 J0.
X-19.432 Z-2.297 I1.191 J0.
X-21.813 Z-2.321 I-1.191 J0.
X-19.432 Z-2.346 I1.191 J0.
X-21.813 Z-2.37 I-1.191 J0.
X-19.432 Z-2.394 I1.191 J0.
X-21.813 Z-2.418 I-1.191 J0.
X-19.432 Z-2.443 I1.191 J0.
X-21.813 Z-2.467 I-1.191 J0.
X-19.432 Z-2.491 I1.191 J0.
X-21.813 Z-2.515 I-1.191 J0.
X-19.432 Z-2.54 I1.191 J0.
X-21.813 Z-2.564 I-1.191 J0.
X-19.432 Z-2.588 I1.191 J0.
X-21.813 Z-2.612 I-1.191 J0.
X-19.432 Z-2.637 I1.191 J0.
X-21.813 Z-2.661 I-1.191 J0.
X-19.432 Z-2.685 I1.191 J0.
X-21.813 Z-2.709 I-1.191 J0.
X-19.432 Z-2.734 I1.191 J0.
X-21.813 Z-2.758 I-1.191 J0.
X-19.432 Z-2.782 I1.191 J0.
X-21.813 Z-2.806 I-1.191 J0.
X-19.432 Z-2.831 I1.191 J0.
X-21.813 Z-2.855 I-1.191 J0.
X-19.432 Z-2.879 I1.191 J0.
X-21.813 Z-2.903 I-1.191 J0.
X-19.432 Z-2.928 I1.191 J0.
X-21.813 Z-2.952 I-1.191 J0.
X-19.432 Z-2.976 I1.191 J0.
X-21.813 Z-3. I-1.191 J0.
X-19.432 Z-3.025 I1.191 J0.
X-21.813 Z-3.049 I-1.191 J0.
X-19.432 Z-3.073 I1.191 J0.
X-21.813 Z-3.097 I-1.191 J0.
X-19.432 Z-3.122 I1.191 J0.
X-21.813 Z-3.146 I-1.191 J0.
X-19.432 Z-3.17 I1.191 J0.
X-21.813 Z-3.194 I-1.191 J0.
X-19.432 Z-3.219 I1.191 J0.
X-21.813 Z-3.243 I-1.191 J0.
X-19.432 Z-3.267 I1.191 J0.
X-21.813 Z-3.291 I-1.191 J0.
X-19.432 Z-3.315 I1.191 J0.
X-21.813 Z-3.34 I-1.191 J0.
X-19.432 Z-3.364 I1.191 J0.
X-21.813 Z-3.388 I-1.191 J0.
X-19.432 Z-3.412 I1.191 J0.
X-21.813 Z-3.437 I-1.191 J0.
X-19.432 Z-3.461 I1.191 J0.
X-21.813 Z-3.485 I-1.191 J0.
X-19.432 Z-3.509 I1.191 J0.
X-21.813 Z-3.534 I-1.191 J0.
X-19.432 Z-3.558 I1.191 J0.
X-21.813 Z-3.582 I-1.191 J0.
X-19.432 Z-3.606 I1.191 J0.
X-21.813 Z-3.631 I-1.191 J0.
X-19.432 Z-3.655 I1.191 J0.
X-21.813 Z-3.679 I-1.191 J0.
X-19.432 Z-3.703 I1.191 J0.
X-21.813 Z-3.728 I-1.191 J0.
X-19.432 Z-3.752 I1.191 J0.
X-21.813 Z-3.776 I-1.191 J0.
X-19.432 Z-3.8 I1.191 J0.
X-21.813 Z-3.825 I-1.191 J0.
X-19.432 Z-3.849 I1.191 J0.
X-21.813 Z-3.873 I-1.191 J0.
X-19.432 Z-3.897 I1.191 J0.
X-21.813 Z-3.922 I-1.191 J0.
X-19.432 Z-3.946 I1.191 J0.
X-21.813 Z-3.97 I-1.191 J0.
X-19.432 Z-3.994 I1.191 J0.
X-21.813 Z-4.019 I-1.191 J0.
X-19.432 Z-4.043 I1.191 J0.
X-21.813 Z-4.067 I-1.191 J0.
X-19.432 Z-4.091 I1.191 J0.
X-21.813 Z-4.116 I-1.191 J0.
X-19.432 Z-4.14 I1.191 J0.
X-21.813 Z-4.164 I-1.191 J0.
X-19.432 Z-4.188 I1.191 J0.
X-21.813 Z-4.213 I-1.191 J0.
X-19.432 Z-4.237 I1.191 J0.
X-21.813 Z-4.261 I-1.191 J0.
X-19.432 Z-4.285 I1.191 J0.
X-21.813 Z-4.31 I-1.191 J0.
X-19.432 Z-4.334 I1.191 J0.
X-21.813 Z-4.358 I-1.191 J0.
X-19.432 Z-4.382 I1.191 J0.
X-21.813 Z-4.406 I-1.191 J0.
X-19.432 Z-4.431 I1.191 J0.
X-21.813 Z-4.455 I-1.191 J0.
X-19.432 Z-4.479 I1.191 J0.
X-21.813 Z-4.503 I-1.191 J0.
X-19.432 Z-4.528 I1.191 J0.
X-21.813 Z-4.552 I-1.191 J0.
X-19.432 Z-4.576 I1.191 J0.
X-21.813 Z-4.6 I-1.191 J0.
X-19.432 Z-4.625 I1.191 J0.
X-21.813 Z-4.649 I-1.191 J0.
X-20.482 Y114.689 Z-4.662 I1.191 J0.
X-19.465 Y113.227 Z-4.675 I-0.141 J-1.182
X-21.78 Y113.785 I-1.157 J0.279
X-19.465 Y113.227 I1.157 J-0.279
X-19.848 Y112.993 I-0.309 J0.074
G1 X-20.002 Y113.03
X-20.071 Y113.047 Z-4.667
X-20.136 Y113.062 Z-4.644
X-20.195 Y113.076 Z-4.606
X-20.244 Y113.088 Z-4.555
X-20.28 Y113.097 Z-4.495
X-20.303 Y113.103 Z-4.428
X-20.311 Y113.105 Z-4.358
G0 Z6.
X0.397 Y125.73
Z3.
G1 Z1.317 F800.
G18 G2 X0.714 Z1. I0.318 K0.
G1 X0.873
G17 G2 X1.191 Y125.412 I0. J-0.318
X-1.191 Z0.976 I-1.191 J0.
X1.191 Z0.952 I1.191 J0.
X-1.191 Z0.927 I-1.191 J0.
X1.191 Z0.903 I1.191 J0.
X-1.191 Z0.879 I-1.191 J0.
X1.191 Z0.855 I1.191 J0.
X-1.191 Z0.83 I-1.191 J0.
X1.191 Z0.806 I1.191 J0.
X-1.191 Z0.782 I-1.191 J0.
X1.191 Z0.758 I1.191 J0.
X-1.191 Z0.733 I-1.191 J0.
X1.191 Z0.709 I1.191 J0.
X-1.191 Z0.685 I-1.191 J0.
X1.191 Z0.661 I1.191 J0.
X-1.191 Z0.636 I-1.191 J0.
X1.191 Z0.612 I1.191 J0.
X-1.191 Z0.588 I-1.191 J0.
X1.191 Z0.564 I1.191 J0.
X-1.191 Z0.539 I-1.191 J0.
X1.191 Z0.515 I1.191 J0.
X-1.191 Z0.491 I-1.191 J0.
X1.191 Z0.467 I1.191 J0.
X-1.191 Z0.442 I-1.191 J0.
X1.191 Z0.418 I1.191 J0.
X-1.191 Z0.394 I-1.191 J0.
X1.191 Z0.37 I1.191 J0.
X-1.191 Z0.345 I-1.191 J0.
X1.191 Z0.321 I1.191 J0.
X-1.191 Z0.297 I-1.191 J0.
X1.191 Z0.273 I1.191 J0.
X-1.191 Z0.248 I-1.191 J0.
X1.191 Z0.224 I1.191 J0.
X-1.191 Z0.2 I-1.191 J0.
X1.191 Z0.176 I1.191 J0.
X-1.191 Z0.151 I-1.191 J0.
X1.191 Z0.127 I1.191 J0.
X-1.191 Z0.103 I-1.191 J0.
X1.191 Z0.079 I1.191 J0.
X-1.191 Z0.054 I-1.191 J0.
X1.191 Z0.03 I1.191 J0.
X-1.191 Z0.006 I-1.191 J0.
X1.191 Z-0.018 I1.191 J0.
X-1.191 Z-0.043 I-1.191 J0.
X1.191 Z-0.067 I1.191 J0.
X-1.191 Z-0.091 I-1.191 J0.
X1.191 Z-0.115 I1.191 J0.
X-1.191 Z-0.139 I-1.191 J0.
X1.191 Z-0.164 I1.191 J0.
X-1.191 Z-0.188 I-1.191 J0.
X1.191 Z-0.212 I1.191 J0.
X-1.191 Z-0.236 I-1.191 J0.
X1.191 Z-0.261 I1.191 J0.
X-1.191 Z-0.285 I-1.191 J0.
X1.191 Z-0.309 I1.191 J0.
X-1.191 Z-0.333 I-1.191 J0.
X1.191 Z-0.358 I1.191 J0.
X-1.191 Z-0.382 I-1.191 J0.
X1.191 Z-0.406 I1.191 J0.
X-1.191 Z-0.43 I-1.191 J0.
X1.191 Z-0.455 I1.191 J0.
X-1.191 Z-0.479 I-1.191 J0.
X1.191 Z-0.503 I1.191 J0.
X-1.191 Z-0.527 I-1.191 J0.
X1.191 Z-0.552 I1.191 J0.
X-1.191 Z-0.576 I-1.191 J0.
X1.191 Z-0.6 I1.191 J0.
X-1.191 Z-0.624 I-1.191 J0.
X1.191 Z-0.649 I1.191 J0.
X-1.191 Z-0.673 I-1.191 J0.
X1.191 Z-0.697 I1.191 J0.
X-1.191 Z-0.721 I-1.191 J0.
X1.191 Z-0.746 I1.191 J0.
X-1.191 Z-0.77 I-1.191 J0.
X1.191 Z-0.794 I1.191 J0.
X-1.191 Z-0.818 I-1.191 J0.
X1.191 Z-0.843 I1.191 J0.
X-1.191 Z-0.867 I-1.191 J0.
X1.191 Z-0.891 I1.191 J0.
X-1.191 Z-0.915 I-1.191 J0.
X1.191 Z-0.94 I1.191 J0.
X-1.191 Z-0.964 I-1.191 J0.
X1.191 Z-0.988 I1.191 J0.
X-1.191 Z-1.012 I-1.191 J0.
X1.191 Z-1.037 I1.191 J0.
X-1.191 Z-1.061 I-1.191 J0.
X1.191 Z-1.085 I1.191 J0.
X-1.191 Z-1.109 I-1.191 J0.
X1.191 Z-1.134 I1.191 J0.
X-1.191 Z-1.158 I-1.191 J0.
X1.191 Z-1.182 I1.191 J0.
X-1.191 Z-1.206 I-1.191 J0.
X1.191 Z-1.23 I1.191 J0.
X-1.191 Z-1.255 I-1.191 J0.
X1.191 Z-1.279 I1.191 J0.
X-1.191 Z-1.303 I-1.191 J0.
X1.191 Z-1.327 I1.191 J0.
X-1.191 Z-1.352 I-1.191 J0.
X1.191 Z-1.376 I1.191 J0.
X-1.191 Z-1.4 I-1.191 J0.
X1.191 Z-1.424 I1.191 J0.
X-1.191 Z-1.449 I-1.191 J0.
X1.191 Z-1.473 I1.191 J0.
X-1.191 Z-1.497 I-1.191 J0.
X1.191 Z-1.521 I1.191 J0.
X-1.191 Z-1.546 I-1.191 J0.
X1.191 Z-1.57 I1.191 J0.
X-1.191 Z-1.594 I-1.191 J0.
X1.191 Z-1.618 I1.191 J0.
X-1.191 Z-1.643 I-1.191 J0.
X1.191 Z-1.667 I1.191 J0.
X-1.191 Z-1.691 I-1.191 J0.
X1.191 Z-1.715 I1.191 J0.
X-1.191 Z-1.74 I-1.191 J0.
X1.191 Z-1.764 I1.191 J0.
X-1.191 Z-1.788 I-1.191 J0.
X1.191 Z-1.812 I1.191 J0.
X-1.191 Z-1.837 I-1.191 J0.
X1.191 Z-1.861 I1.191 J0.
X-1.191 Z-1.885 I-1.191 J0.
X1.191 Z-1.909 I1.191 J0.
X-1.191 Z-1.934 I-1.191 J0.
X1.191 Z-1.958 I1.191 J0.
X-1.191 Z-1.982 I-1.191 J0.
X1.191 Z-2.006 I1.191 J0.
X-1.191 Z-2.031 I-1.191 J0.
X1.191 Z-2.055 I1.191 J0.
X-1.191 Z-2.079 I-1.191 J0.
X1.191 Z-2.103 I1.191 J0.
X-1.191 Z-2.128 I-1.191 J0.
X1.191 Z-2.152 I1.191 J0.
X-1.191 Z-2.176 I-1.191 J0.
X1.191 Z-2.2 I1.191 J0.
X-1.191 Z-2.224 I-1.191 J0.
X1.191 Z-2.249 I1.191 J0.
X-1.191 Z-2.273 I-1.191 J0.
X1.191 Z-2.297 I1.191 J0.
X-1.191 Z-2.321 I-1.191 J0.
X1.191 Z-2.346 I1.191 J0.
X-1.191 Z-2.37 I-1.191 J0.
X1.191 Z-2.394 I1.191 J0.
X-1.191 Z-2.418 I-1.191 J0.
X1.191 Z-2.443 I1.191 J0.
X-1.191 Z-2.467 I-1.191 J0.
X1.191 Z-2.491 I1.191 J0.
X-1.191 Z-2.515 I-1.191 J0.
X1.191 Z-2.54 I1.191 J0.
X-1.191 Z-2.564 I-1.191 J0.
X1.191 Z-2.588 I1.191 J0.
X-1.191 Z-2.612 I-1.191 J0.
X1.191 Z-2.637 I1.191 J0.
X-1.191 Z-2.661 I-1.191 J0.
X1.191 Z-2.685 I1.191 J0.
X-1.191 Z-2.709 I-1.191 J0.
X1.191 Z-2.734 I1.191 J0.
X-1.191 Z-2.758 I-1.191 J0.
X1.191 Z-2.782 I1.191 J0.
X-1.191 Z-2.806 I-1.191 J0.
X1.191 Z-2.831 I1.191 J0.
X-1.191 Z-2.855 I-1.191 J0.
X1.191 Z-2.879 I1.191 J0.
X-1.191 Z-2.903 I-1.191 J0.
X1.191 Z-2.928 I1.191 J0.
X-1.191 Z-2.952 I-1.191 J0.
X1.191 Z-2.976 I1.191 J0.
X-1.191 Z-3. I-1.191 J0.
X1.191 Z-3.025 I1.191 J0.
X-1.191 Z-3.049 I-1.191 J0.
X1.191 Z-3.073 I1.191 J0.
X-1.191 Z-3.097 I-1.191 J0.
X1.191 Z-3.122 I1.191 J0.
X-1.191 Z-3.146 I-1.191 J0.
X1.191 Z-3.17 I1.191 J0.
X-1.191 Z-3.194 I-1.191 J0.
X1.191 Z-3.219 I1.191 J0.
X-1.191 Z-3.243 I-1.191 J0.
X1.191 Z-3.267 I1.191 J0.
X-1.191 Z-3.291 I-1.191 J0.
X1.191 Z-3.315 I1.191 J0.
X-1.191 Z-3.34 I-1.191 J0.
X1.191 Z-3.364 I1.191 J0.
X-1.191 Z-3.388 I-1.191 J0.
X1.191 Z-3.412 I1.191 J0.
X-1.191 Z-3.437 I-1.191 J0.
X1.191 Z-3.461 I1.191 J0.
X-1.191 Z-3.485 I-1.191 J0.
X1.191 Z-3.509 I1.191 J0.
X-1.191 Z-3.534 I-1.191 J0.
X1.191 Z-3.558 I1.191 J0.
X-1.191 Z-3.582 I-1.191 J0.
X1.191 Z-3.606 I1.191 J0.
X-1.191 Z-3.631 I-1.191 J0.
X1.191 Z-3.655 I1.191 J0.
X-1.191 Z-3.679 I-1.191 J0.
X1.191 Z-3.703 I1.191 J0.
X-1.191 Z-3.728 I-1.191 J0.
X1.191 Z-3.752 I1.191 J0.
X-1.191 Z-3.776 I-1.191 J0.
X1.191 Z-3.8 I1.191 J0.
X-1.191 Z-3.825 I-1.191 J0.
X1.191 Z-3.849 I1.191 J0.
X-1.191 Z-3.873 I-1.191 J0.
X1.191 Z-3.897 I1.191 J0.
X-1.191 Z-3.922 I-1.191 J0.
X1.191 Z-3.946 I1.191 J0.
X-1.191 Z-3.97 I-1.191 J0.
X1.191 Z-3.994 I1.191 J0.
X-1.191 Z-4.019 I-1.191 J0.
X1.191 Z-4.043 I1.191 J0.
X-1.191 Z-4.067 I-1.191 J0.
X1.191 Z-4.091 I1.191 J0.
X-1.191 Z-4.116 I-1.191 J0.
X1.191 Z-4.14 I1.191 J0.
X-1.191 Z-4.164 I-1.191 J0.
X1.191 Z-4.188 I1.191 J0.
X-1.191 Z-4.213 I-1.191 J0.
X1.191 Z-4.237 I1.191 J0.
X-1.191 Z-4.261 I-1.191 J0.
X1.191 Z-4.285 I1.191 J0.
X-1.191 Z-4.31 I-1.191 J0.
X1.191 Z-4.334 I1.191 J0.
X-1.191 Z-4.358 I-1.191 J0.
X1.191 Z-4.382 I1.191 J0.
X-1.191 Z-4.406 I-1.191 J0.
X1.191 Z-4.431 I1.191 J0.
X-1.191 Z-4.455 I-1.191 J0.
X1.191 Z-4.479 I1.191 J0.
X-1.191 Z-4.503 I-1.191 J0.
X1.191 Z-4.528 I1.191 J0.
X-1.191 Z-4.552 I-1.191 J0.
X1.191 Z-4.576 I1.191 J0.
X-1.191 Z-4.6 I-1.191 J0.
X1.191 Z-4.625 I1.191 J0.
X-1.191 Z-4.649 I-1.191 J0.
X0.141 Y126.595 Z-4.662 I1.191 J0.
X1.157 Y125.133 Z-4.675 I-0.141 J-1.182
X-1.157 Y125.692 I-1.157 J0.279
X1.157 Y125.133 I1.157 J-0.279
X0.774 Y124.899 I-0.309 J0.074
G1 X0.62 Y124.936
X0.551 Y124.953 Z-4.667
X0.486 Y124.969 Z-4.644
X0.428 Y124.983 Z-4.606
X0.379 Y124.995 Z-4.555
X0.342 Y125.003 Z-4.495
X0.319 Y125.009 Z-4.428
X0.311 Y125.011 Z-4.358
G0 Z6.
X21.019 Y113.824
Z3.
G1 Z1.317 F800.
G18 G2 X21.337 Z1. I0.318 K0.
G1 X21.495
G17 G2 X21.813 Y113.506 I0. J-0.318
X19.432 Z0.976 I-1.191 J0.
X21.813 Z0.952 I1.191 J0.
X19.432 Z0.927 I-1.191 J0.
X21.813 Z0.903 I1.191 J0.
X19.432 Z0.879 I-1.191 J0.
X21.813 Z0.855 I1.191 J0.
X19.432 Z0.83 I-1.191 J0.
X21.813 Z0.806 I1.191 J0.
X19.432 Z0.782 I-1.191 J0.
X21.813 Z0.758 I1.191 J0.
X19.432 Z0.733 I-1.191 J0.
X21.813 Z0.709 I1.191 J0.
X19.432 Z0.685 I-1.191 J0.
X21.813 Z0.661 I1.191 J0.
X19.432 Z0.636 I-1.191 J0.
X21.813 Z0.612 I1.191 J0.
X19.432 Z0.588 I-1.191 J0.
X21.813 Z0.564 I1.191 J0.
X19.432 Z0.539 I-1.191 J0.
X21.813 Z0.515 I1.191 J0.
X19.432 Z0.491 I-1.191 J0.
X21.813 Z0.467 I1.191 J0.
X19.432 Z0.442 I-1.191 J0.
X21.813 Z0.418 I1.191 J0.
X19.432 Z0.394 I-1.191 J0.
X21.813 Z0.37 I1.191 J0.
X19.432 Z0.345 I-1.191 J0.
X21.813 Z0.321 I1.191 J0.
X19.432 Z0.297 I-1.191 J0.
X21.813 Z0.273 I1.191 J0.
X19.432 Z0.248 I-1.191 J0.
X21.813 Z0.224 I1.191 J0.
X19.432 Z0.2 I-1.191 J0.
X21.813 Z0.176 I1.191 J0.
X19.432 Z0.151 I-1.191 J0.
X21.813 Z0.127 I1.191 J0.
X19.432 Z0.103 I-1.191 J0.
X21.813 Z0.079 I1.191 J0.
X19.432 Z0.054 I-1.191 J0.
X21.813 Z0.03 I1.191 J0.
X19.432 Z0.006 I-1.191 J0.
X21.813 Z-0.018 I1.191 J0.
X19.432 Z-0.043 I-1.191 J0.
X21.813 Z-0.067 I1.191 J0.
X19.432 Z-0.091 I-1.191 J0.
X21.813 Z-0.115 I1.191 J0.
X19.432 Z-0.139 I-1.191 J0.
X21.813 Z-0.164 I1.191 J0.
X19.432 Z-0.188 I-1.191 J0.
X21.813 Z-0.212 I1.191 J0.
X19.432 Z-0.236 I-1.191 J0.
X21.813 Z-0.261 I1.191 J0.
X19.432 Z-0.285 I-1.191 J0.
X21.813 Z-0.309 I1.191 J0.
X19.432 Z-0.333 I-1.191 J0.
X21.813 Z-0.358 I1.191 J0.
X19.432 Z-0.382 I-1.191 J0.
X21.813 Z-0.406 I1.191 J0.
X19.432 Z-0.43 I-1.191 J0.
X21.813 Z-0.455 I1.191 J0.
X19.432 Z-0.479 I-1.191 J0.
X21.813 Z-0.503 I1.191 J0.
X19.432 Z-0.527 I-1.191 J0.
X21.813 Z-0.552 I1.191 J0.
X19.432 Z-0.576 I-1.191 J0.
X21.813 Z-0.6 I1.191 J0.
X19.432 Z-0.624 I-1.191 J0.
X21.813 Z-0.649 I1.191 J0.
X19.432 Z-0.673 I-1.191 J0.
X21.813 Z-0.697 I1.191 J0.
X19.432 Z-0.721 I-1.191 J0.
X21.813 Z-0.746 I1.191 J0.
X19.432 Z-0.77 I-1.191 J0.
X21.813 Z-0.794 I1.191 J0.
X19.432 Z-0.818 I-1.191 J0.
X21.813 Z-0.843 I1.191 J0.
X19.432 Z-0.867 I-1.191 J0.
X21.813 Z-0.891 I1.191 J0.
X19.432 Z-0.915 I-1.191 J0.
X21.813 Z-0.94 I1.191 J0.
X19.432 Z-0.964 I-1.191 J0.
X21.813 Z-0.988 I1.191 J0.
X19.432 Z-1.012 I-1.191 J0.
X21.813 Z-1.037 I1.191 J0.
X19.432 Z-1.061 I-1.191 J0.
X21.813 Z-1.085 I1.191 J0.
X19.432 Z-1.109 I-1.191 J0.
X21.813 Z-1.134 I1.191 J0.
X19.432 Z-1.158 I-1.191 J0.
X21.813 Z-1.182 I1.191 J0.
X19.432 Z-1.206 I-1.191 J0.
X21.813 Z-1.23 I1.191 J0.
X19.432 Z-1.255 I-1.191 J0.
X21.813 Z-1.279 I1.191 J0.
X19.432 Z-1.303 I-1.191 J0.
X21.813 Z-1.327 I1.191 J0.
X19.432 Z-1.352 I-1.191 J0.
X21.813 Z-1.376 I1.191 J0.
X19.432 Z-1.4 I-1.191 J0.
X21.813 Z-1.424 I1.191 J0.
X19.432 Z-1.449 I-1.191 J0.
X21.813 Z-1.473 I1.191 J0.
X19.432 Z-1.497 I-1.191 J0.
X21.813 Z-1.521 I1.191 J0.
X19.432 Z-1.546 I-1.191 J0.
X21.813 Z-1.57 I1.191 J0.
X19.432 Z-1.594 I-1.191 J0.
X21.813 Z-1.618 I1.191 J0.
X19.432 Z-1.643 I-1.191 J0.
X21.813 Z-1.667 I1.191 J0.
X19.432 Z-1.691 I-1.191 J0.
X21.813 Z-1.715 I1.191 J0.
X19.432 Z-1.74 I-1.191 J0.
X21.813 Z-1.764 I1.191 J0.
X19.432 Z-1.788 I-1.191 J0.
X21.813 Z-1.812 I1.191 J0.
X19.432 Z-1.837 I-1.191 J0.
X21.813 Z-1.861 I1.191 J0.
X19.432 Z-1.885 I-1.191 J0.
X21.813 Z-1.909 I1.191 J0.
X19.432 Z-1.934 I-1.191 J0.
X21.813 Z-1.958 I1.191 J0.
X19.432 Z-1.982 I-1.191 J0.
X21.813 Z-2.006 I1.191 J0.
X19.432 Z-2.031 I-1.191 J0.
X21.813 Z-2.055 I1.191 J0.
X19.432 Z-2.079 I-1.191 J0.
X21.813 Z-2.103 I1.191 J0.
X19.432 Z-2.128 I-1.191 J0.
X21.813 Z-2.152 I1.191 J0.
X19.432 Z-2.176 I-1.191 J0.
X21.813 Z-2.2 I1.191 J0.
X19.432 Z-2.224 I-1.191 J0.
X21.813 Z-2.249 I1.191 J0.
X19.432 Z-2.273 I-1.191 J0.
X21.813 Z-2.297 I1.191 J0.
X19.432 Z-2.321 I-1.191 J0.
X21.813 Z-2.346 I1.191 J0.
X19.432 Z-2.37 I-1.191 J0.
X21.813 Z-2.394 I1.191 J0.
X19.432 Z-2.418 I-1.191 J0.
X21.813 Z-2.443 I1.191 J0.
X19.432 Z-2.467 I-1.191 J0.
X21.813 Z-2.491 I1.191 J0.
X19.432 Z-2.515 I-1.191 J0.
X21.813 Z-2.54 I1.191 J0.
X19.432 Z-2.564 I-1.191 J0.
X21.813 Z-2.588 I1.191 J0.
X19.432 Z-2.612 I-1.191 J0.
X21.813 Z-2.637 I1.191 J0.
X19.432 Z-2.661 I-1.191 J0.
X21.813 Z-2.685 I1.191 J0.
X19.432 Z-2.709 I-1.191 J0.
X21.813 Z-2.734 I1.191 J0.
X19.432 Z-2.758 I-1.191 J0.
X21.813 Z-2.782 I1.191 J0.
X19.432 Z-2.806 I-1.191 J0.
X21.813 Z-2.831 I1.191 J0.
X19.432 Z-2.855 I-1.191 J0.
X21.813 Z-2.879 I1.191 J0.
X19.432 Z-2.903 I-1.191 J0.
X21.813 Z-2.928 I1.191 J0.
X19.432 Z-2.952 I-1.191 J0.
X21.813 Z-2.976 I1.191 J0.
X19.432 Z-3. I-1.191 J0.
X21.813 Z-3.025 I1.191 J0.
X19.432 Z-3.049 I-1.191 J0.
X21.813 Z-3.073 I1.191 J0.
X19.432 Z-3.097 I-1.191 J0.
X21.813 Z-3.122 I1.191 J0.
X19.432 Z-3.146 I-1.191 J0.
X21.813 Z-3.17 I1.191 J0.
X19.432 Z-3.194 I-1.191 J0.
X21.813 Z-3.219 I1.191 J0.
X19.432 Z-3.243 I-1.191 J0.
X21.813 Z-3.267 I1.191 J0.
X19.432 Z-3.291 I-1.191 J0.
X21.813 Z-3.315 I1.191 J0.
X19.432 Z-3.34 I-1.191 J0.
X21.813 Z-3.364 I1.191 J0.
X19.432 Z-3.388 I-1.191 J0.
X21.813 Z-3.412 I1.191 J0.
X19.432 Z-3.437 I-1.191 J0.
X21.813 Z-3.461 I1.191 J0.
X19.432 Z-3.485 I-1.191 J0.
X21.813 Z-3.509 I1.191 J0.
X19.432 Z-3.534 I-1.191 J0.
X21.813 Z-3.558 I1.191 J0.
X19.432 Z-3.582 I-1.191 J0.
X21.813 Z-3.606 I1.191 J0.
X19.432 Z-3.631 I-1.191 J0.
X21.813 Z-3.655 I1.191 J0.
X19.432 Z-3.679 I-1.191 J0.
X21.813 Z-3.703 I1.191 J0.
X19.432 Z-3.728 I-1.191 J0.
X21.813 Z-3.752 I1.191 J0.
X19.432 Z-3.776 I-1.191 J0.
X21.813 Z-3.8 I1.191 J0.
X19.432 Z-3.825 I-1.191 J0.
X21.813 Z-3.849 I1.191 J0.
X19.432 Z-3.873 I-1.191 J0.
X21.813 Z-3.897 I1.191 J0.
X19.432 Z-3.922 I-1.191 J0.
X21.813 Z-3.946 I1.191 J0.
X19.432 Z-3.97 I-1.191 J0.
X21.813 Z-3.994 I1.191 J0.
X19.432 Z-4.019 I-1.191 J0.
X21.813 Z-4.043 I1.191 J0.
X19.432 Z-4.067 I-1.191 J0.
X21.813 Z-4.091 I1.191 J0.
X19.432 Z-4.116 I-1.191 J0.
X21.813 Z-4.14 I1.191 J0.
X19.432 Z-4.164 I-1.191 J0.
X21.813 Z-4.188 I1.191 J0.
X19.432 Z-4.213 I-1.191 J0.
X21.813 Z-4.237 I1.191 J0.
X19.432 Z-4.261 I-1.191 J0.
X21.813 Z-4.285 I1.191 J0.
X19.432 Z-4.31 I-1.191 J0.
X21.813 Z-4.334 I1.191 J0.
X19.432 Z-4.358 I-1.191 J0.
X21.813 Z-4.382 I1.191 J0.
X19.432 Z-4.406 I-1.191 J0.
X21.813 Z-4.431 I1.191 J0.
X19.432 Z-4.455 I-1.191 J0.
X21.813 Z-4.479 I1.191 J0.
X19.432 Z-4.503 I-1.191 J0.
X21.813 Z-4.528 I1.191 J0.
X19.432 Z-4.552 I-1.191 J0.
X21.813 Z-4.576 I1.191 J0.
X19.432 Z-4.6 I-1.191 J0.
X21.813 Z-4.625 I1.191 J0.
X19.432 Z-4.649 I-1.191 J0.
X20.763 Y114.689 Z-4.662 I1.191 J0.
X21.78 Y113.227 Z-4.675 I-0.141 J-1.182
X19.465 Y113.785 I-1.157 J0.279
X21.78 Y113.227 I1.157 J-0.279
X21.397 Y112.993 I-0.309 J0.074
G1 X21.242 Y113.03
X21.174 Y113.047 Z-4.667
X21.108 Y113.062 Z-4.644
X21.05 Y113.076 Z-4.606
X21.001 Y113.088 Z-4.555
X20.964 Y113.097 Z-4.495
X20.941 Y113.103 Z-4.428
X20.934 Y113.105 Z-4.358
G0 Z16.

(BORE2)
G0 X52.563 Y139.242
Z16.
Z3.
G1 Z1.317 F800.
G18 G2 X52.881 Z1. I0.317 K0.
G1 X53.039
G17 G2 X53.357 Y138.924 I0. J-0.318
X49.388 Z0.969 I-1.984 J0.
X53.357 Z0.938 I1.984 J0.
X49.388 Z0.906 I-1.984 J0.
X53.357 Z0.875 I1.984 J0.
X49.388 Z0.844 I-1.984 J0.
X53.357 Z0.813 I1.984 J0.
X49.388 Z0.782 I-1.984 J0.
X53.357 Z0.751 I1.984 J0.
X49.388 Z0.719 I-1.984 J0.
X53.357 Z0.688 I1.984 J0.
X49.388 Z0.657 I-1.984 J0.
X53.357 Z0.626 I1.984 J0.
X49.388 Z0.595 I-1.984 J0.
X53.357 Z0.564 I1.984 J0.
X49.388 Z0.532 I-1.984 J0.
X53.357 Z0.501 I1.984 J0.
X49.388 Z0.47 I-1.984 J0.
X53.357 Z0.439 I1.984 J0.
X49.388 Z0.408 I-1.984 J0.
X53.357 Z0.377 I1.984 J0.
X49.388 Z0.345 I-1.984 J0.
X53.357 Z0.314 I1.984 J0.
X49.388 Z0.283 I-1.984 J0.
X53.357 Z0.252 I1.984 J0.
X49.388 Z0.221 I-1.984 J0.
X53.357 Z0.19 I1.984 J0.
X49.388 Z0.158 I-1.984 J0.
X53.357 Z0.127 I1.984 J0.
X49.388 Z0.096 I-1.984 J0.
X53.357 Z0.065 I1.984 J0.
X49.388 Z0.034 I-1.984 J0.
X53.357 Z0.003 I1.984 J0.
X49.388 Z-0.029 I-1.984 J0.
X53.357 Z-0.06 I1.984 J0.
X49.388 Z-0.091 I-1.984 J0.
X53.357 Z-0.122 I1.984 J0.
X49.388 Z-0.153 I-1.984 J0.
X53.357 Z-0.185 I1.984 J0.
X49.388 Z-0.216 I-1.984 J0.
X53.357 Z-0.247 I1.984 J0.
X49.388 Z-0.278 I-1.984 J0.
X53.357 Z-0.309 I1.984 J0.
X49.388 Z-0.34 I-1.984 J0.
X53.357 Z-0.372 I1.984 J0.
X49.388 Z-0.403 I-1.984 J0.
X53.357 Z-0.434 I1.984 J0.
X49.388 Z-0.465 I-1.984 J0.
X53.357 Z-0.496 I1.984 J0.
X49.388 Z-0.527 I-1.984 J0.
X53.357 Z-0.559 I1.984 J0.
X49.388 Z-0.59 I-1.984 J0.
X53.357 Z-0.621 I1.984 J0.
X49.388 Z-0.652 I-1.984 J0.
X53.357 Z-0.683 I1.984 J0.
X49.388 Z-0.714 I-1.984 J0.
X53.357 Z-0.746 I1.984 J0.
X49.388 Z-0.777 I-1.984 J0.
X53.357 Z-0.808 I1.984 J0.
X49.388 Z-0.839 I-1.984 J0.
X53.357 Z-0.87 I1.984 J0.
X49.388 Z-0.901 I-1.984 J0.
X53.357 Z-0.933 I1.984 J0.
X49.388 Z-0.964 I-1.984 J0.
X53.357 Z-0.995 I1.984 J0.
X49.388 Z-1.026 I-1.984 J0.
X53.357 Z-1.057 I1.984 J0.
X49.388 Z-1.088 I-1.984 J0.
X53.357 Z-1.12 I1.984 J0.
X49.388 Z-1.151 I-1.984 J0.
X53.357 Z-1.182 I1.984 J0.
X49.388 Z-1.213 I-1.984 J0.
X53.357 Z-1.244 I1.984 J0.
X49.388 Z-1.276 I-1.984 J0.
X53.357 Z-1.307 I1.984 J0.
X49.388 Z-1.338 I-1.984 J0.
X53.357 Z-1.369 I1.984 J0.
X49.388 Z-1.4 I-1.984 J0.
X53.357 Z-1.431 I1.984 J0.
X49.388 Z-1.463 I-1.984 J0.
X53.357 Z-1.494 I1.984 J0.
X49.388 Z-1.525 I-1.984 J0.
X53.357 Z-1.556 I1.984 J0.
X49.388 Z-1.587 I-1.984 J0.
X53.357 Z-1.618 I1.984 J0.
X49.388 Z-1.65 I-1.984 J0.
X53.357 Z-1.681 I1.984 J0.
X49.388 Z-1.712 I-1.984 J0.
X53.357 Z-1.743 I1.984 J0.
X49.388 Z-1.774 I-1.984 J0.
X53.357 Z-1.805 I1.984 J0.
X49.388 Z-1.837 I-1.984 J0.
X53.357 Z-1.868 I1.984 J0.
X49.388 Z-1.899 I-1.984 J0.
X53.357 Z-1.93 I1.984 J0.
X49.388 Z-1.961 I-1.984 J0.
X53.357 Z-1.992 I1.984 J0.
X49.388 Z-2.024 I-1.984 J0.
X53.357 Z-2.055 I1.984 J0.
X49.388 Z-2.086 I-1.984 J0.
X53.357 Z-2.117 I1.984 J0.
X49.388 Z-2.148 I-1.984 J0.
X53.357 Z-2.179 I1.984 J0.
X49.388 Z-2.211 I-1.984 J0.
X53.357 Z-2.242 I1.984 J0.
X49.388 Z-2.273 I-1.984 J0.
X53.357 Z-2.304 I1.984 J0.
X49.388 Z-2.335 I-1.984 J0.
X53.357 Z-2.366 I1.984 J0.
X49.388 Z-2.398 I-1.984 J0.
X53.357 Z-2.429 I1.984 J0.
X49.388 Z-2.46 I-1.984 J0.
X53.357 Z-2.491 I1.984 J0.
X49.388 Z-2.522 I-1.984 J0.
X53.357 Z-2.554 I1.984 J0.
X49.388 Z-2.585 I-1.984 J0.
X53.357 Z-2.616 I1.984 J0.
X49.388 Z-2.647 I-1.984 J0.
X53.357 Z-2.678 I1.984 J0.
X49.388 Z-2.709 I-1.984 J0.
X53.357 Z-2.741 I1.984 J0.
X49.388 Z-2.772 I-1.984 J0.
X53.357 Z-2.803 I1.984 J0.
X49.388 Z-2.834 I-1.984 J0.
X53.357 Z-2.865 I1.984 J0.
X49.388 Z-2.896 I-1.984 J0.
X53.357 Z-2.928 I1.984 J0.
X49.388 Z-2.959 I-1.984 J0.
X53.357 Z-2.99 I1.984 J0.
X49.388 Z-3.021 I-1.984 J0.
X53.357 Z-3.052 I1.984 J0.
X49.388 Z-3.083 I-1.984 J0.
X53.357 Z-3.115 I1.984 J0.
X49.388 Z-3.146 I-1.984 J0.
X53.357 Z-3.177 I1.984 J0.
X49.388 Z-3.208 I-1.984 J0.
X53.357 Z-3.239 I1.984 J0.
X49.388 Z-3.27 I-1.984 J0.
X53.357 Z-3.302 I1.984 J0.
X49.388 Z-3.333 I-1.984 J0.
X53.357 Z-3.364 I1.984 J0.
X49.388 Z-3.395 I-1.984 J0.
X53.357 Z-3.426 I1.984 J0.
X49.388 Z-3.457 I-1.984 J0.
X53.357 Z-3.489 I1.984 J0.
X49.388 Z-3.52 I-1.984 J0.
X53.357 Z-3.551 I1.984 J0.
X49.388 Z-3.582 I-1.984 J0.
X53.357 Z-3.613 I1.984 J0.
X49.388 Z-3.645 I-1.984 J0.
X53.357 Z-3.676 I1.984 J0.
X49.388 Z-3.707 I-1.984 J0.
X53.357 Z-3.738 I1.984 J0.
X49.388 Z-3.769 I-1.984 J0.
X53.357 Z-3.8 I1.984 J0.
X49.388 Z-3.832 I-1.984 J0.
X53.357 Z-3.863 I1.984 J0.
X49.388 Z-3.894 I-1.984 J0.
X53.357 Z-3.925 I1.984 J0.
X49.388 Z-3.956 I-1.984 J0.
X53.357 Z-3.987 I1.984 J0.
X49.388 Z-4.019 I-1.984 J0.
X53.357 Z-4.05 I1.984 J0.
X49.388 Z-4.081 I-1.984 J0.
X53.357 Z-4.112 I1.984 J0.
X49.388 Z-4.143 I-1.984 J0.
X53.357 Z-4.174 I1.984 J0.
X49.388 Z-4.206 I-1.984 J0.
X53.357 Z-4.237 I1.984 J0.
X49.388 Z-4.268 I-1.984 J0.
X53.357 Z-4.299 I1.984 J0.
X49.388 Z-4.33 I-1.984 J0.
X53.357 Z-4.361 I1.984 J0.
X49.388 Z-4.393 I-1.984 J0.
X53.357 Z-4.424 I1.984 J0.
X49.388 Z-4.455 I-1.984 J0.
X53.357 Z-4.486 I1.984 J0.
X49.388 Z-4.517 I-1.984 J0.
X53.357 Z-4.548 I1.984 J0.
X49.388 Z-4.58 I-1.984 J0.
X53.357 Z-4.611 I1.984 J0.
X49.388 Z-4.642 I-1.984 J0.
X51.555 Y140.9 Z-4.659 I1.984 J0.
X53.323 Y138.561 Z-4.675 I-0.182 J-1.976
X49.422 Y139.288 I-1.951 J0.363
X53.323 Y138.561 I1.951 J-0.363
X52.953 Y138.307 I-0.312 J0.058
G1 X52.797 Y138.336
X52.728 Y138.349 Z-4.667
X52.662 Y138.361 Z-4.644
X52.602 Y138.372 Z-4.606
X52.553 Y138.382 Z-4.555
X52.516 Y138.388 Z-4.495
X52.493 Y138.393 Z-4.428
X52.485 Y138.394 Z-4.358
G0 Z6.
X20.813 Y162.31
Z3.
G1 Z1.317 F800.
G18 G2 X21.131 Z1. I0.318 K0.
G1 X21.289
G17 G2 X21.607 Y161.992 I0. J-0.317
X17.638 Z0.969 I-1.984 J0.
X21.607 Z0.938 I1.984 J0.
X17.638 Z0.906 I-1.984 J0.
X21.607 Z0.875 I1.984 J0.
X17.638 Z0.844 I-1.984 J0.
X21.607 Z0.813 I1.984 J0.
X17.638 Z0.782 I-1.984 J0.
X21.607 Z0.751 I1.984 J0.
X17.638 Z0.719 I-1.984 J0.
X21.607 Z0.688 I1.984 J0.
X17.638 Z0.657 I-1.984 J0.
X21.607 Z0.626 I1.984 J0.
X17.638 Z0.595 I-1.984 J0.
X21.607 Z0.564 I1.984 J0.
X17.638 Z0.532 I-1.984 J0.
X21.607 Z0.501 I1.984 J0.
X17.638 Z0.47 I-1.984 J0.
X21.607 Z0.439 I1.984 J0.
X17.638 Z0.408 I-1.984 J0.
X21.607 Z0.377 I1.984 J0.
X17.638 Z0.345 I-1.984 J0.
X21.607 Z0.314 I1.984 J0.
X17.638 Z0.283 I-1.984 J0.
X21.607 Z0.252 I1.984 J0.
X17.638 Z0.221 I-1.984 J0.
X21.607 Z0.19 I1.984 J0.
X17.638 Z0.158 I-1.984 J0.
X21.607 Z0.127 I1.984 J0.
X17.638 Z0.096 I-1.984 J0.
X21.607 Z0.065 I1.984 J0.
X17.638 Z0.034 I-1.984 J0.
X21.607 Z0.003 I1.984 J0.
X17.638 Z-0.029 I-1.984 J0.
X21.607 Z-0.06 I1.984 J0.
X17.638 Z-0.091 I-1.984 J0.
X21.607 Z-0.122 I1.984 J0.
X17.638 Z-0.153 I-1.984 J0.
X21.607 Z-0.185 I1.984 J0.
X17.638 Z-0.216 I-1.984 J0.
X21.607 Z-0.247 I1.984 J0.
X17.638 Z-0.278 I-1.984 J0.
X21.607 Z-0.309 I1.984 J0.
X17.638 Z-0.34 I-1.984 J0.
X21.607 Z-0.372 I1.984 J0.
X17.638 Z-0.403 I-1.984 J0.
X21.607 Z-0.434 I1.984 J0.
X17.638 Z-0.465 I-1.984 J0.
X21.607 Z-0.496 I1.984 J0.
X17.638 Z-0.527 I-1.984 J0.
X21.607 Z-0.559 I1.984 J0.
X17.638 Z-0.59 I-1.984 J0.
X21.607 Z-0.621 I1.984 J0.
X17.638 Z-0.652 I-1.984 J0.
X21.607 Z-0.683 I1.984 J0.
X17.638 Z-0.714 I-1.984 J0.
X21.607 Z-0.746 I1.984 J0.
X17.638 Z-0.777 I-1.984 J0.
X21.607 Z-0.808 I1.984 J0.
X17.638 Z-0.839 I-1.984 J0.
X21.607 Z-0.87 I1.984 J0.
X17.638 Z-0.901 I-1.984 J0.
X21.607 Z-0.933 I1.984 J0.
X17.638 Z-0.964 I-1.984 J0.
X21.607 Z-0.995 I1.984 J0.
X17.638 Z-1.026 I-1.984 J0.
X21.607 Z-1.057 I1.984 J0.
X17.638 Z-1.088 I-1.984 J0.
X21.607 Z-1.12 I1.984 J0.
X17.638 Z-1.151 I-1.984 J0.
X21.607 Z-1.182 I1.984 J0.
X17.638 Z-1.213 I-1.984 J0.
X21.607 Z-1.244 I1.984 J0.
X17.638 Z-1.276 I-1.984 J0.
X21.607 Z-1.307 I1.984 J0.
X17.638 Z-1.338 I-1.984 J0.
X21.607 Z-1.369 I1.984 J0.
X17.638 Z-1.4 I-1.984 J0.
X21.607 Z-1.431 I1.984 J0.
X17.638 Z-1.463 I-1.984 J0.
X21.607 Z-1.494 I1.984 J0.
X17.638 Z-1.525 I-1.984 J0.
X21.607 Z-1.556 I1.984 J0.
X17.638 Z-1.587 I-1.984 J0.
X21.607 Z-1.618 I1.984 J0.
X17.638 Z-1.65 I-1.984 J0.
X21.607 Z-1.681 I1.984 J0.
X17.638 Z-1.712 I-1.984 J0.
X21.607 Z-1.743 I1.984 J0.
X17.638 Z-1.774 I-1.984 J0.
X21.607 Z-1.805 I1.984 J0.
X17.638 Z-1.837 I-1.984 J0.
X21.607 Z-1.868 I1.984 J0.
X17.638 Z-1.899 I-1.984 J0.
X21.607 Z-1.93 I1.984 J0.
X17.638 Z-1.961 I-1.984 J0.
X21.607 Z-1.992 I1.984 J0.
X17.638 Z-2.024 I-1.984 J0.
X21.607 Z-2.055 I1.984 J0.
X17.638 Z-2.086 I-1.984 J0.
X21.607 Z-2.117 I1.984 J0.
X17.638 Z-2.148 I-1.984 J0.
X21.607 Z-2.179 I1.984 J0.
X17.638 Z-2.211 I-1.984 J0.
X21.607 Z-2.242 I1.984 J0.
X17.638 Z-2.273 I-1.984 J0.
X21.607 Z-2.304 I1.984 J0.
X17.638 Z-2.335 I-1.984 J0.
X21.607 Z-2.366 I1.984 J0.
X17.638 Z-2.398 I-1.984 J0.
X21.607 Z-2.429 I1.984 J0.
X17.638 Z-2.46 I-1.984 J0.
X21.607 Z-2.491 I1.984 J0.
X17.638 Z-2.522 I-1.984 J0.
X21.607 Z-2.554 I1.984 J0.
X17.638 Z-2.585 I-1.984 J0.
X21.607 Z-2.616 I1.984 J0.
X17.638 Z-2.647 I-1.984 J0.
X21.607 Z-2.678 I1.984 J0.
X17.638 Z-2.709 I-1.984 J0.
X21.607 Z-2.741 I1.984 J0.
X17.638 Z-2.772 I-1.984 J0.
X21.607 Z-2.803 I1.984 J0.
X17.638 Z-2.834 I-1.984 J0.
X21.607 Z-2.865 I1.984 J0.
X17.638 Z-2.896 I-1.984 J0.
X21.607 Z-2.928 I1.984 J0.
X17.638 Z-2.959 I-1.984 J0.
X21.607 Z-2.99 I1.984 J0.
X17.638 Z-3.021 I-1.984 J0.
X21.607 Z-3.052 I1.984 J0.
X17.638 Z-3.083 I-1.984 J0.
X21.607 Z-3.115 I1.984 J0.
X17.638 Z-3.146 I-1.984 J0.
X21.607 Z-3.177 I1.984 J0.
X17.638 Z-3.208 I-1.984 J0.
X21.607 Z-3.239 I1.984 J0.
X17.638 Z-3.27 I-1.984 J0.
X21.607 Z-3.302 I1.984 J0.
X17.638 Z-3.333 I-1.984 J0.
X21.607 Z-3.364 I1.984 J0.
X17.638 Z-3.395 I-1.984 J0.
X21.607 Z-3.426 I1.984 J0.
X17.638 Z-3.457 I-1.984 J0.
X21.607 Z-3.489 I1.984 J0.
X17.638 Z-3.52 I-1.984 J0.
X21.607 Z-3.551 I1.984 J0.
X17.638 Z-3.582 I-1.984 J0.
X21.607 Z-3.613 I1.984 J0.
X17.638 Z-3.645 I-1.984 J0.
X21.607 Z-3.676 I1.984 J0.
X17.638 Z-3.707 I-1.984 J0.
X21.607 Z-3.738 I1.984 J0.
X17.638 Z-3.769 I-1.984 J0.
X21.607 Z-3.8 I1.984 J0.
X17.638 Z-3.832 I-1.984 J0.
X21.607 Z-3.863 I1.984 J0.
X17.638 Z-3.894 I-1.984 J0.
X21.607 Z-3.925 I1.984 J0.
X17.638 Z-3.956 I-1.984 J0.
X21.607 Z-3.987 I1.984 J0.
X17.638 Z-4.019 I-1.984 J0.
X21.607 Z-4.05 I1.984 J0.
X17.638 Z-4.081 I-1.984 J0.
X21.607 Z-4.112 I1.984 J0.
X17.638 Z-4.143 I-1.984 J0.
X21.607 Z-4.174 I1.984 J0.
X17.638 Z-4.206 I-1.984 J0.
X21.607 Z-4.237 I1.984 J0.
X17.638 Z-4.268 I-1.984 J0.
X21.607 Z-4.299 I1.984 J0.
X17.638 Z-4.33 I-1.984 J0.
X21.607 Z-4.361 I1.984 J0.
X17.638 Z-4.393 I-1.984 J0.
X21.607 Z-4.424 I1.984 J0.
X17.638 Z-4.455 I-1.984 J0.
X21.607 Z-4.486 I1.984 J0.
X17.638 Z-4.517 I-1.984 J0.
X21.607 Z-4.548 I1.984 J0.
X17.638 Z-4.58 I-1.984 J0.
X21.607 Z-4.611 I1.984 J0.
X17.638 Z-4.642 I-1.984 J0.
X19.805 Y163.968 Z-4.659 I1.984 J0.
X21.573 Y161.629 Z-4.675 I-0.182 J-1.976
X17.672 Y162.355 I-1.951 J0.363
X21.573 Y161.629 I1.951 J-0.363
X21.203 Y161.375 I-0.312 J0.058
G1 X21.047 Y161.404
X20.978 Y161.417 Z-4.667
X20.912 Y161.429 Z-4.644
X20.852 Y161.44 Z-4.606
X20.803 Y161.449 Z-4.555
X20.766 Y161.456 Z-4.495
X20.743 Y161.461 Z-4.428
X20.735 Y161.462 Z-4.358
G0 Z6.
X-18.432 Y162.31
Z3.
G1 Z1.317 F800.
G18 G2 X-18.114 Z1. I0.317 K0.
G1 X-17.956
G17 G2 X-17.638 Y161.992 I0. J-0.317
X-21.607 Z0.969 I-1.984 J0.
X-17.638 Z0.938 I1.984 J0.
X-21.607 Z0.906 I-1.984 J0.
X-17.638 Z0.875 I1.984 J0.
X-21.607 Z0.844 I-1.984 J0.
X-17.638 Z0.813 I1.984 J0.
X-21.607 Z0.782 I-1.984 J0.
X-17.638 Z0.751 I1.984 J0.
X-21.607 Z0.719 I-1.984 J0.
X-17.638 Z0.688 I1.984 J0.
X-21.607 Z0.657 I-1.984 J0.
X-17.638 Z0.626 I1.984 J0.
X-21.607 Z0.595 I-1.984 J0.
X-17.638 Z0.564 I1.984 J0.
X-21.607 Z0.532 I-1.984 J0.
X-17.638 Z0.501 I1.984 J0.
X-21.607 Z0.47 I-1.984 J0.
X-17.638 Z0.439 I1.984 J0.
X-21.607 Z0.408 I-1.984 J0.
X-17.638 Z0.377 I1.984 J0.
X-21.607 Z0.345 I-1.984 J0.
X-17.638 Z0.314 I1.984 J0.
X-21.607 Z0.283 I-1.984 J0.
X-17.638 Z0.252 I1.984 J0.
X-21.607 Z0.221 I-1.984 J0.
X-17.638 Z0.19 I1.984 J0.
X-21.607 Z0.158 I-1.984 J0.
X-17.638 Z0.127 I1.984 J0.
X-21.607 Z0.096 I-1.984 J0.
X-17.638 Z0.065 I1.984 J0.
X-21.607 Z0.034 I-1.984 J0.
X-17.638 Z0.003 I1.984 J0.
X-21.607 Z-0.029 I-1.984 J0.
X-17.638 Z-0.06 I1.984 J0.
X-21.607 Z-0.091 I-1.984 J0.
X-17.638 Z-0.122 I1.984 J0.
X-21.607 Z-0.153 I-1.984 J0.
X-17.638 Z-0.185 I1.984 J0.
X-21.607 Z-0.216 I-1.984 J0.
X-17.638 Z-0.247 I1.984 J0.
X-21.607 Z-0.278 I-1.984 J0.
X-17.638 Z-0.309 I1.984 J0.
X-21.607 Z-0.34 I-1.984 J0.
X-17.638 Z-0.372 I1.984 J0.
X-21.607 Z-0.403 I-1.984 J0.
X-17.638 Z-0.434 I1.984 J0.
X-21.607 Z-0.465 I-1.984 J0.
X-17.638 Z-0.496 I1.984 J0.
X-21.607 Z-0.527 I-1.984 J0.
X-17.638 Z-0.559 I1.984 J0.
X-21.607 Z-0.59 I-1.984 J0.
X-17.638 Z-0.621 I1.984 J0.
X-21.607 Z-0.652 I-1.984 J0.
X-17.638 Z-0.683 I1.984 J0.
X-21.607 Z-0.714 I-1.984 J0.
X-17.638 Z-0.746 I1.984 J0.
X-21.607 Z-0.777 I-1.984 J0.
X-17.638 Z-0.808 I1.984 J0.
X-21.607 Z-0.839 I-1.984 J0.
X-17.638 Z-0.87 I1.984 J0.
X-21.607 Z-0.901 I-1.984 J0.
X-17.638 Z-0.933 I1.984 J0.
X-21.607 Z-0.964 I-1.984 J0.
X-17.638 Z-0.995 I1.984 J0.
X-21.607 Z-1.026 I-1.984 J0.
X-17.638 Z-1.057 I1.984 J0.
X-21.607 Z-1.088 I-1.984 J0.
X-17.638 Z-1.12 I1.984 J0.
X-21.607 Z-1.151 I-1.984 J0.
X-17.638 Z-1.182 I1.984 J0.
X-21.607 Z-1.213 I-1.984 J0.
X-17.638 Z-1.244 I1.984 J0.
X-21.607 Z-1.276 I-1.984 J0.
X-17.638 Z-1.307 I1.984 J0.
X-21.607 Z-1.338 I-1.984 J0.
X-17.638 Z-1.369 I1.984 J0.
X-21.607 Z-1.4 I-1.984 J0.
X-17.638 Z-1.431 I1.984 J0.
X-21.607 Z-1.463 I-1.984 J0.
X-17.638 Z-1.494 I1.984 J0.
X-21.607 Z-1.525 I-1.984 J0.
X-17.638 Z-1.556 I1.984 J0.
X-21.607 Z-1.587 I-1.984 J0.
X-17.638 Z-1.618 I1.984 J0.
X-21.607 Z-1.65 I-1.984 J0.
X-17.638 Z-1.681 I1.984 J0.
X-21.607 Z-1.712 I-1.984 J0.
X-17.638 Z-1.743 I1.984 J0.
X-21.607 Z-1.774 I-1.984 J0.
X-17.638 Z-1.805 I1.984 J0.
X-21.607 Z-1.837 I-1.984 J0.
X-17.638 Z-1.868 I1.984 J0.
X-21.607 Z-1.899 I-1.984 J0.
X-17.638 Z-1.93 I1.984 J0.
X-21.607 Z-1.961 I-1.984 J0.
X-17.638 Z-1.992 I1.984 J0.
X-21.607 Z-2.024 I-1.984 J0.
X-17.638 Z-2.055 I1.984 J0.
X-21.607 Z-2.086 I-1.984 J0.
X-17.638 Z-2.117 I1.984 J0.
X-21.607 Z-2.148 I-1.984 J0.
X-17.638 Z-2.179 I1.984 J0.
X-21.607 Z-2.211 I-1.984 J0.
X-17.638 Z-2.242 I1.984 J0.
X-21.607 Z-2.273 I-1.984 J0.
X-17.638 Z-2.304 I1.984 J0.
X-21.607 Z-2.335 I-1.984 J0.
X-17.638 Z-2.366 I1.984 J0.
X-21.607 Z-2.398 I-1.984 J0.
X-17.638 Z-2.429 I1.984 J0.
X-21.607 Z-2.46 I-1.984 J0.
X-17.638 Z-2.491 I1.984 J0.
X-21.607 Z-2.522 I-1.984 J0.
X-17.638 Z-2.554 I1.984 J0.
X-21.607 Z-2.585 I-1.984 J0.
X-17.638 Z-2.616 I1.984 J0.
X-21.607 Z-2.647 I-1.984 J0.
X-17.638 Z-2.678 I1.984 J0.
X-21.607 Z-2.709 I-1.984 J0.
X-17.638 Z-2.741 I1.984 J0.
X-21.607 Z-2.772 I-1.984 J0.
X-17.638 Z-2.803 I1.984 J0.
X-21.607 Z-2.834 I-1.984 J0.
X-17.638 Z-2.865 I1.984 J0.
X-21.607 Z-2.896 I-1.984 J0.
X-17.638 Z-2.928 I1.984 J0.
X-21.607 Z-2.959 I-1.984 J0.
X-17.638 Z-2.99 I1.984 J0.
X-21.607 Z-3.021 I-1.984 J0.
X-17.638 Z-3.052 I1.984 J0.
X-21.607 Z-3.083 I-1.984 J0.
X-17.638 Z-3.115 I1.984 J0.
X-21.607 Z-3.146 I-1.984 J0.
X-17.638 Z-3.177 I1.984 J0.
X-21.607 Z-3.208 I-1.984 J0.
X-17.638 Z-3.239 I1.984 J0.
X-21.607 Z-3.27 I-1.984 J0.
X-17.638 Z-3.302 I1.984 J0.
X-21.607 Z-3.333 I-1.984 J0.
X-17.638 Z-3.364 I1.984 J0.
X-21.607 Z-3.395 I-1.984 J0.
X-17.638 Z-3.426 I1.984 J0.
X-21.607 Z-3.457 I-1.984 J0.
X-17.638 Z-3.489 I1.984 J0.
X-21.607 Z-3.52 I-1.984 J0.
X-17.638 Z-3.551 I1.984 J0.
X-21.607 Z-3.582 I-1.984 J0.
X-17.638 Z-3.613 I1.984 J0.
X-21.607 Z-3.645 I-1.984 J0.
X-17.638 Z-3.676 I1.984 J0.
X-21.607 Z-3.707 I-1.984 J0.
X-17.638 Z-3.738 I1.984 J0.
X-21.607 Z-3.769 I-1.984 J0.
X-17.638 Z-3.8 I1.984 J0.
X-21.607 Z-3.832 I-1.984 J0.
X-17.638 Z-3.863 I1.984 J0.
X-21.607 Z-3.894 I-1.984 J0.
X-17.638 Z-3.925 I1.984 J0.
X-21.607 Z-3.956 I-1.984 J0.
X-17.638 Z-3.987 I1.984 J0.
X-21.607 Z-4.019 I-1.984 J0.
X-17.638 Z-4.05 I1.984 J0.
X-21.607 Z-4.081 I-1.984 J0.
X-17.638 Z-4.112 I1.984 J0.
X-21.607 Z-4.143 I-1.984 J0.
X-17.638 Z-4.174 I1.984 J0.
X-21.607 Z-4.206 I-1.984 J0.
X-17.638 Z-4.237 I1.984 J0.
X-21.607 Z-4.268 I-1.984 J0.
X-17.638 Z-4.299 I1.984 J0.
X-21.607 Z-4.33 I-1.984 J0.
X-17.638 Z-4.361 I1.984 J0.
X-21.607 Z-4.393 I-1.984 J0.
X-17.638 Z-4.424 I1.984 J0.
X-21.607 Z-4.455 I-1.984 J0.
X-17.638 Z-4.486 I1.984 J0.
X-21.607 Z-4.517 I-1.984 J0.
X-17.638 Z-4.548 I1.984 J0.
X-21.607 Z-4.58 I-1.984 J0.
X-17.638 Z-4.611 I1.984 J0.
X-21.607 Z-4.642 I-1.984 J0.
X-19.44 Y163.968 Z-4.659 I1.984 J0.
X-17.672 Y161.629 Z-4.675 I-0.182 J-1.976
X-21.573 Y162.355 I-1.951 J0.363
X-17.672 Y161.629 I1.951 J-0.363
X-18.042 Y161.375 I-0.312 J0.058
G1 X-18.198 Y161.404
X-18.268 Y161.417 Z-4.667
X-18.334 Y161.429 Z-4.644
X-18.393 Y161.44 Z-4.606
X-18.442 Y161.449 Z-4.555
X-18.479 Y161.456 Z-4.495
X-18.502 Y161.461 Z-4.428
X-18.51 Y161.462 Z-4.358
G0 Z6.
X-50.182 Y139.242
Z3.
G1 Z1.317 F800.
G18 G2 X-49.864 Z1. I0.318 K0.
G1 X-49.706
G17 G2 X-49.388 Y138.924 I0. J-0.318
X-53.357 Z0.969 I-1.984 J0.
X-49.388 Z0.938 I1.984 J0.
X-53.357 Z0.906 I-1.984 J0.
X-49.388 Z0.875 I1.984 J0.
X-53.357 Z0.844 I-1.984 J0.
X-49.388 Z0.813 I1.984 J0.
X-53.357 Z0.782 I-1.984 J0.
X-49.388 Z0.751 I1.984 J0.
X-53.357 Z0.719 I-1.984 J0.
X-49.388 Z0.688 I1.984 J0.
X-53.357 Z0.657 I-1.984 J0.
X-49.388 Z0.626 I1.984 J0.
X-53.357 Z0.595 I-1.984 J0.
X-49.388 Z0.564 I1.984 J0.
X-53.357 Z0.532 I-1.984 J0.
X-49.388 Z0.501 I1.984 J0.
X-53.357 Z0.47 I-1.984 J0.
X-49.388 Z0.439 I1.984 J0.
X-53.357 Z0.408 I-1.984 J0.
X-49.388 Z0.377 I1.984 J0.
X-53.357 Z0.345 I-1.984 J0.
X-49.388 Z0.314 I1.984 J0.
X-53.357 Z0.283 I-1.984 J0.
X-49.388 Z0.252 I1.984 J0.
X-53.357 Z0.221 I-1.984 J0.
X-49.388 Z0.19 I1.984 J0.
X-53.357 Z0.158 I-1.984 J0.
X-49.388 Z0.127 I1.984 J0.
X-53.357 Z0.096 I-1.984 J0.
X-49.388 Z0.065 I1.984 J0.
X-53.357 Z0.034 I-1.984 J0.
X-49.388 Z0.003 I1.984 J0.
X-53.357 Z-0.029 I-1.984 J0.
X-49.388 Z-0.06 I1.984 J0.
X-53.357 Z-0.091 I-1.984 J0.
X-49.388 Z-0.122 I1.984 J0.
X-53.357 Z-0.153 I-1.984 J0.
X-49.388 Z-0.185 I1.984 J0.
X-53.357 Z-0.216 I-1.984 J0.
X-49.388 Z-0.247 I1.984 J0.
X-53.357 Z-0.278 I-1.984 J0.
X-49.388 Z-0.309 I1.984 J0.
X-53.357 Z-0.34 I-1.984 J0.
X-49.388 Z-0.372 I1.984 J0.
X-53.357 Z-0.403 I-1.984 J0.
X-49.388 Z-0.434 I1.984 J0.
X-53.357 Z-0.465 I-1.984 J0.
X-49.388 Z-0.496 I1.984 J0.
X-53.357 Z-0.527 I-1.984 J0.
X-49.388 Z-0.559 I1.984 J0.
X-53.357 Z-0.59 I-1.984 J0.
X-49.388 Z-0.621 I1.984 J0.
X-53.357 Z-0.652 I-1.984 J0.
X-49.388 Z-0.683 I1.984 J0.
X-53.357 Z-0.714 I-1.984 J0.
X-49.388 Z-0.746 I1.984 J0.
X-53.357 Z-0.777 I-1.984 J0.
X-49.388 Z-0.808 I1.984 J0.
X-53.357 Z-0.839 I-1.984 J0.
X-49.388 Z-0.87 I1.984 J0.
X-53.357 Z-0.901 I-1.984 J0.
X-49.388 Z-0.933 I1.984 J0.
X-53.357 Z-0.964 I-1.984 J0.
X-49.388 Z-0.995 I1.984 J0.
X-53.357 Z-1.026 I-1.984 J0.
X-49.388 Z-1.057 I1.984 J0.
X-53.357 Z-1.088 I-1.984 J0.
X-49.388 Z-1.12 I1.984 J0.
X-53.357 Z-1.151 I-1.984 J0.
X-49.388 Z-1.182 I1.984 J0.
X-53.357 Z-1.213 I-1.984 J0.
X-49.388 Z-1.244 I1.984 J0.
X-53.357 Z-1.276 I-1.984 J0.
X-49.388 Z-1.307 I1.984 J0.
X-53.357 Z-1.338 I-1.984 J0.
X-49.388 Z-1.369 I1.984 J0.
X-53.357 Z-1.4 I-1.984 J0.
X-49.388 Z-1.431 I1.984 J0.
X-53.357 Z-1.463 I-1.984 J0.
X-49.388 Z-1.494 I1.984 J0.
X-53.357 Z-1.525 I-1.984 J0.
X-49.388 Z-1.556 I1.984 J0.
X-53.357 Z-1.587 I-1.984 J0.
X-49.388 Z-1.618 I1.984 J0.
X-53.357 Z-1.65 I-1.984 J0.
X-49.388 Z-1.681 I1.984 J0.
X-53.357 Z-1.712 I-1.984 J0.
X-49.388 Z-1.743 I1.984 J0.
X-53.357 Z-1.774 I-1.984 J0.
X-49.388 Z-1.805 I1.984 J0.
X-53.357 Z-1.837 I-1.984 J0.
X-49.388 Z-1.868 I1.984 J0.
X-53.357 Z-1.899 I-1.984 J0.
X-49.388 Z-1.93 I1.984 J0.
X-53.357 Z-1.961 I-1.984 J0.
X-49.388 Z-1.992 I1.984 J0.
X-53.357 Z-2.024 I-1.984 J0.
X-49.388 Z-2.055 I1.984 J0.
X-53.357 Z-2.086 I-1.984 J0.
X-49.388 Z-2.117 I1.984 J0.
X-53.357 Z-2.148 I-1.984 J0.
X-49.388 Z-2.179 I1.984 J0.
X-53.357 Z-2.211 I-1.984 J0.
X-49.388 Z-2.242 I1.984 J0.
X-53.357 Z-2.273 I-1.984 J0.
X-49.388 Z-2.304 I1.984 J0.
X-53.357 Z-2.335 I-1.984 J0.
X-49.388 Z-2.366 I1.984 J0.
X-53.357 Z-2.398 I-1.984 J0.
X-49.388 Z-2.429 I1.984 J0.
X-53.357 Z-2.46 I-1.984 J0.
X-49.388 Z-2.491 I1.984 J0.
X-53.357 Z-2.522 I-1.984 J0.
X-49.388 Z-2.554 I1.984 J0.
X-53.357 Z-2.585 I-1.984 J0.
X-49.388 Z-2.616 I1.984 J0.
X-53.357 Z-2.647 I-1.984 J0.
X-49.388 Z-2.678 I1.984 J0.
X-53.357 Z-2.709 I-1.984 J0.
X-49.388 Z-2.741 I1.984 J0.
X-53.357 Z-2.772 I-1.984 J0.
X-49.388 Z-2.803 I1.984 J0.
X-53.357 Z-2.834 I-1.984 J0.
X-49.388 Z-2.865 I1.984 J0.
X-53.357 Z-2.896 I-1.984 J0.
X-49.388 Z-2.928 I1.984 J0.
X-53.357 Z-2.959 I-1.984 J0.
X-49.388 Z-2.99 I1.984 J0.
X-53.357 Z-3.021 I-1.984 J0.
X-49.388 Z-3.052 I1.984 J0.
X-53.357 Z-3.083 I-1.984 J0.
X-49.388 Z-3.115 I1.984 J0.
X-53.357 Z-3.146 I-1.984 J0.
X-49.388 Z-3.177 I1.984 J0.
X-53.357 Z-3.208 I-1.984 J0.
X-49.388 Z-3.239 I1.984 J0.
X-53.357 Z-3.27 I-1.984 J0.
X-49.388 Z-3.302 I1.984 J0.
X-53.357 Z-3.333 I-1.984 J0.
X-49.388 Z-3.364 I1.984 J0.
X-53.357 Z-3.395 I-1.984 J0.
X-49.388 Z-3.426 I1.984 J0.
X-53.357 Z-3.457 I-1.984 J0.
X-49.388 Z-3.489 I1.984 J0.
X-53.357 Z-3.52 I-1.984 J0.
X-49.388 Z-3.551 I1.984 J0.
X-53.357 Z-3.582 I-1.984 J0.
X-49.388 Z-3.613 I1.984 J0.
X-53.357 Z-3.645 I-1.984 J0.
X-49.388 Z-3.676 I1.984 J0.
X-53.357 Z-3.707 I-1.984 J0.
X-49.388 Z-3.738 I1.984 J0.
X-53.357 Z-3.769 I-1.984 J0.
X-49.388 Z-3.8 I1.984 J0.
X-53.357 Z-3.832 I-1.984 J0.
X-49.388 Z-3.863 I1.984 J0.
X-53.357 Z-3.894 I-1.984 J0.
X-49.388 Z-3.925 I1.984 J0.
X-53.357 Z-3.956 I-1.984 J0.
X-49.388 Z-3.987 I1.984 J0.
X-53.357 Z-4.019 I-1.984 J0.
X-49.388 Z-4.05 I1.984 J0.
X-53.357 Z-4.081 I-1.984 J0.
X-49.388 Z-4.112 I1.984 J0.
X-53.357 Z-4.143 I-1.984 J0.
X-49.388 Z-4.174 I1.984 J0.
X-53.357 Z-4.206 I-1.984 J0.
X-49.388 Z-4.237 I1.984 J0.
X-53.357 Z-4.268 I-1.984 J0.
X-49.388 Z-4.299 I1.984 J0.
X-53.357 Z-4.33 I-1.984 J0.
X-49.388 Z-4.361 I1.984 J0.
X-53.357 Z-4.393 I-1.984 J0.
X-49.388 Z-4.424 I1.984 J0.
X-53.357 Z-4.455 I-1.984 J0.
X-49.388 Z-4.486 I1.984 J0.
X-53.357 Z-4.517 I-1.984 J0.
X-49.388 Z-4.548 I1.984 J0.
X-53.357 Z-4.58 I-1.984 J0.
X-49.388 Z-4.611 I1.984 J0.
X-53.357 Z-4.642 I-1.984 J0.
X-51.19 Y140.9 Z-4.659 I1.984 J0.
X-49.422 Y138.561 Z-4.675 I-0.182 J-1.976
X-53.323 Y139.288 I-1.951 J0.363
X-49.422 Y138.561 I1.951 J-0.363
X-49.792 Y138.307 I-0.312 J0.058
G1 X-49.948 Y138.336
X-50.018 Y138.349 Z-4.667
X-50.084 Y138.361 Z-4.644
X-50.143 Y138.372 Z-4.606
X-50.192 Y138.382 Z-4.555
X-50.229 Y138.388 Z-4.495
X-50.252 Y138.393 Z-4.428
X-50.26 Y138.394 Z-4.358
G0 Z6.
X-62.309 Y101.918
Z3.
G1 Z1.317 F800.
G18 G2 X-61.992 Z1. I0.318 K0.
G1 X-61.833
G17 G2 X-61.516 Y101.6 I0. J-0.318
X-65.484 Z0.969 I-1.984 J0.
X-61.516 Z0.938 I1.984 J0.
X-65.484 Z0.906 I-1.984 J0.
X-61.516 Z0.875 I1.984 J0.
X-65.484 Z0.844 I-1.984 J0.
X-61.516 Z0.813 I1.984 J0.
X-65.484 Z0.782 I-1.984 J0.
X-61.516 Z0.751 I1.984 J0.
X-65.484 Z0.719 I-1.984 J0.
X-61.516 Z0.688 I1.984 J0.
X-65.484 Z0.657 I-1.984 J0.
X-61.516 Z0.626 I1.984 J0.
X-65.484 Z0.595 I-1.984 J0.
X-61.516 Z0.564 I1.984 J0.
X-65.484 Z0.532 I-1.984 J0.
X-61.516 Z0.501 I1.984 J0.
X-65.484 Z0.47 I-1.984 J0.
X-61.516 Z0.439 I1.984 J0.
X-65.484 Z0.408 I-1.984 J0.
X-61.516 Z0.377 I1.984 J0.
X-65.484 Z0.345 I-1.984 J0.
X-61.516 Z0.314 I1.984 J0.
X-65.484 Z0.283 I-1.984 J0.
X-61.516 Z0.252 I1.984 J0.
X-65.484 Z0.221 I-1.984 J0.
X-61.516 Z0.19 I1.984 J0.
X-65.484 Z0.158 I-1.984 J0.
X-61.516 Z0.127 I1.984 J0.
X-65.484 Z0.096 I-1.984 J0.
X-61.516 Z0.065 I1.984 J0.
X-65.484 Z0.034 I-1.984 J0.
X-61.516 Z0.003 I1.984 J0.
X-65.484 Z-0.029 I-1.984 J0.
X-61.516 Z-0.06 I1.984 J0.
X-65.484 Z-0.091 I-1.984 J0.
X-61.516 Z-0.122 I1.984 J0.
X-65.484 Z-0.153 I-1.984 J0.
X-61.516 Z-0.185 I1.984 J0.
X-65.484 Z-0.216 I-1.984 J0.
X-61.516 Z-0.247 I1.984 J0.
X-65.484 Z-0.278 I-1.984 J0.
X-61.516 Z-0.309 I1.984 J0.
X-65.484 Z-0.34 I-1.984 J0.
X-61.516 Z-0.372 I1.984 J0.
X-65.484 Z-0.403 I-1.984 J0.
X-61.516 Z-0.434 I1.984 J0.
X-65.484 Z-0.465 I-1.984 J0.
X-61.516 Z-0.496 I1.984 J0.
X-65.484 Z-0.527 I-1.984 J0.
X-61.516 Z-0.559 I1.984 J0.
X-65.484 Z-0.59 I-1.984 J0.
X-61.516 Z-0.621 I1.984 J0.
X-65.484 Z-0.652 I-1.984 J0.
X-61.516 Z-0.683 I1.984 J0.
X-65.484 Z-0.714 I-1.984 J0.
X-61.516 Z-0.746 I1.984 J0.
X-65.484 Z-0.777 I-1.984 J0.
X-61.516 Z-0.808 I1.984 J0.
X-65.484 Z-0.839 I-1.984 J0.
X-61.516 Z-0.87 I1.984 J0.
X-65.484 Z-0.901 I-1.984 J0.
X-61.516 Z-0.933 I1.984 J0.
X-65.484 Z-0.964 I-1.984 J0.
X-61.516 Z-0.995 I1.984 J0.
X-65.484 Z-1.026 I-1.984 J0.
X-61.516 Z-1.057 I1.984 J0.
X-65.484 Z-1.088 I-1.984 J0.
X-61.516 Z-1.12 I1.984 J0.
X-65.484 Z-1.151 I-1.984 J0.
X-61.516 Z-1.182 I1.984 J0.
X-65.484 Z-1.213 I-1.984 J0.
X-61.516 Z-1.244 I1.984 J0.
X-65.484 Z-1.276 I-1.984 J0.
X-61.516 Z-1.307 I1.984 J0.
X-65.484 Z-1.338 I-1.984 J0.
X-61.516 Z-1.369 I1.984 J0.
X-65.484 Z-1.4 I-1.984 J0.
X-61.516 Z-1.431 I1.984 J0.
X-65.484 Z-1.463 I-1.984 J0.
X-61.516 Z-1.494 I1.984 J0.
X-65.484 Z-1.525 I-1.984 J0.
X-61.516 Z-1.556 I1.984 J0.
X-65.484 Z-1.587 I-1.984 J0.
X-61.516 Z-1.618 I1.984 J0.
X-65.484 Z-1.65 I-1.984 J0.
X-61.516 Z-1.681 I1.984 J0.
X-65.484 Z-1.712 I-1.984 J0.
X-61.516 Z-1.743 I1.984 J0.
X-65.484 Z-1.774 I-1.984 J0.
X-61.516 Z-1.805 I1.984 J0.
X-65.484 Z-1.837 I-1.984 J0.
X-61.516 Z-1.868 I1.984 J0.
X-65.484 Z-1.899 I-1.984 J0.
X-61.516 Z-1.93 I1.984 J0.
X-65.484 Z-1.961 I-1.984 J0.
X-61.516 Z-1.992 I1.984 J0.
X-65.484 Z-2.024 I-1.984 J0.
X-61.516 Z-2.055 I1.984 J0.
X-65.484 Z-2.086 I-1.984 J0.
X-61.516 Z-2.117 I1.984 J0.
X-65.484 Z-2.148 I-1.984 J0.
X-61.516 Z-2.179 I1.984 J0.
X-65.484 Z-2.211 I-1.984 J0.
X-61.516 Z-2.242 I1.984 J0.
X-65.484 Z-2.273 I-1.984 J0.
X-61.516 Z-2.304 I1.984 J0.
X-65.484 Z-2.335 I-1.984 J0.
X-61.516 Z-2.366 I1.984 J0.
X-65.484 Z-2.398 I-1.984 J0.
X-61.516 Z-2.429 I1.984 J0.
X-65.484 Z-2.46 I-1.984 J0.
X-61.516 Z-2.491 I1.984 J0.
X-65.484 Z-2.522 I-1.984 J0.
X-61.516 Z-2.554 I1.984 J0.
X-65.484 Z-2.585 I-1.984 J0.
X-61.516 Z-2.616 I1.984 J0.
X-65.484 Z-2.647 I-1.984 J0.
X-61.516 Z-2.678 I1.984 J0.
X-65.484 Z-2.709 I-1.984 J0.
X-61.516 Z-2.741 I1.984 J0.
X-65.484 Z-2.772 I-1.984 J0.
X-61.516 Z-2.803 I1.984 J0.
X-65.484 Z-2.834 I-1.984 J0.
X-61.516 Z-2.865 I1.984 J0.
X-65.484 Z-2.896 I-1.984 J0.
X-61.516 Z-2.928 I1.984 J0.
X-65.484 Z-2.959 I-1.984 J0.
X-61.516 Z-2.99 I1.984 J0.
X-65.484 Z-3.021 I-1.984 J0.
X-61.516 Z-3.052 I1.984 J0.
X-65.484 Z-3.083 I-1.984 J0.
X-61.516 Z-3.115 I1.984 J0.
X-65.484 Z-3.146 I-1.984 J0.
X-61.516 Z-3.177 I1.984 J0.
X-65.484 Z-3.208 I-1.984 J0.
X-61.516 Z-3.239 I1.984 J0.
X-65.484 Z-3.27 I-1.984 J0.
X-61.516 Z-3.302 I1.984 J0.
X-65.484 Z-3.333 I-1.984 J0.
X-61.516 Z-3.364 I1.984 J0.
X-65.484 Z-3.395 I-1.984 J0.
X-61.516 Z-3.426 I1.984 J0.
X-65.484 Z-3.457 I-1.984 J0.
X-61.516 Z-3.489 I1.984 J0.
X-65.484 Z-3.52 I-1.984 J0.
X-61.516 Z-3.551 I1.984 J0.
X-65.484 Z-3.582 I-1.984 J0.
X-61.516 Z-3.613 I1.984 J0.
X-65.484 Z-3.645 I-1.984 J0.
X-61.516 Z-3.676 I1.984 J0.
X-65.484 Z-3.707 I-1.984 J0.
X-61.516 Z-3.738 I1.984 J0.
X-65.484 Z-3.769 I-1.984 J0.
X-61.516 Z-3.8 I1.984 J0.
X-65.484 Z-3.832 I-1.984 J0.
X-61.516 Z-3.863 I1.984 J0.
X-65.484 Z-3.894 I-1.984 J0.
X-61.516 Z-3.925 I1.984 J0.
X-65.484 Z-3.956 I-1.984 J0.
X-61.516 Z-3.987 I1.984 J0.
X-65.484 Z-4.019 I-1.984 J0.
X-61.516 Z-4.05 I1.984 J0.
X-65.484 Z-4.081 I-1.984 J0.
X-61.516 Z-4.112 I1.984 J0.
X-65.484 Z-4.143 I-1.984 J0.
X-61.516 Z-4.174 I1.984 J0.
X-65.484 Z-4.206 I-1.984 J0.
X-61.516 Z-4.237 I1.984 J0.
X-65.484 Z-4.268 I-1.984 J0.
X-61.516 Z-4.299 I1.984 J0.
X-65.484 Z-4.33 I-1.984 J0.
X-61.516 Z-4.361 I1.984 J0.
X-65.484 Z-4.393 I-1.984 J0.
X-61.516 Z-4.424 I1.984 J0.
X-65.484 Z-4.455 I-1.984 J0.
X-61.516 Z-4.486 I1.984 J0.
X-65.484 Z-4.517 I-1.984 J0.
X-61.516 Z-4.548 I1.984 J0.
X-65.484 Z-4.58 I-1.984 J0.
X-61.516 Z-4.611 I1.984 J0.
X-65.484 Z-4.642 I-1.984 J0.
X-63.318 Y103.576 Z-4.659 I1.984 J0.
X-61.549 Y101.237 Z-4.675 I-0.182 J-1.976
X-65.451 Y101.963 I-1.951 J0.363
X-61.549 Y101.237 I1.951 J-0.363
X-61.919 Y100.983 I-0.312 J0.058
G1 X-62.075 Y101.012
X-62.145 Y101.025 Z-4.667
X-62.211 Y101.037 Z-4.644
X-62.27 Y101.048 Z-4.606
X-62.32 Y101.057 Z-4.555
X-62.357 Y101.064 Z-4.495
X-62.38 Y101.068 Z-4.428
X-62.388 Y101.07 Z-4.358
G0 Z6.
X-36.909 Y101.918
Z3.
G1 Z1.317 F800.
G18 G2 X-36.592 Z1. I0.318 K0.
G1 X-36.433
G17 G2 X-36.116 Y101.6 I0. J-0.318
X-40.084 Z0.969 I-1.984 J0.
X-36.116 Z0.938 I1.984 J0.
X-40.084 Z0.906 I-1.984 J0.
X-36.116 Z0.875 I1.984 J0.
X-40.084 Z0.844 I-1.984 J0.
X-36.116 Z0.813 I1.984 J0.
X-40.084 Z0.782 I-1.984 J0.
X-36.116 Z0.751 I1.984 J0.
X-40.084 Z0.719 I-1.984 J0.
X-36.116 Z0.688 I1.984 J0.
X-40.084 Z0.657 I-1.984 J0.
X-36.116 Z0.626 I1.984 J0.
X-40.084 Z0.595 I-1.984 J0.
X-36.116 Z0.564 I1.984 J0.
X-40.084 Z0.532 I-1.984 J0.
X-36.116 Z0.501 I1.984 J0.
X-40.084 Z0.47 I-1.984 J0.
X-36.116 Z0.439 I1.984 J0.
X-40.084 Z0.408 I-1.984 J0.
X-36.116 Z0.377 I1.984 J0.
X-40.084 Z0.345 I-1.984 J0.
X-36.116 Z0.314 I1.984 J0.
X-40.084 Z0.283 I-1.984 J0.
X-36.116 Z0.252 I1.984 J0.
X-40.084 Z0.221 I-1.984 J0.
X-36.116 Z0.19 I1.984 J0.
X-40.084 Z0.158 I-1.984 J0.
X-36.116 Z0.127 I1.984 J0.
X-40.084 Z0.096 I-1.984 J0.
X-36.116 Z0.065 I1.984 J0.
X-40.084 Z0.034 I-1.984 J0.
X-36.116 Z0.003 I1.984 J0.
X-40.084 Z-0.029 I-1.984 J0.
X-36.116 Z-0.06 I1.984 J0.
X-40.084 Z-0.091 I-1.984 J0.
X-36.116 Z-0.122 I1.984 J0.
X-40.084 Z-0.153 I-1.984 J0.
X-36.116 Z-0.185 I1.984 J0.
X-40.084 Z-0.216 I-1.984 J0.
X-36.116 Z-0.247 I1.984 J0.
X-40.084 Z-0.278 I-1.984 J0.
X-36.116 Z-0.309 I1.984 J0.
X-40.084 Z-0.34 I-1.984 J0.
X-36.116 Z-0.372 I1.984 J0.
X-40.084 Z-0.403 I-1.984 J0.
X-36.116 Z-0.434 I1.984 J0.
X-40.084 Z-0.465 I-1.984 J0.
X-36.116 Z-0.496 I1.984 J0.
X-40.084 Z-0.527 I-1.984 J0.
X-36.116 Z-0.559 I1.984 J0.
X-40.084 Z-0.59 I-1.984 J0.
X-36.116 Z-0.621 I1.984 J0.
X-40.084 Z-0.652 I-1.984 J0.
X-36.116 Z-0.683 I1.984 J0.
X-40.084 Z-0.714 I-1.984 J0.
X-36.116 Z-0.746 I1.984 J0.
X-40.084 Z-0.777 I-1.984 J0.
X-36.116 Z-0.808 I1.984 J0.
X-40.084 Z-0.839 I-1.984 J0.
X-36.116 Z-0.87 I1.984 J0.
X-40.084 Z-0.901 I-1.984 J0.
X-36.116 Z-0.933 I1.984 J0.
X-40.084 Z-0.964 I-1.984 J0.
X-36.116 Z-0.995 I1.984 J0.
X-40.084 Z-1.026 I-1.984 J0.
X-36.116 Z-1.057 I1.984 J0.
X-40.084 Z-1.088 I-1.984 J0.
X-36.116 Z-1.12 I1.984 J0.
X-40.084 Z-1.151 I-1.984 J0.
X-36.116 Z-1.182 I1.984 J0.
X-40.084 Z-1.213 I-1.984 J0.
X-36.116 Z-1.244 I1.984 J0.
X-40.084 Z-1.276 I-1.984 J0.
X-36.116 Z-1.307 I1.984 J0.
X-40.084 Z-1.338 I-1.984 J0.
X-36.116 Z-1.369 I1.984 J0.
X-40.084 Z-1.4 I-1.984 J0.
X-36.116 Z-1.431 I1.984 J0.
X-40.084 Z-1.463 I-1.984 J0.
X-36.116 Z-1.494 I1.984 J0.
X-40.084 Z-1.525 I-1.984 J0.
X-36.116 Z-1.556 I1.984 J0.
X-40.084 Z-1.587 I-1.984 J0.
X-36.116 Z-1.618 I1.984 J0.
X-40.084 Z-1.65 I-1.984 J0.
X-36.116 Z-1.681 I1.984 J0.
X-40.084 Z-1.712 I-1.984 J0.
X-36.116 Z-1.743 I1.984 J0.
X-40.084 Z-1.774 I-1.984 J0.
X-36.116 Z-1.805 I1.984 J0.
X-40.084 Z-1.837 I-1.984 J0.
X-36.116 Z-1.868 I1.984 J0.
X-40.084 Z-1.899 I-1.984 J0.
X-36.116 Z-1.93 I1.984 J0.
X-40.084 Z-1.961 I-1.984 J0.
X-36.116 Z-1.992 I1.984 J0.
X-40.084 Z-2.024 I-1.984 J0.
X-36.116 Z-2.055 I1.984 J0.
X-40.084 Z-2.086 I-1.984 J0.
X-36.116 Z-2.117 I1.984 J0.
X-40.084 Z-2.148 I-1.984 J0.
X-36.116 Z-2.179 I1.984 J0.
X-40.084 Z-2.211 I-1.984 J0.
X-36.116 Z-2.242 I1.984 J0.
X-40.084 Z-2.273 I-1.984 J0.
X-36.116 Z-2.304 I1.984 J0.
X-40.084 Z-2.335 I-1.984 J0.
X-36.116 Z-2.366 I1.984 J0.
X-40.084 Z-2.398 I-1.984 J0.
X-36.116 Z-2.429 I1.984 J0.
X-40.084 Z-2.46 I-1.984 J0.
X-36.116 Z-2.491 I1.984 J0.
X-40.084 Z-2.522 I-1.984 J0.
X-36.116 Z-2.554 I1.984 J0.
X-40.084 Z-2.585 I-1.984 J0.
X-36.116 Z-2.616 I1.984 J0.
X-40.084 Z-2.647 I-1.984 J0.
X-36.116 Z-2.678 I1.984 J0.
X-40.084 Z-2.709 I-1.984 J0.
X-36.116 Z-2.741 I1.984 J0.
X-40.084 Z-2.772 I-1.984 J0.
X-36.116 Z-2.803 I1.984 J0.
X-40.084 Z-2.834 I-1.984 J0.
X-36.116 Z-2.865 I1.984 J0.
X-40.084 Z-2.896 I-1.984 J0.
X-36.116 Z-2.928 I1.984 J0.
X-40.084 Z-2.959 I-1.984 J0.
X-36.116 Z-2.99 I1.984 J0.
X-40.084 Z-3.021 I-1.984 J0.
X-36.116 Z-3.052 I1.984 J0.
X-40.084 Z-3.083 I-1.984 J0.
X-36.116 Z-3.115 I1.984 J0.
X-40.084 Z-3.146 I-1.984 J0.
X-36.116 Z-3.177 I1.984 J0.
X-40.084 Z-3.208 I-1.984 J0.
X-36.116 Z-3.239 I1.984 J0.
X-40.084 Z-3.27 I-1.984 J0.
X-36.116 Z-3.302 I1.984 J0.
X-40.084 Z-3.333 I-1.984 J0.
X-36.116 Z-3.364 I1.984 J0.
X-40.084 Z-3.395 I-1.984 J0.
X-36.116 Z-3.426 I1.984 J0.
X-40.084 Z-3.457 I-1.984 J0.
X-36.116 Z-3.489 I1.984 J0.
X-40.084 Z-3.52 I-1.984 J0.
X-36.116 Z-3.551 I1.984 J0.
X-40.084 Z-3.582 I-1.984 J0.
X-36.116 Z-3.613 I1.984 J0.
X-40.084 Z-3.645 I-1.984 J0.
X-36.116 Z-3.676 I1.984 J0.
X-40.084 Z-3.707 I-1.984 J0.
X-36.116 Z-3.738 I1.984 J0.
X-40.084 Z-3.769 I-1.984 J0.
X-36.116 Z-3.8 I1.984 J0.
X-40.084 Z-3.832 I-1.984 J0.
X-36.116 Z-3.863 I1.984 J0.
X-40.084 Z-3.894 I-1.984 J0.
X-36.116 Z-3.925 I1.984 J0.
X-40.084 Z-3.956 I-1.984 J0.
X-36.116 Z-3.987 I1.984 J0.
X-40.084 Z-4.019 I-1.984 J0.
X-36.116 Z-4.05 I1.984 J0.
X-40.084 Z-4.081 I-1.984 J0.
X-36.116 Z-4.112 I1.984 J0.
X-40.084 Z-4.143 I-1.984 J0.
X-36.116 Z-4.174 I1.984 J0.
X-40.084 Z-4.206 I-1.984 J0.
X-36.116 Z-4.237 I1.984 J0.
X-40.084 Z-4.268 I-1.984 J0.
X-36.116 Z-4.299 I1.984 J0.
X-40.084 Z-4.33 I-1.984 J0.
X-36.116 Z-4.361 I1.984 J0.
X-40.084 Z-4.393 I-1.984 J0.
X-36.116 Z-4.424 I1.984 J0.
X-40.084 Z-4.455 I-1.984 J0.
X-36.116 Z-4.486 I1.984 J0.
X-40.084 Z-4.517 I-1.984 J0.
X-36.116 Z-4.548 I1.984 J0.
X-40.084 Z-4.58 I-1.984 J0.
X-36.116 Z-4.611 I1.984 J0.
X-40.084 Z-4.642 I-1.984 J0.
X-37.918 Y103.576 Z-4.659 I1.984 J0.
X-36.149 Y101.237 Z-4.675 I-0.182 J-1.976
X-40.051 Y101.963 I-1.951 J0.363
X-36.149 Y101.237 I1.951 J-0.363
X-36.519 Y100.983 I-0.312 J0.058
G1 X-36.675 Y101.012
X-36.745 Y101.025 Z-4.667
X-36.811 Y101.037 Z-4.644
X-36.87 Y101.048 Z-4.606
X-36.92 Y101.057 Z-4.555
X-36.957 Y101.064 Z-4.495
X-36.98 Y101.068 Z-4.428
X-36.988 Y101.07 Z-4.358
G0 Z6.
X-29.633 Y124.312
Z3.
G1 Z1.317 F800.
G18 G2 X-29.315 Z1. I0.318 K0.
G1 X-29.157
G17 G2 X-28.839 Y123.995 I0. J-0.317
X-32.808 Z0.969 I-1.984 J0.
X-28.839 Z0.938 I1.984 J0.
X-32.808 Z0.906 I-1.984 J0.
X-28.839 Z0.875 I1.984 J0.
X-32.808 Z0.844 I-1.984 J0.
X-28.839 Z0.813 I1.984 J0.
X-32.808 Z0.782 I-1.984 J0.
X-28.839 Z0.751 I1.984 J0.
X-32.808 Z0.719 I-1.984 J0.
X-28.839 Z0.688 I1.984 J0.
X-32.808 Z0.657 I-1.984 J0.
X-28.839 Z0.626 I1.984 J0.
X-32.808 Z0.595 I-1.984 J0.
X-28.839 Z0.564 I1.984 J0.
X-32.808 Z0.532 I-1.984 J0.
X-28.839 Z0.501 I1.984 J0.
X-32.808 Z0.47 I-1.984 J0.
X-28.839 Z0.439 I1.984 J0.
X-32.808 Z0.408 I-1.984 J0.
X-28.839 Z0.377 I1.984 J0.
X-32.808 Z0.345 I-1.984 J0.
X-28.839 Z0.314 I1.984 J0.
X-32.808 Z0.283 I-1.984 J0.
X-28.839 Z0.252 I1.984 J0.
X-32.808 Z0.221 I-1.984 J0.
X-28.839 Z0.19 I1.984 J0.
X-32.808 Z0.158 I-1.984 J0.
X-28.839 Z0.127 I1.984 J0.
X-32.808 Z0.096 I-1.984 J0.
X-28.839 Z0.065 I1.984 J0.
X-32.808 Z0.034 I-1.984 J0.
X-28.839 Z0.003 I1.984 J0.
X-32.808 Z-0.029 I-1.984 J0.
X-28.839 Z-0.06 I1.984 J0.
X-32.808 Z-0.091 I-1.984 J0.
X-28.839 Z-0.122 I1.984 J0.
X-32.808 Z-0.153 I-1.984 J0.
X-28.839 Z-0.185 I1.984 J0.
X-32.808 Z-0.216 I-1.984 J0.
X-28.839 Z-0.247 I1.984 J0.
X-32.808 Z-0.278 I-1.984 J0.
X-28.839 Z-0.309 I1.984 J0.
X-32.808 Z-0.34 I-1.984 J0.
X-28.839 Z-0.372 I1.984 J0.
X-32.808 Z-0.403 I-1.984 J0.
X-28.839 Z-0.434 I1.984 J0.
X-32.808 Z-0.465 I-1.984 J0.
X-28.839 Z-0.496 I1.984 J0.
X-32.808 Z-0.527 I-1.984 J0.
X-28.839 Z-0.559 I1.984 J0.
X-32.808 Z-0.59 I-1.984 J0.
X-28.839 Z-0.621 I1.984 J0.
X-32.808 Z-0.652 I-1.984 J0.
X-28.839 Z-0.683 I1.984 J0.
X-32.808 Z-0.714 I-1.984 J0.
X-28.839 Z-0.746 I1.984 J0.
X-32.808 Z-0.777 I-1.984 J0.
X-28.839 Z-0.808 I1.984 J0.
X-32.808 Z-0.839 I-1.984 J0.
X-28.839 Z-0.87 I1.984 J0.
X-32.808 Z-0.901 I-1.984 J0.
X-28.839 Z-0.933 I1.984 J0.
X-32.808 Z-0.964 I-1.984 J0.
X-28.839 Z-0.995 I1.984 J0.
X-32.808 Z-1.026 I-1.984 J0.
X-28.839 Z-1.057 I1.984 J0.
X-32.808 Z-1.088 I-1.984 J0.
X-28.839 Z-1.12 I1.984 J0.
X-32.808 Z-1.151 I-1.984 J0.
X-28.839 Z-1.182 I1.984 J0.
X-32.808 Z-1.213 I-1.984 J0.
X-28.839 Z-1.244 I1.984 J0.
X-32.808 Z-1.276 I-1.984 J0.
X-28.839 Z-1.307 I1.984 J0.
X-32.808 Z-1.338 I-1.984 J0.
X-28.839 Z-1.369 I1.984 J0.
X-32.808 Z-1.4 I-1.984 J0.
X-28.839 Z-1.431 I1.984 J0.
X-32.808 Z-1.463 I-1.984 J0.
X-28.839 Z-1.494 I1.984 J0.
X-32.808 Z-1.525 I-1.984 J0.
X-28.839 Z-1.556 I1.984 J0.
X-32.808 Z-1.587 I-1.984 J0.
X-28.839 Z-1.618 I1.984 J0.
X-32.808 Z-1.65 I-1.984 J0.
X-28.839 Z-1.681 I1.984 J0.
X-32.808 Z-1.712 I-1.984 J0.
X-28.839 Z-1.743 I1.984 J0.
X-32.808 Z-1.774 I-1.984 J0.
X-28.839 Z-1.805 I1.984 J0.
X-32.808 Z-1.837 I-1.984 J0.
X-28.839 Z-1.868 I1.984 J0.
X-32.808 Z-1.899 I-1.984 J0.
X-28.839 Z-1.93 I1.984 J0.
X-32.808 Z-1.961 I-1.984 J0.
X-28.839 Z-1.992 I1.984 J0.
X-32.808 Z-2.024 I-1.984 J0.
X-28.839 Z-2.055 I1.984 J0.
X-32.808 Z-2.086 I-1.984 J0.
X-28.839 Z-2.117 I1.984 J0.
X-32.808 Z-2.148 I-1.984 J0.
X-28.839 Z-2.179 I1.984 J0.
X-32.808 Z-2.211 I-1.984 J0.
X-28.839 Z-2.242 I1.984 J0.
X-32.808 Z-2.273 I-1.984 J0.
X-28.839 Z-2.304 I1.984 J0.
X-32.808 Z-2.335 I-1.984 J0.
X-28.839 Z-2.366 I1.984 J0.
X-32.808 Z-2.398 I-1.984 J0.
X-28.839 Z-2.429 I1.984 J0.
X-32.808 Z-2.46 I-1.984 J0.
X-28.839 Z-2.491 I1.984 J0.
X-32.808 Z-2.522 I-1.984 J0.
X-28.839 Z-2.554 I1.984 J0.
X-32.808 Z-2.585 I-1.984 J0.
X-28.839 Z-2.616 I1.984 J0.
X-32.808 Z-2.647 I-1.984 J0.
X-28.839 Z-2.678 I1.984 J0.
X-32.808 Z-2.709 I-1.984 J0.
X-28.839 Z-2.741 I1.984 J0.
X-32.808 Z-2.772 I-1.984 J0.
X-28.839 Z-2.803 I1.984 J0.
X-32.808 Z-2.834 I-1.984 J0.
X-28.839 Z-2.865 I1.984 J0.
X-32.808 Z-2.896 I-1.984 J0.
X-28.839 Z-2.928 I1.984 J0.
X-32.808 Z-2.959 I-1.984 J0.
X-28.839 Z-2.99 I1.984 J0.
X-32.808 Z-3.021 I-1.984 J0.
X-28.839 Z-3.052 I1.984 J0.
X-32.808 Z-3.083 I-1.984 J0.
X-28.839 Z-3.115 I1.984 J0.
X-32.808 Z-3.146 I-1.984 J0.
X-28.839 Z-3.177 I1.984 J0.
X-32.808 Z-3.208 I-1.984 J0.
X-28.839 Z-3.239 I1.984 J0.
X-32.808 Z-3.27 I-1.984 J0.
X-28.839 Z-3.302 I1.984 J0.
X-32.808 Z-3.333 I-1.984 J0.
X-28.839 Z-3.364 I1.984 J0.
X-32.808 Z-3.395 I-1.984 J0.
X-28.839 Z-3.426 I1.984 J0.
X-32.808 Z-3.457 I-1.984 J0.
X-28.839 Z-3.489 I1.984 J0.
X-32.808 Z-3.52 I-1.984 J0.
X-28.839 Z-3.551 I1.984 J0.
X-32.808 Z-3.582 I-1.984 J0.
X-28.839 Z-3.613 I1.984 J0.
X-32.808 Z-3.645 I-1.984 J0.
X-28.839 Z-3.676 I1.984 J0.
X-32.808 Z-3.707 I-1.984 J0.
X-28.839 Z-3.738 I1.984 J0.
X-32.808 Z-3.769 I-1.984 J0.
X-28.839 Z-3.8 I1.984 J0.
X-32.808 Z-3.832 I-1.984 J0.
X-28.839 Z-3.863 I1.984 J0.
X-32.808 Z-3.894 I-1.984 J0.
X-28.839 Z-3.925 I1.984 J0.
X-32.808 Z-3.956 I-1.984 J0.
X-28.839 Z-3.987 I1.984 J0.
X-32.808 Z-4.019 I-1.984 J0.
X-28.839 Z-4.05 I1.984 J0.
X-32.808 Z-4.081 I-1.984 J0.
X-28.839 Z-4.112 I1.984 J0.
X-32.808 Z-4.143 I-1.984 J0.
X-28.839 Z-4.174 I1.984 J0.
X-32.808 Z-4.206 I-1.984 J0.
X-28.839 Z-4.237 I1.984 J0.
X-32.808 Z-4.268 I-1.984 J0.
X-28.839 Z-4.299 I1.984 J0.
X-32.808 Z-4.33 I-1.984 J0.
X-28.839 Z-4.361 I1.984 J0.
X-32.808 Z-4.393 I-1.984 J0.
X-28.839 Z-4.424 I1.984 J0.
X-32.808 Z-4.455 I-1.984 J0.
X-28.839 Z-4.486 I1.984 J0.
X-32.808 Z-4.517 I-1.984 J0.
X-28.839 Z-4.548 I1.984 J0.
X-32.808 Z-4.58 I-1.984 J0.
X-28.839 Z-4.611 I1.984 J0.
X-32.808 Z-4.642 I-1.984 J0.
X-30.641 Y125.971 Z-4.659 I1.984 J0.
X-28.873 Y123.631 Z-4.675 I-0.182 J-1.976
X-32.774 Y124.358 I-1.951 J0.363
X-28.873 Y123.631 I1.951 J-0.363
X-29.243 Y123.377 I-0.312 J0.058
G1 X-29.399 Y123.406
X-29.468 Y123.419 Z-4.667
X-29.534 Y123.432 Z-4.644
X-29.594 Y123.443 Z-4.606
X-29.643 Y123.452 Z-4.555
X-29.68 Y123.459 Z-4.495
X-29.703 Y123.463 Z-4.428
X-29.711 Y123.465 Z-4.358
G0 Z6.
X-10.583 Y138.153
Z3.
G1 Z1.317 F800.
G18 G2 X-10.265 Z1. I0.318 K0.
G1 X-10.107
G17 G2 X-9.789 Y137.835 I0. J-0.318
X-13.758 Z0.969 I-1.984 J0.
X-9.789 Z0.938 I1.984 J0.
X-13.758 Z0.906 I-1.984 J0.
X-9.789 Z0.875 I1.984 J0.
X-13.758 Z0.844 I-1.984 J0.
X-9.789 Z0.813 I1.984 J0.
X-13.758 Z0.782 I-1.984 J0.
X-9.789 Z0.751 I1.984 J0.
X-13.758 Z0.719 I-1.984 J0.
X-9.789 Z0.688 I1.984 J0.
X-13.758 Z0.657 I-1.984 J0.
X-9.789 Z0.626 I1.984 J0.
X-13.758 Z0.595 I-1.984 J0.
X-9.789 Z0.564 I1.984 J0.
X-13.758 Z0.532 I-1.984 J0.
X-9.789 Z0.501 I1.984 J0.
X-13.758 Z0.47 I-1.984 J0.
X-9.789 Z0.439 I1.984 J0.
X-13.758 Z0.408 I-1.984 J0.
X-9.789 Z0.377 I1.984 J0.
X-13.758 Z0.345 I-1.984 J0.
X-9.789 Z0.314 I1.984 J0.
X-13.758 Z0.283 I-1.984 J0.
X-9.789 Z0.252 I1.984 J0.
X-13.758 Z0.221 I-1.984 J0.
X-9.789 Z0.19 I1.984 J0.
X-13.758 Z0.158 I-1.984 J0.
X-9.789 Z0.127 I1.984 J0.
X-13.758 Z0.096 I-1.984 J0.
X-9.789 Z0.065 I1.984 J0.
X-13.758 Z0.034 I-1.984 J0.
X-9.789 Z0.003 I1.984 J0.
X-13.758 Z-0.029 I-1.984 J0.
X-9.789 Z-0.06 I1.984 J0.
X-13.758 Z-0.091 I-1.984 J0.
X-9.789 Z-0.122 I1.984 J0.
X-13.758 Z-0.153 I-1.984 J0.
X-9.789 Z-0.185 I1.984 J0.
X-13.758 Z-0.216 I-1.984 J0.
X-9.789 Z-0.247 I1.984 J0.
X-13.758 Z-0.278 I-1.984 J0.
X-9.789 Z-0.309 I1.984 J0.
X-13.758 Z-0.34 I-1.984 J0.
X-9.789 Z-0.372 I1.984 J0.
X-13.758 Z-0.403 I-1.984 J0.
X-9.789 Z-0.434 I1.984 J0.
X-13.758 Z-0.465 I-1.984 J0.
X-9.789 Z-0.496 I1.984 J0.
X-13.758 Z-0.527 I-1.984 J0.
X-9.789 Z-0.559 I1.984 J0.
X-13.758 Z-0.59 I-1.984 J0.
X-9.789 Z-0.621 I1.984 J0.
X-13.758 Z-0.652 I-1.984 J0.
X-9.789 Z-0.683 I1.984 J0.
X-13.758 Z-0.714 I-1.984 J0.
X-9.789 Z-0.746 I1.984 J0.
X-13.758 Z-0.777 I-1.984 J0.
X-9.789 Z-0.808 I1.984 J0.
X-13.758 Z-0.839 I-1.984 J0.
X-9.789 Z-0.87 I1.984 J0.
X-13.758 Z-0.901 I-1.984 J0.
X-9.789 Z-0.933 I1.984 J0.
X-13.758 Z-0.964 I-1.984 J0.
X-9.789 Z-0.995 I1.984 J0.
X-13.758 Z-1.026 I-1.984 J0.
X-9.789 Z-1.057 I1.984 J0.
X-13.758 Z-1.088 I-1.984 J0.
X-9.789 Z-1.12 I1.984 J0.
X-13.758 Z-1.151 I-1.984 J0.
X-9.789 Z-1.182 I1.984 J0.
X-13.758 Z-1.213 I-1.984 J0.
X-9.789 Z-1.244 I1.984 J0.
X-13.758 Z-1.276 I-1.984 J0.
X-9.789 Z-1.307 I1.984 J0.
X-13.758 Z-1.338 I-1.984 J0.
X-9.789 Z-1.369 I1.984 J0.
X-13.758 Z-1.4 I-1.984 J0.
X-9.789 Z-1.431 I1.984 J0.
X-13.758 Z-1.463 I-1.984 J0.
X-9.789 Z-1.494 I1.984 J0.
X-13.758 Z-1.525 I-1.984 J0.
X-9.789 Z-1.556 I1.984 J0.
X-13.758 Z-1.587 I-1.984 J0.
X-9.789 Z-1.618 I1.984 J0.
X-13.758 Z-1.65 I-1.984 J0.
X-9.789 Z-1.681 I1.984 J0.
X-13.758 Z-1.712 I-1.984 J0.
X-9.789 Z-1.743 I1.984 J0.
X-13.758 Z-1.774 I-1.984 J0.
X-9.789 Z-1.805 I1.984 J0.
X-13.758 Z-1.837 I-1.984 J0.
X-9.789 Z-1.868 I1.984 J0.
X-13.758 Z-1.899 I-1.984 J0.
X-9.789 Z-1.93 I1.984 J0.
X-13.758 Z-1.961 I-1.984 J0.
X-9.789 Z-1.992 I1.984 J0.
X-13.758 Z-2.024 I-1.984 J0.
X-9.789 Z-2.055 I1.984 J0.
X-13.758 Z-2.086 I-1.984 J0.
X-9.789 Z-2.117 I1.984 J0.
X-13.758 Z-2.148 I-1.984 J0.
X-9.789 Z-2.179 I1.984 J0.
X-13.758 Z-2.211 I-1.984 J0.
X-9.789 Z-2.242 I1.984 J0.
X-13.758 Z-2.273 I-1.984 J0.
X-9.789 Z-2.304 I1.984 J0.
X-13.758 Z-2.335 I-1.984 J0.
X-9.789 Z-2.366 I1.984 J0.
X-13.758 Z-2.398 I-1.984 J0.
X-9.789 Z-2.429 I1.984 J0.
X-13.758 Z-2.46 I-1.984 J0.
X-9.789 Z-2.491 I1.984 J0.
X-13.758 Z-2.522 I-1.984 J0.
X-9.789 Z-2.554 I1.984 J0.
X-13.758 Z-2.585 I-1.984 J0.
X-9.789 Z-2.616 I1.984 J0.
X-13.758 Z-2.647 I-1.984 J0.
X-9.789 Z-2.678 I1.984 J0.
X-13.758 Z-2.709 I-1.984 J0.
X-9.789 Z-2.741 I1.984 J0.
X-13.758 Z-2.772 I-1.984 J0.
X-9.789 Z-2.803 I1.984 J0.
X-13.758 Z-2.834 I-1.984 J0.
X-9.789 Z-2.865 I1.984 J0.
X-13.758 Z-2.896 I-1.984 J0.
X-9.789 Z-2.928 I1.984 J0.
X-13.758 Z-2.959 I-1.984 J0.
X-9.789 Z-2.99 I1.984 J0.
X-13.758 Z-3.021 I-1.984 J0.
X-9.789 Z-3.052 I1.984 J0.
X-13.758 Z-3.083 I-1.984 J0.
X-9.789 Z-3.115 I1.984 J0.
X-13.758 Z-3.146 I-1.984 J0.
X-9.789 Z-3.177 I1.984 J0.
X-13.758 Z-3.208 I-1.984 J0.
X-9.789 Z-3.239 I1.984 J0.
X-13.758 Z-3.27 I-1.984 J0.
X-9.789 Z-3.302 I1.984 J0.
X-13.758 Z-3.333 I-1.984 J0.
X-9.789 Z-3.364 I1.984 J0.
X-13.758 Z-3.395 I-1.984 J0.
X-9.789 Z-3.426 I1.984 J0.
X-13.758 Z-3.457 I-1.984 J0.
X-9.789 Z-3.489 I1.984 J0.
X-13.758 Z-3.52 I-1.984 J0.
X-9.789 Z-3.551 I1.984 J0.
X-13.758 Z-3.582 I-1.984 J0.
X-9.789 Z-3.613 I1.984 J0.
X-13.758 Z-3.645 I-1.984 J0.
X-9.789 Z-3.676 I1.984 J0.
X-13.758 Z-3.707 I-1.984 J0.
X-9.789 Z-3.738 I1.984 J0.
X-13.758 Z-3.769 I-1.984 J0.
X-9.789 Z-3.8 I1.984 J0.
X-13.758 Z-3.832 I-1.984 J0.
X-9.789 Z-3.863 I1.984 J0.
X-13.758 Z-3.894 I-1.984 J0.
X-9.789 Z-3.925 I1.984 J0.
X-13.758 Z-3.956 I-1.984 J0.
X-9.789 Z-3.987 I1.984 J0.
X-13.758 Z-4.019 I-1.984 J0.
X-9.789 Z-4.05 I1.984 J0.
X-13.758 Z-4.081 I-1.984 J0.
X-9.789 Z-4.112 I1.984 J0.
X-13.758 Z-4.143 I-1.984 J0.
X-9.789 Z-4.174 I1.984 J0.
X-13.758 Z-4.206 I-1.984 J0.
X-9.789 Z-4.237 I1.984 J0.
X-13.758 Z-4.268 I-1.984 J0.
X-9.789 Z-4.299 I1.984 J0.
X-13.758 Z-4.33 I-1.984 J0.
X-9.789 Z-4.361 I1.984 J0.
X-13.758 Z-4.393 I-1.984 J0.
X-9.789 Z-4.424 I1.984 J0.
X-13.758 Z-4.455 I-1.984 J0.
X-9.789 Z-4.486 I1.984 J0.
X-13.758 Z-4.517 I-1.984 J0.
X-9.789 Z-4.548 I1.984 J0.
X-13.758 Z-4.58 I-1.984 J0.
X-9.789 Z-4.611 I1.984 J0.
X-13.758 Z-4.642 I-1.984 J0.
X-11.591 Y139.811 Z-4.659 I1.984 J0.
X-9.823 Y137.472 Z-4.675 I-0.182 J-1.976
X-13.724 Y138.199 I-1.951 J0.363
X-9.823 Y137.472 I1.951 J-0.363
X-10.193 Y137.218 I-0.312 J0.058
G1 X-10.349 Y137.247
X-10.418 Y137.26 Z-4.667
X-10.484 Y137.272 Z-4.644
X-10.544 Y137.283 Z-4.606
X-10.593 Y137.292 Z-4.555
X-10.63 Y137.299 Z-4.495
X-10.653 Y137.304 Z-4.428
X-10.661 Y137.305 Z-4.358
G0 Z6.
X12.964 Y138.153
Z3.
G1 Z1.317 F800.
G18 G2 X13.282 Z1. I0.318 K0.
G1 X13.44
G17 G2 X13.758 Y137.835 I0. J-0.318
X9.789 Z0.969 I-1.984 J0.
X13.758 Z0.938 I1.984 J0.
X9.789 Z0.906 I-1.984 J0.
X13.758 Z0.875 I1.984 J0.
X9.789 Z0.844 I-1.984 J0.
X13.758 Z0.813 I1.984 J0.
X9.789 Z0.782 I-1.984 J0.
X13.758 Z0.751 I1.984 J0.
X9.789 Z0.719 I-1.984 J0.
X13.758 Z0.688 I1.984 J0.
X9.789 Z0.657 I-1.984 J0.
X13.758 Z0.626 I1.984 J0.
X9.789 Z0.595 I-1.984 J0.
X13.758 Z0.564 I1.984 J0.
X9.789 Z0.532 I-1.984 J0.
X13.758 Z0.501 I1.984 J0.
X9.789 Z0.47 I-1.984 J0.
X13.758 Z0.439 I1.984 J0.
X9.789 Z0.408 I-1.984 J0.
X13.758 Z0.377 I1.984 J0.
X9.789 Z0.345 I-1.984 J0.
X13.758 Z0.314 I1.984 J0.
X9.789 Z0.283 I-1.984 J0.
X13.758 Z0.252 I1.984 J0.
X9.789 Z0.221 I-1.984 J0.
X13.758 Z0.19 I1.984 J0.
X9.789 Z0.158 I-1.984 J0.
X13.758 Z0.127 I1.984 J0.
X9.789 Z0.096 I-1.984 J0.
X13.758 Z0.065 I1.984 J0.
X9.789 Z0.034 I-1.984 J0.
X13.758 Z0.003 I1.984 J0.
X9.789 Z-0.029 I-1.984 J0.
X13.758 Z-0.06 I1.984 J0.
X9.789 Z-0.091 I-1.984 J0.
X13.758 Z-0.122 I1.984 J0.
X9.789 Z-0.153 I-1.984 J0.
X13.758 Z-0.185 I1.984 J0.
X9.789 Z-0.216 I-1.984 J0.
X13.758 Z-0.247 I1.984 J0.
X9.789 Z-0.278 I-1.984 J0.
X13.758 Z-0.309 I1.984 J0.
X9.789 Z-0.34 I-1.984 J0.
X13.758 Z-0.372 I1.984 J0.
X9.789 Z-0.403 I-1.984 J0.
X13.758 Z-0.434 I1.984 J0.
X9.789 Z-0.465 I-1.984 J0.
X13.758 Z-0.496 I1.984 J0.
X9.789 Z-0.527 I-1.984 J0.
X13.758 Z-0.559 I1.984 J0.
X9.789 Z-0.59 I-1.984 J0.
X13.758 Z-0.621 I1.984 J0.
X9.789 Z-0.652 I-1.984 J0.
X13.758 Z-0.683 I1.984 J0.
X9.789 Z-0.714 I-1.984 J0.
X13.758 Z-0.746 I1.984 J0.
X9.789 Z-0.777 I-1.984 J0.
X13.758 Z-0.808 I1.984 J0.
X9.789 Z-0.839 I-1.984 J0.
X13.758 Z-0.87 I1.984 J0.
X9.789 Z-0.901 I-1.984 J0.
X13.758 Z-0.933 I1.984 J0.
X9.789 Z-0.964 I-1.984 J0.
X13.758 Z-0.995 I1.984 J0.
X9.789 Z-1.026 I-1.984 J0.
X13.758 Z-1.057 I1.984 J0.
X9.789 Z-1.088 I-1.984 J0.
X13.758 Z-1.12 I1.984 J0.
X9.789 Z-1.151 I-1.984 J0.
X13.758 Z-1.182 I1.984 J0.
X9.789 Z-1.213 I-1.984 J0.
X13.758 Z-1.244 I1.984 J0.
X9.789 Z-1.276 I-1.984 J0.
X13.758 Z-1.307 I1.984 J0.
X9.789 Z-1.338 I-1.984 J0.
X13.758 Z-1.369 I1.984 J0.
X9.789 Z-1.4 I-1.984 J0.
X13.758 Z-1.431 I1.984 J0.
X9.789 Z-1.463 I-1.984 J0.
X13.758 Z-1.494 I1.984 J0.
X9.789 Z-1.525 I-1.984 J0.
X13.758 Z-1.556 I1.984 J0.
X9.789 Z-1.587 I-1.984 J0.
X13.758 Z-1.618 I1.984 J0.
X9.789 Z-1.65 I-1.984 J0.
X13.758 Z-1.681 I1.984 J0.
X9.789 Z-1.712 I-1.984 J0.
X13.758 Z-1.743 I1.984 J0.
X9.789 Z-1.774 I-1.984 J0.
X13.758 Z-1.805 I1.984 J0.
X9.789 Z-1.837 I-1.984 J0.
X13.758 Z-1.868 I1.984 J0.
X9.789 Z-1.899 I-1.984 J0.
X13.758 Z-1.93 I1.984 J0.
X9.789 Z-1.961 I-1.984 J0.
X13.758 Z-1.992 I1.984 J0.
X9.789 Z-2.024 I-1.984 J0.
X13.758 Z-2.055 I1.984 J0.
X9.789 Z-2.086 I-1.984 J0.
X13.758 Z-2.117 I1.984 J0.
X9.789 Z-2.148 I-1.984 J0.
X13.758 Z-2.179 I1.984 J0.
X9.789 Z-2.211 I-1.984 J0.
X13.758 Z-2.242 I1.984 J0.
X9.789 Z-2.273 I-1.984 J0.
X13.758 Z-2.304 I1.984 J0.
X9.789 Z-2.335 I-1.984 J0.
X13.758 Z-2.366 I1.984 J0.
X9.789 Z-2.398 I-1.984 J0.
X13.758 Z-2.429 I1.984 J0.
X9.789 Z-2.46 I-1.984 J0.
X13.758 Z-2.491 I1.984 J0.
X9.789 Z-2.522 I-1.984 J0.
X13.758 Z-2.554 I1.984 J0.
X9.789 Z-2.585 I-1.984 J0.
X13.758 Z-2.616 I1.984 J0.
X9.789 Z-2.647 I-1.984 J0.
X13.758 Z-2.678 I1.984 J0.
X9.789 Z-2.709 I-1.984 J0.
X13.758 Z-2.741 I1.984 J0.
X9.789 Z-2.772 I-1.984 J0.
X13.758 Z-2.803 I1.984 J0.
X9.789 Z-2.834 I-1.984 J0.
X13.758 Z-2.865 I1.984 J0.
X9.789 Z-2.896 I-1.984 J0.
X13.758 Z-2.928 I1.984 J0.
X9.789 Z-2.959 I-1.984 J0.
X13.758 Z-2.99 I1.984 J0.
X9.789 Z-3.021 I-1.984 J0.
X13.758 Z-3.052 I1.984 J0.
X9.789 Z-3.083 I-1.984 J0.
X13.758 Z-3.115 I1.984 J0.
X9.789 Z-3.146 I-1.984 J0.
X13.758 Z-3.177 I1.984 J0.
X9.789 Z-3.208 I-1.984 J0.
X13.758 Z-3.239 I1.984 J0.
X9.789 Z-3.27 I-1.984 J0.
X13.758 Z-3.302 I1.984 J0.
X9.789 Z-3.333 I-1.984 J0.
X13.758 Z-3.364 I1.984 J0.
X9.789 Z-3.395 I-1.984 J0.
X13.758 Z-3.426 I1.984 J0.
X9.789 Z-3.457 I-1.984 J0.
X13.758 Z-3.489 I1.984 J0.
X9.789 Z-3.52 I-1.984 J0.
X13.758 Z-3.551 I1.984 J0.
X9.789 Z-3.582 I-1.984 J0.
X13.758 Z-3.613 I1.984 J0.
X9.789 Z-3.645 I-1.984 J0.
X13.758 Z-3.676 I1.984 J0.
X9.789 Z-3.707 I-1.984 J0.
X13.758 Z-3.738 I1.984 J0.
X9.789 Z-3.769 I-1.984 J0.
X13.758 Z-3.8 I1.984 J0.
X9.789 Z-3.832 I-1.984 J0.
X13.758 Z-3.863 I1.984 J0.
X9.789 Z-3.894 I-1.984 J0.
X13.758 Z-3.925 I1.984 J0.
X9.789 Z-3.956 I-1.984 J0.
X13.758 Z-3.987 I1.984 J0.
X9.789 Z-4.019 I-1.984 J0.
X13.758 Z-4.05 I1.984 J0.
X9.789 Z-4.081 I-1.984 J0.
X13.758 Z-4.112 I1.984 J0.
X9.789 Z-4.143 I-1.984 J0.
X13.758 Z-4.174 I1.984 J0.
X9.789 Z-4.206 I-1.984 J0.
X13.758 Z-4.237 I1.984 J0.
X9.789 Z-4.268 I-1.984 J0.
X13.758 Z-4.299 I1.984 J0.
X9.789 Z-4.33 I-1.984 J0.
X13.758 Z-4.361 I1.984 J0.
X9.789 Z-4.393 I-1.984 J0.
X13.758 Z-4.424 I1.984 J0.
X9.789 Z-4.455 I-1.984 J0.
X13.758 Z-4.486 I1.984 J0.
X9.789 Z-4.517 I-1.984 J0.
X13.758 Z-4.548 I1.984 J0.
X9.789 Z-4.58 I-1.984 J0.
X13.758 Z-4.611 I1.984 J0.
X9.789 Z-4.642 I-1.984 J0.
X11.956 Y139.811 Z-4.659 I1.984 J0.
X13.724 Y137.472 Z-4.675 I-0.182 J-1.976
X9.823 Y138.199 I-1.951 J0.363
X13.724 Y137.472 I1.951 J-0.363
X13.354 Y137.218 I-0.312 J0.058
G1 X13.198 Y137.247
X13.129 Y137.26 Z-4.667
X13.063 Y137.272 Z-4.644
X13.003 Y137.283 Z-4.606
X12.954 Y137.292 Z-4.555
X12.917 Y137.299 Z-4.495
X12.894 Y137.304 Z-4.428
X12.886 Y137.305 Z-4.358
G0 Z6.
X32.014 Y124.312
Z3.
G1 Z1.317 F800.
G18 G2 X32.332 Z1. I0.318 K0.
G1 X32.49
G17 G2 X32.808 Y123.995 I0. J-0.317
X28.839 Z0.969 I-1.984 J0.
X32.808 Z0.938 I1.984 J0.
X28.839 Z0.906 I-1.984 J0.
X32.808 Z0.875 I1.984 J0.
X28.839 Z0.844 I-1.984 J0.
X32.808 Z0.813 I1.984 J0.
X28.839 Z0.782 I-1.984 J0.
X32.808 Z0.751 I1.984 J0.
X28.839 Z0.719 I-1.984 J0.
X32.808 Z0.688 I1.984 J0.
X28.839 Z0.657 I-1.984 J0.
X32.808 Z0.626 I1.984 J0.
X28.839 Z0.595 I-1.984 J0.
X32.808 Z0.564 I1.984 J0.
X28.839 Z0.532 I-1.984 J0.
X32.808 Z0.501 I1.984 J0.
X28.839 Z0.47 I-1.984 J0.
X32.808 Z0.439 I1.984 J0.
X28.839 Z0.408 I-1.984 J0.
X32.808 Z0.377 I1.984 J0.
X28.839 Z0.345 I-1.984 J0.
X32.808 Z0.314 I1.984 J0.
X28.839 Z0.283 I-1.984 J0.
X32.808 Z0.252 I1.984 J0.
X28.839 Z0.221 I-1.984 J0.
X32.808 Z0.19 I1.984 J0.
X28.839 Z0.158 I-1.984 J0.
X32.808 Z0.127 I1.984 J0.
X28.839 Z0.096 I-1.984 J0.
X32.808 Z0.065 I1.984 J0.
X28.839 Z0.034 I-1.984 J0.
X32.808 Z0.003 I1.984 J0.
X28.839 Z-0.029 I-1.984 J0.
X32.808 Z-0.06 I1.984 J0.
X28.839 Z-0.091 I-1.984 J0.
X32.808 Z-0.122 I1.984 J0.
X28.839 Z-0.153 I-1.984 J0.
X32.808 Z-0.185 I1.984 J0.
X28.839 Z-0.216 I-1.984 J0.
X32.808 Z-0.247 I1.984 J0.
X28.839 Z-0.278 I-1.984 J0.
X32.808 Z-0.309 I1.984 J0.
X28.839 Z-0.34 I-1.984 J0.
X32.808 Z-0.372 I1.984 J0.
X28.839 Z-0.403 I-1.984 J0.
X32.808 Z-0.434 I1.984 J0.
X28.839 Z-0.465 I-1.984 J0.
X32.808 Z-0.496 I1.984 J0.
X28.839 Z-0.527 I-1.984 J0.
X32.808 Z-0.559 I1.984 J0.
X28.839 Z-0.59 I-1.984 J0.
X32.808 Z-0.621 I1.984 J0.
X28.839 Z-0.652 I-1.984 J0.
X32.808 Z-0.683 I1.984 J0.
X28.839 Z-0.714 I-1.984 J0.
X32.808 Z-0.746 I1.984 J0.
X28.839 Z-0.777 I-1.984 J0.
X32.808 Z-0.808 I1.984 J0.
X28.839 Z-0.839 I-1.984 J0.
X32.808 Z-0.87 I1.984 J0.
X28.839 Z-0.901 I-1.984 J0.
X32.808 Z-0.933 I1.984 J0.
X28.839 Z-0.964 I-1.984 J0.
X32.808 Z-0.995 I1.984 J0.
X28.839 Z-1.026 I-1.984 J0.
X32.808 Z-1.057 I1.984 J0.
X28.839 Z-1.088 I-1.984 J0.
X32.808 Z-1.12 I1.984 J0.
X28.839 Z-1.151 I-1.984 J0.
X32.808 Z-1.182 I1.984 J0.
X28.839 Z-1.213 I-1.984 J0.
X32.808 Z-1.244 I1.984 J0.
X28.839 Z-1.276 I-1.984 J0.
X32.808 Z-1.307 I1.984 J0.
X28.839 Z-1.338 I-1.984 J0.
X32.808 Z-1.369 I1.984 J0.
X28.839 Z-1.4 I-1.984 J0.
X32.808 Z-1.431 I1.984 J0.
X28.839 Z-1.463 I-1.984 J0.
X32.808 Z-1.494 I1.984 J0.
X28.839 Z-1.525 I-1.984 J0.
X32.808 Z-1.556 I1.984 J0.
X28.839 Z-1.587 I-1.984 J0.
X32.808 Z-1.618 I1.984 J0.
X28.839 Z-1.65 I-1.984 J0.
X32.808 Z-1.681 I1.984 J0.
X28.839 Z-1.712 I-1.984 J0.
X32.808 Z-1.743 I1.984 J0.
X28.839 Z-1.774 I-1.984 J0.
X32.808 Z-1.805 I1.984 J0.
X28.839 Z-1.837 I-1.984 J0.
X32.808 Z-1.868 I1.984 J0.
X28.839 Z-1.899 I-1.984 J0.
X32.808 Z-1.93 I1.984 J0.
X28.839 Z-1.961 I-1.984 J0.
X32.808 Z-1.992 I1.984 J0.
X28.839 Z-2.024 I-1.984 J0.
X32.808 Z-2.055 I1.984 J0.
X28.839 Z-2.086 I-1.984 J0.
X32.808 Z-2.117 I1.984 J0.
X28.839 Z-2.148 I-1.984 J0.
X32.808 Z-2.179 I1.984 J0.
X28.839 Z-2.211 I-1.984 J0.
X32.808 Z-2.242 I1.984 J0.
X28.839 Z-2.273 I-1.984 J0.
X32.808 Z-2.304 I1.984 J0.
X28.839 Z-2.335 I-1.984 J0.
X32.808 Z-2.366 I1.984 J0.
X28.839 Z-2.398 I-1.984 J0.
X32.808 Z-2.429 I1.984 J0.
X28.839 Z-2.46 I-1.984 J0.
X32.808 Z-2.491 I1.984 J0.
X28.839 Z-2.522 I-1.984 J0.
X32.808 Z-2.554 I1.984 J0.
X28.839 Z-2.585 I-1.984 J0.
X32.808 Z-2.616 I1.984 J0.
X28.839 Z-2.647 I-1.984 J0.
X32.808 Z-2.678 I1.984 J0.
X28.839 Z-2.709 I-1.984 J0.
X32.808 Z-2.741 I1.984 J0.
X28.839 Z-2.772 I-1.984 J0.
X32.808 Z-2.803 I1.984 J0.
X28.839 Z-2.834 I-1.984 J0.
X32.808 Z-2.865 I1.984 J0.
X28.839 Z-2.896 I-1.984 J0.
X32.808 Z-2.928 I1.984 J0.
X28.839 Z-2.959 I-1.984 J0.
X32.808 Z-2.99 I1.984 J0.
X28.839 Z-3.021 I-1.984 J0.
X32.808 Z-3.052 I1.984 J0.
X28.839 Z-3.083 I-1.984 J0.
X32.808 Z-3.115 I1.984 J0.
X28.839 Z-3.146 I-1.984 J0.
X32.808 Z-3.177 I1.984 J0.
X28.839 Z-3.208 I-1.984 J0.
X32.808 Z-3.239 I1.984 J0.
X28.839 Z-3.27 I-1.984 J0.
X32.808 Z-3.302 I1.984 J0.
X28.839 Z-3.333 I-1.984 J0.
X32.808 Z-3.364 I1.984 J0.
X28.839 Z-3.395 I-1.984 J0.
X32.808 Z-3.426 I1.984 J0.
X28.839 Z-3.457 I-1.984 J0.
X32.808 Z-3.489 I1.984 J0.
X28.839 Z-3.52 I-1.984 J0.
X32.808 Z-3.551 I1.984 J0.
X28.839 Z-3.582 I-1.984 J0.
X32.808 Z-3.613 I1.984 J0.
X28.839 Z-3.645 I-1.984 J0.
X32.808 Z-3.676 I1.984 J0.
X28.839 Z-3.707 I-1.984 J0.
X32.808 Z-3.738 I1.984 J0.
X28.839 Z-3.769 I-1.984 J0.
X32.808 Z-3.8 I1.984 J0.
X28.839 Z-3.832 I-1.984 J0.
X32.808 Z-3.863 I1.984 J0.
X28.839 Z-3.894 I-1.984 J0.
X32.808 Z-3.925 I1.984 J0.
X28.839 Z-3.956 I-1.984 J0.
X32.808 Z-3.987 I1.984 J0.
X28.839 Z-4.019 I-1.984 J0.
X32.808 Z-4.05 I1.984 J0.
X28.839 Z-4.081 I-1.984 J0.
X32.808 Z-4.112 I1.984 J0.
X28.839 Z-4.143 I-1.984 J0.
X32.808 Z-4.174 I1.984 J0.
X28.839 Z-4.206 I-1.984 J0.
X32.808 Z-4.237 I1.984 J0.
X28.839 Z-4.268 I-1.984 J0.
X32.808 Z-4.299 I1.984 J0.
X28.839 Z-4.33 I-1.984 J0.
X32.808 Z-4.361 I1.984 J0.
X28.839 Z-4.393 I-1.984 J0.
X32.808 Z-4.424 I1.984 J0.
X28.839 Z-4.455 I-1.984 J0.
X32.808 Z-4.486 I1.984 J0.
X28.839 Z-4.517 I-1.984 J0.
X32.808 Z-4.548 I1.984 J0.
X28.839 Z-4.58 I-1.984 J0.
X32.808 Z-4.611 I1.984 J0.
X28.839 Z-4.642 I-1.984 J0.
X31.006 Y125.971 Z-4.659 I1.984 J0.
X32.774 Y123.631 Z-4.675 I-0.182 J-1.976
X28.873 Y124.358 I-1.951 J0.363
X32.774 Y123.631 I1.951 J-0.363
X32.404 Y123.377 I-0.312 J0.058
G1 X32.248 Y123.406
X32.179 Y123.419 Z-4.667
X32.113 Y123.432 Z-4.644
X32.053 Y123.443 Z-4.606
X32.004 Y123.452 Z-4.555
X31.967 Y123.459 Z-4.495
X31.944 Y123.463 Z-4.428
X31.936 Y123.465 Z-4.358
G0 Z6.
X39.291 Y101.918
Z3.
G1 Z1.317 F800.
G18 G2 X39.608 Z1. I0.317 K0.
G1 X39.767
G17 G2 X40.084 Y101.6 I0. J-0.318
X36.116 Z0.969 I-1.984 J0.
X40.084 Z0.938 I1.984 J0.
X36.116 Z0.906 I-1.984 J0.
X40.084 Z0.875 I1.984 J0.
X36.116 Z0.844 I-1.984 J0.
X40.084 Z0.813 I1.984 J0.
X36.116 Z0.782 I-1.984 J0.
X40.084 Z0.751 I1.984 J0.
X36.116 Z0.719 I-1.984 J0.
X40.084 Z0.688 I1.984 J0.
X36.116 Z0.657 I-1.984 J0.
X40.084 Z0.626 I1.984 J0.
X36.116 Z0.595 I-1.984 J0.
X40.084 Z0.564 I1.984 J0.
X36.116 Z0.532 I-1.984 J0.
X40.084 Z0.501 I1.984 J0.
X36.116 Z0.47 I-1.984 J0.
X40.084 Z0.439 I1.984 J0.
X36.116 Z0.408 I-1.984 J0.
X40.084 Z0.377 I1.984 J0.
X36.116 Z0.345 I-1.984 J0.
X40.084 Z0.314 I1.984 J0.
X36.116 Z0.283 I-1.984 J0.
X40.084 Z0.252 I1.984 J0.
X36.116 Z0.221 I-1.984 J0.
X40.084 Z0.19 I1.984 J0.
X36.116 Z0.158 I-1.984 J0.
X40.084 Z0.127 I1.984 J0.
X36.116 Z0.096 I-1.984 J0.
X40.084 Z0.065 I1.984 J0.
X36.116 Z0.034 I-1.984 J0.
X40.084 Z0.003 I1.984 J0.
X36.116 Z-0.029 I-1.984 J0.
X40.084 Z-0.06 I1.984 J0.
X36.116 Z-0.091 I-1.984 J0.
X40.084 Z-0.122 I1.984 J0.
X36.116 Z-0.153 I-1.984 J0.
X40.084 Z-0.185 I1.984 J0.
X36.116 Z-0.216 I-1.984 J0.
X40.084 Z-0.247 I1.984 J0.
X36.116 Z-0.278 I-1.984 J0.
X40.084 Z-0.309 I1.984 J0.
X36.116 Z-0.34 I-1.984 J0.
X40.084 Z-0.372 I1.984 J0.
X36.116 Z-0.403 I-1.984 J0.
X40.084 Z-0.434 I1.984 J0.
X36.116 Z-0.465 I-1.984 J0.
X40.084 Z-0.496 I1.984 J0.
X36.116 Z-0.527 I-1.984 J0.
X40.084 Z-0.559 I1.984 J0.
X36.116 Z-0.59 I-1.984 J0.
X40.084 Z-0.621 I1.984 J0.
X36.116 Z-0.652 I-1.984 J0.
X40.084 Z-0.683 I1.984 J0.
X36.116 Z-0.714 I-1.984 J0.
X40.084 Z-0.746 I1.984 J0.
X36.116 Z-0.777 I-1.984 J0.
X40.084 Z-0.808 I1.984 J0.
X36.116 Z-0.839 I-1.984 J0.
X40.084 Z-0.87 I1.984 J0.
X36.116 Z-0.901 I-1.984 J0.
X40.084 Z-0.933 I1.984 J0.
X36.116 Z-0.964 I-1.984 J0.
X40.084 Z-0.995 I1.984 J0.
X36.116 Z-1.026 I-1.984 J0.
X40.084 Z-1.057 I1.984 J0.
X36.116 Z-1.088 I-1.984 J0.
X40.084 Z-1.12 I1.984 J0.
X36.116 Z-1.151 I-1.984 J0.
X40.084 Z-1.182 I1.984 J0.
X36.116 Z-1.213 I-1.984 J0.
X40.084 Z-1.244 I1.984 J0.
X36.116 Z-1.276 I-1.984 J0.
X40.084 Z-1.307 I1.984 J0.
X36.116 Z-1.338 I-1.984 J0.
X40.084 Z-1.369 I1.984 J0.
X36.116 Z-1.4 I-1.984 J0.
X40.084 Z-1.431 I1.984 J0.
X36.116 Z-1.463 I-1.984 J0.
X40.084 Z-1.494 I1.984 J0.
X36.116 Z-1.525 I-1.984 J0.
X40.084 Z-1.556 I1.984 J0.
X36.116 Z-1.587 I-1.984 J0.
X40.084 Z-1.618 I1.984 J0.
X36.116 Z-1.65 I-1.984 J0.
X40.084 Z-1.681 I1.984 J0.
X36.116 Z-1.712 I-1.984 J0.
X40.084 Z-1.743 I1.984 J0.
X36.116 Z-1.774 I-1.984 J0.
X40.084 Z-1.805 I1.984 J0.
X36.116 Z-1.837 I-1.984 J0.
X40.084 Z-1.868 I1.984 J0.
X36.116 Z-1.899 I-1.984 J0.
X40.084 Z-1.93 I1.984 J0.
X36.116 Z-1.961 I-1.984 J0.
X40.084 Z-1.992 I1.984 J0.
X36.116 Z-2.024 I-1.984 J0.
X40.084 Z-2.055 I1.984 J0.
X36.116 Z-2.086 I-1.984 J0.
X40.084 Z-2.117 I1.984 J0.
X36.116 Z-2.148 I-1.984 J0.
X40.084 Z-2.179 I1.984 J0.
X36.116 Z-2.211 I-1.984 J0.
X40.084 Z-2.242 I1.984 J0.
X36.116 Z-2.273 I-1.984 J0.
X40.084 Z-2.304 I1.984 J0.
X36.116 Z-2.335 I-1.984 J0.
X40.084 Z-2.366 I1.984 J0.
X36.116 Z-2.398 I-1.984 J0.
X40.084 Z-2.429 I1.984 J0.
X36.116 Z-2.46 I-1.984 J0.
X40.084 Z-2.491 I1.984 J0.
X36.116 Z-2.522 I-1.984 J0.
X40.084 Z-2.554 I1.984 J0.
X36.116 Z-2.585 I-1.984 J0.
X40.084 Z-2.616 I1.984 J0.
X36.116 Z-2.647 I-1.984 J0.
X40.084 Z-2.678 I1.984 J0.
X36.116 Z-2.709 I-1.984 J0.
X40.084 Z-2.741 I1.984 J0.
X36.116 Z-2.772 I-1.984 J0.
X40.084 Z-2.803 I1.984 J0.
X36.116 Z-2.834 I-1.984 J0.
X40.084 Z-2.865 I1.984 J0.
X36.116 Z-2.896 I-1.984 J0.
X40.084 Z-2.928 I1.984 J0.
X36.116 Z-2.959 I-1.984 J0.
