(CAROASEL BOTTOM MOUNT CUTOUT )
(T1  D=6.35 CR=0. - ZMIN=-4.675 - FLAT END MILL)
G90 G94 G91.1 G40 G49 G17
G21
G0 Z15

(2D CONTOUR1)
M5
T1 M6
S15000 M3
G54
M8
G0 X-90.927 Y118.416
G43 Z17. H1
Z7.
G1 Z5.135 F1600.
X-90.919 Y118.419 Z5.036
X-90.897 Y118.426 Z4.939
X-90.861 Y118.438 Z4.847
X-90.811 Y118.454 Z4.762
X-90.75 Y118.474 Z4.686
X-90.678 Y118.497 Z4.621
X-90.597 Y118.523 Z4.569
X-90.509 Y118.552 Z4.531
X-90.417 Y118.582 Z4.508
X-90.323 Y118.613 Z4.5
X-89.719 Y118.809
G2 X-88.919 Y118.401 I0.196 J-0.604
G1 X-59.095 Y26.613 Z2.815
G3 X-53.056 Y22.225 Z2.676 I6.039 J1.962
G1 X0. Z1.75
X53.056
G3 X59.095 Y26.613 I0. J6.35
G1 X91.885 Y127.531
G3 X89.579 Y134.631 I-6.039 J1.963
G1 X3.733 Y197.001
G3 X-3.733 I-3.733 J-5.137
G1 X-89.578 Y134.631
G3 X-91.885 Y127.531 I3.733 J-5.137
G1 X-59.095 Y26.613
G3 X-53.056 Y22.225 I6.039 J1.962
G1 X0.
X14.322 Z1.5
X53.056
G3 X59.095 Y26.613 I0. J6.35
G1 X91.885 Y127.531
G3 X89.579 Y134.631 I-6.039 J1.963
G1 X3.733 Y197.001
G3 X-3.733 I-3.733 J-5.137
G1 X-89.578 Y134.631
G3 X-91.885 Y127.531 I3.733 J-5.137
G1 X-59.095 Y26.613
G3 X-53.056 Y22.225 I6.039 J1.962
G1 X0.
X14.322
X28.645 Z1.25
X53.056
G3 X59.095 Y26.613 I0. J6.35
G1 X91.885 Y127.531
G3 X89.579 Y134.631 I-6.039 J1.963
G1 X3.733 Y197.001
G3 X-3.733 I-3.733 J-5.137
G1 X-89.578 Y134.631
G3 X-91.885 Y127.531 I3.733 J-5.137
G1 X-59.095 Y26.613
G3 X-53.056 Y22.225 I6.039 J1.962
G1 X14.322
X28.645
X42.967 Z1.
X53.056
G3 X59.095 Y26.613 I0. J6.35
G1 X91.885 Y127.531
G3 X89.579 Y134.631 I-6.039 J1.963
G1 X3.733 Y197.001
G3 X-3.733 I-3.733 J-5.137
G1 X-89.578 Y134.631
G3 X-91.885 Y127.531 I3.733 J-5.137
G1 X-59.095 Y26.613
G3 X-53.056 Y22.225 I6.039 J1.962
G1 X28.645
X42.967
X53.056 Z0.824
G3 X56.983 Y23.585 Z0.75 I0. J6.35
X59.095 Y26.613 I-3.927 J4.99
G1 X91.885 Y127.531
G3 X89.579 Y134.631 I-6.039 J1.963
G1 X3.733 Y197.001
G3 X-3.733 I-3.733 J-5.137
G1 X-89.578 Y134.631
G3 X-91.885 Y127.531 I3.733 J-5.137
G1 X-59.095 Y26.613
G3 X-53.056 Y22.225 I6.039 J1.962
G1 X42.967
X53.056
G3 X56.983 Y23.585 I0. J6.35
X59.095 Y26.613 Z0.685 I-3.927 J4.99
G1 X62.363 Y36.672 Z0.5
X91.885 Y127.531
G3 X89.579 Y134.631 I-6.039 J1.963
G1 X3.733 Y197.001
G3 X-3.733 I-3.733 J-5.137
G1 X-89.578 Y134.631
G3 X-91.885 Y127.531 I3.733 J-5.137
G1 X-59.095 Y26.613
G3 X-53.056 Y22.225 I6.039 J1.962
G1 X53.056
G3 X59.095 Y26.613 I0. J6.35
G1 X62.363 Y36.672
X66.789 Y50.294 Z0.25
X91.885 Y127.531
G3 X89.579 Y134.631 I-6.039 J1.963
G1 X3.733 Y197.001
G3 X-3.733 I-3.733 J-5.137
G1 X-89.578 Y134.631
G3 X-91.885 Y127.531 I3.733 J-5.137
G1 X-59.095 Y26.613
G3 X-53.056 Y22.225 I6.039 J1.962
G1 X53.056
G3 X59.095 Y26.613 I0. J6.35
G1 X66.789 Y50.294
X71.215 Y63.915 Z0.
X91.885 Y127.531
G3 X89.579 Y134.631 I-6.039 J1.963
G1 X3.733 Y197.001
G3 X-3.733 I-3.733 J-5.137
G1 X-89.578 Y134.631
G3 X-91.885 Y127.531 I3.733 J-5.137
G1 X-59.095 Y26.613
G3 X-53.056 Y22.225 I6.039 J1.962
G1 X53.056
G3 X59.095 Y26.613 I0. J6.35
G1 X66.789 Y50.294
X71.215 Y63.915
X75.641 Y77.537 Z-0.25
X91.885 Y127.531
G3 X89.579 Y134.631 I-6.039 J1.963
G1 X3.733 Y197.001
G3 X-3.733 I-3.733 J-5.137
G1 X-89.578 Y134.631
G3 X-91.885 Y127.531 I3.733 J-5.137
G1 X-59.095 Y26.613
G3 X-53.056 Y22.225 I6.039 J1.962
G1 X53.056
G3 X59.095 Y26.613 I0. J6.35
G1 X71.215 Y63.915
X75.641 Y77.537
X80.067 Y91.158 Z-0.5
X91.885 Y127.531
G3 X89.579 Y134.631 I-6.039 J1.963
G1 X3.733 Y197.001
G3 X-3.733 I-3.733 J-5.137
G1 X-89.578 Y134.631
G3 X-91.885 Y127.531 I3.733 J-5.137
G1 X-59.095 Y26.613
G3 X-53.056 Y22.225 I6.039 J1.962
G1 X53.056
G3 X59.095 Y26.613 I0. J6.35
G1 X75.641 Y77.537
X80.067 Y91.158
X84.493 Y104.78 Z-0.75
X91.885 Y127.531
G3 X89.579 Y134.631 I-6.039 J1.963
G1 X3.733 Y197.001
G3 X-3.733 I-3.733 J-5.137
G1 X-89.578 Y134.631
G3 X-91.885 Y127.531 I3.733 J-5.137
G1 X-59.095 Y26.613
G3 X-53.056 Y22.225 I6.039 J1.962
G1 X53.056
G3 X59.095 Y26.613 I0. J6.35
G1 X80.067 Y91.158
X84.493 Y104.78
X88.919 Y118.401 Z-1.
X91.885 Y127.531
G3 X89.579 Y134.631 I-6.039 J1.963
G1 X3.733 Y197.001
G3 X-3.733 I-3.733 J-5.137
G1 X-89.578 Y134.631
G3 X-91.885 Y127.531 I3.733 J-5.137
G1 X-59.095 Y26.613
G3 X-53.056 Y22.225 I6.039 J1.962
G1 X53.056
G3 X59.095 Y26.613 I0. J6.35
G1 X84.493 Y104.78
X88.919 Y118.401
X91.885 Y127.531 Z-1.168
G3 X91.619 Y132.138 Z-1.25 I-6.039 J1.963
X89.579 Y134.631 I-5.773 J-2.645
G1 X3.733 Y197.001
G3 X-3.733 I-3.733 J-5.137
G1 X-89.578 Y134.631
G3 X-91.885 Y127.531 I3.733 J-5.137
G1 X-59.095 Y26.613
G3 X-53.056 Y22.225 I6.039 J1.962
G1 X53.056
G3 X59.095 Y26.613 I0. J6.35
G1 X88.919 Y118.401
X91.885 Y127.531
G3 X91.619 Y132.138 I-6.039 J1.963
X89.579 Y134.631 Z-1.307 I-5.773 J-2.645
G1 X80.626 Y141.135 Z-1.5
X3.733 Y197.001
G3 X-3.733 I-3.733 J-5.137
G1 X-89.578 Y134.631
G3 X-91.885 Y127.531 I3.733 J-5.137
G1 X-59.095 Y26.613
G3 X-53.056 Y22.225 I6.039 J1.962
G1 X53.056
G3 X59.095 Y26.613 I0. J6.35
G1 X91.885 Y127.531
G3 X89.579 Y134.631 I-6.039 J1.963
G1 X80.626 Y141.135
X69.039 Y149.553 Z-1.75
X3.733 Y197.001
G3 X-3.733 I-3.733 J-5.137
G1 X-89.578 Y134.631
G3 X-91.885 Y127.531 I3.733 J-5.137
G1 X-59.095 Y26.613
G3 X-53.056 Y22.225 I6.039 J1.962
G1 X53.056
G3 X59.095 Y26.613 I0. J6.35
G1 X91.885 Y127.531
G3 X89.579 Y134.631 I-6.039 J1.963
G1 X69.039 Y149.553
X57.452 Y157.972 Z-2.
X3.733 Y197.001
G3 X-3.733 I-3.733 J-5.137
G1 X-89.578 Y134.631
G3 X-91.885 Y127.531 I3.733 J-5.137
G1 X-59.095 Y26.613
G3 X-53.056 Y22.225 I6.039 J1.962
G1 X53.056
G3 X59.095 Y26.613 I0. J6.35
G1 X91.885 Y127.531
G3 X89.579 Y134.631 I-6.039 J1.963
G1 X69.039 Y149.553
X57.452 Y157.972
X45.865 Y166.39 Z-2.25
X3.733 Y197.001
G3 X-3.733 I-3.733 J-5.137
G1 X-89.578 Y134.631
G3 X-91.885 Y127.531 I3.733 J-5.137
G1 X-59.095 Y26.613
G3 X-53.056 Y22.225 I6.039 J1.962
G1 X53.056
G3 X59.095 Y26.613 I0. J6.35
G1 X91.885 Y127.531
G3 X89.579 Y134.631 I-6.039 J1.963
G1 X57.452 Y157.972
X45.865 Y166.39
X34.278 Y174.809 Z-2.5
X3.733 Y197.001
G3 X-3.733 I-3.733 J-5.137
G1 X-89.578 Y134.631
G3 X-91.885 Y127.531 I3.733 J-5.137
G1 X-59.095 Y26.613
G3 X-53.056 Y22.225 I6.039 J1.962
G1 X53.056
G3 X59.095 Y26.613 I0. J6.35
G1 X91.885 Y127.531
G3 X89.579 Y134.631 I-6.039 J1.963
G1 X45.865 Y166.39
X34.278 Y174.809
X22.69 Y183.227 Z-2.75
X3.733 Y197.001
G3 X-3.733 I-3.733 J-5.137
G1 X-89.578 Y134.631
G3 X-91.885 Y127.531 I3.733 J-5.137
G1 X-59.095 Y26.613
G3 X-53.056 Y22.225 I6.039 J1.962
G1 X53.056
G3 X59.095 Y26.613 I0. J6.35
G1 X91.885 Y127.531
G3 X89.579 Y134.631 I-6.039 J1.963
G1 X34.278 Y174.809
X22.69 Y183.227
X11.103 Y191.646 Z-3.
X3.733 Y197.001
G3 X-3.733 I-3.733 J-5.137
G1 X-89.578 Y134.631
G3 X-91.885 Y127.531 I3.733 J-5.137
G1 X-59.095 Y26.613
G3 X-53.056 Y22.225 I6.039 J1.962
G1 X53.056
G3 X59.095 Y26.613 I0. J6.35
G1 X91.885 Y127.531
G3 X89.579 Y134.631 I-6.039 J1.963
G1 X22.69 Y183.227
X11.103 Y191.646
X3.733 Y197.001 Z-3.159
G3 X-1.214 Y198.096 Z-3.25 I-3.733 J-5.137
X-3.733 Y197.001 I1.214 J-6.232
G1 X-89.578 Y134.631
G3 X-91.885 Y127.531 I3.733 J-5.137
G1 X-59.095 Y26.613
G3 X-53.056 Y22.225 I6.039 J1.962
G1 X53.056
G3 X59.095 Y26.613 I0. J6.35
G1 X91.885 Y127.531
G3 X89.579 Y134.631 I-6.039 J1.963
G1 X11.103 Y191.646
X3.733 Y197.001
G3 X-1.214 Y198.096 I-3.733 J-5.137
X-3.733 Y197.001 Z-3.298 I1.214 J-6.232
G1 X-13.08 Y190.209 Z-3.5
X-89.578 Y134.631
G3 X-91.885 Y127.531 I3.733 J-5.137
G1 X-59.095 Y26.613
G3 X-53.056 Y22.225 I6.039 J1.962
G1 X53.056
G3 X59.095 Y26.613 I0. J6.35
G1 X91.885 Y127.531
G3 X89.579 Y134.631 I-6.039 J1.963
G1 X3.733 Y197.001
G3 X-3.733 I-3.733 J-5.137
G1 X-13.08 Y190.209
X-24.668 Y181.791 Z-3.75
X-89.578 Y134.631
G3 X-91.885 Y127.531 I3.733 J-5.137
G1 X-59.095 Y26.613
G3 X-53.056 Y22.225 I6.039 J1.962
G1 X53.056
G3 X59.095 Y26.613 I0. J6.35
G1 X91.885 Y127.531
G3 X89.579 Y134.631 I-6.039 J1.963
G1 X3.733 Y197.001
G3 X-3.733 I-3.733 J-5.137
G1 X-24.668 Y181.791
X-36.255 Y173.372 Z-4.
X-89.578 Y134.631
G3 X-91.885 Y127.531 I3.733 J-5.137
G1 X-59.095 Y26.613
G3 X-53.056 Y22.225 I6.039 J1.962
G1 X53.056
G3 X59.095 Y26.613 I0. J6.35
G1 X91.885 Y127.531
G3 X89.579 Y134.631 I-6.039 J1.963
G1 X3.733 Y197.001
G3 X-3.733 I-3.733 J-5.137
G1 X-24.668 Y181.791
X-36.255 Y173.372
X-47.842 Y164.954 Z-4.25
X-89.578 Y134.631
G3 X-91.885 Y127.531 I3.733 J-5.137
G1 X-59.095 Y26.613
G3 X-53.056 Y22.225 I6.039 J1.962
G1 X53.056
G3 X59.095 Y26.613 I0. J6.35
G1 X91.885 Y127.531
G3 X89.579 Y134.631 I-6.039 J1.963
G1 X3.733 Y197.001
G3 X-3.733 I-3.733 J-5.137
G1 X-36.255 Y173.372
X-47.842 Y164.954
X-59.429 Y156.535 Z-4.5
X-89.578 Y134.631
G3 X-91.885 Y127.531 I3.733 J-5.137
G1 X-59.095 Y26.613
G3 X-53.056 Y22.225 I6.039 J1.962
G1 X53.056
G3 X59.095 Y26.613 I0. J6.35
G1 X91.885 Y127.531
G3 X89.579 Y134.631 I-6.039 J1.963
G1 X3.733 Y197.001
G3 X-3.733 I-3.733 J-5.137
G1 X-47.842 Y164.954
X-59.429 Y156.535
X-67.54 Y150.642 Z-4.675
X-89.578 Y134.631
G3 X-91.885 Y127.531 I3.733 J-5.137
G1 X-59.095 Y26.613
G3 X-53.056 Y22.225 I6.039 J1.962
G1 X53.056
G3 X59.095 Y26.613 I0. J6.35
G1 X91.885 Y127.531
G3 X89.579 Y134.631 I-6.039 J1.963
G1 X3.733 Y197.001
G3 X-3.733 I-3.733 J-5.137
G1 X-59.429 Y156.535
X-67.54 Y150.642
G2 X-68.427 Y150.783 I-0.373 J0.514
G1 X-68.8 Y151.296
X-68.859 Y151.377 Z-4.667
X-68.916 Y151.455 Z-4.644
X-68.97 Y151.53 Z-4.606
X-69.02 Y151.598 Z-4.554
X-69.064 Y151.66 Z-4.489
X-69.102 Y151.712 Z-4.413
X-69.133 Y151.754 Z-4.328
X-69.155 Y151.785 Z-4.236
X-69.169 Y151.804 Z-4.139
X-69.174 Y151.81 Z-4.04
G0 Z17.
M5
G0 Z15
G0 X0 Y0

M9
M30
