(1001)
(T1  D=3.175 CR=0. - ZMIN=-4.175 - FLAT END MILL)
G90 G94 G91.1 G40 G49 G17
G21
G0 Z15

(2D CONTOUR2)
M5
T1 M6
S15000 M3
G54
M8
G0 X11.349 Y79.92
G43 Z16. H1
Z6.
G1 Z3.818 F800.
G19 G2 Y79.603 Z3.5 J-0.317 K0.
G1 Y79.285 F1600.
G17 G2 X11.031 Y78.967 I-0.318 J0.
G1 X4.355 Z3.442 F800.
G3 X-0.407 Y74.205 Z3.376 I0. J-4.762
G1 Y55.155 Z3.21
G3 X4.355 Y50.393 Z3.145 I4.763 J0.
G1 X20.23 Z3.006
G2 X24.993 Y45.63 Z2.941 I0. J-4.763
G1 Y4.355 Z2.581
G3 X29.755 Y-0.407 Z2.516 I4.762 J0.
G1 X48.805 Z2.349
G3 X53.568 Y4.355 Z2.284 I0. J4.763
G1 Y45.63 Z1.924
G2 X58.33 Y50.393 Z1.859 I4.763 J0.
G1 X74.205 Z1.72
G3 X78.967 Y55.155 Z1.655 I0. J4.762
G1 Y74.205 Z1.489
G3 X74.205 Y78.967 Z1.423 I-4.762 J0.
G1 X4.355 Z0.814
G3 X-0.404 Y74.391 Z0.75 I0. J-4.762
G1 X-0.407 Y74.205 F1600.
Y55.155
G3 X4.355 Y50.393 I4.763 J0.
G1 X20.23
G2 X24.993 Y45.63 I0. J-4.763
G1 Y4.355
G3 X29.755 Y-0.407 I4.762 J0.
G1 X48.805
G3 X53.568 Y4.355 I0. J4.763
G1 Y45.63
G2 X58.33 Y50.393 I4.763 J0.
G1 X74.205
G3 X78.967 Y55.155 I0. J4.762
G1 Y74.205
G3 X74.205 Y78.967 I-4.762 J0.
G1 X4.355
G3 X-0.404 Y74.391 I0. J-4.762
G1 X-0.407 Y74.205 Z0.748 F800.
Y55.155 Z0.582
G3 X4.355 Y50.393 Z0.517 I4.763 J0.
G1 X6.286 Z0.5
X20.23 F1600.
G2 X24.993 Y45.63 I0. J-4.763
G1 Y4.355
G3 X29.755 Y-0.407 I4.762 J0.
G1 X48.805
G3 X53.568 Y4.355 I0. J4.763
G1 Y45.63
G2 X58.33 Y50.393 I4.763 J0.
G1 X74.205
G3 X78.967 Y55.155 I0. J4.762
G1 Y74.205
G3 X74.205 Y78.967 I-4.762 J0.
G1 X4.355
G3 X-0.407 Y74.205 I0. J-4.762
G1 Y55.155
G3 X4.355 Y50.393 I4.763 J0.
G1 X6.286
X20.23 Z0.378 F800.
G2 X24.993 Y45.63 Z0.313 I0. J-4.763
G1 Y38.408 Z0.25
Y4.355 F1600.
G3 X29.755 Y-0.407 I4.762 J0.
G1 X48.805
G3 X53.568 Y4.355 I0. J4.763
G1 Y45.63
G2 X58.33 Y50.393 I4.763 J0.
G1 X74.205
G3 X78.967 Y55.155 I0. J4.762
G1 Y74.205
G3 X74.205 Y78.967 I-4.762 J0.
G1 X4.355
G3 X-0.407 Y74.205 I0. J-4.762
G1 Y55.155
G3 X4.355 Y50.393 I4.763 J0.
G1 X20.23
G2 X24.993 Y45.63 I0. J-4.763
G1 Y38.408
Y9.761 Z0. F800.
Y4.355 F1600.
G3 X29.755 Y-0.407 I4.762 J0.
G1 X48.805
G3 X53.568 Y4.355 I0. J4.763
G1 Y45.63
G2 X58.33 Y50.393 I4.763 J0.
G1 X74.205
G3 X78.967 Y55.155 I0. J4.762
G1 Y74.205
G3 X74.205 Y78.967 I-4.762 J0.
G1 X4.355
G3 X-0.407 Y74.205 I0. J-4.762
G1 Y55.155
G3 X4.355 Y50.393 I4.763 J0.
G1 X20.23
G2 X24.993 Y45.63 I0. J-4.763
G1 Y9.761
Y4.355 Z-0.047 F800.
G3 X29.755 Y-0.407 Z-0.112 I4.762 J0.
G1 X45.515 Z-0.25
X48.805 F1600.
G3 X53.568 Y4.355 I0. J4.763
G1 Y45.63
G2 X58.33 Y50.393 I4.763 J0.
G1 X74.205
G3 X78.967 Y55.155 I0. J4.762
G1 Y74.205
G3 X74.205 Y78.967 I-4.762 J0.
G1 X4.355
G3 X-0.407 Y74.205 I0. J-4.762
G1 Y55.155
G3 X4.355 Y50.393 I4.763 J0.
G1 X20.23
G2 X24.993 Y45.63 I0. J-4.763
G1 Y9.761
Y4.355
G3 X29.755 Y-0.407 I4.762 J0.
G1 X45.515
X48.805 Z-0.279 F800.
G3 X53.568 Y4.355 Z-0.344 I0. J4.763
G1 Y22.231 Z-0.5
Y45.63 F1600.
G2 X58.33 Y50.393 I4.763 J0.
G1 X74.205
G3 X78.967 Y55.155 I0. J4.762
G1 Y74.205
G3 X74.205 Y78.967 I-4.762 J0.
G1 X4.355
G3 X-0.407 Y74.205 I0. J-4.762
G1 Y55.155
G3 X4.355 Y50.393 I4.763 J0.
G1 X20.23
G2 X24.993 Y45.63 I0. J-4.763
G1 Y4.355
G3 X29.755 Y-0.407 I4.762 J0.
G1 X45.515
X48.805
G3 X53.568 Y4.355 I0. J4.763
G1 Y22.231
Y45.63 Z-0.704 F800.
G2 X56.179 Y49.879 Z-0.75 I4.763 J0.
X58.33 Y50.393 I2.151 J-4.249 F1600.
G1 X74.205
G3 X78.967 Y55.155 I0. J4.762
G1 Y74.205
G3 X74.205 Y78.967 I-4.762 J0.
G1 X4.355
G3 X-0.407 Y74.205 I0. J-4.762
G1 Y55.155
G3 X4.355 Y50.393 I4.763 J0.
G1 X20.23
G2 X24.993 Y45.63 I0. J-4.763
G1 Y4.355
G3 X29.755 Y-0.407 I4.762 J0.
G1 X48.805
G3 X53.568 Y4.355 I0. J4.763
G1 Y45.63
G2 X56.179 Y49.879 I4.763 J0.
X58.33 Y50.393 Z-0.769 I2.151 J-4.249 F800.
G1 X74.205 Z-0.908
G3 X78.967 Y55.155 Z-0.973 I0. J4.762
G1 Y58.214 Z-1.
Y74.205 F1600.
G3 X74.205 Y78.967 I-4.762 J0.
G1 X4.355
G3 X-0.407 Y74.205 I0. J-4.762
G1 Y55.155
G3 X4.355 Y50.393 I4.763 J0.
G1 X20.23
G2 X24.993 Y45.63 I0. J-4.763
G1 Y4.355
G3 X29.755 Y-0.407 I4.762 J0.
G1 X48.805
G3 X53.568 Y4.355 I0. J4.763
G1 Y45.63
G2 X58.33 Y50.393 I4.763 J0.
G1 X74.205
G3 X78.967 Y55.155 I0. J4.762
G1 Y58.214
Y74.205 Z-1.14 F800.
G3 X74.205 Y78.967 Z-1.205 I-4.762 J0.
G1 X69.03 Z-1.25
X4.355 F1600.
G3 X-0.407 Y74.205 I0. J-4.762
G1 Y55.155
G3 X4.355 Y50.393 I4.763 J0.
G1 X20.23
G2 X24.993 Y45.63 I0. J-4.763
G1 Y4.355
G3 X29.755 Y-0.407 I4.762 J0.
G1 X48.805
G3 X53.568 Y4.355 I0. J4.763
G1 Y45.63
G2 X58.33 Y50.393 I4.763 J0.
G1 X74.205
G3 X78.967 Y55.155 I0. J4.762
G1 Y74.205
G3 X74.205 Y78.967 I-4.762 J0.
G1 X69.03
X40.383 Z-1.5 F800.
X4.355 F1600.
G3 X-0.407 Y74.205 I0. J-4.762
G1 Y55.155
G3 X4.355 Y50.393 I4.763 J0.
G1 X20.23
G2 X24.993 Y45.63 I0. J-4.763
G1 Y4.355
G3 X29.755 Y-0.407 I4.762 J0.
G1 X48.805
G3 X53.568 Y4.355 I0. J4.763
G1 Y45.63
G2 X58.33 Y50.393 I4.763 J0.
G1 X74.205
G3 X78.967 Y55.155 I0. J4.762
G1 Y74.205
G3 X74.205 Y78.967 I-4.762 J0.
G1 X40.383
X11.735 Z-1.75 F800.
X4.355 F1600.
G3 X-0.407 Y74.205 I0. J-4.762
G1 Y55.155
G3 X4.355 Y50.393 I4.763 J0.
G1 X20.23
G2 X24.993 Y45.63 I0. J-4.763
G1 Y4.355
G3 X29.755 Y-0.407 I4.762 J0.
G1 X48.805
G3 X53.568 Y4.355 I0. J4.763
G1 Y45.63
G2 X58.33 Y50.393 I4.763 J0.
G1 X74.205
G3 X78.967 Y55.155 I0. J4.762
G1 Y74.205
G3 X74.205 Y78.967 I-4.762 J0.
G1 X40.383
X11.735
X4.355 Z-1.814 F800.
G3 X-0.407 Y74.205 Z-1.88 I0. J-4.762
G1 Y60.419 Z-2.
Y55.155 F1600.
G3 X4.355 Y50.393 I4.763 J0.
G1 X20.23
G2 X24.993 Y45.63 I0. J-4.763
G1 Y4.355
G3 X29.755 Y-0.407 I4.762 J0.
G1 X48.805
G3 X53.568 Y4.355 I0. J4.763
G1 Y45.63
G2 X58.33 Y50.393 I4.763 J0.
G1 X74.205
G3 X78.967 Y55.155 I0. J4.762
G1 Y74.205
G3 X74.205 Y78.967 I-4.762 J0.
G1 X11.735
X4.355
G3 X-0.407 Y74.205 I0. J-4.762
G1 Y60.419
Y55.155 Z-2.046 F800.
G3 X4.355 Y50.393 Z-2.111 I4.763 J0.
G1 X20.23 Z-2.25
X20.257 Y50.392
G2 X24.993 Y45.63 I-0.027 J-4.762 F1600.
G1 Y4.355
G3 X29.755 Y-0.407 I4.762 J0.
G1 X48.805
G3 X53.568 Y4.355 I0. J4.763
G1 Y45.63
G2 X58.33 Y50.393 I4.763 J0.
G1 X74.205
G3 X78.967 Y55.155 I0. J4.762
G1 Y74.205
G3 X74.205 Y78.967 I-4.762 J0.
G1 X4.355
G3 X-0.407 Y74.205 I0. J-4.762
G1 Y60.419
Y55.155
G3 X4.355 Y50.393 I4.763 J0.
G1 X20.23
X20.257 Y50.392
G2 X24.993 Y45.63 Z-2.315 I-0.027 J-4.762 F800.
G1 Y24.437 Z-2.5
Y4.355 F1600.
G3 X29.755 Y-0.407 I4.762 J0.
G1 X48.805
G3 X53.568 Y4.355 I0. J4.763
G1 Y45.63
G2 X58.33 Y50.393 I4.763 J0.
G1 X74.205
G3 X78.967 Y55.155 I0. J4.762
G1 Y74.205
G3 X74.205 Y78.967 I-4.762 J0.
G1 X4.355
G3 X-0.407 Y74.205 I0. J-4.762
G1 Y55.155
G3 X4.355 Y50.393 I4.763 J0.
G1 X20.23
G2 X24.993 Y45.63 I0. J-4.763
G1 Y24.437
Y4.355 Z-2.675 F800.
G3 X29.755 Y-0.407 Z-2.741 I4.762 J0.
G1 X30.839 Z-2.75
X48.805 F1600.
G3 X53.568 Y4.355 I0. J4.763
G1 Y45.63
G2 X58.33 Y50.393 I4.763 J0.
G1 X74.205
G3 X78.967 Y55.155 I0. J4.762
G1 Y74.205
G3 X74.205 Y78.967 I-4.762 J0.
G1 X4.355
G3 X-0.407 Y74.205 I0. J-4.762
G1 Y55.155
G3 X4.355 Y50.393 I4.763 J0.
G1 X20.23
G2 X24.993 Y45.63 I0. J-4.763
G1 Y24.437
Y4.355
G3 X29.755 Y-0.407 I4.762 J0.
G1 X30.839
X48.805 Z-2.907 F800.
G3 X53.568 Y4.355 Z-2.972 I0. J4.763
G1 Y7.556 Z-3.
Y45.63 F1600.
G2 X58.33 Y50.393 I4.763 J0.
G1 X74.205
G3 X78.967 Y55.155 I0. J4.762
G1 Y74.205
G3 X74.205 Y78.967 I-4.762 J0.
G1 X4.355
G3 X-0.407 Y74.205 I0. J-4.762
G1 Y55.155
G3 X4.355 Y50.393 I4.763 J0.
G1 X20.23
G2 X24.993 Y45.63 I0. J-4.763
G1 Y4.355
G3 X29.755 Y-0.407 I4.762 J0.
G1 X48.805
G3 X53.568 Y4.355 I0. J4.763
G1 Y7.556
Y36.203 Z-3.25 F800.
Y45.63 F1600.
G2 X58.33 Y50.393 I4.763 J0.
G1 X74.205
G3 X78.967 Y55.155 I0. J4.762
G1 Y74.205
G3 X74.205 Y78.967 I-4.762 J0.
G1 X4.355
G3 X-0.407 Y74.205 I0. J-4.762
G1 Y55.155
G3 X4.355 Y50.393 I4.763 J0.
G1 X20.23
G2 X24.993 Y45.63 I0. J-4.763
G1 Y4.355
G3 X29.755 Y-0.407 I4.762 J0.
G1 X48.805
G3 X53.568 Y4.355 I0. J4.763
G1 Y36.203
Y45.63 Z-3.332 F800.
G2 X58.33 Y50.393 Z-3.398 I4.763 J0.
G1 X70.069 Z-3.5
X74.205 F1600.
G3 X78.967 Y55.155 I0. J4.762
G1 Y74.205
G3 X74.205 Y78.967 I-4.762 J0.
G1 X4.355
G3 X-0.407 Y74.205 I0. J-4.762
G1 Y55.155
G3 X4.355 Y50.393 I4.763 J0.
G1 X20.23
G2 X24.993 Y45.63 I0. J-4.763
G1 Y4.355
G3 X29.755 Y-0.407 I4.762 J0.
G1 X48.805
G3 X53.568 Y4.355 I0. J4.763
G1 Y36.203
Y45.63
G2 X58.33 Y50.393 I4.763 J0.
G1 X70.069
X74.205 Z-3.536 F800.
G3 X78.967 Y55.155 Z-3.601 I0. J4.762
G1 Y72.185 Z-3.75
Y74.205 F1600.
G3 X74.205 Y78.967 I-4.762 J0.
G1 X4.355
G3 X-0.407 Y74.205 I0. J-4.762
G1 Y55.155
G3 X4.355 Y50.393 I4.763 J0.
G1 X20.23
G2 X24.993 Y45.63 I0. J-4.763
G1 Y4.355
G3 X29.755 Y-0.407 I4.762 J0.
G1 X48.805
G3 X53.568 Y4.355 I0. J4.763
G1 Y45.63
G2 X58.33 Y50.393 I4.763 J0.
G1 X70.069
X74.205
G3 X78.967 Y55.155 I0. J4.762
G1 Y72.185
Y74.205 Z-3.768 F800.
G3 X74.205 Y78.967 Z-3.833 I-4.762 J0.
G1 X55.058 Z-4.
X4.355 F1600.
G3 X-0.407 Y74.205 I0. J-4.762
G1 Y55.155
G3 X4.355 Y50.393 I4.763 J0.
G1 X20.23
G2 X24.993 Y45.63 I0. J-4.763
G1 Y4.355
G3 X29.755 Y-0.407 I4.762 J0.
G1 X48.805
G3 X53.568 Y4.355 I0. J4.763
G1 Y45.63
G2 X58.33 Y50.393 I4.763 J0.
G1 X74.205
G3 X78.967 Y55.155 I0. J4.762
G1 Y72.185
Y74.205
G3 X74.205 Y78.967 I-4.762 J0.
G1 X55.058
X35.005 Z-4.175 F800.
X4.355 F1600.
G3 X-0.407 Y74.205 I0. J-4.762
G1 Y55.155
G3 X4.355 Y50.393 I4.763 J0.
G1 X20.23
G2 X24.993 Y45.63 I0. J-4.763
G1 Y4.355
G3 X29.755 Y-0.407 I4.762 J0.
G1 X48.805
G3 X53.568 Y4.355 I0. J4.763
G1 Y45.63
G2 X58.33 Y50.393 I4.763 J0.
G1 X74.205
G3 X78.967 Y55.155 I0. J4.762
G1 Y74.205
G3 X74.205 Y78.967 I-4.762 J0.
G1 X35.005
G2 X34.688 Y79.285 I0. J0.318
G1 Y79.603
G19 G3 Y79.92 Z-3.858 J0. K0.318
G0 Z6.
X79.92 Y158.651
G1 Z3.818 F800.
G18 G3 X79.603 Z3.5 I-0.317 K0.
G1 X79.285 F1600.
G17 G2 X78.967 Y158.969 I0. J0.318
G1 Y165.645 Z3.442 F800.
G3 X74.205 Y170.408 Z3.376 I-4.762 J0.
G1 X4.355 Z2.767
G3 X-0.407 Y165.645 Z2.702 I0. J-4.762
G1 Y146.595 Z2.535
G3 X4.355 Y141.833 Z2.47 I4.763 J0.
G1 X20.23 Z2.332
G2 X24.993 Y137.07 Z2.266 I0. J-4.762
G1 Y95.795 Z1.906
G3 X29.755 Y91.033 Z1.841 I4.762 J0.
G1 X48.805 Z1.675
G3 X53.568 Y95.795 Z1.609 I0. J4.762
G1 Y137.07 Z1.249
G2 X58.33 Y141.833 Z1.184 I4.763 J0.
G1 X74.205 Z1.045
G3 X78.967 Y146.595 Z0.98 I0. J4.762
G1 Y165.645 Z0.814
G3 X74.391 Y170.404 Z0.75 I-4.762 J0.
G1 X74.205 Y170.408 F1600.
X4.355
G3 X-0.407 Y165.645 I0. J-4.762
G1 Y146.595
G3 X4.355 Y141.833 I4.763 J0.
G1 X20.23
G2 X24.993 Y137.07 I0. J-4.762
G1 Y95.795
G3 X29.755 Y91.033 I4.762 J0.
G1 X48.805
G3 X53.568 Y95.795 I0. J4.762
G1 Y137.07
G2 X58.33 Y141.833 I4.763 J0.
G1 X74.205
G3 X78.967 Y146.595 I0. J4.762
G1 Y165.645
G3 X74.391 Y170.404 I-4.762 J0.
G1 X74.205 Y170.408 Z0.748 F800.
X45.744 Z0.5
X4.355 F1600.
G3 X-0.407 Y165.645 I0. J-4.762
G1 Y146.595
G3 X4.355 Y141.833 I4.763 J0.
G1 X20.23
G2 X24.993 Y137.07 I0. J-4.762
G1 Y95.795
G3 X29.755 Y91.033 I4.762 J0.
G1 X48.805
G3 X53.568 Y95.795 I0. J4.762
G1 Y137.07
G2 X58.33 Y141.833 I4.763 J0.
G1 X74.205
G3 X78.967 Y146.595 I0. J4.762
G1 Y165.645
G3 X74.205 Y170.408 I-4.762 J0.
G1 X45.744
X17.096 Z0.25 F800.
X4.355 F1600.
G3 X-0.407 Y165.645 I0. J-4.762
G1 Y146.595
G3 X4.355 Y141.833 I4.763 J0.
G1 X20.23
G2 X24.993 Y137.07 I0. J-4.762
G1 Y95.795
G3 X29.755 Y91.033 I4.762 J0.
G1 X48.805
G3 X53.568 Y95.795 I0. J4.762
G1 Y137.07
G2 X58.33 Y141.833 I4.763 J0.
G1 X74.205
G3 X78.967 Y146.595 I0. J4.762
G1 Y165.645
G3 X74.205 Y170.408 I-4.762 J0.
G1 X17.096
X4.355 Z0.139 F800.
G3 X-0.407 Y165.645 Z0.074 I0. J-4.762
G1 Y157.22 Z0.
Y146.595 F1600.
G3 X4.355 Y141.833 I4.763 J0.
G1 X20.23
G2 X24.993 Y137.07 I0. J-4.762
G1 Y95.795
G3 X29.755 Y91.033 I4.762 J0.
G1 X48.805
G3 X53.568 Y95.795 I0. J4.762
G1 Y137.07
G2 X58.33 Y141.833 I4.763 J0.
G1 X74.205
G3 X78.967 Y146.595 I0. J4.762
G1 Y165.645
G3 X74.205 Y170.408 I-4.762 J0.
G1 X17.096
X4.355
G3 X-0.407 Y165.645 I0. J-4.762
G1 Y157.22
Y146.595 Z-0.093 F800.
G3 X4.355 Y141.833 Z-0.158 I4.763 J0.
G1 X14.896 Z-0.25
X20.23 F1600.
G2 X24.993 Y137.07 I0. J-4.762
G1 Y95.795
G3 X29.755 Y91.033 I4.762 J0.
G1 X48.805
G3 X53.568 Y95.795 I0. J4.762
G1 Y137.07
G2 X58.33 Y141.833 I4.763 J0.
G1 X74.205
G3 X78.967 Y146.595 I0. J4.762
G1 Y165.645
G3 X74.205 Y170.408 I-4.762 J0.
G1 X4.355
G3 X-0.407 Y165.645 I0. J-4.762
G1 Y146.595
G3 X4.355 Y141.833 I4.763 J0.
G1 X14.896
X20.23 Z-0.297 F800.
G2 X24.993 Y137.07 Z-0.362 I0. J-4.762
G1 Y121.238 Z-0.5
Y95.795 F1600.
G3 X29.755 Y91.033 I4.762 J0.
G1 X48.805
G3 X53.568 Y95.795 I0. J4.762
G1 Y137.07
G2 X58.33 Y141.833 I4.763 J0.
G1 X74.205
G3 X78.967 Y146.595 I0. J4.762
G1 Y165.645
G3 X74.205 Y170.408 I-4.762 J0.
G1 X4.355
G3 X-0.407 Y165.645 I0. J-4.762
G1 Y146.595
G3 X4.355 Y141.833 I4.763 J0.
G1 X14.896
X20.23
G2 X24.993 Y137.07 I0. J-4.762
G1 Y121.238
Y95.795 Z-0.722 F800.
G3 X26.031 Y92.827 Z-0.75 I4.762 J0.
X29.755 Y91.033 I3.724 J2.968 F1600.
G1 X48.805
G3 X53.568 Y95.795 I0. J4.762
G1 Y137.07
G2 X58.33 Y141.833 I4.763 J0.
G1 X74.205
G3 X78.967 Y146.595 I0. J4.762
G1 Y165.645
G3 X74.205 Y170.408 I-4.762 J0.
G1 X4.355
G3 X-0.407 Y165.645 I0. J-4.762
G1 Y146.595
G3 X4.355 Y141.833 I4.763 J0.
G1 X20.23
G2 X24.993 Y137.07 I0. J-4.762
G1 Y95.795
G3 X26.031 Y92.827 I4.762 J0.
X29.755 Y91.033 Z-0.787 I3.724 J2.968 F800.
G1 X48.805 Z-0.954
G3 X53.086 Y93.708 Z-1. I0. J4.762
X53.568 Y95.795 I-4.281 J2.087 F1600.
G1 Y137.07
G2 X58.33 Y141.833 I4.763 J0.
G1 X74.205
G3 X78.967 Y146.595 I0. J4.762
G1 Y165.645
G3 X74.205 Y170.408 I-4.762 J0.
G1 X4.355
G3 X-0.407 Y165.645 I0. J-4.762
G1 Y146.595
G3 X4.355 Y141.833 I4.763 J0.
G1 X20.23
G2 X24.993 Y137.07 I0. J-4.762
G1 Y95.795
G3 X29.755 Y91.033 I4.762 J0.
G1 X48.805
G3 X53.086 Y93.708 I0. J4.762
X53.568 Y95.795 Z-1.019 I-4.281 J2.087 F800.
G1 Y122.282 Z-1.25
Y137.07 F1600.
G2 X58.33 Y141.833 I4.763 J0.
G1 X74.205
G3 X78.967 Y146.595 I0. J4.762
G1 Y165.645
G3 X74.205 Y170.408 I-4.762 J0.
G1 X4.355
G3 X-0.407 Y165.645 I0. J-4.762
G1 Y146.595
G3 X4.355 Y141.833 I4.763 J0.
G1 X20.23
G2 X24.993 Y137.07 I0. J-4.762
G1 Y95.795
G3 X29.755 Y91.033 I4.762 J0.
G1 X48.805
G3 X53.568 Y95.795 I0. J4.762
G1 Y122.282
Y137.07 Z-1.379 F800.
G2 X58.33 Y141.833 Z-1.444 I4.763 J0.
G1 X64.708 Z-1.5
X74.205 F1600.
G3 X78.967 Y146.595 I0. J4.762
G1 Y165.645
G3 X74.205 Y170.408 I-4.762 J0.
G1 X4.355
G3 X-0.407 Y165.645 I0. J-4.762
G1 Y146.595
G3 X4.355 Y141.833 I4.763 J0.
G1 X20.23
G2 X24.993 Y137.07 I0. J-4.762
G1 Y95.795
G3 X29.755 Y91.033 I4.762 J0.
G1 X48.805
G3 X53.568 Y95.795 I0. J4.762
G1 Y122.282
Y137.07
G2 X58.33 Y141.833 I4.763 J0.
G1 X64.708
X74.205 Z-1.583 F800.
G3 X78.967 Y146.595 Z-1.648 I0. J4.762
G1 Y158.265 Z-1.75
Y165.645 F1600.
G3 X74.205 Y170.408 I-4.762 J0.
G1 X4.355
G3 X-0.407 Y165.645 I0. J-4.762
G1 Y146.595
G3 X4.355 Y141.833 I4.763 J0.
G1 X20.23
G2 X24.993 Y137.07 I0. J-4.762
G1 Y95.795
G3 X29.755 Y91.033 I4.762 J0.
G1 X48.805
G3 X53.568 Y95.795 I0. J4.762
G1 Y137.07
G2 X58.33 Y141.833 I4.763 J0.
G1 X74.205
G3 X78.967 Y146.595 I0. J4.762
G1 Y158.265
Y165.645 Z-1.814 F800.
G3 X74.205 Y170.408 Z-1.88 I-4.762 J0.
G1 X60.419 Z-2.
X4.355 F1600.
G3 X-0.407 Y165.645 I0. J-4.762
G1 Y146.595
G3 X4.355 Y141.833 I4.763 J0.
G1 X20.23
G2 X24.993 Y137.07 I0. J-4.762
G1 Y95.795
G3 X29.755 Y91.033 I4.762 J0.
G1 X48.805
G3 X53.568 Y95.795 I0. J4.762
G1 Y137.07
G2 X58.33 Y141.833 I4.763 J0.
G1 X74.205
G3 X78.967 Y146.595 I0. J4.762
G1 Y158.265
Y165.645
G3 X74.205 Y170.408 I-4.762 J0.
G1 X60.419
X31.772 Z-2.25 F800.
X4.355 F1600.
G3 X-0.407 Y165.645 I0. J-4.762
G1 Y146.595
G3 X4.355 Y141.833 I4.763 J0.
G1 X20.23
G2 X24.993 Y137.07 I0. J-4.762
G1 Y95.795
G3 X29.755 Y91.033 I4.762 J0.
G1 X48.805
G3 X53.568 Y95.795 I0. J4.762
G1 Y137.07
G2 X58.33 Y141.833 I4.763 J0.
G1 X74.205
G3 X78.967 Y146.595 I0. J4.762
G1 Y165.645
G3 X74.205 Y170.408 I-4.762 J0.
G1 X31.772
X4.355 Z-2.489 F800.
G3 X3.139 Y170.25 Z-2.5 I0. J-4.762
X-0.407 Y165.645 I1.216 J-4.605 F1600.
G1 Y146.595
G3 X4.355 Y141.833 I4.763 J0.
G1 X20.23
G2 X24.993 Y137.07 I0. J-4.762
G1 Y95.795
G3 X29.755 Y91.033 I4.762 J0.
G1 X48.805
G3 X53.568 Y95.795 I0. J4.762
G1 Y137.07
G2 X58.33 Y141.833 I4.763 J0.
G1 X74.205
G3 X78.967 Y146.595 I0. J4.762
G1 Y165.645
G3 X74.205 Y170.408 I-4.762 J0.
G1 X31.772
X4.355
G3 X3.139 Y170.25 I0. J-4.762
X-0.407 Y165.645 Z-2.555 I1.216 J-4.605 F800.
G1 Y146.595 Z-2.721
G3 X0.721 Y143.517 Z-2.75 I4.763 J0.
X4.355 Y141.833 I3.634 J3.078 F1600.
G1 X20.23
G2 X24.993 Y137.07 I0. J-4.762
G1 Y95.795
G3 X29.755 Y91.033 I4.762 J0.
G1 X48.805
G3 X53.568 Y95.795 I0. J4.762
G1 Y137.07
G2 X58.33 Y141.833 I4.763 J0.
G1 X74.205
G3 X78.967 Y146.595 I0. J4.762
G1 Y165.645
G3 X74.205 Y170.408 I-4.762 J0.
G1 X4.355
G3 X-0.407 Y165.645 I0. J-4.762
G1 Y146.595
G3 X0.721 Y143.517 I4.763 J0.
X4.355 Y141.833 Z-2.786 I3.634 J3.078 F800.
G1 X20.23 Z-2.925
G2 X24.993 Y137.07 Z-2.99 I0. J-4.762
G1 Y135.913 Z-3.
Y95.795 F1600.
G3 X29.755 Y91.033 I4.762 J0.
G1 X48.805
G3 X53.568 Y95.795 I0. J4.762
G1 Y137.07
G2 X58.33 Y141.833 I4.763 J0.
G1 X74.205
G3 X78.967 Y146.595 I0. J4.762
G1 Y165.645
G3 X74.205 Y170.408 I-4.762 J0.
G1 X4.355
G3 X-0.407 Y165.645 I0. J-4.762
G1 Y146.595
G3 X4.355 Y141.833 I4.763 J0.
G1 X20.23
G2 X24.993 Y137.07 I0. J-4.762
G1 Y135.913
Y107.266 Z-3.25 F800.
Y95.795 F1600.
G3 X29.755 Y91.033 I4.762 J0.
G1 X48.805
G3 X53.568 Y95.795 I0. J4.762
G1 Y137.07
G2 X58.33 Y141.833 I4.763 J0.
G1 X74.205
G3 X78.967 Y146.595 I0. J4.762
G1 Y165.645
G3 X74.205 Y170.408 I-4.762 J0.
G1 X4.355
G3 X-0.407 Y165.645 I0. J-4.762
G1 Y146.595
G3 X4.355 Y141.833 I4.763 J0.
G1 X20.23
G2 X24.993 Y137.07 I0. J-4.762
G1 Y107.266
Y95.795 Z-3.35 F800.
G3 X29.755 Y91.033 Z-3.415 I4.762 J0.
G1 X39.45 Z-3.5
X48.805 F1600.
G3 X53.568 Y95.795 I0. J4.762
G1 Y137.07
G2 X58.33 Y141.833 I4.763 J0.
G1 X74.205
G3 X78.967 Y146.595 I0. J4.762
G1 Y165.645
G3 X74.205 Y170.408 I-4.762 J0.
G1 X4.355
G3 X-0.407 Y165.645 I0. J-4.762
G1 Y146.595
G3 X4.355 Y141.833 I4.763 J0.
G1 X20.23
G2 X24.993 Y137.07 I0. J-4.762
G1 Y107.266
Y95.795
G3 X29.755 Y91.033 I4.762 J0.
G1 X39.45
X48.805 Z-3.582 F800.
G3 X53.568 Y95.795 Z-3.647 I0. J4.762
G1 Y107.606 Z-3.75
Y137.07 F1600.
G2 X58.33 Y141.833 I4.763 J0.
G1 X74.205
G3 X78.967 Y146.595 I0. J4.762
G1 Y165.645
G3 X74.205 Y170.408 I-4.762 J0.
G1 X4.355
G3 X-0.407 Y165.645 I0. J-4.762
G1 Y146.595
G3 X4.355 Y141.833 I4.763 J0.
G1 X20.23
G2 X24.993 Y137.07 I0. J-4.762
G1 Y95.795
G3 X29.755 Y91.033 I4.762 J0.
G1 X39.45
X48.805
G3 X53.568 Y95.795 I0. J4.762
G1 Y107.606
Y136.253 Z-4. F800.
Y137.07 F1600.
G2 X58.33 Y141.833 I4.763 J0.
G1 X74.205
G3 X78.967 Y146.595 I0. J4.762
G1 Y165.645
G3 X74.205 Y170.408 I-4.762 J0.
G1 X4.355
G3 X-0.407 Y165.645 I0. J-4.762
G1 Y146.595
G3 X4.355 Y141.833 I4.763 J0.
G1 X20.23
G2 X24.993 Y137.07 I0. J-4.762
G1 Y95.795
G3 X29.755 Y91.033 I4.762 J0.
G1 X48.805
G3 X53.568 Y95.795 I0. J4.762
G1 Y136.253
Y137.07 Z-4.007 F800.
G2 X58.33 Y141.833 Z-4.072 I4.763 J0.
G1 X70.086 Z-4.175
X74.205 F1600.
G3 X78.967 Y146.595 I0. J4.762
G1 Y165.645
G3 X74.205 Y170.408 I-4.762 J0.
G1 X4.355
G3 X-0.407 Y165.645 I0. J-4.762
G1 Y146.595
G3 X4.355 Y141.833 I4.763 J0.
G1 X20.23
G2 X24.993 Y137.07 I0. J-4.762
G1 Y95.795
G3 X29.755 Y91.033 I4.762 J0.
G1 X48.805
G3 X53.568 Y95.795 I0. J4.762
G1 Y136.253
Y137.07
G2 X58.33 Y141.833 I4.763 J0.
G1 X70.086
G2 X70.403 Y141.515 I0. J-0.318
G1 Y141.197
G19 G2 Y140.88 Z-3.858 J0. K0.318
G0 Z6.
X109.898 Y171.36
G1 Z3.818 F800.
G2 Y171.042 Z3.5 J-0.318 K0.
G1 Y170.725 F1600.
G17 G2 X109.581 Y170.408 I-0.317 J0.
G1 X95.795 Z3.38 F800.
G3 X91.033 Y165.645 Z3.314 I0. J-4.762
G1 Y146.595 Z3.148
G3 X95.795 Y141.833 Z3.083 I4.762 J0.
G1 X111.67 Z2.944
G2 X116.433 Y137.07 Z2.879 I0. J-4.762
G1 Y95.795 Z2.519
G3 X121.195 Y91.033 Z2.454 I4.762 J0.
G1 X140.245 Z2.287
G3 X145.008 Y95.795 Z2.222 I0. J4.762
G1 Y137.07 Z1.862
G2 X149.77 Y141.833 Z1.797 I4.762 J0.
G1 X165.645 Z1.658
G3 X170.408 Y146.595 Z1.593 I0. J4.762
G1 Y165.645 Z1.426
G3 X165.645 Y170.408 Z1.361 I-4.762 J0.
G1 X95.795 Z0.752
X95.609 Y170.404 Z0.75
G3 X91.033 Y165.645 I0.186 J-4.759 F1600.
G1 Y146.595
G3 X95.795 Y141.833 I4.762 J0.
G1 X111.67
G2 X116.433 Y137.07 I0. J-4.762
G1 Y95.795
G3 X121.195 Y91.033 I4.762 J0.
G1 X140.245
G3 X145.008 Y95.795 I0. J4.762
G1 Y137.07
G2 X149.77 Y141.833 I4.762 J0.
G1 X165.645
G3 X170.408 Y146.595 I0. J4.762
G1 Y165.645
G3 X165.645 Y170.408 I-4.762 J0.
G1 X95.795
X95.609 Y170.404
G3 X91.033 Y165.645 Z0.686 I0.186 J-4.759 F800.
G1 Y146.595 Z0.52
G3 X91.578 Y144.382 Z0.5 I4.762 J0.
X95.795 Y141.833 I4.217 J2.213 F1600.
G1 X111.67
G2 X116.433 Y137.07 I0. J-4.762
G1 Y95.795
G3 X121.195 Y91.033 I4.762 J0.
G1 X140.245
G3 X145.008 Y95.795 I0. J4.762
G1 Y137.07
G2 X149.77 Y141.833 I4.762 J0.
G1 X165.645
G3 X170.408 Y146.595 I0. J4.762
G1 Y165.645
G3 X165.645 Y170.408 I-4.762 J0.
G1 X95.795
G3 X91.033 Y165.645 I0. J-4.762
G1 Y146.595
G3 X91.578 Y144.382 I4.762 J0.
X95.795 Y141.833 Z0.455 I4.217 J2.213 F800.
G1 X111.67 Z0.316
G2 X116.433 Y137.07 Z0.251 I0. J-4.762
G1 Y136.958 Z0.25
Y95.795 F1600.
G3 X121.195 Y91.033 I4.762 J0.
G1 X140.245
G3 X145.008 Y95.795 I0. J4.762
G1 Y137.07
G2 X149.77 Y141.833 I4.762 J0.
G1 X165.645
G3 X170.408 Y146.595 I0. J4.762
G1 Y165.645
G3 X165.645 Y170.408 I-4.762 J0.
G1 X95.795
G3 X91.033 Y165.645 I0. J-4.762
G1 Y146.595
G3 X95.795 Y141.833 I4.762 J0.
G1 X111.67
G2 X116.433 Y137.07 I0. J-4.762
G1 Y136.958
Y108.311 Z0. F800.
Y95.795 F1600.
G3 X121.195 Y91.033 I4.762 J0.
G1 X140.245
G3 X145.008 Y95.795 I0. J4.762
G1 Y137.07
G2 X149.77 Y141.833 I4.762 J0.
G1 X165.645
G3 X170.408 Y146.595 I0. J4.762
G1 Y165.645
G3 X165.645 Y170.408 I-4.762 J0.
G1 X95.795
G3 X91.033 Y165.645 I0. J-4.762
G1 Y146.595
G3 X95.795 Y141.833 I4.762 J0.
G1 X111.67
G2 X116.433 Y137.07 I0. J-4.762
G1 Y136.958
Y108.311
Y95.795 Z-0.109 F800.
G3 X121.195 Y91.033 Z-0.175 I4.762 J0.
G1 X129.846 Z-0.25
X140.245 F1600.
G3 X145.008 Y95.795 I0. J4.762
G1 Y137.07
G2 X149.77 Y141.833 I4.762 J0.
G1 X165.645
G3 X170.408 Y146.595 I0. J4.762
G1 Y165.645
G3 X165.645 Y170.408 I-4.762 J0.
G1 X95.795
G3 X91.033 Y165.645 I0. J-4.762
G1 Y146.595
G3 X95.795 Y141.833 I4.762 J0.
G1 X111.67
G2 X116.433 Y137.07 I0. J-4.762
G1 Y108.311
Y95.795
G3 X121.195 Y91.033 I4.762 J0.
G1 X129.846
X140.245 Z-0.341 F800.
G3 X145.008 Y95.795 Z-0.406 I0. J4.762
G1 Y106.562 Z-0.5
Y137.07 F1600.
G2 X149.77 Y141.833 I4.762 J0.
G1 X165.645
G3 X170.408 Y146.595 I0. J4.762
G1 Y165.645
G3 X165.645 Y170.408 I-4.762 J0.
G1 X95.795
G3 X91.033 Y165.645 I0. J-4.762
G1 Y146.595
G3 X95.795 Y141.833 I4.762 J0.
G1 X111.67
G2 X116.433 Y137.07 I0. J-4.762
G1 Y95.795
G3 X121.195 Y91.033 I4.762 J0.
G1 X140.245
G3 X145.008 Y95.795 I0. J4.762
G1 Y106.562
Y135.209 Z-0.75 F800.
Y137.07 F1600.
G2 X149.77 Y141.833 I4.762 J0.
G1 X165.645
G3 X170.408 Y146.595 I0. J4.762
G1 Y165.645
G3 X165.645 Y170.408 I-4.762 J0.
G1 X95.795
G3 X91.033 Y165.645 I0. J-4.762
G1 Y146.595
G3 X95.795 Y141.833 I4.762 J0.
G1 X111.67
G2 X116.433 Y137.07 I0. J-4.762
G1 Y95.795
G3 X121.195 Y91.033 I4.762 J0.
G1 X140.245
G3 X145.008 Y95.795 I0. J4.762
G1 Y135.209
Y137.07 Z-0.766 F800.
G2 X149.77 Y141.833 Z-0.832 I4.762 J0.
G1 X165.645 Z-0.97
G3 X168.786 Y143.015 Z-1. I0. J4.762
X170.408 Y146.595 I-3.141 J3.58 F1600.
G1 Y165.645
G3 X165.645 Y170.408 I-4.762 J0.
G1 X95.795
G3 X91.033 Y165.645 I0. J-4.762
G1 Y146.595
G3 X95.795 Y141.833 I4.762 J0.
G1 X111.67
G2 X116.433 Y137.07 I0. J-4.762
G1 Y95.795
G3 X121.195 Y91.033 I4.762 J0.
G1 X140.245
G3 X145.008 Y95.795 I0. J4.762
G1 Y135.209
Y137.07
G2 X149.77 Y141.833 I4.762 J0.
G1 X165.645
G3 X168.786 Y143.015 I0. J4.762
X170.408 Y146.595 Z-1.035 I-3.141 J3.58 F800.
G1 Y165.645 Z-1.202
G3 X167.527 Y170.02 Z-1.25 I-4.762 J0.
X165.645 Y170.408 I-1.882 J-4.375 F1600.
G1 X95.795
G3 X91.033 Y165.645 I0. J-4.762
G1 Y146.595
G3 X95.795 Y141.833 I4.762 J0.
G1 X111.67
G2 X116.433 Y137.07 I0. J-4.762
G1 Y95.795
G3 X121.195 Y91.033 I4.762 J0.
G1 X140.245
G3 X145.008 Y95.795 I0. J4.762
G1 Y137.07
G2 X149.77 Y141.833 I4.762 J0.
G1 X165.645
G3 X170.408 Y146.595 I0. J4.762
G1 Y165.645
G3 X167.527 Y170.02 I-4.762 J0.
X165.645 Y170.408 Z-1.267 I-1.882 J-4.375 F800.
G1 X138.932 Z-1.5
X95.795 F1600.
G3 X91.033 Y165.645 I0. J-4.762
G1 Y146.595
G3 X95.795 Y141.833 I4.762 J0.
G1 X111.67
G2 X116.433 Y137.07 I0. J-4.762
G1 Y95.795
G3 X121.195 Y91.033 I4.762 J0.
G1 X140.245
G3 X145.008 Y95.795 I0. J4.762
G1 Y137.07
G2 X149.77 Y141.833 I4.762 J0.
G1 X165.645
G3 X170.408 Y146.595 I0. J4.762
G1 Y165.645
G3 X165.645 Y170.408 I-4.762 J0.
G1 X138.932
X110.285 Z-1.75 F800.
X95.795 F1600.
G3 X91.033 Y165.645 I0. J-4.762
G1 Y146.595
G3 X95.795 Y141.833 I4.762 J0.
G1 X111.67
G2 X116.433 Y137.07 I0. J-4.762
G1 Y95.795
G3 X121.195 Y91.033 I4.762 J0.
G1 X140.245
G3 X145.008 Y95.795 I0. J4.762
G1 Y137.07
G2 X149.77 Y141.833 I4.762 J0.
G1 X165.645
G3 X170.408 Y146.595 I0. J4.762
G1 Y165.645
G3 X165.645 Y170.408 I-4.762 J0.
G1 X110.285
X95.795 Z-1.876 F800.
G3 X91.033 Y165.645 Z-1.942 I0. J-4.762
G1 Y158.969 Z-2.
Y146.595 F1600.
G3 X95.795 Y141.833 I4.762 J0.
G1 X111.67
G2 X116.433 Y137.07 I0. J-4.762
G1 Y95.795
G3 X121.195 Y91.033 I4.762 J0.
G1 X140.245
G3 X145.008 Y95.795 I0. J4.762
G1 Y137.07
G2 X149.77 Y141.833 I4.762 J0.
G1 X165.645
G3 X170.408 Y146.595 I0. J4.762
G1 Y165.645
G3 X165.645 Y170.408 I-4.762 J0.
G1 X110.285
X95.795
G3 X91.033 Y165.645 I0. J-4.762
G1 Y158.969
Y146.595 Z-2.108 F800.
G3 X95.795 Y141.833 Z-2.173 I4.762 J0.
G1 X104.587 Z-2.25
X111.67 F1600.
G2 X116.433 Y137.07 I0. J-4.762
G1 Y95.795
G3 X121.195 Y91.033 I4.762 J0.
G1 X140.245
G3 X145.008 Y95.795 I0. J4.762
G1 Y137.07
G2 X149.77 Y141.833 I4.762 J0.
G1 X165.645
G3 X170.408 Y146.595 I0. J4.762
G1 Y165.645
G3 X165.645 Y170.408 I-4.762 J0.
G1 X95.795
G3 X91.033 Y165.645 I0. J-4.762
G1 Y146.595
G3 X95.795 Y141.833 I4.762 J0.
G1 X104.587
X111.67 Z-2.312 F800.
G2 X116.433 Y137.07 Z-2.377 I0. J-4.762
G1 Y122.986 Z-2.5
Y95.795 F1600.
G3 X121.195 Y91.033 I4.762 J0.
G1 X140.245
G3 X145.008 Y95.795 I0. J4.762
G1 Y137.07
G2 X149.77 Y141.833 I4.762 J0.
G1 X165.645
G3 X170.408 Y146.595 I0. J4.762
G1 Y165.645
G3 X165.645 Y170.408 I-4.762 J0.
G1 X95.795
G3 X91.033 Y165.645 I0. J-4.762
G1 Y146.595
G3 X95.795 Y141.833 I4.762 J0.
G1 X104.587
X111.67
G2 X116.433 Y137.07 I0. J-4.762
G1 Y122.986
Y95.795 Z-2.737 F800.
G3 X116.653 Y94.362 Z-2.75 I4.762 J0.
X121.195 Y91.033 I4.542 J1.433 F1600.
G1 X140.245
G3 X145.008 Y95.795 I0. J4.762
G1 Y137.07
G2 X149.77 Y141.833 I4.762 J0.
G1 X165.645
G3 X170.408 Y146.595 I0. J4.762
G1 Y165.645
G3 X165.645 Y170.408 I-4.762 J0.
G1 X95.795
G3 X91.033 Y165.645 I0. J-4.762
G1 Y146.595
G3 X95.795 Y141.833 I4.762 J0.
G1 X111.67
G2 X116.433 Y137.07 I0. J-4.762
G1 Y95.795
G3 X116.653 Y94.362 I4.762 J0.
X121.195 Y91.033 Z-2.803 I4.542 J1.433 F800.
G1 X140.245 Z-2.969
G3 X143.491 Y92.311 Z-3. I0. J4.762
X145.008 Y95.795 I-3.246 J3.484 F1600.
G1 Y137.07
G2 X149.77 Y141.833 I4.762 J0.
G1 X165.645
G3 X170.408 Y146.595 I0. J4.762
G1 Y165.645
G3 X165.645 Y170.408 I-4.762 J0.
G1 X95.795
G3 X91.033 Y165.645 I0. J-4.762
G1 Y146.595
G3 X95.795 Y141.833 I4.762 J0.
G1 X111.67
G2 X116.433 Y137.07 I0. J-4.762
G1 Y95.795
G3 X121.195 Y91.033 I4.762 J0.
G1 X140.245
G3 X143.491 Y92.311 I0. J4.762
X145.008 Y95.795 Z-3.034 I-3.246 J3.484 F800.
G1 Y120.533 Z-3.25
Y137.07 F1600.
G2 X149.77 Y141.833 I4.762 J0.
G1 X165.645
G3 X170.408 Y146.595 I0. J4.762
G1 Y165.645
G3 X165.645 Y170.408 I-4.762 J0.
G1 X95.795
G3 X91.033 Y165.645 I0. J-4.762
G1 Y146.595
G3 X95.795 Y141.833 I4.762 J0.
G1 X111.67
G2 X116.433 Y137.07 I0. J-4.762
G1 Y95.795
G3 X121.195 Y91.033 I4.762 J0.
G1 X140.245
G3 X145.008 Y95.795 I0. J4.762
G1 Y120.533
Y137.07 Z-3.394 F800.
G2 X149.77 Y141.833 Z-3.46 I4.762 J0.
G1 X154.4 Z-3.5
X165.645 F1600.
G3 X170.408 Y146.595 I0. J4.762
G1 Y165.645
G3 X165.645 Y170.408 I-4.762 J0.
G1 X95.795
G3 X91.033 Y165.645 I0. J-4.762
G1 Y146.595
G3 X95.795 Y141.833 I4.762 J0.
G1 X111.67
G2 X116.433 Y137.07 I0. J-4.762
G1 Y95.795
G3 X121.195 Y91.033 I4.762 J0.
G1 X140.245
G3 X145.008 Y95.795 I0. J4.762
G1 Y120.533
Y137.07
G2 X149.77 Y141.833 I4.762 J0.
G1 X154.4
X165.645 Z-3.598 F800.
G3 X170.408 Y146.595 Z-3.663 I0. J4.762
G1 Y156.516 Z-3.75
Y165.645 F1600.
G3 X165.645 Y170.408 I-4.762 J0.
G1 X95.795
G3 X91.033 Y165.645 I0. J-4.762
G1 Y146.595
G3 X95.795 Y141.833 I4.762 J0.
G1 X111.67
G2 X116.433 Y137.07 I0. J-4.762
G1 Y95.795
G3 X121.195 Y91.033 I4.762 J0.
G1 X140.245
G3 X145.008 Y95.795 I0. J4.762
G1 Y137.07
G2 X149.77 Y141.833 I4.762 J0.
G1 X165.645
G3 X170.408 Y146.595 I0. J4.762
G1 Y156.516
Y165.645 Z-3.83 F800.
G3 X165.645 Y170.408 Z-3.895 I-4.762 J0.
G1 X153.608 Z-4.
X95.795 F1600.
G3 X91.033 Y165.645 I0. J-4.762
G1 Y146.595
G3 X95.795 Y141.833 I4.762 J0.
G1 X111.67
G2 X116.433 Y137.07 I0. J-4.762
G1 Y95.795
G3 X121.195 Y91.033 I4.762 J0.
G1 X140.245
G3 X145.008 Y95.795 I0. J4.762
G1 Y137.07
G2 X149.77 Y141.833 I4.762 J0.
G1 X165.645
G3 X170.408 Y146.595 I0. J4.762
G1 Y156.516
Y165.645
G3 X165.645 Y170.408 I-4.762 J0.
G1 X153.608
X133.555 Z-4.175 F800.
X95.795 F1600.
G3 X91.033 Y165.645 I0. J-4.762
G1 Y146.595
G3 X95.795 Y141.833 I4.762 J0.
G1 X111.67
G2 X116.433 Y137.07 I0. J-4.762
G1 Y95.795
G3 X121.195 Y91.033 I4.762 J0.
G1 X140.245
G3 X145.008 Y95.795 I0. J4.762
G1 Y137.07
G2 X149.77 Y141.833 I4.762 J0.
G1 X165.645
G3 X170.408 Y146.595 I0. J4.762
G1 Y165.645
G3 X165.645 Y170.408 I-4.762 J0.
G1 X133.555
G2 X133.237 Y170.725 I0. J0.318
G1 Y171.042
G19 G3 Y171.36 Z-3.858 J0. K0.318
G0 Z6.
X171.36 Y60.102
G1 Z3.818 F800.
G18 G3 X171.042 Z3.5 I-0.318 K0.
G1 X170.725 F1600.
G17 G2 X170.408 Y60.419 I0. J0.318
G1 Y74.205 Z3.38 F800.
G3 X165.645 Y78.967 Z3.314 I-4.762 J0.
G1 X95.795 Z2.705
G3 X91.033 Y74.205 Z2.64 I0. J-4.762
G1 Y55.155 Z2.473
G3 X95.795 Y50.393 Z2.408 I4.762 J0.
G1 X111.67 Z2.269
G2 X116.433 Y45.63 Z2.204 I0. J-4.763
G1 Y4.355 Z1.844
G3 X121.195 Y-0.407 Z1.779 I4.762 J0.
G1 X140.245 Z1.612
G3 X145.008 Y4.355 Z1.547 I0. J4.763
G1 Y45.63 Z1.187
G2 X149.77 Y50.393 Z1.122 I4.762 J0.
G1 X165.645 Z0.983
G3 X170.408 Y55.155 Z0.918 I0. J4.762
G1 Y74.205 Z0.752
X170.404 Y74.391 Z0.75
G3 X165.645 Y78.967 I-4.759 J-0.186 F1600.
G1 X95.795
G3 X91.033 Y74.205 I0. J-4.762
G1 Y55.155
G3 X95.795 Y50.393 I4.762 J0.
G1 X111.67
G2 X116.433 Y45.63 I0. J-4.763
G1 Y4.355
G3 X121.195 Y-0.407 I4.762 J0.
G1 X140.245
G3 X145.008 Y4.355 I0. J4.763
G1 Y45.63
G2 X149.77 Y50.393 I4.762 J0.
G1 X165.645
G3 X170.408 Y55.155 I0. J4.762
G1 Y74.205
X170.404 Y74.391
G3 X165.645 Y78.967 Z0.686 I-4.759 J-0.186 F800.
G1 X144.293 Z0.5
X95.795 F1600.
G3 X91.033 Y74.205 I0. J-4.762
G1 Y55.155
G3 X95.795 Y50.393 I4.762 J0.
G1 X111.67
G2 X116.433 Y45.63 I0. J-4.763
G1 Y4.355
G3 X121.195 Y-0.407 I4.762 J0.
G1 X140.245
G3 X145.008 Y4.355 I0. J4.763
G1 Y45.63
G2 X149.77 Y50.393 I4.762 J0.
G1 X165.645
G3 X170.408 Y55.155 I0. J4.762
G1 Y74.205
G3 X165.645 Y78.967 I-4.762 J0.
G1 X144.293
X115.646 Z0.25 F800.
X95.795 F1600.
G3 X91.033 Y74.205 I0. J-4.762
G1 Y55.155
G3 X95.795 Y50.393 I4.762 J0.
G1 X111.67
G2 X116.433 Y45.63 I0. J-4.763
G1 Y4.355
G3 X121.195 Y-0.407 I4.762 J0.
G1 X140.245
G3 X145.008 Y4.355 I0. J4.763
G1 Y45.63
G2 X149.77 Y50.393 I4.762 J0.
G1 X165.645
G3 X170.408 Y55.155 I0. J4.762
G1 Y74.205
G3 X165.645 Y78.967 I-4.762 J0.
G1 X115.646
X95.795 Z0.077 F800.
G3 X91.033 Y74.205 Z0.011 I0. J-4.762
G1 Y72.89 Z0.
Y55.155 F1600.
G3 X95.795 Y50.393 I4.762 J0.
G1 X111.67
G2 X116.433 Y45.63 I0. J-4.763
G1 Y4.355
G3 X121.195 Y-0.407 I4.762 J0.
G1 X140.245
G3 X145.008 Y4.355 I0. J4.763
G1 Y45.63
G2 X149.77 Y50.393 I4.762 J0.
G1 X165.645
G3 X170.408 Y55.155 I0. J4.762
G1 Y74.205
G3 X165.645 Y78.967 I-4.762 J0.
G1 X115.646
X95.795
G3 X91.033 Y74.205 I0. J-4.762
G1 Y72.89
Y55.155 Z-0.155 F800.
G3 X95.795 Y50.393 Z-0.22 I4.762 J0.
G1 X99.227 Z-0.25
X111.67 F1600.
G2 X116.433 Y45.63 I0. J-4.763
G1 Y4.355
G3 X121.195 Y-0.407 I4.762 J0.
G1 X140.245
G3 X145.008 Y4.355 I0. J4.763
G1 Y45.63
G2 X149.77 Y50.393 I4.762 J0.
G1 X165.645
G3 X170.408 Y55.155 I0. J4.762
G1 Y74.205
G3 X165.645 Y78.967 I-4.762 J0.
G1 X95.795
G3 X91.033 Y74.205 I0. J-4.762
G1 Y55.155
G3 X95.795 Y50.393 I4.762 J0.
G1 X99.227
X111.67 Z-0.359 F800.
G2 X116.433 Y45.63 Z-0.424 I0. J-4.763
G1 Y36.907 Z-0.5
Y4.355 F1600.
G3 X121.195 Y-0.407 I4.762 J0.
G1 X140.245
G3 X145.008 Y4.355 I0. J4.763
G1 Y45.63
G2 X149.77 Y50.393 I4.762 J0.
G1 X165.645
G3 X170.408 Y55.155 I0. J4.762
G1 Y74.205
G3 X165.645 Y78.967 I-4.762 J0.
G1 X95.795
G3 X91.033 Y74.205 I0. J-4.762
G1 Y55.155
G3 X95.795 Y50.393 I4.762 J0.
G1 X111.67
G2 X116.433 Y45.63 I0. J-4.763
G1 Y36.907
Y8.26 Z-0.75 F800.
Y4.355 F1600.
G3 X121.195 Y-0.407 I4.762 J0.
G1 X140.245
G3 X145.008 Y4.355 I0. J4.763
G1 Y45.63
G2 X149.77 Y50.393 I4.762 J0.
G1 X165.645
G3 X170.408 Y55.155 I0. J4.762
G1 Y74.205
G3 X165.645 Y78.967 I-4.762 J0.
G1 X95.795
G3 X91.033 Y74.205 I0. J-4.762
G1 Y55.155
G3 X95.795 Y50.393 I4.762 J0.
G1 X111.67
G2 X116.433 Y45.63 I0. J-4.763
G1 Y8.26
Y4.355 Z-0.784 F800.
G3 X121.195 Y-0.407 Z-0.849 I4.762 J0.
G1 X138.456 Z-1.
X140.245 F1600.
G3 X145.008 Y4.355 I0. J4.763
G1 Y45.63
G2 X149.77 Y50.393 I4.762 J0.
G1 X165.645
G3 X170.408 Y55.155 I0. J4.762
G1 Y74.205
G3 X165.645 Y78.967 I-4.762 J0.
G1 X95.795
G3 X91.033 Y74.205 I0. J-4.762
G1 Y55.155
G3 X95.795 Y50.393 I4.762 J0.
G1 X111.67
G2 X116.433 Y45.63 I0. J-4.763
G1 Y8.26
Y4.355
G3 X121.195 Y-0.407 I4.762 J0.
G1 X138.456
X140.245 Z-1.016 F800.
G3 X145.008 Y4.355 Z-1.081 I0. J4.763
G1 Y23.732 Z-1.25
Y45.63 F1600.
G2 X149.77 Y50.393 I4.762 J0.
G1 X165.645
G3 X170.408 Y55.155 I0. J4.762
G1 Y74.205
G3 X165.645 Y78.967 I-4.762 J0.
G1 X95.795
G3 X91.033 Y74.205 I0. J-4.762
G1 Y55.155
G3 X95.795 Y50.393 I4.762 J0.
G1 X111.67
G2 X116.433 Y45.63 I0. J-4.763
G1 Y4.355
G3 X121.195 Y-0.407 I4.762 J0.
G1 X138.456
X140.245
G3 X145.008 Y4.355 I0. J4.763
G1 Y23.732
Y45.63 Z-1.441 F800.
G2 X149.042 Y50.336 Z-1.5 I4.762 J0.
X149.77 Y50.393 I0.728 J-4.706 F1600.
G1 X165.645
G3 X170.408 Y55.155 I0. J4.762
G1 Y74.205
G3 X165.645 Y78.967 I-4.762 J0.
G1 X95.795
G3 X91.033 Y74.205 I0. J-4.762
G1 Y55.155
G3 X95.795 Y50.393 I4.762 J0.
G1 X111.67
G2 X116.433 Y45.63 I0. J-4.763
G1 Y4.355
G3 X121.195 Y-0.407 I4.762 J0.
G1 X140.245
G3 X145.008 Y4.355 I0. J4.763
G1 Y45.63
G2 X149.042 Y50.336 I4.762 J0.
X149.77 Y50.393 Z-1.506 I0.728 J-4.706 F800.
G1 X165.645 Z-1.645
G3 X170.408 Y55.155 Z-1.71 I0. J4.762
G1 Y59.715 Z-1.75
Y74.205 F1600.
G3 X165.645 Y78.967 I-4.762 J0.
G1 X95.795
G3 X91.033 Y74.205 I0. J-4.762
G1 Y55.155
G3 X95.795 Y50.393 I4.762 J0.
G1 X111.67
G2 X116.433 Y45.63 I0. J-4.763
G1 Y4.355
G3 X121.195 Y-0.407 I4.762 J0.
G1 X140.245
G3 X145.008 Y4.355 I0. J4.763
G1 Y45.63
G2 X149.77 Y50.393 I4.762 J0.
G1 X165.645
G3 X170.408 Y55.155 I0. J4.762
G1 Y59.715
Y74.205 Z-1.876 F800.
G3 X165.645 Y78.967 Z-1.942 I-4.762 J0.
G1 X158.969 Z-2.
X95.795 F1600.
G3 X91.033 Y74.205 I0. J-4.762
G1 Y55.155
G3 X95.795 Y50.393 I4.762 J0.
G1 X111.67
G2 X116.433 Y45.63 I0. J-4.763
G1 Y4.355
G3 X121.195 Y-0.407 I4.762 J0.
G1 X140.245
G3 X145.008 Y4.355 I0. J4.763
G1 Y45.63
G2 X149.77 Y50.393 I4.762 J0.
G1 X165.645
G3 X170.408 Y55.155 I0. J4.762
G1 Y74.205
G3 X165.645 Y78.967 I-4.762 J0.
G1 X158.969
X130.322 Z-2.25 F800.
X95.795 F1600.
G3 X91.033 Y74.205 I0. J-4.762
G1 Y55.155
G3 X95.795 Y50.393 I4.762 J0.
G1 X111.67
G2 X116.433 Y45.63 I0. J-4.763
G1 Y4.355
G3 X121.195 Y-0.407 I4.762 J0.
G1 X140.245
G3 X145.008 Y4.355 I0. J4.763
G1 Y45.63
G2 X149.77 Y50.393 I4.762 J0.
G1 X165.645
G3 X170.408 Y55.155 I0. J4.762
G1 Y74.205
G3 X165.645 Y78.967 I-4.762 J0.
G1 X130.322
X101.674 Z-2.5 F800.
X95.795 F1600.
G3 X91.033 Y74.205 I0. J-4.762
G1 Y55.155
G3 X95.795 Y50.393 I4.762 J0.
G1 X111.67
G2 X116.433 Y45.63 I0. J-4.763
G1 Y4.355
G3 X121.195 Y-0.407 I4.762 J0.
G1 X140.245
G3 X145.008 Y4.355 I0. J4.763
G1 Y45.63
G2 X149.77 Y50.393 I4.762 J0.
G1 X165.645
G3 X170.408 Y55.155 I0. J4.762
G1 Y74.205
G3 X165.645 Y78.967 I-4.762 J0.
G1 X130.322
X101.674
X95.795 Z-2.551 F800.
G3 X91.033 Y74.205 Z-2.617 I0. J-4.762
G1 Y58.918 Z-2.75
Y55.155 F1600.
G3 X95.795 Y50.393 I4.762 J0.
G1 X111.67
G2 X116.433 Y45.63 I0. J-4.763
G1 Y4.355
G3 X121.195 Y-0.407 I4.762 J0.
G1 X140.245
G3 X145.008 Y4.355 I0. J4.763
G1 Y45.63
G2 X149.77 Y50.393 I4.762 J0.
G1 X165.645
G3 X170.408 Y55.155 I0. J4.762
G1 Y74.205
G3 X165.645 Y78.967 I-4.762 J0.
G1 X101.674
X95.795
G3 X91.033 Y74.205 I0. J-4.762
G1 Y58.918
Y55.155 Z-2.783 F800.
G3 X95.795 Y50.393 Z-2.848 I4.762 J0.
G1 X111.67 Z-2.987
G2 X113.172 Y50.149 Z-3. I0. J-4.763
X116.433 Y45.63 I-1.502 J-4.519 F1600.
G1 Y4.355
G3 X121.195 Y-0.407 I4.762 J0.
G1 X140.245
G3 X145.008 Y4.355 I0. J4.763
G1 Y45.63
G2 X149.77 Y50.393 I4.762 J0.
G1 X165.645
G3 X170.408 Y55.155 I0. J4.762
G1 Y74.205
G3 X165.645 Y78.967 I-4.762 J0.
G1 X95.795
G3 X91.033 Y74.205 I0. J-4.762
G1 Y58.918
Y55.155
G3 X95.795 Y50.393 I4.762 J0.
G1 X111.67
G2 X113.172 Y50.149 I0. J-4.763
X116.433 Y45.63 Z-3.052 I-1.502 J-4.519 F800.
G1 Y22.936 Z-3.25
Y4.355 F1600.
G3 X121.195 Y-0.407 I4.762 J0.
G1 X140.245
G3 X145.008 Y4.355 I0. J4.763
G1 Y45.63
G2 X149.77 Y50.393 I4.762 J0.
G1 X165.645
G3 X170.408 Y55.155 I0. J4.762
G1 Y74.205
G3 X165.645 Y78.967 I-4.762 J0.
G1 X95.795
G3 X91.033 Y74.205 I0. J-4.762
G1 Y55.155
G3 X95.795 Y50.393 I4.762 J0.
G1 X111.67
G2 X116.433 Y45.63 I0. J-4.763
G1 Y22.936
Y4.355 Z-3.412 F800.
G3 X121.195 Y-0.407 Z-3.477 I4.762 J0.
G1 X123.781 Z-3.5
X140.245 F1600.
G3 X145.008 Y4.355 I0. J4.763
G1 Y45.63
G2 X149.77 Y50.393 I4.762 J0.
G1 X165.645
G3 X170.408 Y55.155 I0. J4.762
G1 Y74.205
G3 X165.645 Y78.967 I-4.762 J0.
G1 X95.795
G3 X91.033 Y74.205 I0. J-4.762
G1 Y55.155
G3 X95.795 Y50.393 I4.762 J0.
G1 X111.67
G2 X116.433 Y45.63 I0. J-4.763
G1 Y22.936
Y4.355
G3 X121.195 Y-0.407 I4.762 J0.
G1 X123.781
X140.245 Z-3.644 F800.
G3 X145.008 Y4.355 Z-3.709 I0. J4.763
G1 Y9.057 Z-3.75
Y45.63 F1600.
G2 X149.77 Y50.393 I4.762 J0.
G1 X165.645
G3 X170.408 Y55.155 I0. J4.762
G1 Y74.205
G3 X165.645 Y78.967 I-4.762 J0.
G1 X95.795
G3 X91.033 Y74.205 I0. J-4.762
G1 Y55.155
G3 X95.795 Y50.393 I4.762 J0.
G1 X111.67
G2 X116.433 Y45.63 I0. J-4.763
G1 Y4.355
G3 X121.195 Y-0.407 I4.762 J0.
G1 X140.245
G3 X145.008 Y4.355 I0. J4.763
G1 Y9.057
Y37.704 Z-4. F800.
Y45.63 F1600.
G2 X149.77 Y50.393 I4.762 J0.
G1 X165.645
G3 X170.408 Y55.155 I0. J4.762
G1 Y74.205
G3 X165.645 Y78.967 I-4.762 J0.
G1 X95.795
G3 X91.033 Y74.205 I0. J-4.762
G1 Y55.155
G3 X95.795 Y50.393 I4.762 J0.
G1 X111.67
G2 X116.433 Y45.63 I0. J-4.763
G1 Y4.355
G3 X121.195 Y-0.407 I4.762 J0.
G1 X140.245
G3 X145.008 Y4.355 I0. J4.763
G1 Y37.704
Y45.63 Z-4.069 F800.
G2 X149.77 Y50.393 Z-4.134 I4.762 J0.
G1 X154.416 Z-4.175
X165.645 F1600.
G3 X170.408 Y55.155 I0. J4.762
G1 Y74.205
G3 X165.645 Y78.967 I-4.762 J0.
G1 X95.795
G3 X91.033 Y74.205 I0. J-4.762
G1 Y55.155
G3 X95.795 Y50.393 I4.762 J0.
G1 X111.67
G2 X116.433 Y45.63 I0. J-4.763
G1 Y4.355
G3 X121.195 Y-0.407 I4.762 J0.
G1 X140.245
G3 X145.008 Y4.355 I0. J4.763
G1 Y37.704
Y45.63
G2 X149.77 Y50.393 I4.762 J0.
G1 X154.416
G2 X154.734 Y50.075 I0. J-0.318
G1 Y49.757
G19 G2 Y49.44 Z-3.858 J0. K0.318
G0 Z16.
G17
M5
G0 Z15
G0 X0 Y0

M9
M30
