(T-BRACKET CUTOUT )
(T1  D=6.35 CR=0. - ZMIN=-4.175 - FLAT END MILL)
G90 G94 G91.1 G40 G49 G17
G21
G0 Z15

(2D CONTOUR2)
M5
T1 M6
S15000 M3
G54
M8
G0 X57.06 Y26.886
G43 Z16. H1
Z6.
G1 Z4.135 F1600.
G18 G3 X56.425 Z3.5 I-0.635 K0.
G1 X55.79
G17 G2 X55.155 Y27.521 I0. J0.635
G1 Y45.63 Z3.184
G2 X58.33 Y48.805 Z3.097 I3.175 J0.
G1 X74.205 Z2.82
G3 X80.555 Y55.155 Z2.646 I0. J6.35
G1 Y74.205 Z2.313
G3 X74.205 Y80.555 Z2.139 I-6.35 J0.
G1 X4.355 Z0.92
G3 X-1.99 Y74.453 Z0.75 I0. J-6.35
G1 X-1.995 Y74.205
Y55.155
G3 X4.355 Y48.805 I6.35 J0.
G1 X20.23
G2 X23.405 Y45.63 I0. J-3.175
G1 Y4.355
G3 X29.755 Y-1.995 I6.35 J0.
G1 X48.805
G3 X55.155 Y4.355 I0. J6.35
G1 Y45.63
G2 X58.33 Y48.805 I3.175 J0.
G1 X74.205
G3 X80.555 Y55.155 I0. J6.35
G1 Y74.205
G3 X74.205 Y80.555 I-6.35 J0.
G1 X4.355
G3 X-1.99 Y74.453 I0. J-6.35
G1 X-1.995 Y74.205 Z0.746
Y60.13 Z0.5
Y55.155
G3 X4.355 Y48.805 I6.35 J0.
G1 X20.23
G2 X23.405 Y45.63 I0. J-3.175
G1 Y4.355
G3 X29.755 Y-1.995 I6.35 J0.
G1 X48.805
G3 X55.155 Y4.355 I0. J6.35
G1 Y45.63
G2 X58.33 Y48.805 I3.175 J0.
G1 X74.205
G3 X80.555 Y55.155 I0. J6.35
G1 Y74.205
G3 X74.205 Y80.555 I-6.35 J0.
G1 X4.355
G3 X-1.995 Y74.205 I0. J-6.35
G1 Y60.13
Y55.155 Z0.413
G3 X3.729 Y48.836 Z0.25 I6.35 J0.
X4.355 Y48.805 I0.626 J6.319
G1 X20.23
G2 X23.405 Y45.63 I0. J-3.175
G1 Y4.355
G3 X29.755 Y-1.995 I6.35 J0.
G1 X48.805
G3 X55.155 Y4.355 I0. J6.35
G1 Y45.63
G2 X58.33 Y48.805 I3.175 J0.
G1 X74.205
G3 X80.555 Y55.155 I0. J6.35
G1 Y74.205
G3 X74.205 Y80.555 I-6.35 J0.
G1 X4.355
G3 X-1.995 Y74.205 I0. J-6.35
G1 Y60.13
Y55.155
G3 X3.729 Y48.836 I6.35 J0.
X4.355 Y48.805 Z0.239 I0.626 J6.319
G1 X18.05 Z0.
X20.23
G2 X23.405 Y45.63 I0. J-3.175
G1 Y4.355
G3 X29.755 Y-1.995 I6.35 J0.
G1 X48.805
G3 X55.155 Y4.355 I0. J6.35
G1 Y45.63
G2 X58.33 Y48.805 I3.175 J0.
G1 X74.205
G3 X80.555 Y55.155 I0. J6.35
G1 Y74.205
G3 X74.205 Y80.555 I-6.35 J0.
G1 X4.355
G3 X-1.995 Y74.205 I0. J-6.35
G1 Y55.155
G3 X4.355 Y48.805 I6.35 J0.
G1 X18.05
X20.23 Z-0.038
G2 X23.405 Y45.63 Z-0.125 I0. J-3.175
G1 Y38.474 Z-0.25
Y4.355
G3 X29.755 Y-1.995 I6.35 J0.
G1 X48.805
G3 X55.155 Y4.355 I0. J6.35
G1 Y45.63
G2 X58.33 Y48.805 I3.175 J0.
G1 X74.205
G3 X80.555 Y55.155 I0. J6.35
G1 Y74.205
G3 X74.205 Y80.555 I-6.35 J0.
G1 X4.355
G3 X-1.995 Y74.205 I0. J-6.35
G1 Y55.155
G3 X4.355 Y48.805 I6.35 J0.
G1 X18.05
X20.23
G2 X23.405 Y45.63 I0. J-3.175
G1 Y38.474
Y24.152 Z-0.5
Y4.355
G3 X29.755 Y-1.995 I6.35 J0.
G1 X48.805
G3 X55.155 Y4.355 I0. J6.35
G1 Y45.63
G2 X58.33 Y48.805 I3.175 J0.
G1 X74.205
G3 X80.555 Y55.155 I0. J6.35
G1 Y74.205
G3 X74.205 Y80.555 I-6.35 J0.
G1 X4.355
G3 X-1.995 Y74.205 I0. J-6.35
G1 Y55.155
G3 X4.355 Y48.805 I6.35 J0.
G1 X20.23
G2 X23.405 Y45.63 I0. J-3.175
G1 Y24.152
Y9.829 Z-0.75
Y4.355
G3 X29.755 Y-1.995 I6.35 J0.
G1 X48.805
G3 X55.155 Y4.355 I0. J6.35
G1 Y45.63
G2 X58.33 Y48.805 I3.175 J0.
G1 X74.205
G3 X80.555 Y55.155 I0. J6.35
G1 Y74.205
G3 X74.205 Y80.555 I-6.35 J0.
G1 X4.355
G3 X-1.995 Y74.205 I0. J-6.35
G1 Y55.155
G3 X4.355 Y48.805 I6.35 J0.
G1 X20.23
G2 X23.405 Y45.63 I0. J-3.175
G1 Y24.152
Y9.829
Y4.355 Z-0.846
G3 X28.634 Y-1.895 Z-1. I6.35 J0.
X29.755 Y-1.995 I1.121 J6.25
G1 X48.805
G3 X55.155 Y4.355 I0. J6.35
G1 Y45.63
G2 X58.33 Y48.805 I3.175 J0.
G1 X74.205
G3 X80.555 Y55.155 I0. J6.35
G1 Y74.205
G3 X74.205 Y80.555 I-6.35 J0.
G1 X4.355
G3 X-1.995 Y74.205 I0. J-6.35
G1 Y55.155
G3 X4.355 Y48.805 I6.35 J0.
G1 X20.23
G2 X23.405 Y45.63 I0. J-3.175
G1 Y9.829
Y4.355
G3 X28.634 Y-1.895 I6.35 J0.
X29.755 Y-1.995 Z-1.02 I1.121 J6.25
G1 X42.951 Z-1.25
X48.805
G3 X55.155 Y4.355 I0. J6.35
G1 Y45.63
G2 X58.33 Y48.805 I3.175 J0.
G1 X74.205
G3 X80.555 Y55.155 I0. J6.35
G1 Y74.205
G3 X74.205 Y80.555 I-6.35 J0.
G1 X4.355
G3 X-1.995 Y74.205 I0. J-6.35
G1 Y55.155
G3 X4.355 Y48.805 I6.35 J0.
G1 X20.23
G2 X23.405 Y45.63 I0. J-3.175
G1 Y4.355
G3 X29.755 Y-1.995 I6.35 J0.
G1 X42.951
X48.805 Z-1.352
G3 X54.977 Y2.863 Z-1.5 I0. J6.35
X55.155 Y4.355 I-6.172 J1.492
G1 Y45.63
G2 X58.33 Y48.805 I3.175 J0.
G1 X74.205
G3 X80.555 Y55.155 I0. J6.35
G1 Y74.205
G3 X74.205 Y80.555 I-6.35 J0.
G1 X4.355
G3 X-1.995 Y74.205 I0. J-6.35
G1 Y55.155
G3 X4.355 Y48.805 I6.35 J0.
G1 X20.23
G2 X23.405 Y45.63 I0. J-3.175
G1 Y4.355
G3 X29.755 Y-1.995 I6.35 J0.
G1 X42.951
X48.805
G3 X54.977 Y2.863 I0. J6.35
X55.155 Y4.355 Z-1.526 I-6.172 J1.492
G1 Y17.171 Z-1.75
Y45.63
G2 X58.33 Y48.805 I3.175 J0.
G1 X74.205
G3 X80.555 Y55.155 I0. J6.35
G1 Y74.205
G3 X74.205 Y80.555 I-6.35 J0.
G1 X4.355
G3 X-1.995 Y74.205 I0. J-6.35
G1 Y55.155
G3 X4.355 Y48.805 I6.35 J0.
G1 X20.23
G2 X23.405 Y45.63 I0. J-3.175
G1 Y4.355
G3 X29.755 Y-1.995 I6.35 J0.
G1 X48.805
G3 X55.155 Y4.355 I0. J6.35
G1 Y17.171
Y31.494 Z-2.
Y45.63
G2 X58.33 Y48.805 I3.175 J0.
G1 X74.205
G3 X80.555 Y55.155 I0. J6.35
G1 Y74.205
G3 X74.205 Y80.555 I-6.35 J0.
G1 X4.355
G3 X-1.995 Y74.205 I0. J-6.35
G1 Y55.155
G3 X4.355 Y48.805 I6.35 J0.
G1 X20.23
G2 X23.405 Y45.63 I0. J-3.175
G1 Y4.355
G3 X29.755 Y-1.995 I6.35 J0.
G1 X48.805
G3 X55.155 Y4.355 I0. J6.35
G1 Y31.494
Y45.63 Z-2.247
X55.16 Y45.816 Z-2.25
G2 X58.33 Y48.805 I3.17 J-0.186
G1 X74.205
G3 X80.555 Y55.155 I0. J6.35
G1 Y74.205
G3 X74.205 Y80.555 I-6.35 J0.
G1 X4.355
G3 X-1.995 Y74.205 I0. J-6.35
G1 Y55.155
G3 X4.355 Y48.805 I6.35 J0.
G1 X20.23
G2 X23.405 Y45.63 I0. J-3.175
G1 Y4.355
G3 X29.755 Y-1.995 I6.35 J0.
G1 X48.805
G3 X55.155 Y4.355 I0. J6.35
G1 Y31.494
Y45.63
X55.16 Y45.816
G2 X58.33 Y48.805 Z-2.334 I3.17 J-0.186
G1 X67.852 Z-2.5
X74.205
G3 X80.555 Y55.155 I0. J6.35
G1 Y74.205
G3 X74.205 Y80.555 I-6.35 J0.
G1 X4.355
G3 X-1.995 Y74.205 I0. J-6.35
G1 Y55.155
G3 X4.355 Y48.805 I6.35 J0.
G1 X20.23
G2 X23.405 Y45.63 I0. J-3.175
G1 Y4.355
G3 X29.755 Y-1.995 I6.35 J0.
G1 X48.805
G3 X55.155 Y4.355 I0. J6.35
G1 Y45.63
G2 X58.33 Y48.805 I3.175 J0.
G1 X67.852
X74.205 Z-2.611
G3 X80.241 Y53.183 Z-2.75 I0. J6.35
X80.555 Y55.155 I-6.036 J1.972
G1 Y74.205
G3 X74.205 Y80.555 I-6.35 J0.
G1 X4.355
G3 X-1.995 Y74.205 I0. J-6.35
G1 Y55.155
G3 X4.355 Y48.805 I6.35 J0.
G1 X20.23
G2 X23.405 Y45.63 I0. J-3.175
G1 Y4.355
G3 X29.755 Y-1.995 I6.35 J0.
G1 X48.805
G3 X55.155 Y4.355 I0. J6.35
G1 Y45.63
G2 X58.33 Y48.805 I3.175 J0.
G1 X67.852
X74.205
G3 X80.241 Y53.183 I0. J6.35
X80.555 Y55.155 Z-2.785 I-6.036 J1.972
G1 Y67.472 Z-3.
Y74.205
G3 X74.205 Y80.555 I-6.35 J0.
G1 X4.355
G3 X-1.995 Y74.205 I0. J-6.35
G1 Y55.155
G3 X4.355 Y48.805 I6.35 J0.
G1 X20.23
G2 X23.405 Y45.63 I0. J-3.175
G1 Y4.355
G3 X29.755 Y-1.995 I6.35 J0.
G1 X48.805
G3 X55.155 Y4.355 I0. J6.35
G1 Y45.63
G2 X58.33 Y48.805 I3.175 J0.
G1 X74.205
G3 X80.555 Y55.155 I0. J6.35
G1 Y67.472
Y74.205 Z-3.118
G3 X76.534 Y80.112 Z-3.25 I-6.35 J0.
X74.205 Y80.555 I-2.329 J-5.907
G1 X4.355
G3 X-1.995 Y74.205 I0. J-6.35
G1 Y55.155
G3 X4.355 Y48.805 I6.35 J0.
G1 X20.23
G2 X23.405 Y45.63 I0. J-3.175
G1 Y4.355
G3 X29.755 Y-1.995 I6.35 J0.
G1 X48.805
G3 X55.155 Y4.355 I0. J6.35
G1 Y45.63
G2 X58.33 Y48.805 I3.175 J0.
G1 X74.205
G3 X80.555 Y55.155 I0. J6.35
G1 Y67.472
Y74.205
G3 X76.534 Y80.112 I-6.35 J0.
X74.205 Y80.555 Z-3.292 I-2.329 J-5.907
G1 X62.268 Z-3.5
X4.355
G3 X-1.995 Y74.205 I0. J-6.35
G1 Y55.155
G3 X4.355 Y48.805 I6.35 J0.
G1 X20.23
G2 X23.405 Y45.63 I0. J-3.175
G1 Y4.355
G3 X29.755 Y-1.995 I6.35 J0.
G1 X48.805
G3 X55.155 Y4.355 I0. J6.35
G1 Y45.63
G2 X58.33 Y48.805 I3.175 J0.
G1 X74.205
G3 X80.555 Y55.155 I0. J6.35
G1 Y74.205
G3 X74.205 Y80.555 I-6.35 J0.
G1 X62.268
X47.945 Z-3.75
X4.355
G3 X-1.995 Y74.205 I0. J-6.35
G1 Y55.155
G3 X4.355 Y48.805 I6.35 J0.
G1 X20.23
G2 X23.405 Y45.63 I0. J-3.175
G1 Y4.355
G3 X29.755 Y-1.995 I6.35 J0.
G1 X48.805
G3 X55.155 Y4.355 I0. J6.35
G1 Y45.63
G2 X58.33 Y48.805 I3.175 J0.
G1 X74.205
G3 X80.555 Y55.155 I0. J6.35
G1 Y74.205
G3 X74.205 Y80.555 I-6.35 J0.
G1 X47.945
X33.623 Z-4.
X4.355
G3 X-1.995 Y74.205 I0. J-6.35
G1 Y55.155
G3 X4.355 Y48.805 I6.35 J0.
G1 X20.23
G2 X23.405 Y45.63 I0. J-3.175
G1 Y4.355
G3 X29.755 Y-1.995 I6.35 J0.
G1 X48.805
G3 X55.155 Y4.355 I0. J6.35
G1 Y45.63
G2 X58.33 Y48.805 I3.175 J0.
G1 X74.205
G3 X80.555 Y55.155 I0. J6.35
G1 Y74.205
G3 X74.205 Y80.555 I-6.35 J0.
G1 X47.945
X33.623
X23.597 Z-4.175
X4.355
G3 X-1.995 Y74.205 I0. J-6.35
G1 Y55.155
G3 X4.355 Y48.805 I6.35 J0.
G1 X20.23
G2 X23.405 Y45.63 I0. J-3.175
G1 Y4.355
G3 X29.755 Y-1.995 I6.35 J0.
G1 X48.805
G3 X55.155 Y4.355 I0. J6.35
G1 Y45.63
G2 X58.33 Y48.805 I3.175 J0.
G1 X74.205
G3 X80.555 Y55.155 I0. J6.35
G1 Y74.205
G3 X74.205 Y80.555 I-6.35 J0.
G1 X33.623
X23.597
G2 X22.962 Y81.19 I0. J0.635
G1 Y81.825
G19 G3 Y82.46 Z-3.54 J0. K0.635
G0 Z6.
X21.5 Y114.089
G1 Z4.135 F1600.
G18 G2 X22.135 Z3.5 I0.635 K0.
G1 X22.77
G17 G2 X23.405 Y113.454 I0. J-0.635
G1 Y95.795 Z3.192
G3 X29.755 Y89.445 Z3.018 I6.35 J0.
G1 X48.805 Z2.685
G3 X55.155 Y95.795 Z2.511 I0. J6.35
G1 Y137.07 Z1.791
G2 X58.33 Y140.245 Z1.704 I3.175 J0.
G1 X74.205 Z1.426
G3 X80.555 Y146.595 Z1.252 I0. J6.35
G1 Y165.645 Z0.92
G3 X74.453 Y171.99 Z0.75 I-6.35 J0.
G1 X74.205 Y171.995
X4.355
G3 X-1.995 Y165.645 I0. J-6.35
G1 Y146.595
G3 X4.355 Y140.245 I6.35 J0.
G1 X20.23
G2 X23.405 Y137.07 I0. J-3.175
G1 Y95.795
G3 X29.755 Y89.445 I6.35 J0.
G1 X48.805
G3 X55.155 Y95.795 I0. J6.35
G1 Y137.07
G2 X58.33 Y140.245 I3.175 J0.
G1 X74.205
G3 X80.555 Y146.595 I0. J6.35
G1 Y165.645
G3 X74.453 Y171.99 I-6.35 J0.
G1 X74.205 Y171.995 Z0.746
X60.13 Z0.5
X4.355
G3 X-1.995 Y165.645 I0. J-6.35
G1 Y146.595
G3 X4.355 Y140.245 I6.35 J0.
G1 X20.23
G2 X23.405 Y137.07 I0. J-3.175
G1 Y95.795
G3 X29.755 Y89.445 I6.35 J0.
G1 X48.805
G3 X55.155 Y95.795 I0. J6.35
G1 Y137.07
G2 X58.33 Y140.245 I3.175 J0.
G1 X74.205
G3 X80.555 Y146.595 I0. J6.35
G1 Y165.645
G3 X74.205 Y171.995 I-6.35 J0.
G1 X60.13
X45.808 Z0.25
X4.355
G3 X-1.995 Y165.645 I0. J-6.35
G1 Y146.595
G3 X4.355 Y140.245 I6.35 J0.
G1 X20.23
G2 X23.405 Y137.07 I0. J-3.175
G1 Y95.795
G3 X29.755 Y89.445 I6.35 J0.
G1 X48.805
G3 X55.155 Y95.795 I0. J6.35
G1 Y137.07
G2 X58.33 Y140.245 I3.175 J0.
G1 X74.205
G3 X80.555 Y146.595 I0. J6.35
G1 Y165.645
G3 X74.205 Y171.995 I-6.35 J0.
G1 X45.808
X31.485 Z0.
X4.355
G3 X-1.995 Y165.645 I0. J-6.35
G1 Y146.595
G3 X4.355 Y140.245 I6.35 J0.
G1 X20.23
G2 X23.405 Y137.07 I0. J-3.175
G1 Y95.795
G3 X29.755 Y89.445 I6.35 J0.
G1 X48.805
G3 X55.155 Y95.795 I0. J6.35
G1 Y137.07
G2 X58.33 Y140.245 I3.175 J0.
G1 X74.205
G3 X80.555 Y146.595 I0. J6.35
G1 Y165.645
G3 X74.205 Y171.995 I-6.35 J0.
G1 X45.808
X31.485
X17.163 Z-0.25
X4.355
G3 X-1.995 Y165.645 I0. J-6.35
G1 Y146.595
G3 X4.355 Y140.245 I6.35 J0.
G1 X20.23
G2 X23.405 Y137.07 I0. J-3.175
G1 Y95.795
G3 X29.755 Y89.445 I6.35 J0.
G1 X48.805
G3 X55.155 Y95.795 I0. J6.35
G1 Y137.07
G2 X58.33 Y140.245 I3.175 J0.
G1 X74.205
G3 X80.555 Y146.595 I0. J6.35
G1 Y165.645
G3 X74.205 Y171.995 I-6.35 J0.
G1 X31.485
X17.163
X4.355 Z-0.474
G3 X2.854 Y171.815 Z-0.5 I0. J-6.35
X-1.995 Y165.645 I1.501 J-6.17
G1 Y146.595
G3 X4.355 Y140.245 I6.35 J0.
G1 X20.23
G2 X23.405 Y137.07 I0. J-3.175
G1 Y95.795
G3 X29.755 Y89.445 I6.35 J0.
G1 X48.805
G3 X55.155 Y95.795 I0. J6.35
G1 Y137.07
G2 X58.33 Y140.245 I3.175 J0.
G1 X74.205
G3 X80.555 Y146.595 I0. J6.35
G1 Y165.645
G3 X74.205 Y171.995 I-6.35 J0.
G1 X17.163
X4.355
G3 X2.854 Y171.815 I0. J-6.35
X-1.995 Y165.645 Z-0.648 I1.501 J-6.17
G1 Y159.782 Z-0.75
Y146.595
G3 X4.355 Y140.245 I6.35 J0.
G1 X20.23
G2 X23.405 Y137.07 I0. J-3.175
G1 Y95.795
G3 X29.755 Y89.445 I6.35 J0.
G1 X48.805
G3 X55.155 Y95.795 I0. J6.35
G1 Y137.07
G2 X58.33 Y140.245 I3.175 J0.
G1 X74.205
G3 X80.555 Y146.595 I0. J6.35
G1 Y165.645
G3 X74.205 Y171.995 I-6.35 J0.
G1 X4.355
G3 X-1.995 Y165.645 I0. J-6.35
G1 Y159.782
Y146.595 Z-0.98
G3 X-1.894 Y145.466 Z-1. I6.35 J0.
X4.355 Y140.245 I6.249 J1.129
G1 X20.23
G2 X23.405 Y137.07 I0. J-3.175
G1 Y95.795
G3 X29.755 Y89.445 I6.35 J0.
G1 X48.805
G3 X55.155 Y95.795 I0. J6.35
G1 Y137.07
G2 X58.33 Y140.245 I3.175 J0.
G1 X74.205
G3 X80.555 Y146.595 I0. J6.35
G1 Y165.645
G3 X74.205 Y171.995 I-6.35 J0.
G1 X4.355
G3 X-1.995 Y165.645 I0. J-6.35
G1 Y146.595
G3 X-1.894 Y145.466 I6.35 J0.
X4.355 Y140.245 Z-1.154 I6.249 J1.129
G1 X9.838 Z-1.25
X20.23
G2 X23.405 Y137.07 I0. J-3.175
G1 Y95.795
G3 X29.755 Y89.445 I6.35 J0.
G1 X48.805
G3 X55.155 Y95.795 I0. J6.35
G1 Y137.07
G2 X58.33 Y140.245 I3.175 J0.
G1 X74.205
G3 X80.555 Y146.595 I0. J6.35
G1 Y165.645
G3 X74.205 Y171.995 I-6.35 J0.
G1 X4.355
G3 X-1.995 Y165.645 I0. J-6.35
G1 Y146.595
G3 X4.355 Y140.245 I6.35 J0.
G1 X9.838
X20.23 Z-1.431
G2 X23.231 Y138.107 Z-1.5 I0. J-3.175
X23.405 Y137.07 I-3.001 J-1.037
G1 Y95.795
G3 X29.755 Y89.445 I6.35 J0.
G1 X48.805
G3 X55.155 Y95.795 I0. J6.35
G1 Y137.07
G2 X58.33 Y140.245 I3.175 J0.
G1 X74.205
G3 X80.555 Y146.595 I0. J6.35
G1 Y165.645
G3 X74.205 Y171.995 I-6.35 J0.
G1 X4.355
G3 X-1.995 Y165.645 I0. J-6.35
G1 Y146.595
G3 X4.355 Y140.245 I6.35 J0.
G1 X20.23
G2 X23.231 Y138.107 I0. J-3.175
X23.405 Y137.07 Z-1.518 I-3.001 J-1.037
G1 Y123.804 Z-1.75
Y95.795
G3 X29.755 Y89.445 I6.35 J0.
G1 X48.805
G3 X55.155 Y95.795 I0. J6.35
G1 Y137.07
G2 X58.33 Y140.245 I3.175 J0.
G1 X74.205
G3 X80.555 Y146.595 I0. J6.35
G1 Y165.645
G3 X74.205 Y171.995 I-6.35 J0.
G1 X4.355
G3 X-1.995 Y165.645 I0. J-6.35
G1 Y146.595
G3 X4.355 Y140.245 I6.35 J0.
G1 X20.23
G2 X23.405 Y137.07 I0. J-3.175
G1 Y123.804
Y109.482 Z-2.
Y95.795
G3 X29.755 Y89.445 I6.35 J0.
G1 X48.805
G3 X55.155 Y95.795 I0. J6.35
G1 Y137.07
G2 X58.33 Y140.245 I3.175 J0.
G1 X74.205
G3 X80.555 Y146.595 I0. J6.35
G1 Y165.645
G3 X74.205 Y171.995 I-6.35 J0.
G1 X4.355
G3 X-1.995 Y165.645 I0. J-6.35
G1 Y146.595
G3 X4.355 Y140.245 I6.35 J0.
G1 X20.23
G2 X23.405 Y137.07 I0. J-3.175
G1 Y109.482
Y95.795 Z-2.239
G3 X23.437 Y95.16 Z-2.25 I6.35 J0.
X29.755 Y89.445 I6.318 J0.635
G1 X48.805
G3 X55.155 Y95.795 I0. J6.35
G1 Y137.07
G2 X58.33 Y140.245 I3.175 J0.
G1 X74.205
G3 X80.555 Y146.595 I0. J6.35
G1 Y165.645
G3 X74.205 Y171.995 I-6.35 J0.
G1 X4.355
G3 X-1.995 Y165.645 I0. J-6.35
G1 Y146.595
G3 X4.355 Y140.245 I6.35 J0.
G1 X20.23
G2 X23.405 Y137.07 I0. J-3.175
G1 Y109.482
Y95.795
G3 X23.437 Y95.16 I6.35 J0.
X29.755 Y89.445 Z-2.413 I6.318 J0.635
G1 X34.739 Z-2.5
X48.805
G3 X55.155 Y95.795 I0. J6.35
G1 Y137.07
G2 X58.33 Y140.245 I3.175 J0.
G1 X74.205
G3 X80.555 Y146.595 I0. J6.35
G1 Y165.645
G3 X74.205 Y171.995 I-6.35 J0.
G1 X4.355
G3 X-1.995 Y165.645 I0. J-6.35
G1 Y146.595
G3 X4.355 Y140.245 I6.35 J0.
G1 X20.23
G2 X23.405 Y137.07 I0. J-3.175
G1 Y95.795
G3 X29.755 Y89.445 I6.35 J0.
G1 X34.739
X48.805 Z-2.746
G3 X49.061 Y89.45 Z-2.75 I0. J6.35
X55.155 Y95.795 I-0.256 J6.345
G1 Y137.07
G2 X58.33 Y140.245 I3.175 J0.
G1 X74.205
G3 X80.555 Y146.595 I0. J6.35
G1 Y165.645
G3 X74.205 Y171.995 I-6.35 J0.
G1 X4.355
G3 X-1.995 Y165.645 I0. J-6.35
G1 Y146.595
G3 X4.355 Y140.245 I6.35 J0.
G1 X20.23
G2 X23.405 Y137.07 I0. J-3.175
G1 Y95.795
G3 X29.755 Y89.445 I6.35 J0.
G1 X48.805
G3 X49.061 Y89.45 I0. J6.35
X55.155 Y95.795 Z-2.92 I-0.256 J6.345
G1 Y100.399 Z-3.
Y137.07
G2 X58.33 Y140.245 I3.175 J0.
G1 X74.205
G3 X80.555 Y146.595 I0. J6.35
G1 Y165.645
G3 X74.205 Y171.995 I-6.35 J0.
G1 X4.355
G3 X-1.995 Y165.645 I0. J-6.35
G1 Y146.595
G3 X4.355 Y140.245 I6.35 J0.
G1 X20.23
G2 X23.405 Y137.07 I0. J-3.175
G1 Y95.795
G3 X29.755 Y89.445 I6.35 J0.
G1 X48.805
G3 X55.155 Y95.795 I0. J6.35
G1 Y100.399
Y114.722 Z-3.25
Y137.07
G2 X58.33 Y140.245 I3.175 J0.
G1 X74.205
G3 X80.555 Y146.595 I0. J6.35
G1 Y165.645
G3 X74.205 Y171.995 I-6.35 J0.
G1 X4.355
G3 X-1.995 Y165.645 I0. J-6.35
G1 Y146.595
G3 X4.355 Y140.245 I6.35 J0.
G1 X20.23
G2 X23.405 Y137.07 I0. J-3.175
G1 Y95.795
G3 X29.755 Y89.445 I6.35 J0.
G1 X48.805
G3 X55.155 Y95.795 I0. J6.35
G1 Y114.722
Y129.044 Z-3.5
Y137.07
G2 X58.33 Y140.245 I3.175 J0.
G1 X74.205
G3 X80.555 Y146.595 I0. J6.35
G1 Y165.645
G3 X74.205 Y171.995 I-6.35 J0.
G1 X4.355
G3 X-1.995 Y165.645 I0. J-6.35
G1 Y146.595
G3 X4.355 Y140.245 I6.35 J0.
G1 X20.23
G2 X23.405 Y137.07 I0. J-3.175
G1 Y95.795
G3 X29.755 Y89.445 I6.35 J0.
G1 X48.805
G3 X55.155 Y95.795 I0. J6.35
G1 Y114.722
Y129.044
Y137.07 Z-3.64
G2 X58.33 Y140.245 Z-3.727 I3.175 J0.
G1 X59.639 Z-3.75
X74.205
G3 X80.555 Y146.595 I0. J6.35
G1 Y165.645
G3 X74.205 Y171.995 I-6.35 J0.
G1 X4.355
G3 X-1.995 Y165.645 I0. J-6.35
G1 Y146.595
G3 X4.355 Y140.245 I6.35 J0.
G1 X20.23
G2 X23.405 Y137.07 I0. J-3.175
G1 Y95.795
G3 X29.755 Y89.445 I6.35 J0.
G1 X48.805
G3 X55.155 Y95.795 I0. J6.35
G1 Y129.044
Y137.07
G2 X58.33 Y140.245 I3.175 J0.
G1 X59.639
X73.962 Z-4.
X74.205
G3 X80.555 Y146.595 I0. J6.35
G1 Y165.645
G3 X74.205 Y171.995 I-6.35 J0.
G1 X4.355
G3 X-1.995 Y165.645 I0. J-6.35
G1 Y146.595
G3 X4.355 Y140.245 I6.35 J0.
G1 X20.23
G2 X23.405 Y137.07 I0. J-3.175
G1 Y95.795
G3 X29.755 Y89.445 I6.35 J0.
G1 X48.805
G3 X55.155 Y95.795 I0. J6.35
G1 Y137.07
G2 X58.33 Y140.245 I3.175 J0.
G1 X73.962
X74.205 Z-4.004
G3 X80.552 Y146.403 Z-4.175 I0. J6.35
G1 X80.555 Y146.595
Y165.645
G3 X74.205 Y171.995 I-6.35 J0.
G1 X4.355
G3 X-1.995 Y165.645 I0. J-6.35
G1 Y146.595
G3 X4.355 Y140.245 I6.35 J0.
G1 X20.23
G2 X23.405 Y137.07 I0. J-3.175
G1 Y95.795
G3 X29.755 Y89.445 I6.35 J0.
G1 X48.805
G3 X55.155 Y95.795 I0. J6.35
G1 Y137.07
G2 X58.33 Y140.245 I3.175 J0.
G1 X73.962
X74.205
G3 X80.552 Y146.403 I0. J6.35
G2 X81.206 Y147.019 I0.635 J-0.019
G1 X81.841 Y146.999
X81.94 Y146.996 Z-4.167
X82.037 Y146.994 Z-4.144
X82.129 Y146.991 Z-4.106
X82.214 Y146.988 Z-4.054
X82.29 Y146.986 Z-3.989
X82.354 Y146.984 Z-3.913
X82.406 Y146.982 Z-3.828
X82.444 Y146.981 Z-3.736
X82.468 Z-3.639
X82.475 Y146.98 Z-3.54
G0 Z6.
X148.5 Y108.847
G1 Z4.135 F1600.
G18 G3 X147.865 Z3.5 I-0.635 K0.
G1 X147.23
G17 G2 X146.595 Y109.482 I0. J0.635
G1 Y137.07 Z3.018
G2 X149.77 Y140.245 Z2.931 I3.175 J0.
G1 X165.645 Z2.654
G3 X171.995 Y146.595 Z2.48 I0. J6.35
G1 Y165.645 Z2.148
G3 X165.645 Y171.995 Z1.974 I-6.35 J0.
G1 X95.795 Z0.754
X95.547 Y171.99 Z0.75
G3 X89.445 Y165.645 I0.248 J-6.345
G1 Y146.595
G3 X95.795 Y140.245 I6.35 J0.
G1 X111.67
G2 X114.845 Y137.07 I0. J-3.175
G1 Y95.795
G3 X121.195 Y89.445 I6.35 J0.
G1 X140.245
G3 X146.595 Y95.795 I0. J6.35
G1 Y137.07
G2 X149.77 Y140.245 I3.175 J0.
G1 X165.645
G3 X171.995 Y146.595 I0. J6.35
G1 Y165.645
G3 X165.645 Y171.995 I-6.35 J0.
G1 X95.795
X95.547 Y171.99
G3 X89.445 Y165.645 Z0.58 I0.248 J-6.345
G1 Y161.049 Z0.5
Y146.595
G3 X95.795 Y140.245 I6.35 J0.
G1 X111.67
G2 X114.845 Y137.07 I0. J-3.175
G1 Y95.795
G3 X121.195 Y89.445 I6.35 J0.
G1 X140.245
G3 X146.595 Y95.795 I0. J6.35
G1 Y137.07
G2 X149.77 Y140.245 I3.175 J0.
G1 X165.645
G3 X171.995 Y146.595 I0. J6.35
G1 Y165.645
G3 X165.645 Y171.995 I-6.35 J0.
G1 X95.795
G3 X89.445 Y165.645 I0. J-6.35
G1 Y161.049
Y146.727 Z0.25
Y146.595
G3 X95.795 Y140.245 I6.35 J0.
G1 X111.67
G2 X114.845 Y137.07 I0. J-3.175
G1 Y95.795
G3 X121.195 Y89.445 I6.35 J0.
G1 X140.245
G3 X146.595 Y95.795 I0. J6.35
G1 Y137.07
G2 X149.77 Y140.245 I3.175 J0.
G1 X165.645
G3 X171.995 Y146.595 I0. J6.35
G1 Y165.645
G3 X165.645 Y171.995 I-6.35 J0.
G1 X95.795
G3 X89.445 Y165.645 I0. J-6.35
G1 Y146.727
Y146.595 Z0.248
G3 X95.795 Y140.245 Z0.074 I6.35 J0.
G1 X100.011 Z0.
X111.67
G2 X114.845 Y137.07 I0. J-3.175
G1 Y95.795
G3 X121.195 Y89.445 I6.35 J0.
G1 X140.245
G3 X146.595 Y95.795 I0. J6.35
G1 Y137.07
G2 X149.77 Y140.245 I3.175 J0.
G1 X165.645
G3 X171.995 Y146.595 I0. J6.35
G1 Y165.645
G3 X165.645 Y171.995 I-6.35 J0.
G1 X95.795
G3 X89.445 Y165.645 I0. J-6.35
G1 Y146.727
Y146.595
G3 X95.795 Y140.245 I6.35 J0.
G1 X100.011
X111.67 Z-0.204
G2 X114.032 Y139.192 Z-0.25 I0. J-3.175
X114.845 Y137.07 I-2.362 J-2.122
G1 Y95.795
G3 X121.195 Y89.445 I6.35 J0.
G1 X140.245
G3 X146.595 Y95.795 I0. J6.35
G1 Y137.07
G2 X149.77 Y140.245 I3.175 J0.
G1 X165.645
G3 X171.995 Y146.595 I0. J6.35
G1 Y165.645
G3 X165.645 Y171.995 I-6.35 J0.
G1 X95.795
G3 X89.445 Y165.645 I0. J-6.35
G1 Y146.595
G3 X95.795 Y140.245 I6.35 J0.
G1 X111.67
G2 X114.032 Y139.192 I0. J-3.175
X114.845 Y137.07 Z-0.291 I-2.362 J-2.122
G1 Y125.071 Z-0.5
Y95.795
G3 X121.195 Y89.445 I6.35 J0.
G1 X140.245
G3 X146.595 Y95.795 I0. J6.35
G1 Y137.07
G2 X149.77 Y140.245 I3.175 J0.
G1 X165.645
G3 X171.995 Y146.595 I0. J6.35
G1 Y165.645
G3 X165.645 Y171.995 I-6.35 J0.
G1 X95.795
G3 X89.445 Y165.645 I0. J-6.35
G1 Y146.595
G3 X95.795 Y140.245 I6.35 J0.
G1 X111.67
G2 X114.845 Y137.07 I0. J-3.175
G1 Y125.071
Y110.749 Z-0.75
Y95.795
G3 X121.195 Y89.445 I6.35 J0.
G1 X140.245
G3 X146.595 Y95.795 I0. J6.35
G1 Y137.07
G2 X149.77 Y140.245 I3.175 J0.
G1 X165.645
G3 X171.995 Y146.595 I0. J6.35
G1 Y165.645
G3 X165.645 Y171.995 I-6.35 J0.
G1 X95.795
G3 X89.445 Y165.645 I0. J-6.35
G1 Y146.595
G3 X95.795 Y140.245 I6.35 J0.
G1 X111.67
G2 X114.845 Y137.07 I0. J-3.175
G1 Y110.749
Y96.426 Z-1.
Y95.795
G3 X121.195 Y89.445 I6.35 J0.
G1 X140.245
G3 X146.595 Y95.795 I0. J6.35
G1 Y137.07
G2 X149.77 Y140.245 I3.175 J0.
G1 X165.645
G3 X171.995 Y146.595 I0. J6.35
G1 Y165.645
G3 X165.645 Y171.995 I-6.35 J0.
G1 X95.795
G3 X89.445 Y165.645 I0. J-6.35
G1 Y146.595
G3 X95.795 Y140.245 I6.35 J0.
G1 X111.67
G2 X114.845 Y137.07 I0. J-3.175
G1 Y110.749
Y96.426
Y95.795 Z-1.011
G3 X121.195 Y89.445 Z-1.185 I6.35 J0.
G1 X124.912 Z-1.25
X140.245
G3 X146.595 Y95.795 I0. J6.35
G1 Y137.07
G2 X149.77 Y140.245 I3.175 J0.
G1 X165.645
G3 X171.995 Y146.595 I0. J6.35
G1 Y165.645
G3 X165.645 Y171.995 I-6.35 J0.
G1 X95.795
G3 X89.445 Y165.645 I0. J-6.35
G1 Y146.595
G3 X95.795 Y140.245 I6.35 J0.
G1 X111.67
G2 X114.845 Y137.07 I0. J-3.175
G1 Y96.426
Y95.795
G3 X121.195 Y89.445 I6.35 J0.
G1 X124.912
X139.234 Z-1.5
X140.245
G3 X146.595 Y95.795 I0. J6.35
G1 Y137.07
G2 X149.77 Y140.245 I3.175 J0.
G1 X165.645
G3 X171.995 Y146.595 I0. J6.35
G1 Y165.645
G3 X165.645 Y171.995 I-6.35 J0.
G1 X95.795
G3 X89.445 Y165.645 I0. J-6.35
G1 Y146.595
G3 X95.795 Y140.245 I6.35 J0.
G1 X111.67
G2 X114.845 Y137.07 I0. J-3.175
G1 Y95.795
G3 X121.195 Y89.445 I6.35 J0.
G1 X139.234
X140.245 Z-1.518
G3 X146.595 Y95.795 Z-1.692 I0. J6.35
G1 Y99.132 Z-1.75
Y137.07
G2 X149.77 Y140.245 I3.175 J0.
G1 X165.645
G3 X171.995 Y146.595 I0. J6.35
G1 Y165.645
G3 X165.645 Y171.995 I-6.35 J0.
G1 X95.795
G3 X89.445 Y165.645 I0. J-6.35
G1 Y146.595
G3 X95.795 Y140.245 I6.35 J0.
G1 X111.67
G2 X114.845 Y137.07 I0. J-3.175
G1 Y95.795
G3 X121.195 Y89.445 I6.35 J0.
G1 X139.234
X140.245
G3 X146.595 Y95.795 I0. J6.35
G1 Y99.132
Y113.454 Z-2.
Y137.07
G2 X149.77 Y140.245 I3.175 J0.
G1 X165.645
G3 X171.995 Y146.595 I0. J6.35
G1 Y165.645
G3 X165.645 Y171.995 I-6.35 J0.
G1 X95.795
G3 X89.445 Y165.645 I0. J-6.35
G1 Y146.595
G3 X95.795 Y140.245 I6.35 J0.
G1 X111.67
G2 X114.845 Y137.07 I0. J-3.175
G1 Y95.795
G3 X121.195 Y89.445 I6.35 J0.
G1 X140.245
G3 X146.595 Y95.795 I0. J6.35
G1 Y113.454
Y127.777 Z-2.25
Y137.07
G2 X149.77 Y140.245 I3.175 J0.
G1 X165.645
G3 X171.995 Y146.595 I0. J6.35
G1 Y165.645
G3 X165.645 Y171.995 I-6.35 J0.
G1 X95.795
G3 X89.445 Y165.645 I0. J-6.35
G1 Y146.595
G3 X95.795 Y140.245 I6.35 J0.
G1 X111.67
G2 X114.845 Y137.07 I0. J-3.175
G1 Y95.795
G3 X121.195 Y89.445 I6.35 J0.
G1 X140.245
G3 X146.595 Y95.795 I0. J6.35
G1 Y113.454
Y127.777
Y137.07 Z-2.412
G2 X149.77 Y140.245 Z-2.499 I3.175 J0.
G1 X149.812 Z-2.5
X165.645
G3 X171.995 Y146.595 I0. J6.35
G1 Y165.645
G3 X165.645 Y171.995 I-6.35 J0.
G1 X95.795
G3 X89.445 Y165.645 I0. J-6.35
G1 Y146.595
G3 X95.795 Y140.245 I6.35 J0.
G1 X111.67
G2 X114.845 Y137.07 I0. J-3.175
G1 Y95.795
G3 X121.195 Y89.445 I6.35 J0.
G1 X140.245
G3 X146.595 Y95.795 I0. J6.35
G1 Y127.777
Y137.07
G2 X149.77 Y140.245 I3.175 J0.
G1 X149.812
X164.135 Z-2.75
X165.645
G3 X171.995 Y146.595 I0. J6.35
G1 Y165.645
G3 X165.645 Y171.995 I-6.35 J0.
G1 X95.795
G3 X89.445 Y165.645 I0. J-6.35
G1 Y146.595
G3 X95.795 Y140.245 I6.35 J0.
G1 X111.67
G2 X114.845 Y137.07 I0. J-3.175
G1 Y95.795
G3 X121.195 Y89.445 I6.35 J0.
G1 X140.245
G3 X146.595 Y95.795 I0. J6.35
G1 Y137.07
G2 X149.77 Y140.245 I3.175 J0.
G1 X149.812
X164.135
X165.645 Z-2.776
G3 X171.995 Y146.595 Z-2.95 I0. J6.35
G1 Y149.433 Z-3.
Y165.645
G3 X165.645 Y171.995 I-6.35 J0.
G1 X95.795
G3 X89.445 Y165.645 I0. J-6.35
G1 Y146.595
G3 X95.795 Y140.245 I6.35 J0.
G1 X111.67
G2 X114.845 Y137.07 I0. J-3.175
G1 Y95.795
G3 X121.195 Y89.445 I6.35 J0.
G1 X140.245
G3 X146.595 Y95.795 I0. J6.35
G1 Y137.07
G2 X149.77 Y140.245 I3.175 J0.
G1 X164.135
X165.645
G3 X171.995 Y146.595 I0. J6.35
G1 Y149.433
Y163.755 Z-3.25
Y165.645
G3 X165.645 Y171.995 I-6.35 J0.
G1 X95.795
G3 X89.445 Y165.645 I0. J-6.35
G1 Y146.595
G3 X95.795 Y140.245 I6.35 J0.
G1 X111.67
G2 X114.845 Y137.07 I0. J-3.175
G1 Y95.795
G3 X121.195 Y89.445 I6.35 J0.
G1 X140.245
G3 X146.595 Y95.795 I0. J6.35
G1 Y137.07
G2 X149.77 Y140.245 I3.175 J0.
G1 X165.645
G3 X171.995 Y146.595 I0. J6.35
G1 Y163.755
Y165.645 Z-3.283
G3 X165.645 Y171.995 Z-3.457 I-6.35 J0.
G1 X163.187 Z-3.5
X95.795
G3 X89.445 Y165.645 I0. J-6.35
G1 Y146.595
G3 X95.795 Y140.245 I6.35 J0.
G1 X111.67
G2 X114.845 Y137.07 I0. J-3.175
G1 Y95.795
G3 X121.195 Y89.445 I6.35 J0.
G1 X140.245
G3 X146.595 Y95.795 I0. J6.35
G1 Y137.07
G2 X149.77 Y140.245 I3.175 J0.
G1 X165.645
G3 X171.995 Y146.595 I0. J6.35
G1 Y163.755
Y165.645
G3 X165.645 Y171.995 I-6.35 J0.
G1 X163.187
X148.864 Z-3.75
X95.795
G3 X89.445 Y165.645 I0. J-6.35
G1 Y146.595
G3 X95.795 Y140.245 I6.35 J0.
G1 X111.67
G2 X114.845 Y137.07 I0. J-3.175
G1 Y95.795
G3 X121.195 Y89.445 I6.35 J0.
G1 X140.245
G3 X146.595 Y95.795 I0. J6.35
G1 Y137.07
G2 X149.77 Y140.245 I3.175 J0.
G1 X165.645
G3 X171.995 Y146.595 I0. J6.35
G1 Y165.645
G3 X165.645 Y171.995 I-6.35 J0.
G1 X148.864
X134.542 Z-4.
X95.795
G3 X89.445 Y165.645 I0. J-6.35
G1 Y146.595
G3 X95.795 Y140.245 I6.35 J0.
G1 X111.67
G2 X114.845 Y137.07 I0. J-3.175
G1 Y95.795
G3 X121.195 Y89.445 I6.35 J0.
G1 X140.245
G3 X146.595 Y95.795 I0. J6.35
G1 Y137.07
G2 X149.77 Y140.245 I3.175 J0.
G1 X165.645
G3 X171.995 Y146.595 I0. J6.35
G1 Y165.645
G3 X165.645 Y171.995 I-6.35 J0.
G1 X148.864
X134.542
X124.516 Z-4.175
X95.795
G3 X89.445 Y165.645 I0. J-6.35
G1 Y146.595
G3 X95.795 Y140.245 I6.35 J0.
G1 X111.67
G2 X114.845 Y137.07 I0. J-3.175
G1 Y95.795
G3 X121.195 Y89.445 I6.35 J0.
G1 X140.245
G3 X146.595 Y95.795 I0. J6.35
G1 Y137.07
G2 X149.77 Y140.245 I3.175 J0.
G1 X165.645
G3 X171.995 Y146.595 I0. J6.35
G1 Y165.645
G3 X165.645 Y171.995 I-6.35 J0.
G1 X134.542
X124.516
G2 X123.881 Y172.63 I0. J0.635
G1 Y173.265
G19 G3 Y173.9 Z-3.54 J0. K0.635
G0 Z6.
X112.94 Y32.129
G1 Z4.135 F1600.
G18 G2 X113.575 Z3.5 I0.635 K0.
G1 X114.21
G17 G2 X114.845 Y31.494 I0. J-0.635
G1 Y4.355 Z3.026
G3 X121.195 Y-1.995 Z2.852 I6.35 J0.
G1 X140.245 Z2.52
G3 X146.595 Y4.355 Z2.346 I0. J6.35
G1 Y45.63 Z1.625
G2 X149.77 Y48.805 Z1.538 I3.175 J0.
G1 X165.645 Z1.261
G3 X171.995 Y55.155 Z1.087 I0. J6.35
G1 Y74.205 Z0.754
X171.99 Y74.453 Z0.75
G3 X165.645 Y80.555 I-6.345 J-0.248
G1 X95.795
G3 X89.445 Y74.205 I0. J-6.35
G1 Y55.155
G3 X95.795 Y48.805 I6.35 J0.
G1 X111.67
G2 X114.845 Y45.63 I0. J-3.175
G1 Y4.355
G3 X121.195 Y-1.995 I6.35 J0.
G1 X140.245
G3 X146.595 Y4.355 I0. J6.35
G1 Y45.63
G2 X149.77 Y48.805 I3.175 J0.
G1 X165.645
G3 X171.995 Y55.155 I0. J6.35
G1 Y74.205
X171.99 Y74.453
G3 X165.645 Y80.555 Z0.58 I-6.345 J-0.248
G1 X161.049 Z0.5
X95.795
G3 X89.445 Y74.205 I0. J-6.35
G1 Y55.155
G3 X95.795 Y48.805 I6.35 J0.
G1 X111.67
G2 X114.845 Y45.63 I0. J-3.175
G1 Y4.355
G3 X121.195 Y-1.995 I6.35 J0.
G1 X140.245
G3 X146.595 Y4.355 I0. J6.35
G1 Y45.63
G2 X149.77 Y48.805 I3.175 J0.
G1 X165.645
G3 X171.995 Y55.155 I0. J6.35
G1 Y74.205
G3 X165.645 Y80.555 I-6.35 J0.
G1 X161.049
X146.727 Z0.25
X95.795
G3 X89.445 Y74.205 I0. J-6.35
G1 Y55.155
G3 X95.795 Y48.805 I6.35 J0.
G1 X111.67
G2 X114.845 Y45.63 I0. J-3.175
G1 Y4.355
G3 X121.195 Y-1.995 I6.35 J0.
G1 X140.245
G3 X146.595 Y4.355 I0. J6.35
G1 Y45.63
G2 X149.77 Y48.805 I3.175 J0.
G1 X165.645
G3 X171.995 Y55.155 I0. J6.35
G1 Y74.205
G3 X165.645 Y80.555 I-6.35 J0.
G1 X146.727
X132.404 Z0.
X95.795
G3 X89.445 Y74.205 I0. J-6.35
G1 Y55.155
G3 X95.795 Y48.805 I6.35 J0.
G1 X111.67
G2 X114.845 Y45.63 I0. J-3.175
G1 Y4.355
G3 X121.195 Y-1.995 I6.35 J0.
G1 X140.245
G3 X146.595 Y4.355 I0. J6.35
G1 Y45.63
G2 X149.77 Y48.805 I3.175 J0.
G1 X165.645
G3 X171.995 Y55.155 I0. J6.35
G1 Y74.205
G3 X165.645 Y80.555 I-6.35 J0.
G1 X146.727
X132.404
X118.082 Z-0.25
X95.795
G3 X89.445 Y74.205 I0. J-6.35
G1 Y55.155
G3 X95.795 Y48.805 I6.35 J0.
G1 X111.67
G2 X114.845 Y45.63 I0. J-3.175
G1 Y4.355
G3 X121.195 Y-1.995 I6.35 J0.
G1 X140.245
G3 X146.595 Y4.355 I0. J6.35
G1 Y45.63
G2 X149.77 Y48.805 I3.175 J0.
G1 X165.645
G3 X171.995 Y55.155 I0. J6.35
G1 Y74.205
G3 X165.645 Y80.555 I-6.35 J0.
G1 X132.404
X118.082
X103.76 Z-0.5
X95.795
G3 X89.445 Y74.205 I0. J-6.35
G1 Y55.155
G3 X95.795 Y48.805 I6.35 J0.
G1 X111.67
G2 X114.845 Y45.63 I0. J-3.175
G1 Y4.355
G3 X121.195 Y-1.995 I6.35 J0.
G1 X140.245
G3 X146.595 Y4.355 I0. J6.35
G1 Y45.63
G2 X149.77 Y48.805 I3.175 J0.
G1 X165.645
G3 X171.995 Y55.155 I0. J6.35
G1 Y74.205
G3 X165.645 Y80.555 I-6.35 J0.
G1 X118.082
X103.76
X95.795 Z-0.639
G3 X90.447 Y77.629 Z-0.75 I0. J-6.35
X89.445 Y74.205 I5.348 J-3.424
G1 Y55.155
G3 X95.795 Y48.805 I6.35 J0.
G1 X111.67
G2 X114.845 Y45.63 I0. J-3.175
G1 Y4.355
G3 X121.195 Y-1.995 I6.35 J0.
G1 X140.245
G3 X146.595 Y4.355 I0. J6.35
G1 Y45.63
G2 X149.77 Y48.805 I3.175 J0.
G1 X165.645
G3 X171.995 Y55.155 I0. J6.35
G1 Y74.205
G3 X165.645 Y80.555 I-6.35 J0.
G1 X103.76
X95.795
G3 X90.447 Y77.629 I0. J-6.35
X89.445 Y74.205 Z-0.813 I5.348 J-3.424
G1 Y63.499 Z-1.
Y55.155
G3 X95.795 Y48.805 I6.35 J0.
G1 X111.67
G2 X114.845 Y45.63 I0. J-3.175
G1 Y4.355
G3 X121.195 Y-1.995 I6.35 J0.
G1 X140.245
G3 X146.595 Y4.355 I0. J6.35
G1 Y45.63
G2 X149.77 Y48.805 I3.175 J0.
G1 X165.645
G3 X171.995 Y55.155 I0. J6.35
G1 Y74.205
G3 X165.645 Y80.555 I-6.35 J0.
G1 X95.795
G3 X89.445 Y74.205 I0. J-6.35
G1 Y63.499
Y55.155 Z-1.146
G3 X92.057 Y50.021 Z-1.25 I6.35 J0.
X95.795 Y48.805 I3.738 J5.134
G1 X111.67
G2 X114.845 Y45.63 I0. J-3.175
G1 Y4.355
G3 X121.195 Y-1.995 I6.35 J0.
G1 X140.245
G3 X146.595 Y4.355 I0. J6.35
G1 Y45.63
G2 X149.77 Y48.805 I3.175 J0.
G1 X165.645
G3 X171.995 Y55.155 I0. J6.35
G1 Y74.205
G3 X165.645 Y80.555 I-6.35 J0.
G1 X95.795
G3 X89.445 Y74.205 I0. J-6.35
G1 Y63.499
Y55.155
G3 X92.057 Y50.021 I6.35 J0.
X95.795 Y48.805 Z-1.32 I3.738 J5.134
G1 X106.121 Z-1.5
X111.67
G2 X114.845 Y45.63 I0. J-3.175
G1 Y4.355
G3 X121.195 Y-1.995 I6.35 J0.
G1 X140.245
G3 X146.595 Y4.355 I0. J6.35
G1 Y45.63
G2 X149.77 Y48.805 I3.175 J0.
G1 X165.645
G3 X171.995 Y55.155 I0. J6.35
G1 Y74.205
G3 X165.645 Y80.555 I-6.35 J0.
G1 X95.795
G3 X89.445 Y74.205 I0. J-6.35
G1 Y55.155
G3 X95.795 Y48.805 I6.35 J0.
G1 X106.121
X111.67 Z-1.597
G2 X114.845 Y45.63 Z-1.684 I0. J-3.175
G1 Y41.843 Z-1.75
Y4.355
G3 X121.195 Y-1.995 I6.35 J0.
G1 X140.245
G3 X146.595 Y4.355 I0. J6.35
G1 Y45.63
G2 X149.77 Y48.805 I3.175 J0.
G1 X165.645
G3 X171.995 Y55.155 I0. J6.35
G1 Y74.205
G3 X165.645 Y80.555 I-6.35 J0.
G1 X95.795
G3 X89.445 Y74.205 I0. J-6.35
G1 Y55.155
G3 X95.795 Y48.805 I6.35 J0.
G1 X106.121
X111.67
G2 X114.845 Y45.63 I0. J-3.175
G1 Y41.843
Y27.521 Z-2.
Y4.355
G3 X121.195 Y-1.995 I6.35 J0.
G1 X140.245
G3 X146.595 Y4.355 I0. J6.35
G1 Y45.63
G2 X149.77 Y48.805 I3.175 J0.
G1 X165.645
G3 X171.995 Y55.155 I0. J6.35
G1 Y74.205
G3 X165.645 Y80.555 I-6.35 J0.
G1 X95.795
G3 X89.445 Y74.205 I0. J-6.35
G1 Y55.155
G3 X95.795 Y48.805 I6.35 J0.
G1 X111.67
G2 X114.845 Y45.63 I0. J-3.175
G1 Y27.521
Y13.198 Z-2.25
Y4.355
G3 X121.195 Y-1.995 I6.35 J0.
G1 X140.245
G3 X146.595 Y4.355 I0. J6.35
G1 Y45.63
G2 X149.77 Y48.805 I3.175 J0.
G1 X165.645
G3 X171.995 Y55.155 I0. J6.35
G1 Y74.205
G3 X165.645 Y80.555 I-6.35 J0.
G1 X95.795
G3 X89.445 Y74.205 I0. J-6.35
G1 Y55.155
G3 X95.795 Y48.805 I6.35 J0.
G1 X111.67
G2 X114.845 Y45.63 I0. J-3.175
G1 Y27.521
Y13.198
Y4.355 Z-2.404
G3 X117.066 Y-0.469 Z-2.5 I6.35 J0.
X121.195 Y-1.995 I4.129 J4.824
G1 X140.245
G3 X146.595 Y4.355 I0. J6.35
G1 Y45.63
G2 X149.77 Y48.805 I3.175 J0.
G1 X165.645
G3 X171.995 Y55.155 I0. J6.35
G1 Y74.205
G3 X165.645 Y80.555 I-6.35 J0.
G1 X95.795
G3 X89.445 Y74.205 I0. J-6.35
G1 Y55.155
G3 X95.795 Y48.805 I6.35 J0.
G1 X111.67
G2 X114.845 Y45.63 I0. J-3.175
G1 Y13.198
Y4.355
G3 X117.066 Y-0.469 I6.35 J0.
X121.195 Y-1.995 Z-2.578 I4.129 J4.824
G1 X131.022 Z-2.75
X140.245
G3 X146.595 Y4.355 I0. J6.35
G1 Y45.63
G2 X149.77 Y48.805 I3.175 J0.
G1 X165.645
G3 X171.995 Y55.155 I0. J6.35
G1 Y74.205
G3 X165.645 Y80.555 I-6.35 J0.
G1 X95.795
G3 X89.445 Y74.205 I0. J-6.35
G1 Y55.155
G3 X95.795 Y48.805 I6.35 J0.
G1 X111.67
G2 X114.845 Y45.63 I0. J-3.175
G1 Y4.355
G3 X121.195 Y-1.995 I6.35 J0.
G1 X131.022
X140.245 Z-2.911
G3 X144.814 Y-0.055 Z-3. I0. J6.35
X146.595 Y4.355 I-4.569 J4.41
G1 Y45.63
G2 X149.77 Y48.805 I3.175 J0.
G1 X165.645
G3 X171.995 Y55.155 I0. J6.35
G1 Y74.205
G3 X165.645 Y80.555 I-6.35 J0.
G1 X95.795
G3 X89.445 Y74.205 I0. J-6.35
G1 Y55.155
G3 X95.795 Y48.805 I6.35 J0.
G1 X111.67
G2 X114.845 Y45.63 I0. J-3.175
G1 Y4.355
G3 X121.195 Y-1.995 I6.35 J0.
G1 X131.022
X140.245
G3 X144.814 Y-0.055 I0. J6.35
X146.595 Y4.355 Z-3.085 I-4.569 J4.41
G1 Y13.802 Z-3.25
Y45.63
G2 X149.77 Y48.805 I3.175 J0.
G1 X165.645
G3 X171.995 Y55.155 I0. J6.35
G1 Y74.205
G3 X165.645 Y80.555 I-6.35 J0.
G1 X95.795
G3 X89.445 Y74.205 I0. J-6.35
G1 Y55.155
G3 X95.795 Y48.805 I6.35 J0.
G1 X111.67
G2 X114.845 Y45.63 I0. J-3.175
G1 Y4.355
G3 X121.195 Y-1.995 I6.35 J0.
G1 X140.245
G3 X146.595 Y4.355 I0. J6.35
G1 Y13.802
Y28.125 Z-3.5
Y45.63
G2 X149.77 Y48.805 I3.175 J0.
G1 X165.645
G3 X171.995 Y55.155 I0. J6.35
G1 Y74.205
G3 X165.645 Y80.555 I-6.35 J0.
G1 X95.795
G3 X89.445 Y74.205 I0. J-6.35
G1 Y55.155
G3 X95.795 Y48.805 I6.35 J0.
G1 X111.67
G2 X114.845 Y45.63 I0. J-3.175
G1 Y4.355
G3 X121.195 Y-1.995 I6.35 J0.
G1 X140.245
G3 X146.595 Y4.355 I0. J6.35
G1 Y28.125
Y42.447 Z-3.75
Y45.63
G2 X149.77 Y48.805 I3.175 J0.
G1 X165.645
G3 X171.995 Y55.155 I0. J6.35
G1 Y74.205
G3 X165.645 Y80.555 I-6.35 J0.
G1 X95.795
G3 X89.445 Y74.205 I0. J-6.35
G1 Y55.155
G3 X95.795 Y48.805 I6.35 J0.
G1 X111.67
G2 X114.845 Y45.63 I0. J-3.175
G1 Y4.355
G3 X121.195 Y-1.995 I6.35 J0.
G1 X140.245
G3 X146.595 Y4.355 I0. J6.35
G1 Y28.125
Y42.447
Y45.63 Z-3.806
G2 X149.77 Y48.805 Z-3.893 I3.175 J0.
G1 X155.923 Z-4.
X165.645
G3 X171.995 Y55.155 I0. J6.35
G1 Y74.205
G3 X165.645 Y80.555 I-6.35 J0.
G1 X95.795
G3 X89.445 Y74.205 I0. J-6.35
G1 Y55.155
G3 X95.795 Y48.805 I6.35 J0.
G1 X111.67
G2 X114.845 Y45.63 I0. J-3.175
G1 Y4.355
G3 X121.195 Y-1.995 I6.35 J0.
G1 X140.245
G3 X146.595 Y4.355 I0. J6.35
G1 Y42.447
Y45.63
G2 X149.77 Y48.805 I3.175 J0.
G1 X155.923
X165.645 Z-4.17
G3 X165.948 Y48.812 Z-4.175 I0. J6.35
X171.995 Y55.155 I-0.303 J6.343
G1 Y74.205
G3 X165.645 Y80.555 I-6.35 J0.
G1 X95.795
G3 X89.445 Y74.205 I0. J-6.35
G1 Y55.155
G3 X95.795 Y48.805 I6.35 J0.
G1 X111.67
G2 X114.845 Y45.63 I0. J-3.175
G1 Y4.355
G3 X121.195 Y-1.995 I6.35 J0.
G1 X140.245
G3 X146.595 Y4.355 I0. J6.35
G1 Y45.63
G2 X149.77 Y48.805 I3.175 J0.
G1 X165.645
G3 X165.948 Y48.812 I0. J6.35
G2 X166.613 Y48.208 I0.03 J-0.634
G1 X166.643 Y47.574
X166.648 Y47.475 Z-4.167
X166.652 Y47.378 Z-4.144
X166.657 Y47.286 Z-4.106
X166.661 Y47.201 Z-4.054
X166.665 Y47.126 Z-3.989
X166.668 Y47.061 Z-3.913
X166.67 Y47.009 Z-3.828
X166.672 Y46.971 Z-3.736
X166.673 Y46.948 Z-3.639
Y46.94 Z-3.54
G0 Z16.
M5
G0 Z15
G0 X0 Y0

M9
M30
