(1001)
(T1  D=3.175 CR=0. - ZMIN=-4.175 - FLAT END MILL)
G90 G94 G91.1 G40 G49 G17
G21
G0 Z15

(2D CONTOUR2)
M5
T1 M6
S15000 M3
G54
M8
G0 X-1.36 Y71.491
G43 Z16. H1
Z6.
G1 Z3.818 F800.
G18 G2 X-1.043 Z3.5 I0.317 K0.
G1 X-0.725 F1600.
G17 G2 X-0.407 Y71.174 I0. J-0.317
G1 Y55.155 Z3.36 F800.
G3 X4.355 Y50.393 Z3.295 I4.763 J0.
G1 X20.23 Z3.156
G2 X24.993 Y45.63 Z3.091 I0. J-4.763
G1 Y4.355 Z2.731
G3 X29.755 Y-0.407 Z2.666 I4.762 J0.
G1 X48.805 Z2.499
G3 X53.568 Y4.355 Z2.434 I0. J4.763
G1 Y45.63 Z2.074
G2 X58.33 Y50.393 Z2.009 I4.763 J0.
G1 X74.205 Z1.87
G3 X78.967 Y55.155 Z1.805 I0. J4.762
G1 Y74.205 Z1.639
G3 X74.205 Y78.967 Z1.573 I-4.762 J0.
G1 X4.355 Z0.964
G3 X-0.404 Y74.391 Z0.9 I0. J-4.762
G1 X-0.407 Y74.205 F1600.
Y55.155
G3 X4.355 Y50.393 I4.763 J0.
G1 X20.23
G2 X24.993 Y45.63 I0. J-4.763
G1 Y4.355
G3 X29.755 Y-0.407 I4.762 J0.
G1 X48.805
G3 X53.568 Y4.355 I0. J4.763
G1 Y45.63
G2 X58.33 Y50.393 I4.763 J0.
G1 X74.205
G3 X78.967 Y55.155 I0. J4.762
G1 Y74.205
G3 X74.205 Y78.967 I-4.762 J0.
G1 X4.355
G3 X-0.404 Y74.391 I0. J-4.762
G1 X-0.407 Y74.205 Z0.898 F800.
Y62.932 Z0.8
Y55.155 F1600.
G3 X4.355 Y50.393 I4.763 J0.
G1 X20.23
G2 X24.993 Y45.63 I0. J-4.763
G1 Y4.355
G3 X29.755 Y-0.407 I4.762 J0.
G1 X48.805
G3 X53.568 Y4.355 I0. J4.763
G1 Y45.63
G2 X58.33 Y50.393 I4.763 J0.
G1 X74.205
G3 X78.967 Y55.155 I0. J4.762
G1 Y74.205
G3 X74.205 Y78.967 I-4.762 J0.
G1 X4.355
G3 X-0.407 Y74.205 I0. J-4.762
G1 Y62.932
Y55.155 Z0.732 F800.
G3 X0.946 Y51.829 Z0.7 I4.763 J0.
X4.355 Y50.393 I3.409 J3.326 F1600.
G1 X20.23
G2 X24.993 Y45.63 I0. J-4.763
G1 Y4.355
G3 X29.755 Y-0.407 I4.762 J0.
G1 X48.805
G3 X53.568 Y4.355 I0. J4.763
G1 Y45.63
G2 X58.33 Y50.393 I4.763 J0.
G1 X74.205
G3 X78.967 Y55.155 I0. J4.762
G1 Y74.205
G3 X74.205 Y78.967 I-4.762 J0.
G1 X4.355
G3 X-0.407 Y74.205 I0. J-4.762
G1 Y62.932
Y55.155
G3 X0.946 Y51.829 I4.763 J0.
X4.355 Y50.393 Z0.667 I3.409 J3.326 F800.
G1 X12.015 Z0.6
X20.23 F1600.
G2 X24.993 Y45.63 I0. J-4.763
G1 Y4.355
G3 X29.755 Y-0.407 I4.762 J0.
G1 X48.805
G3 X53.568 Y4.355 I0. J4.763
G1 Y45.63
G2 X58.33 Y50.393 I4.763 J0.
G1 X74.205
G3 X78.967 Y55.155 I0. J4.762
G1 Y74.205
G3 X74.205 Y78.967 I-4.762 J0.
G1 X4.355
G3 X-0.407 Y74.205 I0. J-4.762
G1 Y55.155
G3 X4.355 Y50.393 I4.763 J0.
G1 X12.015
X20.23 Z0.528 F800.
G2 X23.229 Y49.33 Z0.5 I0. J-4.763
X24.993 Y45.63 I-2.999 J-3.7 F1600.
G1 Y4.355
G3 X29.755 Y-0.407 I4.762 J0.
G1 X48.805
G3 X53.568 Y4.355 I0. J4.763
G1 Y45.63
G2 X58.33 Y50.393 I4.763 J0.
G1 X74.205
G3 X78.967 Y55.155 I0. J4.762
G1 Y74.205
G3 X74.205 Y78.967 I-4.762 J0.
G1 X4.355
G3 X-0.407 Y74.205 I0. J-4.762
G1 Y55.155
G3 X4.355 Y50.393 I4.763 J0.
G1 X20.23
G2 X23.229 Y49.33 I0. J-4.763
X24.993 Y45.63 Z0.463 I-2.999 J-3.7 F800.
G1 Y38.408 Z0.4
Y4.355 F1600.
G3 X29.755 Y-0.407 I4.762 J0.
G1 X48.805
G3 X53.568 Y4.355 I0. J4.763
G1 Y45.63
G2 X58.33 Y50.393 I4.763 J0.
G1 X74.205
G3 X78.967 Y55.155 I0. J4.762
G1 Y74.205
G3 X74.205 Y78.967 I-4.762 J0.
G1 X4.355
G3 X-0.407 Y74.205 I0. J-4.762
G1 Y55.155
G3 X4.355 Y50.393 I4.763 J0.
G1 X20.23
G2 X24.993 Y45.63 I0. J-4.763
G1 Y38.408
Y26.949 Z0.3 F800.
Y4.355 F1600.
G3 X29.755 Y-0.407 I4.762 J0.
G1 X48.805
G3 X53.568 Y4.355 I0. J4.763
G1 Y45.63
G2 X58.33 Y50.393 I4.763 J0.
G1 X74.205
G3 X78.967 Y55.155 I0. J4.762
G1 Y74.205
G3 X74.205 Y78.967 I-4.762 J0.
G1 X4.355
G3 X-0.407 Y74.205 I0. J-4.762
G1 Y55.155
G3 X4.355 Y50.393 I4.763 J0.
G1 X20.23
G2 X24.993 Y45.63 I0. J-4.763
G1 Y26.949
Y15.49 Z0.2 F800.
Y4.355 F1600.
G3 X29.755 Y-0.407 I4.762 J0.
G1 X48.805
G3 X53.568 Y4.355 I0. J4.763
G1 Y45.63
G2 X58.33 Y50.393 I4.763 J0.
G1 X74.205
G3 X78.967 Y55.155 I0. J4.762
G1 Y74.205
G3 X74.205 Y78.967 I-4.762 J0.
G1 X4.355
G3 X-0.407 Y74.205 I0. J-4.762
G1 Y55.155
G3 X4.355 Y50.393 I4.763 J0.
G1 X20.23
G2 X24.993 Y45.63 I0. J-4.763
G1 Y26.949
Y15.49
Y4.355 Z0.103 F800.
G3 X25.003 Y4.032 Z0.1 I4.762 J0.
X29.755 Y-0.407 I4.752 J0.323 F1600.
G1 X48.805
G3 X53.568 Y4.355 I0. J4.763
G1 Y45.63
G2 X58.33 Y50.393 I4.763 J0.
G1 X74.205
G3 X78.967 Y55.155 I0. J4.762
G1 Y74.205
G3 X74.205 Y78.967 I-4.762 J0.
G1 X4.355
G3 X-0.407 Y74.205 I0. J-4.762
G1 Y55.155
G3 X4.355 Y50.393 I4.763 J0.
G1 X20.23
G2 X24.993 Y45.63 I0. J-4.763
G1 Y15.49
Y4.355
G3 X25.003 Y4.032 I4.762 J0.
X29.755 Y-0.407 Z0.038 I4.752 J0.323 F800.
G1 X34.056 Z0.
X48.805 F1600.
G3 X53.568 Y4.355 I0. J4.763
G1 Y45.63
G2 X58.33 Y50.393 I4.763 J0.
G1 X74.205
G3 X78.967 Y55.155 I0. J4.762
G1 Y74.205
G3 X74.205 Y78.967 I-4.762 J0.
G1 X4.355
G3 X-0.407 Y74.205 I0. J-4.762
G1 Y55.155
G3 X4.355 Y50.393 I4.763 J0.
G1 X20.23
G2 X24.993 Y45.63 I0. J-4.763
G1 Y4.355
G3 X29.755 Y-0.407 I4.762 J0.
G1 X34.056
X45.515 Z-0.1 F800.
X48.805 F1600.
G3 X53.568 Y4.355 I0. J4.763
G1 Y45.63
G2 X58.33 Y50.393 I4.763 J0.
G1 X74.205
G3 X78.967 Y55.155 I0. J4.762
G1 Y74.205
G3 X74.205 Y78.967 I-4.762 J0.
G1 X4.355
G3 X-0.407 Y74.205 I0. J-4.762
G1 Y55.155
G3 X4.355 Y50.393 I4.763 J0.
G1 X20.23
G2 X24.993 Y45.63 I0. J-4.763
G1 Y4.355
G3 X29.755 Y-0.407 I4.762 J0.
G1 X45.515
X48.805 Z-0.129 F800.
G3 X53.568 Y4.355 Z-0.194 I0. J4.763
G1 Y5.043 Z-0.2
Y45.63 F1600.
G2 X58.33 Y50.393 I4.763 J0.
G1 X74.205
G3 X78.967 Y55.155 I0. J4.762
G1 Y74.205
G3 X74.205 Y78.967 I-4.762 J0.
G1 X4.355
G3 X-0.407 Y74.205 I0. J-4.762
G1 Y55.155
G3 X4.355 Y50.393 I4.763 J0.
G1 X20.23
G2 X24.993 Y45.63 I0. J-4.763
G1 Y4.355
G3 X29.755 Y-0.407 I4.762 J0.
G1 X45.515
X48.805
G3 X53.568 Y4.355 I0. J4.763
G1 Y5.043
Y16.502 Z-0.3 F800.
Y45.63 F1600.
G2 X58.33 Y50.393 I4.763 J0.
G1 X74.205
G3 X78.967 Y55.155 I0. J4.762
G1 Y74.205
G3 X74.205 Y78.967 I-4.762 J0.
G1 X4.355
G3 X-0.407 Y74.205 I0. J-4.762
G1 Y55.155
G3 X4.355 Y50.393 I4.763 J0.
G1 X20.23
G2 X24.993 Y45.63 I0. J-4.763
G1 Y4.355
G3 X29.755 Y-0.407 I4.762 J0.
G1 X48.805
G3 X53.568 Y4.355 I0. J4.763
G1 Y16.502
Y27.961 Z-0.4 F800.
Y45.63 F1600.
G2 X58.33 Y50.393 I4.763 J0.
G1 X74.205
G3 X78.967 Y55.155 I0. J4.762
G1 Y74.205
G3 X74.205 Y78.967 I-4.762 J0.
G1 X4.355
G3 X-0.407 Y74.205 I0. J-4.762
G1 Y55.155
G3 X4.355 Y50.393 I4.763 J0.
G1 X20.23
G2 X24.993 Y45.63 I0. J-4.763
G1 Y4.355
G3 X29.755 Y-0.407 I4.762 J0.
G1 X48.805
G3 X53.568 Y4.355 I0. J4.763
G1 Y16.502
Y27.961
Y39.42 Z-0.5 F800.
Y45.63 F1600.
G2 X58.33 Y50.393 I4.763 J0.
G1 X74.205
G3 X78.967 Y55.155 I0. J4.762
G1 Y74.205
G3 X74.205 Y78.967 I-4.762 J0.
G1 X4.355
G3 X-0.407 Y74.205 I0. J-4.762
G1 Y55.155
G3 X4.355 Y50.393 I4.763 J0.
G1 X20.23
G2 X24.993 Y45.63 I0. J-4.763
G1 Y4.355
G3 X29.755 Y-0.407 I4.762 J0.
G1 X48.805
G3 X53.568 Y4.355 I0. J4.763
G1 Y27.961
Y39.42
Y45.63 Z-0.554 F800.
G2 X56.179 Y49.879 Z-0.6 I4.763 J0.
X58.33 Y50.393 I2.151 J-4.249 F1600.
G1 X74.205
G3 X78.967 Y55.155 I0. J4.762
G1 Y74.205
G3 X74.205 Y78.967 I-4.762 J0.
G1 X4.355
G3 X-0.407 Y74.205 I0. J-4.762
G1 Y55.155
G3 X4.355 Y50.393 I4.763 J0.
G1 X20.23
G2 X24.993 Y45.63 I0. J-4.763
G1 Y4.355
G3 X29.755 Y-0.407 I4.762 J0.
G1 X48.805
G3 X53.568 Y4.355 I0. J4.763
G1 Y39.42
Y45.63
G2 X56.179 Y49.879 I4.763 J0.
X58.33 Y50.393 Z-0.619 I2.151 J-4.249 F800.
G1 X67.557 Z-0.7
X74.205 F1600.
G3 X78.967 Y55.155 I0. J4.762
G1 Y74.205
G3 X74.205 Y78.967 I-4.762 J0.
G1 X4.355
G3 X-0.407 Y74.205 I0. J-4.762
G1 Y55.155
G3 X4.355 Y50.393 I4.763 J0.
G1 X20.23
G2 X24.993 Y45.63 I0. J-4.763
G1 Y4.355
G3 X29.755 Y-0.407 I4.762 J0.
G1 X48.805
G3 X53.568 Y4.355 I0. J4.763
G1 Y45.63
G2 X58.33 Y50.393 I4.763 J0.
G1 X67.557
X74.205 Z-0.758 F800.
G3 X78.238 Y52.622 Z-0.8 I0. J4.762
X78.967 Y55.155 I-4.033 J2.533 F1600.
G1 Y74.205
G3 X74.205 Y78.967 I-4.762 J0.
G1 X4.355
G3 X-0.407 Y74.205 I0. J-4.762
G1 Y55.155
G3 X4.355 Y50.393 I4.763 J0.
G1 X20.23
G2 X24.993 Y45.63 I0. J-4.763
G1 Y4.355
G3 X29.755 Y-0.407 I4.762 J0.
G1 X48.805
G3 X53.568 Y4.355 I0. J4.763
G1 Y45.63
G2 X58.33 Y50.393 I4.763 J0.
G1 X67.557
X74.205
G3 X78.238 Y52.622 I0. J4.762
X78.967 Y55.155 Z-0.823 I-4.033 J2.533 F800.
G1 Y63.943 Z-0.9
Y74.205 F1600.
G3 X74.205 Y78.967 I-4.762 J0.
G1 X4.355
G3 X-0.407 Y74.205 I0. J-4.762
G1 Y55.155
G3 X4.355 Y50.393 I4.763 J0.
G1 X20.23
G2 X24.993 Y45.63 I0. J-4.763
G1 Y4.355
G3 X29.755 Y-0.407 I4.762 J0.
G1 X48.805
G3 X53.568 Y4.355 I0. J4.763
G1 Y45.63
G2 X58.33 Y50.393 I4.763 J0.
G1 X74.205
G3 X78.967 Y55.155 I0. J4.762
G1 Y63.943
Y74.205 Z-0.99 F800.
G3 X78.818 Y75.39 Z-1. I-4.762 J0.
X74.205 Y78.967 I-4.613 J-1.185 F1600.
G1 X4.355
G3 X-0.407 Y74.205 I0. J-4.762
G1 Y55.155
G3 X4.355 Y50.393 I4.763 J0.
G1 X20.23
G2 X24.993 Y45.63 I0. J-4.763
G1 Y4.355
G3 X29.755 Y-0.407 I4.762 J0.
G1 X48.805
G3 X53.568 Y4.355 I0. J4.763
G1 Y45.63
G2 X58.33 Y50.393 I4.763 J0.
G1 X74.205
G3 X78.967 Y55.155 I0. J4.762
G1 Y74.205
G3 X78.818 Y75.39 I-4.762 J0.
X74.205 Y78.967 Z-1.055 I-4.613 J-1.185 F800.
G1 X69.03 Z-1.1
X4.355 F1600.
G3 X-0.407 Y74.205 I0. J-4.762
G1 Y55.155
G3 X4.355 Y50.393 I4.763 J0.
G1 X20.23
G2 X24.993 Y45.63 I0. J-4.763
G1 Y4.355
G3 X29.755 Y-0.407 I4.762 J0.
G1 X48.805
G3 X53.568 Y4.355 I0. J4.763
G1 Y45.63
G2 X58.33 Y50.393 I4.763 J0.
G1 X74.205
G3 X78.967 Y55.155 I0. J4.762
G1 Y74.205
G3 X74.205 Y78.967 I-4.762 J0.
G1 X69.03
X57.571 Z-1.2 F800.
X4.355 F1600.
G3 X-0.407 Y74.205 I0. J-4.762
G1 Y55.155
G3 X4.355 Y50.393 I4.763 J0.
G1 X20.23
G2 X24.993 Y45.63 I0. J-4.763
G1 Y4.355
G3 X29.755 Y-0.407 I4.762 J0.
G1 X48.805
G3 X53.568 Y4.355 I0. J4.763
G1 Y45.63
G2 X58.33 Y50.393 I4.763 J0.
G1 X74.205
G3 X78.967 Y55.155 I0. J4.762
G1 Y74.205
G3 X74.205 Y78.967 I-4.762 J0.
G1 X57.571
X46.112 Z-1.3 F800.
X4.355 F1600.
G3 X-0.407 Y74.205 I0. J-4.762
G1 Y55.155
G3 X4.355 Y50.393 I4.763 J0.
G1 X20.23
G2 X24.993 Y45.63 I0. J-4.763
G1 Y4.355
G3 X29.755 Y-0.407 I4.762 J0.
G1 X48.805
G3 X53.568 Y4.355 I0. J4.763
G1 Y45.63
G2 X58.33 Y50.393 I4.763 J0.
G1 X74.205
G3 X78.967 Y55.155 I0. J4.762
G1 Y74.205
G3 X74.205 Y78.967 I-4.762 J0.
G1 X57.571
X46.112
X34.653 Z-1.4 F800.
X4.355 F1600.
G3 X-0.407 Y74.205 I0. J-4.762
G1 Y55.155
G3 X4.355 Y50.393 I4.763 J0.
G1 X20.23
G2 X24.993 Y45.63 I0. J-4.763
G1 Y4.355
G3 X29.755 Y-0.407 I4.762 J0.
G1 X48.805
G3 X53.568 Y4.355 I0. J4.763
G1 Y45.63
G2 X58.33 Y50.393 I4.763 J0.
G1 X74.205
G3 X78.967 Y55.155 I0. J4.762
G1 Y74.205
G3 X74.205 Y78.967 I-4.762 J0.
G1 X46.112
X34.653
X23.194 Z-1.5 F800.
X4.355 F1600.
G3 X-0.407 Y74.205 I0. J-4.762
G1 Y55.155
G3 X4.355 Y50.393 I4.763 J0.
G1 X20.23
G2 X24.993 Y45.63 I0. J-4.763
G1 Y4.355
G3 X29.755 Y-0.407 I4.762 J0.
G1 X48.805
G3 X53.568 Y4.355 I0. J4.763
G1 Y45.63
G2 X58.33 Y50.393 I4.763 J0.
G1 X74.205
G3 X78.967 Y55.155 I0. J4.762
G1 Y74.205
G3 X74.205 Y78.967 I-4.762 J0.
G1 X34.653
X23.194
X11.735 Z-1.6 F800.
X4.355 F1600.
G3 X-0.407 Y74.205 I0. J-4.762
G1 Y55.155
G3 X4.355 Y50.393 I4.763 J0.
G1 X20.23
G2 X24.993 Y45.63 I0. J-4.763
G1 Y4.355
G3 X29.755 Y-0.407 I4.762 J0.
G1 X48.805
G3 X53.568 Y4.355 I0. J4.763
G1 Y45.63
G2 X58.33 Y50.393 I4.763 J0.
G1 X74.205
G3 X78.967 Y55.155 I0. J4.762
G1 Y74.205
G3 X74.205 Y78.967 I-4.762 J0.
G1 X23.194
X11.735
X4.355 Z-1.664 F800.
G3 X0.757 Y77.325 Z-1.7 I0. J-4.762
X-0.407 Y74.205 I3.598 J-3.12 F1600.
G1 Y55.155
G3 X4.355 Y50.393 I4.763 J0.
G1 X20.23
G2 X24.993 Y45.63 I0. J-4.763
G1 Y4.355
G3 X29.755 Y-0.407 I4.762 J0.
G1 X48.805
G3 X53.568 Y4.355 I0. J4.763
G1 Y45.63
G2 X58.33 Y50.393 I4.763 J0.
G1 X74.205
G3 X78.967 Y55.155 I0. J4.762
G1 Y74.205
G3 X74.205 Y78.967 I-4.762 J0.
G1 X11.735
X4.355
G3 X0.757 Y77.325 I0. J-4.762
X-0.407 Y74.205 Z-1.73 I3.598 J-3.12 F800.
G1 Y66.149 Z-1.8
Y55.155 F1600.
G3 X4.355 Y50.393 I4.763 J0.
G1 X20.23
G2 X24.993 Y45.63 I0. J-4.763
G1 Y4.355
G3 X29.755 Y-0.407 I4.762 J0.
G1 X48.805
G3 X53.568 Y4.355 I0. J4.763
G1 Y45.63
G2 X58.33 Y50.393 I4.763 J0.
G1 X74.205
G3 X78.967 Y55.155 I0. J4.762
G1 Y74.205
G3 X74.205 Y78.967 I-4.762 J0.
G1 X4.355
G3 X-0.407 Y74.205 I0. J-4.762
G1 Y66.149
Y55.155 Z-1.896 F800.
G3 X-0.385 Y54.691 Z-1.9 I4.763 J0.
X4.355 Y50.393 I4.74 J0.464 F1600.
G1 X20.23
G2 X24.993 Y45.63 I0. J-4.763
G1 Y4.355
G3 X29.755 Y-0.407 I4.762 J0.
G1 X48.805
G3 X53.568 Y4.355 I0. J4.763
G1 Y45.63
G2 X58.33 Y50.393 I4.763 J0.
G1 X74.205
G3 X78.967 Y55.155 I0. J4.762
G1 Y74.205
G3 X74.205 Y78.967 I-4.762 J0.
G1 X4.355
G3 X-0.407 Y74.205 I0. J-4.762
G1 Y55.155
G3 X-0.385 Y54.691 I4.763 J0.
X4.355 Y50.393 Z-1.961 I4.74 J0.464 F800.
G1 X8.798 Z-2.
X20.23 F1600.
G2 X24.993 Y45.63 I0. J-4.763
G1 Y4.355
G3 X29.755 Y-0.407 I4.762 J0.
G1 X48.805
G3 X53.568 Y4.355 I0. J4.763
G1 Y45.63
G2 X58.33 Y50.393 I4.763 J0.
G1 X74.205
G3 X78.967 Y55.155 I0. J4.762
G1 Y74.205
G3 X74.205 Y78.967 I-4.762 J0.
G1 X4.355
G3 X-0.407 Y74.205 I0. J-4.762
G1 Y55.155
G3 X4.355 Y50.393 I4.763 J0.
G1 X8.798
X20.23 Z-2.1 F800.
X20.257 Y50.392
G2 X24.993 Y45.63 I-0.027 J-4.762 F1600.
G1 Y4.355
G3 X29.755 Y-0.407 I4.762 J0.
G1 X48.805
G3 X53.568 Y4.355 I0. J4.763
G1 Y45.63
G2 X58.33 Y50.393 I4.763 J0.
G1 X74.205
G3 X78.967 Y55.155 I0. J4.762
G1 Y74.205
G3 X74.205 Y78.967 I-4.762 J0.
G1 X4.355
G3 X-0.407 Y74.205 I0. J-4.762
G1 Y55.155
G3 X4.355 Y50.393 I4.763 J0.
G1 X20.23
X20.257 Y50.392
G2 X24.993 Y45.63 Z-2.165 I-0.027 J-4.762 F800.
G1 Y41.625 Z-2.2
Y4.355 F1600.
G3 X29.755 Y-0.407 I4.762 J0.
G1 X48.805
G3 X53.568 Y4.355 I0. J4.763
G1 Y45.63
G2 X58.33 Y50.393 I4.763 J0.
G1 X74.205
G3 X78.967 Y55.155 I0. J4.762
G1 Y74.205
G3 X74.205 Y78.967 I-4.762 J0.
G1 X4.355
G3 X-0.407 Y74.205 I0. J-4.762
G1 Y55.155
G3 X4.355 Y50.393 I4.763 J0.
G1 X20.23
G2 X24.993 Y45.63 I0. J-4.763
G1 Y41.625
Y30.166 Z-2.3 F800.
Y4.355 F1600.
G3 X29.755 Y-0.407 I4.762 J0.
G1 X48.805
G3 X53.568 Y4.355 I0. J4.763
G1 Y45.63
G2 X58.33 Y50.393 I4.763 J0.
G1 X74.205
G3 X78.967 Y55.155 I0. J4.762
G1 Y74.205
G3 X74.205 Y78.967 I-4.762 J0.
G1 X4.355
G3 X-0.407 Y74.205 I0. J-4.762
G1 Y55.155
G3 X4.355 Y50.393 I4.763 J0.
G1 X20.23
G2 X24.993 Y45.63 I0. J-4.763
G1 Y30.166
Y18.707 Z-2.4 F800.
Y4.355 F1600.
G3 X29.755 Y-0.407 I4.762 J0.
G1 X48.805
G3 X53.568 Y4.355 I0. J4.763
G1 Y45.63
G2 X58.33 Y50.393 I4.763 J0.
G1 X74.205
G3 X78.967 Y55.155 I0. J4.762
G1 Y74.205
G3 X74.205 Y78.967 I-4.762 J0.
G1 X4.355
G3 X-0.407 Y74.205 I0. J-4.762
G1 Y55.155
G3 X4.355 Y50.393 I4.763 J0.
G1 X20.23
G2 X24.993 Y45.63 I0. J-4.763
G1 Y30.166
Y18.707
Y7.248 Z-2.5 F800.
Y4.355 F1600.
G3 X29.755 Y-0.407 I4.762 J0.
G1 X48.805
G3 X53.568 Y4.355 I0. J4.763
G1 Y45.63
G2 X58.33 Y50.393 I4.763 J0.
G1 X74.205
G3 X78.967 Y55.155 I0. J4.762
G1 Y74.205
G3 X74.205 Y78.967 I-4.762 J0.
G1 X4.355
G3 X-0.407 Y74.205 I0. J-4.762
G1 Y55.155
G3 X4.355 Y50.393 I4.763 J0.
G1 X20.23
G2 X24.993 Y45.63 I0. J-4.763
G1 Y18.707
Y7.248
Y4.355 Z-2.525 F800.
G3 X29.755 Y-0.407 Z-2.591 I4.762 J0.
G1 X30.839 Z-2.6
X48.805 F1600.
G3 X53.568 Y4.355 I0. J4.763
G1 Y45.63
G2 X58.33 Y50.393 I4.763 J0.
G1 X74.205
G3 X78.967 Y55.155 I0. J4.762
G1 Y74.205
G3 X74.205 Y78.967 I-4.762 J0.
G1 X4.355
G3 X-0.407 Y74.205 I0. J-4.762
G1 Y55.155
G3 X4.355 Y50.393 I4.763 J0.
G1 X20.23
G2 X24.993 Y45.63 I0. J-4.763
G1 Y7.248
Y4.355
G3 X29.755 Y-0.407 I4.762 J0.
G1 X30.839
X42.298 Z-2.7 F800.
X48.805 F1600.
G3 X53.568 Y4.355 I0. J4.763
G1 Y45.63
G2 X58.33 Y50.393 I4.763 J0.
G1 X74.205
G3 X78.967 Y55.155 I0. J4.762
G1 Y74.205
G3 X74.205 Y78.967 I-4.762 J0.
G1 X4.355
G3 X-0.407 Y74.205 I0. J-4.762
G1 Y55.155
G3 X4.355 Y50.393 I4.763 J0.
G1 X20.23
G2 X24.993 Y45.63 I0. J-4.763
G1 Y4.355
G3 X29.755 Y-0.407 I4.762 J0.
G1 X42.298
X48.805 Z-2.757 F800.
G3 X52.912 Y1.943 Z-2.8 I0. J4.763
X53.568 Y4.355 I-4.107 J2.412 F1600.
G1 Y45.63
G2 X58.33 Y50.393 I4.763 J0.
G1 X74.205
G3 X78.967 Y55.155 I0. J4.762
G1 Y74.205
G3 X74.205 Y78.967 I-4.762 J0.
G1 X4.355
G3 X-0.407 Y74.205 I0. J-4.762
G1 Y55.155
G3 X4.355 Y50.393 I4.763 J0.
G1 X20.23
G2 X24.993 Y45.63 I0. J-4.763
G1 Y4.355
G3 X29.755 Y-0.407 I4.762 J0.
G1 X42.298
X48.805
G3 X52.912 Y1.943 I0. J4.763
X53.568 Y4.355 Z-2.822 I-4.107 J2.412 F800.
G1 Y13.285 Z-2.9
Y45.63 F1600.
G2 X58.33 Y50.393 I4.763 J0.
G1 X74.205
G3 X78.967 Y55.155 I0. J4.762
G1 Y74.205
G3 X74.205 Y78.967 I-4.762 J0.
G1 X4.355
G3 X-0.407 Y74.205 I0. J-4.762
G1 Y55.155
G3 X4.355 Y50.393 I4.763 J0.
G1 X20.23
G2 X24.993 Y45.63 I0. J-4.763
G1 Y4.355
G3 X29.755 Y-0.407 I4.762 J0.
G1 X48.805
G3 X53.568 Y4.355 I0. J4.763
G1 Y13.285
Y24.744 Z-3. F800.
Y45.63 F1600.
G2 X58.33 Y50.393 I4.763 J0.
G1 X74.205
G3 X78.967 Y55.155 I0. J4.762
G1 Y74.205
G3 X74.205 Y78.967 I-4.762 J0.
G1 X4.355
G3 X-0.407 Y74.205 I0. J-4.762
G1 Y55.155
G3 X4.355 Y50.393 I4.763 J0.
G1 X20.23
G2 X24.993 Y45.63 I0. J-4.763
G1 Y4.355
G3 X29.755 Y-0.407 I4.762 J0.
G1 X48.805
G3 X53.568 Y4.355 I0. J4.763
G1 Y24.744
Y36.203 Z-3.1 F800.
Y45.63 F1600.
G2 X58.33 Y50.393 I4.763 J0.
G1 X74.205
G3 X78.967 Y55.155 I0. J4.762
G1 Y74.205
G3 X74.205 Y78.967 I-4.762 J0.
G1 X4.355
G3 X-0.407 Y74.205 I0. J-4.762
G1 Y55.155
G3 X4.355 Y50.393 I4.763 J0.
G1 X20.23
G2 X24.993 Y45.63 I0. J-4.763
G1 Y4.355
G3 X29.755 Y-0.407 I4.762 J0.
G1 X48.805
G3 X53.568 Y4.355 I0. J4.763
G1 Y24.744
Y36.203
Y45.63 Z-3.182 F800.
G2 X53.994 Y47.601 Z-3.2 I4.763 J0.
X58.33 Y50.393 I4.336 J-1.971 F1600.
G1 X74.205
G3 X78.967 Y55.155 I0. J4.762
G1 Y74.205
G3 X74.205 Y78.967 I-4.762 J0.
G1 X4.355
G3 X-0.407 Y74.205 I0. J-4.762
G1 Y55.155
G3 X4.355 Y50.393 I4.763 J0.
G1 X20.23
G2 X24.993 Y45.63 I0. J-4.763
G1 Y4.355
G3 X29.755 Y-0.407 I4.762 J0.
G1 X48.805
G3 X53.568 Y4.355 I0. J4.763
G1 Y36.203
Y45.63
G2 X53.994 Y47.601 I4.763 J0.
X58.33 Y50.393 Z-3.248 I4.336 J-1.971 F800.
G1 X64.34 Z-3.3
X74.205 F1600.
G3 X78.967 Y55.155 I0. J4.762
G1 Y74.205
G3 X74.205 Y78.967 I-4.762 J0.
G1 X4.355
G3 X-0.407 Y74.205 I0. J-4.762
G1 Y55.155
G3 X4.355 Y50.393 I4.763 J0.
G1 X20.23
G2 X24.993 Y45.63 I0. J-4.763
G1 Y4.355
G3 X29.755 Y-0.407 I4.762 J0.
G1 X48.805
G3 X53.568 Y4.355 I0. J4.763
G1 Y45.63
G2 X58.33 Y50.393 I4.763 J0.
G1 X64.34
X74.205 Z-3.386 F800.
G3 X75.769 Y50.657 Z-3.4 I0. J4.762
X78.967 Y55.155 I-1.564 J4.498 F1600.
G1 Y74.205
G3 X74.205 Y78.967 I-4.762 J0.
G1 X4.355
G3 X-0.407 Y74.205 I0. J-4.762
G1 Y55.155
G3 X4.355 Y50.393 I4.763 J0.
G1 X20.23
G2 X24.993 Y45.63 I0. J-4.763
G1 Y4.355
G3 X29.755 Y-0.407 I4.762 J0.
G1 X48.805
G3 X53.568 Y4.355 I0. J4.763
G1 Y45.63
G2 X58.33 Y50.393 I4.763 J0.
G1 X74.205
G3 X75.769 Y50.657 I0. J4.762
X78.967 Y55.155 Z-3.451 I-1.564 J4.498 F800.
G1 Y60.727 Z-3.5
Y74.205 F1600.
G3 X74.205 Y78.967 I-4.762 J0.
G1 X4.355
G3 X-0.407 Y74.205 I0. J-4.762
G1 Y55.155
G3 X4.355 Y50.393 I4.763 J0.
G1 X20.23
G2 X24.993 Y45.63 I0. J-4.763
G1 Y4.355
G3 X29.755 Y-0.407 I4.762 J0.
G1 X48.805
G3 X53.568 Y4.355 I0. J4.763
G1 Y45.63
G2 X58.33 Y50.393 I4.763 J0.
G1 X74.205
G3 X78.967 Y55.155 I0. J4.762
G1 Y60.727
Y72.185 Z-3.6 F800.
Y74.205 F1600.
G3 X74.205 Y78.967 I-4.762 J0.
G1 X4.355
G3 X-0.407 Y74.205 I0. J-4.762
G1 Y55.155
G3 X4.355 Y50.393 I4.763 J0.
G1 X20.23
G2 X24.993 Y45.63 I0. J-4.763
G1 Y4.355
G3 X29.755 Y-0.407 I4.762 J0.
G1 X48.805
G3 X53.568 Y4.355 I0. J4.763
G1 Y45.63
G2 X58.33 Y50.393 I4.763 J0.
G1 X74.205
G3 X78.967 Y55.155 I0. J4.762
G1 Y72.185
Y74.205 Z-3.618 F800.
G3 X74.205 Y78.967 Z-3.683 I-4.762 J0.
G1 X72.247 Z-3.7
X4.355 F1600.
G3 X-0.407 Y74.205 I0. J-4.762
G1 Y55.155
G3 X4.355 Y50.393 I4.763 J0.
G1 X20.23
G2 X24.993 Y45.63 I0. J-4.763
G1 Y4.355
G3 X29.755 Y-0.407 I4.762 J0.
G1 X48.805
G3 X53.568 Y4.355 I0. J4.763
G1 Y45.63
G2 X58.33 Y50.393 I4.763 J0.
G1 X74.205
G3 X78.967 Y55.155 I0. J4.762
G1 Y72.185
Y74.205
G3 X74.205 Y78.967 I-4.762 J0.
G1 X72.247
X60.788 Z-3.8 F800.
X4.355 F1600.
G3 X-0.407 Y74.205 I0. J-4.762
G1 Y55.155
G3 X4.355 Y50.393 I4.763 J0.
G1 X20.23
G2 X24.993 Y45.63 I0. J-4.763
G1 Y4.355
G3 X29.755 Y-0.407 I4.762 J0.
G1 X48.805
G3 X53.568 Y4.355 I0. J4.763
G1 Y45.63
G2 X58.33 Y50.393 I4.763 J0.
G1 X74.205
G3 X78.967 Y55.155 I0. J4.762
G1 Y74.205
G3 X74.205 Y78.967 I-4.762 J0.
G1 X60.788
X49.329 Z-3.9 F800.
X4.355 F1600.
G3 X-0.407 Y74.205 I0. J-4.762
G1 Y55.155
G3 X4.355 Y50.393 I4.763 J0.
G1 X20.23
G2 X24.993 Y45.63 I0. J-4.763
G1 Y4.355
G3 X29.755 Y-0.407 I4.762 J0.
G1 X48.805
G3 X53.568 Y4.355 I0. J4.763
G1 Y45.63
G2 X58.33 Y50.393 I4.763 J0.
G1 X74.205
G3 X78.967 Y55.155 I0. J4.762
G1 Y74.205
G3 X74.205 Y78.967 I-4.762 J0.
G1 X60.788
X49.329
X37.87 Z-4. F800.
X4.355 F1600.
G3 X-0.407 Y74.205 I0. J-4.762
G1 Y55.155
G3 X4.355 Y50.393 I4.763 J0.
G1 X20.23
G2 X24.993 Y45.63 I0. J-4.763
G1 Y4.355
G3 X29.755 Y-0.407 I4.762 J0.
G1 X48.805
G3 X53.568 Y4.355 I0. J4.763
G1 Y45.63
G2 X58.33 Y50.393 I4.763 J0.
G1 X74.205
G3 X78.967 Y55.155 I0. J4.762
G1 Y74.205
G3 X74.205 Y78.967 I-4.762 J0.
G1 X49.329
X37.87
X26.411 Z-4.1 F800.
X4.355 F1600.
G3 X-0.407 Y74.205 I0. J-4.762
G1 Y55.155
G3 X4.355 Y50.393 I4.763 J0.
G1 X20.23
G2 X24.993 Y45.63 I0. J-4.763
G1 Y4.355
G3 X29.755 Y-0.407 I4.762 J0.
G1 X48.805
G3 X53.568 Y4.355 I0. J4.763
G1 Y45.63
G2 X58.33 Y50.393 I4.763 J0.
G1 X74.205
G3 X78.967 Y55.155 I0. J4.762
G1 Y74.205
G3 X74.205 Y78.967 I-4.762 J0.
G1 X37.87
X26.411
X17.817 Z-4.175 F800.
X4.355 F1600.
G3 X-0.407 Y74.205 I0. J-4.762
G1 Y55.155
G3 X4.355 Y50.393 I4.763 J0.
G1 X20.23
G2 X24.993 Y45.63 I0. J-4.763
G1 Y4.355
G3 X29.755 Y-0.407 I4.762 J0.
G1 X48.805
G3 X53.568 Y4.355 I0. J4.763
G1 Y45.63
G2 X58.33 Y50.393 I4.763 J0.
G1 X74.205
G3 X78.967 Y55.155 I0. J4.762
G1 Y74.205
G3 X74.205 Y78.967 I-4.762 J0.
G1 X26.411
X17.817
G2 X17.5 Y79.285 I0. J0.318
G1 Y79.603
G19 G3 Y79.92 Z-3.858 J0. K0.318
G0 Z6.
X71.491 Y171.36
G1 Z3.818 F800.
G2 Y171.042 Z3.5 J-0.318 K0.
G1 Y170.725 F1600.
G17 G2 X71.174 Y170.408 I-0.317 J0.
G1 X4.355 Z2.917 F800.
G3 X-0.407 Y165.645 Z2.852 I0. J-4.762
G1 Y146.595 Z2.685
G3 X4.355 Y141.833 Z2.62 I4.763 J0.
G1 X20.23 Z2.482
G2 X24.993 Y137.07 Z2.416 I0. J-4.762
G1 Y95.795 Z2.056
G3 X29.755 Y91.033 Z1.991 I4.762 J0.
G1 X48.805 Z1.825
G3 X53.568 Y95.795 Z1.759 I0. J4.762
G1 Y137.07 Z1.399
G2 X58.33 Y141.833 Z1.334 I4.763 J0.
G1 X74.205 Z1.195
G3 X78.967 Y146.595 Z1.13 I0. J4.762
G1 Y165.645 Z0.964
G3 X74.391 Y170.404 Z0.9 I-4.762 J0.
G1 X74.205 Y170.408 F1600.
X4.355
G3 X-0.407 Y165.645 I0. J-4.762
G1 Y146.595
G3 X4.355 Y141.833 I4.763 J0.
G1 X20.23
G2 X24.993 Y137.07 I0. J-4.762
G1 Y95.795
G3 X29.755 Y91.033 I4.762 J0.
G1 X48.805
G3 X53.568 Y95.795 I0. J4.762
G1 Y137.07
G2 X58.33 Y141.833 I4.763 J0.
G1 X74.205
G3 X78.967 Y146.595 I0. J4.762
G1 Y165.645
G3 X74.391 Y170.404 I-4.762 J0.
G1 X74.205 Y170.408 Z0.898 F800.
X62.932 Z0.8
X4.355 F1600.
G3 X-0.407 Y165.645 I0. J-4.762
G1 Y146.595
G3 X4.355 Y141.833 I4.763 J0.
G1 X20.23
G2 X24.993 Y137.07 I0. J-4.762
G1 Y95.795
G3 X29.755 Y91.033 I4.762 J0.
G1 X48.805
G3 X53.568 Y95.795 I0. J4.762
G1 Y137.07
G2 X58.33 Y141.833 I4.763 J0.
G1 X74.205
G3 X78.967 Y146.595 I0. J4.762
G1 Y165.645
G3 X74.205 Y170.408 I-4.762 J0.
G1 X62.932
X51.473 Z0.7 F800.
X4.355 F1600.
G3 X-0.407 Y165.645 I0. J-4.762
G1 Y146.595
G3 X4.355 Y141.833 I4.763 J0.
G1 X20.23
G2 X24.993 Y137.07 I0. J-4.762
G1 Y95.795
G3 X29.755 Y91.033 I4.762 J0.
G1 X48.805
G3 X53.568 Y95.795 I0. J4.762
G1 Y137.07
G2 X58.33 Y141.833 I4.763 J0.
G1 X74.205
G3 X78.967 Y146.595 I0. J4.762
G1 Y165.645
G3 X74.205 Y170.408 I-4.762 J0.
G1 X51.473
X40.014 Z0.6 F800.
X4.355 F1600.
G3 X-0.407 Y165.645 I0. J-4.762
G1 Y146.595
G3 X4.355 Y141.833 I4.763 J0.
G1 X20.23
G2 X24.993 Y137.07 I0. J-4.762
G1 Y95.795
G3 X29.755 Y91.033 I4.762 J0.
G1 X48.805
G3 X53.568 Y95.795 I0. J4.762
G1 Y137.07
G2 X58.33 Y141.833 I4.763 J0.
G1 X74.205
G3 X78.967 Y146.595 I0. J4.762
G1 Y165.645
G3 X74.205 Y170.408 I-4.762 J0.
G1 X51.473
X40.014
X28.555 Z0.5 F800.
X4.355 F1600.
G3 X-0.407 Y165.645 I0. J-4.762
G1 Y146.595
G3 X4.355 Y141.833 I4.763 J0.
G1 X20.23
G2 X24.993 Y137.07 I0. J-4.762
G1 Y95.795
G3 X29.755 Y91.033 I4.762 J0.
G1 X48.805
G3 X53.568 Y95.795 I0. J4.762
G1 Y137.07
G2 X58.33 Y141.833 I4.763 J0.
G1 X74.205
G3 X78.967 Y146.595 I0. J4.762
G1 Y165.645
G3 X74.205 Y170.408 I-4.762 J0.
G1 X40.014
X28.555
X17.096 Z0.4 F800.
X4.355 F1600.
G3 X-0.407 Y165.645 I0. J-4.762
G1 Y146.595
G3 X4.355 Y141.833 I4.763 J0.
G1 X20.23
G2 X24.993 Y137.07 I0. J-4.762
G1 Y95.795
G3 X29.755 Y91.033 I4.762 J0.
G1 X48.805
G3 X53.568 Y95.795 I0. J4.762
G1 Y137.07
G2 X58.33 Y141.833 I4.763 J0.
G1 X74.205
G3 X78.967 Y146.595 I0. J4.762
G1 Y165.645
G3 X74.205 Y170.408 I-4.762 J0.
G1 X28.555
X17.096
X5.638 Z0.3 F800.
X4.355 F1600.
G3 X-0.407 Y165.645 I0. J-4.762
G1 Y146.595
G3 X4.355 Y141.833 I4.763 J0.
G1 X20.23
G2 X24.993 Y137.07 I0. J-4.762
G1 Y95.795
G3 X29.755 Y91.033 I4.762 J0.
G1 X48.805
G3 X53.568 Y95.795 I0. J4.762
G1 Y137.07
G2 X58.33 Y141.833 I4.763 J0.
G1 X74.205
G3 X78.967 Y146.595 I0. J4.762
G1 Y165.645
G3 X74.205 Y170.408 I-4.762 J0.
G1 X17.096
X5.638
X4.355 Z0.289 F800.
G3 X-0.407 Y165.645 Z0.224 I0. J-4.762
G1 Y162.95 Z0.2
Y146.595 F1600.
G3 X4.355 Y141.833 I4.763 J0.
G1 X20.23
G2 X24.993 Y137.07 I0. J-4.762
G1 Y95.795
G3 X29.755 Y91.033 I4.762 J0.
G1 X48.805
G3 X53.568 Y95.795 I0. J4.762
G1 Y137.07
G2 X58.33 Y141.833 I4.763 J0.
G1 X74.205
G3 X78.967 Y146.595 I0. J4.762
G1 Y165.645
G3 X74.205 Y170.408 I-4.762 J0.
G1 X5.638
X4.355
G3 X-0.407 Y165.645 I0. J-4.762
G1 Y162.95
Y151.491 Z0.1 F800.
Y146.595 F1600.
G3 X4.355 Y141.833 I4.763 J0.
G1 X20.23
G2 X24.993 Y137.07 I0. J-4.762
G1 Y95.795
G3 X29.755 Y91.033 I4.762 J0.
G1 X48.805
G3 X53.568 Y95.795 I0. J4.762
G1 Y137.07
G2 X58.33 Y141.833 I4.763 J0.
G1 X74.205
G3 X78.967 Y146.595 I0. J4.762
G1 Y165.645
G3 X74.205 Y170.408 I-4.762 J0.
G1 X4.355
G3 X-0.407 Y165.645 I0. J-4.762
G1 Y151.491
Y146.595 Z0.057 F800.
G3 X3.443 Y141.921 Z0. I4.763 J0.
X4.355 Y141.833 I0.912 J4.674 F1600.
G1 X20.23
G2 X24.993 Y137.07 I0. J-4.762
G1 Y95.795
G3 X29.755 Y91.033 I4.762 J0.
G1 X48.805
G3 X53.568 Y95.795 I0. J4.762
G1 Y137.07
G2 X58.33 Y141.833 I4.763 J0.
G1 X74.205
G3 X78.967 Y146.595 I0. J4.762
G1 Y165.645
G3 X74.205 Y170.408 I-4.762 J0.
G1 X4.355
G3 X-0.407 Y165.645 I0. J-4.762
G1 Y151.491
Y146.595
G3 X3.443 Y141.921 I4.763 J0.
X4.355 Y141.833 Z-0.008 I0.912 J4.674 F800.
G1 X14.896 Z-0.1
X20.23 F1600.
G2 X24.993 Y137.07 I0. J-4.762
G1 Y95.795
G3 X29.755 Y91.033 I4.762 J0.
G1 X48.805
G3 X53.568 Y95.795 I0. J4.762
G1 Y137.07
G2 X58.33 Y141.833 I4.763 J0.
G1 X74.205
G3 X78.967 Y146.595 I0. J4.762
G1 Y165.645
G3 X74.205 Y170.408 I-4.762 J0.
G1 X4.355
G3 X-0.407 Y165.645 I0. J-4.762
G1 Y146.595
G3 X4.355 Y141.833 I4.763 J0.
G1 X14.896
X20.23 Z-0.147 F800.
G2 X24.801 Y138.408 Z-0.2 I0. J-4.762
X24.993 Y137.07 I-4.571 J-1.338 F1600.
G1 Y95.795
G3 X29.755 Y91.033 I4.762 J0.
G1 X48.805
G3 X53.568 Y95.795 I0. J4.762
G1 Y137.07
G2 X58.33 Y141.833 I4.763 J0.
G1 X74.205
G3 X78.967 Y146.595 I0. J4.762
G1 Y165.645
G3 X74.205 Y170.408 I-4.762 J0.
G1 X4.355
G3 X-0.407 Y165.645 I0. J-4.762
G1 Y146.595
G3 X4.355 Y141.833 I4.763 J0.
G1 X14.896
X20.23
G2 X24.801 Y138.408 I0. J-4.762
X24.993 Y137.07 Z-0.212 I-4.571 J-1.338 F800.
G1 Y126.967 Z-0.3
Y95.795 F1600.
G3 X29.755 Y91.033 I4.762 J0.
G1 X48.805
G3 X53.568 Y95.795 I0. J4.762
G1 Y137.07
G2 X58.33 Y141.833 I4.763 J0.
G1 X74.205
G3 X78.967 Y146.595 I0. J4.762
G1 Y165.645
G3 X74.205 Y170.408 I-4.762 J0.
G1 X4.355
G3 X-0.407 Y165.645 I0. J-4.762
G1 Y146.595
G3 X4.355 Y141.833 I4.763 J0.
G1 X20.23
G2 X24.993 Y137.07 I0. J-4.762
G1 Y126.967
Y115.508 Z-0.4 F800.
Y95.795 F1600.
G3 X29.755 Y91.033 I4.762 J0.
G1 X48.805
G3 X53.568 Y95.795 I0. J4.762
G1 Y137.07
G2 X58.33 Y141.833 I4.763 J0.
G1 X74.205
G3 X78.967 Y146.595 I0. J4.762
G1 Y165.645
G3 X74.205 Y170.408 I-4.762 J0.
G1 X4.355
G3 X-0.407 Y165.645 I0. J-4.762
G1 Y146.595
G3 X4.355 Y141.833 I4.763 J0.
G1 X20.23
G2 X24.993 Y137.07 I0. J-4.762
G1 Y115.508
Y104.049 Z-0.5 F800.
Y95.795 F1600.
G3 X29.755 Y91.033 I4.762 J0.
G1 X48.805
G3 X53.568 Y95.795 I0. J4.762
G1 Y137.07
G2 X58.33 Y141.833 I4.763 J0.
G1 X74.205
G3 X78.967 Y146.595 I0. J4.762
G1 Y165.645
G3 X74.205 Y170.408 I-4.762 J0.
G1 X4.355
G3 X-0.407 Y165.645 I0. J-4.762
G1 Y146.595
G3 X4.355 Y141.833 I4.763 J0.
G1 X20.23
G2 X24.993 Y137.07 I0. J-4.762
G1 Y115.508
Y104.049
Y95.795 Z-0.572 F800.
G3 X26.031 Y92.827 Z-0.6 I4.762 J0.
X29.755 Y91.033 I3.724 J2.968 F1600.
G1 X48.805
G3 X53.568 Y95.795 I0. J4.762
G1 Y137.07
G2 X58.33 Y141.833 I4.763 J0.
G1 X74.205
G3 X78.967 Y146.595 I0. J4.762
G1 Y165.645
G3 X74.205 Y170.408 I-4.762 J0.
G1 X4.355
G3 X-0.407 Y165.645 I0. J-4.762
G1 Y146.595
G3 X4.355 Y141.833 I4.763 J0.
G1 X20.23
G2 X24.993 Y137.07 I0. J-4.762
G1 Y104.049
Y95.795
G3 X26.031 Y92.827 I4.762 J0.
X29.755 Y91.033 Z-0.637 I3.724 J2.968 F800.
G1 X36.937 Z-0.7
X48.805 F1600.
G3 X53.568 Y95.795 I0. J4.762
G1 Y137.07
G2 X58.33 Y141.833 I4.763 J0.
G1 X74.205
G3 X78.967 Y146.595 I0. J4.762
G1 Y165.645
G3 X74.205 Y170.408 I-4.762 J0.
G1 X4.355
G3 X-0.407 Y165.645 I0. J-4.762
G1 Y146.595
G3 X4.355 Y141.833 I4.763 J0.
G1 X20.23
G2 X24.993 Y137.07 I0. J-4.762
G1 Y95.795
G3 X29.755 Y91.033 I4.762 J0.
G1 X36.937
X48.396 Z-0.8 F800.
X48.805 F1600.
G3 X53.568 Y95.795 I0. J4.762
G1 Y137.07
G2 X58.33 Y141.833 I4.763 J0.
G1 X74.205
G3 X78.967 Y146.595 I0. J4.762
G1 Y165.645
G3 X74.205 Y170.408 I-4.762 J0.
G1 X4.355
G3 X-0.407 Y165.645 I0. J-4.762
G1 Y146.595
G3 X4.355 Y141.833 I4.763 J0.
G1 X20.23
G2 X24.993 Y137.07 I0. J-4.762
G1 Y95.795
G3 X29.755 Y91.033 I4.762 J0.
G1 X48.396
X48.805 Z-0.804 F800.
G3 X53.568 Y95.795 Z-0.869 I0. J4.762
G1 Y99.364 Z-0.9
Y137.07 F1600.
G2 X58.33 Y141.833 I4.763 J0.
G1 X74.205
G3 X78.967 Y146.595 I0. J4.762
G1 Y165.645
G3 X74.205 Y170.408 I-4.762 J0.
G1 X4.355
G3 X-0.407 Y165.645 I0. J-4.762
G1 Y146.595
G3 X4.355 Y141.833 I4.763 J0.
G1 X20.23
G2 X24.993 Y137.07 I0. J-4.762
G1 Y95.795
G3 X29.755 Y91.033 I4.762 J0.
G1 X48.396
X48.805
G3 X53.568 Y95.795 I0. J4.762
G1 Y99.364
Y110.823 Z-1. F800.
Y137.07 F1600.
G2 X58.33 Y141.833 I4.763 J0.
G1 X74.205
G3 X78.967 Y146.595 I0. J4.762
G1 Y165.645
G3 X74.205 Y170.408 I-4.762 J0.
G1 X4.355
G3 X-0.407 Y165.645 I0. J-4.762
G1 Y146.595
G3 X4.355 Y141.833 I4.763 J0.
G1 X20.23
G2 X24.993 Y137.07 I0. J-4.762
G1 Y95.795
G3 X29.755 Y91.033 I4.762 J0.
G1 X48.805
G3 X53.568 Y95.795 I0. J4.762
G1 Y110.823
Y122.282 Z-1.1 F800.
Y137.07 F1600.
G2 X58.33 Y141.833 I4.763 J0.
G1 X74.205
G3 X78.967 Y146.595 I0. J4.762
G1 Y165.645
G3 X74.205 Y170.408 I-4.762 J0.
G1 X4.355
G3 X-0.407 Y165.645 I0. J-4.762
G1 Y146.595
G3 X4.355 Y141.833 I4.763 J0.
G1 X20.23
G2 X24.993 Y137.07 I0. J-4.762
G1 Y95.795
G3 X29.755 Y91.033 I4.762 J0.
G1 X48.805
G3 X53.568 Y95.795 I0. J4.762
G1 Y110.823
Y122.282
Y133.741 Z-1.2 F800.
Y137.07 F1600.
G2 X58.33 Y141.833 I4.763 J0.
G1 X74.205
G3 X78.967 Y146.595 I0. J4.762
G1 Y165.645
G3 X74.205 Y170.408 I-4.762 J0.
G1 X4.355
G3 X-0.407 Y165.645 I0. J-4.762
G1 Y146.595
G3 X4.355 Y141.833 I4.763 J0.
G1 X20.23
G2 X24.993 Y137.07 I0. J-4.762
G1 Y95.795
G3 X29.755 Y91.033 I4.762 J0.
G1 X48.805
G3 X53.568 Y95.795 I0. J4.762
G1 Y122.282
Y133.741
Y137.07 Z-1.229 F800.
G2 X58.33 Y141.833 Z-1.294 I4.763 J0.
G1 X58.979 Z-1.3
X74.205 F1600.
G3 X78.967 Y146.595 I0. J4.762
G1 Y165.645
G3 X74.205 Y170.408 I-4.762 J0.
G1 X4.355
G3 X-0.407 Y165.645 I0. J-4.762
G1 Y146.595
G3 X4.355 Y141.833 I4.763 J0.
G1 X20.23
G2 X24.993 Y137.07 I0. J-4.762
G1 Y95.795
G3 X29.755 Y91.033 I4.762 J0.
G1 X48.805
G3 X53.568 Y95.795 I0. J4.762
G1 Y133.741
Y137.07
G2 X58.33 Y141.833 I4.763 J0.
G1 X58.979
X70.438 Z-1.4 F800.
X74.205 F1600.
G3 X78.967 Y146.595 I0. J4.762
G1 Y165.645
G3 X74.205 Y170.408 I-4.762 J0.
G1 X4.355
G3 X-0.407 Y165.645 I0. J-4.762
G1 Y146.595
G3 X4.355 Y141.833 I4.763 J0.
G1 X20.23
G2 X24.993 Y137.07 I0. J-4.762
G1 Y95.795
G3 X29.755 Y91.033 I4.762 J0.
G1 X48.805
G3 X53.568 Y95.795 I0. J4.762
G1 Y137.07
G2 X58.33 Y141.833 I4.763 J0.
G1 X70.438
X74.205 Z-1.433 F800.
G3 X78.967 Y146.595 Z-1.498 I0. J4.762
G1 Y146.806 Z-1.5
Y165.645 F1600.
G3 X74.205 Y170.408 I-4.762 J0.
G1 X4.355
G3 X-0.407 Y165.645 I0. J-4.762
G1 Y146.595
G3 X4.355 Y141.833 I4.763 J0.
G1 X20.23
G2 X24.993 Y137.07 I0. J-4.762
G1 Y95.795
G3 X29.755 Y91.033 I4.762 J0.
G1 X48.805
G3 X53.568 Y95.795 I0. J4.762
G1 Y137.07
G2 X58.33 Y141.833 I4.763 J0.
G1 X70.438
X74.205
G3 X78.967 Y146.595 I0. J4.762
G1 Y146.806
Y158.265 Z-1.6 F800.
Y165.645 F1600.
G3 X74.205 Y170.408 I-4.762 J0.
G1 X4.355
G3 X-0.407 Y165.645 I0. J-4.762
G1 Y146.595
G3 X4.355 Y141.833 I4.763 J0.
G1 X20.23
G2 X24.993 Y137.07 I0. J-4.762
G1 Y95.795
G3 X29.755 Y91.033 I4.762 J0.
G1 X48.805
G3 X53.568 Y95.795 I0. J4.762
G1 Y137.07
G2 X58.33 Y141.833 I4.763 J0.
G1 X74.205
G3 X78.967 Y146.595 I0. J4.762
G1 Y158.265
Y165.645 Z-1.664 F800.
G3 X77.325 Y169.243 Z-1.7 I-4.762 J0.
X74.205 Y170.408 I-3.12 J-3.598 F1600.
G1 X4.355
G3 X-0.407 Y165.645 I0. J-4.762
G1 Y146.595
G3 X4.355 Y141.833 I4.763 J0.
G1 X20.23
G2 X24.993 Y137.07 I0. J-4.762
G1 Y95.795
G3 X29.755 Y91.033 I4.762 J0.
G1 X48.805
G3 X53.568 Y95.795 I0. J4.762
G1 Y137.07
G2 X58.33 Y141.833 I4.763 J0.
G1 X74.205
G3 X78.967 Y146.595 I0. J4.762
G1 Y158.265
Y165.645
G3 X77.325 Y169.243 I-4.762 J0.
X74.205 Y170.408 Z-1.73 I-3.12 J-3.598 F800.
G1 X66.149 Z-1.8
X4.355 F1600.
G3 X-0.407 Y165.645 I0. J-4.762
G1 Y146.595
G3 X4.355 Y141.833 I4.763 J0.
G1 X20.23
G2 X24.993 Y137.07 I0. J-4.762
G1 Y95.795
G3 X29.755 Y91.033 I4.762 J0.
G1 X48.805
G3 X53.568 Y95.795 I0. J4.762
G1 Y137.07
G2 X58.33 Y141.833 I4.763 J0.
G1 X74.205
G3 X78.967 Y146.595 I0. J4.762
G1 Y165.645
G3 X74.205 Y170.408 I-4.762 J0.
G1 X66.149
X54.69 Z-1.9 F800.
X4.355 F1600.
G3 X-0.407 Y165.645 I0. J-4.762
G1 Y146.595
G3 X4.355 Y141.833 I4.763 J0.
G1 X20.23
G2 X24.993 Y137.07 I0. J-4.762
G1 Y95.795
G3 X29.755 Y91.033 I4.762 J0.
G1 X48.805
G3 X53.568 Y95.795 I0. J4.762
G1 Y137.07
G2 X58.33 Y141.833 I4.763 J0.
G1 X74.205
G3 X78.967 Y146.595 I0. J4.762
G1 Y165.645
G3 X74.205 Y170.408 I-4.762 J0.
G1 X54.69
X43.231 Z-2. F800.
X4.355 F1600.
G3 X-0.407 Y165.645 I0. J-4.762
G1 Y146.595
G3 X4.355 Y141.833 I4.763 J0.
G1 X20.23
G2 X24.993 Y137.07 I0. J-4.762
G1 Y95.795
G3 X29.755 Y91.033 I4.762 J0.
G1 X48.805
G3 X53.568 Y95.795 I0. J4.762
G1 Y137.07
G2 X58.33 Y141.833 I4.763 J0.
G1 X74.205
G3 X78.967 Y146.595 I0. J4.762
G1 Y165.645
G3 X74.205 Y170.408 I-4.762 J0.
G1 X54.69
X43.231
X31.772 Z-2.1 F800.
X4.355 F1600.
G3 X-0.407 Y165.645 I0. J-4.762
G1 Y146.595
G3 X4.355 Y141.833 I4.763 J0.
G1 X20.23
G2 X24.993 Y137.07 I0. J-4.762
G1 Y95.795
G3 X29.755 Y91.033 I4.762 J0.
G1 X48.805
G3 X53.568 Y95.795 I0. J4.762
G1 Y137.07
G2 X58.33 Y141.833 I4.763 J0.
G1 X74.205
G3 X78.967 Y146.595 I0. J4.762
G1 Y165.645
G3 X74.205 Y170.408 I-4.762 J0.
G1 X43.231
X31.772
X20.313 Z-2.2 F800.
X4.355 F1600.
G3 X-0.407 Y165.645 I0. J-4.762
G1 Y146.595
G3 X4.355 Y141.833 I4.763 J0.
G1 X20.23
G2 X24.993 Y137.07 I0. J-4.762
G1 Y95.795
G3 X29.755 Y91.033 I4.762 J0.
G1 X48.805
G3 X53.568 Y95.795 I0. J4.762
G1 Y137.07
G2 X58.33 Y141.833 I4.763 J0.
G1 X74.205
G3 X78.967 Y146.595 I0. J4.762
G1 Y165.645
G3 X74.205 Y170.408 I-4.762 J0.
G1 X31.772
X20.313
X8.854 Z-2.3 F800.
X4.355 F1600.
G3 X-0.407 Y165.645 I0. J-4.762
G1 Y146.595
G3 X4.355 Y141.833 I4.763 J0.
G1 X20.23
G2 X24.993 Y137.07 I0. J-4.762
G1 Y95.795
G3 X29.755 Y91.033 I4.762 J0.
G1 X48.805
G3 X53.568 Y95.795 I0. J4.762
G1 Y137.07
G2 X58.33 Y141.833 I4.763 J0.
G1 X74.205
G3 X78.967 Y146.595 I0. J4.762
G1 Y165.645
G3 X74.205 Y170.408 I-4.762 J0.
G1 X20.313
X8.854
X4.355 Z-2.339 F800.
G3 X-0.379 Y166.165 Z-2.4 I0. J-4.762
X-0.407 Y165.645 I4.734 J-0.52 F1600.
G1 Y146.595
G3 X4.355 Y141.833 I4.763 J0.
G1 X20.23
G2 X24.993 Y137.07 I0. J-4.762
G1 Y95.795
G3 X29.755 Y91.033 I4.762 J0.
G1 X48.805
G3 X53.568 Y95.795 I0. J4.762
G1 Y137.07
G2 X58.33 Y141.833 I4.763 J0.
G1 X74.205
G3 X78.967 Y146.595 I0. J4.762
G1 Y165.645
G3 X74.205 Y170.408 I-4.762 J0.
G1 X8.854
X4.355
G3 X-0.379 Y166.165 I0. J-4.762
X-0.407 Y165.645 Z-2.405 I4.734 J-0.52 F800.
G1 Y154.708 Z-2.5
Y146.595 F1600.
G3 X4.355 Y141.833 I4.763 J0.
G1 X20.23
G2 X24.993 Y137.07 I0. J-4.762
G1 Y95.795
G3 X29.755 Y91.033 I4.762 J0.
G1 X48.805
G3 X53.568 Y95.795 I0. J4.762
G1 Y137.07
G2 X58.33 Y141.833 I4.763 J0.
G1 X74.205
G3 X78.967 Y146.595 I0. J4.762
G1 Y165.645
G3 X74.205 Y170.408 I-4.762 J0.
G1 X4.355
G3 X-0.407 Y165.645 I0. J-4.762
G1 Y154.708
Y146.595 Z-2.571 F800.
G3 X0.721 Y143.517 Z-2.6 I4.763 J0.
X4.355 Y141.833 I3.634 J3.078 F1600.
G1 X20.23
G2 X24.993 Y137.07 I0. J-4.762
G1 Y95.795
G3 X29.755 Y91.033 I4.762 J0.
G1 X48.805
G3 X53.568 Y95.795 I0. J4.762
G1 Y137.07
G2 X58.33 Y141.833 I4.763 J0.
G1 X74.205
G3 X78.967 Y146.595 I0. J4.762
G1 Y165.645
G3 X74.205 Y170.408 I-4.762 J0.
G1 X4.355
G3 X-0.407 Y165.645 I0. J-4.762
G1 Y154.708
Y146.595
G3 X0.721 Y143.517 I4.763 J0.
X4.355 Y141.833 Z-2.636 I3.634 J3.078 F800.
G1 X11.679 Z-2.7
X20.23 F1600.
G2 X24.993 Y137.07 I0. J-4.762
G1 Y95.795
G3 X29.755 Y91.033 I4.762 J0.
G1 X48.805
G3 X53.568 Y95.795 I0. J4.762
G1 Y137.07
G2 X58.33 Y141.833 I4.763 J0.
G1 X74.205
G3 X78.967 Y146.595 I0. J4.762
G1 Y165.645
G3 X74.205 Y170.408 I-4.762 J0.
G1 X4.355
G3 X-0.407 Y165.645 I0. J-4.762
G1 Y146.595
G3 X4.355 Y141.833 I4.763 J0.
G1 X11.679
X20.23 Z-2.775 F800.
G2 X22.961 Y140.972 Z-2.8 I0. J-4.762
X24.993 Y137.07 I-2.731 J-3.902 F1600.
G1 Y95.795
G3 X29.755 Y91.033 I4.762 J0.
G1 X48.805
G3 X53.568 Y95.795 I0. J4.762
G1 Y137.07
G2 X58.33 Y141.833 I4.763 J0.
G1 X74.205
G3 X78.967 Y146.595 I0. J4.762
G1 Y165.645
G3 X74.205 Y170.408 I-4.762 J0.
G1 X4.355
G3 X-0.407 Y165.645 I0. J-4.762
G1 Y146.595
G3 X4.355 Y141.833 I4.763 J0.
G1 X20.23
G2 X22.961 Y140.972 I0. J-4.762
X24.993 Y137.07 Z-2.84 I-2.731 J-3.902 F800.
G1 Y130.184 Z-2.9
Y95.795 F1600.
G3 X29.755 Y91.033 I4.762 J0.
G1 X48.805
G3 X53.568 Y95.795 I0. J4.762
G1 Y137.07
G2 X58.33 Y141.833 I4.763 J0.
G1 X74.205
G3 X78.967 Y146.595 I0. J4.762
G1 Y165.645
G3 X74.205 Y170.408 I-4.762 J0.
G1 X4.355
G3 X-0.407 Y165.645 I0. J-4.762
G1 Y146.595
G3 X4.355 Y141.833 I4.763 J0.
G1 X20.23
G2 X24.993 Y137.07 I0. J-4.762
G1 Y130.184
Y118.725 Z-3. F800.
Y95.795 F1600.
G3 X29.755 Y91.033 I4.762 J0.
G1 X48.805
G3 X53.568 Y95.795 I0. J4.762
G1 Y137.07
G2 X58.33 Y141.833 I4.763 J0.
G1 X74.205
G3 X78.967 Y146.595 I0. J4.762
G1 Y165.645
G3 X74.205 Y170.408 I-4.762 J0.
G1 X4.355
G3 X-0.407 Y165.645 I0. J-4.762
G1 Y146.595
G3 X4.355 Y141.833 I4.763 J0.
G1 X20.23
G2 X24.993 Y137.07 I0. J-4.762
G1 Y118.725
Y107.266 Z-3.1 F800.
Y95.795 F1600.
G3 X29.755 Y91.033 I4.762 J0.
G1 X48.805
G3 X53.568 Y95.795 I0. J4.762
G1 Y137.07
G2 X58.33 Y141.833 I4.763 J0.
G1 X74.205
G3 X78.967 Y146.595 I0. J4.762
G1 Y165.645
G3 X74.205 Y170.408 I-4.762 J0.
G1 X4.355
G3 X-0.407 Y165.645 I0. J-4.762
G1 Y146.595
G3 X4.355 Y141.833 I4.763 J0.
G1 X20.23
G2 X24.993 Y137.07 I0. J-4.762
G1 Y118.725
Y107.266
Y95.807 Z-3.2 F800.
Y95.795 F1600.
G3 X29.755 Y91.033 I4.762 J0.
G1 X48.805
G3 X53.568 Y95.795 I0. J4.762
G1 Y137.07
G2 X58.33 Y141.833 I4.763 J0.
G1 X74.205
G3 X78.967 Y146.595 I0. J4.762
G1 Y165.645
G3 X74.205 Y170.408 I-4.762 J0.
G1 X4.355
G3 X-0.407 Y165.645 I0. J-4.762
G1 Y146.595
G3 X4.355 Y141.833 I4.763 J0.
G1 X20.23
G2 X24.993 Y137.07 I0. J-4.762
G1 Y107.266
Y95.807
Y95.795 F800.
G3 X29.755 Y91.033 Z-3.265 I4.762 J0.
G1 X33.721 Z-3.3
X48.805 F1600.
G3 X53.568 Y95.795 I0. J4.762
G1 Y137.07
G2 X58.33 Y141.833 I4.763 J0.
G1 X74.205
G3 X78.967 Y146.595 I0. J4.762
G1 Y165.645
G3 X74.205 Y170.408 I-4.762 J0.
G1 X4.355
G3 X-0.407 Y165.645 I0. J-4.762
G1 Y146.595
G3 X4.355 Y141.833 I4.763 J0.
G1 X20.23
G2 X24.993 Y137.07 I0. J-4.762
G1 Y95.807
Y95.795
G3 X29.755 Y91.033 I4.762 J0.
G1 X33.721
X45.179 Z-3.4 F800.
X48.805 F1600.
G3 X53.568 Y95.795 I0. J4.762
G1 Y137.07
G2 X58.33 Y141.833 I4.763 J0.
G1 X74.205
G3 X78.967 Y146.595 I0. J4.762
G1 Y165.645
G3 X74.205 Y170.408 I-4.762 J0.
G1 X4.355
G3 X-0.407 Y165.645 I0. J-4.762
G1 Y146.595
G3 X4.355 Y141.833 I4.763 J0.
G1 X20.23
G2 X24.993 Y137.07 I0. J-4.762
G1 Y95.795
G3 X29.755 Y91.033 I4.762 J0.
G1 X45.179
X48.805 Z-3.432 F800.
G3 X53.568 Y95.795 Z-3.497 I0. J4.762
G1 Y96.147 Z-3.5
Y137.07 F1600.
G2 X58.33 Y141.833 I4.763 J0.
G1 X74.205
G3 X78.967 Y146.595 I0. J4.762
G1 Y165.645
G3 X74.205 Y170.408 I-4.762 J0.
G1 X4.355
G3 X-0.407 Y165.645 I0. J-4.762
G1 Y146.595
G3 X4.355 Y141.833 I4.763 J0.
G1 X20.23
G2 X24.993 Y137.07 I0. J-4.762
G1 Y95.795
G3 X29.755 Y91.033 I4.762 J0.
G1 X45.179
X48.805
G3 X53.568 Y95.795 I0. J4.762
G1 Y96.147
Y107.606 Z-3.6 F800.
Y137.07 F1600.
G2 X58.33 Y141.833 I4.763 J0.
G1 X74.205
G3 X78.967 Y146.595 I0. J4.762
G1 Y165.645
G3 X74.205 Y170.408 I-4.762 J0.
G1 X4.355
G3 X-0.407 Y165.645 I0. J-4.762
G1 Y146.595
G3 X4.355 Y141.833 I4.763 J0.
G1 X20.23
G2 X24.993 Y137.07 I0. J-4.762
G1 Y95.795
G3 X29.755 Y91.033 I4.762 J0.
G1 X48.805
G3 X53.568 Y95.795 I0. J4.762
G1 Y107.606
Y119.065 Z-3.7 F800.
Y137.07 F1600.
G2 X58.33 Y141.833 I4.763 J0.
G1 X74.205
G3 X78.967 Y146.595 I0. J4.762
G1 Y165.645
G3 X74.205 Y170.408 I-4.762 J0.
G1 X4.355
G3 X-0.407 Y165.645 I0. J-4.762
G1 Y146.595
G3 X4.355 Y141.833 I4.763 J0.
G1 X20.23
G2 X24.993 Y137.07 I0. J-4.762
G1 Y95.795
G3 X29.755 Y91.033 I4.762 J0.
G1 X48.805
G3 X53.568 Y95.795 I0. J4.762
G1 Y107.606
Y119.065
Y130.524 Z-3.8 F800.
Y137.07 F1600.
G2 X58.33 Y141.833 I4.763 J0.
G1 X74.205
G3 X78.967 Y146.595 I0. J4.762
G1 Y165.645
G3 X74.205 Y170.408 I-4.762 J0.
G1 X4.355
G3 X-0.407 Y165.645 I0. J-4.762
G1 Y146.595
G3 X4.355 Y141.833 I4.763 J0.
G1 X20.23
G2 X24.993 Y137.07 I0. J-4.762
G1 Y95.795
G3 X29.755 Y91.033 I4.762 J0.
G1 X48.805
G3 X53.568 Y95.795 I0. J4.762
G1 Y119.065
Y130.524
Y137.07 Z-3.857 F800.
G2 X55.885 Y141.157 Z-3.9 I4.763 J0.
X58.33 Y141.833 I2.445 J-4.087 F1600.
G1 X74.205
G3 X78.967 Y146.595 I0. J4.762
G1 Y165.645
G3 X74.205 Y170.408 I-4.762 J0.
G1 X4.355
G3 X-0.407 Y165.645 I0. J-4.762
G1 Y146.595
G3 X4.355 Y141.833 I4.763 J0.
G1 X20.23
G2 X24.993 Y137.07 I0. J-4.762
G1 Y95.795
G3 X29.755 Y91.033 I4.762 J0.
G1 X48.805
G3 X53.568 Y95.795 I0. J4.762
G1 Y130.524
Y137.07
G2 X55.885 Y141.157 I4.763 J0.
X58.33 Y141.833 Z-3.922 I2.445 J-4.087 F800.
G1 X67.221 Z-4.
X74.205 F1600.
G3 X78.967 Y146.595 I0. J4.762
G1 Y165.645
G3 X74.205 Y170.408 I-4.762 J0.
G1 X4.355
G3 X-0.407 Y165.645 I0. J-4.762
G1 Y146.595
G3 X4.355 Y141.833 I4.763 J0.
G1 X20.23
G2 X24.993 Y137.07 I0. J-4.762
G1 Y95.795
G3 X29.755 Y91.033 I4.762 J0.
G1 X48.805
G3 X53.568 Y95.795 I0. J4.762
G1 Y137.07
G2 X58.33 Y141.833 I4.763 J0.
G1 X67.221
X74.205 Z-4.061 F800.
G3 X78.05 Y143.784 Z-4.1 I0. J4.762
X78.967 Y146.595 I-3.845 J2.811 F1600.
G1 Y165.645
G3 X74.205 Y170.408 I-4.762 J0.
G1 X4.355
G3 X-0.407 Y165.645 I0. J-4.762
G1 Y146.595
G3 X4.355 Y141.833 I4.763 J0.
G1 X20.23
G2 X24.993 Y137.07 I0. J-4.762
G1 Y95.795
G3 X29.755 Y91.033 I4.762 J0.
G1 X48.805
G3 X53.568 Y95.795 I0. J4.762
G1 Y137.07
G2 X58.33 Y141.833 I4.763 J0.
G1 X67.221
X74.205
G3 X78.05 Y143.784 I0. J4.762
X78.967 Y146.595 Z-4.126 I-3.845 J2.811 F800.
G1 Y152.183 Z-4.175
Y165.645 F1600.
G3 X74.205 Y170.408 I-4.762 J0.
G1 X4.355
G3 X-0.407 Y165.645 I0. J-4.762
G1 Y146.595
G3 X4.355 Y141.833 I4.763 J0.
G1 X20.23
G2 X24.993 Y137.07 I0. J-4.762
G1 Y95.795
G3 X29.755 Y91.033 I4.762 J0.
G1 X48.805
G3 X53.568 Y95.795 I0. J4.762
G1 Y137.07
G2 X58.33 Y141.833 I4.763 J0.
G1 X74.205
G3 X78.967 Y146.595 I0. J4.762
G1 Y152.183
G2 X79.285 Y152.5 I0.318 J0.
G1 X79.603
G18 G2 X79.92 Z-3.858 I0. K0.318
G0 Z6.
X92.29 Y170.17
G1 Z3.818 F800.
X92.296 Y170.164 Z3.747
X92.311 Y170.147 Z3.68
X92.336 Y170.118 Z3.62
X92.369 Y170.08 Z3.569
X92.408 Y170.035 Z3.531
X92.452 Y169.984 Z3.508
X92.498 Y169.931 Z3.5
X92.706 Y169.691 F1600.
G17 G2 X92.675 Y169.243 I-0.24 J-0.208
G3 X91.033 Y165.645 Z3.464 I3.12 J-3.598 F800.
G1 Y146.595 Z3.298
G3 X95.795 Y141.833 Z3.233 I4.762 J0.
G1 X111.67 Z3.094
G2 X116.433 Y137.07 Z3.029 I0. J-4.762
G1 Y95.795 Z2.669
G3 X121.195 Y91.033 Z2.604 I4.762 J0.
G1 X140.245 Z2.437
G3 X145.008 Y95.795 Z2.372 I0. J4.762
G1 Y137.07 Z2.012
G2 X149.77 Y141.833 Z1.947 I4.762 J0.
G1 X165.645 Z1.808
G3 X170.408 Y146.595 Z1.743 I0. J4.762
G1 Y165.645 Z1.576
G3 X165.645 Y170.408 Z1.511 I-4.762 J0.
G1 X95.795 Z0.902
X95.609 Y170.404 Z0.9
G3 X91.033 Y165.645 I0.186 J-4.759 F1600.
G1 Y146.595
G3 X95.795 Y141.833 I4.762 J0.
G1 X111.67
G2 X116.433 Y137.07 I0. J-4.762
G1 Y95.795
G3 X121.195 Y91.033 I4.762 J0.
G1 X140.245
G3 X145.008 Y95.795 I0. J4.762
G1 Y137.07
G2 X149.77 Y141.833 I4.762 J0.
G1 X165.645
G3 X170.408 Y146.595 I0. J4.762
G1 Y165.645
G3 X165.645 Y170.408 I-4.762 J0.
G1 X95.795
X95.609 Y170.404
G3 X91.033 Y165.645 Z0.836 I0.186 J-4.759 F800.
G1 Y161.481 Z0.8
Y146.595 F1600.
G3 X95.795 Y141.833 I4.762 J0.
G1 X111.67
G2 X116.433 Y137.07 I0. J-4.762
G1 Y95.795
G3 X121.195 Y91.033 I4.762 J0.
G1 X140.245
G3 X145.008 Y95.795 I0. J4.762
G1 Y137.07
G2 X149.77 Y141.833 I4.762 J0.
G1 X165.645
G3 X170.408 Y146.595 I0. J4.762
G1 Y165.645
G3 X165.645 Y170.408 I-4.762 J0.
G1 X95.795
G3 X91.033 Y165.645 I0. J-4.762
G1 Y161.481
Y150.022 Z0.7 F800.
Y146.595 F1600.
G3 X95.795 Y141.833 I4.762 J0.
G1 X111.67
G2 X116.433 Y137.07 I0. J-4.762
G1 Y95.795
G3 X121.195 Y91.033 I4.762 J0.
G1 X140.245
G3 X145.008 Y95.795 I0. J4.762
G1 Y137.07
G2 X149.77 Y141.833 I4.762 J0.
G1 X165.645
G3 X170.408 Y146.595 I0. J4.762
G1 Y165.645
G3 X165.645 Y170.408 I-4.762 J0.
G1 X95.795
G3 X91.033 Y165.645 I0. J-4.762
G1 Y150.022
Y146.595 Z0.67 F800.
G3 X95.795 Y141.833 Z0.605 I4.762 J0.
G1 X96.345 Z0.6
X111.67 F1600.
G2 X116.433 Y137.07 I0. J-4.762
G1 Y95.795
G3 X121.195 Y91.033 I4.762 J0.
G1 X140.245
G3 X145.008 Y95.795 I0. J4.762
G1 Y137.07
G2 X149.77 Y141.833 I4.762 J0.
G1 X165.645
G3 X170.408 Y146.595 I0. J4.762
G1 Y165.645
G3 X165.645 Y170.408 I-4.762 J0.
G1 X95.795
G3 X91.033 Y165.645 I0. J-4.762
G1 Y150.022
Y146.595
G3 X95.795 Y141.833 I4.762 J0.
G1 X96.345
X107.804 Z0.5 F800.
X111.67 F1600.
G2 X116.433 Y137.07 I0. J-4.762
G1 Y95.795
G3 X121.195 Y91.033 I4.762 J0.
G1 X140.245
G3 X145.008 Y95.795 I0. J4.762
G1 Y137.07
G2 X149.77 Y141.833 I4.762 J0.
G1 X165.645
G3 X170.408 Y146.595 I0. J4.762
G1 Y165.645
G3 X165.645 Y170.408 I-4.762 J0.
G1 X95.795
G3 X91.033 Y165.645 I0. J-4.762
G1 Y146.595
G3 X95.795 Y141.833 I4.762 J0.
G1 X107.804
X111.67 Z0.466 F800.
G2 X116.433 Y137.07 Z0.401 I0. J-4.762
G1 Y136.958 Z0.4
Y95.795 F1600.
G3 X121.195 Y91.033 I4.762 J0.
G1 X140.245
G3 X145.008 Y95.795 I0. J4.762
G1 Y137.07
G2 X149.77 Y141.833 I4.762 J0.
G1 X165.645
G3 X170.408 Y146.595 I0. J4.762
G1 Y165.645
G3 X165.645 Y170.408 I-4.762 J0.
G1 X95.795
G3 X91.033 Y165.645 I0. J-4.762
G1 Y146.595
G3 X95.795 Y141.833 I4.762 J0.
G1 X107.804
X111.67
G2 X116.433 Y137.07 I0. J-4.762
G1 Y136.958
Y125.499 Z0.3 F800.
Y95.795 F1600.
G3 X121.195 Y91.033 I4.762 J0.
G1 X140.245
G3 X145.008 Y95.795 I0. J4.762
G1 Y137.07
G2 X149.77 Y141.833 I4.762 J0.
G1 X165.645
G3 X170.408 Y146.595 I0. J4.762
G1 Y165.645
G3 X165.645 Y170.408 I-4.762 J0.
G1 X95.795
G3 X91.033 Y165.645 I0. J-4.762
G1 Y146.595
G3 X95.795 Y141.833 I4.762 J0.
G1 X111.67
G2 X116.433 Y137.07 I0. J-4.762
G1 Y125.499
Y114.04 Z0.2 F800.
Y95.795 F1600.
G3 X121.195 Y91.033 I4.762 J0.
G1 X140.245
G3 X145.008 Y95.795 I0. J4.762
G1 Y137.07
G2 X149.77 Y141.833 I4.762 J0.
G1 X165.645
G3 X170.408 Y146.595 I0. J4.762
G1 Y165.645
G3 X165.645 Y170.408 I-4.762 J0.
G1 X95.795
G3 X91.033 Y165.645 I0. J-4.762
G1 Y146.595
G3 X95.795 Y141.833 I4.762 J0.
G1 X111.67
G2 X116.433 Y137.07 I0. J-4.762
G1 Y125.499
Y114.04
Y102.581 Z0.1 F800.
Y95.795 F1600.
G3 X121.195 Y91.033 I4.762 J0.
G1 X140.245
G3 X145.008 Y95.795 I0. J4.762
G1 Y137.07
G2 X149.77 Y141.833 I4.762 J0.
G1 X165.645
G3 X170.408 Y146.595 I0. J4.762
G1 Y165.645
G3 X165.645 Y170.408 I-4.762 J0.
G1 X95.795
G3 X91.033 Y165.645 I0. J-4.762
G1 Y146.595
G3 X95.795 Y141.833 I4.762 J0.
G1 X111.67
G2 X116.433 Y137.07 I0. J-4.762
G1 Y114.04
Y102.581
Y95.795 Z0.041 F800.
G3 X118.547 Y91.837 Z0. I4.762 J0.
X121.195 Y91.033 I2.648 J3.958 F1600.
G1 X140.245
G3 X145.008 Y95.795 I0. J4.762
G1 Y137.07
G2 X149.77 Y141.833 I4.762 J0.
G1 X165.645
G3 X170.408 Y146.595 I0. J4.762
G1 Y165.645
G3 X165.645 Y170.408 I-4.762 J0.
G1 X95.795
G3 X91.033 Y165.645 I0. J-4.762
G1 Y146.595
G3 X95.795 Y141.833 I4.762 J0.
G1 X111.67
G2 X116.433 Y137.07 I0. J-4.762
G1 Y102.581
Y95.795
G3 X118.547 Y91.837 I4.762 J0.
X121.195 Y91.033 Z-0.025 I2.648 J3.958 F800.
G1 X129.846 Z-0.1
X140.245 F1600.
G3 X145.008 Y95.795 I0. J4.762
G1 Y137.07
G2 X149.77 Y141.833 I4.762 J0.
G1 X165.645
G3 X170.408 Y146.595 I0. J4.762
G1 Y165.645
G3 X165.645 Y170.408 I-4.762 J0.
G1 X95.795
G3 X91.033 Y165.645 I0. J-4.762
G1 Y146.595
G3 X95.795 Y141.833 I4.762 J0.
G1 X111.67
G2 X116.433 Y137.07 I0. J-4.762
G1 Y95.795
G3 X121.195 Y91.033 I4.762 J0.
G1 X129.846
X140.245 Z-0.191 F800.
G3 X141.296 Y91.15 Z-0.2 I0. J4.762
X145.008 Y95.795 I-1.051 J4.645 F1600.
G1 Y137.07
G2 X149.77 Y141.833 I4.762 J0.
G1 X165.645
G3 X170.408 Y146.595 I0. J4.762
G1 Y165.645
G3 X165.645 Y170.408 I-4.762 J0.
G1 X95.795
G3 X91.033 Y165.645 I0. J-4.762
G1 Y146.595
G3 X95.795 Y141.833 I4.762 J0.
G1 X111.67
G2 X116.433 Y137.07 I0. J-4.762
G1 Y95.795
G3 X121.195 Y91.033 I4.762 J0.
G1 X140.245
G3 X141.296 Y91.15 I0. J4.762
X145.008 Y95.795 Z-0.256 I-1.051 J4.645 F800.
G1 Y100.832 Z-0.3
Y137.07 F1600.
G2 X149.77 Y141.833 I4.762 J0.
G1 X165.645
G3 X170.408 Y146.595 I0. J4.762
G1 Y165.645
G3 X165.645 Y170.408 I-4.762 J0.
G1 X95.795
G3 X91.033 Y165.645 I0. J-4.762
G1 Y146.595
G3 X95.795 Y141.833 I4.762 J0.
G1 X111.67
G2 X116.433 Y137.07 I0. J-4.762
G1 Y95.795
G3 X121.195 Y91.033 I4.762 J0.
G1 X140.245
G3 X145.008 Y95.795 I0. J4.762
G1 Y100.832
Y112.291 Z-0.4 F800.
Y137.07 F1600.
G2 X149.77 Y141.833 I4.762 J0.
G1 X165.645
G3 X170.408 Y146.595 I0. J4.762
G1 Y165.645
G3 X165.645 Y170.408 I-4.762 J0.
G1 X95.795
G3 X91.033 Y165.645 I0. J-4.762
G1 Y146.595
G3 X95.795 Y141.833 I4.762 J0.
G1 X111.67
G2 X116.433 Y137.07 I0. J-4.762
G1 Y95.795
G3 X121.195 Y91.033 I4.762 J0.
G1 X140.245
G3 X145.008 Y95.795 I0. J4.762
G1 Y112.291
Y123.75 Z-0.5 F800.
Y137.07 F1600.
G2 X149.77 Y141.833 I4.762 J0.
G1 X165.645
G3 X170.408 Y146.595 I0. J4.762
G1 Y165.645
G3 X165.645 Y170.408 I-4.762 J0.
G1 X95.795
G3 X91.033 Y165.645 I0. J-4.762
G1 Y146.595
G3 X95.795 Y141.833 I4.762 J0.
G1 X111.67
G2 X116.433 Y137.07 I0. J-4.762
G1 Y95.795
G3 X121.195 Y91.033 I4.762 J0.
G1 X140.245
G3 X145.008 Y95.795 I0. J4.762
G1 Y112.291
Y123.75
Y135.209 Z-0.6 F800.
Y137.07 F1600.
G2 X149.77 Y141.833 I4.762 J0.
G1 X165.645
G3 X170.408 Y146.595 I0. J4.762
G1 Y165.645
G3 X165.645 Y170.408 I-4.762 J0.
G1 X95.795
G3 X91.033 Y165.645 I0. J-4.762
G1 Y146.595
G3 X95.795 Y141.833 I4.762 J0.
G1 X111.67
G2 X116.433 Y137.07 I0. J-4.762
G1 Y95.795
G3 X121.195 Y91.033 I4.762 J0.
G1 X140.245
G3 X145.008 Y95.795 I0. J4.762
G1 Y123.75
Y135.209
Y137.07 Z-0.616 F800.
G2 X149.77 Y141.833 Z-0.682 I4.762 J0.
G1 X151.887 Z-0.7
X165.645 F1600.
G3 X170.408 Y146.595 I0. J4.762
G1 Y165.645
G3 X165.645 Y170.408 I-4.762 J0.
G1 X95.795
G3 X91.033 Y165.645 I0. J-4.762
G1 Y146.595
G3 X95.795 Y141.833 I4.762 J0.
G1 X111.67
G2 X116.433 Y137.07 I0. J-4.762
G1 Y95.795
G3 X121.195 Y91.033 I4.762 J0.
G1 X140.245
G3 X145.008 Y95.795 I0. J4.762
G1 Y135.209
Y137.07
G2 X149.77 Y141.833 I4.762 J0.
G1 X151.887
X163.346 Z-0.8 F800.
X165.645 F1600.
G3 X170.408 Y146.595 I0. J4.762
G1 Y165.645
G3 X165.645 Y170.408 I-4.762 J0.
G1 X95.795
G3 X91.033 Y165.645 I0. J-4.762
G1 Y146.595
G3 X95.795 Y141.833 I4.762 J0.
G1 X111.67
G2 X116.433 Y137.07 I0. J-4.762
G1 Y95.795
G3 X121.195 Y91.033 I4.762 J0.
G1 X140.245
G3 X145.008 Y95.795 I0. J4.762
G1 Y137.07
G2 X149.77 Y141.833 I4.762 J0.
G1 X163.346
X165.645 Z-0.82 F800.
G3 X170.408 Y146.595 Z-0.885 I0. J4.762
G1 Y148.274 Z-0.9
Y165.645 F1600.
G3 X165.645 Y170.408 I-4.762 J0.
G1 X95.795
G3 X91.033 Y165.645 I0. J-4.762
G1 Y146.595
G3 X95.795 Y141.833 I4.762 J0.
G1 X111.67
G2 X116.433 Y137.07 I0. J-4.762
G1 Y95.795
G3 X121.195 Y91.033 I4.762 J0.
G1 X140.245
G3 X145.008 Y95.795 I0. J4.762
G1 Y137.07
G2 X149.77 Y141.833 I4.762 J0.
G1 X163.346
X165.645
G3 X170.408 Y146.595 I0. J4.762
G1 Y148.274
Y159.733 Z-1. F800.
Y165.645 F1600.
G3 X165.645 Y170.408 I-4.762 J0.
G1 X95.795
G3 X91.033 Y165.645 I0. J-4.762
G1 Y146.595
G3 X95.795 Y141.833 I4.762 J0.
G1 X111.67
G2 X116.433 Y137.07 I0. J-4.762
G1 Y95.795
G3 X121.195 Y91.033 I4.762 J0.
G1 X140.245
G3 X145.008 Y95.795 I0. J4.762
G1 Y137.07
G2 X149.77 Y141.833 I4.762 J0.
G1 X165.645
G3 X170.408 Y146.595 I0. J4.762
G1 Y159.733
Y165.645 Z-1.052 F800.
G3 X167.527 Y170.02 Z-1.1 I-4.762 J0.
X165.645 Y170.408 I-1.882 J-4.375 F1600.
G1 X95.795
G3 X91.033 Y165.645 I0. J-4.762
G1 Y146.595
G3 X95.795 Y141.833 I4.762 J0.
G1 X111.67
G2 X116.433 Y137.07 I0. J-4.762
G1 Y95.795
G3 X121.195 Y91.033 I4.762 J0.
G1 X140.245
G3 X145.008 Y95.795 I0. J4.762
G1 Y137.07
G2 X149.77 Y141.833 I4.762 J0.
G1 X165.645
G3 X170.408 Y146.595 I0. J4.762
G1 Y159.733
Y165.645
G3 X167.527 Y170.02 I-4.762 J0.
X165.645 Y170.408 Z-1.117 I-1.882 J-4.375 F800.
G1 X156.12 Z-1.2
X95.795 F1600.
G3 X91.033 Y165.645 I0. J-4.762
G1 Y146.595
G3 X95.795 Y141.833 I4.762 J0.
G1 X111.67
G2 X116.433 Y137.07 I0. J-4.762
G1 Y95.795
G3 X121.195 Y91.033 I4.762 J0.
G1 X140.245
G3 X145.008 Y95.795 I0. J4.762
G1 Y137.07
G2 X149.77 Y141.833 I4.762 J0.
G1 X165.645
G3 X170.408 Y146.595 I0. J4.762
G1 Y165.645
G3 X165.645 Y170.408 I-4.762 J0.
G1 X156.12
X144.662 Z-1.3 F800.
X95.795 F1600.
G3 X91.033 Y165.645 I0. J-4.762
G1 Y146.595
G3 X95.795 Y141.833 I4.762 J0.
G1 X111.67
G2 X116.433 Y137.07 I0. J-4.762
G1 Y95.795
G3 X121.195 Y91.033 I4.762 J0.
G1 X140.245
G3 X145.008 Y95.795 I0. J4.762
G1 Y137.07
G2 X149.77 Y141.833 I4.762 J0.
G1 X165.645
G3 X170.408 Y146.595 I0. J4.762
G1 Y165.645
G3 X165.645 Y170.408 I-4.762 J0.
G1 X144.662
X133.203 Z-1.4 F800.
X95.795 F1600.
G3 X91.033 Y165.645 I0. J-4.762
G1 Y146.595
G3 X95.795 Y141.833 I4.762 J0.
G1 X111.67
G2 X116.433 Y137.07 I0. J-4.762
G1 Y95.795
G3 X121.195 Y91.033 I4.762 J0.
G1 X140.245
G3 X145.008 Y95.795 I0. J4.762
G1 Y137.07
G2 X149.77 Y141.833 I4.762 J0.
G1 X165.645
G3 X170.408 Y146.595 I0. J4.762
G1 Y165.645
G3 X165.645 Y170.408 I-4.762 J0.
G1 X144.662
X133.203
X121.744 Z-1.5 F800.
X95.795 F1600.
G3 X91.033 Y165.645 I0. J-4.762
G1 Y146.595
G3 X95.795 Y141.833 I4.762 J0.
G1 X111.67
G2 X116.433 Y137.07 I0. J-4.762
G1 Y95.795
G3 X121.195 Y91.033 I4.762 J0.
G1 X140.245
G3 X145.008 Y95.795 I0. J4.762
G1 Y137.07
G2 X149.77 Y141.833 I4.762 J0.
G1 X165.645
G3 X170.408 Y146.595 I0. J4.762
G1 Y165.645
G3 X165.645 Y170.408 I-4.762 J0.
G1 X133.203
X121.744
X110.285 Z-1.6 F800.
X95.795 F1600.
G3 X91.033 Y165.645 I0. J-4.762
G1 Y146.595
G3 X95.795 Y141.833 I4.762 J0.
G1 X111.67
G2 X116.433 Y137.07 I0. J-4.762
G1 Y95.795
G3 X121.195 Y91.033 I4.762 J0.
G1 X140.245
G3 X145.008 Y95.795 I0. J4.762
G1 Y137.07
G2 X149.77 Y141.833 I4.762 J0.
G1 X165.645
G3 X170.408 Y146.595 I0. J4.762
G1 Y165.645
G3 X165.645 Y170.408 I-4.762 J0.
G1 X121.744
X110.285
X98.826 Z-1.7 F800.
X95.795 F1600.
G3 X91.033 Y165.645 I0. J-4.762
G1 Y146.595
G3 X95.795 Y141.833 I4.762 J0.
G1 X111.67
G2 X116.433 Y137.07 I0. J-4.762
G1 Y95.795
G3 X121.195 Y91.033 I4.762 J0.
G1 X140.245
G3 X145.008 Y95.795 I0. J4.762
G1 Y137.07
G2 X149.77 Y141.833 I4.762 J0.
G1 X165.645
G3 X170.408 Y146.595 I0. J4.762
G1 Y165.645
G3 X165.645 Y170.408 I-4.762 J0.
G1 X110.285
X98.826
X95.795 Z-1.726 F800.
G3 X91.033 Y165.645 Z-1.792 I0. J-4.762
G1 Y164.698 Z-1.8
Y146.595 F1600.
G3 X95.795 Y141.833 I4.762 J0.
G1 X111.67
G2 X116.433 Y137.07 I0. J-4.762
G1 Y95.795
G3 X121.195 Y91.033 I4.762 J0.
G1 X140.245
G3 X145.008 Y95.795 I0. J4.762
G1 Y137.07
G2 X149.77 Y141.833 I4.762 J0.
G1 X165.645
G3 X170.408 Y146.595 I0. J4.762
G1 Y165.645
G3 X165.645 Y170.408 I-4.762 J0.
G1 X98.826
X95.795
G3 X91.033 Y165.645 I0. J-4.762
G1 Y164.698
Y153.239 Z-1.9 F800.
Y146.595 F1600.
G3 X95.795 Y141.833 I4.762 J0.
G1 X111.67
G2 X116.433 Y137.07 I0. J-4.762
G1 Y95.795
G3 X121.195 Y91.033 I4.762 J0.
G1 X140.245
G3 X145.008 Y95.795 I0. J4.762
G1 Y137.07
G2 X149.77 Y141.833 I4.762 J0.
G1 X165.645
G3 X170.408 Y146.595 I0. J4.762
G1 Y165.645
G3 X165.645 Y170.408 I-4.762 J0.
G1 X95.795
G3 X91.033 Y165.645 I0. J-4.762
G1 Y153.239
Y146.595 Z-1.958 F800.
G3 X93.266 Y142.56 Z-2. I4.762 J0.
X95.795 Y141.833 I2.529 J4.035 F1600.
G1 X111.67
G2 X116.433 Y137.07 I0. J-4.762
G1 Y95.795
G3 X121.195 Y91.033 I4.762 J0.
G1 X140.245
G3 X145.008 Y95.795 I0. J4.762
G1 Y137.07
G2 X149.77 Y141.833 I4.762 J0.
G1 X165.645
G3 X170.408 Y146.595 I0. J4.762
G1 Y165.645
G3 X165.645 Y170.408 I-4.762 J0.
G1 X95.795
G3 X91.033 Y165.645 I0. J-4.762
G1 Y153.239
Y146.595
G3 X93.266 Y142.56 I4.762 J0.
X95.795 Y141.833 Z-2.023 I2.529 J4.035 F800.
G1 X104.587 Z-2.1
X111.67 F1600.
G2 X116.433 Y137.07 I0. J-4.762
G1 Y95.795
G3 X121.195 Y91.033 I4.762 J0.
G1 X140.245
G3 X145.008 Y95.795 I0. J4.762
G1 Y137.07
G2 X149.77 Y141.833 I4.762 J0.
G1 X165.645
G3 X170.408 Y146.595 I0. J4.762
G1 Y165.645
G3 X165.645 Y170.408 I-4.762 J0.
G1 X95.795
G3 X91.033 Y165.645 I0. J-4.762
G1 Y146.595
G3 X95.795 Y141.833 I4.762 J0.
G1 X104.587
X111.67 Z-2.162 F800.
G2 X115.456 Y139.959 Z-2.2 I0. J-4.762
X116.433 Y137.07 I-3.786 J-2.889 F1600.
G1 Y95.795
G3 X121.195 Y91.033 I4.762 J0.
G1 X140.245
G3 X145.008 Y95.795 I0. J4.762
G1 Y137.07
G2 X149.77 Y141.833 I4.762 J0.
G1 X165.645
G3 X170.408 Y146.595 I0. J4.762
G1 Y165.645
G3 X165.645 Y170.408 I-4.762 J0.
G1 X95.795
G3 X91.033 Y165.645 I0. J-4.762
G1 Y146.595
G3 X95.795 Y141.833 I4.762 J0.
G1 X104.587
X111.67
G2 X115.456 Y139.959 I0. J-4.762
X116.433 Y137.07 Z-2.227 I-3.786 J-2.889 F800.
G1 Y128.716 Z-2.3
Y95.795 F1600.
G3 X121.195 Y91.033 I4.762 J0.
G1 X140.245
G3 X145.008 Y95.795 I0. J4.762
G1 Y137.07
G2 X149.77 Y141.833 I4.762 J0.
G1 X165.645
G3 X170.408 Y146.595 I0. J4.762
G1 Y165.645
G3 X165.645 Y170.408 I-4.762 J0.
G1 X95.795
G3 X91.033 Y165.645 I0. J-4.762
G1 Y146.595
G3 X95.795 Y141.833 I4.762 J0.
G1 X111.67
G2 X116.433 Y137.07 I0. J-4.762
G1 Y128.716
Y117.257 Z-2.4 F800.
Y95.795 F1600.
G3 X121.195 Y91.033 I4.762 J0.
G1 X140.245
G3 X145.008 Y95.795 I0. J4.762
G1 Y137.07
G2 X149.77 Y141.833 I4.762 J0.
G1 X165.645
G3 X170.408 Y146.595 I0. J4.762
G1 Y165.645
G3 X165.645 Y170.408 I-4.762 J0.
G1 X95.795
G3 X91.033 Y165.645 I0. J-4.762
G1 Y146.595
G3 X95.795 Y141.833 I4.762 J0.
G1 X111.67
G2 X116.433 Y137.07 I0. J-4.762
G1 Y117.257
Y105.798 Z-2.5 F800.
Y95.795 F1600.
G3 X121.195 Y91.033 I4.762 J0.
G1 X140.245
G3 X145.008 Y95.795 I0. J4.762
G1 Y137.07
G2 X149.77 Y141.833 I4.762 J0.
G1 X165.645
G3 X170.408 Y146.595 I0. J4.762
G1 Y165.645
G3 X165.645 Y170.408 I-4.762 J0.
G1 X95.795
G3 X91.033 Y165.645 I0. J-4.762
G1 Y146.595
G3 X95.795 Y141.833 I4.762 J0.
G1 X111.67
G2 X116.433 Y137.07 I0. J-4.762
G1 Y117.257
Y105.798
Y95.795 Z-2.587 F800.
G3 X116.653 Y94.362 Z-2.6 I4.762 J0.
X121.195 Y91.033 I4.542 J1.433 F1600.
G1 X140.245
G3 X145.008 Y95.795 I0. J4.762
G1 Y137.07
G2 X149.77 Y141.833 I4.762 J0.
G1 X165.645
G3 X170.408 Y146.595 I0. J4.762
G1 Y165.645
G3 X165.645 Y170.408 I-4.762 J0.
G1 X95.795
G3 X91.033 Y165.645 I0. J-4.762
G1 Y146.595
G3 X95.795 Y141.833 I4.762 J0.
G1 X111.67
G2 X116.433 Y137.07 I0. J-4.762
G1 Y105.798
Y95.795
G3 X116.653 Y94.362 I4.762 J0.
X121.195 Y91.033 Z-2.653 I4.542 J1.433 F800.
G1 X126.629 Z-2.7
X140.245 F1600.
G3 X145.008 Y95.795 I0. J4.762
G1 Y137.07
G2 X149.77 Y141.833 I4.762 J0.
G1 X165.645
G3 X170.408 Y146.595 I0. J4.762
G1 Y165.645
G3 X165.645 Y170.408 I-4.762 J0.
G1 X95.795
G3 X91.033 Y165.645 I0. J-4.762
G1 Y146.595
G3 X95.795 Y141.833 I4.762 J0.
G1 X111.67
G2 X116.433 Y137.07 I0. J-4.762
G1 Y95.795
G3 X121.195 Y91.033 I4.762 J0.
G1 X126.629
X138.088 Z-2.8 F800.
X140.245 F1600.
G3 X145.008 Y95.795 I0. J4.762
G1 Y137.07
G2 X149.77 Y141.833 I4.762 J0.
G1 X165.645
G3 X170.408 Y146.595 I0. J4.762
G1 Y165.645
G3 X165.645 Y170.408 I-4.762 J0.
G1 X95.795
G3 X91.033 Y165.645 I0. J-4.762
G1 Y146.595
G3 X95.795 Y141.833 I4.762 J0.
G1 X111.67
G2 X116.433 Y137.07 I0. J-4.762
G1 Y95.795
G3 X121.195 Y91.033 I4.762 J0.
G1 X138.088
X140.245 Z-2.819 F800.
G3 X145.008 Y95.795 Z-2.884 I0. J4.762
G1 Y97.616 Z-2.9
Y137.07 F1600.
G2 X149.77 Y141.833 I4.762 J0.
G1 X165.645
G3 X170.408 Y146.595 I0. J4.762
G1 Y165.645
G3 X165.645 Y170.408 I-4.762 J0.
G1 X95.795
G3 X91.033 Y165.645 I0. J-4.762
G1 Y146.595
G3 X95.795 Y141.833 I4.762 J0.
G1 X111.67
G2 X116.433 Y137.07 I0. J-4.762
G1 Y95.795
G3 X121.195 Y91.033 I4.762 J0.
G1 X138.088
X140.245
G3 X145.008 Y95.795 I0. J4.762
G1 Y97.616
Y109.075 Z-3. F800.
Y137.07 F1600.
G2 X149.77 Y141.833 I4.762 J0.
G1 X165.645
G3 X170.408 Y146.595 I0. J4.762
G1 Y165.645
G3 X165.645 Y170.408 I-4.762 J0.
G1 X95.795
G3 X91.033 Y165.645 I0. J-4.762
G1 Y146.595
G3 X95.795 Y141.833 I4.762 J0.
G1 X111.67
G2 X116.433 Y137.07 I0. J-4.762
G1 Y95.795
G3 X121.195 Y91.033 I4.762 J0.
G1 X140.245
G3 X145.008 Y95.795 I0. J4.762
G1 Y109.075
Y120.533 Z-3.1 F800.
Y137.07 F1600.
G2 X149.77 Y141.833 I4.762 J0.
G1 X165.645
G3 X170.408 Y146.595 I0. J4.762
G1 Y165.645
G3 X165.645 Y170.408 I-4.762 J0.
G1 X95.795
G3 X91.033 Y165.645 I0. J-4.762
G1 Y146.595
G3 X95.795 Y141.833 I4.762 J0.
G1 X111.67
G2 X116.433 Y137.07 I0. J-4.762
G1 Y95.795
G3 X121.195 Y91.033 I4.762 J0.
G1 X140.245
G3 X145.008 Y95.795 I0. J4.762
G1 Y109.075
Y120.533
Y131.992 Z-3.2 F800.
Y137.07 F1600.
G2 X149.77 Y141.833 I4.762 J0.
G1 X165.645
G3 X170.408 Y146.595 I0. J4.762
G1 Y165.645
G3 X165.645 Y170.408 I-4.762 J0.
G1 X95.795
G3 X91.033 Y165.645 I0. J-4.762
G1 Y146.595
G3 X95.795 Y141.833 I4.762 J0.
G1 X111.67
G2 X116.433 Y137.07 I0. J-4.762
G1 Y95.795
G3 X121.195 Y91.033 I4.762 J0.
G1 X140.245
G3 X145.008 Y95.795 I0. J4.762
G1 Y120.533
Y131.992
Y137.07 Z-3.244 F800.
G2 X148.68 Y141.706 Z-3.3 I4.762 J0.
X149.77 Y141.833 I1.09 J-4.636 F1600.
G1 X165.645
G3 X170.408 Y146.595 I0. J4.762
G1 Y165.645
G3 X165.645 Y170.408 I-4.762 J0.
G1 X95.795
G3 X91.033 Y165.645 I0. J-4.762
G1 Y146.595
G3 X95.795 Y141.833 I4.762 J0.
G1 X111.67
G2 X116.433 Y137.07 I0. J-4.762
G1 Y95.795
G3 X121.195 Y91.033 I4.762 J0.
G1 X140.245
G3 X145.008 Y95.795 I0. J4.762
G1 Y131.992
Y137.07
G2 X148.68 Y141.706 I4.762 J0.
X149.77 Y141.833 Z-3.31 I1.09 J-4.636 F800.
G1 X160.129 Z-3.4
X165.645 F1600.
G3 X170.408 Y146.595 I0. J4.762
G1 Y165.645
G3 X165.645 Y170.408 I-4.762 J0.
G1 X95.795
G3 X91.033 Y165.645 I0. J-4.762
G1 Y146.595
G3 X95.795 Y141.833 I4.762 J0.
G1 X111.67
G2 X116.433 Y137.07 I0. J-4.762
G1 Y95.795
G3 X121.195 Y91.033 I4.762 J0.
G1 X140.245
G3 X145.008 Y95.795 I0. J4.762
G1 Y137.07
G2 X149.77 Y141.833 I4.762 J0.
G1 X160.129
X165.645 Z-3.448 F800.
G3 X170.161 Y145.084 Z-3.5 I0. J4.762
X170.408 Y146.595 I-4.516 J1.511 F1600.
G1 Y165.645
G3 X165.645 Y170.408 I-4.762 J0.
G1 X95.795
G3 X91.033 Y165.645 I0. J-4.762
G1 Y146.595
G3 X95.795 Y141.833 I4.762 J0.
G1 X111.67
G2 X116.433 Y137.07 I0. J-4.762
G1 Y95.795
G3 X121.195 Y91.033 I4.762 J0.
G1 X140.245
G3 X145.008 Y95.795 I0. J4.762
G1 Y137.07
G2 X149.77 Y141.833 I4.762 J0.
G1 X160.129
X165.645
G3 X170.161 Y145.084 I0. J4.762
X170.408 Y146.595 Z-3.513 I-4.516 J1.511 F800.
G1 Y156.516 Z-3.6
Y165.645 F1600.
G3 X165.645 Y170.408 I-4.762 J0.
G1 X95.795
G3 X91.033 Y165.645 I0. J-4.762
G1 Y146.595
G3 X95.795 Y141.833 I4.762 J0.
G1 X111.67
G2 X116.433 Y137.07 I0. J-4.762
G1 Y95.795
G3 X121.195 Y91.033 I4.762 J0.
G1 X140.245
G3 X145.008 Y95.795 I0. J4.762
G1 Y137.07
G2 X149.77 Y141.833 I4.762 J0.
G1 X165.645
G3 X170.408 Y146.595 I0. J4.762
G1 Y156.516
Y165.645 Z-3.68 F800.
G3 X169.849 Y167.883 Z-3.7 I-4.762 J0.
X165.645 Y170.408 I-4.204 J-2.238 F1600.
G1 X95.795
G3 X91.033 Y165.645 I0. J-4.762
G1 Y146.595
G3 X95.795 Y141.833 I4.762 J0.
G1 X111.67
G2 X116.433 Y137.07 I0. J-4.762
G1 Y95.795
G3 X121.195 Y91.033 I4.762 J0.
G1 X140.245
G3 X145.008 Y95.795 I0. J4.762
G1 Y137.07
G2 X149.77 Y141.833 I4.762 J0.
G1 X165.645
G3 X170.408 Y146.595 I0. J4.762
G1 Y156.516
Y165.645
G3 X169.849 Y167.883 I-4.762 J0.
X165.645 Y170.408 Z-3.745 I-4.204 J-2.238 F800.
G1 X159.337 Z-3.8
X95.795 F1600.
G3 X91.033 Y165.645 I0. J-4.762
G1 Y146.595
G3 X95.795 Y141.833 I4.762 J0.
G1 X111.67
G2 X116.433 Y137.07 I0. J-4.762
G1 Y95.795
G3 X121.195 Y91.033 I4.762 J0.
G1 X140.245
G3 X145.008 Y95.795 I0. J4.762
G1 Y137.07
G2 X149.77 Y141.833 I4.762 J0.
G1 X165.645
G3 X170.408 Y146.595 I0. J4.762
G1 Y165.645
G3 X165.645 Y170.408 I-4.762 J0.
G1 X159.337
X147.878 Z-3.9 F800.
X95.795 F1600.
G3 X91.033 Y165.645 I0. J-4.762
G1 Y146.595
G3 X95.795 Y141.833 I4.762 J0.
G1 X111.67
G2 X116.433 Y137.07 I0. J-4.762
G1 Y95.795
G3 X121.195 Y91.033 I4.762 J0.
G1 X140.245
G3 X145.008 Y95.795 I0. J4.762
G1 Y137.07
G2 X149.77 Y141.833 I4.762 J0.
G1 X165.645
G3 X170.408 Y146.595 I0. J4.762
G1 Y165.645
G3 X165.645 Y170.408 I-4.762 J0.
G1 X147.878
X136.42 Z-4. F800.
X95.795 F1600.
G3 X91.033 Y165.645 I0. J-4.762
G1 Y146.595
G3 X95.795 Y141.833 I4.762 J0.
G1 X111.67
G2 X116.433 Y137.07 I0. J-4.762
G1 Y95.795
G3 X121.195 Y91.033 I4.762 J0.
G1 X140.245
G3 X145.008 Y95.795 I0. J4.762
G1 Y137.07
G2 X149.77 Y141.833 I4.762 J0.
G1 X165.645
G3 X170.408 Y146.595 I0. J4.762
G1 Y165.645
G3 X165.645 Y170.408 I-4.762 J0.
G1 X147.878
X136.42
X124.961 Z-4.1 F800.
X95.795 F1600.
G3 X91.033 Y165.645 I0. J-4.762
G1 Y146.595
G3 X95.795 Y141.833 I4.762 J0.
G1 X111.67
G2 X116.433 Y137.07 I0. J-4.762
G1 Y95.795
G3 X121.195 Y91.033 I4.762 J0.
G1 X140.245
G3 X145.008 Y95.795 I0. J4.762
G1 Y137.07
G2 X149.77 Y141.833 I4.762 J0.
G1 X165.645
G3 X170.408 Y146.595 I0. J4.762
G1 Y165.645
G3 X165.645 Y170.408 I-4.762 J0.
G1 X136.42
X124.961
X116.367 Z-4.175 F800.
X95.795 F1600.
G3 X91.033 Y165.645 I0. J-4.762
G1 Y146.595
G3 X95.795 Y141.833 I4.762 J0.
G1 X111.67
G2 X116.433 Y137.07 I0. J-4.762
G1 Y95.795
G3 X121.195 Y91.033 I4.762 J0.
G1 X140.245
G3 X145.008 Y95.795 I0. J4.762
G1 Y137.07
G2 X149.77 Y141.833 I4.762 J0.
G1 X165.645
G3 X170.408 Y146.595 I0. J4.762
G1 Y165.645
G3 X165.645 Y170.408 I-4.762 J0.
G1 X124.961
X116.367
G2 X116.049 Y170.725 I0. J0.318
G1 Y171.042
G19 G3 Y171.36 Z-3.858 J0. K0.318
G0 Z6.
X170.17 Y77.71
G1 Z3.818 F800.
X170.164 Y77.704 Z3.747
X170.147 Y77.689 Z3.68
X170.118 Y77.664 Z3.62
X170.08 Y77.631 Z3.569
X170.035 Y77.592 Z3.531
X169.984 Y77.548 Z3.508
X169.931 Y77.502 Z3.5
X169.691 Y77.294 F1600.
G17 G2 X169.243 Y77.325 I-0.208 J0.24
G3 X165.645 Y78.967 Z3.464 I-3.598 J-3.12 F800.
G1 X95.795 Z2.855
G3 X91.033 Y74.205 Z2.79 I0. J-4.762
G1 Y55.155 Z2.623
G3 X95.795 Y50.393 Z2.558 I4.762 J0.
G1 X111.67 Z2.419
G2 X116.433 Y45.63 Z2.354 I0. J-4.763
G1 Y4.355 Z1.994
G3 X121.195 Y-0.407 Z1.929 I4.762 J0.
G1 X140.245 Z1.762
G3 X145.008 Y4.355 Z1.697 I0. J4.763
G1 Y45.63 Z1.337
G2 X149.77 Y50.393 Z1.272 I4.762 J0.
G1 X165.645 Z1.133
G3 X170.408 Y55.155 Z1.068 I0. J4.762
G1 Y74.205 Z0.902
X170.404 Y74.391 Z0.9
G3 X165.645 Y78.967 I-4.759 J-0.186 F1600.
G1 X95.795
G3 X91.033 Y74.205 I0. J-4.762
G1 Y55.155
G3 X95.795 Y50.393 I4.762 J0.
G1 X111.67
G2 X116.433 Y45.63 I0. J-4.763
G1 Y4.355
G3 X121.195 Y-0.407 I4.762 J0.
G1 X140.245
G3 X145.008 Y4.355 I0. J4.763
G1 Y45.63
G2 X149.77 Y50.393 I4.762 J0.
G1 X165.645
G3 X170.408 Y55.155 I0. J4.762
G1 Y74.205
X170.404 Y74.391
G3 X165.645 Y78.967 Z0.836 I-4.759 J-0.186 F800.
G1 X161.481 Z0.8
X95.795 F1600.
G3 X91.033 Y74.205 I0. J-4.762
G1 Y55.155
G3 X95.795 Y50.393 I4.762 J0.
G1 X111.67
G2 X116.433 Y45.63 I0. J-4.763
G1 Y4.355
G3 X121.195 Y-0.407 I4.762 J0.
G1 X140.245
G3 X145.008 Y4.355 I0. J4.763
G1 Y45.63
G2 X149.77 Y50.393 I4.762 J0.
G1 X165.645
G3 X170.408 Y55.155 I0. J4.762
G1 Y74.205
G3 X165.645 Y78.967 I-4.762 J0.
G1 X161.481
X150.022 Z0.7 F800.
X95.795 F1600.
G3 X91.033 Y74.205 I0. J-4.762
G1 Y55.155
G3 X95.795 Y50.393 I4.762 J0.
G1 X111.67
G2 X116.433 Y45.63 I0. J-4.763
G1 Y4.355
G3 X121.195 Y-0.407 I4.762 J0.
G1 X140.245
G3 X145.008 Y4.355 I0. J4.763
G1 Y45.63
G2 X149.77 Y50.393 I4.762 J0.
G1 X165.645
G3 X170.408 Y55.155 I0. J4.762
G1 Y74.205
G3 X165.645 Y78.967 I-4.762 J0.
G1 X150.022
X138.564 Z0.6 F800.
X95.795 F1600.
G3 X91.033 Y74.205 I0. J-4.762
G1 Y55.155
G3 X95.795 Y50.393 I4.762 J0.
G1 X111.67
G2 X116.433 Y45.63 I0. J-4.763
G1 Y4.355
G3 X121.195 Y-0.407 I4.762 J0.
G1 X140.245
G3 X145.008 Y4.355 I0. J4.763
G1 Y45.63
G2 X149.77 Y50.393 I4.762 J0.
G1 X165.645
G3 X170.408 Y55.155 I0. J4.762
G1 Y74.205
G3 X165.645 Y78.967 I-4.762 J0.
G1 X150.022
X138.564
X127.105 Z0.5 F800.
X95.795 F1600.
G3 X91.033 Y74.205 I0. J-4.762
G1 Y55.155
G3 X95.795 Y50.393 I4.762 J0.
G1 X111.67
G2 X116.433 Y45.63 I0. J-4.763
G1 Y4.355
G3 X121.195 Y-0.407 I4.762 J0.
G1 X140.245
G3 X145.008 Y4.355 I0. J4.763
G1 Y45.63
G2 X149.77 Y50.393 I4.762 J0.
G1 X165.645
G3 X170.408 Y55.155 I0. J4.762
G1 Y74.205
G3 X165.645 Y78.967 I-4.762 J0.
G1 X138.564
X127.105
X115.646 Z0.4 F800.
X95.795 F1600.
G3 X91.033 Y74.205 I0. J-4.762
G1 Y55.155
G3 X95.795 Y50.393 I4.762 J0.
G1 X111.67
G2 X116.433 Y45.63 I0. J-4.763
G1 Y4.355
G3 X121.195 Y-0.407 I4.762 J0.
G1 X140.245
G3 X145.008 Y4.355 I0. J4.763
G1 Y45.63
G2 X149.77 Y50.393 I4.762 J0.
G1 X165.645
G3 X170.408 Y55.155 I0. J4.762
G1 Y74.205
G3 X165.645 Y78.967 I-4.762 J0.
G1 X127.105
X115.646
X104.187 Z0.3 F800.
X95.795 F1600.
G3 X91.033 Y74.205 I0. J-4.762
G1 Y55.155
G3 X95.795 Y50.393 I4.762 J0.
G1 X111.67
G2 X116.433 Y45.63 I0. J-4.763
G1 Y4.355
G3 X121.195 Y-0.407 I4.762 J0.
G1 X140.245
G3 X145.008 Y4.355 I0. J4.763
G1 Y45.63
G2 X149.77 Y50.393 I4.762 J0.
G1 X165.645
G3 X170.408 Y55.155 I0. J4.762
G1 Y74.205
G3 X165.645 Y78.967 I-4.762 J0.
G1 X115.646
X104.187
X95.795 Z0.227 F800.
G3 X92.936 Y78.014 Z0.2 I0. J-4.762
X91.033 Y74.205 I2.859 J-3.809 F1600.
G1 Y55.155
G3 X95.795 Y50.393 I4.762 J0.
G1 X111.67
G2 X116.433 Y45.63 I0. J-4.763
G1 Y4.355
G3 X121.195 Y-0.407 I4.762 J0.
G1 X140.245
G3 X145.008 Y4.355 I0. J4.763
G1 Y45.63
G2 X149.77 Y50.393 I4.762 J0.
G1 X165.645
G3 X170.408 Y55.155 I0. J4.762
G1 Y74.205
G3 X165.645 Y78.967 I-4.762 J0.
G1 X104.187
X95.795
G3 X92.936 Y78.014 I0. J-4.762
X91.033 Y74.205 Z0.161 I2.859 J-3.809 F800.
G1 Y67.16 Z0.1
Y55.155 F1600.
G3 X95.795 Y50.393 I4.762 J0.
G1 X111.67
G2 X116.433 Y45.63 I0. J-4.763
G1 Y4.355
G3 X121.195 Y-0.407 I4.762 J0.
G1 X140.245
G3 X145.008 Y4.355 I0. J4.763
G1 Y45.63
G2 X149.77 Y50.393 I4.762 J0.
G1 X165.645
G3 X170.408 Y55.155 I0. J4.762
G1 Y74.205
G3 X165.645 Y78.967 I-4.762 J0.
G1 X95.795
G3 X91.033 Y74.205 I0. J-4.762
G1 Y67.16
Y55.701 Z0. F800.
Y55.155 F1600.
G3 X95.795 Y50.393 I4.762 J0.
G1 X111.67
G2 X116.433 Y45.63 I0. J-4.763
G1 Y4.355
G3 X121.195 Y-0.407 I4.762 J0.
G1 X140.245
G3 X145.008 Y4.355 I0. J4.763
G1 Y45.63
G2 X149.77 Y50.393 I4.762 J0.
G1 X165.645
G3 X170.408 Y55.155 I0. J4.762
G1 Y74.205
G3 X165.645 Y78.967 I-4.762 J0.
G1 X95.795
G3 X91.033 Y74.205 I0. J-4.762
G1 Y55.701
Y55.155 Z-0.005 F800.
G3 X95.795 Y50.393 Z-0.07 I4.762 J0.
G1 X99.227 Z-0.1
X111.67 F1600.
G2 X116.433 Y45.63 I0. J-4.763
G1 Y4.355
G3 X121.195 Y-0.407 I4.762 J0.
G1 X140.245
G3 X145.008 Y4.355 I0. J4.763
G1 Y45.63
G2 X149.77 Y50.393 I4.762 J0.
G1 X165.645
G3 X170.408 Y55.155 I0. J4.762
G1 Y74.205
G3 X165.645 Y78.967 I-4.762 J0.
G1 X95.795
G3 X91.033 Y74.205 I0. J-4.762
G1 Y55.701
Y55.155
G3 X95.795 Y50.393 I4.762 J0.
G1 X99.227
X110.685 Z-0.2 F800.
X111.67 F1600.
G2 X116.433 Y45.63 I0. J-4.763
G1 Y4.355
G3 X121.195 Y-0.407 I4.762 J0.
G1 X140.245
G3 X145.008 Y4.355 I0. J4.763
G1 Y45.63
G2 X149.77 Y50.393 I4.762 J0.
G1 X165.645
G3 X170.408 Y55.155 I0. J4.762
G1 Y74.205
G3 X165.645 Y78.967 I-4.762 J0.
G1 X95.795
G3 X91.033 Y74.205 I0. J-4.762
G1 Y55.155
G3 X95.795 Y50.393 I4.762 J0.
G1 X110.685
X111.67 Z-0.209 F800.
G2 X116.433 Y45.63 Z-0.274 I0. J-4.763
G1 Y42.637 Z-0.3
Y4.355 F1600.
G3 X121.195 Y-0.407 I4.762 J0.
G1 X140.245
G3 X145.008 Y4.355 I0. J4.763
G1 Y45.63
G2 X149.77 Y50.393 I4.762 J0.
G1 X165.645
G3 X170.408 Y55.155 I0. J4.762
G1 Y74.205
G3 X165.645 Y78.967 I-4.762 J0.
G1 X95.795
G3 X91.033 Y74.205 I0. J-4.762
G1 Y55.155
G3 X95.795 Y50.393 I4.762 J0.
G1 X110.685
X111.67
G2 X116.433 Y45.63 I0. J-4.763
G1 Y42.637
Y31.178 Z-0.4 F800.
Y4.355 F1600.
G3 X121.195 Y-0.407 I4.762 J0.
G1 X140.245
G3 X145.008 Y4.355 I0. J4.763
G1 Y45.63
G2 X149.77 Y50.393 I4.762 J0.
G1 X165.645
G3 X170.408 Y55.155 I0. J4.762
G1 Y74.205
G3 X165.645 Y78.967 I-4.762 J0.
G1 X95.795
G3 X91.033 Y74.205 I0. J-4.762
G1 Y55.155
G3 X95.795 Y50.393 I4.762 J0.
G1 X111.67
G2 X116.433 Y45.63 I0. J-4.763
G1 Y31.178
Y19.719 Z-0.5 F800.
Y4.355 F1600.
G3 X121.195 Y-0.407 I4.762 J0.
G1 X140.245
G3 X145.008 Y4.355 I0. J4.763
G1 Y45.63
G2 X149.77 Y50.393 I4.762 J0.
G1 X165.645
G3 X170.408 Y55.155 I0. J4.762
G1 Y74.205
G3 X165.645 Y78.967 I-4.762 J0.
G1 X95.795
G3 X91.033 Y74.205 I0. J-4.762
G1 Y55.155
G3 X95.795 Y50.393 I4.762 J0.
G1 X111.67
G2 X116.433 Y45.63 I0. J-4.763
G1 Y31.178
Y19.719
Y8.26 Z-0.6 F800.
Y4.355 F1600.
G3 X121.195 Y-0.407 I4.762 J0.
G1 X140.245
G3 X145.008 Y4.355 I0. J4.763
G1 Y45.63
G2 X149.77 Y50.393 I4.762 J0.
G1 X165.645
G3 X170.408 Y55.155 I0. J4.762
G1 Y74.205
G3 X165.645 Y78.967 I-4.762 J0.
G1 X95.795
G3 X91.033 Y74.205 I0. J-4.762
G1 Y55.155
G3 X95.795 Y50.393 I4.762 J0.
G1 X111.67
G2 X116.433 Y45.63 I0. J-4.763
G1 Y19.719
Y8.26
Y4.355 Z-0.634 F800.
G3 X121.195 Y-0.407 Z-0.699 I4.762 J0.
G1 X121.268 Z-0.7
X140.245 F1600.
G3 X145.008 Y4.355 I0. J4.763
G1 Y45.63
G2 X149.77 Y50.393 I4.762 J0.
G1 X165.645
G3 X170.408 Y55.155 I0. J4.762
G1 Y74.205
G3 X165.645 Y78.967 I-4.762 J0.
G1 X95.795
G3 X91.033 Y74.205 I0. J-4.762
G1 Y55.155
G3 X95.795 Y50.393 I4.762 J0.
G1 X111.67
G2 X116.433 Y45.63 I0. J-4.763
G1 Y8.26
Y4.355
G3 X121.195 Y-0.407 I4.762 J0.
G1 X121.268
X132.727 Z-0.8 F800.
X140.245 F1600.
G3 X145.008 Y4.355 I0. J4.763
G1 Y45.63
G2 X149.77 Y50.393 I4.762 J0.
G1 X165.645
G3 X170.408 Y55.155 I0. J4.762
G1 Y74.205
G3 X165.645 Y78.967 I-4.762 J0.
G1 X95.795
G3 X91.033 Y74.205 I0. J-4.762
G1 Y55.155
G3 X95.795 Y50.393 I4.762 J0.
G1 X111.67
G2 X116.433 Y45.63 I0. J-4.763
G1 Y4.355
G3 X121.195 Y-0.407 I4.762 J0.
G1 X132.727
X140.245 Z-0.866 F800.
G3 X143.751 Y1.132 Z-0.9 I0. J4.763
X145.008 Y4.355 I-3.506 J3.223 F1600.
G1 Y45.63
G2 X149.77 Y50.393 I4.762 J0.
G1 X165.645
G3 X170.408 Y55.155 I0. J4.762
G1 Y74.205
G3 X165.645 Y78.967 I-4.762 J0.
G1 X95.795
G3 X91.033 Y74.205 I0. J-4.762
G1 Y55.155
G3 X95.795 Y50.393 I4.762 J0.
G1 X111.67
G2 X116.433 Y45.63 I0. J-4.763
G1 Y4.355
G3 X121.195 Y-0.407 I4.762 J0.
G1 X132.727
X140.245
G3 X143.751 Y1.132 I0. J4.763
X145.008 Y4.355 Z-0.931 I-3.506 J3.223 F800.
G1 Y12.274 Z-1.
Y45.63 F1600.
G2 X149.77 Y50.393 I4.762 J0.
G1 X165.645
G3 X170.408 Y55.155 I0. J4.762
G1 Y74.205
G3 X165.645 Y78.967 I-4.762 J0.
G1 X95.795
G3 X91.033 Y74.205 I0. J-4.762
G1 Y55.155
G3 X95.795 Y50.393 I4.762 J0.
G1 X111.67
G2 X116.433 Y45.63 I0. J-4.763
G1 Y4.355
G3 X121.195 Y-0.407 I4.762 J0.
G1 X140.245
G3 X145.008 Y4.355 I0. J4.763
G1 Y12.274
Y23.732 Z-1.1 F800.
Y45.63 F1600.
G2 X149.77 Y50.393 I4.762 J0.
G1 X165.645
G3 X170.408 Y55.155 I0. J4.762
G1 Y74.205
G3 X165.645 Y78.967 I-4.762 J0.
G1 X95.795
G3 X91.033 Y74.205 I0. J-4.762
G1 Y55.155
G3 X95.795 Y50.393 I4.762 J0.
G1 X111.67
G2 X116.433 Y45.63 I0. J-4.763
G1 Y4.355
G3 X121.195 Y-0.407 I4.762 J0.
G1 X140.245
G3 X145.008 Y4.355 I0. J4.763
G1 Y23.732
Y35.191 Z-1.2 F800.
Y45.63 F1600.
G2 X149.77 Y50.393 I4.762 J0.
G1 X165.645
G3 X170.408 Y55.155 I0. J4.762
G1 Y74.205
G3 X165.645 Y78.967 I-4.762 J0.
G1 X95.795
G3 X91.033 Y74.205 I0. J-4.762
G1 Y55.155
G3 X95.795 Y50.393 I4.762 J0.
G1 X111.67
G2 X116.433 Y45.63 I0. J-4.763
G1 Y4.355
G3 X121.195 Y-0.407 I4.762 J0.
G1 X140.245
G3 X145.008 Y4.355 I0. J4.763
G1 Y23.732
Y35.191
Y45.63 Z-1.291 F800.
G2 X145.116 Y46.642 Z-1.3 I4.762 J0.
X149.77 Y50.393 I4.654 J-1.012 F1600.
G1 X165.645
G3 X170.408 Y55.155 I0. J4.762
G1 Y74.205
G3 X165.645 Y78.967 I-4.762 J0.
G1 X95.795
G3 X91.033 Y74.205 I0. J-4.762
G1 Y55.155
G3 X95.795 Y50.393 I4.762 J0.
G1 X111.67
G2 X116.433 Y45.63 I0. J-4.763
G1 Y4.355
G3 X121.195 Y-0.407 I4.762 J0.
G1 X140.245
G3 X145.008 Y4.355 I0. J4.763
G1 Y35.191
Y45.63
G2 X145.116 Y46.642 I4.762 J0.
X149.77 Y50.393 Z-1.356 I4.654 J-1.012 F800.
G1 X154.768 Z-1.4
X165.645 F1600.
G3 X170.408 Y55.155 I0. J4.762
G1 Y74.205
G3 X165.645 Y78.967 I-4.762 J0.
G1 X95.795
G3 X91.033 Y74.205 I0. J-4.762
G1 Y55.155
G3 X95.795 Y50.393 I4.762 J0.
G1 X111.67
G2 X116.433 Y45.63 I0. J-4.763
G1 Y4.355
G3 X121.195 Y-0.407 I4.762 J0.
G1 X140.245
G3 X145.008 Y4.355 I0. J4.763
G1 Y45.63
G2 X149.77 Y50.393 I4.762 J0.
G1 X154.768
X165.645 Z-1.495 F800.
G3 X166.226 Y50.428 Z-1.5 I0. J4.762
X170.408 Y55.155 I-0.581 J4.727 F1600.
G1 Y74.205
G3 X165.645 Y78.967 I-4.762 J0.
G1 X95.795
G3 X91.033 Y74.205 I0. J-4.762
G1 Y55.155
G3 X95.795 Y50.393 I4.762 J0.
G1 X111.67
G2 X116.433 Y45.63 I0. J-4.763
G1 Y4.355
G3 X121.195 Y-0.407 I4.762 J0.
G1 X140.245
G3 X145.008 Y4.355 I0. J4.763
G1 Y45.63
G2 X149.77 Y50.393 I4.762 J0.
G1 X165.645
G3 X166.226 Y50.428 I0. J4.762
X170.408 Y55.155 Z-1.56 I-0.581 J4.727 F800.
G1 Y59.715 Z-1.6
Y74.205 F1600.
G3 X165.645 Y78.967 I-4.762 J0.
G1 X95.795
G3 X91.033 Y74.205 I0. J-4.762
G1 Y55.155
G3 X95.795 Y50.393 I4.762 J0.
G1 X111.67
G2 X116.433 Y45.63 I0. J-4.763
G1 Y4.355
G3 X121.195 Y-0.407 I4.762 J0.
G1 X140.245
G3 X145.008 Y4.355 I0. J4.763
G1 Y45.63
G2 X149.77 Y50.393 I4.762 J0.
G1 X165.645
G3 X170.408 Y55.155 I0. J4.762
G1 Y59.715
Y71.174 Z-1.7 F800.
Y74.205 F1600.
G3 X165.645 Y78.967 I-4.762 J0.
G1 X95.795
G3 X91.033 Y74.205 I0. J-4.762
G1 Y55.155
G3 X95.795 Y50.393 I4.762 J0.
G1 X111.67
G2 X116.433 Y45.63 I0. J-4.763
G1 Y4.355
G3 X121.195 Y-0.407 I4.762 J0.
G1 X140.245
G3 X145.008 Y4.355 I0. J4.763
G1 Y45.63
G2 X149.77 Y50.393 I4.762 J0.
G1 X165.645
G3 X170.408 Y55.155 I0. J4.762
G1 Y71.174
Y74.205 Z-1.726 F800.
G3 X165.645 Y78.967 Z-1.792 I-4.762 J0.
G1 X164.698 Z-1.8
X95.795 F1600.
G3 X91.033 Y74.205 I0. J-4.762
G1 Y55.155
G3 X95.795 Y50.393 I4.762 J0.
G1 X111.67
G2 X116.433 Y45.63 I0. J-4.763
G1 Y4.355
G3 X121.195 Y-0.407 I4.762 J0.
G1 X140.245
G3 X145.008 Y4.355 I0. J4.763
G1 Y45.63
G2 X149.77 Y50.393 I4.762 J0.
G1 X165.645
G3 X170.408 Y55.155 I0. J4.762
G1 Y71.174
Y74.205
G3 X165.645 Y78.967 I-4.762 J0.
G1 X164.698
X153.239 Z-1.9 F800.
X95.795 F1600.
G3 X91.033 Y74.205 I0. J-4.762
G1 Y55.155
G3 X95.795 Y50.393 I4.762 J0.
G1 X111.67
G2 X116.433 Y45.63 I0. J-4.763
G1 Y4.355
G3 X121.195 Y-0.407 I4.762 J0.
G1 X140.245
G3 X145.008 Y4.355 I0. J4.763
G1 Y45.63
G2 X149.77 Y50.393 I4.762 J0.
G1 X165.645
G3 X170.408 Y55.155 I0. J4.762
G1 Y74.205
G3 X165.645 Y78.967 I-4.762 J0.
G1 X153.239
X141.78 Z-2. F800.
X95.795 F1600.
G3 X91.033 Y74.205 I0. J-4.762
G1 Y55.155
G3 X95.795 Y50.393 I4.762 J0.
G1 X111.67
G2 X116.433 Y45.63 I0. J-4.763
G1 Y4.355
G3 X121.195 Y-0.407 I4.762 J0.
G1 X140.245
G3 X145.008 Y4.355 I0. J4.763
G1 Y45.63
G2 X149.77 Y50.393 I4.762 J0.
G1 X165.645
G3 X170.408 Y55.155 I0. J4.762
G1 Y74.205
G3 X165.645 Y78.967 I-4.762 J0.
G1 X153.239
X141.78
X130.322 Z-2.1 F800.
X95.795 F1600.
G3 X91.033 Y74.205 I0. J-4.762
G1 Y55.155
G3 X95.795 Y50.393 I4.762 J0.
G1 X111.67
G2 X116.433 Y45.63 I0. J-4.763
G1 Y4.355
G3 X121.195 Y-0.407 I4.762 J0.
G1 X140.245
G3 X145.008 Y4.355 I0. J4.763
G1 Y45.63
G2 X149.77 Y50.393 I4.762 J0.
G1 X165.645
G3 X170.408 Y55.155 I0. J4.762
G1 Y74.205
G3 X165.645 Y78.967 I-4.762 J0.
G1 X141.78
X130.322
X118.863 Z-2.2 F800.
X95.795 F1600.
G3 X91.033 Y74.205 I0. J-4.762
G1 Y55.155
G3 X95.795 Y50.393 I4.762 J0.
G1 X111.67
G2 X116.433 Y45.63 I0. J-4.763
G1 Y4.355
G3 X121.195 Y-0.407 I4.762 J0.
G1 X140.245
G3 X145.008 Y4.355 I0. J4.763
G1 Y45.63
G2 X149.77 Y50.393 I4.762 J0.
G1 X165.645
G3 X170.408 Y55.155 I0. J4.762
G1 Y74.205
G3 X165.645 Y78.967 I-4.762 J0.
G1 X130.322
X118.863
X107.404 Z-2.3 F800.
X95.795 F1600.
G3 X91.033 Y74.205 I0. J-4.762
G1 Y55.155
G3 X95.795 Y50.393 I4.762 J0.
G1 X111.67
G2 X116.433 Y45.63 I0. J-4.763
G1 Y4.355
G3 X121.195 Y-0.407 I4.762 J0.
G1 X140.245
G3 X145.008 Y4.355 I0. J4.763
G1 Y45.63
G2 X149.77 Y50.393 I4.762 J0.
G1 X165.645
G3 X170.408 Y55.155 I0. J4.762
G1 Y74.205
G3 X165.645 Y78.967 I-4.762 J0.
G1 X118.863
X107.404
X95.945 Z-2.4 F800.
X95.795 F1600.
G3 X91.033 Y74.205 I0. J-4.762
G1 Y55.155
G3 X95.795 Y50.393 I4.762 J0.
G1 X111.67
G2 X116.433 Y45.63 I0. J-4.763
G1 Y4.355
G3 X121.195 Y-0.407 I4.762 J0.
G1 X140.245
G3 X145.008 Y4.355 I0. J4.763
G1 Y45.63
G2 X149.77 Y50.393 I4.762 J0.
G1 X165.645
G3 X170.408 Y55.155 I0. J4.762
G1 Y74.205
G3 X165.645 Y78.967 I-4.762 J0.
G1 X107.404
X95.945
X95.795 Z-2.401 F800.
G3 X91.033 Y74.205 Z-2.467 I0. J-4.762
G1 Y70.377 Z-2.5
Y55.155 F1600.
G3 X95.795 Y50.393 I4.762 J0.
G1 X111.67
G2 X116.433 Y45.63 I0. J-4.763
G1 Y4.355
G3 X121.195 Y-0.407 I4.762 J0.
G1 X140.245
G3 X145.008 Y4.355 I0. J4.763
G1 Y45.63
G2 X149.77 Y50.393 I4.762 J0.
G1 X165.645
G3 X170.408 Y55.155 I0. J4.762
G1 Y74.205
G3 X165.645 Y78.967 I-4.762 J0.
G1 X95.945
X95.795
G3 X91.033 Y74.205 I0. J-4.762
G1 Y70.377
Y58.918 Z-2.6 F800.
Y55.155 F1600.
G3 X95.795 Y50.393 I4.762 J0.
G1 X111.67
G2 X116.433 Y45.63 I0. J-4.763
G1 Y4.355
G3 X121.195 Y-0.407 I4.762 J0.
G1 X140.245
G3 X145.008 Y4.355 I0. J4.763
G1 Y45.63
G2 X149.77 Y50.393 I4.762 J0.
G1 X165.645
G3 X170.408 Y55.155 I0. J4.762
G1 Y74.205
G3 X165.645 Y78.967 I-4.762 J0.
G1 X95.795
G3 X91.033 Y74.205 I0. J-4.762
G1 Y58.918
Y55.155 Z-2.633 F800.
G3 X95.795 Y50.393 Z-2.698 I4.762 J0.
G1 X96.01 Z-2.7
X111.67 F1600.
G2 X116.433 Y45.63 I0. J-4.763
G1 Y4.355
G3 X121.195 Y-0.407 I4.762 J0.
G1 X140.245
G3 X145.008 Y4.355 I0. J4.763
G1 Y45.63
G2 X149.77 Y50.393 I4.762 J0.
G1 X165.645
G3 X170.408 Y55.155 I0. J4.762
G1 Y74.205
G3 X165.645 Y78.967 I-4.762 J0.
G1 X95.795
G3 X91.033 Y74.205 I0. J-4.762
G1 Y58.918
Y55.155
G3 X95.795 Y50.393 I4.762 J0.
G1 X96.01
X107.469 Z-2.8 F800.
X111.67 F1600.
G2 X116.433 Y45.63 I0. J-4.763
G1 Y4.355
G3 X121.195 Y-0.407 I4.762 J0.
G1 X140.245
G3 X145.008 Y4.355 I0. J4.763
G1 Y45.63
G2 X149.77 Y50.393 I4.762 J0.
G1 X165.645
G3 X170.408 Y55.155 I0. J4.762
G1 Y74.205
G3 X165.645 Y78.967 I-4.762 J0.
G1 X95.795
G3 X91.033 Y74.205 I0. J-4.762
G1 Y55.155
G3 X95.795 Y50.393 I4.762 J0.
G1 X107.469
X111.67 Z-2.837 F800.
G2 X116.427 Y45.853 Z-2.9 I0. J-4.763
G1 X116.433 Y45.63 F1600.
Y4.355
G3 X121.195 Y-0.407 I4.762 J0.
G1 X140.245
G3 X145.008 Y4.355 I0. J4.763
G1 Y45.63
G2 X149.77 Y50.393 I4.762 J0.
G1 X165.645
G3 X170.408 Y55.155 I0. J4.762
G1 Y74.205
G3 X165.645 Y78.967 I-4.762 J0.
G1 X95.795
G3 X91.033 Y74.205 I0. J-4.762
G1 Y55.155
G3 X95.795 Y50.393 I4.762 J0.
G1 X107.469
X111.67
G2 X116.427 Y45.853 I0. J-4.763
G1 X116.433 Y45.63 Z-2.902 F800.
Y34.395 Z-3.
Y4.355 F1600.
G3 X121.195 Y-0.407 I4.762 J0.
G1 X140.245
G3 X145.008 Y4.355 I0. J4.763
G1 Y45.63
G2 X149.77 Y50.393 I4.762 J0.
G1 X165.645
G3 X170.408 Y55.155 I0. J4.762
G1 Y74.205
G3 X165.645 Y78.967 I-4.762 J0.
G1 X95.795
G3 X91.033 Y74.205 I0. J-4.762
G1 Y55.155
G3 X95.795 Y50.393 I4.762 J0.
G1 X111.67
G2 X116.433 Y45.63 I0. J-4.763
G1 Y34.395
Y22.936 Z-3.1 F800.
Y4.355 F1600.
G3 X121.195 Y-0.407 I4.762 J0.
G1 X140.245
G3 X145.008 Y4.355 I0. J4.763
G1 Y45.63
G2 X149.77 Y50.393 I4.762 J0.
G1 X165.645
G3 X170.408 Y55.155 I0. J4.762
G1 Y74.205
G3 X165.645 Y78.967 I-4.762 J0.
G1 X95.795
G3 X91.033 Y74.205 I0. J-4.762
G1 Y55.155
G3 X95.795 Y50.393 I4.762 J0.
G1 X111.67
G2 X116.433 Y45.63 I0. J-4.763
G1 Y22.936
Y11.477 Z-3.2 F800.
Y4.355 F1600.
G3 X121.195 Y-0.407 I4.762 J0.
G1 X140.245
G3 X145.008 Y4.355 I0. J4.763
G1 Y45.63
G2 X149.77 Y50.393 I4.762 J0.
G1 X165.645
G3 X170.408 Y55.155 I0. J4.762
G1 Y74.205
G3 X165.645 Y78.967 I-4.762 J0.
G1 X95.795
G3 X91.033 Y74.205 I0. J-4.762
G1 Y55.155
G3 X95.795 Y50.393 I4.762 J0.
G1 X111.67
G2 X116.433 Y45.63 I0. J-4.763
G1 Y22.936
Y11.477
Y4.355 Z-3.262 F800.
G3 X118.275 Y0.593 Z-3.3 I4.762 J0.
X121.195 Y-0.407 I2.92 J3.762 F1600.
G1 X140.245
G3 X145.008 Y4.355 I0. J4.763
G1 Y45.63
G2 X149.77 Y50.393 I4.762 J0.
G1 X165.645
G3 X170.408 Y55.155 I0. J4.762
G1 Y74.205
G3 X165.645 Y78.967 I-4.762 J0.
G1 X95.795
G3 X91.033 Y74.205 I0. J-4.762
G1 Y55.155
G3 X95.795 Y50.393 I4.762 J0.
G1 X111.67
G2 X116.433 Y45.63 I0. J-4.763
G1 Y11.477
Y4.355
G3 X118.275 Y0.593 I4.762 J0.
X121.195 Y-0.407 Z-3.327 I2.92 J3.762 F800.
G1 X129.51 Z-3.4
X140.245 F1600.
G3 X145.008 Y4.355 I0. J4.763
G1 Y45.63
G2 X149.77 Y50.393 I4.762 J0.
G1 X165.645
G3 X170.408 Y55.155 I0. J4.762
G1 Y74.205
G3 X165.645 Y78.967 I-4.762 J0.
G1 X95.795
G3 X91.033 Y74.205 I0. J-4.762
G1 Y55.155
G3 X95.795 Y50.393 I4.762 J0.
G1 X111.67
G2 X116.433 Y45.63 I0. J-4.763
G1 Y4.355
G3 X121.195 Y-0.407 I4.762 J0.
G1 X129.51
X140.245 Z-3.494 F800.
G3 X140.966 Y-0.353 Z-3.5 I0. J4.763
X145.008 Y4.355 I-0.721 J4.708 F1600.
G1 Y45.63
G2 X149.77 Y50.393 I4.762 J0.
G1 X165.645
G3 X170.408 Y55.155 I0. J4.762
G1 Y74.205
G3 X165.645 Y78.967 I-4.762 J0.
G1 X95.795
G3 X91.033 Y74.205 I0. J-4.762
G1 Y55.155
G3 X95.795 Y50.393 I4.762 J0.
G1 X111.67
G2 X116.433 Y45.63 I0. J-4.763
G1 Y4.355
G3 X121.195 Y-0.407 I4.762 J0.
G1 X140.245
G3 X140.966 Y-0.353 I0. J4.763
X145.008 Y4.355 Z-3.559 I-0.721 J4.708 F800.
G1 Y9.057 Z-3.6
Y45.63 F1600.
G2 X149.77 Y50.393 I4.762 J0.
G1 X165.645
G3 X170.408 Y55.155 I0. J4.762
G1 Y74.205
G3 X165.645 Y78.967 I-4.762 J0.
G1 X95.795
G3 X91.033 Y74.205 I0. J-4.762
G1 Y55.155
G3 X95.795 Y50.393 I4.762 J0.
G1 X111.67
G2 X116.433 Y45.63 I0. J-4.763
G1 Y4.355
G3 X121.195 Y-0.407 I4.762 J0.
G1 X140.245
G3 X145.008 Y4.355 I0. J4.763
G1 Y9.057
Y20.516 Z-3.7 F800.
Y45.63 F1600.
G2 X149.77 Y50.393 I4.762 J0.
G1 X165.645
G3 X170.408 Y55.155 I0. J4.762
G1 Y74.205
G3 X165.645 Y78.967 I-4.762 J0.
G1 X95.795
G3 X91.033 Y74.205 I0. J-4.762
G1 Y55.155
G3 X95.795 Y50.393 I4.762 J0.
G1 X111.67
G2 X116.433 Y45.63 I0. J-4.763
G1 Y4.355
G3 X121.195 Y-0.407 I4.762 J0.
G1 X140.245
G3 X145.008 Y4.355 I0. J4.763
G1 Y20.516
Y31.975 Z-3.8 F800.
Y45.63 F1600.
G2 X149.77 Y50.393 I4.762 J0.
G1 X165.645
G3 X170.408 Y55.155 I0. J4.762
G1 Y74.205
G3 X165.645 Y78.967 I-4.762 J0.
G1 X95.795
G3 X91.033 Y74.205 I0. J-4.762
G1 Y55.155
G3 X95.795 Y50.393 I4.762 J0.
G1 X111.67
G2 X116.433 Y45.63 I0. J-4.763
G1 Y4.355
G3 X121.195 Y-0.407 I4.762 J0.
G1 X140.245
G3 X145.008 Y4.355 I0. J4.763
G1 Y20.516
Y31.975
Y43.433 Z-3.9 F800.
Y45.63 F1600.
G2 X149.77 Y50.393 I4.762 J0.
G1 X165.645
G3 X170.408 Y55.155 I0. J4.762
G1 Y74.205
G3 X165.645 Y78.967 I-4.762 J0.
G1 X95.795
G3 X91.033 Y74.205 I0. J-4.762
G1 Y55.155
G3 X95.795 Y50.393 I4.762 J0.
G1 X111.67
G2 X116.433 Y45.63 I0. J-4.763
G1 Y4.355
G3 X121.195 Y-0.407 I4.762 J0.
G1 X140.245
G3 X145.008 Y4.355 I0. J4.763
G1 Y31.975
Y43.433
Y45.63 Z-3.919 F800.
G2 X149.77 Y50.393 Z-3.984 I4.762 J0.
G1 X151.551 Z-4.
X165.645 F1600.
G3 X170.408 Y55.155 I0. J4.762
G1 Y74.205
G3 X165.645 Y78.967 I-4.762 J0.
G1 X95.795
G3 X91.033 Y74.205 I0. J-4.762
G1 Y55.155
G3 X95.795 Y50.393 I4.762 J0.
G1 X111.67
G2 X116.433 Y45.63 I0. J-4.763
G1 Y4.355
G3 X121.195 Y-0.407 I4.762 J0.
G1 X140.245
G3 X145.008 Y4.355 I0. J4.763
G1 Y43.433
Y45.63
G2 X149.77 Y50.393 I4.762 J0.
G1 X151.551
X163.01 Z-4.1 F800.
X165.645 F1600.
G3 X170.408 Y55.155 I0. J4.762
G1 Y74.205
G3 X165.645 Y78.967 I-4.762 J0.
G1 X95.795
G3 X91.033 Y74.205 I0. J-4.762
G1 Y55.155
G3 X95.795 Y50.393 I4.762 J0.
G1 X111.67
G2 X116.433 Y45.63 I0. J-4.763
G1 Y4.355
G3 X121.195 Y-0.407 I4.762 J0.
G1 X140.245
G3 X145.008 Y4.355 I0. J4.763
G1 Y45.63
G2 X149.77 Y50.393 I4.762 J0.
G1 X163.01
X165.645 Z-4.123 F800.
G3 X170.166 Y53.659 Z-4.175 I0. J4.762
X170.408 Y55.155 I-4.521 J1.496 F1600.
G1 Y74.205
G3 X165.645 Y78.967 I-4.762 J0.
G1 X95.795
G3 X91.033 Y74.205 I0. J-4.762
G1 Y55.155
G3 X95.795 Y50.393 I4.762 J0.
G1 X111.67
G2 X116.433 Y45.63 I0. J-4.763
G1 Y4.355
G3 X121.195 Y-0.407 I4.762 J0.
G1 X140.245
G3 X145.008 Y4.355 I0. J4.763
G1 Y45.63
G2 X149.77 Y50.393 I4.762 J0.
G1 X163.01
X165.645
G3 X170.166 Y53.659 I0. J4.762
G2 X170.568 Y53.861 I0.301 J-0.1
G1 X170.869 Y53.761
X170.936 Y53.739 Z-4.167
X171. Y53.718 Z-4.144
X171.057 Y53.699 Z-4.106
X171.105 Y53.683 Z-4.055
X171.141 Y53.671 Z-3.995
X171.163 Y53.664 Z-3.928
X171.171 Y53.661 Z-3.858
G0 Z16.
M5
G0 Z15
G0 X0 Y0

M9
M30
