(TOP CENTER PLATE 0.125 HOLES )
(T1  D=3.175 CR=0. - ZMIN=-5.175 - FLAT END MILL)
G90 G94 G91.1 G40 G49 G17
G21
G0 Z15

(BORE1 3)
M5
T1 M6
S15000 M3
G54
M8
G0 X121.825 Y104.195
G43 Z15. H1
Z4.5
G1 Z2.818 F800.
G18 G3 X121.508 Z2.5 I-0.317 K0.
G1 X121.349
G17 G2 X121.032 Y104.512 I0. J0.318
X123.413 Z2.452 I1.191 J0.
X121.032 Z2.403 I-1.191 J0.
X123.413 Z2.355 I1.191 J0.
X121.032 Z2.306 I-1.191 J0.
X123.413 Z2.258 I1.191 J0.
X121.032 Z2.209 I-1.191 J0.
X123.413 Z2.161 I1.191 J0.
X121.032 Z2.112 I-1.191 J0.
X123.413 Z2.064 I1.191 J0.
X121.032 Z2.015 I-1.191 J0.
X123.413 Z1.967 I1.191 J0.
X121.032 Z1.918 I-1.191 J0.
X123.413 Z1.87 I1.191 J0.
X121.032 Z1.821 I-1.191 J0.
X123.413 Z1.773 I1.191 J0.
X121.032 Z1.724 I-1.191 J0.
X123.413 Z1.676 I1.191 J0.
X121.032 Z1.627 I-1.191 J0.
X123.413 Z1.579 I1.191 J0.
X121.032 Z1.53 I-1.191 J0.
X123.413 Z1.482 I1.191 J0.
X121.032 Z1.433 I-1.191 J0.
X123.413 Z1.385 I1.191 J0.
X121.032 Z1.336 I-1.191 J0.
X123.413 Z1.288 I1.191 J0.
X121.032 Z1.239 I-1.191 J0.
X123.413 Z1.191 I1.191 J0.
X121.032 Z1.142 I-1.191 J0.
X123.413 Z1.094 I1.191 J0.
X121.032 Z1.045 I-1.191 J0.
X123.413 Z0.997 I1.191 J0.
X121.032 Z0.948 I-1.191 J0.
X123.413 Z0.9 I1.191 J0.
X121.032 Z0.851 I-1.191 J0.
X123.413 Z0.803 I1.191 J0.
X121.032 Z0.754 I-1.191 J0.
X123.413 Z0.706 I1.191 J0.
X121.032 Z0.657 I-1.191 J0.
X123.413 Z0.609 I1.191 J0.
X121.032 Z0.56 I-1.191 J0.
X123.413 Z0.512 I1.191 J0.
X121.032 Z0.463 I-1.191 J0.
X123.413 Z0.415 I1.191 J0.
X121.032 Z0.366 I-1.191 J0.
X123.413 Z0.318 I1.191 J0.
X121.032 Z0.269 I-1.191 J0.
X123.413 Z0.221 I1.191 J0.
X121.032 Z0.172 I-1.191 J0.
X123.413 Z0.124 I1.191 J0.
X121.032 Z0.075 I-1.191 J0.
X123.413 Z0.027 I1.191 J0.
X121.032 Z-0.022 I-1.191 J0.
X123.413 Z-0.07 I1.191 J0.
X121.032 Z-0.119 I-1.191 J0.
X123.413 Z-0.167 I1.191 J0.
X121.032 Z-0.216 I-1.191 J0.
X123.413 Z-0.264 I1.191 J0.
X121.032 Z-0.313 I-1.191 J0.
X123.413 Z-0.361 I1.191 J0.
X121.032 Z-0.41 I-1.191 J0.
X123.413 Z-0.458 I1.191 J0.
X121.032 Z-0.507 I-1.191 J0.
X123.413 Z-0.555 I1.191 J0.
X121.032 Z-0.604 I-1.191 J0.
X123.413 Z-0.652 I1.191 J0.
X121.032 Z-0.7 I-1.191 J0.
X123.413 Z-0.749 I1.191 J0.
X121.032 Z-0.797 I-1.191 J0.
X123.413 Z-0.846 I1.191 J0.
X121.032 Z-0.894 I-1.191 J0.
X123.413 Z-0.943 I1.191 J0.
X121.032 Z-0.991 I-1.191 J0.
X123.413 Z-1.04 I1.191 J0.
X121.032 Z-1.088 I-1.191 J0.
X123.413 Z-1.137 I1.191 J0.
X121.032 Z-1.185 I-1.191 J0.
X123.413 Z-1.234 I1.191 J0.
X121.032 Z-1.282 I-1.191 J0.
X123.413 Z-1.331 I1.191 J0.
X121.032 Z-1.379 I-1.191 J0.
X123.413 Z-1.428 I1.191 J0.
X121.032 Z-1.476 I-1.191 J0.
X123.413 Z-1.525 I1.191 J0.
X121.032 Z-1.573 I-1.191 J0.
X123.413 Z-1.622 I1.191 J0.
X121.032 Z-1.67 I-1.191 J0.
X123.413 Z-1.719 I1.191 J0.
X121.032 Z-1.767 I-1.191 J0.
X123.413 Z-1.816 I1.191 J0.
X121.032 Z-1.864 I-1.191 J0.
X123.413 Z-1.913 I1.191 J0.
X121.032 Z-1.961 I-1.191 J0.
X123.413 Z-2.01 I1.191 J0.
X121.032 Z-2.058 I-1.191 J0.
X123.413 Z-2.107 I1.191 J0.
X121.032 Z-2.155 I-1.191 J0.
X123.413 Z-2.204 I1.191 J0.
X121.032 Z-2.252 I-1.191 J0.
X123.413 Z-2.301 I1.191 J0.
X121.032 Z-2.349 I-1.191 J0.
X123.413 Z-2.398 I1.191 J0.
X121.032 Z-2.446 I-1.191 J0.
X123.413 Z-2.495 I1.191 J0.
X121.032 Z-2.543 I-1.191 J0.
X123.413 Z-2.592 I1.191 J0.
X121.032 Z-2.64 I-1.191 J0.
X123.413 Z-2.689 I1.191 J0.
X121.032 Z-2.737 I-1.191 J0.
X123.413 Z-2.786 I1.191 J0.
X121.032 Z-2.834 I-1.191 J0.
X123.413 Z-2.883 I1.191 J0.
X121.032 Z-2.931 I-1.191 J0.
X123.413 Z-2.98 I1.191 J0.
X121.032 Z-3.028 I-1.191 J0.
X123.413 Z-3.077 I1.191 J0.
X121.032 Z-3.125 I-1.191 J0.
X123.413 Z-3.174 I1.191 J0.
X121.032 Z-3.222 I-1.191 J0.
X123.413 Z-3.271 I1.191 J0.
X121.032 Z-3.319 I-1.191 J0.
X123.413 Z-3.368 I1.191 J0.
X121.032 Z-3.416 I-1.191 J0.
X123.413 Z-3.465 I1.191 J0.
X121.032 Z-3.513 I-1.191 J0.
X123.413 Z-3.562 I1.191 J0.
X121.032 Z-3.61 I-1.191 J0.
X123.413 Z-3.659 I1.191 J0.
X121.032 Z-3.707 I-1.191 J0.
X123.413 Z-3.756 I1.191 J0.
X121.032 Z-3.804 I-1.191 J0.
X123.413 Z-3.852 I1.191 J0.
X121.032 Z-3.901 I-1.191 J0.
X123.413 Z-3.949 I1.191 J0.
X121.032 Z-3.998 I-1.191 J0.
X123.413 Z-4.046 I1.191 J0.
X121.032 Z-4.095 I-1.191 J0.
X123.413 Z-4.143 I1.191 J0.
X121.032 Z-4.192 I-1.191 J0.
X123.413 Z-4.24 I1.191 J0.
X121.032 Z-4.289 I-1.191 J0.
X123.413 Z-4.337 I1.191 J0.
X121.032 Z-4.386 I-1.191 J0.
X123.413 Z-4.434 I1.191 J0.
X121.032 Z-4.483 I-1.191 J0.
X123.413 Z-4.531 I1.191 J0.
X121.032 Z-4.58 I-1.191 J0.
X123.413 Z-4.628 I1.191 J0.
X121.032 Z-4.677 I-1.191 J0.
X123.413 Z-4.725 I1.191 J0.
X121.032 Z-4.774 I-1.191 J0.
X123.413 Z-4.822 I1.191 J0.
X121.032 Z-4.871 I-1.191 J0.
X123.413 Z-4.919 I1.191 J0.
X121.032 Z-4.968 I-1.191 J0.
X123.413 Z-5.016 I1.191 J0.
X121.032 Z-5.065 I-1.191 J0.
X123.413 Z-5.113 I1.191 J0.
X121.032 Z-5.162 I-1.191 J0.
X121.442 Y105.411 Z-5.175 I1.191 J0.
X123.003 Y103.613 I0.781 J-0.899
X121.442 Y105.411 I-0.781 J0.899
X121.889 Y105.379 I0.208 J-0.24
G1 X121.994 Y105.26
X122.04 Y105.206 Z-5.167
X122.084 Y105.156 Z-5.144
X122.123 Y105.11 Z-5.106
X122.156 Y105.072 Z-5.055
X122.181 Y105.044 Z-4.995
X122.197 Y105.026 Z-4.928
X122.202 Y105.02 Z-4.858
G0 Z5.
X101.203 Y116.101
Z4.5
G1 Z2.818 F800.
G18 G3 X100.886 Z2.5 I-0.317 K0.
G1 X100.727
G17 G2 X100.409 Y116.418 I0. J0.318
X102.791 Z2.452 I1.191 J0.
X100.409 Z2.403 I-1.191 J0.
X102.791 Z2.355 I1.191 J0.
X100.409 Z2.306 I-1.191 J0.
X102.791 Z2.258 I1.191 J0.
X100.409 Z2.209 I-1.191 J0.
X102.791 Z2.161 I1.191 J0.
X100.409 Z2.112 I-1.191 J0.
X102.791 Z2.064 I1.191 J0.
X100.409 Z2.015 I-1.191 J0.
X102.791 Z1.967 I1.191 J0.
X100.409 Z1.918 I-1.191 J0.
X102.791 Z1.87 I1.191 J0.
X100.409 Z1.821 I-1.191 J0.
X102.791 Z1.773 I1.191 J0.
X100.409 Z1.724 I-1.191 J0.
X102.791 Z1.676 I1.191 J0.
X100.409 Z1.627 I-1.191 J0.
X102.791 Z1.579 I1.191 J0.
X100.409 Z1.53 I-1.191 J0.
X102.791 Z1.482 I1.191 J0.
X100.409 Z1.433 I-1.191 J0.
X102.791 Z1.385 I1.191 J0.
X100.409 Z1.336 I-1.191 J0.
X102.791 Z1.288 I1.191 J0.
X100.409 Z1.239 I-1.191 J0.
X102.791 Z1.191 I1.191 J0.
X100.409 Z1.142 I-1.191 J0.
X102.791 Z1.094 I1.191 J0.
X100.409 Z1.045 I-1.191 J0.
X102.791 Z0.997 I1.191 J0.
X100.409 Z0.948 I-1.191 J0.
X102.791 Z0.9 I1.191 J0.
X100.409 Z0.851 I-1.191 J0.
X102.791 Z0.803 I1.191 J0.
X100.409 Z0.754 I-1.191 J0.
X102.791 Z0.706 I1.191 J0.
X100.409 Z0.657 I-1.191 J0.
X102.791 Z0.609 I1.191 J0.
X100.409 Z0.56 I-1.191 J0.
X102.791 Z0.512 I1.191 J0.
X100.409 Z0.463 I-1.191 J0.
X102.791 Z0.415 I1.191 J0.
X100.409 Z0.366 I-1.191 J0.
X102.791 Z0.318 I1.191 J0.
X100.409 Z0.269 I-1.191 J0.
X102.791 Z0.221 I1.191 J0.
X100.409 Z0.172 I-1.191 J0.
X102.791 Z0.124 I1.191 J0.
X100.409 Z0.075 I-1.191 J0.
X102.791 Z0.027 I1.191 J0.
X100.409 Z-0.022 I-1.191 J0.
X102.791 Z-0.07 I1.191 J0.
X100.409 Z-0.119 I-1.191 J0.
X102.791 Z-0.167 I1.191 J0.
X100.409 Z-0.216 I-1.191 J0.
X102.791 Z-0.264 I1.191 J0.
X100.409 Z-0.313 I-1.191 J0.
X102.791 Z-0.361 I1.191 J0.
X100.409 Z-0.41 I-1.191 J0.
X102.791 Z-0.458 I1.191 J0.
X100.409 Z-0.507 I-1.191 J0.
X102.791 Z-0.555 I1.191 J0.
X100.409 Z-0.604 I-1.191 J0.
X102.791 Z-0.652 I1.191 J0.
X100.409 Z-0.7 I-1.191 J0.
X102.791 Z-0.749 I1.191 J0.
X100.409 Z-0.797 I-1.191 J0.
X102.791 Z-0.846 I1.191 J0.
X100.409 Z-0.894 I-1.191 J0.
X102.791 Z-0.943 I1.191 J0.
X100.409 Z-0.991 I-1.191 J0.
X102.791 Z-1.04 I1.191 J0.
X100.409 Z-1.088 I-1.191 J0.
X102.791 Z-1.137 I1.191 J0.
X100.409 Z-1.185 I-1.191 J0.
X102.791 Z-1.234 I1.191 J0.
X100.409 Z-1.282 I-1.191 J0.
X102.791 Z-1.331 I1.191 J0.
X100.409 Z-1.379 I-1.191 J0.
X102.791 Z-1.428 I1.191 J0.
X100.409 Z-1.476 I-1.191 J0.
X102.791 Z-1.525 I1.191 J0.
X100.409 Z-1.573 I-1.191 J0.
X102.791 Z-1.622 I1.191 J0.
X100.409 Z-1.67 I-1.191 J0.
X102.791 Z-1.719 I1.191 J0.
X100.409 Z-1.767 I-1.191 J0.
X102.791 Z-1.816 I1.191 J0.
X100.409 Z-1.864 I-1.191 J0.
X102.791 Z-1.913 I1.191 J0.
X100.409 Z-1.961 I-1.191 J0.
X102.791 Z-2.01 I1.191 J0.
X100.409 Z-2.058 I-1.191 J0.
X102.791 Z-2.107 I1.191 J0.
X100.409 Z-2.155 I-1.191 J0.
X102.791 Z-2.204 I1.191 J0.
X100.409 Z-2.252 I-1.191 J0.
X102.791 Z-2.301 I1.191 J0.
X100.409 Z-2.349 I-1.191 J0.
X102.791 Z-2.398 I1.191 J0.
X100.409 Z-2.446 I-1.191 J0.
X102.791 Z-2.495 I1.191 J0.
X100.409 Z-2.543 I-1.191 J0.
X102.791 Z-2.592 I1.191 J0.
X100.409 Z-2.64 I-1.191 J0.
X102.791 Z-2.689 I1.191 J0.
X100.409 Z-2.737 I-1.191 J0.
X102.791 Z-2.786 I1.191 J0.
X100.409 Z-2.834 I-1.191 J0.
X102.791 Z-2.883 I1.191 J0.
X100.409 Z-2.931 I-1.191 J0.
X102.791 Z-2.98 I1.191 J0.
X100.409 Z-3.028 I-1.191 J0.
X102.791 Z-3.077 I1.191 J0.
X100.409 Z-3.125 I-1.191 J0.
X102.791 Z-3.174 I1.191 J0.
X100.409 Z-3.222 I-1.191 J0.
X102.791 Z-3.271 I1.191 J0.
X100.409 Z-3.319 I-1.191 J0.
X102.791 Z-3.368 I1.191 J0.
X100.409 Z-3.416 I-1.191 J0.
X102.791 Z-3.465 I1.191 J0.
X100.409 Z-3.513 I-1.191 J0.
X102.791 Z-3.562 I1.191 J0.
X100.409 Z-3.61 I-1.191 J0.
X102.791 Z-3.659 I1.191 J0.
X100.409 Z-3.707 I-1.191 J0.
X102.791 Z-3.756 I1.191 J0.
X100.409 Z-3.804 I-1.191 J0.
X102.791 Z-3.852 I1.191 J0.
X100.409 Z-3.901 I-1.191 J0.
X102.791 Z-3.949 I1.191 J0.
X100.409 Z-3.998 I-1.191 J0.
X102.791 Z-4.046 I1.191 J0.
X100.409 Z-4.095 I-1.191 J0.
X102.791 Z-4.143 I1.191 J0.
X100.409 Z-4.192 I-1.191 J0.
X102.791 Z-4.24 I1.191 J0.
X100.409 Z-4.289 I-1.191 J0.
X102.791 Z-4.337 I1.191 J0.
X100.409 Z-4.386 I-1.191 J0.
X102.791 Z-4.434 I1.191 J0.
X100.409 Z-4.483 I-1.191 J0.
X102.791 Z-4.531 I1.191 J0.
X100.409 Z-4.58 I-1.191 J0.
X102.791 Z-4.628 I1.191 J0.
X100.409 Z-4.677 I-1.191 J0.
X102.791 Z-4.725 I1.191 J0.
X100.409 Z-4.774 I-1.191 J0.
X102.791 Z-4.822 I1.191 J0.
X100.409 Z-4.871 I-1.191 J0.
X102.791 Z-4.919 I1.191 J0.
X100.409 Z-4.968 I-1.191 J0.
X102.791 Z-5.016 I1.191 J0.
X100.409 Z-5.065 I-1.191 J0.
X102.791 Z-5.113 I1.191 J0.
X100.409 Z-5.162 I-1.191 J0.
X100.819 Y117.317 Z-5.175 I1.191 J0.
X102.381 Y115.519 I0.781 J-0.899
X100.819 Y117.317 I-0.781 J0.899
X101.267 Y117.286 I0.208 J-0.24
G1 X101.371 Y117.166
X101.418 Y117.113 Z-5.167
X101.462 Y117.062 Z-5.144
X101.501 Y117.016 Z-5.106
X101.534 Y116.978 Z-5.055
X101.559 Y116.95 Z-4.995
X101.574 Y116.932 Z-4.928
X101.579 Y116.926 Z-4.858
G0 Z5.
X80.581 Y104.195
Z4.5
G1 Z2.818 F800.
G18 G3 X80.263 Z2.5 I-0.317 K0.
G1 X80.105
G17 G2 X79.787 Y104.512 I0. J0.318
X82.168 Z2.452 I1.191 J0.
X79.787 Z2.403 I-1.191 J0.
X82.168 Z2.355 I1.191 J0.
X79.787 Z2.306 I-1.191 J0.
X82.168 Z2.258 I1.191 J0.
X79.787 Z2.209 I-1.191 J0.
X82.168 Z2.161 I1.191 J0.
X79.787 Z2.112 I-1.191 J0.
X82.168 Z2.064 I1.191 J0.
X79.787 Z2.015 I-1.191 J0.
X82.168 Z1.967 I1.191 J0.
X79.787 Z1.918 I-1.191 J0.
X82.168 Z1.87 I1.191 J0.
X79.787 Z1.821 I-1.191 J0.
X82.168 Z1.773 I1.191 J0.
X79.787 Z1.724 I-1.191 J0.
X82.168 Z1.676 I1.191 J0.
X79.787 Z1.627 I-1.191 J0.
X82.168 Z1.579 I1.191 J0.
X79.787 Z1.53 I-1.191 J0.
X82.168 Z1.482 I1.191 J0.
X79.787 Z1.433 I-1.191 J0.
X82.168 Z1.385 I1.191 J0.
X79.787 Z1.336 I-1.191 J0.
X82.168 Z1.288 I1.191 J0.
X79.787 Z1.239 I-1.191 J0.
X82.168 Z1.191 I1.191 J0.
X79.787 Z1.142 I-1.191 J0.
X82.168 Z1.094 I1.191 J0.
X79.787 Z1.045 I-1.191 J0.
X82.168 Z0.997 I1.191 J0.
X79.787 Z0.948 I-1.191 J0.
X82.168 Z0.9 I1.191 J0.
X79.787 Z0.851 I-1.191 J0.
X82.168 Z0.803 I1.191 J0.
X79.787 Z0.754 I-1.191 J0.
X82.168 Z0.706 I1.191 J0.
X79.787 Z0.657 I-1.191 J0.
X82.168 Z0.609 I1.191 J0.
X79.787 Z0.56 I-1.191 J0.
X82.168 Z0.512 I1.191 J0.
X79.787 Z0.463 I-1.191 J0.
X82.168 Z0.415 I1.191 J0.
X79.787 Z0.366 I-1.191 J0.
X82.168 Z0.318 I1.191 J0.
X79.787 Z0.269 I-1.191 J0.
X82.168 Z0.221 I1.191 J0.
X79.787 Z0.172 I-1.191 J0.
X82.168 Z0.124 I1.191 J0.
X79.787 Z0.075 I-1.191 J0.
X82.168 Z0.027 I1.191 J0.
X79.787 Z-0.022 I-1.191 J0.
X82.168 Z-0.07 I1.191 J0.
X79.787 Z-0.119 I-1.191 J0.
X82.168 Z-0.167 I1.191 J0.
X79.787 Z-0.216 I-1.191 J0.
X82.168 Z-0.264 I1.191 J0.
X79.787 Z-0.313 I-1.191 J0.
X82.168 Z-0.361 I1.191 J0.
X79.787 Z-0.41 I-1.191 J0.
X82.168 Z-0.458 I1.191 J0.
X79.787 Z-0.507 I-1.191 J0.
X82.168 Z-0.555 I1.191 J0.
X79.787 Z-0.604 I-1.191 J0.
X82.168 Z-0.652 I1.191 J0.
X79.787 Z-0.7 I-1.191 J0.
X82.168 Z-0.749 I1.191 J0.
X79.787 Z-0.797 I-1.191 J0.
X82.168 Z-0.846 I1.191 J0.
X79.787 Z-0.894 I-1.191 J0.
X82.168 Z-0.943 I1.191 J0.
X79.787 Z-0.991 I-1.191 J0.
X82.168 Z-1.04 I1.191 J0.
X79.787 Z-1.088 I-1.191 J0.
X82.168 Z-1.137 I1.191 J0.
X79.787 Z-1.185 I-1.191 J0.
X82.168 Z-1.234 I1.191 J0.
X79.787 Z-1.282 I-1.191 J0.
X82.168 Z-1.331 I1.191 J0.
X79.787 Z-1.379 I-1.191 J0.
X82.168 Z-1.428 I1.191 J0.
X79.787 Z-1.476 I-1.191 J0.
X82.168 Z-1.525 I1.191 J0.
X79.787 Z-1.573 I-1.191 J0.
X82.168 Z-1.622 I1.191 J0.
X79.787 Z-1.67 I-1.191 J0.
X82.168 Z-1.719 I1.191 J0.
X79.787 Z-1.767 I-1.191 J0.
X82.168 Z-1.816 I1.191 J0.
X79.787 Z-1.864 I-1.191 J0.
X82.168 Z-1.913 I1.191 J0.
X79.787 Z-1.961 I-1.191 J0.
X82.168 Z-2.01 I1.191 J0.
X79.787 Z-2.058 I-1.191 J0.
X82.168 Z-2.107 I1.191 J0.
X79.787 Z-2.155 I-1.191 J0.
X82.168 Z-2.204 I1.191 J0.
X79.787 Z-2.252 I-1.191 J0.
X82.168 Z-2.301 I1.191 J0.
X79.787 Z-2.349 I-1.191 J0.
X82.168 Z-2.398 I1.191 J0.
X79.787 Z-2.446 I-1.191 J0.
X82.168 Z-2.495 I1.191 J0.
X79.787 Z-2.543 I-1.191 J0.
X82.168 Z-2.592 I1.191 J0.
X79.787 Z-2.64 I-1.191 J0.
X82.168 Z-2.689 I1.191 J0.
X79.787 Z-2.737 I-1.191 J0.
X82.168 Z-2.786 I1.191 J0.
X79.787 Z-2.834 I-1.191 J0.
X82.168 Z-2.883 I1.191 J0.
X79.787 Z-2.931 I-1.191 J0.
X82.168 Z-2.98 I1.191 J0.
X79.787 Z-3.028 I-1.191 J0.
X82.168 Z-3.077 I1.191 J0.
X79.787 Z-3.125 I-1.191 J0.
X82.168 Z-3.174 I1.191 J0.
X79.787 Z-3.222 I-1.191 J0.
X82.168 Z-3.271 I1.191 J0.
X79.787 Z-3.319 I-1.191 J0.
X82.168 Z-3.368 I1.191 J0.
X79.787 Z-3.416 I-1.191 J0.
X82.168 Z-3.465 I1.191 J0.
X79.787 Z-3.513 I-1.191 J0.
X82.168 Z-3.562 I1.191 J0.
X79.787 Z-3.61 I-1.191 J0.
X82.168 Z-3.659 I1.191 J0.
X79.787 Z-3.707 I-1.191 J0.
X82.168 Z-3.756 I1.191 J0.
X79.787 Z-3.804 I-1.191 J0.
X82.168 Z-3.852 I1.191 J0.
X79.787 Z-3.901 I-1.191 J0.
X82.168 Z-3.949 I1.191 J0.
X79.787 Z-3.998 I-1.191 J0.
X82.168 Z-4.046 I1.191 J0.
X79.787 Z-4.095 I-1.191 J0.
X82.168 Z-4.143 I1.191 J0.
X79.787 Z-4.192 I-1.191 J0.
X82.168 Z-4.24 I1.191 J0.
X79.787 Z-4.289 I-1.191 J0.
X82.168 Z-4.337 I1.191 J0.
X79.787 Z-4.386 I-1.191 J0.
X82.168 Z-4.434 I1.191 J0.
X79.787 Z-4.483 I-1.191 J0.
X82.168 Z-4.531 I1.191 J0.
X79.787 Z-4.58 I-1.191 J0.
X82.168 Z-4.628 I1.191 J0.
X79.787 Z-4.677 I-1.191 J0.
X82.168 Z-4.725 I1.191 J0.
X79.787 Z-4.774 I-1.191 J0.
X82.168 Z-4.822 I1.191 J0.
X79.787 Z-4.871 I-1.191 J0.
X82.168 Z-4.919 I1.191 J0.
X79.787 Z-4.968 I-1.191 J0.
X82.168 Z-5.016 I1.191 J0.
X79.787 Z-5.065 I-1.191 J0.
X82.168 Z-5.113 I1.191 J0.
X79.787 Z-5.162 I-1.191 J0.
X80.197 Y105.411 Z-5.175 I1.191 J0.
X81.758 Y103.613 I0.781 J-0.899
X80.197 Y105.411 I-0.781 J0.899
X80.645 Y105.379 I0.208 J-0.24
G1 X80.749 Y105.26
X80.795 Y105.206 Z-5.167
X80.839 Y105.156 Z-5.144
X80.879 Y105.11 Z-5.106
X80.912 Y105.072 Z-5.055
X80.937 Y105.044 Z-4.995
X80.952 Y105.026 Z-4.928
X80.957 Y105.02 Z-4.858
G0 Z5.
X80.581 Y80.382
Z4.5
G1 Z2.818 F800.
G18 G3 X80.263 Z2.5 I-0.317 K0.
G1 X80.105
G17 G2 X79.787 Y80.7 I0. J0.318
X82.168 Z2.452 I1.191 J0.
X79.787 Z2.403 I-1.191 J0.
X82.168 Z2.355 I1.191 J0.
X79.787 Z2.306 I-1.191 J0.
X82.168 Z2.258 I1.191 J0.
X79.787 Z2.209 I-1.191 J0.
X82.168 Z2.161 I1.191 J0.
X79.787 Z2.112 I-1.191 J0.
X82.168 Z2.064 I1.191 J0.
X79.787 Z2.015 I-1.191 J0.
X82.168 Z1.967 I1.191 J0.
X79.787 Z1.918 I-1.191 J0.
X82.168 Z1.87 I1.191 J0.
X79.787 Z1.821 I-1.191 J0.
X82.168 Z1.773 I1.191 J0.
X79.787 Z1.724 I-1.191 J0.
X82.168 Z1.676 I1.191 J0.
X79.787 Z1.627 I-1.191 J0.
X82.168 Z1.579 I1.191 J0.
X79.787 Z1.53 I-1.191 J0.
X82.168 Z1.482 I1.191 J0.
X79.787 Z1.433 I-1.191 J0.
X82.168 Z1.385 I1.191 J0.
X79.787 Z1.336 I-1.191 J0.
X82.168 Z1.288 I1.191 J0.
X79.787 Z1.239 I-1.191 J0.
X82.168 Z1.191 I1.191 J0.
X79.787 Z1.142 I-1.191 J0.
X82.168 Z1.094 I1.191 J0.
X79.787 Z1.045 I-1.191 J0.
X82.168 Z0.997 I1.191 J0.
X79.787 Z0.948 I-1.191 J0.
X82.168 Z0.9 I1.191 J0.
X79.787 Z0.851 I-1.191 J0.
X82.168 Z0.803 I1.191 J0.
X79.787 Z0.754 I-1.191 J0.
X82.168 Z0.706 I1.191 J0.
X79.787 Z0.657 I-1.191 J0.
X82.168 Z0.609 I1.191 J0.
X79.787 Z0.56 I-1.191 J0.
X82.168 Z0.512 I1.191 J0.
X79.787 Z0.463 I-1.191 J0.
X82.168 Z0.415 I1.191 J0.
X79.787 Z0.366 I-1.191 J0.
X82.168 Z0.318 I1.191 J0.
X79.787 Z0.269 I-1.191 J0.
X82.168 Z0.221 I1.191 J0.
X79.787 Z0.172 I-1.191 J0.
X82.168 Z0.124 I1.191 J0.
X79.787 Z0.075 I-1.191 J0.
X82.168 Z0.027 I1.191 J0.
X79.787 Z-0.022 I-1.191 J0.
X82.168 Z-0.07 I1.191 J0.
X79.787 Z-0.119 I-1.191 J0.
X82.168 Z-0.167 I1.191 J0.
X79.787 Z-0.216 I-1.191 J0.
X82.168 Z-0.264 I1.191 J0.
X79.787 Z-0.313 I-1.191 J0.
X82.168 Z-0.361 I1.191 J0.
X79.787 Z-0.41 I-1.191 J0.
X82.168 Z-0.458 I1.191 J0.
X79.787 Z-0.507 I-1.191 J0.
X82.168 Z-0.555 I1.191 J0.
X79.787 Z-0.604 I-1.191 J0.
X82.168 Z-0.652 I1.191 J0.
X79.787 Z-0.7 I-1.191 J0.
X82.168 Z-0.749 I1.191 J0.
X79.787 Z-0.797 I-1.191 J0.
X82.168 Z-0.846 I1.191 J0.
X79.787 Z-0.894 I-1.191 J0.
X82.168 Z-0.943 I1.191 J0.
X79.787 Z-0.991 I-1.191 J0.
X82.168 Z-1.04 I1.191 J0.
X79.787 Z-1.088 I-1.191 J0.
X82.168 Z-1.137 I1.191 J0.
X79.787 Z-1.185 I-1.191 J0.
X82.168 Z-1.234 I1.191 J0.
X79.787 Z-1.282 I-1.191 J0.
X82.168 Z-1.331 I1.191 J0.
X79.787 Z-1.379 I-1.191 J0.
X82.168 Z-1.428 I1.191 J0.
X79.787 Z-1.476 I-1.191 J0.
X82.168 Z-1.525 I1.191 J0.
X79.787 Z-1.573 I-1.191 J0.
X82.168 Z-1.622 I1.191 J0.
X79.787 Z-1.67 I-1.191 J0.
X82.168 Z-1.719 I1.191 J0.
X79.787 Z-1.767 I-1.191 J0.
X82.168 Z-1.816 I1.191 J0.
X79.787 Z-1.864 I-1.191 J0.
X82.168 Z-1.913 I1.191 J0.
X79.787 Z-1.961 I-1.191 J0.
X82.168 Z-2.01 I1.191 J0.
X79.787 Z-2.058 I-1.191 J0.
X82.168 Z-2.107 I1.191 J0.
X79.787 Z-2.155 I-1.191 J0.
X82.168 Z-2.204 I1.191 J0.
X79.787 Z-2.252 I-1.191 J0.
X82.168 Z-2.301 I1.191 J0.
X79.787 Z-2.349 I-1.191 J0.
X82.168 Z-2.398 I1.191 J0.
X79.787 Z-2.446 I-1.191 J0.
X82.168 Z-2.495 I1.191 J0.
X79.787 Z-2.543 I-1.191 J0.
X82.168 Z-2.592 I1.191 J0.
X79.787 Z-2.64 I-1.191 J0.
X82.168 Z-2.689 I1.191 J0.
X79.787 Z-2.737 I-1.191 J0.
X82.168 Z-2.786 I1.191 J0.
X79.787 Z-2.834 I-1.191 J0.
X82.168 Z-2.883 I1.191 J0.
X79.787 Z-2.931 I-1.191 J0.
X82.168 Z-2.98 I1.191 J0.
X79.787 Z-3.028 I-1.191 J0.
X82.168 Z-3.077 I1.191 J0.
X79.787 Z-3.125 I-1.191 J0.
X82.168 Z-3.174 I1.191 J0.
X79.787 Z-3.222 I-1.191 J0.
X82.168 Z-3.271 I1.191 J0.
X79.787 Z-3.319 I-1.191 J0.
X82.168 Z-3.368 I1.191 J0.
X79.787 Z-3.416 I-1.191 J0.
X82.168 Z-3.465 I1.191 J0.
X79.787 Z-3.513 I-1.191 J0.
X82.168 Z-3.562 I1.191 J0.
X79.787 Z-3.61 I-1.191 J0.
X82.168 Z-3.659 I1.191 J0.
X79.787 Z-3.707 I-1.191 J0.
X82.168 Z-3.756 I1.191 J0.
X79.787 Z-3.804 I-1.191 J0.
X82.168 Z-3.852 I1.191 J0.
X79.787 Z-3.901 I-1.191 J0.
X82.168 Z-3.949 I1.191 J0.
X79.787 Z-3.998 I-1.191 J0.
X82.168 Z-4.046 I1.191 J0.
X79.787 Z-4.095 I-1.191 J0.
X82.168 Z-4.143 I1.191 J0.
X79.787 Z-4.192 I-1.191 J0.
X82.168 Z-4.24 I1.191 J0.
X79.787 Z-4.289 I-1.191 J0.
X82.168 Z-4.337 I1.191 J0.
X79.787 Z-4.386 I-1.191 J0.
X82.168 Z-4.434 I1.191 J0.
X79.787 Z-4.483 I-1.191 J0.
X82.168 Z-4.531 I1.191 J0.
X79.787 Z-4.58 I-1.191 J0.
X82.168 Z-4.628 I1.191 J0.
X79.787 Z-4.677 I-1.191 J0.
X82.168 Z-4.725 I1.191 J0.
X79.787 Z-4.774 I-1.191 J0.
X82.168 Z-4.822 I1.191 J0.
X79.787 Z-4.871 I-1.191 J0.
X82.168 Z-4.919 I1.191 J0.
X79.787 Z-4.968 I-1.191 J0.
X82.168 Z-5.016 I1.191 J0.
X79.787 Z-5.065 I-1.191 J0.
X82.168 Z-5.113 I1.191 J0.
X79.787 Z-5.162 I-1.191 J0.
X80.197 Y81.599 Z-5.175 I1.191 J0.
X81.758 Y79.801 I0.781 J-0.899
X80.197 Y81.599 I-0.781 J0.899
X80.645 Y81.567 I0.208 J-0.24
G1 X80.749 Y81.447
X80.795 Y81.394 Z-5.167
X80.839 Y81.343 Z-5.144
X80.879 Y81.298 Z-5.106
X80.912 Y81.26 Z-5.055
X80.937 Y81.231 Z-4.995
X80.952 Y81.213 Z-4.928
X80.957 Y81.207 Z-4.858
G0 Z5.
X101.203 Y68.476
Z4.5
G1 Z2.818 F800.
G18 G3 X100.886 Z2.5 I-0.317 K0.
G1 X100.727
G17 G2 X100.409 Y68.793 I0. J0.318
X102.791 Z2.452 I1.191 J0.
X100.409 Z2.403 I-1.191 J0.
X102.791 Z2.355 I1.191 J0.
X100.409 Z2.306 I-1.191 J0.
X102.791 Z2.258 I1.191 J0.
X100.409 Z2.209 I-1.191 J0.
X102.791 Z2.161 I1.191 J0.
X100.409 Z2.112 I-1.191 J0.
X102.791 Z2.064 I1.191 J0.
X100.409 Z2.015 I-1.191 J0.
X102.791 Z1.967 I1.191 J0.
X100.409 Z1.918 I-1.191 J0.
X102.791 Z1.87 I1.191 J0.
X100.409 Z1.821 I-1.191 J0.
X102.791 Z1.773 I1.191 J0.
X100.409 Z1.724 I-1.191 J0.
X102.791 Z1.676 I1.191 J0.
X100.409 Z1.627 I-1.191 J0.
X102.791 Z1.579 I1.191 J0.
X100.409 Z1.53 I-1.191 J0.
X102.791 Z1.482 I1.191 J0.
X100.409 Z1.433 I-1.191 J0.
X102.791 Z1.385 I1.191 J0.
X100.409 Z1.336 I-1.191 J0.
X102.791 Z1.288 I1.191 J0.
X100.409 Z1.239 I-1.191 J0.
X102.791 Z1.191 I1.191 J0.
X100.409 Z1.142 I-1.191 J0.
X102.791 Z1.094 I1.191 J0.
X100.409 Z1.045 I-1.191 J0.
X102.791 Z0.997 I1.191 J0.
X100.409 Z0.948 I-1.191 J0.
X102.791 Z0.9 I1.191 J0.
X100.409 Z0.851 I-1.191 J0.
X102.791 Z0.803 I1.191 J0.
X100.409 Z0.754 I-1.191 J0.
X102.791 Z0.706 I1.191 J0.
X100.409 Z0.657 I-1.191 J0.
X102.791 Z0.609 I1.191 J0.
X100.409 Z0.56 I-1.191 J0.
X102.791 Z0.512 I1.191 J0.
X100.409 Z0.463 I-1.191 J0.
X102.791 Z0.415 I1.191 J0.
X100.409 Z0.366 I-1.191 J0.
X102.791 Z0.318 I1.191 J0.
X100.409 Z0.269 I-1.191 J0.
X102.791 Z0.221 I1.191 J0.
X100.409 Z0.172 I-1.191 J0.
X102.791 Z0.124 I1.191 J0.
X100.409 Z0.075 I-1.191 J0.
X102.791 Z0.027 I1.191 J0.
X100.409 Z-0.022 I-1.191 J0.
X102.791 Z-0.07 I1.191 J0.
X100.409 Z-0.119 I-1.191 J0.
X102.791 Z-0.167 I1.191 J0.
X100.409 Z-0.216 I-1.191 J0.
X102.791 Z-0.264 I1.191 J0.
X100.409 Z-0.313 I-1.191 J0.
X102.791 Z-0.361 I1.191 J0.
X100.409 Z-0.41 I-1.191 J0.
X102.791 Z-0.458 I1.191 J0.
X100.409 Z-0.507 I-1.191 J0.
X102.791 Z-0.555 I1.191 J0.
X100.409 Z-0.604 I-1.191 J0.
X102.791 Z-0.652 I1.191 J0.
X100.409 Z-0.7 I-1.191 J0.
X102.791 Z-0.749 I1.191 J0.
X100.409 Z-0.797 I-1.191 J0.
X102.791 Z-0.846 I1.191 J0.
X100.409 Z-0.894 I-1.191 J0.
X102.791 Z-0.943 I1.191 J0.
X100.409 Z-0.991 I-1.191 J0.
X102.791 Z-1.04 I1.191 J0.
X100.409 Z-1.088 I-1.191 J0.
X102.791 Z-1.137 I1.191 J0.
X100.409 Z-1.185 I-1.191 J0.
X102.791 Z-1.234 I1.191 J0.
X100.409 Z-1.282 I-1.191 J0.
X102.791 Z-1.331 I1.191 J0.
X100.409 Z-1.379 I-1.191 J0.
X102.791 Z-1.428 I1.191 J0.
X100.409 Z-1.476 I-1.191 J0.
X102.791 Z-1.525 I1.191 J0.
X100.409 Z-1.573 I-1.191 J0.
X102.791 Z-1.622 I1.191 J0.
X100.409 Z-1.67 I-1.191 J0.
X102.791 Z-1.719 I1.191 J0.
X100.409 Z-1.767 I-1.191 J0.
X102.791 Z-1.816 I1.191 J0.
X100.409 Z-1.864 I-1.191 J0.
X102.791 Z-1.913 I1.191 J0.
X100.409 Z-1.961 I-1.191 J0.
X102.791 Z-2.01 I1.191 J0.
X100.409 Z-2.058 I-1.191 J0.
X102.791 Z-2.107 I1.191 J0.
X100.409 Z-2.155 I-1.191 J0.
X102.791 Z-2.204 I1.191 J0.
X100.409 Z-2.252 I-1.191 J0.
X102.791 Z-2.301 I1.191 J0.
X100.409 Z-2.349 I-1.191 J0.
X102.791 Z-2.398 I1.191 J0.
X100.409 Z-2.446 I-1.191 J0.
X102.791 Z-2.495 I1.191 J0.
X100.409 Z-2.543 I-1.191 J0.
X102.791 Z-2.592 I1.191 J0.
X100.409 Z-2.64 I-1.191 J0.
X102.791 Z-2.689 I1.191 J0.
X100.409 Z-2.737 I-1.191 J0.
X102.791 Z-2.786 I1.191 J0.
X100.409 Z-2.834 I-1.191 J0.
X102.791 Z-2.883 I1.191 J0.
X100.409 Z-2.931 I-1.191 J0.
X102.791 Z-2.98 I1.191 J0.
X100.409 Z-3.028 I-1.191 J0.
X102.791 Z-3.077 I1.191 J0.
X100.409 Z-3.125 I-1.191 J0.
X102.791 Z-3.174 I1.191 J0.
X100.409 Z-3.222 I-1.191 J0.
X102.791 Z-3.271 I1.191 J0.
X100.409 Z-3.319 I-1.191 J0.
X102.791 Z-3.368 I1.191 J0.
X100.409 Z-3.416 I-1.191 J0.
X102.791 Z-3.465 I1.191 J0.
X100.409 Z-3.513 I-1.191 J0.
X102.791 Z-3.562 I1.191 J0.
X100.409 Z-3.61 I-1.191 J0.
X102.791 Z-3.659 I1.191 J0.
X100.409 Z-3.707 I-1.191 J0.
X102.791 Z-3.756 I1.191 J0.
X100.409 Z-3.804 I-1.191 J0.
X102.791 Z-3.852 I1.191 J0.
X100.409 Z-3.901 I-1.191 J0.
X102.791 Z-3.949 I1.191 J0.
X100.409 Z-3.998 I-1.191 J0.
X102.791 Z-4.046 I1.191 J0.
X100.409 Z-4.095 I-1.191 J0.
X102.791 Z-4.143 I1.191 J0.
X100.409 Z-4.192 I-1.191 J0.
X102.791 Z-4.24 I1.191 J0.
X100.409 Z-4.289 I-1.191 J0.
X102.791 Z-4.337 I1.191 J0.
X100.409 Z-4.386 I-1.191 J0.
X102.791 Z-4.434 I1.191 J0.
X100.409 Z-4.483 I-1.191 J0.
X102.791 Z-4.531 I1.191 J0.
X100.409 Z-4.58 I-1.191 J0.
X102.791 Z-4.628 I1.191 J0.
X100.409 Z-4.677 I-1.191 J0.
X102.791 Z-4.725 I1.191 J0.
X100.409 Z-4.774 I-1.191 J0.
X102.791 Z-4.822 I1.191 J0.
X100.409 Z-4.871 I-1.191 J0.
X102.791 Z-4.919 I1.191 J0.
X100.409 Z-4.968 I-1.191 J0.
X102.791 Z-5.016 I1.191 J0.
X100.409 Z-5.065 I-1.191 J0.
X102.791 Z-5.113 I1.191 J0.
X100.409 Z-5.162 I-1.191 J0.
X100.819 Y69.692 Z-5.175 I1.191 J0.
X102.381 Y67.894 I0.781 J-0.899
X100.819 Y69.692 I-0.781 J0.899
X101.267 Y69.661 I0.208 J-0.24
G1 X101.371 Y69.541
X101.418 Y69.488 Z-5.167
X101.462 Y69.437 Z-5.144
X101.501 Y69.391 Z-5.106
X101.534 Y69.353 Z-5.055
X101.559 Y69.325 Z-4.995
X101.574 Y69.307 Z-4.928
X101.579 Y69.301 Z-4.858
G0 Z5.
X121.825 Y80.382
Z4.5
G1 Z2.818 F800.
G18 G3 X121.508 Z2.5 I-0.317 K0.
G1 X121.349
G17 G2 X121.032 Y80.7 I0. J0.318
X123.413 Z2.452 I1.191 J0.
X121.032 Z2.403 I-1.191 J0.
X123.413 Z2.355 I1.191 J0.
X121.032 Z2.306 I-1.191 J0.
X123.413 Z2.258 I1.191 J0.
X121.032 Z2.209 I-1.191 J0.
X123.413 Z2.161 I1.191 J0.
X121.032 Z2.112 I-1.191 J0.
X123.413 Z2.064 I1.191 J0.
X121.032 Z2.015 I-1.191 J0.
X123.413 Z1.967 I1.191 J0.
X121.032 Z1.918 I-1.191 J0.
X123.413 Z1.87 I1.191 J0.
X121.032 Z1.821 I-1.191 J0.
X123.413 Z1.773 I1.191 J0.
X121.032 Z1.724 I-1.191 J0.
X123.413 Z1.676 I1.191 J0.
X121.032 Z1.627 I-1.191 J0.
X123.413 Z1.579 I1.191 J0.
X121.032 Z1.53 I-1.191 J0.
X123.413 Z1.482 I1.191 J0.
X121.032 Z1.433 I-1.191 J0.
X123.413 Z1.385 I1.191 J0.
X121.032 Z1.336 I-1.191 J0.
X123.413 Z1.288 I1.191 J0.
X121.032 Z1.239 I-1.191 J0.
X123.413 Z1.191 I1.191 J0.
X121.032 Z1.142 I-1.191 J0.
X123.413 Z1.094 I1.191 J0.
X121.032 Z1.045 I-1.191 J0.
X123.413 Z0.997 I1.191 J0.
X121.032 Z0.948 I-1.191 J0.
X123.413 Z0.9 I1.191 J0.
X121.032 Z0.851 I-1.191 J0.
X123.413 Z0.803 I1.191 J0.
X121.032 Z0.754 I-1.191 J0.
X123.413 Z0.706 I1.191 J0.
X121.032 Z0.657 I-1.191 J0.
X123.413 Z0.609 I1.191 J0.
X121.032 Z0.56 I-1.191 J0.
X123.413 Z0.512 I1.191 J0.
X121.032 Z0.463 I-1.191 J0.
X123.413 Z0.415 I1.191 J0.
X121.032 Z0.366 I-1.191 J0.
X123.413 Z0.318 I1.191 J0.
X121.032 Z0.269 I-1.191 J0.
X123.413 Z0.221 I1.191 J0.
X121.032 Z0.172 I-1.191 J0.
X123.413 Z0.124 I1.191 J0.
X121.032 Z0.075 I-1.191 J0.
X123.413 Z0.027 I1.191 J0.
X121.032 Z-0.022 I-1.191 J0.
X123.413 Z-0.07 I1.191 J0.
X121.032 Z-0.119 I-1.191 J0.
X123.413 Z-0.167 I1.191 J0.
X121.032 Z-0.216 I-1.191 J0.
X123.413 Z-0.264 I1.191 J0.
X121.032 Z-0.313 I-1.191 J0.
X123.413 Z-0.361 I1.191 J0.
X121.032 Z-0.41 I-1.191 J0.
X123.413 Z-0.458 I1.191 J0.
X121.032 Z-0.507 I-1.191 J0.
X123.413 Z-0.555 I1.191 J0.
X121.032 Z-0.604 I-1.191 J0.
X123.413 Z-0.652 I1.191 J0.
X121.032 Z-0.7 I-1.191 J0.
X123.413 Z-0.749 I1.191 J0.
X121.032 Z-0.797 I-1.191 J0.
X123.413 Z-0.846 I1.191 J0.
X121.032 Z-0.894 I-1.191 J0.
X123.413 Z-0.943 I1.191 J0.
X121.032 Z-0.991 I-1.191 J0.
X123.413 Z-1.04 I1.191 J0.
X121.032 Z-1.088 I-1.191 J0.
X123.413 Z-1.137 I1.191 J0.
X121.032 Z-1.185 I-1.191 J0.
X123.413 Z-1.234 I1.191 J0.
X121.032 Z-1.282 I-1.191 J0.
X123.413 Z-1.331 I1.191 J0.
X121.032 Z-1.379 I-1.191 J0.
X123.413 Z-1.428 I1.191 J0.
X121.032 Z-1.476 I-1.191 J0.
X123.413 Z-1.525 I1.191 J0.
X121.032 Z-1.573 I-1.191 J0.
X123.413 Z-1.622 I1.191 J0.
X121.032 Z-1.67 I-1.191 J0.
X123.413 Z-1.719 I1.191 J0.
X121.032 Z-1.767 I-1.191 J0.
X123.413 Z-1.816 I1.191 J0.
X121.032 Z-1.864 I-1.191 J0.
X123.413 Z-1.913 I1.191 J0.
X121.032 Z-1.961 I-1.191 J0.
X123.413 Z-2.01 I1.191 J0.
X121.032 Z-2.058 I-1.191 J0.
X123.413 Z-2.107 I1.191 J0.
X121.032 Z-2.155 I-1.191 J0.
X123.413 Z-2.204 I1.191 J0.
X121.032 Z-2.252 I-1.191 J0.
X123.413 Z-2.301 I1.191 J0.
X121.032 Z-2.349 I-1.191 J0.
X123.413 Z-2.398 I1.191 J0.
X121.032 Z-2.446 I-1.191 J0.
X123.413 Z-2.495 I1.191 J0.
X121.032 Z-2.543 I-1.191 J0.
X123.413 Z-2.592 I1.191 J0.
X121.032 Z-2.64 I-1.191 J0.
X123.413 Z-2.689 I1.191 J0.
X121.032 Z-2.737 I-1.191 J0.
X123.413 Z-2.786 I1.191 J0.
X121.032 Z-2.834 I-1.191 J0.
X123.413 Z-2.883 I1.191 J0.
X121.032 Z-2.931 I-1.191 J0.
X123.413 Z-2.98 I1.191 J0.
X121.032 Z-3.028 I-1.191 J0.
X123.413 Z-3.077 I1.191 J0.
X121.032 Z-3.125 I-1.191 J0.
X123.413 Z-3.174 I1.191 J0.
X121.032 Z-3.222 I-1.191 J0.
X123.413 Z-3.271 I1.191 J0.
X121.032 Z-3.319 I-1.191 J0.
X123.413 Z-3.368 I1.191 J0.
X121.032 Z-3.416 I-1.191 J0.
X123.413 Z-3.465 I1.191 J0.
X121.032 Z-3.513 I-1.191 J0.
X123.413 Z-3.562 I1.191 J0.
X121.032 Z-3.61 I-1.191 J0.
X123.413 Z-3.659 I1.191 J0.
X121.032 Z-3.707 I-1.191 J0.
X123.413 Z-3.756 I1.191 J0.
X121.032 Z-3.804 I-1.191 J0.
X123.413 Z-3.852 I1.191 J0.
X121.032 Z-3.901 I-1.191 J0.
X123.413 Z-3.949 I1.191 J0.
X121.032 Z-3.998 I-1.191 J0.
X123.413 Z-4.046 I1.191 J0.
X121.032 Z-4.095 I-1.191 J0.
X123.413 Z-4.143 I1.191 J0.
X121.032 Z-4.192 I-1.191 J0.
X123.413 Z-4.24 I1.191 J0.
X121.032 Z-4.289 I-1.191 J0.
X123.413 Z-4.337 I1.191 J0.
X121.032 Z-4.386 I-1.191 J0.
X123.413 Z-4.434 I1.191 J0.
X121.032 Z-4.483 I-1.191 J0.
X123.413 Z-4.531 I1.191 J0.
X121.032 Z-4.58 I-1.191 J0.
X123.413 Z-4.628 I1.191 J0.
X121.032 Z-4.677 I-1.191 J0.
X123.413 Z-4.725 I1.191 J0.
X121.032 Z-4.774 I-1.191 J0.
X123.413 Z-4.822 I1.191 J0.
X121.032 Z-4.871 I-1.191 J0.
X123.413 Z-4.919 I1.191 J0.
X121.032 Z-4.968 I-1.191 J0.
X123.413 Z-5.016 I1.191 J0.
X121.032 Z-5.065 I-1.191 J0.
X123.413 Z-5.113 I1.191 J0.
X121.032 Z-5.162 I-1.191 J0.
X121.442 Y81.599 Z-5.175 I1.191 J0.
X123.003 Y79.801 I0.781 J-0.899
X121.442 Y81.599 I-0.781 J0.899
X121.889 Y81.567 I0.208 J-0.24
G1 X121.994 Y81.447
X122.04 Y81.394 Z-5.167
X122.084 Y81.343 Z-5.144
X122.123 Y81.298 Z-5.106
X122.156 Y81.26 Z-5.055
X122.181 Y81.231 Z-4.995
X122.197 Y81.213 Z-4.928
X122.202 Y81.207 Z-4.858
G0 Z15.
M5
G0 Z15
G0 X0 Y0

M9
M30
