(TOP CENTER PLATE CUTOUT )
(T1  D=6.35 CR=0. - ZMIN=-5.175 - FLAT END MILL)
G90 G94 G91.1 G40 G49 G17
G21
G0 Z15

(2D CONTOUR1)
M5
T1 M6
S15000 M3
G54
M8
G0 X35.216 Y33.888
G43 Z16. H1
Z6.
G1 Z4.135 F1600.
X35.223 Y33.891 Z4.036
X35.245 Y33.898 Z3.939
X35.282 Y33.91 Z3.847
X35.331 Y33.926 Z3.762
X35.393 Y33.946 Z3.686
X35.465 Y33.969 Z3.621
X35.545 Y33.995 Z3.569
X35.633 Y34.024 Z3.531
X35.725 Y34.054 Z3.508
X35.82 Y34.084 Z3.5
X36.424 Y34.281
G2 X37.224 Y33.873 I0.196 J-0.604
G1 X43.218 Y15.425 Z2.823
G3 X46.237 Y13.231 Z2.683 I3.02 J0.981
G1 X101.6 Z0.75
X156.963
G3 X159.983 Y15.425 I0. J3.175
G1 X194.198 Y120.731
G3 X193.044 Y124.281 I-3.02 J0.981
G1 X103.466 Y189.363
G3 X99.734 I-1.866 J-2.569
G1 X10.155 Y124.281
G3 X9.002 Y120.731 I1.866 J-2.569
G1 X43.218 Y15.425
G3 X46.237 Y13.231 I3.02 J0.981
G1 X101.6
X108.759 Z0.5
X156.963
G3 X159.983 Y15.425 I0. J3.175
G1 X194.198 Y120.731
G3 X193.044 Y124.281 I-3.02 J0.981
G1 X103.466 Y189.363
G3 X99.734 I-1.866 J-2.569
G1 X10.155 Y124.281
G3 X9.002 Y120.731 I1.866 J-2.569
G1 X43.218 Y15.425
G3 X46.237 Y13.231 I3.02 J0.981
G1 X101.6
X108.759
X115.918 Z0.25
X156.963
G3 X159.983 Y15.425 I0. J3.175
G1 X194.198 Y120.731
G3 X193.044 Y124.281 I-3.02 J0.981
G1 X103.466 Y189.363
G3 X99.734 I-1.866 J-2.569
G1 X10.155 Y124.281
G3 X9.002 Y120.731 I1.866 J-2.569
G1 X43.218 Y15.425
G3 X46.237 Y13.231 I3.02 J0.981
G1 X108.759
X115.918
X123.077 Z0.
X156.963
G3 X159.983 Y15.425 I0. J3.175
G1 X194.198 Y120.731
G3 X193.044 Y124.281 I-3.02 J0.981
G1 X103.466 Y189.363
G3 X99.734 I-1.866 J-2.569
G1 X10.155 Y124.281
G3 X9.002 Y120.731 I1.866 J-2.569
G1 X43.218 Y15.425
G3 X46.237 Y13.231 I3.02 J0.981
G1 X115.918
X123.077
X130.236 Z-0.25
X156.963
G3 X159.983 Y15.425 I0. J3.175
G1 X194.198 Y120.731
G3 X193.044 Y124.281 I-3.02 J0.981
G1 X103.466 Y189.363
G3 X99.734 I-1.866 J-2.569
G1 X10.155 Y124.281
G3 X9.002 Y120.731 I1.866 J-2.569
G1 X43.218 Y15.425
G3 X46.237 Y13.231 I3.02 J0.981
G1 X123.077
X130.236
X137.395 Z-0.5
X156.963
G3 X159.983 Y15.425 I0. J3.175
G1 X194.198 Y120.731
G3 X193.044 Y124.281 I-3.02 J0.981
G1 X103.466 Y189.363
G3 X99.734 I-1.866 J-2.569
G1 X10.155 Y124.281
G3 X9.002 Y120.731 I1.866 J-2.569
G1 X43.218 Y15.425
G3 X46.237 Y13.231 I3.02 J0.981
G1 X130.236
X137.395
X144.554 Z-0.75
X156.963
G3 X159.983 Y15.425 I0. J3.175
G1 X194.198 Y120.731
G3 X193.044 Y124.281 I-3.02 J0.981
G1 X103.466 Y189.363
G3 X99.734 I-1.866 J-2.569
G1 X10.155 Y124.281
G3 X9.002 Y120.731 I1.866 J-2.569
G1 X43.218 Y15.425
G3 X46.237 Y13.231 I3.02 J0.981
G1 X137.395
X144.554
X151.713 Z-1.
X156.963
G3 X159.983 Y15.425 I0. J3.175
G1 X194.198 Y120.731
G3 X193.044 Y124.281 I-3.02 J0.981
G1 X103.466 Y189.363
G3 X99.734 I-1.866 J-2.569
G1 X10.155 Y124.281
G3 X9.002 Y120.731 I1.866 J-2.569
G1 X43.218 Y15.425
G3 X46.237 Y13.231 I3.02 J0.981
G1 X144.554
X151.713
X156.963 Z-1.183
G3 X158.759 Y13.788 Z-1.25 I0. J3.175
X159.983 Y15.425 I-1.796 J2.618
G1 X194.198 Y120.731
G3 X193.044 Y124.281 I-3.02 J0.981
G1 X103.466 Y189.363
G3 X99.734 I-1.866 J-2.569
G1 X10.155 Y124.281
G3 X9.002 Y120.731 I1.866 J-2.569
G1 X43.218 Y15.425
G3 X46.237 Y13.231 I3.02 J0.981
G1 X151.713
X156.963
G3 X158.759 Y13.788 I0. J3.175
X159.983 Y15.425 Z-1.323 I-1.796 J2.618
G1 X161.552 Y20.255 Z-1.5
X194.198 Y120.731
G3 X193.044 Y124.281 I-3.02 J0.981
G1 X103.466 Y189.363
G3 X99.734 I-1.866 J-2.569
G1 X10.155 Y124.281
G3 X9.002 Y120.731 I1.866 J-2.569
G1 X43.218 Y15.425
G3 X46.237 Y13.231 I3.02 J0.981
G1 X156.963
G3 X159.983 Y15.425 I0. J3.175
G1 X161.552 Y20.255
X163.764 Y27.063 Z-1.75
X194.198 Y120.731
G3 X193.044 Y124.281 I-3.02 J0.981
G1 X103.466 Y189.363
G3 X99.734 I-1.866 J-2.569
G1 X10.155 Y124.281
G3 X9.002 Y120.731 I1.866 J-2.569
G1 X43.218 Y15.425
G3 X46.237 Y13.231 I3.02 J0.981
G1 X156.963
G3 X159.983 Y15.425 I0. J3.175
G1 X163.764 Y27.063
X165.976 Y33.872 Z-2.
X194.198 Y120.731
G3 X193.044 Y124.281 I-3.02 J0.981
G1 X103.466 Y189.363
G3 X99.734 I-1.866 J-2.569
G1 X10.155 Y124.281
G3 X9.002 Y120.731 I1.866 J-2.569
G1 X43.218 Y15.425
G3 X46.237 Y13.231 I3.02 J0.981
G1 X156.963
G3 X159.983 Y15.425 I0. J3.175
G1 X163.764 Y27.063
X165.976 Y33.872
X168.189 Y40.681 Z-2.25
X194.198 Y120.731
G3 X193.044 Y124.281 I-3.02 J0.981
G1 X103.466 Y189.363
G3 X99.734 I-1.866 J-2.569
G1 X10.155 Y124.281
G3 X9.002 Y120.731 I1.866 J-2.569
G1 X43.218 Y15.425
G3 X46.237 Y13.231 I3.02 J0.981
G1 X156.963
G3 X159.983 Y15.425 I0. J3.175
G1 X165.976 Y33.872
X168.189 Y40.681
X170.401 Y47.489 Z-2.5
X194.198 Y120.731
G3 X193.044 Y124.281 I-3.02 J0.981
G1 X103.466 Y189.363
G3 X99.734 I-1.866 J-2.569
G1 X10.155 Y124.281
G3 X9.002 Y120.731 I1.866 J-2.569
G1 X43.218 Y15.425
G3 X46.237 Y13.231 I3.02 J0.981
G1 X156.963
G3 X159.983 Y15.425 I0. J3.175
G1 X168.189 Y40.681
X170.401 Y47.489
X172.613 Y54.298 Z-2.75
X194.198 Y120.731
G3 X193.044 Y124.281 I-3.02 J0.981
G1 X103.466 Y189.363
G3 X99.734 I-1.866 J-2.569
G1 X10.155 Y124.281
G3 X9.002 Y120.731 I1.866 J-2.569
G1 X43.218 Y15.425
G3 X46.237 Y13.231 I3.02 J0.981
G1 X156.963
G3 X159.983 Y15.425 I0. J3.175
G1 X170.401 Y47.489
X172.613 Y54.298
X174.825 Y61.107 Z-3.
X194.198 Y120.731
G3 X193.044 Y124.281 I-3.02 J0.981
G1 X103.466 Y189.363
G3 X99.734 I-1.866 J-2.569
G1 X10.155 Y124.281
G3 X9.002 Y120.731 I1.866 J-2.569
G1 X43.218 Y15.425
G3 X46.237 Y13.231 I3.02 J0.981
G1 X156.963
G3 X159.983 Y15.425 I0. J3.175
G1 X172.613 Y54.298
X174.825 Y61.107
X177.037 Y67.915 Z-3.25
X194.198 Y120.731
G3 X193.044 Y124.281 I-3.02 J0.981
G1 X103.466 Y189.363
G3 X99.734 I-1.866 J-2.569
G1 X10.155 Y124.281
G3 X9.002 Y120.731 I1.866 J-2.569
G1 X43.218 Y15.425
G3 X46.237 Y13.231 I3.02 J0.981
G1 X156.963
G3 X159.983 Y15.425 I0. J3.175
G1 X174.825 Y61.107
X177.037 Y67.915
X179.25 Y74.724 Z-3.5
X194.198 Y120.731
G3 X193.044 Y124.281 I-3.02 J0.981
G1 X103.466 Y189.363
G3 X99.734 I-1.866 J-2.569
G1 X10.155 Y124.281
G3 X9.002 Y120.731 I1.866 J-2.569
G1 X43.218 Y15.425
G3 X46.237 Y13.231 I3.02 J0.981
G1 X156.963
G3 X159.983 Y15.425 I0. J3.175
G1 X177.037 Y67.915
X179.25 Y74.724
X181.462 Y81.533 Z-3.75
X194.198 Y120.731
G3 X193.044 Y124.281 I-3.02 J0.981
G1 X103.466 Y189.363
G3 X99.734 I-1.866 J-2.569
G1 X10.155 Y124.281
G3 X9.002 Y120.731 I1.866 J-2.569
G1 X43.218 Y15.425
G3 X46.237 Y13.231 I3.02 J0.981
G1 X156.963
G3 X159.983 Y15.425 I0. J3.175
G1 X179.25 Y74.724
X181.462 Y81.533
X183.674 Y88.342 Z-4.
X194.198 Y120.731
G3 X193.044 Y124.281 I-3.02 J0.981
G1 X103.466 Y189.363
G3 X99.734 I-1.866 J-2.569
G1 X10.155 Y124.281
G3 X9.002 Y120.731 I1.866 J-2.569
G1 X43.218 Y15.425
G3 X46.237 Y13.231 I3.02 J0.981
G1 X156.963
G3 X159.983 Y15.425 I0. J3.175
G1 X181.462 Y81.533
X183.674 Y88.342
X185.886 Y95.15 Z-4.25
X194.198 Y120.731
G3 X193.044 Y124.281 I-3.02 J0.981
G1 X103.466 Y189.363
G3 X99.734 I-1.866 J-2.569
G1 X10.155 Y124.281
G3 X9.002 Y120.731 I1.866 J-2.569
G1 X43.218 Y15.425
G3 X46.237 Y13.231 I3.02 J0.981
G1 X156.963
G3 X159.983 Y15.425 I0. J3.175
G1 X183.674 Y88.342
X185.886 Y95.15
X188.098 Y101.959 Z-4.5
X194.198 Y120.731
G3 X193.044 Y124.281 I-3.02 J0.981
G1 X103.466 Y189.363
G3 X99.734 I-1.866 J-2.569
G1 X10.155 Y124.281
G3 X9.002 Y120.731 I1.866 J-2.569
G1 X43.218 Y15.425
G3 X46.237 Y13.231 I3.02 J0.981
G1 X156.963
G3 X159.983 Y15.425 I0. J3.175
G1 X185.886 Y95.15
X188.098 Y101.959
X190.311 Y108.768 Z-4.75
X194.198 Y120.731
G3 X193.044 Y124.281 I-3.02 J0.981
G1 X103.466 Y189.363
G3 X99.734 I-1.866 J-2.569
G1 X10.155 Y124.281
G3 X9.002 Y120.731 I1.866 J-2.569
G1 X43.218 Y15.425
G3 X46.237 Y13.231 I3.02 J0.981
G1 X156.963
G3 X159.983 Y15.425 I0. J3.175
G1 X188.098 Y101.959
X190.311 Y108.768
X192.523 Y115.576 Z-5.
X194.198 Y120.731
G3 X193.044 Y124.281 I-3.02 J0.981
G1 X103.466 Y189.363
G3 X99.734 I-1.866 J-2.569
G1 X10.155 Y124.281
G3 X9.002 Y120.731 I1.866 J-2.569
G1 X43.218 Y15.425
G3 X46.237 Y13.231 I3.02 J0.981
G1 X156.963
G3 X159.983 Y15.425 I0. J3.175
G1 X190.311 Y108.768
X192.523 Y115.576
X194.071 Y120.342 Z-5.175
X194.198 Y120.731
G3 X193.044 Y124.281 I-3.02 J0.981
G1 X103.466 Y189.363
G3 X99.734 I-1.866 J-2.569
G1 X10.155 Y124.281
G3 X9.002 Y120.731 I1.866 J-2.569
G1 X43.218 Y15.425
G3 X46.237 Y13.231 I3.02 J0.981
G1 X156.963
G3 X159.983 Y15.425 I0. J3.175
G1 X192.523 Y115.576
X194.071 Y120.342
G2 X194.872 Y120.75 I0.604 J-0.196
G1 X195.475 Y120.554
X195.57 Y120.523 Z-5.167
X195.662 Y120.493 Z-5.144
X195.75 Y120.465 Z-5.106
X195.83 Y120.439 Z-5.054
X195.902 Y120.415 Z-4.989
X195.964 Y120.395 Z-4.913
X196.014 Y120.379 Z-4.828
X196.05 Y120.367 Z-4.736
X196.072 Y120.36 Z-4.639
X196.079 Y120.358 Z-4.54
G0 Z16.
M5
G0 Z15
G0 X0 Y0

M9
M30
