(COMPRESSER MOUNTING PLATE )
(T1  D=6.35 CR=0. - ZMIN=-4.675 - FLAT END MILL)
G90 G94 G91.1 G40 G49 G17
G21
G0 Z15

(2D CONTOUR1)
M5
T1 M6
S15000 M3
G54
M8
G0 X38.173 Y2.064
G43 Z16. H1
Z6.
G1 Z4.135 F1600.
G19 G3 Y2.699 Z3.5 J0.635 K0.
G1 Y3.334
G17 G2 X38.808 Y3.969 I0.635 J0.
G1 X82.624 Z2.735
G3 X85.799 Y7.144 Z2.648 I0. J3.175
G1 Y115.887 Z0.75
Y224.631
G3 X82.624 Y227.806 I-3.175 J0.
G1 X2.043
G3 X-1.132 Y224.631 I0. J-3.175
G1 Y7.144
G3 X2.043 Y3.969 I3.175 J0.
G1 X82.624
G3 X85.799 Y7.144 I0. J3.175
G1 Y115.887
Y130.21 Z0.5
Y224.631
G3 X82.624 Y227.806 I-3.175 J0.
G1 X2.043
G3 X-1.132 Y224.631 I0. J-3.175
G1 Y7.144
G3 X2.043 Y3.969 I3.175 J0.
G1 X82.624
G3 X85.799 Y7.144 I0. J3.175
G1 Y115.887
Y130.21
Y144.532 Z0.25
Y224.631
G3 X82.624 Y227.806 I-3.175 J0.
G1 X2.043
G3 X-1.132 Y224.631 I0. J-3.175
G1 Y7.144
G3 X2.043 Y3.969 I3.175 J0.
G1 X82.624
G3 X85.799 Y7.144 I0. J3.175
G1 Y130.21
Y144.532
Y158.855 Z0.
Y224.631
G3 X82.624 Y227.806 I-3.175 J0.
G1 X2.043
G3 X-1.132 Y224.631 I0. J-3.175
G1 Y7.144
G3 X2.043 Y3.969 I3.175 J0.
G1 X82.624
G3 X85.799 Y7.144 I0. J3.175
G1 Y144.532
Y158.855
Y173.177 Z-0.25
Y224.631
G3 X82.624 Y227.806 I-3.175 J0.
G1 X2.043
G3 X-1.132 Y224.631 I0. J-3.175
G1 Y7.144
G3 X2.043 Y3.969 I3.175 J0.
G1 X82.624
G3 X85.799 Y7.144 I0. J3.175
G1 Y158.855
Y173.177
Y187.5 Z-0.5
Y224.631
G3 X82.624 Y227.806 I-3.175 J0.
G1 X2.043
G3 X-1.132 Y224.631 I0. J-3.175
G1 Y7.144
G3 X2.043 Y3.969 I3.175 J0.
G1 X82.624
G3 X85.799 Y7.144 I0. J3.175
G1 Y173.177
Y187.5
Y201.822 Z-0.75
Y224.631
G3 X82.624 Y227.806 I-3.175 J0.
G1 X2.043
G3 X-1.132 Y224.631 I0. J-3.175
G1 Y7.144
G3 X2.043 Y3.969 I3.175 J0.
G1 X82.624
G3 X85.799 Y7.144 I0. J3.175
G1 Y187.5
Y201.822
Y216.145 Z-1.
Y224.631
G3 X82.624 Y227.806 I-3.175 J0.
G1 X2.043
G3 X-1.132 Y224.631 I0. J-3.175
G1 Y7.144
G3 X2.043 Y3.969 I3.175 J0.
G1 X82.624
G3 X85.799 Y7.144 I0. J3.175
G1 Y201.822
Y216.145
Y224.631 Z-1.148
G3 X82.624 Y227.806 Z-1.235 I-3.175 J0.
G1 X81.775 Z-1.25
X2.043
G3 X-1.132 Y224.631 I0. J-3.175
G1 Y7.144
G3 X2.043 Y3.969 I3.175 J0.
G1 X82.624
G3 X85.799 Y7.144 I0. J3.175
G1 Y216.145
Y224.631
G3 X82.624 Y227.806 I-3.175 J0.
G1 X81.775
X67.453 Z-1.5
X2.043
G3 X-1.132 Y224.631 I0. J-3.175
G1 Y7.144
G3 X2.043 Y3.969 I3.175 J0.
G1 X82.624
G3 X85.799 Y7.144 I0. J3.175
G1 Y224.631
G3 X82.624 Y227.806 I-3.175 J0.
G1 X67.453
X53.13 Z-1.75
X2.043
G3 X-1.132 Y224.631 I0. J-3.175
G1 Y7.144
G3 X2.043 Y3.969 I3.175 J0.
G1 X82.624
G3 X85.799 Y7.144 I0. J3.175
G1 Y224.631
G3 X82.624 Y227.806 I-3.175 J0.
G1 X67.453
X53.13
X38.808 Z-2.
X2.043
G3 X-1.132 Y224.631 I0. J-3.175
G1 Y7.144
G3 X2.043 Y3.969 I3.175 J0.
G1 X82.624
G3 X85.799 Y7.144 I0. J3.175
G1 Y224.631
G3 X82.624 Y227.806 I-3.175 J0.
G1 X53.13
X38.808
X24.485 Z-2.25
X2.043
G3 X-1.132 Y224.631 I0. J-3.175
G1 Y7.144
G3 X2.043 Y3.969 I3.175 J0.
G1 X82.624
G3 X85.799 Y7.144 I0. J3.175
G1 Y224.631
G3 X82.624 Y227.806 I-3.175 J0.
G1 X38.808
X24.485
X10.163 Z-2.5
X2.043
G3 X-1.132 Y224.631 I0. J-3.175
G1 Y7.144
G3 X2.043 Y3.969 I3.175 J0.
G1 X82.624
G3 X85.799 Y7.144 I0. J3.175
G1 Y224.631
G3 X82.624 Y227.806 I-3.175 J0.
G1 X24.485
X10.163
X2.043 Z-2.642
G3 X-1.132 Y224.631 Z-2.729 I0. J-3.175
G1 Y223.416 Z-2.75
Y7.144
G3 X2.043 Y3.969 I3.175 J0.
G1 X82.624
G3 X85.799 Y7.144 I0. J3.175
G1 Y224.631
G3 X82.624 Y227.806 I-3.175 J0.
G1 X10.163
X2.043
G3 X-1.132 Y224.631 I0. J-3.175
G1 Y223.416
Y209.093 Z-3.
Y7.144
G3 X2.043 Y3.969 I3.175 J0.
G1 X82.624
G3 X85.799 Y7.144 I0. J3.175
G1 Y224.631
G3 X82.624 Y227.806 I-3.175 J0.
G1 X2.043
G3 X-1.132 Y224.631 I0. J-3.175
G1 Y209.093
Y194.771 Z-3.25
Y7.144
G3 X2.043 Y3.969 I3.175 J0.
G1 X82.624
G3 X85.799 Y7.144 I0. J3.175
G1 Y224.631
G3 X82.624 Y227.806 I-3.175 J0.
G1 X2.043
G3 X-1.132 Y224.631 I0. J-3.175
G1 Y209.093
Y194.771
Y180.448 Z-3.5
Y7.144
G3 X2.043 Y3.969 I3.175 J0.
G1 X82.624
G3 X85.799 Y7.144 I0. J3.175
G1 Y224.631
G3 X82.624 Y227.806 I-3.175 J0.
G1 X2.043
G3 X-1.132 Y224.631 I0. J-3.175
G1 Y194.771
Y180.448
Y166.126 Z-3.75
Y7.144
G3 X2.043 Y3.969 I3.175 J0.
G1 X82.624
G3 X85.799 Y7.144 I0. J3.175
G1 Y224.631
G3 X82.624 Y227.806 I-3.175 J0.
G1 X2.043
G3 X-1.132 Y224.631 I0. J-3.175
G1 Y180.448
Y166.126
Y151.803 Z-4.
Y7.144
G3 X2.043 Y3.969 I3.175 J0.
G1 X82.624
G3 X85.799 Y7.144 I0. J3.175
G1 Y224.631
G3 X82.624 Y227.806 I-3.175 J0.
G1 X2.043
G3 X-1.132 Y224.631 I0. J-3.175
G1 Y166.126
Y151.803
Y137.481 Z-4.25
Y7.144
G3 X2.043 Y3.969 I3.175 J0.
G1 X82.624
G3 X85.799 Y7.144 I0. J3.175
G1 Y224.631
G3 X82.624 Y227.806 I-3.175 J0.
G1 X2.043
G3 X-1.132 Y224.631 I0. J-3.175
G1 Y151.803
Y137.481
Y123.158 Z-4.5
Y7.144
G3 X2.043 Y3.969 I3.175 J0.
G1 X82.624
G3 X85.799 Y7.144 I0. J3.175
G1 Y224.631
G3 X82.624 Y227.806 I-3.175 J0.
G1 X2.043
G3 X-1.132 Y224.631 I0. J-3.175
G1 Y137.481
Y123.158
Y113.133 Z-4.675
Y7.144
G3 X2.043 Y3.969 I3.175 J0.
G1 X82.624
G3 X85.799 Y7.144 I0. J3.175
G1 Y224.631
G3 X82.624 Y227.806 I-3.175 J0.
G1 X2.043
G3 X-1.132 Y224.631 I0. J-3.175
G1 Y123.158
Y113.133
G2 X-1.767 Y112.498 I-0.635 J0.
G1 X-2.402
G18 G3 X-3.037 Z-4.04 I0. K0.635
G0 Z16.
G17
M5
G0 Z15
G0 X0 Y0

M9
M30
