(COMPRESSER MOUNTING PLATE 0.125 HOLES )
(T1  D=3.175 CR=0. - ZMIN=-5.175 - FLAT END MILL)
G90 G94 G91.1 G40 G49 G17
G21
G0 Z15

(BORE1 3)
M5
T1 M6
S15000 M3
G54
M8
G0 X35.698 Y40.451
G43 Z15. H1
Z4.5
G1 Z2.818 F800.
G19 G2 Y40.133 Z2.5 J-0.318 K0.
G1 Y39.975
G17 G2 X35.38 Y39.657 I-0.318 J0.
Y41.305 Z2.458 I0. J0.824
Y39.657 Z2.416 I0. J-0.824
Y41.305 Z2.374 I0. J0.824
Y39.657 Z2.332 I0. J-0.824
Y41.305 Z2.29 I0. J0.824
Y39.657 Z2.247 I0. J-0.824
Y41.305 Z2.205 I0. J0.824
Y39.657 Z2.163 I0. J-0.824
Y41.305 Z2.121 I0. J0.824
Y39.657 Z2.079 I0. J-0.824
Y41.305 Z2.037 I0. J0.824
Y39.657 Z1.995 I0. J-0.824
Y41.305 Z1.953 I0. J0.824
Y39.657 Z1.911 I0. J-0.824
Y41.305 Z1.869 I0. J0.824
Y39.657 Z1.826 I0. J-0.824
Y41.305 Z1.784 I0. J0.824
Y39.657 Z1.742 I0. J-0.824
Y41.305 Z1.7 I0. J0.824
Y39.657 Z1.658 I0. J-0.824
Y41.305 Z1.616 I0. J0.824
Y39.657 Z1.574 I0. J-0.824
Y41.305 Z1.532 I0. J0.824
Y39.657 Z1.49 I0. J-0.824
Y41.305 Z1.448 I0. J0.824
Y39.657 Z1.406 I0. J-0.824
Y41.305 Z1.363 I0. J0.824
Y39.657 Z1.321 I0. J-0.824
Y41.305 Z1.279 I0. J0.824
Y39.657 Z1.237 I0. J-0.824
Y41.305 Z1.195 I0. J0.824
Y39.657 Z1.153 I0. J-0.824
Y41.305 Z1.111 I0. J0.824
Y39.657 Z1.069 I0. J-0.824
Y41.305 Z1.027 I0. J0.824
Y39.657 Z0.985 I0. J-0.824
Y41.305 Z0.943 I0. J0.824
Y39.657 Z0.9 I0. J-0.824
Y41.305 Z0.858 I0. J0.824
Y39.657 Z0.816 I0. J-0.824
Y41.305 Z0.774 I0. J0.824
Y39.657 Z0.732 I0. J-0.824
Y41.305 Z0.69 I0. J0.824
Y39.657 Z0.648 I0. J-0.824
Y41.305 Z0.606 I0. J0.824
Y39.657 Z0.564 I0. J-0.824
Y41.305 Z0.522 I0. J0.824
Y39.657 Z0.479 I0. J-0.824
Y41.305 Z0.437 I0. J0.824
Y39.657 Z0.395 I0. J-0.824
Y41.305 Z0.353 I0. J0.824
Y39.657 Z0.311 I0. J-0.824
Y41.305 Z0.269 I0. J0.824
Y39.657 Z0.227 I0. J-0.824
Y41.305 Z0.185 I0. J0.824
Y39.657 Z0.143 I0. J-0.824
Y41.305 Z0.101 I0. J0.824
Y39.657 Z0.059 I0. J-0.824
Y41.305 Z0.016 I0. J0.824
Y39.657 Z-0.026 I0. J-0.824
Y41.305 Z-0.068 I0. J0.824
Y39.657 Z-0.11 I0. J-0.824
Y41.305 Z-0.152 I0. J0.824
Y39.657 Z-0.194 I0. J-0.824
Y41.305 Z-0.236 I0. J0.824
Y39.657 Z-0.278 I0. J-0.824
Y41.305 Z-0.32 I0. J0.824
Y39.657 Z-0.362 I0. J-0.824
Y41.305 Z-0.404 I0. J0.824
Y39.657 Z-0.447 I0. J-0.824
Y41.305 Z-0.489 I0. J0.824
Y39.657 Z-0.531 I0. J-0.824
Y41.305 Z-0.573 I0. J0.824
Y39.657 Z-0.615 I0. J-0.824
Y41.305 Z-0.657 I0. J0.824
Y39.657 Z-0.699 I0. J-0.824
Y41.305 Z-0.741 I0. J0.824
Y39.657 Z-0.783 I0. J-0.824
Y41.305 Z-0.825 I0. J0.824
Y39.657 Z-0.868 I0. J-0.824
Y41.305 Z-0.91 I0. J0.824
Y39.657 Z-0.952 I0. J-0.824
Y41.305 Z-0.994 I0. J0.824
Y39.657 Z-1.036 I0. J-0.824
Y41.305 Z-1.078 I0. J0.824
Y39.657 Z-1.12 I0. J-0.824
Y41.305 Z-1.162 I0. J0.824
Y39.657 Z-1.204 I0. J-0.824
Y41.305 Z-1.246 I0. J0.824
Y39.657 Z-1.288 I0. J-0.824
Y41.305 Z-1.331 I0. J0.824
Y39.657 Z-1.373 I0. J-0.824
Y41.305 Z-1.415 I0. J0.824
Y39.657 Z-1.457 I0. J-0.824
Y41.305 Z-1.499 I0. J0.824
Y39.657 Z-1.541 I0. J-0.824
Y41.305 Z-1.583 I0. J0.824
Y39.657 Z-1.625 I0. J-0.824
Y41.305 Z-1.667 I0. J0.824
Y39.657 Z-1.709 I0. J-0.824
Y41.305 Z-1.751 I0. J0.824
Y39.657 Z-1.794 I0. J-0.824
Y41.305 Z-1.836 I0. J0.824
Y39.657 Z-1.878 I0. J-0.824
Y41.305 Z-1.92 I0. J0.824
Y39.657 Z-1.962 I0. J-0.824
Y41.305 Z-2.004 I0. J0.824
Y39.657 Z-2.046 I0. J-0.824
Y41.305 Z-2.088 I0. J0.824
Y39.657 Z-2.13 I0. J-0.824
Y41.305 Z-2.172 I0. J0.824
Y39.657 Z-2.215 I0. J-0.824
Y41.305 Z-2.257 I0. J0.824
Y39.657 Z-2.299 I0. J-0.824
Y41.305 Z-2.341 I0. J0.824
Y39.657 Z-2.383 I0. J-0.824
Y41.305 Z-2.425 I0. J0.824
Y39.657 Z-2.467 I0. J-0.824
Y41.305 Z-2.509 I0. J0.824
Y39.657 Z-2.551 I0. J-0.824
Y41.305 Z-2.593 I0. J0.824
Y39.657 Z-2.635 I0. J-0.824
Y41.305 Z-2.678 I0. J0.824
Y39.657 Z-2.72 I0. J-0.824
Y41.305 Z-2.762 I0. J0.824
Y39.657 Z-2.804 I0. J-0.824
Y41.305 Z-2.846 I0. J0.824
Y39.657 Z-2.888 I0. J-0.824
Y41.305 Z-2.93 I0. J0.824
Y39.657 Z-2.972 I0. J-0.824
Y41.305 Z-3.014 I0. J0.824
Y39.657 Z-3.056 I0. J-0.824
Y41.305 Z-3.099 I0. J0.824
Y39.657 Z-3.141 I0. J-0.824
Y41.305 Z-3.183 I0. J0.824
Y39.657 Z-3.225 I0. J-0.824
Y41.305 Z-3.267 I0. J0.824
Y39.657 Z-3.309 I0. J-0.824
Y41.305 Z-3.351 I0. J0.824
Y39.657 Z-3.393 I0. J-0.824
Y41.305 Z-3.435 I0. J0.824
Y39.657 Z-3.477 I0. J-0.824
Y41.305 Z-3.519 I0. J0.824
Y39.657 Z-3.562 I0. J-0.824
Y41.305 Z-3.604 I0. J0.824
Y39.657 Z-3.646 I0. J-0.824
Y41.305 Z-3.688 I0. J0.824
Y39.657 Z-3.73 I0. J-0.824
Y41.305 Z-3.772 I0. J0.824
Y39.657 Z-3.814 I0. J-0.824
Y41.305 Z-3.856 I0. J0.824
Y39.657 Z-3.898 I0. J-0.824
Y41.305 Z-3.94 I0. J0.824
Y39.657 Z-3.982 I0. J-0.824
Y41.305 Z-4.025 I0. J0.824
Y39.657 Z-4.067 I0. J-0.824
Y41.305 Z-4.109 I0. J0.824
Y39.657 Z-4.151 I0. J-0.824
Y41.305 Z-4.193 I0. J0.824
Y39.657 Z-4.235 I0. J-0.824
Y41.305 Z-4.277 I0. J0.824
Y39.657 Z-4.319 I0. J-0.824
Y41.305 Z-4.361 I0. J0.824
Y39.657 Z-4.403 I0. J-0.824
Y41.305 Z-4.446 I0. J0.824
Y39.657 Z-4.488 I0. J-0.824
Y41.305 Z-4.53 I0. J0.824
Y39.657 Z-4.572 I0. J-0.824
Y41.305 Z-4.614 I0. J0.824
Y39.657 Z-4.656 I0. J-0.824
Y41.305 Z-4.698 I0. J0.824
Y39.657 Z-4.74 I0. J-0.824
Y41.305 Z-4.782 I0. J0.824
Y39.657 Z-4.824 I0. J-0.824
Y41.305 Z-4.866 I0. J0.824
Y39.657 Z-4.909 I0. J-0.824
Y41.305 Z-4.951 I0. J0.824
Y39.657 Z-4.993 I0. J-0.824
Y41.305 Z-5.035 I0. J0.824
Y39.657 Z-5.077 I0. J-0.824
Y41.305 Z-5.119 I0. J0.824
Y39.657 Z-5.161 I0. J-0.824
X34.671 Y40.062 Z-5.175 I0. J0.824
X36.089 Y40.901 I0.709 J0.42
X34.671 Y40.062 I-0.709 J-0.42
X34.782 Y40.497 I0.273 J0.162
G1 X34.919 Y40.577
X34.98 Y40.613 Z-5.167
X35.038 Y40.648 Z-5.144
X35.089 Y40.678 Z-5.106
X35.133 Y40.704 Z-5.055
X35.165 Y40.723 Z-4.995
X35.185 Y40.735 Z-4.928
X35.192 Y40.739 Z-4.858
G0 Z5.
X76.592 Y40.451
Z4.5
G1 Z2.818 F800.
G19 G2 Y40.133 Z2.5 J-0.318 K0.
G1 Y39.975
G17 G2 X76.274 Y39.657 I-0.317 J0.
Y41.305 Z2.458 I0. J0.824
Y39.657 Z2.416 I0. J-0.824
Y41.305 Z2.374 I0. J0.824
Y39.657 Z2.332 I0. J-0.824
Y41.305 Z2.29 I0. J0.824
Y39.657 Z2.247 I0. J-0.824
Y41.305 Z2.205 I0. J0.824
Y39.657 Z2.163 I0. J-0.824
Y41.305 Z2.121 I0. J0.824
Y39.657 Z2.079 I0. J-0.824
Y41.305 Z2.037 I0. J0.824
Y39.657 Z1.995 I0. J-0.824
Y41.305 Z1.953 I0. J0.824
Y39.657 Z1.911 I0. J-0.824
Y41.305 Z1.869 I0. J0.824
Y39.657 Z1.826 I0. J-0.824
Y41.305 Z1.784 I0. J0.824
Y39.657 Z1.742 I0. J-0.824
Y41.305 Z1.7 I0. J0.824
Y39.657 Z1.658 I0. J-0.824
Y41.305 Z1.616 I0. J0.824
Y39.657 Z1.574 I0. J-0.824
Y41.305 Z1.532 I0. J0.824
Y39.657 Z1.49 I0. J-0.824
Y41.305 Z1.448 I0. J0.824
Y39.657 Z1.406 I0. J-0.824
Y41.305 Z1.363 I0. J0.824
Y39.657 Z1.321 I0. J-0.824
Y41.305 Z1.279 I0. J0.824
Y39.657 Z1.237 I0. J-0.824
Y41.305 Z1.195 I0. J0.824
Y39.657 Z1.153 I0. J-0.824
Y41.305 Z1.111 I0. J0.824
Y39.657 Z1.069 I0. J-0.824
Y41.305 Z1.027 I0. J0.824
Y39.657 Z0.985 I0. J-0.824
Y41.305 Z0.943 I0. J0.824
Y39.657 Z0.9 I0. J-0.824
Y41.305 Z0.858 I0. J0.824
Y39.657 Z0.816 I0. J-0.824
Y41.305 Z0.774 I0. J0.824
Y39.657 Z0.732 I0. J-0.824
Y41.305 Z0.69 I0. J0.824
Y39.657 Z0.648 I0. J-0.824
Y41.305 Z0.606 I0. J0.824
Y39.657 Z0.564 I0. J-0.824
Y41.305 Z0.522 I0. J0.824
Y39.657 Z0.479 I0. J-0.824
Y41.305 Z0.437 I0. J0.824
Y39.657 Z0.395 I0. J-0.824
Y41.305 Z0.353 I0. J0.824
Y39.657 Z0.311 I0. J-0.824
Y41.305 Z0.269 I0. J0.824
Y39.657 Z0.227 I0. J-0.824
Y41.305 Z0.185 I0. J0.824
Y39.657 Z0.143 I0. J-0.824
Y41.305 Z0.101 I0. J0.824
Y39.657 Z0.059 I0. J-0.824
Y41.305 Z0.016 I0. J0.824
Y39.657 Z-0.026 I0. J-0.824
Y41.305 Z-0.068 I0. J0.824
Y39.657 Z-0.11 I0. J-0.824
Y41.305 Z-0.152 I0. J0.824
Y39.657 Z-0.194 I0. J-0.824
Y41.305 Z-0.236 I0. J0.824
Y39.657 Z-0.278 I0. J-0.824
Y41.305 Z-0.32 I0. J0.824
Y39.657 Z-0.362 I0. J-0.824
Y41.305 Z-0.404 I0. J0.824
Y39.657 Z-0.447 I0. J-0.824
Y41.305 Z-0.489 I0. J0.824
Y39.657 Z-0.531 I0. J-0.824
Y41.305 Z-0.573 I0. J0.824
Y39.657 Z-0.615 I0. J-0.824
Y41.305 Z-0.657 I0. J0.824
Y39.657 Z-0.699 I0. J-0.824
Y41.305 Z-0.741 I0. J0.824
Y39.657 Z-0.783 I0. J-0.824
Y41.305 Z-0.825 I0. J0.824
Y39.657 Z-0.868 I0. J-0.824
Y41.305 Z-0.91 I0. J0.824
Y39.657 Z-0.952 I0. J-0.824
Y41.305 Z-0.994 I0. J0.824
Y39.657 Z-1.036 I0. J-0.824
Y41.305 Z-1.078 I0. J0.824
Y39.657 Z-1.12 I0. J-0.824
Y41.305 Z-1.162 I0. J0.824
Y39.657 Z-1.204 I0. J-0.824
Y41.305 Z-1.246 I0. J0.824
Y39.657 Z-1.288 I0. J-0.824
Y41.305 Z-1.331 I0. J0.824
Y39.657 Z-1.373 I0. J-0.824
Y41.305 Z-1.415 I0. J0.824
Y39.657 Z-1.457 I0. J-0.824
Y41.305 Z-1.499 I0. J0.824
Y39.657 Z-1.541 I0. J-0.824
Y41.305 Z-1.583 I0. J0.824
Y39.657 Z-1.625 I0. J-0.824
Y41.305 Z-1.667 I0. J0.824
Y39.657 Z-1.709 I0. J-0.824
Y41.305 Z-1.751 I0. J0.824
Y39.657 Z-1.794 I0. J-0.824
Y41.305 Z-1.836 I0. J0.824
Y39.657 Z-1.878 I0. J-0.824
Y41.305 Z-1.92 I0. J0.824
Y39.657 Z-1.962 I0. J-0.824
Y41.305 Z-2.004 I0. J0.824
Y39.657 Z-2.046 I0. J-0.824
Y41.305 Z-2.088 I0. J0.824
Y39.657 Z-2.13 I0. J-0.824
Y41.305 Z-2.172 I0. J0.824
Y39.657 Z-2.215 I0. J-0.824
Y41.305 Z-2.257 I0. J0.824
Y39.657 Z-2.299 I0. J-0.824
Y41.305 Z-2.341 I0. J0.824
Y39.657 Z-2.383 I0. J-0.824
Y41.305 Z-2.425 I0. J0.824
Y39.657 Z-2.467 I0. J-0.824
Y41.305 Z-2.509 I0. J0.824
Y39.657 Z-2.551 I0. J-0.824
Y41.305 Z-2.593 I0. J0.824
Y39.657 Z-2.635 I0. J-0.824
Y41.305 Z-2.678 I0. J0.824
Y39.657 Z-2.72 I0. J-0.824
Y41.305 Z-2.762 I0. J0.824
Y39.657 Z-2.804 I0. J-0.824
Y41.305 Z-2.846 I0. J0.824
Y39.657 Z-2.888 I0. J-0.824
Y41.305 Z-2.93 I0. J0.824
Y39.657 Z-2.972 I0. J-0.824
Y41.305 Z-3.014 I0. J0.824
Y39.657 Z-3.056 I0. J-0.824
Y41.305 Z-3.099 I0. J0.824
Y39.657 Z-3.141 I0. J-0.824
Y41.305 Z-3.183 I0. J0.824
Y39.657 Z-3.225 I0. J-0.824
Y41.305 Z-3.267 I0. J0.824
Y39.657 Z-3.309 I0. J-0.824
Y41.305 Z-3.351 I0. J0.824
Y39.657 Z-3.393 I0. J-0.824
Y41.305 Z-3.435 I0. J0.824
Y39.657 Z-3.477 I0. J-0.824
Y41.305 Z-3.519 I0. J0.824
Y39.657 Z-3.562 I0. J-0.824
Y41.305 Z-3.604 I0. J0.824
Y39.657 Z-3.646 I0. J-0.824
Y41.305 Z-3.688 I0. J0.824
Y39.657 Z-3.73 I0. J-0.824
Y41.305 Z-3.772 I0. J0.824
Y39.657 Z-3.814 I0. J-0.824
Y41.305 Z-3.856 I0. J0.824
Y39.657 Z-3.898 I0. J-0.824
Y41.305 Z-3.94 I0. J0.824
Y39.657 Z-3.982 I0. J-0.824
Y41.305 Z-4.025 I0. J0.824
Y39.657 Z-4.067 I0. J-0.824
Y41.305 Z-4.109 I0. J0.824
Y39.657 Z-4.151 I0. J-0.824
Y41.305 Z-4.193 I0. J0.824
Y39.657 Z-4.235 I0. J-0.824
Y41.305 Z-4.277 I0. J0.824
Y39.657 Z-4.319 I0. J-0.824
Y41.305 Z-4.361 I0. J0.824
Y39.657 Z-4.403 I0. J-0.824
Y41.305 Z-4.446 I0. J0.824
Y39.657 Z-4.488 I0. J-0.824
Y41.305 Z-4.53 I0. J0.824
Y39.657 Z-4.572 I0. J-0.824
Y41.305 Z-4.614 I0. J0.824
Y39.657 Z-4.656 I0. J-0.824
Y41.305 Z-4.698 I0. J0.824
Y39.657 Z-4.74 I0. J-0.824
Y41.305 Z-4.782 I0. J0.824
Y39.657 Z-4.824 I0. J-0.824
Y41.305 Z-4.866 I0. J0.824
Y39.657 Z-4.909 I0. J-0.824
Y41.305 Z-4.951 I0. J0.824
Y39.657 Z-4.993 I0. J-0.824
Y41.305 Z-5.035 I0. J0.824
Y39.657 Z-5.077 I0. J-0.824
Y41.305 Z-5.119 I0. J0.824
Y39.657 Z-5.161 I0. J-0.824
X75.565 Y40.062 Z-5.175 I0. J0.824
X76.983 Y40.901 I0.709 J0.42
X75.565 Y40.062 I-0.709 J-0.42
X75.676 Y40.497 I0.273 J0.162
G1 X75.813 Y40.577
X75.874 Y40.613 Z-5.167
X75.932 Y40.648 Z-5.144
X75.983 Y40.678 Z-5.106
X76.027 Y40.704 Z-5.055
X76.059 Y40.723 Z-4.995
X76.079 Y40.735 Z-4.928
X76.086 Y40.739 Z-4.858
G0 Z5.
X74.179 Y180.396
Z4.5
G1 Z2.818 F800.
G19 G2 Y180.078 Z2.5 J-0.318 K0.
G1 Y179.92
G17 G2 X73.861 Y179.602 I-0.317 J0.
Y181.25 Z2.458 I0. J0.824
Y179.602 Z2.416 I0. J-0.824
Y181.25 Z2.374 I0. J0.824
Y179.602 Z2.332 I0. J-0.824
Y181.25 Z2.29 I0. J0.824
Y179.602 Z2.247 I0. J-0.824
Y181.25 Z2.205 I0. J0.824
Y179.602 Z2.163 I0. J-0.824
Y181.25 Z2.121 I0. J0.824
Y179.602 Z2.079 I0. J-0.824
Y181.25 Z2.037 I0. J0.824
Y179.602 Z1.995 I0. J-0.824
Y181.25 Z1.953 I0. J0.824
Y179.602 Z1.911 I0. J-0.824
Y181.25 Z1.869 I0. J0.824
Y179.602 Z1.826 I0. J-0.824
Y181.25 Z1.784 I0. J0.824
Y179.602 Z1.742 I0. J-0.824
Y181.25 Z1.7 I0. J0.824
Y179.602 Z1.658 I0. J-0.824
Y181.25 Z1.616 I0. J0.824
Y179.602 Z1.574 I0. J-0.824
Y181.25 Z1.532 I0. J0.824
Y179.602 Z1.49 I0. J-0.824
Y181.25 Z1.448 I0. J0.824
Y179.602 Z1.406 I0. J-0.824
Y181.25 Z1.363 I0. J0.824
Y179.602 Z1.321 I0. J-0.824
Y181.25 Z1.279 I0. J0.824
Y179.602 Z1.237 I0. J-0.824
Y181.25 Z1.195 I0. J0.824
Y179.602 Z1.153 I0. J-0.824
Y181.25 Z1.111 I0. J0.824
Y179.602 Z1.069 I0. J-0.824
Y181.25 Z1.027 I0. J0.824
Y179.602 Z0.985 I0. J-0.824
Y181.25 Z0.943 I0. J0.824
Y179.602 Z0.9 I0. J-0.824
Y181.25 Z0.858 I0. J0.824
Y179.602 Z0.816 I0. J-0.824
Y181.25 Z0.774 I0. J0.824
Y179.602 Z0.732 I0. J-0.824
Y181.25 Z0.69 I0. J0.824
Y179.602 Z0.648 I0. J-0.824
Y181.25 Z0.606 I0. J0.824
Y179.602 Z0.564 I0. J-0.824
Y181.25 Z0.522 I0. J0.824
Y179.602 Z0.479 I0. J-0.824
Y181.25 Z0.437 I0. J0.824
Y179.602 Z0.395 I0. J-0.824
Y181.25 Z0.353 I0. J0.824
Y179.602 Z0.311 I0. J-0.824
Y181.25 Z0.269 I0. J0.824
Y179.602 Z0.227 I0. J-0.824
Y181.25 Z0.185 I0. J0.824
Y179.602 Z0.143 I0. J-0.824
Y181.25 Z0.101 I0. J0.824
Y179.602 Z0.059 I0. J-0.824
Y181.25 Z0.016 I0. J0.824
Y179.602 Z-0.026 I0. J-0.824
Y181.25 Z-0.068 I0. J0.824
Y179.602 Z-0.11 I0. J-0.824
Y181.25 Z-0.152 I0. J0.824
Y179.602 Z-0.194 I0. J-0.824
Y181.25 Z-0.236 I0. J0.824
Y179.602 Z-0.278 I0. J-0.824
Y181.25 Z-0.32 I0. J0.824
Y179.602 Z-0.362 I0. J-0.824
Y181.25 Z-0.404 I0. J0.824
Y179.602 Z-0.447 I0. J-0.824
Y181.25 Z-0.489 I0. J0.824
Y179.602 Z-0.531 I0. J-0.824
Y181.25 Z-0.573 I0. J0.824
Y179.602 Z-0.615 I0. J-0.824
Y181.25 Z-0.657 I0. J0.824
Y179.602 Z-0.699 I0. J-0.824
Y181.25 Z-0.741 I0. J0.824
Y179.602 Z-0.783 I0. J-0.824
Y181.25 Z-0.825 I0. J0.824
Y179.602 Z-0.868 I0. J-0.824
Y181.25 Z-0.91 I0. J0.824
Y179.602 Z-0.952 I0. J-0.824
Y181.25 Z-0.994 I0. J0.824
Y179.602 Z-1.036 I0. J-0.824
Y181.25 Z-1.078 I0. J0.824
Y179.602 Z-1.12 I0. J-0.824
Y181.25 Z-1.162 I0. J0.824
Y179.602 Z-1.204 I0. J-0.824
Y181.25 Z-1.246 I0. J0.824
Y179.602 Z-1.288 I0. J-0.824
Y181.25 Z-1.331 I0. J0.824
Y179.602 Z-1.373 I0. J-0.824
Y181.25 Z-1.415 I0. J0.824
Y179.602 Z-1.457 I0. J-0.824
Y181.25 Z-1.499 I0. J0.824
Y179.602 Z-1.541 I0. J-0.824
Y181.25 Z-1.583 I0. J0.824
Y179.602 Z-1.625 I0. J-0.824
Y181.25 Z-1.667 I0. J0.824
Y179.602 Z-1.709 I0. J-0.824
Y181.25 Z-1.751 I0. J0.824
Y179.602 Z-1.794 I0. J-0.824
Y181.25 Z-1.836 I0. J0.824
Y179.602 Z-1.878 I0. J-0.824
Y181.25 Z-1.92 I0. J0.824
Y179.602 Z-1.962 I0. J-0.824
Y181.25 Z-2.004 I0. J0.824
Y179.602 Z-2.046 I0. J-0.824
Y181.25 Z-2.088 I0. J0.824
Y179.602 Z-2.13 I0. J-0.824
Y181.25 Z-2.172 I0. J0.824
Y179.602 Z-2.215 I0. J-0.824
Y181.25 Z-2.257 I0. J0.824
Y179.602 Z-2.299 I0. J-0.824
Y181.25 Z-2.341 I0. J0.824
Y179.602 Z-2.383 I0. J-0.824
Y181.25 Z-2.425 I0. J0.824
Y179.602 Z-2.467 I0. J-0.824
Y181.25 Z-2.509 I0. J0.824
Y179.602 Z-2.551 I0. J-0.824
Y181.25 Z-2.593 I0. J0.824
Y179.602 Z-2.635 I0. J-0.824
Y181.25 Z-2.678 I0. J0.824
Y179.602 Z-2.72 I0. J-0.824
Y181.25 Z-2.762 I0. J0.824
Y179.602 Z-2.804 I0. J-0.824
Y181.25 Z-2.846 I0. J0.824
Y179.602 Z-2.888 I0. J-0.824
Y181.25 Z-2.93 I0. J0.824
Y179.602 Z-2.972 I0. J-0.824
Y181.25 Z-3.014 I0. J0.824
Y179.602 Z-3.056 I0. J-0.824
Y181.25 Z-3.099 I0. J0.824
Y179.602 Z-3.141 I0. J-0.824
Y181.25 Z-3.183 I0. J0.824
Y179.602 Z-3.225 I0. J-0.824
Y181.25 Z-3.267 I0. J0.824
Y179.602 Z-3.309 I0. J-0.824
Y181.25 Z-3.351 I0. J0.824
Y179.602 Z-3.393 I0. J-0.824
Y181.25 Z-3.435 I0. J0.824
Y179.602 Z-3.477 I0. J-0.824
Y181.25 Z-3.519 I0. J0.824
Y179.602 Z-3.562 I0. J-0.824
Y181.25 Z-3.604 I0. J0.824
Y179.602 Z-3.646 I0. J-0.824
Y181.25 Z-3.688 I0. J0.824
Y179.602 Z-3.73 I0. J-0.824
Y181.25 Z-3.772 I0. J0.824
Y179.602 Z-3.814 I0. J-0.824
Y181.25 Z-3.856 I0. J0.824
Y179.602 Z-3.898 I0. J-0.824
Y181.25 Z-3.94 I0. J0.824
Y179.602 Z-3.982 I0. J-0.824
Y181.25 Z-4.025 I0. J0.824
Y179.602 Z-4.067 I0. J-0.824
Y181.25 Z-4.109 I0. J0.824
Y179.602 Z-4.151 I0. J-0.824
Y181.25 Z-4.193 I0. J0.824
Y179.602 Z-4.235 I0. J-0.824
Y181.25 Z-4.277 I0. J0.824
Y179.602 Z-4.319 I0. J-0.824
Y181.25 Z-4.361 I0. J0.824
Y179.602 Z-4.403 I0. J-0.824
Y181.25 Z-4.446 I0. J0.824
Y179.602 Z-4.488 I0. J-0.824
Y181.25 Z-4.53 I0. J0.824
Y179.602 Z-4.572 I0. J-0.824
Y181.25 Z-4.614 I0. J0.824
Y179.602 Z-4.656 I0. J-0.824
Y181.25 Z-4.698 I0. J0.824
Y179.602 Z-4.74 I0. J-0.824
Y181.25 Z-4.782 I0. J0.824
Y179.602 Z-4.824 I0. J-0.824
Y181.25 Z-4.866 I0. J0.824
Y179.602 Z-4.909 I0. J-0.824
Y181.25 Z-4.951 I0. J0.824
Y179.602 Z-4.993 I0. J-0.824
Y181.25 Z-5.035 I0. J0.824
Y179.602 Z-5.077 I0. J-0.824
Y181.25 Z-5.119 I0. J0.824
Y179.602 Z-5.161 I0. J-0.824
X73.152 Y180.007 Z-5.175 I0. J0.824
X74.57 Y180.846 I0.709 J0.42
X73.152 Y180.007 I-0.709 J-0.42
X73.263 Y180.441 I0.273 J0.162
G1 X73.4 Y180.522
X73.461 Y180.558 Z-5.167
X73.519 Y180.592 Z-5.144
X73.57 Y180.623 Z-5.106
X73.614 Y180.649 Z-5.055
X73.646 Y180.668 Z-4.995
X73.666 Y180.68 Z-4.928
X73.673 Y180.684 Z-4.858
G0 Z5.
X38.111 Y180.396
Z4.5
G1 Z2.818 F800.
G19 G2 Y180.078 Z2.5 J-0.318 K0.
G1 Y179.92
G17 G2 X37.793 Y179.602 I-0.318 J0.
Y181.25 Z2.458 I0. J0.824
Y179.602 Z2.416 I0. J-0.824
Y181.25 Z2.374 I0. J0.824
Y179.602 Z2.332 I0. J-0.824
Y181.25 Z2.29 I0. J0.824
Y179.602 Z2.247 I0. J-0.824
Y181.25 Z2.205 I0. J0.824
Y179.602 Z2.163 I0. J-0.824
Y181.25 Z2.121 I0. J0.824
Y179.602 Z2.079 I0. J-0.824
Y181.25 Z2.037 I0. J0.824
Y179.602 Z1.995 I0. J-0.824
Y181.25 Z1.953 I0. J0.824
Y179.602 Z1.911 I0. J-0.824
Y181.25 Z1.869 I0. J0.824
Y179.602 Z1.826 I0. J-0.824
Y181.25 Z1.784 I0. J0.824
Y179.602 Z1.742 I0. J-0.824
Y181.25 Z1.7 I0. J0.824
Y179.602 Z1.658 I0. J-0.824
Y181.25 Z1.616 I0. J0.824
Y179.602 Z1.574 I0. J-0.824
Y181.25 Z1.532 I0. J0.824
Y179.602 Z1.49 I0. J-0.824
Y181.25 Z1.448 I0. J0.824
Y179.602 Z1.406 I0. J-0.824
Y181.25 Z1.363 I0. J0.824
Y179.602 Z1.321 I0. J-0.824
Y181.25 Z1.279 I0. J0.824
Y179.602 Z1.237 I0. J-0.824
Y181.25 Z1.195 I0. J0.824
Y179.602 Z1.153 I0. J-0.824
Y181.25 Z1.111 I0. J0.824
Y179.602 Z1.069 I0. J-0.824
Y181.25 Z1.027 I0. J0.824
Y179.602 Z0.985 I0. J-0.824
Y181.25 Z0.943 I0. J0.824
Y179.602 Z0.9 I0. J-0.824
Y181.25 Z0.858 I0. J0.824
Y179.602 Z0.816 I0. J-0.824
Y181.25 Z0.774 I0. J0.824
Y179.602 Z0.732 I0. J-0.824
Y181.25 Z0.69 I0. J0.824
Y179.602 Z0.648 I0. J-0.824
Y181.25 Z0.606 I0. J0.824
Y179.602 Z0.564 I0. J-0.824
Y181.25 Z0.522 I0. J0.824
Y179.602 Z0.479 I0. J-0.824
Y181.25 Z0.437 I0. J0.824
Y179.602 Z0.395 I0. J-0.824
Y181.25 Z0.353 I0. J0.824
Y179.602 Z0.311 I0. J-0.824
Y181.25 Z0.269 I0. J0.824
Y179.602 Z0.227 I0. J-0.824
Y181.25 Z0.185 I0. J0.824
Y179.602 Z0.143 I0. J-0.824
Y181.25 Z0.101 I0. J0.824
Y179.602 Z0.059 I0. J-0.824
Y181.25 Z0.016 I0. J0.824
Y179.602 Z-0.026 I0. J-0.824
Y181.25 Z-0.068 I0. J0.824
Y179.602 Z-0.11 I0. J-0.824
Y181.25 Z-0.152 I0. J0.824
Y179.602 Z-0.194 I0. J-0.824
Y181.25 Z-0.236 I0. J0.824
Y179.602 Z-0.278 I0. J-0.824
Y181.25 Z-0.32 I0. J0.824
Y179.602 Z-0.362 I0. J-0.824
Y181.25 Z-0.404 I0. J0.824
Y179.602 Z-0.447 I0. J-0.824
Y181.25 Z-0.489 I0. J0.824
Y179.602 Z-0.531 I0. J-0.824
Y181.25 Z-0.573 I0. J0.824
Y179.602 Z-0.615 I0. J-0.824
Y181.25 Z-0.657 I0. J0.824
Y179.602 Z-0.699 I0. J-0.824
Y181.25 Z-0.741 I0. J0.824
Y179.602 Z-0.783 I0. J-0.824
Y181.25 Z-0.825 I0. J0.824
Y179.602 Z-0.868 I0. J-0.824
Y181.25 Z-0.91 I0. J0.824
Y179.602 Z-0.952 I0. J-0.824
Y181.25 Z-0.994 I0. J0.824
Y179.602 Z-1.036 I0. J-0.824
Y181.25 Z-1.078 I0. J0.824
Y179.602 Z-1.12 I0. J-0.824
Y181.25 Z-1.162 I0. J0.824
Y179.602 Z-1.204 I0. J-0.824
Y181.25 Z-1.246 I0. J0.824
Y179.602 Z-1.288 I0. J-0.824
Y181.25 Z-1.331 I0. J0.824
Y179.602 Z-1.373 I0. J-0.824
Y181.25 Z-1.415 I0. J0.824
Y179.602 Z-1.457 I0. J-0.824
Y181.25 Z-1.499 I0. J0.824
Y179.602 Z-1.541 I0. J-0.824
Y181.25 Z-1.583 I0. J0.824
Y179.602 Z-1.625 I0. J-0.824
Y181.25 Z-1.667 I0. J0.824
Y179.602 Z-1.709 I0. J-0.824
Y181.25 Z-1.751 I0. J0.824
Y179.602 Z-1.794 I0. J-0.824
Y181.25 Z-1.836 I0. J0.824
Y179.602 Z-1.878 I0. J-0.824
Y181.25 Z-1.92 I0. J0.824
Y179.602 Z-1.962 I0. J-0.824
Y181.25 Z-2.004 I0. J0.824
Y179.602 Z-2.046 I0. J-0.824
Y181.25 Z-2.088 I0. J0.824
Y179.602 Z-2.13 I0. J-0.824
Y181.25 Z-2.172 I0. J0.824
Y179.602 Z-2.215 I0. J-0.824
Y181.25 Z-2.257 I0. J0.824
Y179.602 Z-2.299 I0. J-0.824
Y181.25 Z-2.341 I0. J0.824
Y179.602 Z-2.383 I0. J-0.824
Y181.25 Z-2.425 I0. J0.824
Y179.602 Z-2.467 I0. J-0.824
Y181.25 Z-2.509 I0. J0.824
Y179.602 Z-2.551 I0. J-0.824
Y181.25 Z-2.593 I0. J0.824
Y179.602 Z-2.635 I0. J-0.824
Y181.25 Z-2.678 I0. J0.824
Y179.602 Z-2.72 I0. J-0.824
Y181.25 Z-2.762 I0. J0.824
Y179.602 Z-2.804 I0. J-0.824
Y181.25 Z-2.846 I0. J0.824
Y179.602 Z-2.888 I0. J-0.824
Y181.25 Z-2.93 I0. J0.824
Y179.602 Z-2.972 I0. J-0.824
Y181.25 Z-3.014 I0. J0.824
Y179.602 Z-3.056 I0. J-0.824
Y181.25 Z-3.099 I0. J0.824
Y179.602 Z-3.141 I0. J-0.824
Y181.25 Z-3.183 I0. J0.824
Y179.602 Z-3.225 I0. J-0.824
Y181.25 Z-3.267 I0. J0.824
Y179.602 Z-3.309 I0. J-0.824
Y181.25 Z-3.351 I0. J0.824
Y179.602 Z-3.393 I0. J-0.824
Y181.25 Z-3.435 I0. J0.824
Y179.602 Z-3.477 I0. J-0.824
Y181.25 Z-3.519 I0. J0.824
Y179.602 Z-3.562 I0. J-0.824
Y181.25 Z-3.604 I0. J0.824
Y179.602 Z-3.646 I0. J-0.824
Y181.25 Z-3.688 I0. J0.824
Y179.602 Z-3.73 I0. J-0.824
Y181.25 Z-3.772 I0. J0.824
Y179.602 Z-3.814 I0. J-0.824
Y181.25 Z-3.856 I0. J0.824
Y179.602 Z-3.898 I0. J-0.824
Y181.25 Z-3.94 I0. J0.824
Y179.602 Z-3.982 I0. J-0.824
Y181.25 Z-4.025 I0. J0.824
Y179.602 Z-4.067 I0. J-0.824
Y181.25 Z-4.109 I0. J0.824
Y179.602 Z-4.151 I0. J-0.824
Y181.25 Z-4.193 I0. J0.824
Y179.602 Z-4.235 I0. J-0.824
Y181.25 Z-4.277 I0. J0.824
Y179.602 Z-4.319 I0. J-0.824
Y181.25 Z-4.361 I0. J0.824
Y179.602 Z-4.403 I0. J-0.824
Y181.25 Z-4.446 I0. J0.824
Y179.602 Z-4.488 I0. J-0.824
Y181.25 Z-4.53 I0. J0.824
Y179.602 Z-4.572 I0. J-0.824
Y181.25 Z-4.614 I0. J0.824
Y179.602 Z-4.656 I0. J-0.824
Y181.25 Z-4.698 I0. J0.824
Y179.602 Z-4.74 I0. J-0.824
Y181.25 Z-4.782 I0. J0.824
Y179.602 Z-4.824 I0. J-0.824
Y181.25 Z-4.866 I0. J0.824
Y179.602 Z-4.909 I0. J-0.824
Y181.25 Z-4.951 I0. J0.824
Y179.602 Z-4.993 I0. J-0.824
Y181.25 Z-5.035 I0. J0.824
Y179.602 Z-5.077 I0. J-0.824
Y181.25 Z-5.119 I0. J0.824
Y179.602 Z-5.161 I0. J-0.824
X37.084 Y180.007 Z-5.175 I0. J0.824
X38.502 Y180.846 I0.709 J0.42
X37.084 Y180.007 I-0.709 J-0.42
X37.195 Y180.441 I0.273 J0.162
G1 X37.332 Y180.522
X37.393 Y180.558 Z-5.167
X37.451 Y180.592 Z-5.144
X37.502 Y180.623 Z-5.106
X37.546 Y180.649 Z-5.055
X37.578 Y180.668 Z-4.995
X37.598 Y180.68 Z-4.928
X37.605 Y180.684 Z-4.858
G0 Z15.
M5
G0 Z15
G0 X0 Y0

M9
M30
