(1001)
(T1  D=6.35 CR=0. - ZMIN=-4.675 - FLAT END MILL)
G90 G94 G91.1 G40 G49 G17
G21
G0 Z15

(2D CONTOUR1)
M5
T1 M6
S15000 M3
G54
M8
G0 X99.235 Y-1.99
G43 Z16. H1
Z6.
G1 Z4.135 F1600.
X99.228 Y-1.987 Z4.036
X99.208 Y-1.976 Z3.939
X99.174 Y-1.959 Z3.847
X99.127 Y-1.935 Z3.762
X99.069 Y-1.906 Z3.686
X99.002 Y-1.872 Z3.621
X98.926 Y-1.833 Z3.569
X98.844 Y-1.792 Z3.531
X98.758 Y-1.748 Z3.508
X98.669 Y-1.703 Z3.5
X98.103 Y-1.416
G2 X97.823 Y-0.562 I0.287 J0.566
G3 X99.665 Y7.144 Z3.36 I-15.199 J7.706
G1 Y224.631 Z-0.436
G3 X82.624 Y241.672 Z-0.903 I-17.041 J0.
G1 X2.043 Z-2.31
G3 X-14.999 Y224.631 Z-2.777 I0. J-17.041
G1 Y115.887 Z-4.675
Y7.144
G3 X2.043 Y-9.898 I17.041 J0.
G1 X82.624
G3 X99.665 Y7.144 I0. J17.041
G1 Y224.631
G3 X82.624 Y241.672 I-17.041 J0.
G1 X2.043
G3 X-14.999 Y224.631 I0. J-17.041
G1 Y115.887
G3 X-14.652 Y115.367 I0.564 J0.
G2 X-14.305 Y114.847 I-0.217 J-0.52
G1 Y7.144
G3 X2.043 Y-9.204 I16.348 J0.
G1 X82.624
G3 X98.972 Y7.144 I0. J16.347
G1 Y224.631
G3 X82.624 Y240.979 I-16.348 J0.
G1 X2.043
G3 X-14.305 Y224.631 I0. J-16.348
G1 Y114.847
G3 X-13.958 Y114.326 I0.564 J0.
G2 X-13.611 Y113.806 I-0.217 J-0.52
G1 Y7.144
G3 X2.043 Y-8.51 I15.654 J0.
G1 X82.624
G3 X98.278 Y7.144 I0. J15.654
G1 Y224.631
G3 X82.624 Y240.285 I-15.654 J0.
G1 X2.043
G3 X-13.611 Y224.631 I0. J-15.654
G1 Y113.806
G3 X-13.264 Y113.286 I0.564 J0.
G2 X-12.917 Y112.766 I-0.217 J-0.52
G1 Y7.144
G3 X2.043 Y-7.816 I14.96 J0.
G1 X82.624
G3 X97.584 Y7.144 I0. J14.96
G1 Y224.631
G3 X82.624 Y239.591 I-14.96 J0.
G1 X2.043
G3 X-12.917 Y224.631 I0. J-14.96
G1 Y112.766
G3 X-12.571 Y112.245 I0.564 J0.
G2 X-12.224 Y111.725 I-0.217 J-0.52
G1 Y7.144
G3 X2.043 Y-7.122 I14.266 J0.
G1 X82.624
G3 X96.89 Y7.144 I0. J14.266
G1 Y224.631
G3 X82.624 Y238.897 I-14.266 J0.
G1 X2.043
G3 X-12.224 Y224.631 I0. J-14.266
G1 Y111.725
G3 X-11.877 Y111.205 I0.564 J0.
G2 X-11.53 Y110.684 I-0.217 J-0.52
G1 Y7.144
G3 X2.043 Y-6.429 I13.572 J0.
G1 X82.624
G3 X96.197 Y7.144 I0. J13.573
G1 Y224.631
G3 X82.624 Y238.204 I-13.573 J0.
G1 X2.043
G3 X-11.53 Y224.631 I0. J-13.573
G1 Y110.684
G3 X-11.183 Y110.164 I0.564 J0.
G2 X-10.836 Y109.644 I-0.217 J-0.52
G1 Y7.144
G3 X2.043 Y-5.735 I12.879 J0.
G1 X82.624
G3 X95.503 Y7.144 I0. J12.879
G1 Y224.631
G3 X82.624 Y237.51 I-12.879 J0.
G1 X2.043
G3 X-10.836 Y224.631 I0. J-12.879
G1 Y109.644
G3 X-10.489 Y109.123 I0.564 J0.
G2 X-10.142 Y108.603 I-0.217 J-0.52
G1 Y7.144
G3 X2.043 Y-5.041 I12.185 J0.
G1 X82.624
G3 X94.809 Y7.144 I0. J12.185
G1 Y224.631
G3 X82.624 Y236.816 I-12.185 J0.
G1 X2.043
G3 X-10.142 Y224.631 I0. J-12.185
G1 Y108.603
G3 X-9.796 Y108.083 I0.564 J0.
G2 X-9.449 Y107.562 I-0.217 J-0.52
G1 Y7.144
G3 X2.043 Y-4.347 I11.491 J0.
G1 X82.624
G3 X94.115 Y7.144 I0. J11.491
G1 Y224.631
G3 X82.624 Y236.122 I-11.491 J0.
G1 X2.043
G3 X-9.449 Y224.631 I0. J-11.491
G1 Y107.562
G3 X-9.102 Y107.042 I0.564 J0.
G2 X-8.755 Y106.522 I-0.217 J-0.52
G1 Y7.144
G3 X2.043 Y-3.654 I10.797 J0.
G1 X82.624
G3 X93.422 Y7.144 I0. J10.798
G1 Y224.631
G3 X82.624 Y235.428 I-10.798 J0.
G1 X2.043
G3 X-8.755 Y224.631 I0. J-10.798
G1 Y106.522
G3 X-8.408 Y106.001 I0.564 J0.
G2 X-8.061 Y105.481 I-0.217 J-0.52
G1 Y7.144
G3 X2.043 Y-2.96 I10.104 J0.
G1 X82.624
G3 X92.728 Y7.144 I0. J10.104
G1 Y224.631
G3 X82.624 Y234.735 I-10.104 J0.
G1 X2.043
G3 X-8.061 Y224.631 I0. J-10.104
G1 Y105.481
G3 X-7.714 Y104.961 I0.564 J0.
G2 X-7.367 Y104.44 I-0.217 J-0.52
G1 Y7.144
G3 X2.043 Y-2.266 I9.41 J0.
G1 X82.624
G3 X92.034 Y7.144 I0. J9.41
G1 Y224.631
G3 X82.624 Y234.041 I-9.41 J0.
G1 X2.043
G3 X-7.367 Y224.631 I0. J-9.41
G1 Y104.44
G3 X-7.021 Y103.92 I0.564 J0.
G2 X-6.674 Y103.4 I-0.217 J-0.52
G1 Y7.144
G3 X2.043 Y-1.572 I8.716 J0.
G1 X82.624
G3 X91.34 Y7.144 I0. J8.716
G1 Y224.631
G3 X82.624 Y233.347 I-8.716 J0.
G1 X2.043
G3 X-6.674 Y224.631 I0. J-8.716
G1 Y103.4
G3 X-6.327 Y102.88 I0.564 J0.
G2 X-5.98 Y102.359 I-0.217 J-0.52
G1 Y7.144
G3 X2.043 Y-0.879 I8.022 J0.
G1 X82.624
G3 X90.647 Y7.144 I0. J8.023
G1 Y224.631
G3 X82.624 Y232.654 I-8.022 J0.
G1 X2.043
G3 X-5.98 Y224.631 I0. J-8.023
G1 Y102.359
G3 X-5.633 Y101.839 I0.564 J0.
G2 X-5.286 Y101.319 I-0.217 J-0.52
G1 Y7.144
G3 X2.043 Y-0.185 I7.329 J0.
G1 X82.624
G3 X89.953 Y7.144 I0. J7.329
G1 Y224.631
G3 X82.624 Y231.96 I-7.329 J0.
G1 X2.043
G3 X-5.286 Y224.631 I0. J-7.329
G1 Y101.319
G3 X-4.939 Y100.798 I0.564 J0.
G2 X-4.592 Y100.278 I-0.217 J-0.52
G1 Y7.144
G3 X2.043 Y0.509 I6.635 J0.
G1 X82.624
G3 X89.259 Y7.144 I0. J6.635
G1 Y224.631
G3 X82.624 Y231.266 I-6.635 J0.
G1 X2.043
G3 X-4.592 Y224.631 I0. J-6.635
G1 Y100.278
G3 X-4.246 Y99.758 I0.564 J0.
G2 X-3.899 Y99.237 I-0.217 J-0.52
G1 Y7.144
G3 X2.043 Y1.202 I5.941 J0.
G1 X82.624
G3 X88.565 Y7.144 I0. J5.941
G1 Y224.631
G3 X82.624 Y230.572 I-5.941 J0.
G1 X2.043
G3 X-3.899 Y224.631 I0. J-5.941
G1 Y99.237
G3 X-3.552 Y98.717 I0.564 J0.
G2 X-3.205 Y98.197 I-0.217 J-0.52
G1 Y7.144
G3 X2.043 Y1.896 I5.247 J0.
G1 X82.624
G3 X87.872 Y7.144 I0. J5.248
G1 Y224.631
G3 X82.624 Y229.878 I-5.247 J0.
G1 X2.043
G3 X-3.205 Y224.631 I0. J-5.247
G1 Y98.197
G3 X-2.858 Y97.676 I0.564 J0.
G2 X-2.511 Y97.156 I-0.217 J-0.52
G1 Y7.144
G3 X2.043 Y2.59 I4.554 J0.
G1 X82.624
G3 X87.178 Y7.144 I0. J4.554
G1 Y224.631
G3 X82.624 Y229.185 I-4.554 J0.
G1 X2.043
G3 X-2.511 Y224.631 I0. J-4.554
G1 Y97.156
G3 X-2.139 Y96.598 I0.604 J0.
G2 X-1.767 Y96.04 I-0.232 J-0.558
G1 Y7.144
G3 X2.043 Y3.334 I3.81 J0.
G1 X82.624
G3 X86.434 Y7.144 I0. J3.81
G1 Y224.631
G3 X82.624 Y228.441 I-3.81 J0.
G1 X2.043
G3 X-1.767 Y224.631 I0. J-3.81
G1 Y96.04
G3 X-1.45 Y95.564 I0.516 J0.
G2 X-1.132 Y95.088 I-0.198 J-0.476
G1 Y7.144
G3 X2.043 Y3.969 I3.175 J0.
G1 X82.624
G3 X85.799 Y7.144 I0. J3.175
G1 Y224.631
G3 X82.624 Y227.806 I-3.175 J0.
G1 X2.043
G3 X-1.132 Y224.631 I0. J-3.175
G1 Y95.088
G2 X-1.767 Y94.453 I-0.635 J0.
G1 X-2.402
G18 G3 X-3.037 Z-4.04 I0. K0.635
G0 Z16.
G17
M5
G0 Z15
G0 X0 Y0

M9
M30
