(1001)
(T1  D=6.35 CR=0. - ZMIN=-4.675 - FLAT END MILL)
G90 G94 G91.1 G40 G49 G17
G21
G0 Z15

(2D CONTOUR1)
M5
T1 M6
S15000 M3
G54
M8
G0 X74.607 Y-6.253
G43 Z16. H1
Z6.
G1 Z4.135 F1600.
G19 G3 Y-5.617 Z3.5 J0.635 K0.
G1 Y-4.983
G17 G2 X75.242 Y-4.347 I0.635 J0.
G1 X82.624 Z3.371
G3 X94.115 Y7.144 Z3.056 I0. J11.491
G1 Y224.631 Z-0.74
G3 X82.624 Y236.122 Z-1.055 I-11.491 J0.
G1 X2.043 Z-2.462
G3 X-9.449 Y224.631 Z-2.777 I0. J-11.491
G1 Y115.887 Z-4.675
Y7.144
G3 X2.043 Y-4.347 I11.491 J0.
G1 X82.624
G3 X94.115 Y7.144 I0. J11.491
G1 Y224.631
G3 X82.624 Y236.122 I-11.491 J0.
G1 X2.043
G3 X-9.449 Y224.631 I0. J-11.491
G1 Y115.887
G3 X-9.102 Y115.367 I0.564 J0.
G2 X-8.755 Y114.847 I-0.217 J-0.52
G1 Y7.144
G3 X2.043 Y-3.654 I10.797 J0.
G1 X82.624
G3 X93.422 Y7.144 I0. J10.798
G1 Y224.631
G3 X82.624 Y235.428 I-10.798 J0.
G1 X2.043
G3 X-8.755 Y224.631 I0. J-10.798
G1 Y114.847
G3 X-8.408 Y114.326 I0.564 J0.
G2 X-8.061 Y113.806 I-0.217 J-0.52
G1 Y7.144
G3 X2.043 Y-2.96 I10.104 J0.
G1 X82.624
G3 X92.728 Y7.144 I0. J10.104
G1 Y224.631
G3 X82.624 Y234.735 I-10.104 J0.
G1 X2.043
G3 X-8.061 Y224.631 I0. J-10.104
G1 Y113.806
G3 X-7.714 Y113.286 I0.564 J0.
G2 X-7.367 Y112.766 I-0.217 J-0.52
G1 Y7.144
G3 X2.043 Y-2.266 I9.41 J0.
G1 X82.624
G3 X92.034 Y7.144 I0. J9.41
G1 Y224.631
G3 X82.624 Y234.041 I-9.41 J0.
G1 X2.043
G3 X-7.367 Y224.631 I0. J-9.41
G1 Y112.766
G3 X-7.021 Y112.245 I0.564 J0.
G2 X-6.674 Y111.725 I-0.217 J-0.52
G1 Y7.144
G3 X2.043 Y-1.572 I8.716 J0.
G1 X82.624
G3 X91.34 Y7.144 I0. J8.716
G1 Y224.631
G3 X82.624 Y233.347 I-8.716 J0.
G1 X2.043
G3 X-6.674 Y224.631 I0. J-8.716
G1 Y111.725
G3 X-6.327 Y111.205 I0.564 J0.
G2 X-5.98 Y110.684 I-0.217 J-0.52
G1 Y7.144
G3 X2.043 Y-0.879 I8.022 J0.
G1 X82.624
G3 X90.647 Y7.144 I0. J8.023
G1 Y224.631
G3 X82.624 Y232.654 I-8.022 J0.
G1 X2.043
G3 X-5.98 Y224.631 I0. J-8.023
G1 Y110.684
G3 X-5.633 Y110.164 I0.564 J0.
G2 X-5.286 Y109.644 I-0.217 J-0.52
G1 Y7.144
G3 X2.043 Y-0.185 I7.329 J0.
G1 X82.624
G3 X89.953 Y7.144 I0. J7.329
G1 Y224.631
G3 X82.624 Y231.96 I-7.329 J0.
G1 X2.043
G3 X-5.286 Y224.631 I0. J-7.329
G1 Y109.644
G3 X-4.939 Y109.123 I0.564 J0.
G2 X-4.592 Y108.603 I-0.217 J-0.52
G1 Y7.144
G3 X2.043 Y0.509 I6.635 J0.
G1 X82.624
G3 X89.259 Y7.144 I0. J6.635
G1 Y224.631
G3 X82.624 Y231.266 I-6.635 J0.
G1 X2.043
G3 X-4.592 Y224.631 I0. J-6.635
G1 Y108.603
G3 X-4.246 Y108.083 I0.564 J0.
G2 X-3.899 Y107.562 I-0.217 J-0.52
G1 Y7.144
G3 X2.043 Y1.202 I5.941 J0.
G1 X82.624
G3 X88.565 Y7.144 I0. J5.941
G1 Y224.631
G3 X82.624 Y230.572 I-5.941 J0.
G1 X2.043
G3 X-3.899 Y224.631 I0. J-5.941
G1 Y107.562
G3 X-3.552 Y107.042 I0.564 J0.
G2 X-3.205 Y106.522 I-0.217 J-0.52
G1 Y7.144
G3 X2.043 Y1.896 I5.247 J0.
G1 X82.624
G3 X87.872 Y7.144 I0. J5.248
G1 Y224.631
G3 X82.624 Y229.878 I-5.247 J0.
G1 X2.043
G3 X-3.205 Y224.631 I0. J-5.247
G1 Y106.522
G3 X-2.858 Y106.001 I0.564 J0.
G2 X-2.511 Y105.481 I-0.217 J-0.52
G1 Y7.144
G3 X2.043 Y2.59 I4.554 J0.
G1 X82.624
G3 X87.178 Y7.144 I0. J4.554
G1 Y224.631
G3 X82.624 Y229.185 I-4.554 J0.
G1 X2.043
G3 X-2.511 Y224.631 I0. J-4.554
G1 Y105.481
G3 X-2.139 Y104.923 I0.604 J0.
G2 X-1.767 Y104.366 I-0.232 J-0.558
G1 Y7.144
G3 X2.043 Y3.334 I3.81 J0.
G1 X82.624
G3 X86.434 Y7.144 I0. J3.81
G1 Y224.631
G3 X82.624 Y228.441 I-3.81 J0.
G1 X2.043
G3 X-1.767 Y224.631 I0. J-3.81
G1 Y104.366
G3 X-1.45 Y103.889 I0.516 J0.
G2 X-1.132 Y103.413 I-0.198 J-0.476
G1 Y7.144
G3 X2.043 Y3.969 I3.175 J0.
G1 X82.624
G3 X85.799 Y7.144 I0. J3.175
G1 Y224.631
G3 X82.624 Y227.806 I-3.175 J0.
G1 X2.043
G3 X-1.132 Y224.631 I0. J-3.175
G1 Y103.413
G2 X-1.767 Y102.778 I-0.635 J0.
G1 X-2.402
G18 G3 X-3.037 Z-4.04 I0. K0.635
G0 Z16.
G17
M5
G0 Z15
G0 X0 Y0

M9
M30
