(BOTTOM CENTER PLATE 0.25 HOLES )
(T1  D=6.35 CR=0. - ZMIN=-5.175 - FLAT END MILL)
G90 G94 G91.1 G40 G49 G17
G21
G0 Z45

(BORE1 2)
M5
T1 M6
S15000 M3
G54
M8
G0 X150.033 Y78.208
G43 Z15. H1
Z3.865
G1 Z2.5 F1600.
X149.715
G2 X149.517 Y78.407 I0. J0.198
X150.311 Z2.438 I0.397 J0.
X149.517 Z2.375 I-0.397 J0.
X150.311 Z2.313 I0.397 J0.
X149.517 Z2.251 I-0.397 J0.
X150.311 Z2.188 I0.397 J0.
X149.517 Z2.126 I-0.397 J0.
X150.311 Z2.064 I0.397 J0.
X149.517 Z2.001 I-0.397 J0.
X150.311 Z1.939 I0.397 J0.
X149.517 Z1.877 I-0.397 J0.
X150.311 Z1.814 I0.397 J0.
X149.517 Z1.752 I-0.397 J0.
X150.311 Z1.689 I0.397 J0.
X149.517 Z1.627 I-0.397 J0.
X150.311 Z1.565 I0.397 J0.
X149.517 Z1.502 I-0.397 J0.
X150.311 Z1.44 I0.397 J0.
X149.517 Z1.378 I-0.397 J0.
X150.311 Z1.315 I0.397 J0.
X149.517 Z1.253 I-0.397 J0.
X150.311 Z1.191 I0.397 J0.
X149.517 Z1.128 I-0.397 J0.
X150.311 Z1.066 I0.397 J0.
X149.517 Z1.004 I-0.397 J0.
X150.311 Z0.941 I0.397 J0.
X149.517 Z0.879 I-0.397 J0.
X150.311 Z0.817 I0.397 J0.
X149.517 Z0.754 I-0.397 J0.
X150.311 Z0.692 I0.397 J0.
X149.517 Z0.63 I-0.397 J0.
X150.311 Z0.567 I0.397 J0.
X149.517 Z0.505 I-0.397 J0.
X150.311 Z0.443 I0.397 J0.
X149.517 Z0.38 I-0.397 J0.
X150.311 Z0.318 I0.397 J0.
X149.517 Z0.255 I-0.397 J0.
X150.311 Z0.193 I0.397 J0.
X149.517 Z0.131 I-0.397 J0.
X150.311 Z0.068 I0.397 J0.
X149.517 Z0.006 I-0.397 J0.
X150.311 Z-0.056 I0.397 J0.
X149.517 Z-0.119 I-0.397 J0.
X150.311 Z-0.181 I0.397 J0.
X149.517 Z-0.243 I-0.397 J0.
X150.311 Z-0.306 I0.397 J0.
X149.517 Z-0.368 I-0.397 J0.
X150.311 Z-0.43 I0.397 J0.
X149.517 Z-0.493 I-0.397 J0.
X150.311 Z-0.555 I0.397 J0.
X149.517 Z-0.617 I-0.397 J0.
X150.311 Z-0.68 I0.397 J0.
X149.517 Z-0.742 I-0.397 J0.
X150.311 Z-0.804 I0.397 J0.
X149.517 Z-0.867 I-0.397 J0.
X150.311 Z-0.929 I0.397 J0.
X149.517 Z-0.991 I-0.397 J0.
X150.311 Z-1.054 I0.397 J0.
X149.517 Z-1.116 I-0.397 J0.
X150.311 Z-1.178 I0.397 J0.
X149.517 Z-1.241 I-0.397 J0.
X150.311 Z-1.303 I0.397 J0.
X149.517 Z-1.366 I-0.397 J0.
X150.311 Z-1.428 I0.397 J0.
X149.517 Z-1.49 I-0.397 J0.
X150.311 Z-1.553 I0.397 J0.
X149.517 Z-1.615 I-0.397 J0.
X150.311 Z-1.677 I0.397 J0.
X149.517 Z-1.74 I-0.397 J0.
X150.311 Z-1.802 I0.397 J0.
X149.517 Z-1.864 I-0.397 J0.
X150.311 Z-1.927 I0.397 J0.
X149.517 Z-1.989 I-0.397 J0.
X150.311 Z-2.051 I0.397 J0.
X149.517 Z-2.114 I-0.397 J0.
X150.311 Z-2.176 I0.397 J0.
X149.517 Z-2.238 I-0.397 J0.
X150.311 Z-2.301 I0.397 J0.
X149.517 Z-2.363 I-0.397 J0.
X150.311 Z-2.425 I0.397 J0.
X149.517 Z-2.488 I-0.397 J0.
X150.311 Z-2.55 I0.397 J0.
X149.517 Z-2.612 I-0.397 J0.
X150.311 Z-2.675 I0.397 J0.
X149.517 Z-2.737 I-0.397 J0.
X150.311 Z-2.8 I0.397 J0.
X149.517 Z-2.862 I-0.397 J0.
X150.311 Z-2.924 I0.397 J0.
X149.517 Z-2.987 I-0.397 J0.
X150.311 Z-3.049 I0.397 J0.
X149.517 Z-3.111 I-0.397 J0.
X150.311 Z-3.174 I0.397 J0.
X149.517 Z-3.236 I-0.397 J0.
X150.311 Z-3.298 I0.397 J0.
X149.517 Z-3.361 I-0.397 J0.
X150.311 Z-3.423 I0.397 J0.
X149.517 Z-3.485 I-0.397 J0.
X150.311 Z-3.548 I0.397 J0.
X149.517 Z-3.61 I-0.397 J0.
X150.311 Z-3.672 I0.397 J0.
X149.517 Z-3.735 I-0.397 J0.
X150.311 Z-3.797 I0.397 J0.
X149.517 Z-3.859 I-0.397 J0.
X150.311 Z-3.922 I0.397 J0.
X149.517 Z-3.984 I-0.397 J0.
X150.311 Z-4.046 I0.397 J0.
X149.517 Z-4.109 I-0.397 J0.
X150.311 Z-4.171 I0.397 J0.
X149.517 Z-4.234 I-0.397 J0.
X150.311 Z-4.296 I0.397 J0.
X149.517 Z-4.358 I-0.397 J0.
X150.311 Z-4.421 I0.397 J0.
X149.517 Z-4.483 I-0.397 J0.
X150.311 Z-4.545 I0.397 J0.
X149.517 Z-4.608 I-0.397 J0.
X150.311 Z-4.67 I0.397 J0.
X149.517 Z-4.732 I-0.397 J0.
X150.311 Z-4.795 I0.397 J0.
X149.517 Z-4.857 I-0.397 J0.
X150.311 Z-4.919 I0.397 J0.
X149.517 Z-4.982 I-0.397 J0.
X150.311 Z-5.044 I0.397 J0.
X149.517 Z-5.106 I-0.397 J0.
X150.311 Z-5.169 I0.397 J0.
X150.291 Y78.283 Z-5.175 I-0.397 J0.
X149.536 Y78.53 I-0.377 J0.124
X150.291 Y78.283 I0.377 J-0.124
X150.04 Y78.156 I-0.189 J0.062
G1 X149.739 Y78.255
G0 Z5.
X101.719 Y43.106
Z3.865
G1 Z2.5 F1600.
X101.402
G2 X101.203 Y43.305 I0. J0.198
X101.997 Z2.438 I0.397 J0.
X101.203 Z2.375 I-0.397 J0.
X101.997 Z2.313 I0.397 J0.
X101.203 Z2.251 I-0.397 J0.
X101.997 Z2.188 I0.397 J0.
X101.203 Z2.126 I-0.397 J0.
X101.997 Z2.064 I0.397 J0.
X101.203 Z2.001 I-0.397 J0.
X101.997 Z1.939 I0.397 J0.
X101.203 Z1.877 I-0.397 J0.
X101.997 Z1.814 I0.397 J0.
X101.203 Z1.752 I-0.397 J0.
X101.997 Z1.689 I0.397 J0.
X101.203 Z1.627 I-0.397 J0.
X101.997 Z1.565 I0.397 J0.
X101.203 Z1.502 I-0.397 J0.
X101.997 Z1.44 I0.397 J0.
X101.203 Z1.378 I-0.397 J0.
X101.997 Z1.315 I0.397 J0.
X101.203 Z1.253 I-0.397 J0.
X101.997 Z1.191 I0.397 J0.
X101.203 Z1.128 I-0.397 J0.
X101.997 Z1.066 I0.397 J0.
X101.203 Z1.004 I-0.397 J0.
X101.997 Z0.941 I0.397 J0.
X101.203 Z0.879 I-0.397 J0.
X101.997 Z0.817 I0.397 J0.
X101.203 Z0.754 I-0.397 J0.
X101.997 Z0.692 I0.397 J0.
X101.203 Z0.63 I-0.397 J0.
X101.997 Z0.567 I0.397 J0.
X101.203 Z0.505 I-0.397 J0.
X101.997 Z0.443 I0.397 J0.
X101.203 Z0.38 I-0.397 J0.
X101.997 Z0.318 I0.397 J0.
X101.203 Z0.255 I-0.397 J0.
X101.997 Z0.193 I0.397 J0.
X101.203 Z0.131 I-0.397 J0.
X101.997 Z0.068 I0.397 J0.
X101.203 Z0.006 I-0.397 J0.
X101.997 Z-0.056 I0.397 J0.
X101.203 Z-0.119 I-0.397 J0.
X101.997 Z-0.181 I0.397 J0.
X101.203 Z-0.243 I-0.397 J0.
X101.997 Z-0.306 I0.397 J0.
X101.203 Z-0.368 I-0.397 J0.
X101.997 Z-0.43 I0.397 J0.
X101.203 Z-0.493 I-0.397 J0.
X101.997 Z-0.555 I0.397 J0.
X101.203 Z-0.617 I-0.397 J0.
X101.997 Z-0.68 I0.397 J0.
X101.203 Z-0.742 I-0.397 J0.
X101.997 Z-0.804 I0.397 J0.
X101.203 Z-0.867 I-0.397 J0.
X101.997 Z-0.929 I0.397 J0.
X101.203 Z-0.991 I-0.397 J0.
X101.997 Z-1.054 I0.397 J0.
X101.203 Z-1.116 I-0.397 J0.
X101.997 Z-1.178 I0.397 J0.
X101.203 Z-1.241 I-0.397 J0.
X101.997 Z-1.303 I0.397 J0.
X101.203 Z-1.366 I-0.397 J0.
X101.997 Z-1.428 I0.397 J0.
X101.203 Z-1.49 I-0.397 J0.
X101.997 Z-1.553 I0.397 J0.
X101.203 Z-1.615 I-0.397 J0.
X101.997 Z-1.677 I0.397 J0.
X101.203 Z-1.74 I-0.397 J0.
X101.997 Z-1.802 I0.397 J0.
X101.203 Z-1.864 I-0.397 J0.
X101.997 Z-1.927 I0.397 J0.
X101.203 Z-1.989 I-0.397 J0.
X101.997 Z-2.051 I0.397 J0.
X101.203 Z-2.114 I-0.397 J0.
X101.997 Z-2.176 I0.397 J0.
X101.203 Z-2.238 I-0.397 J0.
X101.997 Z-2.301 I0.397 J0.
X101.203 Z-2.363 I-0.397 J0.
X101.997 Z-2.425 I0.397 J0.
X101.203 Z-2.488 I-0.397 J0.
X101.997 Z-2.55 I0.397 J0.
X101.203 Z-2.612 I-0.397 J0.
X101.997 Z-2.675 I0.397 J0.
X101.203 Z-2.737 I-0.397 J0.
X101.997 Z-2.8 I0.397 J0.
X101.203 Z-2.862 I-0.397 J0.
X101.997 Z-2.924 I0.397 J0.
X101.203 Z-2.987 I-0.397 J0.
X101.997 Z-3.049 I0.397 J0.
X101.203 Z-3.111 I-0.397 J0.
X101.997 Z-3.174 I0.397 J0.
X101.203 Z-3.236 I-0.397 J0.
X101.997 Z-3.298 I0.397 J0.
X101.203 Z-3.361 I-0.397 J0.
X101.997 Z-3.423 I0.397 J0.
X101.203 Z-3.485 I-0.397 J0.
X101.997 Z-3.548 I0.397 J0.
X101.203 Z-3.61 I-0.397 J0.
X101.997 Z-3.672 I0.397 J0.
X101.203 Z-3.735 I-0.397 J0.
X101.997 Z-3.797 I0.397 J0.
X101.203 Z-3.859 I-0.397 J0.
X101.997 Z-3.922 I0.397 J0.
X101.203 Z-3.984 I-0.397 J0.
X101.997 Z-4.046 I0.397 J0.
X101.203 Z-4.109 I-0.397 J0.
X101.997 Z-4.171 I0.397 J0.
X101.203 Z-4.234 I-0.397 J0.
X101.997 Z-4.296 I0.397 J0.
X101.203 Z-4.358 I-0.397 J0.
X101.997 Z-4.421 I0.397 J0.
X101.203 Z-4.483 I-0.397 J0.
X101.997 Z-4.545 I0.397 J0.
X101.203 Z-4.608 I-0.397 J0.
X101.997 Z-4.67 I0.397 J0.
X101.203 Z-4.732 I-0.397 J0.
X101.997 Z-4.795 I0.397 J0.
X101.203 Z-4.857 I-0.397 J0.
X101.997 Z-4.919 I0.397 J0.
X101.203 Z-4.982 I-0.397 J0.
X101.997 Z-5.044 I0.397 J0.
X101.203 Z-5.106 I-0.397 J0.
X101.997 Z-5.169 I0.397 J0.
X101.977 Y43.181 Z-5.175 I-0.397 J0.
X101.223 Y43.428 I-0.377 J0.124
X101.977 Y43.181 I0.377 J-0.124
X101.727 Y43.055 I-0.189 J0.062
G1 X101.425 Y43.153
G0 Z5.
X53.405 Y78.208
Z3.865
G1 Z2.5 F1600.
X53.088
G2 X52.889 Y78.407 I0. J0.198
X53.683 Z2.438 I0.397 J0.
X52.889 Z2.375 I-0.397 J0.
X53.683 Z2.313 I0.397 J0.
X52.889 Z2.251 I-0.397 J0.
X53.683 Z2.188 I0.397 J0.
X52.889 Z2.126 I-0.397 J0.
X53.683 Z2.064 I0.397 J0.
X52.889 Z2.001 I-0.397 J0.
X53.683 Z1.939 I0.397 J0.
X52.889 Z1.877 I-0.397 J0.
X53.683 Z1.814 I0.397 J0.
X52.889 Z1.752 I-0.397 J0.
X53.683 Z1.689 I0.397 J0.
X52.889 Z1.627 I-0.397 J0.
X53.683 Z1.565 I0.397 J0.
X52.889 Z1.502 I-0.397 J0.
X53.683 Z1.44 I0.397 J0.
X52.889 Z1.378 I-0.397 J0.
X53.683 Z1.315 I0.397 J0.
X52.889 Z1.253 I-0.397 J0.
X53.683 Z1.191 I0.397 J0.
X52.889 Z1.128 I-0.397 J0.
X53.683 Z1.066 I0.397 J0.
X52.889 Z1.004 I-0.397 J0.
X53.683 Z0.941 I0.397 J0.
X52.889 Z0.879 I-0.397 J0.
X53.683 Z0.817 I0.397 J0.
X52.889 Z0.754 I-0.397 J0.
X53.683 Z0.692 I0.397 J0.
X52.889 Z0.63 I-0.397 J0.
X53.683 Z0.567 I0.397 J0.
X52.889 Z0.505 I-0.397 J0.
X53.683 Z0.443 I0.397 J0.
X52.889 Z0.38 I-0.397 J0.
X53.683 Z0.318 I0.397 J0.
X52.889 Z0.255 I-0.397 J0.
X53.683 Z0.193 I0.397 J0.
X52.889 Z0.131 I-0.397 J0.
X53.683 Z0.068 I0.397 J0.
X52.889 Z0.006 I-0.397 J0.
X53.683 Z-0.056 I0.397 J0.
X52.889 Z-0.119 I-0.397 J0.
X53.683 Z-0.181 I0.397 J0.
X52.889 Z-0.243 I-0.397 J0.
X53.683 Z-0.306 I0.397 J0.
X52.889 Z-0.368 I-0.397 J0.
X53.683 Z-0.43 I0.397 J0.
X52.889 Z-0.493 I-0.397 J0.
X53.683 Z-0.555 I0.397 J0.
X52.889 Z-0.617 I-0.397 J0.
X53.683 Z-0.68 I0.397 J0.
X52.889 Z-0.742 I-0.397 J0.
X53.683 Z-0.804 I0.397 J0.
X52.889 Z-0.867 I-0.397 J0.
X53.683 Z-0.929 I0.397 J0.
X52.889 Z-0.991 I-0.397 J0.
X53.683 Z-1.054 I0.397 J0.
X52.889 Z-1.116 I-0.397 J0.
X53.683 Z-1.178 I0.397 J0.
X52.889 Z-1.241 I-0.397 J0.
X53.683 Z-1.303 I0.397 J0.
X52.889 Z-1.366 I-0.397 J0.
X53.683 Z-1.428 I0.397 J0.
X52.889 Z-1.49 I-0.397 J0.
X53.683 Z-1.553 I0.397 J0.
X52.889 Z-1.615 I-0.397 J0.
X53.683 Z-1.677 I0.397 J0.
X52.889 Z-1.74 I-0.397 J0.
X53.683 Z-1.802 I0.397 J0.
X52.889 Z-1.864 I-0.397 J0.
X53.683 Z-1.927 I0.397 J0.
X52.889 Z-1.989 I-0.397 J0.
X53.683 Z-2.051 I0.397 J0.
X52.889 Z-2.114 I-0.397 J0.
X53.683 Z-2.176 I0.397 J0.
X52.889 Z-2.238 I-0.397 J0.
X53.683 Z-2.301 I0.397 J0.
X52.889 Z-2.363 I-0.397 J0.
X53.683 Z-2.425 I0.397 J0.
X52.889 Z-2.488 I-0.397 J0.
X53.683 Z-2.55 I0.397 J0.
X52.889 Z-2.612 I-0.397 J0.
X53.683 Z-2.675 I0.397 J0.
X52.889 Z-2.737 I-0.397 J0.
X53.683 Z-2.8 I0.397 J0.
X52.889 Z-2.862 I-0.397 J0.
X53.683 Z-2.924 I0.397 J0.
X52.889 Z-2.987 I-0.397 J0.
X53.683 Z-3.049 I0.397 J0.
X52.889 Z-3.111 I-0.397 J0.
X53.683 Z-3.174 I0.397 J0.
X52.889 Z-3.236 I-0.397 J0.
X53.683 Z-3.298 I0.397 J0.
X52.889 Z-3.361 I-0.397 J0.
X53.683 Z-3.423 I0.397 J0.
X52.889 Z-3.485 I-0.397 J0.
X53.683 Z-3.548 I0.397 J0.
X52.889 Z-3.61 I-0.397 J0.
X53.683 Z-3.672 I0.397 J0.
X52.889 Z-3.735 I-0.397 J0.
X53.683 Z-3.797 I0.397 J0.
X52.889 Z-3.859 I-0.397 J0.
X53.683 Z-3.922 I0.397 J0.
X52.889 Z-3.984 I-0.397 J0.
X53.683 Z-4.046 I0.397 J0.
X52.889 Z-4.109 I-0.397 J0.
X53.683 Z-4.171 I0.397 J0.
X52.889 Z-4.234 I-0.397 J0.
X53.683 Z-4.296 I0.397 J0.
X52.889 Z-4.358 I-0.397 J0.
X53.683 Z-4.421 I0.397 J0.
X52.889 Z-4.483 I-0.397 J0.
X53.683 Z-4.545 I0.397 J0.
X52.889 Z-4.608 I-0.397 J0.
X53.683 Z-4.67 I0.397 J0.
X52.889 Z-4.732 I-0.397 J0.
X53.683 Z-4.795 I0.397 J0.
X52.889 Z-4.857 I-0.397 J0.
X53.683 Z-4.919 I0.397 J0.
X52.889 Z-4.982 I-0.397 J0.
X53.683 Z-5.044 I0.397 J0.
X52.889 Z-5.106 I-0.397 J0.
X53.683 Z-5.169 I0.397 J0.
X53.663 Y78.283 Z-5.175 I-0.397 J0.
X52.909 Y78.53 I-0.377 J0.124
X53.663 Y78.283 I0.377 J-0.124
X53.413 Y78.156 I-0.189 J0.062
G1 X53.111 Y78.255
G0 Z5.
X71.86 Y135.004
Z3.865
G1 Z2.5 F1600.
X71.542
G2 X71.344 Y135.203 I0. J0.198
X72.137 Z2.438 I0.397 J0.
X71.344 Z2.375 I-0.397 J0.
X72.137 Z2.313 I0.397 J0.
X71.344 Z2.251 I-0.397 J0.
X72.137 Z2.188 I0.397 J0.
X71.344 Z2.126 I-0.397 J0.
X72.137 Z2.064 I0.397 J0.
X71.344 Z2.001 I-0.397 J0.
X72.137 Z1.939 I0.397 J0.
X71.344 Z1.877 I-0.397 J0.
X72.137 Z1.814 I0.397 J0.
X71.344 Z1.752 I-0.397 J0.
X72.137 Z1.689 I0.397 J0.
X71.344 Z1.627 I-0.397 J0.
X72.137 Z1.565 I0.397 J0.
X71.344 Z1.502 I-0.397 J0.
X72.137 Z1.44 I0.397 J0.
X71.344 Z1.378 I-0.397 J0.
X72.137 Z1.315 I0.397 J0.
X71.344 Z1.253 I-0.397 J0.
X72.137 Z1.191 I0.397 J0.
X71.344 Z1.128 I-0.397 J0.
X72.137 Z1.066 I0.397 J0.
X71.344 Z1.004 I-0.397 J0.
X72.137 Z0.941 I0.397 J0.
X71.344 Z0.879 I-0.397 J0.
X72.137 Z0.817 I0.397 J0.
X71.344 Z0.754 I-0.397 J0.
X72.137 Z0.692 I0.397 J0.
X71.344 Z0.63 I-0.397 J0.
X72.137 Z0.567 I0.397 J0.
X71.344 Z0.505 I-0.397 J0.
X72.137 Z0.443 I0.397 J0.
X71.344 Z0.38 I-0.397 J0.
X72.137 Z0.318 I0.397 J0.
X71.344 Z0.255 I-0.397 J0.
X72.137 Z0.193 I0.397 J0.
X71.344 Z0.131 I-0.397 J0.
X72.137 Z0.068 I0.397 J0.
X71.344 Z0.006 I-0.397 J0.
X72.137 Z-0.056 I0.397 J0.
X71.344 Z-0.119 I-0.397 J0.
X72.137 Z-0.181 I0.397 J0.
X71.344 Z-0.243 I-0.397 J0.
X72.137 Z-0.306 I0.397 J0.
X71.344 Z-0.368 I-0.397 J0.
X72.137 Z-0.43 I0.397 J0.
X71.344 Z-0.493 I-0.397 J0.
X72.137 Z-0.555 I0.397 J0.
X71.344 Z-0.617 I-0.397 J0.
X72.137 Z-0.68 I0.397 J0.
X71.344 Z-0.742 I-0.397 J0.
X72.137 Z-0.804 I0.397 J0.
X71.344 Z-0.867 I-0.397 J0.
X72.137 Z-0.929 I0.397 J0.
X71.344 Z-0.991 I-0.397 J0.
X72.137 Z-1.054 I0.397 J0.
X71.344 Z-1.116 I-0.397 J0.
X72.137 Z-1.178 I0.397 J0.
X71.344 Z-1.241 I-0.397 J0.
X72.137 Z-1.303 I0.397 J0.
X71.344 Z-1.366 I-0.397 J0.
X72.137 Z-1.428 I0.397 J0.
X71.344 Z-1.49 I-0.397 J0.
X72.137 Z-1.553 I0.397 J0.
X71.344 Z-1.615 I-0.397 J0.
X72.137 Z-1.677 I0.397 J0.
X71.344 Z-1.74 I-0.397 J0.
X72.137 Z-1.802 I0.397 J0.
X71.344 Z-1.864 I-0.397 J0.
X72.137 Z-1.927 I0.397 J0.
X71.344 Z-1.989 I-0.397 J0.
X72.137 Z-2.051 I0.397 J0.
X71.344 Z-2.114 I-0.397 J0.
X72.137 Z-2.176 I0.397 J0.
X71.344 Z-2.238 I-0.397 J0.
X72.137 Z-2.301 I0.397 J0.
X71.344 Z-2.363 I-0.397 J0.
X72.137 Z-2.425 I0.397 J0.
X71.344 Z-2.488 I-0.397 J0.
X72.137 Z-2.55 I0.397 J0.
X71.344 Z-2.612 I-0.397 J0.
X72.137 Z-2.675 I0.397 J0.
X71.344 Z-2.737 I-0.397 J0.
X72.137 Z-2.8 I0.397 J0.
X71.344 Z-2.862 I-0.397 J0.
X72.137 Z-2.924 I0.397 J0.
X71.344 Z-2.987 I-0.397 J0.
X72.137 Z-3.049 I0.397 J0.
X71.344 Z-3.111 I-0.397 J0.
X72.137 Z-3.174 I0.397 J0.
X71.344 Z-3.236 I-0.397 J0.
X72.137 Z-3.298 I0.397 J0.
X71.344 Z-3.361 I-0.397 J0.
X72.137 Z-3.423 I0.397 J0.
X71.344 Z-3.485 I-0.397 J0.
X72.137 Z-3.548 I0.397 J0.
X71.344 Z-3.61 I-0.397 J0.
X72.137 Z-3.672 I0.397 J0.
X71.344 Z-3.735 I-0.397 J0.
X72.137 Z-3.797 I0.397 J0.
X71.344 Z-3.859 I-0.397 J0.
X72.137 Z-3.922 I0.397 J0.
X71.344 Z-3.984 I-0.397 J0.
X72.137 Z-4.046 I0.397 J0.
X71.344 Z-4.109 I-0.397 J0.
X72.137 Z-4.171 I0.397 J0.
X71.344 Z-4.234 I-0.397 J0.
X72.137 Z-4.296 I0.397 J0.
X71.344 Z-4.358 I-0.397 J0.
X72.137 Z-4.421 I0.397 J0.
X71.344 Z-4.483 I-0.397 J0.
X72.137 Z-4.545 I0.397 J0.
X71.344 Z-4.608 I-0.397 J0.
X72.137 Z-4.67 I0.397 J0.
X71.344 Z-4.732 I-0.397 J0.
X72.137 Z-4.795 I0.397 J0.
X71.344 Z-4.857 I-0.397 J0.
X72.137 Z-4.919 I0.397 J0.
X71.344 Z-4.982 I-0.397 J0.
X72.137 Z-5.044 I0.397 J0.
X71.344 Z-5.106 I-0.397 J0.
X72.137 Z-5.169 I0.397 J0.
X72.118 Y135.079 Z-5.175 I-0.397 J0.
X71.363 Y135.326 I-0.377 J0.124
X72.118 Y135.079 I0.377 J-0.124
X71.867 Y134.953 I-0.189 J0.062
G1 X71.566 Y135.051
G0 Z5.
X131.579 Y135.004
Z3.865
G1 Z2.5 F1600.
X131.261
G2 X131.063 Y135.203 I0. J0.198
X131.856 Z2.438 I0.397 J0.
X131.063 Z2.375 I-0.397 J0.
X131.856 Z2.313 I0.397 J0.
X131.063 Z2.251 I-0.397 J0.
X131.856 Z2.188 I0.397 J0.
X131.063 Z2.126 I-0.397 J0.
X131.856 Z2.064 I0.397 J0.
X131.063 Z2.001 I-0.397 J0.
X131.856 Z1.939 I0.397 J0.
X131.063 Z1.877 I-0.397 J0.
X131.856 Z1.814 I0.397 J0.
X131.063 Z1.752 I-0.397 J0.
X131.856 Z1.689 I0.397 J0.
X131.063 Z1.627 I-0.397 J0.
X131.856 Z1.565 I0.397 J0.
X131.063 Z1.502 I-0.397 J0.
X131.856 Z1.44 I0.397 J0.
X131.063 Z1.378 I-0.397 J0.
X131.856 Z1.315 I0.397 J0.
X131.063 Z1.253 I-0.397 J0.
X131.856 Z1.191 I0.397 J0.
X131.063 Z1.128 I-0.397 J0.
X131.856 Z1.066 I0.397 J0.
X131.063 Z1.004 I-0.397 J0.
X131.856 Z0.941 I0.397 J0.
X131.063 Z0.879 I-0.397 J0.
X131.856 Z0.817 I0.397 J0.
X131.063 Z0.754 I-0.397 J0.
X131.856 Z0.692 I0.397 J0.
X131.063 Z0.63 I-0.397 J0.
X131.856 Z0.567 I0.397 J0.
X131.063 Z0.505 I-0.397 J0.
X131.856 Z0.443 I0.397 J0.
X131.063 Z0.38 I-0.397 J0.
X131.856 Z0.318 I0.397 J0.
X131.063 Z0.255 I-0.397 J0.
X131.856 Z0.193 I0.397 J0.
X131.063 Z0.131 I-0.397 J0.
X131.856 Z0.068 I0.397 J0.
X131.063 Z0.006 I-0.397 J0.
X131.856 Z-0.056 I0.397 J0.
X131.063 Z-0.119 I-0.397 J0.
X131.856 Z-0.181 I0.397 J0.
X131.063 Z-0.243 I-0.397 J0.
X131.856 Z-0.306 I0.397 J0.
X131.063 Z-0.368 I-0.397 J0.
X131.856 Z-0.43 I0.397 J0.
X131.063 Z-0.493 I-0.397 J0.
X131.856 Z-0.555 I0.397 J0.
X131.063 Z-0.617 I-0.397 J0.
X131.856 Z-0.68 I0.397 J0.
X131.063 Z-0.742 I-0.397 J0.
X131.856 Z-0.804 I0.397 J0.
X131.063 Z-0.867 I-0.397 J0.
X131.856 Z-0.929 I0.397 J0.
X131.063 Z-0.991 I-0.397 J0.
X131.856 Z-1.054 I0.397 J0.
X131.063 Z-1.116 I-0.397 J0.
X131.856 Z-1.178 I0.397 J0.
X131.063 Z-1.241 I-0.397 J0.
X131.856 Z-1.303 I0.397 J0.
X131.063 Z-1.366 I-0.397 J0.
X131.856 Z-1.428 I0.397 J0.
X131.063 Z-1.49 I-0.397 J0.
X131.856 Z-1.553 I0.397 J0.
X131.063 Z-1.615 I-0.397 J0.
X131.856 Z-1.677 I0.397 J0.
X131.063 Z-1.74 I-0.397 J0.
X131.856 Z-1.802 I0.397 J0.
X131.063 Z-1.864 I-0.397 J0.
X131.856 Z-1.927 I0.397 J0.
X131.063 Z-1.989 I-0.397 J0.
X131.856 Z-2.051 I0.397 J0.
X131.063 Z-2.114 I-0.397 J0.
X131.856 Z-2.176 I0.397 J0.
X131.063 Z-2.238 I-0.397 J0.
X131.856 Z-2.301 I0.397 J0.
X131.063 Z-2.363 I-0.397 J0.
X131.856 Z-2.425 I0.397 J0.
X131.063 Z-2.488 I-0.397 J0.
X131.856 Z-2.55 I0.397 J0.
X131.063 Z-2.612 I-0.397 J0.
X131.856 Z-2.675 I0.397 J0.
X131.063 Z-2.737 I-0.397 J0.
X131.856 Z-2.8 I0.397 J0.
X131.063 Z-2.862 I-0.397 J0.
X131.856 Z-2.924 I0.397 J0.
X131.063 Z-2.987 I-0.397 J0.
X131.856 Z-3.049 I0.397 J0.
X131.063 Z-3.111 I-0.397 J0.
X131.856 Z-3.174 I0.397 J0.
X131.063 Z-3.236 I-0.397 J0.
X131.856 Z-3.298 I0.397 J0.
X131.063 Z-3.361 I-0.397 J0.
X131.856 Z-3.423 I0.397 J0.
X131.063 Z-3.485 I-0.397 J0.
X131.856 Z-3.548 I0.397 J0.
X131.063 Z-3.61 I-0.397 J0.
X131.856 Z-3.672 I0.397 J0.
X131.063 Z-3.735 I-0.397 J0.
X131.856 Z-3.797 I0.397 J0.
X131.063 Z-3.859 I-0.397 J0.
X131.856 Z-3.922 I0.397 J0.
X131.063 Z-3.984 I-0.397 J0.
X131.856 Z-4.046 I0.397 J0.
X131.063 Z-4.109 I-0.397 J0.
X131.856 Z-4.171 I0.397 J0.
X131.063 Z-4.234 I-0.397 J0.
X131.856 Z-4.296 I0.397 J0.
X131.063 Z-4.358 I-0.397 J0.
X131.856 Z-4.421 I0.397 J0.
X131.063 Z-4.483 I-0.397 J0.
X131.856 Z-4.545 I0.397 J0.
X131.063 Z-4.608 I-0.397 J0.
X131.856 Z-4.67 I0.397 J0.
X131.063 Z-4.732 I-0.397 J0.
X131.856 Z-4.795 I0.397 J0.
X131.063 Z-4.857 I-0.397 J0.
X131.856 Z-4.919 I0.397 J0.
X131.063 Z-4.982 I-0.397 J0.
X131.856 Z-5.044 I0.397 J0.
X131.063 Z-5.106 I-0.397 J0.
X131.856 Z-5.169 I0.397 J0.
X131.837 Y135.079 Z-5.175 I-0.397 J0.
X131.082 Y135.326 I-0.377 J0.124
X131.837 Y135.079 I0.377 J-0.124
X131.586 Y134.953 I-0.189 J0.062
G1 X131.285 Y135.051
G0 Z15.

(BORE1 3)
G0 X101.402 Y93.47
Z15.
Z4.5
G1 Z3.135 F1600.
G18 G3 X100.767 Z2.5 I-0.635 K0.
G1 X100.449
G17 G2 X99.814 Y94.105 I0. J0.635
X103.386 Z2.413 I1.786 J0.
X99.814 Z2.327 I-1.786 J0.
X103.386 Z2.24 I1.786 J0.
X99.814 Z2.154 I-1.786 J0.
X103.386 Z2.067 I1.786 J0.
X99.814 Z1.98 I-1.786 J0.
X103.386 Z1.894 I1.786 J0.
X99.814 Z1.807 I-1.786 J0.
X103.386 Z1.721 I1.786 J0.
X99.814 Z1.634 I-1.786 J0.
X103.386 Z1.547 I1.786 J0.
X99.814 Z1.461 I-1.786 J0.
X103.386 Z1.374 I1.786 J0.
X99.814 Z1.288 I-1.786 J0.
X103.386 Z1.201 I1.786 J0.
X99.814 Z1.115 I-1.786 J0.
X103.386 Z1.028 I1.786 J0.
X99.814 Z0.941 I-1.786 J0.
X103.386 Z0.855 I1.786 J0.
X99.814 Z0.768 I-1.786 J0.
X103.386 Z0.682 I1.786 J0.
X99.814 Z0.595 I-1.786 J0.
X103.386 Z0.508 I1.786 J0.
X99.814 Z0.422 I-1.786 J0.
X103.386 Z0.335 I1.786 J0.
X99.814 Z0.249 I-1.786 J0.
X103.386 Z0.162 I1.786 J0.
X99.814 Z0.075 I-1.786 J0.
X103.386 Z-0.011 I1.786 J0.
X99.814 Z-0.098 I-1.786 J0.
X103.386 Z-0.184 I1.786 J0.
X99.814 Z-0.271 I-1.786 J0.
X103.386 Z-0.358 I1.786 J0.
X99.814 Z-0.444 I-1.786 J0.
X103.386 Z-0.531 I1.786 J0.
X99.814 Z-0.617 I-1.786 J0.
X103.386 Z-0.704 I1.786 J0.
X99.814 Z-0.791 I-1.786 J0.
X103.386 Z-0.877 I1.786 J0.
X99.814 Z-0.964 I-1.786 J0.
X103.386 Z-1.05 I1.786 J0.
X99.814 Z-1.137 I-1.786 J0.
X103.386 Z-1.224 I1.786 J0.
X99.814 Z-1.31 I-1.786 J0.
X103.386 Z-1.397 I1.786 J0.
X99.814 Z-1.483 I-1.786 J0.
X103.386 Z-1.57 I1.786 J0.
X99.814 Z-1.656 I-1.786 J0.
X103.386 Z-1.743 I1.786 J0.
X99.814 Z-1.83 I-1.786 J0.
X103.386 Z-1.916 I1.786 J0.
X99.814 Z-2.003 I-1.786 J0.
X103.386 Z-2.089 I1.786 J0.
X99.814 Z-2.176 I-1.786 J0.
X103.386 Z-2.263 I1.786 J0.
X99.814 Z-2.349 I-1.786 J0.
X103.386 Z-2.436 I1.786 J0.
X99.814 Z-2.522 I-1.786 J0.
X103.386 Z-2.609 I1.786 J0.
X99.814 Z-2.696 I-1.786 J0.
X103.386 Z-2.782 I1.786 J0.
X99.814 Z-2.869 I-1.786 J0.
X103.386 Z-2.955 I1.786 J0.
X99.814 Z-3.042 I-1.786 J0.
X103.386 Z-3.129 I1.786 J0.
X99.814 Z-3.215 I-1.786 J0.
X103.386 Z-3.302 I1.786 J0.
X99.814 Z-3.388 I-1.786 J0.
X103.386 Z-3.475 I1.786 J0.
X99.814 Z-3.562 I-1.786 J0.
X103.386 Z-3.648 I1.786 J0.
X99.814 Z-3.735 I-1.786 J0.
X103.386 Z-3.821 I1.786 J0.
X99.814 Z-3.908 I-1.786 J0.
X103.386 Z-3.995 I1.786 J0.
X99.814 Z-4.081 I-1.786 J0.
X103.386 Z-4.168 I1.786 J0.
X99.814 Z-4.254 I-1.786 J0.
X103.386 Z-4.341 I1.786 J0.
X99.814 Z-4.427 I-1.786 J0.
X103.386 Z-4.514 I1.786 J0.
X99.814 Z-4.601 I-1.786 J0.
X103.386 Z-4.687 I1.786 J0.
X99.814 Z-4.774 I-1.786 J0.
X103.386 Z-4.86 I1.786 J0.
X99.814 Z-4.947 I-1.786 J0.
X103.386 Z-5.034 I1.786 J0.
X99.814 Z-5.12 I-1.786 J0.
X102.322 Y95.738 Z-5.175 I1.786 J0.
X100.878 Y92.471 I-0.722 J-1.633
X102.322 Y95.738 I0.722 J1.633
X102.646 Y94.901 I-0.257 J-0.581
G1 X102.518 Y94.61
X102.478 Y94.519 Z-5.167
X102.438 Y94.431 Z-5.144
X102.401 Y94.347 Z-5.106
X102.367 Y94.269 Z-5.054
X102.336 Y94.2 Z-4.989
X102.31 Y94.14 Z-4.913
X102.289 Y94.093 Z-4.828
X102.274 Y94.058 Z-4.736
X102.264 Y94.037 Z-4.639
X102.261 Y94.03 Z-4.54
G0 Z5.
X98.227 Y93.47
Z4.5
G1 Z3.135 F1600.
G18 G3 X97.592 Z2.5 I-0.635 K0.
G1 X97.274
G17 G2 X96.639 Y94.105 I0. J0.635
X106.561 Z2.358 I4.961 J0.
X96.639 Z2.216 I-4.961 J0.
X106.561 Z2.074 I4.961 J0.
X96.639 Z1.932 I-4.961 J0.
X106.561 Z1.79 I4.961 J0.
X96.639 Z1.648 I-4.961 J0.
X106.561 Z1.506 I4.961 J0.
X96.639 Z1.364 I-4.961 J0.
X106.561 Z1.222 I4.961 J0.
X96.639 Z1.08 I-4.961 J0.
X106.561 Z0.938 I4.961 J0.
X96.639 Z0.796 I-4.961 J0.
X106.561 Z0.654 I4.961 J0.
X96.639 Z0.512 I-4.961 J0.
X106.561 Z0.37 I4.961 J0.
X96.639 Z0.228 I-4.961 J0.
X106.561 Z0.086 I4.961 J0.
X96.639 Z-0.056 I-4.961 J0.
X106.561 Z-0.198 I4.961 J0.
X96.639 Z-0.34 I-4.961 J0.
X106.561 Z-0.482 I4.961 J0.
X96.639 Z-0.624 I-4.961 J0.
X106.561 Z-0.766 I4.961 J0.
X96.639 Z-0.908 I-4.961 J0.
X106.561 Z-1.05 I4.961 J0.
X96.639 Z-1.192 I-4.961 J0.
X106.561 Z-1.334 I4.961 J0.
X96.639 Z-1.476 I-4.961 J0.
X106.561 Z-1.618 I4.961 J0.
X96.639 Z-1.76 I-4.961 J0.
X106.561 Z-1.902 I4.961 J0.
X96.639 Z-2.044 I-4.961 J0.
X106.561 Z-2.186 I4.961 J0.
X96.639 Z-2.328 I-4.961 J0.
X106.561 Z-2.47 I4.961 J0.
X96.639 Z-2.612 I-4.961 J0.
X106.561 Z-2.754 I4.961 J0.
X96.639 Z-2.897 I-4.961 J0.
X106.561 Z-3.039 I4.961 J0.
X96.639 Z-3.181 I-4.961 J0.
X106.561 Z-3.323 I4.961 J0.
X96.639 Z-3.465 I-4.961 J0.
X106.561 Z-3.607 I4.961 J0.
X96.639 Z-3.749 I-4.961 J0.
X106.561 Z-3.891 I4.961 J0.
X96.639 Z-4.033 I-4.961 J0.
X106.561 Z-4.175 I4.961 J0.
X96.639 Z-4.317 I-4.961 J0.
X106.561 Z-4.459 I4.961 J0.
X96.639 Z-4.601 I-4.961 J0.
X106.561 Z-4.743 I4.961 J0.
X96.639 Z-4.885 I-4.961 J0.
X106.561 Z-5.027 I4.961 J0.
X101.256 Y89.156 Z-5.101 I-4.961 J0.
X96.687 Y94.792 Z-5.175 I0.344 J4.949
X106.513 Y93.418 I4.913 J-0.687
X96.687 Y94.792 I-4.913 J0.687
X97.404 Y95.333 I0.629 J-0.088
G1 X97.718 Y95.289
X97.817 Y95.275 Z-5.167
X97.912 Y95.262 Z-5.144
X98.004 Y95.249 Z-5.106
X98.088 Y95.237 Z-5.054
X98.163 Y95.227 Z-4.989
X98.227 Y95.218 Z-4.913
X98.278 Y95.211 Z-4.828
X98.316 Y95.205 Z-4.736
X98.339 Y95.202 Z-4.639
X98.347 Y95.201 Z-4.54
G0 Z5.
X95.052 Y93.47
Z4.5
G1 Z3.135 F1600.
G18 G3 X94.417 Z2.5 I-0.635 K0.
G1 X94.099
G17 G2 X93.464 Y94.105 I0. J0.635
X109.736 Z2.303 I8.136 J0.
X93.464 Z2.105 I-8.136 J0.
X109.736 Z1.908 I8.136 J0.
X93.464 Z1.71 I-8.136 J0.
X109.736 Z1.513 I8.136 J0.
X93.464 Z1.315 I-8.136 J0.
X109.736 Z1.118 I8.136 J0.
X93.464 Z0.921 I-8.136 J0.
X109.736 Z0.723 I8.136 J0.
X93.464 Z0.526 I-8.136 J0.
X109.736 Z0.328 I8.136 J0.
X93.464 Z0.131 I-8.136 J0.
X109.736 Z-0.067 I8.136 J0.
X93.464 Z-0.264 I-8.136 J0.
X109.736 Z-0.461 I8.136 J0.
X93.464 Z-0.659 I-8.136 J0.
X109.736 Z-0.856 I8.136 J0.
X93.464 Z-1.054 I-8.136 J0.
X109.736 Z-1.251 I8.136 J0.
X93.464 Z-1.449 I-8.136 J0.
X109.736 Z-1.646 I8.136 J0.
X93.464 Z-1.844 I-8.136 J0.
X109.736 Z-2.041 I8.136 J0.
X93.464 Z-2.238 I-8.136 J0.
X109.736 Z-2.436 I8.136 J0.
X93.464 Z-2.633 I-8.136 J0.
X109.736 Z-2.831 I8.136 J0.
X93.464 Z-3.028 I-8.136 J0.
X109.736 Z-3.226 I8.136 J0.
X93.464 Z-3.423 I-8.136 J0.
X109.736 Z-3.62 I8.136 J0.
X93.464 Z-3.818 I-8.136 J0.
X109.736 Z-4.015 I8.136 J0.
X93.464 Z-4.213 I-8.136 J0.
X109.736 Z-4.41 I8.136 J0.
X93.464 Z-4.608 I-8.136 J0.
X109.736 Z-4.805 I8.136 J0.
X93.464 Z-5.002 I-8.136 J0.
X109.106 Y97.244 Z-5.175 I8.136 J0.
X94.094 Y90.966 I-7.506 J-3.139
X109.106 Y97.244 I7.506 J3.139
X108.765 Y96.413 I-0.586 J-0.245
G1 X108.472 Y96.291
X108.381 Y96.252 Z-5.167
X108.291 Y96.215 Z-5.144
X108.206 Y96.179 Z-5.106
X108.128 Y96.147 Z-5.054
X108.058 Y96.117 Z-4.989
X107.998 Y96.092 Z-4.913
X107.95 Y96.072 Z-4.828
X107.915 Y96.058 Z-4.736
X107.894 Y96.049 Z-4.639
X107.886 Y96.046 Z-4.54
G0 Z5.
X91.877 Y93.47
Z4.5
G1 Z3.135 F1600.
G18 G3 X91.242 Z2.5 I-0.635 K0.
G1 X90.924
G17 G2 X90.289 Y94.105 I0. J0.635
X112.911 Z2.247 I11.311 J0.
X90.289 Z1.994 I-11.311 J0.
X112.911 Z1.741 I11.311 J0.
X90.289 Z1.489 I-11.311 J0.
X112.911 Z1.236 I11.311 J0.
X90.289 Z0.983 I-11.311 J0.
X112.911 Z0.73 I11.311 J0.
X90.289 Z0.477 I-11.311 J0.
X112.911 Z0.224 I11.311 J0.
X90.289 Z-0.029 I-11.311 J0.
X112.911 Z-0.281 I11.311 J0.
X90.289 Z-0.534 I-11.311 J0.
X112.911 Z-0.787 I11.311 J0.
X90.289 Z-1.04 I-11.311 J0.
X112.911 Z-1.293 I11.311 J0.
X90.289 Z-1.546 I-11.311 J0.
X112.911 Z-1.799 I11.311 J0.
X90.289 Z-2.051 I-11.311 J0.
X112.911 Z-2.304 I11.311 J0.
X90.289 Z-2.557 I-11.311 J0.
X112.911 Z-2.81 I11.311 J0.
X90.289 Z-3.063 I-11.311 J0.
X112.911 Z-3.316 I11.311 J0.
X90.289 Z-3.568 I-11.311 J0.
X112.911 Z-3.821 I11.311 J0.
X90.289 Z-4.074 I-11.311 J0.
X112.911 Z-4.327 I11.311 J0.
X90.289 Z-4.58 I-11.311 J0.
X112.911 Z-4.833 I11.311 J0.
X90.289 Z-5.086 I-11.311 J0.
X96.579 Y104.241 Z-5.175 I11.311 J0.
X106.621 Y83.969 I5.021 J-10.136
X96.579 Y104.241 I-5.021 J10.136
X97.43 Y103.953 I0.282 J-0.569
G1 X97.571 Y103.669
X97.615 Y103.58 Z-5.167
X97.658 Y103.493 Z-5.144
X97.699 Y103.411 Z-5.106
X97.737 Y103.334 Z-5.054
X97.771 Y103.266 Z-4.989
X97.799 Y103.208 Z-4.913
X97.822 Y103.162 Z-4.828
X97.839 Y103.128 Z-4.736
X97.85 Y103.107 Z-4.639
X97.853 Y103.1 Z-4.54
G0 Z15.
M5
G0 Z45
G0 X0 Y0

M9
M30
