(X8 UPPER ARM HOLES)
(T1  D=0.25 CR=0. - ZMIN=-0.25 - FLAT END MILL)
G90 G94 G91.1 G40 G49 G17
G20

(2D POCKET1)
M5
T1 M6
S15000 M3
G54
M8
G0 X3.8761 Y5.8254
G43 Z0.6 H1
Z0.2
G1 Z0.125 F60.
X3.8757 Y5.8243 Z0.1174 F13.3
X3.8749 Y5.821 Z0.1106
X3.8736 Y5.8158 Z0.1051
X3.8724 Y5.8092 Z0.1014
X3.8715 Y5.8018 Z0.1
G3 X4.1081 Y5.781 Z0.087 I0.1183 J-0.0104
X3.8715 Y5.8018 Z0.0739 I-0.1183 J0.0104
X4.1081 Y5.781 Z0.0609 I0.1183 J-0.0104
X3.8715 Y5.8018 Z0.0479 I-0.1183 J0.0104
X4.1081 Y5.781 Z0.0349 I0.1183 J-0.0104
X3.8715 Y5.8018 Z0.0218 I-0.1183 J0.0104
X4.1081 Y5.781 Z0.0088 I0.1183 J-0.0104
X3.8715 Y5.8018 Z-0.0042 I-0.1183 J0.0104
X4.1081 Y5.781 Z-0.0172 I0.1183 J-0.0104
X3.8715 Y5.8018 Z-0.0303 I-0.1183 J0.0104
X4.1081 Y5.781 Z-0.0433 I0.1183 J-0.0104
X3.8715 Y5.8018 Z-0.0563 I-0.1183 J0.0104
X4.1081 Y5.781 Z-0.0694 I0.1183 J-0.0104
X3.8715 Y5.8018 Z-0.0824 I-0.1183 J0.0104
X4.1081 Y5.781 Z-0.0954 I0.1183 J-0.0104
X3.8715 Y5.8018 Z-0.1084 I-0.1183 J0.0104
X4.1081 Y5.781 Z-0.1215 I0.1183 J-0.0104
X3.8715 Y5.8018 Z-0.1345 I-0.1183 J0.0104
X4.1081 Y5.781 Z-0.1475 I0.1183 J-0.0104
X3.8715 Y5.8018 Z-0.1606 I-0.1183 J0.0104
X4.1081 Y5.781 Z-0.1736 I0.1183 J-0.0104
X3.8715 Y5.8018 Z-0.1866 I-0.1183 J0.0104
X3.9846 Y5.6727 Z-0.1933 I0.1183 J-0.0104
X4.1086 Y5.7914 Z-0.2 I0.0052 J0.1186
X3.891 I-0.1088 J0.
X4.1115 I0.1103 J0. F60.
X3.6535 I-0.229 J0.
X4.1115 I0.229 J0.
G1 X4.1114 Y5.7933
X4.1109 Y5.7951
X4.0945 Y5.8469
X4.0935 Y5.8492
G3 X3.8861 Y5.7335 Z-0.213 I-0.1037 J-0.0579 F13.3
X4.0935 Y5.8492 Z-0.2261 I0.1037 J0.0579
X3.8861 Y5.7335 Z-0.2391 I-0.1037 J-0.0579
X4.1086 Y5.7914 Z-0.25 I0.1037 J0.0579
X3.891 I-0.1088 J0.
X4.1115 I0.1103 J0. F60.
X3.6535 I-0.229 J0.
X4.1115 I0.229 J0.
G1 X4.1112 Y5.7952 Z-0.2494
X4.1103 Y5.799 Z-0.2488
X4.109 Y5.8022 Z-0.247
X4.1073 Y5.8052 Z-0.2452
X4.1057 Y5.8075 Z-0.2425
X4.1038 Y5.8095 Z-0.2397
X4.101 Y5.8117 Z-0.2327
X4.1 Y5.8124 Z-0.225
G0 Z0.2
X1.8283 Y9.8022
G1 Z0.125 F60.
X1.8287 Y9.8033 Z0.1174 F13.3
X1.8296 Y9.8066 Z0.1106
X1.8308 Y9.8118 Z0.1051
X1.832 Y9.8184 Z0.1014
X1.8329 Y9.8258 Z0.1
G3 X1.5963 Y9.8466 Z0.087 I-0.1183 J0.0104
X1.8329 Y9.8258 Z0.0739 I0.1183 J-0.0104
X1.5963 Y9.8466 Z0.0609 I-0.1183 J0.0104
X1.8329 Y9.8258 Z0.0479 I0.1183 J-0.0104
X1.5963 Y9.8466 Z0.0349 I-0.1183 J0.0104
X1.8329 Y9.8258 Z0.0218 I0.1183 J-0.0104
X1.5963 Y9.8466 Z0.0088 I-0.1183 J0.0104
X1.8329 Y9.8258 Z-0.0042 I0.1183 J-0.0104
X1.5963 Y9.8466 Z-0.0172 I-0.1183 J0.0104
X1.8329 Y9.8258 Z-0.0303 I0.1183 J-0.0104
X1.5963 Y9.8466 Z-0.0433 I-0.1183 J0.0104
X1.8329 Y9.8258 Z-0.0563 I0.1183 J-0.0104
X1.5963 Y9.8466 Z-0.0694 I-0.1183 J0.0104
X1.8329 Y9.8258 Z-0.0824 I0.1183 J-0.0104
X1.5963 Y9.8466 Z-0.0954 I-0.1183 J0.0104
X1.8329 Y9.8258 Z-0.1084 I0.1183 J-0.0104
X1.5963 Y9.8466 Z-0.1215 I-0.1183 J0.0104
X1.8329 Y9.8258 Z-0.1345 I0.1183 J-0.0104
X1.5963 Y9.8466 Z-0.1475 I-0.1183 J0.0104
X1.8329 Y9.8258 Z-0.1606 I0.1183 J-0.0104
X1.5963 Y9.8466 Z-0.1736 I-0.1183 J0.0104
X1.8329 Y9.8258 Z-0.1866 I0.1183 J-0.0104
X1.7198 Y9.9549 Z-0.1933 I-0.1183 J0.0104
X1.5958 Y9.8362 Z-0.2 I-0.0052 J-0.1186
X1.7123 I0.0582 J0. F60.
X1.3583 I-0.177 J0.
X1.9498 I0.2957 J0.
X1.1208 I-0.4145 J0.
X1.9498 I0.4145 J0.
X1.9358 Y9.8486 I-0.0125 J0.
G1 X1.7748 Y9.8287
X1.6193 Y9.7967
G3 X1.6109 Y9.7784 I0.0025 J-0.0122
X1.8183 Y9.8941 Z-0.213 I0.1037 J0.0579 F13.3
X1.6109 Y9.7784 Z-0.2261 I-0.1037 J-0.0579
X1.8183 Y9.8941 Z-0.2391 I0.1037 J0.0579
X1.5958 Y9.8362 Z-0.25 I-0.1037 J-0.0579
X1.7123 I0.0582 J0. F60.
X1.3583 I-0.177 J0.
X1.9498 I0.2957 J0.
X1.1208 I-0.4145 J0.
X1.9498 I0.4145 J0.
G1 X1.9495 Y9.8401 Z-0.2494
X1.9486 Y9.8438 Z-0.2488
X1.9473 Y9.8471 Z-0.247
X1.9456 Y9.8501 Z-0.2452
X1.9439 Y9.8523 Z-0.2425
X1.9421 Y9.8543 Z-0.2397
X1.9393 Y9.8566 Z-0.2327
X1.9383 Y9.8573 Z-0.225
G0 Z0.2
X2.8966 Y0.8658
G1 Z0.125 F60.
X2.8969 Y0.8669 Z0.1174 F13.3
X2.8978 Y0.8702 Z0.1106
X2.899 Y0.8754 Z0.1051
X2.9002 Y0.882 Z0.1014
X2.9011 Y0.8895 Z0.1
G3 X2.6645 Y0.9102 Z0.087 I-0.1183 J0.0104
X2.9011 Y0.8895 Z0.0739 I0.1183 J-0.0104
X2.6645 Y0.9102 Z0.0609 I-0.1183 J0.0104
X2.9011 Y0.8895 Z0.0479 I0.1183 J-0.0104
X2.6645 Y0.9102 Z0.0349 I-0.1183 J0.0104
X2.9011 Y0.8895 Z0.0218 I0.1183 J-0.0104
X2.6645 Y0.9102 Z0.0088 I-0.1183 J0.0104
X2.9011 Y0.8895 Z-0.0042 I0.1183 J-0.0104
X2.6645 Y0.9102 Z-0.0172 I-0.1183 J0.0104
X2.9011 Y0.8895 Z-0.0303 I0.1183 J-0.0104
X2.6645 Y0.9102 Z-0.0433 I-0.1183 J0.0104
X2.9011 Y0.8895 Z-0.0563 I0.1183 J-0.0104
X2.6645 Y0.9102 Z-0.0694 I-0.1183 J0.0104
X2.9011 Y0.8895 Z-0.0824 I0.1183 J-0.0104
X2.6645 Y0.9102 Z-0.0954 I-0.1183 J0.0104
X2.9011 Y0.8895 Z-0.1084 I0.1183 J-0.0104
X2.6645 Y0.9102 Z-0.1215 I-0.1183 J0.0104
X2.9011 Y0.8895 Z-0.1345 I0.1183 J-0.0104
X2.6645 Y0.9102 Z-0.1475 I-0.1183 J0.0104
X2.9011 Y0.8895 Z-0.1606 I0.1183 J-0.0104
X2.6645 Y0.9102 Z-0.1736 I-0.1183 J0.0104
X2.9011 Y0.8895 Z-0.1866 I0.1183 J-0.0104
X2.788 Y1.0185 Z-0.1933 I-0.1183 J0.0104
X2.6641 Y0.8999 Z-0.2 I-0.0052 J-0.1186
X2.7806 I0.0582 J0. F60.
X2.4266 I-0.177 J0.
X3.0181 I0.2958 J0.
X2.1891 I-0.4145 J0.
X3.0181 I0.4145 J0.
X3.0041 Y0.9123 I-0.0125 J0.
G1 X2.8431 Y0.8923
X2.6875 Y0.8603
G3 X2.6791 Y0.842 I0.0025 J-0.0122
X2.8865 Y0.9577 Z-0.213 I0.1037 J0.0579 F13.3
X2.6791 Y0.842 Z-0.2261 I-0.1037 J-0.0579
X2.8865 Y0.9577 Z-0.2391 I0.1037 J0.0579
X2.6641 Y0.8999 Z-0.25 I-0.1037 J-0.0579
X2.7806 I0.0582 J0. F60.
X2.4266 I-0.177 J0.
X3.0181 I0.2958 J0.
X2.1891 I-0.4145 J0.
X3.0181 I0.4145 J0.
G1 X3.0178 Y0.9037 Z-0.2494
X3.0169 Y0.9075 Z-0.2488
X3.0156 Y0.9107 Z-0.247
X3.0139 Y0.9137 Z-0.2452
X3.0122 Y0.9159 Z-0.2425
X3.0103 Y0.918 Z-0.2397
X3.0076 Y0.9202 Z-0.2327
X3.0066 Y0.9209 Z-0.225
G0 Z0.6

M9
M30
