(X8 UPPER ARM CONTOUR)
(T1  D=0.25 CR=0. - ZMIN=-0.27 - FLAT END MILL)
G90 G94 G91.1 G40 G49 G17
G20

(2D CONTOUR1)
M5
T1 M6
S15000 M3
G54
M8
G0 X1.6534 Y11.5323
G43 Z0.6 H1
Z0.2
G1 Z-0.175 F13.3
Y11.532 Z-0.1789 F60.
X1.6533 Y11.5311 Z-0.1827
X1.6532 Y11.5296 Z-0.1863
X1.653 Y11.5275 Z-0.1897
X1.6528 Y11.525 Z-0.1927
X1.6525 Y11.522 Z-0.1952
X1.6522 Y11.5187 Z-0.1973
X1.6519 Y11.5151 Z-0.1988
X1.6516 Y11.5113 Z-0.1997
X1.6513 Y11.5074 Z-0.2
X1.6492 Y11.4825
G3 X1.672 Y11.4555 I0.0249 J-0.0021
G2 X2.9397 Y10.6537 I-0.1367 J-1.6192
G1 X3.9223 Y8.9655
G2 X4.399 Y2.7345 I-6.1986 J-3.6079
G1 X3.5557 Y0.5886
G2 X1.7093 Y0.2084 I-1.0471 J0.4114
G1 X0.2007 Y1.7316
G2 X-0.125 Y2.5287 I0.7993 J0.7916
G1 X-0.0897 Y9.8441
G2 X1.672 Y11.4555 I1.625 J-0.0078
G3 X1.699 Y11.4783 I0.0021 J0.0249
G1 X1.7011 Y11.5032
X1.7014 Y11.5071 Z-0.1997
X1.7018 Y11.5109 Z-0.1988
X1.7021 Y11.5145 Z-0.1973
X1.7023 Y11.5178 Z-0.1952
X1.7026 Y11.5208 Z-0.1927
X1.7028 Y11.5233 Z-0.1897
X1.703 Y11.5254 Z-0.1863
X1.7031 Y11.5269 Z-0.1827
X1.7032 Y11.5278 Z-0.1789
Y11.5281 Z-0.175
G0 Z0.2
X1.6534 Y11.5323
G1 Z0. F13.3
Z-0.245
Y11.532 Z-0.2489 F60.
X1.6533 Y11.5311 Z-0.2527
X1.6532 Y11.5296 Z-0.2563
X1.653 Y11.5275 Z-0.2597
X1.6528 Y11.525 Z-0.2627
X1.6525 Y11.522 Z-0.2652
X1.6522 Y11.5187 Z-0.2673
X1.6519 Y11.5151 Z-0.2688
X1.6516 Y11.5113 Z-0.2697
X1.6513 Y11.5074 Z-0.27
X1.6492 Y11.4825
G3 X1.672 Y11.4555 I0.0249 J-0.0021
G2 X2.9397 Y10.6537 I-0.1367 J-1.6192
G1 X3.9223 Y8.9655
G2 X4.399 Y2.7345 I-6.1986 J-3.6079
G1 X3.5557 Y0.5886
G2 X1.7093 Y0.2084 I-1.0471 J0.4114
G1 X0.2007 Y1.7316
G2 X-0.125 Y2.5287 I0.7993 J0.7916
G1 X-0.0897 Y9.8441
G2 X1.672 Y11.4555 I1.625 J-0.0078
G3 X1.699 Y11.4783 I0.0021 J0.0249
G1 X1.7011 Y11.5032
X1.7014 Y11.5071 Z-0.2697
X1.7018 Y11.5109 Z-0.2688
X1.7021 Y11.5145 Z-0.2673
X1.7023 Y11.5178 Z-0.2652
X1.7026 Y11.5208 Z-0.2627
X1.7028 Y11.5233 Z-0.2597
X1.703 Y11.5254 Z-0.2563
X1.7031 Y11.5269 Z-0.2527
X1.7032 Y11.5278 Z-0.2489
Y11.5281 Z-0.245
G0 Z0.6

M9
M30
