(X4 TOP INTAKE PLATE CONTOUR)
(T3  D=0.118 CR=0. - ZMIN=-0.145 - FLAT END MILL)
G90 G94 G91.1 G40 G49 G17
G20

(2D CONTOUR1)
M5
T3 M6
S15000 M3
g4 p5
g0 z.5
G54
M8
G0 X3.1344 Y0.4006
G43 Z0.6 H3
Z0.2
G1 Z0.1118 F20.
G18 G3 X3.1226 Z0.1 I-0.0118 K0. F30.
G1 X3.1108
G17 G3 X3.099 Y0.3888 I0. J-0.0118
G1 Y0.165 Z0.0961 F20.
G2 X2.915 Y-0.019 Z0.091 I-0.184 J0.
G1 X0.165 Z0.043
G2 X-0.019 Y0.165 Z0.038 I0. J0.184
G1 Y0.2214 Z0.037
G2 X0.405 Y1.7751 Z0.0086 I3.059 J0.
G1 X0.821 Y2.4806 Z-0.0057
G2 X1.3025 Y2.7557 Z-0.0159 I0.4815 J-0.2839
G1 X1.54 Z-0.02
X2.2478 F30.
G2 X2.7913 Y2.3273 I0. J-0.559
G1 X2.959 Y1.6297
G2 X3.099 Y0.4477 I-4.919 J-1.182
G1 Y0.165
G2 X2.915 Y-0.019 I-0.184 J0.
G1 X0.165
G2 X-0.019 Y0.165 I0. J0.184
G1 Y0.2214
G2 X0.405 Y1.7751 I3.059 J0.
G1 X0.821 Y2.4806
G2 X1.3025 Y2.7557 I0.4815 J-0.2839
G1 X1.54
X2.2478 Z-0.0324 F20.
G2 X2.6423 Y2.5927 Z-0.04 I0. J-0.559
X2.7913 Y2.3273 I-0.3945 J-0.396 F30.
G1 X2.959 Y1.6297
G2 X3.099 Y0.4477 I-4.919 J-1.182
G1 Y0.165
G2 X2.915 Y-0.019 I-0.184 J0.
G1 X0.165
G2 X-0.019 Y0.165 I0. J0.184
G1 Y0.2214
G2 X0.405 Y1.7751 I3.059 J0.
G1 X0.821 Y2.4806
G2 X1.3025 Y2.7557 I0.4815 J-0.2839
G1 X2.2478
G2 X2.6423 Y2.5927 I0. J-0.559
X2.7913 Y2.3273 Z-0.0454 I-0.3945 J-0.396 F20.
G1 X2.959 Y1.6297 Z-0.0579
G2 X2.9856 Y1.5126 Z-0.06 I-4.919 J-1.182
X3.099 Y0.4477 I-4.9456 J-1.065 F30.
G1 Y0.165
G2 X2.915 Y-0.019 I-0.184 J0.
G1 X0.165
G2 X-0.019 Y0.165 I0. J0.184
G1 Y0.2214
G2 X0.405 Y1.7751 I3.059 J0.
G1 X0.821 Y2.4806
G2 X1.3025 Y2.7557 I0.4815 J-0.2839
G1 X2.2478
G2 X2.7913 Y2.3273 I0. J-0.559
G1 X2.959 Y1.6297
G2 X2.9856 Y1.5126 I-4.919 J-1.182
X3.099 Y0.4477 Z-0.0787 I-4.9456 J-1.065 F20.
G1 Y0.3749 Z-0.08
Y0.165 F30.
G2 X2.915 Y-0.019 I-0.184 J0.
G1 X0.165
G2 X-0.019 Y0.165 I0. J0.184
G1 Y0.2214
G2 X0.405 Y1.7751 I3.059 J0.
G1 X0.821 Y2.4806
G2 X1.3025 Y2.7557 I0.4815 J-0.2839
G1 X2.2478
G2 X2.7913 Y2.3273 I0. J-0.559
G1 X2.959 Y1.6297
G2 X3.099 Y0.4477 I-4.919 J-1.182
G1 Y0.3749
Y0.165 Z-0.0837 F20.
G2 X2.915 Y-0.019 Z-0.0887 I-0.184 J0.
G1 X2.2681 Z-0.1
X0.165 F30.
G2 X-0.019 Y0.165 I0. J0.184
G1 Y0.2214
G2 X0.405 Y1.7751 I3.059 J0.
G1 X0.821 Y2.4806
G2 X1.3025 Y2.7557 I0.4815 J-0.2839
G1 X2.2478
G2 X2.7913 Y2.3273 I0. J-0.559
G1 X2.959 Y1.6297
G2 X3.099 Y0.4477 I-4.919 J-1.182
G1 Y0.165
G2 X2.915 Y-0.019 I-0.184 J0.
G1 X2.2681
X1.1223 Z-0.12 F20.
X0.165 F30.
G2 X-0.019 Y0.165 I0. J0.184
G1 Y0.2214
G2 X0.405 Y1.7751 I3.059 J0.
G1 X0.821 Y2.4806
G2 X1.3025 Y2.7557 I0.4815 J-0.2839
G1 X2.2478
G2 X2.7913 Y2.3273 I0. J-0.559
G1 X2.959 Y1.6297
G2 X3.099 Y0.4477 I-4.919 J-1.182
G1 Y0.165
G2 X2.915 Y-0.019 I-0.184 J0.
G1 X1.1223
X0.4062 Z-0.1325 F20.
X0.165 F30.
G2 X-0.019 Y0.165 I0. J0.184
G1 Y0.2214
G2 X0.405 Y1.7751 I3.059 J0.
G1 X0.821 Y2.4806
G2 X1.3025 Y2.7557 I0.4815 J-0.2839
G1 X2.2478
G2 X2.7913 Y2.3273 I0. J-0.559
G1 X2.959 Y1.6297
G2 X3.099 Y0.4477 I-4.919 J-1.182
G1 Y0.165
G2 X2.915 Y-0.019 I-0.184 J0.
G1 X1.1223
X0.4062
X0.165 Z-0.1367 F20.
G2 X-0.019 Y0.165 Z-0.1418 I0. J0.184
G1 Y0.2214 Z-0.1427
G2 X-0.0163 Y0.3509 Z-0.145 I3.059 J0.
X0.405 Y1.7751 I3.0563 J-0.1295 F30.
G1 X0.821 Y2.4806
G2 X1.3025 Y2.7557 I0.4815 J-0.2839
G1 X2.2478
G2 X2.7913 Y2.3273 I0. J-0.559
G1 X2.959 Y1.6297
G2 X3.099 Y0.4477 I-4.919 J-1.182
G1 Y0.165
G2 X2.915 Y-0.019 I-0.184 J0.
G1 X0.4062
X0.165
G2 X-0.019 Y0.165 I0. J0.184
G1 Y0.2214
G2 X-0.0163 Y0.3509 I3.059 J0.
G3 X-0.0275 Y0.3632 I-0.0118 J0.0005
G1 X-0.0393 Y0.3637
X-0.042 Y0.3638 Z-0.1447
X-0.0445 Y0.3639 Z-0.1438
X-0.0467 Y0.364 Z-0.1424
X-0.0486 Y0.3641 Z-0.1406
X-0.05 Z-0.1383
X-0.0508 Y0.3642 Z-0.1358
X-0.0511 Z-0.1332
G0 Z0.6

M9
M30
