(T1  D=6.35 CR=0. - ZMIN=-13.7 - FLAT END MILL)
G90 G94 G91.1 G40 G49 G17
G21

G0 Z15

(2D CONTOUR13 2)
M5
T1 M6
S15000 M3
G54
G0 X49.076 Y-91.122
G43 Z15.24 H1
Z5.
G1 Z3.135 F600.
G18 G2 X49.711 Z2.5 I0.635 K0.
G1 X50.346 F1600.
X71.691 Z1.755 F600.
X14.288 Z-0.25
X71.691 F16000.
X14.288 Z-0.375 F600.
X71.691 Z-0.5
X14.288 F16000.
X71.691 Z-0.75 F600.
X14.288 F16000.
X71.691 Z-1. F600.
X14.288 F16000.
X71.691 Z-1.25 F600.
X14.288 F16000.
X71.691 Z-1.5 F600.
X14.288 F16000.
X71.691 Z-1.75 F600.
X14.288 F16000.
X71.691 Z-2. F600.
X14.288 F16000.
X71.691 Z-2.25 F600.
X14.288 F16000.
X71.691 Z-2.5 F600.
X14.288 F16000.
X71.691 Z-2.75 F600.
X14.288 F16000.
X71.691 Z-3. F600.
X14.288 F16000.
X71.691 Z-3.25 F600.
X14.288 F16000.
X71.691 Z-3.5 F600.
X14.288 F16000.
X71.691 Z-3.75 F600.
X14.288 F16000.
X71.691 Z-4. F600.
X14.288 F16000.
X71.691 Z-4.25 F600.
X14.288 F16000.
X71.691 Z-4.5 F600.
X14.288 F16000.
X71.691 Z-4.75 F600.
X14.288 F16000.
X71.691 Z-5. F600.
X14.288 F16000.
X71.691 Z-5.25 F600.
X14.288 F16000.
X71.691 Z-5.5 F600.
X14.288 F16000.
X71.691 Z-5.75 F600.
X14.288 F16000.
X71.691 Z-6. F600.
X14.288 F16000.
X71.691 Z-6.25 F600.
X14.288 F16000.
X71.691 Z-6.5 F600.
X14.288 F16000.
X71.691 Z-6.75 F600.
X14.288 F16000.
X71.691 Z-7. F600.
X14.288 F16000.
X71.691 Z-7.25 F600.
X14.288 F16000.
X71.691 Z-7.5 F600.
X14.288 F16000.
X71.691 Z-7.75 F600.
X14.288 F16000.
X71.691 Z-8. F600.
X14.288 F16000.
X71.691 Z-8.25 F600.
X14.288 F16000.
X71.691 Z-8.5 F600.
X14.288 F16000.
X71.691 Z-8.75 F600.
X14.288 F16000.
X71.691 Z-9. F600.
X14.288 F16000.
X71.691 Z-9.25 F600.
X14.288 F16000.
X71.691 Z-9.5 F600.
X14.288 F16000.
X71.691 Z-9.75 F600.
X14.288 F16000.
X71.691 Z-10. F600.
X14.288 F16000.
X71.691 Z-10.25 F600.
X14.288 F16000.
X71.691 Z-10.5 F600.
X14.288 F16000.
X71.691 Z-10.75 F600.
X14.288 F16000.
X71.691 Z-11. F600.
X14.288 F16000.
X71.691 Z-11.25 F600.
X14.288 F16000.
X71.691 Z-11.5 F600.
X14.288 F16000.
X71.691 Z-11.75 F600.
X14.288 F16000.
X71.691 Z-12. F600.
X14.288 F16000.
X71.691 Z-12.25 F600.
X14.288 F16000.
X71.691 Z-12.5 F600.
X14.288 F16000.
X71.691 Z-12.75 F600.
X14.288 F16000.
X71.691 Z-13. F600.
X14.288 F16000.
X71.691 Z-13.25 F600.
X14.288 F16000.
X71.691 Z-13.5 F600.
X14.288 F16000.
X71.691 Z-13.7 F600.
X14.288 F16000.
X13.653 F1600.
G3 X13.017 Z-13.065 I0. K0.635
G0 Z15.24
G17

M5
G0 Z15
G0 X0 Y0

M30
