(T1  D=3.175 CR=0. - ZMIN=-15.24 - FLAT END MILL)
G90 G94 G91.1 G40 G49 G17
G21

G0 Z15

(2D CONTOUR13)
M5
T1 M6
S15000 M3
G54
G0 X73.279 Y-87.303
G43 Z15.24 H1
Z5.
G1 Z2.818 F500.
G19 G2 Y-87.62 Z2.5 J-0.317 K0.
G1 Y-87.938 F800.
Y-90.488 Z2.411 F500.
Y-14.288 Z-0.25
Y-90.488 F800.
Y-14.288 Z-0.5 F500.
Y-90.488 F800.
Y-14.288 Z-0.75 F500.
Y-90.488 F800.
Y-14.288 Z-1. F500.
Y-90.488 F800.
Y-14.288 Z-1.25 F500.
Y-90.488 F800.
Y-14.288 Z-1.5 F500.
Y-90.488 F800.
Y-14.288 Z-1.75 F500.
Y-90.488 F800.
Y-14.288 Z-2. F500.
Y-90.488 F800.
Y-14.288 Z-2.25 F500.
Y-90.488 F800.
Y-14.288 Z-2.5 F500.
Y-90.488 F800.
Y-14.288 Z-2.75 F500.
Y-90.488 F800.
Y-14.288 Z-3. F500.
Y-90.488 F800.
Y-14.288 Z-3.25 F500.
Y-90.488 F800.
Y-14.288 Z-3.5 F500.
Y-90.488 F800.
Y-14.288 Z-3.75 F500.
Y-90.488 F800.
Y-14.288 Z-4. F500.
Y-90.488 F800.
Y-14.288 Z-4.25 F500.
Y-90.488 F800.
Y-14.288 Z-4.5 F500.
Y-90.488 F800.
Y-14.288 Z-4.75 F500.
Y-90.488 F800.
Y-14.288 Z-5. F500.
Y-90.488 F800.
Y-14.288 Z-5.25 F500.
Y-90.488 F800.
Y-14.288 Z-5.5 F500.
Y-90.488 F800.
Y-14.288 Z-5.75 F500.
Y-90.488 F800.
Y-14.288 Z-6. F500.
Y-90.488 F800.
Y-14.288 Z-6.25 F500.
Y-90.488 F800.
Y-14.288 Z-6.5 F500.
Y-90.488 F800.
Y-14.288 Z-6.75 F500.
Y-90.488 F800.
Y-14.288 Z-7. F500.
Y-90.488 F800.
Y-14.288 Z-7.25 F500.
Y-90.488 F800.
Y-14.288 Z-7.5 F500.
Y-90.488 F800.
Y-14.288 Z-7.75 F500.
Y-90.488 F800.
Y-14.288 Z-8. F500.
Y-90.488 F800.
Y-14.288 Z-8.25 F500.
Y-90.488 F800.
Y-14.288 Z-8.5 F500.
Y-90.488 F800.
Y-14.288 Z-8.75 F500.
Y-90.488 F800.
Y-14.288 Z-9. F500.
Y-90.488 F800.
Y-14.288 Z-9.25 F500.
Y-90.488 F800.
Y-14.288 Z-9.5 F500.
Y-90.488 F800.
Y-14.288 Z-9.75 F500.
Y-90.488 F800.
Y-14.288 Z-10. F500.
Y-90.488 F800.
Y-14.288 Z-10.25 F500.
Y-90.488 F800.
Y-14.288 Z-10.5 F500.
Y-90.488 F800.
Y-14.288 Z-10.75 F500.
Y-90.488 F800.
Y-14.288 Z-11. F500.
Y-90.488 F800.
Y-14.288 Z-11.25 F500.
Y-90.488 F800.
Y-14.288 Z-11.5 F500.
Y-90.488 F800.
Y-14.288 Z-11.75 F500.
Y-90.488 F800.
Y-14.288 Z-12. F500.
Y-90.488 F800.
Y-14.288 Z-12.25 F500.
Y-90.488 F800.
Y-14.288 Z-12.5 F500.
Y-90.488 F800.
Y-14.288 Z-12.75 F500.
Y-90.488 F800.
Y-14.288 Z-13. F500.
Y-90.488 F800.
Y-14.288 Z-13.25 F500.
Y-90.488 F800.
Y-14.288 Z-13.5 F500.
Y-90.488 F800.
Y-14.288 Z-13.75 F500.
Y-90.488 F800.
Y-14.288 Z-14. F500.
Y-90.488 F800.
Y-14.288 Z-14.25 F500.
Y-90.488 F800.
Y-14.288 Z-14.5 F500.
Y-90.488 F800.
Y-14.288 Z-14.75 F500.
Y-90.488 F800.
Y-14.288 Z-15. F500.
Y-90.488 F800.
Y-14.288 Z-15.24 F500.
Y-90.488 F800.
Y-90.805
G2 Y-91.122 Z-14.923 J0. K0.318
G0 Z15.24
G17

M5
G0 Z15
G0 X0 Y0


M30
