(TURRET BASE STEP 2)
(T1  D=0.25 CR=0. - ZMIN=-0.145 - FLAT END MILL)
G90 G94 G91.1 G40 G49 G17
G20

(2D CONTOUR1)
M5
T1 M6
S15000 M3
g4 p5
G54
M8
G0 X3.0704 Y11.8914
G43 Z0.6 H1
Z0.2
G1 Z0.125 F13.3
X3.0706 Y11.8911 Z0.1211 F60.
X3.0711 Y11.8904 Z0.1173
X3.0719 Y11.8891 Z0.1137
X3.073 Y11.8874 Z0.1103
X3.0744 Y11.8852 Z0.1073
X3.0761 Y11.8827 Z0.1048
X3.0779 Y11.8799 Z0.1027
X3.0799 Y11.8769 Z0.1012
X3.0819 Y11.8737 Z0.1003
X3.0841 Y11.8704 Z0.1
X3.0977 Y11.8495
G3 X3.1323 Y11.8421 I0.021 J0.0136
G1 X4.3219 Y12.6148 Z0.099
G2 X4.39 Y12.635 Z0.0989 I0.0681 J-0.1048
G1 X5.9028 Z0.0978
G2 X6.6172 Z0.0973 I0.3572 J-6.375
G1 X8.39 Z0.0959
G2 X8.4659 Y12.6093 I0. J-0.125
G1 X10.1352 Y11.3345 Z0.0943
G2 Y1.1855 Z0.0857 I-3.8752 J-5.0745
G1 X8.4659 Y-0.0893 Z0.0841
G2 X8.39 Y-0.115 I-0.0759 J0.0993
G1 X6.6172 Z0.0827
G2 X5.9028 Z0.0822 I-0.3572 J6.375
G1 X4.39 Z0.0811
G2 X4.3219 Y-0.0948 Z0.081 I0. J0.125
G1 X2.782 Y0.9054 Z0.0797
G2 Y11.6146 Z0.0703 I3.478 J5.3546
G1 X4.3219 Y12.6148 Z0.069
G2 X4.39 Y12.635 Z0.0689 I0.0681 J-0.1048
G1 X5.9028 Z0.0678
G2 X6.6172 Z0.0673 I0.3572 J-6.375
G1 X8.39 Z0.0659
G2 X8.4659 Y12.6093 I0. J-0.125
G1 X10.1352 Y11.3345 Z0.0643
G2 Y1.1855 Z0.0557 I-3.8752 J-5.0745
G1 X8.4659 Y-0.0893 Z0.0541
G2 X8.39 Y-0.115 I-0.0759 J0.0993
G1 X6.6172 Z0.0527
G2 X5.9028 Z0.0522 I-0.3572 J6.375
G1 X4.39 Z0.0511
G2 X4.3219 Y-0.0948 Z0.051 I0. J0.125
G1 X2.782 Y0.9054 Z0.0497
G2 Y11.6146 Z0.0403 I3.478 J5.3546
G1 X4.3219 Y12.6148 Z0.039
G2 X4.39 Y12.635 Z0.0389 I0.0681 J-0.1048
G1 X5.9028 Z0.0378
G2 X6.6172 Z0.0373 I0.3572 J-6.375
G1 X8.39 Z0.0359
G2 X8.4659 Y12.6093 I0. J-0.125
G1 X10.1352 Y11.3345 Z0.0343
G2 Y1.1855 Z0.0257 I-3.8752 J-5.0745
G1 X8.4659 Y-0.0893 Z0.0241
G2 X8.39 Y-0.115 I-0.0759 J0.0993
G1 X6.6172 Z0.0227
G2 X5.9028 Z0.0222 I-0.3572 J6.375
G1 X4.39 Z0.0211
G2 X4.3219 Y-0.0948 Z0.021 I0. J0.125
G1 X2.782 Y0.9054 Z0.0197
G2 Y11.6146 Z0.0103 I3.478 J5.3546
G1 X4.3219 Y12.6148 Z0.009
G2 X4.39 Y12.635 Z0.0089 I0.0681 J-0.1048
G1 X5.9028 Z0.0078
G2 X6.6172 Z0.0073 I0.3572 J-6.375
G1 X8.39 Z0.0059
G2 X8.4659 Y12.6093 I0. J-0.125
G1 X10.1352 Y11.3345 Z0.0043
G2 Y1.1855 Z-0.0043 I-3.8752 J-5.0745
G1 X8.4659 Y-0.0893 Z-0.0059
G2 X8.39 Y-0.115 I-0.0759 J0.0993
G1 X6.6172 Z-0.0073
G2 X5.9028 Z-0.0078 I-0.3572 J6.375
G1 X4.39 Z-0.0089
G2 X4.3219 Y-0.0948 Z-0.009 I0. J0.125
G1 X2.782 Y0.9054 Z-0.0103
G2 Y11.6146 Z-0.0197 I3.478 J5.3546
G1 X4.3219 Y12.6148 Z-0.021
G2 X4.39 Y12.635 Z-0.0211 I0.0681 J-0.1048
G1 X5.9028 Z-0.0222
G2 X6.6172 Z-0.0227 I0.3572 J-6.375
G1 X8.39 Z-0.0241
G2 X8.4659 Y12.6093 I0. J-0.125
G1 X10.1352 Y11.3345 Z-0.0257
G2 X12.645 Y6.26 Z-0.03 I-3.8752 J-5.0745
X10.1352 Y1.1855 I-6.385 J0.
G1 X8.4659 Y-0.0893
G2 X8.39 Y-0.115 I-0.0759 J0.0993
G1 X6.6172
G2 X5.9028 I-0.3572 J6.375
G1 X4.39
G2 X4.3219 Y-0.0948 I0. J0.125
G1 X2.782 Y0.9054
G2 Y11.6146 I3.478 J5.3546
G1 X4.3219 Y12.6148
G2 X4.39 Y12.635 I0.0681 J-0.1048
G1 X5.9028
G2 X6.6172 I0.3572 J-6.375
G1 X8.39
G2 X8.4659 Y12.6093 I0. J-0.125
G1 X10.1352 Y11.3345
G2 X12.645 Y6.26 I-3.8752 J-5.0745
X10.1352 Y1.1855 Z-0.0343 I-6.385 J0.
G1 X8.4659 Y-0.0893 Z-0.0359
G2 X8.39 Y-0.115 I-0.0759 J0.0993
G1 X6.6172 Z-0.0373
G2 X5.9028 Z-0.0378 I-0.3572 J6.375
G1 X4.39 Z-0.0389
G2 X4.3219 Y-0.0948 Z-0.039 I0. J0.125
G1 X2.782 Y0.9054 Z-0.0403
G2 Y11.6146 Z-0.0497 I3.478 J5.3546
G1 X4.3219 Y12.6148 Z-0.051
G2 X4.39 Y12.635 Z-0.0511 I0.0681 J-0.1048
G1 X5.9028 Z-0.0522
G2 X6.6172 Z-0.0527 I0.3572 J-6.375
G1 X8.39 Z-0.0541
G2 X8.4659 Y12.6093 I0. J-0.125
G1 X10.1352 Y11.3345 Z-0.0557
G2 X12.645 Y6.26 Z-0.06 I-3.8752 J-5.0745
X10.1352 Y1.1855 I-6.385 J0.
G1 X8.4659 Y-0.0893
G2 X8.39 Y-0.115 I-0.0759 J0.0993
G1 X6.6172
G2 X5.9028 I-0.3572 J6.375
G1 X4.39
G2 X4.3219 Y-0.0948 I0. J0.125
G1 X2.782 Y0.9054
G2 Y11.6146 I3.478 J5.3546
G1 X4.3219 Y12.6148
G2 X4.39 Y12.635 I0.0681 J-0.1048
G1 X5.9028
G2 X6.6172 I0.3572 J-6.375
G1 X8.39
G2 X8.4659 Y12.6093 I0. J-0.125
G1 X10.1352 Y11.3345
G2 X12.645 Y6.26 I-3.8752 J-5.0745
X10.1352 Y1.1855 Z-0.0643 I-6.385 J0.
G1 X8.4659 Y-0.0893 Z-0.0659
G2 X8.39 Y-0.115 I-0.0759 J0.0993
G1 X6.6172 Z-0.0673
G2 X5.9028 Z-0.0678 I-0.3572 J6.375
G1 X4.39 Z-0.0689
G2 X4.3219 Y-0.0948 Z-0.069 I0. J0.125
G1 X2.782 Y0.9054 Z-0.0703
G2 Y11.6146 Z-0.0797 I3.478 J5.3546
G1 X4.3219 Y12.6148 Z-0.081
G2 X4.39 Y12.635 Z-0.0811 I0.0681 J-0.1048
G1 X5.9028 Z-0.0822
G2 X6.6172 Z-0.0827 I0.3572 J-6.375
G1 X8.39 Z-0.0841
G2 X8.4659 Y12.6093 I0. J-0.125
G1 X10.1352 Y11.3345 Z-0.0857
G2 X12.645 Y6.26 Z-0.09 I-3.8752 J-5.0745
X10.1352 Y1.1855 I-6.385 J0.
G1 X8.4659 Y-0.0893
G2 X8.39 Y-0.115 I-0.0759 J0.0993
G1 X6.6172
G2 X5.9028 I-0.3572 J6.375
G1 X4.39
G2 X4.3219 Y-0.0948 I0. J0.125
G1 X2.782 Y0.9054
G2 Y11.6146 I3.478 J5.3546
G1 X4.3219 Y12.6148
G2 X4.39 Y12.635 I0.0681 J-0.1048
G1 X5.9028
G2 X6.6172 I0.3572 J-6.375
G1 X8.39
G2 X8.4659 Y12.6093 I0. J-0.125
G1 X10.1352 Y11.3345
G2 X12.645 Y6.26 I-3.8752 J-5.0745
X10.1352 Y1.1855 Z-0.0943 I-6.385 J0.
G1 X8.4659 Y-0.0893 Z-0.0959
G2 X8.39 Y-0.115 I-0.0759 J0.0993
G1 X6.6172 Z-0.0973
G2 X5.9028 Z-0.0978 I-0.3572 J6.375
G1 X4.39 Z-0.0989
G2 X4.3219 Y-0.0948 Z-0.099 I0. J0.125
G1 X2.782 Y0.9054 Z-0.1003
G2 Y11.6146 Z-0.1097 I3.478 J5.3546
G1 X4.3219 Y12.6148 Z-0.111
G2 X4.39 Y12.635 Z-0.1111 I0.0681 J-0.1048
G1 X5.9028 Z-0.1122
G2 X6.6172 Z-0.1127 I0.3572 J-6.375
G1 X8.39 Z-0.1141
G2 X8.4659 Y12.6093 I0. J-0.125
G1 X10.1352 Y11.3345 Z-0.1157
G2 X12.645 Y6.26 Z-0.12 I-3.8752 J-5.0745
X10.1352 Y1.1855 I-6.385 J0.
G1 X8.4659 Y-0.0893
G2 X8.39 Y-0.115 I-0.0759 J0.0993
G1 X6.6172
G2 X5.9028 I-0.3572 J6.375
G1 X4.39
G2 X4.3219 Y-0.0948 I0. J0.125
G1 X2.782 Y0.9054
G2 Y11.6146 I3.478 J5.3546
G1 X4.3219 Y12.6148
G2 X4.39 Y12.635 I0.0681 J-0.1048
G1 X5.9028
G2 X6.6172 I0.3572 J-6.375
G1 X8.39
G2 X8.4659 Y12.6093 I0. J-0.125
G1 X10.1352 Y11.3345
G2 X12.645 Y6.26 I-3.8752 J-5.0745
X10.1352 Y1.1855 Z-0.1243 I-6.385 J0.
G1 X8.4659 Y-0.0893 Z-0.1259
G2 X8.39 Y-0.115 I-0.0759 J0.0993
G1 X6.6172 Z-0.1273
G2 X5.9028 Z-0.1278 I-0.3572 J6.375
G1 X4.39 Z-0.1289
G2 X4.3219 Y-0.0948 Z-0.129 I0. J0.125
G1 X2.782 Y0.9054 Z-0.1303
G2 Y11.6146 Z-0.1397 I3.478 J5.3546
G1 X4.3219 Y12.6148 Z-0.141
G2 X4.39 Y12.635 Z-0.1411 I0.0681 J-0.1048
G1 X5.9028 Z-0.1422
G2 X6.6172 Z-0.1427 I0.3572 J-6.375
G1 X8.39 Z-0.1441
G2 X8.4659 Y12.6093 I0. J-0.125
G1 X9.4169 Y11.8831 Z-0.145
X10.1352 Y11.3345
G2 Y1.1855 I-3.8752 J-5.0745
G1 X8.4659 Y-0.0893
G2 X8.39 Y-0.115 I-0.0759 J0.0993
G1 X6.6172
G2 X5.9028 I-0.3572 J6.375
G1 X4.39
G2 X4.3219 Y-0.0948 I0. J0.125
G1 X2.782 Y0.9054
G2 Y11.6146 I3.478 J5.3546
G1 X4.3219 Y12.6148
G2 X4.39 Y12.635 I0.0681 J-0.1048
G1 X5.9028
G2 X6.6172 I0.3572 J-6.375
G1 X8.39
G2 X8.4659 Y12.6093 I0. J-0.125
G1 X9.4169 Y11.8831
G3 X9.4519 Y11.8878 I0.0152 J0.0199
G1 X9.4671 Y11.9076
X9.4695 Y11.9107 Z-0.1447
X9.4718 Y11.9138 Z-0.1438
X9.474 Y11.9167 Z-0.1423
X9.476 Y11.9193 Z-0.1402
X9.4779 Y11.9217 Z-0.1377
X9.4794 Y11.9237 Z-0.1347
X9.4806 Y11.9253 Z-0.1313
X9.4816 Y11.9265 Z-0.1277
X9.4821 Y11.9273 Z-0.1239
X9.4823 Y11.9275 Z-0.12
G0 Z0.6

M9
M30
