(TURRET BASE STEP 3)
(T1  D=0.25 CR=0. - ZMIN=-0.145 - FLAT END MILL)
G90 G94 G91.1 G40 G49 G17
G20

(2D CONTOUR2)
M5
T1 M6
S15000 M3
g4 p5
G54
M8
G0 X11.4008 Y6.8542
G43 Z0.6 H1
Z0.2
G1 Z0.125 F13.3
X11.4011 Z0.1211 F60.
X11.4021 Y6.8543 Z0.1173
X11.4035 Y6.8545 Z0.1137
X11.4056 Y6.8548 Z0.1103
X11.4081 Y6.8551 Z0.1073
X11.4111 Y6.8554 Z0.1048
X11.4144 Y6.8558 Z0.1027
X11.418 Y6.8563 Z0.1012
X11.4218 Y6.8567 Z0.1003
X11.4257 Y6.8572 Z0.1
X11.4505 Y6.8602
G3 X11.4723 Y6.888 I-0.003 J0.0248
X1.0477 Y5.632 Z0.085 I-5.2123 J-0.628
X11.4723 Y6.888 Z0.07 I5.2123 J0.628
X1.0477 Y5.632 Z0.055 I-5.2123 J-0.628
X11.4723 Y6.888 Z0.04 I5.2123 J0.628
X1.0477 Y5.632 Z0.025 I-5.2123 J-0.628
X11.4723 Y6.888 Z0.01 I5.2123 J0.628
X1.0477 Y5.632 Z-0.005 I-5.2123 J-0.628
X11.4723 Y6.888 Z-0.02 I5.2123 J0.628
X3.11 Y10.46 Z-0.03 I-5.2123 J-0.628
X9.41 Y2.06 I3.15 J-4.2
X3.11 Y10.46 I-3.15 J4.2
X9.41 Y2.06 Z-0.045 I3.15 J-4.2
X3.11 Y10.46 Z-0.06 I-3.15 J4.2
X9.41 Y2.06 I3.15 J-4.2
X3.11 Y10.46 I-3.15 J4.2
X9.41 Y2.06 Z-0.075 I3.15 J-4.2
X3.11 Y10.46 Z-0.09 I-3.15 J4.2
X9.41 Y2.06 I3.15 J-4.2
X3.11 Y10.46 I-3.15 J4.2
X9.41 Y2.06 Z-0.105 I3.15 J-4.2
X3.11 Y10.46 Z-0.12 I-3.15 J4.2
X9.41 Y2.06 I3.15 J-4.2
X3.11 Y10.46 I-3.15 J4.2
X9.41 Y2.06 Z-0.135 I3.15 J-4.2
X8.3223 Y11.088 Z-0.145 I-3.15 J4.2
X4.1977 Y1.432 I-2.0623 J-4.828
X8.3223 Y11.088 I2.0623 J4.828
X8.2895 Y11.0748 I-0.0098 J-0.023
G1 X8.2797 Y11.0518
X8.2781 Y11.0482 Z-0.1447
X8.2766 Y11.0447 Z-0.1438
X8.2752 Y11.0414 Z-0.1423
X8.2739 Y11.0383 Z-0.1402
X8.2727 Y11.0356 Z-0.1377
X8.2717 Y11.0332 Z-0.1347
X8.2709 Y11.0313 Z-0.1313
X8.2703 Y11.03 Z-0.1277
X8.27 Y11.0291 Z-0.1239
X8.2699 Y11.0288 Z-0.12
G0 Z0.6

M9
M30
