(CENTER ON BOTTOM CENTER OF STOCK)
(T1  D=3.175 CR=0. - ZMIN=-5.675 - FLAT END MILL)
G90 G94 G91.1 G40 G49 G17
G21

(2D CONTOUR4)
M5
T1 M6
S15000 M3
G54
M8
G0 X85.34 Y96.391
G43 Z16. H1
Z6.
G1 Z2. F100.
Z-5.358
X85.335 Y96.397 Z-5.428
X85.318 Y96.413 Z-5.495
X85.292 Y96.44 Z-5.555
X85.256 Y96.476 Z-5.606
X85.214 Y96.518 Z-5.644
X85.166 Y96.566 Z-5.667
X85.116 Y96.616 Z-5.675
X84.892 Y96.841 F400.
G2 X84.893 Y97.29 I0.225 J0.224
X162.8 Y129.462 I77.907 J-78.24 F800.
G3 X170.738 Y137.4 I0. J7.938
G1 Y162.8
G3 X162.8 Y170.738 I-7.938 J0.
G1 X19.05
G3 X11.113 Y162.8 I0. J-7.938
G1 Y19.05
G3 X19.05 Y11.113 I7.937 J0.
G1 X44.45
G3 X52.388 Y19.05 I0. J7.937
G2 X84.893 Y97.29 I110.413 J0.
X85.342 Y97.289 I0.224 J-0.225 F400.
G1 X85.566 Y97.064
X85.616 Y97.014 Z-5.667
X85.664 Y96.966 Z-5.644
X85.706 Y96.924 Z-5.606
X85.742 Y96.888 Z-5.555
X85.768 Y96.861 Z-5.495
X85.785 Y96.845 Z-5.428
X85.79 Y96.839 Z-5.358
G0 Z6.
X40.96 Y153.013
G1 Z2. F100.
Z-5.358
X40.966 Y153.019 Z-5.428
X40.982 Y153.035 Z-5.495
X41.009 Y153.062 Z-5.555
X41.044 Y153.098 Z-5.606
X41.087 Y153.14 Z-5.644
X41.134 Y153.188 Z-5.667
X41.184 Y153.238 Z-5.675
X41.409 Y153.462 F400.
G2 X41.858 I0.225 J-0.225
G1 X77.779 Y117.541 F800.
X64.309 Y104.071
X21.653 Y146.727
X35.123 Y160.197
X41.858 Y153.462
G2 Y153.013 I-0.225 J-0.225 F400.
G1 X41.633 Y152.788
X41.584 Y152.739 Z-5.667
X41.536 Y152.691 Z-5.644
X41.493 Y152.649 Z-5.606
X41.458 Y152.613 Z-5.555
X41.431 Y152.586 Z-5.495
X41.415 Y152.57 Z-5.428
X41.409 Y152.564 Z-5.358
G0 Z6.
X116.067 Y66.497
G1 Z2. F100.
Z-5.358
X116.073 Y66.492 Z-5.428
X116.09 Y66.475 Z-5.495
X116.116 Y66.448 Z-5.555
X116.152 Y66.413 Z-5.606
X116.194 Y66.37 Z-5.644
X116.242 Y66.323 Z-5.667
X116.292 Y66.273 Z-5.675
X116.516 Y66.048 F400.
G2 Y65.599 I-0.225 J-0.225
G1 X99.772 Y48.856 F800.
G3 Y37.63 I5.613 J-5.613
G1 X124.468 Y12.935
G3 X135.694 I5.613 J5.613
G1 X167.125 Y44.365
G3 Y55.591 I-5.613 J5.613
G1 X142.429 Y80.286
G3 X131.203 I-5.613 J-5.613
G1 X116.516 Y65.599
G2 X116.067 I-0.225 J0.225 F400.
G1 X115.843 Y65.824
X115.793 Y65.874 Z-5.667
X115.745 Y65.921 Z-5.644
X115.703 Y65.964 Z-5.606
X115.667 Y65.999 Z-5.555
X115.641 Y66.026 Z-5.495
X115.624 Y66.043 Z-5.428
X115.618 Y66.048 Z-5.358
G0 Z6.
X132.999 Y34.038
G1 Z2. F100.
Z-5.358
X133.005 Y34.032 Z-5.428
X133.021 Y34.016 Z-5.495
X133.048 Y33.989 Z-5.555
X133.084 Y33.954 Z-5.606
X133.126 Y33.911 Z-5.644
X133.174 Y33.864 Z-5.667
X133.224 Y33.814 Z-5.675
X133.448 Y33.589 F400.
G2 Y33.14 I-0.225 J-0.225
G1 X126.713 Y26.405 F800.
X113.243 Y39.875
X140.184 Y66.816
X153.654 Y53.346
X133.448 Y33.14
G2 X132.999 I-0.225 J0.225 F400.
G1 X132.775 Y33.365
X132.725 Y33.415 Z-5.667
X132.677 Y33.462 Z-5.644
X132.635 Y33.505 Z-5.606
X132.599 Y33.54 Z-5.555
X132.572 Y33.567 Z-5.495
X132.556 Y33.583 Z-5.428
X132.55 Y33.589 Z-5.358
G0 Z16.

M9
M30
