(CENTER ON BOTTOM CENTER OF STOCK)
(T1  D=3.175 CR=0. - ZMIN=-5.675 - FLAT END MILL)
G90 G94 G91.1 G40 G49 G17
G21

(BORE1)
M5
T1 M6
S15000 M3
G54
M8
G0 X44.419 Y19.368
G43 Z16. H1
Z2.
G1 Z0.317 F400.
G18 G2 X44.736 Z0. I0.318 K0.
G1 X44.895
G17 G2 X45.213 Y19.05 I0. J-0.318
X43.387 Z-0.5 I-0.913 J0. F800.
X45.213 Z-1. I0.913 J0.
X43.387 Z-1.5 I-0.913 J0.
X45.213 Z-2. I0.913 J0.
X43.387 Z-2.5 I-0.913 J0.
X45.212 Z-3. I0.913 J0.
X43.387 Z-3.5 I-0.913 J0.
X45.212 Z-4. I0.913 J0.
X43.387 Z-4.5 I-0.913 J0.
X45.212 Z-5. I0.912 J0.
X43.387 Z-5.5 I-0.912 J0.
X43.886 Y19.863 Z-5.675 I0.912 J0.
X44.714 Y18.237 I0.414 J-0.813
X43.886 Y19.863 I-0.414 J0.813
X44.313 Y19.724 I0.144 J-0.283 F400.
G1 X44.385 Y19.583
X44.417 Y19.52 Z-5.667
X44.447 Y19.46 Z-5.644
X44.475 Y19.406 Z-5.606
X44.498 Y19.362 Z-5.555
X44.515 Y19.328 Z-5.495
X44.525 Y19.307 Z-5.428
X44.529 Y19.3 Z-5.358
G0 Z6.
X113.161 Y33.418
Z2.
G1 Z0.317 F400.
G19 G2 Y33.1 Z0. J-0.318 K0.
G1 Y32.942
G17 G2 X112.962 Y32.743 I-0.198 J0.
Y33.537 Z-0.5 I0. J0.397 F800.
Y32.743 Z-1. I0. J-0.397
Y33.537 Z-1.5 I0. J0.397
Y32.743 Z-2. I0. J-0.397
Y33.537 Z-2.5 I0. J0.397
Y32.743 Z-3. I0. J-0.397
Y33.537 Z-3.5 I0. J0.397
Y32.743 Z-4. I0. J-0.397
Y33.537 Z-4.5 I0. J0.397
Y32.743 Z-5. I0. J-0.397
Y33.537 Z-5.5 I0. J0.397
X113.316 Y33.32 Z-5.675 I0. J-0.397
X112.609 Y32.96 I-0.354 J-0.18
X113.316 Y33.32 I0.354 J0.18
X113.229 Y33.053 I-0.177 J-0.09 F400.
G1 X113.088 Y32.981
X113.025 Y32.949 Z-5.667
X112.965 Y32.919 Z-5.644
X112.912 Y32.891 Z-5.606
X112.867 Y32.869 Z-5.555
X112.833 Y32.851 Z-5.495
X112.812 Y32.841 Z-5.428
X112.805 Y32.837 Z-5.358
G0 Z6.
X120.177 Y26.402
Z2.
G1 Z0.317 F400.
G19 G2 Y26.085 Z0. J-0.318 K0.
G1 Y25.926
G17 G2 X119.978 Y25.727 I-0.198 J0.
Y26.521 Z-0.5 I0. J0.397 F800.
Y25.727 Z-1. I0. J-0.397
Y26.521 Z-1.5 I0. J0.397
Y25.727 Z-2. I0. J-0.397
Y26.521 Z-2.5 I0. J0.397
Y25.727 Z-3. I0. J-0.397
Y26.521 Z-3.5 I0. J0.397
Y25.727 Z-4. I0. J-0.397
Y26.521 Z-4.5 I0. J0.397
Y25.727 Z-5. I0. J-0.397
Y26.521 Z-5.5 I0. J0.397
X120.332 Y26.304 Z-5.675 I0. J-0.397
X119.625 Y25.944 I-0.354 J-0.18
X120.332 Y26.304 I0.354 J0.18
X120.245 Y26.038 I-0.177 J-0.09 F400.
G1 X120.104 Y25.965
X120.041 Y25.933 Z-5.667
X119.981 Y25.903 Z-5.644
X119.927 Y25.876 Z-5.606
X119.883 Y25.853 Z-5.555
X119.849 Y25.836 Z-5.495
X119.828 Y25.825 Z-5.428
X119.821 Y25.821 Z-5.358
G0 Z6.
X139.26 Y27.805
Z2.
G1 Z0.317 F400.
G19 G2 Y27.488 Z0. J-0.317 K0.
G1 Y27.329
G17 G2 X139.061 Y27.131 I-0.198 J0.
Y27.924 Z-0.5 I0. J0.397 F800.
Y27.131 Z-1. I0. J-0.397
Y27.924 Z-1.5 I0. J0.397
Y27.131 Z-2. I0. J-0.397
Y27.924 Z-2.5 I0. J0.397
Y27.131 Z-3. I0. J-0.397
Y27.924 Z-3.5 I0. J0.397
Y27.131 Z-4. I0. J-0.397
Y27.924 Z-4.5 I0. J0.397
Y27.131 Z-5. I0. J-0.397
Y27.924 Z-5.5 I0. J0.397
X139.415 Y27.708 Z-5.675 I0. J-0.397
X138.708 Y27.347 I-0.354 J-0.18
X139.415 Y27.708 I0.354 J0.18
X139.328 Y27.441 I-0.177 J-0.09 F400.
G1 X139.187 Y27.369
X139.124 Y27.337 Z-5.667
X139.064 Y27.306 Z-5.644
X139.01 Y27.279 Z-5.606
X138.966 Y27.256 Z-5.555
X138.932 Y27.239 Z-5.495
X138.911 Y27.228 Z-5.428
X138.904 Y27.225 Z-5.358
G0 Z6.
X152.73 Y41.276
Z2.
G1 Z0.317 F400.
G19 G2 Y40.958 Z0. J-0.318 K0.
G1 Y40.799
G17 G2 X152.532 Y40.601 I-0.198 J0.
Y41.395 Z-0.5 I0. J0.397 F800.
Y40.601 Z-1. I0. J-0.397
Y41.395 Z-1.5 I0. J0.397
Y40.601 Z-2. I0. J-0.397
Y41.395 Z-2.5 I0. J0.397
Y40.601 Z-3. I0. J-0.397
Y41.395 Z-3.5 I0. J0.397
Y40.601 Z-4. I0. J-0.397
Y41.395 Z-4.5 I0. J0.397
Y40.601 Z-5. I0. J-0.397
Y41.395 Z-5.5 I0. J0.397
X152.885 Y41.178 Z-5.675 I0. J-0.397
X152.178 Y40.818 I-0.354 J-0.18
X152.885 Y41.178 I0.354 J0.18
X152.799 Y40.911 I-0.177 J-0.09 F400.
G1 X152.657 Y40.839
X152.594 Y40.807 Z-5.667
X152.534 Y40.776 Z-5.644
X152.481 Y40.749 Z-5.606
X152.436 Y40.726 Z-5.555
X152.402 Y40.709 Z-5.495
X152.381 Y40.698 Z-5.428
X152.374 Y40.695 Z-5.358
G0 Z6.
X154.133 Y60.359
Z2.
G1 Z0.317 F400.
G19 G2 Y60.041 Z0. J-0.318 K0.
G1 Y59.882
G17 G2 X153.935 Y59.684 I-0.198 J0.
Y60.478 Z-0.5 I0. J0.397 F800.
Y59.684 Z-1. I0. J-0.397
Y60.478 Z-1.5 I0. J0.397
Y59.684 Z-2. I0. J-0.397
Y60.478 Z-2.5 I0. J0.397
Y59.684 Z-3. I0. J-0.397
Y60.478 Z-3.5 I0. J0.397
Y59.684 Z-4. I0. J-0.397
Y60.478 Z-4.5 I0. J0.397
Y59.684 Z-5. I0. J-0.397
Y60.478 Z-5.5 I0. J0.397
X154.288 Y60.261 Z-5.675 I0. J-0.397
X153.581 Y59.901 I-0.354 J-0.18
X154.288 Y60.261 I0.354 J0.18
X154.202 Y59.994 I-0.177 J-0.09 F400.
G1 X154.06 Y59.922
X153.997 Y59.89 Z-5.667
X153.938 Y59.86 Z-5.644
X153.884 Y59.832 Z-5.606
X153.839 Y59.809 Z-5.555
X153.805 Y59.792 Z-5.495
X153.784 Y59.782 Z-5.428
X153.777 Y59.778 Z-5.358
G0 Z6.
X147.117 Y67.375
Z2.
G1 Z0.317 F400.
G19 G2 Y67.057 Z0. J-0.318 K0.
G1 Y66.898
G17 G2 X146.919 Y66.7 I-0.198 J0.
Y67.494 Z-0.5 I0. J0.397 F800.
Y66.7 Z-1. I0. J-0.397
Y67.494 Z-1.5 I0. J0.397
Y66.7 Z-2. I0. J-0.397
Y67.494 Z-2.5 I0. J0.397
Y66.7 Z-3. I0. J-0.397
Y67.494 Z-3.5 I0. J0.397
Y66.7 Z-4. I0. J-0.397
Y67.494 Z-4.5 I0. J0.397
Y66.7 Z-5. I0. J-0.397
Y67.494 Z-5.5 I0. J0.397
X147.273 Y67.277 Z-5.675 I0. J-0.397
X146.565 Y66.917 I-0.354 J-0.18
X147.273 Y67.277 I0.354 J0.18
X147.186 Y67.01 I-0.177 J-0.09 F400.
G1 X147.044 Y66.938
X146.982 Y66.906 Z-5.667
X146.922 Y66.875 Z-5.644
X146.868 Y66.848 Z-5.606
X146.823 Y66.825 Z-5.555
X146.79 Y66.808 Z-5.495
X146.769 Y66.797 Z-5.428
X146.762 Y66.794 Z-5.358
G0 Z6.
X128.034 Y65.971
Z2.
G1 Z0.317 F400.
G19 G2 Y65.654 Z0. J-0.317 K0.
G1 Y65.495
G17 G2 X127.836 Y65.297 I-0.198 J0.
Y66.09 Z-0.5 I0. J0.397 F800.
Y65.297 Z-1. I0. J-0.397
Y66.09 Z-1.5 I0. J0.397
Y65.297 Z-2. I0. J-0.397
Y66.09 Z-2.5 I0. J0.397
Y65.297 Z-3. I0. J-0.397
Y66.09 Z-3.5 I0. J0.397
Y65.297 Z-4. I0. J-0.397
Y66.09 Z-4.5 I0. J0.397
Y65.297 Z-5. I0. J-0.397
Y66.09 Z-5.5 I0. J0.397
X128.19 Y65.874 Z-5.675 I0. J-0.397
X127.482 Y65.513 I-0.354 J-0.18
X128.19 Y65.874 I0.354 J0.18
X128.103 Y65.607 I-0.177 J-0.09 F400.
G1 X127.961 Y65.535
X127.898 Y65.503 Z-5.667
X127.839 Y65.472 Z-5.644
X127.785 Y65.445 Z-5.606
X127.74 Y65.422 Z-5.555
X127.707 Y65.405 Z-5.495
X127.686 Y65.394 Z-5.428
X127.679 Y65.391 Z-5.358
G0 Z6.
X114.564 Y52.501
Z2.
G1 Z0.317 F400.
G19 G2 Y52.183 Z0. J-0.317 K0.
G1 Y52.025
G17 G2 X114.366 Y51.826 I-0.198 J0.
Y52.62 Z-0.5 I0. J0.397 F800.
Y51.826 Z-1. I0. J-0.397
Y52.62 Z-1.5 I0. J0.397
Y51.826 Z-2. I0. J-0.397
Y52.62 Z-2.5 I0. J0.397
Y51.826 Z-3. I0. J-0.397
Y52.62 Z-3.5 I0. J0.397
Y51.826 Z-4. I0. J-0.397
Y52.62 Z-4.5 I0. J0.397
Y51.826 Z-5. I0. J-0.397
Y52.62 Z-5.5 I0. J0.397
X114.719 Y52.403 Z-5.675 I0. J-0.397
X114.012 Y52.043 I-0.354 J-0.18
X114.719 Y52.403 I0.354 J0.18
X114.632 Y52.136 I-0.177 J-0.09 F400.
G1 X114.491 Y52.064
X114.428 Y52.032 Z-5.667
X114.368 Y52.002 Z-5.644
X114.315 Y51.974 Z-5.606
X114.27 Y51.952 Z-5.555
X114.236 Y51.934 Z-5.495
X114.215 Y51.924 Z-5.428
X114.208 Y51.92 Z-5.358
G0 Z6.
X162.919 Y137.867
Z2.
G1 Z0.317 F400.
G18 G2 X163.236 Z0. I0.318 K0.
G1 X163.395
G17 G2 X163.712 Y137.55 I0. J-0.317
X161.888 Z-0.5 I-0.912 J0. F800.
X163.712 Z-1. I0.912 J0.
X161.888 Z-1.5 I-0.912 J0.
X163.712 Z-2. I0.912 J0.
X161.888 Z-2.5 I-0.912 J0.
X163.712 Z-3. I0.912 J0.
X161.888 Z-3.5 I-0.912 J0.
X163.712 Z-4. I0.912 J0.
X161.888 Z-4.5 I-0.912 J0.
X163.712 Z-5. I0.912 J0.
X161.888 Z-5.5 I-0.912 J0.
X162.386 Y138.363 Z-5.675 I0.912 J0.
X163.214 Y136.737 I0.414 J-0.813
X162.386 Y138.363 I-0.414 J0.813
X162.813 Y138.224 I0.144 J-0.283 F400.
G1 X162.885 Y138.083
X162.917 Y138.02 Z-5.667
X162.947 Y137.96 Z-5.644
X162.975 Y137.906 Z-5.606
X162.998 Y137.862 Z-5.555
X163.015 Y137.828 Z-5.495
X163.025 Y137.807 Z-5.428
X163.029 Y137.8 Z-5.358
G0 Z16.

(SLOT1)
G0 X55.329 Y101.826
Z16.
Z6.
G1 Z3.5 F400.
X19.408 Y137.747 Z1.971
X55.329 Y101.826 Z0.442
X19.408 Y137.747 Z-1.087
X55.329 Y101.826 Z-2.617
X19.408 Y137.747 Z-4.146
X55.329 Y101.826 Z-5.675
X19.408 Y137.747 F800.
G0 Z6.
X80.025 Y126.521
G1 Z3.5 F400.
X44.103 Y162.443 Z1.971
X80.025 Y126.521 Z0.442
X44.103 Y162.443 Z-1.087
X80.025 Y126.521 Z-2.617
X44.103 Y162.443 Z-4.146
X80.025 Y126.521 Z-5.675
X44.103 Y162.443 F800.
G0 Z16.

M9
M30
