(CENTER ON BOTTOM CENTER OF STOCK)
(T1  D=3.175 CR=0. - ZMIN=-5.675 - FLAT END MILL)
G90 G94 G91.1 G40 G49 G17
G21
G0 Z15

(BORE1)
M5
T1 M6
S15000 M3
G54
M8
G0 X-46.506 Y14.419
G43 Z15. H1
Z2.
G1 Z0.317 F400.
G18 G2 X-46.189 Z0. I0.317 K0.
G1 X-46.03
G17 G2 X-45.713 Y14.101 I0. J-0.318
X-47.537 Z-0.5 I-0.912 J0. F800.
X-45.713 Z-1. I0.912 J0.
X-47.537 Z-1.5 I-0.912 J0.
X-45.713 Z-2. I0.912 J0.
X-47.537 Z-2.5 I-0.912 J0.
X-45.713 Z-3. I0.912 J0.
X-47.537 Z-3.5 I-0.912 J0.
X-45.713 Z-4. I0.912 J0.
X-47.537 Z-4.5 I-0.912 J0.
X-45.713 Z-5. I0.912 J0.
X-47.537 Z-5.5 I-0.912 J0.
X-47.039 Y14.914 Z-5.675 I0.912 J0.
X-46.211 Y13.288 I0.414 J-0.813
X-47.039 Y14.914 I-0.414 J0.813
X-46.612 Y14.776 I0.144 J-0.283 F400.
G1 X-46.54 Y14.634
X-46.508 Y14.571 Z-5.667
X-46.478 Y14.512 Z-5.644
X-46.45 Y14.458 Z-5.606
X-46.427 Y14.413 Z-5.555
X-46.41 Y14.379 Z-5.495
X-46.4 Y14.358 Z-5.428
X-46.396 Y14.351 Z-5.358
G0 Z5.
X22.236 Y28.469
Z2.
G1 Z0.317 F400.
G19 G2 Y28.152 Z0. J-0.318 K0.
G1 Y27.993
G17 G2 X22.037 Y27.795 I-0.198 J0.
Y28.588 Z-0.5 I0. J0.397 F800.
Y27.795 Z-1. I0. J-0.397
Y28.588 Z-1.5 I0. J0.397
Y27.795 Z-2. I0. J-0.397
Y28.588 Z-2.5 I0. J0.397
Y27.795 Z-3. I0. J-0.397
Y28.588 Z-3.5 I0. J0.397
Y27.795 Z-4. I0. J-0.397
Y28.588 Z-4.5 I0. J0.397
Y27.795 Z-5. I0. J-0.397
Y28.588 Z-5.5 I0. J0.397
X22.391 Y28.372 Z-5.675 I0. J-0.397
X21.684 Y28.011 I-0.354 J-0.18
X22.391 Y28.372 I0.354 J0.18
X22.304 Y28.105 I-0.177 J-0.09 F400.
G1 X22.163 Y28.033
X22.1 Y28.001 Z-5.667
X22.04 Y27.97 Z-5.644
X21.987 Y27.943 Z-5.606
X21.942 Y27.92 Z-5.555
X21.908 Y27.903 Z-5.495
X21.887 Y27.892 Z-5.428
X21.88 Y27.889 Z-5.358
G0 Z5.
X29.252 Y21.453
Z2.
G1 Z0.317 F400.
G19 G2 Y21.136 Z0. J-0.318 K0.
G1 Y20.977
G17 G2 X29.053 Y20.779 I-0.198 J0.
Y21.573 Z-0.5 I0. J0.397 F800.
Y20.779 Z-1. I0. J-0.397
Y21.573 Z-1.5 I0. J0.397
Y20.779 Z-2. I0. J-0.397
Y21.573 Z-2.5 I0. J0.397
Y20.779 Z-3. I0. J-0.397
Y21.573 Z-3.5 I0. J0.397
Y20.779 Z-4. I0. J-0.397
Y21.573 Z-4.5 I0. J0.397
Y20.779 Z-5. I0. J-0.397
Y21.573 Z-5.5 I0. J0.397
X29.407 Y21.356 Z-5.675 I0. J-0.397
X28.7 Y20.996 I-0.354 J-0.18
X29.407 Y21.356 I0.354 J0.18
X29.32 Y21.089 I-0.177 J-0.09 F400.
G1 X29.179 Y21.017
X29.116 Y20.985 Z-5.667
X29.056 Y20.954 Z-5.644
X29.002 Y20.927 Z-5.606
X28.958 Y20.904 Z-5.555
X28.924 Y20.887 Z-5.495
X28.903 Y20.876 Z-5.428
X28.896 Y20.873 Z-5.358
G0 Z5.
X48.335 Y22.857
Z2.
G1 Z0.317 F400.
G19 G2 Y22.539 Z0. J-0.317 K0.
G1 Y22.38
G17 G2 X48.136 Y22.182 I-0.198 J0.
Y22.976 Z-0.5 I0. J0.397 F800.
Y22.182 Z-1. I0. J-0.397
Y22.976 Z-1.5 I0. J0.397
Y22.182 Z-2. I0. J-0.397
Y22.976 Z-2.5 I0. J0.397
Y22.182 Z-3. I0. J-0.397
Y22.976 Z-3.5 I0. J0.397
Y22.182 Z-4. I0. J-0.397
Y22.976 Z-4.5 I0. J0.397
Y22.182 Z-5. I0. J-0.397
Y22.976 Z-5.5 I0. J0.397
X48.49 Y22.759 Z-5.675 I0. J-0.397
X47.783 Y22.399 I-0.354 J-0.18
X48.49 Y22.759 I0.354 J0.18
X48.403 Y22.492 I-0.177 J-0.09 F400.
G1 X48.262 Y22.42
X48.199 Y22.388 Z-5.667
X48.139 Y22.358 Z-5.644
X48.085 Y22.33 Z-5.606
X48.041 Y22.307 Z-5.555
X48.007 Y22.29 Z-5.495
X47.986 Y22.28 Z-5.428
X47.979 Y22.276 Z-5.358
G0 Z5.
X61.805 Y36.327
Z2.
G1 Z0.317 F400.
G19 G2 Y36.01 Z0. J-0.318 K0.
G1 Y35.851
G17 G2 X61.607 Y35.652 I-0.198 J0.
Y36.446 Z-0.5 I0. J0.397 F800.
Y35.652 Z-1. I0. J-0.397
Y36.446 Z-1.5 I0. J0.397
Y35.652 Z-2. I0. J-0.397
Y36.446 Z-2.5 I0. J0.397
Y35.652 Z-3. I0. J-0.397
Y36.446 Z-3.5 I0. J0.397
Y35.652 Z-4. I0. J-0.397
Y36.446 Z-4.5 I0. J0.397
Y35.652 Z-5. I0. J-0.397
Y36.446 Z-5.5 I0. J0.397
X61.96 Y36.229 Z-5.675 I0. J-0.397
X61.253 Y35.869 I-0.354 J-0.18
X61.96 Y36.229 I0.354 J0.18
X61.874 Y35.963 I-0.177 J-0.09 F400.
G1 X61.732 Y35.89
X61.669 Y35.858 Z-5.667
X61.609 Y35.828 Z-5.644
X61.556 Y35.801 Z-5.606
X61.511 Y35.778 Z-5.555
X61.477 Y35.761 Z-5.495
X61.456 Y35.75 Z-5.428
X61.449 Y35.746 Z-5.358
G0 Z5.
X63.208 Y55.41
Z2.
G1 Z0.317 F400.
G19 G2 Y55.093 Z0. J-0.318 K0.
G1 Y54.934
G17 G2 X63.01 Y54.735 I-0.198 J0.
Y55.529 Z-0.5 I0. J0.397 F800.
Y54.735 Z-1. I0. J-0.397
Y55.529 Z-1.5 I0. J0.397
Y54.735 Z-2. I0. J-0.397
Y55.529 Z-2.5 I0. J0.397
Y54.735 Z-3. I0. J-0.397
Y55.529 Z-3.5 I0. J0.397
Y54.735 Z-4. I0. J-0.397
Y55.529 Z-4.5 I0. J0.397
Y54.735 Z-5. I0. J-0.397
Y55.529 Z-5.5 I0. J0.397
X63.363 Y55.312 Z-5.675 I0. J-0.397
X62.656 Y54.952 I-0.354 J-0.18
X63.363 Y55.312 I0.354 J0.18
X63.277 Y55.046 I-0.177 J-0.09 F400.
G1 X63.135 Y54.973
X63.072 Y54.941 Z-5.667
X63.013 Y54.911 Z-5.644
X62.959 Y54.884 Z-5.606
X62.914 Y54.861 Z-5.555
X62.88 Y54.844 Z-5.495
X62.86 Y54.833 Z-5.428
X62.852 Y54.829 Z-5.358
G0 Z5.
X56.192 Y62.426
Z2.
G1 Z0.317 F400.
G19 G2 Y62.108 Z0. J-0.318 K0.
G1 Y61.95
G17 G2 X55.994 Y61.751 I-0.198 J0.
Y62.545 Z-0.5 I0. J0.397 F800.
Y61.751 Z-1. I0. J-0.397
Y62.545 Z-1.5 I0. J0.397
Y61.751 Z-2. I0. J-0.397
Y62.545 Z-2.5 I0. J0.397
Y61.751 Z-3. I0. J-0.397
Y62.545 Z-3.5 I0. J0.397
Y61.751 Z-4. I0. J-0.397
Y62.545 Z-4.5 I0. J0.397
Y61.751 Z-5. I0. J-0.397
Y62.545 Z-5.5 I0. J0.397
X56.348 Y62.328 Z-5.675 I0. J-0.397
X55.64 Y61.968 I-0.354 J-0.18
X56.348 Y62.328 I0.354 J0.18
X56.261 Y62.061 I-0.177 J-0.09 F400.
G1 X56.119 Y61.989
X56.057 Y61.957 Z-5.667
X55.997 Y61.927 Z-5.644
X55.943 Y61.899 Z-5.606
X55.898 Y61.877 Z-5.555
X55.865 Y61.859 Z-5.495
X55.844 Y61.849 Z-5.428
X55.837 Y61.845 Z-5.358
G0 Z5.
X37.109 Y61.023
Z2.
G1 Z0.317 F400.
G19 G2 Y60.705 Z0. J-0.318 K0.
G1 Y60.546
G17 G2 X36.911 Y60.348 I-0.198 J0.
Y61.142 Z-0.5 I0. J0.397 F800.
Y60.348 Z-1. I0. J-0.397
Y61.142 Z-1.5 I0. J0.397
Y60.348 Z-2. I0. J-0.397
Y61.142 Z-2.5 I0. J0.397
Y60.348 Z-3. I0. J-0.397
Y61.142 Z-3.5 I0. J0.397
Y60.348 Z-4. I0. J-0.397
Y61.142 Z-4.5 I0. J0.397
Y60.348 Z-5. I0. J-0.397
Y61.142 Z-5.5 I0. J0.397
X37.265 Y60.925 Z-5.675 I0. J-0.397
X36.557 Y60.565 I-0.354 J-0.18
X37.265 Y60.925 I0.354 J0.18
X37.178 Y60.658 I-0.177 J-0.09 F400.
G1 X37.036 Y60.586
X36.973 Y60.554 Z-5.667
X36.914 Y60.524 Z-5.644
X36.86 Y60.496 Z-5.606
X36.815 Y60.473 Z-5.555
X36.782 Y60.456 Z-5.495
X36.761 Y60.446 Z-5.428
X36.754 Y60.442 Z-5.358
G0 Z5.
X23.639 Y47.552
Z2.
G1 Z0.317 F400.
G19 G2 Y47.235 Z0. J-0.317 K0.
G1 Y47.076
G17 G2 X23.441 Y46.878 I-0.198 J0.
Y47.671 Z-0.5 I0. J0.397 F800.
Y46.878 Z-1. I0. J-0.397
Y47.671 Z-1.5 I0. J0.397
Y46.878 Z-2. I0. J-0.397
Y47.671 Z-2.5 I0. J0.397
Y46.878 Z-3. I0. J-0.397
Y47.671 Z-3.5 I0. J0.397
Y46.878 Z-4. I0. J-0.397
Y47.671 Z-4.5 I0. J0.397
Y46.878 Z-5. I0. J-0.397
Y47.671 Z-5.5 I0. J0.397
X23.794 Y47.455 Z-5.675 I0. J-0.397
X23.087 Y47.094 I-0.354 J-0.18
X23.794 Y47.455 I0.354 J0.18
X23.707 Y47.188 I-0.177 J-0.09 F400.
G1 X23.566 Y47.116
X23.503 Y47.084 Z-5.667
X23.443 Y47.053 Z-5.644
X23.39 Y47.026 Z-5.606
X23.345 Y47.003 Z-5.555
X23.311 Y46.986 Z-5.495
X23.29 Y46.975 Z-5.428
X23.283 Y46.972 Z-5.358
G0 Z5.
X71.994 Y132.919
Z2.
G1 Z0.317 F400.
G18 G2 X72.311 Z0. I0.317 K0.
G1 X72.47
G17 G2 X72.787 Y132.601 I0. J-0.318
X70.963 Z-0.5 I-0.912 J0. F800.
X72.787 Z-1. I0.912 J0.
X70.962 Z-1.5 I-0.912 J0.
X72.788 Z-2. I0.913 J0.
X70.962 Z-2.5 I-0.913 J0.
X72.788 Z-3. I0.913 J0.
X70.962 Z-3.5 I-0.913 J0.
X72.788 Z-4. I0.913 J0.
X70.962 Z-4.5 I-0.913 J0.
X72.788 Z-5. I0.913 J0.
X70.962 Z-5.5 I-0.913 J0.
X71.461 Y133.414 Z-5.675 I0.913 J0.
X72.289 Y131.788 I0.414 J-0.813
X71.461 Y133.414 I-0.414 J0.813
X71.888 Y133.276 I0.144 J-0.283 F400.
G1 X71.96 Y133.134
X71.992 Y133.071 Z-5.667
X72.022 Y133.012 Z-5.644
X72.05 Y132.958 Z-5.606
X72.073 Y132.913 Z-5.555
X72.09 Y132.879 Z-5.495
X72.1 Y132.858 Z-5.428
X72.104 Y132.851 Z-5.358
G0 Z15.

(SLOT1)
G0 X-35.596 Y96.877
Z15.
Z5.
G1 Z2.5 F400.
X-71.517 Y132.798 Z0.865
X-35.596 Y96.877 Z-0.77
X-71.517 Y132.798 Z-2.405
X-35.596 Y96.877 Z-4.04
X-71.517 Y132.798 Z-5.675
X-35.596 Y96.877 F800.
G0 Z5.
X-10.901 Y121.573
G1 Z2.5 F400.
X-46.822 Y157.494 Z0.865
X-10.901 Y121.573 Z-0.77
X-46.822 Y157.494 Z-2.405
X-10.901 Y121.573 Z-4.04
X-46.822 Y157.494 Z-5.675
X-10.901 Y121.573 F800.
G0 Z15.
M5
G0 Z15
G0 X0 Y0

M9
M30
