(X8 LATTERAL GUSSET COMPLETE)
(T3  D=0.118 CR=0. - ZMIN=-0.165 - FLAT END MILL)
G90 G94 G91.1 G40 G49 G17
G20

(2D POCKET1)
M5
T3 M6
S15000 M3
g4 p5
G54
M8
G0 X4.245 Y4.3128
G43 Z0.6 H3
Z0.2
G1 Z0.1118 F40.
X4.2451 Y4.3121 Z0.1075 F20.
X4.2454 Y4.311 Z0.1057
X4.246 Y4.31 Z0.1039
X4.2469 Y4.3091 Z0.1029
X4.2479 Y4.3085 Z0.102
X4.2491 Y4.3081 Z0.1011
X4.2507 Z0.1007
X4.2521 Y4.3085 Z0.1004
X4.2534 Y4.3093 Z0.1
G3 X4.2466 Y4.3167 Z0.0995 I-0.0034 J0.0037
X4.2534 Y4.3093 Z0.0989 I0.0034 J-0.0037
X4.2466 Y4.3167 Z0.0984 I-0.0034 J0.0037
X4.2534 Y4.3093 Z0.0978 I0.0034 J-0.0037
X4.2466 Y4.3167 Z0.0973 I-0.0034 J0.0037
X4.2534 Y4.3093 Z0.0967 I0.0034 J-0.0037
X4.2466 Y4.3167 Z0.0962 I-0.0034 J0.0037
X4.2534 Y4.3093 Z0.0956 I0.0034 J-0.0037
X4.2466 Y4.3167 Z0.0951 I-0.0034 J0.0037
X4.2534 Y4.3093 Z0.0945 I0.0034 J-0.0037
X4.2466 Y4.3167 Z0.094 I-0.0034 J0.0037
X4.2534 Y4.3093 Z0.0934 I0.0034 J-0.0037
X4.2466 Y4.3167 Z0.0929 I-0.0034 J0.0037
X4.2534 Y4.3093 Z0.0923 I0.0034 J-0.0037
X4.2466 Y4.3167 Z0.0918 I-0.0034 J0.0037
X4.2534 Y4.3093 Z0.0912 I0.0034 J-0.0037
X4.2466 Y4.3167 Z0.0907 I-0.0034 J0.0037
X4.2534 Y4.3093 Z0.0901 I0.0034 J-0.0037
X4.2466 Y4.3167 Z0.0896 I-0.0034 J0.0037
X4.2534 Y4.3093 Z0.089 I0.0034 J-0.0037
X4.2466 Y4.3167 Z0.0885 I-0.0034 J0.0037
X4.2534 Y4.3093 Z0.0879 I0.0034 J-0.0037
X4.2466 Y4.3167 Z0.0874 I-0.0034 J0.0037
X4.2534 Y4.3093 Z0.0868 I0.0034 J-0.0037
X4.2466 Y4.3167 Z0.0863 I-0.0034 J0.0037
X4.2534 Y4.3093 Z0.0857 I0.0034 J-0.0037
X4.2466 Y4.3167 Z0.0852 I-0.0034 J0.0037
X4.2534 Y4.3093 Z0.0846 I0.0034 J-0.0037
X4.2466 Y4.3167 Z0.0841 I-0.0034 J0.0037
X4.2534 Y4.3093 Z0.0835 I0.0034 J-0.0037
X4.2466 Y4.3167 Z0.083 I-0.0034 J0.0037
X4.2534 Y4.3093 Z0.0824 I0.0034 J-0.0037
X4.2466 Y4.3167 Z0.0819 I-0.0034 J0.0037
X4.2534 Y4.3093 Z0.0813 I0.0034 J-0.0037
X4.2466 Y4.3167 Z0.0808 I-0.0034 J0.0037
X4.2534 Y4.3093 Z0.0803 I0.0034 J-0.0037
X4.2466 Y4.3167 Z0.0797 I-0.0034 J0.0037
X4.2534 Y4.3093 Z0.0792 I0.0034 J-0.0037
X4.2466 Y4.3167 Z0.0786 I-0.0034 J0.0037
X4.2534 Y4.3093 Z0.0781 I0.0034 J-0.0037
X4.2466 Y4.3167 Z0.0775 I-0.0034 J0.0037
X4.2534 Y4.3093 Z0.077 I0.0034 J-0.0037
X4.2466 Y4.3167 Z0.0764 I-0.0034 J0.0037
X4.2534 Y4.3093 Z0.0759 I0.0034 J-0.0037
X4.2466 Y4.3167 Z0.0753 I-0.0034 J0.0037
X4.2534 Y4.3093 Z0.0748 I0.0034 J-0.0037
X4.2466 Y4.3167 Z0.0742 I-0.0034 J0.0037
X4.2534 Y4.3093 Z0.0737 I0.0034 J-0.0037
X4.2466 Y4.3167 Z0.0731 I-0.0034 J0.0037
X4.2534 Y4.3093 Z0.0726 I0.0034 J-0.0037
X4.2466 Y4.3167 Z0.072 I-0.0034 J0.0037
X4.2534 Y4.3093 Z0.0715 I0.0034 J-0.0037
X4.2466 Y4.3167 Z0.0709 I-0.0034 J0.0037
X4.2534 Y4.3093 Z0.0704 I0.0034 J-0.0037
X4.2466 Y4.3167 Z0.0698 I-0.0034 J0.0037
X4.2534 Y4.3093 Z0.0693 I0.0034 J-0.0037
X4.2466 Y4.3167 Z0.0687 I-0.0034 J0.0037
X4.2534 Y4.3093 Z0.0682 I0.0034 J-0.0037
X4.2466 Y4.3167 Z0.0676 I-0.0034 J0.0037
X4.2534 Y4.3093 Z0.0671 I0.0034 J-0.0037
X4.2466 Y4.3167 Z0.0665 I-0.0034 J0.0037
X4.2534 Y4.3093 Z0.066 I0.0034 J-0.0037
X4.2466 Y4.3167 Z0.0654 I-0.0034 J0.0037
X4.2534 Y4.3093 Z0.0649 I0.0034 J-0.0037
X4.2466 Y4.3167 Z0.0643 I-0.0034 J0.0037
X4.2534 Y4.3093 Z0.0638 I0.0034 J-0.0037
X4.2466 Y4.3167 Z0.0632 I-0.0034 J0.0037
X4.2534 Y4.3093 Z0.0627 I0.0034 J-0.0037
X4.2466 Y4.3167 Z0.0622 I-0.0034 J0.0037
X4.2534 Y4.3093 Z0.0616 I0.0034 J-0.0037
X4.2466 Y4.3167 Z0.0611 I-0.0034 J0.0037
X4.2534 Y4.3093 Z0.0605 I0.0034 J-0.0037
X4.2466 Y4.3167 Z0.06 I-0.0034 J0.0037
X4.2534 Y4.3093 Z0.0594 I0.0034 J-0.0037
X4.2466 Y4.3167 Z0.0589 I-0.0034 J0.0037
X4.2534 Y4.3093 Z0.0583 I0.0034 J-0.0037
X4.2466 Y4.3167 Z0.0578 I-0.0034 J0.0037
X4.2534 Y4.3093 Z0.0572 I0.0034 J-0.0037
X4.2466 Y4.3167 Z0.0567 I-0.0034 J0.0037
X4.2534 Y4.3093 Z0.0561 I0.0034 J-0.0037
X4.2466 Y4.3167 Z0.0556 I-0.0034 J0.0037
X4.2534 Y4.3093 Z0.055 I0.0034 J-0.0037
X4.2466 Y4.3167 Z0.0545 I-0.0034 J0.0037
X4.2534 Y4.3093 Z0.0539 I0.0034 J-0.0037
X4.2466 Y4.3167 Z0.0534 I-0.0034 J0.0037
X4.2534 Y4.3093 Z0.0528 I0.0034 J-0.0037
X4.2466 Y4.3167 Z0.0523 I-0.0034 J0.0037
X4.2534 Y4.3093 Z0.0517 I0.0034 J-0.0037
X4.2466 Y4.3167 Z0.0512 I-0.0034 J0.0037
X4.2534 Y4.3093 Z0.0506 I0.0034 J-0.0037
X4.2466 Y4.3167 Z0.0501 I-0.0034 J0.0037
X4.2534 Y4.3093 Z0.0495 I0.0034 J-0.0037
X4.2466 Y4.3167 Z0.049 I-0.0034 J0.0037
X4.2534 Y4.3093 Z0.0484 I0.0034 J-0.0037
X4.2466 Y4.3167 Z0.0479 I-0.0034 J0.0037
X4.2534 Y4.3093 Z0.0473 I0.0034 J-0.0037
X4.2466 Y4.3167 Z0.0468 I-0.0034 J0.0037
X4.2534 Y4.3093 Z0.0462 I0.0034 J-0.0037
X4.2466 Y4.3167 Z0.0457 I-0.0034 J0.0037
X4.2534 Y4.3093 Z0.0451 I0.0034 J-0.0037
X4.2466 Y4.3167 Z0.0446 I-0.0034 J0.0037
X4.2534 Y4.3093 Z0.044 I0.0034 J-0.0037
X4.2466 Y4.3167 Z0.0435 I-0.0034 J0.0037
X4.2534 Y4.3093 Z0.043 I0.0034 J-0.0037
X4.2466 Y4.3167 Z0.0424 I-0.0034 J0.0037
X4.2534 Y4.3093 Z0.0419 I0.0034 J-0.0037
X4.2466 Y4.3167 Z0.0413 I-0.0034 J0.0037
X4.2534 Y4.3093 Z0.0408 I0.0034 J-0.0037
X4.2466 Y4.3167 Z0.0402 I-0.0034 J0.0037
X4.2534 Y4.3093 Z0.0397 I0.0034 J-0.0037
X4.2466 Y4.3167 Z0.0391 I-0.0034 J0.0037
X4.2534 Y4.3093 Z0.0386 I0.0034 J-0.0037
X4.2466 Y4.3167 Z0.038 I-0.0034 J0.0037
X4.2534 Y4.3093 Z0.0375 I0.0034 J-0.0037
X4.2466 Y4.3167 Z0.0369 I-0.0034 J0.0037
X4.2534 Y4.3093 Z0.0364 I0.0034 J-0.0037
X4.2466 Y4.3167 Z0.0358 I-0.0034 J0.0037
X4.2534 Y4.3093 Z0.0353 I0.0034 J-0.0037
X4.2466 Y4.3167 Z0.0347 I-0.0034 J0.0037
X4.2534 Y4.3093 Z0.0342 I0.0034 J-0.0037
X4.2466 Y4.3167 Z0.0336 I-0.0034 J0.0037
X4.2534 Y4.3093 Z0.0331 I0.0034 J-0.0037
X4.2466 Y4.3167 Z0.0325 I-0.0034 J0.0037
X4.2534 Y4.3093 Z0.032 I0.0034 J-0.0037
X4.2466 Y4.3167 Z0.0314 I-0.0034 J0.0037
X4.2534 Y4.3093 Z0.0309 I0.0034 J-0.0037
X4.2466 Y4.3167 Z0.0303 I-0.0034 J0.0037
X4.2534 Y4.3093 Z0.0298 I0.0034 J-0.0037
X4.2466 Y4.3167 Z0.0292 I-0.0034 J0.0037
X4.2534 Y4.3093 Z0.0287 I0.0034 J-0.0037
X4.2466 Y4.3167 Z0.0281 I-0.0034 J0.0037
X4.2534 Y4.3093 Z0.0276 I0.0034 J-0.0037
X4.2466 Y4.3167 Z0.027 I-0.0034 J0.0037
X4.2534 Y4.3093 Z0.0265 I0.0034 J-0.0037
X4.2466 Y4.3167 Z0.0259 I-0.0034 J0.0037
X4.2534 Y4.3093 Z0.0254 I0.0034 J-0.0037
X4.2466 Y4.3167 Z0.0249 I-0.0034 J0.0037
X4.2534 Y4.3093 Z0.0243 I0.0034 J-0.0037
X4.2466 Y4.3167 Z0.0238 I-0.0034 J0.0037
X4.2534 Y4.3093 Z0.0232 I0.0034 J-0.0037
X4.2466 Y4.3167 Z0.0227 I-0.0034 J0.0037
X4.2534 Y4.3093 Z0.0221 I0.0034 J-0.0037
X4.2466 Y4.3167 Z0.0216 I-0.0034 J0.0037
X4.2534 Y4.3093 Z0.021 I0.0034 J-0.0037
X4.2466 Y4.3167 Z0.0205 I-0.0034 J0.0037
X4.2534 Y4.3093 Z0.0199 I0.0034 J-0.0037
X4.2466 Y4.3167 Z0.0194 I-0.0034 J0.0037
X4.2534 Y4.3093 Z0.0188 I0.0034 J-0.0037
X4.2466 Y4.3167 Z0.0183 I-0.0034 J0.0037
X4.2534 Y4.3093 Z0.0177 I0.0034 J-0.0037
X4.2466 Y4.3167 Z0.0172 I-0.0034 J0.0037
X4.2534 Y4.3093 Z0.0166 I0.0034 J-0.0037
X4.2466 Y4.3167 Z0.0161 I-0.0034 J0.0037
X4.2534 Y4.3093 Z0.0155 I0.0034 J-0.0037
X4.2466 Y4.3167 Z0.015 I-0.0034 J0.0037
X4.2534 Y4.3093 Z0.0144 I0.0034 J-0.0037
X4.2466 Y4.3167 Z0.0139 I-0.0034 J0.0037
X4.2534 Y4.3093 Z0.0133 I0.0034 J-0.0037
X4.2466 Y4.3167 Z0.0128 I-0.0034 J0.0037
X4.2534 Y4.3093 Z0.0122 I0.0034 J-0.0037
X4.2466 Y4.3167 Z0.0117 I-0.0034 J0.0037
X4.2534 Y4.3093 Z0.0111 I0.0034 J-0.0037
X4.2466 Y4.3167 Z0.0106 I-0.0034 J0.0037
X4.2534 Y4.3093 Z0.01 I0.0034 J-0.0037
X4.2466 Y4.3167 Z0.0095 I-0.0034 J0.0037
X4.2534 Y4.3093 Z0.0089 I0.0034 J-0.0037
X4.2466 Y4.3167 Z0.0084 I-0.0034 J0.0037
X4.2534 Y4.3093 Z0.0078 I0.0034 J-0.0037
X4.2466 Y4.3167 Z0.0073 I-0.0034 J0.0037
X4.2534 Y4.3093 Z0.0067 I0.0034 J-0.0037
X4.2466 Y4.3167 Z0.0062 I-0.0034 J0.0037
X4.2534 Y4.3093 Z0.0057 I0.0034 J-0.0037
X4.2466 Y4.3167 Z0.0051 I-0.0034 J0.0037
X4.2534 Y4.3093 Z0.0046 I0.0034 J-0.0037
X4.2466 Y4.3167 Z0.004 I-0.0034 J0.0037
X4.2534 Y4.3093 Z0.0035 I0.0034 J-0.0037
X4.2466 Y4.3167 Z0.0029 I-0.0034 J0.0037
X4.2534 Y4.3093 Z0.0024 I0.0034 J-0.0037
X4.2466 Y4.3167 Z0.0018 I-0.0034 J0.0037
X4.2534 Y4.3093 Z0.0013 I0.0034 J-0.0037
X4.2466 Y4.3167 Z0.0007 I-0.0034 J0.0037
X4.2534 Y4.3093 Z0.0002 I0.0034 J-0.0037
X4.2466 Y4.3167 Z-0.0004 I-0.0034 J0.0037
X4.2534 Y4.3093 Z-0.0009 I0.0034 J-0.0037
X4.2466 Y4.3167 Z-0.0015 I-0.0034 J0.0037
X4.2534 Y4.3093 Z-0.002 I0.0034 J-0.0037
X4.2466 Y4.3167 Z-0.0026 I-0.0034 J0.0037
X4.2534 Y4.3093 Z-0.0031 I0.0034 J-0.0037
X4.2466 Y4.3167 Z-0.0037 I-0.0034 J0.0037
X4.2534 Y4.3093 Z-0.0042 I0.0034 J-0.0037
X4.2466 Y4.3167 Z-0.0048 I-0.0034 J0.0037
X4.2534 Y4.3093 Z-0.0053 I0.0034 J-0.0037
X4.2466 Y4.3167 Z-0.0059 I-0.0034 J0.0037
X4.2534 Y4.3093 Z-0.0064 I0.0034 J-0.0037
X4.2466 Y4.3167 Z-0.007 I-0.0034 J0.0037
X4.2534 Y4.3093 Z-0.0075 I0.0034 J-0.0037
X4.2466 Y4.3167 Z-0.0081 I-0.0034 J0.0037
X4.2534 Y4.3093 Z-0.0086 I0.0034 J-0.0037
X4.2466 Y4.3167 Z-0.0092 I-0.0034 J0.0037
X4.2534 Y4.3093 Z-0.0097 I0.0034 J-0.0037
X4.2466 Y4.3167 Z-0.0103 I-0.0034 J0.0037
X4.2534 Y4.3093 Z-0.0108 I0.0034 J-0.0037
X4.2466 Y4.3167 Z-0.0114 I-0.0034 J0.0037
X4.2534 Y4.3093 Z-0.0119 I0.0034 J-0.0037
X4.2466 Y4.3167 Z-0.0124 I-0.0034 J0.0037
X4.2534 Y4.3093 Z-0.013 I0.0034 J-0.0037
X4.2466 Y4.3167 Z-0.0135 I-0.0034 J0.0037
X4.2534 Y4.3093 Z-0.0141 I0.0034 J-0.0037
X4.2466 Y4.3167 Z-0.0146 I-0.0034 J0.0037
X4.2534 Y4.3093 Z-0.0152 I0.0034 J-0.0037
X4.2466 Y4.3167 Z-0.0157 I-0.0034 J0.0037
X4.2534 Y4.3093 Z-0.0163 I0.0034 J-0.0037
X4.2466 Y4.3167 Z-0.0168 I-0.0034 J0.0037
X4.2534 Y4.3093 Z-0.0174 I0.0034 J-0.0037
X4.2466 Y4.3167 Z-0.0179 I-0.0034 J0.0037
X4.2534 Y4.3093 Z-0.0185 I0.0034 J-0.0037
X4.2466 Y4.3167 Z-0.019 I-0.0034 J0.0037
X4.2534 Y4.3093 Z-0.0196 I0.0034 J-0.0037
X4.25 Y4.318 Z-0.02 I-0.0034 J0.0037
Y4.307 I0. J-0.0055 F40.
Y4.318 I0. J0.0055
Y4.307 Z-0.0206 I0. J-0.0055 F20.
Y4.318 Z-0.0212 I0. J0.0055
Y4.307 Z-0.0218 I0. J-0.0055
Y4.318 Z-0.0224 I0. J0.0055
Y4.307 Z-0.023 I0. J-0.0055
Y4.318 Z-0.0236 I0. J0.0055
Y4.307 Z-0.0242 I0. J-0.0055
Y4.318 Z-0.0248 I0. J0.0055
Y4.307 Z-0.0254 I0. J-0.0055
Y4.318 Z-0.026 I0. J0.0055
Y4.307 Z-0.0266 I0. J-0.0055
Y4.318 Z-0.0272 I0. J0.0055
Y4.307 Z-0.0278 I0. J-0.0055
Y4.318 Z-0.0284 I0. J0.0055
Y4.307 Z-0.029 I0. J-0.0055
Y4.318 Z-0.0296 I0. J0.0055
Y4.307 Z-0.0302 I0. J-0.0055
Y4.318 Z-0.0308 I0. J0.0055
Y4.307 Z-0.0314 I0. J-0.0055
Y4.318 Z-0.032 I0. J0.0055
Y4.307 Z-0.0326 I0. J-0.0055
Y4.318 Z-0.0332 I0. J0.0055
Y4.307 Z-0.0338 I0. J-0.0055
Y4.318 Z-0.0345 I0. J0.0055
Y4.307 Z-0.0351 I0. J-0.0055
Y4.318 Z-0.0357 I0. J0.0055
Y4.307 Z-0.0363 I0. J-0.0055
Y4.318 Z-0.0369 I0. J0.0055
Y4.307 Z-0.0375 I0. J-0.0055
Y4.318 Z-0.0381 I0. J0.0055
Y4.307 Z-0.0387 I0. J-0.0055
Y4.318 Z-0.0393 I0. J0.0055
Y4.307 Z-0.0399 I0. J-0.0055
X4.2535 Y4.3083 Z-0.04 I0. J0.0055
X4.2465 Y4.3168 I-0.0035 J0.0043 F40.
X4.2535 Y4.3083 I0.0035 J-0.0043
X4.2465 Y4.3168 Z-0.0406 I-0.0035 J0.0043 F20.
X4.2535 Y4.3083 Z-0.0412 I0.0035 J-0.0043
X4.2465 Y4.3168 Z-0.0418 I-0.0035 J0.0043
X4.2535 Y4.3083 Z-0.0424 I0.0035 J-0.0043
X4.2465 Y4.3168 Z-0.043 I-0.0035 J0.0043
X4.2535 Y4.3083 Z-0.0436 I0.0035 J-0.0043
X4.2465 Y4.3168 Z-0.0442 I-0.0035 J0.0043
X4.2535 Y4.3083 Z-0.0448 I0.0035 J-0.0043
X4.2465 Y4.3168 Z-0.0454 I-0.0035 J0.0043
X4.2535 Y4.3083 Z-0.046 I0.0035 J-0.0043
X4.2465 Y4.3168 Z-0.0466 I-0.0035 J0.0043
X4.2535 Y4.3083 Z-0.0472 I0.0035 J-0.0043
X4.2465 Y4.3168 Z-0.0478 I-0.0035 J0.0043
X4.2535 Y4.3083 Z-0.0484 I0.0035 J-0.0043
X4.2465 Y4.3168 Z-0.049 I-0.0035 J0.0043
X4.2535 Y4.3083 Z-0.0496 I0.0035 J-0.0043
X4.2465 Y4.3168 Z-0.0502 I-0.0035 J0.0043
X4.2535 Y4.3083 Z-0.0508 I0.0035 J-0.0043
X4.2465 Y4.3168 Z-0.0514 I-0.0035 J0.0043
X4.2535 Y4.3083 Z-0.052 I0.0035 J-0.0043
X4.2465 Y4.3168 Z-0.0526 I-0.0035 J0.0043
X4.2535 Y4.3083 Z-0.0532 I0.0035 J-0.0043
X4.2465 Y4.3168 Z-0.0538 I-0.0035 J0.0043
X4.2535 Y4.3083 Z-0.0545 I0.0035 J-0.0043
X4.2465 Y4.3168 Z-0.0551 I-0.0035 J0.0043
X4.2535 Y4.3083 Z-0.0557 I0.0035 J-0.0043
X4.2465 Y4.3168 Z-0.0563 I-0.0035 J0.0043
X4.2535 Y4.3083 Z-0.0569 I0.0035 J-0.0043
X4.2465 Y4.3168 Z-0.0575 I-0.0035 J0.0043
X4.2535 Y4.3083 Z-0.0581 I0.0035 J-0.0043
X4.2465 Y4.3168 Z-0.0587 I-0.0035 J0.0043
X4.2535 Y4.3083 Z-0.0593 I0.0035 J-0.0043
X4.2465 Y4.3168 Z-0.0599 I-0.0035 J0.0043
X4.2446 Y4.3136 Z-0.06 I0.0035 J-0.0043
X4.2554 Y4.3114 I0.0054 J-0.0011 F40.
X4.2446 Y4.3136 I-0.0054 J0.0011
X4.2554 Y4.3114 Z-0.0606 I0.0054 J-0.0011 F20.
X4.2446 Y4.3136 Z-0.0612 I-0.0054 J0.0011
X4.2554 Y4.3114 Z-0.0618 I0.0054 J-0.0011
X4.2446 Y4.3136 Z-0.0624 I-0.0054 J0.0011
X4.2554 Y4.3114 Z-0.063 I0.0054 J-0.0011
X4.2446 Y4.3136 Z-0.0636 I-0.0054 J0.0011
X4.2554 Y4.3114 Z-0.0642 I0.0054 J-0.0011
X4.2446 Y4.3136 Z-0.0648 I-0.0054 J0.0011
X4.2554 Y4.3114 Z-0.0654 I0.0054 J-0.0011
X4.2446 Y4.3136 Z-0.066 I-0.0054 J0.0011
X4.2554 Y4.3114 Z-0.0666 I0.0054 J-0.0011
X4.2446 Y4.3136 Z-0.0672 I-0.0054 J0.0011
X4.2554 Y4.3114 Z-0.0678 I0.0054 J-0.0011
X4.2446 Y4.3136 Z-0.0684 I-0.0054 J0.0011
X4.2554 Y4.3114 Z-0.069 I0.0054 J-0.0011
X4.2446 Y4.3136 Z-0.0696 I-0.0054 J0.0011
X4.2554 Y4.3114 Z-0.0702 I0.0054 J-0.0011
X4.2446 Y4.3136 Z-0.0708 I-0.0054 J0.0011
X4.2554 Y4.3114 Z-0.0714 I0.0054 J-0.0011
X4.2446 Y4.3136 Z-0.072 I-0.0054 J0.0011
X4.2554 Y4.3114 Z-0.0726 I0.0054 J-0.0011
X4.2446 Y4.3136 Z-0.0732 I-0.0054 J0.0011
X4.2554 Y4.3114 Z-0.0738 I0.0054 J-0.0011
X4.2446 Y4.3136 Z-0.0745 I-0.0054 J0.0011
X4.2554 Y4.3114 Z-0.0751 I0.0054 J-0.0011
X4.2446 Y4.3136 Z-0.0757 I-0.0054 J0.0011
X4.2554 Y4.3114 Z-0.0763 I0.0054 J-0.0011
X4.2446 Y4.3136 Z-0.0769 I-0.0054 J0.0011
X4.2554 Y4.3114 Z-0.0775 I0.0054 J-0.0011
X4.2446 Y4.3136 Z-0.0781 I-0.0054 J0.0011
X4.2554 Y4.3114 Z-0.0787 I0.0054 J-0.0011
X4.2446 Y4.3136 Z-0.0793 I-0.0054 J0.0011
X4.2554 Y4.3114 Z-0.0799 I0.0054 J-0.0011
X4.2549 Y4.3151 Z-0.08 I-0.0054 J0.0011
X4.2451 Y4.31 I-0.0049 J-0.0025 F40.
X4.2549 Y4.3151 I0.0049 J0.0025
X4.2451 Y4.31 Z-0.0806 I-0.0049 J-0.0025 F20.
X4.2549 Y4.3151 Z-0.0812 I0.0049 J0.0025
X4.2451 Y4.31 Z-0.0818 I-0.0049 J-0.0025
X4.2549 Y4.3151 Z-0.0824 I0.0049 J0.0025
X4.2451 Y4.31 Z-0.083 I-0.0049 J-0.0025
X4.2549 Y4.3151 Z-0.0836 I0.0049 J0.0025
X4.2451 Y4.31 Z-0.0842 I-0.0049 J-0.0025
X4.2549 Y4.3151 Z-0.0848 I0.0049 J0.0025
X4.2451 Y4.31 Z-0.0854 I-0.0049 J-0.0025
X4.2549 Y4.3151 Z-0.086 I0.0049 J0.0025
X4.2451 Y4.31 Z-0.0866 I-0.0049 J-0.0025
X4.2549 Y4.3151 Z-0.0872 I0.0049 J0.0025
X4.2451 Y4.31 Z-0.0878 I-0.0049 J-0.0025
X4.2549 Y4.3151 Z-0.0884 I0.0049 J0.0025
X4.2451 Y4.31 Z-0.089 I-0.0049 J-0.0025
X4.2549 Y4.3151 Z-0.0896 I0.0049 J0.0025
X4.2451 Y4.31 Z-0.0902 I-0.0049 J-0.0025
X4.2549 Y4.3151 Z-0.0908 I0.0049 J0.0025
X4.2451 Y4.31 Z-0.0914 I-0.0049 J-0.0025
X4.2549 Y4.3151 Z-0.092 I0.0049 J0.0025
X4.2451 Y4.31 Z-0.0926 I-0.0049 J-0.0025
X4.2549 Y4.3151 Z-0.0932 I0.0049 J0.0025
X4.2451 Y4.31 Z-0.0938 I-0.0049 J-0.0025
X4.2549 Y4.3151 Z-0.0945 I0.0049 J0.0025
X4.2451 Y4.31 Z-0.0951 I-0.0049 J-0.0025
X4.2549 Y4.3151 Z-0.0957 I0.0049 J0.0025
X4.2451 Y4.31 Z-0.0963 I-0.0049 J-0.0025
X4.2549 Y4.3151 Z-0.0969 I0.0049 J0.0025
X4.2451 Y4.31 Z-0.0975 I-0.0049 J-0.0025
X4.2549 Y4.3151 Z-0.0981 I0.0049 J0.0025
X4.2451 Y4.31 Z-0.0987 I-0.0049 J-0.0025
X4.2549 Y4.3151 Z-0.0993 I0.0049 J0.0025
X4.2451 Y4.31 Z-0.0999 I-0.0049 J-0.0025
X4.2478 Y4.3075 Z-0.1 I0.0049 J0.0025
X4.2522 Y4.3176 I0.0022 J0.005 F40.
X4.2478 Y4.3075 I-0.0022 J-0.005
X4.2522 Y4.3176 Z-0.1006 I0.0022 J0.005 F20.
X4.2478 Y4.3075 Z-0.1012 I-0.0022 J-0.005
X4.2522 Y4.3176 Z-0.1018 I0.0022 J0.005
X4.2478 Y4.3075 Z-0.1024 I-0.0022 J-0.005
X4.2522 Y4.3176 Z-0.103 I0.0022 J0.005
X4.2478 Y4.3075 Z-0.1036 I-0.0022 J-0.005
X4.2522 Y4.3176 Z-0.1042 I0.0022 J0.005
X4.2478 Y4.3075 Z-0.1048 I-0.0022 J-0.005
X4.2522 Y4.3176 Z-0.1054 I0.0022 J0.005
X4.2478 Y4.3075 Z-0.106 I-0.0022 J-0.005
X4.2522 Y4.3176 Z-0.1066 I0.0022 J0.005
X4.2478 Y4.3075 Z-0.1072 I-0.0022 J-0.005
X4.2522 Y4.3176 Z-0.1078 I0.0022 J0.005
X4.2478 Y4.3075 Z-0.1084 I-0.0022 J-0.005
X4.2522 Y4.3176 Z-0.109 I0.0022 J0.005
X4.2478 Y4.3075 Z-0.1096 I-0.0022 J-0.005
X4.2522 Y4.3176 Z-0.1102 I0.0022 J0.005
X4.2478 Y4.3075 Z-0.1108 I-0.0022 J-0.005
X4.2522 Y4.3176 Z-0.1114 I0.0022 J0.005
X4.2478 Y4.3075 Z-0.112 I-0.0022 J-0.005
X4.2522 Y4.3176 Z-0.1126 I0.0022 J0.005
X4.2478 Y4.3075 Z-0.1132 I-0.0022 J-0.005
X4.2522 Y4.3176 Z-0.1138 I0.0022 J0.005
X4.2478 Y4.3075 Z-0.1145 I-0.0022 J-0.005
X4.2522 Y4.3176 Z-0.1151 I0.0022 J0.005
X4.2478 Y4.3075 Z-0.1157 I-0.0022 J-0.005
X4.2522 Y4.3176 Z-0.1163 I0.0022 J0.005
X4.2478 Y4.3075 Z-0.1169 I-0.0022 J-0.005
X4.2522 Y4.3176 Z-0.1175 I0.0022 J0.005
X4.2478 Y4.3075 Z-0.1181 I-0.0022 J-0.005
X4.2522 Y4.3176 Z-0.1187 I0.0022 J0.005
X4.2478 Y4.3075 Z-0.1193 I-0.0022 J-0.005
X4.2522 Y4.3176 Z-0.1199 I0.0022 J0.005
X4.2485 Y4.3178 Z-0.12 I-0.0022 J-0.005
X4.2515 Y4.3072 I0.0015 J-0.0053 F40.
X4.2485 Y4.3178 I-0.0015 J0.0053
X4.2515 Y4.3072 Z-0.1206 I0.0015 J-0.0053 F20.
X4.2485 Y4.3178 Z-0.1212 I-0.0015 J0.0053
X4.2515 Y4.3072 Z-0.1218 I0.0015 J-0.0053
X4.2485 Y4.3178 Z-0.1224 I-0.0015 J0.0053
X4.2515 Y4.3072 Z-0.123 I0.0015 J-0.0053
X4.2485 Y4.3178 Z-0.1236 I-0.0015 J0.0053
X4.2515 Y4.3072 Z-0.1242 I0.0015 J-0.0053
X4.2485 Y4.3178 Z-0.1248 I-0.0015 J0.0053
X4.2515 Y4.3072 Z-0.1254 I0.0015 J-0.0053
X4.2485 Y4.3178 Z-0.126 I-0.0015 J0.0053
X4.2515 Y4.3072 Z-0.1266 I0.0015 J-0.0053
X4.2485 Y4.3178 Z-0.1272 I-0.0015 J0.0053
X4.2515 Y4.3072 Z-0.1278 I0.0015 J-0.0053
X4.2485 Y4.3178 Z-0.1284 I-0.0015 J0.0053
X4.2515 Y4.3072 Z-0.129 I0.0015 J-0.0053
X4.2485 Y4.3178 Z-0.1296 I-0.0015 J0.0053
X4.2515 Y4.3072 Z-0.1302 I0.0015 J-0.0053
X4.2485 Y4.3178 Z-0.1308 I-0.0015 J0.0053
X4.2515 Y4.3072 Z-0.1314 I0.0015 J-0.0053
X4.2485 Y4.3178 Z-0.132 I-0.0015 J0.0053
X4.2515 Y4.3072 Z-0.1326 I0.0015 J-0.0053
X4.2485 Y4.3178 Z-0.1332 I-0.0015 J0.0053
X4.2515 Y4.3072 Z-0.1338 I0.0015 J-0.0053
X4.2485 Y4.3178 Z-0.1345 I-0.0015 J0.0053
X4.2515 Y4.3072 Z-0.1351 I0.0015 J-0.0053
X4.2485 Y4.3178 Z-0.1357 I-0.0015 J0.0053
X4.2515 Y4.3072 Z-0.1363 I0.0015 J-0.0053
X4.2485 Y4.3178 Z-0.1369 I-0.0015 J0.0053
X4.2515 Y4.3072 Z-0.1375 I0.0015 J-0.0053
X4.2485 Y4.3178 Z-0.1381 I-0.0015 J0.0053
X4.2515 Y4.3072 Z-0.1387 I0.0015 J-0.0053
X4.2485 Y4.3178 Z-0.1393 I-0.0015 J0.0053
X4.2515 Y4.3072 Z-0.1399 I0.0015 J-0.0053
X4.2545 Y4.3094 Z-0.14 I-0.0015 J0.0053
X4.2455 Y4.3157 I-0.0045 J0.0032 F40.
X4.2545 Y4.3094 I0.0045 J-0.0032
X4.2455 Y4.3157 Z-0.1406 I-0.0045 J0.0032 F20.
X4.2545 Y4.3094 Z-0.1412 I0.0045 J-0.0032
X4.2455 Y4.3157 Z-0.1418 I-0.0045 J0.0032
X4.2545 Y4.3094 Z-0.1424 I0.0045 J-0.0032
X4.2455 Y4.3157 Z-0.143 I-0.0045 J0.0032
X4.2545 Y4.3094 Z-0.1436 I0.0045 J-0.0032
X4.2455 Y4.3157 Z-0.1442 I-0.0045 J0.0032
X4.2545 Y4.3094 Z-0.1448 I0.0045 J-0.0032
X4.2455 Y4.3157 Z-0.1454 I-0.0045 J0.0032
X4.2545 Y4.3094 Z-0.146 I0.0045 J-0.0032
X4.2455 Y4.3157 Z-0.1466 I-0.0045 J0.0032
X4.2545 Y4.3094 Z-0.1472 I0.0045 J-0.0032
X4.2455 Y4.3157 Z-0.1478 I-0.0045 J0.0032
X4.2545 Y4.3094 Z-0.1484 I0.0045 J-0.0032
X4.2455 Y4.3157 Z-0.149 I-0.0045 J0.0032
X4.2545 Y4.3094 Z-0.1496 I0.0045 J-0.0032
X4.2455 Y4.3157 Z-0.1502 I-0.0045 J0.0032
X4.2545 Y4.3094 Z-0.1508 I0.0045 J-0.0032
X4.2455 Y4.3157 Z-0.1514 I-0.0045 J0.0032
X4.2545 Y4.3094 Z-0.152 I0.0045 J-0.0032
X4.2489 Y4.3179 Z-0.1525 I-0.0045 J0.0032
X4.2511 Y4.3071 I0.0011 J-0.0054 F40.
X4.2489 Y4.3179 I-0.0011 J0.0054
X4.2511 Y4.3071 Z-0.1531 I0.0011 J-0.0054 F20.
X4.2489 Y4.3179 Z-0.1537 I-0.0011 J0.0054
X4.2511 Y4.3071 Z-0.1543 I0.0011 J-0.0054
X4.2489 Y4.3179 Z-0.1549 I-0.0011 J0.0054
X4.2511 Y4.3071 Z-0.1555 I0.0011 J-0.0054
X4.2489 Y4.3179 Z-0.1561 I-0.0011 J0.0054
X4.2511 Y4.3071 Z-0.1567 I0.0011 J-0.0054
X4.2489 Y4.3179 Z-0.1573 I-0.0011 J0.0054
X4.2511 Y4.3071 Z-0.1579 I0.0011 J-0.0054
X4.2489 Y4.3179 Z-0.1585 I-0.0011 J0.0054
X4.2511 Y4.3071 Z-0.1591 I0.0011 J-0.0054
X4.2489 Y4.3179 Z-0.1597 I-0.0011 J0.0054
X4.2511 Y4.3071 Z-0.1603 I0.0011 J-0.0054
X4.2489 Y4.3179 Z-0.1609 I-0.0011 J0.0054
X4.2511 Y4.3071 Z-0.1615 I0.0011 J-0.0054
X4.2489 Y4.3179 Z-0.1621 I-0.0011 J0.0054
X4.2511 Y4.3071 Z-0.1627 I0.0011 J-0.0054
X4.2489 Y4.3179 Z-0.1633 I-0.0011 J0.0054
X4.2511 Y4.3071 Z-0.1639 I0.0011 J-0.0054
X4.2489 Y4.3179 Z-0.1645 I-0.0011 J0.0054
X4.2472 Y4.3078 Z-0.165 I0.0011 J-0.0054
X4.2528 Y4.3172 I0.0028 J0.0047 F40.
X4.2472 Y4.3078 I-0.0028 J-0.0047
G1 X4.2485 Y4.3072 Z-0.1648
X4.25 Y4.307 Z-0.1646
X4.2513 Y4.3072 Z-0.164
X4.2526 Y4.3077 Z-0.1633
X4.2537 Y4.3084 Z-0.1627
X4.2546 Y4.3096 Z-0.1611
X4.2553 Y4.3109 Z-0.1595
X4.2555 Y4.3125 Z-0.1553
Y4.3127 Z-0.1532
G0 Z0.2
X5.7503 Y5.8175
G1 Z0.1118 F40.
X5.7495 Y5.8174 Z0.1075 F20.
X5.7485 Y5.8171 Z0.1057
X5.7475 Y5.8165 Z0.1039
X5.7466 Y5.8156 Z0.1029
X5.7459 Y5.8146 Z0.102
X5.7456 Y5.8134 Z0.1011
X5.7455 Y5.8119 Z0.1007
X5.746 Y5.8104 Z0.1004
X5.7468 Y5.8092 Z0.1
G3 X5.7542 Y5.8159 Z0.0995 I0.0037 J0.0034
X5.7468 Y5.8092 Z0.0989 I-0.0037 J-0.0034
X5.7542 Y5.8159 Z0.0984 I0.0037 J0.0034
X5.7468 Y5.8092 Z0.0978 I-0.0037 J-0.0034
X5.7542 Y5.8159 Z0.0973 I0.0037 J0.0034
X5.7468 Y5.8092 Z0.0967 I-0.0037 J-0.0034
X5.7542 Y5.8159 Z0.0962 I0.0037 J0.0034
X5.7468 Y5.8092 Z0.0956 I-0.0037 J-0.0034
X5.7542 Y5.8159 Z0.0951 I0.0037 J0.0034
X5.7468 Y5.8092 Z0.0945 I-0.0037 J-0.0034
X5.7542 Y5.8159 Z0.094 I0.0037 J0.0034
X5.7468 Y5.8092 Z0.0934 I-0.0037 J-0.0034
X5.7542 Y5.8159 Z0.0929 I0.0037 J0.0034
X5.7468 Y5.8092 Z0.0923 I-0.0037 J-0.0034
X5.7542 Y5.8159 Z0.0918 I0.0037 J0.0034
X5.7468 Y5.8092 Z0.0912 I-0.0037 J-0.0034
X5.7542 Y5.8159 Z0.0907 I0.0037 J0.0034
X5.7468 Y5.8092 Z0.0901 I-0.0037 J-0.0034
X5.7542 Y5.8159 Z0.0896 I0.0037 J0.0034
X5.7468 Y5.8092 Z0.089 I-0.0037 J-0.0034
X5.7542 Y5.8159 Z0.0885 I0.0037 J0.0034
X5.7468 Y5.8092 Z0.0879 I-0.0037 J-0.0034
X5.7542 Y5.8159 Z0.0874 I0.0037 J0.0034
X5.7468 Y5.8092 Z0.0868 I-0.0037 J-0.0034
X5.7542 Y5.8159 Z0.0863 I0.0037 J0.0034
X5.7468 Y5.8092 Z0.0857 I-0.0037 J-0.0034
X5.7542 Y5.8159 Z0.0852 I0.0037 J0.0034
X5.7468 Y5.8092 Z0.0846 I-0.0037 J-0.0034
X5.7542 Y5.8159 Z0.0841 I0.0037 J0.0034
X5.7468 Y5.8092 Z0.0835 I-0.0037 J-0.0034
X5.7542 Y5.8159 Z0.083 I0.0037 J0.0034
X5.7468 Y5.8092 Z0.0824 I-0.0037 J-0.0034
X5.7542 Y5.8159 Z0.0819 I0.0037 J0.0034
X5.7468 Y5.8092 Z0.0813 I-0.0037 J-0.0034
X5.7542 Y5.8159 Z0.0808 I0.0037 J0.0034
X5.7468 Y5.8092 Z0.0803 I-0.0037 J-0.0034
X5.7542 Y5.8159 Z0.0797 I0.0037 J0.0034
X5.7468 Y5.8092 Z0.0792 I-0.0037 J-0.0034
X5.7542 Y5.8159 Z0.0786 I0.0037 J0.0034
X5.7468 Y5.8092 Z0.0781 I-0.0037 J-0.0034
X5.7542 Y5.8159 Z0.0775 I0.0037 J0.0034
X5.7468 Y5.8092 Z0.077 I-0.0037 J-0.0034
X5.7542 Y5.8159 Z0.0764 I0.0037 J0.0034
X5.7468 Y5.8092 Z0.0759 I-0.0037 J-0.0034
X5.7542 Y5.8159 Z0.0753 I0.0037 J0.0034
X5.7468 Y5.8092 Z0.0748 I-0.0037 J-0.0034
X5.7542 Y5.8159 Z0.0742 I0.0037 J0.0034
X5.7468 Y5.8092 Z0.0737 I-0.0037 J-0.0034
X5.7542 Y5.8159 Z0.0731 I0.0037 J0.0034
X5.7468 Y5.8092 Z0.0726 I-0.0037 J-0.0034
X5.7542 Y5.8159 Z0.072 I0.0037 J0.0034
X5.7468 Y5.8092 Z0.0715 I-0.0037 J-0.0034
X5.7542 Y5.8159 Z0.0709 I0.0037 J0.0034
X5.7468 Y5.8092 Z0.0704 I-0.0037 J-0.0034
X5.7542 Y5.8159 Z0.0698 I0.0037 J0.0034
X5.7468 Y5.8092 Z0.0693 I-0.0037 J-0.0034
X5.7542 Y5.8159 Z0.0687 I0.0037 J0.0034
X5.7468 Y5.8092 Z0.0682 I-0.0037 J-0.0034
X5.7542 Y5.8159 Z0.0676 I0.0037 J0.0034
X5.7468 Y5.8092 Z0.0671 I-0.0037 J-0.0034
X5.7542 Y5.8159 Z0.0665 I0.0037 J0.0034
X5.7468 Y5.8092 Z0.066 I-0.0037 J-0.0034
X5.7542 Y5.8159 Z0.0654 I0.0037 J0.0034
X5.7468 Y5.8092 Z0.0649 I-0.0037 J-0.0034
X5.7542 Y5.8159 Z0.0643 I0.0037 J0.0034
X5.7468 Y5.8092 Z0.0638 I-0.0037 J-0.0034
X5.7542 Y5.8159 Z0.0632 I0.0037 J0.0034
X5.7468 Y5.8092 Z0.0627 I-0.0037 J-0.0034
X5.7542 Y5.8159 Z0.0622 I0.0037 J0.0034
X5.7468 Y5.8092 Z0.0616 I-0.0037 J-0.0034
X5.7542 Y5.8159 Z0.0611 I0.0037 J0.0034
X5.7468 Y5.8092 Z0.0605 I-0.0037 J-0.0034
X5.7542 Y5.8159 Z0.06 I0.0037 J0.0034
X5.7468 Y5.8092 Z0.0594 I-0.0037 J-0.0034
X5.7542 Y5.8159 Z0.0589 I0.0037 J0.0034
X5.7468 Y5.8092 Z0.0583 I-0.0037 J-0.0034
X5.7542 Y5.8159 Z0.0578 I0.0037 J0.0034
X5.7468 Y5.8092 Z0.0572 I-0.0037 J-0.0034
X5.7542 Y5.8159 Z0.0567 I0.0037 J0.0034
X5.7468 Y5.8092 Z0.0561 I-0.0037 J-0.0034
X5.7542 Y5.8159 Z0.0556 I0.0037 J0.0034
X5.7468 Y5.8092 Z0.055 I-0.0037 J-0.0034
X5.7542 Y5.8159 Z0.0545 I0.0037 J0.0034
X5.7468 Y5.8092 Z0.0539 I-0.0037 J-0.0034
X5.7542 Y5.8159 Z0.0534 I0.0037 J0.0034
X5.7468 Y5.8092 Z0.0528 I-0.0037 J-0.0034
X5.7542 Y5.8159 Z0.0523 I0.0037 J0.0034
X5.7468 Y5.8092 Z0.0517 I-0.0037 J-0.0034
X5.7542 Y5.8159 Z0.0512 I0.0037 J0.0034
X5.7468 Y5.8092 Z0.0506 I-0.0037 J-0.0034
X5.7542 Y5.8159 Z0.0501 I0.0037 J0.0034
X5.7468 Y5.8092 Z0.0495 I-0.0037 J-0.0034
X5.7542 Y5.8159 Z0.049 I0.0037 J0.0034
X5.7468 Y5.8092 Z0.0484 I-0.0037 J-0.0034
X5.7542 Y5.8159 Z0.0479 I0.0037 J0.0034
X5.7468 Y5.8092 Z0.0473 I-0.0037 J-0.0034
X5.7542 Y5.8159 Z0.0468 I0.0037 J0.0034
X5.7468 Y5.8092 Z0.0462 I-0.0037 J-0.0034
X5.7542 Y5.8159 Z0.0457 I0.0037 J0.0034
X5.7468 Y5.8092 Z0.0451 I-0.0037 J-0.0034
X5.7542 Y5.8159 Z0.0446 I0.0037 J0.0034
X5.7468 Y5.8092 Z0.044 I-0.0037 J-0.0034
X5.7542 Y5.8159 Z0.0435 I0.0037 J0.0034
X5.7468 Y5.8092 Z0.043 I-0.0037 J-0.0034
X5.7542 Y5.8159 Z0.0424 I0.0037 J0.0034
X5.7468 Y5.8092 Z0.0419 I-0.0037 J-0.0034
X5.7542 Y5.8159 Z0.0413 I0.0037 J0.0034
X5.7468 Y5.8092 Z0.0408 I-0.0037 J-0.0034
X5.7542 Y5.8159 Z0.0402 I0.0037 J0.0034
X5.7468 Y5.8092 Z0.0397 I-0.0037 J-0.0034
X5.7542 Y5.8159 Z0.0391 I0.0037 J0.0034
X5.7468 Y5.8092 Z0.0386 I-0.0037 J-0.0034
X5.7542 Y5.8159 Z0.038 I0.0037 J0.0034
X5.7468 Y5.8092 Z0.0375 I-0.0037 J-0.0034
X5.7542 Y5.8159 Z0.0369 I0.0037 J0.0034
X5.7468 Y5.8092 Z0.0364 I-0.0037 J-0.0034
X5.7542 Y5.8159 Z0.0358 I0.0037 J0.0034
X5.7468 Y5.8092 Z0.0353 I-0.0037 J-0.0034
X5.7542 Y5.8159 Z0.0347 I0.0037 J0.0034
X5.7468 Y5.8092 Z0.0342 I-0.0037 J-0.0034
X5.7542 Y5.8159 Z0.0336 I0.0037 J0.0034
X5.7468 Y5.8092 Z0.0331 I-0.0037 J-0.0034
X5.7542 Y5.8159 Z0.0325 I0.0037 J0.0034
X5.7468 Y5.8092 Z0.032 I-0.0037 J-0.0034
X5.7542 Y5.8159 Z0.0314 I0.0037 J0.0034
X5.7468 Y5.8092 Z0.0309 I-0.0037 J-0.0034
X5.7542 Y5.8159 Z0.0303 I0.0037 J0.0034
X5.7468 Y5.8092 Z0.0298 I-0.0037 J-0.0034
X5.7542 Y5.8159 Z0.0292 I0.0037 J0.0034
X5.7468 Y5.8092 Z0.0287 I-0.0037 J-0.0034
X5.7542 Y5.8159 Z0.0281 I0.0037 J0.0034
X5.7468 Y5.8092 Z0.0276 I-0.0037 J-0.0034
X5.7542 Y5.8159 Z0.027 I0.0037 J0.0034
X5.7468 Y5.8092 Z0.0265 I-0.0037 J-0.0034
X5.7542 Y5.8159 Z0.0259 I0.0037 J0.0034
X5.7468 Y5.8092 Z0.0254 I-0.0037 J-0.0034
X5.7542 Y5.8159 Z0.0249 I0.0037 J0.0034
X5.7468 Y5.8092 Z0.0243 I-0.0037 J-0.0034
X5.7542 Y5.8159 Z0.0238 I0.0037 J0.0034
X5.7468 Y5.8092 Z0.0232 I-0.0037 J-0.0034
X5.7542 Y5.8159 Z0.0227 I0.0037 J0.0034
X5.7468 Y5.8092 Z0.0221 I-0.0037 J-0.0034
X5.7542 Y5.8159 Z0.0216 I0.0037 J0.0034
X5.7468 Y5.8092 Z0.021 I-0.0037 J-0.0034
X5.7542 Y5.8159 Z0.0205 I0.0037 J0.0034
X5.7468 Y5.8092 Z0.0199 I-0.0037 J-0.0034
X5.7542 Y5.8159 Z0.0194 I0.0037 J0.0034
X5.7468 Y5.8092 Z0.0188 I-0.0037 J-0.0034
X5.7542 Y5.8159 Z0.0183 I0.0037 J0.0034
X5.7468 Y5.8092 Z0.0177 I-0.0037 J-0.0034
X5.7542 Y5.8159 Z0.0172 I0.0037 J0.0034
X5.7468 Y5.8092 Z0.0166 I-0.0037 J-0.0034
X5.7542 Y5.8159 Z0.0161 I0.0037 J0.0034
X5.7468 Y5.8092 Z0.0155 I-0.0037 J-0.0034
X5.7542 Y5.8159 Z0.015 I0.0037 J0.0034
X5.7468 Y5.8092 Z0.0144 I-0.0037 J-0.0034
X5.7542 Y5.8159 Z0.0139 I0.0037 J0.0034
X5.7468 Y5.8092 Z0.0133 I-0.0037 J-0.0034
X5.7542 Y5.8159 Z0.0128 I0.0037 J0.0034
X5.7468 Y5.8092 Z0.0122 I-0.0037 J-0.0034
X5.7542 Y5.8159 Z0.0117 I0.0037 J0.0034
X5.7468 Y5.8092 Z0.0111 I-0.0037 J-0.0034
X5.7542 Y5.8159 Z0.0106 I0.0037 J0.0034
X5.7468 Y5.8092 Z0.01 I-0.0037 J-0.0034
X5.7542 Y5.8159 Z0.0095 I0.0037 J0.0034
X5.7468 Y5.8092 Z0.0089 I-0.0037 J-0.0034
X5.7542 Y5.8159 Z0.0084 I0.0037 J0.0034
X5.7468 Y5.8092 Z0.0078 I-0.0037 J-0.0034
X5.7542 Y5.8159 Z0.0073 I0.0037 J0.0034
X5.7468 Y5.8092 Z0.0067 I-0.0037 J-0.0034
X5.7542 Y5.8159 Z0.0062 I0.0037 J0.0034
X5.7468 Y5.8092 Z0.0057 I-0.0037 J-0.0034
X5.7542 Y5.8159 Z0.0051 I0.0037 J0.0034
X5.7468 Y5.8092 Z0.0046 I-0.0037 J-0.0034
X5.7542 Y5.8159 Z0.004 I0.0037 J0.0034
X5.7468 Y5.8092 Z0.0035 I-0.0037 J-0.0034
X5.7542 Y5.8159 Z0.0029 I0.0037 J0.0034
X5.7468 Y5.8092 Z0.0024 I-0.0037 J-0.0034
X5.7542 Y5.8159 Z0.0018 I0.0037 J0.0034
X5.7468 Y5.8092 Z0.0013 I-0.0037 J-0.0034
X5.7542 Y5.8159 Z0.0007 I0.0037 J0.0034
X5.7468 Y5.8092 Z0.0002 I-0.0037 J-0.0034
X5.7542 Y5.8159 Z-0.0004 I0.0037 J0.0034
X5.7468 Y5.8092 Z-0.0009 I-0.0037 J-0.0034
X5.7542 Y5.8159 Z-0.0015 I0.0037 J0.0034
X5.7468 Y5.8092 Z-0.002 I-0.0037 J-0.0034
X5.7542 Y5.8159 Z-0.0026 I0.0037 J0.0034
X5.7468 Y5.8092 Z-0.0031 I-0.0037 J-0.0034
X5.7542 Y5.8159 Z-0.0037 I0.0037 J0.0034
X5.7468 Y5.8092 Z-0.0042 I-0.0037 J-0.0034
X5.7542 Y5.8159 Z-0.0048 I0.0037 J0.0034
X5.7468 Y5.8092 Z-0.0053 I-0.0037 J-0.0034
X5.7542 Y5.8159 Z-0.0059 I0.0037 J0.0034
X5.7468 Y5.8092 Z-0.0064 I-0.0037 J-0.0034
X5.7542 Y5.8159 Z-0.007 I0.0037 J0.0034
X5.7468 Y5.8092 Z-0.0075 I-0.0037 J-0.0034
X5.7542 Y5.8159 Z-0.0081 I0.0037 J0.0034
X5.7468 Y5.8092 Z-0.0086 I-0.0037 J-0.0034
X5.7542 Y5.8159 Z-0.0092 I0.0037 J0.0034
X5.7468 Y5.8092 Z-0.0097 I-0.0037 J-0.0034
X5.7542 Y5.8159 Z-0.0103 I0.0037 J0.0034
X5.7468 Y5.8092 Z-0.0108 I-0.0037 J-0.0034
X5.7542 Y5.8159 Z-0.0114 I0.0037 J0.0034
X5.7468 Y5.8092 Z-0.0119 I-0.0037 J-0.0034
X5.7542 Y5.8159 Z-0.0124 I0.0037 J0.0034
X5.7468 Y5.8092 Z-0.013 I-0.0037 J-0.0034
X5.7542 Y5.8159 Z-0.0135 I0.0037 J0.0034
X5.7468 Y5.8092 Z-0.0141 I-0.0037 J-0.0034
X5.7542 Y5.8159 Z-0.0146 I0.0037 J0.0034
X5.7468 Y5.8092 Z-0.0152 I-0.0037 J-0.0034
X5.7542 Y5.8159 Z-0.0157 I0.0037 J0.0034
X5.7468 Y5.8092 Z-0.0163 I-0.0037 J-0.0034
X5.7542 Y5.8159 Z-0.0168 I0.0037 J0.0034
X5.7468 Y5.8092 Z-0.0174 I-0.0037 J-0.0034
X5.7542 Y5.8159 Z-0.0179 I0.0037 J0.0034
X5.7468 Y5.8092 Z-0.0185 I-0.0037 J-0.0034
X5.7542 Y5.8159 Z-0.019 I0.0037 J0.0034
X5.7468 Y5.8092 Z-0.0196 I-0.0037 J-0.0034
X5.7555 Y5.8125 Z-0.02 I0.0037 J0.0034
X5.7445 I-0.0055 J0. F40.
X5.7555 I0.0055 J0.
X5.7445 Z-0.0206 I-0.0055 J0. F20.
X5.7555 Z-0.0212 I0.0055 J0.
X5.7445 Z-0.0218 I-0.0055 J0.
X5.7555 Z-0.0224 I0.0055 J0.
X5.7445 Z-0.023 I-0.0055 J0.
X5.7555 Z-0.0236 I0.0055 J0.
X5.7445 Z-0.0242 I-0.0055 J0.
X5.7555 Z-0.0248 I0.0055 J0.
X5.7445 Z-0.0254 I-0.0055 J0.
X5.7555 Z-0.026 I0.0055 J0.
X5.7445 Z-0.0266 I-0.0055 J0.
X5.7555 Z-0.0272 I0.0055 J0.
X5.7445 Z-0.0278 I-0.0055 J0.
X5.7555 Z-0.0284 I0.0055 J0.
X5.7445 Z-0.029 I-0.0055 J0.
X5.7555 Z-0.0296 I0.0055 J0.
X5.7445 Z-0.0302 I-0.0055 J0.
X5.7555 Z-0.0308 I0.0055 J0.
X5.7445 Z-0.0314 I-0.0055 J0.
X5.7555 Z-0.032 I0.0055 J0.
X5.7445 Z-0.0326 I-0.0055 J0.
X5.7555 Z-0.0332 I0.0055 J0.
X5.7445 Z-0.0338 I-0.0055 J0.
X5.7555 Z-0.0345 I0.0055 J0.
X5.7445 Z-0.0351 I-0.0055 J0.
X5.7555 Z-0.0357 I0.0055 J0.
X5.7445 Z-0.0363 I-0.0055 J0.
X5.7555 Z-0.0369 I0.0055 J0.
X5.7445 Z-0.0375 I-0.0055 J0.
X5.7555 Z-0.0381 I0.0055 J0.
X5.7445 Z-0.0387 I-0.0055 J0.
X5.7555 Z-0.0393 I0.0055 J0.
X5.7445 Z-0.0399 I-0.0055 J0.
X5.7457 Y5.8091 Z-0.04 I0.0055 J0.
X5.7543 Y5.816 I0.0043 J0.0035 F40.
X5.7457 Y5.8091 I-0.0043 J-0.0035
X5.7543 Y5.816 Z-0.0406 I0.0043 J0.0035 F20.
X5.7457 Y5.8091 Z-0.0412 I-0.0043 J-0.0035
X5.7543 Y5.816 Z-0.0418 I0.0043 J0.0035
X5.7457 Y5.8091 Z-0.0424 I-0.0043 J-0.0035
X5.7543 Y5.816 Z-0.043 I0.0043 J0.0035
X5.7457 Y5.8091 Z-0.0436 I-0.0043 J-0.0035
X5.7543 Y5.816 Z-0.0442 I0.0043 J0.0035
X5.7457 Y5.8091 Z-0.0448 I-0.0043 J-0.0035
X5.7543 Y5.816 Z-0.0454 I0.0043 J0.0035
X5.7457 Y5.8091 Z-0.046 I-0.0043 J-0.0035
X5.7543 Y5.816 Z-0.0466 I0.0043 J0.0035
X5.7457 Y5.8091 Z-0.0472 I-0.0043 J-0.0035
X5.7543 Y5.816 Z-0.0478 I0.0043 J0.0035
X5.7457 Y5.8091 Z-0.0484 I-0.0043 J-0.0035
X5.7543 Y5.816 Z-0.049 I0.0043 J0.0035
X5.7457 Y5.8091 Z-0.0496 I-0.0043 J-0.0035
X5.7543 Y5.816 Z-0.0502 I0.0043 J0.0035
X5.7457 Y5.8091 Z-0.0508 I-0.0043 J-0.0035
X5.7543 Y5.816 Z-0.0514 I0.0043 J0.0035
X5.7457 Y5.8091 Z-0.052 I-0.0043 J-0.0035
X5.7543 Y5.816 Z-0.0526 I0.0043 J0.0035
X5.7457 Y5.8091 Z-0.0532 I-0.0043 J-0.0035
X5.7543 Y5.816 Z-0.0538 I0.0043 J0.0035
X5.7457 Y5.8091 Z-0.0545 I-0.0043 J-0.0035
X5.7543 Y5.816 Z-0.0551 I0.0043 J0.0035
X5.7457 Y5.8091 Z-0.0557 I-0.0043 J-0.0035
X5.7543 Y5.816 Z-0.0563 I0.0043 J0.0035
X5.7457 Y5.8091 Z-0.0569 I-0.0043 J-0.0035
X5.7543 Y5.816 Z-0.0575 I0.0043 J0.0035
X5.7457 Y5.8091 Z-0.0581 I-0.0043 J-0.0035
X5.7543 Y5.816 Z-0.0587 I0.0043 J0.0035
X5.7457 Y5.8091 Z-0.0593 I-0.0043 J-0.0035
X5.7543 Y5.816 Z-0.0599 I0.0043 J0.0035
X5.7511 Y5.8179 Z-0.06 I-0.0043 J-0.0035
X5.7489 Y5.8071 I-0.0011 J-0.0054 F40.
X5.7511 Y5.8179 I0.0011 J0.0054
X5.7489 Y5.8071 Z-0.0606 I-0.0011 J-0.0054 F20.
X5.7511 Y5.8179 Z-0.0612 I0.0011 J0.0054
X5.7489 Y5.8071 Z-0.0618 I-0.0011 J-0.0054
X5.7511 Y5.8179 Z-0.0624 I0.0011 J0.0054
X5.7489 Y5.8071 Z-0.063 I-0.0011 J-0.0054
X5.7511 Y5.8179 Z-0.0636 I0.0011 J0.0054
X5.7489 Y5.8071 Z-0.0642 I-0.0011 J-0.0054
X5.7511 Y5.8179 Z-0.0648 I0.0011 J0.0054
X5.7489 Y5.8071 Z-0.0654 I-0.0011 J-0.0054
X5.7511 Y5.8179 Z-0.066 I0.0011 J0.0054
X5.7489 Y5.8071 Z-0.0666 I-0.0011 J-0.0054
X5.7511 Y5.8179 Z-0.0672 I0.0011 J0.0054
X5.7489 Y5.8071 Z-0.0678 I-0.0011 J-0.0054
X5.7511 Y5.8179 Z-0.0684 I0.0011 J0.0054
X5.7489 Y5.8071 Z-0.069 I-0.0011 J-0.0054
X5.7511 Y5.8179 Z-0.0696 I0.0011 J0.0054
X5.7489 Y5.8071 Z-0.0702 I-0.0011 J-0.0054
X5.7511 Y5.8179 Z-0.0708 I0.0011 J0.0054
X5.7489 Y5.8071 Z-0.0714 I-0.0011 J-0.0054
X5.7511 Y5.8179 Z-0.072 I0.0011 J0.0054
X5.7489 Y5.8071 Z-0.0726 I-0.0011 J-0.0054
X5.7511 Y5.8179 Z-0.0732 I0.0011 J0.0054
X5.7489 Y5.8071 Z-0.0738 I-0.0011 J-0.0054
X5.7511 Y5.8179 Z-0.0745 I0.0011 J0.0054
X5.7489 Y5.8071 Z-0.0751 I-0.0011 J-0.0054
X5.7511 Y5.8179 Z-0.0757 I0.0011 J0.0054
X5.7489 Y5.8071 Z-0.0763 I-0.0011 J-0.0054
X5.7511 Y5.8179 Z-0.0769 I0.0011 J0.0054
X5.7489 Y5.8071 Z-0.0775 I-0.0011 J-0.0054
X5.7511 Y5.8179 Z-0.0781 I0.0011 J0.0054
X5.7489 Y5.8071 Z-0.0787 I-0.0011 J-0.0054
X5.7511 Y5.8179 Z-0.0793 I0.0011 J0.0054
X5.7489 Y5.8071 Z-0.0799 I-0.0011 J-0.0054
X5.7525 Y5.8077 Z-0.08 I0.0011 J0.0054
X5.7475 Y5.8174 I-0.0025 J0.0049 F40.
X5.7525 Y5.8077 I0.0025 J-0.0049
X5.7475 Y5.8174 Z-0.0806 I-0.0025 J0.0049 F20.
X5.7525 Y5.8077 Z-0.0812 I0.0025 J-0.0049
X5.7475 Y5.8174 Z-0.0818 I-0.0025 J0.0049
X5.7525 Y5.8077 Z-0.0824 I0.0025 J-0.0049
X5.7475 Y5.8174 Z-0.083 I-0.0025 J0.0049
X5.7525 Y5.8077 Z-0.0836 I0.0025 J-0.0049
X5.7475 Y5.8174 Z-0.0842 I-0.0025 J0.0049
X5.7525 Y5.8076 Z-0.0848 I0.0025 J-0.0049
X5.7475 Y5.8174 Z-0.0854 I-0.0025 J0.0049
X5.7525 Y5.8076 Z-0.086 I0.0025 J-0.0049
X5.7475 Y5.8174 Z-0.0866 I-0.0025 J0.0049
X5.7525 Y5.8076 Z-0.0872 I0.0025 J-0.0049
X5.7475 Y5.8174 Z-0.0878 I-0.0025 J0.0049
X5.7525 Y5.8076 Z-0.0884 I0.0025 J-0.0049
X5.7475 Y5.8174 Z-0.089 I-0.0025 J0.0049
X5.7525 Y5.8076 Z-0.0896 I0.0025 J-0.0049
X5.7475 Y5.8174 Z-0.0902 I-0.0025 J0.0049
X5.7525 Y5.8076 Z-0.0908 I0.0025 J-0.0049
X5.7475 Y5.8174 Z-0.0914 I-0.0025 J0.0049
X5.7525 Y5.8076 Z-0.092 I0.0025 J-0.0049
X5.7475 Y5.8174 Z-0.0926 I-0.0025 J0.0049
X5.7525 Y5.8076 Z-0.0932 I0.0025 J-0.0049
X5.7475 Y5.8174 Z-0.0938 I-0.0025 J0.0049
X5.7525 Y5.8076 Z-0.0945 I0.0025 J-0.0049
X5.7475 Y5.8174 Z-0.0951 I-0.0025 J0.0049
X5.7525 Y5.8076 Z-0.0957 I0.0025 J-0.0049
X5.7475 Y5.8174 Z-0.0963 I-0.0025 J0.0049
X5.7525 Y5.8076 Z-0.0969 I0.0025 J-0.0049
X5.7475 Y5.8174 Z-0.0975 I-0.0025 J0.0049
X5.7525 Y5.8076 Z-0.0981 I0.0025 J-0.0049
X5.7475 Y5.8174 Z-0.0987 I-0.0025 J0.0049
X5.7525 Y5.8076 Z-0.0993 I0.0025 J-0.0049
X5.7475 Y5.8174 Z-0.0999 I-0.0025 J0.0049
X5.745 Y5.8147 Z-0.1 I0.0025 J-0.0049
X5.755 Y5.8103 I0.005 J-0.0022 F40.
X5.745 Y5.8147 I-0.005 J0.0022
X5.755 Y5.8103 Z-0.1006 I0.005 J-0.0022 F20.
X5.745 Y5.8147 Z-0.1012 I-0.005 J0.0022
X5.755 Y5.8103 Z-0.1018 I0.005 J-0.0022
X5.745 Y5.8147 Z-0.1024 I-0.005 J0.0022
X5.755 Y5.8103 Z-0.103 I0.005 J-0.0022
X5.745 Y5.8147 Z-0.1036 I-0.005 J0.0022
X5.755 Y5.8103 Z-0.1042 I0.005 J-0.0022
X5.745 Y5.8147 Z-0.1048 I-0.005 J0.0022
X5.755 Y5.8103 Z-0.1054 I0.005 J-0.0022
X5.745 Y5.8147 Z-0.106 I-0.005 J0.0022
X5.755 Y5.8103 Z-0.1066 I0.005 J-0.0022
X5.745 Y5.8147 Z-0.1072 I-0.005 J0.0022
X5.755 Y5.8103 Z-0.1078 I0.005 J-0.0022
X5.745 Y5.8147 Z-0.1084 I-0.005 J0.0022
X5.755 Y5.8103 Z-0.109 I0.005 J-0.0022
X5.745 Y5.8147 Z-0.1096 I-0.005 J0.0022
X5.755 Y5.8103 Z-0.1102 I0.005 J-0.0022
X5.745 Y5.8147 Z-0.1108 I-0.005 J0.0022
X5.755 Y5.8103 Z-0.1114 I0.005 J-0.0022
X5.745 Y5.8147 Z-0.112 I-0.005 J0.0022
X5.755 Y5.8103 Z-0.1126 I0.005 J-0.0022
X5.745 Y5.8147 Z-0.1132 I-0.005 J0.0022
X5.755 Y5.8103 Z-0.1138 I0.005 J-0.0022
X5.745 Y5.8147 Z-0.1145 I-0.005 J0.0022
X5.755 Y5.8103 Z-0.1151 I0.005 J-0.0022
X5.745 Y5.8147 Z-0.1157 I-0.005 J0.0022
X5.755 Y5.8103 Z-0.1163 I0.005 J-0.0022
X5.745 Y5.8147 Z-0.1169 I-0.005 J0.0022
X5.755 Y5.8103 Z-0.1175 I0.005 J-0.0022
X5.745 Y5.8147 Z-0.1181 I-0.005 J0.0022
X5.755 Y5.8103 Z-0.1187 I0.005 J-0.0022
X5.745 Y5.8147 Z-0.1193 I-0.005 J0.0022
X5.755 Y5.8103 Z-0.1199 I0.005 J-0.0022
X5.7553 Y5.814 Z-0.12 I-0.005 J0.0022
X5.7447 Y5.811 I-0.0053 J-0.0015 F40.
X5.7553 Y5.814 I0.0053 J0.0015
X5.7447 Y5.811 Z-0.1206 I-0.0053 J-0.0015 F20.
X5.7553 Y5.814 Z-0.1212 I0.0053 J0.0015
X5.7447 Y5.811 Z-0.1218 I-0.0053 J-0.0015
X5.7553 Y5.814 Z-0.1224 I0.0053 J0.0015
X5.7447 Y5.811 Z-0.123 I-0.0053 J-0.0015
X5.7553 Y5.814 Z-0.1236 I0.0053 J0.0015
X5.7447 Y5.811 Z-0.1242 I-0.0053 J-0.0015
X5.7553 Y5.814 Z-0.1248 I0.0053 J0.0015
X5.7447 Y5.811 Z-0.1254 I-0.0053 J-0.0015
X5.7553 Y5.814 Z-0.126 I0.0053 J0.0015
X5.7447 Y5.811 Z-0.1266 I-0.0053 J-0.0015
X5.7553 Y5.814 Z-0.1272 I0.0053 J0.0015
X5.7447 Y5.811 Z-0.1278 I-0.0053 J-0.0015
X5.7553 Y5.814 Z-0.1284 I0.0053 J0.0015
X5.7447 Y5.811 Z-0.129 I-0.0053 J-0.0015
X5.7553 Y5.814 Z-0.1296 I0.0053 J0.0015
X5.7447 Y5.811 Z-0.1302 I-0.0053 J-0.0015
X5.7553 Y5.814 Z-0.1308 I0.0053 J0.0015
X5.7447 Y5.811 Z-0.1314 I-0.0053 J-0.0015
X5.7553 Y5.814 Z-0.132 I0.0053 J0.0015
X5.7447 Y5.811 Z-0.1326 I-0.0053 J-0.0015
X5.7553 Y5.814 Z-0.1332 I0.0053 J0.0015
X5.7447 Y5.811 Z-0.1338 I-0.0053 J-0.0015
X5.7553 Y5.814 Z-0.1345 I0.0053 J0.0015
X5.7447 Y5.811 Z-0.1351 I-0.0053 J-0.0015
X5.7553 Y5.814 Z-0.1357 I0.0053 J0.0015
X5.7447 Y5.811 Z-0.1363 I-0.0053 J-0.0015
X5.7553 Y5.814 Z-0.1369 I0.0053 J0.0015
X5.7447 Y5.811 Z-0.1375 I-0.0053 J-0.0015
X5.7553 Y5.814 Z-0.1381 I0.0053 J0.0015
X5.7447 Y5.811 Z-0.1387 I-0.0053 J-0.0015
X5.7553 Y5.814 Z-0.1393 I0.0053 J0.0015
X5.7447 Y5.811 Z-0.1399 I-0.0053 J-0.0015
X5.7468 Y5.808 Z-0.14 I0.0053 J0.0015
X5.7532 Y5.817 I0.0032 J0.0045 F40.
X5.7468 Y5.808 I-0.0032 J-0.0045
X5.7532 Y5.817 Z-0.1406 I0.0032 J0.0045 F20.
X5.7468 Y5.808 Z-0.1412 I-0.0032 J-0.0045
X5.7532 Y5.817 Z-0.1418 I0.0032 J0.0045
X5.7468 Y5.808 Z-0.1424 I-0.0032 J-0.0045
X5.7532 Y5.817 Z-0.143 I0.0032 J0.0045
X5.7468 Y5.808 Z-0.1436 I-0.0032 J-0.0045
X5.7532 Y5.817 Z-0.1442 I0.0032 J0.0045
X5.7468 Y5.808 Z-0.1448 I-0.0032 J-0.0045
X5.7532 Y5.817 Z-0.1454 I0.0032 J0.0045
X5.7468 Y5.808 Z-0.146 I-0.0032 J-0.0045
X5.7532 Y5.817 Z-0.1466 I0.0032 J0.0045
X5.7468 Y5.808 Z-0.1472 I-0.0032 J-0.0045
X5.7532 Y5.817 Z-0.1478 I0.0032 J0.0045
X5.7468 Y5.808 Z-0.1484 I-0.0032 J-0.0045
X5.7532 Y5.817 Z-0.149 I0.0032 J0.0045
X5.7468 Y5.808 Z-0.1496 I-0.0032 J-0.0045
X5.7532 Y5.817 Z-0.1502 I0.0032 J0.0045
X5.7468 Y5.808 Z-0.1508 I-0.0032 J-0.0045
X5.7532 Y5.817 Z-0.1514 I0.0032 J0.0045
X5.7468 Y5.808 Z-0.152 I-0.0032 J-0.0045
X5.7554 Y5.8137 Z-0.1525 I0.0032 J0.0045
X5.7446 Y5.8114 I-0.0054 J-0.0011 F40.
X5.7554 Y5.8137 I0.0054 J0.0011
X5.7446 Y5.8114 Z-0.1531 I-0.0054 J-0.0011 F20.
X5.7554 Y5.8137 Z-0.1537 I0.0054 J0.0011
X5.7446 Y5.8114 Z-0.1543 I-0.0054 J-0.0011
X5.7554 Y5.8137 Z-0.1549 I0.0054 J0.0011
X5.7446 Y5.8114 Z-0.1555 I-0.0054 J-0.0011
X5.7554 Y5.8137 Z-0.1561 I0.0054 J0.0011
X5.7446 Y5.8114 Z-0.1567 I-0.0054 J-0.0011
X5.7554 Y5.8137 Z-0.1573 I0.0054 J0.0011
X5.7446 Y5.8114 Z-0.1579 I-0.0054 J-0.0011
X5.7554 Y5.8137 Z-0.1585 I0.0054 J0.0011
X5.7446 Y5.8114 Z-0.1591 I-0.0054 J-0.0011
X5.7554 Y5.8137 Z-0.1597 I0.0054 J0.0011
X5.7446 Y5.8114 Z-0.1603 I-0.0054 J-0.0011
X5.7554 Y5.8137 Z-0.1609 I0.0054 J0.0011
X5.7446 Y5.8114 Z-0.1615 I-0.0054 J-0.0011
X5.7554 Y5.8137 Z-0.1621 I0.0054 J0.0011
X5.7446 Y5.8114 Z-0.1627 I-0.0054 J-0.0011
X5.7554 Y5.8137 Z-0.1633 I0.0054 J0.0011
X5.7446 Y5.8114 Z-0.1639 I-0.0054 J-0.0011
X5.7554 Y5.8137 Z-0.1645 I0.0054 J0.0011
X5.7453 Y5.8154 Z-0.165 I-0.0054 J-0.0011
X5.7547 Y5.8097 I0.0047 J-0.0028 F40.
X5.7453 Y5.8154 I-0.0047 J0.0028
G1 X5.7447 Y5.814 Z-0.1648
X5.7445 Y5.8125 Z-0.1646
X5.7447 Y5.8112 Z-0.164
X5.7451 Y5.81 Z-0.1633
X5.7459 Y5.8089 Z-0.1627
X5.747 Y5.8079 Z-0.1611
X5.7484 Y5.8073 Z-0.1595
X5.75 Y5.807 Z-0.1553
X5.7502 Z-0.1532
G0 Z0.2
X5.7497 Y1.8075
G1 Z0.1118 F40.
X5.7505 Y1.8076 Z0.1075 F20.
X5.7515 Y1.8079 Z0.1057
X5.7525 Y1.8085 Z0.1039
X5.7534 Y1.8094 Z0.1029
X5.7541 Y1.8104 Z0.102
X5.7544 Y1.8116 Z0.1011
X5.7545 Y1.8132 Z0.1007
X5.754 Y1.8146 Z0.1004
X5.7532 Y1.8159 Z0.1
G3 X5.7458 Y1.8091 Z0.0995 I-0.0037 J-0.0034
X5.7532 Y1.8159 Z0.0989 I0.0037 J0.0034
X5.7458 Y1.8091 Z0.0984 I-0.0037 J-0.0034
X5.7532 Y1.8159 Z0.0978 I0.0037 J0.0034
X5.7458 Y1.8091 Z0.0973 I-0.0037 J-0.0034
X5.7532 Y1.8159 Z0.0967 I0.0037 J0.0034
X5.7458 Y1.8091 Z0.0962 I-0.0037 J-0.0034
X5.7532 Y1.8159 Z0.0956 I0.0037 J0.0034
X5.7458 Y1.8091 Z0.0951 I-0.0037 J-0.0034
X5.7532 Y1.8159 Z0.0945 I0.0037 J0.0034
X5.7458 Y1.8091 Z0.094 I-0.0037 J-0.0034
X5.7532 Y1.8159 Z0.0934 I0.0037 J0.0034
X5.7458 Y1.8091 Z0.0929 I-0.0037 J-0.0034
X5.7532 Y1.8159 Z0.0923 I0.0037 J0.0034
X5.7458 Y1.8091 Z0.0918 I-0.0037 J-0.0034
X5.7532 Y1.8159 Z0.0912 I0.0037 J0.0034
X5.7458 Y1.8091 Z0.0907 I-0.0037 J-0.0034
X5.7532 Y1.8159 Z0.0901 I0.0037 J0.0034
X5.7458 Y1.8091 Z0.0896 I-0.0037 J-0.0034
X5.7532 Y1.8159 Z0.089 I0.0037 J0.0034
X5.7458 Y1.8091 Z0.0885 I-0.0037 J-0.0034
X5.7532 Y1.8159 Z0.0879 I0.0037 J0.0034
X5.7458 Y1.8091 Z0.0874 I-0.0037 J-0.0034
X5.7532 Y1.8159 Z0.0868 I0.0037 J0.0034
X5.7458 Y1.8091 Z0.0863 I-0.0037 J-0.0034
X5.7532 Y1.8159 Z0.0857 I0.0037 J0.0034
X5.7458 Y1.8091 Z0.0852 I-0.0037 J-0.0034
X5.7532 Y1.8159 Z0.0846 I0.0037 J0.0034
X5.7458 Y1.8091 Z0.0841 I-0.0037 J-0.0034
X5.7532 Y1.8159 Z0.0835 I0.0037 J0.0034
X5.7458 Y1.8091 Z0.083 I-0.0037 J-0.0034
X5.7532 Y1.8159 Z0.0824 I0.0037 J0.0034
X5.7458 Y1.8091 Z0.0819 I-0.0037 J-0.0034
X5.7532 Y1.8159 Z0.0813 I0.0037 J0.0034
X5.7458 Y1.8091 Z0.0808 I-0.0037 J-0.0034
X5.7532 Y1.8159 Z0.0803 I0.0037 J0.0034
X5.7458 Y1.8091 Z0.0797 I-0.0037 J-0.0034
X5.7532 Y1.8159 Z0.0792 I0.0037 J0.0034
X5.7458 Y1.8091 Z0.0786 I-0.0037 J-0.0034
X5.7532 Y1.8159 Z0.0781 I0.0037 J0.0034
X5.7458 Y1.8091 Z0.0775 I-0.0037 J-0.0034
X5.7532 Y1.8159 Z0.077 I0.0037 J0.0034
X5.7458 Y1.8091 Z0.0764 I-0.0037 J-0.0034
X5.7532 Y1.8159 Z0.0759 I0.0037 J0.0034
X5.7458 Y1.8091 Z0.0753 I-0.0037 J-0.0034
X5.7532 Y1.8159 Z0.0748 I0.0037 J0.0034
X5.7458 Y1.8091 Z0.0742 I-0.0037 J-0.0034
X5.7532 Y1.8159 Z0.0737 I0.0037 J0.0034
X5.7458 Y1.8091 Z0.0731 I-0.0037 J-0.0034
X5.7532 Y1.8159 Z0.0726 I0.0037 J0.0034
X5.7458 Y1.8091 Z0.072 I-0.0037 J-0.0034
X5.7532 Y1.8159 Z0.0715 I0.0037 J0.0034
X5.7458 Y1.8091 Z0.0709 I-0.0037 J-0.0034
X5.7532 Y1.8159 Z0.0704 I0.0037 J0.0034
X5.7458 Y1.8091 Z0.0698 I-0.0037 J-0.0034
X5.7532 Y1.8159 Z0.0693 I0.0037 J0.0034
X5.7458 Y1.8091 Z0.0687 I-0.0037 J-0.0034
X5.7532 Y1.8159 Z0.0682 I0.0037 J0.0034
X5.7458 Y1.8091 Z0.0676 I-0.0037 J-0.0034
X5.7532 Y1.8159 Z0.0671 I0.0037 J0.0034
X5.7458 Y1.8091 Z0.0665 I-0.0037 J-0.0034
X5.7532 Y1.8159 Z0.066 I0.0037 J0.0034
X5.7458 Y1.8091 Z0.0654 I-0.0037 J-0.0034
X5.7532 Y1.8159 Z0.0649 I0.0037 J0.0034
X5.7458 Y1.8091 Z0.0643 I-0.0037 J-0.0034
X5.7532 Y1.8159 Z0.0638 I0.0037 J0.0034
X5.7458 Y1.8091 Z0.0632 I-0.0037 J-0.0034
X5.7532 Y1.8159 Z0.0627 I0.0037 J0.0034
X5.7458 Y1.8091 Z0.0622 I-0.0037 J-0.0034
X5.7532 Y1.8159 Z0.0616 I0.0037 J0.0034
X5.7458 Y1.8091 Z0.0611 I-0.0037 J-0.0034
X5.7532 Y1.8159 Z0.0605 I0.0037 J0.0034
X5.7458 Y1.8091 Z0.06 I-0.0037 J-0.0034
X5.7532 Y1.8159 Z0.0594 I0.0037 J0.0034
X5.7458 Y1.8091 Z0.0589 I-0.0037 J-0.0034
X5.7532 Y1.8159 Z0.0583 I0.0037 J0.0034
X5.7458 Y1.8091 Z0.0578 I-0.0037 J-0.0034
X5.7532 Y1.8159 Z0.0572 I0.0037 J0.0034
X5.7458 Y1.8091 Z0.0567 I-0.0037 J-0.0034
X5.7532 Y1.8159 Z0.0561 I0.0037 J0.0034
X5.7458 Y1.8091 Z0.0556 I-0.0037 J-0.0034
X5.7532 Y1.8159 Z0.055 I0.0037 J0.0034
X5.7458 Y1.8091 Z0.0545 I-0.0037 J-0.0034
X5.7532 Y1.8159 Z0.0539 I0.0037 J0.0034
X5.7458 Y1.8091 Z0.0534 I-0.0037 J-0.0034
X5.7532 Y1.8159 Z0.0528 I0.0037 J0.0034
X5.7458 Y1.8091 Z0.0523 I-0.0037 J-0.0034
X5.7532 Y1.8159 Z0.0517 I0.0037 J0.0034
X5.7458 Y1.8091 Z0.0512 I-0.0037 J-0.0034
X5.7532 Y1.8159 Z0.0506 I0.0037 J0.0034
X5.7458 Y1.8091 Z0.0501 I-0.0037 J-0.0034
X5.7532 Y1.8159 Z0.0495 I0.0037 J0.0034
X5.7458 Y1.8091 Z0.049 I-0.0037 J-0.0034
X5.7532 Y1.8159 Z0.0484 I0.0037 J0.0034
X5.7458 Y1.8091 Z0.0479 I-0.0037 J-0.0034
X5.7532 Y1.8159 Z0.0473 I0.0037 J0.0034
X5.7458 Y1.8091 Z0.0468 I-0.0037 J-0.0034
X5.7532 Y1.8159 Z0.0462 I0.0037 J0.0034
X5.7458 Y1.8091 Z0.0457 I-0.0037 J-0.0034
X5.7532 Y1.8159 Z0.0451 I0.0037 J0.0034
X5.7458 Y1.8091 Z0.0446 I-0.0037 J-0.0034
X5.7532 Y1.8159 Z0.044 I0.0037 J0.0034
X5.7458 Y1.8091 Z0.0435 I-0.0037 J-0.0034
X5.7532 Y1.8159 Z0.043 I0.0037 J0.0034
X5.7458 Y1.8091 Z0.0424 I-0.0037 J-0.0034
X5.7532 Y1.8159 Z0.0419 I0.0037 J0.0034
X5.7458 Y1.8091 Z0.0413 I-0.0037 J-0.0034
X5.7532 Y1.8159 Z0.0408 I0.0037 J0.0034
X5.7458 Y1.8091 Z0.0402 I-0.0037 J-0.0034
X5.7532 Y1.8159 Z0.0397 I0.0037 J0.0034
X5.7458 Y1.8091 Z0.0391 I-0.0037 J-0.0034
X5.7532 Y1.8159 Z0.0386 I0.0037 J0.0034
X5.7458 Y1.8091 Z0.038 I-0.0037 J-0.0034
X5.7532 Y1.8159 Z0.0375 I0.0037 J0.0034
X5.7458 Y1.8091 Z0.0369 I-0.0037 J-0.0034
X5.7532 Y1.8159 Z0.0364 I0.0037 J0.0034
X5.7458 Y1.8091 Z0.0358 I-0.0037 J-0.0034
X5.7532 Y1.8159 Z0.0353 I0.0037 J0.0034
X5.7458 Y1.8091 Z0.0347 I-0.0037 J-0.0034
X5.7532 Y1.8159 Z0.0342 I0.0037 J0.0034
X5.7458 Y1.8091 Z0.0336 I-0.0037 J-0.0034
X5.7532 Y1.8159 Z0.0331 I0.0037 J0.0034
X5.7458 Y1.8091 Z0.0325 I-0.0037 J-0.0034
X5.7532 Y1.8159 Z0.032 I0.0037 J0.0034
X5.7458 Y1.8091 Z0.0314 I-0.0037 J-0.0034
X5.7532 Y1.8159 Z0.0309 I0.0037 J0.0034
X5.7458 Y1.8091 Z0.0303 I-0.0037 J-0.0034
X5.7532 Y1.8159 Z0.0298 I0.0037 J0.0034
X5.7458 Y1.8091 Z0.0292 I-0.0037 J-0.0034
X5.7532 Y1.8159 Z0.0287 I0.0037 J0.0034
X5.7458 Y1.8091 Z0.0281 I-0.0037 J-0.0034
X5.7532 Y1.8159 Z0.0276 I0.0037 J0.0034
X5.7458 Y1.8091 Z0.027 I-0.0037 J-0.0034
X5.7532 Y1.8159 Z0.0265 I0.0037 J0.0034
X5.7458 Y1.8091 Z0.0259 I-0.0037 J-0.0034
X5.7532 Y1.8159 Z0.0254 I0.0037 J0.0034
X5.7458 Y1.8091 Z0.0249 I-0.0037 J-0.0034
X5.7532 Y1.8159 Z0.0243 I0.0037 J0.0034
X5.7458 Y1.8091 Z0.0238 I-0.0037 J-0.0034
X5.7532 Y1.8159 Z0.0232 I0.0037 J0.0034
X5.7458 Y1.8091 Z0.0227 I-0.0037 J-0.0034
X5.7532 Y1.8159 Z0.0221 I0.0037 J0.0034
X5.7458 Y1.8091 Z0.0216 I-0.0037 J-0.0034
X5.7532 Y1.8159 Z0.021 I0.0037 J0.0034
X5.7458 Y1.8091 Z0.0205 I-0.0037 J-0.0034
X5.7532 Y1.8159 Z0.0199 I0.0037 J0.0034
X5.7458 Y1.8091 Z0.0194 I-0.0037 J-0.0034
X5.7532 Y1.8159 Z0.0188 I0.0037 J0.0034
X5.7458 Y1.8091 Z0.0183 I-0.0037 J-0.0034
X5.7532 Y1.8159 Z0.0177 I0.0037 J0.0034
X5.7458 Y1.8091 Z0.0172 I-0.0037 J-0.0034
X5.7532 Y1.8159 Z0.0166 I0.0037 J0.0034
X5.7458 Y1.8091 Z0.0161 I-0.0037 J-0.0034
X5.7532 Y1.8159 Z0.0155 I0.0037 J0.0034
X5.7458 Y1.8091 Z0.015 I-0.0037 J-0.0034
X5.7532 Y1.8159 Z0.0144 I0.0037 J0.0034
X5.7458 Y1.8091 Z0.0139 I-0.0037 J-0.0034
X5.7532 Y1.8159 Z0.0133 I0.0037 J0.0034
X5.7458 Y1.8091 Z0.0128 I-0.0037 J-0.0034
X5.7532 Y1.8159 Z0.0122 I0.0037 J0.0034
X5.7458 Y1.8091 Z0.0117 I-0.0037 J-0.0034
X5.7532 Y1.8159 Z0.0111 I0.0037 J0.0034
X5.7458 Y1.8091 Z0.0106 I-0.0037 J-0.0034
X5.7532 Y1.8159 Z0.01 I0.0037 J0.0034
X5.7458 Y1.8091 Z0.0095 I-0.0037 J-0.0034
X5.7532 Y1.8159 Z0.0089 I0.0037 J0.0034
X5.7458 Y1.8091 Z0.0084 I-0.0037 J-0.0034
X5.7532 Y1.8159 Z0.0078 I0.0037 J0.0034
X5.7458 Y1.8091 Z0.0073 I-0.0037 J-0.0034
X5.7532 Y1.8159 Z0.0067 I0.0037 J0.0034
X5.7458 Y1.8091 Z0.0062 I-0.0037 J-0.0034
X5.7532 Y1.8159 Z0.0057 I0.0037 J0.0034
X5.7458 Y1.8091 Z0.0051 I-0.0037 J-0.0034
X5.7532 Y1.8159 Z0.0046 I0.0037 J0.0034
X5.7458 Y1.8091 Z0.004 I-0.0037 J-0.0034
X5.7532 Y1.8159 Z0.0035 I0.0037 J0.0034
X5.7458 Y1.8091 Z0.0029 I-0.0037 J-0.0034
X5.7532 Y1.8159 Z0.0024 I0.0037 J0.0034
X5.7458 Y1.8091 Z0.0018 I-0.0037 J-0.0034
X5.7532 Y1.8159 Z0.0013 I0.0037 J0.0034
X5.7458 Y1.8091 Z0.0007 I-0.0037 J-0.0034
X5.7532 Y1.8159 Z0.0002 I0.0037 J0.0034
X5.7458 Y1.8091 Z-0.0004 I-0.0037 J-0.0034
X5.7532 Y1.8159 Z-0.0009 I0.0037 J0.0034
X5.7458 Y1.8091 Z-0.0015 I-0.0037 J-0.0034
X5.7532 Y1.8159 Z-0.002 I0.0037 J0.0034
X5.7458 Y1.8091 Z-0.0026 I-0.0037 J-0.0034
X5.7532 Y1.8159 Z-0.0031 I0.0037 J0.0034
X5.7458 Y1.8091 Z-0.0037 I-0.0037 J-0.0034
X5.7532 Y1.8159 Z-0.0042 I0.0037 J0.0034
X5.7458 Y1.8091 Z-0.0048 I-0.0037 J-0.0034
X5.7532 Y1.8159 Z-0.0053 I0.0037 J0.0034
X5.7458 Y1.8091 Z-0.0059 I-0.0037 J-0.0034
X5.7532 Y1.8159 Z-0.0064 I0.0037 J0.0034
X5.7458 Y1.8091 Z-0.007 I-0.0037 J-0.0034
X5.7532 Y1.8159 Z-0.0075 I0.0037 J0.0034
X5.7458 Y1.8091 Z-0.0081 I-0.0037 J-0.0034
X5.7532 Y1.8159 Z-0.0086 I0.0037 J0.0034
X5.7458 Y1.8091 Z-0.0092 I-0.0037 J-0.0034
X5.7532 Y1.8159 Z-0.0097 I0.0037 J0.0034
X5.7458 Y1.8091 Z-0.0103 I-0.0037 J-0.0034
X5.7532 Y1.8159 Z-0.0108 I0.0037 J0.0034
X5.7458 Y1.8091 Z-0.0114 I-0.0037 J-0.0034
X5.7532 Y1.8159 Z-0.0119 I0.0037 J0.0034
X5.7458 Y1.8091 Z-0.0124 I-0.0037 J-0.0034
X5.7532 Y1.8159 Z-0.013 I0.0037 J0.0034
X5.7458 Y1.8091 Z-0.0135 I-0.0037 J-0.0034
X5.7532 Y1.8159 Z-0.0141 I0.0037 J0.0034
X5.7458 Y1.8091 Z-0.0146 I-0.0037 J-0.0034
X5.7532 Y1.8159 Z-0.0152 I0.0037 J0.0034
X5.7458 Y1.8091 Z-0.0157 I-0.0037 J-0.0034
X5.7532 Y1.8159 Z-0.0163 I0.0037 J0.0034
X5.7458 Y1.8091 Z-0.0168 I-0.0037 J-0.0034
X5.7532 Y1.8159 Z-0.0174 I0.0037 J0.0034
X5.7458 Y1.8091 Z-0.0179 I-0.0037 J-0.0034
X5.7532 Y1.8159 Z-0.0185 I0.0037 J0.0034
X5.7458 Y1.8091 Z-0.019 I-0.0037 J-0.0034
X5.7532 Y1.8159 Z-0.0196 I0.0037 J0.0034
X5.7445 Y1.8125 Z-0.02 I-0.0037 J-0.0034
X5.7555 I0.0055 J0. F40.
X5.7445 I-0.0055 J0.
X5.7555 Z-0.0206 I0.0055 J0. F20.
X5.7445 Z-0.0212 I-0.0055 J0.
X5.7555 Z-0.0218 I0.0055 J0.
X5.7445 Z-0.0224 I-0.0055 J0.
X5.7555 Z-0.023 I0.0055 J0.
X5.7445 Z-0.0236 I-0.0055 J0.
X5.7555 Z-0.0242 I0.0055 J0.
X5.7445 Z-0.0248 I-0.0055 J0.
X5.7555 Z-0.0254 I0.0055 J0.
X5.7445 Z-0.026 I-0.0055 J0.
X5.7555 Z-0.0266 I0.0055 J0.
X5.7445 Z-0.0272 I-0.0055 J0.
X5.7555 Z-0.0278 I0.0055 J0.
X5.7445 Z-0.0284 I-0.0055 J0.
X5.7555 Z-0.029 I0.0055 J0.
X5.7445 Z-0.0296 I-0.0055 J0.
X5.7555 Z-0.0302 I0.0055 J0.
X5.7445 Z-0.0308 I-0.0055 J0.
X5.7555 Z-0.0314 I0.0055 J0.
X5.7445 Z-0.032 I-0.0055 J0.
X5.7555 Z-0.0326 I0.0055 J0.
X5.7445 Z-0.0332 I-0.0055 J0.
X5.7555 Z-0.0338 I0.0055 J0.
X5.7445 Z-0.0345 I-0.0055 J0.
X5.7555 Z-0.0351 I0.0055 J0.
X5.7445 Z-0.0357 I-0.0055 J0.
X5.7555 Z-0.0363 I0.0055 J0.
X5.7445 Z-0.0369 I-0.0055 J0.
X5.7555 Z-0.0375 I0.0055 J0.
X5.7445 Z-0.0381 I-0.0055 J0.
X5.7555 Z-0.0387 I0.0055 J0.
X5.7445 Z-0.0393 I-0.0055 J0.
X5.7555 Z-0.0399 I0.0055 J0.
X5.7543 Y1.816 Z-0.04 I-0.0055 J0.
X5.7457 Y1.809 I-0.0043 J-0.0035 F40.
X5.7543 Y1.816 I0.0043 J0.0035
X5.7457 Y1.809 Z-0.0406 I-0.0043 J-0.0035 F20.
X5.7543 Y1.816 Z-0.0412 I0.0043 J0.0035
X5.7457 Y1.809 Z-0.0418 I-0.0043 J-0.0035
X5.7543 Y1.816 Z-0.0424 I0.0043 J0.0035
X5.7457 Y1.809 Z-0.043 I-0.0043 J-0.0035
X5.7543 Y1.816 Z-0.0436 I0.0043 J0.0035
X5.7457 Y1.809 Z-0.0442 I-0.0043 J-0.0035
X5.7543 Y1.816 Z-0.0448 I0.0043 J0.0035
X5.7457 Y1.809 Z-0.0454 I-0.0043 J-0.0035
X5.7543 Y1.816 Z-0.046 I0.0043 J0.0035
X5.7457 Y1.809 Z-0.0466 I-0.0043 J-0.0035
X5.7543 Y1.816 Z-0.0472 I0.0043 J0.0035
X5.7457 Y1.809 Z-0.0478 I-0.0043 J-0.0035
X5.7543 Y1.816 Z-0.0484 I0.0043 J0.0035
X5.7457 Y1.809 Z-0.049 I-0.0043 J-0.0035
X5.7543 Y1.816 Z-0.0496 I0.0043 J0.0035
X5.7457 Y1.809 Z-0.0502 I-0.0043 J-0.0035
X5.7543 Y1.816 Z-0.0508 I0.0043 J0.0035
X5.7457 Y1.809 Z-0.0514 I-0.0043 J-0.0035
X5.7543 Y1.816 Z-0.052 I0.0043 J0.0035
X5.7457 Y1.809 Z-0.0526 I-0.0043 J-0.0035
X5.7543 Y1.816 Z-0.0532 I0.0043 J0.0035
X5.7457 Y1.809 Z-0.0538 I-0.0043 J-0.0035
X5.7543 Y1.816 Z-0.0545 I0.0043 J0.0035
X5.7457 Y1.809 Z-0.0551 I-0.0043 J-0.0035
X5.7543 Y1.816 Z-0.0557 I0.0043 J0.0035
X5.7457 Y1.809 Z-0.0563 I-0.0043 J-0.0035
X5.7543 Y1.816 Z-0.0569 I0.0043 J0.0035
X5.7457 Y1.809 Z-0.0575 I-0.0043 J-0.0035
X5.7543 Y1.816 Z-0.0581 I0.0043 J0.0035
X5.7457 Y1.809 Z-0.0587 I-0.0043 J-0.0035
X5.7543 Y1.816 Z-0.0593 I0.0043 J0.0035
X5.7457 Y1.809 Z-0.0599 I-0.0043 J-0.0035
X5.7489 Y1.8071 Z-0.06 I0.0043 J0.0035
X5.7511 Y1.8179 I0.0011 J0.0054 F40.
X5.7489 Y1.8071 I-0.0011 J-0.0054
X5.7511 Y1.8179 Z-0.0606 I0.0011 J0.0054 F20.
X5.7489 Y1.8071 Z-0.0612 I-0.0011 J-0.0054
X5.7511 Y1.8179 Z-0.0618 I0.0011 J0.0054
X5.7489 Y1.8071 Z-0.0624 I-0.0011 J-0.0054
X5.7511 Y1.8179 Z-0.063 I0.0011 J0.0054
X5.7489 Y1.8071 Z-0.0636 I-0.0011 J-0.0054
X5.7511 Y1.8179 Z-0.0642 I0.0011 J0.0054
X5.7489 Y1.8071 Z-0.0648 I-0.0011 J-0.0054
X5.7511 Y1.8179 Z-0.0654 I0.0011 J0.0054
X5.7489 Y1.8071 Z-0.066 I-0.0011 J-0.0054
X5.7511 Y1.8179 Z-0.0666 I0.0011 J0.0054
X5.7489 Y1.8071 Z-0.0672 I-0.0011 J-0.0054
X5.7511 Y1.8179 Z-0.0678 I0.0011 J0.0054
X5.7489 Y1.8071 Z-0.0684 I-0.0011 J-0.0054
X5.7511 Y1.8179 Z-0.069 I0.0011 J0.0054
X5.7489 Y1.8071 Z-0.0696 I-0.0011 J-0.0054
X5.7511 Y1.8179 Z-0.0702 I0.0011 J0.0054
X5.7489 Y1.8071 Z-0.0708 I-0.0011 J-0.0054
X5.7511 Y1.8179 Z-0.0714 I0.0011 J0.0054
X5.7489 Y1.8071 Z-0.072 I-0.0011 J-0.0054
X5.7511 Y1.8179 Z-0.0726 I0.0011 J0.0054
X5.7489 Y1.8071 Z-0.0732 I-0.0011 J-0.0054
X5.7511 Y1.8179 Z-0.0738 I0.0011 J0.0054
X5.7489 Y1.8071 Z-0.0745 I-0.0011 J-0.0054
X5.7511 Y1.8179 Z-0.0751 I0.0011 J0.0054
X5.7489 Y1.8071 Z-0.0757 I-0.0011 J-0.0054
X5.7511 Y1.8179 Z-0.0763 I0.0011 J0.0054
X5.7489 Y1.8071 Z-0.0769 I-0.0011 J-0.0054
X5.7511 Y1.8179 Z-0.0775 I0.0011 J0.0054
X5.7489 Y1.8071 Z-0.0781 I-0.0011 J-0.0054
X5.7511 Y1.8179 Z-0.0787 I0.0011 J0.0054
X5.7489 Y1.8071 Z-0.0793 I-0.0011 J-0.0054
X5.7511 Y1.8179 Z-0.0799 I0.0011 J0.0054
X5.7475 Y1.8174 Z-0.08 I-0.0011 J-0.0054
X5.7525 Y1.8076 I0.0025 J-0.0049 F40.
X5.7475 Y1.8174 I-0.0025 J0.0049
X5.7525 Y1.8076 Z-0.0806 I0.0025 J-0.0049 F20.
X5.7475 Y1.8174 Z-0.0812 I-0.0025 J0.0049
X5.7525 Y1.8076 Z-0.0818 I0.0025 J-0.0049
X5.7475 Y1.8174 Z-0.0824 I-0.0025 J0.0049
X5.7525 Y1.8076 Z-0.083 I0.0025 J-0.0049
X5.7475 Y1.8174 Z-0.0836 I-0.0025 J0.0049
X5.7525 Y1.8076 Z-0.0842 I0.0025 J-0.0049
X5.7475 Y1.8174 Z-0.0848 I-0.0025 J0.0049
X5.7525 Y1.8076 Z-0.0854 I0.0025 J-0.0049
X5.7475 Y1.8174 Z-0.086 I-0.0025 J0.0049
X5.7525 Y1.8076 Z-0.0866 I0.0025 J-0.0049
X5.7475 Y1.8174 Z-0.0872 I-0.0025 J0.0049
X5.7525 Y1.8076 Z-0.0878 I0.0025 J-0.0049
X5.7475 Y1.8174 Z-0.0884 I-0.0025 J0.0049
X5.7525 Y1.8076 Z-0.089 I0.0025 J-0.0049
X5.7475 Y1.8174 Z-0.0896 I-0.0025 J0.0049
X5.7525 Y1.8076 Z-0.0902 I0.0025 J-0.0049
X5.7475 Y1.8174 Z-0.0908 I-0.0025 J0.0049
X5.7525 Y1.8076 Z-0.0914 I0.0025 J-0.0049
X5.7475 Y1.8174 Z-0.092 I-0.0025 J0.0049
X5.7525 Y1.8076 Z-0.0926 I0.0025 J-0.0049
X5.7475 Y1.8174 Z-0.0932 I-0.0025 J0.0049
X5.7525 Y1.8076 Z-0.0938 I0.0025 J-0.0049
X5.7475 Y1.8174 Z-0.0945 I-0.0025 J0.0049
X5.7525 Y1.8076 Z-0.0951 I0.0025 J-0.0049
X5.7475 Y1.8174 Z-0.0957 I-0.0025 J0.0049
X5.7525 Y1.8076 Z-0.0963 I0.0025 J-0.0049
X5.7475 Y1.8174 Z-0.0969 I-0.0025 J0.0049
X5.7525 Y1.8076 Z-0.0975 I0.0025 J-0.0049
X5.7475 Y1.8174 Z-0.0981 I-0.0025 J0.0049
X5.7525 Y1.8076 Z-0.0987 I0.0025 J-0.0049
X5.7475 Y1.8174 Z-0.0993 I-0.0025 J0.0049
X5.7525 Y1.8076 Z-0.0999 I0.0025 J-0.0049
X5.755 Y1.8103 Z-0.1 I-0.0025 J0.0049
X5.745 Y1.8147 I-0.005 J0.0022 F40.
X5.755 Y1.8103 I0.005 J-0.0022
X5.745 Y1.8147 Z-0.1006 I-0.005 J0.0022 F20.
X5.755 Y1.8103 Z-0.1012 I0.005 J-0.0022
X5.745 Y1.8147 Z-0.1018 I-0.005 J0.0022
X5.755 Y1.8103 Z-0.1024 I0.005 J-0.0022
X5.745 Y1.8147 Z-0.103 I-0.005 J0.0022
X5.755 Y1.8103 Z-0.1036 I0.005 J-0.0022
X5.745 Y1.8147 Z-0.1042 I-0.005 J0.0022
X5.755 Y1.8103 Z-0.1048 I0.005 J-0.0022
X5.745 Y1.8147 Z-0.1054 I-0.005 J0.0022
X5.755 Y1.8103 Z-0.106 I0.005 J-0.0022
X5.745 Y1.8147 Z-0.1066 I-0.005 J0.0022
X5.755 Y1.8103 Z-0.1072 I0.005 J-0.0022
X5.745 Y1.8147 Z-0.1078 I-0.005 J0.0022
X5.755 Y1.8103 Z-0.1084 I0.005 J-0.0022
X5.745 Y1.8147 Z-0.109 I-0.005 J0.0022
X5.755 Y1.8103 Z-0.1096 I0.005 J-0.0022
X5.745 Y1.8147 Z-0.1102 I-0.005 J0.0022
X5.755 Y1.8103 Z-0.1108 I0.005 J-0.0022
X5.745 Y1.8147 Z-0.1114 I-0.005 J0.0022
X5.755 Y1.8103 Z-0.112 I0.005 J-0.0022
X5.745 Y1.8147 Z-0.1126 I-0.005 J0.0022
X5.755 Y1.8103 Z-0.1132 I0.005 J-0.0022
X5.745 Y1.8147 Z-0.1138 I-0.005 J0.0022
X5.755 Y1.8103 Z-0.1145 I0.005 J-0.0022
X5.745 Y1.8147 Z-0.1151 I-0.005 J0.0022
X5.755 Y1.8103 Z-0.1157 I0.005 J-0.0022
X5.745 Y1.8147 Z-0.1163 I-0.005 J0.0022
X5.755 Y1.8103 Z-0.1169 I0.005 J-0.0022
X5.745 Y1.8147 Z-0.1175 I-0.005 J0.0022
X5.755 Y1.8103 Z-0.1181 I0.005 J-0.0022
X5.745 Y1.8147 Z-0.1187 I-0.005 J0.0022
X5.755 Y1.8103 Z-0.1193 I0.005 J-0.0022
X5.745 Y1.8147 Z-0.1199 I-0.005 J0.0022
X5.7447 Y1.811 Z-0.12 I0.005 J-0.0022
X5.7553 Y1.814 I0.0053 J0.0015 F40.
X5.7447 Y1.811 I-0.0053 J-0.0015
X5.7553 Y1.814 Z-0.1206 I0.0053 J0.0015 F20.
X5.7447 Y1.811 Z-0.1212 I-0.0053 J-0.0015
X5.7553 Y1.814 Z-0.1218 I0.0053 J0.0015
X5.7447 Y1.811 Z-0.1224 I-0.0053 J-0.0015
X5.7553 Y1.814 Z-0.123 I0.0053 J0.0015
X5.7447 Y1.811 Z-0.1236 I-0.0053 J-0.0015
X5.7553 Y1.814 Z-0.1242 I0.0053 J0.0015
X5.7447 Y1.811 Z-0.1248 I-0.0053 J-0.0015
X5.7553 Y1.814 Z-0.1254 I0.0053 J0.0015
X5.7447 Y1.811 Z-0.126 I-0.0053 J-0.0015
X5.7553 Y1.814 Z-0.1266 I0.0053 J0.0015
X5.7447 Y1.811 Z-0.1272 I-0.0053 J-0.0015
X5.7553 Y1.814 Z-0.1278 I0.0053 J0.0015
X5.7447 Y1.811 Z-0.1284 I-0.0053 J-0.0015
X5.7553 Y1.814 Z-0.129 I0.0053 J0.0015
X5.7447 Y1.811 Z-0.1296 I-0.0053 J-0.0015
X5.7553 Y1.814 Z-0.1302 I0.0053 J0.0015
X5.7447 Y1.811 Z-0.1308 I-0.0053 J-0.0015
X5.7553 Y1.814 Z-0.1314 I0.0053 J0.0015
X5.7447 Y1.811 Z-0.132 I-0.0053 J-0.0015
X5.7553 Y1.814 Z-0.1326 I0.0053 J0.0015
X5.7447 Y1.811 Z-0.1332 I-0.0053 J-0.0015
X5.7553 Y1.814 Z-0.1338 I0.0053 J0.0015
X5.7447 Y1.811 Z-0.1345 I-0.0053 J-0.0015
X5.7553 Y1.814 Z-0.1351 I0.0053 J0.0015
X5.7447 Y1.811 Z-0.1357 I-0.0053 J-0.0015
X5.7553 Y1.814 Z-0.1363 I0.0053 J0.0015
X5.7447 Y1.811 Z-0.1369 I-0.0053 J-0.0015
X5.7553 Y1.814 Z-0.1375 I0.0053 J0.0015
X5.7447 Y1.811 Z-0.1381 I-0.0053 J-0.0015
X5.7553 Y1.814 Z-0.1387 I0.0053 J0.0015
X5.7447 Y1.811 Z-0.1393 I-0.0053 J-0.0015
X5.7553 Y1.814 Z-0.1399 I0.0053 J0.0015
X5.7532 Y1.817 Z-0.14 I-0.0053 J-0.0015
X5.7468 Y1.808 I-0.0032 J-0.0045 F40.
X5.7532 Y1.817 I0.0032 J0.0045
X5.7468 Y1.808 Z-0.1406 I-0.0032 J-0.0045 F20.
X5.7532 Y1.817 Z-0.1412 I0.0032 J0.0045
X5.7468 Y1.808 Z-0.1418 I-0.0032 J-0.0045
X5.7532 Y1.817 Z-0.1424 I0.0032 J0.0045
X5.7468 Y1.808 Z-0.143 I-0.0032 J-0.0045
X5.7532 Y1.817 Z-0.1436 I0.0032 J0.0045
X5.7468 Y1.808 Z-0.1442 I-0.0032 J-0.0045
X5.7532 Y1.817 Z-0.1448 I0.0032 J0.0045
X5.7468 Y1.808 Z-0.1454 I-0.0032 J-0.0045
X5.7532 Y1.817 Z-0.146 I0.0032 J0.0045
X5.7468 Y1.808 Z-0.1466 I-0.0032 J-0.0045
X5.7532 Y1.817 Z-0.1472 I0.0032 J0.0045
X5.7468 Y1.808 Z-0.1478 I-0.0032 J-0.0045
X5.7532 Y1.817 Z-0.1484 I0.0032 J0.0045
X5.7468 Y1.808 Z-0.149 I-0.0032 J-0.0045
X5.7532 Y1.817 Z-0.1496 I0.0032 J0.0045
X5.7468 Y1.808 Z-0.1502 I-0.0032 J-0.0045
X5.7532 Y1.817 Z-0.1508 I0.0032 J0.0045
X5.7468 Y1.808 Z-0.1514 I-0.0032 J-0.0045
X5.7532 Y1.817 Z-0.152 I0.0032 J0.0045
X5.7446 Y1.8114 Z-0.1525 I-0.0032 J-0.0045
X5.7554 Y1.8136 I0.0054 J0.0011 F40.
X5.7446 Y1.8114 I-0.0054 J-0.0011
X5.7554 Y1.8136 Z-0.1531 I0.0054 J0.0011 F20.
X5.7446 Y1.8114 Z-0.1537 I-0.0054 J-0.0011
X5.7554 Y1.8136 Z-0.1543 I0.0054 J0.0011
X5.7446 Y1.8114 Z-0.1549 I-0.0054 J-0.0011
X5.7554 Y1.8136 Z-0.1555 I0.0054 J0.0011
X5.7446 Y1.8114 Z-0.1561 I-0.0054 J-0.0011
X5.7554 Y1.8136 Z-0.1567 I0.0054 J0.0011
X5.7446 Y1.8114 Z-0.1573 I-0.0054 J-0.0011
X5.7554 Y1.8136 Z-0.1579 I0.0054 J0.0011
X5.7446 Y1.8114 Z-0.1585 I-0.0054 J-0.0011
X5.7554 Y1.8136 Z-0.1591 I0.0054 J0.0011
X5.7446 Y1.8114 Z-0.1597 I-0.0054 J-0.0011
X5.7554 Y1.8136 Z-0.1603 I0.0054 J0.0011
X5.7446 Y1.8114 Z-0.1609 I-0.0054 J-0.0011
X5.7554 Y1.8136 Z-0.1615 I0.0054 J0.0011
X5.7446 Y1.8114 Z-0.1621 I-0.0054 J-0.0011
X5.7554 Y1.8136 Z-0.1627 I0.0054 J0.0011
X5.7446 Y1.8114 Z-0.1633 I-0.0054 J-0.0011
X5.7554 Y1.8136 Z-0.1639 I0.0054 J0.0011
X5.7446 Y1.8114 Z-0.1645 I-0.0054 J-0.0011
X5.7547 Y1.8097 Z-0.165 I0.0054 J0.0011
X5.7453 Y1.8153 I-0.0047 J0.0028 F40.
X5.7547 Y1.8097 I0.0047 J-0.0028
G1 X5.7553 Y1.811 Z-0.1648
X5.7555 Y1.8125 Z-0.1646
X5.7553 Y1.8138 Z-0.164
X5.7549 Y1.8151 Z-0.1633
X5.7541 Y1.8162 Z-0.1627
X5.753 Y1.8171 Z-0.1611
X5.7516 Y1.8178 Z-0.1595
X5.75 Y1.818 Z-0.1553
X5.7498 Z-0.1532
G0 Z0.2
X5.2497 Y1.8075
G1 Z0.1118 F40.
X5.2505 Y1.8076 Z0.1075 F20.
X5.2515 Y1.8079 Z0.1057
X5.2525 Y1.8085 Z0.1039
X5.2534 Y1.8094 Z0.1029
X5.2541 Y1.8104 Z0.102
X5.2544 Y1.8116 Z0.1011
X5.2545 Y1.8132 Z0.1007
X5.254 Y1.8146 Z0.1004
X5.2532 Y1.8159 Z0.1
G3 X5.2458 Y1.8091 Z0.0995 I-0.0037 J-0.0034
X5.2532 Y1.8159 Z0.0989 I0.0037 J0.0034
X5.2458 Y1.8091 Z0.0984 I-0.0037 J-0.0034
X5.2532 Y1.8159 Z0.0978 I0.0037 J0.0034
X5.2458 Y1.8091 Z0.0973 I-0.0037 J-0.0034
X5.2532 Y1.8159 Z0.0967 I0.0037 J0.0034
X5.2458 Y1.8091 Z0.0962 I-0.0037 J-0.0034
X5.2532 Y1.8159 Z0.0956 I0.0037 J0.0034
X5.2458 Y1.8091 Z0.0951 I-0.0037 J-0.0034
X5.2532 Y1.8159 Z0.0945 I0.0037 J0.0034
X5.2458 Y1.8091 Z0.094 I-0.0037 J-0.0034
X5.2532 Y1.8159 Z0.0934 I0.0037 J0.0034
X5.2458 Y1.8091 Z0.0929 I-0.0037 J-0.0034
X5.2532 Y1.8159 Z0.0923 I0.0037 J0.0034
X5.2458 Y1.8091 Z0.0918 I-0.0037 J-0.0034
X5.2532 Y1.8159 Z0.0912 I0.0037 J0.0034
X5.2458 Y1.8091 Z0.0907 I-0.0037 J-0.0034
X5.2532 Y1.8159 Z0.0901 I0.0037 J0.0034
X5.2458 Y1.8091 Z0.0896 I-0.0037 J-0.0034
X5.2532 Y1.8159 Z0.089 I0.0037 J0.0034
X5.2458 Y1.8091 Z0.0885 I-0.0037 J-0.0034
X5.2532 Y1.8159 Z0.0879 I0.0037 J0.0034
X5.2458 Y1.8091 Z0.0874 I-0.0037 J-0.0034
X5.2532 Y1.8159 Z0.0868 I0.0037 J0.0034
X5.2458 Y1.8091 Z0.0863 I-0.0037 J-0.0034
X5.2532 Y1.8159 Z0.0857 I0.0037 J0.0034
X5.2458 Y1.8091 Z0.0852 I-0.0037 J-0.0034
X5.2532 Y1.8159 Z0.0846 I0.0037 J0.0034
X5.2458 Y1.8091 Z0.0841 I-0.0037 J-0.0034
X5.2532 Y1.8159 Z0.0835 I0.0037 J0.0034
X5.2458 Y1.8091 Z0.083 I-0.0037 J-0.0034
X5.2532 Y1.8159 Z0.0824 I0.0037 J0.0034
X5.2458 Y1.8091 Z0.0819 I-0.0037 J-0.0034
X5.2532 Y1.8159 Z0.0813 I0.0037 J0.0034
X5.2458 Y1.8091 Z0.0808 I-0.0037 J-0.0034
X5.2532 Y1.8159 Z0.0803 I0.0037 J0.0034
X5.2458 Y1.8091 Z0.0797 I-0.0037 J-0.0034
X5.2532 Y1.8159 Z0.0792 I0.0037 J0.0034
X5.2458 Y1.8091 Z0.0786 I-0.0037 J-0.0034
X5.2532 Y1.8159 Z0.0781 I0.0037 J0.0034
X5.2458 Y1.8091 Z0.0775 I-0.0037 J-0.0034
X5.2532 Y1.8159 Z0.077 I0.0037 J0.0034
X5.2458 Y1.8091 Z0.0764 I-0.0037 J-0.0034
X5.2532 Y1.8159 Z0.0759 I0.0037 J0.0034
X5.2458 Y1.8091 Z0.0753 I-0.0037 J-0.0034
X5.2532 Y1.8159 Z0.0748 I0.0037 J0.0034
X5.2458 Y1.8091 Z0.0742 I-0.0037 J-0.0034
X5.2532 Y1.8159 Z0.0737 I0.0037 J0.0034
X5.2458 Y1.8091 Z0.0731 I-0.0037 J-0.0034
X5.2532 Y1.8159 Z0.0726 I0.0037 J0.0034
X5.2458 Y1.8091 Z0.072 I-0.0037 J-0.0034
X5.2532 Y1.8159 Z0.0715 I0.0037 J0.0034
X5.2458 Y1.8091 Z0.0709 I-0.0037 J-0.0034
X5.2532 Y1.8159 Z0.0704 I0.0037 J0.0034
X5.2458 Y1.8091 Z0.0698 I-0.0037 J-0.0034
X5.2532 Y1.8159 Z0.0693 I0.0037 J0.0034
X5.2458 Y1.8091 Z0.0687 I-0.0037 J-0.0034
X5.2532 Y1.8159 Z0.0682 I0.0037 J0.0034
X5.2458 Y1.8091 Z0.0676 I-0.0037 J-0.0034
X5.2532 Y1.8159 Z0.0671 I0.0037 J0.0034
X5.2458 Y1.8091 Z0.0665 I-0.0037 J-0.0034
X5.2532 Y1.8159 Z0.066 I0.0037 J0.0034
X5.2458 Y1.8091 Z0.0654 I-0.0037 J-0.0034
X5.2532 Y1.8159 Z0.0649 I0.0037 J0.0034
X5.2458 Y1.8091 Z0.0643 I-0.0037 J-0.0034
X5.2532 Y1.8159 Z0.0638 I0.0037 J0.0034
X5.2458 Y1.8091 Z0.0632 I-0.0037 J-0.0034
X5.2532 Y1.8159 Z0.0627 I0.0037 J0.0034
X5.2458 Y1.8091 Z0.0622 I-0.0037 J-0.0034
X5.2532 Y1.8159 Z0.0616 I0.0037 J0.0034
X5.2458 Y1.8091 Z0.0611 I-0.0037 J-0.0034
X5.2532 Y1.8159 Z0.0605 I0.0037 J0.0034
X5.2458 Y1.8091 Z0.06 I-0.0037 J-0.0034
X5.2532 Y1.8159 Z0.0594 I0.0037 J0.0034
X5.2458 Y1.8091 Z0.0589 I-0.0037 J-0.0034
X5.2532 Y1.8159 Z0.0583 I0.0037 J0.0034
X5.2458 Y1.8091 Z0.0578 I-0.0037 J-0.0034
X5.2532 Y1.8159 Z0.0572 I0.0037 J0.0034
X5.2458 Y1.8091 Z0.0567 I-0.0037 J-0.0034
X5.2532 Y1.8159 Z0.0561 I0.0037 J0.0034
X5.2458 Y1.8091 Z0.0556 I-0.0037 J-0.0034
X5.2532 Y1.8159 Z0.055 I0.0037 J0.0034
X5.2458 Y1.8091 Z0.0545 I-0.0037 J-0.0034
X5.2532 Y1.8159 Z0.0539 I0.0037 J0.0034
X5.2458 Y1.8091 Z0.0534 I-0.0037 J-0.0034
X5.2532 Y1.8159 Z0.0528 I0.0037 J0.0034
X5.2458 Y1.8091 Z0.0523 I-0.0037 J-0.0034
X5.2532 Y1.8159 Z0.0517 I0.0037 J0.0034
X5.2458 Y1.8091 Z0.0512 I-0.0037 J-0.0034
X5.2532 Y1.8159 Z0.0506 I0.0037 J0.0034
X5.2458 Y1.8091 Z0.0501 I-0.0037 J-0.0034
X5.2532 Y1.8159 Z0.0495 I0.0037 J0.0034
X5.2458 Y1.8091 Z0.049 I-0.0037 J-0.0034
X5.2532 Y1.8159 Z0.0484 I0.0037 J0.0034
X5.2458 Y1.8091 Z0.0479 I-0.0037 J-0.0034
X5.2532 Y1.8159 Z0.0473 I0.0037 J0.0034
X5.2458 Y1.8091 Z0.0468 I-0.0037 J-0.0034
X5.2532 Y1.8159 Z0.0462 I0.0037 J0.0034
X5.2458 Y1.8091 Z0.0457 I-0.0037 J-0.0034
X5.2532 Y1.8159 Z0.0451 I0.0037 J0.0034
X5.2458 Y1.8091 Z0.0446 I-0.0037 J-0.0034
X5.2532 Y1.8159 Z0.044 I0.0037 J0.0034
X5.2458 Y1.8091 Z0.0435 I-0.0037 J-0.0034
X5.2532 Y1.8159 Z0.043 I0.0037 J0.0034
X5.2458 Y1.8091 Z0.0424 I-0.0037 J-0.0034
X5.2532 Y1.8159 Z0.0419 I0.0037 J0.0034
X5.2458 Y1.8091 Z0.0413 I-0.0037 J-0.0034
X5.2532 Y1.8159 Z0.0408 I0.0037 J0.0034
X5.2458 Y1.8091 Z0.0402 I-0.0037 J-0.0034
X5.2532 Y1.8159 Z0.0397 I0.0037 J0.0034
X5.2458 Y1.8091 Z0.0391 I-0.0037 J-0.0034
X5.2532 Y1.8159 Z0.0386 I0.0037 J0.0034
X5.2458 Y1.8091 Z0.038 I-0.0037 J-0.0034
X5.2532 Y1.8159 Z0.0375 I0.0037 J0.0034
X5.2458 Y1.8091 Z0.0369 I-0.0037 J-0.0034
X5.2532 Y1.8159 Z0.0364 I0.0037 J0.0034
X5.2458 Y1.8091 Z0.0358 I-0.0037 J-0.0034
X5.2532 Y1.8159 Z0.0353 I0.0037 J0.0034
X5.2458 Y1.8091 Z0.0347 I-0.0037 J-0.0034
X5.2532 Y1.8159 Z0.0342 I0.0037 J0.0034
X5.2458 Y1.8091 Z0.0336 I-0.0037 J-0.0034
X5.2532 Y1.8159 Z0.0331 I0.0037 J0.0034
X5.2458 Y1.8091 Z0.0325 I-0.0037 J-0.0034
X5.2532 Y1.8159 Z0.032 I0.0037 J0.0034
X5.2458 Y1.8091 Z0.0314 I-0.0037 J-0.0034
X5.2532 Y1.8159 Z0.0309 I0.0037 J0.0034
X5.2458 Y1.8091 Z0.0303 I-0.0037 J-0.0034
X5.2532 Y1.8159 Z0.0298 I0.0037 J0.0034
X5.2458 Y1.8091 Z0.0292 I-0.0037 J-0.0034
X5.2532 Y1.8159 Z0.0287 I0.0037 J0.0034
X5.2458 Y1.8091 Z0.0281 I-0.0037 J-0.0034
X5.2532 Y1.8159 Z0.0276 I0.0037 J0.0034
X5.2458 Y1.8091 Z0.027 I-0.0037 J-0.0034
X5.2532 Y1.8159 Z0.0265 I0.0037 J0.0034
X5.2458 Y1.8091 Z0.0259 I-0.0037 J-0.0034
X5.2532 Y1.8159 Z0.0254 I0.0037 J0.0034
X5.2458 Y1.8091 Z0.0249 I-0.0037 J-0.0034
X5.2532 Y1.8159 Z0.0243 I0.0037 J0.0034
X5.2458 Y1.8091 Z0.0238 I-0.0037 J-0.0034
X5.2532 Y1.8159 Z0.0232 I0.0037 J0.0034
X5.2458 Y1.8091 Z0.0227 I-0.0037 J-0.0034
X5.2532 Y1.8159 Z0.0221 I0.0037 J0.0034
X5.2458 Y1.8091 Z0.0216 I-0.0037 J-0.0034
X5.2532 Y1.8159 Z0.021 I0.0037 J0.0034
X5.2458 Y1.8091 Z0.0205 I-0.0037 J-0.0034
X5.2532 Y1.8159 Z0.0199 I0.0037 J0.0034
X5.2458 Y1.8091 Z0.0194 I-0.0037 J-0.0034
X5.2532 Y1.8159 Z0.0188 I0.0037 J0.0034
X5.2458 Y1.8091 Z0.0183 I-0.0037 J-0.0034
X5.2532 Y1.8159 Z0.0177 I0.0037 J0.0034
X5.2458 Y1.8091 Z0.0172 I-0.0037 J-0.0034
X5.2532 Y1.8159 Z0.0166 I0.0037 J0.0034
X5.2458 Y1.8091 Z0.0161 I-0.0037 J-0.0034
X5.2532 Y1.8159 Z0.0155 I0.0037 J0.0034
X5.2458 Y1.8091 Z0.015 I-0.0037 J-0.0034
X5.2532 Y1.8159 Z0.0144 I0.0037 J0.0034
X5.2458 Y1.8091 Z0.0139 I-0.0037 J-0.0034
X5.2532 Y1.8159 Z0.0133 I0.0037 J0.0034
X5.2458 Y1.8091 Z0.0128 I-0.0037 J-0.0034
X5.2532 Y1.8159 Z0.0122 I0.0037 J0.0034
X5.2458 Y1.8091 Z0.0117 I-0.0037 J-0.0034
X5.2532 Y1.8159 Z0.0111 I0.0037 J0.0034
X5.2458 Y1.8091 Z0.0106 I-0.0037 J-0.0034
X5.2532 Y1.8159 Z0.01 I0.0037 J0.0034
X5.2458 Y1.8091 Z0.0095 I-0.0037 J-0.0034
X5.2532 Y1.8159 Z0.0089 I0.0037 J0.0034
X5.2458 Y1.8091 Z0.0084 I-0.0037 J-0.0034
X5.2532 Y1.8159 Z0.0078 I0.0037 J0.0034
X5.2458 Y1.8091 Z0.0073 I-0.0037 J-0.0034
X5.2532 Y1.8159 Z0.0067 I0.0037 J0.0034
X5.2458 Y1.8091 Z0.0062 I-0.0037 J-0.0034
X5.2532 Y1.8159 Z0.0057 I0.0037 J0.0034
X5.2458 Y1.8091 Z0.0051 I-0.0037 J-0.0034
X5.2532 Y1.8159 Z0.0046 I0.0037 J0.0034
X5.2458 Y1.8091 Z0.004 I-0.0037 J-0.0034
X5.2532 Y1.8159 Z0.0035 I0.0037 J0.0034
X5.2458 Y1.8091 Z0.0029 I-0.0037 J-0.0034
X5.2532 Y1.8159 Z0.0024 I0.0037 J0.0034
X5.2458 Y1.8091 Z0.0018 I-0.0037 J-0.0034
X5.2532 Y1.8159 Z0.0013 I0.0037 J0.0034
X5.2458 Y1.8091 Z0.0007 I-0.0037 J-0.0034
X5.2532 Y1.8159 Z0.0002 I0.0037 J0.0034
X5.2458 Y1.8091 Z-0.0004 I-0.0037 J-0.0034
X5.2532 Y1.8159 Z-0.0009 I0.0037 J0.0034
X5.2458 Y1.8091 Z-0.0015 I-0.0037 J-0.0034
X5.2532 Y1.8159 Z-0.002 I0.0037 J0.0034
X5.2458 Y1.8091 Z-0.0026 I-0.0037 J-0.0034
X5.2532 Y1.8159 Z-0.0031 I0.0037 J0.0034
X5.2458 Y1.8091 Z-0.0037 I-0.0037 J-0.0034
X5.2532 Y1.8159 Z-0.0042 I0.0037 J0.0034
X5.2458 Y1.8091 Z-0.0048 I-0.0037 J-0.0034
X5.2532 Y1.8159 Z-0.0053 I0.0037 J0.0034
X5.2458 Y1.8091 Z-0.0059 I-0.0037 J-0.0034
X5.2532 Y1.8159 Z-0.0064 I0.0037 J0.0034
X5.2458 Y1.8091 Z-0.007 I-0.0037 J-0.0034
X5.2532 Y1.8159 Z-0.0075 I0.0037 J0.0034
X5.2458 Y1.8091 Z-0.0081 I-0.0037 J-0.0034
X5.2532 Y1.8159 Z-0.0086 I0.0037 J0.0034
X5.2458 Y1.8091 Z-0.0092 I-0.0037 J-0.0034
X5.2532 Y1.8159 Z-0.0097 I0.0037 J0.0034
X5.2458 Y1.8091 Z-0.0103 I-0.0037 J-0.0034
X5.2532 Y1.8159 Z-0.0108 I0.0037 J0.0034
X5.2458 Y1.8091 Z-0.0114 I-0.0037 J-0.0034
X5.2532 Y1.8159 Z-0.0119 I0.0037 J0.0034
X5.2458 Y1.8091 Z-0.0124 I-0.0037 J-0.0034
X5.2532 Y1.8159 Z-0.013 I0.0037 J0.0034
X5.2458 Y1.8091 Z-0.0135 I-0.0037 J-0.0034
X5.2532 Y1.8159 Z-0.0141 I0.0037 J0.0034
X5.2458 Y1.8091 Z-0.0146 I-0.0037 J-0.0034
X5.2532 Y1.8159 Z-0.0152 I0.0037 J0.0034
X5.2458 Y1.8091 Z-0.0157 I-0.0037 J-0.0034
X5.2532 Y1.8159 Z-0.0163 I0.0037 J0.0034
X5.2458 Y1.8091 Z-0.0168 I-0.0037 J-0.0034
X5.2532 Y1.8159 Z-0.0174 I0.0037 J0.0034
X5.2458 Y1.8091 Z-0.0179 I-0.0037 J-0.0034
X5.2532 Y1.8159 Z-0.0185 I0.0037 J0.0034
X5.2458 Y1.8091 Z-0.019 I-0.0037 J-0.0034
X5.2532 Y1.8159 Z-0.0196 I0.0037 J0.0034
X5.2445 Y1.8125 Z-0.02 I-0.0037 J-0.0034
X5.2555 I0.0055 J0. F40.
X5.2445 I-0.0055 J0.
X5.2555 Z-0.0206 I0.0055 J0. F20.
X5.2445 Z-0.0212 I-0.0055 J0.
X5.2555 Z-0.0218 I0.0055 J0.
X5.2445 Z-0.0224 I-0.0055 J0.
X5.2555 Z-0.023 I0.0055 J0.
X5.2445 Z-0.0236 I-0.0055 J0.
X5.2555 Z-0.0242 I0.0055 J0.
X5.2445 Z-0.0248 I-0.0055 J0.
X5.2555 Z-0.0254 I0.0055 J0.
X5.2445 Z-0.026 I-0.0055 J0.
X5.2555 Z-0.0266 I0.0055 J0.
X5.2445 Z-0.0272 I-0.0055 J0.
X5.2555 Z-0.0278 I0.0055 J0.
X5.2445 Z-0.0284 I-0.0055 J0.
X5.2555 Z-0.029 I0.0055 J0.
X5.2445 Z-0.0296 I-0.0055 J0.
X5.2555 Z-0.0302 I0.0055 J0.
X5.2445 Z-0.0308 I-0.0055 J0.
X5.2555 Z-0.0314 I0.0055 J0.
X5.2445 Z-0.032 I-0.0055 J0.
X5.2555 Z-0.0326 I0.0055 J0.
X5.2445 Z-0.0332 I-0.0055 J0.
X5.2555 Z-0.0338 I0.0055 J0.
X5.2445 Z-0.0345 I-0.0055 J0.
X5.2555 Z-0.0351 I0.0055 J0.
X5.2445 Z-0.0357 I-0.0055 J0.
X5.2555 Z-0.0363 I0.0055 J0.
X5.2445 Z-0.0369 I-0.0055 J0.
X5.2555 Z-0.0375 I0.0055 J0.
X5.2445 Z-0.0381 I-0.0055 J0.
X5.2555 Z-0.0387 I0.0055 J0.
X5.2445 Z-0.0393 I-0.0055 J0.
X5.2555 Z-0.0399 I0.0055 J0.
X5.2543 Y1.816 Z-0.04 I-0.0055 J0.
X5.2457 Y1.809 I-0.0043 J-0.0035 F40.
X5.2543 Y1.816 I0.0043 J0.0035
X5.2457 Y1.809 Z-0.0406 I-0.0043 J-0.0035 F20.
X5.2543 Y1.816 Z-0.0412 I0.0043 J0.0035
X5.2457 Y1.809 Z-0.0418 I-0.0043 J-0.0035
X5.2543 Y1.816 Z-0.0424 I0.0043 J0.0035
X5.2457 Y1.809 Z-0.043 I-0.0043 J-0.0035
X5.2543 Y1.816 Z-0.0436 I0.0043 J0.0035
X5.2457 Y1.809 Z-0.0442 I-0.0043 J-0.0035
X5.2543 Y1.816 Z-0.0448 I0.0043 J0.0035
X5.2457 Y1.809 Z-0.0454 I-0.0043 J-0.0035
X5.2543 Y1.816 Z-0.046 I0.0043 J0.0035
X5.2457 Y1.809 Z-0.0466 I-0.0043 J-0.0035
X5.2543 Y1.816 Z-0.0472 I0.0043 J0.0035
X5.2457 Y1.809 Z-0.0478 I-0.0043 J-0.0035
X5.2543 Y1.816 Z-0.0484 I0.0043 J0.0035
X5.2457 Y1.809 Z-0.049 I-0.0043 J-0.0035
X5.2543 Y1.816 Z-0.0496 I0.0043 J0.0035
X5.2457 Y1.809 Z-0.0502 I-0.0043 J-0.0035
X5.2543 Y1.816 Z-0.0508 I0.0043 J0.0035
X5.2457 Y1.809 Z-0.0514 I-0.0043 J-0.0035
X5.2543 Y1.816 Z-0.052 I0.0043 J0.0035
X5.2457 Y1.809 Z-0.0526 I-0.0043 J-0.0035
X5.2543 Y1.816 Z-0.0532 I0.0043 J0.0035
X5.2457 Y1.809 Z-0.0538 I-0.0043 J-0.0035
X5.2543 Y1.816 Z-0.0545 I0.0043 J0.0035
X5.2457 Y1.809 Z-0.0551 I-0.0043 J-0.0035
X5.2543 Y1.816 Z-0.0557 I0.0043 J0.0035
X5.2457 Y1.809 Z-0.0563 I-0.0043 J-0.0035
X5.2543 Y1.816 Z-0.0569 I0.0043 J0.0035
X5.2457 Y1.809 Z-0.0575 I-0.0043 J-0.0035
X5.2543 Y1.816 Z-0.0581 I0.0043 J0.0035
X5.2457 Y1.809 Z-0.0587 I-0.0043 J-0.0035
X5.2543 Y1.816 Z-0.0593 I0.0043 J0.0035
X5.2457 Y1.809 Z-0.0599 I-0.0043 J-0.0035
X5.2489 Y1.8071 Z-0.06 I0.0043 J0.0035
X5.2511 Y1.8179 I0.0011 J0.0054 F40.
X5.2489 Y1.8071 I-0.0011 J-0.0054
X5.2511 Y1.8179 Z-0.0606 I0.0011 J0.0054 F20.
X5.2489 Y1.8071 Z-0.0612 I-0.0011 J-0.0054
X5.2511 Y1.8179 Z-0.0618 I0.0011 J0.0054
X5.2489 Y1.8071 Z-0.0624 I-0.0011 J-0.0054
X5.2511 Y1.8179 Z-0.063 I0.0011 J0.0054
X5.2489 Y1.8071 Z-0.0636 I-0.0011 J-0.0054
X5.2511 Y1.8179 Z-0.0642 I0.0011 J0.0054
X5.2489 Y1.8071 Z-0.0648 I-0.0011 J-0.0054
X5.2511 Y1.8179 Z-0.0654 I0.0011 J0.0054
X5.2489 Y1.8071 Z-0.066 I-0.0011 J-0.0054
X5.2511 Y1.8179 Z-0.0666 I0.0011 J0.0054
X5.2489 Y1.8071 Z-0.0672 I-0.0011 J-0.0054
X5.2511 Y1.8179 Z-0.0678 I0.0011 J0.0054
X5.2489 Y1.8071 Z-0.0684 I-0.0011 J-0.0054
X5.2511 Y1.8179 Z-0.069 I0.0011 J0.0054
X5.2489 Y1.8071 Z-0.0696 I-0.0011 J-0.0054
X5.2511 Y1.8179 Z-0.0702 I0.0011 J0.0054
X5.2489 Y1.8071 Z-0.0708 I-0.0011 J-0.0054
X5.2511 Y1.8179 Z-0.0714 I0.0011 J0.0054
X5.2489 Y1.8071 Z-0.072 I-0.0011 J-0.0054
X5.2511 Y1.8179 Z-0.0726 I0.0011 J0.0054
X5.2489 Y1.8071 Z-0.0732 I-0.0011 J-0.0054
X5.2511 Y1.8179 Z-0.0738 I0.0011 J0.0054
X5.2489 Y1.8071 Z-0.0745 I-0.0011 J-0.0054
X5.2511 Y1.8179 Z-0.0751 I0.0011 J0.0054
X5.2489 Y1.8071 Z-0.0757 I-0.0011 J-0.0054
X5.2511 Y1.8179 Z-0.0763 I0.0011 J0.0054
X5.2489 Y1.8071 Z-0.0769 I-0.0011 J-0.0054
X5.2511 Y1.8179 Z-0.0775 I0.0011 J0.0054
X5.2489 Y1.8071 Z-0.0781 I-0.0011 J-0.0054
X5.2511 Y1.8179 Z-0.0787 I0.0011 J0.0054
X5.2489 Y1.8071 Z-0.0793 I-0.0011 J-0.0054
X5.2511 Y1.8179 Z-0.0799 I0.0011 J0.0054
X5.2475 Y1.8174 Z-0.08 I-0.0011 J-0.0054
X5.2525 Y1.8076 I0.0025 J-0.0049 F40.
X5.2475 Y1.8174 I-0.0025 J0.0049
X5.2525 Y1.8076 Z-0.0806 I0.0025 J-0.0049 F20.
X5.2475 Y1.8174 Z-0.0812 I-0.0025 J0.0049
X5.2525 Y1.8076 Z-0.0818 I0.0025 J-0.0049
X5.2475 Y1.8174 Z-0.0824 I-0.0025 J0.0049
X5.2525 Y1.8076 Z-0.083 I0.0025 J-0.0049
X5.2475 Y1.8174 Z-0.0836 I-0.0025 J0.0049
X5.2525 Y1.8076 Z-0.0842 I0.0025 J-0.0049
X5.2475 Y1.8174 Z-0.0848 I-0.0025 J0.0049
X5.2525 Y1.8076 Z-0.0854 I0.0025 J-0.0049
X5.2475 Y1.8174 Z-0.086 I-0.0025 J0.0049
X5.2525 Y1.8076 Z-0.0866 I0.0025 J-0.0049
X5.2475 Y1.8174 Z-0.0872 I-0.0025 J0.0049
X5.2525 Y1.8076 Z-0.0878 I0.0025 J-0.0049
X5.2475 Y1.8174 Z-0.0884 I-0.0025 J0.0049
X5.2525 Y1.8076 Z-0.089 I0.0025 J-0.0049
X5.2475 Y1.8174 Z-0.0896 I-0.0025 J0.0049
X5.2525 Y1.8076 Z-0.0902 I0.0025 J-0.0049
X5.2475 Y1.8174 Z-0.0908 I-0.0025 J0.0049
X5.2525 Y1.8076 Z-0.0914 I0.0025 J-0.0049
X5.2475 Y1.8174 Z-0.092 I-0.0025 J0.0049
X5.2525 Y1.8076 Z-0.0926 I0.0025 J-0.0049
X5.2475 Y1.8174 Z-0.0932 I-0.0025 J0.0049
X5.2525 Y1.8076 Z-0.0938 I0.0025 J-0.0049
X5.2475 Y1.8174 Z-0.0945 I-0.0025 J0.0049
X5.2525 Y1.8076 Z-0.0951 I0.0025 J-0.0049
X5.2475 Y1.8174 Z-0.0957 I-0.0025 J0.0049
X5.2525 Y1.8076 Z-0.0963 I0.0025 J-0.0049
X5.2475 Y1.8174 Z-0.0969 I-0.0025 J0.0049
X5.2525 Y1.8076 Z-0.0975 I0.0025 J-0.0049
X5.2475 Y1.8174 Z-0.0981 I-0.0025 J0.0049
X5.2525 Y1.8076 Z-0.0987 I0.0025 J-0.0049
X5.2475 Y1.8174 Z-0.0993 I-0.0025 J0.0049
X5.2525 Y1.8076 Z-0.0999 I0.0025 J-0.0049
X5.255 Y1.8103 Z-0.1 I-0.0025 J0.0049
X5.245 Y1.8147 I-0.005 J0.0022 F40.
X5.255 Y1.8103 I0.005 J-0.0022
X5.245 Y1.8147 Z-0.1006 I-0.005 J0.0022 F20.
X5.255 Y1.8103 Z-0.1012 I0.005 J-0.0022
X5.245 Y1.8147 Z-0.1018 I-0.005 J0.0022
X5.255 Y1.8103 Z-0.1024 I0.005 J-0.0022
X5.245 Y1.8147 Z-0.103 I-0.005 J0.0022
X5.255 Y1.8103 Z-0.1036 I0.005 J-0.0022
X5.245 Y1.8147 Z-0.1042 I-0.005 J0.0022
X5.255 Y1.8103 Z-0.1048 I0.005 J-0.0022
X5.245 Y1.8147 Z-0.1054 I-0.005 J0.0022
X5.255 Y1.8103 Z-0.106 I0.005 J-0.0022
X5.245 Y1.8147 Z-0.1066 I-0.005 J0.0022
X5.255 Y1.8103 Z-0.1072 I0.005 J-0.0022
X5.245 Y1.8147 Z-0.1078 I-0.005 J0.0022
X5.255 Y1.8103 Z-0.1084 I0.005 J-0.0022
X5.245 Y1.8147 Z-0.109 I-0.005 J0.0022
X5.255 Y1.8103 Z-0.1096 I0.005 J-0.0022
X5.245 Y1.8147 Z-0.1102 I-0.005 J0.0022
X5.255 Y1.8103 Z-0.1108 I0.005 J-0.0022
X5.245 Y1.8147 Z-0.1114 I-0.005 J0.0022
X5.255 Y1.8103 Z-0.112 I0.005 J-0.0022
X5.245 Y1.8147 Z-0.1126 I-0.005 J0.0022
X5.255 Y1.8103 Z-0.1132 I0.005 J-0.0022
X5.245 Y1.8147 Z-0.1138 I-0.005 J0.0022
X5.255 Y1.8103 Z-0.1145 I0.005 J-0.0022
X5.245 Y1.8147 Z-0.1151 I-0.005 J0.0022
X5.255 Y1.8103 Z-0.1157 I0.005 J-0.0022
X5.245 Y1.8147 Z-0.1163 I-0.005 J0.0022
X5.255 Y1.8103 Z-0.1169 I0.005 J-0.0022
X5.245 Y1.8147 Z-0.1175 I-0.005 J0.0022
X5.255 Y1.8103 Z-0.1181 I0.005 J-0.0022
X5.245 Y1.8147 Z-0.1187 I-0.005 J0.0022
X5.255 Y1.8103 Z-0.1193 I0.005 J-0.0022
X5.245 Y1.8147 Z-0.1199 I-0.005 J0.0022
X5.2447 Y1.811 Z-0.12 I0.005 J-0.0022
X5.2553 Y1.814 I0.0053 J0.0015 F40.
X5.2447 Y1.811 I-0.0053 J-0.0015
X5.2553 Y1.814 Z-0.1206 I0.0053 J0.0015 F20.
X5.2447 Y1.811 Z-0.1212 I-0.0053 J-0.0015
X5.2553 Y1.814 Z-0.1218 I0.0053 J0.0015
X5.2447 Y1.811 Z-0.1224 I-0.0053 J-0.0015
X5.2553 Y1.814 Z-0.123 I0.0053 J0.0015
X5.2447 Y1.811 Z-0.1236 I-0.0053 J-0.0015
X5.2553 Y1.814 Z-0.1242 I0.0053 J0.0015
X5.2447 Y1.811 Z-0.1248 I-0.0053 J-0.0015
X5.2553 Y1.814 Z-0.1254 I0.0053 J0.0015
X5.2447 Y1.811 Z-0.126 I-0.0053 J-0.0015
X5.2553 Y1.814 Z-0.1266 I0.0053 J0.0015
X5.2447 Y1.811 Z-0.1272 I-0.0053 J-0.0015
X5.2553 Y1.814 Z-0.1278 I0.0053 J0.0015
X5.2447 Y1.811 Z-0.1284 I-0.0053 J-0.0015
X5.2553 Y1.814 Z-0.129 I0.0053 J0.0015
X5.2447 Y1.811 Z-0.1296 I-0.0053 J-0.0015
X5.2553 Y1.814 Z-0.1302 I0.0053 J0.0015
X5.2447 Y1.811 Z-0.1308 I-0.0053 J-0.0015
X5.2553 Y1.814 Z-0.1314 I0.0053 J0.0015
X5.2447 Y1.811 Z-0.132 I-0.0053 J-0.0015
X5.2553 Y1.814 Z-0.1326 I0.0053 J0.0015
X5.2447 Y1.811 Z-0.1332 I-0.0053 J-0.0015
X5.2553 Y1.814 Z-0.1338 I0.0053 J0.0015
X5.2447 Y1.811 Z-0.1345 I-0.0053 J-0.0015
X5.2553 Y1.814 Z-0.1351 I0.0053 J0.0015
X5.2447 Y1.811 Z-0.1357 I-0.0053 J-0.0015
X5.2553 Y1.814 Z-0.1363 I0.0053 J0.0015
X5.2447 Y1.811 Z-0.1369 I-0.0053 J-0.0015
X5.2553 Y1.814 Z-0.1375 I0.0053 J0.0015
X5.2447 Y1.811 Z-0.1381 I-0.0053 J-0.0015
X5.2553 Y1.814 Z-0.1387 I0.0053 J0.0015
X5.2447 Y1.811 Z-0.1393 I-0.0053 J-0.0015
X5.2553 Y1.814 Z-0.1399 I0.0053 J0.0015
X5.2532 Y1.817 Z-0.14 I-0.0053 J-0.0015
X5.2468 Y1.808 I-0.0032 J-0.0045 F40.
X5.2532 Y1.817 I0.0032 J0.0045
X5.2468 Y1.808 Z-0.1406 I-0.0032 J-0.0045 F20.
X5.2532 Y1.817 Z-0.1412 I0.0032 J0.0045
X5.2468 Y1.808 Z-0.1418 I-0.0032 J-0.0045
X5.2532 Y1.817 Z-0.1424 I0.0032 J0.0045
X5.2468 Y1.808 Z-0.143 I-0.0032 J-0.0045
X5.2532 Y1.817 Z-0.1436 I0.0032 J0.0045
X5.2468 Y1.808 Z-0.1442 I-0.0032 J-0.0045
X5.2532 Y1.817 Z-0.1448 I0.0032 J0.0045
X5.2468 Y1.808 Z-0.1454 I-0.0032 J-0.0045
X5.2532 Y1.817 Z-0.146 I0.0032 J0.0045
X5.2468 Y1.808 Z-0.1466 I-0.0032 J-0.0045
X5.2532 Y1.817 Z-0.1472 I0.0032 J0.0045
X5.2468 Y1.808 Z-0.1478 I-0.0032 J-0.0045
X5.2532 Y1.817 Z-0.1484 I0.0032 J0.0045
X5.2468 Y1.808 Z-0.149 I-0.0032 J-0.0045
X5.2532 Y1.817 Z-0.1496 I0.0032 J0.0045
X5.2468 Y1.808 Z-0.1502 I-0.0032 J-0.0045
X5.2532 Y1.817 Z-0.1508 I0.0032 J0.0045
X5.2468 Y1.808 Z-0.1514 I-0.0032 J-0.0045
X5.2532 Y1.817 Z-0.152 I0.0032 J0.0045
X5.2446 Y1.8114 Z-0.1525 I-0.0032 J-0.0045
X5.2554 Y1.8136 I0.0054 J0.0011 F40.
X5.2446 Y1.8114 I-0.0054 J-0.0011
X5.2554 Y1.8136 Z-0.1531 I0.0054 J0.0011 F20.
X5.2446 Y1.8114 Z-0.1537 I-0.0054 J-0.0011
X5.2554 Y1.8136 Z-0.1543 I0.0054 J0.0011
X5.2446 Y1.8114 Z-0.1549 I-0.0054 J-0.0011
X5.2554 Y1.8136 Z-0.1555 I0.0054 J0.0011
X5.2446 Y1.8114 Z-0.1561 I-0.0054 J-0.0011
X5.2554 Y1.8136 Z-0.1567 I0.0054 J0.0011
X5.2446 Y1.8114 Z-0.1573 I-0.0054 J-0.0011
X5.2554 Y1.8136 Z-0.1579 I0.0054 J0.0011
X5.2446 Y1.8114 Z-0.1585 I-0.0054 J-0.0011
X5.2554 Y1.8136 Z-0.1591 I0.0054 J0.0011
X5.2446 Y1.8114 Z-0.1597 I-0.0054 J-0.0011
X5.2554 Y1.8136 Z-0.1603 I0.0054 J0.0011
X5.2446 Y1.8114 Z-0.1609 I-0.0054 J-0.0011
X5.2554 Y1.8136 Z-0.1615 I0.0054 J0.0011
X5.2446 Y1.8114 Z-0.1621 I-0.0054 J-0.0011
X5.2554 Y1.8136 Z-0.1627 I0.0054 J0.0011
X5.2446 Y1.8114 Z-0.1633 I-0.0054 J-0.0011
X5.2554 Y1.8136 Z-0.1639 I0.0054 J0.0011
X5.2446 Y1.8114 Z-0.1645 I-0.0054 J-0.0011
X5.2547 Y1.8097 Z-0.165 I0.0054 J0.0011
X5.2453 Y1.8153 I-0.0047 J0.0028 F40.
X5.2547 Y1.8097 I0.0047 J-0.0028
G1 X5.2553 Y1.811 Z-0.1648
X5.2555 Y1.8125 Z-0.1646
X5.2553 Y1.8138 Z-0.164
X5.2549 Y1.8151 Z-0.1633
X5.2541 Y1.8162 Z-0.1627
X5.253 Y1.8171 Z-0.1611
X5.2516 Y1.8178 Z-0.1595
X5.25 Y1.818 Z-0.1553
X5.2498 Z-0.1532
G0 Z0.2
X4.255 Y0.3122
G1 Z0.1118 F40.
X4.2549 Y0.313 Z0.1075 F20.
X4.2546 Y0.314 Z0.1057
X4.254 Y0.315 Z0.1039
X4.2531 Y0.3159 Z0.1029
X4.2521 Y0.3166 Z0.102
X4.2509 Y0.3169 Z0.1011
X4.2493 Y0.317 Z0.1007
X4.2479 Y0.3165 Z0.1004
X4.2466 Y0.3157 Z0.1
G3 X4.2534 Y0.3083 Z0.0995 I0.0034 J-0.0037
X4.2466 Y0.3157 Z0.0989 I-0.0034 J0.0037
X4.2534 Y0.3083 Z0.0984 I0.0034 J-0.0037
X4.2466 Y0.3157 Z0.0978 I-0.0034 J0.0037
X4.2534 Y0.3083 Z0.0973 I0.0034 J-0.0037
X4.2466 Y0.3157 Z0.0967 I-0.0034 J0.0037
X4.2534 Y0.3083 Z0.0962 I0.0034 J-0.0037
X4.2466 Y0.3157 Z0.0956 I-0.0034 J0.0037
X4.2534 Y0.3083 Z0.0951 I0.0034 J-0.0037
X4.2466 Y0.3157 Z0.0945 I-0.0034 J0.0037
X4.2534 Y0.3083 Z0.094 I0.0034 J-0.0037
X4.2466 Y0.3157 Z0.0934 I-0.0034 J0.0037
X4.2534 Y0.3083 Z0.0929 I0.0034 J-0.0037
X4.2466 Y0.3157 Z0.0923 I-0.0034 J0.0037
X4.2534 Y0.3083 Z0.0918 I0.0034 J-0.0037
X4.2466 Y0.3157 Z0.0912 I-0.0034 J0.0037
X4.2534 Y0.3083 Z0.0907 I0.0034 J-0.0037
X4.2466 Y0.3157 Z0.0901 I-0.0034 J0.0037
X4.2534 Y0.3083 Z0.0896 I0.0034 J-0.0037
X4.2466 Y0.3157 Z0.089 I-0.0034 J0.0037
X4.2534 Y0.3083 Z0.0885 I0.0034 J-0.0037
X4.2466 Y0.3157 Z0.0879 I-0.0034 J0.0037
X4.2534 Y0.3083 Z0.0874 I0.0034 J-0.0037
X4.2466 Y0.3157 Z0.0868 I-0.0034 J0.0037
X4.2534 Y0.3083 Z0.0863 I0.0034 J-0.0037
X4.2466 Y0.3157 Z0.0857 I-0.0034 J0.0037
X4.2534 Y0.3083 Z0.0852 I0.0034 J-0.0037
X4.2466 Y0.3157 Z0.0846 I-0.0034 J0.0037
X4.2534 Y0.3083 Z0.0841 I0.0034 J-0.0037
X4.2466 Y0.3157 Z0.0835 I-0.0034 J0.0037
X4.2534 Y0.3083 Z0.083 I0.0034 J-0.0037
X4.2466 Y0.3157 Z0.0824 I-0.0034 J0.0037
X4.2534 Y0.3083 Z0.0819 I0.0034 J-0.0037
X4.2466 Y0.3157 Z0.0813 I-0.0034 J0.0037
X4.2534 Y0.3083 Z0.0808 I0.0034 J-0.0037
X4.2466 Y0.3157 Z0.0803 I-0.0034 J0.0037
X4.2534 Y0.3083 Z0.0797 I0.0034 J-0.0037
X4.2466 Y0.3157 Z0.0792 I-0.0034 J0.0037
X4.2534 Y0.3083 Z0.0786 I0.0034 J-0.0037
X4.2466 Y0.3157 Z0.0781 I-0.0034 J0.0037
X4.2534 Y0.3083 Z0.0775 I0.0034 J-0.0037
X4.2466 Y0.3157 Z0.077 I-0.0034 J0.0037
X4.2534 Y0.3083 Z0.0764 I0.0034 J-0.0037
X4.2466 Y0.3157 Z0.0759 I-0.0034 J0.0037
X4.2534 Y0.3083 Z0.0753 I0.0034 J-0.0037
X4.2466 Y0.3157 Z0.0748 I-0.0034 J0.0037
X4.2534 Y0.3083 Z0.0742 I0.0034 J-0.0037
X4.2466 Y0.3157 Z0.0737 I-0.0034 J0.0037
X4.2534 Y0.3083 Z0.0731 I0.0034 J-0.0037
X4.2466 Y0.3157 Z0.0726 I-0.0034 J0.0037
X4.2534 Y0.3083 Z0.072 I0.0034 J-0.0037
X4.2466 Y0.3157 Z0.0715 I-0.0034 J0.0037
X4.2534 Y0.3083 Z0.0709 I0.0034 J-0.0037
X4.2466 Y0.3157 Z0.0704 I-0.0034 J0.0037
X4.2534 Y0.3083 Z0.0698 I0.0034 J-0.0037
X4.2466 Y0.3157 Z0.0693 I-0.0034 J0.0037
X4.2534 Y0.3083 Z0.0687 I0.0034 J-0.0037
X4.2466 Y0.3157 Z0.0682 I-0.0034 J0.0037
X4.2534 Y0.3083 Z0.0676 I0.0034 J-0.0037
X4.2466 Y0.3157 Z0.0671 I-0.0034 J0.0037
X4.2534 Y0.3083 Z0.0665 I0.0034 J-0.0037
X4.2466 Y0.3157 Z0.066 I-0.0034 J0.0037
X4.2534 Y0.3083 Z0.0654 I0.0034 J-0.0037
X4.2466 Y0.3157 Z0.0649 I-0.0034 J0.0037
X4.2534 Y0.3083 Z0.0643 I0.0034 J-0.0037
X4.2466 Y0.3157 Z0.0638 I-0.0034 J0.0037
X4.2534 Y0.3083 Z0.0632 I0.0034 J-0.0037
X4.2466 Y0.3157 Z0.0627 I-0.0034 J0.0037
X4.2534 Y0.3083 Z0.0622 I0.0034 J-0.0037
X4.2466 Y0.3157 Z0.0616 I-0.0034 J0.0037
X4.2534 Y0.3083 Z0.0611 I0.0034 J-0.0037
X4.2466 Y0.3157 Z0.0605 I-0.0034 J0.0037
X4.2534 Y0.3083 Z0.06 I0.0034 J-0.0037
X4.2466 Y0.3157 Z0.0594 I-0.0034 J0.0037
X4.2534 Y0.3083 Z0.0589 I0.0034 J-0.0037
X4.2466 Y0.3157 Z0.0583 I-0.0034 J0.0037
X4.2534 Y0.3083 Z0.0578 I0.0034 J-0.0037
X4.2466 Y0.3157 Z0.0572 I-0.0034 J0.0037
X4.2534 Y0.3083 Z0.0567 I0.0034 J-0.0037
X4.2466 Y0.3157 Z0.0561 I-0.0034 J0.0037
X4.2534 Y0.3083 Z0.0556 I0.0034 J-0.0037
X4.2466 Y0.3157 Z0.055 I-0.0034 J0.0037
X4.2534 Y0.3083 Z0.0545 I0.0034 J-0.0037
X4.2466 Y0.3157 Z0.0539 I-0.0034 J0.0037
X4.2534 Y0.3083 Z0.0534 I0.0034 J-0.0037
X4.2466 Y0.3157 Z0.0528 I-0.0034 J0.0037
X4.2534 Y0.3083 Z0.0523 I0.0034 J-0.0037
X4.2466 Y0.3157 Z0.0517 I-0.0034 J0.0037
X4.2534 Y0.3083 Z0.0512 I0.0034 J-0.0037
X4.2466 Y0.3157 Z0.0506 I-0.0034 J0.0037
X4.2534 Y0.3083 Z0.0501 I0.0034 J-0.0037
X4.2466 Y0.3157 Z0.0495 I-0.0034 J0.0037
X4.2534 Y0.3083 Z0.049 I0.0034 J-0.0037
X4.2466 Y0.3157 Z0.0484 I-0.0034 J0.0037
X4.2534 Y0.3083 Z0.0479 I0.0034 J-0.0037
X4.2466 Y0.3157 Z0.0473 I-0.0034 J0.0037
X4.2534 Y0.3083 Z0.0468 I0.0034 J-0.0037
X4.2466 Y0.3157 Z0.0462 I-0.0034 J0.0037
X4.2534 Y0.3083 Z0.0457 I0.0034 J-0.0037
X4.2466 Y0.3157 Z0.0451 I-0.0034 J0.0037
X4.2534 Y0.3083 Z0.0446 I0.0034 J-0.0037
X4.2466 Y0.3157 Z0.044 I-0.0034 J0.0037
X4.2534 Y0.3083 Z0.0435 I0.0034 J-0.0037
X4.2466 Y0.3157 Z0.043 I-0.0034 J0.0037
X4.2534 Y0.3083 Z0.0424 I0.0034 J-0.0037
X4.2466 Y0.3157 Z0.0419 I-0.0034 J0.0037
X4.2534 Y0.3083 Z0.0413 I0.0034 J-0.0037
X4.2466 Y0.3157 Z0.0408 I-0.0034 J0.0037
X4.2534 Y0.3083 Z0.0402 I0.0034 J-0.0037
X4.2466 Y0.3157 Z0.0397 I-0.0034 J0.0037
X4.2534 Y0.3083 Z0.0391 I0.0034 J-0.0037
X4.2466 Y0.3157 Z0.0386 I-0.0034 J0.0037
X4.2534 Y0.3083 Z0.038 I0.0034 J-0.0037
X4.2466 Y0.3157 Z0.0375 I-0.0034 J0.0037
X4.2534 Y0.3083 Z0.0369 I0.0034 J-0.0037
X4.2466 Y0.3157 Z0.0364 I-0.0034 J0.0037
X4.2534 Y0.3083 Z0.0358 I0.0034 J-0.0037
X4.2466 Y0.3157 Z0.0353 I-0.0034 J0.0037
X4.2534 Y0.3083 Z0.0347 I0.0034 J-0.0037
X4.2466 Y0.3157 Z0.0342 I-0.0034 J0.0037
X4.2534 Y0.3083 Z0.0336 I0.0034 J-0.0037
X4.2466 Y0.3157 Z0.0331 I-0.0034 J0.0037
X4.2534 Y0.3083 Z0.0325 I0.0034 J-0.0037
X4.2466 Y0.3157 Z0.032 I-0.0034 J0.0037
X4.2534 Y0.3083 Z0.0314 I0.0034 J-0.0037
X4.2466 Y0.3157 Z0.0309 I-0.0034 J0.0037
X4.2534 Y0.3083 Z0.0303 I0.0034 J-0.0037
X4.2466 Y0.3157 Z0.0298 I-0.0034 J0.0037
X4.2534 Y0.3083 Z0.0292 I0.0034 J-0.0037
X4.2466 Y0.3157 Z0.0287 I-0.0034 J0.0037
X4.2534 Y0.3083 Z0.0281 I0.0034 J-0.0037
X4.2466 Y0.3157 Z0.0276 I-0.0034 J0.0037
X4.2534 Y0.3083 Z0.027 I0.0034 J-0.0037
X4.2466 Y0.3157 Z0.0265 I-0.0034 J0.0037
X4.2534 Y0.3083 Z0.0259 I0.0034 J-0.0037
X4.2466 Y0.3157 Z0.0254 I-0.0034 J0.0037
X4.2534 Y0.3083 Z0.0249 I0.0034 J-0.0037
X4.2466 Y0.3157 Z0.0243 I-0.0034 J0.0037
X4.2534 Y0.3083 Z0.0238 I0.0034 J-0.0037
X4.2466 Y0.3157 Z0.0232 I-0.0034 J0.0037
X4.2534 Y0.3083 Z0.0227 I0.0034 J-0.0037
X4.2466 Y0.3157 Z0.0221 I-0.0034 J0.0037
X4.2534 Y0.3083 Z0.0216 I0.0034 J-0.0037
X4.2466 Y0.3157 Z0.021 I-0.0034 J0.0037
X4.2534 Y0.3083 Z0.0205 I0.0034 J-0.0037
X4.2466 Y0.3157 Z0.0199 I-0.0034 J0.0037
X4.2534 Y0.3083 Z0.0194 I0.0034 J-0.0037
X4.2466 Y0.3157 Z0.0188 I-0.0034 J0.0037
X4.2534 Y0.3083 Z0.0183 I0.0034 J-0.0037
X4.2466 Y0.3157 Z0.0177 I-0.0034 J0.0037
X4.2534 Y0.3083 Z0.0172 I0.0034 J-0.0037
X4.2466 Y0.3157 Z0.0166 I-0.0034 J0.0037
X4.2534 Y0.3083 Z0.0161 I0.0034 J-0.0037
X4.2466 Y0.3157 Z0.0155 I-0.0034 J0.0037
X4.2534 Y0.3083 Z0.015 I0.0034 J-0.0037
X4.2466 Y0.3157 Z0.0144 I-0.0034 J0.0037
X4.2534 Y0.3083 Z0.0139 I0.0034 J-0.0037
X4.2466 Y0.3157 Z0.0133 I-0.0034 J0.0037
X4.2534 Y0.3083 Z0.0128 I0.0034 J-0.0037
X4.2466 Y0.3157 Z0.0122 I-0.0034 J0.0037
X4.2534 Y0.3083 Z0.0117 I0.0034 J-0.0037
X4.2466 Y0.3157 Z0.0111 I-0.0034 J0.0037
X4.2534 Y0.3083 Z0.0106 I0.0034 J-0.0037
X4.2466 Y0.3157 Z0.01 I-0.0034 J0.0037
X4.2534 Y0.3083 Z0.0095 I0.0034 J-0.0037
X4.2466 Y0.3157 Z0.0089 I-0.0034 J0.0037
X4.2534 Y0.3083 Z0.0084 I0.0034 J-0.0037
X4.2466 Y0.3157 Z0.0078 I-0.0034 J0.0037
X4.2534 Y0.3083 Z0.0073 I0.0034 J-0.0037
X4.2466 Y0.3157 Z0.0067 I-0.0034 J0.0037
X4.2534 Y0.3083 Z0.0062 I0.0034 J-0.0037
X4.2466 Y0.3157 Z0.0057 I-0.0034 J0.0037
X4.2534 Y0.3083 Z0.0051 I0.0034 J-0.0037
X4.2466 Y0.3157 Z0.0046 I-0.0034 J0.0037
X4.2534 Y0.3083 Z0.004 I0.0034 J-0.0037
X4.2466 Y0.3157 Z0.0035 I-0.0034 J0.0037
X4.2534 Y0.3083 Z0.0029 I0.0034 J-0.0037
X4.2466 Y0.3157 Z0.0024 I-0.0034 J0.0037
X4.2534 Y0.3083 Z0.0018 I0.0034 J-0.0037
X4.2466 Y0.3157 Z0.0013 I-0.0034 J0.0037
X4.2534 Y0.3083 Z0.0007 I0.0034 J-0.0037
X4.2466 Y0.3157 Z0.0002 I-0.0034 J0.0037
X4.2534 Y0.3083 Z-0.0004 I0.0034 J-0.0037
X4.2466 Y0.3157 Z-0.0009 I-0.0034 J0.0037
X4.2534 Y0.3083 Z-0.0015 I0.0034 J-0.0037
X4.2466 Y0.3157 Z-0.002 I-0.0034 J0.0037
X4.2534 Y0.3083 Z-0.0026 I0.0034 J-0.0037
X4.2466 Y0.3157 Z-0.0031 I-0.0034 J0.0037
X4.2534 Y0.3083 Z-0.0037 I0.0034 J-0.0037
X4.2466 Y0.3157 Z-0.0042 I-0.0034 J0.0037
X4.2534 Y0.3083 Z-0.0048 I0.0034 J-0.0037
X4.2466 Y0.3157 Z-0.0053 I-0.0034 J0.0037
X4.2534 Y0.3083 Z-0.0059 I0.0034 J-0.0037
X4.2466 Y0.3157 Z-0.0064 I-0.0034 J0.0037
X4.2534 Y0.3083 Z-0.007 I0.0034 J-0.0037
X4.2466 Y0.3157 Z-0.0075 I-0.0034 J0.0037
X4.2534 Y0.3083 Z-0.0081 I0.0034 J-0.0037
X4.2466 Y0.3157 Z-0.0086 I-0.0034 J0.0037
X4.2534 Y0.3083 Z-0.0092 I0.0034 J-0.0037
X4.2466 Y0.3157 Z-0.0097 I-0.0034 J0.0037
X4.2534 Y0.3083 Z-0.0103 I0.0034 J-0.0037
X4.2466 Y0.3157 Z-0.0108 I-0.0034 J0.0037
X4.2534 Y0.3083 Z-0.0114 I0.0034 J-0.0037
X4.2466 Y0.3157 Z-0.0119 I-0.0034 J0.0037
X4.2534 Y0.3083 Z-0.0124 I0.0034 J-0.0037
X4.2466 Y0.3157 Z-0.013 I-0.0034 J0.0037
X4.2534 Y0.3083 Z-0.0135 I0.0034 J-0.0037
X4.2466 Y0.3157 Z-0.0141 I-0.0034 J0.0037
X4.2534 Y0.3083 Z-0.0146 I0.0034 J-0.0037
X4.2466 Y0.3157 Z-0.0152 I-0.0034 J0.0037
X4.2534 Y0.3083 Z-0.0157 I0.0034 J-0.0037
X4.2466 Y0.3157 Z-0.0163 I-0.0034 J0.0037
X4.2534 Y0.3083 Z-0.0168 I0.0034 J-0.0037
X4.2466 Y0.3157 Z-0.0174 I-0.0034 J0.0037
X4.2534 Y0.3083 Z-0.0179 I0.0034 J-0.0037
X4.2466 Y0.3157 Z-0.0185 I-0.0034 J0.0037
X4.2534 Y0.3083 Z-0.019 I0.0034 J-0.0037
X4.2466 Y0.3157 Z-0.0196 I-0.0034 J0.0037
X4.25 Y0.307 Z-0.02 I0.0034 J-0.0037
Y0.318 I0. J0.0055 F40.
Y0.307 I0. J-0.0055
Y0.318 Z-0.0206 I0. J0.0055 F20.
Y0.307 Z-0.0212 I0. J-0.0055
Y0.318 Z-0.0218 I0. J0.0055
Y0.307 Z-0.0224 I0. J-0.0055
Y0.318 Z-0.023 I0. J0.0055
Y0.307 Z-0.0236 I0. J-0.0055
Y0.318 Z-0.0242 I0. J0.0055
Y0.307 Z-0.0248 I0. J-0.0055
Y0.318 Z-0.0254 I0. J0.0055
Y0.307 Z-0.026 I0. J-0.0055
Y0.318 Z-0.0266 I0. J0.0055
Y0.307 Z-0.0272 I0. J-0.0055
Y0.318 Z-0.0278 I0. J0.0055
Y0.307 Z-0.0284 I0. J-0.0055
Y0.318 Z-0.029 I0. J0.0055
Y0.307 Z-0.0296 I0. J-0.0055
Y0.318 Z-0.0302 I0. J0.0055
Y0.307 Z-0.0308 I0. J-0.0055
Y0.318 Z-0.0314 I0. J0.0055
Y0.307 Z-0.032 I0. J-0.0055
Y0.318 Z-0.0326 I0. J0.0055
Y0.307 Z-0.0332 I0. J-0.0055
Y0.318 Z-0.0338 I0. J0.0055
Y0.307 Z-0.0345 I0. J-0.0055
Y0.318 Z-0.0351 I0. J0.0055
Y0.307 Z-0.0357 I0. J-0.0055
Y0.318 Z-0.0363 I0. J0.0055
Y0.307 Z-0.0369 I0. J-0.0055
Y0.318 Z-0.0375 I0. J0.0055
Y0.307 Z-0.0381 I0. J-0.0055
Y0.318 Z-0.0387 I0. J0.0055
Y0.307 Z-0.0393 I0. J-0.0055
Y0.318 Z-0.0399 I0. J0.0055
X4.2465 Y0.3168 Z-0.04 I0. J-0.0055
X4.2535 Y0.3082 I0.0035 J-0.0043 F40.
X4.2465 Y0.3168 I-0.0035 J0.0043
X4.2535 Y0.3082 Z-0.0406 I0.0035 J-0.0043 F20.
X4.2465 Y0.3168 Z-0.0412 I-0.0035 J0.0043
X4.2535 Y0.3082 Z-0.0418 I0.0035 J-0.0043
X4.2465 Y0.3168 Z-0.0424 I-0.0035 J0.0043
X4.2535 Y0.3082 Z-0.043 I0.0035 J-0.0043
X4.2465 Y0.3168 Z-0.0436 I-0.0035 J0.0043
X4.2535 Y0.3082 Z-0.0442 I0.0035 J-0.0043
X4.2465 Y0.3168 Z-0.0448 I-0.0035 J0.0043
X4.2535 Y0.3082 Z-0.0454 I0.0035 J-0.0043
X4.2465 Y0.3168 Z-0.046 I-0.0035 J0.0043
X4.2535 Y0.3082 Z-0.0466 I0.0035 J-0.0043
X4.2465 Y0.3168 Z-0.0472 I-0.0035 J0.0043
X4.2535 Y0.3082 Z-0.0478 I0.0035 J-0.0043
X4.2465 Y0.3168 Z-0.0484 I-0.0035 J0.0043
X4.2535 Y0.3082 Z-0.049 I0.0035 J-0.0043
X4.2465 Y0.3168 Z-0.0496 I-0.0035 J0.0043
X4.2535 Y0.3082 Z-0.0502 I0.0035 J-0.0043
X4.2465 Y0.3168 Z-0.0508 I-0.0035 J0.0043
X4.2535 Y0.3082 Z-0.0514 I0.0035 J-0.0043
X4.2465 Y0.3168 Z-0.052 I-0.0035 J0.0043
X4.2535 Y0.3082 Z-0.0526 I0.0035 J-0.0043
X4.2465 Y0.3168 Z-0.0532 I-0.0035 J0.0043
X4.2535 Y0.3082 Z-0.0538 I0.0035 J-0.0043
X4.2465 Y0.3168 Z-0.0545 I-0.0035 J0.0043
X4.2535 Y0.3082 Z-0.0551 I0.0035 J-0.0043
X4.2465 Y0.3168 Z-0.0557 I-0.0035 J0.0043
X4.2535 Y0.3082 Z-0.0563 I0.0035 J-0.0043
X4.2465 Y0.3168 Z-0.0569 I-0.0035 J0.0043
X4.2535 Y0.3082 Z-0.0575 I0.0035 J-0.0043
X4.2465 Y0.3168 Z-0.0581 I-0.0035 J0.0043
X4.2535 Y0.3082 Z-0.0587 I0.0035 J-0.0043
X4.2465 Y0.3168 Z-0.0593 I-0.0035 J0.0043
X4.2535 Y0.3082 Z-0.0599 I0.0035 J-0.0043
X4.2554 Y0.3114 Z-0.06 I-0.0035 J0.0043
X4.2446 Y0.3136 I-0.0054 J0.0011 F40.
X4.2554 Y0.3114 I0.0054 J-0.0011
X4.2446 Y0.3136 Z-0.0606 I-0.0054 J0.0011 F20.
X4.2554 Y0.3114 Z-0.0612 I0.0054 J-0.0011
X4.2446 Y0.3136 Z-0.0618 I-0.0054 J0.0011
X4.2554 Y0.3114 Z-0.0624 I0.0054 J-0.0011
X4.2446 Y0.3136 Z-0.063 I-0.0054 J0.0011
X4.2554 Y0.3114 Z-0.0636 I0.0054 J-0.0011
X4.2446 Y0.3136 Z-0.0642 I-0.0054 J0.0011
X4.2554 Y0.3114 Z-0.0648 I0.0054 J-0.0011
X4.2446 Y0.3136 Z-0.0654 I-0.0054 J0.0011
X4.2554 Y0.3114 Z-0.066 I0.0054 J-0.0011
X4.2446 Y0.3136 Z-0.0666 I-0.0054 J0.0011
X4.2554 Y0.3114 Z-0.0672 I0.0054 J-0.0011
X4.2446 Y0.3136 Z-0.0678 I-0.0054 J0.0011
X4.2554 Y0.3114 Z-0.0684 I0.0054 J-0.0011
X4.2446 Y0.3136 Z-0.069 I-0.0054 J0.0011
X4.2554 Y0.3114 Z-0.0696 I0.0054 J-0.0011
X4.2446 Y0.3136 Z-0.0702 I-0.0054 J0.0011
X4.2554 Y0.3114 Z-0.0708 I0.0054 J-0.0011
X4.2446 Y0.3136 Z-0.0714 I-0.0054 J0.0011
X4.2554 Y0.3114 Z-0.072 I0.0054 J-0.0011
X4.2446 Y0.3136 Z-0.0726 I-0.0054 J0.0011
X4.2554 Y0.3114 Z-0.0732 I0.0054 J-0.0011
X4.2446 Y0.3136 Z-0.0738 I-0.0054 J0.0011
X4.2554 Y0.3114 Z-0.0745 I0.0054 J-0.0011
X4.2446 Y0.3136 Z-0.0751 I-0.0054 J0.0011
X4.2554 Y0.3114 Z-0.0757 I0.0054 J-0.0011
X4.2446 Y0.3136 Z-0.0763 I-0.0054 J0.0011
X4.2554 Y0.3114 Z-0.0769 I0.0054 J-0.0011
X4.2446 Y0.3136 Z-0.0775 I-0.0054 J0.0011
X4.2554 Y0.3114 Z-0.0781 I0.0054 J-0.0011
X4.2446 Y0.3136 Z-0.0787 I-0.0054 J0.0011
X4.2554 Y0.3114 Z-0.0793 I0.0054 J-0.0011
X4.2446 Y0.3136 Z-0.0799 I-0.0054 J0.0011
X4.2451 Y0.31 Z-0.08 I0.0054 J-0.0011
X4.2549 Y0.315 I0.0049 J0.0025 F40.
X4.2451 Y0.31 I-0.0049 J-0.0025
X4.2549 Y0.315 Z-0.0806 I0.0049 J0.0025 F20.
X4.2451 Y0.31 Z-0.0812 I-0.0049 J-0.0025
X4.2549 Y0.315 Z-0.0818 I0.0049 J0.0025
X4.2451 Y0.31 Z-0.0824 I-0.0049 J-0.0025
X4.2549 Y0.315 Z-0.083 I0.0049 J0.0025
X4.2451 Y0.31 Z-0.0836 I-0.0049 J-0.0025
X4.2549 Y0.315 Z-0.0842 I0.0049 J0.0025
X4.2451 Y0.31 Z-0.0848 I-0.0049 J-0.0025
X4.2549 Y0.315 Z-0.0854 I0.0049 J0.0025
X4.2451 Y0.31 Z-0.086 I-0.0049 J-0.0025
X4.2549 Y0.315 Z-0.0866 I0.0049 J0.0025
X4.2451 Y0.31 Z-0.0872 I-0.0049 J-0.0025
X4.2549 Y0.315 Z-0.0878 I0.0049 J0.0025
X4.2451 Y0.31 Z-0.0884 I-0.0049 J-0.0025
X4.2549 Y0.315 Z-0.089 I0.0049 J0.0025
X4.2451 Y0.31 Z-0.0896 I-0.0049 J-0.0025
X4.2549 Y0.315 Z-0.0902 I0.0049 J0.0025
X4.2451 Y0.31 Z-0.0908 I-0.0049 J-0.0025
X4.2549 Y0.315 Z-0.0914 I0.0049 J0.0025
X4.2451 Y0.31 Z-0.092 I-0.0049 J-0.0025
X4.2549 Y0.315 Z-0.0926 I0.0049 J0.0025
X4.2451 Y0.31 Z-0.0932 I-0.0049 J-0.0025
X4.2549 Y0.315 Z-0.0938 I0.0049 J0.0025
X4.2451 Y0.31 Z-0.0945 I-0.0049 J-0.0025
X4.2549 Y0.315 Z-0.0951 I0.0049 J0.0025
X4.2451 Y0.31 Z-0.0957 I-0.0049 J-0.0025
X4.2549 Y0.315 Z-0.0963 I0.0049 J0.0025
X4.2451 Y0.31 Z-0.0969 I-0.0049 J-0.0025
X4.2549 Y0.315 Z-0.0975 I0.0049 J0.0025
X4.2451 Y0.31 Z-0.0981 I-0.0049 J-0.0025
X4.2549 Y0.315 Z-0.0987 I0.0049 J0.0025
X4.2451 Y0.31 Z-0.0993 I-0.0049 J-0.0025
X4.2549 Y0.315 Z-0.0999 I0.0049 J0.0025
X4.2522 Y0.3175 Z-0.1 I-0.0049 J-0.0025
X4.2478 Y0.3075 I-0.0022 J-0.005 F40.
X4.2522 Y0.3175 I0.0022 J0.005
X4.2478 Y0.3075 Z-0.1006 I-0.0022 J-0.005 F20.
X4.2522 Y0.3175 Z-0.1012 I0.0022 J0.005
X4.2478 Y0.3075 Z-0.1018 I-0.0022 J-0.005
X4.2522 Y0.3175 Z-0.1024 I0.0022 J0.005
X4.2478 Y0.3075 Z-0.103 I-0.0022 J-0.005
X4.2522 Y0.3175 Z-0.1036 I0.0022 J0.005
X4.2478 Y0.3075 Z-0.1042 I-0.0022 J-0.005
X4.2522 Y0.3175 Z-0.1048 I0.0022 J0.005
X4.2478 Y0.3075 Z-0.1054 I-0.0022 J-0.005
X4.2522 Y0.3175 Z-0.106 I0.0022 J0.005
X4.2478 Y0.3075 Z-0.1066 I-0.0022 J-0.005
X4.2522 Y0.3175 Z-0.1072 I0.0022 J0.005
X4.2478 Y0.3075 Z-0.1078 I-0.0022 J-0.005
X4.2522 Y0.3175 Z-0.1084 I0.0022 J0.005
X4.2478 Y0.3075 Z-0.109 I-0.0022 J-0.005
X4.2522 Y0.3175 Z-0.1096 I0.0022 J0.005
X4.2478 Y0.3075 Z-0.1102 I-0.0022 J-0.005
X4.2522 Y0.3175 Z-0.1108 I0.0022 J0.005
X4.2478 Y0.3075 Z-0.1114 I-0.0022 J-0.005
X4.2522 Y0.3175 Z-0.112 I0.0022 J0.005
X4.2478 Y0.3075 Z-0.1126 I-0.0022 J-0.005
X4.2522 Y0.3175 Z-0.1132 I0.0022 J0.005
X4.2478 Y0.3075 Z-0.1138 I-0.0022 J-0.005
X4.2522 Y0.3175 Z-0.1145 I0.0022 J0.005
X4.2478 Y0.3075 Z-0.1151 I-0.0022 J-0.005
X4.2522 Y0.3175 Z-0.1157 I0.0022 J0.005
X4.2478 Y0.3075 Z-0.1163 I-0.0022 J-0.005
X4.2522 Y0.3175 Z-0.1169 I0.0022 J0.005
X4.2478 Y0.3075 Z-0.1175 I-0.0022 J-0.005
X4.2522 Y0.3175 Z-0.1181 I0.0022 J0.005
X4.2478 Y0.3075 Z-0.1187 I-0.0022 J-0.005
X4.2522 Y0.3175 Z-0.1193 I0.0022 J0.005
X4.2478 Y0.3075 Z-0.1199 I-0.0022 J-0.005
X4.2515 Y0.3072 Z-0.12 I0.0022 J0.005
X4.2485 Y0.3178 I-0.0015 J0.0053 F40.
X4.2515 Y0.3072 I0.0015 J-0.0053
X4.2485 Y0.3178 Z-0.1206 I-0.0015 J0.0053 F20.
X4.2515 Y0.3072 Z-0.1212 I0.0015 J-0.0053
X4.2485 Y0.3178 Z-0.1218 I-0.0015 J0.0053
X4.2515 Y0.3072 Z-0.1224 I0.0015 J-0.0053
X4.2485 Y0.3178 Z-0.123 I-0.0015 J0.0053
X4.2515 Y0.3072 Z-0.1236 I0.0015 J-0.0053
X4.2485 Y0.3178 Z-0.1242 I-0.0015 J0.0053
X4.2515 Y0.3072 Z-0.1248 I0.0015 J-0.0053
X4.2485 Y0.3178 Z-0.1254 I-0.0015 J0.0053
X4.2515 Y0.3072 Z-0.126 I0.0015 J-0.0053
X4.2485 Y0.3178 Z-0.1266 I-0.0015 J0.0053
X4.2515 Y0.3072 Z-0.1272 I0.0015 J-0.0053
X4.2485 Y0.3178 Z-0.1278 I-0.0015 J0.0053
X4.2515 Y0.3072 Z-0.1284 I0.0015 J-0.0053
X4.2485 Y0.3178 Z-0.129 I-0.0015 J0.0053
X4.2515 Y0.3072 Z-0.1296 I0.0015 J-0.0053
X4.2485 Y0.3178 Z-0.1302 I-0.0015 J0.0053
X4.2515 Y0.3072 Z-0.1308 I0.0015 J-0.0053
X4.2485 Y0.3178 Z-0.1314 I-0.0015 J0.0053
X4.2515 Y0.3072 Z-0.132 I0.0015 J-0.0053
X4.2485 Y0.3178 Z-0.1326 I-0.0015 J0.0053
X4.2515 Y0.3072 Z-0.1332 I0.0015 J-0.0053
X4.2485 Y0.3178 Z-0.1338 I-0.0015 J0.0053
X4.2515 Y0.3072 Z-0.1345 I0.0015 J-0.0053
X4.2485 Y0.3178 Z-0.1351 I-0.0015 J0.0053
X4.2515 Y0.3072 Z-0.1357 I0.0015 J-0.0053
X4.2485 Y0.3178 Z-0.1363 I-0.0015 J0.0053
X4.2515 Y0.3072 Z-0.1369 I0.0015 J-0.0053
X4.2485 Y0.3178 Z-0.1375 I-0.0015 J0.0053
X4.2515 Y0.3072 Z-0.1381 I0.0015 J-0.0053
X4.2485 Y0.3178 Z-0.1387 I-0.0015 J0.0053
X4.2515 Y0.3072 Z-0.1393 I0.0015 J-0.0053
X4.2485 Y0.3178 Z-0.1399 I-0.0015 J0.0053
X4.2455 Y0.3157 Z-0.14 I0.0015 J-0.0053
X4.2545 Y0.3093 I0.0045 J-0.0032 F40.
X4.2455 Y0.3157 I-0.0045 J0.0032
X4.2545 Y0.3093 Z-0.1406 I0.0045 J-0.0032 F20.
X4.2455 Y0.3157 Z-0.1412 I-0.0045 J0.0032
X4.2545 Y0.3093 Z-0.1418 I0.0045 J-0.0032
X4.2455 Y0.3157 Z-0.1424 I-0.0045 J0.0032
X4.2545 Y0.3093 Z-0.143 I0.0045 J-0.0032
X4.2455 Y0.3157 Z-0.1436 I-0.0045 J0.0032
X4.2545 Y0.3093 Z-0.1442 I0.0045 J-0.0032
X4.2455 Y0.3157 Z-0.1448 I-0.0045 J0.0032
X4.2545 Y0.3093 Z-0.1454 I0.0045 J-0.0032
X4.2455 Y0.3157 Z-0.146 I-0.0045 J0.0032
X4.2545 Y0.3093 Z-0.1466 I0.0045 J-0.0032
X4.2455 Y0.3157 Z-0.1472 I-0.0045 J0.0032
X4.2545 Y0.3093 Z-0.1478 I0.0045 J-0.0032
X4.2455 Y0.3157 Z-0.1484 I-0.0045 J0.0032
X4.2545 Y0.3093 Z-0.149 I0.0045 J-0.0032
X4.2455 Y0.3157 Z-0.1496 I-0.0045 J0.0032
X4.2545 Y0.3093 Z-0.1502 I0.0045 J-0.0032
X4.2455 Y0.3157 Z-0.1508 I-0.0045 J0.0032
X4.2545 Y0.3093 Z-0.1514 I0.0045 J-0.0032
X4.2455 Y0.3157 Z-0.152 I-0.0045 J0.0032
X4.2511 Y0.3071 Z-0.1525 I0.0045 J-0.0032
X4.2489 Y0.3179 I-0.0011 J0.0054 F40.
X4.2511 Y0.3071 I0.0011 J-0.0054
X4.2489 Y0.3179 Z-0.1531 I-0.0011 J0.0054 F20.
X4.2511 Y0.3071 Z-0.1537 I0.0011 J-0.0054
X4.2489 Y0.3179 Z-0.1543 I-0.0011 J0.0054
X4.2511 Y0.3071 Z-0.1549 I0.0011 J-0.0054
X4.2489 Y0.3179 Z-0.1555 I-0.0011 J0.0054
X4.2511 Y0.3071 Z-0.1561 I0.0011 J-0.0054
X4.2489 Y0.3179 Z-0.1567 I-0.0011 J0.0054
X4.2511 Y0.3071 Z-0.1573 I0.0011 J-0.0054
X4.2489 Y0.3179 Z-0.1579 I-0.0011 J0.0054
X4.2511 Y0.3071 Z-0.1585 I0.0011 J-0.0054
X4.2489 Y0.3179 Z-0.1591 I-0.0011 J0.0054
X4.2511 Y0.3071 Z-0.1597 I0.0011 J-0.0054
X4.2489 Y0.3179 Z-0.1603 I-0.0011 J0.0054
X4.2511 Y0.3071 Z-0.1609 I0.0011 J-0.0054
X4.2489 Y0.3179 Z-0.1615 I-0.0011 J0.0054
X4.2511 Y0.3071 Z-0.1621 I0.0011 J-0.0054
X4.2489 Y0.3179 Z-0.1627 I-0.0011 J0.0054
X4.2511 Y0.3071 Z-0.1633 I0.0011 J-0.0054
X4.2489 Y0.3179 Z-0.1639 I-0.0011 J0.0054
X4.2511 Y0.3071 Z-0.1645 I0.0011 J-0.0054
X4.2528 Y0.3172 Z-0.165 I-0.0011 J0.0054
X4.2472 Y0.3078 I-0.0028 J-0.0047 F40.
X4.2528 Y0.3172 I0.0028 J0.0047
G1 X4.2515 Y0.3178 Z-0.1648
X4.25 Y0.318 Z-0.1646
X4.2487 Y0.3178 Z-0.164
X4.2474 Y0.3174 Z-0.1633
X4.2463 Y0.3166 Z-0.1627
X4.2454 Y0.3155 Z-0.1611
X4.2447 Y0.3141 Z-0.1595
X4.2445 Y0.3125 Z-0.1553
Y0.3123 Z-0.1532
G0 Z0.2
X3.7497 Y0.3075
G1 Z0.1118 F40.
X3.7504 Y0.3076 Z0.1075 F20.
X3.7515 Y0.3079 Z0.1057
X3.7525 Y0.3085 Z0.1039
X3.7534 Y0.3094 Z0.1029
X3.7541 Y0.3104 Z0.102
X3.7544 Y0.3116 Z0.1011
X3.7545 Y0.3132 Z0.1007
X3.754 Y0.3146 Z0.1004
X3.7532 Y0.3159 Z0.1
G3 X3.7458 Y0.3091 Z0.0995 I-0.0037 J-0.0034
X3.7532 Y0.3159 Z0.0989 I0.0037 J0.0034
X3.7458 Y0.3091 Z0.0984 I-0.0037 J-0.0034
X3.7532 Y0.3159 Z0.0978 I0.0037 J0.0034
X3.7458 Y0.3091 Z0.0973 I-0.0037 J-0.0034
X3.7532 Y0.3159 Z0.0967 I0.0037 J0.0034
X3.7458 Y0.3091 Z0.0962 I-0.0037 J-0.0034
X3.7532 Y0.3159 Z0.0956 I0.0037 J0.0034
