(CENTER ON BOTTOM CENTER OF STOCK)
(T1  D=3.175 CR=0. - ZMIN=-6.35 - FLAT END MILL)
G90 G94 G91.1 G40 G49 G17
G21
G0 Z15

(BORE1)
M5
T1 M6
S15000 M3
G54
M8
G0 X-33.814 Y37.783
G43 Z15. H1
Z2.
G1 Z0.317 F1600.
G18 G3 X-34.131 Z0. I-0.317 K0.
G1 X-34.29
G17 G2 X-34.607 Y38.1 I0. J0.317
X-31.433 Z-0.25 I1.587 J0.
X-34.607 Z-0.5 I-1.587 J0.
X-31.433 Z-0.75 I1.587 J0.
X-34.607 Z-1. I-1.587 J0.
X-31.433 Z-1.25 I1.587 J0.
X-34.607 Z-1.5 I-1.587 J0.
X-31.433 Z-1.75 I1.587 J0.
X-34.607 Z-2. I-1.587 J0.
X-31.433 Z-2.25 I1.587 J0.
X-34.607 Z-2.5 I-1.587 J0.
X-31.433 Z-2.75 I1.587 J0.
X-34.607 Z-3. I-1.587 J0.
X-31.433 Z-3.25 I1.587 J0.
X-34.607 Z-3.5 I-1.587 J0.
X-31.433 Z-3.75 I1.587 J0.
X-34.607 Z-4. I-1.587 J0.
X-31.433 Z-4.25 I1.587 J0.
X-34.607 Z-4.5 I-1.587 J0.
X-31.433 Z-4.75 I1.587 J0.
X-34.607 Z-5. I-1.587 J0.
X-31.433 Z-5.25 I1.587 J0.
X-34.607 Z-5.5 I-1.587 J0.
X-31.433 Z-5.75 I1.587 J0.
X-34.607 Z-6. I-1.587 J0.
X-31.433 Z-6.25 I1.587 J0.
X-32.529 Y36.59 Z-6.35 I-1.587 J0.
X-33.511 Y39.61 I-0.491 J1.51
X-32.529 Y36.59 I0.491 J-1.51
X-32.93 Y36.794 I-0.098 J0.302
G1 X-32.979 Y36.945
X-33. Y37.012 Z-6.342
X-33.021 Y37.076 Z-6.319
X-33.04 Y37.133 Z-6.281
X-33.055 Y37.181 Z-6.23
X-33.067 Y37.217 Z-6.17
X-33.074 Y37.239 Z-6.103
X-33.077 Y37.247 Z-6.032
G0 Z15.

(BORE1)
G0 X29.686 Y37.783
Z15.
Z2.
G1 Z0.317 F1600.
G18 G3 X29.369 Z0. I-0.317 K0.
G1 X29.21
G17 G2 X28.892 Y38.1 I0. J0.317
X32.067 Z-0.25 I1.587 J0.
X28.892 Z-0.5 I-1.587 J0.
X32.067 Z-0.75 I1.587 J0.
X28.892 Z-1. I-1.587 J0.
X32.067 Z-1.25 I1.587 J0.
X28.892 Z-1.5 I-1.587 J0.
X32.067 Z-1.75 I1.587 J0.
X28.892 Z-2. I-1.587 J0.
X32.067 Z-2.25 I1.587 J0.
X28.892 Z-2.5 I-1.587 J0.
X32.067 Z-2.75 I1.587 J0.
X28.892 Z-3. I-1.587 J0.
X32.067 Z-3.25 I1.587 J0.
X28.892 Z-3.5 I-1.587 J0.
X32.067 Z-3.75 I1.587 J0.
X28.892 Z-4. I-1.587 J0.
X32.067 Z-4.25 I1.587 J0.
X28.892 Z-4.5 I-1.587 J0.
X32.067 Z-4.75 I1.587 J0.
X28.892 Z-5. I-1.587 J0.
X32.067 Z-5.25 I1.587 J0.
X28.892 Z-5.5 I-1.587 J0.
X32.067 Z-5.75 I1.587 J0.
X28.892 Z-6. I-1.587 J0.
X32.067 Z-6.25 I1.587 J0.
X30.971 Y36.59 Z-6.35 I-1.587 J0.
X29.989 Y39.61 I-0.491 J1.51
X30.971 Y36.59 I0.491 J-1.51
X30.57 Y36.794 I-0.098 J0.302
G1 X30.521 Y36.945
X30.5 Y37.012 Z-6.342
X30.479 Y37.076 Z-6.319
X30.46 Y37.133 Z-6.281
X30.445 Y37.181 Z-6.23
X30.433 Y37.217 Z-6.17
X30.426 Y37.239 Z-6.103
X30.423 Y37.247 Z-6.032
G0 Z15.
M5
G0 Z15
G0 X0 Y0

M9
M30
