(T1  D=3.175 CR=0. - ZMIN=-20.05 - FLAT END MILL)
G90 G94 G91.1 G40 G49 G17
G21
G0 Z15

(2D CONTOUR3)
M5
T1 M6
S16000 M3
G54
G0 X228.98 Y153.664
G43 Z16. H1
Z6.
G1 Z5.175 F800.
Z3.818
X228.973 Y153.66 Z3.747
X228.952 Y153.649 Z3.68
X228.92 Y153.63 Z3.62
X228.876 Y153.605 Z3.569
X228.824 Y153.575 Z3.531
X228.766 Y153.541 Z3.508
X228.704 Y153.506 Z3.5
X228.429 Y153.348 F1600.
G3 X228.312 Y152.914 I0.158 J-0.275
G2 X255.587 Y50.8 Z-0.233 I-177.512 J-102.114 F800.
G1 Y0. Z-2.007
Y50.8 F1600.
G3 X50.8 Y255.587 I-204.787 J0.
G2 X255.587 Y50.8 Z-4.604 I0. J-204.787 F800.
G1 Y0. Z-5.014
Y50.8 F1600.
G3 X50.8 Y255.587 I-204.787 J0.
G2 X255.587 Y50.8 Z-7.611 I0. J-204.787 F800.
G1 Y0. Z-8.021
Y50.8 F1600.
G3 X50.8 Y255.587 I-204.787 J0.
G2 X255.587 Y50.8 Z-10.618 I0. J-204.787 F800.
G1 Y0. Z-11.029
Y50.8 F1600.
G3 X50.8 Y255.587 I-204.787 J0.
G2 X255.587 Y50.8 Z-13.626 I0. J-204.787 F800.
G1 Y0. Z-14.036
Y50.8 F1600.
G3 X50.8 Y255.587 I-204.787 J0.
G2 X255.587 Y50.8 Z-16.633 I0. J-204.787 F800.
G1 Y0. Z-17.043
Y50.8 F1600.
G3 X50.8 Y255.587 I-204.787 J0.
G2 X255.587 Y50.8 Z-19.64 I0. J-204.787 F800.
G1 Y0. Z-20.05
Y50.8 F1600.
G3 X50.8 Y255.587 I-204.787 J0.
G2 X50.482 Y255.905 I0. J0.318
G1 Y256.223
G19 G3 Y256.54 Z-19.733 J0. K0.317
G0 Z16.
G17

(BORE1)
G0 X50.82 Y51.118
Z10.
Z3.
G1 Z1.317 F800.
G18 G2 X51.137 Z1. I0.317 K0.
G1 X51.296
G17 G2 X51.613 Y50.8 I0. J-0.318
X49.986 Z0.916 I-0.813 J0. F1600.
X51.613 Z0.832 I0.813 J0.
X49.986 Z0.748 I-0.813 J0.
X51.613 Z0.665 I0.813 J0.
X49.986 Z0.581 I-0.813 J0.
X51.613 Z0.497 I0.813 J0.
X49.986 Z0.413 I-0.813 J0.
X51.613 Z0.329 I0.813 J0.
X49.986 Z0.245 I-0.813 J0.
X51.613 Z0.162 I0.813 J0.
X49.986 Z0.078 I-0.813 J0.
X51.613 Z-0.006 I0.813 J0.
X49.986 Z-0.09 I-0.813 J0.
X51.613 Z-0.174 I0.813 J0.
X49.986 Z-0.258 I-0.813 J0.
X51.613 Z-0.342 I0.813 J0.
X49.986 Z-0.425 I-0.813 J0.
X51.613 Z-0.509 I0.813 J0.
X49.986 Z-0.593 I-0.813 J0.
X51.613 Z-0.677 I0.813 J0.
X49.986 Z-0.761 I-0.813 J0.
X51.613 Z-0.845 I0.813 J0.
X49.986 Z-0.928 I-0.813 J0.
X51.613 Z-1.012 I0.813 J0.
X49.986 Z-1.096 I-0.813 J0.
X51.613 Z-1.18 I0.813 J0.
X49.986 Z-1.264 I-0.813 J0.
X51.613 Z-1.348 I0.813 J0.
X49.986 Z-1.431 I-0.813 J0.
X51.613 Z-1.515 I0.813 J0.
X49.986 Z-1.599 I-0.813 J0.
X51.613 Z-1.683 I0.813 J0.
X49.986 Z-1.767 I-0.813 J0.
X51.613 Z-1.851 I0.813 J0.
X49.986 Z-1.935 I-0.813 J0.
X51.613 Z-2.018 I0.813 J0.
X49.986 Z-2.102 I-0.813 J0.
X51.613 Z-2.186 I0.813 J0.
X49.986 Z-2.27 I-0.813 J0.
X51.613 Z-2.354 I0.813 J0.
X49.986 Z-2.438 I-0.813 J0.
X51.613 Z-2.521 I0.813 J0.
X49.986 Z-2.605 I-0.813 J0.
X51.613 Z-2.689 I0.813 J0.
X49.986 Z-2.773 I-0.813 J0.
X51.613 Z-2.857 I0.813 J0.
X49.986 Z-2.941 I-0.813 J0.
X51.613 Z-3.025 I0.813 J0.
X49.986 Z-3.108 I-0.813 J0.
X51.613 Z-3.192 I0.813 J0.
X49.986 Z-3.276 I-0.813 J0.
X51.613 Z-3.36 I0.813 J0.
X49.986 Z-3.444 I-0.813 J0.
X51.613 Z-3.528 I0.813 J0.
X49.986 Z-3.611 I-0.813 J0.
X51.613 Z-3.695 I0.813 J0.
X49.986 Z-3.779 I-0.813 J0.
X51.613 Z-3.863 I0.813 J0.
X49.986 Z-3.947 I-0.813 J0.
X51.613 Z-4.031 I0.813 J0.
X49.986 Z-4.115 I-0.813 J0.
X51.613 Z-4.198 I0.813 J0.
X49.986 Z-4.282 I-0.813 J0.
X51.613 Z-4.366 I0.813 J0.
X49.986 Z-4.45 I-0.813 J0.
X51.613 Z-4.534 I0.813 J0.
X49.986 Z-4.618 I-0.813 J0.
X51.613 Z-4.701 I0.813 J0.
X49.986 Z-4.785 I-0.813 J0.
X51.613 Z-4.869 I0.813 J0.
X49.986 Z-4.953 I-0.813 J0.
X51.613 Z-5.037 I0.813 J0.
X49.986 Z-5.121 I-0.813 J0.
X51.613 Z-5.205 I0.813 J0.
X49.986 Z-5.288 I-0.813 J0.
X51.613 Z-5.372 I0.813 J0.
X49.986 Z-5.456 I-0.813 J0.
X51.613 Z-5.54 I0.813 J0.
X49.986 Z-5.624 I-0.813 J0.
X51.613 Z-5.708 I0.813 J0.
X49.986 Z-5.791 I-0.813 J0.
X51.613 Z-5.875 I0.813 J0.
X49.986 Z-5.959 I-0.813 J0.
X51.613 Z-6.043 I0.813 J0.
X49.986 Z-6.127 I-0.813 J0.
X51.613 Z-6.211 I0.813 J0.
X49.986 Z-6.294 I-0.813 J0.
X51.613 Z-6.378 I0.813 J0.
X49.986 Z-6.462 I-0.813 J0.
X51.613 Z-6.546 I0.813 J0.
X49.986 Z-6.63 I-0.813 J0.
X51.613 Z-6.714 I0.813 J0.
X49.986 Z-6.798 I-0.813 J0.
X51.613 Z-6.881 I0.813 J0.
X49.986 Z-6.965 I-0.813 J0.
X51.613 Z-7.049 I0.813 J0.
X49.986 Z-7.133 I-0.813 J0.
X51.613 Z-7.217 I0.813 J0.
X49.986 Z-7.301 I-0.813 J0.
X51.613 Z-7.384 I0.813 J0.
X49.986 Z-7.468 I-0.813 J0.
X51.613 Z-7.552 I0.813 J0.
X49.986 Z-7.636 I-0.813 J0.
X51.613 Z-7.72 I0.813 J0.
X49.986 Z-7.804 I-0.813 J0.
X51.613 Z-7.888 I0.813 J0.
X49.986 Z-7.971 I-0.813 J0.
X51.613 Z-8.055 I0.813 J0.
X49.986 Z-8.139 I-0.813 J0.
X51.613 Z-8.223 I0.813 J0.
X49.986 Z-8.307 I-0.813 J0.
X51.613 Z-8.391 I0.813 J0.
X49.986 Z-8.474 I-0.813 J0.
X51.613 Z-8.558 I0.813 J0.
X49.986 Z-8.642 I-0.813 J0.
X51.613 Z-8.726 I0.813 J0.
X49.986 Z-8.81 I-0.813 J0.
X51.613 Z-8.894 I0.813 J0.
X49.986 Z-8.978 I-0.813 J0.
X51.613 Z-9.061 I0.813 J0.
X49.986 Z-9.145 I-0.813 J0.
X51.613 Z-9.229 I0.813 J0.
X49.986 Z-9.313 I-0.813 J0.
X51.613 Z-9.397 I0.813 J0.
X49.986 Z-9.481 I-0.813 J0.
X51.613 Z-9.564 I0.813 J0.
X49.986 Z-9.648 I-0.813 J0.
X51.613 Z-9.732 I0.813 J0.
X49.986 Z-9.816 I-0.813 J0.
X51.613 Z-9.9 I0.813 J0.
X49.986 Z-9.984 I-0.813 J0.
X51.613 Z-10.068 I0.813 J0.
X49.986 Z-10.151 I-0.813 J0.
X51.613 Z-10.235 I0.813 J0.
X49.986 Z-10.319 I-0.813 J0.
X51.613 Z-10.403 I0.813 J0.
X49.986 Z-10.487 I-0.813 J0.
X51.613 Z-10.571 I0.813 J0.
X49.986 Z-10.654 I-0.813 J0.
X51.613 Z-10.738 I0.813 J0.
X49.986 Z-10.822 I-0.813 J0.
X51.613 Z-10.906 I0.813 J0.
X49.986 Z-10.99 I-0.813 J0.
X51.613 Z-11.074 I0.813 J0.
X49.986 Z-11.157 I-0.813 J0.
X51.613 Z-11.241 I0.813 J0.
X49.986 Z-11.325 I-0.813 J0.
X51.613 Z-11.409 I0.813 J0.
X49.986 Z-11.493 I-0.813 J0.
X51.613 Z-11.577 I0.813 J0.
X49.986 Z-11.661 I-0.813 J0.
X51.613 Z-11.744 I0.813 J0.
X49.986 Z-11.828 I-0.813 J0.
X51.613 Z-11.912 I0.813 J0.
X49.986 Z-11.996 I-0.813 J0.
X51.613 Z-12.08 I0.813 J0.
X49.986 Z-12.164 I-0.813 J0.
X51.613 Z-12.247 I0.813 J0.
X49.986 Z-12.331 I-0.813 J0.
X51.613 Z-12.415 I0.813 J0.
X49.986 Z-12.499 I-0.813 J0.
X51.613 Z-12.583 I0.813 J0.
X49.986 Z-12.667 I-0.813 J0.
X51.613 Z-12.751 I0.813 J0.
X49.986 Z-12.834 I-0.813 J0.
X51.613 Z-12.918 I0.813 J0.
X49.986 Z-13.002 I-0.813 J0.
X51.613 Z-13.086 I0.813 J0.
X49.986 Z-13.17 I-0.813 J0.
X51.613 Z-13.254 I0.813 J0.
X49.986 Z-13.337 I-0.813 J0.
X51.613 Z-13.421 I0.813 J0.
X49.986 Z-13.505 I-0.813 J0.
X51.613 Z-13.589 I0.813 J0.
X49.986 Z-13.673 I-0.813 J0.
X51.613 Z-13.757 I0.813 J0.
X49.986 Z-13.841 I-0.813 J0.
X51.613 Z-13.924 I0.813 J0.
X49.986 Z-14.008 I-0.813 J0.
X51.613 Z-14.092 I0.813 J0.
X49.986 Z-14.176 I-0.813 J0.
X51.613 Z-14.26 I0.813 J0.
X49.986 Z-14.344 I-0.813 J0.
X51.613 Z-14.427 I0.813 J0.
X49.986 Z-14.511 I-0.813 J0.
X51.613 Z-14.595 I0.813 J0.
X49.986 Z-14.679 I-0.813 J0.
X51.613 Z-14.763 I0.813 J0.
X49.986 Z-14.847 I-0.813 J0.
X51.613 Z-14.931 I0.813 J0.
X49.986 Z-15.014 I-0.813 J0.
X51.613 Z-15.098 I0.813 J0.
X49.986 Z-15.182 I-0.813 J0.
X51.613 Z-15.266 I0.813 J0.
X49.986 Z-15.35 I-0.813 J0.
X51.613 Z-15.434 I0.813 J0.
X49.986 Z-15.517 I-0.813 J0.
X51.613 Z-15.601 I0.813 J0.
X49.986 Z-15.685 I-0.813 J0.
X51.613 Z-15.769 I0.813 J0.
X49.986 Z-15.853 I-0.813 J0.
X51.613 Z-15.937 I0.813 J0.
X49.986 Z-16.02 I-0.813 J0.
X51.613 Z-16.104 I0.813 J0.
X49.986 Z-16.188 I-0.813 J0.
X51.613 Z-16.272 I0.813 J0.
X49.986 Z-16.356 I-0.813 J0.
X51.613 Z-16.44 I0.813 J0.
X49.986 Z-16.524 I-0.813 J0.
X51.613 Z-16.607 I0.813 J0.
X49.986 Z-16.691 I-0.813 J0.
X51.613 Z-16.775 I0.813 J0.
X49.986 Z-16.859 I-0.813 J0.
X51.613 Z-16.943 I0.813 J0.
X49.986 Z-17.027 I-0.813 J0.
X51.613 Z-17.11 I0.813 J0.
X49.986 Z-17.194 I-0.813 J0.
X51.613 Z-17.278 I0.813 J0.
X49.986 Z-17.362 I-0.813 J0.
X51.613 Z-17.446 I0.813 J0.
X49.986 Z-17.53 I-0.813 J0.
X51.613 Z-17.614 I0.813 J0.
X49.986 Z-17.697 I-0.813 J0.
X51.613 Z-17.781 I0.813 J0.
X49.986 Z-17.865 I-0.813 J0.
X51.613 Z-17.949 I0.813 J0.
X49.986 Z-18.033 I-0.813 J0.
X51.613 Z-18.117 I0.813 J0.
X49.986 Z-18.2 I-0.813 J0.
X51.613 Z-18.284 I0.813 J0.
X49.986 Z-18.368 I-0.813 J0.
X51.613 Z-18.452 I0.813 J0.
X49.986 Z-18.536 I-0.813 J0.
X51.613 Z-18.62 I0.813 J0.
X49.986 Z-18.704 I-0.813 J0.
X51.613 Z-18.787 I0.813 J0.
X49.986 Z-18.871 I-0.813 J0.
X51.613 Z-18.955 I0.813 J0.
X49.986 Z-19.039 I-0.813 J0.
X51.613 Z-19.123 I0.813 J0.
X49.986 Z-19.207 I-0.813 J0.
X51.613 Z-19.29 I0.813 J0.
X49.986 Z-19.374 I-0.813 J0.
X51.613 Z-19.458 I0.813 J0.
X49.986 Z-19.542 I-0.813 J0.
X51.613 Z-19.626 I0.813 J0.
X49.986 Z-19.71 I-0.813 J0.
X51.613 Z-19.794 I0.813 J0.
X49.986 Z-19.877 I-0.813 J0.
X51.613 Z-19.961 I0.813 J0.
X50.724 Y49.99 Z-20.006 I-0.813 J0.
X50.001 Y50.95 Z-20.05 I0.076 J0.81
X51.599 Y50.65 I0.799 J-0.15
X50.001 Y50.95 I-0.799 J0.15
X50.371 Y51.204 I0.312 J-0.059 F800.
G1 X50.527 Y51.174
X50.597 Y51.161 Z-20.042
X50.663 Y51.149 Z-20.019
X50.722 Y51.138 Z-19.981
X50.771 Y51.128 Z-19.93
X50.808 Y51.121 Z-19.87
X50.831 Y51.117 Z-19.803
X50.839 Y51.116 Z-19.733
G0 Z5.
X53.807 Y51.118
Z3.
G1 Z1.317 F800.
G18 G2 X54.125 Z1. I0.317 K0.
G1 X54.284
G17 G2 X54.601 Y50.8 I0. J-0.318
X46.999 Z0.812 I-3.801 J0. F1600.
X54.601 Z0.624 I3.801 J0.
X46.999 Z0.435 I-3.801 J0.
X54.601 Z0.247 I3.801 J0.
X46.999 Z0.059 I-3.801 J0.
X54.601 Z-0.129 I3.801 J0.
X46.999 Z-0.317 I-3.801 J0.
X54.601 Z-0.505 I3.801 J0.
X46.999 Z-0.694 I-3.801 J0.
X54.601 Z-0.882 I3.801 J0.
X46.999 Z-1.07 I-3.801 J0.
X54.601 Z-1.258 I3.801 J0.
X46.999 Z-1.446 I-3.801 J0.
X54.601 Z-1.634 I3.801 J0.
X46.999 Z-1.823 I-3.801 J0.
X54.601 Z-2.011 I3.801 J0.
X46.999 Z-2.199 I-3.801 J0.
X54.601 Z-2.387 I3.801 J0.
X46.999 Z-2.575 I-3.801 J0.
X54.601 Z-2.763 I3.801 J0.
X46.999 Z-2.952 I-3.801 J0.
X54.601 Z-3.14 I3.801 J0.
X46.999 Z-3.328 I-3.801 J0.
X54.601 Z-3.516 I3.801 J0.
X46.999 Z-3.704 I-3.801 J0.
X54.601 Z-3.892 I3.801 J0.
X46.999 Z-4.081 I-3.801 J0.
X54.601 Z-4.269 I3.801 J0.
X46.999 Z-4.457 I-3.801 J0.
X54.601 Z-4.645 I3.801 J0.
X46.999 Z-4.833 I-3.801 J0.
X54.601 Z-5.021 I3.801 J0.
X46.999 Z-5.21 I-3.801 J0.
X54.601 Z-5.398 I3.801 J0.
X46.999 Z-5.586 I-3.801 J0.
X54.601 Z-5.774 I3.801 J0.
X46.999 Z-5.962 I-3.801 J0.
X54.601 Z-6.15 I3.801 J0.
X46.999 Z-6.339 I-3.801 J0.
X54.601 Z-6.527 I3.801 J0.
X46.999 Z-6.715 I-3.801 J0.
X54.601 Z-6.903 I3.801 J0.
X46.999 Z-7.091 I-3.801 J0.
X54.601 Z-7.28 I3.801 J0.
X46.999 Z-7.468 I-3.801 J0.
X54.601 Z-7.656 I3.801 J0.
X46.999 Z-7.844 I-3.801 J0.
X54.601 Z-8.032 I3.801 J0.
X46.999 Z-8.22 I-3.801 J0.
X54.601 Z-8.409 I3.801 J0.
X46.999 Z-8.597 I-3.801 J0.
X54.601 Z-8.785 I3.801 J0.
X46.999 Z-8.973 I-3.801 J0.
X54.601 Z-9.161 I3.801 J0.
X46.999 Z-9.349 I-3.801 J0.
X54.601 Z-9.538 I3.801 J0.
X46.999 Z-9.726 I-3.801 J0.
X54.601 Z-9.914 I3.801 J0.
X46.999 Z-10.102 I-3.801 J0.
X54.601 Z-10.29 I3.801 J0.
X46.999 Z-10.478 I-3.801 J0.
X54.601 Z-10.667 I3.801 J0.
X46.999 Z-10.855 I-3.801 J0.
X54.601 Z-11.043 I3.801 J0.
X46.999 Z-11.231 I-3.801 J0.
X54.601 Z-11.419 I3.801 J0.
X46.999 Z-11.607 I-3.801 J0.
X54.601 Z-11.796 I3.801 J0.
X46.999 Z-11.984 I-3.801 J0.
X54.601 Z-12.172 I3.801 J0.
X46.999 Z-12.36 I-3.801 J0.
X54.601 Z-12.548 I3.801 J0.
X46.999 Z-12.736 I-3.801 J0.
X54.601 Z-12.925 I3.801 J0.
X46.999 Z-13.113 I-3.801 J0.
X54.601 Z-13.301 I3.801 J0.
X46.999 Z-13.489 I-3.801 J0.
X54.601 Z-13.677 I3.801 J0.
X46.999 Z-13.865 I-3.801 J0.
X54.601 Z-14.054 I3.801 J0.
X46.999 Z-14.242 I-3.801 J0.
X54.601 Z-14.43 I3.801 J0.
X46.999 Z-14.618 I-3.801 J0.
X54.601 Z-14.806 I3.801 J0.
X46.999 Z-14.994 I-3.801 J0.
X54.601 Z-15.183 I3.801 J0.
X46.999 Z-15.371 I-3.801 J0.
X54.601 Z-15.559 I3.801 J0.
X46.999 Z-15.747 I-3.801 J0.
X54.601 Z-15.935 I3.801 J0.
X46.999 Z-16.124 I-3.801 J0.
X54.601 Z-16.312 I3.801 J0.
X46.999 Z-16.5 I-3.801 J0.
X54.601 Z-16.688 I3.801 J0.
X46.999 Z-16.876 I-3.801 J0.
X54.601 Z-17.064 I3.801 J0.
X46.999 Z-17.253 I-3.801 J0.
X54.601 Z-17.441 I3.801 J0.
X46.999 Z-17.629 I-3.801 J0.
X54.601 Z-17.817 I3.801 J0.
X46.999 Z-18.005 I-3.801 J0.
X54.601 Z-18.193 I3.801 J0.
X46.999 Z-18.382 I-3.801 J0.
X54.601 Z-18.57 I3.801 J0.
X46.999 Z-18.758 I-3.801 J0.
X54.601 Z-18.946 I3.801 J0.
X46.999 Z-19.134 I-3.801 J0.
X54.601 Z-19.322 I3.801 J0.
X46.999 Z-19.511 I-3.801 J0.
X54.601 Z-19.699 I3.801 J0.
X46.999 Z-19.887 I-3.801 J0.
X54.272 Y52.347 Z-20.05 I3.801 J0.
X47.328 Y49.253 I-3.472 J-1.547
X54.272 Y52.347 I3.472 J1.547
X54.111 Y51.928 I-0.29 J-0.129 F800.
G1 X53.966 Y51.863
X53.902 Y51.834 Z-20.042
X53.84 Y51.807 Z-20.019
X53.785 Y51.782 Z-19.981
X53.739 Y51.762 Z-19.93
X53.705 Y51.747 Z-19.87
X53.683 Y51.737 Z-19.803
X53.676 Y51.734 Z-19.733
G0 Z5.
X56.795 Y51.118
Z3.
G1 Z1.317 F800.
G18 G2 X57.112 Z1. I0.318 K0.
G1 X57.271
G17 G2 X57.589 Y50.8 I0. J-0.318
X44.011 Z0.708 I-6.789 J0. F1600.
X57.589 Z0.415 I6.789 J0.
X44.011 Z0.123 I-6.789 J0.
X57.589 Z-0.17 I6.789 J0.
X44.011 Z-0.462 I-6.789 J0.
X57.589 Z-0.755 I6.789 J0.
X44.011 Z-1.047 I-6.789 J0.
X57.589 Z-1.34 I6.789 J0.
X44.011 Z-1.632 I-6.789 J0.
X57.589 Z-1.925 I6.789 J0.
X44.011 Z-2.217 I-6.789 J0.
X57.589 Z-2.51 I6.789 J0.
X44.011 Z-2.802 I-6.789 J0.
X57.589 Z-3.095 I6.789 J0.
X44.011 Z-3.387 I-6.789 J0.
X57.589 Z-3.68 I6.789 J0.
X44.011 Z-3.972 I-6.789 J0.
X57.589 Z-4.265 I6.789 J0.
X44.011 Z-4.557 I-6.789 J0.
X57.589 Z-4.85 I6.789 J0.
X44.011 Z-5.142 I-6.789 J0.
X57.589 Z-5.435 I6.789 J0.
X44.011 Z-5.727 I-6.789 J0.
X57.589 Z-6.02 I6.789 J0.
X44.011 Z-6.312 I-6.789 J0.
X57.589 Z-6.605 I6.789 J0.
X44.011 Z-6.897 I-6.789 J0.
X57.589 Z-7.19 I6.789 J0.
X44.011 Z-7.482 I-6.789 J0.
X57.589 Z-7.775 I6.789 J0.
X44.011 Z-8.067 I-6.789 J0.
X57.589 Z-8.36 I6.789 J0.
X44.011 Z-8.652 I-6.789 J0.
X57.589 Z-8.945 I6.789 J0.
X44.011 Z-9.237 I-6.789 J0.
X57.589 Z-9.53 I6.789 J0.
X44.011 Z-9.822 I-6.789 J0.
X57.589 Z-10.115 I6.789 J0.
X44.011 Z-10.407 I-6.789 J0.
X57.588 Z-10.7 I6.789 J0.
X44.011 Z-10.992 I-6.789 J0.
X57.588 Z-11.285 I6.789 J0.
X44.011 Z-11.577 I-6.789 J0.
X57.588 Z-11.87 I6.789 J0.
X44.011 Z-12.162 I-6.789 J0.
X57.588 Z-12.455 I6.789 J0.
X44.011 Z-12.747 I-6.789 J0.
X57.588 Z-13.04 I6.789 J0.
X44.011 Z-13.332 I-6.789 J0.
X57.588 Z-13.625 I6.789 J0.
X44.011 Z-13.917 I-6.789 J0.
X57.588 Z-14.21 I6.789 J0.
X44.011 Z-14.502 I-6.789 J0.
X57.588 Z-14.795 I6.789 J0.
X44.011 Z-15.087 I-6.789 J0.
X57.588 Z-15.38 I6.789 J0.
X44.011 Z-15.672 I-6.789 J0.
X57.588 Z-15.965 I6.789 J0.
X44.011 Z-16.257 I-6.789 J0.
X57.588 Z-16.55 I6.789 J0.
X44.011 Z-16.842 I-6.789 J0.
X57.588 Z-17.135 I6.789 J0.
X44.011 Z-17.427 I-6.789 J0.
X57.588 Z-17.72 I6.789 J0.
X44.011 Z-18.012 I-6.789 J0.
X57.588 Z-18.305 I6.789 J0.
X44.011 Z-18.597 I-6.789 J0.
X57.588 Z-18.89 I6.789 J0.
X44.011 Z-19.182 I-6.788 J0.
X57.588 Z-19.475 I6.788 J0.
X44.011 Z-19.767 I-6.788 J0.
X57.551 Y51.509 Z-20.05 I6.788 J0.
X44.049 Y50.091 I-6.751 J-0.709
X57.551 Y51.509 I6.751 J0.709
X57.269 Y51.16 I-0.316 J-0.033 F800.
G1 X57.111 Y51.143
X57.041 Y51.136 Z-20.042
X56.974 Y51.129 Z-20.019
X56.914 Y51.123 Z-19.981
X56.864 Y51.117 Z-19.93
X56.826 Y51.113 Z-19.87
X56.803 Y51.111 Z-19.803
X56.795 Y51.11 Z-19.733
G0 Z5.
X59.782 Y51.118
Z3.
G1 Z1.317 F800.
G18 G2 X60.1 Z1. I0.318 K0.
G1 X60.258
G17 G2 X60.576 Y50.8 I0. J-0.318
X41.024 Z0.603 I-9.776 J0. F1600.
X60.576 Z0.206 I9.776 J0.
X41.024 Z-0.19 I-9.776 J0.
X60.576 Z-0.587 I9.776 J0.
X41.024 Z-0.984 I-9.776 J0.
X60.576 Z-1.381 I9.776 J0.
X41.024 Z-1.778 I-9.776 J0.
X60.576 Z-2.175 I9.776 J0.
X41.024 Z-2.571 I-9.776 J0.
X60.576 Z-2.968 I9.776 J0.
X41.024 Z-3.365 I-9.776 J0.
X60.576 Z-3.762 I9.776 J0.
X41.024 Z-4.159 I-9.776 J0.
X60.576 Z-4.556 I9.776 J0.
X41.024 Z-4.952 I-9.776 J0.
X60.576 Z-5.349 I9.776 J0.
X41.024 Z-5.746 I-9.776 J0.
X60.576 Z-6.143 I9.776 J0.
X41.024 Z-6.54 I-9.776 J0.
X60.576 Z-6.936 I9.776 J0.
X41.024 Z-7.333 I-9.776 J0.
X60.576 Z-7.73 I9.776 J0.
X41.024 Z-8.127 I-9.776 J0.
X60.576 Z-8.524 I9.776 J0.
X41.024 Z-8.921 I-9.776 J0.
X60.576 Z-9.317 I9.776 J0.
X41.024 Z-9.714 I-9.776 J0.
X60.576 Z-10.111 I9.776 J0.
X41.024 Z-10.508 I-9.776 J0.
X60.576 Z-10.905 I9.776 J0.
X41.024 Z-11.301 I-9.776 J0.
X60.576 Z-11.698 I9.776 J0.
X41.024 Z-12.095 I-9.776 J0.
X60.576 Z-12.492 I9.776 J0.
X41.024 Z-12.889 I-9.776 J0.
X60.576 Z-13.286 I9.776 J0.
X41.024 Z-13.682 I-9.776 J0.
X60.576 Z-14.079 I9.776 J0.
X41.024 Z-14.476 I-9.776 J0.
X60.576 Z-14.873 I9.776 J0.
X41.024 Z-15.27 I-9.776 J0.
X60.576 Z-15.667 I9.776 J0.
X41.024 Z-16.063 I-9.776 J0.
X60.576 Z-16.46 I9.776 J0.
X41.024 Z-16.857 I-9.776 J0.
X60.576 Z-17.254 I9.776 J0.
X41.024 Z-17.651 I-9.776 J0.
X60.576 Z-18.047 I9.776 J0.
X41.024 Z-18.444 I-9.776 J0.
X60.576 Z-18.841 I9.776 J0.
X41.024 Z-19.238 I-9.776 J0.
X60.576 Z-19.635 I9.776 J0.
X50.088 Y41.05 Z-19.842 I-9.776 J0.
X41.128 Y52.221 Z-20.05 I0.712 J9.75
X60.472 Y49.379 I9.672 J-1.421
X41.128 Y52.221 I-9.672 J1.421
X41.488 Y52.489 I0.314 J-0.046 F800.
G1 X41.645 Y52.466
X41.715 Y52.456 Z-20.042
X41.781 Y52.446 Z-20.019
X41.841 Y52.437 Z-19.981
X41.891 Y52.43 Z-19.93
X41.928 Y52.424 Z-19.87
X41.951 Y52.421 Z-19.803
X41.959 Y52.42 Z-19.733
G0 Z5.
X62.77 Y51.118
Z3.
G1 Z1.317 F800.
G18 G2 X63.087 Z1. I0.318 K0.
G1 X63.246
G17 G2 X63.563 Y50.8 I0. J-0.318
X38.036 Z0.499 I-12.764 J0. F1600.
X63.563 Z-0.002 I12.764 J0.
X38.036 Z-0.503 I-12.764 J0.
X63.563 Z-1.005 I12.764 J0.
X38.036 Z-1.506 I-12.764 J0.
X63.563 Z-2.007 I12.764 J0.
X38.036 Z-2.508 I-12.764 J0.
X63.563 Z-3.009 I12.764 J0.
X38.036 Z-3.51 I-12.764 J0.
X63.563 Z-4.011 I12.764 J0.
X38.036 Z-4.513 I-12.764 J0.
X63.564 Z-5.014 I12.764 J0.
X38.036 Z-5.515 I-12.764 J0.
X63.564 Z-6.016 I12.764 J0.
X38.036 Z-6.517 I-12.764 J0.
X63.564 Z-7.018 I12.764 J0.
X38.036 Z-7.52 I-12.764 J0.
X63.564 Z-8.021 I12.764 J0.
X38.036 Z-8.522 I-12.764 J0.
X63.564 Z-9.023 I12.764 J0.
X38.036 Z-9.524 I-12.764 J0.
X63.564 Z-10.025 I12.764 J0.
X38.036 Z-10.526 I-12.764 J0.
X63.564 Z-11.028 I12.764 J0.
X38.036 Z-11.529 I-12.764 J0.
X63.564 Z-12.03 I12.764 J0.
X38.036 Z-12.531 I-12.764 J0.
X63.564 Z-13.032 I12.764 J0.
X38.036 Z-13.533 I-12.764 J0.
X63.564 Z-14.034 I12.764 J0.
X38.036 Z-14.536 I-12.764 J0.
X63.564 Z-15.037 I12.764 J0.
X38.036 Z-15.538 I-12.764 J0.
X63.564 Z-16.039 I12.764 J0.
X38.036 Z-16.54 I-12.764 J0.
X63.564 Z-17.041 I12.764 J0.
X38.036 Z-17.542 I-12.764 J0.
X63.564 Z-18.044 I12.764 J0.
X38.036 Z-18.545 I-12.764 J0.
X63.564 Z-19.046 I12.764 J0.
X38.036 Z-19.547 I-12.764 J0.
X50.871 Y63.563 Z-19.799 I12.764 J0.
X63.563 Y50.657 Z-20.05 I-0.071 J-12.763
X38.037 Y50.943 I-12.763 J0.143
X63.563 Y50.657 I12.763 J-0.143
X63.242 Y50.343 I-0.317 J0.004 F800.
G1 X63.083 Y50.345
X63.012 Y50.346 Z-20.042
X62.945 Y50.347 Z-20.019
X62.885 Z-19.981
X62.835 Y50.348 Z-19.93
X62.797 Z-19.87
X62.773 Z-19.803
X62.765 Y50.349 Z-19.733
G0 Z10.

(BORE2)
G0 Z15.
X50.54 Y25.616
Z3.
G1 Z1.317 F800.
G18 G2 X50.857 Z1. I0.318 K0.
G1 X51.016
G17 G2 X51.232 Y25.4 I0. J-0.216
X50.368 Z0.929 I-0.432 J0.
X51.232 Z0.859 I0.432 J0.
X50.368 Z0.788 I-0.432 J0.
X51.232 Z0.718 I0.432 J0.
X50.368 Z0.647 I-0.432 J0.
X51.232 Z0.577 I0.432 J0.
X50.368 Z0.506 I-0.432 J0.
X51.232 Z0.436 I0.432 J0.
X50.368 Z0.365 I-0.432 J0.
X51.232 Z0.295 I0.432 J0.
X50.368 Z0.224 I-0.432 J0.
X51.232 Z0.154 I0.432 J0.
X50.368 Z0.083 I-0.432 J0.
X51.232 Z0.013 I0.432 J0.
X50.368 Z-0.058 I-0.432 J0.
X51.232 Z-0.128 I0.432 J0.
X50.368 Z-0.199 I-0.432 J0.
X51.232 Z-0.269 I0.432 J0.
X50.368 Z-0.34 I-0.432 J0.
X51.232 Z-0.41 I0.432 J0.
X50.368 Z-0.481 I-0.432 J0.
X51.232 Z-0.551 I0.432 J0.
X50.368 Z-0.622 I-0.432 J0.
X51.232 Z-0.692 I0.432 J0.
X50.368 Z-0.763 I-0.432 J0.
X51.232 Z-0.833 I0.432 J0.
X50.368 Z-0.904 I-0.432 J0.
X51.232 Z-0.974 I0.432 J0.
X50.368 Z-1.045 I-0.432 J0.
X51.232 Z-1.115 I0.432 J0.
X50.368 Z-1.186 I-0.432 J0.
X51.232 Z-1.256 I0.432 J0.
X50.368 Z-1.327 I-0.432 J0.
X51.232 Z-1.398 I0.432 J0.
X50.368 Z-1.468 I-0.432 J0.
X51.232 Z-1.539 I0.432 J0.
X50.368 Z-1.609 I-0.432 J0.
X51.232 Z-1.68 I0.432 J0.
X50.368 Z-1.75 I-0.432 J0.
X51.232 Z-1.821 I0.432 J0.
X50.368 Z-1.891 I-0.432 J0.
X51.232 Z-1.962 I0.432 J0.
X50.368 Z-2.032 I-0.432 J0.
X51.232 Z-2.103 I0.432 J0.
X50.368 Z-2.173 I-0.432 J0.
X51.232 Z-2.244 I0.432 J0.
X50.368 Z-2.314 I-0.432 J0.
X51.232 Z-2.385 I0.432 J0.
X50.368 Z-2.455 I-0.432 J0.
X51.232 Z-2.526 I0.432 J0.
X50.368 Z-2.596 I-0.432 J0.
X51.232 Z-2.667 I0.432 J0.
X50.368 Z-2.737 I-0.432 J0.
X51.232 Z-2.808 I0.432 J0.
X50.368 Z-2.878 I-0.432 J0.
X51.232 Z-2.949 I0.432 J0.
X50.368 Z-3.019 I-0.432 J0.
X51.232 Z-3.09 I0.432 J0.
X50.368 Z-3.16 I-0.432 J0.
X51.232 Z-3.231 I0.432 J0.
X50.368 Z-3.301 I-0.432 J0.
X51.232 Z-3.372 I0.432 J0.
X50.368 Z-3.442 I-0.432 J0.
X51.232 Z-3.513 I0.432 J0.
X50.368 Z-3.584 I-0.432 J0.
X51.232 Z-3.654 I0.432 J0.
X50.368 Z-3.725 I-0.432 J0.
X51.232 Z-3.795 I0.432 J0.
X50.368 Z-3.866 I-0.432 J0.
X51.232 Z-3.936 I0.432 J0.
X50.368 Z-4.007 I-0.432 J0.
X51.232 Z-4.077 I0.432 J0.
X50.368 Z-4.148 I-0.432 J0.
X51.232 Z-4.218 I0.432 J0.
X50.368 Z-4.289 I-0.432 J0.
X51.232 Z-4.359 I0.432 J0.
X50.368 Z-4.43 I-0.432 J0.
X51.232 Z-4.5 I0.432 J0.
X50.368 Z-4.571 I-0.432 J0.
X51.232 Z-4.641 I0.432 J0.
X50.368 Z-4.712 I-0.432 J0.
X51.232 Z-4.782 I0.432 J0.
X50.368 Z-4.853 I-0.432 J0.
X51.232 Z-4.923 I0.432 J0.
X50.368 Z-4.994 I-0.432 J0.
X51.232 Z-5.064 I0.432 J0.
X50.368 Z-5.135 I-0.432 J0.
X51.232 Z-5.205 I0.432 J0.
X50.368 Z-5.276 I-0.432 J0.
X51.232 Z-5.346 I0.432 J0.
X50.368 Z-5.417 I-0.432 J0.
X51.232 Z-5.487 I0.432 J0.
X50.368 Z-5.558 I-0.432 J0.
X51.232 Z-5.628 I0.432 J0.
X50.368 Z-5.699 I-0.432 J0.
X51.232 Z-5.769 I0.432 J0.
X50.368 Z-5.84 I-0.432 J0.
X51.232 Z-5.911 I0.432 J0.
X50.368 Z-5.981 I-0.432 J0.
X51.232 Z-6.052 I0.432 J0.
X50.368 Z-6.122 I-0.432 J0.
X51.232 Z-6.193 I0.432 J0.
X50.368 Z-6.263 I-0.432 J0.
X51.232 Z-6.334 I0.432 J0.
X50.368 Z-6.404 I-0.432 J0.
X51.232 Z-6.475 I0.432 J0.
X50.368 Z-6.545 I-0.432 J0.
X51.232 Z-6.616 I0.432 J0.
X50.368 Z-6.686 I-0.432 J0.
X51.232 Z-6.757 I0.432 J0.
X50.368 Z-6.827 I-0.432 J0.
X51.232 Z-6.898 I0.432 J0.
X50.368 Z-6.968 I-0.432 J0.
X51.232 Z-7.039 I0.432 J0.
X50.368 Z-7.109 I-0.432 J0.
X51.232 Z-7.18 I0.432 J0.
X50.368 Z-7.25 I-0.432 J0.
X51.232 Z-7.321 I0.432 J0.
X50.368 Z-7.391 I-0.432 J0.
X51.232 Z-7.462 I0.432 J0.
X50.368 Z-7.532 I-0.432 J0.
X51.232 Z-7.603 I0.432 J0.
X50.368 Z-7.673 I-0.432 J0.
X51.232 Z-7.744 I0.432 J0.
X50.368 Z-7.814 I-0.432 J0.
X51.232 Z-7.885 I0.432 J0.
X50.368 Z-7.955 I-0.432 J0.
X51.232 Z-8.026 I0.432 J0.
X50.368 Z-8.097 I-0.432 J0.
X51.232 Z-8.167 I0.432 J0.
X50.368 Z-8.238 I-0.432 J0.
X51.232 Z-8.308 I0.432 J0.
X50.368 Z-8.379 I-0.432 J0.
X51.232 Z-8.449 I0.432 J0.
X50.368 Z-8.52 I-0.432 J0.
X51.232 Z-8.59 I0.432 J0.
X50.368 Z-8.661 I-0.432 J0.
X51.232 Z-8.731 I0.432 J0.
X50.368 Z-8.802 I-0.432 J0.
X51.232 Z-8.872 I0.432 J0.
X50.368 Z-8.943 I-0.432 J0.
X51.232 Z-9.013 I0.432 J0.
X50.368 Z-9.084 I-0.432 J0.
X51.232 Z-9.154 I0.432 J0.
X50.368 Z-9.225 I-0.432 J0.
X51.232 Z-9.295 I0.432 J0.
X50.368 Z-9.366 I-0.432 J0.
X51.232 Z-9.436 I0.432 J0.
X50.368 Z-9.507 I-0.432 J0.
X51.232 Z-9.577 I0.432 J0.
X50.368 Z-9.648 I-0.432 J0.
X51.232 Z-9.718 I0.432 J0.
X50.368 Z-9.789 I-0.432 J0.
X51.232 Z-9.859 I0.432 J0.
X50.368 Z-9.93 I-0.432 J0.
X51.232 Z-10. I0.432 J0.
X50.368 Z-10.071 I-0.432 J0.
X51.232 Z-10.141 I0.432 J0.
X50.368 Z-10.212 I-0.432 J0.
X51.232 Z-10.282 I0.432 J0.
X50.368 Z-10.353 I-0.432 J0.
X51.232 Z-10.424 I0.432 J0.
X50.368 Z-10.494 I-0.432 J0.
X51.232 Z-10.565 I0.432 J0.
X50.368 Z-10.635 I-0.432 J0.
X51.232 Z-10.706 I0.432 J0.
X50.368 Z-10.776 I-0.432 J0.
X51.232 Z-10.847 I0.432 J0.
X50.368 Z-10.917 I-0.432 J0.
X51.232 Z-10.988 I0.432 J0.
X50.368 Z-11.058 I-0.432 J0.
X51.232 Z-11.129 I0.432 J0.
X50.368 Z-11.199 I-0.432 J0.
X51.232 Z-11.27 I0.432 J0.
X50.368 Z-11.34 I-0.432 J0.
X51.232 Z-11.411 I0.432 J0.
X50.368 Z-11.481 I-0.432 J0.
X51.232 Z-11.552 I0.432 J0.
X50.368 Z-11.622 I-0.432 J0.
X51.232 Z-11.693 I0.432 J0.
X50.368 Z-11.763 I-0.432 J0.
X51.232 Z-11.834 I0.432 J0.
X50.368 Z-11.904 I-0.432 J0.
X51.232 Z-11.975 I0.432 J0.
X50.368 Z-12.045 I-0.432 J0.
X51.232 Z-12.116 I0.432 J0.
X50.368 Z-12.186 I-0.432 J0.
X51.232 Z-12.257 I0.432 J0.
X50.368 Z-12.327 I-0.432 J0.
X51.232 Z-12.398 I0.432 J0.
X50.368 Z-12.468 I-0.432 J0.
X51.232 Z-12.539 I0.432 J0.
X50.368 Z-12.609 I-0.432 J0.
X51.232 Z-12.68 I0.432 J0.
X50.368 Z-12.751 I-0.432 J0.
X51.232 Z-12.821 I0.432 J0.
X50.368 Z-12.892 I-0.432 J0.
X51.232 Z-12.962 I0.432 J0.
X50.368 Z-13.033 I-0.432 J0.
X51.232 Z-13.103 I0.432 J0.
X50.368 Z-13.174 I-0.432 J0.
X51.232 Z-13.244 I0.432 J0.
X50.368 Z-13.315 I-0.432 J0.
X51.232 Z-13.385 I0.432 J0.
X50.368 Z-13.456 I-0.432 J0.
X51.232 Z-13.526 I0.432 J0.
X50.368 Z-13.597 I-0.432 J0.
X51.232 Z-13.667 I0.432 J0.
X50.368 Z-13.738 I-0.432 J0.
X51.232 Z-13.808 I0.432 J0.
X50.368 Z-13.879 I-0.432 J0.
X51.232 Z-13.949 I0.432 J0.
X50.368 Z-14.02 I-0.432 J0.
X51.232 Z-14.09 I0.432 J0.
X50.368 Z-14.161 I-0.432 J0.
X51.232 Z-14.231 I0.432 J0.
X50.368 Z-14.302 I-0.432 J0.
X51.232 Z-14.372 I0.432 J0.
X50.368 Z-14.443 I-0.432 J0.
X51.232 Z-14.513 I0.432 J0.
X50.368 Z-14.584 I-0.432 J0.
X51.232 Z-14.654 I0.432 J0.
X50.368 Z-14.725 I-0.432 J0.
X51.232 Z-14.795 I0.432 J0.
X50.368 Z-14.866 I-0.432 J0.
X51.232 Z-14.937 I0.432 J0.
X50.368 Z-15.007 I-0.432 J0.
X51.232 Z-15.078 I0.432 J0.
X50.368 Z-15.148 I-0.432 J0.
X51.232 Z-15.219 I0.432 J0.
X50.368 Z-15.289 I-0.432 J0.
X51.232 Z-15.36 I0.432 J0.
X50.368 Z-15.43 I-0.432 J0.
X51.232 Z-15.501 I0.432 J0.
X50.368 Z-15.571 I-0.432 J0.
X51.232 Z-15.642 I0.432 J0.
X50.368 Z-15.712 I-0.432 J0.
X51.232 Z-15.783 I0.432 J0.
X50.368 Z-15.853 I-0.432 J0.
X51.232 Z-15.924 I0.432 J0.
X50.368 Z-15.994 I-0.432 J0.
X51.232 Z-16.065 I0.432 J0.
X50.368 Z-16.135 I-0.432 J0.
X51.232 Z-16.206 I0.432 J0.
X50.368 Z-16.276 I-0.432 J0.
X51.232 Z-16.347 I0.432 J0.
X50.368 Z-16.417 I-0.432 J0.
X51.232 Z-16.488 I0.432 J0.
X50.368 Z-16.558 I-0.432 J0.
X51.232 Z-16.629 I0.432 J0.
X50.368 Z-16.699 I-0.432 J0.
X51.232 Z-16.77 I0.432 J0.
X50.368 Z-16.84 I-0.432 J0.
X51.232 Z-16.911 I0.432 J0.
X50.368 Z-16.981 I-0.432 J0.
X51.232 Z-17.052 I0.432 J0.
X50.368 Z-17.122 I-0.432 J0.
X51.232 Z-17.193 I0.432 J0.
X50.368 Z-17.264 I-0.432 J0.
X51.232 Z-17.334 I0.432 J0.
X50.368 Z-17.405 I-0.432 J0.
X51.232 Z-17.475 I0.432 J0.
X50.368 Z-17.546 I-0.432 J0.
X51.232 Z-17.616 I0.432 J0.
X50.368 Z-17.687 I-0.432 J0.
X51.232 Z-17.757 I0.432 J0.
X50.368 Z-17.828 I-0.432 J0.
X51.232 Z-17.898 I0.432 J0.
X50.368 Z-17.969 I-0.432 J0.
X51.232 Z-18.039 I0.432 J0.
X50.368 Z-18.11 I-0.432 J0.
X51.232 Z-18.18 I0.432 J0.
X50.368 Z-18.251 I-0.432 J0.
X51.232 Z-18.321 I0.432 J0.
X50.368 Z-18.392 I-0.432 J0.
X51.232 Z-18.462 I0.432 J0.
X50.368 Z-18.533 I-0.432 J0.
X51.232 Z-18.603 I0.432 J0.
X50.368 Z-18.674 I-0.432 J0.
X51.232 Z-18.744 I0.432 J0.
X50.368 Z-18.815 I-0.432 J0.
X51.232 Z-18.885 I0.432 J0.
X50.368 Z-18.956 I-0.432 J0.
X51.232 Z-19.026 I0.432 J0.
X50.368 Z-19.097 I-0.432 J0.
X51.232 Z-19.167 I0.432 J0.
X50.368 Z-19.238 I-0.432 J0.
X51.232 Z-19.308 I0.432 J0.
X50.368 Z-19.379 I-0.432 J0.
X51.232 Z-19.449 I0.432 J0.
X50.368 Z-19.52 I-0.432 J0.
X51.232 Z-19.591 I0.432 J0.
X50.368 Z-19.661 I-0.432 J0.
X51.232 Z-19.732 I0.432 J0.
X50.368 Z-19.802 I-0.432 J0.
X51.232 Z-19.873 I0.432 J0.
X50.368 Z-19.943 I-0.432 J0.
X51.232 Z-20.014 I0.432 J0.
X50.778 Y24.969 Z-20.05 I-0.432 J0.
X50.822 Y25.831 I0.022 J0.431
X50.778 Y24.969 I-0.022 J-0.431
X50.574 Y25.195 I0.011 J0.216
G1 X50.582 Y25.354
X50.585 Y25.424 Z-20.042
X50.588 Y25.491 Z-20.019
X50.591 Y25.551 Z-19.981
X50.594 Y25.602 Z-19.93
X50.596 Y25.639 Z-19.87
X50.597 Y25.663 Z-19.803
Y25.671 Z-19.733
G0 Z5.
X75.94 Y51.016
Z3.
G1 Z1.317 F800.
G18 G2 X76.257 Z1. I0.317 K0.
G1 X76.416
G17 G2 X76.632 Y50.8 I0. J-0.216
X75.768 Z0.929 I-0.432 J0.
X76.632 Z0.859 I0.432 J0.
X75.768 Z0.788 I-0.432 J0.
X76.632 Z0.718 I0.432 J0.
X75.768 Z0.647 I-0.432 J0.
X76.632 Z0.577 I0.432 J0.
X75.768 Z0.506 I-0.432 J0.
X76.632 Z0.436 I0.432 J0.
X75.768 Z0.365 I-0.432 J0.
X76.632 Z0.295 I0.432 J0.
X75.768 Z0.224 I-0.432 J0.
X76.632 Z0.154 I0.432 J0.
X75.768 Z0.083 I-0.432 J0.
X76.632 Z0.013 I0.432 J0.
X75.768 Z-0.058 I-0.432 J0.
X76.632 Z-0.128 I0.432 J0.
X75.768 Z-0.199 I-0.432 J0.
X76.632 Z-0.269 I0.432 J0.
X75.768 Z-0.34 I-0.432 J0.
X76.632 Z-0.41 I0.432 J0.
X75.768 Z-0.481 I-0.432 J0.
X76.632 Z-0.551 I0.432 J0.
X75.768 Z-0.622 I-0.432 J0.
X76.632 Z-0.692 I0.432 J0.
X75.768 Z-0.763 I-0.432 J0.
X76.632 Z-0.833 I0.432 J0.
X75.768 Z-0.904 I-0.432 J0.
X76.632 Z-0.974 I0.432 J0.
X75.768 Z-1.045 I-0.432 J0.
X76.632 Z-1.115 I0.432 J0.
X75.768 Z-1.186 I-0.432 J0.
X76.632 Z-1.256 I0.432 J0.
X75.768 Z-1.327 I-0.432 J0.
X76.632 Z-1.398 I0.432 J0.
X75.768 Z-1.468 I-0.432 J0.
X76.632 Z-1.539 I0.432 J0.
X75.768 Z-1.609 I-0.432 J0.
X76.632 Z-1.68 I0.432 J0.
X75.768 Z-1.75 I-0.432 J0.
X76.632 Z-1.821 I0.432 J0.
X75.768 Z-1.891 I-0.432 J0.
X76.632 Z-1.962 I0.432 J0.
X75.768 Z-2.032 I-0.432 J0.
X76.632 Z-2.103 I0.432 J0.
X75.768 Z-2.173 I-0.432 J0.
X76.632 Z-2.244 I0.432 J0.
X75.768 Z-2.314 I-0.432 J0.
X76.632 Z-2.385 I0.432 J0.
X75.768 Z-2.455 I-0.432 J0.
X76.632 Z-2.526 I0.432 J0.
X75.768 Z-2.596 I-0.432 J0.
X76.632 Z-2.667 I0.432 J0.
X75.768 Z-2.737 I-0.432 J0.
X76.632 Z-2.808 I0.432 J0.
X75.768 Z-2.878 I-0.432 J0.
X76.632 Z-2.949 I0.432 J0.
X75.768 Z-3.019 I-0.432 J0.
X76.632 Z-3.09 I0.432 J0.
X75.768 Z-3.16 I-0.432 J0.
X76.632 Z-3.231 I0.432 J0.
X75.768 Z-3.301 I-0.432 J0.
X76.632 Z-3.372 I0.432 J0.
X75.768 Z-3.442 I-0.432 J0.
X76.632 Z-3.513 I0.432 J0.
X75.768 Z-3.584 I-0.432 J0.
X76.632 Z-3.654 I0.432 J0.
X75.768 Z-3.725 I-0.432 J0.
X76.632 Z-3.795 I0.432 J0.
X75.768 Z-3.866 I-0.432 J0.
X76.632 Z-3.936 I0.432 J0.
X75.768 Z-4.007 I-0.432 J0.
X76.632 Z-4.077 I0.432 J0.
X75.768 Z-4.148 I-0.432 J0.
X76.632 Z-4.218 I0.432 J0.
X75.768 Z-4.289 I-0.432 J0.
X76.632 Z-4.359 I0.432 J0.
X75.768 Z-4.43 I-0.432 J0.
X76.632 Z-4.5 I0.432 J0.
X75.768 Z-4.571 I-0.432 J0.
X76.632 Z-4.641 I0.432 J0.
X75.768 Z-4.712 I-0.432 J0.
X76.632 Z-4.782 I0.432 J0.
X75.768 Z-4.853 I-0.432 J0.
X76.632 Z-4.923 I0.432 J0.
X75.768 Z-4.994 I-0.432 J0.
X76.632 Z-5.064 I0.432 J0.
X75.768 Z-5.135 I-0.432 J0.
X76.632 Z-5.205 I0.432 J0.
X75.768 Z-5.276 I-0.432 J0.
X76.632 Z-5.346 I0.432 J0.
X75.768 Z-5.417 I-0.432 J0.
X76.632 Z-5.487 I0.432 J0.
X75.768 Z-5.558 I-0.432 J0.
X76.632 Z-5.628 I0.432 J0.
X75.768 Z-5.699 I-0.432 J0.
X76.632 Z-5.769 I0.432 J0.
X75.768 Z-5.84 I-0.432 J0.
X76.632 Z-5.911 I0.432 J0.
X75.768 Z-5.981 I-0.432 J0.
X76.632 Z-6.052 I0.432 J0.
X75.768 Z-6.122 I-0.432 J0.
X76.632 Z-6.193 I0.432 J0.
X75.768 Z-6.263 I-0.432 J0.
X76.632 Z-6.334 I0.432 J0.
X75.768 Z-6.404 I-0.432 J0.
X76.632 Z-6.475 I0.432 J0.
X75.768 Z-6.545 I-0.432 J0.
X76.632 Z-6.616 I0.432 J0.
X75.768 Z-6.686 I-0.432 J0.
X76.632 Z-6.757 I0.432 J0.
X75.768 Z-6.827 I-0.432 J0.
X76.632 Z-6.898 I0.432 J0.
X75.768 Z-6.968 I-0.432 J0.
X76.632 Z-7.039 I0.432 J0.
X75.768 Z-7.109 I-0.432 J0.
X76.632 Z-7.18 I0.432 J0.
X75.768 Z-7.25 I-0.432 J0.
X76.632 Z-7.321 I0.432 J0.
X75.768 Z-7.391 I-0.432 J0.
X76.632 Z-7.462 I0.432 J0.
X75.768 Z-7.532 I-0.432 J0.
X76.632 Z-7.603 I0.432 J0.
X75.768 Z-7.673 I-0.432 J0.
X76.632 Z-7.744 I0.432 J0.
X75.768 Z-7.814 I-0.432 J0.
X76.632 Z-7.885 I0.432 J0.
X75.768 Z-7.955 I-0.432 J0.
X76.632 Z-8.026 I0.432 J0.
X75.768 Z-8.097 I-0.432 J0.
X76.632 Z-8.167 I0.432 J0.
X75.768 Z-8.238 I-0.432 J0.
X76.632 Z-8.308 I0.432 J0.
X75.768 Z-8.379 I-0.432 J0.
X76.632 Z-8.449 I0.432 J0.
X75.768 Z-8.52 I-0.432 J0.
X76.632 Z-8.59 I0.432 J0.
X75.768 Z-8.661 I-0.432 J0.
X76.632 Z-8.731 I0.432 J0.
X75.768 Z-8.802 I-0.432 J0.
X76.632 Z-8.872 I0.432 J0.
X75.768 Z-8.943 I-0.432 J0.
X76.632 Z-9.013 I0.432 J0.
X75.768 Z-9.084 I-0.432 J0.
X76.632 Z-9.154 I0.432 J0.
X75.768 Z-9.225 I-0.432 J0.
X76.632 Z-9.295 I0.432 J0.
X75.768 Z-9.366 I-0.432 J0.
X76.632 Z-9.436 I0.432 J0.
X75.768 Z-9.507 I-0.432 J0.
X76.632 Z-9.577 I0.432 J0.
X75.768 Z-9.648 I-0.432 J0.
X76.632 Z-9.718 I0.432 J0.
X75.768 Z-9.789 I-0.432 J0.
X76.632 Z-9.859 I0.432 J0.
X75.768 Z-9.93 I-0.432 J0.
X76.632 Z-10. I0.432 J0.
X75.768 Z-10.071 I-0.432 J0.
X76.632 Z-10.141 I0.432 J0.
X75.768 Z-10.212 I-0.432 J0.
X76.632 Z-10.282 I0.432 J0.
X75.768 Z-10.353 I-0.432 J0.
X76.632 Z-10.424 I0.432 J0.
X75.768 Z-10.494 I-0.432 J0.
X76.632 Z-10.565 I0.432 J0.
X75.768 Z-10.635 I-0.432 J0.
X76.632 Z-10.706 I0.432 J0.
X75.768 Z-10.776 I-0.432 J0.
X76.632 Z-10.847 I0.432 J0.
X75.768 Z-10.917 I-0.432 J0.
X76.632 Z-10.988 I0.432 J0.
X75.768 Z-11.058 I-0.432 J0.
X76.632 Z-11.129 I0.432 J0.
X75.768 Z-11.199 I-0.432 J0.
X76.632 Z-11.27 I0.432 J0.
X75.768 Z-11.34 I-0.432 J0.
X76.632 Z-11.411 I0.432 J0.
X75.768 Z-11.481 I-0.432 J0.
X76.632 Z-11.552 I0.432 J0.
X75.768 Z-11.622 I-0.432 J0.
X76.632 Z-11.693 I0.432 J0.
X75.768 Z-11.763 I-0.432 J0.
X76.632 Z-11.834 I0.432 J0.
X75.768 Z-11.904 I-0.432 J0.
X76.632 Z-11.975 I0.432 J0.
X75.768 Z-12.045 I-0.432 J0.
X76.632 Z-12.116 I0.432 J0.
X75.768 Z-12.186 I-0.432 J0.
X76.632 Z-12.257 I0.432 J0.
X75.768 Z-12.327 I-0.432 J0.
X76.632 Z-12.398 I0.432 J0.
X75.768 Z-12.468 I-0.432 J0.
X76.632 Z-12.539 I0.432 J0.
X75.768 Z-12.609 I-0.432 J0.
X76.632 Z-12.68 I0.432 J0.
X75.768 Z-12.751 I-0.432 J0.
X76.632 Z-12.821 I0.432 J0.
X75.768 Z-12.892 I-0.432 J0.
X76.632 Z-12.962 I0.432 J0.
X75.768 Z-13.033 I-0.432 J0.
X76.632 Z-13.103 I0.432 J0.
X75.768 Z-13.174 I-0.432 J0.
X76.632 Z-13.244 I0.432 J0.
X75.768 Z-13.315 I-0.432 J0.
X76.632 Z-13.385 I0.432 J0.
X75.768 Z-13.456 I-0.432 J0.
X76.632 Z-13.526 I0.432 J0.
X75.768 Z-13.597 I-0.432 J0.
X76.632 Z-13.667 I0.432 J0.
X75.768 Z-13.738 I-0.432 J0.
X76.632 Z-13.808 I0.432 J0.
X75.768 Z-13.879 I-0.432 J0.
X76.632 Z-13.949 I0.432 J0.
X75.768 Z-14.02 I-0.432 J0.
X76.632 Z-14.09 I0.432 J0.
X75.768 Z-14.161 I-0.432 J0.
X76.632 Z-14.231 I0.432 J0.
X75.768 Z-14.302 I-0.432 J0.
X76.632 Z-14.372 I0.432 J0.
X75.768 Z-14.443 I-0.432 J0.
X76.632 Z-14.513 I0.432 J0.
X75.768 Z-14.584 I-0.432 J0.
X76.632 Z-14.654 I0.432 J0.
X75.768 Z-14.725 I-0.432 J0.
X76.632 Z-14.795 I0.432 J0.
X75.768 Z-14.866 I-0.432 J0.
X76.632 Z-14.937 I0.432 J0.
X75.768 Z-15.007 I-0.432 J0.
X76.632 Z-15.078 I0.432 J0.
X75.768 Z-15.148 I-0.432 J0.
X76.632 Z-15.219 I0.432 J0.
X75.768 Z-15.289 I-0.432 J0.
X76.632 Z-15.36 I0.432 J0.
X75.768 Z-15.43 I-0.432 J0.
X76.632 Z-15.501 I0.432 J0.
X75.768 Z-15.571 I-0.432 J0.
X76.632 Z-15.642 I0.432 J0.
X75.768 Z-15.712 I-0.432 J0.
X76.632 Z-15.783 I0.432 J0.
X75.768 Z-15.853 I-0.432 J0.
X76.632 Z-15.924 I0.432 J0.
X75.768 Z-15.994 I-0.432 J0.
X76.632 Z-16.065 I0.432 J0.
X75.768 Z-16.135 I-0.432 J0.
X76.632 Z-16.206 I0.432 J0.
X75.768 Z-16.276 I-0.432 J0.
X76.632 Z-16.347 I0.432 J0.
X75.768 Z-16.417 I-0.432 J0.
X76.632 Z-16.488 I0.432 J0.
X75.768 Z-16.558 I-0.432 J0.
X76.632 Z-16.629 I0.432 J0.
X75.768 Z-16.699 I-0.432 J0.
X76.632 Z-16.77 I0.432 J0.
X75.768 Z-16.84 I-0.432 J0.
X76.632 Z-16.911 I0.432 J0.
X75.768 Z-16.981 I-0.432 J0.
X76.632 Z-17.052 I0.432 J0.
X75.768 Z-17.122 I-0.432 J0.
X76.632 Z-17.193 I0.432 J0.
X75.768 Z-17.264 I-0.432 J0.
X76.632 Z-17.334 I0.432 J0.
X75.768 Z-17.405 I-0.432 J0.
X76.632 Z-17.475 I0.432 J0.
X75.768 Z-17.546 I-0.432 J0.
X76.632 Z-17.616 I0.432 J0.
X75.768 Z-17.687 I-0.432 J0.
X76.632 Z-17.757 I0.432 J0.
X75.768 Z-17.828 I-0.432 J0.
X76.632 Z-17.898 I0.432 J0.
X75.768 Z-17.969 I-0.432 J0.
X76.632 Z-18.039 I0.432 J0.
X75.768 Z-18.11 I-0.432 J0.
X76.632 Z-18.18 I0.432 J0.
X75.768 Z-18.251 I-0.432 J0.
X76.632 Z-18.321 I0.432 J0.
X75.768 Z-18.392 I-0.432 J0.
X76.632 Z-18.462 I0.432 J0.
X75.768 Z-18.533 I-0.432 J0.
X76.632 Z-18.603 I0.432 J0.
X75.768 Z-18.674 I-0.432 J0.
X76.632 Z-18.744 I0.432 J0.
X75.768 Z-18.815 I-0.432 J0.
X76.632 Z-18.885 I0.432 J0.
X75.768 Z-18.956 I-0.432 J0.
X76.632 Z-19.026 I0.432 J0.
X75.768 Z-19.097 I-0.432 J0.
X76.632 Z-19.167 I0.432 J0.
X75.768 Z-19.238 I-0.432 J0.
X76.632 Z-19.308 I0.432 J0.
X75.768 Z-19.379 I-0.432 J0.
X76.632 Z-19.449 I0.432 J0.
X75.768 Z-19.52 I-0.432 J0.
X76.632 Z-19.591 I0.432 J0.
X75.768 Z-19.661 I-0.432 J0.
X76.632 Z-19.732 I0.432 J0.
X75.768 Z-19.802 I-0.432 J0.
X76.632 Z-19.873 I0.432 J0.
X75.768 Z-19.943 I-0.432 J0.
X76.632 Z-20.014 I0.432 J0.
X76.178 Y50.369 Z-20.05 I-0.432 J0.
X76.222 Y51.231 I0.022 J0.431
X76.178 Y50.369 I-0.022 J-0.431
X75.974 Y50.595 I0.011 J0.216
G1 X75.982 Y50.754
X75.985 Y50.824 Z-20.042
X75.988 Y50.891 Z-20.019
X75.991 Y50.951 Z-19.981
X75.994 Y51.002 Z-19.93
X75.996 Y51.039 Z-19.87
X75.997 Y51.063 Z-19.803
Y51.071 Z-19.733
G0 Z5.
X50.54 Y76.416
Z3.
G1 Z1.317 F800.
G18 G2 X50.857 Z1. I0.318 K0.
G1 X51.016
G17 G2 X51.232 Y76.2 I0. J-0.216
X50.368 Z0.929 I-0.432 J0.
X51.232 Z0.859 I0.432 J0.
X50.368 Z0.788 I-0.432 J0.
X51.232 Z0.718 I0.432 J0.
X50.368 Z0.647 I-0.432 J0.
X51.232 Z0.577 I0.432 J0.
X50.368 Z0.506 I-0.432 J0.
X51.232 Z0.436 I0.432 J0.
X50.368 Z0.365 I-0.432 J0.
X51.232 Z0.295 I0.432 J0.
X50.368 Z0.224 I-0.432 J0.
X51.232 Z0.154 I0.432 J0.
X50.368 Z0.083 I-0.432 J0.
X51.232 Z0.013 I0.432 J0.
X50.368 Z-0.058 I-0.432 J0.
X51.232 Z-0.128 I0.432 J0.
X50.368 Z-0.199 I-0.432 J0.
X51.232 Z-0.269 I0.432 J0.
X50.368 Z-0.34 I-0.432 J0.
X51.232 Z-0.41 I0.432 J0.
X50.368 Z-0.481 I-0.432 J0.
X51.232 Z-0.551 I0.432 J0.
X50.368 Z-0.622 I-0.432 J0.
X51.232 Z-0.692 I0.432 J0.
X50.368 Z-0.763 I-0.432 J0.
X51.232 Z-0.833 I0.432 J0.
X50.368 Z-0.904 I-0.432 J0.
X51.232 Z-0.974 I0.432 J0.
X50.368 Z-1.045 I-0.432 J0.
X51.232 Z-1.115 I0.432 J0.
X50.368 Z-1.186 I-0.432 J0.
X51.232 Z-1.256 I0.432 J0.
X50.368 Z-1.327 I-0.432 J0.
X51.232 Z-1.398 I0.432 J0.
X50.368 Z-1.468 I-0.432 J0.
X51.232 Z-1.539 I0.432 J0.
X50.368 Z-1.609 I-0.432 J0.
X51.232 Z-1.68 I0.432 J0.
X50.368 Z-1.75 I-0.432 J0.
X51.232 Z-1.821 I0.432 J0.
X50.368 Z-1.891 I-0.432 J0.
X51.232 Z-1.962 I0.432 J0.
X50.368 Z-2.032 I-0.432 J0.
X51.232 Z-2.103 I0.432 J0.
X50.368 Z-2.173 I-0.432 J0.
X51.232 Z-2.244 I0.432 J0.
X50.368 Z-2.314 I-0.432 J0.
X51.232 Z-2.385 I0.432 J0.
X50.368 Z-2.455 I-0.432 J0.
X51.232 Z-2.526 I0.432 J0.
X50.368 Z-2.596 I-0.432 J0.
X51.232 Z-2.667 I0.432 J0.
X50.368 Z-2.737 I-0.432 J0.
X51.232 Z-2.808 I0.432 J0.
X50.368 Z-2.878 I-0.432 J0.
X51.232 Z-2.949 I0.432 J0.
X50.368 Z-3.019 I-0.432 J0.
X51.232 Z-3.09 I0.432 J0.
X50.368 Z-3.16 I-0.432 J0.
X51.232 Z-3.231 I0.432 J0.
X50.368 Z-3.301 I-0.432 J0.
X51.232 Z-3.372 I0.432 J0.
X50.368 Z-3.442 I-0.432 J0.
X51.232 Z-3.513 I0.432 J0.
X50.368 Z-3.584 I-0.432 J0.
X51.232 Z-3.654 I0.432 J0.
X50.368 Z-3.725 I-0.432 J0.
X51.232 Z-3.795 I0.432 J0.
X50.368 Z-3.866 I-0.432 J0.
X51.232 Z-3.936 I0.432 J0.
X50.368 Z-4.007 I-0.432 J0.
X51.232 Z-4.077 I0.432 J0.
X50.368 Z-4.148 I-0.432 J0.
X51.232 Z-4.218 I0.432 J0.
X50.368 Z-4.289 I-0.432 J0.
X51.232 Z-4.359 I0.432 J0.
X50.368 Z-4.43 I-0.432 J0.
X51.232 Z-4.5 I0.432 J0.
X50.368 Z-4.571 I-0.432 J0.
X51.232 Z-4.641 I0.432 J0.
X50.368 Z-4.712 I-0.432 J0.
X51.232 Z-4.782 I0.432 J0.
X50.368 Z-4.853 I-0.432 J0.
X51.232 Z-4.923 I0.432 J0.
X50.368 Z-4.994 I-0.432 J0.
X51.232 Z-5.064 I0.432 J0.
X50.368 Z-5.135 I-0.432 J0.
X51.232 Z-5.205 I0.432 J0.
X50.368 Z-5.276 I-0.432 J0.
X51.232 Z-5.346 I0.432 J0.
X50.368 Z-5.417 I-0.432 J0.
X51.232 Z-5.487 I0.432 J0.
X50.368 Z-5.558 I-0.432 J0.
X51.232 Z-5.628 I0.432 J0.
X50.368 Z-5.699 I-0.432 J0.
X51.232 Z-5.769 I0.432 J0.
X50.368 Z-5.84 I-0.432 J0.
X51.232 Z-5.911 I0.432 J0.
X50.368 Z-5.981 I-0.432 J0.
X51.232 Z-6.052 I0.432 J0.
X50.368 Z-6.122 I-0.432 J0.
X51.232 Z-6.193 I0.432 J0.
X50.368 Z-6.263 I-0.432 J0.
X51.232 Z-6.334 I0.432 J0.
X50.368 Z-6.404 I-0.432 J0.
X51.232 Z-6.475 I0.432 J0.
X50.368 Z-6.545 I-0.432 J0.
X51.232 Z-6.616 I0.432 J0.
X50.368 Z-6.686 I-0.432 J0.
X51.232 Z-6.757 I0.432 J0.
X50.368 Z-6.827 I-0.432 J0.
X51.232 Z-6.898 I0.432 J0.
X50.368 Z-6.968 I-0.432 J0.
X51.232 Z-7.039 I0.432 J0.
X50.368 Z-7.109 I-0.432 J0.
X51.232 Z-7.18 I0.432 J0.
X50.368 Z-7.25 I-0.432 J0.
X51.232 Z-7.321 I0.432 J0.
X50.368 Z-7.391 I-0.432 J0.
X51.232 Z-7.462 I0.432 J0.
X50.368 Z-7.532 I-0.432 J0.
X51.232 Z-7.603 I0.432 J0.
X50.368 Z-7.673 I-0.432 J0.
X51.232 Z-7.744 I0.432 J0.
X50.368 Z-7.814 I-0.432 J0.
X51.232 Z-7.885 I0.432 J0.
X50.368 Z-7.955 I-0.432 J0.
X51.232 Z-8.026 I0.432 J0.
X50.368 Z-8.097 I-0.432 J0.
X51.232 Z-8.167 I0.432 J0.
X50.368 Z-8.238 I-0.432 J0.
X51.232 Z-8.308 I0.432 J0.
X50.368 Z-8.379 I-0.432 J0.
X51.232 Z-8.449 I0.432 J0.
X50.368 Z-8.52 I-0.432 J0.
X51.232 Z-8.59 I0.432 J0.
X50.368 Z-8.661 I-0.432 J0.
X51.232 Z-8.731 I0.432 J0.
X50.368 Z-8.802 I-0.432 J0.
X51.232 Z-8.872 I0.432 J0.
X50.368 Z-8.943 I-0.432 J0.
X51.232 Z-9.013 I0.432 J0.
X50.368 Z-9.084 I-0.432 J0.
X51.232 Z-9.154 I0.432 J0.
X50.368 Z-9.225 I-0.432 J0.
X51.232 Z-9.295 I0.432 J0.
X50.368 Z-9.366 I-0.432 J0.
X51.232 Z-9.436 I0.432 J0.
X50.368 Z-9.507 I-0.432 J0.
X51.232 Z-9.577 I0.432 J0.
X50.368 Z-9.648 I-0.432 J0.
X51.232 Z-9.718 I0.432 J0.
X50.368 Z-9.789 I-0.432 J0.
X51.232 Z-9.859 I0.432 J0.
X50.368 Z-9.93 I-0.432 J0.
X51.232 Z-10. I0.432 J0.
X50.368 Z-10.071 I-0.432 J0.
X51.232 Z-10.141 I0.432 J0.
X50.368 Z-10.212 I-0.432 J0.
X51.232 Z-10.282 I0.432 J0.
X50.368 Z-10.353 I-0.432 J0.
X51.232 Z-10.424 I0.432 J0.
X50.368 Z-10.494 I-0.432 J0.
X51.232 Z-10.565 I0.432 J0.
X50.368 Z-10.635 I-0.432 J0.
X51.232 Z-10.706 I0.432 J0.
X50.368 Z-10.776 I-0.432 J0.
X51.232 Z-10.847 I0.432 J0.
X50.368 Z-10.917 I-0.432 J0.
X51.232 Z-10.988 I0.432 J0.
X50.368 Z-11.058 I-0.432 J0.
X51.232 Z-11.129 I0.432 J0.
X50.368 Z-11.199 I-0.432 J0.
X51.232 Z-11.27 I0.432 J0.
X50.368 Z-11.34 I-0.432 J0.
X51.232 Z-11.411 I0.432 J0.
X50.368 Z-11.481 I-0.432 J0.
X51.232 Z-11.552 I0.432 J0.
X50.368 Z-11.622 I-0.432 J0.
X51.232 Z-11.693 I0.432 J0.
X50.368 Z-11.763 I-0.432 J0.
X51.232 Z-11.834 I0.432 J0.
X50.368 Z-11.904 I-0.432 J0.
X51.232 Z-11.975 I0.432 J0.
X50.368 Z-12.045 I-0.432 J0.
X51.232 Z-12.116 I0.432 J0.
X50.368 Z-12.186 I-0.432 J0.
X51.232 Z-12.257 I0.432 J0.
X50.368 Z-12.327 I-0.432 J0.
X51.232 Z-12.398 I0.432 J0.
X50.368 Z-12.468 I-0.432 J0.
X51.232 Z-12.539 I0.432 J0.
X50.368 Z-12.609 I-0.432 J0.
X51.232 Z-12.68 I0.432 J0.
X50.368 Z-12.751 I-0.432 J0.
X51.232 Z-12.821 I0.432 J0.
X50.368 Z-12.892 I-0.432 J0.
X51.232 Z-12.962 I0.432 J0.
X50.368 Z-13.033 I-0.432 J0.
X51.232 Z-13.103 I0.432 J0.
X50.368 Z-13.174 I-0.432 J0.
X51.232 Z-13.244 I0.432 J0.
X50.368 Z-13.315 I-0.432 J0.
X51.232 Z-13.385 I0.432 J0.
X50.368 Z-13.456 I-0.432 J0.
X51.232 Z-13.526 I0.432 J0.
X50.368 Z-13.597 I-0.432 J0.
X51.232 Z-13.667 I0.432 J0.
X50.368 Z-13.738 I-0.432 J0.
X51.232 Z-13.808 I0.432 J0.
X50.368 Z-13.879 I-0.432 J0.
X51.232 Z-13.949 I0.432 J0.
X50.368 Z-14.02 I-0.432 J0.
X51.232 Z-14.09 I0.432 J0.
X50.368 Z-14.161 I-0.432 J0.
X51.232 Z-14.231 I0.432 J0.
X50.368 Z-14.302 I-0.432 J0.
X51.232 Z-14.372 I0.432 J0.
X50.368 Z-14.443 I-0.432 J0.
X51.232 Z-14.513 I0.432 J0.
X50.368 Z-14.584 I-0.432 J0.
X51.232 Z-14.654 I0.432 J0.
X50.368 Z-14.725 I-0.432 J0.
X51.232 Z-14.795 I0.432 J0.
X50.368 Z-14.866 I-0.432 J0.
X51.232 Z-14.937 I0.432 J0.
X50.368 Z-15.007 I-0.432 J0.
X51.232 Z-15.078 I0.432 J0.
X50.368 Z-15.148 I-0.432 J0.
X51.232 Z-15.219 I0.432 J0.
X50.368 Z-15.289 I-0.432 J0.
X51.232 Z-15.36 I0.432 J0.
X50.368 Z-15.43 I-0.432 J0.
X51.232 Z-15.501 I0.432 J0.
X50.368 Z-15.571 I-0.432 J0.
X51.232 Z-15.642 I0.432 J0.
X50.368 Z-15.712 I-0.432 J0.
X51.232 Z-15.783 I0.432 J0.
X50.368 Z-15.853 I-0.432 J0.
X51.232 Z-15.924 I0.432 J0.
X50.368 Z-15.994 I-0.432 J0.
X51.232 Z-16.065 I0.432 J0.
X50.368 Z-16.135 I-0.432 J0.
X51.232 Z-16.206 I0.432 J0.
X50.368 Z-16.276 I-0.432 J0.
X51.232 Z-16.347 I0.432 J0.
X50.368 Z-16.417 I-0.432 J0.
X51.232 Z-16.488 I0.432 J0.
X50.368 Z-16.558 I-0.432 J0.
X51.232 Z-16.629 I0.432 J0.
X50.368 Z-16.699 I-0.432 J0.
X51.232 Z-16.77 I0.432 J0.
X50.368 Z-16.84 I-0.432 J0.
X51.232 Z-16.911 I0.432 J0.
X50.368 Z-16.981 I-0.432 J0.
X51.232 Z-17.052 I0.432 J0.
X50.368 Z-17.122 I-0.432 J0.
X51.232 Z-17.193 I0.432 J0.
X50.368 Z-17.264 I-0.432 J0.
X51.232 Z-17.334 I0.432 J0.
X50.368 Z-17.405 I-0.432 J0.
X51.232 Z-17.475 I0.432 J0.
X50.368 Z-17.546 I-0.432 J0.
X51.232 Z-17.616 I0.432 J0.
X50.368 Z-17.687 I-0.432 J0.
X51.232 Z-17.757 I0.432 J0.
X50.368 Z-17.828 I-0.432 J0.
X51.232 Z-17.898 I0.432 J0.
X50.368 Z-17.969 I-0.432 J0.
X51.232 Z-18.039 I0.432 J0.
X50.368 Z-18.11 I-0.432 J0.
X51.232 Z-18.18 I0.432 J0.
X50.368 Z-18.251 I-0.432 J0.
X51.232 Z-18.321 I0.432 J0.
X50.368 Z-18.392 I-0.432 J0.
X51.232 Z-18.462 I0.432 J0.
X50.368 Z-18.533 I-0.432 J0.
X51.232 Z-18.603 I0.432 J0.
X50.368 Z-18.674 I-0.432 J0.
X51.232 Z-18.744 I0.432 J0.
X50.368 Z-18.815 I-0.432 J0.
X51.232 Z-18.885 I0.432 J0.
X50.368 Z-18.956 I-0.432 J0.
X51.232 Z-19.026 I0.432 J0.
X50.368 Z-19.097 I-0.432 J0.
X51.232 Z-19.167 I0.432 J0.
X50.368 Z-19.238 I-0.432 J0.
X51.232 Z-19.308 I0.432 J0.
X50.368 Z-19.379 I-0.432 J0.
X51.232 Z-19.449 I0.432 J0.
X50.368 Z-19.52 I-0.432 J0.
X51.232 Z-19.591 I0.432 J0.
X50.368 Z-19.661 I-0.432 J0.
X51.232 Z-19.732 I0.432 J0.
X50.368 Z-19.802 I-0.432 J0.
X51.232 Z-19.873 I0.432 J0.
X50.368 Z-19.943 I-0.432 J0.
X51.232 Z-20.014 I0.432 J0.
X50.778 Y75.769 Z-20.05 I-0.432 J0.
X50.822 Y76.631 I0.022 J0.431
X50.778 Y75.769 I-0.022 J-0.431
X50.574 Y75.995 I0.011 J0.216
G1 X50.582 Y76.154
X50.585 Y76.224 Z-20.042
X50.588 Y76.291 Z-20.019
X50.591 Y76.351 Z-19.981
X50.594 Y76.402 Z-19.93
X50.596 Y76.439 Z-19.87
X50.597 Y76.463 Z-19.803
Y76.471 Z-19.733
G0 Z5.
X25.14 Y51.016
Z3.
G1 Z1.317 F800.
G18 G2 X25.457 Z1. I0.317 K0.
G1 X25.616
G17 G2 X25.832 Y50.8 I0. J-0.216
X24.968 Z0.929 I-0.432 J0.
X25.832 Z0.859 I0.432 J0.
X24.968 Z0.788 I-0.432 J0.
X25.832 Z0.718 I0.432 J0.
X24.968 Z0.647 I-0.432 J0.
X25.832 Z0.577 I0.432 J0.
X24.968 Z0.506 I-0.432 J0.
X25.832 Z0.436 I0.432 J0.
X24.968 Z0.365 I-0.432 J0.
X25.832 Z0.295 I0.432 J0.
X24.968 Z0.224 I-0.432 J0.
X25.832 Z0.154 I0.432 J0.
X24.968 Z0.083 I-0.432 J0.
X25.832 Z0.013 I0.432 J0.
X24.968 Z-0.058 I-0.432 J0.
X25.832 Z-0.128 I0.432 J0.
X24.968 Z-0.199 I-0.432 J0.
X25.832 Z-0.269 I0.432 J0.
X24.968 Z-0.34 I-0.432 J0.
X25.832 Z-0.41 I0.432 J0.
X24.968 Z-0.481 I-0.432 J0.
X25.832 Z-0.551 I0.432 J0.
X24.968 Z-0.622 I-0.432 J0.
X25.832 Z-0.692 I0.432 J0.
X24.968 Z-0.763 I-0.432 J0.
X25.832 Z-0.833 I0.432 J0.
X24.968 Z-0.904 I-0.432 J0.
X25.832 Z-0.974 I0.432 J0.
X24.968 Z-1.045 I-0.432 J0.
X25.832 Z-1.115 I0.432 J0.
X24.968 Z-1.186 I-0.432 J0.
X25.832 Z-1.256 I0.432 J0.
X24.968 Z-1.327 I-0.432 J0.
X25.832 Z-1.398 I0.432 J0.
X24.968 Z-1.468 I-0.432 J0.
X25.832 Z-1.539 I0.432 J0.
X24.968 Z-1.609 I-0.432 J0.
X25.832 Z-1.68 I0.432 J0.
X24.968 Z-1.75 I-0.432 J0.
X25.832 Z-1.821 I0.432 J0.
X24.968 Z-1.891 I-0.432 J0.
X25.832 Z-1.962 I0.432 J0.
X24.968 Z-2.032 I-0.432 J0.
X25.832 Z-2.103 I0.432 J0.
X24.968 Z-2.173 I-0.432 J0.
X25.832 Z-2.244 I0.432 J0.
X24.968 Z-2.314 I-0.432 J0.
X25.832 Z-2.385 I0.432 J0.
X24.968 Z-2.455 I-0.432 J0.
X25.832 Z-2.526 I0.432 J0.
X24.968 Z-2.596 I-0.432 J0.
X25.832 Z-2.667 I0.432 J0.
X24.968 Z-2.737 I-0.432 J0.
X25.832 Z-2.808 I0.432 J0.
X24.968 Z-2.878 I-0.432 J0.
X25.832 Z-2.949 I0.432 J0.
X24.968 Z-3.019 I-0.432 J0.
X25.832 Z-3.09 I0.432 J0.
X24.968 Z-3.16 I-0.432 J0.
X25.832 Z-3.231 I0.432 J0.
X24.968 Z-3.301 I-0.432 J0.
X25.832 Z-3.372 I0.432 J0.
X24.968 Z-3.442 I-0.432 J0.
X25.832 Z-3.513 I0.432 J0.
X24.968 Z-3.584 I-0.432 J0.
X25.832 Z-3.654 I0.432 J0.
X24.968 Z-3.725 I-0.432 J0.
X25.832 Z-3.795 I0.432 J0.
X24.968 Z-3.866 I-0.432 J0.
X25.832 Z-3.936 I0.432 J0.
X24.968 Z-4.007 I-0.432 J0.
X25.832 Z-4.077 I0.432 J0.
X24.968 Z-4.148 I-0.432 J0.
X25.832 Z-4.218 I0.432 J0.
X24.968 Z-4.289 I-0.432 J0.
X25.832 Z-4.359 I0.432 J0.
X24.968 Z-4.43 I-0.432 J0.
X25.832 Z-4.5 I0.432 J0.
X24.968 Z-4.571 I-0.432 J0.
X25.832 Z-4.641 I0.432 J0.
X24.968 Z-4.712 I-0.432 J0.
X25.832 Z-4.782 I0.432 J0.
X24.968 Z-4.853 I-0.432 J0.
X25.832 Z-4.923 I0.432 J0.
X24.968 Z-4.994 I-0.432 J0.
X25.832 Z-5.064 I0.432 J0.
X24.968 Z-5.135 I-0.432 J0.
X25.832 Z-5.205 I0.432 J0.
X24.968 Z-5.276 I-0.432 J0.
X25.832 Z-5.346 I0.432 J0.
X24.968 Z-5.417 I-0.432 J0.
X25.832 Z-5.487 I0.432 J0.
X24.968 Z-5.558 I-0.432 J0.
X25.832 Z-5.628 I0.432 J0.
X24.968 Z-5.699 I-0.432 J0.
X25.832 Z-5.769 I0.432 J0.
X24.968 Z-5.84 I-0.432 J0.
X25.832 Z-5.911 I0.432 J0.
X24.968 Z-5.981 I-0.432 J0.
X25.832 Z-6.052 I0.432 J0.
X24.968 Z-6.122 I-0.432 J0.
X25.832 Z-6.193 I0.432 J0.
X24.968 Z-6.263 I-0.432 J0.
X25.832 Z-6.334 I0.432 J0.
X24.968 Z-6.404 I-0.432 J0.
X25.832 Z-6.475 I0.432 J0.
X24.968 Z-6.545 I-0.432 J0.
X25.832 Z-6.616 I0.432 J0.
X24.968 Z-6.686 I-0.432 J0.
X25.832 Z-6.757 I0.432 J0.
X24.968 Z-6.827 I-0.432 J0.
X25.832 Z-6.898 I0.432 J0.
X24.968 Z-6.968 I-0.432 J0.
X25.832 Z-7.039 I0.432 J0.
X24.968 Z-7.109 I-0.432 J0.
X25.832 Z-7.18 I0.432 J0.
X24.968 Z-7.25 I-0.432 J0.
X25.832 Z-7.321 I0.432 J0.
X24.968 Z-7.391 I-0.432 J0.
X25.832 Z-7.462 I0.432 J0.
X24.968 Z-7.532 I-0.432 J0.
X25.832 Z-7.603 I0.432 J0.
X24.968 Z-7.673 I-0.432 J0.
X25.832 Z-7.744 I0.432 J0.
X24.968 Z-7.814 I-0.432 J0.
X25.832 Z-7.885 I0.432 J0.
X24.968 Z-7.955 I-0.432 J0.
X25.832 Z-8.026 I0.432 J0.
X24.968 Z-8.097 I-0.432 J0.
X25.832 Z-8.167 I0.432 J0.
X24.968 Z-8.238 I-0.432 J0.
X25.832 Z-8.308 I0.432 J0.
X24.968 Z-8.379 I-0.432 J0.
X25.832 Z-8.449 I0.432 J0.
X24.968 Z-8.52 I-0.432 J0.
X25.832 Z-8.59 I0.432 J0.
X24.968 Z-8.661 I-0.432 J0.
X25.832 Z-8.731 I0.432 J0.
X24.968 Z-8.802 I-0.432 J0.
X25.832 Z-8.872 I0.432 J0.
X24.968 Z-8.943 I-0.432 J0.
X25.832 Z-9.013 I0.432 J0.
X24.968 Z-9.084 I-0.432 J0.
X25.832 Z-9.154 I0.432 J0.
X24.968 Z-9.225 I-0.432 J0.
X25.832 Z-9.295 I0.432 J0.
X24.968 Z-9.366 I-0.432 J0.
X25.832 Z-9.436 I0.432 J0.
X24.968 Z-9.507 I-0.432 J0.
X25.832 Z-9.577 I0.432 J0.
X24.968 Z-9.648 I-0.432 J0.
X25.832 Z-9.718 I0.432 J0.
X24.968 Z-9.789 I-0.432 J0.
X25.832 Z-9.859 I0.432 J0.
X24.968 Z-9.93 I-0.432 J0.
X25.832 Z-10. I0.432 J0.
X24.968 Z-10.071 I-0.432 J0.
X25.832 Z-10.141 I0.432 J0.
X24.968 Z-10.212 I-0.432 J0.
X25.832 Z-10.282 I0.432 J0.
X24.968 Z-10.353 I-0.432 J0.
X25.832 Z-10.424 I0.432 J0.
X24.968 Z-10.494 I-0.432 J0.
X25.832 Z-10.565 I0.432 J0.
X24.968 Z-10.635 I-0.432 J0.
X25.832 Z-10.706 I0.432 J0.
X24.968 Z-10.776 I-0.432 J0.
X25.832 Z-10.847 I0.432 J0.
X24.968 Z-10.917 I-0.432 J0.
X25.832 Z-10.988 I0.432 J0.
X24.968 Z-11.058 I-0.432 J0.
X25.832 Z-11.129 I0.432 J0.
X24.968 Z-11.199 I-0.432 J0.
X25.832 Z-11.27 I0.432 J0.
X24.968 Z-11.34 I-0.432 J0.
X25.832 Z-11.411 I0.432 J0.
X24.968 Z-11.481 I-0.432 J0.
X25.832 Z-11.552 I0.432 J0.
X24.968 Z-11.622 I-0.432 J0.
X25.832 Z-11.693 I0.432 J0.
X24.968 Z-11.763 I-0.432 J0.
X25.832 Z-11.834 I0.432 J0.
X24.968 Z-11.904 I-0.432 J0.
X25.832 Z-11.975 I0.432 J0.
X24.968 Z-12.045 I-0.432 J0.
X25.832 Z-12.116 I0.432 J0.
X24.968 Z-12.186 I-0.432 J0.
X25.832 Z-12.257 I0.432 J0.
X24.968 Z-12.327 I-0.432 J0.
X25.832 Z-12.398 I0.432 J0.
X24.968 Z-12.468 I-0.432 J0.
X25.832 Z-12.539 I0.432 J0.
X24.968 Z-12.609 I-0.432 J0.
X25.832 Z-12.68 I0.432 J0.
X24.968 Z-12.751 I-0.432 J0.
X25.832 Z-12.821 I0.432 J0.
X24.968 Z-12.892 I-0.432 J0.
X25.832 Z-12.962 I0.432 J0.
X24.968 Z-13.033 I-0.432 J0.
X25.832 Z-13.103 I0.432 J0.
X24.968 Z-13.174 I-0.432 J0.
X25.832 Z-13.244 I0.432 J0.
X24.968 Z-13.315 I-0.432 J0.
X25.832 Z-13.385 I0.432 J0.
X24.968 Z-13.456 I-0.432 J0.
X25.832 Z-13.526 I0.432 J0.
X24.968 Z-13.597 I-0.432 J0.
X25.832 Z-13.667 I0.432 J0.
X24.968 Z-13.738 I-0.432 J0.
X25.832 Z-13.808 I0.432 J0.
X24.968 Z-13.879 I-0.432 J0.
X25.832 Z-13.949 I0.432 J0.
X24.968 Z-14.02 I-0.432 J0.
X25.832 Z-14.09 I0.432 J0.
X24.968 Z-14.161 I-0.432 J0.
X25.832 Z-14.231 I0.432 J0.
X24.968 Z-14.302 I-0.432 J0.
X25.832 Z-14.372 I0.432 J0.
X24.968 Z-14.443 I-0.432 J0.
X25.832 Z-14.513 I0.432 J0.
X24.968 Z-14.584 I-0.432 J0.
X25.832 Z-14.654 I0.432 J0.
X24.968 Z-14.725 I-0.432 J0.
X25.832 Z-14.795 I0.432 J0.
X24.968 Z-14.866 I-0.432 J0.
X25.832 Z-14.937 I0.432 J0.
X24.968 Z-15.007 I-0.432 J0.
X25.832 Z-15.078 I0.432 J0.
X24.968 Z-15.148 I-0.432 J0.
X25.832 Z-15.219 I0.432 J0.
X24.968 Z-15.289 I-0.432 J0.
X25.832 Z-15.36 I0.432 J0.
X24.968 Z-15.43 I-0.432 J0.
X25.832 Z-15.501 I0.432 J0.
X24.968 Z-15.571 I-0.432 J0.
X25.832 Z-15.642 I0.432 J0.
X24.968 Z-15.712 I-0.432 J0.
X25.832 Z-15.783 I0.432 J0.
X24.968 Z-15.853 I-0.432 J0.
X25.832 Z-15.924 I0.432 J0.
X24.968 Z-15.994 I-0.432 J0.
X25.832 Z-16.065 I0.432 J0.
X24.968 Z-16.135 I-0.432 J0.
X25.832 Z-16.206 I0.432 J0.
X24.968 Z-16.276 I-0.432 J0.
X25.832 Z-16.347 I0.432 J0.
X24.968 Z-16.417 I-0.432 J0.
X25.832 Z-16.488 I0.432 J0.
X24.968 Z-16.558 I-0.432 J0.
X25.832 Z-16.629 I0.432 J0.
X24.968 Z-16.699 I-0.432 J0.
X25.832 Z-16.77 I0.432 J0.
X24.968 Z-16.84 I-0.432 J0.
X25.832 Z-16.911 I0.432 J0.
X24.968 Z-16.981 I-0.432 J0.
X25.832 Z-17.052 I0.432 J0.
X24.968 Z-17.122 I-0.432 J0.
X25.832 Z-17.193 I0.432 J0.
X24.968 Z-17.264 I-0.432 J0.
X25.832 Z-17.334 I0.432 J0.
X24.968 Z-17.405 I-0.432 J0.
X25.832 Z-17.475 I0.432 J0.
X24.968 Z-17.546 I-0.432 J0.
X25.832 Z-17.616 I0.432 J0.
X24.968 Z-17.687 I-0.432 J0.
X25.832 Z-17.757 I0.432 J0.
X24.968 Z-17.828 I-0.432 J0.
X25.832 Z-17.898 I0.432 J0.
X24.968 Z-17.969 I-0.432 J0.
X25.832 Z-18.039 I0.432 J0.
X24.968 Z-18.11 I-0.432 J0.
X25.832 Z-18.18 I0.432 J0.
X24.968 Z-18.251 I-0.432 J0.
X25.832 Z-18.321 I0.432 J0.
X24.968 Z-18.392 I-0.432 J0.
X25.832 Z-18.462 I0.432 J0.
X24.968 Z-18.533 I-0.432 J0.
X25.832 Z-18.603 I0.432 J0.
X24.968 Z-18.674 I-0.432 J0.
X25.832 Z-18.744 I0.432 J0.
X24.968 Z-18.815 I-0.432 J0.
X25.832 Z-18.885 I0.432 J0.
X24.968 Z-18.956 I-0.432 J0.
X25.832 Z-19.026 I0.432 J0.
X24.968 Z-19.097 I-0.432 J0.
X25.832 Z-19.167 I0.432 J0.
X24.968 Z-19.238 I-0.432 J0.
X25.832 Z-19.308 I0.432 J0.
X24.968 Z-19.379 I-0.432 J0.
X25.832 Z-19.449 I0.432 J0.
X24.968 Z-19.52 I-0.432 J0.
X25.832 Z-19.591 I0.432 J0.
X24.968 Z-19.661 I-0.432 J0.
X25.832 Z-19.732 I0.432 J0.
X24.968 Z-19.802 I-0.432 J0.
X25.832 Z-19.873 I0.432 J0.
X24.968 Z-19.943 I-0.432 J0.
X25.832 Z-20.014 I0.432 J0.
X25.378 Y50.369 Z-20.05 I-0.432 J0.
X25.422 Y51.231 I0.022 J0.431
X25.378 Y50.369 I-0.022 J-0.431
X25.174 Y50.595 I0.011 J0.216
G1 X25.182 Y50.754
X25.185 Y50.824 Z-20.042
X25.188 Y50.891 Z-20.019
X25.191 Y50.951 Z-19.981
X25.194 Y51.002 Z-19.93
X25.196 Y51.039 Z-19.87
X25.197 Y51.063 Z-19.803
Y51.071 Z-19.733
G0 Z15.
M5
G0 Z15
G0 X0 Y0

M30
