(X8 L CLIMBER FIX)
(T3  D=0.118 CR=0. - ZMIN=-0.125 - FLAT END MILL)
G90 G94 G91.1 G40 G49 G17
G20

(2D POCKET1)
M5
T3 M6
S15000 M3
G54
M8
G0 X0.3957 Y1.0535
G43 Z0.6 H3
Z0.2
G1 Z0.1118 F40.
X0.3953 Y1.0521 Z0.106 F20.
X0.3946 Y1.048 Z0.1017
X0.394 Y1.0423 Z0.1
G3 X0.506 Y1.037 Z0.0939 I0.056 J-0.0027
X0.394 Y1.0423 Z0.0877 I-0.056 J0.0027
X0.506 Y1.037 Z0.0816 I0.056 J-0.0027
X0.394 Y1.0423 Z0.0754 I-0.056 J0.0027
X0.506 Y1.037 Z0.0693 I0.056 J-0.0027
X0.394 Y1.0423 Z0.0631 I-0.056 J0.0027
X0.506 Y1.037 Z0.057 I0.056 J-0.0027
X0.394 Y1.0423 Z0.0508 I-0.056 J0.0027
X0.506 Y1.037 Z0.0447 I0.056 J-0.0027
X0.394 Y1.0423 Z0.0385 I-0.056 J0.0027
X0.506 Y1.037 Z0.0324 I0.056 J-0.0027
X0.394 Y1.0423 Z0.0262 I-0.056 J0.0027
X0.506 Y1.037 Z0.0201 I0.056 J-0.0027
X0.394 Y1.0423 Z0.0139 I-0.056 J0.0027
X0.506 Y1.037 Z0.0078 I0.056 J-0.0027
X0.394 Y1.0423 Z0.0016 I-0.056 J0.0027
X0.506 Y1.037 Z-0.0045 I0.056 J-0.0027
X0.394 Y1.0423 Z-0.0107 I-0.056 J0.0027
X0.506 Y1.037 Z-0.0168 I0.056 J-0.0027
X0.45 Y1.0957 Z-0.02 I-0.056 J0.0027
Y1.0094 I0. J-0.0431
G1 X1.6288 F40.
G3 X1.6416 Y1.0222 I0. J0.0128
G1 Y1.0398
G3 X1.6288 Y1.0526 I-0.0128 J0.
G1 X0.4412
G3 X0.4284 Y1.0398 I0. J-0.0128
G1 Y1.0222
G3 X0.4412 Y1.0094 I0.0128 J0.
G1 X0.45
G2 X0.4833 Y0.9872 I0. J-0.0361
G3 X0.5166 Y0.965 I0.0333 J0.0139
G1 X1.686
Y1.097
X0.384
Y0.965
X0.5166
G3 X0.5191 Y0.9806 I0. J0.008
G1 X0.4182 Y1.0135
G3 X0.4101 Y1.0003 I-0.0025 J-0.0076
X0.4899 Y1.0789 Z-0.0261 I0.0399 J0.0393 F20.
X0.4101 Y1.0003 Z-0.0323 I-0.0399 J-0.0393
X0.4899 Y1.0789 Z-0.0384 I0.0399 J0.0393
X0.45 Y1.0957 Z-0.04 I-0.0399 J-0.0393
Y1.0094 I0. J-0.0431
G1 X1.6288 F40.
G3 X1.6416 Y1.0222 I0. J0.0128
G1 Y1.0398
G3 X1.6288 Y1.0526 I-0.0128 J0.
G1 X0.4412
G3 X0.4284 Y1.0398 I0. J-0.0128
G1 Y1.0222
G3 X0.4412 Y1.0094 I0.0128 J0.
G1 X0.45
G2 X0.4833 Y0.9872 I0. J-0.0361
G3 X0.5166 Y0.965 I0.0333 J0.0139
G1 X1.686
Y1.097
X0.384
Y0.965
X0.5166
G3 X0.5191 Y0.9806 I0. J0.008
G1 X0.4182 Y1.0135
G3 X0.4101 Y1.0003 I-0.0025 J-0.0076
X0.4899 Y1.0789 Z-0.0461 I0.0399 J0.0393 F20.
X0.4101 Y1.0003 Z-0.0523 I-0.0399 J-0.0393
X0.4899 Y1.0789 Z-0.0584 I0.0399 J0.0393
X0.45 Y1.0957 Z-0.06 I-0.0399 J-0.0393
Y1.0094 I0. J-0.0431
G1 X1.6288 F40.
G3 X1.6416 Y1.0222 I0. J0.0128
G1 Y1.0398
G3 X1.6288 Y1.0526 I-0.0128 J0.
G1 X0.4412
G3 X0.4284 Y1.0398 I0. J-0.0128
G1 Y1.0222
G3 X0.4412 Y1.0094 I0.0128 J0.
G1 X0.45
G2 X0.4833 Y0.9872 I0. J-0.0361
G3 X0.5166 Y0.965 I0.0333 J0.0139
G1 X1.686
Y1.097
X0.384
Y0.965
X0.5166
G3 X0.5191 Y0.9806 I0. J0.008
G1 X0.4182 Y1.0135
G3 X0.4101 Y1.0003 I-0.0025 J-0.0076
X0.4899 Y1.0789 Z-0.0661 I0.0399 J0.0393 F20.
X0.4101 Y1.0003 Z-0.0723 I-0.0399 J-0.0393
X0.4899 Y1.0789 Z-0.0784 I0.0399 J0.0393
X0.45 Y1.0957 Z-0.08 I-0.0399 J-0.0393
Y1.0094 I0. J-0.0431
G1 X1.6288 F40.
G3 X1.6416 Y1.0222 I0. J0.0128
G1 Y1.0398
G3 X1.6288 Y1.0526 I-0.0128 J0.
G1 X0.4412
G3 X0.4284 Y1.0398 I0. J-0.0128
G1 Y1.0222
G3 X0.4412 Y1.0094 I0.0128 J0.
G1 X0.45
G2 X0.4833 Y0.9872 I0. J-0.0361
G3 X0.5166 Y0.965 I0.0333 J0.0139
G1 X1.686
Y1.097
X0.384
Y0.965
X0.5166
G3 X0.5191 Y0.9806 I0. J0.008
G1 X0.4182 Y1.0135
G3 X0.4101 Y1.0003 I-0.0025 J-0.0076
X0.4899 Y1.0789 Z-0.0861 I0.0399 J0.0393 F20.
X0.4101 Y1.0003 Z-0.0923 I-0.0399 J-0.0393
X0.4899 Y1.0789 Z-0.0984 I0.0399 J0.0393
X0.45 Y1.0957 Z-0.1 I-0.0399 J-0.0393
Y1.0094 I0. J-0.0431
G1 X1.6288 F40.
G3 X1.6416 Y1.0222 I0. J0.0128
G1 Y1.0398
G3 X1.6288 Y1.0526 I-0.0128 J0.
G1 X0.4412
G3 X0.4284 Y1.0398 I0. J-0.0128
G1 Y1.0222
G3 X0.4412 Y1.0094 I0.0128 J0.
G1 X0.45
G2 X0.4833 Y0.9872 I0. J-0.0361
G3 X0.5166 Y0.965 I0.0333 J0.0139
G1 X1.686
Y1.097
X0.384
Y0.965
X0.5166
X0.5178 Y0.9653
X0.5188 Y0.966
X0.5194 Y0.967
X0.5196 Y0.9682
X0.5192 Y0.9694
X0.5124 Y0.9815
X0.459 Y1.0794
X0.4583 Y1.0926
X0.4581 Y1.0936
X0.4576 Y1.0945
X0.4567 Y1.0951
X0.4558 Y1.0954
G3 X0.4442 Y0.9839 Z-0.1061 I-0.0058 J-0.0558 F20.
X0.506 Y1.0367 Z-0.1093 I0.0058 J0.0558
X0.45 Y1.0957 Z-0.1125 I-0.056 J0.0029
Y1.0094 I0. J-0.0431
G1 X1.6288 F40.
G3 X1.6416 Y1.0222 I0. J0.0128
G1 Y1.0398
G3 X1.6288 Y1.0526 I-0.0128 J0.
G1 X0.4412
G3 X0.4284 Y1.0398 I0. J-0.0128
G1 Y1.0222
G3 X0.4412 Y1.0094 I0.0128 J0.
G1 X0.45
G2 X0.4833 Y0.9872 I0. J-0.0361
G3 X0.5166 Y0.965 I0.0333 J0.0139
G1 X1.686
Y1.097
X0.384
Y0.965
X0.5166
X0.5178 Y0.9653
X0.5188 Y0.966
X0.5194 Y0.967
X0.5196 Y0.9682
X0.5192 Y0.9694
X0.5124 Y0.9815
X0.459 Y1.0794
X0.4583 Y1.0926
X0.4581 Y1.0936
X0.4576 Y1.0945
X0.4567 Y1.0951
X0.4558 Y1.0954
G3 X0.4442 Y0.9839 Z-0.1186 I-0.0058 J-0.0558 F20.
X0.506 Y1.0367 Z-0.1218 I0.0058 J0.0558
X0.45 Y1.0957 Z-0.125 I-0.056 J0.0029
Y1.0094 I0. J-0.0431
G1 X1.6288 F40.
G3 X1.6416 Y1.0222 I0. J0.0128
G1 Y1.0398
G3 X1.6288 Y1.0526 I-0.0128 J0.
G1 X0.4412
G3 X0.4284 Y1.0398 I0. J-0.0128
G1 Y1.0222
G3 X0.4412 Y1.0094 I0.0128 J0.
G1 X0.45
G2 X0.4833 Y0.9872 I0. J-0.0361
G3 X0.5166 Y0.965 I0.0333 J0.0139
G1 X1.686
Y1.097
X0.384
Y0.965
X0.5166
X0.5189 Y0.9652 Z-0.1246
X0.521 Y0.9659 Z-0.1241
X0.5227 Y0.9667 Z-0.1228
X0.5243 Y0.9678 Z-0.1215
X0.526 Y0.9697 Z-0.1177
X0.5266 Y0.9704 Z-0.1132
G0 Z0.6

M9
M30
