(X8 S CLIMBER CONTOUR)
(T1  D=0.25 CR=0. - ZMIN=-0.25 - FLAT END MILL)
G90 G94 G91.1 G40 G49 G17
G20

(2D CONTOUR1)
M5
T1 M6
S15000 M3
g4 p5
G54
M8
G0 X3.7454 Y2.3447
G43 Z0.6 H1
Z0.2
G1 Z0.125 F13.3
X3.7452 Y2.3445 Z0.1211 F60.
X3.7445 Y2.3439 Z0.1173
X3.7434 Y2.3429 Z0.1137
X3.7418 Y2.3415 Z0.1103
X3.7399 Y2.3398 Z0.1073
X3.7377 Y2.3379 Z0.1048
X3.7352 Y2.3357 Z0.1027
X3.7325 Y2.3333 Z0.1012
X3.7296 Y2.3307 Z0.1003
X3.7267 Y2.3281 Z0.1
X3.7079 Y2.3116
G3 X3.7058 Y2.2763 I0.0166 J-0.0187
G2 X3.5009 Y1.2532 Z0.0578 I-0.4908 J-0.4338 F13.3
G3 X2.8725 Y0.25 Z0.0143 I0.4866 J-1.0032
G1 Y0.125 Z0.0099
G2 X2.6225 Y-0.125 Z-0.0038 I-0.25 J0.
G1 X1.8725 Z-0.03
X1.1225 F60.
G2 X0.8725 Y0.125 I0. J0.25
G1 Y0.25
G3 X0.2441 Y1.2532 I-1.115 J0.
G2 X0.8159 Y2.4318 I0.2859 J0.5893
X1.1764 Y1.9484 I-0.2859 J-0.5893
G3 X1.2997 Y1.8436 I0.1234 J0.0202
G1 X2.4453
G3 X2.5686 Y1.9484 I0. J0.125
G2 X3.8614 Y1.7366 I0.6464 J-0.1059
X3.5009 Y1.2532 I-0.6464 J0.1059
G3 X2.8725 Y0.25 I0.4866 J-1.0032
G1 Y0.125
G2 X2.6225 Y-0.125 I-0.25 J0.
G1 X1.8725
X1.1225 Z-0.0562 F13.3
G2 X1.0168 Y-0.1016 Z-0.06 I0. J0.25
X0.8725 Y0.125 I0.1057 J0.2266 F60.
G1 Y0.25
G3 X0.2441 Y1.2532 I-1.115 J0.
G2 X0.8159 Y2.4318 I0.2859 J0.5893
X1.1764 Y1.9484 I-0.2859 J-0.5893
G3 X1.2997 Y1.8436 I0.1234 J0.0202
G1 X2.4453
G3 X2.5686 Y1.9484 I0. J0.125
G2 X3.8614 Y1.7366 I0.6464 J-0.1059
X3.5009 Y1.2532 I-0.6464 J0.1059
G3 X2.8725 Y0.25 I0.4866 J-1.0032
G1 Y0.125
G2 X2.6225 Y-0.125 I-0.25 J0.
G1 X1.1225
G2 X1.0168 Y-0.1016 I0. J0.25
X0.8725 Y0.125 Z-0.0699 I0.1057 J0.2266 F13.3
G1 Y0.25 Z-0.0743
G3 X0.7827 Y0.6883 Z-0.09 I-1.115 J0.
X0.2441 Y1.2532 I-1.0252 J-0.4383 F60.
G2 X0.8159 Y2.4318 I0.2859 J0.5893
X1.1764 Y1.9484 I-0.2859 J-0.5893
G3 X1.2997 Y1.8436 I0.1234 J0.0202
G1 X2.4453
G3 X2.5686 Y1.9484 I0. J0.125
G2 X3.8614 Y1.7366 I0.6464 J-0.1059
X3.5009 Y1.2532 I-0.6464 J0.1059
G3 X2.8725 Y0.25 I0.4866 J-1.0032
G1 Y0.125
G2 X2.6225 Y-0.125 I-0.25 J0.
G1 X1.1225
G2 X0.8725 Y0.125 I0. J0.25
G1 Y0.25
G3 X0.7827 Y0.6883 I-1.115 J0.
X0.2441 Y1.2532 Z-0.1178 I-1.0252 J-0.4383 F13.3
G2 X0.1899 Y1.2827 Z-0.12 I0.2859 J0.5893
X0.8701 Y2.4023 I0.3401 J0.5598 F60.
X1.1764 Y1.9484 I-0.3401 J-0.5598
G3 X1.2997 Y1.8436 I0.1234 J0.0202
G1 X2.4453
G3 X2.5686 Y1.9484 I0. J0.125
G2 X3.8614 Y1.7366 I0.6464 J-0.1059
X3.5009 Y1.2532 I-0.6464 J0.1059
G3 X2.8725 Y0.25 I0.4866 J-1.0032
G1 Y0.125
G2 X2.6225 Y-0.125 I-0.25 J0.
G1 X1.1225
G2 X0.8725 Y0.125 I0. J0.25
G1 Y0.25
G3 X0.2441 Y1.2532 I-1.115 J0.
G2 X0.1899 Y1.2827 I0.2859 J0.5893
X-0.0983 Y2.0277 Z-0.15 I0.3401 J0.5598 F13.3
X1.1764 Y1.9484 I0.6283 J-0.1852 F60.
G3 X1.2997 Y1.8436 I0.1234 J0.0202
G1 X2.4453
G3 X2.5686 Y1.9484 I0. J0.125
G2 X3.8614 Y1.7366 I0.6464 J-0.1059
X3.5009 Y1.2532 I-0.6464 J0.1059
G3 X2.8725 Y0.25 I0.4866 J-1.0032
G1 Y0.125
G2 X2.6225 Y-0.125 I-0.25 J0.
G1 X1.1225
G2 X0.8725 Y0.125 I0. J0.25
G1 Y0.25
G3 X0.2441 Y1.2532 I-1.115 J0.
G2 X-0.0983 Y2.0277 I0.2859 J0.5893
X0.548 Y2.4973 Z-0.18 I0.6283 J-0.1852 F13.3
X1.1764 Y1.9484 I-0.018 J-0.6548 F60.
G3 X1.2997 Y1.8436 I0.1234 J0.0202
G1 X2.4453
G3 X2.5686 Y1.9484 I0. J0.125
G2 X3.8614 Y1.7366 I0.6464 J-0.1059
X3.5009 Y1.2532 I-0.6464 J0.1059
G3 X2.8725 Y0.25 I0.4866 J-1.0032
G1 Y0.125
G2 X2.6225 Y-0.125 I-0.25 J0.
G1 X1.1225
G2 X0.8725 Y0.125 I0. J0.25
G1 Y0.25
G3 X0.2441 Y1.2532 I-1.115 J0.
G2 X0.548 Y2.4973 I0.2859 J0.5893
X1.1675 Y1.9929 Z-0.21 I-0.018 J-0.6548 F13.3
X1.1764 Y1.9484 I-0.6375 J-0.1504 F60.
G3 X1.2997 Y1.8436 I0.1234 J0.0202
G1 X2.4453
G3 X2.5686 Y1.9484 I0. J0.125
G2 X3.8614 Y1.7366 I0.6464 J-0.1059
X3.5009 Y1.2532 I-0.6464 J0.1059
G3 X2.8725 Y0.25 I0.4866 J-1.0032
G1 Y0.125
G2 X2.6225 Y-0.125 I-0.25 J0.
G1 X1.1225
G2 X0.8725 Y0.125 I0. J0.25
G1 Y0.25
G3 X0.2441 Y1.2532 I-1.115 J0.
G2 X0.8159 Y2.4318 I0.2859 J0.5893
X1.1675 Y1.9929 I-0.2859 J-0.5893
X1.1764 Y1.9484 Z-0.2116 I-0.6375 J-0.1504 F13.3
G3 X1.2997 Y1.8436 Z-0.2177 I0.1234 J0.0202
G1 X1.9373 Z-0.24
X2.4453 F60.
G3 X2.5686 Y1.9484 I0. J0.125
G2 X3.8614 Y1.7366 I0.6464 J-0.1059
X3.5009 Y1.2532 I-0.6464 J0.1059
G3 X2.8725 Y0.25 I0.4866 J-1.0032
G1 Y0.125
G2 X2.6225 Y-0.125 I-0.25 J0.
G1 X1.1225
G2 X0.8725 Y0.125 I0. J0.25
G1 Y0.25
G3 X0.2441 Y1.2532 I-1.115 J0.
G2 X0.8159 Y2.4318 I0.2859 J0.5893
X1.1764 Y1.9484 I-0.2859 J-0.5893
G3 X1.2997 Y1.8436 I0.1234 J0.0202
G1 X1.9373
X2.2237 Z-0.25 F13.3
X2.4453 F60.
G3 X2.5686 Y1.9484 I0. J0.125
G2 X3.8614 Y1.7366 I0.6464 J-0.1059
X3.5009 Y1.2532 I-0.6464 J0.1059
G3 X2.8725 Y0.25 I0.4866 J-1.0032
G1 Y0.125
G2 X2.6225 Y-0.125 I-0.25 J0.
G1 X1.1225
G2 X0.8725 Y0.125 I0. J0.25
G1 Y0.25
G3 X0.2441 Y1.2532 I-1.115 J0.
G2 X0.8159 Y2.4318 I0.2859 J0.5893
X1.1764 Y1.9484 I-0.2859 J-0.5893
G3 X1.2997 Y1.8436 I0.1234 J0.0202
G1 X1.9373
X2.2237
G3 X2.2487 Y1.8686 I0. J0.025
G1 Y1.8936
G19 G3 Y1.9186 Z-0.225 J0. K0.025
G0 Z0.6
G17

M9
M30
