(CENTER SUPPORT SLOT )
(T1  D=3.175 CR=0. - ZMIN=-5.175 - FLAT END MILL)
G90 G94 G91.1 G40 G49 G17
G21
G0 Z5 

(BORE1 2)
M5
T1 M6
S15000 M3
G54
M8
G0 X12.529 Y120.332
G43 Z5. H1
Z4.5
G1 Z2.818 F800.
G18 G3 X12.211 Z2.5 I-0.318 K0.
G1 X12.052
G17 G2 X11.735 Y120.65 I0. J0.318
X13.665 Z2.455 I0.965 J0.
X11.735 Z2.411 I-0.965 J0.
X13.665 Z2.366 I0.965 J0.
X11.735 Z2.322 I-0.965 J0.
X13.665 Z2.277 I0.965 J0.
X11.735 Z2.233 I-0.965 J0.
X13.665 Z2.188 I0.965 J0.
X11.735 Z2.144 I-0.965 J0.
X13.665 Z2.099 I0.965 J0.
X11.735 Z2.054 I-0.965 J0.
X13.665 Z2.01 I0.965 J0.
X11.735 Z1.965 I-0.965 J0.
X13.665 Z1.921 I0.965 J0.
X11.735 Z1.876 I-0.965 J0.
X13.665 Z1.832 I0.965 J0.
X11.735 Z1.787 I-0.965 J0.
X13.665 Z1.743 I0.965 J0.
X11.735 Z1.698 I-0.965 J0.
X13.665 Z1.653 I0.965 J0.
X11.735 Z1.609 I-0.965 J0.
X13.665 Z1.564 I0.965 J0.
X11.735 Z1.52 I-0.965 J0.
X13.665 Z1.475 I0.965 J0.
X11.735 Z1.431 I-0.965 J0.
X13.665 Z1.386 I0.965 J0.
X11.735 Z1.342 I-0.965 J0.
X13.665 Z1.297 I0.965 J0.
X11.735 Z1.252 I-0.965 J0.
X13.665 Z1.208 I0.965 J0.
X11.735 Z1.163 I-0.965 J0.
X13.665 Z1.119 I0.965 J0.
X11.735 Z1.074 I-0.965 J0.
X13.665 Z1.03 I0.965 J0.
X11.735 Z0.985 I-0.965 J0.
X13.665 Z0.94 I0.965 J0.
X11.735 Z0.896 I-0.965 J0.
X13.665 Z0.851 I0.965 J0.
X11.735 Z0.807 I-0.965 J0.
X13.665 Z0.762 I0.965 J0.
X11.735 Z0.718 I-0.965 J0.
X13.665 Z0.673 I0.965 J0.
X11.735 Z0.629 I-0.965 J0.
X13.665 Z0.584 I0.965 J0.
X11.735 Z0.539 I-0.965 J0.
X13.665 Z0.495 I0.965 J0.
X11.735 Z0.45 I-0.965 J0.
X13.665 Z0.406 I0.965 J0.
X11.735 Z0.361 I-0.965 J0.
X13.665 Z0.317 I0.965 J0.
X11.735 Z0.272 I-0.965 J0.
X13.665 Z0.228 I0.965 J0.
X11.735 Z0.183 I-0.965 J0.
X13.665 Z0.138 I0.965 J0.
X11.735 Z0.094 I-0.965 J0.
X13.665 Z0.049 I0.965 J0.
X11.735 Z0.005 I-0.965 J0.
X13.665 Z-0.04 I0.965 J0.
X11.735 Z-0.084 I-0.965 J0.
X13.665 Z-0.129 I0.965 J0.
X11.735 Z-0.173 I-0.965 J0.
X13.665 Z-0.218 I0.965 J0.
X11.735 Z-0.263 I-0.965 J0.
X13.665 Z-0.307 I0.965 J0.
X11.735 Z-0.352 I-0.965 J0.
X13.665 Z-0.396 I0.965 J0.
X11.735 Z-0.441 I-0.965 J0.
X13.665 Z-0.485 I0.965 J0.
X11.735 Z-0.53 I-0.965 J0.
X13.665 Z-0.574 I0.965 J0.
X11.735 Z-0.619 I-0.965 J0.
X13.665 Z-0.664 I0.965 J0.
X11.735 Z-0.708 I-0.965 J0.
X13.665 Z-0.753 I0.965 J0.
X11.735 Z-0.797 I-0.965 J0.
X13.665 Z-0.842 I0.965 J0.
X11.735 Z-0.886 I-0.965 J0.
X13.665 Z-0.931 I0.965 J0.
X11.735 Z-0.975 I-0.965 J0.
X13.665 Z-1.02 I0.965 J0.
X11.735 Z-1.065 I-0.965 J0.
X13.665 Z-1.109 I0.965 J0.
X11.735 Z-1.154 I-0.965 J0.
X13.665 Z-1.198 I0.965 J0.
X11.735 Z-1.243 I-0.965 J0.
X13.665 Z-1.287 I0.965 J0.
X11.735 Z-1.332 I-0.965 J0.
X13.665 Z-1.377 I0.965 J0.
X11.735 Z-1.421 I-0.965 J0.
X13.665 Z-1.466 I0.965 J0.
X11.735 Z-1.51 I-0.965 J0.
X13.665 Z-1.555 I0.965 J0.
X11.735 Z-1.599 I-0.965 J0.
X13.665 Z-1.644 I0.965 J0.
X11.735 Z-1.688 I-0.965 J0.
X13.665 Z-1.733 I0.965 J0.
X11.735 Z-1.778 I-0.965 J0.
X13.665 Z-1.822 I0.965 J0.
X11.735 Z-1.867 I-0.965 J0.
X13.665 Z-1.911 I0.965 J0.
X11.735 Z-1.956 I-0.965 J0.
X13.665 Z-2. I0.965 J0.
X11.735 Z-2.045 I-0.965 J0.
X13.665 Z-2.089 I0.965 J0.
X11.735 Z-2.134 I-0.965 J0.
X13.665 Z-2.179 I0.965 J0.
X11.735 Z-2.223 I-0.965 J0.
X13.665 Z-2.268 I0.965 J0.
X11.735 Z-2.312 I-0.965 J0.
X13.665 Z-2.357 I0.965 J0.
X11.735 Z-2.401 I-0.965 J0.
X13.665 Z-2.446 I0.965 J0.
X11.735 Z-2.49 I-0.965 J0.
X13.665 Z-2.535 I0.965 J0.
X11.735 Z-2.58 I-0.965 J0.
X13.665 Z-2.624 I0.965 J0.
X11.735 Z-2.669 I-0.965 J0.
X13.665 Z-2.713 I0.965 J0.
X11.735 Z-2.758 I-0.965 J0.
X13.665 Z-2.802 I0.965 J0.
X11.735 Z-2.847 I-0.965 J0.
X13.665 Z-2.891 I0.965 J0.
X11.735 Z-2.936 I-0.965 J0.
X13.665 Z-2.981 I0.965 J0.
X11.735 Z-3.025 I-0.965 J0.
X13.665 Z-3.07 I0.965 J0.
X11.735 Z-3.114 I-0.965 J0.
X13.665 Z-3.159 I0.965 J0.
X11.735 Z-3.203 I-0.965 J0.
X13.665 Z-3.248 I0.965 J0.
X11.735 Z-3.292 I-0.965 J0.
X13.665 Z-3.337 I0.965 J0.
X11.735 Z-3.382 I-0.965 J0.
X13.665 Z-3.426 I0.965 J0.
X11.735 Z-3.471 I-0.965 J0.
X13.665 Z-3.515 I0.965 J0.
X11.735 Z-3.56 I-0.965 J0.
X13.665 Z-3.604 I0.965 J0.
X11.735 Z-3.649 I-0.965 J0.
X13.665 Z-3.693 I0.965 J0.
X11.735 Z-3.738 I-0.965 J0.
X13.665 Z-3.783 I0.965 J0.
X11.735 Z-3.827 I-0.965 J0.
X13.665 Z-3.872 I0.965 J0.
X11.735 Z-3.916 I-0.965 J0.
X13.665 Z-3.961 I0.965 J0.
X11.735 Z-4.005 I-0.965 J0.
X13.665 Z-4.05 I0.965 J0.
X11.735 Z-4.095 I-0.965 J0.
X13.665 Z-4.139 I0.965 J0.
X11.735 Z-4.184 I-0.965 J0.
X13.665 Z-4.228 I0.965 J0.
X11.735 Z-4.273 I-0.965 J0.
X13.665 Z-4.317 I0.965 J0.
X11.735 Z-4.362 I-0.965 J0.
X13.665 Z-4.406 I0.965 J0.
X11.735 Z-4.451 I-0.965 J0.
X13.665 Z-4.496 I0.965 J0.
X11.735 Z-4.54 I-0.965 J0.
X13.665 Z-4.585 I0.965 J0.
X11.735 Z-4.629 I-0.965 J0.
X13.665 Z-4.674 I0.965 J0.
X11.735 Z-4.718 I-0.965 J0.
X13.665 Z-4.763 I0.965 J0.
X11.735 Z-4.807 I-0.965 J0.
X13.665 Z-4.852 I0.965 J0.
X11.735 Z-4.897 I-0.965 J0.
X13.665 Z-4.941 I0.965 J0.
X11.735 Z-4.986 I-0.965 J0.
X13.665 Z-5.03 I0.965 J0.
X11.735 Z-5.075 I-0.965 J0.
X13.665 Z-5.119 I0.965 J0.
X11.735 Z-5.164 I-0.965 J0.
X12.016 Y121.331 Z-5.175 I0.965 J0.
X13.384 Y119.969 I0.684 J-0.681
X12.016 Y121.331 I-0.684 J0.681
X12.465 Y121.332 I0.225 J-0.224
G1 X12.577 Y121.22
X12.627 Y121.17 Z-5.167
X12.675 Y121.123 Z-5.144
X12.718 Y121.08 Z-5.106
X12.753 Y121.045 Z-5.055
X12.78 Y121.018 Z-4.995
X12.797 Y121.002 Z-4.928
X12.802 Y120.996 Z-4.858
G0 Z5.
X12.529 Y177.482
Z4.5
G1 Z2.818 F800.
G18 G3 X12.211 Z2.5 I-0.318 K0.
G1 X12.052
G17 G2 X11.735 Y177.8 I0. J0.318
X13.665 Z2.455 I0.965 J0.
X11.735 Z2.411 I-0.965 J0.
X13.665 Z2.366 I0.965 J0.
X11.735 Z2.322 I-0.965 J0.
X13.665 Z2.277 I0.965 J0.
X11.735 Z2.233 I-0.965 J0.
X13.665 Z2.188 I0.965 J0.
X11.735 Z2.144 I-0.965 J0.
X13.665 Z2.099 I0.965 J0.
X11.735 Z2.054 I-0.965 J0.
X13.665 Z2.01 I0.965 J0.
X11.735 Z1.965 I-0.965 J0.
X13.665 Z1.921 I0.965 J0.
X11.735 Z1.876 I-0.965 J0.
X13.665 Z1.832 I0.965 J0.
X11.735 Z1.787 I-0.965 J0.
X13.665 Z1.743 I0.965 J0.
X11.735 Z1.698 I-0.965 J0.
X13.665 Z1.653 I0.965 J0.
X11.735 Z1.609 I-0.965 J0.
X13.665 Z1.564 I0.965 J0.
X11.735 Z1.52 I-0.965 J0.
X13.665 Z1.475 I0.965 J0.
X11.735 Z1.431 I-0.965 J0.
X13.665 Z1.386 I0.965 J0.
X11.735 Z1.342 I-0.965 J0.
X13.665 Z1.297 I0.965 J0.
X11.735 Z1.252 I-0.965 J0.
X13.665 Z1.208 I0.965 J0.
X11.735 Z1.163 I-0.965 J0.
X13.665 Z1.119 I0.965 J0.
X11.735 Z1.074 I-0.965 J0.
X13.665 Z1.03 I0.965 J0.
X11.735 Z0.985 I-0.965 J0.
X13.665 Z0.94 I0.965 J0.
X11.735 Z0.896 I-0.965 J0.
X13.665 Z0.851 I0.965 J0.
X11.735 Z0.807 I-0.965 J0.
X13.665 Z0.762 I0.965 J0.
X11.735 Z0.718 I-0.965 J0.
X13.665 Z0.673 I0.965 J0.
X11.735 Z0.629 I-0.965 J0.
X13.665 Z0.584 I0.965 J0.
X11.735 Z0.539 I-0.965 J0.
X13.665 Z0.495 I0.965 J0.
X11.735 Z0.45 I-0.965 J0.
X13.665 Z0.406 I0.965 J0.
X11.735 Z0.361 I-0.965 J0.
X13.665 Z0.317 I0.965 J0.
X11.735 Z0.272 I-0.965 J0.
X13.665 Z0.228 I0.965 J0.
X11.735 Z0.183 I-0.965 J0.
X13.665 Z0.138 I0.965 J0.
X11.735 Z0.094 I-0.965 J0.
X13.665 Z0.049 I0.965 J0.
X11.735 Z0.005 I-0.965 J0.
X13.665 Z-0.04 I0.965 J0.
X11.735 Z-0.084 I-0.965 J0.
X13.665 Z-0.129 I0.965 J0.
X11.735 Z-0.173 I-0.965 J0.
X13.665 Z-0.218 I0.965 J0.
X11.735 Z-0.263 I-0.965 J0.
X13.665 Z-0.307 I0.965 J0.
X11.735 Z-0.352 I-0.965 J0.
X13.665 Z-0.396 I0.965 J0.
X11.735 Z-0.441 I-0.965 J0.
X13.665 Z-0.485 I0.965 J0.
X11.735 Z-0.53 I-0.965 J0.
X13.665 Z-0.574 I0.965 J0.
X11.735 Z-0.619 I-0.965 J0.
X13.665 Z-0.664 I0.965 J0.
X11.735 Z-0.708 I-0.965 J0.
X13.665 Z-0.753 I0.965 J0.
X11.735 Z-0.797 I-0.965 J0.
X13.665 Z-0.842 I0.965 J0.
X11.735 Z-0.886 I-0.965 J0.
X13.665 Z-0.931 I0.965 J0.
X11.735 Z-0.975 I-0.965 J0.
X13.665 Z-1.02 I0.965 J0.
X11.735 Z-1.065 I-0.965 J0.
X13.665 Z-1.109 I0.965 J0.
X11.735 Z-1.154 I-0.965 J0.
X13.665 Z-1.198 I0.965 J0.
X11.735 Z-1.243 I-0.965 J0.
X13.665 Z-1.287 I0.965 J0.
X11.735 Z-1.332 I-0.965 J0.
X13.665 Z-1.377 I0.965 J0.
X11.735 Z-1.421 I-0.965 J0.
X13.665 Z-1.466 I0.965 J0.
X11.735 Z-1.51 I-0.965 J0.
X13.665 Z-1.555 I0.965 J0.
X11.735 Z-1.599 I-0.965 J0.
X13.665 Z-1.644 I0.965 J0.
X11.735 Z-1.688 I-0.965 J0.
X13.665 Z-1.733 I0.965 J0.
X11.735 Z-1.778 I-0.965 J0.
X13.665 Z-1.822 I0.965 J0.
X11.735 Z-1.867 I-0.965 J0.
X13.665 Z-1.911 I0.965 J0.
X11.735 Z-1.956 I-0.965 J0.
X13.665 Z-2. I0.965 J0.
X11.735 Z-2.045 I-0.965 J0.
X13.665 Z-2.089 I0.965 J0.
X11.735 Z-2.134 I-0.965 J0.
X13.665 Z-2.179 I0.965 J0.
X11.735 Z-2.223 I-0.965 J0.
X13.665 Z-2.268 I0.965 J0.
X11.735 Z-2.312 I-0.965 J0.
X13.665 Z-2.357 I0.965 J0.
X11.735 Z-2.401 I-0.965 J0.
X13.665 Z-2.446 I0.965 J0.
X11.735 Z-2.49 I-0.965 J0.
X13.665 Z-2.535 I0.965 J0.
X11.735 Z-2.58 I-0.965 J0.
X13.665 Z-2.624 I0.965 J0.
X11.735 Z-2.669 I-0.965 J0.
X13.665 Z-2.713 I0.965 J0.
X11.735 Z-2.758 I-0.965 J0.
X13.665 Z-2.802 I0.965 J0.
X11.735 Z-2.847 I-0.965 J0.
X13.665 Z-2.891 I0.965 J0.
X11.735 Z-2.936 I-0.965 J0.
X13.665 Z-2.981 I0.965 J0.
X11.735 Z-3.025 I-0.965 J0.
X13.665 Z-3.07 I0.965 J0.
X11.735 Z-3.114 I-0.965 J0.
X13.665 Z-3.159 I0.965 J0.
X11.735 Z-3.203 I-0.965 J0.
X13.665 Z-3.248 I0.965 J0.
X11.735 Z-3.292 I-0.965 J0.
X13.665 Z-3.337 I0.965 J0.
X11.735 Z-3.382 I-0.965 J0.
X13.665 Z-3.426 I0.965 J0.
X11.735 Z-3.471 I-0.965 J0.
X13.665 Z-3.515 I0.965 J0.
X11.735 Z-3.56 I-0.965 J0.
X13.665 Z-3.604 I0.965 J0.
X11.735 Z-3.649 I-0.965 J0.
X13.665 Z-3.693 I0.965 J0.
X11.735 Z-3.738 I-0.965 J0.
X13.665 Z-3.783 I0.965 J0.
X11.735 Z-3.827 I-0.965 J0.
X13.665 Z-3.872 I0.965 J0.
X11.735 Z-3.916 I-0.965 J0.
X13.665 Z-3.961 I0.965 J0.
X11.735 Z-4.005 I-0.965 J0.
X13.665 Z-4.05 I0.965 J0.
X11.735 Z-4.095 I-0.965 J0.
X13.665 Z-4.139 I0.965 J0.
X11.735 Z-4.184 I-0.965 J0.
X13.665 Z-4.228 I0.965 J0.
X11.735 Z-4.273 I-0.965 J0.
X13.665 Z-4.317 I0.965 J0.
X11.735 Z-4.362 I-0.965 J0.
X13.665 Z-4.406 I0.965 J0.
X11.735 Z-4.451 I-0.965 J0.
X13.665 Z-4.496 I0.965 J0.
X11.735 Z-4.54 I-0.965 J0.
X13.665 Z-4.585 I0.965 J0.
X11.735 Z-4.629 I-0.965 J0.
X13.665 Z-4.674 I0.965 J0.
X11.735 Z-4.718 I-0.965 J0.
X13.665 Z-4.763 I0.965 J0.
X11.735 Z-4.807 I-0.965 J0.
X13.665 Z-4.852 I0.965 J0.
X11.735 Z-4.897 I-0.965 J0.
X13.665 Z-4.941 I0.965 J0.
X11.735 Z-4.986 I-0.965 J0.
X13.665 Z-5.03 I0.965 J0.
X11.735 Z-5.075 I-0.965 J0.
X13.665 Z-5.119 I0.965 J0.
X11.735 Z-5.164 I-0.965 J0.
X12.016 Y178.481 Z-5.175 I0.965 J0.
X13.384 Y177.119 I0.684 J-0.681
X12.016 Y178.481 I-0.684 J0.681
X12.465 Y178.482 I0.225 J-0.224
G1 X12.577 Y178.37
X12.627 Y178.32 Z-5.167
X12.675 Y178.273 Z-5.144
X12.718 Y178.23 Z-5.106
X12.753 Y178.195 Z-5.055
X12.78 Y178.168 Z-4.995
X12.797 Y178.152 Z-4.928
X12.802 Y178.146 Z-4.858
G0 Z15.

(2D POCKET2)
G0 Z5.
X11.442 Y138.216
Z5.
G1 Z3.817 F800.
X11.429 Y138.197 Z3.698
X11.395 Y138.141 Z3.597
X11.348 Y138.053 Z3.527
X11.3 Y137.945 Z3.5
G3 X14.1 Y136.825 Z3.335 I1.4 J-0.56
X11.3 Y137.945 Z3.169 I-1.4 J0.56
X14.1 Y136.825 Z3.004 I1.4 J-0.56
X11.3 Y137.945 Z2.838 I-1.4 J0.56
X14.1 Y136.825 Z2.673 I1.4 J-0.56
X11.3 Y137.945 Z2.507 I-1.4 J0.56
X14.1 Y136.825 Z2.342 I1.4 J-0.56
X11.3 Y137.945 Z2.176 I-1.4 J0.56
X14.1 Y136.825 Z2.011 I1.4 J-0.56
X11.3 Y137.945 Z1.845 I-1.4 J0.56
X14.1 Y136.825 Z1.68 I1.4 J-0.56
X11.3 Y137.945 Z1.515 I-1.4 J0.56
X14.1 Y136.825 Z1.349 I1.4 J-0.56
X11.3 Y137.945 Z1.184 I-1.4 J0.56
X14.1 Y136.825 Z1.018 I1.4 J-0.56
X11.3 Y137.945 Z0.853 I-1.4 J0.56
X12.7 Y135.877 Z0.75 I1.4 J-0.56
G1 X13.029
G3 X13.348 Y136.196 I0. J0.319
G1 Y162.254
G3 X13.029 Y162.573 I-0.319 J0.
G1 X12.371
G3 X12.052 Y162.254 I0. J-0.319
G1 Y136.196
G3 X12.371 Y135.877 I0.319 J0.
G1 X12.7
G2 X13.65 Y135.378 I0. J-1.154
G3 X14.674 Y135.697 I0.462 J0.319
G1 Y163.58
G3 X14.355 Y163.899 I-0.319 J0.
G1 X11.045
G3 X10.726 Y163.58 I0. J-0.319
G1 Y134.87
G3 X11.045 Y134.551 I0.319 J0.
G1 X14.355
G3 X14.674 Y134.87 I0. J0.319
G1 Y135.697
G2 X15.923 Y137.57 I2.029 J0.
G3 X17.171 Y139.443 I-0.78 J1.873
G1 Y165.1
G3 X15.875 Y166.396 I-1.296 J0.
G1 X9.525
G3 X8.229 Y165.1 I0. J-1.296
G1 Y133.35
G3 X9.525 Y132.054 I1.296 J0.
G1 X15.875
G3 X17.171 Y133.35 I0. J1.296
G1 Y139.443
G2 X18.654 Y141.668 I2.41 J0.
G3 X20.138 Y143.893 I-0.927 J2.225
G1 Y165.1
G3 X15.875 Y169.363 I-4.263 J0.
G1 X9.525
G3 X5.262 Y165.1 I0. J-4.262
G1 Y133.35
G3 X9.525 Y129.087 I4.262 J0.
G1 X15.875
G3 X20.138 Y133.35 I0. J4.263
G1 Y143.893
G3 X17.515 Y144.908 Z0.693 I-1.508 J0.
G1 X11.585 Y138.401 Z0.555
G3 X12.7 Y135.877 Z0.5 I1.115 J-1.016
G1 X13.029
G3 X13.348 Y136.196 I0. J0.319
G1 Y162.254
G3 X13.029 Y162.573 I-0.319 J0.
G1 X12.371
G3 X12.052 Y162.254 I0. J-0.319
G1 Y136.196
G3 X12.371 Y135.877 I0.319 J0.
G1 X12.7
G2 X13.65 Y135.378 I0. J-1.154
G3 X14.674 Y135.697 I0.462 J0.319
G1 Y163.58
G3 X14.355 Y163.899 I-0.319 J0.
G1 X11.045
G3 X10.726 Y163.58 I0. J-0.319
G1 Y134.87
G3 X11.045 Y134.551 I0.319 J0.
G1 X14.355
G3 X14.674 Y134.87 I0. J0.319
G1 Y135.697
G2 X15.923 Y137.57 I2.029 J0.
G3 X17.171 Y139.443 I-0.78 J1.873
G1 Y165.1
G3 X15.875 Y166.396 I-1.296 J0.
G1 X9.525
G3 X8.229 Y165.1 I0. J-1.296
G1 Y133.35
G3 X9.525 Y132.054 I1.296 J0.
G1 X15.875
G3 X17.171 Y133.35 I0. J1.296
G1 Y139.443
G2 X18.654 Y141.668 I2.41 J0.
G3 X20.138 Y143.893 I-0.927 J2.225
G1 Y165.1
G3 X15.875 Y169.363 I-4.263 J0.
G1 X9.525
G3 X5.262 Y165.1 I0. J-4.262
G1 Y133.35
G3 X9.525 Y129.087 I4.262 J0.
G1 X15.875
G3 X20.138 Y133.35 I0. J4.263
G1 Y143.893
G3 X17.515 Y144.908 Z0.443 I-1.508 J0.
G1 X11.585 Y138.401 Z0.305
G3 X12.7 Y135.877 Z0.25 I1.115 J-1.016
G1 X13.029
G3 X13.348 Y136.196 I0. J0.319
G1 Y162.254
G3 X13.029 Y162.573 I-0.319 J0.
G1 X12.371
G3 X12.052 Y162.254 I0. J-0.319
G1 Y136.196
G3 X12.371 Y135.877 I0.319 J0.
G1 X12.7
G2 X13.65 Y135.378 I0. J-1.154
G3 X14.674 Y135.697 I0.462 J0.319
G1 Y163.58
G3 X14.355 Y163.899 I-0.319 J0.
G1 X11.045
G3 X10.726 Y163.58 I0. J-0.319
G1 Y134.87
G3 X11.045 Y134.551 I0.319 J0.
G1 X14.355
G3 X14.674 Y134.87 I0. J0.319
G1 Y135.697
G2 X15.923 Y137.57 I2.029 J0.
G3 X17.171 Y139.443 I-0.78 J1.873
G1 Y165.1
G3 X15.875 Y166.396 I-1.296 J0.
G1 X9.525
G3 X8.229 Y165.1 I0. J-1.296
G1 Y133.35
G3 X9.525 Y132.054 I1.296 J0.
G1 X15.875
G3 X17.171 Y133.35 I0. J1.296
G1 Y139.443
G2 X18.654 Y141.668 I2.41 J0.
G3 X20.138 Y143.893 I-0.927 J2.225
G1 Y165.1
G3 X15.875 Y169.363 I-4.263 J0.
G1 X9.525
G3 X5.262 Y165.1 I0. J-4.262
G1 Y133.35
G3 X9.525 Y129.087 I4.262 J0.
G1 X15.875
G3 X20.138 Y133.35 I0. J4.263
G1 Y143.893
G3 X17.515 Y144.908 Z0.193 I-1.508 J0.
G1 X11.585 Y138.401 Z0.055
G3 X12.7 Y135.877 Z0. I1.115 J-1.016
G1 X13.029
G3 X13.348 Y136.196 I0. J0.319
G1 Y162.254
G3 X13.029 Y162.573 I-0.319 J0.
G1 X12.371
G3 X12.052 Y162.254 I0. J-0.319
G1 Y136.196
G3 X12.371 Y135.877 I0.319 J0.
G1 X12.7
G2 X13.65 Y135.378 I0. J-1.154
G3 X14.674 Y135.697 I0.462 J0.319
G1 Y163.58
G3 X14.355 Y163.899 I-0.319 J0.
G1 X11.045
G3 X10.726 Y163.58 I0. J-0.319
G1 Y134.87
G3 X11.045 Y134.551 I0.319 J0.
G1 X14.355
G3 X14.674 Y134.87 I0. J0.319
G1 Y135.697
G2 X15.923 Y137.57 I2.029 J0.
G3 X17.171 Y139.443 I-0.78 J1.873
G1 Y165.1
G3 X15.875 Y166.396 I-1.296 J0.
G1 X9.525
G3 X8.229 Y165.1 I0. J-1.296
G1 Y133.35
G3 X9.525 Y132.054 I1.296 J0.
G1 X15.875
G3 X17.171 Y133.35 I0. J1.296
G1 Y139.443
G2 X18.654 Y141.668 I2.41 J0.
G3 X20.138 Y143.893 I-0.927 J2.225
G1 Y165.1
G3 X15.875 Y169.363 I-4.263 J0.
G1 X9.525
G3 X5.262 Y165.1 I0. J-4.262
G1 Y133.35
G3 X9.525 Y129.087 I4.262 J0.
G1 X15.875
G3 X20.138 Y133.35 I0. J4.263
G1 Y143.893
G3 X17.515 Y144.908 Z-0.057 I-1.508 J0.
G1 X11.585 Y138.401 Z-0.195
G3 X12.7 Y135.877 Z-0.25 I1.115 J-1.016
G1 X13.029
G3 X13.348 Y136.196 I0. J0.319
G1 Y162.254
G3 X13.029 Y162.573 I-0.319 J0.
G1 X12.371
G3 X12.052 Y162.254 I0. J-0.319
G1 Y136.196
G3 X12.371 Y135.877 I0.319 J0.
G1 X12.7
G2 X13.65 Y135.378 I0. J-1.154
G3 X14.674 Y135.697 I0.462 J0.319
G1 Y163.58
G3 X14.355 Y163.899 I-0.319 J0.
G1 X11.045
G3 X10.726 Y163.58 I0. J-0.319
G1 Y134.87
G3 X11.045 Y134.551 I0.319 J0.
G1 X14.355
G3 X14.674 Y134.87 I0. J0.319
G1 Y135.697
G2 X15.923 Y137.57 I2.029 J0.
G3 X17.171 Y139.443 I-0.78 J1.873
G1 Y165.1
G3 X15.875 Y166.396 I-1.296 J0.
G1 X9.525
G3 X8.229 Y165.1 I0. J-1.296
G1 Y133.35
G3 X9.525 Y132.054 I1.296 J0.
G1 X15.875
G3 X17.171 Y133.35 I0. J1.296
G1 Y139.443
G2 X18.654 Y141.668 I2.41 J0.
G3 X20.138 Y143.893 I-0.927 J2.225
G1 Y165.1
G3 X15.875 Y169.363 I-4.263 J0.
G1 X9.525
G3 X5.262 Y165.1 I0. J-4.262
G1 Y133.35
G3 X9.525 Y129.087 I4.262 J0.
G1 X15.875
G3 X20.138 Y133.35 I0. J4.263
G1 Y143.893
G3 X17.515 Y144.908 Z-0.307 I-1.508 J0.
G1 X11.585 Y138.401 Z-0.445
G3 X12.7 Y135.877 Z-0.5 I1.115 J-1.016
G1 X13.029
G3 X13.348 Y136.196 I0. J0.319
G1 Y162.254
G3 X13.029 Y162.573 I-0.319 J0.
G1 X12.371
G3 X12.052 Y162.254 I0. J-0.319
G1 Y136.196
G3 X12.371 Y135.877 I0.319 J0.
G1 X12.7
G2 X13.65 Y135.378 I0. J-1.154
G3 X14.674 Y135.697 I0.462 J0.319
G1 Y163.58
G3 X14.355 Y163.899 I-0.319 J0.
G1 X11.045
G3 X10.726 Y163.58 I0. J-0.319
G1 Y134.87
G3 X11.045 Y134.551 I0.319 J0.
G1 X14.355
G3 X14.674 Y134.87 I0. J0.319
G1 Y135.697
G2 X15.923 Y137.57 I2.029 J0.
G3 X17.171 Y139.443 I-0.78 J1.873
G1 Y165.1
G3 X15.875 Y166.396 I-1.296 J0.
G1 X9.525
G3 X8.229 Y165.1 I0. J-1.296
G1 Y133.35
G3 X9.525 Y132.054 I1.296 J0.
G1 X15.875
G3 X17.171 Y133.35 I0. J1.296
G1 Y139.443
G2 X18.654 Y141.668 I2.41 J0.
G3 X20.138 Y143.893 I-0.927 J2.225
G1 Y165.1
G3 X15.875 Y169.363 I-4.263 J0.
G1 X9.525
G3 X5.262 Y165.1 I0. J-4.262
G1 Y133.35
G3 X9.525 Y129.087 I4.262 J0.
G1 X15.875
G3 X20.138 Y133.35 I0. J4.263
G1 Y143.893
G3 X17.515 Y144.908 Z-0.557 I-1.508 J0.
G1 X11.585 Y138.401 Z-0.695
G3 X12.7 Y135.877 Z-0.75 I1.115 J-1.016
G1 X13.029
G3 X13.348 Y136.196 I0. J0.319
G1 Y162.254
G3 X13.029 Y162.573 I-0.319 J0.
G1 X12.371
G3 X12.052 Y162.254 I0. J-0.319
G1 Y136.196
G3 X12.371 Y135.877 I0.319 J0.
G1 X12.7
G2 X13.65 Y135.378 I0. J-1.154
G3 X14.674 Y135.697 I0.462 J0.319
G1 Y163.58
G3 X14.355 Y163.899 I-0.319 J0.
G1 X11.045
G3 X10.726 Y163.58 I0. J-0.319
G1 Y134.87
G3 X11.045 Y134.551 I0.319 J0.
G1 X14.355
G3 X14.674 Y134.87 I0. J0.319
G1 Y135.697
G2 X15.923 Y137.57 I2.029 J0.
G3 X17.171 Y139.443 I-0.78 J1.873
G1 Y165.1
G3 X15.875 Y166.396 I-1.296 J0.
G1 X9.525
G3 X8.229 Y165.1 I0. J-1.296
G1 Y133.35
G3 X9.525 Y132.054 I1.296 J0.
G1 X15.875
G3 X17.171 Y133.35 I0. J1.296
G1 Y139.443
G2 X18.654 Y141.668 I2.41 J0.
G3 X20.138 Y143.893 I-0.927 J2.225
G1 Y165.1
G3 X15.875 Y169.363 I-4.263 J0.
G1 X9.525
G3 X5.262 Y165.1 I0. J-4.262
G1 Y133.35
G3 X9.525 Y129.087 I4.262 J0.
G1 X15.875
G3 X20.138 Y133.35 I0. J4.263
G1 Y143.893
G3 X17.515 Y144.908 Z-0.807 I-1.508 J0.
G1 X11.585 Y138.401 Z-0.945
G3 X12.7 Y135.877 Z-1. I1.115 J-1.016
G1 X13.029
G3 X13.348 Y136.196 I0. J0.319
G1 Y162.254
G3 X13.029 Y162.573 I-0.319 J0.
G1 X12.371
G3 X12.052 Y162.254 I0. J-0.319
G1 Y136.196
G3 X12.371 Y135.877 I0.319 J0.
G1 X12.7
G2 X13.65 Y135.378 I0. J-1.154
G3 X14.674 Y135.697 I0.462 J0.319
G1 Y163.58
G3 X14.355 Y163.899 I-0.319 J0.
G1 X11.045
G3 X10.726 Y163.58 I0. J-0.319
G1 Y134.87
G3 X11.045 Y134.551 I0.319 J0.
G1 X14.355
G3 X14.674 Y134.87 I0. J0.319
G1 Y135.697
G2 X15.923 Y137.57 I2.029 J0.
G3 X17.171 Y139.443 I-0.78 J1.873
G1 Y165.1
G3 X15.875 Y166.396 I-1.296 J0.
G1 X9.525
G3 X8.229 Y165.1 I0. J-1.296
G1 Y133.35
G3 X9.525 Y132.054 I1.296 J0.
G1 X15.875
G3 X17.171 Y133.35 I0. J1.296
G1 Y139.443
G2 X18.654 Y141.668 I2.41 J0.
G3 X20.138 Y143.893 I-0.927 J2.225
G1 Y165.1
G3 X15.875 Y169.363 I-4.263 J0.
G1 X9.525
G3 X5.262 Y165.1 I0. J-4.262
G1 Y133.35
G3 X9.525 Y129.087 I4.262 J0.
G1 X15.875
G3 X20.138 Y133.35 I0. J4.263
G1 Y143.893
G3 X17.515 Y144.908 Z-1.057 I-1.508 J0.
G1 X11.585 Y138.401 Z-1.195
G3 X12.7 Y135.877 Z-1.25 I1.115 J-1.016
G1 X13.029
G3 X13.348 Y136.196 I0. J0.319
G1 Y162.254
G3 X13.029 Y162.573 I-0.319 J0.
G1 X12.371
G3 X12.052 Y162.254 I0. J-0.319
G1 Y136.196
G3 X12.371 Y135.877 I0.319 J0.
G1 X12.7
G2 X13.65 Y135.378 I0. J-1.154
G3 X14.674 Y135.697 I0.462 J0.319
G1 Y163.58
G3 X14.355 Y163.899 I-0.319 J0.
G1 X11.045
G3 X10.726 Y163.58 I0. J-0.319
G1 Y134.87
G3 X11.045 Y134.551 I0.319 J0.
G1 X14.355
G3 X14.674 Y134.87 I0. J0.319
G1 Y135.697
G2 X15.923 Y137.57 I2.029 J0.
G3 X17.171 Y139.443 I-0.78 J1.873
G1 Y165.1
G3 X15.875 Y166.396 I-1.296 J0.
G1 X9.525
G3 X8.229 Y165.1 I0. J-1.296
G1 Y133.35
G3 X9.525 Y132.054 I1.296 J0.
G1 X15.875
G3 X17.171 Y133.35 I0. J1.296
G1 Y139.443
G2 X18.654 Y141.668 I2.41 J0.
G3 X20.138 Y143.893 I-0.927 J2.225
G1 Y165.1
G3 X15.875 Y169.363 I-4.263 J0.
G1 X9.525
G3 X5.262 Y165.1 I0. J-4.262
G1 Y133.35
G3 X9.525 Y129.087 I4.262 J0.
G1 X15.875
G3 X20.138 Y133.35 I0. J4.263
G1 Y143.893
G3 X17.515 Y144.908 Z-1.307 I-1.508 J0.
G1 X11.585 Y138.401 Z-1.445
G3 X12.7 Y135.877 Z-1.5 I1.115 J-1.016
G1 X13.029
G3 X13.348 Y136.196 I0. J0.319
G1 Y162.254
G3 X13.029 Y162.573 I-0.319 J0.
G1 X12.371
G3 X12.052 Y162.254 I0. J-0.319
G1 Y136.196
G3 X12.371 Y135.877 I0.319 J0.
G1 X12.7
G2 X13.65 Y135.378 I0. J-1.154
G3 X14.674 Y135.697 I0.462 J0.319
G1 Y163.58
G3 X14.355 Y163.899 I-0.319 J0.
G1 X11.045
G3 X10.726 Y163.58 I0. J-0.319
G1 Y134.87
G3 X11.045 Y134.551 I0.319 J0.
G1 X14.355
G3 X14.674 Y134.87 I0. J0.319
G1 Y135.697
G2 X15.923 Y137.57 I2.029 J0.
G3 X17.171 Y139.443 I-0.78 J1.873
G1 Y165.1
G3 X15.875 Y166.396 I-1.296 J0.
G1 X9.525
G3 X8.229 Y165.1 I0. J-1.296
G1 Y133.35
G3 X9.525 Y132.054 I1.296 J0.
G1 X15.875
G3 X17.171 Y133.35 I0. J1.296
G1 Y139.443
G2 X18.654 Y141.668 I2.41 J0.
G3 X20.138 Y143.893 I-0.927 J2.225
G1 Y165.1
G3 X15.875 Y169.363 I-4.263 J0.
G1 X9.525
G3 X5.262 Y165.1 I0. J-4.262
G1 Y133.35
G3 X9.525 Y129.087 I4.262 J0.
G1 X15.875
G3 X20.138 Y133.35 I0. J4.263
G1 Y143.893
G3 X17.515 Y144.908 Z-1.557 I-1.508 J0.
G1 X11.585 Y138.401 Z-1.695
G3 X12.7 Y135.877 Z-1.75 I1.115 J-1.016
G1 X13.029
G3 X13.348 Y136.196 I0. J0.319
G1 Y162.254
G3 X13.029 Y162.573 I-0.319 J0.
G1 X12.371
G3 X12.052 Y162.254 I0. J-0.319
G1 Y136.196
G3 X12.371 Y135.877 I0.319 J0.
G1 X12.7
G2 X13.65 Y135.378 I0. J-1.154
G3 X14.674 Y135.697 I0.462 J0.319
G1 Y163.58
G3 X14.355 Y163.899 I-0.319 J0.
G1 X11.045
G3 X10.726 Y163.58 I0. J-0.319
G1 Y134.87
G3 X11.045 Y134.551 I0.319 J0.
G1 X14.355
G3 X14.674 Y134.87 I0. J0.319
G1 Y135.697
G2 X15.923 Y137.57 I2.029 J0.
G3 X17.171 Y139.443 I-0.78 J1.873
G1 Y165.1
G3 X15.875 Y166.396 I-1.296 J0.
G1 X9.525
G3 X8.229 Y165.1 I0. J-1.296
G1 Y133.35
G3 X9.525 Y132.054 I1.296 J0.
G1 X15.875
G3 X17.171 Y133.35 I0. J1.296
G1 Y139.443
G2 X18.654 Y141.668 I2.41 J0.
G3 X20.138 Y143.893 I-0.927 J2.225
G1 Y165.1
G3 X15.875 Y169.363 I-4.263 J0.
G1 X9.525
G3 X5.262 Y165.1 I0. J-4.262
G1 Y133.35
G3 X9.525 Y129.087 I4.262 J0.
G1 X15.875
G3 X20.138 Y133.35 I0. J4.263
G1 Y143.893
G3 X17.515 Y144.908 Z-1.807 I-1.508 J0.
G1 X11.585 Y138.401 Z-1.945
G3 X12.7 Y135.877 Z-2. I1.115 J-1.016
G1 X13.029
G3 X13.348 Y136.196 I0. J0.319
G1 Y162.254
G3 X13.029 Y162.573 I-0.319 J0.
G1 X12.371
G3 X12.052 Y162.254 I0. J-0.319
G1 Y136.196
G3 X12.371 Y135.877 I0.319 J0.
G1 X12.7
G2 X13.65 Y135.378 I0. J-1.154
G3 X14.674 Y135.697 I0.462 J0.319
G1 Y163.58
G3 X14.355 Y163.899 I-0.319 J0.
G1 X11.045
G3 X10.726 Y163.58 I0. J-0.319
G1 Y134.87
G3 X11.045 Y134.551 I0.319 J0.
G1 X14.355
G3 X14.674 Y134.87 I0. J0.319
G1 Y135.697
G2 X15.923 Y137.57 I2.029 J0.
G3 X17.171 Y139.443 I-0.78 J1.873
G1 Y165.1
G3 X15.875 Y166.396 I-1.296 J0.
G1 X9.525
G3 X8.229 Y165.1 I0. J-1.296
G1 Y133.35
G3 X9.525 Y132.054 I1.296 J0.
G1 X15.875
G3 X17.171 Y133.35 I0. J1.296
G1 Y139.443
G2 X18.654 Y141.668 I2.41 J0.
G3 X20.138 Y143.893 I-0.927 J2.225
G1 Y165.1
G3 X15.875 Y169.363 I-4.263 J0.
G1 X9.525
G3 X5.262 Y165.1 I0. J-4.262
G1 Y133.35
G3 X9.525 Y129.087 I4.262 J0.
G1 X15.875
G3 X20.138 Y133.35 I0. J4.263
G1 Y143.893
G3 X17.515 Y144.908 Z-2.057 I-1.508 J0.
G1 X11.585 Y138.401 Z-2.195
G3 X12.7 Y135.877 Z-2.25 I1.115 J-1.016
G1 X13.029
G3 X13.348 Y136.196 I0. J0.319
G1 Y162.254
G3 X13.029 Y162.573 I-0.319 J0.
G1 X12.371
G3 X12.052 Y162.254 I0. J-0.319
G1 Y136.196
G3 X12.371 Y135.877 I0.319 J0.
G1 X12.7
G2 X13.65 Y135.378 I0. J-1.154
G3 X14.674 Y135.697 I0.462 J0.319
G1 Y163.58
G3 X14.355 Y163.899 I-0.319 J0.
G1 X11.045
G3 X10.726 Y163.58 I0. J-0.319
G1 Y134.87
G3 X11.045 Y134.551 I0.319 J0.
G1 X14.355
G3 X14.674 Y134.87 I0. J0.319
G1 Y135.697
G2 X15.923 Y137.57 I2.029 J0.
G3 X17.171 Y139.443 I-0.78 J1.873
G1 Y165.1
G3 X15.875 Y166.396 I-1.296 J0.
G1 X9.525
G3 X8.229 Y165.1 I0. J-1.296
G1 Y133.35
G3 X9.525 Y132.054 I1.296 J0.
G1 X15.875
G3 X17.171 Y133.35 I0. J1.296
G1 Y139.443
G2 X18.654 Y141.668 I2.41 J0.
G3 X20.138 Y143.893 I-0.927 J2.225
G1 Y165.1
G3 X15.875 Y169.363 I-4.263 J0.
G1 X9.525
G3 X5.262 Y165.1 I0. J-4.262
G1 Y133.35
G3 X9.525 Y129.087 I4.262 J0.
G1 X15.875
G3 X20.138 Y133.35 I0. J4.263
G1 Y143.893
G3 X17.515 Y144.908 Z-2.307 I-1.508 J0.
G1 X11.585 Y138.401 Z-2.445
G3 X12.7 Y135.877 Z-2.5 I1.115 J-1.016
G1 X13.029
G3 X13.348 Y136.196 I0. J0.319
G1 Y162.254
G3 X13.029 Y162.573 I-0.319 J0.
G1 X12.371
G3 X12.052 Y162.254 I0. J-0.319
G1 Y136.196
G3 X12.371 Y135.877 I0.319 J0.
G1 X12.7
G2 X13.65 Y135.378 I0. J-1.154
G3 X14.674 Y135.697 I0.462 J0.319
G1 Y163.58
G3 X14.355 Y163.899 I-0.319 J0.
G1 X11.045
G3 X10.726 Y163.58 I0. J-0.319
G1 Y134.87
G3 X11.045 Y134.551 I0.319 J0.
G1 X14.355
G3 X14.674 Y134.87 I0. J0.319
G1 Y135.697
G2 X15.923 Y137.57 I2.029 J0.
G3 X17.171 Y139.443 I-0.78 J1.873
G1 Y165.1
G3 X15.875 Y166.396 I-1.296 J0.
G1 X9.525
G3 X8.229 Y165.1 I0. J-1.296
G1 Y133.35
G3 X9.525 Y132.054 I1.296 J0.
G1 X15.875
G3 X17.171 Y133.35 I0. J1.296
G1 Y139.443
G2 X18.654 Y141.668 I2.41 J0.
G3 X20.138 Y143.893 I-0.927 J2.225
G1 Y165.1
G3 X15.875 Y169.363 I-4.263 J0.
G1 X9.525
G3 X5.262 Y165.1 I0. J-4.262
G1 Y133.35
G3 X9.525 Y129.087 I4.262 J0.
G1 X15.875
G3 X20.138 Y133.35 I0. J4.263
G1 Y143.893
G3 X17.515 Y144.908 Z-2.557 I-1.508 J0.
G1 X11.585 Y138.401 Z-2.695
G3 X12.7 Y135.877 Z-2.75 I1.115 J-1.016
G1 X13.029
G3 X13.348 Y136.196 I0. J0.319
G1 Y162.254
G3 X13.029 Y162.573 I-0.319 J0.
G1 X12.371
G3 X12.052 Y162.254 I0. J-0.319
G1 Y136.196
G3 X12.371 Y135.877 I0.319 J0.
G1 X12.7
G2 X13.65 Y135.378 I0. J-1.154
G3 X14.674 Y135.697 I0.462 J0.319
G1 Y163.58
G3 X14.355 Y163.899 I-0.319 J0.
G1 X11.045
G3 X10.726 Y163.58 I0. J-0.319
G1 Y134.87
G3 X11.045 Y134.551 I0.319 J0.
G1 X14.355
G3 X14.674 Y134.87 I0. J0.319
G1 Y135.697
G2 X15.923 Y137.57 I2.029 J0.
G3 X17.171 Y139.443 I-0.78 J1.873
G1 Y165.1
G3 X15.875 Y166.396 I-1.296 J0.
G1 X9.525
G3 X8.229 Y165.1 I0. J-1.296
G1 Y133.35
G3 X9.525 Y132.054 I1.296 J0.
G1 X15.875
G3 X17.171 Y133.35 I0. J1.296
G1 Y139.443
G2 X18.654 Y141.668 I2.41 J0.
G3 X20.138 Y143.893 I-0.927 J2.225
G1 Y165.1
G3 X15.875 Y169.363 I-4.263 J0.
G1 X9.525
G3 X5.262 Y165.1 I0. J-4.262
G1 Y133.35
G3 X9.525 Y129.087 I4.262 J0.
G1 X15.875
G3 X20.138 Y133.35 I0. J4.263
G1 Y143.893
G3 X17.515 Y144.908 Z-2.807 I-1.508 J0.
G1 X11.585 Y138.401 Z-2.945
G3 X12.7 Y135.877 Z-3. I1.115 J-1.016
G1 X13.029
G3 X13.348 Y136.196 I0. J0.319
G1 Y162.254
G3 X13.029 Y162.573 I-0.319 J0.
G1 X12.371
G3 X12.052 Y162.254 I0. J-0.319
G1 Y136.196
G3 X12.371 Y135.877 I0.319 J0.
G1 X12.7
G2 X13.65 Y135.378 I0. J-1.154
G3 X14.674 Y135.697 I0.462 J0.319
G1 Y163.58
G3 X14.355 Y163.899 I-0.319 J0.
G1 X11.045
G3 X10.726 Y163.58 I0. J-0.319
G1 Y134.87
G3 X11.045 Y134.551 I0.319 J0.
G1 X14.355
G3 X14.674 Y134.87 I0. J0.319
G1 Y135.697
G2 X15.923 Y137.57 I2.029 J0.
G3 X17.171 Y139.443 I-0.78 J1.873
G1 Y165.1
G3 X15.875 Y166.396 I-1.296 J0.
G1 X9.525
G3 X8.229 Y165.1 I0. J-1.296
G1 Y133.35
G3 X9.525 Y132.054 I1.296 J0.
G1 X15.875
G3 X17.171 Y133.35 I0. J1.296
G1 Y139.443
G2 X18.654 Y141.668 I2.41 J0.
G3 X20.138 Y143.893 I-0.927 J2.225
G1 Y165.1
G3 X15.875 Y169.363 I-4.263 J0.
G1 X9.525
G3 X5.262 Y165.1 I0. J-4.262
G1 Y133.35
G3 X9.525 Y129.087 I4.262 J0.
G1 X15.875
G3 X20.138 Y133.35 I0. J4.263
G1 Y143.893
G3 X17.515 Y144.908 Z-3.057 I-1.508 J0.
G1 X11.585 Y138.401 Z-3.195
G3 X12.7 Y135.877 Z-3.25 I1.115 J-1.016
G1 X13.029
G3 X13.348 Y136.196 I0. J0.319
G1 Y162.254
G3 X13.029 Y162.573 I-0.319 J0.
G1 X12.371
G3 X12.052 Y162.254 I0. J-0.319
G1 Y136.196
G3 X12.371 Y135.877 I0.319 J0.
G1 X12.7
G2 X13.65 Y135.378 I0. J-1.154
G3 X14.674 Y135.697 I0.462 J0.319
G1 Y163.58
G3 X14.355 Y163.899 I-0.319 J0.
G1 X11.045
G3 X10.726 Y163.58 I0. J-0.319
G1 Y134.87
G3 X11.045 Y134.551 I0.319 J0.
G1 X14.355
G3 X14.674 Y134.87 I0. J0.319
G1 Y135.697
G2 X15.923 Y137.57 I2.029 J0.
G3 X17.171 Y139.443 I-0.78 J1.873
G1 Y165.1
G3 X15.875 Y166.396 I-1.296 J0.
G1 X9.525
G3 X8.229 Y165.1 I0. J-1.296
G1 Y133.35
G3 X9.525 Y132.054 I1.296 J0.
G1 X15.875
G3 X17.171 Y133.35 I0. J1.296
G1 Y139.443
G2 X18.654 Y141.668 I2.41 J0.
G3 X20.138 Y143.893 I-0.927 J2.225
G1 Y165.1
G3 X15.875 Y169.363 I-4.263 J0.
G1 X9.525
G3 X5.262 Y165.1 I0. J-4.262
G1 Y133.35
G3 X9.525 Y129.087 I4.262 J0.
G1 X15.875
G3 X20.138 Y133.35 I0. J4.263
G1 Y143.893
G3 X17.515 Y144.908 Z-3.307 I-1.508 J0.
G1 X11.585 Y138.401 Z-3.445
G3 X12.7 Y135.877 Z-3.5 I1.115 J-1.016
G1 X13.029
G3 X13.348 Y136.196 I0. J0.319
G1 Y162.254
G3 X13.029 Y162.573 I-0.319 J0.
G1 X12.371
G3 X12.052 Y162.254 I0. J-0.319
G1 Y136.196
G3 X12.371 Y135.877 I0.319 J0.
G1 X12.7
G2 X13.65 Y135.378 I0. J-1.154
G3 X14.674 Y135.697 I0.462 J0.319
G1 Y163.58
G3 X14.355 Y163.899 I-0.319 J0.
G1 X11.045
G3 X10.726 Y163.58 I0. J-0.319
G1 Y134.87
G3 X11.045 Y134.551 I0.319 J0.
G1 X14.355
G3 X14.674 Y134.87 I0. J0.319
G1 Y135.697
G2 X15.923 Y137.57 I2.029 J0.
G3 X17.171 Y139.443 I-0.78 J1.873
G1 Y165.1
G3 X15.875 Y166.396 I-1.296 J0.
G1 X9.525
G3 X8.229 Y165.1 I0. J-1.296
G1 Y133.35
G3 X9.525 Y132.054 I1.296 J0.
G1 X15.875
G3 X17.171 Y133.35 I0. J1.296
G1 Y139.443
G2 X18.654 Y141.668 I2.41 J0.
G3 X20.138 Y143.893 I-0.927 J2.225
G1 Y165.1
G3 X15.875 Y169.363 I-4.263 J0.
G1 X9.525
G3 X5.262 Y165.1 I0. J-4.262
G1 Y133.35
G3 X9.525 Y129.087 I4.262 J0.
G1 X15.875
G3 X20.138 Y133.35 I0. J4.263
G1 Y143.893
G3 X17.515 Y144.908 Z-3.557 I-1.508 J0.
G1 X11.585 Y138.401 Z-3.695
G3 X12.7 Y135.877 Z-3.75 I1.115 J-1.016
G1 X13.029
G3 X13.348 Y136.196 I0. J0.319
G1 Y162.254
G3 X13.029 Y162.573 I-0.319 J0.
G1 X12.371
G3 X12.052 Y162.254 I0. J-0.319
G1 Y136.196
G3 X12.371 Y135.877 I0.319 J0.
G1 X12.7
G2 X13.65 Y135.378 I0. J-1.154
G3 X14.674 Y135.697 I0.462 J0.319
G1 Y163.58
G3 X14.355 Y163.899 I-0.319 J0.
G1 X11.045
G3 X10.726 Y163.58 I0. J-0.319
G1 Y134.87
G3 X11.045 Y134.551 I0.319 J0.
G1 X14.355
G3 X14.674 Y134.87 I0. J0.319
G1 Y135.697
G2 X15.923 Y137.57 I2.029 J0.
G3 X17.171 Y139.443 I-0.78 J1.873
G1 Y165.1
G3 X15.875 Y166.396 I-1.296 J0.
G1 X9.525
G3 X8.229 Y165.1 I0. J-1.296
G1 Y133.35
G3 X9.525 Y132.054 I1.296 J0.
G1 X15.875
G3 X17.171 Y133.35 I0. J1.296
G1 Y139.443
G2 X18.654 Y141.668 I2.41 J0.
G3 X20.138 Y143.893 I-0.927 J2.225
G1 Y165.1
G3 X15.875 Y169.363 I-4.263 J0.
G1 X9.525
G3 X5.262 Y165.1 I0. J-4.262
G1 Y133.35
G3 X9.525 Y129.087 I4.262 J0.
G1 X15.875
G3 X20.138 Y133.35 I0. J4.263
G1 Y143.893
G3 X17.515 Y144.908 Z-3.807 I-1.508 J0.
G1 X11.585 Y138.401 Z-3.945
G3 X12.7 Y135.877 Z-4. I1.115 J-1.016
G1 X13.029
G3 X13.348 Y136.196 I0. J0.319
G1 Y162.254
G3 X13.029 Y162.573 I-0.319 J0.
G1 X12.371
G3 X12.052 Y162.254 I0. J-0.319
G1 Y136.196
G3 X12.371 Y135.877 I0.319 J0.
G1 X12.7
G2 X13.65 Y135.378 I0. J-1.154
G3 X14.674 Y135.697 I0.462 J0.319
G1 Y163.58
G3 X14.355 Y163.899 I-0.319 J0.
G1 X11.045
G3 X10.726 Y163.58 I0. J-0.319
G1 Y134.87
G3 X11.045 Y134.551 I0.319 J0.
G1 X14.355
G3 X14.674 Y134.87 I0. J0.319
G1 Y135.697
G2 X15.923 Y137.57 I2.029 J0.
G3 X17.171 Y139.443 I-0.78 J1.873
G1 Y165.1
G3 X15.875 Y166.396 I-1.296 J0.
G1 X9.525
G3 X8.229 Y165.1 I0. J-1.296
G1 Y133.35
G3 X9.525 Y132.054 I1.296 J0.
G1 X15.875
G3 X17.171 Y133.35 I0. J1.296
G1 Y139.443
G2 X18.654 Y141.668 I2.41 J0.
G3 X20.138 Y143.893 I-0.927 J2.225
G1 Y165.1
G3 X15.875 Y169.363 I-4.263 J0.
G1 X9.525
G3 X5.262 Y165.1 I0. J-4.262
G1 Y133.35
G3 X9.525 Y129.087 I4.262 J0.
G1 X15.875
G3 X20.138 Y133.35 I0. J4.263
G1 Y143.893
G3 X17.515 Y144.908 Z-4.057 I-1.508 J0.
G1 X11.585 Y138.401 Z-4.195
G3 X12.7 Y135.877 Z-4.25 I1.115 J-1.016
G1 X13.029
G3 X13.348 Y136.196 I0. J0.319
G1 Y162.254
G3 X13.029 Y162.573 I-0.319 J0.
G1 X12.371
G3 X12.052 Y162.254 I0. J-0.319
G1 Y136.196
G3 X12.371 Y135.877 I0.319 J0.
G1 X12.7
G2 X13.65 Y135.378 I0. J-1.154
G3 X14.674 Y135.697 I0.462 J0.319
G1 Y163.58
G3 X14.355 Y163.899 I-0.319 J0.
G1 X11.045
G3 X10.726 Y163.58 I0. J-0.319
G1 Y134.87
G3 X11.045 Y134.551 I0.319 J0.
G1 X14.355
G3 X14.674 Y134.87 I0. J0.319
G1 Y135.697
G2 X15.923 Y137.57 I2.029 J0.
G3 X17.171 Y139.443 I-0.78 J1.873
G1 Y165.1
G3 X15.875 Y166.396 I-1.296 J0.
G1 X9.525
G3 X8.229 Y165.1 I0. J-1.296
G1 Y133.35
G3 X9.525 Y132.054 I1.296 J0.
G1 X15.875
G3 X17.171 Y133.35 I0. J1.296
G1 Y139.443
G2 X18.654 Y141.668 I2.41 J0.
G3 X20.138 Y143.893 I-0.927 J2.225
G1 Y165.1
G3 X15.875 Y169.363 I-4.263 J0.
G1 X9.525
G3 X5.262 Y165.1 I0. J-4.262
G1 Y133.35
G3 X9.525 Y129.087 I4.262 J0.
G1 X15.875
G3 X20.138 Y133.35 I0. J4.263
G1 Y143.893
G3 X17.515 Y144.908 Z-4.307 I-1.508 J0.
G1 X11.585 Y138.401 Z-4.445
G3 X12.7 Y135.877 Z-4.5 I1.115 J-1.016
G1 X13.029
G3 X13.348 Y136.196 I0. J0.319
G1 Y162.254
G3 X13.029 Y162.573 I-0.319 J0.
G1 X12.371
G3 X12.052 Y162.254 I0. J-0.319
G1 Y136.196
G3 X12.371 Y135.877 I0.319 J0.
G1 X12.7
G2 X13.65 Y135.378 I0. J-1.154
G3 X14.674 Y135.697 I0.462 J0.319
G1 Y163.58
G3 X14.355 Y163.899 I-0.319 J0.
G1 X11.045
G3 X10.726 Y163.58 I0. J-0.319
G1 Y134.87
G3 X11.045 Y134.551 I0.319 J0.
G1 X14.355
G3 X14.674 Y134.87 I0. J0.319
G1 Y135.697
G2 X15.923 Y137.57 I2.029 J0.
G3 X17.171 Y139.443 I-0.78 J1.873
G1 Y165.1
G3 X15.875 Y166.396 I-1.296 J0.
G1 X9.525
G3 X8.229 Y165.1 I0. J-1.296
G1 Y133.35
G3 X9.525 Y132.054 I1.296 J0.
G1 X15.875
G3 X17.171 Y133.35 I0. J1.296
G1 Y139.443
G2 X18.654 Y141.668 I2.41 J0.
G3 X20.138 Y143.893 I-0.927 J2.225
G1 Y165.1
G3 X15.875 Y169.363 I-4.263 J0.
G1 X9.525
G3 X5.262 Y165.1 I0. J-4.262
G1 Y133.35
G3 X9.525 Y129.087 I4.262 J0.
G1 X15.875
G3 X20.138 Y133.35 I0. J4.263
G1 Y143.893
G3 X17.515 Y144.908 Z-4.54 I-1.508 J0.
G1 X11.585 Y138.401 Z-4.637
G3 X12.7 Y135.877 Z-4.675 I1.115 J-1.016
G1 X13.029
G3 X13.348 Y136.196 I0. J0.319
G1 Y162.254
G3 X13.029 Y162.573 I-0.319 J0.
G1 X12.371
G3 X12.052 Y162.254 I0. J-0.319
G1 Y136.196
G3 X12.371 Y135.877 I0.319 J0.
G1 X12.7
G2 X13.65 Y135.378 I0. J-1.154
G3 X14.674 Y135.697 I0.462 J0.319
G1 Y163.58
G3 X14.355 Y163.899 I-0.319 J0.
G1 X11.045
G3 X10.726 Y163.58 I0. J-0.319
G1 Y134.87
G3 X11.045 Y134.551 I0.319 J0.
G1 X14.355
G3 X14.674 Y134.87 I0. J0.319
G1 Y135.697
G2 X15.923 Y137.57 I2.029 J0.
G3 X17.171 Y139.443 I-0.78 J1.873
G1 Y165.1
G3 X15.875 Y166.396 I-1.296 J0.
G1 X9.525
G3 X8.229 Y165.1 I0. J-1.296
G1 Y133.35
G3 X9.525 Y132.054 I1.296 J0.
G1 X15.875
G3 X17.171 Y133.35 I0. J1.296
G1 Y139.443
G2 X18.654 Y141.668 I2.41 J0.
G3 X20.138 Y143.893 I-0.927 J2.225
G1 Y165.1
G3 X15.875 Y169.363 I-4.263 J0.
G1 X9.525
G3 X5.262 Y165.1 I0. J-4.262
G1 Y133.35
G3 X9.525 Y129.087 I4.262 J0.
G1 X15.875
G3 X20.138 Y133.35 I0. J4.263
G1 Y143.893
X20.132 Y143.953 Z-4.663
X20.115 Y144.011 Z-4.651
X20.092 Y144.057 Z-4.616
X20.061 Y144.099 Z-4.582
X20.011 Y144.146 Z-4.479
X19.992 Y144.16 Z-4.358
G0 Z5.
M5
G0 Z5
G0 X0 Y0

M9
M30
