(1001)
(T1  D=6.35 CR=0. - ZMIN=-4.175 - FLAT END MILL)
G90 G94 G91.1 G40 G49 G17
G21
G0 Z45

(BORE1)
M5
T1 M6
S15000 M3
G54
M8
G0 X37.981 Y31.948
G43 Z16. H1
Z3.865
G1 Z2.5 F1600.
X38.298
G2 X38.497 Y31.75 I0. J-0.198
X37.703 Z2.438 I-0.397 J0.
X38.497 Z2.375 I0.397 J0.
X37.703 Z2.313 I-0.397 J0.
X38.497 Z2.251 I0.397 J0.
X37.703 Z2.188 I-0.397 J0.
X38.497 Z2.126 I0.397 J0.
X37.703 Z2.064 I-0.397 J0.
X38.497 Z2.001 I0.397 J0.
X37.703 Z1.939 I-0.397 J0.
X38.497 Z1.877 I0.397 J0.
X37.703 Z1.814 I-0.397 J0.
X38.497 Z1.752 I0.397 J0.
X37.703 Z1.689 I-0.397 J0.
X38.497 Z1.627 I0.397 J0.
X37.703 Z1.565 I-0.397 J0.
X38.497 Z1.502 I0.397 J0.
X37.703 Z1.44 I-0.397 J0.
X38.497 Z1.378 I0.397 J0.
X37.703 Z1.315 I-0.397 J0.
X38.497 Z1.253 I0.397 J0.
X37.703 Z1.191 I-0.397 J0.
X38.497 Z1.128 I0.397 J0.
X37.703 Z1.066 I-0.397 J0.
X38.497 Z1.004 I0.397 J0.
X37.703 Z0.941 I-0.397 J0.
X38.497 Z0.879 I0.397 J0.
X37.703 Z0.817 I-0.397 J0.
X38.497 Z0.754 I0.397 J0.
X37.703 Z0.692 I-0.397 J0.
X38.497 Z0.63 I0.397 J0.
X37.703 Z0.567 I-0.397 J0.
X38.497 Z0.505 I0.397 J0.
X37.703 Z0.443 I-0.397 J0.
X38.497 Z0.38 I0.397 J0.
X37.703 Z0.318 I-0.397 J0.
X38.497 Z0.255 I0.397 J0.
X37.703 Z0.193 I-0.397 J0.
X38.497 Z0.131 I0.397 J0.
X37.703 Z0.068 I-0.397 J0.
X38.497 Z0.006 I0.397 J0.
X37.703 Z-0.056 I-0.397 J0.
X38.497 Z-0.119 I0.397 J0.
X37.703 Z-0.181 I-0.397 J0.
X38.497 Z-0.243 I0.397 J0.
X37.703 Z-0.306 I-0.397 J0.
X38.497 Z-0.368 I0.397 J0.
X37.703 Z-0.43 I-0.397 J0.
X38.497 Z-0.493 I0.397 J0.
X37.703 Z-0.555 I-0.397 J0.
X38.497 Z-0.617 I0.397 J0.
X37.703 Z-0.68 I-0.397 J0.
X38.497 Z-0.742 I0.397 J0.
X37.703 Z-0.804 I-0.397 J0.
X38.497 Z-0.867 I0.397 J0.
X37.703 Z-0.929 I-0.397 J0.
X38.497 Z-0.991 I0.397 J0.
X37.703 Z-1.054 I-0.397 J0.
X38.497 Z-1.116 I0.397 J0.
X37.703 Z-1.178 I-0.397 J0.
X38.497 Z-1.241 I0.397 J0.
X37.703 Z-1.303 I-0.397 J0.
X38.497 Z-1.366 I0.397 J0.
X37.703 Z-1.428 I-0.397 J0.
X38.497 Z-1.49 I0.397 J0.
X37.703 Z-1.553 I-0.397 J0.
X38.497 Z-1.615 I0.397 J0.
X37.703 Z-1.677 I-0.397 J0.
X38.497 Z-1.74 I0.397 J0.
X37.703 Z-1.802 I-0.397 J0.
X38.497 Z-1.864 I0.397 J0.
X37.703 Z-1.927 I-0.397 J0.
X38.497 Z-1.989 I0.397 J0.
X37.703 Z-2.051 I-0.397 J0.
X38.497 Z-2.114 I0.397 J0.
X37.703 Z-2.176 I-0.397 J0.
X38.497 Z-2.238 I0.397 J0.
X37.703 Z-2.301 I-0.397 J0.
X38.497 Z-2.363 I0.397 J0.
X37.703 Z-2.425 I-0.397 J0.
X38.497 Z-2.488 I0.397 J0.
X37.703 Z-2.55 I-0.397 J0.
X38.497 Z-2.612 I0.397 J0.
X37.703 Z-2.675 I-0.397 J0.
X38.497 Z-2.737 I0.397 J0.
X37.703 Z-2.8 I-0.397 J0.
X38.497 Z-2.862 I0.397 J0.
X37.703 Z-2.924 I-0.397 J0.
X38.497 Z-2.987 I0.397 J0.
X37.703 Z-3.049 I-0.397 J0.
X38.497 Z-3.111 I0.397 J0.
X37.703 Z-3.174 I-0.397 J0.
X38.497 Z-3.236 I0.397 J0.
X37.703 Z-3.298 I-0.397 J0.
X38.497 Z-3.361 I0.397 J0.
X37.703 Z-3.423 I-0.397 J0.
X38.497 Z-3.485 I0.397 J0.
X37.703 Z-3.548 I-0.397 J0.
X38.497 Z-3.61 I0.397 J0.
X37.703 Z-3.672 I-0.397 J0.
X38.497 Z-3.735 I0.397 J0.
X37.703 Z-3.797 I-0.397 J0.
X38.497 Z-3.859 I0.397 J0.
X37.703 Z-3.922 I-0.397 J0.
X38.497 Z-3.984 I0.397 J0.
X37.703 Z-4.046 I-0.397 J0.
X38.497 Z-4.109 I0.397 J0.
X38.062 Y31.355 Z-4.142 I-0.397 J0.
X37.711 Y31.826 Z-4.175 I0.038 J0.395
X38.489 Y31.674 I0.389 J-0.076
X37.711 Y31.826 I-0.389 J0.076
X37.943 Y31.983 I0.195 J-0.038
G1 X38.255 Y31.922
G0 Z6.
X38.1 Y12.7
Z3.865
G1 Z2.5 F1600.
X38.202 Y12.802
X38.24 Y12.794
X38.273 Y12.772
X38.295 Y12.739
X38.303 Y12.7
G2 X37.897 Z2.441 I-0.203 J0.
X38.303 Z2.382 I0.203 J0.
X37.897 Z2.323 I-0.203 J0.
X38.303 Z2.264 I0.203 J0.
X37.897 Z2.205 I-0.203 J0.
X38.303 Z2.146 I0.203 J0.
X37.897 Z2.087 I-0.203 J0.
X38.303 Z2.028 I0.203 J0.
X37.897 Z1.969 I-0.203 J0.
X38.303 Z1.91 I0.203 J0.
X37.897 Z1.851 I-0.203 J0.
X38.303 Z1.792 I0.203 J0.
X37.897 Z1.733 I-0.203 J0.
X38.303 Z1.674 I0.203 J0.
X37.897 Z1.615 I-0.203 J0.
X38.303 Z1.557 I0.203 J0.
X37.897 Z1.498 I-0.203 J0.
X38.303 Z1.439 I0.203 J0.
X37.897 Z1.38 I-0.203 J0.
X38.303 Z1.321 I0.203 J0.
X37.897 Z1.262 I-0.203 J0.
X38.303 Z1.203 I0.203 J0.
X37.897 Z1.144 I-0.203 J0.
X38.303 Z1.085 I0.203 J0.
X37.897 Z1.026 I-0.203 J0.
X38.303 Z0.967 I0.203 J0.
X37.897 Z0.908 I-0.203 J0.
X38.303 Z0.849 I0.203 J0.
X37.897 Z0.79 I-0.203 J0.
X38.303 Z0.731 I0.203 J0.
X37.897 Z0.672 I-0.203 J0.
X38.303 Z0.613 I0.203 J0.
X37.897 Z0.554 I-0.203 J0.
X38.303 Z0.495 I0.203 J0.
X37.897 Z0.436 I-0.203 J0.
X38.303 Z0.377 I0.203 J0.
X37.897 Z0.318 I-0.203 J0.
X38.303 Z0.259 I0.203 J0.
X37.897 Z0.2 I-0.203 J0.
X38.303 Z0.141 I0.203 J0.
X37.897 Z0.082 I-0.203 J0.
X38.303 Z0.023 I0.203 J0.
X37.897 Z-0.036 I-0.203 J0.
X38.303 Z-0.095 I0.203 J0.
X37.897 Z-0.154 I-0.203 J0.
X38.303 Z-0.212 I0.203 J0.
X37.897 Z-0.271 I-0.203 J0.
X38.303 Z-0.33 I0.203 J0.
X37.897 Z-0.389 I-0.203 J0.
X38.303 Z-0.448 I0.203 J0.
X37.897 Z-0.507 I-0.203 J0.
X38.303 Z-0.566 I0.203 J0.
X37.897 Z-0.625 I-0.203 J0.
X38.303 Z-0.684 I0.203 J0.
X37.897 Z-0.743 I-0.203 J0.
X38.303 Z-0.802 I0.203 J0.
X37.897 Z-0.861 I-0.203 J0.
X38.303 Z-0.92 I0.203 J0.
X37.897 Z-0.979 I-0.203 J0.
X38.303 Z-1.038 I0.203 J0.
X37.897 Z-1.097 I-0.203 J0.
X38.303 Z-1.156 I0.203 J0.
X37.897 Z-1.215 I-0.203 J0.
X38.303 Z-1.274 I0.203 J0.
X37.897 Z-1.333 I-0.203 J0.
X38.303 Z-1.392 I0.203 J0.
X37.897 Z-1.451 I-0.203 J0.
X38.303 Z-1.51 I0.203 J0.
X37.897 Z-1.569 I-0.203 J0.
X38.303 Z-1.628 I0.203 J0.
X37.897 Z-1.687 I-0.203 J0.
X38.303 Z-1.746 I0.203 J0.
X37.897 Z-1.805 I-0.203 J0.
X38.303 Z-1.864 I0.203 J0.
X37.897 Z-1.923 I-0.203 J0.
X38.303 Z-1.981 I0.203 J0.
X37.897 Z-2.04 I-0.203 J0.
X38.303 Z-2.099 I0.203 J0.
X37.897 Z-2.158 I-0.203 J0.
X38.303 Z-2.217 I0.203 J0.
X37.897 Z-2.276 I-0.203 J0.
X38.303 Z-2.335 I0.203 J0.
X37.897 Z-2.394 I-0.203 J0.
X38.303 Z-2.453 I0.203 J0.
X37.897 Z-2.512 I-0.203 J0.
X38.303 Z-2.571 I0.203 J0.
X37.897 Z-2.63 I-0.203 J0.
X38.303 Z-2.689 I0.203 J0.
X37.897 Z-2.748 I-0.203 J0.
X38.303 Z-2.807 I0.203 J0.
X37.897 Z-2.866 I-0.203 J0.
X38.303 Z-2.925 I0.203 J0.
X37.897 Z-2.984 I-0.203 J0.
X38.303 Z-3.043 I0.203 J0.
X37.897 Z-3.102 I-0.203 J0.
X38.303 Z-3.161 I0.203 J0.
X37.897 Z-3.22 I-0.203 J0.
X38.303 Z-3.279 I0.203 J0.
X37.897 Z-3.338 I-0.203 J0.
X38.303 Z-3.397 I0.203 J0.
X37.897 Z-3.456 I-0.203 J0.
X38.303 Z-3.515 I0.203 J0.
X37.897 Z-3.574 I-0.203 J0.
X38.303 Z-3.633 I0.203 J0.
X37.897 Z-3.692 I-0.203 J0.
X38.303 Z-3.75 I0.203 J0.
X37.897 Z-3.809 I-0.203 J0.
X38.303 Z-3.868 I0.203 J0.
X37.897 Z-3.927 I-0.203 J0.
X38.303 Z-3.986 I0.203 J0.
X37.897 Z-4.045 I-0.203 J0.
X38.303 Z-4.104 I0.203 J0.
X37.897 Z-4.163 I-0.203 J0.
X37.935 Y12.819 Z-4.175 I0.203 J0.
X38.265 Y12.581 I0.165 J-0.119
X37.935 Y12.819 I-0.165 J0.119
G1 X37.964 Y12.846
X38.002 Y12.86
X38.041 Y12.858
X38.077 Y12.842
X38.1 Y12.7
G0 Z6.
X12.7
Z3.865
G1 Z2.5 F1600.
X12.802 Y12.802
X12.84 Y12.794
X12.873 Y12.772
X12.895 Y12.739
X12.903 Y12.7
G2 X12.497 Z2.441 I-0.203 J0.
X12.903 Z2.382 I0.203 J0.
X12.497 Z2.323 I-0.203 J0.
X12.903 Z2.264 I0.203 J0.
X12.497 Z2.205 I-0.203 J0.
X12.903 Z2.146 I0.203 J0.
X12.497 Z2.087 I-0.203 J0.
X12.903 Z2.028 I0.203 J0.
X12.497 Z1.969 I-0.203 J0.
X12.903 Z1.91 I0.203 J0.
X12.497 Z1.851 I-0.203 J0.
X12.903 Z1.792 I0.203 J0.
X12.497 Z1.733 I-0.203 J0.
X12.903 Z1.674 I0.203 J0.
X12.497 Z1.615 I-0.203 J0.
X12.903 Z1.557 I0.203 J0.
X12.497 Z1.498 I-0.203 J0.
X12.903 Z1.439 I0.203 J0.
X12.497 Z1.38 I-0.203 J0.
X12.903 Z1.321 I0.203 J0.
X12.497 Z1.262 I-0.203 J0.
X12.903 Z1.203 I0.203 J0.
X12.497 Z1.144 I-0.203 J0.
X12.903 Z1.085 I0.203 J0.
X12.497 Z1.026 I-0.203 J0.
X12.903 Z0.967 I0.203 J0.
X12.497 Z0.908 I-0.203 J0.
X12.903 Z0.849 I0.203 J0.
X12.497 Z0.79 I-0.203 J0.
X12.903 Z0.731 I0.203 J0.
X12.497 Z0.672 I-0.203 J0.
X12.903 Z0.613 I0.203 J0.
X12.497 Z0.554 I-0.203 J0.
X12.903 Z0.495 I0.203 J0.
X12.497 Z0.436 I-0.203 J0.
X12.903 Z0.377 I0.203 J0.
X12.497 Z0.318 I-0.203 J0.
X12.903 Z0.259 I0.203 J0.
X12.497 Z0.2 I-0.203 J0.
X12.903 Z0.141 I0.203 J0.
X12.497 Z0.082 I-0.203 J0.
X12.903 Z0.023 I0.203 J0.
X12.497 Z-0.036 I-0.203 J0.
X12.903 Z-0.095 I0.203 J0.
X12.497 Z-0.154 I-0.203 J0.
X12.903 Z-0.212 I0.203 J0.
X12.497 Z-0.271 I-0.203 J0.
X12.903 Z-0.33 I0.203 J0.
X12.497 Z-0.389 I-0.203 J0.
X12.903 Z-0.448 I0.203 J0.
X12.497 Z-0.507 I-0.203 J0.
X12.903 Z-0.566 I0.203 J0.
X12.497 Z-0.625 I-0.203 J0.
X12.903 Z-0.684 I0.203 J0.
X12.497 Z-0.743 I-0.203 J0.
X12.903 Z-0.802 I0.203 J0.
X12.497 Z-0.861 I-0.203 J0.
X12.903 Z-0.92 I0.203 J0.
X12.497 Z-0.979 I-0.203 J0.
X12.903 Z-1.038 I0.203 J0.
X12.497 Z-1.097 I-0.203 J0.
X12.903 Z-1.156 I0.203 J0.
X12.497 Z-1.215 I-0.203 J0.
X12.903 Z-1.274 I0.203 J0.
X12.497 Z-1.333 I-0.203 J0.
X12.903 Z-1.392 I0.203 J0.
X12.497 Z-1.451 I-0.203 J0.
X12.903 Z-1.51 I0.203 J0.
X12.497 Z-1.569 I-0.203 J0.
X12.903 Z-1.628 I0.203 J0.
X12.497 Z-1.687 I-0.203 J0.
X12.903 Z-1.746 I0.203 J0.
X12.497 Z-1.805 I-0.203 J0.
X12.903 Z-1.864 I0.203 J0.
X12.497 Z-1.923 I-0.203 J0.
X12.903 Z-1.981 I0.203 J0.
X12.497 Z-2.04 I-0.203 J0.
X12.903 Z-2.099 I0.203 J0.
X12.497 Z-2.158 I-0.203 J0.
X12.903 Z-2.217 I0.203 J0.
X12.497 Z-2.276 I-0.203 J0.
X12.903 Z-2.335 I0.203 J0.
X12.497 Z-2.394 I-0.203 J0.
X12.903 Z-2.453 I0.203 J0.
X12.497 Z-2.512 I-0.203 J0.
X12.903 Z-2.571 I0.203 J0.
X12.497 Z-2.63 I-0.203 J0.
X12.903 Z-2.689 I0.203 J0.
X12.497 Z-2.748 I-0.203 J0.
X12.903 Z-2.807 I0.203 J0.
X12.497 Z-2.866 I-0.203 J0.
X12.903 Z-2.925 I0.203 J0.
X12.497 Z-2.984 I-0.203 J0.
X12.903 Z-3.043 I0.203 J0.
X12.497 Z-3.102 I-0.203 J0.
X12.903 Z-3.161 I0.203 J0.
X12.497 Z-3.22 I-0.203 J0.
X12.903 Z-3.279 I0.203 J0.
X12.497 Z-3.338 I-0.203 J0.
X12.903 Z-3.397 I0.203 J0.
X12.497 Z-3.456 I-0.203 J0.
X12.903 Z-3.515 I0.203 J0.
X12.497 Z-3.574 I-0.203 J0.
X12.903 Z-3.633 I0.203 J0.
X12.497 Z-3.692 I-0.203 J0.
X12.903 Z-3.75 I0.203 J0.
X12.497 Z-3.809 I-0.203 J0.
X12.903 Z-3.868 I0.203 J0.
X12.497 Z-3.927 I-0.203 J0.
X12.903 Z-3.986 I0.203 J0.
X12.497 Z-4.045 I-0.203 J0.
X12.903 Z-4.104 I0.203 J0.
X12.497 Z-4.163 I-0.203 J0.
X12.535 Y12.819 Z-4.175 I0.203 J0.
X12.865 Y12.581 I0.165 J-0.119
X12.535 Y12.819 I-0.165 J0.119
G1 X12.564 Y12.846
X12.602 Y12.86
X12.641 Y12.858
X12.677 Y12.842
X12.7 Y12.7
G0 Z6.
X12.581 Y31.948
Z3.865
G1 Z2.5 F1600.
X12.898
G2 X13.097 Y31.75 I0. J-0.198
X12.303 Z2.438 I-0.397 J0.
X13.097 Z2.375 I0.397 J0.
X12.303 Z2.313 I-0.397 J0.
X13.097 Z2.251 I0.397 J0.
X12.303 Z2.188 I-0.397 J0.
X13.097 Z2.126 I0.397 J0.
X12.303 Z2.064 I-0.397 J0.
X13.097 Z2.001 I0.397 J0.
X12.303 Z1.939 I-0.397 J0.
X13.097 Z1.877 I0.397 J0.
X12.303 Z1.814 I-0.397 J0.
X13.097 Z1.752 I0.397 J0.
X12.303 Z1.689 I-0.397 J0.
X13.097 Z1.627 I0.397 J0.
X12.303 Z1.565 I-0.397 J0.
X13.097 Z1.502 I0.397 J0.
X12.303 Z1.44 I-0.397 J0.
X13.097 Z1.378 I0.397 J0.
X12.303 Z1.315 I-0.397 J0.
X13.097 Z1.253 I0.397 J0.
X12.303 Z1.191 I-0.397 J0.
X13.097 Z1.128 I0.397 J0.
X12.303 Z1.066 I-0.397 J0.
X13.097 Z1.004 I0.397 J0.
X12.303 Z0.941 I-0.397 J0.
X13.097 Z0.879 I0.397 J0.
X12.303 Z0.817 I-0.397 J0.
X13.097 Z0.754 I0.397 J0.
X12.303 Z0.692 I-0.397 J0.
X13.097 Z0.63 I0.397 J0.
X12.303 Z0.567 I-0.397 J0.
X13.097 Z0.505 I0.397 J0.
X12.303 Z0.443 I-0.397 J0.
X13.097 Z0.38 I0.397 J0.
X12.303 Z0.318 I-0.397 J0.
X13.097 Z0.255 I0.397 J0.
X12.303 Z0.193 I-0.397 J0.
X13.097 Z0.131 I0.397 J0.
X12.303 Z0.068 I-0.397 J0.
X13.097 Z0.006 I0.397 J0.
X12.303 Z-0.056 I-0.397 J0.
X13.097 Z-0.119 I0.397 J0.
X12.303 Z-0.181 I-0.397 J0.
X13.097 Z-0.243 I0.397 J0.
X12.303 Z-0.306 I-0.397 J0.
X13.097 Z-0.368 I0.397 J0.
X12.303 Z-0.43 I-0.397 J0.
X13.097 Z-0.493 I0.397 J0.
X12.303 Z-0.555 I-0.397 J0.
X13.097 Z-0.617 I0.397 J0.
X12.303 Z-0.68 I-0.397 J0.
X13.097 Z-0.742 I0.397 J0.
X12.303 Z-0.804 I-0.397 J0.
X13.097 Z-0.867 I0.397 J0.
X12.303 Z-0.929 I-0.397 J0.
X13.097 Z-0.991 I0.397 J0.
X12.303 Z-1.054 I-0.397 J0.
X13.097 Z-1.116 I0.397 J0.
X12.303 Z-1.178 I-0.397 J0.
X13.097 Z-1.241 I0.397 J0.
X12.303 Z-1.303 I-0.397 J0.
X13.097 Z-1.366 I0.397 J0.
X12.303 Z-1.428 I-0.397 J0.
X13.097 Z-1.49 I0.397 J0.
X12.303 Z-1.553 I-0.397 J0.
X13.097 Z-1.615 I0.397 J0.
X12.303 Z-1.677 I-0.397 J0.
X13.097 Z-1.74 I0.397 J0.
X12.303 Z-1.802 I-0.397 J0.
X13.097 Z-1.864 I0.397 J0.
X12.303 Z-1.927 I-0.397 J0.
X13.097 Z-1.989 I0.397 J0.
X12.303 Z-2.051 I-0.397 J0.
X13.097 Z-2.114 I0.397 J0.
X12.303 Z-2.176 I-0.397 J0.
X13.097 Z-2.238 I0.397 J0.
X12.303 Z-2.301 I-0.397 J0.
X13.097 Z-2.363 I0.397 J0.
X12.303 Z-2.425 I-0.397 J0.
X13.097 Z-2.488 I0.397 J0.
X12.303 Z-2.55 I-0.397 J0.
X13.097 Z-2.612 I0.397 J0.
X12.303 Z-2.675 I-0.397 J0.
X13.097 Z-2.737 I0.397 J0.
X12.303 Z-2.8 I-0.397 J0.
X13.097 Z-2.862 I0.397 J0.
X12.303 Z-2.924 I-0.397 J0.
X13.097 Z-2.987 I0.397 J0.
X12.303 Z-3.049 I-0.397 J0.
X13.097 Z-3.111 I0.397 J0.
X12.303 Z-3.174 I-0.397 J0.
X13.097 Z-3.236 I0.397 J0.
X12.303 Z-3.298 I-0.397 J0.
X13.097 Z-3.361 I0.397 J0.
X12.303 Z-3.423 I-0.397 J0.
X13.097 Z-3.485 I0.397 J0.
X12.303 Z-3.548 I-0.397 J0.
X13.097 Z-3.61 I0.397 J0.
X12.303 Z-3.672 I-0.397 J0.
X13.097 Z-3.735 I0.397 J0.
X12.303 Z-3.797 I-0.397 J0.
X13.097 Z-3.859 I0.397 J0.
X12.303 Z-3.922 I-0.397 J0.
X13.097 Z-3.984 I0.397 J0.
X12.303 Z-4.046 I-0.397 J0.
X13.097 Z-4.109 I0.397 J0.
X12.662 Y31.355 Z-4.142 I-0.397 J0.
X12.311 Y31.826 Z-4.175 I0.038 J0.395
X13.089 Y31.674 I0.389 J-0.076
X12.311 Y31.826 I-0.389 J0.076
X12.543 Y31.983 I0.195 J-0.038
G1 X12.855 Y31.922
G0 Z6.
X12.7 Y60.968
Z3.865
G1 Z2.5 F1600.
X12.802 Y61.069
X12.84 Y61.061
X12.873 Y61.039
X12.895 Y61.006
X12.903 Y60.968
G2 X12.497 Z2.441 I-0.203 J0.
X12.903 Z2.382 I0.203 J0.
X12.497 Z2.323 I-0.203 J0.
X12.903 Z2.264 I0.203 J0.
X12.497 Z2.205 I-0.203 J0.
X12.903 Z2.146 I0.203 J0.
X12.497 Z2.087 I-0.203 J0.
X12.903 Z2.028 I0.203 J0.
X12.497 Z1.969 I-0.203 J0.
X12.903 Z1.91 I0.203 J0.
X12.497 Z1.851 I-0.203 J0.
X12.903 Z1.792 I0.203 J0.
X12.497 Z1.733 I-0.203 J0.
X12.903 Z1.674 I0.203 J0.
X12.497 Z1.615 I-0.203 J0.
X12.903 Z1.557 I0.203 J0.
X12.497 Z1.498 I-0.203 J0.
X12.903 Z1.439 I0.203 J0.
X12.497 Z1.38 I-0.203 J0.
X12.903 Z1.321 I0.203 J0.
X12.497 Z1.262 I-0.203 J0.
X12.903 Z1.203 I0.203 J0.
X12.497 Z1.144 I-0.203 J0.
X12.903 Z1.085 I0.203 J0.
X12.497 Z1.026 I-0.203 J0.
X12.903 Z0.967 I0.203 J0.
X12.497 Z0.908 I-0.203 J0.
X12.903 Z0.849 I0.203 J0.
X12.497 Z0.79 I-0.203 J0.
X12.903 Z0.731 I0.203 J0.
X12.497 Z0.672 I-0.203 J0.
X12.903 Z0.613 I0.203 J0.
X12.497 Z0.554 I-0.203 J0.
X12.903 Z0.495 I0.203 J0.
X12.497 Z0.436 I-0.203 J0.
X12.903 Z0.377 I0.203 J0.
X12.497 Z0.318 I-0.203 J0.
X12.903 Z0.259 I0.203 J0.
X12.497 Z0.2 I-0.203 J0.
X12.903 Z0.141 I0.203 J0.
X12.497 Z0.082 I-0.203 J0.
X12.903 Z0.023 I0.203 J0.
X12.497 Z-0.036 I-0.203 J0.
X12.903 Z-0.095 I0.203 J0.
X12.497 Z-0.154 I-0.203 J0.
X12.903 Z-0.212 I0.203 J0.
X12.497 Z-0.271 I-0.203 J0.
X12.903 Z-0.33 I0.203 J0.
X12.497 Z-0.389 I-0.203 J0.
X12.903 Z-0.448 I0.203 J0.
X12.497 Z-0.507 I-0.203 J0.
X12.903 Z-0.566 I0.203 J0.
X12.497 Z-0.625 I-0.203 J0.
X12.903 Z-0.684 I0.203 J0.
X12.497 Z-0.743 I-0.203 J0.
X12.903 Z-0.802 I0.203 J0.
X12.497 Z-0.861 I-0.203 J0.
X12.903 Z-0.92 I0.203 J0.
X12.497 Z-0.979 I-0.203 J0.
X12.903 Z-1.038 I0.203 J0.
X12.497 Z-1.097 I-0.203 J0.
X12.903 Z-1.156 I0.203 J0.
X12.497 Z-1.215 I-0.203 J0.
X12.903 Z-1.274 I0.203 J0.
X12.497 Z-1.333 I-0.203 J0.
X12.903 Z-1.392 I0.203 J0.
X12.497 Z-1.451 I-0.203 J0.
X12.903 Z-1.51 I0.203 J0.
X12.497 Z-1.569 I-0.203 J0.
X12.903 Z-1.628 I0.203 J0.
X12.497 Z-1.687 I-0.203 J0.
X12.903 Z-1.746 I0.203 J0.
X12.497 Z-1.805 I-0.203 J0.
X12.903 Z-1.864 I0.203 J0.
X12.497 Z-1.923 I-0.203 J0.
X12.903 Z-1.981 I0.203 J0.
X12.497 Z-2.04 I-0.203 J0.
X12.903 Z-2.099 I0.203 J0.
X12.497 Z-2.158 I-0.203 J0.
X12.903 Z-2.217 I0.203 J0.
X12.497 Z-2.276 I-0.203 J0.
X12.903 Z-2.335 I0.203 J0.
X12.497 Z-2.394 I-0.203 J0.
X12.903 Z-2.453 I0.203 J0.
X12.497 Z-2.512 I-0.203 J0.
X12.903 Z-2.571 I0.203 J0.
X12.497 Z-2.63 I-0.203 J0.
X12.903 Z-2.689 I0.203 J0.
X12.497 Z-2.748 I-0.203 J0.
X12.903 Z-2.807 I0.203 J0.
X12.497 Z-2.866 I-0.203 J0.
X12.903 Z-2.925 I0.203 J0.
X12.497 Z-2.984 I-0.203 J0.
X12.903 Z-3.043 I0.203 J0.
X12.497 Z-3.102 I-0.203 J0.
X12.903 Z-3.161 I0.203 J0.
X12.497 Z-3.22 I-0.203 J0.
X12.903 Z-3.279 I0.203 J0.
X12.497 Z-3.338 I-0.203 J0.
X12.903 Z-3.397 I0.203 J0.
X12.497 Z-3.456 I-0.203 J0.
X12.903 Z-3.515 I0.203 J0.
X12.497 Z-3.574 I-0.203 J0.
X12.903 Z-3.633 I0.203 J0.
X12.497 Z-3.692 I-0.203 J0.
X12.903 Z-3.75 I0.203 J0.
X12.497 Z-3.809 I-0.203 J0.
X12.903 Z-3.868 I0.203 J0.
X12.497 Z-3.927 I-0.203 J0.
X12.903 Z-3.986 I0.203 J0.
X12.497 Z-4.045 I-0.203 J0.
X12.903 Z-4.104 I0.203 J0.
X12.497 Z-4.163 I-0.203 J0.
X12.535 Y61.087 Z-4.175 I0.203 J0.
X12.865 Y60.848 I0.165 J-0.119
X12.535 Y61.087 I-0.165 J0.119
G1 X12.564 Y61.114
X12.602 Y61.128
X12.641 Y61.126
X12.677 Y61.109
X12.7 Y60.968
G0 Z6.
X38.1
Z3.865
G1 Z2.5 F1600.
X38.202 Y61.069
X38.24 Y61.061
X38.273 Y61.039
X38.295 Y61.006
X38.303 Y60.968
G2 X37.897 Z2.441 I-0.203 J0.
X38.303 Z2.382 I0.203 J0.
X37.897 Z2.323 I-0.203 J0.
X38.303 Z2.264 I0.203 J0.
X37.897 Z2.205 I-0.203 J0.
X38.303 Z2.146 I0.203 J0.
X37.897 Z2.087 I-0.203 J0.
X38.303 Z2.028 I0.203 J0.
X37.897 Z1.969 I-0.203 J0.
X38.303 Z1.91 I0.203 J0.
X37.897 Z1.851 I-0.203 J0.
X38.303 Z1.792 I0.203 J0.
X37.897 Z1.733 I-0.203 J0.
X38.303 Z1.674 I0.203 J0.
X37.897 Z1.615 I-0.203 J0.
X38.303 Z1.557 I0.203 J0.
X37.897 Z1.498 I-0.203 J0.
X38.303 Z1.439 I0.203 J0.
X37.897 Z1.38 I-0.203 J0.
X38.303 Z1.321 I0.203 J0.
X37.897 Z1.262 I-0.203 J0.
X38.303 Z1.203 I0.203 J0.
X37.897 Z1.144 I-0.203 J0.
X38.303 Z1.085 I0.203 J0.
X37.897 Z1.026 I-0.203 J0.
X38.303 Z0.967 I0.203 J0.
X37.897 Z0.908 I-0.203 J0.
X38.303 Z0.849 I0.203 J0.
X37.897 Z0.79 I-0.203 J0.
X38.303 Z0.731 I0.203 J0.
X37.897 Z0.672 I-0.203 J0.
X38.303 Z0.613 I0.203 J0.
X37.897 Z0.554 I-0.203 J0.
X38.303 Z0.495 I0.203 J0.
X37.897 Z0.436 I-0.203 J0.
X38.303 Z0.377 I0.203 J0.
X37.897 Z0.318 I-0.203 J0.
X38.303 Z0.259 I0.203 J0.
X37.897 Z0.2 I-0.203 J0.
X38.303 Z0.141 I0.203 J0.
X37.897 Z0.082 I-0.203 J0.
X38.303 Z0.023 I0.203 J0.
X37.897 Z-0.036 I-0.203 J0.
X38.303 Z-0.095 I0.203 J0.
X37.897 Z-0.154 I-0.203 J0.
X38.303 Z-0.212 I0.203 J0.
X37.897 Z-0.271 I-0.203 J0.
X38.303 Z-0.33 I0.203 J0.
X37.897 Z-0.389 I-0.203 J0.
X38.303 Z-0.448 I0.203 J0.
X37.897 Z-0.507 I-0.203 J0.
X38.303 Z-0.566 I0.203 J0.
X37.897 Z-0.625 I-0.203 J0.
X38.303 Z-0.684 I0.203 J0.
X37.897 Z-0.743 I-0.203 J0.
X38.303 Z-0.802 I0.203 J0.
X37.897 Z-0.861 I-0.203 J0.
X38.303 Z-0.92 I0.203 J0.
X37.897 Z-0.979 I-0.203 J0.
X38.303 Z-1.038 I0.203 J0.
X37.897 Z-1.097 I-0.203 J0.
X38.303 Z-1.156 I0.203 J0.
X37.897 Z-1.215 I-0.203 J0.
X38.303 Z-1.274 I0.203 J0.
X37.897 Z-1.333 I-0.203 J0.
X38.303 Z-1.392 I0.203 J0.
X37.897 Z-1.451 I-0.203 J0.
X38.303 Z-1.51 I0.203 J0.
X37.897 Z-1.569 I-0.203 J0.
X38.303 Z-1.628 I0.203 J0.
X37.897 Z-1.687 I-0.203 J0.
X38.303 Z-1.746 I0.203 J0.
X37.897 Z-1.805 I-0.203 J0.
X38.303 Z-1.864 I0.203 J0.
X37.897 Z-1.923 I-0.203 J0.
X38.303 Z-1.981 I0.203 J0.
X37.897 Z-2.04 I-0.203 J0.
X38.303 Z-2.099 I0.203 J0.
X37.897 Z-2.158 I-0.203 J0.
X38.303 Z-2.217 I0.203 J0.
X37.897 Z-2.276 I-0.203 J0.
X38.303 Z-2.335 I0.203 J0.
X37.897 Z-2.394 I-0.203 J0.
X38.303 Z-2.453 I0.203 J0.
X37.897 Z-2.512 I-0.203 J0.
X38.303 Z-2.571 I0.203 J0.
X37.897 Z-2.63 I-0.203 J0.
X38.303 Z-2.689 I0.203 J0.
X37.897 Z-2.748 I-0.203 J0.
X38.303 Z-2.807 I0.203 J0.
X37.897 Z-2.866 I-0.203 J0.
X38.303 Z-2.925 I0.203 J0.
X37.897 Z-2.984 I-0.203 J0.
X38.303 Z-3.043 I0.203 J0.
X37.897 Z-3.102 I-0.203 J0.
X38.303 Z-3.161 I0.203 J0.
X37.897 Z-3.22 I-0.203 J0.
X38.303 Z-3.279 I0.203 J0.
X37.897 Z-3.338 I-0.203 J0.
X38.303 Z-3.397 I0.203 J0.
X37.897 Z-3.456 I-0.203 J0.
X38.303 Z-3.515 I0.203 J0.
X37.897 Z-3.574 I-0.203 J0.
X38.303 Z-3.633 I0.203 J0.
X37.897 Z-3.692 I-0.203 J0.
X38.303 Z-3.75 I0.203 J0.
X37.897 Z-3.809 I-0.203 J0.
X38.303 Z-3.868 I0.203 J0.
X37.897 Z-3.927 I-0.203 J0.
X38.303 Z-3.986 I0.203 J0.
X37.897 Z-4.045 I-0.203 J0.
X38.303 Z-4.104 I0.203 J0.
X37.897 Z-4.163 I-0.203 J0.
X37.935 Y61.087 Z-4.175 I0.203 J0.
X38.265 Y60.848 I0.165 J-0.119
X37.935 Y61.087 I-0.165 J0.119
G1 X37.964 Y61.114
X38.002 Y61.128
X38.041 Y61.126
X38.077 Y61.109
X38.1 Y60.968
G0 Z6.
X31.813 Y111.76
Z4.5
G1 Z3.135 F1600.
G18 G2 X32.449 Z2.5 I0.635 K0.
G1 X32.766
G17 G2 X33.401 Y111.125 I0. J-0.635
X17.399 Z2.305 I-8.001 J0.
X33.401 Z2.11 I8.001 J0.
X17.399 Z1.915 I-8.001 J0.
X33.401 Z1.72 I8.001 J0.
X17.399 Z1.525 I-8.001 J0.
X33.401 Z1.33 I8.001 J0.
X17.399 Z1.134 I-8.001 J0.
X33.401 Z0.939 I8.001 J0.
X17.399 Z0.744 I-8.001 J0.
X33.401 Z0.549 I8.001 J0.
X17.399 Z0.354 I-8.001 J0.
X33.401 Z0.159 I8.001 J0.
X17.399 Z-0.036 I-8.001 J0.
X33.401 Z-0.231 I8.001 J0.
X17.399 Z-0.426 I-8.001 J0.
X33.401 Z-0.621 I8.001 J0.
X17.399 Z-0.816 I-8.001 J0.
X33.401 Z-1.011 I8.001 J0.
X17.399 Z-1.206 I-8.001 J0.
X33.401 Z-1.402 I8.001 J0.
X17.399 Z-1.597 I-8.001 J0.
X33.401 Z-1.792 I8.001 J0.
X17.399 Z-1.987 I-8.001 J0.
X33.401 Z-2.182 I8.001 J0.
X17.399 Z-2.377 I-8.001 J0.
X33.401 Z-2.572 I8.001 J0.
X17.399 Z-2.767 I-8.001 J0.
X33.401 Z-2.962 I8.001 J0.
X17.399 Z-3.157 I-8.001 J0.
X33.401 Z-3.352 I8.001 J0.
X17.399 Z-3.547 I-8.001 J0.
X33.401 Z-3.742 I8.001 J0.
X17.399 Z-3.938 I-8.001 J0.
X33.401 Z-4.133 I8.001 J0.
X31.611 Y106.081 Z-4.175 I-8.001 J0.
X19.189 Y116.169 I-6.211 J5.044
X31.611 Y106.081 I6.211 J-5.044
X30.718 Y105.988 I-0.493 J0.4
G1 X30.471 Y106.189
X30.394 Y106.251 Z-4.167
X30.319 Y106.312 Z-4.144
X30.247 Y106.37 Z-4.106
X30.181 Y106.424 Z-4.054
X30.123 Y106.472 Z-3.989
X30.072 Y106.512 Z-3.913
X30.032 Y106.545 Z-3.828
X30.002 Y106.569 Z-3.736
X29.984 Y106.584 Z-3.639
X29.978 Y106.589 Z-3.54
G0 Z6.
X37.981 Y133.548
Z3.865
G1 Z2.5 F1600.
X38.298
G2 X38.497 Y133.35 I0. J-0.198
X37.703 Z2.438 I-0.397 J0.
X38.497 Z2.375 I0.397 J0.
X37.703 Z2.313 I-0.397 J0.
X38.497 Z2.251 I0.397 J0.
X37.703 Z2.188 I-0.397 J0.
X38.497 Z2.126 I0.397 J0.
X37.703 Z2.064 I-0.397 J0.
X38.497 Z2.001 I0.397 J0.
X37.703 Z1.939 I-0.397 J0.
X38.497 Z1.877 I0.397 J0.
X37.703 Z1.814 I-0.397 J0.
X38.497 Z1.752 I0.397 J0.
X37.703 Z1.689 I-0.397 J0.
X38.497 Z1.627 I0.397 J0.
X37.703 Z1.565 I-0.397 J0.
X38.497 Z1.502 I0.397 J0.
X37.703 Z1.44 I-0.397 J0.
X38.497 Z1.378 I0.397 J0.
X37.703 Z1.315 I-0.397 J0.
X38.497 Z1.253 I0.397 J0.
X37.703 Z1.191 I-0.397 J0.
X38.497 Z1.128 I0.397 J0.
X37.703 Z1.066 I-0.397 J0.
X38.497 Z1.004 I0.397 J0.
X37.703 Z0.941 I-0.397 J0.
X38.497 Z0.879 I0.397 J0.
X37.703 Z0.817 I-0.397 J0.
X38.497 Z0.754 I0.397 J0.
X37.703 Z0.692 I-0.397 J0.
X38.497 Z0.63 I0.397 J0.
X37.703 Z0.567 I-0.397 J0.
X38.497 Z0.505 I0.397 J0.
X37.703 Z0.443 I-0.397 J0.
X38.497 Z0.38 I0.397 J0.
X37.703 Z0.318 I-0.397 J0.
X38.497 Z0.255 I0.397 J0.
X37.703 Z0.193 I-0.397 J0.
X38.497 Z0.131 I0.397 J0.
X37.703 Z0.068 I-0.397 J0.
X38.497 Z0.006 I0.397 J0.
X37.703 Z-0.056 I-0.397 J0.
X38.497 Z-0.119 I0.397 J0.
X37.703 Z-0.181 I-0.397 J0.
X38.497 Z-0.243 I0.397 J0.
X37.703 Z-0.306 I-0.397 J0.
X38.497 Z-0.368 I0.397 J0.
X37.703 Z-0.43 I-0.397 J0.
X38.497 Z-0.493 I0.397 J0.
X37.703 Z-0.555 I-0.397 J0.
X38.497 Z-0.617 I0.397 J0.
X37.703 Z-0.68 I-0.397 J0.
X38.497 Z-0.742 I0.397 J0.
X37.703 Z-0.804 I-0.397 J0.
X38.497 Z-0.867 I0.397 J0.
X37.703 Z-0.929 I-0.397 J0.
X38.497 Z-0.991 I0.397 J0.
X37.703 Z-1.054 I-0.397 J0.
X38.497 Z-1.116 I0.397 J0.
X37.703 Z-1.178 I-0.397 J0.
X38.497 Z-1.241 I0.397 J0.
X37.703 Z-1.303 I-0.397 J0.
X38.497 Z-1.366 I0.397 J0.
X37.703 Z-1.428 I-0.397 J0.
X38.497 Z-1.49 I0.397 J0.
X37.703 Z-1.553 I-0.397 J0.
X38.497 Z-1.615 I0.397 J0.
X37.703 Z-1.677 I-0.397 J0.
X38.497 Z-1.74 I0.397 J0.
X37.703 Z-1.802 I-0.397 J0.
X38.497 Z-1.864 I0.397 J0.
X37.703 Z-1.927 I-0.397 J0.
X38.497 Z-1.989 I0.397 J0.
X37.703 Z-2.051 I-0.397 J0.
X38.497 Z-2.114 I0.397 J0.
X37.703 Z-2.176 I-0.397 J0.
X38.497 Z-2.238 I0.397 J0.
X37.703 Z-2.301 I-0.397 J0.
X38.497 Z-2.363 I0.397 J0.
X37.703 Z-2.425 I-0.397 J0.
X38.497 Z-2.488 I0.397 J0.
X37.703 Z-2.55 I-0.397 J0.
X38.497 Z-2.612 I0.397 J0.
X37.703 Z-2.675 I-0.397 J0.
X38.497 Z-2.737 I0.397 J0.
X37.703 Z-2.8 I-0.397 J0.
X38.497 Z-2.862 I0.397 J0.
X37.703 Z-2.924 I-0.397 J0.
X38.497 Z-2.987 I0.397 J0.
X37.703 Z-3.049 I-0.397 J0.
X38.497 Z-3.111 I0.397 J0.
X37.703 Z-3.174 I-0.397 J0.
X38.497 Z-3.236 I0.397 J0.
X37.703 Z-3.298 I-0.397 J0.
X38.497 Z-3.361 I0.397 J0.
X37.703 Z-3.423 I-0.397 J0.
X38.497 Z-3.485 I0.397 J0.
X37.703 Z-3.548 I-0.397 J0.
X38.497 Z-3.61 I0.397 J0.
X37.703 Z-3.672 I-0.397 J0.
X38.497 Z-3.735 I0.397 J0.
X37.703 Z-3.797 I-0.397 J0.
X38.497 Z-3.859 I0.397 J0.
X37.703 Z-3.922 I-0.397 J0.
X38.497 Z-3.984 I0.397 J0.
X37.703 Z-4.046 I-0.397 J0.
X38.497 Z-4.109 I0.397 J0.
X38.062 Y132.955 Z-4.142 I-0.397 J0.
X37.711 Y133.426 Z-4.175 I0.038 J0.395
X38.489 Y133.274 I0.389 J-0.076
X37.711 Y133.426 I-0.389 J0.076
X37.943 Y133.583 I0.195 J-0.038
G1 X38.255 Y133.522
G0 Z6.
X12.581 Y133.548
Z3.865
G1 Z2.5 F1600.
X12.898
G2 X13.097 Y133.35 I0. J-0.198
X12.303 Z2.438 I-0.397 J0.
X13.097 Z2.375 I0.397 J0.
X12.303 Z2.313 I-0.397 J0.
X13.097 Z2.251 I0.397 J0.
X12.303 Z2.188 I-0.397 J0.
X13.097 Z2.126 I0.397 J0.
X12.303 Z2.064 I-0.397 J0.
X13.097 Z2.001 I0.397 J0.
X12.303 Z1.939 I-0.397 J0.
X13.097 Z1.877 I0.397 J0.
X12.303 Z1.814 I-0.397 J0.
X13.097 Z1.752 I0.397 J0.
X12.303 Z1.689 I-0.397 J0.
X13.097 Z1.627 I0.397 J0.
X12.303 Z1.565 I-0.397 J0.
X13.097 Z1.502 I0.397 J0.
X12.303 Z1.44 I-0.397 J0.
X13.097 Z1.378 I0.397 J0.
X12.303 Z1.315 I-0.397 J0.
X13.097 Z1.253 I0.397 J0.
X12.303 Z1.191 I-0.397 J0.
X13.097 Z1.128 I0.397 J0.
X12.303 Z1.066 I-0.397 J0.
X13.097 Z1.004 I0.397 J0.
X12.303 Z0.941 I-0.397 J0.
X13.097 Z0.879 I0.397 J0.
X12.303 Z0.817 I-0.397 J0.
X13.097 Z0.754 I0.397 J0.
X12.303 Z0.692 I-0.397 J0.
X13.097 Z0.63 I0.397 J0.
X12.303 Z0.567 I-0.397 J0.
X13.097 Z0.505 I0.397 J0.
X12.303 Z0.443 I-0.397 J0.
X13.097 Z0.38 I0.397 J0.
X12.303 Z0.318 I-0.397 J0.
X13.097 Z0.255 I0.397 J0.
X12.303 Z0.193 I-0.397 J0.
X13.097 Z0.131 I0.397 J0.
X12.303 Z0.068 I-0.397 J0.
X13.097 Z0.006 I0.397 J0.
X12.303 Z-0.056 I-0.397 J0.
X13.097 Z-0.119 I0.397 J0.
X12.303 Z-0.181 I-0.397 J0.
X13.097 Z-0.243 I0.397 J0.
X12.303 Z-0.306 I-0.397 J0.
X13.097 Z-0.368 I0.397 J0.
X12.303 Z-0.43 I-0.397 J0.
X13.097 Z-0.493 I0.397 J0.
X12.303 Z-0.555 I-0.397 J0.
X13.097 Z-0.617 I0.397 J0.
X12.303 Z-0.68 I-0.397 J0.
X13.097 Z-0.742 I0.397 J0.
X12.303 Z-0.804 I-0.397 J0.
X13.097 Z-0.867 I0.397 J0.
X12.303 Z-0.929 I-0.397 J0.
X13.097 Z-0.991 I0.397 J0.
X12.303 Z-1.054 I-0.397 J0.
X13.097 Z-1.116 I0.397 J0.
X12.303 Z-1.178 I-0.397 J0.
X13.097 Z-1.241 I0.397 J0.
X12.303 Z-1.303 I-0.397 J0.
X13.097 Z-1.366 I0.397 J0.
X12.303 Z-1.428 I-0.397 J0.
X13.097 Z-1.49 I0.397 J0.
X12.303 Z-1.553 I-0.397 J0.
X13.097 Z-1.615 I0.397 J0.
X12.303 Z-1.677 I-0.397 J0.
X13.097 Z-1.74 I0.397 J0.
X12.303 Z-1.802 I-0.397 J0.
X13.097 Z-1.864 I0.397 J0.
X12.303 Z-1.927 I-0.397 J0.
X13.097 Z-1.989 I0.397 J0.
X12.303 Z-2.051 I-0.397 J0.
X13.097 Z-2.114 I0.397 J0.
X12.303 Z-2.176 I-0.397 J0.
X13.097 Z-2.238 I0.397 J0.
X12.303 Z-2.301 I-0.397 J0.
X13.097 Z-2.363 I0.397 J0.
X12.303 Z-2.425 I-0.397 J0.
X13.097 Z-2.488 I0.397 J0.
X12.303 Z-2.55 I-0.397 J0.
X13.097 Z-2.612 I0.397 J0.
X12.303 Z-2.675 I-0.397 J0.
X13.097 Z-2.737 I0.397 J0.
X12.303 Z-2.8 I-0.397 J0.
X13.097 Z-2.862 I0.397 J0.
X12.303 Z-2.924 I-0.397 J0.
X13.097 Z-2.987 I0.397 J0.
X12.303 Z-3.049 I-0.397 J0.
X13.097 Z-3.111 I0.397 J0.
X12.303 Z-3.174 I-0.397 J0.
X13.097 Z-3.236 I0.397 J0.
X12.303 Z-3.298 I-0.397 J0.
X13.097 Z-3.361 I0.397 J0.
X12.303 Z-3.423 I-0.397 J0.
X13.097 Z-3.485 I0.397 J0.
X12.303 Z-3.548 I-0.397 J0.
X13.097 Z-3.61 I0.397 J0.
X12.303 Z-3.672 I-0.397 J0.
X13.097 Z-3.735 I0.397 J0.
X12.303 Z-3.797 I-0.397 J0.
X13.097 Z-3.859 I0.397 J0.
X12.303 Z-3.922 I-0.397 J0.
X13.097 Z-3.984 I0.397 J0.
X12.303 Z-4.046 I-0.397 J0.
X13.097 Z-4.109 I0.397 J0.
X12.662 Y132.955 Z-4.142 I-0.397 J0.
X12.311 Y133.426 Z-4.175 I0.038 J0.395
X13.089 Y133.274 I0.389 J-0.076
X12.311 Y133.426 I-0.389 J0.076
X12.543 Y133.583 I0.195 J-0.038
G1 X12.855 Y133.522
G0 Z6.
X12.581 Y190.698
Z3.865
G1 Z2.5 F1600.
X12.898
G2 X13.097 Y190.5 I0. J-0.198
X12.303 Z2.438 I-0.397 J0.
X13.097 Z2.375 I0.397 J0.
X12.303 Z2.313 I-0.397 J0.
X13.097 Z2.251 I0.397 J0.
X12.303 Z2.188 I-0.397 J0.
X13.097 Z2.126 I0.397 J0.
X12.303 Z2.064 I-0.397 J0.
X13.097 Z2.001 I0.397 J0.
X12.303 Z1.939 I-0.397 J0.
X13.097 Z1.877 I0.397 J0.
X12.303 Z1.814 I-0.397 J0.
X13.097 Z1.752 I0.397 J0.
X12.303 Z1.689 I-0.397 J0.
X13.097 Z1.627 I0.397 J0.
X12.303 Z1.565 I-0.397 J0.
X13.097 Z1.502 I0.397 J0.
X12.303 Z1.44 I-0.397 J0.
X13.097 Z1.378 I0.397 J0.
X12.303 Z1.315 I-0.397 J0.
X13.097 Z1.253 I0.397 J0.
X12.303 Z1.191 I-0.397 J0.
X13.097 Z1.128 I0.397 J0.
X12.303 Z1.066 I-0.397 J0.
X13.097 Z1.004 I0.397 J0.
X12.303 Z0.941 I-0.397 J0.
X13.097 Z0.879 I0.397 J0.
X12.303 Z0.817 I-0.397 J0.
X13.097 Z0.754 I0.397 J0.
X12.303 Z0.692 I-0.397 J0.
X13.097 Z0.63 I0.397 J0.
X12.303 Z0.567 I-0.397 J0.
X13.097 Z0.505 I0.397 J0.
X12.303 Z0.443 I-0.397 J0.
X13.097 Z0.38 I0.397 J0.
X12.303 Z0.318 I-0.397 J0.
X13.097 Z0.255 I0.397 J0.
X12.303 Z0.193 I-0.397 J0.
X13.097 Z0.131 I0.397 J0.
X12.303 Z0.068 I-0.397 J0.
X13.097 Z0.006 I0.397 J0.
X12.303 Z-0.056 I-0.397 J0.
X13.097 Z-0.119 I0.397 J0.
X12.303 Z-0.181 I-0.397 J0.
X13.097 Z-0.243 I0.397 J0.
X12.303 Z-0.306 I-0.397 J0.
X13.097 Z-0.368 I0.397 J0.
X12.303 Z-0.43 I-0.397 J0.
X13.097 Z-0.493 I0.397 J0.
X12.303 Z-0.555 I-0.397 J0.
X13.097 Z-0.617 I0.397 J0.
X12.303 Z-0.68 I-0.397 J0.
X13.097 Z-0.742 I0.397 J0.
X12.303 Z-0.804 I-0.397 J0.
X13.097 Z-0.867 I0.397 J0.
X12.303 Z-0.929 I-0.397 J0.
X13.097 Z-0.991 I0.397 J0.
X12.303 Z-1.054 I-0.397 J0.
X13.097 Z-1.116 I0.397 J0.
X12.303 Z-1.178 I-0.397 J0.
X13.097 Z-1.241 I0.397 J0.
X12.303 Z-1.303 I-0.397 J0.
X13.097 Z-1.366 I0.397 J0.
X12.303 Z-1.428 I-0.397 J0.
X13.097 Z-1.49 I0.397 J0.
X12.303 Z-1.553 I-0.397 J0.
X13.097 Z-1.615 I0.397 J0.
X12.303 Z-1.677 I-0.397 J0.
X13.097 Z-1.74 I0.397 J0.
X12.303 Z-1.802 I-0.397 J0.
X13.097 Z-1.864 I0.397 J0.
X12.303 Z-1.927 I-0.397 J0.
X13.097 Z-1.989 I0.397 J0.
X12.303 Z-2.051 I-0.397 J0.
X13.097 Z-2.114 I0.397 J0.
X12.303 Z-2.176 I-0.397 J0.
X13.097 Z-2.238 I0.397 J0.
X12.303 Z-2.301 I-0.397 J0.
X13.097 Z-2.363 I0.397 J0.
X12.303 Z-2.425 I-0.397 J0.
X13.097 Z-2.488 I0.397 J0.
X12.303 Z-2.55 I-0.397 J0.
X13.097 Z-2.612 I0.397 J0.
X12.303 Z-2.675 I-0.397 J0.
X13.097 Z-2.737 I0.397 J0.
X12.303 Z-2.8 I-0.397 J0.
X13.097 Z-2.862 I0.397 J0.
X12.303 Z-2.924 I-0.397 J0.
X13.097 Z-2.987 I0.397 J0.
X12.303 Z-3.049 I-0.397 J0.
X13.097 Z-3.111 I0.397 J0.
X12.303 Z-3.174 I-0.397 J0.
X13.097 Z-3.236 I0.397 J0.
X12.303 Z-3.298 I-0.397 J0.
X13.097 Z-3.361 I0.397 J0.
X12.303 Z-3.423 I-0.397 J0.
X13.097 Z-3.485 I0.397 J0.
X12.303 Z-3.548 I-0.397 J0.
X13.097 Z-3.61 I0.397 J0.
X12.303 Z-3.672 I-0.397 J0.
X13.097 Z-3.735 I0.397 J0.
X12.303 Z-3.797 I-0.397 J0.
X13.097 Z-3.859 I0.397 J0.
X12.303 Z-3.922 I-0.397 J0.
X13.097 Z-3.984 I0.397 J0.
X12.303 Z-4.046 I-0.397 J0.
X13.097 Z-4.109 I0.397 J0.
X12.662 Y190.105 Z-4.142 I-0.397 J0.
X12.311 Y190.576 Z-4.175 I0.038 J0.395
X13.089 Y190.424 I0.389 J-0.076
X12.311 Y190.576 I-0.389 J0.076
X12.543 Y190.733 I0.195 J-0.038
G1 X12.855 Y190.672
G0 Z6.
X37.981 Y190.698
Z3.865
G1 Z2.5 F1600.
X38.298
G2 X38.497 Y190.5 I0. J-0.198
X37.703 Z2.438 I-0.397 J0.
X38.497 Z2.375 I0.397 J0.
X37.703 Z2.313 I-0.397 J0.
X38.497 Z2.251 I0.397 J0.
X37.703 Z2.188 I-0.397 J0.
X38.497 Z2.126 I0.397 J0.
X37.703 Z2.064 I-0.397 J0.
X38.497 Z2.001 I0.397 J0.
X37.703 Z1.939 I-0.397 J0.
X38.497 Z1.877 I0.397 J0.
X37.703 Z1.814 I-0.397 J0.
X38.497 Z1.752 I0.397 J0.
X37.703 Z1.689 I-0.397 J0.
X38.497 Z1.627 I0.397 J0.
X37.703 Z1.565 I-0.397 J0.
X38.497 Z1.502 I0.397 J0.
X37.703 Z1.44 I-0.397 J0.
X38.497 Z1.378 I0.397 J0.
X37.703 Z1.315 I-0.397 J0.
X38.497 Z1.253 I0.397 J0.
X37.703 Z1.191 I-0.397 J0.
X38.497 Z1.128 I0.397 J0.
X37.703 Z1.066 I-0.397 J0.
X38.497 Z1.004 I0.397 J0.
X37.703 Z0.941 I-0.397 J0.
X38.497 Z0.879 I0.397 J0.
X37.703 Z0.817 I-0.397 J0.
X38.497 Z0.754 I0.397 J0.
X37.703 Z0.692 I-0.397 J0.
X38.497 Z0.63 I0.397 J0.
X37.703 Z0.567 I-0.397 J0.
X38.497 Z0.505 I0.397 J0.
X37.703 Z0.443 I-0.397 J0.
X38.497 Z0.38 I0.397 J0.
X37.703 Z0.318 I-0.397 J0.
X38.497 Z0.255 I0.397 J0.
X37.703 Z0.193 I-0.397 J0.
X38.497 Z0.131 I0.397 J0.
X37.703 Z0.068 I-0.397 J0.
X38.497 Z0.006 I0.397 J0.
X37.703 Z-0.056 I-0.397 J0.
X38.497 Z-0.119 I0.397 J0.
X37.703 Z-0.181 I-0.397 J0.
X38.497 Z-0.243 I0.397 J0.
X37.703 Z-0.306 I-0.397 J0.
X38.497 Z-0.368 I0.397 J0.
X37.703 Z-0.43 I-0.397 J0.
X38.497 Z-0.493 I0.397 J0.
X37.703 Z-0.555 I-0.397 J0.
X38.497 Z-0.617 I0.397 J0.
X37.703 Z-0.68 I-0.397 J0.
X38.497 Z-0.742 I0.397 J0.
X37.703 Z-0.804 I-0.397 J0.
X38.497 Z-0.867 I0.397 J0.
X37.703 Z-0.929 I-0.397 J0.
X38.497 Z-0.991 I0.397 J0.
X37.703 Z-1.054 I-0.397 J0.
X38.497 Z-1.116 I0.397 J0.
X37.703 Z-1.178 I-0.397 J0.
X38.497 Z-1.241 I0.397 J0.
X37.703 Z-1.303 I-0.397 J0.
X38.497 Z-1.366 I0.397 J0.
X37.703 Z-1.428 I-0.397 J0.
X38.497 Z-1.49 I0.397 J0.
X37.703 Z-1.553 I-0.397 J0.
X38.497 Z-1.615 I0.397 J0.
X37.703 Z-1.677 I-0.397 J0.
X38.497 Z-1.74 I0.397 J0.
X37.703 Z-1.802 I-0.397 J0.
X38.497 Z-1.864 I0.397 J0.
X37.703 Z-1.927 I-0.397 J0.
X38.497 Z-1.989 I0.397 J0.
X37.703 Z-2.051 I-0.397 J0.
X38.497 Z-2.114 I0.397 J0.
X37.703 Z-2.176 I-0.397 J0.
X38.497 Z-2.238 I0.397 J0.
X37.703 Z-2.301 I-0.397 J0.
X38.497 Z-2.363 I0.397 J0.
X37.703 Z-2.425 I-0.397 J0.
X38.497 Z-2.488 I0.397 J0.
X37.703 Z-2.55 I-0.397 J0.
X38.497 Z-2.612 I0.397 J0.
X37.703 Z-2.675 I-0.397 J0.
X38.497 Z-2.737 I0.397 J0.
X37.703 Z-2.8 I-0.397 J0.
X38.497 Z-2.862 I0.397 J0.
X37.703 Z-2.924 I-0.397 J0.
X38.497 Z-2.987 I0.397 J0.
X37.703 Z-3.049 I-0.397 J0.
X38.497 Z-3.111 I0.397 J0.
X37.703 Z-3.174 I-0.397 J0.
X38.497 Z-3.236 I0.397 J0.
X37.703 Z-3.298 I-0.397 J0.
X38.497 Z-3.361 I0.397 J0.
X37.703 Z-3.423 I-0.397 J0.
X38.497 Z-3.485 I0.397 J0.
X37.703 Z-3.548 I-0.397 J0.
X38.497 Z-3.61 I0.397 J0.
X37.703 Z-3.672 I-0.397 J0.
X38.497 Z-3.735 I0.397 J0.
X37.703 Z-3.797 I-0.397 J0.
X38.497 Z-3.859 I0.397 J0.
X37.703 Z-3.922 I-0.397 J0.
X38.497 Z-3.984 I0.397 J0.
X37.703 Z-4.046 I-0.397 J0.
X38.497 Z-4.109 I0.397 J0.
X38.062 Y190.105 Z-4.142 I-0.397 J0.
X37.711 Y190.576 Z-4.175 I0.038 J0.395
X38.489 Y190.424 I0.389 J-0.076
X37.711 Y190.576 I-0.389 J0.076
X37.943 Y190.733 I0.195 J-0.038
G1 X38.255 Y190.672
G0 Z6.
X37.981 Y216.098
Z3.865
G1 Z2.5 F1600.
X38.298
G2 X38.497 Y215.9 I0. J-0.198
X37.703 Z2.438 I-0.397 J0.
X38.497 Z2.375 I0.397 J0.
X37.703 Z2.313 I-0.397 J0.
X38.497 Z2.251 I0.397 J0.
X37.703 Z2.188 I-0.397 J0.
X38.497 Z2.126 I0.397 J0.
X37.703 Z2.064 I-0.397 J0.
X38.497 Z2.001 I0.397 J0.
X37.703 Z1.939 I-0.397 J0.
X38.497 Z1.877 I0.397 J0.
X37.703 Z1.814 I-0.397 J0.
X38.497 Z1.752 I0.397 J0.
X37.703 Z1.689 I-0.397 J0.
X38.497 Z1.627 I0.397 J0.
X37.703 Z1.565 I-0.397 J0.
X38.497 Z1.502 I0.397 J0.
X37.703 Z1.44 I-0.397 J0.
X38.497 Z1.378 I0.397 J0.
X37.703 Z1.315 I-0.397 J0.
X38.497 Z1.253 I0.397 J0.
X37.703 Z1.191 I-0.397 J0.
X38.497 Z1.128 I0.397 J0.
X37.703 Z1.066 I-0.397 J0.
X38.497 Z1.004 I0.397 J0.
X37.703 Z0.941 I-0.397 J0.
X38.497 Z0.879 I0.397 J0.
X37.703 Z0.817 I-0.397 J0.
X38.497 Z0.754 I0.397 J0.
X37.703 Z0.692 I-0.397 J0.
X38.497 Z0.63 I0.397 J0.
X37.703 Z0.567 I-0.397 J0.
X38.497 Z0.505 I0.397 J0.
X37.703 Z0.443 I-0.397 J0.
X38.497 Z0.38 I0.397 J0.
X37.703 Z0.318 I-0.397 J0.
X38.497 Z0.255 I0.397 J0.
X37.703 Z0.193 I-0.397 J0.
X38.497 Z0.131 I0.397 J0.
X37.703 Z0.068 I-0.397 J0.
X38.497 Z0.006 I0.397 J0.
X37.703 Z-0.056 I-0.397 J0.
X38.497 Z-0.119 I0.397 J0.
X37.703 Z-0.181 I-0.397 J0.
X38.497 Z-0.243 I0.397 J0.
X37.703 Z-0.306 I-0.397 J0.
X38.497 Z-0.368 I0.397 J0.
X37.703 Z-0.43 I-0.397 J0.
X38.497 Z-0.493 I0.397 J0.
X37.703 Z-0.555 I-0.397 J0.
X38.497 Z-0.617 I0.397 J0.
X37.703 Z-0.68 I-0.397 J0.
X38.497 Z-0.742 I0.397 J0.
X37.703 Z-0.804 I-0.397 J0.
X38.497 Z-0.867 I0.397 J0.
X37.703 Z-0.929 I-0.397 J0.
X38.497 Z-0.991 I0.397 J0.
X37.703 Z-1.054 I-0.397 J0.
X38.497 Z-1.116 I0.397 J0.
X37.703 Z-1.178 I-0.397 J0.
X38.497 Z-1.241 I0.397 J0.
X37.703 Z-1.303 I-0.397 J0.
X38.497 Z-1.366 I0.397 J0.
X37.703 Z-1.428 I-0.397 J0.
X38.497 Z-1.49 I0.397 J0.
X37.703 Z-1.553 I-0.397 J0.
X38.497 Z-1.615 I0.397 J0.
X37.703 Z-1.677 I-0.397 J0.
X38.497 Z-1.74 I0.397 J0.
X37.703 Z-1.802 I-0.397 J0.
X38.497 Z-1.864 I0.397 J0.
X37.703 Z-1.927 I-0.397 J0.
X38.497 Z-1.989 I0.397 J0.
X37.703 Z-2.051 I-0.397 J0.
X38.497 Z-2.114 I0.397 J0.
X37.703 Z-2.176 I-0.397 J0.
X38.497 Z-2.238 I0.397 J0.
X37.703 Z-2.301 I-0.397 J0.
X38.497 Z-2.363 I0.397 J0.
X37.703 Z-2.425 I-0.397 J0.
X38.497 Z-2.488 I0.397 J0.
X37.703 Z-2.55 I-0.397 J0.
X38.497 Z-2.612 I0.397 J0.
X37.703 Z-2.675 I-0.397 J0.
X38.497 Z-2.737 I0.397 J0.
X37.703 Z-2.8 I-0.397 J0.
X38.497 Z-2.862 I0.397 J0.
X37.703 Z-2.924 I-0.397 J0.
X38.497 Z-2.987 I0.397 J0.
X37.703 Z-3.049 I-0.397 J0.
X38.497 Z-3.111 I0.397 J0.
X37.703 Z-3.174 I-0.397 J0.
X38.497 Z-3.236 I0.397 J0.
X37.703 Z-3.298 I-0.397 J0.
X38.497 Z-3.361 I0.397 J0.
X37.703 Z-3.423 I-0.397 J0.
X38.497 Z-3.485 I0.397 J0.
X37.703 Z-3.548 I-0.397 J0.
X38.497 Z-3.61 I0.397 J0.
X37.703 Z-3.672 I-0.397 J0.
X38.497 Z-3.735 I0.397 J0.
X37.703 Z-3.797 I-0.397 J0.
X38.497 Z-3.859 I0.397 J0.
X37.703 Z-3.922 I-0.397 J0.
X38.497 Z-3.984 I0.397 J0.
X37.703 Z-4.046 I-0.397 J0.
X38.497 Z-4.109 I0.397 J0.
X38.062 Y215.505 Z-4.142 I-0.397 J0.
X37.711 Y215.976 Z-4.175 I0.038 J0.395
X38.489 Y215.824 I0.389 J-0.076
X37.711 Y215.976 I-0.389 J0.076
X37.943 Y216.133 I0.195 J-0.038
G1 X38.255 Y216.072
G0 Z6.
X12.581 Y216.098
Z3.865
G1 Z2.5 F1600.
X12.898
G2 X13.097 Y215.9 I0. J-0.198
X12.303 Z2.438 I-0.397 J0.
X13.097 Z2.375 I0.397 J0.
X12.303 Z2.313 I-0.397 J0.
X13.097 Z2.251 I0.397 J0.
X12.303 Z2.188 I-0.397 J0.
X13.097 Z2.126 I0.397 J0.
X12.303 Z2.064 I-0.397 J0.
X13.097 Z2.001 I0.397 J0.
X12.303 Z1.939 I-0.397 J0.
X13.097 Z1.877 I0.397 J0.
X12.303 Z1.814 I-0.397 J0.
X13.097 Z1.752 I0.397 J0.
X12.303 Z1.689 I-0.397 J0.
X13.097 Z1.627 I0.397 J0.
X12.303 Z1.565 I-0.397 J0.
X13.097 Z1.502 I0.397 J0.
X12.303 Z1.44 I-0.397 J0.
X13.097 Z1.378 I0.397 J0.
X12.303 Z1.315 I-0.397 J0.
X13.097 Z1.253 I0.397 J0.
X12.303 Z1.191 I-0.397 J0.
X13.097 Z1.128 I0.397 J0.
X12.303 Z1.066 I-0.397 J0.
X13.097 Z1.004 I0.397 J0.
X12.303 Z0.941 I-0.397 J0.
X13.097 Z0.879 I0.397 J0.
X12.303 Z0.817 I-0.397 J0.
X13.097 Z0.754 I0.397 J0.
X12.303 Z0.692 I-0.397 J0.
X13.097 Z0.63 I0.397 J0.
X12.303 Z0.567 I-0.397 J0.
X13.097 Z0.505 I0.397 J0.
X12.303 Z0.443 I-0.397 J0.
X13.097 Z0.38 I0.397 J0.
X12.303 Z0.318 I-0.397 J0.
X13.097 Z0.255 I0.397 J0.
X12.303 Z0.193 I-0.397 J0.
X13.097 Z0.131 I0.397 J0.
X12.303 Z0.068 I-0.397 J0.
X13.097 Z0.006 I0.397 J0.
X12.303 Z-0.056 I-0.397 J0.
X13.097 Z-0.119 I0.397 J0.
X12.303 Z-0.181 I-0.397 J0.
X13.097 Z-0.243 I0.397 J0.
X12.303 Z-0.306 I-0.397 J0.
X13.097 Z-0.368 I0.397 J0.
X12.303 Z-0.43 I-0.397 J0.
X13.097 Z-0.493 I0.397 J0.
X12.303 Z-0.555 I-0.397 J0.
X13.097 Z-0.617 I0.397 J0.
X12.303 Z-0.68 I-0.397 J0.
X13.097 Z-0.742 I0.397 J0.
X12.303 Z-0.804 I-0.397 J0.
X13.097 Z-0.867 I0.397 J0.
X12.303 Z-0.929 I-0.397 J0.
X13.097 Z-0.991 I0.397 J0.
X12.303 Z-1.054 I-0.397 J0.
X13.097 Z-1.116 I0.397 J0.
X12.303 Z-1.178 I-0.397 J0.
X13.097 Z-1.241 I0.397 J0.
X12.303 Z-1.303 I-0.397 J0.
X13.097 Z-1.366 I0.397 J0.
X12.303 Z-1.428 I-0.397 J0.
X13.097 Z-1.49 I0.397 J0.
X12.303 Z-1.553 I-0.397 J0.
X13.097 Z-1.615 I0.397 J0.
X12.303 Z-1.677 I-0.397 J0.
X13.097 Z-1.74 I0.397 J0.
X12.303 Z-1.802 I-0.397 J0.
X13.097 Z-1.864 I0.397 J0.
X12.303 Z-1.927 I-0.397 J0.
X13.097 Z-1.989 I0.397 J0.
X12.303 Z-2.051 I-0.397 J0.
X13.097 Z-2.114 I0.397 J0.
X12.303 Z-2.176 I-0.397 J0.
X13.097 Z-2.238 I0.397 J0.
X12.303 Z-2.301 I-0.397 J0.
X13.097 Z-2.363 I0.397 J0.
X12.303 Z-2.425 I-0.397 J0.
X13.097 Z-2.488 I0.397 J0.
X12.303 Z-2.55 I-0.397 J0.
X13.097 Z-2.612 I0.397 J0.
X12.303 Z-2.675 I-0.397 J0.
X13.097 Z-2.737 I0.397 J0.
X12.303 Z-2.8 I-0.397 J0.
X13.097 Z-2.862 I0.397 J0.
X12.303 Z-2.924 I-0.397 J0.
X13.097 Z-2.987 I0.397 J0.
X12.303 Z-3.049 I-0.397 J0.
X13.097 Z-3.111 I0.397 J0.
X12.303 Z-3.174 I-0.397 J0.
X13.097 Z-3.236 I0.397 J0.
X12.303 Z-3.298 I-0.397 J0.
X13.097 Z-3.361 I0.397 J0.
X12.303 Z-3.423 I-0.397 J0.
X13.097 Z-3.485 I0.397 J0.
X12.303 Z-3.548 I-0.397 J0.
X13.097 Z-3.61 I0.397 J0.
X12.303 Z-3.672 I-0.397 J0.
X13.097 Z-3.735 I0.397 J0.
X12.303 Z-3.797 I-0.397 J0.
X13.097 Z-3.859 I0.397 J0.
X12.303 Z-3.922 I-0.397 J0.
X13.097 Z-3.984 I0.397 J0.
X12.303 Z-4.046 I-0.397 J0.
X13.097 Z-4.109 I0.397 J0.
X12.662 Y215.505 Z-4.142 I-0.397 J0.
X12.311 Y215.976 Z-4.175 I0.038 J0.395
X13.089 Y215.824 I0.389 J-0.076
X12.311 Y215.976 I-0.389 J0.076
X12.543 Y216.133 I0.195 J-0.038
G1 X12.855 Y216.072
G0 Z16.
M5
G0 Z45
G0 X0 Y0

M9
M30
