(1001)
(T1  D=6.35 CR=0. - ZMIN=-4.175 - FLAT END MILL)
G90 G94 G91.1 G40 G49 G17
G21
G0 Z15

(2D POCKET2)
M5
T1 M6
S15000 M3
G54
M8
G0 X10.216 Y90.865
G43 Z16. H1
Z6.
G1 Z4.135 F1600.
X10.199 Y90.89 Z3.941 F800.
X10.151 Y90.964 Z3.765
X10.08 Y91.082 Z3.625
X9.998 Y91.236 Z3.534
X9.918 Y91.412 Z3.5
G2 X15.482 Y93.742 Z3.335 I2.782 J1.165
X9.918 Y91.412 Z3.169 I-2.782 J-1.165
X15.482 Y93.742 Z3.004 I2.782 J1.165
X9.918 Y91.412 Z2.838 I-2.782 J-1.165
X15.482 Y93.742 Z2.673 I2.782 J1.165
X9.918 Y91.412 Z2.508 I-2.782 J-1.165
X15.482 Y93.742 Z2.342 I2.782 J1.165
X9.918 Y91.412 Z2.177 I-2.782 J-1.165
X15.482 Y93.742 Z2.011 I2.782 J1.165
X9.918 Y91.412 Z1.846 I-2.782 J-1.165
X15.482 Y93.742 Z1.681 I2.782 J1.165
X9.918 Y91.412 Z1.515 I-2.782 J-1.165
X15.482 Y93.742 Z1.35 I2.782 J1.165
X9.918 Y91.412 Z1.184 I-2.782 J-1.165
X15.482 Y93.742 Z1.019 I2.782 J1.165
X9.918 Y91.412 Z0.854 I-2.782 J-1.165
X12.7 Y95.593 Z0.75 I2.782 J1.165
G1 X13.518 F1600.
G2 X13.837 Y95.274 I0. J-0.319
G1 Y63.476
G2 X13.518 Y63.156 I-0.319 J0.
G1 X11.882
G2 X11.563 Y63.476 I0. J0.319
G1 Y95.274
G2 X11.882 Y95.593 I0.319 J0.
G1 X12.7
G3 X15.652 Y97.447 I0. J3.277
G2 X19.05 Y96.671 I1.61 J-0.776
G1 Y61.119
G2 X15.875 Y57.944 I-3.175 J0.
G1 X9.525
G2 X6.35 Y61.119 I0. J3.175
G1 Y97.631
G2 X9.525 Y100.806 I3.175 J0.
G1 X15.875
G2 X19.05 Y97.631 I0. J-3.175
G1 Y96.671
G2 X18.373 Y94.766 Z0.724 I-3.016 J0. F800.
G1 X15.039 Y90.672 Z0.656
G2 X10.361 Y94.482 Z0.534 I-2.339 J1.905
X12.7 Y95.593 Z0.5 I2.339 J-1.905
G1 X13.518 F1600.
G2 X13.837 Y95.274 I0. J-0.319
G1 Y63.476
G2 X13.518 Y63.156 I-0.319 J0.
G1 X11.882
G2 X11.563 Y63.476 I0. J0.319
G1 Y95.274
G2 X11.882 Y95.593 I0.319 J0.
G1 X12.7
G3 X15.652 Y97.447 I0. J3.277
G2 X19.05 Y96.671 I1.61 J-0.776
G1 Y61.119
G2 X15.875 Y57.944 I-3.175 J0.
G1 X9.525
G2 X6.35 Y61.119 I0. J3.175
G1 Y97.631
G2 X9.525 Y100.806 I3.175 J0.
G1 X15.875
G2 X19.05 Y97.631 I0. J-3.175
G1 Y96.671
G2 X18.373 Y94.766 Z0.474 I-3.016 J0. F800.
G1 X15.039 Y90.672 Z0.406
G2 X10.361 Y94.482 Z0.284 I-2.339 J1.905
X12.7 Y95.593 Z0.25 I2.339 J-1.905
G1 X13.518 F1600.
G2 X13.837 Y95.274 I0. J-0.319
G1 Y63.476
G2 X13.518 Y63.156 I-0.319 J0.
G1 X11.882
G2 X11.563 Y63.476 I0. J0.319
G1 Y95.274
G2 X11.882 Y95.593 I0.319 J0.
G1 X12.7
G3 X15.652 Y97.447 I0. J3.277
G2 X19.05 Y96.671 I1.61 J-0.776
G1 Y61.119
G2 X15.875 Y57.944 I-3.175 J0.
G1 X9.525
G2 X6.35 Y61.119 I0. J3.175
G1 Y97.631
G2 X9.525 Y100.806 I3.175 J0.
G1 X15.875
G2 X19.05 Y97.631 I0. J-3.175
G1 Y96.671
G2 X18.373 Y94.766 Z0.224 I-3.016 J0. F800.
G1 X15.039 Y90.672 Z0.156
G2 X10.361 Y94.482 Z0.034 I-2.339 J1.905
X12.7 Y95.593 Z0. I2.339 J-1.905
G1 X13.518 F1600.
G2 X13.837 Y95.274 I0. J-0.319
G1 Y63.476
G2 X13.518 Y63.156 I-0.319 J0.
G1 X11.882
G2 X11.563 Y63.476 I0. J0.319
G1 Y95.274
G2 X11.882 Y95.593 I0.319 J0.
G1 X12.7
G3 X15.652 Y97.447 I0. J3.277
G2 X19.05 Y96.671 I1.61 J-0.776
G1 Y61.119
G2 X15.875 Y57.944 I-3.175 J0.
G1 X9.525
G2 X6.35 Y61.119 I0. J3.175
G1 Y97.631
G2 X9.525 Y100.806 I3.175 J0.
G1 X15.875
G2 X19.05 Y97.631 I0. J-3.175
G1 Y96.671
G2 X18.373 Y94.766 Z-0.026 I-3.016 J0. F800.
G1 X15.039 Y90.672 Z-0.094
G2 X10.361 Y94.482 Z-0.216 I-2.339 J1.905
X12.7 Y95.593 Z-0.25 I2.339 J-1.905
G1 X13.518 F1600.
G2 X13.837 Y95.274 I0. J-0.319
G1 Y63.476
G2 X13.518 Y63.156 I-0.319 J0.
G1 X11.882
G2 X11.563 Y63.476 I0. J0.319
G1 Y95.274
G2 X11.882 Y95.593 I0.319 J0.
G1 X12.7
G3 X15.652 Y97.447 I0. J3.277
G2 X19.05 Y96.671 I1.61 J-0.776
G1 Y61.119
G2 X15.875 Y57.944 I-3.175 J0.
G1 X9.525
G2 X6.35 Y61.119 I0. J3.175
G1 Y97.631
G2 X9.525 Y100.806 I3.175 J0.
G1 X15.875
G2 X19.05 Y97.631 I0. J-3.175
G1 Y96.671
G2 X18.373 Y94.766 Z-0.276 I-3.016 J0. F800.
G1 X15.039 Y90.672 Z-0.344
G2 X10.361 Y94.482 Z-0.466 I-2.339 J1.905
X12.7 Y95.593 Z-0.5 I2.339 J-1.905
G1 X13.518 F1600.
G2 X13.837 Y95.274 I0. J-0.319
G1 Y63.476
G2 X13.518 Y63.156 I-0.319 J0.
G1 X11.882
G2 X11.563 Y63.476 I0. J0.319
G1 Y95.274
G2 X11.882 Y95.593 I0.319 J0.
G1 X12.7
G3 X15.652 Y97.447 I0. J3.277
G2 X19.05 Y96.671 I1.61 J-0.776
G1 Y61.119
G2 X15.875 Y57.944 I-3.175 J0.
G1 X9.525
G2 X6.35 Y61.119 I0. J3.175
G1 Y97.631
G2 X9.525 Y100.806 I3.175 J0.
G1 X15.875
G2 X19.05 Y97.631 I0. J-3.175
G1 Y96.671
G2 X18.373 Y94.766 Z-0.526 I-3.016 J0. F800.
G1 X15.039 Y90.672 Z-0.594
G2 X10.361 Y94.482 Z-0.716 I-2.339 J1.905
X12.7 Y95.593 Z-0.75 I2.339 J-1.905
G1 X13.518 F1600.
G2 X13.837 Y95.274 I0. J-0.319
G1 Y63.476
G2 X13.518 Y63.156 I-0.319 J0.
G1 X11.882
G2 X11.563 Y63.476 I0. J0.319
G1 Y95.274
G2 X11.882 Y95.593 I0.319 J0.
G1 X12.7
G3 X15.652 Y97.447 I0. J3.277
G2 X19.05 Y96.671 I1.61 J-0.776
G1 Y61.119
G2 X15.875 Y57.944 I-3.175 J0.
G1 X9.525
G2 X6.35 Y61.119 I0. J3.175
G1 Y97.631
G2 X9.525 Y100.806 I3.175 J0.
G1 X15.875
G2 X19.05 Y97.631 I0. J-3.175
G1 Y96.671
G2 X18.373 Y94.766 Z-0.776 I-3.016 J0. F800.
G1 X15.039 Y90.672 Z-0.844
G2 X10.361 Y94.482 Z-0.966 I-2.339 J1.905
X12.7 Y95.593 Z-1. I2.339 J-1.905
G1 X13.518 F1600.
G2 X13.837 Y95.274 I0. J-0.319
G1 Y63.476
G2 X13.518 Y63.156 I-0.319 J0.
G1 X11.882
G2 X11.563 Y63.476 I0. J0.319
G1 Y95.274
G2 X11.882 Y95.593 I0.319 J0.
G1 X12.7
G3 X15.652 Y97.447 I0. J3.277
G2 X19.05 Y96.671 I1.61 J-0.776
G1 Y61.119
G2 X15.875 Y57.944 I-3.175 J0.
G1 X9.525
G2 X6.35 Y61.119 I0. J3.175
G1 Y97.631
G2 X9.525 Y100.806 I3.175 J0.
G1 X15.875
G2 X19.05 Y97.631 I0. J-3.175
G1 Y96.671
G2 X18.373 Y94.766 Z-1.026 I-3.016 J0. F800.
G1 X15.039 Y90.672 Z-1.094
G2 X10.361 Y94.482 Z-1.216 I-2.339 J1.905
X12.7 Y95.593 Z-1.25 I2.339 J-1.905
G1 X13.518 F1600.
G2 X13.837 Y95.274 I0. J-0.319
G1 Y63.476
G2 X13.518 Y63.156 I-0.319 J0.
G1 X11.882
G2 X11.563 Y63.476 I0. J0.319
G1 Y95.274
G2 X11.882 Y95.593 I0.319 J0.
G1 X12.7
G3 X15.652 Y97.447 I0. J3.277
G2 X19.05 Y96.671 I1.61 J-0.776
G1 Y61.119
G2 X15.875 Y57.944 I-3.175 J0.
G1 X9.525
G2 X6.35 Y61.119 I0. J3.175
G1 Y97.631
G2 X9.525 Y100.806 I3.175 J0.
G1 X15.875
G2 X19.05 Y97.631 I0. J-3.175
G1 Y96.671
G2 X18.373 Y94.766 Z-1.276 I-3.016 J0. F800.
G1 X15.039 Y90.672 Z-1.344
G2 X10.361 Y94.482 Z-1.466 I-2.339 J1.905
X12.7 Y95.593 Z-1.5 I2.339 J-1.905
G1 X13.518 F1600.
G2 X13.837 Y95.274 I0. J-0.319
G1 Y63.476
G2 X13.518 Y63.156 I-0.319 J0.
G1 X11.882
G2 X11.563 Y63.476 I0. J0.319
G1 Y95.274
G2 X11.882 Y95.593 I0.319 J0.
G1 X12.7
G3 X15.652 Y97.447 I0. J3.277
G2 X19.05 Y96.671 I1.61 J-0.776
G1 Y61.119
G2 X15.875 Y57.944 I-3.175 J0.
G1 X9.525
G2 X6.35 Y61.119 I0. J3.175
G1 Y97.631
G2 X9.525 Y100.806 I3.175 J0.
G1 X15.875
G2 X19.05 Y97.631 I0. J-3.175
G1 Y96.671
G2 X18.373 Y94.766 Z-1.526 I-3.016 J0. F800.
G1 X15.039 Y90.672 Z-1.594
G2 X10.361 Y94.482 Z-1.716 I-2.339 J1.905
X12.7 Y95.593 Z-1.75 I2.339 J-1.905
G1 X13.518 F1600.
G2 X13.837 Y95.274 I0. J-0.319
G1 Y63.476
G2 X13.518 Y63.156 I-0.319 J0.
G1 X11.882
G2 X11.563 Y63.476 I0. J0.319
G1 Y95.274
G2 X11.882 Y95.593 I0.319 J0.
G1 X12.7
G3 X15.652 Y97.447 I0. J3.277
G2 X19.05 Y96.671 I1.61 J-0.776
G1 Y61.119
G2 X15.875 Y57.944 I-3.175 J0.
G1 X9.525
G2 X6.35 Y61.119 I0. J3.175
G1 Y97.631
G2 X9.525 Y100.806 I3.175 J0.
G1 X15.875
G2 X19.05 Y97.631 I0. J-3.175
G1 Y96.671
G2 X18.373 Y94.766 Z-1.776 I-3.016 J0. F800.
G1 X15.039 Y90.672 Z-1.844
G2 X10.361 Y94.482 Z-1.966 I-2.339 J1.905
X12.7 Y95.593 Z-2. I2.339 J-1.905
G1 X13.518 F1600.
G2 X13.837 Y95.274 I0. J-0.319
G1 Y63.476
G2 X13.518 Y63.156 I-0.319 J0.
G1 X11.882
G2 X11.563 Y63.476 I0. J0.319
G1 Y95.274
G2 X11.882 Y95.593 I0.319 J0.
G1 X12.7
G3 X15.652 Y97.447 I0. J3.277
G2 X19.05 Y96.671 I1.61 J-0.776
G1 Y61.119
G2 X15.875 Y57.944 I-3.175 J0.
G1 X9.525
G2 X6.35 Y61.119 I0. J3.175
G1 Y97.631
G2 X9.525 Y100.806 I3.175 J0.
G1 X15.875
G2 X19.05 Y97.631 I0. J-3.175
G1 Y96.671
G2 X18.373 Y94.766 Z-2.026 I-3.016 J0. F800.
G1 X15.039 Y90.672 Z-2.094
G2 X10.361 Y94.482 Z-2.216 I-2.339 J1.905
X12.7 Y95.593 Z-2.25 I2.339 J-1.905
G1 X13.518 F1600.
G2 X13.837 Y95.274 I0. J-0.319
G1 Y63.476
G2 X13.518 Y63.156 I-0.319 J0.
G1 X11.882
G2 X11.563 Y63.476 I0. J0.319
G1 Y95.274
G2 X11.882 Y95.593 I0.319 J0.
G1 X12.7
G3 X15.652 Y97.447 I0. J3.277
G2 X19.05 Y96.671 I1.61 J-0.776
G1 Y61.119
G2 X15.875 Y57.944 I-3.175 J0.
G1 X9.525
G2 X6.35 Y61.119 I0. J3.175
G1 Y97.631
G2 X9.525 Y100.806 I3.175 J0.
G1 X15.875
G2 X19.05 Y97.631 I0. J-3.175
G1 Y96.671
G2 X18.373 Y94.766 Z-2.276 I-3.016 J0. F800.
G1 X15.039 Y90.672 Z-2.344
G2 X10.361 Y94.482 Z-2.466 I-2.339 J1.905
X12.7 Y95.593 Z-2.5 I2.339 J-1.905
G1 X13.518 F1600.
G2 X13.837 Y95.274 I0. J-0.319
G1 Y63.476
G2 X13.518 Y63.156 I-0.319 J0.
G1 X11.882
G2 X11.563 Y63.476 I0. J0.319
G1 Y95.274
G2 X11.882 Y95.593 I0.319 J0.
G1 X12.7
G3 X15.652 Y97.447 I0. J3.277
G2 X19.05 Y96.671 I1.61 J-0.776
G1 Y61.119
G2 X15.875 Y57.944 I-3.175 J0.
G1 X9.525
G2 X6.35 Y61.119 I0. J3.175
G1 Y97.631
G2 X9.525 Y100.806 I3.175 J0.
G1 X15.875
G2 X19.05 Y97.631 I0. J-3.175
G1 Y96.671
G2 X18.373 Y94.766 Z-2.526 I-3.016 J0. F800.
G1 X15.039 Y90.672 Z-2.594
G2 X10.361 Y94.482 Z-2.716 I-2.339 J1.905
X12.7 Y95.593 Z-2.75 I2.339 J-1.905
G1 X13.518 F1600.
G2 X13.837 Y95.274 I0. J-0.319
G1 Y63.476
G2 X13.518 Y63.156 I-0.319 J0.
G1 X11.882
G2 X11.563 Y63.476 I0. J0.319
G1 Y95.274
G2 X11.882 Y95.593 I0.319 J0.
G1 X12.7
G3 X15.652 Y97.447 I0. J3.277
G2 X19.05 Y96.671 I1.61 J-0.776
G1 Y61.119
G2 X15.875 Y57.944 I-3.175 J0.
G1 X9.525
G2 X6.35 Y61.119 I0. J3.175
G1 Y97.631
G2 X9.525 Y100.806 I3.175 J0.
G1 X15.875
G2 X19.05 Y97.631 I0. J-3.175
G1 Y96.671
G2 X18.373 Y94.766 Z-2.776 I-3.016 J0. F800.
G1 X15.039 Y90.672 Z-2.844
G2 X10.361 Y94.482 Z-2.966 I-2.339 J1.905
X12.7 Y95.593 Z-3. I2.339 J-1.905
G1 X13.518 F1600.
G2 X13.837 Y95.274 I0. J-0.319
G1 Y63.476
G2 X13.518 Y63.156 I-0.319 J0.
G1 X11.882
G2 X11.563 Y63.476 I0. J0.319
G1 Y95.274
G2 X11.882 Y95.593 I0.319 J0.
G1 X12.7
G3 X15.652 Y97.447 I0. J3.277
G2 X19.05 Y96.671 I1.61 J-0.776
G1 Y61.119
G2 X15.875 Y57.944 I-3.175 J0.
G1 X9.525
G2 X6.35 Y61.119 I0. J3.175
G1 Y97.631
G2 X9.525 Y100.806 I3.175 J0.
G1 X15.875
G2 X19.05 Y97.631 I0. J-3.175
G1 Y96.671
G2 X18.373 Y94.766 Z-3.026 I-3.016 J0. F800.
G1 X15.039 Y90.672 Z-3.094
G2 X10.361 Y94.482 Z-3.216 I-2.339 J1.905
X12.7 Y95.593 Z-3.25 I2.339 J-1.905
G1 X13.518 F1600.
G2 X13.837 Y95.274 I0. J-0.319
G1 Y63.476
G2 X13.518 Y63.156 I-0.319 J0.
G1 X11.882
G2 X11.563 Y63.476 I0. J0.319
G1 Y95.274
G2 X11.882 Y95.593 I0.319 J0.
G1 X12.7
G3 X15.652 Y97.447 I0. J3.277
G2 X19.05 Y96.671 I1.61 J-0.776
G1 Y61.119
G2 X15.875 Y57.944 I-3.175 J0.
G1 X9.525
G2 X6.35 Y61.119 I0. J3.175
G1 Y97.631
G2 X9.525 Y100.806 I3.175 J0.
G1 X15.875
G2 X19.05 Y97.631 I0. J-3.175
G1 Y96.671
G2 X18.373 Y94.766 Z-3.276 I-3.016 J0. F800.
G1 X15.039 Y90.672 Z-3.344
G2 X10.361 Y94.482 Z-3.466 I-2.339 J1.905
X12.7 Y95.593 Z-3.5 I2.339 J-1.905
G1 X13.518 F1600.
G2 X13.837 Y95.274 I0. J-0.319
G1 Y63.476
G2 X13.518 Y63.156 I-0.319 J0.
G1 X11.882
G2 X11.563 Y63.476 I0. J0.319
G1 Y95.274
G2 X11.882 Y95.593 I0.319 J0.
G1 X12.7
G3 X15.652 Y97.447 I0. J3.277
G2 X19.05 Y96.671 I1.61 J-0.776
G1 Y61.119
G2 X15.875 Y57.944 I-3.175 J0.
G1 X9.525
G2 X6.35 Y61.119 I0. J3.175
G1 Y97.631
G2 X9.525 Y100.806 I3.175 J0.
G1 X15.875
G2 X19.05 Y97.631 I0. J-3.175
G1 Y96.671
G2 X18.373 Y94.766 Z-3.526 I-3.016 J0. F800.
G1 X15.039 Y90.672 Z-3.594
G2 X10.361 Y94.482 Z-3.716 I-2.339 J1.905
X12.7 Y95.593 Z-3.75 I2.339 J-1.905
G1 X13.518 F1600.
G2 X13.837 Y95.274 I0. J-0.319
G1 Y63.476
G2 X13.518 Y63.156 I-0.319 J0.
G1 X11.882
G2 X11.563 Y63.476 I0. J0.319
G1 Y95.274
G2 X11.882 Y95.593 I0.319 J0.
G1 X12.7
G3 X15.652 Y97.447 I0. J3.277
G2 X19.05 Y96.671 I1.61 J-0.776
G1 Y61.119
G2 X15.875 Y57.944 I-3.175 J0.
G1 X9.525
G2 X6.35 Y61.119 I0. J3.175
G1 Y97.631
G2 X9.525 Y100.806 I3.175 J0.
G1 X15.875
G2 X19.05 Y97.631 I0. J-3.175
G1 Y96.671
G2 X18.373 Y94.766 Z-3.776 I-3.016 J0. F800.
G1 X15.039 Y90.672 Z-3.844
G2 X10.361 Y94.482 Z-3.966 I-2.339 J1.905
X12.7 Y95.593 Z-4. I2.339 J-1.905
G1 X13.518 F1600.
G2 X13.837 Y95.274 I0. J-0.319
G1 Y63.476
G2 X13.518 Y63.156 I-0.319 J0.
G1 X11.882
G2 X11.563 Y63.476 I0. J0.319
G1 Y95.274
G2 X11.882 Y95.593 I0.319 J0.
G1 X12.7
G3 X15.652 Y97.447 I0. J3.277
G2 X19.05 Y96.671 I1.61 J-0.776
G1 Y61.119
G2 X15.875 Y57.944 I-3.175 J0.
G1 X9.525
G2 X6.35 Y61.119 I0. J3.175
G1 Y97.631
G2 X9.525 Y100.806 I3.175 J0.
G1 X15.875
G2 X19.05 Y97.631 I0. J-3.175
G1 Y96.671
G2 X18.373 Y94.766 Z-4.019 I-3.016 J0. F800.
G1 X15.039 Y90.672 Z-4.066
G2 X10.361 Y94.482 Z-4.151 I-2.339 J1.905
X12.7 Y95.593 Z-4.175 I2.339 J-1.905
G1 X13.518 F1600.
G2 X13.837 Y95.274 I0. J-0.319
G1 Y63.476
G2 X13.518 Y63.156 I-0.319 J0.
G1 X11.882
G2 X11.563 Y63.476 I0. J0.319
G1 Y95.274
G2 X11.882 Y95.593 I0.319 J0.
G1 X12.7
G3 X15.652 Y97.447 I0. J3.277
G2 X19.05 Y96.671 I1.61 J-0.776
G1 Y61.119
G2 X15.875 Y57.944 I-3.175 J0.
G1 X9.525
G2 X6.35 Y61.119 I0. J3.175
G1 Y97.631
G2 X9.525 Y100.806 I3.175 J0.
G1 X15.875
G2 X19.05 Y97.631 I0. J-3.175
G1 Y96.671
X19.042 Y96.573 Z-4.159 F1660.
X19.02 Y96.478 Z-4.144
X18.987 Y96.396 Z-4.099
X18.943 Y96.319 Z-4.054
X18.901 Y96.263 Z-3.983
X18.853 Y96.211 Z-3.913
X18.784 Y96.154 Z-3.736
X18.758 Y96.137 Z-3.54
G0 Z16.
M5
G0 Z15
G0 X0 Y0

M9
M30
