(CENTER SUPPORT SLOT )
(T1  D=6.35 CR=0. - ZMIN=-4.175 - FLAT END MILL)
G90 G94 G91.1 G40 G49 G17
G21
G0 Z10

(2D POCKET2 2)
M5
T1 M6
S15000 M3
G54
M8
G0 X16.291 Y139.009
G43 Z16. H1
Z5.
G1 Z3.135 F1600.
X16.266 Y139.026 Z2.941 F800.
X16.192 Y139.074 Z2.765
X16.074 Y139.145 Z2.625
X15.92 Y139.227 Z2.534
X15.744 Y139.307 Z2.5
G3 X13.414 Y133.743 Z2.335 I-1.165 J-2.782
X15.744 Y139.307 Z2.169 I1.165 J2.782
X13.414 Y133.743 Z2.004 I-1.165 J-2.782
X15.744 Y139.307 Z1.838 I1.165 J2.782
X13.414 Y133.743 Z1.673 I-1.165 J-2.782
X15.744 Y139.307 Z1.508 I1.165 J2.782
X13.414 Y133.743 Z1.342 I-1.165 J-2.782
X15.744 Y139.307 Z1.177 I1.165 J2.782
X13.414 Y133.743 Z1.011 I-1.165 J-2.782
X15.744 Y139.307 Z0.846 I1.165 J2.782
X13.414 Y133.743 Z0.681 I-1.165 J-2.782
X15.744 Y139.307 Z0.515 I1.165 J2.782
X13.414 Y133.743 Z0.35 I-1.165 J-2.782
X15.744 Y139.307 Z0.184 I1.165 J2.782
X13.414 Y133.743 Z0.019 I-1.165 J-2.782
X15.744 Y139.307 Z-0.146 I1.165 J2.782
X11.563 Y136.525 Z-0.25 I-1.165 J-2.782
G1 Y135.707 F1600.
G3 X11.882 Y135.388 I0.319 J0.
G1 X13.518
G3 X13.837 Y135.707 I0. J0.319
G1 Y162.743
G3 X13.518 Y163.062 I-0.319 J0.
G1 X11.882
G3 X11.563 Y162.743 I0. J-0.319
G1 Y136.525
G2 X9.709 Y133.573 I-3.277 J0.
G3 X10.485 Y130.175 I0.776 J-1.61
G1 X15.875
G3 X19.05 Y133.35 I0. J3.175
G1 Y165.1
G3 X15.875 Y168.275 I-3.175 J0.
G1 X9.525
G3 X6.35 Y165.1 I0. J-3.175
G1 Y133.35
G3 X9.525 Y130.175 I3.175 J0.
G1 X10.485
G3 X12.39 Y130.852 Z-0.276 I0. J3.016 F800.
G1 X16.484 Y134.186 Z-0.344
G3 X12.674 Y138.864 Z-0.466 I-1.905 J2.339
X11.563 Y136.525 Z-0.5 I1.905 J-2.339
G1 Y135.707 F1600.
G3 X11.882 Y135.388 I0.319 J0.
G1 X13.518
G3 X13.837 Y135.707 I0. J0.319
G1 Y162.743
G3 X13.518 Y163.062 I-0.319 J0.
G1 X11.882
G3 X11.563 Y162.743 I0. J-0.319
G1 Y136.525
G2 X9.709 Y133.573 I-3.277 J0.
G3 X10.485 Y130.175 I0.776 J-1.61
G1 X15.875
G3 X19.05 Y133.35 I0. J3.175
G1 Y165.1
G3 X15.875 Y168.275 I-3.175 J0.
G1 X9.525
G3 X6.35 Y165.1 I0. J-3.175
G1 Y133.35
G3 X9.525 Y130.175 I3.175 J0.
G1 X10.485
G3 X12.39 Y130.852 Z-0.526 I0. J3.016 F800.
G1 X16.484 Y134.186 Z-0.594
G3 X12.674 Y138.864 Z-0.716 I-1.905 J2.339
X11.563 Y136.525 Z-0.75 I1.905 J-2.339
G1 Y135.707 F1600.
G3 X11.882 Y135.388 I0.319 J0.
G1 X13.518
G3 X13.837 Y135.707 I0. J0.319
G1 Y162.743
G3 X13.518 Y163.062 I-0.319 J0.
G1 X11.882
G3 X11.563 Y162.743 I0. J-0.319
G1 Y136.525
G2 X9.709 Y133.573 I-3.277 J0.
G3 X10.485 Y130.175 I0.776 J-1.61
G1 X15.875
G3 X19.05 Y133.35 I0. J3.175
G1 Y165.1
G3 X15.875 Y168.275 I-3.175 J0.
G1 X9.525
G3 X6.35 Y165.1 I0. J-3.175
G1 Y133.35
G3 X9.525 Y130.175 I3.175 J0.
G1 X10.485
G3 X12.39 Y130.852 Z-0.776 I0. J3.016 F800.
G1 X16.484 Y134.186 Z-0.844
G3 X12.674 Y138.864 Z-0.966 I-1.905 J2.339
X11.563 Y136.525 Z-1. I1.905 J-2.339
G1 Y135.707 F1600.
G3 X11.882 Y135.388 I0.319 J0.
G1 X13.518
G3 X13.837 Y135.707 I0. J0.319
G1 Y162.743
G3 X13.518 Y163.062 I-0.319 J0.
G1 X11.882
G3 X11.563 Y162.743 I0. J-0.319
G1 Y136.525
G2 X9.709 Y133.573 I-3.277 J0.
G3 X10.485 Y130.175 I0.776 J-1.61
G1 X15.875
G3 X19.05 Y133.35 I0. J3.175
G1 Y165.1
G3 X15.875 Y168.275 I-3.175 J0.
G1 X9.525
G3 X6.35 Y165.1 I0. J-3.175
G1 Y133.35
G3 X9.525 Y130.175 I3.175 J0.
G1 X10.485
G3 X12.39 Y130.852 Z-1.026 I0. J3.016 F800.
G1 X16.484 Y134.186 Z-1.094
G3 X12.674 Y138.864 Z-1.216 I-1.905 J2.339
X11.563 Y136.525 Z-1.25 I1.905 J-2.339
G1 Y135.707 F1600.
G3 X11.882 Y135.388 I0.319 J0.
G1 X13.518
G3 X13.837 Y135.707 I0. J0.319
G1 Y162.743
G3 X13.518 Y163.062 I-0.319 J0.
G1 X11.882
G3 X11.563 Y162.743 I0. J-0.319
G1 Y136.525
G2 X9.709 Y133.573 I-3.277 J0.
G3 X10.485 Y130.175 I0.776 J-1.61
G1 X15.875
G3 X19.05 Y133.35 I0. J3.175
G1 Y165.1
G3 X15.875 Y168.275 I-3.175 J0.
G1 X9.525
G3 X6.35 Y165.1 I0. J-3.175
G1 Y133.35
G3 X9.525 Y130.175 I3.175 J0.
G1 X10.485
G3 X12.39 Y130.852 Z-1.276 I0. J3.016 F800.
G1 X16.484 Y134.186 Z-1.344
G3 X12.674 Y138.864 Z-1.466 I-1.905 J2.339
X11.563 Y136.525 Z-1.5 I1.905 J-2.339
G1 Y135.707 F1600.
G3 X11.882 Y135.388 I0.319 J0.
G1 X13.518
G3 X13.837 Y135.707 I0. J0.319
G1 Y162.743
G3 X13.518 Y163.062 I-0.319 J0.
G1 X11.882
G3 X11.563 Y162.743 I0. J-0.319
G1 Y136.525
G2 X9.709 Y133.573 I-3.277 J0.
G3 X10.485 Y130.175 I0.776 J-1.61
G1 X15.875
G3 X19.05 Y133.35 I0. J3.175
G1 Y165.1
G3 X15.875 Y168.275 I-3.175 J0.
G1 X9.525
G3 X6.35 Y165.1 I0. J-3.175
G1 Y133.35
G3 X9.525 Y130.175 I3.175 J0.
G1 X10.485
G3 X12.39 Y130.852 Z-1.526 I0. J3.016 F800.
G1 X16.484 Y134.186 Z-1.594
G3 X12.674 Y138.864 Z-1.716 I-1.905 J2.339
X11.563 Y136.525 Z-1.75 I1.905 J-2.339
G1 Y135.707 F1600.
G3 X11.882 Y135.388 I0.319 J0.
G1 X13.518
G3 X13.837 Y135.707 I0. J0.319
G1 Y162.743
G3 X13.518 Y163.062 I-0.319 J0.
G1 X11.882
G3 X11.563 Y162.743 I0. J-0.319
G1 Y136.525
G2 X9.709 Y133.573 I-3.277 J0.
G3 X10.485 Y130.175 I0.776 J-1.61
G1 X15.875
G3 X19.05 Y133.35 I0. J3.175
G1 Y165.1
G3 X15.875 Y168.275 I-3.175 J0.
G1 X9.525
G3 X6.35 Y165.1 I0. J-3.175
G1 Y133.35
G3 X9.525 Y130.175 I3.175 J0.
G1 X10.485
G3 X12.39 Y130.852 Z-1.776 I0. J3.016 F800.
G1 X16.484 Y134.186 Z-1.844
G3 X12.674 Y138.864 Z-1.966 I-1.905 J2.339
X11.563 Y136.525 Z-2. I1.905 J-2.339
G1 Y135.707 F1600.
G3 X11.882 Y135.388 I0.319 J0.
G1 X13.518
G3 X13.837 Y135.707 I0. J0.319
G1 Y162.743
G3 X13.518 Y163.062 I-0.319 J0.
G1 X11.882
G3 X11.563 Y162.743 I0. J-0.319
G1 Y136.525
G2 X9.709 Y133.573 I-3.277 J0.
G3 X10.485 Y130.175 I0.776 J-1.61
G1 X15.875
G3 X19.05 Y133.35 I0. J3.175
G1 Y165.1
G3 X15.875 Y168.275 I-3.175 J0.
G1 X9.525
G3 X6.35 Y165.1 I0. J-3.175
G1 Y133.35
G3 X9.525 Y130.175 I3.175 J0.
G1 X10.485
G3 X12.39 Y130.852 Z-2.026 I0. J3.016 F800.
G1 X16.484 Y134.186 Z-2.094
G3 X12.674 Y138.864 Z-2.216 I-1.905 J2.339
X11.563 Y136.525 Z-2.25 I1.905 J-2.339
G1 Y135.707 F1600.
G3 X11.882 Y135.388 I0.319 J0.
G1 X13.518
G3 X13.837 Y135.707 I0. J0.319
G1 Y162.743
G3 X13.518 Y163.062 I-0.319 J0.
G1 X11.882
G3 X11.563 Y162.743 I0. J-0.319
G1 Y136.525
G2 X9.709 Y133.573 I-3.277 J0.
G3 X10.485 Y130.175 I0.776 J-1.61
G1 X15.875
G3 X19.05 Y133.35 I0. J3.175
G1 Y165.1
G3 X15.875 Y168.275 I-3.175 J0.
G1 X9.525
G3 X6.35 Y165.1 I0. J-3.175
G1 Y133.35
G3 X9.525 Y130.175 I3.175 J0.
G1 X10.485
G3 X12.39 Y130.852 Z-2.276 I0. J3.016 F800.
G1 X16.484 Y134.186 Z-2.344
G3 X12.674 Y138.864 Z-2.466 I-1.905 J2.339
X11.563 Y136.525 Z-2.5 I1.905 J-2.339
G1 Y135.707 F1600.
G3 X11.882 Y135.388 I0.319 J0.
G1 X13.518
G3 X13.837 Y135.707 I0. J0.319
G1 Y162.743
G3 X13.518 Y163.062 I-0.319 J0.
G1 X11.882
G3 X11.563 Y162.743 I0. J-0.319
G1 Y136.525
G2 X9.709 Y133.573 I-3.277 J0.
G3 X10.485 Y130.175 I0.776 J-1.61
G1 X15.875
G3 X19.05 Y133.35 I0. J3.175
G1 Y165.1
G3 X15.875 Y168.275 I-3.175 J0.
G1 X9.525
G3 X6.35 Y165.1 I0. J-3.175
G1 Y133.35
G3 X9.525 Y130.175 I3.175 J0.
G1 X10.485
G3 X12.39 Y130.852 Z-2.526 I0. J3.016 F800.
G1 X16.484 Y134.186 Z-2.594
G3 X12.674 Y138.864 Z-2.716 I-1.905 J2.339
X11.563 Y136.525 Z-2.75 I1.905 J-2.339
G1 Y135.707 F1600.
G3 X11.882 Y135.388 I0.319 J0.
G1 X13.518
G3 X13.837 Y135.707 I0. J0.319
G1 Y162.743
G3 X13.518 Y163.062 I-0.319 J0.
G1 X11.882
G3 X11.563 Y162.743 I0. J-0.319
G1 Y136.525
G2 X9.709 Y133.573 I-3.277 J0.
G3 X10.485 Y130.175 I0.776 J-1.61
G1 X15.875
G3 X19.05 Y133.35 I0. J3.175
G1 Y165.1
G3 X15.875 Y168.275 I-3.175 J0.
G1 X9.525
G3 X6.35 Y165.1 I0. J-3.175
G1 Y133.35
G3 X9.525 Y130.175 I3.175 J0.
G1 X10.485
G3 X12.39 Y130.852 Z-2.776 I0. J3.016 F800.
G1 X16.484 Y134.186 Z-2.844
G3 X12.674 Y138.864 Z-2.966 I-1.905 J2.339
X11.563 Y136.525 Z-3. I1.905 J-2.339
G1 Y135.707 F1600.
G3 X11.882 Y135.388 I0.319 J0.
G1 X13.518
G3 X13.837 Y135.707 I0. J0.319
G1 Y162.743
G3 X13.518 Y163.062 I-0.319 J0.
G1 X11.882
G3 X11.563 Y162.743 I0. J-0.319
G1 Y136.525
G2 X9.709 Y133.573 I-3.277 J0.
G3 X10.485 Y130.175 I0.776 J-1.61
G1 X15.875
G3 X19.05 Y133.35 I0. J3.175
G1 Y165.1
G3 X15.875 Y168.275 I-3.175 J0.
G1 X9.525
G3 X6.35 Y165.1 I0. J-3.175
G1 Y133.35
G3 X9.525 Y130.175 I3.175 J0.
G1 X10.485
G3 X12.39 Y130.852 Z-3.026 I0. J3.016 F800.
G1 X16.484 Y134.186 Z-3.094
G3 X12.674 Y138.864 Z-3.216 I-1.905 J2.339
X11.563 Y136.525 Z-3.25 I1.905 J-2.339
G1 Y135.707 F1600.
G3 X11.882 Y135.388 I0.319 J0.
G1 X13.518
G3 X13.837 Y135.707 I0. J0.319
G1 Y162.743
G3 X13.518 Y163.062 I-0.319 J0.
G1 X11.882
G3 X11.563 Y162.743 I0. J-0.319
G1 Y136.525
G2 X9.709 Y133.573 I-3.277 J0.
G3 X10.485 Y130.175 I0.776 J-1.61
G1 X15.875
G3 X19.05 Y133.35 I0. J3.175
G1 Y165.1
G3 X15.875 Y168.275 I-3.175 J0.
G1 X9.525
G3 X6.35 Y165.1 I0. J-3.175
G1 Y133.35
G3 X9.525 Y130.175 I3.175 J0.
G1 X10.485
G3 X12.39 Y130.852 Z-3.276 I0. J3.016 F800.
G1 X16.484 Y134.186 Z-3.344
G3 X12.674 Y138.864 Z-3.466 I-1.905 J2.339
X11.563 Y136.525 Z-3.5 I1.905 J-2.339
G1 Y135.707 F1600.
G3 X11.882 Y135.388 I0.319 J0.
G1 X13.518
G3 X13.837 Y135.707 I0. J0.319
G1 Y162.743
G3 X13.518 Y163.062 I-0.319 J0.
G1 X11.882
G3 X11.563 Y162.743 I0. J-0.319
G1 Y136.525
G2 X9.709 Y133.573 I-3.277 J0.
G3 X10.485 Y130.175 I0.776 J-1.61
G1 X15.875
G3 X19.05 Y133.35 I0. J3.175
G1 Y165.1
G3 X15.875 Y168.275 I-3.175 J0.
G1 X9.525
G3 X6.35 Y165.1 I0. J-3.175
G1 Y133.35
G3 X9.525 Y130.175 I3.175 J0.
G1 X10.485
G3 X12.39 Y130.852 Z-3.526 I0. J3.016 F800.
G1 X16.484 Y134.186 Z-3.594
G3 X12.674 Y138.864 Z-3.716 I-1.905 J2.339
X11.563 Y136.525 Z-3.75 I1.905 J-2.339
G1 Y135.707 F1600.
G3 X11.882 Y135.388 I0.319 J0.
G1 X13.518
G3 X13.837 Y135.707 I0. J0.319
G1 Y162.743
G3 X13.518 Y163.062 I-0.319 J0.
G1 X11.882
G3 X11.563 Y162.743 I0. J-0.319
G1 Y136.525
G2 X9.709 Y133.573 I-3.277 J0.
G3 X10.485 Y130.175 I0.776 J-1.61
G1 X15.875
G3 X19.05 Y133.35 I0. J3.175
G1 Y165.1
G3 X15.875 Y168.275 I-3.175 J0.
G1 X9.525
G3 X6.35 Y165.1 I0. J-3.175
G1 Y133.35
G3 X9.525 Y130.175 I3.175 J0.
G1 X10.485
G3 X12.39 Y130.852 Z-3.776 I0. J3.016 F800.
G1 X16.484 Y134.186 Z-3.844
G3 X12.674 Y138.864 Z-3.966 I-1.905 J2.339
X11.563 Y136.525 Z-4. I1.905 J-2.339
G1 Y135.707 F1600.
G3 X11.882 Y135.388 I0.319 J0.
G1 X13.518
G3 X13.837 Y135.707 I0. J0.319
G1 Y162.743
G3 X13.518 Y163.062 I-0.319 J0.
G1 X11.882
G3 X11.563 Y162.743 I0. J-0.319
G1 Y136.525
G2 X9.709 Y133.573 I-3.277 J0.
G3 X10.485 Y130.175 I0.776 J-1.61
G1 X15.875
G3 X19.05 Y133.35 I0. J3.175
G1 Y165.1
G3 X15.875 Y168.275 I-3.175 J0.
G1 X9.525
G3 X6.35 Y165.1 I0. J-3.175
G1 Y133.35
G3 X9.525 Y130.175 I3.175 J0.
G1 X10.485
G3 X12.39 Y130.852 Z-4.019 I0. J3.016 F800.
G1 X16.484 Y134.186 Z-4.066
G3 X12.674 Y138.864 Z-4.151 I-1.905 J2.339
X11.563 Y136.525 Z-4.175 I1.905 J-2.339
G1 Y135.707 F1600.
G3 X11.882 Y135.388 I0.319 J0.
G1 X13.518
G3 X13.837 Y135.707 I0. J0.319
G1 Y162.743
G3 X13.518 Y163.062 I-0.319 J0.
G1 X11.882
G3 X11.563 Y162.743 I0. J-0.319
G1 Y136.525
G2 X9.709 Y133.573 I-3.277 J0.
G3 X10.485 Y130.175 I0.776 J-1.61
G1 X15.875
G3 X19.05 Y133.35 I0. J3.175
G1 Y165.1
G3 X15.875 Y168.275 I-3.175 J0.
G1 X9.525
G3 X6.35 Y165.1 I0. J-3.175
G1 Y133.35
G3 X9.525 Y130.175 I3.175 J0.
G1 X10.485
X10.583 Y130.183 Z-4.159
X10.678 Y130.205 Z-4.144
X10.76 Y130.238 Z-4.099
X10.837 Y130.282 Z-4.054
X10.893 Y130.324 Z-3.983
X10.945 Y130.372 Z-3.913
X11.002 Y130.441 Z-3.736
X11.019 Y130.467 Z-3.54
G0 Z16.
M5
G0 Z10
G0 X0 Y0

M9
M30
