(BOTTOM GUIDE)
(T1  D=3.175 CR=0. - ZMIN=-7.85 - FLAT END MILL)
G90 G94 G91.1 G40 G49 G17
G21
G0 Z15

(BORE3)
M5
T1 M6
S15000 M3
G54
G0 X156.941 Y216.253
G43 Z15. H1
Z3.
G1 Z1.317 F800.
X156.935 Y216.258 Z1.247
X156.916 Y216.272 Z1.18
X156.885 Y216.294 Z1.12
X156.844 Y216.324 Z1.069
X156.796 Y216.359 Z1.031
X156.741 Y216.398 Z1.008
X156.684 Y216.44 Z1.
X156.556 Y216.533
G3 X156.112 Y216.463 I-0.187 J-0.257
X159.323 Y214.13 Z0.875 I1.605 J-1.166
X156.112 Y216.463 Z0.751 I-1.605 J1.166
X159.323 Y214.13 Z0.626 I1.605 J-1.166
X156.112 Y216.463 Z0.501 I-1.605 J1.166
X159.323 Y214.13 Z0.376 I1.605 J-1.166
X156.112 Y216.463 Z0.252 I-1.605 J1.166
X159.323 Y214.13 Z0.127 I1.605 J-1.166
X156.112 Y216.463 Z0.002 I-1.605 J1.166
X159.323 Y214.13 Z-0.123 I1.605 J-1.166
X156.112 Y216.463 Z-0.247 I-1.605 J1.166
X159.323 Y214.13 Z-0.372 I1.605 J-1.166
X156.112 Y216.463 Z-0.497 I-1.605 J1.166
X159.323 Y214.13 Z-0.622 I1.605 J-1.166
X156.112 Y216.463 Z-0.746 I-1.605 J1.166
X159.323 Y214.13 Z-0.871 I1.605 J-1.166
X156.112 Y216.463 Z-0.996 I-1.605 J1.166
X159.323 Y214.13 Z-1.12 I1.605 J-1.166
X156.112 Y216.463 Z-1.245 I-1.605 J1.166
X159.323 Y214.13 Z-1.37 I1.605 J-1.166
X156.112 Y216.463 Z-1.495 I-1.605 J1.166
X159.323 Y214.13 Z-1.619 I1.605 J-1.166
X156.112 Y216.463 Z-1.744 I-1.605 J1.166
X159.323 Y214.13 Z-1.869 I1.605 J-1.166
X156.112 Y216.463 Z-1.994 I-1.605 J1.166
X159.323 Y214.13 Z-2.118 I1.605 J-1.166
X156.112 Y216.463 Z-2.243 I-1.605 J1.166
X159.323 Y214.13 Z-2.368 I1.605 J-1.166
X156.112 Y216.463 Z-2.493 I-1.605 J1.166
X159.323 Y214.13 Z-2.617 I1.605 J-1.166
X156.112 Y216.463 Z-2.742 I-1.605 J1.166
X159.323 Y214.13 Z-2.867 I1.605 J-1.166
X156.112 Y216.463 Z-2.991 I-1.605 J1.166
X159.323 Y214.13 Z-3.116 I1.605 J-1.166
X156.112 Y216.463 Z-3.241 I-1.605 J1.166
X159.323 Y214.13 Z-3.366 I1.605 J-1.166
X156.112 Y216.463 Z-3.49 I-1.605 J1.166
X159.323 Y214.13 Z-3.615 I1.605 J-1.166
X156.112 Y216.463 Z-3.74 I-1.605 J1.166
X159.323 Y214.13 Z-3.865 I1.605 J-1.166
X156.112 Y216.463 Z-3.989 I-1.605 J1.166
X159.323 Y214.13 Z-4.114 I1.605 J-1.166
X156.112 Y216.463 Z-4.239 I-1.605 J1.166
X159.323 Y214.13 Z-4.364 I1.605 J-1.166
X156.112 Y216.463 Z-4.488 I-1.605 J1.166
X159.323 Y214.13 Z-4.613 I1.605 J-1.166
X156.112 Y216.463 Z-4.738 I-1.605 J1.166
X159.323 Y214.13 Z-4.862 I1.605 J-1.166
X156.112 Y216.463 Z-4.987 I-1.605 J1.166
X159.323 Y214.13 Z-5.112 I1.605 J-1.166
X156.112 Y216.463 Z-5.237 I-1.605 J1.166
X159.323 Y214.13 Z-5.361 I1.605 J-1.166
X156.112 Y216.463 Z-5.486 I-1.605 J1.166
X159.323 Y214.13 Z-5.611 I1.605 J-1.166
X156.112 Y216.463 Z-5.736 I-1.605 J1.166
X159.323 Y214.13 Z-5.86 I1.605 J-1.166
X156.112 Y216.463 Z-5.985 I-1.605 J1.166
X159.323 Y214.13 Z-6.11 I1.605 J-1.166
X156.112 Y216.463 Z-6.234 I-1.605 J1.166
X159.323 Y214.13 Z-6.359 I1.605 J-1.166
X156.112 Y216.463 Z-6.484 I-1.605 J1.166
X159.323 Y214.13 Z-6.609 I1.605 J-1.166
X156.112 Y216.463 Z-6.733 I-1.605 J1.166
X159.323 Y214.13 Z-6.858 I1.605 J-1.166
X156.112 Y216.463 Z-6.983 I-1.605 J1.166
X159.323 Y214.13 Z-7.108 I1.605 J-1.166
X156.112 Y216.463 Z-7.232 I-1.605 J1.166
X159.323 Y214.13 Z-7.357 I1.605 J-1.166
X156.112 Y216.463 Z-7.482 I-1.605 J1.166
X159.323 Y214.13 Z-7.607 I1.605 J-1.166
X156.112 Y216.463 Z-7.731 I-1.605 J1.166
X159.129 Y213.901 Z-7.85 I1.605 J-1.166
X156.307 Y216.692 I-1.411 J1.395
X159.129 Y213.901 I1.411 J-1.395
X159.126 Y214.35 I-0.226 J0.223
G1 X159.013 Y214.462
X158.963 Y214.512 Z-7.842
X158.915 Y214.559 Z-7.819
X158.873 Y214.601 Z-7.781
X158.837 Y214.636 Z-7.73
X158.81 Y214.663 Z-7.67
X158.793 Y214.68 Z-7.603
X158.788 Y214.685 Z-7.532
G0 Z5.
X147.61 Y203.41
Z3.
G1 Z1.317 F800.
X147.604 Y203.415 Z1.247
X147.585 Y203.429 Z1.18
X147.554 Y203.451 Z1.12
X147.513 Y203.48 Z1.069
X147.465 Y203.516 Z1.031
X147.41 Y203.555 Z1.008
X147.353 Y203.597 Z1.
X147.225 Y203.69
G3 X146.781 Y203.62 I-0.187 J-0.257
X149.992 Y201.287 Z0.875 I1.605 J-1.166
X146.781 Y203.62 Z0.751 I-1.605 J1.166
X149.992 Y201.287 Z0.626 I1.605 J-1.166
X146.781 Y203.62 Z0.501 I-1.605 J1.166
X149.992 Y201.287 Z0.376 I1.605 J-1.166
X146.781 Y203.62 Z0.252 I-1.605 J1.166
X149.992 Y201.287 Z0.127 I1.605 J-1.166
X146.781 Y203.62 Z0.002 I-1.605 J1.166
X149.992 Y201.287 Z-0.123 I1.605 J-1.166
X146.781 Y203.62 Z-0.247 I-1.605 J1.166
X149.992 Y201.287 Z-0.372 I1.605 J-1.166
X146.781 Y203.62 Z-0.497 I-1.605 J1.166
X149.992 Y201.287 Z-0.622 I1.605 J-1.166
X146.781 Y203.62 Z-0.746 I-1.605 J1.166
X149.992 Y201.287 Z-0.871 I1.605 J-1.166
X146.781 Y203.62 Z-0.996 I-1.605 J1.166
X149.992 Y201.287 Z-1.12 I1.605 J-1.166
X146.781 Y203.62 Z-1.245 I-1.605 J1.166
X149.992 Y201.287 Z-1.37 I1.605 J-1.166
X146.781 Y203.62 Z-1.495 I-1.605 J1.166
X149.992 Y201.287 Z-1.619 I1.605 J-1.166
X146.781 Y203.62 Z-1.744 I-1.605 J1.166
X149.992 Y201.287 Z-1.869 I1.605 J-1.166
X146.781 Y203.62 Z-1.994 I-1.605 J1.166
X149.992 Y201.287 Z-2.118 I1.605 J-1.166
X146.781 Y203.62 Z-2.243 I-1.605 J1.166
X149.992 Y201.287 Z-2.368 I1.605 J-1.166
X146.781 Y203.62 Z-2.493 I-1.605 J1.166
X149.992 Y201.287 Z-2.617 I1.605 J-1.166
X146.781 Y203.62 Z-2.742 I-1.605 J1.166
X149.992 Y201.287 Z-2.867 I1.605 J-1.166
X146.781 Y203.62 Z-2.991 I-1.605 J1.166
X149.992 Y201.287 Z-3.116 I1.605 J-1.166
X146.781 Y203.62 Z-3.241 I-1.605 J1.166
X149.992 Y201.287 Z-3.366 I1.605 J-1.166
X146.781 Y203.62 Z-3.49 I-1.605 J1.166
X149.992 Y201.287 Z-3.615 I1.605 J-1.166
X146.781 Y203.62 Z-3.74 I-1.605 J1.166
X149.992 Y201.287 Z-3.865 I1.605 J-1.166
X146.781 Y203.62 Z-3.989 I-1.605 J1.166
X149.992 Y201.287 Z-4.114 I1.605 J-1.166
X146.781 Y203.62 Z-4.239 I-1.605 J1.166
X149.992 Y201.287 Z-4.364 I1.605 J-1.166
X146.781 Y203.62 Z-4.488 I-1.605 J1.166
X149.992 Y201.287 Z-4.613 I1.605 J-1.166
X146.781 Y203.62 Z-4.738 I-1.605 J1.166
X149.992 Y201.287 Z-4.862 I1.605 J-1.166
X146.781 Y203.62 Z-4.987 I-1.605 J1.166
X149.992 Y201.287 Z-5.112 I1.605 J-1.166
X146.781 Y203.62 Z-5.237 I-1.605 J1.166
X149.992 Y201.287 Z-5.361 I1.605 J-1.166
X146.781 Y203.62 Z-5.486 I-1.605 J1.166
X149.992 Y201.287 Z-5.611 I1.605 J-1.166
X146.781 Y203.62 Z-5.736 I-1.605 J1.166
X149.992 Y201.287 Z-5.86 I1.605 J-1.166
X146.781 Y203.62 Z-5.985 I-1.605 J1.166
X149.992 Y201.287 Z-6.11 I1.605 J-1.166
X146.781 Y203.62 Z-6.234 I-1.605 J1.166
X149.992 Y201.287 Z-6.359 I1.605 J-1.166
X146.781 Y203.62 Z-6.484 I-1.605 J1.166
X149.992 Y201.287 Z-6.609 I1.605 J-1.166
X146.781 Y203.62 Z-6.733 I-1.605 J1.166
X149.992 Y201.287 Z-6.858 I1.605 J-1.166
X146.781 Y203.62 Z-6.983 I-1.605 J1.166
X149.992 Y201.287 Z-7.108 I1.605 J-1.166
X146.781 Y203.62 Z-7.232 I-1.605 J1.166
X149.992 Y201.287 Z-7.357 I1.605 J-1.166
X146.781 Y203.62 Z-7.482 I-1.605 J1.166
X149.992 Y201.287 Z-7.607 I1.605 J-1.166
X146.781 Y203.62 Z-7.731 I-1.605 J1.166
X149.798 Y201.058 Z-7.85 I1.605 J-1.166
X146.976 Y203.849 I-1.411 J1.395
X149.798 Y201.058 I1.411 J-1.395
X149.795 Y201.507 I-0.226 J0.223
G1 X149.682 Y201.619
X149.632 Y201.668 Z-7.842
X149.584 Y201.716 Z-7.819
X149.542 Y201.758 Z-7.781
X149.506 Y201.793 Z-7.73
X149.479 Y201.82 Z-7.67
X149.462 Y201.836 Z-7.603
X149.457 Y201.842 Z-7.532
G0 Z5.
X205.37 Y150.617
Z3.
G1 Z1.317 F800.
X205.364 Y150.622 Z1.247
X205.345 Y150.636 Z1.18
X205.314 Y150.658 Z1.12
X205.274 Y150.687 Z1.069
X205.225 Y150.723 Z1.031
X205.171 Y150.762 Z1.008
X205.113 Y150.804 Z1.
X204.985 Y150.897
G3 X204.542 Y150.827 I-0.187 J-0.257
X207.752 Y148.494 Z0.875 I1.605 J-1.166
X204.542 Y150.827 Z0.751 I-1.605 J1.166
X207.752 Y148.494 Z0.626 I1.605 J-1.166
X204.542 Y150.827 Z0.501 I-1.605 J1.166
X207.752 Y148.494 Z0.376 I1.605 J-1.166
X204.542 Y150.827 Z0.252 I-1.605 J1.166
X207.752 Y148.494 Z0.127 I1.605 J-1.166
X204.542 Y150.827 Z0.002 I-1.605 J1.166
X207.752 Y148.494 Z-0.123 I1.605 J-1.166
X204.542 Y150.827 Z-0.247 I-1.605 J1.166
X207.752 Y148.494 Z-0.372 I1.605 J-1.166
X204.542 Y150.827 Z-0.497 I-1.605 J1.166
X207.752 Y148.494 Z-0.622 I1.605 J-1.166
X204.542 Y150.827 Z-0.746 I-1.605 J1.166
X207.752 Y148.494 Z-0.871 I1.605 J-1.166
X204.542 Y150.827 Z-0.996 I-1.605 J1.166
X207.752 Y148.494 Z-1.12 I1.605 J-1.166
X204.542 Y150.827 Z-1.245 I-1.605 J1.166
X207.752 Y148.494 Z-1.37 I1.605 J-1.166
X204.542 Y150.827 Z-1.495 I-1.605 J1.166
X207.752 Y148.494 Z-1.619 I1.605 J-1.166
X204.542 Y150.827 Z-1.744 I-1.605 J1.166
X207.752 Y148.494 Z-1.869 I1.605 J-1.166
X204.542 Y150.827 Z-1.994 I-1.605 J1.166
X207.752 Y148.494 Z-2.118 I1.605 J-1.166
X204.542 Y150.827 Z-2.243 I-1.605 J1.166
X207.752 Y148.494 Z-2.368 I1.605 J-1.166
X204.542 Y150.827 Z-2.493 I-1.605 J1.166
X207.752 Y148.494 Z-2.617 I1.605 J-1.166
X204.542 Y150.827 Z-2.742 I-1.605 J1.166
X207.752 Y148.494 Z-2.867 I1.605 J-1.166
X204.542 Y150.827 Z-2.991 I-1.605 J1.166
X207.752 Y148.494 Z-3.116 I1.605 J-1.166
X204.542 Y150.827 Z-3.241 I-1.605 J1.166
X207.752 Y148.494 Z-3.366 I1.605 J-1.166
X204.542 Y150.827 Z-3.49 I-1.605 J1.166
X207.752 Y148.494 Z-3.615 I1.605 J-1.166
X204.542 Y150.827 Z-3.74 I-1.605 J1.166
X207.752 Y148.494 Z-3.865 I1.605 J-1.166
X204.542 Y150.827 Z-3.989 I-1.605 J1.166
X207.752 Y148.494 Z-4.114 I1.605 J-1.166
X204.542 Y150.827 Z-4.239 I-1.605 J1.166
X207.752 Y148.494 Z-4.364 I1.605 J-1.166
X204.542 Y150.827 Z-4.488 I-1.605 J1.166
X207.752 Y148.494 Z-4.613 I1.605 J-1.166
X204.542 Y150.827 Z-4.738 I-1.605 J1.166
X207.752 Y148.494 Z-4.862 I1.605 J-1.166
X204.542 Y150.827 Z-4.987 I-1.605 J1.166
X207.752 Y148.494 Z-5.112 I1.605 J-1.166
X204.542 Y150.827 Z-5.237 I-1.605 J1.166
X207.752 Y148.494 Z-5.361 I1.605 J-1.166
X204.542 Y150.827 Z-5.486 I-1.605 J1.166
X207.752 Y148.494 Z-5.611 I1.605 J-1.166
X204.542 Y150.827 Z-5.736 I-1.605 J1.166
X207.752 Y148.494 Z-5.86 I1.605 J-1.166
X204.542 Y150.827 Z-5.985 I-1.605 J1.166
X207.752 Y148.494 Z-6.11 I1.605 J-1.166
X204.542 Y150.827 Z-6.234 I-1.605 J1.166
X207.752 Y148.494 Z-6.359 I1.605 J-1.166
X204.542 Y150.827 Z-6.484 I-1.605 J1.166
X207.752 Y148.494 Z-6.609 I1.605 J-1.166
X204.542 Y150.827 Z-6.733 I-1.605 J1.166
X207.752 Y148.494 Z-6.858 I1.605 J-1.166
X204.542 Y150.827 Z-6.983 I-1.605 J1.166
X207.752 Y148.494 Z-7.108 I1.605 J-1.166
X204.542 Y150.827 Z-7.232 I-1.605 J1.166
X207.752 Y148.494 Z-7.357 I1.605 J-1.166
X204.542 Y150.827 Z-7.482 I-1.605 J1.166
X207.752 Y148.494 Z-7.607 I1.605 J-1.166
X204.542 Y150.827 Z-7.731 I-1.605 J1.166
X207.558 Y148.265 Z-7.85 I1.605 J-1.166
X204.736 Y151.056 I-1.411 J1.395
X207.558 Y148.265 I1.411 J-1.395
X207.555 Y148.714 I-0.226 J0.223
G1 X207.443 Y148.826
X207.392 Y148.875 Z-7.842
X207.345 Y148.923 Z-7.819
X207.302 Y148.965 Z-7.781
X207.266 Y149. Z-7.73
X207.239 Y149.027 Z-7.67
X207.222 Y149.043 Z-7.603
X207.217 Y149.049 Z-7.532
G0 Z5.
X213.219 Y126.46
Z3.
G1 Z1.317 F800.
X213.213 Y126.465 Z1.247
X213.194 Y126.479 Z1.18
X213.163 Y126.501 Z1.12
X213.123 Y126.531 Z1.069
X213.074 Y126.566 Z1.031
X213.02 Y126.605 Z1.008
X212.963 Y126.647 Z1.
X212.834 Y126.74
G3 X212.391 Y126.67 I-0.187 J-0.257
X215.601 Y124.337 Z0.875 I1.605 J-1.166
X212.391 Y126.67 Z0.751 I-1.605 J1.166
X215.601 Y124.337 Z0.626 I1.605 J-1.166
X212.391 Y126.67 Z0.501 I-1.605 J1.166
X215.601 Y124.337 Z0.376 I1.605 J-1.166
X212.391 Y126.67 Z0.252 I-1.605 J1.166
X215.601 Y124.337 Z0.127 I1.605 J-1.166
X212.391 Y126.67 Z0.002 I-1.605 J1.166
X215.601 Y124.337 Z-0.123 I1.605 J-1.166
X212.391 Y126.67 Z-0.247 I-1.605 J1.166
X215.601 Y124.337 Z-0.372 I1.605 J-1.166
X212.391 Y126.67 Z-0.497 I-1.605 J1.166
X215.601 Y124.337 Z-0.622 I1.605 J-1.166
X212.391 Y126.67 Z-0.746 I-1.605 J1.166
X215.601 Y124.337 Z-0.871 I1.605 J-1.166
X212.391 Y126.67 Z-0.996 I-1.605 J1.166
X215.601 Y124.337 Z-1.12 I1.605 J-1.166
X212.391 Y126.67 Z-1.245 I-1.605 J1.166
X215.601 Y124.337 Z-1.37 I1.605 J-1.166
X212.391 Y126.67 Z-1.495 I-1.605 J1.166
X215.601 Y124.337 Z-1.619 I1.605 J-1.166
X212.391 Y126.67 Z-1.744 I-1.605 J1.166
X215.601 Y124.337 Z-1.869 I1.605 J-1.166
X212.391 Y126.67 Z-1.994 I-1.605 J1.166
X215.601 Y124.337 Z-2.118 I1.605 J-1.166
X212.391 Y126.67 Z-2.243 I-1.605 J1.166
X215.601 Y124.337 Z-2.368 I1.605 J-1.166
X212.391 Y126.67 Z-2.493 I-1.605 J1.166
X215.601 Y124.337 Z-2.617 I1.605 J-1.166
X212.391 Y126.67 Z-2.742 I-1.605 J1.166
X215.601 Y124.337 Z-2.867 I1.605 J-1.166
X212.391 Y126.67 Z-2.991 I-1.605 J1.166
X215.601 Y124.337 Z-3.116 I1.605 J-1.166
X212.391 Y126.67 Z-3.241 I-1.605 J1.166
X215.601 Y124.337 Z-3.366 I1.605 J-1.166
X212.391 Y126.67 Z-3.49 I-1.605 J1.166
X215.601 Y124.337 Z-3.615 I1.605 J-1.166
X212.391 Y126.67 Z-3.74 I-1.605 J1.166
X215.601 Y124.337 Z-3.865 I1.605 J-1.166
X212.391 Y126.67 Z-3.989 I-1.605 J1.166
X215.601 Y124.337 Z-4.114 I1.605 J-1.166
X212.391 Y126.67 Z-4.239 I-1.605 J1.166
X215.601 Y124.337 Z-4.364 I1.605 J-1.166
X212.391 Y126.67 Z-4.488 I-1.605 J1.166
X215.601 Y124.337 Z-4.613 I1.605 J-1.166
X212.391 Y126.67 Z-4.738 I-1.605 J1.166
X215.601 Y124.337 Z-4.862 I1.605 J-1.166
X212.391 Y126.67 Z-4.987 I-1.605 J1.166
X215.601 Y124.337 Z-5.112 I1.605 J-1.166
X212.391 Y126.67 Z-5.237 I-1.605 J1.166
X215.601 Y124.337 Z-5.361 I1.605 J-1.166
X212.391 Y126.67 Z-5.486 I-1.605 J1.166
X215.601 Y124.337 Z-5.611 I1.605 J-1.166
X212.391 Y126.67 Z-5.736 I-1.605 J1.166
X215.601 Y124.337 Z-5.86 I1.605 J-1.166
X212.391 Y126.67 Z-5.985 I-1.605 J1.166
X215.601 Y124.337 Z-6.11 I1.605 J-1.166
X212.391 Y126.67 Z-6.234 I-1.605 J1.166
X215.601 Y124.337 Z-6.359 I1.605 J-1.166
X212.391 Y126.67 Z-6.484 I-1.605 J1.166
X215.601 Y124.337 Z-6.609 I1.605 J-1.166
X212.391 Y126.67 Z-6.733 I-1.605 J1.166
X215.601 Y124.337 Z-6.858 I1.605 J-1.166
X212.391 Y126.67 Z-6.983 I-1.605 J1.166
X215.601 Y124.337 Z-7.108 I1.605 J-1.166
X212.391 Y126.67 Z-7.232 I-1.605 J1.166
X215.601 Y124.337 Z-7.357 I1.605 J-1.166
X212.391 Y126.67 Z-7.482 I-1.605 J1.166
X215.601 Y124.337 Z-7.607 I1.605 J-1.166
X212.391 Y126.67 Z-7.731 I-1.605 J1.166
X215.407 Y124.108 Z-7.85 I1.605 J-1.166
X212.585 Y126.899 I-1.411 J1.395
X215.407 Y124.108 I1.411 J-1.395
X215.404 Y124.557 I-0.226 J0.223
G1 X215.292 Y124.669
X215.241 Y124.719 Z-7.842
X215.194 Y124.766 Z-7.819
X215.151 Y124.808 Z-7.781
X215.115 Y124.843 Z-7.73
X215.088 Y124.87 Z-7.67
X215.071 Y124.886 Z-7.603
X215.066 Y124.892 Z-7.532
G0 Z5.
X46.876 Y52.984
Z3.
G1 Z1.317 F800.
X46.869 Y52.988 Z1.247
X46.85 Y53.002 Z1.18
X46.82 Y53.024 Z1.12
X46.779 Y53.054 Z1.069
X46.73 Y53.089 Z1.031
X46.676 Y53.129 Z1.008
X46.619 Y53.17 Z1.
X46.49 Y53.263
G3 X46.047 Y53.193 I-0.187 J-0.257
X49.258 Y50.86 Z0.875 I1.605 J-1.166
X46.047 Y53.193 Z0.751 I-1.605 J1.166
X49.258 Y50.86 Z0.626 I1.605 J-1.166
X46.047 Y53.193 Z0.501 I-1.605 J1.166
X49.258 Y50.86 Z0.376 I1.605 J-1.166
X46.047 Y53.193 Z0.252 I-1.605 J1.166
X49.258 Y50.86 Z0.127 I1.605 J-1.166
X46.047 Y53.193 Z0.002 I-1.605 J1.166
X49.258 Y50.86 Z-0.123 I1.605 J-1.166
X46.047 Y53.193 Z-0.247 I-1.605 J1.166
X49.258 Y50.86 Z-0.372 I1.605 J-1.166
X46.047 Y53.193 Z-0.497 I-1.605 J1.166
X49.258 Y50.86 Z-0.622 I1.605 J-1.166
X46.047 Y53.193 Z-0.746 I-1.605 J1.166
X49.258 Y50.86 Z-0.871 I1.605 J-1.166
X46.047 Y53.193 Z-0.996 I-1.605 J1.166
X49.258 Y50.86 Z-1.12 I1.605 J-1.166
X46.047 Y53.193 Z-1.245 I-1.605 J1.166
X49.258 Y50.86 Z-1.37 I1.605 J-1.166
X46.047 Y53.193 Z-1.495 I-1.605 J1.166
X49.258 Y50.86 Z-1.619 I1.605 J-1.166
X46.047 Y53.193 Z-1.744 I-1.605 J1.166
X49.258 Y50.86 Z-1.869 I1.605 J-1.166
X46.047 Y53.193 Z-1.994 I-1.605 J1.166
X49.258 Y50.86 Z-2.118 I1.605 J-1.166
X46.047 Y53.193 Z-2.243 I-1.605 J1.166
X49.258 Y50.86 Z-2.368 I1.605 J-1.166
X46.047 Y53.193 Z-2.493 I-1.605 J1.166
X49.258 Y50.86 Z-2.617 I1.605 J-1.166
X46.047 Y53.193 Z-2.742 I-1.605 J1.166
X49.258 Y50.86 Z-2.867 I1.605 J-1.166
X46.047 Y53.193 Z-2.991 I-1.605 J1.166
X49.258 Y50.86 Z-3.116 I1.605 J-1.166
X46.047 Y53.193 Z-3.241 I-1.605 J1.166
X49.258 Y50.86 Z-3.366 I1.605 J-1.166
X46.047 Y53.193 Z-3.49 I-1.605 J1.166
X49.258 Y50.86 Z-3.615 I1.605 J-1.166
X46.047 Y53.193 Z-3.74 I-1.605 J1.166
X49.258 Y50.86 Z-3.865 I1.605 J-1.166
X46.047 Y53.193 Z-3.989 I-1.605 J1.166
X49.258 Y50.86 Z-4.114 I1.605 J-1.166
X46.047 Y53.193 Z-4.239 I-1.605 J1.166
X49.258 Y50.86 Z-4.364 I1.605 J-1.166
X46.047 Y53.193 Z-4.488 I-1.605 J1.166
X49.258 Y50.86 Z-4.613 I1.605 J-1.166
X46.047 Y53.193 Z-4.738 I-1.605 J1.166
X49.258 Y50.86 Z-4.862 I1.605 J-1.166
X46.047 Y53.193 Z-4.987 I-1.605 J1.166
X49.258 Y50.86 Z-5.112 I1.605 J-1.166
X46.047 Y53.193 Z-5.237 I-1.605 J1.166
X49.258 Y50.86 Z-5.361 I1.605 J-1.166
X46.047 Y53.193 Z-5.486 I-1.605 J1.166
X49.258 Y50.86 Z-5.611 I1.605 J-1.166
X46.047 Y53.193 Z-5.736 I-1.605 J1.166
X49.258 Y50.86 Z-5.86 I1.605 J-1.166
X46.047 Y53.193 Z-5.985 I-1.605 J1.166
X49.258 Y50.86 Z-6.11 I1.605 J-1.166
X46.047 Y53.193 Z-6.234 I-1.605 J1.166
X49.258 Y50.86 Z-6.359 I1.605 J-1.166
X46.047 Y53.193 Z-6.484 I-1.605 J1.166
X49.258 Y50.86 Z-6.609 I1.605 J-1.166
X46.047 Y53.193 Z-6.733 I-1.605 J1.166
X49.258 Y50.86 Z-6.858 I1.605 J-1.166
X46.047 Y53.193 Z-6.983 I-1.605 J1.166
X49.258 Y50.86 Z-7.108 I1.605 J-1.166
X46.047 Y53.193 Z-7.232 I-1.605 J1.166
X49.258 Y50.86 Z-7.357 I1.605 J-1.166
X46.047 Y53.193 Z-7.482 I-1.605 J1.166
X49.258 Y50.86 Z-7.607 I1.605 J-1.166
X46.047 Y53.193 Z-7.731 I-1.605 J1.166
X49.063 Y50.632 Z-7.85 I1.605 J-1.166
X46.241 Y53.422 I-1.411 J1.395
X49.063 Y50.632 I1.411 J-1.395
X49.061 Y51.081 I-0.226 J0.223
G1 X48.948 Y51.192
X48.898 Y51.242 Z-7.842
X48.85 Y51.289 Z-7.819
X48.807 Y51.331 Z-7.781
X48.771 Y51.367 Z-7.73
X48.744 Y51.393 Z-7.67
X48.728 Y51.41 Z-7.603
X48.722 Y51.415 Z-7.532
G0 Z5.
X26.327 Y38.054
Z3.
G1 Z1.317 F800.
X26.32 Y38.058 Z1.247
X26.301 Y38.072 Z1.18
X26.271 Y38.095 Z1.12
X26.23 Y38.124 Z1.069
X26.181 Y38.159 Z1.031
X26.127 Y38.199 Z1.008
X26.07 Y38.24 Z1.
X25.941 Y38.334
G3 X25.498 Y38.264 I-0.187 J-0.257
X28.709 Y35.931 Z0.875 I1.605 J-1.166
X25.498 Y38.264 Z0.751 I-1.605 J1.166
X28.709 Y35.931 Z0.626 I1.605 J-1.166
X25.498 Y38.264 Z0.501 I-1.605 J1.166
X28.709 Y35.931 Z0.376 I1.605 J-1.166
X25.498 Y38.264 Z0.252 I-1.605 J1.166
X28.709 Y35.931 Z0.127 I1.605 J-1.166
X25.498 Y38.264 Z0.002 I-1.605 J1.166
X28.709 Y35.931 Z-0.123 I1.605 J-1.166
X25.498 Y38.264 Z-0.247 I-1.605 J1.166
X28.709 Y35.931 Z-0.372 I1.605 J-1.166
X25.498 Y38.264 Z-0.497 I-1.605 J1.166
X28.709 Y35.931 Z-0.622 I1.605 J-1.166
X25.498 Y38.264 Z-0.746 I-1.605 J1.166
X28.709 Y35.931 Z-0.871 I1.605 J-1.166
X25.498 Y38.264 Z-0.996 I-1.605 J1.166
X28.709 Y35.931 Z-1.12 I1.605 J-1.166
X25.498 Y38.264 Z-1.245 I-1.605 J1.166
X28.709 Y35.931 Z-1.37 I1.605 J-1.166
X25.498 Y38.264 Z-1.495 I-1.605 J1.166
X28.709 Y35.931 Z-1.619 I1.605 J-1.166
X25.498 Y38.264 Z-1.744 I-1.605 J1.166
X28.709 Y35.931 Z-1.869 I1.605 J-1.166
X25.498 Y38.264 Z-1.994 I-1.605 J1.166
X28.709 Y35.931 Z-2.118 I1.605 J-1.166
X25.498 Y38.264 Z-2.243 I-1.605 J1.166
X28.709 Y35.931 Z-2.368 I1.605 J-1.166
X25.498 Y38.264 Z-2.493 I-1.605 J1.166
X28.709 Y35.931 Z-2.617 I1.605 J-1.166
X25.498 Y38.264 Z-2.742 I-1.605 J1.166
X28.709 Y35.931 Z-2.867 I1.605 J-1.166
X25.498 Y38.264 Z-2.991 I-1.605 J1.166
X28.709 Y35.931 Z-3.116 I1.605 J-1.166
X25.498 Y38.264 Z-3.241 I-1.605 J1.166
X28.709 Y35.931 Z-3.366 I1.605 J-1.166
X25.498 Y38.264 Z-3.49 I-1.605 J1.166
X28.709 Y35.931 Z-3.615 I1.605 J-1.166
X25.498 Y38.264 Z-3.74 I-1.605 J1.166
X28.709 Y35.931 Z-3.865 I1.605 J-1.166
X25.498 Y38.264 Z-3.989 I-1.605 J1.166
X28.709 Y35.931 Z-4.114 I1.605 J-1.166
X25.498 Y38.264 Z-4.239 I-1.605 J1.166
X28.709 Y35.931 Z-4.364 I1.605 J-1.166
X25.498 Y38.264 Z-4.488 I-1.605 J1.166
X28.709 Y35.931 Z-4.613 I1.605 J-1.166
X25.498 Y38.264 Z-4.738 I-1.605 J1.166
X28.709 Y35.931 Z-4.862 I1.605 J-1.166
X25.498 Y38.264 Z-4.987 I-1.605 J1.166
X28.709 Y35.931 Z-5.112 I1.605 J-1.166
X25.498 Y38.264 Z-5.237 I-1.605 J1.166
X28.709 Y35.931 Z-5.361 I1.605 J-1.166
X25.498 Y38.264 Z-5.486 I-1.605 J1.166
X28.709 Y35.931 Z-5.611 I1.605 J-1.166
X25.498 Y38.264 Z-5.736 I-1.605 J1.166
X28.709 Y35.931 Z-5.86 I1.605 J-1.166
X25.498 Y38.264 Z-5.985 I-1.605 J1.166
X28.709 Y35.931 Z-6.11 I1.605 J-1.166
X25.498 Y38.264 Z-6.234 I-1.605 J1.166
X28.709 Y35.931 Z-6.359 I1.605 J-1.166
X25.498 Y38.264 Z-6.484 I-1.605 J1.166
X28.709 Y35.931 Z-6.609 I1.605 J-1.166
X25.498 Y38.264 Z-6.733 I-1.605 J1.166
X28.709 Y35.931 Z-6.858 I1.605 J-1.166
X25.498 Y38.264 Z-6.983 I-1.605 J1.166
X28.709 Y35.931 Z-7.108 I1.605 J-1.166
X25.498 Y38.264 Z-7.232 I-1.605 J1.166
X28.709 Y35.931 Z-7.357 I1.605 J-1.166
X25.498 Y38.264 Z-7.482 I-1.605 J1.166
X28.709 Y35.931 Z-7.607 I1.605 J-1.166
X25.498 Y38.264 Z-7.731 I-1.605 J1.166
X28.514 Y35.702 Z-7.85 I1.605 J-1.166
X25.692 Y38.492 I-1.411 J1.395
X28.514 Y35.702 I1.411 J-1.395
X28.512 Y36.151 I-0.226 J0.223
G1 X28.399 Y36.262
X28.348 Y36.312 Z-7.842
X28.301 Y36.359 Z-7.819
X28.258 Y36.402 Z-7.781
X28.222 Y36.437 Z-7.73
X28.195 Y36.464 Z-7.67
X28.179 Y36.48 Z-7.603
X28.173 Y36.486 Z-7.532
G0 Z15.
M5
G0 Z15
G0 X0 Y0

M30
