(X8 STATIC HOOK SIDE BLOCK COMPLETE)
(T3  D=0.118 CR=0. - ZMIN=-0.04 - FLAT END MILL)
G90 G94 G91.1 G40 G49 G17
G20

(2D POCKET1)
M5
T3 M6
S15000 M3
g4 p5
G54
M8
G0 X0.3599 Y-0.2919
G43 Z1.6 H3
Z1.2
G1 Z1.1194 F40.
Z0.9318 F20.
X0.3594 Y-0.2912 Z0.9273
X0.3577 Y-0.2893 Z0.9235
X0.3561 Y-0.2882 Z0.9222
X0.3544 Y-0.2874 Z0.9209
X0.3522 Y-0.2867 Z0.9204
X0.35 Y-0.2865 Z0.92
G3 Y-0.3385 I0. J-0.026 F40.
Y-0.2865 I0. J0.026
G1 X0.3478 Y-0.2867 Z0.9204
X0.3456 Y-0.2874 Z0.9209
X0.3439 Y-0.2882 Z0.9222
X0.3423 Y-0.2893 Z0.9235
X0.3406 Y-0.2912 Z0.9273
X0.3401 Y-0.2919 Z0.9318
G0 Z1.2
X0.3599
G1 Z1.0394 F20.
Z0.8518
X0.3594 Y-0.2912 Z0.8473
X0.3577 Y-0.2893 Z0.8435
X0.3561 Y-0.2882 Z0.8422
X0.3544 Y-0.2874 Z0.8409
X0.3522 Y-0.2867 Z0.8404
X0.35 Y-0.2865 Z0.84
G3 Y-0.3385 I0. J-0.026 F40.
Y-0.2865 I0. J0.026
G1 X0.3478 Y-0.2867 Z0.8404
X0.3456 Y-0.2874 Z0.8409
X0.3439 Y-0.2882 Z0.8422
X0.3423 Y-0.2893 Z0.8435
X0.3406 Y-0.2912 Z0.8473
X0.3401 Y-0.2919 Z0.8518
G0 Z1.2
X0.3599
G1 Z0.9594 F20.
Z0.7718
X0.3594 Y-0.2912 Z0.7673
X0.3577 Y-0.2893 Z0.7635
X0.3561 Y-0.2882 Z0.7622
X0.3544 Y-0.2874 Z0.7609
X0.3522 Y-0.2867 Z0.7604
X0.35 Y-0.2865 Z0.76
G3 Y-0.3385 I0. J-0.026 F40.
Y-0.2865 I0. J0.026
G1 X0.3478 Y-0.2867 Z0.7604
X0.3456 Y-0.2874 Z0.7609
X0.3439 Y-0.2882 Z0.7622
X0.3423 Y-0.2893 Z0.7635
X0.3406 Y-0.2912 Z0.7673
X0.3401 Y-0.2919 Z0.7718
G0 Z1.2
X0.3599
G1 Z0.8794 F20.
Z0.6918
X0.3594 Y-0.2912 Z0.6873
X0.3577 Y-0.2893 Z0.6835
X0.3561 Y-0.2882 Z0.6822
X0.3544 Y-0.2874 Z0.6809
X0.3522 Y-0.2867 Z0.6804
X0.35 Y-0.2865 Z0.68
G3 Y-0.3385 I0. J-0.026 F40.
Y-0.2865 I0. J0.026
G1 X0.3478 Y-0.2867 Z0.6804
X0.3456 Y-0.2874 Z0.6809
X0.3439 Y-0.2882 Z0.6822
X0.3423 Y-0.2893 Z0.6835
X0.3406 Y-0.2912 Z0.6873
X0.3401 Y-0.2919 Z0.6918
G0 Z1.2
X0.3599
G1 Z0.7994 F20.
Z0.6118
X0.3594 Y-0.2912 Z0.6073
X0.3577 Y-0.2893 Z0.6035
X0.3561 Y-0.2882 Z0.6022
X0.3544 Y-0.2874 Z0.6009
X0.3522 Y-0.2867 Z0.6004
X0.35 Y-0.2865 Z0.6
G3 Y-0.3385 I0. J-0.026 F40.
Y-0.2865 I0. J0.026
G1 X0.3478 Y-0.2867 Z0.6004
X0.3456 Y-0.2874 Z0.6009
X0.3439 Y-0.2882 Z0.6022
X0.3423 Y-0.2893 Z0.6035
X0.3406 Y-0.2912 Z0.6073
X0.3401 Y-0.2919 Z0.6118
G0 Z1.2
X0.3599
G1 Z0.7194 F20.
Z0.5318
X0.3594 Y-0.2912 Z0.5273
X0.3577 Y-0.2893 Z0.5235
X0.3561 Y-0.2882 Z0.5222
X0.3544 Y-0.2874 Z0.5209
X0.3522 Y-0.2867 Z0.5204
X0.35 Y-0.2865 Z0.52
G3 Y-0.3385 I0. J-0.026 F40.
Y-0.2865 I0. J0.026
G1 X0.3478 Y-0.2867 Z0.5204
X0.3456 Y-0.2874 Z0.5209
X0.3439 Y-0.2882 Z0.5222
X0.3423 Y-0.2893 Z0.5235
X0.3406 Y-0.2912 Z0.5273
X0.3401 Y-0.2919 Z0.5318
G0 Z1.2
X0.3599
G1 Z0.6394 F20.
Z0.4518
X0.3594 Y-0.2912 Z0.4473
X0.3577 Y-0.2893 Z0.4435
X0.3561 Y-0.2882 Z0.4422
X0.3544 Y-0.2874 Z0.4409
X0.3522 Y-0.2867 Z0.4404
X0.35 Y-0.2865 Z0.44
G3 Y-0.3385 I0. J-0.026 F40.
Y-0.2865 I0. J0.026
G1 X0.3478 Y-0.2867 Z0.4404
X0.3456 Y-0.2874 Z0.4409
X0.3439 Y-0.2882 Z0.4422
X0.3423 Y-0.2893 Z0.4435
X0.3406 Y-0.2912 Z0.4473
X0.3401 Y-0.2919 Z0.4518
G0 Z1.2
X0.3599
G1 Z0.5594 F20.
Z0.3718
X0.3594 Y-0.2912 Z0.3673
X0.3577 Y-0.2893 Z0.3635
X0.3561 Y-0.2882 Z0.3622
X0.3544 Y-0.2874 Z0.3609
X0.3522 Y-0.2867 Z0.3604
X0.35 Y-0.2865 Z0.36
G3 Y-0.3385 I0. J-0.026 F40.
Y-0.2865 I0. J0.026
G1 X0.3478 Y-0.2867 Z0.3604
X0.3456 Y-0.2874 Z0.3609
X0.3439 Y-0.2882 Z0.3622
X0.3423 Y-0.2893 Z0.3635
X0.3406 Y-0.2912 Z0.3673
X0.3401 Y-0.2919 Z0.3718
G0 Z1.2
X0.3599
G1 Z0.4794 F20.
Z0.2918
X0.3594 Y-0.2912 Z0.2873
X0.3577 Y-0.2893 Z0.2835
X0.3561 Y-0.2882 Z0.2822
X0.3544 Y-0.2874 Z0.2809
X0.3522 Y-0.2867 Z0.2804
X0.35 Y-0.2865 Z0.28
G3 Y-0.3385 I0. J-0.026 F40.
Y-0.2865 I0. J0.026
G1 X0.3478 Y-0.2867 Z0.2804
X0.3456 Y-0.2874 Z0.2809
X0.3439 Y-0.2882 Z0.2822
X0.3423 Y-0.2893 Z0.2835
X0.3406 Y-0.2912 Z0.2873
X0.3401 Y-0.2919 Z0.2918
G0 Z1.2
X0.3599
G1 Z0.3994 F20.
Z0.2118
X0.3594 Y-0.2912 Z0.2073
X0.3577 Y-0.2893 Z0.2035
X0.3561 Y-0.2882 Z0.2022
X0.3544 Y-0.2874 Z0.2009
X0.3522 Y-0.2867 Z0.2004
X0.35 Y-0.2865 Z0.2
G3 Y-0.3385 I0. J-0.026 F40.
Y-0.2865 I0. J0.026
G1 X0.3478 Y-0.2867 Z0.2004
X0.3456 Y-0.2874 Z0.2009
X0.3439 Y-0.2882 Z0.2022
X0.3423 Y-0.2893 Z0.2035
X0.3406 Y-0.2912 Z0.2073
X0.3401 Y-0.2919 Z0.2118
G0 Z1.2
X0.3599
G1 Z0.3194 F20.
Z0.1318
X0.3594 Y-0.2912 Z0.1273
X0.3577 Y-0.2893 Z0.1235
X0.3561 Y-0.2882 Z0.1222
X0.3544 Y-0.2874 Z0.1209
X0.3522 Y-0.2867 Z0.1204
X0.35 Y-0.2865 Z0.12
G3 Y-0.3385 I0. J-0.026 F40.
Y-0.2865 I0. J0.026
G1 X0.3478 Y-0.2867 Z0.1204
X0.3456 Y-0.2874 Z0.1209
X0.3439 Y-0.2882 Z0.1222
X0.3423 Y-0.2893 Z0.1235
X0.3406 Y-0.2912 Z0.1273
X0.3401 Y-0.2919 Z0.1318
G0 Z1.2
X0.3599
G1 Z0.2394 F20.
Z0.0518
X0.3594 Y-0.2912 Z0.0473
X0.3577 Y-0.2893 Z0.0435
X0.3561 Y-0.2882 Z0.0422
X0.3544 Y-0.2874 Z0.0409
X0.3522 Y-0.2867 Z0.0404
X0.35 Y-0.2865 Z0.04
G3 Y-0.3385 I0. J-0.026 F40.
Y-0.2865 I0. J0.026
G1 X0.3478 Y-0.2867 Z0.0404
X0.3456 Y-0.2874 Z0.0409
X0.3439 Y-0.2882 Z0.0422
X0.3423 Y-0.2893 Z0.0435
X0.3406 Y-0.2912 Z0.0473
X0.3401 Y-0.2919 Z0.0518
G0 Z1.2
X0.3599
G1 Z0.1594 F20.
Z-0.0282
X0.3594 Y-0.2912 Z-0.0327
X0.3577 Y-0.2893 Z-0.0365
X0.3561 Y-0.2882 Z-0.0378
X0.3544 Y-0.2874 Z-0.0391
X0.3522 Y-0.2867 Z-0.0396
X0.35 Y-0.2865 Z-0.04
G3 Y-0.3385 I0. J-0.026 F40.
Y-0.2865 I0. J0.026
G1 X0.3478 Y-0.2867 Z-0.0396
X0.3456 Y-0.2874 Z-0.0391
X0.3439 Y-0.2882 Z-0.0378
X0.3423 Y-0.2893 Z-0.0365
X0.3406 Y-0.2912 Z-0.0327
X0.3401 Y-0.2919 Z-0.0282
G0 Z1.2
X0.8294 Y-0.3026
G1 Z1.1194 F20.
Z0.9318
X0.8287 Y-0.3031 Z0.9273
X0.8268 Y-0.3048 Z0.9235
X0.8257 Y-0.3064 Z0.9222
X0.8249 Y-0.3081 Z0.9209
X0.8242 Y-0.3103 Z0.9204
X0.824 Y-0.3125 Z0.92
G3 X0.876 I0.026 J0. F40.
X0.824 I-0.026 J0.
G1 X0.8242 Y-0.3147 Z0.9204
X0.8249 Y-0.3169 Z0.9209
X0.8257 Y-0.3186 Z0.9222
X0.8268 Y-0.3202 Z0.9235
X0.8287 Y-0.3219 Z0.9273
X0.8294 Y-0.3224 Z0.9318
G0 Z1.2
Y-0.3026
G1 Z1.0394 F20.
Z0.8518
X0.8287 Y-0.3031 Z0.8473
X0.8268 Y-0.3048 Z0.8435
X0.8257 Y-0.3064 Z0.8422
X0.8249 Y-0.3081 Z0.8409
X0.8242 Y-0.3103 Z0.8404
X0.824 Y-0.3125 Z0.84
G3 X0.876 I0.026 J0. F40.
X0.824 I-0.026 J0.
G1 X0.8242 Y-0.3147 Z0.8404
X0.8249 Y-0.3169 Z0.8409
X0.8257 Y-0.3186 Z0.8422
X0.8268 Y-0.3202 Z0.8435
X0.8287 Y-0.3219 Z0.8473
X0.8294 Y-0.3224 Z0.8518
G0 Z1.2
Y-0.3026
G1 Z0.9594 F20.
Z0.7718
X0.8287 Y-0.3031 Z0.7673
X0.8268 Y-0.3048 Z0.7635
X0.8257 Y-0.3064 Z0.7622
X0.8249 Y-0.3081 Z0.7609
X0.8242 Y-0.3103 Z0.7604
X0.824 Y-0.3125 Z0.76
G3 X0.876 I0.026 J0. F40.
X0.824 I-0.026 J0.
G1 X0.8242 Y-0.3147 Z0.7604
X0.8249 Y-0.3169 Z0.7609
X0.8257 Y-0.3186 Z0.7622
X0.8268 Y-0.3202 Z0.7635
X0.8287 Y-0.3219 Z0.7673
X0.8294 Y-0.3224 Z0.7718
G0 Z1.2
Y-0.3026
G1 Z0.8794 F20.
Z0.6918
X0.8287 Y-0.3031 Z0.6873
X0.8268 Y-0.3048 Z0.6835
X0.8257 Y-0.3064 Z0.6822
X0.8249 Y-0.3081 Z0.6809
X0.8242 Y-0.3103 Z0.6804
X0.824 Y-0.3125 Z0.68
G3 X0.876 I0.026 J0. F40.
X0.824 I-0.026 J0.
G1 X0.8242 Y-0.3147 Z0.6804
X0.8249 Y-0.3169 Z0.6809
X0.8257 Y-0.3186 Z0.6822
X0.8268 Y-0.3202 Z0.6835
X0.8287 Y-0.3219 Z0.6873
X0.8294 Y-0.3224 Z0.6918
G0 Z1.2
Y-0.3026
G1 Z0.7994 F20.
Z0.6118
X0.8287 Y-0.3031 Z0.6073
X0.8268 Y-0.3048 Z0.6035
X0.8257 Y-0.3064 Z0.6022
X0.8249 Y-0.3081 Z0.6009
X0.8242 Y-0.3103 Z0.6004
X0.824 Y-0.3125 Z0.6
G3 X0.876 I0.026 J0. F40.
X0.824 I-0.026 J0.
G1 X0.8242 Y-0.3147 Z0.6004
X0.8249 Y-0.3169 Z0.6009
X0.8257 Y-0.3186 Z0.6022
X0.8268 Y-0.3202 Z0.6035
X0.8287 Y-0.3219 Z0.6073
X0.8294 Y-0.3224 Z0.6118
G0 Z1.2
Y-0.3026
G1 Z0.7194 F20.
Z0.5318
X0.8287 Y-0.3031 Z0.5273
X0.8268 Y-0.3048 Z0.5235
X0.8257 Y-0.3064 Z0.5222
X0.8249 Y-0.3081 Z0.5209
X0.8242 Y-0.3103 Z0.5204
X0.824 Y-0.3125 Z0.52
G3 X0.876 I0.026 J0. F40.
X0.824 I-0.026 J0.
G1 X0.8242 Y-0.3147 Z0.5204
X0.8249 Y-0.3169 Z0.5209
X0.8257 Y-0.3186 Z0.5222
X0.8268 Y-0.3202 Z0.5235
X0.8287 Y-0.3219 Z0.5273
X0.8294 Y-0.3224 Z0.5318
G0 Z1.2
Y-0.3026
G1 Z0.6394 F20.
Z0.4518
X0.8287 Y-0.3031 Z0.4473
X0.8268 Y-0.3048 Z0.4435
X0.8257 Y-0.3064 Z0.4422
X0.8249 Y-0.3081 Z0.4409
X0.8242 Y-0.3103 Z0.4404
X0.824 Y-0.3125 Z0.44
G3 X0.876 I0.026 J0. F40.
X0.824 I-0.026 J0.
G1 X0.8242 Y-0.3147 Z0.4404
X0.8249 Y-0.3169 Z0.4409
X0.8257 Y-0.3186 Z0.4422
X0.8268 Y-0.3202 Z0.4435
X0.8287 Y-0.3219 Z0.4473
X0.8294 Y-0.3224 Z0.4518
G0 Z1.2
Y-0.3026
G1 Z0.5594 F20.
Z0.3718
X0.8287 Y-0.3031 Z0.3673
X0.8268 Y-0.3048 Z0.3635
X0.8257 Y-0.3064 Z0.3622
X0.8249 Y-0.3081 Z0.3609
X0.8242 Y-0.3103 Z0.3604
X0.824 Y-0.3125 Z0.36
G3 X0.876 I0.026 J0. F40.
X0.824 I-0.026 J0.
G1 X0.8242 Y-0.3147 Z0.3604
X0.8249 Y-0.3169 Z0.3609
X0.8257 Y-0.3186 Z0.3622
X0.8268 Y-0.3202 Z0.3635
X0.8287 Y-0.3219 Z0.3673
X0.8294 Y-0.3224 Z0.3718
G0 Z1.2
Y-0.3026
G1 Z0.4794 F20.
Z0.2918
X0.8287 Y-0.3031 Z0.2873
X0.8268 Y-0.3048 Z0.2835
X0.8257 Y-0.3064 Z0.2822
X0.8249 Y-0.3081 Z0.2809
X0.8242 Y-0.3103 Z0.2804
X0.824 Y-0.3125 Z0.28
G3 X0.876 I0.026 J0. F40.
X0.824 I-0.026 J0.
G1 X0.8242 Y-0.3147 Z0.2804
X0.8249 Y-0.3169 Z0.2809
X0.8257 Y-0.3186 Z0.2822
X0.8268 Y-0.3202 Z0.2835
X0.8287 Y-0.3219 Z0.2873
X0.8294 Y-0.3224 Z0.2918
G0 Z1.2
Y-0.3026
G1 Z0.3994 F20.
Z0.2118
X0.8287 Y-0.3031 Z0.2073
X0.8268 Y-0.3048 Z0.2035
X0.8257 Y-0.3064 Z0.2022
X0.8249 Y-0.3081 Z0.2009
X0.8242 Y-0.3103 Z0.2004
X0.824 Y-0.3125 Z0.2
G3 X0.876 I0.026 J0. F40.
X0.824 I-0.026 J0.
G1 X0.8242 Y-0.3147 Z0.2004
X0.8249 Y-0.3169 Z0.2009
X0.8257 Y-0.3186 Z0.2022
X0.8268 Y-0.3202 Z0.2035
X0.8287 Y-0.3219 Z0.2073
X0.8294 Y-0.3224 Z0.2118
G0 Z1.2
Y-0.3026
G1 Z0.3194 F20.
Z0.1318
X0.8287 Y-0.3031 Z0.1273
X0.8268 Y-0.3048 Z0.1235
X0.8257 Y-0.3064 Z0.1222
X0.8249 Y-0.3081 Z0.1209
X0.8242 Y-0.3103 Z0.1204
X0.824 Y-0.3125 Z0.12
G3 X0.876 I0.026 J0. F40.
X0.824 I-0.026 J0.
G1 X0.8242 Y-0.3147 Z0.1204
X0.8249 Y-0.3169 Z0.1209
X0.8257 Y-0.3186 Z0.1222
X0.8268 Y-0.3202 Z0.1235
X0.8287 Y-0.3219 Z0.1273
X0.8294 Y-0.3224 Z0.1318
G0 Z1.2
Y-0.3026
G1 Z0.2394 F20.
Z0.0518
X0.8287 Y-0.3031 Z0.0473
X0.8268 Y-0.3048 Z0.0435
X0.8257 Y-0.3064 Z0.0422
X0.8249 Y-0.3081 Z0.0409
X0.8242 Y-0.3103 Z0.0404
X0.824 Y-0.3125 Z0.04
G3 X0.876 I0.026 J0. F40.
X0.824 I-0.026 J0.
G1 X0.8242 Y-0.3147 Z0.0404
X0.8249 Y-0.3169 Z0.0409
X0.8257 Y-0.3186 Z0.0422
X0.8268 Y-0.3202 Z0.0435
X0.8287 Y-0.3219 Z0.0473
X0.8294 Y-0.3224 Z0.0518
G0 Z1.2
Y-0.3026
G1 Z0.1594 F20.
Z-0.0282
X0.8287 Y-0.3031 Z-0.0327
X0.8268 Y-0.3048 Z-0.0365
X0.8257 Y-0.3064 Z-0.0378
X0.8249 Y-0.3081 Z-0.0391
X0.8242 Y-0.3103 Z-0.0396
X0.824 Y-0.3125 Z-0.04
G3 X0.876 I0.026 J0. F40.
X0.824 I-0.026 J0.
G1 X0.8242 Y-0.3147 Z-0.0396
X0.8249 Y-0.3169 Z-0.0391
X0.8257 Y-0.3186 Z-0.0378
X0.8268 Y-0.3202 Z-0.0365
X0.8287 Y-0.3219 Z-0.0327
X0.8294 Y-0.3224 Z-0.0282
G0 Z1.2
X0.3599 Y0.2081
G1 Z1.1194 F20.
Z0.9318
X0.3594 Y0.2088 Z0.9273
X0.3577 Y0.2107 Z0.9235
X0.3561 Y0.2118 Z0.9222
X0.3544 Y0.2126 Z0.9209
X0.3522 Y0.2133 Z0.9204
X0.35 Y0.2135 Z0.92
G3 Y0.1615 I0. J-0.026 F40.
Y0.2135 I0. J0.026
G1 X0.3478 Y0.2133 Z0.9204
X0.3456 Y0.2126 Z0.9209
X0.3439 Y0.2118 Z0.9222
X0.3423 Y0.2107 Z0.9235
X0.3406 Y0.2088 Z0.9273
X0.3401 Y0.2081 Z0.9318
G0 Z1.2
X0.3599
G1 Z1.0394 F20.
Z0.8518
X0.3594 Y0.2088 Z0.8473
X0.3577 Y0.2107 Z0.8435
X0.3561 Y0.2118 Z0.8422
X0.3544 Y0.2126 Z0.8409
X0.3522 Y0.2133 Z0.8404
X0.35 Y0.2135 Z0.84
G3 Y0.1615 I0. J-0.026 F40.
Y0.2135 I0. J0.026
G1 X0.3478 Y0.2133 Z0.8404
X0.3456 Y0.2126 Z0.8409
X0.3439 Y0.2118 Z0.8422
X0.3423 Y0.2107 Z0.8435
X0.3406 Y0.2088 Z0.8473
X0.3401 Y0.2081 Z0.8518
G0 Z1.2
X0.3599
G1 Z0.9594 F20.
Z0.7718
X0.3594 Y0.2088 Z0.7673
X0.3577 Y0.2107 Z0.7635
X0.3561 Y0.2118 Z0.7622
X0.3544 Y0.2126 Z0.7609
X0.3522 Y0.2133 Z0.7604
X0.35 Y0.2135 Z0.76
G3 Y0.1615 I0. J-0.026 F40.
Y0.2135 I0. J0.026
G1 X0.3478 Y0.2133 Z0.7604
X0.3456 Y0.2126 Z0.7609
X0.3439 Y0.2118 Z0.7622
X0.3423 Y0.2107 Z0.7635
X0.3406 Y0.2088 Z0.7673
X0.3401 Y0.2081 Z0.7718
G0 Z1.2
X0.3599
G1 Z0.8794 F20.
Z0.6918
X0.3594 Y0.2088 Z0.6873
X0.3577 Y0.2107 Z0.6835
X0.3561 Y0.2118 Z0.6822
X0.3544 Y0.2126 Z0.6809
X0.3522 Y0.2133 Z0.6804
X0.35 Y0.2135 Z0.68
G3 Y0.1615 I0. J-0.026 F40.
Y0.2135 I0. J0.026
G1 X0.3478 Y0.2133 Z0.6804
X0.3456 Y0.2126 Z0.6809
X0.3439 Y0.2118 Z0.6822
X0.3423 Y0.2107 Z0.6835
X0.3406 Y0.2088 Z0.6873
X0.3401 Y0.2081 Z0.6918
G0 Z1.2
X0.3599
G1 Z0.7994 F20.
Z0.6118
X0.3594 Y0.2088 Z0.6073
X0.3577 Y0.2107 Z0.6035
X0.3561 Y0.2118 Z0.6022
X0.3544 Y0.2126 Z0.6009
X0.3522 Y0.2133 Z0.6004
X0.35 Y0.2135 Z0.6
G3 Y0.1615 I0. J-0.026 F40.
Y0.2135 I0. J0.026
G1 X0.3478 Y0.2133 Z0.6004
X0.3456 Y0.2126 Z0.6009
X0.3439 Y0.2118 Z0.6022
X0.3423 Y0.2107 Z0.6035
X0.3406 Y0.2088 Z0.6073
X0.3401 Y0.2081 Z0.6118
G0 Z1.2
X0.3599
G1 Z0.7194 F20.
Z0.5318
X0.3594 Y0.2088 Z0.5273
X0.3577 Y0.2107 Z0.5235
X0.3561 Y0.2118 Z0.5222
X0.3544 Y0.2126 Z0.5209
X0.3522 Y0.2133 Z0.5204
X0.35 Y0.2135 Z0.52
G3 Y0.1615 I0. J-0.026 F40.
Y0.2135 I0. J0.026
G1 X0.3478 Y0.2133 Z0.5204
X0.3456 Y0.2126 Z0.5209
X0.3439 Y0.2118 Z0.5222
X0.3423 Y0.2107 Z0.5235
X0.3406 Y0.2088 Z0.5273
X0.3401 Y0.2081 Z0.5318
G0 Z1.2
X0.3599
G1 Z0.6394 F20.
Z0.4518
X0.3594 Y0.2088 Z0.4473
X0.3577 Y0.2107 Z0.4435
X0.3561 Y0.2118 Z0.4422
X0.3544 Y0.2126 Z0.4409
X0.3522 Y0.2133 Z0.4404
X0.35 Y0.2135 Z0.44
G3 Y0.1615 I0. J-0.026 F40.
Y0.2135 I0. J0.026
G1 X0.3478 Y0.2133 Z0.4404
X0.3456 Y0.2126 Z0.4409
X0.3439 Y0.2118 Z0.4422
X0.3423 Y0.2107 Z0.4435
X0.3406 Y0.2088 Z0.4473
X0.3401 Y0.2081 Z0.4518
G0 Z1.2
X0.3599
G1 Z0.5594 F20.
Z0.3718
X0.3594 Y0.2088 Z0.3673
X0.3577 Y0.2107 Z0.3635
X0.3561 Y0.2118 Z0.3622
X0.3544 Y0.2126 Z0.3609
X0.3522 Y0.2133 Z0.3604
X0.35 Y0.2135 Z0.36
G3 Y0.1615 I0. J-0.026 F40.
Y0.2135 I0. J0.026
G1 X0.3478 Y0.2133 Z0.3604
X0.3456 Y0.2126 Z0.3609
X0.3439 Y0.2118 Z0.3622
X0.3423 Y0.2107 Z0.3635
X0.3406 Y0.2088 Z0.3673
X0.3401 Y0.2081 Z0.3718
G0 Z1.2
X0.3599
G1 Z0.4794 F20.
Z0.2918
X0.3594 Y0.2088 Z0.2873
X0.3577 Y0.2107 Z0.2835
X0.3561 Y0.2118 Z0.2822
X0.3544 Y0.2126 Z0.2809
X0.3522 Y0.2133 Z0.2804
X0.35 Y0.2135 Z0.28
G3 Y0.1615 I0. J-0.026 F40.
Y0.2135 I0. J0.026
G1 X0.3478 Y0.2133 Z0.2804
X0.3456 Y0.2126 Z0.2809
X0.3439 Y0.2118 Z0.2822
X0.3423 Y0.2107 Z0.2835
X0.3406 Y0.2088 Z0.2873
X0.3401 Y0.2081 Z0.2918
G0 Z1.2
X0.3599
G1 Z0.3994 F20.
Z0.2118
X0.3594 Y0.2088 Z0.2073
X0.3577 Y0.2107 Z0.2035
X0.3561 Y0.2118 Z0.2022
X0.3544 Y0.2126 Z0.2009
X0.3522 Y0.2133 Z0.2004
X0.35 Y0.2135 Z0.2
G3 Y0.1615 I0. J-0.026 F40.
Y0.2135 I0. J0.026
G1 X0.3478 Y0.2133 Z0.2004
X0.3456 Y0.2126 Z0.2009
X0.3439 Y0.2118 Z0.2022
X0.3423 Y0.2107 Z0.2035
X0.3406 Y0.2088 Z0.2073
X0.3401 Y0.2081 Z0.2118
G0 Z1.2
X0.3599
G1 Z0.3194 F20.
Z0.1318
X0.3594 Y0.2088 Z0.1273
X0.3577 Y0.2107 Z0.1235
X0.3561 Y0.2118 Z0.1222
X0.3544 Y0.2126 Z0.1209
X0.3522 Y0.2133 Z0.1204
X0.35 Y0.2135 Z0.12
G3 Y0.1615 I0. J-0.026 F40.
Y0.2135 I0. J0.026
G1 X0.3478 Y0.2133 Z0.1204
X0.3456 Y0.2126 Z0.1209
X0.3439 Y0.2118 Z0.1222
X0.3423 Y0.2107 Z0.1235
X0.3406 Y0.2088 Z0.1273
X0.3401 Y0.2081 Z0.1318
G0 Z1.2
X0.3599
G1 Z0.2394 F20.
Z0.0518
X0.3594 Y0.2088 Z0.0473
X0.3577 Y0.2107 Z0.0435
X0.3561 Y0.2118 Z0.0422
X0.3544 Y0.2126 Z0.0409
X0.3522 Y0.2133 Z0.0404
X0.35 Y0.2135 Z0.04
G3 Y0.1615 I0. J-0.026 F40.
Y0.2135 I0. J0.026
G1 X0.3478 Y0.2133 Z0.0404
X0.3456 Y0.2126 Z0.0409
X0.3439 Y0.2118 Z0.0422
X0.3423 Y0.2107 Z0.0435
X0.3406 Y0.2088 Z0.0473
X0.3401 Y0.2081 Z0.0518
G0 Z1.2
X0.3599
G1 Z0.1594 F20.
Z-0.0282
X0.3594 Y0.2088 Z-0.0327
X0.3577 Y0.2107 Z-0.0365
X0.3561 Y0.2118 Z-0.0378
X0.3544 Y0.2126 Z-0.0391
X0.3522 Y0.2133 Z-0.0396
X0.35 Y0.2135 Z-0.04
G3 Y0.1615 I0. J-0.026 F40.
Y0.2135 I0. J0.026
G1 X0.3478 Y0.2133 Z-0.0396
X0.3456 Y0.2126 Z-0.0391
X0.3439 Y0.2118 Z-0.0378
X0.3423 Y0.2107 Z-0.0365
X0.3406 Y0.2088 Z-0.0327
X0.3401 Y0.2081 Z-0.0282
G0 Z1.2
X-0.3599 Y-0.3331
G1 Z1.1194 F20.
Z0.9318
X-0.3594 Y-0.3338 Z0.9273
X-0.3577 Y-0.3357 Z0.9235
X-0.3561 Y-0.3368 Z0.9222
X-0.3544 Y-0.3376 Z0.9209
X-0.3522 Y-0.3383 Z0.9204
X-0.35 Y-0.3385 Z0.92
G3 Y-0.2865 I0. J0.026 F40.
Y-0.3385 I0. J-0.026
G1 X-0.3478 Y-0.3383 Z0.9204
X-0.3456 Y-0.3376 Z0.9209
X-0.3439 Y-0.3368 Z0.9222
X-0.3423 Y-0.3357 Z0.9235
X-0.3406 Y-0.3338 Z0.9273
X-0.3401 Y-0.3331 Z0.9318
G0 Z1.2
X-0.3599
G1 Z1.0394 F20.
Z0.8518
X-0.3594 Y-0.3338 Z0.8473
X-0.3577 Y-0.3357 Z0.8435
X-0.3561 Y-0.3368 Z0.8422
X-0.3544 Y-0.3376 Z0.8409
X-0.3522 Y-0.3383 Z0.8404
X-0.35 Y-0.3385 Z0.84
G3 Y-0.2865 I0. J0.026 F40.
Y-0.3385 I0. J-0.026
G1 X-0.3478 Y-0.3383 Z0.8404
X-0.3456 Y-0.3376 Z0.8409
X-0.3439 Y-0.3368 Z0.8422
X-0.3423 Y-0.3357 Z0.8435
X-0.3406 Y-0.3338 Z0.8473
X-0.3401 Y-0.3331 Z0.8518
G0 Z1.2
X-0.3599
G1 Z0.9594 F20.
Z0.7718
X-0.3594 Y-0.3338 Z0.7673
X-0.3577 Y-0.3357 Z0.7635
X-0.3561 Y-0.3368 Z0.7622
X-0.3544 Y-0.3376 Z0.7609
X-0.3522 Y-0.3383 Z0.7604
X-0.35 Y-0.3385 Z0.76
G3 Y-0.2865 I0. J0.026 F40.
Y-0.3385 I0. J-0.026
G1 X-0.3478 Y-0.3383 Z0.7604
X-0.3456 Y-0.3376 Z0.7609
X-0.3439 Y-0.3368 Z0.7622
X-0.3423 Y-0.3357 Z0.7635
X-0.3406 Y-0.3338 Z0.7673
X-0.3401 Y-0.3331 Z0.7718
G0 Z1.2
X-0.3599
G1 Z0.8794 F20.
Z0.6918
X-0.3594 Y-0.3338 Z0.6873
X-0.3577 Y-0.3357 Z0.6835
X-0.3561 Y-0.3368 Z0.6822
X-0.3544 Y-0.3376 Z0.6809
X-0.3522 Y-0.3383 Z0.6804
X-0.35 Y-0.3385 Z0.68
G3 Y-0.2865 I0. J0.026 F40.
Y-0.3385 I0. J-0.026
G1 X-0.3478 Y-0.3383 Z0.6804
X-0.3456 Y-0.3376 Z0.6809
X-0.3439 Y-0.3368 Z0.6822
X-0.3423 Y-0.3357 Z0.6835
X-0.3406 Y-0.3338 Z0.6873
X-0.3401 Y-0.3331 Z0.6918
G0 Z1.2
X-0.3599
G1 Z0.7994 F20.
Z0.6118
X-0.3594 Y-0.3338 Z0.6073
X-0.3577 Y-0.3357 Z0.6035
X-0.3561 Y-0.3368 Z0.6022
X-0.3544 Y-0.3376 Z0.6009
X-0.3522 Y-0.3383 Z0.6004
X-0.35 Y-0.3385 Z0.6
G3 Y-0.2865 I0. J0.026 F40.
Y-0.3385 I0. J-0.026
G1 X-0.3478 Y-0.3383 Z0.6004
X-0.3456 Y-0.3376 Z0.6009
X-0.3439 Y-0.3368 Z0.6022
X-0.3423 Y-0.3357 Z0.6035
X-0.3406 Y-0.3338 Z0.6073
X-0.3401 Y-0.3331 Z0.6118
G0 Z1.2
X-0.3599
G1 Z0.7194 F20.
Z0.5318
X-0.3594 Y-0.3338 Z0.5273
X-0.3577 Y-0.3357 Z0.5235
X-0.3561 Y-0.3368 Z0.5222
X-0.3544 Y-0.3376 Z0.5209
X-0.3522 Y-0.3383 Z0.5204
X-0.35 Y-0.3385 Z0.52
G3 Y-0.2865 I0. J0.026 F40.
Y-0.3385 I0. J-0.026
G1 X-0.3478 Y-0.3383 Z0.5204
X-0.3456 Y-0.3376 Z0.5209
X-0.3439 Y-0.3368 Z0.5222
X-0.3423 Y-0.3357 Z0.5235
X-0.3406 Y-0.3338 Z0.5273
X-0.3401 Y-0.3331 Z0.5318
G0 Z1.2
X-0.3599
G1 Z0.6394 F20.
Z0.4518
X-0.3594 Y-0.3338 Z0.4473
X-0.3577 Y-0.3357 Z0.4435
X-0.3561 Y-0.3368 Z0.4422
X-0.3544 Y-0.3376 Z0.4409
X-0.3522 Y-0.3383 Z0.4404
X-0.35 Y-0.3385 Z0.44
G3 Y-0.2865 I0. J0.026 F40.
Y-0.3385 I0. J-0.026
G1 X-0.3478 Y-0.3383 Z0.4404
X-0.3456 Y-0.3376 Z0.4409
X-0.3439 Y-0.3368 Z0.4422
X-0.3423 Y-0.3357 Z0.4435
X-0.3406 Y-0.3338 Z0.4473
X-0.3401 Y-0.3331 Z0.4518
G0 Z1.2
X-0.3599
G1 Z0.5594 F20.
Z0.3718
X-0.3594 Y-0.3338 Z0.3673
X-0.3577 Y-0.3357 Z0.3635
X-0.3561 Y-0.3368 Z0.3622
X-0.3544 Y-0.3376 Z0.3609
X-0.3522 Y-0.3383 Z0.3604
X-0.35 Y-0.3385 Z0.36
G3 Y-0.2865 I0. J0.026 F40.
Y-0.3385 I0. J-0.026
G1 X-0.3478 Y-0.3383 Z0.3604
X-0.3456 Y-0.3376 Z0.3609
X-0.3439 Y-0.3368 Z0.3622
X-0.3423 Y-0.3357 Z0.3635
X-0.3406 Y-0.3338 Z0.3673
X-0.3401 Y-0.3331 Z0.3718
G0 Z1.2
X-0.3599
G1 Z0.4794 F20.
Z0.2918
X-0.3594 Y-0.3338 Z0.2873
X-0.3577 Y-0.3357 Z0.2835
X-0.3561 Y-0.3368 Z0.2822
X-0.3544 Y-0.3376 Z0.2809
X-0.3522 Y-0.3383 Z0.2804
X-0.35 Y-0.3385 Z0.28
G3 Y-0.2865 I0. J0.026 F40.
Y-0.3385 I0. J-0.026
G1 X-0.3478 Y-0.3383 Z0.2804
X-0.3456 Y-0.3376 Z0.2809
X-0.3439 Y-0.3368 Z0.2822
X-0.3423 Y-0.3357 Z0.2835
X-0.3406 Y-0.3338 Z0.2873
X-0.3401 Y-0.3331 Z0.2918
G0 Z1.2
X-0.3599
G1 Z0.3994 F20.
Z0.2118
X-0.3594 Y-0.3338 Z0.2073
X-0.3577 Y-0.3357 Z0.2035
X-0.3561 Y-0.3368 Z0.2022
X-0.3544 Y-0.3376 Z0.2009
X-0.3522 Y-0.3383 Z0.2004
X-0.35 Y-0.3385 Z0.2
G3 Y-0.2865 I0. J0.026 F40.
Y-0.3385 I0. J-0.026
G1 X-0.3478 Y-0.3383 Z0.2004
X-0.3456 Y-0.3376 Z0.2009
X-0.3439 Y-0.3368 Z0.2022
X-0.3423 Y-0.3357 Z0.2035
X-0.3406 Y-0.3338 Z0.2073
X-0.3401 Y-0.3331 Z0.2118
G0 Z1.2
X-0.3599
G1 Z0.3194 F20.
Z0.1318
X-0.3594 Y-0.3338 Z0.1273
X-0.3577 Y-0.3357 Z0.1235
X-0.3561 Y-0.3368 Z0.1222
X-0.3544 Y-0.3376 Z0.1209
X-0.3522 Y-0.3383 Z0.1204
X-0.35 Y-0.3385 Z0.12
G3 Y-0.2865 I0. J0.026 F40.
Y-0.3385 I0. J-0.026
G1 X-0.3478 Y-0.3383 Z0.1204
X-0.3456 Y-0.3376 Z0.1209
X-0.3439 Y-0.3368 Z0.1222
X-0.3423 Y-0.3357 Z0.1235
X-0.3406 Y-0.3338 Z0.1273
X-0.3401 Y-0.3331 Z0.1318
G0 Z1.2
X-0.3599
G1 Z0.2394 F20.
Z0.0518
X-0.3594 Y-0.3338 Z0.0473
X-0.3577 Y-0.3357 Z0.0435
X-0.3561 Y-0.3368 Z0.0422
X-0.3544 Y-0.3376 Z0.0409
X-0.3522 Y-0.3383 Z0.0404
X-0.35 Y-0.3385 Z0.04
G3 Y-0.2865 I0. J0.026 F40.
Y-0.3385 I0. J-0.026
G1 X-0.3478 Y-0.3383 Z0.0404
X-0.3456 Y-0.3376 Z0.0409
X-0.3439 Y-0.3368 Z0.0422
X-0.3423 Y-0.3357 Z0.0435
X-0.3406 Y-0.3338 Z0.0473
X-0.3401 Y-0.3331 Z0.0518
G0 Z1.2
X-0.3599
G1 Z0.1594 F20.
Z-0.0282
X-0.3594 Y-0.3338 Z-0.0327
X-0.3577 Y-0.3357 Z-0.0365
X-0.3561 Y-0.3368 Z-0.0378
X-0.3544 Y-0.3376 Z-0.0391
X-0.3522 Y-0.3383 Z-0.0396
X-0.35 Y-0.3385 Z-0.04
G3 Y-0.2865 I0. J0.026 F40.
Y-0.3385 I0. J-0.026
G1 X-0.3478 Y-0.3383 Z-0.0396
X-0.3456 Y-0.3376 Z-0.0391
X-0.3439 Y-0.3368 Z-0.0378
X-0.3423 Y-0.3357 Z-0.0365
X-0.3406 Y-0.3338 Z-0.0327
X-0.3401 Y-0.3331 Z-0.0282
G0 Z1.2
X-0.8599
G1 Z1.1194 F20.
Z0.9318
X-0.8594 Y-0.3338 Z0.9273
X-0.8577 Y-0.3357 Z0.9235
X-0.8561 Y-0.3368 Z0.9222
X-0.8544 Y-0.3376 Z0.9209
X-0.8522 Y-0.3383 Z0.9204
X-0.85 Y-0.3385 Z0.92
G3 Y-0.2865 I0. J0.026 F40.
Y-0.3385 I0. J-0.026
G1 X-0.8478 Y-0.3383 Z0.9204
X-0.8456 Y-0.3376 Z0.9209
X-0.8439 Y-0.3368 Z0.9222
X-0.8423 Y-0.3357 Z0.9235
X-0.8406 Y-0.3338 Z0.9273
X-0.8401 Y-0.3331 Z0.9318
G0 Z1.2
X-0.8599
G1 Z1.0394 F20.
Z0.8518
X-0.8594 Y-0.3338 Z0.8473
X-0.8577 Y-0.3357 Z0.8435
X-0.8561 Y-0.3368 Z0.8422
X-0.8544 Y-0.3376 Z0.8409
X-0.8522 Y-0.3383 Z0.8404
X-0.85 Y-0.3385 Z0.84
G3 Y-0.2865 I0. J0.026 F40.
Y-0.3385 I0. J-0.026
G1 X-0.8478 Y-0.3383 Z0.8404
X-0.8456 Y-0.3376 Z0.8409
X-0.8439 Y-0.3368 Z0.8422
X-0.8423 Y-0.3357 Z0.8435
X-0.8406 Y-0.3338 Z0.8473
X-0.8401 Y-0.3331 Z0.8518
G0 Z1.2
X-0.8599
G1 Z0.9594 F20.
Z0.7718
X-0.8594 Y-0.3338 Z0.7673
X-0.8577 Y-0.3357 Z0.7635
X-0.8561 Y-0.3368 Z0.7622
X-0.8544 Y-0.3376 Z0.7609
X-0.8522 Y-0.3383 Z0.7604
X-0.85 Y-0.3385 Z0.76
G3 Y-0.2865 I0. J0.026 F40.
Y-0.3385 I0. J-0.026
G1 X-0.8478 Y-0.3383 Z0.7604
X-0.8456 Y-0.3376 Z0.7609
X-0.8439 Y-0.3368 Z0.7622
X-0.8423 Y-0.3357 Z0.7635
X-0.8406 Y-0.3338 Z0.7673
X-0.8401 Y-0.3331 Z0.7718
G0 Z1.2
X-0.8599
G1 Z0.8794 F20.
Z0.6918
X-0.8594 Y-0.3338 Z0.6873
X-0.8577 Y-0.3357 Z0.6835
X-0.8561 Y-0.3368 Z0.6822
X-0.8544 Y-0.3376 Z0.6809
X-0.8522 Y-0.3383 Z0.6804
X-0.85 Y-0.3385 Z0.68
G3 Y-0.2865 I0. J0.026 F40.
Y-0.3385 I0. J-0.026
G1 X-0.8478 Y-0.3383 Z0.6804
X-0.8456 Y-0.3376 Z0.6809
X-0.8439 Y-0.3368 Z0.6822
X-0.8423 Y-0.3357 Z0.6835
X-0.8406 Y-0.3338 Z0.6873
X-0.8401 Y-0.3331 Z0.6918
G0 Z1.2
X-0.8599
G1 Z0.7994 F20.
Z0.6118
X-0.8594 Y-0.3338 Z0.6073
X-0.8577 Y-0.3357 Z0.6035
X-0.8561 Y-0.3368 Z0.6022
X-0.8544 Y-0.3376 Z0.6009
X-0.8522 Y-0.3383 Z0.6004
X-0.85 Y-0.3385 Z0.6
G3 Y-0.2865 I0. J0.026 F40.
Y-0.3385 I0. J-0.026
G1 X-0.8478 Y-0.3383 Z0.6004
X-0.8456 Y-0.3376 Z0.6009
X-0.8439 Y-0.3368 Z0.6022
X-0.8423 Y-0.3357 Z0.6035
X-0.8406 Y-0.3338 Z0.6073
X-0.8401 Y-0.3331 Z0.6118
G0 Z1.2
X-0.8599
G1 Z0.7194 F20.
Z0.5318
X-0.8594 Y-0.3338 Z0.5273
X-0.8577 Y-0.3357 Z0.5235
X-0.8561 Y-0.3368 Z0.5222
X-0.8544 Y-0.3376 Z0.5209
X-0.8522 Y-0.3383 Z0.5204
X-0.85 Y-0.3385 Z0.52
G3 Y-0.2865 I0. J0.026 F40.
Y-0.3385 I0. J-0.026
G1 X-0.8478 Y-0.3383 Z0.5204
X-0.8456 Y-0.3376 Z0.5209
X-0.8439 Y-0.3368 Z0.5222
X-0.8423 Y-0.3357 Z0.5235
X-0.8406 Y-0.3338 Z0.5273
X-0.8401 Y-0.3331 Z0.5318
G0 Z1.2
X-0.8599
G1 Z0.6394 F20.
Z0.4518
X-0.8594 Y-0.3338 Z0.4473
X-0.8577 Y-0.3357 Z0.4435
X-0.8561 Y-0.3368 Z0.4422
X-0.8544 Y-0.3376 Z0.4409
X-0.8522 Y-0.3383 Z0.4404
X-0.85 Y-0.3385 Z0.44
G3 Y-0.2865 I0. J0.026 F40.
Y-0.3385 I0. J-0.026
G1 X-0.8478 Y-0.3383 Z0.4404
X-0.8456 Y-0.3376 Z0.4409
X-0.8439 Y-0.3368 Z0.4422
X-0.8423 Y-0.3357 Z0.4435
X-0.8406 Y-0.3338 Z0.4473
X-0.8401 Y-0.3331 Z0.4518
G0 Z1.2
X-0.8599
G1 Z0.5594 F20.
Z0.3718
X-0.8594 Y-0.3338 Z0.3673
X-0.8577 Y-0.3357 Z0.3635
X-0.8561 Y-0.3368 Z0.3622
X-0.8544 Y-0.3376 Z0.3609
X-0.8522 Y-0.3383 Z0.3604
X-0.85 Y-0.3385 Z0.36
G3 Y-0.2865 I0. J0.026 F40.
Y-0.3385 I0. J-0.026
G1 X-0.8478 Y-0.3383 Z0.3604
X-0.8456 Y-0.3376 Z0.3609
X-0.8439 Y-0.3368 Z0.3622
X-0.8423 Y-0.3357 Z0.3635
X-0.8406 Y-0.3338 Z0.3673
X-0.8401 Y-0.3331 Z0.3718
G0 Z1.2
X-0.8599
G1 Z0.4794 F20.
Z0.2918
X-0.8594 Y-0.3338 Z0.2873
X-0.8577 Y-0.3357 Z0.2835
X-0.8561 Y-0.3368 Z0.2822
X-0.8544 Y-0.3376 Z0.2809
X-0.8522 Y-0.3383 Z0.2804
X-0.85 Y-0.3385 Z0.28
G3 Y-0.2865 I0. J0.026 F40.
Y-0.3385 I0. J-0.026
G1 X-0.8478 Y-0.3383 Z0.2804
X-0.8456 Y-0.3376 Z0.2809
X-0.8439 Y-0.3368 Z0.2822
X-0.8423 Y-0.3357 Z0.2835
X-0.8406 Y-0.3338 Z0.2873
X-0.8401 Y-0.3331 Z0.2918
G0 Z1.2
X-0.8599
G1 Z0.3994 F20.
Z0.2118
X-0.8594 Y-0.3338 Z0.2073
X-0.8577 Y-0.3357 Z0.2035
X-0.8561 Y-0.3368 Z0.2022
X-0.8544 Y-0.3376 Z0.2009
X-0.8522 Y-0.3383 Z0.2004
X-0.85 Y-0.3385 Z0.2
G3 Y-0.2865 I0. J0.026 F40.
Y-0.3385 I0. J-0.026
G1 X-0.8478 Y-0.3383 Z0.2004
X-0.8456 Y-0.3376 Z0.2009
X-0.8439 Y-0.3368 Z0.2022
X-0.8423 Y-0.3357 Z0.2035
X-0.8406 Y-0.3338 Z0.2073
X-0.8401 Y-0.3331 Z0.2118
G0 Z1.2
X-0.8599
G1 Z0.3194 F20.
Z0.1318
X-0.8594 Y-0.3338 Z0.1273
X-0.8577 Y-0.3357 Z0.1235
X-0.8561 Y-0.3368 Z0.1222
X-0.8544 Y-0.3376 Z0.1209
X-0.8522 Y-0.3383 Z0.1204
X-0.85 Y-0.3385 Z0.12
G3 Y-0.2865 I0. J0.026 F40.
Y-0.3385 I0. J-0.026
G1 X-0.8478 Y-0.3383 Z0.1204
X-0.8456 Y-0.3376 Z0.1209
X-0.8439 Y-0.3368 Z0.1222
X-0.8423 Y-0.3357 Z0.1235
X-0.8406 Y-0.3338 Z0.1273
X-0.8401 Y-0.3331 Z0.1318
G0 Z1.2
X-0.8599
G1 Z0.2394 F20.
Z0.0518
X-0.8594 Y-0.3338 Z0.0473
X-0.8577 Y-0.3357 Z0.0435
X-0.8561 Y-0.3368 Z0.0422
X-0.8544 Y-0.3376 Z0.0409
X-0.8522 Y-0.3383 Z0.0404
X-0.85 Y-0.3385 Z0.04
G3 Y-0.2865 I0. J0.026 F40.
Y-0.3385 I0. J-0.026
G1 X-0.8478 Y-0.3383 Z0.0404
X-0.8456 Y-0.3376 Z0.0409
X-0.8439 Y-0.3368 Z0.0422
X-0.8423 Y-0.3357 Z0.0435
X-0.8406 Y-0.3338 Z0.0473
X-0.8401 Y-0.3331 Z0.0518
G0 Z1.2
X-0.8599
G1 Z0.1594 F20.
Z-0.0282
X-0.8594 Y-0.3338 Z-0.0327
X-0.8577 Y-0.3357 Z-0.0365
X-0.8561 Y-0.3368 Z-0.0378
X-0.8544 Y-0.3376 Z-0.0391
X-0.8522 Y-0.3383 Z-0.0396
X-0.85 Y-0.3385 Z-0.04
G3 Y-0.2865 I0. J0.026 F40.
Y-0.3385 I0. J-0.026
G1 X-0.8478 Y-0.3383 Z-0.0396
X-0.8456 Y-0.3376 Z-0.0391
X-0.8439 Y-0.3368 Z-0.0378
X-0.8423 Y-0.3357 Z-0.0365
X-0.8406 Y-0.3338 Z-0.0327
X-0.8401 Y-0.3331 Z-0.0282
G0 Z1.2
X-0.8599 Y0.1669
G1 Z1.1194 F20.
Z0.9318
X-0.8594 Y0.1662 Z0.9273
X-0.8577 Y0.1643 Z0.9235
X-0.8561 Y0.1632 Z0.9222
X-0.8544 Y0.1624 Z0.9209
X-0.8522 Y0.1617 Z0.9204
X-0.85 Y0.1615 Z0.92
G3 Y0.2135 I0. J0.026 F40.
Y0.1615 I0. J-0.026
G1 X-0.8478 Y0.1617 Z0.9204
X-0.8456 Y0.1624 Z0.9209
X-0.8439 Y0.1632 Z0.9222
X-0.8423 Y0.1643 Z0.9235
X-0.8406 Y0.1662 Z0.9273
X-0.8401 Y0.1669 Z0.9318
G0 Z1.2
X-0.8599
G1 Z1.0394 F20.
Z0.8518
X-0.8594 Y0.1662 Z0.8473
X-0.8577 Y0.1643 Z0.8435
X-0.8561 Y0.1632 Z0.8422
X-0.8544 Y0.1624 Z0.8409
X-0.8522 Y0.1617 Z0.8404
X-0.85 Y0.1615 Z0.84
G3 Y0.2135 I0. J0.026 F40.
Y0.1615 I0. J-0.026
G1 X-0.8478 Y0.1617 Z0.8404
X-0.8456 Y0.1624 Z0.8409
X-0.8439 Y0.1632 Z0.8422
X-0.8423 Y0.1643 Z0.8435
X-0.8406 Y0.1662 Z0.8473
X-0.8401 Y0.1669 Z0.8518
G0 Z1.2
X-0.8599
G1 Z0.9594 F20.
Z0.7718
X-0.8594 Y0.1662 Z0.7673
X-0.8577 Y0.1643 Z0.7635
X-0.8561 Y0.1632 Z0.7622
X-0.8544 Y0.1624 Z0.7609
X-0.8522 Y0.1617 Z0.7604
X-0.85 Y0.1615 Z0.76
G3 Y0.2135 I0. J0.026 F40.
Y0.1615 I0. J-0.026
G1 X-0.8478 Y0.1617 Z0.7604
X-0.8456 Y0.1624 Z0.7609
X-0.8439 Y0.1632 Z0.7622
X-0.8423 Y0.1643 Z0.7635
X-0.8406 Y0.1662 Z0.7673
X-0.8401 Y0.1669 Z0.7718
G0 Z1.2
X-0.8599
G1 Z0.8794 F20.
Z0.6918
X-0.8594 Y0.1662 Z0.6873
X-0.8577 Y0.1643 Z0.6835
X-0.8561 Y0.1632 Z0.6822
X-0.8544 Y0.1624 Z0.6809
X-0.8522 Y0.1617 Z0.6804
X-0.85 Y0.1615 Z0.68
G3 Y0.2135 I0. J0.026 F40.
Y0.1615 I0. J-0.026
G1 X-0.8478 Y0.1617 Z0.6804
X-0.8456 Y0.1624 Z0.6809
X-0.8439 Y0.1632 Z0.6822
X-0.8423 Y0.1643 Z0.6835
X-0.8406 Y0.1662 Z0.6873
X-0.8401 Y0.1669 Z0.6918
G0 Z1.2
X-0.8599
G1 Z0.7994 F20.
Z0.6118
X-0.8594 Y0.1662 Z0.6073
X-0.8577 Y0.1643 Z0.6035
X-0.8561 Y0.1632 Z0.6022
X-0.8544 Y0.1624 Z0.6009
X-0.8522 Y0.1617 Z0.6004
X-0.85 Y0.1615 Z0.6
G3 Y0.2135 I0. J0.026 F40.
Y0.1615 I0. J-0.026
G1 X-0.8478 Y0.1617 Z0.6004
X-0.8456 Y0.1624 Z0.6009
X-0.8439 Y0.1632 Z0.6022
X-0.8423 Y0.1643 Z0.6035
X-0.8406 Y0.1662 Z0.6073
X-0.8401 Y0.1669 Z0.6118
G0 Z1.2
X-0.8599
G1 Z0.7194 F20.
Z0.5318
X-0.8594 Y0.1662 Z0.5273
X-0.8577 Y0.1643 Z0.5235
X-0.8561 Y0.1632 Z0.5222
X-0.8544 Y0.1624 Z0.5209
X-0.8522 Y0.1617 Z0.5204
X-0.85 Y0.1615 Z0.52
G3 Y0.2135 I0. J0.026 F40.
Y0.1615 I0. J-0.026
G1 X-0.8478 Y0.1617 Z0.5204
X-0.8456 Y0.1624 Z0.5209
X-0.8439 Y0.1632 Z0.5222
X-0.8423 Y0.1643 Z0.5235
X-0.8406 Y0.1662 Z0.5273
X-0.8401 Y0.1669 Z0.5318
G0 Z1.2
X-0.8599
G1 Z0.6394 F20.
Z0.4518
X-0.8594 Y0.1662 Z0.4473
X-0.8577 Y0.1643 Z0.4435
X-0.8561 Y0.1632 Z0.4422
X-0.8544 Y0.1624 Z0.4409
X-0.8522 Y0.1617 Z0.4404
X-0.85 Y0.1615 Z0.44
G3 Y0.2135 I0. J0.026 F40.
Y0.1615 I0. J-0.026
G1 X-0.8478 Y0.1617 Z0.4404
X-0.8456 Y0.1624 Z0.4409
X-0.8439 Y0.1632 Z0.4422
X-0.8423 Y0.1643 Z0.4435
X-0.8406 Y0.1662 Z0.4473
X-0.8401 Y0.1669 Z0.4518
G0 Z1.2
X-0.8599
G1 Z0.5594 F20.
Z0.3718
X-0.8594 Y0.1662 Z0.3673
X-0.8577 Y0.1643 Z0.3635
X-0.8561 Y0.1632 Z0.3622
X-0.8544 Y0.1624 Z0.3609
X-0.8522 Y0.1617 Z0.3604
X-0.85 Y0.1615 Z0.36
G3 Y0.2135 I0. J0.026 F40.
Y0.1615 I0. J-0.026
G1 X-0.8478 Y0.1617 Z0.3604
X-0.8456 Y0.1624 Z0.3609
X-0.8439 Y0.1632 Z0.3622
X-0.8423 Y0.1643 Z0.3635
X-0.8406 Y0.1662 Z0.3673
X-0.8401 Y0.1669 Z0.3718
G0 Z1.2
X-0.8599
G1 Z0.4794 F20.
Z0.2918
X-0.8594 Y0.1662 Z0.2873
X-0.8577 Y0.1643 Z0.2835
X-0.8561 Y0.1632 Z0.2822
X-0.8544 Y0.1624 Z0.2809
X-0.8522 Y0.1617 Z0.2804
X-0.85 Y0.1615 Z0.28
G3 Y0.2135 I0. J0.026 F40.
Y0.1615 I0. J-0.026
G1 X-0.8478 Y0.1617 Z0.2804
X-0.8456 Y0.1624 Z0.2809
X-0.8439 Y0.1632 Z0.2822
X-0.8423 Y0.1643 Z0.2835
X-0.8406 Y0.1662 Z0.2873
X-0.8401 Y0.1669 Z0.2918
G0 Z1.2
X-0.8599
G1 Z0.3994 F20.
Z0.2118
X-0.8594 Y0.1662 Z0.2073
X-0.8577 Y0.1643 Z0.2035
X-0.8561 Y0.1632 Z0.2022
X-0.8544 Y0.1624 Z0.2009
X-0.8522 Y0.1617 Z0.2004
X-0.85 Y0.1615 Z0.2
G3 Y0.2135 I0. J0.026 F40.
Y0.1615 I0. J-0.026
G1 X-0.8478 Y0.1617 Z0.2004
X-0.8456 Y0.1624 Z0.2009
X-0.8439 Y0.1632 Z0.2022
X-0.8423 Y0.1643 Z0.2035
X-0.8406 Y0.1662 Z0.2073
X-0.8401 Y0.1669 Z0.2118
G0 Z1.2
X-0.8599
G1 Z0.3194 F20.
Z0.1318
X-0.8594 Y0.1662 Z0.1273
X-0.8577 Y0.1643 Z0.1235
X-0.8561 Y0.1632 Z0.1222
X-0.8544 Y0.1624 Z0.1209
X-0.8522 Y0.1617 Z0.1204
X-0.85 Y0.1615 Z0.12
G3 Y0.2135 I0. J0.026 F40.
Y0.1615 I0. J-0.026
G1 X-0.8478 Y0.1617 Z0.1204
X-0.8456 Y0.1624 Z0.1209
X-0.8439 Y0.1632 Z0.1222
X-0.8423 Y0.1643 Z0.1235
X-0.8406 Y0.1662 Z0.1273
X-0.8401 Y0.1669 Z0.1318
G0 Z1.2
X-0.8599
G1 Z0.2394 F20.
Z0.0518
X-0.8594 Y0.1662 Z0.0473
X-0.8577 Y0.1643 Z0.0435
X-0.8561 Y0.1632 Z0.0422
X-0.8544 Y0.1624 Z0.0409
X-0.8522 Y0.1617 Z0.0404
X-0.85 Y0.1615 Z0.04
G3 Y0.2135 I0. J0.026 F40.
Y0.1615 I0. J-0.026
G1 X-0.8478 Y0.1617 Z0.0404
X-0.8456 Y0.1624 Z0.0409
X-0.8439 Y0.1632 Z0.0422
X-0.8423 Y0.1643 Z0.0435
X-0.8406 Y0.1662 Z0.0473
X-0.8401 Y0.1669 Z0.0518
G0 Z1.2
X-0.8599
G1 Z0.1594 F20.
Z-0.0282
X-0.8594 Y0.1662 Z-0.0327
X-0.8577 Y0.1643 Z-0.0365
X-0.8561 Y0.1632 Z-0.0378
X-0.8544 Y0.1624 Z-0.0391
X-0.8522 Y0.1617 Z-0.0396
X-0.85 Y0.1615 Z-0.04
G3 Y0.2135 I0. J0.026 F40.
Y0.1615 I0. J-0.026
G1 X-0.8478 Y0.1617 Z-0.0396
X-0.8456 Y0.1624 Z-0.0391
X-0.8439 Y0.1632 Z-0.0378
X-0.8423 Y0.1643 Z-0.0365
X-0.8406 Y0.1662 Z-0.0327
X-0.8401 Y0.1669 Z-0.0282
G0 Z1.6

(2D CONTOUR1)
G0 X1.1944 Y-0.1815
Z1.6
Z1.2
G1 Z1.1294 F20.
Z1.1118
G18 G3 X1.1826 Z1.1 I-0.0118 K0. F40.
G1 X1.1708
G17 G3 X1.159 Y-0.1933 I0. J-0.0118
G1 Y-0.4375 Z1.0915 F20.
G2 X0.975 Y-0.6215 Z1.0814 I-0.184 J0.
G1 X0.225 Z1.0552
G2 X0.041 Y-0.4375 Z1.0451 I0. J0.184
G1 Y0.4375 Z1.0145
G2 X0.225 Y0.6215 Z1.0044 I0.184 J0.
G1 X0.5494 Z0.9931
G2 X0.7156 Y0.5166 Z0.9859 I0. J-0.184
G3 X1.0738 Y0.1113 Z0.9667 I0.8844 J0.4209
G2 X1.159 Y-0.0439 Z0.9603 I-0.0988 J-0.1552
G1 Y-0.4375 Z0.9465
G2 X0.975 Y-0.6215 Z0.9365 I-0.184 J0.
G1 X0.225 Z0.9103
X0.2175 Y-0.6213 Z0.91
G2 X0.041 Y-0.4375 I0.0075 J0.1838 F40.
G1 Y0.4375
G2 X0.225 Y0.6215 I0.184 J0.
G1 X0.5494
G2 X0.7156 Y0.5166 I0. J-0.184
G3 X1.0738 Y0.1113 I0.8844 J0.4209
G2 X1.159 Y-0.0439 I-0.0988 J-0.1552
G1 Y-0.4375
G2 X0.975 Y-0.6215 I-0.184 J0.
G1 X0.225
X0.2175 Y-0.6213
G3 X0.2052 Y-0.6327 I-0.0005 J-0.0118
G1 X0.2048 Y-0.6444
X0.2047 Y-0.6471 Z0.9103
X0.2046 Y-0.6496 Z0.9112
X0.2045 Y-0.6518 Z0.9126
X0.2044 Y-0.6537 Z0.9144
X0.2043 Y-0.6551 Z0.9167
Y-0.6559 Z0.9192
Y-0.6562 Z0.9218
G0 Z1.2
X-0.4043 Y0.443
G1 Z1.1294 F20.
Z1.1118
X-0.4045 Y0.4428 Z1.1092 F40.
X-0.4053 Y0.4423 Z1.1067
X-0.4065 Y0.4416 Z1.1044
X-0.4081 Y0.4406 Z1.1026
X-0.4099 Y0.4394 Z1.1012
X-0.412 Y0.4381 Z1.1003
X-0.4143 Y0.4367 Z1.1
X-0.4242 Y0.4303
G3 X-0.4279 Y0.4141 I0.0063 J-0.01
X-0.1262 Y0.1113 Z1.085 I0.8279 J0.5234 F20.
G2 X-0.041 Y-0.0439 Z1.0785 I-0.0988 J-0.1552
G1 Y-0.4375 Z1.0648
G2 X-0.225 Y-0.6215 Z1.0547 I-0.184 J0.
G1 X-0.975 Z1.0285
G2 X-1.159 Y-0.4375 Z1.0184 I0. J0.184
G1 Y0.4375 Z0.9878
G2 X-0.975 Y0.6215 Z0.9777 I0.184 J0.
G1 X-0.6506 Z0.9664
G2 X-0.4844 Y0.5166 Z0.9592 I0. J-0.184
G3 X-0.1262 Y0.1113 Z0.94 I0.8844 J0.4209
G2 X-0.041 Y-0.0439 Z0.9336 I-0.0988 J-0.1552
G1 Y-0.4375 Z0.9198
G2 X-0.2175 Y-0.6213 Z0.91 I-0.184 J0.
G1 X-0.225 Y-0.6215 F40.
X-0.975
G2 X-1.159 Y-0.4375 I0. J0.184
G1 Y0.4375
G2 X-0.975 Y0.6215 I0.184 J0.
G1 X-0.6506
G2 X-0.4844 Y0.5166 I0. J-0.184
G3 X-0.1262 Y0.1113 I0.8844 J0.4209
G2 X-0.041 Y-0.0439 I-0.0988 J-0.1552
G1 Y-0.4375
G2 X-0.2175 Y-0.6213 I-0.184 J0.
G3 X-0.2288 Y-0.6336 I0.0005 J-0.0118
G1 X-0.2283 Y-0.6454
X-0.2282 Y-0.648 Z0.9103
X-0.2281 Y-0.6505 Z0.9112
X-0.228 Y-0.6528 Z0.9126
Y-0.6546 Z0.9144
X-0.2279 Y-0.656 Z0.9167
Y-0.6569 Z0.9192
Y-0.6572 Z0.9218
G0 Z1.2
X-0.4043 Y0.443
G1 Z1.0394 F20.
Z1.0218
X-0.4045 Y0.4428 Z1.0192 F40.
X-0.4053 Y0.4423 Z1.0167
X-0.4065 Y0.4416 Z1.0144
X-0.4081 Y0.4406 Z1.0126
X-0.4099 Y0.4394 Z1.0112
X-0.412 Y0.4381 Z1.0103
X-0.4143 Y0.4367 Z1.01
X-0.4242 Y0.4303
G3 X-0.4279 Y0.4141 I0.0063 J-0.01
X-0.1262 Y0.1113 Z0.995 I0.8279 J0.5234 F20.
G2 X-0.041 Y-0.0439 Z0.9885 I-0.0988 J-0.1552
G1 Y-0.4375 Z0.9748
G2 X-0.225 Y-0.6215 Z0.9647 I-0.184 J0.
G1 X-0.975 Z0.9385
G2 X-1.159 Y-0.4375 Z0.9284 I0. J0.184
G1 Y0.4375 Z0.8978
G2 X-0.975 Y0.6215 Z0.8877 I0.184 J0.
G1 X-0.6506 Z0.8764
G2 X-0.4844 Y0.5166 Z0.8692 I0. J-0.184
G3 X-0.1262 Y0.1113 Z0.85 I0.8844 J0.4209
G2 X-0.041 Y-0.0439 Z0.8436 I-0.0988 J-0.1552
G1 Y-0.4375 Z0.8298
G2 X-0.2175 Y-0.6213 Z0.82 I-0.184 J0.
G1 X-0.225 Y-0.6215 F40.
X-0.975
G2 X-1.159 Y-0.4375 I0. J0.184
G1 Y0.4375
G2 X-0.975 Y0.6215 I0.184 J0.
G1 X-0.6506
G2 X-0.4844 Y0.5166 I0. J-0.184
G3 X-0.1262 Y0.1113 I0.8844 J0.4209
G2 X-0.041 Y-0.0439 I-0.0988 J-0.1552
G1 Y-0.4375
G2 X-0.2175 Y-0.6213 I-0.184 J0.
G3 X-0.2288 Y-0.6336 I0.0005 J-0.0118
G1 X-0.2283 Y-0.6454
X-0.2282 Y-0.648 Z0.8203
X-0.2281 Y-0.6505 Z0.8212
X-0.228 Y-0.6528 Z0.8226
Y-0.6546 Z0.8244
X-0.2279 Y-0.656 Z0.8267
Y-0.6569 Z0.8292
Y-0.6572 Z0.8318
G0 Z1.2
X1.1944 Y-0.1815
G1 Z1.0394 F20.
Z1.0218
G18 G3 X1.1826 Z1.01 I-0.0118 K0. F40.
G1 X1.1708
G17 G3 X1.159 Y-0.1933 I0. J-0.0118
G1 Y-0.4375 Z1.0015 F20.
G2 X0.975 Y-0.6215 Z0.9914 I-0.184 J0.
G1 X0.225 Z0.9652
G2 X0.041 Y-0.4375 Z0.9551 I0. J0.184
G1 Y0.4375 Z0.9245
G2 X0.225 Y0.6215 Z0.9144 I0.184 J0.
G1 X0.5494 Z0.9031
G2 X0.7156 Y0.5166 Z0.8959 I0. J-0.184
G3 X1.0738 Y0.1113 Z0.8767 I0.8844 J0.4209
G2 X1.159 Y-0.0439 Z0.8703 I-0.0988 J-0.1552
G1 Y-0.4375 Z0.8565
G2 X0.975 Y-0.6215 Z0.8465 I-0.184 J0.
G1 X0.225 Z0.8203
X0.2175 Y-0.6213 Z0.82
G2 X0.041 Y-0.4375 I0.0075 J0.1838 F40.
G1 Y0.4375
G2 X0.225 Y0.6215 I0.184 J0.
G1 X0.5494
G2 X0.7156 Y0.5166 I0. J-0.184
G3 X1.0738 Y0.1113 I0.8844 J0.4209
G2 X1.159 Y-0.0439 I-0.0988 J-0.1552
G1 Y-0.4375
G2 X0.975 Y-0.6215 I-0.184 J0.
G1 X0.225
X0.2175 Y-0.6213
G2 X0.041 Y-0.4375 Z0.8102 I0.0075 J0.1838 F20.
G1 Y0.4375 Z0.7796
G2 X0.225 Y0.6215 Z0.7695 I0.184 J0.
G1 X0.5494 Z0.7582
G2 X0.7156 Y0.5166 Z0.751 I0. J-0.184
G3 X1.0738 Y0.1113 Z0.7318 I0.8844 J0.4209
G2 X1.1132 Y0.0776 Z0.73 I-0.0988 J-0.1552
X1.159 Y-0.0439 I-0.1382 J-0.1215 F40.
G1 Y-0.4375
G2 X0.975 Y-0.6215 I-0.184 J0.
G1 X0.225
G2 X0.041 Y-0.4375 I0. J0.184
G1 Y0.4375
G2 X0.225 Y0.6215 I0.184 J0.
G1 X0.5494
G2 X0.7156 Y0.5166 I0. J-0.184
G3 X1.0738 Y0.1113 I0.8844 J0.4209
G2 X1.1132 Y0.0776 I-0.0988 J-0.1552
G3 X1.1298 Y0.0766 I0.0089 J0.0078
G1 X1.1387 Y0.0844
X1.1406 Y0.0861 Z0.7303
X1.1425 Y0.0877 Z0.7312
X1.1442 Y0.0892 Z0.7326
X1.1456 Y0.0905 Z0.7344
X1.1467 Y0.0914 Z0.7367
X1.1473 Y0.092 Z0.7392
X1.1475 Y0.0922 Z0.7418
G0 Z1.2
X-0.4043 Y0.443
G1 Z0.9494 F20.
Z0.9318
X-0.4045 Y0.4428 Z0.9292 F40.
X-0.4053 Y0.4423 Z0.9267
X-0.4065 Y0.4416 Z0.9244
X-0.4081 Y0.4406 Z0.9226
X-0.4099 Y0.4394 Z0.9212
X-0.412 Y0.4381 Z0.9203
X-0.4143 Y0.4367 Z0.92
X-0.4242 Y0.4303
G3 X-0.4279 Y0.4141 I0.0063 J-0.01
X-0.1262 Y0.1113 Z0.905 I0.8279 J0.5234 F20.
G2 X-0.041 Y-0.0439 Z0.8985 I-0.0988 J-0.1552
G1 Y-0.4375 Z0.8848
G2 X-0.225 Y-0.6215 Z0.8747 I-0.184 J0.
G1 X-0.975 Z0.8485
G2 X-1.159 Y-0.4375 Z0.8384 I0. J0.184
G1 Y0.4375 Z0.8078
G2 X-0.975 Y0.6215 Z0.7977 I0.184 J0.
G1 X-0.6506 Z0.7864
G2 X-0.4844 Y0.5166 Z0.7792 I0. J-0.184
G3 X-0.1262 Y0.1113 Z0.76 I0.8844 J0.4209
G2 X-0.041 Y-0.0439 Z0.7536 I-0.0988 J-0.1552
G1 Y-0.4375 Z0.7398
G2 X-0.2175 Y-0.6213 Z0.73 I-0.184 J0.
G1 X-0.225 Y-0.6215 F40.
X-0.975
G2 X-1.159 Y-0.4375 I0. J0.184
G1 Y0.4375
G2 X-0.975 Y0.6215 I0.184 J0.
G1 X-0.6506
G2 X-0.4844 Y0.5166 I0. J-0.184
G3 X-0.1262 Y0.1113 I0.8844 J0.4209
G2 X-0.041 Y-0.0439 I-0.0988 J-0.1552
G1 Y-0.4375
G2 X-0.2175 Y-0.6213 I-0.184 J0.
G3 X-0.2288 Y-0.6336 I0.0005 J-0.0118
G1 X-0.2283 Y-0.6454
X-0.2282 Y-0.648 Z0.7303
X-0.2281 Y-0.6505 Z0.7312
X-0.228 Y-0.6528 Z0.7326
Y-0.6546 Z0.7344
X-0.2279 Y-0.656 Z0.7367
Y-0.6569 Z0.7392
Y-0.6572 Z0.7418
G0 Z1.2
X-0.4043 Y0.443
G1 Z0.8594 F20.
Z0.8418
X-0.4045 Y0.4428 Z0.8392 F40.
X-0.4053 Y0.4423 Z0.8367
X-0.4065 Y0.4416 Z0.8344
X-0.4081 Y0.4406 Z0.8326
X-0.4099 Y0.4394 Z0.8312
X-0.412 Y0.4381 Z0.8303
X-0.4143 Y0.4367 Z0.83
X-0.4242 Y0.4303
G3 X-0.4279 Y0.4141 I0.0063 J-0.01
X-0.1262 Y0.1113 Z0.815 I0.8279 J0.5234 F20.
G2 X-0.041 Y-0.0439 Z0.8085 I-0.0988 J-0.1552
G1 Y-0.4375 Z0.7948
G2 X-0.225 Y-0.6215 Z0.7847 I-0.184 J0.
G1 X-0.975 Z0.7585
G2 X-1.159 Y-0.4375 Z0.7484 I0. J0.184
G1 Y0.4375 Z0.7178
G2 X-0.975 Y0.6215 Z0.7077 I0.184 J0.
G1 X-0.6506 Z0.6964
G2 X-0.4844 Y0.5166 Z0.6892 I0. J-0.184
G3 X-0.1262 Y0.1113 Z0.67 I0.8844 J0.4209
G2 X-0.041 Y-0.0439 Z0.6636 I-0.0988 J-0.1552
G1 Y-0.4375 Z0.6498
G2 X-0.2175 Y-0.6213 Z0.64 I-0.184 J0.
G1 X-0.225 Y-0.6215 F40.
X-0.975
G2 X-1.159 Y-0.4375 I0. J0.184
G1 Y0.4375
G2 X-0.975 Y0.6215 I0.184 J0.
G1 X-0.6506
G2 X-0.4844 Y0.5166 I0. J-0.184
G3 X-0.1262 Y0.1113 I0.8844 J0.4209
G2 X-0.041 Y-0.0439 I-0.0988 J-0.1552
G1 Y-0.4375
G2 X-0.2175 Y-0.6213 I-0.184 J0.
G3 X-0.2288 Y-0.6336 I0.0005 J-0.0118
G1 X-0.2283 Y-0.6454
X-0.2282 Y-0.648 Z0.6403
X-0.2281 Y-0.6505 Z0.6412
X-0.228 Y-0.6528 Z0.6426
Y-0.6546 Z0.6444
X-0.2279 Y-0.656 Z0.6467
Y-0.6569 Z0.6492
Y-0.6572 Z0.6518
G0 Z1.2
X1.1944 Y-0.1815
G1 Z0.8594 F20.
Z0.8418
G18 G3 X1.1826 Z0.83 I-0.0118 K0. F40.
G1 X1.1708
G17 G3 X1.159 Y-0.1933 I0. J-0.0118
G1 Y-0.4375 Z0.8215 F20.
G2 X0.975 Y-0.6215 Z0.8114 I-0.184 J0.
G1 X0.225 Z0.7852
G2 X0.041 Y-0.4375 Z0.7751 I0. J0.184
G1 Y0.4375 Z0.7445
G2 X0.225 Y0.6215 Z0.7344 I0.184 J0.
G1 X0.5494 Z0.7231
G2 X0.7156 Y0.5166 Z0.7159 I0. J-0.184
G3 X1.0738 Y0.1113 Z0.6967 I0.8844 J0.4209
G2 X1.159 Y-0.0439 Z0.6903 I-0.0988 J-0.1552
G1 Y-0.4375 Z0.6765
G2 X0.975 Y-0.6215 Z0.6665 I-0.184 J0.
G1 X0.225 Z0.6403
X0.2175 Y-0.6213 Z0.64
G2 X0.041 Y-0.4375 I0.0075 J0.1838 F40.
G1 Y0.4375
G2 X0.225 Y0.6215 I0.184 J0.
G1 X0.5494
G2 X0.7156 Y0.5166 I0. J-0.184
G3 X1.0738 Y0.1113 I0.8844 J0.4209
G2 X1.159 Y-0.0439 I-0.0988 J-0.1552
G1 Y-0.4375
G2 X0.975 Y-0.6215 I-0.184 J0.
G1 X0.225
X0.2175 Y-0.6213
G2 X0.041 Y-0.4375 Z0.6302 I0.0075 J0.1838 F20.
G1 Y0.4375 Z0.5996
G2 X0.225 Y0.6215 Z0.5895 I0.184 J0.
G1 X0.5494 Z0.5782
G2 X0.7156 Y0.5166 Z0.571 I0. J-0.184
G3 X1.0738 Y0.1113 Z0.5518 I0.8844 J0.4209
G2 X1.1132 Y0.0776 Z0.55 I-0.0988 J-0.1552
X1.159 Y-0.0439 I-0.1382 J-0.1215 F40.
G1 Y-0.4375
G2 X0.975 Y-0.6215 I-0.184 J0.
G1 X0.225
G2 X0.041 Y-0.4375 I0. J0.184
G1 Y0.4375
G2 X0.225 Y0.6215 I0.184 J0.
G1 X0.5494
G2 X0.7156 Y0.5166 I0. J-0.184
G3 X1.0738 Y0.1113 I0.8844 J0.4209
G2 X1.1132 Y0.0776 I-0.0988 J-0.1552
G3 X1.1298 Y0.0766 I0.0089 J0.0078
G1 X1.1387 Y0.0844
X1.1406 Y0.0861 Z0.5503
X1.1425 Y0.0877 Z0.5512
X1.1442 Y0.0892 Z0.5526
X1.1456 Y0.0905 Z0.5544
X1.1467 Y0.0914 Z0.5567
X1.1473 Y0.092 Z0.5592
X1.1475 Y0.0922 Z0.5618
G0 Z1.2
X-0.4043 Y0.443
G1 Z0.7694 F20.
Z0.7518
X-0.4045 Y0.4428 Z0.7492 F40.
X-0.4053 Y0.4423 Z0.7467
X-0.4065 Y0.4416 Z0.7444
X-0.4081 Y0.4406 Z0.7426
X-0.4099 Y0.4394 Z0.7412
X-0.412 Y0.4381 Z0.7403
X-0.4143 Y0.4367 Z0.74
X-0.4242 Y0.4303
G3 X-0.4279 Y0.4141 I0.0063 J-0.01
X-0.1262 Y0.1113 Z0.725 I0.8279 J0.5234 F20.
G2 X-0.041 Y-0.0439 Z0.7185 I-0.0988 J-0.1552
G1 Y-0.4375 Z0.7048
G2 X-0.225 Y-0.6215 Z0.6947 I-0.184 J0.
G1 X-0.975 Z0.6685
G2 X-1.159 Y-0.4375 Z0.6584 I0. J0.184
G1 Y0.4375 Z0.6278
G2 X-0.975 Y0.6215 Z0.6177 I0.184 J0.
G1 X-0.6506 Z0.6064
G2 X-0.4844 Y0.5166 Z0.5992 I0. J-0.184
G3 X-0.1262 Y0.1113 Z0.58 I0.8844 J0.4209
G2 X-0.041 Y-0.0439 Z0.5736 I-0.0988 J-0.1552
G1 Y-0.4375 Z0.5598
G2 X-0.2175 Y-0.6213 Z0.55 I-0.184 J0.
G1 X-0.225 Y-0.6215 F40.
X-0.975
G2 X-1.159 Y-0.4375 I0. J0.184
G1 Y0.4375
G2 X-0.975 Y0.6215 I0.184 J0.
G1 X-0.6506
G2 X-0.4844 Y0.5166 I0. J-0.184
G3 X-0.1262 Y0.1113 I0.8844 J0.4209
G2 X-0.041 Y-0.0439 I-0.0988 J-0.1552
G1 Y-0.4375
G2 X-0.2175 Y-0.6213 I-0.184 J0.
G3 X-0.2288 Y-0.6336 I0.0005 J-0.0118
G1 X-0.2283 Y-0.6454
X-0.2282 Y-0.648 Z0.5503
X-0.2281 Y-0.6505 Z0.5512
X-0.228 Y-0.6528 Z0.5526
Y-0.6546 Z0.5544
X-0.2279 Y-0.656 Z0.5567
Y-0.6569 Z0.5592
Y-0.6572 Z0.5618
G0 Z1.2
X-0.4043 Y0.443
G1 Z0.6794 F20.
Z0.6618
X-0.4045 Y0.4428 Z0.6592 F40.
X-0.4053 Y0.4423 Z0.6567
X-0.4065 Y0.4416 Z0.6544
X-0.4081 Y0.4406 Z0.6526
X-0.4099 Y0.4394 Z0.6512
X-0.412 Y0.4381 Z0.6503
X-0.4143 Y0.4367 Z0.65
X-0.4242 Y0.4303
G3 X-0.4279 Y0.4141 I0.0063 J-0.01
X-0.1262 Y0.1113 Z0.635 I0.8279 J0.5234 F20.
G2 X-0.041 Y-0.0439 Z0.6285 I-0.0988 J-0.1552
G1 Y-0.4375 Z0.6148
G2 X-0.225 Y-0.6215 Z0.6047 I-0.184 J0.
G1 X-0.975 Z0.5785
G2 X-1.159 Y-0.4375 Z0.5684 I0. J0.184
G1 Y0.4375 Z0.5378
G2 X-0.975 Y0.6215 Z0.5277 I0.184 J0.
G1 X-0.6506 Z0.5164
G2 X-0.4844 Y0.5166 Z0.5092 I0. J-0.184
G3 X-0.1262 Y0.1113 Z0.49 I0.8844 J0.4209
G2 X-0.041 Y-0.0439 Z0.4836 I-0.0988 J-0.1552
G1 Y-0.4375 Z0.4698
G2 X-0.2175 Y-0.6213 Z0.46 I-0.184 J0.
G1 X-0.225 Y-0.6215 F40.
X-0.975
G2 X-1.159 Y-0.4375 I0. J0.184
G1 Y0.4375
G2 X-0.975 Y0.6215 I0.184 J0.
G1 X-0.6506
G2 X-0.4844 Y0.5166 I0. J-0.184
G3 X-0.1262 Y0.1113 I0.8844 J0.4209
G2 X-0.041 Y-0.0439 I-0.0988 J-0.1552
G1 Y-0.4375
G2 X-0.2175 Y-0.6213 I-0.184 J0.
G3 X-0.2288 Y-0.6336 I0.0005 J-0.0118
G1 X-0.2283 Y-0.6454
X-0.2282 Y-0.648 Z0.4603
X-0.2281 Y-0.6505 Z0.4612
X-0.228 Y-0.6528 Z0.4626
Y-0.6546 Z0.4644
X-0.2279 Y-0.656 Z0.4667
Y-0.6569 Z0.4692
Y-0.6572 Z0.4718
G0 Z1.2
X1.1944 Y-0.1815
G1 Z0.6794 F20.
Z0.6618
G18 G3 X1.1826 Z0.65 I-0.0118 K0. F40.
G1 X1.1708
G17 G3 X1.159 Y-0.1933 I0. J-0.0118
G1 Y-0.4375 Z0.6415 F20.
G2 X0.975 Y-0.6215 Z0.6314 I-0.184 J0.
G1 X0.225 Z0.6052
G2 X0.041 Y-0.4375 Z0.5951 I0. J0.184
G1 Y0.4375 Z0.5645
G2 X0.225 Y0.6215 Z0.5544 I0.184 J0.
G1 X0.5494 Z0.5431
G2 X0.7156 Y0.5166 Z0.5359 I0. J-0.184
G3 X1.0738 Y0.1113 Z0.5167 I0.8844 J0.4209
G2 X1.159 Y-0.0439 Z0.5103 I-0.0988 J-0.1552
G1 Y-0.4375 Z0.4965
G2 X0.975 Y-0.6215 Z0.4865 I-0.184 J0.
G1 X0.225 Z0.4603
X0.2175 Y-0.6213 Z0.46
G2 X0.041 Y-0.4375 I0.0075 J0.1838 F40.
G1 Y0.4375
G2 X0.225 Y0.6215 I0.184 J0.
G1 X0.5494
G2 X0.7156 Y0.5166 I0. J-0.184
G3 X1.0738 Y0.1113 I0.8844 J0.4209
G2 X1.159 Y-0.0439 I-0.0988 J-0.1552
G1 Y-0.4375
G2 X0.975 Y-0.6215 I-0.184 J0.
G1 X0.225
X0.2175 Y-0.6213
G2 X0.041 Y-0.4375 Z0.4502 I0.0075 J0.1838 F20.
G1 Y0.4375 Z0.4196
G2 X0.225 Y0.6215 Z0.4095 I0.184 J0.
G1 X0.5494 Z0.3982
G2 X0.7156 Y0.5166 Z0.391 I0. J-0.184
G3 X1.0738 Y0.1113 Z0.3718 I0.8844 J0.4209
G2 X1.1132 Y0.0776 Z0.37 I-0.0988 J-0.1552
X1.159 Y-0.0439 I-0.1382 J-0.1215 F40.
G1 Y-0.4375
G2 X0.975 Y-0.6215 I-0.184 J0.
G1 X0.225
G2 X0.041 Y-0.4375 I0. J0.184
G1 Y0.4375
G2 X0.225 Y0.6215 I0.184 J0.
G1 X0.5494
G2 X0.7156 Y0.5166 I0. J-0.184
G3 X1.0738 Y0.1113 I0.8844 J0.4209
G2 X1.1132 Y0.0776 I-0.0988 J-0.1552
G3 X1.1298 Y0.0766 I0.0089 J0.0078
G1 X1.1387 Y0.0844
X1.1406 Y0.0861 Z0.3703
X1.1425 Y0.0877 Z0.3712
X1.1442 Y0.0892 Z0.3726
X1.1456 Y0.0905 Z0.3744
X1.1467 Y0.0914 Z0.3767
X1.1473 Y0.092 Z0.3792
X1.1475 Y0.0922 Z0.3818
G0 Z1.2
X-0.4043 Y0.443
G1 Z0.5894 F20.
Z0.5718
X-0.4045 Y0.4428 Z0.5692 F40.
X-0.4053 Y0.4423 Z0.5667
X-0.4065 Y0.4416 Z0.5644
X-0.4081 Y0.4406 Z0.5626
X-0.4099 Y0.4394 Z0.5612
X-0.412 Y0.4381 Z0.5603
X-0.4143 Y0.4367 Z0.56
X-0.4242 Y0.4303
G3 X-0.4279 Y0.4141 I0.0063 J-0.01
X-0.1262 Y0.1113 Z0.545 I0.8279 J0.5234 F20.
G2 X-0.041 Y-0.0439 Z0.5385 I-0.0988 J-0.1552
G1 Y-0.4375 Z0.5248
G2 X-0.225 Y-0.6215 Z0.5147 I-0.184 J0.
G1 X-0.975 Z0.4885
G2 X-1.159 Y-0.4375 Z0.4784 I0. J0.184
G1 Y0.4375 Z0.4478
G2 X-0.975 Y0.6215 Z0.4377 I0.184 J0.
G1 X-0.6506 Z0.4264
G2 X-0.4844 Y0.5166 Z0.4192 I0. J-0.184
G3 X-0.1262 Y0.1113 Z0.4 I0.8844 J0.4209
G2 X-0.041 Y-0.0439 Z0.3936 I-0.0988 J-0.1552
G1 Y-0.4375 Z0.3798
G2 X-0.2175 Y-0.6213 Z0.37 I-0.184 J0.
G1 X-0.225 Y-0.6215 F40.
X-0.975
G2 X-1.159 Y-0.4375 I0. J0.184
G1 Y0.4375
G2 X-0.975 Y0.6215 I0.184 J0.
G1 X-0.6506
G2 X-0.4844 Y0.5166 I0. J-0.184
G3 X-0.1262 Y0.1113 I0.8844 J0.4209
G2 X-0.041 Y-0.0439 I-0.0988 J-0.1552
G1 Y-0.4375
G2 X-0.2175 Y-0.6213 I-0.184 J0.
G3 X-0.2288 Y-0.6336 I0.0005 J-0.0118
G1 X-0.2283 Y-0.6454
X-0.2282 Y-0.648 Z0.3703
X-0.2281 Y-0.6505 Z0.3712
X-0.228 Y-0.6528 Z0.3726
Y-0.6546 Z0.3744
X-0.2279 Y-0.656 Z0.3767
Y-0.6569 Z0.3792
Y-0.6572 Z0.3818
G0 Z1.2
X-0.4043 Y0.443
G1 Z0.4994 F20.
Z0.4818
X-0.4045 Y0.4428 Z0.4792 F40.
X-0.4053 Y0.4423 Z0.4767
X-0.4065 Y0.4416 Z0.4744
X-0.4081 Y0.4406 Z0.4726
X-0.4099 Y0.4394 Z0.4712
X-0.412 Y0.4381 Z0.4703
X-0.4143 Y0.4367 Z0.47
X-0.4242 Y0.4303
G3 X-0.4279 Y0.4141 I0.0063 J-0.01
X-0.1262 Y0.1113 Z0.455 I0.8279 J0.5234 F20.
G2 X-0.041 Y-0.0439 Z0.4485 I-0.0988 J-0.1552
G1 Y-0.4375 Z0.4348
G2 X-0.225 Y-0.6215 Z0.4247 I-0.184 J0.
G1 X-0.975 Z0.3985
G2 X-1.159 Y-0.4375 Z0.3884 I0. J0.184
G1 Y0.4375 Z0.3578
G2 X-0.975 Y0.6215 Z0.3477 I0.184 J0.
G1 X-0.6506 Z0.3364
G2 X-0.4844 Y0.5166 Z0.3292 I0. J-0.184
G3 X-0.1262 Y0.1113 Z0.31 I0.8844 J0.4209
G2 X-0.041 Y-0.0439 Z0.3036 I-0.0988 J-0.1552
G1 Y-0.4375 Z0.2898
G2 X-0.2175 Y-0.6213 Z0.28 I-0.184 J0.
G1 X-0.225 Y-0.6215 F40.
X-0.975
G2 X-1.159 Y-0.4375 I0. J0.184
G1 Y0.4375
G2 X-0.975 Y0.6215 I0.184 J0.
G1 X-0.6506
G2 X-0.4844 Y0.5166 I0. J-0.184
G3 X-0.1262 Y0.1113 I0.8844 J0.4209
G2 X-0.041 Y-0.0439 I-0.0988 J-0.1552
G1 Y-0.4375
G2 X-0.2175 Y-0.6213 I-0.184 J0.
G3 X-0.2288 Y-0.6336 I0.0005 J-0.0118
G1 X-0.2283 Y-0.6454
X-0.2282 Y-0.648 Z0.2803
X-0.2281 Y-0.6505 Z0.2812
X-0.228 Y-0.6528 Z0.2826
Y-0.6546 Z0.2844
X-0.2279 Y-0.656 Z0.2867
Y-0.6569 Z0.2892
Y-0.6572 Z0.2918
G0 Z1.2
X1.1944 Y-0.1815
G1 Z0.4994 F20.
Z0.4818
G18 G3 X1.1826 Z0.47 I-0.0118 K0. F40.
G1 X1.1708
G17 G3 X1.159 Y-0.1933 I0. J-0.0118
G1 Y-0.4375 Z0.4615 F20.
G2 X0.975 Y-0.6215 Z0.4514 I-0.184 J0.
G1 X0.225 Z0.4252
G2 X0.041 Y-0.4375 Z0.4151 I0. J0.184
G1 Y0.4375 Z0.3845
G2 X0.225 Y0.6215 Z0.3744 I0.184 J0.
G1 X0.5494 Z0.3631
G2 X0.7156 Y0.5166 Z0.3559 I0. J-0.184
G3 X1.0738 Y0.1113 Z0.3367 I0.8844 J0.4209
G2 X1.159 Y-0.0439 Z0.3303 I-0.0988 J-0.1552
G1 Y-0.4375 Z0.3165
G2 X0.975 Y-0.6215 Z0.3065 I-0.184 J0.
G1 X0.225 Z0.2803
X0.2175 Y-0.6213 Z0.28
G2 X0.041 Y-0.4375 I0.0075 J0.1838 F40.
G1 Y0.4375
G2 X0.225 Y0.6215 I0.184 J0.
G1 X0.5494
G2 X0.7156 Y0.5166 I0. J-0.184
G3 X1.0738 Y0.1113 I0.8844 J0.4209
G2 X1.159 Y-0.0439 I-0.0988 J-0.1552
G1 Y-0.4375
G2 X0.975 Y-0.6215 I-0.184 J0.
G1 X0.225
X0.2175 Y-0.6213
G2 X0.041 Y-0.4375 Z0.2702 I0.0075 J0.1838 F20.
G1 Y0.4375 Z0.2396
G2 X0.225 Y0.6215 Z0.2295 I0.184 J0.
G1 X0.5494 Z0.2182
G2 X0.7156 Y0.5166 Z0.211 I0. J-0.184
G3 X1.0738 Y0.1113 Z0.1918 I0.8844 J0.4209
G2 X1.1132 Y0.0776 Z0.19 I-0.0988 J-0.1552
X1.159 Y-0.0439 I-0.1382 J-0.1215 F40.
G1 Y-0.4375
G2 X0.975 Y-0.6215 I-0.184 J0.
G1 X0.225
G2 X0.041 Y-0.4375 I0. J0.184
G1 Y0.4375
G2 X0.225 Y0.6215 I0.184 J0.
G1 X0.5494
G2 X0.7156 Y0.5166 I0. J-0.184
G3 X1.0738 Y0.1113 I0.8844 J0.4209
G2 X1.1132 Y0.0776 I-0.0988 J-0.1552
G3 X1.1298 Y0.0766 I0.0089 J0.0078
G1 X1.1387 Y0.0844
X1.1406 Y0.0861 Z0.1903
X1.1425 Y0.0877 Z0.1912
X1.1442 Y0.0892 Z0.1926
X1.1456 Y0.0905 Z0.1944
X1.1467 Y0.0914 Z0.1967
X1.1473 Y0.092 Z0.1992
X1.1475 Y0.0922 Z0.2018
G0 Z1.2
X-0.4043 Y0.443
G1 Z0.4094 F20.
Z0.3918
X-0.4045 Y0.4428 Z0.3892 F40.
X-0.4053 Y0.4423 Z0.3867
X-0.4065 Y0.4416 Z0.3844
X-0.4081 Y0.4406 Z0.3826
X-0.4099 Y0.4394 Z0.3812
X-0.412 Y0.4381 Z0.3803
X-0.4143 Y0.4367 Z0.38
X-0.4242 Y0.4303
G3 X-0.4279 Y0.4141 I0.0063 J-0.01
X-0.1262 Y0.1113 Z0.365 I0.8279 J0.5234 F20.
G2 X-0.041 Y-0.0439 Z0.3585 I-0.0988 J-0.1552
G1 Y-0.4375 Z0.3448
G2 X-0.225 Y-0.6215 Z0.3347 I-0.184 J0.
G1 X-0.975 Z0.3085
G2 X-1.159 Y-0.4375 Z0.2984 I0. J0.184
G1 Y0.4375 Z0.2678
G2 X-0.975 Y0.6215 Z0.2577 I0.184 J0.
G1 X-0.6506 Z0.2464
G2 X-0.4844 Y0.5166 Z0.2392 I0. J-0.184
G3 X-0.1262 Y0.1113 Z0.22 I0.8844 J0.4209
G2 X-0.041 Y-0.0439 Z0.2136 I-0.0988 J-0.1552
G1 Y-0.4375 Z0.1998
G2 X-0.2175 Y-0.6213 Z0.19 I-0.184 J0.
G1 X-0.225 Y-0.6215 F40.
X-0.975
G2 X-1.159 Y-0.4375 I0. J0.184
G1 Y0.4375
G2 X-0.975 Y0.6215 I0.184 J0.
G1 X-0.6506
G2 X-0.4844 Y0.5166 I0. J-0.184
G3 X-0.1262 Y0.1113 I0.8844 J0.4209
G2 X-0.041 Y-0.0439 I-0.0988 J-0.1552
G1 Y-0.4375
G2 X-0.2175 Y-0.6213 I-0.184 J0.
G3 X-0.2288 Y-0.6336 I0.0005 J-0.0118
G1 X-0.2283 Y-0.6454
X-0.2282 Y-0.648 Z0.1903
X-0.2281 Y-0.6505 Z0.1912
X-0.228 Y-0.6528 Z0.1926
Y-0.6546 Z0.1944
X-0.2279 Y-0.656 Z0.1967
Y-0.6569 Z0.1992
Y-0.6572 Z0.2018
G0 Z1.2
X-0.4043 Y0.443
G1 Z0.3194 F20.
Z0.3018
X-0.4045 Y0.4428 Z0.2992 F40.
X-0.4053 Y0.4423 Z0.2967
X-0.4065 Y0.4416 Z0.2944
X-0.4081 Y0.4406 Z0.2926
X-0.4099 Y0.4394 Z0.2912
X-0.412 Y0.4381 Z0.2903
X-0.4143 Y0.4367 Z0.29
X-0.4242 Y0.4303
G3 X-0.4279 Y0.4141 I0.0063 J-0.01
X-0.1262 Y0.1113 Z0.275 I0.8279 J0.5234 F20.
G2 X-0.041 Y-0.0439 Z0.2685 I-0.0988 J-0.1552
G1 Y-0.4375 Z0.2548
G2 X-0.225 Y-0.6215 Z0.2447 I-0.184 J0.
G1 X-0.975 Z0.2185
G2 X-1.159 Y-0.4375 Z0.2084 I0. J0.184
G1 Y0.4375 Z0.1778
G2 X-0.975 Y0.6215 Z0.1677 I0.184 J0.
G1 X-0.6506 Z0.1564
G2 X-0.4844 Y0.5166 Z0.1492 I0. J-0.184
G3 X-0.1262 Y0.1113 Z0.13 I0.8844 J0.4209
G2 X-0.041 Y-0.0439 Z0.1236 I-0.0988 J-0.1552
G1 Y-0.4375 Z0.1098
G2 X-0.2175 Y-0.6213 Z0.1 I-0.184 J0.
G1 X-0.225 Y-0.6215 F40.
X-0.975
G2 X-1.159 Y-0.4375 I0. J0.184
G1 Y0.4375
G2 X-0.975 Y0.6215 I0.184 J0.
G1 X-0.6506
G2 X-0.4844 Y0.5166 I0. J-0.184
G3 X-0.1262 Y0.1113 I0.8844 J0.4209
G2 X-0.041 Y-0.0439 I-0.0988 J-0.1552
G1 Y-0.4375
G2 X-0.2175 Y-0.6213 I-0.184 J0.
G3 X-0.2288 Y-0.6336 I0.0005 J-0.0118
G1 X-0.2283 Y-0.6454
X-0.2282 Y-0.648 Z0.1003
X-0.2281 Y-0.6505 Z0.1012
X-0.228 Y-0.6528 Z0.1026
Y-0.6546 Z0.1044
X-0.2279 Y-0.656 Z0.1067
Y-0.6569 Z0.1092
Y-0.6572 Z0.1118
G0 Z1.2
X1.1944 Y-0.1815
G1 Z0.3194 F20.
Z0.3018
G18 G3 X1.1826 Z0.29 I-0.0118 K0. F40.
G1 X1.1708
G17 G3 X1.159 Y-0.1933 I0. J-0.0118
G1 Y-0.4375 Z0.2815 F20.
G2 X0.975 Y-0.6215 Z0.2714 I-0.184 J0.
G1 X0.225 Z0.2452
X0.2175 Y-0.6213 Z0.2449
G2 X0.041 Y-0.4375 Z0.2351 I0.0075 J0.1838
G1 Y0.4375 Z0.2045
G2 X0.225 Y0.6215 Z0.1944 I0.184 J0.
G1 X0.5494 Z0.1831
G2 X0.7156 Y0.5166 Z0.1759 I0. J-0.184
G3 X1.0738 Y0.1113 Z0.1567 I0.8844 J0.4209
G2 X1.159 Y-0.0439 Z0.1503 I-0.0988 J-0.1552
G1 Y-0.4375 Z0.1365
G2 X0.975 Y-0.6215 Z0.1265 I-0.184 J0.
G1 X0.225 Z0.1003
X0.2175 Y-0.6213 Z0.1
G2 X0.041 Y-0.4375 I0.0075 J0.1838 F40.
G1 Y0.4375
G2 X0.225 Y0.6215 I0.184 J0.
G1 X0.5494
G2 X0.7156 Y0.5166 I0. J-0.184
G3 X1.0738 Y0.1113 I0.8844 J0.4209
G2 X1.159 Y-0.0439 I-0.0988 J-0.1552
G1 Y-0.4375
G2 X0.975 Y-0.6215 I-0.184 J0.
G1 X0.225
X0.2175 Y-0.6213
G2 X0.041 Y-0.4375 Z0.0902 I0.0075 J0.1838 F20.
G1 Y0.4375 Z0.0596
G2 X0.225 Y0.6215 Z0.0495 I0.184 J0.
G1 X0.5494 Z0.0382
G2 X0.7156 Y0.5166 Z0.031 I0. J-0.184
G3 X0.893 Y0.2596 Z0.02 I0.8844 J0.4209
X1.0738 Y0.1113 I0.707 J0.6779 F40.
G2 X1.159 Y-0.0439 I-0.0988 J-0.1552
G1 Y-0.4375
G2 X0.975 Y-0.6215 I-0.184 J0.
G1 X0.225
G2 X0.041 Y-0.4375 I0. J0.184
G1 Y0.4375
G2 X0.225 Y0.6215 I0.184 J0.
G1 X0.5494
G2 X0.7156 Y0.5166 I0. J-0.184
G3 X0.893 Y0.2596 I0.8844 J0.4209
X0.9097 Y0.2592 I0.0085 J0.0082
G1 X0.9182 Y0.2674
X0.9201 Y0.2692 Z0.0203
X0.9219 Y0.2709 Z0.0212
X0.9235 Y0.2725 Z0.0226
X0.9249 Y0.2738 Z0.0244
X0.9259 Y0.2748 Z0.0267
X0.9265 Y0.2754 Z0.0292
X0.9267 Y0.2756 Z0.0318
G0 Z1.2
X-0.2276 Y0.2321
G1 Z0.2294 F20.
Z0.2118
X-0.2278 Y0.2319 Z0.2092 F40.
X-0.2284 Y0.2313 Z0.2067
X-0.2293 Y0.2302 Z0.2044
X-0.2305 Y0.2288 Z0.2026
X-0.232 Y0.2271 Z0.2012
X-0.2336 Y0.2252 Z0.2003
X-0.2354 Y0.2232 Z0.2
X-0.2431 Y0.2143
G3 X-0.2419 Y0.1977 I0.0089 J-0.0077
X-0.1262 Y0.1113 Z0.195 I0.6419 J0.7398 F20.
G2 X-0.041 Y-0.0439 Z0.1885 I-0.0988 J-0.1552
G1 Y-0.4375 Z0.1748
G2 X-0.225 Y-0.6215 Z0.1647 I-0.184 J0.
G1 X-0.975 Z0.1385
G2 X-1.159 Y-0.4375 Z0.1284 I0. J0.184
G1 Y0.4375 Z0.0978
G2 X-0.975 Y0.6215 Z0.0877 I0.184 J0.
G1 X-0.6506 Z0.0764
G2 X-0.4844 Y0.5166 Z0.0692 I0. J-0.184
G3 X-0.1262 Y0.1113 Z0.05 I0.8844 J0.4209
G2 X-0.041 Y-0.0439 Z0.0436 I-0.0988 J-0.1552
G1 Y-0.4375 Z0.0298
G2 X-0.2175 Y-0.6213 Z0.02 I-0.184 J0.
G1 X-0.225 Y-0.6215 F40.
X-0.975
G2 X-1.159 Y-0.4375 I0. J0.184
G1 Y0.4375
G2 X-0.975 Y0.6215 I0.184 J0.
G1 X-0.6506
G2 X-0.4844 Y0.5166 I0. J-0.184
G3 X-0.1262 Y0.1113 I0.8844 J0.4209
G2 X-0.041 Y-0.0439 I-0.0988 J-0.1552
G1 Y-0.4375
G2 X-0.2175 Y-0.6213 I-0.184 J0.
G3 X-0.2288 Y-0.6336 I0.0005 J-0.0118
G1 X-0.2283 Y-0.6454
X-0.2282 Y-0.648 Z0.0203
X-0.2281 Y-0.6505 Z0.0212
X-0.228 Y-0.6528 Z0.0226
Y-0.6546 Z0.0244
X-0.2279 Y-0.656 Z0.0267
Y-0.6569 Z0.0292
Y-0.6572 Z0.0318
G0 Z1.6

M9
M30
