(X8 BATERY HOLDER POCKETS)
(T3  D=0.118 CR=0. - ZMIN=-0.375 - FLAT END MILL)
G90 G94 G91.1 G40 G49 G17
G20

(2D ADAPTIVE2)
M5
T3 M6
S15000 M3
g4 p5
G54
M8
G0 X5.7552 Y0.6796
G43 Z0.6 H3
Z0.2
Z0.102
G3 X5.7298 Y0.5704 Z0.0959 I-0.0127 J-0.0546 F20.
X5.7552 Y0.6796 Z0.0897 I0.0127 J0.0546
X5.7298 Y0.5704 Z0.0836 I-0.0127 J-0.0546
X5.7552 Y0.6796 Z0.0774 I0.0127 J0.0546
X5.7298 Y0.5704 Z0.0713 I-0.0127 J-0.0546
X5.7552 Y0.6796 Z0.0651 I0.0127 J0.0546
X5.7298 Y0.5704 Z0.059 I-0.0127 J-0.0546
X5.7552 Y0.6796 Z0.0528 I0.0127 J0.0546
X5.7298 Y0.5704 Z0.0467 I-0.0127 J-0.0546
X5.7552 Y0.6796 Z0.0405 I0.0127 J0.0546
X5.7298 Y0.5704 Z0.0344 I-0.0127 J-0.0546
X5.7552 Y0.6796 Z0.0282 I0.0127 J0.0546
X5.7298 Y0.5704 Z0.0221 I-0.0127 J-0.0546
X5.7552 Y0.6796 Z0.0159 I0.0127 J0.0546
X5.7298 Y0.5704 Z0.0098 I-0.0127 J-0.0546
X5.7552 Y0.6796 Z0.0036 I0.0127 J0.0546
X5.7298 Y0.5704 Z-0.0025 I-0.0127 J-0.0546
X5.7552 Y0.6796 Z-0.0087 I0.0127 J0.0546
X5.7298 Y0.5704 Z-0.0148 I-0.0127 J-0.0546
X5.7552 Y0.6796 Z-0.021 I0.0127 J0.0546
X5.7298 Y0.5704 Z-0.0271 I-0.0127 J-0.0546
X5.7552 Y0.6796 Z-0.0333 I0.0127 J0.0546
X5.7298 Y0.5704 Z-0.0394 I-0.0127 J-0.0546
X5.7552 Y0.6796 Z-0.0456 I0.0127 J0.0546
X5.7298 Y0.5704 Z-0.0517 I-0.0127 J-0.0546
X5.7552 Y0.6796 Z-0.0579 I0.0127 J0.0546
X5.7298 Y0.5704 Z-0.064 I-0.0127 J-0.0546
X5.7552 Y0.6796 Z-0.0702 I0.0127 J0.0546
X5.7298 Y0.5704 Z-0.0763 I-0.0127 J-0.0546
X5.7552 Y0.6796 Z-0.0825 I0.0127 J0.0546
X5.7298 Y0.5704 Z-0.0886 I-0.0127 J-0.0546
X5.7552 Y0.6796 Z-0.0948 I0.0127 J0.0546
X5.7298 Y0.5704 Z-0.1009 I-0.0127 J-0.0546
X5.7552 Y0.6796 Z-0.1071 I0.0127 J0.0546
X5.7298 Y0.5704 Z-0.1132 I-0.0127 J-0.0546
X5.7552 Y0.6796 Z-0.1194 I0.0127 J0.0546
X5.7298 Y0.5704 Z-0.1255 I-0.0127 J-0.0546
X5.7552 Y0.6796 Z-0.1317 I0.0127 J0.0546
X5.7298 Y0.5704 Z-0.1378 I-0.0127 J-0.0546
X5.7552 Y0.6796 Z-0.144 I0.0127 J0.0546
X5.7298 Y0.5704 Z-0.1501 I-0.0127 J-0.0546
X5.7552 Y0.6796 Z-0.1563 I0.0127 J0.0546
X5.7298 Y0.5704 Z-0.1624 I-0.0127 J-0.0546
X5.7552 Y0.6796 Z-0.1686 I0.0127 J0.0546
X5.7298 Y0.5704 Z-0.1747 I-0.0127 J-0.0546
X5.7552 Y0.6796 Z-0.1809 I0.0127 J0.0546
X5.7298 Y0.5704 Z-0.187 I-0.0127 J-0.0546
X5.7552 Y0.6796 Z-0.1932 I0.0127 J0.0546
X5.7298 Y0.5704 Z-0.1993 I-0.0127 J-0.0546
X5.7552 Y0.6796 Z-0.2055 I0.0127 J0.0546
X5.7298 Y0.5704 Z-0.2116 I-0.0127 J-0.0546
X5.7552 Y0.6796 Z-0.2178 I0.0127 J0.0546
X5.7298 Y0.5704 Z-0.2239 I-0.0127 J-0.0546
X5.7552 Y0.6796 Z-0.23 I0.0127 J0.0546
X5.7298 Y0.5704 Z-0.2362 I-0.0127 J-0.0546
X5.7552 Y0.6796 Z-0.2423 I0.0127 J0.0546
X5.7298 Y0.5704 Z-0.2485 I-0.0127 J-0.0546
X5.7552 Y0.6796 Z-0.2546 I0.0127 J0.0546
X5.7298 Y0.5704 Z-0.2608 I-0.0127 J-0.0546
X5.7552 Y0.6796 Z-0.2669 I0.0127 J0.0546
X5.7298 Y0.5704 Z-0.2731 I-0.0127 J-0.0546
X5.7552 Y0.6796 Z-0.2792 I0.0127 J0.0546
X5.7298 Y0.5704 Z-0.2854 I-0.0127 J-0.0546
X5.7552 Y0.6796 Z-0.2915 I0.0127 J0.0546
X5.7298 Y0.5704 Z-0.2977 I-0.0127 J-0.0546
X5.7552 Y0.6796 Z-0.3038 I0.0127 J0.0546
X5.7298 Y0.5704 Z-0.31 I-0.0127 J-0.0546
X5.7552 Y0.6796 Z-0.3161 I0.0127 J0.0546
X5.7298 Y0.5704 Z-0.3223 I-0.0127 J-0.0546
X5.7552 Y0.6796 Z-0.3284 I0.0127 J0.0546
X5.7298 Y0.5704 Z-0.3346 I-0.0127 J-0.0546
X5.7552 Y0.6796 Z-0.3407 I0.0127 J0.0546
X5.7298 Y0.5704 Z-0.3469 I-0.0127 J-0.0546
X5.7552 Y0.6796 Z-0.353 I0.0127 J0.0546
X5.7298 Y0.5704 Z-0.3592 I-0.0127 J-0.0546
X5.7552 Y0.6796 Z-0.3653 I0.0127 J0.0546
X5.7298 Y0.5704 Z-0.3715 I-0.0127 J-0.0546
X5.7986 Y0.625 Z-0.375 I0.0127 J0.0546
X5.6865 I-0.056 J0.
X5.7986 I0.056 J0.
G1 X5.7998 Y0.6497 F40.
X5.8013 Y0.6545
X5.802 Y0.6605
Y0.6607
X5.7998 Y0.6693
X5.7951 Y0.6767
X5.7883 Y0.6822
X5.7819 Y0.6857
X5.7806 Y0.6862
X5.7794 Y0.6865
X5.7594 Y0.69
X5.7538 Y0.691
X5.7425
X5.7144
X5.7084 Y0.6907
X5.7025 Y0.6897
X5.6968 Y0.6879
X5.6913 Y0.6855
X5.6861 Y0.6825
X5.6812 Y0.679
X5.6767 Y0.675
X5.6726 Y0.6706
X5.6689 Y0.6659
X5.6657 Y0.6609
X5.6628 Y0.6556
X5.6604 Y0.6501
X5.6584 Y0.6442
X5.6568 Y0.6382
X5.6557 Y0.6319
X5.6552 Y0.6254
X5.6551 Y0.6189
X5.6555 Y0.6123
X5.6565 Y0.6056
X5.6581 Y0.5991
X5.6602 Y0.5926
X5.6628 Y0.5863
X5.6659 Y0.5801
X5.6696 Y0.5742
X5.6737 Y0.5685
X5.6796 Y0.5634
X5.6868 Y0.5601
X5.6946 Y0.559
X5.7482
X5.7538
X5.7594 Y0.56
X5.7784 Y0.5633
X5.7801 Y0.5637
X5.7819 Y0.5643
X5.7875 Y0.5673
X5.7988 Y0.5738
X5.7998 Y0.5745
X5.8011 Y0.5755
X5.8025 Y0.5768
X5.81 Y0.5859
X5.8146 Y0.5914
X5.8156 Y0.5931
X5.8172 Y0.597
X5.8223 Y0.6111
X5.8228 Y0.6125
X5.8231 Y0.6139
X5.8233 Y0.6195
Y0.6336
X5.8232 Y0.635
X5.8231 Y0.6364
X5.8212 Y0.642
X5.8171 Y0.6532
X5.8156 Y0.6569
X5.8144 Y0.6589
X5.8044 Y0.6708
X5.8019 Y0.6737
X5.8007 Y0.6749
X5.7995 Y0.6757
X5.7883 Y0.6822
X5.7862 Y0.6831
X5.784 Y0.6835
X5.7577 Y0.6863
X5.7452 Y0.6877
X5.7144 Y0.691
X5.6807
X5.6747 Y0.6907
X5.6688 Y0.6897
X5.6631 Y0.6877
X5.6577 Y0.6851
X5.6527 Y0.6819
X5.648 Y0.6781
X5.6437 Y0.6739
X5.6398 Y0.6694
X5.6362 Y0.6645
X5.6329 Y0.659
X5.6299 Y0.6529
X5.6272 Y0.6464
X5.625 Y0.6395
X5.6233 Y0.6322
X5.6222 Y0.6244
X5.6217 Y0.6163
X5.6218 Y0.608
X5.6226 Y0.5995
X5.6242 Y0.5909
X5.6262 Y0.5832
X5.6286 Y0.5762
X5.629 Y0.5754
X5.6332 Y0.5687
X5.6392 Y0.5635
X5.6463 Y0.5601
X5.6542 Y0.559
X5.6946
G3 X5.7058 Y0.5723 I-0.0004 J0.0118
G1 X5.7044 Y0.5835
X5.6938 Y0.6665
X5.692 Y0.6807
G3 X5.6807 Y0.691 I-0.0117 J-0.0015
G1 X5.6469
X5.6409 Y0.6907
X5.6351 Y0.6893
X5.6295 Y0.6871
X5.6243 Y0.6843
X5.6193 Y0.6809
X5.6147 Y0.677
X5.6105 Y0.6727
X5.6064 Y0.6679
X5.6025 Y0.6623
X5.5989 Y0.6563
X5.5956 Y0.6496
X5.5926 Y0.642
X5.5901 Y0.634
X5.5882 Y0.6255
X5.587 Y0.6165
X5.5865 Y0.6073
X5.5867 Y0.5996
X5.5875 Y0.5915
X5.5888 Y0.5848
X5.5905 Y0.5786
X5.591 Y0.5772
X5.595 Y0.5698
X5.6011 Y0.564
X5.6086 Y0.5603
X5.6169 Y0.559
X5.6542
G3 X5.6655 Y0.5716 I-0.0004 J0.0118
G1 X5.6647 Y0.5836
X5.6592 Y0.6664
X5.6583 Y0.68
G3 X5.6469 Y0.691 I-0.0118 J-0.0008
G1 X5.6157
X5.6097 Y0.6907
X5.6039 Y0.6895
X5.5982 Y0.6875
X5.5928 Y0.6848
X5.5878 Y0.6816
X5.583 Y0.6779
X5.5786 Y0.6738
X5.5743 Y0.6691
X5.5699 Y0.6634
X5.5658 Y0.6573
X5.562 Y0.6503
X5.5586 Y0.6427
X5.5557 Y0.6344
X5.5534 Y0.6259
X5.5518 Y0.617
X5.5509 Y0.6088
X5.5508 Y0.6012
X5.5513 Y0.5934
X5.5522 Y0.587
X5.5536 Y0.5808
X5.5543 Y0.5783
X5.5582 Y0.5706
X5.5643 Y0.5644
X5.572 Y0.5604
X5.5806 Y0.559
X5.6169
G3 X5.6283 Y0.5709 I-0.0004 J0.0118
G1 X5.6281 Y0.5836
X5.6273 Y0.6664
X5.6271 Y0.6793
G3 X5.6157 Y0.691 I-0.0118 J-0.0001
G1 X5.582
X5.576 Y0.6907
X5.5701 Y0.6895
X5.5645 Y0.6875
X5.5591 Y0.6848
X5.554 Y0.6817
X5.5492 Y0.6781
X5.5445 Y0.6738
X5.5399 Y0.669
X5.5353 Y0.6633
X5.531 Y0.6569
X5.527 Y0.65
X5.5235 Y0.6425
X5.5205 Y0.6344
X5.5181 Y0.626
X5.5163 Y0.6173
X5.5154 Y0.6094
X5.5151 Y0.6016
X5.5154 Y0.5941
X5.5162 Y0.5879
X5.5175 Y0.5816
X5.5183 Y0.5788
X5.5221 Y0.5708
X5.5283 Y0.5645
X5.5361 Y0.5604
X5.5448 Y0.559
X5.5806
G3 X5.592 Y0.5706 I-0.0004 J0.0118
G1 X5.5922 Y0.5836
X5.5932 Y0.6664
X5.5934 Y0.6791
G3 X5.582 Y0.691 I-0.0118 J0.0001
G1 X5.5483
X5.5423 Y0.6907
X5.5364 Y0.6896
X5.5307 Y0.6877
X5.5252 Y0.6852
X5.52 Y0.6822
X5.5152 Y0.6787
X5.5104 Y0.6746
X5.5057 Y0.6699
X5.501 Y0.6643
X5.4966 Y0.6581
X5.4925 Y0.6514
X5.4888 Y0.644
X5.4856 Y0.636
X5.483 Y0.6277
X5.4811 Y0.6191
X5.48 Y0.6111
X5.4795 Y0.6034
X5.4797 Y0.5958
X5.4803 Y0.5894
X5.4815 Y0.5832
X5.4825 Y0.5794
X5.4862 Y0.5712
X5.4923 Y0.5647
X5.5002 Y0.5605
X5.5091 Y0.559
X5.5448
G3 X5.5562 Y0.5704 I-0.0004 J0.0118
G1 X5.5566 Y0.5836
X5.5592 Y0.6664
X5.5596 Y0.6788
G3 X5.5483 Y0.691 I-0.0118 J0.0004
G1 X5.512
X5.506 Y0.6907
X5.5001 Y0.6894
X5.4945 Y0.6874
X5.4891 Y0.6848
X5.4839 Y0.6817
X5.4791 Y0.6781
X5.4742 Y0.6738
X5.4695 Y0.6689
X5.4649 Y0.6634
X5.4604 Y0.657
X5.4563 Y0.65
X5.4526 Y0.6424
X5.4495 Y0.6344
X5.4471 Y0.6261
X5.4453 Y0.6176
X5.4443 Y0.6101
X5.4439 Y0.6019
X5.4441 Y0.5947
X5.4448 Y0.5886
X5.4461 Y0.5821
X5.4469 Y0.5791
X5.4507 Y0.571
X5.4568 Y0.5646
X5.4647 Y0.5604
X5.4735 Y0.559
X5.5091
G3 X5.5205 Y0.5705 I-0.0004 J0.0118
G1 X5.5208 Y0.5836
X5.523 Y0.6664
X5.5234 Y0.6789
G3 X5.512 Y0.691 I-0.0118 J0.0003
G1 X5.4782
X5.4723 Y0.6907
X5.4663 Y0.6897
X5.4606 Y0.6879
X5.4551 Y0.6855
X5.4499 Y0.6825
X5.445 Y0.6791
X5.4402 Y0.6751
X5.4355 Y0.6704
X5.4307 Y0.665
X5.4262 Y0.6589
X5.422 Y0.6522
X5.4182 Y0.6449
X5.4149 Y0.637
X5.4123 Y0.6288
X5.4102 Y0.6202
X5.409 Y0.6122
X5.4084 Y0.6046
Y0.5968
X5.409 Y0.5904
X5.41 Y0.5843
X5.4117 Y0.5777
X5.4157 Y0.5701
X5.4217 Y0.5642
X5.4294 Y0.5603
X5.4378 Y0.559
X5.4735
G3 X5.4848 Y0.5703 I-0.0004 J0.0118
G1 X5.4854 Y0.5836
X5.4891 Y0.6664
X5.4896 Y0.6787
G3 X5.4782 Y0.691 I-0.0118 J0.0005
G1 X5.4414
X5.4354 Y0.6907
X5.4295 Y0.6895
X5.4239 Y0.6875
X5.4184 Y0.685
X5.4133 Y0.6819
X5.4085 Y0.6784
X5.4036 Y0.6742
X5.3987 Y0.6692
X5.3941 Y0.6637
X5.3897 Y0.6575
X5.3855 Y0.6505
X5.3818 Y0.6429
X5.3786 Y0.635
X5.3761 Y0.6267
X5.3742 Y0.6181
X5.3731 Y0.61
X5.3727 Y0.6028
X5.3729 Y0.5952
X5.3736 Y0.5887
X5.3747 Y0.5828
X5.3756 Y0.5793
X5.3794 Y0.5712
X5.3855 Y0.5647
X5.3934 Y0.5605
X5.4022 Y0.559
X5.4378
G3 X5.4492 Y0.5704 I-0.0004 J0.0118
G1 X5.4496 Y0.5836
X5.4524 Y0.6664
X5.4528 Y0.6788
G3 X5.4414 Y0.691 I-0.0118 J0.0004
G1 X5.4051
X5.3992 Y0.6907
X5.3933 Y0.6894
X5.3877 Y0.6874
X5.3823 Y0.6847
X5.3772 Y0.6816
X5.3723 Y0.678
X5.3674 Y0.6736
X5.3626 Y0.6687
X5.358 Y0.6631
X5.3535 Y0.6566
X5.3494 Y0.6496
X5.3458 Y0.6421
X5.3427 Y0.634
X5.3402 Y0.6257
X5.3384 Y0.6173
X5.3375 Y0.6097
X5.3371 Y0.6016
X5.3373 Y0.5945
X5.338 Y0.5884
X5.3393 Y0.5819
X5.3401 Y0.5791
X5.3439 Y0.571
X5.35 Y0.5646
X5.3579 Y0.5604
X5.3666 Y0.559
X5.4022
G3 X5.4136 Y0.5705 I-0.0004 J0.0118
G1 X5.414 Y0.5836
X5.4162 Y0.6664
X5.4165 Y0.6789
G3 X5.4051 Y0.691 I-0.0118 J0.0003
G1 X5.3714
X5.3654 Y0.6907
X5.3595 Y0.6897
X5.3538 Y0.6878
X5.3483 Y0.6854
X5.3431 Y0.6824
X5.3382 Y0.679
X5.3334 Y0.675
X5.3286 Y0.6703
X5.3238 Y0.6648
X5.3193 Y0.6587
X5.3152 Y0.6521
X5.3114 Y0.6447
X5.3081 Y0.6368
X5.3054 Y0.6286
X5.3034 Y0.62
X5.3022 Y0.6121
X5.3016 Y0.6045
Y0.5967
X5.3022 Y0.5903
X5.3032 Y0.5842
X5.3049 Y0.5777
X5.3089 Y0.5701
X5.3149 Y0.5641
X5.3225 Y0.5603
X5.331 Y0.559
X5.3666
G3 X5.378 Y0.5703 I-0.0004 J0.0118
G1 X5.3786 Y0.5836
X5.3822 Y0.6664
X5.3828 Y0.6787
G3 X5.3714 Y0.691 I-0.0118 J0.0005
G1 X5.3346
X5.3286 Y0.6907
X5.3227 Y0.6895
X5.317 Y0.6875
X5.3116 Y0.6849
X5.3065 Y0.6818
X5.3016 Y0.6783
X5.2968 Y0.6741
X5.2919 Y0.6691
X5.2873 Y0.6637
X5.2828 Y0.6574
X5.2787 Y0.6504
X5.2749 Y0.6428
X5.2718 Y0.6348
X5.2693 Y0.6266
X5.2674 Y0.618
X5.2663 Y0.6099
X5.2659 Y0.6027
X5.2661 Y0.5951
X5.2668 Y0.5887
X5.2679 Y0.5827
X5.2688 Y0.5793
X5.2726 Y0.5712
X5.2787 Y0.5646
X5.2866 Y0.5605
X5.2954 Y0.559
X5.331
G3 X5.3423 Y0.5704 I-0.0004 J0.0118
G1 X5.3428 Y0.5836
X5.3455 Y0.6664
X5.346 Y0.6788
G3 X5.3346 Y0.691 I-0.0118 J0.0004
G1 X5.2983
X5.2923 Y0.6907
X5.2865 Y0.6894
X5.2808 Y0.6873
X5.2754 Y0.6847
X5.2703 Y0.6815
X5.2655 Y0.678
X5.2606 Y0.6736
X5.2558 Y0.6687
X5.2512 Y0.663
X5.2467 Y0.6566
X5.2426 Y0.6495
X5.2389 Y0.642
X5.2359 Y0.634
X5.2334 Y0.6256
X5.2316 Y0.6172
X5.2307 Y0.6097
X5.2303 Y0.6016
X5.2305 Y0.5944
X5.2312 Y0.5884
X5.2325 Y0.5818
X5.2333 Y0.579
X5.2371 Y0.571
X5.2432 Y0.5646
X5.2511 Y0.5604
X5.2598 Y0.559
X5.2954
G3 X5.3068 Y0.5705 I-0.0004 J0.0118
G1 X5.3071 Y0.5836
X5.3094 Y0.6664
X5.3097 Y0.6789
G3 X5.2983 Y0.691 I-0.0118 J0.0003
G1 X5.2646
X5.2586 Y0.6907
X5.2527 Y0.6897
X5.2469 Y0.6878
X5.2415 Y0.6854
X5.2363 Y0.6824
X5.2314 Y0.679
X5.2266 Y0.675
X5.2218 Y0.6703
X5.217 Y0.6648
X5.2125 Y0.6587
X5.2084 Y0.652
X5.2046 Y0.6447
X5.2013 Y0.6367
X5.1986 Y0.6285
X5.1966 Y0.62
X5.1953 Y0.612
X5.1948 Y0.6044
Y0.5967
X5.1954 Y0.5903
X5.1964 Y0.5842
X5.1981 Y0.5776
X5.2021 Y0.5701
X5.2081 Y0.5641
X5.2157 Y0.5603
X5.2242 Y0.559
X5.2598
G3 X5.2712 Y0.5703 I-0.0004 J0.0118
G1 X5.2718 Y0.5836
X5.2754 Y0.6664
X5.2759 Y0.6787
G3 X5.2646 Y0.691 I-0.0118 J0.0005
G1 X5.2277
X5.2217 Y0.6907
X5.2159 Y0.6895
X5.2102 Y0.6875
X5.2048 Y0.6849
X5.1996 Y0.6818
X5.1948 Y0.6783
X5.1899 Y0.6741
X5.185 Y0.6691
X5.1804 Y0.6636
X5.176 Y0.6573
X5.1718 Y0.6504
X5.1681 Y0.6428
X5.165 Y0.6348
X5.1625 Y0.6265
X5.1606 Y0.6179
X5.1595 Y0.6099
X5.1591 Y0.6027
X5.1593 Y0.595
X5.16 Y0.5886
X5.1611 Y0.5827
X5.162 Y0.5793
X5.1658 Y0.5711
X5.1719 Y0.5646
X5.1798 Y0.5604
X5.1886 Y0.559
X5.2242
G3 X5.2355 Y0.5704 I-0.0004 J0.0118
G1 X5.236 Y0.5836
X5.2387 Y0.6664
X5.2391 Y0.6788
G3 X5.2277 Y0.691 I-0.0118 J0.0004
G1 X5.1915
X5.1855 Y0.6907
X5.1796 Y0.6894
X5.174 Y0.6873
X5.1686 Y0.6847
X5.1635 Y0.6815
X5.1587 Y0.6779
X5.1537 Y0.6736
X5.149 Y0.6687
X5.1443 Y0.663
X5.1398 Y0.6565
X5.1357 Y0.6495
X5.1321 Y0.6419
X5.129 Y0.6339
X5.1266 Y0.6256
X5.1248 Y0.6171
X5.1239 Y0.6096
X5.1235 Y0.6015
X5.1237 Y0.5944
X5.1245 Y0.5883
X5.1257 Y0.5818
X5.1265 Y0.579
X5.1303 Y0.571
X5.1364 Y0.5646
X5.1443 Y0.5604
X5.153 Y0.559
X5.1886
G3 X5.2 Y0.5705 I-0.0004 J0.0118
G1 X5.2003 Y0.5836
X5.2025 Y0.6664
X5.2028 Y0.6789
G3 X5.1915 Y0.691 I-0.0118 J0.0003
G1 X5.1577
X5.1517 Y0.6907
X5.1458 Y0.6896
X5.1401 Y0.6878
X5.1346 Y0.6854
X5.1294 Y0.6824
X5.1245 Y0.6789
X5.1197 Y0.6749
X5.115 Y0.6703
X5.1102 Y0.6647
X5.1057 Y0.6586
X5.1015 Y0.652
X5.0978 Y0.6446
X5.0945 Y0.6367
X5.0918 Y0.6285
X5.0898 Y0.6199
X5.0885 Y0.612
X5.088 Y0.6044
Y0.5966
X5.0886 Y0.5902
X5.0896 Y0.5841
X5.0908 Y0.5798
X5.0935 Y0.573
X5.0978 Y0.5672
X5.1036 Y0.5628
X5.1102 Y0.56
X5.1174 Y0.559
X5.153
G3 X5.1644 Y0.5703 I-0.0004 J0.0118
G1 X5.165 Y0.5836
X5.1686 Y0.6664
X5.1691 Y0.6787
G3 X5.1577 Y0.691 I-0.0118 J0.0005
G1 X5.1209
X5.1149 Y0.6907
X5.109 Y0.6895
X5.1034 Y0.6875
X5.0979 Y0.6849
X5.0928 Y0.6818
X5.088 Y0.6783
X5.0831 Y0.674
X5.0782 Y0.6691
X5.0736 Y0.6636
X5.0692 Y0.6573
X5.065 Y0.6503
X5.0613 Y0.6427
X5.0582 Y0.6347
X5.0556 Y0.6264
X5.0538 Y0.618
X5.0528 Y0.6102
X5.0523 Y0.6021
X5.0525 Y0.5955
X5.0532 Y0.5885
X5.0544 Y0.5822
X5.0553 Y0.5793
X5.059 Y0.5711
X5.0651 Y0.5646
X5.073 Y0.5604
X5.0818 Y0.559
X5.1174
G3 X5.1288 Y0.5704 I-0.0004 J0.0118
G1 X5.1292 Y0.5836
X5.1319 Y0.6664
X5.1323 Y0.6788
G3 X5.1209 Y0.691 I-0.0118 J0.0004
G1 X5.0846
X5.0786 Y0.6907
X5.0728 Y0.6894
X5.0671 Y0.6873
X5.0618 Y0.6847
X5.0567 Y0.6815
X5.0518 Y0.6779
X5.0469 Y0.6735
X5.0421 Y0.6686
X5.0375 Y0.663
X5.0331 Y0.6566
X5.0289 Y0.6495
X5.0253 Y0.6419
X5.0222 Y0.6339
X5.0198 Y0.6256
X5.018 Y0.6171
X5.0171 Y0.6095
X5.0167 Y0.6015
X5.017 Y0.5943
X5.0177 Y0.5883
X5.019 Y0.5817
X5.0197 Y0.579
X5.0235 Y0.571
X5.0296 Y0.5646
X5.0375 Y0.5604
X5.0462 Y0.559
X5.0818
G3 X5.0932 Y0.5705 I-0.0004 J0.0118
G1 X5.0935 Y0.5836
X5.0957 Y0.6664
X5.096 Y0.6789
G3 X5.0846 Y0.691 I-0.0118 J0.0003
G1 X5.0509
X5.0449 Y0.6907
X5.039 Y0.6896
X5.0333 Y0.6878
X5.0278 Y0.6854
X5.0226 Y0.6824
X5.0177 Y0.6789
X5.0129 Y0.6749
X5.0081 Y0.6702
X5.0033 Y0.6647
X4.9988 Y0.6586
X4.9947 Y0.6519
X4.9909 Y0.6445
X4.9876 Y0.6366
X4.985 Y0.6284
X4.983 Y0.6199
X4.9817 Y0.6119
X4.9812 Y0.6043
X4.9813 Y0.5966
X4.9818 Y0.5902
X4.9829 Y0.5841
X4.9837 Y0.5809
X4.9867 Y0.5736
X4.9916 Y0.5675
X4.9981 Y0.563
X5.0056 Y0.5605
X5.0115 Y0.5595
X5.0143 Y0.5591
X5.0171 Y0.559
X5.0462
G3 X5.0576 Y0.5703 I-0.0004 J0.0118
G1 X5.0582 Y0.5836
X5.0617 Y0.6664
X5.0623 Y0.6787
G3 X5.0509 Y0.691 I-0.0118 J0.0005
G1 X5.0171
X5.0143 Y0.6909
X5.0115 Y0.6905
X5.0059 Y0.6895
X5. Y0.6882
X4.9945 Y0.686
X4.9891 Y0.6832
X4.9841 Y0.68
X4.9793 Y0.6762
X4.9746 Y0.6719
X4.9697 Y0.6668
X4.9651 Y0.6609
X4.9609 Y0.6546
X4.957 Y0.6475
X4.9534 Y0.6398
X4.9505 Y0.6317
X4.9482 Y0.6234
X4.9473 Y0.6188
X4.9469 Y0.6139
X4.9473 Y0.609
X4.9485 Y0.6042
G3 X4.9692 Y0.6019 I0.0109 J0.0044
G1 X4.9723 Y0.6065
X5.0152 Y0.6682
X5.0172 Y0.6711
G3 X5.0059 Y0.6895 I-0.0097 J0.0067
G1 X4.989 Y0.6865
X4.9876 Y0.6862
X4.9862 Y0.6857
X4.9834 Y0.6841
X4.9689 Y0.6757
X4.9677 Y0.6749
X4.9665 Y0.6738
X4.9634 Y0.6701
X4.9539 Y0.6589
X4.953 Y0.6575
X4.9523 Y0.6561
X4.9456 Y0.6378
X4.9453 Y0.6364
X4.9451 Y0.6308
Y0.6195
X4.9453 Y0.6139
X4.9456 Y0.6125
X4.946 Y0.6111
X4.9522 Y0.5942
X4.9529 Y0.5928
X4.9538 Y0.5914
X4.9553 Y0.5895
X4.9631 Y0.5802
X4.9665 Y0.5761
X4.9675 Y0.5753
X4.9684 Y0.5745
X4.9722 Y0.5724
X4.9834 Y0.5659
X4.9862 Y0.5643
X4.9876 Y0.5638
X4.989 Y0.5635
X5.0056 Y0.5605
G3 X5.019 Y0.5712 I0.0016 J0.0117
G1 Y0.5722
X5.0185 Y0.5743 Z-0.3745
X5.018 Y0.5762 Z-0.3738
X5.0175 Y0.578 Z-0.3726
X5.0162 Y0.5795 Z-0.3707
X5.0153 Y0.5806 Z-0.3685
X5.0147 Y0.5813 Z-0.3659
X5.0145 Y0.5815 Z-0.3632
G0 Z0.2
X5.7552 Y12.2888
Z0.102
G3 X5.7298 Y12.1796 Z0.0959 I-0.0127 J-0.0546 F20.
X5.7552 Y12.2888 Z0.0897 I0.0127 J0.0546
X5.7298 Y12.1796 Z0.0836 I-0.0127 J-0.0546
X5.7552 Y12.2888 Z0.0774 I0.0127 J0.0546
X5.7298 Y12.1796 Z0.0713 I-0.0127 J-0.0546
X5.7552 Y12.2888 Z0.0651 I0.0127 J0.0546
X5.7298 Y12.1796 Z0.059 I-0.0127 J-0.0546
X5.7552 Y12.2888 Z0.0528 I0.0127 J0.0546
X5.7298 Y12.1796 Z0.0467 I-0.0127 J-0.0546
X5.7552 Y12.2888 Z0.0405 I0.0127 J0.0546
X5.7298 Y12.1796 Z0.0344 I-0.0127 J-0.0546
X5.7552 Y12.2888 Z0.0282 I0.0127 J0.0546
X5.7298 Y12.1796 Z0.0221 I-0.0127 J-0.0546
X5.7552 Y12.2888 Z0.0159 I0.0127 J0.0546
X5.7298 Y12.1796 Z0.0098 I-0.0127 J-0.0546
X5.7552 Y12.2888 Z0.0036 I0.0127 J0.0546
X5.7298 Y12.1796 Z-0.0025 I-0.0127 J-0.0546
X5.7552 Y12.2888 Z-0.0087 I0.0127 J0.0546
X5.7298 Y12.1796 Z-0.0148 I-0.0127 J-0.0546
X5.7552 Y12.2888 Z-0.021 I0.0127 J0.0546
X5.7298 Y12.1796 Z-0.0271 I-0.0127 J-0.0546
X5.7552 Y12.2888 Z-0.0333 I0.0127 J0.0546
X5.7298 Y12.1796 Z-0.0394 I-0.0127 J-0.0546
X5.7552 Y12.2888 Z-0.0456 I0.0127 J0.0546
X5.7298 Y12.1796 Z-0.0517 I-0.0127 J-0.0546
X5.7552 Y12.2888 Z-0.0579 I0.0127 J0.0546
X5.7298 Y12.1796 Z-0.064 I-0.0127 J-0.0546
X5.7552 Y12.2888 Z-0.0702 I0.0127 J0.0546
X5.7298 Y12.1796 Z-0.0763 I-0.0127 J-0.0546
X5.7552 Y12.2888 Z-0.0825 I0.0127 J0.0546
X5.7298 Y12.1796 Z-0.0886 I-0.0127 J-0.0546
X5.7552 Y12.2888 Z-0.0948 I0.0127 J0.0546
X5.7298 Y12.1796 Z-0.1009 I-0.0127 J-0.0546
X5.7552 Y12.2888 Z-0.1071 I0.0127 J0.0546
X5.7298 Y12.1796 Z-0.1132 I-0.0127 J-0.0546
X5.7552 Y12.2888 Z-0.1194 I0.0127 J0.0546
X5.7298 Y12.1796 Z-0.1255 I-0.0127 J-0.0546
X5.7552 Y12.2888 Z-0.1317 I0.0127 J0.0546
X5.7298 Y12.1796 Z-0.1378 I-0.0127 J-0.0546
X5.7552 Y12.2888 Z-0.144 I0.0127 J0.0546
X5.7298 Y12.1796 Z-0.1501 I-0.0127 J-0.0546
X5.7552 Y12.2888 Z-0.1563 I0.0127 J0.0546
X5.7298 Y12.1796 Z-0.1624 I-0.0127 J-0.0546
X5.7552 Y12.2888 Z-0.1686 I0.0127 J0.0546
X5.7298 Y12.1796 Z-0.1747 I-0.0127 J-0.0546
X5.7552 Y12.2888 Z-0.1809 I0.0127 J0.0546
X5.7298 Y12.1796 Z-0.187 I-0.0127 J-0.0546
X5.7552 Y12.2888 Z-0.1932 I0.0127 J0.0546
X5.7298 Y12.1796 Z-0.1993 I-0.0127 J-0.0546
X5.7552 Y12.2888 Z-0.2055 I0.0127 J0.0546
X5.7298 Y12.1796 Z-0.2116 I-0.0127 J-0.0546
X5.7552 Y12.2888 Z-0.2178 I0.0127 J0.0546
X5.7298 Y12.1796 Z-0.2239 I-0.0127 J-0.0546
X5.7552 Y12.2888 Z-0.23 I0.0127 J0.0546
X5.7298 Y12.1796 Z-0.2362 I-0.0127 J-0.0546
X5.7552 Y12.2888 Z-0.2423 I0.0127 J0.0546
X5.7298 Y12.1796 Z-0.2485 I-0.0127 J-0.0546
X5.7552 Y12.2888 Z-0.2546 I0.0127 J0.0546
X5.7298 Y12.1796 Z-0.2608 I-0.0127 J-0.0546
X5.7552 Y12.2888 Z-0.2669 I0.0127 J0.0546
X5.7298 Y12.1796 Z-0.2731 I-0.0127 J-0.0546
X5.7552 Y12.2888 Z-0.2792 I0.0127 J0.0546
X5.7298 Y12.1796 Z-0.2854 I-0.0127 J-0.0546
X5.7552 Y12.2888 Z-0.2915 I0.0127 J0.0546
X5.7298 Y12.1796 Z-0.2977 I-0.0127 J-0.0546
X5.7552 Y12.2888 Z-0.3038 I0.0127 J0.0546
X5.7298 Y12.1796 Z-0.31 I-0.0127 J-0.0546
X5.7552 Y12.2888 Z-0.3161 I0.0127 J0.0546
X5.7298 Y12.1796 Z-0.3223 I-0.0127 J-0.0546
X5.7552 Y12.2888 Z-0.3284 I0.0127 J0.0546
X5.7298 Y12.1796 Z-0.3346 I-0.0127 J-0.0546
X5.7552 Y12.2888 Z-0.3407 I0.0127 J0.0546
X5.7298 Y12.1796 Z-0.3469 I-0.0127 J-0.0546
X5.7552 Y12.2888 Z-0.353 I0.0127 J0.0546
X5.7298 Y12.1796 Z-0.3592 I-0.0127 J-0.0546
X5.7552 Y12.2888 Z-0.3653 I0.0127 J0.0546
X5.7298 Y12.1796 Z-0.3715 I-0.0127 J-0.0546
X5.7986 Y12.2342 Z-0.375 I0.0127 J0.0546
X5.6865 I-0.056 J0.
X5.7986 I0.056 J0.
G1 X5.7998 Y12.2589 F40.
X5.8013 Y12.2637
X5.802 Y12.2697
Y12.2699
X5.7998 Y12.2784
X5.7951 Y12.2858
X5.7883 Y12.2914
X5.7819 Y12.2949
X5.7802 Y12.2955
X5.7785 Y12.2959
X5.7594 Y12.2992
X5.7538 Y12.3001
X5.7482 Y12.3002
X5.7144
X5.7084 Y12.2999
X5.7025 Y12.2989
X5.6968 Y12.2971
X5.6913 Y12.2947
X5.6861 Y12.2917
X5.6812 Y12.2882
X5.6767 Y12.2842
X5.6726 Y12.2798
X5.6689 Y12.2751
X5.6657 Y12.2701
X5.6628 Y12.2648
X5.6604 Y12.2592
X5.6584 Y12.2534
X5.6568 Y12.2473
X5.6557 Y12.241
X5.6552 Y12.2346
X5.6551 Y12.228
X5.6555 Y12.2214
X5.6565 Y12.2148
X5.6581 Y12.2082
X5.6602 Y12.2018
X5.6628 Y12.1954
X5.6659 Y12.1893
X5.6696 Y12.1834
X5.6737 Y12.1777
X5.6796 Y12.1726
X5.6868 Y12.1693
X5.6946 Y12.1682
X5.7482
X5.7538
X5.7594 Y12.1691
X5.7793 Y12.1727
X5.7806 Y12.173
X5.7819 Y12.1735
X5.7875 Y12.1765
X5.7995 Y12.1834
X5.8007 Y12.1843
X5.8019 Y12.1855
X5.805 Y12.1891
X5.8144 Y12.2003
X5.8156 Y12.2022
X5.8171 Y12.2059
X5.8213 Y12.2173
X5.8231 Y12.2228
X5.8232 Y12.2242
X5.8233 Y12.2256
Y12.2397
X5.8231 Y12.2453
X5.8228 Y12.2467
X5.8223 Y12.2481
X5.8172 Y12.2621
X5.8156 Y12.2661
X5.8146 Y12.2678
X5.81 Y12.2734
X5.8025 Y12.2823
X5.8011 Y12.2836
X5.7998 Y12.2846
X5.7988 Y12.2853
X5.7883 Y12.2914
X5.7862 Y12.2922
X5.784 Y12.2927
X5.7578 Y12.2955
X5.7452 Y12.2969
X5.7144 Y12.3002
X5.6807
X5.6747 Y12.2999
X5.6688 Y12.2988
X5.6631 Y12.2969
X5.6577 Y12.2943
X5.6527 Y12.291
X5.648 Y12.2873
X5.6437 Y12.2831
X5.6398 Y12.2785
X5.6362 Y12.2737
X5.6329 Y12.2682
X5.6299 Y12.2621
X5.6272 Y12.2556
X5.625 Y12.2487
X5.6233 Y12.2414
X5.6222 Y12.2336
X5.6217 Y12.2255
X5.6218 Y12.2171
X5.6226 Y12.2086
X5.6242 Y12.2
X5.6262 Y12.1924
X5.6286 Y12.1854
X5.629 Y12.1845
X5.6332 Y12.1779
X5.6392 Y12.1726
X5.6463 Y12.1693
X5.6542 Y12.1682
X5.6946
G3 X5.7058 Y12.1815 I-0.0004 J0.0118
G1 X5.7044 Y12.1927
X5.6938 Y12.2757
X5.692 Y12.2899
G3 X5.6807 Y12.3002 I-0.0117 J-0.0015
G1 X5.6469
X5.6409 Y12.2999
X5.6351 Y12.2985
X5.6295 Y12.2963
X5.6243 Y12.2934
X5.6193 Y12.29
X5.6147 Y12.2862
X5.6105 Y12.2819
X5.6064 Y12.277
X5.6025 Y12.2715
X5.5989 Y12.2655
X5.5956 Y12.2587
X5.5926 Y12.2512
X5.5901 Y12.2431
X5.5882 Y12.2346
X5.587 Y12.2256
X5.5865 Y12.2165
X5.5867 Y12.2088
X5.5875 Y12.2007
X5.5888 Y12.1939
X5.5905 Y12.1878
X5.591 Y12.1864
X5.595 Y12.179
X5.6011 Y12.1732
X5.6086 Y12.1695
X5.6169 Y12.1682
X5.6542
G3 X5.6655 Y12.1808 I-0.0004 J0.0118
G1 X5.6647 Y12.1927
X5.6592 Y12.2756
X5.6583 Y12.2892
G3 X5.6469 Y12.3002 I-0.0118 J-0.0008
G1 X5.6157
X5.6097 Y12.2999
X5.6039 Y12.2987
X5.5982 Y12.2967
X5.5928 Y12.294
X5.5878 Y12.2908
X5.583 Y12.2871
X5.5786 Y12.283
X5.5743 Y12.2782
X5.5699 Y12.2726
X5.5658 Y12.2665
X5.562 Y12.2595
X5.5586 Y12.2519
X5.5557 Y12.2436
X5.5534 Y12.235
X5.5518 Y12.2262
X5.5509 Y12.218
X5.5508 Y12.2104
X5.5513 Y12.2026
X5.5522 Y12.1962
X5.5536 Y12.19
X5.5543 Y12.1875
X5.5582 Y12.1797
X5.5643 Y12.1735
X5.572 Y12.1695
X5.5806 Y12.1682
X5.6169
G3 X5.6283 Y12.1801 I-0.0004 J0.0118
G1 X5.6281 Y12.1928
X5.6273 Y12.2756
X5.6271 Y12.2885
G3 X5.6157 Y12.3002 I-0.0118 J-0.0001
G1 X5.582
X5.576 Y12.2999
X5.5701 Y12.2986
X5.5645 Y12.2966
X5.5591 Y12.294
X5.554 Y12.2908
X5.5492 Y12.2872
X5.5445 Y12.283
X5.5399 Y12.2782
X5.5353 Y12.2725
X5.531 Y12.2661
X5.527 Y12.2592
X5.5235 Y12.2517
X5.5205 Y12.2436
X5.5181 Y12.2351
X5.5163 Y12.2265
X5.5154 Y12.2186
X5.5151 Y12.2108
X5.5154 Y12.2033
X5.5162 Y12.1971
X5.5175 Y12.1907
X5.5183 Y12.188
X5.5221 Y12.18
X5.5283 Y12.1737
X5.5361 Y12.1696
X5.5448 Y12.1682
X5.5806
G3 X5.592 Y12.1798 I-0.0004 J0.0118
G1 X5.5922 Y12.1928
X5.5932 Y12.2756
X5.5934 Y12.2882
G3 X5.582 Y12.3002 I-0.0118 J0.0001
G1 X5.5483
X5.5423 Y12.2999
X5.5364 Y12.2988
X5.5307 Y12.2969
X5.5252 Y12.2944
X5.52 Y12.2913
X5.5152 Y12.2878
X5.5104 Y12.2837
X5.5057 Y12.2791
X5.501 Y12.2735
X5.4966 Y12.2673
X5.4925 Y12.2605
X5.4888 Y12.2531
X5.4856 Y12.2451
X5.483 Y12.2368
X5.4811 Y12.2282
X5.48 Y12.2203
X5.4795 Y12.2126
X5.4797 Y12.2049
X5.4803 Y12.1986
X5.4815 Y12.1924
X5.4825 Y12.1886
X5.4862 Y12.1804
X5.4923 Y12.1739
X5.5002 Y12.1696
X5.5091 Y12.1682
X5.5448
G3 X5.5562 Y12.1796 I-0.0004 J0.0118
G1 X5.5566 Y12.1928
X5.5592 Y12.2756
X5.5596 Y12.288
G3 X5.5483 Y12.3002 I-0.0118 J0.0004
G1 X5.512
X5.506 Y12.2999
X5.5001 Y12.2986
X5.4945 Y12.2966
X5.4891 Y12.294
X5.4839 Y12.2909
X5.4791 Y12.2873
X5.4742 Y12.283
X5.4695 Y12.2781
X5.4649 Y12.2725
X5.4604 Y12.2662
X5.4563 Y12.2592
X5.4526 Y12.2516
X5.4495 Y12.2436
X5.4471 Y12.2353
X5.4453 Y12.2268
X5.4443 Y12.2192
X5.4439 Y12.2111
X5.4441 Y12.2039
X5.4448 Y12.1978
X5.4461 Y12.1912
X5.4469 Y12.1883
X5.4507 Y12.1802
X5.4568 Y12.1738
X5.4647 Y12.1696
X5.4735 Y12.1682
X5.5091
G3 X5.5205 Y12.1797 I-0.0004 J0.0118
G1 X5.5208 Y12.1928
X5.523 Y12.2756
X5.5234 Y12.2881
G3 X5.512 Y12.3002 I-0.0118 J0.0003
G1 X5.4782
X5.4723 Y12.2999
X5.4663 Y12.2989
X5.4606 Y12.2971
X5.4551 Y12.2946
X5.4499 Y12.2917
X5.445 Y12.2882
X5.4402 Y12.2842
X5.4355 Y12.2796
X5.4307 Y12.2741
X5.4262 Y12.268
X5.422 Y12.2614
X5.4182 Y12.2541
X5.4149 Y12.2462
X5.4123 Y12.2379
X5.4102 Y12.2294
X5.409 Y12.2214
X5.4084 Y12.2138
Y12.206
X5.409 Y12.1996
X5.41 Y12.1935
X5.4117 Y12.1869
X5.4157 Y12.1793
X5.4217 Y12.1733
X5.4294 Y12.1695
X5.4378 Y12.1682
X5.4735
G3 X5.4848 Y12.1794 I-0.0004 J0.0118
G1 X5.4854 Y12.1928
X5.4891 Y12.2756
X5.4896 Y12.2879
G3 X5.4782 Y12.3002 I-0.0118 J0.0005
G1 X5.4414
X5.4354 Y12.2999
X5.4295 Y12.2987
X5.4239 Y12.2967
X5.4184 Y12.2941
X5.4133 Y12.2911
X5.4085 Y12.2875
X5.4036 Y12.2833
X5.3987 Y12.2784
X5.3941 Y12.2729
X5.3897 Y12.2666
X5.3855 Y12.2597
X5.3818 Y12.2521
X5.3786 Y12.2441
X5.3761 Y12.2358
X5.3742 Y12.2273
X5.3731 Y12.2192
X5.3727 Y12.212
X5.3729 Y12.2043
X5.3736 Y12.1979
X5.3747 Y12.192
X5.3756 Y12.1885
X5.3794 Y12.1803
X5.3855 Y12.1738
X5.3934 Y12.1696
X5.4022 Y12.1682
X5.4378
G3 X5.4492 Y12.1796 I-0.0004 J0.0118
G1 X5.4496 Y12.1928
X5.4524 Y12.2756
X5.4528 Y12.288
G3 X5.4414 Y12.3002 I-0.0118 J0.0004
G1 X5.4051
X5.3992 Y12.2999
X5.3933 Y12.2986
X5.3877 Y12.2965
X5.3823 Y12.2939
X5.3772 Y12.2907
X5.3723 Y12.2872
X5.3674 Y12.2828
X5.3626 Y12.2779
X5.358 Y12.2723
X5.3535 Y12.2658
X5.3494 Y12.2588
X5.3458 Y12.2512
X5.3427 Y12.2432
X5.3402 Y12.2349
X5.3384 Y12.2264
X5.3375 Y12.2189
X5.3371 Y12.2108
X5.3373 Y12.2037
X5.338 Y12.1976
X5.3393 Y12.1911
X5.3401 Y12.1882
X5.3439 Y12.1802
X5.35 Y12.1738
X5.3579 Y12.1696
X5.3666 Y12.1682
X5.4022
G3 X5.4136 Y12.1796 I-0.0004 J0.0118
G1 X5.414 Y12.1928
X5.4162 Y12.2756
X5.4165 Y12.2881
G3 X5.4051 Y12.3002 I-0.0118 J0.0003
G1 X5.3714
X5.3654 Y12.2999
X5.3595 Y12.2988
X5.3538 Y12.297
X5.3483 Y12.2946
X5.3431 Y12.2916
X5.3382 Y12.2881
X5.3334 Y12.2842
X5.3286 Y12.2795
X5.3238 Y12.274
X5.3193 Y12.2679
X5.3152 Y12.2612
X5.3114 Y12.2539
X5.3081 Y12.246
X5.3054 Y12.2378
X5.3034 Y12.2292
X5.3022 Y12.2212
X5.3016 Y12.2136
Y12.2059
X5.3022 Y12.1995
X5.3032 Y12.1934
X5.3049 Y12.1868
X5.3089 Y12.1793
X5.3149 Y12.1733
X5.3225 Y12.1695
X5.331 Y12.1682
X5.3666
G3 X5.378 Y12.1794 I-0.0004 J0.0118
G1 X5.3786 Y12.1928
X5.3822 Y12.2756
X5.3828 Y12.2879
G3 X5.3714 Y12.3002 I-0.0118 J0.0005
G1 X5.3346
X5.3286 Y12.2999
X5.3227 Y12.2986
X5.317 Y12.2967
X5.3116 Y12.2941
X5.3065 Y12.291
X5.3016 Y12.2875
X5.2968 Y12.2833
X5.2919 Y12.2783
X5.2873 Y12.2728
X5.2828 Y12.2665
X5.2787 Y12.2596
X5.2749 Y12.252
X5.2718 Y12.244
X5.2693 Y12.2357
X5.2674 Y12.2272
X5.2663 Y12.2191
X5.2659 Y12.2119
X5.2661 Y12.2042
X5.2668 Y12.1978
X5.2679 Y12.1919
X5.2688 Y12.1885
X5.2726 Y12.1803
X5.2787 Y12.1738
X5.2866 Y12.1696
X5.2954 Y12.1682
X5.331
G3 X5.3423 Y12.1796 I-0.0004 J0.0118
G1 X5.3428 Y12.1928
X5.3455 Y12.2756
X5.346 Y12.288
G3 X5.3346 Y12.3002 I-0.0118 J0.0004
G1 X5.2983
X5.2923 Y12.2999
X5.2865 Y12.2986
X5.2808 Y12.2965
X5.2754 Y12.2939
X5.2703 Y12.2907
X5.2655 Y12.2871
X5.2606 Y12.2828
X5.2558 Y12.2779
X5.2512 Y12.2722
X5.2467 Y12.2658
X5.2426 Y12.2587
X5.2389 Y12.2512
X5.2359 Y12.2431
X5.2334 Y12.2348
X5.2316 Y12.2264
X5.2307 Y12.2188
X5.2303 Y12.2108
X5.2305 Y12.2036
X5.2312 Y12.1975
X5.2325 Y12.191
X5.2333 Y12.1882
X5.2371 Y12.1802
X5.2432 Y12.1737
X5.2511 Y12.1696
X5.2598 Y12.1682
X5.2954
G3 X5.3068 Y12.1797 I-0.0004 J0.0118
G1 X5.3071 Y12.1928
X5.3094 Y12.2756
X5.3097 Y12.2881
G3 X5.2983 Y12.3002 I-0.0118 J0.0003
G1 X5.2646
X5.2586 Y12.2999
X5.2527 Y12.2988
X5.2469 Y12.297
X5.2415 Y12.2946
X5.2363 Y12.2916
X5.2314 Y12.2881
X5.2266 Y12.2841
X5.2218 Y12.2795
X5.217 Y12.2739
X5.2125 Y12.2678
X5.2084 Y12.2612
X5.2046 Y12.2538
X5.2013 Y12.2459
X5.1986 Y12.2377
X5.1966 Y12.2292
X5.1953 Y12.2212
X5.1948 Y12.2136
Y12.2058
X5.1954 Y12.1995
X5.1964 Y12.1933
X5.1981 Y12.1868
X5.2021 Y12.1793
X5.2081 Y12.1733
X5.2157 Y12.1695
X5.2242 Y12.1682
X5.2598
G3 X5.2712 Y12.1795 I-0.0004 J0.0118
G1 X5.2718 Y12.1928
X5.2754 Y12.2756
X5.2759 Y12.2879
G3 X5.2646 Y12.3002 I-0.0118 J0.0005
G1 X5.2277
X5.2217 Y12.2999
X5.2159 Y12.2986
X5.2102 Y12.2967
X5.2048 Y12.2941
X5.1996 Y12.291
X5.1948 Y12.2875
X5.1899 Y12.2832
X5.185 Y12.2783
X5.1804 Y12.2728
X5.176 Y12.2665
X5.1718 Y12.2595
X5.1681 Y12.2519
X5.165 Y12.244
X5.1625 Y12.2357
X5.1606 Y12.2271
X5.1595 Y12.2191
X5.1591 Y12.2119
X5.1593 Y12.2042
X5.16 Y12.1978
X5.1611 Y12.1919
X5.162 Y12.1884
X5.1658 Y12.1803
X5.1719 Y12.1738
X5.1798 Y12.1696
X5.1886 Y12.1682
X5.2242
G3 X5.2355 Y12.1796 I-0.0004 J0.0118
G1 X5.236 Y12.1928
X5.2387 Y12.2756
X5.2391 Y12.288
G3 X5.2277 Y12.3002 I-0.0118 J0.0004
G1 X5.1915
X5.1855 Y12.2999
X5.1796 Y12.2985
X5.174 Y12.2965
X5.1686 Y12.2938
X5.1635 Y12.2907
X5.1587 Y12.2871
X5.1537 Y12.2827
X5.149 Y12.2778
X5.1443 Y12.2722
X5.1398 Y12.2657
X5.1357 Y12.2587
X5.1321 Y12.2511
X5.129 Y12.2431
X5.1266 Y12.2347
X5.1248 Y12.2263
X5.1239 Y12.2188
X5.1235 Y12.2107
X5.1237 Y12.2036
X5.1245 Y12.1975
X5.1257 Y12.191
X5.1265 Y12.1882
X5.1303 Y12.1802
X5.1364 Y12.1737
X5.1443 Y12.1696
X5.153 Y12.1682
X5.1886
G3 X5.2 Y12.1797 I-0.0004 J0.0118
G1 X5.2003 Y12.1928
X5.2025 Y12.2756
X5.2028 Y12.2881
G3 X5.1915 Y12.3002 I-0.0118 J0.0003
G1 X5.1577
X5.1517 Y12.2999
X5.1458 Y12.2988
X5.1401 Y12.297
X5.1346 Y12.2945
X5.1294 Y12.2916
X5.1245 Y12.2881
X5.1197 Y12.2841
X5.115 Y12.2794
X5.1102 Y12.2739
X5.1057 Y12.2678
X5.1015 Y12.2612
X5.0978 Y12.2538
X5.0945 Y12.2459
X5.0918 Y12.2377
X5.0898 Y12.2291
X5.0885 Y12.2211
X5.088 Y12.2135
Y12.2058
X5.0886 Y12.1994
X5.0896 Y12.1933
X5.0908 Y12.1889
X5.0935 Y12.1822
X5.0978 Y12.1764
X5.1036 Y12.1719
X5.1102 Y12.1691
X5.1174 Y12.1682
X5.153
G3 X5.1644 Y12.1795 I-0.0004 J0.0118
G1 X5.165 Y12.1928
X5.1686 Y12.2756
X5.1691 Y12.2879
G3 X5.1577 Y12.3002 I-0.0118 J0.0005
G1 X5.1209
X5.1149 Y12.2999
X5.109 Y12.2986
X5.1034 Y12.2967
X5.0979 Y12.2941
X5.0928 Y12.291
X5.088 Y12.2874
X5.0831 Y12.2832
X5.0782 Y12.2783
X5.0736 Y12.2728
X5.0692 Y12.2665
X5.065 Y12.2595
X5.0613 Y12.2519
X5.0582 Y12.2439
X5.0556 Y12.2356
X5.0538 Y12.2272
X5.0528 Y12.2194
X5.0523 Y12.2113
X5.0525 Y12.2046
X5.0532 Y12.1977
X5.0544 Y12.1914
X5.0553 Y12.1884
X5.059 Y12.1803
X5.0651 Y12.1738
X5.073 Y12.1696
X5.0818 Y12.1682
X5.1174
G3 X5.1288 Y12.1796 I-0.0004 J0.0118
G1 X5.1292 Y12.1928
X5.1319 Y12.2756
X5.1323 Y12.288
G3 X5.1209 Y12.3002 I-0.0118 J0.0004
G1 X5.0846
X5.0786 Y12.2999
X5.0728 Y12.2985
X5.0671 Y12.2965
X5.0618 Y12.2938
X5.0567 Y12.2907
X5.0518 Y12.2871
X5.0469 Y12.2827
X5.0421 Y12.2778
X5.0375 Y12.2722
X5.0331 Y12.2657
X5.0289 Y12.2586
X5.0253 Y12.2511
X5.0222 Y12.2431
X5.0198 Y12.2347
X5.018 Y12.2262
X5.0171 Y12.2187
X5.0167 Y12.2106
X5.017 Y12.2035
X5.0177 Y12.1974
X5.019 Y12.1909
X5.0197 Y12.1882
X5.0235 Y12.1802
X5.0296 Y12.1737
X5.0375 Y12.1696
X5.0462 Y12.1682
X5.0818
G3 X5.0932 Y12.1797 I-0.0004 J0.0118
G1 X5.0935 Y12.1928
X5.0957 Y12.2756
X5.096 Y12.2881
G3 X5.0846 Y12.3002 I-0.0118 J0.0003
G1 X5.0509
X5.0449 Y12.2999
X5.039 Y12.2988
X5.0333 Y12.297
X5.0278 Y12.2945
X5.0226 Y12.2915
X5.0177 Y12.2881
X5.0129 Y12.2841
X5.0081 Y12.2794
X5.0033 Y12.2739
X4.9988 Y12.2678
X4.9947 Y12.2611
X4.9909 Y12.2537
X4.9876 Y12.2458
X4.985 Y12.2376
X4.983 Y12.229
X4.9817 Y12.2211
X4.9812 Y12.2135
X4.9813 Y12.2057
X4.9818 Y12.1994
X4.9829 Y12.1932
X4.9837 Y12.19
X4.9867 Y12.1828
X4.9916 Y12.1767
X4.9981 Y12.1722
X5.0056 Y12.1697
X5.0115 Y12.1687
X5.0143 Y12.1682
X5.0171
X5.0462
G3 X5.0576 Y12.1795 I-0.0004 J0.0118
G1 X5.0582 Y12.1928
X5.0617 Y12.2756
X5.0623 Y12.2879
G3 X5.0509 Y12.3002 I-0.0118 J0.0005
G1 X5.0228
X5.0171 Y12.2997
X5.0084 Y12.2987
X5.0025 Y12.2978
X4.9968 Y12.2959
X4.9913 Y12.2934
X4.9862 Y12.2904
X4.9813 Y12.2869
X4.9765 Y12.2828
X4.9717 Y12.2779
X4.9671 Y12.2725
X4.9627 Y12.2664
X4.9585 Y12.2595
X4.9548 Y12.2521
X4.9517 Y12.2442
X4.9491 Y12.236
X4.9473 Y12.2277
X4.9471 Y12.2268
X4.9469 Y12.2223
X4.9473 Y12.2178
X4.9485 Y12.2135
G3 X4.969 Y12.211 I0.0109 J0.0044
G1 X4.9724 Y12.2157
X5.0164 Y12.2767
X5.0189 Y12.28
G3 X5.0084 Y12.2987 I-0.0096 J0.0069
G1 X5.0059 Y12.2984
X5.0003 Y12.2977
X4.989 Y12.2957
X4.9876 Y12.2954
X4.9862 Y12.2949
X4.9834 Y12.2933
X4.9722 Y12.2868
X4.9684 Y12.2846
X4.9675 Y12.2839
X4.9665 Y12.283
X4.9584 Y12.2734
X4.9553 Y12.2697
X4.9538 Y12.2678
X4.9529 Y12.2664
X4.9522 Y12.265
X4.946 Y12.2481
X4.9455 Y12.2467
X4.9452 Y12.2453
X4.9451 Y12.2397
Y12.2284
X4.9453 Y12.2228
X4.9456 Y12.2214
X4.9523 Y12.2031
X4.953 Y12.2017
X4.954 Y12.2003
X4.9634 Y12.1891
X4.9665 Y12.1854
X4.9677 Y12.1843
X4.9689 Y12.1834
X4.9834 Y12.175
X4.9862 Y12.1735
X4.9876 Y12.173
X4.989 Y12.1727
X5.0056 Y12.1697
G3 X5.0145 Y12.1907 I0.0016 J0.0117
G1 X5.0124 Y12.1923 Z-0.3747
X5.0104 Y12.1939 Z-0.3738
X5.0087 Y12.1952 Z-0.3724
X5.0072 Y12.1964 Z-0.3706
X5.0061 Y12.1973 Z-0.3683
X5.0054 Y12.1978 Z-0.3658
X5.0051 Y12.198 Z-0.3632
G0 Z0.6
g0 x0 y0

M9
M30
