(X4 GEARBOX HOLE RUN 1.0)
(T3  D=0.118 CR=0. - ZMIN=-0.29 - FLAT END MILL)
G90 G94 G91.1 G40 G49 G17
G20

(2D POCKET1)
M5
T3 M6
S15000 M3
g4 p5
G54
M8
G0 X3.3543 Y5.1777
G43 Z0.6 H3
Z0.2
G1 Z0.1118 F40.
X3.355 Y5.178 Z0.1075 F20.
X3.3559 Y5.1787 Z0.1057
X3.3566 Y5.1796 Z0.1039
X3.3572 Y5.1807 Z0.1029
X3.3574 Y5.1819 Z0.102
Y5.1832 Z0.1011
X3.3569 Y5.1846 Z0.1007
X3.356 Y5.1859 Z0.1004
X3.3548 Y5.1868 Z0.1
G3 X3.3501 Y5.1779 Z0.0995 I-0.0023 J-0.0044
X3.3548 Y5.1868 Z0.0989 I0.0023 J0.0044
X3.3501 Y5.1779 Z0.0984 I-0.0023 J-0.0044
X3.3548 Y5.1868 Z0.0978 I0.0023 J0.0044
X3.3501 Y5.1779 Z0.0973 I-0.0023 J-0.0044
X3.3548 Y5.1868 Z0.0967 I0.0023 J0.0044
X3.3501 Y5.1779 Z0.0962 I-0.0023 J-0.0044
X3.3548 Y5.1868 Z0.0956 I0.0023 J0.0044
X3.3501 Y5.1779 Z0.0951 I-0.0023 J-0.0044
X3.3548 Y5.1868 Z0.0945 I0.0023 J0.0044
X3.3501 Y5.1779 Z0.094 I-0.0023 J-0.0044
X3.3548 Y5.1868 Z0.0934 I0.0023 J0.0044
X3.3501 Y5.1779 Z0.0929 I-0.0023 J-0.0044
X3.3548 Y5.1868 Z0.0923 I0.0023 J0.0044
X3.3501 Y5.1779 Z0.0918 I-0.0023 J-0.0044
X3.3548 Y5.1868 Z0.0912 I0.0023 J0.0044
X3.3501 Y5.1779 Z0.0907 I-0.0023 J-0.0044
X3.3548 Y5.1868 Z0.0901 I0.0023 J0.0044
X3.3501 Y5.1779 Z0.0896 I-0.0023 J-0.0044
X3.3548 Y5.1868 Z0.089 I0.0023 J0.0044
X3.3501 Y5.1779 Z0.0885 I-0.0023 J-0.0044
X3.3548 Y5.1868 Z0.0879 I0.0023 J0.0044
X3.3501 Y5.1779 Z0.0874 I-0.0023 J-0.0044
X3.3548 Y5.1868 Z0.0868 I0.0023 J0.0044
X3.3501 Y5.1779 Z0.0863 I-0.0023 J-0.0044
X3.3548 Y5.1868 Z0.0857 I0.0023 J0.0044
X3.3501 Y5.1779 Z0.0852 I-0.0023 J-0.0044
X3.3548 Y5.1868 Z0.0846 I0.0023 J0.0044
X3.3501 Y5.1779 Z0.0841 I-0.0023 J-0.0044
X3.3548 Y5.1868 Z0.0835 I0.0023 J0.0044
X3.3501 Y5.1779 Z0.083 I-0.0023 J-0.0044
X3.3548 Y5.1868 Z0.0824 I0.0023 J0.0044
X3.3501 Y5.1779 Z0.0819 I-0.0023 J-0.0044
X3.3548 Y5.1868 Z0.0813 I0.0023 J0.0044
X3.3501 Y5.1779 Z0.0808 I-0.0023 J-0.0044
X3.3548 Y5.1868 Z0.0803 I0.0023 J0.0044
X3.3501 Y5.1779 Z0.0797 I-0.0023 J-0.0044
X3.3548 Y5.1868 Z0.0792 I0.0023 J0.0044
X3.3501 Y5.1779 Z0.0786 I-0.0023 J-0.0044
X3.3548 Y5.1868 Z0.0781 I0.0023 J0.0044
X3.3501 Y5.1779 Z0.0775 I-0.0023 J-0.0044
X3.3548 Y5.1868 Z0.077 I0.0023 J0.0044
X3.3501 Y5.1779 Z0.0764 I-0.0023 J-0.0044
X3.3548 Y5.1868 Z0.0759 I0.0023 J0.0044
X3.3501 Y5.1779 Z0.0753 I-0.0023 J-0.0044
X3.3548 Y5.1868 Z0.0748 I0.0023 J0.0044
X3.3501 Y5.1779 Z0.0742 I-0.0023 J-0.0044
X3.3548 Y5.1868 Z0.0737 I0.0023 J0.0044
X3.3501 Y5.1779 Z0.0731 I-0.0023 J-0.0044
X3.3548 Y5.1868 Z0.0726 I0.0023 J0.0044
X3.3501 Y5.1779 Z0.072 I-0.0023 J-0.0044
X3.3548 Y5.1868 Z0.0715 I0.0023 J0.0044
X3.3501 Y5.1779 Z0.0709 I-0.0023 J-0.0044
X3.3548 Y5.1868 Z0.0704 I0.0023 J0.0044
X3.3501 Y5.1779 Z0.0698 I-0.0023 J-0.0044
X3.3548 Y5.1868 Z0.0693 I0.0023 J0.0044
X3.3501 Y5.1779 Z0.0687 I-0.0023 J-0.0044
X3.3548 Y5.1868 Z0.0682 I0.0023 J0.0044
X3.3501 Y5.1779 Z0.0676 I-0.0023 J-0.0044
X3.3548 Y5.1868 Z0.0671 I0.0023 J0.0044
X3.3501 Y5.1779 Z0.0665 I-0.0023 J-0.0044
X3.3548 Y5.1868 Z0.066 I0.0023 J0.0044
X3.3501 Y5.1779 Z0.0654 I-0.0023 J-0.0044
X3.3548 Y5.1868 Z0.0649 I0.0023 J0.0044
X3.3501 Y5.1779 Z0.0643 I-0.0023 J-0.0044
X3.3548 Y5.1868 Z0.0638 I0.0023 J0.0044
X3.3501 Y5.1779 Z0.0632 I-0.0023 J-0.0044
X3.3548 Y5.1868 Z0.0627 I0.0023 J0.0044
X3.3501 Y5.1779 Z0.0622 I-0.0023 J-0.0044
X3.3548 Y5.1868 Z0.0616 I0.0023 J0.0044
X3.3501 Y5.1779 Z0.0611 I-0.0023 J-0.0044
X3.3548 Y5.1868 Z0.0605 I0.0023 J0.0044
X3.3501 Y5.1779 Z0.06 I-0.0023 J-0.0044
X3.3548 Y5.1868 Z0.0594 I0.0023 J0.0044
X3.3501 Y5.1779 Z0.0589 I-0.0023 J-0.0044
X3.3548 Y5.1868 Z0.0583 I0.0023 J0.0044
X3.3501 Y5.1779 Z0.0578 I-0.0023 J-0.0044
X3.3548 Y5.1868 Z0.0572 I0.0023 J0.0044
X3.3501 Y5.1779 Z0.0567 I-0.0023 J-0.0044
X3.3548 Y5.1868 Z0.0561 I0.0023 J0.0044
X3.3501 Y5.1779 Z0.0556 I-0.0023 J-0.0044
X3.3548 Y5.1868 Z0.055 I0.0023 J0.0044
X3.3501 Y5.1779 Z0.0545 I-0.0023 J-0.0044
X3.3548 Y5.1868 Z0.0539 I0.0023 J0.0044
X3.3501 Y5.1779 Z0.0534 I-0.0023 J-0.0044
X3.3548 Y5.1868 Z0.0528 I0.0023 J0.0044
X3.3501 Y5.1779 Z0.0523 I-0.0023 J-0.0044
X3.3548 Y5.1868 Z0.0517 I0.0023 J0.0044
X3.3501 Y5.1779 Z0.0512 I-0.0023 J-0.0044
X3.3548 Y5.1868 Z0.0506 I0.0023 J0.0044
X3.3501 Y5.1779 Z0.0501 I-0.0023 J-0.0044
X3.3548 Y5.1868 Z0.0495 I0.0023 J0.0044
X3.3501 Y5.1779 Z0.049 I-0.0023 J-0.0044
X3.3548 Y5.1868 Z0.0484 I0.0023 J0.0044
X3.3501 Y5.1779 Z0.0479 I-0.0023 J-0.0044
X3.3548 Y5.1868 Z0.0473 I0.0023 J0.0044
X3.3501 Y5.1779 Z0.0468 I-0.0023 J-0.0044
X3.3548 Y5.1868 Z0.0462 I0.0023 J0.0044
X3.3501 Y5.1779 Z0.0457 I-0.0023 J-0.0044
X3.3548 Y5.1868 Z0.0451 I0.0023 J0.0044
X3.3501 Y5.1779 Z0.0446 I-0.0023 J-0.0044
X3.3548 Y5.1868 Z0.044 I0.0023 J0.0044
X3.3501 Y5.1779 Z0.0435 I-0.0023 J-0.0044
X3.3548 Y5.1868 Z0.043 I0.0023 J0.0044
X3.3501 Y5.1779 Z0.0424 I-0.0023 J-0.0044
X3.3548 Y5.1868 Z0.0419 I0.0023 J0.0044
X3.3501 Y5.1779 Z0.0413 I-0.0023 J-0.0044
X3.3548 Y5.1868 Z0.0408 I0.0023 J0.0044
X3.3501 Y5.1779 Z0.0402 I-0.0023 J-0.0044
X3.3548 Y5.1868 Z0.0397 I0.0023 J0.0044
X3.3501 Y5.1779 Z0.0391 I-0.0023 J-0.0044
X3.3548 Y5.1868 Z0.0386 I0.0023 J0.0044
X3.3501 Y5.1779 Z0.038 I-0.0023 J-0.0044
X3.3548 Y5.1868 Z0.0375 I0.0023 J0.0044
X3.3501 Y5.1779 Z0.0369 I-0.0023 J-0.0044
X3.3548 Y5.1868 Z0.0364 I0.0023 J0.0044
X3.3501 Y5.1779 Z0.0358 I-0.0023 J-0.0044
X3.3548 Y5.1868 Z0.0353 I0.0023 J0.0044
X3.3501 Y5.1779 Z0.0347 I-0.0023 J-0.0044
X3.3548 Y5.1868 Z0.0342 I0.0023 J0.0044
X3.3501 Y5.1779 Z0.0336 I-0.0023 J-0.0044
X3.3548 Y5.1868 Z0.0331 I0.0023 J0.0044
X3.3501 Y5.1779 Z0.0325 I-0.0023 J-0.0044
X3.3548 Y5.1868 Z0.032 I0.0023 J0.0044
X3.3501 Y5.1779 Z0.0314 I-0.0023 J-0.0044
X3.3548 Y5.1868 Z0.0309 I0.0023 J0.0044
X3.3501 Y5.1779 Z0.0303 I-0.0023 J-0.0044
X3.3548 Y5.1868 Z0.0298 I0.0023 J0.0044
X3.3501 Y5.1779 Z0.0292 I-0.0023 J-0.0044
X3.3548 Y5.1868 Z0.0287 I0.0023 J0.0044
X3.3501 Y5.1779 Z0.0281 I-0.0023 J-0.0044
X3.3548 Y5.1868 Z0.0276 I0.0023 J0.0044
X3.3501 Y5.1779 Z0.027 I-0.0023 J-0.0044
X3.3548 Y5.1868 Z0.0265 I0.0023 J0.0044
X3.3501 Y5.1779 Z0.0259 I-0.0023 J-0.0044
X3.3548 Y5.1868 Z0.0254 I0.0023 J0.0044
X3.3501 Y5.1779 Z0.0249 I-0.0023 J-0.0044
X3.3548 Y5.1868 Z0.0243 I0.0023 J0.0044
X3.3501 Y5.1779 Z0.0238 I-0.0023 J-0.0044
X3.3548 Y5.1868 Z0.0232 I0.0023 J0.0044
X3.3501 Y5.1779 Z0.0227 I-0.0023 J-0.0044
X3.3548 Y5.1868 Z0.0221 I0.0023 J0.0044
X3.3501 Y5.1779 Z0.0216 I-0.0023 J-0.0044
X3.3548 Y5.1868 Z0.021 I0.0023 J0.0044
X3.3501 Y5.1779 Z0.0205 I-0.0023 J-0.0044
X3.3548 Y5.1868 Z0.0199 I0.0023 J0.0044
X3.3501 Y5.1779 Z0.0194 I-0.0023 J-0.0044
X3.3548 Y5.1868 Z0.0188 I0.0023 J0.0044
X3.3501 Y5.1779 Z0.0183 I-0.0023 J-0.0044
X3.3548 Y5.1868 Z0.0177 I0.0023 J0.0044
X3.3501 Y5.1779 Z0.0172 I-0.0023 J-0.0044
X3.3548 Y5.1868 Z0.0166 I0.0023 J0.0044
X3.3501 Y5.1779 Z0.0161 I-0.0023 J-0.0044
X3.3548 Y5.1868 Z0.0155 I0.0023 J0.0044
X3.3501 Y5.1779 Z0.015 I-0.0023 J-0.0044
X3.3548 Y5.1868 Z0.0144 I0.0023 J0.0044
X3.3501 Y5.1779 Z0.0139 I-0.0023 J-0.0044
X3.3548 Y5.1868 Z0.0133 I0.0023 J0.0044
X3.3501 Y5.1779 Z0.0128 I-0.0023 J-0.0044
X3.3548 Y5.1868 Z0.0122 I0.0023 J0.0044
X3.3501 Y5.1779 Z0.0117 I-0.0023 J-0.0044
X3.3548 Y5.1868 Z0.0111 I0.0023 J0.0044
X3.3501 Y5.1779 Z0.0106 I-0.0023 J-0.0044
X3.3548 Y5.1868 Z0.01 I0.0023 J0.0044
X3.3501 Y5.1779 Z0.0095 I-0.0023 J-0.0044
X3.3548 Y5.1868 Z0.0089 I0.0023 J0.0044
X3.3501 Y5.1779 Z0.0084 I-0.0023 J-0.0044
X3.3548 Y5.1868 Z0.0078 I0.0023 J0.0044
X3.3501 Y5.1779 Z0.0073 I-0.0023 J-0.0044
X3.3548 Y5.1868 Z0.0067 I0.0023 J0.0044
X3.3501 Y5.1779 Z0.0062 I-0.0023 J-0.0044
X3.3548 Y5.1868 Z0.0057 I0.0023 J0.0044
X3.3501 Y5.1779 Z0.0051 I-0.0023 J-0.0044
X3.3548 Y5.1868 Z0.0046 I0.0023 J0.0044
X3.3501 Y5.1779 Z0.004 I-0.0023 J-0.0044
X3.3548 Y5.1868 Z0.0035 I0.0023 J0.0044
X3.3501 Y5.1779 Z0.0029 I-0.0023 J-0.0044
X3.3548 Y5.1868 Z0.0024 I0.0023 J0.0044
X3.3501 Y5.1779 Z0.0018 I-0.0023 J-0.0044
X3.3548 Y5.1868 Z0.0013 I0.0023 J0.0044
X3.3501 Y5.1779 Z0.0007 I-0.0023 J-0.0044
X3.3548 Y5.1868 Z0.0002 I0.0023 J0.0044
X3.3501 Y5.1779 Z-0.0004 I-0.0023 J-0.0044
X3.3548 Y5.1868 Z-0.0009 I0.0023 J0.0044
X3.3501 Y5.1779 Z-0.0015 I-0.0023 J-0.0044
X3.3548 Y5.1868 Z-0.002 I0.0023 J0.0044
X3.3501 Y5.1779 Z-0.0026 I-0.0023 J-0.0044
X3.3548 Y5.1868 Z-0.0031 I0.0023 J0.0044
X3.3501 Y5.1779 Z-0.0037 I-0.0023 J-0.0044
X3.3548 Y5.1868 Z-0.0042 I0.0023 J0.0044
X3.3501 Y5.1779 Z-0.0048 I-0.0023 J-0.0044
X3.3548 Y5.1868 Z-0.0053 I0.0023 J0.0044
X3.3501 Y5.1779 Z-0.0059 I-0.0023 J-0.0044
X3.3548 Y5.1868 Z-0.0064 I0.0023 J0.0044
X3.3501 Y5.1779 Z-0.007 I-0.0023 J-0.0044
X3.3548 Y5.1868 Z-0.0075 I0.0023 J0.0044
X3.3501 Y5.1779 Z-0.0081 I-0.0023 J-0.0044
X3.3548 Y5.1868 Z-0.0086 I0.0023 J0.0044
X3.3501 Y5.1779 Z-0.0092 I-0.0023 J-0.0044
X3.3548 Y5.1868 Z-0.0097 I0.0023 J0.0044
X3.3501 Y5.1779 Z-0.0103 I-0.0023 J-0.0044
X3.3548 Y5.1868 Z-0.0108 I0.0023 J0.0044
X3.3501 Y5.1779 Z-0.0114 I-0.0023 J-0.0044
X3.3548 Y5.1868 Z-0.0119 I0.0023 J0.0044
X3.3501 Y5.1779 Z-0.0124 I-0.0023 J-0.0044
X3.3548 Y5.1868 Z-0.013 I0.0023 J0.0044
X3.3501 Y5.1779 Z-0.0135 I-0.0023 J-0.0044
X3.3548 Y5.1868 Z-0.0141 I0.0023 J0.0044
X3.3501 Y5.1779 Z-0.0146 I-0.0023 J-0.0044
X3.3548 Y5.1868 Z-0.0152 I0.0023 J0.0044
X3.3501 Y5.1779 Z-0.0157 I-0.0023 J-0.0044
X3.3548 Y5.1868 Z-0.0163 I0.0023 J0.0044
X3.3501 Y5.1779 Z-0.0168 I-0.0023 J-0.0044
X3.3548 Y5.1868 Z-0.0174 I0.0023 J0.0044
X3.3501 Y5.1779 Z-0.0179 I-0.0023 J-0.0044
X3.3548 Y5.1868 Z-0.0185 I0.0023 J0.0044
X3.3501 Y5.1779 Z-0.019 I-0.0023 J-0.0044
X3.3548 Y5.1868 Z-0.0196 I0.0023 J0.0044
X3.3477 Y5.1806 Z-0.02 I-0.0023 J-0.0044
X3.4211 Y5.2073 I0.0367 J0.0133 F40.
X3.3477 Y5.1806 I-0.0367 J-0.0133
X3.4211 Y5.2073 Z-0.0243 I0.0367 J0.0133 F20.
X3.3477 Y5.1806 Z-0.0286 I-0.0367 J-0.0133
X3.4211 Y5.2073 Z-0.0328 I0.0367 J0.0133
X3.3477 Y5.1806 Z-0.0371 I-0.0367 J-0.0133
X3.4148 Y5.1694 Z-0.04 I0.0367 J0.0133
X3.3541 Y5.2185 I-0.0303 J0.0245 F40.
X3.4148 Y5.1694 I0.0303 J-0.0245
X3.3541 Y5.2185 Z-0.0443 I-0.0303 J0.0245 F20.
X3.4148 Y5.1694 Z-0.0486 I0.0303 J-0.0245
X3.3541 Y5.2185 Z-0.0528 I-0.0303 J0.0245
X3.4148 Y5.1694 Z-0.0571 I0.0303 J-0.0245
X3.3898 Y5.2326 Z-0.06 I-0.0303 J0.0245
X3.3791 Y5.1553 I-0.0053 J-0.0386 F40.
X3.3898 Y5.2326 I0.0053 J0.0386
X3.3791 Y5.1553 Z-0.0643 I-0.0053 J-0.0386 F20.
X3.3898 Y5.2326 Z-0.0686 I0.0053 J0.0386
X3.3791 Y5.1553 Z-0.0728 I-0.0053 J-0.0386
X3.3898 Y5.2326 Z-0.0771 I0.0053 J0.0386
X3.3485 Y5.1786 Z-0.08 I-0.0053 J-0.0386
X3.4203 Y5.2093 I0.0359 J0.0154 F40.
X3.3485 Y5.1786 I-0.0359 J-0.0154
X3.4203 Y5.2093 Z-0.0843 I0.0359 J0.0154 F20.
X3.3485 Y5.1786 Z-0.0886 I-0.0359 J-0.0154
X3.4203 Y5.2093 Z-0.0928 I0.0359 J0.0154
X3.3485 Y5.1786 Z-0.0971 I-0.0359 J-0.0154
X3.4161 Y5.1712 Z-0.1 I0.0359 J0.0154
X3.3527 Y5.2167 I-0.0317 J0.0228 F40.
X3.4161 Y5.1712 I0.0317 J-0.0228
X3.3527 Y5.2167 Z-0.1043 I-0.0317 J0.0228 F20.
X3.4161 Y5.1712 Z-0.1086 I0.0317 J-0.0228
X3.3527 Y5.2167 Z-0.1128 I-0.0317 J0.0228
X3.4161 Y5.1712 Z-0.1171 I0.0317 J-0.0228
X3.3876 Y5.2328 Z-0.12 I-0.0317 J0.0228
X3.3812 Y5.1551 I-0.0032 J-0.0389 F40.
X3.3876 Y5.2328 I0.0032 J0.0389
X3.3812 Y5.1551 Z-0.1243 I-0.0032 J-0.0389 F20.
X3.3876 Y5.2328 Z-0.1286 I0.0032 J0.0389
X3.3812 Y5.1551 Z-0.1328 I-0.0032 J-0.0389
X3.3876 Y5.2328 Z-0.1371 I0.0032 J0.0389
X3.3495 Y5.1766 Z-0.14 I-0.0032 J-0.0389
X3.4193 Y5.2113 I0.0349 J0.0174 F40.
X3.3495 Y5.1766 I-0.0349 J-0.0174
X3.4193 Y5.2113 Z-0.1443 I0.0349 J0.0174 F20.
X3.3495 Y5.1766 Z-0.1486 I-0.0349 J-0.0174
X3.4193 Y5.2113 Z-0.1528 I0.0349 J0.0174
X3.3495 Y5.1766 Z-0.1571 I-0.0349 J-0.0174
X3.4173 Y5.173 Z-0.16 I0.0349 J0.0174
X3.3515 Y5.2149 I-0.0329 J0.021 F40.
X3.4173 Y5.173 I0.0329 J-0.021
X3.3515 Y5.2149 Z-0.1643 I-0.0329 J0.021 F20.
X3.4173 Y5.173 Z-0.1686 I0.0329 J-0.021
X3.3515 Y5.2149 Z-0.1728 I-0.0329 J0.021
X3.4173 Y5.173 Z-0.1771 I0.0329 J-0.021
X3.3854 Y5.233 Z-0.18 I-0.0329 J0.021
X3.3834 Y5.1549 I-0.001 J-0.039 F40.
X3.3854 Y5.233 I0.001 J0.039
X3.3834 Y5.1549 Z-0.1843 I-0.001 J-0.039 F20.
X3.3854 Y5.233 Z-0.1886 I0.001 J0.039
X3.3834 Y5.1549 Z-0.1928 I-0.001 J-0.039
X3.3854 Y5.233 Z-0.1971 I0.001 J0.039
X3.3505 Y5.1747 Z-0.2 I-0.001 J-0.039
X3.4183 Y5.2132 I0.0339 J0.0193 F40.
X3.3505 Y5.1747 I-0.0339 J-0.0193
X3.4183 Y5.2132 Z-0.2043 I0.0339 J0.0193 F20.
X3.3505 Y5.1747 Z-0.2086 I-0.0339 J-0.0193
X3.4183 Y5.2132 Z-0.2128 I0.0339 J0.0193
X3.3505 Y5.1747 Z-0.2171 I-0.0339 J-0.0193
X3.4184 Y5.1749 Z-0.22 I0.0339 J0.0193
X3.3504 Y5.213 I-0.034 J0.0191 F40.
X3.4184 Y5.1749 I0.034 J-0.0191
X3.3504 Y5.213 Z-0.2243 I-0.034 J0.0191 F20.
X3.4184 Y5.1749 Z-0.2286 I0.034 J-0.0191
X3.3504 Y5.213 Z-0.2328 I-0.034 J0.0191
X3.4184 Y5.1749 Z-0.2371 I0.034 J-0.0191
X3.3832 Y5.2329 Z-0.24 I-0.034 J0.0191
X3.3856 Y5.155 I0.0012 J-0.039 F40.
X3.3832 Y5.2329 I-0.0012 J0.039
X3.3856 Y5.155 Z-0.2443 I0.0012 J-0.039 F20.
X3.3832 Y5.2329 Z-0.2486 I-0.0012 J0.039
X3.3856 Y5.155 Z-0.2528 I0.0012 J-0.039
X3.3832 Y5.2329 Z-0.2571 I-0.0012 J0.039
X3.3516 Y5.1728 Z-0.26 I0.0012 J-0.039
X3.4172 Y5.2151 I0.0328 J0.0212 F40.
X3.3516 Y5.1728 I-0.0328 J-0.0212
X3.4172 Y5.2151 Z-0.2643 I0.0328 J0.0212 F20.
X3.3516 Y5.1728 Z-0.2686 I-0.0328 J-0.0212
X3.4172 Y5.2151 Z-0.2728 I0.0328 J0.0212
X3.3516 Y5.1728 Z-0.2771 I-0.0328 J-0.0212
X3.4195 Y5.1768 Z-0.28 I0.0328 J0.0212
X3.3494 Y5.2111 I-0.035 J0.0171 F40.
X3.4195 Y5.1768 I0.035 J-0.0171
X3.3494 Y5.2111 Z-0.2843 I-0.035 J0.0171 F20.
X3.4195 Y5.1768 Z-0.2886 I0.035 J-0.0171
X3.4166 Y5.216 Z-0.29 I-0.035 J0.0171
X3.3522 Y5.1719 I-0.0322 J-0.0221 F40.
X3.4166 Y5.216 I0.0322 J0.0221
G1 X3.4151 Y5.2178 Z-0.2896
X3.4134 Y5.2192 Z-0.2891
X3.4117 Y5.2201 Z-0.2878
X3.4099 Y5.2207 Z-0.2865
X3.4074 Y5.2211 Z-0.2827
X3.4065 Z-0.2782
G0 Z0.2
X4.0776 Y4.4895
G1 Z0.1118 F40.
X4.0768 Y4.4892 Z0.1075 F20.
X4.0758 Y4.4887 Z0.1057
X4.075 Y4.488 Z0.1039
X4.0742 Y4.487 Z0.1029
X4.0738 Y4.4858 Z0.102
X4.0736 Y4.4846 Z0.1011
X4.0739 Y4.4831 Z0.1007
X4.0745 Y4.4817 Z0.1004
X4.0756 Y4.4806 Z0.1
G3 X4.0817 Y4.4885 Z0.0995 I0.0031 J0.004
X4.0756 Y4.4806 Z0.0989 I-0.0031 J-0.004
X4.0817 Y4.4885 Z0.0984 I0.0031 J0.004
X4.0756 Y4.4806 Z0.0978 I-0.0031 J-0.004
X4.0817 Y4.4885 Z0.0973 I0.0031 J0.004
X4.0756 Y4.4806 Z0.0967 I-0.0031 J-0.004
X4.0817 Y4.4885 Z0.0962 I0.0031 J0.004
X4.0756 Y4.4806 Z0.0956 I-0.0031 J-0.004
X4.0817 Y4.4885 Z0.0951 I0.0031 J0.004
X4.0756 Y4.4806 Z0.0945 I-0.0031 J-0.004
X4.0817 Y4.4885 Z0.094 I0.0031 J0.004
X4.0756 Y4.4806 Z0.0934 I-0.0031 J-0.004
X4.0817 Y4.4885 Z0.0929 I0.0031 J0.004
X4.0756 Y4.4806 Z0.0923 I-0.0031 J-0.004
X4.0817 Y4.4885 Z0.0918 I0.0031 J0.004
X4.0756 Y4.4806 Z0.0912 I-0.0031 J-0.004
X4.0817 Y4.4885 Z0.0907 I0.0031 J0.004
X4.0756 Y4.4806 Z0.0901 I-0.0031 J-0.004
X4.0817 Y4.4885 Z0.0896 I0.0031 J0.004
X4.0756 Y4.4806 Z0.089 I-0.0031 J-0.004
X4.0817 Y4.4885 Z0.0885 I0.0031 J0.004
X4.0756 Y4.4806 Z0.0879 I-0.0031 J-0.004
X4.0817 Y4.4885 Z0.0874 I0.0031 J0.004
X4.0756 Y4.4806 Z0.0868 I-0.0031 J-0.004
X4.0817 Y4.4885 Z0.0863 I0.0031 J0.004
X4.0756 Y4.4806 Z0.0857 I-0.0031 J-0.004
X4.0817 Y4.4885 Z0.0852 I0.0031 J0.004
X4.0756 Y4.4806 Z0.0846 I-0.0031 J-0.004
X4.0817 Y4.4885 Z0.0841 I0.0031 J0.004
X4.0756 Y4.4806 Z0.0835 I-0.0031 J-0.004
X4.0817 Y4.4885 Z0.083 I0.0031 J0.004
X4.0756 Y4.4806 Z0.0824 I-0.0031 J-0.004
X4.0817 Y4.4885 Z0.0819 I0.0031 J0.004
X4.0756 Y4.4806 Z0.0813 I-0.0031 J-0.004
X4.0817 Y4.4885 Z0.0808 I0.0031 J0.004
X4.0756 Y4.4806 Z0.0803 I-0.0031 J-0.004
X4.0817 Y4.4885 Z0.0797 I0.0031 J0.004
X4.0756 Y4.4806 Z0.0792 I-0.0031 J-0.004
X4.0817 Y4.4885 Z0.0786 I0.0031 J0.004
X4.0756 Y4.4806 Z0.0781 I-0.0031 J-0.004
X4.0817 Y4.4885 Z0.0775 I0.0031 J0.004
X4.0756 Y4.4806 Z0.077 I-0.0031 J-0.004
X4.0817 Y4.4885 Z0.0764 I0.0031 J0.004
X4.0756 Y4.4806 Z0.0759 I-0.0031 J-0.004
X4.0817 Y4.4885 Z0.0753 I0.0031 J0.004
X4.0756 Y4.4806 Z0.0748 I-0.0031 J-0.004
X4.0817 Y4.4885 Z0.0742 I0.0031 J0.004
X4.0756 Y4.4806 Z0.0737 I-0.0031 J-0.004
X4.0817 Y4.4885 Z0.0731 I0.0031 J0.004
X4.0756 Y4.4806 Z0.0726 I-0.0031 J-0.004
X4.0817 Y4.4885 Z0.072 I0.0031 J0.004
X4.0756 Y4.4806 Z0.0715 I-0.0031 J-0.004
X4.0817 Y4.4885 Z0.0709 I0.0031 J0.004
X4.0756 Y4.4806 Z0.0704 I-0.0031 J-0.004
X4.0817 Y4.4885 Z0.0698 I0.0031 J0.004
X4.0756 Y4.4806 Z0.0693 I-0.0031 J-0.004
X4.0817 Y4.4885 Z0.0687 I0.0031 J0.004
X4.0756 Y4.4806 Z0.0682 I-0.0031 J-0.004
X4.0817 Y4.4885 Z0.0676 I0.0031 J0.004
X4.0756 Y4.4806 Z0.0671 I-0.0031 J-0.004
X4.0817 Y4.4885 Z0.0665 I0.0031 J0.004
X4.0756 Y4.4806 Z0.066 I-0.0031 J-0.004
X4.0817 Y4.4885 Z0.0654 I0.0031 J0.004
X4.0756 Y4.4806 Z0.0649 I-0.0031 J-0.004
X4.0817 Y4.4885 Z0.0643 I0.0031 J0.004
X4.0756 Y4.4806 Z0.0638 I-0.0031 J-0.004
X4.0817 Y4.4885 Z0.0632 I0.0031 J0.004
X4.0756 Y4.4806 Z0.0627 I-0.0031 J-0.004
X4.0817 Y4.4885 Z0.0622 I0.0031 J0.004
X4.0756 Y4.4806 Z0.0616 I-0.0031 J-0.004
X4.0817 Y4.4885 Z0.0611 I0.0031 J0.004
X4.0756 Y4.4806 Z0.0605 I-0.0031 J-0.004
X4.0817 Y4.4885 Z0.06 I0.0031 J0.004
X4.0756 Y4.4806 Z0.0594 I-0.0031 J-0.004
X4.0817 Y4.4885 Z0.0589 I0.0031 J0.004
X4.0756 Y4.4806 Z0.0583 I-0.0031 J-0.004
X4.0817 Y4.4885 Z0.0578 I0.0031 J0.004
X4.0756 Y4.4806 Z0.0572 I-0.0031 J-0.004
X4.0817 Y4.4885 Z0.0567 I0.0031 J0.004
X4.0756 Y4.4806 Z0.0561 I-0.0031 J-0.004
X4.0817 Y4.4885 Z0.0556 I0.0031 J0.004
X4.0756 Y4.4806 Z0.055 I-0.0031 J-0.004
X4.0817 Y4.4885 Z0.0545 I0.0031 J0.004
X4.0756 Y4.4806 Z0.0539 I-0.0031 J-0.004
X4.0817 Y4.4885 Z0.0534 I0.0031 J0.004
X4.0756 Y4.4806 Z0.0528 I-0.0031 J-0.004
X4.0817 Y4.4885 Z0.0523 I0.0031 J0.004
X4.0756 Y4.4806 Z0.0517 I-0.0031 J-0.004
X4.0817 Y4.4885 Z0.0512 I0.0031 J0.004
X4.0756 Y4.4806 Z0.0506 I-0.0031 J-0.004
X4.0817 Y4.4885 Z0.0501 I0.0031 J0.004
X4.0756 Y4.4806 Z0.0495 I-0.0031 J-0.004
X4.0817 Y4.4885 Z0.049 I0.0031 J0.004
X4.0756 Y4.4806 Z0.0484 I-0.0031 J-0.004
X4.0817 Y4.4885 Z0.0479 I0.0031 J0.004
X4.0756 Y4.4806 Z0.0473 I-0.0031 J-0.004
X4.0817 Y4.4885 Z0.0468 I0.0031 J0.004
X4.0756 Y4.4806 Z0.0462 I-0.0031 J-0.004
X4.0817 Y4.4885 Z0.0457 I0.0031 J0.004
X4.0756 Y4.4806 Z0.0451 I-0.0031 J-0.004
X4.0817 Y4.4885 Z0.0446 I0.0031 J0.004
X4.0756 Y4.4806 Z0.044 I-0.0031 J-0.004
X4.0817 Y4.4885 Z0.0435 I0.0031 J0.004
X4.0756 Y4.4806 Z0.043 I-0.0031 J-0.004
X4.0817 Y4.4885 Z0.0424 I0.0031 J0.004
X4.0756 Y4.4806 Z0.0419 I-0.0031 J-0.004
X4.0817 Y4.4885 Z0.0413 I0.0031 J0.004
X4.0756 Y4.4806 Z0.0408 I-0.0031 J-0.004
X4.0817 Y4.4885 Z0.0402 I0.0031 J0.004
X4.0756 Y4.4806 Z0.0397 I-0.0031 J-0.004
X4.0817 Y4.4885 Z0.0391 I0.0031 J0.004
X4.0756 Y4.4806 Z0.0386 I-0.0031 J-0.004
X4.0817 Y4.4885 Z0.038 I0.0031 J0.004
X4.0756 Y4.4806 Z0.0375 I-0.0031 J-0.004
X4.0817 Y4.4885 Z0.0369 I0.0031 J0.004
X4.0756 Y4.4806 Z0.0364 I-0.0031 J-0.004
X4.0817 Y4.4885 Z0.0358 I0.0031 J0.004
X4.0756 Y4.4806 Z0.0353 I-0.0031 J-0.004
X4.0817 Y4.4885 Z0.0347 I0.0031 J0.004
X4.0756 Y4.4806 Z0.0342 I-0.0031 J-0.004
X4.0817 Y4.4885 Z0.0336 I0.0031 J0.004
X4.0756 Y4.4806 Z0.0331 I-0.0031 J-0.004
X4.0817 Y4.4885 Z0.0325 I0.0031 J0.004
X4.0756 Y4.4806 Z0.032 I-0.0031 J-0.004
X4.0817 Y4.4885 Z0.0314 I0.0031 J0.004
X4.0756 Y4.4806 Z0.0309 I-0.0031 J-0.004
X4.0817 Y4.4885 Z0.0303 I0.0031 J0.004
X4.0756 Y4.4806 Z0.0298 I-0.0031 J-0.004
X4.0817 Y4.4885 Z0.0292 I0.0031 J0.004
X4.0756 Y4.4806 Z0.0287 I-0.0031 J-0.004
X4.0817 Y4.4885 Z0.0281 I0.0031 J0.004
X4.0756 Y4.4806 Z0.0276 I-0.0031 J-0.004
X4.0817 Y4.4885 Z0.027 I0.0031 J0.004
X4.0756 Y4.4806 Z0.0265 I-0.0031 J-0.004
X4.0817 Y4.4885 Z0.0259 I0.0031 J0.004
X4.0756 Y4.4806 Z0.0254 I-0.0031 J-0.004
X4.0817 Y4.4885 Z0.0249 I0.0031 J0.004
X4.0756 Y4.4806 Z0.0243 I-0.0031 J-0.004
X4.0817 Y4.4885 Z0.0238 I0.0031 J0.004
X4.0756 Y4.4806 Z0.0232 I-0.0031 J-0.004
X4.0817 Y4.4885 Z0.0227 I0.0031 J0.004
X4.0756 Y4.4806 Z0.0221 I-0.0031 J-0.004
X4.0817 Y4.4885 Z0.0216 I0.0031 J0.004
X4.0756 Y4.4806 Z0.021 I-0.0031 J-0.004
X4.0817 Y4.4885 Z0.0205 I0.0031 J0.004
X4.0756 Y4.4806 Z0.0199 I-0.0031 J-0.004
X4.0817 Y4.4885 Z0.0194 I0.0031 J0.004
X4.0756 Y4.4806 Z0.0188 I-0.0031 J-0.004
X4.0817 Y4.4885 Z0.0183 I0.0031 J0.004
X4.0756 Y4.4806 Z0.0177 I-0.0031 J-0.004
X4.0817 Y4.4885 Z0.0172 I0.0031 J0.004
X4.0756 Y4.4806 Z0.0166 I-0.0031 J-0.004
X4.0817 Y4.4885 Z0.0161 I0.0031 J0.004
X4.0756 Y4.4806 Z0.0155 I-0.0031 J-0.004
X4.0817 Y4.4885 Z0.015 I0.0031 J0.004
X4.0756 Y4.4806 Z0.0144 I-0.0031 J-0.004
X4.0817 Y4.4885 Z0.0139 I0.0031 J0.004
X4.0756 Y4.4806 Z0.0133 I-0.0031 J-0.004
X4.0817 Y4.4885 Z0.0128 I0.0031 J0.004
X4.0756 Y4.4806 Z0.0122 I-0.0031 J-0.004
X4.0817 Y4.4885 Z0.0117 I0.0031 J0.004
X4.0756 Y4.4806 Z0.0111 I-0.0031 J-0.004
X4.0817 Y4.4885 Z0.0106 I0.0031 J0.004
X4.0756 Y4.4806 Z0.01 I-0.0031 J-0.004
X4.0817 Y4.4885 Z0.0095 I0.0031 J0.004
X4.0756 Y4.4806 Z0.0089 I-0.0031 J-0.004
X4.0817 Y4.4885 Z0.0084 I0.0031 J0.004
X4.0756 Y4.4806 Z0.0078 I-0.0031 J-0.004
X4.0817 Y4.4885 Z0.0073 I0.0031 J0.004
X4.0756 Y4.4806 Z0.0067 I-0.0031 J-0.004
X4.0817 Y4.4885 Z0.0062 I0.0031 J0.004
X4.0756 Y4.4806 Z0.0057 I-0.0031 J-0.004
X4.0817 Y4.4885 Z0.0051 I0.0031 J0.004
X4.0756 Y4.4806 Z0.0046 I-0.0031 J-0.004
X4.0817 Y4.4885 Z0.004 I0.0031 J0.004
X4.0756 Y4.4806 Z0.0035 I-0.0031 J-0.004
X4.0817 Y4.4885 Z0.0029 I0.0031 J0.004
X4.0756 Y4.4806 Z0.0024 I-0.0031 J-0.004
X4.0817 Y4.4885 Z0.0018 I0.0031 J0.004
X4.0756 Y4.4806 Z0.0013 I-0.0031 J-0.004
X4.0817 Y4.4885 Z0.0007 I0.0031 J0.004
X4.0756 Y4.4806 Z0.0002 I-0.0031 J-0.004
X4.0817 Y4.4885 Z-0.0004 I0.0031 J0.004
X4.0756 Y4.4806 Z-0.0009 I-0.0031 J-0.004
X4.0817 Y4.4885 Z-0.0015 I0.0031 J0.004
X4.0756 Y4.4806 Z-0.002 I-0.0031 J-0.004
X4.0817 Y4.4885 Z-0.0026 I0.0031 J0.004
X4.0756 Y4.4806 Z-0.0031 I-0.0031 J-0.004
X4.0817 Y4.4885 Z-0.0037 I0.0031 J0.004
X4.0756 Y4.4806 Z-0.0042 I-0.0031 J-0.004
X4.0817 Y4.4885 Z-0.0048 I0.0031 J0.004
X4.0756 Y4.4806 Z-0.0053 I-0.0031 J-0.004
X4.0817 Y4.4885 Z-0.0059 I0.0031 J0.004
X4.0756 Y4.4806 Z-0.0064 I-0.0031 J-0.004
X4.0817 Y4.4885 Z-0.007 I0.0031 J0.004
X4.0756 Y4.4806 Z-0.0075 I-0.0031 J-0.004
X4.0817 Y4.4885 Z-0.0081 I0.0031 J0.004
X4.0756 Y4.4806 Z-0.0086 I-0.0031 J-0.004
X4.0817 Y4.4885 Z-0.0092 I0.0031 J0.004
X4.0756 Y4.4806 Z-0.0097 I-0.0031 J-0.004
X4.0817 Y4.4885 Z-0.0103 I0.0031 J0.004
X4.0756 Y4.4806 Z-0.0108 I-0.0031 J-0.004
X4.0817 Y4.4885 Z-0.0114 I0.0031 J0.004
X4.0756 Y4.4806 Z-0.0119 I-0.0031 J-0.004
X4.0817 Y4.4885 Z-0.0124 I0.0031 J0.004
X4.0756 Y4.4806 Z-0.013 I-0.0031 J-0.004
X4.0817 Y4.4885 Z-0.0135 I0.0031 J0.004
X4.0756 Y4.4806 Z-0.0141 I-0.0031 J-0.004
X4.0817 Y4.4885 Z-0.0146 I0.0031 J0.004
X4.0756 Y4.4806 Z-0.0152 I-0.0031 J-0.004
X4.0817 Y4.4885 Z-0.0157 I0.0031 J0.004
X4.0756 Y4.4806 Z-0.0163 I-0.0031 J-0.004
X4.0817 Y4.4885 Z-0.0168 I0.0031 J0.004
X4.0756 Y4.4806 Z-0.0174 I-0.0031 J-0.004
X4.0817 Y4.4885 Z-0.0179 I0.0031 J0.004
X4.0756 Y4.4806 Z-0.0185 I-0.0031 J-0.004
X4.0817 Y4.4885 Z-0.019 I0.0031 J0.004
X4.0756 Y4.4806 Z-0.0196 I-0.0031 J-0.004
X4.0835 Y4.4854 Z-0.02 I0.0031 J0.004
X4.0067 Y4.4719 I-0.0384 J-0.0068 F40.
X4.0835 Y4.4854 I0.0384 J0.0068
X4.0067 Y4.4719 Z-0.0243 I-0.0384 J-0.0068 F20.
X4.0835 Y4.4854 Z-0.0286 I0.0384 J0.0068
X4.0067 Y4.4719 Z-0.0328 I-0.0384 J-0.0068
X4.0835 Y4.4854 Z-0.0371 I0.0384 J0.0068
X4.0194 Y4.508 Z-0.04 I-0.0384 J-0.0068
X4.0709 Y4.4494 I0.0258 J-0.0293 F40.
X4.0194 Y4.508 I-0.0258 J0.0293
X4.0709 Y4.4494 Z-0.0443 I0.0258 J-0.0293 F20.
X4.0194 Y4.508 Z-0.0486 I-0.0258 J0.0293
X4.0709 Y4.4494 Z-0.0528 I0.0258 J-0.0293
X4.0194 Y4.508 Z-0.0571 I-0.0258 J0.0293
X4.0335 Y4.4414 Z-0.06 I0.0258 J-0.0293
X4.0568 Y4.5159 I0.0116 J0.0372 F40.
X4.0335 Y4.4414 I-0.0116 J-0.0372
X4.0568 Y4.5159 Z-0.0643 I0.0116 J0.0372 F20.
X4.0335 Y4.4414 Z-0.0686 I-0.0116 J-0.0372
X4.0568 Y4.5159 Z-0.0728 I0.0116 J0.0372
X4.0335 Y4.4414 Z-0.0771 I-0.0116 J-0.0372
X4.083 Y4.4881 Z-0.08 I0.0116 J0.0372
X4.0073 Y4.4692 I-0.0378 J-0.0094 F40.
X4.083 Y4.4881 I0.0378 J0.0094
X4.0073 Y4.4692 Z-0.0843 I-0.0378 J-0.0094 F20.
X4.083 Y4.4881 Z-0.0886 I0.0378 J0.0094
X4.0073 Y4.4692 Z-0.0928 I-0.0378 J-0.0094
X4.083 Y4.4881 Z-0.0971 I0.0378 J0.0094
X4.0174 Y4.5061 Z-0.1 I-0.0378 J-0.0094
X4.0729 Y4.4513 I0.0277 J-0.0274 F40.
X4.0174 Y4.5061 I-0.0277 J0.0274
X4.0729 Y4.4513 Z-0.1043 I0.0277 J-0.0274 F20.
X4.0174 Y4.5061 Z-0.1086 I-0.0277 J0.0274
X4.0729 Y4.4513 Z-0.1128 I0.0277 J-0.0274
X4.0174 Y4.5061 Z-0.1171 I-0.0277 J0.0274
X4.0362 Y4.4407 Z-0.12 I0.0277 J-0.0274
X4.0541 Y4.5166 I0.009 J0.038 F40.
X4.0362 Y4.4407 I-0.009 J-0.038
X4.0541 Y4.5166 Z-0.1243 I0.009 J0.038 F20.
X4.0362 Y4.4407 Z-0.1286 I-0.009 J-0.038
X4.0541 Y4.5166 Z-0.1328 I0.009 J0.038
X4.0362 Y4.4407 Z-0.1371 I-0.009 J-0.038
X4.0822 Y4.4908 Z-0.14 I0.009 J0.038
X4.008 Y4.4666 I-0.0371 J-0.0121 F40.
X4.0822 Y4.4908 I0.0371 J0.0121
X4.008 Y4.4666 Z-0.1443 I-0.0371 J-0.0121 F20.
X4.0822 Y4.4908 Z-0.1486 I0.0371 J0.0121
X4.008 Y4.4666 Z-0.1528 I-0.0371 J-0.0121
X4.0822 Y4.4908 Z-0.1571 I0.0371 J0.0121
X4.0155 Y4.5041 Z-0.16 I-0.0371 J-0.0121
X4.0747 Y4.4533 I0.0296 J-0.0254 F40.
X4.0155 Y4.5041 I-0.0296 J0.0254
X4.0747 Y4.4533 Z-0.1643 I0.0296 J-0.0254 F20.
X4.0155 Y4.5041 Z-0.1686 I-0.0296 J0.0254
X4.0747 Y4.4533 Z-0.1728 I0.0296 J-0.0254
X4.0155 Y4.5041 Z-0.1771 I-0.0296 J0.0254
X4.0388 Y4.4402 Z-0.18 I0.0296 J-0.0254
X4.0514 Y4.5172 I0.0063 J0.0385 F40.
X4.0388 Y4.4402 I-0.0063 J-0.0385
X4.0514 Y4.5172 Z-0.1843 I0.0063 J0.0385 F20.
X4.0388 Y4.4402 Z-0.1886 I-0.0063 J-0.0385
X4.0514 Y4.5172 Z-0.1928 I0.0063 J0.0385
X4.0388 Y4.4402 Z-0.1971 I-0.0063 J-0.0385
X4.0813 Y4.4933 Z-0.2 I0.0063 J0.0385
X4.009 Y4.464 I-0.0361 J-0.0146 F40.
X4.0813 Y4.4933 I0.0361 J0.0146
X4.009 Y4.464 Z-0.2043 I-0.0361 J-0.0146 F20.
X4.0813 Y4.4933 Z-0.2086 I0.0361 J0.0146
X4.009 Y4.464 Z-0.2128 I-0.0361 J-0.0146
X4.0813 Y4.4933 Z-0.2171 I0.0361 J0.0146
X4.0138 Y4.5019 Z-0.22 I-0.0361 J-0.0146
X4.0764 Y4.4554 I0.0313 J-0.0233 F40.
X4.0138 Y4.5019 I-0.0313 J0.0233
X4.0764 Y4.4554 Z-0.2243 I0.0313 J-0.0233 F20.
X4.0138 Y4.5019 Z-0.2286 I-0.0313 J0.0233
X4.0764 Y4.4554 Z-0.2328 I0.0313 J-0.0233
X4.0138 Y4.5019 Z-0.2371 I-0.0313 J0.0233
X4.0416 Y4.4398 Z-0.24 I0.0313 J-0.0233
X4.0487 Y4.5175 I0.0036 J0.0388 F40.
X4.0416 Y4.4398 I-0.0036 J-0.0388
X4.0487 Y4.5175 Z-0.2443 I0.0036 J0.0388 F20.
X4.0416 Y4.4398 Z-0.2486 I-0.0036 J-0.0388
X4.0487 Y4.5175 Z-0.2528 I0.0036 J0.0388
X4.0416 Y4.4398 Z-0.2571 I-0.0036 J-0.0388
X4.0802 Y4.4958 Z-0.26 I0.0036 J0.0388
X4.0101 Y4.4615 I-0.035 J-0.0171 F40.
X4.0802 Y4.4958 I0.035 J0.0171
X4.0101 Y4.4615 Z-0.2643 I-0.035 J-0.0171 F20.
X4.0802 Y4.4958 Z-0.2686 I0.035 J0.0171
X4.0101 Y4.4615 Z-0.2728 I-0.035 J-0.0171
X4.0802 Y4.4958 Z-0.2771 I0.035 J0.0171
X4.0123 Y4.4997 Z-0.28 I-0.035 J-0.0171
X4.078 Y4.4577 I0.0329 J-0.021 F40.
X4.0123 Y4.4997 I-0.0329 J0.021
X4.078 Y4.4577 Z-0.2843 I0.0329 J-0.021 F20.
X4.0123 Y4.4997 Z-0.2886 I-0.0329 J0.021
X4.0107 Y4.4603 Z-0.29 I0.0329 J-0.021
X4.0795 Y4.4971 I0.0344 J0.0184 F40.
X4.0107 Y4.4603 I-0.0344 J-0.0184
G1 X4.012 Y4.4584 Z-0.2896
X4.0136 Y4.4568 Z-0.2891
X4.0151 Y4.4557 Z-0.2878
X4.0168 Y4.4549 Z-0.2865
X4.0193 Y4.4542 Z-0.2827
X4.0202 Y4.4541 Z-0.2782
G0 Z0.2
X1.4449 Y4.8629
G1 Z0.1118 F40.
X1.4442 Y4.8626 Z0.1075 F20.
X1.4433 Y4.8619 Z0.1057
X1.4426 Y4.861 Z0.1039
X1.442 Y4.8599 Z0.1029
X1.4418 Y4.8587 Z0.102
Y4.8574 Z0.1011
X1.4423 Y4.856 Z0.1007
X1.4432 Y4.8548 Z0.1004
X1.4444 Y4.8539 Z0.1
G3 X1.4491 Y4.8627 Z0.0995 I0.0023 J0.0044
X1.4444 Y4.8539 Z0.0989 I-0.0023 J-0.0044
X1.4491 Y4.8627 Z0.0984 I0.0023 J0.0044
X1.4444 Y4.8539 Z0.0978 I-0.0023 J-0.0044
X1.4491 Y4.8627 Z0.0973 I0.0023 J0.0044
X1.4444 Y4.8539 Z0.0967 I-0.0023 J-0.0044
X1.4491 Y4.8627 Z0.0962 I0.0023 J0.0044
X1.4444 Y4.8539 Z0.0956 I-0.0023 J-0.0044
X1.4491 Y4.8627 Z0.0951 I0.0023 J0.0044
X1.4444 Y4.8539 Z0.0945 I-0.0023 J-0.0044
X1.4491 Y4.8627 Z0.094 I0.0023 J0.0044
X1.4444 Y4.8539 Z0.0934 I-0.0023 J-0.0044
X1.4491 Y4.8627 Z0.0929 I0.0023 J0.0044
X1.4444 Y4.8539 Z0.0923 I-0.0023 J-0.0044
X1.4491 Y4.8627 Z0.0918 I0.0023 J0.0044
X1.4444 Y4.8539 Z0.0912 I-0.0023 J-0.0044
X1.4491 Y4.8627 Z0.0907 I0.0023 J0.0044
X1.4444 Y4.8539 Z0.0901 I-0.0023 J-0.0044
X1.4491 Y4.8627 Z0.0896 I0.0023 J0.0044
X1.4444 Y4.8539 Z0.089 I-0.0023 J-0.0044
X1.4491 Y4.8627 Z0.0885 I0.0023 J0.0044
X1.4444 Y4.8539 Z0.0879 I-0.0023 J-0.0044
X1.4491 Y4.8627 Z0.0874 I0.0023 J0.0044
X1.4444 Y4.8539 Z0.0868 I-0.0023 J-0.0044
X1.4491 Y4.8627 Z0.0863 I0.0023 J0.0044
X1.4444 Y4.8539 Z0.0857 I-0.0023 J-0.0044
X1.4491 Y4.8627 Z0.0852 I0.0023 J0.0044
X1.4444 Y4.8539 Z0.0846 I-0.0023 J-0.0044
X1.4491 Y4.8627 Z0.0841 I0.0023 J0.0044
X1.4444 Y4.8539 Z0.0835 I-0.0023 J-0.0044
X1.4491 Y4.8627 Z0.083 I0.0023 J0.0044
X1.4444 Y4.8539 Z0.0824 I-0.0023 J-0.0044
X1.4491 Y4.8627 Z0.0819 I0.0023 J0.0044
X1.4444 Y4.8539 Z0.0813 I-0.0023 J-0.0044
X1.4491 Y4.8627 Z0.0808 I0.0023 J0.0044
X1.4444 Y4.8539 Z0.0803 I-0.0023 J-0.0044
X1.4491 Y4.8627 Z0.0797 I0.0023 J0.0044
X1.4444 Y4.8539 Z0.0792 I-0.0023 J-0.0044
X1.4491 Y4.8627 Z0.0786 I0.0023 J0.0044
X1.4444 Y4.8539 Z0.0781 I-0.0023 J-0.0044
X1.4491 Y4.8627 Z0.0775 I0.0023 J0.0044
X1.4444 Y4.8539 Z0.077 I-0.0023 J-0.0044
X1.4491 Y4.8627 Z0.0764 I0.0023 J0.0044
X1.4444 Y4.8539 Z0.0759 I-0.0023 J-0.0044
X1.4491 Y4.8627 Z0.0753 I0.0023 J0.0044
X1.4444 Y4.8539 Z0.0748 I-0.0023 J-0.0044
X1.4491 Y4.8627 Z0.0742 I0.0023 J0.0044
X1.4444 Y4.8539 Z0.0737 I-0.0023 J-0.0044
X1.4491 Y4.8627 Z0.0731 I0.0023 J0.0044
X1.4444 Y4.8539 Z0.0726 I-0.0023 J-0.0044
X1.4491 Y4.8627 Z0.072 I0.0023 J0.0044
X1.4444 Y4.8539 Z0.0715 I-0.0023 J-0.0044
X1.4491 Y4.8627 Z0.0709 I0.0023 J0.0044
X1.4444 Y4.8539 Z0.0704 I-0.0023 J-0.0044
X1.4491 Y4.8627 Z0.0698 I0.0023 J0.0044
X1.4444 Y4.8539 Z0.0693 I-0.0023 J-0.0044
X1.4491 Y4.8627 Z0.0687 I0.0023 J0.0044
X1.4444 Y4.8539 Z0.0682 I-0.0023 J-0.0044
X1.4491 Y4.8627 Z0.0676 I0.0023 J0.0044
X1.4444 Y4.8539 Z0.0671 I-0.0023 J-0.0044
X1.4491 Y4.8627 Z0.0665 I0.0023 J0.0044
X1.4444 Y4.8539 Z0.066 I-0.0023 J-0.0044
X1.4491 Y4.8627 Z0.0654 I0.0023 J0.0044
X1.4444 Y4.8539 Z0.0649 I-0.0023 J-0.0044
X1.4491 Y4.8627 Z0.0643 I0.0023 J0.0044
X1.4444 Y4.8539 Z0.0638 I-0.0023 J-0.0044
X1.4491 Y4.8627 Z0.0632 I0.0023 J0.0044
X1.4444 Y4.8539 Z0.0627 I-0.0023 J-0.0044
X1.4491 Y4.8627 Z0.0622 I0.0023 J0.0044
X1.4444 Y4.8539 Z0.0616 I-0.0023 J-0.0044
X1.4491 Y4.8627 Z0.0611 I0.0023 J0.0044
X1.4444 Y4.8539 Z0.0605 I-0.0023 J-0.0044
X1.4491 Y4.8627 Z0.06 I0.0023 J0.0044
X1.4444 Y4.8539 Z0.0594 I-0.0023 J-0.0044
X1.4491 Y4.8627 Z0.0589 I0.0023 J0.0044
X1.4444 Y4.8539 Z0.0583 I-0.0023 J-0.0044
X1.4491 Y4.8627 Z0.0578 I0.0023 J0.0044
X1.4444 Y4.8539 Z0.0572 I-0.0023 J-0.0044
X1.4491 Y4.8627 Z0.0567 I0.0023 J0.0044
X1.4444 Y4.8539 Z0.0561 I-0.0023 J-0.0044
X1.4491 Y4.8627 Z0.0556 I0.0023 J0.0044
X1.4444 Y4.8539 Z0.055 I-0.0023 J-0.0044
X1.4491 Y4.8627 Z0.0545 I0.0023 J0.0044
X1.4444 Y4.8539 Z0.0539 I-0.0023 J-0.0044
X1.4491 Y4.8627 Z0.0534 I0.0023 J0.0044
X1.4444 Y4.8539 Z0.0528 I-0.0023 J-0.0044
X1.4491 Y4.8627 Z0.0523 I0.0023 J0.0044
X1.4444 Y4.8539 Z0.0517 I-0.0023 J-0.0044
X1.4491 Y4.8627 Z0.0512 I0.0023 J0.0044
X1.4444 Y4.8539 Z0.0506 I-0.0023 J-0.0044
X1.4491 Y4.8627 Z0.0501 I0.0023 J0.0044
X1.4444 Y4.8539 Z0.0495 I-0.0023 J-0.0044
X1.4491 Y4.8627 Z0.049 I0.0023 J0.0044
X1.4444 Y4.8539 Z0.0484 I-0.0023 J-0.0044
X1.4491 Y4.8627 Z0.0479 I0.0023 J0.0044
X1.4444 Y4.8539 Z0.0473 I-0.0023 J-0.0044
X1.4491 Y4.8627 Z0.0468 I0.0023 J0.0044
X1.4444 Y4.8539 Z0.0462 I-0.0023 J-0.0044
X1.4491 Y4.8627 Z0.0457 I0.0023 J0.0044
X1.4444 Y4.8539 Z0.0451 I-0.0023 J-0.0044
X1.4491 Y4.8627 Z0.0446 I0.0023 J0.0044
X1.4444 Y4.8539 Z0.044 I-0.0023 J-0.0044
X1.4491 Y4.8627 Z0.0435 I0.0023 J0.0044
X1.4444 Y4.8539 Z0.043 I-0.0023 J-0.0044
X1.4491 Y4.8627 Z0.0424 I0.0023 J0.0044
X1.4444 Y4.8539 Z0.0419 I-0.0023 J-0.0044
X1.4491 Y4.8627 Z0.0413 I0.0023 J0.0044
X1.4444 Y4.8539 Z0.0408 I-0.0023 J-0.0044
X1.4491 Y4.8627 Z0.0402 I0.0023 J0.0044
X1.4444 Y4.8539 Z0.0397 I-0.0023 J-0.0044
X1.4491 Y4.8627 Z0.0391 I0.0023 J0.0044
X1.4444 Y4.8539 Z0.0386 I-0.0023 J-0.0044
X1.4491 Y4.8627 Z0.038 I0.0023 J0.0044
X1.4444 Y4.8539 Z0.0375 I-0.0023 J-0.0044
X1.4491 Y4.8627 Z0.0369 I0.0023 J0.0044
X1.4444 Y4.8539 Z0.0364 I-0.0023 J-0.0044
X1.4491 Y4.8627 Z0.0358 I0.0023 J0.0044
X1.4444 Y4.8539 Z0.0353 I-0.0023 J-0.0044
X1.4491 Y4.8627 Z0.0347 I0.0023 J0.0044
X1.4444 Y4.8539 Z0.0342 I-0.0023 J-0.0044
X1.4491 Y4.8627 Z0.0336 I0.0023 J0.0044
X1.4444 Y4.8539 Z0.0331 I-0.0023 J-0.0044
X1.4491 Y4.8627 Z0.0325 I0.0023 J0.0044
X1.4444 Y4.8539 Z0.032 I-0.0023 J-0.0044
X1.4491 Y4.8627 Z0.0314 I0.0023 J0.0044
X1.4444 Y4.8539 Z0.0309 I-0.0023 J-0.0044
X1.4491 Y4.8627 Z0.0303 I0.0023 J0.0044
X1.4444 Y4.8539 Z0.0298 I-0.0023 J-0.0044
X1.4491 Y4.8627 Z0.0292 I0.0023 J0.0044
X1.4444 Y4.8539 Z0.0287 I-0.0023 J-0.0044
X1.4491 Y4.8627 Z0.0281 I0.0023 J0.0044
X1.4444 Y4.8539 Z0.0276 I-0.0023 J-0.0044
X1.4491 Y4.8627 Z0.027 I0.0023 J0.0044
X1.4444 Y4.8539 Z0.0265 I-0.0023 J-0.0044
X1.4491 Y4.8627 Z0.0259 I0.0023 J0.0044
X1.4444 Y4.8539 Z0.0254 I-0.0023 J-0.0044
X1.4491 Y4.8627 Z0.0249 I0.0023 J0.0044
X1.4444 Y4.8539 Z0.0243 I-0.0023 J-0.0044
X1.4491 Y4.8627 Z0.0238 I0.0023 J0.0044
X1.4444 Y4.8539 Z0.0232 I-0.0023 J-0.0044
X1.4491 Y4.8627 Z0.0227 I0.0023 J0.0044
X1.4444 Y4.8539 Z0.0221 I-0.0023 J-0.0044
X1.4491 Y4.8627 Z0.0216 I0.0023 J0.0044
X1.4444 Y4.8539 Z0.021 I-0.0023 J-0.0044
X1.4491 Y4.8627 Z0.0205 I0.0023 J0.0044
X1.4444 Y4.8539 Z0.0199 I-0.0023 J-0.0044
X1.4491 Y4.8627 Z0.0194 I0.0023 J0.0044
X1.4444 Y4.8539 Z0.0188 I-0.0023 J-0.0044
X1.4491 Y4.8627 Z0.0183 I0.0023 J0.0044
X1.4444 Y4.8539 Z0.0177 I-0.0023 J-0.0044
X1.4491 Y4.8627 Z0.0172 I0.0023 J0.0044
X1.4444 Y4.8539 Z0.0166 I-0.0023 J-0.0044
X1.4491 Y4.8627 Z0.0161 I0.0023 J0.0044
X1.4444 Y4.8539 Z0.0155 I-0.0023 J-0.0044
X1.4491 Y4.8627 Z0.015 I0.0023 J0.0044
X1.4444 Y4.8539 Z0.0144 I-0.0023 J-0.0044
X1.4491 Y4.8627 Z0.0139 I0.0023 J0.0044
X1.4444 Y4.8539 Z0.0133 I-0.0023 J-0.0044
X1.4491 Y4.8627 Z0.0128 I0.0023 J0.0044
X1.4444 Y4.8539 Z0.0122 I-0.0023 J-0.0044
X1.4491 Y4.8627 Z0.0117 I0.0023 J0.0044
X1.4444 Y4.8539 Z0.0111 I-0.0023 J-0.0044
X1.4491 Y4.8627 Z0.0106 I0.0023 J0.0044
X1.4444 Y4.8539 Z0.01 I-0.0023 J-0.0044
X1.4491 Y4.8627 Z0.0095 I0.0023 J0.0044
X1.4444 Y4.8539 Z0.0089 I-0.0023 J-0.0044
X1.4491 Y4.8627 Z0.0084 I0.0023 J0.0044
X1.4444 Y4.8539 Z0.0078 I-0.0023 J-0.0044
X1.4491 Y4.8627 Z0.0073 I0.0023 J0.0044
X1.4444 Y4.8539 Z0.0067 I-0.0023 J-0.0044
X1.4491 Y4.8627 Z0.0062 I0.0023 J0.0044
X1.4444 Y4.8539 Z0.0057 I-0.0023 J-0.0044
X1.4491 Y4.8627 Z0.0051 I0.0023 J0.0044
X1.4444 Y4.8539 Z0.0046 I-0.0023 J-0.0044
X1.4491 Y4.8627 Z0.004 I0.0023 J0.0044
X1.4444 Y4.8539 Z0.0035 I-0.0023 J-0.0044
X1.4491 Y4.8627 Z0.0029 I0.0023 J0.0044
X1.4444 Y4.8539 Z0.0024 I-0.0023 J-0.0044
X1.4491 Y4.8627 Z0.0018 I0.0023 J0.0044
X1.4444 Y4.8539 Z0.0013 I-0.0023 J-0.0044
X1.4491 Y4.8627 Z0.0007 I0.0023 J0.0044
X1.4444 Y4.8539 Z0.0002 I-0.0023 J-0.0044
X1.4491 Y4.8627 Z-0.0004 I0.0023 J0.0044
X1.4444 Y4.8539 Z-0.0009 I-0.0023 J-0.0044
X1.4491 Y4.8627 Z-0.0015 I0.0023 J0.0044
X1.4444 Y4.8539 Z-0.002 I-0.0023 J-0.0044
X1.4491 Y4.8627 Z-0.0026 I0.0023 J0.0044
X1.4444 Y4.8539 Z-0.0031 I-0.0023 J-0.0044
X1.4491 Y4.8627 Z-0.0037 I0.0023 J0.0044
X1.4444 Y4.8539 Z-0.0042 I-0.0023 J-0.0044
X1.4491 Y4.8627 Z-0.0048 I0.0023 J0.0044
X1.4444 Y4.8539 Z-0.0053 I-0.0023 J-0.0044
X1.4491 Y4.8627 Z-0.0059 I0.0023 J0.0044
X1.4444 Y4.8539 Z-0.0064 I-0.0023 J-0.0044
X1.4491 Y4.8627 Z-0.007 I0.0023 J0.0044
X1.4444 Y4.8539 Z-0.0075 I-0.0023 J-0.0044
X1.4491 Y4.8627 Z-0.0081 I0.0023 J0.0044
X1.4444 Y4.8539 Z-0.0086 I-0.0023 J-0.0044
X1.4491 Y4.8627 Z-0.0092 I0.0023 J0.0044
X1.4444 Y4.8539 Z-0.0097 I-0.0023 J-0.0044
X1.4491 Y4.8627 Z-0.0103 I0.0023 J0.0044
X1.4444 Y4.8539 Z-0.0108 I-0.0023 J-0.0044
X1.4491 Y4.8627 Z-0.0114 I0.0023 J0.0044
X1.4444 Y4.8539 Z-0.0119 I-0.0023 J-0.0044
X1.4491 Y4.8627 Z-0.0124 I0.0023 J0.0044
X1.4444 Y4.8539 Z-0.013 I-0.0023 J-0.0044
X1.4491 Y4.8627 Z-0.0135 I0.0023 J0.0044
X1.4444 Y4.8539 Z-0.0141 I-0.0023 J-0.0044
X1.4491 Y4.8627 Z-0.0146 I0.0023 J0.0044
X1.4444 Y4.8539 Z-0.0152 I-0.0023 J-0.0044
X1.4491 Y4.8627 Z-0.0157 I0.0023 J0.0044
X1.4444 Y4.8539 Z-0.0163 I-0.0023 J-0.0044
X1.4491 Y4.8627 Z-0.0168 I0.0023 J0.0044
X1.4444 Y4.8539 Z-0.0174 I-0.0023 J-0.0044
X1.4491 Y4.8627 Z-0.0179 I0.0023 J0.0044
X1.4444 Y4.8539 Z-0.0185 I-0.0023 J-0.0044
X1.4491 Y4.8627 Z-0.019 I0.0023 J0.0044
X1.4444 Y4.8539 Z-0.0196 I-0.0023 J-0.0044
X1.4515 Y4.86 Z-0.02 I0.0023 J0.0044
X1.3782 Y4.8333 I-0.0366 J-0.0133 F40.
X1.4515 Y4.86 I0.0366 J0.0133
X1.3782 Y4.8333 Z-0.0243 I-0.0366 J-0.0133 F20.
X1.4515 Y4.86 Z-0.0286 I0.0366 J0.0133
X1.3782 Y4.8333 Z-0.0328 I-0.0366 J-0.0133
X1.4515 Y4.86 Z-0.0371 I0.0366 J0.0133
X1.3843 Y4.871 Z-0.04 I-0.0366 J-0.0133
X1.4453 Y4.8224 I0.0305 J-0.0243 F40.
X1.3843 Y4.871 I-0.0305 J0.0243
X1.4453 Y4.8224 Z-0.0443 I0.0305 J-0.0243 F20.
X1.3843 Y4.871 Z-0.0486 I-0.0305 J0.0243
X1.4453 Y4.8224 Z-0.0528 I0.0305 J-0.0243
X1.3843 Y4.871 Z-0.0571 I-0.0305 J0.0243
X1.41 Y4.808 Z-0.06 I0.0305 J-0.0243
X1.4196 Y4.8854 I0.0048 J0.0387 F40.
X1.41 Y4.808 I-0.0048 J-0.0387
X1.4196 Y4.8854 Z-0.0643 I0.0048 J0.0387 F20.
X1.41 Y4.808 Z-0.0686 I-0.0048 J-0.0387
X1.4196 Y4.8854 Z-0.0728 I0.0048 J0.0387
X1.41 Y4.808 Z-0.0771 I-0.0048 J-0.0387
X1.4503 Y4.8627 Z-0.08 I0.0048 J0.0387
X1.3793 Y4.8306 I-0.0355 J-0.0161 F40.
X1.4503 Y4.8627 I0.0355 J0.0161
X1.3793 Y4.8306 Z-0.0843 I-0.0355 J-0.0161 F20.
X1.4503 Y4.8627 Z-0.0886 I0.0355 J0.0161
X1.3793 Y4.8306 Z-0.0928 I-0.0355 J-0.0161
X1.4503 Y4.8627 Z-0.0971 I0.0355 J0.0161
X1.3825 Y4.8686 Z-0.1 I-0.0355 J-0.0161
X1.4471 Y4.8248 I0.0323 J-0.0219 F40.
X1.3825 Y4.8686 I-0.0323 J0.0219
X1.4471 Y4.8248 Z-0.1043 I0.0323 J-0.0219 F20.
X1.3825 Y4.8686 Z-0.1086 I-0.0323 J0.0219
X1.4471 Y4.8248 Z-0.1128 I0.0323 J-0.0219
X1.3825 Y4.8686 Z-0.1171 I-0.0323 J0.0219
X1.413 Y4.8077 Z-0.12 I0.0323 J-0.0219
X1.4167 Y4.8856 I0.0018 J0.039 F40.
X1.413 Y4.8077 I-0.0018 J-0.039
X1.4167 Y4.8856 Z-0.1243 I0.0018 J0.039 F20.
X1.413 Y4.8077 Z-0.1286 I-0.0018 J-0.039
X1.4167 Y4.8856 Z-0.1328 I0.0018 J0.039
X1.413 Y4.8077 Z-0.1371 I-0.0018 J-0.039
X1.449 Y4.8654 Z-0.14 I0.0018 J0.039
X1.3806 Y4.8279 I-0.0342 J-0.0188 F40.
X1.449 Y4.8654 I0.0342 J0.0188
X1.3806 Y4.8279 Z-0.1443 I-0.0342 J-0.0188 F20.
X1.449 Y4.8654 Z-0.1486 I0.0342 J0.0188
X1.3806 Y4.8279 Z-0.1528 I-0.0342 J-0.0188
X1.449 Y4.8654 Z-0.1571 I0.0342 J0.0188
X1.381 Y4.866 Z-0.16 I-0.0342 J-0.0188
X1.4487 Y4.8273 I0.0338 J-0.0194 F40.
X1.381 Y4.866 I-0.0338 J0.0194
X1.4487 Y4.8273 Z-0.1643 I0.0338 J-0.0194 F20.
X1.381 Y4.866 Z-0.1686 I-0.0338 J0.0194
X1.4487 Y4.8273 Z-0.1728 I0.0338 J-0.0194
X1.381 Y4.866 Z-0.1771 I-0.0338 J0.0194
X1.4159 Y4.8077 Z-0.18 I0.0338 J-0.0194
X1.4137 Y4.8856 I-0.0011 J0.039 F40.
X1.4159 Y4.8077 I0.0011 J-0.039
X1.4137 Y4.8856 Z-0.1843 I-0.0011 J0.039 F20.
X1.4159 Y4.8077 Z-0.1886 I0.0011 J-0.039
X1.4137 Y4.8856 Z-0.1928 I-0.0011 J0.039
X1.4159 Y4.8077 Z-0.1971 I0.0011 J-0.039
X1.4475 Y4.868 Z-0.2 I-0.0011 J0.039
X1.3821 Y4.8253 I-0.0327 J-0.0213 F40.
X1.4475 Y4.868 I0.0327 J0.0213
X1.3821 Y4.8253 Z-0.2043 I-0.0327 J-0.0213 F20.
X1.4475 Y4.868 Z-0.2086 I0.0327 J0.0213
X1.3821 Y4.8253 Z-0.2128 I-0.0327 J-0.0213
X1.4475 Y4.868 Z-0.2171 I0.0327 J0.0213
X1.3796 Y4.8634 Z-0.22 I-0.0327 J-0.0213
X1.45 Y4.8299 I0.0352 J-0.0167 F40.
X1.3796 Y4.8634 I-0.0352 J0.0167
X1.45 Y4.8299 Z-0.2243 I0.0352 J-0.0167 F20.
X1.3796 Y4.8634 Z-0.2286 I-0.0352 J0.0167
X1.45 Y4.8299 Z-0.2328 I0.0352 J-0.0167
X1.3796 Y4.8634 Z-0.2371 I-0.0352 J0.0167
X1.4189 Y4.8079 Z-0.24 I0.0352 J-0.0167
X1.4107 Y4.8854 I-0.0041 J0.0388 F40.
X1.4189 Y4.8079 I0.0041 J-0.0388
X1.4107 Y4.8854 Z-0.2443 I-0.0041 J0.0388 F20.
X1.4189 Y4.8079 Z-0.2486 I0.0041 J-0.0388
X1.4107 Y4.8854 Z-0.2528 I-0.0041 J0.0388
X1.4189 Y4.8079 Z-0.2571 I0.0041 J-0.0388
X1.4458 Y4.8704 Z-0.26 I-0.0041 J0.0388
X1.3839 Y4.8229 I-0.0309 J-0.0237 F40.
X1.4458 Y4.8704 I0.0309 J0.0237
X1.3839 Y4.8229 Z-0.2643 I-0.0309 J-0.0237 F20.
X1.4458 Y4.8704 Z-0.2686 I0.0309 J0.0237
X1.3839 Y4.8229 Z-0.2728 I-0.0309 J-0.0237
X1.4458 Y4.8704 Z-0.2771 I0.0309 J0.0237
X1.3784 Y4.8607 Z-0.28 I-0.0309 J-0.0237
X1.4512 Y4.8326 I0.0364 J-0.014 F40.
X1.3784 Y4.8607 I-0.0364 J0.014
X1.4512 Y4.8326 Z-0.2843 I0.0364 J-0.014 F20.
X1.3784 Y4.8607 Z-0.2886 I-0.0364 J0.014
X1.3848 Y4.8218 Z-0.29 I0.0364 J-0.014
X1.4448 Y4.8715 I0.03 J0.0249 F40.
X1.3848 Y4.8218 I-0.03 J-0.0249
G1 X1.3864 Y4.8202 Z-0.2896
X1.3883 Y4.8189 Z-0.2891
X1.39 Y4.8181 Z-0.2878
X1.3919 Y4.8177 Z-0.2865
X1.3944 Y4.8175 Z-0.2827
X1.3953 Y4.8176 Z-0.2782
G0 Z0.2
X1.0598 Y3.9217
G1 Z0.1118 F40.
X1.0594 Y3.9224 Z0.1075 F20.
X1.0585 Y3.9231 Z0.1057
X1.0576 Y3.9237 Z0.1039
X1.0564 Y3.924 Z0.1029
X1.0551 Y3.9241 Z0.102
X1.0539 Y3.9238 Z0.1011
X1.0526 Y3.9231 Z0.1007
X1.0515 Y3.922 Z0.1004
X1.0508 Y3.9206 Z0.1
G3 X1.0604 Y3.9176 Z0.0995 I0.0048 J-0.0015
X1.0508 Y3.9206 Z0.0989 I-0.0048 J0.0015
X1.0604 Y3.9176 Z0.0984 I0.0048 J-0.0015
X1.0508 Y3.9206 Z0.0978 I-0.0048 J0.0015
X1.0604 Y3.9176 Z0.0973 I0.0048 J-0.0015
X1.0508 Y3.9206 Z0.0967 I-0.0048 J0.0015
X1.0604 Y3.9176 Z0.0962 I0.0048 J-0.0015
X1.0508 Y3.9206 Z0.0956 I-0.0048 J0.0015
X1.0604 Y3.9176 Z0.0951 I0.0048 J-0.0015
X1.0508 Y3.9206 Z0.0945 I-0.0048 J0.0015
X1.0604 Y3.9176 Z0.094 I0.0048 J-0.0015
X1.0508 Y3.9206 Z0.0934 I-0.0048 J0.0015
X1.0604 Y3.9176 Z0.0929 I0.0048 J-0.0015
X1.0508 Y3.9206 Z0.0923 I-0.0048 J0.0015
X1.0604 Y3.9176 Z0.0918 I0.0048 J-0.0015
X1.0508 Y3.9206 Z0.0912 I-0.0048 J0.0015
X1.0604 Y3.9176 Z0.0907 I0.0048 J-0.0015
X1.0508 Y3.9206 Z0.0901 I-0.0048 J0.0015
X1.0604 Y3.9176 Z0.0896 I0.0048 J-0.0015
X1.0508 Y3.9206 Z0.089 I-0.0048 J0.0015
X1.0604 Y3.9176 Z0.0885 I0.0048 J-0.0015
X1.0508 Y3.9206 Z0.0879 I-0.0048 J0.0015
X1.0604 Y3.9176 Z0.0874 I0.0048 J-0.0015
X1.0508 Y3.9206 Z0.0868 I-0.0048 J0.0015
X1.0604 Y3.9176 Z0.0863 I0.0048 J-0.0015
X1.0508 Y3.9206 Z0.0857 I-0.0048 J0.0015
X1.0604 Y3.9176 Z0.0852 I0.0048 J-0.0015
X1.0508 Y3.9206 Z0.0846 I-0.0048 J0.0015
X1.0604 Y3.9176 Z0.0841 I0.0048 J-0.0015
X1.0508 Y3.9206 Z0.0835 I-0.0048 J0.0015
X1.0604 Y3.9176 Z0.083 I0.0048 J-0.0015
X1.0508 Y3.9206 Z0.0824 I-0.0048 J0.0015
X1.0604 Y3.9176 Z0.0819 I0.0048 J-0.0015
X1.0508 Y3.9206 Z0.0813 I-0.0048 J0.0015
X1.0604 Y3.9176 Z0.0808 I0.0048 J-0.0015
X1.0508 Y3.9206 Z0.0803 I-0.0048 J0.0015
X1.0604 Y3.9176 Z0.0797 I0.0048 J-0.0015
X1.0508 Y3.9206 Z0.0792 I-0.0048 J0.0015
X1.0604 Y3.9176 Z0.0786 I0.0048 J-0.0015
X1.0508 Y3.9206 Z0.0781 I-0.0048 J0.0015
X1.0604 Y3.9176 Z0.0775 I0.0048 J-0.0015
X1.0508 Y3.9206 Z0.077 I-0.0048 J0.0015
X1.0604 Y3.9176 Z0.0764 I0.0048 J-0.0015
X1.0508 Y3.9206 Z0.0759 I-0.0048 J0.0015
X1.0604 Y3.9176 Z0.0753 I0.0048 J-0.0015
X1.0508 Y3.9206 Z0.0748 I-0.0048 J0.0015
X1.0604 Y3.9176 Z0.0742 I0.0048 J-0.0015
X1.0508 Y3.9206 Z0.0737 I-0.0048 J0.0015
X1.0604 Y3.9176 Z0.0731 I0.0048 J-0.0015
X1.0508 Y3.9206 Z0.0726 I-0.0048 J0.0015
X1.0604 Y3.9176 Z0.072 I0.0048 J-0.0015
X1.0508 Y3.9206 Z0.0715 I-0.0048 J0.0015
X1.0604 Y3.9176 Z0.0709 I0.0048 J-0.0015
X1.0508 Y3.9206 Z0.0704 I-0.0048 J0.0015
X1.0604 Y3.9176 Z0.0698 I0.0048 J-0.0015
X1.0508 Y3.9206 Z0.0693 I-0.0048 J0.0015
X1.0604 Y3.9176 Z0.0687 I0.0048 J-0.0015
X1.0508 Y3.9206 Z0.0682 I-0.0048 J0.0015
X1.0604 Y3.9176 Z0.0676 I0.0048 J-0.0015
X1.0508 Y3.9206 Z0.0671 I-0.0048 J0.0015
X1.0604 Y3.9176 Z0.0665 I0.0048 J-0.0015
X1.0508 Y3.9206 Z0.066 I-0.0048 J0.0015
X1.0604 Y3.9176 Z0.0654 I0.0048 J-0.0015
X1.0508 Y3.9206 Z0.0649 I-0.0048 J0.0015
X1.0604 Y3.9176 Z0.0643 I0.0048 J-0.0015
X1.0508 Y3.9206 Z0.0638 I-0.0048 J0.0015
X1.0604 Y3.9176 Z0.0632 I0.0048 J-0.0015
X1.0508 Y3.9206 Z0.0627 I-0.0048 J0.0015
X1.0604 Y3.9176 Z0.0622 I0.0048 J-0.0015
X1.0508 Y3.9206 Z0.0616 I-0.0048 J0.0015
X1.0604 Y3.9176 Z0.0611 I0.0048 J-0.0015
X1.0508 Y3.9206 Z0.0605 I-0.0048 J0.0015
X1.0604 Y3.9176 Z0.06 I0.0048 J-0.0015
X1.0508 Y3.9206 Z0.0594 I-0.0048 J0.0015
X1.0604 Y3.9176 Z0.0589 I0.0048 J-0.0015
X1.0508 Y3.9206 Z0.0583 I-0.0048 J0.0015
X1.0604 Y3.9176 Z0.0578 I0.0048 J-0.0015
X1.0508 Y3.9206 Z0.0572 I-0.0048 J0.0015
X1.0604 Y3.9176 Z0.0567 I0.0048 J-0.0015
X1.0508 Y3.9206 Z0.0561 I-0.0048 J0.0015
X1.0604 Y3.9176 Z0.0556 I0.0048 J-0.0015
X1.0508 Y3.9206 Z0.055 I-0.0048 J0.0015
X1.0604 Y3.9176 Z0.0545 I0.0048 J-0.0015
X1.0508 Y3.9206 Z0.0539 I-0.0048 J0.0015
X1.0604 Y3.9176 Z0.0534 I0.0048 J-0.0015
X1.0508 Y3.9206 Z0.0528 I-0.0048 J0.0015
X1.0604 Y3.9176 Z0.0523 I0.0048 J-0.0015
X1.0508 Y3.9206 Z0.0517 I-0.0048 J0.0015
X1.0604 Y3.9176 Z0.0512 I0.0048 J-0.0015
X1.0508 Y3.9206 Z0.0506 I-0.0048 J0.0015
X1.0604 Y3.9176 Z0.0501 I0.0048 J-0.0015
X1.0508 Y3.9206 Z0.0495 I-0.0048 J0.0015
X1.0604 Y3.9176 Z0.049 I0.0048 J-0.0015
X1.0508 Y3.9206 Z0.0484 I-0.0048 J0.0015
X1.0604 Y3.9176 Z0.0479 I0.0048 J-0.0015
X1.0508 Y3.9206 Z0.0473 I-0.0048 J0.0015
X1.0604 Y3.9176 Z0.0468 I0.0048 J-0.0015
X1.0508 Y3.9206 Z0.0462 I-0.0048 J0.0015
X1.0604 Y3.9176 Z0.0457 I0.0048 J-0.0015
X1.0508 Y3.9206 Z0.0451 I-0.0048 J0.0015
X1.0604 Y3.9176 Z0.0446 I0.0048 J-0.0015
X1.0508 Y3.9206 Z0.044 I-0.0048 J0.0015
X1.0604 Y3.9176 Z0.0435 I0.0048 J-0.0015
X1.0508 Y3.9206 Z0.043 I-0.0048 J0.0015
X1.0604 Y3.9176 Z0.0424 I0.0048 J-0.0015
X1.0508 Y3.9206 Z0.0419 I-0.0048 J0.0015
X1.0604 Y3.9176 Z0.0413 I0.0048 J-0.0015
X1.0508 Y3.9206 Z0.0408 I-0.0048 J0.0015
X1.0604 Y3.9176 Z0.0402 I0.0048 J-0.0015
X1.0508 Y3.9206 Z0.0397 I-0.0048 J0.0015
X1.0604 Y3.9176 Z0.0391 I0.0048 J-0.0015
X1.0508 Y3.9206 Z0.0386 I-0.0048 J0.0015
X1.0604 Y3.9176 Z0.038 I0.0048 J-0.0015
X1.0508 Y3.9206 Z0.0375 I-0.0048 J0.0015
X1.0604 Y3.9176 Z0.0369 I0.0048 J-0.0015
X1.0508 Y3.9206 Z0.0364 I-0.0048 J0.0015
X1.0604 Y3.9176 Z0.0358 I0.0048 J-0.0015
X1.0508 Y3.9206 Z0.0353 I-0.0048 J0.0015
X1.0604 Y3.9176 Z0.0347 I0.0048 J-0.0015
X1.0508 Y3.9206 Z0.0342 I-0.0048 J0.0015
X1.0604 Y3.9176 Z0.0336 I0.0048 J-0.0015
X1.0508 Y3.9206 Z0.0331 I-0.0048 J0.0015
X1.0604 Y3.9176 Z0.0325 I0.0048 J-0.0015
X1.0508 Y3.9206 Z0.032 I-0.0048 J0.0015
X1.0604 Y3.9176 Z0.0314 I0.0048 J-0.0015
X1.0508 Y3.9206 Z0.0309 I-0.0048 J0.0015
X1.0604 Y3.9176 Z0.0303 I0.0048 J-0.0015
X1.0508 Y3.9206 Z0.0298 I-0.0048 J0.0015
X1.0604 Y3.9176 Z0.0292 I0.0048 J-0.0015
X1.0508 Y3.9206 Z0.0287 I-0.0048 J0.0015
X1.0604 Y3.9176 Z0.0281 I0.0048 J-0.0015
X1.0508 Y3.9206 Z0.0276 I-0.0048 J0.0015
X1.0604 Y3.9176 Z0.027 I0.0048 J-0.0015
X1.0508 Y3.9206 Z0.0265 I-0.0048 J0.0015
X1.0604 Y3.9176 Z0.0259 I0.0048 J-0.0015
X1.0508 Y3.9206 Z0.0254 I-0.0048 J0.0015
X1.0604 Y3.9176 Z0.0249 I0.0048 J-0.0015
X1.0508 Y3.9206 Z0.0243 I-0.0048 J0.0015
X1.0604 Y3.9176 Z0.0238 I0.0048 J-0.0015
X1.0508 Y3.9206 Z0.0232 I-0.0048 J0.0015
X1.0604 Y3.9176 Z0.0227 I0.0048 J-0.0015
X1.0508 Y3.9206 Z0.0221 I-0.0048 J0.0015
X1.0604 Y3.9176 Z0.0216 I0.0048 J-0.0015
X1.0508 Y3.9206 Z0.021 I-0.0048 J0.0015
X1.0604 Y3.9176 Z0.0205 I0.0048 J-0.0015
X1.0508 Y3.9206 Z0.0199 I-0.0048 J0.0015
X1.0604 Y3.9176 Z0.0194 I0.0048 J-0.0015
X1.0508 Y3.9206 Z0.0188 I-0.0048 J0.0015
X1.0604 Y3.9176 Z0.0183 I0.0048 J-0.0015
X1.0508 Y3.9206 Z0.0177 I-0.0048 J0.0015
X1.0604 Y3.9176 Z0.0172 I0.0048 J-0.0015
X1.0508 Y3.9206 Z0.0166 I-0.0048 J0.0015
X1.0604 Y3.9176 Z0.0161 I0.0048 J-0.0015
X1.0508 Y3.9206 Z0.0155 I-0.0048 J0.0015
X1.0604 Y3.9176 Z0.015 I0.0048 J-0.0015
X1.0508 Y3.9206 Z0.0144 I-0.0048 J0.0015
X1.0604 Y3.9176 Z0.0139 I0.0048 J-0.0015
X1.0508 Y3.9206 Z0.0133 I-0.0048 J0.0015
X1.0604 Y3.9176 Z0.0128 I0.0048 J-0.0015
X1.0508 Y3.9206 Z0.0122 I-0.0048 J0.0015
X1.0604 Y3.9176 Z0.0117 I0.0048 J-0.0015
X1.0508 Y3.9206 Z0.0111 I-0.0048 J0.0015
X1.0604 Y3.9176 Z0.0106 I0.0048 J-0.0015
X1.0508 Y3.9206 Z0.01 I-0.0048 J0.0015
X1.0604 Y3.9176 Z0.0095 I0.0048 J-0.0015
X1.0508 Y3.9206 Z0.0089 I-0.0048 J0.0015
X1.0604 Y3.9176 Z0.0084 I0.0048 J-0.0015
X1.0508 Y3.9206 Z0.0078 I-0.0048 J0.0015
X1.0604 Y3.9176 Z0.0073 I0.0048 J-0.0015
X1.0508 Y3.9206 Z0.0067 I-0.0048 J0.0015
X1.0604 Y3.9176 Z0.0062 I0.0048 J-0.0015
X1.0508 Y3.9206 Z0.0057 I-0.0048 J0.0015
X1.0604 Y3.9176 Z0.0051 I0.0048 J-0.0015
X1.0508 Y3.9206 Z0.0046 I-0.0048 J0.0015
X1.0604 Y3.9176 Z0.004 I0.0048 J-0.0015
X1.0508 Y3.9206 Z0.0035 I-0.0048 J0.0015
X1.0604 Y3.9176 Z0.0029 I0.0048 J-0.0015
X1.0508 Y3.9206 Z0.0024 I-0.0048 J0.0015
X1.0604 Y3.9176 Z0.0018 I0.0048 J-0.0015
X1.0508 Y3.9206 Z0.0013 I-0.0048 J0.0015
X1.0604 Y3.9176 Z0.0007 I0.0048 J-0.0015
X1.0508 Y3.9206 Z0.0002 I-0.0048 J0.0015
X1.0604 Y3.9176 Z-0.0004 I0.0048 J-0.0015
X1.0508 Y3.9206 Z-0.0009 I-0.0048 J0.0015
X1.0604 Y3.9176 Z-0.0015 I0.0048 J-0.0015
X1.0508 Y3.9206 Z-0.002 I-0.0048 J0.0015
X1.0604 Y3.9176 Z-0.0026 I0.0048 J-0.0015
X1.0508 Y3.9206 Z-0.0031 I-0.0048 J0.0015
X1.0604 Y3.9176 Z-0.0037 I0.0048 J-0.0015
X1.0508 Y3.9206 Z-0.0042 I-0.0048 J0.0015
X1.0604 Y3.9176 Z-0.0048 I0.0048 J-0.0015
X1.0508 Y3.9206 Z-0.0053 I-0.0048 J0.0015
X1.0604 Y3.9176 Z-0.0059 I0.0048 J-0.0015
X1.0508 Y3.9206 Z-0.0064 I-0.0048 J0.0015
X1.0604 Y3.9176 Z-0.007 I0.0048 J-0.0015
X1.0508 Y3.9206 Z-0.0075 I-0.0048 J0.0015
X1.0604 Y3.9176 Z-0.0081 I0.0048 J-0.0015
X1.0508 Y3.9206 Z-0.0086 I-0.0048 J0.0015
X1.0604 Y3.9176 Z-0.0092 I0.0048 J-0.0015
X1.0508 Y3.9206 Z-0.0097 I-0.0048 J0.0015
X1.0604 Y3.9176 Z-0.0103 I0.0048 J-0.0015
X1.0508 Y3.9206 Z-0.0108 I-0.0048 J0.0015
X1.0604 Y3.9176 Z-0.0114 I0.0048 J-0.0015
X1.0508 Y3.9206 Z-0.0119 I-0.0048 J0.0015
X1.0604 Y3.9176 Z-0.0124 I0.0048 J-0.0015
X1.0508 Y3.9206 Z-0.013 I-0.0048 J0.0015
X1.0604 Y3.9176 Z-0.0135 I0.0048 J-0.0015
X1.0508 Y3.9206 Z-0.0141 I-0.0048 J0.0015
X1.0604 Y3.9176 Z-0.0146 I0.0048 J-0.0015
X1.0508 Y3.9206 Z-0.0152 I-0.0048 J0.0015
X1.0604 Y3.9176 Z-0.0157 I0.0048 J-0.0015
X1.0508 Y3.9206 Z-0.0163 I-0.0048 J0.0015
X1.0604 Y3.9176 Z-0.0168 I0.0048 J-0.0015
X1.0508 Y3.9206 Z-0.0174 I-0.0048 J0.0015
X1.0604 Y3.9176 Z-0.0179 I0.0048 J-0.0015
X1.0508 Y3.9206 Z-0.0185 I-0.0048 J0.0015
X1.0604 Y3.9176 Z-0.019 I0.0048 J-0.0015
X1.0508 Y3.9206 Z-0.0196 I-0.0048 J0.0015
X1.0581 Y3.9148 Z-0.02 I0.0048 J-0.0015
X1.0191 Y3.9823 I-0.0195 J0.0338 F40.
X1.0581 Y3.9148 I0.0195 J-0.0338
X1.0191 Y3.9823 Z-0.0243 I-0.0195 J0.0338 F20.
X1.0581 Y3.9148 Z-0.0286 I0.0195 J-0.0338
X1.0191 Y3.9823 Z-0.0328 I-0.0195 J0.0338
X1.0581 Y3.9148 Z-0.0371 I0.0195 J-0.0338
X1.0572 Y3.9828 Z-0.04 I-0.0195 J0.0338
X1.02 Y3.9143 I-0.0186 J-0.0343 F40.
X1.0572 Y3.9828 I0.0186 J0.0343
X1.02 Y3.9143 Z-0.0443 I-0.0186 J-0.0343 F20.
X1.0572 Y3.9828 Z-0.0486 I0.0186 J0.0343
X1.02 Y3.9143 Z-0.0528 I-0.0186 J-0.0343
X1.0572 Y3.9828 Z-0.0571 I0.0186 J0.0343
X0.9996 Y3.9465 Z-0.06 I-0.0186 J-0.0343
X1.0775 Y3.9506 I0.0389 J0.002 F40.
X0.9996 Y3.9465 I-0.0389 J-0.002
X1.0775 Y3.9506 Z-0.0643 I0.0389 J0.002 F20.
X0.9996 Y3.9465 Z-0.0686 I-0.0389 J-0.002
X1.0775 Y3.9506 Z-0.0728 I0.0389 J0.002
X0.9996 Y3.9465 Z-0.0771 I-0.0389 J-0.002
X1.0606 Y3.9164 Z-0.08 I0.0389 J0.002
X1.0165 Y3.9807 I-0.022 J0.0322 F40.
X1.0606 Y3.9164 I0.022 J-0.0322
X1.0165 Y3.9807 Z-0.0843 I-0.022 J0.0322 F20.
X1.0606 Y3.9164 Z-0.0886 I0.022 J-0.0322
X1.0165 Y3.9807 Z-0.0928 I-0.022 J0.0322
X1.0606 Y3.9164 Z-0.0971 I0.022 J-0.0322
X1.0545 Y3.9841 Z-0.1 I-0.022 J0.0322
X1.0227 Y3.9129 I-0.0159 J-0.0356 F40.
X1.0545 Y3.9841 I0.0159 J0.0356
X1.0227 Y3.9129 Z-0.1043 I-0.0159 J-0.0356 F20.
X1.0545 Y3.9841 Z-0.1086 I0.0159 J0.0356
X1.0227 Y3.9129 Z-0.1128 I-0.0159 J-0.0356
X1.0545 Y3.9841 Z-0.1171 I0.0159 J0.0356
X0.9999 Y3.9435 Z-0.12 I-0.0159 J-0.0356
X1.0773 Y3.9536 I0.0387 J0.005 F40.
X0.9999 Y3.9435 I-0.0387 J-0.005
X1.0773 Y3.9536 Z-0.1243 I0.0387 J0.005 F20.
X0.9999 Y3.9435 Z-0.1286 I-0.0387 J-0.005
X1.0773 Y3.9536 Z-0.1328 I0.0387 J0.005
X0.9999 Y3.9435 Z-0.1371 I-0.0387 J-0.005
X1.0631 Y3.9182 Z-0.14 I0.0387 J0.005
X1.0141 Y3.9789 I-0.0245 J0.0304 F40.
X1.0631 Y3.9182 I0.0245 J-0.0304
X1.0141 Y3.9789 Z-0.1443 I-0.0245 J0.0304 F20.
X1.0631 Y3.9182 Z-0.1486 I0.0245 J-0.0304
X1.0141 Y3.9789 Z-0.1528 I-0.0245 J0.0304
X1.0631 Y3.9182 Z-0.1571 I0.0245 J-0.0304
X1.0517 Y3.9853 Z-0.16 I-0.0245 J0.0304
X1.0255 Y3.9118 I-0.0131 J-0.0367 F40.
X1.0517 Y3.9853 I0.0131 J0.0367
X1.0255 Y3.9118 Z-0.1643 I-0.0131 J-0.0367 F20.
X1.0517 Y3.9853 Z-0.1686 I0.0131 J0.0367
X1.0255 Y3.9118 Z-0.1728 I-0.0131 J-0.0367
X1.0517 Y3.9853 Z-0.1771 I0.0131 J0.0367
X1.0004 Y3.9406 Z-0.18 I-0.0131 J-0.0367
X1.0768 Y3.9565 I0.0382 J0.008 F40.
X1.0004 Y3.9406 I-0.0382 J-0.008
X1.0768 Y3.9565 Z-0.1843 I0.0382 J0.008 F20.
X1.0004 Y3.9406 Z-0.1886 I-0.0382 J-0.008
X1.0768 Y3.9565 Z-0.1928 I0.0382 J0.008
X1.0004 Y3.9406 Z-0.1971 I-0.0382 J-0.008
X1.0653 Y3.9202 Z-0.2 I0.0382 J0.008
X1.0119 Y3.9769 I-0.0267 J0.0284 F40.
X1.0653 Y3.9202 I0.0267 J-0.0284
X1.0119 Y3.9769 Z-0.2043 I-0.0267 J0.0284 F20.
X1.0653 Y3.9202 Z-0.2086 I0.0267 J-0.0284
X1.0119 Y3.9769 Z-0.2128 I-0.0267 J0.0284
X1.0653 Y3.9202 Z-0.2171 I0.0267 J-0.0284
X1.0488 Y3.9862 Z-0.22 I-0.0267 J0.0284
X1.0283 Y3.9109 I-0.0103 J-0.0376 F40.
X1.0488 Y3.9862 I0.0103 J0.0376
X1.0283 Y3.9109 Z-0.2243 I-0.0103 J-0.0376 F20.
X1.0488 Y3.9862 Z-0.2286 I0.0103 J0.0376
X1.0283 Y3.9109 Z-0.2328 I-0.0103 J-0.0376
X1.0488 Y3.9862 Z-0.2371 I0.0103 J0.0376
X1.0012 Y3.9376 Z-0.24 I-0.0103 J-0.0376
X1.076 Y3.9594 I0.0374 J0.0109 F40.
X1.0012 Y3.9376 I-0.0374 J-0.0109
X1.076 Y3.9594 Z-0.2443 I0.0374 J0.0109 F20.
X1.0012 Y3.9376 Z-0.2486 I-0.0374 J-0.0109
X1.076 Y3.9594 Z-0.2528 I0.0374 J0.0109
X1.0012 Y3.9376 Z-0.2571 I-0.0374 J-0.0109
X1.0674 Y3.9223 Z-0.26 I0.0374 J0.0109
X1.0097 Y3.9748 I-0.0288 J0.0262 F40.
X1.0674 Y3.9223 I0.0288 J-0.0262
X1.0097 Y3.9748 Z-0.2643 I-0.0288 J0.0262 F20.
X1.0674 Y3.9223 Z-0.2686 I0.0288 J-0.0262
X1.0097 Y3.9748 Z-0.2728 I-0.0288 J0.0262
X1.0674 Y3.9223 Z-0.2771 I0.0288 J-0.0262
X1.0459 Y3.9868 Z-0.28 I-0.0288 J0.0262
X1.0313 Y3.9102 I-0.0073 J-0.0383 F40.
X1.0459 Y3.9868 I0.0073 J0.0383
X1.0313 Y3.9102 Z-0.2843 I-0.0073 J-0.0383 F20.
X1.0459 Y3.9868 Z-0.2886 I0.0073 J0.0383
X1.0088 Y3.9737 Z-0.29 I-0.0073 J-0.0383
X1.0684 Y3.9234 I0.0298 J-0.0251 F40.
X1.0088 Y3.9737 I-0.0298 J0.0251
G1 X1.0075 Y3.9718 Z-0.2896
X1.0066 Y3.9697 Z-0.2891
X1.0061 Y3.9679 Z-0.2878
X1.006 Y3.966 Z-0.2865
X1.0063 Y3.9634 Z-0.2827
X1.0065 Y3.9626 Z-0.2782
G0 Z0.6
g0 x0 y0

M9
M30
