(X8 BUMPER SIDE POCKET)
(T1  D=0.25 CR=0. - ZMIN=-0.125 - FLAT END MILL)
G90 G94 G91.1 G40 G49 G17
G20

(2D POCKET1)
M5
T1 M6
S15000 M3
g4 p5
g0 z.5
G54
M8
G0 X5.1603 Y1.2374
G43 Z0.6 H1
Z0.2
G1 Z-0.1 F60.
X5.1599 Z-0.1039
X5.159 Z-0.1077
X5.1575 Z-0.1113
X5.1555 Z-0.1147
X5.1529 Z-0.1177
X5.1499 Z-0.1202
X5.1466 Z-0.1223
X5.143 Z-0.1238
X5.1392 Z-0.1247
X5.1353 Z-0.125
X5.1208
X0. Y1.2364
X-0.1206 Y1.2365
X-0.1216
X-0.1255 Z-0.1247
X-0.1293 Z-0.1238
X-0.1329 Z-0.1223
X-0.1362 Z-0.1202
X-0.1392 Z-0.1177
X-0.1418 Z-0.1147
X-0.1438 Z-0.1113
X-0.1453 Z-0.1077
X-0.1462 Z-0.1039
X-0.1466 Z-0.1
G0 Z0.2
X5.1603 Y1.3408
G1 Z-0.1 F60.
X5.16 Z-0.1039
X5.1591 Z-0.1077
X5.1576 Z-0.1113
X5.1555 Z-0.1147
X5.153 Z-0.1177
X5.15 Z-0.1202
X5.1466 Z-0.1223
X5.143 Z-0.1238
X5.1392 Z-0.1247
X5.1353 Z-0.125
X5.1208
X0. Y1.3399
X-0.1206
X-0.1216
X-0.1255 Z-0.1247
X-0.1293 Z-0.1238
X-0.1329 Z-0.1223
X-0.1362 Z-0.1202
X-0.1392 Z-0.1177
X-0.1418 Z-0.1147
X-0.1438 Z-0.1113
X-0.1453 Z-0.1077
X-0.1462 Z-0.1039
X-0.1466 Z-0.1
G0 Z0.2
X5.1601 Y1.5457
G1 Z-0.1 F60.
G18 G3 X5.1351 Z-0.125 I-0.025 K0.
G1 X5.1209
X-0.1206
X-0.1216
G3 X-0.1466 Z-0.1 I0. K0.025
G0 Z0.2
X5.1603 Y1.7441
G1 Z-0.1025 F60.
X5.1601 Z-0.106
X5.1593 Y1.7442 Z-0.1095
X5.1579 Y1.7444 Z-0.1127
X5.1561 Y1.7447 Z-0.1157
X5.1538 Y1.7451 Z-0.1184
X5.1512 Y1.7455 Z-0.1207
X5.1482 Y1.746 Z-0.1225
X5.145 Y1.7465 Z-0.1239
X5.1416 Y1.747 Z-0.1247
X5.1381 Y1.7476 Z-0.125
X5.1247 Y1.7497
X5.1208 Y1.75
X0.
X-0.1206
X-0.1245 Y1.7497
X-0.1351 Y1.748
X-0.139 Y1.7474 Z-0.1247
X-0.1427 Y1.7468 Z-0.1238
X-0.1463 Y1.7462 Z-0.1223
X-0.1496 Y1.7457 Z-0.1202
X-0.1526 Y1.7452 Z-0.1177
X-0.1551 Y1.7448 Z-0.1147
X-0.1571 Y1.7445 Z-0.1113
X-0.1586 Y1.7443 Z-0.1077
X-0.1595 Y1.7441 Z-0.1039
X-0.1598 Z-0.1
G0 Z0.2
X-0.1606 Y1.1368
G1 Z-0.1 F60.
G2 X-0.1356 Z-0.125 I0.025 K0.
G1 X-0.1208
X5.1208
X5.1217
G2 X5.1467 Z-0.1 I0. K0.025
G0 Z0.2
X-0.1606 Y1.0333
G1 Z-0.1 F60.
G2 X-0.1356 Z-0.125 I0.025 K0.
G1 X-0.1208
X5.1207
X5.1217
G2 X5.1467 Z-0.1 I0. K0.025
G0 Z0.2
X-0.1604 Y0.8293
G1 Z-0.1 F60.
G2 X-0.1354 Z-0.125 I0.025 K0.
G1 X-0.1209
X5.1206
X5.1216
G2 X5.1466 Z-0.1 I0. K0.025
G0 Z0.2
X-0.1606 Y0.631
G1 Z-0.1025 F60.
X-0.1604 Y0.6309 Z-0.106
X-0.1596 Y0.6308 Z-0.1095
X-0.1582 Y0.6306 Z-0.1127
X-0.1564 Y0.6303 Z-0.1157
X-0.1541 Y0.63 Z-0.1184
X-0.1515 Y0.6295 Z-0.1207
X-0.1485 Y0.6291 Z-0.1225
X-0.1453 Y0.6286 Z-0.1239
X-0.1419 Y0.628 Z-0.1247
X-0.1384 Y0.6275 Z-0.125
X-0.1247 Y0.6253
X-0.1208 Y0.625
X5.
X5.1206
X5.1245 Y0.6253
X5.1351 Y0.627
X5.139 Y0.6276 Z-0.1247
X5.1427 Y0.6282 Z-0.1238
X5.1463 Y0.6288 Z-0.1223
X5.1496 Y0.6293 Z-0.1202
X5.1526 Y0.6298 Z-0.1177
X5.1551 Y0.6302 Z-0.1147
X5.1571 Y0.6305 Z-0.1113
X5.1586 Y0.6307 Z-0.1077
X5.1595 Y0.6309 Z-0.1039
X5.1598 Z-0.1
G0 Z0.6
g0 x0 y0
G17

M9
M30
