(X4 GEARBOX ARCH CUTOUTS RUN 4.1)
(T3  D=0.118 CR=0. - ZMIN=-0.27 - FLAT END MILL)
G90 G94 G91.1 G40 G49 G17
G20

(2D POCKET10)
M5
T3 M6
S15000 M3
G54
M8
G0 X3.2569 Y5.5503
G43 Z0.64 H3
Z0.24
G1 Z0.1518 F30.
X3.2577 Y5.549 Z0.146 F20.
X3.2601 Y5.5456 Z0.1417
X3.2638 Y5.5412 Z0.14
G3 X3.3455 Y5.6179 Z0.1339 I0.0409 J0.0384
X3.2638 Y5.5412 Z0.1277 I-0.0409 J-0.0384
X3.3455 Y5.6179 Z0.1216 I0.0409 J0.0384
X3.2638 Y5.5412 Z0.1154 I-0.0409 J-0.0384
X3.3455 Y5.6179 Z0.1093 I0.0409 J0.0384
X3.2638 Y5.5412 Z0.1031 I-0.0409 J-0.0384
X3.3455 Y5.6179 Z0.097 I0.0409 J0.0384
X3.2638 Y5.5412 Z0.0908 I-0.0409 J-0.0384
X3.3455 Y5.6179 Z0.0847 I0.0409 J0.0384
X3.2638 Y5.5412 Z0.0785 I-0.0409 J-0.0384
X3.3455 Y5.6179 Z0.0724 I0.0409 J0.0384
X3.2638 Y5.5412 Z0.0662 I-0.0409 J-0.0384
X3.3455 Y5.6179 Z0.0601 I0.0409 J0.0384
X3.2638 Y5.5412 Z0.0539 I-0.0409 J-0.0384
X3.3455 Y5.6179 Z0.0478 I0.0409 J0.0384
X3.2638 Y5.5412 Z0.0416 I-0.0409 J-0.0384
X3.3455 Y5.6179 Z0.0355 I0.0409 J0.0384
X3.2638 Y5.5412 Z0.0293 I-0.0409 J-0.0384
X3.3455 Y5.6179 Z0.0232 I0.0409 J0.0384
X3.2638 Y5.5412 Z0.017 I-0.0409 J-0.0384
X3.3455 Y5.6179 Z0.0109 I0.0409 J0.0384
X3.3251 Y5.6318 Z0.01 I-0.0409 J-0.0384
X3.2943 Y5.5531 I-0.0154 J-0.0393
G1 X3.2965 Y5.5524 F30.
X3.2988 Y5.5518
G3 X3.3144 Y5.5561 I0.0033 J0.0182
X3.3162 Y5.5838 I-0.013 J0.0147
X3.2976 Y5.6043 I-0.4998 J-0.4337
X2.1613 Y5.5841 I-0.559 J-0.5276
X2.191 Y5.5579 I0.0148 J-0.0131
G2 X3.0522 Y5.7345 I0.5478 J-0.4829
X3.2442 Y5.602 I-0.3068 J-0.6498
X3.2649 Y5.5813 I-0.5785 J-0.6005
X3.2848 Y5.5598 I-0.4547 J-0.4399
G3 X3.2943 Y5.5531 I0.0185 J0.0163
G2 X3.3143 Y5.5299 I-0.012 J-0.0306
G3 X3.3434 Y5.5201 I0.0175 J0.0041
X3.3508 Y5.6146 I-0.0421 J0.0509
X2.1266 I-0.6121 J-0.5396
X2.1325 Y5.5215 I0.0495 J-0.0437
X2.2256 Y5.5273 I0.0437 J0.0495
G1 X2.2273 Y5.5292
G2 X3.2518 Y5.5273 I0.5114 J-0.4542
G3 X3.3434 Y5.5201 I0.0495 J0.0437
X3.3395 Y5.5342 I-0.0051 J0.0062
G1 X3.3063 Y5.5394
G3 X3.297 Y5.5321 I-0.0012 J-0.0079
X3.3051 Y5.5235 I0.008 J-0.0006
X3.3042 Y5.6356 Z0.0039 I-0.0004 J0.056 F20.
X3.3051 Y5.5235 Z-0.0023 I0.0004 J-0.056
X3.3042 Y5.6356 Z-0.0084 I-0.0004 J0.056
X3.3051 Y5.5235 Z-0.0146 I0.0004 J-0.056
X3.3251 Y5.6318 Z-0.02 I-0.0004 J0.056
X3.2943 Y5.5531 I-0.0154 J-0.0393
G1 X3.2965 Y5.5524 F30.
X3.2988 Y5.5518
G3 X3.3144 Y5.5561 I0.0033 J0.0182
X3.3162 Y5.5838 I-0.013 J0.0147
X3.2976 Y5.6043 I-0.4998 J-0.4337
X2.1613 Y5.5841 I-0.559 J-0.5276
X2.191 Y5.5579 I0.0148 J-0.0131
G2 X3.0522 Y5.7345 I0.5478 J-0.4829
X3.2442 Y5.602 I-0.3068 J-0.6498
X3.2649 Y5.5813 I-0.5785 J-0.6005
X3.2848 Y5.5598 I-0.4547 J-0.4399
G3 X3.2943 Y5.5531 I0.0185 J0.0163
G2 X3.3143 Y5.5299 I-0.012 J-0.0306
G3 X3.3434 Y5.5201 I0.0175 J0.0041
X3.3508 Y5.6146 I-0.0421 J0.0509
X2.1266 I-0.6121 J-0.5396
X2.1325 Y5.5215 I0.0495 J-0.0437
X2.2256 Y5.5273 I0.0437 J0.0495
G1 X2.2273 Y5.5292
G2 X3.2518 Y5.5273 I0.5114 J-0.4542
G3 X3.3434 Y5.5201 I0.0495 J0.0437
X3.3395 Y5.5342 I-0.0051 J0.0062
G1 X3.3063 Y5.5394
G3 X3.297 Y5.5321 I-0.0012 J-0.0079
X3.3051 Y5.5235 I0.008 J-0.0006
X3.3042 Y5.6356 Z-0.0261 I-0.0004 J0.056 F20.
X3.3051 Y5.5235 Z-0.0323 I0.0004 J-0.056
X3.3042 Y5.6356 Z-0.0384 I-0.0004 J0.056
X3.3051 Y5.5235 Z-0.0446 I0.0004 J-0.056
X3.3251 Y5.6318 Z-0.05 I-0.0004 J0.056
X3.2943 Y5.5531 I-0.0154 J-0.0393
G1 X3.2965 Y5.5524 F30.
X3.2988 Y5.5518
G3 X3.3144 Y5.5561 I0.0033 J0.0182
X3.3162 Y5.5838 I-0.013 J0.0147
X3.2976 Y5.6043 I-0.4998 J-0.4337
X2.1613 Y5.5841 I-0.559 J-0.5276
X2.191 Y5.5579 I0.0148 J-0.0131
G2 X3.0522 Y5.7345 I0.5478 J-0.4829
X3.2442 Y5.602 I-0.3068 J-0.6498
X3.2649 Y5.5813 I-0.5785 J-0.6005
X3.2848 Y5.5598 I-0.4547 J-0.4399
G3 X3.2943 Y5.5531 I0.0185 J0.0163
G2 X3.3143 Y5.5299 I-0.012 J-0.0306
G3 X3.3434 Y5.5201 I0.0175 J0.0041
X3.3508 Y5.6146 I-0.0421 J0.0509
X2.1266 I-0.6121 J-0.5396
X2.1325 Y5.5215 I0.0495 J-0.0437
X2.2256 Y5.5273 I0.0437 J0.0495
G1 X2.2273 Y5.5292
G2 X3.2518 Y5.5273 I0.5114 J-0.4542
G3 X3.3434 Y5.5201 I0.0495 J0.0437
X3.3395 Y5.5342 I-0.0051 J0.0062
G1 X3.3063 Y5.5394
G3 X3.297 Y5.5321 I-0.0012 J-0.0079
X3.3051 Y5.5235 I0.008 J-0.0006
X3.3042 Y5.6356 Z-0.0561 I-0.0004 J0.056 F20.
X3.3051 Y5.5235 Z-0.0623 I0.0004 J-0.056
X3.3042 Y5.6356 Z-0.0684 I-0.0004 J0.056
X3.3051 Y5.5235 Z-0.0746 I0.0004 J-0.056
X3.3251 Y5.6318 Z-0.08 I-0.0004 J0.056
X3.2943 Y5.5531 I-0.0154 J-0.0393
G1 X3.2965 Y5.5524 F30.
X3.2988 Y5.5518
G3 X3.3144 Y5.5561 I0.0033 J0.0182
X3.3162 Y5.5838 I-0.013 J0.0147
X3.2976 Y5.6043 I-0.4998 J-0.4337
X2.1613 Y5.5841 I-0.559 J-0.5276
X2.191 Y5.5579 I0.0148 J-0.0131
G2 X3.0522 Y5.7345 I0.5478 J-0.4829
X3.2442 Y5.602 I-0.3068 J-0.6498
X3.2649 Y5.5813 I-0.5785 J-0.6005
X3.2848 Y5.5598 I-0.4547 J-0.4399
G3 X3.2943 Y5.5531 I0.0185 J0.0163
G2 X3.3143 Y5.5299 I-0.012 J-0.0306
G3 X3.3434 Y5.5201 I0.0175 J0.0041
X3.3508 Y5.6146 I-0.0421 J0.0509
X2.1266 I-0.6121 J-0.5396
X2.1325 Y5.5215 I0.0495 J-0.0437
X2.2256 Y5.5273 I0.0437 J0.0495
G1 X2.2273 Y5.5292
G2 X3.2518 Y5.5273 I0.5114 J-0.4542
G3 X3.3434 Y5.5201 I0.0495 J0.0437
X3.3395 Y5.5342 I-0.0051 J0.0062
G1 X3.3063 Y5.5394
G3 X3.297 Y5.5321 I-0.0012 J-0.0079
X3.3051 Y5.5235 I0.008 J-0.0006
X3.3042 Y5.6356 Z-0.0861 I-0.0004 J0.056 F20.
X3.3051 Y5.5235 Z-0.0923 I0.0004 J-0.056
X3.3042 Y5.6356 Z-0.0984 I-0.0004 J0.056
X3.3051 Y5.5235 Z-0.1046 I0.0004 J-0.056
X3.3251 Y5.6318 Z-0.11 I-0.0004 J0.056
X3.2943 Y5.5531 I-0.0154 J-0.0393
G1 X3.2965 Y5.5524 F30.
X3.2988 Y5.5518
G3 X3.3144 Y5.5561 I0.0033 J0.0182
X3.3162 Y5.5838 I-0.013 J0.0147
X3.2976 Y5.6043 I-0.4998 J-0.4337
X2.1613 Y5.5841 I-0.559 J-0.5276
X2.191 Y5.5579 I0.0148 J-0.0131
G2 X3.0522 Y5.7345 I0.5478 J-0.4829
X3.2442 Y5.602 I-0.3068 J-0.6498
X3.2649 Y5.5813 I-0.5785 J-0.6005
X3.2848 Y5.5598 I-0.4547 J-0.4399
G3 X3.2943 Y5.5531 I0.0185 J0.0163
G2 X3.3143 Y5.5299 I-0.012 J-0.0306
G3 X3.3434 Y5.5201 I0.0175 J0.0041
X3.3508 Y5.6146 I-0.0421 J0.0509
X2.1266 I-0.6121 J-0.5396
X2.1325 Y5.5215 I0.0495 J-0.0437
X2.2256 Y5.5273 I0.0437 J0.0495
G1 X2.2273 Y5.5292
G2 X3.2518 Y5.5273 I0.5114 J-0.4542
G3 X3.3434 Y5.5201 I0.0495 J0.0437
X3.3395 Y5.5342 I-0.0051 J0.0062
G1 X3.3063 Y5.5394
G3 X3.297 Y5.5321 I-0.0012 J-0.0079
X3.3051 Y5.5235 I0.008 J-0.0006
X3.3042 Y5.6356 Z-0.1161 I-0.0004 J0.056 F20.
X3.3051 Y5.5235 Z-0.1223 I0.0004 J-0.056
X3.3042 Y5.6356 Z-0.1284 I-0.0004 J0.056
X3.3051 Y5.5235 Z-0.1346 I0.0004 J-0.056
X3.3251 Y5.6318 Z-0.14 I-0.0004 J0.056
X3.2943 Y5.5531 I-0.0154 J-0.0393
G1 X3.2965 Y5.5524 F30.
X3.2988 Y5.5518
G3 X3.3144 Y5.5561 I0.0033 J0.0182
X3.3162 Y5.5838 I-0.013 J0.0147
X3.2976 Y5.6043 I-0.4998 J-0.4337
X2.1613 Y5.5841 I-0.559 J-0.5276
X2.191 Y5.5579 I0.0148 J-0.0131
G2 X3.0522 Y5.7345 I0.5478 J-0.4829
X3.2442 Y5.602 I-0.3068 J-0.6498
X3.2649 Y5.5813 I-0.5785 J-0.6005
X3.2848 Y5.5598 I-0.4547 J-0.4399
G3 X3.2943 Y5.5531 I0.0185 J0.0163
G2 X3.3143 Y5.5299 I-0.012 J-0.0306
G3 X3.3434 Y5.5201 I0.0175 J0.0041
X3.3508 Y5.6146 I-0.0421 J0.0509
X2.1266 I-0.6121 J-0.5396
X2.1325 Y5.5215 I0.0495 J-0.0437
X2.2256 Y5.5273 I0.0437 J0.0495
G1 X2.2273 Y5.5292
G2 X3.2518 Y5.5273 I0.5114 J-0.4542
G3 X3.3434 Y5.5201 I0.0495 J0.0437
X3.3395 Y5.5342 I-0.0051 J0.0062
G1 X3.3063 Y5.5394
G3 X3.297 Y5.5321 I-0.0012 J-0.0079
X3.3051 Y5.5235 I0.008 J-0.0006
X3.3042 Y5.6356 Z-0.1461 I-0.0004 J0.056 F20.
X3.3051 Y5.5235 Z-0.1523 I0.0004 J-0.056
X3.3042 Y5.6356 Z-0.1584 I-0.0004 J0.056
X3.3051 Y5.5235 Z-0.1646 I0.0004 J-0.056
X3.3251 Y5.6318 Z-0.17 I-0.0004 J0.056
X3.2943 Y5.5531 I-0.0154 J-0.0393
G1 X3.2965 Y5.5524 F30.
X3.2988 Y5.5518
G3 X3.3144 Y5.5561 I0.0033 J0.0182
X3.3162 Y5.5838 I-0.013 J0.0147
X3.2976 Y5.6043 I-0.4998 J-0.4337
X2.1613 Y5.5841 I-0.559 J-0.5276
X2.191 Y5.5579 I0.0148 J-0.0131
G2 X3.0522 Y5.7345 I0.5478 J-0.4829
X3.2442 Y5.602 I-0.3068 J-0.6498
X3.2649 Y5.5813 I-0.5785 J-0.6005
X3.2848 Y5.5598 I-0.4547 J-0.4399
G3 X3.2943 Y5.5531 I0.0185 J0.0163
G2 X3.3143 Y5.5299 I-0.012 J-0.0306
G3 X3.3434 Y5.5201 I0.0175 J0.0041
X3.3508 Y5.6146 I-0.0421 J0.0509
X2.1266 I-0.6121 J-0.5396
X2.1325 Y5.5215 I0.0495 J-0.0437
X2.2256 Y5.5273 I0.0437 J0.0495
G1 X2.2273 Y5.5292
G2 X3.2518 Y5.5273 I0.5114 J-0.4542
G3 X3.3434 Y5.5201 I0.0495 J0.0437
X3.3395 Y5.5342 I-0.0051 J0.0062
G1 X3.3063 Y5.5394
G3 X3.297 Y5.5321 I-0.0012 J-0.0079
X3.3051 Y5.5235 I0.008 J-0.0006
X3.3042 Y5.6356 Z-0.1761 I-0.0004 J0.056 F20.
X3.3051 Y5.5235 Z-0.1823 I0.0004 J-0.056
X3.3042 Y5.6356 Z-0.1884 I-0.0004 J0.056
X3.3051 Y5.5235 Z-0.1946 I0.0004 J-0.056
X3.3251 Y5.6318 Z-0.2 I-0.0004 J0.056
X3.2943 Y5.5531 I-0.0154 J-0.0393
G1 X3.2965 Y5.5524 F30.
X3.2988 Y5.5518
G3 X3.3144 Y5.5561 I0.0033 J0.0182
X3.3162 Y5.5838 I-0.013 J0.0147
X3.2976 Y5.6043 I-0.4998 J-0.4337
X2.1613 Y5.5841 I-0.559 J-0.5276
X2.191 Y5.5579 I0.0148 J-0.0131
G2 X3.0522 Y5.7345 I0.5478 J-0.4829
X3.2442 Y5.602 I-0.3068 J-0.6498
X3.2649 Y5.5813 I-0.5785 J-0.6005
X3.2848 Y5.5598 I-0.4547 J-0.4399
G3 X3.2943 Y5.5531 I0.0185 J0.0163
G2 X3.3143 Y5.5299 I-0.012 J-0.0306
G3 X3.3434 Y5.5201 I0.0175 J0.0041
X3.3508 Y5.6146 I-0.0421 J0.0509
X2.1266 I-0.6121 J-0.5396
X2.1325 Y5.5215 I0.0495 J-0.0437
X2.2256 Y5.5273 I0.0437 J0.0495
G1 X2.2273 Y5.5292
G2 X3.2518 Y5.5273 I0.5114 J-0.4542
G3 X3.3434 Y5.5201 I0.0495 J0.0437
X3.3395 Y5.5342 I-0.0051 J0.0062
G1 X3.3063 Y5.5394
G3 X3.297 Y5.5321 I-0.0012 J-0.0079
X3.3051 Y5.5235 I0.008 J-0.0006
X3.3042 Y5.6356 Z-0.2061 I-0.0004 J0.056 F20.
X3.3051 Y5.5235 Z-0.2123 I0.0004 J-0.056
X3.3042 Y5.6356 Z-0.2184 I-0.0004 J0.056
X3.3051 Y5.5235 Z-0.2246 I0.0004 J-0.056
X3.3251 Y5.6318 Z-0.23 I-0.0004 J0.056
X3.2943 Y5.5531 I-0.0154 J-0.0393
G1 X3.2965 Y5.5524 F30.
X3.2988 Y5.5518
G3 X3.3144 Y5.5561 I0.0033 J0.0182
X3.3162 Y5.5838 I-0.013 J0.0147
X3.2976 Y5.6043 I-0.4998 J-0.4337
X2.1613 Y5.5841 I-0.559 J-0.5276
X2.191 Y5.5579 I0.0148 J-0.0131
G2 X3.0522 Y5.7345 I0.5478 J-0.4829
X3.2442 Y5.602 I-0.3068 J-0.6498
X3.2649 Y5.5813 I-0.5785 J-0.6005
X3.2848 Y5.5598 I-0.4547 J-0.4399
G3 X3.2943 Y5.5531 I0.0185 J0.0163
G2 X3.3143 Y5.5299 I-0.012 J-0.0306
G3 X3.3434 Y5.5201 I0.0175 J0.0041
X3.3508 Y5.6146 I-0.0421 J0.0509
X2.1266 I-0.6121 J-0.5396
X2.1325 Y5.5215 I0.0495 J-0.0437
X2.2256 Y5.5273 I0.0437 J0.0495
G1 X2.2273 Y5.5292
G2 X3.2518 Y5.5273 I0.5114 J-0.4542
G3 X3.3434 Y5.5201 I0.0495 J0.0437
X3.3395 Y5.5342 I-0.0051 J0.0062
G1 X3.3063 Y5.5394
G3 X3.297 Y5.5321 I-0.0012 J-0.0079
X3.3051 Y5.5235 I0.008 J-0.0006
X3.3042 Y5.6356 Z-0.2361 I-0.0004 J0.056 F20.
X3.3051 Y5.5235 Z-0.2423 I0.0004 J-0.056
X3.3042 Y5.6356 Z-0.2484 I-0.0004 J0.056
X3.3051 Y5.5235 Z-0.2546 I0.0004 J-0.056
X3.3251 Y5.6318 Z-0.26 I-0.0004 J0.056
X3.2943 Y5.5531 I-0.0154 J-0.0393
G1 X3.2965 Y5.5524 F30.
X3.2988 Y5.5518
G3 X3.3144 Y5.5561 I0.0033 J0.0182
X3.3162 Y5.5838 I-0.013 J0.0147
X3.2976 Y5.6043 I-0.4998 J-0.4337
X2.1613 Y5.5841 I-0.559 J-0.5276
X2.191 Y5.5579 I0.0148 J-0.0131
G2 X3.0522 Y5.7345 I0.5478 J-0.4829
X3.2442 Y5.602 I-0.3068 J-0.6498
X3.2649 Y5.5813 I-0.5785 J-0.6005
X3.2848 Y5.5598 I-0.4547 J-0.4399
G3 X3.2943 Y5.5531 I0.0185 J0.0163
G2 X3.3143 Y5.5299 I-0.012 J-0.0306
G3 X3.3434 Y5.5201 I0.0175 J0.0041
X3.3508 Y5.6146 I-0.0421 J0.0509
X2.1266 I-0.6121 J-0.5396
X2.1325 Y5.5215 I0.0495 J-0.0437
X2.2256 Y5.5273 I0.0437 J0.0495
G1 X2.2273 Y5.5292
G2 X3.2518 Y5.5273 I0.5114 J-0.4542
G3 X3.3434 Y5.5201 I0.0495 J0.0437
G1 X3.3446 Y5.5216
X3.3453 Y5.5233
X3.3455 Y5.5252
X3.345 Y5.5271
X3.3439 Y5.5287
X3.3052 Y5.5705
X3.2735 Y5.6177
X3.2724 Y5.619
X3.2708 Y5.6199
X3.2692 Y5.6203
X3.2674 Y5.6202
X3.2658 Y5.6196
X3.2644 Y5.6186
G3 X3.3449 Y5.5406 Z-0.2661 I0.0403 J-0.039 F20.
X3.3251 Y5.6318 Z-0.27 I-0.0403 J0.039
X3.2943 Y5.5531 I-0.0154 J-0.0393
G1 X3.2965 Y5.5524 F30.
X3.2988 Y5.5518
G3 X3.3144 Y5.5561 I0.0033 J0.0182
X3.3162 Y5.5838 I-0.013 J0.0147
X3.2976 Y5.6043 I-0.4998 J-0.4337
X2.1613 Y5.5841 I-0.559 J-0.5276
X2.191 Y5.5579 I0.0148 J-0.0131
G2 X3.0522 Y5.7345 I0.5478 J-0.4829
X3.2442 Y5.602 I-0.3068 J-0.6498
X3.2649 Y5.5813 I-0.5785 J-0.6005
X3.2848 Y5.5598 I-0.4547 J-0.4399
G3 X3.2943 Y5.5531 I0.0185 J0.0163
G2 X3.3143 Y5.5299 I-0.012 J-0.0306
G3 X3.3434 Y5.5201 I0.0175 J0.0041
X3.3508 Y5.6146 I-0.0421 J0.0509
X2.1266 I-0.6121 J-0.5396
X2.1325 Y5.5215 I0.0495 J-0.0437
X2.2256 Y5.5273 I0.0437 J0.0495
G1 X2.2273 Y5.5292
G2 X3.2518 Y5.5273 I0.5114 J-0.4542
G3 X3.3434 Y5.5201 I0.0495 J0.0437
G1 X3.345 Y5.5217 Z-0.2696
X3.3462 Y5.5236 Z-0.2691
X3.347 Y5.5253 Z-0.2678
X3.3475 Y5.5272 Z-0.2665
X3.3476 Y5.5297 Z-0.2627
Y5.5306 Z-0.2582
G0 Z0.24
X4.84 Y3.7647
G1 Z0.1518 F30.
X4.8387 Y3.7639 Z0.146 F20.
X4.8353 Y3.7615 Z0.1417
X4.8309 Y3.7579 Z0.14
G3 X4.9068 Y3.6754 Z0.1339 I0.038 J-0.0412
X4.8309 Y3.7579 Z0.1277 I-0.038 J0.0412
X4.9068 Y3.6754 Z0.1216 I0.038 J-0.0412
X4.8309 Y3.7579 Z0.1154 I-0.038 J0.0412
X4.9068 Y3.6754 Z0.1093 I0.038 J-0.0412
X4.8309 Y3.7579 Z0.1031 I-0.038 J0.0412
X4.9068 Y3.6754 Z0.097 I0.038 J-0.0412
X4.8309 Y3.7579 Z0.0908 I-0.038 J0.0412
X4.9068 Y3.6754 Z0.0847 I0.038 J-0.0412
X4.8309 Y3.7579 Z0.0785 I-0.038 J0.0412
X4.9068 Y3.6754 Z0.0724 I0.038 J-0.0412
X4.8309 Y3.7579 Z0.0662 I-0.038 J0.0412
X4.9068 Y3.6754 Z0.0601 I0.038 J-0.0412
X4.8309 Y3.7579 Z0.0539 I-0.038 J0.0412
X4.9068 Y3.6754 Z0.0478 I0.038 J-0.0412
X4.8309 Y3.7579 Z0.0416 I-0.038 J0.0412
X4.9068 Y3.6754 Z0.0355 I0.038 J-0.0412
X4.8309 Y3.7579 Z0.0293 I-0.038 J0.0412
X4.9068 Y3.6754 Z0.0232 I0.038 J-0.0412
X4.8309 Y3.7579 Z0.017 I-0.038 J0.0412
X4.9068 Y3.6754 Z0.0109 I0.038 J-0.0412
X4.9209 Y3.6957 Z0.01 I-0.038 J0.0412
X4.8344 Y3.7305 I-0.0432 J0.0174
X4.8375 Y3.7094 I0.0197 J-0.0079 F30.
G2 X4.8598 Y2.8321 I-0.5682 J-0.4534
X4.6918 Y2.6632 I-0.605 J0.434
X4.6457 Y2.6326 I-0.4383 J0.6103
G3 X4.6391 Y2.6054 I0.0103 J-0.0169
X4.666 Y2.5988 I0.0168 J0.0102
X4.6895 Y2.6136 I-0.3394 J0.5659
X4.8668 Y3.736 I-0.4226 J0.642
X4.8388 Y3.7374 I-0.0146 J-0.0117
G1 X4.8371 Y3.7353
X4.8356 Y3.733
X4.8344 Y3.7305
G2 X4.811 Y3.7103 I-0.0313 J0.0126
G3 X4.8009 Y3.6811 I0.0043 J-0.0178
G1 X4.8013 Y3.6805
G2 X4.6216 Y2.6721 I-0.5362 J-0.4247
G3 X4.6904 Y2.5594 I0.0344 J-0.0563
X4.903 Y3.7648 I-0.4253 J0.6964
X4.8102 Y3.7753 I-0.0516 J-0.0412
X4.7998 Y3.6825 I0.0412 J-0.0516
G1 X4.8009 Y3.6811
G3 X4.8145 Y3.6828 I0.0063 J0.005
G1 X4.8281 Y3.7134
G3 X4.8135 Y3.7199 I-0.0073 J0.0033
X4.8128 Y3.7167 I0.0073 J-0.0033
X4.9249 Y3.7166 Z0.0039 I0.056 J0. F20.
X4.8128 Y3.7167 Z-0.0023 I-0.056 J0.
X4.9249 Y3.7166 Z-0.0084 I0.056 J0.
X4.8128 Y3.7167 Z-0.0146 I-0.056 J0.
X4.9209 Y3.6958 Z-0.02 I0.056 J0.
X4.8344 Y3.7305 I-0.0433 J0.0174
X4.8375 Y3.7094 I0.0197 J-0.0079 F30.
G2 X4.8598 Y2.8321 I-0.5682 J-0.4534
X4.6918 Y2.6632 I-0.605 J0.434
X4.6457 Y2.6326 I-0.4383 J0.6103
G3 X4.6391 Y2.6054 I0.0103 J-0.0169
X4.666 Y2.5988 I0.0168 J0.0102
X4.6895 Y2.6136 I-0.3394 J0.5659
X4.8668 Y3.736 I-0.4226 J0.642
X4.8388 Y3.7374 I-0.0146 J-0.0117
G1 X4.8371 Y3.7353
X4.8356 Y3.733
X4.8344 Y3.7305
G2 X4.811 Y3.7103 I-0.0313 J0.0126
G3 X4.801 Y3.681 I0.0043 J-0.0178
G1 X4.8013 Y3.6805
G2 X4.6216 Y2.6721 I-0.5362 J-0.4247
G3 X4.6904 Y2.5594 I0.0344 J-0.0563
X4.903 Y3.7648 I-0.4253 J0.6964
X4.8102 Y3.7753 I-0.0516 J-0.0412
X4.7998 Y3.6825 I0.0412 J-0.0516
G1 X4.801 Y3.681
G3 X4.8145 Y3.6827 I0.0063 J0.005
G1 X4.8281 Y3.7134
G3 X4.8135 Y3.7199 I-0.0073 J0.0032
X4.8128 Y3.7167 I0.0073 J-0.0032
X4.9249 Y3.7166 Z-0.0261 I0.056 J0. F20.
X4.8128 Y3.7167 Z-0.0323 I-0.056 J0.
X4.9249 Y3.7166 Z-0.0384 I0.056 J0.
X4.8128 Y3.7167 Z-0.0446 I-0.056 J0.
X4.9209 Y3.6958 Z-0.05 I0.056 J0.
X4.8344 Y3.7305 I-0.0433 J0.0174
X4.8375 Y3.7094 I0.0197 J-0.0079 F30.
G2 X4.8598 Y2.8321 I-0.5682 J-0.4534
X4.6918 Y2.6632 I-0.605 J0.434
X4.6457 Y2.6326 I-0.4383 J0.6103
G3 X4.6391 Y2.6054 I0.0103 J-0.0169
X4.666 Y2.5988 I0.0168 J0.0102
X4.6895 Y2.6136 I-0.3394 J0.5659
X4.8668 Y3.736 I-0.4226 J0.642
X4.8388 Y3.7374 I-0.0146 J-0.0117
G1 X4.8371 Y3.7353
X4.8356 Y3.733
X4.8344 Y3.7305
G2 X4.811 Y3.7103 I-0.0313 J0.0126
G3 X4.801 Y3.681 I0.0043 J-0.0178
G1 X4.8013 Y3.6805
G2 X4.6216 Y2.6721 I-0.5362 J-0.4247
G3 X4.6904 Y2.5594 I0.0344 J-0.0563
X4.903 Y3.7648 I-0.4253 J0.6964
X4.8102 Y3.7753 I-0.0516 J-0.0412
X4.7998 Y3.6825 I0.0412 J-0.0516
G1 X4.801 Y3.681
G3 X4.8145 Y3.6827 I0.0063 J0.005
G1 X4.8281 Y3.7134
G3 X4.8135 Y3.7199 I-0.0073 J0.0032
X4.8128 Y3.7167 I0.0073 J-0.0032
X4.9249 Y3.7166 Z-0.0561 I0.056 J0. F20.
X4.8128 Y3.7167 Z-0.0623 I-0.056 J0.
X4.9249 Y3.7166 Z-0.0684 I0.056 J0.
X4.8128 Y3.7167 Z-0.0746 I-0.056 J0.
X4.9209 Y3.6958 Z-0.08 I0.056 J0.
X4.8344 Y3.7305 I-0.0433 J0.0174
X4.8375 Y3.7094 I0.0197 J-0.0079 F30.
G2 X4.8598 Y2.8321 I-0.5682 J-0.4534
X4.6918 Y2.6632 I-0.605 J0.434
X4.6457 Y2.6326 I-0.4383 J0.6103
G3 X4.6391 Y2.6054 I0.0103 J-0.0169
X4.666 Y2.5988 I0.0168 J0.0102
X4.6895 Y2.6136 I-0.3394 J0.5659
X4.8668 Y3.736 I-0.4226 J0.642
X4.8388 Y3.7374 I-0.0146 J-0.0117
G1 X4.8371 Y3.7353
X4.8356 Y3.733
X4.8344 Y3.7305
G2 X4.811 Y3.7103 I-0.0313 J0.0126
G3 X4.801 Y3.681 I0.0043 J-0.0178
G1 X4.8013 Y3.6805
G2 X4.6216 Y2.6721 I-0.5362 J-0.4247
G3 X4.6904 Y2.5594 I0.0344 J-0.0563
X4.903 Y3.7648 I-0.4253 J0.6964
X4.8102 Y3.7753 I-0.0516 J-0.0412
X4.7998 Y3.6825 I0.0412 J-0.0516
G1 X4.801 Y3.681
G3 X4.8145 Y3.6827 I0.0063 J0.005
G1 X4.8281 Y3.7134
G3 X4.8135 Y3.7199 I-0.0073 J0.0032
X4.8128 Y3.7167 I0.0073 J-0.0032
X4.9249 Y3.7166 Z-0.0861 I0.056 J0. F20.
X4.8128 Y3.7167 Z-0.0923 I-0.056 J0.
X4.9249 Y3.7166 Z-0.0984 I0.056 J0.
X4.8128 Y3.7167 Z-0.1046 I-0.056 J0.
X4.9209 Y3.6958 Z-0.11 I0.056 J0.
X4.8344 Y3.7305 I-0.0433 J0.0174
X4.8375 Y3.7094 I0.0197 J-0.0079 F30.
G2 X4.8598 Y2.8321 I-0.5682 J-0.4534
X4.6918 Y2.6632 I-0.605 J0.434
X4.6457 Y2.6326 I-0.4383 J0.6103
G3 X4.6391 Y2.6054 I0.0103 J-0.0169
X4.666 Y2.5988 I0.0168 J0.0102
X4.6895 Y2.6136 I-0.3394 J0.5659
X4.8668 Y3.736 I-0.4226 J0.642
X4.8388 Y3.7374 I-0.0146 J-0.0117
G1 X4.8371 Y3.7353
X4.8356 Y3.733
X4.8344 Y3.7305
G2 X4.811 Y3.7103 I-0.0313 J0.0126
G3 X4.801 Y3.681 I0.0043 J-0.0178
G1 X4.8013 Y3.6805
G2 X4.6216 Y2.6721 I-0.5362 J-0.4247
G3 X4.6904 Y2.5594 I0.0344 J-0.0563
X4.903 Y3.7648 I-0.4253 J0.6964
X4.8102 Y3.7753 I-0.0516 J-0.0412
X4.7998 Y3.6825 I0.0412 J-0.0516
G1 X4.801 Y3.681
G3 X4.8145 Y3.6827 I0.0063 J0.005
G1 X4.8281 Y3.7134
G3 X4.8135 Y3.7199 I-0.0073 J0.0032
X4.8128 Y3.7167 I0.0073 J-0.0032
X4.9249 Y3.7166 Z-0.1161 I0.056 J0. F20.
X4.8128 Y3.7167 Z-0.1223 I-0.056 J0.
X4.9249 Y3.7166 Z-0.1284 I0.056 J0.
X4.8128 Y3.7167 Z-0.1346 I-0.056 J0.
X4.9209 Y3.6958 Z-0.14 I0.056 J0.
X4.8344 Y3.7305 I-0.0433 J0.0174
X4.8375 Y3.7094 I0.0197 J-0.0079 F30.
G2 X4.8598 Y2.8321 I-0.5682 J-0.4534
X4.6918 Y2.6632 I-0.605 J0.434
X4.6457 Y2.6326 I-0.4383 J0.6103
G3 X4.6391 Y2.6054 I0.0103 J-0.0169
X4.666 Y2.5988 I0.0168 J0.0102
X4.6895 Y2.6136 I-0.3394 J0.5659
X4.8668 Y3.736 I-0.4226 J0.642
X4.8388 Y3.7374 I-0.0146 J-0.0117
G1 X4.8371 Y3.7353
X4.8356 Y3.733
X4.8344 Y3.7305
G2 X4.811 Y3.7103 I-0.0313 J0.0126
G3 X4.801 Y3.681 I0.0043 J-0.0178
G1 X4.8013 Y3.6805
G2 X4.6216 Y2.6721 I-0.5362 J-0.4247
G3 X4.6904 Y2.5594 I0.0344 J-0.0563
X4.903 Y3.7648 I-0.4253 J0.6964
X4.8102 Y3.7753 I-0.0516 J-0.0412
X4.7998 Y3.6825 I0.0412 J-0.0516
G1 X4.801 Y3.681
G3 X4.8145 Y3.6827 I0.0063 J0.005
G1 X4.8281 Y3.7134
G3 X4.8135 Y3.7199 I-0.0073 J0.0032
X4.8128 Y3.7167 I0.0073 J-0.0032
X4.9249 Y3.7166 Z-0.1461 I0.056 J0. F20.
X4.8128 Y3.7167 Z-0.1523 I-0.056 J0.
X4.9249 Y3.7166 Z-0.1584 I0.056 J0.
X4.8128 Y3.7167 Z-0.1646 I-0.056 J0.
X4.9209 Y3.6958 Z-0.17 I0.056 J0.
X4.8344 Y3.7305 I-0.0433 J0.0174
X4.8375 Y3.7094 I0.0197 J-0.0079 F30.
G2 X4.8598 Y2.8321 I-0.5682 J-0.4534
X4.6918 Y2.6632 I-0.605 J0.434
X4.6457 Y2.6326 I-0.4383 J0.6103
G3 X4.6391 Y2.6054 I0.0103 J-0.0169
X4.666 Y2.5988 I0.0168 J0.0102
X4.6895 Y2.6136 I-0.3394 J0.5659
X4.8668 Y3.736 I-0.4226 J0.642
X4.8388 Y3.7374 I-0.0146 J-0.0117
G1 X4.8371 Y3.7353
X4.8356 Y3.733
X4.8344 Y3.7305
G2 X4.811 Y3.7103 I-0.0313 J0.0126
G3 X4.801 Y3.681 I0.0043 J-0.0178
G1 X4.8013 Y3.6805
G2 X4.6216 Y2.6721 I-0.5362 J-0.4247
G3 X4.6904 Y2.5594 I0.0344 J-0.0563
X4.903 Y3.7648 I-0.4253 J0.6964
X4.8102 Y3.7753 I-0.0516 J-0.0412
X4.7998 Y3.6825 I0.0412 J-0.0516
G1 X4.801 Y3.681
G3 X4.8145 Y3.6827 I0.0063 J0.005
G1 X4.8281 Y3.7134
G3 X4.8135 Y3.7199 I-0.0073 J0.0032
X4.8128 Y3.7167 I0.0073 J-0.0032
X4.9249 Y3.7166 Z-0.1761 I0.056 J0. F20.
X4.8128 Y3.7167 Z-0.1823 I-0.056 J0.
X4.9249 Y3.7166 Z-0.1884 I0.056 J0.
X4.8128 Y3.7167 Z-0.1946 I-0.056 J0.
X4.9209 Y3.6958 Z-0.2 I0.056 J0.
X4.8344 Y3.7305 I-0.0433 J0.0174
X4.8375 Y3.7094 I0.0197 J-0.0079 F30.
G2 X4.8598 Y2.8321 I-0.5682 J-0.4534
X4.6918 Y2.6632 I-0.605 J0.434
X4.6457 Y2.6326 I-0.4383 J0.6103
G3 X4.6391 Y2.6054 I0.0103 J-0.0169
X4.666 Y2.5988 I0.0168 J0.0102
X4.6895 Y2.6136 I-0.3394 J0.5659
X4.8668 Y3.736 I-0.4226 J0.642
X4.8388 Y3.7374 I-0.0146 J-0.0117
G1 X4.8371 Y3.7353
X4.8356 Y3.733
X4.8344 Y3.7305
G2 X4.811 Y3.7103 I-0.0313 J0.0126
G3 X4.801 Y3.681 I0.0043 J-0.0178
G1 X4.8013 Y3.6805
G2 X4.6216 Y2.6721 I-0.5362 J-0.4247
G3 X4.6904 Y2.5594 I0.0344 J-0.0563
X4.903 Y3.7648 I-0.4253 J0.6964
X4.8102 Y3.7753 I-0.0516 J-0.0412
X4.7998 Y3.6825 I0.0412 J-0.0516
G1 X4.801 Y3.681
G3 X4.8145 Y3.6827 I0.0063 J0.005
G1 X4.8281 Y3.7134
G3 X4.8135 Y3.7199 I-0.0073 J0.0032
X4.8128 Y3.7167 I0.0073 J-0.0032
X4.9249 Y3.7166 Z-0.2061 I0.056 J0. F20.
X4.8128 Y3.7167 Z-0.2123 I-0.056 J0.
X4.9249 Y3.7166 Z-0.2184 I0.056 J0.
X4.8128 Y3.7167 Z-0.2246 I-0.056 J0.
X4.9209 Y3.6958 Z-0.23 I0.056 J0.
X4.8344 Y3.7305 I-0.0433 J0.0174
X4.8375 Y3.7094 I0.0197 J-0.0079 F30.
G2 X4.8598 Y2.8321 I-0.5682 J-0.4534
X4.6918 Y2.6632 I-0.605 J0.434
X4.6457 Y2.6326 I-0.4383 J0.6103
G3 X4.6391 Y2.6054 I0.0103 J-0.0169
X4.666 Y2.5988 I0.0168 J0.0102
X4.6895 Y2.6136 I-0.3394 J0.5659
X4.8668 Y3.736 I-0.4226 J0.642
X4.8388 Y3.7374 I-0.0146 J-0.0117
G1 X4.8371 Y3.7353
X4.8356 Y3.733
X4.8344 Y3.7305
G2 X4.811 Y3.7103 I-0.0313 J0.0126
G3 X4.801 Y3.681 I0.0043 J-0.0178
G1 X4.8013 Y3.6805
G2 X4.6216 Y2.6721 I-0.5362 J-0.4247
G3 X4.6904 Y2.5594 I0.0344 J-0.0563
X4.903 Y3.7648 I-0.4253 J0.6964
X4.8102 Y3.7753 I-0.0516 J-0.0412
X4.7998 Y3.6825 I0.0412 J-0.0516
G1 X4.801 Y3.681
G3 X4.8145 Y3.6827 I0.0063 J0.005
G1 X4.8281 Y3.7134
G3 X4.8135 Y3.7199 I-0.0073 J0.0032
X4.8128 Y3.7167 I0.0073 J-0.0032
X4.9249 Y3.7166 Z-0.2361 I0.056 J0. F20.
X4.8128 Y3.7167 Z-0.2423 I-0.056 J0.
X4.9249 Y3.7166 Z-0.2484 I0.056 J0.
X4.8128 Y3.7167 Z-0.2546 I-0.056 J0.
X4.9209 Y3.6958 Z-0.26 I0.056 J0.
X4.8344 Y3.7305 I-0.0433 J0.0174
X4.8375 Y3.7094 I0.0197 J-0.0079 F30.
G2 X4.8598 Y2.8321 I-0.5682 J-0.4534
X4.6918 Y2.6632 I-0.605 J0.434
X4.6457 Y2.6326 I-0.4383 J0.6103
G3 X4.6391 Y2.6054 I0.0103 J-0.0169
X4.666 Y2.5988 I0.0168 J0.0102
X4.6895 Y2.6136 I-0.3394 J0.5659
X4.8668 Y3.736 I-0.4226 J0.642
X4.8388 Y3.7374 I-0.0146 J-0.0117
G1 X4.8371 Y3.7353
X4.8356 Y3.733
X4.8344 Y3.7305
G2 X4.811 Y3.7103 I-0.0313 J0.0126
G3 X4.801 Y3.681 I0.0043 J-0.0178
G1 X4.8013 Y3.6805
G2 X4.6216 Y2.6721 I-0.5362 J-0.4247
G3 X4.6904 Y2.5594 I0.0344 J-0.0563
X4.903 Y3.7648 I-0.4253 J0.6964
X4.8102 Y3.7753 I-0.0516 J-0.0412
X4.7998 Y3.6825 I0.0412 J-0.0516
G1 X4.801 Y3.681
X4.8023 Y3.6798
X4.804 Y3.679
X4.8058 Y3.6788
X4.8077 Y3.6792
X4.8093 Y3.6801
X4.8559 Y3.7173
X4.9071 Y3.7473
X4.9085 Y3.7484
X4.9094 Y3.7499
X4.9099 Y3.7516
Y3.7534
X4.9093 Y3.7551
X4.9082 Y3.7566
G3 X4.8295 Y3.6767 Z-0.2661 I-0.0393 J-0.0399 F20.
X4.9209 Y3.6958 Z-0.27 I0.0393 J0.0399
X4.8344 Y3.7305 I-0.0433 J0.0174
X4.8375 Y3.7094 I0.0197 J-0.0079 F30.
G2 X4.8598 Y2.8321 I-0.5682 J-0.4534
X4.6918 Y2.6632 I-0.605 J0.434
X4.6457 Y2.6326 I-0.4383 J0.6103
G3 X4.6391 Y2.6054 I0.0103 J-0.0169
X4.666 Y2.5988 I0.0168 J0.0102
X4.6895 Y2.6136 I-0.3394 J0.5659
X4.8668 Y3.736 I-0.4226 J0.642
X4.8388 Y3.7374 I-0.0146 J-0.0117
G1 X4.8371 Y3.7353
X4.8356 Y3.733
X4.8344 Y3.7305
G2 X4.811 Y3.7103 I-0.0313 J0.0126
G3 X4.801 Y3.681 I0.0043 J-0.0178
G1 X4.8013 Y3.6805
G2 X4.6216 Y2.6721 I-0.5362 J-0.4247
G3 X4.6904 Y2.5594 I0.0344 J-0.0563
X4.903 Y3.7648 I-0.4253 J0.6964
X4.8102 Y3.7753 I-0.0516 J-0.0412
X4.7998 Y3.6825 I0.0412 J-0.0516
G1 X4.801 Y3.681
X4.8025 Y3.6794 Z-0.2696
X4.8044 Y3.6781 Z-0.2691
X4.8061 Y3.6773 Z-0.2678
X4.8079 Y3.6768 Z-0.2665
X4.8105 Y3.6766 Z-0.2627
X4.8114 Z-0.2582
G0 Z0.24
X0.6315 Y3.6732
G1 Z0.1518 F30.
X0.633 Y3.6736 Z0.146 F20.
X0.6369 Y3.6748 Z0.1417
X0.6422 Y3.6771 Z0.14
G3 X0.5927 Y3.7777 Z0.1339 I-0.0247 J0.0503
X0.6422 Y3.6771 Z0.1277 I0.0247 J-0.0503
X0.5927 Y3.7777 Z0.1216 I-0.0247 J0.0503
X0.6422 Y3.6771 Z0.1154 I0.0247 J-0.0503
X0.5927 Y3.7777 Z0.1093 I-0.0247 J0.0503
X0.6422 Y3.6771 Z0.1031 I0.0247 J-0.0503
X0.5927 Y3.7777 Z0.097 I-0.0247 J0.0503
X0.6422 Y3.6771 Z0.0908 I0.0247 J-0.0503
X0.5927 Y3.7777 Z0.0847 I-0.0247 J0.0503
X0.6422 Y3.6771 Z0.0785 I0.0247 J-0.0503
X0.5927 Y3.7777 Z0.0724 I-0.0247 J0.0503
X0.6422 Y3.6771 Z0.0662 I0.0247 J-0.0503
X0.5927 Y3.7777 Z0.0601 I-0.0247 J0.0503
X0.6422 Y3.6771 Z0.0539 I0.0247 J-0.0503
X0.5927 Y3.7777 Z0.0478 I-0.0247 J0.0503
X0.6422 Y3.6771 Z0.0416 I0.0247 J-0.0503
X0.5927 Y3.7777 Z0.0355 I-0.0247 J0.0503
X0.6422 Y3.6771 Z0.0293 I0.0247 J-0.0503
X0.5927 Y3.7777 Z0.0232 I-0.0247 J0.0503
X0.6422 Y3.6771 Z0.017 I0.0247 J-0.0503
X0.5927 Y3.7777 Z0.0109 I-0.0247 J0.0503
X0.5735 Y3.7622 Z0.01 I0.0247 J-0.0503
X0.6401 Y3.7095 I0.0333 J-0.0263
G1 X0.6416 Y3.7114 F30.
G3 X0.6385 Y3.7392 I-0.0155 J0.0123
X0.6081 Y3.7346 I-0.0131 J-0.0164
G2 X0.5904 Y3.7095 I-0.7012 J0.4764
G3 X0.8112 Y2.5988 I0.6191 J-0.4543
X0.8318 Y2.6326 I0.0103 J0.0169
G2 X0.5085 Y3.4507 I0.3805 J0.6233
X0.6087 Y3.6669 I0.7171 J-0.2011
X0.6401 Y3.7095 I0.6213 J-0.4242
X0.6689 Y3.7215 I0.0252 J-0.0199
G3 X0.6883 Y3.7459 I0.0021 J0.0183
X0.5745 Y3.7649 I-0.0622 J-0.0222
X0.7871 Y2.5594 I0.6377 J-0.5091
X0.8559 Y2.672 I0.0344 J0.0563
G2 X0.6777 Y3.6826 I0.3564 J0.5838
G3 X0.6883 Y3.7459 I-0.0516 J0.0412
X0.6739 Y3.7473 I-0.0075 J-0.0027
G1 X0.6566 Y3.7178
G3 X0.6603 Y3.7064 I0.0069 J-0.004
X0.6712 Y3.7115 I0.0032 J0.0073
X0.5637 Y3.7434 Z0.0039 I-0.0537 J0.016 F20.
X0.6712 Y3.7115 Z-0.0023 I0.0537 J-0.016
X0.5637 Y3.7434 Z-0.0084 I-0.0537 J0.016
X0.6712 Y3.7115 Z-0.0146 I0.0537 J-0.016
X0.5735 Y3.7622 Z-0.02 I-0.0537 J0.016
X0.6401 Y3.7095 I0.0333 J-0.0263
G1 X0.6416 Y3.7114 F30.
G3 X0.6385 Y3.7392 I-0.0155 J0.0123
X0.6081 Y3.7346 I-0.0131 J-0.0164
G2 X0.5904 Y3.7095 I-0.7012 J0.4764
G3 X0.8112 Y2.5988 I0.6191 J-0.4543
X0.8318 Y2.6326 I0.0103 J0.0169
G2 X0.5085 Y3.4507 I0.3805 J0.6233
X0.6087 Y3.6669 I0.7171 J-0.2011
X0.6401 Y3.7095 I0.6213 J-0.4242
X0.6689 Y3.7215 I0.0252 J-0.0199
G3 X0.6883 Y3.7459 I0.0021 J0.0183
X0.5745 Y3.7649 I-0.0622 J-0.0222
X0.7871 Y2.5594 I0.6377 J-0.5091
X0.8559 Y2.672 I0.0344 J0.0563
G2 X0.6777 Y3.6826 I0.3564 J0.5838
G3 X0.6883 Y3.7459 I-0.0516 J0.0412
X0.6739 Y3.7473 I-0.0075 J-0.0027
G1 X0.6566 Y3.7178
G3 X0.6603 Y3.7064 I0.0069 J-0.004
X0.6712 Y3.7115 I0.0032 J0.0073
X0.5637 Y3.7434 Z-0.0261 I-0.0537 J0.016 F20.
X0.6712 Y3.7115 Z-0.0323 I0.0537 J-0.016
X0.5637 Y3.7434 Z-0.0384 I-0.0537 J0.016
X0.6712 Y3.7115 Z-0.0446 I0.0537 J-0.016
X0.5735 Y3.7622 Z-0.05 I-0.0537 J0.016
X0.6401 Y3.7095 I0.0333 J-0.0263
G1 X0.6416 Y3.7114 F30.
G3 X0.6385 Y3.7392 I-0.0155 J0.0123
X0.6081 Y3.7346 I-0.0131 J-0.0164
G2 X0.5904 Y3.7095 I-0.7012 J0.4764
G3 X0.8112 Y2.5988 I0.6191 J-0.4543
X0.8318 Y2.6326 I0.0103 J0.0169
G2 X0.5085 Y3.4507 I0.3805 J0.6233
X0.6087 Y3.6669 I0.7171 J-0.2011
X0.6401 Y3.7095 I0.6213 J-0.4242
X0.6689 Y3.7215 I0.0252 J-0.0199
G3 X0.6883 Y3.7459 I0.0021 J0.0183
X0.5745 Y3.7649 I-0.0622 J-0.0222
X0.7871 Y2.5594 I0.6377 J-0.5091
X0.8559 Y2.672 I0.0344 J0.0563
G2 X0.6777 Y3.6826 I0.3564 J0.5838
G3 X0.6883 Y3.7459 I-0.0516 J0.0412
X0.6739 Y3.7473 I-0.0075 J-0.0027
G1 X0.6566 Y3.7178
G3 X0.6603 Y3.7064 I0.0069 J-0.004
X0.6712 Y3.7115 I0.0032 J0.0073
X0.5637 Y3.7434 Z-0.0561 I-0.0537 J0.016 F20.
X0.6712 Y3.7115 Z-0.0623 I0.0537 J-0.016
X0.5637 Y3.7434 Z-0.0684 I-0.0537 J0.016
X0.6712 Y3.7115 Z-0.0746 I0.0537 J-0.016
X0.5735 Y3.7622 Z-0.08 I-0.0537 J0.016
X0.6401 Y3.7095 I0.0333 J-0.0263
G1 X0.6416 Y3.7114 F30.
G3 X0.6385 Y3.7392 I-0.0155 J0.0123
X0.6081 Y3.7346 I-0.0131 J-0.0164
G2 X0.5904 Y3.7095 I-0.7012 J0.4764
G3 X0.8112 Y2.5988 I0.6191 J-0.4543
X0.8318 Y2.6326 I0.0103 J0.0169
G2 X0.5085 Y3.4507 I0.3805 J0.6233
X0.6087 Y3.6669 I0.7171 J-0.2011
X0.6401 Y3.7095 I0.6213 J-0.4242
X0.6689 Y3.7215 I0.0252 J-0.0199
G3 X0.6883 Y3.7459 I0.0021 J0.0183
X0.5745 Y3.7649 I-0.0622 J-0.0222
X0.7871 Y2.5594 I0.6377 J-0.5091
X0.8559 Y2.672 I0.0344 J0.0563
G2 X0.6777 Y3.6826 I0.3564 J0.5838
G3 X0.6883 Y3.7459 I-0.0516 J0.0412
X0.6739 Y3.7473 I-0.0075 J-0.0027
G1 X0.6566 Y3.7178
G3 X0.6603 Y3.7064 I0.0069 J-0.004
X0.6712 Y3.7115 I0.0032 J0.0073
X0.5637 Y3.7434 Z-0.0861 I-0.0537 J0.016 F20.
X0.6712 Y3.7115 Z-0.0923 I0.0537 J-0.016
X0.5637 Y3.7434 Z-0.0984 I-0.0537 J0.016
X0.6712 Y3.7115 Z-0.1046 I0.0537 J-0.016
X0.5735 Y3.7622 Z-0.11 I-0.0537 J0.016
X0.6401 Y3.7095 I0.0333 J-0.0263
G1 X0.6416 Y3.7114 F30.
G3 X0.6385 Y3.7392 I-0.0155 J0.0123
X0.6081 Y3.7346 I-0.0131 J-0.0164
G2 X0.5904 Y3.7095 I-0.7012 J0.4764
G3 X0.8112 Y2.5988 I0.6191 J-0.4543
X0.8318 Y2.6326 I0.0103 J0.0169
G2 X0.5085 Y3.4507 I0.3805 J0.6233
X0.6087 Y3.6669 I0.7171 J-0.2011
X0.6401 Y3.7095 I0.6213 J-0.4242
X0.6689 Y3.7215 I0.0252 J-0.0199
G3 X0.6883 Y3.7459 I0.0021 J0.0183
X0.5745 Y3.7649 I-0.0622 J-0.0222
X0.7871 Y2.5594 I0.6377 J-0.5091
X0.8559 Y2.672 I0.0344 J0.0563
G2 X0.6777 Y3.6826 I0.3564 J0.5838
G3 X0.6883 Y3.7459 I-0.0516 J0.0412
X0.6739 Y3.7473 I-0.0075 J-0.0027
G1 X0.6566 Y3.7178
G3 X0.6603 Y3.7064 I0.0069 J-0.004
X0.6712 Y3.7115 I0.0032 J0.0073
X0.5637 Y3.7434 Z-0.1161 I-0.0537 J0.016 F20.
X0.6712 Y3.7115 Z-0.1223 I0.0537 J-0.016
X0.5637 Y3.7434 Z-0.1284 I-0.0537 J0.016
X0.6712 Y3.7115 Z-0.1346 I0.0537 J-0.016
X0.5735 Y3.7622 Z-0.14 I-0.0537 J0.016
X0.6401 Y3.7095 I0.0333 J-0.0263
G1 X0.6416 Y3.7114 F30.
G3 X0.6385 Y3.7392 I-0.0155 J0.0123
X0.6081 Y3.7346 I-0.0131 J-0.0164
G2 X0.5904 Y3.7095 I-0.7012 J0.4764
G3 X0.8112 Y2.5988 I0.6191 J-0.4543
X0.8318 Y2.6326 I0.0103 J0.0169
G2 X0.5085 Y3.4507 I0.3805 J0.6233
X0.6087 Y3.6669 I0.7171 J-0.2011
X0.6401 Y3.7095 I0.6213 J-0.4242
X0.6689 Y3.7215 I0.0252 J-0.0199
G3 X0.6883 Y3.7459 I0.0021 J0.0183
X0.5745 Y3.7649 I-0.0622 J-0.0222
X0.7871 Y2.5594 I0.6377 J-0.5091
X0.8559 Y2.672 I0.0344 J0.0563
G2 X0.6777 Y3.6826 I0.3564 J0.5838
G3 X0.6883 Y3.7459 I-0.0516 J0.0412
X0.6739 Y3.7473 I-0.0075 J-0.0027
G1 X0.6566 Y3.7178
G3 X0.6603 Y3.7064 I0.0069 J-0.004
X0.6712 Y3.7115 I0.0032 J0.0073
X0.5637 Y3.7434 Z-0.1461 I-0.0537 J0.016 F20.
X0.6712 Y3.7115 Z-0.1523 I0.0537 J-0.016
X0.5637 Y3.7434 Z-0.1584 I-0.0537 J0.016
X0.6712 Y3.7115 Z-0.1646 I0.0537 J-0.016
X0.5735 Y3.7622 Z-0.17 I-0.0537 J0.016
X0.6401 Y3.7095 I0.0333 J-0.0263
G1 X0.6416 Y3.7114 F30.
G3 X0.6385 Y3.7392 I-0.0155 J0.0123
X0.6081 Y3.7346 I-0.0131 J-0.0164
G2 X0.5904 Y3.7095 I-0.7012 J0.4764
G3 X0.8112 Y2.5988 I0.6191 J-0.4543
X0.8318 Y2.6326 I0.0103 J0.0169
G2 X0.5085 Y3.4507 I0.3805 J0.6233
X0.6087 Y3.6669 I0.7171 J-0.2011
X0.6401 Y3.7095 I0.6213 J-0.4242
X0.6689 Y3.7215 I0.0252 J-0.0199
G3 X0.6883 Y3.7459 I0.0021 J0.0183
X0.5745 Y3.7649 I-0.0622 J-0.0222
X0.7871 Y2.5594 I0.6377 J-0.5091
X0.8559 Y2.672 I0.0344 J0.0563
G2 X0.6777 Y3.6826 I0.3564 J0.5838
G3 X0.6883 Y3.7459 I-0.0516 J0.0412
X0.6739 Y3.7473 I-0.0075 J-0.0027
G1 X0.6566 Y3.7178
G3 X0.6603 Y3.7064 I0.0069 J-0.004
X0.6712 Y3.7115 I0.0032 J0.0073
X0.5637 Y3.7434 Z-0.1761 I-0.0537 J0.016 F20.
X0.6712 Y3.7115 Z-0.1823 I0.0537 J-0.016
X0.5637 Y3.7434 Z-0.1884 I-0.0537 J0.016
X0.6712 Y3.7115 Z-0.1946 I0.0537 J-0.016
X0.5735 Y3.7622 Z-0.2 I-0.0537 J0.016
X0.6401 Y3.7095 I0.0333 J-0.0263
G1 X0.6416 Y3.7114 F30.
G3 X0.6385 Y3.7392 I-0.0155 J0.0123
X0.6081 Y3.7346 I-0.0131 J-0.0164
G2 X0.5904 Y3.7095 I-0.7012 J0.4764
G3 X0.8112 Y2.5988 I0.6191 J-0.4543
X0.8318 Y2.6326 I0.0103 J0.0169
G2 X0.5085 Y3.4507 I0.3805 J0.6233
X0.6087 Y3.6669 I0.7171 J-0.2011
X0.6401 Y3.7095 I0.6213 J-0.4242
X0.6689 Y3.7215 I0.0252 J-0.0199
G3 X0.6883 Y3.7459 I0.0021 J0.0183
X0.5745 Y3.7649 I-0.0622 J-0.0222
X0.7871 Y2.5594 I0.6377 J-0.5091
X0.8559 Y2.672 I0.0344 J0.0563
G2 X0.6777 Y3.6826 I0.3564 J0.5838
G3 X0.6883 Y3.7459 I-0.0516 J0.0412
X0.6739 Y3.7473 I-0.0075 J-0.0027
G1 X0.6566 Y3.7178
G3 X0.6603 Y3.7064 I0.0069 J-0.004
X0.6712 Y3.7115 I0.0032 J0.0073
X0.5637 Y3.7434 Z-0.2061 I-0.0537 J0.016 F20.
X0.6712 Y3.7115 Z-0.2123 I0.0537 J-0.016
X0.5637 Y3.7434 Z-0.2184 I-0.0537 J0.016
X0.6712 Y3.7115 Z-0.2246 I0.0537 J-0.016
X0.5735 Y3.7622 Z-0.23 I-0.0537 J0.016
X0.6401 Y3.7095 I0.0333 J-0.0263
G1 X0.6416 Y3.7114 F30.
G3 X0.6385 Y3.7392 I-0.0155 J0.0123
X0.6081 Y3.7346 I-0.0131 J-0.0164
G2 X0.5904 Y3.7095 I-0.7012 J0.4764
G3 X0.8112 Y2.5988 I0.6191 J-0.4543
X0.8318 Y2.6326 I0.0103 J0.0169
G2 X0.5085 Y3.4507 I0.3805 J0.6233
X0.6087 Y3.6669 I0.7171 J-0.2011
X0.6401 Y3.7095 I0.6213 J-0.4242
X0.6689 Y3.7215 I0.0252 J-0.0199
G3 X0.6883 Y3.7459 I0.0021 J0.0183
X0.5745 Y3.7649 I-0.0622 J-0.0222
X0.7871 Y2.5594 I0.6377 J-0.5091
X0.8559 Y2.672 I0.0344 J0.0563
G2 X0.6777 Y3.6826 I0.3564 J0.5838
G3 X0.6883 Y3.7459 I-0.0516 J0.0412
X0.6739 Y3.7473 I-0.0075 J-0.0027
G1 X0.6566 Y3.7178
G3 X0.6603 Y3.7064 I0.0069 J-0.004
X0.6712 Y3.7115 I0.0032 J0.0073
X0.5637 Y3.7434 Z-0.2361 I-0.0537 J0.016 F20.
X0.6712 Y3.7115 Z-0.2423 I0.0537 J-0.016
X0.5637 Y3.7434 Z-0.2484 I-0.0537 J0.016
X0.6712 Y3.7115 Z-0.2546 I0.0537 J-0.016
X0.5735 Y3.7622 Z-0.26 I-0.0537 J0.016
X0.6401 Y3.7095 I0.0333 J-0.0263
G1 X0.6416 Y3.7114 F30.
G3 X0.6385 Y3.7392 I-0.0155 J0.0123
X0.6081 Y3.7346 I-0.0131 J-0.0164
G2 X0.5904 Y3.7095 I-0.7012 J0.4764
G3 X0.8112 Y2.5988 I0.6191 J-0.4543
X0.8318 Y2.6326 I0.0103 J0.0169
G2 X0.5085 Y3.4507 I0.3805 J0.6233
X0.6087 Y3.6669 I0.7171 J-0.2011
X0.6401 Y3.7095 I0.6213 J-0.4242
X0.6689 Y3.7215 I0.0252 J-0.0199
G3 X0.6883 Y3.7459 I0.0021 J0.0183
X0.5745 Y3.7649 I-0.0622 J-0.0222
X0.7871 Y2.5594 I0.6377 J-0.5091
X0.8559 Y2.672 I0.0344 J0.0563
G2 X0.6777 Y3.6826 I0.3564 J0.5838
G3 X0.6883 Y3.7459 I-0.0516 J0.0412
G1 X0.6875 Y3.7474
X0.6864 Y3.7485
X0.685 Y3.7494
X0.6835 Y3.7498
X0.6819
X0.6803 Y3.7493
X0.6273 Y3.7255
X0.5718 Y3.7088
X0.5702 Y3.7081
X0.569 Y3.7069
X0.5681 Y3.7054
X0.5677 Y3.7037
X0.5678 Y3.7019
X0.5684 Y3.7003
G3 X0.6665 Y3.7545 Z-0.2661 I0.0491 J0.0271 F20.
X0.5735 Y3.7622 Z-0.27 I-0.0491 J-0.0271
X0.6401 Y3.7095 I0.0333 J-0.0263
G1 X0.6416 Y3.7114 F30.
G3 X0.6385 Y3.7392 I-0.0155 J0.0123
X0.6081 Y3.7346 I-0.0131 J-0.0164
G2 X0.5904 Y3.7095 I-0.7012 J0.4764
G3 X0.8112 Y2.5988 I0.6191 J-0.4543
X0.8318 Y2.6326 I0.0103 J0.0169
G2 X0.5085 Y3.4507 I0.3805 J0.6233
X0.6087 Y3.6669 I0.7171 J-0.2011
X0.6401 Y3.7095 I0.6213 J-0.4242
X0.6689 Y3.7215 I0.0252 J-0.0199
G3 X0.6883 Y3.7459 I0.0021 J0.0183
X0.5745 Y3.7649 I-0.0622 J-0.0222
X0.7871 Y2.5594 I0.6377 J-0.5091
X0.8559 Y2.672 I0.0344 J0.0563
G2 X0.6777 Y3.6826 I0.3564 J0.5838
G3 X0.6883 Y3.7459 I-0.0516 J0.0412
G1 X0.6873 Y3.748 Z-0.2696
X0.686 Y3.7498 Z-0.2691
X0.6846 Y3.7511 Z-0.2678
X0.6831 Y3.7522 Z-0.2665
X0.6807 Y3.7532 Z-0.2627
X0.6798 Y3.7535 Z-0.2582
G0 Z0.64

M9
M30
