(X4 GEARBOX UPPER LEFT POCKET RUN 2.7)
(T3  D=0.118 CR=0. - ZMIN=-0.27 - FLAT END MILL)
G90 G94 G91.1 G40 G49 G17
G20

(2D POCKET7)
M5
T3 M6
S15000 M3
G54
M8
G0 X1.8691 Y4.2195
G43 Z0.64 H3
Z0.24
G1 Z0.1518 F30.
X1.8677 Y4.22 Z0.146 F20.
X1.8638 Y4.2212 Z0.1417
X1.8582 Y4.2224 Z0.14
G3 X1.8404 Y4.1117 Z0.1339 I-0.0089 J-0.0553
X1.8582 Y4.2224 Z0.1277 I0.0089 J0.0553
X1.8404 Y4.1117 Z0.1216 I-0.0089 J-0.0553
X1.8582 Y4.2224 Z0.1154 I0.0089 J0.0553
X1.8404 Y4.1117 Z0.1093 I-0.0089 J-0.0553
X1.8582 Y4.2224 Z0.1031 I0.0089 J0.0553
X1.8404 Y4.1117 Z0.097 I-0.0089 J-0.0553
X1.8582 Y4.2224 Z0.0908 I0.0089 J0.0553
X1.8404 Y4.1117 Z0.0847 I-0.0089 J-0.0553
X1.8582 Y4.2224 Z0.0785 I0.0089 J0.0553
X1.8404 Y4.1117 Z0.0724 I-0.0089 J-0.0553
X1.8582 Y4.2224 Z0.0662 I0.0089 J0.0553
X1.8404 Y4.1117 Z0.0601 I-0.0089 J-0.0553
X1.8582 Y4.2224 Z0.0539 I0.0089 J0.0553
X1.8404 Y4.1117 Z0.0478 I-0.0089 J-0.0553
X1.8582 Y4.2224 Z0.0416 I0.0089 J0.0553
X1.8404 Y4.1117 Z0.0355 I-0.0089 J-0.0553
X1.8582 Y4.2224 Z0.0293 I0.0089 J0.0553
X1.8404 Y4.1117 Z0.0232 I-0.0089 J-0.0553
X1.8582 Y4.2224 Z0.017 I0.0089 J0.0553
X1.8064 Y4.2031 Z0.015 I-0.0089 J-0.0553
G1 X1.8063 Y4.203 F30.
X1.8055 Y4.2015
X1.8051 Y4.1998
X1.8054 Y4.1981
X1.8062 Y4.1966
X1.8075 Y4.1955
X1.8089 Y4.1948
X1.8105 Y4.1946
X1.812 Y4.1949
X1.8134 Y4.1956
X1.8145 Y4.1967
G2 X1.9167 Y4.3186 I0.9161 J-0.6649
G1 X1.9176 Y4.3198
X1.9181 Y4.3213
Y4.3228
X1.9177 Y4.3243
X1.9168 Y4.3256
X1.9154 Y4.3267
X1.9138 Y4.3272
X1.912
X1.9104 Y4.3266
X1.9091 Y4.3255
X1.8064 Y4.2031
G2 X1.7618 Y4.179 I-0.0528 J0.0443
G3 X1.751 Y4.1295 I0.0032 J-0.0266
G2 X1.8247 Y4.0795 I-0.5286 J-0.858
G3 X1.8412 Y4.0826 I0.0068 J0.0092
G2 X2.0337 Y4.312 I0.8879 J-0.5495
G3 X2.0339 Y4.3289 I-0.0076 J0.0085
G2 X1.9399 Y4.4305 I0.7064 J0.7476
G3 X1.9166 Y4.438 I-0.0174 J-0.014
G2 X1.8971 Y4.4329 I-0.1873 J0.6732
G3 X1.8759 Y4.4197 I0.0097 J-0.0391
G1 X1.7078 Y4.2193
G3 X1.6985 Y4.1962 I0.0309 J-0.0259
G2 X1.6968 Y4.1761 I-0.7137 J0.0489
G3 X1.7082 Y4.1544 I0.0222 J-0.0022
G2 X1.751 Y4.1295 I-0.4859 J-0.8829
X1.7854 Y4.0517 I-0.0394 J-0.0639
G3 X1.814 Y3.9716 I0.0828 J-0.0156
G2 X1.8528 Y3.9372 I-0.6038 J-0.7189
G3 X1.867 Y3.9399 I0.0061 J0.0066
G2 X2.1788 Y4.3114 I0.8697 J-0.4132
G3 X2.179 Y4.3259 I-0.0052 J0.0073
G2 X1.9717 Y4.5401 I0.5677 J0.7568
G3 X1.9515 Y4.5461 I-0.0139 J-0.0097
G2 X1.8571 Y4.5173 I-0.2108 J0.5222
G3 X1.8202 Y4.4952 I0.0136 J-0.0645
G1 X1.6238 Y4.2611
G3 X1.6084 Y4.2209 I0.0505 J-0.0424
G2 X1.5964 Y4.1229 I-0.561 J0.0186
G3 X1.6059 Y4.1041 I0.0165 J-0.0035
G2 X1.814 Y3.9716 I-0.3957 J-0.8514
X1.8353 Y3.8945 I-0.0454 J-0.054
G3 X1.8506 Y3.816 I0.0752 J-0.0261
G2 X1.8843 Y3.775 I-0.6371 J-0.5583
G3 X1.8961 Y3.7772 I0.0053 J0.0041
G2 X2.344 Y4.311 I0.8399 J-0.2499
G3 X2.3442 Y4.323 I-0.003 J0.006
G2 X2.1493 Y4.4637 I0.4006 J0.7605
X2.0016 Y4.6533 I0.5894 J0.6113
G3 X1.9846 Y4.6578 I-0.0107 J-0.0061
G2 X1.811 Y4.5962 I-0.2455 J0.416
G3 X1.7767 Y4.5769 I0.0083 J-0.055
G1 X1.5357 Y4.2898
G3 X1.5227 Y4.2526 I0.0426 J-0.0358
G2 X1.4921 Y4.071 I-0.482 J-0.0123
G3 X1.4995 Y4.055 I0.0116 J-0.0043
G2 X1.8506 Y3.816 I-0.286 J-0.7974
X1.8591 Y3.7439 I-0.0481 J-0.0422
G3 X1.8621 Y3.6714 I0.0638 J-0.0337
G2 X1.8687 Y3.6609 I-0.6484 J-0.4135
G3 X1.8908 Y3.651 I0.0184 J0.0113
G1 X1.9343 Y3.6587
G3 X1.9514 Y3.6755 I-0.0037 J0.0207
G2 X2.4538 Y4.2743 I0.7875 J-0.1506
G3 X2.4674 Y4.2939 I-0.0075 J0.0197
G1 Y4.3382
G3 X2.4537 Y4.3582 I-0.0216 J0.
G2 X2.0286 Y4.7739 I0.2832 J0.715
G3 X2.0148 Y4.7769 I-0.0079 J-0.0034
G2 X1.7711 Y4.6699 I-0.2774 J0.301
G3 X1.7393 Y4.6535 I0.0037 J-0.0462
G1 X1.4538 Y4.3133
G3 X1.4431 Y4.2791 I0.0355 J-0.0298
G2 X1.3802 Y4.0205 I-0.4035 J-0.0387
G3 X1.3855 Y4.0075 I0.0073 J-0.0047
G2 X1.8621 Y3.6714 I-0.1718 J-0.7496
X1.852 Y3.6135 I-0.0368 J-0.0234
G3 X1.8758 Y3.5597 I0.0185 J-0.024
G1 X2.0271 Y3.5864
G2 X2.5547 Y4.2152 I0.7116 J-0.0614
G1 Y4.4162
G2 X2.0799 Y4.891 I0.184 J0.6588
G1 X1.9993
G2 X1.7122 Y4.7571 I-0.2606 J0.184
G1 X1.3471 Y4.322
G2 X1.2651 Y4.016 I-0.3085 J-0.0814
G1 X1.2791 Y3.9366
G2 X1.8291 Y3.5514 I-0.0668 J-0.6807
G1 X1.8758 Y3.5597
G3 X1.9221 Y3.6166 Z0.0124 I-0.0097 J0.0552 F20.
G1 X1.9053 Y4.1688 Z-0.0056
G3 X1.8064 Y4.2031 Z-0.01 I-0.056 J-0.0017
G1 X1.8063 Y4.203 F30.
X1.8055 Y4.2015
X1.8051 Y4.1998
X1.8054 Y4.1981
X1.8062 Y4.1966
X1.8075 Y4.1955
X1.8089 Y4.1948
X1.8105 Y4.1946
X1.812 Y4.1949
X1.8134 Y4.1956
X1.8145 Y4.1967
G2 X1.9167 Y4.3186 I0.9161 J-0.6649
G1 X1.9176 Y4.3198
X1.9181 Y4.3213
Y4.3228
X1.9177 Y4.3243
X1.9168 Y4.3256
X1.9154 Y4.3267
X1.9138 Y4.3272
X1.912
X1.9104 Y4.3266
X1.9091 Y4.3255
X1.8064 Y4.2031
G2 X1.7618 Y4.179 I-0.0528 J0.0443
G3 X1.751 Y4.1295 I0.0032 J-0.0266
G2 X1.8247 Y4.0795 I-0.5286 J-0.858
G3 X1.8412 Y4.0826 I0.0068 J0.0092
G2 X2.0337 Y4.312 I0.8879 J-0.5495
G3 X2.0339 Y4.3289 I-0.0076 J0.0085
G2 X1.9399 Y4.4305 I0.7064 J0.7476
G3 X1.9166 Y4.438 I-0.0174 J-0.014
G2 X1.8971 Y4.4329 I-0.1873 J0.6732
G3 X1.8759 Y4.4197 I0.0097 J-0.0391
G1 X1.7078 Y4.2193
G3 X1.6985 Y4.1962 I0.0309 J-0.0259
G2 X1.6968 Y4.1761 I-0.7137 J0.0489
G3 X1.7082 Y4.1544 I0.0222 J-0.0022
G2 X1.751 Y4.1295 I-0.4859 J-0.8829
X1.7854 Y4.0517 I-0.0394 J-0.0639
G3 X1.814 Y3.9716 I0.0828 J-0.0156
G2 X1.8528 Y3.9372 I-0.6038 J-0.7189
G3 X1.867 Y3.9399 I0.0061 J0.0066
G2 X2.1788 Y4.3114 I0.8697 J-0.4132
G3 X2.179 Y4.3259 I-0.0052 J0.0073
G2 X1.9717 Y4.5401 I0.5677 J0.7568
G3 X1.9515 Y4.5461 I-0.0139 J-0.0097
G2 X1.8571 Y4.5173 I-0.2108 J0.5222
G3 X1.8202 Y4.4952 I0.0136 J-0.0645
G1 X1.6238 Y4.2611
G3 X1.6084 Y4.2209 I0.0505 J-0.0424
G2 X1.5964 Y4.1229 I-0.561 J0.0186
G3 X1.6059 Y4.1041 I0.0165 J-0.0035
G2 X1.814 Y3.9716 I-0.3957 J-0.8514
X1.8353 Y3.8945 I-0.0454 J-0.054
G3 X1.8506 Y3.816 I0.0752 J-0.0261
G2 X1.8843 Y3.775 I-0.6371 J-0.5583
G3 X1.8961 Y3.7772 I0.0053 J0.0041
G2 X2.344 Y4.311 I0.8399 J-0.2499
G3 X2.3442 Y4.323 I-0.003 J0.006
G2 X2.1493 Y4.4637 I0.4006 J0.7605
X2.0016 Y4.6533 I0.5894 J0.6113
G3 X1.9846 Y4.6578 I-0.0107 J-0.0061
G2 X1.811 Y4.5962 I-0.2455 J0.416
G3 X1.7767 Y4.5769 I0.0083 J-0.055
G1 X1.5357 Y4.2898
G3 X1.5227 Y4.2526 I0.0426 J-0.0358
G2 X1.4921 Y4.071 I-0.482 J-0.0123
G3 X1.4995 Y4.055 I0.0116 J-0.0043
G2 X1.8506 Y3.816 I-0.286 J-0.7974
X1.8591 Y3.7439 I-0.0481 J-0.0422
G3 X1.8621 Y3.6714 I0.0638 J-0.0337
G2 X1.8687 Y3.6609 I-0.6484 J-0.4135
G3 X1.8908 Y3.651 I0.0184 J0.0113
G1 X1.9343 Y3.6587
G3 X1.9514 Y3.6755 I-0.0037 J0.0207
G2 X2.4538 Y4.2743 I0.7875 J-0.1506
G3 X2.4674 Y4.2939 I-0.0075 J0.0197
G1 Y4.3382
G3 X2.4537 Y4.3582 I-0.0216 J0.
G2 X2.0286 Y4.7739 I0.2832 J0.715
G3 X2.0148 Y4.7769 I-0.0079 J-0.0034
G2 X1.7711 Y4.6699 I-0.2774 J0.301
G3 X1.7393 Y4.6535 I0.0037 J-0.0462
G1 X1.4538 Y4.3133
G3 X1.4431 Y4.2791 I0.0355 J-0.0298
G2 X1.3802 Y4.0205 I-0.4035 J-0.0387
G3 X1.3855 Y4.0075 I0.0073 J-0.0047
G2 X1.8621 Y3.6714 I-0.1718 J-0.7496
X1.852 Y3.6135 I-0.0368 J-0.0234
G3 X1.8758 Y3.5597 I0.0185 J-0.024
G1 X2.0271 Y3.5864
G2 X2.5547 Y4.2152 I0.7116 J-0.0614
G1 Y4.4162
G2 X2.0799 Y4.891 I0.184 J0.6588
G1 X1.9993
G2 X1.7122 Y4.7571 I-0.2606 J0.184
G1 X1.3471 Y4.322
G2 X1.2651 Y4.016 I-0.3085 J-0.0814
G1 X1.2791 Y3.9366
G2 X1.8291 Y3.5514 I-0.0668 J-0.6807
G1 X1.8758 Y3.5597
G3 X1.9221 Y3.6166 Z-0.0126 I-0.0097 J0.0552 F20.
G1 X1.9053 Y4.1688 Z-0.0306
G3 X1.8064 Y4.2031 Z-0.035 I-0.056 J-0.0017
G1 X1.8063 Y4.203 F30.
X1.8055 Y4.2015
X1.8051 Y4.1998
X1.8054 Y4.1981
X1.8062 Y4.1966
X1.8075 Y4.1955
X1.8089 Y4.1948
X1.8105 Y4.1946
X1.812 Y4.1949
X1.8134 Y4.1956
X1.8145 Y4.1967
G2 X1.9167 Y4.3186 I0.9161 J-0.6649
G1 X1.9176 Y4.3198
X1.9181 Y4.3213
Y4.3228
X1.9177 Y4.3243
X1.9168 Y4.3256
X1.9154 Y4.3267
X1.9138 Y4.3272
X1.912
X1.9104 Y4.3266
X1.9091 Y4.3255
X1.8064 Y4.2031
G2 X1.7618 Y4.179 I-0.0528 J0.0443
G3 X1.751 Y4.1295 I0.0032 J-0.0266
G2 X1.8247 Y4.0795 I-0.5286 J-0.858
G3 X1.8412 Y4.0826 I0.0068 J0.0092
G2 X2.0337 Y4.312 I0.8879 J-0.5495
G3 X2.0339 Y4.3289 I-0.0076 J0.0085
G2 X1.9399 Y4.4305 I0.7064 J0.7476
G3 X1.9166 Y4.438 I-0.0174 J-0.014
G2 X1.8971 Y4.4329 I-0.1873 J0.6732
G3 X1.8759 Y4.4197 I0.0097 J-0.0391
G1 X1.7078 Y4.2193
G3 X1.6985 Y4.1962 I0.0309 J-0.0259
G2 X1.6968 Y4.1761 I-0.7137 J0.0489
G3 X1.7082 Y4.1544 I0.0222 J-0.0022
G2 X1.751 Y4.1295 I-0.4859 J-0.8829
X1.7854 Y4.0517 I-0.0394 J-0.0639
G3 X1.814 Y3.9716 I0.0828 J-0.0156
G2 X1.8528 Y3.9372 I-0.6038 J-0.7189
G3 X1.867 Y3.9399 I0.0061 J0.0066
G2 X2.1788 Y4.3114 I0.8697 J-0.4132
G3 X2.179 Y4.3259 I-0.0052 J0.0073
G2 X1.9717 Y4.5401 I0.5677 J0.7568
G3 X1.9515 Y4.5461 I-0.0139 J-0.0097
G2 X1.8571 Y4.5173 I-0.2108 J0.5222
G3 X1.8202 Y4.4952 I0.0136 J-0.0645
G1 X1.6238 Y4.2611
G3 X1.6084 Y4.2209 I0.0505 J-0.0424
G2 X1.5964 Y4.1229 I-0.561 J0.0186
G3 X1.6059 Y4.1041 I0.0165 J-0.0035
G2 X1.814 Y3.9716 I-0.3957 J-0.8514
X1.8353 Y3.8945 I-0.0454 J-0.054
G3 X1.8506 Y3.816 I0.0752 J-0.0261
G2 X1.8843 Y3.775 I-0.6371 J-0.5583
G3 X1.8961 Y3.7772 I0.0053 J0.0041
G2 X2.344 Y4.311 I0.8399 J-0.2499
G3 X2.3442 Y4.323 I-0.003 J0.006
G2 X2.1493 Y4.4637 I0.4006 J0.7605
X2.0016 Y4.6533 I0.5894 J0.6113
G3 X1.9846 Y4.6578 I-0.0107 J-0.0061
G2 X1.811 Y4.5962 I-0.2455 J0.416
G3 X1.7767 Y4.5769 I0.0083 J-0.055
G1 X1.5357 Y4.2898
G3 X1.5227 Y4.2526 I0.0426 J-0.0358
G2 X1.4921 Y4.071 I-0.482 J-0.0123
G3 X1.4995 Y4.055 I0.0116 J-0.0043
G2 X1.8506 Y3.816 I-0.286 J-0.7974
X1.8591 Y3.7439 I-0.0481 J-0.0422
G3 X1.8621 Y3.6714 I0.0638 J-0.0337
G2 X1.8687 Y3.6609 I-0.6484 J-0.4135
G3 X1.8908 Y3.651 I0.0184 J0.0113
G1 X1.9343 Y3.6587
G3 X1.9514 Y3.6755 I-0.0037 J0.0207
G2 X2.4538 Y4.2743 I0.7875 J-0.1506
G3 X2.4674 Y4.2939 I-0.0075 J0.0197
G1 Y4.3382
G3 X2.4537 Y4.3582 I-0.0216 J0.
G2 X2.0286 Y4.7739 I0.2832 J0.715
G3 X2.0148 Y4.7769 I-0.0079 J-0.0034
G2 X1.7711 Y4.6699 I-0.2774 J0.301
G3 X1.7393 Y4.6535 I0.0037 J-0.0462
G1 X1.4538 Y4.3133
G3 X1.4431 Y4.2791 I0.0355 J-0.0298
G2 X1.3802 Y4.0205 I-0.4035 J-0.0387
G3 X1.3855 Y4.0075 I0.0073 J-0.0047
G2 X1.8621 Y3.6714 I-0.1718 J-0.7496
X1.852 Y3.6135 I-0.0368 J-0.0234
G3 X1.8758 Y3.5597 I0.0185 J-0.024
G1 X2.0271 Y3.5864
G2 X2.5547 Y4.2152 I0.7116 J-0.0614
G1 Y4.4162
G2 X2.0799 Y4.891 I0.184 J0.6588
G1 X1.9993
G2 X1.7122 Y4.7571 I-0.2606 J0.184
G1 X1.3471 Y4.322
G2 X1.2651 Y4.016 I-0.3085 J-0.0814
G1 X1.2791 Y3.9366
G2 X1.8291 Y3.5514 I-0.0668 J-0.6807
G1 X1.8758 Y3.5597
G3 X1.9221 Y3.6166 Z-0.0376 I-0.0097 J0.0552 F20.
G1 X1.9053 Y4.1688 Z-0.0556
G3 X1.8064 Y4.2031 Z-0.06 I-0.056 J-0.0017
G1 X1.8063 Y4.203 F30.
X1.8055 Y4.2015
X1.8051 Y4.1998
X1.8054 Y4.1981
X1.8062 Y4.1966
X1.8075 Y4.1955
X1.8089 Y4.1948
X1.8105 Y4.1946
X1.812 Y4.1949
X1.8134 Y4.1956
X1.8145 Y4.1967
G2 X1.9167 Y4.3186 I0.9161 J-0.6649
G1 X1.9176 Y4.3198
X1.9181 Y4.3213
Y4.3228
X1.9177 Y4.3243
X1.9168 Y4.3256
X1.9154 Y4.3267
X1.9138 Y4.3272
X1.912
X1.9104 Y4.3266
X1.9091 Y4.3255
X1.8064 Y4.2031
G2 X1.7618 Y4.179 I-0.0528 J0.0443
G3 X1.751 Y4.1295 I0.0032 J-0.0266
G2 X1.8247 Y4.0795 I-0.5286 J-0.858
G3 X1.8412 Y4.0826 I0.0068 J0.0092
G2 X2.0337 Y4.312 I0.8879 J-0.5495
G3 X2.0339 Y4.3289 I-0.0076 J0.0085
G2 X1.9399 Y4.4305 I0.7064 J0.7476
G3 X1.9166 Y4.438 I-0.0174 J-0.014
G2 X1.8971 Y4.4329 I-0.1873 J0.6732
G3 X1.8759 Y4.4197 I0.0097 J-0.0391
G1 X1.7078 Y4.2193
G3 X1.6985 Y4.1962 I0.0309 J-0.0259
G2 X1.6968 Y4.1761 I-0.7137 J0.0489
G3 X1.7082 Y4.1544 I0.0222 J-0.0022
G2 X1.751 Y4.1295 I-0.4859 J-0.8829
X1.7854 Y4.0517 I-0.0394 J-0.0639
G3 X1.814 Y3.9716 I0.0828 J-0.0156
G2 X1.8528 Y3.9372 I-0.6038 J-0.7189
G3 X1.867 Y3.9399 I0.0061 J0.0066
G2 X2.1788 Y4.3114 I0.8697 J-0.4132
G3 X2.179 Y4.3259 I-0.0052 J0.0073
G2 X1.9717 Y4.5401 I0.5677 J0.7568
G3 X1.9515 Y4.5461 I-0.0139 J-0.0097
G2 X1.8571 Y4.5173 I-0.2108 J0.5222
G3 X1.8202 Y4.4952 I0.0136 J-0.0645
G1 X1.6238 Y4.2611
G3 X1.6084 Y4.2209 I0.0505 J-0.0424
G2 X1.5964 Y4.1229 I-0.561 J0.0186
G3 X1.6059 Y4.1041 I0.0165 J-0.0035
G2 X1.814 Y3.9716 I-0.3957 J-0.8514
X1.8353 Y3.8945 I-0.0454 J-0.054
G3 X1.8506 Y3.816 I0.0752 J-0.0261
G2 X1.8843 Y3.775 I-0.6371 J-0.5583
G3 X1.8961 Y3.7772 I0.0053 J0.0041
G2 X2.344 Y4.311 I0.8399 J-0.2499
G3 X2.3442 Y4.323 I-0.003 J0.006
G2 X2.1493 Y4.4637 I0.4006 J0.7605
X2.0016 Y4.6533 I0.5894 J0.6113
G3 X1.9846 Y4.6578 I-0.0107 J-0.0061
G2 X1.811 Y4.5962 I-0.2455 J0.416
G3 X1.7767 Y4.5769 I0.0083 J-0.055
G1 X1.5357 Y4.2898
G3 X1.5227 Y4.2526 I0.0426 J-0.0358
G2 X1.4921 Y4.071 I-0.482 J-0.0123
G3 X1.4995 Y4.055 I0.0116 J-0.0043
G2 X1.8506 Y3.816 I-0.286 J-0.7974
X1.8591 Y3.7439 I-0.0481 J-0.0422
G3 X1.8621 Y3.6714 I0.0638 J-0.0337
G2 X1.8687 Y3.6609 I-0.6484 J-0.4135
G3 X1.8908 Y3.651 I0.0184 J0.0113
G1 X1.9343 Y3.6587
G3 X1.9514 Y3.6755 I-0.0037 J0.0207
G2 X2.4538 Y4.2743 I0.7875 J-0.1506
G3 X2.4674 Y4.2939 I-0.0075 J0.0197
G1 Y4.3382
G3 X2.4537 Y4.3582 I-0.0216 J0.
G2 X2.0286 Y4.7739 I0.2832 J0.715
G3 X2.0148 Y4.7769 I-0.0079 J-0.0034
G2 X1.7711 Y4.6699 I-0.2774 J0.301
G3 X1.7393 Y4.6535 I0.0037 J-0.0462
G1 X1.4538 Y4.3133
G3 X1.4431 Y4.2791 I0.0355 J-0.0298
G2 X1.3802 Y4.0205 I-0.4035 J-0.0387
G3 X1.3855 Y4.0075 I0.0073 J-0.0047
G2 X1.8621 Y3.6714 I-0.1718 J-0.7496
X1.852 Y3.6135 I-0.0368 J-0.0234
G3 X1.8758 Y3.5597 I0.0185 J-0.024
G1 X2.0271 Y3.5864
G2 X2.5547 Y4.2152 I0.7116 J-0.0614
G1 Y4.4162
G2 X2.0799 Y4.891 I0.184 J0.6588
G1 X1.9993
G2 X1.7122 Y4.7571 I-0.2606 J0.184
G1 X1.3471 Y4.322
G2 X1.2651 Y4.016 I-0.3085 J-0.0814
G1 X1.2791 Y3.9366
G2 X1.8291 Y3.5514 I-0.0668 J-0.6807
G1 X1.8758 Y3.5597
G3 X1.9221 Y3.6166 Z-0.0626 I-0.0097 J0.0552 F20.
G1 X1.9053 Y4.1688 Z-0.0806
G3 X1.8064 Y4.2031 Z-0.085 I-0.056 J-0.0017
G1 X1.8063 Y4.203 F30.
X1.8055 Y4.2015
X1.8051 Y4.1998
X1.8054 Y4.1981
X1.8062 Y4.1966
X1.8075 Y4.1955
X1.8089 Y4.1948
X1.8105 Y4.1946
X1.812 Y4.1949
X1.8134 Y4.1956
X1.8145 Y4.1967
G2 X1.9167 Y4.3186 I0.9161 J-0.6649
G1 X1.9176 Y4.3198
X1.9181 Y4.3213
Y4.3228
X1.9177 Y4.3243
X1.9168 Y4.3256
X1.9154 Y4.3267
X1.9138 Y4.3272
X1.912
X1.9104 Y4.3266
X1.9091 Y4.3255
X1.8064 Y4.2031
G2 X1.7618 Y4.179 I-0.0528 J0.0443
G3 X1.751 Y4.1295 I0.0032 J-0.0266
G2 X1.8247 Y4.0795 I-0.5286 J-0.858
G3 X1.8412 Y4.0826 I0.0068 J0.0092
G2 X2.0337 Y4.312 I0.8879 J-0.5495
G3 X2.0339 Y4.3289 I-0.0076 J0.0085
G2 X1.9399 Y4.4305 I0.7064 J0.7476
G3 X1.9166 Y4.438 I-0.0174 J-0.014
G2 X1.8971 Y4.4329 I-0.1873 J0.6732
G3 X1.8759 Y4.4197 I0.0097 J-0.0391
G1 X1.7078 Y4.2193
G3 X1.6985 Y4.1962 I0.0309 J-0.0259
G2 X1.6968 Y4.1761 I-0.7137 J0.0489
G3 X1.7082 Y4.1544 I0.0222 J-0.0022
G2 X1.751 Y4.1295 I-0.4859 J-0.8829
X1.7854 Y4.0517 I-0.0394 J-0.0639
G3 X1.814 Y3.9716 I0.0828 J-0.0156
G2 X1.8528 Y3.9372 I-0.6038 J-0.7189
G3 X1.867 Y3.9399 I0.0061 J0.0066
G2 X2.1788 Y4.3114 I0.8697 J-0.4132
G3 X2.179 Y4.3259 I-0.0052 J0.0073
G2 X1.9717 Y4.5401 I0.5677 J0.7568
G3 X1.9515 Y4.5461 I-0.0139 J-0.0097
G2 X1.8571 Y4.5173 I-0.2108 J0.5222
G3 X1.8202 Y4.4952 I0.0136 J-0.0645
G1 X1.6238 Y4.2611
G3 X1.6084 Y4.2209 I0.0505 J-0.0424
G2 X1.5964 Y4.1229 I-0.561 J0.0186
G3 X1.6059 Y4.1041 I0.0165 J-0.0035
G2 X1.814 Y3.9716 I-0.3957 J-0.8514
X1.8353 Y3.8945 I-0.0454 J-0.054
G3 X1.8506 Y3.816 I0.0752 J-0.0261
G2 X1.8843 Y3.775 I-0.6371 J-0.5583
G3 X1.8961 Y3.7772 I0.0053 J0.0041
G2 X2.344 Y4.311 I0.8399 J-0.2499
G3 X2.3442 Y4.323 I-0.003 J0.006
G2 X2.1493 Y4.4637 I0.4006 J0.7605
X2.0016 Y4.6533 I0.5894 J0.6113
G3 X1.9846 Y4.6578 I-0.0107 J-0.0061
G2 X1.811 Y4.5962 I-0.2455 J0.416
G3 X1.7767 Y4.5769 I0.0083 J-0.055
G1 X1.5357 Y4.2898
G3 X1.5227 Y4.2526 I0.0426 J-0.0358
G2 X1.4921 Y4.071 I-0.482 J-0.0123
G3 X1.4995 Y4.055 I0.0116 J-0.0043
G2 X1.8506 Y3.816 I-0.286 J-0.7974
X1.8591 Y3.7439 I-0.0481 J-0.0422
G3 X1.8621 Y3.6714 I0.0638 J-0.0337
G2 X1.8687 Y3.6609 I-0.6484 J-0.4135
G3 X1.8908 Y3.651 I0.0184 J0.0113
G1 X1.9343 Y3.6587
G3 X1.9514 Y3.6755 I-0.0037 J0.0207
G2 X2.4538 Y4.2743 I0.7875 J-0.1506
G3 X2.4674 Y4.2939 I-0.0075 J0.0197
G1 Y4.3382
G3 X2.4537 Y4.3582 I-0.0216 J0.
G2 X2.0286 Y4.7739 I0.2832 J0.715
G3 X2.0148 Y4.7769 I-0.0079 J-0.0034
G2 X1.7711 Y4.6699 I-0.2774 J0.301
G3 X1.7393 Y4.6535 I0.0037 J-0.0462
G1 X1.4538 Y4.3133
G3 X1.4431 Y4.2791 I0.0355 J-0.0298
G2 X1.3802 Y4.0205 I-0.4035 J-0.0387
G3 X1.3855 Y4.0075 I0.0073 J-0.0047
G2 X1.8621 Y3.6714 I-0.1718 J-0.7496
X1.852 Y3.6135 I-0.0368 J-0.0234
G3 X1.8758 Y3.5597 I0.0185 J-0.024
G1 X2.0271 Y3.5864
G2 X2.5547 Y4.2152 I0.7116 J-0.0614
G1 Y4.4162
G2 X2.0799 Y4.891 I0.184 J0.6588
G1 X1.9993
G2 X1.7122 Y4.7571 I-0.2606 J0.184
G1 X1.3471 Y4.322
G2 X1.2651 Y4.016 I-0.3085 J-0.0814
G1 X1.2791 Y3.9366
G2 X1.8291 Y3.5514 I-0.0668 J-0.6807
G1 X1.8758 Y3.5597
G3 X1.9221 Y3.6166 Z-0.0876 I-0.0097 J0.0552 F20.
G1 X1.9053 Y4.1688 Z-0.1056
G3 X1.8064 Y4.2031 Z-0.11 I-0.056 J-0.0017
G1 X1.8063 Y4.203 F30.
X1.8055 Y4.2015
X1.8051 Y4.1998
X1.8054 Y4.1981
X1.8062 Y4.1966
X1.8075 Y4.1955
X1.8089 Y4.1948
X1.8105 Y4.1946
X1.812 Y4.1949
X1.8134 Y4.1956
X1.8145 Y4.1967
G2 X1.9167 Y4.3186 I0.9161 J-0.6649
G1 X1.9176 Y4.3198
X1.9181 Y4.3213
Y4.3228
X1.9177 Y4.3243
X1.9168 Y4.3256
X1.9154 Y4.3267
X1.9138 Y4.3272
X1.912
X1.9104 Y4.3266
X1.9091 Y4.3255
X1.8064 Y4.2031
G2 X1.7618 Y4.179 I-0.0528 J0.0443
G3 X1.751 Y4.1295 I0.0032 J-0.0266
G2 X1.8247 Y4.0795 I-0.5286 J-0.858
G3 X1.8412 Y4.0826 I0.0068 J0.0092
G2 X2.0337 Y4.312 I0.8879 J-0.5495
G3 X2.0339 Y4.3289 I-0.0076 J0.0085
G2 X1.9399 Y4.4305 I0.7064 J0.7476
G3 X1.9166 Y4.438 I-0.0174 J-0.014
G2 X1.8971 Y4.4329 I-0.1873 J0.6732
G3 X1.8759 Y4.4197 I0.0097 J-0.0391
G1 X1.7078 Y4.2193
G3 X1.6985 Y4.1962 I0.0309 J-0.0259
G2 X1.6968 Y4.1761 I-0.7137 J0.0489
G3 X1.7082 Y4.1544 I0.0222 J-0.0022
G2 X1.751 Y4.1295 I-0.4859 J-0.8829
X1.7854 Y4.0517 I-0.0394 J-0.0639
G3 X1.814 Y3.9716 I0.0828 J-0.0156
G2 X1.8528 Y3.9372 I-0.6038 J-0.7189
G3 X1.867 Y3.9399 I0.0061 J0.0066
G2 X2.1788 Y4.3114 I0.8697 J-0.4132
G3 X2.179 Y4.3259 I-0.0052 J0.0073
G2 X1.9717 Y4.5401 I0.5677 J0.7568
G3 X1.9515 Y4.5461 I-0.0139 J-0.0097
G2 X1.8571 Y4.5173 I-0.2108 J0.5222
G3 X1.8202 Y4.4952 I0.0136 J-0.0645
G1 X1.6238 Y4.2611
G3 X1.6084 Y4.2209 I0.0505 J-0.0424
G2 X1.5964 Y4.1229 I-0.561 J0.0186
G3 X1.6059 Y4.1041 I0.0165 J-0.0035
G2 X1.814 Y3.9716 I-0.3957 J-0.8514
X1.8353 Y3.8945 I-0.0454 J-0.054
G3 X1.8506 Y3.816 I0.0752 J-0.0261
G2 X1.8843 Y3.775 I-0.6371 J-0.5583
G3 X1.8961 Y3.7772 I0.0053 J0.0041
G2 X2.344 Y4.311 I0.8399 J-0.2499
G3 X2.3442 Y4.323 I-0.003 J0.006
G2 X2.1493 Y4.4637 I0.4006 J0.7605
X2.0016 Y4.6533 I0.5894 J0.6113
G3 X1.9846 Y4.6578 I-0.0107 J-0.0061
G2 X1.811 Y4.5962 I-0.2455 J0.416
G3 X1.7767 Y4.5769 I0.0083 J-0.055
G1 X1.5357 Y4.2898
G3 X1.5227 Y4.2526 I0.0426 J-0.0358
G2 X1.4921 Y4.071 I-0.482 J-0.0123
G3 X1.4995 Y4.055 I0.0116 J-0.0043
G2 X1.8506 Y3.816 I-0.286 J-0.7974
X1.8591 Y3.7439 I-0.0481 J-0.0422
G3 X1.8621 Y3.6714 I0.0638 J-0.0337
G2 X1.8687 Y3.6609 I-0.6484 J-0.4135
G3 X1.8908 Y3.651 I0.0184 J0.0113
G1 X1.9343 Y3.6587
G3 X1.9514 Y3.6755 I-0.0037 J0.0207
G2 X2.4538 Y4.2743 I0.7875 J-0.1506
G3 X2.4674 Y4.2939 I-0.0075 J0.0197
G1 Y4.3382
G3 X2.4537 Y4.3582 I-0.0216 J0.
G2 X2.0286 Y4.7739 I0.2832 J0.715
G3 X2.0148 Y4.7769 I-0.0079 J-0.0034
G2 X1.7711 Y4.6699 I-0.2774 J0.301
G3 X1.7393 Y4.6535 I0.0037 J-0.0462
G1 X1.4538 Y4.3133
G3 X1.4431 Y4.2791 I0.0355 J-0.0298
G2 X1.3802 Y4.0205 I-0.4035 J-0.0387
G3 X1.3855 Y4.0075 I0.0073 J-0.0047
G2 X1.8621 Y3.6714 I-0.1718 J-0.7496
X1.852 Y3.6135 I-0.0368 J-0.0234
G3 X1.8758 Y3.5597 I0.0185 J-0.024
G1 X2.0271 Y3.5864
G2 X2.5547 Y4.2152 I0.7116 J-0.0614
G1 Y4.4162
G2 X2.0799 Y4.891 I0.184 J0.6588
G1 X1.9993
G2 X1.7122 Y4.7571 I-0.2606 J0.184
G1 X1.3471 Y4.322
G2 X1.2651 Y4.016 I-0.3085 J-0.0814
G1 X1.2791 Y3.9366
G2 X1.8291 Y3.5514 I-0.0668 J-0.6807
G1 X1.8758 Y3.5597
G3 X1.9221 Y3.6166 Z-0.1126 I-0.0097 J0.0552 F20.
G1 X1.9053 Y4.1688 Z-0.1306
G3 X1.8064 Y4.2031 Z-0.135 I-0.056 J-0.0017
G1 X1.8063 Y4.203 F30.
X1.8055 Y4.2015
X1.8051 Y4.1998
X1.8054 Y4.1981
X1.8062 Y4.1966
X1.8075 Y4.1955
X1.8089 Y4.1948
X1.8105 Y4.1946
X1.812 Y4.1949
X1.8134 Y4.1956
X1.8145 Y4.1967
G2 X1.9167 Y4.3186 I0.9161 J-0.6649
G1 X1.9176 Y4.3198
X1.9181 Y4.3213
Y4.3228
X1.9177 Y4.3243
X1.9168 Y4.3256
X1.9154 Y4.3267
X1.9138 Y4.3272
X1.912
X1.9104 Y4.3266
X1.9091 Y4.3255
X1.8064 Y4.2031
G2 X1.7618 Y4.179 I-0.0528 J0.0443
G3 X1.751 Y4.1295 I0.0032 J-0.0266
G2 X1.8247 Y4.0795 I-0.5286 J-0.858
G3 X1.8412 Y4.0826 I0.0068 J0.0092
G2 X2.0337 Y4.312 I0.8879 J-0.5495
G3 X2.0339 Y4.3289 I-0.0076 J0.0085
G2 X1.9399 Y4.4305 I0.7064 J0.7476
G3 X1.9166 Y4.438 I-0.0174 J-0.014
G2 X1.8971 Y4.4329 I-0.1873 J0.6732
G3 X1.8759 Y4.4197 I0.0097 J-0.0391
G1 X1.7078 Y4.2193
G3 X1.6985 Y4.1962 I0.0309 J-0.0259
G2 X1.6968 Y4.1761 I-0.7137 J0.0489
G3 X1.7082 Y4.1544 I0.0222 J-0.0022
G2 X1.751 Y4.1295 I-0.4859 J-0.8829
X1.7854 Y4.0517 I-0.0394 J-0.0639
G3 X1.814 Y3.9716 I0.0828 J-0.0156
G2 X1.8528 Y3.9372 I-0.6038 J-0.7189
G3 X1.867 Y3.9399 I0.0061 J0.0066
G2 X2.1788 Y4.3114 I0.8697 J-0.4132
G3 X2.179 Y4.3259 I-0.0052 J0.0073
G2 X1.9717 Y4.5401 I0.5677 J0.7568
G3 X1.9515 Y4.5461 I-0.0139 J-0.0097
G2 X1.8571 Y4.5173 I-0.2108 J0.5222
G3 X1.8202 Y4.4952 I0.0136 J-0.0645
G1 X1.6238 Y4.2611
G3 X1.6084 Y4.2209 I0.0505 J-0.0424
G2 X1.5964 Y4.1229 I-0.561 J0.0186
G3 X1.6059 Y4.1041 I0.0165 J-0.0035
G2 X1.814 Y3.9716 I-0.3957 J-0.8514
X1.8353 Y3.8945 I-0.0454 J-0.054
G3 X1.8506 Y3.816 I0.0752 J-0.0261
G2 X1.8843 Y3.775 I-0.6371 J-0.5583
G3 X1.8961 Y3.7772 I0.0053 J0.0041
G2 X2.344 Y4.311 I0.8399 J-0.2499
G3 X2.3442 Y4.323 I-0.003 J0.006
G2 X2.1493 Y4.4637 I0.4006 J0.7605
X2.0016 Y4.6533 I0.5894 J0.6113
G3 X1.9846 Y4.6578 I-0.0107 J-0.0061
G2 X1.811 Y4.5962 I-0.2455 J0.416
G3 X1.7767 Y4.5769 I0.0083 J-0.055
G1 X1.5357 Y4.2898
G3 X1.5227 Y4.2526 I0.0426 J-0.0358
G2 X1.4921 Y4.071 I-0.482 J-0.0123
G3 X1.4995 Y4.055 I0.0116 J-0.0043
G2 X1.8506 Y3.816 I-0.286 J-0.7974
X1.8591 Y3.7439 I-0.0481 J-0.0422
G3 X1.8621 Y3.6714 I0.0638 J-0.0337
G2 X1.8687 Y3.6609 I-0.6484 J-0.4135
G3 X1.8908 Y3.651 I0.0184 J0.0113
G1 X1.9343 Y3.6587
G3 X1.9514 Y3.6755 I-0.0037 J0.0207
G2 X2.4538 Y4.2743 I0.7875 J-0.1506
G3 X2.4674 Y4.2939 I-0.0075 J0.0197
G1 Y4.3382
G3 X2.4537 Y4.3582 I-0.0216 J0.
G2 X2.0286 Y4.7739 I0.2832 J0.715
G3 X2.0148 Y4.7769 I-0.0079 J-0.0034
G2 X1.7711 Y4.6699 I-0.2774 J0.301
G3 X1.7393 Y4.6535 I0.0037 J-0.0462
G1 X1.4538 Y4.3133
G3 X1.4431 Y4.2791 I0.0355 J-0.0298
G2 X1.3802 Y4.0205 I-0.4035 J-0.0387
G3 X1.3855 Y4.0075 I0.0073 J-0.0047
G2 X1.8621 Y3.6714 I-0.1718 J-0.7496
X1.852 Y3.6135 I-0.0368 J-0.0234
G3 X1.8758 Y3.5597 I0.0185 J-0.024
G1 X2.0271 Y3.5864
G2 X2.5547 Y4.2152 I0.7116 J-0.0614
G1 Y4.4162
G2 X2.0799 Y4.891 I0.184 J0.6588
G1 X1.9993
G2 X1.7122 Y4.7571 I-0.2606 J0.184
G1 X1.3471 Y4.322
G2 X1.2651 Y4.016 I-0.3085 J-0.0814
G1 X1.2791 Y3.9366
G2 X1.8291 Y3.5514 I-0.0668 J-0.6807
G1 X1.8758 Y3.5597
G3 X1.9221 Y3.6166 Z-0.1376 I-0.0097 J0.0552 F20.
G1 X1.9053 Y4.1688 Z-0.1556
G3 X1.8064 Y4.2031 Z-0.16 I-0.056 J-0.0017
G1 X1.8063 Y4.203 F30.
X1.8055 Y4.2015
X1.8051 Y4.1998
X1.8054 Y4.1981
X1.8062 Y4.1966
X1.8075 Y4.1955
X1.8089 Y4.1948
X1.8105 Y4.1946
X1.812 Y4.1949
X1.8134 Y4.1956
X1.8145 Y4.1967
G2 X1.9167 Y4.3186 I0.9161 J-0.6649
G1 X1.9176 Y4.3198
X1.9181 Y4.3213
Y4.3228
X1.9177 Y4.3243
X1.9168 Y4.3256
X1.9154 Y4.3267
X1.9138 Y4.3272
X1.912
X1.9104 Y4.3266
X1.9091 Y4.3255
X1.8064 Y4.2031
G2 X1.7618 Y4.179 I-0.0528 J0.0443
G3 X1.751 Y4.1295 I0.0032 J-0.0266
G2 X1.8247 Y4.0795 I-0.5286 J-0.858
G3 X1.8412 Y4.0826 I0.0068 J0.0092
G2 X2.0337 Y4.312 I0.8879 J-0.5495
G3 X2.0339 Y4.3289 I-0.0076 J0.0085
G2 X1.9399 Y4.4305 I0.7064 J0.7476
G3 X1.9166 Y4.438 I-0.0174 J-0.014
G2 X1.8971 Y4.4329 I-0.1873 J0.6732
G3 X1.8759 Y4.4197 I0.0097 J-0.0391
G1 X1.7078 Y4.2193
G3 X1.6985 Y4.1962 I0.0309 J-0.0259
G2 X1.6968 Y4.1761 I-0.7137 J0.0489
G3 X1.7082 Y4.1544 I0.0222 J-0.0022
G2 X1.751 Y4.1295 I-0.4859 J-0.8829
X1.7854 Y4.0517 I-0.0394 J-0.0639
G3 X1.814 Y3.9716 I0.0828 J-0.0156
G2 X1.8528 Y3.9372 I-0.6038 J-0.7189
G3 X1.867 Y3.9399 I0.0061 J0.0066
G2 X2.1788 Y4.3114 I0.8697 J-0.4132
G3 X2.179 Y4.3259 I-0.0052 J0.0073
G2 X1.9717 Y4.5401 I0.5677 J0.7568
G3 X1.9515 Y4.5461 I-0.0139 J-0.0097
G2 X1.8571 Y4.5173 I-0.2108 J0.5222
G3 X1.8202 Y4.4952 I0.0136 J-0.0645
G1 X1.6238 Y4.2611
G3 X1.6084 Y4.2209 I0.0505 J-0.0424
G2 X1.5964 Y4.1229 I-0.561 J0.0186
G3 X1.6059 Y4.1041 I0.0165 J-0.0035
G2 X1.814 Y3.9716 I-0.3957 J-0.8514
X1.8353 Y3.8945 I-0.0454 J-0.054
G3 X1.8506 Y3.816 I0.0752 J-0.0261
G2 X1.8843 Y3.775 I-0.6371 J-0.5583
G3 X1.8961 Y3.7772 I0.0053 J0.0041
G2 X2.344 Y4.311 I0.8399 J-0.2499
G3 X2.3442 Y4.323 I-0.003 J0.006
G2 X2.1493 Y4.4637 I0.4006 J0.7605
X2.0016 Y4.6533 I0.5894 J0.6113
G3 X1.9846 Y4.6578 I-0.0107 J-0.0061
G2 X1.811 Y4.5962 I-0.2455 J0.416
G3 X1.7767 Y4.5769 I0.0083 J-0.055
G1 X1.5357 Y4.2898
G3 X1.5227 Y4.2526 I0.0426 J-0.0358
G2 X1.4921 Y4.071 I-0.482 J-0.0123
G3 X1.4995 Y4.055 I0.0116 J-0.0043
G2 X1.8506 Y3.816 I-0.286 J-0.7974
X1.8591 Y3.7439 I-0.0481 J-0.0422
G3 X1.8621 Y3.6714 I0.0638 J-0.0337
G2 X1.8687 Y3.6609 I-0.6484 J-0.4135
G3 X1.8908 Y3.651 I0.0184 J0.0113
G1 X1.9343 Y3.6587
G3 X1.9514 Y3.6755 I-0.0037 J0.0207
G2 X2.4538 Y4.2743 I0.7875 J-0.1506
G3 X2.4674 Y4.2939 I-0.0075 J0.0197
G1 Y4.3382
G3 X2.4537 Y4.3582 I-0.0216 J0.
G2 X2.0286 Y4.7739 I0.2832 J0.715
G3 X2.0148 Y4.7769 I-0.0079 J-0.0034
G2 X1.7711 Y4.6699 I-0.2774 J0.301
G3 X1.7393 Y4.6535 I0.0037 J-0.0462
G1 X1.4538 Y4.3133
G3 X1.4431 Y4.2791 I0.0355 J-0.0298
G2 X1.3802 Y4.0205 I-0.4035 J-0.0387
G3 X1.3855 Y4.0075 I0.0073 J-0.0047
G2 X1.8621 Y3.6714 I-0.1718 J-0.7496
X1.852 Y3.6135 I-0.0368 J-0.0234
G3 X1.8758 Y3.5597 I0.0185 J-0.024
G1 X2.0271 Y3.5864
G2 X2.5547 Y4.2152 I0.7116 J-0.0614
G1 Y4.4162
G2 X2.0799 Y4.891 I0.184 J0.6588
G1 X1.9993
G2 X1.7122 Y4.7571 I-0.2606 J0.184
G1 X1.3471 Y4.322
G2 X1.2651 Y4.016 I-0.3085 J-0.0814
G1 X1.2791 Y3.9366
G2 X1.8291 Y3.5514 I-0.0668 J-0.6807
G1 X1.8758 Y3.5597
G3 X1.9221 Y3.6166 Z-0.1626 I-0.0097 J0.0552 F20.
G1 X1.9053 Y4.1688 Z-0.1806
G3 X1.8064 Y4.2031 Z-0.185 I-0.056 J-0.0017
G1 X1.8063 Y4.203 F30.
X1.8055 Y4.2015
X1.8051 Y4.1998
X1.8054 Y4.1981
X1.8062 Y4.1966
X1.8075 Y4.1955
X1.8089 Y4.1948
X1.8105 Y4.1946
X1.812 Y4.1949
X1.8134 Y4.1956
X1.8145 Y4.1967
G2 X1.9167 Y4.3186 I0.9161 J-0.6649
G1 X1.9176 Y4.3198
X1.9181 Y4.3213
Y4.3228
X1.9177 Y4.3243
X1.9168 Y4.3256
X1.9154 Y4.3267
X1.9138 Y4.3272
X1.912
X1.9104 Y4.3266
X1.9091 Y4.3255
X1.8064 Y4.2031
G2 X1.7618 Y4.179 I-0.0528 J0.0443
G3 X1.751 Y4.1295 I0.0032 J-0.0266
G2 X1.8247 Y4.0795 I-0.5286 J-0.858
G3 X1.8412 Y4.0826 I0.0068 J0.0092
G2 X2.0337 Y4.312 I0.8879 J-0.5495
G3 X2.0339 Y4.3289 I-0.0076 J0.0085
G2 X1.9399 Y4.4305 I0.7064 J0.7476
G3 X1.9166 Y4.438 I-0.0174 J-0.014
G2 X1.8971 Y4.4329 I-0.1873 J0.6732
G3 X1.8759 Y4.4197 I0.0097 J-0.0391
G1 X1.7078 Y4.2193
G3 X1.6985 Y4.1962 I0.0309 J-0.0259
G2 X1.6968 Y4.1761 I-0.7137 J0.0489
G3 X1.7082 Y4.1544 I0.0222 J-0.0022
G2 X1.751 Y4.1295 I-0.4859 J-0.8829
X1.7854 Y4.0517 I-0.0394 J-0.0639
G3 X1.814 Y3.9716 I0.0828 J-0.0156
G2 X1.8528 Y3.9372 I-0.6038 J-0.7189
G3 X1.867 Y3.9399 I0.0061 J0.0066
G2 X2.1788 Y4.3114 I0.8697 J-0.4132
G3 X2.179 Y4.3259 I-0.0052 J0.0073
G2 X1.9717 Y4.5401 I0.5677 J0.7568
G3 X1.9515 Y4.5461 I-0.0139 J-0.0097
G2 X1.8571 Y4.5173 I-0.2108 J0.5222
G3 X1.8202 Y4.4952 I0.0136 J-0.0645
G1 X1.6238 Y4.2611
G3 X1.6084 Y4.2209 I0.0505 J-0.0424
G2 X1.5964 Y4.1229 I-0.561 J0.0186
G3 X1.6059 Y4.1041 I0.0165 J-0.0035
G2 X1.814 Y3.9716 I-0.3957 J-0.8514
X1.8353 Y3.8945 I-0.0454 J-0.054
G3 X1.8506 Y3.816 I0.0752 J-0.0261
G2 X1.8843 Y3.775 I-0.6371 J-0.5583
G3 X1.8961 Y3.7772 I0.0053 J0.0041
G2 X2.344 Y4.311 I0.8399 J-0.2499
G3 X2.3442 Y4.323 I-0.003 J0.006
G2 X2.1493 Y4.4637 I0.4006 J0.7605
X2.0016 Y4.6533 I0.5894 J0.6113
G3 X1.9846 Y4.6578 I-0.0107 J-0.0061
G2 X1.811 Y4.5962 I-0.2455 J0.416
G3 X1.7767 Y4.5769 I0.0083 J-0.055
G1 X1.5357 Y4.2898
G3 X1.5227 Y4.2526 I0.0426 J-0.0358
G2 X1.4921 Y4.071 I-0.482 J-0.0123
G3 X1.4995 Y4.055 I0.0116 J-0.0043
G2 X1.8506 Y3.816 I-0.286 J-0.7974
X1.8591 Y3.7439 I-0.0481 J-0.0422
G3 X1.8621 Y3.6714 I0.0638 J-0.0337
G2 X1.8687 Y3.6609 I-0.6484 J-0.4135
G3 X1.8908 Y3.651 I0.0184 J0.0113
G1 X1.9343 Y3.6587
G3 X1.9514 Y3.6755 I-0.0037 J0.0207
G2 X2.4538 Y4.2743 I0.7875 J-0.1506
G3 X2.4674 Y4.2939 I-0.0075 J0.0197
G1 Y4.3382
G3 X2.4537 Y4.3582 I-0.0216 J0.
G2 X2.0286 Y4.7739 I0.2832 J0.715
G3 X2.0148 Y4.7769 I-0.0079 J-0.0034
G2 X1.7711 Y4.6699 I-0.2774 J0.301
G3 X1.7393 Y4.6535 I0.0037 J-0.0462
G1 X1.4538 Y4.3133
G3 X1.4431 Y4.2791 I0.0355 J-0.0298
G2 X1.3802 Y4.0205 I-0.4035 J-0.0387
G3 X1.3855 Y4.0075 I0.0073 J-0.0047
G2 X1.8621 Y3.6714 I-0.1718 J-0.7496
X1.852 Y3.6135 I-0.0368 J-0.0234
G3 X1.8758 Y3.5597 I0.0185 J-0.024
G1 X2.0271 Y3.5864
G2 X2.5547 Y4.2152 I0.7116 J-0.0614
G1 Y4.4162
G2 X2.0799 Y4.891 I0.184 J0.6588
G1 X1.9993
G2 X1.7122 Y4.7571 I-0.2606 J0.184
G1 X1.3471 Y4.322
G2 X1.2651 Y4.016 I-0.3085 J-0.0814
G1 X1.2791 Y3.9366
G2 X1.8291 Y3.5514 I-0.0668 J-0.6807
G1 X1.8758 Y3.5597
G3 X1.9221 Y3.6166 Z-0.1876 I-0.0097 J0.0552 F20.
G1 X1.9053 Y4.1688 Z-0.2056
G3 X1.8064 Y4.2031 Z-0.21 I-0.056 J-0.0017
G1 X1.8063 Y4.203 F30.
X1.8055 Y4.2015
X1.8051 Y4.1998
X1.8054 Y4.1981
X1.8062 Y4.1966
X1.8075 Y4.1955
X1.8089 Y4.1948
X1.8105 Y4.1946
X1.812 Y4.1949
X1.8134 Y4.1956
X1.8145 Y4.1967
G2 X1.9167 Y4.3186 I0.9161 J-0.6649
G1 X1.9176 Y4.3198
X1.9181 Y4.3213
Y4.3228
X1.9177 Y4.3243
X1.9168 Y4.3256
X1.9154 Y4.3267
X1.9138 Y4.3272
X1.912
X1.9104 Y4.3266
X1.9091 Y4.3255
X1.8064 Y4.2031
G2 X1.7618 Y4.179 I-0.0528 J0.0443
G3 X1.751 Y4.1295 I0.0032 J-0.0266
G2 X1.8247 Y4.0795 I-0.5286 J-0.858
G3 X1.8412 Y4.0826 I0.0068 J0.0092
G2 X2.0337 Y4.312 I0.8879 J-0.5495
G3 X2.0339 Y4.3289 I-0.0076 J0.0085
G2 X1.9399 Y4.4305 I0.7064 J0.7476
G3 X1.9166 Y4.438 I-0.0174 J-0.014
G2 X1.8971 Y4.4329 I-0.1873 J0.6732
G3 X1.8759 Y4.4197 I0.0097 J-0.0391
G1 X1.7078 Y4.2193
G3 X1.6985 Y4.1962 I0.0309 J-0.0259
G2 X1.6968 Y4.1761 I-0.7137 J0.0489
G3 X1.7082 Y4.1544 I0.0222 J-0.0022
G2 X1.751 Y4.1295 I-0.4859 J-0.8829
X1.7854 Y4.0517 I-0.0394 J-0.0639
G3 X1.814 Y3.9716 I0.0828 J-0.0156
G2 X1.8528 Y3.9372 I-0.6038 J-0.7189
G3 X1.867 Y3.9399 I0.0061 J0.0066
G2 X2.1788 Y4.3114 I0.8697 J-0.4132
G3 X2.179 Y4.3259 I-0.0052 J0.0073
G2 X1.9717 Y4.5401 I0.5677 J0.7568
G3 X1.9515 Y4.5461 I-0.0139 J-0.0097
G2 X1.8571 Y4.5173 I-0.2108 J0.5222
G3 X1.8202 Y4.4952 I0.0136 J-0.0645
G1 X1.6238 Y4.2611
G3 X1.6084 Y4.2209 I0.0505 J-0.0424
G2 X1.5964 Y4.1229 I-0.561 J0.0186
G3 X1.6059 Y4.1041 I0.0165 J-0.0035
G2 X1.814 Y3.9716 I-0.3957 J-0.8514
X1.8353 Y3.8945 I-0.0454 J-0.054
G3 X1.8506 Y3.816 I0.0752 J-0.0261
G2 X1.8843 Y3.775 I-0.6371 J-0.5583
G3 X1.8961 Y3.7772 I0.0053 J0.0041
G2 X2.344 Y4.311 I0.8399 J-0.2499
G3 X2.3442 Y4.323 I-0.003 J0.006
G2 X2.1493 Y4.4637 I0.4006 J0.7605
X2.0016 Y4.6533 I0.5894 J0.6113
G3 X1.9846 Y4.6578 I-0.0107 J-0.0061
G2 X1.811 Y4.5962 I-0.2455 J0.416
G3 X1.7767 Y4.5769 I0.0083 J-0.055
G1 X1.5357 Y4.2898
G3 X1.5227 Y4.2526 I0.0426 J-0.0358
G2 X1.4921 Y4.071 I-0.482 J-0.0123
G3 X1.4995 Y4.055 I0.0116 J-0.0043
G2 X1.8506 Y3.816 I-0.286 J-0.7974
X1.8591 Y3.7439 I-0.0481 J-0.0422
G3 X1.8621 Y3.6714 I0.0638 J-0.0337
G2 X1.8687 Y3.6609 I-0.6484 J-0.4135
G3 X1.8908 Y3.651 I0.0184 J0.0113
G1 X1.9343 Y3.6587
G3 X1.9514 Y3.6755 I-0.0037 J0.0207
G2 X2.4538 Y4.2743 I0.7875 J-0.1506
G3 X2.4674 Y4.2939 I-0.0075 J0.0197
G1 Y4.3382
G3 X2.4537 Y4.3582 I-0.0216 J0.
G2 X2.0286 Y4.7739 I0.2832 J0.715
G3 X2.0148 Y4.7769 I-0.0079 J-0.0034
G2 X1.7711 Y4.6699 I-0.2774 J0.301
G3 X1.7393 Y4.6535 I0.0037 J-0.0462
G1 X1.4538 Y4.3133
G3 X1.4431 Y4.2791 I0.0355 J-0.0298
G2 X1.3802 Y4.0205 I-0.4035 J-0.0387
G3 X1.3855 Y4.0075 I0.0073 J-0.0047
G2 X1.8621 Y3.6714 I-0.1718 J-0.7496
X1.852 Y3.6135 I-0.0368 J-0.0234
G3 X1.8758 Y3.5597 I0.0185 J-0.024
G1 X2.0271 Y3.5864
G2 X2.5547 Y4.2152 I0.7116 J-0.0614
G1 Y4.4162
G2 X2.0799 Y4.891 I0.184 J0.6588
G1 X1.9993
G2 X1.7122 Y4.7571 I-0.2606 J0.184
G1 X1.3471 Y4.322
G2 X1.2651 Y4.016 I-0.3085 J-0.0814
G1 X1.2791 Y3.9366
G2 X1.8291 Y3.5514 I-0.0668 J-0.6807
G1 X1.8758 Y3.5597
G3 X1.9221 Y3.6166 Z-0.2126 I-0.0097 J0.0552 F20.
G1 X1.9053 Y4.1688 Z-0.2306
G3 X1.8064 Y4.2031 Z-0.235 I-0.056 J-0.0017
G1 X1.8063 Y4.203 F30.
X1.8055 Y4.2015
X1.8051 Y4.1998
X1.8054 Y4.1981
X1.8062 Y4.1966
X1.8075 Y4.1955
X1.8089 Y4.1948
X1.8105 Y4.1946
X1.812 Y4.1949
X1.8134 Y4.1956
X1.8145 Y4.1967
G2 X1.9167 Y4.3186 I0.9161 J-0.6649
G1 X1.9176 Y4.3198
X1.9181 Y4.3213
Y4.3228
X1.9177 Y4.3243
X1.9168 Y4.3256
X1.9154 Y4.3267
X1.9138 Y4.3272
X1.912
X1.9104 Y4.3266
X1.9091 Y4.3255
X1.8064 Y4.2031
G2 X1.7618 Y4.179 I-0.0528 J0.0443
G3 X1.751 Y4.1295 I0.0032 J-0.0266
G2 X1.8247 Y4.0795 I-0.5286 J-0.858
G3 X1.8412 Y4.0826 I0.0068 J0.0092
G2 X2.0337 Y4.312 I0.8879 J-0.5495
G3 X2.0339 Y4.3289 I-0.0076 J0.0085
G2 X1.9399 Y4.4305 I0.7064 J0.7476
G3 X1.9166 Y4.438 I-0.0174 J-0.014
G2 X1.8971 Y4.4329 I-0.1873 J0.6732
G3 X1.8759 Y4.4197 I0.0097 J-0.0391
G1 X1.7078 Y4.2193
G3 X1.6985 Y4.1962 I0.0309 J-0.0259
G2 X1.6968 Y4.1761 I-0.7137 J0.0489
G3 X1.7082 Y4.1544 I0.0222 J-0.0022
G2 X1.751 Y4.1295 I-0.4859 J-0.8829
X1.7854 Y4.0517 I-0.0394 J-0.0639
G3 X1.814 Y3.9716 I0.0828 J-0.0156
G2 X1.8528 Y3.9372 I-0.6038 J-0.7189
G3 X1.867 Y3.9399 I0.0061 J0.0066
G2 X2.1788 Y4.3114 I0.8697 J-0.4132
G3 X2.179 Y4.3259 I-0.0052 J0.0073
G2 X1.9717 Y4.5401 I0.5677 J0.7568
G3 X1.9515 Y4.5461 I-0.0139 J-0.0097
G2 X1.8571 Y4.5173 I-0.2108 J0.5222
G3 X1.8202 Y4.4952 I0.0136 J-0.0645
G1 X1.6238 Y4.2611
G3 X1.6084 Y4.2209 I0.0505 J-0.0424
G2 X1.5964 Y4.1229 I-0.561 J0.0186
G3 X1.6059 Y4.1041 I0.0165 J-0.0035
G2 X1.814 Y3.9716 I-0.3957 J-0.8514
X1.8353 Y3.8945 I-0.0454 J-0.054
G3 X1.8506 Y3.816 I0.0752 J-0.0261
G2 X1.8843 Y3.775 I-0.6371 J-0.5583
G3 X1.8961 Y3.7772 I0.0053 J0.0041
G2 X2.344 Y4.311 I0.8399 J-0.2499
G3 X2.3442 Y4.323 I-0.003 J0.006
G2 X2.1493 Y4.4637 I0.4006 J0.7605
X2.0016 Y4.6533 I0.5894 J0.6113
G3 X1.9846 Y4.6578 I-0.0107 J-0.0061
G2 X1.811 Y4.5962 I-0.2455 J0.416
G3 X1.7767 Y4.5769 I0.0083 J-0.055
G1 X1.5357 Y4.2898
G3 X1.5227 Y4.2526 I0.0426 J-0.0358
G2 X1.4921 Y4.071 I-0.482 J-0.0123
G3 X1.4995 Y4.055 I0.0116 J-0.0043
G2 X1.8506 Y3.816 I-0.286 J-0.7974
X1.8591 Y3.7439 I-0.0481 J-0.0422
G3 X1.8621 Y3.6714 I0.0638 J-0.0337
G2 X1.8687 Y3.6609 I-0.6484 J-0.4135
G3 X1.8908 Y3.651 I0.0184 J0.0113
G1 X1.9343 Y3.6587
G3 X1.9514 Y3.6755 I-0.0037 J0.0207
G2 X2.4538 Y4.2743 I0.7875 J-0.1506
G3 X2.4674 Y4.2939 I-0.0075 J0.0197
G1 Y4.3382
G3 X2.4537 Y4.3582 I-0.0216 J0.
G2 X2.0286 Y4.7739 I0.2832 J0.715
G3 X2.0148 Y4.7769 I-0.0079 J-0.0034
G2 X1.7711 Y4.6699 I-0.2774 J0.301
G3 X1.7393 Y4.6535 I0.0037 J-0.0462
G1 X1.4538 Y4.3133
G3 X1.4431 Y4.2791 I0.0355 J-0.0298
G2 X1.3802 Y4.0205 I-0.4035 J-0.0387
G3 X1.3855 Y4.0075 I0.0073 J-0.0047
G2 X1.8621 Y3.6714 I-0.1718 J-0.7496
X1.852 Y3.6135 I-0.0368 J-0.0234
G3 X1.8758 Y3.5597 I0.0185 J-0.024
G1 X2.0271 Y3.5864
G2 X2.5547 Y4.2152 I0.7116 J-0.0614
G1 Y4.4162
G2 X2.0799 Y4.891 I0.184 J0.6588
G1 X1.9993
G2 X1.7122 Y4.7571 I-0.2606 J0.184
G1 X1.3471 Y4.322
G2 X1.2651 Y4.016 I-0.3085 J-0.0814
G1 X1.2791 Y3.9366
G2 X1.8291 Y3.5514 I-0.0668 J-0.6807
G1 X1.8758 Y3.5597
G3 X1.9221 Y3.6166 Z-0.2376 I-0.0097 J0.0552 F20.
G1 X1.9053 Y4.1688 Z-0.2556
G3 X1.8064 Y4.2031 Z-0.26 I-0.056 J-0.0017
G1 X1.8063 Y4.203 F30.
X1.8055 Y4.2015
X1.8051 Y4.1998
X1.8054 Y4.1981
X1.8062 Y4.1966
X1.8075 Y4.1955
X1.8089 Y4.1948
X1.8105 Y4.1946
X1.812 Y4.1949
X1.8134 Y4.1956
X1.8145 Y4.1967
G2 X1.9167 Y4.3186 I0.9161 J-0.6649
G1 X1.9176 Y4.3198
X1.9181 Y4.3213
Y4.3228
X1.9177 Y4.3243
X1.9168 Y4.3256
X1.9154 Y4.3267
X1.9138 Y4.3272
X1.912
X1.9104 Y4.3266
X1.9091 Y4.3255
X1.8064 Y4.2031
G2 X1.7618 Y4.179 I-0.0528 J0.0443
G3 X1.751 Y4.1295 I0.0032 J-0.0266
G2 X1.8247 Y4.0795 I-0.5286 J-0.858
G3 X1.8412 Y4.0826 I0.0068 J0.0092
G2 X2.0337 Y4.312 I0.8879 J-0.5495
G3 X2.0339 Y4.3289 I-0.0076 J0.0085
G2 X1.9399 Y4.4305 I0.7064 J0.7476
G3 X1.9166 Y4.438 I-0.0174 J-0.014
G2 X1.8971 Y4.4329 I-0.1873 J0.6732
G3 X1.8759 Y4.4197 I0.0097 J-0.0391
G1 X1.7078 Y4.2193
G3 X1.6985 Y4.1962 I0.0309 J-0.0259
G2 X1.6968 Y4.1761 I-0.7137 J0.0489
G3 X1.7082 Y4.1544 I0.0222 J-0.0022
G2 X1.751 Y4.1295 I-0.4859 J-0.8829
X1.7854 Y4.0517 I-0.0394 J-0.0639
G3 X1.814 Y3.9716 I0.0828 J-0.0156
G2 X1.8528 Y3.9372 I-0.6038 J-0.7189
G3 X1.867 Y3.9399 I0.0061 J0.0066
G2 X2.1788 Y4.3114 I0.8697 J-0.4132
G3 X2.179 Y4.3259 I-0.0052 J0.0073
G2 X1.9717 Y4.5401 I0.5677 J0.7568
G3 X1.9515 Y4.5461 I-0.0139 J-0.0097
G2 X1.8571 Y4.5173 I-0.2108 J0.5222
G3 X1.8202 Y4.4952 I0.0136 J-0.0645
G1 X1.6238 Y4.2611
G3 X1.6084 Y4.2209 I0.0505 J-0.0424
G2 X1.5964 Y4.1229 I-0.561 J0.0186
G3 X1.6059 Y4.1041 I0.0165 J-0.0035
G2 X1.814 Y3.9716 I-0.3957 J-0.8514
X1.8353 Y3.8945 I-0.0454 J-0.054
G3 X1.8506 Y3.816 I0.0752 J-0.0261
G2 X1.8843 Y3.775 I-0.6371 J-0.5583
G3 X1.8961 Y3.7772 I0.0053 J0.0041
G2 X2.344 Y4.311 I0.8399 J-0.2499
G3 X2.3442 Y4.323 I-0.003 J0.006
G2 X2.1493 Y4.4637 I0.4006 J0.7605
X2.0016 Y4.6533 I0.5894 J0.6113
G3 X1.9846 Y4.6578 I-0.0107 J-0.0061
G2 X1.811 Y4.5962 I-0.2455 J0.416
G3 X1.7767 Y4.5769 I0.0083 J-0.055
G1 X1.5357 Y4.2898
G3 X1.5227 Y4.2526 I0.0426 J-0.0358
G2 X1.4921 Y4.071 I-0.482 J-0.0123
G3 X1.4995 Y4.055 I0.0116 J-0.0043
G2 X1.8506 Y3.816 I-0.286 J-0.7974
X1.8591 Y3.7439 I-0.0481 J-0.0422
G3 X1.8621 Y3.6714 I0.0638 J-0.0337
G2 X1.8687 Y3.6609 I-0.6484 J-0.4135
G3 X1.8908 Y3.651 I0.0184 J0.0113
G1 X1.9343 Y3.6587
G3 X1.9514 Y3.6755 I-0.0037 J0.0207
G2 X2.4538 Y4.2743 I0.7875 J-0.1506
G3 X2.4674 Y4.2939 I-0.0075 J0.0197
G1 Y4.3382
G3 X2.4537 Y4.3582 I-0.0216 J0.
G2 X2.0286 Y4.7739 I0.2832 J0.715
G3 X2.0148 Y4.7769 I-0.0079 J-0.0034
G2 X1.7711 Y4.6699 I-0.2774 J0.301
G3 X1.7393 Y4.6535 I0.0037 J-0.0462
G1 X1.4538 Y4.3133
G3 X1.4431 Y4.2791 I0.0355 J-0.0298
G2 X1.3802 Y4.0205 I-0.4035 J-0.0387
G3 X1.3855 Y4.0075 I0.0073 J-0.0047
G2 X1.8621 Y3.6714 I-0.1718 J-0.7496
X1.852 Y3.6135 I-0.0368 J-0.0234
G3 X1.8758 Y3.5597 I0.0185 J-0.024
G1 X2.0271 Y3.5864
G2 X2.5547 Y4.2152 I0.7116 J-0.0614
G1 Y4.4162
G2 X2.0799 Y4.891 I0.184 J0.6588
G1 X1.9993
G2 X1.7122 Y4.7571 I-0.2606 J0.184
G1 X1.3471 Y4.322
G2 X1.2651 Y4.016 I-0.3085 J-0.0814
G1 X1.2791 Y3.9366
G2 X1.8291 Y3.5514 I-0.0668 J-0.6807
G1 X1.8758 Y3.5597
G3 X1.9221 Y3.6166 Z-0.261 I-0.0097 J0.0552 F20.
G1 X1.9053 Y4.1688 Z-0.2682
G3 X1.8064 Y4.2031 Z-0.27 I-0.056 J-0.0017
G1 X1.8063 Y4.203 F30.
X1.8055 Y4.2015
X1.8051 Y4.1998
X1.8054 Y4.1981
X1.8062 Y4.1966
X1.8075 Y4.1955
X1.8089 Y4.1948
X1.8105 Y4.1946
X1.812 Y4.1949
X1.8134 Y4.1956
X1.8145 Y4.1967
G2 X1.9167 Y4.3186 I0.9161 J-0.6649
G1 X1.9176 Y4.3198
X1.9181 Y4.3213
Y4.3228
X1.9177 Y4.3243
X1.9168 Y4.3256
X1.9154 Y4.3267
X1.9138 Y4.3272
X1.912
X1.9104 Y4.3266
X1.9091 Y4.3255
X1.8064 Y4.2031
G2 X1.7618 Y4.179 I-0.0528 J0.0443
G3 X1.751 Y4.1295 I0.0032 J-0.0266
G2 X1.8247 Y4.0795 I-0.5286 J-0.858
G3 X1.8412 Y4.0826 I0.0068 J0.0092
G2 X2.0337 Y4.312 I0.8879 J-0.5495
G3 X2.0339 Y4.3289 I-0.0076 J0.0085
G2 X1.9399 Y4.4305 I0.7064 J0.7476
G3 X1.9166 Y4.438 I-0.0174 J-0.014
G2 X1.8971 Y4.4329 I-0.1873 J0.6732
G3 X1.8759 Y4.4197 I0.0097 J-0.0391
G1 X1.7078 Y4.2193
G3 X1.6985 Y4.1962 I0.0309 J-0.0259
G2 X1.6968 Y4.1761 I-0.7137 J0.0489
G3 X1.7082 Y4.1544 I0.0222 J-0.0022
G2 X1.751 Y4.1295 I-0.4859 J-0.8829
X1.7854 Y4.0517 I-0.0394 J-0.0639
G3 X1.814 Y3.9716 I0.0828 J-0.0156
G2 X1.8528 Y3.9372 I-0.6038 J-0.7189
G3 X1.867 Y3.9399 I0.0061 J0.0066
G2 X2.1788 Y4.3114 I0.8697 J-0.4132
G3 X2.179 Y4.3259 I-0.0052 J0.0073
G2 X1.9717 Y4.5401 I0.5677 J0.7568
G3 X1.9515 Y4.5461 I-0.0139 J-0.0097
G2 X1.8571 Y4.5173 I-0.2108 J0.5222
G3 X1.8202 Y4.4952 I0.0136 J-0.0645
G1 X1.6238 Y4.2611
G3 X1.6084 Y4.2209 I0.0505 J-0.0424
G2 X1.5964 Y4.1229 I-0.561 J0.0186
G3 X1.6059 Y4.1041 I0.0165 J-0.0035
G2 X1.814 Y3.9716 I-0.3957 J-0.8514
X1.8353 Y3.8945 I-0.0454 J-0.054
G3 X1.8506 Y3.816 I0.0752 J-0.0261
G2 X1.8843 Y3.775 I-0.6371 J-0.5583
G3 X1.8961 Y3.7772 I0.0053 J0.0041
G2 X2.344 Y4.311 I0.8399 J-0.2499
G3 X2.3442 Y4.323 I-0.003 J0.006
G2 X2.1493 Y4.4637 I0.4006 J0.7605
X2.0016 Y4.6533 I0.5894 J0.6113
G3 X1.9846 Y4.6578 I-0.0107 J-0.0061
G2 X1.811 Y4.5962 I-0.2455 J0.416
G3 X1.7767 Y4.5769 I0.0083 J-0.055
G1 X1.5357 Y4.2898
G3 X1.5227 Y4.2526 I0.0426 J-0.0358
G2 X1.4921 Y4.071 I-0.482 J-0.0123
G3 X1.4995 Y4.055 I0.0116 J-0.0043
G2 X1.8506 Y3.816 I-0.286 J-0.7974
X1.8591 Y3.7439 I-0.0481 J-0.0422
G3 X1.8621 Y3.6714 I0.0638 J-0.0337
G2 X1.8687 Y3.6609 I-0.6484 J-0.4135
G3 X1.8908 Y3.651 I0.0184 J0.0113
G1 X1.9343 Y3.6587
G3 X1.9514 Y3.6755 I-0.0037 J0.0207
G2 X2.4538 Y4.2743 I0.7875 J-0.1506
G3 X2.4674 Y4.2939 I-0.0075 J0.0197
G1 Y4.3382
G3 X2.4537 Y4.3582 I-0.0216 J0.
G2 X2.0286 Y4.7739 I0.2832 J0.715
G3 X2.0148 Y4.7769 I-0.0079 J-0.0034
G2 X1.7711 Y4.6699 I-0.2774 J0.301
G3 X1.7393 Y4.6535 I0.0037 J-0.0462
G1 X1.4538 Y4.3133
G3 X1.4431 Y4.2791 I0.0355 J-0.0298
G2 X1.3802 Y4.0205 I-0.4035 J-0.0387
G3 X1.3855 Y4.0075 I0.0073 J-0.0047
G2 X1.8621 Y3.6714 I-0.1718 J-0.7496
X1.852 Y3.6135 I-0.0368 J-0.0234
G3 X1.8758 Y3.5597 I0.0185 J-0.024
G1 X2.0271 Y3.5864
G2 X2.5547 Y4.2152 I0.7116 J-0.0614
G1 Y4.4162
G2 X2.0799 Y4.891 I0.184 J0.6588
G1 X1.9993
G2 X1.7122 Y4.7571 I-0.2606 J0.184
G1 X1.3471 Y4.322
G2 X1.2651 Y4.016 I-0.3085 J-0.0814
G1 X1.2791 Y3.9366
G2 X1.8291 Y3.5514 I-0.0668 J-0.6807
G1 X1.8758 Y3.5597
X1.878 Y3.5603 Z-0.2696
X1.88 Y3.5613 Z-0.2691
X1.8815 Y3.5624 Z-0.2678
X1.8828 Y3.5638 Z-0.2665
X1.8842 Y3.5659 Z-0.2627
X1.8846 Y3.5667 Z-0.2582
G0 Z0.64

M9
M30
