(CLIMBER MOTOR MOUNT 0.125 HOLES )
(T1  D=0.125 CR=0. - ZMIN=-0.2037 - FLAT END MILL)
G90 G94 G91.1 G40 G49 G17
G20
G0 Z15

(BORE1 5)
M5
T1 M6
S15000 M3
G54
M8
G0 X4.0797 Y5.3355
G43 Z0.5906 H1
Z0.1772
G1 Z0.1109 F31.5
G18 G2 X4.0923 Z0.0984 I0.0125 K0.
G1 X4.0985
G17 G2 X4.111 Y5.323 I0. J-0.0125
X4.035 Z0.0967 I-0.038 J0.
X4.111 Z0.0949 I0.038 J0.
X4.035 Z0.0932 I-0.038 J0.
X4.111 Z0.0914 I0.038 J0.
X4.035 Z0.0897 I-0.038 J0.
X4.111 Z0.0879 I0.038 J0.
X4.035 Z0.0861 I-0.038 J0.
X4.111 Z0.0844 I0.038 J0.
X4.035 Z0.0826 I-0.038 J0.
X4.111 Z0.0809 I0.038 J0.
X4.035 Z0.0791 I-0.038 J0.
X4.111 Z0.0774 I0.038 J0.
X4.035 Z0.0756 I-0.038 J0.
X4.111 Z0.0739 I0.038 J0.
X4.035 Z0.0721 I-0.038 J0.
X4.111 Z0.0704 I0.038 J0.
X4.035 Z0.0686 I-0.038 J0.
X4.111 Z0.0668 I0.038 J0.
X4.035 Z0.0651 I-0.038 J0.
X4.111 Z0.0633 I0.038 J0.
X4.035 Z0.0616 I-0.038 J0.
X4.111 Z0.0598 I0.038 J0.
X4.035 Z0.0581 I-0.038 J0.
X4.111 Z0.0563 I0.038 J0.
X4.035 Z0.0546 I-0.038 J0.
X4.111 Z0.0528 I0.038 J0.
X4.035 Z0.0511 I-0.038 J0.
X4.111 Z0.0493 I0.038 J0.
X4.035 Z0.0476 I-0.038 J0.
X4.111 Z0.0458 I0.038 J0.
X4.035 Z0.044 I-0.038 J0.
X4.111 Z0.0423 I0.038 J0.
X4.035 Z0.0405 I-0.038 J0.
X4.111 Z0.0388 I0.038 J0.
X4.035 Z0.037 I-0.038 J0.
X4.111 Z0.0353 I0.038 J0.
X4.035 Z0.0335 I-0.038 J0.
X4.111 Z0.0318 I0.038 J0.
X4.035 Z0.03 I-0.038 J0.
X4.111 Z0.0283 I0.038 J0.
X4.035 Z0.0265 I-0.038 J0.
X4.111 Z0.0247 I0.038 J0.
X4.035 Z0.023 I-0.038 J0.
X4.111 Z0.0212 I0.038 J0.
X4.035 Z0.0195 I-0.038 J0.
X4.111 Z0.0177 I0.038 J0.
X4.035 Z0.016 I-0.038 J0.
X4.111 Z0.0142 I0.038 J0.
X4.035 Z0.0125 I-0.038 J0.
X4.111 Z0.0107 I0.038 J0.
X4.035 Z0.009 I-0.038 J0.
X4.111 Z0.0072 I0.038 J0.
X4.035 Z0.0055 I-0.038 J0.
X4.111 Z0.0037 I0.038 J0.
X4.035 Z0.0019 I-0.038 J0.
X4.111 Z0.0002 I0.038 J0.
X4.035 Z-0.0016 I-0.038 J0.
X4.111 Z-0.0033 I0.038 J0.
X4.035 Z-0.0051 I-0.038 J0.
X4.111 Z-0.0068 I0.038 J0.
X4.035 Z-0.0086 I-0.038 J0.
X4.111 Z-0.0103 I0.038 J0.
X4.035 Z-0.0121 I-0.038 J0.
X4.111 Z-0.0138 I0.038 J0.
X4.035 Z-0.0156 I-0.038 J0.
X4.111 Z-0.0174 I0.038 J0.
X4.035 Z-0.0191 I-0.038 J0.
X4.111 Z-0.0209 I0.038 J0.
X4.035 Z-0.0226 I-0.038 J0.
X4.111 Z-0.0244 I0.038 J0.
X4.035 Z-0.0261 I-0.038 J0.
X4.111 Z-0.0279 I0.038 J0.
X4.035 Z-0.0296 I-0.038 J0.
X4.111 Z-0.0314 I0.038 J0.
X4.035 Z-0.0331 I-0.038 J0.
X4.111 Z-0.0349 I0.038 J0.
X4.035 Z-0.0367 I-0.038 J0.
X4.111 Z-0.0384 I0.038 J0.
X4.035 Z-0.0402 I-0.038 J0.
X4.111 Z-0.0419 I0.038 J0.
X4.035 Z-0.0437 I-0.038 J0.
X4.111 Z-0.0454 I0.038 J0.
X4.035 Z-0.0472 I-0.038 J0.
X4.111 Z-0.0489 I0.038 J0.
X4.035 Z-0.0507 I-0.038 J0.
X4.111 Z-0.0524 I0.038 J0.
X4.035 Z-0.0542 I-0.038 J0.
X4.111 Z-0.0559 I0.038 J0.
X4.035 Z-0.0577 I-0.038 J0.
X4.111 Z-0.0595 I0.038 J0.
X4.035 Z-0.0612 I-0.038 J0.
X4.111 Z-0.063 I0.038 J0.
X4.035 Z-0.0647 I-0.038 J0.
X4.111 Z-0.0665 I0.038 J0.
X4.035 Z-0.0682 I-0.038 J0.
X4.111 Z-0.07 I0.038 J0.
X4.035 Z-0.0717 I-0.038 J0.
X4.111 Z-0.0735 I0.038 J0.
X4.035 Z-0.0752 I-0.038 J0.
X4.111 Z-0.077 I0.038 J0.
X4.035 Z-0.0788 I-0.038 J0.
X4.111 Z-0.0805 I0.038 J0.
X4.035 Z-0.0823 I-0.038 J0.
X4.111 Z-0.084 I0.038 J0.
X4.035 Z-0.0858 I-0.038 J0.
X4.111 Z-0.0875 I0.038 J0.
X4.035 Z-0.0893 I-0.038 J0.
X4.111 Z-0.091 I0.038 J0.
X4.035 Z-0.0928 I-0.038 J0.
X4.111 Z-0.0945 I0.038 J0.
X4.035 Z-0.0963 I-0.038 J0.
X4.111 Z-0.098 I0.038 J0.
X4.035 Z-0.0998 I-0.038 J0.
X4.111 Z-0.1016 I0.038 J0.
X4.035 Z-0.1033 I-0.038 J0.
X4.111 Z-0.1051 I0.038 J0.
X4.035 Z-0.1068 I-0.038 J0.
X4.111 Z-0.1086 I0.038 J0.
X4.035 Z-0.1103 I-0.038 J0.
X4.111 Z-0.1121 I0.038 J0.
X4.035 Z-0.1138 I-0.038 J0.
X4.111 Z-0.1156 I0.038 J0.
X4.035 Z-0.1173 I-0.038 J0.
X4.111 Z-0.1191 I0.038 J0.
X4.035 Z-0.1209 I-0.038 J0.
X4.111 Z-0.1226 I0.038 J0.
X4.035 Z-0.1244 I-0.038 J0.
X4.111 Z-0.1261 I0.038 J0.
X4.035 Z-0.1279 I-0.038 J0.
X4.111 Z-0.1296 I0.038 J0.
X4.035 Z-0.1314 I-0.038 J0.
X4.111 Z-0.1331 I0.038 J0.
X4.035 Z-0.1349 I-0.038 J0.
X4.111 Z-0.1366 I0.038 J0.
X4.035 Z-0.1384 I-0.038 J0.
X4.111 Z-0.1402 I0.038 J0.
X4.035 Z-0.1419 I-0.038 J0.
X4.111 Z-0.1437 I0.038 J0.
X4.035 Z-0.1454 I-0.038 J0.
X4.111 Z-0.1472 I0.038 J0.
X4.035 Z-0.1489 I-0.038 J0.
X4.111 Z-0.1507 I0.038 J0.
X4.035 Z-0.1524 I-0.038 J0.
X4.111 Z-0.1542 I0.038 J0.
X4.035 Z-0.1559 I-0.038 J0.
X4.111 Z-0.1577 I0.038 J0.
X4.035 Z-0.1594 I-0.038 J0.
X4.111 Z-0.1612 I0.038 J0.
X4.035 Z-0.163 I-0.038 J0.
X4.111 Z-0.1647 I0.038 J0.
X4.035 Z-0.1665 I-0.038 J0.
X4.111 Z-0.1682 I0.038 J0.
X4.035 Z-0.17 I-0.038 J0.
X4.111 Z-0.1717 I0.038 J0.
X4.035 Z-0.1735 I-0.038 J0.
X4.111 Z-0.1752 I0.038 J0.
X4.035 Z-0.177 I-0.038 J0.
X4.111 Z-0.1787 I0.038 J0.
X4.035 Z-0.1805 I-0.038 J0.
X4.111 Z-0.1823 I0.038 J0.
X4.035 Z-0.184 I-0.038 J0.
X4.111 Z-0.1858 I0.038 J0.
X4.035 Z-0.1875 I-0.038 J0.
X4.111 Z-0.1893 I0.038 J0.
X4.035 Z-0.191 I-0.038 J0.
X4.111 Z-0.1928 I0.038 J0.
X4.035 Z-0.1945 I-0.038 J0.
X4.111 Z-0.1963 I0.038 J0.
X4.035 Z-0.198 I-0.038 J0.
X4.111 Z-0.1998 I0.038 J0.
X4.035 Z-0.2015 I-0.038 J0.
X4.111 Z-0.2033 I0.038 J0.
X4.0999 Y5.2962 Z-0.2037 I-0.038 J0.
X4.0461 Y5.3498 I-0.0269 J0.0268
X4.0999 Y5.2962 I0.0269 J-0.0268
X4.0823 I-0.0089 J0.0088
G1 X4.0778 Y5.3006
X4.0759 Y5.3025 Z-0.2034
X4.074 Y5.3044 Z-0.2025
X4.0723 Y5.3061 Z-0.201
X4.0709 Y5.3075 Z-0.199
X4.0698 Y5.3085 Z-0.1967
X4.0692 Y5.3092 Z-0.194
X4.069 Y5.3094 Z-0.1912
G0 Z0.1969
X2.6838 Y5.3355
Z0.1772
G1 Z0.1109 F31.5
G18 G2 X2.6962 Z0.0984 I0.0125 K0.
G1 X2.7025
G17 G2 X2.715 Y5.323 I0. J-0.0125
X2.639 Z0.0967 I-0.038 J0.
X2.715 Z0.0949 I0.038 J0.
X2.639 Z0.0932 I-0.038 J0.
X2.715 Z0.0914 I0.038 J0.
X2.639 Z0.0897 I-0.038 J0.
X2.715 Z0.0879 I0.038 J0.
X2.639 Z0.0861 I-0.038 J0.
X2.715 Z0.0844 I0.038 J0.
X2.639 Z0.0826 I-0.038 J0.
X2.715 Z0.0809 I0.038 J0.
X2.639 Z0.0791 I-0.038 J0.
X2.715 Z0.0774 I0.038 J0.
X2.639 Z0.0756 I-0.038 J0.
X2.715 Z0.0739 I0.038 J0.
X2.639 Z0.0721 I-0.038 J0.
X2.715 Z0.0704 I0.038 J0.
X2.639 Z0.0686 I-0.038 J0.
X2.715 Z0.0668 I0.038 J0.
X2.639 Z0.0651 I-0.038 J0.
X2.715 Z0.0633 I0.038 J0.
X2.639 Z0.0616 I-0.038 J0.
X2.715 Z0.0598 I0.038 J0.
X2.639 Z0.0581 I-0.038 J0.
X2.715 Z0.0563 I0.038 J0.
X2.639 Z0.0546 I-0.038 J0.
X2.715 Z0.0528 I0.038 J0.
X2.639 Z0.0511 I-0.038 J0.
X2.715 Z0.0493 I0.038 J0.
X2.639 Z0.0476 I-0.038 J0.
X2.715 Z0.0458 I0.038 J0.
X2.639 Z0.044 I-0.038 J0.
X2.715 Z0.0423 I0.038 J0.
X2.639 Z0.0405 I-0.038 J0.
X2.715 Z0.0388 I0.038 J0.
X2.639 Z0.037 I-0.038 J0.
X2.715 Z0.0353 I0.038 J0.
X2.639 Z0.0335 I-0.038 J0.
X2.715 Z0.0318 I0.038 J0.
X2.639 Z0.03 I-0.038 J0.
X2.715 Z0.0283 I0.038 J0.
X2.639 Z0.0265 I-0.038 J0.
X2.715 Z0.0247 I0.038 J0.
X2.639 Z0.023 I-0.038 J0.
X2.715 Z0.0212 I0.038 J0.
X2.639 Z0.0195 I-0.038 J0.
X2.715 Z0.0177 I0.038 J0.
X2.639 Z0.016 I-0.038 J0.
X2.715 Z0.0142 I0.038 J0.
X2.639 Z0.0125 I-0.038 J0.
X2.715 Z0.0107 I0.038 J0.
X2.639 Z0.009 I-0.038 J0.
X2.715 Z0.0072 I0.038 J0.
X2.639 Z0.0055 I-0.038 J0.
X2.715 Z0.0037 I0.038 J0.
X2.639 Z0.0019 I-0.038 J0.
X2.715 Z0.0002 I0.038 J0.
X2.639 Z-0.0016 I-0.038 J0.
X2.715 Z-0.0033 I0.038 J0.
X2.639 Z-0.0051 I-0.038 J0.
X2.715 Z-0.0068 I0.038 J0.
X2.639 Z-0.0086 I-0.038 J0.
X2.715 Z-0.0103 I0.038 J0.
X2.639 Z-0.0121 I-0.038 J0.
X2.715 Z-0.0138 I0.038 J0.
X2.639 Z-0.0156 I-0.038 J0.
X2.715 Z-0.0174 I0.038 J0.
X2.639 Z-0.0191 I-0.038 J0.
X2.715 Z-0.0209 I0.038 J0.
X2.639 Z-0.0226 I-0.038 J0.
X2.715 Z-0.0244 I0.038 J0.
X2.639 Z-0.0261 I-0.038 J0.
X2.715 Z-0.0279 I0.038 J0.
X2.639 Z-0.0296 I-0.038 J0.
X2.715 Z-0.0314 I0.038 J0.
X2.639 Z-0.0331 I-0.038 J0.
X2.715 Z-0.0349 I0.038 J0.
X2.639 Z-0.0367 I-0.038 J0.
X2.715 Z-0.0384 I0.038 J0.
X2.639 Z-0.0402 I-0.038 J0.
X2.715 Z-0.0419 I0.038 J0.
X2.639 Z-0.0437 I-0.038 J0.
X2.715 Z-0.0454 I0.038 J0.
X2.639 Z-0.0472 I-0.038 J0.
X2.715 Z-0.0489 I0.038 J0.
X2.639 Z-0.0507 I-0.038 J0.
X2.715 Z-0.0524 I0.038 J0.
X2.639 Z-0.0542 I-0.038 J0.
X2.715 Z-0.0559 I0.038 J0.
X2.639 Z-0.0577 I-0.038 J0.
X2.715 Z-0.0595 I0.038 J0.
X2.639 Z-0.0612 I-0.038 J0.
X2.715 Z-0.063 I0.038 J0.
X2.639 Z-0.0647 I-0.038 J0.
X2.715 Z-0.0665 I0.038 J0.
X2.639 Z-0.0682 I-0.038 J0.
X2.715 Z-0.07 I0.038 J0.
X2.639 Z-0.0717 I-0.038 J0.
X2.715 Z-0.0735 I0.038 J0.
X2.639 Z-0.0752 I-0.038 J0.
X2.715 Z-0.077 I0.038 J0.
X2.639 Z-0.0788 I-0.038 J0.
X2.715 Z-0.0805 I0.038 J0.
X2.639 Z-0.0823 I-0.038 J0.
X2.715 Z-0.084 I0.038 J0.
X2.639 Z-0.0858 I-0.038 J0.
X2.715 Z-0.0875 I0.038 J0.
X2.639 Z-0.0893 I-0.038 J0.
X2.715 Z-0.091 I0.038 J0.
X2.639 Z-0.0928 I-0.038 J0.
X2.715 Z-0.0945 I0.038 J0.
X2.639 Z-0.0963 I-0.038 J0.
X2.715 Z-0.098 I0.038 J0.
X2.639 Z-0.0998 I-0.038 J0.
X2.715 Z-0.1016 I0.038 J0.
X2.639 Z-0.1033 I-0.038 J0.
X2.715 Z-0.1051 I0.038 J0.
X2.639 Z-0.1068 I-0.038 J0.
X2.715 Z-0.1086 I0.038 J0.
X2.639 Z-0.1103 I-0.038 J0.
X2.715 Z-0.1121 I0.038 J0.
X2.639 Z-0.1138 I-0.038 J0.
X2.715 Z-0.1156 I0.038 J0.
X2.639 Z-0.1173 I-0.038 J0.
X2.715 Z-0.1191 I0.038 J0.
X2.639 Z-0.1209 I-0.038 J0.
X2.715 Z-0.1226 I0.038 J0.
X2.639 Z-0.1244 I-0.038 J0.
X2.715 Z-0.1261 I0.038 J0.
X2.639 Z-0.1279 I-0.038 J0.
X2.715 Z-0.1296 I0.038 J0.
X2.639 Z-0.1314 I-0.038 J0.
X2.715 Z-0.1331 I0.038 J0.
X2.639 Z-0.1349 I-0.038 J0.
X2.715 Z-0.1366 I0.038 J0.
X2.639 Z-0.1384 I-0.038 J0.
X2.715 Z-0.1402 I0.038 J0.
X2.639 Z-0.1419 I-0.038 J0.
X2.715 Z-0.1437 I0.038 J0.
X2.639 Z-0.1454 I-0.038 J0.
X2.715 Z-0.1472 I0.038 J0.
X2.639 Z-0.1489 I-0.038 J0.
X2.715 Z-0.1507 I0.038 J0.
X2.639 Z-0.1524 I-0.038 J0.
X2.715 Z-0.1542 I0.038 J0.
X2.639 Z-0.1559 I-0.038 J0.
X2.715 Z-0.1577 I0.038 J0.
X2.639 Z-0.1594 I-0.038 J0.
X2.715 Z-0.1612 I0.038 J0.
X2.639 Z-0.163 I-0.038 J0.
X2.715 Z-0.1647 I0.038 J0.
X2.639 Z-0.1665 I-0.038 J0.
X2.715 Z-0.1682 I0.038 J0.
X2.639 Z-0.17 I-0.038 J0.
X2.715 Z-0.1717 I0.038 J0.
X2.639 Z-0.1735 I-0.038 J0.
X2.715 Z-0.1752 I0.038 J0.
X2.639 Z-0.177 I-0.038 J0.
X2.715 Z-0.1787 I0.038 J0.
X2.639 Z-0.1805 I-0.038 J0.
X2.715 Z-0.1823 I0.038 J0.
X2.639 Z-0.184 I-0.038 J0.
X2.715 Z-0.1858 I0.038 J0.
X2.639 Z-0.1875 I-0.038 J0.
X2.715 Z-0.1893 I0.038 J0.
X2.639 Z-0.191 I-0.038 J0.
X2.715 Z-0.1928 I0.038 J0.
X2.639 Z-0.1945 I-0.038 J0.
X2.715 Z-0.1963 I0.038 J0.
X2.639 Z-0.198 I-0.038 J0.
X2.715 Z-0.1998 I0.038 J0.
X2.639 Z-0.2015 I-0.038 J0.
X2.715 Z-0.2033 I0.038 J0.
X2.7039 Y5.2962 Z-0.2037 I-0.038 J0.
X2.6501 Y5.3498 I-0.0269 J0.0268
X2.7039 Y5.2962 I0.0269 J-0.0268
X2.6863 I-0.0089 J0.0088
G1 X2.6818 Y5.3006
X2.6799 Y5.3025 Z-0.2034
X2.678 Y5.3044 Z-0.2025
X2.6763 Y5.3061 Z-0.201
X2.6749 Y5.3075 Z-0.199
X2.6738 Y5.3085 Z-0.1967
X2.6732 Y5.3092 Z-0.194
X2.673 Y5.3094 Z-0.1912
G0 Z0.1969
X2.6838 Y3.9395
Z0.1772
G1 Z0.1109 F31.5
G18 G2 X2.6962 Z0.0984 I0.0125 K0.
G1 X2.7025
G17 G2 X2.715 Y3.927 I0. J-0.0125
X2.639 Z0.0967 I-0.038 J0.
X2.715 Z0.0949 I0.038 J0.
X2.639 Z0.0932 I-0.038 J0.
X2.715 Z0.0914 I0.038 J0.
X2.639 Z0.0897 I-0.038 J0.
X2.715 Z0.0879 I0.038 J0.
X2.639 Z0.0861 I-0.038 J0.
X2.715 Z0.0844 I0.038 J0.
X2.639 Z0.0826 I-0.038 J0.
X2.715 Z0.0809 I0.038 J0.
X2.639 Z0.0791 I-0.038 J0.
X2.715 Z0.0774 I0.038 J0.
X2.639 Z0.0756 I-0.038 J0.
X2.715 Z0.0739 I0.038 J0.
X2.639 Z0.0721 I-0.038 J0.
X2.715 Z0.0704 I0.038 J0.
X2.639 Z0.0686 I-0.038 J0.
X2.715 Z0.0668 I0.038 J0.
X2.639 Z0.0651 I-0.038 J0.
X2.715 Z0.0633 I0.038 J0.
X2.639 Z0.0616 I-0.038 J0.
X2.715 Z0.0598 I0.038 J0.
X2.639 Z0.0581 I-0.038 J0.
X2.715 Z0.0563 I0.038 J0.
X2.639 Z0.0546 I-0.038 J0.
X2.715 Z0.0528 I0.038 J0.
X2.639 Z0.0511 I-0.038 J0.
X2.715 Z0.0493 I0.038 J0.
X2.639 Z0.0476 I-0.038 J0.
X2.715 Z0.0458 I0.038 J0.
X2.639 Z0.044 I-0.038 J0.
X2.715 Z0.0423 I0.038 J0.
X2.639 Z0.0405 I-0.038 J0.
X2.715 Z0.0388 I0.038 J0.
X2.639 Z0.037 I-0.038 J0.
X2.715 Z0.0353 I0.038 J0.
X2.639 Z0.0335 I-0.038 J0.
X2.715 Z0.0318 I0.038 J0.
X2.639 Z0.03 I-0.038 J0.
X2.715 Z0.0283 I0.038 J0.
X2.639 Z0.0265 I-0.038 J0.
X2.715 Z0.0247 I0.038 J0.
X2.639 Z0.023 I-0.038 J0.
X2.715 Z0.0212 I0.038 J0.
X2.639 Z0.0195 I-0.038 J0.
X2.715 Z0.0177 I0.038 J0.
X2.639 Z0.016 I-0.038 J0.
X2.715 Z0.0142 I0.038 J0.
X2.639 Z0.0125 I-0.038 J0.
X2.715 Z0.0107 I0.038 J0.
X2.639 Z0.009 I-0.038 J0.
X2.715 Z0.0072 I0.038 J0.
X2.639 Z0.0055 I-0.038 J0.
X2.715 Z0.0037 I0.038 J0.
X2.639 Z0.0019 I-0.038 J0.
X2.715 Z0.0002 I0.038 J0.
X2.639 Z-0.0016 I-0.038 J0.
X2.715 Z-0.0033 I0.038 J0.
X2.639 Z-0.0051 I-0.038 J0.
X2.715 Z-0.0068 I0.038 J0.
X2.639 Z-0.0086 I-0.038 J0.
X2.715 Z-0.0103 I0.038 J0.
X2.639 Z-0.0121 I-0.038 J0.
X2.715 Z-0.0138 I0.038 J0.
X2.639 Z-0.0156 I-0.038 J0.
X2.715 Z-0.0174 I0.038 J0.
X2.639 Z-0.0191 I-0.038 J0.
X2.715 Z-0.0209 I0.038 J0.
X2.639 Z-0.0226 I-0.038 J0.
X2.715 Z-0.0244 I0.038 J0.
X2.639 Z-0.0261 I-0.038 J0.
X2.715 Z-0.0279 I0.038 J0.
X2.639 Z-0.0296 I-0.038 J0.
X2.715 Z-0.0314 I0.038 J0.
X2.639 Z-0.0331 I-0.038 J0.
X2.715 Z-0.0349 I0.038 J0.
X2.639 Z-0.0367 I-0.038 J0.
X2.715 Z-0.0384 I0.038 J0.
X2.639 Z-0.0402 I-0.038 J0.
X2.715 Z-0.0419 I0.038 J0.
X2.639 Z-0.0437 I-0.038 J0.
X2.715 Z-0.0454 I0.038 J0.
X2.639 Z-0.0472 I-0.038 J0.
X2.715 Z-0.0489 I0.038 J0.
X2.639 Z-0.0507 I-0.038 J0.
X2.715 Z-0.0524 I0.038 J0.
X2.639 Z-0.0542 I-0.038 J0.
X2.715 Z-0.0559 I0.038 J0.
X2.639 Z-0.0577 I-0.038 J0.
X2.715 Z-0.0595 I0.038 J0.
X2.639 Z-0.0612 I-0.038 J0.
X2.715 Z-0.063 I0.038 J0.
X2.639 Z-0.0647 I-0.038 J0.
X2.715 Z-0.0665 I0.038 J0.
X2.639 Z-0.0682 I-0.038 J0.
X2.715 Z-0.07 I0.038 J0.
X2.639 Z-0.0717 I-0.038 J0.
X2.715 Z-0.0735 I0.038 J0.
X2.639 Z-0.0752 I-0.038 J0.
X2.715 Z-0.077 I0.038 J0.
X2.639 Z-0.0788 I-0.038 J0.
X2.715 Z-0.0805 I0.038 J0.
X2.639 Z-0.0823 I-0.038 J0.
X2.715 Z-0.084 I0.038 J0.
X2.639 Z-0.0858 I-0.038 J0.
X2.715 Z-0.0875 I0.038 J0.
X2.639 Z-0.0893 I-0.038 J0.
X2.715 Z-0.091 I0.038 J0.
X2.639 Z-0.0928 I-0.038 J0.
X2.715 Z-0.0945 I0.038 J0.
X2.639 Z-0.0963 I-0.038 J0.
X2.715 Z-0.098 I0.038 J0.
X2.639 Z-0.0998 I-0.038 J0.
X2.715 Z-0.1016 I0.038 J0.
X2.639 Z-0.1033 I-0.038 J0.
X2.715 Z-0.1051 I0.038 J0.
X2.639 Z-0.1068 I-0.038 J0.
X2.715 Z-0.1086 I0.038 J0.
X2.639 Z-0.1103 I-0.038 J0.
X2.715 Z-0.1121 I0.038 J0.
X2.639 Z-0.1138 I-0.038 J0.
X2.715 Z-0.1156 I0.038 J0.
X2.639 Z-0.1173 I-0.038 J0.
X2.715 Z-0.1191 I0.038 J0.
X2.639 Z-0.1209 I-0.038 J0.
X2.715 Z-0.1226 I0.038 J0.
X2.639 Z-0.1244 I-0.038 J0.
X2.715 Z-0.1261 I0.038 J0.
X2.639 Z-0.1279 I-0.038 J0.
X2.715 Z-0.1296 I0.038 J0.
X2.639 Z-0.1314 I-0.038 J0.
X2.715 Z-0.1331 I0.038 J0.
X2.639 Z-0.1349 I-0.038 J0.
X2.715 Z-0.1366 I0.038 J0.
X2.639 Z-0.1384 I-0.038 J0.
X2.715 Z-0.1402 I0.038 J0.
X2.639 Z-0.1419 I-0.038 J0.
X2.715 Z-0.1437 I0.038 J0.
X2.639 Z-0.1454 I-0.038 J0.
X2.715 Z-0.1472 I0.038 J0.
X2.639 Z-0.1489 I-0.038 J0.
X2.715 Z-0.1507 I0.038 J0.
X2.639 Z-0.1524 I-0.038 J0.
X2.715 Z-0.1542 I0.038 J0.
X2.639 Z-0.1559 I-0.038 J0.
X2.715 Z-0.1577 I0.038 J0.
X2.639 Z-0.1594 I-0.038 J0.
X2.715 Z-0.1612 I0.038 J0.
X2.639 Z-0.163 I-0.038 J0.
X2.715 Z-0.1647 I0.038 J0.
X2.639 Z-0.1665 I-0.038 J0.
X2.715 Z-0.1682 I0.038 J0.
X2.639 Z-0.17 I-0.038 J0.
X2.715 Z-0.1717 I0.038 J0.
X2.639 Z-0.1735 I-0.038 J0.
X2.715 Z-0.1752 I0.038 J0.
X2.639 Z-0.177 I-0.038 J0.
X2.715 Z-0.1787 I0.038 J0.
X2.639 Z-0.1805 I-0.038 J0.
X2.715 Z-0.1823 I0.038 J0.
X2.639 Z-0.184 I-0.038 J0.
X2.715 Z-0.1858 I0.038 J0.
X2.639 Z-0.1875 I-0.038 J0.
X2.715 Z-0.1893 I0.038 J0.
X2.639 Z-0.191 I-0.038 J0.
X2.715 Z-0.1928 I0.038 J0.
X2.639 Z-0.1945 I-0.038 J0.
X2.715 Z-0.1963 I0.038 J0.
X2.639 Z-0.198 I-0.038 J0.
X2.715 Z-0.1998 I0.038 J0.
X2.639 Z-0.2015 I-0.038 J0.
X2.715 Z-0.2033 I0.038 J0.
X2.7039 Y3.9002 Z-0.2037 I-0.038 J0.
X2.6501 Y3.9538 I-0.0269 J0.0268
X2.7039 Y3.9002 I0.0269 J-0.0268
X2.6863 I-0.0089 J0.0088
G1 X2.6818 Y3.9046
X2.6799 Y3.9065 Z-0.2034
X2.678 Y3.9084 Z-0.2025
X2.6763 Y3.9101 Z-0.201
X2.6749 Y3.9115 Z-0.199
X2.6738 Y3.9125 Z-0.1967
X2.6732 Y3.9132 Z-0.194
X2.673 Y3.9134 Z-0.1912
G0 Z0.1969
X4.0797 Y3.9395
Z0.1772
G1 Z0.1109 F31.5
G18 G2 X4.0923 Z0.0984 I0.0125 K0.
G1 X4.0985
G17 G2 X4.111 Y3.927 I0. J-0.0125
X4.035 Z0.0967 I-0.038 J0.
X4.111 Z0.0949 I0.038 J0.
X4.035 Z0.0932 I-0.038 J0.
X4.111 Z0.0914 I0.038 J0.
X4.035 Z0.0897 I-0.038 J0.
X4.111 Z0.0879 I0.038 J0.
X4.035 Z0.0861 I-0.038 J0.
X4.111 Z0.0844 I0.038 J0.
X4.035 Z0.0826 I-0.038 J0.
X4.111 Z0.0809 I0.038 J0.
X4.035 Z0.0791 I-0.038 J0.
X4.111 Z0.0774 I0.038 J0.
X4.035 Z0.0756 I-0.038 J0.
X4.111 Z0.0739 I0.038 J0.
X4.035 Z0.0721 I-0.038 J0.
X4.111 Z0.0704 I0.038 J0.
X4.035 Z0.0686 I-0.038 J0.
X4.111 Z0.0668 I0.038 J0.
X4.035 Z0.0651 I-0.038 J0.
X4.111 Z0.0633 I0.038 J0.
X4.035 Z0.0616 I-0.038 J0.
X4.111 Z0.0598 I0.038 J0.
X4.035 Z0.0581 I-0.038 J0.
X4.111 Z0.0563 I0.038 J0.
X4.035 Z0.0546 I-0.038 J0.
X4.111 Z0.0528 I0.038 J0.
X4.035 Z0.0511 I-0.038 J0.
X4.111 Z0.0493 I0.038 J0.
X4.035 Z0.0476 I-0.038 J0.
X4.111 Z0.0458 I0.038 J0.
X4.035 Z0.044 I-0.038 J0.
X4.111 Z0.0423 I0.038 J0.
X4.035 Z0.0405 I-0.038 J0.
X4.111 Z0.0388 I0.038 J0.
X4.035 Z0.037 I-0.038 J0.
X4.111 Z0.0353 I0.038 J0.
X4.035 Z0.0335 I-0.038 J0.
X4.111 Z0.0318 I0.038 J0.
X4.035 Z0.03 I-0.038 J0.
X4.111 Z0.0283 I0.038 J0.
X4.035 Z0.0265 I-0.038 J0.
X4.111 Z0.0247 I0.038 J0.
X4.035 Z0.023 I-0.038 J0.
X4.111 Z0.0212 I0.038 J0.
X4.035 Z0.0195 I-0.038 J0.
X4.111 Z0.0177 I0.038 J0.
X4.035 Z0.016 I-0.038 J0.
X4.111 Z0.0142 I0.038 J0.
X4.035 Z0.0125 I-0.038 J0.
X4.111 Z0.0107 I0.038 J0.
X4.035 Z0.009 I-0.038 J0.
X4.111 Z0.0072 I0.038 J0.
X4.035 Z0.0055 I-0.038 J0.
X4.111 Z0.0037 I0.038 J0.
X4.035 Z0.0019 I-0.038 J0.
X4.111 Z0.0002 I0.038 J0.
X4.035 Z-0.0016 I-0.038 J0.
X4.111 Z-0.0033 I0.038 J0.
X4.035 Z-0.0051 I-0.038 J0.
X4.111 Z-0.0068 I0.038 J0.
X4.035 Z-0.0086 I-0.038 J0.
X4.111 Z-0.0103 I0.038 J0.
X4.035 Z-0.0121 I-0.038 J0.
X4.111 Z-0.0138 I0.038 J0.
X4.035 Z-0.0156 I-0.038 J0.
X4.111 Z-0.0174 I0.038 J0.
X4.035 Z-0.0191 I-0.038 J0.
X4.111 Z-0.0209 I0.038 J0.
X4.035 Z-0.0226 I-0.038 J0.
X4.111 Z-0.0244 I0.038 J0.
X4.035 Z-0.0261 I-0.038 J0.
X4.111 Z-0.0279 I0.038 J0.
X4.035 Z-0.0296 I-0.038 J0.
X4.111 Z-0.0314 I0.038 J0.
X4.035 Z-0.0331 I-0.038 J0.
X4.111 Z-0.0349 I0.038 J0.
X4.035 Z-0.0367 I-0.038 J0.
X4.111 Z-0.0384 I0.038 J0.
X4.035 Z-0.0402 I-0.038 J0.
X4.111 Z-0.0419 I0.038 J0.
X4.035 Z-0.0437 I-0.038 J0.
X4.111 Z-0.0454 I0.038 J0.
X4.035 Z-0.0472 I-0.038 J0.
X4.111 Z-0.0489 I0.038 J0.
X4.035 Z-0.0507 I-0.038 J0.
X4.111 Z-0.0524 I0.038 J0.
X4.035 Z-0.0542 I-0.038 J0.
X4.111 Z-0.0559 I0.038 J0.
X4.035 Z-0.0577 I-0.038 J0.
X4.111 Z-0.0595 I0.038 J0.
X4.035 Z-0.0612 I-0.038 J0.
X4.111 Z-0.063 I0.038 J0.
X4.035 Z-0.0647 I-0.038 J0.
X4.111 Z-0.0665 I0.038 J0.
X4.035 Z-0.0682 I-0.038 J0.
X4.111 Z-0.07 I0.038 J0.
X4.035 Z-0.0717 I-0.038 J0.
X4.111 Z-0.0735 I0.038 J0.
X4.035 Z-0.0752 I-0.038 J0.
X4.111 Z-0.077 I0.038 J0.
X4.035 Z-0.0788 I-0.038 J0.
X4.111 Z-0.0805 I0.038 J0.
X4.035 Z-0.0823 I-0.038 J0.
X4.111 Z-0.084 I0.038 J0.
X4.035 Z-0.0858 I-0.038 J0.
X4.111 Z-0.0875 I0.038 J0.
X4.035 Z-0.0893 I-0.038 J0.
X4.111 Z-0.091 I0.038 J0.
X4.035 Z-0.0928 I-0.038 J0.
X4.111 Z-0.0945 I0.038 J0.
X4.035 Z-0.0963 I-0.038 J0.
X4.111 Z-0.098 I0.038 J0.
X4.035 Z-0.0998 I-0.038 J0.
X4.111 Z-0.1016 I0.038 J0.
X4.035 Z-0.1033 I-0.038 J0.
X4.111 Z-0.1051 I0.038 J0.
X4.035 Z-0.1068 I-0.038 J0.
X4.111 Z-0.1086 I0.038 J0.
X4.035 Z-0.1103 I-0.038 J0.
X4.111 Z-0.1121 I0.038 J0.
X4.035 Z-0.1138 I-0.038 J0.
X4.111 Z-0.1156 I0.038 J0.
X4.035 Z-0.1173 I-0.038 J0.
X4.111 Z-0.1191 I0.038 J0.
X4.035 Z-0.1209 I-0.038 J0.
X4.111 Z-0.1226 I0.038 J0.
X4.035 Z-0.1244 I-0.038 J0.
X4.111 Z-0.1261 I0.038 J0.
X4.035 Z-0.1279 I-0.038 J0.
X4.111 Z-0.1296 I0.038 J0.
X4.035 Z-0.1314 I-0.038 J0.
X4.111 Z-0.1331 I0.038 J0.
X4.035 Z-0.1349 I-0.038 J0.
X4.111 Z-0.1366 I0.038 J0.
X4.035 Z-0.1384 I-0.038 J0.
X4.111 Z-0.1402 I0.038 J0.
X4.035 Z-0.1419 I-0.038 J0.
X4.111 Z-0.1437 I0.038 J0.
X4.035 Z-0.1454 I-0.038 J0.
X4.111 Z-0.1472 I0.038 J0.
X4.035 Z-0.1489 I-0.038 J0.
X4.111 Z-0.1507 I0.038 J0.
X4.035 Z-0.1524 I-0.038 J0.
X4.111 Z-0.1542 I0.038 J0.
X4.035 Z-0.1559 I-0.038 J0.
X4.111 Z-0.1577 I0.038 J0.
X4.035 Z-0.1594 I-0.038 J0.
X4.111 Z-0.1612 I0.038 J0.
X4.035 Z-0.163 I-0.038 J0.
X4.111 Z-0.1647 I0.038 J0.
X4.035 Z-0.1665 I-0.038 J0.
X4.111 Z-0.1682 I0.038 J0.
X4.035 Z-0.17 I-0.038 J0.
X4.111 Z-0.1717 I0.038 J0.
X4.035 Z-0.1735 I-0.038 J0.
X4.111 Z-0.1752 I0.038 J0.
X4.035 Z-0.177 I-0.038 J0.
X4.111 Z-0.1787 I0.038 J0.
X4.035 Z-0.1805 I-0.038 J0.
X4.111 Z-0.1823 I0.038 J0.
X4.035 Z-0.184 I-0.038 J0.
X4.111 Z-0.1858 I0.038 J0.
X4.035 Z-0.1875 I-0.038 J0.
X4.111 Z-0.1893 I0.038 J0.
X4.035 Z-0.191 I-0.038 J0.
X4.111 Z-0.1928 I0.038 J0.
X4.035 Z-0.1945 I-0.038 J0.
X4.111 Z-0.1963 I0.038 J0.
X4.035 Z-0.198 I-0.038 J0.
X4.111 Z-0.1998 I0.038 J0.
X4.035 Z-0.2015 I-0.038 J0.
X4.111 Z-0.2033 I0.038 J0.
X4.0999 Y3.9002 Z-0.2037 I-0.038 J0.
X4.0461 Y3.9538 I-0.0269 J0.0268
X4.0999 Y3.9002 I0.0269 J-0.0268
X4.0823 I-0.0089 J0.0088
G1 X4.0778 Y3.9046
X4.0759 Y3.9065 Z-0.2034
X4.074 Y3.9084 Z-0.2025
X4.0723 Y3.9101 Z-0.201
X4.0709 Y3.9115 Z-0.199
X4.0698 Y3.9125 Z-0.1967
X4.0692 Y3.9132 Z-0.194
X4.069 Y3.9134 Z-0.1912
G0 Z0.5906
M5
G0 Z15
G0 X0 Y0

M9
M30
