(1001)
(T1  D=3.175 CR=0. - ZMIN=-5.175 - FLAT END MILL)
G90 G94 G91.1 G40 G49 G17
G21
G0 Z15

(BORE1)
M5
T1 M6
S15000 M3
G54
M8
G0 X32.108 Y30.482
G43 Z15. H1
Z4.5
G1 Z2.818 F800.
G19 G2 Y30.165 Z2.5 J-0.317 K0.
G1 Y30.006
G17 G2 X31.791 Y29.689 I-0.317 J0.
Y33.27 Z2.441 I0. J1.791
Y29.689 Z2.382 I0. J-1.791
Y33.27 Z2.323 I0. J1.791
Y29.689 Z2.264 I0. J-1.791
Y33.27 Z2.205 I0. J1.791
Y29.689 Z2.146 I0. J-1.791
Y33.27 Z2.087 I0. J1.791
Y29.689 Z2.028 I0. J-1.791
Y33.27 Z1.969 I0. J1.791
Y29.689 Z1.91 I0. J-1.791
Y33.27 Z1.851 I0. J1.791
Y29.689 Z1.792 I0. J-1.791
Y33.27 Z1.733 I0. J1.791
Y29.689 Z1.674 I0. J-1.791
Y33.27 Z1.615 I0. J1.791
Y29.689 Z1.557 I0. J-1.791
Y33.27 Z1.498 I0. J1.791
Y29.689 Z1.439 I0. J-1.791
Y33.27 Z1.38 I0. J1.791
Y29.689 Z1.321 I0. J-1.791
Y33.27 Z1.262 I0. J1.791
Y29.689 Z1.203 I0. J-1.791
Y33.27 Z1.144 I0. J1.791
Y29.689 Z1.085 I0. J-1.791
Y33.27 Z1.026 I0. J1.791
Y29.689 Z0.967 I0. J-1.791
Y33.27 Z0.908 I0. J1.791
Y29.689 Z0.849 I0. J-1.791
Y33.27 Z0.79 I0. J1.791
Y29.689 Z0.731 I0. J-1.791
Y33.27 Z0.672 I0. J1.791
Y29.689 Z0.613 I0. J-1.791
Y33.27 Z0.554 I0. J1.791
Y29.689 Z0.495 I0. J-1.791
Y33.27 Z0.436 I0. J1.791
Y29.689 Z0.377 I0. J-1.791
Y33.27 Z0.318 I0. J1.791
Y29.689 Z0.259 I0. J-1.791
Y33.27 Z0.2 I0. J1.791
Y29.689 Z0.141 I0. J-1.791
Y33.27 Z0.082 I0. J1.791
Y29.689 Z0.023 I0. J-1.791
Y33.27 Z-0.036 I0. J1.791
Y29.689 Z-0.095 I0. J-1.791
Y33.27 Z-0.154 I0. J1.791
Y29.689 Z-0.212 I0. J-1.791
Y33.27 Z-0.271 I0. J1.791
Y29.689 Z-0.33 I0. J-1.791
Y33.27 Z-0.389 I0. J1.791
Y29.689 Z-0.448 I0. J-1.791
Y33.27 Z-0.507 I0. J1.791
Y29.689 Z-0.566 I0. J-1.791
Y33.27 Z-0.625 I0. J1.791
Y29.689 Z-0.684 I0. J-1.791
Y33.27 Z-0.743 I0. J1.791
Y29.689 Z-0.802 I0. J-1.791
Y33.27 Z-0.861 I0. J1.791
Y29.689 Z-0.92 I0. J-1.791
Y33.27 Z-0.979 I0. J1.791
Y29.689 Z-1.038 I0. J-1.791
Y33.27 Z-1.097 I0. J1.791
Y29.689 Z-1.156 I0. J-1.791
Y33.27 Z-1.215 I0. J1.791
Y29.689 Z-1.274 I0. J-1.791
Y33.27 Z-1.333 I0. J1.791
Y29.689 Z-1.392 I0. J-1.791
Y33.27 Z-1.451 I0. J1.791
Y29.689 Z-1.51 I0. J-1.791
Y33.27 Z-1.569 I0. J1.791
Y29.689 Z-1.628 I0. J-1.791
Y33.27 Z-1.687 I0. J1.791
Y29.689 Z-1.746 I0. J-1.791
Y33.27 Z-1.805 I0. J1.791
Y29.689 Z-1.864 I0. J-1.791
Y33.27 Z-1.923 I0. J1.791
Y29.689 Z-1.981 I0. J-1.791
Y33.27 Z-2.04 I0. J1.791
Y29.689 Z-2.099 I0. J-1.791
Y33.27 Z-2.158 I0. J1.791
Y29.689 Z-2.217 I0. J-1.791
Y33.27 Z-2.276 I0. J1.791
Y29.689 Z-2.335 I0. J-1.791
Y33.27 Z-2.394 I0. J1.791
Y29.689 Z-2.453 I0. J-1.791
Y33.27 Z-2.512 I0. J1.791
Y29.689 Z-2.571 I0. J-1.791
Y33.27 Z-2.63 I0. J1.791
Y29.689 Z-2.689 I0. J-1.791
Y33.27 Z-2.748 I0. J1.791
Y29.689 Z-2.807 I0. J-1.791
Y33.27 Z-2.866 I0. J1.791
Y29.689 Z-2.925 I0. J-1.791
Y33.27 Z-2.984 I0. J1.791
Y29.689 Z-3.043 I0. J-1.791
Y33.27 Z-3.102 I0. J1.791
Y29.689 Z-3.161 I0. J-1.791
Y33.27 Z-3.22 I0. J1.791
Y29.689 Z-3.279 I0. J-1.791
Y33.27 Z-3.338 I0. J1.791
Y29.689 Z-3.397 I0. J-1.791
Y33.27 Z-3.456 I0. J1.791
Y29.689 Z-3.515 I0. J-1.791
Y33.27 Z-3.574 I0. J1.791
Y29.689 Z-3.633 I0. J-1.791
Y33.27 Z-3.692 I0. J1.791
Y29.689 Z-3.75 I0. J-1.791
Y33.27 Z-3.809 I0. J1.791
Y29.689 Z-3.868 I0. J-1.791
Y33.27 Z-3.927 I0. J1.791
Y29.689 Z-3.986 I0. J-1.791
Y33.27 Z-4.045 I0. J1.791
Y29.689 Z-4.104 I0. J-1.791
Y33.27 Z-4.163 I0. J1.791
Y29.689 Z-4.222 I0. J-1.791
Y33.27 Z-4.281 I0. J1.791
Y29.689 Z-4.34 I0. J-1.791
Y33.27 Z-4.399 I0. J1.791
Y29.689 Z-4.458 I0. J-1.791
Y33.27 Z-4.517 I0. J1.791
Y29.689 Z-4.576 I0. J-1.791
Y33.27 Z-4.635 I0. J1.791
Y29.689 Z-4.694 I0. J-1.791
Y33.27 Z-4.753 I0. J1.791
Y29.689 Z-4.812 I0. J-1.791
Y33.27 Z-4.871 I0. J1.791
Y29.689 Z-4.93 I0. J-1.791
Y33.27 Z-4.989 I0. J1.791
Y29.689 Z-5.048 I0. J-1.791
Y33.27 Z-5.107 I0. J1.791
Y29.689 Z-5.166 I0. J-1.791
X30.937 Y29.905 Z-5.175 I0. J1.791
X32.645 Y33.053 I0.854 J1.574
X30.937 Y29.905 I-0.854 J-1.574
X30.809 Y30.336 I0.151 J0.279
G1 X30.885 Y30.475
X30.919 Y30.537 Z-5.167
X30.951 Y30.596 Z-5.144
X30.979 Y30.649 Z-5.106
X31.003 Y30.693 Z-5.055
X31.021 Y30.727 Z-4.995
X31.033 Y30.747 Z-4.928
X31.036 Y30.754 Z-4.858
G0 Z5.
X32.002 Y55.867
Z4.5
G1 Z2.818 F800.
G19 G2 Y55.55 Z2.5 J-0.318 K0.
G1 Y55.391
G17 G2 X31.685 Y55.074 I-0.318 J0.
Y58.655 Z2.441 I0. J1.791
Y55.074 Z2.382 I0. J-1.791
Y58.655 Z2.323 I0. J1.791
Y55.074 Z2.264 I0. J-1.791
Y58.655 Z2.205 I0. J1.791
Y55.074 Z2.146 I0. J-1.791
Y58.655 Z2.087 I0. J1.791
Y55.074 Z2.028 I0. J-1.791
Y58.655 Z1.969 I0. J1.791
Y55.074 Z1.91 I0. J-1.791
Y58.655 Z1.851 I0. J1.791
Y55.074 Z1.792 I0. J-1.791
Y58.655 Z1.733 I0. J1.791
Y55.074 Z1.674 I0. J-1.791
Y58.655 Z1.615 I0. J1.791
Y55.074 Z1.557 I0. J-1.791
Y58.655 Z1.498 I0. J1.791
Y55.074 Z1.439 I0. J-1.791
Y58.655 Z1.38 I0. J1.791
Y55.074 Z1.321 I0. J-1.791
Y58.655 Z1.262 I0. J1.791
Y55.074 Z1.203 I0. J-1.791
Y58.655 Z1.144 I0. J1.791
Y55.074 Z1.085 I0. J-1.791
Y58.655 Z1.026 I0. J1.791
Y55.074 Z0.967 I0. J-1.791
Y58.655 Z0.908 I0. J1.791
Y55.074 Z0.849 I0. J-1.791
Y58.655 Z0.79 I0. J1.791
Y55.074 Z0.731 I0. J-1.791
Y58.655 Z0.672 I0. J1.791
Y55.074 Z0.613 I0. J-1.791
Y58.655 Z0.554 I0. J1.791
Y55.074 Z0.495 I0. J-1.791
Y58.655 Z0.436 I0. J1.791
Y55.074 Z0.377 I0. J-1.791
Y58.655 Z0.318 I0. J1.791
Y55.074 Z0.259 I0. J-1.791
Y58.655 Z0.2 I0. J1.791
Y55.074 Z0.141 I0. J-1.791
Y58.655 Z0.082 I0. J1.791
Y55.074 Z0.023 I0. J-1.791
Y58.655 Z-0.036 I0. J1.791
Y55.074 Z-0.095 I0. J-1.791
Y58.655 Z-0.154 I0. J1.791
Y55.074 Z-0.212 I0. J-1.791
Y58.655 Z-0.271 I0. J1.791
Y55.074 Z-0.33 I0. J-1.791
Y58.655 Z-0.389 I0. J1.791
Y55.074 Z-0.448 I0. J-1.791
Y58.655 Z-0.507 I0. J1.791
Y55.074 Z-0.566 I0. J-1.791
Y58.655 Z-0.625 I0. J1.791
Y55.074 Z-0.684 I0. J-1.791
Y58.655 Z-0.743 I0. J1.791
Y55.074 Z-0.802 I0. J-1.791
Y58.655 Z-0.861 I0. J1.791
Y55.074 Z-0.92 I0. J-1.791
Y58.655 Z-0.979 I0. J1.791
Y55.074 Z-1.038 I0. J-1.791
Y58.655 Z-1.097 I0. J1.791
Y55.074 Z-1.156 I0. J-1.791
Y58.655 Z-1.215 I0. J1.791
Y55.074 Z-1.274 I0. J-1.791
Y58.655 Z-1.333 I0. J1.791
Y55.074 Z-1.392 I0. J-1.791
Y58.655 Z-1.451 I0. J1.791
Y55.074 Z-1.51 I0. J-1.791
Y58.655 Z-1.569 I0. J1.791
Y55.074 Z-1.628 I0. J-1.791
Y58.655 Z-1.687 I0. J1.791
Y55.074 Z-1.746 I0. J-1.791
Y58.655 Z-1.805 I0. J1.791
Y55.074 Z-1.864 I0. J-1.791
Y58.655 Z-1.923 I0. J1.791
Y55.074 Z-1.981 I0. J-1.791
Y58.655 Z-2.04 I0. J1.791
Y55.074 Z-2.099 I0. J-1.791
Y58.655 Z-2.158 I0. J1.791
Y55.074 Z-2.217 I0. J-1.791
Y58.655 Z-2.276 I0. J1.791
Y55.074 Z-2.335 I0. J-1.791
Y58.655 Z-2.394 I0. J1.791
Y55.074 Z-2.453 I0. J-1.791
Y58.655 Z-2.512 I0. J1.791
Y55.074 Z-2.571 I0. J-1.791
Y58.655 Z-2.63 I0. J1.791
Y55.074 Z-2.689 I0. J-1.791
Y58.655 Z-2.748 I0. J1.791
Y55.074 Z-2.807 I0. J-1.791
Y58.655 Z-2.866 I0. J1.791
Y55.074 Z-2.925 I0. J-1.791
Y58.655 Z-2.984 I0. J1.791
Y55.074 Z-3.043 I0. J-1.791
Y58.655 Z-3.102 I0. J1.791
Y55.074 Z-3.161 I0. J-1.791
Y58.655 Z-3.22 I0. J1.791
Y55.074 Z-3.279 I0. J-1.791
Y58.655 Z-3.338 I0. J1.791
Y55.074 Z-3.397 I0. J-1.791
Y58.655 Z-3.456 I0. J1.791
Y55.074 Z-3.515 I0. J-1.791
Y58.655 Z-3.574 I0. J1.791
Y55.074 Z-3.633 I0. J-1.791
Y58.655 Z-3.692 I0. J1.791
Y55.074 Z-3.75 I0. J-1.791
Y58.655 Z-3.809 I0. J1.791
Y55.074 Z-3.868 I0. J-1.791
Y58.655 Z-3.927 I0. J1.791
Y55.074 Z-3.986 I0. J-1.791
Y58.655 Z-4.045 I0. J1.791
Y55.074 Z-4.104 I0. J-1.791
Y58.655 Z-4.163 I0. J1.791
Y55.074 Z-4.222 I0. J-1.791
Y58.655 Z-4.281 I0. J1.791
Y55.074 Z-4.34 I0. J-1.791
Y58.655 Z-4.399 I0. J1.791
Y55.074 Z-4.458 I0. J-1.791
Y58.655 Z-4.517 I0. J1.791
Y55.074 Z-4.576 I0. J-1.791
Y58.655 Z-4.635 I0. J1.791
Y55.074 Z-4.694 I0. J-1.791
Y58.655 Z-4.753 I0. J1.791
Y55.074 Z-4.812 I0. J-1.791
Y58.655 Z-4.871 I0. J1.791
Y55.074 Z-4.93 I0. J-1.791
Y58.655 Z-4.989 I0. J1.791
Y55.074 Z-5.048 I0. J-1.791
Y58.655 Z-5.107 I0. J1.791
Y55.074 Z-5.166 I0. J-1.791
X30.831 Y55.29 Z-5.175 I0. J1.791
X32.539 Y58.438 I0.854 J1.574
X30.831 Y55.29 I-0.854 J-1.574
X30.703 Y55.721 I0.151 J0.279
G1 X30.779 Y55.86
X30.813 Y55.922 Z-5.167
X30.845 Y55.981 Z-5.144
X30.873 Y56.034 Z-5.106
X30.897 Y56.079 Z-5.055
X30.915 Y56.112 Z-4.995
X30.927 Y56.132 Z-4.928
X30.93 Y56.139 Z-4.858
G0 Z5.
X32.002 Y75.867
Z4.5
G1 Z2.818 F800.
G19 G2 Y75.55 Z2.5 J-0.317 K0.
G1 Y75.391
G17 G2 X31.685 Y75.074 I-0.318 J0.
Y78.655 Z2.441 I0. J1.791
Y75.074 Z2.382 I0. J-1.791
Y78.655 Z2.323 I0. J1.791
Y75.074 Z2.264 I0. J-1.791
Y78.655 Z2.205 I0. J1.791
Y75.074 Z2.146 I0. J-1.791
Y78.655 Z2.087 I0. J1.791
Y75.074 Z2.028 I0. J-1.791
Y78.655 Z1.969 I0. J1.791
Y75.074 Z1.91 I0. J-1.791
Y78.655 Z1.851 I0. J1.791
Y75.074 Z1.792 I0. J-1.791
Y78.655 Z1.733 I0. J1.791
Y75.074 Z1.674 I0. J-1.791
Y78.655 Z1.615 I0. J1.791
Y75.074 Z1.557 I0. J-1.791
Y78.655 Z1.498 I0. J1.791
Y75.074 Z1.439 I0. J-1.791
Y78.655 Z1.38 I0. J1.791
Y75.074 Z1.321 I0. J-1.791
Y78.655 Z1.262 I0. J1.791
Y75.074 Z1.203 I0. J-1.791
Y78.655 Z1.144 I0. J1.791
Y75.074 Z1.085 I0. J-1.791
Y78.655 Z1.026 I0. J1.791
Y75.074 Z0.967 I0. J-1.791
Y78.655 Z0.908 I0. J1.791
Y75.074 Z0.849 I0. J-1.791
Y78.655 Z0.79 I0. J1.791
Y75.074 Z0.731 I0. J-1.791
Y78.655 Z0.672 I0. J1.791
Y75.074 Z0.613 I0. J-1.791
Y78.655 Z0.554 I0. J1.791
Y75.074 Z0.495 I0. J-1.791
Y78.655 Z0.436 I0. J1.791
Y75.074 Z0.377 I0. J-1.791
Y78.655 Z0.318 I0. J1.791
Y75.074 Z0.259 I0. J-1.791
Y78.655 Z0.2 I0. J1.791
Y75.074 Z0.141 I0. J-1.791
Y78.655 Z0.082 I0. J1.791
Y75.074 Z0.023 I0. J-1.791
Y78.655 Z-0.036 I0. J1.791
Y75.074 Z-0.095 I0. J-1.791
Y78.655 Z-0.154 I0. J1.791
Y75.074 Z-0.212 I0. J-1.791
Y78.655 Z-0.271 I0. J1.791
Y75.074 Z-0.33 I0. J-1.791
Y78.655 Z-0.389 I0. J1.791
Y75.074 Z-0.448 I0. J-1.791
Y78.655 Z-0.507 I0. J1.791
Y75.074 Z-0.566 I0. J-1.791
Y78.655 Z-0.625 I0. J1.791
Y75.074 Z-0.684 I0. J-1.791
Y78.655 Z-0.743 I0. J1.791
Y75.074 Z-0.802 I0. J-1.791
Y78.655 Z-0.861 I0. J1.791
Y75.074 Z-0.92 I0. J-1.791
Y78.655 Z-0.979 I0. J1.791
Y75.074 Z-1.038 I0. J-1.791
Y78.655 Z-1.097 I0. J1.791
Y75.074 Z-1.156 I0. J-1.791
Y78.655 Z-1.215 I0. J1.791
Y75.074 Z-1.274 I0. J-1.791
Y78.655 Z-1.333 I0. J1.791
Y75.074 Z-1.392 I0. J-1.791
Y78.655 Z-1.451 I0. J1.791
Y75.074 Z-1.51 I0. J-1.791
Y78.655 Z-1.569 I0. J1.791
Y75.074 Z-1.628 I0. J-1.791
Y78.655 Z-1.687 I0. J1.791
Y75.074 Z-1.746 I0. J-1.791
Y78.655 Z-1.805 I0. J1.791
Y75.074 Z-1.864 I0. J-1.791
Y78.655 Z-1.923 I0. J1.791
Y75.074 Z-1.981 I0. J-1.791
Y78.655 Z-2.04 I0. J1.791
Y75.074 Z-2.099 I0. J-1.791
Y78.655 Z-2.158 I0. J1.791
Y75.074 Z-2.217 I0. J-1.791
Y78.655 Z-2.276 I0. J1.791
Y75.074 Z-2.335 I0. J-1.791
Y78.655 Z-2.394 I0. J1.791
Y75.074 Z-2.453 I0. J-1.791
Y78.655 Z-2.512 I0. J1.791
Y75.074 Z-2.571 I0. J-1.791
Y78.655 Z-2.63 I0. J1.791
Y75.074 Z-2.689 I0. J-1.791
Y78.655 Z-2.748 I0. J1.791
Y75.074 Z-2.807 I0. J-1.791
Y78.655 Z-2.866 I0. J1.791
Y75.074 Z-2.925 I0. J-1.791
Y78.655 Z-2.984 I0. J1.791
Y75.074 Z-3.043 I0. J-1.791
Y78.655 Z-3.102 I0. J1.791
Y75.074 Z-3.161 I0. J-1.791
Y78.655 Z-3.22 I0. J1.791
Y75.074 Z-3.279 I0. J-1.791
Y78.655 Z-3.338 I0. J1.791
Y75.074 Z-3.397 I0. J-1.791
Y78.655 Z-3.456 I0. J1.791
Y75.074 Z-3.515 I0. J-1.791
Y78.655 Z-3.574 I0. J1.791
Y75.074 Z-3.633 I0. J-1.791
Y78.655 Z-3.692 I0. J1.791
Y75.074 Z-3.75 I0. J-1.791
Y78.655 Z-3.809 I0. J1.791
Y75.074 Z-3.868 I0. J-1.791
Y78.655 Z-3.927 I0. J1.791
Y75.074 Z-3.986 I0. J-1.791
Y78.655 Z-4.045 I0. J1.791
Y75.074 Z-4.104 I0. J-1.791
Y78.655 Z-4.163 I0. J1.791
Y75.074 Z-4.222 I0. J-1.791
Y78.655 Z-4.281 I0. J1.791
Y75.074 Z-4.34 I0. J-1.791
Y78.655 Z-4.399 I0. J1.791
Y75.074 Z-4.458 I0. J-1.791
Y78.655 Z-4.517 I0. J1.791
Y75.074 Z-4.576 I0. J-1.791
Y78.655 Z-4.635 I0. J1.791
Y75.074 Z-4.694 I0. J-1.791
Y78.655 Z-4.753 I0. J1.791
Y75.074 Z-4.812 I0. J-1.791
Y78.655 Z-4.871 I0. J1.791
Y75.074 Z-4.93 I0. J-1.791
Y78.655 Z-4.989 I0. J1.791
Y75.074 Z-5.048 I0. J-1.791
Y78.655 Z-5.107 I0. J1.791
Y75.074 Z-5.166 I0. J-1.791
X30.831 Y75.29 Z-5.175 I0. J1.791
X32.539 Y78.438 I0.854 J1.574
X30.831 Y75.29 I-0.854 J-1.574
X30.703 Y75.721 I0.151 J0.279
G1 X30.779 Y75.86
X30.813 Y75.922 Z-5.167
X30.845 Y75.981 Z-5.144
X30.873 Y76.034 Z-5.106
X30.897 Y76.079 Z-5.055
X30.915 Y76.112 Z-4.995
X30.927 Y76.132 Z-4.928
X30.93 Y76.139 Z-4.858
G0 Z5.
X32.002 Y107.617
Z4.5
G1 Z2.818 F800.
G19 G2 Y107.3 Z2.5 J-0.318 K0.
G1 Y107.141
G17 G2 X31.685 Y106.824 I-0.318 J0.
Y110.405 Z2.441 I0. J1.791
Y106.824 Z2.382 I0. J-1.791
Y110.405 Z2.323 I0. J1.791
Y106.824 Z2.264 I0. J-1.791
Y110.405 Z2.205 I0. J1.791
Y106.824 Z2.146 I0. J-1.791
Y110.405 Z2.087 I0. J1.791
Y106.824 Z2.028 I0. J-1.791
Y110.405 Z1.969 I0. J1.791
Y106.824 Z1.91 I0. J-1.791
Y110.405 Z1.851 I0. J1.791
Y106.824 Z1.792 I0. J-1.791
Y110.405 Z1.733 I0. J1.791
Y106.824 Z1.674 I0. J-1.791
Y110.405 Z1.615 I0. J1.791
Y106.824 Z1.557 I0. J-1.791
Y110.405 Z1.498 I0. J1.791
Y106.824 Z1.439 I0. J-1.791
Y110.405 Z1.38 I0. J1.791
Y106.824 Z1.321 I0. J-1.791
Y110.405 Z1.262 I0. J1.791
Y106.824 Z1.203 I0. J-1.791
Y110.405 Z1.144 I0. J1.791
Y106.824 Z1.085 I0. J-1.791
Y110.405 Z1.026 I0. J1.791
Y106.824 Z0.967 I0. J-1.791
Y110.405 Z0.908 I0. J1.791
Y106.824 Z0.849 I0. J-1.791
Y110.405 Z0.79 I0. J1.791
Y106.824 Z0.731 I0. J-1.791
Y110.405 Z0.672 I0. J1.791
Y106.824 Z0.613 I0. J-1.791
Y110.405 Z0.554 I0. J1.791
Y106.824 Z0.495 I0. J-1.791
Y110.405 Z0.436 I0. J1.791
Y106.824 Z0.377 I0. J-1.791
Y110.405 Z0.318 I0. J1.791
Y106.824 Z0.259 I0. J-1.791
Y110.405 Z0.2 I0. J1.791
Y106.824 Z0.141 I0. J-1.791
Y110.405 Z0.082 I0. J1.791
Y106.824 Z0.023 I0. J-1.791
Y110.405 Z-0.036 I0. J1.791
Y106.824 Z-0.095 I0. J-1.791
Y110.405 Z-0.154 I0. J1.791
Y106.824 Z-0.212 I0. J-1.791
Y110.405 Z-0.271 I0. J1.791
Y106.824 Z-0.33 I0. J-1.791
Y110.405 Z-0.389 I0. J1.791
Y106.824 Z-0.448 I0. J-1.791
Y110.405 Z-0.507 I0. J1.791
Y106.824 Z-0.566 I0. J-1.791
Y110.405 Z-0.625 I0. J1.791
Y106.824 Z-0.684 I0. J-1.791
Y110.405 Z-0.743 I0. J1.791
Y106.824 Z-0.802 I0. J-1.791
Y110.405 Z-0.861 I0. J1.791
Y106.824 Z-0.92 I0. J-1.791
Y110.405 Z-0.979 I0. J1.791
Y106.824 Z-1.038 I0. J-1.791
Y110.405 Z-1.097 I0. J1.791
Y106.824 Z-1.156 I0. J-1.791
Y110.405 Z-1.215 I0. J1.791
Y106.824 Z-1.274 I0. J-1.791
Y110.405 Z-1.333 I0. J1.791
Y106.824 Z-1.392 I0. J-1.791
Y110.405 Z-1.451 I0. J1.791
Y106.824 Z-1.51 I0. J-1.791
Y110.405 Z-1.569 I0. J1.791
Y106.824 Z-1.628 I0. J-1.791
Y110.405 Z-1.687 I0. J1.791
Y106.824 Z-1.746 I0. J-1.791
Y110.405 Z-1.805 I0. J1.791
Y106.824 Z-1.864 I0. J-1.791
Y110.405 Z-1.923 I0. J1.791
Y106.824 Z-1.981 I0. J-1.791
Y110.405 Z-2.04 I0. J1.791
Y106.824 Z-2.099 I0. J-1.791
Y110.405 Z-2.158 I0. J1.791
Y106.824 Z-2.217 I0. J-1.791
Y110.405 Z-2.276 I0. J1.791
Y106.824 Z-2.335 I0. J-1.791
Y110.405 Z-2.394 I0. J1.791
Y106.824 Z-2.453 I0. J-1.791
Y110.405 Z-2.512 I0. J1.791
Y106.824 Z-2.571 I0. J-1.791
Y110.405 Z-2.63 I0. J1.791
Y106.824 Z-2.689 I0. J-1.791
Y110.405 Z-2.748 I0. J1.791
Y106.824 Z-2.807 I0. J-1.791
Y110.405 Z-2.866 I0. J1.791
Y106.824 Z-2.925 I0. J-1.791
Y110.405 Z-2.984 I0. J1.791
Y106.824 Z-3.043 I0. J-1.791
Y110.405 Z-3.102 I0. J1.791
Y106.824 Z-3.161 I0. J-1.791
Y110.405 Z-3.22 I0. J1.791
Y106.824 Z-3.279 I0. J-1.791
Y110.405 Z-3.338 I0. J1.791
Y106.824 Z-3.397 I0. J-1.791
Y110.405 Z-3.456 I0. J1.791
Y106.824 Z-3.515 I0. J-1.791
Y110.405 Z-3.574 I0. J1.791
Y106.824 Z-3.633 I0. J-1.791
Y110.405 Z-3.692 I0. J1.791
Y106.824 Z-3.75 I0. J-1.791
Y110.405 Z-3.809 I0. J1.791
Y106.824 Z-3.868 I0. J-1.791
Y110.405 Z-3.927 I0. J1.791
Y106.824 Z-3.986 I0. J-1.791
Y110.405 Z-4.045 I0. J1.791
Y106.824 Z-4.104 I0. J-1.791
Y110.405 Z-4.163 I0. J1.791
Y106.824 Z-4.222 I0. J-1.791
Y110.405 Z-4.281 I0. J1.791
Y106.824 Z-4.34 I0. J-1.791
Y110.405 Z-4.399 I0. J1.791
Y106.824 Z-4.458 I0. J-1.791
Y110.405 Z-4.517 I0. J1.791
Y106.824 Z-4.576 I0. J-1.791
Y110.405 Z-4.635 I0. J1.791
Y106.824 Z-4.694 I0. J-1.791
Y110.405 Z-4.753 I0. J1.791
Y106.824 Z-4.812 I0. J-1.791
Y110.405 Z-4.871 I0. J1.791
Y106.824 Z-4.93 I0. J-1.791
Y110.405 Z-4.989 I0. J1.791
Y106.824 Z-5.048 I0. J-1.791
Y110.405 Z-5.107 I0. J1.791
Y106.824 Z-5.166 I0. J-1.791
X30.831 Y107.04 Z-5.175 I0. J1.791
X32.539 Y110.188 I0.854 J1.574
X30.831 Y107.04 I-0.854 J-1.574
X30.703 Y107.471 I0.151 J0.279
G1 X30.779 Y107.61
X30.813 Y107.672 Z-5.167
X30.845 Y107.731 Z-5.144
X30.873 Y107.784 Z-5.106
X30.897 Y107.829 Z-5.055
X30.915 Y107.862 Z-4.995
X30.927 Y107.882 Z-4.928
X30.93 Y107.889 Z-4.858
G0 Z5.
X32.002 Y127.617
Z4.5
G1 Z2.818 F800.
G19 G2 Y127.3 Z2.5 J-0.318 K0.
G1 Y127.141
G17 G2 X31.685 Y126.824 I-0.318 J0.
Y130.405 Z2.441 I0. J1.791
Y126.824 Z2.382 I0. J-1.791
Y130.405 Z2.323 I0. J1.791
Y126.824 Z2.264 I0. J-1.791
Y130.405 Z2.205 I0. J1.791
Y126.824 Z2.146 I0. J-1.791
Y130.405 Z2.087 I0. J1.791
Y126.824 Z2.028 I0. J-1.791
Y130.405 Z1.969 I0. J1.791
Y126.824 Z1.91 I0. J-1.791
Y130.405 Z1.851 I0. J1.791
Y126.824 Z1.792 I0. J-1.791
Y130.405 Z1.733 I0. J1.791
Y126.824 Z1.674 I0. J-1.791
Y130.405 Z1.615 I0. J1.791
Y126.824 Z1.557 I0. J-1.791
Y130.405 Z1.498 I0. J1.791
Y126.824 Z1.439 I0. J-1.791
Y130.405 Z1.38 I0. J1.791
Y126.824 Z1.321 I0. J-1.791
Y130.405 Z1.262 I0. J1.791
Y126.824 Z1.203 I0. J-1.791
Y130.405 Z1.144 I0. J1.791
Y126.824 Z1.085 I0. J-1.791
Y130.405 Z1.026 I0. J1.791
Y126.824 Z0.967 I0. J-1.791
Y130.405 Z0.908 I0. J1.791
Y126.824 Z0.849 I0. J-1.791
Y130.405 Z0.79 I0. J1.791
Y126.824 Z0.731 I0. J-1.791
Y130.405 Z0.672 I0. J1.791
Y126.824 Z0.613 I0. J-1.791
Y130.405 Z0.554 I0. J1.791
Y126.824 Z0.495 I0. J-1.791
Y130.405 Z0.436 I0. J1.791
Y126.824 Z0.377 I0. J-1.791
Y130.405 Z0.318 I0. J1.791
Y126.824 Z0.259 I0. J-1.791
Y130.405 Z0.2 I0. J1.791
Y126.824 Z0.141 I0. J-1.791
Y130.405 Z0.082 I0. J1.791
Y126.824 Z0.023 I0. J-1.791
Y130.405 Z-0.036 I0. J1.791
Y126.824 Z-0.095 I0. J-1.791
Y130.405 Z-0.154 I0. J1.791
Y126.824 Z-0.212 I0. J-1.791
Y130.405 Z-0.271 I0. J1.791
Y126.824 Z-0.33 I0. J-1.791
Y130.405 Z-0.389 I0. J1.791
Y126.824 Z-0.448 I0. J-1.791
Y130.405 Z-0.507 I0. J1.791
Y126.824 Z-0.566 I0. J-1.791
Y130.405 Z-0.625 I0. J1.791
Y126.824 Z-0.684 I0. J-1.791
Y130.405 Z-0.743 I0. J1.791
Y126.824 Z-0.802 I0. J-1.791
Y130.405 Z-0.861 I0. J1.791
Y126.824 Z-0.92 I0. J-1.791
Y130.405 Z-0.979 I0. J1.791
Y126.824 Z-1.038 I0. J-1.791
Y130.405 Z-1.097 I0. J1.791
Y126.824 Z-1.156 I0. J-1.791
Y130.405 Z-1.215 I0. J1.791
Y126.824 Z-1.274 I0. J-1.791
Y130.405 Z-1.333 I0. J1.791
Y126.824 Z-1.392 I0. J-1.791
Y130.405 Z-1.451 I0. J1.791
Y126.824 Z-1.51 I0. J-1.791
Y130.405 Z-1.569 I0. J1.791
Y126.824 Z-1.628 I0. J-1.791
Y130.405 Z-1.687 I0. J1.791
Y126.824 Z-1.746 I0. J-1.791
Y130.405 Z-1.805 I0. J1.791
Y126.824 Z-1.864 I0. J-1.791
Y130.405 Z-1.923 I0. J1.791
Y126.824 Z-1.981 I0. J-1.791
Y130.405 Z-2.04 I0. J1.791
Y126.824 Z-2.099 I0. J-1.791
Y130.405 Z-2.158 I0. J1.791
Y126.824 Z-2.217 I0. J-1.791
Y130.405 Z-2.276 I0. J1.791
Y126.824 Z-2.335 I0. J-1.791
Y130.405 Z-2.394 I0. J1.791
Y126.824 Z-2.453 I0. J-1.791
Y130.405 Z-2.512 I0. J1.791
Y126.824 Z-2.571 I0. J-1.791
Y130.405 Z-2.63 I0. J1.791
Y126.824 Z-2.689 I0. J-1.791
Y130.405 Z-2.748 I0. J1.791
Y126.824 Z-2.807 I0. J-1.791
Y130.405 Z-2.866 I0. J1.791
Y126.824 Z-2.925 I0. J-1.791
Y130.405 Z-2.984 I0. J1.791
Y126.824 Z-3.043 I0. J-1.791
Y130.405 Z-3.102 I0. J1.791
Y126.824 Z-3.161 I0. J-1.791
Y130.405 Z-3.22 I0. J1.791
Y126.824 Z-3.279 I0. J-1.791
Y130.405 Z-3.338 I0. J1.791
Y126.824 Z-3.397 I0. J-1.791
Y130.405 Z-3.456 I0. J1.791
Y126.824 Z-3.515 I0. J-1.791
Y130.405 Z-3.574 I0. J1.791
Y126.824 Z-3.633 I0. J-1.791
Y130.405 Z-3.692 I0. J1.791
Y126.824 Z-3.75 I0. J-1.791
Y130.405 Z-3.809 I0. J1.791
Y126.824 Z-3.868 I0. J-1.791
Y130.405 Z-3.927 I0. J1.791
Y126.824 Z-3.986 I0. J-1.791
Y130.405 Z-4.045 I0. J1.791
Y126.824 Z-4.104 I0. J-1.791
Y130.405 Z-4.163 I0. J1.791
Y126.824 Z-4.222 I0. J-1.791
Y130.405 Z-4.281 I0. J1.791
Y126.824 Z-4.34 I0. J-1.791
Y130.405 Z-4.399 I0. J1.791
Y126.824 Z-4.458 I0. J-1.791
Y130.405 Z-4.517 I0. J1.791
Y126.824 Z-4.576 I0. J-1.791
Y130.405 Z-4.635 I0. J1.791
Y126.824 Z-4.694 I0. J-1.791
Y130.405 Z-4.753 I0. J1.791
Y126.824 Z-4.812 I0. J-1.791
Y130.405 Z-4.871 I0. J1.791
Y126.824 Z-4.93 I0. J-1.791
Y130.405 Z-4.989 I0. J1.791
Y126.824 Z-5.048 I0. J-1.791
Y130.405 Z-5.107 I0. J1.791
Y126.824 Z-5.166 I0. J-1.791
X30.831 Y127.04 Z-5.175 I0. J1.791
X32.539 Y130.188 I0.854 J1.574
X30.831 Y127.04 I-0.854 J-1.574
X30.703 Y127.471 I0.151 J0.279
G1 X30.779 Y127.61
X30.813 Y127.672 Z-5.167
X30.845 Y127.731 Z-5.144
X30.873 Y127.784 Z-5.106
X30.897 Y127.829 Z-5.055
X30.915 Y127.862 Z-4.995
X30.927 Y127.882 Z-4.928
X30.93 Y127.889 Z-4.858
G0 Z5.
X56.202 Y127.617
Z4.5
G1 Z2.818 F800.
G19 G2 Y127.3 Z2.5 J-0.318 K0.
G1 Y127.141
G17 G2 X55.885 Y126.824 I-0.317 J0.
Y130.405 Z2.441 I0. J1.791
Y126.824 Z2.382 I0. J-1.791
Y130.405 Z2.323 I0. J1.791
Y126.824 Z2.264 I0. J-1.791
Y130.405 Z2.205 I0. J1.791
Y126.824 Z2.146 I0. J-1.791
Y130.405 Z2.087 I0. J1.791
Y126.824 Z2.028 I0. J-1.791
Y130.405 Z1.969 I0. J1.791
Y126.824 Z1.91 I0. J-1.791
Y130.405 Z1.851 I0. J1.791
Y126.824 Z1.792 I0. J-1.791
Y130.405 Z1.733 I0. J1.791
Y126.824 Z1.674 I0. J-1.791
Y130.405 Z1.615 I0. J1.791
Y126.824 Z1.557 I0. J-1.791
Y130.405 Z1.498 I0. J1.791
Y126.824 Z1.439 I0. J-1.791
Y130.405 Z1.38 I0. J1.791
Y126.824 Z1.321 I0. J-1.791
Y130.405 Z1.262 I0. J1.791
Y126.824 Z1.203 I0. J-1.791
Y130.405 Z1.144 I0. J1.791
Y126.824 Z1.085 I0. J-1.791
Y130.405 Z1.026 I0. J1.791
Y126.824 Z0.967 I0. J-1.791
Y130.405 Z0.908 I0. J1.791
Y126.824 Z0.849 I0. J-1.791
Y130.405 Z0.79 I0. J1.791
Y126.824 Z0.731 I0. J-1.791
Y130.405 Z0.672 I0. J1.791
Y126.824 Z0.613 I0. J-1.791
Y130.405 Z0.554 I0. J1.791
Y126.824 Z0.495 I0. J-1.791
Y130.405 Z0.436 I0. J1.791
Y126.824 Z0.377 I0. J-1.791
Y130.405 Z0.318 I0. J1.791
Y126.824 Z0.259 I0. J-1.791
Y130.405 Z0.2 I0. J1.791
Y126.824 Z0.141 I0. J-1.791
Y130.405 Z0.082 I0. J1.791
Y126.824 Z0.023 I0. J-1.791
Y130.405 Z-0.036 I0. J1.791
Y126.824 Z-0.095 I0. J-1.791
Y130.405 Z-0.154 I0. J1.791
Y126.824 Z-0.212 I0. J-1.791
Y130.405 Z-0.271 I0. J1.791
Y126.824 Z-0.33 I0. J-1.791
Y130.405 Z-0.389 I0. J1.791
Y126.824 Z-0.448 I0. J-1.791
Y130.405 Z-0.507 I0. J1.791
Y126.824 Z-0.566 I0. J-1.791
Y130.405 Z-0.625 I0. J1.791
Y126.824 Z-0.684 I0. J-1.791
Y130.405 Z-0.743 I0. J1.791
Y126.824 Z-0.802 I0. J-1.791
Y130.405 Z-0.861 I0. J1.791
Y126.824 Z-0.92 I0. J-1.791
Y130.405 Z-0.979 I0. J1.791
Y126.824 Z-1.038 I0. J-1.791
Y130.405 Z-1.097 I0. J1.791
Y126.824 Z-1.156 I0. J-1.791
Y130.405 Z-1.215 I0. J1.791
Y126.824 Z-1.274 I0. J-1.791
Y130.405 Z-1.333 I0. J1.791
Y126.824 Z-1.392 I0. J-1.791
Y130.405 Z-1.451 I0. J1.791
Y126.824 Z-1.51 I0. J-1.791
Y130.405 Z-1.569 I0. J1.791
Y126.824 Z-1.628 I0. J-1.791
Y130.405 Z-1.687 I0. J1.791
Y126.824 Z-1.746 I0. J-1.791
Y130.405 Z-1.805 I0. J1.791
Y126.824 Z-1.864 I0. J-1.791
Y130.405 Z-1.923 I0. J1.791
Y126.824 Z-1.981 I0. J-1.791
Y130.405 Z-2.04 I0. J1.791
Y126.824 Z-2.099 I0. J-1.791
Y130.405 Z-2.158 I0. J1.791
Y126.824 Z-2.217 I0. J-1.791
Y130.405 Z-2.276 I0. J1.791
Y126.824 Z-2.335 I0. J-1.791
Y130.405 Z-2.394 I0. J1.791
Y126.824 Z-2.453 I0. J-1.791
Y130.405 Z-2.512 I0. J1.791
Y126.824 Z-2.571 I0. J-1.791
Y130.405 Z-2.63 I0. J1.791
Y126.824 Z-2.689 I0. J-1.791
Y130.405 Z-2.748 I0. J1.791
Y126.824 Z-2.807 I0. J-1.791
Y130.405 Z-2.866 I0. J1.791
Y126.824 Z-2.925 I0. J-1.791
Y130.405 Z-2.984 I0. J1.791
Y126.824 Z-3.043 I0. J-1.791
Y130.405 Z-3.102 I0. J1.791
Y126.824 Z-3.161 I0. J-1.791
Y130.405 Z-3.22 I0. J1.791
Y126.824 Z-3.279 I0. J-1.791
Y130.405 Z-3.338 I0. J1.791
Y126.824 Z-3.397 I0. J-1.791
Y130.405 Z-3.456 I0. J1.791
Y126.824 Z-3.515 I0. J-1.791
Y130.405 Z-3.574 I0. J1.791
Y126.824 Z-3.633 I0. J-1.791
Y130.405 Z-3.692 I0. J1.791
Y126.824 Z-3.75 I0. J-1.791
Y130.405 Z-3.809 I0. J1.791
Y126.824 Z-3.868 I0. J-1.791
Y130.405 Z-3.927 I0. J1.791
Y126.824 Z-3.986 I0. J-1.791
Y130.405 Z-4.045 I0. J1.791
Y126.824 Z-4.104 I0. J-1.791
Y130.405 Z-4.163 I0. J1.791
Y126.824 Z-4.222 I0. J-1.791
Y130.405 Z-4.281 I0. J1.791
Y126.824 Z-4.34 I0. J-1.791
Y130.405 Z-4.399 I0. J1.791
Y126.824 Z-4.458 I0. J-1.791
Y130.405 Z-4.517 I0. J1.791
Y126.824 Z-4.576 I0. J-1.791
Y130.405 Z-4.635 I0. J1.791
Y126.824 Z-4.694 I0. J-1.791
Y130.405 Z-4.753 I0. J1.791
Y126.824 Z-4.812 I0. J-1.791
Y130.405 Z-4.871 I0. J1.791
Y126.824 Z-4.93 I0. J-1.791
Y130.405 Z-4.989 I0. J1.791
Y126.824 Z-5.048 I0. J-1.791
Y130.405 Z-5.107 I0. J1.791
Y126.824 Z-5.166 I0. J-1.791
X55.031 Y127.04 Z-5.175 I0. J1.791
X56.739 Y130.188 I0.854 J1.574
X55.031 Y127.04 I-0.854 J-1.574
X54.903 Y127.471 I0.151 J0.279
G1 X54.979 Y127.61
X55.013 Y127.672 Z-5.167
X55.045 Y127.731 Z-5.144
X55.073 Y127.784 Z-5.106
X55.097 Y127.829 Z-5.055
X55.115 Y127.862 Z-4.995
X55.127 Y127.882 Z-4.928
X55.13 Y127.889 Z-4.858
G0 Z5.
X56.202 Y114.917
Z4.5
G1 Z2.818 F800.
G19 G2 Y114.6 Z2.5 J-0.317 K0.
G1 Y114.441
G17 G2 X55.885 Y114.124 I-0.317 J0.
Y117.705 Z2.441 I0. J1.791
Y114.124 Z2.382 I0. J-1.791
Y117.705 Z2.323 I0. J1.791
Y114.124 Z2.264 I0. J-1.791
Y117.705 Z2.205 I0. J1.791
Y114.124 Z2.146 I0. J-1.791
Y117.705 Z2.087 I0. J1.791
Y114.124 Z2.028 I0. J-1.791
Y117.705 Z1.969 I0. J1.791
Y114.124 Z1.91 I0. J-1.791
Y117.705 Z1.851 I0. J1.791
Y114.124 Z1.792 I0. J-1.791
Y117.705 Z1.733 I0. J1.791
Y114.124 Z1.674 I0. J-1.791
Y117.705 Z1.615 I0. J1.791
Y114.124 Z1.557 I0. J-1.791
Y117.705 Z1.498 I0. J1.791
Y114.124 Z1.439 I0. J-1.791
Y117.705 Z1.38 I0. J1.791
Y114.124 Z1.321 I0. J-1.791
Y117.705 Z1.262 I0. J1.791
Y114.124 Z1.203 I0. J-1.791
Y117.705 Z1.144 I0. J1.791
Y114.124 Z1.085 I0. J-1.791
Y117.705 Z1.026 I0. J1.791
Y114.124 Z0.967 I0. J-1.791
Y117.705 Z0.908 I0. J1.791
Y114.124 Z0.849 I0. J-1.791
Y117.705 Z0.79 I0. J1.791
Y114.124 Z0.731 I0. J-1.791
Y117.705 Z0.672 I0. J1.791
Y114.124 Z0.613 I0. J-1.791
Y117.705 Z0.554 I0. J1.791
Y114.124 Z0.495 I0. J-1.791
Y117.705 Z0.436 I0. J1.791
Y114.124 Z0.377 I0. J-1.791
Y117.705 Z0.318 I0. J1.791
Y114.124 Z0.259 I0. J-1.791
Y117.705 Z0.2 I0. J1.791
Y114.124 Z0.141 I0. J-1.791
Y117.705 Z0.082 I0. J1.791
Y114.124 Z0.023 I0. J-1.791
Y117.705 Z-0.036 I0. J1.791
Y114.124 Z-0.095 I0. J-1.791
Y117.705 Z-0.154 I0. J1.791
Y114.124 Z-0.212 I0. J-1.791
Y117.705 Z-0.271 I0. J1.791
Y114.124 Z-0.33 I0. J-1.791
Y117.705 Z-0.389 I0. J1.791
Y114.124 Z-0.448 I0. J-1.791
Y117.705 Z-0.507 I0. J1.791
Y114.124 Z-0.566 I0. J-1.791
Y117.705 Z-0.625 I0. J1.791
Y114.124 Z-0.684 I0. J-1.791
Y117.705 Z-0.743 I0. J1.791
Y114.124 Z-0.802 I0. J-1.791
Y117.705 Z-0.861 I0. J1.791
Y114.124 Z-0.92 I0. J-1.791
Y117.705 Z-0.979 I0. J1.791
Y114.124 Z-1.038 I0. J-1.791
Y117.705 Z-1.097 I0. J1.791
Y114.124 Z-1.156 I0. J-1.791
Y117.705 Z-1.215 I0. J1.791
Y114.124 Z-1.274 I0. J-1.791
Y117.705 Z-1.333 I0. J1.791
Y114.124 Z-1.392 I0. J-1.791
Y117.705 Z-1.451 I0. J1.791
Y114.124 Z-1.51 I0. J-1.791
Y117.705 Z-1.569 I0. J1.791
Y114.124 Z-1.628 I0. J-1.791
Y117.705 Z-1.687 I0. J1.791
Y114.124 Z-1.746 I0. J-1.791
Y117.705 Z-1.805 I0. J1.791
Y114.124 Z-1.864 I0. J-1.791
Y117.705 Z-1.923 I0. J1.791
Y114.124 Z-1.981 I0. J-1.791
Y117.705 Z-2.04 I0. J1.791
Y114.124 Z-2.099 I0. J-1.791
Y117.705 Z-2.158 I0. J1.791
Y114.124 Z-2.217 I0. J-1.791
Y117.705 Z-2.276 I0. J1.791
Y114.124 Z-2.335 I0. J-1.791
Y117.705 Z-2.394 I0. J1.791
Y114.124 Z-2.453 I0. J-1.791
Y117.705 Z-2.512 I0. J1.791
Y114.124 Z-2.571 I0. J-1.791
Y117.705 Z-2.63 I0. J1.791
Y114.124 Z-2.689 I0. J-1.791
Y117.705 Z-2.748 I0. J1.791
Y114.124 Z-2.807 I0. J-1.791
Y117.705 Z-2.866 I0. J1.791
Y114.124 Z-2.925 I0. J-1.791
Y117.705 Z-2.984 I0. J1.791
Y114.124 Z-3.043 I0. J-1.791
Y117.705 Z-3.102 I0. J1.791
Y114.124 Z-3.161 I0. J-1.791
Y117.705 Z-3.22 I0. J1.791
Y114.124 Z-3.279 I0. J-1.791
Y117.705 Z-3.338 I0. J1.791
Y114.124 Z-3.397 I0. J-1.791
Y117.705 Z-3.456 I0. J1.791
Y114.124 Z-3.515 I0. J-1.791
Y117.705 Z-3.574 I0. J1.791
Y114.124 Z-3.633 I0. J-1.791
Y117.705 Z-3.692 I0. J1.791
Y114.124 Z-3.75 I0. J-1.791
Y117.705 Z-3.809 I0. J1.791
Y114.124 Z-3.868 I0. J-1.791
Y117.705 Z-3.927 I0. J1.791
Y114.124 Z-3.986 I0. J-1.791
Y117.705 Z-4.045 I0. J1.791
Y114.124 Z-4.104 I0. J-1.791
Y117.705 Z-4.163 I0. J1.791
Y114.124 Z-4.222 I0. J-1.791
Y117.705 Z-4.281 I0. J1.791
Y114.124 Z-4.34 I0. J-1.791
Y117.705 Z-4.399 I0. J1.791
Y114.124 Z-4.458 I0. J-1.791
Y117.705 Z-4.517 I0. J1.791
Y114.124 Z-4.576 I0. J-1.791
Y117.705 Z-4.635 I0. J1.791
Y114.124 Z-4.694 I0. J-1.791
Y117.705 Z-4.753 I0. J1.791
Y114.124 Z-4.812 I0. J-1.791
Y117.705 Z-4.871 I0. J1.791
Y114.124 Z-4.93 I0. J-1.791
Y117.705 Z-4.989 I0. J1.791
Y114.124 Z-5.048 I0. J-1.791
Y117.705 Z-5.107 I0. J1.791
Y114.124 Z-5.166 I0. J-1.791
X55.031 Y114.34 Z-5.175 I0. J1.791
X56.739 Y117.488 I0.854 J1.574
X55.031 Y114.34 I-0.854 J-1.574
X54.903 Y114.771 I0.151 J0.279
G1 X54.979 Y114.91
X55.013 Y114.972 Z-5.167
X55.045 Y115.031 Z-5.144
X55.073 Y115.084 Z-5.106
X55.097 Y115.129 Z-5.055
X55.115 Y115.162 Z-4.995
X55.127 Y115.182 Z-4.928
X55.13 Y115.189 Z-4.858
G0 Z5.
X56.202 Y102.217
Z4.5
G1 Z2.818 F800.
G19 G2 Y101.9 Z2.5 J-0.317 K0.
G1 Y101.741
G17 G2 X55.885 Y101.424 I-0.317 J0.
Y105.005 Z2.441 I0. J1.791
Y101.424 Z2.382 I0. J-1.791
Y105.005 Z2.323 I0. J1.791
Y101.424 Z2.264 I0. J-1.791
Y105.005 Z2.205 I0. J1.791
Y101.424 Z2.146 I0. J-1.791
Y105.005 Z2.087 I0. J1.791
Y101.424 Z2.028 I0. J-1.791
Y105.005 Z1.969 I0. J1.791
Y101.424 Z1.91 I0. J-1.791
Y105.005 Z1.851 I0. J1.791
Y101.424 Z1.792 I0. J-1.791
Y105.005 Z1.733 I0. J1.791
Y101.424 Z1.674 I0. J-1.791
Y105.005 Z1.615 I0. J1.791
Y101.424 Z1.557 I0. J-1.791
Y105.005 Z1.498 I0. J1.791
Y101.424 Z1.439 I0. J-1.791
Y105.005 Z1.38 I0. J1.791
Y101.424 Z1.321 I0. J-1.791
Y105.005 Z1.262 I0. J1.791
Y101.424 Z1.203 I0. J-1.791
Y105.005 Z1.144 I0. J1.791
Y101.424 Z1.085 I0. J-1.791
Y105.005 Z1.026 I0. J1.791
Y101.424 Z0.967 I0. J-1.791
Y105.005 Z0.908 I0. J1.791
Y101.424 Z0.849 I0. J-1.791
Y105.005 Z0.79 I0. J1.791
Y101.424 Z0.731 I0. J-1.791
Y105.005 Z0.672 I0. J1.791
Y101.424 Z0.613 I0. J-1.791
Y105.005 Z0.554 I0. J1.791
Y101.424 Z0.495 I0. J-1.791
Y105.005 Z0.436 I0. J1.791
Y101.424 Z0.377 I0. J-1.791
Y105.005 Z0.318 I0. J1.791
Y101.424 Z0.259 I0. J-1.791
Y105.005 Z0.2 I0. J1.791
Y101.424 Z0.141 I0. J-1.791
Y105.005 Z0.082 I0. J1.791
Y101.424 Z0.023 I0. J-1.791
Y105.005 Z-0.036 I0. J1.791
Y101.424 Z-0.095 I0. J-1.791
Y105.005 Z-0.154 I0. J1.791
Y101.424 Z-0.212 I0. J-1.791
Y105.005 Z-0.271 I0. J1.791
Y101.424 Z-0.33 I0. J-1.791
Y105.005 Z-0.389 I0. J1.791
Y101.424 Z-0.448 I0. J-1.791
Y105.005 Z-0.507 I0. J1.791
Y101.424 Z-0.566 I0. J-1.791
Y105.005 Z-0.625 I0. J1.791
Y101.424 Z-0.684 I0. J-1.791
Y105.005 Z-0.743 I0. J1.791
Y101.424 Z-0.802 I0. J-1.791
Y105.005 Z-0.861 I0. J1.791
Y101.424 Z-0.92 I0. J-1.791
Y105.005 Z-0.979 I0. J1.791
Y101.424 Z-1.038 I0. J-1.791
Y105.005 Z-1.097 I0. J1.791
Y101.424 Z-1.156 I0. J-1.791
Y105.005 Z-1.215 I0. J1.791
Y101.424 Z-1.274 I0. J-1.791
Y105.005 Z-1.333 I0. J1.791
Y101.424 Z-1.392 I0. J-1.791
Y105.005 Z-1.451 I0. J1.791
Y101.424 Z-1.51 I0. J-1.791
Y105.005 Z-1.569 I0. J1.791
Y101.424 Z-1.628 I0. J-1.791
Y105.005 Z-1.687 I0. J1.791
Y101.424 Z-1.746 I0. J-1.791
Y105.005 Z-1.805 I0. J1.791
Y101.424 Z-1.864 I0. J-1.791
Y105.005 Z-1.923 I0. J1.791
Y101.424 Z-1.981 I0. J-1.791
Y105.005 Z-2.04 I0. J1.791
Y101.424 Z-2.099 I0. J-1.791
Y105.005 Z-2.158 I0. J1.791
Y101.424 Z-2.217 I0. J-1.791
Y105.005 Z-2.276 I0. J1.791
Y101.424 Z-2.335 I0. J-1.791
Y105.005 Z-2.394 I0. J1.791
Y101.424 Z-2.453 I0. J-1.791
Y105.005 Z-2.512 I0. J1.791
Y101.424 Z-2.571 I0. J-1.791
Y105.005 Z-2.63 I0. J1.791
Y101.424 Z-2.689 I0. J-1.791
Y105.005 Z-2.748 I0. J1.791
Y101.424 Z-2.807 I0. J-1.791
Y105.005 Z-2.866 I0. J1.791
Y101.424 Z-2.925 I0. J-1.791
Y105.005 Z-2.984 I0. J1.791
Y101.424 Z-3.043 I0. J-1.791
Y105.005 Z-3.102 I0. J1.791
Y101.424 Z-3.161 I0. J-1.791
Y105.005 Z-3.22 I0. J1.791
Y101.424 Z-3.279 I0. J-1.791
Y105.005 Z-3.338 I0. J1.791
Y101.424 Z-3.397 I0. J-1.791
Y105.005 Z-3.456 I0. J1.791
Y101.424 Z-3.515 I0. J-1.791
Y105.005 Z-3.574 I0. J1.791
Y101.424 Z-3.633 I0. J-1.791
Y105.005 Z-3.692 I0. J1.791
Y101.424 Z-3.75 I0. J-1.791
Y105.005 Z-3.809 I0. J1.791
Y101.424 Z-3.868 I0. J-1.791
Y105.005 Z-3.927 I0. J1.791
Y101.424 Z-3.986 I0. J-1.791
Y105.005 Z-4.045 I0. J1.791
Y101.424 Z-4.104 I0. J-1.791
Y105.005 Z-4.163 I0. J1.791
Y101.424 Z-4.222 I0. J-1.791
Y105.005 Z-4.281 I0. J1.791
Y101.424 Z-4.34 I0. J-1.791
Y105.005 Z-4.399 I0. J1.791
Y101.424 Z-4.458 I0. J-1.791
Y105.005 Z-4.517 I0. J1.791
Y101.424 Z-4.576 I0. J-1.791
Y105.005 Z-4.635 I0. J1.791
Y101.424 Z-4.694 I0. J-1.791
Y105.005 Z-4.753 I0. J1.791
Y101.424 Z-4.812 I0. J-1.791
Y105.005 Z-4.871 I0. J1.791
Y101.424 Z-4.93 I0. J-1.791
Y105.005 Z-4.989 I0. J1.791
Y101.424 Z-5.048 I0. J-1.791
Y105.005 Z-5.107 I0. J1.791
Y101.424 Z-5.166 I0. J-1.791
X55.031 Y101.64 Z-5.175 I0. J1.791
X56.739 Y104.788 I0.854 J1.574
X55.031 Y101.64 I-0.854 J-1.574
X54.903 Y102.071 I0.151 J0.279
G1 X54.979 Y102.21
X55.013 Y102.272 Z-5.167
X55.045 Y102.331 Z-5.144
X55.073 Y102.384 Z-5.106
X55.097 Y102.429 Z-5.055
X55.115 Y102.462 Z-4.995
X55.127 Y102.482 Z-4.928
X55.13 Y102.489 Z-4.858
G0 Z5.
X120.292 Y121.918
Z4.5
G1 Z2.818 F800.
G19 G3 Y122.235 Z2.5 J0.318 K0.
G1 Y122.394
G17 G2 X120.609 Y122.711 I0.317 J0.
Y119.13 Z2.441 I0. J-1.791
Y122.711 Z2.382 I0. J1.791
Y119.13 Z2.323 I0. J-1.791
Y122.711 Z2.264 I0. J1.791
Y119.13 Z2.205 I0. J-1.791
Y122.711 Z2.146 I0. J1.791
Y119.13 Z2.087 I0. J-1.791
Y122.711 Z2.028 I0. J1.791
Y119.13 Z1.969 I0. J-1.791
Y122.711 Z1.91 I0. J1.791
Y119.13 Z1.851 I0. J-1.791
Y122.711 Z1.792 I0. J1.791
Y119.13 Z1.733 I0. J-1.791
Y122.711 Z1.674 I0. J1.791
Y119.13 Z1.615 I0. J-1.791
Y122.711 Z1.557 I0. J1.791
Y119.13 Z1.498 I0. J-1.791
Y122.711 Z1.439 I0. J1.791
Y119.13 Z1.38 I0. J-1.791
Y122.711 Z1.321 I0. J1.791
Y119.13 Z1.262 I0. J-1.791
Y122.711 Z1.203 I0. J1.791
Y119.13 Z1.144 I0. J-1.791
Y122.711 Z1.085 I0. J1.791
Y119.13 Z1.026 I0. J-1.791
Y122.711 Z0.967 I0. J1.791
Y119.13 Z0.908 I0. J-1.791
Y122.711 Z0.849 I0. J1.791
Y119.13 Z0.79 I0. J-1.791
Y122.711 Z0.731 I0. J1.791
Y119.13 Z0.672 I0. J-1.791
Y122.711 Z0.613 I0. J1.791
Y119.13 Z0.554 I0. J-1.791
Y122.711 Z0.495 I0. J1.791
Y119.13 Z0.436 I0. J-1.791
Y122.711 Z0.377 I0. J1.791
Y119.13 Z0.318 I0. J-1.791
Y122.711 Z0.259 I0. J1.791
Y119.13 Z0.2 I0. J-1.791
Y122.711 Z0.141 I0. J1.791
Y119.13 Z0.082 I0. J-1.791
Y122.711 Z0.023 I0. J1.791
Y119.13 Z-0.036 I0. J-1.791
Y122.711 Z-0.095 I0. J1.791
Y119.13 Z-0.154 I0. J-1.791
Y122.711 Z-0.212 I0. J1.791
Y119.13 Z-0.271 I0. J-1.791
Y122.711 Z-0.33 I0. J1.791
Y119.13 Z-0.389 I0. J-1.791
Y122.711 Z-0.448 I0. J1.791
Y119.13 Z-0.507 I0. J-1.791
Y122.711 Z-0.566 I0. J1.791
Y119.13 Z-0.625 I0. J-1.791
Y122.711 Z-0.684 I0. J1.791
Y119.13 Z-0.743 I0. J-1.791
Y122.711 Z-0.802 I0. J1.791
Y119.13 Z-0.861 I0. J-1.791
Y122.711 Z-0.92 I0. J1.791
Y119.13 Z-0.979 I0. J-1.791
Y122.711 Z-1.038 I0. J1.791
Y119.13 Z-1.097 I0. J-1.791
Y122.711 Z-1.156 I0. J1.791
Y119.13 Z-1.215 I0. J-1.791
Y122.711 Z-1.274 I0. J1.791
Y119.13 Z-1.333 I0. J-1.791
Y122.711 Z-1.392 I0. J1.791
Y119.13 Z-1.451 I0. J-1.791
Y122.711 Z-1.51 I0. J1.791
Y119.13 Z-1.569 I0. J-1.791
Y122.711 Z-1.628 I0. J1.791
Y119.13 Z-1.687 I0. J-1.791
Y122.711 Z-1.746 I0. J1.791
Y119.13 Z-1.805 I0. J-1.791
Y122.711 Z-1.864 I0. J1.791
Y119.13 Z-1.923 I0. J-1.791
Y122.711 Z-1.981 I0. J1.791
Y119.13 Z-2.04 I0. J-1.791
Y122.711 Z-2.099 I0. J1.791
Y119.13 Z-2.158 I0. J-1.791
Y122.711 Z-2.217 I0. J1.791
Y119.13 Z-2.276 I0. J-1.791
Y122.711 Z-2.335 I0. J1.791
Y119.13 Z-2.394 I0. J-1.791
Y122.711 Z-2.453 I0. J1.791
Y119.13 Z-2.512 I0. J-1.791
Y122.711 Z-2.571 I0. J1.791
Y119.13 Z-2.63 I0. J-1.791
Y122.711 Z-2.689 I0. J1.791
Y119.13 Z-2.748 I0. J-1.791
Y122.711 Z-2.807 I0. J1.791
Y119.13 Z-2.866 I0. J-1.791
Y122.711 Z-2.925 I0. J1.791
Y119.13 Z-2.984 I0. J-1.791
Y122.711 Z-3.043 I0. J1.791
Y119.13 Z-3.102 I0. J-1.791
Y122.711 Z-3.161 I0. J1.791
Y119.13 Z-3.22 I0. J-1.791
Y122.711 Z-3.279 I0. J1.791
Y119.13 Z-3.338 I0. J-1.791
Y122.711 Z-3.397 I0. J1.791
Y119.13 Z-3.456 I0. J-1.791
Y122.711 Z-3.515 I0. J1.791
Y119.13 Z-3.574 I0. J-1.791
Y122.711 Z-3.633 I0. J1.791
Y119.13 Z-3.692 I0. J-1.791
Y122.711 Z-3.75 I0. J1.791
Y119.13 Z-3.809 I0. J-1.791
Y122.711 Z-3.868 I0. J1.791
Y119.13 Z-3.927 I0. J-1.791
Y122.711 Z-3.986 I0. J1.791
Y119.13 Z-4.045 I0. J-1.791
Y122.711 Z-4.104 I0. J1.791
Y119.13 Z-4.163 I0. J-1.791
Y122.711 Z-4.222 I0. J1.791
Y119.13 Z-4.281 I0. J-1.791
Y122.711 Z-4.34 I0. J1.791
Y119.13 Z-4.399 I0. J-1.791
Y122.711 Z-4.458 I0. J1.791
Y119.13 Z-4.517 I0. J-1.791
Y122.711 Z-4.576 I0. J1.791
Y119.13 Z-4.635 I0. J-1.791
Y122.711 Z-4.694 I0. J1.791
Y119.13 Z-4.753 I0. J-1.791
Y122.711 Z-4.812 I0. J1.791
Y119.13 Z-4.871 I0. J-1.791
Y122.711 Z-4.93 I0. J1.791
Y119.13 Z-4.989 I0. J-1.791
Y122.711 Z-5.048 I0. J1.791
Y119.13 Z-5.107 I0. J-1.791
Y122.711 Z-5.166 I0. J1.791
X121.463 Y122.495 Z-5.175 I0. J-1.791
X119.755 Y119.347 I-0.854 J-1.574
X121.463 Y122.495 I0.854 J1.574
X121.591 Y122.064 I-0.151 J-0.279
G1 X121.515 Y121.925
X121.481 Y121.863 Z-5.167
X121.449 Y121.804 Z-5.144
X121.421 Y121.751 Z-5.106
X121.397 Y121.707 Z-5.055
X121.379 Y121.673 Z-4.995
X121.367 Y121.653 Z-4.928
X121.364 Y121.646 Z-4.858
G0 Z5.
X120.398 Y96.533
Z4.5
G1 Z2.818 F800.
G19 G3 Y96.85 Z2.5 J0.317 K0.
G1 Y97.009
G17 G2 X120.715 Y97.326 I0.317 J0.
Y93.745 Z2.441 I0. J-1.791
Y97.326 Z2.382 I0. J1.791
Y93.745 Z2.323 I0. J-1.791
Y97.326 Z2.264 I0. J1.791
Y93.745 Z2.205 I0. J-1.791
Y97.326 Z2.146 I0. J1.791
Y93.745 Z2.087 I0. J-1.791
Y97.326 Z2.028 I0. J1.791
Y93.745 Z1.969 I0. J-1.791
Y97.326 Z1.91 I0. J1.791
Y93.745 Z1.851 I0. J-1.791
Y97.326 Z1.792 I0. J1.791
Y93.745 Z1.733 I0. J-1.791
Y97.326 Z1.674 I0. J1.791
Y93.745 Z1.615 I0. J-1.791
Y97.326 Z1.557 I0. J1.791
Y93.745 Z1.498 I0. J-1.791
Y97.326 Z1.439 I0. J1.791
Y93.745 Z1.38 I0. J-1.791
Y97.326 Z1.321 I0. J1.791
Y93.745 Z1.262 I0. J-1.791
Y97.326 Z1.203 I0. J1.791
Y93.745 Z1.144 I0. J-1.791
Y97.326 Z1.085 I0. J1.791
Y93.745 Z1.026 I0. J-1.791
Y97.326 Z0.967 I0. J1.791
Y93.745 Z0.908 I0. J-1.791
Y97.326 Z0.849 I0. J1.791
Y93.745 Z0.79 I0. J-1.791
Y97.326 Z0.731 I0. J1.791
Y93.745 Z0.672 I0. J-1.791
Y97.326 Z0.613 I0. J1.791
Y93.745 Z0.554 I0. J-1.791
Y97.326 Z0.495 I0. J1.791
Y93.745 Z0.436 I0. J-1.791
Y97.326 Z0.377 I0. J1.791
Y93.745 Z0.318 I0. J-1.791
Y97.326 Z0.259 I0. J1.791
Y93.745 Z0.2 I0. J-1.791
Y97.326 Z0.141 I0. J1.791
Y93.745 Z0.082 I0. J-1.791
Y97.326 Z0.023 I0. J1.791
Y93.745 Z-0.036 I0. J-1.791
Y97.326 Z-0.095 I0. J1.791
Y93.745 Z-0.154 I0. J-1.791
Y97.326 Z-0.212 I0. J1.791
Y93.745 Z-0.271 I0. J-1.791
Y97.326 Z-0.33 I0. J1.791
Y93.745 Z-0.389 I0. J-1.791
Y97.326 Z-0.448 I0. J1.791
Y93.745 Z-0.507 I0. J-1.791
Y97.326 Z-0.566 I0. J1.791
Y93.745 Z-0.625 I0. J-1.791
Y97.326 Z-0.684 I0. J1.791
Y93.745 Z-0.743 I0. J-1.791
Y97.326 Z-0.802 I0. J1.791
Y93.745 Z-0.861 I0. J-1.791
Y97.326 Z-0.92 I0. J1.791
Y93.745 Z-0.979 I0. J-1.791
Y97.326 Z-1.038 I0. J1.791
Y93.745 Z-1.097 I0. J-1.791
Y97.326 Z-1.156 I0. J1.791
Y93.745 Z-1.215 I0. J-1.791
Y97.326 Z-1.274 I0. J1.791
Y93.745 Z-1.333 I0. J-1.791
Y97.326 Z-1.392 I0. J1.791
Y93.745 Z-1.451 I0. J-1.791
Y97.326 Z-1.51 I0. J1.791
Y93.745 Z-1.569 I0. J-1.791
Y97.326 Z-1.628 I0. J1.791
Y93.745 Z-1.687 I0. J-1.791
Y97.326 Z-1.746 I0. J1.791
Y93.745 Z-1.805 I0. J-1.791
Y97.326 Z-1.864 I0. J1.791
Y93.745 Z-1.923 I0. J-1.791
Y97.326 Z-1.981 I0. J1.791
Y93.745 Z-2.04 I0. J-1.791
Y97.326 Z-2.099 I0. J1.791
Y93.745 Z-2.158 I0. J-1.791
Y97.326 Z-2.217 I0. J1.791
Y93.745 Z-2.276 I0. J-1.791
Y97.326 Z-2.335 I0. J1.791
Y93.745 Z-2.394 I0. J-1.791
Y97.326 Z-2.453 I0. J1.791
Y93.745 Z-2.512 I0. J-1.791
Y97.326 Z-2.571 I0. J1.791
Y93.745 Z-2.63 I0. J-1.791
Y97.326 Z-2.689 I0. J1.791
Y93.745 Z-2.748 I0. J-1.791
Y97.326 Z-2.807 I0. J1.791
Y93.745 Z-2.866 I0. J-1.791
Y97.326 Z-2.925 I0. J1.791
Y93.745 Z-2.984 I0. J-1.791
Y97.326 Z-3.043 I0. J1.791
Y93.745 Z-3.102 I0. J-1.791
Y97.326 Z-3.161 I0. J1.791
Y93.745 Z-3.22 I0. J-1.791
Y97.326 Z-3.279 I0. J1.791
Y93.745 Z-3.338 I0. J-1.791
Y97.326 Z-3.397 I0. J1.791
Y93.745 Z-3.456 I0. J-1.791
Y97.326 Z-3.515 I0. J1.791
Y93.745 Z-3.574 I0. J-1.791
Y97.326 Z-3.633 I0. J1.791
Y93.745 Z-3.692 I0. J-1.791
Y97.326 Z-3.75 I0. J1.791
Y93.745 Z-3.809 I0. J-1.791
Y97.326 Z-3.868 I0. J1.791
Y93.745 Z-3.927 I0. J-1.791
Y97.326 Z-3.986 I0. J1.791
Y93.745 Z-4.045 I0. J-1.791
Y97.326 Z-4.104 I0. J1.791
Y93.745 Z-4.163 I0. J-1.791
Y97.326 Z-4.222 I0. J1.791
Y93.745 Z-4.281 I0. J-1.791
Y97.326 Z-4.34 I0. J1.791
Y93.745 Z-4.399 I0. J-1.791
Y97.326 Z-4.458 I0. J1.791
Y93.745 Z-4.517 I0. J-1.791
Y97.326 Z-4.576 I0. J1.791
Y93.745 Z-4.635 I0. J-1.791
Y97.326 Z-4.694 I0. J1.791
Y93.745 Z-4.753 I0. J-1.791
Y97.326 Z-4.812 I0. J1.791
Y93.745 Z-4.871 I0. J-1.791
Y97.326 Z-4.93 I0. J1.791
Y93.745 Z-4.989 I0. J-1.791
Y97.326 Z-5.048 I0. J1.791
Y93.745 Z-5.107 I0. J-1.791
Y97.326 Z-5.166 I0. J1.791
X121.569 Y97.11 Z-5.175 I0. J-1.791
X119.861 Y93.962 I-0.854 J-1.574
X121.569 Y97.11 I0.854 J1.574
X121.697 Y96.679 I-0.151 J-0.279
G1 X121.621 Y96.54
X121.587 Y96.478 Z-5.167
X121.555 Y96.419 Z-5.144
X121.527 Y96.366 Z-5.106
X121.503 Y96.321 Z-5.055
X121.485 Y96.288 Z-4.995
X121.473 Y96.268 Z-4.928
X121.47 Y96.261 Z-4.858
G0 Z5.
X120.398 Y76.533
Z4.5
G1 Z2.818 F800.
G19 G3 Y76.85 Z2.5 J0.317 K0.
G1 Y77.009
G17 G2 X120.715 Y77.326 I0.317 J0.
Y73.745 Z2.441 I0. J-1.791
Y77.326 Z2.382 I0. J1.791
Y73.745 Z2.323 I0. J-1.791
Y77.326 Z2.264 I0. J1.791
Y73.745 Z2.205 I0. J-1.791
Y77.326 Z2.146 I0. J1.791
Y73.745 Z2.087 I0. J-1.791
Y77.326 Z2.028 I0. J1.791
Y73.745 Z1.969 I0. J-1.791
Y77.326 Z1.91 I0. J1.791
Y73.745 Z1.851 I0. J-1.791
Y77.326 Z1.792 I0. J1.791
Y73.745 Z1.733 I0. J-1.791
Y77.326 Z1.674 I0. J1.791
Y73.745 Z1.615 I0. J-1.791
Y77.326 Z1.557 I0. J1.791
Y73.745 Z1.498 I0. J-1.791
Y77.326 Z1.439 I0. J1.791
Y73.745 Z1.38 I0. J-1.791
Y77.326 Z1.321 I0. J1.791
Y73.745 Z1.262 I0. J-1.791
Y77.326 Z1.203 I0. J1.791
Y73.745 Z1.144 I0. J-1.791
Y77.326 Z1.085 I0. J1.791
Y73.745 Z1.026 I0. J-1.791
Y77.326 Z0.967 I0. J1.791
Y73.745 Z0.908 I0. J-1.791
Y77.326 Z0.849 I0. J1.791
Y73.745 Z0.79 I0. J-1.791
Y77.326 Z0.731 I0. J1.791
Y73.745 Z0.672 I0. J-1.791
Y77.326 Z0.613 I0. J1.791
Y73.745 Z0.554 I0. J-1.791
Y77.326 Z0.495 I0. J1.791
Y73.745 Z0.436 I0. J-1.791
Y77.326 Z0.377 I0. J1.791
Y73.745 Z0.318 I0. J-1.791
Y77.326 Z0.259 I0. J1.791
Y73.745 Z0.2 I0. J-1.791
Y77.326 Z0.141 I0. J1.791
Y73.745 Z0.082 I0. J-1.791
Y77.326 Z0.023 I0. J1.791
Y73.745 Z-0.036 I0. J-1.791
Y77.326 Z-0.095 I0. J1.791
Y73.745 Z-0.154 I0. J-1.791
Y77.326 Z-0.212 I0. J1.791
Y73.745 Z-0.271 I0. J-1.791
Y77.326 Z-0.33 I0. J1.791
Y73.745 Z-0.389 I0. J-1.791
Y77.326 Z-0.448 I0. J1.791
Y73.745 Z-0.507 I0. J-1.791
Y77.326 Z-0.566 I0. J1.791
Y73.745 Z-0.625 I0. J-1.791
Y77.326 Z-0.684 I0. J1.791
Y73.745 Z-0.743 I0. J-1.791
Y77.326 Z-0.802 I0. J1.791
Y73.745 Z-0.861 I0. J-1.791
Y77.326 Z-0.92 I0. J1.791
Y73.745 Z-0.979 I0. J-1.791
Y77.326 Z-1.038 I0. J1.791
Y73.745 Z-1.097 I0. J-1.791
Y77.326 Z-1.156 I0. J1.791
Y73.745 Z-1.215 I0. J-1.791
Y77.326 Z-1.274 I0. J1.791
Y73.745 Z-1.333 I0. J-1.791
Y77.326 Z-1.392 I0. J1.791
Y73.745 Z-1.451 I0. J-1.791
Y77.326 Z-1.51 I0. J1.791
Y73.745 Z-1.569 I0. J-1.791
Y77.326 Z-1.628 I0. J1.791
Y73.745 Z-1.687 I0. J-1.791
Y77.326 Z-1.746 I0. J1.791
Y73.745 Z-1.805 I0. J-1.791
Y77.326 Z-1.864 I0. J1.791
Y73.745 Z-1.923 I0. J-1.791
Y77.326 Z-1.981 I0. J1.791
Y73.745 Z-2.04 I0. J-1.791
Y77.326 Z-2.099 I0. J1.791
Y73.745 Z-2.158 I0. J-1.791
Y77.326 Z-2.217 I0. J1.791
Y73.745 Z-2.276 I0. J-1.791
Y77.326 Z-2.335 I0. J1.791
Y73.745 Z-2.394 I0. J-1.791
Y77.326 Z-2.453 I0. J1.791
Y73.745 Z-2.512 I0. J-1.791
Y77.326 Z-2.571 I0. J1.791
Y73.745 Z-2.63 I0. J-1.791
Y77.326 Z-2.689 I0. J1.791
Y73.745 Z-2.748 I0. J-1.791
Y77.326 Z-2.807 I0. J1.791
Y73.745 Z-2.866 I0. J-1.791
Y77.326 Z-2.925 I0. J1.791
Y73.745 Z-2.984 I0. J-1.791
Y77.326 Z-3.043 I0. J1.791
Y73.745 Z-3.102 I0. J-1.791
Y77.326 Z-3.161 I0. J1.791
Y73.745 Z-3.22 I0. J-1.791
Y77.326 Z-3.279 I0. J1.791
Y73.745 Z-3.338 I0. J-1.791
Y77.326 Z-3.397 I0. J1.791
Y73.745 Z-3.456 I0. J-1.791
Y77.326 Z-3.515 I0. J1.791
Y73.745 Z-3.574 I0. J-1.791
Y77.326 Z-3.633 I0. J1.791
Y73.745 Z-3.692 I0. J-1.791
Y77.326 Z-3.75 I0. J1.791
Y73.745 Z-3.809 I0. J-1.791
Y77.326 Z-3.868 I0. J1.791
Y73.745 Z-3.927 I0. J-1.791
Y77.326 Z-3.986 I0. J1.791
Y73.745 Z-4.045 I0. J-1.791
Y77.326 Z-4.104 I0. J1.791
Y73.745 Z-4.163 I0. J-1.791
Y77.326 Z-4.222 I0. J1.791
Y73.745 Z-4.281 I0. J-1.791
Y77.326 Z-4.34 I0. J1.791
Y73.745 Z-4.399 I0. J-1.791
Y77.326 Z-4.458 I0. J1.791
Y73.745 Z-4.517 I0. J-1.791
Y77.326 Z-4.576 I0. J1.791
Y73.745 Z-4.635 I0. J-1.791
Y77.326 Z-4.694 I0. J1.791
Y73.745 Z-4.753 I0. J-1.791
Y77.326 Z-4.812 I0. J1.791
Y73.745 Z-4.871 I0. J-1.791
Y77.326 Z-4.93 I0. J1.791
Y73.745 Z-4.989 I0. J-1.791
Y77.326 Z-5.048 I0. J1.791
Y73.745 Z-5.107 I0. J-1.791
Y77.326 Z-5.166 I0. J1.791
X121.569 Y77.11 Z-5.175 I0. J-1.791
X119.861 Y73.962 I-0.854 J-1.574
X121.569 Y77.11 I0.854 J1.574
X121.697 Y76.679 I-0.151 J-0.279
G1 X121.621 Y76.54
X121.587 Y76.478 Z-5.167
X121.555 Y76.419 Z-5.144
X121.527 Y76.366 Z-5.106
X121.503 Y76.321 Z-5.055
X121.485 Y76.288 Z-4.995
X121.473 Y76.268 Z-4.928
X121.47 Y76.261 Z-4.858
G0 Z5.
X120.398 Y44.783
Z4.5
G1 Z2.818 F800.
G19 G3 Y45.1 Z2.5 J0.318 K0.
G1 Y45.259
G17 G2 X120.715 Y45.576 I0.317 J0.
Y41.995 Z2.441 I0. J-1.791
Y45.576 Z2.382 I0. J1.791
Y41.995 Z2.323 I0. J-1.791
Y45.576 Z2.264 I0. J1.791
Y41.995 Z2.205 I0. J-1.791
Y45.576 Z2.146 I0. J1.791
Y41.995 Z2.087 I0. J-1.791
Y45.576 Z2.028 I0. J1.791
Y41.995 Z1.969 I0. J-1.791
Y45.576 Z1.91 I0. J1.791
Y41.995 Z1.851 I0. J-1.791
Y45.576 Z1.792 I0. J1.791
Y41.995 Z1.733 I0. J-1.791
Y45.576 Z1.674 I0. J1.791
Y41.995 Z1.615 I0. J-1.791
Y45.576 Z1.557 I0. J1.791
Y41.995 Z1.498 I0. J-1.791
Y45.576 Z1.439 I0. J1.791
Y41.995 Z1.38 I0. J-1.791
Y45.576 Z1.321 I0. J1.791
Y41.995 Z1.262 I0. J-1.791
Y45.576 Z1.203 I0. J1.791
Y41.995 Z1.144 I0. J-1.791
Y45.576 Z1.085 I0. J1.791
Y41.995 Z1.026 I0. J-1.791
Y45.576 Z0.967 I0. J1.791
Y41.995 Z0.908 I0. J-1.791
Y45.576 Z0.849 I0. J1.791
Y41.995 Z0.79 I0. J-1.791
Y45.576 Z0.731 I0. J1.791
Y41.995 Z0.672 I0. J-1.791
Y45.576 Z0.613 I0. J1.791
Y41.995 Z0.554 I0. J-1.791
Y45.576 Z0.495 I0. J1.791
Y41.995 Z0.436 I0. J-1.791
Y45.576 Z0.377 I0. J1.791
Y41.995 Z0.318 I0. J-1.791
Y45.576 Z0.259 I0. J1.791
Y41.995 Z0.2 I0. J-1.791
Y45.576 Z0.141 I0. J1.791
Y41.995 Z0.082 I0. J-1.791
Y45.576 Z0.023 I0. J1.791
Y41.995 Z-0.036 I0. J-1.791
Y45.576 Z-0.095 I0. J1.791
Y41.995 Z-0.154 I0. J-1.791
Y45.576 Z-0.212 I0. J1.791
Y41.995 Z-0.271 I0. J-1.791
Y45.576 Z-0.33 I0. J1.791
Y41.995 Z-0.389 I0. J-1.791
Y45.576 Z-0.448 I0. J1.791
Y41.995 Z-0.507 I0. J-1.791
Y45.576 Z-0.566 I0. J1.791
Y41.995 Z-0.625 I0. J-1.791
Y45.576 Z-0.684 I0. J1.791
Y41.995 Z-0.743 I0. J-1.791
Y45.576 Z-0.802 I0. J1.791
Y41.995 Z-0.861 I0. J-1.791
Y45.576 Z-0.92 I0. J1.791
Y41.995 Z-0.979 I0. J-1.791
Y45.576 Z-1.038 I0. J1.791
Y41.995 Z-1.097 I0. J-1.791
Y45.576 Z-1.156 I0. J1.791
Y41.995 Z-1.215 I0. J-1.791
Y45.576 Z-1.274 I0. J1.791
Y41.995 Z-1.333 I0. J-1.791
Y45.576 Z-1.392 I0. J1.791
Y41.995 Z-1.451 I0. J-1.791
Y45.576 Z-1.51 I0. J1.791
Y41.995 Z-1.569 I0. J-1.791
Y45.576 Z-1.628 I0. J1.791
Y41.995 Z-1.687 I0. J-1.791
Y45.576 Z-1.746 I0. J1.791
Y41.995 Z-1.805 I0. J-1.791
Y45.576 Z-1.864 I0. J1.791
Y41.995 Z-1.923 I0. J-1.791
Y45.576 Z-1.981 I0. J1.791
Y41.995 Z-2.04 I0. J-1.791
Y45.576 Z-2.099 I0. J1.791
Y41.995 Z-2.158 I0. J-1.791
Y45.576 Z-2.217 I0. J1.791
Y41.995 Z-2.276 I0. J-1.791
Y45.576 Z-2.335 I0. J1.791
Y41.995 Z-2.394 I0. J-1.791
Y45.576 Z-2.453 I0. J1.791
Y41.995 Z-2.512 I0. J-1.791
Y45.576 Z-2.571 I0. J1.791
Y41.995 Z-2.63 I0. J-1.791
Y45.576 Z-2.689 I0. J1.791
Y41.995 Z-2.748 I0. J-1.791
Y45.576 Z-2.807 I0. J1.791
Y41.995 Z-2.866 I0. J-1.791
Y45.576 Z-2.925 I0. J1.791
Y41.995 Z-2.984 I0. J-1.791
Y45.576 Z-3.043 I0. J1.791
Y41.995 Z-3.102 I0. J-1.791
Y45.576 Z-3.161 I0. J1.791
Y41.995 Z-3.22 I0. J-1.791
Y45.576 Z-3.279 I0. J1.791
Y41.995 Z-3.338 I0. J-1.791
Y45.576 Z-3.397 I0. J1.791
Y41.995 Z-3.456 I0. J-1.791
Y45.576 Z-3.515 I0. J1.791
Y41.995 Z-3.574 I0. J-1.791
Y45.576 Z-3.633 I0. J1.791
Y41.995 Z-3.692 I0. J-1.791
Y45.576 Z-3.75 I0. J1.791
Y41.995 Z-3.809 I0. J-1.791
Y45.576 Z-3.868 I0. J1.791
Y41.995 Z-3.927 I0. J-1.791
Y45.576 Z-3.986 I0. J1.791
Y41.995 Z-4.045 I0. J-1.791
Y45.576 Z-4.104 I0. J1.791
Y41.995 Z-4.163 I0. J-1.791
Y45.576 Z-4.222 I0. J1.791
Y41.995 Z-4.281 I0. J-1.791
Y45.576 Z-4.34 I0. J1.791
Y41.995 Z-4.399 I0. J-1.791
Y45.576 Z-4.458 I0. J1.791
Y41.995 Z-4.517 I0. J-1.791
Y45.576 Z-4.576 I0. J1.791
Y41.995 Z-4.635 I0. J-1.791
Y45.576 Z-4.694 I0. J1.791
Y41.995 Z-4.753 I0. J-1.791
Y45.576 Z-4.812 I0. J1.791
Y41.995 Z-4.871 I0. J-1.791
Y45.576 Z-4.93 I0. J1.791
Y41.995 Z-4.989 I0. J-1.791
Y45.576 Z-5.048 I0. J1.791
Y41.995 Z-5.107 I0. J-1.791
Y45.576 Z-5.166 I0. J1.791
X121.569 Y45.36 Z-5.175 I0. J-1.791
X119.861 Y42.212 I-0.854 J-1.574
X121.569 Y45.36 I0.854 J1.574
X121.697 Y44.929 I-0.151 J-0.279
G1 X121.621 Y44.79
X121.587 Y44.728 Z-5.167
X121.555 Y44.669 Z-5.144
X121.527 Y44.616 Z-5.106
X121.503 Y44.571 Z-5.055
X121.485 Y44.538 Z-4.995
X121.473 Y44.518 Z-4.928
X121.47 Y44.511 Z-4.858
G0 Z5.
X120.398 Y24.783
Z4.5
G1 Z2.818 F800.
G19 G3 Y25.1 Z2.5 J0.318 K0.
G1 Y25.259
G17 G2 X120.715 Y25.576 I0.317 J0.
Y21.995 Z2.441 I0. J-1.791
Y25.576 Z2.382 I0. J1.791
Y21.995 Z2.323 I0. J-1.791
Y25.576 Z2.264 I0. J1.791
Y21.995 Z2.205 I0. J-1.791
Y25.576 Z2.146 I0. J1.791
Y21.995 Z2.087 I0. J-1.791
Y25.576 Z2.028 I0. J1.791
Y21.995 Z1.969 I0. J-1.791
Y25.576 Z1.91 I0. J1.791
Y21.995 Z1.851 I0. J-1.791
Y25.576 Z1.792 I0. J1.791
Y21.995 Z1.733 I0. J-1.791
Y25.576 Z1.674 I0. J1.791
Y21.995 Z1.615 I0. J-1.791
Y25.576 Z1.557 I0. J1.791
Y21.995 Z1.498 I0. J-1.791
Y25.576 Z1.439 I0. J1.791
Y21.995 Z1.38 I0. J-1.791
Y25.576 Z1.321 I0. J1.791
Y21.995 Z1.262 I0. J-1.791
Y25.576 Z1.203 I0. J1.791
Y21.995 Z1.144 I0. J-1.791
Y25.576 Z1.085 I0. J1.791
Y21.995 Z1.026 I0. J-1.791
Y25.576 Z0.967 I0. J1.791
Y21.995 Z0.908 I0. J-1.791
Y25.576 Z0.849 I0. J1.791
Y21.995 Z0.79 I0. J-1.791
Y25.576 Z0.731 I0. J1.791
Y21.995 Z0.672 I0. J-1.791
Y25.576 Z0.613 I0. J1.791
Y21.995 Z0.554 I0. J-1.791
Y25.576 Z0.495 I0. J1.791
Y21.995 Z0.436 I0. J-1.791
Y25.576 Z0.377 I0. J1.791
Y21.995 Z0.318 I0. J-1.791
Y25.576 Z0.259 I0. J1.791
Y21.995 Z0.2 I0. J-1.791
Y25.576 Z0.141 I0. J1.791
Y21.995 Z0.082 I0. J-1.791
Y25.576 Z0.023 I0. J1.791
Y21.995 Z-0.036 I0. J-1.791
Y25.576 Z-0.095 I0. J1.791
Y21.995 Z-0.154 I0. J-1.791
Y25.576 Z-0.212 I0. J1.791
Y21.995 Z-0.271 I0. J-1.791
Y25.576 Z-0.33 I0. J1.791
Y21.995 Z-0.389 I0. J-1.791
Y25.576 Z-0.448 I0. J1.791
Y21.995 Z-0.507 I0. J-1.791
Y25.576 Z-0.566 I0. J1.791
Y21.995 Z-0.625 I0. J-1.791
Y25.576 Z-0.684 I0. J1.791
Y21.995 Z-0.743 I0. J-1.791
Y25.576 Z-0.802 I0. J1.791
Y21.995 Z-0.861 I0. J-1.791
Y25.576 Z-0.92 I0. J1.791
Y21.995 Z-0.979 I0. J-1.791
Y25.576 Z-1.038 I0. J1.791
Y21.995 Z-1.097 I0. J-1.791
Y25.576 Z-1.156 I0. J1.791
Y21.995 Z-1.215 I0. J-1.791
Y25.576 Z-1.274 I0. J1.791
Y21.995 Z-1.333 I0. J-1.791
Y25.576 Z-1.392 I0. J1.791
Y21.995 Z-1.451 I0. J-1.791
Y25.576 Z-1.51 I0. J1.791
Y21.995 Z-1.569 I0. J-1.791
Y25.576 Z-1.628 I0. J1.791
Y21.995 Z-1.687 I0. J-1.791
Y25.576 Z-1.746 I0. J1.791
Y21.995 Z-1.805 I0. J-1.791
Y25.576 Z-1.864 I0. J1.791
Y21.995 Z-1.923 I0. J-1.791
Y25.576 Z-1.981 I0. J1.791
Y21.995 Z-2.04 I0. J-1.791
Y25.576 Z-2.099 I0. J1.791
Y21.995 Z-2.158 I0. J-1.791
Y25.576 Z-2.217 I0. J1.791
Y21.995 Z-2.276 I0. J-1.791
Y25.576 Z-2.335 I0. J1.791
Y21.995 Z-2.394 I0. J-1.791
Y25.576 Z-2.453 I0. J1.791
Y21.995 Z-2.512 I0. J-1.791
Y25.576 Z-2.571 I0. J1.791
Y21.995 Z-2.63 I0. J-1.791
Y25.576 Z-2.689 I0. J1.791
Y21.995 Z-2.748 I0. J-1.791
Y25.576 Z-2.807 I0. J1.791
Y21.995 Z-2.866 I0. J-1.791
Y25.576 Z-2.925 I0. J1.791
Y21.995 Z-2.984 I0. J-1.791
Y25.576 Z-3.043 I0. J1.791
Y21.995 Z-3.102 I0. J-1.791
Y25.576 Z-3.161 I0. J1.791
Y21.995 Z-3.22 I0. J-1.791
Y25.576 Z-3.279 I0. J1.791
Y21.995 Z-3.338 I0. J-1.791
Y25.576 Z-3.397 I0. J1.791
Y21.995 Z-3.456 I0. J-1.791
Y25.576 Z-3.515 I0. J1.791
Y21.995 Z-3.574 I0. J-1.791
Y25.576 Z-3.633 I0. J1.791
Y21.995 Z-3.692 I0. J-1.791
Y25.576 Z-3.75 I0. J1.791
Y21.995 Z-3.809 I0. J-1.791
Y25.576 Z-3.868 I0. J1.791
Y21.995 Z-3.927 I0. J-1.791
Y25.576 Z-3.986 I0. J1.791
Y21.995 Z-4.045 I0. J-1.791
Y25.576 Z-4.104 I0. J1.791
Y21.995 Z-4.163 I0. J-1.791
Y25.576 Z-4.222 I0. J1.791
Y21.995 Z-4.281 I0. J-1.791
Y25.576 Z-4.34 I0. J1.791
Y21.995 Z-4.399 I0. J-1.791
Y25.576 Z-4.458 I0. J1.791
Y21.995 Z-4.517 I0. J-1.791
Y25.576 Z-4.576 I0. J1.791
Y21.995 Z-4.635 I0. J-1.791
Y25.576 Z-4.694 I0. J1.791
Y21.995 Z-4.753 I0. J-1.791
Y25.576 Z-4.812 I0. J1.791
Y21.995 Z-4.871 I0. J-1.791
Y25.576 Z-4.93 I0. J1.791
Y21.995 Z-4.989 I0. J-1.791
Y25.576 Z-5.048 I0. J1.791
Y21.995 Z-5.107 I0. J-1.791
Y25.576 Z-5.166 I0. J1.791
X121.569 Y25.36 Z-5.175 I0. J-1.791
X119.861 Y22.212 I-0.854 J-1.574
X121.569 Y25.36 I0.854 J1.574
X121.697 Y24.929 I-0.151 J-0.279
G1 X121.621 Y24.79
X121.587 Y24.728 Z-5.167
X121.555 Y24.669 Z-5.144
X121.527 Y24.616 Z-5.106
X121.503 Y24.571 Z-5.055
X121.485 Y24.538 Z-4.995
X121.473 Y24.518 Z-4.928
X121.47 Y24.511 Z-4.858
G0 Z5.
X96.198 Y24.783
Z4.5
G1 Z2.818 F800.
G19 G3 Y25.1 Z2.5 J0.318 K0.
G1 Y25.259
G17 G2 X96.515 Y25.576 I0.317 J0.
Y21.995 Z2.441 I0. J-1.791
Y25.576 Z2.382 I0. J1.791
Y21.995 Z2.323 I0. J-1.791
Y25.576 Z2.264 I0. J1.791
Y21.995 Z2.205 I0. J-1.791
Y25.576 Z2.146 I0. J1.791
Y21.995 Z2.087 I0. J-1.791
Y25.576 Z2.028 I0. J1.791
Y21.995 Z1.969 I0. J-1.791
Y25.576 Z1.91 I0. J1.791
Y21.995 Z1.851 I0. J-1.791
Y25.576 Z1.792 I0. J1.791
Y21.995 Z1.733 I0. J-1.791
Y25.576 Z1.674 I0. J1.791
Y21.995 Z1.615 I0. J-1.791
Y25.576 Z1.557 I0. J1.791
Y21.995 Z1.498 I0. J-1.791
Y25.576 Z1.439 I0. J1.791
Y21.995 Z1.38 I0. J-1.791
Y25.576 Z1.321 I0. J1.791
Y21.995 Z1.262 I0. J-1.791
Y25.576 Z1.203 I0. J1.791
Y21.995 Z1.144 I0. J-1.791
Y25.576 Z1.085 I0. J1.791
Y21.995 Z1.026 I0. J-1.791
Y25.576 Z0.967 I0. J1.791
Y21.995 Z0.908 I0. J-1.791
Y25.576 Z0.849 I0. J1.791
Y21.995 Z0.79 I0. J-1.791
Y25.576 Z0.731 I0. J1.791
Y21.995 Z0.672 I0. J-1.791
Y25.576 Z0.613 I0. J1.791
Y21.995 Z0.554 I0. J-1.791
Y25.576 Z0.495 I0. J1.791
Y21.995 Z0.436 I0. J-1.791
Y25.576 Z0.377 I0. J1.791
Y21.995 Z0.318 I0. J-1.791
Y25.576 Z0.259 I0. J1.791
Y21.995 Z0.2 I0. J-1.791
Y25.576 Z0.141 I0. J1.791
Y21.995 Z0.082 I0. J-1.791
Y25.576 Z0.023 I0. J1.791
Y21.995 Z-0.036 I0. J-1.791
Y25.576 Z-0.095 I0. J1.791
Y21.995 Z-0.154 I0. J-1.791
Y25.576 Z-0.212 I0. J1.791
Y21.995 Z-0.271 I0. J-1.791
Y25.576 Z-0.33 I0. J1.791
Y21.995 Z-0.389 I0. J-1.791
Y25.576 Z-0.448 I0. J1.791
Y21.995 Z-0.507 I0. J-1.791
Y25.576 Z-0.566 I0. J1.791
Y21.995 Z-0.625 I0. J-1.791
Y25.576 Z-0.684 I0. J1.791
Y21.995 Z-0.743 I0. J-1.791
Y25.576 Z-0.802 I0. J1.791
Y21.995 Z-0.861 I0. J-1.791
Y25.576 Z-0.92 I0. J1.791
Y21.995 Z-0.979 I0. J-1.791
Y25.576 Z-1.038 I0. J1.791
Y21.995 Z-1.097 I0. J-1.791
Y25.576 Z-1.156 I0. J1.791
Y21.995 Z-1.215 I0. J-1.791
Y25.576 Z-1.274 I0. J1.791
Y21.995 Z-1.333 I0. J-1.791
Y25.576 Z-1.392 I0. J1.791
Y21.995 Z-1.451 I0. J-1.791
Y25.576 Z-1.51 I0. J1.791
Y21.995 Z-1.569 I0. J-1.791
Y25.576 Z-1.628 I0. J1.791
Y21.995 Z-1.687 I0. J-1.791
Y25.576 Z-1.746 I0. J1.791
Y21.995 Z-1.805 I0. J-1.791
Y25.576 Z-1.864 I0. J1.791
Y21.995 Z-1.923 I0. J-1.791
Y25.576 Z-1.981 I0. J1.791
Y21.995 Z-2.04 I0. J-1.791
Y25.576 Z-2.099 I0. J1.791
Y21.995 Z-2.158 I0. J-1.791
Y25.576 Z-2.217 I0. J1.791
Y21.995 Z-2.276 I0. J-1.791
Y25.576 Z-2.335 I0. J1.791
Y21.995 Z-2.394 I0. J-1.791
Y25.576 Z-2.453 I0. J1.791
Y21.995 Z-2.512 I0. J-1.791
Y25.576 Z-2.571 I0. J1.791
Y21.995 Z-2.63 I0. J-1.791
Y25.576 Z-2.689 I0. J1.791
Y21.995 Z-2.748 I0. J-1.791
Y25.576 Z-2.807 I0. J1.791
Y21.995 Z-2.866 I0. J-1.791
Y25.576 Z-2.925 I0. J1.791
Y21.995 Z-2.984 I0. J-1.791
Y25.576 Z-3.043 I0. J1.791
Y21.995 Z-3.102 I0. J-1.791
Y25.576 Z-3.161 I0. J1.791
Y21.995 Z-3.22 I0. J-1.791
Y25.576 Z-3.279 I0. J1.791
Y21.995 Z-3.338 I0. J-1.791
Y25.576 Z-3.397 I0. J1.791
Y21.995 Z-3.456 I0. J-1.791
Y25.576 Z-3.515 I0. J1.791
Y21.995 Z-3.574 I0. J-1.791
Y25.576 Z-3.633 I0. J1.791
Y21.995 Z-3.692 I0. J-1.791
Y25.576 Z-3.75 I0. J1.791
Y21.995 Z-3.809 I0. J-1.791
Y25.576 Z-3.868 I0. J1.791
Y21.995 Z-3.927 I0. J-1.791
Y25.576 Z-3.986 I0. J1.791
Y21.995 Z-4.045 I0. J-1.791
Y25.576 Z-4.104 I0. J1.791
Y21.995 Z-4.163 I0. J-1.791
Y25.576 Z-4.222 I0. J1.791
Y21.995 Z-4.281 I0. J-1.791
Y25.576 Z-4.34 I0. J1.791
Y21.995 Z-4.399 I0. J-1.791
Y25.576 Z-4.458 I0. J1.791
Y21.995 Z-4.517 I0. J-1.791
Y25.576 Z-4.576 I0. J1.791
Y21.995 Z-4.635 I0. J-1.791
Y25.576 Z-4.694 I0. J1.791
Y21.995 Z-4.753 I0. J-1.791
Y25.576 Z-4.812 I0. J1.791
Y21.995 Z-4.871 I0. J-1.791
Y25.576 Z-4.93 I0. J1.791
Y21.995 Z-4.989 I0. J-1.791
Y25.576 Z-5.048 I0. J1.791
Y21.995 Z-5.107 I0. J-1.791
Y25.576 Z-5.166 I0. J1.791
X97.369 Y25.36 Z-5.175 I0. J-1.791
X95.661 Y22.212 I-0.854 J-1.574
X97.369 Y25.36 I0.854 J1.574
X97.497 Y24.929 I-0.151 J-0.279
G1 X97.421 Y24.79
X97.387 Y24.728 Z-5.167
X97.355 Y24.669 Z-5.144
X97.327 Y24.616 Z-5.106
X97.303 Y24.571 Z-5.055
X97.285 Y24.538 Z-4.995
X97.273 Y24.518 Z-4.928
X97.27 Y24.511 Z-4.858
G0 Z5.
X96.198 Y37.483
Z4.5
G1 Z2.818 F800.
G19 G3 Y37.8 Z2.5 J0.318 K0.
G1 Y37.959
G17 G2 X96.515 Y38.276 I0.317 J0.
Y34.695 Z2.441 I0. J-1.791
Y38.276 Z2.382 I0. J1.791
Y34.695 Z2.323 I0. J-1.791
Y38.276 Z2.264 I0. J1.791
Y34.695 Z2.205 I0. J-1.791
Y38.276 Z2.146 I0. J1.791
Y34.695 Z2.087 I0. J-1.791
Y38.276 Z2.028 I0. J1.791
Y34.695 Z1.969 I0. J-1.791
Y38.276 Z1.91 I0. J1.791
Y34.695 Z1.851 I0. J-1.791
Y38.276 Z1.792 I0. J1.791
Y34.695 Z1.733 I0. J-1.791
Y38.276 Z1.674 I0. J1.791
Y34.695 Z1.615 I0. J-1.791
Y38.276 Z1.557 I0. J1.791
Y34.695 Z1.498 I0. J-1.791
Y38.276 Z1.439 I0. J1.791
Y34.695 Z1.38 I0. J-1.791
Y38.276 Z1.321 I0. J1.791
Y34.695 Z1.262 I0. J-1.791
Y38.276 Z1.203 I0. J1.791
Y34.695 Z1.144 I0. J-1.791
Y38.276 Z1.085 I0. J1.791
Y34.695 Z1.026 I0. J-1.791
Y38.276 Z0.967 I0. J1.791
Y34.695 Z0.908 I0. J-1.791
Y38.276 Z0.849 I0. J1.791
Y34.695 Z0.79 I0. J-1.791
Y38.276 Z0.731 I0. J1.791
Y34.695 Z0.672 I0. J-1.791
Y38.276 Z0.613 I0. J1.791
Y34.695 Z0.554 I0. J-1.791
Y38.276 Z0.495 I0. J1.791
Y34.695 Z0.436 I0. J-1.791
Y38.276 Z0.377 I0. J1.791
Y34.695 Z0.318 I0. J-1.791
Y38.276 Z0.259 I0. J1.791
Y34.695 Z0.2 I0. J-1.791
Y38.276 Z0.141 I0. J1.791
Y34.695 Z0.082 I0. J-1.791
Y38.276 Z0.023 I0. J1.791
Y34.695 Z-0.036 I0. J-1.791
Y38.276 Z-0.095 I0. J1.791
Y34.695 Z-0.154 I0. J-1.791
Y38.276 Z-0.212 I0. J1.791
Y34.695 Z-0.271 I0. J-1.791
Y38.276 Z-0.33 I0. J1.791
Y34.695 Z-0.389 I0. J-1.791
Y38.276 Z-0.448 I0. J1.791
Y34.695 Z-0.507 I0. J-1.791
Y38.276 Z-0.566 I0. J1.791
Y34.695 Z-0.625 I0. J-1.791
Y38.276 Z-0.684 I0. J1.791
Y34.695 Z-0.743 I0. J-1.791
Y38.276 Z-0.802 I0. J1.791
Y34.695 Z-0.861 I0. J-1.791
Y38.276 Z-0.92 I0. J1.791
Y34.695 Z-0.979 I0. J-1.791
Y38.276 Z-1.038 I0. J1.791
Y34.695 Z-1.097 I0. J-1.791
Y38.276 Z-1.156 I0. J1.791
Y34.695 Z-1.215 I0. J-1.791
Y38.276 Z-1.274 I0. J1.791
Y34.695 Z-1.333 I0. J-1.791
Y38.276 Z-1.392 I0. J1.791
Y34.695 Z-1.451 I0. J-1.791
Y38.276 Z-1.51 I0. J1.791
Y34.695 Z-1.569 I0. J-1.791
Y38.276 Z-1.628 I0. J1.791
Y34.695 Z-1.687 I0. J-1.791
Y38.276 Z-1.746 I0. J1.791
Y34.695 Z-1.805 I0. J-1.791
Y38.276 Z-1.864 I0. J1.791
Y34.695 Z-1.923 I0. J-1.791
Y38.276 Z-1.981 I0. J1.791
Y34.695 Z-2.04 I0. J-1.791
Y38.276 Z-2.099 I0. J1.791
Y34.695 Z-2.158 I0. J-1.791
Y38.276 Z-2.217 I0. J1.791
Y34.695 Z-2.276 I0. J-1.791
Y38.276 Z-2.335 I0. J1.791
Y34.695 Z-2.394 I0. J-1.791
Y38.276 Z-2.453 I0. J1.791
Y34.695 Z-2.512 I0. J-1.791
Y38.276 Z-2.571 I0. J1.791
Y34.695 Z-2.63 I0. J-1.791
Y38.276 Z-2.689 I0. J1.791
Y34.695 Z-2.748 I0. J-1.791
Y38.276 Z-2.807 I0. J1.791
Y34.695 Z-2.866 I0. J-1.791
Y38.276 Z-2.925 I0. J1.791
Y34.695 Z-2.984 I0. J-1.791
Y38.276 Z-3.043 I0. J1.791
Y34.695 Z-3.102 I0. J-1.791
Y38.276 Z-3.161 I0. J1.791
Y34.695 Z-3.22 I0. J-1.791
Y38.276 Z-3.279 I0. J1.791
Y34.695 Z-3.338 I0. J-1.791
Y38.276 Z-3.397 I0. J1.791
Y34.695 Z-3.456 I0. J-1.791
Y38.276 Z-3.515 I0. J1.791
Y34.695 Z-3.574 I0. J-1.791
Y38.276 Z-3.633 I0. J1.791
Y34.695 Z-3.692 I0. J-1.791
Y38.276 Z-3.75 I0. J1.791
Y34.695 Z-3.809 I0. J-1.791
Y38.276 Z-3.868 I0. J1.791
Y34.695 Z-3.927 I0. J-1.791
Y38.276 Z-3.986 I0. J1.791
Y34.695 Z-4.045 I0. J-1.791
Y38.276 Z-4.104 I0. J1.791
Y34.695 Z-4.163 I0. J-1.791
Y38.276 Z-4.222 I0. J1.791
Y34.695 Z-4.281 I0. J-1.791
Y38.276 Z-4.34 I0. J1.791
Y34.695 Z-4.399 I0. J-1.791
Y38.276 Z-4.458 I0. J1.791
Y34.695 Z-4.517 I0. J-1.791
Y38.276 Z-4.576 I0. J1.791
Y34.695 Z-4.635 I0. J-1.791
Y38.276 Z-4.694 I0. J1.791
Y34.695 Z-4.753 I0. J-1.791
Y38.276 Z-4.812 I0. J1.791
Y34.695 Z-4.871 I0. J-1.791
Y38.276 Z-4.93 I0. J1.791
Y34.695 Z-4.989 I0. J-1.791
Y38.276 Z-5.048 I0. J1.791
Y34.695 Z-5.107 I0. J-1.791
Y38.276 Z-5.166 I0. J1.791
X97.369 Y38.06 Z-5.175 I0. J-1.791
X95.661 Y34.912 I-0.854 J-1.574
X97.369 Y38.06 I0.854 J1.574
X97.497 Y37.629 I-0.151 J-0.279
G1 X97.421 Y37.49
X97.387 Y37.428 Z-5.167
X97.355 Y37.369 Z-5.144
X97.327 Y37.316 Z-5.106
X97.303 Y37.271 Z-5.055
X97.285 Y37.238 Z-4.995
X97.273 Y37.218 Z-4.928
X97.27 Y37.211 Z-4.858
G0 Z5.
X96.198 Y50.183
Z4.5
G1 Z2.818 F800.
G19 G3 Y50.5 Z2.5 J0.317 K0.
G1 Y50.659
G17 G2 X96.515 Y50.976 I0.317 J0.
Y47.395 Z2.441 I0. J-1.791
Y50.976 Z2.382 I0. J1.791
Y47.395 Z2.323 I0. J-1.791
Y50.976 Z2.264 I0. J1.791
Y47.395 Z2.205 I0. J-1.791
Y50.976 Z2.146 I0. J1.791
Y47.395 Z2.087 I0. J-1.791
Y50.976 Z2.028 I0. J1.791
Y47.395 Z1.969 I0. J-1.791
Y50.976 Z1.91 I0. J1.791
Y47.395 Z1.851 I0. J-1.791
Y50.976 Z1.792 I0. J1.791
Y47.395 Z1.733 I0. J-1.791
Y50.976 Z1.674 I0. J1.791
Y47.395 Z1.615 I0. J-1.791
Y50.976 Z1.557 I0. J1.791
Y47.395 Z1.498 I0. J-1.791
Y50.976 Z1.439 I0. J1.791
Y47.395 Z1.38 I0. J-1.791
Y50.976 Z1.321 I0. J1.791
Y47.395 Z1.262 I0. J-1.791
Y50.976 Z1.203 I0. J1.791
Y47.395 Z1.144 I0. J-1.791
Y50.976 Z1.085 I0. J1.791
Y47.395 Z1.026 I0. J-1.791
Y50.976 Z0.967 I0. J1.791
Y47.395 Z0.908 I0. J-1.791
Y50.976 Z0.849 I0. J1.791
Y47.395 Z0.79 I0. J-1.791
Y50.976 Z0.731 I0. J1.791
Y47.395 Z0.672 I0. J-1.791
Y50.976 Z0.613 I0. J1.791
Y47.395 Z0.554 I0. J-1.791
Y50.976 Z0.495 I0. J1.791
Y47.395 Z0.436 I0. J-1.791
Y50.976 Z0.377 I0. J1.791
Y47.395 Z0.318 I0. J-1.791
Y50.976 Z0.259 I0. J1.791
Y47.395 Z0.2 I0. J-1.791
Y50.976 Z0.141 I0. J1.791
Y47.395 Z0.082 I0. J-1.791
Y50.976 Z0.023 I0. J1.791
Y47.395 Z-0.036 I0. J-1.791
Y50.976 Z-0.095 I0. J1.791
Y47.395 Z-0.154 I0. J-1.791
Y50.976 Z-0.212 I0. J1.791
Y47.395 Z-0.271 I0. J-1.791
Y50.976 Z-0.33 I0. J1.791
Y47.395 Z-0.389 I0. J-1.791
Y50.976 Z-0.448 I0. J1.791
Y47.395 Z-0.507 I0. J-1.791
Y50.976 Z-0.566 I0. J1.791
Y47.395 Z-0.625 I0. J-1.791
Y50.976 Z-0.684 I0. J1.791
Y47.395 Z-0.743 I0. J-1.791
Y50.976 Z-0.802 I0. J1.791
Y47.395 Z-0.861 I0. J-1.791
Y50.976 Z-0.92 I0. J1.791
Y47.395 Z-0.979 I0. J-1.791
Y50.976 Z-1.038 I0. J1.791
Y47.395 Z-1.097 I0. J-1.791
Y50.976 Z-1.156 I0. J1.791
Y47.395 Z-1.215 I0. J-1.791
Y50.976 Z-1.274 I0. J1.791
Y47.395 Z-1.333 I0. J-1.791
Y50.976 Z-1.392 I0. J1.791
Y47.395 Z-1.451 I0. J-1.791
Y50.976 Z-1.51 I0. J1.791
Y47.395 Z-1.569 I0. J-1.791
Y50.976 Z-1.628 I0. J1.791
Y47.395 Z-1.687 I0. J-1.791
Y50.976 Z-1.746 I0. J1.791
Y47.395 Z-1.805 I0. J-1.791
Y50.976 Z-1.864 I0. J1.791
Y47.395 Z-1.923 I0. J-1.791
Y50.976 Z-1.981 I0. J1.791
Y47.395 Z-2.04 I0. J-1.791
Y50.976 Z-2.099 I0. J1.791
Y47.395 Z-2.158 I0. J-1.791
Y50.976 Z-2.217 I0. J1.791
Y47.395 Z-2.276 I0. J-1.791
Y50.976 Z-2.335 I0. J1.791
Y47.395 Z-2.394 I0. J-1.791
Y50.976 Z-2.453 I0. J1.791
Y47.395 Z-2.512 I0. J-1.791
Y50.976 Z-2.571 I0. J1.791
Y47.395 Z-2.63 I0. J-1.791
Y50.976 Z-2.689 I0. J1.791
Y47.395 Z-2.748 I0. J-1.791
Y50.976 Z-2.807 I0. J1.791
Y47.395 Z-2.866 I0. J-1.791
Y50.976 Z-2.925 I0. J1.791
Y47.395 Z-2.984 I0. J-1.791
Y50.976 Z-3.043 I0. J1.791
Y47.395 Z-3.102 I0. J-1.791
Y50.976 Z-3.161 I0. J1.791
Y47.395 Z-3.22 I0. J-1.791
Y50.976 Z-3.279 I0. J1.791
Y47.395 Z-3.338 I0. J-1.791
Y50.976 Z-3.397 I0. J1.791
Y47.395 Z-3.456 I0. J-1.791
Y50.976 Z-3.515 I0. J1.791
Y47.395 Z-3.574 I0. J-1.791
Y50.976 Z-3.633 I0. J1.791
Y47.395 Z-3.692 I0. J-1.791
Y50.976 Z-3.75 I0. J1.791
Y47.395 Z-3.809 I0. J-1.791
Y50.976 Z-3.868 I0. J1.791
Y47.395 Z-3.927 I0. J-1.791
Y50.976 Z-3.986 I0. J1.791
Y47.395 Z-4.045 I0. J-1.791
Y50.976 Z-4.104 I0. J1.791
Y47.395 Z-4.163 I0. J-1.791
Y50.976 Z-4.222 I0. J1.791
Y47.395 Z-4.281 I0. J-1.791
Y50.976 Z-4.34 I0. J1.791
Y47.395 Z-4.399 I0. J-1.791
Y50.976 Z-4.458 I0. J1.791
Y47.395 Z-4.517 I0. J-1.791
Y50.976 Z-4.576 I0. J1.791
Y47.395 Z-4.635 I0. J-1.791
Y50.976 Z-4.694 I0. J1.791
Y47.395 Z-4.753 I0. J-1.791
Y50.976 Z-4.812 I0. J1.791
Y47.395 Z-4.871 I0. J-1.791
Y50.976 Z-4.93 I0. J1.791
Y47.395 Z-4.989 I0. J-1.791
Y50.976 Z-5.048 I0. J1.791
Y47.395 Z-5.107 I0. J-1.791
Y50.976 Z-5.166 I0. J1.791
X97.369 Y50.76 Z-5.175 I0. J-1.791
X95.661 Y47.612 I-0.854 J-1.574
X97.369 Y50.76 I0.854 J1.574
X97.497 Y50.329 I-0.151 J-0.279
G1 X97.421 Y50.19
X97.387 Y50.128 Z-5.167
X97.355 Y50.069 Z-5.144
X97.327 Y50.016 Z-5.106
X97.303 Y49.971 Z-5.055
X97.285 Y49.938 Z-4.995
X97.273 Y49.918 Z-4.928
X97.27 Y49.911 Z-4.858
G0 Z15.
M5
G0 Z15
G0 X0 Y0

M9
M30
