(19.05.01.G02)
(T1  D=3.175 CR=0. - ZMIN=-12.906 - FLAT END MILL)
G90 G94 G91.1 G40 G49 G17
G21
G0 Z15

(2D CONTOUR2)
M5
T1 M6
S12000 M3
G54
G0 X93.821 Y25.464
G43 Z15. H1
Z7.35
G1 Z-6.033 F800.
G18 G3 X93.504 Z-6.35 I-0.317 K0.
G1 X93.186 F1000.
G17 G3 X92.869 Y25.146 I0. J-0.317
G2 X85.897 Y14.569 I-11.509 J0.
G1 X60.089 Y3.496
G2 X41.511 I-9.289 J21.65
G1 X15.703 Y14.569
G2 Y35.723 I4.538 J10.577
G1 X41.511 Y46.796
G2 X60.089 I9.289 J-21.65
G1 X85.897 Y35.723
G2 X92.869 Y25.146 I-4.538 J-10.577
G3 X93.186 Y24.829 I0.318 J0.
G1 X93.504
G18 G2 X93.821 Z-6.033 I0. K0.318
G1 Y25.464
Z-9.311 F800.
G3 X93.504 Z-9.628 I-0.317 K0.
G1 X93.186 F1000.
G17 G3 X92.869 Y25.146 I0. J-0.317
G2 X85.897 Y14.569 I-11.509 J0.
G1 X60.089 Y3.496
G2 X41.511 I-9.289 J21.65
G1 X15.703 Y14.569
G2 Y35.723 I4.538 J10.577
G1 X41.511 Y46.796
G2 X60.089 I9.289 J-21.65
G1 X85.897 Y35.723
G2 X92.869 Y25.146 I-4.538 J-10.577
G3 X93.186 Y24.829 I0.318 J0.
G1 X93.504
G18 G2 X93.821 Z-9.311 I0. K0.318
G1 Y25.464
Z-12.589 F800.
G3 X93.504 Z-12.906 I-0.317 K0.
G1 X93.186 F1000.
G17 G3 X92.869 Y25.146 I0. J-0.317
G2 X85.897 Y14.569 I-11.509 J0.
G1 X60.089 Y3.496
G2 X41.511 I-9.289 J21.65
G1 X15.703 Y14.569
G2 Y35.723 I4.538 J10.577
G1 X41.511 Y46.796
G2 X60.089 I9.289 J-21.65
G1 X85.897 Y35.723
G2 X92.869 Y25.146 I-4.538 J-10.577
G3 X93.186 Y24.829 I0.318 J0.
G1 X93.504
G18 G2 X93.821 Z-12.589 I0. K0.317
G0 Z15.
G17
M5
G0 Z15
G0 X0 Y0

M30
