(X8 LEFT STATIC BRACKET CONTOUR)
(T3  D=0.118 CR=0. - ZMIN=-0.18 - FLAT END MILL)
G90 G94 G91.1 G40 G49 G17
G20

(2D CONTOUR1)
M5
T3 M6
S15000 M3
G54
M8
G0 X0.1569 Y1.7182
G43 Z0.6 H3
Z0.2
G1 Z0.1118 F20.
Y1.7185 Z0.1092 F40.
X0.157 Y1.7193 Z0.1067
X0.1571 Y1.7207 Z0.1044
X0.1573 Y1.7226 Z0.1026
X0.1575 Y1.7248 Z0.1012
X0.1577 Y1.7273 Z0.1003
X0.1579 Y1.7299 Z0.1
X0.159 Y1.7417
G3 X0.1483 Y1.7545 I-0.0118 J0.0011
G2 X-0.019 Y1.9377 Z0.0905 I0.0167 J0.1832 F20.
G1 Y2.6877 Z0.0643
G2 X0.165 Y2.8717 Z0.0542 I0.184 J0.
G1 X2.29 Z-0.02
X4.415 F40.
G2 X4.599 Y2.6877 I0. J-0.184
G1 Y1.9377
G2 X4.415 Y1.7537 I-0.184 J0.
G1 X2.29
G2 X2.106 Y1.9377 I0. J0.184
G1 Y2.0727
X2.1057 Y2.0741
X2.105 Y2.0752
X2.1038 Y2.076
X2.1025 Y2.0762
X2.1012 Y2.076
X2.1 Y2.0752
X2.0993 Y2.0741
X2.099 Y2.0727
Y0.165
G2 X1.915 Y-0.019 I-0.184 J0.
G1 X1.165
G2 X0.981 Y0.165 I0. J0.184
G1 Y2.0727
X0.9807 Y2.0741
X0.98 Y2.0752
X0.9788 Y2.076
X0.9775 Y2.0762
X0.9762 Y2.076
X0.975 Y2.0752
X0.9743 Y2.0741
X0.974 Y2.0727
Y1.9377
G2 X0.79 Y1.7537 I-0.184 J0.
G1 X0.165
G2 X-0.019 Y1.9377 I0. J0.184
G1 Y2.6877
G2 X0.165 Y2.8717 I0.184 J0.
G1 X2.29
X2.8627 Z-0.04 F20.
X4.415 F40.
G2 X4.599 Y2.6877 I0. J-0.184
G1 Y1.9377
G2 X4.415 Y1.7537 I-0.184 J0.
G1 X2.29
G2 X2.106 Y1.9377 I0. J0.184
G1 Y2.0727
X2.1057 Y2.0741
X2.105 Y2.0752
X2.1038 Y2.076
X2.1025 Y2.0762
X2.1012 Y2.076
X2.1 Y2.0752
X2.0993 Y2.0741
X2.099 Y2.0727
Y0.165
G2 X1.915 Y-0.019 I-0.184 J0.
G1 X1.165
G2 X0.981 Y0.165 I0. J0.184
G1 Y2.0727
X0.9807 Y2.0741
X0.98 Y2.0752
X0.9788 Y2.076
X0.9775 Y2.0762
X0.9762 Y2.076
X0.975 Y2.0752
X0.9743 Y2.0741
X0.974 Y2.0727
Y1.9377
G2 X0.79 Y1.7537 I-0.184 J0.
G1 X0.165
G2 X-0.019 Y1.9377 I0. J0.184
G1 Y2.6877
G2 X0.165 Y2.8717 I0.184 J0.
G1 X2.29
X2.8627
X3.4355 Z-0.06 F20.
X4.415 F40.
G2 X4.599 Y2.6877 I0. J-0.184
G1 Y1.9377
G2 X4.415 Y1.7537 I-0.184 J0.
G1 X2.29
G2 X2.106 Y1.9377 I0. J0.184
G1 Y2.0727
X2.1057 Y2.0741
X2.105 Y2.0752
X2.1038 Y2.076
X2.1025 Y2.0762
X2.1012 Y2.076
X2.1 Y2.0752
X2.0993 Y2.0741
X2.099 Y2.0727
Y0.165
G2 X1.915 Y-0.019 I-0.184 J0.
G1 X1.165
G2 X0.981 Y0.165 I0. J0.184
G1 Y2.0727
X0.9807 Y2.0741
X0.98 Y2.0752
X0.9788 Y2.076
X0.9775 Y2.0762
X0.9762 Y2.076
X0.975 Y2.0752
X0.9743 Y2.0741
X0.974 Y2.0727
Y1.9377
G2 X0.79 Y1.7537 I-0.184 J0.
G1 X0.165
G2 X-0.019 Y1.9377 I0. J0.184
G1 Y2.6877
G2 X0.165 Y2.8717 I0.184 J0.
G1 X2.8627
X3.4355
X4.0082 Z-0.08 F20.
X4.415 F40.
G2 X4.599 Y2.6877 I0. J-0.184
G1 Y1.9377
G2 X4.415 Y1.7537 I-0.184 J0.
G1 X2.29
G2 X2.106 Y1.9377 I0. J0.184
G1 Y2.0727
X2.1057 Y2.0741
X2.105 Y2.0752
X2.1038 Y2.076
X2.1025 Y2.0762
X2.1012 Y2.076
X2.1 Y2.0752
X2.0993 Y2.0741
X2.099 Y2.0727
Y0.165
G2 X1.915 Y-0.019 I-0.184 J0.
G1 X1.165
G2 X0.981 Y0.165 I0. J0.184
G1 Y2.0727
X0.9807 Y2.0741
X0.98 Y2.0752
X0.9788 Y2.076
X0.9775 Y2.0762
X0.9762 Y2.076
X0.975 Y2.0752
X0.9743 Y2.0741
X0.974 Y2.0727
Y1.9377
G2 X0.79 Y1.7537 I-0.184 J0.
G1 X0.165
G2 X-0.019 Y1.9377 I0. J0.184
G1 Y2.6877
G2 X0.165 Y2.8717 I0.184 J0.
G1 X3.4355
X4.0082
X4.415 Z-0.0942 F20.
G2 X4.5593 Y2.8019 Z-0.1 I0. J-0.184
X4.599 Y2.6877 I-0.1443 J-0.1141 F40.
G1 Y1.9377
G2 X4.415 Y1.7537 I-0.184 J0.
G1 X2.29
G2 X2.106 Y1.9377 I0. J0.184
G1 Y2.0727
X2.1057 Y2.0741
X2.105 Y2.0752
X2.1038 Y2.076
X2.1025 Y2.0762
X2.1012 Y2.076
X2.1 Y2.0752
X2.0993 Y2.0741
X2.099 Y2.0727
Y0.165
G2 X1.915 Y-0.019 I-0.184 J0.
G1 X1.165
G2 X0.981 Y0.165 I0. J0.184
G1 Y2.0727
X0.9807 Y2.0741
X0.98 Y2.0752
X0.9788 Y2.076
X0.9775 Y2.0762
X0.9762 Y2.076
X0.975 Y2.0752
X0.9743 Y2.0741
X0.974 Y2.0727
Y1.9377
G2 X0.79 Y1.7537 I-0.184 J0.
G1 X0.165
G2 X-0.019 Y1.9377 I0. J0.184
G1 Y2.6877
G2 X0.165 Y2.8717 I0.184 J0.
G1 X4.0082
X4.415
G2 X4.5593 Y2.8019 I0. J-0.184
X4.599 Y2.6877 Z-0.1043 I-0.1443 J-0.1141 F20.
G1 Y2.2381 Z-0.12
Y1.9377 F40.
G2 X4.415 Y1.7537 I-0.184 J0.
G1 X2.29
G2 X2.106 Y1.9377 I0. J0.184
G1 Y2.0727
X2.1057 Y2.0741
X2.105 Y2.0752
X2.1038 Y2.076
X2.1025 Y2.0762
X2.1012 Y2.076
X2.1 Y2.0752
X2.0993 Y2.0741
X2.099 Y2.0727
Y0.165
G2 X1.915 Y-0.019 I-0.184 J0.
G1 X1.165
G2 X0.981 Y0.165 I0. J0.184
G1 Y2.0727
X0.9807 Y2.0741
X0.98 Y2.0752
X0.9788 Y2.076
X0.9775 Y2.0762
X0.9762 Y2.076
X0.975 Y2.0752
X0.9743 Y2.0741
X0.974 Y2.0727
Y1.9377
G2 X0.79 Y1.7537 I-0.184 J0.
G1 X0.165
G2 X-0.019 Y1.9377 I0. J0.184
G1 Y2.6877
G2 X0.165 Y2.8717 I0.184 J0.
G1 X4.415
G2 X4.599 Y2.6877 I0. J-0.184
G1 Y2.2381
Y1.9377 Z-0.1305 F20.
G2 X4.4317 Y1.7545 Z-0.14 I-0.184 J0.
X4.415 Y1.7537 I-0.0167 J0.1832 F40.
G1 X2.29
G2 X2.106 Y1.9377 I0. J0.184
G1 Y2.0727
X2.1057 Y2.0741
X2.105 Y2.0752
X2.1038 Y2.076
X2.1025 Y2.0762
X2.1012 Y2.076
X2.1 Y2.0752
X2.0993 Y2.0741
X2.099 Y2.0727
Y0.165
G2 X1.915 Y-0.019 I-0.184 J0.
G1 X1.165
G2 X0.981 Y0.165 I0. J0.184
G1 Y2.0727
X0.9807 Y2.0741
X0.98 Y2.0752
X0.9788 Y2.076
X0.9775 Y2.0762
X0.9762 Y2.076
X0.975 Y2.0752
X0.9743 Y2.0741
X0.974 Y2.0727
Y1.9377
G2 X0.79 Y1.7537 I-0.184 J0.
G1 X0.165
G2 X-0.019 Y1.9377 I0. J0.184
G1 Y2.6877
G2 X0.165 Y2.8717 I0.184 J0.
G1 X4.415
G2 X4.599 Y2.6877 I0. J-0.184
G1 Y2.2381
Y1.9377
G2 X4.4317 Y1.7545 I-0.184 J0.
X4.415 Y1.7537 Z-0.1406 I-0.0167 J0.1832 F20.
G1 X3.859 Z-0.16
X2.29 F40.
G2 X2.106 Y1.9377 I0. J0.184
G1 Y2.0727
X2.1057 Y2.0741
X2.105 Y2.0752
X2.1038 Y2.076
X2.1025 Y2.0762
X2.1012 Y2.076
X2.1 Y2.0752
X2.0993 Y2.0741
X2.099 Y2.0727
Y0.165
G2 X1.915 Y-0.019 I-0.184 J0.
G1 X1.165
G2 X0.981 Y0.165 I0. J0.184
G1 Y2.0727
X0.9807 Y2.0741
X0.98 Y2.0752
X0.9788 Y2.076
X0.9775 Y2.0762
X0.9762 Y2.076
X0.975 Y2.0752
X0.9743 Y2.0741
X0.974 Y2.0727
Y1.9377
G2 X0.79 Y1.7537 I-0.184 J0.
G1 X0.165
G2 X-0.019 Y1.9377 I0. J0.184
G1 Y2.6877
G2 X0.165 Y2.8717 I0.184 J0.
G1 X4.415
G2 X4.599 Y2.6877 I0. J-0.184
G1 Y1.9377
G2 X4.415 Y1.7537 I-0.184 J0.
G1 X3.859
X3.2863 Z-0.18 F20.
X2.29 F40.
G2 X2.106 Y1.9377 I0. J0.184
G1 Y2.0727
X2.1057 Y2.0741
X2.105 Y2.0752
X2.1038 Y2.076
X2.1025 Y2.0762
X2.1012 Y2.076
X2.1 Y2.0752
X2.0993 Y2.0741
X2.099 Y2.0727
Y0.165
G2 X1.915 Y-0.019 I-0.184 J0.
G1 X1.165
G2 X0.981 Y0.165 I0. J0.184
G1 Y2.0727
X0.9807 Y2.0741
X0.98 Y2.0752
X0.9788 Y2.076
X0.9775 Y2.0762
X0.9762 Y2.076
X0.975 Y2.0752
X0.9743 Y2.0741
X0.974 Y2.0727
Y1.9377
G2 X0.79 Y1.7537 I-0.184 J0.
G1 X0.165
G2 X-0.019 Y1.9377 I0. J0.184
G1 Y2.6877
G2 X0.165 Y2.8717 I0.184 J0.
G1 X4.415
G2 X4.599 Y2.6877 I0. J-0.184
G1 Y1.9377
G2 X4.415 Y1.7537 I-0.184 J0.
G1 X3.2863
G3 X3.2745 Y1.7419 I0. J-0.0118
G1 Y1.7301
G19 G2 Y1.7183 Z-0.1682 J0. K0.0118
G0 Z0.6
G17

M9
M30
