(X8 RSL BRACKET CONTOUR)
(T3  D=0.118 CR=0. - ZMIN=-0.4125 - FLAT END MILL)
G90 G94 G91.1 G40 G49 G17
G20

(2D CONTOUR1)
M5
T3 M6
S15000 M3
G54
M8
G0 X5.4694 Y1.348
G43 Z0.6 H3
Z0.2
G1 Z0.1118 F20.
G18 G3 X5.4576 Z0.1 I-0.0118 K0. F40.
G1 X5.4458
G17 G3 X5.434 Y1.3362 I0. J-0.0118
G1 Y0.25 Z0.0621 F20.
G2 X5.125 Y-0.059 Z0.0451 I-0.309 J0.
G1 X2.6875 Z-0.04
X0.25 F40.
G2 X-0.059 Y0.25 I0. J0.309
G1 Y1.75
G2 X0.25 Y2.059 I0.309 J0.
G1 X5.125
G2 X5.434 Y1.75 I0. J-0.309
G1 Y0.25
G2 X5.125 Y-0.059 I-0.309 J0.
G1 X2.6875
X1.542 Z-0.08 F20.
X0.25 F40.
G2 X-0.059 Y0.25 I0. J0.309
G1 Y1.75
G2 X0.25 Y2.059 I0.309 J0.
G1 X5.125
G2 X5.434 Y1.75 I0. J-0.309
G1 Y0.25
G2 X5.125 Y-0.059 I-0.309 J0.
G1 X2.6875
X1.542
X0.3966 Z-0.12 F20.
X0.25 F40.
G2 X-0.059 Y0.25 I0. J0.309
G1 Y1.75
G2 X0.25 Y2.059 I0.309 J0.
G1 X5.125
G2 X5.434 Y1.75 I0. J-0.309
G1 Y0.25
G2 X5.125 Y-0.059 I-0.309 J0.
G1 X1.542
X0.3966
X0.25 Z-0.1251 F20.
G2 X-0.059 Y0.25 Z-0.1421 I0. J0.309
G1 Y0.7635 Z-0.16
Y1.75 F40.
G2 X0.25 Y2.059 I0.309 J0.
G1 X5.125
G2 X5.434 Y1.75 I0. J-0.309
G1 Y0.25
G2 X5.125 Y-0.059 I-0.309 J0.
G1 X0.3966
X0.25
G2 X-0.059 Y0.25 I0. J0.309
G1 Y0.7635
Y1.75 Z-0.1945 F20.
G2 X-0.019 Y1.902 Z-0.2 I0.309 J0.
X0.25 Y2.059 I0.269 J-0.152 F40.
G1 X5.125
G2 X5.434 Y1.75 I0. J-0.309
G1 Y0.25
G2 X5.125 Y-0.059 I-0.309 J0.
G1 X0.25
G2 X-0.059 Y0.25 I0. J0.309
G1 Y1.75
G2 X-0.019 Y1.902 I0.309 J0.
X0.25 Y2.059 Z-0.2114 I0.269 J-0.152 F20.
G1 X1.069 Z-0.24
X5.125 F40.
G2 X5.434 Y1.75 I0. J-0.309
G1 Y0.25
G2 X5.125 Y-0.059 I-0.309 J0.
G1 X0.25
G2 X-0.059 Y0.25 I0. J0.309
G1 Y1.75
G2 X0.25 Y2.059 I0.309 J0.
G1 X1.069
X2.2144 Z-0.28 F20.
X5.125 F40.
G2 X5.434 Y1.75 I0. J-0.309
G1 Y0.25
G2 X5.125 Y-0.059 I-0.309 J0.
G1 X0.25
G2 X-0.059 Y0.25 I0. J0.309
G1 Y1.75
G2 X0.25 Y2.059 I0.309 J0.
G1 X2.2144
X3.3599 Z-0.32 F20.
X5.125 F40.
G2 X5.434 Y1.75 I0. J-0.309
G1 Y0.25
G2 X5.125 Y-0.059 I-0.309 J0.
G1 X0.25
G2 X-0.059 Y0.25 I0. J0.309
G1 Y1.75
G2 X0.25 Y2.059 I0.309 J0.
G1 X2.2144
X3.3599
X4.5053 Z-0.36 F20.
X5.125 F40.
G2 X5.434 Y1.75 I0. J-0.309
G1 Y0.25
G2 X5.125 Y-0.059 I-0.309 J0.
G1 X0.25
G2 X-0.059 Y0.25 I0. J0.309
G1 Y1.75
G2 X0.25 Y2.059 I0.309 J0.
G1 X3.3599
X4.5053
X5.125 Z-0.3816 F20.
G2 X5.434 Y1.75 Z-0.3986 I0. J-0.309
G1 Y1.7096 Z-0.4
Y0.25 F40.
G2 X5.125 Y-0.059 I-0.309 J0.
G1 X0.25
G2 X-0.059 Y0.25 I0. J0.309
G1 Y1.75
G2 X0.25 Y2.059 I0.309 J0.
G1 X4.5053
X5.125
G2 X5.434 Y1.75 I0. J-0.309
G1 Y1.7096
Y1.3516 Z-0.4125 F20.
Y0.25 F40.
G2 X5.125 Y-0.059 I-0.309 J0.
G1 X0.25
G2 X-0.059 Y0.25 I0. J0.309
G1 Y1.75
G2 X0.25 Y2.059 I0.309 J0.
G1 X5.125
G2 X5.434 Y1.75 I0. J-0.309
G1 Y1.3516
G3 X5.4458 Y1.3398 I0.0118 J0.
G1 X5.4576
G18 G2 X5.4694 Z-0.4007 I0. K0.0118
G0 Z0.6
G17

M9
M30
