(X8 TEST BEARING HOLES )
(T3  D=0.118 CR=0. - ZMIN=-0.13 - FLAT END MILL)
G90 G94 G91.1 G40 G49 G17
G20

(2D POCKET1)
M5
T3 M6
S15000 M3
g4 p5
g0 z.5
G54
M8
G0 X0.9816 Y4.0661
G43 Z0.64 H3
Z0.24
G1 Z0.1518 F30.
X0.9801 Y4.0664 Z0.146 F20.
X0.976 Y4.0672 Z0.1417
X0.9703 Y4.0677 Z0.14
G3 X0.965 Y3.9558 Z0.1339 I-0.0027 J-0.056
X0.9703 Y4.0677 Z0.1277 I0.0027 J0.056
X0.965 Y3.9558 Z0.1216 I-0.0027 J-0.056
X0.9703 Y4.0677 Z0.1154 I0.0027 J0.056
X0.965 Y3.9558 Z0.1093 I-0.0027 J-0.056
X0.9703 Y4.0677 Z0.1031 I0.0027 J0.056
X0.965 Y3.9558 Z0.097 I-0.0027 J-0.056
X0.9703 Y4.0677 Z0.0908 I0.0027 J0.056
X0.965 Y3.9558 Z0.0847 I-0.0027 J-0.056
X0.9703 Y4.0677 Z0.0785 I0.0027 J0.056
X0.965 Y3.9558 Z0.0724 I-0.0027 J-0.056
X0.9703 Y4.0677 Z0.0662 I0.0027 J0.056
X0.965 Y3.9558 Z0.0601 I-0.0027 J-0.056
X0.9703 Y4.0677 Z0.0539 I0.0027 J0.056
X0.965 Y3.9558 Z0.0478 I-0.0027 J-0.056
X0.9703 Y4.0677 Z0.0416 I0.0027 J0.056
X0.965 Y3.9558 Z0.0355 I-0.0027 J-0.056
X0.9703 Y4.0677 Z0.0293 I0.0027 J0.056
X0.965 Y3.9558 Z0.0232 I-0.0027 J-0.056
X1.0237 Y4.0118 Z0.02 I0.0027 J0.056
X1.0173 Y4.0283 I-0.0246 J0. F30.
X1.0011 Y4.0355 I-0.0162 J-0.0148
X0.9773 Y4.0118 I0. J-0.0238
X1.0005 Y3.9886 I0.0232 J0.
X1.0237 Y4.0118 I0. J0.0232
G2 X1.0392 Y4.0403 I0.034 J0.
G3 X1.0393 Y4.0727 I-0.0106 J0.0162
X1.0011 Y4.0841 I-0.0382 J-0.0579
X0.9287 Y4.0118 I0. J-0.0724
X1.0002 Y3.9403 I0.0715 J0.
X1.0716 Y4.0118 I0. J0.0715
X1.0513 Y4.0626 I-0.0738 J0.
X1.0393 Y4.0727 I-0.0503 J-0.0478
G2 X1.0041 Y4.1388 I0.0431 J0.0654
G3 X0.9434 Y4.1828 I-0.046 J0.0004
X0.8206 Y4.0118 I0.0576 J-0.171
X1.0002 Y3.8322 I0.1796 J0.
X1.1797 Y4.0118 I0. J0.1796
X1.1278 Y4.139 I-0.1818 J0.
X1.0011 Y4.1922 I-0.1267 J-0.1242
X0.9434 Y4.1828 I0. J-0.1805
G2 X0.8612 Y4.2002 I-0.0264 J0.0783
G3 X0.7774 Y4.1941 I-0.039 J-0.0426
X0.7125 Y4.0117 I0.2237 J-0.1823
X1.0002 Y3.7241 I0.2877 J0.
X1.2878 Y4.0118 I0. J0.2877
X1.2042 Y4.2155 I-0.2899 J0.
X1.0011 Y4.3003 I-0.2031 J-0.2006
X0.7774 Y4.1941 I0. J-0.2886
G2 X0.6945 Y4.1649 I-0.0653 J0.0532
G3 X0.6193 Y4.1195 I-0.0134 J-0.0628
X0.6044 Y4.0117 I0.3818 J-0.1078
X1.0002 Y3.616 I0.3958 J0.
X1.3959 Y4.0118 I0. J0.3958
X1.0011 Y4.4084 I-0.3967 J0.
X0.6193 Y4.1195 I0. J-0.3967
G2 X0.5527 Y4.0588 I-0.0821 J0.0232
G3 X0.4966 Y3.9882 I0.0124 J-0.0674
X1.0011 Y3.5068 I0.5044 J0.0235
Y4.5167 I0. J0.505
X0.4966 Y3.9882 I0. J-0.505
X0.5554 Y3.9349 Z0.017 I0.056 J0.0026 F20.
G1 X0.9705 Y3.9558 Z0.0029
G3 X1.0237 Y4.0118 Z0. I-0.0028 J0.056
X1.0173 Y4.0283 I-0.0246 J0. F30.
X1.0011 Y4.0355 I-0.0162 J-0.0148
X0.9773 Y4.0118 I0. J-0.0238
X1.0005 Y3.9886 I0.0232 J0.
X1.0237 Y4.0118 I0. J0.0232
G2 X1.0392 Y4.0403 I0.034 J0.
G3 X1.0393 Y4.0727 I-0.0106 J0.0162
X1.0011 Y4.0841 I-0.0382 J-0.0579
X0.9287 Y4.0118 I0. J-0.0724
X1.0002 Y3.9403 I0.0715 J0.
X1.0716 Y4.0118 I0. J0.0715
X1.0513 Y4.0626 I-0.0738 J0.
X1.0393 Y4.0727 I-0.0503 J-0.0478
G2 X1.0041 Y4.1388 I0.0431 J0.0654
G3 X0.9434 Y4.1828 I-0.046 J0.0004
X0.8206 Y4.0118 I0.0576 J-0.171
X1.0002 Y3.8322 I0.1796 J0.
X1.1797 Y4.0118 I0. J0.1796
X1.1278 Y4.139 I-0.1818 J0.
X1.0011 Y4.1922 I-0.1267 J-0.1242
X0.9434 Y4.1828 I0. J-0.1805
G2 X0.8612 Y4.2002 I-0.0264 J0.0783
G3 X0.7774 Y4.1941 I-0.039 J-0.0426
X0.7125 Y4.0117 I0.2237 J-0.1823
X1.0002 Y3.7241 I0.2877 J0.
X1.2878 Y4.0118 I0. J0.2877
X1.2042 Y4.2155 I-0.2899 J0.
X1.0011 Y4.3003 I-0.2031 J-0.2006
X0.7774 Y4.1941 I0. J-0.2886
G2 X0.6945 Y4.1649 I-0.0653 J0.0532
G3 X0.6193 Y4.1195 I-0.0134 J-0.0628
X0.6044 Y4.0117 I0.3818 J-0.1078
X1.0002 Y3.616 I0.3958 J0.
X1.3959 Y4.0118 I0. J0.3958
X1.0011 Y4.4084 I-0.3967 J0.
X0.6193 Y4.1195 I0. J-0.3967
G2 X0.5527 Y4.0588 I-0.0821 J0.0232
G3 X0.4966 Y3.9882 I0.0124 J-0.0674
X1.0011 Y3.5068 I0.5044 J0.0235
Y4.5167 I0. J0.505
X0.4966 Y3.9882 I0. J-0.505
X0.5554 Y3.9349 Z-0.003 I0.056 J0.0026 F20.
G1 X0.9705 Y3.9558 Z-0.0171
G3 X1.0237 Y4.0118 Z-0.02 I-0.0028 J0.056
X1.0173 Y4.0283 I-0.0246 J0. F30.
X1.0011 Y4.0355 I-0.0162 J-0.0148
X0.9773 Y4.0118 I0. J-0.0238
X1.0005 Y3.9886 I0.0232 J0.
X1.0237 Y4.0118 I0. J0.0232
G2 X1.0392 Y4.0403 I0.034 J0.
G3 X1.0393 Y4.0727 I-0.0106 J0.0162
X1.0011 Y4.0841 I-0.0382 J-0.0579
X0.9287 Y4.0118 I0. J-0.0724
X1.0002 Y3.9403 I0.0715 J0.
X1.0716 Y4.0118 I0. J0.0715
X1.0513 Y4.0626 I-0.0738 J0.
X1.0393 Y4.0727 I-0.0503 J-0.0478
G2 X1.0041 Y4.1388 I0.0431 J0.0654
G3 X0.9434 Y4.1828 I-0.046 J0.0004
X0.8206 Y4.0118 I0.0576 J-0.171
X1.0002 Y3.8322 I0.1796 J0.
X1.1797 Y4.0118 I0. J0.1796
X1.1278 Y4.139 I-0.1818 J0.
X1.0011 Y4.1922 I-0.1267 J-0.1242
X0.9434 Y4.1828 I0. J-0.1805
G2 X0.8612 Y4.2002 I-0.0264 J0.0783
G3 X0.7774 Y4.1941 I-0.039 J-0.0426
X0.7125 Y4.0117 I0.2237 J-0.1823
X1.0002 Y3.7241 I0.2877 J0.
X1.2878 Y4.0118 I0. J0.2877
X1.2042 Y4.2155 I-0.2899 J0.
X1.0011 Y4.3003 I-0.2031 J-0.2006
X0.7774 Y4.1941 I0. J-0.2886
G2 X0.6945 Y4.1649 I-0.0653 J0.0532
G3 X0.6193 Y4.1195 I-0.0134 J-0.0628
X0.6044 Y4.0117 I0.3818 J-0.1078
X1.0002 Y3.616 I0.3958 J0.
X1.3959 Y4.0118 I0. J0.3958
X1.0011 Y4.4084 I-0.3967 J0.
X0.6193 Y4.1195 I0. J-0.3967
G2 X0.5527 Y4.0588 I-0.0821 J0.0232
G3 X0.4966 Y3.9882 I0.0124 J-0.0674
X1.0011 Y3.5068 I0.5044 J0.0235
Y4.5167 I0. J0.505
X0.4966 Y3.9882 I0. J-0.505
X0.5554 Y3.9349 Z-0.023 I0.056 J0.0026 F20.
G1 X0.9705 Y3.9558 Z-0.0371
G3 X1.0237 Y4.0118 Z-0.04 I-0.0028 J0.056
X1.0173 Y4.0283 I-0.0246 J0. F30.
X1.0011 Y4.0355 I-0.0162 J-0.0148
X0.9773 Y4.0118 I0. J-0.0238
X1.0005 Y3.9886 I0.0232 J0.
X1.0237 Y4.0118 I0. J0.0232
G2 X1.0392 Y4.0403 I0.034 J0.
G3 X1.0393 Y4.0727 I-0.0106 J0.0162
X1.0011 Y4.0841 I-0.0382 J-0.0579
X0.9287 Y4.0118 I0. J-0.0724
X1.0002 Y3.9403 I0.0715 J0.
X1.0716 Y4.0118 I0. J0.0715
X1.0513 Y4.0626 I-0.0738 J0.
X1.0393 Y4.0727 I-0.0503 J-0.0478
G2 X1.0041 Y4.1388 I0.0431 J0.0654
G3 X0.9434 Y4.1828 I-0.046 J0.0004
X0.8206 Y4.0118 I0.0576 J-0.171
X1.0002 Y3.8322 I0.1796 J0.
X1.1797 Y4.0118 I0. J0.1796
X1.1278 Y4.139 I-0.1818 J0.
X1.0011 Y4.1922 I-0.1267 J-0.1242
X0.9434 Y4.1828 I0. J-0.1805
G2 X0.8612 Y4.2002 I-0.0264 J0.0783
G3 X0.7774 Y4.1941 I-0.039 J-0.0426
X0.7125 Y4.0117 I0.2237 J-0.1823
X1.0002 Y3.7241 I0.2877 J0.
X1.2878 Y4.0118 I0. J0.2877
X1.2042 Y4.2155 I-0.2899 J0.
X1.0011 Y4.3003 I-0.2031 J-0.2006
X0.7774 Y4.1941 I0. J-0.2886
G2 X0.6945 Y4.1649 I-0.0653 J0.0532
G3 X0.6193 Y4.1195 I-0.0134 J-0.0628
X0.6044 Y4.0117 I0.3818 J-0.1078
X1.0002 Y3.616 I0.3958 J0.
X1.3959 Y4.0118 I0. J0.3958
X1.0011 Y4.4084 I-0.3967 J0.
X0.6193 Y4.1195 I0. J-0.3967
G2 X0.5527 Y4.0588 I-0.0821 J0.0232
G3 X0.4966 Y3.9882 I0.0124 J-0.0674
X1.0011 Y3.5068 I0.5044 J0.0235
Y4.5167 I0. J0.505
X0.4966 Y3.9882 I0. J-0.505
X0.5554 Y3.9349 Z-0.043 I0.056 J0.0026 F20.
G1 X0.9705 Y3.9558 Z-0.0571
G3 X1.0237 Y4.0118 Z-0.06 I-0.0028 J0.056
X1.0173 Y4.0283 I-0.0246 J0. F30.
X1.0011 Y4.0355 I-0.0162 J-0.0148
X0.9773 Y4.0118 I0. J-0.0238
X1.0005 Y3.9886 I0.0232 J0.
X1.0237 Y4.0118 I0. J0.0232
G2 X1.0392 Y4.0403 I0.034 J0.
G3 X1.0393 Y4.0727 I-0.0106 J0.0162
X1.0011 Y4.0841 I-0.0382 J-0.0579
X0.9287 Y4.0118 I0. J-0.0724
X1.0002 Y3.9403 I0.0715 J0.
X1.0716 Y4.0118 I0. J0.0715
X1.0513 Y4.0626 I-0.0738 J0.
X1.0393 Y4.0727 I-0.0503 J-0.0478
G2 X1.0041 Y4.1388 I0.0431 J0.0654
G3 X0.9434 Y4.1828 I-0.046 J0.0004
X0.8206 Y4.0118 I0.0576 J-0.171
X1.0002 Y3.8322 I0.1796 J0.
X1.1797 Y4.0118 I0. J0.1796
X1.1278 Y4.139 I-0.1818 J0.
X1.0011 Y4.1922 I-0.1267 J-0.1242
X0.9434 Y4.1828 I0. J-0.1805
G2 X0.8612 Y4.2002 I-0.0264 J0.0783
G3 X0.7774 Y4.1941 I-0.039 J-0.0426
X0.7125 Y4.0117 I0.2237 J-0.1823
X1.0002 Y3.7241 I0.2877 J0.
X1.2878 Y4.0118 I0. J0.2877
X1.2042 Y4.2155 I-0.2899 J0.
X1.0011 Y4.3003 I-0.2031 J-0.2006
X0.7774 Y4.1941 I0. J-0.2886
G2 X0.6945 Y4.1649 I-0.0653 J0.0532
G3 X0.6193 Y4.1195 I-0.0134 J-0.0628
X0.6044 Y4.0117 I0.3818 J-0.1078
X1.0002 Y3.616 I0.3958 J0.
X1.3959 Y4.0118 I0. J0.3958
X1.0011 Y4.4084 I-0.3967 J0.
X0.6193 Y4.1195 I0. J-0.3967
G2 X0.5527 Y4.0588 I-0.0821 J0.0232
G3 X0.4966 Y3.9882 I0.0124 J-0.0674
X1.0011 Y3.5068 I0.5044 J0.0235
Y4.5167 I0. J0.505
X0.4966 Y3.9882 I0. J-0.505
X0.5554 Y3.9349 Z-0.063 I0.056 J0.0026 F20.
G1 X0.9705 Y3.9558 Z-0.0771
G3 X1.0237 Y4.0118 Z-0.08 I-0.0028 J0.056
X1.0173 Y4.0283 I-0.0246 J0. F30.
X1.0011 Y4.0355 I-0.0162 J-0.0148
X0.9773 Y4.0118 I0. J-0.0238
X1.0005 Y3.9886 I0.0232 J0.
X1.0237 Y4.0118 I0. J0.0232
G2 X1.0392 Y4.0403 I0.034 J0.
G3 X1.0393 Y4.0727 I-0.0106 J0.0162
X1.0011 Y4.0841 I-0.0382 J-0.0579
X0.9287 Y4.0118 I0. J-0.0724
X1.0002 Y3.9403 I0.0715 J0.
X1.0716 Y4.0118 I0. J0.0715
X1.0513 Y4.0626 I-0.0738 J0.
X1.0393 Y4.0727 I-0.0503 J-0.0478
G2 X1.0041 Y4.1388 I0.0431 J0.0654
G3 X0.9434 Y4.1828 I-0.046 J0.0004
X0.8206 Y4.0118 I0.0576 J-0.171
X1.0002 Y3.8322 I0.1796 J0.
X1.1797 Y4.0118 I0. J0.1796
X1.1278 Y4.139 I-0.1818 J0.
X1.0011 Y4.1922 I-0.1267 J-0.1242
X0.9434 Y4.1828 I0. J-0.1805
G2 X0.8612 Y4.2002 I-0.0264 J0.0783
G3 X0.7774 Y4.1941 I-0.039 J-0.0426
X0.7125 Y4.0117 I0.2237 J-0.1823
X1.0002 Y3.7241 I0.2877 J0.
X1.2878 Y4.0118 I0. J0.2877
X1.2042 Y4.2155 I-0.2899 J0.
X1.0011 Y4.3003 I-0.2031 J-0.2006
X0.7774 Y4.1941 I0. J-0.2886
G2 X0.6945 Y4.1649 I-0.0653 J0.0532
G3 X0.6193 Y4.1195 I-0.0134 J-0.0628
X0.6044 Y4.0117 I0.3818 J-0.1078
X1.0002 Y3.616 I0.3958 J0.
X1.3959 Y4.0118 I0. J0.3958
X1.0011 Y4.4084 I-0.3967 J0.
X0.6193 Y4.1195 I0. J-0.3967
G2 X0.5527 Y4.0588 I-0.0821 J0.0232
G3 X0.4966 Y3.9882 I0.0124 J-0.0674
X1.0011 Y3.5068 I0.5044 J0.0235
Y4.5167 I0. J0.505
X0.4966 Y3.9882 I0. J-0.505
X0.5554 Y3.9349 Z-0.083 I0.056 J0.0026 F20.
G1 X0.9705 Y3.9558 Z-0.0971
G3 X1.0237 Y4.0118 Z-0.1 I-0.0028 J0.056
X1.0173 Y4.0283 I-0.0246 J0. F30.
X1.0011 Y4.0355 I-0.0162 J-0.0148
X0.9773 Y4.0118 I0. J-0.0238
X1.0005 Y3.9886 I0.0232 J0.
X1.0237 Y4.0118 I0. J0.0232
G2 X1.0392 Y4.0403 I0.034 J0.
G3 X1.0393 Y4.0727 I-0.0106 J0.0162
X1.0011 Y4.0841 I-0.0382 J-0.0579
X0.9287 Y4.0118 I0. J-0.0724
X1.0002 Y3.9403 I0.0715 J0.
X1.0716 Y4.0118 I0. J0.0715
X1.0513 Y4.0626 I-0.0738 J0.
X1.0393 Y4.0727 I-0.0503 J-0.0478
G2 X1.0041 Y4.1388 I0.0431 J0.0654
G3 X0.9434 Y4.1828 I-0.046 J0.0004
X0.8206 Y4.0118 I0.0576 J-0.171
X1.0002 Y3.8322 I0.1796 J0.
X1.1797 Y4.0118 I0. J0.1796
X1.1278 Y4.139 I-0.1818 J0.
X1.0011 Y4.1922 I-0.1267 J-0.1242
X0.9434 Y4.1828 I0. J-0.1805
G2 X0.8612 Y4.2002 I-0.0264 J0.0783
G3 X0.7774 Y4.1941 I-0.039 J-0.0426
X0.7125 Y4.0117 I0.2237 J-0.1823
X1.0002 Y3.7241 I0.2877 J0.
X1.2878 Y4.0118 I0. J0.2877
X1.2042 Y4.2155 I-0.2899 J0.
X1.0011 Y4.3003 I-0.2031 J-0.2006
X0.7774 Y4.1941 I0. J-0.2886
G2 X0.6945 Y4.1649 I-0.0653 J0.0532
G3 X0.6193 Y4.1195 I-0.0134 J-0.0628
X0.6044 Y4.0117 I0.3818 J-0.1078
X1.0002 Y3.616 I0.3958 J0.
X1.3959 Y4.0118 I0. J0.3958
X1.0011 Y4.4084 I-0.3967 J0.
X0.6193 Y4.1195 I0. J-0.3967
G2 X0.5527 Y4.0588 I-0.0821 J0.0232
G3 X0.4966 Y3.9882 I0.0124 J-0.0674
X1.0011 Y3.5068 I0.5044 J0.0235
Y4.5167 I0. J0.505
X0.4966 Y3.9882 I0. J-0.505
X0.5554 Y3.9349 Z-0.103 I0.056 J0.0026 F20.
G1 X0.9705 Y3.9558 Z-0.1171
G3 X1.0237 Y4.0118 Z-0.12 I-0.0028 J0.056
X1.0173 Y4.0283 I-0.0246 J0. F30.
X1.0011 Y4.0355 I-0.0162 J-0.0148
X0.9773 Y4.0118 I0. J-0.0238
X1.0005 Y3.9886 I0.0232 J0.
X1.0237 Y4.0118 I0. J0.0232
G2 X1.0392 Y4.0403 I0.034 J0.
G3 X1.0393 Y4.0727 I-0.0106 J0.0162
X1.0011 Y4.0841 I-0.0382 J-0.0579
X0.9287 Y4.0118 I0. J-0.0724
X1.0002 Y3.9403 I0.0715 J0.
X1.0716 Y4.0118 I0. J0.0715
X1.0513 Y4.0626 I-0.0738 J0.
X1.0393 Y4.0727 I-0.0503 J-0.0478
G2 X1.0041 Y4.1388 I0.0431 J0.0654
G3 X0.9434 Y4.1828 I-0.046 J0.0004
X0.8206 Y4.0118 I0.0576 J-0.171
X1.0002 Y3.8322 I0.1796 J0.
X1.1797 Y4.0118 I0. J0.1796
X1.1278 Y4.139 I-0.1818 J0.
X1.0011 Y4.1922 I-0.1267 J-0.1242
X0.9434 Y4.1828 I0. J-0.1805
G2 X0.8612 Y4.2002 I-0.0264 J0.0783
G3 X0.7774 Y4.1941 I-0.039 J-0.0426
X0.7125 Y4.0117 I0.2237 J-0.1823
X1.0002 Y3.7241 I0.2877 J0.
X1.2878 Y4.0118 I0. J0.2877
X1.2042 Y4.2155 I-0.2899 J0.
X1.0011 Y4.3003 I-0.2031 J-0.2006
X0.7774 Y4.1941 I0. J-0.2886
G2 X0.6945 Y4.1649 I-0.0653 J0.0532
G3 X0.6193 Y4.1195 I-0.0134 J-0.0628
X0.6044 Y4.0117 I0.3818 J-0.1078
X1.0002 Y3.616 I0.3958 J0.
X1.3959 Y4.0118 I0. J0.3958
X1.0011 Y4.4084 I-0.3967 J0.
X0.6193 Y4.1195 I0. J-0.3967
G2 X0.5527 Y4.0588 I-0.0821 J0.0232
G3 X0.4966 Y3.9882 I0.0124 J-0.0674
X1.0011 Y3.5068 I0.5044 J0.0235
Y4.5167 I0. J0.505
X0.4966 Y3.9882 I0. J-0.505
X0.5554 Y3.9349 Z-0.1215 I0.056 J0.0026 F20.
G1 X0.9705 Y3.9558 Z-0.1286
G3 X1.0237 Y4.0118 Z-0.13 I-0.0028 J0.056
X1.0173 Y4.0283 I-0.0246 J0. F30.
X1.0011 Y4.0355 I-0.0162 J-0.0148
X0.9773 Y4.0118 I0. J-0.0238
X1.0005 Y3.9886 I0.0232 J0.
X1.0237 Y4.0118 I0. J0.0232
G2 X1.0392 Y4.0403 I0.034 J0.
G3 X1.0393 Y4.0727 I-0.0106 J0.0162
X1.0011 Y4.0841 I-0.0382 J-0.0579
X0.9287 Y4.0118 I0. J-0.0724
X1.0002 Y3.9403 I0.0715 J0.
X1.0716 Y4.0118 I0. J0.0715
X1.0513 Y4.0626 I-0.0738 J0.
X1.0393 Y4.0727 I-0.0503 J-0.0478
G2 X1.0041 Y4.1388 I0.0431 J0.0654
G3 X0.9434 Y4.1828 I-0.046 J0.0004
X0.8206 Y4.0118 I0.0576 J-0.171
X1.0002 Y3.8322 I0.1796 J0.
X1.1797 Y4.0118 I0. J0.1796
X1.1278 Y4.139 I-0.1818 J0.
X1.0011 Y4.1922 I-0.1267 J-0.1242
X0.9434 Y4.1828 I0. J-0.1805
G2 X0.8612 Y4.2002 I-0.0264 J0.0783
G3 X0.7774 Y4.1941 I-0.039 J-0.0426
X0.7125 Y4.0117 I0.2237 J-0.1823
X1.0002 Y3.7241 I0.2877 J0.
X1.2878 Y4.0118 I0. J0.2877
X1.2042 Y4.2155 I-0.2899 J0.
X1.0011 Y4.3003 I-0.2031 J-0.2006
X0.7774 Y4.1941 I0. J-0.2886
G2 X0.6945 Y4.1649 I-0.0653 J0.0532
G3 X0.6193 Y4.1195 I-0.0134 J-0.0628
X0.6044 Y4.0117 I0.3818 J-0.1078
X1.0002 Y3.616 I0.3958 J0.
X1.3959 Y4.0118 I0. J0.3958
X1.0011 Y4.4084 I-0.3967 J0.
X0.6193 Y4.1195 I0. J-0.3967
G2 X0.5527 Y4.0588 I-0.0821 J0.0232
G3 X0.4966 Y3.9882 I0.0124 J-0.0674
X1.0011 Y3.5068 I0.5044 J0.0235
Y4.5167 I0. J0.505
X0.4966 Y3.9882 I0. J-0.505
G1 X0.497 Y3.986 Z-0.1296
X0.4977 Y3.9839 Z-0.1291
X0.4986 Y3.9822 Z-0.1278
X0.4998 Y3.9807 Z-0.1265
X0.5018 Y3.979 Z-0.1227
X0.5025 Y3.9786 Z-0.1182
G0 Z0.24
X1.0876 Y2.4589
G1 Z0.1518 F30.
X1.089 Y2.4586 Z0.146 F20.
X1.0931 Y2.4578 Z0.1417
X1.0988 Y2.4572 Z0.14
G3 X1.1041 Y2.5692 Z0.1339 I0.0027 J0.056
X1.0988 Y2.4572 Z0.1277 I-0.0027 J-0.056
X1.1041 Y2.5692 Z0.1216 I0.0027 J0.056
X1.0988 Y2.4572 Z0.1154 I-0.0027 J-0.056
X1.1041 Y2.5692 Z0.1093 I0.0027 J0.056
X1.0988 Y2.4572 Z0.1031 I-0.0027 J-0.056
X1.1041 Y2.5692 Z0.097 I0.0027 J0.056
X1.0988 Y2.4572 Z0.0908 I-0.0027 J-0.056
X1.1041 Y2.5692 Z0.0847 I0.0027 J0.056
X1.0988 Y2.4572 Z0.0785 I-0.0027 J-0.056
X1.1041 Y2.5692 Z0.0724 I0.0027 J0.056
X1.0988 Y2.4572 Z0.0662 I-0.0027 J-0.056
X1.1041 Y2.5692 Z0.0601 I0.0027 J0.056
X1.0988 Y2.4572 Z0.0539 I-0.0027 J-0.056
X1.1041 Y2.5692 Z0.0478 I0.0027 J0.056
X1.0988 Y2.4572 Z0.0416 I-0.0027 J-0.056
X1.1041 Y2.5692 Z0.0355 I0.0027 J0.056
X1.0988 Y2.4572 Z0.0293 I-0.0027 J-0.056
X1.1041 Y2.5692 Z0.0232 I0.0027 J0.056
X1.0454 Y2.5132 Z0.02 I-0.0027 J-0.056
G1 X1.0456 Y2.5126 F30.
X1.0461 Y2.5122
X1.0468
X1.0473 Y2.5126
X1.0475 Y2.5132
G3 X0.9333 I-0.0571 J0.
X1.1596 I0.1132 J0.
X0.8212 I-0.1692 J0.
X1.2717 I0.2253 J0.
X0.7091 I-0.2813 J0.
X1.3838 I0.3374 J0.
X0.597 I-0.3934 J0.
X1.4959 I0.4495 J0.
X0.4849 I-0.5055 J0.
X1.4959 I0.5055 J0.
G1 X1.4957 Y2.5149
X1.4949 Y2.5165
X1.4938 Y2.5178
X1.4923 Y2.5187
X1.4906 Y2.5191
X1.1838 Y2.5496
X1.182 Y2.5498
X1.1803 Y2.5494
X1.1788 Y2.5485
X1.1776 Y2.5472
X1.1318 Y2.4808
G3 X1.1408 Y2.4733 I0.0049 J-0.0033
X1.0621 Y2.5532 Z0.0139 I-0.0393 J0.0399 F20.
X1.1408 Y2.4733 Z0.0077 I0.0393 J-0.0399
X1.0621 Y2.5532 Z0.0016 I-0.0393 J0.0399
X1.0454 Y2.5132 Z0. I0.0393 J-0.0399
G1 X1.0456 Y2.5126 F30.
X1.0461 Y2.5122
X1.0468
X1.0473 Y2.5126
X1.0475 Y2.5132
G3 X0.9333 I-0.0571 J0.
X1.1596 I0.1132 J0.
X0.8212 I-0.1692 J0.
X1.2717 I0.2253 J0.
X0.7091 I-0.2813 J0.
X1.3838 I0.3374 J0.
X0.597 I-0.3934 J0.
X1.4959 I0.4495 J0.
X0.4849 I-0.5055 J0.
X1.4959 I0.5055 J0.
G1 X1.4957 Y2.5149
X1.4949 Y2.5165
X1.4938 Y2.5178
X1.4923 Y2.5187
X1.4906 Y2.5191
X1.1838 Y2.5496
X1.182 Y2.5498
X1.1803 Y2.5494
X1.1788 Y2.5485
X1.1776 Y2.5472
X1.1318 Y2.4808
G3 X1.1408 Y2.4733 I0.0049 J-0.0033
X1.0621 Y2.5532 Z-0.0061 I-0.0393 J0.0399 F20.
X1.1408 Y2.4733 Z-0.0123 I0.0393 J-0.0399
X1.0621 Y2.5532 Z-0.0184 I-0.0393 J0.0399
X1.0454 Y2.5132 Z-0.02 I0.0393 J-0.0399
G1 X1.0456 Y2.5126 F30.
X1.0461 Y2.5122
X1.0468
X1.0473 Y2.5126
X1.0475 Y2.5132
G3 X0.9333 I-0.0571 J0.
X1.1596 I0.1132 J0.
X0.8212 I-0.1692 J0.
X1.2717 I0.2253 J0.
X0.7091 I-0.2813 J0.
X1.3838 I0.3374 J0.
X0.597 I-0.3934 J0.
X1.4959 I0.4495 J0.
X0.4849 I-0.5055 J0.
X1.4959 I0.5055 J0.
G1 X1.4957 Y2.5149
X1.4949 Y2.5165
X1.4938 Y2.5178
X1.4923 Y2.5187
X1.4906 Y2.5191
X1.1838 Y2.5496
X1.182 Y2.5498
X1.1803 Y2.5494
X1.1788 Y2.5485
X1.1776 Y2.5472
X1.1318 Y2.4808
G3 X1.1408 Y2.4733 I0.0049 J-0.0033
X1.0621 Y2.5532 Z-0.0261 I-0.0393 J0.0399 F20.
X1.1408 Y2.4733 Z-0.0323 I0.0393 J-0.0399
X1.0621 Y2.5532 Z-0.0384 I-0.0393 J0.0399
X1.0454 Y2.5132 Z-0.04 I0.0393 J-0.0399
G1 X1.0456 Y2.5126 F30.
X1.0461 Y2.5122
X1.0468
X1.0473 Y2.5126
X1.0475 Y2.5132
G3 X0.9333 I-0.0571 J0.
X1.1596 I0.1132 J0.
X0.8212 I-0.1692 J0.
X1.2717 I0.2253 J0.
X0.7091 I-0.2813 J0.
X1.3838 I0.3374 J0.
X0.597 I-0.3934 J0.
X1.4959 I0.4495 J0.
X0.4849 I-0.5055 J0.
X1.4959 I0.5055 J0.
G1 X1.4957 Y2.5149
X1.4949 Y2.5165
X1.4938 Y2.5178
X1.4923 Y2.5187
X1.4906 Y2.5191
X1.1838 Y2.5496
X1.182 Y2.5498
X1.1803 Y2.5494
X1.1788 Y2.5485
X1.1776 Y2.5472
X1.1318 Y2.4808
G3 X1.1408 Y2.4733 I0.0049 J-0.0033
X1.0621 Y2.5532 Z-0.0461 I-0.0393 J0.0399 F20.
X1.1408 Y2.4733 Z-0.0523 I0.0393 J-0.0399
X1.0621 Y2.5532 Z-0.0584 I-0.0393 J0.0399
X1.0454 Y2.5132 Z-0.06 I0.0393 J-0.0399
G1 X1.0456 Y2.5126 F30.
X1.0461 Y2.5122
X1.0468
X1.0473 Y2.5126
X1.0475 Y2.5132
G3 X0.9333 I-0.0571 J0.
X1.1596 I0.1132 J0.
X0.8212 I-0.1692 J0.
X1.2717 I0.2253 J0.
X0.7091 I-0.2813 J0.
X1.3838 I0.3374 J0.
X0.597 I-0.3934 J0.
X1.4959 I0.4495 J0.
X0.4849 I-0.5055 J0.
X1.4959 I0.5055 J0.
G1 X1.4957 Y2.5149
X1.4949 Y2.5165
X1.4938 Y2.5178
X1.4923 Y2.5187
X1.4906 Y2.5191
X1.1838 Y2.5496
X1.182 Y2.5498
X1.1803 Y2.5494
X1.1788 Y2.5485
X1.1776 Y2.5472
X1.1318 Y2.4808
G3 X1.1408 Y2.4733 I0.0049 J-0.0033
X1.0621 Y2.5532 Z-0.0661 I-0.0393 J0.0399 F20.
X1.1408 Y2.4733 Z-0.0723 I0.0393 J-0.0399
X1.0621 Y2.5532 Z-0.0784 I-0.0393 J0.0399
X1.0454 Y2.5132 Z-0.08 I0.0393 J-0.0399
G1 X1.0456 Y2.5126 F30.
X1.0461 Y2.5122
X1.0468
X1.0473 Y2.5126
X1.0475 Y2.5132
G3 X0.9333 I-0.0571 J0.
X1.1596 I0.1132 J0.
X0.8212 I-0.1692 J0.
X1.2717 I0.2253 J0.
X0.7091 I-0.2813 J0.
X1.3838 I0.3374 J0.
X0.597 I-0.3934 J0.
X1.4959 I0.4495 J0.
X0.4849 I-0.5055 J0.
X1.4959 I0.5055 J0.
G1 X1.4957 Y2.5149
X1.4949 Y2.5165
X1.4938 Y2.5178
X1.4923 Y2.5187
X1.4906 Y2.5191
X1.1838 Y2.5496
X1.182 Y2.5498
X1.1803 Y2.5494
X1.1788 Y2.5485
X1.1776 Y2.5472
X1.1318 Y2.4808
G3 X1.1408 Y2.4733 I0.0049 J-0.0033
X1.0621 Y2.5532 Z-0.0861 I-0.0393 J0.0399 F20.
X1.1408 Y2.4733 Z-0.0923 I0.0393 J-0.0399
X1.0621 Y2.5532 Z-0.0984 I-0.0393 J0.0399
X1.0454 Y2.5132 Z-0.1 I0.0393 J-0.0399
G1 X1.0456 Y2.5126 F30.
X1.0461 Y2.5122
X1.0468
X1.0473 Y2.5126
X1.0475 Y2.5132
G3 X0.9333 I-0.0571 J0.
X1.1596 I0.1132 J0.
X0.8212 I-0.1692 J0.
X1.2717 I0.2253 J0.
X0.7091 I-0.2813 J0.
X1.3838 I0.3374 J0.
X0.597 I-0.3934 J0.
X1.4959 I0.4495 J0.
X0.4849 I-0.5055 J0.
X1.4959 I0.5055 J0.
G1 X1.4957 Y2.5149
X1.4949 Y2.5165
X1.4938 Y2.5178
X1.4923 Y2.5187
X1.4906 Y2.5191
X1.1838 Y2.5496
X1.182 Y2.5498
X1.1803 Y2.5494
X1.1788 Y2.5485
X1.1776 Y2.5472
X1.1318 Y2.4808
G3 X1.1408 Y2.4733 I0.0049 J-0.0033
X1.0621 Y2.5532 Z-0.1061 I-0.0393 J0.0399 F20.
X1.1408 Y2.4733 Z-0.1123 I0.0393 J-0.0399
X1.0621 Y2.5532 Z-0.1184 I-0.0393 J0.0399
X1.0454 Y2.5132 Z-0.12 I0.0393 J-0.0399
G1 X1.0456 Y2.5126 F30.
X1.0461 Y2.5122
X1.0468
X1.0473 Y2.5126
X1.0475 Y2.5132
G3 X0.9333 I-0.0571 J0.
X1.1596 I0.1132 J0.
X0.8212 I-0.1692 J0.
X1.2717 I0.2253 J0.
X0.7091 I-0.2813 J0.
X1.3838 I0.3374 J0.
X0.597 I-0.3934 J0.
X1.4959 I0.4495 J0.
X0.4849 I-0.5055 J0.
X1.4959 I0.5055 J0.
G1 X1.4957 Y2.5149
X1.4949 Y2.5165
X1.4938 Y2.5178
X1.4923 Y2.5187
X1.4906 Y2.5191
X1.2494 Y2.5452
X1.2481 Y2.5454
X1.2468 Y2.5453
X1.2455 Y2.5449
X1.0797 Y2.4724
G3 X1.0798 Y2.4615 I0.0024 J-0.0054
X1.1231 Y2.5649 Z-0.1261 I0.0217 J0.0517 F20.
X1.0454 Y2.5132 Z-0.13 I-0.0217 J-0.0517
G1 X1.0456 Y2.5126 F30.
X1.0461 Y2.5122
X1.0468
X1.0473 Y2.5126
X1.0475 Y2.5132
G3 X0.9333 I-0.0571 J0.
X1.1596 I0.1132 J0.
X0.8212 I-0.1692 J0.
X1.2717 I0.2253 J0.
X0.7091 I-0.2813 J0.
X1.3838 I0.3374 J0.
X0.597 I-0.3934 J0.
X1.4959 I0.4495 J0.
X0.4849 I-0.5055 J0.
X1.4959 I0.5055 J0.
G1 X1.4957 Y2.5155 Z-0.1296
X1.4951 Y2.5176 Z-0.1291
X1.4942 Y2.5193 Z-0.1278
X1.4931 Y2.5209 Z-0.1265
X1.4912 Y2.5226 Z-0.1227
X1.4905 Y2.5231 Z-0.1182
G0 Z0.24
X1.0998 Y0.9449
G1 Z0.1518 F30.
X1.1013 Y0.9445 Z0.146 F20.
X1.1054 Y0.9438 Z0.1417
X1.1111 Y0.9432 Z0.14
G3 X1.1164 Y1.0552 Z0.1339 I0.0027 J0.056
X1.1111 Y0.9432 Z0.1277 I-0.0027 J-0.056
X1.1164 Y1.0552 Z0.1216 I0.0027 J0.056
X1.1111 Y0.9432 Z0.1154 I-0.0027 J-0.056
X1.1164 Y1.0552 Z0.1093 I0.0027 J0.056
X1.1111 Y0.9432 Z0.1031 I-0.0027 J-0.056
X1.1164 Y1.0552 Z0.097 I0.0027 J0.056
X1.1111 Y0.9432 Z0.0908 I-0.0027 J-0.056
X1.1164 Y1.0552 Z0.0847 I0.0027 J0.056
X1.1111 Y0.9432 Z0.0785 I-0.0027 J-0.056
X1.1164 Y1.0552 Z0.0724 I0.0027 J0.056
X1.1111 Y0.9432 Z0.0662 I-0.0027 J-0.056
X1.1164 Y1.0552 Z0.0601 I0.0027 J0.056
X1.1111 Y0.9432 Z0.0539 I-0.0027 J-0.056
X1.1164 Y1.0552 Z0.0478 I0.0027 J0.056
X1.1111 Y0.9432 Z0.0416 I-0.0027 J-0.056
X1.1164 Y1.0552 Z0.0355 I0.0027 J0.056
X1.1111 Y0.9432 Z0.0293 I-0.0027 J-0.056
X1.1164 Y1.0552 Z0.0232 I0.0027 J0.056
X1.0577 Y0.9992 Z0.02 I-0.0027 J-0.056
G1 X1.058 Y0.9983 F30.
X1.0588 Y0.9977
X1.0597
X1.0605 Y0.9983
X1.0608 Y0.9992
G3 X0.9456 I-0.0576 J0.
X1.1729 I0.1136 J0.
X0.8335 I-0.1697 J0.
X1.285 I0.2258 J0.
X0.7214 I-0.2818 J0.
X1.3971 I0.3379 J0.
X0.6093 I-0.3939 J0.
X1.5092 I0.45 J0.
X0.4972 I-0.506 J0.
X1.5092 I0.506 J0.
G1 X1.5089 Y1.0009
X1.5082 Y1.0025
X1.507 Y1.0037
X1.5056 Y1.0046
X1.5039 Y1.0051
X1.1962 Y1.0357
X1.1944 Y1.0359
X1.1927 Y1.0355
X1.1911 Y1.0346
X1.1899 Y1.0334
X1.1441 Y0.9668
G3 X1.1531 Y0.9592 I0.0049 J-0.0033
X1.0744 Y1.0391 Z0.0139 I-0.0393 J0.0399 F20.
X1.1531 Y0.9592 Z0.0077 I0.0393 J-0.0399
X1.0744 Y1.0391 Z0.0016 I-0.0393 J0.0399
X1.0577 Y0.9992 Z0. I0.0393 J-0.0399
G1 X1.058 Y0.9983 F30.
X1.0588 Y0.9977
X1.0597
X1.0605 Y0.9983
X1.0608 Y0.9992
G3 X0.9456 I-0.0576 J0.
X1.1729 I0.1136 J0.
X0.8335 I-0.1697 J0.
X1.285 I0.2258 J0.
X0.7214 I-0.2818 J0.
X1.3971 I0.3379 J0.
X0.6093 I-0.3939 J0.
X1.5092 I0.45 J0.
X0.4972 I-0.506 J0.
X1.5092 I0.506 J0.
G1 X1.5089 Y1.0009
X1.5082 Y1.0025
X1.507 Y1.0037
X1.5056 Y1.0046
X1.5039 Y1.0051
X1.1962 Y1.0357
X1.1944 Y1.0359
X1.1927 Y1.0355
X1.1911 Y1.0346
X1.1899 Y1.0334
X1.1441 Y0.9668
G3 X1.1531 Y0.9592 I0.0049 J-0.0033
X1.0744 Y1.0391 Z-0.0061 I-0.0393 J0.0399 F20.
X1.1531 Y0.9592 Z-0.0123 I0.0393 J-0.0399
X1.0744 Y1.0391 Z-0.0184 I-0.0393 J0.0399
X1.0577 Y0.9992 Z-0.02 I0.0393 J-0.0399
G1 X1.058 Y0.9983 F30.
X1.0588 Y0.9977
X1.0597
X1.0605 Y0.9983
X1.0608 Y0.9992
G3 X0.9456 I-0.0576 J0.
X1.1729 I0.1136 J0.
X0.8335 I-0.1697 J0.
X1.285 I0.2258 J0.
X0.7214 I-0.2818 J0.
X1.3971 I0.3379 J0.
X0.6093 I-0.3939 J0.
X1.5092 I0.45 J0.
X0.4972 I-0.506 J0.
X1.5092 I0.506 J0.
G1 X1.5089 Y1.0009
X1.5082 Y1.0025
X1.507 Y1.0037
X1.5056 Y1.0046
X1.5039 Y1.0051
X1.1962 Y1.0357
X1.1944 Y1.0359
X1.1927 Y1.0355
X1.1911 Y1.0346
X1.1899 Y1.0334
X1.1441 Y0.9668
G3 X1.1531 Y0.9592 I0.0049 J-0.0033
X1.0744 Y1.0391 Z-0.0261 I-0.0393 J0.0399 F20.
X1.1531 Y0.9592 Z-0.0323 I0.0393 J-0.0399
X1.0744 Y1.0391 Z-0.0384 I-0.0393 J0.0399
X1.0577 Y0.9992 Z-0.04 I0.0393 J-0.0399
G1 X1.058 Y0.9983 F30.
X1.0588 Y0.9977
X1.0597
X1.0605 Y0.9983
X1.0608 Y0.9992
G3 X0.9456 I-0.0576 J0.
X1.1729 I0.1136 J0.
X0.8335 I-0.1697 J0.
X1.285 I0.2258 J0.
X0.7214 I-0.2818 J0.
X1.3971 I0.3379 J0.
X0.6093 I-0.3939 J0.
X1.5092 I0.45 J0.
X0.4972 I-0.506 J0.
X1.5092 I0.506 J0.
G1 X1.5089 Y1.0009
X1.5082 Y1.0025
X1.507 Y1.0037
X1.5056 Y1.0046
X1.5039 Y1.0051
X1.1962 Y1.0357
X1.1944 Y1.0359
X1.1927 Y1.0355
X1.1911 Y1.0346
X1.1899 Y1.0334
X1.1441 Y0.9668
G3 X1.1531 Y0.9592 I0.0049 J-0.0033
X1.0744 Y1.0391 Z-0.0461 I-0.0393 J0.0399 F20.
X1.1531 Y0.9592 Z-0.0523 I0.0393 J-0.0399
X1.0744 Y1.0391 Z-0.0584 I-0.0393 J0.0399
X1.0577 Y0.9992 Z-0.06 I0.0393 J-0.0399
G1 X1.058 Y0.9983 F30.
X1.0588 Y0.9977
X1.0597
X1.0605 Y0.9983
X1.0608 Y0.9992
G3 X0.9456 I-0.0576 J0.
X1.1729 I0.1136 J0.
X0.8335 I-0.1697 J0.
X1.285 I0.2258 J0.
X0.7214 I-0.2818 J0.
X1.3971 I0.3379 J0.
X0.6093 I-0.3939 J0.
X1.5092 I0.45 J0.
X0.4972 I-0.506 J0.
X1.5092 I0.506 J0.
G1 X1.5089 Y1.0009
X1.5082 Y1.0025
X1.507 Y1.0037
X1.5056 Y1.0046
X1.5039 Y1.0051
X1.1962 Y1.0357
X1.1944 Y1.0359
X1.1927 Y1.0355
X1.1911 Y1.0346
X1.1899 Y1.0334
X1.1441 Y0.9668
G3 X1.1531 Y0.9592 I0.0049 J-0.0033
X1.0744 Y1.0391 Z-0.0661 I-0.0393 J0.0399 F20.
X1.1531 Y0.9592 Z-0.0723 I0.0393 J-0.0399
X1.0744 Y1.0391 Z-0.0784 I-0.0393 J0.0399
X1.0577 Y0.9992 Z-0.08 I0.0393 J-0.0399
G1 X1.058 Y0.9983 F30.
X1.0588 Y0.9977
X1.0597
X1.0605 Y0.9983
X1.0608 Y0.9992
G3 X0.9456 I-0.0576 J0.
X1.1729 I0.1136 J0.
X0.8335 I-0.1697 J0.
X1.285 I0.2258 J0.
X0.7214 I-0.2818 J0.
X1.3971 I0.3379 J0.
X0.6093 I-0.3939 J0.
X1.5092 I0.45 J0.
X0.4972 I-0.506 J0.
X1.5092 I0.506 J0.
G1 X1.5089 Y1.0009
X1.5082 Y1.0025
X1.507 Y1.0037
X1.5056 Y1.0046
X1.5039 Y1.0051
X1.1962 Y1.0357
X1.1944 Y1.0359
X1.1927 Y1.0355
X1.1911 Y1.0346
X1.1899 Y1.0334
X1.1441 Y0.9668
G3 X1.1531 Y0.9592 I0.0049 J-0.0033
X1.0744 Y1.0391 Z-0.0861 I-0.0393 J0.0399 F20.
X1.1531 Y0.9592 Z-0.0923 I0.0393 J-0.0399
X1.0744 Y1.0391 Z-0.0984 I-0.0393 J0.0399
X1.0577 Y0.9992 Z-0.1 I0.0393 J-0.0399
G1 X1.058 Y0.9983 F30.
X1.0588 Y0.9977
X1.0597
X1.0605 Y0.9983
X1.0608 Y0.9992
G3 X0.9456 I-0.0576 J0.
X1.1729 I0.1136 J0.
X0.8335 I-0.1697 J0.
X1.285 I0.2258 J0.
X0.7214 I-0.2818 J0.
X1.3971 I0.3379 J0.
X0.6093 I-0.3939 J0.
X1.5092 I0.45 J0.
X0.4972 I-0.506 J0.
X1.5092 I0.506 J0.
G1 X1.5089 Y1.0009
X1.5082 Y1.0025
X1.507 Y1.0037
X1.5056 Y1.0046
X1.5039 Y1.0051
X1.1962 Y1.0357
X1.1944 Y1.0359
X1.1927 Y1.0355
X1.1911 Y1.0346
X1.1899 Y1.0334
X1.1441 Y0.9668
G3 X1.1531 Y0.9592 I0.0049 J-0.0033
X1.0744 Y1.0391 Z-0.1061 I-0.0393 J0.0399 F20.
X1.1531 Y0.9592 Z-0.1123 I0.0393 J-0.0399
X1.0744 Y1.0391 Z-0.1184 I-0.0393 J0.0399
X1.0577 Y0.9992 Z-0.12 I0.0393 J-0.0399
G1 X1.058 Y0.9983 F30.
X1.0588 Y0.9977
X1.0597
X1.0605 Y0.9983
X1.0608 Y0.9992
G3 X0.9456 I-0.0576 J0.
X1.1729 I0.1136 J0.
X0.8335 I-0.1697 J0.
X1.285 I0.2258 J0.
X0.7214 I-0.2818 J0.
X1.3971 I0.3379 J0.
X0.6093 I-0.3939 J0.
X1.5092 I0.45 J0.
X0.4972 I-0.506 J0.
X1.5092 I0.506 J0.
G1 X1.5089 Y1.0009
X1.5082 Y1.0024
X1.5071 Y1.0037
X1.5056 Y1.0046
X1.5039 Y1.005
X1.2621 Y1.0313
X1.2608 Y1.0315
X1.2595 Y1.0314
X1.2582 Y1.031
X1.092 Y0.9583
G3 X1.0921 Y0.9475 I0.0024 J-0.0054
X1.1354 Y1.0509 Z-0.1261 I0.0217 J0.0517 F20.
X1.0577 Y0.9992 Z-0.13 I-0.0217 J-0.0517
G1 X1.058 Y0.9983 F30.
X1.0588 Y0.9977
X1.0597
X1.0605 Y0.9983
X1.0608 Y0.9992
G3 X0.9456 I-0.0576 J0.
X1.1729 I0.1136 J0.
X0.8335 I-0.1697 J0.
X1.285 I0.2258 J0.
X0.7214 I-0.2818 J0.
X1.3971 I0.3379 J0.
X0.6093 I-0.3939 J0.
X1.5092 I0.45 J0.
X0.4972 I-0.506 J0.
X1.5092 I0.506 J0.
G1 X1.509 Y1.0014 Z-0.1296
X1.5083 Y1.0036 Z-0.1291
X1.5075 Y1.0053 Z-0.1278
X1.5064 Y1.0068 Z-0.1265
X1.5045 Y1.0086 Z-0.1227
X1.5038 Y1.0091 Z-0.1182
G0 Z0.24
X1.0107 Y5.5637
G1 Z0.1518 F30.
X1.0092 Y5.5641 Z0.146 F20.
X1.0052 Y5.5648 Z0.1417
X0.9995 Y5.5654 Z0.14
G3 X0.994 Y5.4534 Z0.1339 I-0.0027 J-0.056
X0.9995 Y5.5654 Z0.1277 I0.0027 J0.056
X0.994 Y5.4534 Z0.1216 I-0.0027 J-0.056
X0.9995 Y5.5654 Z0.1154 I0.0027 J0.056
X0.994 Y5.4534 Z0.1093 I-0.0027 J-0.056
X0.9995 Y5.5654 Z0.1031 I0.0027 J0.056
X0.994 Y5.4534 Z0.097 I-0.0027 J-0.056
X0.9995 Y5.5654 Z0.0908 I0.0027 J0.056
X0.994 Y5.4534 Z0.0847 I-0.0027 J-0.056
X0.9995 Y5.5654 Z0.0785 I0.0027 J0.056
X0.994 Y5.4534 Z0.0724 I-0.0027 J-0.056
X0.9995 Y5.5654 Z0.0662 I0.0027 J0.056
X0.994 Y5.4534 Z0.0601 I-0.0027 J-0.056
X0.9995 Y5.5654 Z0.0539 I0.0027 J0.056
X0.994 Y5.4534 Z0.0478 I-0.0027 J-0.056
X0.9995 Y5.5654 Z0.0416 I0.0027 J0.056
X0.994 Y5.4534 Z0.0355 I-0.0027 J-0.056
X0.9995 Y5.5654 Z0.0293 I0.0027 J0.056
X0.994 Y5.4534 Z0.0232 I-0.0027 J-0.056
X1.0528 Y5.5094 Z0.02 I0.0027 J0.056
X0.9968 Y5.5655 I-0.056 J0.0001 F30.
X0.9407 Y5.5094 I0. J-0.0561
X1.165 I0.1122 J0.
X0.8286 I-0.1682 J0.
X1.2771 I0.2243 J0.
X0.7165 I-0.2803 J0.
X1.3892 I0.3364 J0.
X0.6044 I-0.3924 J0.
X1.5013 I0.4485 J0.
X0.4923 I-0.5045 J0.
X1.5013 I0.5045 J0.
G1 X1.5011 Y5.511
X1.5004 Y5.5125
X1.4993 Y5.5138
X1.4979 Y5.5147
X1.4963 Y5.5152
X1.4946
X1.2071 Y5.4763
X1.2056 Y5.4761
X1.2041 Y5.4764
X0.9634 Y5.5508
X0.9618 Y5.5511
X0.9602 Y5.5509
X0.9587 Y5.5504
X0.9575 Y5.5494
G3 X1.036 Y5.4694 Z0.0139 I0.0393 J-0.04 F20.
X0.9575 Y5.5494 Z0.0077 I-0.0393 J0.04
X1.036 Y5.4694 Z0.0016 I0.0393 J-0.04
X1.0528 Y5.5094 Z0. I-0.0393 J0.04
X0.9968 Y5.5655 I-0.056 J0.0001 F30.
X0.9407 Y5.5094 I0. J-0.0561
X1.165 I0.1122 J0.
X0.8286 I-0.1682 J0.
X1.2771 I0.2243 J0.
X0.7165 I-0.2803 J0.
X1.3892 I0.3364 J0.
X0.6044 I-0.3924 J0.
X1.5013 I0.4485 J0.
X0.4923 I-0.5045 J0.
X1.5013 I0.5045 J0.
G1 X1.5011 Y5.511
X1.5004 Y5.5125
X1.4993 Y5.5138
X1.4979 Y5.5147
X1.4963 Y5.5152
X1.4946
X1.2071 Y5.4763
X1.2056 Y5.4761
X1.2041 Y5.4764
X0.9634 Y5.5508
X0.9618 Y5.5511
X0.9602 Y5.5509
X0.9587 Y5.5504
X0.9575 Y5.5494
G3 X1.036 Y5.4694 Z-0.0061 I0.0393 J-0.04 F20.
X0.9575 Y5.5494 Z-0.0123 I-0.0393 J0.04
X1.036 Y5.4694 Z-0.0184 I0.0393 J-0.04
X1.0528 Y5.5094 Z-0.02 I-0.0393 J0.04
X0.9968 Y5.5655 I-0.056 J0.0001 F30.
X0.9407 Y5.5094 I0. J-0.0561
X1.165 I0.1122 J0.
X0.8286 I-0.1682 J0.
X1.2771 I0.2243 J0.
X0.7165 I-0.2803 J0.
X1.3892 I0.3364 J0.
X0.6044 I-0.3924 J0.
X1.5013 I0.4485 J0.
X0.4923 I-0.5045 J0.
X1.5013 I0.5045 J0.
G1 X1.5011 Y5.511
X1.5004 Y5.5125
X1.4993 Y5.5138
X1.4979 Y5.5147
X1.4963 Y5.5152
X1.4946
X1.2071 Y5.4763
X1.2056 Y5.4761
X1.2041 Y5.4764
X0.9634 Y5.5508
X0.9618 Y5.5511
X0.9602 Y5.5509
X0.9587 Y5.5504
X0.9575 Y5.5494
G3 X1.036 Y5.4694 Z-0.0261 I0.0393 J-0.04 F20.
X0.9575 Y5.5494 Z-0.0323 I-0.0393 J0.04
X1.036 Y5.4694 Z-0.0384 I0.0393 J-0.04
X1.0528 Y5.5094 Z-0.04 I-0.0393 J0.04
X0.9968 Y5.5655 I-0.056 J0.0001 F30.
X0.9407 Y5.5094 I0. J-0.0561
X1.165 I0.1122 J0.
X0.8286 I-0.1682 J0.
X1.2771 I0.2243 J0.
X0.7165 I-0.2803 J0.
X1.3892 I0.3364 J0.
X0.6044 I-0.3924 J0.
X1.5013 I0.4485 J0.
X0.4923 I-0.5045 J0.
X1.5013 I0.5045 J0.
G1 X1.5011 Y5.511
X1.5004 Y5.5125
X1.4993 Y5.5138
X1.4979 Y5.5147
X1.4963 Y5.5152
X1.4946
X1.2071 Y5.4763
X1.2056 Y5.4761
X1.2041 Y5.4764
X0.9634 Y5.5508
X0.9618 Y5.5511
X0.9602 Y5.5509
X0.9587 Y5.5504
X0.9575 Y5.5494
G3 X1.036 Y5.4694 Z-0.0461 I0.0393 J-0.04 F20.
X0.9575 Y5.5494 Z-0.0523 I-0.0393 J0.04
X1.036 Y5.4694 Z-0.0584 I0.0393 J-0.04
X1.0528 Y5.5094 Z-0.06 I-0.0393 J0.04
X0.9968 Y5.5655 I-0.056 J0.0001 F30.
X0.9407 Y5.5094 I0. J-0.0561
X1.165 I0.1122 J0.
X0.8286 I-0.1682 J0.
X1.2771 I0.2243 J0.
X0.7165 I-0.2803 J0.
X1.3892 I0.3364 J0.
X0.6044 I-0.3924 J0.
X1.5013 I0.4485 J0.
X0.4923 I-0.5045 J0.
X1.5013 I0.5045 J0.
G1 X1.5011 Y5.511
X1.5004 Y5.5125
X1.4993 Y5.5138
X1.4979 Y5.5147
X1.4963 Y5.5152
X1.4946
X1.2071 Y5.4763
X1.2056 Y5.4761
X1.2041 Y5.4764
X0.9634 Y5.5508
X0.9618 Y5.5511
X0.9602 Y5.5509
X0.9587 Y5.5504
X0.9575 Y5.5494
G3 X1.036 Y5.4694 Z-0.0661 I0.0393 J-0.04 F20.
X0.9575 Y5.5494 Z-0.0723 I-0.0393 J0.04
X1.036 Y5.4694 Z-0.0784 I0.0393 J-0.04
X1.0528 Y5.5094 Z-0.08 I-0.0393 J0.04
X0.9968 Y5.5655 I-0.056 J0.0001 F30.
X0.9407 Y5.5094 I0. J-0.0561
X1.165 I0.1122 J0.
X0.8286 I-0.1682 J0.
X1.2771 I0.2243 J0.
X0.7165 I-0.2803 J0.
X1.3892 I0.3364 J0.
X0.6044 I-0.3924 J0.
X1.5013 I0.4485 J0.
X0.4923 I-0.5045 J0.
X1.5013 I0.5045 J0.
G1 X1.5011 Y5.511
X1.5004 Y5.5125
X1.4993 Y5.5138
X1.4979 Y5.5147
X1.4963 Y5.5152
X1.4946
X1.2071 Y5.4763
X1.2056 Y5.4761
X1.2041 Y5.4764
X0.9634 Y5.5508
X0.9618 Y5.5511
X0.9602 Y5.5509
X0.9587 Y5.5504
X0.9575 Y5.5494
G3 X1.036 Y5.4694 Z-0.0861 I0.0393 J-0.04 F20.
X0.9575 Y5.5494 Z-0.0923 I-0.0393 J0.04
X1.036 Y5.4694 Z-0.0984 I0.0393 J-0.04
X1.0528 Y5.5094 Z-0.1 I-0.0393 J0.04
X0.9968 Y5.5655 I-0.056 J0.0001 F30.
X0.9407 Y5.5094 I0. J-0.0561
X1.165 I0.1122 J0.
X0.8286 I-0.1682 J0.
X1.2771 I0.2243 J0.
X0.7165 I-0.2803 J0.
X1.3892 I0.3364 J0.
X0.6044 I-0.3924 J0.
X1.5013 I0.4485 J0.
X0.4923 I-0.5045 J0.
X1.5013 I0.5045 J0.
G1 X1.5011 Y5.511
X1.5004 Y5.5125
X1.4993 Y5.5138
X1.4979 Y5.5147
X1.4963 Y5.5152
X1.4946
X1.2071 Y5.4763
X1.2056 Y5.4761
X1.2041 Y5.4764
X0.9634 Y5.5508
X0.9618 Y5.5511
X0.9602 Y5.5509
X0.9587 Y5.5504
X0.9575 Y5.5494
G3 X1.036 Y5.4694 Z-0.1061 I0.0393 J-0.04 F20.
X0.9575 Y5.5494 Z-0.1123 I-0.0393 J0.04
X1.036 Y5.4694 Z-0.1184 I0.0393 J-0.04
X1.0528 Y5.5094 Z-0.12 I-0.0393 J0.04
X0.9968 Y5.5655 I-0.056 J0.0001 F30.
X0.9407 Y5.5094 I0. J-0.0561
X1.165 I0.1122 J0.
X0.8286 I-0.1682 J0.
X1.2771 I0.2243 J0.
X0.7165 I-0.2803 J0.
X1.3892 I0.3364 J0.
X0.6044 I-0.3924 J0.
X1.5013 I0.4485 J0.
X0.4923 I-0.5045 J0.
X1.5013 I0.5045 J0.
X1.4266 Y5.5622 Z-0.122 I-0.0561 J0. F20.
G1 X1.1275 Y5.4565 Z-0.128
G2 X1.0528 Y5.5094 Z-0.13 I-0.0187 J0.0528
G3 X0.9968 Y5.5655 I-0.056 J0.0001 F30.
X0.9407 Y5.5094 I0. J-0.0561
X1.165 I0.1122 J0.
X0.8286 I-0.1682 J0.
X1.2771 I0.2243 J0.
X0.7165 I-0.2803 J0.
X1.3892 I0.3364 J0.
X0.6044 I-0.3924 J0.
X1.5013 I0.4485 J0.
X0.4923 I-0.5045 J0.
X1.5013 I0.5045 J0.
G1 X1.5011 Y5.5116 Z-0.1296
X1.5005 Y5.5138 Z-0.1291
X1.4996 Y5.5155 Z-0.1278
X1.4985 Y5.517 Z-0.1265
X1.4966 Y5.5188 Z-0.1227
X1.4959 Y5.5193 Z-0.1182
G0 Z0.24
X1.023 Y7.0649
G1 Z0.1518 F30.
X1.0216 Y7.0653 Z0.146 F20.
X1.0175 Y7.0661 Z0.1417
X1.0118 Y7.0666 Z0.14
G3 X1.0065 Y6.9546 Z0.1339 I-0.0027 J-0.056
X1.0118 Y7.0666 Z0.1277 I0.0027 J0.056
X1.0065 Y6.9546 Z0.1216 I-0.0027 J-0.056
X1.0118 Y7.0666 Z0.1154 I0.0027 J0.056
X1.0065 Y6.9546 Z0.1093 I-0.0027 J-0.056
X1.0118 Y7.0666 Z0.1031 I0.0027 J0.056
X1.0065 Y6.9546 Z0.097 I-0.0027 J-0.056
X1.0118 Y7.0666 Z0.0908 I0.0027 J0.056
X1.0065 Y6.9546 Z0.0847 I-0.0027 J-0.056
X1.0118 Y7.0666 Z0.0785 I0.0027 J0.056
X1.0065 Y6.9546 Z0.0724 I-0.0027 J-0.056
X1.0118 Y7.0666 Z0.0662 I0.0027 J0.056
X1.0065 Y6.9546 Z0.0601 I-0.0027 J-0.056
X1.0118 Y7.0666 Z0.0539 I0.0027 J0.056
X1.0065 Y6.9546 Z0.0478 I-0.0027 J-0.056
X1.0118 Y7.0666 Z0.0416 I0.0027 J0.056
X1.0065 Y6.9546 Z0.0355 I-0.0027 J-0.056
X1.0118 Y7.0666 Z0.0293 I0.0027 J0.056
X1.0065 Y6.9546 Z0.0232 I-0.0027 J-0.056
X1.0652 Y7.0106 Z0.02 I0.0027 J0.056
X0.954 I-0.0556 J0. F30.
X1.1773 I0.1116 J0.
X0.8419 I-0.1677 J0.
X1.2894 I0.2237 J0.
X0.7298 I-0.2798 J0.
X1.4015 I0.3358 J0.
X0.6177 I-0.3919 J0.
X1.5136 I0.4479 J0.
X0.5056 I-0.504 J0.
X1.5136 I0.504 J0.
G1 X1.5133 Y7.0123
X1.5126 Y7.0138
X1.5116 Y7.0151
X1.5102 Y7.016
X1.5086 Y7.0165
X1.5069
X1.2195 Y6.9775
X1.2179 Y6.9774
X1.2164 Y6.9777
X0.9757 Y7.052
X0.9741 Y7.0523
X0.9725 Y7.0521
X0.9711 Y7.0515
X0.9698 Y7.0506
G3 X1.0484 Y6.9707 Z0.0139 I0.0393 J-0.0399 F20.
X0.9698 Y7.0506 Z0.0077 I-0.0393 J0.0399
X1.0484 Y6.9707 Z0.0016 I0.0393 J-0.0399
X1.0652 Y7.0106 Z0. I-0.0393 J0.0399
X0.954 I-0.0556 J0. F30.
X1.1773 I0.1116 J0.
X0.8419 I-0.1677 J0.
X1.2894 I0.2237 J0.
X0.7298 I-0.2798 J0.
X1.4015 I0.3358 J0.
X0.6177 I-0.3919 J0.
X1.5136 I0.4479 J0.
X0.5056 I-0.504 J0.
X1.5136 I0.504 J0.
G1 X1.5133 Y7.0123
X1.5126 Y7.0138
X1.5116 Y7.0151
X1.5102 Y7.016
X1.5086 Y7.0165
X1.5069
X1.2195 Y6.9775
X1.2179 Y6.9774
X1.2164 Y6.9777
X0.9757 Y7.052
X0.9741 Y7.0523
X0.9725 Y7.0521
X0.9711 Y7.0515
X0.9698 Y7.0506
G3 X1.0484 Y6.9707 Z-0.0061 I0.0393 J-0.0399 F20.
X0.9698 Y7.0506 Z-0.0123 I-0.0393 J0.0399
X1.0484 Y6.9707 Z-0.0184 I0.0393 J-0.0399
X1.0652 Y7.0106 Z-0.02 I-0.0393 J0.0399
X0.954 I-0.0556 J0. F30.
X1.1773 I0.1116 J0.
X0.8419 I-0.1677 J0.
X1.2894 I0.2237 J0.
X0.7298 I-0.2798 J0.
X1.4015 I0.3358 J0.
X0.6177 I-0.3919 J0.
X1.5136 I0.4479 J0.
X0.5056 I-0.504 J0.
X1.5136 I0.504 J0.
G1 X1.5133 Y7.0123
X1.5126 Y7.0138
X1.5116 Y7.0151
X1.5102 Y7.016
X1.5086 Y7.0165
X1.5069
X1.2195 Y6.9775
X1.2179 Y6.9774
X1.2164 Y6.9777
X0.9757 Y7.052
X0.9741 Y7.0523
X0.9725 Y7.0521
X0.9711 Y7.0515
X0.9698 Y7.0506
G3 X1.0484 Y6.9707 Z-0.0261 I0.0393 J-0.0399 F20.
X0.9698 Y7.0506 Z-0.0323 I-0.0393 J0.0399
X1.0484 Y6.9707 Z-0.0384 I0.0393 J-0.0399
X1.0652 Y7.0106 Z-0.04 I-0.0393 J0.0399
X0.954 I-0.0556 J0. F30.
X1.1773 I0.1116 J0.
X0.8419 I-0.1677 J0.
X1.2894 I0.2237 J0.
X0.7298 I-0.2798 J0.
X1.4015 I0.3358 J0.
X0.6177 I-0.3919 J0.
X1.5136 I0.4479 J0.
X0.5056 I-0.504 J0.
X1.5136 I0.504 J0.
G1 X1.5133 Y7.0123
X1.5126 Y7.0138
X1.5116 Y7.0151
X1.5102 Y7.016
X1.5086 Y7.0165
X1.5069
X1.2195 Y6.9775
X1.2179 Y6.9774
X1.2164 Y6.9777
X0.9757 Y7.052
X0.9741 Y7.0523
X0.9725 Y7.0521
X0.9711 Y7.0515
X0.9698 Y7.0506
G3 X1.0484 Y6.9707 Z-0.0461 I0.0393 J-0.0399 F20.
X0.9698 Y7.0506 Z-0.0523 I-0.0393 J0.0399
X1.0484 Y6.9707 Z-0.0584 I0.0393 J-0.0399
X1.0652 Y7.0106 Z-0.06 I-0.0393 J0.0399
X0.954 I-0.0556 J0. F30.
X1.1773 I0.1116 J0.
X0.8419 I-0.1677 J0.
X1.2894 I0.2237 J0.
X0.7298 I-0.2798 J0.
X1.4015 I0.3358 J0.
X0.6177 I-0.3919 J0.
X1.5136 I0.4479 J0.
X0.5056 I-0.504 J0.
X1.5136 I0.504 J0.
G1 X1.5133 Y7.0123
X1.5126 Y7.0138
X1.5116 Y7.0151
X1.5102 Y7.016
X1.5086 Y7.0165
X1.5069
X1.2195 Y6.9775
X1.2179 Y6.9774
X1.2164 Y6.9777
X0.9757 Y7.052
X0.9741 Y7.0523
X0.9725 Y7.0521
X0.9711 Y7.0515
X0.9698 Y7.0506
G3 X1.0484 Y6.9707 Z-0.0661 I0.0393 J-0.0399 F20.
X0.9698 Y7.0506 Z-0.0723 I-0.0393 J0.0399
X1.0484 Y6.9707 Z-0.0784 I0.0393 J-0.0399
X1.0652 Y7.0106 Z-0.08 I-0.0393 J0.0399
X0.954 I-0.0556 J0. F30.
X1.1773 I0.1116 J0.
X0.8419 I-0.1677 J0.
X1.2894 I0.2237 J0.
X0.7298 I-0.2798 J0.
X1.4015 I0.3358 J0.
X0.6177 I-0.3919 J0.
X1.5136 I0.4479 J0.
X0.5056 I-0.504 J0.
X1.5136 I0.504 J0.
G1 X1.5133 Y7.0123
X1.5126 Y7.0138
X1.5116 Y7.0151
X1.5102 Y7.016
X1.5086 Y7.0165
X1.5069
X1.2195 Y6.9775
X1.2179 Y6.9774
X1.2164 Y6.9777
X0.9757 Y7.052
X0.9741 Y7.0523
X0.9725 Y7.0521
X0.9711 Y7.0515
X0.9698 Y7.0506
G3 X1.0484 Y6.9707 Z-0.0861 I0.0393 J-0.0399 F20.
X0.9698 Y7.0506 Z-0.0923 I-0.0393 J0.0399
X1.0484 Y6.9707 Z-0.0984 I0.0393 J-0.0399
X1.0652 Y7.0106 Z-0.1 I-0.0393 J0.0399
X0.954 I-0.0556 J0. F30.
X1.1773 I0.1116 J0.
X0.8419 I-0.1677 J0.
X1.2894 I0.2237 J0.
X0.7298 I-0.2798 J0.
X1.4015 I0.3358 J0.
X0.6177 I-0.3919 J0.
X1.5136 I0.4479 J0.
X0.5056 I-0.504 J0.
X1.5136 I0.504 J0.
G1 X1.5133 Y7.0123
X1.5126 Y7.0138
X1.5116 Y7.0151
X1.5102 Y7.016
X1.5086 Y7.0165
X1.5069
X1.2195 Y6.9775
X1.2179 Y6.9774
X1.2164 Y6.9777
X0.9757 Y7.052
X0.9741 Y7.0523
X0.9725 Y7.0521
X0.9711 Y7.0515
X0.9698 Y7.0506
G3 X1.0484 Y6.9707 Z-0.1061 I0.0393 J-0.0399 F20.
X0.9698 Y7.0506 Z-0.1123 I-0.0393 J0.0399
X1.0484 Y6.9707 Z-0.1184 I0.0393 J-0.0399
X1.0652 Y7.0106 Z-0.12 I-0.0393 J0.0399
X0.954 I-0.0556 J0. F30.
X1.1773 I0.1116 J0.
X0.8419 I-0.1677 J0.
X1.2894 I0.2237 J0.
X0.7298 I-0.2798 J0.
X1.4015 I0.3358 J0.
X0.6177 I-0.3919 J0.
X1.5136 I0.4479 J0.
X0.5056 I-0.504 J0.
X1.5136 I0.504 J0.
X1.4388 Y7.0635 Z-0.122 I-0.0561 J0. F20.
G1 X1.1399 Y6.9578 Z-0.128
G2 X1.0652 Y7.0106 Z-0.13 I-0.0187 J0.0528
G3 X0.954 I-0.0556 J0. F30.
X1.1773 I0.1116 J0.
X0.8419 I-0.1677 J0.
X1.2894 I0.2237 J0.
X0.7298 I-0.2798 J0.
X1.4015 I0.3358 J0.
X0.6177 I-0.3919 J0.
X1.5136 I0.4479 J0.
X0.5056 I-0.504 J0.
X1.5136 I0.504 J0.
G1 X1.5134 Y7.0129 Z-0.1296
X1.5127 Y7.015 Z-0.1291
X1.5119 Y7.0167 Z-0.1278
X1.5107 Y7.0183 Z-0.1265
X1.5089 Y7.02 Z-0.1227
X1.5082 Y7.0206 Z-0.1182
G0 Z0.24
X0.9569 Y8.4001
G1 Z0.1518 F30.
X0.9555 Y8.4005 Z0.146 F20.
X0.9514 Y8.4012 Z0.1417
X0.9457 Y8.4018 Z0.14
G3 X0.9404 Y8.2898 Z0.1339 I-0.0027 J-0.056
X0.9457 Y8.4018 Z0.1277 I0.0027 J0.056
X0.9404 Y8.2898 Z0.1216 I-0.0027 J-0.056
X0.9457 Y8.4018 Z0.1154 I0.0027 J0.056
X0.9404 Y8.2898 Z0.1093 I-0.0027 J-0.056
X0.9457 Y8.4018 Z0.1031 I0.0027 J0.056
X0.9404 Y8.2898 Z0.097 I-0.0027 J-0.056
X0.9457 Y8.4018 Z0.0908 I0.0027 J0.056
X0.9404 Y8.2898 Z0.0847 I-0.0027 J-0.056
X0.9457 Y8.4018 Z0.0785 I0.0027 J0.056
X0.9404 Y8.2898 Z0.0724 I-0.0027 J-0.056
X0.9457 Y8.4018 Z0.0662 I0.0027 J0.056
X0.9404 Y8.2898 Z0.0601 I-0.0027 J-0.056
X0.9457 Y8.4018 Z0.0539 I0.0027 J0.056
X0.9404 Y8.2898 Z0.0478 I-0.0027 J-0.056
X0.9457 Y8.4018 Z0.0416 I0.0027 J0.056
X0.9404 Y8.2898 Z0.0355 I-0.0027 J-0.056
X0.9457 Y8.4018 Z0.0293 I0.0027 J0.056
X0.9404 Y8.2898 Z0.0232 I-0.0027 J-0.056
X0.9991 Y8.3458 Z0.02 I0.0027 J0.056
X0.9776 Y8.3673 I-0.0215 J0. F30.
X0.9562 Y8.3458 I0. J-0.0214
X0.9776 Y8.3243 I0.0215 J0.
X0.9991 Y8.3458 I0. J0.0214
G2 X1.0138 Y8.3737 I0.0336 J0.0001
G3 X1.0129 Y8.4052 I-0.0105 J0.0155
X0.9776 Y8.4149 I-0.0353 J-0.0594
X0.9086 Y8.3458 I0. J-0.0691
X0.9776 Y8.2767 I0.0691 J0.
X1.0467 Y8.3458 I0. J0.0691
X1.0129 Y8.4052 I-0.0691 J0.
G2 X0.974 Y8.4705 I0.0405 J0.0682
G3 X0.9103 Y8.5116 I-0.0463 J-0.0018
X0.7987 Y8.3458 I0.0674 J-0.1658
X0.9776 Y8.1668 I0.179 J0.
X1.1566 Y8.3458 I0. J0.179
X0.9776 Y8.5248 I-0.179 J0.
X0.9103 Y8.5116 I0. J-0.179
G2 X0.8272 Y8.524 I-0.0311 J0.0765
G3 X0.744 Y8.5126 I-0.0363 J-0.0448
X0.6906 Y8.3458 I0.2336 J-0.1668
X0.9776 Y8.0587 I0.2871 J0.
X1.2647 Y8.3458 I0. J0.2871
X0.9776 Y8.6329 I-0.2871 J0.
X0.744 Y8.5126 I0. J-0.2871
G2 X0.6632 Y8.4783 I-0.0686 J0.049
G3 X0.5911 Y8.4281 I-0.0093 J-0.0635
X0.5825 Y8.3458 I0.3865 J-0.0823
X0.9776 Y7.9506 I0.3952 J0.
X1.3728 Y8.3458 I0. J0.3952
X0.9776 Y8.741 I-0.3952 J0.
X0.5911 Y8.4281 I0. J-0.3952
G2 X0.5286 Y8.3632 I-0.0834 J0.0178
G3 X0.4774 Y8.2891 I0.0168 J-0.0664
X0.9776 Y7.8423 I0.5003 J0.0567
Y8.8493 I0. J0.5035
X0.4774 Y8.2891 I0. J-0.5035
X0.4858 Y8.282 I0.0079 J0.0009
G1 X1.0517 Y8.3172
X1.0535 Y8.3176
X1.0552 Y8.3183
X1.0566 Y8.3193
X1.0578 Y8.3207
G3 X0.9654 Y8.3841 Z0.0139 I-0.0462 J0.0317 F20.
X1.0578 Y8.3207 Z0.0077 I0.0462 J-0.0317
X0.9654 Y8.3841 Z0.0016 I-0.0462 J0.0317
X0.9566 Y8.3417 Z0. I0.0462 J-0.0317
X0.9776 Y8.3243 I0.0211 J0.0041 F30.
X0.9991 Y8.3458 I0. J0.0214
X0.9776 Y8.3673 I-0.0215 J0.
X0.9562 Y8.3458 I0. J-0.0214
G1 X0.9563 Y8.3438
X0.9566 Y8.3417
G2 X0.9474 Y8.3116 I-0.033 J-0.0064
G3 X0.9543 Y8.2808 I0.0132 J-0.0132
X0.9776 Y8.2767 I0.0234 J0.065
X1.0467 Y8.3458 I0. J0.0691
X0.9776 Y8.4149 I-0.0691 J0.
X0.9086 Y8.3458 I0. J-0.0691
X0.9543 Y8.2808 I0.0691 J0.
G2 X1.0048 Y8.2241 I-0.0268 J-0.0747
G3 X1.0752 Y8.1957 I0.0451 J0.0105
X1.1566 Y8.3458 I-0.0975 J0.1501
X0.9776 Y8.5248 I-0.179 J0.
X0.7987 Y8.3458 I0. J-0.179
X0.9776 Y8.1668 I0.179 J0.
X1.0752 Y8.1957 I0. J0.179
G2 X1.1591 Y8.1993 I0.045 J-0.0693
G3 X1.2386 Y8.2262 I0.0271 J0.0509
X1.2647 Y8.3458 I-0.261 J0.1196
X0.9776 Y8.6329 I-0.2871 J0.
X0.6906 Y8.3458 I0. J-0.2871
X0.9776 Y8.0587 I0.2871 J0.
X1.2386 Y8.2262 I0. J0.2871
G2 X1.3114 Y8.2753 I0.0766 J-0.0351
G3 X1.3727 Y8.3381 I-0.0029 J0.0641
G1 X1.3728 Y8.3458
G3 X0.9776 Y8.741 I-0.3952 J0.
X0.5825 Y8.3458 I0. J-0.3952
X0.9776 Y7.9506 I0.3952 J0.
X1.3727 Y8.3381 I0. J0.3952
G2 X1.4218 Y8.4137 I0.0852 J-0.0017
G3 X1.4582 Y8.4962 I-0.029 J0.062
X0.9776 Y8.8493 I-0.4805 J-0.1504
Y7.8423 I0. J-0.5035
X1.4582 Y8.4962 I0. J0.5035
X1.3699 Y8.5234 Z-0.0037 I-0.0535 J-0.0167 F20.
G1 X1.0899 Y8.3019 Z-0.0158
G2 X0.9991 Y8.3458 Z-0.02 I-0.0348 J0.044
G3 X0.9776 Y8.3673 I-0.0215 J0. F30.
X0.9562 Y8.3458 I0. J-0.0214
X0.9776 Y8.3243 I0.0215 J0.
X0.9991 Y8.3458 I0. J0.0214
G2 X1.0138 Y8.3737 I0.0336 J0.0001
G3 X1.0129 Y8.4052 I-0.0105 J0.0155
X0.9776 Y8.4149 I-0.0353 J-0.0594
X0.9086 Y8.3458 I0. J-0.0691
X0.9776 Y8.2767 I0.0691 J0.
X1.0467 Y8.3458 I0. J0.0691
X1.0129 Y8.4052 I-0.0691 J0.
G2 X0.974 Y8.4705 I0.0405 J0.0682
G3 X0.9103 Y8.5116 I-0.0463 J-0.0018
X0.7987 Y8.3458 I0.0674 J-0.1658
X0.9776 Y8.1668 I0.179 J0.
X1.1566 Y8.3458 I0. J0.179
X0.9776 Y8.5248 I-0.179 J0.
X0.9103 Y8.5116 I0. J-0.179
G2 X0.8272 Y8.524 I-0.0311 J0.0765
G3 X0.744 Y8.5126 I-0.0363 J-0.0448
X0.6906 Y8.3458 I0.2336 J-0.1668
X0.9776 Y8.0587 I0.2871 J0.
X1.2647 Y8.3458 I0. J0.2871
X0.9776 Y8.6329 I-0.2871 J0.
X0.744 Y8.5126 I0. J-0.2871
G2 X0.6632 Y8.4783 I-0.0686 J0.049
G3 X0.5911 Y8.4281 I-0.0093 J-0.0635
X0.5825 Y8.3458 I0.3865 J-0.0823
X0.9776 Y7.9506 I0.3952 J0.
X1.3728 Y8.3458 I0. J0.3952
X0.9776 Y8.741 I-0.3952 J0.
X0.5911 Y8.4281 I0. J-0.3952
G2 X0.5286 Y8.3632 I-0.0834 J0.0178
G3 X0.4774 Y8.2891 I0.0168 J-0.0664
X0.9776 Y7.8423 I0.5003 J0.0567
Y8.8493 I0. J0.5035
X0.4774 Y8.2891 I0. J-0.5035
X0.4858 Y8.282 I0.0079 J0.0009
G1 X1.0517 Y8.3172
X1.0535 Y8.3176
X1.0552 Y8.3183
X1.0566 Y8.3193
X1.0578 Y8.3207
G3 X0.9654 Y8.3841 Z-0.0261 I-0.0462 J0.0317 F20.
X1.0578 Y8.3207 Z-0.0323 I0.0462 J-0.0317
X0.9654 Y8.3841 Z-0.0384 I-0.0462 J0.0317
X0.9566 Y8.3417 Z-0.04 I0.0462 J-0.0317
X0.9776 Y8.3243 I0.0211 J0.0041 F30.
X0.9991 Y8.3458 I0. J0.0214
X0.9776 Y8.3673 I-0.0215 J0.
X0.9562 Y8.3458 I0. J-0.0214
G1 X0.9563 Y8.3438
X0.9566 Y8.3417
G2 X0.9474 Y8.3116 I-0.033 J-0.0064
G3 X0.9543 Y8.2808 I0.0132 J-0.0132
X0.9776 Y8.2767 I0.0234 J0.065
X1.0467 Y8.3458 I0. J0.0691
X0.9776 Y8.4149 I-0.0691 J0.
X0.9086 Y8.3458 I0. J-0.0691
X0.9543 Y8.2808 I0.0691 J0.
G2 X1.0048 Y8.2241 I-0.0268 J-0.0747
G3 X1.0752 Y8.1957 I0.0451 J0.0105
X1.1566 Y8.3458 I-0.0975 J0.1501
X0.9776 Y8.5248 I-0.179 J0.
X0.7987 Y8.3458 I0. J-0.179
X0.9776 Y8.1668 I0.179 J0.
X1.0752 Y8.1957 I0. J0.179
G2 X1.1591 Y8.1993 I0.045 J-0.0693
G3 X1.2386 Y8.2262 I0.0271 J0.0509
X1.2647 Y8.3458 I-0.261 J0.1196
X0.9776 Y8.6329 I-0.2871 J0.
X0.6906 Y8.3458 I0. J-0.2871
X0.9776 Y8.0587 I0.2871 J0.
X1.2386 Y8.2262 I0. J0.2871
G2 X1.3114 Y8.2753 I0.0766 J-0.0351
G3 X1.3727 Y8.3381 I-0.0029 J0.0641
G1 X1.3728 Y8.3458
G3 X0.9776 Y8.741 I-0.3952 J0.
X0.5825 Y8.3458 I0. J-0.3952
X0.9776 Y7.9506 I0.3952 J0.
X1.3727 Y8.3381 I0. J0.3952
G2 X1.4218 Y8.4137 I0.0852 J-0.0017
G3 X1.4582 Y8.4962 I-0.029 J0.062
X0.9776 Y8.8493 I-0.4805 J-0.1504
Y7.8423 I0. J-0.5035
X1.4582 Y8.4962 I0. J0.5035
X1.3699 Y8.5234 Z-0.0437 I-0.0535 J-0.0167 F20.
G1 X1.0899 Y8.3019 Z-0.0558
G2 X0.9991 Y8.3458 Z-0.06 I-0.0348 J0.044
G3 X0.9776 Y8.3673 I-0.0215 J0. F30.
X0.9562 Y8.3458 I0. J-0.0214
X0.9776 Y8.3243 I0.0215 J0.
X0.9991 Y8.3458 I0. J0.0214
G2 X1.0138 Y8.3737 I0.0336 J0.0001
G3 X1.0129 Y8.4052 I-0.0105 J0.0155
X0.9776 Y8.4149 I-0.0353 J-0.0594
X0.9086 Y8.3458 I0. J-0.0691
X0.9776 Y8.2767 I0.0691 J0.
X1.0467 Y8.3458 I0. J0.0691
X1.0129 Y8.4052 I-0.0691 J0.
G2 X0.974 Y8.4705 I0.0405 J0.0682
G3 X0.9103 Y8.5116 I-0.0463 J-0.0018
X0.7987 Y8.3458 I0.0674 J-0.1658
X0.9776 Y8.1668 I0.179 J0.
X1.1566 Y8.3458 I0. J0.179
X0.9776 Y8.5248 I-0.179 J0.
X0.9103 Y8.5116 I0. J-0.179
G2 X0.8272 Y8.524 I-0.0311 J0.0765
G3 X0.744 Y8.5126 I-0.0363 J-0.0448
X0.6906 Y8.3458 I0.2336 J-0.1668
X0.9776 Y8.0587 I0.2871 J0.
X1.2647 Y8.3458 I0. J0.2871
X0.9776 Y8.6329 I-0.2871 J0.
X0.744 Y8.5126 I0. J-0.2871
G2 X0.6632 Y8.4783 I-0.0686 J0.049
G3 X0.5911 Y8.4281 I-0.0093 J-0.0635
X0.5825 Y8.3458 I0.3865 J-0.0823
X0.9776 Y7.9506 I0.3952 J0.
X1.3728 Y8.3458 I0. J0.3952
X0.9776 Y8.741 I-0.3952 J0.
X0.5911 Y8.4281 I0. J-0.3952
G2 X0.5286 Y8.3632 I-0.0834 J0.0178
G3 X0.4774 Y8.2891 I0.0168 J-0.0664
X0.9776 Y7.8423 I0.5003 J0.0567
Y8.8493 I0. J0.5035
X0.4774 Y8.2891 I0. J-0.5035
X0.4858 Y8.282 I0.0079 J0.0009
G1 X1.0517 Y8.3172
X1.0535 Y8.3176
X1.0552 Y8.3183
X1.0566 Y8.3193
X1.0578 Y8.3207
G3 X0.9654 Y8.3841 Z-0.0661 I-0.0462 J0.0317 F20.
X1.0578 Y8.3207 Z-0.0723 I0.0462 J-0.0317
X0.9654 Y8.3841 Z-0.0784 I-0.0462 J0.0317
X0.9566 Y8.3417 Z-0.08 I0.0462 J-0.0317
X0.9776 Y8.3243 I0.0211 J0.0041 F30.
X0.9991 Y8.3458 I0. J0.0214
X0.9776 Y8.3673 I-0.0215 J0.
X0.9562 Y8.3458 I0. J-0.0214
G1 X0.9563 Y8.3438
X0.9566 Y8.3417
G2 X0.9474 Y8.3116 I-0.033 J-0.0064
G3 X0.9543 Y8.2808 I0.0132 J-0.0132
X0.9776 Y8.2767 I0.0234 J0.065
X1.0467 Y8.3458 I0. J0.0691
X0.9776 Y8.4149 I-0.0691 J0.
X0.9086 Y8.3458 I0. J-0.0691
X0.9543 Y8.2808 I0.0691 J0.
G2 X1.0048 Y8.2241 I-0.0268 J-0.0747
G3 X1.0752 Y8.1957 I0.0451 J0.0105
X1.1566 Y8.3458 I-0.0975 J0.1501
X0.9776 Y8.5248 I-0.179 J0.
X0.7987 Y8.3458 I0. J-0.179
X0.9776 Y8.1668 I0.179 J0.
X1.0752 Y8.1957 I0. J0.179
G2 X1.1591 Y8.1993 I0.045 J-0.0693
G3 X1.2386 Y8.2262 I0.0271 J0.0509
X1.2647 Y8.3458 I-0.261 J0.1196
X0.9776 Y8.6329 I-0.2871 J0.
X0.6906 Y8.3458 I0. J-0.2871
X0.9776 Y8.0587 I0.2871 J0.
X1.2386 Y8.2262 I0. J0.2871
G2 X1.3114 Y8.2753 I0.0766 J-0.0351
G3 X1.3727 Y8.3381 I-0.0029 J0.0641
G1 X1.3728 Y8.3458
G3 X0.9776 Y8.741 I-0.3952 J0.
X0.5825 Y8.3458 I0. J-0.3952
X0.9776 Y7.9506 I0.3952 J0.
X1.3727 Y8.3381 I0. J0.3952
G2 X1.4218 Y8.4137 I0.0852 J-0.0017
G3 X1.4582 Y8.4962 I-0.029 J0.062
X0.9776 Y8.8493 I-0.4805 J-0.1504
Y7.8423 I0. J-0.5035
X1.4582 Y8.4962 I0. J0.5035
X1.3699 Y8.5234 Z-0.0837 I-0.0535 J-0.0167 F20.
G1 X1.0899 Y8.3019 Z-0.0958
G2 X0.9991 Y8.3458 Z-0.1 I-0.0348 J0.044
G3 X0.9776 Y8.3673 I-0.0215 J0. F30.
X0.9562 Y8.3458 I0. J-0.0214
X0.9776 Y8.3243 I0.0215 J0.
X0.9991 Y8.3458 I0. J0.0214
G2 X1.0138 Y8.3737 I0.0336 J0.0001
G3 X1.0129 Y8.4052 I-0.0105 J0.0155
X0.9776 Y8.4149 I-0.0353 J-0.0594
X0.9086 Y8.3458 I0. J-0.0691
X0.9776 Y8.2767 I0.0691 J0.
X1.0467 Y8.3458 I0. J0.0691
X1.0129 Y8.4052 I-0.0691 J0.
G2 X0.974 Y8.4705 I0.0405 J0.0682
G3 X0.9103 Y8.5116 I-0.0463 J-0.0018
X0.7987 Y8.3458 I0.0674 J-0.1658
X0.9776 Y8.1668 I0.179 J0.
X1.1566 Y8.3458 I0. J0.179
X0.9776 Y8.5248 I-0.179 J0.
X0.9103 Y8.5116 I0. J-0.179
G2 X0.8272 Y8.524 I-0.0311 J0.0765
G3 X0.744 Y8.5126 I-0.0363 J-0.0448
X0.6906 Y8.3458 I0.2336 J-0.1668
X0.9776 Y8.0587 I0.2871 J0.
X1.2647 Y8.3458 I0. J0.2871
X0.9776 Y8.6329 I-0.2871 J0.
X0.744 Y8.5126 I0. J-0.2871
G2 X0.6632 Y8.4783 I-0.0686 J0.049
G3 X0.5911 Y8.4281 I-0.0093 J-0.0635
X0.5825 Y8.3458 I0.3865 J-0.0823
X0.9776 Y7.9506 I0.3952 J0.
X1.3728 Y8.3458 I0. J0.3952
X0.9776 Y8.741 I-0.3952 J0.
X0.5911 Y8.4281 I0. J-0.3952
G2 X0.5286 Y8.3632 I-0.0834 J0.0178
G3 X0.4774 Y8.2891 I0.0168 J-0.0664
X0.9776 Y7.8423 I0.5003 J0.0567
Y8.8493 I0. J0.5035
X0.4774 Y8.2891 I0. J-0.5035
X0.4858 Y8.282 I0.0079 J0.0009
G1 X1.0517 Y8.3172
X1.0535 Y8.3176
X1.0552 Y8.3183
X1.0566 Y8.3193
X1.0578 Y8.3207
G3 X0.9654 Y8.3841 Z-0.1061 I-0.0462 J0.0317 F20.
X1.0578 Y8.3207 Z-0.1123 I0.0462 J-0.0317
X0.9654 Y8.3841 Z-0.1184 I-0.0462 J0.0317
X0.9566 Y8.3417 Z-0.12 I0.0462 J-0.0317
X0.9776 Y8.3243 I0.0211 J0.0041 F30.
X0.9991 Y8.3458 I0. J0.0214
X0.9776 Y8.3673 I-0.0215 J0.
X0.9562 Y8.3458 I0. J-0.0214
G1 X0.9563 Y8.3438
X0.9566 Y8.3417
G2 X0.9474 Y8.3116 I-0.033 J-0.0064
G3 X0.9543 Y8.2808 I0.0132 J-0.0132
X0.9776 Y8.2767 I0.0234 J0.065
X1.0467 Y8.3458 I0. J0.0691
X0.9776 Y8.4149 I-0.0691 J0.
X0.9086 Y8.3458 I0. J-0.0691
X0.9543 Y8.2808 I0.0691 J0.
G2 X1.0048 Y8.2241 I-0.0268 J-0.0747
G3 X1.0752 Y8.1957 I0.0451 J0.0105
X1.1566 Y8.3458 I-0.0975 J0.1501
X0.9776 Y8.5248 I-0.179 J0.
X0.7987 Y8.3458 I0. J-0.179
X0.9776 Y8.1668 I0.179 J0.
X1.0752 Y8.1957 I0. J0.179
G2 X1.1591 Y8.1993 I0.045 J-0.0693
G3 X1.2386 Y8.2262 I0.0271 J0.0509
X1.2647 Y8.3458 I-0.261 J0.1196
X0.9776 Y8.6329 I-0.2871 J0.
X0.6906 Y8.3458 I0. J-0.2871
X0.9776 Y8.0587 I0.2871 J0.
X1.2386 Y8.2262 I0. J0.2871
G2 X1.3114 Y8.2753 I0.0766 J-0.0351
G3 X1.3727 Y8.3381 I-0.0029 J0.0641
G1 X1.3728 Y8.3458
G3 X0.9776 Y8.741 I-0.3952 J0.
X0.5825 Y8.3458 I0. J-0.3952
X0.9776 Y7.9506 I0.3952 J0.
X1.3727 Y8.3381 I0. J0.3952
G2 X1.4218 Y8.4137 I0.0852 J-0.0017
G3 X1.4582 Y8.4962 I-0.029 J0.062
X0.9776 Y8.8493 I-0.4805 J-0.1504
Y7.8423 I0. J-0.5035
X1.4582 Y8.4962 I0. J0.5035
X1.3699 Y8.5234 Z-0.1218 I-0.0535 J-0.0167 F20.
G1 X1.0899 Y8.3019 Z-0.1279
G2 X0.9991 Y8.3458 Z-0.13 I-0.0348 J0.044
G3 X0.9776 Y8.3673 I-0.0215 J0. F30.
X0.9562 Y8.3458 I0. J-0.0214
X0.9776 Y8.3243 I0.0215 J0.
X0.9991 Y8.3458 I0. J0.0214
G2 X1.0138 Y8.3737 I0.0336 J0.0001
G3 X1.0129 Y8.4052 I-0.0105 J0.0155
X0.9776 Y8.4149 I-0.0353 J-0.0594
X0.9086 Y8.3458 I0. J-0.0691
X0.9776 Y8.2767 I0.0691 J0.
X1.0467 Y8.3458 I0. J0.0691
X1.0129 Y8.4052 I-0.0691 J0.
G2 X0.974 Y8.4705 I0.0405 J0.0682
G3 X0.9103 Y8.5116 I-0.0463 J-0.0018
X0.7987 Y8.3458 I0.0674 J-0.1658
X0.9776 Y8.1668 I0.179 J0.
X1.1566 Y8.3458 I0. J0.179
X0.9776 Y8.5248 I-0.179 J0.
X0.9103 Y8.5116 I0. J-0.179
G2 X0.8272 Y8.524 I-0.0311 J0.0765
G3 X0.744 Y8.5126 I-0.0363 J-0.0448
X0.6906 Y8.3458 I0.2336 J-0.1668
X0.9776 Y8.0587 I0.2871 J0.
X1.2647 Y8.3458 I0. J0.2871
X0.9776 Y8.6329 I-0.2871 J0.
X0.744 Y8.5126 I0. J-0.2871
G2 X0.6632 Y8.4783 I-0.0686 J0.049
G3 X0.5911 Y8.4281 I-0.0093 J-0.0635
X0.5825 Y8.3458 I0.3865 J-0.0823
X0.9776 Y7.9506 I0.3952 J0.
X1.3728 Y8.3458 I0. J0.3952
X0.9776 Y8.741 I-0.3952 J0.
X0.5911 Y8.4281 I0. J-0.3952
G2 X0.5286 Y8.3632 I-0.0834 J0.0178
G3 X0.4774 Y8.2891 I0.0168 J-0.0664
X0.9776 Y7.8423 I0.5003 J0.0567
Y8.8493 I0. J0.5035
X0.4774 Y8.2891 I0. J-0.5035
G1 X0.4778 Y8.2869 Z-0.1296
X0.4787 Y8.2848 Z-0.1291
X0.4797 Y8.2832 Z-0.1278
X0.481 Y8.2818 Z-0.1265
X0.4831 Y8.2803 Z-0.1227
X0.4839 Y8.2799 Z-0.1182
G0 Z0.64

M9
M30
