(19.05.01.G01)
(T1  D=3.175 CR=0. - ZMIN=-13.7 - FLAT END MILL)
G90 G94 G91.1 G40 G49 G17
G21
G0 Z15

(BORE1)
M5
T1 M6
S12000 M3
G54
G0 X19.963 Y24.948
G43 Z15. H1
Z2.
G1 Z0.317 F1000.
G18 G2 X20.28 Z0. I0.317 K0.
G1 X20.439
G17 G3 X20.638 Y25.146 I0. J0.198
X19.844 Z-0.5 I-0.397 J0.
X20.638 Z-1. I0.397 J0.
X19.844 Z-1.5 I-0.397 J0.
X20.638 Z-2. I0.397 J0.
X19.844 Z-2.5 I-0.397 J0.
X20.638 Z-3. I0.397 J0.
X19.844 Z-3.5 I-0.397 J0.
X20.638 Z-4. I0.397 J0.
X19.844 Z-4.5 I-0.397 J0.
X20.638 Z-5. I0.397 J0.
X19.844 Z-5.5 I-0.397 J0.
X20.638 Z-6. I0.397 J0.
X19.844 Z-6.5 I-0.397 J0.
X20.638 Z-7. I0.397 J0.
X19.844 Z-7.5 I-0.397 J0.
X20.638 Z-8. I0.397 J0.
X19.844 Z-8.5 I-0.397 J0.
X20.638 Z-9. I0.397 J0.
X19.844 Z-9.5 I-0.397 J0.
X20.638 Z-10. I0.397 J0.
X19.844 Z-10.5 I-0.397 J0.
X20.638 Z-11. I0.397 J0.
X19.844 Z-11.5 I-0.397 J0.
X20.638 Z-12. I0.397 J0.
X19.844 Z-12.5 I-0.397 J0.
X20.638 Z-13. I0.397 J0.
X19.844 Z-13.5 I-0.397 J0.
X20.118 Y24.769 Z-13.7 I0.397 J0.
X20.363 Y25.523 I0.123 J0.377
X20.118 Y24.769 I-0.123 J-0.377
X20.368 Y24.896 I0.061 J0.189
G1 X20.417 Y25.047
X20.439 Y25.114 Z-13.692
X20.46 Y25.178 Z-13.669
X20.478 Y25.235 Z-13.631
X20.494 Y25.283 Z-13.58
X20.505 Y25.319 Z-13.52
X20.513 Y25.341 Z-13.453
X20.515 Y25.349 Z-13.382
G0 Z5.
X21.431 Y24.829
Z2.
G1 Z0.317 F1000.
G18 G2 X21.749 Z0. I0.318 K0.
G1 X21.907
G17 G3 X22.225 Y25.146 I0. J0.317
X18.256 Z-0.5 I-1.984 J0.
X22.225 Z-1. I1.984 J0.
X18.256 Z-1.5 I-1.984 J0.
X22.225 Z-2. I1.984 J0.
X18.256 Z-2.5 I-1.984 J0.
X22.225 Z-3. I1.984 J0.
X18.256 Z-3.5 I-1.984 J0.
X22.225 Z-4. I1.984 J0.
X18.256 Z-4.5 I-1.984 J0.
X22.225 Z-5. I1.984 J0.
X18.256 Z-5.5 I-1.984 J0.
X22.225 Z-6. I1.984 J0.
X18.256 Z-6.5 I-1.984 J0.
X22.225 Z-7. I1.984 J0.
X18.256 Z-7.5 I-1.984 J0.
X22.225 Z-8. I1.984 J0.
X18.256 Z-8.5 I-1.984 J0.
X22.225 Z-9. I1.984 J0.
X18.256 Z-9.5 I-1.984 J0.
X22.225 Z-10. I1.984 J0.
X18.256 Z-10.5 I-1.984 J0.
X22.225 Z-11. I1.984 J0.
X18.256 Z-11.5 I-1.984 J0.
X22.225 Z-12. I1.984 J0.
X18.256 Z-12.5 I-1.984 J0.
X22.225 Z-13. I1.984 J0.
X18.256 Z-13.5 I-1.984 J0.
X19.627 Y23.259 Z-13.7 I1.984 J0.
X20.854 Y27.033 I0.613 J1.887
X19.627 Y23.259 I-0.613 J-1.887
X20.027 Y23.463 I0.098 J0.302
G1 X20.077 Y23.614
X20.098 Y23.681 Z-13.692
X20.119 Y23.745 Z-13.669
X20.138 Y23.802 Z-13.631
X20.153 Y23.85 Z-13.58
X20.165 Y23.886 Z-13.52
X20.172 Y23.908 Z-13.453
X20.175 Y23.916 Z-13.382
G0 Z5.
X81.082 Y24.948
Z2.
G1 Z0.317 F1000.
G18 G2 X81.399 Z0. I0.317 K0.
G1 X81.558
G17 G3 X81.756 Y25.146 I0. J0.198
X80.963 Z-0.5 I-0.397 J0.
X81.756 Z-1. I0.397 J0.
X80.963 Z-1.5 I-0.397 J0.
X81.756 Z-2. I0.397 J0.
X80.963 Z-2.5 I-0.397 J0.
X81.756 Z-3. I0.397 J0.
X80.963 Z-3.5 I-0.397 J0.
X81.756 Z-4. I0.397 J0.
X80.963 Z-4.5 I-0.397 J0.
X81.756 Z-5. I0.397 J0.
X80.963 Z-5.5 I-0.397 J0.
X81.756 Z-6. I0.397 J0.
X80.963 Z-6.5 I-0.397 J0.
X81.756 Z-7. I0.397 J0.
X80.963 Z-7.5 I-0.397 J0.
X81.756 Z-8. I0.397 J0.
X80.963 Z-8.5 I-0.397 J0.
X81.756 Z-9. I0.397 J0.
X80.962 Z-9.5 I-0.397 J0.
X81.756 Z-10. I0.397 J0.
X80.962 Z-10.5 I-0.397 J0.
X81.756 Z-11. I0.397 J0.
X80.962 Z-11.5 I-0.397 J0.
X81.756 Z-12. I0.397 J0.
X80.962 Z-12.5 I-0.397 J0.
X81.756 Z-13. I0.397 J0.
X80.962 Z-13.5 I-0.397 J0.
X81.237 Y24.769 Z-13.7 I0.397 J0.
X81.482 Y25.523 I0.123 J0.377
X81.237 Y24.769 I-0.123 J-0.377
X81.487 Y24.896 I0.061 J0.189
G1 X81.536 Y25.047
X81.558 Y25.114 Z-13.692
X81.578 Y25.178 Z-13.669
X81.597 Y25.235 Z-13.631
X81.613 Y25.283 Z-13.58
X81.624 Y25.319 Z-13.52
X81.631 Y25.341 Z-13.453
X81.634 Y25.349 Z-13.382
G0 Z5.
X82.55 Y24.829
Z2.
G1 Z0.317 F1000.
G18 G2 X82.868 Z0. I0.317 K0.
G1 X83.026
G17 G3 X83.344 Y25.146 I0. J0.317
X79.375 Z-0.5 I-1.984 J0.
X83.344 Z-1. I1.984 J0.
X79.375 Z-1.5 I-1.984 J0.
X83.344 Z-2. I1.984 J0.
X79.375 Z-2.5 I-1.984 J0.
X83.344 Z-3. I1.984 J0.
X79.375 Z-3.5 I-1.984 J0.
X83.344 Z-4. I1.984 J0.
X79.375 Z-4.5 I-1.984 J0.
X83.344 Z-5. I1.984 J0.
X79.375 Z-5.5 I-1.984 J0.
X83.344 Z-6. I1.984 J0.
X79.375 Z-6.5 I-1.984 J0.
X83.344 Z-7. I1.984 J0.
X79.375 Z-7.5 I-1.984 J0.
X83.344 Z-8. I1.984 J0.
X79.375 Z-8.5 I-1.984 J0.
X83.344 Z-9. I1.984 J0.
X79.375 Z-9.5 I-1.984 J0.
X83.344 Z-10. I1.984 J0.
X79.375 Z-10.5 I-1.984 J0.
X83.344 Z-11. I1.984 J0.
X79.375 Z-11.5 I-1.984 J0.
X83.344 Z-12. I1.984 J0.
X79.375 Z-12.5 I-1.984 J0.
X83.344 Z-13. I1.984 J0.
X79.375 Z-13.5 I-1.984 J0.
X80.746 Y23.259 Z-13.7 I1.984 J0.
X81.973 Y27.033 I0.613 J1.887
X80.746 Y23.259 I-0.613 J-1.887
X81.146 Y23.463 I0.098 J0.302
G1 X81.195 Y23.614
X81.217 Y23.681 Z-13.692
X81.238 Y23.745 Z-13.669
X81.256 Y23.802 Z-13.631
X81.272 Y23.85 Z-13.58
X81.284 Y23.886 Z-13.52
X81.291 Y23.908 Z-13.453
X81.293 Y23.916 Z-13.382
G0 Z15.

(2D POCKET1)
G0 X51.499 Y25.146
Z15.
Z7.35
G1 Z-6.35 F800.
G3 X50.102 I-0.699 J0. F1000.
X54.515 I2.207 J0.
X47.085 I-3.715 J0.
X57.531 I5.223 J0.
X44.069 I-6.731 J0.
X60.547 I8.239 J0.
X41.053 I-9.747 J0.
X63.563 I11.255 J0.
X38.036 I-12.764 J0.
X63.563 I12.764 J0.
X61.785 Y26.677 I-1.548 J0.
G1 X51.729 Y25.163
X51.614 Y25.15
X51.499 Y25.146
Z-10.025 F800.
G3 X50.102 I-0.699 J0. F1000.
X54.515 I2.207 J0.
X47.085 I-3.715 J0.
X57.531 I5.223 J0.
X44.069 I-6.731 J0.
X60.547 I8.239 J0.
X41.053 I-9.747 J0.
X63.563 I11.255 J0.
X38.036 I-12.764 J0.
X63.563 I12.764 J0.
X61.785 Y26.677 I-1.548 J0.
G1 X51.729 Y25.163
X51.614 Y25.15
X51.499 Y25.146
Z-13.7 F800.
G3 X50.102 I-0.699 J0. F1000.
X54.515 I2.207 J0.
X47.085 I-3.715 J0.
X57.531 I5.223 J0.
X44.069 I-6.731 J0.
X60.547 I8.239 J0.
X41.053 I-9.747 J0.
X63.563 I11.255 J0.
X38.036 I-12.764 J0.
X63.563 I12.764 J0.
G0 Z15.

(2D POCKET2)
G0 X51.848 Y25.146
Z15.
Z5.
G1 Z2.5 F1000.
Z-3.175 F800.
G3 X52.769 I0.46 J0. F1000.
X48.832 I-1.969 J0.
X55.785 I3.477 J0.
X45.815 I-4.985 J0.
X58.801 I6.493 J0.
X42.799 I-8.001 J0.
X61.817 I9.509 J0.
X39.783 I-11.017 J0.
X64.834 I12.525 J0.
X36.766 I-14.034 J0.
X64.834 I14.034 J0.
G0 Z15.
M5
G0 Z15
G0 X0 Y0

M30
