(19.05.03.01.G04)
(BEARING BLOCK TEST 1 - CONTOUR)
(T1  D=3.175 CR=0. - ZMIN=-6.556 - FLAT END MILL)
G90 G94 G91.1 G40 G49 G17
G21
G0 Z15

(2D CONTOUR2 2)
M5
T1 M6
S12000 M3
G54
G0 X93.503 Y25.464
G43 Z15. H1
Z7.35
G1 Z-2.961 F800.
G18 G3 X93.185 Z-3.278 I-0.318 K0.
G1 X92.868 F1000.
G17 G3 X92.55 Y25.146 I0. J-0.317
G2 X85.579 Y14.569 I-11.509 J0.
G1 X59.77 Y3.496
G2 X41.192 I-9.289 J21.65
G1 X15.384 Y14.569
G2 Y35.723 I4.538 J10.577
G1 X41.192 Y46.796
G2 X59.77 I9.289 J-21.65
G1 X85.579 Y35.723
G2 X92.55 Y25.146 I-4.538 J-10.577
G3 X92.868 Y24.829 I0.317 J0.
G1 X93.185
G18 G2 X93.503 Z-2.961 I0. K0.318
G1 Y25.464
Z-6.239 F800.
G3 X93.185 Z-6.556 I-0.318 K0.
G1 X92.868 F1000.
G17 G3 X92.55 Y25.146 I0. J-0.317
G2 X85.579 Y14.569 I-11.509 J0.
G1 X59.77 Y3.496
G2 X41.192 I-9.289 J21.65
G1 X15.384 Y14.569
G2 Y35.723 I4.538 J10.577
G1 X41.192 Y46.796
G2 X59.77 I9.289 J-21.65
G1 X85.579 Y35.723
G2 X92.55 Y25.146 I-4.538 J-10.577
G3 X92.868 Y24.829 I0.317 J0.
G1 X93.185
G18 G2 X93.503 Z-6.239 I0. K0.318
G0 Z15.
G17
M5
G0 Z15
G0 X0 Y0

M30
