(19.05.03.01.G02)
(BEARING BLOCK 0.25 CONTOURS)
(T1  D=3.175 CR=0. - ZMIN=-6.556 - FLAT END MILL)
G90 G94 G91.1 G40 G49 G17
G21
G0 Z15

(2D CONTOUR2)
M5
T1 M6
S12000 M3
G54
G0 X93.503 Y25.464
G43 Z15. H1
Z7.35
G1 Z-2.961 F800.
G18 G3 X93.185 Z-3.278 I-0.318 K0.
G1 X92.868 F1000.
G17 G3 X92.55 Y25.146 I0. J-0.317
G2 X85.579 Y14.569 I-11.509 J0.
G1 X59.77 Y3.496
G2 X41.192 I-9.289 J21.65
G1 X15.384 Y14.569
G2 Y35.723 I4.538 J10.577
G1 X41.192 Y46.796
G2 X59.77 I9.289 J-21.65
G1 X85.579 Y35.723
G2 X92.55 Y25.146 I-4.538 J-10.577
G3 X92.868 Y24.829 I0.317 J0.
G1 X93.185
G18 G2 X93.503 Z-2.961 I0. K0.318
G1 Y25.464
Z-6.239 F800.
G3 X93.185 Z-6.556 I-0.318 K0.
G1 X92.868 F1000.
G17 G3 X92.55 Y25.146 I0. J-0.317
G2 X85.579 Y14.569 I-11.509 J0.
G1 X59.77 Y3.496
G2 X41.192 I-9.289 J21.65
G1 X15.384 Y14.569
G2 Y35.723 I4.538 J10.577
G1 X41.192 Y46.796
G2 X59.77 I9.289 J-21.65
G1 X85.579 Y35.723
G2 X92.55 Y25.146 I-4.538 J-10.577
G3 X92.868 Y24.829 I0.317 J0.
G1 X93.185
G18 G2 X93.503 Z-6.239 I0. K0.318
G0 Z15.
G17

(2D CONTOUR2)
G0 X182.403 Y25.464
Z15.
Z7.35
G1 Z-2.961 F800.
G18 G3 X182.085 Z-3.278 I-0.318 K0.
G1 X181.768 F1000.
G17 G3 X181.45 Y25.146 I0. J-0.317
G2 X174.479 Y14.569 I-11.509 J0.
G1 X148.67 Y3.496
G2 X130.092 I-9.289 J21.65
G1 X104.284 Y14.569
G2 Y35.723 I4.538 J10.577
G1 X130.092 Y46.796
G2 X148.67 I9.289 J-21.65
G1 X174.479 Y35.723
G2 X181.45 Y25.146 I-4.538 J-10.577
G3 X181.768 Y24.829 I0.317 J0.
G1 X182.085
G18 G2 X182.403 Z-2.961 I0. K0.318
G1 Y25.464
Z-6.239 F800.
G3 X182.085 Z-6.556 I-0.318 K0.
G1 X181.768 F1000.
G17 G3 X181.45 Y25.146 I0. J-0.317
G2 X174.479 Y14.569 I-11.509 J0.
G1 X148.67 Y3.496
G2 X130.092 I-9.289 J21.65
G1 X104.284 Y14.569
G2 Y35.723 I4.538 J10.577
G1 X130.092 Y46.796
G2 X148.67 I9.289 J-21.65
G1 X174.479 Y35.723
G2 X181.45 Y25.146 I-4.538 J-10.577
G3 X181.768 Y24.829 I0.317 J0.
G1 X182.085
G18 G2 X182.403 Z-6.239 I0. K0.318
G0 Z15.
G17

(2D CONTOUR2)
G0 X93.503 Y76.264
Z15.
Z7.35
G1 Z-2.961 F800.
G18 G3 X93.185 Z-3.278 I-0.318 K0.
G1 X92.868 F1000.
G17 G3 X92.55 Y75.946 I0. J-0.317
G2 X85.579 Y65.369 I-11.509 J0.
G1 X59.77 Y54.296
G2 X41.192 I-9.289 J21.65
G1 X15.384 Y65.369
G2 Y86.523 I4.538 J10.577
G1 X41.192 Y97.596
G2 X59.77 I9.289 J-21.65
G1 X85.579 Y86.523
G2 X92.55 Y75.946 I-4.538 J-10.577
G3 X92.868 Y75.628 I0.317 J0.
G1 X93.185
G18 G2 X93.503 Z-2.961 I0. K0.318
G1 Y76.264
Z-6.239 F800.
G3 X93.185 Z-6.556 I-0.318 K0.
G1 X92.868 F1000.
G17 G3 X92.55 Y75.946 I0. J-0.317
G2 X85.579 Y65.369 I-11.509 J0.
G1 X59.77 Y54.296
G2 X41.192 I-9.289 J21.65
G1 X15.384 Y65.369
G2 Y86.523 I4.538 J10.577
G1 X41.192 Y97.596
G2 X59.77 I9.289 J-21.65
G1 X85.579 Y86.523
G2 X92.55 Y75.946 I-4.538 J-10.577
G3 X92.868 Y75.628 I0.317 J0.
G1 X93.185
G18 G2 X93.503 Z-6.239 I0. K0.318
G0 Z15.
G17

(2D CONTOUR2)
G0 X182.403 Y76.264
Z15.
Z7.35
G1 Z-2.961 F800.
G18 G3 X182.085 Z-3.278 I-0.318 K0.
G1 X181.768 F1000.
G17 G3 X181.45 Y75.946 I0. J-0.317
G2 X174.479 Y65.369 I-11.509 J0.
G1 X148.67 Y54.296
G2 X130.092 I-9.289 J21.65
G1 X104.284 Y65.369
G2 Y86.523 I4.538 J10.577
G1 X130.092 Y97.596
G2 X148.67 I9.289 J-21.65
G1 X174.479 Y86.523
G2 X181.45 Y75.946 I-4.538 J-10.577
G3 X181.768 Y75.628 I0.317 J0.
G1 X182.085
G18 G2 X182.403 Z-2.961 I0. K0.318
G1 Y76.264
Z-6.239 F800.
G3 X182.085 Z-6.556 I-0.318 K0.
G1 X181.768 F1000.
G17 G3 X181.45 Y75.946 I0. J-0.317
G2 X174.479 Y65.369 I-11.509 J0.
G1 X148.67 Y54.296
G2 X130.092 I-9.289 J21.65
G1 X104.284 Y65.369
G2 Y86.523 I4.538 J10.577
G1 X130.092 Y97.596
G2 X148.67 I9.289 J-21.65
G1 X174.479 Y86.523
G2 X181.45 Y75.946 I-4.538 J-10.577
G3 X181.768 Y75.628 I0.317 J0.
G1 X182.085
G18 G2 X182.403 Z-6.239 I0. K0.318
G0 Z15.
G17

(2D CONTOUR2)
G0 X93.503 Y127.064
Z15.
Z7.35
G1 Z-2.961 F800.
G18 G3 X93.185 Z-3.278 I-0.318 K0.
G1 X92.868 F1000.
G17 G3 X92.55 Y126.746 I0. J-0.317
G2 X85.579 Y116.169 I-11.509 J0.
G1 X59.77 Y105.096
G2 X41.192 I-9.289 J21.65
G1 X15.384 Y116.169
G2 Y137.323 I4.538 J10.577
G1 X41.192 Y148.396
G2 X59.77 I9.289 J-21.65
G1 X85.579 Y137.323
G2 X92.55 Y126.746 I-4.538 J-10.577
G3 X92.868 Y126.429 I0.317 J0.
G1 X93.185
G18 G2 X93.503 Z-2.961 I0. K0.318
G1 Y127.064
Z-6.239 F800.
G3 X93.185 Z-6.556 I-0.318 K0.
G1 X92.868 F1000.
G17 G3 X92.55 Y126.746 I0. J-0.317
G2 X85.579 Y116.169 I-11.509 J0.
G1 X59.77 Y105.096
G2 X41.192 I-9.289 J21.65
G1 X15.384 Y116.169
G2 Y137.323 I4.538 J10.577
G1 X41.192 Y148.396
G2 X59.77 I9.289 J-21.65
G1 X85.579 Y137.323
G2 X92.55 Y126.746 I-4.538 J-10.577
G3 X92.868 Y126.429 I0.317 J0.
G1 X93.185
G18 G2 X93.503 Z-6.239 I0. K0.318
G0 Z15.
G17

(2D CONTOUR2)
G0 X182.403 Y127.064
Z15.
Z7.35
G1 Z-2.961 F800.
G18 G3 X182.085 Z-3.278 I-0.318 K0.
G1 X181.768 F1000.
G17 G3 X181.45 Y126.746 I0. J-0.317
G2 X174.479 Y116.169 I-11.509 J0.
G1 X148.67 Y105.096
G2 X130.092 I-9.289 J21.65
G1 X104.284 Y116.169
G2 Y137.323 I4.538 J10.577
G1 X130.092 Y148.396
G2 X148.67 I9.289 J-21.65
G1 X174.479 Y137.323
G2 X181.45 Y126.746 I-4.538 J-10.577
G3 X181.768 Y126.429 I0.317 J0.
G1 X182.085
G18 G2 X182.403 Z-2.961 I0. K0.318
G1 Y127.064
Z-6.239 F800.
G3 X182.085 Z-6.556 I-0.318 K0.
G1 X181.768 F1000.
G17 G3 X181.45 Y126.746 I0. J-0.317
G2 X174.479 Y116.169 I-11.509 J0.
G1 X148.67 Y105.096
G2 X130.092 I-9.289 J21.65
G1 X104.284 Y116.169
G2 Y137.323 I4.538 J10.577
G1 X130.092 Y148.396
G2 X148.67 I9.289 J-21.65
G1 X174.479 Y137.323
G2 X181.45 Y126.746 I-4.538 J-10.577
G3 X181.768 Y126.429 I0.317 J0.
G1 X182.085
G18 G2 X182.403 Z-6.239 I0. K0.318
G0 Z15.
G17

(2D CONTOUR2)
G0 X93.503 Y177.863
Z15.
Z7.35
G1 Z-2.961 F800.
G18 G3 X93.185 Z-3.278 I-0.318 K0.
G1 X92.868 F1000.
G17 G3 X92.55 Y177.546 I0. J-0.317
G2 X85.579 Y166.969 I-11.509 J0.
G1 X59.77 Y155.896
G2 X41.192 I-9.289 J21.65
G1 X15.384 Y166.969
G2 Y188.123 I4.538 J10.577
G1 X41.192 Y199.196
G2 X59.77 I9.289 J-21.65
G1 X85.579 Y188.123
G2 X92.55 Y177.546 I-4.538 J-10.577
G3 X92.868 Y177.228 I0.317 J0.
G1 X93.185
G18 G2 X93.503 Z-2.961 I0. K0.318
G1 Y177.863
Z-6.239 F800.
G3 X93.185 Z-6.556 I-0.318 K0.
G1 X92.868 F1000.
G17 G3 X92.55 Y177.546 I0. J-0.317
G2 X85.579 Y166.969 I-11.509 J0.
G1 X59.77 Y155.896
G2 X41.192 I-9.289 J21.65
G1 X15.384 Y166.969
G2 Y188.123 I4.538 J10.577
G1 X41.192 Y199.196
G2 X59.77 I9.289 J-21.65
G1 X85.579 Y188.123
G2 X92.55 Y177.546 I-4.538 J-10.577
G3 X92.868 Y177.228 I0.317 J0.
G1 X93.185
G18 G2 X93.503 Z-6.239 I0. K0.318
G0 Z15.
G17

(2D CONTOUR2)
G0 X182.403 Y177.863
Z15.
Z7.35
G1 Z-2.961 F800.
G18 G3 X182.085 Z-3.278 I-0.318 K0.
G1 X181.768 F1000.
G17 G3 X181.45 Y177.546 I0. J-0.317
G2 X174.479 Y166.969 I-11.509 J0.
G1 X148.67 Y155.896
G2 X130.092 I-9.289 J21.65
G1 X104.284 Y166.969
G2 Y188.123 I4.538 J10.577
G1 X130.092 Y199.196
G2 X148.67 I9.289 J-21.65
G1 X174.479 Y188.123
G2 X181.45 Y177.546 I-4.538 J-10.577
G3 X181.768 Y177.228 I0.317 J0.
G1 X182.085
G18 G2 X182.403 Z-2.961 I0. K0.318
G1 Y177.863
Z-6.239 F800.
G3 X182.085 Z-6.556 I-0.318 K0.
G1 X181.768 F1000.
G17 G3 X181.45 Y177.546 I0. J-0.317
G2 X174.479 Y166.969 I-11.509 J0.
G1 X148.67 Y155.896
G2 X130.092 I-9.289 J21.65
G1 X104.284 Y166.969
G2 Y188.123 I4.538 J10.577
G1 X130.092 Y199.196
G2 X148.67 I9.289 J-21.65
G1 X174.479 Y188.123
G2 X181.45 Y177.546 I-4.538 J-10.577
G3 X181.768 Y177.228 I0.317 J0.
G1 X182.085
G18 G2 X182.403 Z-6.239 I0. K0.318
G0 Z15.
G17

(2D CONTOUR2)
G0 X93.503 Y228.664
Z15.
Z7.35
G1 Z-2.961 F800.
G18 G3 X93.185 Z-3.278 I-0.318 K0.
G1 X92.868 F1000.
G17 G3 X92.55 Y228.346 I0. J-0.317
G2 X85.579 Y217.769 I-11.509 J0.
G1 X59.77 Y206.696
G2 X41.192 I-9.289 J21.65
G1 X15.384 Y217.769
G2 Y238.923 I4.538 J10.577
G1 X41.192 Y249.996
G2 X59.77 I9.289 J-21.65
G1 X85.579 Y238.923
G2 X92.55 Y228.346 I-4.538 J-10.577
G3 X92.868 Y228.029 I0.317 J0.
G1 X93.185
G18 G2 X93.503 Z-2.961 I0. K0.318
G1 Y228.664
Z-6.239 F800.
G3 X93.185 Z-6.556 I-0.318 K0.
G1 X92.868 F1000.
G17 G3 X92.55 Y228.346 I0. J-0.317
G2 X85.579 Y217.769 I-11.509 J0.
G1 X59.77 Y206.696
G2 X41.192 I-9.289 J21.65
G1 X15.384 Y217.769
G2 Y238.923 I4.538 J10.577
G1 X41.192 Y249.996
G2 X59.77 I9.289 J-21.65
G1 X85.579 Y238.923
G2 X92.55 Y228.346 I-4.538 J-10.577
G3 X92.868 Y228.029 I0.317 J0.
G1 X93.185
G18 G2 X93.503 Z-6.239 I0. K0.318
G0 Z15.
G17

(2D CONTOUR2)
G0 X182.403 Y228.664
Z15.
Z7.35
G1 Z-2.961 F800.
G18 G3 X182.085 Z-3.278 I-0.318 K0.
G1 X181.768 F1000.
G17 G3 X181.45 Y228.346 I0. J-0.317
G2 X174.479 Y217.769 I-11.509 J0.
G1 X148.67 Y206.696
G2 X130.092 I-9.289 J21.65
G1 X104.284 Y217.769
G2 Y238.923 I4.538 J10.577
G1 X130.092 Y249.996
G2 X148.67 I9.289 J-21.65
G1 X174.479 Y238.923
G2 X181.45 Y228.346 I-4.538 J-10.577
G3 X181.768 Y228.029 I0.317 J0.
G1 X182.085
G18 G2 X182.403 Z-2.961 I0. K0.318
G1 Y228.664
Z-6.239 F800.
G3 X182.085 Z-6.556 I-0.318 K0.
G1 X181.768 F1000.
G17 G3 X181.45 Y228.346 I0. J-0.317
G2 X174.479 Y217.769 I-11.509 J0.
G1 X148.67 Y206.696
G2 X130.092 I-9.289 J21.65
G1 X104.284 Y217.769
G2 Y238.923 I4.538 J10.577
G1 X130.092 Y249.996
G2 X148.67 I9.289 J-21.65
G1 X174.479 Y238.923
G2 X181.45 Y228.346 I-4.538 J-10.577
G3 X181.768 Y228.029 I0.317 J0.
G1 X182.085
G18 G2 X182.403 Z-6.239 I0. K0.318
G0 Z15.
G17
M5
G0 Z15
G0 X0 Y0

M30
