(19.05.03.01.G01)
(BEARING BLOCK 0.25 BORES)
(T1  D=3.175 CR=0. - ZMIN=-6.55 - FLAT END MILL)
G90 G94 G91.1 G40 G49 G17
G21
G0 Z15

(BORE1)
M5
T1 M6
S12000 M3
G54
G0 X19.644 Y24.948
G43 Z15. H1
Z2.
G1 Z0.317 F1000.
G18 G2 X19.962 Z0. I0.318 K0.
G1 X20.12
G17 G3 X20.319 Y25.146 I0. J0.198
X19.525 Z-0.5 I-0.397 J0.
X20.319 Z-1. I0.397 J0.
X19.525 Z-1.5 I-0.397 J0.
X20.319 Z-2. I0.397 J0.
X19.525 Z-2.5 I-0.397 J0.
X20.319 Z-3. I0.397 J0.
X19.525 Z-3.5 I-0.397 J0.
X20.319 Z-4. I0.397 J0.
X19.525 Z-4.5 I-0.397 J0.
X20.319 Z-5. I0.397 J0.
X19.525 Z-5.5 I-0.397 J0.
X20.319 Z-6. I0.397 J0.
X19.86 Y25.538 Z-6.275 I-0.397 J0.
X19.544 Y25.023 Z-6.55 I0.062 J-0.392
X20.299 Y25.269 I0.377 J0.123
X19.544 Y25.023 I-0.377 J-0.123
X19.794 Y24.896 I0.189 J0.061
G1 X19.945 Y24.945
X20.013 Y24.967 Z-6.542
X20.076 Y24.988 Z-6.519
X20.134 Y25.006 Z-6.481
X20.182 Y25.022 Z-6.43
X20.218 Y25.033 Z-6.37
X20.24 Y25.041 Z-6.303
X20.247 Y25.043 Z-6.233
G0 Z5.
X21.112 Y24.829
Z2.
G1 Z0.317 F1000.
G18 G2 X21.43 Z0. I0.318 K0.
G1 X21.589
G17 G3 X21.906 Y25.146 I0. J0.317
X17.938 Z-0.5 I-1.984 J0.
X21.906 Z-1. I1.984 J0.
X17.938 Z-1.5 I-1.984 J0.
X21.906 Z-2. I1.984 J0.
X17.938 Z-2.5 I-1.984 J0.
X21.906 Z-3. I1.984 J0.
X17.938 Z-3.5 I-1.984 J0.
X21.906 Z-4. I1.984 J0.
X17.938 Z-4.5 I-1.984 J0.
X21.906 Z-5. I1.984 J0.
X17.938 Z-5.5 I-1.984 J0.
X21.906 Z-6. I1.984 J0.
X19.611 Y27.106 Z-6.275 I-1.984 J0.
X18.035 Y24.533 Z-6.55 I0.31 J-1.96
X21.809 Y25.759 I1.887 J0.613
X18.035 Y24.533 I-1.887 J-0.613
X18.435 Y24.329 I0.302 J0.098
G1 X18.586 Y24.378
X18.653 Y24.4 Z-6.542
X18.717 Y24.421 Z-6.519
X18.774 Y24.439 Z-6.481
X18.822 Y24.455 Z-6.43
X18.858 Y24.466 Z-6.37
X18.88 Y24.474 Z-6.303
X18.888 Y24.476 Z-6.233
G0 Z5.
X80.763 Y24.948
Z2.
G1 Z0.317 F1000.
G18 G2 X81.08 Z0. I0.318 K0.
G1 X81.239
G17 G3 X81.438 Y25.146 I0. J0.198
X80.644 Z-0.5 I-0.397 J0.
X81.437 Z-1. I0.397 J0.
X80.644 Z-1.5 I-0.397 J0.
X81.437 Z-2. I0.397 J0.
X80.644 Z-2.5 I-0.397 J0.
X81.437 Z-3. I0.397 J0.
X80.644 Z-3.5 I-0.397 J0.
X81.437 Z-4. I0.397 J0.
X80.644 Z-4.5 I-0.397 J0.
X81.437 Z-5. I0.397 J0.
X80.644 Z-5.5 I-0.397 J0.
X81.437 Z-6. I0.397 J0.
X80.979 Y25.538 Z-6.275 I-0.397 J0.
X80.663 Y25.023 Z-6.55 I0.062 J-0.392
X81.418 Y25.269 I0.377 J0.123
X80.663 Y25.023 I-0.377 J-0.123
X80.913 Y24.896 I0.189 J0.061
G1 X81.064 Y24.945
X81.131 Y24.967 Z-6.542
X81.195 Y24.988 Z-6.519
X81.252 Y25.006 Z-6.481
X81.3 Y25.022 Z-6.43
X81.336 Y25.033 Z-6.37
X81.359 Y25.041 Z-6.303
X81.366 Y25.043 Z-6.233
G0 Z5.
X82.231 Y24.829
Z2.
G1 Z0.317 F1000.
G18 G2 X82.549 Z0. I0.318 K0.
G1 X82.707
G17 G3 X83.025 Y25.146 I0. J0.317
X79.056 Z-0.5 I-1.984 J0.
X83.025 Z-1. I1.984 J0.
X79.056 Z-1.5 I-1.984 J0.
X83.025 Z-2. I1.984 J0.
X79.056 Z-2.5 I-1.984 J0.
X83.025 Z-3. I1.984 J0.
X79.056 Z-3.5 I-1.984 J0.
X83.025 Z-4. I1.984 J0.
X79.056 Z-4.5 I-1.984 J0.
X83.025 Z-5. I1.984 J0.
X79.056 Z-5.5 I-1.984 J0.
X83.025 Z-6. I1.984 J0.
X80.73 Y27.106 Z-6.275 I-1.984 J0.
X79.153 Y24.533 Z-6.55 I0.31 J-1.96
X82.928 Y25.759 I1.887 J0.613
X79.153 Y24.533 I-1.887 J-0.613
X79.553 Y24.329 I0.302 J0.098
G1 X79.704 Y24.378
X79.772 Y24.4 Z-6.542
X79.835 Y24.421 Z-6.519
X79.893 Y24.439 Z-6.481
X79.941 Y24.455 Z-6.43
X79.976 Y24.466 Z-6.37
X79.999 Y24.474 Z-6.303
X80.006 Y24.476 Z-6.233
G0 Z15.

(2D POCKET1)
G0 X51.18 Y25.146
Z15.
Z7.35
G1 Z-3.275 F800.
G3 X49.783 I-0.698 J0. F1000.
X54.196 I2.207 J0.
X46.767 I-3.715 J0.
X57.212 I5.223 J0.
X43.75 I-6.731 J0.
X60.229 I8.239 J0.
X40.734 I-9.747 J0.
X63.245 I11.255 J0.
X37.718 I-12.764 J0.
X63.245 I12.764 J0.
X61.467 Y26.677 I-1.548 J0.
G1 X51.41 Y25.163
X51.295 Y25.15
X51.18 Y25.146
Z-6.55 F800.
G3 X49.783 I-0.698 J0. F1000.
X54.196 I2.207 J0.
X46.767 I-3.715 J0.
X57.212 I5.223 J0.
X43.75 I-6.731 J0.
X60.229 I8.239 J0.
X40.734 I-9.747 J0.
X63.245 I11.255 J0.
X37.718 I-12.764 J0.
X63.245 I12.764 J0.
G0 Z15.

(2D POCKET2)
G0 X51.529 Y25.146
Z15.
Z5.
G1 Z2.5 F1000.
Z-1.984 F800.
G3 X52.45 I0.46 J0. F1000.
X48.513 I-1.968 J0.
X55.466 I3.477 J0.
X45.497 I-4.985 J0.
X58.482 I6.493 J0.
X42.48 I-8.001 J0.
X61.499 I9.509 J0.
X39.464 I-11.017 J0.
X64.515 I12.525 J0.
X36.448 I-14.034 J0.
X64.515 I14.034 J0.
G0 Z15.

(BORE1)
G0 X108.544 Y24.948
Z15.
Z2.
G1 Z0.317 F1000.
G18 G2 X108.862 Z0. I0.318 K0.
G1 X109.02
G17 G3 X109.219 Y25.146 I0. J0.198
X108.425 Z-0.5 I-0.397 J0.
X109.219 Z-1. I0.397 J0.
X108.425 Z-1.5 I-0.397 J0.
X109.219 Z-2. I0.397 J0.
X108.425 Z-2.5 I-0.397 J0.
X109.219 Z-3. I0.397 J0.
X108.425 Z-3.5 I-0.397 J0.
X109.219 Z-4. I0.397 J0.
X108.425 Z-4.5 I-0.397 J0.
X109.219 Z-5. I0.397 J0.
X108.425 Z-5.5 I-0.397 J0.
X109.219 Z-6. I0.397 J0.
X108.76 Y25.538 Z-6.275 I-0.397 J0.
X108.444 Y25.023 Z-6.55 I0.062 J-0.392
X109.199 Y25.269 I0.377 J0.123
X108.444 Y25.023 I-0.377 J-0.123
X108.694 Y24.896 I0.189 J0.061
G1 X108.845 Y24.945
X108.913 Y24.967 Z-6.542
X108.976 Y24.988 Z-6.519
X109.034 Y25.006 Z-6.481
X109.082 Y25.022 Z-6.43
X109.118 Y25.033 Z-6.37
X109.14 Y25.041 Z-6.303
X109.147 Y25.043 Z-6.233
G0 Z5.
X110.013 Y24.829
Z2.
G1 Z0.317 F1000.
G18 G2 X110.33 Z0. I0.318 K0.
G1 X110.489
G17 G3 X110.806 Y25.146 I0. J0.317
X106.838 Z-0.5 I-1.984 J0.
X110.806 Z-1. I1.984 J0.
X106.838 Z-1.5 I-1.984 J0.
X110.806 Z-2. I1.984 J0.
X106.838 Z-2.5 I-1.984 J0.
X110.806 Z-3. I1.984 J0.
X106.838 Z-3.5 I-1.984 J0.
X110.806 Z-4. I1.984 J0.
X106.838 Z-4.5 I-1.984 J0.
X110.806 Z-5. I1.984 J0.
X106.838 Z-5.5 I-1.984 J0.
X110.806 Z-6. I1.984 J0.
X108.511 Y27.106 Z-6.275 I-1.984 J0.
X106.935 Y24.533 Z-6.55 I0.31 J-1.96
X110.709 Y25.759 I1.887 J0.613
X106.935 Y24.533 I-1.887 J-0.613
X107.335 Y24.329 I0.302 J0.098
G1 X107.486 Y24.378
X107.553 Y24.4 Z-6.542
X107.617 Y24.421 Z-6.519
X107.674 Y24.439 Z-6.481
X107.722 Y24.455 Z-6.43
X107.758 Y24.466 Z-6.37
X107.78 Y24.474 Z-6.303
X107.788 Y24.476 Z-6.233
G0 Z5.
X169.663 Y24.948
Z2.
G1 Z0.317 F1000.
G18 G2 X169.98 Z0. I0.318 K0.
G1 X170.139
G17 G3 X170.338 Y25.146 I0. J0.198
X169.544 Z-0.5 I-0.397 J0.
X170.338 Z-1. I0.397 J0.
X169.544 Z-1.5 I-0.397 J0.
X170.338 Z-2. I0.397 J0.
X169.544 Z-2.5 I-0.397 J0.
X170.338 Z-3. I0.397 J0.
X169.544 Z-3.5 I-0.397 J0.
X170.338 Z-4. I0.397 J0.
X169.544 Z-4.5 I-0.397 J0.
X170.338 Z-5. I0.397 J0.
X169.544 Z-5.5 I-0.397 J0.
X170.338 Z-6. I0.397 J0.
X169.879 Y25.538 Z-6.275 I-0.397 J0.
X169.563 Y25.023 Z-6.55 I0.062 J-0.392
X170.318 Y25.269 I0.377 J0.123
X169.563 Y25.023 I-0.377 J-0.123
X169.813 Y24.896 I0.189 J0.061
G1 X169.964 Y24.945
X170.031 Y24.967 Z-6.542
X170.095 Y24.988 Z-6.519
X170.152 Y25.006 Z-6.481
X170.2 Y25.022 Z-6.43
X170.236 Y25.033 Z-6.37
X170.259 Y25.041 Z-6.303
X170.266 Y25.043 Z-6.233
G0 Z5.
X171.131 Y24.829
Z2.
G1 Z0.317 F1000.
G18 G2 X171.449 Z0. I0.318 K0.
G1 X171.607
G17 G3 X171.925 Y25.146 I0. J0.317
X167.956 Z-0.5 I-1.984 J0.
X171.925 Z-1. I1.984 J0.
X167.956 Z-1.5 I-1.984 J0.
X171.925 Z-2. I1.984 J0.
X167.956 Z-2.5 I-1.984 J0.
X171.925 Z-3. I1.984 J0.
X167.956 Z-3.5 I-1.984 J0.
X171.925 Z-4. I1.984 J0.
X167.956 Z-4.5 I-1.984 J0.
X171.925 Z-5. I1.984 J0.
X167.956 Z-5.5 I-1.984 J0.
X171.925 Z-6. I1.984 J0.
X169.63 Y27.106 Z-6.275 I-1.984 J0.
X168.053 Y24.533 Z-6.55 I0.31 J-1.96
X171.828 Y25.759 I1.887 J0.613
X168.053 Y24.533 I-1.887 J-0.613
X168.453 Y24.329 I0.302 J0.098
G1 X168.604 Y24.378
X168.672 Y24.4 Z-6.542
X168.735 Y24.421 Z-6.519
X168.793 Y24.439 Z-6.481
X168.841 Y24.455 Z-6.43
X168.876 Y24.466 Z-6.37
X168.899 Y24.474 Z-6.303
X168.906 Y24.476 Z-6.233
G0 Z15.

(2D POCKET1)
G0 X140.08 Y25.146
Z15.
Z7.35
G1 Z-3.275 F800.
G3 X138.683 I-0.698 J0. F1000.
X143.096 I2.207 J0.
X135.667 I-3.715 J0.
X146.112 I5.223 J0.
X132.65 I-6.731 J0.
X149.129 I8.239 J0.
X129.634 I-9.747 J0.
X152.145 I11.255 J0.
X126.618 I-12.764 J0.
X152.145 I12.764 J0.
X150.367 Y26.677 I-1.548 J0.
G1 X140.31 Y25.163
X140.195 Y25.15
X140.08 Y25.146
Z-6.55 F800.
G3 X138.683 I-0.698 J0. F1000.
X143.096 I2.207 J0.
X135.667 I-3.715 J0.
X146.112 I5.223 J0.
X132.65 I-6.731 J0.
X149.129 I8.239 J0.
X129.634 I-9.747 J0.
X152.145 I11.255 J0.
X126.618 I-12.764 J0.
X152.145 I12.764 J0.
G0 Z15.

(2D POCKET2)
G0 X140.429 Y25.146
Z15.
Z5.
G1 Z2.5 F1000.
Z-1.984 F800.
G3 X141.35 I0.46 J0. F1000.
X137.413 I-1.968 J0.
X144.366 I3.477 J0.
X134.397 I-4.985 J0.
X147.382 I6.493 J0.
X131.38 I-8.001 J0.
X150.399 I9.509 J0.
X128.364 I-11.017 J0.
X153.415 I12.525 J0.
X125.348 I-14.034 J0.
X153.415 I14.034 J0.
G0 Z15.

(BORE1)
G0 X19.644 Y75.748
Z15.
Z2.
G1 Z0.317 F1000.
G18 G2 X19.962 Z0. I0.318 K0.
G1 X20.12
G17 G3 X20.319 Y75.946 I0. J0.198
X19.525 Z-0.5 I-0.397 J0.
X20.319 Z-1. I0.397 J0.
X19.525 Z-1.5 I-0.397 J0.
X20.319 Z-2. I0.397 J0.
X19.525 Z-2.5 I-0.397 J0.
X20.319 Z-3. I0.397 J0.
X19.525 Z-3.5 I-0.397 J0.
X20.319 Z-4. I0.397 J0.
X19.525 Z-4.5 I-0.397 J0.
X20.319 Z-5. I0.397 J0.
X19.525 Z-5.5 I-0.397 J0.
X20.319 Z-6. I0.397 J0.
X19.86 Y76.338 Z-6.275 I-0.397 J0.
X19.544 Y75.823 Z-6.55 I0.062 J-0.392
X20.299 Y76.069 I0.377 J0.123
X19.544 Y75.823 I-0.377 J-0.123
X19.794 Y75.696 I0.189 J0.061
G1 X19.945 Y75.745
X20.013 Y75.767 Z-6.542
X20.076 Y75.788 Z-6.519
X20.134 Y75.806 Z-6.481
X20.182 Y75.822 Z-6.43
X20.218 Y75.833 Z-6.37
X20.24 Y75.841 Z-6.303
X20.247 Y75.843 Z-6.233
G0 Z5.
X21.112 Y75.628
Z2.
G1 Z0.317 F1000.
G18 G2 X21.43 Z0. I0.318 K0.
G1 X21.589
G17 G3 X21.906 Y75.946 I0. J0.317
X17.938 Z-0.5 I-1.984 J0.
X21.906 Z-1. I1.984 J0.
X17.938 Z-1.5 I-1.984 J0.
X21.906 Z-2. I1.984 J0.
X17.938 Z-2.5 I-1.984 J0.
X21.906 Z-3. I1.984 J0.
X17.938 Z-3.5 I-1.984 J0.
X21.906 Z-4. I1.984 J0.
X17.938 Z-4.5 I-1.984 J0.
X21.906 Z-5. I1.984 J0.
X17.938 Z-5.5 I-1.984 J0.
X21.906 Z-6. I1.984 J0.
X19.611 Y77.906 Z-6.275 I-1.984 J0.
X18.035 Y75.333 Z-6.55 I0.31 J-1.96
X21.809 Y76.559 I1.887 J0.613
X18.035 Y75.333 I-1.887 J-0.613
X18.435 Y75.129 I0.302 J0.098
G1 X18.586 Y75.178
X18.653 Y75.2 Z-6.542
X18.717 Y75.221 Z-6.519
X18.774 Y75.239 Z-6.481
X18.822 Y75.255 Z-6.43
X18.858 Y75.266 Z-6.37
X18.88 Y75.274 Z-6.303
X18.888 Y75.276 Z-6.233
G0 Z5.
X80.763 Y75.748
Z2.
G1 Z0.317 F1000.
G18 G2 X81.08 Z0. I0.318 K0.
G1 X81.239
G17 G3 X81.438 Y75.946 I0. J0.198
X80.644 Z-0.5 I-0.397 J0.
X81.437 Z-1. I0.397 J0.
X80.644 Z-1.5 I-0.397 J0.
X81.437 Z-2. I0.397 J0.
X80.644 Z-2.5 I-0.397 J0.
X81.437 Z-3. I0.397 J0.
X80.644 Z-3.5 I-0.397 J0.
X81.437 Z-4. I0.397 J0.
X80.644 Z-4.5 I-0.397 J0.
X81.437 Z-5. I0.397 J0.
X80.644 Z-5.5 I-0.397 J0.
X81.437 Z-6. I0.397 J0.
X80.979 Y76.338 Z-6.275 I-0.397 J0.
X80.663 Y75.823 Z-6.55 I0.062 J-0.392
X81.418 Y76.069 I0.377 J0.123
X80.663 Y75.823 I-0.377 J-0.123
X80.913 Y75.696 I0.189 J0.061
G1 X81.064 Y75.745
X81.131 Y75.767 Z-6.542
X81.195 Y75.788 Z-6.519
X81.252 Y75.806 Z-6.481
X81.3 Y75.822 Z-6.43
X81.336 Y75.833 Z-6.37
X81.359 Y75.841 Z-6.303
X81.366 Y75.843 Z-6.233
G0 Z5.
X82.231 Y75.628
Z2.
G1 Z0.317 F1000.
G18 G2 X82.549 Z0. I0.318 K0.
G1 X82.707
G17 G3 X83.025 Y75.946 I0. J0.317
X79.056 Z-0.5 I-1.984 J0.
X83.025 Z-1. I1.984 J0.
X79.056 Z-1.5 I-1.984 J0.
X83.025 Z-2. I1.984 J0.
X79.056 Z-2.5 I-1.984 J0.
X83.025 Z-3. I1.984 J0.
X79.056 Z-3.5 I-1.984 J0.
X83.025 Z-4. I1.984 J0.
X79.056 Z-4.5 I-1.984 J0.
X83.025 Z-5. I1.984 J0.
X79.056 Z-5.5 I-1.984 J0.
X83.025 Z-6. I1.984 J0.
X80.73 Y77.906 Z-6.275 I-1.984 J0.
X79.153 Y75.333 Z-6.55 I0.31 J-1.96
X82.928 Y76.559 I1.887 J0.613
X79.153 Y75.333 I-1.887 J-0.613
X79.553 Y75.129 I0.302 J0.098
G1 X79.704 Y75.178
X79.772 Y75.2 Z-6.542
X79.835 Y75.221 Z-6.519
X79.893 Y75.239 Z-6.481
X79.941 Y75.255 Z-6.43
X79.976 Y75.266 Z-6.37
X79.999 Y75.274 Z-6.303
X80.006 Y75.276 Z-6.233
G0 Z15.

(2D POCKET1)
G0 X51.18 Y75.946
Z15.
Z7.35
G1 Z-3.275 F800.
G3 X49.783 I-0.698 J0. F1000.
X54.196 I2.207 J0.
X46.767 I-3.715 J0.
X57.212 I5.223 J0.
X43.75 I-6.731 J0.
X60.229 I8.239 J0.
X40.734 I-9.747 J0.
X63.245 I11.255 J0.
X37.718 I-12.764 J0.
X63.245 I12.764 J0.
X61.467 Y77.477 I-1.548 J0.
G1 X51.41 Y75.963
X51.295 Y75.95
X51.18 Y75.946
Z-6.55 F800.
G3 X49.783 I-0.698 J0. F1000.
X54.196 I2.207 J0.
X46.767 I-3.715 J0.
X57.212 I5.223 J0.
X43.75 I-6.731 J0.
X60.229 I8.239 J0.
X40.734 I-9.747 J0.
X63.245 I11.255 J0.
X37.718 I-12.764 J0.
X63.245 I12.764 J0.
G0 Z15.

(2D POCKET2)
G0 X51.529 Y75.946
Z15.
Z5.
G1 Z2.5 F1000.
Z-1.984 F800.
G3 X52.45 I0.46 J0. F1000.
X48.513 I-1.968 J0.
X55.466 I3.477 J0.
X45.497 I-4.985 J0.
X58.482 I6.493 J0.
X42.48 I-8.001 J0.
X61.499 I9.509 J0.
X39.464 I-11.017 J0.
X64.515 I12.525 J0.
X36.448 I-14.034 J0.
X64.515 I14.034 J0.
G0 Z15.

(BORE1)
G0 X108.544 Y75.748
Z15.
Z2.
G1 Z0.317 F1000.
G18 G2 X108.862 Z0. I0.318 K0.
G1 X109.02
G17 G3 X109.219 Y75.946 I0. J0.198
X108.425 Z-0.5 I-0.397 J0.
X109.219 Z-1. I0.397 J0.
X108.425 Z-1.5 I-0.397 J0.
X109.219 Z-2. I0.397 J0.
X108.425 Z-2.5 I-0.397 J0.
X109.219 Z-3. I0.397 J0.
X108.425 Z-3.5 I-0.397 J0.
X109.219 Z-4. I0.397 J0.
X108.425 Z-4.5 I-0.397 J0.
X109.219 Z-5. I0.397 J0.
X108.425 Z-5.5 I-0.397 J0.
X109.219 Z-6. I0.397 J0.
X108.76 Y76.338 Z-6.275 I-0.397 J0.
X108.444 Y75.823 Z-6.55 I0.062 J-0.392
X109.199 Y76.069 I0.377 J0.123
X108.444 Y75.823 I-0.377 J-0.123
X108.694 Y75.696 I0.189 J0.061
G1 X108.845 Y75.745
X108.913 Y75.767 Z-6.542
X108.976 Y75.788 Z-6.519
X109.034 Y75.806 Z-6.481
X109.082 Y75.822 Z-6.43
X109.118 Y75.833 Z-6.37
X109.14 Y75.841 Z-6.303
X109.147 Y75.843 Z-6.233
G0 Z5.
X110.013 Y75.628
Z2.
G1 Z0.317 F1000.
G18 G2 X110.33 Z0. I0.318 K0.
G1 X110.489
G17 G3 X110.806 Y75.946 I0. J0.317
X106.838 Z-0.5 I-1.984 J0.
X110.806 Z-1. I1.984 J0.
X106.838 Z-1.5 I-1.984 J0.
X110.806 Z-2. I1.984 J0.
X106.838 Z-2.5 I-1.984 J0.
X110.806 Z-3. I1.984 J0.
X106.838 Z-3.5 I-1.984 J0.
X110.806 Z-4. I1.984 J0.
X106.838 Z-4.5 I-1.984 J0.
X110.806 Z-5. I1.984 J0.
X106.838 Z-5.5 I-1.984 J0.
X110.806 Z-6. I1.984 J0.
X108.511 Y77.906 Z-6.275 I-1.984 J0.
X106.935 Y75.333 Z-6.55 I0.31 J-1.96
X110.709 Y76.559 I1.887 J0.613
X106.935 Y75.333 I-1.887 J-0.613
X107.335 Y75.129 I0.302 J0.098
G1 X107.486 Y75.178
X107.553 Y75.2 Z-6.542
X107.617 Y75.221 Z-6.519
X107.674 Y75.239 Z-6.481
X107.722 Y75.255 Z-6.43
X107.758 Y75.266 Z-6.37
X107.78 Y75.274 Z-6.303
X107.788 Y75.276 Z-6.233
G0 Z5.
X169.663 Y75.748
Z2.
G1 Z0.317 F1000.
G18 G2 X169.98 Z0. I0.318 K0.
G1 X170.139
G17 G3 X170.338 Y75.946 I0. J0.198
X169.544 Z-0.5 I-0.397 J0.
X170.338 Z-1. I0.397 J0.
X169.544 Z-1.5 I-0.397 J0.
X170.338 Z-2. I0.397 J0.
X169.544 Z-2.5 I-0.397 J0.
X170.338 Z-3. I0.397 J0.
X169.544 Z-3.5 I-0.397 J0.
X170.338 Z-4. I0.397 J0.
X169.544 Z-4.5 I-0.397 J0.
X170.338 Z-5. I0.397 J0.
X169.544 Z-5.5 I-0.397 J0.
X170.338 Z-6. I0.397 J0.
X169.879 Y76.338 Z-6.275 I-0.397 J0.
X169.563 Y75.823 Z-6.55 I0.062 J-0.392
X170.318 Y76.069 I0.377 J0.123
X169.563 Y75.823 I-0.377 J-0.123
X169.813 Y75.696 I0.189 J0.061
G1 X169.964 Y75.745
X170.031 Y75.767 Z-6.542
X170.095 Y75.788 Z-6.519
X170.152 Y75.806 Z-6.481
X170.2 Y75.822 Z-6.43
X170.236 Y75.833 Z-6.37
X170.259 Y75.841 Z-6.303
X170.266 Y75.843 Z-6.233
G0 Z5.
X171.131 Y75.628
Z2.
G1 Z0.317 F1000.
G18 G2 X171.449 Z0. I0.318 K0.
G1 X171.607
G17 G3 X171.925 Y75.946 I0. J0.317
X167.956 Z-0.5 I-1.984 J0.
X171.925 Z-1. I1.984 J0.
X167.956 Z-1.5 I-1.984 J0.
X171.925 Z-2. I1.984 J0.
X167.956 Z-2.5 I-1.984 J0.
X171.925 Z-3. I1.984 J0.
X167.956 Z-3.5 I-1.984 J0.
X171.925 Z-4. I1.984 J0.
X167.956 Z-4.5 I-1.984 J0.
X171.925 Z-5. I1.984 J0.
X167.956 Z-5.5 I-1.984 J0.
X171.925 Z-6. I1.984 J0.
X169.63 Y77.906 Z-6.275 I-1.984 J0.
X168.053 Y75.333 Z-6.55 I0.31 J-1.96
X171.828 Y76.559 I1.887 J0.613
X168.053 Y75.333 I-1.887 J-0.613
X168.453 Y75.129 I0.302 J0.098
G1 X168.604 Y75.178
X168.672 Y75.2 Z-6.542
X168.735 Y75.221 Z-6.519
X168.793 Y75.239 Z-6.481
X168.841 Y75.255 Z-6.43
X168.876 Y75.266 Z-6.37
X168.899 Y75.274 Z-6.303
X168.906 Y75.276 Z-6.233
G0 Z15.

(2D POCKET1)
G0 X140.08 Y75.946
Z15.
Z7.35
G1 Z-3.275 F800.
G3 X138.683 I-0.698 J0. F1000.
X143.096 I2.207 J0.
X135.667 I-3.715 J0.
X146.112 I5.223 J0.
X132.65 I-6.731 J0.
X149.129 I8.239 J0.
X129.634 I-9.747 J0.
X152.145 I11.255 J0.
X126.618 I-12.764 J0.
X152.145 I12.764 J0.
X150.367 Y77.477 I-1.548 J0.
G1 X140.31 Y75.963
X140.195 Y75.95
X140.08 Y75.946
Z-6.55 F800.
G3 X138.683 I-0.698 J0. F1000.
X143.096 I2.207 J0.
X135.667 I-3.715 J0.
X146.112 I5.223 J0.
X132.65 I-6.731 J0.
X149.129 I8.239 J0.
X129.634 I-9.747 J0.
X152.145 I11.255 J0.
X126.618 I-12.764 J0.
X152.145 I12.764 J0.
G0 Z15.

(2D POCKET2)
G0 X140.429 Y75.946
Z15.
Z5.
G1 Z2.5 F1000.
Z-1.984 F800.
G3 X141.35 I0.46 J0. F1000.
X137.413 I-1.968 J0.
X144.366 I3.477 J0.
X134.397 I-4.985 J0.
X147.382 I6.493 J0.
X131.38 I-8.001 J0.
X150.399 I9.509 J0.
X128.364 I-11.017 J0.
X153.415 I12.525 J0.
X125.348 I-14.034 J0.
X153.415 I14.034 J0.
G0 Z15.

(BORE1)
G0 X19.644 Y126.548
Z15.
Z2.
G1 Z0.317 F1000.
G18 G2 X19.962 Z0. I0.318 K0.
G1 X20.12
G17 G3 X20.319 Y126.746 I0. J0.198
X19.525 Z-0.5 I-0.397 J0.
X20.319 Z-1. I0.397 J0.
X19.525 Z-1.5 I-0.397 J0.
X20.319 Z-2. I0.397 J0.
X19.525 Z-2.5 I-0.397 J0.
X20.319 Z-3. I0.397 J0.
X19.525 Z-3.5 I-0.397 J0.
X20.319 Z-4. I0.397 J0.
X19.525 Z-4.5 I-0.397 J0.
X20.319 Z-5. I0.397 J0.
X19.525 Z-5.5 I-0.397 J0.
X20.319 Z-6. I0.397 J0.
X19.86 Y127.138 Z-6.275 I-0.397 J0.
X19.544 Y126.623 Z-6.55 I0.062 J-0.392
X20.299 Y126.869 I0.377 J0.123
X19.544 Y126.623 I-0.377 J-0.123
X19.794 Y126.496 I0.189 J0.061
G1 X19.945 Y126.545
X20.013 Y126.567 Z-6.542
X20.076 Y126.588 Z-6.519
X20.134 Y126.606 Z-6.481
X20.182 Y126.622 Z-6.43
X20.218 Y126.633 Z-6.37
X20.24 Y126.641 Z-6.303
X20.247 Y126.643 Z-6.233
G0 Z5.
X21.112 Y126.429
Z2.
G1 Z0.317 F1000.
G18 G2 X21.43 Z0. I0.318 K0.
G1 X21.589
G17 G3 X21.906 Y126.746 I0. J0.317
X17.938 Z-0.5 I-1.984 J0.
X21.906 Z-1. I1.984 J0.
X17.938 Z-1.5 I-1.984 J0.
X21.906 Z-2. I1.984 J0.
X17.938 Z-2.5 I-1.984 J0.
X21.906 Z-3. I1.984 J0.
X17.938 Z-3.5 I-1.984 J0.
X21.906 Z-4. I1.984 J0.
X17.938 Z-4.5 I-1.984 J0.
X21.906 Z-5. I1.984 J0.
X17.938 Z-5.5 I-1.984 J0.
X21.906 Z-6. I1.984 J0.
X19.611 Y128.706 Z-6.275 I-1.984 J0.
X18.035 Y126.133 Z-6.55 I0.31 J-1.96
X21.809 Y127.359 I1.887 J0.613
X18.035 Y126.133 I-1.887 J-0.613
X18.435 Y125.929 I0.302 J0.098
G1 X18.586 Y125.978
X18.653 Y126. Z-6.542
X18.717 Y126.021 Z-6.519
X18.774 Y126.039 Z-6.481
X18.822 Y126.055 Z-6.43
X18.858 Y126.066 Z-6.37
X18.88 Y126.074 Z-6.303
X18.888 Y126.076 Z-6.233
G0 Z5.
X80.763 Y126.548
Z2.
G1 Z0.317 F1000.
G18 G2 X81.08 Z0. I0.318 K0.
G1 X81.239
G17 G3 X81.438 Y126.746 I0. J0.198
X80.644 Z-0.5 I-0.397 J0.
X81.437 Z-1. I0.397 J0.
X80.644 Z-1.5 I-0.397 J0.
X81.437 Z-2. I0.397 J0.
X80.644 Z-2.5 I-0.397 J0.
X81.437 Z-3. I0.397 J0.
X80.644 Z-3.5 I-0.397 J0.
X81.437 Z-4. I0.397 J0.
X80.644 Z-4.5 I-0.397 J0.
X81.437 Z-5. I0.397 J0.
X80.644 Z-5.5 I-0.397 J0.
X81.437 Z-6. I0.397 J0.
X80.979 Y127.138 Z-6.275 I-0.397 J0.
X80.663 Y126.623 Z-6.55 I0.062 J-0.392
X81.418 Y126.869 I0.377 J0.123
X80.663 Y126.623 I-0.377 J-0.123
X80.913 Y126.496 I0.189 J0.061
G1 X81.064 Y126.545
X81.131 Y126.567 Z-6.542
X81.195 Y126.588 Z-6.519
X81.252 Y126.606 Z-6.481
X81.3 Y126.622 Z-6.43
X81.336 Y126.633 Z-6.37
X81.359 Y126.641 Z-6.303
X81.366 Y126.643 Z-6.233
G0 Z5.
X82.231 Y126.429
Z2.
G1 Z0.317 F1000.
G18 G2 X82.549 Z0. I0.318 K0.
G1 X82.707
G17 G3 X83.025 Y126.746 I0. J0.317
X79.056 Z-0.5 I-1.984 J0.
X83.025 Z-1. I1.984 J0.
X79.056 Z-1.5 I-1.984 J0.
X83.025 Z-2. I1.984 J0.
X79.056 Z-2.5 I-1.984 J0.
X83.025 Z-3. I1.984 J0.
X79.056 Z-3.5 I-1.984 J0.
X83.025 Z-4. I1.984 J0.
X79.056 Z-4.5 I-1.984 J0.
X83.025 Z-5. I1.984 J0.
X79.056 Z-5.5 I-1.984 J0.
X83.025 Z-6. I1.984 J0.
X80.73 Y128.706 Z-6.275 I-1.984 J0.
X79.153 Y126.133 Z-6.55 I0.31 J-1.96
X82.928 Y127.359 I1.887 J0.613
X79.153 Y126.133 I-1.887 J-0.613
X79.553 Y125.929 I0.302 J0.098
G1 X79.704 Y125.978
X79.772 Y126. Z-6.542
X79.835 Y126.021 Z-6.519
X79.893 Y126.039 Z-6.481
X79.941 Y126.055 Z-6.43
X79.976 Y126.066 Z-6.37
X79.999 Y126.074 Z-6.303
X80.006 Y126.076 Z-6.233
G0 Z15.

(2D POCKET1)
G0 X51.18 Y126.746
Z15.
Z7.35
G1 Z-3.275 F800.
G3 X49.783 I-0.698 J0. F1000.
X54.196 I2.207 J0.
X46.767 I-3.715 J0.
X57.212 I5.223 J0.
X43.75 I-6.731 J0.
X60.229 I8.239 J0.
X40.734 I-9.747 J0.
X63.245 I11.255 J0.
X37.718 I-12.764 J0.
X63.245 I12.764 J0.
X61.467 Y128.277 I-1.548 J0.
G1 X51.41 Y126.763
X51.295 Y126.75
X51.18 Y126.746
Z-6.55 F800.
G3 X49.783 I-0.698 J0. F1000.
X54.196 I2.207 J0.
X46.767 I-3.715 J0.
X57.212 I5.223 J0.
X43.75 I-6.731 J0.
X60.229 I8.239 J0.
X40.734 I-9.747 J0.
X63.245 I11.255 J0.
X37.718 I-12.764 J0.
X63.245 I12.764 J0.
G0 Z15.

(2D POCKET2)
G0 X51.529 Y126.746
Z15.
Z5.
G1 Z2.5 F1000.
Z-1.984 F800.
G3 X52.45 I0.46 J0. F1000.
X48.513 I-1.968 J0.
X55.466 I3.477 J0.
X45.497 I-4.985 J0.
X58.482 I6.493 J0.
X42.48 I-8.001 J0.
X61.499 I9.509 J0.
X39.464 I-11.017 J0.
X64.515 I12.525 J0.
X36.448 I-14.034 J0.
X64.515 I14.034 J0.
G0 Z15.

(BORE1)
G0 X108.544 Y126.548
Z15.
Z2.
G1 Z0.317 F1000.
G18 G2 X108.862 Z0. I0.318 K0.
G1 X109.02
G17 G3 X109.219 Y126.746 I0. J0.198
X108.425 Z-0.5 I-0.397 J0.
X109.219 Z-1. I0.397 J0.
X108.425 Z-1.5 I-0.397 J0.
X109.219 Z-2. I0.397 J0.
X108.425 Z-2.5 I-0.397 J0.
X109.219 Z-3. I0.397 J0.
X108.425 Z-3.5 I-0.397 J0.
X109.219 Z-4. I0.397 J0.
X108.425 Z-4.5 I-0.397 J0.
X109.219 Z-5. I0.397 J0.
X108.425 Z-5.5 I-0.397 J0.
X109.219 Z-6. I0.397 J0.
X108.76 Y127.138 Z-6.275 I-0.397 J0.
X108.444 Y126.623 Z-6.55 I0.062 J-0.392
X109.199 Y126.869 I0.377 J0.123
X108.444 Y126.623 I-0.377 J-0.123
X108.694 Y126.496 I0.189 J0.061
G1 X108.845 Y126.545
X108.913 Y126.567 Z-6.542
X108.976 Y126.588 Z-6.519
X109.034 Y126.606 Z-6.481
X109.082 Y126.622 Z-6.43
X109.118 Y126.633 Z-6.37
X109.14 Y126.641 Z-6.303
X109.147 Y126.643 Z-6.233
G0 Z5.
X110.013 Y126.429
Z2.
G1 Z0.317 F1000.
G18 G2 X110.33 Z0. I0.318 K0.
G1 X110.489
G17 G3 X110.806 Y126.746 I0. J0.317
X106.838 Z-0.5 I-1.984 J0.
X110.806 Z-1. I1.984 J0.
X106.838 Z-1.5 I-1.984 J0.
X110.806 Z-2. I1.984 J0.
X106.838 Z-2.5 I-1.984 J0.
X110.806 Z-3. I1.984 J0.
X106.838 Z-3.5 I-1.984 J0.
X110.806 Z-4. I1.984 J0.
X106.838 Z-4.5 I-1.984 J0.
X110.806 Z-5. I1.984 J0.
X106.838 Z-5.5 I-1.984 J0.
X110.806 Z-6. I1.984 J0.
X108.511 Y128.706 Z-6.275 I-1.984 J0.
X106.935 Y126.133 Z-6.55 I0.31 J-1.96
X110.709 Y127.359 I1.887 J0.613
X106.935 Y126.133 I-1.887 J-0.613
X107.335 Y125.929 I0.302 J0.098
G1 X107.486 Y125.978
X107.553 Y126. Z-6.542
X107.617 Y126.021 Z-6.519
X107.674 Y126.039 Z-6.481
X107.722 Y126.055 Z-6.43
X107.758 Y126.066 Z-6.37
X107.78 Y126.074 Z-6.303
X107.788 Y126.076 Z-6.233
G0 Z5.
X169.663 Y126.548
Z2.
G1 Z0.317 F1000.
G18 G2 X169.98 Z0. I0.318 K0.
G1 X170.139
G17 G3 X170.338 Y126.746 I0. J0.198
X169.544 Z-0.5 I-0.397 J0.
X170.338 Z-1. I0.397 J0.
X169.544 Z-1.5 I-0.397 J0.
X170.338 Z-2. I0.397 J0.
X169.544 Z-2.5 I-0.397 J0.
X170.338 Z-3. I0.397 J0.
X169.544 Z-3.5 I-0.397 J0.
X170.338 Z-4. I0.397 J0.
X169.544 Z-4.5 I-0.397 J0.
X170.338 Z-5. I0.397 J0.
X169.544 Z-5.5 I-0.397 J0.
X170.338 Z-6. I0.397 J0.
X169.879 Y127.138 Z-6.275 I-0.397 J0.
X169.563 Y126.623 Z-6.55 I0.062 J-0.392
X170.318 Y126.869 I0.377 J0.123
X169.563 Y126.623 I-0.377 J-0.123
X169.813 Y126.496 I0.189 J0.061
G1 X169.964 Y126.545
X170.031 Y126.567 Z-6.542
X170.095 Y126.588 Z-6.519
X170.152 Y126.606 Z-6.481
X170.2 Y126.622 Z-6.43
X170.236 Y126.633 Z-6.37
X170.259 Y126.641 Z-6.303
X170.266 Y126.643 Z-6.233
G0 Z5.
X171.131 Y126.429
Z2.
G1 Z0.317 F1000.
G18 G2 X171.449 Z0. I0.318 K0.
G1 X171.607
G17 G3 X171.925 Y126.746 I0. J0.317
X167.956 Z-0.5 I-1.984 J0.
X171.925 Z-1. I1.984 J0.
X167.956 Z-1.5 I-1.984 J0.
X171.925 Z-2. I1.984 J0.
X167.956 Z-2.5 I-1.984 J0.
X171.925 Z-3. I1.984 J0.
X167.956 Z-3.5 I-1.984 J0.
X171.925 Z-4. I1.984 J0.
X167.956 Z-4.5 I-1.984 J0.
X171.925 Z-5. I1.984 J0.
X167.956 Z-5.5 I-1.984 J0.
X171.925 Z-6. I1.984 J0.
X169.63 Y128.706 Z-6.275 I-1.984 J0.
X168.053 Y126.133 Z-6.55 I0.31 J-1.96
X171.828 Y127.359 I1.887 J0.613
X168.053 Y126.133 I-1.887 J-0.613
X168.453 Y125.929 I0.302 J0.098
G1 X168.604 Y125.978
X168.672 Y126. Z-6.542
X168.735 Y126.021 Z-6.519
X168.793 Y126.039 Z-6.481
X168.841 Y126.055 Z-6.43
X168.876 Y126.066 Z-6.37
X168.899 Y126.074 Z-6.303
X168.906 Y126.076 Z-6.233
G0 Z15.

(2D POCKET1)
G0 X140.08 Y126.746
Z15.
Z7.35
G1 Z-3.275 F800.
G3 X138.683 I-0.698 J0. F1000.
X143.096 I2.207 J0.
X135.667 I-3.715 J0.
X146.112 I5.223 J0.
X132.65 I-6.731 J0.
X149.129 I8.239 J0.
X129.634 I-9.747 J0.
X152.145 I11.255 J0.
X126.618 I-12.764 J0.
X152.145 I12.764 J0.
X150.367 Y128.277 I-1.548 J0.
G1 X140.31 Y126.763
X140.195 Y126.75
X140.08 Y126.746
Z-6.55 F800.
G3 X138.683 I-0.698 J0. F1000.
X143.096 I2.207 J0.
X135.667 I-3.715 J0.
X146.112 I5.223 J0.
X132.65 I-6.731 J0.
X149.129 I8.239 J0.
X129.634 I-9.747 J0.
X152.145 I11.255 J0.
X126.618 I-12.764 J0.
X152.145 I12.764 J0.
G0 Z15.

(2D POCKET2)
G0 X140.429 Y126.746
Z15.
Z5.
G1 Z2.5 F1000.
Z-1.984 F800.
G3 X141.35 I0.46 J0. F1000.
X137.413 I-1.968 J0.
X144.366 I3.477 J0.
X134.397 I-4.985 J0.
X147.382 I6.493 J0.
X131.38 I-8.001 J0.
X150.399 I9.509 J0.
X128.364 I-11.017 J0.
X153.415 I12.525 J0.
X125.348 I-14.034 J0.
X153.415 I14.034 J0.
G0 Z15.

(BORE1)
G0 X19.644 Y177.348
Z15.
Z2.
G1 Z0.317 F1000.
G18 G2 X19.962 Z0. I0.318 K0.
G1 X20.12
G17 G3 X20.319 Y177.546 I0. J0.198
X19.525 Z-0.5 I-0.397 J0.
X20.319 Z-1. I0.397 J0.
X19.525 Z-1.5 I-0.397 J0.
X20.319 Z-2. I0.397 J0.
X19.525 Z-2.5 I-0.397 J0.
X20.319 Z-3. I0.397 J0.
X19.525 Z-3.5 I-0.397 J0.
X20.319 Z-4. I0.397 J0.
X19.525 Z-4.5 I-0.397 J0.
X20.319 Z-5. I0.397 J0.
X19.525 Z-5.5 I-0.397 J0.
X20.319 Z-6. I0.397 J0.
X19.86 Y177.938 Z-6.275 I-0.397 J0.
X19.544 Y177.423 Z-6.55 I0.062 J-0.392
X20.299 Y177.669 I0.377 J0.123
X19.544 Y177.423 I-0.377 J-0.123
X19.794 Y177.296 I0.189 J0.061
G1 X19.945 Y177.345
X20.013 Y177.367 Z-6.542
X20.076 Y177.388 Z-6.519
X20.134 Y177.406 Z-6.481
X20.182 Y177.422 Z-6.43
X20.218 Y177.433 Z-6.37
X20.24 Y177.441 Z-6.303
X20.247 Y177.443 Z-6.233
G0 Z5.
X21.112 Y177.228
Z2.
G1 Z0.317 F1000.
G18 G2 X21.43 Z0. I0.318 K0.
G1 X21.589
G17 G3 X21.906 Y177.546 I0. J0.317
X17.938 Z-0.5 I-1.984 J0.
X21.906 Z-1. I1.984 J0.
X17.938 Z-1.5 I-1.984 J0.
X21.906 Z-2. I1.984 J0.
X17.938 Z-2.5 I-1.984 J0.
X21.906 Z-3. I1.984 J0.
X17.938 Z-3.5 I-1.984 J0.
X21.906 Z-4. I1.984 J0.
X17.938 Z-4.5 I-1.984 J0.
X21.906 Z-5. I1.984 J0.
X17.938 Z-5.5 I-1.984 J0.
X21.906 Z-6. I1.984 J0.
X19.611 Y179.506 Z-6.275 I-1.984 J0.
X18.035 Y176.933 Z-6.55 I0.31 J-1.96
X21.809 Y178.159 I1.887 J0.613
X18.035 Y176.933 I-1.887 J-0.613
X18.435 Y176.729 I0.302 J0.098
G1 X18.586 Y176.778
X18.653 Y176.8 Z-6.542
X18.717 Y176.821 Z-6.519
X18.774 Y176.839 Z-6.481
X18.822 Y176.855 Z-6.43
X18.858 Y176.866 Z-6.37
X18.88 Y176.874 Z-6.303
X18.888 Y176.876 Z-6.233
G0 Z5.
X80.763 Y177.348
Z2.
G1 Z0.317 F1000.
G18 G2 X81.08 Z0. I0.318 K0.
G1 X81.239
G17 G3 X81.438 Y177.546 I0. J0.198
X80.644 Z-0.5 I-0.397 J0.
X81.437 Z-1. I0.397 J0.
X80.644 Z-1.5 I-0.397 J0.
X81.437 Z-2. I0.397 J0.
X80.644 Z-2.5 I-0.397 J0.
X81.437 Z-3. I0.397 J0.
X80.644 Z-3.5 I-0.397 J0.
X81.437 Z-4. I0.397 J0.
X80.644 Z-4.5 I-0.397 J0.
X81.437 Z-5. I0.397 J0.
X80.644 Z-5.5 I-0.397 J0.
X81.437 Z-6. I0.397 J0.
X80.979 Y177.938 Z-6.275 I-0.397 J0.
X80.663 Y177.423 Z-6.55 I0.062 J-0.392
X81.418 Y177.669 I0.377 J0.123
X80.663 Y177.423 I-0.377 J-0.123
X80.913 Y177.296 I0.189 J0.061
G1 X81.064 Y177.345
X81.131 Y177.367 Z-6.542
X81.195 Y177.388 Z-6.519
X81.252 Y177.406 Z-6.481
X81.3 Y177.422 Z-6.43
X81.336 Y177.433 Z-6.37
X81.359 Y177.441 Z-6.303
X81.366 Y177.443 Z-6.233
G0 Z5.
X82.231 Y177.228
Z2.
G1 Z0.317 F1000.
G18 G2 X82.549 Z0. I0.318 K0.
G1 X82.707
G17 G3 X83.025 Y177.546 I0. J0.317
X79.056 Z-0.5 I-1.984 J0.
X83.025 Z-1. I1.984 J0.
X79.056 Z-1.5 I-1.984 J0.
X83.025 Z-2. I1.984 J0.
X79.056 Z-2.5 I-1.984 J0.
X83.025 Z-3. I1.984 J0.
X79.056 Z-3.5 I-1.984 J0.
X83.025 Z-4. I1.984 J0.
X79.056 Z-4.5 I-1.984 J0.
X83.025 Z-5. I1.984 J0.
X79.056 Z-5.5 I-1.984 J0.
X83.025 Z-6. I1.984 J0.
X80.73 Y179.506 Z-6.275 I-1.984 J0.
X79.153 Y176.933 Z-6.55 I0.31 J-1.96
X82.928 Y178.159 I1.887 J0.613
X79.153 Y176.933 I-1.887 J-0.613
X79.553 Y176.729 I0.302 J0.098
G1 X79.704 Y176.778
X79.772 Y176.8 Z-6.542
X79.835 Y176.821 Z-6.519
X79.893 Y176.839 Z-6.481
X79.941 Y176.855 Z-6.43
X79.976 Y176.866 Z-6.37
X79.999 Y176.874 Z-6.303
X80.006 Y176.876 Z-6.233
G0 Z15.

(2D POCKET1)
G0 X51.18 Y177.546
Z15.
Z7.35
G1 Z-3.275 F800.
G3 X49.783 I-0.698 J0. F1000.
X54.196 I2.207 J0.
X46.767 I-3.715 J0.
X57.212 I5.223 J0.
X43.75 I-6.731 J0.
X60.229 I8.239 J0.
X40.734 I-9.747 J0.
X63.245 I11.255 J0.
X37.718 I-12.764 J0.
X63.245 I12.764 J0.
X61.467 Y179.077 I-1.548 J0.
G1 X51.41 Y177.563
X51.295 Y177.55
X51.18 Y177.546
Z-6.55 F800.
G3 X49.783 I-0.698 J0. F1000.
X54.196 I2.207 J0.
X46.767 I-3.715 J0.
X57.212 I5.223 J0.
X43.75 I-6.731 J0.
X60.229 I8.239 J0.
X40.734 I-9.747 J0.
X63.245 I11.255 J0.
X37.718 I-12.764 J0.
X63.245 I12.764 J0.
G0 Z15.

(2D POCKET2)
G0 X51.529 Y177.546
Z15.
Z5.
G1 Z2.5 F1000.
Z-1.984 F800.
G3 X52.45 I0.46 J0. F1000.
X48.513 I-1.968 J0.
X55.466 I3.477 J0.
X45.497 I-4.985 J0.
X58.482 I6.493 J0.
X42.48 I-8.001 J0.
X61.499 I9.509 J0.
X39.464 I-11.017 J0.
X64.515 I12.525 J0.
X36.448 I-14.034 J0.
X64.515 I14.034 J0.
G0 Z15.

(BORE1)
G0 X108.544 Y177.348
Z15.
Z2.
G1 Z0.317 F1000.
G18 G2 X108.862 Z0. I0.318 K0.
G1 X109.02
G17 G3 X109.219 Y177.546 I0. J0.198
X108.425 Z-0.5 I-0.397 J0.
X109.219 Z-1. I0.397 J0.
X108.425 Z-1.5 I-0.397 J0.
X109.219 Z-2. I0.397 J0.
X108.425 Z-2.5 I-0.397 J0.
X109.219 Z-3. I0.397 J0.
X108.425 Z-3.5 I-0.397 J0.
X109.219 Z-4. I0.397 J0.
X108.425 Z-4.5 I-0.397 J0.
X109.219 Z-5. I0.397 J0.
X108.425 Z-5.5 I-0.397 J0.
X109.219 Z-6. I0.397 J0.
X108.76 Y177.938 Z-6.275 I-0.397 J0.
X108.444 Y177.423 Z-6.55 I0.062 J-0.392
X109.199 Y177.669 I0.377 J0.123
X108.444 Y177.423 I-0.377 J-0.123
X108.694 Y177.296 I0.189 J0.061
G1 X108.845 Y177.345
X108.913 Y177.367 Z-6.542
X108.976 Y177.388 Z-6.519
X109.034 Y177.406 Z-6.481
X109.082 Y177.422 Z-6.43
X109.118 Y177.433 Z-6.37
X109.14 Y177.441 Z-6.303
X109.147 Y177.443 Z-6.233
G0 Z5.
X110.013 Y177.228
Z2.
G1 Z0.317 F1000.
G18 G2 X110.33 Z0. I0.318 K0.
G1 X110.489
G17 G3 X110.806 Y177.546 I0. J0.317
X106.838 Z-0.5 I-1.984 J0.
X110.806 Z-1. I1.984 J0.
X106.838 Z-1.5 I-1.984 J0.
X110.806 Z-2. I1.984 J0.
X106.838 Z-2.5 I-1.984 J0.
X110.806 Z-3. I1.984 J0.
X106.838 Z-3.5 I-1.984 J0.
X110.806 Z-4. I1.984 J0.
X106.838 Z-4.5 I-1.984 J0.
X110.806 Z-5. I1.984 J0.
X106.838 Z-5.5 I-1.984 J0.
X110.806 Z-6. I1.984 J0.
X108.511 Y179.506 Z-6.275 I-1.984 J0.
X106.935 Y176.933 Z-6.55 I0.31 J-1.96
X110.709 Y178.159 I1.887 J0.613
X106.935 Y176.933 I-1.887 J-0.613
X107.335 Y176.729 I0.302 J0.098
G1 X107.486 Y176.778
X107.553 Y176.8 Z-6.542
X107.617 Y176.821 Z-6.519
X107.674 Y176.839 Z-6.481
X107.722 Y176.855 Z-6.43
X107.758 Y176.866 Z-6.37
X107.78 Y176.874 Z-6.303
X107.788 Y176.876 Z-6.233
G0 Z5.
X169.663 Y177.348
Z2.
G1 Z0.317 F1000.
G18 G2 X169.98 Z0. I0.318 K0.
G1 X170.139
G17 G3 X170.338 Y177.546 I0. J0.198
X169.544 Z-0.5 I-0.397 J0.
X170.338 Z-1. I0.397 J0.
X169.544 Z-1.5 I-0.397 J0.
X170.338 Z-2. I0.397 J0.
X169.544 Z-2.5 I-0.397 J0.
X170.338 Z-3. I0.397 J0.
X169.544 Z-3.5 I-0.397 J0.
X170.338 Z-4. I0.397 J0.
X169.544 Z-4.5 I-0.397 J0.
X170.338 Z-5. I0.397 J0.
X169.544 Z-5.5 I-0.397 J0.
X170.338 Z-6. I0.397 J0.
X169.879 Y177.938 Z-6.275 I-0.397 J0.
X169.563 Y177.423 Z-6.55 I0.062 J-0.392
X170.318 Y177.669 I0.377 J0.123
X169.563 Y177.423 I-0.377 J-0.123
X169.813 Y177.296 I0.189 J0.061
G1 X169.964 Y177.345
X170.031 Y177.367 Z-6.542
X170.095 Y177.388 Z-6.519
X170.152 Y177.406 Z-6.481
X170.2 Y177.422 Z-6.43
X170.236 Y177.433 Z-6.37
X170.259 Y177.441 Z-6.303
X170.266 Y177.443 Z-6.233
G0 Z5.
X171.131 Y177.228
Z2.
G1 Z0.317 F1000.
G18 G2 X171.449 Z0. I0.318 K0.
G1 X171.607
G17 G3 X171.925 Y177.546 I0. J0.317
X167.956 Z-0.5 I-1.984 J0.
X171.925 Z-1. I1.984 J0.
X167.956 Z-1.5 I-1.984 J0.
X171.925 Z-2. I1.984 J0.
X167.956 Z-2.5 I-1.984 J0.
X171.925 Z-3. I1.984 J0.
X167.956 Z-3.5 I-1.984 J0.
X171.925 Z-4. I1.984 J0.
X167.956 Z-4.5 I-1.984 J0.
X171.925 Z-5. I1.984 J0.
X167.956 Z-5.5 I-1.984 J0.
X171.925 Z-6. I1.984 J0.
X169.63 Y179.506 Z-6.275 I-1.984 J0.
X168.053 Y176.933 Z-6.55 I0.31 J-1.96
X171.828 Y178.159 I1.887 J0.613
X168.053 Y176.933 I-1.887 J-0.613
X168.453 Y176.729 I0.302 J0.098
G1 X168.604 Y176.778
X168.672 Y176.8 Z-6.542
X168.735 Y176.821 Z-6.519
X168.793 Y176.839 Z-6.481
X168.841 Y176.855 Z-6.43
X168.876 Y176.866 Z-6.37
X168.899 Y176.874 Z-6.303
X168.906 Y176.876 Z-6.233
G0 Z15.

(2D POCKET1)
G0 X140.08 Y177.546
Z15.
Z7.35
G1 Z-3.275 F800.
G3 X138.683 I-0.698 J0. F1000.
X143.096 I2.207 J0.
X135.667 I-3.715 J0.
X146.112 I5.223 J0.
X132.65 I-6.731 J0.
X149.129 I8.239 J0.
X129.634 I-9.747 J0.
X152.145 I11.255 J0.
X126.618 I-12.764 J0.
X152.145 I12.764 J0.
X150.367 Y179.077 I-1.548 J0.
G1 X140.31 Y177.563
X140.195 Y177.55
X140.08 Y177.546
Z-6.55 F800.
G3 X138.683 I-0.698 J0. F1000.
X143.096 I2.207 J0.
X135.667 I-3.715 J0.
X146.112 I5.223 J0.
X132.65 I-6.731 J0.
X149.129 I8.239 J0.
X129.634 I-9.747 J0.
X152.145 I11.255 J0.
X126.618 I-12.764 J0.
X152.145 I12.764 J0.
G0 Z15.

(2D POCKET2)
G0 X140.429 Y177.546
Z15.
Z5.
G1 Z2.5 F1000.
Z-1.984 F800.
G3 X141.35 I0.46 J0. F1000.
X137.413 I-1.968 J0.
X144.366 I3.477 J0.
X134.397 I-4.985 J0.
X147.382 I6.493 J0.
X131.38 I-8.001 J0.
X150.399 I9.509 J0.
X128.364 I-11.017 J0.
X153.415 I12.525 J0.
X125.348 I-14.034 J0.
X153.415 I14.034 J0.
G0 Z15.

(BORE1)
G0 X19.644 Y228.148
Z15.
Z2.
G1 Z0.317 F1000.
G18 G2 X19.962 Z0. I0.318 K0.
G1 X20.12
G17 G3 X20.319 Y228.346 I0. J0.198
X19.525 Z-0.5 I-0.397 J0.
X20.319 Z-1. I0.397 J0.
X19.525 Z-1.5 I-0.397 J0.
X20.319 Z-2. I0.397 J0.
X19.525 Z-2.5 I-0.397 J0.
X20.319 Z-3. I0.397 J0.
X19.525 Z-3.5 I-0.397 J0.
X20.319 Z-4. I0.397 J0.
X19.525 Z-4.5 I-0.397 J0.
X20.319 Z-5. I0.397 J0.
X19.525 Z-5.5 I-0.397 J0.
X20.319 Z-6. I0.397 J0.
X19.86 Y228.738 Z-6.275 I-0.397 J0.
X19.544 Y228.223 Z-6.55 I0.062 J-0.392
X20.299 Y228.469 I0.377 J0.123
X19.544 Y228.223 I-0.377 J-0.123
X19.794 Y228.096 I0.189 J0.061
G1 X19.945 Y228.145
X20.013 Y228.167 Z-6.542
X20.076 Y228.188 Z-6.519
X20.134 Y228.206 Z-6.481
X20.182 Y228.222 Z-6.43
X20.218 Y228.233 Z-6.37
X20.24 Y228.241 Z-6.303
X20.247 Y228.243 Z-6.233
G0 Z5.
X21.112 Y228.029
Z2.
G1 Z0.317 F1000.
G18 G2 X21.43 Z0. I0.318 K0.
G1 X21.589
G17 G3 X21.906 Y228.346 I0. J0.317
X17.938 Z-0.5 I-1.984 J0.
X21.906 Z-1. I1.984 J0.
X17.938 Z-1.5 I-1.984 J0.
X21.906 Z-2. I1.984 J0.
X17.938 Z-2.5 I-1.984 J0.
X21.906 Z-3. I1.984 J0.
X17.938 Z-3.5 I-1.984 J0.
X21.906 Z-4. I1.984 J0.
X17.938 Z-4.5 I-1.984 J0.
X21.906 Z-5. I1.984 J0.
X17.938 Z-5.5 I-1.984 J0.
X21.906 Z-6. I1.984 J0.
X19.611 Y230.306 Z-6.275 I-1.984 J0.
X18.035 Y227.733 Z-6.55 I0.31 J-1.96
X21.809 Y228.959 I1.887 J0.613
X18.035 Y227.733 I-1.887 J-0.613
X18.435 Y227.529 I0.302 J0.098
G1 X18.586 Y227.578
X18.653 Y227.6 Z-6.542
X18.717 Y227.621 Z-6.519
X18.774 Y227.639 Z-6.481
X18.822 Y227.655 Z-6.43
X18.858 Y227.666 Z-6.37
X18.88 Y227.674 Z-6.303
X18.888 Y227.676 Z-6.233
G0 Z5.
X80.763 Y228.148
Z2.
G1 Z0.317 F1000.
G18 G2 X81.08 Z0. I0.318 K0.
G1 X81.239
G17 G3 X81.438 Y228.346 I0. J0.198
X80.644 Z-0.5 I-0.397 J0.
X81.437 Z-1. I0.397 J0.
X80.644 Z-1.5 I-0.397 J0.
X81.437 Z-2. I0.397 J0.
X80.644 Z-2.5 I-0.397 J0.
X81.437 Z-3. I0.397 J0.
X80.644 Z-3.5 I-0.397 J0.
X81.437 Z-4. I0.397 J0.
X80.644 Z-4.5 I-0.397 J0.
X81.437 Z-5. I0.397 J0.
X80.644 Z-5.5 I-0.397 J0.
X81.437 Z-6. I0.397 J0.
X80.979 Y228.738 Z-6.275 I-0.397 J0.
X80.663 Y228.223 Z-6.55 I0.062 J-0.392
X81.418 Y228.469 I0.377 J0.123
X80.663 Y228.223 I-0.377 J-0.123
X80.913 Y228.096 I0.189 J0.061
G1 X81.064 Y228.145
X81.131 Y228.167 Z-6.542
X81.195 Y228.188 Z-6.519
X81.252 Y228.206 Z-6.481
X81.3 Y228.222 Z-6.43
X81.336 Y228.233 Z-6.37
X81.359 Y228.241 Z-6.303
X81.366 Y228.243 Z-6.233
G0 Z5.
X82.231 Y228.029
Z2.
G1 Z0.317 F1000.
G18 G2 X82.549 Z0. I0.318 K0.
G1 X82.707
G17 G3 X83.025 Y228.346 I0. J0.317
X79.056 Z-0.5 I-1.984 J0.
X83.025 Z-1. I1.984 J0.
X79.056 Z-1.5 I-1.984 J0.
X83.025 Z-2. I1.984 J0.
X79.056 Z-2.5 I-1.984 J0.
X83.025 Z-3. I1.984 J0.
X79.056 Z-3.5 I-1.984 J0.
X83.025 Z-4. I1.984 J0.
X79.056 Z-4.5 I-1.984 J0.
X83.025 Z-5. I1.984 J0.
X79.056 Z-5.5 I-1.984 J0.
X83.025 Z-6. I1.984 J0.
X80.73 Y230.306 Z-6.275 I-1.984 J0.
X79.153 Y227.733 Z-6.55 I0.31 J-1.96
X82.928 Y228.959 I1.887 J0.613
X79.153 Y227.733 I-1.887 J-0.613
X79.553 Y227.529 I0.302 J0.098
G1 X79.704 Y227.578
X79.772 Y227.6 Z-6.542
X79.835 Y227.621 Z-6.519
X79.893 Y227.639 Z-6.481
X79.941 Y227.655 Z-6.43
X79.976 Y227.666 Z-6.37
X79.999 Y227.674 Z-6.303
X80.006 Y227.676 Z-6.233
G0 Z15.

(2D POCKET1)
G0 X51.18 Y228.346
Z15.
Z7.35
G1 Z-3.275 F800.
G3 X49.783 I-0.698 J0. F1000.
X54.196 I2.207 J0.
X46.767 I-3.715 J0.
X57.212 I5.223 J0.
X43.75 I-6.731 J0.
X60.229 I8.239 J0.
X40.734 I-9.747 J0.
X63.245 I11.255 J0.
X37.718 I-12.764 J0.
X63.245 I12.764 J0.
X61.467 Y229.877 I-1.548 J0.
G1 X51.41 Y228.363
X51.295 Y228.35
X51.18 Y228.346
Z-6.55 F800.
G3 X49.783 I-0.698 J0. F1000.
X54.196 I2.207 J0.
X46.767 I-3.715 J0.
X57.212 I5.223 J0.
X43.75 I-6.731 J0.
X60.229 I8.239 J0.
X40.734 I-9.747 J0.
X63.245 I11.255 J0.
X37.718 I-12.764 J0.
X63.245 I12.764 J0.
G0 Z15.

(2D POCKET2)
G0 X51.529 Y228.346
Z15.
Z5.
G1 Z2.5 F1000.
Z-1.984 F800.
G3 X52.45 I0.46 J0. F1000.
X48.513 I-1.968 J0.
X55.466 I3.477 J0.
X45.497 I-4.985 J0.
X58.482 I6.493 J0.
X42.48 I-8.001 J0.
X61.499 I9.509 J0.
X39.464 I-11.017 J0.
X64.515 I12.525 J0.
X36.448 I-14.034 J0.
X64.515 I14.034 J0.
G0 Z15.

(BORE1)
G0 X108.544 Y228.148
Z15.
Z2.
G1 Z0.317 F1000.
G18 G2 X108.862 Z0. I0.318 K0.
G1 X109.02
G17 G3 X109.219 Y228.346 I0. J0.198
X108.425 Z-0.5 I-0.397 J0.
X109.219 Z-1. I0.397 J0.
X108.425 Z-1.5 I-0.397 J0.
X109.219 Z-2. I0.397 J0.
X108.425 Z-2.5 I-0.397 J0.
X109.219 Z-3. I0.397 J0.
X108.425 Z-3.5 I-0.397 J0.
X109.219 Z-4. I0.397 J0.
X108.425 Z-4.5 I-0.397 J0.
X109.219 Z-5. I0.397 J0.
X108.425 Z-5.5 I-0.397 J0.
X109.219 Z-6. I0.397 J0.
X108.76 Y228.738 Z-6.275 I-0.397 J0.
X108.444 Y228.223 Z-6.55 I0.062 J-0.392
X109.199 Y228.469 I0.377 J0.123
X108.444 Y228.223 I-0.377 J-0.123
X108.694 Y228.096 I0.189 J0.061
G1 X108.845 Y228.145
X108.913 Y228.167 Z-6.542
X108.976 Y228.188 Z-6.519
X109.034 Y228.206 Z-6.481
X109.082 Y228.222 Z-6.43
X109.118 Y228.233 Z-6.37
X109.14 Y228.241 Z-6.303
X109.147 Y228.243 Z-6.233
G0 Z5.
X110.013 Y228.029
Z2.
G1 Z0.317 F1000.
G18 G2 X110.33 Z0. I0.318 K0.
G1 X110.489
G17 G3 X110.806 Y228.346 I0. J0.317
X106.838 Z-0.5 I-1.984 J0.
X110.806 Z-1. I1.984 J0.
X106.838 Z-1.5 I-1.984 J0.
X110.806 Z-2. I1.984 J0.
X106.838 Z-2.5 I-1.984 J0.
X110.806 Z-3. I1.984 J0.
X106.838 Z-3.5 I-1.984 J0.
X110.806 Z-4. I1.984 J0.
X106.838 Z-4.5 I-1.984 J0.
X110.806 Z-5. I1.984 J0.
X106.838 Z-5.5 I-1.984 J0.
X110.806 Z-6. I1.984 J0.
X108.511 Y230.306 Z-6.275 I-1.984 J0.
X106.935 Y227.733 Z-6.55 I0.31 J-1.96
X110.709 Y228.959 I1.887 J0.613
X106.935 Y227.733 I-1.887 J-0.613
X107.335 Y227.529 I0.302 J0.098
G1 X107.486 Y227.578
X107.553 Y227.6 Z-6.542
X107.617 Y227.621 Z-6.519
X107.674 Y227.639 Z-6.481
X107.722 Y227.655 Z-6.43
X107.758 Y227.666 Z-6.37
X107.78 Y227.674 Z-6.303
X107.788 Y227.676 Z-6.233
G0 Z5.
X169.663 Y228.148
Z2.
G1 Z0.317 F1000.
G18 G2 X169.98 Z0. I0.318 K0.
G1 X170.139
G17 G3 X170.338 Y228.346 I0. J0.198
X169.544 Z-0.5 I-0.397 J0.
X170.338 Z-1. I0.397 J0.
X169.544 Z-1.5 I-0.397 J0.
X170.338 Z-2. I0.397 J0.
X169.544 Z-2.5 I-0.397 J0.
X170.338 Z-3. I0.397 J0.
X169.544 Z-3.5 I-0.397 J0.
X170.338 Z-4. I0.397 J0.
X169.544 Z-4.5 I-0.397 J0.
X170.338 Z-5. I0.397 J0.
X169.544 Z-5.5 I-0.397 J0.
X170.338 Z-6. I0.397 J0.
X169.879 Y228.738 Z-6.275 I-0.397 J0.
X169.563 Y228.223 Z-6.55 I0.062 J-0.392
X170.318 Y228.469 I0.377 J0.123
X169.563 Y228.223 I-0.377 J-0.123
X169.813 Y228.096 I0.189 J0.061
G1 X169.964 Y228.145
X170.031 Y228.167 Z-6.542
X170.095 Y228.188 Z-6.519
X170.152 Y228.206 Z-6.481
X170.2 Y228.222 Z-6.43
X170.236 Y228.233 Z-6.37
X170.259 Y228.241 Z-6.303
X170.266 Y228.243 Z-6.233
G0 Z5.
X171.131 Y228.029
Z2.
G1 Z0.317 F1000.
G18 G2 X171.449 Z0. I0.318 K0.
G1 X171.607
G17 G3 X171.925 Y228.346 I0. J0.317
X167.956 Z-0.5 I-1.984 J0.
X171.925 Z-1. I1.984 J0.
X167.956 Z-1.5 I-1.984 J0.
X171.925 Z-2. I1.984 J0.
X167.956 Z-2.5 I-1.984 J0.
X171.925 Z-3. I1.984 J0.
X167.956 Z-3.5 I-1.984 J0.
X171.925 Z-4. I1.984 J0.
X167.956 Z-4.5 I-1.984 J0.
X171.925 Z-5. I1.984 J0.
X167.956 Z-5.5 I-1.984 J0.
X171.925 Z-6. I1.984 J0.
X169.63 Y230.306 Z-6.275 I-1.984 J0.
X168.053 Y227.733 Z-6.55 I0.31 J-1.96
X171.828 Y228.959 I1.887 J0.613
X168.053 Y227.733 I-1.887 J-0.613
X168.453 Y227.529 I0.302 J0.098
G1 X168.604 Y227.578
X168.672 Y227.6 Z-6.542
X168.735 Y227.621 Z-6.519
X168.793 Y227.639 Z-6.481
X168.841 Y227.655 Z-6.43
X168.876 Y227.666 Z-6.37
X168.899 Y227.674 Z-6.303
X168.906 Y227.676 Z-6.233
G0 Z15.

(2D POCKET1)
G0 X140.08 Y228.346
Z15.
Z7.35
G1 Z-3.275 F800.
G3 X138.683 I-0.698 J0. F1000.
X143.096 I2.207 J0.
X135.667 I-3.715 J0.
X146.112 I5.223 J0.
X132.65 I-6.731 J0.
X149.129 I8.239 J0.
X129.634 I-9.747 J0.
X152.145 I11.255 J0.
X126.618 I-12.764 J0.
X152.145 I12.764 J0.
X150.367 Y229.877 I-1.548 J0.
G1 X140.31 Y228.363
X140.195 Y228.35
X140.08 Y228.346
Z-6.55 F800.
G3 X138.683 I-0.698 J0. F1000.
X143.096 I2.207 J0.
X135.667 I-3.715 J0.
X146.112 I5.223 J0.
X132.65 I-6.731 J0.
X149.129 I8.239 J0.
X129.634 I-9.747 J0.
X152.145 I11.255 J0.
X126.618 I-12.764 J0.
X152.145 I12.764 J0.
G0 Z15.

(2D POCKET2)
G0 X140.429 Y228.346
Z15.
Z5.
G1 Z2.5 F1000.
Z-1.984 F800.
G3 X141.35 I0.46 J0. F1000.
X137.413 I-1.968 J0.
X144.366 I3.477 J0.
X134.397 I-4.985 J0.
X147.382 I6.493 J0.
X131.38 I-8.001 J0.
X150.399 I9.509 J0.
X128.364 I-11.017 J0.
X153.415 I12.525 J0.
X125.348 I-14.034 J0.
X153.415 I14.034 J0.
G0 Z15.
M5
G0 Z15
G0 X0 Y0

M30
