(19.05.02.01.01 X8)
(T1  D=3.175 CR=0. - ZMIN=-3.675 - FLAT END MILL)
G90 G94 G91.1 G40 G49 G17
G21
G0 Z15

(BORE5)
M5
T1 M6
S15000 M3
G54
M8
G0 X45.93 Y64.667
G43 Z15. H1
Z4.
G1 Z2.318 F800.
G19 G2 Y64.35 Z2. J-0.317 K0.
G1 Y64.191
G17 G3 X46.247 Y63.874 I0.317 J0.
Y65.461 Z1.938 I0. J0.794
Y63.874 Z1.875 I0. J-0.794
Y65.461 Z1.813 I0. J0.794
Y63.874 Z1.75 I0. J-0.794
Y65.461 Z1.688 I0. J0.794
Y63.874 Z1.625 I0. J-0.794
Y65.461 Z1.563 I0. J0.794
Y63.874 Z1.5 I0. J-0.794
Y65.461 Z1.438 I0. J0.794
Y63.874 Z1.375 I0. J-0.794
Y65.461 Z1.313 I0. J0.794
Y63.874 Z1.25 I0. J-0.794
Y65.461 Z1.188 I0. J0.794
Y63.874 Z1.125 I0. J-0.794
Y65.461 Z1.063 I0. J0.794
Y63.874 Z1. I0. J-0.794
Y65.461 Z0.938 I0. J0.794
Y63.874 Z0.875 I0. J-0.794
Y65.461 Z0.813 I0. J0.794
Y63.874 Z0.75 I0. J-0.794
Y65.461 Z0.688 I0. J0.794
Y63.874 Z0.625 I0. J-0.794
Y65.461 Z0.563 I0. J0.794
Y63.874 Z0.5 I0. J-0.794
Y65.461 Z0.438 I0. J0.794
Y63.874 Z0.375 I0. J-0.794
Y65.461 Z0.313 I0. J0.794
Y63.874 Z0.25 I0. J-0.794
Y65.461 Z0.188 I0. J0.794
Y63.874 Z0.125 I0. J-0.794
Y65.461 Z0.063 I0. J0.794
Y63.874 Z0. I0. J-0.794
Y65.461 Z-0.062 I0. J0.794
Y63.874 Z-0.125 I0. J-0.794
Y65.461 Z-0.187 I0. J0.794
Y63.874 Z-0.25 I0. J-0.794
Y65.461 Z-0.312 I0. J0.794
Y63.874 Z-0.375 I0. J-0.794
Y65.461 Z-0.437 I0. J0.794
Y63.874 Z-0.5 I0. J-0.794
Y65.461 Z-0.562 I0. J0.794
Y63.874 Z-0.625 I0. J-0.794
Y65.461 Z-0.687 I0. J0.794
Y63.874 Z-0.75 I0. J-0.794
Y65.461 Z-0.812 I0. J0.794
Y63.874 Z-0.875 I0. J-0.794
Y65.461 Z-0.937 I0. J0.794
Y63.874 Z-1. I0. J-0.794
Y65.461 Z-1.062 I0. J0.794
Y63.874 Z-1.125 I0. J-0.794
Y65.461 Z-1.187 I0. J0.794
Y63.874 Z-1.25 I0. J-0.794
Y65.461 Z-1.312 I0. J0.794
Y63.874 Z-1.375 I0. J-0.794
Y65.461 Z-1.437 I0. J0.794
Y63.874 Z-1.5 I0. J-0.794
Y65.461 Z-1.562 I0. J0.794
Y63.874 Z-1.625 I0. J-0.794
Y65.461 Z-1.687 I0. J0.794
Y63.874 Z-1.75 I0. J-0.794
Y65.461 Z-1.812 I0. J0.794
Y63.874 Z-1.875 I0. J-0.794
Y65.461 Z-1.937 I0. J0.794
Y63.874 Z-2. I0. J-0.794
Y65.461 Z-2.062 I0. J0.794
Y63.874 Z-2.125 I0. J-0.794
Y65.461 Z-2.187 I0. J0.794
Y63.874 Z-2.25 I0. J-0.794
Y65.461 Z-2.312 I0. J0.794
Y63.874 Z-2.375 I0. J-0.794
Y65.461 Z-2.437 I0. J0.794
Y63.874 Z-2.5 I0. J-0.794
Y65.461 Z-2.562 I0. J0.794
Y63.874 Z-2.625 I0. J-0.794
Y65.461 Z-2.687 I0. J0.794
Y63.874 Z-2.75 I0. J-0.794
Y65.461 Z-2.812 I0. J0.794
Y63.874 Z-2.875 I0. J-0.794
Y65.461 Z-2.937 I0. J0.794
Y63.874 Z-3. I0. J-0.794
Y65.461 Z-3.062 I0. J0.794
Y63.874 Z-3.125 I0. J-0.794
Y65.461 Z-3.187 I0. J0.794
Y63.874 Z-3.25 I0. J-0.794
Y65.461 Z-3.312 I0. J0.794
Y63.874 Z-3.375 I0. J-0.794
Y65.461 Z-3.437 I0. J0.794
Y63.874 Z-3.5 I0. J-0.794
Y65.461 Z-3.562 I0. J0.794
Y63.874 Z-3.625 I0. J-0.794
X46.714 Y65.31 Z-3.675 I0. J0.794
X45.781 Y64.025 I-0.467 J-0.642
X46.714 Y65.31 I0.467 J0.642
X46.27 Y65.239 I-0.187 J-0.257
G1 X46.177 Y65.111
X46.136 Y65.054 Z-3.667
X46.096 Y64.999 Z-3.644
X46.061 Y64.951 Z-3.606
X46.031 Y64.91 Z-3.555
X46.009 Y64.879 Z-3.495
X45.995 Y64.86 Z-3.428
X45.991 Y64.854 Z-3.358
G0 Z5.
X71.33 Y64.667
Z4.
G1 Z2.318 F800.
G19 G2 Y64.35 Z2. J-0.317 K0.
G1 Y64.191
G17 G3 X71.647 Y63.874 I0.317 J0.
Y65.461 Z1.938 I0. J0.794
Y63.874 Z1.875 I0. J-0.794
Y65.461 Z1.813 I0. J0.794
Y63.874 Z1.75 I0. J-0.794
Y65.461 Z1.688 I0. J0.794
Y63.874 Z1.625 I0. J-0.794
Y65.461 Z1.563 I0. J0.794
Y63.874 Z1.5 I0. J-0.794
Y65.461 Z1.438 I0. J0.794
Y63.874 Z1.375 I0. J-0.794
Y65.461 Z1.313 I0. J0.794
Y63.874 Z1.25 I0. J-0.794
Y65.461 Z1.188 I0. J0.794
Y63.874 Z1.125 I0. J-0.794
Y65.461 Z1.063 I0. J0.794
Y63.874 Z1. I0. J-0.794
Y65.461 Z0.938 I0. J0.794
Y63.874 Z0.875 I0. J-0.794
Y65.461 Z0.813 I0. J0.794
Y63.874 Z0.75 I0. J-0.794
Y65.461 Z0.688 I0. J0.794
Y63.874 Z0.625 I0. J-0.794
Y65.461 Z0.563 I0. J0.794
Y63.874 Z0.5 I0. J-0.794
Y65.461 Z0.438 I0. J0.794
Y63.874 Z0.375 I0. J-0.794
Y65.461 Z0.313 I0. J0.794
Y63.874 Z0.25 I0. J-0.794
Y65.461 Z0.188 I0. J0.794
Y63.874 Z0.125 I0. J-0.794
Y65.461 Z0.063 I0. J0.794
Y63.874 Z0. I0. J-0.794
Y65.461 Z-0.062 I0. J0.794
Y63.874 Z-0.125 I0. J-0.794
Y65.461 Z-0.187 I0. J0.794
Y63.874 Z-0.25 I0. J-0.794
Y65.461 Z-0.312 I0. J0.794
Y63.874 Z-0.375 I0. J-0.794
Y65.461 Z-0.437 I0. J0.794
Y63.874 Z-0.5 I0. J-0.794
Y65.461 Z-0.562 I0. J0.794
Y63.874 Z-0.625 I0. J-0.794
Y65.461 Z-0.687 I0. J0.794
Y63.874 Z-0.75 I0. J-0.794
Y65.461 Z-0.812 I0. J0.794
Y63.874 Z-0.875 I0. J-0.794
Y65.461 Z-0.937 I0. J0.794
Y63.874 Z-1. I0. J-0.794
Y65.461 Z-1.062 I0. J0.794
Y63.874 Z-1.125 I0. J-0.794
Y65.461 Z-1.187 I0. J0.794
Y63.874 Z-1.25 I0. J-0.794
Y65.461 Z-1.312 I0. J0.794
Y63.874 Z-1.375 I0. J-0.794
Y65.461 Z-1.437 I0. J0.794
Y63.874 Z-1.5 I0. J-0.794
Y65.461 Z-1.562 I0. J0.794
Y63.874 Z-1.625 I0. J-0.794
Y65.461 Z-1.687 I0. J0.794
Y63.874 Z-1.75 I0. J-0.794
Y65.461 Z-1.812 I0. J0.794
Y63.874 Z-1.875 I0. J-0.794
Y65.461 Z-1.937 I0. J0.794
Y63.874 Z-2. I0. J-0.794
Y65.461 Z-2.062 I0. J0.794
Y63.874 Z-2.125 I0. J-0.794
Y65.461 Z-2.187 I0. J0.794
Y63.874 Z-2.25 I0. J-0.794
Y65.461 Z-2.312 I0. J0.794
Y63.874 Z-2.375 I0. J-0.794
Y65.461 Z-2.437 I0. J0.794
Y63.874 Z-2.5 I0. J-0.794
Y65.461 Z-2.562 I0. J0.794
Y63.874 Z-2.625 I0. J-0.794
Y65.461 Z-2.687 I0. J0.794
Y63.874 Z-2.75 I0. J-0.794
Y65.461 Z-2.812 I0. J0.794
Y63.874 Z-2.875 I0. J-0.794
Y65.461 Z-2.937 I0. J0.794
Y63.874 Z-3. I0. J-0.794
Y65.461 Z-3.062 I0. J0.794
Y63.874 Z-3.125 I0. J-0.794
Y65.461 Z-3.187 I0. J0.794
Y63.874 Z-3.25 I0. J-0.794
Y65.461 Z-3.312 I0. J0.794
Y63.874 Z-3.375 I0. J-0.794
Y65.461 Z-3.437 I0. J0.794
Y63.874 Z-3.5 I0. J-0.794
Y65.461 Z-3.562 I0. J0.794
Y63.874 Z-3.625 I0. J-0.794
X72.114 Y65.31 Z-3.675 I0. J0.794
X71.181 Y64.025 I-0.467 J-0.642
X72.114 Y65.31 I0.467 J0.642
X71.67 Y65.239 I-0.187 J-0.257
G1 X71.577 Y65.111
X71.536 Y65.054 Z-3.667
X71.496 Y64.999 Z-3.644
X71.461 Y64.951 Z-3.606
X71.431 Y64.91 Z-3.555
X71.409 Y64.879 Z-3.495
X71.395 Y64.86 Z-3.428
X71.391 Y64.854 Z-3.358
G0 Z5.
X96.73 Y39.267
Z4.
G1 Z2.318 F800.
G19 G2 Y38.95 Z2. J-0.318 K0.
G1 Y38.791
G17 G3 X97.047 Y38.474 I0.318 J0.
Y40.061 Z1.938 I0. J0.794
Y38.474 Z1.875 I0. J-0.794
Y40.061 Z1.813 I0. J0.794
Y38.474 Z1.75 I0. J-0.794
Y40.061 Z1.688 I0. J0.794
Y38.474 Z1.625 I0. J-0.794
Y40.061 Z1.563 I0. J0.794
Y38.474 Z1.5 I0. J-0.794
Y40.061 Z1.438 I0. J0.794
Y38.474 Z1.375 I0. J-0.794
Y40.061 Z1.313 I0. J0.794
Y38.474 Z1.25 I0. J-0.794
Y40.061 Z1.188 I0. J0.794
Y38.474 Z1.125 I0. J-0.794
Y40.061 Z1.063 I0. J0.794
Y38.474 Z1. I0. J-0.794
Y40.061 Z0.938 I0. J0.794
Y38.474 Z0.875 I0. J-0.794
Y40.061 Z0.813 I0. J0.794
Y38.474 Z0.75 I0. J-0.794
Y40.061 Z0.688 I0. J0.794
Y38.474 Z0.625 I0. J-0.794
Y40.061 Z0.563 I0. J0.794
Y38.474 Z0.5 I0. J-0.794
Y40.061 Z0.438 I0. J0.794
Y38.474 Z0.375 I0. J-0.794
Y40.061 Z0.313 I0. J0.794
Y38.474 Z0.25 I0. J-0.794
Y40.061 Z0.188 I0. J0.794
Y38.474 Z0.125 I0. J-0.794
Y40.061 Z0.063 I0. J0.794
Y38.474 Z0. I0. J-0.794
Y40.061 Z-0.062 I0. J0.794
Y38.474 Z-0.125 I0. J-0.794
Y40.061 Z-0.187 I0. J0.794
Y38.474 Z-0.25 I0. J-0.794
Y40.061 Z-0.312 I0. J0.794
Y38.474 Z-0.375 I0. J-0.794
Y40.061 Z-0.437 I0. J0.794
Y38.474 Z-0.5 I0. J-0.794
Y40.061 Z-0.562 I0. J0.794
Y38.474 Z-0.625 I0. J-0.794
Y40.061 Z-0.687 I0. J0.794
Y38.474 Z-0.75 I0. J-0.794
Y40.061 Z-0.812 I0. J0.794
Y38.474 Z-0.875 I0. J-0.794
Y40.061 Z-0.937 I0. J0.794
Y38.474 Z-1. I0. J-0.794
Y40.061 Z-1.062 I0. J0.794
Y38.474 Z-1.125 I0. J-0.794
Y40.061 Z-1.187 I0. J0.794
Y38.474 Z-1.25 I0. J-0.794
Y40.061 Z-1.312 I0. J0.794
Y38.474 Z-1.375 I0. J-0.794
Y40.061 Z-1.437 I0. J0.794
Y38.474 Z-1.5 I0. J-0.794
Y40.061 Z-1.562 I0. J0.794
Y38.474 Z-1.625 I0. J-0.794
Y40.061 Z-1.687 I0. J0.794
Y38.474 Z-1.75 I0. J-0.794
Y40.061 Z-1.812 I0. J0.794
Y38.474 Z-1.875 I0. J-0.794
Y40.061 Z-1.937 I0. J0.794
Y38.474 Z-2. I0. J-0.794
Y40.061 Z-2.062 I0. J0.794
Y38.474 Z-2.125 I0. J-0.794
Y40.061 Z-2.187 I0. J0.794
Y38.474 Z-2.25 I0. J-0.794
Y40.061 Z-2.312 I0. J0.794
Y38.474 Z-2.375 I0. J-0.794
Y40.061 Z-2.437 I0. J0.794
Y38.474 Z-2.5 I0. J-0.794
Y40.061 Z-2.562 I0. J0.794
Y38.474 Z-2.625 I0. J-0.794
Y40.061 Z-2.687 I0. J0.794
Y38.474 Z-2.75 I0. J-0.794
Y40.061 Z-2.812 I0. J0.794
Y38.474 Z-2.875 I0. J-0.794
Y40.061 Z-2.937 I0. J0.794
Y38.474 Z-3. I0. J-0.794
Y40.061 Z-3.062 I0. J0.794
Y38.474 Z-3.125 I0. J-0.794
Y40.061 Z-3.187 I0. J0.794
Y38.474 Z-3.25 I0. J-0.794
Y40.061 Z-3.312 I0. J0.794
Y38.474 Z-3.375 I0. J-0.794
Y40.061 Z-3.437 I0. J0.794
Y38.474 Z-3.5 I0. J-0.794
Y40.061 Z-3.562 I0. J0.794
Y38.474 Z-3.625 I0. J-0.794
X97.514 Y39.91 Z-3.675 I0. J0.794
X96.581 Y38.625 I-0.467 J-0.642
X97.514 Y39.91 I0.467 J0.642
X97.07 Y39.839 I-0.187 J-0.257
G1 X96.977 Y39.711
X96.936 Y39.654 Z-3.667
X96.896 Y39.599 Z-3.644
X96.861 Y39.551 Z-3.606
X96.831 Y39.51 Z-3.555
X96.809 Y39.479 Z-3.495
X96.795 Y39.46 Z-3.428
X96.791 Y39.454 Z-3.358
G0 Z5.
X96.73 Y13.867
Z4.
G1 Z2.318 F800.
G19 G2 Y13.55 Z2. J-0.318 K0.
G1 Y13.391
G17 G3 X97.047 Y13.074 I0.318 J0.
Y14.661 Z1.938 I0. J0.794
Y13.074 Z1.875 I0. J-0.794
Y14.661 Z1.813 I0. J0.794
Y13.074 Z1.75 I0. J-0.794
Y14.661 Z1.688 I0. J0.794
Y13.074 Z1.625 I0. J-0.794
Y14.661 Z1.563 I0. J0.794
Y13.074 Z1.5 I0. J-0.794
Y14.661 Z1.438 I0. J0.794
Y13.074 Z1.375 I0. J-0.794
Y14.661 Z1.313 I0. J0.794
Y13.074 Z1.25 I0. J-0.794
Y14.661 Z1.188 I0. J0.794
Y13.074 Z1.125 I0. J-0.794
Y14.661 Z1.063 I0. J0.794
Y13.074 Z1. I0. J-0.794
Y14.661 Z0.938 I0. J0.794
Y13.074 Z0.875 I0. J-0.794
Y14.661 Z0.813 I0. J0.794
Y13.074 Z0.75 I0. J-0.794
Y14.661 Z0.688 I0. J0.794
Y13.074 Z0.625 I0. J-0.794
Y14.661 Z0.563 I0. J0.794
Y13.074 Z0.5 I0. J-0.794
Y14.661 Z0.438 I0. J0.794
Y13.074 Z0.375 I0. J-0.794
Y14.661 Z0.313 I0. J0.794
Y13.074 Z0.25 I0. J-0.794
Y14.661 Z0.188 I0. J0.794
Y13.074 Z0.125 I0. J-0.794
Y14.661 Z0.063 I0. J0.794
Y13.074 Z0. I0. J-0.794
Y14.661 Z-0.062 I0. J0.794
Y13.074 Z-0.125 I0. J-0.794
Y14.661 Z-0.187 I0. J0.794
Y13.074 Z-0.25 I0. J-0.794
Y14.661 Z-0.312 I0. J0.794
Y13.074 Z-0.375 I0. J-0.794
Y14.661 Z-0.437 I0. J0.794
Y13.074 Z-0.5 I0. J-0.794
Y14.661 Z-0.562 I0. J0.794
Y13.074 Z-0.625 I0. J-0.794
Y14.661 Z-0.687 I0. J0.794
Y13.074 Z-0.75 I0. J-0.794
Y14.661 Z-0.812 I0. J0.794
Y13.074 Z-0.875 I0. J-0.794
Y14.661 Z-0.937 I0. J0.794
Y13.074 Z-1. I0. J-0.794
Y14.661 Z-1.062 I0. J0.794
Y13.074 Z-1.125 I0. J-0.794
Y14.661 Z-1.187 I0. J0.794
Y13.074 Z-1.25 I0. J-0.794
Y14.661 Z-1.312 I0. J0.794
Y13.074 Z-1.375 I0. J-0.794
Y14.661 Z-1.437 I0. J0.794
Y13.074 Z-1.5 I0. J-0.794
Y14.661 Z-1.562 I0. J0.794
Y13.074 Z-1.625 I0. J-0.794
Y14.661 Z-1.687 I0. J0.794
Y13.074 Z-1.75 I0. J-0.794
Y14.661 Z-1.812 I0. J0.794
Y13.074 Z-1.875 I0. J-0.794
Y14.661 Z-1.937 I0. J0.794
Y13.074 Z-2. I0. J-0.794
Y14.661 Z-2.062 I0. J0.794
Y13.074 Z-2.125 I0. J-0.794
Y14.661 Z-2.187 I0. J0.794
Y13.074 Z-2.25 I0. J-0.794
Y14.661 Z-2.312 I0. J0.794
Y13.074 Z-2.375 I0. J-0.794
Y14.661 Z-2.437 I0. J0.794
Y13.074 Z-2.5 I0. J-0.794
Y14.661 Z-2.562 I0. J0.794
Y13.074 Z-2.625 I0. J-0.794
Y14.661 Z-2.687 I0. J0.794
Y13.074 Z-2.75 I0. J-0.794
Y14.661 Z-2.812 I0. J0.794
Y13.074 Z-2.875 I0. J-0.794
Y14.661 Z-2.937 I0. J0.794
Y13.074 Z-3. I0. J-0.794
Y14.661 Z-3.062 I0. J0.794
Y13.074 Z-3.125 I0. J-0.794
Y14.661 Z-3.187 I0. J0.794
Y13.074 Z-3.25 I0. J-0.794
Y14.661 Z-3.312 I0. J0.794
Y13.074 Z-3.375 I0. J-0.794
Y14.661 Z-3.437 I0. J0.794
Y13.074 Z-3.5 I0. J-0.794
Y14.661 Z-3.562 I0. J0.794
Y13.074 Z-3.625 I0. J-0.794
X97.514 Y14.51 Z-3.675 I0. J0.794
X96.581 Y13.225 I-0.467 J-0.642
X97.514 Y14.51 I0.467 J0.642
X97.07 Y14.439 I-0.187 J-0.257
G1 X96.977 Y14.311
X96.936 Y14.254 Z-3.667
X96.896 Y14.199 Z-3.644
X96.861 Y14.151 Z-3.606
X96.831 Y14.11 Z-3.555
X96.809 Y14.079 Z-3.495
X96.795 Y14.06 Z-3.428
X96.791 Y14.054 Z-3.358
G0 Z15.

(BORE5)
G0 X64.818 Y13.7
Z15.
Z4.
G1 Z2.318 F800.
G19 G3 Y14.018 Z2. J0.317 K0.
G1 Y14.176
G17 G3 X64.5 Y14.494 I-0.317 J0.
Y12.906 Z1.938 I0. J-0.794
Y14.494 Z1.875 I0. J0.794
Y12.906 Z1.813 I0. J-0.794
Y14.494 Z1.75 I0. J0.794
Y12.906 Z1.688 I0. J-0.794
Y14.494 Z1.625 I0. J0.794
Y12.906 Z1.563 I0. J-0.794
Y14.494 Z1.5 I0. J0.794
Y12.906 Z1.438 I0. J-0.794
Y14.494 Z1.375 I0. J0.794
Y12.906 Z1.313 I0. J-0.794
Y14.494 Z1.25 I0. J0.794
Y12.906 Z1.188 I0. J-0.794
Y14.494 Z1.125 I0. J0.794
Y12.906 Z1.063 I0. J-0.794
Y14.494 Z1. I0. J0.794
Y12.906 Z0.938 I0. J-0.794
Y14.494 Z0.875 I0. J0.794
Y12.906 Z0.813 I0. J-0.794
Y14.494 Z0.75 I0. J0.794
Y12.906 Z0.688 I0. J-0.794
Y14.494 Z0.625 I0. J0.794
Y12.906 Z0.563 I0. J-0.794
Y14.494 Z0.5 I0. J0.794
Y12.906 Z0.438 I0. J-0.794
Y14.494 Z0.375 I0. J0.794
Y12.906 Z0.313 I0. J-0.794
Y14.494 Z0.25 I0. J0.794
Y12.906 Z0.188 I0. J-0.794
Y14.494 Z0.125 I0. J0.794
Y12.906 Z0.063 I0. J-0.794
Y14.494 Z0. I0. J0.794
Y12.906 Z-0.062 I0. J-0.794
Y14.494 Z-0.125 I0. J0.794
Y12.906 Z-0.187 I0. J-0.794
Y14.494 Z-0.25 I0. J0.794
Y12.906 Z-0.312 I0. J-0.794
Y14.494 Z-0.375 I0. J0.794
Y12.906 Z-0.437 I0. J-0.794
Y14.494 Z-0.5 I0. J0.794
Y12.906 Z-0.562 I0. J-0.794
Y14.494 Z-0.625 I0. J0.794
Y12.906 Z-0.687 I0. J-0.794
Y14.494 Z-0.75 I0. J0.794
Y12.906 Z-0.812 I0. J-0.794
Y14.494 Z-0.875 I0. J0.794
Y12.906 Z-0.937 I0. J-0.794
Y14.494 Z-1. I0. J0.794
Y12.906 Z-1.062 I0. J-0.794
Y14.494 Z-1.125 I0. J0.794
Y12.906 Z-1.187 I0. J-0.794
Y14.494 Z-1.25 I0. J0.794
Y12.906 Z-1.312 I0. J-0.794
Y14.494 Z-1.375 I0. J0.794
Y12.906 Z-1.437 I0. J-0.794
Y14.494 Z-1.5 I0. J0.794
Y12.906 Z-1.562 I0. J-0.794
Y14.494 Z-1.625 I0. J0.794
Y12.906 Z-1.687 I0. J-0.794
Y14.494 Z-1.75 I0. J0.794
Y12.906 Z-1.812 I0. J-0.794
Y14.494 Z-1.875 I0. J0.794
Y12.906 Z-1.937 I0. J-0.794
Y14.494 Z-2. I0. J0.794
Y12.906 Z-2.062 I0. J-0.794
Y14.494 Z-2.125 I0. J0.794
Y12.906 Z-2.187 I0. J-0.794
Y14.494 Z-2.25 I0. J0.794
Y12.906 Z-2.312 I0. J-0.794
Y14.494 Z-2.375 I0. J0.794
Y12.906 Z-2.437 I0. J-0.794
Y14.494 Z-2.5 I0. J0.794
Y12.906 Z-2.562 I0. J-0.794
Y14.494 Z-2.625 I0. J0.794
Y12.906 Z-2.687 I0. J-0.794
Y14.494 Z-2.75 I0. J0.794
Y12.906 Z-2.812 I0. J-0.794
Y14.494 Z-2.875 I0. J0.794
Y12.906 Z-2.937 I0. J-0.794
Y14.494 Z-3. I0. J0.794
Y12.906 Z-3.062 I0. J-0.794
Y14.494 Z-3.125 I0. J0.794
Y12.906 Z-3.187 I0. J-0.794
Y14.494 Z-3.25 I0. J0.794
Y12.906 Z-3.312 I0. J-0.794
Y14.494 Z-3.375 I0. J0.794
Y12.906 Z-3.437 I0. J-0.794
Y14.494 Z-3.5 I0. J0.794
Y12.906 Z-3.562 I0. J-0.794
Y14.494 Z-3.625 I0. J0.794
X64.033 Y13.058 Z-3.675 I0. J-0.794
X64.967 Y14.342 I0.467 J0.642
X64.033 Y13.058 I-0.467 J-0.642
X64.477 Y13.128 I0.187 J0.257
G1 X64.57 Y13.257
X64.612 Y13.314 Z-3.667
X64.651 Y13.368 Z-3.644
X64.687 Y13.417 Z-3.606
X64.716 Y13.457 Z-3.555
X64.738 Y13.488 Z-3.495
X64.752 Y13.507 Z-3.428
X64.757 Y13.513 Z-3.358
G0 Z5.
X39.417 Y13.7
Z4.
G1 Z2.318 F800.
G19 G3 Y14.018 Z2. J0.317 K0.
G1 Y14.176
G17 G3 X39.1 Y14.494 I-0.317 J0.
Y12.906 Z1.938 I0. J-0.794
Y14.494 Z1.875 I0. J0.794
Y12.906 Z1.813 I0. J-0.794
Y14.494 Z1.75 I0. J0.794
Y12.906 Z1.688 I0. J-0.794
Y14.494 Z1.625 I0. J0.794
Y12.906 Z1.563 I0. J-0.794
Y14.494 Z1.5 I0. J0.794
Y12.906 Z1.438 I0. J-0.794
Y14.494 Z1.375 I0. J0.794
Y12.906 Z1.313 I0. J-0.794
Y14.494 Z1.25 I0. J0.794
Y12.906 Z1.188 I0. J-0.794
Y14.494 Z1.125 I0. J0.794
Y12.906 Z1.063 I0. J-0.794
Y14.494 Z1. I0. J0.794
Y12.906 Z0.938 I0. J-0.794
Y14.494 Z0.875 I0. J0.794
Y12.906 Z0.813 I0. J-0.794
Y14.494 Z0.75 I0. J0.794
Y12.906 Z0.688 I0. J-0.794
Y14.494 Z0.625 I0. J0.794
Y12.906 Z0.563 I0. J-0.794
Y14.494 Z0.5 I0. J0.794
Y12.906 Z0.438 I0. J-0.794
Y14.494 Z0.375 I0. J0.794
Y12.906 Z0.313 I0. J-0.794
Y14.494 Z0.25 I0. J0.794
Y12.906 Z0.188 I0. J-0.794
Y14.494 Z0.125 I0. J0.794
Y12.906 Z0.063 I0. J-0.794
Y14.494 Z0. I0. J0.794
Y12.906 Z-0.062 I0. J-0.794
Y14.494 Z-0.125 I0. J0.794
Y12.906 Z-0.187 I0. J-0.794
Y14.494 Z-0.25 I0. J0.794
Y12.906 Z-0.312 I0. J-0.794
Y14.494 Z-0.375 I0. J0.794
Y12.906 Z-0.437 I0. J-0.794
Y14.494 Z-0.5 I0. J0.794
Y12.906 Z-0.562 I0. J-0.794
Y14.494 Z-0.625 I0. J0.794
Y12.906 Z-0.687 I0. J-0.794
Y14.494 Z-0.75 I0. J0.794
Y12.906 Z-0.812 I0. J-0.794
Y14.494 Z-0.875 I0. J0.794
Y12.906 Z-0.937 I0. J-0.794
Y14.494 Z-1. I0. J0.794
Y12.906 Z-1.062 I0. J-0.794
Y14.494 Z-1.125 I0. J0.794
Y12.906 Z-1.187 I0. J-0.794
Y14.494 Z-1.25 I0. J0.794
Y12.906 Z-1.312 I0. J-0.794
Y14.494 Z-1.375 I0. J0.794
Y12.906 Z-1.437 I0. J-0.794
Y14.494 Z-1.5 I0. J0.794
Y12.906 Z-1.562 I0. J-0.794
Y14.494 Z-1.625 I0. J0.794
Y12.906 Z-1.687 I0. J-0.794
Y14.494 Z-1.75 I0. J0.794
Y12.906 Z-1.812 I0. J-0.794
Y14.494 Z-1.875 I0. J0.794
Y12.906 Z-1.937 I0. J-0.794
Y14.494 Z-2. I0. J0.794
Y12.906 Z-2.062 I0. J-0.794
Y14.494 Z-2.125 I0. J0.794
Y12.906 Z-2.187 I0. J-0.794
Y14.494 Z-2.25 I0. J0.794
Y12.906 Z-2.312 I0. J-0.794
Y14.494 Z-2.375 I0. J0.794
Y12.906 Z-2.437 I0. J-0.794
Y14.494 Z-2.5 I0. J0.794
Y12.906 Z-2.562 I0. J-0.794
Y14.494 Z-2.625 I0. J0.794
Y12.906 Z-2.687 I0. J-0.794
Y14.494 Z-2.75 I0. J0.794
Y12.906 Z-2.812 I0. J-0.794
Y14.494 Z-2.875 I0. J0.794
Y12.906 Z-2.937 I0. J-0.794
Y14.494 Z-3. I0. J0.794
Y12.906 Z-3.062 I0. J-0.794
Y14.494 Z-3.125 I0. J0.794
Y12.906 Z-3.187 I0. J-0.794
Y14.494 Z-3.25 I0. J0.794
Y12.906 Z-3.312 I0. J-0.794
Y14.494 Z-3.375 I0. J0.794
Y12.906 Z-3.437 I0. J-0.794
Y14.494 Z-3.5 I0. J0.794
Y12.906 Z-3.562 I0. J-0.794
Y14.494 Z-3.625 I0. J0.794
X38.633 Y13.058 Z-3.675 I0. J-0.794
X39.567 Y14.342 I0.467 J0.642
X38.633 Y13.058 I-0.467 J-0.642
X39.077 Y13.128 I0.187 J0.257
G1 X39.17 Y13.257
X39.212 Y13.314 Z-3.667
X39.251 Y13.368 Z-3.644
X39.287 Y13.417 Z-3.606
X39.316 Y13.457 Z-3.555
X39.338 Y13.488 Z-3.495
X39.352 Y13.507 Z-3.428
X39.357 Y13.513 Z-3.358
G0 Z5.
X14.018 Y39.1
Z4.
G1 Z2.318 F800.
G19 G3 Y39.418 Z2. J0.318 K0.
G1 Y39.576
G17 G3 X13.7 Y39.894 I-0.318 J0.
Y38.306 Z1.938 I0. J-0.794
Y39.894 Z1.875 I0. J0.794
Y38.306 Z1.813 I0. J-0.794
Y39.894 Z1.75 I0. J0.794
Y38.306 Z1.688 I0. J-0.794
Y39.894 Z1.625 I0. J0.794
Y38.306 Z1.563 I0. J-0.794
Y39.894 Z1.5 I0. J0.794
Y38.306 Z1.438 I0. J-0.794
Y39.894 Z1.375 I0. J0.794
Y38.306 Z1.313 I0. J-0.794
Y39.894 Z1.25 I0. J0.794
Y38.306 Z1.188 I0. J-0.794
Y39.894 Z1.125 I0. J0.794
Y38.306 Z1.063 I0. J-0.794
Y39.894 Z1. I0. J0.794
Y38.306 Z0.938 I0. J-0.794
Y39.894 Z0.875 I0. J0.794
Y38.306 Z0.813 I0. J-0.794
Y39.894 Z0.75 I0. J0.794
Y38.306 Z0.688 I0. J-0.794
Y39.894 Z0.625 I0. J0.794
Y38.306 Z0.563 I0. J-0.794
Y39.894 Z0.5 I0. J0.794
Y38.306 Z0.438 I0. J-0.794
Y39.894 Z0.375 I0. J0.794
Y38.306 Z0.313 I0. J-0.794
Y39.894 Z0.25 I0. J0.794
Y38.306 Z0.188 I0. J-0.794
Y39.894 Z0.125 I0. J0.794
Y38.306 Z0.063 I0. J-0.794
Y39.894 Z0. I0. J0.794
Y38.306 Z-0.062 I0. J-0.794
Y39.894 Z-0.125 I0. J0.794
Y38.306 Z-0.187 I0. J-0.794
Y39.894 Z-0.25 I0. J0.794
Y38.306 Z-0.312 I0. J-0.794
Y39.894 Z-0.375 I0. J0.794
Y38.306 Z-0.437 I0. J-0.794
Y39.894 Z-0.5 I0. J0.794
Y38.306 Z-0.562 I0. J-0.794
Y39.894 Z-0.625 I0. J0.794
Y38.306 Z-0.687 I0. J-0.794
Y39.894 Z-0.75 I0. J0.794
Y38.306 Z-0.812 I0. J-0.794
Y39.894 Z-0.875 I0. J0.794
Y38.306 Z-0.937 I0. J-0.794
Y39.894 Z-1. I0. J0.794
Y38.306 Z-1.062 I0. J-0.794
Y39.894 Z-1.125 I0. J0.794
Y38.306 Z-1.187 I0. J-0.794
Y39.894 Z-1.25 I0. J0.794
Y38.306 Z-1.312 I0. J-0.794
Y39.894 Z-1.375 I0. J0.794
Y38.306 Z-1.437 I0. J-0.794
Y39.894 Z-1.5 I0. J0.794
Y38.306 Z-1.562 I0. J-0.794
Y39.894 Z-1.625 I0. J0.794
Y38.306 Z-1.687 I0. J-0.794
Y39.894 Z-1.75 I0. J0.794
Y38.306 Z-1.812 I0. J-0.794
Y39.894 Z-1.875 I0. J0.794
Y38.306 Z-1.937 I0. J-0.794
Y39.894 Z-2. I0. J0.794
Y38.306 Z-2.062 I0. J-0.794
Y39.894 Z-2.125 I0. J0.794
Y38.306 Z-2.187 I0. J-0.794
Y39.894 Z-2.25 I0. J0.794
Y38.306 Z-2.312 I0. J-0.794
Y39.894 Z-2.375 I0. J0.794
Y38.306 Z-2.437 I0. J-0.794
Y39.894 Z-2.5 I0. J0.794
Y38.306 Z-2.562 I0. J-0.794
Y39.894 Z-2.625 I0. J0.794
Y38.306 Z-2.687 I0. J-0.794
Y39.894 Z-2.75 I0. J0.794
Y38.306 Z-2.812 I0. J-0.794
Y39.894 Z-2.875 I0. J0.794
Y38.306 Z-2.937 I0. J-0.794
Y39.894 Z-3. I0. J0.794
Y38.306 Z-3.062 I0. J-0.794
Y39.894 Z-3.125 I0. J0.794
Y38.306 Z-3.187 I0. J-0.794
Y39.894 Z-3.25 I0. J0.794
Y38.306 Z-3.312 I0. J-0.794
Y39.894 Z-3.375 I0. J0.794
Y38.306 Z-3.437 I0. J-0.794
Y39.894 Z-3.5 I0. J0.794
Y38.306 Z-3.562 I0. J-0.794
Y39.894 Z-3.625 I0. J0.794
X13.233 Y38.458 Z-3.675 I0. J-0.794
X14.167 Y39.742 I0.467 J0.642
X13.233 Y38.458 I-0.467 J-0.642
X13.677 Y38.528 I0.187 J0.257
G1 X13.77 Y38.657
X13.812 Y38.714 Z-3.667
X13.851 Y38.768 Z-3.644
X13.887 Y38.817 Z-3.606
X13.916 Y38.857 Z-3.555
X13.938 Y38.888 Z-3.495
X13.952 Y38.907 Z-3.428
X13.957 Y38.913 Z-3.358
G0 Z5.
X14.018 Y64.5
Z4.
G1 Z2.318 F800.
G19 G3 Y64.818 Z2. J0.318 K0.
G1 Y64.976
G17 G3 X13.7 Y65.294 I-0.318 J0.
Y63.706 Z1.938 I0. J-0.794
Y65.294 Z1.875 I0. J0.794
Y63.706 Z1.813 I0. J-0.794
Y65.294 Z1.75 I0. J0.794
Y63.706 Z1.688 I0. J-0.794
Y65.294 Z1.625 I0. J0.794
Y63.706 Z1.563 I0. J-0.794
Y65.294 Z1.5 I0. J0.794
Y63.706 Z1.438 I0. J-0.794
Y65.294 Z1.375 I0. J0.794
Y63.706 Z1.313 I0. J-0.794
Y65.294 Z1.25 I0. J0.794
Y63.706 Z1.188 I0. J-0.794
Y65.294 Z1.125 I0. J0.794
Y63.706 Z1.063 I0. J-0.794
Y65.294 Z1. I0. J0.794
Y63.706 Z0.938 I0. J-0.794
Y65.294 Z0.875 I0. J0.794
Y63.706 Z0.813 I0. J-0.794
Y65.294 Z0.75 I0. J0.794
Y63.706 Z0.688 I0. J-0.794
Y65.294 Z0.625 I0. J0.794
Y63.706 Z0.563 I0. J-0.794
Y65.294 Z0.5 I0. J0.794
Y63.706 Z0.438 I0. J-0.794
Y65.294 Z0.375 I0. J0.794
Y63.706 Z0.313 I0. J-0.794
Y65.294 Z0.25 I0. J0.794
Y63.706 Z0.188 I0. J-0.794
Y65.294 Z0.125 I0. J0.794
Y63.706 Z0.063 I0. J-0.794
Y65.294 Z0. I0. J0.794
Y63.706 Z-0.062 I0. J-0.794
Y65.294 Z-0.125 I0. J0.794
Y63.706 Z-0.187 I0. J-0.794
Y65.294 Z-0.25 I0. J0.794
Y63.706 Z-0.312 I0. J-0.794
Y65.294 Z-0.375 I0. J0.794
Y63.706 Z-0.437 I0. J-0.794
Y65.294 Z-0.5 I0. J0.794
Y63.706 Z-0.562 I0. J-0.794
Y65.294 Z-0.625 I0. J0.794
Y63.706 Z-0.687 I0. J-0.794
Y65.294 Z-0.75 I0. J0.794
Y63.706 Z-0.812 I0. J-0.794
Y65.294 Z-0.875 I0. J0.794
Y63.706 Z-0.937 I0. J-0.794
Y65.294 Z-1. I0. J0.794
Y63.706 Z-1.062 I0. J-0.794
Y65.294 Z-1.125 I0. J0.794
Y63.706 Z-1.187 I0. J-0.794
Y65.294 Z-1.25 I0. J0.794
Y63.706 Z-1.312 I0. J-0.794
Y65.294 Z-1.375 I0. J0.794
Y63.706 Z-1.437 I0. J-0.794
Y65.294 Z-1.5 I0. J0.794
Y63.706 Z-1.562 I0. J-0.794
Y65.294 Z-1.625 I0. J0.794
Y63.706 Z-1.687 I0. J-0.794
Y65.294 Z-1.75 I0. J0.794
Y63.706 Z-1.812 I0. J-0.794
Y65.294 Z-1.875 I0. J0.794
Y63.706 Z-1.937 I0. J-0.794
Y65.294 Z-2. I0. J0.794
Y63.706 Z-2.062 I0. J-0.794
Y65.294 Z-2.125 I0. J0.794
Y63.706 Z-2.187 I0. J-0.794
Y65.294 Z-2.25 I0. J0.794
Y63.706 Z-2.312 I0. J-0.794
Y65.294 Z-2.375 I0. J0.794
Y63.706 Z-2.437 I0. J-0.794
Y65.294 Z-2.5 I0. J0.794
Y63.706 Z-2.562 I0. J-0.794
Y65.294 Z-2.625 I0. J0.794
Y63.706 Z-2.687 I0. J-0.794
Y65.294 Z-2.75 I0. J0.794
Y63.706 Z-2.812 I0. J-0.794
Y65.294 Z-2.875 I0. J0.794
Y63.706 Z-2.937 I0. J-0.794
Y65.294 Z-3. I0. J0.794
Y63.706 Z-3.062 I0. J-0.794
Y65.294 Z-3.125 I0. J0.794
Y63.706 Z-3.187 I0. J-0.794
Y65.294 Z-3.25 I0. J0.794
Y63.706 Z-3.312 I0. J-0.794
Y65.294 Z-3.375 I0. J0.794
Y63.706 Z-3.437 I0. J-0.794
Y65.294 Z-3.5 I0. J0.794
Y63.706 Z-3.562 I0. J-0.794
Y65.294 Z-3.625 I0. J0.794
X13.233 Y63.858 Z-3.675 I0. J-0.794
X14.167 Y65.142 I0.467 J0.642
X13.233 Y63.858 I-0.467 J-0.642
X13.677 Y63.928 I0.187 J0.257
G1 X13.77 Y64.057
X13.812 Y64.114 Z-3.667
X13.851 Y64.168 Z-3.644
X13.887 Y64.217 Z-3.606
X13.916 Y64.257 Z-3.555
X13.938 Y64.288 Z-3.495
X13.952 Y64.307 Z-3.428
X13.957 Y64.313 Z-3.358
G0 Z15.

(BORE5)
G0 X181.658 Y13.7
Z15.
Z4.
G1 Z2.318 F800.
G19 G3 Y14.018 Z2. J0.317 K0.
G1 Y14.176
G17 G3 X181.34 Y14.494 I-0.317 J0.
Y12.906 Z1.938 I0. J-0.794
Y14.494 Z1.875 I0. J0.794
Y12.906 Z1.813 I0. J-0.794
Y14.494 Z1.75 I0. J0.794
Y12.906 Z1.688 I0. J-0.794
Y14.494 Z1.625 I0. J0.794
Y12.906 Z1.563 I0. J-0.794
Y14.494 Z1.5 I0. J0.794
Y12.906 Z1.438 I0. J-0.794
Y14.494 Z1.375 I0. J0.794
Y12.906 Z1.313 I0. J-0.794
Y14.494 Z1.25 I0. J0.794
Y12.906 Z1.188 I0. J-0.794
Y14.494 Z1.125 I0. J0.794
Y12.906 Z1.063 I0. J-0.794
Y14.494 Z1. I0. J0.794
Y12.906 Z0.938 I0. J-0.794
Y14.494 Z0.875 I0. J0.794
Y12.906 Z0.813 I0. J-0.794
Y14.494 Z0.75 I0. J0.794
Y12.906 Z0.688 I0. J-0.794
Y14.494 Z0.625 I0. J0.794
Y12.906 Z0.563 I0. J-0.794
Y14.494 Z0.5 I0. J0.794
Y12.906 Z0.438 I0. J-0.794
Y14.494 Z0.375 I0. J0.794
Y12.906 Z0.313 I0. J-0.794
Y14.494 Z0.25 I0. J0.794
Y12.906 Z0.188 I0. J-0.794
Y14.494 Z0.125 I0. J0.794
Y12.906 Z0.063 I0. J-0.794
Y14.494 Z0. I0. J0.794
Y12.906 Z-0.062 I0. J-0.794
Y14.494 Z-0.125 I0. J0.794
Y12.906 Z-0.187 I0. J-0.794
Y14.494 Z-0.25 I0. J0.794
Y12.906 Z-0.312 I0. J-0.794
Y14.494 Z-0.375 I0. J0.794
Y12.906 Z-0.437 I0. J-0.794
Y14.494 Z-0.5 I0. J0.794
Y12.906 Z-0.562 I0. J-0.794
Y14.494 Z-0.625 I0. J0.794
Y12.906 Z-0.687 I0. J-0.794
Y14.494 Z-0.75 I0. J0.794
Y12.906 Z-0.812 I0. J-0.794
Y14.494 Z-0.875 I0. J0.794
Y12.906 Z-0.937 I0. J-0.794
Y14.494 Z-1. I0. J0.794
Y12.906 Z-1.062 I0. J-0.794
Y14.494 Z-1.125 I0. J0.794
Y12.906 Z-1.187 I0. J-0.794
Y14.494 Z-1.25 I0. J0.794
Y12.906 Z-1.312 I0. J-0.794
Y14.494 Z-1.375 I0. J0.794
Y12.906 Z-1.437 I0. J-0.794
Y14.494 Z-1.5 I0. J0.794
Y12.906 Z-1.562 I0. J-0.794
Y14.494 Z-1.625 I0. J0.794
Y12.906 Z-1.687 I0. J-0.794
Y14.494 Z-1.75 I0. J0.794
Y12.906 Z-1.812 I0. J-0.794
Y14.494 Z-1.875 I0. J0.794
Y12.906 Z-1.937 I0. J-0.794
Y14.494 Z-2. I0. J0.794
Y12.906 Z-2.062 I0. J-0.794
Y14.494 Z-2.125 I0. J0.794
Y12.906 Z-2.187 I0. J-0.794
Y14.494 Z-2.25 I0. J0.794
Y12.906 Z-2.312 I0. J-0.794
Y14.494 Z-2.375 I0. J0.794
Y12.906 Z-2.437 I0. J-0.794
Y14.494 Z-2.5 I0. J0.794
Y12.906 Z-2.562 I0. J-0.794
Y14.494 Z-2.625 I0. J0.794
Y12.906 Z-2.687 I0. J-0.794
Y14.494 Z-2.75 I0. J0.794
Y12.906 Z-2.812 I0. J-0.794
Y14.494 Z-2.875 I0. J0.794
Y12.906 Z-2.937 I0. J-0.794
Y14.494 Z-3. I0. J0.794
Y12.906 Z-3.062 I0. J-0.794
Y14.494 Z-3.125 I0. J0.794
Y12.906 Z-3.187 I0. J-0.794
Y14.494 Z-3.25 I0. J0.794
Y12.906 Z-3.312 I0. J-0.794
Y14.494 Z-3.375 I0. J0.794
Y12.906 Z-3.437 I0. J-0.794
Y14.494 Z-3.5 I0. J0.794
Y12.906 Z-3.562 I0. J-0.794
Y14.494 Z-3.625 I0. J0.794
X180.873 Y13.058 Z-3.675 I0. J-0.794
X181.807 Y14.342 I0.467 J0.642
X180.873 Y13.058 I-0.467 J-0.642
X181.317 Y13.128 I0.187 J0.257
G1 X181.41 Y13.257
X181.452 Y13.314 Z-3.667
X181.491 Y13.368 Z-3.644
X181.527 Y13.417 Z-3.606
X181.556 Y13.457 Z-3.555
X181.578 Y13.488 Z-3.495
X181.592 Y13.507 Z-3.428
X181.597 Y13.513 Z-3.358
G0 Z5.
X156.257 Y13.7
Z4.
G1 Z2.318 F800.
G19 G3 Y14.018 Z2. J0.317 K0.
G1 Y14.176
G17 G3 X155.94 Y14.494 I-0.317 J0.
Y12.906 Z1.938 I0. J-0.794
Y14.494 Z1.875 I0. J0.794
Y12.906 Z1.813 I0. J-0.794
Y14.494 Z1.75 I0. J0.794
Y12.906 Z1.688 I0. J-0.794
Y14.494 Z1.625 I0. J0.794
Y12.906 Z1.563 I0. J-0.794
Y14.494 Z1.5 I0. J0.794
Y12.906 Z1.438 I0. J-0.794
Y14.494 Z1.375 I0. J0.794
Y12.906 Z1.313 I0. J-0.794
Y14.494 Z1.25 I0. J0.794
Y12.906 Z1.188 I0. J-0.794
Y14.494 Z1.125 I0. J0.794
Y12.906 Z1.063 I0. J-0.794
Y14.494 Z1. I0. J0.794
Y12.906 Z0.938 I0. J-0.794
Y14.494 Z0.875 I0. J0.794
Y12.906 Z0.813 I0. J-0.794
Y14.494 Z0.75 I0. J0.794
Y12.906 Z0.688 I0. J-0.794
Y14.494 Z0.625 I0. J0.794
Y12.906 Z0.563 I0. J-0.794
Y14.494 Z0.5 I0. J0.794
Y12.906 Z0.438 I0. J-0.794
Y14.494 Z0.375 I0. J0.794
Y12.906 Z0.313 I0. J-0.794
Y14.494 Z0.25 I0. J0.794
Y12.906 Z0.188 I0. J-0.794
Y14.494 Z0.125 I0. J0.794
Y12.906 Z0.063 I0. J-0.794
Y14.494 Z0. I0. J0.794
Y12.906 Z-0.062 I0. J-0.794
Y14.494 Z-0.125 I0. J0.794
Y12.906 Z-0.187 I0. J-0.794
Y14.494 Z-0.25 I0. J0.794
Y12.906 Z-0.312 I0. J-0.794
Y14.494 Z-0.375 I0. J0.794
Y12.906 Z-0.437 I0. J-0.794
Y14.494 Z-0.5 I0. J0.794
Y12.906 Z-0.562 I0. J-0.794
Y14.494 Z-0.625 I0. J0.794
Y12.906 Z-0.687 I0. J-0.794
Y14.494 Z-0.75 I0. J0.794
Y12.906 Z-0.812 I0. J-0.794
Y14.494 Z-0.875 I0. J0.794
Y12.906 Z-0.937 I0. J-0.794
Y14.494 Z-1. I0. J0.794
Y12.906 Z-1.062 I0. J-0.794
Y14.494 Z-1.125 I0. J0.794
Y12.906 Z-1.187 I0. J-0.794
Y14.494 Z-1.25 I0. J0.794
Y12.906 Z-1.312 I0. J-0.794
Y14.494 Z-1.375 I0. J0.794
Y12.906 Z-1.437 I0. J-0.794
Y14.494 Z-1.5 I0. J0.794
Y12.906 Z-1.562 I0. J-0.794
Y14.494 Z-1.625 I0. J0.794
Y12.906 Z-1.687 I0. J-0.794
Y14.494 Z-1.75 I0. J0.794
Y12.906 Z-1.812 I0. J-0.794
Y14.494 Z-1.875 I0. J0.794
Y12.906 Z-1.937 I0. J-0.794
Y14.494 Z-2. I0. J0.794
Y12.906 Z-2.062 I0. J-0.794
Y14.494 Z-2.125 I0. J0.794
Y12.906 Z-2.187 I0. J-0.794
Y14.494 Z-2.25 I0. J0.794
Y12.906 Z-2.312 I0. J-0.794
Y14.494 Z-2.375 I0. J0.794
Y12.906 Z-2.437 I0. J-0.794
Y14.494 Z-2.5 I0. J0.794
Y12.906 Z-2.562 I0. J-0.794
Y14.494 Z-2.625 I0. J0.794
Y12.906 Z-2.687 I0. J-0.794
Y14.494 Z-2.75 I0. J0.794
Y12.906 Z-2.812 I0. J-0.794
Y14.494 Z-2.875 I0. J0.794
Y12.906 Z-2.937 I0. J-0.794
Y14.494 Z-3. I0. J0.794
Y12.906 Z-3.062 I0. J-0.794
Y14.494 Z-3.125 I0. J0.794
Y12.906 Z-3.187 I0. J-0.794
Y14.494 Z-3.25 I0. J0.794
Y12.906 Z-3.312 I0. J-0.794
Y14.494 Z-3.375 I0. J0.794
Y12.906 Z-3.437 I0. J-0.794
Y14.494 Z-3.5 I0. J0.794
Y12.906 Z-3.562 I0. J-0.794
Y14.494 Z-3.625 I0. J0.794
X155.473 Y13.058 Z-3.675 I0. J-0.794
X156.407 Y14.342 I0.467 J0.642
X155.473 Y13.058 I-0.467 J-0.642
X155.917 Y13.128 I0.187 J0.257
G1 X156.01 Y13.257
X156.052 Y13.314 Z-3.667
X156.091 Y13.368 Z-3.644
X156.127 Y13.417 Z-3.606
X156.156 Y13.457 Z-3.555
X156.178 Y13.488 Z-3.495
X156.192 Y13.507 Z-3.428
X156.197 Y13.513 Z-3.358
G0 Z5.
X130.858 Y39.1
Z4.
G1 Z2.318 F800.
G19 G3 Y39.418 Z2. J0.318 K0.
G1 Y39.576
G17 G3 X130.54 Y39.894 I-0.318 J0.
Y38.306 Z1.938 I0. J-0.794
Y39.894 Z1.875 I0. J0.794
Y38.306 Z1.813 I0. J-0.794
Y39.894 Z1.75 I0. J0.794
Y38.306 Z1.688 I0. J-0.794
Y39.894 Z1.625 I0. J0.794
Y38.306 Z1.563 I0. J-0.794
Y39.894 Z1.5 I0. J0.794
Y38.306 Z1.438 I0. J-0.794
Y39.894 Z1.375 I0. J0.794
Y38.306 Z1.313 I0. J-0.794
Y39.894 Z1.25 I0. J0.794
Y38.306 Z1.188 I0. J-0.794
Y39.894 Z1.125 I0. J0.794
Y38.306 Z1.063 I0. J-0.794
Y39.894 Z1. I0. J0.794
Y38.306 Z0.938 I0. J-0.794
Y39.894 Z0.875 I0. J0.794
Y38.306 Z0.813 I0. J-0.794
Y39.894 Z0.75 I0. J0.794
Y38.306 Z0.688 I0. J-0.794
Y39.894 Z0.625 I0. J0.794
Y38.306 Z0.563 I0. J-0.794
Y39.894 Z0.5 I0. J0.794
Y38.306 Z0.438 I0. J-0.794
Y39.894 Z0.375 I0. J0.794
Y38.306 Z0.313 I0. J-0.794
Y39.894 Z0.25 I0. J0.794
Y38.306 Z0.188 I0. J-0.794
Y39.894 Z0.125 I0. J0.794
Y38.306 Z0.063 I0. J-0.794
Y39.894 Z0. I0. J0.794
Y38.306 Z-0.062 I0. J-0.794
Y39.894 Z-0.125 I0. J0.794
Y38.306 Z-0.187 I0. J-0.794
Y39.894 Z-0.25 I0. J0.794
Y38.306 Z-0.312 I0. J-0.794
Y39.894 Z-0.375 I0. J0.794
Y38.306 Z-0.437 I0. J-0.794
Y39.894 Z-0.5 I0. J0.794
Y38.306 Z-0.562 I0. J-0.794
Y39.894 Z-0.625 I0. J0.794
Y38.306 Z-0.687 I0. J-0.794
Y39.894 Z-0.75 I0. J0.794
Y38.306 Z-0.812 I0. J-0.794
Y39.894 Z-0.875 I0. J0.794
Y38.306 Z-0.937 I0. J-0.794
Y39.894 Z-1. I0. J0.794
Y38.306 Z-1.062 I0. J-0.794
Y39.894 Z-1.125 I0. J0.794
Y38.306 Z-1.187 I0. J-0.794
Y39.894 Z-1.25 I0. J0.794
Y38.306 Z-1.312 I0. J-0.794
Y39.894 Z-1.375 I0. J0.794
Y38.306 Z-1.437 I0. J-0.794
Y39.894 Z-1.5 I0. J0.794
Y38.306 Z-1.562 I0. J-0.794
Y39.894 Z-1.625 I0. J0.794
Y38.306 Z-1.687 I0. J-0.794
Y39.894 Z-1.75 I0. J0.794
Y38.306 Z-1.812 I0. J-0.794
Y39.894 Z-1.875 I0. J0.794
Y38.306 Z-1.937 I0. J-0.794
Y39.894 Z-2. I0. J0.794
Y38.306 Z-2.062 I0. J-0.794
Y39.894 Z-2.125 I0. J0.794
Y38.306 Z-2.187 I0. J-0.794
Y39.894 Z-2.25 I0. J0.794
Y38.306 Z-2.312 I0. J-0.794
Y39.894 Z-2.375 I0. J0.794
Y38.306 Z-2.437 I0. J-0.794
Y39.894 Z-2.5 I0. J0.794
Y38.306 Z-2.562 I0. J-0.794
Y39.894 Z-2.625 I0. J0.794
Y38.306 Z-2.687 I0. J-0.794
Y39.894 Z-2.75 I0. J0.794
Y38.306 Z-2.812 I0. J-0.794
Y39.894 Z-2.875 I0. J0.794
Y38.306 Z-2.937 I0. J-0.794
Y39.894 Z-3. I0. J0.794
Y38.306 Z-3.062 I0. J-0.794
Y39.894 Z-3.125 I0. J0.794
Y38.306 Z-3.187 I0. J-0.794
Y39.894 Z-3.25 I0. J0.794
Y38.306 Z-3.312 I0. J-0.794
Y39.894 Z-3.375 I0. J0.794
Y38.306 Z-3.437 I0. J-0.794
Y39.894 Z-3.5 I0. J0.794
Y38.306 Z-3.562 I0. J-0.794
Y39.894 Z-3.625 I0. J0.794
X130.073 Y38.458 Z-3.675 I0. J-0.794
X131.007 Y39.742 I0.467 J0.642
X130.073 Y38.458 I-0.467 J-0.642
X130.517 Y38.528 I0.187 J0.257
G1 X130.61 Y38.657
X130.652 Y38.714 Z-3.667
X130.691 Y38.768 Z-3.644
X130.727 Y38.817 Z-3.606
X130.756 Y38.857 Z-3.555
X130.778 Y38.888 Z-3.495
X130.792 Y38.907 Z-3.428
X130.797 Y38.913 Z-3.358
G0 Z5.
X130.858 Y64.5
Z4.
G1 Z2.318 F800.
G19 G3 Y64.818 Z2. J0.318 K0.
G1 Y64.976
G17 G3 X130.54 Y65.294 I-0.318 J0.
Y63.706 Z1.938 I0. J-0.794
Y65.294 Z1.875 I0. J0.794
Y63.706 Z1.813 I0. J-0.794
Y65.294 Z1.75 I0. J0.794
Y63.706 Z1.688 I0. J-0.794
Y65.294 Z1.625 I0. J0.794
Y63.706 Z1.563 I0. J-0.794
Y65.294 Z1.5 I0. J0.794
Y63.706 Z1.438 I0. J-0.794
Y65.294 Z1.375 I0. J0.794
Y63.706 Z1.313 I0. J-0.794
Y65.294 Z1.25 I0. J0.794
Y63.706 Z1.188 I0. J-0.794
Y65.294 Z1.125 I0. J0.794
Y63.706 Z1.063 I0. J-0.794
Y65.294 Z1. I0. J0.794
Y63.706 Z0.938 I0. J-0.794
Y65.294 Z0.875 I0. J0.794
Y63.706 Z0.813 I0. J-0.794
Y65.294 Z0.75 I0. J0.794
Y63.706 Z0.688 I0. J-0.794
Y65.294 Z0.625 I0. J0.794
Y63.706 Z0.563 I0. J-0.794
Y65.294 Z0.5 I0. J0.794
Y63.706 Z0.438 I0. J-0.794
Y65.294 Z0.375 I0. J0.794
Y63.706 Z0.313 I0. J-0.794
Y65.294 Z0.25 I0. J0.794
Y63.706 Z0.188 I0. J-0.794
Y65.294 Z0.125 I0. J0.794
Y63.706 Z0.063 I0. J-0.794
Y65.294 Z0. I0. J0.794
Y63.706 Z-0.062 I0. J-0.794
Y65.294 Z-0.125 I0. J0.794
Y63.706 Z-0.187 I0. J-0.794
Y65.294 Z-0.25 I0. J0.794
Y63.706 Z-0.312 I0. J-0.794
Y65.294 Z-0.375 I0. J0.794
Y63.706 Z-0.437 I0. J-0.794
Y65.294 Z-0.5 I0. J0.794
Y63.706 Z-0.562 I0. J-0.794
Y65.294 Z-0.625 I0. J0.794
Y63.706 Z-0.687 I0. J-0.794
Y65.294 Z-0.75 I0. J0.794
Y63.706 Z-0.812 I0. J-0.794
Y65.294 Z-0.875 I0. J0.794
Y63.706 Z-0.937 I0. J-0.794
Y65.294 Z-1. I0. J0.794
Y63.706 Z-1.062 I0. J-0.794
Y65.294 Z-1.125 I0. J0.794
Y63.706 Z-1.187 I0. J-0.794
Y65.294 Z-1.25 I0. J0.794
Y63.706 Z-1.312 I0. J-0.794
Y65.294 Z-1.375 I0. J0.794
Y63.706 Z-1.437 I0. J-0.794
Y65.294 Z-1.5 I0. J0.794
Y63.706 Z-1.562 I0. J-0.794
Y65.294 Z-1.625 I0. J0.794
Y63.706 Z-1.687 I0. J-0.794
Y65.294 Z-1.75 I0. J0.794
Y63.706 Z-1.812 I0. J-0.794
Y65.294 Z-1.875 I0. J0.794
Y63.706 Z-1.937 I0. J-0.794
Y65.294 Z-2. I0. J0.794
Y63.706 Z-2.062 I0. J-0.794
Y65.294 Z-2.125 I0. J0.794
Y63.706 Z-2.187 I0. J-0.794
Y65.294 Z-2.25 I0. J0.794
Y63.706 Z-2.312 I0. J-0.794
Y65.294 Z-2.375 I0. J0.794
Y63.706 Z-2.437 I0. J-0.794
Y65.294 Z-2.5 I0. J0.794
Y63.706 Z-2.562 I0. J-0.794
Y65.294 Z-2.625 I0. J0.794
Y63.706 Z-2.687 I0. J-0.794
Y65.294 Z-2.75 I0. J0.794
Y63.706 Z-2.812 I0. J-0.794
Y65.294 Z-2.875 I0. J0.794
Y63.706 Z-2.937 I0. J-0.794
Y65.294 Z-3. I0. J0.794
Y63.706 Z-3.062 I0. J-0.794
Y65.294 Z-3.125 I0. J0.794
Y63.706 Z-3.187 I0. J-0.794
Y65.294 Z-3.25 I0. J0.794
Y63.706 Z-3.312 I0. J-0.794
Y65.294 Z-3.375 I0. J0.794
Y63.706 Z-3.437 I0. J-0.794
Y65.294 Z-3.5 I0. J0.794
Y63.706 Z-3.562 I0. J-0.794
Y65.294 Z-3.625 I0. J0.794
X130.073 Y63.858 Z-3.675 I0. J-0.794
X131.007 Y65.142 I0.467 J0.642
X130.073 Y63.858 I-0.467 J-0.642
X130.517 Y63.928 I0.187 J0.257
G1 X130.61 Y64.057
X130.652 Y64.114 Z-3.667
X130.691 Y64.168 Z-3.644
X130.727 Y64.217 Z-3.606
X130.756 Y64.257 Z-3.555
X130.778 Y64.288 Z-3.495
X130.792 Y64.307 Z-3.428
X130.797 Y64.313 Z-3.358
G0 Z15.

(BORE5)
G0 X162.77 Y64.667
Z15.
Z4.
G1 Z2.318 F800.
G19 G2 Y64.35 Z2. J-0.317 K0.
G1 Y64.191
G17 G3 X163.087 Y63.874 I0.317 J0.
Y65.461 Z1.938 I0. J0.794
Y63.874 Z1.875 I0. J-0.794
Y65.461 Z1.813 I0. J0.794
Y63.874 Z1.75 I0. J-0.794
Y65.461 Z1.688 I0. J0.794
Y63.874 Z1.625 I0. J-0.794
Y65.461 Z1.563 I0. J0.794
Y63.874 Z1.5 I0. J-0.794
Y65.461 Z1.438 I0. J0.794
Y63.874 Z1.375 I0. J-0.794
Y65.461 Z1.313 I0. J0.794
Y63.874 Z1.25 I0. J-0.794
Y65.461 Z1.188 I0. J0.794
Y63.874 Z1.125 I0. J-0.794
Y65.461 Z1.063 I0. J0.794
Y63.874 Z1. I0. J-0.794
Y65.461 Z0.938 I0. J0.794
Y63.874 Z0.875 I0. J-0.794
Y65.461 Z0.813 I0. J0.794
Y63.874 Z0.75 I0. J-0.794
Y65.461 Z0.688 I0. J0.794
Y63.874 Z0.625 I0. J-0.794
Y65.461 Z0.563 I0. J0.794
Y63.874 Z0.5 I0. J-0.794
Y65.461 Z0.438 I0. J0.794
Y63.874 Z0.375 I0. J-0.794
Y65.461 Z0.313 I0. J0.794
Y63.874 Z0.25 I0. J-0.794
Y65.461 Z0.188 I0. J0.794
Y63.874 Z0.125 I0. J-0.794
Y65.461 Z0.063 I0. J0.794
Y63.874 Z0. I0. J-0.794
Y65.461 Z-0.062 I0. J0.794
Y63.874 Z-0.125 I0. J-0.794
Y65.461 Z-0.187 I0. J0.794
Y63.874 Z-0.25 I0. J-0.794
Y65.461 Z-0.312 I0. J0.794
Y63.874 Z-0.375 I0. J-0.794
Y65.461 Z-0.437 I0. J0.794
Y63.874 Z-0.5 I0. J-0.794
Y65.461 Z-0.562 I0. J0.794
Y63.874 Z-0.625 I0. J-0.794
Y65.461 Z-0.687 I0. J0.794
Y63.874 Z-0.75 I0. J-0.794
Y65.461 Z-0.812 I0. J0.794
Y63.874 Z-0.875 I0. J-0.794
Y65.461 Z-0.937 I0. J0.794
Y63.874 Z-1. I0. J-0.794
Y65.461 Z-1.062 I0. J0.794
Y63.874 Z-1.125 I0. J-0.794
Y65.461 Z-1.187 I0. J0.794
Y63.874 Z-1.25 I0. J-0.794
Y65.461 Z-1.312 I0. J0.794
Y63.874 Z-1.375 I0. J-0.794
Y65.461 Z-1.437 I0. J0.794
Y63.874 Z-1.5 I0. J-0.794
Y65.461 Z-1.562 I0. J0.794
Y63.874 Z-1.625 I0. J-0.794
Y65.461 Z-1.687 I0. J0.794
Y63.874 Z-1.75 I0. J-0.794
Y65.461 Z-1.812 I0. J0.794
Y63.874 Z-1.875 I0. J-0.794
Y65.461 Z-1.937 I0. J0.794
Y63.874 Z-2. I0. J-0.794
Y65.461 Z-2.062 I0. J0.794
Y63.874 Z-2.125 I0. J-0.794
Y65.461 Z-2.187 I0. J0.794
Y63.874 Z-2.25 I0. J-0.794
Y65.461 Z-2.312 I0. J0.794
Y63.874 Z-2.375 I0. J-0.794
Y65.461 Z-2.437 I0. J0.794
Y63.874 Z-2.5 I0. J-0.794
Y65.461 Z-2.562 I0. J0.794
Y63.874 Z-2.625 I0. J-0.794
Y65.461 Z-2.687 I0. J0.794
Y63.874 Z-2.75 I0. J-0.794
Y65.461 Z-2.812 I0. J0.794
Y63.874 Z-2.875 I0. J-0.794
Y65.461 Z-2.937 I0. J0.794
Y63.874 Z-3. I0. J-0.794
Y65.461 Z-3.062 I0. J0.794
Y63.874 Z-3.125 I0. J-0.794
Y65.461 Z-3.187 I0. J0.794
Y63.874 Z-3.25 I0. J-0.794
Y65.461 Z-3.312 I0. J0.794
Y63.874 Z-3.375 I0. J-0.794
Y65.461 Z-3.437 I0. J0.794
Y63.874 Z-3.5 I0. J-0.794
Y65.461 Z-3.562 I0. J0.794
Y63.874 Z-3.625 I0. J-0.794
X163.554 Y65.31 Z-3.675 I0. J0.794
X162.621 Y64.025 I-0.467 J-0.642
X163.554 Y65.31 I0.467 J0.642
X163.11 Y65.239 I-0.187 J-0.257
G1 X163.017 Y65.111
X162.976 Y65.054 Z-3.667
X162.936 Y64.999 Z-3.644
X162.901 Y64.951 Z-3.606
X162.871 Y64.91 Z-3.555
X162.849 Y64.879 Z-3.495
X162.835 Y64.86 Z-3.428
X162.831 Y64.854 Z-3.358
G0 Z5.
X188.17 Y64.667
Z4.
G1 Z2.318 F800.
G19 G2 Y64.35 Z2. J-0.317 K0.
G1 Y64.191
G17 G3 X188.487 Y63.874 I0.317 J0.
Y65.461 Z1.938 I0. J0.794
Y63.874 Z1.875 I0. J-0.794
Y65.461 Z1.813 I0. J0.794
Y63.874 Z1.75 I0. J-0.794
Y65.461 Z1.688 I0. J0.794
Y63.874 Z1.625 I0. J-0.794
Y65.461 Z1.563 I0. J0.794
Y63.874 Z1.5 I0. J-0.794
Y65.461 Z1.438 I0. J0.794
Y63.874 Z1.375 I0. J-0.794
Y65.461 Z1.313 I0. J0.794
Y63.874 Z1.25 I0. J-0.794
Y65.461 Z1.188 I0. J0.794
Y63.874 Z1.125 I0. J-0.794
Y65.461 Z1.063 I0. J0.794
Y63.874 Z1. I0. J-0.794
Y65.461 Z0.938 I0. J0.794
Y63.874 Z0.875 I0. J-0.794
Y65.461 Z0.813 I0. J0.794
Y63.874 Z0.75 I0. J-0.794
Y65.461 Z0.688 I0. J0.794
Y63.874 Z0.625 I0. J-0.794
Y65.461 Z0.563 I0. J0.794
Y63.874 Z0.5 I0. J-0.794
Y65.461 Z0.438 I0. J0.794
Y63.874 Z0.375 I0. J-0.794
Y65.461 Z0.313 I0. J0.794
Y63.874 Z0.25 I0. J-0.794
Y65.461 Z0.188 I0. J0.794
Y63.874 Z0.125 I0. J-0.794
Y65.461 Z0.063 I0. J0.794
Y63.874 Z0. I0. J-0.794
Y65.461 Z-0.062 I0. J0.794
Y63.874 Z-0.125 I0. J-0.794
Y65.461 Z-0.187 I0. J0.794
Y63.874 Z-0.25 I0. J-0.794
Y65.461 Z-0.312 I0. J0.794
Y63.874 Z-0.375 I0. J-0.794
Y65.461 Z-0.437 I0. J0.794
Y63.874 Z-0.5 I0. J-0.794
Y65.461 Z-0.562 I0. J0.794
Y63.874 Z-0.625 I0. J-0.794
Y65.461 Z-0.687 I0. J0.794
Y63.874 Z-0.75 I0. J-0.794
Y65.461 Z-0.812 I0. J0.794
Y63.874 Z-0.875 I0. J-0.794
Y65.461 Z-0.937 I0. J0.794
Y63.874 Z-1. I0. J-0.794
Y65.461 Z-1.062 I0. J0.794
Y63.874 Z-1.125 I0. J-0.794
Y65.461 Z-1.187 I0. J0.794
Y63.874 Z-1.25 I0. J-0.794
Y65.461 Z-1.312 I0. J0.794
Y63.874 Z-1.375 I0. J-0.794
Y65.461 Z-1.437 I0. J0.794
Y63.874 Z-1.5 I0. J-0.794
Y65.461 Z-1.562 I0. J0.794
Y63.874 Z-1.625 I0. J-0.794
Y65.461 Z-1.687 I0. J0.794
Y63.874 Z-1.75 I0. J-0.794
Y65.461 Z-1.812 I0. J0.794
Y63.874 Z-1.875 I0. J-0.794
Y65.461 Z-1.937 I0. J0.794
Y63.874 Z-2. I0. J-0.794
Y65.461 Z-2.062 I0. J0.794
Y63.874 Z-2.125 I0. J-0.794
Y65.461 Z-2.187 I0. J0.794
Y63.874 Z-2.25 I0. J-0.794
Y65.461 Z-2.312 I0. J0.794
Y63.874 Z-2.375 I0. J-0.794
Y65.461 Z-2.437 I0. J0.794
Y63.874 Z-2.5 I0. J-0.794
Y65.461 Z-2.562 I0. J0.794
Y63.874 Z-2.625 I0. J-0.794
Y65.461 Z-2.687 I0. J0.794
Y63.874 Z-2.75 I0. J-0.794
Y65.461 Z-2.812 I0. J0.794
Y63.874 Z-2.875 I0. J-0.794
Y65.461 Z-2.937 I0. J0.794
Y63.874 Z-3. I0. J-0.794
Y65.461 Z-3.062 I0. J0.794
Y63.874 Z-3.125 I0. J-0.794
Y65.461 Z-3.187 I0. J0.794
Y63.874 Z-3.25 I0. J-0.794
Y65.461 Z-3.312 I0. J0.794
Y63.874 Z-3.375 I0. J-0.794
Y65.461 Z-3.437 I0. J0.794
Y63.874 Z-3.5 I0. J-0.794
Y65.461 Z-3.562 I0. J0.794
Y63.874 Z-3.625 I0. J-0.794
X188.954 Y65.31 Z-3.675 I0. J0.794
X188.021 Y64.025 I-0.467 J-0.642
X188.954 Y65.31 I0.467 J0.642
X188.51 Y65.239 I-0.187 J-0.257
G1 X188.417 Y65.111
X188.376 Y65.054 Z-3.667
X188.336 Y64.999 Z-3.644
X188.301 Y64.951 Z-3.606
X188.271 Y64.91 Z-3.555
X188.249 Y64.879 Z-3.495
X188.235 Y64.86 Z-3.428
X188.231 Y64.854 Z-3.358
G0 Z5.
X213.57 Y39.267
Z4.
G1 Z2.318 F800.
G19 G2 Y38.95 Z2. J-0.318 K0.
G1 Y38.791
G17 G3 X213.887 Y38.474 I0.318 J0.
Y40.061 Z1.938 I0. J0.794
Y38.474 Z1.875 I0. J-0.794
Y40.061 Z1.813 I0. J0.794
Y38.474 Z1.75 I0. J-0.794
Y40.061 Z1.688 I0. J0.794
Y38.474 Z1.625 I0. J-0.794
Y40.061 Z1.563 I0. J0.794
Y38.474 Z1.5 I0. J-0.794
Y40.061 Z1.438 I0. J0.794
Y38.474 Z1.375 I0. J-0.794
Y40.061 Z1.313 I0. J0.794
Y38.474 Z1.25 I0. J-0.794
Y40.061 Z1.188 I0. J0.794
Y38.474 Z1.125 I0. J-0.794
Y40.061 Z1.063 I0. J0.794
Y38.474 Z1. I0. J-0.794
Y40.061 Z0.938 I0. J0.794
Y38.474 Z0.875 I0. J-0.794
Y40.061 Z0.813 I0. J0.794
Y38.474 Z0.75 I0. J-0.794
Y40.061 Z0.688 I0. J0.794
Y38.474 Z0.625 I0. J-0.794
Y40.061 Z0.563 I0. J0.794
Y38.474 Z0.5 I0. J-0.794
Y40.061 Z0.438 I0. J0.794
Y38.474 Z0.375 I0. J-0.794
Y40.061 Z0.313 I0. J0.794
Y38.474 Z0.25 I0. J-0.794
Y40.061 Z0.188 I0. J0.794
Y38.474 Z0.125 I0. J-0.794
Y40.061 Z0.063 I0. J0.794
Y38.474 Z0. I0. J-0.794
Y40.061 Z-0.062 I0. J0.794
Y38.474 Z-0.125 I0. J-0.794
Y40.061 Z-0.187 I0. J0.794
Y38.474 Z-0.25 I0. J-0.794
Y40.061 Z-0.312 I0. J0.794
Y38.474 Z-0.375 I0. J-0.794
Y40.061 Z-0.437 I0. J0.794
Y38.474 Z-0.5 I0. J-0.794
Y40.061 Z-0.562 I0. J0.794
Y38.474 Z-0.625 I0. J-0.794
Y40.061 Z-0.687 I0. J0.794
Y38.474 Z-0.75 I0. J-0.794
Y40.061 Z-0.812 I0. J0.794
Y38.474 Z-0.875 I0. J-0.794
Y40.061 Z-0.937 I0. J0.794
Y38.474 Z-1. I0. J-0.794
Y40.061 Z-1.062 I0. J0.794
Y38.474 Z-1.125 I0. J-0.794
Y40.061 Z-1.187 I0. J0.794
Y38.474 Z-1.25 I0. J-0.794
Y40.061 Z-1.312 I0. J0.794
Y38.474 Z-1.375 I0. J-0.794
Y40.061 Z-1.437 I0. J0.794
Y38.474 Z-1.5 I0. J-0.794
Y40.061 Z-1.562 I0. J0.794
Y38.474 Z-1.625 I0. J-0.794
Y40.061 Z-1.687 I0. J0.794
Y38.474 Z-1.75 I0. J-0.794
Y40.061 Z-1.812 I0. J0.794
Y38.474 Z-1.875 I0. J-0.794
Y40.061 Z-1.937 I0. J0.794
Y38.474 Z-2. I0. J-0.794
Y40.061 Z-2.062 I0. J0.794
Y38.474 Z-2.125 I0. J-0.794
Y40.061 Z-2.187 I0. J0.794
Y38.474 Z-2.25 I0. J-0.794
Y40.061 Z-2.312 I0. J0.794
Y38.474 Z-2.375 I0. J-0.794
Y40.061 Z-2.437 I0. J0.794
Y38.474 Z-2.5 I0. J-0.794
Y40.061 Z-2.562 I0. J0.794
Y38.474 Z-2.625 I0. J-0.794
Y40.061 Z-2.687 I0. J0.794
Y38.474 Z-2.75 I0. J-0.794
Y40.061 Z-2.812 I0. J0.794
Y38.474 Z-2.875 I0. J-0.794
Y40.061 Z-2.937 I0. J0.794
Y38.474 Z-3. I0. J-0.794
Y40.061 Z-3.062 I0. J0.794
Y38.474 Z-3.125 I0. J-0.794
Y40.061 Z-3.187 I0. J0.794
Y38.474 Z-3.25 I0. J-0.794
Y40.061 Z-3.312 I0. J0.794
Y38.474 Z-3.375 I0. J-0.794
Y40.061 Z-3.437 I0. J0.794
Y38.474 Z-3.5 I0. J-0.794
Y40.061 Z-3.562 I0. J0.794
Y38.474 Z-3.625 I0. J-0.794
X214.354 Y39.91 Z-3.675 I0. J0.794
X213.421 Y38.625 I-0.467 J-0.642
X214.354 Y39.91 I0.467 J0.642
X213.91 Y39.839 I-0.187 J-0.257
G1 X213.817 Y39.711
X213.776 Y39.654 Z-3.667
X213.736 Y39.599 Z-3.644
X213.701 Y39.551 Z-3.606
X213.671 Y39.51 Z-3.555
X213.649 Y39.479 Z-3.495
X213.635 Y39.46 Z-3.428
X213.631 Y39.454 Z-3.358
G0 Z5.
X213.57 Y13.867
Z4.
G1 Z2.318 F800.
G19 G2 Y13.55 Z2. J-0.318 K0.
G1 Y13.391
G17 G3 X213.887 Y13.074 I0.318 J0.
Y14.661 Z1.938 I0. J0.794
Y13.074 Z1.875 I0. J-0.794
Y14.661 Z1.813 I0. J0.794
Y13.074 Z1.75 I0. J-0.794
Y14.661 Z1.688 I0. J0.794
Y13.074 Z1.625 I0. J-0.794
Y14.661 Z1.563 I0. J0.794
Y13.074 Z1.5 I0. J-0.794
Y14.661 Z1.438 I0. J0.794
Y13.074 Z1.375 I0. J-0.794
Y14.661 Z1.313 I0. J0.794
Y13.074 Z1.25 I0. J-0.794
Y14.661 Z1.188 I0. J0.794
Y13.074 Z1.125 I0. J-0.794
Y14.661 Z1.063 I0. J0.794
Y13.074 Z1. I0. J-0.794
Y14.661 Z0.938 I0. J0.794
Y13.074 Z0.875 I0. J-0.794
Y14.661 Z0.813 I0. J0.794
Y13.074 Z0.75 I0. J-0.794
Y14.661 Z0.688 I0. J0.794
Y13.074 Z0.625 I0. J-0.794
Y14.661 Z0.563 I0. J0.794
Y13.074 Z0.5 I0. J-0.794
Y14.661 Z0.438 I0. J0.794
Y13.074 Z0.375 I0. J-0.794
Y14.661 Z0.313 I0. J0.794
Y13.074 Z0.25 I0. J-0.794
Y14.661 Z0.188 I0. J0.794
Y13.074 Z0.125 I0. J-0.794
Y14.661 Z0.063 I0. J0.794
Y13.074 Z0. I0. J-0.794
Y14.661 Z-0.062 I0. J0.794
Y13.074 Z-0.125 I0. J-0.794
Y14.661 Z-0.187 I0. J0.794
Y13.074 Z-0.25 I0. J-0.794
Y14.661 Z-0.312 I0. J0.794
Y13.074 Z-0.375 I0. J-0.794
Y14.661 Z-0.437 I0. J0.794
Y13.074 Z-0.5 I0. J-0.794
Y14.661 Z-0.562 I0. J0.794
Y13.074 Z-0.625 I0. J-0.794
Y14.661 Z-0.687 I0. J0.794
Y13.074 Z-0.75 I0. J-0.794
Y14.661 Z-0.812 I0. J0.794
Y13.074 Z-0.875 I0. J-0.794
Y14.661 Z-0.937 I0. J0.794
Y13.074 Z-1. I0. J-0.794
Y14.661 Z-1.062 I0. J0.794
Y13.074 Z-1.125 I0. J-0.794
Y14.661 Z-1.187 I0. J0.794
Y13.074 Z-1.25 I0. J-0.794
Y14.661 Z-1.312 I0. J0.794
Y13.074 Z-1.375 I0. J-0.794
Y14.661 Z-1.437 I0. J0.794
Y13.074 Z-1.5 I0. J-0.794
Y14.661 Z-1.562 I0. J0.794
Y13.074 Z-1.625 I0. J-0.794
Y14.661 Z-1.687 I0. J0.794
Y13.074 Z-1.75 I0. J-0.794
Y14.661 Z-1.812 I0. J0.794
Y13.074 Z-1.875 I0. J-0.794
Y14.661 Z-1.937 I0. J0.794
Y13.074 Z-2. I0. J-0.794
Y14.661 Z-2.062 I0. J0.794
Y13.074 Z-2.125 I0. J-0.794
Y14.661 Z-2.187 I0. J0.794
Y13.074 Z-2.25 I0. J-0.794
Y14.661 Z-2.312 I0. J0.794
Y13.074 Z-2.375 I0. J-0.794
Y14.661 Z-2.437 I0. J0.794
Y13.074 Z-2.5 I0. J-0.794
Y14.661 Z-2.562 I0. J0.794
Y13.074 Z-2.625 I0. J-0.794
Y14.661 Z-2.687 I0. J0.794
Y13.074 Z-2.75 I0. J-0.794
Y14.661 Z-2.812 I0. J0.794
Y13.074 Z-2.875 I0. J-0.794
Y14.661 Z-2.937 I0. J0.794
Y13.074 Z-3. I0. J-0.794
Y14.661 Z-3.062 I0. J0.794
Y13.074 Z-3.125 I0. J-0.794
Y14.661 Z-3.187 I0. J0.794
Y13.074 Z-3.25 I0. J-0.794
Y14.661 Z-3.312 I0. J0.794
Y13.074 Z-3.375 I0. J-0.794
Y14.661 Z-3.437 I0. J0.794
Y13.074 Z-3.5 I0. J-0.794
Y14.661 Z-3.562 I0. J0.794
Y13.074 Z-3.625 I0. J-0.794
X214.354 Y14.51 Z-3.675 I0. J0.794
X213.421 Y13.225 I-0.467 J-0.642
X214.354 Y14.51 I0.467 J0.642
X213.91 Y14.439 I-0.187 J-0.257
G1 X213.817 Y14.311
X213.776 Y14.254 Z-3.667
X213.736 Y14.199 Z-3.644
X213.701 Y14.151 Z-3.606
X213.671 Y14.11 Z-3.555
X213.649 Y14.079 Z-3.495
X213.635 Y14.06 Z-3.428
X213.631 Y14.054 Z-3.358
G0 Z15.

(BORE5)
G0 X45.93 Y148.487
Z15.
Z4.
G1 Z2.318 F800.
G19 G2 Y148.17 Z2. J-0.317 K0.
G1 Y148.011
G17 G3 X46.247 Y147.694 I0.317 J0.
Y149.281 Z1.938 I0. J0.794
Y147.694 Z1.875 I0. J-0.794
Y149.281 Z1.813 I0. J0.794
Y147.694 Z1.75 I0. J-0.794
Y149.281 Z1.688 I0. J0.794
Y147.694 Z1.625 I0. J-0.794
Y149.281 Z1.563 I0. J0.794
Y147.694 Z1.5 I0. J-0.794
Y149.281 Z1.438 I0. J0.794
Y147.694 Z1.375 I0. J-0.794
Y149.281 Z1.313 I0. J0.794
Y147.694 Z1.25 I0. J-0.794
Y149.281 Z1.188 I0. J0.794
Y147.694 Z1.125 I0. J-0.794
Y149.281 Z1.063 I0. J0.794
Y147.694 Z1. I0. J-0.794
Y149.281 Z0.938 I0. J0.794
Y147.694 Z0.875 I0. J-0.794
Y149.281 Z0.813 I0. J0.794
Y147.694 Z0.75 I0. J-0.794
Y149.281 Z0.688 I0. J0.794
Y147.694 Z0.625 I0. J-0.794
Y149.281 Z0.563 I0. J0.794
Y147.694 Z0.5 I0. J-0.794
Y149.281 Z0.438 I0. J0.794
Y147.694 Z0.375 I0. J-0.794
Y149.281 Z0.313 I0. J0.794
Y147.694 Z0.25 I0. J-0.794
Y149.281 Z0.188 I0. J0.794
Y147.694 Z0.125 I0. J-0.794
Y149.281 Z0.063 I0. J0.794
Y147.694 Z0. I0. J-0.794
Y149.281 Z-0.062 I0. J0.794
Y147.694 Z-0.125 I0. J-0.794
Y149.281 Z-0.187 I0. J0.794
Y147.694 Z-0.25 I0. J-0.794
Y149.281 Z-0.312 I0. J0.794
Y147.694 Z-0.375 I0. J-0.794
Y149.281 Z-0.437 I0. J0.794
Y147.694 Z-0.5 I0. J-0.794
Y149.281 Z-0.562 I0. J0.794
Y147.694 Z-0.625 I0. J-0.794
Y149.281 Z-0.687 I0. J0.794
Y147.694 Z-0.75 I0. J-0.794
Y149.281 Z-0.812 I0. J0.794
Y147.694 Z-0.875 I0. J-0.794
Y149.281 Z-0.937 I0. J0.794
Y147.694 Z-1. I0. J-0.794
Y149.281 Z-1.062 I0. J0.794
Y147.694 Z-1.125 I0. J-0.794
Y149.281 Z-1.187 I0. J0.794
Y147.694 Z-1.25 I0. J-0.794
Y149.281 Z-1.312 I0. J0.794
Y147.694 Z-1.375 I0. J-0.794
Y149.281 Z-1.437 I0. J0.794
Y147.694 Z-1.5 I0. J-0.794
Y149.281 Z-1.562 I0. J0.794
Y147.694 Z-1.625 I0. J-0.794
Y149.281 Z-1.687 I0. J0.794
Y147.694 Z-1.75 I0. J-0.794
Y149.281 Z-1.812 I0. J0.794
Y147.694 Z-1.875 I0. J-0.794
Y149.281 Z-1.937 I0. J0.794
Y147.694 Z-2. I0. J-0.794
Y149.281 Z-2.062 I0. J0.794
Y147.694 Z-2.125 I0. J-0.794
Y149.281 Z-2.187 I0. J0.794
Y147.694 Z-2.25 I0. J-0.794
Y149.281 Z-2.312 I0. J0.794
Y147.694 Z-2.375 I0. J-0.794
Y149.281 Z-2.437 I0. J0.794
Y147.694 Z-2.5 I0. J-0.794
Y149.281 Z-2.562 I0. J0.794
Y147.694 Z-2.625 I0. J-0.794
Y149.281 Z-2.687 I0. J0.794
Y147.694 Z-2.75 I0. J-0.794
Y149.281 Z-2.812 I0. J0.794
Y147.694 Z-2.875 I0. J-0.794
Y149.281 Z-2.937 I0. J0.794
Y147.694 Z-3. I0. J-0.794
Y149.281 Z-3.062 I0. J0.794
Y147.694 Z-3.125 I0. J-0.794
Y149.281 Z-3.187 I0. J0.794
Y147.694 Z-3.25 I0. J-0.794
Y149.281 Z-3.312 I0. J0.794
Y147.694 Z-3.375 I0. J-0.794
Y149.281 Z-3.437 I0. J0.794
Y147.694 Z-3.5 I0. J-0.794
Y149.281 Z-3.562 I0. J0.794
Y147.694 Z-3.625 I0. J-0.794
X46.714 Y149.13 Z-3.675 I0. J0.794
X45.781 Y147.845 I-0.467 J-0.642
X46.714 Y149.13 I0.467 J0.642
X46.27 Y149.059 I-0.187 J-0.257
G1 X46.177 Y148.931
X46.136 Y148.874 Z-3.667
X46.096 Y148.819 Z-3.644
X46.061 Y148.771 Z-3.606
X46.031 Y148.73 Z-3.555
X46.009 Y148.699 Z-3.495
X45.995 Y148.68 Z-3.428
X45.991 Y148.674 Z-3.358
G0 Z5.
X71.33 Y148.487
Z4.
G1 Z2.318 F800.
G19 G2 Y148.17 Z2. J-0.317 K0.
G1 Y148.011
G17 G3 X71.647 Y147.694 I0.317 J0.
Y149.281 Z1.938 I0. J0.794
Y147.694 Z1.875 I0. J-0.794
Y149.281 Z1.813 I0. J0.794
Y147.694 Z1.75 I0. J-0.794
Y149.281 Z1.688 I0. J0.794
Y147.694 Z1.625 I0. J-0.794
Y149.281 Z1.563 I0. J0.794
Y147.694 Z1.5 I0. J-0.794
Y149.281 Z1.438 I0. J0.794
Y147.694 Z1.375 I0. J-0.794
Y149.281 Z1.313 I0. J0.794
Y147.694 Z1.25 I0. J-0.794
Y149.281 Z1.188 I0. J0.794
Y147.694 Z1.125 I0. J-0.794
Y149.281 Z1.063 I0. J0.794
Y147.694 Z1. I0. J-0.794
Y149.281 Z0.938 I0. J0.794
Y147.694 Z0.875 I0. J-0.794
Y149.281 Z0.813 I0. J0.794
Y147.694 Z0.75 I0. J-0.794
Y149.281 Z0.688 I0. J0.794
Y147.694 Z0.625 I0. J-0.794
Y149.281 Z0.563 I0. J0.794
Y147.694 Z0.5 I0. J-0.794
Y149.281 Z0.438 I0. J0.794
Y147.694 Z0.375 I0. J-0.794
Y149.281 Z0.313 I0. J0.794
Y147.694 Z0.25 I0. J-0.794
Y149.281 Z0.188 I0. J0.794
Y147.694 Z0.125 I0. J-0.794
Y149.281 Z0.063 I0. J0.794
Y147.694 Z0. I0. J-0.794
Y149.281 Z-0.062 I0. J0.794
Y147.694 Z-0.125 I0. J-0.794
Y149.281 Z-0.187 I0. J0.794
Y147.694 Z-0.25 I0. J-0.794
Y149.281 Z-0.312 I0. J0.794
Y147.694 Z-0.375 I0. J-0.794
Y149.281 Z-0.437 I0. J0.794
Y147.694 Z-0.5 I0. J-0.794
Y149.281 Z-0.562 I0. J0.794
Y147.694 Z-0.625 I0. J-0.794
Y149.281 Z-0.687 I0. J0.794
Y147.694 Z-0.75 I0. J-0.794
Y149.281 Z-0.812 I0. J0.794
Y147.694 Z-0.875 I0. J-0.794
Y149.281 Z-0.937 I0. J0.794
Y147.694 Z-1. I0. J-0.794
Y149.281 Z-1.062 I0. J0.794
Y147.694 Z-1.125 I0. J-0.794
Y149.281 Z-1.187 I0. J0.794
Y147.694 Z-1.25 I0. J-0.794
Y149.281 Z-1.312 I0. J0.794
Y147.694 Z-1.375 I0. J-0.794
Y149.281 Z-1.437 I0. J0.794
Y147.694 Z-1.5 I0. J-0.794
Y149.281 Z-1.562 I0. J0.794
Y147.694 Z-1.625 I0. J-0.794
Y149.281 Z-1.687 I0. J0.794
Y147.694 Z-1.75 I0. J-0.794
Y149.281 Z-1.812 I0. J0.794
Y147.694 Z-1.875 I0. J-0.794
Y149.281 Z-1.937 I0. J0.794
Y147.694 Z-2. I0. J-0.794
Y149.281 Z-2.062 I0. J0.794
Y147.694 Z-2.125 I0. J-0.794
Y149.281 Z-2.187 I0. J0.794
Y147.694 Z-2.25 I0. J-0.794
Y149.281 Z-2.312 I0. J0.794
Y147.694 Z-2.375 I0. J-0.794
Y149.281 Z-2.437 I0. J0.794
Y147.694 Z-2.5 I0. J-0.794
Y149.281 Z-2.562 I0. J0.794
Y147.694 Z-2.625 I0. J-0.794
Y149.281 Z-2.687 I0. J0.794
Y147.694 Z-2.75 I0. J-0.794
Y149.281 Z-2.812 I0. J0.794
Y147.694 Z-2.875 I0. J-0.794
Y149.281 Z-2.937 I0. J0.794
Y147.694 Z-3. I0. J-0.794
Y149.281 Z-3.062 I0. J0.794
Y147.694 Z-3.125 I0. J-0.794
Y149.281 Z-3.187 I0. J0.794
Y147.694 Z-3.25 I0. J-0.794
Y149.281 Z-3.312 I0. J0.794
Y147.694 Z-3.375 I0. J-0.794
Y149.281 Z-3.437 I0. J0.794
Y147.694 Z-3.5 I0. J-0.794
Y149.281 Z-3.562 I0. J0.794
Y147.694 Z-3.625 I0. J-0.794
X72.114 Y149.13 Z-3.675 I0. J0.794
X71.181 Y147.845 I-0.467 J-0.642
X72.114 Y149.13 I0.467 J0.642
X71.67 Y149.059 I-0.187 J-0.257
G1 X71.577 Y148.931
X71.536 Y148.874 Z-3.667
X71.496 Y148.819 Z-3.644
X71.461 Y148.771 Z-3.606
X71.431 Y148.73 Z-3.555
X71.409 Y148.699 Z-3.495
X71.395 Y148.68 Z-3.428
X71.391 Y148.674 Z-3.358
G0 Z5.
X96.73 Y123.087
Z4.
G1 Z2.318 F800.
G19 G2 Y122.77 Z2. J-0.318 K0.
G1 Y122.611
G17 G3 X97.047 Y122.294 I0.318 J0.
Y123.881 Z1.938 I0. J0.794
Y122.294 Z1.875 I0. J-0.794
Y123.881 Z1.813 I0. J0.794
Y122.294 Z1.75 I0. J-0.794
Y123.881 Z1.688 I0. J0.794
Y122.294 Z1.625 I0. J-0.794
Y123.881 Z1.563 I0. J0.794
Y122.294 Z1.5 I0. J-0.794
Y123.881 Z1.438 I0. J0.794
Y122.294 Z1.375 I0. J-0.794
Y123.881 Z1.313 I0. J0.794
Y122.294 Z1.25 I0. J-0.794
Y123.881 Z1.188 I0. J0.794
Y122.294 Z1.125 I0. J-0.794
Y123.881 Z1.063 I0. J0.794
Y122.294 Z1. I0. J-0.794
Y123.881 Z0.938 I0. J0.794
Y122.294 Z0.875 I0. J-0.794
Y123.881 Z0.813 I0. J0.794
Y122.294 Z0.75 I0. J-0.794
Y123.881 Z0.688 I0. J0.794
Y122.294 Z0.625 I0. J-0.794
Y123.881 Z0.563 I0. J0.794
Y122.294 Z0.5 I0. J-0.794
Y123.881 Z0.438 I0. J0.794
Y122.294 Z0.375 I0. J-0.794
Y123.881 Z0.313 I0. J0.794
Y122.294 Z0.25 I0. J-0.794
Y123.881 Z0.188 I0. J0.794
Y122.294 Z0.125 I0. J-0.794
Y123.881 Z0.063 I0. J0.794
Y122.294 Z0. I0. J-0.794
Y123.881 Z-0.062 I0. J0.794
Y122.294 Z-0.125 I0. J-0.794
Y123.881 Z-0.187 I0. J0.794
Y122.294 Z-0.25 I0. J-0.794
Y123.881 Z-0.312 I0. J0.794
Y122.294 Z-0.375 I0. J-0.794
Y123.881 Z-0.437 I0. J0.794
Y122.294 Z-0.5 I0. J-0.794
Y123.881 Z-0.562 I0. J0.794
Y122.294 Z-0.625 I0. J-0.794
Y123.881 Z-0.687 I0. J0.794
Y122.294 Z-0.75 I0. J-0.794
Y123.881 Z-0.812 I0. J0.794
Y122.294 Z-0.875 I0. J-0.794
Y123.881 Z-0.937 I0. J0.794
Y122.294 Z-1. I0. J-0.794
Y123.881 Z-1.062 I0. J0.794
Y122.294 Z-1.125 I0. J-0.794
Y123.881 Z-1.187 I0. J0.794
Y122.294 Z-1.25 I0. J-0.794
Y123.881 Z-1.312 I0. J0.794
Y122.294 Z-1.375 I0. J-0.794
Y123.881 Z-1.437 I0. J0.794
Y122.294 Z-1.5 I0. J-0.794
Y123.881 Z-1.562 I0. J0.794
Y122.294 Z-1.625 I0. J-0.794
Y123.881 Z-1.687 I0. J0.794
Y122.294 Z-1.75 I0. J-0.794
Y123.881 Z-1.812 I0. J0.794
Y122.294 Z-1.875 I0. J-0.794
Y123.881 Z-1.937 I0. J0.794
Y122.294 Z-2. I0. J-0.794
Y123.881 Z-2.062 I0. J0.794
Y122.294 Z-2.125 I0. J-0.794
Y123.881 Z-2.187 I0. J0.794
Y122.294 Z-2.25 I0. J-0.794
Y123.881 Z-2.312 I0. J0.794
Y122.294 Z-2.375 I0. J-0.794
Y123.881 Z-2.437 I0. J0.794
Y122.294 Z-2.5 I0. J-0.794
Y123.881 Z-2.562 I0. J0.794
Y122.294 Z-2.625 I0. J-0.794
Y123.881 Z-2.687 I0. J0.794
Y122.294 Z-2.75 I0. J-0.794
Y123.881 Z-2.812 I0. J0.794
Y122.294 Z-2.875 I0. J-0.794
Y123.881 Z-2.937 I0. J0.794
Y122.294 Z-3. I0. J-0.794
Y123.881 Z-3.062 I0. J0.794
Y122.294 Z-3.125 I0. J-0.794
Y123.881 Z-3.187 I0. J0.794
Y122.294 Z-3.25 I0. J-0.794
Y123.881 Z-3.312 I0. J0.794
Y122.294 Z-3.375 I0. J-0.794
Y123.881 Z-3.437 I0. J0.794
Y122.294 Z-3.5 I0. J-0.794
Y123.881 Z-3.562 I0. J0.794
Y122.294 Z-3.625 I0. J-0.794
X97.514 Y123.73 Z-3.675 I0. J0.794
X96.581 Y122.445 I-0.467 J-0.642
X97.514 Y123.73 I0.467 J0.642
X97.07 Y123.659 I-0.187 J-0.257
G1 X96.977 Y123.531
X96.936 Y123.474 Z-3.667
X96.896 Y123.419 Z-3.644
X96.861 Y123.371 Z-3.606
X96.831 Y123.33 Z-3.555
X96.809 Y123.299 Z-3.495
X96.795 Y123.28 Z-3.428
X96.791 Y123.274 Z-3.358
G0 Z5.
X96.73 Y97.687
Z4.
G1 Z2.318 F800.
G19 G2 Y97.37 Z2. J-0.318 K0.
G1 Y97.211
G17 G3 X97.047 Y96.894 I0.318 J0.
Y98.481 Z1.938 I0. J0.794
Y96.894 Z1.875 I0. J-0.794
Y98.481 Z1.813 I0. J0.794
Y96.894 Z1.75 I0. J-0.794
Y98.481 Z1.688 I0. J0.794
Y96.894 Z1.625 I0. J-0.794
Y98.481 Z1.563 I0. J0.794
Y96.894 Z1.5 I0. J-0.794
Y98.481 Z1.438 I0. J0.794
Y96.894 Z1.375 I0. J-0.794
Y98.481 Z1.313 I0. J0.794
Y96.894 Z1.25 I0. J-0.794
Y98.481 Z1.188 I0. J0.794
Y96.894 Z1.125 I0. J-0.794
Y98.481 Z1.063 I0. J0.794
Y96.894 Z1. I0. J-0.794
Y98.481 Z0.938 I0. J0.794
Y96.894 Z0.875 I0. J-0.794
Y98.481 Z0.813 I0. J0.794
Y96.894 Z0.75 I0. J-0.794
Y98.481 Z0.688 I0. J0.794
Y96.894 Z0.625 I0. J-0.794
Y98.481 Z0.563 I0. J0.794
Y96.894 Z0.5 I0. J-0.794
Y98.481 Z0.438 I0. J0.794
Y96.894 Z0.375 I0. J-0.794
Y98.481 Z0.313 I0. J0.794
Y96.894 Z0.25 I0. J-0.794
Y98.481 Z0.188 I0. J0.794
Y96.894 Z0.125 I0. J-0.794
Y98.481 Z0.063 I0. J0.794
Y96.894 Z0. I0. J-0.794
Y98.481 Z-0.062 I0. J0.794
Y96.894 Z-0.125 I0. J-0.794
Y98.481 Z-0.187 I0. J0.794
Y96.894 Z-0.25 I0. J-0.794
Y98.481 Z-0.312 I0. J0.794
Y96.894 Z-0.375 I0. J-0.794
Y98.481 Z-0.437 I0. J0.794
Y96.894 Z-0.5 I0. J-0.794
Y98.481 Z-0.562 I0. J0.794
Y96.894 Z-0.625 I0. J-0.794
Y98.481 Z-0.687 I0. J0.794
Y96.894 Z-0.75 I0. J-0.794
Y98.481 Z-0.812 I0. J0.794
Y96.894 Z-0.875 I0. J-0.794
Y98.481 Z-0.937 I0. J0.794
Y96.894 Z-1. I0. J-0.794
Y98.481 Z-1.062 I0. J0.794
Y96.894 Z-1.125 I0. J-0.794
Y98.481 Z-1.187 I0. J0.794
Y96.894 Z-1.25 I0. J-0.794
Y98.481 Z-1.312 I0. J0.794
Y96.894 Z-1.375 I0. J-0.794
Y98.481 Z-1.437 I0. J0.794
Y96.894 Z-1.5 I0. J-0.794
Y98.481 Z-1.562 I0. J0.794
Y96.894 Z-1.625 I0. J-0.794
Y98.481 Z-1.687 I0. J0.794
Y96.894 Z-1.75 I0. J-0.794
Y98.481 Z-1.812 I0. J0.794
Y96.894 Z-1.875 I0. J-0.794
Y98.481 Z-1.937 I0. J0.794
Y96.894 Z-2. I0. J-0.794
Y98.481 Z-2.062 I0. J0.794
Y96.894 Z-2.125 I0. J-0.794
Y98.481 Z-2.187 I0. J0.794
Y96.894 Z-2.25 I0. J-0.794
Y98.481 Z-2.312 I0. J0.794
Y96.894 Z-2.375 I0. J-0.794
Y98.481 Z-2.437 I0. J0.794
Y96.894 Z-2.5 I0. J-0.794
Y98.481 Z-2.562 I0. J0.794
Y96.894 Z-2.625 I0. J-0.794
Y98.481 Z-2.687 I0. J0.794
Y96.894 Z-2.75 I0. J-0.794
Y98.481 Z-2.812 I0. J0.794
Y96.894 Z-2.875 I0. J-0.794
Y98.481 Z-2.937 I0. J0.794
Y96.894 Z-3. I0. J-0.794
Y98.481 Z-3.062 I0. J0.794
Y96.894 Z-3.125 I0. J-0.794
Y98.481 Z-3.187 I0. J0.794
Y96.894 Z-3.25 I0. J-0.794
Y98.481 Z-3.312 I0. J0.794
Y96.894 Z-3.375 I0. J-0.794
Y98.481 Z-3.437 I0. J0.794
Y96.894 Z-3.5 I0. J-0.794
Y98.481 Z-3.562 I0. J0.794
Y96.894 Z-3.625 I0. J-0.794
X97.514 Y98.33 Z-3.675 I0. J0.794
X96.581 Y97.045 I-0.467 J-0.642
X97.514 Y98.33 I0.467 J0.642
X97.07 Y98.259 I-0.187 J-0.257
G1 X96.977 Y98.131
X96.936 Y98.074 Z-3.667
X96.896 Y98.019 Z-3.644
X96.861 Y97.971 Z-3.606
X96.831 Y97.93 Z-3.555
X96.809 Y97.899 Z-3.495
X96.795 Y97.88 Z-3.428
X96.791 Y97.874 Z-3.358
G0 Z15.

(BORE5)
G0 X64.818 Y97.52
Z15.
Z4.
G1 Z2.318 F800.
G19 G3 Y97.838 Z2. J0.317 K0.
G1 Y97.996
G17 G3 X64.5 Y98.314 I-0.317 J0.
Y96.726 Z1.938 I0. J-0.794
Y98.314 Z1.875 I0. J0.794
Y96.726 Z1.813 I0. J-0.794
Y98.314 Z1.75 I0. J0.794
Y96.726 Z1.688 I0. J-0.794
Y98.314 Z1.625 I0. J0.794
Y96.726 Z1.563 I0. J-0.794
Y98.314 Z1.5 I0. J0.794
Y96.726 Z1.438 I0. J-0.794
Y98.314 Z1.375 I0. J0.794
Y96.726 Z1.313 I0. J-0.794
Y98.314 Z1.25 I0. J0.794
Y96.726 Z1.188 I0. J-0.794
Y98.314 Z1.125 I0. J0.794
Y96.726 Z1.063 I0. J-0.794
Y98.314 Z1. I0. J0.794
Y96.726 Z0.938 I0. J-0.794
Y98.314 Z0.875 I0. J0.794
Y96.726 Z0.813 I0. J-0.794
Y98.314 Z0.75 I0. J0.794
Y96.726 Z0.688 I0. J-0.794
Y98.314 Z0.625 I0. J0.794
Y96.726 Z0.563 I0. J-0.794
Y98.314 Z0.5 I0. J0.794
Y96.726 Z0.438 I0. J-0.794
Y98.314 Z0.375 I0. J0.794
Y96.726 Z0.313 I0. J-0.794
Y98.314 Z0.25 I0. J0.794
Y96.726 Z0.188 I0. J-0.794
Y98.314 Z0.125 I0. J0.794
Y96.726 Z0.063 I0. J-0.794
Y98.314 Z0. I0. J0.794
Y96.726 Z-0.062 I0. J-0.794
Y98.314 Z-0.125 I0. J0.794
Y96.726 Z-0.187 I0. J-0.794
Y98.314 Z-0.25 I0. J0.794
Y96.726 Z-0.312 I0. J-0.794
Y98.314 Z-0.375 I0. J0.794
Y96.726 Z-0.437 I0. J-0.794
Y98.314 Z-0.5 I0. J0.794
Y96.726 Z-0.562 I0. J-0.794
Y98.314 Z-0.625 I0. J0.794
Y96.726 Z-0.687 I0. J-0.794
Y98.314 Z-0.75 I0. J0.794
Y96.726 Z-0.812 I0. J-0.794
Y98.314 Z-0.875 I0. J0.794
Y96.726 Z-0.937 I0. J-0.794
Y98.314 Z-1. I0. J0.794
Y96.726 Z-1.062 I0. J-0.794
Y98.314 Z-1.125 I0. J0.794
Y96.726 Z-1.187 I0. J-0.794
Y98.314 Z-1.25 I0. J0.794
Y96.726 Z-1.312 I0. J-0.794
Y98.314 Z-1.375 I0. J0.794
Y96.726 Z-1.437 I0. J-0.794
Y98.314 Z-1.5 I0. J0.794
Y96.726 Z-1.562 I0. J-0.794
Y98.314 Z-1.625 I0. J0.794
Y96.726 Z-1.687 I0. J-0.794
Y98.314 Z-1.75 I0. J0.794
Y96.726 Z-1.812 I0. J-0.794
Y98.314 Z-1.875 I0. J0.794
Y96.726 Z-1.937 I0. J-0.794
Y98.314 Z-2. I0. J0.794
Y96.726 Z-2.062 I0. J-0.794
Y98.314 Z-2.125 I0. J0.794
Y96.726 Z-2.187 I0. J-0.794
Y98.314 Z-2.25 I0. J0.794
Y96.726 Z-2.312 I0. J-0.794
Y98.314 Z-2.375 I0. J0.794
Y96.726 Z-2.437 I0. J-0.794
Y98.314 Z-2.5 I0. J0.794
Y96.726 Z-2.562 I0. J-0.794
Y98.314 Z-2.625 I0. J0.794
Y96.726 Z-2.687 I0. J-0.794
Y98.314 Z-2.75 I0. J0.794
Y96.726 Z-2.812 I0. J-0.794
Y98.314 Z-2.875 I0. J0.794
Y96.726 Z-2.937 I0. J-0.794
Y98.314 Z-3. I0. J0.794
Y96.726 Z-3.062 I0. J-0.794
Y98.314 Z-3.125 I0. J0.794
Y96.726 Z-3.187 I0. J-0.794
Y98.314 Z-3.25 I0. J0.794
Y96.726 Z-3.312 I0. J-0.794
Y98.314 Z-3.375 I0. J0.794
Y96.726 Z-3.437 I0. J-0.794
Y98.314 Z-3.5 I0. J0.794
Y96.726 Z-3.562 I0. J-0.794
Y98.314 Z-3.625 I0. J0.794
X64.033 Y96.878 Z-3.675 I0. J-0.794
X64.967 Y98.162 I0.467 J0.642
X64.033 Y96.878 I-0.467 J-0.642
X64.477 Y96.948 I0.187 J0.257
G1 X64.57 Y97.077
X64.612 Y97.134 Z-3.667
X64.651 Y97.188 Z-3.644
X64.687 Y97.237 Z-3.606
X64.716 Y97.277 Z-3.555
X64.738 Y97.308 Z-3.495
X64.752 Y97.327 Z-3.428
X64.757 Y97.333 Z-3.358
G0 Z5.
X39.417 Y97.52
Z4.
G1 Z2.318 F800.
G19 G3 Y97.838 Z2. J0.317 K0.
G1 Y97.996
G17 G3 X39.1 Y98.314 I-0.317 J0.
Y96.726 Z1.938 I0. J-0.794
Y98.314 Z1.875 I0. J0.794
Y96.726 Z1.813 I0. J-0.794
Y98.314 Z1.75 I0. J0.794
Y96.726 Z1.688 I0. J-0.794
Y98.314 Z1.625 I0. J0.794
Y96.726 Z1.563 I0. J-0.794
Y98.314 Z1.5 I0. J0.794
Y96.726 Z1.438 I0. J-0.794
Y98.314 Z1.375 I0. J0.794
Y96.726 Z1.313 I0. J-0.794
Y98.314 Z1.25 I0. J0.794
Y96.726 Z1.188 I0. J-0.794
Y98.314 Z1.125 I0. J0.794
Y96.726 Z1.063 I0. J-0.794
Y98.314 Z1. I0. J0.794
Y96.726 Z0.938 I0. J-0.794
Y98.314 Z0.875 I0. J0.794
Y96.726 Z0.813 I0. J-0.794
Y98.314 Z0.75 I0. J0.794
Y96.726 Z0.688 I0. J-0.794
Y98.314 Z0.625 I0. J0.794
Y96.726 Z0.563 I0. J-0.794
Y98.314 Z0.5 I0. J0.794
Y96.726 Z0.438 I0. J-0.794
Y98.314 Z0.375 I0. J0.794
Y96.726 Z0.313 I0. J-0.794
Y98.314 Z0.25 I0. J0.794
Y96.726 Z0.188 I0. J-0.794
Y98.314 Z0.125 I0. J0.794
Y96.726 Z0.063 I0. J-0.794
Y98.314 Z0. I0. J0.794
Y96.726 Z-0.062 I0. J-0.794
Y98.314 Z-0.125 I0. J0.794
Y96.726 Z-0.187 I0. J-0.794
Y98.314 Z-0.25 I0. J0.794
Y96.726 Z-0.312 I0. J-0.794
Y98.314 Z-0.375 I0. J0.794
Y96.726 Z-0.437 I0. J-0.794
Y98.314 Z-0.5 I0. J0.794
Y96.726 Z-0.562 I0. J-0.794
Y98.314 Z-0.625 I0. J0.794
Y96.726 Z-0.687 I0. J-0.794
Y98.314 Z-0.75 I0. J0.794
Y96.726 Z-0.812 I0. J-0.794
Y98.314 Z-0.875 I0. J0.794
Y96.726 Z-0.937 I0. J-0.794
Y98.314 Z-1. I0. J0.794
Y96.726 Z-1.062 I0. J-0.794
Y98.314 Z-1.125 I0. J0.794
Y96.726 Z-1.187 I0. J-0.794
Y98.314 Z-1.25 I0. J0.794
Y96.726 Z-1.312 I0. J-0.794
Y98.314 Z-1.375 I0. J0.794
Y96.726 Z-1.437 I0. J-0.794
Y98.314 Z-1.5 I0. J0.794
Y96.726 Z-1.562 I0. J-0.794
Y98.314 Z-1.625 I0. J0.794
Y96.726 Z-1.687 I0. J-0.794
Y98.314 Z-1.75 I0. J0.794
Y96.726 Z-1.812 I0. J-0.794
Y98.314 Z-1.875 I0. J0.794
Y96.726 Z-1.937 I0. J-0.794
Y98.314 Z-2. I0. J0.794
Y96.726 Z-2.062 I0. J-0.794
Y98.314 Z-2.125 I0. J0.794
Y96.726 Z-2.187 I0. J-0.794
Y98.314 Z-2.25 I0. J0.794
Y96.726 Z-2.312 I0. J-0.794
Y98.314 Z-2.375 I0. J0.794
Y96.726 Z-2.437 I0. J-0.794
Y98.314 Z-2.5 I0. J0.794
Y96.726 Z-2.562 I0. J-0.794
Y98.314 Z-2.625 I0. J0.794
Y96.726 Z-2.687 I0. J-0.794
Y98.314 Z-2.75 I0. J0.794
Y96.726 Z-2.812 I0. J-0.794
Y98.314 Z-2.875 I0. J0.794
Y96.726 Z-2.937 I0. J-0.794
Y98.314 Z-3. I0. J0.794
Y96.726 Z-3.062 I0. J-0.794
Y98.314 Z-3.125 I0. J0.794
Y96.726 Z-3.187 I0. J-0.794
Y98.314 Z-3.25 I0. J0.794
Y96.726 Z-3.312 I0. J-0.794
Y98.314 Z-3.375 I0. J0.794
Y96.726 Z-3.437 I0. J-0.794
Y98.314 Z-3.5 I0. J0.794
Y96.726 Z-3.562 I0. J-0.794
Y98.314 Z-3.625 I0. J0.794
X38.633 Y96.878 Z-3.675 I0. J-0.794
X39.567 Y98.162 I0.467 J0.642
X38.633 Y96.878 I-0.467 J-0.642
X39.077 Y96.948 I0.187 J0.257
G1 X39.17 Y97.077
X39.212 Y97.134 Z-3.667
X39.251 Y97.188 Z-3.644
X39.287 Y97.237 Z-3.606
X39.316 Y97.277 Z-3.555
X39.338 Y97.308 Z-3.495
X39.352 Y97.327 Z-3.428
X39.357 Y97.333 Z-3.358
G0 Z5.
X14.018 Y122.92
Z4.
G1 Z2.318 F800.
G19 G3 Y123.238 Z2. J0.318 K0.
G1 Y123.396
G17 G3 X13.7 Y123.714 I-0.318 J0.
Y122.126 Z1.938 I0. J-0.794
Y123.714 Z1.875 I0. J0.794
Y122.126 Z1.813 I0. J-0.794
Y123.714 Z1.75 I0. J0.794
Y122.126 Z1.688 I0. J-0.794
Y123.714 Z1.625 I0. J0.794
Y122.126 Z1.563 I0. J-0.794
Y123.714 Z1.5 I0. J0.794
Y122.126 Z1.438 I0. J-0.794
Y123.714 Z1.375 I0. J0.794
Y122.126 Z1.313 I0. J-0.794
Y123.714 Z1.25 I0. J0.794
Y122.126 Z1.188 I0. J-0.794
Y123.714 Z1.125 I0. J0.794
Y122.126 Z1.063 I0. J-0.794
Y123.714 Z1. I0. J0.794
Y122.126 Z0.938 I0. J-0.794
Y123.714 Z0.875 I0. J0.794
Y122.126 Z0.813 I0. J-0.794
Y123.714 Z0.75 I0. J0.794
Y122.126 Z0.688 I0. J-0.794
Y123.714 Z0.625 I0. J0.794
Y122.126 Z0.563 I0. J-0.794
Y123.714 Z0.5 I0. J0.794
Y122.126 Z0.438 I0. J-0.794
Y123.714 Z0.375 I0. J0.794
Y122.126 Z0.313 I0. J-0.794
Y123.714 Z0.25 I0. J0.794
Y122.126 Z0.188 I0. J-0.794
Y123.714 Z0.125 I0. J0.794
Y122.126 Z0.063 I0. J-0.794
Y123.714 Z0. I0. J0.794
Y122.126 Z-0.062 I0. J-0.794
Y123.714 Z-0.125 I0. J0.794
Y122.126 Z-0.187 I0. J-0.794
Y123.714 Z-0.25 I0. J0.794
Y122.126 Z-0.312 I0. J-0.794
Y123.714 Z-0.375 I0. J0.794
Y122.126 Z-0.437 I0. J-0.794
Y123.714 Z-0.5 I0. J0.794
Y122.126 Z-0.562 I0. J-0.794
Y123.714 Z-0.625 I0. J0.794
Y122.126 Z-0.687 I0. J-0.794
Y123.714 Z-0.75 I0. J0.794
Y122.126 Z-0.812 I0. J-0.794
Y123.714 Z-0.875 I0. J0.794
Y122.126 Z-0.937 I0. J-0.794
Y123.714 Z-1. I0. J0.794
Y122.126 Z-1.062 I0. J-0.794
Y123.714 Z-1.125 I0. J0.794
Y122.126 Z-1.187 I0. J-0.794
Y123.714 Z-1.25 I0. J0.794
Y122.126 Z-1.312 I0. J-0.794
Y123.714 Z-1.375 I0. J0.794
Y122.126 Z-1.437 I0. J-0.794
Y123.714 Z-1.5 I0. J0.794
Y122.126 Z-1.562 I0. J-0.794
Y123.714 Z-1.625 I0. J0.794
Y122.126 Z-1.687 I0. J-0.794
Y123.714 Z-1.75 I0. J0.794
Y122.126 Z-1.812 I0. J-0.794
Y123.714 Z-1.875 I0. J0.794
Y122.126 Z-1.937 I0. J-0.794
Y123.714 Z-2. I0. J0.794
Y122.126 Z-2.062 I0. J-0.794
Y123.714 Z-2.125 I0. J0.794
Y122.126 Z-2.187 I0. J-0.794
Y123.714 Z-2.25 I0. J0.794
Y122.126 Z-2.312 I0. J-0.794
Y123.714 Z-2.375 I0. J0.794
Y122.126 Z-2.437 I0. J-0.794
Y123.714 Z-2.5 I0. J0.794
Y122.126 Z-2.562 I0. J-0.794
Y123.714 Z-2.625 I0. J0.794
Y122.126 Z-2.687 I0. J-0.794
Y123.714 Z-2.75 I0. J0.794
Y122.126 Z-2.812 I0. J-0.794
Y123.714 Z-2.875 I0. J0.794
Y122.126 Z-2.937 I0. J-0.794
Y123.714 Z-3. I0. J0.794
Y122.126 Z-3.062 I0. J-0.794
Y123.714 Z-3.125 I0. J0.794
Y122.126 Z-3.187 I0. J-0.794
Y123.714 Z-3.25 I0. J0.794
Y122.126 Z-3.312 I0. J-0.794
Y123.714 Z-3.375 I0. J0.794
Y122.126 Z-3.437 I0. J-0.794
Y123.714 Z-3.5 I0. J0.794
Y122.126 Z-3.562 I0. J-0.794
Y123.714 Z-3.625 I0. J0.794
X13.233 Y122.278 Z-3.675 I0. J-0.794
X14.167 Y123.562 I0.467 J0.642
X13.233 Y122.278 I-0.467 J-0.642
X13.677 Y122.348 I0.187 J0.257
G1 X13.77 Y122.477
X13.812 Y122.534 Z-3.667
X13.851 Y122.588 Z-3.644
X13.887 Y122.637 Z-3.606
X13.916 Y122.677 Z-3.555
X13.938 Y122.708 Z-3.495
X13.952 Y122.727 Z-3.428
X13.957 Y122.733 Z-3.358
G0 Z5.
X14.018 Y148.32
Z4.
G1 Z2.318 F800.
G19 G3 Y148.638 Z2. J0.318 K0.
G1 Y148.796
G17 G3 X13.7 Y149.114 I-0.318 J0.
Y147.526 Z1.938 I0. J-0.794
Y149.114 Z1.875 I0. J0.794
Y147.526 Z1.813 I0. J-0.794
Y149.114 Z1.75 I0. J0.794
Y147.526 Z1.688 I0. J-0.794
Y149.114 Z1.625 I0. J0.794
Y147.526 Z1.563 I0. J-0.794
Y149.114 Z1.5 I0. J0.794
Y147.526 Z1.438 I0. J-0.794
Y149.114 Z1.375 I0. J0.794
Y147.526 Z1.313 I0. J-0.794
Y149.114 Z1.25 I0. J0.794
Y147.526 Z1.188 I0. J-0.794
Y149.114 Z1.125 I0. J0.794
Y147.526 Z1.063 I0. J-0.794
Y149.114 Z1. I0. J0.794
Y147.526 Z0.938 I0. J-0.794
Y149.114 Z0.875 I0. J0.794
Y147.526 Z0.813 I0. J-0.794
Y149.114 Z0.75 I0. J0.794
Y147.526 Z0.688 I0. J-0.794
Y149.114 Z0.625 I0. J0.794
Y147.526 Z0.563 I0. J-0.794
Y149.114 Z0.5 I0. J0.794
Y147.526 Z0.438 I0. J-0.794
Y149.114 Z0.375 I0. J0.794
Y147.526 Z0.313 I0. J-0.794
Y149.114 Z0.25 I0. J0.794
Y147.526 Z0.188 I0. J-0.794
Y149.114 Z0.125 I0. J0.794
Y147.526 Z0.063 I0. J-0.794
Y149.114 Z0. I0. J0.794
Y147.526 Z-0.062 I0. J-0.794
Y149.114 Z-0.125 I0. J0.794
Y147.526 Z-0.187 I0. J-0.794
Y149.114 Z-0.25 I0. J0.794
Y147.526 Z-0.312 I0. J-0.794
Y149.114 Z-0.375 I0. J0.794
Y147.526 Z-0.437 I0. J-0.794
Y149.114 Z-0.5 I0. J0.794
Y147.526 Z-0.562 I0. J-0.794
Y149.114 Z-0.625 I0. J0.794
Y147.526 Z-0.687 I0. J-0.794
Y149.114 Z-0.75 I0. J0.794
Y147.526 Z-0.812 I0. J-0.794
Y149.114 Z-0.875 I0. J0.794
Y147.526 Z-0.937 I0. J-0.794
Y149.114 Z-1. I0. J0.794
Y147.526 Z-1.062 I0. J-0.794
Y149.114 Z-1.125 I0. J0.794
Y147.526 Z-1.187 I0. J-0.794
Y149.114 Z-1.25 I0. J0.794
Y147.526 Z-1.312 I0. J-0.794
Y149.114 Z-1.375 I0. J0.794
Y147.526 Z-1.437 I0. J-0.794
Y149.114 Z-1.5 I0. J0.794
Y147.526 Z-1.562 I0. J-0.794
Y149.114 Z-1.625 I0. J0.794
Y147.526 Z-1.687 I0. J-0.794
Y149.114 Z-1.75 I0. J0.794
Y147.526 Z-1.812 I0. J-0.794
Y149.114 Z-1.875 I0. J0.794
Y147.526 Z-1.937 I0. J-0.794
Y149.114 Z-2. I0. J0.794
Y147.526 Z-2.062 I0. J-0.794
Y149.114 Z-2.125 I0. J0.794
Y147.526 Z-2.187 I0. J-0.794
Y149.114 Z-2.25 I0. J0.794
Y147.526 Z-2.312 I0. J-0.794
Y149.114 Z-2.375 I0. J0.794
Y147.526 Z-2.437 I0. J-0.794
Y149.114 Z-2.5 I0. J0.794
Y147.526 Z-2.562 I0. J-0.794
Y149.114 Z-2.625 I0. J0.794
Y147.526 Z-2.687 I0. J-0.794
Y149.114 Z-2.75 I0. J0.794
Y147.526 Z-2.812 I0. J-0.794
Y149.114 Z-2.875 I0. J0.794
Y147.526 Z-2.937 I0. J-0.794
Y149.114 Z-3. I0. J0.794
Y147.526 Z-3.062 I0. J-0.794
Y149.114 Z-3.125 I0. J0.794
Y147.526 Z-3.187 I0. J-0.794
Y149.114 Z-3.25 I0. J0.794
Y147.526 Z-3.312 I0. J-0.794
Y149.114 Z-3.375 I0. J0.794
Y147.526 Z-3.437 I0. J-0.794
Y149.114 Z-3.5 I0. J0.794
Y147.526 Z-3.562 I0. J-0.794
Y149.114 Z-3.625 I0. J0.794
X13.233 Y147.678 Z-3.675 I0. J-0.794
X14.167 Y148.962 I0.467 J0.642
X13.233 Y147.678 I-0.467 J-0.642
X13.677 Y147.748 I0.187 J0.257
G1 X13.77 Y147.877
X13.812 Y147.934 Z-3.667
X13.851 Y147.988 Z-3.644
X13.887 Y148.037 Z-3.606
X13.916 Y148.077 Z-3.555
X13.938 Y148.108 Z-3.495
X13.952 Y148.127 Z-3.428
X13.957 Y148.133 Z-3.358
G0 Z15.

(BORE5)
G0 X181.658 Y97.52
Z15.
Z4.
G1 Z2.318 F800.
G19 G3 Y97.838 Z2. J0.317 K0.
G1 Y97.996
G17 G3 X181.34 Y98.314 I-0.317 J0.
Y96.726 Z1.938 I0. J-0.794
Y98.314 Z1.875 I0. J0.794
Y96.726 Z1.813 I0. J-0.794
Y98.314 Z1.75 I0. J0.794
Y96.726 Z1.688 I0. J-0.794
Y98.314 Z1.625 I0. J0.794
Y96.726 Z1.563 I0. J-0.794
Y98.314 Z1.5 I0. J0.794
Y96.726 Z1.438 I0. J-0.794
Y98.314 Z1.375 I0. J0.794
Y96.726 Z1.313 I0. J-0.794
Y98.314 Z1.25 I0. J0.794
Y96.726 Z1.188 I0. J-0.794
Y98.314 Z1.125 I0. J0.794
Y96.726 Z1.063 I0. J-0.794
Y98.314 Z1. I0. J0.794
Y96.726 Z0.938 I0. J-0.794
Y98.314 Z0.875 I0. J0.794
Y96.726 Z0.813 I0. J-0.794
Y98.314 Z0.75 I0. J0.794
Y96.726 Z0.688 I0. J-0.794
Y98.314 Z0.625 I0. J0.794
Y96.726 Z0.563 I0. J-0.794
Y98.314 Z0.5 I0. J0.794
Y96.726 Z0.438 I0. J-0.794
Y98.314 Z0.375 I0. J0.794
Y96.726 Z0.313 I0. J-0.794
Y98.314 Z0.25 I0. J0.794
Y96.726 Z0.188 I0. J-0.794
Y98.314 Z0.125 I0. J0.794
Y96.726 Z0.063 I0. J-0.794
Y98.314 Z0. I0. J0.794
Y96.726 Z-0.062 I0. J-0.794
Y98.314 Z-0.125 I0. J0.794
Y96.726 Z-0.187 I0. J-0.794
Y98.314 Z-0.25 I0. J0.794
Y96.726 Z-0.312 I0. J-0.794
Y98.314 Z-0.375 I0. J0.794
Y96.726 Z-0.437 I0. J-0.794
Y98.314 Z-0.5 I0. J0.794
Y96.726 Z-0.562 I0. J-0.794
Y98.314 Z-0.625 I0. J0.794
Y96.726 Z-0.687 I0. J-0.794
Y98.314 Z-0.75 I0. J0.794
Y96.726 Z-0.812 I0. J-0.794
Y98.314 Z-0.875 I0. J0.794
Y96.726 Z-0.937 I0. J-0.794
Y98.314 Z-1. I0. J0.794
Y96.726 Z-1.062 I0. J-0.794
Y98.314 Z-1.125 I0. J0.794
Y96.726 Z-1.187 I0. J-0.794
Y98.314 Z-1.25 I0. J0.794
Y96.726 Z-1.312 I0. J-0.794
Y98.314 Z-1.375 I0. J0.794
Y96.726 Z-1.437 I0. J-0.794
Y98.314 Z-1.5 I0. J0.794
Y96.726 Z-1.562 I0. J-0.794
Y98.314 Z-1.625 I0. J0.794
Y96.726 Z-1.687 I0. J-0.794
Y98.314 Z-1.75 I0. J0.794
Y96.726 Z-1.812 I0. J-0.794
Y98.314 Z-1.875 I0. J0.794
Y96.726 Z-1.937 I0. J-0.794
Y98.314 Z-2. I0. J0.794
Y96.726 Z-2.062 I0. J-0.794
Y98.314 Z-2.125 I0. J0.794
Y96.726 Z-2.187 I0. J-0.794
Y98.314 Z-2.25 I0. J0.794
Y96.726 Z-2.312 I0. J-0.794
Y98.314 Z-2.375 I0. J0.794
Y96.726 Z-2.437 I0. J-0.794
Y98.314 Z-2.5 I0. J0.794
Y96.726 Z-2.562 I0. J-0.794
Y98.314 Z-2.625 I0. J0.794
Y96.726 Z-2.687 I0. J-0.794
Y98.314 Z-2.75 I0. J0.794
Y96.726 Z-2.812 I0. J-0.794
Y98.314 Z-2.875 I0. J0.794
Y96.726 Z-2.937 I0. J-0.794
Y98.314 Z-3. I0. J0.794
Y96.726 Z-3.062 I0. J-0.794
Y98.314 Z-3.125 I0. J0.794
Y96.726 Z-3.187 I0. J-0.794
Y98.314 Z-3.25 I0. J0.794
Y96.726 Z-3.312 I0. J-0.794
Y98.314 Z-3.375 I0. J0.794
Y96.726 Z-3.437 I0. J-0.794
Y98.314 Z-3.5 I0. J0.794
Y96.726 Z-3.562 I0. J-0.794
Y98.314 Z-3.625 I0. J0.794
X180.873 Y96.878 Z-3.675 I0. J-0.794
X181.807 Y98.162 I0.467 J0.642
X180.873 Y96.878 I-0.467 J-0.642
X181.317 Y96.948 I0.187 J0.257
G1 X181.41 Y97.077
X181.452 Y97.134 Z-3.667
X181.491 Y97.188 Z-3.644
X181.527 Y97.237 Z-3.606
X181.556 Y97.277 Z-3.555
X181.578 Y97.308 Z-3.495
X181.592 Y97.327 Z-3.428
X181.597 Y97.333 Z-3.358
G0 Z5.
X156.257 Y97.52
Z4.
G1 Z2.318 F800.
G19 G3 Y97.838 Z2. J0.317 K0.
G1 Y97.996
G17 G3 X155.94 Y98.314 I-0.317 J0.
Y96.726 Z1.938 I0. J-0.794
Y98.314 Z1.875 I0. J0.794
Y96.726 Z1.813 I0. J-0.794
Y98.314 Z1.75 I0. J0.794
Y96.726 Z1.688 I0. J-0.794
Y98.314 Z1.625 I0. J0.794
Y96.726 Z1.563 I0. J-0.794
Y98.314 Z1.5 I0. J0.794
Y96.726 Z1.438 I0. J-0.794
Y98.314 Z1.375 I0. J0.794
Y96.726 Z1.313 I0. J-0.794
Y98.314 Z1.25 I0. J0.794
Y96.726 Z1.188 I0. J-0.794
Y98.314 Z1.125 I0. J0.794
Y96.726 Z1.063 I0. J-0.794
Y98.314 Z1. I0. J0.794
Y96.726 Z0.938 I0. J-0.794
Y98.314 Z0.875 I0. J0.794
Y96.726 Z0.813 I0. J-0.794
Y98.314 Z0.75 I0. J0.794
Y96.726 Z0.688 I0. J-0.794
Y98.314 Z0.625 I0. J0.794
Y96.726 Z0.563 I0. J-0.794
Y98.314 Z0.5 I0. J0.794
Y96.726 Z0.438 I0. J-0.794
Y98.314 Z0.375 I0. J0.794
Y96.726 Z0.313 I0. J-0.794
Y98.314 Z0.25 I0. J0.794
Y96.726 Z0.188 I0. J-0.794
Y98.314 Z0.125 I0. J0.794
Y96.726 Z0.063 I0. J-0.794
Y98.314 Z0. I0. J0.794
Y96.726 Z-0.062 I0. J-0.794
Y98.314 Z-0.125 I0. J0.794
Y96.726 Z-0.187 I0. J-0.794
Y98.314 Z-0.25 I0. J0.794
Y96.726 Z-0.312 I0. J-0.794
Y98.314 Z-0.375 I0. J0.794
Y96.726 Z-0.437 I0. J-0.794
Y98.314 Z-0.5 I0. J0.794
Y96.726 Z-0.562 I0. J-0.794
Y98.314 Z-0.625 I0. J0.794
Y96.726 Z-0.687 I0. J-0.794
Y98.314 Z-0.75 I0. J0.794
Y96.726 Z-0.812 I0. J-0.794
Y98.314 Z-0.875 I0. J0.794
Y96.726 Z-0.937 I0. J-0.794
Y98.314 Z-1. I0. J0.794
Y96.726 Z-1.062 I0. J-0.794
Y98.314 Z-1.125 I0. J0.794
Y96.726 Z-1.187 I0. J-0.794
Y98.314 Z-1.25 I0. J0.794
Y96.726 Z-1.312 I0. J-0.794
Y98.314 Z-1.375 I0. J0.794
Y96.726 Z-1.437 I0. J-0.794
Y98.314 Z-1.5 I0. J0.794
Y96.726 Z-1.562 I0. J-0.794
Y98.314 Z-1.625 I0. J0.794
Y96.726 Z-1.687 I0. J-0.794
Y98.314 Z-1.75 I0. J0.794
Y96.726 Z-1.812 I0. J-0.794
Y98.314 Z-1.875 I0. J0.794
Y96.726 Z-1.937 I0. J-0.794
Y98.314 Z-2. I0. J0.794
Y96.726 Z-2.062 I0. J-0.794
Y98.314 Z-2.125 I0. J0.794
Y96.726 Z-2.187 I0. J-0.794
Y98.314 Z-2.25 I0. J0.794
Y96.726 Z-2.312 I0. J-0.794
Y98.314 Z-2.375 I0. J0.794
Y96.726 Z-2.437 I0. J-0.794
Y98.314 Z-2.5 I0. J0.794
Y96.726 Z-2.562 I0. J-0.794
Y98.314 Z-2.625 I0. J0.794
Y96.726 Z-2.687 I0. J-0.794
Y98.314 Z-2.75 I0. J0.794
Y96.726 Z-2.812 I0. J-0.794
Y98.314 Z-2.875 I0. J0.794
Y96.726 Z-2.937 I0. J-0.794
Y98.314 Z-3. I0. J0.794
Y96.726 Z-3.062 I0. J-0.794
Y98.314 Z-3.125 I0. J0.794
Y96.726 Z-3.187 I0. J-0.794
Y98.314 Z-3.25 I0. J0.794
Y96.726 Z-3.312 I0. J-0.794
Y98.314 Z-3.375 I0. J0.794
Y96.726 Z-3.437 I0. J-0.794
Y98.314 Z-3.5 I0. J0.794
Y96.726 Z-3.562 I0. J-0.794
Y98.314 Z-3.625 I0. J0.794
X155.473 Y96.878 Z-3.675 I0. J-0.794
X156.407 Y98.162 I0.467 J0.642
X155.473 Y96.878 I-0.467 J-0.642
X155.917 Y96.948 I0.187 J0.257
G1 X156.01 Y97.077
X156.052 Y97.134 Z-3.667
X156.091 Y97.188 Z-3.644
X156.127 Y97.237 Z-3.606
X156.156 Y97.277 Z-3.555
X156.178 Y97.308 Z-3.495
X156.192 Y97.327 Z-3.428
X156.197 Y97.333 Z-3.358
G0 Z5.
X130.858 Y122.92
Z4.
G1 Z2.318 F800.
G19 G3 Y123.238 Z2. J0.318 K0.
G1 Y123.396
G17 G3 X130.54 Y123.714 I-0.318 J0.
Y122.126 Z1.938 I0. J-0.794
Y123.714 Z1.875 I0. J0.794
Y122.126 Z1.813 I0. J-0.794
Y123.714 Z1.75 I0. J0.794
Y122.126 Z1.688 I0. J-0.794
Y123.714 Z1.625 I0. J0.794
Y122.126 Z1.563 I0. J-0.794
Y123.714 Z1.5 I0. J0.794
Y122.126 Z1.438 I0. J-0.794
Y123.714 Z1.375 I0. J0.794
Y122.126 Z1.313 I0. J-0.794
Y123.714 Z1.25 I0. J0.794
Y122.126 Z1.188 I0. J-0.794
Y123.714 Z1.125 I0. J0.794
Y122.126 Z1.063 I0. J-0.794
Y123.714 Z1. I0. J0.794
Y122.126 Z0.938 I0. J-0.794
Y123.714 Z0.875 I0. J0.794
Y122.126 Z0.813 I0. J-0.794
Y123.714 Z0.75 I0. J0.794
Y122.126 Z0.688 I0. J-0.794
Y123.714 Z0.625 I0. J0.794
Y122.126 Z0.563 I0. J-0.794
Y123.714 Z0.5 I0. J0.794
Y122.126 Z0.438 I0. J-0.794
Y123.714 Z0.375 I0. J0.794
Y122.126 Z0.313 I0. J-0.794
Y123.714 Z0.25 I0. J0.794
Y122.126 Z0.188 I0. J-0.794
Y123.714 Z0.125 I0. J0.794
Y122.126 Z0.063 I0. J-0.794
Y123.714 Z0. I0. J0.794
Y122.126 Z-0.062 I0. J-0.794
Y123.714 Z-0.125 I0. J0.794
Y122.126 Z-0.187 I0. J-0.794
Y123.714 Z-0.25 I0. J0.794
Y122.126 Z-0.312 I0. J-0.794
Y123.714 Z-0.375 I0. J0.794
Y122.126 Z-0.437 I0. J-0.794
Y123.714 Z-0.5 I0. J0.794
Y122.126 Z-0.562 I0. J-0.794
Y123.714 Z-0.625 I0. J0.794
Y122.126 Z-0.687 I0. J-0.794
Y123.714 Z-0.75 I0. J0.794
Y122.126 Z-0.812 I0. J-0.794
Y123.714 Z-0.875 I0. J0.794
Y122.126 Z-0.937 I0. J-0.794
Y123.714 Z-1. I0. J0.794
Y122.126 Z-1.062 I0. J-0.794
Y123.714 Z-1.125 I0. J0.794
Y122.126 Z-1.187 I0. J-0.794
Y123.714 Z-1.25 I0. J0.794
Y122.126 Z-1.312 I0. J-0.794
Y123.714 Z-1.375 I0. J0.794
Y122.126 Z-1.437 I0. J-0.794
Y123.714 Z-1.5 I0. J0.794
Y122.126 Z-1.562 I0. J-0.794
Y123.714 Z-1.625 I0. J0.794
Y122.126 Z-1.687 I0. J-0.794
Y123.714 Z-1.75 I0. J0.794
Y122.126 Z-1.812 I0. J-0.794
Y123.714 Z-1.875 I0. J0.794
Y122.126 Z-1.937 I0. J-0.794
Y123.714 Z-2. I0. J0.794
Y122.126 Z-2.062 I0. J-0.794
Y123.714 Z-2.125 I0. J0.794
Y122.126 Z-2.187 I0. J-0.794
Y123.714 Z-2.25 I0. J0.794
Y122.126 Z-2.312 I0. J-0.794
Y123.714 Z-2.375 I0. J0.794
Y122.126 Z-2.437 I0. J-0.794
Y123.714 Z-2.5 I0. J0.794
Y122.126 Z-2.562 I0. J-0.794
Y123.714 Z-2.625 I0. J0.794
Y122.126 Z-2.687 I0. J-0.794
Y123.714 Z-2.75 I0. J0.794
Y122.126 Z-2.812 I0. J-0.794
Y123.714 Z-2.875 I0. J0.794
Y122.126 Z-2.937 I0. J-0.794
Y123.714 Z-3. I0. J0.794
Y122.126 Z-3.062 I0. J-0.794
Y123.714 Z-3.125 I0. J0.794
Y122.126 Z-3.187 I0. J-0.794
Y123.714 Z-3.25 I0. J0.794
Y122.126 Z-3.312 I0. J-0.794
Y123.714 Z-3.375 I0. J0.794
Y122.126 Z-3.437 I0. J-0.794
Y123.714 Z-3.5 I0. J0.794
Y122.126 Z-3.562 I0. J-0.794
Y123.714 Z-3.625 I0. J0.794
X130.073 Y122.278 Z-3.675 I0. J-0.794
X131.007 Y123.562 I0.467 J0.642
X130.073 Y122.278 I-0.467 J-0.642
X130.517 Y122.348 I0.187 J0.257
G1 X130.61 Y122.477
X130.652 Y122.534 Z-3.667
X130.691 Y122.588 Z-3.644
X130.727 Y122.637 Z-3.606
X130.756 Y122.677 Z-3.555
X130.778 Y122.708 Z-3.495
X130.792 Y122.727 Z-3.428
X130.797 Y122.733 Z-3.358
G0 Z5.
X130.858 Y148.32
Z4.
G1 Z2.318 F800.
G19 G3 Y148.638 Z2. J0.318 K0.
G1 Y148.796
G17 G3 X130.54 Y149.114 I-0.318 J0.
Y147.526 Z1.938 I0. J-0.794
Y149.114 Z1.875 I0. J0.794
Y147.526 Z1.813 I0. J-0.794
Y149.114 Z1.75 I0. J0.794
Y147.526 Z1.688 I0. J-0.794
Y149.114 Z1.625 I0. J0.794
Y147.526 Z1.563 I0. J-0.794
Y149.114 Z1.5 I0. J0.794
Y147.526 Z1.438 I0. J-0.794
Y149.114 Z1.375 I0. J0.794
Y147.526 Z1.313 I0. J-0.794
Y149.114 Z1.25 I0. J0.794
Y147.526 Z1.188 I0. J-0.794
Y149.114 Z1.125 I0. J0.794
Y147.526 Z1.063 I0. J-0.794
Y149.114 Z1. I0. J0.794
Y147.526 Z0.938 I0. J-0.794
Y149.114 Z0.875 I0. J0.794
Y147.526 Z0.813 I0. J-0.794
Y149.114 Z0.75 I0. J0.794
Y147.526 Z0.688 I0. J-0.794
Y149.114 Z0.625 I0. J0.794
Y147.526 Z0.563 I0. J-0.794
Y149.114 Z0.5 I0. J0.794
Y147.526 Z0.438 I0. J-0.794
Y149.114 Z0.375 I0. J0.794
Y147.526 Z0.313 I0. J-0.794
Y149.114 Z0.25 I0. J0.794
Y147.526 Z0.188 I0. J-0.794
Y149.114 Z0.125 I0. J0.794
Y147.526 Z0.063 I0. J-0.794
Y149.114 Z0. I0. J0.794
Y147.526 Z-0.062 I0. J-0.794
Y149.114 Z-0.125 I0. J0.794
Y147.526 Z-0.187 I0. J-0.794
Y149.114 Z-0.25 I0. J0.794
Y147.526 Z-0.312 I0. J-0.794
Y149.114 Z-0.375 I0. J0.794
Y147.526 Z-0.437 I0. J-0.794
Y149.114 Z-0.5 I0. J0.794
Y147.526 Z-0.562 I0. J-0.794
Y149.114 Z-0.625 I0. J0.794
Y147.526 Z-0.687 I0. J-0.794
Y149.114 Z-0.75 I0. J0.794
Y147.526 Z-0.812 I0. J-0.794
Y149.114 Z-0.875 I0. J0.794
Y147.526 Z-0.937 I0. J-0.794
Y149.114 Z-1. I0. J0.794
Y147.526 Z-1.062 I0. J-0.794
Y149.114 Z-1.125 I0. J0.794
Y147.526 Z-1.187 I0. J-0.794
Y149.114 Z-1.25 I0. J0.794
Y147.526 Z-1.312 I0. J-0.794
Y149.114 Z-1.375 I0. J0.794
Y147.526 Z-1.437 I0. J-0.794
Y149.114 Z-1.5 I0. J0.794
Y147.526 Z-1.562 I0. J-0.794
Y149.114 Z-1.625 I0. J0.794
Y147.526 Z-1.687 I0. J-0.794
Y149.114 Z-1.75 I0. J0.794
Y147.526 Z-1.812 I0. J-0.794
Y149.114 Z-1.875 I0. J0.794
Y147.526 Z-1.937 I0. J-0.794
Y149.114 Z-2. I0. J0.794
Y147.526 Z-2.062 I0. J-0.794
Y149.114 Z-2.125 I0. J0.794
Y147.526 Z-2.187 I0. J-0.794
Y149.114 Z-2.25 I0. J0.794
Y147.526 Z-2.312 I0. J-0.794
Y149.114 Z-2.375 I0. J0.794
Y147.526 Z-2.437 I0. J-0.794
Y149.114 Z-2.5 I0. J0.794
Y147.526 Z-2.562 I0. J-0.794
Y149.114 Z-2.625 I0. J0.794
Y147.526 Z-2.687 I0. J-0.794
Y149.114 Z-2.75 I0. J0.794
Y147.526 Z-2.812 I0. J-0.794
Y149.114 Z-2.875 I0. J0.794
Y147.526 Z-2.937 I0. J-0.794
Y149.114 Z-3. I0. J0.794
Y147.526 Z-3.062 I0. J-0.794
Y149.114 Z-3.125 I0. J0.794
Y147.526 Z-3.187 I0. J-0.794
Y149.114 Z-3.25 I0. J0.794
Y147.526 Z-3.312 I0. J-0.794
Y149.114 Z-3.375 I0. J0.794
Y147.526 Z-3.437 I0. J-0.794
Y149.114 Z-3.5 I0. J0.794
Y147.526 Z-3.562 I0. J-0.794
Y149.114 Z-3.625 I0. J0.794
X130.073 Y147.678 Z-3.675 I0. J-0.794
X131.007 Y148.962 I0.467 J0.642
X130.073 Y147.678 I-0.467 J-0.642
X130.517 Y147.748 I0.187 J0.257
G1 X130.61 Y147.877
X130.652 Y147.934 Z-3.667
X130.691 Y147.988 Z-3.644
X130.727 Y148.037 Z-3.606
X130.756 Y148.077 Z-3.555
X130.778 Y148.108 Z-3.495
X130.792 Y148.127 Z-3.428
X130.797 Y148.133 Z-3.358
G0 Z15.

(BORE5)
G0 X162.77 Y148.487
Z15.
Z4.
G1 Z2.318 F800.
G19 G2 Y148.17 Z2. J-0.317 K0.
G1 Y148.011
G17 G3 X163.087 Y147.694 I0.317 J0.
Y149.281 Z1.938 I0. J0.794
Y147.694 Z1.875 I0. J-0.794
Y149.281 Z1.813 I0. J0.794
Y147.694 Z1.75 I0. J-0.794
Y149.281 Z1.688 I0. J0.794
Y147.694 Z1.625 I0. J-0.794
Y149.281 Z1.563 I0. J0.794
Y147.694 Z1.5 I0. J-0.794
Y149.281 Z1.438 I0. J0.794
Y147.694 Z1.375 I0. J-0.794
Y149.281 Z1.313 I0. J0.794
Y147.694 Z1.25 I0. J-0.794
Y149.281 Z1.188 I0. J0.794
Y147.694 Z1.125 I0. J-0.794
Y149.281 Z1.063 I0. J0.794
Y147.694 Z1. I0. J-0.794
Y149.281 Z0.938 I0. J0.794
Y147.694 Z0.875 I0. J-0.794
Y149.281 Z0.813 I0. J0.794
Y147.694 Z0.75 I0. J-0.794
Y149.281 Z0.688 I0. J0.794
Y147.694 Z0.625 I0. J-0.794
Y149.281 Z0.563 I0. J0.794
Y147.694 Z0.5 I0. J-0.794
Y149.281 Z0.438 I0. J0.794
Y147.694 Z0.375 I0. J-0.794
Y149.281 Z0.313 I0. J0.794
Y147.694 Z0.25 I0. J-0.794
Y149.281 Z0.188 I0. J0.794
Y147.694 Z0.125 I0. J-0.794
Y149.281 Z0.063 I0. J0.794
Y147.694 Z0. I0. J-0.794
Y149.281 Z-0.062 I0. J0.794
Y147.694 Z-0.125 I0. J-0.794
Y149.281 Z-0.187 I0. J0.794
Y147.694 Z-0.25 I0. J-0.794
Y149.281 Z-0.312 I0. J0.794
Y147.694 Z-0.375 I0. J-0.794
Y149.281 Z-0.437 I0. J0.794
Y147.694 Z-0.5 I0. J-0.794
Y149.281 Z-0.562 I0. J0.794
Y147.694 Z-0.625 I0. J-0.794
Y149.281 Z-0.687 I0. J0.794
Y147.694 Z-0.75 I0. J-0.794
Y149.281 Z-0.812 I0. J0.794
Y147.694 Z-0.875 I0. J-0.794
Y149.281 Z-0.937 I0. J0.794
Y147.694 Z-1. I0. J-0.794
Y149.281 Z-1.062 I0. J0.794
Y147.694 Z-1.125 I0. J-0.794
Y149.281 Z-1.187 I0. J0.794
Y147.694 Z-1.25 I0. J-0.794
Y149.281 Z-1.312 I0. J0.794
Y147.694 Z-1.375 I0. J-0.794
Y149.281 Z-1.437 I0. J0.794
Y147.694 Z-1.5 I0. J-0.794
Y149.281 Z-1.562 I0. J0.794
Y147.694 Z-1.625 I0. J-0.794
Y149.281 Z-1.687 I0. J0.794
Y147.694 Z-1.75 I0. J-0.794
Y149.281 Z-1.812 I0. J0.794
Y147.694 Z-1.875 I0. J-0.794
Y149.281 Z-1.937 I0. J0.794
Y147.694 Z-2. I0. J-0.794
Y149.281 Z-2.062 I0. J0.794
Y147.694 Z-2.125 I0. J-0.794
Y149.281 Z-2.187 I0. J0.794
Y147.694 Z-2.25 I0. J-0.794
Y149.281 Z-2.312 I0. J0.794
Y147.694 Z-2.375 I0. J-0.794
Y149.281 Z-2.437 I0. J0.794
Y147.694 Z-2.5 I0. J-0.794
Y149.281 Z-2.562 I0. J0.794
Y147.694 Z-2.625 I0. J-0.794
Y149.281 Z-2.687 I0. J0.794
Y147.694 Z-2.75 I0. J-0.794
Y149.281 Z-2.812 I0. J0.794
Y147.694 Z-2.875 I0. J-0.794
Y149.281 Z-2.937 I0. J0.794
Y147.694 Z-3. I0. J-0.794
Y149.281 Z-3.062 I0. J0.794
Y147.694 Z-3.125 I0. J-0.794
Y149.281 Z-3.187 I0. J0.794
Y147.694 Z-3.25 I0. J-0.794
Y149.281 Z-3.312 I0. J0.794
Y147.694 Z-3.375 I0. J-0.794
Y149.281 Z-3.437 I0. J0.794
Y147.694 Z-3.5 I0. J-0.794
Y149.281 Z-3.562 I0. J0.794
Y147.694 Z-3.625 I0. J-0.794
X163.554 Y149.13 Z-3.675 I0. J0.794
X162.621 Y147.845 I-0.467 J-0.642
X163.554 Y149.13 I0.467 J0.642
X163.11 Y149.059 I-0.187 J-0.257
G1 X163.017 Y148.931
X162.976 Y148.874 Z-3.667
X162.936 Y148.819 Z-3.644
X162.901 Y148.771 Z-3.606
X162.871 Y148.73 Z-3.555
X162.849 Y148.699 Z-3.495
X162.835 Y148.68 Z-3.428
X162.831 Y148.674 Z-3.358
G0 Z5.
X188.17 Y148.487
Z4.
G1 Z2.318 F800.
G19 G2 Y148.17 Z2. J-0.317 K0.
G1 Y148.011
G17 G3 X188.487 Y147.694 I0.317 J0.
Y149.281 Z1.938 I0. J0.794
Y147.694 Z1.875 I0. J-0.794
Y149.281 Z1.813 I0. J0.794
Y147.694 Z1.75 I0. J-0.794
Y149.281 Z1.688 I0. J0.794
Y147.694 Z1.625 I0. J-0.794
Y149.281 Z1.563 I0. J0.794
Y147.694 Z1.5 I0. J-0.794
Y149.281 Z1.438 I0. J0.794
Y147.694 Z1.375 I0. J-0.794
Y149.281 Z1.313 I0. J0.794
Y147.694 Z1.25 I0. J-0.794
Y149.281 Z1.188 I0. J0.794
Y147.694 Z1.125 I0. J-0.794
Y149.281 Z1.063 I0. J0.794
Y147.694 Z1. I0. J-0.794
Y149.281 Z0.938 I0. J0.794
Y147.694 Z0.875 I0. J-0.794
Y149.281 Z0.813 I0. J0.794
Y147.694 Z0.75 I0. J-0.794
Y149.281 Z0.688 I0. J0.794
Y147.694 Z0.625 I0. J-0.794
Y149.281 Z0.563 I0. J0.794
Y147.694 Z0.5 I0. J-0.794
Y149.281 Z0.438 I0. J0.794
Y147.694 Z0.375 I0. J-0.794
Y149.281 Z0.313 I0. J0.794
Y147.694 Z0.25 I0. J-0.794
Y149.281 Z0.188 I0. J0.794
Y147.694 Z0.125 I0. J-0.794
Y149.281 Z0.063 I0. J0.794
Y147.694 Z0. I0. J-0.794
Y149.281 Z-0.062 I0. J0.794
Y147.694 Z-0.125 I0. J-0.794
Y149.281 Z-0.187 I0. J0.794
Y147.694 Z-0.25 I0. J-0.794
Y149.281 Z-0.312 I0. J0.794
Y147.694 Z-0.375 I0. J-0.794
Y149.281 Z-0.437 I0. J0.794
Y147.694 Z-0.5 I0. J-0.794
Y149.281 Z-0.562 I0. J0.794
Y147.694 Z-0.625 I0. J-0.794
Y149.281 Z-0.687 I0. J0.794
Y147.694 Z-0.75 I0. J-0.794
Y149.281 Z-0.812 I0. J0.794
Y147.694 Z-0.875 I0. J-0.794
Y149.281 Z-0.937 I0. J0.794
Y147.694 Z-1. I0. J-0.794
Y149.281 Z-1.062 I0. J0.794
Y147.694 Z-1.125 I0. J-0.794
Y149.281 Z-1.187 I0. J0.794
Y147.694 Z-1.25 I0. J-0.794
Y149.281 Z-1.312 I0. J0.794
Y147.694 Z-1.375 I0. J-0.794
Y149.281 Z-1.437 I0. J0.794
Y147.694 Z-1.5 I0. J-0.794
Y149.281 Z-1.562 I0. J0.794
Y147.694 Z-1.625 I0. J-0.794
Y149.281 Z-1.687 I0. J0.794
Y147.694 Z-1.75 I0. J-0.794
Y149.281 Z-1.812 I0. J0.794
Y147.694 Z-1.875 I0. J-0.794
Y149.281 Z-1.937 I0. J0.794
Y147.694 Z-2. I0. J-0.794
Y149.281 Z-2.062 I0. J0.794
Y147.694 Z-2.125 I0. J-0.794
Y149.281 Z-2.187 I0. J0.794
Y147.694 Z-2.25 I0. J-0.794
Y149.281 Z-2.312 I0. J0.794
Y147.694 Z-2.375 I0. J-0.794
Y149.281 Z-2.437 I0. J0.794
Y147.694 Z-2.5 I0. J-0.794
Y149.281 Z-2.562 I0. J0.794
Y147.694 Z-2.625 I0. J-0.794
Y149.281 Z-2.687 I0. J0.794
Y147.694 Z-2.75 I0. J-0.794
Y149.281 Z-2.812 I0. J0.794
Y147.694 Z-2.875 I0. J-0.794
Y149.281 Z-2.937 I0. J0.794
Y147.694 Z-3. I0. J-0.794
Y149.281 Z-3.062 I0. J0.794
Y147.694 Z-3.125 I0. J-0.794
Y149.281 Z-3.187 I0. J0.794
Y147.694 Z-3.25 I0. J-0.794
Y149.281 Z-3.312 I0. J0.794
Y147.694 Z-3.375 I0. J-0.794
Y149.281 Z-3.437 I0. J0.794
Y147.694 Z-3.5 I0. J-0.794
Y149.281 Z-3.562 I0. J0.794
Y147.694 Z-3.625 I0. J-0.794
X188.954 Y149.13 Z-3.675 I0. J0.794
X188.021 Y147.845 I-0.467 J-0.642
X188.954 Y149.13 I0.467 J0.642
X188.51 Y149.059 I-0.187 J-0.257
G1 X188.417 Y148.931
X188.376 Y148.874 Z-3.667
X188.336 Y148.819 Z-3.644
X188.301 Y148.771 Z-3.606
X188.271 Y148.73 Z-3.555
X188.249 Y148.699 Z-3.495
X188.235 Y148.68 Z-3.428
X188.231 Y148.674 Z-3.358
G0 Z5.
X213.57 Y123.087
Z4.
G1 Z2.318 F800.
G19 G2 Y122.77 Z2. J-0.318 K0.
G1 Y122.611
G17 G3 X213.887 Y122.294 I0.318 J0.
Y123.881 Z1.938 I0. J0.794
Y122.294 Z1.875 I0. J-0.794
Y123.881 Z1.813 I0. J0.794
Y122.294 Z1.75 I0. J-0.794
Y123.881 Z1.688 I0. J0.794
Y122.294 Z1.625 I0. J-0.794
Y123.881 Z1.563 I0. J0.794
Y122.294 Z1.5 I0. J-0.794
Y123.881 Z1.438 I0. J0.794
Y122.294 Z1.375 I0. J-0.794
Y123.881 Z1.313 I0. J0.794
Y122.294 Z1.25 I0. J-0.794
Y123.881 Z1.188 I0. J0.794
Y122.294 Z1.125 I0. J-0.794
Y123.881 Z1.063 I0. J0.794
Y122.294 Z1. I0. J-0.794
Y123.881 Z0.938 I0. J0.794
Y122.294 Z0.875 I0. J-0.794
Y123.881 Z0.813 I0. J0.794
Y122.294 Z0.75 I0. J-0.794
Y123.881 Z0.688 I0. J0.794
Y122.294 Z0.625 I0. J-0.794
Y123.881 Z0.563 I0. J0.794
Y122.294 Z0.5 I0. J-0.794
Y123.881 Z0.438 I0. J0.794
Y122.294 Z0.375 I0. J-0.794
Y123.881 Z0.313 I0. J0.794
Y122.294 Z0.25 I0. J-0.794
Y123.881 Z0.188 I0. J0.794
Y122.294 Z0.125 I0. J-0.794
Y123.881 Z0.063 I0. J0.794
Y122.294 Z0. I0. J-0.794
Y123.881 Z-0.062 I0. J0.794
Y122.294 Z-0.125 I0. J-0.794
Y123.881 Z-0.187 I0. J0.794
Y122.294 Z-0.25 I0. J-0.794
Y123.881 Z-0.312 I0. J0.794
Y122.294 Z-0.375 I0. J-0.794
Y123.881 Z-0.437 I0. J0.794
Y122.294 Z-0.5 I0. J-0.794
Y123.881 Z-0.562 I0. J0.794
Y122.294 Z-0.625 I0. J-0.794
Y123.881 Z-0.687 I0. J0.794
Y122.294 Z-0.75 I0. J-0.794
Y123.881 Z-0.812 I0. J0.794
Y122.294 Z-0.875 I0. J-0.794
Y123.881 Z-0.937 I0. J0.794
Y122.294 Z-1. I0. J-0.794
Y123.881 Z-1.062 I0. J0.794
Y122.294 Z-1.125 I0. J-0.794
Y123.881 Z-1.187 I0. J0.794
Y122.294 Z-1.25 I0. J-0.794
Y123.881 Z-1.312 I0. J0.794
Y122.294 Z-1.375 I0. J-0.794
Y123.881 Z-1.437 I0. J0.794
Y122.294 Z-1.5 I0. J-0.794
Y123.881 Z-1.562 I0. J0.794
Y122.294 Z-1.625 I0. J-0.794
Y123.881 Z-1.687 I0. J0.794
Y122.294 Z-1.75 I0. J-0.794
Y123.881 Z-1.812 I0. J0.794
Y122.294 Z-1.875 I0. J-0.794
Y123.881 Z-1.937 I0. J0.794
Y122.294 Z-2. I0. J-0.794
Y123.881 Z-2.062 I0. J0.794
Y122.294 Z-2.125 I0. J-0.794
Y123.881 Z-2.187 I0. J0.794
Y122.294 Z-2.25 I0. J-0.794
Y123.881 Z-2.312 I0. J0.794
Y122.294 Z-2.375 I0. J-0.794
Y123.881 Z-2.437 I0. J0.794
Y122.294 Z-2.5 I0. J-0.794
Y123.881 Z-2.562 I0. J0.794
Y122.294 Z-2.625 I0. J-0.794
Y123.881 Z-2.687 I0. J0.794
Y122.294 Z-2.75 I0. J-0.794
Y123.881 Z-2.812 I0. J0.794
Y122.294 Z-2.875 I0. J-0.794
Y123.881 Z-2.937 I0. J0.794
Y122.294 Z-3. I0. J-0.794
Y123.881 Z-3.062 I0. J0.794
Y122.294 Z-3.125 I0. J-0.794
Y123.881 Z-3.187 I0. J0.794
Y122.294 Z-3.25 I0. J-0.794
Y123.881 Z-3.312 I0. J0.794
Y122.294 Z-3.375 I0. J-0.794
Y123.881 Z-3.437 I0. J0.794
Y122.294 Z-3.5 I0. J-0.794
Y123.881 Z-3.562 I0. J0.794
Y122.294 Z-3.625 I0. J-0.794
X214.354 Y123.73 Z-3.675 I0. J0.794
X213.421 Y122.445 I-0.467 J-0.642
X214.354 Y123.73 I0.467 J0.642
X213.91 Y123.659 I-0.187 J-0.257
G1 X213.817 Y123.531
X213.776 Y123.474 Z-3.667
X213.736 Y123.419 Z-3.644
X213.701 Y123.371 Z-3.606
X213.671 Y123.33 Z-3.555
X213.649 Y123.299 Z-3.495
X213.635 Y123.28 Z-3.428
X213.631 Y123.274 Z-3.358
G0 Z5.
X213.57 Y97.687
Z4.
G1 Z2.318 F800.
G19 G2 Y97.37 Z2. J-0.318 K0.
G1 Y97.211
G17 G3 X213.887 Y96.894 I0.318 J0.
Y98.481 Z1.938 I0. J0.794
Y96.894 Z1.875 I0. J-0.794
Y98.481 Z1.813 I0. J0.794
Y96.894 Z1.75 I0. J-0.794
Y98.481 Z1.688 I0. J0.794
Y96.894 Z1.625 I0. J-0.794
Y98.481 Z1.563 I0. J0.794
Y96.894 Z1.5 I0. J-0.794
Y98.481 Z1.438 I0. J0.794
Y96.894 Z1.375 I0. J-0.794
Y98.481 Z1.313 I0. J0.794
Y96.894 Z1.25 I0. J-0.794
Y98.481 Z1.188 I0. J0.794
Y96.894 Z1.125 I0. J-0.794
Y98.481 Z1.063 I0. J0.794
Y96.894 Z1. I0. J-0.794
Y98.481 Z0.938 I0. J0.794
Y96.894 Z0.875 I0. J-0.794
Y98.481 Z0.813 I0. J0.794
Y96.894 Z0.75 I0. J-0.794
Y98.481 Z0.688 I0. J0.794
Y96.894 Z0.625 I0. J-0.794
Y98.481 Z0.563 I0. J0.794
Y96.894 Z0.5 I0. J-0.794
Y98.481 Z0.438 I0. J0.794
Y96.894 Z0.375 I0. J-0.794
Y98.481 Z0.313 I0. J0.794
Y96.894 Z0.25 I0. J-0.794
Y98.481 Z0.188 I0. J0.794
Y96.894 Z0.125 I0. J-0.794
Y98.481 Z0.063 I0. J0.794
Y96.894 Z0. I0. J-0.794
Y98.481 Z-0.062 I0. J0.794
Y96.894 Z-0.125 I0. J-0.794
Y98.481 Z-0.187 I0. J0.794
Y96.894 Z-0.25 I0. J-0.794
Y98.481 Z-0.312 I0. J0.794
Y96.894 Z-0.375 I0. J-0.794
Y98.481 Z-0.437 I0. J0.794
Y96.894 Z-0.5 I0. J-0.794
Y98.481 Z-0.562 I0. J0.794
Y96.894 Z-0.625 I0. J-0.794
Y98.481 Z-0.687 I0. J0.794
Y96.894 Z-0.75 I0. J-0.794
Y98.481 Z-0.812 I0. J0.794
Y96.894 Z-0.875 I0. J-0.794
Y98.481 Z-0.937 I0. J0.794
Y96.894 Z-1. I0. J-0.794
Y98.481 Z-1.062 I0. J0.794
Y96.894 Z-1.125 I0. J-0.794
Y98.481 Z-1.187 I0. J0.794
Y96.894 Z-1.25 I0. J-0.794
Y98.481 Z-1.312 I0. J0.794
Y96.894 Z-1.375 I0. J-0.794
Y98.481 Z-1.437 I0. J0.794
Y96.894 Z-1.5 I0. J-0.794
Y98.481 Z-1.562 I0. J0.794
Y96.894 Z-1.625 I0. J-0.794
Y98.481 Z-1.687 I0. J0.794
Y96.894 Z-1.75 I0. J-0.794
Y98.481 Z-1.812 I0. J0.794
Y96.894 Z-1.875 I0. J-0.794
Y98.481 Z-1.937 I0. J0.794
Y96.894 Z-2. I0. J-0.794
Y98.481 Z-2.062 I0. J0.794
Y96.894 Z-2.125 I0. J-0.794
Y98.481 Z-2.187 I0. J0.794
Y96.894 Z-2.25 I0. J-0.794
Y98.481 Z-2.312 I0. J0.794
Y96.894 Z-2.375 I0. J-0.794
Y98.481 Z-2.437 I0. J0.794
Y96.894 Z-2.5 I0. J-0.794
Y98.481 Z-2.562 I0. J0.794
Y96.894 Z-2.625 I0. J-0.794
Y98.481 Z-2.687 I0. J0.794
Y96.894 Z-2.75 I0. J-0.794
Y98.481 Z-2.812 I0. J0.794
Y96.894 Z-2.875 I0. J-0.794
Y98.481 Z-2.937 I0. J0.794
Y96.894 Z-3. I0. J-0.794
Y98.481 Z-3.062 I0. J0.794
Y96.894 Z-3.125 I0. J-0.794
Y98.481 Z-3.187 I0. J0.794
Y96.894 Z-3.25 I0. J-0.794
Y98.481 Z-3.312 I0. J0.794
Y96.894 Z-3.375 I0. J-0.794
Y98.481 Z-3.437 I0. J0.794
Y96.894 Z-3.5 I0. J-0.794
Y98.481 Z-3.562 I0. J0.794
Y96.894 Z-3.625 I0. J-0.794
X214.354 Y98.33 Z-3.675 I0. J0.794
X213.421 Y97.045 I-0.467 J-0.642
X214.354 Y98.33 I0.467 J0.642
X213.91 Y98.259 I-0.187 J-0.257
G1 X213.817 Y98.131
X213.776 Y98.074 Z-3.667
X213.736 Y98.019 Z-3.644
X213.701 Y97.971 Z-3.606
X213.671 Y97.93 Z-3.555
X213.649 Y97.899 Z-3.495
X213.635 Y97.88 Z-3.428
X213.631 Y97.874 Z-3.358
G0 Z15.
G0 X0 Y0

M9
M30
