(19.05.02.01.02)
(T1  D=6.35 CR=0. - ZMIN=-4.675 - FLAT END MILL)
G90 G94 G91.1 G40 G49 G17
G21
G0 Z15

(2D CONTOUR2)
M5
T1 M6
S15000 M3
G54
M8
G0 X31.98 Y37.269
Z15.
Z5.
G1 Z3.135 F400.
G18 G3 X31.345 Z2.5 I-0.635 K0.
G1 X30.71
G17 G3 X30.075 Y36.634 I0. J-0.635
G1 Y32.75 Z2.364
G3 X32.75 Y30.075 Z2.218 I2.675 J0.
G1 X74.025 Z0.776
G2 X80.875 Y23.225 Z0.401 I0. J-6.85
G1 Y4.175 Z-0.265
G2 X74.025 Y-2.675 Z-0.64 I-6.85 J0.
G1 X4.175 Z-3.08
G2 X-2.675 Y4.175 Z-3.455 I0. J6.85
G1 Y39.1 Z-4.675
Y74.025
G2 X4.175 Y80.875 I6.85 J0.
G1 X23.225
G2 X30.075 Y74.025 I0. J-6.85
G1 Y32.75
G3 X32.75 Y30.075 I2.675 J0.
G1 X74.025
G2 X80.875 Y23.225 I0. J-6.85
G1 Y4.175
G2 X74.025 Y-2.675 I-6.85 J0.
G1 X4.175
G2 X-2.675 Y4.175 I0. J6.85
G1 Y39.1
G2 X-2.425 Y39.475 I0.406 J0.
G3 X-2.175 Y39.85 I-0.156 J0.375
G1 Y74.025
G2 X4.175 Y80.375 I6.35 J0.
G1 X23.225
G2 X29.575 Y74.025 I0. J-6.35
G1 Y32.75
G3 X32.75 Y29.575 I3.175 J0.
G1 X74.025
G2 X80.375 Y23.225 I0. J-6.35
G1 Y4.175
G2 X74.025 Y-2.175 I-6.35 J0.
G1 X4.175
G2 X-2.175 Y4.175 I0. J6.35
G1 Y39.85
G3 X-2.81 Y40.485 I-0.635 J0.
G1 X-3.445
G18 G3 X-4.08 Z-4.04 I0. K0.635
G0 Z15.
G17

(2D CONTOUR1 2)
G0 Z16.
X155.343 Y-4.18
Z6.
G1 Z4.135 F1600.
G19 G3 Y-3.545 Z3.5 J0.635 K0.
G1 Y-2.91
G17 G3 X154.708 Y-2.275 I-0.635 J0.
G1 X121.015 Z2.323
G2 X114.565 Y4.175 Z1.97 I0. J6.45
G1 Y39.1 Z0.75
Y74.025
G2 X121.015 Y80.475 I6.45 J0.
G1 X140.065
G2 X146.515 Y74.025 I0. J-6.45
G1 Y32.75
G3 X149.59 Y29.675 I3.075 J0.
G1 X190.865
G2 X197.315 Y23.225 I0. J-6.45
G1 Y4.175
G2 X190.865 Y-2.275 I-6.45 J0.
G1 X121.015
G2 X114.565 Y4.175 I0. J6.45
G1 Y39.1
Y46.259 Z0.5
Y74.025
G2 X121.015 Y80.475 I6.45 J0.
G1 X140.065
G2 X146.515 Y74.025 I0. J-6.45
G1 Y32.75
G3 X149.59 Y29.675 I3.075 J0.
G1 X190.865
G2 X197.315 Y23.225 I0. J-6.45
G1 Y4.175
G2 X190.865 Y-2.275 I-6.45 J0.
G1 X121.015
G2 X114.565 Y4.175 I0. J6.45
G1 Y39.1
Y46.259
Y53.418 Z0.25
Y74.025
G2 X121.015 Y80.475 I6.45 J0.
G1 X140.065
G2 X146.515 Y74.025 I0. J-6.45
G1 Y32.75
G3 X149.59 Y29.675 I3.075 J0.
G1 X190.865
G2 X197.315 Y23.225 I0. J-6.45
G1 Y4.175
G2 X190.865 Y-2.275 I-6.45 J0.
G1 X121.015
G2 X114.565 Y4.175 I0. J6.45
G1 Y46.259
Y53.418
Y60.577 Z0.
Y74.025
G2 X121.015 Y80.475 I6.45 J0.
G1 X140.065
G2 X146.515 Y74.025 I0. J-6.45
G1 Y32.75
G3 X149.59 Y29.675 I3.075 J0.
G1 X190.865
G2 X197.315 Y23.225 I0. J-6.45
G1 Y4.175
G2 X190.865 Y-2.275 I-6.45 J0.
G1 X121.015
G2 X114.565 Y4.175 I0. J6.45
G1 Y53.418
Y60.577
Y67.736 Z-0.25
Y74.025
G2 X121.015 Y80.475 I6.45 J0.
G1 X140.065
G2 X146.515 Y74.025 I0. J-6.45
G1 Y32.75
G3 X149.59 Y29.675 I3.075 J0.
G1 X190.865
G2 X197.315 Y23.225 I0. J-6.45
G1 Y4.175
G2 X190.865 Y-2.275 I-6.45 J0.
G1 X121.015
G2 X114.565 Y4.175 I0. J6.45
G1 Y60.577
Y67.736
Y74.025 Z-0.47
G2 X114.624 Y74.893 Z-0.5 I6.45 J0.
X121.015 Y80.475 I6.391 J-0.868
G1 X140.065
G2 X146.515 Y74.025 I0. J-6.45
G1 Y32.75
G3 X149.59 Y29.675 I3.075 J0.
G1 X190.865
G2 X197.315 Y23.225 I0. J-6.45
G1 Y4.175
G2 X190.865 Y-2.275 I-6.45 J0.
G1 X121.015
G2 X114.565 Y4.175 I0. J6.45
G1 Y67.736
Y74.025
G2 X114.624 Y74.893 I6.45 J0.
X118.95 Y80.135 Z-0.75 I6.391 J-0.868
X121.015 Y80.475 I2.065 J-6.11
G1 X140.065
G2 X146.515 Y74.025 I0. J-6.45
G1 Y32.75
G3 X149.59 Y29.675 I3.075 J0.
G1 X190.865
G2 X197.315 Y23.225 I0. J-6.45
G1 Y4.175
G2 X190.865 Y-2.275 I-6.45 J0.
G1 X121.015
G2 X114.565 Y4.175 I0. J6.45
G1 Y74.025
G2 X118.95 Y80.135 I6.45 J0.
X121.015 Y80.475 Z-0.823 I2.065 J-6.11
G1 X126.072 Z-1.
X140.065
G2 X146.515 Y74.025 I0. J-6.45
G1 Y32.75
G3 X149.59 Y29.675 I3.075 J0.
G1 X190.865
G2 X197.315 Y23.225 I0. J-6.45
G1 Y4.175
G2 X190.865 Y-2.275 I-6.45 J0.
G1 X121.015
G2 X114.565 Y4.175 I0. J6.45
G1 Y74.025
G2 X121.015 Y80.475 I6.45 J0.
G1 X126.072
X133.231 Z-1.25
X140.065
G2 X146.515 Y74.025 I0. J-6.45
G1 Y32.75
G3 X149.59 Y29.675 I3.075 J0.
G1 X190.865
G2 X197.315 Y23.225 I0. J-6.45
G1 Y4.175
G2 X190.865 Y-2.275 I-6.45 J0.
G1 X121.015
G2 X114.565 Y4.175 I0. J6.45
G1 Y74.025
G2 X121.015 Y80.475 I6.45 J0.
G1 X133.231
X140.065 Z-1.489
G2 X140.39 Y80.467 Z-1.5 I0. J-6.45
X146.515 Y74.025 I-0.325 J-6.442
G1 Y32.75
G3 X149.59 Y29.675 I3.075 J0.
G1 X190.865
G2 X197.315 Y23.225 I0. J-6.45
G1 Y4.175
G2 X190.865 Y-2.275 I-6.45 J0.
G1 X121.015
G2 X114.565 Y4.175 I0. J6.45
G1 Y74.025
G2 X121.015 Y80.475 I6.45 J0.
G1 X133.231
X140.065
G2 X140.39 Y80.467 I0. J-6.45
X145.979 Y76.599 Z-1.75 I-0.325 J-6.442
X146.515 Y74.025 I-5.914 J-2.574
G1 Y32.75
G3 X149.59 Y29.675 I3.075 J0.
G1 X190.865
G2 X197.315 Y23.225 I0. J-6.45
G1 Y4.175
G2 X190.865 Y-2.275 I-6.45 J0.
G1 X121.015
G2 X114.565 Y4.175 I0. J6.45
G1 Y74.025
G2 X121.015 Y80.475 I6.45 J0.
G1 X140.065
G2 X145.979 Y76.599 I0. J-6.45
X146.515 Y74.025 Z-1.842 I-5.914 J-2.574
G1 Y69.513 Z-2.
Y32.75
G3 X149.59 Y29.675 I3.075 J0.
G1 X190.865
G2 X197.315 Y23.225 I0. J-6.45
G1 Y4.175
G2 X190.865 Y-2.275 I-6.45 J0.
G1 X121.015
G2 X114.565 Y4.175 I0. J6.45
G1 Y74.025
G2 X121.015 Y80.475 I6.45 J0.
G1 X140.065
G2 X146.515 Y74.025 I0. J-6.45
G1 Y69.513
Y62.354 Z-2.25
Y32.75
G3 X149.59 Y29.675 I3.075 J0.
G1 X190.865
G2 X197.315 Y23.225 I0. J-6.45
G1 Y4.175
G2 X190.865 Y-2.275 I-6.45 J0.
G1 X121.015
G2 X114.565 Y4.175 I0. J6.45
G1 Y74.025
G2 X121.015 Y80.475 I6.45 J0.
G1 X140.065
G2 X146.515 Y74.025 I0. J-6.45
G1 Y62.354
Y55.195 Z-2.5
Y32.75
G3 X149.59 Y29.675 I3.075 J0.
G1 X190.865
G2 X197.315 Y23.225 I0. J-6.45
G1 Y4.175
G2 X190.865 Y-2.275 I-6.45 J0.
G1 X121.015
G2 X114.565 Y4.175 I0. J6.45
G1 Y74.025
G2 X121.015 Y80.475 I6.45 J0.
G1 X140.065
G2 X146.515 Y74.025 I0. J-6.45
G1 Y62.354
Y55.195
Y48.036 Z-2.75
Y32.75
G3 X149.59 Y29.675 I3.075 J0.
G1 X190.865
G2 X197.315 Y23.225 I0. J-6.45
G1 Y4.175
G2 X190.865 Y-2.275 I-6.45 J0.
G1 X121.015
G2 X114.565 Y4.175 I0. J6.45
G1 Y74.025
G2 X121.015 Y80.475 I6.45 J0.
G1 X140.065
G2 X146.515 Y74.025 I0. J-6.45
G1 Y55.195
Y48.036
Y40.877 Z-3.
Y32.75
G3 X149.59 Y29.675 I3.075 J0.
G1 X190.865
G2 X197.315 Y23.225 I0. J-6.45
G1 Y4.175
G2 X190.865 Y-2.275 I-6.45 J0.
G1 X121.015
G2 X114.565 Y4.175 I0. J6.45
G1 Y74.025
G2 X121.015 Y80.475 I6.45 J0.
G1 X140.065
G2 X146.515 Y74.025 I0. J-6.45
G1 Y48.036
Y40.877
Y33.718 Z-3.25
Y32.75
G3 X149.59 Y29.675 I3.075 J0.
G1 X190.865
G2 X197.315 Y23.225 I0. J-6.45
G1 Y4.175
G2 X190.865 Y-2.275 I-6.45 J0.
G1 X121.015
G2 X114.565 Y4.175 I0. J6.45
G1 Y74.025
G2 X121.015 Y80.475 I6.45 J0.
G1 X140.065
G2 X146.515 Y74.025 I0. J-6.45
G1 Y40.877
Y33.718
Y32.75 Z-3.284
G3 X149.59 Y29.675 Z-3.452 I3.075 J0.
G1 X150.951 Z-3.5
X190.865
G2 X197.315 Y23.225 I0. J-6.45
G1 Y4.175
G2 X190.865 Y-2.275 I-6.45 J0.
G1 X121.015
G2 X114.565 Y4.175 I0. J6.45
G1 Y74.025
G2 X121.015 Y80.475 I6.45 J0.
G1 X140.065
G2 X146.515 Y74.025 I0. J-6.45
G1 Y33.718
Y32.75
G3 X149.59 Y29.675 I3.075 J0.
G1 X150.951
X158.11 Z-3.75
X190.865
G2 X197.315 Y23.225 I0. J-6.45
G1 Y4.175
G2 X190.865 Y-2.275 I-6.45 J0.
G1 X121.015
G2 X114.565 Y4.175 I0. J6.45
G1 Y74.025
G2 X121.015 Y80.475 I6.45 J0.
G1 X140.065
G2 X146.515 Y74.025 I0. J-6.45
G1 Y32.75
G3 X149.59 Y29.675 I3.075 J0.
G1 X158.11
X165.269 Z-4.
X190.865
G2 X197.315 Y23.225 I0. J-6.45
G1 Y4.175
G2 X190.865 Y-2.275 I-6.45 J0.
G1 X121.015
G2 X114.565 Y4.175 I0. J6.45
G1 Y74.025
G2 X121.015 Y80.475 I6.45 J0.
G1 X140.065
G2 X146.515 Y74.025 I0. J-6.45
G1 Y32.75
G3 X149.59 Y29.675 I3.075 J0.
G1 X158.11
X165.269
X172.428 Z-4.25
X190.865
G2 X197.315 Y23.225 I0. J-6.45
G1 Y4.175
G2 X190.865 Y-2.275 I-6.45 J0.
G1 X121.015
G2 X114.565 Y4.175 I0. J6.45
G1 Y74.025
G2 X121.015 Y80.475 I6.45 J0.
G1 X140.065
G2 X146.515 Y74.025 I0. J-6.45
G1 Y32.75
G3 X149.59 Y29.675 I3.075 J0.
G1 X165.269
X172.428
X179.587 Z-4.5
X190.865
G2 X197.315 Y23.225 I0. J-6.45
G1 Y4.175
G2 X190.865 Y-2.275 I-6.45 J0.
G1 X121.015
G2 X114.565 Y4.175 I0. J6.45
G1 Y74.025
G2 X121.015 Y80.475 I6.45 J0.
G1 X140.065
G2 X146.515 Y74.025 I0. J-6.45
G1 Y32.75
G3 X149.59 Y29.675 I3.075 J0.
G1 X172.428
X179.587
X181.735 Z-4.575
X190.865
G2 X197.315 Y23.225 I0. J-6.45
G1 Y4.175
G2 X190.865 Y-2.275 I-6.45 J0.
G1 X121.015
G2 X114.565 Y4.175 I0. J6.45
G1 Y74.025
G2 X121.015 Y80.475 I6.45 J0.
G1 X140.065
G2 X146.515 Y74.025 I0. J-6.45
G1 Y32.75
G3 X149.59 Y29.675 I3.075 J0.
G1 X179.587
X181.735
G3 X182.37 Y30.31 I0. J0.635
G1 Y30.945
G19 G3 Y31.58 Z-3.94 J0. K0.635
G0 Z16.
G17

(2D CONTOUR2)
G0 X148.82 Y37.269
Z15.
Z5.
G1 Z3.135 F400.
G18 G3 X148.185 Z2.5 I-0.635 K0.
G1 X147.55
G17 G3 X146.915 Y36.634 I0. J-0.635
G1 Y32.75 Z2.364
G3 X149.59 Y30.075 Z2.218 I2.675 J0.
G1 X190.865 Z0.776
G2 X197.715 Y23.225 Z0.401 I0. J-6.85
G1 Y4.175 Z-0.265
G2 X190.865 Y-2.675 Z-0.64 I-6.85 J0.
G1 X121.015 Z-3.08
G2 X114.165 Y4.175 Z-3.455 I0. J6.85
G1 Y39.1 Z-4.675
Y74.025
G2 X121.015 Y80.875 I6.85 J0.
G1 X140.065
G2 X146.915 Y74.025 I0. J-6.85
G1 Y32.75
G3 X149.59 Y30.075 I2.675 J0.
G1 X190.865
G2 X197.715 Y23.225 I0. J-6.85
G1 Y4.175
G2 X190.865 Y-2.675 I-6.85 J0.
G1 X121.015
G2 X114.165 Y4.175 I0. J6.85
G1 Y39.1
G2 X114.415 Y39.475 I0.406 J0.
G3 X114.665 Y39.85 I-0.156 J0.375
G1 Y74.025
G2 X121.015 Y80.375 I6.35 J0.
G1 X140.065
G2 X146.415 Y74.025 I0. J-6.35
G1 Y32.75
G3 X149.59 Y29.575 I3.175 J0.
G1 X190.865
G2 X197.215 Y23.225 I0. J-6.35
G1 Y4.175
G2 X190.865 Y-2.175 I-6.35 J0.
G1 X121.015
G2 X114.665 Y4.175 I0. J6.35
G1 Y39.85
G3 X114.03 Y40.485 I-0.635 J0.
G1 X113.395
G18 G3 X112.76 Z-4.04 I0. K0.635
G0 Z15.
G17

(2D CONTOUR1 2)
G0 Z16.
X189.084 Y82.547
Z6.
G1 Z4.135 F1600.
G19 G2 Y81.912 Z3.5 J-0.635 K0.
G1 Y81.277
G17 G3 X189.719 Y80.642 I0.635 J0.
G1 X223.412 Z2.323
G2 X229.862 Y74.192 Z1.97 I0. J-6.45
G1 Y39.267 Z0.75
Y4.342
G2 X223.412 Y-2.108 I-6.45 J0.
G1 X204.362
G2 X197.912 Y4.342 I0. J6.45
G1 Y45.617
G3 X194.837 Y48.692 I-3.075 J0.
G1 X153.562
G2 X147.112 Y55.142 I0. J6.45
G1 Y74.192
G2 X153.562 Y80.642 I6.45 J0.
G1 X223.412
G2 X229.862 Y74.192 I0. J-6.45
G1 Y39.267
Y32.108 Z0.5
Y4.342
G2 X223.412 Y-2.108 I-6.45 J0.
G1 X204.362
G2 X197.912 Y4.342 I0. J6.45
G1 Y45.617
G3 X194.837 Y48.692 I-3.075 J0.
G1 X153.562
G2 X147.112 Y55.142 I0. J6.45
G1 Y74.192
G2 X153.562 Y80.642 I6.45 J0.
G1 X223.412
G2 X229.862 Y74.192 I0. J-6.45
G1 Y39.267
Y32.108
Y24.949 Z0.25
Y4.342
G2 X223.412 Y-2.108 I-6.45 J0.
G1 X204.362
G2 X197.912 Y4.342 I0. J6.45
G1 Y45.617
G3 X194.837 Y48.692 I-3.075 J0.
G1 X153.562
G2 X147.112 Y55.142 I0. J6.45
G1 Y74.192
G2 X153.562 Y80.642 I6.45 J0.
G1 X223.412
G2 X229.862 Y74.192 I0. J-6.45
G1 Y32.108
Y24.949
Y17.79 Z0.
Y4.342
G2 X223.412 Y-2.108 I-6.45 J0.
G1 X204.362
G2 X197.912 Y4.342 I0. J6.45
G1 Y45.617
G3 X194.837 Y48.692 I-3.075 J0.
G1 X153.562
G2 X147.112 Y55.142 I0. J6.45
G1 Y74.192
G2 X153.562 Y80.642 I6.45 J0.
G1 X223.412
G2 X229.862 Y74.192 I0. J-6.45
G1 Y24.949
Y17.79
Y10.631 Z-0.25
Y4.342
G2 X223.412 Y-2.108 I-6.45 J0.
G1 X204.362
G2 X197.912 Y4.342 I0. J6.45
G1 Y45.617
G3 X194.837 Y48.692 I-3.075 J0.
G1 X153.562
G2 X147.112 Y55.142 I0. J6.45
G1 Y74.192
G2 X153.562 Y80.642 I6.45 J0.
G1 X223.412
G2 X229.862 Y74.192 I0. J-6.45
G1 Y17.79
Y10.631
Y4.342 Z-0.47
G2 X229.803 Y3.475 Z-0.5 I-6.45 J0.
X223.412 Y-2.108 I-6.391 J0.868
G1 X204.362
G2 X197.912 Y4.342 I0. J6.45
G1 Y45.617
G3 X194.837 Y48.692 I-3.075 J0.
G1 X153.562
G2 X147.112 Y55.142 I0. J6.45
G1 Y74.192
G2 X153.562 Y80.642 I6.45 J0.
G1 X223.412
G2 X229.862 Y74.192 I0. J-6.45
G1 Y10.631
Y4.342
G2 X229.803 Y3.475 I-6.45 J0.
X225.477 Y-1.768 Z-0.75 I-6.391 J0.868
X223.412 Y-2.108 I-2.065 J6.11
G1 X204.362
G2 X197.912 Y4.342 I0. J6.45
G1 Y45.617
G3 X194.837 Y48.692 I-3.075 J0.
G1 X153.562
G2 X147.112 Y55.142 I0. J6.45
G1 Y74.192
G2 X153.562 Y80.642 I6.45 J0.
G1 X223.412
G2 X229.862 Y74.192 I0. J-6.45
G1 Y4.342
G2 X225.477 Y-1.768 I-6.45 J0.
X223.412 Y-2.108 Z-0.823 I-2.065 J6.11
G1 X218.355 Z-1.
X204.362
G2 X197.912 Y4.342 I0. J6.45
G1 Y45.617
G3 X194.837 Y48.692 I-3.075 J0.
G1 X153.562
G2 X147.112 Y55.142 I0. J6.45
G1 Y74.192
G2 X153.562 Y80.642 I6.45 J0.
G1 X223.412
G2 X229.862 Y74.192 I0. J-6.45
G1 Y4.342
G2 X223.412 Y-2.108 I-6.45 J0.
G1 X218.355
X211.196 Z-1.25
X204.362
G2 X197.912 Y4.342 I0. J6.45
G1 Y45.617
G3 X194.837 Y48.692 I-3.075 J0.
G1 X153.562
G2 X147.112 Y55.142 I0. J6.45
G1 Y74.192
G2 X153.562 Y80.642 I6.45 J0.
G1 X223.412
G2 X229.862 Y74.192 I0. J-6.45
G1 Y4.342
G2 X223.412 Y-2.108 I-6.45 J0.
G1 X211.196
X204.362 Z-1.489
G2 X204.037 Y-2.099 Z-1.5 I0. J6.45
X197.912 Y4.342 I0.325 J6.442
G1 Y45.617
G3 X194.837 Y48.692 I-3.075 J0.
G1 X153.562
G2 X147.112 Y55.142 I0. J6.45
G1 Y74.192
G2 X153.562 Y80.642 I6.45 J0.
G1 X223.412
G2 X229.862 Y74.192 I0. J-6.45
G1 Y4.342
G2 X223.412 Y-2.108 I-6.45 J0.
G1 X211.196
X204.362
G2 X204.037 Y-2.099 I0. J6.45
X198.448 Y1.769 Z-1.75 I0.325 J6.442
X197.912 Y4.342 I5.914 J2.574
G1 Y45.617
G3 X194.837 Y48.692 I-3.075 J0.
G1 X153.562
G2 X147.112 Y55.142 I0. J6.45
G1 Y74.192
G2 X153.562 Y80.642 I6.45 J0.
G1 X223.412
G2 X229.862 Y74.192 I0. J-6.45
G1 Y4.342
G2 X223.412 Y-2.108 I-6.45 J0.
G1 X204.362
G2 X198.448 Y1.769 I0. J6.45
X197.912 Y4.342 Z-1.842 I5.914 J2.574
G1 Y8.854 Z-2.
Y45.617
G3 X194.837 Y48.692 I-3.075 J0.
G1 X153.562
G2 X147.112 Y55.142 I0. J6.45
G1 Y74.192
G2 X153.562 Y80.642 I6.45 J0.
G1 X223.412
G2 X229.862 Y74.192 I0. J-6.45
G1 Y4.342
G2 X223.412 Y-2.108 I-6.45 J0.
G1 X204.362
G2 X197.912 Y4.342 I0. J6.45
G1 Y8.854
Y16.013 Z-2.25
Y45.617
G3 X194.837 Y48.692 I-3.075 J0.
G1 X153.562
G2 X147.112 Y55.142 I0. J6.45
G1 Y74.192
G2 X153.562 Y80.642 I6.45 J0.
G1 X223.412
G2 X229.862 Y74.192 I0. J-6.45
G1 Y4.342
G2 X223.412 Y-2.108 I-6.45 J0.
G1 X204.362
G2 X197.912 Y4.342 I0. J6.45
G1 Y16.013
Y23.172 Z-2.5
Y45.617
G3 X194.837 Y48.692 I-3.075 J0.
G1 X153.562
G2 X147.112 Y55.142 I0. J6.45
G1 Y74.192
G2 X153.562 Y80.642 I6.45 J0.
G1 X223.412
G2 X229.862 Y74.192 I0. J-6.45
G1 Y4.342
G2 X223.412 Y-2.108 I-6.45 J0.
G1 X204.362
G2 X197.912 Y4.342 I0. J6.45
G1 Y16.013
Y23.172
Y30.331 Z-2.75
Y45.617
G3 X194.837 Y48.692 I-3.075 J0.
G1 X153.562
G2 X147.112 Y55.142 I0. J6.45
G1 Y74.192
G2 X153.562 Y80.642 I6.45 J0.
G1 X223.412
G2 X229.862 Y74.192 I0. J-6.45
G1 Y4.342
G2 X223.412 Y-2.108 I-6.45 J0.
G1 X204.362
G2 X197.912 Y4.342 I0. J6.45
G1 Y23.172
Y30.331
Y37.49 Z-3.
Y45.617
G3 X194.837 Y48.692 I-3.075 J0.
G1 X153.562
G2 X147.112 Y55.142 I0. J6.45
G1 Y74.192
G2 X153.562 Y80.642 I6.45 J0.
G1 X223.412
G2 X229.862 Y74.192 I0. J-6.45
G1 Y4.342
G2 X223.412 Y-2.108 I-6.45 J0.
G1 X204.362
G2 X197.912 Y4.342 I0. J6.45
G1 Y30.331
Y37.49
Y44.65 Z-3.25
Y45.617
G3 X194.837 Y48.692 I-3.075 J0.
G1 X153.562
G2 X147.112 Y55.142 I0. J6.45
G1 Y74.192
G2 X153.562 Y80.642 I6.45 J0.
G1 X223.412
G2 X229.862 Y74.192 I0. J-6.45
G1 Y4.342
G2 X223.412 Y-2.108 I-6.45 J0.
G1 X204.362
G2 X197.912 Y4.342 I0. J6.45
G1 Y37.49
Y44.65
Y45.617 Z-3.284
G3 X194.837 Y48.692 Z-3.452 I-3.075 J0.
G1 X193.476 Z-3.5
X153.562
G2 X147.112 Y55.142 I0. J6.45
G1 Y74.192
G2 X153.562 Y80.642 I6.45 J0.
G1 X223.412
G2 X229.862 Y74.192 I0. J-6.45
G1 Y4.342
G2 X223.412 Y-2.108 I-6.45 J0.
G1 X204.362
G2 X197.912 Y4.342 I0. J6.45
G1 Y44.65
Y45.617
G3 X194.837 Y48.692 I-3.075 J0.
G1 X193.476
X186.317 Z-3.75
X153.562
G2 X147.112 Y55.142 I0. J6.45
G1 Y74.192
G2 X153.562 Y80.642 I6.45 J0.
G1 X223.412
G2 X229.862 Y74.192 I0. J-6.45
G1 Y4.342
G2 X223.412 Y-2.108 I-6.45 J0.
G1 X204.362
G2 X197.912 Y4.342 I0. J6.45
G1 Y45.617
G3 X194.837 Y48.692 I-3.075 J0.
G1 X186.317
X179.158 Z-4.
X153.562
G2 X147.112 Y55.142 I0. J6.45
G1 Y74.192
G2 X153.562 Y80.642 I6.45 J0.
G1 X223.412
G2 X229.862 Y74.192 I0. J-6.45
G1 Y4.342
G2 X223.412 Y-2.108 I-6.45 J0.
G1 X204.362
G2 X197.912 Y4.342 I0. J6.45
G1 Y45.617
G3 X194.837 Y48.692 I-3.075 J0.
G1 X186.317
X179.158
X171.999 Z-4.25
X153.562
G2 X147.112 Y55.142 I0. J6.45
G1 Y74.192
G2 X153.562 Y80.642 I6.45 J0.
G1 X223.412
G2 X229.862 Y74.192 I0. J-6.45
G1 Y4.342
G2 X223.412 Y-2.108 I-6.45 J0.
G1 X204.362
G2 X197.912 Y4.342 I0. J6.45
G1 Y45.617
G3 X194.837 Y48.692 I-3.075 J0.
G1 X179.158
X171.999
X164.84 Z-4.5
X153.562
G2 X147.112 Y55.142 I0. J6.45
G1 Y74.192
G2 X153.562 Y80.642 I6.45 J0.
G1 X223.412
G2 X229.862 Y74.192 I0. J-6.45
G1 Y4.342
G2 X223.412 Y-2.108 I-6.45 J0.
G1 X204.362
G2 X197.912 Y4.342 I0. J6.45
G1 Y45.617
G3 X194.837 Y48.692 I-3.075 J0.
G1 X171.999
X164.84
X162.692 Z-4.575
X153.562
G2 X147.112 Y55.142 I0. J6.45
G1 Y74.192
G2 X153.562 Y80.642 I6.45 J0.
G1 X223.412
G2 X229.862 Y74.192 I0. J-6.45
G1 Y4.342
G2 X223.412 Y-2.108 I-6.45 J0.
G1 X204.362
G2 X197.912 Y4.342 I0. J6.45
G1 Y45.617
G3 X194.837 Y48.692 I-3.075 J0.
G1 X164.84
X162.692
G3 X162.057 Y48.057 I0. J-0.635
G1 Y47.422
G19 G2 Y46.787 Z-3.94 J0. K0.635
G0 Z16.
G17

(2D CONTOUR2)
G0 X195.607 Y41.099
Z15.
Z5.
G1 Z3.135 F400.
G18 G2 X196.242 Z2.5 I0.635 K0.
G1 X196.877
G17 G3 X197.512 Y41.734 I0. J0.635
G1 Y45.617 Z2.364
G3 X194.837 Y48.292 Z2.218 I-2.675 J0.
G1 X153.562 Z0.776
G2 X146.712 Y55.142 Z0.401 I0. J6.85
G1 Y74.192 Z-0.265
G2 X153.562 Y81.042 Z-0.64 I6.85 J0.
G1 X223.412 Z-3.08
G2 X230.262 Y74.192 Z-3.455 I0. J-6.85
G1 Y39.267 Z-4.675
Y4.342
G2 X223.412 Y-2.508 I-6.85 J0.
G1 X204.362
G2 X197.512 Y4.342 I0. J6.85
G1 Y45.617
G3 X194.837 Y48.292 I-2.675 J0.
G1 X153.562
G2 X146.712 Y55.142 I0. J6.85
G1 Y74.192
G2 X153.562 Y81.042 I6.85 J0.
G1 X223.412
G2 X230.262 Y74.192 I0. J-6.85
G1 Y39.267
G2 X230.012 Y38.892 I-0.406 J0.
G3 X229.762 Y38.517 I0.156 J-0.375
G1 Y4.342
G2 X223.412 Y-2.008 I-6.35 J0.
G1 X204.362
G2 X198.012 Y4.342 I0. J6.35
G1 Y45.617
G3 X194.837 Y48.792 I-3.175 J0.
G1 X153.562
G2 X147.212 Y55.142 I0. J6.35
G1 Y74.192
G2 X153.562 Y80.542 I6.35 J0.
G1 X223.412
G2 X229.762 Y74.192 I0. J-6.35
G1 Y38.517
G3 X230.397 Y37.882 I0.635 J0.
G1 X231.032
G18 G2 X231.667 Z-4.04 I0. K0.635
G0 Z15.
G17

(2D CONTOUR1 2)
G0 Z16.
X189.084 Y166.367
Z6.
G1 Z4.135 F1600.
G19 G2 Y165.732 Z3.5 J-0.635 K0.
G1 Y165.097
G17 G3 X189.719 Y164.462 I0.635 J0.
G1 X223.412 Z2.323
G2 X229.862 Y158.012 Z1.97 I0. J-6.45
G1 Y123.087 Z0.75
Y88.162
G2 X223.412 Y81.712 I-6.45 J0.
G1 X204.362
G2 X197.912 Y88.162 I0. J6.45
G1 Y129.437
G3 X194.837 Y132.512 I-3.075 J0.
G1 X153.562
G2 X147.112 Y138.962 I0. J6.45
G1 Y158.012
G2 X153.562 Y164.462 I6.45 J0.
G1 X223.412
G2 X229.862 Y158.012 I0. J-6.45
G1 Y123.087
Y115.928 Z0.5
Y88.162
G2 X223.412 Y81.712 I-6.45 J0.
G1 X204.362
G2 X197.912 Y88.162 I0. J6.45
G1 Y129.437
G3 X194.837 Y132.512 I-3.075 J0.
G1 X153.562
G2 X147.112 Y138.962 I0. J6.45
G1 Y158.012
G2 X153.562 Y164.462 I6.45 J0.
G1 X223.412
G2 X229.862 Y158.012 I0. J-6.45
G1 Y123.087
Y115.928
Y108.769 Z0.25
Y88.162
G2 X223.412 Y81.712 I-6.45 J0.
G1 X204.362
G2 X197.912 Y88.162 I0. J6.45
G1 Y129.437
G3 X194.837 Y132.512 I-3.075 J0.
G1 X153.562
G2 X147.112 Y138.962 I0. J6.45
G1 Y158.012
G2 X153.562 Y164.462 I6.45 J0.
G1 X223.412
G2 X229.862 Y158.012 I0. J-6.45
G1 Y115.928
Y108.769
Y101.61 Z0.
Y88.162
G2 X223.412 Y81.712 I-6.45 J0.
G1 X204.362
G2 X197.912 Y88.162 I0. J6.45
G1 Y129.437
G3 X194.837 Y132.512 I-3.075 J0.
G1 X153.562
G2 X147.112 Y138.962 I0. J6.45
G1 Y158.012
G2 X153.562 Y164.462 I6.45 J0.
G1 X223.412
G2 X229.862 Y158.012 I0. J-6.45
G1 Y108.769
Y101.61
Y94.451 Z-0.25
Y88.162
G2 X223.412 Y81.712 I-6.45 J0.
G1 X204.362
G2 X197.912 Y88.162 I0. J6.45
G1 Y129.437
G3 X194.837 Y132.512 I-3.075 J0.
G1 X153.562
G2 X147.112 Y138.962 I0. J6.45
G1 Y158.012
G2 X153.562 Y164.462 I6.45 J0.
G1 X223.412
G2 X229.862 Y158.012 I0. J-6.45
G1 Y101.61
Y94.451
Y88.162 Z-0.47
G2 X229.803 Y87.295 Z-0.5 I-6.45 J0.
X223.412 Y81.712 I-6.391 J0.868
G1 X204.362
G2 X197.912 Y88.162 I0. J6.45
G1 Y129.437
G3 X194.837 Y132.512 I-3.075 J0.
G1 X153.562
G2 X147.112 Y138.962 I0. J6.45
G1 Y158.012
G2 X153.562 Y164.462 I6.45 J0.
G1 X223.412
G2 X229.862 Y158.012 I0. J-6.45
G1 Y94.451
Y88.162
G2 X229.803 Y87.295 I-6.45 J0.
X225.477 Y82.052 Z-0.75 I-6.391 J0.868
X223.412 Y81.712 I-2.065 J6.11
G1 X204.362
G2 X197.912 Y88.162 I0. J6.45
G1 Y129.437
G3 X194.837 Y132.512 I-3.075 J0.
G1 X153.562
G2 X147.112 Y138.962 I0. J6.45
G1 Y158.012
G2 X153.562 Y164.462 I6.45 J0.
G1 X223.412
G2 X229.862 Y158.012 I0. J-6.45
G1 Y88.162
G2 X225.477 Y82.052 I-6.45 J0.
X223.412 Y81.712 Z-0.823 I-2.065 J6.11
G1 X218.355 Z-1.
X204.362
G2 X197.912 Y88.162 I0. J6.45
G1 Y129.437
G3 X194.837 Y132.512 I-3.075 J0.
G1 X153.562
G2 X147.112 Y138.962 I0. J6.45
G1 Y158.012
G2 X153.562 Y164.462 I6.45 J0.
G1 X223.412
G2 X229.862 Y158.012 I0. J-6.45
G1 Y88.162
G2 X223.412 Y81.712 I-6.45 J0.
G1 X218.355
X211.196 Z-1.25
X204.362
G2 X197.912 Y88.162 I0. J6.45
G1 Y129.437
G3 X194.837 Y132.512 I-3.075 J0.
G1 X153.562
G2 X147.112 Y138.962 I0. J6.45
G1 Y158.012
G2 X153.562 Y164.462 I6.45 J0.
G1 X223.412
G2 X229.862 Y158.012 I0. J-6.45
G1 Y88.162
G2 X223.412 Y81.712 I-6.45 J0.
G1 X211.196
X204.362 Z-1.489
G2 X204.037 Y81.721 Z-1.5 I0. J6.45
X197.912 Y88.162 I0.325 J6.442
G1 Y129.437
G3 X194.837 Y132.512 I-3.075 J0.
G1 X153.562
G2 X147.112 Y138.962 I0. J6.45
G1 Y158.012
G2 X153.562 Y164.462 I6.45 J0.
G1 X223.412
G2 X229.862 Y158.012 I0. J-6.45
G1 Y88.162
G2 X223.412 Y81.712 I-6.45 J0.
G1 X211.196
X204.362
G2 X204.037 Y81.721 I0. J6.45
X198.448 Y85.589 Z-1.75 I0.325 J6.442
X197.912 Y88.162 I5.914 J2.574
G1 Y129.437
G3 X194.837 Y132.512 I-3.075 J0.
G1 X153.562
G2 X147.112 Y138.962 I0. J6.45
G1 Y158.012
G2 X153.562 Y164.462 I6.45 J0.
G1 X223.412
G2 X229.862 Y158.012 I0. J-6.45
G1 Y88.162
G2 X223.412 Y81.712 I-6.45 J0.
G1 X204.362
G2 X198.448 Y85.589 I0. J6.45
X197.912 Y88.162 Z-1.842 I5.914 J2.574
G1 Y92.674 Z-2.
Y129.437
G3 X194.837 Y132.512 I-3.075 J0.
G1 X153.562
G2 X147.112 Y138.962 I0. J6.45
G1 Y158.012
G2 X153.562 Y164.462 I6.45 J0.
G1 X223.412
G2 X229.862 Y158.012 I0. J-6.45
G1 Y88.162
G2 X223.412 Y81.712 I-6.45 J0.
G1 X204.362
G2 X197.912 Y88.162 I0. J6.45
G1 Y92.674
Y99.833 Z-2.25
Y129.437
G3 X194.837 Y132.512 I-3.075 J0.
G1 X153.562
G2 X147.112 Y138.962 I0. J6.45
G1 Y158.012
G2 X153.562 Y164.462 I6.45 J0.
G1 X223.412
G2 X229.862 Y158.012 I0. J-6.45
G1 Y88.162
G2 X223.412 Y81.712 I-6.45 J0.
G1 X204.362
G2 X197.912 Y88.162 I0. J6.45
G1 Y99.833
Y106.992 Z-2.5
Y129.437
G3 X194.837 Y132.512 I-3.075 J0.
G1 X153.562
G2 X147.112 Y138.962 I0. J6.45
G1 Y158.012
G2 X153.562 Y164.462 I6.45 J0.
G1 X223.412
G2 X229.862 Y158.012 I0. J-6.45
G1 Y88.162
G2 X223.412 Y81.712 I-6.45 J0.
G1 X204.362
G2 X197.912 Y88.162 I0. J6.45
G1 Y99.833
Y106.992
Y114.151 Z-2.75
Y129.437
G3 X194.837 Y132.512 I-3.075 J0.
G1 X153.562
G2 X147.112 Y138.962 I0. J6.45
G1 Y158.012
G2 X153.562 Y164.462 I6.45 J0.
G1 X223.412
G2 X229.862 Y158.012 I0. J-6.45
G1 Y88.162
G2 X223.412 Y81.712 I-6.45 J0.
G1 X204.362
G2 X197.912 Y88.162 I0. J6.45
G1 Y106.992
Y114.151
Y121.31 Z-3.
Y129.437
G3 X194.837 Y132.512 I-3.075 J0.
G1 X153.562
G2 X147.112 Y138.962 I0. J6.45
G1 Y158.012
G2 X153.562 Y164.462 I6.45 J0.
G1 X223.412
G2 X229.862 Y158.012 I0. J-6.45
G1 Y88.162
G2 X223.412 Y81.712 I-6.45 J0.
G1 X204.362
G2 X197.912 Y88.162 I0. J6.45
G1 Y114.151
Y121.31
Y128.47 Z-3.25
Y129.437
G3 X194.837 Y132.512 I-3.075 J0.
G1 X153.562
G2 X147.112 Y138.962 I0. J6.45
G1 Y158.012
G2 X153.562 Y164.462 I6.45 J0.
G1 X223.412
G2 X229.862 Y158.012 I0. J-6.45
G1 Y88.162
G2 X223.412 Y81.712 I-6.45 J0.
G1 X204.362
G2 X197.912 Y88.162 I0. J6.45
G1 Y121.31
Y128.47
Y129.437 Z-3.284
G3 X194.837 Y132.512 Z-3.452 I-3.075 J0.
G1 X193.476 Z-3.5
X153.562
G2 X147.112 Y138.962 I0. J6.45
G1 Y158.012
G2 X153.562 Y164.462 I6.45 J0.
G1 X223.412
G2 X229.862 Y158.012 I0. J-6.45
G1 Y88.162
G2 X223.412 Y81.712 I-6.45 J0.
G1 X204.362
G2 X197.912 Y88.162 I0. J6.45
G1 Y128.47
Y129.437
G3 X194.837 Y132.512 I-3.075 J0.
G1 X193.476
X186.317 Z-3.75
X153.562
G2 X147.112 Y138.962 I0. J6.45
G1 Y158.012
G2 X153.562 Y164.462 I6.45 J0.
G1 X223.412
G2 X229.862 Y158.012 I0. J-6.45
G1 Y88.162
G2 X223.412 Y81.712 I-6.45 J0.
G1 X204.362
G2 X197.912 Y88.162 I0. J6.45
G1 Y129.437
G3 X194.837 Y132.512 I-3.075 J0.
G1 X186.317
X179.158 Z-4.
X153.562
G2 X147.112 Y138.962 I0. J6.45
G1 Y158.012
G2 X153.562 Y164.462 I6.45 J0.
G1 X223.412
G2 X229.862 Y158.012 I0. J-6.45
G1 Y88.162
G2 X223.412 Y81.712 I-6.45 J0.
G1 X204.362
G2 X197.912 Y88.162 I0. J6.45
G1 Y129.437
G3 X194.837 Y132.512 I-3.075 J0.
G1 X186.317
X179.158
X171.999 Z-4.25
X153.562
G2 X147.112 Y138.962 I0. J6.45
G1 Y158.012
G2 X153.562 Y164.462 I6.45 J0.
G1 X223.412
G2 X229.862 Y158.012 I0. J-6.45
G1 Y88.162
G2 X223.412 Y81.712 I-6.45 J0.
G1 X204.362
G2 X197.912 Y88.162 I0. J6.45
G1 Y129.437
G3 X194.837 Y132.512 I-3.075 J0.
G1 X179.158
X171.999
X164.84 Z-4.5
X153.562
G2 X147.112 Y138.962 I0. J6.45
G1 Y158.012
G2 X153.562 Y164.462 I6.45 J0.
G1 X223.412
G2 X229.862 Y158.012 I0. J-6.45
G1 Y88.162
G2 X223.412 Y81.712 I-6.45 J0.
G1 X204.362
G2 X197.912 Y88.162 I0. J6.45
G1 Y129.437
G3 X194.837 Y132.512 I-3.075 J0.
G1 X171.999
X164.84
X162.692 Z-4.575
X153.562
G2 X147.112 Y138.962 I0. J6.45
G1 Y158.012
G2 X153.562 Y164.462 I6.45 J0.
G1 X223.412
G2 X229.862 Y158.012 I0. J-6.45
G1 Y88.162
G2 X223.412 Y81.712 I-6.45 J0.
G1 X204.362
G2 X197.912 Y88.162 I0. J6.45
G1 Y129.437
G3 X194.837 Y132.512 I-3.075 J0.
G1 X164.84
X162.692
G3 X162.057 Y131.877 I0. J-0.635
G1 Y131.242
G19 G2 Y130.607 Z-3.94 J0. K0.635
G0 Z16.
G17

(2D CONTOUR2)
G0 X195.607 Y124.919
Z15.
Z5.
G1 Z3.135 F400.
G18 G2 X196.242 Z2.5 I0.635 K0.
G1 X196.877
G17 G3 X197.512 Y125.554 I0. J0.635
G1 Y129.437 Z2.364
G3 X194.837 Y132.112 Z2.218 I-2.675 J0.
G1 X153.562 Z0.776
G2 X146.712 Y138.962 Z0.401 I0. J6.85
G1 Y158.012 Z-0.265
G2 X153.562 Y164.862 Z-0.64 I6.85 J0.
G1 X223.412 Z-3.08
G2 X230.262 Y158.012 Z-3.455 I0. J-6.85
G1 Y123.087 Z-4.675
Y88.162
G2 X223.412 Y81.312 I-6.85 J0.
G1 X204.362
G2 X197.512 Y88.162 I0. J6.85
G1 Y129.437
G3 X194.837 Y132.112 I-2.675 J0.
G1 X153.562
G2 X146.712 Y138.962 I0. J6.85
G1 Y158.012
G2 X153.562 Y164.862 I6.85 J0.
G1 X223.412
G2 X230.262 Y158.012 I0. J-6.85
G1 Y123.087
G2 X230.012 Y122.712 I-0.406 J0.
G3 X229.762 Y122.337 I0.156 J-0.375
G1 Y88.162
G2 X223.412 Y81.812 I-6.35 J0.
G1 X204.362
G2 X198.012 Y88.162 I0. J6.35
G1 Y129.437
G3 X194.837 Y132.612 I-3.175 J0.
G1 X153.562
G2 X147.212 Y138.962 I0. J6.35
G1 Y158.012
G2 X153.562 Y164.362 I6.35 J0.
G1 X223.412
G2 X229.762 Y158.012 I0. J-6.35
G1 Y122.337
G3 X230.397 Y121.702 I0.635 J0.
G1 X231.032
G18 G2 X231.667 Z-4.04 I0. K0.635
G0 Z15.
G17

(2D CONTOUR1 2)
G0 Z16.
X38.503 Y79.64
Z6.
G1 Z4.135 F1600.
G19 G3 Y80.275 Z3.5 J0.635 K0.
G1 Y80.91
G17 G3 X37.868 Y81.545 I-0.635 J0.
G1 X4.175 Z2.323
G2 X-2.275 Y87.995 Z1.97 I0. J6.45
G1 Y122.92 Z0.75
Y157.845
G2 X4.175 Y164.295 I6.45 J0.
G1 X23.225
G2 X29.675 Y157.845 I0. J-6.45
G1 Y116.57
G3 X32.75 Y113.495 I3.075 J0.
G1 X74.025
G2 X80.475 Y107.045 I0. J-6.45
G1 Y87.995
G2 X74.025 Y81.545 I-6.45 J0.
G1 X4.175
G2 X-2.275 Y87.995 I0. J6.45
G1 Y122.92
Y130.079 Z0.5
Y157.845
G2 X4.175 Y164.295 I6.45 J0.
G1 X23.225
G2 X29.675 Y157.845 I0. J-6.45
G1 Y116.57
G3 X32.75 Y113.495 I3.075 J0.
G1 X74.025
G2 X80.475 Y107.045 I0. J-6.45
G1 Y87.995
G2 X74.025 Y81.545 I-6.45 J0.
G1 X4.175
G2 X-2.275 Y87.995 I0. J6.45
G1 Y122.92
Y130.079
Y137.238 Z0.25
Y157.845
G2 X4.175 Y164.295 I6.45 J0.
G1 X23.225
G2 X29.675 Y157.845 I0. J-6.45
G1 Y116.57
G3 X32.75 Y113.495 I3.075 J0.
G1 X74.025
G2 X80.475 Y107.045 I0. J-6.45
G1 Y87.995
G2 X74.025 Y81.545 I-6.45 J0.
G1 X4.175
G2 X-2.275 Y87.995 I0. J6.45
G1 Y130.079
Y137.238
Y144.397 Z0.
Y157.845
G2 X4.175 Y164.295 I6.45 J0.
G1 X23.225
G2 X29.675 Y157.845 I0. J-6.45
G1 Y116.57
G3 X32.75 Y113.495 I3.075 J0.
G1 X74.025
G2 X80.475 Y107.045 I0. J-6.45
G1 Y87.995
G2 X74.025 Y81.545 I-6.45 J0.
G1 X4.175
G2 X-2.275 Y87.995 I0. J6.45
G1 Y137.238
Y144.397
Y151.556 Z-0.25
Y157.845
G2 X4.175 Y164.295 I6.45 J0.
G1 X23.225
G2 X29.675 Y157.845 I0. J-6.45
G1 Y116.57
G3 X32.75 Y113.495 I3.075 J0.
G1 X74.025
G2 X80.475 Y107.045 I0. J-6.45
G1 Y87.995
G2 X74.025 Y81.545 I-6.45 J0.
G1 X4.175
G2 X-2.275 Y87.995 I0. J6.45
G1 Y144.397
Y151.556
Y157.845 Z-0.47
G2 X-2.216 Y158.713 Z-0.5 I6.45 J0.
X4.175 Y164.295 I6.391 J-0.868
G1 X23.225
G2 X29.675 Y157.845 I0. J-6.45
G1 Y116.57
G3 X32.75 Y113.495 I3.075 J0.
G1 X74.025
G2 X80.475 Y107.045 I0. J-6.45
G1 Y87.995
G2 X74.025 Y81.545 I-6.45 J0.
G1 X4.175
G2 X-2.275 Y87.995 I0. J6.45
G1 Y151.556
Y157.845
G2 X-2.216 Y158.713 I6.45 J0.
X2.11 Y163.955 Z-0.75 I6.391 J-0.868
X4.175 Y164.295 I2.065 J-6.11
G1 X23.225
G2 X29.675 Y157.845 I0. J-6.45
G1 Y116.57
G3 X32.75 Y113.495 I3.075 J0.
G1 X74.025
G2 X80.475 Y107.045 I0. J-6.45
G1 Y87.995
G2 X74.025 Y81.545 I-6.45 J0.
G1 X4.175
G2 X-2.275 Y87.995 I0. J6.45
G1 Y157.845
G2 X2.11 Y163.955 I6.45 J0.
X4.175 Y164.295 Z-0.823 I2.065 J-6.11
G1 X9.232 Z-1.
X23.225
G2 X29.675 Y157.845 I0. J-6.45
G1 Y116.57
G3 X32.75 Y113.495 I3.075 J0.
G1 X74.025
G2 X80.475 Y107.045 I0. J-6.45
G1 Y87.995
G2 X74.025 Y81.545 I-6.45 J0.
G1 X4.175
G2 X-2.275 Y87.995 I0. J6.45
G1 Y157.845
G2 X4.175 Y164.295 I6.45 J0.
G1 X9.232
X16.391 Z-1.25
X23.225
G2 X29.675 Y157.845 I0. J-6.45
G1 Y116.57
G3 X32.75 Y113.495 I3.075 J0.
G1 X74.025
G2 X80.475 Y107.045 I0. J-6.45
G1 Y87.995
G2 X74.025 Y81.545 I-6.45 J0.
G1 X4.175
G2 X-2.275 Y87.995 I0. J6.45
G1 Y157.845
G2 X4.175 Y164.295 I6.45 J0.
G1 X16.391
X23.225 Z-1.489
G2 X23.55 Y164.287 Z-1.5 I0. J-6.45
X29.675 Y157.845 I-0.325 J-6.442
G1 Y116.57
G3 X32.75 Y113.495 I3.075 J0.
G1 X74.025
G2 X80.475 Y107.045 I0. J-6.45
G1 Y87.995
G2 X74.025 Y81.545 I-6.45 J0.
G1 X4.175
G2 X-2.275 Y87.995 I0. J6.45
G1 Y157.845
G2 X4.175 Y164.295 I6.45 J0.
G1 X16.391
X23.225
G2 X23.55 Y164.287 I0. J-6.45
X29.139 Y160.419 Z-1.75 I-0.325 J-6.442
X29.675 Y157.845 I-5.914 J-2.574
G1 Y116.57
G3 X32.75 Y113.495 I3.075 J0.
G1 X74.025
G2 X80.475 Y107.045 I0. J-6.45
G1 Y87.995
G2 X74.025 Y81.545 I-6.45 J0.
G1 X4.175
G2 X-2.275 Y87.995 I0. J6.45
G1 Y157.845
G2 X4.175 Y164.295 I6.45 J0.
G1 X23.225
G2 X29.139 Y160.419 I0. J-6.45
X29.675 Y157.845 Z-1.842 I-5.914 J-2.574
G1 Y153.333 Z-2.
Y116.57
G3 X32.75 Y113.495 I3.075 J0.
G1 X74.025
G2 X80.475 Y107.045 I0. J-6.45
G1 Y87.995
G2 X74.025 Y81.545 I-6.45 J0.
G1 X4.175
G2 X-2.275 Y87.995 I0. J6.45
G1 Y157.845
G2 X4.175 Y164.295 I6.45 J0.
G1 X23.225
G2 X29.675 Y157.845 I0. J-6.45
G1 Y153.333
Y146.174 Z-2.25
Y116.57
G3 X32.75 Y113.495 I3.075 J0.
G1 X74.025
G2 X80.475 Y107.045 I0. J-6.45
G1 Y87.995
G2 X74.025 Y81.545 I-6.45 J0.
G1 X4.175
G2 X-2.275 Y87.995 I0. J6.45
G1 Y157.845
G2 X4.175 Y164.295 I6.45 J0.
G1 X23.225
G2 X29.675 Y157.845 I0. J-6.45
G1 Y146.174
Y139.015 Z-2.5
Y116.57
G3 X32.75 Y113.495 I3.075 J0.
G1 X74.025
G2 X80.475 Y107.045 I0. J-6.45
G1 Y87.995
G2 X74.025 Y81.545 I-6.45 J0.
G1 X4.175
G2 X-2.275 Y87.995 I0. J6.45
G1 Y157.845
G2 X4.175 Y164.295 I6.45 J0.
G1 X23.225
G2 X29.675 Y157.845 I0. J-6.45
G1 Y146.174
Y139.015
Y131.856 Z-2.75
Y116.57
G3 X32.75 Y113.495 I3.075 J0.
G1 X74.025
G2 X80.475 Y107.045 I0. J-6.45
G1 Y87.995
G2 X74.025 Y81.545 I-6.45 J0.
G1 X4.175
G2 X-2.275 Y87.995 I0. J6.45
G1 Y157.845
G2 X4.175 Y164.295 I6.45 J0.
G1 X23.225
G2 X29.675 Y157.845 I0. J-6.45
G1 Y139.015
Y131.856
Y124.697 Z-3.
Y116.57
G3 X32.75 Y113.495 I3.075 J0.
G1 X74.025
G2 X80.475 Y107.045 I0. J-6.45
G1 Y87.995
G2 X74.025 Y81.545 I-6.45 J0.
G1 X4.175
G2 X-2.275 Y87.995 I0. J6.45
G1 Y157.845
G2 X4.175 Y164.295 I6.45 J0.
G1 X23.225
G2 X29.675 Y157.845 I0. J-6.45
G1 Y131.856
Y124.697
Y117.538 Z-3.25
Y116.57
G3 X32.75 Y113.495 I3.075 J0.
G1 X74.025
G2 X80.475 Y107.045 I0. J-6.45
G1 Y87.995
G2 X74.025 Y81.545 I-6.45 J0.
G1 X4.175
G2 X-2.275 Y87.995 I0. J6.45
G1 Y157.845
G2 X4.175 Y164.295 I6.45 J0.
G1 X23.225
G2 X29.675 Y157.845 I0. J-6.45
G1 Y124.697
Y117.538
Y116.57 Z-3.284
G3 X32.75 Y113.495 Z-3.452 I3.075 J0.
G1 X34.111 Z-3.5
X74.025
G2 X80.475 Y107.045 I0. J-6.45
G1 Y87.995
G2 X74.025 Y81.545 I-6.45 J0.
G1 X4.175
G2 X-2.275 Y87.995 I0. J6.45
G1 Y157.845
G2 X4.175 Y164.295 I6.45 J0.
G1 X23.225
G2 X29.675 Y157.845 I0. J-6.45
G1 Y117.538
Y116.57
G3 X32.75 Y113.495 I3.075 J0.
G1 X34.111
X41.27 Z-3.75
X74.025
G2 X80.475 Y107.045 I0. J-6.45
G1 Y87.995
G2 X74.025 Y81.545 I-6.45 J0.
G1 X4.175
G2 X-2.275 Y87.995 I0. J6.45
G1 Y157.845
G2 X4.175 Y164.295 I6.45 J0.
G1 X23.225
G2 X29.675 Y157.845 I0. J-6.45
G1 Y116.57
G3 X32.75 Y113.495 I3.075 J0.
G1 X41.27
X48.429 Z-4.
X74.025
G2 X80.475 Y107.045 I0. J-6.45
G1 Y87.995
G2 X74.025 Y81.545 I-6.45 J0.
G1 X4.175
G2 X-2.275 Y87.995 I0. J6.45
G1 Y157.845
G2 X4.175 Y164.295 I6.45 J0.
G1 X23.225
G2 X29.675 Y157.845 I0. J-6.45
G1 Y116.57
G3 X32.75 Y113.495 I3.075 J0.
G1 X41.27
X48.429
X55.588 Z-4.25
X74.025
G2 X80.475 Y107.045 I0. J-6.45
G1 Y87.995
G2 X74.025 Y81.545 I-6.45 J0.
G1 X4.175
G2 X-2.275 Y87.995 I0. J6.45
G1 Y157.845
G2 X4.175 Y164.295 I6.45 J0.
G1 X23.225
G2 X29.675 Y157.845 I0. J-6.45
G1 Y116.57
G3 X32.75 Y113.495 I3.075 J0.
G1 X48.429
X55.588
X62.747 Z-4.5
X74.025
G2 X80.475 Y107.045 I0. J-6.45
G1 Y87.995
G2 X74.025 Y81.545 I-6.45 J0.
G1 X4.175
G2 X-2.275 Y87.995 I0. J6.45
G1 Y157.845
G2 X4.175 Y164.295 I6.45 J0.
G1 X23.225
G2 X29.675 Y157.845 I0. J-6.45
G1 Y116.57
G3 X32.75 Y113.495 I3.075 J0.
G1 X55.588
X62.747
X64.895 Z-4.575
X74.025
G2 X80.475 Y107.045 I0. J-6.45
G1 Y87.995
G2 X74.025 Y81.545 I-6.45 J0.
G1 X4.175
G2 X-2.275 Y87.995 I0. J6.45
G1 Y157.845
G2 X4.175 Y164.295 I6.45 J0.
G1 X23.225
G2 X29.675 Y157.845 I0. J-6.45
G1 Y116.57
G3 X32.75 Y113.495 I3.075 J0.
G1 X62.747
X64.895
G3 X65.53 Y114.13 I0. J0.635
G1 Y114.765
G19 G3 Y115.4 Z-3.94 J0. K0.635
G0 Z16.
G17

(2D CONTOUR2)
G0 X31.98 Y121.089
Z15.
Z5.
G1 Z3.135 F400.
G18 G3 X31.345 Z2.5 I-0.635 K0.
G1 X30.71
G17 G3 X30.075 Y120.454 I0. J-0.635
G1 Y116.57 Z2.364
G3 X32.75 Y113.895 Z2.218 I2.675 J0.
G1 X74.025 Z0.776
G2 X80.875 Y107.045 Z0.401 I0. J-6.85
G1 Y87.995 Z-0.265
G2 X74.025 Y81.145 Z-0.64 I-6.85 J0.
G1 X4.175 Z-3.08
G2 X-2.675 Y87.995 Z-3.455 I0. J6.85
G1 Y122.92 Z-4.675
Y157.845
G2 X4.175 Y164.695 I6.85 J0.
G1 X23.225
G2 X30.075 Y157.845 I0. J-6.85
G1 Y116.57
G3 X32.75 Y113.895 I2.675 J0.
G1 X74.025
G2 X80.875 Y107.045 I0. J-6.85
G1 Y87.995
G2 X74.025 Y81.145 I-6.85 J0.
G1 X4.175
G2 X-2.675 Y87.995 I0. J6.85
G1 Y122.92
G2 X-2.425 Y123.295 I0.406 J0.
G3 X-2.175 Y123.67 I-0.156 J0.375
G1 Y157.845
G2 X4.175 Y164.195 I6.35 J0.
G1 X23.225
G2 X29.575 Y157.845 I0. J-6.35
G1 Y116.57
G3 X32.75 Y113.395 I3.175 J0.
G1 X74.025
G2 X80.375 Y107.045 I0. J-6.35
G1 Y87.995
G2 X74.025 Y81.645 I-6.35 J0.
G1 X4.175
G2 X-2.175 Y87.995 I0. J6.35
G1 Y123.67
G3 X-2.81 Y124.305 I-0.635 J0.
G1 X-3.445
G18 G3 X-4.08 Z-4.04 I0. K0.635
G0 Z15.
G17

(2D CONTOUR1 2)
G0 Z16.
X155.343 Y79.64
Z6.
G1 Z4.135 F1600.
G19 G3 Y80.275 Z3.5 J0.635 K0.
G1 Y80.91
G17 G3 X154.708 Y81.545 I-0.635 J0.
G1 X121.015 Z2.323
G2 X114.565 Y87.995 Z1.97 I0. J6.45
G1 Y122.92 Z0.75
Y157.845
G2 X121.015 Y164.295 I6.45 J0.
G1 X140.065
G2 X146.515 Y157.845 I0. J-6.45
G1 Y116.57
G3 X149.59 Y113.495 I3.075 J0.
G1 X190.865
G2 X197.315 Y107.045 I0. J-6.45
G1 Y87.995
G2 X190.865 Y81.545 I-6.45 J0.
G1 X121.015
G2 X114.565 Y87.995 I0. J6.45
G1 Y122.92
Y130.079 Z0.5
Y157.845
G2 X121.015 Y164.295 I6.45 J0.
G1 X140.065
G2 X146.515 Y157.845 I0. J-6.45
G1 Y116.57
G3 X149.59 Y113.495 I3.075 J0.
G1 X190.865
G2 X197.315 Y107.045 I0. J-6.45
G1 Y87.995
G2 X190.865 Y81.545 I-6.45 J0.
G1 X121.015
G2 X114.565 Y87.995 I0. J6.45
G1 Y122.92
Y130.079
Y137.238 Z0.25
Y157.845
G2 X121.015 Y164.295 I6.45 J0.
G1 X140.065
G2 X146.515 Y157.845 I0. J-6.45
G1 Y116.57
G3 X149.59 Y113.495 I3.075 J0.
G1 X190.865
G2 X197.315 Y107.045 I0. J-6.45
G1 Y87.995
G2 X190.865 Y81.545 I-6.45 J0.
G1 X121.015
G2 X114.565 Y87.995 I0. J6.45
G1 Y130.079
Y137.238
Y144.397 Z0.
Y157.845
G2 X121.015 Y164.295 I6.45 J0.
G1 X140.065
G2 X146.515 Y157.845 I0. J-6.45
G1 Y116.57
G3 X149.59 Y113.495 I3.075 J0.
G1 X190.865
G2 X197.315 Y107.045 I0. J-6.45
G1 Y87.995
G2 X190.865 Y81.545 I-6.45 J0.
G1 X121.015
G2 X114.565 Y87.995 I0. J6.45
G1 Y137.238
Y144.397
Y151.556 Z-0.25
Y157.845
G2 X121.015 Y164.295 I6.45 J0.
G1 X140.065
G2 X146.515 Y157.845 I0. J-6.45
G1 Y116.57
G3 X149.59 Y113.495 I3.075 J0.
G1 X190.865
G2 X197.315 Y107.045 I0. J-6.45
G1 Y87.995
G2 X190.865 Y81.545 I-6.45 J0.
G1 X121.015
G2 X114.565 Y87.995 I0. J6.45
G1 Y144.397
Y151.556
Y157.845 Z-0.47
G2 X114.624 Y158.713 Z-0.5 I6.45 J0.
X121.015 Y164.295 I6.391 J-0.868
G1 X140.065
G2 X146.515 Y157.845 I0. J-6.45
G1 Y116.57
G3 X149.59 Y113.495 I3.075 J0.
G1 X190.865
G2 X197.315 Y107.045 I0. J-6.45
G1 Y87.995
G2 X190.865 Y81.545 I-6.45 J0.
G1 X121.015
G2 X114.565 Y87.995 I0. J6.45
G1 Y151.556
Y157.845
G2 X114.624 Y158.713 I6.45 J0.
X118.95 Y163.955 Z-0.75 I6.391 J-0.868
X121.015 Y164.295 I2.065 J-6.11
G1 X140.065
G2 X146.515 Y157.845 I0. J-6.45
G1 Y116.57
G3 X149.59 Y113.495 I3.075 J0.
G1 X190.865
G2 X197.315 Y107.045 I0. J-6.45
G1 Y87.995
G2 X190.865 Y81.545 I-6.45 J0.
G1 X121.015
G2 X114.565 Y87.995 I0. J6.45
G1 Y157.845
G2 X118.95 Y163.955 I6.45 J0.
X121.015 Y164.295 Z-0.823 I2.065 J-6.11
G1 X126.072 Z-1.
X140.065
G2 X146.515 Y157.845 I0. J-6.45
G1 Y116.57
G3 X149.59 Y113.495 I3.075 J0.
G1 X190.865
G2 X197.315 Y107.045 I0. J-6.45
G1 Y87.995
G2 X190.865 Y81.545 I-6.45 J0.
G1 X121.015
G2 X114.565 Y87.995 I0. J6.45
G1 Y157.845
G2 X121.015 Y164.295 I6.45 J0.
G1 X126.072
X133.231 Z-1.25
X140.065
G2 X146.515 Y157.845 I0. J-6.45
G1 Y116.57
G3 X149.59 Y113.495 I3.075 J0.
G1 X190.865
G2 X197.315 Y107.045 I0. J-6.45
G1 Y87.995
G2 X190.865 Y81.545 I-6.45 J0.
G1 X121.015
G2 X114.565 Y87.995 I0. J6.45
G1 Y157.845
G2 X121.015 Y164.295 I6.45 J0.
G1 X133.231
X140.065 Z-1.489
G2 X140.39 Y164.287 Z-1.5 I0. J-6.45
X146.515 Y157.845 I-0.325 J-6.442
G1 Y116.57
G3 X149.59 Y113.495 I3.075 J0.
G1 X190.865
G2 X197.315 Y107.045 I0. J-6.45
G1 Y87.995
G2 X190.865 Y81.545 I-6.45 J0.
G1 X121.015
G2 X114.565 Y87.995 I0. J6.45
G1 Y157.845
G2 X121.015 Y164.295 I6.45 J0.
G1 X133.231
X140.065
G2 X140.39 Y164.287 I0. J-6.45
X145.979 Y160.419 Z-1.75 I-0.325 J-6.442
X146.515 Y157.845 I-5.914 J-2.574
G1 Y116.57
G3 X149.59 Y113.495 I3.075 J0.
G1 X190.865
G2 X197.315 Y107.045 I0. J-6.45
G1 Y87.995
G2 X190.865 Y81.545 I-6.45 J0.
G1 X121.015
G2 X114.565 Y87.995 I0. J6.45
G1 Y157.845
G2 X121.015 Y164.295 I6.45 J0.
G1 X140.065
G2 X145.979 Y160.419 I0. J-6.45
X146.515 Y157.845 Z-1.842 I-5.914 J-2.574
G1 Y153.333 Z-2.
Y116.57
G3 X149.59 Y113.495 I3.075 J0.
G1 X190.865
G2 X197.315 Y107.045 I0. J-6.45
G1 Y87.995
G2 X190.865 Y81.545 I-6.45 J0.
G1 X121.015
G2 X114.565 Y87.995 I0. J6.45
G1 Y157.845
G2 X121.015 Y164.295 I6.45 J0.
G1 X140.065
G2 X146.515 Y157.845 I0. J-6.45
G1 Y153.333
Y146.174 Z-2.25
Y116.57
G3 X149.59 Y113.495 I3.075 J0.
G1 X190.865
G2 X197.315 Y107.045 I0. J-6.45
G1 Y87.995
G2 X190.865 Y81.545 I-6.45 J0.
G1 X121.015
G2 X114.565 Y87.995 I0. J6.45
G1 Y157.845
G2 X121.015 Y164.295 I6.45 J0.
G1 X140.065
G2 X146.515 Y157.845 I0. J-6.45
G1 Y146.174
Y139.015 Z-2.5
Y116.57
G3 X149.59 Y113.495 I3.075 J0.
G1 X190.865
G2 X197.315 Y107.045 I0. J-6.45
G1 Y87.995
G2 X190.865 Y81.545 I-6.45 J0.
G1 X121.015
G2 X114.565 Y87.995 I0. J6.45
G1 Y157.845
G2 X121.015 Y164.295 I6.45 J0.
G1 X140.065
G2 X146.515 Y157.845 I0. J-6.45
G1 Y146.174
Y139.015
Y131.856 Z-2.75
Y116.57
G3 X149.59 Y113.495 I3.075 J0.
G1 X190.865
G2 X197.315 Y107.045 I0. J-6.45
G1 Y87.995
G2 X190.865 Y81.545 I-6.45 J0.
G1 X121.015
G2 X114.565 Y87.995 I0. J6.45
G1 Y157.845
G2 X121.015 Y164.295 I6.45 J0.
G1 X140.065
G2 X146.515 Y157.845 I0. J-6.45
G1 Y139.015
Y131.856
Y124.697 Z-3.
Y116.57
G3 X149.59 Y113.495 I3.075 J0.
G1 X190.865
G2 X197.315 Y107.045 I0. J-6.45
G1 Y87.995
G2 X190.865 Y81.545 I-6.45 J0.
G1 X121.015
G2 X114.565 Y87.995 I0. J6.45
G1 Y157.845
G2 X121.015 Y164.295 I6.45 J0.
G1 X140.065
G2 X146.515 Y157.845 I0. J-6.45
G1 Y131.856
Y124.697
Y117.538 Z-3.25
Y116.57
G3 X149.59 Y113.495 I3.075 J0.
G1 X190.865
G2 X197.315 Y107.045 I0. J-6.45
G1 Y87.995
G2 X190.865 Y81.545 I-6.45 J0.
G1 X121.015
G2 X114.565 Y87.995 I0. J6.45
G1 Y157.845
G2 X121.015 Y164.295 I6.45 J0.
G1 X140.065
G2 X146.515 Y157.845 I0. J-6.45
G1 Y124.697
Y117.538
Y116.57 Z-3.284
G3 X149.59 Y113.495 Z-3.452 I3.075 J0.
G1 X150.951 Z-3.5
X190.865
G2 X197.315 Y107.045 I0. J-6.45
G1 Y87.995
G2 X190.865 Y81.545 I-6.45 J0.
G1 X121.015
G2 X114.565 Y87.995 I0. J6.45
G1 Y157.845
G2 X121.015 Y164.295 I6.45 J0.
G1 X140.065
G2 X146.515 Y157.845 I0. J-6.45
G1 Y117.538
Y116.57
G3 X149.59 Y113.495 I3.075 J0.
G1 X150.951
X158.11 Z-3.75
X190.865
G2 X197.315 Y107.045 I0. J-6.45
G1 Y87.995
G2 X190.865 Y81.545 I-6.45 J0.
G1 X121.015
G2 X114.565 Y87.995 I0. J6.45
G1 Y157.845
G2 X121.015 Y164.295 I6.45 J0.
G1 X140.065
G2 X146.515 Y157.845 I0. J-6.45
G1 Y116.57
G3 X149.59 Y113.495 I3.075 J0.
G1 X158.11
X165.269 Z-4.
X190.865
G2 X197.315 Y107.045 I0. J-6.45
G1 Y87.995
G2 X190.865 Y81.545 I-6.45 J0.
G1 X121.015
G2 X114.565 Y87.995 I0. J6.45
G1 Y157.845
G2 X121.015 Y164.295 I6.45 J0.
G1 X140.065
G2 X146.515 Y157.845 I0. J-6.45
G1 Y116.57
G3 X149.59 Y113.495 I3.075 J0.
G1 X158.11
X165.269
X172.428 Z-4.25
X190.865
G2 X197.315 Y107.045 I0. J-6.45
G1 Y87.995
G2 X190.865 Y81.545 I-6.45 J0.
G1 X121.015
G2 X114.565 Y87.995 I0. J6.45
G1 Y157.845
G2 X121.015 Y164.295 I6.45 J0.
G1 X140.065
G2 X146.515 Y157.845 I0. J-6.45
G1 Y116.57
G3 X149.59 Y113.495 I3.075 J0.
G1 X165.269
X172.428
X179.587 Z-4.5
X190.865
G2 X197.315 Y107.045 I0. J-6.45
G1 Y87.995
G2 X190.865 Y81.545 I-6.45 J0.
G1 X121.015
G2 X114.565 Y87.995 I0. J6.45
G1 Y157.845
G2 X121.015 Y164.295 I6.45 J0.
G1 X140.065
G2 X146.515 Y157.845 I0. J-6.45
G1 Y116.57
G3 X149.59 Y113.495 I3.075 J0.
G1 X172.428
X179.587
X181.735 Z-4.575
X190.865
G2 X197.315 Y107.045 I0. J-6.45
G1 Y87.995
G2 X190.865 Y81.545 I-6.45 J0.
G1 X121.015
G2 X114.565 Y87.995 I0. J6.45
G1 Y157.845
G2 X121.015 Y164.295 I6.45 J0.
G1 X140.065
G2 X146.515 Y157.845 I0. J-6.45
G1 Y116.57
G3 X149.59 Y113.495 I3.075 J0.
G1 X179.587
X181.735
G3 X182.37 Y114.13 I0. J0.635
G1 Y114.765
G19 G3 Y115.4 Z-3.94 J0. K0.635
G0 Z16.
G17

(2D CONTOUR2)
G0 X148.82 Y121.089
Z15.
Z5.
G1 Z3.135 F400.
G18 G3 X148.185 Z2.5 I-0.635 K0.
G1 X147.55
G17 G3 X146.915 Y120.454 I0. J-0.635
G1 Y116.57 Z2.364
G3 X149.59 Y113.895 Z2.218 I2.675 J0.
G1 X190.865 Z0.776
G2 X197.715 Y107.045 Z0.401 I0. J-6.85
G1 Y87.995 Z-0.265
G2 X190.865 Y81.145 Z-0.64 I-6.85 J0.
G1 X121.015 Z-3.08
G2 X114.165 Y87.995 Z-3.455 I0. J6.85
G1 Y122.92 Z-4.675
Y157.845
G2 X121.015 Y164.695 I6.85 J0.
G1 X140.065
G2 X146.915 Y157.845 I0. J-6.85
G1 Y116.57
G3 X149.59 Y113.895 I2.675 J0.
G1 X190.865
G2 X197.715 Y107.045 I0. J-6.85
G1 Y87.995
G2 X190.865 Y81.145 I-6.85 J0.
G1 X121.015
G2 X114.165 Y87.995 I0. J6.85
G1 Y122.92
G2 X114.415 Y123.295 I0.406 J0.
G3 X114.665 Y123.67 I-0.156 J0.375
G1 Y157.845
G2 X121.015 Y164.195 I6.35 J0.
G1 X140.065
G2 X146.415 Y157.845 I0. J-6.35
G1 Y116.57
G3 X149.59 Y113.395 I3.175 J0.
G1 X190.865
G2 X197.215 Y107.045 I0. J-6.35
G1 Y87.995
G2 X190.865 Y81.645 I-6.35 J0.
G1 X121.015
G2 X114.665 Y87.995 I0. J6.35
G1 Y123.67
G3 X114.03 Y124.305 I-0.635 J0.
G1 X113.395
G18 G3 X112.76 Z-4.04 I0. K0.635
G0 Z15.
G17

(2D CONTOUR1 2)
G0 Z16.
X72.244 Y166.367
Z6.
G1 Z4.135 F1600.
G19 G2 Y165.732 Z3.5 J-0.635 K0.
G1 Y165.097
G17 G3 X72.879 Y164.462 I0.635 J0.
G1 X106.572 Z2.323
G2 X113.022 Y158.012 Z1.97 I0. J-6.45
G1 Y123.087 Z0.75
Y88.162
G2 X106.572 Y81.712 I-6.45 J0.
G1 X87.522
G2 X81.072 Y88.162 I0. J6.45
G1 Y129.437
G3 X77.997 Y132.512 I-3.075 J0.
G1 X36.722
G2 X30.272 Y138.962 I0. J6.45
G1 Y158.012
G2 X36.722 Y164.462 I6.45 J0.
G1 X106.572
G2 X113.022 Y158.012 I0. J-6.45
G1 Y123.087
Y115.928 Z0.5
Y88.162
G2 X106.572 Y81.712 I-6.45 J0.
G1 X87.522
G2 X81.072 Y88.162 I0. J6.45
G1 Y129.437
G3 X77.997 Y132.512 I-3.075 J0.
G1 X36.722
G2 X30.272 Y138.962 I0. J6.45
G1 Y158.012
G2 X36.722 Y164.462 I6.45 J0.
G1 X106.572
G2 X113.022 Y158.012 I0. J-6.45
G1 Y123.087
Y115.928
Y108.769 Z0.25
Y88.162
G2 X106.572 Y81.712 I-6.45 J0.
G1 X87.522
G2 X81.072 Y88.162 I0. J6.45
G1 Y129.437
G3 X77.997 Y132.512 I-3.075 J0.
G1 X36.722
G2 X30.272 Y138.962 I0. J6.45
G1 Y158.012
G2 X36.722 Y164.462 I6.45 J0.
G1 X106.572
G2 X113.022 Y158.012 I0. J-6.45
G1 Y115.928
Y108.769
Y101.61 Z0.
Y88.162
G2 X106.572 Y81.712 I-6.45 J0.
G1 X87.522
G2 X81.072 Y88.162 I0. J6.45
G1 Y129.437
G3 X77.997 Y132.512 I-3.075 J0.
G1 X36.722
G2 X30.272 Y138.962 I0. J6.45
G1 Y158.012
G2 X36.722 Y164.462 I6.45 J0.
G1 X106.572
G2 X113.022 Y158.012 I0. J-6.45
G1 Y108.769
Y101.61
Y94.451 Z-0.25
Y88.162
G2 X106.572 Y81.712 I-6.45 J0.
G1 X87.522
G2 X81.072 Y88.162 I0. J6.45
G1 Y129.437
G3 X77.997 Y132.512 I-3.075 J0.
G1 X36.722
G2 X30.272 Y138.962 I0. J6.45
G1 Y158.012
G2 X36.722 Y164.462 I6.45 J0.
G1 X106.572
G2 X113.022 Y158.012 I0. J-6.45
G1 Y101.61
Y94.451
Y88.162 Z-0.47
G2 X112.963 Y87.295 Z-0.5 I-6.45 J0.
X106.572 Y81.712 I-6.391 J0.868
G1 X87.522
G2 X81.072 Y88.162 I0. J6.45
G1 Y129.437
G3 X77.997 Y132.512 I-3.075 J0.
G1 X36.722
G2 X30.272 Y138.962 I0. J6.45
G1 Y158.012
G2 X36.722 Y164.462 I6.45 J0.
G1 X106.572
G2 X113.022 Y158.012 I0. J-6.45
G1 Y94.451
Y88.162
G2 X112.963 Y87.295 I-6.45 J0.
X108.637 Y82.052 Z-0.75 I-6.391 J0.868
X106.572 Y81.712 I-2.065 J6.11
G1 X87.522
G2 X81.072 Y88.162 I0. J6.45
G1 Y129.437
G3 X77.997 Y132.512 I-3.075 J0.
G1 X36.722
G2 X30.272 Y138.962 I0. J6.45
G1 Y158.012
G2 X36.722 Y164.462 I6.45 J0.
G1 X106.572
G2 X113.022 Y158.012 I0. J-6.45
G1 Y88.162
G2 X108.637 Y82.052 I-6.45 J0.
X106.572 Y81.712 Z-0.823 I-2.065 J6.11
G1 X101.515 Z-1.
X87.522
G2 X81.072 Y88.162 I0. J6.45
G1 Y129.437
G3 X77.997 Y132.512 I-3.075 J0.
G1 X36.722
G2 X30.272 Y138.962 I0. J6.45
G1 Y158.012
G2 X36.722 Y164.462 I6.45 J0.
G1 X106.572
G2 X113.022 Y158.012 I0. J-6.45
G1 Y88.162
G2 X106.572 Y81.712 I-6.45 J0.
G1 X101.515
X94.356 Z-1.25
X87.522
G2 X81.072 Y88.162 I0. J6.45
G1 Y129.437
G3 X77.997 Y132.512 I-3.075 J0.
G1 X36.722
G2 X30.272 Y138.962 I0. J6.45
G1 Y158.012
G2 X36.722 Y164.462 I6.45 J0.
G1 X106.572
G2 X113.022 Y158.012 I0. J-6.45
G1 Y88.162
G2 X106.572 Y81.712 I-6.45 J0.
G1 X94.356
X87.522 Z-1.489
G2 X87.197 Y81.721 Z-1.5 I0. J6.45
X81.072 Y88.162 I0.325 J6.442
G1 Y129.437
G3 X77.997 Y132.512 I-3.075 J0.
G1 X36.722
G2 X30.272 Y138.962 I0. J6.45
G1 Y158.012
G2 X36.722 Y164.462 I6.45 J0.
G1 X106.572
G2 X113.022 Y158.012 I0. J-6.45
G1 Y88.162
G2 X106.572 Y81.712 I-6.45 J0.
G1 X94.356
X87.522
G2 X87.197 Y81.721 I0. J6.45
X81.608 Y85.589 Z-1.75 I0.325 J6.442
X81.072 Y88.162 I5.914 J2.574
G1 Y129.437
G3 X77.997 Y132.512 I-3.075 J0.
G1 X36.722
G2 X30.272 Y138.962 I0. J6.45
G1 Y158.012
G2 X36.722 Y164.462 I6.45 J0.
G1 X106.572
G2 X113.022 Y158.012 I0. J-6.45
G1 Y88.162
G2 X106.572 Y81.712 I-6.45 J0.
G1 X87.522
G2 X81.608 Y85.589 I0. J6.45
X81.072 Y88.162 Z-1.842 I5.914 J2.574
G1 Y92.674 Z-2.
Y129.437
G3 X77.997 Y132.512 I-3.075 J0.
G1 X36.722
G2 X30.272 Y138.962 I0. J6.45
G1 Y158.012
G2 X36.722 Y164.462 I6.45 J0.
G1 X106.572
G2 X113.022 Y158.012 I0. J-6.45
G1 Y88.162
G2 X106.572 Y81.712 I-6.45 J0.
G1 X87.522
G2 X81.072 Y88.162 I0. J6.45
G1 Y92.674
Y99.833 Z-2.25
Y129.437
G3 X77.997 Y132.512 I-3.075 J0.
G1 X36.722
G2 X30.272 Y138.962 I0. J6.45
G1 Y158.012
G2 X36.722 Y164.462 I6.45 J0.
G1 X106.572
G2 X113.022 Y158.012 I0. J-6.45
G1 Y88.162
G2 X106.572 Y81.712 I-6.45 J0.
G1 X87.522
G2 X81.072 Y88.162 I0. J6.45
G1 Y99.833
Y106.992 Z-2.5
Y129.437
G3 X77.997 Y132.512 I-3.075 J0.
G1 X36.722
G2 X30.272 Y138.962 I0. J6.45
G1 Y158.012
G2 X36.722 Y164.462 I6.45 J0.
G1 X106.572
G2 X113.022 Y158.012 I0. J-6.45
G1 Y88.162
G2 X106.572 Y81.712 I-6.45 J0.
G1 X87.522
G2 X81.072 Y88.162 I0. J6.45
G1 Y99.833
Y106.992
Y114.151 Z-2.75
Y129.437
G3 X77.997 Y132.512 I-3.075 J0.
G1 X36.722
G2 X30.272 Y138.962 I0. J6.45
G1 Y158.012
G2 X36.722 Y164.462 I6.45 J0.
G1 X106.572
G2 X113.022 Y158.012 I0. J-6.45
G1 Y88.162
G2 X106.572 Y81.712 I-6.45 J0.
G1 X87.522
G2 X81.072 Y88.162 I0. J6.45
G1 Y106.992
Y114.151
Y121.31 Z-3.
Y129.437
G3 X77.997 Y132.512 I-3.075 J0.
G1 X36.722
G2 X30.272 Y138.962 I0. J6.45
G1 Y158.012
G2 X36.722 Y164.462 I6.45 J0.
G1 X106.572
G2 X113.022 Y158.012 I0. J-6.45
G1 Y88.162
G2 X106.572 Y81.712 I-6.45 J0.
G1 X87.522
G2 X81.072 Y88.162 I0. J6.45
G1 Y114.151
Y121.31
Y128.47 Z-3.25
Y129.437
G3 X77.997 Y132.512 I-3.075 J0.
G1 X36.722
G2 X30.272 Y138.962 I0. J6.45
G1 Y158.012
G2 X36.722 Y164.462 I6.45 J0.
G1 X106.572
G2 X113.022 Y158.012 I0. J-6.45
G1 Y88.162
G2 X106.572 Y81.712 I-6.45 J0.
G1 X87.522
G2 X81.072 Y88.162 I0. J6.45
G1 Y121.31
Y128.47
Y129.437 Z-3.284
G3 X77.997 Y132.512 Z-3.452 I-3.075 J0.
G1 X76.636 Z-3.5
X36.722
G2 X30.272 Y138.962 I0. J6.45
G1 Y158.012
G2 X36.722 Y164.462 I6.45 J0.
G1 X106.572
G2 X113.022 Y158.012 I0. J-6.45
G1 Y88.162
G2 X106.572 Y81.712 I-6.45 J0.
G1 X87.522
G2 X81.072 Y88.162 I0. J6.45
G1 Y128.47
Y129.437
G3 X77.997 Y132.512 I-3.075 J0.
G1 X76.636
X69.477 Z-3.75
X36.722
G2 X30.272 Y138.962 I0. J6.45
G1 Y158.012
G2 X36.722 Y164.462 I6.45 J0.
G1 X106.572
G2 X113.022 Y158.012 I0. J-6.45
G1 Y88.162
G2 X106.572 Y81.712 I-6.45 J0.
G1 X87.522
G2 X81.072 Y88.162 I0. J6.45
G1 Y129.437
G3 X77.997 Y132.512 I-3.075 J0.
G1 X69.477
X62.318 Z-4.
X36.722
G2 X30.272 Y138.962 I0. J6.45
G1 Y158.012
G2 X36.722 Y164.462 I6.45 J0.
G1 X106.572
G2 X113.022 Y158.012 I0. J-6.45
G1 Y88.162
G2 X106.572 Y81.712 I-6.45 J0.
G1 X87.522
G2 X81.072 Y88.162 I0. J6.45
G1 Y129.437
G3 X77.997 Y132.512 I-3.075 J0.
G1 X69.477
X62.318
X55.159 Z-4.25
X36.722
G2 X30.272 Y138.962 I0. J6.45
G1 Y158.012
G2 X36.722 Y164.462 I6.45 J0.
G1 X106.572
G2 X113.022 Y158.012 I0. J-6.45
G1 Y88.162
G2 X106.572 Y81.712 I-6.45 J0.
G1 X87.522
G2 X81.072 Y88.162 I0. J6.45
G1 Y129.437
G3 X77.997 Y132.512 I-3.075 J0.
G1 X62.318
X55.159
X48. Z-4.5
X36.722
G2 X30.272 Y138.962 I0. J6.45
G1 Y158.012
G2 X36.722 Y164.462 I6.45 J0.
G1 X106.572
G2 X113.022 Y158.012 I0. J-6.45
G1 Y88.162
G2 X106.572 Y81.712 I-6.45 J0.
G1 X87.522
G2 X81.072 Y88.162 I0. J6.45
G1 Y129.437
G3 X77.997 Y132.512 I-3.075 J0.
G1 X55.159
X48.
X45.852 Z-4.575
X36.722
G2 X30.272 Y138.962 I0. J6.45
G1 Y158.012
G2 X36.722 Y164.462 I6.45 J0.
G1 X106.572
G2 X113.022 Y158.012 I0. J-6.45
G1 Y88.162
G2 X106.572 Y81.712 I-6.45 J0.
G1 X87.522
G2 X81.072 Y88.162 I0. J6.45
G1 Y129.437
G3 X77.997 Y132.512 I-3.075 J0.
G1 X48.
X45.852
G3 X45.217 Y131.877 I0. J-0.635
G1 Y131.242
G19 G2 Y130.607 Z-3.94 J0. K0.635
G0 Z16.
G17

(2D CONTOUR2)
G0 X78.767 Y124.919
Z15.
Z5.
G1 Z3.135 F400.
G18 G2 X79.402 Z2.5 I0.635 K0.
G1 X80.037
G17 G3 X80.672 Y125.554 I0. J0.635
G1 Y129.437 Z2.364
G3 X77.997 Y132.112 Z2.218 I-2.675 J0.
G1 X36.722 Z0.776
G2 X29.872 Y138.962 Z0.401 I0. J6.85
G1 Y158.012 Z-0.265
G2 X36.722 Y164.862 Z-0.64 I6.85 J0.
G1 X106.572 Z-3.08
G2 X113.422 Y158.012 Z-3.455 I0. J-6.85
G1 Y123.087 Z-4.675
Y88.162
G2 X106.572 Y81.312 I-6.85 J0.
G1 X87.522
G2 X80.672 Y88.162 I0. J6.85
G1 Y129.437
G3 X77.997 Y132.112 I-2.675 J0.
G1 X36.722
G2 X29.872 Y138.962 I0. J6.85
G1 Y158.012
G2 X36.722 Y164.862 I6.85 J0.
G1 X106.572
G2 X113.422 Y158.012 I0. J-6.85
G1 Y123.087
G2 X113.172 Y122.712 I-0.406 J0.
G3 X112.922 Y122.337 I0.156 J-0.375
G1 Y88.162
G2 X106.572 Y81.812 I-6.35 J0.
G1 X87.522
G2 X81.172 Y88.162 I0. J6.35
G1 Y129.437
G3 X77.997 Y132.612 I-3.175 J0.
G1 X36.722
G2 X30.372 Y138.962 I0. J6.35
G1 Y158.012
G2 X36.722 Y164.362 I6.35 J0.
G1 X106.572
G2 X112.922 Y158.012 I0. J-6.35
G1 Y122.337
G3 X113.557 Y121.702 I0.635 J0.
G1 X114.192
G18 G2 X114.827 Z-4.04 I0. K0.635
G0 Z15.
G17
M5
G0 Z15
G0 X0 Y0

M9
M30
