(19.05.02.01.01)
(T1  D=3.175 CR=0. - ZMIN=-4.675 - FLAT END MILL)
G90 G94 G91.1 G40 G49 G17
G21
G0 Z15

(BORE5)
M5
T1 M6
S15000 M3
G54
M8
G0 X53.55 Y64.667
G43 Z15. H1
Z4.
G1 Z2.318 F800.
G19 G2 Y64.35 Z2. J-0.317 K0.
G1 Y64.191
G17 G3 X53.867 Y63.874 I0.318 J0.
Y65.461 Z1.938 I0. J0.794
Y63.874 Z1.875 I0. J-0.794
Y65.461 Z1.813 I0. J0.794
Y63.874 Z1.75 I0. J-0.794
Y65.461 Z1.688 I0. J0.794
Y63.874 Z1.625 I0. J-0.794
Y65.461 Z1.563 I0. J0.794
Y63.874 Z1.5 I0. J-0.794
Y65.461 Z1.438 I0. J0.794
Y63.874 Z1.375 I0. J-0.794
Y65.461 Z1.313 I0. J0.794
Y63.874 Z1.25 I0. J-0.794
Y65.461 Z1.188 I0. J0.794
Y63.874 Z1.125 I0. J-0.794
Y65.461 Z1.063 I0. J0.794
Y63.874 Z1. I0. J-0.794
Y65.461 Z0.938 I0. J0.794
Y63.874 Z0.875 I0. J-0.794
Y65.461 Z0.813 I0. J0.794
Y63.874 Z0.75 I0. J-0.794
Y65.461 Z0.688 I0. J0.794
Y63.874 Z0.625 I0. J-0.794
Y65.461 Z0.563 I0. J0.794
Y63.874 Z0.5 I0. J-0.794
Y65.461 Z0.438 I0. J0.794
Y63.874 Z0.375 I0. J-0.794
Y65.461 Z0.313 I0. J0.794
Y63.874 Z0.25 I0. J-0.794
Y65.461 Z0.188 I0. J0.794
Y63.874 Z0.125 I0. J-0.794
Y65.461 Z0.063 I0. J0.794
Y63.874 Z0. I0. J-0.794
Y65.461 Z-0.062 I0. J0.794
Y63.874 Z-0.125 I0. J-0.794
Y65.461 Z-0.187 I0. J0.794
Y63.874 Z-0.25 I0. J-0.794
Y65.461 Z-0.312 I0. J0.794
Y63.874 Z-0.375 I0. J-0.794
Y65.461 Z-0.437 I0. J0.794
Y63.874 Z-0.5 I0. J-0.794
Y65.461 Z-0.562 I0. J0.794
Y63.874 Z-0.625 I0. J-0.794
Y65.461 Z-0.687 I0. J0.794
Y63.874 Z-0.75 I0. J-0.794
Y65.461 Z-0.812 I0. J0.794
Y63.874 Z-0.875 I0. J-0.794
Y65.461 Z-0.937 I0. J0.794
Y63.874 Z-1. I0. J-0.794
Y65.461 Z-1.062 I0. J0.794
Y63.874 Z-1.125 I0. J-0.794
Y65.461 Z-1.187 I0. J0.794
Y63.874 Z-1.25 I0. J-0.794
Y65.461 Z-1.312 I0. J0.794
Y63.874 Z-1.375 I0. J-0.794
Y65.461 Z-1.437 I0. J0.794
Y63.874 Z-1.5 I0. J-0.794
Y65.461 Z-1.562 I0. J0.794
Y63.874 Z-1.625 I0. J-0.794
Y65.461 Z-1.687 I0. J0.794
Y63.874 Z-1.75 I0. J-0.794
Y65.461 Z-1.812 I0. J0.794
Y63.874 Z-1.875 I0. J-0.794
Y65.461 Z-1.937 I0. J0.794
Y63.874 Z-2. I0. J-0.794
Y65.461 Z-2.062 I0. J0.794
Y63.874 Z-2.125 I0. J-0.794
Y65.461 Z-2.187 I0. J0.794
Y63.874 Z-2.25 I0. J-0.794
Y65.461 Z-2.312 I0. J0.794
Y63.874 Z-2.375 I0. J-0.794
Y65.461 Z-2.437 I0. J0.794
Y63.874 Z-2.5 I0. J-0.794
Y65.461 Z-2.562 I0. J0.794
Y63.874 Z-2.625 I0. J-0.794
Y65.461 Z-2.687 I0. J0.794
Y63.874 Z-2.75 I0. J-0.794
Y65.461 Z-2.812 I0. J0.794
Y63.874 Z-2.875 I0. J-0.794
Y65.461 Z-2.937 I0. J0.794
Y63.874 Z-3. I0. J-0.794
Y65.461 Z-3.062 I0. J0.794
Y63.874 Z-3.125 I0. J-0.794
Y65.461 Z-3.187 I0. J0.794
Y63.874 Z-3.25 I0. J-0.794
Y65.461 Z-3.312 I0. J0.794
Y63.874 Z-3.375 I0. J-0.794
Y65.461 Z-3.437 I0. J0.794
Y63.874 Z-3.5 I0. J-0.794
Y65.461 Z-3.562 I0. J0.794
Y63.874 Z-3.625 I0. J-0.794
X54.334 Y65.31 Z-3.675 I0. J0.794
X53.401 Y64.025 I-0.467 J-0.642
X54.334 Y65.31 I0.467 J0.642
X53.89 Y65.239 I-0.187 J-0.257
G1 X53.797 Y65.111
X53.756 Y65.054 Z-3.667
X53.716 Y64.999 Z-3.644
X53.681 Y64.951 Z-3.606
X53.651 Y64.91 Z-3.555
X53.629 Y64.879 Z-3.495
X53.615 Y64.86 Z-3.428
X53.611 Y64.854 Z-3.358
G0 Z5.
X78.95 Y64.667
Z4.
G1 Z2.318 F800.
G19 G2 Y64.35 Z2. J-0.317 K0.
G1 Y64.191
G17 G3 X79.267 Y63.874 I0.318 J0.
Y65.461 Z1.938 I0. J0.794
Y63.874 Z1.875 I0. J-0.794
Y65.461 Z1.813 I0. J0.794
Y63.874 Z1.75 I0. J-0.794
Y65.461 Z1.688 I0. J0.794
Y63.874 Z1.625 I0. J-0.794
Y65.461 Z1.563 I0. J0.794
Y63.874 Z1.5 I0. J-0.794
Y65.461 Z1.438 I0. J0.794
Y63.874 Z1.375 I0. J-0.794
Y65.461 Z1.313 I0. J0.794
Y63.874 Z1.25 I0. J-0.794
Y65.461 Z1.188 I0. J0.794
Y63.874 Z1.125 I0. J-0.794
Y65.461 Z1.063 I0. J0.794
Y63.874 Z1. I0. J-0.794
Y65.461 Z0.938 I0. J0.794
Y63.874 Z0.875 I0. J-0.794
Y65.461 Z0.813 I0. J0.794
Y63.874 Z0.75 I0. J-0.794
Y65.461 Z0.688 I0. J0.794
Y63.874 Z0.625 I0. J-0.794
Y65.461 Z0.563 I0. J0.794
Y63.874 Z0.5 I0. J-0.794
Y65.461 Z0.438 I0. J0.794
Y63.874 Z0.375 I0. J-0.794
Y65.461 Z0.313 I0. J0.794
Y63.874 Z0.25 I0. J-0.794
Y65.461 Z0.188 I0. J0.794
Y63.874 Z0.125 I0. J-0.794
Y65.461 Z0.063 I0. J0.794
Y63.874 Z0. I0. J-0.794
Y65.461 Z-0.062 I0. J0.794
Y63.874 Z-0.125 I0. J-0.794
Y65.461 Z-0.187 I0. J0.794
Y63.874 Z-0.25 I0. J-0.794
Y65.461 Z-0.312 I0. J0.794
Y63.874 Z-0.375 I0. J-0.794
Y65.461 Z-0.437 I0. J0.794
Y63.874 Z-0.5 I0. J-0.794
Y65.461 Z-0.562 I0. J0.794
Y63.874 Z-0.625 I0. J-0.794
Y65.461 Z-0.687 I0. J0.794
Y63.874 Z-0.75 I0. J-0.794
Y65.461 Z-0.812 I0. J0.794
Y63.874 Z-0.875 I0. J-0.794
Y65.461 Z-0.937 I0. J0.794
Y63.874 Z-1. I0. J-0.794
Y65.461 Z-1.062 I0. J0.794
Y63.874 Z-1.125 I0. J-0.794
Y65.461 Z-1.187 I0. J0.794
Y63.874 Z-1.25 I0. J-0.794
Y65.461 Z-1.312 I0. J0.794
Y63.874 Z-1.375 I0. J-0.794
Y65.461 Z-1.437 I0. J0.794
Y63.874 Z-1.5 I0. J-0.794
Y65.461 Z-1.562 I0. J0.794
Y63.874 Z-1.625 I0. J-0.794
Y65.461 Z-1.687 I0. J0.794
Y63.874 Z-1.75 I0. J-0.794
Y65.461 Z-1.812 I0. J0.794
Y63.874 Z-1.875 I0. J-0.794
Y65.461 Z-1.937 I0. J0.794
Y63.874 Z-2. I0. J-0.794
Y65.461 Z-2.062 I0. J0.794
Y63.874 Z-2.125 I0. J-0.794
Y65.461 Z-2.187 I0. J0.794
Y63.874 Z-2.25 I0. J-0.794
Y65.461 Z-2.312 I0. J0.794
Y63.874 Z-2.375 I0. J-0.794
Y65.461 Z-2.437 I0. J0.794
Y63.874 Z-2.5 I0. J-0.794
Y65.461 Z-2.562 I0. J0.794
Y63.874 Z-2.625 I0. J-0.794
Y65.461 Z-2.687 I0. J0.794
Y63.874 Z-2.75 I0. J-0.794
Y65.461 Z-2.812 I0. J0.794
Y63.874 Z-2.875 I0. J-0.794
Y65.461 Z-2.937 I0. J0.794
Y63.874 Z-3. I0. J-0.794
Y65.461 Z-3.062 I0. J0.794
Y63.874 Z-3.125 I0. J-0.794
Y65.461 Z-3.187 I0. J0.794
Y63.874 Z-3.25 I0. J-0.794
Y65.461 Z-3.312 I0. J0.794
Y63.874 Z-3.375 I0. J-0.794
Y65.461 Z-3.437 I0. J0.794
Y63.874 Z-3.5 I0. J-0.794
Y65.461 Z-3.562 I0. J0.794
Y63.874 Z-3.625 I0. J-0.794
X79.734 Y65.31 Z-3.675 I0. J0.794
X78.801 Y64.025 I-0.467 J-0.642
X79.734 Y65.31 I0.467 J0.642
X79.29 Y65.239 I-0.187 J-0.257
G1 X79.197 Y65.111
X79.156 Y65.054 Z-3.667
X79.116 Y64.999 Z-3.644
X79.081 Y64.951 Z-3.606
X79.051 Y64.91 Z-3.555
X79.029 Y64.879 Z-3.495
X79.015 Y64.86 Z-3.428
X79.011 Y64.854 Z-3.358
G0 Z5.
X104.35 Y39.267
Z4.
G1 Z2.318 F800.
G19 G2 Y38.95 Z2. J-0.318 K0.
G1 Y38.791
G17 G3 X104.667 Y38.474 I0.317 J0.
Y40.061 Z1.937 I0. J0.794
Y38.474 Z1.875 I0. J-0.794
Y40.061 Z1.812 I0. J0.794
Y38.474 Z1.75 I0. J-0.794
Y40.061 Z1.687 I0. J0.794
Y38.474 Z1.625 I0. J-0.794
Y40.061 Z1.562 I0. J0.794
Y38.474 Z1.5 I0. J-0.794
Y40.061 Z1.437 I0. J0.794
Y38.474 Z1.375 I0. J-0.794
Y40.061 Z1.312 I0. J0.794
Y38.474 Z1.25 I0. J-0.794
Y40.061 Z1.187 I0. J0.794
Y38.474 Z1.125 I0. J-0.794
Y40.061 Z1.062 I0. J0.794
Y38.474 Z1. I0. J-0.794
Y40.061 Z0.937 I0. J0.794
Y38.474 Z0.875 I0. J-0.794
Y40.061 Z0.812 I0. J0.794
Y38.474 Z0.75 I0. J-0.794
Y40.061 Z0.687 I0. J0.794
Y38.474 Z0.625 I0. J-0.794
Y40.061 Z0.562 I0. J0.794
Y38.474 Z0.5 I0. J-0.794
Y40.061 Z0.437 I0. J0.794
Y38.474 Z0.375 I0. J-0.794
Y40.061 Z0.312 I0. J0.794
Y38.474 Z0.25 I0. J-0.794
Y40.061 Z0.187 I0. J0.794
Y38.474 Z0.125 I0. J-0.794
Y40.061 Z0.062 I0. J0.794
Y38.474 Z0. I0. J-0.794
Y40.061 Z-0.063 I0. J0.794
Y38.474 Z-0.125 I0. J-0.794
Y40.061 Z-0.188 I0. J0.794
Y38.474 Z-0.25 I0. J-0.794
Y40.061 Z-0.313 I0. J0.794
Y38.474 Z-0.375 I0. J-0.794
Y40.061 Z-0.438 I0. J0.794
Y38.474 Z-0.5 I0. J-0.794
Y40.061 Z-0.563 I0. J0.794
Y38.474 Z-0.625 I0. J-0.794
Y40.061 Z-0.688 I0. J0.794
Y38.474 Z-0.75 I0. J-0.794
Y40.061 Z-0.813 I0. J0.794
Y38.474 Z-0.875 I0. J-0.794
Y40.061 Z-0.938 I0. J0.794
Y38.474 Z-1. I0. J-0.794
Y40.061 Z-1.063 I0. J0.794
Y38.474 Z-1.125 I0. J-0.794
Y40.061 Z-1.188 I0. J0.794
Y38.474 Z-1.25 I0. J-0.794
Y40.061 Z-1.313 I0. J0.794
Y38.474 Z-1.375 I0. J-0.794
Y40.061 Z-1.438 I0. J0.794
Y38.474 Z-1.5 I0. J-0.794
Y40.061 Z-1.563 I0. J0.794
Y38.474 Z-1.625 I0. J-0.794
Y40.061 Z-1.688 I0. J0.794
Y38.474 Z-1.75 I0. J-0.794
Y40.061 Z-1.813 I0. J0.794
Y38.474 Z-1.875 I0. J-0.794
Y40.061 Z-1.938 I0. J0.794
Y38.474 Z-2. I0. J-0.794
Y40.061 Z-2.063 I0. J0.794
Y38.474 Z-2.125 I0. J-0.794
Y40.061 Z-2.188 I0. J0.794
Y38.474 Z-2.25 I0. J-0.794
Y40.061 Z-2.313 I0. J0.794
Y38.474 Z-2.375 I0. J-0.794
Y40.061 Z-2.438 I0. J0.794
Y38.474 Z-2.5 I0. J-0.794
Y40.061 Z-2.563 I0. J0.794
Y38.474 Z-2.625 I0. J-0.794
Y40.061 Z-2.688 I0. J0.794
Y38.474 Z-2.75 I0. J-0.794
Y40.061 Z-2.813 I0. J0.794
Y38.474 Z-2.875 I0. J-0.794
Y40.061 Z-2.938 I0. J0.794
Y38.474 Z-3. I0. J-0.794
Y40.061 Z-3.063 I0. J0.794
Y38.474 Z-3.125 I0. J-0.794
Y40.061 Z-3.188 I0. J0.794
Y38.474 Z-3.25 I0. J-0.794
Y40.061 Z-3.313 I0. J0.794
Y38.474 Z-3.375 I0. J-0.794
Y40.061 Z-3.438 I0. J0.794
Y38.474 Z-3.5 I0. J-0.794
Y40.061 Z-3.563 I0. J0.794
Y38.474 Z-3.625 I0. J-0.794
X105.134 Y39.91 Z-3.675 I0. J0.794
X104.201 Y38.625 I-0.467 J-0.642
X105.134 Y39.91 I0.467 J0.642
X104.69 Y39.839 I-0.187 J-0.257
G1 X104.597 Y39.711
X104.556 Y39.654 Z-3.667
X104.516 Y39.599 Z-3.644
X104.481 Y39.551 Z-3.606
X104.451 Y39.51 Z-3.555
X104.429 Y39.479 Z-3.495
X104.415 Y39.46 Z-3.428
X104.411 Y39.454 Z-3.358
G0 Z5.
X104.35 Y13.867
Z4.
G1 Z2.318 F800.
G19 G2 Y13.55 Z2. J-0.318 K0.
G1 Y13.391
G17 G3 X104.667 Y13.074 I0.317 J0.
Y14.661 Z1.937 I0. J0.794
Y13.074 Z1.875 I0. J-0.794
Y14.661 Z1.812 I0. J0.794
Y13.074 Z1.75 I0. J-0.794
Y14.661 Z1.687 I0. J0.794
Y13.074 Z1.625 I0. J-0.794
Y14.661 Z1.562 I0. J0.794
Y13.074 Z1.5 I0. J-0.794
Y14.661 Z1.437 I0. J0.794
Y13.074 Z1.375 I0. J-0.794
Y14.661 Z1.312 I0. J0.794
Y13.074 Z1.25 I0. J-0.794
Y14.661 Z1.187 I0. J0.794
Y13.074 Z1.125 I0. J-0.794
Y14.661 Z1.062 I0. J0.794
Y13.074 Z1. I0. J-0.794
Y14.661 Z0.937 I0. J0.794
Y13.074 Z0.875 I0. J-0.794
Y14.661 Z0.812 I0. J0.794
Y13.074 Z0.75 I0. J-0.794
Y14.661 Z0.687 I0. J0.794
Y13.074 Z0.625 I0. J-0.794
Y14.661 Z0.562 I0. J0.794
Y13.074 Z0.5 I0. J-0.794
Y14.661 Z0.437 I0. J0.794
Y13.074 Z0.375 I0. J-0.794
Y14.661 Z0.312 I0. J0.794
Y13.074 Z0.25 I0. J-0.794
Y14.661 Z0.187 I0. J0.794
Y13.074 Z0.125 I0. J-0.794
Y14.661 Z0.062 I0. J0.794
Y13.074 Z0. I0. J-0.794
Y14.661 Z-0.063 I0. J0.794
Y13.074 Z-0.125 I0. J-0.794
Y14.661 Z-0.188 I0. J0.794
Y13.074 Z-0.25 I0. J-0.794
Y14.661 Z-0.313 I0. J0.794
Y13.074 Z-0.375 I0. J-0.794
Y14.661 Z-0.438 I0. J0.794
Y13.074 Z-0.5 I0. J-0.794
Y14.661 Z-0.563 I0. J0.794
Y13.074 Z-0.625 I0. J-0.794
Y14.661 Z-0.688 I0. J0.794
Y13.074 Z-0.75 I0. J-0.794
Y14.661 Z-0.813 I0. J0.794
Y13.074 Z-0.875 I0. J-0.794
Y14.661 Z-0.938 I0. J0.794
Y13.074 Z-1. I0. J-0.794
Y14.661 Z-1.063 I0. J0.794
Y13.074 Z-1.125 I0. J-0.794
Y14.661 Z-1.188 I0. J0.794
Y13.074 Z-1.25 I0. J-0.794
Y14.661 Z-1.313 I0. J0.794
Y13.074 Z-1.375 I0. J-0.794
Y14.661 Z-1.438 I0. J0.794
Y13.074 Z-1.5 I0. J-0.794
Y14.661 Z-1.563 I0. J0.794
Y13.074 Z-1.625 I0. J-0.794
Y14.661 Z-1.688 I0. J0.794
Y13.074 Z-1.75 I0. J-0.794
Y14.661 Z-1.813 I0. J0.794
Y13.074 Z-1.875 I0. J-0.794
Y14.661 Z-1.938 I0. J0.794
Y13.074 Z-2. I0. J-0.794
Y14.661 Z-2.063 I0. J0.794
Y13.074 Z-2.125 I0. J-0.794
Y14.661 Z-2.188 I0. J0.794
Y13.074 Z-2.25 I0. J-0.794
Y14.661 Z-2.313 I0. J0.794
Y13.074 Z-2.375 I0. J-0.794
Y14.661 Z-2.438 I0. J0.794
Y13.074 Z-2.5 I0. J-0.794
Y14.661 Z-2.563 I0. J0.794
Y13.074 Z-2.625 I0. J-0.794
Y14.661 Z-2.688 I0. J0.794
Y13.074 Z-2.75 I0. J-0.794
Y14.661 Z-2.813 I0. J0.794
Y13.074 Z-2.875 I0. J-0.794
Y14.661 Z-2.938 I0. J0.794
Y13.074 Z-3. I0. J-0.794
Y14.661 Z-3.063 I0. J0.794
Y13.074 Z-3.125 I0. J-0.794
Y14.661 Z-3.188 I0. J0.794
Y13.074 Z-3.25 I0. J-0.794
Y14.661 Z-3.313 I0. J0.794
Y13.074 Z-3.375 I0. J-0.794
Y14.661 Z-3.438 I0. J0.794
Y13.074 Z-3.5 I0. J-0.794
Y14.661 Z-3.563 I0. J0.794
Y13.074 Z-3.625 I0. J-0.794
X105.134 Y14.51 Z-3.675 I0. J0.794
X104.201 Y13.225 I-0.467 J-0.642
X105.134 Y14.51 I0.467 J0.642
X104.69 Y14.439 I-0.187 J-0.257
G1 X104.597 Y14.311
X104.556 Y14.254 Z-3.667
X104.516 Y14.199 Z-3.644
X104.481 Y14.151 Z-3.606
X104.451 Y14.11 Z-3.555
X104.429 Y14.079 Z-3.495
X104.415 Y14.06 Z-3.428
X104.411 Y14.054 Z-3.358
G0 Z15.

(BORE5)
G0 X64.818 Y13.7
Z15.
Z4.
G1 Z2.318 F800.
G19 G3 Y14.018 Z2. J0.317 K0.
G1 Y14.176
G17 G3 X64.5 Y14.494 I-0.318 J0.
Y12.906 Z1.938 I0. J-0.794
Y14.494 Z1.875 I0. J0.794
Y12.906 Z1.813 I0. J-0.794
Y14.494 Z1.75 I0. J0.794
Y12.906 Z1.688 I0. J-0.794
Y14.494 Z1.625 I0. J0.794
Y12.906 Z1.563 I0. J-0.794
Y14.494 Z1.5 I0. J0.794
Y12.906 Z1.438 I0. J-0.794
Y14.494 Z1.375 I0. J0.794
Y12.906 Z1.313 I0. J-0.794
Y14.494 Z1.25 I0. J0.794
Y12.906 Z1.188 I0. J-0.794
Y14.494 Z1.125 I0. J0.794
Y12.906 Z1.063 I0. J-0.794
Y14.494 Z1. I0. J0.794
Y12.906 Z0.938 I0. J-0.794
Y14.494 Z0.875 I0. J0.794
Y12.906 Z0.813 I0. J-0.794
Y14.494 Z0.75 I0. J0.794
Y12.906 Z0.688 I0. J-0.794
Y14.494 Z0.625 I0. J0.794
Y12.906 Z0.563 I0. J-0.794
Y14.494 Z0.5 I0. J0.794
Y12.906 Z0.438 I0. J-0.794
Y14.494 Z0.375 I0. J0.794
Y12.906 Z0.313 I0. J-0.794
Y14.494 Z0.25 I0. J0.794
Y12.906 Z0.188 I0. J-0.794
Y14.494 Z0.125 I0. J0.794
Y12.906 Z0.063 I0. J-0.794
Y14.494 Z0. I0. J0.794
Y12.906 Z-0.062 I0. J-0.794
Y14.494 Z-0.125 I0. J0.794
Y12.906 Z-0.187 I0. J-0.794
Y14.494 Z-0.25 I0. J0.794
Y12.906 Z-0.312 I0. J-0.794
Y14.494 Z-0.375 I0. J0.794
Y12.906 Z-0.437 I0. J-0.794
Y14.494 Z-0.5 I0. J0.794
Y12.906 Z-0.562 I0. J-0.794
Y14.494 Z-0.625 I0. J0.794
Y12.906 Z-0.687 I0. J-0.794
Y14.494 Z-0.75 I0. J0.794
Y12.906 Z-0.812 I0. J-0.794
Y14.494 Z-0.875 I0. J0.794
Y12.906 Z-0.937 I0. J-0.794
Y14.494 Z-1. I0. J0.794
Y12.906 Z-1.062 I0. J-0.794
Y14.494 Z-1.125 I0. J0.794
Y12.906 Z-1.187 I0. J-0.794
Y14.494 Z-1.25 I0. J0.794
Y12.906 Z-1.312 I0. J-0.794
Y14.494 Z-1.375 I0. J0.794
Y12.906 Z-1.437 I0. J-0.794
Y14.494 Z-1.5 I0. J0.794
Y12.906 Z-1.562 I0. J-0.794
Y14.494 Z-1.625 I0. J0.794
Y12.906 Z-1.687 I0. J-0.794
Y14.494 Z-1.75 I0. J0.794
Y12.906 Z-1.812 I0. J-0.794
Y14.494 Z-1.875 I0. J0.794
Y12.906 Z-1.937 I0. J-0.794
Y14.494 Z-2. I0. J0.794
Y12.906 Z-2.062 I0. J-0.794
Y14.494 Z-2.125 I0. J0.794
Y12.906 Z-2.187 I0. J-0.794
Y14.494 Z-2.25 I0. J0.794
Y12.906 Z-2.312 I0. J-0.794
Y14.494 Z-2.375 I0. J0.794
Y12.906 Z-2.437 I0. J-0.794
Y14.494 Z-2.5 I0. J0.794
Y12.906 Z-2.562 I0. J-0.794
Y14.494 Z-2.625 I0. J0.794
Y12.906 Z-2.687 I0. J-0.794
Y14.494 Z-2.75 I0. J0.794
Y12.906 Z-2.812 I0. J-0.794
Y14.494 Z-2.875 I0. J0.794
Y12.906 Z-2.937 I0. J-0.794
Y14.494 Z-3. I0. J0.794
Y12.906 Z-3.062 I0. J-0.794
Y14.494 Z-3.125 I0. J0.794
Y12.906 Z-3.187 I0. J-0.794
Y14.494 Z-3.25 I0. J0.794
Y12.906 Z-3.312 I0. J-0.794
Y14.494 Z-3.375 I0. J0.794
Y12.906 Z-3.437 I0. J-0.794
Y14.494 Z-3.5 I0. J0.794
Y12.906 Z-3.562 I0. J-0.794
Y14.494 Z-3.625 I0. J0.794
X64.033 Y13.058 Z-3.675 I0. J-0.794
X64.967 Y14.342 I0.467 J0.642
X64.033 Y13.058 I-0.467 J-0.642
X64.477 Y13.128 I0.187 J0.257
G1 X64.57 Y13.257
X64.612 Y13.314 Z-3.667
X64.651 Y13.368 Z-3.644
X64.687 Y13.417 Z-3.606
X64.716 Y13.457 Z-3.555
X64.738 Y13.488 Z-3.495
X64.752 Y13.507 Z-3.428
X64.757 Y13.513 Z-3.358
G0 Z5.
X39.418 Y13.7
Z4.
G1 Z2.318 F800.
G19 G3 Y14.018 Z2. J0.317 K0.
G1 Y14.176
G17 G3 X39.1 Y14.494 I-0.318 J0.
Y12.906 Z1.938 I0. J-0.794
Y14.494 Z1.875 I0. J0.794
Y12.906 Z1.813 I0. J-0.794
Y14.494 Z1.75 I0. J0.794
Y12.906 Z1.688 I0. J-0.794
Y14.494 Z1.625 I0. J0.794
Y12.906 Z1.563 I0. J-0.794
Y14.494 Z1.5 I0. J0.794
Y12.906 Z1.438 I0. J-0.794
Y14.494 Z1.375 I0. J0.794
Y12.906 Z1.313 I0. J-0.794
Y14.494 Z1.25 I0. J0.794
Y12.906 Z1.188 I0. J-0.794
Y14.494 Z1.125 I0. J0.794
Y12.906 Z1.063 I0. J-0.794
Y14.494 Z1. I0. J0.794
Y12.906 Z0.938 I0. J-0.794
Y14.494 Z0.875 I0. J0.794
Y12.906 Z0.813 I0. J-0.794
Y14.494 Z0.75 I0. J0.794
Y12.906 Z0.688 I0. J-0.794
Y14.494 Z0.625 I0. J0.794
Y12.906 Z0.563 I0. J-0.794
Y14.494 Z0.5 I0. J0.794
Y12.906 Z0.438 I0. J-0.794
Y14.494 Z0.375 I0. J0.794
Y12.906 Z0.313 I0. J-0.794
Y14.494 Z0.25 I0. J0.794
Y12.906 Z0.188 I0. J-0.794
Y14.494 Z0.125 I0. J0.794
Y12.906 Z0.063 I0. J-0.794
Y14.494 Z0. I0. J0.794
Y12.906 Z-0.062 I0. J-0.794
Y14.494 Z-0.125 I0. J0.794
Y12.906 Z-0.187 I0. J-0.794
Y14.494 Z-0.25 I0. J0.794
Y12.906 Z-0.312 I0. J-0.794
Y14.494 Z-0.375 I0. J0.794
Y12.906 Z-0.437 I0. J-0.794
Y14.494 Z-0.5 I0. J0.794
Y12.906 Z-0.562 I0. J-0.794
Y14.494 Z-0.625 I0. J0.794
Y12.906 Z-0.687 I0. J-0.794
Y14.494 Z-0.75 I0. J0.794
Y12.906 Z-0.812 I0. J-0.794
Y14.494 Z-0.875 I0. J0.794
Y12.906 Z-0.937 I0. J-0.794
Y14.494 Z-1. I0. J0.794
Y12.906 Z-1.062 I0. J-0.794
Y14.494 Z-1.125 I0. J0.794
Y12.906 Z-1.187 I0. J-0.794
Y14.494 Z-1.25 I0. J0.794
Y12.906 Z-1.312 I0. J-0.794
Y14.494 Z-1.375 I0. J0.794
Y12.906 Z-1.437 I0. J-0.794
Y14.494 Z-1.5 I0. J0.794
Y12.906 Z-1.562 I0. J-0.794
Y14.494 Z-1.625 I0. J0.794
Y12.906 Z-1.687 I0. J-0.794
Y14.494 Z-1.75 I0. J0.794
Y12.906 Z-1.812 I0. J-0.794
Y14.494 Z-1.875 I0. J0.794
Y12.906 Z-1.937 I0. J-0.794
Y14.494 Z-2. I0. J0.794
Y12.906 Z-2.062 I0. J-0.794
Y14.494 Z-2.125 I0. J0.794
Y12.906 Z-2.187 I0. J-0.794
Y14.494 Z-2.25 I0. J0.794
Y12.906 Z-2.312 I0. J-0.794
Y14.494 Z-2.375 I0. J0.794
Y12.906 Z-2.437 I0. J-0.794
Y14.494 Z-2.5 I0. J0.794
Y12.906 Z-2.562 I0. J-0.794
Y14.494 Z-2.625 I0. J0.794
Y12.906 Z-2.687 I0. J-0.794
Y14.494 Z-2.75 I0. J0.794
Y12.906 Z-2.812 I0. J-0.794
Y14.494 Z-2.875 I0. J0.794
Y12.906 Z-2.937 I0. J-0.794
Y14.494 Z-3. I0. J0.794
Y12.906 Z-3.062 I0. J-0.794
Y14.494 Z-3.125 I0. J0.794
Y12.906 Z-3.187 I0. J-0.794
Y14.494 Z-3.25 I0. J0.794
Y12.906 Z-3.312 I0. J-0.794
Y14.494 Z-3.375 I0. J0.794
Y12.906 Z-3.437 I0. J-0.794
Y14.494 Z-3.5 I0. J0.794
Y12.906 Z-3.562 I0. J-0.794
Y14.494 Z-3.625 I0. J0.794
X38.633 Y13.058 Z-3.675 I0. J-0.794
X39.567 Y14.342 I0.467 J0.642
X38.633 Y13.058 I-0.467 J-0.642
X39.077 Y13.128 I0.187 J0.257
G1 X39.17 Y13.257
X39.212 Y13.314 Z-3.667
X39.251 Y13.368 Z-3.644
X39.287 Y13.417 Z-3.606
X39.316 Y13.457 Z-3.555
X39.338 Y13.488 Z-3.495
X39.352 Y13.507 Z-3.428
X39.357 Y13.513 Z-3.358
G0 Z5.
X14.018 Y39.1
Z4.
G1 Z2.318 F800.
G19 G3 Y39.418 Z2. J0.318 K0.
G1 Y39.576
G17 G3 X13.7 Y39.894 I-0.317 J0.
Y38.306 Z1.937 I0. J-0.794
Y39.894 Z1.875 I0. J0.794
Y38.306 Z1.812 I0. J-0.794
Y39.894 Z1.75 I0. J0.794
Y38.306 Z1.687 I0. J-0.794
Y39.894 Z1.625 I0. J0.794
Y38.306 Z1.562 I0. J-0.794
Y39.894 Z1.5 I0. J0.794
Y38.306 Z1.437 I0. J-0.794
Y39.894 Z1.375 I0. J0.794
Y38.306 Z1.312 I0. J-0.794
Y39.894 Z1.25 I0. J0.794
Y38.306 Z1.187 I0. J-0.794
Y39.894 Z1.125 I0. J0.794
Y38.306 Z1.062 I0. J-0.794
Y39.894 Z1. I0. J0.794
Y38.306 Z0.937 I0. J-0.794
Y39.894 Z0.875 I0. J0.794
Y38.306 Z0.812 I0. J-0.794
Y39.894 Z0.75 I0. J0.794
Y38.306 Z0.687 I0. J-0.794
Y39.894 Z0.625 I0. J0.794
Y38.306 Z0.562 I0. J-0.794
Y39.894 Z0.5 I0. J0.794
Y38.306 Z0.437 I0. J-0.794
Y39.894 Z0.375 I0. J0.794
Y38.306 Z0.312 I0. J-0.794
Y39.894 Z0.25 I0. J0.794
Y38.306 Z0.187 I0. J-0.794
Y39.894 Z0.125 I0. J0.794
Y38.306 Z0.062 I0. J-0.794
Y39.894 Z0. I0. J0.794
Y38.306 Z-0.063 I0. J-0.794
Y39.894 Z-0.125 I0. J0.794
Y38.306 Z-0.188 I0. J-0.794
Y39.894 Z-0.25 I0. J0.794
Y38.306 Z-0.313 I0. J-0.794
Y39.894 Z-0.375 I0. J0.794
Y38.306 Z-0.438 I0. J-0.794
Y39.894 Z-0.5 I0. J0.794
Y38.306 Z-0.563 I0. J-0.794
Y39.894 Z-0.625 I0. J0.794
Y38.306 Z-0.688 I0. J-0.794
Y39.894 Z-0.75 I0. J0.794
Y38.306 Z-0.813 I0. J-0.794
Y39.894 Z-0.875 I0. J0.794
Y38.306 Z-0.938 I0. J-0.794
Y39.894 Z-1. I0. J0.794
Y38.306 Z-1.063 I0. J-0.794
Y39.894 Z-1.125 I0. J0.794
Y38.306 Z-1.188 I0. J-0.794
Y39.894 Z-1.25 I0. J0.794
Y38.306 Z-1.313 I0. J-0.794
Y39.894 Z-1.375 I0. J0.794
Y38.306 Z-1.438 I0. J-0.794
Y39.894 Z-1.5 I0. J0.794
Y38.306 Z-1.563 I0. J-0.794
Y39.894 Z-1.625 I0. J0.794
Y38.306 Z-1.688 I0. J-0.794
Y39.894 Z-1.75 I0. J0.794
Y38.306 Z-1.813 I0. J-0.794
Y39.894 Z-1.875 I0. J0.794
Y38.306 Z-1.938 I0. J-0.794
Y39.894 Z-2. I0. J0.794
Y38.306 Z-2.063 I0. J-0.794
Y39.894 Z-2.125 I0. J0.794
Y38.306 Z-2.188 I0. J-0.794
Y39.894 Z-2.25 I0. J0.794
Y38.306 Z-2.313 I0. J-0.794
Y39.894 Z-2.375 I0. J0.794
Y38.306 Z-2.438 I0. J-0.794
Y39.894 Z-2.5 I0. J0.794
Y38.306 Z-2.563 I0. J-0.794
Y39.894 Z-2.625 I0. J0.794
Y38.306 Z-2.688 I0. J-0.794
Y39.894 Z-2.75 I0. J0.794
Y38.306 Z-2.813 I0. J-0.794
Y39.894 Z-2.875 I0. J0.794
Y38.306 Z-2.938 I0. J-0.794
Y39.894 Z-3. I0. J0.794
Y38.306 Z-3.063 I0. J-0.794
Y39.894 Z-3.125 I0. J0.794
Y38.306 Z-3.188 I0. J-0.794
Y39.894 Z-3.25 I0. J0.794
Y38.306 Z-3.313 I0. J-0.794
Y39.894 Z-3.375 I0. J0.794
Y38.306 Z-3.438 I0. J-0.794
Y39.894 Z-3.5 I0. J0.794
Y38.306 Z-3.563 I0. J-0.794
Y39.894 Z-3.625 I0. J0.794
X13.233 Y38.458 Z-3.675 I0. J-0.794
X14.167 Y39.742 I0.467 J0.642
X13.233 Y38.458 I-0.467 J-0.642
X13.677 Y38.528 I0.187 J0.257
G1 X13.77 Y38.657
X13.812 Y38.714 Z-3.667
X13.851 Y38.768 Z-3.644
X13.887 Y38.817 Z-3.606
X13.916 Y38.857 Z-3.555
X13.938 Y38.888 Z-3.495
X13.952 Y38.907 Z-3.428
X13.957 Y38.913 Z-3.358
G0 Z5.
X14.018 Y64.5
Z4.
G1 Z2.318 F800.
G19 G3 Y64.818 Z2. J0.318 K0.
G1 Y64.976
G17 G3 X13.7 Y65.294 I-0.317 J0.
Y63.706 Z1.937 I0. J-0.794
Y65.294 Z1.875 I0. J0.794
Y63.706 Z1.812 I0. J-0.794
Y65.294 Z1.75 I0. J0.794
Y63.706 Z1.687 I0. J-0.794
Y65.294 Z1.625 I0. J0.794
Y63.706 Z1.562 I0. J-0.794
Y65.294 Z1.5 I0. J0.794
Y63.706 Z1.437 I0. J-0.794
Y65.294 Z1.375 I0. J0.794
Y63.706 Z1.312 I0. J-0.794
Y65.294 Z1.25 I0. J0.794
Y63.706 Z1.187 I0. J-0.794
Y65.294 Z1.125 I0. J0.794
Y63.706 Z1.062 I0. J-0.794
Y65.294 Z1. I0. J0.794
Y63.706 Z0.937 I0. J-0.794
Y65.294 Z0.875 I0. J0.794
Y63.706 Z0.812 I0. J-0.794
Y65.294 Z0.75 I0. J0.794
Y63.706 Z0.687 I0. J-0.794
Y65.294 Z0.625 I0. J0.794
Y63.706 Z0.562 I0. J-0.794
Y65.294 Z0.5 I0. J0.794
Y63.706 Z0.437 I0. J-0.794
Y65.294 Z0.375 I0. J0.794
Y63.706 Z0.312 I0. J-0.794
Y65.294 Z0.25 I0. J0.794
Y63.706 Z0.187 I0. J-0.794
Y65.294 Z0.125 I0. J0.794
Y63.706 Z0.062 I0. J-0.794
Y65.294 Z0. I0. J0.794
Y63.706 Z-0.063 I0. J-0.794
Y65.294 Z-0.125 I0. J0.794
Y63.706 Z-0.188 I0. J-0.794
Y65.294 Z-0.25 I0. J0.794
Y63.706 Z-0.313 I0. J-0.794
Y65.294 Z-0.375 I0. J0.794
Y63.706 Z-0.438 I0. J-0.794
Y65.294 Z-0.5 I0. J0.794
Y63.706 Z-0.563 I0. J-0.794
Y65.294 Z-0.625 I0. J0.794
Y63.706 Z-0.688 I0. J-0.794
Y65.294 Z-0.75 I0. J0.794
Y63.706 Z-0.813 I0. J-0.794
Y65.294 Z-0.875 I0. J0.794
Y63.706 Z-0.938 I0. J-0.794
Y65.294 Z-1. I0. J0.794
Y63.706 Z-1.063 I0. J-0.794
Y65.294 Z-1.125 I0. J0.794
Y63.706 Z-1.188 I0. J-0.794
Y65.294 Z-1.25 I0. J0.794
Y63.706 Z-1.313 I0. J-0.794
Y65.294 Z-1.375 I0. J0.794
Y63.706 Z-1.438 I0. J-0.794
Y65.294 Z-1.5 I0. J0.794
Y63.706 Z-1.563 I0. J-0.794
Y65.294 Z-1.625 I0. J0.794
Y63.706 Z-1.688 I0. J-0.794
Y65.294 Z-1.75 I0. J0.794
Y63.706 Z-1.813 I0. J-0.794
Y65.294 Z-1.875 I0. J0.794
Y63.706 Z-1.938 I0. J-0.794
Y65.294 Z-2. I0. J0.794
Y63.706 Z-2.063 I0. J-0.794
Y65.294 Z-2.125 I0. J0.794
Y63.706 Z-2.188 I0. J-0.794
Y65.294 Z-2.25 I0. J0.794
Y63.706 Z-2.313 I0. J-0.794
Y65.294 Z-2.375 I0. J0.794
Y63.706 Z-2.438 I0. J-0.794
Y65.294 Z-2.5 I0. J0.794
Y63.706 Z-2.563 I0. J-0.794
Y65.294 Z-2.625 I0. J0.794
Y63.706 Z-2.688 I0. J-0.794
Y65.294 Z-2.75 I0. J0.794
Y63.706 Z-2.813 I0. J-0.794
Y65.294 Z-2.875 I0. J0.794
Y63.706 Z-2.938 I0. J-0.794
Y65.294 Z-3. I0. J0.794
Y63.706 Z-3.063 I0. J-0.794
Y65.294 Z-3.125 I0. J0.794
Y63.706 Z-3.188 I0. J-0.794
Y65.294 Z-3.25 I0. J0.794
Y63.706 Z-3.313 I0. J-0.794
Y65.294 Z-3.375 I0. J0.794
Y63.706 Z-3.438 I0. J-0.794
Y65.294 Z-3.5 I0. J0.794
Y63.706 Z-3.563 I0. J-0.794
Y65.294 Z-3.625 I0. J0.794
X13.233 Y63.858 Z-3.675 I0. J-0.794
X14.167 Y65.142 I0.467 J0.642
X13.233 Y63.858 I-0.467 J-0.642
X13.677 Y63.928 I0.187 J0.257
G1 X13.77 Y64.057
X13.812 Y64.114 Z-3.667
X13.851 Y64.168 Z-3.644
X13.887 Y64.217 Z-3.606
X13.916 Y64.257 Z-3.555
X13.938 Y64.288 Z-3.495
X13.952 Y64.307 Z-3.428
X13.957 Y64.313 Z-3.358
G0 Z15.
M5
G0 Z15
G0 X0 Y0
G0 Z15

(2D CONTOUR1 2)
G0 X79.707 Y82.447
Z15.
Z5.
G1 Z3.135 F1600.
G19 G2 Y81.812 Z2.5 J-0.635 K0.
G1 Y81.177
G17 G3 X80.342 Y80.542 I0.635 J0.
G1 X114.192 Z1.318
G2 X120.542 Y74.192 Z0.97 I0. J-6.35
G1 Y39.267 Z-0.25
Y4.342
G2 X114.192 Y-2.008 I-6.35 J0.
G1 X95.142
G2 X88.792 Y4.342 I0. J6.35
G1 Y45.617
G3 X85.617 Y48.792 I-3.175 J0.
G1 X44.342
G2 X37.992 Y55.142 I0. J6.35
G1 Y74.192
G2 X44.342 Y80.542 I6.35 J0.
G1 X114.192
G2 X120.542 Y74.192 I0. J-6.35
G1 Y39.267
Y32.108 Z-0.5
Y4.342
G2 X114.192 Y-2.008 I-6.35 J0.
G1 X95.142
G2 X88.792 Y4.342 I0. J6.35
G1 Y45.617
G3 X85.617 Y48.792 I-3.175 J0.
G1 X44.342
G2 X37.992 Y55.142 I0. J6.35
G1 Y74.192
G2 X44.342 Y80.542 I6.35 J0.
G1 X114.192
G2 X120.542 Y74.192 I0. J-6.35
G1 Y39.267
Y32.108
Y24.949 Z-0.75
Y4.342
G2 X114.192 Y-2.008 I-6.35 J0.
G1 X95.142
G2 X88.792 Y4.342 I0. J6.35
G1 Y45.617
G3 X85.617 Y48.792 I-3.175 J0.
G1 X44.342
G2 X37.992 Y55.142 I0. J6.35
G1 Y74.192
G2 X44.342 Y80.542 I6.35 J0.
G1 X114.192
G2 X120.542 Y74.192 I0. J-6.35
G1 Y32.108
Y24.949
Y17.79 Z-1.
Y4.342
G2 X114.192 Y-2.008 I-6.35 J0.
G1 X95.142
G2 X88.792 Y4.342 I0. J6.35
G1 Y45.617
G3 X85.617 Y48.792 I-3.175 J0.
G1 X44.342
G2 X37.992 Y55.142 I0. J6.35
G1 Y74.192
G2 X44.342 Y80.542 I6.35 J0.
G1 X114.192
G2 X120.542 Y74.192 I0. J-6.35
G1 Y24.949
Y17.79
Y10.631 Z-1.25
Y4.342
G2 X114.192 Y-2.008 I-6.35 J0.
G1 X95.142
G2 X88.792 Y4.342 I0. J6.35
G1 Y45.617
G3 X85.617 Y48.792 I-3.175 J0.
G1 X44.342
G2 X37.992 Y55.142 I0. J6.35
G1 Y74.192
G2 X44.342 Y80.542 I6.35 J0.
G1 X114.192
G2 X120.542 Y74.192 I0. J-6.35
G1 Y17.79
Y10.631
Y4.342 Z-1.47
G2 X120.482 Y3.475 Z-1.5 I-6.35 J0.
X114.192 Y-2.008 I-6.29 J0.868
G1 X95.142
G2 X88.792 Y4.342 I0. J6.35
G1 Y45.617
G3 X85.617 Y48.792 I-3.175 J0.
G1 X44.342
G2 X37.992 Y55.142 I0. J6.35
G1 Y74.192
G2 X44.342 Y80.542 I6.35 J0.
G1 X114.192
G2 X120.542 Y74.192 I0. J-6.35
G1 Y10.631
Y4.342
G2 X120.482 Y3.475 I-6.35 J0.
X116.107 Y-1.712 Z-1.75 I-6.29 J0.868
X114.192 Y-2.008 I-1.915 J6.054
G1 X95.142
G2 X88.792 Y4.342 I0. J6.35
G1 Y45.617
G3 X85.617 Y48.792 I-3.175 J0.
G1 X44.342
G2 X37.992 Y55.142 I0. J6.35
G1 Y74.192
G2 X44.342 Y80.542 I6.35 J0.
G1 X114.192
G2 X120.542 Y74.192 I0. J-6.35
G1 Y4.342
G2 X116.107 Y-1.712 I-6.35 J0.
X114.192 Y-2.008 Z-1.818 I-1.915 J6.054
G1 X108.978 Z-2.
X95.142
G2 X88.792 Y4.342 I0. J6.35
G1 Y45.617
G3 X85.617 Y48.792 I-3.175 J0.
G1 X44.342
G2 X37.992 Y55.142 I0. J6.35
G1 Y74.192
G2 X44.342 Y80.542 I6.35 J0.
G1 X114.192
G2 X120.542 Y74.192 I0. J-6.35
G1 Y4.342
G2 X114.192 Y-2.008 I-6.35 J0.
G1 X108.978
X101.819 Z-2.25
X95.142
G2 X88.792 Y4.342 I0. J6.35
G1 Y45.617
G3 X85.617 Y48.792 I-3.175 J0.
G1 X44.342
G2 X37.992 Y55.142 I0. J6.35
G1 Y74.192
G2 X44.342 Y80.542 I6.35 J0.
G1 X114.192
G2 X120.542 Y74.192 I0. J-6.35
G1 Y4.342
G2 X114.192 Y-2.008 I-6.35 J0.
G1 X101.819
X95.142 Z-2.483
G2 X94.66 Y-1.989 Z-2.5 I0. J6.35
X88.792 Y4.342 I0.482 J6.332
G1 Y45.617
G3 X85.617 Y48.792 I-3.175 J0.
G1 X44.342
G2 X37.992 Y55.142 I0. J6.35
G1 Y74.192
G2 X44.342 Y80.542 I6.35 J0.
G1 X114.192
G2 X120.542 Y74.192 I0. J-6.35
G1 Y4.342
G2 X114.192 Y-2.008 I-6.35 J0.
G1 X101.819
X95.142
G2 X94.66 Y-1.989 I0. J6.35
X89.216 Y2.061 Z-2.75 I0.482 J6.332
X88.792 Y4.342 I5.926 J2.281
G1 Y45.617
G3 X85.617 Y48.792 I-3.175 J0.
G1 X44.342
G2 X37.992 Y55.142 I0. J6.35
G1 Y74.192
G2 X44.342 Y80.542 I6.35 J0.
G1 X114.192
G2 X120.542 Y74.192 I0. J-6.35
G1 Y4.342
G2 X114.192 Y-2.008 I-6.35 J0.
G1 X95.142
G2 X89.216 Y2.061 I0. J6.35
X88.792 Y4.342 Z-2.831 I5.926 J2.281
G1 Y9.168 Z-3.
Y45.617
G3 X85.617 Y48.792 I-3.175 J0.
G1 X44.342
G2 X37.992 Y55.142 I0. J6.35
G1 Y74.192
G2 X44.342 Y80.542 I6.35 J0.
G1 X114.192
G2 X120.542 Y74.192 I0. J-6.35
G1 Y4.342
G2 X114.192 Y-2.008 I-6.35 J0.
G1 X95.142
G2 X88.792 Y4.342 I0. J6.35
G1 Y9.168
Y16.327 Z-3.25
Y45.617
G3 X85.617 Y48.792 I-3.175 J0.
G1 X44.342
G2 X37.992 Y55.142 I0. J6.35
G1 Y74.192
G2 X44.342 Y80.542 I6.35 J0.
G1 X114.192
G2 X120.542 Y74.192 I0. J-6.35
G1 Y4.342
G2 X114.192 Y-2.008 I-6.35 J0.
G1 X95.142
G2 X88.792 Y4.342 I0. J6.35
G1 Y16.327
Y23.487 Z-3.5
Y45.617
G3 X85.617 Y48.792 I-3.175 J0.
G1 X44.342
G2 X37.992 Y55.142 I0. J6.35
G1 Y74.192
G2 X44.342 Y80.542 I6.35 J0.
G1 X114.192
G2 X120.542 Y74.192 I0. J-6.35
G1 Y4.342
G2 X114.192 Y-2.008 I-6.35 J0.
G1 X95.142
G2 X88.792 Y4.342 I0. J6.35
G1 Y16.327
Y23.487
Y30.646 Z-3.75
Y45.617
G3 X85.617 Y48.792 I-3.175 J0.
G1 X44.342
G2 X37.992 Y55.142 I0. J6.35
G1 Y74.192
G2 X44.342 Y80.542 I6.35 J0.
G1 X114.192
G2 X120.542 Y74.192 I0. J-6.35
G1 Y4.342
G2 X114.192 Y-2.008 I-6.35 J0.
G1 X95.142
G2 X88.792 Y4.342 I0. J6.35
G1 Y23.487
Y30.646
Y37.805 Z-4.
Y45.617
G3 X85.617 Y48.792 I-3.175 J0.
G1 X44.342
G2 X37.992 Y55.142 I0. J6.35
G1 Y74.192
G2 X44.342 Y80.542 I6.35 J0.
G1 X114.192
G2 X120.542 Y74.192 I0. J-6.35
G1 Y4.342
G2 X114.192 Y-2.008 I-6.35 J0.
G1 X95.142
G2 X88.792 Y4.342 I0. J6.35
G1 Y30.646
Y37.805
Y44.964 Z-4.25
Y45.617
G3 X85.617 Y48.792 I-3.175 J0.
G1 X44.342
G2 X37.992 Y55.142 I0. J6.35
G1 Y74.192
G2 X44.342 Y80.542 I6.35 J0.
G1 X114.192
G2 X120.542 Y74.192 I0. J-6.35
G1 Y4.342
G2 X114.192 Y-2.008 I-6.35 J0.
G1 X95.142
G2 X88.792 Y4.342 I0. J6.35
G1 Y37.805
Y44.964
Y45.617 Z-4.273
G3 X85.617 Y48.792 Z-4.447 I-3.175 J0.
G1 X84.099 Z-4.5
X44.342
G2 X37.992 Y55.142 I0. J6.35
G1 Y74.192
G2 X44.342 Y80.542 I6.35 J0.
G1 X114.192
G2 X120.542 Y74.192 I0. J-6.35
G1 Y4.342
G2 X114.192 Y-2.008 I-6.35 J0.
G1 X95.142
G2 X88.792 Y4.342 I0. J6.35
G1 Y44.964
Y45.617
G3 X85.617 Y48.792 I-3.175 J0.
G1 X84.099
X79.088 Z-4.675
X44.342
G2 X37.992 Y55.142 I0. J6.35
G1 Y74.192
G2 X44.342 Y80.542 I6.35 J0.
G1 X114.192
G2 X120.542 Y74.192 I0. J-6.35
G1 Y4.342
G2 X114.192 Y-2.008 I-6.35 J0.
G1 X95.142
G2 X88.792 Y4.342 I0. J6.35
G1 Y45.617
G3 X85.617 Y48.792 I-3.175 J0.
G1 X79.088
G3 X78.453 Y48.157 I0. J-0.635
G1 Y47.522
G19 G2 Y46.887 Z-4.04 J0. K0.635
G0 Z15.
G17

(2D CONTOUR2)
G0 X86.387 Y41.099
Z15.
Z5.
G1 Z3.135 F400.
G18 G2 X87.022 Z2.5 I0.635 K0.
G1 X87.657
G17 G3 X88.292 Y41.734 I0. J0.635
G1 Y45.617 Z2.364
G3 X85.617 Y48.292 Z2.218 I-2.675 J0.
G1 X44.342 Z0.776
G2 X37.492 Y55.142 Z0.401 I0. J6.85
G1 Y74.192 Z-0.265
G2 X44.342 Y81.042 Z-0.64 I6.85 J0.
G1 X114.192 Z-3.08
G2 X121.042 Y74.192 Z-3.455 I0. J-6.85
G1 Y39.267 Z-4.675
Y4.342
G2 X114.192 Y-2.508 I-6.85 J0.
G1 X95.142
G2 X88.292 Y4.342 I0. J6.85
G1 Y45.617
G3 X85.617 Y48.292 I-2.675 J0.
G1 X44.342
G2 X37.492 Y55.142 I0. J6.85
G1 Y74.192
G2 X44.342 Y81.042 I6.85 J0.
G1 X114.192
G2 X121.042 Y74.192 I0. J-6.85
G1 Y39.267
G2 X120.792 Y38.892 I-0.406 J0.
G3 X120.542 Y38.517 I0.156 J-0.375
G1 Y4.342
G2 X114.192 Y-2.008 I-6.35 J0.
G1 X95.142
G2 X88.792 Y4.342 I0. J6.35
G1 Y45.617
G3 X85.617 Y48.792 I-3.175 J0.
G1 X44.342
G2 X37.992 Y55.142 I0. J6.35
G1 Y74.192
G2 X44.342 Y80.542 I6.35 J0.
G1 X114.192
G2 X120.542 Y74.192 I0. J-6.35
G1 Y38.517
G3 X121.177 Y37.882 I0.635 J0.
G1 X121.812
G18 G2 X122.447 Z-4.04 I0. K0.635
G0 Z15.
G17

(2D CONTOUR1 2)
G0 X38.661 Y-4.08
Z15.
Z5.
G1 Z3.135 F1600.
G19 G3 Y-3.445 Z2.5 J0.635 K0.
G1 Y-2.81
G17 G3 X38.026 Y-2.175 I-0.635 J0.
G1 X4.175 Z1.318
G2 X-2.175 Y4.175 Z0.97 I0. J6.35
G1 Y39.1 Z-0.25
Y74.025
G2 X4.175 Y80.375 I6.35 J0.
G1 X23.225
G2 X29.575 Y74.025 I0. J-6.35
G1 Y32.75
G3 X32.75 Y29.575 I3.175 J0.
G1 X74.025
G2 X80.375 Y23.225 I0. J-6.35
G1 Y4.175
G2 X74.025 Y-2.175 I-6.35 J0.
G1 X4.175
G2 X-2.175 Y4.175 I0. J6.35
G1 Y39.1
Y46.259 Z-0.5
Y74.025
G2 X4.175 Y80.375 I6.35 J0.
G1 X23.225
G2 X29.575 Y74.025 I0. J-6.35
G1 Y32.75
G3 X32.75 Y29.575 I3.175 J0.
G1 X74.025
G2 X80.375 Y23.225 I0. J-6.35
G1 Y4.175
G2 X74.025 Y-2.175 I-6.35 J0.
G1 X4.175
G2 X-2.175 Y4.175 I0. J6.35
G1 Y39.1
Y46.259
Y53.418 Z-0.75
Y74.025
G2 X4.175 Y80.375 I6.35 J0.
G1 X23.225
G2 X29.575 Y74.025 I0. J-6.35
G1 Y32.75
G3 X32.75 Y29.575 I3.175 J0.
G1 X74.025
G2 X80.375 Y23.225 I0. J-6.35
G1 Y4.175
G2 X74.025 Y-2.175 I-6.35 J0.
G1 X4.175
G2 X-2.175 Y4.175 I0. J6.35
G1 Y46.259
Y53.418
Y60.577 Z-1.
Y74.025
G2 X4.175 Y80.375 I6.35 J0.
G1 X23.225
G2 X29.575 Y74.025 I0. J-6.35
G1 Y32.75
G3 X32.75 Y29.575 I3.175 J0.
G1 X74.025
G2 X80.375 Y23.225 I0. J-6.35
G1 Y4.175
G2 X74.025 Y-2.175 I-6.35 J0.
G1 X4.175
G2 X-2.175 Y4.175 I0. J6.35
G1 Y53.418
Y60.577
Y67.736 Z-1.25
Y74.025
G2 X4.175 Y80.375 I6.35 J0.
G1 X23.225
G2 X29.575 Y74.025 I0. J-6.35
G1 Y32.75
G3 X32.75 Y29.575 I3.175 J0.
G1 X74.025
G2 X80.375 Y23.225 I0. J-6.35
G1 Y4.175
G2 X74.025 Y-2.175 I-6.35 J0.
G1 X4.175
G2 X-2.175 Y4.175 I0. J6.35
G1 Y60.577
Y67.736
Y74.025 Z-1.47
G2 X-2.115 Y74.893 Z-1.5 I6.35 J0.
X4.175 Y80.375 I6.29 J-0.868
G1 X23.225
G2 X29.575 Y74.025 I0. J-6.35
G1 Y32.75
G3 X32.75 Y29.575 I3.175 J0.
G1 X74.025
G2 X80.375 Y23.225 I0. J-6.35
G1 Y4.175
G2 X74.025 Y-2.175 I-6.35 J0.
G1 X4.175
G2 X-2.175 Y4.175 I0. J6.35
G1 Y67.736
Y74.025
G2 X-2.115 Y74.893 I6.35 J0.
X2.261 Y80.079 Z-1.75 I6.29 J-0.868
X4.175 Y80.375 I1.915 J-6.054
G1 X23.225
G2 X29.575 Y74.025 I0. J-6.35
G1 Y32.75
G3 X32.75 Y29.575 I3.175 J0.
G1 X74.025
G2 X80.375 Y23.225 I0. J-6.35
G1 Y4.175
G2 X74.025 Y-2.175 I-6.35 J0.
G1 X4.175
G2 X-2.175 Y4.175 I0. J6.35
G1 Y74.025
G2 X2.261 Y80.079 I6.35 J0.
X4.175 Y80.375 Z-1.818 I1.915 J-6.054
G1 X9.389 Z-2.
X23.225
G2 X29.575 Y74.025 I0. J-6.35
G1 Y32.75
G3 X32.75 Y29.575 I3.175 J0.
G1 X74.025
G2 X80.375 Y23.225 I0. J-6.35
G1 Y4.175
G2 X74.025 Y-2.175 I-6.35 J0.
G1 X4.175
G2 X-2.175 Y4.175 I0. J6.35
G1 Y74.025
G2 X4.175 Y80.375 I6.35 J0.
G1 X9.389
X16.548 Z-2.25
X23.225
G2 X29.575 Y74.025 I0. J-6.35
G1 Y32.75
G3 X32.75 Y29.575 I3.175 J0.
G1 X74.025
G2 X80.375 Y23.225 I0. J-6.35
G1 Y4.175
G2 X74.025 Y-2.175 I-6.35 J0.
G1 X4.175
G2 X-2.175 Y4.175 I0. J6.35
G1 Y74.025
G2 X4.175 Y80.375 I6.35 J0.
G1 X16.548
X23.225 Z-2.483
G2 X23.707 Y80.357 Z-2.5 I0. J-6.35
X29.575 Y74.025 I-0.482 J-6.332
G1 Y32.75
G3 X32.75 Y29.575 I3.175 J0.
G1 X74.025
G2 X80.375 Y23.225 I0. J-6.35
G1 Y4.175
G2 X74.025 Y-2.175 I-6.35 J0.
G1 X4.175
G2 X-2.175 Y4.175 I0. J6.35
G1 Y74.025
G2 X4.175 Y80.375 I6.35 J0.
G1 X16.548
X23.225
G2 X23.707 Y80.357 I0. J-6.35
X29.151 Y76.306 Z-2.75 I-0.482 J-6.332
X29.575 Y74.025 I-5.926 J-2.281
G1 Y32.75
G3 X32.75 Y29.575 I3.175 J0.
G1 X74.025
G2 X80.375 Y23.225 I0. J-6.35
G1 Y4.175
G2 X74.025 Y-2.175 I-6.35 J0.
G1 X4.175
G2 X-2.175 Y4.175 I0. J6.35
G1 Y74.025
G2 X4.175 Y80.375 I6.35 J0.
G1 X23.225
G2 X29.151 Y76.306 I0. J-6.35
X29.575 Y74.025 Z-2.831 I-5.926 J-2.281
G1 Y69.199 Z-3.
Y32.75
G3 X32.75 Y29.575 I3.175 J0.
G1 X74.025
G2 X80.375 Y23.225 I0. J-6.35
G1 Y4.175
G2 X74.025 Y-2.175 I-6.35 J0.
G1 X4.175
G2 X-2.175 Y4.175 I0. J6.35
G1 Y74.025
G2 X4.175 Y80.375 I6.35 J0.
G1 X23.225
G2 X29.575 Y74.025 I0. J-6.35
G1 Y69.199
Y62.04 Z-3.25
Y32.75
G3 X32.75 Y29.575 I3.175 J0.
G1 X74.025
G2 X80.375 Y23.225 I0. J-6.35
G1 Y4.175
G2 X74.025 Y-2.175 I-6.35 J0.
G1 X4.175
G2 X-2.175 Y4.175 I0. J6.35
G1 Y74.025
G2 X4.175 Y80.375 I6.35 J0.
G1 X23.225
G2 X29.575 Y74.025 I0. J-6.35
G1 Y62.04
Y54.881 Z-3.5
Y32.75
G3 X32.75 Y29.575 I3.175 J0.
G1 X74.025
G2 X80.375 Y23.225 I0. J-6.35
G1 Y4.175
G2 X74.025 Y-2.175 I-6.35 J0.
G1 X4.175
G2 X-2.175 Y4.175 I0. J6.35
G1 Y74.025
G2 X4.175 Y80.375 I6.35 J0.
G1 X23.225
G2 X29.575 Y74.025 I0. J-6.35
G1 Y62.04
Y54.881
Y47.722 Z-3.75
Y32.75
G3 X32.75 Y29.575 I3.175 J0.
G1 X74.025
G2 X80.375 Y23.225 I0. J-6.35
G1 Y4.175
G2 X74.025 Y-2.175 I-6.35 J0.
G1 X4.175
G2 X-2.175 Y4.175 I0. J6.35
G1 Y74.025
G2 X4.175 Y80.375 I6.35 J0.
G1 X23.225
G2 X29.575 Y74.025 I0. J-6.35
G1 Y54.881
Y47.722
Y40.563 Z-4.
Y32.75
G3 X32.75 Y29.575 I3.175 J0.
G1 X74.025
G2 X80.375 Y23.225 I0. J-6.35
G1 Y4.175
G2 X74.025 Y-2.175 I-6.35 J0.
G1 X4.175
G2 X-2.175 Y4.175 I0. J6.35
G1 Y74.025
G2 X4.175 Y80.375 I6.35 J0.
G1 X23.225
G2 X29.575 Y74.025 I0. J-6.35
G1 Y47.722
Y40.563
Y33.404 Z-4.25
Y32.75
G3 X32.75 Y29.575 I3.175 J0.
G1 X74.025
G2 X80.375 Y23.225 I0. J-6.35
G1 Y4.175
G2 X74.025 Y-2.175 I-6.35 J0.
G1 X4.175
G2 X-2.175 Y4.175 I0. J6.35
G1 Y74.025
G2 X4.175 Y80.375 I6.35 J0.
G1 X23.225
G2 X29.575 Y74.025 I0. J-6.35
G1 Y40.563
Y33.404
Y32.75 Z-4.273
G3 X32.75 Y29.575 Z-4.447 I3.175 J0.
G1 X34.268 Z-4.5
X74.025
G2 X80.375 Y23.225 I0. J-6.35
G1 Y4.175
G2 X74.025 Y-2.175 I-6.35 J0.
G1 X4.175
G2 X-2.175 Y4.175 I0. J6.35
G1 Y74.025
G2 X4.175 Y80.375 I6.35 J0.
G1 X23.225
G2 X29.575 Y74.025 I0. J-6.35
G1 Y33.404
Y32.75
G3 X32.75 Y29.575 I3.175 J0.
G1 X34.268
X39.279 Z-4.675
X74.025
G2 X80.375 Y23.225 I0. J-6.35
G1 Y4.175
G2 X74.025 Y-2.175 I-6.35 J0.
G1 X4.175
G2 X-2.175 Y4.175 I0. J6.35
G1 Y74.025
G2 X4.175 Y80.375 I6.35 J0.
G1 X23.225
G2 X29.575 Y74.025 I0. J-6.35
G1 Y32.75
G3 X32.75 Y29.575 I3.175 J0.
G1 X39.279
G3 X39.914 Y30.21 I0. J0.635
G1 Y30.845
G19 G3 Y31.48 Z-4.04 J0. K0.635
G0 Z15.
G17

(2D CONTOUR2)
G0 X31.98 Y37.269
Z15.
Z5.
G1 Z3.135 F400.
G18 G3 X31.345 Z2.5 I-0.635 K0.
G1 X30.71
G17 G3 X30.075 Y36.634 I0. J-0.635
G1 Y32.75 Z2.364
G3 X32.75 Y30.075 Z2.218 I2.675 J0.
G1 X74.025 Z0.776
G2 X80.875 Y23.225 Z0.401 I0. J-6.85
G1 Y4.175 Z-0.265
G2 X74.025 Y-2.675 Z-0.64 I-6.85 J0.
G1 X4.175 Z-3.08
G2 X-2.675 Y4.175 Z-3.455 I0. J6.85
G1 Y39.1 Z-4.675
Y74.025
G2 X4.175 Y80.875 I6.85 J0.
G1 X23.225
G2 X30.075 Y74.025 I0. J-6.85
G1 Y32.75
G3 X32.75 Y30.075 I2.675 J0.
G1 X74.025
G2 X80.875 Y23.225 I0. J-6.85
G1 Y4.175
G2 X74.025 Y-2.675 I-6.85 J0.
G1 X4.175
G2 X-2.675 Y4.175 I0. J6.85
G1 Y39.1
G2 X-2.425 Y39.475 I0.406 J0.
G3 X-2.175 Y39.85 I-0.156 J0.375
G1 Y74.025
G2 X4.175 Y80.375 I6.35 J0.
G1 X23.225
G2 X29.575 Y74.025 I0. J-6.35
G1 Y32.75
G3 X32.75 Y29.575 I3.175 J0.
G1 X74.025
G2 X80.375 Y23.225 I0. J-6.35
G1 Y4.175
G2 X74.025 Y-2.175 I-6.35 J0.
G1 X4.175
G2 X-2.175 Y4.175 I0. J6.35
G1 Y39.85
G3 X-2.81 Y40.485 I-0.635 J0.
G1 X-3.445
G18 G3 X-4.08 Z-4.04 I0. K0.635
G0 Z15.
G17
M5
G0 Z15
G0 X0 Y0

M9
M30
