(X8 STATIC HOOK SIDE BLOCK COMPLETE)
(T3  D=0.118 CR=0. - ZMIN=-1.04 - FLAT END MILL)
G90 G94 G91.1 G40 G49 G17
G20

(2D POCKET2)
M5
T3 M6
S15000 M3
G54
M8
G0 X1.4599 Y0.7706
G43 Z0.6 H3
Z0.2
G1 Z0.1294 F40.
Z-0.0749 F20.
X1.4594 Y0.7713 Z-0.0794
X1.4577 Y0.7732 Z-0.0832
X1.4561 Y0.7743 Z-0.0845
X1.4544 Y0.7751 Z-0.0858
X1.4522 Y0.7758 Z-0.0862
X1.45 Y0.776 Z-0.0867
G3 Y0.724 I0. J-0.026 F40.
Y0.776 I0. J0.026
G1 X1.4478 Y0.7758 Z-0.0862
X1.4456 Y0.7751 Z-0.0858
X1.4439 Y0.7743 Z-0.0845
X1.4423 Y0.7732 Z-0.0832
X1.4406 Y0.7713 Z-0.0794
X1.4401 Y0.7706 Z-0.0749
G0 Z0.2
X1.4599
G1 Z0.0427 F20.
Z-0.1615
X1.4594 Y0.7713 Z-0.166
X1.4577 Y0.7732 Z-0.1699
X1.4561 Y0.7743 Z-0.1712
X1.4544 Y0.7751 Z-0.1724
X1.4522 Y0.7758 Z-0.1729
X1.45 Y0.776 Z-0.1733
G3 Y0.724 I0. J-0.026 F40.
Y0.776 I0. J0.026
G1 X1.4478 Y0.7758 Z-0.1729
X1.4456 Y0.7751 Z-0.1724
X1.4439 Y0.7743 Z-0.1712
X1.4423 Y0.7732 Z-0.1699
X1.4406 Y0.7713 Z-0.166
X1.4401 Y0.7706 Z-0.1615
G0 Z0.2
X1.4599
G1 Z-0.044 F20.
Z-0.2482
X1.4594 Y0.7713 Z-0.2527
X1.4577 Y0.7732 Z-0.2565
X1.4561 Y0.7743 Z-0.2578
X1.4544 Y0.7751 Z-0.2591
X1.4522 Y0.7758 Z-0.2596
X1.45 Y0.776 Z-0.26
G3 Y0.724 I0. J-0.026 F40.
Y0.776 I0. J0.026
G1 X1.4478 Y0.7758 Z-0.2596
X1.4456 Y0.7751 Z-0.2591
X1.4439 Y0.7743 Z-0.2578
X1.4423 Y0.7732 Z-0.2565
X1.4406 Y0.7713 Z-0.2527
X1.4401 Y0.7706 Z-0.2482
G0 Z0.2
X1.4599
G1 Z-0.1306 F20.
Z-0.3349
X1.4594 Y0.7713 Z-0.3394
X1.4577 Y0.7732 Z-0.3432
X1.4561 Y0.7743 Z-0.3445
X1.4544 Y0.7751 Z-0.3458
X1.4522 Y0.7758 Z-0.3462
X1.45 Y0.776 Z-0.3467
G3 Y0.724 I0. J-0.026 F40.
Y0.776 I0. J0.026
G1 X1.4478 Y0.7758 Z-0.3462
X1.4456 Y0.7751 Z-0.3458
X1.4439 Y0.7743 Z-0.3445
X1.4423 Y0.7732 Z-0.3432
X1.4406 Y0.7713 Z-0.3394
X1.4401 Y0.7706 Z-0.3349
G0 Z0.2
X1.4599
G1 Z-0.2173 F20.
Z-0.4215
X1.4594 Y0.7713 Z-0.426
X1.4577 Y0.7732 Z-0.4299
X1.4561 Y0.7743 Z-0.4312
X1.4544 Y0.7751 Z-0.4324
X1.4522 Y0.7758 Z-0.4329
X1.45 Y0.776 Z-0.4333
G3 Y0.724 I0. J-0.026 F40.
Y0.776 I0. J0.026
G1 X1.4478 Y0.7758 Z-0.4329
X1.4456 Y0.7751 Z-0.4324
X1.4439 Y0.7743 Z-0.4312
X1.4423 Y0.7732 Z-0.4299
X1.4406 Y0.7713 Z-0.426
X1.4401 Y0.7706 Z-0.4215
G0 Z0.2
X1.4599
G1 Z-0.304 F20.
Z-0.5082
X1.4594 Y0.7713 Z-0.5127
X1.4577 Y0.7732 Z-0.5165
X1.4561 Y0.7743 Z-0.5178
X1.4544 Y0.7751 Z-0.5191
X1.4522 Y0.7758 Z-0.5196
X1.45 Y0.776 Z-0.52
G3 Y0.724 I0. J-0.026 F40.
Y0.776 I0. J0.026
G1 X1.4478 Y0.7758 Z-0.5196
X1.4456 Y0.7751 Z-0.5191
X1.4439 Y0.7743 Z-0.5178
X1.4423 Y0.7732 Z-0.5165
X1.4406 Y0.7713 Z-0.5127
X1.4401 Y0.7706 Z-0.5082
G0 Z0.2
X1.4599
G1 Z-0.3906 F20.
Z-0.5949
X1.4594 Y0.7713 Z-0.5994
X1.4577 Y0.7732 Z-0.6032
X1.4561 Y0.7743 Z-0.6045
X1.4544 Y0.7751 Z-0.6058
X1.4522 Y0.7758 Z-0.6062
X1.45 Y0.776 Z-0.6067
G3 Y0.724 I0. J-0.026 F40.
Y0.776 I0. J0.026
G1 X1.4478 Y0.7758 Z-0.6062
X1.4456 Y0.7751 Z-0.6058
X1.4439 Y0.7743 Z-0.6045
X1.4423 Y0.7732 Z-0.6032
X1.4406 Y0.7713 Z-0.5994
X1.4401 Y0.7706 Z-0.5949
G0 Z0.2
X1.4599
G1 Z-0.4773 F20.
Z-0.6815
X1.4594 Y0.7713 Z-0.686
X1.4577 Y0.7732 Z-0.6899
X1.4561 Y0.7743 Z-0.6912
X1.4544 Y0.7751 Z-0.6924
X1.4522 Y0.7758 Z-0.6929
X1.45 Y0.776 Z-0.6933
G3 Y0.724 I0. J-0.026 F40.
Y0.776 I0. J0.026
G1 X1.4478 Y0.7758 Z-0.6929
X1.4456 Y0.7751 Z-0.6924
X1.4439 Y0.7743 Z-0.6912
X1.4423 Y0.7732 Z-0.6899
X1.4406 Y0.7713 Z-0.686
X1.4401 Y0.7706 Z-0.6815
G0 Z0.2
X1.4599
G1 Z-0.564 F20.
Z-0.7682
X1.4594 Y0.7713 Z-0.7727
X1.4577 Y0.7732 Z-0.7765
X1.4561 Y0.7743 Z-0.7778
X1.4544 Y0.7751 Z-0.7791
X1.4522 Y0.7758 Z-0.7796
X1.45 Y0.776 Z-0.78
G3 Y0.724 I0. J-0.026 F40.
Y0.776 I0. J0.026
G1 X1.4478 Y0.7758 Z-0.7796
X1.4456 Y0.7751 Z-0.7791
X1.4439 Y0.7743 Z-0.7778
X1.4423 Y0.7732 Z-0.7765
X1.4406 Y0.7713 Z-0.7727
X1.4401 Y0.7706 Z-0.7682
G0 Z0.2
X1.4599
G1 Z-0.6506 F20.
Z-0.8549
X1.4594 Y0.7713 Z-0.8594
X1.4577 Y0.7732 Z-0.8632
X1.4561 Y0.7743 Z-0.8645
X1.4544 Y0.7751 Z-0.8658
X1.4522 Y0.7758 Z-0.8662
X1.45 Y0.776 Z-0.8667
G3 Y0.724 I0. J-0.026 F40.
Y0.776 I0. J0.026
G1 X1.4478 Y0.7758 Z-0.8662
X1.4456 Y0.7751 Z-0.8658
X1.4439 Y0.7743 Z-0.8645
X1.4423 Y0.7732 Z-0.8632
X1.4406 Y0.7713 Z-0.8594
X1.4401 Y0.7706 Z-0.8549
G0 Z0.2
X1.4599
G1 Z-0.7373 F20.
Z-0.9415
X1.4594 Y0.7713 Z-0.946
X1.4577 Y0.7732 Z-0.9499
X1.4561 Y0.7743 Z-0.9512
X1.4544 Y0.7751 Z-0.9524
X1.4522 Y0.7758 Z-0.9529
X1.45 Y0.776 Z-0.9533
G3 Y0.724 I0. J-0.026 F40.
Y0.776 I0. J0.026
G1 X1.4478 Y0.7758 Z-0.9529
X1.4456 Y0.7751 Z-0.9524
X1.4439 Y0.7743 Z-0.9512
X1.4423 Y0.7732 Z-0.9499
X1.4406 Y0.7713 Z-0.946
X1.4401 Y0.7706 Z-0.9415
G0 Z0.2
X1.4599
G1 Z-0.824 F20.
Z-1.0282
X1.4594 Y0.7713 Z-1.0327
X1.4577 Y0.7732 Z-1.0365
X1.4561 Y0.7743 Z-1.0378
X1.4544 Y0.7751 Z-1.0391
X1.4522 Y0.7758 Z-1.0396
X1.45 Y0.776 Z-1.04
G3 Y0.724 I0. J-0.026 F40.
Y0.776 I0. J0.026
G1 X1.4478 Y0.7758 Z-1.0396
X1.4456 Y0.7751 Z-1.0391
X1.4439 Y0.7743 Z-1.0378
X1.4423 Y0.7732 Z-1.0365
X1.4406 Y0.7713 Z-1.0327
X1.4401 Y0.7706 Z-1.0282
G0 Z0.2
X1.4599 Y0.2706
G1 Z0.1294 F20.
Z-0.0749
X1.4594 Y0.2713 Z-0.0794
X1.4577 Y0.2732 Z-0.0832
X1.4561 Y0.2743 Z-0.0845
X1.4544 Y0.2751 Z-0.0858
X1.4522 Y0.2758 Z-0.0862
X1.45 Y0.276 Z-0.0867
G3 Y0.224 I0. J-0.026 F40.
Y0.276 I0. J0.026
G1 X1.4478 Y0.2758 Z-0.0862
X1.4456 Y0.2751 Z-0.0858
X1.4439 Y0.2743 Z-0.0845
X1.4423 Y0.2732 Z-0.0832
X1.4406 Y0.2713 Z-0.0794
X1.4401 Y0.2706 Z-0.0749
G0 Z0.2
X1.4599
G1 Z0.0427 F20.
Z-0.1615
X1.4594 Y0.2713 Z-0.166
X1.4577 Y0.2732 Z-0.1699
X1.4561 Y0.2743 Z-0.1712
X1.4544 Y0.2751 Z-0.1724
X1.4522 Y0.2758 Z-0.1729
X1.45 Y0.276 Z-0.1733
G3 Y0.224 I0. J-0.026 F40.
Y0.276 I0. J0.026
G1 X1.4478 Y0.2758 Z-0.1729
X1.4456 Y0.2751 Z-0.1724
X1.4439 Y0.2743 Z-0.1712
X1.4423 Y0.2732 Z-0.1699
X1.4406 Y0.2713 Z-0.166
X1.4401 Y0.2706 Z-0.1615
G0 Z0.2
X1.4599
G1 Z-0.044 F20.
Z-0.2482
X1.4594 Y0.2713 Z-0.2527
X1.4577 Y0.2732 Z-0.2565
X1.4561 Y0.2743 Z-0.2578
X1.4544 Y0.2751 Z-0.2591
X1.4522 Y0.2758 Z-0.2596
X1.45 Y0.276 Z-0.26
G3 Y0.224 I0. J-0.026 F40.
Y0.276 I0. J0.026
G1 X1.4478 Y0.2758 Z-0.2596
X1.4456 Y0.2751 Z-0.2591
X1.4439 Y0.2743 Z-0.2578
X1.4423 Y0.2732 Z-0.2565
X1.4406 Y0.2713 Z-0.2527
X1.4401 Y0.2706 Z-0.2482
G0 Z0.2
X1.4599
G1 Z-0.1306 F20.
Z-0.3349
X1.4594 Y0.2713 Z-0.3394
X1.4577 Y0.2732 Z-0.3432
X1.4561 Y0.2743 Z-0.3445
X1.4544 Y0.2751 Z-0.3458
X1.4522 Y0.2758 Z-0.3462
X1.45 Y0.276 Z-0.3467
G3 Y0.224 I0. J-0.026 F40.
Y0.276 I0. J0.026
G1 X1.4478 Y0.2758 Z-0.3462
X1.4456 Y0.2751 Z-0.3458
X1.4439 Y0.2743 Z-0.3445
X1.4423 Y0.2732 Z-0.3432
X1.4406 Y0.2713 Z-0.3394
X1.4401 Y0.2706 Z-0.3349
G0 Z0.2
X1.4599
G1 Z-0.2173 F20.
Z-0.4215
X1.4594 Y0.2713 Z-0.426
X1.4577 Y0.2732 Z-0.4299
X1.4561 Y0.2743 Z-0.4312
X1.4544 Y0.2751 Z-0.4324
X1.4522 Y0.2758 Z-0.4329
X1.45 Y0.276 Z-0.4333
G3 Y0.224 I0. J-0.026 F40.
Y0.276 I0. J0.026
G1 X1.4478 Y0.2758 Z-0.4329
X1.4456 Y0.2751 Z-0.4324
X1.4439 Y0.2743 Z-0.4312
X1.4423 Y0.2732 Z-0.4299
X1.4406 Y0.2713 Z-0.426
X1.4401 Y0.2706 Z-0.4215
G0 Z0.2
X1.4599
G1 Z-0.304 F20.
Z-0.5082
X1.4594 Y0.2713 Z-0.5127
X1.4577 Y0.2732 Z-0.5165
X1.4561 Y0.2743 Z-0.5178
X1.4544 Y0.2751 Z-0.5191
X1.4522 Y0.2758 Z-0.5196
X1.45 Y0.276 Z-0.52
G3 Y0.224 I0. J-0.026 F40.
Y0.276 I0. J0.026
G1 X1.4478 Y0.2758 Z-0.5196
X1.4456 Y0.2751 Z-0.5191
X1.4439 Y0.2743 Z-0.5178
X1.4423 Y0.2732 Z-0.5165
X1.4406 Y0.2713 Z-0.5127
X1.4401 Y0.2706 Z-0.5082
G0 Z0.2
X1.4599
G1 Z-0.3906 F20.
Z-0.5949
X1.4594 Y0.2713 Z-0.5994
X1.4577 Y0.2732 Z-0.6032
X1.4561 Y0.2743 Z-0.6045
X1.4544 Y0.2751 Z-0.6058
X1.4522 Y0.2758 Z-0.6062
X1.45 Y0.276 Z-0.6067
G3 Y0.224 I0. J-0.026 F40.
Y0.276 I0. J0.026
G1 X1.4478 Y0.2758 Z-0.6062
X1.4456 Y0.2751 Z-0.6058
X1.4439 Y0.2743 Z-0.6045
X1.4423 Y0.2732 Z-0.6032
X1.4406 Y0.2713 Z-0.5994
X1.4401 Y0.2706 Z-0.5949
G0 Z0.2
X1.4599
G1 Z-0.4773 F20.
Z-0.6815
X1.4594 Y0.2713 Z-0.686
X1.4577 Y0.2732 Z-0.6899
X1.4561 Y0.2743 Z-0.6912
X1.4544 Y0.2751 Z-0.6924
X1.4522 Y0.2758 Z-0.6929
X1.45 Y0.276 Z-0.6933
G3 Y0.224 I0. J-0.026 F40.
Y0.276 I0. J0.026
G1 X1.4478 Y0.2758 Z-0.6929
X1.4456 Y0.2751 Z-0.6924
X1.4439 Y0.2743 Z-0.6912
X1.4423 Y0.2732 Z-0.6899
X1.4406 Y0.2713 Z-0.686
X1.4401 Y0.2706 Z-0.6815
G0 Z0.2
X1.4599
G1 Z-0.564 F20.
Z-0.7682
X1.4594 Y0.2713 Z-0.7727
X1.4577 Y0.2732 Z-0.7765
X1.4561 Y0.2743 Z-0.7778
X1.4544 Y0.2751 Z-0.7791
X1.4522 Y0.2758 Z-0.7796
X1.45 Y0.276 Z-0.78
G3 Y0.224 I0. J-0.026 F40.
Y0.276 I0. J0.026
G1 X1.4478 Y0.2758 Z-0.7796
X1.4456 Y0.2751 Z-0.7791
X1.4439 Y0.2743 Z-0.7778
X1.4423 Y0.2732 Z-0.7765
X1.4406 Y0.2713 Z-0.7727
X1.4401 Y0.2706 Z-0.7682
G0 Z0.2
X1.4599
G1 Z-0.6506 F20.
Z-0.8549
X1.4594 Y0.2713 Z-0.8594
X1.4577 Y0.2732 Z-0.8632
X1.4561 Y0.2743 Z-0.8645
X1.4544 Y0.2751 Z-0.8658
X1.4522 Y0.2758 Z-0.8662
X1.45 Y0.276 Z-0.8667
G3 Y0.224 I0. J-0.026 F40.
Y0.276 I0. J0.026
G1 X1.4478 Y0.2758 Z-0.8662
X1.4456 Y0.2751 Z-0.8658
X1.4439 Y0.2743 Z-0.8645
X1.4423 Y0.2732 Z-0.8632
X1.4406 Y0.2713 Z-0.8594
X1.4401 Y0.2706 Z-0.8549
G0 Z0.2
X1.4599
G1 Z-0.7373 F20.
Z-0.9415
X1.4594 Y0.2713 Z-0.946
X1.4577 Y0.2732 Z-0.9499
X1.4561 Y0.2743 Z-0.9512
X1.4544 Y0.2751 Z-0.9524
X1.4522 Y0.2758 Z-0.9529
X1.45 Y0.276 Z-0.9533
G3 Y0.224 I0. J-0.026 F40.
Y0.276 I0. J0.026
G1 X1.4478 Y0.2758 Z-0.9529
X1.4456 Y0.2751 Z-0.9524
X1.4439 Y0.2743 Z-0.9512
X1.4423 Y0.2732 Z-0.9499
X1.4406 Y0.2713 Z-0.946
X1.4401 Y0.2706 Z-0.9415
G0 Z0.2
X1.4599
G1 Z-0.824 F20.
Z-1.0282
X1.4594 Y0.2713 Z-1.0327
X1.4577 Y0.2732 Z-1.0365
X1.4561 Y0.2743 Z-1.0378
X1.4544 Y0.2751 Z-1.0391
X1.4522 Y0.2758 Z-1.0396
X1.45 Y0.276 Z-1.04
G3 Y0.224 I0. J-0.026 F40.
Y0.276 I0. J0.026
G1 X1.4478 Y0.2758 Z-1.0396
X1.4456 Y0.2751 Z-1.0391
X1.4439 Y0.2743 Z-1.0378
X1.4423 Y0.2732 Z-1.0365
X1.4406 Y0.2713 Z-1.0327
X1.4401 Y0.2706 Z-1.0282
G0 Z0.2
X1.9294 Y0.2599
G1 Z0.1294 F20.
Z-0.0749
X1.9287 Y0.2594 Z-0.0794
X1.9268 Y0.2577 Z-0.0832
X1.9257 Y0.2561 Z-0.0845
X1.9249 Y0.2544 Z-0.0858
X1.9242 Y0.2522 Z-0.0862
X1.924 Y0.25 Z-0.0867
G3 X1.976 I0.026 J0. F40.
X1.924 I-0.026 J0.
G1 X1.9242 Y0.2478 Z-0.0862
X1.9249 Y0.2456 Z-0.0858
X1.9257 Y0.2439 Z-0.0845
X1.9268 Y0.2423 Z-0.0832
X1.9287 Y0.2406 Z-0.0794
X1.9294 Y0.2401 Z-0.0749
G0 Z0.2
Y0.2599
G1 Z0.0427 F20.
Z-0.1615
X1.9287 Y0.2594 Z-0.166
X1.9268 Y0.2577 Z-0.1699
X1.9257 Y0.2561 Z-0.1712
X1.9249 Y0.2544 Z-0.1724
X1.9242 Y0.2522 Z-0.1729
X1.924 Y0.25 Z-0.1733
G3 X1.976 I0.026 J0. F40.
X1.924 I-0.026 J0.
G1 X1.9242 Y0.2478 Z-0.1729
X1.9249 Y0.2456 Z-0.1724
X1.9257 Y0.2439 Z-0.1712
X1.9268 Y0.2423 Z-0.1699
X1.9287 Y0.2406 Z-0.166
X1.9294 Y0.2401 Z-0.1615
G0 Z0.2
Y0.2599
G1 Z-0.044 F20.
Z-0.2482
X1.9287 Y0.2594 Z-0.2527
X1.9268 Y0.2577 Z-0.2565
X1.9257 Y0.2561 Z-0.2578
X1.9249 Y0.2544 Z-0.2591
X1.9242 Y0.2522 Z-0.2596
X1.924 Y0.25 Z-0.26
G3 X1.976 I0.026 J0. F40.
X1.924 I-0.026 J0.
G1 X1.9242 Y0.2478 Z-0.2596
X1.9249 Y0.2456 Z-0.2591
X1.9257 Y0.2439 Z-0.2578
X1.9268 Y0.2423 Z-0.2565
X1.9287 Y0.2406 Z-0.2527
X1.9294 Y0.2401 Z-0.2482
G0 Z0.2
Y0.2599
G1 Z-0.1306 F20.
Z-0.3349
X1.9287 Y0.2594 Z-0.3394
X1.9268 Y0.2577 Z-0.3432
X1.9257 Y0.2561 Z-0.3445
X1.9249 Y0.2544 Z-0.3458
X1.9242 Y0.2522 Z-0.3462
X1.924 Y0.25 Z-0.3467
G3 X1.976 I0.026 J0. F40.
X1.924 I-0.026 J0.
G1 X1.9242 Y0.2478 Z-0.3462
X1.9249 Y0.2456 Z-0.3458
X1.9257 Y0.2439 Z-0.3445
X1.9268 Y0.2423 Z-0.3432
X1.9287 Y0.2406 Z-0.3394
X1.9294 Y0.2401 Z-0.3349
G0 Z0.2
Y0.2599
G1 Z-0.2173 F20.
Z-0.4215
X1.9287 Y0.2594 Z-0.426
X1.9268 Y0.2577 Z-0.4299
X1.9257 Y0.2561 Z-0.4312
X1.9249 Y0.2544 Z-0.4324
X1.9242 Y0.2522 Z-0.4329
X1.924 Y0.25 Z-0.4333
G3 X1.976 I0.026 J0. F40.
X1.924 I-0.026 J0.
G1 X1.9242 Y0.2478 Z-0.4329
X1.9249 Y0.2456 Z-0.4324
X1.9257 Y0.2439 Z-0.4312
X1.9268 Y0.2423 Z-0.4299
X1.9287 Y0.2406 Z-0.426
X1.9294 Y0.2401 Z-0.4215
G0 Z0.2
Y0.2599
G1 Z-0.304 F20.
Z-0.5082
X1.9287 Y0.2594 Z-0.5127
X1.9268 Y0.2577 Z-0.5165
X1.9257 Y0.2561 Z-0.5178
X1.9249 Y0.2544 Z-0.5191
X1.9242 Y0.2522 Z-0.5196
X1.924 Y0.25 Z-0.52
G3 X1.976 I0.026 J0. F40.
X1.924 I-0.026 J0.
G1 X1.9242 Y0.2478 Z-0.5196
X1.9249 Y0.2456 Z-0.5191
X1.9257 Y0.2439 Z-0.5178
X1.9268 Y0.2423 Z-0.5165
X1.9287 Y0.2406 Z-0.5127
X1.9294 Y0.2401 Z-0.5082
G0 Z0.2
Y0.2599
G1 Z-0.3906 F20.
Z-0.5949
X1.9287 Y0.2594 Z-0.5994
X1.9268 Y0.2577 Z-0.6032
X1.9257 Y0.2561 Z-0.6045
X1.9249 Y0.2544 Z-0.6058
X1.9242 Y0.2522 Z-0.6062
X1.924 Y0.25 Z-0.6067
G3 X1.976 I0.026 J0. F40.
X1.924 I-0.026 J0.
G1 X1.9242 Y0.2478 Z-0.6062
X1.9249 Y0.2456 Z-0.6058
X1.9257 Y0.2439 Z-0.6045
X1.9268 Y0.2423 Z-0.6032
X1.9287 Y0.2406 Z-0.5994
X1.9294 Y0.2401 Z-0.5949
G0 Z0.2
Y0.2599
G1 Z-0.4773 F20.
Z-0.6815
X1.9287 Y0.2594 Z-0.686
X1.9268 Y0.2577 Z-0.6899
X1.9257 Y0.2561 Z-0.6912
X1.9249 Y0.2544 Z-0.6924
X1.9242 Y0.2522 Z-0.6929
X1.924 Y0.25 Z-0.6933
G3 X1.976 I0.026 J0. F40.
X1.924 I-0.026 J0.
G1 X1.9242 Y0.2478 Z-0.6929
X1.9249 Y0.2456 Z-0.6924
X1.9257 Y0.2439 Z-0.6912
X1.9268 Y0.2423 Z-0.6899
X1.9287 Y0.2406 Z-0.686
X1.9294 Y0.2401 Z-0.6815
G0 Z0.2
Y0.2599
G1 Z-0.564 F20.
Z-0.7682
X1.9287 Y0.2594 Z-0.7727
X1.9268 Y0.2577 Z-0.7765
X1.9257 Y0.2561 Z-0.7778
X1.9249 Y0.2544 Z-0.7791
X1.9242 Y0.2522 Z-0.7796
X1.924 Y0.25 Z-0.78
G3 X1.976 I0.026 J0. F40.
X1.924 I-0.026 J0.
G1 X1.9242 Y0.2478 Z-0.7796
X1.9249 Y0.2456 Z-0.7791
X1.9257 Y0.2439 Z-0.7778
X1.9268 Y0.2423 Z-0.7765
X1.9287 Y0.2406 Z-0.7727
X1.9294 Y0.2401 Z-0.7682
G0 Z0.2
Y0.2599
G1 Z-0.6506 F20.
Z-0.8549
X1.9287 Y0.2594 Z-0.8594
X1.9268 Y0.2577 Z-0.8632
X1.9257 Y0.2561 Z-0.8645
X1.9249 Y0.2544 Z-0.8658
X1.9242 Y0.2522 Z-0.8662
X1.924 Y0.25 Z-0.8667
G3 X1.976 I0.026 J0. F40.
X1.924 I-0.026 J0.
G1 X1.9242 Y0.2478 Z-0.8662
X1.9249 Y0.2456 Z-0.8658
X1.9257 Y0.2439 Z-0.8645
X1.9268 Y0.2423 Z-0.8632
X1.9287 Y0.2406 Z-0.8594
X1.9294 Y0.2401 Z-0.8549
G0 Z0.2
Y0.2599
G1 Z-0.7373 F20.
Z-0.9415
X1.9287 Y0.2594 Z-0.946
X1.9268 Y0.2577 Z-0.9499
X1.9257 Y0.2561 Z-0.9512
X1.9249 Y0.2544 Z-0.9524
X1.9242 Y0.2522 Z-0.9529
X1.924 Y0.25 Z-0.9533
G3 X1.976 I0.026 J0. F40.
X1.924 I-0.026 J0.
G1 X1.9242 Y0.2478 Z-0.9529
X1.9249 Y0.2456 Z-0.9524
X1.9257 Y0.2439 Z-0.9512
X1.9268 Y0.2423 Z-0.9499
X1.9287 Y0.2406 Z-0.946
X1.9294 Y0.2401 Z-0.9415
G0 Z0.2
Y0.2599
G1 Z-0.824 F20.
Z-1.0282
X1.9287 Y0.2594 Z-1.0327
X1.9268 Y0.2577 Z-1.0365
X1.9257 Y0.2561 Z-1.0378
X1.9249 Y0.2544 Z-1.0391
X1.9242 Y0.2522 Z-1.0396
X1.924 Y0.25 Z-1.04
G3 X1.976 I0.026 J0. F40.
X1.924 I-0.026 J0.
G1 X1.9242 Y0.2478 Z-1.0396
X1.9249 Y0.2456 Z-1.0391
X1.9257 Y0.2439 Z-1.0378
X1.9268 Y0.2423 Z-1.0365
X1.9287 Y0.2406 Z-1.0327
X1.9294 Y0.2401 Z-1.0282
G0 Z0.2
X0.7401 Y0.2294
G1 Z0.1294 F20.
Z-0.0749
X0.7406 Y0.2287 Z-0.0794
X0.7423 Y0.2268 Z-0.0832
X0.7439 Y0.2257 Z-0.0845
X0.7456 Y0.2249 Z-0.0858
X0.7478 Y0.2242 Z-0.0862
X0.75 Y0.224 Z-0.0867
G3 Y0.276 I0. J0.026 F40.
Y0.224 I0. J-0.026
G1 X0.7522 Y0.2242 Z-0.0862
X0.7544 Y0.2249 Z-0.0858
X0.7561 Y0.2257 Z-0.0845
X0.7577 Y0.2268 Z-0.0832
X0.7594 Y0.2287 Z-0.0794
X0.7599 Y0.2294 Z-0.0749
G0 Z0.2
X0.7401
G1 Z0.0427 F20.
Z-0.1615
X0.7406 Y0.2287 Z-0.166
X0.7423 Y0.2268 Z-0.1699
X0.7439 Y0.2257 Z-0.1712
X0.7456 Y0.2249 Z-0.1724
X0.7478 Y0.2242 Z-0.1729
X0.75 Y0.224 Z-0.1733
G3 Y0.276 I0. J0.026 F40.
Y0.224 I0. J-0.026
G1 X0.7522 Y0.2242 Z-0.1729
X0.7544 Y0.2249 Z-0.1724
X0.7561 Y0.2257 Z-0.1712
X0.7577 Y0.2268 Z-0.1699
X0.7594 Y0.2287 Z-0.166
X0.7599 Y0.2294 Z-0.1615
G0 Z0.2
X0.7401
G1 Z-0.044 F20.
Z-0.2482
X0.7406 Y0.2287 Z-0.2527
X0.7423 Y0.2268 Z-0.2565
X0.7439 Y0.2257 Z-0.2578
X0.7456 Y0.2249 Z-0.2591
X0.7478 Y0.2242 Z-0.2596
X0.75 Y0.224 Z-0.26
G3 Y0.276 I0. J0.026 F40.
Y0.224 I0. J-0.026
G1 X0.7522 Y0.2242 Z-0.2596
X0.7544 Y0.2249 Z-0.2591
X0.7561 Y0.2257 Z-0.2578
X0.7577 Y0.2268 Z-0.2565
X0.7594 Y0.2287 Z-0.2527
X0.7599 Y0.2294 Z-0.2482
G0 Z0.2
X0.7401
G1 Z-0.1306 F20.
Z-0.3349
X0.7406 Y0.2287 Z-0.3394
X0.7423 Y0.2268 Z-0.3432
X0.7439 Y0.2257 Z-0.3445
X0.7456 Y0.2249 Z-0.3458
X0.7478 Y0.2242 Z-0.3462
X0.75 Y0.224 Z-0.3467
G3 Y0.276 I0. J0.026 F40.
Y0.224 I0. J-0.026
G1 X0.7522 Y0.2242 Z-0.3462
X0.7544 Y0.2249 Z-0.3458
X0.7561 Y0.2257 Z-0.3445
X0.7577 Y0.2268 Z-0.3432
X0.7594 Y0.2287 Z-0.3394
X0.7599 Y0.2294 Z-0.3349
G0 Z0.2
X0.7401
G1 Z-0.2173 F20.
Z-0.4215
X0.7406 Y0.2287 Z-0.426
X0.7423 Y0.2268 Z-0.4299
X0.7439 Y0.2257 Z-0.4312
X0.7456 Y0.2249 Z-0.4324
X0.7478 Y0.2242 Z-0.4329
X0.75 Y0.224 Z-0.4333
G3 Y0.276 I0. J0.026 F40.
Y0.224 I0. J-0.026
G1 X0.7522 Y0.2242 Z-0.4329
X0.7544 Y0.2249 Z-0.4324
X0.7561 Y0.2257 Z-0.4312
X0.7577 Y0.2268 Z-0.4299
X0.7594 Y0.2287 Z-0.426
X0.7599 Y0.2294 Z-0.4215
G0 Z0.2
X0.7401
G1 Z-0.304 F20.
Z-0.5082
X0.7406 Y0.2287 Z-0.5127
X0.7423 Y0.2268 Z-0.5165
X0.7439 Y0.2257 Z-0.5178
X0.7456 Y0.2249 Z-0.5191
X0.7478 Y0.2242 Z-0.5196
X0.75 Y0.224 Z-0.52
G3 Y0.276 I0. J0.026 F40.
Y0.224 I0. J-0.026
G1 X0.7522 Y0.2242 Z-0.5196
X0.7544 Y0.2249 Z-0.5191
X0.7561 Y0.2257 Z-0.5178
X0.7577 Y0.2268 Z-0.5165
X0.7594 Y0.2287 Z-0.5127
X0.7599 Y0.2294 Z-0.5082
G0 Z0.2
X0.7401
G1 Z-0.3906 F20.
Z-0.5949
X0.7406 Y0.2287 Z-0.5994
X0.7423 Y0.2268 Z-0.6032
X0.7439 Y0.2257 Z-0.6045
X0.7456 Y0.2249 Z-0.6058
X0.7478 Y0.2242 Z-0.6062
X0.75 Y0.224 Z-0.6067
G3 Y0.276 I0. J0.026 F40.
Y0.224 I0. J-0.026
G1 X0.7522 Y0.2242 Z-0.6062
X0.7544 Y0.2249 Z-0.6058
X0.7561 Y0.2257 Z-0.6045
X0.7577 Y0.2268 Z-0.6032
X0.7594 Y0.2287 Z-0.5994
X0.7599 Y0.2294 Z-0.5949
G0 Z0.2
X0.7401
G1 Z-0.4773 F20.
Z-0.6815
X0.7406 Y0.2287 Z-0.686
X0.7423 Y0.2268 Z-0.6899
X0.7439 Y0.2257 Z-0.6912
X0.7456 Y0.2249 Z-0.6924
X0.7478 Y0.2242 Z-0.6929
X0.75 Y0.224 Z-0.6933
G3 Y0.276 I0. J0.026 F40.
Y0.224 I0. J-0.026
G1 X0.7522 Y0.2242 Z-0.6929
X0.7544 Y0.2249 Z-0.6924
X0.7561 Y0.2257 Z-0.6912
X0.7577 Y0.2268 Z-0.6899
X0.7594 Y0.2287 Z-0.686
X0.7599 Y0.2294 Z-0.6815
G0 Z0.2
X0.7401
G1 Z-0.564 F20.
Z-0.7682
X0.7406 Y0.2287 Z-0.7727
X0.7423 Y0.2268 Z-0.7765
X0.7439 Y0.2257 Z-0.7778
X0.7456 Y0.2249 Z-0.7791
X0.7478 Y0.2242 Z-0.7796
X0.75 Y0.224 Z-0.78
G3 Y0.276 I0. J0.026 F40.
Y0.224 I0. J-0.026
G1 X0.7522 Y0.2242 Z-0.7796
X0.7544 Y0.2249 Z-0.7791
X0.7561 Y0.2257 Z-0.7778
X0.7577 Y0.2268 Z-0.7765
X0.7594 Y0.2287 Z-0.7727
X0.7599 Y0.2294 Z-0.7682
G0 Z0.2
X0.7401
G1 Z-0.6506 F20.
Z-0.8549
X0.7406 Y0.2287 Z-0.8594
X0.7423 Y0.2268 Z-0.8632
X0.7439 Y0.2257 Z-0.8645
X0.7456 Y0.2249 Z-0.8658
X0.7478 Y0.2242 Z-0.8662
X0.75 Y0.224 Z-0.8667
G3 Y0.276 I0. J0.026 F40.
Y0.224 I0. J-0.026
G1 X0.7522 Y0.2242 Z-0.8662
X0.7544 Y0.2249 Z-0.8658
X0.7561 Y0.2257 Z-0.8645
X0.7577 Y0.2268 Z-0.8632
X0.7594 Y0.2287 Z-0.8594
X0.7599 Y0.2294 Z-0.8549
G0 Z0.2
X0.7401
G1 Z-0.7373 F20.
Z-0.9415
X0.7406 Y0.2287 Z-0.946
X0.7423 Y0.2268 Z-0.9499
X0.7439 Y0.2257 Z-0.9512
X0.7456 Y0.2249 Z-0.9524
X0.7478 Y0.2242 Z-0.9529
X0.75 Y0.224 Z-0.9533
G3 Y0.276 I0. J0.026 F40.
Y0.224 I0. J-0.026
G1 X0.7522 Y0.2242 Z-0.9529
X0.7544 Y0.2249 Z-0.9524
X0.7561 Y0.2257 Z-0.9512
X0.7577 Y0.2268 Z-0.9499
X0.7594 Y0.2287 Z-0.946
X0.7599 Y0.2294 Z-0.9415
G0 Z0.2
X0.7401
G1 Z-0.824 F20.
Z-1.0282
X0.7406 Y0.2287 Z-1.0327
X0.7423 Y0.2268 Z-1.0365
X0.7439 Y0.2257 Z-1.0378
X0.7456 Y0.2249 Z-1.0391
X0.7478 Y0.2242 Z-1.0396
X0.75 Y0.224 Z-1.04
G3 Y0.276 I0. J0.026 F40.
Y0.224 I0. J-0.026
G1 X0.7522 Y0.2242 Z-1.0396
X0.7544 Y0.2249 Z-1.0391
X0.7561 Y0.2257 Z-1.0378
X0.7577 Y0.2268 Z-1.0365
X0.7594 Y0.2287 Z-1.0327
X0.7599 Y0.2294 Z-1.0282
G0 Z0.2
X0.2401
G1 Z0.1294 F20.
Z-0.0749
X0.2406 Y0.2287 Z-0.0794
X0.2423 Y0.2268 Z-0.0832
X0.2439 Y0.2257 Z-0.0845
X0.2456 Y0.2249 Z-0.0858
X0.2478 Y0.2242 Z-0.0862
X0.25 Y0.224 Z-0.0867
G3 Y0.276 I0. J0.026 F40.
Y0.224 I0. J-0.026
G1 X0.2522 Y0.2242 Z-0.0862
X0.2544 Y0.2249 Z-0.0858
X0.2561 Y0.2257 Z-0.0845
X0.2577 Y0.2268 Z-0.0832
X0.2594 Y0.2287 Z-0.0794
X0.2599 Y0.2294 Z-0.0749
G0 Z0.2
X0.2401
G1 Z0.0427 F20.
Z-0.1615
X0.2406 Y0.2287 Z-0.166
X0.2423 Y0.2268 Z-0.1699
X0.2439 Y0.2257 Z-0.1712
X0.2456 Y0.2249 Z-0.1724
X0.2478 Y0.2242 Z-0.1729
X0.25 Y0.224 Z-0.1733
G3 Y0.276 I0. J0.026 F40.
Y0.224 I0. J-0.026
G1 X0.2522 Y0.2242 Z-0.1729
X0.2544 Y0.2249 Z-0.1724
X0.2561 Y0.2257 Z-0.1712
X0.2577 Y0.2268 Z-0.1699
X0.2594 Y0.2287 Z-0.166
X0.2599 Y0.2294 Z-0.1615
G0 Z0.2
X0.2401
G1 Z-0.044 F20.
Z-0.2482
X0.2406 Y0.2287 Z-0.2527
X0.2423 Y0.2268 Z-0.2565
X0.2439 Y0.2257 Z-0.2578
X0.2456 Y0.2249 Z-0.2591
X0.2478 Y0.2242 Z-0.2596
X0.25 Y0.224 Z-0.26
G3 Y0.276 I0. J0.026 F40.
Y0.224 I0. J-0.026
G1 X0.2522 Y0.2242 Z-0.2596
X0.2544 Y0.2249 Z-0.2591
X0.2561 Y0.2257 Z-0.2578
X0.2577 Y0.2268 Z-0.2565
X0.2594 Y0.2287 Z-0.2527
X0.2599 Y0.2294 Z-0.2482
G0 Z0.2
X0.2401
G1 Z-0.1306 F20.
Z-0.3349
X0.2406 Y0.2287 Z-0.3394
X0.2423 Y0.2268 Z-0.3432
X0.2439 Y0.2257 Z-0.3445
X0.2456 Y0.2249 Z-0.3458
X0.2478 Y0.2242 Z-0.3462
X0.25 Y0.224 Z-0.3467
G3 Y0.276 I0. J0.026 F40.
Y0.224 I0. J-0.026
G1 X0.2522 Y0.2242 Z-0.3462
X0.2544 Y0.2249 Z-0.3458
X0.2561 Y0.2257 Z-0.3445
X0.2577 Y0.2268 Z-0.3432
X0.2594 Y0.2287 Z-0.3394
X0.2599 Y0.2294 Z-0.3349
G0 Z0.2
X0.2401
G1 Z-0.2173 F20.
Z-0.4215
X0.2406 Y0.2287 Z-0.426
X0.2423 Y0.2268 Z-0.4299
X0.2439 Y0.2257 Z-0.4312
X0.2456 Y0.2249 Z-0.4324
X0.2478 Y0.2242 Z-0.4329
X0.25 Y0.224 Z-0.4333
G3 Y0.276 I0. J0.026 F40.
Y0.224 I0. J-0.026
G1 X0.2522 Y0.2242 Z-0.4329
X0.2544 Y0.2249 Z-0.4324
X0.2561 Y0.2257 Z-0.4312
X0.2577 Y0.2268 Z-0.4299
X0.2594 Y0.2287 Z-0.426
X0.2599 Y0.2294 Z-0.4215
G0 Z0.2
X0.2401
G1 Z-0.304 F20.
Z-0.5082
X0.2406 Y0.2287 Z-0.5127
X0.2423 Y0.2268 Z-0.5165
X0.2439 Y0.2257 Z-0.5178
X0.2456 Y0.2249 Z-0.5191
X0.2478 Y0.2242 Z-0.5196
X0.25 Y0.224 Z-0.52
G3 Y0.276 I0. J0.026 F40.
Y0.224 I0. J-0.026
G1 X0.2522 Y0.2242 Z-0.5196
X0.2544 Y0.2249 Z-0.5191
X0.2561 Y0.2257 Z-0.5178
X0.2577 Y0.2268 Z-0.5165
X0.2594 Y0.2287 Z-0.5127
X0.2599 Y0.2294 Z-0.5082
G0 Z0.2
X0.2401
G1 Z-0.3906 F20.
Z-0.5949
X0.2406 Y0.2287 Z-0.5994
X0.2423 Y0.2268 Z-0.6032
X0.2439 Y0.2257 Z-0.6045
X0.2456 Y0.2249 Z-0.6058
X0.2478 Y0.2242 Z-0.6062
X0.25 Y0.224 Z-0.6067
G3 Y0.276 I0. J0.026 F40.
Y0.224 I0. J-0.026
G1 X0.2522 Y0.2242 Z-0.6062
X0.2544 Y0.2249 Z-0.6058
X0.2561 Y0.2257 Z-0.6045
X0.2577 Y0.2268 Z-0.6032
X0.2594 Y0.2287 Z-0.5994
X0.2599 Y0.2294 Z-0.5949
G0 Z0.2
X0.2401
G1 Z-0.4773 F20.
Z-0.6815
X0.2406 Y0.2287 Z-0.686
X0.2423 Y0.2268 Z-0.6899
X0.2439 Y0.2257 Z-0.6912
X0.2456 Y0.2249 Z-0.6924
X0.2478 Y0.2242 Z-0.6929
X0.25 Y0.224 Z-0.6933
G3 Y0.276 I0. J0.026 F40.
Y0.224 I0. J-0.026
G1 X0.2522 Y0.2242 Z-0.6929
X0.2544 Y0.2249 Z-0.6924
X0.2561 Y0.2257 Z-0.6912
X0.2577 Y0.2268 Z-0.6899
X0.2594 Y0.2287 Z-0.686
X0.2599 Y0.2294 Z-0.6815
G0 Z0.2
X0.2401
G1 Z-0.564 F20.
Z-0.7682
X0.2406 Y0.2287 Z-0.7727
X0.2423 Y0.2268 Z-0.7765
X0.2439 Y0.2257 Z-0.7778
X0.2456 Y0.2249 Z-0.7791
X0.2478 Y0.2242 Z-0.7796
X0.25 Y0.224 Z-0.78
G3 Y0.276 I0. J0.026 F40.
Y0.224 I0. J-0.026
G1 X0.2522 Y0.2242 Z-0.7796
X0.2544 Y0.2249 Z-0.7791
X0.2561 Y0.2257 Z-0.7778
X0.2577 Y0.2268 Z-0.7765
X0.2594 Y0.2287 Z-0.7727
X0.2599 Y0.2294 Z-0.7682
G0 Z0.2
X0.2401
G1 Z-0.6506 F20.
Z-0.8549
X0.2406 Y0.2287 Z-0.8594
X0.2423 Y0.2268 Z-0.8632
X0.2439 Y0.2257 Z-0.8645
X0.2456 Y0.2249 Z-0.8658
X0.2478 Y0.2242 Z-0.8662
X0.25 Y0.224 Z-0.8667
G3 Y0.276 I0. J0.026 F40.
Y0.224 I0. J-0.026
G1 X0.2522 Y0.2242 Z-0.8662
X0.2544 Y0.2249 Z-0.8658
X0.2561 Y0.2257 Z-0.8645
X0.2577 Y0.2268 Z-0.8632
X0.2594 Y0.2287 Z-0.8594
X0.2599 Y0.2294 Z-0.8549
G0 Z0.2
X0.2401
G1 Z-0.7373 F20.
Z-0.9415
X0.2406 Y0.2287 Z-0.946
X0.2423 Y0.2268 Z-0.9499
X0.2439 Y0.2257 Z-0.9512
X0.2456 Y0.2249 Z-0.9524
X0.2478 Y0.2242 Z-0.9529
X0.25 Y0.224 Z-0.9533
G3 Y0.276 I0. J0.026 F40.
Y0.224 I0. J-0.026
G1 X0.2522 Y0.2242 Z-0.9529
X0.2544 Y0.2249 Z-0.9524
X0.2561 Y0.2257 Z-0.9512
X0.2577 Y0.2268 Z-0.9499
X0.2594 Y0.2287 Z-0.946
X0.2599 Y0.2294 Z-0.9415
G0 Z0.2
X0.2401
G1 Z-0.824 F20.
Z-1.0282
X0.2406 Y0.2287 Z-1.0327
X0.2423 Y0.2268 Z-1.0365
X0.2439 Y0.2257 Z-1.0378
X0.2456 Y0.2249 Z-1.0391
X0.2478 Y0.2242 Z-1.0396
X0.25 Y0.224 Z-1.04
G3 Y0.276 I0. J0.026 F40.
Y0.224 I0. J-0.026
G1 X0.2522 Y0.2242 Z-1.0396
X0.2544 Y0.2249 Z-1.0391
X0.2561 Y0.2257 Z-1.0378
X0.2577 Y0.2268 Z-1.0365
X0.2594 Y0.2287 Z-1.0327
X0.2599 Y0.2294 Z-1.0282
G0 Z0.2
X0.2401 Y0.7294
G1 Z0.1294 F20.
Z-0.0749
X0.2406 Y0.7287 Z-0.0794
X0.2423 Y0.7268 Z-0.0832
X0.2439 Y0.7257 Z-0.0845
X0.2456 Y0.7249 Z-0.0858
X0.2478 Y0.7242 Z-0.0862
X0.25 Y0.724 Z-0.0867
G3 Y0.776 I0. J0.026 F40.
Y0.724 I0. J-0.026
G1 X0.2522 Y0.7242 Z-0.0862
X0.2544 Y0.7249 Z-0.0858
X0.2561 Y0.7257 Z-0.0845
X0.2577 Y0.7268 Z-0.0832
X0.2594 Y0.7287 Z-0.0794
X0.2599 Y0.7294 Z-0.0749
G0 Z0.2
X0.2401
G1 Z0.0427 F20.
Z-0.1615
X0.2406 Y0.7287 Z-0.166
X0.2423 Y0.7268 Z-0.1699
X0.2439 Y0.7257 Z-0.1712
X0.2456 Y0.7249 Z-0.1724
X0.2478 Y0.7242 Z-0.1729
X0.25 Y0.724 Z-0.1733
G3 Y0.776 I0. J0.026 F40.
Y0.724 I0. J-0.026
G1 X0.2522 Y0.7242 Z-0.1729
X0.2544 Y0.7249 Z-0.1724
X0.2561 Y0.7257 Z-0.1712
X0.2577 Y0.7268 Z-0.1699
X0.2594 Y0.7287 Z-0.166
X0.2599 Y0.7294 Z-0.1615
G0 Z0.2
X0.2401
G1 Z-0.044 F20.
Z-0.2482
X0.2406 Y0.7287 Z-0.2527
X0.2423 Y0.7268 Z-0.2565
X0.2439 Y0.7257 Z-0.2578
X0.2456 Y0.7249 Z-0.2591
X0.2478 Y0.7242 Z-0.2596
X0.25 Y0.724 Z-0.26
G3 Y0.776 I0. J0.026 F40.
Y0.724 I0. J-0.026
G1 X0.2522 Y0.7242 Z-0.2596
X0.2544 Y0.7249 Z-0.2591
X0.2561 Y0.7257 Z-0.2578
X0.2577 Y0.7268 Z-0.2565
X0.2594 Y0.7287 Z-0.2527
X0.2599 Y0.7294 Z-0.2482
G0 Z0.2
X0.2401
G1 Z-0.1306 F20.
Z-0.3349
X0.2406 Y0.7287 Z-0.3394
X0.2423 Y0.7268 Z-0.3432
X0.2439 Y0.7257 Z-0.3445
X0.2456 Y0.7249 Z-0.3458
X0.2478 Y0.7242 Z-0.3462
X0.25 Y0.724 Z-0.3467
G3 Y0.776 I0. J0.026 F40.
Y0.724 I0. J-0.026
G1 X0.2522 Y0.7242 Z-0.3462
X0.2544 Y0.7249 Z-0.3458
X0.2561 Y0.7257 Z-0.3445
X0.2577 Y0.7268 Z-0.3432
X0.2594 Y0.7287 Z-0.3394
X0.2599 Y0.7294 Z-0.3349
G0 Z0.2
X0.2401
G1 Z-0.2173 F20.
Z-0.4215
X0.2406 Y0.7287 Z-0.426
X0.2423 Y0.7268 Z-0.4299
X0.2439 Y0.7257 Z-0.4312
X0.2456 Y0.7249 Z-0.4324
X0.2478 Y0.7242 Z-0.4329
X0.25 Y0.724 Z-0.4333
G3 Y0.776 I0. J0.026 F40.
Y0.724 I0. J-0.026
G1 X0.2522 Y0.7242 Z-0.4329
X0.2544 Y0.7249 Z-0.4324
X0.2561 Y0.7257 Z-0.4312
X0.2577 Y0.7268 Z-0.4299
X0.2594 Y0.7287 Z-0.426
X0.2599 Y0.7294 Z-0.4215
G0 Z0.2
X0.2401
G1 Z-0.304 F20.
Z-0.5082
X0.2406 Y0.7287 Z-0.5127
X0.2423 Y0.7268 Z-0.5165
X0.2439 Y0.7257 Z-0.5178
X0.2456 Y0.7249 Z-0.5191
X0.2478 Y0.7242 Z-0.5196
X0.25 Y0.724 Z-0.52
G3 Y0.776 I0. J0.026 F40.
Y0.724 I0. J-0.026
G1 X0.2522 Y0.7242 Z-0.5196
X0.2544 Y0.7249 Z-0.5191
X0.2561 Y0.7257 Z-0.5178
X0.2577 Y0.7268 Z-0.5165
X0.2594 Y0.7287 Z-0.5127
X0.2599 Y0.7294 Z-0.5082
G0 Z0.2
X0.2401
G1 Z-0.3906 F20.
Z-0.5949
X0.2406 Y0.7287 Z-0.5994
X0.2423 Y0.7268 Z-0.6032
X0.2439 Y0.7257 Z-0.6045
X0.2456 Y0.7249 Z-0.6058
X0.2478 Y0.7242 Z-0.6062
X0.25 Y0.724 Z-0.6067
G3 Y0.776 I0. J0.026 F40.
Y0.724 I0. J-0.026
G1 X0.2522 Y0.7242 Z-0.6062
X0.2544 Y0.7249 Z-0.6058
X0.2561 Y0.7257 Z-0.6045
X0.2577 Y0.7268 Z-0.6032
X0.2594 Y0.7287 Z-0.5994
X0.2599 Y0.7294 Z-0.5949
G0 Z0.2
X0.2401
G1 Z-0.4773 F20.
Z-0.6815
X0.2406 Y0.7287 Z-0.686
X0.2423 Y0.7268 Z-0.6899
X0.2439 Y0.7257 Z-0.6912
X0.2456 Y0.7249 Z-0.6924
X0.2478 Y0.7242 Z-0.6929
X0.25 Y0.724 Z-0.6933
G3 Y0.776 I0. J0.026 F40.
Y0.724 I0. J-0.026
G1 X0.2522 Y0.7242 Z-0.6929
X0.2544 Y0.7249 Z-0.6924
X0.2561 Y0.7257 Z-0.6912
X0.2577 Y0.7268 Z-0.6899
X0.2594 Y0.7287 Z-0.686
X0.2599 Y0.7294 Z-0.6815
G0 Z0.2
X0.2401
G1 Z-0.564 F20.
Z-0.7682
X0.2406 Y0.7287 Z-0.7727
X0.2423 Y0.7268 Z-0.7765
X0.2439 Y0.7257 Z-0.7778
X0.2456 Y0.7249 Z-0.7791
X0.2478 Y0.7242 Z-0.7796
X0.25 Y0.724 Z-0.78
G3 Y0.776 I0. J0.026 F40.
Y0.724 I0. J-0.026
G1 X0.2522 Y0.7242 Z-0.7796
X0.2544 Y0.7249 Z-0.7791
X0.2561 Y0.7257 Z-0.7778
X0.2577 Y0.7268 Z-0.7765
X0.2594 Y0.7287 Z-0.7727
X0.2599 Y0.7294 Z-0.7682
G0 Z0.2
X0.2401
G1 Z-0.6506 F20.
Z-0.8549
X0.2406 Y0.7287 Z-0.8594
X0.2423 Y0.7268 Z-0.8632
X0.2439 Y0.7257 Z-0.8645
X0.2456 Y0.7249 Z-0.8658
X0.2478 Y0.7242 Z-0.8662
X0.25 Y0.724 Z-0.8667
G3 Y0.776 I0. J0.026 F40.
Y0.724 I0. J-0.026
G1 X0.2522 Y0.7242 Z-0.8662
X0.2544 Y0.7249 Z-0.8658
X0.2561 Y0.7257 Z-0.8645
X0.2577 Y0.7268 Z-0.8632
X0.2594 Y0.7287 Z-0.8594
X0.2599 Y0.7294 Z-0.8549
G0 Z0.2
X0.2401
G1 Z-0.7373 F20.
Z-0.9415
X0.2406 Y0.7287 Z-0.946
X0.2423 Y0.7268 Z-0.9499
X0.2439 Y0.7257 Z-0.9512
X0.2456 Y0.7249 Z-0.9524
X0.2478 Y0.7242 Z-0.9529
X0.25 Y0.724 Z-0.9533
G3 Y0.776 I0. J0.026 F40.
Y0.724 I0. J-0.026
G1 X0.2522 Y0.7242 Z-0.9529
X0.2544 Y0.7249 Z-0.9524
X0.2561 Y0.7257 Z-0.9512
X0.2577 Y0.7268 Z-0.9499
X0.2594 Y0.7287 Z-0.946
X0.2599 Y0.7294 Z-0.9415
G0 Z0.2
X0.2401
G1 Z-0.824 F20.
Z-1.0282
X0.2406 Y0.7287 Z-1.0327
X0.2423 Y0.7268 Z-1.0365
X0.2439 Y0.7257 Z-1.0378
X0.2456 Y0.7249 Z-1.0391
X0.2478 Y0.7242 Z-1.0396
X0.25 Y0.724 Z-1.04
G3 Y0.776 I0. J0.026 F40.
Y0.724 I0. J-0.026
G1 X0.2522 Y0.7242 Z-1.0396
X0.2544 Y0.7249 Z-1.0391
X0.2561 Y0.7257 Z-1.0378
X0.2577 Y0.7268 Z-1.0365
X0.2594 Y0.7287 Z-1.0327
X0.2599 Y0.7294 Z-1.0282
G0 Z0.6

(2D CONTOUR1)
G0 X2.2944 Y0.381
Z0.6
Z0.2
G1 Z0.1294 F20.
Z0.1118
G18 G3 X2.2826 Z0.1 I-0.0118 K0. F40.
G1 X2.2708
G17 G3 X2.259 Y0.3692 I0. J-0.0118
G1 Y0.125 Z0.0915 F20.
G2 X2.075 Y-0.059 Z0.0814 I-0.184 J0.
G1 X1.325 Z0.0552
G2 X1.141 Y0.125 Z0.0451 I0. J0.184
G1 Y1. Z0.0145
G2 X1.325 Y1.184 Z0.0044 I0.184 J0.
G1 X1.6494 Z-0.0069
G2 X1.8156 Y1.0791 Z-0.0141 I0. J-0.184
G3 X2.1738 Y0.6738 Z-0.0333 I0.8844 J0.4209
G2 X2.259 Y0.5186 Z-0.0397 I-0.0988 J-0.1552
G1 Y0.125 Z-0.0535
G2 X2.075 Y-0.059 Z-0.0635 I-0.184 J0.
G1 X1.325 Z-0.0897
X1.3175 Y-0.0588 Z-0.09
G2 X1.141 Y0.125 I0.0075 J0.1838 F40.
G1 Y1.
G2 X1.325 Y1.184 I0.184 J0.
G1 X1.6494
G2 X1.8156 Y1.0791 I0. J-0.184
G3 X2.1738 Y0.6738 I0.8844 J0.4209
G2 X2.259 Y0.5186 I-0.0988 J-0.1552
G1 Y0.125
G2 X2.075 Y-0.059 I-0.184 J0.
G1 X1.325
X1.3175 Y-0.0588
G3 X1.3052 Y-0.0702 I-0.0005 J-0.0118
G1 X1.3048 Y-0.0819
X1.3047 Y-0.0846 Z-0.0897
X1.3046 Y-0.0871 Z-0.0888
X1.3045 Y-0.0893 Z-0.0874
X1.3044 Y-0.0912 Z-0.0856
X1.3043 Y-0.0926 Z-0.0833
Y-0.0934 Z-0.0808
Y-0.0937 Z-0.0782
G0 Z0.2
X0.6957 Y1.0055
G1 Z0.1294 F20.
Z0.1118
X0.6955 Y1.0053 Z0.1092 F40.
X0.6947 Y1.0048 Z0.1067
X0.6935 Y1.0041 Z0.1044
X0.6919 Y1.0031 Z0.1026
X0.6901 Y1.0019 Z0.1012
X0.688 Y1.0006 Z0.1003
X0.6857 Y0.9992 Z0.1
X0.6758 Y0.9928
G3 X0.6721 Y0.9766 I0.0063 J-0.01
X0.9738 Y0.6738 Z0.085 I0.8279 J0.5234 F20.
G2 X1.059 Y0.5186 Z0.0785 I-0.0988 J-0.1552
G1 Y0.125 Z0.0648
G2 X0.875 Y-0.059 Z0.0547 I-0.184 J0.
G1 X0.125 Z0.0285
G2 X-0.059 Y0.125 Z0.0184 I0. J0.184
G1 Y1. Z-0.0122
G2 X0.125 Y1.184 Z-0.0223 I0.184 J0.
G1 X0.4494 Z-0.0336
G2 X0.6156 Y1.0791 Z-0.0408 I0. J-0.184
G3 X0.9738 Y0.6738 Z-0.06 I0.8844 J0.4209
G2 X1.059 Y0.5186 Z-0.0664 I-0.0988 J-0.1552
G1 Y0.125 Z-0.0802
G2 X0.8825 Y-0.0588 Z-0.09 I-0.184 J0.
G1 X0.875 Y-0.059 F40.
X0.125
G2 X-0.059 Y0.125 I0. J0.184
G1 Y1.
G2 X0.125 Y1.184 I0.184 J0.
G1 X0.4494
G2 X0.6156 Y1.0791 I0. J-0.184
G3 X0.9738 Y0.6738 I0.8844 J0.4209
G2 X1.059 Y0.5186 I-0.0988 J-0.1552
G1 Y0.125
G2 X0.8825 Y-0.0588 I-0.184 J0.
G3 X0.8712 Y-0.0711 I0.0005 J-0.0118
G1 X0.8717 Y-0.0829
X0.8718 Y-0.0855 Z-0.0897
X0.8719 Y-0.088 Z-0.0888
X0.872 Y-0.0903 Z-0.0874
Y-0.0921 Z-0.0856
X0.8721 Y-0.0935 Z-0.0833
Y-0.0944 Z-0.0808
Y-0.0947 Z-0.0782
G0 Z0.2
X0.6957 Y1.0055
G1 Z0.0394 F20.
Z0.0218
X0.6955 Y1.0053 Z0.0192 F40.
X0.6947 Y1.0048 Z0.0167
X0.6935 Y1.0041 Z0.0144
X0.6919 Y1.0031 Z0.0126
X0.6901 Y1.0019 Z0.0112
X0.688 Y1.0006 Z0.0103
X0.6857 Y0.9992 Z0.01
X0.6758 Y0.9928
G3 X0.6721 Y0.9766 I0.0063 J-0.01
X0.9738 Y0.6738 Z-0.005 I0.8279 J0.5234 F20.
G2 X1.059 Y0.5186 Z-0.0115 I-0.0988 J-0.1552
G1 Y0.125 Z-0.0252
G2 X0.875 Y-0.059 Z-0.0353 I-0.184 J0.
G1 X0.125 Z-0.0615
G2 X-0.059 Y0.125 Z-0.0716 I0. J0.184
G1 Y1. Z-0.1022
G2 X0.125 Y1.184 Z-0.1123 I0.184 J0.
G1 X0.4494 Z-0.1236
G2 X0.6156 Y1.0791 Z-0.1308 I0. J-0.184
G3 X0.9738 Y0.6738 Z-0.15 I0.8844 J0.4209
G2 X1.059 Y0.5186 Z-0.1564 I-0.0988 J-0.1552
G1 Y0.125 Z-0.1702
G2 X0.8825 Y-0.0588 Z-0.18 I-0.184 J0.
G1 X0.875 Y-0.059 F40.
X0.125
G2 X-0.059 Y0.125 I0. J0.184
G1 Y1.
G2 X0.125 Y1.184 I0.184 J0.
G1 X0.4494
G2 X0.6156 Y1.0791 I0. J-0.184
G3 X0.9738 Y0.6738 I0.8844 J0.4209
G2 X1.059 Y0.5186 I-0.0988 J-0.1552
G1 Y0.125
G2 X0.8825 Y-0.0588 I-0.184 J0.
G3 X0.8712 Y-0.0711 I0.0005 J-0.0118
G1 X0.8717 Y-0.0829
X0.8718 Y-0.0855 Z-0.1797
X0.8719 Y-0.088 Z-0.1788
X0.872 Y-0.0903 Z-0.1774
Y-0.0921 Z-0.1756
X0.8721 Y-0.0935 Z-0.1733
Y-0.0944 Z-0.1708
Y-0.0947 Z-0.1682
G0 Z0.2
X2.2944 Y0.381
G1 Z0.0394 F20.
Z0.0218
G18 G3 X2.2826 Z0.01 I-0.0118 K0. F40.
G1 X2.2708
G17 G3 X2.259 Y0.3692 I0. J-0.0118
G1 Y0.125 Z0.0015 F20.
G2 X2.075 Y-0.059 Z-0.0086 I-0.184 J0.
G1 X1.325 Z-0.0348
G2 X1.141 Y0.125 Z-0.0449 I0. J0.184
G1 Y1. Z-0.0755
G2 X1.325 Y1.184 Z-0.0856 I0.184 J0.
G1 X1.6494 Z-0.0969
G2 X1.8156 Y1.0791 Z-0.1041 I0. J-0.184
G3 X2.1738 Y0.6738 Z-0.1233 I0.8844 J0.4209
G2 X2.259 Y0.5186 Z-0.1297 I-0.0988 J-0.1552
G1 Y0.125 Z-0.1435
G2 X2.075 Y-0.059 Z-0.1535 I-0.184 J0.
G1 X1.325 Z-0.1797
X1.3175 Y-0.0588 Z-0.18
G2 X1.141 Y0.125 I0.0075 J0.1838 F40.
G1 Y1.
G2 X1.325 Y1.184 I0.184 J0.
G1 X1.6494
G2 X1.8156 Y1.0791 I0. J-0.184
G3 X2.1738 Y0.6738 I0.8844 J0.4209
G2 X2.259 Y0.5186 I-0.0988 J-0.1552
G1 Y0.125
G2 X2.075 Y-0.059 I-0.184 J0.
G1 X1.325
X1.3175 Y-0.0588
G2 X1.141 Y0.125 Z-0.1898 I0.0075 J0.1838 F20.
G1 Y1. Z-0.2204
G2 X1.325 Y1.184 Z-0.2305 I0.184 J0.
G1 X1.6494 Z-0.2418
G2 X1.8156 Y1.0791 Z-0.249 I0. J-0.184
G3 X2.1738 Y0.6738 Z-0.2682 I0.8844 J0.4209
G2 X2.2132 Y0.6401 Z-0.27 I-0.0988 J-0.1552
X2.259 Y0.5186 I-0.1382 J-0.1215 F40.
G1 Y0.125
G2 X2.075 Y-0.059 I-0.184 J0.
G1 X1.325
G2 X1.141 Y0.125 I0. J0.184
G1 Y1.
G2 X1.325 Y1.184 I0.184 J0.
G1 X1.6494
G2 X1.8156 Y1.0791 I0. J-0.184
G3 X2.1738 Y0.6738 I0.8844 J0.4209
G2 X2.2132 Y0.6401 I-0.0988 J-0.1552
G3 X2.2298 Y0.6391 I0.0089 J0.0078
G1 X2.2387 Y0.6469
X2.2406 Y0.6486 Z-0.2697
X2.2425 Y0.6502 Z-0.2688
X2.2442 Y0.6517 Z-0.2674
X2.2456 Y0.653 Z-0.2656
X2.2467 Y0.6539 Z-0.2633
X2.2473 Y0.6545 Z-0.2608
X2.2475 Y0.6547 Z-0.2582
G0 Z0.2
X0.6957 Y1.0055
G1 Z-0.0506 F20.
Z-0.0682
X0.6955 Y1.0053 Z-0.0708 F40.
X0.6947 Y1.0048 Z-0.0733
X0.6935 Y1.0041 Z-0.0756
X0.6919 Y1.0031 Z-0.0774
X0.6901 Y1.0019 Z-0.0788
X0.688 Y1.0006 Z-0.0797
X0.6857 Y0.9992 Z-0.08
X0.6758 Y0.9928
G3 X0.6721 Y0.9766 I0.0063 J-0.01
X0.9738 Y0.6738 Z-0.095 I0.8279 J0.5234 F20.
G2 X1.059 Y0.5186 Z-0.1015 I-0.0988 J-0.1552
G1 Y0.125 Z-0.1152
G2 X0.875 Y-0.059 Z-0.1253 I-0.184 J0.
G1 X0.125 Z-0.1515
G2 X-0.059 Y0.125 Z-0.1616 I0. J0.184
G1 Y1. Z-0.1922
G2 X0.125 Y1.184 Z-0.2023 I0.184 J0.
G1 X0.4494 Z-0.2136
G2 X0.6156 Y1.0791 Z-0.2208 I0. J-0.184
G3 X0.9738 Y0.6738 Z-0.24 I0.8844 J0.4209
G2 X1.059 Y0.5186 Z-0.2464 I-0.0988 J-0.1552
G1 Y0.125 Z-0.2602
G2 X0.8825 Y-0.0588 Z-0.27 I-0.184 J0.
G1 X0.875 Y-0.059 F40.
X0.125
G2 X-0.059 Y0.125 I0. J0.184
G1 Y1.
G2 X0.125 Y1.184 I0.184 J0.
G1 X0.4494
G2 X0.6156 Y1.0791 I0. J-0.184
G3 X0.9738 Y0.6738 I0.8844 J0.4209
G2 X1.059 Y0.5186 I-0.0988 J-0.1552
G1 Y0.125
G2 X0.8825 Y-0.0588 I-0.184 J0.
G3 X0.8712 Y-0.0711 I0.0005 J-0.0118
G1 X0.8717 Y-0.0829
X0.8718 Y-0.0855 Z-0.2697
X0.8719 Y-0.088 Z-0.2688
X0.872 Y-0.0903 Z-0.2674
Y-0.0921 Z-0.2656
X0.8721 Y-0.0935 Z-0.2633
Y-0.0944 Z-0.2608
Y-0.0947 Z-0.2582
G0 Z0.2
X0.6957 Y1.0055
G1 Z-0.1406 F20.
Z-0.1582
X0.6955 Y1.0053 Z-0.1608 F40.
X0.6947 Y1.0048 Z-0.1633
X0.6935 Y1.0041 Z-0.1656
X0.6919 Y1.0031 Z-0.1674
X0.6901 Y1.0019 Z-0.1688
X0.688 Y1.0006 Z-0.1697
X0.6857 Y0.9992 Z-0.17
X0.6758 Y0.9928
G3 X0.6721 Y0.9766 I0.0063 J-0.01
X0.9738 Y0.6738 Z-0.185 I0.8279 J0.5234 F20.
G2 X1.059 Y0.5186 Z-0.1915 I-0.0988 J-0.1552
G1 Y0.125 Z-0.2052
G2 X0.875 Y-0.059 Z-0.2153 I-0.184 J0.
G1 X0.125 Z-0.2415
G2 X-0.059 Y0.125 Z-0.2516 I0. J0.184
G1 Y1. Z-0.2822
G2 X0.125 Y1.184 Z-0.2923 I0.184 J0.
G1 X0.4494 Z-0.3036
G2 X0.6156 Y1.0791 Z-0.3108 I0. J-0.184
G3 X0.9738 Y0.6738 Z-0.33 I0.8844 J0.4209
G2 X1.059 Y0.5186 Z-0.3364 I-0.0988 J-0.1552
G1 Y0.125 Z-0.3502
G2 X0.8825 Y-0.0588 Z-0.36 I-0.184 J0.
G1 X0.875 Y-0.059 F40.
X0.125
G2 X-0.059 Y0.125 I0. J0.184
G1 Y1.
G2 X0.125 Y1.184 I0.184 J0.
G1 X0.4494
G2 X0.6156 Y1.0791 I0. J-0.184
G3 X0.9738 Y0.6738 I0.8844 J0.4209
G2 X1.059 Y0.5186 I-0.0988 J-0.1552
G1 Y0.125
G2 X0.8825 Y-0.0588 I-0.184 J0.
G3 X0.8712 Y-0.0711 I0.0005 J-0.0118
G1 X0.8717 Y-0.0829
X0.8718 Y-0.0855 Z-0.3597
X0.8719 Y-0.088 Z-0.3588
X0.872 Y-0.0903 Z-0.3574
Y-0.0921 Z-0.3556
X0.8721 Y-0.0935 Z-0.3533
Y-0.0944 Z-0.3508
Y-0.0947 Z-0.3482
G0 Z0.2
X2.2944 Y0.381
G1 Z-0.1406 F20.
Z-0.1582
G18 G3 X2.2826 Z-0.17 I-0.0118 K0. F40.
G1 X2.2708
G17 G3 X2.259 Y0.3692 I0. J-0.0118
G1 Y0.125 Z-0.1785 F20.
G2 X2.075 Y-0.059 Z-0.1886 I-0.184 J0.
G1 X1.325 Z-0.2148
G2 X1.141 Y0.125 Z-0.2249 I0. J0.184
G1 Y1. Z-0.2555
G2 X1.325 Y1.184 Z-0.2656 I0.184 J0.
G1 X1.6494 Z-0.2769
G2 X1.8156 Y1.0791 Z-0.2841 I0. J-0.184
G3 X2.1738 Y0.6738 Z-0.3033 I0.8844 J0.4209
G2 X2.259 Y0.5186 Z-0.3097 I-0.0988 J-0.1552
G1 Y0.125 Z-0.3235
G2 X2.075 Y-0.059 Z-0.3335 I-0.184 J0.
G1 X1.325 Z-0.3597
X1.3175 Y-0.0588 Z-0.36
G2 X1.141 Y0.125 I0.0075 J0.1838 F40.
G1 Y1.
G2 X1.325 Y1.184 I0.184 J0.
G1 X1.6494
G2 X1.8156 Y1.0791 I0. J-0.184
G3 X2.1738 Y0.6738 I0.8844 J0.4209
G2 X2.259 Y0.5186 I-0.0988 J-0.1552
G1 Y0.125
G2 X2.075 Y-0.059 I-0.184 J0.
G1 X1.325
X1.3175 Y-0.0588
G2 X1.141 Y0.125 Z-0.3698 I0.0075 J0.1838 F20.
G1 Y1. Z-0.4004
G2 X1.325 Y1.184 Z-0.4105 I0.184 J0.
G1 X1.6494 Z-0.4218
G2 X1.8156 Y1.0791 Z-0.429 I0. J-0.184
G3 X2.1738 Y0.6738 Z-0.4482 I0.8844 J0.4209
G2 X2.2132 Y0.6401 Z-0.45 I-0.0988 J-0.1552
X2.259 Y0.5186 I-0.1382 J-0.1215 F40.
G1 Y0.125
G2 X2.075 Y-0.059 I-0.184 J0.
G1 X1.325
G2 X1.141 Y0.125 I0. J0.184
G1 Y1.
G2 X1.325 Y1.184 I0.184 J0.
G1 X1.6494
G2 X1.8156 Y1.0791 I0. J-0.184
G3 X2.1738 Y0.6738 I0.8844 J0.4209
G2 X2.2132 Y0.6401 I-0.0988 J-0.1552
G3 X2.2298 Y0.6391 I0.0089 J0.0078
G1 X2.2387 Y0.6469
X2.2406 Y0.6486 Z-0.4497
X2.2425 Y0.6502 Z-0.4488
X2.2442 Y0.6517 Z-0.4474
X2.2456 Y0.653 Z-0.4456
X2.2467 Y0.6539 Z-0.4433
X2.2473 Y0.6545 Z-0.4408
X2.2475 Y0.6547 Z-0.4382
G0 Z0.2
X0.6957 Y1.0055
G1 Z-0.2306 F20.
Z-0.2482
X0.6955 Y1.0053 Z-0.2508 F40.
X0.6947 Y1.0048 Z-0.2533
X0.6935 Y1.0041 Z-0.2556
X0.6919 Y1.0031 Z-0.2574
X0.6901 Y1.0019 Z-0.2588
X0.688 Y1.0006 Z-0.2597
X0.6857 Y0.9992 Z-0.26
X0.6758 Y0.9928
G3 X0.6721 Y0.9766 I0.0063 J-0.01
X0.9738 Y0.6738 Z-0.275 I0.8279 J0.5234 F20.
G2 X1.059 Y0.5186 Z-0.2815 I-0.0988 J-0.1552
G1 Y0.125 Z-0.2952
G2 X0.875 Y-0.059 Z-0.3053 I-0.184 J0.
G1 X0.125 Z-0.3315
G2 X-0.059 Y0.125 Z-0.3416 I0. J0.184
G1 Y1. Z-0.3722
G2 X0.125 Y1.184 Z-0.3823 I0.184 J0.
G1 X0.4494 Z-0.3936
G2 X0.6156 Y1.0791 Z-0.4008 I0. J-0.184
G3 X0.9738 Y0.6738 Z-0.42 I0.8844 J0.4209
G2 X1.059 Y0.5186 Z-0.4264 I-0.0988 J-0.1552
G1 Y0.125 Z-0.4402
G2 X0.8825 Y-0.0588 Z-0.45 I-0.184 J0.
G1 X0.875 Y-0.059 F40.
X0.125
G2 X-0.059 Y0.125 I0. J0.184
G1 Y1.
G2 X0.125 Y1.184 I0.184 J0.
G1 X0.4494
G2 X0.6156 Y1.0791 I0. J-0.184
G3 X0.9738 Y0.6738 I0.8844 J0.4209
G2 X1.059 Y0.5186 I-0.0988 J-0.1552
G1 Y0.125
G2 X0.8825 Y-0.0588 I-0.184 J0.
G3 X0.8712 Y-0.0711 I0.0005 J-0.0118
G1 X0.8717 Y-0.0829
X0.8718 Y-0.0855 Z-0.4497
X0.8719 Y-0.088 Z-0.4488
X0.872 Y-0.0903 Z-0.4474
Y-0.0921 Z-0.4456
X0.8721 Y-0.0935 Z-0.4433
Y-0.0944 Z-0.4408
Y-0.0947 Z-0.4382
G0 Z0.2
X0.6957 Y1.0055
G1 Z-0.3206 F20.
Z-0.3382
X0.6955 Y1.0053 Z-0.3408 F40.
X0.6947 Y1.0048 Z-0.3433
X0.6935 Y1.0041 Z-0.3456
X0.6919 Y1.0031 Z-0.3474
X0.6901 Y1.0019 Z-0.3488
X0.688 Y1.0006 Z-0.3497
X0.6857 Y0.9992 Z-0.35
X0.6758 Y0.9928
G3 X0.6721 Y0.9766 I0.0063 J-0.01
X0.9738 Y0.6738 Z-0.365 I0.8279 J0.5234 F20.
G2 X1.059 Y0.5186 Z-0.3715 I-0.0988 J-0.1552
G1 Y0.125 Z-0.3852
G2 X0.875 Y-0.059 Z-0.3953 I-0.184 J0.
G1 X0.125 Z-0.4215
G2 X-0.059 Y0.125 Z-0.4316 I0. J0.184
G1 Y1. Z-0.4622
G2 X0.125 Y1.184 Z-0.4723 I0.184 J0.
G1 X0.4494 Z-0.4836
G2 X0.6156 Y1.0791 Z-0.4908 I0. J-0.184
G3 X0.9738 Y0.6738 Z-0.51 I0.8844 J0.4209
G2 X1.059 Y0.5186 Z-0.5164 I-0.0988 J-0.1552
G1 Y0.125 Z-0.5302
G2 X0.8825 Y-0.0588 Z-0.54 I-0.184 J0.
G1 X0.875 Y-0.059 F40.
X0.125
G2 X-0.059 Y0.125 I0. J0.184
G1 Y1.
G2 X0.125 Y1.184 I0.184 J0.
G1 X0.4494
G2 X0.6156 Y1.0791 I0. J-0.184
G3 X0.9738 Y0.6738 I0.8844 J0.4209
G2 X1.059 Y0.5186 I-0.0988 J-0.1552
G1 Y0.125
G2 X0.8825 Y-0.0588 I-0.184 J0.
G3 X0.8712 Y-0.0711 I0.0005 J-0.0118
G1 X0.8717 Y-0.0829
X0.8718 Y-0.0855 Z-0.5397
X0.8719 Y-0.088 Z-0.5388
X0.872 Y-0.0903 Z-0.5374
Y-0.0921 Z-0.5356
X0.8721 Y-0.0935 Z-0.5333
Y-0.0944 Z-0.5308
Y-0.0947 Z-0.5282
G0 Z0.2
X2.2944 Y0.381
G1 Z-0.3206 F20.
Z-0.3382
G18 G3 X2.2826 Z-0.35 I-0.0118 K0. F40.
G1 X2.2708
G17 G3 X2.259 Y0.3692 I0. J-0.0118
G1 Y0.125 Z-0.3585 F20.
G2 X2.075 Y-0.059 Z-0.3686 I-0.184 J0.
G1 X1.325 Z-0.3948
X1.3175 Y-0.0588 Z-0.3951
G2 X1.141 Y0.125 Z-0.4049 I0.0075 J0.1838
G1 Y1. Z-0.4355
G2 X1.325 Y1.184 Z-0.4456 I0.184 J0.
G1 X1.6494 Z-0.4569
G2 X1.8156 Y1.0791 Z-0.4641 I0. J-0.184
G3 X2.1738 Y0.6738 Z-0.4833 I0.8844 J0.4209
G2 X2.259 Y0.5186 Z-0.4897 I-0.0988 J-0.1552
G1 Y0.125 Z-0.5035
G2 X2.075 Y-0.059 Z-0.5135 I-0.184 J0.
G1 X1.325 Z-0.5397
X1.3175 Y-0.0588 Z-0.54
G2 X1.141 Y0.125 I0.0075 J0.1838 F40.
G1 Y1.
G2 X1.325 Y1.184 I0.184 J0.
G1 X1.6494
G2 X1.8156 Y1.0791 I0. J-0.184
G3 X2.1738 Y0.6738 I0.8844 J0.4209
G2 X2.259 Y0.5186 I-0.0988 J-0.1552
G1 Y0.125
G2 X2.075 Y-0.059 I-0.184 J0.
G1 X1.325
X1.3175 Y-0.0588
G2 X1.141 Y0.125 Z-0.5498 I0.0075 J0.1838 F20.
G1 Y1. Z-0.5804
G2 X1.325 Y1.184 Z-0.5905 I0.184 J0.
G1 X1.6494 Z-0.6018
G2 X1.8156 Y1.0791 Z-0.609 I0. J-0.184
G3 X2.1738 Y0.6738 Z-0.6282 I0.8844 J0.4209
G2 X2.2132 Y0.6401 Z-0.63 I-0.0988 J-0.1552
X2.259 Y0.5186 I-0.1382 J-0.1215 F40.
G1 Y0.125
G2 X2.075 Y-0.059 I-0.184 J0.
G1 X1.325
G2 X1.141 Y0.125 I0. J0.184
G1 Y1.
G2 X1.325 Y1.184 I0.184 J0.
G1 X1.6494
G2 X1.8156 Y1.0791 I0. J-0.184
G3 X2.1738 Y0.6738 I0.8844 J0.4209
G2 X2.2132 Y0.6401 I-0.0988 J-0.1552
G3 X2.2298 Y0.6391 I0.0089 J0.0078
G1 X2.2387 Y0.6469
X2.2406 Y0.6486 Z-0.6297
X2.2425 Y0.6502 Z-0.6288
X2.2442 Y0.6517 Z-0.6274
X2.2456 Y0.653 Z-0.6256
X2.2467 Y0.6539 Z-0.6233
X2.2473 Y0.6545 Z-0.6208
X2.2475 Y0.6547 Z-0.6182
G0 Z0.2
X0.6957 Y1.0055
G1 Z-0.4106 F20.
Z-0.4282
X0.6955 Y1.0053 Z-0.4308 F40.
X0.6947 Y1.0048 Z-0.4333
X0.6935 Y1.0041 Z-0.4356
X0.6919 Y1.0031 Z-0.4374
X0.6901 Y1.0019 Z-0.4388
X0.688 Y1.0006 Z-0.4397
X0.6857 Y0.9992 Z-0.44
X0.6758 Y0.9928
G3 X0.6721 Y0.9766 I0.0063 J-0.01
X0.9738 Y0.6738 Z-0.455 I0.8279 J0.5234 F20.
G2 X1.059 Y0.5186 Z-0.4615 I-0.0988 J-0.1552
G1 Y0.125 Z-0.4752
G2 X0.875 Y-0.059 Z-0.4853 I-0.184 J0.
G1 X0.125 Z-0.5115
G2 X-0.059 Y0.125 Z-0.5216 I0. J0.184
G1 Y1. Z-0.5522
G2 X0.125 Y1.184 Z-0.5623 I0.184 J0.
G1 X0.4494 Z-0.5736
G2 X0.6156 Y1.0791 Z-0.5808 I0. J-0.184
G3 X0.9738 Y0.6738 Z-0.6 I0.8844 J0.4209
G2 X1.059 Y0.5186 Z-0.6064 I-0.0988 J-0.1552
G1 Y0.125 Z-0.6202
G2 X0.8825 Y-0.0588 Z-0.63 I-0.184 J0.
G1 X0.875 Y-0.059 F40.
X0.125
G2 X-0.059 Y0.125 I0. J0.184
G1 Y1.
G2 X0.125 Y1.184 I0.184 J0.
G1 X0.4494
G2 X0.6156 Y1.0791 I0. J-0.184
G3 X0.9738 Y0.6738 I0.8844 J0.4209
G2 X1.059 Y0.5186 I-0.0988 J-0.1552
G1 Y0.125
G2 X0.8825 Y-0.0588 I-0.184 J0.
G3 X0.8712 Y-0.0711 I0.0005 J-0.0118
G1 X0.8717 Y-0.0829
X0.8718 Y-0.0855 Z-0.6297
X0.8719 Y-0.088 Z-0.6288
X0.872 Y-0.0903 Z-0.6274
Y-0.0921 Z-0.6256
X0.8721 Y-0.0935 Z-0.6233
Y-0.0944 Z-0.6208
Y-0.0947 Z-0.6182
G0 Z0.2
X0.6957 Y1.0055
G1 Z-0.5006 F20.
Z-0.5182
X0.6955 Y1.0053 Z-0.5208 F40.
X0.6947 Y1.0048 Z-0.5233
X0.6935 Y1.0041 Z-0.5256
X0.6919 Y1.0031 Z-0.5274
X0.6901 Y1.0019 Z-0.5288
X0.688 Y1.0006 Z-0.5297
X0.6857 Y0.9992 Z-0.53
X0.6758 Y0.9928
G3 X0.6721 Y0.9766 I0.0063 J-0.01
X0.9738 Y0.6738 Z-0.545 I0.8279 J0.5234 F20.
G2 X1.059 Y0.5186 Z-0.5515 I-0.0988 J-0.1552
G1 Y0.125 Z-0.5652
G2 X0.875 Y-0.059 Z-0.5753 I-0.184 J0.
G1 X0.125 Z-0.6015
G2 X-0.059 Y0.125 Z-0.6116 I0. J0.184
G1 Y1. Z-0.6422
G2 X0.125 Y1.184 Z-0.6523 I0.184 J0.
G1 X0.4494 Z-0.6636
G2 X0.6156 Y1.0791 Z-0.6708 I0. J-0.184
G3 X0.9738 Y0.6738 Z-0.69 I0.8844 J0.4209
G2 X1.059 Y0.5186 Z-0.6964 I-0.0988 J-0.1552
G1 Y0.125 Z-0.7102
G2 X0.8825 Y-0.0588 Z-0.72 I-0.184 J0.
G1 X0.875 Y-0.059 F40.
X0.125
G2 X-0.059 Y0.125 I0. J0.184
G1 Y1.
G2 X0.125 Y1.184 I0.184 J0.
G1 X0.4494
G2 X0.6156 Y1.0791 I0. J-0.184
G3 X0.9738 Y0.6738 I0.8844 J0.4209
G2 X1.059 Y0.5186 I-0.0988 J-0.1552
G1 Y0.125
G2 X0.8825 Y-0.0588 I-0.184 J0.
G3 X0.8712 Y-0.0711 I0.0005 J-0.0118
G1 X0.8717 Y-0.0829
X0.8718 Y-0.0855 Z-0.7197
X0.8719 Y-0.088 Z-0.7188
X0.872 Y-0.0903 Z-0.7174
Y-0.0921 Z-0.7156
X0.8721 Y-0.0935 Z-0.7133
Y-0.0944 Z-0.7108
Y-0.0947 Z-0.7082
G0 Z0.2
X2.2944 Y0.381
G1 Z-0.5006 F20.
Z-0.5182
G18 G3 X2.2826 Z-0.53 I-0.0118 K0. F40.
G1 X2.2708
G17 G3 X2.259 Y0.3692 I0. J-0.0118
G1 Y0.125 Z-0.5385 F20.
G2 X2.075 Y-0.059 Z-0.5486 I-0.184 J0.
G1 X1.325 Z-0.5748
G2 X1.141 Y0.125 Z-0.5849 I0. J0.184
G1 Y1. Z-0.6155
G2 X1.325 Y1.184 Z-0.6256 I0.184 J0.
G1 X1.6494 Z-0.6369
G2 X1.8156 Y1.0791 Z-0.6441 I0. J-0.184
G3 X2.1738 Y0.6738 Z-0.6633 I0.8844 J0.4209
G2 X2.259 Y0.5186 Z-0.6697 I-0.0988 J-0.1552
G1 Y0.125 Z-0.6835
G2 X2.075 Y-0.059 Z-0.6935 I-0.184 J0.
G1 X1.325 Z-0.7197
X1.3175 Y-0.0588 Z-0.72
G2 X1.141 Y0.125 I0.0075 J0.1838 F40.
G1 Y1.
G2 X1.325 Y1.184 I0.184 J0.
G1 X1.6494
G2 X1.8156 Y1.0791 I0. J-0.184
G3 X2.1738 Y0.6738 I0.8844 J0.4209
G2 X2.259 Y0.5186 I-0.0988 J-0.1552
G1 Y0.125
G2 X2.075 Y-0.059 I-0.184 J0.
G1 X1.325
X1.3175 Y-0.0588
G2 X1.141 Y0.125 Z-0.7298 I0.0075 J0.1838 F20.
G1 Y1. Z-0.7604
G2 X1.325 Y1.184 Z-0.7705 I0.184 J0.
G1 X1.6494 Z-0.7818
G2 X1.8156 Y1.0791 Z-0.789 I0. J-0.184
G3 X2.1738 Y0.6738 Z-0.8082 I0.8844 J0.4209
G2 X2.2132 Y0.6401 Z-0.81 I-0.0988 J-0.1552
X2.259 Y0.5186 I-0.1382 J-0.1215 F40.
G1 Y0.125
G2 X2.075 Y-0.059 I-0.184 J0.
G1 X1.325
G2 X1.141 Y0.125 I0. J0.184
G1 Y1.
G2 X1.325 Y1.184 I0.184 J0.
G1 X1.6494
G2 X1.8156 Y1.0791 I0. J-0.184
G3 X2.1738 Y0.6738 I0.8844 J0.4209
G2 X2.2132 Y0.6401 I-0.0988 J-0.1552
G3 X2.2298 Y0.6391 I0.0089 J0.0078
G1 X2.2387 Y0.6469
X2.2406 Y0.6486 Z-0.8097
X2.2425 Y0.6502 Z-0.8088
X2.2442 Y0.6517 Z-0.8074
X2.2456 Y0.653 Z-0.8056
X2.2467 Y0.6539 Z-0.8033
X2.2473 Y0.6545 Z-0.8008
X2.2475 Y0.6547 Z-0.7982
G0 Z0.2
X0.6957 Y1.0055
G1 Z-0.5906 F20.
Z-0.6082
X0.6955 Y1.0053 Z-0.6108 F40.
X0.6947 Y1.0048 Z-0.6133
X0.6935 Y1.0041 Z-0.6156
X0.6919 Y1.0031 Z-0.6174
X0.6901 Y1.0019 Z-0.6188
X0.688 Y1.0006 Z-0.6197
X0.6857 Y0.9992 Z-0.62
X0.6758 Y0.9928
G3 X0.6721 Y0.9766 I0.0063 J-0.01
X0.9738 Y0.6738 Z-0.635 I0.8279 J0.5234 F20.
G2 X1.059 Y0.5186 Z-0.6415 I-0.0988 J-0.1552
G1 Y0.125 Z-0.6552
G2 X0.875 Y-0.059 Z-0.6653 I-0.184 J0.
G1 X0.125 Z-0.6915
G2 X-0.059 Y0.125 Z-0.7016 I0. J0.184
G1 Y1. Z-0.7322
G2 X0.125 Y1.184 Z-0.7423 I0.184 J0.
G1 X0.4494 Z-0.7536
G2 X0.6156 Y1.0791 Z-0.7608 I0. J-0.184
G3 X0.9738 Y0.6738 Z-0.78 I0.8844 J0.4209
G2 X1.059 Y0.5186 Z-0.7864 I-0.0988 J-0.1552
G1 Y0.125 Z-0.8002
G2 X0.8825 Y-0.0588 Z-0.81 I-0.184 J0.
G1 X0.875 Y-0.059 F40.
X0.125
G2 X-0.059 Y0.125 I0. J0.184
G1 Y1.
G2 X0.125 Y1.184 I0.184 J0.
G1 X0.4494
G2 X0.6156 Y1.0791 I0. J-0.184
G3 X0.9738 Y0.6738 I0.8844 J0.4209
G2 X1.059 Y0.5186 I-0.0988 J-0.1552
G1 Y0.125
G2 X0.8825 Y-0.0588 I-0.184 J0.
G3 X0.8712 Y-0.0711 I0.0005 J-0.0118
G1 X0.8717 Y-0.0829
X0.8718 Y-0.0855 Z-0.8097
X0.8719 Y-0.088 Z-0.8088
X0.872 Y-0.0903 Z-0.8074
Y-0.0921 Z-0.8056
X0.8721 Y-0.0935 Z-0.8033
Y-0.0944 Z-0.8008
Y-0.0947 Z-0.7982
G0 Z0.2
X0.6957 Y1.0055
G1 Z-0.6806 F20.
Z-0.6982
X0.6955 Y1.0053 Z-0.7008 F40.
X0.6947 Y1.0048 Z-0.7033
X0.6935 Y1.0041 Z-0.7056
X0.6919 Y1.0031 Z-0.7074
X0.6901 Y1.0019 Z-0.7088
X0.688 Y1.0006 Z-0.7097
X0.6857 Y0.9992 Z-0.71
X0.6758 Y0.9928
G3 X0.6721 Y0.9766 I0.0063 J-0.01
X0.9738 Y0.6738 Z-0.725 I0.8279 J0.5234 F20.
G2 X1.059 Y0.5186 Z-0.7315 I-0.0988 J-0.1552
G1 Y0.125 Z-0.7452
G2 X0.875 Y-0.059 Z-0.7553 I-0.184 J0.
G1 X0.125 Z-0.7815
G2 X-0.059 Y0.125 Z-0.7916 I0. J0.184
G1 Y1. Z-0.8222
G2 X0.125 Y1.184 Z-0.8323 I0.184 J0.
G1 X0.4494 Z-0.8436
G2 X0.6156 Y1.0791 Z-0.8508 I0. J-0.184
G3 X0.9738 Y0.6738 Z-0.87 I0.8844 J0.4209
G2 X1.059 Y0.5186 Z-0.8764 I-0.0988 J-0.1552
G1 Y0.125 Z-0.8902
G2 X0.8825 Y-0.0588 Z-0.9 I-0.184 J0.
G1 X0.875 Y-0.059 F40.
X0.125
G2 X-0.059 Y0.125 I0. J0.184
G1 Y1.
G2 X0.125 Y1.184 I0.184 J0.
G1 X0.4494
G2 X0.6156 Y1.0791 I0. J-0.184
G3 X0.9738 Y0.6738 I0.8844 J0.4209
G2 X1.059 Y0.5186 I-0.0988 J-0.1552
G1 Y0.125
G2 X0.8825 Y-0.0588 I-0.184 J0.
G3 X0.8712 Y-0.0711 I0.0005 J-0.0118
G1 X0.8717 Y-0.0829
X0.8718 Y-0.0855 Z-0.8997
X0.8719 Y-0.088 Z-0.8988
X0.872 Y-0.0903 Z-0.8974
Y-0.0921 Z-0.8956
X0.8721 Y-0.0935 Z-0.8933
Y-0.0944 Z-0.8908
Y-0.0947 Z-0.8882
G0 Z0.2
X2.2944 Y0.381
G1 Z-0.6806 F20.
Z-0.6982
G18 G3 X2.2826 Z-0.71 I-0.0118 K0. F40.
G1 X2.2708
G17 G3 X2.259 Y0.3692 I0. J-0.0118
G1 Y0.125 Z-0.7185 F20.
G2 X2.075 Y-0.059 Z-0.7286 I-0.184 J0.
G1 X1.325 Z-0.7548
G2 X1.141 Y0.125 Z-0.7649 I0. J0.184
G1 Y1. Z-0.7955
G2 X1.325 Y1.184 Z-0.8056 I0.184 J0.
G1 X1.6494 Z-0.8169
G2 X1.8156 Y1.0791 Z-0.8241 I0. J-0.184
G3 X2.1738 Y0.6738 Z-0.8433 I0.8844 J0.4209
G2 X2.259 Y0.5186 Z-0.8497 I-0.0988 J-0.1552
G1 Y0.125 Z-0.8635
G2 X2.075 Y-0.059 Z-0.8735 I-0.184 J0.
G1 X1.325 Z-0.8997
X1.3175 Y-0.0588 Z-0.9
G2 X1.141 Y0.125 I0.0075 J0.1838 F40.
G1 Y1.
G2 X1.325 Y1.184 I0.184 J0.
G1 X1.6494
G2 X1.8156 Y1.0791 I0. J-0.184
G3 X2.1738 Y0.6738 I0.8844 J0.4209
G2 X2.259 Y0.5186 I-0.0988 J-0.1552
G1 Y0.125
G2 X2.075 Y-0.059 I-0.184 J0.
G1 X1.325
X1.3175 Y-0.0588
G2 X1.141 Y0.125 Z-0.9098 I0.0075 J0.1838 F20.
G1 Y1. Z-0.9404
G2 X1.325 Y1.184 Z-0.9505 I0.184 J0.
G1 X1.6494 Z-0.9618
G2 X1.8156 Y1.0791 Z-0.969 I0. J-0.184
G3 X1.993 Y0.8221 Z-0.98 I0.8844 J0.4209
X2.1738 Y0.6738 I0.707 J0.6779 F40.
G2 X2.259 Y0.5186 I-0.0988 J-0.1552
G1 Y0.125
G2 X2.075 Y-0.059 I-0.184 J0.
G1 X1.325
G2 X1.141 Y0.125 I0. J0.184
G1 Y1.
G2 X1.325 Y1.184 I0.184 J0.
G1 X1.6494
G2 X1.8156 Y1.0791 I0. J-0.184
G3 X1.993 Y0.8221 I0.8844 J0.4209
X2.0097 Y0.8217 I0.0085 J0.0082
G1 X2.0182 Y0.8299
X2.0201 Y0.8317 Z-0.9797
X2.0219 Y0.8334 Z-0.9788
X2.0235 Y0.835 Z-0.9774
X2.0249 Y0.8363 Z-0.9756
X2.0259 Y0.8373 Z-0.9733
X2.0265 Y0.8379 Z-0.9708
X2.0267 Y0.8381 Z-0.9682
G0 Z0.2
X0.8724 Y0.7946
G1 Z-0.7706 F20.
Z-0.7882
X0.8722 Y0.7944 Z-0.7908 F40.
X0.8716 Y0.7938 Z-0.7933
X0.8707 Y0.7927 Z-0.7956
X0.8695 Y0.7913 Z-0.7974
X0.868 Y0.7896 Z-0.7988
X0.8664 Y0.7877 Z-0.7997
X0.8646 Y0.7857 Z-0.8
X0.8569 Y0.7768
G3 X0.8581 Y0.7602 I0.0089 J-0.0077
X0.9738 Y0.6738 Z-0.805 I0.6419 J0.7398 F20.
G2 X1.059 Y0.5186 Z-0.8115 I-0.0988 J-0.1552
G1 Y0.125 Z-0.8252
G2 X0.875 Y-0.059 Z-0.8353 I-0.184 J0.
G1 X0.125 Z-0.8615
G2 X-0.059 Y0.125 Z-0.8716 I0. J0.184
G1 Y1. Z-0.9022
G2 X0.125 Y1.184 Z-0.9123 I0.184 J0.
G1 X0.4494 Z-0.9236
G2 X0.6156 Y1.0791 Z-0.9308 I0. J-0.184
G3 X0.9738 Y0.6738 Z-0.95 I0.8844 J0.4209
G2 X1.059 Y0.5186 Z-0.9564 I-0.0988 J-0.1552
G1 Y0.125 Z-0.9702
G2 X0.8825 Y-0.0588 Z-0.98 I-0.184 J0.
G1 X0.875 Y-0.059 F40.
X0.125
G2 X-0.059 Y0.125 I0. J0.184
G1 Y1.
G2 X0.125 Y1.184 I0.184 J0.
G1 X0.4494
G2 X0.6156 Y1.0791 I0. J-0.184
G3 X0.9738 Y0.6738 I0.8844 J0.4209
G2 X1.059 Y0.5186 I-0.0988 J-0.1552
G1 Y0.125
G2 X0.8825 Y-0.0588 I-0.184 J0.
G3 X0.8712 Y-0.0711 I0.0005 J-0.0118
G1 X0.8717 Y-0.0829
X0.8718 Y-0.0855 Z-0.9797
X0.8719 Y-0.088 Z-0.9788
X0.872 Y-0.0903 Z-0.9774
Y-0.0921 Z-0.9756
X0.8721 Y-0.0935 Z-0.9733
Y-0.0944 Z-0.9708
Y-0.0947 Z-0.9682
G0 Z0.6

M9
M30
