(1001)
(BOTTOM GUIDE)
(T1  D=6.35 CR=0. - ZMIN=-1. - FLAT END MILL)
G90 G94 G91.1 G40 G49 G17
G21
G0 Z45

(BOTTOM FACE CONTOUR)
M5
T1 M6
S15000 M3
G54
M8
G0 X152.025 Y-6.35
G43 Z41.4 H1
Z28.4
G1 Z25.4 F400.
X145.675 F1600.
X94.875
X88.525
Z24.4 F400.
X94.875 F1600.
X145.675
X152.025
Z23.4 F400.
X145.675 F1600.
X94.875
X88.525
Z22.4 F400.
X94.875 F1600.
X145.675
X152.025
Z21.4 F400.
X145.675 F1600.
X94.875
X88.525
Z20.4 F400.
X94.875 F1600.
X145.675
X152.025
Z19.4 F400.
X145.675 F1600.
X94.875
X88.525
Z18.4 F400.
X94.875 F1600.
X145.675
X152.025
Z17.4 F400.
X145.675 F1600.
X94.875
X88.525
Z16.4 F400.
X94.875 F1600.
X145.675
X152.025
Z15.4 F400.
X145.675 F1600.
X94.875
X88.525
Z14.4 F400.
X94.875 F1600.
X145.675
X152.025
Z13.4 F400.
X145.675 F1600.
X94.875
X88.525
Z12.4 F400.
X94.875 F1600.
X145.675
X152.025
Z11.4 F400.
X145.675 F1600.
X94.875
X88.525
Z10.4 F400.
X94.875 F1600.
X145.675
X152.025
Z9.4 F400.
X145.675 F1600.
X94.875
X88.525
Z8.4 F400.
X94.875 F1600.
X145.675
X152.025
Z7.4 F400.
X145.675 F1600.
X94.875
X88.525
Z6.4 F400.
X94.875 F1600.
X145.675
X152.025
Z5.4 F400.
X145.675 F1600.
X94.875
X88.525
Z4.4 F400.
X94.875 F1600.
X145.675
X152.025
Z3.4 F400.
X145.675 F1600.
X94.875
X88.525
Z2.4 F400.
X94.875 F1600.
X145.675
X152.025
Z1.4 F400.
X145.675 F1600.
X94.875
X88.525
Z0.4 F400.
X94.875 F1600.
X145.675
X152.025
Z-0.6 F400.
X145.675 F1600.
X94.875
X88.525
Z-1. F400.
X94.875 F1600.
X145.675
G0 Z41.4
M5
G0 Z45
G0 X0 Y0

M9
M30
