(1001)
(FACING END OF MATERIAL)
(T1  D=6.35 CR=0. - ZMIN=0.5 - FLAT END MILL)
G90 G94 G91.1 G40 G49 G17
G21
G0 Z45

(TOP FACE CONTOUR)
M5
T1 M6
S15000 M3
G54
M8
G0 X152.025 Y-6.35
G43 Z40.4 H1
Z30.4
G1 Z27.4 F400.
Z24.4
X145.675 F1600.
X120.275
X113.925
Z23.4 F400.
X120.275 F1600.
X145.675
X152.025
Z22.4 F400.
X145.675 F1600.
X120.275
X113.925
Z21.4 F400.
X120.275 F1600.
X145.675
X152.025
Z20.4 F400.
X145.675 F1600.
X120.275
X113.925
Z19.4 F400.
X120.275 F1600.
X145.675
X152.025
Z18.4 F400.
X145.675 F1600.
X120.275
X113.925
Z17.4 F400.
X120.275 F1600.
X145.675
X152.025
Z16.4 F400.
X145.675 F1600.
X120.275
X113.925
Z15.4 F400.
X120.275 F1600.
X145.675
X152.025
Z14.4 F400.
X145.675 F1600.
X120.275
X113.925
Z13.4 F400.
X120.275 F1600.
X145.675
X152.025
Z12.4 F400.
X145.675 F1600.
X120.275
X113.925
Z11.4 F400.
X120.275 F1600.
X145.675
X152.025
Z10.4 F400.
X145.675 F1600.
X120.275
X113.925
Z9.4 F400.
X120.275 F1600.
X145.675
X152.025
Z8.4 F400.
X145.675 F1600.
X120.275
X113.925
Z7.4 F400.
X120.275 F1600.
X145.675
X152.025
Z6.4 F400.
X145.675 F1600.
X120.275
X113.925
Z5.4 F400.
X120.275 F1600.
X145.675
X152.025
Z4.4 F400.
X145.675 F1600.
X120.275
X113.925
Z3.4 F400.
X120.275 F1600.
X145.675
X152.025
Z2.4 F400.
X145.675 F1600.
X120.275
X113.925
Z1.4 F400.
X120.275 F1600.
X145.675
X152.025
Z0.5 F400.
X145.675 F1600.
X120.275
G0 Z40.4
M5
G0 Z45
G0 X0 Y0

M9
M30
