(DENNIS GUSSET)
(T1  D=3.175 CR=0. - ZMIN=-4.175 - FLAT END MILL)
G90 G94 G91.1 G40 G49 G17
G21

(BORE3)
M5
T1 M6
S15000 M3
G54
M8
G0 X63.182 Y64.09
G43 Z16. H1
Z3.
G1 Z1.317 F800.
G19 G3 Y64.408 Z1. J0.317 K0.
G1 Y64.566
G17 G2 X63.5 Y64.884 I0.318 J0.
Y61.43 Z0.971 I0. J-1.727
Y64.884 Z0.942 I0. J1.727
Y61.43 Z0.913 I0. J-1.727
Y64.884 Z0.884 I0. J1.727
Y61.43 Z0.855 I0. J-1.727
Y64.884 Z0.826 I0. J1.727
Y61.43 Z0.798 I0. J-1.727
Y64.884 Z0.769 I0. J1.727
Y61.43 Z0.74 I0. J-1.727
Y64.884 Z0.711 I0. J1.727
Y61.43 Z0.682 I0. J-1.727
Y64.884 Z0.653 I0. J1.727
Y61.43 Z0.624 I0. J-1.727
Y64.884 Z0.595 I0. J1.727
Y61.43 Z0.566 I0. J-1.727
Y64.884 Z0.537 I0. J1.727
Y61.43 Z0.508 I0. J-1.727
Y64.884 Z0.479 I0. J1.727
Y61.43 Z0.45 I0. J-1.727
Y64.884 Z0.421 I0. J1.727
Y61.43 Z0.393 I0. J-1.727
Y64.884 Z0.364 I0. J1.727
Y61.43 Z0.335 I0. J-1.727
Y64.884 Z0.306 I0. J1.727
Y61.43 Z0.277 I0. J-1.727
Y64.884 Z0.248 I0. J1.727
Y61.43 Z0.219 I0. J-1.727
Y64.884 Z0.19 I0. J1.727
Y61.43 Z0.161 I0. J-1.727
Y64.884 Z0.132 I0. J1.727
Y61.43 Z0.103 I0. J-1.727
Y64.884 Z0.074 I0. J1.727
Y61.43 Z0.045 I0. J-1.727
Y64.884 Z0.016 I0. J1.727
Y61.43 Z-0.012 I0. J-1.727
Y64.884 Z-0.041 I0. J1.727
Y61.43 Z-0.07 I0. J-1.727
Y64.884 Z-0.099 I0. J1.727
Y61.43 Z-0.128 I0. J-1.727
Y64.884 Z-0.157 I0. J1.727
Y61.43 Z-0.186 I0. J-1.727
Y64.884 Z-0.215 I0. J1.727
Y61.43 Z-0.244 I0. J-1.727
Y64.884 Z-0.273 I0. J1.727
Y61.43 Z-0.302 I0. J-1.727
Y64.884 Z-0.331 I0. J1.727
Y61.43 Z-0.36 I0. J-1.727
Y64.884 Z-0.388 I0. J1.727
Y61.43 Z-0.417 I0. J-1.727
Y64.884 Z-0.446 I0. J1.727
Y61.43 Z-0.475 I0. J-1.727
Y64.884 Z-0.504 I0. J1.727
Y61.43 Z-0.533 I0. J-1.727
Y64.884 Z-0.562 I0. J1.727
Y61.43 Z-0.591 I0. J-1.727
Y64.884 Z-0.62 I0. J1.727
Y61.43 Z-0.649 I0. J-1.727
Y64.884 Z-0.678 I0. J1.727
Y61.43 Z-0.707 I0. J-1.727
Y64.884 Z-0.736 I0. J1.727
Y61.43 Z-0.765 I0. J-1.727
Y64.884 Z-0.793 I0. J1.727
Y61.43 Z-0.822 I0. J-1.727
Y64.884 Z-0.851 I0. J1.727
Y61.43 Z-0.88 I0. J-1.727
Y64.884 Z-0.909 I0. J1.727
Y61.43 Z-0.938 I0. J-1.727
Y64.884 Z-0.967 I0. J1.727
Y61.43 Z-0.996 I0. J-1.727
Y64.884 Z-1.025 I0. J1.727
Y61.43 Z-1.054 I0. J-1.727
Y64.884 Z-1.083 I0. J1.727
Y61.43 Z-1.112 I0. J-1.727
Y64.884 Z-1.141 I0. J1.727
Y61.43 Z-1.17 I0. J-1.727
Y64.884 Z-1.198 I0. J1.727
Y61.43 Z-1.227 I0. J-1.727
Y64.884 Z-1.256 I0. J1.727
Y61.43 Z-1.285 I0. J-1.727
Y64.884 Z-1.314 I0. J1.727
Y61.43 Z-1.343 I0. J-1.727
Y64.884 Z-1.372 I0. J1.727
Y61.43 Z-1.401 I0. J-1.727
Y64.884 Z-1.43 I0. J1.727
Y61.43 Z-1.459 I0. J-1.727
Y64.884 Z-1.488 I0. J1.727
Y61.43 Z-1.517 I0. J-1.727
Y64.884 Z-1.546 I0. J1.727
Y61.43 Z-1.574 I0. J-1.727
Y64.884 Z-1.603 I0. J1.727
Y61.43 Z-1.632 I0. J-1.727
Y64.884 Z-1.661 I0. J1.727
Y61.43 Z-1.69 I0. J-1.727
Y64.884 Z-1.719 I0. J1.727
Y61.43 Z-1.748 I0. J-1.727
Y64.884 Z-1.777 I0. J1.727
Y61.43 Z-1.806 I0. J-1.727
Y64.884 Z-1.835 I0. J1.727
Y61.43 Z-1.864 I0. J-1.727
Y64.884 Z-1.893 I0. J1.727
Y61.43 Z-1.922 I0. J-1.727
Y64.884 Z-1.951 I0. J1.727
Y61.43 Z-1.979 I0. J-1.727
Y64.884 Z-2.008 I0. J1.727
Y61.43 Z-2.037 I0. J-1.727
Y64.884 Z-2.066 I0. J1.727
Y61.43 Z-2.095 I0. J-1.727
Y64.884 Z-2.124 I0. J1.727
Y61.43 Z-2.153 I0. J-1.727
Y64.884 Z-2.182 I0. J1.727
Y61.43 Z-2.211 I0. J-1.727
Y64.884 Z-2.24 I0. J1.727
Y61.43 Z-2.269 I0. J-1.727
Y64.884 Z-2.298 I0. J1.727
Y61.43 Z-2.327 I0. J-1.727
Y64.884 Z-2.356 I0. J1.727
Y61.43 Z-2.384 I0. J-1.727
Y64.884 Z-2.413 I0. J1.727
Y61.43 Z-2.442 I0. J-1.727
Y64.884 Z-2.471 I0. J1.727
Y61.43 Z-2.5 I0. J-1.727
Y64.884 Z-2.529 I0. J1.727
Y61.43 Z-2.558 I0. J-1.727
Y64.884 Z-2.587 I0. J1.727
Y61.43 Z-2.616 I0. J-1.727
Y64.884 Z-2.645 I0. J1.727
Y61.43 Z-2.674 I0. J-1.727
Y64.884 Z-2.703 I0. J1.727
Y61.43 Z-2.732 I0. J-1.727
Y64.884 Z-2.761 I0. J1.727
Y61.43 Z-2.789 I0. J-1.727
Y64.884 Z-2.818 I0. J1.727
Y61.43 Z-2.847 I0. J-1.727
Y64.884 Z-2.876 I0. J1.727
Y61.43 Z-2.905 I0. J-1.727
Y64.884 Z-2.934 I0. J1.727
Y61.43 Z-2.963 I0. J-1.727
Y64.884 Z-2.992 I0. J1.727
Y61.43 Z-3.021 I0. J-1.727
Y64.884 Z-3.05 I0. J1.727
Y61.43 Z-3.079 I0. J-1.727
Y64.884 Z-3.108 I0. J1.727
Y61.43 Z-3.137 I0. J-1.727
Y64.884 Z-3.165 I0. J1.727
Y61.43 Z-3.194 I0. J-1.727
Y64.884 Z-3.223 I0. J1.727
Y61.43 Z-3.252 I0. J-1.727
Y64.884 Z-3.281 I0. J1.727
Y61.43 Z-3.31 I0. J-1.727
Y64.884 Z-3.339 I0. J1.727
Y61.43 Z-3.368 I0. J-1.727
Y64.884 Z-3.397 I0. J1.727
Y61.43 Z-3.426 I0. J-1.727
Y64.884 Z-3.455 I0. J1.727
Y61.43 Z-3.484 I0. J-1.727
Y64.884 Z-3.513 I0. J1.727
Y61.43 Z-3.542 I0. J-1.727
Y64.884 Z-3.57 I0. J1.727
Y61.43 Z-3.599 I0. J-1.727
Y64.884 Z-3.628 I0. J1.727
Y61.43 Z-3.657 I0. J-1.727
Y64.884 Z-3.686 I0. J1.727
Y61.43 Z-3.715 I0. J-1.727
Y64.884 Z-3.744 I0. J1.727
Y61.43 Z-3.773 I0. J-1.727
Y64.884 Z-3.802 I0. J1.727
Y61.43 Z-3.831 I0. J-1.727
Y64.884 Z-3.86 I0. J1.727
Y61.43 Z-3.889 I0. J-1.727
Y64.884 Z-3.918 I0. J1.727
Y61.43 Z-3.947 I0. J-1.727
Y64.884 Z-3.975 I0. J1.727
Y61.43 Z-4.004 I0. J-1.727
Y64.884 Z-4.033 I0. J1.727
Y61.43 Z-4.062 I0. J-1.727
Y64.884 Z-4.091 I0. J1.727
Y61.43 Z-4.12 I0. J-1.727
Y64.884 Z-4.149 I0. J1.727
X64.039 Y61.516 Z-4.175 I0. J-1.727
X62.961 Y64.798 I-0.539 J1.641
X64.039 Y61.516 I0.539 J-1.641
X63.639 Y61.718 I-0.099 J0.302
G1 X63.589 Y61.869
X63.567 Y61.936 Z-4.167
X63.546 Y62. Z-4.144
X63.527 Y62.057 Z-4.106
X63.511 Y62.105 Z-4.055
X63.5 Y62.141 Z-3.995
X63.492 Y62.163 Z-3.928
X63.49 Y62.171 Z-3.858
G0 Z6.
X63.182 Y65.678
Z3.
G1 Z1.317 F800.
G19 G3 Y65.995 Z1. J0.318 K0.
G1 Y66.154
G17 G2 X63.5 Y66.471 I0.318 J0.
Y59.842 Z0.957 I0. J-3.315
Y66.471 Z0.914 I0. J3.315
Y59.842 Z0.872 I0. J-3.315
Y66.471 Z0.829 I0. J3.315
Y59.842 Z0.786 I0. J-3.315
Y66.471 Z0.743 I0. J3.315
Y59.842 Z0.701 I0. J-3.315
Y66.471 Z0.658 I0. J3.315
Y59.842 Z0.615 I0. J-3.315
Y66.471 Z0.572 I0. J3.315
Y59.842 Z0.529 I0. J-3.315
Y66.471 Z0.487 I0. J3.315
Y59.842 Z0.444 I0. J-3.315
Y66.471 Z0.401 I0. J3.315
Y59.842 Z0.358 I0. J-3.315
Y66.471 Z0.316 I0. J3.315
Y59.842 Z0.273 I0. J-3.315
Y66.471 Z0.23 I0. J3.315
Y59.842 Z0.187 I0. J-3.315
Y66.471 Z0.144 I0. J3.315
Y59.842 Z0.102 I0. J-3.315
Y66.471 Z0.059 I0. J3.315
Y59.842 Z0.016 I0. J-3.315
Y66.471 Z-0.027 I0. J3.315
Y59.842 Z-0.07 I0. J-3.315
Y66.471 Z-0.112 I0. J3.315
Y59.842 Z-0.155 I0. J-3.315
Y66.471 Z-0.198 I0. J3.315
Y59.842 Z-0.241 I0. J-3.315
Y66.471 Z-0.283 I0. J3.315
Y59.842 Z-0.326 I0. J-3.315
Y66.471 Z-0.369 I0. J3.315
Y59.842 Z-0.412 I0. J-3.315
Y66.471 Z-0.455 I0. J3.315
Y59.842 Z-0.497 I0. J-3.315
Y66.471 Z-0.54 I0. J3.315
Y59.842 Z-0.583 I0. J-3.315
Y66.471 Z-0.626 I0. J3.315
Y59.842 Z-0.668 I0. J-3.315
Y66.471 Z-0.711 I0. J3.315
Y59.842 Z-0.754 I0. J-3.315
Y66.471 Z-0.797 I0. J3.315
Y59.842 Z-0.84 I0. J-3.315
Y66.471 Z-0.882 I0. J3.315
Y59.842 Z-0.925 I0. J-3.315
Y66.471 Z-0.968 I0. J3.315
Y59.842 Z-1.011 I0. J-3.315
Y66.471 Z-1.053 I0. J3.315
Y59.842 Z-1.096 I0. J-3.315
Y66.471 Z-1.139 I0. J3.315
Y59.842 Z-1.182 I0. J-3.315
Y66.471 Z-1.225 I0. J3.315
Y59.842 Z-1.267 I0. J-3.315
Y66.471 Z-1.31 I0. J3.315
Y59.842 Z-1.353 I0. J-3.315
Y66.471 Z-1.396 I0. J3.315
Y59.842 Z-1.439 I0. J-3.315
Y66.471 Z-1.481 I0. J3.315
Y59.842 Z-1.524 I0. J-3.315
Y66.471 Z-1.567 I0. J3.315
Y59.842 Z-1.61 I0. J-3.315
Y66.471 Z-1.652 I0. J3.315
Y59.842 Z-1.695 I0. J-3.315
Y66.471 Z-1.738 I0. J3.315
Y59.842 Z-1.781 I0. J-3.315
Y66.471 Z-1.824 I0. J3.315
Y59.842 Z-1.866 I0. J-3.315
Y66.471 Z-1.909 I0. J3.315
Y59.842 Z-1.952 I0. J-3.315
Y66.471 Z-1.995 I0. J3.315
Y59.842 Z-2.037 I0. J-3.315
Y66.471 Z-2.08 I0. J3.315
Y59.842 Z-2.123 I0. J-3.315
Y66.471 Z-2.166 I0. J3.315
Y59.842 Z-2.209 I0. J-3.315
Y66.471 Z-2.251 I0. J3.315
Y59.842 Z-2.294 I0. J-3.315
Y66.471 Z-2.337 I0. J3.315
Y59.842 Z-2.38 I0. J-3.315
Y66.471 Z-2.422 I0. J3.315
Y59.842 Z-2.465 I0. J-3.315
Y66.471 Z-2.508 I0. J3.315
Y59.842 Z-2.551 I0. J-3.315
Y66.471 Z-2.594 I0. J3.315
Y59.842 Z-2.636 I0. J-3.315
Y66.471 Z-2.679 I0. J3.315
Y59.842 Z-2.722 I0. J-3.315
Y66.471 Z-2.765 I0. J3.315
Y59.842 Z-2.807 I0. J-3.315
Y66.471 Z-2.85 I0. J3.315
Y59.842 Z-2.893 I0. J-3.315
Y66.471 Z-2.936 I0. J3.315
Y59.842 Z-2.979 I0. J-3.315
Y66.471 Z-3.021 I0. J3.315
Y59.842 Z-3.064 I0. J-3.315
Y66.471 Z-3.107 I0. J3.315
Y59.842 Z-3.15 I0. J-3.315
Y66.471 Z-3.193 I0. J3.315
Y59.842 Z-3.235 I0. J-3.315
Y66.471 Z-3.278 I0. J3.315
Y59.842 Z-3.321 I0. J-3.315
Y66.471 Z-3.364 I0. J3.315
Y59.842 Z-3.406 I0. J-3.315
Y66.471 Z-3.449 I0. J3.315
Y59.842 Z-3.492 I0. J-3.315
Y66.471 Z-3.535 I0. J3.315
Y59.842 Z-3.578 I0. J-3.315
Y66.471 Z-3.62 I0. J3.315
Y59.842 Z-3.663 I0. J-3.315
Y66.471 Z-3.706 I0. J3.315
Y59.842 Z-3.749 I0. J-3.315
Y66.471 Z-3.791 I0. J3.315
Y59.842 Z-3.834 I0. J-3.315
Y66.471 Z-3.877 I0. J3.315
Y59.842 Z-3.92 I0. J-3.315
Y66.471 Z-3.963 I0. J3.315
Y59.842 Z-4.005 I0. J-3.315
Y66.471 Z-4.048 I0. J3.315
Y59.842 Z-4.091 I0. J-3.315
Y66.471 Z-4.134 I0. J3.315
X63.86 Y59.862 Z-4.175 I0. J-3.315
X63.14 Y66.452 I-0.36 J3.295
X63.86 Y59.862 I0.36 J-3.295
X63.51 Y60.143 I-0.035 J0.316
G1 X63.493 Y60.301
X63.485 Y60.371 Z-4.167
X63.478 Y60.438 Z-4.144
X63.471 Y60.497 Z-4.106
X63.466 Y60.547 Z-4.055
X63.462 Y60.585 Z-3.995
X63.459 Y60.608 Z-3.928
X63.458 Y60.616 Z-3.858
G0 Z16.

M9
M30
