(1001)
(T1  D=3.175 CR=0. - ZMIN=-4.175 - FLAT END MILL)
G90 G94 G91.1 G40 G49 G17
G21
G0 Z15

(BORE3)
M5
T1 M6
S15000 M3
G54
M8
G0 X63.182 Y64.09
G43 Z16. H1
Z4.
G1 Z2.318 F800.
G19 G3 Y64.408 Z2. J0.317 K0.
G1 Y64.566
G17 G2 X63.5 Y64.884 I0.318 J0.
Y61.43 Z1.971 I0. J-1.727
Y64.884 Z1.942 I0. J1.727
Y61.43 Z1.913 I0. J-1.727
Y64.884 Z1.884 I0. J1.727
Y61.43 Z1.855 I0. J-1.727
Y64.884 Z1.826 I0. J1.727
Y61.43 Z1.798 I0. J-1.727
Y64.884 Z1.769 I0. J1.727
Y61.43 Z1.74 I0. J-1.727
Y64.884 Z1.711 I0. J1.727
Y61.43 Z1.682 I0. J-1.727
Y64.884 Z1.653 I0. J1.727
Y61.43 Z1.624 I0. J-1.727
Y64.884 Z1.595 I0. J1.727
Y61.43 Z1.566 I0. J-1.727
Y64.884 Z1.537 I0. J1.727
Y61.43 Z1.508 I0. J-1.727
Y64.884 Z1.479 I0. J1.727
Y61.43 Z1.45 I0. J-1.727
Y64.884 Z1.421 I0. J1.727
Y61.43 Z1.393 I0. J-1.727
Y64.884 Z1.364 I0. J1.727
Y61.43 Z1.335 I0. J-1.727
Y64.884 Z1.306 I0. J1.727
Y61.43 Z1.277 I0. J-1.727
Y64.884 Z1.248 I0. J1.727
Y61.43 Z1.219 I0. J-1.727
Y64.884 Z1.19 I0. J1.727
Y61.43 Z1.161 I0. J-1.727
Y64.884 Z1.132 I0. J1.727
Y61.43 Z1.103 I0. J-1.727
Y64.884 Z1.074 I0. J1.727
Y61.43 Z1.045 I0. J-1.727
Y64.884 Z1.016 I0. J1.727
Y61.43 Z0.988 I0. J-1.727
Y64.884 Z0.959 I0. J1.727
Y61.43 Z0.93 I0. J-1.727
Y64.884 Z0.901 I0. J1.727
Y61.43 Z0.872 I0. J-1.727
Y64.884 Z0.843 I0. J1.727
Y61.43 Z0.814 I0. J-1.727
Y64.884 Z0.785 I0. J1.727
Y61.43 Z0.756 I0. J-1.727
Y64.884 Z0.727 I0. J1.727
Y61.43 Z0.698 I0. J-1.727
Y64.884 Z0.669 I0. J1.727
Y61.43 Z0.64 I0. J-1.727
Y64.884 Z0.612 I0. J1.727
Y61.43 Z0.583 I0. J-1.727
Y64.884 Z0.554 I0. J1.727
Y61.43 Z0.525 I0. J-1.727
Y64.884 Z0.496 I0. J1.727
Y61.43 Z0.467 I0. J-1.727
Y64.884 Z0.438 I0. J1.727
Y61.43 Z0.409 I0. J-1.727
Y64.884 Z0.38 I0. J1.727
Y61.43 Z0.351 I0. J-1.727
Y64.884 Z0.322 I0. J1.727
Y61.43 Z0.293 I0. J-1.727
Y64.884 Z0.264 I0. J1.727
Y61.43 Z0.235 I0. J-1.727
Y64.884 Z0.207 I0. J1.727
Y61.43 Z0.178 I0. J-1.727
Y64.884 Z0.149 I0. J1.727
Y61.43 Z0.12 I0. J-1.727
Y64.884 Z0.091 I0. J1.727
Y61.43 Z0.062 I0. J-1.727
Y64.884 Z0.033 I0. J1.727
Y61.43 Z0.004 I0. J-1.727
Y64.884 Z-0.025 I0. J1.727
Y61.43 Z-0.054 I0. J-1.727
Y64.884 Z-0.083 I0. J1.727
Y61.43 Z-0.112 I0. J-1.727
Y64.884 Z-0.141 I0. J1.727
Y61.43 Z-0.17 I0. J-1.727
Y64.884 Z-0.198 I0. J1.727
Y61.43 Z-0.227 I0. J-1.727
Y64.884 Z-0.256 I0. J1.727
Y61.43 Z-0.285 I0. J-1.727
Y64.884 Z-0.314 I0. J1.727
Y61.43 Z-0.343 I0. J-1.727
Y64.884 Z-0.372 I0. J1.727
Y61.43 Z-0.401 I0. J-1.727
Y64.884 Z-0.43 I0. J1.727
Y61.43 Z-0.459 I0. J-1.727
Y64.884 Z-0.488 I0. J1.727
Y61.43 Z-0.517 I0. J-1.727
Y64.884 Z-0.546 I0. J1.727
Y61.43 Z-0.574 I0. J-1.727
Y64.884 Z-0.603 I0. J1.727
Y61.43 Z-0.632 I0. J-1.727
Y64.884 Z-0.661 I0. J1.727
Y61.43 Z-0.69 I0. J-1.727
Y64.884 Z-0.719 I0. J1.727
Y61.43 Z-0.748 I0. J-1.727
Y64.884 Z-0.777 I0. J1.727
Y61.43 Z-0.806 I0. J-1.727
Y64.884 Z-0.835 I0. J1.727
Y61.43 Z-0.864 I0. J-1.727
Y64.884 Z-0.893 I0. J1.727
Y61.43 Z-0.922 I0. J-1.727
Y64.884 Z-0.951 I0. J1.727
Y61.43 Z-0.979 I0. J-1.727
Y64.884 Z-1.008 I0. J1.727
Y61.43 Z-1.037 I0. J-1.727
Y64.884 Z-1.066 I0. J1.727
Y61.43 Z-1.095 I0. J-1.727
Y64.884 Z-1.124 I0. J1.727
Y61.43 Z-1.153 I0. J-1.727
Y64.884 Z-1.182 I0. J1.727
Y61.43 Z-1.211 I0. J-1.727
Y64.884 Z-1.24 I0. J1.727
Y61.43 Z-1.269 I0. J-1.727
Y64.884 Z-1.298 I0. J1.727
Y61.43 Z-1.327 I0. J-1.727
Y64.884 Z-1.356 I0. J1.727
Y61.43 Z-1.384 I0. J-1.727
Y64.884 Z-1.413 I0. J1.727
Y61.43 Z-1.442 I0. J-1.727
Y64.884 Z-1.471 I0. J1.727
Y61.43 Z-1.5 I0. J-1.727
Y64.884 Z-1.529 I0. J1.727
Y61.43 Z-1.558 I0. J-1.727
Y64.884 Z-1.587 I0. J1.727
Y61.43 Z-1.616 I0. J-1.727
Y64.884 Z-1.645 I0. J1.727
Y61.43 Z-1.674 I0. J-1.727
Y64.884 Z-1.703 I0. J1.727
Y61.43 Z-1.732 I0. J-1.727
Y64.884 Z-1.761 I0. J1.727
Y61.43 Z-1.789 I0. J-1.727
Y64.884 Z-1.818 I0. J1.727
Y61.43 Z-1.847 I0. J-1.727
Y64.884 Z-1.876 I0. J1.727
Y61.43 Z-1.905 I0. J-1.727
Y64.884 Z-1.934 I0. J1.727
Y61.43 Z-1.963 I0. J-1.727
Y64.884 Z-1.992 I0. J1.727
Y61.43 Z-2.021 I0. J-1.727
Y64.884 Z-2.05 I0. J1.727
Y61.43 Z-2.079 I0. J-1.727
Y64.884 Z-2.108 I0. J1.727
Y61.43 Z-2.137 I0. J-1.727
Y64.884 Z-2.165 I0. J1.727
Y61.43 Z-2.194 I0. J-1.727
Y64.884 Z-2.223 I0. J1.727
Y61.43 Z-2.252 I0. J-1.727
Y64.884 Z-2.281 I0. J1.727
Y61.43 Z-2.31 I0. J-1.727
Y64.884 Z-2.339 I0. J1.727
Y61.43 Z-2.368 I0. J-1.727
Y64.884 Z-2.397 I0. J1.727
Y61.43 Z-2.426 I0. J-1.727
Y64.884 Z-2.455 I0. J1.727
Y61.43 Z-2.484 I0. J-1.727
Y64.884 Z-2.513 I0. J1.727
Y61.43 Z-2.542 I0. J-1.727
Y64.884 Z-2.57 I0. J1.727
Y61.43 Z-2.599 I0. J-1.727
Y64.884 Z-2.628 I0. J1.727
Y61.43 Z-2.657 I0. J-1.727
Y64.884 Z-2.686 I0. J1.727
Y61.43 Z-2.715 I0. J-1.727
Y64.884 Z-2.744 I0. J1.727
Y61.43 Z-2.773 I0. J-1.727
Y64.884 Z-2.802 I0. J1.727
Y61.43 Z-2.831 I0. J-1.727
Y64.884 Z-2.86 I0. J1.727
Y61.43 Z-2.889 I0. J-1.727
Y64.884 Z-2.918 I0. J1.727
Y61.43 Z-2.947 I0. J-1.727
Y64.884 Z-2.975 I0. J1.727
Y61.43 Z-3.004 I0. J-1.727
Y64.884 Z-3.033 I0. J1.727
Y61.43 Z-3.062 I0. J-1.727
Y64.884 Z-3.091 I0. J1.727
Y61.43 Z-3.12 I0. J-1.727
Y64.884 Z-3.149 I0. J1.727
Y61.43 Z-3.178 I0. J-1.727
Y64.884 Z-3.207 I0. J1.727
Y61.43 Z-3.236 I0. J-1.727
Y64.884 Z-3.265 I0. J1.727
Y61.43 Z-3.294 I0. J-1.727
Y64.884 Z-3.323 I0. J1.727
Y61.43 Z-3.351 I0. J-1.727
Y64.884 Z-3.38 I0. J1.727
Y61.43 Z-3.409 I0. J-1.727
Y64.884 Z-3.438 I0. J1.727
Y61.43 Z-3.467 I0. J-1.727
Y64.884 Z-3.496 I0. J1.727
Y61.43 Z-3.525 I0. J-1.727
Y64.884 Z-3.554 I0. J1.727
Y61.43 Z-3.583 I0. J-1.727
Y64.884 Z-3.612 I0. J1.727
Y61.43 Z-3.641 I0. J-1.727
Y64.884 Z-3.67 I0. J1.727
Y61.43 Z-3.699 I0. J-1.727
Y64.884 Z-3.728 I0. J1.727
Y61.43 Z-3.756 I0. J-1.727
Y64.884 Z-3.785 I0. J1.727
Y61.43 Z-3.814 I0. J-1.727
Y64.884 Z-3.843 I0. J1.727
Y61.43 Z-3.872 I0. J-1.727
Y64.884 Z-3.901 I0. J1.727
Y61.43 Z-3.93 I0. J-1.727
Y64.884 Z-3.959 I0. J1.727
Y61.43 Z-3.988 I0. J-1.727
Y64.884 Z-4.017 I0. J1.727
Y61.43 Z-4.046 I0. J-1.727
Y64.884 Z-4.075 I0. J1.727
Y61.43 Z-4.104 I0. J-1.727
Y64.884 Z-4.133 I0. J1.727
Y61.43 Z-4.161 I0. J-1.727
X61.781 Y62.988 Z-4.175 I0. J1.727
X65.219 Y63.326 I1.719 J0.169
X61.781 Y62.988 I-1.719 J-0.169
X62.066 Y63.335 I0.316 J0.031
G1 X62.224 Y63.35
X62.294 Y63.357 Z-4.167
X62.361 Y63.364 Z-4.144
X62.421 Y63.37 Z-4.106
X62.471 Y63.374 Z-4.055
X62.509 Y63.378 Z-3.995
X62.532 Y63.38 Z-3.928
X62.54 Y63.381 Z-3.858
G0 Z6.
X63.182 Y65.678
Z4.
G1 Z2.318 F800.
G19 G3 Y65.995 Z2. J0.318 K0.
G1 Y66.154
G17 G2 X63.5 Y66.471 I0.318 J0.
Y59.842 Z1.957 I0. J-3.315
Y66.471 Z1.914 I0. J3.315
Y59.842 Z1.872 I0. J-3.315
Y66.471 Z1.829 I0. J3.315
Y59.842 Z1.786 I0. J-3.315
Y66.471 Z1.743 I0. J3.315
Y59.842 Z1.701 I0. J-3.315
Y66.471 Z1.658 I0. J3.315
Y59.842 Z1.615 I0. J-3.315
Y66.471 Z1.572 I0. J3.315
Y59.842 Z1.529 I0. J-3.315
Y66.471 Z1.487 I0. J3.315
Y59.842 Z1.444 I0. J-3.315
Y66.471 Z1.401 I0. J3.315
Y59.842 Z1.358 I0. J-3.315
Y66.471 Z1.316 I0. J3.315
Y59.842 Z1.273 I0. J-3.315
Y66.471 Z1.23 I0. J3.315
Y59.842 Z1.187 I0. J-3.315
Y66.471 Z1.144 I0. J3.315
Y59.842 Z1.102 I0. J-3.315
Y66.471 Z1.059 I0. J3.315
Y59.842 Z1.016 I0. J-3.315
Y66.471 Z0.973 I0. J3.315
Y59.842 Z0.93 I0. J-3.315
Y66.471 Z0.888 I0. J3.315
Y59.842 Z0.845 I0. J-3.315
Y66.471 Z0.802 I0. J3.315
Y59.842 Z0.759 I0. J-3.315
Y66.471 Z0.717 I0. J3.315
Y59.842 Z0.674 I0. J-3.315
Y66.471 Z0.631 I0. J3.315
Y59.842 Z0.588 I0. J-3.315
Y66.471 Z0.545 I0. J3.315
Y59.842 Z0.503 I0. J-3.315
Y66.471 Z0.46 I0. J3.315
Y59.842 Z0.417 I0. J-3.315
Y66.471 Z0.374 I0. J3.315
Y59.842 Z0.332 I0. J-3.315
Y66.471 Z0.289 I0. J3.315
Y59.842 Z0.246 I0. J-3.315
Y66.471 Z0.203 I0. J3.315
Y59.842 Z0.16 I0. J-3.315
Y66.471 Z0.118 I0. J3.315
Y59.842 Z0.075 I0. J-3.315
Y66.471 Z0.032 I0. J3.315
Y59.842 Z-0.011 I0. J-3.315
Y66.471 Z-0.053 I0. J3.315
Y59.842 Z-0.096 I0. J-3.315
Y66.471 Z-0.139 I0. J3.315
Y59.842 Z-0.182 I0. J-3.315
Y66.471 Z-0.225 I0. J3.315
Y59.842 Z-0.267 I0. J-3.315
Y66.471 Z-0.31 I0. J3.315
Y59.842 Z-0.353 I0. J-3.315
Y66.471 Z-0.396 I0. J3.315
Y59.842 Z-0.439 I0. J-3.315
Y66.471 Z-0.481 I0. J3.315
Y59.842 Z-0.524 I0. J-3.315
Y66.471 Z-0.567 I0. J3.315
Y59.842 Z-0.61 I0. J-3.315
Y66.471 Z-0.652 I0. J3.315
Y59.842 Z-0.695 I0. J-3.315
Y66.471 Z-0.738 I0. J3.315
Y59.842 Z-0.781 I0. J-3.315
Y66.471 Z-0.824 I0. J3.315
Y59.842 Z-0.866 I0. J-3.315
Y66.471 Z-0.909 I0. J3.315
Y59.842 Z-0.952 I0. J-3.315
Y66.471 Z-0.995 I0. J3.315
Y59.842 Z-1.037 I0. J-3.315
Y66.471 Z-1.08 I0. J3.315
Y59.842 Z-1.123 I0. J-3.315
Y66.471 Z-1.166 I0. J3.315
Y59.842 Z-1.209 I0. J-3.315
Y66.471 Z-1.251 I0. J3.315
Y59.842 Z-1.294 I0. J-3.315
Y66.471 Z-1.337 I0. J3.315
Y59.842 Z-1.38 I0. J-3.315
Y66.471 Z-1.422 I0. J3.315
Y59.842 Z-1.465 I0. J-3.315
Y66.471 Z-1.508 I0. J3.315
Y59.842 Z-1.551 I0. J-3.315
Y66.471 Z-1.594 I0. J3.315
Y59.842 Z-1.636 I0. J-3.315
Y66.471 Z-1.679 I0. J3.315
Y59.842 Z-1.722 I0. J-3.315
Y66.471 Z-1.765 I0. J3.315
Y59.842 Z-1.807 I0. J-3.315
Y66.471 Z-1.85 I0. J3.315
Y59.842 Z-1.893 I0. J-3.315
Y66.471 Z-1.936 I0. J3.315
Y59.842 Z-1.979 I0. J-3.315
Y66.471 Z-2.021 I0. J3.315
Y59.842 Z-2.064 I0. J-3.315
Y66.471 Z-2.107 I0. J3.315
Y59.842 Z-2.15 I0. J-3.315
Y66.471 Z-2.193 I0. J3.315
Y59.842 Z-2.235 I0. J-3.315
Y66.471 Z-2.278 I0. J3.315
Y59.842 Z-2.321 I0. J-3.315
Y66.471 Z-2.364 I0. J3.315
Y59.842 Z-2.406 I0. J-3.315
Y66.471 Z-2.449 I0. J3.315
Y59.842 Z-2.492 I0. J-3.315
Y66.471 Z-2.535 I0. J3.315
Y59.842 Z-2.578 I0. J-3.315
Y66.471 Z-2.62 I0. J3.315
Y59.842 Z-2.663 I0. J-3.315
Y66.471 Z-2.706 I0. J3.315
Y59.842 Z-2.749 I0. J-3.315
Y66.471 Z-2.791 I0. J3.315
Y59.842 Z-2.834 I0. J-3.315
Y66.471 Z-2.877 I0. J3.315
Y59.842 Z-2.92 I0. J-3.315
Y66.471 Z-2.963 I0. J3.315
Y59.842 Z-3.005 I0. J-3.315
Y66.471 Z-3.048 I0. J3.315
Y59.842 Z-3.091 I0. J-3.315
Y66.471 Z-3.134 I0. J3.315
Y59.842 Z-3.176 I0. J-3.315
Y66.471 Z-3.219 I0. J3.315
Y59.842 Z-3.262 I0. J-3.315
Y66.471 Z-3.305 I0. J3.315
Y59.842 Z-3.348 I0. J-3.315
Y66.471 Z-3.39 I0. J3.315
Y59.842 Z-3.433 I0. J-3.315
Y66.471 Z-3.476 I0. J3.315
Y59.842 Z-3.519 I0. J-3.315
Y66.471 Z-3.562 I0. J3.315
Y59.842 Z-3.604 I0. J-3.315
Y66.471 Z-3.647 I0. J3.315
Y59.842 Z-3.69 I0. J-3.315
Y66.471 Z-3.733 I0. J3.315
Y59.842 Z-3.775 I0. J-3.315
Y66.471 Z-3.818 I0. J3.315
Y59.842 Z-3.861 I0. J-3.315
Y66.471 Z-3.904 I0. J3.315
Y59.842 Z-3.947 I0. J-3.315
Y66.471 Z-3.989 I0. J3.315
Y59.842 Z-4.032 I0. J-3.315
Y66.471 Z-4.075 I0. J3.315
Y59.842 Z-4.118 I0. J-3.315
Y66.471 Z-4.16 I0. J3.315
X66.406 Y64.751 Z-4.175 I0. J-3.315
X60.594 Y61.562 I-2.906 J-1.594
X66.406 Y64.751 I2.906 J1.594
X66.28 Y64.32 I-0.278 J-0.153
G1 X66.141 Y64.244
X66.079 Y64.21 Z-4.167
X66.02 Y64.177 Z-4.144
X65.968 Y64.148 Z-4.106
X65.924 Y64.124 Z-4.055
X65.89 Y64.106 Z-3.995
X65.87 Y64.095 Z-3.928
X65.863 Y64.091 Z-3.858
G0 Z16.

M9
M30
