(1001)
(T1  D=0.125 CR=0. - ZMIN=0.125 - FLAT END MILL)
G90 G94 G91.1 G40 G49 G17
G20
g0 z1

(BORE2)
M5
T1 M6
S15000 M3
G54
M8
G0 X0.496 Y0.4977
G43 Z0.54 H1
Z0.3575
G1 Z0.29 F39.4
Y0.504
X0.4963 Y0.5055
X0.4972 Y0.5068
X0.4985 Y0.5077
X0.5 Y0.508
G2 Y0.492 Z0.2888 I0. J-0.008
Y0.508 Z0.2875 I0. J0.008
Y0.492 Z0.2863 I0. J-0.008
Y0.508 Z0.2851 I0. J0.008
Y0.492 Z0.2838 I0. J-0.008
Y0.508 Z0.2826 I0. J0.008
Y0.492 Z0.2814 I0. J-0.008
Y0.508 Z0.2802 I0. J0.008
Y0.492 Z0.2789 I0. J-0.008
Y0.508 Z0.2777 I0. J0.008
Y0.492 Z0.2765 I0. J-0.008
Y0.508 Z0.2752 I0. J0.008
Y0.492 Z0.274 I0. J-0.008
Y0.508 Z0.2728 I0. J0.008
Y0.492 Z0.2715 I0. J-0.008
Y0.508 Z0.2703 I0. J0.008
Y0.492 Z0.2691 I0. J-0.008
Y0.508 Z0.2678 I0. J0.008
Y0.492 Z0.2666 I0. J-0.008
Y0.508 Z0.2654 I0. J0.008
Y0.492 Z0.2642 I0. J-0.008
Y0.508 Z0.2629 I0. J0.008
Y0.492 Z0.2617 I0. J-0.008
Y0.508 Z0.2605 I0. J0.008
Y0.492 Z0.2592 I0. J-0.008
Y0.508 Z0.258 I0. J0.008
Y0.492 Z0.2568 I0. J-0.008
Y0.508 Z0.2555 I0. J0.008
Y0.492 Z0.2543 I0. J-0.008
Y0.508 Z0.2531 I0. J0.008
Y0.492 Z0.2519 I0. J-0.008
Y0.508 Z0.2506 I0. J0.008
Y0.492 Z0.2494 I0. J-0.008
Y0.508 Z0.2482 I0. J0.008
Y0.492 Z0.2469 I0. J-0.008
Y0.508 Z0.2457 I0. J0.008
Y0.492 Z0.2445 I0. J-0.008
Y0.508 Z0.2432 I0. J0.008
Y0.492 Z0.242 I0. J-0.008
Y0.508 Z0.2408 I0. J0.008
Y0.492 Z0.2395 I0. J-0.008
Y0.508 Z0.2383 I0. J0.008
Y0.492 Z0.2371 I0. J-0.008
Y0.508 Z0.2359 I0. J0.008
Y0.492 Z0.2346 I0. J-0.008
Y0.508 Z0.2334 I0. J0.008
Y0.492 Z0.2322 I0. J-0.008
Y0.508 Z0.2309 I0. J0.008
Y0.492 Z0.2297 I0. J-0.008
Y0.508 Z0.2285 I0. J0.008
Y0.492 Z0.2272 I0. J-0.008
Y0.508 Z0.226 I0. J0.008
Y0.492 Z0.2248 I0. J-0.008
Y0.508 Z0.2235 I0. J0.008
Y0.492 Z0.2223 I0. J-0.008
Y0.508 Z0.2211 I0. J0.008
Y0.492 Z0.2199 I0. J-0.008
Y0.508 Z0.2186 I0. J0.008
Y0.492 Z0.2174 I0. J-0.008
Y0.508 Z0.2162 I0. J0.008
Y0.492 Z0.2149 I0. J-0.008
Y0.508 Z0.2137 I0. J0.008
Y0.492 Z0.2125 I0. J-0.008
Y0.508 Z0.2112 I0. J0.008
Y0.492 Z0.21 I0. J-0.008
Y0.508 Z0.2088 I0. J0.008
Y0.492 Z0.2076 I0. J-0.008
Y0.508 Z0.2063 I0. J0.008
Y0.492 Z0.2051 I0. J-0.008
Y0.508 Z0.2039 I0. J0.008
Y0.492 Z0.2026 I0. J-0.008
Y0.508 Z0.2014 I0. J0.008
Y0.492 Z0.2002 I0. J-0.008
Y0.508 Z0.1989 I0. J0.008
Y0.492 Z0.1977 I0. J-0.008
Y0.508 Z0.1965 I0. J0.008
Y0.492 Z0.1952 I0. J-0.008
Y0.508 Z0.194 I0. J0.008
Y0.492 Z0.1928 I0. J-0.008
Y0.508 Z0.1916 I0. J0.008
Y0.492 Z0.1903 I0. J-0.008
Y0.508 Z0.1891 I0. J0.008
Y0.492 Z0.1879 I0. J-0.008
Y0.508 Z0.1866 I0. J0.008
Y0.492 Z0.1854 I0. J-0.008
Y0.508 Z0.1842 I0. J0.008
Y0.492 Z0.1829 I0. J-0.008
Y0.508 Z0.1817 I0. J0.008
Y0.492 Z0.1805 I0. J-0.008
Y0.508 Z0.1792 I0. J0.008
Y0.492 Z0.178 I0. J-0.008
Y0.508 Z0.1768 I0. J0.008
Y0.492 Z0.1756 I0. J-0.008
Y0.508 Z0.1743 I0. J0.008
Y0.492 Z0.1731 I0. J-0.008
Y0.508 Z0.1719 I0. J0.008
Y0.492 Z0.1706 I0. J-0.008
Y0.508 Z0.1694 I0. J0.008
Y0.492 Z0.1682 I0. J-0.008
Y0.508 Z0.1669 I0. J0.008
Y0.492 Z0.1657 I0. J-0.008
Y0.508 Z0.1645 I0. J0.008
Y0.492 Z0.1633 I0. J-0.008
Y0.508 Z0.162 I0. J0.008
Y0.492 Z0.1608 I0. J-0.008
Y0.508 Z0.1596 I0. J0.008
Y0.492 Z0.1583 I0. J-0.008
Y0.508 Z0.1571 I0. J0.008
Y0.492 Z0.1559 I0. J-0.008
Y0.508 Z0.1546 I0. J0.008
Y0.492 Z0.1534 I0. J-0.008
Y0.508 Z0.1522 I0. J0.008
Y0.492 Z0.1509 I0. J-0.008
Y0.508 Z0.1497 I0. J0.008
Y0.492 Z0.1485 I0. J-0.008
Y0.508 Z0.1473 I0. J0.008
Y0.492 Z0.146 I0. J-0.008
Y0.508 Z0.1448 I0. J0.008
Y0.492 Z0.1436 I0. J-0.008
Y0.508 Z0.1423 I0. J0.008
Y0.492 Z0.1411 I0. J-0.008
Y0.508 Z0.1399 I0. J0.008
Y0.492 Z0.1386 I0. J-0.008
Y0.508 Z0.1374 I0. J0.008
Y0.492 Z0.1362 I0. J-0.008
Y0.508 Z0.1349 I0. J0.008
Y0.492 Z0.1337 I0. J-0.008
Y0.508 Z0.1325 I0. J0.008
Y0.492 Z0.1313 I0. J-0.008
Y0.508 Z0.13 I0. J0.008
Y0.492 Z0.1288 I0. J-0.008
Y0.508 Z0.1276 I0. J0.008
Y0.492 Z0.1263 I0. J-0.008
X0.4921 Y0.501 Z0.1257 I0. J0.008
X0.5021 Y0.5077 Z0.125 I0.0079 J-0.001
X0.4979 Y0.4923 I-0.0021 J-0.0077
X0.5021 Y0.5077 I0.0021 J0.0077
G1 X0.5035 Y0.507
X0.5045 Y0.5059
X0.505 Y0.5044
X0.5049 Y0.5028
X0.5033 Y0.4968
G0 Z0.54
X0.4875 Y0.5392
Z0.37
G1 Z0.3025 F39.4
G19 G3 Y0.5518 Z0.29 J0.0125 K0.
G1 Y0.558
G17 G2 X0.5 Y0.5705 I0.0125 J0.
Y0.4295 Z0.2877 I0. J-0.0705
Y0.5705 Z0.2854 I0. J0.0705
Y0.4295 Z0.283 I0. J-0.0705
Y0.5705 Z0.2807 I0. J0.0705
Y0.4295 Z0.2784 I0. J-0.0705
Y0.5705 Z0.2761 I0. J0.0705
Y0.4295 Z0.2737 I0. J-0.0705
Y0.5705 Z0.2714 I0. J0.0705
Y0.4295 Z0.2691 I0. J-0.0705
Y0.5705 Z0.2668 I0. J0.0705
Y0.4295 Z0.2645 I0. J-0.0705
Y0.5705 Z0.2621 I0. J0.0705
Y0.4295 Z0.2598 I0. J-0.0705
Y0.5705 Z0.2575 I0. J0.0705
Y0.4295 Z0.2552 I0. J-0.0705
Y0.5705 Z0.2529 I0. J0.0705
Y0.4295 Z0.2505 I0. J-0.0705
Y0.5705 Z0.2482 I0. J0.0705
Y0.4295 Z0.2459 I0. J-0.0705
Y0.5705 Z0.2436 I0. J0.0705
Y0.4295 Z0.2412 I0. J-0.0705
Y0.5705 Z0.2389 I0. J0.0705
Y0.4295 Z0.2366 I0. J-0.0705
Y0.5705 Z0.2343 I0. J0.0705
Y0.4295 Z0.232 I0. J-0.0705
Y0.5705 Z0.2296 I0. J0.0705
Y0.4295 Z0.2273 I0. J-0.0705
Y0.5705 Z0.225 I0. J0.0705
Y0.4295 Z0.2227 I0. J-0.0705
Y0.5705 Z0.2204 I0. J0.0705
Y0.4295 Z0.218 I0. J-0.0705
Y0.5705 Z0.2157 I0. J0.0705
Y0.4295 Z0.2134 I0. J-0.0705
Y0.5705 Z0.2111 I0. J0.0705
Y0.4295 Z0.2087 I0. J-0.0705
Y0.5705 Z0.2064 I0. J0.0705
Y0.4295 Z0.2041 I0. J-0.0705
Y0.5705 Z0.2018 I0. J0.0705
Y0.4295 Z0.1995 I0. J-0.0705
Y0.5705 Z0.1971 I0. J0.0705
Y0.4295 Z0.1948 I0. J-0.0705
Y0.5705 Z0.1925 I0. J0.0705
Y0.4295 Z0.1902 I0. J-0.0705
Y0.5705 Z0.1879 I0. J0.0705
Y0.4295 Z0.1855 I0. J-0.0705
Y0.5705 Z0.1832 I0. J0.0705
Y0.4295 Z0.1809 I0. J-0.0705
Y0.5705 Z0.1786 I0. J0.0705
Y0.4295 Z0.1762 I0. J-0.0705
Y0.5705 Z0.1739 I0. J0.0705
Y0.4295 Z0.1716 I0. J-0.0705
Y0.5705 Z0.1693 I0. J0.0705
Y0.4295 Z0.167 I0. J-0.0705
Y0.5705 Z0.1646 I0. J0.0705
Y0.4295 Z0.1623 I0. J-0.0705
Y0.5705 Z0.16 I0. J0.0705
Y0.4295 Z0.1577 I0. J-0.0705
Y0.5705 Z0.1554 I0. J0.0705
Y0.4295 Z0.153 I0. J-0.0705
Y0.5705 Z0.1507 I0. J0.0705
Y0.4295 Z0.1484 I0. J-0.0705
Y0.5705 Z0.1461 I0. J0.0705
Y0.4295 Z0.1437 I0. J-0.0705
Y0.5705 Z0.1414 I0. J0.0705
Y0.4295 Z0.1391 I0. J-0.0705
Y0.5705 Z0.1368 I0. J0.0705
Y0.4295 Z0.1345 I0. J-0.0705
Y0.5705 Z0.1321 I0. J0.0705
Y0.4295 Z0.1298 I0. J-0.0705
Y0.5705 Z0.1275 I0. J0.0705
X0.57 Y0.4918 Z0.1262 I0. J-0.0705
X0.4838 Y0.4314 Z0.125 I-0.07 J0.0082
X0.5162 Y0.5686 I0.0162 J0.0686
X0.4838 Y0.4314 I-0.0162 J-0.0686
X0.4745 Y0.4464 I0.0029 J0.0122
G1 X0.4759 Y0.4525
X0.4766 Y0.4552 Z0.1253
X0.4772 Y0.4578 Z0.1262
X0.4777 Y0.4601 Z0.1277
X0.4782 Y0.462 Z0.1297
X0.4785 Y0.4635 Z0.1321
X0.4787 Y0.4644 Z0.1347
X0.4788 Y0.4647 Z0.1375
G0 Z0.54
X0.496 Y1.7392
Z0.3575
G1 Z0.29 F39.4
Y1.7454
X0.4963 Y1.7469
X0.4972 Y1.7482
X0.4985 Y1.7491
X0.5 Y1.7494
G2 Y1.7334 Z0.2888 I0. J-0.008
Y1.7494 Z0.2875 I0. J0.008
Y1.7334 Z0.2863 I0. J-0.008
Y1.7494 Z0.2851 I0. J0.008
Y1.7334 Z0.2838 I0. J-0.008
Y1.7494 Z0.2826 I0. J0.008
Y1.7334 Z0.2814 I0. J-0.008
Y1.7494 Z0.2802 I0. J0.008
Y1.7334 Z0.2789 I0. J-0.008
Y1.7494 Z0.2777 I0. J0.008
Y1.7334 Z0.2765 I0. J-0.008
Y1.7494 Z0.2752 I0. J0.008
Y1.7334 Z0.274 I0. J-0.008
Y1.7494 Z0.2728 I0. J0.008
Y1.7334 Z0.2715 I0. J-0.008
Y1.7494 Z0.2703 I0. J0.008
Y1.7334 Z0.2691 I0. J-0.008
Y1.7494 Z0.2678 I0. J0.008
Y1.7334 Z0.2666 I0. J-0.008
Y1.7494 Z0.2654 I0. J0.008
Y1.7334 Z0.2642 I0. J-0.008
Y1.7494 Z0.2629 I0. J0.008
Y1.7334 Z0.2617 I0. J-0.008
Y1.7494 Z0.2605 I0. J0.008
Y1.7334 Z0.2592 I0. J-0.008
Y1.7494 Z0.258 I0. J0.008
Y1.7334 Z0.2568 I0. J-0.008
Y1.7494 Z0.2555 I0. J0.008
Y1.7334 Z0.2543 I0. J-0.008
Y1.7494 Z0.2531 I0. J0.008
Y1.7334 Z0.2519 I0. J-0.008
Y1.7494 Z0.2506 I0. J0.008
Y1.7334 Z0.2494 I0. J-0.008
Y1.7494 Z0.2482 I0. J0.008
Y1.7334 Z0.2469 I0. J-0.008
Y1.7494 Z0.2457 I0. J0.008
Y1.7334 Z0.2445 I0. J-0.008
Y1.7494 Z0.2432 I0. J0.008
Y1.7334 Z0.242 I0. J-0.008
Y1.7494 Z0.2408 I0. J0.008
Y1.7334 Z0.2395 I0. J-0.008
Y1.7494 Z0.2383 I0. J0.008
Y1.7334 Z0.2371 I0. J-0.008
Y1.7494 Z0.2359 I0. J0.008
Y1.7334 Z0.2346 I0. J-0.008
Y1.7494 Z0.2334 I0. J0.008
Y1.7334 Z0.2322 I0. J-0.008
Y1.7494 Z0.2309 I0. J0.008
Y1.7334 Z0.2297 I0. J-0.008
Y1.7494 Z0.2285 I0. J0.008
Y1.7334 Z0.2272 I0. J-0.008
Y1.7494 Z0.226 I0. J0.008
Y1.7334 Z0.2248 I0. J-0.008
Y1.7494 Z0.2235 I0. J0.008
Y1.7334 Z0.2223 I0. J-0.008
Y1.7494 Z0.2211 I0. J0.008
Y1.7334 Z0.2199 I0. J-0.008
Y1.7494 Z0.2186 I0. J0.008
Y1.7334 Z0.2174 I0. J-0.008
Y1.7494 Z0.2162 I0. J0.008
Y1.7334 Z0.2149 I0. J-0.008
Y1.7494 Z0.2137 I0. J0.008
Y1.7334 Z0.2125 I0. J-0.008
Y1.7494 Z0.2112 I0. J0.008
Y1.7334 Z0.21 I0. J-0.008
Y1.7494 Z0.2088 I0. J0.008
Y1.7334 Z0.2076 I0. J-0.008
Y1.7494 Z0.2063 I0. J0.008
Y1.7334 Z0.2051 I0. J-0.008
Y1.7494 Z0.2039 I0. J0.008
Y1.7334 Z0.2026 I0. J-0.008
Y1.7494 Z0.2014 I0. J0.008
Y1.7334 Z0.2002 I0. J-0.008
Y1.7494 Z0.1989 I0. J0.008
Y1.7334 Z0.1977 I0. J-0.008
Y1.7494 Z0.1965 I0. J0.008
Y1.7334 Z0.1952 I0. J-0.008
Y1.7494 Z0.194 I0. J0.008
Y1.7334 Z0.1928 I0. J-0.008
Y1.7494 Z0.1916 I0. J0.008
Y1.7334 Z0.1903 I0. J-0.008
Y1.7494 Z0.1891 I0. J0.008
Y1.7334 Z0.1879 I0. J-0.008
Y1.7494 Z0.1866 I0. J0.008
Y1.7334 Z0.1854 I0. J-0.008
Y1.7494 Z0.1842 I0. J0.008
Y1.7334 Z0.1829 I0. J-0.008
Y1.7494 Z0.1817 I0. J0.008
Y1.7334 Z0.1805 I0. J-0.008
Y1.7494 Z0.1792 I0. J0.008
Y1.7334 Z0.178 I0. J-0.008
Y1.7494 Z0.1768 I0. J0.008
Y1.7334 Z0.1756 I0. J-0.008
Y1.7494 Z0.1743 I0. J0.008
Y1.7334 Z0.1731 I0. J-0.008
Y1.7494 Z0.1719 I0. J0.008
Y1.7334 Z0.1706 I0. J-0.008
Y1.7494 Z0.1694 I0. J0.008
Y1.7334 Z0.1682 I0. J-0.008
Y1.7494 Z0.1669 I0. J0.008
Y1.7334 Z0.1657 I0. J-0.008
Y1.7494 Z0.1645 I0. J0.008
Y1.7334 Z0.1633 I0. J-0.008
Y1.7494 Z0.162 I0. J0.008
Y1.7334 Z0.1608 I0. J-0.008
Y1.7494 Z0.1596 I0. J0.008
Y1.7334 Z0.1583 I0. J-0.008
Y1.7494 Z0.1571 I0. J0.008
Y1.7334 Z0.1559 I0. J-0.008
Y1.7494 Z0.1546 I0. J0.008
Y1.7334 Z0.1534 I0. J-0.008
Y1.7494 Z0.1522 I0. J0.008
Y1.7334 Z0.1509 I0. J-0.008
Y1.7494 Z0.1497 I0. J0.008
Y1.7334 Z0.1485 I0. J-0.008
Y1.7494 Z0.1473 I0. J0.008
Y1.7334 Z0.146 I0. J-0.008
Y1.7494 Z0.1448 I0. J0.008
Y1.7334 Z0.1436 I0. J-0.008
Y1.7494 Z0.1423 I0. J0.008
Y1.7334 Z0.1411 I0. J-0.008
Y1.7494 Z0.1399 I0. J0.008
Y1.7334 Z0.1386 I0. J-0.008
Y1.7494 Z0.1374 I0. J0.008
Y1.7334 Z0.1362 I0. J-0.008
Y1.7494 Z0.1349 I0. J0.008
Y1.7334 Z0.1337 I0. J-0.008
Y1.7494 Z0.1325 I0. J0.008
Y1.7334 Z0.1313 I0. J-0.008
Y1.7494 Z0.13 I0. J0.008
Y1.7334 Z0.1288 I0. J-0.008
Y1.7494 Z0.1276 I0. J0.008
Y1.7334 Z0.1263 I0. J-0.008
X0.4921 Y1.7425 Z0.1257 I0. J0.008
X0.5021 Y1.7491 Z0.125 I0.0079 J-0.001
X0.4979 Y1.7337 I-0.0021 J-0.0077
X0.5021 Y1.7491 I0.0021 J0.0077
G1 X0.5035 Y1.7485
X0.5045 Y1.7473
X0.505 Y1.7458
X0.5049 Y1.7443
X0.5033 Y1.7382
G0 Z0.54
X0.4875 Y1.7807
Z0.37
G1 Z0.3025 F39.4
G19 G3 Y1.7932 Z0.29 J0.0125 K0.
G1 Y1.7994
G17 G2 X0.5 Y1.8119 I0.0125 J0.
Y1.6709 Z0.2877 I0. J-0.0705
Y1.8119 Z0.2854 I0. J0.0705
Y1.6709 Z0.283 I0. J-0.0705
Y1.8119 Z0.2807 I0. J0.0705
Y1.6709 Z0.2784 I0. J-0.0705
Y1.8119 Z0.2761 I0. J0.0705
Y1.6709 Z0.2737 I0. J-0.0705
Y1.8119 Z0.2714 I0. J0.0705
Y1.6709 Z0.2691 I0. J-0.0705
Y1.8119 Z0.2668 I0. J0.0705
Y1.6709 Z0.2645 I0. J-0.0705
Y1.8119 Z0.2621 I0. J0.0705
Y1.6709 Z0.2598 I0. J-0.0705
Y1.8119 Z0.2575 I0. J0.0705
Y1.6709 Z0.2552 I0. J-0.0705
Y1.8119 Z0.2529 I0. J0.0705
Y1.6709 Z0.2505 I0. J-0.0705
Y1.8119 Z0.2482 I0. J0.0705
Y1.6709 Z0.2459 I0. J-0.0705
Y1.8119 Z0.2436 I0. J0.0705
Y1.6709 Z0.2412 I0. J-0.0705
Y1.8119 Z0.2389 I0. J0.0705
Y1.6709 Z0.2366 I0. J-0.0705
Y1.8119 Z0.2343 I0. J0.0705
Y1.6709 Z0.232 I0. J-0.0705
Y1.8119 Z0.2296 I0. J0.0705
Y1.6709 Z0.2273 I0. J-0.0705
Y1.8119 Z0.225 I0. J0.0705
Y1.6709 Z0.2227 I0. J-0.0705
Y1.8119 Z0.2204 I0. J0.0705
Y1.6709 Z0.218 I0. J-0.0705
Y1.8119 Z0.2157 I0. J0.0705
Y1.6709 Z0.2134 I0. J-0.0705
Y1.8119 Z0.2111 I0. J0.0705
Y1.6709 Z0.2087 I0. J-0.0705
Y1.8119 Z0.2064 I0. J0.0705
Y1.6709 Z0.2041 I0. J-0.0705
Y1.8119 Z0.2018 I0. J0.0705
Y1.6709 Z0.1995 I0. J-0.0705
Y1.8119 Z0.1971 I0. J0.0705
Y1.6709 Z0.1948 I0. J-0.0705
Y1.8119 Z0.1925 I0. J0.0705
Y1.6709 Z0.1902 I0. J-0.0705
Y1.8119 Z0.1879 I0. J0.0705
Y1.6709 Z0.1855 I0. J-0.0705
Y1.8119 Z0.1832 I0. J0.0705
Y1.6709 Z0.1809 I0. J-0.0705
Y1.8119 Z0.1786 I0. J0.0705
Y1.6709 Z0.1762 I0. J-0.0705
Y1.8119 Z0.1739 I0. J0.0705
Y1.6709 Z0.1716 I0. J-0.0705
Y1.8119 Z0.1693 I0. J0.0705
Y1.6709 Z0.167 I0. J-0.0705
Y1.8119 Z0.1646 I0. J0.0705
Y1.6709 Z0.1623 I0. J-0.0705
Y1.8119 Z0.16 I0. J0.0705
Y1.6709 Z0.1577 I0. J-0.0705
Y1.8119 Z0.1554 I0. J0.0705
Y1.6709 Z0.153 I0. J-0.0705
Y1.8119 Z0.1507 I0. J0.0705
Y1.6709 Z0.1484 I0. J-0.0705
Y1.8119 Z0.1461 I0. J0.0705
Y1.6709 Z0.1437 I0. J-0.0705
Y1.8119 Z0.1414 I0. J0.0705
Y1.6709 Z0.1391 I0. J-0.0705
Y1.8119 Z0.1368 I0. J0.0705
Y1.6709 Z0.1345 I0. J-0.0705
Y1.8119 Z0.1321 I0. J0.0705
Y1.6709 Z0.1298 I0. J-0.0705
Y1.8119 Z0.1275 I0. J0.0705
X0.57 Y1.7332 Z0.1262 I0. J-0.0705
X0.4838 Y1.6728 Z0.125 I-0.07 J0.0082
X0.5162 Y1.81 I0.0162 J0.0686
X0.4838 Y1.6728 I-0.0162 J-0.0686
X0.4745 Y1.6879 I0.0029 J0.0122
G1 X0.4759 Y1.6939
X0.4766 Y1.6966 Z0.1253
X0.4772 Y1.6992 Z0.1262
X0.4777 Y1.7015 Z0.1277
X0.4782 Y1.7035 Z0.1297
X0.4785 Y1.7049 Z0.1321
X0.4787 Y1.7058 Z0.1347
X0.4788 Y1.7061 Z0.1375
G0 Z0.54
X0.496 Y2.9806
Z0.3575
G1 Z0.29 F39.4
Y2.9868
X0.4963 Y2.9884
X0.4972 Y2.9897
X0.4985 Y2.9905
X0.5 Y2.9908
G2 Y2.9748 Z0.2888 I0. J-0.008
Y2.9908 Z0.2875 I0. J0.008
Y2.9748 Z0.2863 I0. J-0.008
Y2.9908 Z0.2851 I0. J0.008
Y2.9748 Z0.2838 I0. J-0.008
Y2.9908 Z0.2826 I0. J0.008
Y2.9748 Z0.2814 I0. J-0.008
Y2.9908 Z0.2802 I0. J0.008
Y2.9748 Z0.2789 I0. J-0.008
Y2.9908 Z0.2777 I0. J0.008
Y2.9748 Z0.2765 I0. J-0.008
Y2.9908 Z0.2752 I0. J0.008
Y2.9748 Z0.274 I0. J-0.008
Y2.9908 Z0.2728 I0. J0.008
Y2.9748 Z0.2715 I0. J-0.008
Y2.9908 Z0.2703 I0. J0.008
Y2.9748 Z0.2691 I0. J-0.008
Y2.9908 Z0.2678 I0. J0.008
Y2.9748 Z0.2666 I0. J-0.008
Y2.9908 Z0.2654 I0. J0.008
Y2.9748 Z0.2642 I0. J-0.008
Y2.9908 Z0.2629 I0. J0.008
Y2.9748 Z0.2617 I0. J-0.008
Y2.9908 Z0.2605 I0. J0.008
Y2.9748 Z0.2592 I0. J-0.008
Y2.9908 Z0.258 I0. J0.008
Y2.9748 Z0.2568 I0. J-0.008
Y2.9908 Z0.2555 I0. J0.008
Y2.9748 Z0.2543 I0. J-0.008
Y2.9908 Z0.2531 I0. J0.008
Y2.9748 Z0.2519 I0. J-0.008
Y2.9908 Z0.2506 I0. J0.008
Y2.9748 Z0.2494 I0. J-0.008
Y2.9908 Z0.2482 I0. J0.008
Y2.9748 Z0.2469 I0. J-0.008
Y2.9908 Z0.2457 I0. J0.008
Y2.9748 Z0.2445 I0. J-0.008
Y2.9908 Z0.2432 I0. J0.008
Y2.9748 Z0.242 I0. J-0.008
Y2.9908 Z0.2408 I0. J0.008
Y2.9748 Z0.2395 I0. J-0.008
Y2.9908 Z0.2383 I0. J0.008
Y2.9748 Z0.2371 I0. J-0.008
Y2.9908 Z0.2359 I0. J0.008
Y2.9748 Z0.2346 I0. J-0.008
Y2.9908 Z0.2334 I0. J0.008
Y2.9748 Z0.2322 I0. J-0.008
Y2.9908 Z0.2309 I0. J0.008
Y2.9748 Z0.2297 I0. J-0.008
Y2.9908 Z0.2285 I0. J0.008
Y2.9748 Z0.2272 I0. J-0.008
Y2.9908 Z0.226 I0. J0.008
Y2.9748 Z0.2248 I0. J-0.008
Y2.9908 Z0.2235 I0. J0.008
Y2.9748 Z0.2223 I0. J-0.008
Y2.9908 Z0.2211 I0. J0.008
Y2.9748 Z0.2199 I0. J-0.008
Y2.9908 Z0.2186 I0. J0.008
Y2.9748 Z0.2174 I0. J-0.008
Y2.9908 Z0.2162 I0. J0.008
Y2.9748 Z0.2149 I0. J-0.008
Y2.9908 Z0.2137 I0. J0.008
Y2.9748 Z0.2125 I0. J-0.008
Y2.9908 Z0.2112 I0. J0.008
Y2.9748 Z0.21 I0. J-0.008
Y2.9908 Z0.2088 I0. J0.008
Y2.9748 Z0.2076 I0. J-0.008
Y2.9908 Z0.2063 I0. J0.008
Y2.9748 Z0.2051 I0. J-0.008
Y2.9908 Z0.2039 I0. J0.008
Y2.9748 Z0.2026 I0. J-0.008
Y2.9908 Z0.2014 I0. J0.008
Y2.9748 Z0.2002 I0. J-0.008
Y2.9908 Z0.1989 I0. J0.008
Y2.9748 Z0.1977 I0. J-0.008
Y2.9908 Z0.1965 I0. J0.008
Y2.9748 Z0.1952 I0. J-0.008
Y2.9908 Z0.194 I0. J0.008
Y2.9748 Z0.1928 I0. J-0.008
Y2.9908 Z0.1916 I0. J0.008
Y2.9748 Z0.1903 I0. J-0.008
Y2.9908 Z0.1891 I0. J0.008
Y2.9748 Z0.1879 I0. J-0.008
Y2.9908 Z0.1866 I0. J0.008
Y2.9748 Z0.1854 I0. J-0.008
Y2.9908 Z0.1842 I0. J0.008
Y2.9748 Z0.1829 I0. J-0.008
Y2.9908 Z0.1817 I0. J0.008
Y2.9748 Z0.1805 I0. J-0.008
Y2.9908 Z0.1792 I0. J0.008
Y2.9748 Z0.178 I0. J-0.008
Y2.9908 Z0.1768 I0. J0.008
Y2.9748 Z0.1756 I0. J-0.008
Y2.9908 Z0.1743 I0. J0.008
Y2.9748 Z0.1731 I0. J-0.008
Y2.9908 Z0.1719 I0. J0.008
Y2.9748 Z0.1706 I0. J-0.008
Y2.9908 Z0.1694 I0. J0.008
Y2.9748 Z0.1682 I0. J-0.008
Y2.9908 Z0.1669 I0. J0.008
Y2.9748 Z0.1657 I0. J-0.008
Y2.9908 Z0.1645 I0. J0.008
Y2.9748 Z0.1633 I0. J-0.008
Y2.9908 Z0.162 I0. J0.008
Y2.9748 Z0.1608 I0. J-0.008
Y2.9908 Z0.1596 I0. J0.008
Y2.9748 Z0.1583 I0. J-0.008
Y2.9908 Z0.1571 I0. J0.008
Y2.9748 Z0.1559 I0. J-0.008
Y2.9908 Z0.1546 I0. J0.008
Y2.9748 Z0.1534 I0. J-0.008
Y2.9908 Z0.1522 I0. J0.008
Y2.9748 Z0.1509 I0. J-0.008
Y2.9908 Z0.1497 I0. J0.008
Y2.9748 Z0.1485 I0. J-0.008
Y2.9908 Z0.1473 I0. J0.008
Y2.9748 Z0.146 I0. J-0.008
Y2.9908 Z0.1448 I0. J0.008
Y2.9748 Z0.1436 I0. J-0.008
Y2.9908 Z0.1423 I0. J0.008
Y2.9748 Z0.1411 I0. J-0.008
Y2.9908 Z0.1399 I0. J0.008
Y2.9748 Z0.1386 I0. J-0.008
Y2.9908 Z0.1374 I0. J0.008
Y2.9748 Z0.1362 I0. J-0.008
Y2.9908 Z0.1349 I0. J0.008
Y2.9748 Z0.1337 I0. J-0.008
Y2.9908 Z0.1325 I0. J0.008
Y2.9748 Z0.1313 I0. J-0.008
Y2.9908 Z0.13 I0. J0.008
Y2.9748 Z0.1288 I0. J-0.008
Y2.9908 Z0.1276 I0. J0.008
Y2.9748 Z0.1263 I0. J-0.008
X0.4921 Y2.9839 Z0.1257 I0. J0.008
X0.5021 Y2.9906 Z0.125 I0.0079 J-0.001
X0.4979 Y2.9751 I-0.0021 J-0.0077
X0.5021 Y2.9906 I0.0021 J0.0077
G1 X0.5035 Y2.9899
X0.5045 Y2.9887
X0.505 Y2.9872
X0.5049 Y2.9857
X0.5033 Y2.9796
G0 Z0.54
X0.4875 Y3.0221
Z0.37
G1 Z0.3025 F39.4
G19 G3 Y3.0346 Z0.29 J0.0125 K0.
G1 Y3.0408
G17 G2 X0.5 Y3.0533 I0.0125 J0.
Y2.9123 Z0.2877 I0. J-0.0705
Y3.0533 Z0.2854 I0. J0.0705
Y2.9123 Z0.283 I0. J-0.0705
Y3.0533 Z0.2807 I0. J0.0705
Y2.9123 Z0.2784 I0. J-0.0705
Y3.0533 Z0.2761 I0. J0.0705
Y2.9123 Z0.2737 I0. J-0.0705
Y3.0533 Z0.2714 I0. J0.0705
Y2.9123 Z0.2691 I0. J-0.0705
Y3.0533 Z0.2668 I0. J0.0705
Y2.9123 Z0.2645 I0. J-0.0705
Y3.0533 Z0.2621 I0. J0.0705
Y2.9123 Z0.2598 I0. J-0.0705
Y3.0533 Z0.2575 I0. J0.0705
Y2.9123 Z0.2552 I0. J-0.0705
Y3.0533 Z0.2529 I0. J0.0705
Y2.9123 Z0.2505 I0. J-0.0705
Y3.0533 Z0.2482 I0. J0.0705
Y2.9123 Z0.2459 I0. J-0.0705
Y3.0533 Z0.2436 I0. J0.0705
Y2.9123 Z0.2412 I0. J-0.0705
Y3.0533 Z0.2389 I0. J0.0705
Y2.9123 Z0.2366 I0. J-0.0705
Y3.0533 Z0.2343 I0. J0.0705
Y2.9123 Z0.232 I0. J-0.0705
Y3.0533 Z0.2296 I0. J0.0705
Y2.9123 Z0.2273 I0. J-0.0705
Y3.0533 Z0.225 I0. J0.0705
Y2.9123 Z0.2227 I0. J-0.0705
Y3.0533 Z0.2204 I0. J0.0705
Y2.9123 Z0.218 I0. J-0.0705
Y3.0533 Z0.2157 I0. J0.0705
Y2.9123 Z0.2134 I0. J-0.0705
Y3.0533 Z0.2111 I0. J0.0705
Y2.9123 Z0.2087 I0. J-0.0705
Y3.0533 Z0.2064 I0. J0.0705
Y2.9123 Z0.2041 I0. J-0.0705
Y3.0533 Z0.2018 I0. J0.0705
Y2.9123 Z0.1995 I0. J-0.0705
Y3.0533 Z0.1971 I0. J0.0705
Y2.9123 Z0.1948 I0. J-0.0705
Y3.0533 Z0.1925 I0. J0.0705
Y2.9123 Z0.1902 I0. J-0.0705
Y3.0533 Z0.1879 I0. J0.0705
Y2.9123 Z0.1855 I0. J-0.0705
Y3.0533 Z0.1832 I0. J0.0705
Y2.9123 Z0.1809 I0. J-0.0705
Y3.0533 Z0.1786 I0. J0.0705
Y2.9123 Z0.1762 I0. J-0.0705
Y3.0533 Z0.1739 I0. J0.0705
Y2.9123 Z0.1716 I0. J-0.0705
Y3.0533 Z0.1693 I0. J0.0705
Y2.9123 Z0.167 I0. J-0.0705
Y3.0533 Z0.1646 I0. J0.0705
Y2.9123 Z0.1623 I0. J-0.0705
Y3.0533 Z0.16 I0. J0.0705
Y2.9123 Z0.1577 I0. J-0.0705
Y3.0533 Z0.1554 I0. J0.0705
Y2.9123 Z0.153 I0. J-0.0705
Y3.0533 Z0.1507 I0. J0.0705
Y2.9123 Z0.1484 I0. J-0.0705
Y3.0533 Z0.1461 I0. J0.0705
Y2.9123 Z0.1437 I0. J-0.0705
Y3.0533 Z0.1414 I0. J0.0705
Y2.9123 Z0.1391 I0. J-0.0705
Y3.0533 Z0.1368 I0. J0.0705
Y2.9123 Z0.1345 I0. J-0.0705
Y3.0533 Z0.1321 I0. J0.0705
Y2.9123 Z0.1298 I0. J-0.0705
Y3.0533 Z0.1275 I0. J0.0705
X0.57 Y2.9747 Z0.1262 I0. J-0.0705
X0.4838 Y2.9142 Z0.125 I-0.07 J0.0082
X0.5162 Y3.0514 I0.0162 J0.0686
X0.4838 Y2.9142 I-0.0162 J-0.0686
X0.4745 Y2.9293 I0.0029 J0.0122
G1 X0.4759 Y2.9354
X0.4766 Y2.9381 Z0.1253
X0.4772 Y2.9406 Z0.1262
X0.4777 Y2.9429 Z0.1277
X0.4782 Y2.9449 Z0.1297
X0.4785 Y2.9463 Z0.1321
X0.4787 Y2.9472 Z0.1347
X0.4788 Y2.9475 Z0.1375
G0 Z0.54
X1.8902 Y2.2897
Z0.3575
G1 Z0.29 F39.4
Y2.296
X1.8905 Y2.2975
X1.8914 Y2.2988
X1.8927 Y2.2997
X1.8942 Y2.3
G2 Y2.284 Z0.2888 I0. J-0.008
Y2.3 Z0.2875 I0. J0.008
Y2.284 Z0.2863 I0. J-0.008
Y2.3 Z0.2851 I0. J0.008
Y2.284 Z0.2838 I0. J-0.008
Y2.3 Z0.2826 I0. J0.008
Y2.284 Z0.2814 I0. J-0.008
Y2.3 Z0.2802 I0. J0.008
Y2.284 Z0.2789 I0. J-0.008
Y2.3 Z0.2777 I0. J0.008
Y2.284 Z0.2765 I0. J-0.008
Y2.3 Z0.2752 I0. J0.008
Y2.284 Z0.274 I0. J-0.008
Y2.3 Z0.2728 I0. J0.008
Y2.284 Z0.2715 I0. J-0.008
Y2.3 Z0.2703 I0. J0.008
Y2.284 Z0.2691 I0. J-0.008
Y2.3 Z0.2678 I0. J0.008
Y2.284 Z0.2666 I0. J-0.008
Y2.3 Z0.2654 I0. J0.008
Y2.284 Z0.2642 I0. J-0.008
Y2.3 Z0.2629 I0. J0.008
Y2.284 Z0.2617 I0. J-0.008
Y2.3 Z0.2605 I0. J0.008
Y2.284 Z0.2592 I0. J-0.008
Y2.3 Z0.258 I0. J0.008
Y2.284 Z0.2568 I0. J-0.008
Y2.3 Z0.2555 I0. J0.008
Y2.284 Z0.2543 I0. J-0.008
Y2.3 Z0.2531 I0. J0.008
Y2.284 Z0.2519 I0. J-0.008
Y2.3 Z0.2506 I0. J0.008
Y2.284 Z0.2494 I0. J-0.008
Y2.3 Z0.2482 I0. J0.008
Y2.284 Z0.2469 I0. J-0.008
Y2.3 Z0.2457 I0. J0.008
Y2.284 Z0.2445 I0. J-0.008
Y2.3 Z0.2432 I0. J0.008
Y2.284 Z0.242 I0. J-0.008
Y2.3 Z0.2408 I0. J0.008
Y2.284 Z0.2395 I0. J-0.008
Y2.3 Z0.2383 I0. J0.008
Y2.284 Z0.2371 I0. J-0.008
Y2.3 Z0.2359 I0. J0.008
Y2.284 Z0.2346 I0. J-0.008
Y2.3 Z0.2334 I0. J0.008
Y2.284 Z0.2322 I0. J-0.008
Y2.3 Z0.2309 I0. J0.008
Y2.284 Z0.2297 I0. J-0.008
Y2.3 Z0.2285 I0. J0.008
Y2.284 Z0.2272 I0. J-0.008
Y2.3 Z0.226 I0. J0.008
Y2.284 Z0.2248 I0. J-0.008
Y2.3 Z0.2235 I0. J0.008
Y2.284 Z0.2223 I0. J-0.008
Y2.3 Z0.2211 I0. J0.008
Y2.284 Z0.2199 I0. J-0.008
Y2.3 Z0.2186 I0. J0.008
Y2.284 Z0.2174 I0. J-0.008
Y2.3 Z0.2162 I0. J0.008
Y2.284 Z0.2149 I0. J-0.008
Y2.3 Z0.2137 I0. J0.008
Y2.284 Z0.2125 I0. J-0.008
Y2.3 Z0.2112 I0. J0.008
Y2.284 Z0.21 I0. J-0.008
Y2.3 Z0.2088 I0. J0.008
Y2.284 Z0.2076 I0. J-0.008
Y2.3 Z0.2063 I0. J0.008
Y2.284 Z0.2051 I0. J-0.008
Y2.3 Z0.2039 I0. J0.008
Y2.284 Z0.2026 I0. J-0.008
Y2.3 Z0.2014 I0. J0.008
Y2.284 Z0.2002 I0. J-0.008
Y2.3 Z0.1989 I0. J0.008
Y2.284 Z0.1977 I0. J-0.008
Y2.3 Z0.1965 I0. J0.008
Y2.284 Z0.1952 I0. J-0.008
Y2.3 Z0.194 I0. J0.008
Y2.284 Z0.1928 I0. J-0.008
Y2.3 Z0.1916 I0. J0.008
Y2.284 Z0.1903 I0. J-0.008
Y2.3 Z0.1891 I0. J0.008
Y2.284 Z0.1879 I0. J-0.008
Y2.3 Z0.1866 I0. J0.008
Y2.284 Z0.1854 I0. J-0.008
Y2.3 Z0.1842 I0. J0.008
Y2.284 Z0.1829 I0. J-0.008
Y2.3 Z0.1817 I0. J0.008
Y2.284 Z0.1805 I0. J-0.008
Y2.3 Z0.1792 I0. J0.008
Y2.284 Z0.178 I0. J-0.008
Y2.3 Z0.1768 I0. J0.008
Y2.284 Z0.1756 I0. J-0.008
Y2.3 Z0.1743 I0. J0.008
Y2.284 Z0.1731 I0. J-0.008
Y2.3 Z0.1719 I0. J0.008
Y2.284 Z0.1706 I0. J-0.008
Y2.3 Z0.1694 I0. J0.008
Y2.284 Z0.1682 I0. J-0.008
Y2.3 Z0.1669 I0. J0.008
Y2.284 Z0.1657 I0. J-0.008
Y2.3 Z0.1645 I0. J0.008
Y2.284 Z0.1633 I0. J-0.008
Y2.3 Z0.162 I0. J0.008
Y2.284 Z0.1608 I0. J-0.008
Y2.3 Z0.1596 I0. J0.008
Y2.284 Z0.1583 I0. J-0.008
Y2.3 Z0.1571 I0. J0.008
Y2.284 Z0.1559 I0. J-0.008
Y2.3 Z0.1546 I0. J0.008
Y2.284 Z0.1534 I0. J-0.008
Y2.3 Z0.1522 I0. J0.008
Y2.284 Z0.1509 I0. J-0.008
Y2.3 Z0.1497 I0. J0.008
Y2.284 Z0.1485 I0. J-0.008
Y2.3 Z0.1473 I0. J0.008
Y2.284 Z0.146 I0. J-0.008
Y2.3 Z0.1448 I0. J0.008
Y2.284 Z0.1436 I0. J-0.008
Y2.3 Z0.1423 I0. J0.008
Y2.284 Z0.1411 I0. J-0.008
Y2.3 Z0.1399 I0. J0.008
Y2.284 Z0.1386 I0. J-0.008
Y2.3 Z0.1374 I0. J0.008
Y2.284 Z0.1362 I0. J-0.008
Y2.3 Z0.1349 I0. J0.008
Y2.284 Z0.1337 I0. J-0.008
Y2.3 Z0.1325 I0. J0.008
Y2.284 Z0.1313 I0. J-0.008
Y2.3 Z0.13 I0. J0.008
Y2.284 Z0.1288 I0. J-0.008
Y2.3 Z0.1276 I0. J0.008
Y2.284 Z0.1263 I0. J-0.008
X1.8863 Y2.293 Z0.1257 I0. J0.008
X1.8963 Y2.2997 Z0.125 I0.0079 J-0.001
X1.8922 Y2.2843 I-0.0021 J-0.0077
X1.8963 Y2.2997 I0.0021 J0.0077
G1 X1.8977 Y2.299
X1.8987 Y2.2979
X1.8992 Y2.2964
X1.8991 Y2.2948
X1.8975 Y2.2888
G0 Z0.54
X1.8817 Y2.3312
Z0.37
G1 Z0.3025 F39.4
G19 G3 Y2.3437 Z0.29 J0.0125 K0.
G1 Y2.35
G17 G2 X1.8942 Y2.3625 I0.0125 J0.
Y2.2215 Z0.2877 I0. J-0.0705
Y2.3625 Z0.2854 I0. J0.0705
Y2.2215 Z0.283 I0. J-0.0705
Y2.3625 Z0.2807 I0. J0.0705
Y2.2215 Z0.2784 I0. J-0.0705
Y2.3625 Z0.2761 I0. J0.0705
Y2.2215 Z0.2737 I0. J-0.0705
Y2.3625 Z0.2714 I0. J0.0705
Y2.2215 Z0.2691 I0. J-0.0705
Y2.3625 Z0.2668 I0. J0.0705
Y2.2215 Z0.2645 I0. J-0.0705
Y2.3625 Z0.2621 I0. J0.0705
Y2.2215 Z0.2598 I0. J-0.0705
Y2.3625 Z0.2575 I0. J0.0705
Y2.2215 Z0.2552 I0. J-0.0705
Y2.3625 Z0.2529 I0. J0.0705
Y2.2215 Z0.2505 I0. J-0.0705
Y2.3625 Z0.2482 I0. J0.0705
Y2.2215 Z0.2459 I0. J-0.0705
Y2.3625 Z0.2436 I0. J0.0705
Y2.2215 Z0.2412 I0. J-0.0705
Y2.3625 Z0.2389 I0. J0.0705
Y2.2215 Z0.2366 I0. J-0.0705
Y2.3625 Z0.2343 I0. J0.0705
Y2.2215 Z0.232 I0. J-0.0705
Y2.3625 Z0.2296 I0. J0.0705
Y2.2215 Z0.2273 I0. J-0.0705
Y2.3625 Z0.225 I0. J0.0705
Y2.2215 Z0.2227 I0. J-0.0705
Y2.3625 Z0.2204 I0. J0.0705
Y2.2215 Z0.218 I0. J-0.0705
Y2.3625 Z0.2157 I0. J0.0705
Y2.2215 Z0.2134 I0. J-0.0705
Y2.3625 Z0.2111 I0. J0.0705
Y2.2215 Z0.2087 I0. J-0.0705
Y2.3625 Z0.2064 I0. J0.0705
Y2.2215 Z0.2041 I0. J-0.0705
Y2.3625 Z0.2018 I0. J0.0705
Y2.2215 Z0.1995 I0. J-0.0705
Y2.3625 Z0.1971 I0. J0.0705
Y2.2215 Z0.1948 I0. J-0.0705
Y2.3625 Z0.1925 I0. J0.0705
Y2.2215 Z0.1902 I0. J-0.0705
Y2.3625 Z0.1879 I0. J0.0705
Y2.2215 Z0.1855 I0. J-0.0705
Y2.3625 Z0.1832 I0. J0.0705
Y2.2215 Z0.1809 I0. J-0.0705
Y2.3625 Z0.1786 I0. J0.0705
Y2.2215 Z0.1762 I0. J-0.0705
Y2.3625 Z0.1739 I0. J0.0705
Y2.2215 Z0.1716 I0. J-0.0705
Y2.3625 Z0.1693 I0. J0.0705
Y2.2215 Z0.167 I0. J-0.0705
Y2.3625 Z0.1646 I0. J0.0705
Y2.2215 Z0.1623 I0. J-0.0705
Y2.3625 Z0.16 I0. J0.0705
Y2.2215 Z0.1577 I0. J-0.0705
Y2.3625 Z0.1554 I0. J0.0705
Y2.2215 Z0.153 I0. J-0.0705
Y2.3625 Z0.1507 I0. J0.0705
Y2.2215 Z0.1484 I0. J-0.0705
Y2.3625 Z0.1461 I0. J0.0705
Y2.2215 Z0.1437 I0. J-0.0705
Y2.3625 Z0.1414 I0. J0.0705
Y2.2215 Z0.1391 I0. J-0.0705
Y2.3625 Z0.1368 I0. J0.0705
Y2.2215 Z0.1345 I0. J-0.0705
Y2.3625 Z0.1321 I0. J0.0705
Y2.2215 Z0.1298 I0. J-0.0705
Y2.3625 Z0.1275 I0. J0.0705
X1.9643 Y2.2838 Z0.1262 I0. J-0.0705
X1.878 Y2.2234 Z0.125 I-0.07 J0.0082
X1.9105 Y2.3606 I0.0162 J0.0686
X1.878 Y2.2234 I-0.0162 J-0.0686
X1.8687 Y2.2384 I0.0029 J0.0122
G1 X1.8702 Y2.2445
X1.8708 Y2.2472 Z0.1253
X1.8714 Y2.2498 Z0.1262
X1.8719 Y2.2521 Z0.1277
X1.8724 Y2.254 Z0.1297
X1.8727 Y2.2555 Z0.1321
X1.873 Y2.2564 Z0.1347
Y2.2567 Z0.1375
G0 Z0.54
X2.4875 Y1.5331
Z0.37
G1 Z0.3025 F39.4
G19 G3 Y1.5456 Z0.29 J0.0125 K0.
G1 Y1.5519
G17 G2 X2.5 Y1.5644 I0.0125 J0.
Y1.4284 Z0.2877 I0. J-0.068
Y1.5644 Z0.2854 I0. J0.068
Y1.4284 Z0.2832 I0. J-0.068
Y1.5644 Z0.2809 I0. J0.068
Y1.4284 Z0.2786 I0. J-0.068
Y1.5644 Z0.2763 I0. J0.068
Y1.4284 Z0.2741 I0. J-0.068
Y1.5644 Z0.2718 I0. J0.068
Y1.4284 Z0.2695 I0. J-0.068
Y1.5644 Z0.2672 I0. J0.068
Y1.4284 Z0.2649 I0. J-0.068
Y1.5644 Z0.2627 I0. J0.068
Y1.4284 Z0.2604 I0. J-0.068
Y1.5644 Z0.2581 I0. J0.068
Y1.4284 Z0.2558 I0. J-0.068
Y1.5644 Z0.2536 I0. J0.068
Y1.4284 Z0.2513 I0. J-0.068
Y1.5644 Z0.249 I0. J0.068
Y1.4284 Z0.2467 I0. J-0.068
Y1.5644 Z0.2444 I0. J0.068
Y1.4284 Z0.2422 I0. J-0.068
Y1.5644 Z0.2399 I0. J0.068
Y1.4284 Z0.2376 I0. J-0.068
Y1.5644 Z0.2353 I0. J0.068
Y1.4284 Z0.2331 I0. J-0.068
Y1.5644 Z0.2308 I0. J0.068
Y1.4284 Z0.2285 I0. J-0.068
Y1.5644 Z0.2262 I0. J0.068
Y1.4284 Z0.2239 I0. J-0.068
Y1.5644 Z0.2217 I0. J0.068
Y1.4284 Z0.2194 I0. J-0.068
Y1.5644 Z0.2171 I0. J0.068
Y1.4284 Z0.2148 I0. J-0.068
Y1.5644 Z0.2126 I0. J0.068
Y1.4284 Z0.2103 I0. J-0.068
Y1.5644 Z0.208 I0. J0.068
Y1.4284 Z0.2057 I0. J-0.068
Y1.5644 Z0.2034 I0. J0.068
Y1.4284 Z0.2012 I0. J-0.068
Y1.5644 Z0.1989 I0. J0.068
Y1.4284 Z0.1966 I0. J-0.068
Y1.5644 Z0.1943 I0. J0.068
Y1.4284 Z0.1921 I0. J-0.068
Y1.5644 Z0.1898 I0. J0.068
Y1.4284 Z0.1875 I0. J-0.068
Y1.5644 Z0.1852 I0. J0.068
Y1.4284 Z0.1829 I0. J-0.068
Y1.5644 Z0.1807 I0. J0.068
Y1.4284 Z0.1784 I0. J-0.068
Y1.5644 Z0.1761 I0. J0.068
Y1.4284 Z0.1738 I0. J-0.068
Y1.5644 Z0.1715 I0. J0.068
Y1.4284 Z0.1693 I0. J-0.068
Y1.5644 Z0.167 I0. J0.068
Y1.4284 Z0.1647 I0. J-0.068
Y1.5644 Z0.1624 I0. J0.068
Y1.4284 Z0.1602 I0. J-0.068
Y1.5644 Z0.1579 I0. J0.068
Y1.4284 Z0.1556 I0. J-0.068
Y1.5644 Z0.1533 I0. J0.068
Y1.4284 Z0.151 I0. J-0.068
Y1.5644 Z0.1488 I0. J0.068
Y1.4284 Z0.1465 I0. J-0.068
Y1.5644 Z0.1442 I0. J0.068
Y1.4284 Z0.1419 I0. J-0.068
Y1.5644 Z0.1397 I0. J0.068
Y1.4284 Z0.1374 I0. J-0.068
Y1.5644 Z0.1351 I0. J0.068
Y1.4284 Z0.1328 I0. J-0.068
Y1.5644 Z0.1305 I0. J0.068
Y1.4284 Z0.1283 I0. J-0.068
Y1.5644 Z0.126 I0. J0.068
X2.5666 Y1.51 Z0.125 I0. J-0.068
X2.4334 Y1.4827 I-0.0666 J-0.0137
X2.5666 Y1.51 I0.0666 J0.0137
X2.5569 Y1.4953 I-0.0122 J-0.0025
G1 X2.5508 Y1.494
X2.548 Y1.4934 Z0.1253
X2.5454 Y1.4929 Z0.1262
X2.5431 Y1.4924 Z0.1277
X2.5412 Y1.492 Z0.1297
X2.5397 Y1.4917 Z0.1321
X2.5388 Y1.4916 Z0.1347
X2.5385 Y1.4915 Z0.1375
G0 Z0.54
X2.4875 Y1.5956
Z0.37
G1 Z0.3025 F39.4
G19 G3 Y1.6081 Z0.29 J0.0125 K0.
G1 Y1.6144
G17 G2 X2.5 Y1.6269 I0.0125 J0.
Y1.3659 Z0.2866 I0. J-0.1305
Y1.6269 Z0.2833 I0. J0.1305
Y1.3659 Z0.2799 I0. J-0.1305
Y1.6269 Z0.2765 I0. J0.1305
Y1.3659 Z0.2732 I0. J-0.1305
Y1.6269 Z0.2698 I0. J0.1305
Y1.3659 Z0.2664 I0. J-0.1305
Y1.6269 Z0.263 I0. J0.1305
Y1.3659 Z0.2597 I0. J-0.1305
Y1.6269 Z0.2563 I0. J0.1305
Y1.3659 Z0.2529 I0. J-0.1305
Y1.6269 Z0.2496 I0. J0.1305
Y1.3659 Z0.2462 I0. J-0.1305
Y1.6269 Z0.2428 I0. J0.1305
Y1.3659 Z0.2395 I0. J-0.1305
Y1.6269 Z0.2361 I0. J0.1305
Y1.3659 Z0.2327 I0. J-0.1305
Y1.6269 Z0.2294 I0. J0.1305
Y1.3659 Z0.226 I0. J-0.1305
Y1.6269 Z0.2226 I0. J0.1305
Y1.3659 Z0.2193 I0. J-0.1305
Y1.6269 Z0.2159 I0. J0.1305
Y1.3659 Z0.2125 I0. J-0.1305
Y1.6269 Z0.2091 I0. J0.1305
Y1.3659 Z0.2058 I0. J-0.1305
Y1.6269 Z0.2024 I0. J0.1305
Y1.3659 Z0.199 I0. J-0.1305
Y1.6269 Z0.1957 I0. J0.1305
Y1.3659 Z0.1923 I0. J-0.1305
Y1.6269 Z0.1889 I0. J0.1305
Y1.3659 Z0.1856 I0. J-0.1305
Y1.6269 Z0.1822 I0. J0.1305
Y1.3659 Z0.1788 I0. J-0.1305
Y1.6269 Z0.1755 I0. J0.1305
Y1.3659 Z0.1721 I0. J-0.1305
Y1.6269 Z0.1687 I0. J0.1305
Y1.3659 Z0.1654 I0. J-0.1305
Y1.6269 Z0.162 I0. J0.1305
Y1.3659 Z0.1586 I0. J-0.1305
Y1.6269 Z0.1552 I0. J0.1305
Y1.3659 Z0.1519 I0. J-0.1305
Y1.6269 Z0.1485 I0. J0.1305
Y1.3659 Z0.1451 I0. J-0.1305
Y1.6269 Z0.1418 I0. J0.1305
Y1.3659 Z0.1384 I0. J-0.1305
Y1.6269 Z0.135 I0. J0.1305
Y1.3659 Z0.1317 I0. J-0.1305
Y1.6269 Z0.1283 I0. J0.1305
X2.5088 Y1.3661 Z0.125 I0. J-0.1305
X2.4912 Y1.6266 I-0.0088 J0.1302
X2.5088 Y1.3661 I0.0088 J-0.1302
X2.4955 Y1.3778 I-0.0008 J0.0125
G1 X2.4951 Y1.384
X2.4949 Y1.3868 Z0.1253
X2.4947 Y1.3894 Z0.1262
X2.4946 Y1.3918 Z0.1277
X2.4944 Y1.3938 Z0.1297
X2.4943 Y1.3952 Z0.1321
Y1.3962 Z0.1347
X2.4942 Y1.3965 Z0.1375
G0 Z0.54
X3.1018 Y0.6985
Z0.3575
G1 Z0.29 F39.4
Y0.7047
X3.1021 Y0.7062
X3.1029 Y0.7075
X3.1042 Y0.7084
X3.1058 Y0.7087
G2 Y0.6927 Z0.2888 I0. J-0.008
Y0.7087 Z0.2875 I0. J0.008
Y0.6927 Z0.2863 I0. J-0.008
Y0.7087 Z0.2851 I0. J0.008
Y0.6927 Z0.2838 I0. J-0.008
Y0.7087 Z0.2826 I0. J0.008
Y0.6927 Z0.2814 I0. J-0.008
Y0.7087 Z0.2802 I0. J0.008
Y0.6927 Z0.2789 I0. J-0.008
Y0.7087 Z0.2777 I0. J0.008
Y0.6927 Z0.2765 I0. J-0.008
Y0.7087 Z0.2752 I0. J0.008
Y0.6927 Z0.274 I0. J-0.008
Y0.7087 Z0.2728 I0. J0.008
Y0.6927 Z0.2715 I0. J-0.008
Y0.7087 Z0.2703 I0. J0.008
Y0.6927 Z0.2691 I0. J-0.008
Y0.7087 Z0.2678 I0. J0.008
Y0.6927 Z0.2666 I0. J-0.008
Y0.7087 Z0.2654 I0. J0.008
Y0.6927 Z0.2642 I0. J-0.008
Y0.7087 Z0.2629 I0. J0.008
Y0.6927 Z0.2617 I0. J-0.008
Y0.7087 Z0.2605 I0. J0.008
Y0.6927 Z0.2592 I0. J-0.008
Y0.7087 Z0.258 I0. J0.008
Y0.6927 Z0.2568 I0. J-0.008
Y0.7087 Z0.2555 I0. J0.008
Y0.6927 Z0.2543 I0. J-0.008
Y0.7087 Z0.2531 I0. J0.008
Y0.6927 Z0.2519 I0. J-0.008
Y0.7087 Z0.2506 I0. J0.008
Y0.6927 Z0.2494 I0. J-0.008
Y0.7087 Z0.2482 I0. J0.008
Y0.6927 Z0.2469 I0. J-0.008
Y0.7087 Z0.2457 I0. J0.008
Y0.6927 Z0.2445 I0. J-0.008
Y0.7087 Z0.2432 I0. J0.008
Y0.6927 Z0.242 I0. J-0.008
Y0.7087 Z0.2408 I0. J0.008
Y0.6927 Z0.2395 I0. J-0.008
Y0.7087 Z0.2383 I0. J0.008
Y0.6927 Z0.2371 I0. J-0.008
Y0.7087 Z0.2359 I0. J0.008
Y0.6927 Z0.2346 I0. J-0.008
Y0.7087 Z0.2334 I0. J0.008
Y0.6927 Z0.2322 I0. J-0.008
Y0.7087 Z0.2309 I0. J0.008
Y0.6927 Z0.2297 I0. J-0.008
Y0.7087 Z0.2285 I0. J0.008
Y0.6927 Z0.2272 I0. J-0.008
Y0.7087 Z0.226 I0. J0.008
Y0.6927 Z0.2248 I0. J-0.008
Y0.7087 Z0.2235 I0. J0.008
Y0.6927 Z0.2223 I0. J-0.008
Y0.7087 Z0.2211 I0. J0.008
Y0.6927 Z0.2199 I0. J-0.008
Y0.7087 Z0.2186 I0. J0.008
Y0.6927 Z0.2174 I0. J-0.008
Y0.7087 Z0.2162 I0. J0.008
Y0.6927 Z0.2149 I0. J-0.008
Y0.7087 Z0.2137 I0. J0.008
Y0.6927 Z0.2125 I0. J-0.008
Y0.7087 Z0.2112 I0. J0.008
Y0.6927 Z0.21 I0. J-0.008
Y0.7087 Z0.2088 I0. J0.008
Y0.6927 Z0.2076 I0. J-0.008
Y0.7087 Z0.2063 I0. J0.008
Y0.6927 Z0.2051 I0. J-0.008
Y0.7087 Z0.2039 I0. J0.008
Y0.6927 Z0.2026 I0. J-0.008
Y0.7087 Z0.2014 I0. J0.008
Y0.6927 Z0.2002 I0. J-0.008
Y0.7087 Z0.1989 I0. J0.008
Y0.6927 Z0.1977 I0. J-0.008
Y0.7087 Z0.1965 I0. J0.008
Y0.6927 Z0.1952 I0. J-0.008
Y0.7087 Z0.194 I0. J0.008
Y0.6927 Z0.1928 I0. J-0.008
Y0.7087 Z0.1916 I0. J0.008
Y0.6927 Z0.1903 I0. J-0.008
Y0.7087 Z0.1891 I0. J0.008
Y0.6927 Z0.1879 I0. J-0.008
Y0.7087 Z0.1866 I0. J0.008
Y0.6927 Z0.1854 I0. J-0.008
Y0.7087 Z0.1842 I0. J0.008
Y0.6927 Z0.1829 I0. J-0.008
Y0.7087 Z0.1817 I0. J0.008
Y0.6927 Z0.1805 I0. J-0.008
Y0.7087 Z0.1792 I0. J0.008
Y0.6927 Z0.178 I0. J-0.008
Y0.7087 Z0.1768 I0. J0.008
Y0.6927 Z0.1756 I0. J-0.008
Y0.7087 Z0.1743 I0. J0.008
Y0.6927 Z0.1731 I0. J-0.008
Y0.7087 Z0.1719 I0. J0.008
Y0.6927 Z0.1706 I0. J-0.008
Y0.7087 Z0.1694 I0. J0.008
Y0.6927 Z0.1682 I0. J-0.008
Y0.7087 Z0.1669 I0. J0.008
Y0.6927 Z0.1657 I0. J-0.008
Y0.7087 Z0.1645 I0. J0.008
Y0.6927 Z0.1633 I0. J-0.008
Y0.7087 Z0.162 I0. J0.008
Y0.6927 Z0.1608 I0. J-0.008
Y0.7087 Z0.1596 I0. J0.008
Y0.6927 Z0.1583 I0. J-0.008
Y0.7087 Z0.1571 I0. J0.008
Y0.6927 Z0.1559 I0. J-0.008
Y0.7087 Z0.1546 I0. J0.008
Y0.6927 Z0.1534 I0. J-0.008
Y0.7087 Z0.1522 I0. J0.008
Y0.6927 Z0.1509 I0. J-0.008
Y0.7087 Z0.1497 I0. J0.008
Y0.6927 Z0.1485 I0. J-0.008
Y0.7087 Z0.1473 I0. J0.008
Y0.6927 Z0.146 I0. J-0.008
Y0.7087 Z0.1448 I0. J0.008
Y0.6927 Z0.1436 I0. J-0.008
Y0.7087 Z0.1423 I0. J0.008
Y0.6927 Z0.1411 I0. J-0.008
Y0.7087 Z0.1399 I0. J0.008
Y0.6927 Z0.1386 I0. J-0.008
Y0.7087 Z0.1374 I0. J0.008
Y0.6927 Z0.1362 I0. J-0.008
Y0.7087 Z0.1349 I0. J0.008
Y0.6927 Z0.1337 I0. J-0.008
Y0.7087 Z0.1325 I0. J0.008
Y0.6927 Z0.1313 I0. J-0.008
Y0.7087 Z0.13 I0. J0.008
Y0.6927 Z0.1288 I0. J-0.008
Y0.7087 Z0.1276 I0. J0.008
Y0.6927 Z0.1263 I0. J-0.008
X3.0978 Y0.7017 Z0.1257 I0. J0.008
X3.1078 Y0.7084 Z0.125 I0.0079 J-0.001
X3.1037 Y0.693 I-0.0021 J-0.0077
X3.1078 Y0.7084 I0.0021 J0.0077
G1 X3.1092 Y0.7077
X3.1103 Y0.7066
X3.1108 Y0.7051
X3.1107 Y0.7035
X3.109 Y0.6975
G0 Z0.54
X3.0933 Y0.74
Z0.37
G1 Z0.3025 F39.4
G19 G3 Y0.7525 Z0.29 J0.0125 K0.
G1 Y0.7587
G17 G2 X3.1058 Y0.7712 I0.0125 J0.
Y0.6302 Z0.2877 I0. J-0.0705
Y0.7712 Z0.2854 I0. J0.0705
Y0.6302 Z0.283 I0. J-0.0705
Y0.7712 Z0.2807 I0. J0.0705
Y0.6302 Z0.2784 I0. J-0.0705
Y0.7712 Z0.2761 I0. J0.0705
Y0.6302 Z0.2737 I0. J-0.0705
Y0.7712 Z0.2714 I0. J0.0705
Y0.6302 Z0.2691 I0. J-0.0705
Y0.7712 Z0.2668 I0. J0.0705
Y0.6302 Z0.2645 I0. J-0.0705
Y0.7712 Z0.2621 I0. J0.0705
Y0.6302 Z0.2598 I0. J-0.0705
Y0.7712 Z0.2575 I0. J0.0705
Y0.6302 Z0.2552 I0. J-0.0705
Y0.7712 Z0.2529 I0. J0.0705
Y0.6302 Z0.2505 I0. J-0.0705
Y0.7712 Z0.2482 I0. J0.0705
Y0.6302 Z0.2459 I0. J-0.0705
Y0.7712 Z0.2436 I0. J0.0705
Y0.6302 Z0.2412 I0. J-0.0705
Y0.7712 Z0.2389 I0. J0.0705
Y0.6302 Z0.2366 I0. J-0.0705
Y0.7712 Z0.2343 I0. J0.0705
Y0.6302 Z0.232 I0. J-0.0705
Y0.7712 Z0.2296 I0. J0.0705
Y0.6302 Z0.2273 I0. J-0.0705
Y0.7712 Z0.225 I0. J0.0705
Y0.6302 Z0.2227 I0. J-0.0705
Y0.7712 Z0.2204 I0. J0.0705
Y0.6302 Z0.218 I0. J-0.0705
Y0.7712 Z0.2157 I0. J0.0705
Y0.6302 Z0.2134 I0. J-0.0705
Y0.7712 Z0.2111 I0. J0.0705
Y0.6302 Z0.2087 I0. J-0.0705
Y0.7712 Z0.2064 I0. J0.0705
Y0.6302 Z0.2041 I0. J-0.0705
Y0.7712 Z0.2018 I0. J0.0705
Y0.6302 Z0.1995 I0. J-0.0705
Y0.7712 Z0.1971 I0. J0.0705
Y0.6302 Z0.1948 I0. J-0.0705
Y0.7712 Z0.1925 I0. J0.0705
Y0.6302 Z0.1902 I0. J-0.0705
Y0.7712 Z0.1879 I0. J0.0705
Y0.6302 Z0.1855 I0. J-0.0705
Y0.7712 Z0.1832 I0. J0.0705
Y0.6302 Z0.1809 I0. J-0.0705
Y0.7712 Z0.1786 I0. J0.0705
Y0.6302 Z0.1762 I0. J-0.0705
Y0.7712 Z0.1739 I0. J0.0705
Y0.6302 Z0.1716 I0. J-0.0705
Y0.7712 Z0.1693 I0. J0.0705
Y0.6302 Z0.167 I0. J-0.0705
Y0.7712 Z0.1646 I0. J0.0705
Y0.6302 Z0.1623 I0. J-0.0705
Y0.7712 Z0.16 I0. J0.0705
Y0.6302 Z0.1577 I0. J-0.0705
Y0.7712 Z0.1554 I0. J0.0705
Y0.6302 Z0.153 I0. J-0.0705
Y0.7712 Z0.1507 I0. J0.0705
Y0.6302 Z0.1484 I0. J-0.0705
Y0.7712 Z0.1461 I0. J0.0705
Y0.6302 Z0.1437 I0. J-0.0705
Y0.7712 Z0.1414 I0. J0.0705
Y0.6302 Z0.1391 I0. J-0.0705
Y0.7712 Z0.1368 I0. J0.0705
Y0.6302 Z0.1345 I0. J-0.0705
Y0.7712 Z0.1321 I0. J0.0705
Y0.6302 Z0.1298 I0. J-0.0705
Y0.7712 Z0.1275 I0. J0.0705
X3.1758 Y0.6925 Z0.1262 I0. J-0.0705
X3.0895 Y0.6321 Z0.125 I-0.07 J0.0082
X3.122 Y0.7693 I0.0162 J0.0686
X3.0895 Y0.6321 I-0.0162 J-0.0686
X3.0802 Y0.6471 I0.0029 J0.0122
G1 X3.0817 Y0.6532
X3.0823 Y0.6559 Z0.1253
X3.0829 Y0.6585 Z0.1262
X3.0835 Y0.6608 Z0.1277
X3.0839 Y0.6627 Z0.1297
X3.0843 Y0.6642 Z0.1321
X3.0845 Y0.6651 Z0.1347
X3.0846 Y0.6654 Z0.1375
G0 Z0.54

M9
M30
