(1001)
(T1  D=0.125 CR=0. - ZMIN=-0.225 - FLAT END MILL)
G90 G94 G91.1 G40 G49 G17
G20
g0 z.5

(BORE2)
M5
T1 M6
S15000 M3
G54
M8
G0 X0.4875 Y0.5392
G43 Z0.54 H1
Z0.17
G1 Z0.1025 F39.4
G19 G3 Y0.5518 Z0.09 J0.0125 K0.
G1 Y0.558
G17 G2 X0.5 Y0.5705 I0.0125 J0.
Y0.4295 Z0.0877 I0. J-0.0705
Y0.5705 Z0.0854 I0. J0.0705
Y0.4295 Z0.083 I0. J-0.0705
Y0.5705 Z0.0807 I0. J0.0705
Y0.4295 Z0.0784 I0. J-0.0705
Y0.5705 Z0.0761 I0. J0.0705
Y0.4295 Z0.0737 I0. J-0.0705
Y0.5705 Z0.0714 I0. J0.0705
Y0.4295 Z0.0691 I0. J-0.0705
Y0.5705 Z0.0668 I0. J0.0705
Y0.4295 Z0.0645 I0. J-0.0705
Y0.5705 Z0.0621 I0. J0.0705
Y0.4295 Z0.0598 I0. J-0.0705
Y0.5705 Z0.0575 I0. J0.0705
Y0.4295 Z0.0552 I0. J-0.0705
Y0.5705 Z0.0529 I0. J0.0705
Y0.4295 Z0.0505 I0. J-0.0705
Y0.5705 Z0.0482 I0. J0.0705
Y0.4295 Z0.0459 I0. J-0.0705
Y0.5705 Z0.0436 I0. J0.0705
Y0.4295 Z0.0412 I0. J-0.0705
Y0.5705 Z0.0389 I0. J0.0705
Y0.4295 Z0.0366 I0. J-0.0705
Y0.5705 Z0.0343 I0. J0.0705
Y0.4295 Z0.032 I0. J-0.0705
Y0.5705 Z0.0296 I0. J0.0705
Y0.4295 Z0.0273 I0. J-0.0705
Y0.5705 Z0.025 I0. J0.0705
Y0.4295 Z0.0227 I0. J-0.0705
Y0.5705 Z0.0204 I0. J0.0705
Y0.4295 Z0.018 I0. J-0.0705
Y0.5705 Z0.0157 I0. J0.0705
Y0.4295 Z0.0134 I0. J-0.0705
Y0.5705 Z0.0111 I0. J0.0705
Y0.4295 Z0.0087 I0. J-0.0705
Y0.5705 Z0.0064 I0. J0.0705
Y0.4295 Z0.0041 I0. J-0.0705
Y0.5705 Z0.0018 I0. J0.0705
Y0.4295 Z-0.0005 I0. J-0.0705
Y0.5705 Z-0.0029 I0. J0.0705
Y0.4295 Z-0.0052 I0. J-0.0705
Y0.5705 Z-0.0075 I0. J0.0705
Y0.4295 Z-0.0098 I0. J-0.0705
Y0.5705 Z-0.0121 I0. J0.0705
Y0.4295 Z-0.0145 I0. J-0.0705
Y0.5705 Z-0.0168 I0. J0.0705
Y0.4295 Z-0.0191 I0. J-0.0705
Y0.5705 Z-0.0214 I0. J0.0705
Y0.4295 Z-0.0238 I0. J-0.0705
Y0.5705 Z-0.0261 I0. J0.0705
Y0.4295 Z-0.0284 I0. J-0.0705
Y0.5705 Z-0.0307 I0. J0.0705
Y0.4295 Z-0.033 I0. J-0.0705
Y0.5705 Z-0.0354 I0. J0.0705
Y0.4295 Z-0.0377 I0. J-0.0705
Y0.5705 Z-0.04 I0. J0.0705
Y0.4295 Z-0.0423 I0. J-0.0705
Y0.5705 Z-0.0446 I0. J0.0705
Y0.4295 Z-0.047 I0. J-0.0705
Y0.5705 Z-0.0493 I0. J0.0705
Y0.4295 Z-0.0516 I0. J-0.0705
Y0.5705 Z-0.0539 I0. J0.0705
Y0.4295 Z-0.0563 I0. J-0.0705
Y0.5705 Z-0.0586 I0. J0.0705
Y0.4295 Z-0.0609 I0. J-0.0705
Y0.5705 Z-0.0632 I0. J0.0705
Y0.4295 Z-0.0655 I0. J-0.0705
Y0.5705 Z-0.0679 I0. J0.0705
Y0.4295 Z-0.0702 I0. J-0.0705
Y0.5705 Z-0.0725 I0. J0.0705
Y0.4295 Z-0.0748 I0. J-0.0705
Y0.5705 Z-0.0771 I0. J0.0705
Y0.4295 Z-0.0795 I0. J-0.0705
Y0.5705 Z-0.0818 I0. J0.0705
Y0.4295 Z-0.0841 I0. J-0.0705
Y0.5705 Z-0.0864 I0. J0.0705
Y0.4295 Z-0.0888 I0. J-0.0705
Y0.5705 Z-0.0911 I0. J0.0705
Y0.4295 Z-0.0934 I0. J-0.0705
Y0.5705 Z-0.0957 I0. J0.0705
Y0.4295 Z-0.098 I0. J-0.0705
Y0.5705 Z-0.1004 I0. J0.0705
Y0.4295 Z-0.1027 I0. J-0.0705
Y0.5705 Z-0.105 I0. J0.0705
Y0.4295 Z-0.1073 I0. J-0.0705
Y0.5705 Z-0.1097 I0. J0.0705
Y0.4295 Z-0.112 I0. J-0.0705
Y0.5705 Z-0.1143 I0. J0.0705
Y0.4295 Z-0.1166 I0. J-0.0705
Y0.5705 Z-0.1189 I0. J0.0705
Y0.4295 Z-0.1213 I0. J-0.0705
Y0.5705 Z-0.1236 I0. J0.0705
Y0.4295 Z-0.1259 I0. J-0.0705
Y0.5705 Z-0.1282 I0. J0.0705
Y0.4295 Z-0.1305 I0. J-0.0705
Y0.5705 Z-0.1329 I0. J0.0705
Y0.4295 Z-0.1352 I0. J-0.0705
Y0.5705 Z-0.1375 I0. J0.0705
Y0.4295 Z-0.1398 I0. J-0.0705
Y0.5705 Z-0.1422 I0. J0.0705
Y0.4295 Z-0.1445 I0. J-0.0705
Y0.5705 Z-0.1468 I0. J0.0705
Y0.4295 Z-0.1491 I0. J-0.0705
Y0.5705 Z-0.1514 I0. J0.0705
Y0.4295 Z-0.1538 I0. J-0.0705
Y0.5705 Z-0.1561 I0. J0.0705
Y0.4295 Z-0.1584 I0. J-0.0705
Y0.5705 Z-0.1607 I0. J0.0705
Y0.4295 Z-0.163 I0. J-0.0705
Y0.5705 Z-0.1654 I0. J0.0705
Y0.4295 Z-0.1677 I0. J-0.0705
Y0.5705 Z-0.17 I0. J0.0705
Y0.4295 Z-0.1723 I0. J-0.0705
Y0.5705 Z-0.1747 I0. J0.0705
Y0.4295 Z-0.177 I0. J-0.0705
Y0.5705 Z-0.1793 I0. J0.0705
Y0.4295 Z-0.1816 I0. J-0.0705
Y0.5705 Z-0.1839 I0. J0.0705
Y0.4295 Z-0.1863 I0. J-0.0705
Y0.5705 Z-0.1886 I0. J0.0705
Y0.4295 Z-0.1909 I0. J-0.0705
Y0.5705 Z-0.1932 I0. J0.0705
Y0.4295 Z-0.1955 I0. J-0.0705
Y0.5705 Z-0.1979 I0. J0.0705
Y0.4295 Z-0.2002 I0. J-0.0705
Y0.5705 Z-0.2025 I0. J0.0705
Y0.4295 Z-0.2048 I0. J-0.0705
Y0.5705 Z-0.2072 I0. J0.0705
Y0.4295 Z-0.2095 I0. J-0.0705
Y0.5705 Z-0.2118 I0. J0.0705
Y0.4295 Z-0.2141 I0. J-0.0705
Y0.5705 Z-0.2164 I0. J0.0705
Y0.4295 Z-0.2188 I0. J-0.0705
Y0.5705 Z-0.2211 I0. J0.0705
Y0.4295 Z-0.2234 I0. J-0.0705
X0.4413 Y0.539 Z-0.225 I0. J0.0705
X0.5587 Y0.461 I0.0587 J-0.039
X0.4413 Y0.539 I-0.0587 J0.039
X0.4586 Y0.5425 I0.0104 J-0.0069
G1 X0.4638 Y0.5391
X0.4661 Y0.5375 Z-0.2247
X0.4683 Y0.5361 Z-0.2238
X0.4703 Y0.5347 Z-0.2223
X0.472 Y0.5336 Z-0.2203
X0.4732 Y0.5328 Z-0.2179
X0.474 Y0.5323 Z-0.2153
X0.4742 Y0.5321 Z-0.2125
G0 Z0.29
X0.4875 Y1.7807
Z0.17
G1 Z0.1025 F39.4
G19 G3 Y1.7932 Z0.09 J0.0125 K0.
G1 Y1.7994
G17 G2 X0.5 Y1.8119 I0.0125 J0.
Y1.6709 Z0.0877 I0. J-0.0705
Y1.8119 Z0.0854 I0. J0.0705
Y1.6709 Z0.083 I0. J-0.0705
Y1.8119 Z0.0807 I0. J0.0705
Y1.6709 Z0.0784 I0. J-0.0705
Y1.8119 Z0.0761 I0. J0.0705
Y1.6709 Z0.0737 I0. J-0.0705
Y1.8119 Z0.0714 I0. J0.0705
Y1.6709 Z0.0691 I0. J-0.0705
Y1.8119 Z0.0668 I0. J0.0705
Y1.6709 Z0.0645 I0. J-0.0705
Y1.8119 Z0.0621 I0. J0.0705
Y1.6709 Z0.0598 I0. J-0.0705
Y1.8119 Z0.0575 I0. J0.0705
Y1.6709 Z0.0552 I0. J-0.0705
Y1.8119 Z0.0529 I0. J0.0705
Y1.6709 Z0.0505 I0. J-0.0705
Y1.8119 Z0.0482 I0. J0.0705
Y1.6709 Z0.0459 I0. J-0.0705
Y1.8119 Z0.0436 I0. J0.0705
Y1.6709 Z0.0412 I0. J-0.0705
Y1.8119 Z0.0389 I0. J0.0705
Y1.6709 Z0.0366 I0. J-0.0705
Y1.8119 Z0.0343 I0. J0.0705
Y1.6709 Z0.032 I0. J-0.0705
Y1.8119 Z0.0296 I0. J0.0705
Y1.6709 Z0.0273 I0. J-0.0705
Y1.8119 Z0.025 I0. J0.0705
Y1.6709 Z0.0227 I0. J-0.0705
Y1.8119 Z0.0204 I0. J0.0705
Y1.6709 Z0.018 I0. J-0.0705
Y1.8119 Z0.0157 I0. J0.0705
Y1.6709 Z0.0134 I0. J-0.0705
Y1.8119 Z0.0111 I0. J0.0705
Y1.6709 Z0.0087 I0. J-0.0705
Y1.8119 Z0.0064 I0. J0.0705
Y1.6709 Z0.0041 I0. J-0.0705
Y1.8119 Z0.0018 I0. J0.0705
Y1.6709 Z-0.0005 I0. J-0.0705
Y1.8119 Z-0.0029 I0. J0.0705
Y1.6709 Z-0.0052 I0. J-0.0705
Y1.8119 Z-0.0075 I0. J0.0705
Y1.6709 Z-0.0098 I0. J-0.0705
Y1.8119 Z-0.0121 I0. J0.0705
Y1.6709 Z-0.0145 I0. J-0.0705
Y1.8119 Z-0.0168 I0. J0.0705
Y1.6709 Z-0.0191 I0. J-0.0705
Y1.8119 Z-0.0214 I0. J0.0705
Y1.6709 Z-0.0238 I0. J-0.0705
Y1.8119 Z-0.0261 I0. J0.0705
Y1.6709 Z-0.0284 I0. J-0.0705
Y1.8119 Z-0.0307 I0. J0.0705
Y1.6709 Z-0.033 I0. J-0.0705
Y1.8119 Z-0.0354 I0. J0.0705
Y1.6709 Z-0.0377 I0. J-0.0705
Y1.8119 Z-0.04 I0. J0.0705
Y1.6709 Z-0.0423 I0. J-0.0705
Y1.8119 Z-0.0446 I0. J0.0705
Y1.6709 Z-0.047 I0. J-0.0705
Y1.8119 Z-0.0493 I0. J0.0705
Y1.6709 Z-0.0516 I0. J-0.0705
Y1.8119 Z-0.0539 I0. J0.0705
Y1.6709 Z-0.0563 I0. J-0.0705
Y1.8119 Z-0.0586 I0. J0.0705
Y1.6709 Z-0.0609 I0. J-0.0705
Y1.8119 Z-0.0632 I0. J0.0705
Y1.6709 Z-0.0655 I0. J-0.0705
Y1.8119 Z-0.0679 I0. J0.0705
Y1.6709 Z-0.0702 I0. J-0.0705
Y1.8119 Z-0.0725 I0. J0.0705
Y1.6709 Z-0.0748 I0. J-0.0705
Y1.8119 Z-0.0771 I0. J0.0705
Y1.6709 Z-0.0795 I0. J-0.0705
Y1.8119 Z-0.0818 I0. J0.0705
Y1.6709 Z-0.0841 I0. J-0.0705
Y1.8119 Z-0.0864 I0. J0.0705
Y1.6709 Z-0.0888 I0. J-0.0705
Y1.8119 Z-0.0911 I0. J0.0705
Y1.6709 Z-0.0934 I0. J-0.0705
Y1.8119 Z-0.0957 I0. J0.0705
Y1.6709 Z-0.098 I0. J-0.0705
Y1.8119 Z-0.1004 I0. J0.0705
Y1.6709 Z-0.1027 I0. J-0.0705
Y1.8119 Z-0.105 I0. J0.0705
Y1.6709 Z-0.1073 I0. J-0.0705
Y1.8119 Z-0.1097 I0. J0.0705
Y1.6709 Z-0.112 I0. J-0.0705
Y1.8119 Z-0.1143 I0. J0.0705
Y1.6709 Z-0.1166 I0. J-0.0705
Y1.8119 Z-0.1189 I0. J0.0705
Y1.6709 Z-0.1213 I0. J-0.0705
Y1.8119 Z-0.1236 I0. J0.0705
Y1.6709 Z-0.1259 I0. J-0.0705
Y1.8119 Z-0.1282 I0. J0.0705
Y1.6709 Z-0.1305 I0. J-0.0705
Y1.8119 Z-0.1329 I0. J0.0705
Y1.6709 Z-0.1352 I0. J-0.0705
Y1.8119 Z-0.1375 I0. J0.0705
Y1.6709 Z-0.1398 I0. J-0.0705
Y1.8119 Z-0.1422 I0. J0.0705
Y1.6709 Z-0.1445 I0. J-0.0705
Y1.8119 Z-0.1468 I0. J0.0705
Y1.6709 Z-0.1491 I0. J-0.0705
Y1.8119 Z-0.1514 I0. J0.0705
Y1.6709 Z-0.1538 I0. J-0.0705
Y1.8119 Z-0.1561 I0. J0.0705
Y1.6709 Z-0.1584 I0. J-0.0705
Y1.8119 Z-0.1607 I0. J0.0705
Y1.6709 Z-0.163 I0. J-0.0705
Y1.8119 Z-0.1654 I0. J0.0705
Y1.6709 Z-0.1677 I0. J-0.0705
Y1.8119 Z-0.17 I0. J0.0705
Y1.6709 Z-0.1723 I0. J-0.0705
Y1.8119 Z-0.1747 I0. J0.0705
Y1.6709 Z-0.177 I0. J-0.0705
Y1.8119 Z-0.1793 I0. J0.0705
Y1.6709 Z-0.1816 I0. J-0.0705
Y1.8119 Z-0.1839 I0. J0.0705
Y1.6709 Z-0.1863 I0. J-0.0705
Y1.8119 Z-0.1886 I0. J0.0705
Y1.6709 Z-0.1909 I0. J-0.0705
Y1.8119 Z-0.1932 I0. J0.0705
Y1.6709 Z-0.1955 I0. J-0.0705
Y1.8119 Z-0.1979 I0. J0.0705
Y1.6709 Z-0.2002 I0. J-0.0705
Y1.8119 Z-0.2025 I0. J0.0705
Y1.6709 Z-0.2048 I0. J-0.0705
Y1.8119 Z-0.2072 I0. J0.0705
Y1.6709 Z-0.2095 I0. J-0.0705
Y1.8119 Z-0.2118 I0. J0.0705
Y1.6709 Z-0.2141 I0. J-0.0705
Y1.8119 Z-0.2164 I0. J0.0705
Y1.6709 Z-0.2188 I0. J-0.0705
Y1.8119 Z-0.2211 I0. J0.0705
Y1.6709 Z-0.2234 I0. J-0.0705
X0.4413 Y1.7804 Z-0.225 I0. J0.0705
X0.5587 Y1.7024 I0.0587 J-0.039
X0.4413 Y1.7804 I-0.0587 J0.039
X0.4586 Y1.7839 I0.0104 J-0.0069
G1 X0.4638 Y1.7805
X0.4661 Y1.7789 Z-0.2247
X0.4683 Y1.7775 Z-0.2238
X0.4703 Y1.7762 Z-0.2223
X0.472 Y1.7751 Z-0.2203
X0.4732 Y1.7742 Z-0.2179
X0.474 Y1.7737 Z-0.2153
X0.4742 Y1.7736 Z-0.2125
G0 Z0.29
X0.4875 Y3.0221
Z0.17
G1 Z0.1025 F39.4
G19 G3 Y3.0346 Z0.09 J0.0125 K0.
G1 Y3.0408
G17 G2 X0.5 Y3.0533 I0.0125 J0.
Y2.9123 Z0.0877 I0. J-0.0705
Y3.0533 Z0.0854 I0. J0.0705
Y2.9123 Z0.083 I0. J-0.0705
Y3.0533 Z0.0807 I0. J0.0705
Y2.9123 Z0.0784 I0. J-0.0705
Y3.0533 Z0.0761 I0. J0.0705
Y2.9123 Z0.0737 I0. J-0.0705
Y3.0533 Z0.0714 I0. J0.0705
Y2.9123 Z0.0691 I0. J-0.0705
Y3.0533 Z0.0668 I0. J0.0705
Y2.9123 Z0.0645 I0. J-0.0705
Y3.0533 Z0.0621 I0. J0.0705
Y2.9123 Z0.0598 I0. J-0.0705
Y3.0533 Z0.0575 I0. J0.0705
Y2.9123 Z0.0552 I0. J-0.0705
Y3.0533 Z0.0529 I0. J0.0705
Y2.9123 Z0.0505 I0. J-0.0705
Y3.0533 Z0.0482 I0. J0.0705
Y2.9123 Z0.0459 I0. J-0.0705
Y3.0533 Z0.0436 I0. J0.0705
Y2.9123 Z0.0412 I0. J-0.0705
Y3.0533 Z0.0389 I0. J0.0705
Y2.9123 Z0.0366 I0. J-0.0705
Y3.0533 Z0.0343 I0. J0.0705
Y2.9123 Z0.032 I0. J-0.0705
Y3.0533 Z0.0296 I0. J0.0705
Y2.9123 Z0.0273 I0. J-0.0705
Y3.0533 Z0.025 I0. J0.0705
Y2.9123 Z0.0227 I0. J-0.0705
Y3.0533 Z0.0204 I0. J0.0705
Y2.9123 Z0.018 I0. J-0.0705
Y3.0533 Z0.0157 I0. J0.0705
Y2.9123 Z0.0134 I0. J-0.0705
Y3.0533 Z0.0111 I0. J0.0705
Y2.9123 Z0.0087 I0. J-0.0705
Y3.0533 Z0.0064 I0. J0.0705
Y2.9123 Z0.0041 I0. J-0.0705
Y3.0533 Z0.0018 I0. J0.0705
Y2.9123 Z-0.0005 I0. J-0.0705
Y3.0533 Z-0.0029 I0. J0.0705
Y2.9123 Z-0.0052 I0. J-0.0705
Y3.0533 Z-0.0075 I0. J0.0705
Y2.9123 Z-0.0098 I0. J-0.0705
Y3.0533 Z-0.0121 I0. J0.0705
Y2.9123 Z-0.0145 I0. J-0.0705
Y3.0533 Z-0.0168 I0. J0.0705
Y2.9123 Z-0.0191 I0. J-0.0705
Y3.0533 Z-0.0214 I0. J0.0705
Y2.9123 Z-0.0238 I0. J-0.0705
Y3.0533 Z-0.0261 I0. J0.0705
Y2.9123 Z-0.0284 I0. J-0.0705
Y3.0533 Z-0.0307 I0. J0.0705
Y2.9123 Z-0.033 I0. J-0.0705
Y3.0533 Z-0.0354 I0. J0.0705
Y2.9123 Z-0.0377 I0. J-0.0705
Y3.0533 Z-0.04 I0. J0.0705
Y2.9123 Z-0.0423 I0. J-0.0705
Y3.0533 Z-0.0446 I0. J0.0705
Y2.9123 Z-0.047 I0. J-0.0705
Y3.0533 Z-0.0493 I0. J0.0705
Y2.9123 Z-0.0516 I0. J-0.0705
Y3.0533 Z-0.0539 I0. J0.0705
Y2.9123 Z-0.0563 I0. J-0.0705
Y3.0533 Z-0.0586 I0. J0.0705
Y2.9123 Z-0.0609 I0. J-0.0705
Y3.0533 Z-0.0632 I0. J0.0705
Y2.9123 Z-0.0655 I0. J-0.0705
Y3.0533 Z-0.0679 I0. J0.0705
Y2.9123 Z-0.0702 I0. J-0.0705
Y3.0533 Z-0.0725 I0. J0.0705
Y2.9123 Z-0.0748 I0. J-0.0705
Y3.0533 Z-0.0771 I0. J0.0705
Y2.9123 Z-0.0795 I0. J-0.0705
Y3.0533 Z-0.0818 I0. J0.0705
Y2.9123 Z-0.0841 I0. J-0.0705
Y3.0533 Z-0.0864 I0. J0.0705
Y2.9123 Z-0.0888 I0. J-0.0705
Y3.0533 Z-0.0911 I0. J0.0705
Y2.9123 Z-0.0934 I0. J-0.0705
Y3.0533 Z-0.0957 I0. J0.0705
Y2.9123 Z-0.098 I0. J-0.0705
Y3.0533 Z-0.1004 I0. J0.0705
Y2.9123 Z-0.1027 I0. J-0.0705
Y3.0533 Z-0.105 I0. J0.0705
Y2.9123 Z-0.1073 I0. J-0.0705
Y3.0533 Z-0.1097 I0. J0.0705
Y2.9123 Z-0.112 I0. J-0.0705
Y3.0533 Z-0.1143 I0. J0.0705
Y2.9123 Z-0.1166 I0. J-0.0705
Y3.0533 Z-0.1189 I0. J0.0705
Y2.9123 Z-0.1213 I0. J-0.0705
Y3.0533 Z-0.1236 I0. J0.0705
Y2.9123 Z-0.1259 I0. J-0.0705
Y3.0533 Z-0.1282 I0. J0.0705
Y2.9123 Z-0.1305 I0. J-0.0705
Y3.0533 Z-0.1329 I0. J0.0705
Y2.9123 Z-0.1352 I0. J-0.0705
Y3.0533 Z-0.1375 I0. J0.0705
Y2.9123 Z-0.1398 I0. J-0.0705
Y3.0533 Z-0.1422 I0. J0.0705
Y2.9123 Z-0.1445 I0. J-0.0705
Y3.0533 Z-0.1468 I0. J0.0705
Y2.9123 Z-0.1491 I0. J-0.0705
Y3.0533 Z-0.1514 I0. J0.0705
Y2.9123 Z-0.1538 I0. J-0.0705
Y3.0533 Z-0.1561 I0. J0.0705
Y2.9123 Z-0.1584 I0. J-0.0705
Y3.0533 Z-0.1607 I0. J0.0705
Y2.9123 Z-0.163 I0. J-0.0705
Y3.0533 Z-0.1654 I0. J0.0705
Y2.9123 Z-0.1677 I0. J-0.0705
Y3.0533 Z-0.17 I0. J0.0705
Y2.9123 Z-0.1723 I0. J-0.0705
Y3.0533 Z-0.1747 I0. J0.0705
Y2.9123 Z-0.177 I0. J-0.0705
Y3.0533 Z-0.1793 I0. J0.0705
Y2.9123 Z-0.1816 I0. J-0.0705
Y3.0533 Z-0.1839 I0. J0.0705
Y2.9123 Z-0.1863 I0. J-0.0705
Y3.0533 Z-0.1886 I0. J0.0705
Y2.9123 Z-0.1909 I0. J-0.0705
Y3.0533 Z-0.1932 I0. J0.0705
Y2.9123 Z-0.1955 I0. J-0.0705
Y3.0533 Z-0.1979 I0. J0.0705
Y2.9123 Z-0.2002 I0. J-0.0705
Y3.0533 Z-0.2025 I0. J0.0705
Y2.9123 Z-0.2048 I0. J-0.0705
Y3.0533 Z-0.2072 I0. J0.0705
Y2.9123 Z-0.2095 I0. J-0.0705
Y3.0533 Z-0.2118 I0. J0.0705
Y2.9123 Z-0.2141 I0. J-0.0705
Y3.0533 Z-0.2164 I0. J0.0705
Y2.9123 Z-0.2188 I0. J-0.0705
Y3.0533 Z-0.2211 I0. J0.0705
Y2.9123 Z-0.2234 I0. J-0.0705
X0.4413 Y3.0219 Z-0.225 I0. J0.0705
X0.5587 Y2.9438 I0.0587 J-0.039
X0.4413 Y3.0219 I-0.0587 J0.039
X0.4586 Y3.0254 I0.0104 J-0.0069
G1 X0.4638 Y3.0219
X0.4661 Y3.0204 Z-0.2247
X0.4683 Y3.0189 Z-0.2238
X0.4703 Y3.0176 Z-0.2223
X0.472 Y3.0165 Z-0.2203
X0.4732 Y3.0157 Z-0.2179
X0.474 Y3.0151 Z-0.2153
X0.4742 Y3.015 Z-0.2125
G0 Z0.29
X1.8817 Y2.3312
Z0.17
G1 Z0.1025 F39.4
G19 G3 Y2.3437 Z0.09 J0.0125 K0.
G1 Y2.35
G17 G2 X1.8942 Y2.3625 I0.0125 J0.
Y2.2215 Z0.0877 I0. J-0.0705
Y2.3625 Z0.0854 I0. J0.0705
Y2.2215 Z0.083 I0. J-0.0705
Y2.3625 Z0.0807 I0. J0.0705
Y2.2215 Z0.0784 I0. J-0.0705
Y2.3625 Z0.0761 I0. J0.0705
Y2.2215 Z0.0737 I0. J-0.0705
Y2.3625 Z0.0714 I0. J0.0705
Y2.2215 Z0.0691 I0. J-0.0705
Y2.3625 Z0.0668 I0. J0.0705
Y2.2215 Z0.0645 I0. J-0.0705
Y2.3625 Z0.0621 I0. J0.0705
Y2.2215 Z0.0598 I0. J-0.0705
Y2.3625 Z0.0575 I0. J0.0705
Y2.2215 Z0.0552 I0. J-0.0705
Y2.3625 Z0.0529 I0. J0.0705
Y2.2215 Z0.0505 I0. J-0.0705
Y2.3625 Z0.0482 I0. J0.0705
Y2.2215 Z0.0459 I0. J-0.0705
Y2.3625 Z0.0436 I0. J0.0705
Y2.2215 Z0.0412 I0. J-0.0705
Y2.3625 Z0.0389 I0. J0.0705
Y2.2215 Z0.0366 I0. J-0.0705
Y2.3625 Z0.0343 I0. J0.0705
Y2.2215 Z0.032 I0. J-0.0705
Y2.3625 Z0.0296 I0. J0.0705
Y2.2215 Z0.0273 I0. J-0.0705
Y2.3625 Z0.025 I0. J0.0705
Y2.2215 Z0.0227 I0. J-0.0705
Y2.3625 Z0.0204 I0. J0.0705
Y2.2215 Z0.018 I0. J-0.0705
Y2.3625 Z0.0157 I0. J0.0705
Y2.2215 Z0.0134 I0. J-0.0705
Y2.3625 Z0.0111 I0. J0.0705
Y2.2215 Z0.0087 I0. J-0.0705
Y2.3625 Z0.0064 I0. J0.0705
Y2.2215 Z0.0041 I0. J-0.0705
Y2.3625 Z0.0018 I0. J0.0705
Y2.2215 Z-0.0005 I0. J-0.0705
Y2.3625 Z-0.0029 I0. J0.0705
Y2.2215 Z-0.0052 I0. J-0.0705
Y2.3625 Z-0.0075 I0. J0.0705
Y2.2215 Z-0.0098 I0. J-0.0705
Y2.3625 Z-0.0121 I0. J0.0705
Y2.2215 Z-0.0145 I0. J-0.0705
Y2.3625 Z-0.0168 I0. J0.0705
Y2.2215 Z-0.0191 I0. J-0.0705
Y2.3625 Z-0.0214 I0. J0.0705
Y2.2215 Z-0.0238 I0. J-0.0705
Y2.3625 Z-0.0261 I0. J0.0705
Y2.2215 Z-0.0284 I0. J-0.0705
Y2.3625 Z-0.0307 I0. J0.0705
Y2.2215 Z-0.033 I0. J-0.0705
Y2.3625 Z-0.0354 I0. J0.0705
Y2.2215 Z-0.0377 I0. J-0.0705
Y2.3625 Z-0.04 I0. J0.0705
Y2.2215 Z-0.0423 I0. J-0.0705
Y2.3625 Z-0.0446 I0. J0.0705
Y2.2215 Z-0.047 I0. J-0.0705
Y2.3625 Z-0.0493 I0. J0.0705
Y2.2215 Z-0.0516 I0. J-0.0705
Y2.3625 Z-0.0539 I0. J0.0705
Y2.2215 Z-0.0563 I0. J-0.0705
Y2.3625 Z-0.0586 I0. J0.0705
Y2.2215 Z-0.0609 I0. J-0.0705
Y2.3625 Z-0.0632 I0. J0.0705
Y2.2215 Z-0.0655 I0. J-0.0705
Y2.3625 Z-0.0679 I0. J0.0705
Y2.2215 Z-0.0702 I0. J-0.0705
Y2.3625 Z-0.0725 I0. J0.0705
Y2.2215 Z-0.0748 I0. J-0.0705
Y2.3625 Z-0.0771 I0. J0.0705
Y2.2215 Z-0.0795 I0. J-0.0705
Y2.3625 Z-0.0818 I0. J0.0705
Y2.2215 Z-0.0841 I0. J-0.0705
Y2.3625 Z-0.0864 I0. J0.0705
Y2.2215 Z-0.0888 I0. J-0.0705
Y2.3625 Z-0.0911 I0. J0.0705
Y2.2215 Z-0.0934 I0. J-0.0705
Y2.3625 Z-0.0957 I0. J0.0705
Y2.2215 Z-0.098 I0. J-0.0705
Y2.3625 Z-0.1004 I0. J0.0705
Y2.2215 Z-0.1027 I0. J-0.0705
Y2.3625 Z-0.105 I0. J0.0705
Y2.2215 Z-0.1073 I0. J-0.0705
Y2.3625 Z-0.1097 I0. J0.0705
Y2.2215 Z-0.112 I0. J-0.0705
Y2.3625 Z-0.1143 I0. J0.0705
Y2.2215 Z-0.1166 I0. J-0.0705
Y2.3625 Z-0.1189 I0. J0.0705
Y2.2215 Z-0.1213 I0. J-0.0705
Y2.3625 Z-0.1236 I0. J0.0705
Y2.2215 Z-0.1259 I0. J-0.0705
Y2.3625 Z-0.1282 I0. J0.0705
Y2.2215 Z-0.1305 I0. J-0.0705
Y2.3625 Z-0.1329 I0. J0.0705
Y2.2215 Z-0.1352 I0. J-0.0705
Y2.3625 Z-0.1375 I0. J0.0705
Y2.2215 Z-0.1398 I0. J-0.0705
Y2.3625 Z-0.1422 I0. J0.0705
Y2.2215 Z-0.1445 I0. J-0.0705
Y2.3625 Z-0.1468 I0. J0.0705
Y2.2215 Z-0.1491 I0. J-0.0705
Y2.3625 Z-0.1514 I0. J0.0705
Y2.2215 Z-0.1538 I0. J-0.0705
Y2.3625 Z-0.1561 I0. J0.0705
Y2.2215 Z-0.1584 I0. J-0.0705
Y2.3625 Z-0.1607 I0. J0.0705
Y2.2215 Z-0.163 I0. J-0.0705
Y2.3625 Z-0.1654 I0. J0.0705
Y2.2215 Z-0.1677 I0. J-0.0705
Y2.3625 Z-0.17 I0. J0.0705
Y2.2215 Z-0.1723 I0. J-0.0705
Y2.3625 Z-0.1747 I0. J0.0705
Y2.2215 Z-0.177 I0. J-0.0705
Y2.3625 Z-0.1793 I0. J0.0705
Y2.2215 Z-0.1816 I0. J-0.0705
Y2.3625 Z-0.1839 I0. J0.0705
Y2.2215 Z-0.1863 I0. J-0.0705
Y2.3625 Z-0.1886 I0. J0.0705
Y2.2215 Z-0.1909 I0. J-0.0705
Y2.3625 Z-0.1932 I0. J0.0705
Y2.2215 Z-0.1955 I0. J-0.0705
Y2.3625 Z-0.1979 I0. J0.0705
Y2.2215 Z-0.2002 I0. J-0.0705
Y2.3625 Z-0.2025 I0. J0.0705
Y2.2215 Z-0.2048 I0. J-0.0705
Y2.3625 Z-0.2072 I0. J0.0705
Y2.2215 Z-0.2095 I0. J-0.0705
Y2.3625 Z-0.2118 I0. J0.0705
Y2.2215 Z-0.2141 I0. J-0.0705
Y2.3625 Z-0.2164 I0. J0.0705
Y2.2215 Z-0.2188 I0. J-0.0705
Y2.3625 Z-0.2211 I0. J0.0705
Y2.2215 Z-0.2234 I0. J-0.0705
X1.8355 Y2.331 Z-0.225 I0. J0.0705
X1.9529 Y2.253 I0.0587 J-0.039
X1.8355 Y2.331 I-0.0587 J0.039
X1.8529 Y2.3345 I0.0104 J-0.0069
G1 X1.8581 Y2.3311
X1.8604 Y2.3295 Z-0.2247
X1.8626 Y2.3281 Z-0.2238
X1.8646 Y2.3267 Z-0.2223
X1.8662 Y2.3256 Z-0.2203
X1.8674 Y2.3248 Z-0.2179
X1.8682 Y2.3243 Z-0.2153
X1.8685 Y2.3241 Z-0.2125
G0 Z0.29
X2.4875 Y1.5956
Z0.17
G1 Z0.1025 F39.4
G19 G3 Y1.6081 Z0.09 J0.0125 K0.
G1 Y1.6144
G17 G2 X2.5 Y1.6269 I0.0125 J0.
Y1.3659 Z0.0866 I0. J-0.1305
Y1.6269 Z0.0833 I0. J0.1305
Y1.3659 Z0.0799 I0. J-0.1305
Y1.6269 Z0.0765 I0. J0.1305
Y1.3659 Z0.0732 I0. J-0.1305
Y1.6269 Z0.0698 I0. J0.1305
Y1.3659 Z0.0664 I0. J-0.1305
Y1.6269 Z0.063 I0. J0.1305
Y1.3659 Z0.0597 I0. J-0.1305
Y1.6269 Z0.0563 I0. J0.1305
Y1.3659 Z0.0529 I0. J-0.1305
Y1.6269 Z0.0496 I0. J0.1305
Y1.3659 Z0.0462 I0. J-0.1305
Y1.6269 Z0.0428 I0. J0.1305
Y1.3659 Z0.0395 I0. J-0.1305
Y1.6269 Z0.0361 I0. J0.1305
Y1.3659 Z0.0327 I0. J-0.1305
Y1.6269 Z0.0294 I0. J0.1305
Y1.3659 Z0.026 I0. J-0.1305
Y1.6269 Z0.0226 I0. J0.1305
Y1.3659 Z0.0193 I0. J-0.1305
Y1.6269 Z0.0159 I0. J0.1305
Y1.3659 Z0.0125 I0. J-0.1305
Y1.6269 Z0.0091 I0. J0.1305
Y1.3659 Z0.0058 I0. J-0.1305
Y1.6269 Z0.0024 I0. J0.1305
Y1.3659 Z-0.001 I0. J-0.1305
Y1.6269 Z-0.0043 I0. J0.1305
Y1.3659 Z-0.0077 I0. J-0.1305
Y1.6269 Z-0.0111 I0. J0.1305
Y1.3659 Z-0.0144 I0. J-0.1305
Y1.6269 Z-0.0178 I0. J0.1305
Y1.3659 Z-0.0212 I0. J-0.1305
Y1.6269 Z-0.0245 I0. J0.1305
Y1.3659 Z-0.0279 I0. J-0.1305
Y1.6269 Z-0.0313 I0. J0.1305
Y1.3659 Z-0.0346 I0. J-0.1305
Y1.6269 Z-0.038 I0. J0.1305
Y1.3659 Z-0.0414 I0. J-0.1305
Y1.6269 Z-0.0448 I0. J0.1305
Y1.3659 Z-0.0481 I0. J-0.1305
Y1.6269 Z-0.0515 I0. J0.1305
Y1.3659 Z-0.0549 I0. J-0.1305
Y1.6269 Z-0.0582 I0. J0.1305
Y1.3659 Z-0.0616 I0. J-0.1305
Y1.6269 Z-0.065 I0. J0.1305
Y1.3659 Z-0.0683 I0. J-0.1305
Y1.6269 Z-0.0717 I0. J0.1305
Y1.3659 Z-0.0751 I0. J-0.1305
Y1.6269 Z-0.0784 I0. J0.1305
Y1.3659 Z-0.0818 I0. J-0.1305
Y1.6269 Z-0.0852 I0. J0.1305
Y1.3659 Z-0.0885 I0. J-0.1305
Y1.6269 Z-0.0919 I0. J0.1305
Y1.3659 Z-0.0953 I0. J-0.1305
Y1.6269 Z-0.0987 I0. J0.1305
Y1.3659 Z-0.102 I0. J-0.1305
Y1.6269 Z-0.1054 I0. J0.1305
Y1.3659 Z-0.1088 I0. J-0.1305
Y1.6269 Z-0.1121 I0. J0.1305
Y1.3659 Z-0.1155 I0. J-0.1305
Y1.6269 Z-0.1189 I0. J0.1305
Y1.3659 Z-0.1222 I0. J-0.1305
Y1.6269 Z-0.1256 I0. J0.1305
Y1.3659 Z-0.129 I0. J-0.1305
Y1.6269 Z-0.1323 I0. J0.1305
Y1.3659 Z-0.1357 I0. J-0.1305
Y1.6269 Z-0.1391 I0. J0.1305
Y1.3659 Z-0.1424 I0. J-0.1305
Y1.6269 Z-0.1458 I0. J0.1305
Y1.3659 Z-0.1492 I0. J-0.1305
Y1.6269 Z-0.1526 I0. J0.1305
Y1.3659 Z-0.1559 I0. J-0.1305
Y1.6269 Z-0.1593 I0. J0.1305
Y1.3659 Z-0.1627 I0. J-0.1305
Y1.6269 Z-0.166 I0. J0.1305
Y1.3659 Z-0.1694 I0. J-0.1305
Y1.6269 Z-0.1728 I0. J0.1305
Y1.3659 Z-0.1761 I0. J-0.1305
Y1.6269 Z-0.1795 I0. J0.1305
Y1.3659 Z-0.1829 I0. J-0.1305
Y1.6269 Z-0.1862 I0. J0.1305
Y1.3659 Z-0.1896 I0. J-0.1305
Y1.6269 Z-0.193 I0. J0.1305
Y1.3659 Z-0.1964 I0. J-0.1305
Y1.6269 Z-0.1997 I0. J0.1305
Y1.3659 Z-0.2031 I0. J-0.1305
Y1.6269 Z-0.2065 I0. J0.1305
Y1.3659 Z-0.2098 I0. J-0.1305
Y1.6269 Z-0.2132 I0. J0.1305
Y1.3659 Z-0.2166 I0. J-0.1305
Y1.6269 Z-0.2199 I0. J0.1305
Y1.3659 Z-0.2233 I0. J-0.1305
X2.3695 Y1.4981 Z-0.225 I0. J0.1305
X2.6305 Y1.4946 I0.1305 J-0.0018
X2.3695 Y1.4981 I-0.1305 J0.0018
X2.3822 Y1.5105 I0.0125 J-0.0002
G1 X2.3884 Y1.5104
X2.3912 Y1.5103 Z-0.2247
X2.3939 Z-0.2238
X2.3962 Z-0.2223
X2.3982 Y1.5102 Z-0.2203
X2.3997 Z-0.2179
X2.4006 Z-0.2153
X2.4009 Z-0.2125
G0 Z0.29
X3.0933 Y0.74
Z0.17
G1 Z0.1025 F39.4
G19 G3 Y0.7525 Z0.09 J0.0125 K0.
G1 Y0.7587
G17 G2 X3.1058 Y0.7712 I0.0125 J0.
Y0.6302 Z0.0877 I0. J-0.0705
Y0.7712 Z0.0854 I0. J0.0705
Y0.6302 Z0.083 I0. J-0.0705
Y0.7712 Z0.0807 I0. J0.0705
Y0.6302 Z0.0784 I0. J-0.0705
Y0.7712 Z0.0761 I0. J0.0705
Y0.6302 Z0.0737 I0. J-0.0705
Y0.7712 Z0.0714 I0. J0.0705
Y0.6302 Z0.0691 I0. J-0.0705
Y0.7712 Z0.0668 I0. J0.0705
Y0.6302 Z0.0645 I0. J-0.0705
Y0.7712 Z0.0621 I0. J0.0705
Y0.6302 Z0.0598 I0. J-0.0705
Y0.7712 Z0.0575 I0. J0.0705
Y0.6302 Z0.0552 I0. J-0.0705
Y0.7712 Z0.0529 I0. J0.0705
Y0.6302 Z0.0505 I0. J-0.0705
Y0.7712 Z0.0482 I0. J0.0705
Y0.6302 Z0.0459 I0. J-0.0705
Y0.7712 Z0.0436 I0. J0.0705
Y0.6302 Z0.0412 I0. J-0.0705
Y0.7712 Z0.0389 I0. J0.0705
Y0.6302 Z0.0366 I0. J-0.0705
Y0.7712 Z0.0343 I0. J0.0705
Y0.6302 Z0.032 I0. J-0.0705
Y0.7712 Z0.0296 I0. J0.0705
Y0.6302 Z0.0273 I0. J-0.0705
Y0.7712 Z0.025 I0. J0.0705
Y0.6302 Z0.0227 I0. J-0.0705
Y0.7712 Z0.0204 I0. J0.0705
Y0.6302 Z0.018 I0. J-0.0705
Y0.7712 Z0.0157 I0. J0.0705
Y0.6302 Z0.0134 I0. J-0.0705
Y0.7712 Z0.0111 I0. J0.0705
Y0.6302 Z0.0087 I0. J-0.0705
Y0.7712 Z0.0064 I0. J0.0705
Y0.6302 Z0.0041 I0. J-0.0705
Y0.7712 Z0.0018 I0. J0.0705
Y0.6302 Z-0.0005 I0. J-0.0705
Y0.7712 Z-0.0029 I0. J0.0705
Y0.6302 Z-0.0052 I0. J-0.0705
Y0.7712 Z-0.0075 I0. J0.0705
Y0.6302 Z-0.0098 I0. J-0.0705
Y0.7712 Z-0.0121 I0. J0.0705
Y0.6302 Z-0.0145 I0. J-0.0705
Y0.7712 Z-0.0168 I0. J0.0705
Y0.6302 Z-0.0191 I0. J-0.0705
Y0.7712 Z-0.0214 I0. J0.0705
Y0.6302 Z-0.0238 I0. J-0.0705
Y0.7712 Z-0.0261 I0. J0.0705
Y0.6302 Z-0.0284 I0. J-0.0705
Y0.7712 Z-0.0307 I0. J0.0705
Y0.6302 Z-0.033 I0. J-0.0705
Y0.7712 Z-0.0354 I0. J0.0705
Y0.6302 Z-0.0377 I0. J-0.0705
Y0.7712 Z-0.04 I0. J0.0705
Y0.6302 Z-0.0423 I0. J-0.0705
Y0.7712 Z-0.0446 I0. J0.0705
Y0.6302 Z-0.047 I0. J-0.0705
Y0.7712 Z-0.0493 I0. J0.0705
Y0.6302 Z-0.0516 I0. J-0.0705
Y0.7712 Z-0.0539 I0. J0.0705
Y0.6302 Z-0.0563 I0. J-0.0705
Y0.7712 Z-0.0586 I0. J0.0705
Y0.6302 Z-0.0609 I0. J-0.0705
Y0.7712 Z-0.0632 I0. J0.0705
Y0.6302 Z-0.0655 I0. J-0.0705
Y0.7712 Z-0.0679 I0. J0.0705
Y0.6302 Z-0.0702 I0. J-0.0705
Y0.7712 Z-0.0725 I0. J0.0705
Y0.6302 Z-0.0748 I0. J-0.0705
Y0.7712 Z-0.0771 I0. J0.0705
Y0.6302 Z-0.0795 I0. J-0.0705
Y0.7712 Z-0.0818 I0. J0.0705
Y0.6302 Z-0.0841 I0. J-0.0705
Y0.7712 Z-0.0864 I0. J0.0705
Y0.6302 Z-0.0888 I0. J-0.0705
Y0.7712 Z-0.0911 I0. J0.0705
Y0.6302 Z-0.0934 I0. J-0.0705
Y0.7712 Z-0.0957 I0. J0.0705
Y0.6302 Z-0.098 I0. J-0.0705
Y0.7712 Z-0.1004 I0. J0.0705
Y0.6302 Z-0.1027 I0. J-0.0705
Y0.7712 Z-0.105 I0. J0.0705
Y0.6302 Z-0.1073 I0. J-0.0705
Y0.7712 Z-0.1097 I0. J0.0705
Y0.6302 Z-0.112 I0. J-0.0705
Y0.7712 Z-0.1143 I0. J0.0705
Y0.6302 Z-0.1166 I0. J-0.0705
Y0.7712 Z-0.1189 I0. J0.0705
Y0.6302 Z-0.1213 I0. J-0.0705
Y0.7712 Z-0.1236 I0. J0.0705
Y0.6302 Z-0.1259 I0. J-0.0705
Y0.7712 Z-0.1282 I0. J0.0705
Y0.6302 Z-0.1305 I0. J-0.0705
Y0.7712 Z-0.1329 I0. J0.0705
Y0.6302 Z-0.1352 I0. J-0.0705
Y0.7712 Z-0.1375 I0. J0.0705
Y0.6302 Z-0.1398 I0. J-0.0705
Y0.7712 Z-0.1422 I0. J0.0705
Y0.6302 Z-0.1445 I0. J-0.0705
Y0.7712 Z-0.1468 I0. J0.0705
Y0.6302 Z-0.1491 I0. J-0.0705
Y0.7712 Z-0.1514 I0. J0.0705
Y0.6302 Z-0.1538 I0. J-0.0705
Y0.7712 Z-0.1561 I0. J0.0705
Y0.6302 Z-0.1584 I0. J-0.0705
Y0.7712 Z-0.1607 I0. J0.0705
Y0.6302 Z-0.163 I0. J-0.0705
Y0.7712 Z-0.1654 I0. J0.0705
Y0.6302 Z-0.1677 I0. J-0.0705
Y0.7712 Z-0.17 I0. J0.0705
Y0.6302 Z-0.1723 I0. J-0.0705
Y0.7712 Z-0.1747 I0. J0.0705
Y0.6302 Z-0.177 I0. J-0.0705
Y0.7712 Z-0.1793 I0. J0.0705
Y0.6302 Z-0.1816 I0. J-0.0705
Y0.7712 Z-0.1839 I0. J0.0705
Y0.6302 Z-0.1863 I0. J-0.0705
Y0.7712 Z-0.1886 I0. J0.0705
Y0.6302 Z-0.1909 I0. J-0.0705
Y0.7712 Z-0.1932 I0. J0.0705
Y0.6302 Z-0.1955 I0. J-0.0705
Y0.7712 Z-0.1979 I0. J0.0705
Y0.6302 Z-0.2002 I0. J-0.0705
Y0.7712 Z-0.2025 I0. J0.0705
Y0.6302 Z-0.2048 I0. J-0.0705
Y0.7712 Z-0.2072 I0. J0.0705
Y0.6302 Z-0.2095 I0. J-0.0705
Y0.7712 Z-0.2118 I0. J0.0705
Y0.6302 Z-0.2141 I0. J-0.0705
Y0.7712 Z-0.2164 I0. J0.0705
Y0.6302 Z-0.2188 I0. J-0.0705
Y0.7712 Z-0.2211 I0. J0.0705
Y0.6302 Z-0.2234 I0. J-0.0705
X3.047 Y0.7397 Z-0.225 I0. J0.0705
X3.1645 Y0.6617 I0.0587 J-0.039
X3.047 Y0.7397 I-0.0587 J0.039
X3.0644 Y0.7432 I0.0104 J-0.0069
G1 X3.0696 Y0.7398
X3.0719 Y0.7382 Z-0.2247
X3.0741 Y0.7368 Z-0.2238
X3.0761 Y0.7354 Z-0.2223
X3.0777 Y0.7344 Z-0.2203
X3.079 Y0.7335 Z-0.2179
X3.0797 Y0.733 Z-0.2153
X3.08 Y0.7328 Z-0.2125
G0 Z0.54

M9
M30
