(1001)
(T1  D=0.25 CR=0. - ZMIN=-0.325 - FLAT END MILL)
G90 G94 G91.1 G40 G49 G17
G20
g0 z.5

(BORE4)
M5
T1 M6
S15000 M3
G54
M8
G0 X0.5 Y0.5
G43 Z0.64 H1
Z0.155
G1 Z0.1 F10.
X0.504 Y0.504
X0.5037 Y0.5055
X0.5028 Y0.5068
X0.5015 Y0.5077
X0.5 Y0.508
G3 Y0.492 Z0.0977 I0. J-0.008 F20.
Y0.508 Z0.0954 I0. J0.008
Y0.492 Z0.093 I0. J-0.008
Y0.508 Z0.0907 I0. J0.008
Y0.492 Z0.0884 I0. J-0.008
Y0.508 Z0.0861 I0. J0.008
Y0.492 Z0.0837 I0. J-0.008
Y0.508 Z0.0814 I0. J0.008
Y0.492 Z0.0791 I0. J-0.008
Y0.508 Z0.0768 I0. J0.008
Y0.492 Z0.0745 I0. J-0.008
Y0.508 Z0.0721 I0. J0.008
Y0.492 Z0.0698 I0. J-0.008
Y0.508 Z0.0675 I0. J0.008
Y0.492 Z0.0652 I0. J-0.008
Y0.508 Z0.0629 I0. J0.008
Y0.492 Z0.0605 I0. J-0.008
Y0.508 Z0.0582 I0. J0.008
Y0.492 Z0.0559 I0. J-0.008
Y0.508 Z0.0536 I0. J0.008
Y0.492 Z0.0512 I0. J-0.008
Y0.508 Z0.0489 I0. J0.008
Y0.492 Z0.0466 I0. J-0.008
Y0.508 Z0.0443 I0. J0.008
Y0.492 Z0.042 I0. J-0.008
Y0.508 Z0.0396 I0. J0.008
Y0.492 Z0.0373 I0. J-0.008
Y0.508 Z0.035 I0. J0.008
Y0.492 Z0.0327 I0. J-0.008
Y0.508 Z0.0304 I0. J0.008
Y0.492 Z0.028 I0. J-0.008
Y0.508 Z0.0257 I0. J0.008
Y0.492 Z0.0234 I0. J-0.008
Y0.508 Z0.0211 I0. J0.008
Y0.492 Z0.0187 I0. J-0.008
Y0.508 Z0.0164 I0. J0.008
Y0.492 Z0.0141 I0. J-0.008
Y0.508 Z0.0118 I0. J0.008
Y0.492 Z0.0095 I0. J-0.008
Y0.508 Z0.0071 I0. J0.008
Y0.492 Z0.0048 I0. J-0.008
Y0.508 Z0.0025 I0. J0.008
Y0.492 Z0.0002 I0. J-0.008
Y0.508 Z-0.0021 I0. J0.008
Y0.492 Z-0.0045 I0. J-0.008
Y0.508 Z-0.0068 I0. J0.008
Y0.492 Z-0.0091 I0. J-0.008
Y0.508 Z-0.0114 I0. J0.008
Y0.492 Z-0.0138 I0. J-0.008
Y0.508 Z-0.0161 I0. J0.008
Y0.492 Z-0.0184 I0. J-0.008
Y0.508 Z-0.0207 I0. J0.008
Y0.492 Z-0.023 I0. J-0.008
Y0.508 Z-0.0254 I0. J0.008
Y0.492 Z-0.0277 I0. J-0.008
Y0.508 Z-0.03 I0. J0.008
Y0.492 Z-0.0323 I0. J-0.008
Y0.508 Z-0.0346 I0. J0.008
Y0.492 Z-0.037 I0. J-0.008
Y0.508 Z-0.0393 I0. J0.008
Y0.492 Z-0.0416 I0. J-0.008
Y0.508 Z-0.0439 I0. J0.008
Y0.492 Z-0.0463 I0. J-0.008
Y0.508 Z-0.0486 I0. J0.008
Y0.492 Z-0.0509 I0. J-0.008
Y0.508 Z-0.0532 I0. J0.008
Y0.492 Z-0.0555 I0. J-0.008
Y0.508 Z-0.0579 I0. J0.008
Y0.492 Z-0.0602 I0. J-0.008
Y0.508 Z-0.0625 I0. J0.008
Y0.492 Z-0.0648 I0. J-0.008
Y0.508 Z-0.0671 I0. J0.008
Y0.492 Z-0.0695 I0. J-0.008
Y0.508 Z-0.0718 I0. J0.008
Y0.492 Z-0.0741 I0. J-0.008
Y0.508 Z-0.0764 I0. J0.008
Y0.492 Z-0.0788 I0. J-0.008
Y0.508 Z-0.0811 I0. J0.008
Y0.492 Z-0.0834 I0. J-0.008
Y0.508 Z-0.0857 I0. J0.008
Y0.492 Z-0.088 I0. J-0.008
Y0.508 Z-0.0904 I0. J0.008
Y0.492 Z-0.0927 I0. J-0.008
Y0.508 Z-0.095 I0. J0.008
Y0.492 Z-0.0973 I0. J-0.008
Y0.508 Z-0.0997 I0. J0.008
Y0.492 Z-0.102 I0. J-0.008
Y0.508 Z-0.1043 I0. J0.008
Y0.492 Z-0.1066 I0. J-0.008
Y0.508 Z-0.1089 I0. J0.008
Y0.492 Z-0.1113 I0. J-0.008
Y0.508 Z-0.1136 I0. J0.008
Y0.492 Z-0.1159 I0. J-0.008
Y0.508 Z-0.1182 I0. J0.008
Y0.492 Z-0.1205 I0. J-0.008
Y0.508 Z-0.1229 I0. J0.008
Y0.492 Z-0.1252 I0. J-0.008
Y0.508 Z-0.1275 I0. J0.008
Y0.492 Z-0.1298 I0. J-0.008
Y0.508 Z-0.1322 I0. J0.008
Y0.492 Z-0.1345 I0. J-0.008
Y0.508 Z-0.1368 I0. J0.008
Y0.492 Z-0.1391 I0. J-0.008
Y0.508 Z-0.1414 I0. J0.008
Y0.492 Z-0.1438 I0. J-0.008
Y0.508 Z-0.1461 I0. J0.008
Y0.492 Z-0.1484 I0. J-0.008
Y0.508 Z-0.1507 I0. J0.008
Y0.492 Z-0.153 I0. J-0.008
Y0.508 Z-0.1554 I0. J0.008
Y0.492 Z-0.1577 I0. J-0.008
Y0.508 Z-0.16 I0. J0.008
Y0.492 Z-0.1623 I0. J-0.008
Y0.508 Z-0.1647 I0. J0.008
Y0.492 Z-0.167 I0. J-0.008
Y0.508 Z-0.1693 I0. J0.008
Y0.492 Z-0.1716 I0. J-0.008
Y0.508 Z-0.1739 I0. J0.008
Y0.492 Z-0.1763 I0. J-0.008
Y0.508 Z-0.1786 I0. J0.008
Y0.492 Z-0.1809 I0. J-0.008
Y0.508 Z-0.1832 I0. J0.008
Y0.492 Z-0.1855 I0. J-0.008
Y0.508 Z-0.1879 I0. J0.008
Y0.492 Z-0.1902 I0. J-0.008
Y0.508 Z-0.1925 I0. J0.008
Y0.492 Z-0.1948 I0. J-0.008
Y0.508 Z-0.1972 I0. J0.008
Y0.492 Z-0.1995 I0. J-0.008
Y0.508 Z-0.2018 I0. J0.008
Y0.492 Z-0.2041 I0. J-0.008
Y0.508 Z-0.2064 I0. J0.008
Y0.492 Z-0.2088 I0. J-0.008
Y0.508 Z-0.2111 I0. J0.008
Y0.492 Z-0.2134 I0. J-0.008
Y0.508 Z-0.2157 I0. J0.008
Y0.492 Z-0.218 I0. J-0.008
Y0.508 Z-0.2204 I0. J0.008
Y0.492 Z-0.2227 I0. J-0.008
Y0.508 Z-0.225 I0. J0.008
Y0.492 Z-0.2273 I0. J-0.008
Y0.508 Z-0.2297 I0. J0.008
Y0.492 Z-0.232 I0. J-0.008
Y0.508 Z-0.2343 I0. J0.008
Y0.492 Z-0.2366 I0. J-0.008
Y0.508 Z-0.2389 I0. J0.008
Y0.492 Z-0.2413 I0. J-0.008
Y0.508 Z-0.2436 I0. J0.008
Y0.492 Z-0.2459 I0. J-0.008
Y0.508 Z-0.2482 I0. J0.008
Y0.492 Z-0.2506 I0. J-0.008
Y0.508 Z-0.2529 I0. J0.008
Y0.492 Z-0.2552 I0. J-0.008
Y0.508 Z-0.2575 I0. J0.008
Y0.492 Z-0.2598 I0. J-0.008
Y0.508 Z-0.2622 I0. J0.008
Y0.492 Z-0.2645 I0. J-0.008
Y0.508 Z-0.2668 I0. J0.008
Y0.492 Z-0.2691 I0. J-0.008
Y0.508 Z-0.2714 I0. J0.008
Y0.492 Z-0.2738 I0. J-0.008
Y0.508 Z-0.2761 I0. J0.008
Y0.492 Z-0.2784 I0. J-0.008
Y0.508 Z-0.2807 I0. J0.008
Y0.492 Z-0.2831 I0. J-0.008
Y0.508 Z-0.2854 I0. J0.008
Y0.492 Z-0.2877 I0. J-0.008
Y0.508 Z-0.29 I0. J0.008
Y0.492 Z-0.2923 I0. J-0.008
Y0.508 Z-0.2947 I0. J0.008
Y0.492 Z-0.297 I0. J-0.008
Y0.508 Z-0.2993 I0. J0.008
Y0.492 Z-0.3016 I0. J-0.008
Y0.508 Z-0.3039 I0. J0.008
Y0.492 Z-0.3063 I0. J-0.008
Y0.508 Z-0.3086 I0. J0.008
Y0.492 Z-0.3109 I0. J-0.008
Y0.508 Z-0.3132 I0. J0.008
Y0.492 Z-0.3156 I0. J-0.008
Y0.508 Z-0.3179 I0. J0.008
Y0.492 Z-0.3202 I0. J-0.008
Y0.508 Z-0.3225 I0. J0.008
X0.492 Y0.4991 Z-0.3238 I0. J-0.008
X0.5017 Y0.4922 Z-0.325 I0.008 J0.0009
X0.4983 Y0.5078 I-0.0017 J0.0078
X0.5017 Y0.4922 I0.0017 J-0.0078
G1 X0.5032 Y0.4928 F10.
X0.5042 Y0.4939
X0.5048 Y0.4954
Y0.497
X0.5 Y0.5
G0 Z0.24
Y1.7414
Z0.155
G1 Z0.1 F10.
X0.504 Y1.7454
X0.5037 Y1.7469
X0.5028 Y1.7482
X0.5015 Y1.7491
X0.5 Y1.7494
G3 Y1.7334 Z0.0977 I0. J-0.008 F20.
Y1.7494 Z0.0954 I0. J0.008
Y1.7334 Z0.093 I0. J-0.008
Y1.7494 Z0.0907 I0. J0.008
Y1.7334 Z0.0884 I0. J-0.008
Y1.7494 Z0.0861 I0. J0.008
Y1.7334 Z0.0837 I0. J-0.008
Y1.7494 Z0.0814 I0. J0.008
Y1.7334 Z0.0791 I0. J-0.008
Y1.7494 Z0.0768 I0. J0.008
Y1.7334 Z0.0745 I0. J-0.008
Y1.7494 Z0.0721 I0. J0.008
Y1.7334 Z0.0698 I0. J-0.008
Y1.7494 Z0.0675 I0. J0.008
Y1.7334 Z0.0652 I0. J-0.008
Y1.7494 Z0.0629 I0. J0.008
Y1.7334 Z0.0605 I0. J-0.008
Y1.7494 Z0.0582 I0. J0.008
Y1.7334 Z0.0559 I0. J-0.008
Y1.7494 Z0.0536 I0. J0.008
Y1.7334 Z0.0512 I0. J-0.008
Y1.7494 Z0.0489 I0. J0.008
Y1.7334 Z0.0466 I0. J-0.008
Y1.7494 Z0.0443 I0. J0.008
Y1.7334 Z0.042 I0. J-0.008
Y1.7494 Z0.0396 I0. J0.008
Y1.7334 Z0.0373 I0. J-0.008
Y1.7494 Z0.035 I0. J0.008
Y1.7334 Z0.0327 I0. J-0.008
Y1.7494 Z0.0304 I0. J0.008
Y1.7334 Z0.028 I0. J-0.008
Y1.7494 Z0.0257 I0. J0.008
Y1.7334 Z0.0234 I0. J-0.008
Y1.7494 Z0.0211 I0. J0.008
Y1.7334 Z0.0187 I0. J-0.008
Y1.7494 Z0.0164 I0. J0.008
Y1.7334 Z0.0141 I0. J-0.008
Y1.7494 Z0.0118 I0. J0.008
Y1.7334 Z0.0095 I0. J-0.008
Y1.7494 Z0.0071 I0. J0.008
Y1.7334 Z0.0048 I0. J-0.008
Y1.7494 Z0.0025 I0. J0.008
Y1.7334 Z0.0002 I0. J-0.008
Y1.7494 Z-0.0021 I0. J0.008
Y1.7334 Z-0.0045 I0. J-0.008
Y1.7494 Z-0.0068 I0. J0.008
Y1.7334 Z-0.0091 I0. J-0.008
Y1.7494 Z-0.0114 I0. J0.008
Y1.7334 Z-0.0138 I0. J-0.008
Y1.7494 Z-0.0161 I0. J0.008
Y1.7334 Z-0.0184 I0. J-0.008
Y1.7494 Z-0.0207 I0. J0.008
Y1.7334 Z-0.023 I0. J-0.008
Y1.7494 Z-0.0254 I0. J0.008
Y1.7334 Z-0.0277 I0. J-0.008
Y1.7494 Z-0.03 I0. J0.008
Y1.7334 Z-0.0323 I0. J-0.008
Y1.7494 Z-0.0346 I0. J0.008
Y1.7334 Z-0.037 I0. J-0.008
Y1.7494 Z-0.0393 I0. J0.008
Y1.7334 Z-0.0416 I0. J-0.008
Y1.7494 Z-0.0439 I0. J0.008
Y1.7334 Z-0.0463 I0. J-0.008
Y1.7494 Z-0.0486 I0. J0.008
Y1.7334 Z-0.0509 I0. J-0.008
Y1.7494 Z-0.0532 I0. J0.008
Y1.7334 Z-0.0555 I0. J-0.008
Y1.7494 Z-0.0579 I0. J0.008
Y1.7334 Z-0.0602 I0. J-0.008
Y1.7494 Z-0.0625 I0. J0.008
Y1.7334 Z-0.0648 I0. J-0.008
Y1.7494 Z-0.0671 I0. J0.008
Y1.7334 Z-0.0695 I0. J-0.008
Y1.7494 Z-0.0718 I0. J0.008
Y1.7334 Z-0.0741 I0. J-0.008
Y1.7494 Z-0.0764 I0. J0.008
Y1.7334 Z-0.0788 I0. J-0.008
Y1.7494 Z-0.0811 I0. J0.008
Y1.7334 Z-0.0834 I0. J-0.008
Y1.7494 Z-0.0857 I0. J0.008
Y1.7334 Z-0.088 I0. J-0.008
Y1.7494 Z-0.0904 I0. J0.008
Y1.7334 Z-0.0927 I0. J-0.008
Y1.7494 Z-0.095 I0. J0.008
Y1.7334 Z-0.0973 I0. J-0.008
Y1.7494 Z-0.0997 I0. J0.008
Y1.7334 Z-0.102 I0. J-0.008
Y1.7494 Z-0.1043 I0. J0.008
Y1.7334 Z-0.1066 I0. J-0.008
Y1.7494 Z-0.1089 I0. J0.008
Y1.7334 Z-0.1113 I0. J-0.008
Y1.7494 Z-0.1136 I0. J0.008
Y1.7334 Z-0.1159 I0. J-0.008
Y1.7494 Z-0.1182 I0. J0.008
Y1.7334 Z-0.1205 I0. J-0.008
Y1.7494 Z-0.1229 I0. J0.008
Y1.7334 Z-0.1252 I0. J-0.008
Y1.7494 Z-0.1275 I0. J0.008
Y1.7334 Z-0.1298 I0. J-0.008
Y1.7494 Z-0.1322 I0. J0.008
Y1.7334 Z-0.1345 I0. J-0.008
Y1.7494 Z-0.1368 I0. J0.008
Y1.7334 Z-0.1391 I0. J-0.008
Y1.7494 Z-0.1414 I0. J0.008
Y1.7334 Z-0.1438 I0. J-0.008
Y1.7494 Z-0.1461 I0. J0.008
Y1.7334 Z-0.1484 I0. J-0.008
Y1.7494 Z-0.1507 I0. J0.008
Y1.7334 Z-0.153 I0. J-0.008
Y1.7494 Z-0.1554 I0. J0.008
Y1.7334 Z-0.1577 I0. J-0.008
Y1.7494 Z-0.16 I0. J0.008
Y1.7334 Z-0.1623 I0. J-0.008
Y1.7494 Z-0.1647 I0. J0.008
Y1.7334 Z-0.167 I0. J-0.008
Y1.7494 Z-0.1693 I0. J0.008
Y1.7334 Z-0.1716 I0. J-0.008
Y1.7494 Z-0.1739 I0. J0.008
Y1.7334 Z-0.1763 I0. J-0.008
Y1.7494 Z-0.1786 I0. J0.008
Y1.7334 Z-0.1809 I0. J-0.008
Y1.7494 Z-0.1832 I0. J0.008
Y1.7334 Z-0.1855 I0. J-0.008
Y1.7494 Z-0.1879 I0. J0.008
Y1.7334 Z-0.1902 I0. J-0.008
Y1.7494 Z-0.1925 I0. J0.008
Y1.7334 Z-0.1948 I0. J-0.008
Y1.7494 Z-0.1972 I0. J0.008
Y1.7334 Z-0.1995 I0. J-0.008
Y1.7494 Z-0.2018 I0. J0.008
Y1.7334 Z-0.2041 I0. J-0.008
Y1.7494 Z-0.2064 I0. J0.008
Y1.7334 Z-0.2088 I0. J-0.008
Y1.7494 Z-0.2111 I0. J0.008
Y1.7334 Z-0.2134 I0. J-0.008
Y1.7494 Z-0.2157 I0. J0.008
Y1.7334 Z-0.218 I0. J-0.008
Y1.7494 Z-0.2204 I0. J0.008
Y1.7334 Z-0.2227 I0. J-0.008
Y1.7494 Z-0.225 I0. J0.008
Y1.7334 Z-0.2273 I0. J-0.008
Y1.7494 Z-0.2297 I0. J0.008
Y1.7334 Z-0.232 I0. J-0.008
Y1.7494 Z-0.2343 I0. J0.008
Y1.7334 Z-0.2366 I0. J-0.008
Y1.7494 Z-0.2389 I0. J0.008
Y1.7334 Z-0.2413 I0. J-0.008
Y1.7494 Z-0.2436 I0. J0.008
Y1.7334 Z-0.2459 I0. J-0.008
Y1.7494 Z-0.2482 I0. J0.008
Y1.7334 Z-0.2506 I0. J-0.008
Y1.7494 Z-0.2529 I0. J0.008
Y1.7334 Z-0.2552 I0. J-0.008
Y1.7494 Z-0.2575 I0. J0.008
Y1.7334 Z-0.2598 I0. J-0.008
Y1.7494 Z-0.2622 I0. J0.008
Y1.7334 Z-0.2645 I0. J-0.008
Y1.7494 Z-0.2668 I0. J0.008
Y1.7334 Z-0.2691 I0. J-0.008
Y1.7494 Z-0.2714 I0. J0.008
Y1.7334 Z-0.2738 I0. J-0.008
Y1.7494 Z-0.2761 I0. J0.008
Y1.7334 Z-0.2784 I0. J-0.008
Y1.7494 Z-0.2807 I0. J0.008
Y1.7334 Z-0.2831 I0. J-0.008
Y1.7494 Z-0.2854 I0. J0.008
Y1.7334 Z-0.2877 I0. J-0.008
Y1.7494 Z-0.29 I0. J0.008
Y1.7334 Z-0.2923 I0. J-0.008
Y1.7494 Z-0.2947 I0. J0.008
Y1.7334 Z-0.297 I0. J-0.008
Y1.7494 Z-0.2993 I0. J0.008
Y1.7334 Z-0.3016 I0. J-0.008
Y1.7494 Z-0.3039 I0. J0.008
Y1.7334 Z-0.3063 I0. J-0.008
Y1.7494 Z-0.3086 I0. J0.008
Y1.7334 Z-0.3109 I0. J-0.008
Y1.7494 Z-0.3132 I0. J0.008
Y1.7334 Z-0.3156 I0. J-0.008
Y1.7494 Z-0.3179 I0. J0.008
Y1.7334 Z-0.3202 I0. J-0.008
Y1.7494 Z-0.3225 I0. J0.008
X0.492 Y1.7405 Z-0.3238 I0. J-0.008
X0.5017 Y1.7336 Z-0.325 I0.008 J0.0009
X0.4983 Y1.7492 I-0.0017 J0.0078
X0.5017 Y1.7336 I0.0017 J-0.0078
G1 X0.5032 Y1.7342 F10.
X0.5042 Y1.7354
X0.5048 Y1.7368
Y1.7384
X0.5 Y1.7414
G0 Z0.24
Y2.9828
Z0.155
G1 Z0.1 F10.
X0.504 Y2.9868
X0.5037 Y2.9884
X0.5028 Y2.9897
X0.5015 Y2.9905
X0.5 Y2.9908
G3 Y2.9748 Z0.0977 I0. J-0.008 F20.
Y2.9908 Z0.0954 I0. J0.008
Y2.9748 Z0.093 I0. J-0.008
Y2.9908 Z0.0907 I0. J0.008
Y2.9748 Z0.0884 I0. J-0.008
Y2.9908 Z0.0861 I0. J0.008
Y2.9748 Z0.0837 I0. J-0.008
Y2.9908 Z0.0814 I0. J0.008
Y2.9748 Z0.0791 I0. J-0.008
Y2.9908 Z0.0768 I0. J0.008
Y2.9748 Z0.0745 I0. J-0.008
Y2.9908 Z0.0721 I0. J0.008
Y2.9748 Z0.0698 I0. J-0.008
Y2.9908 Z0.0675 I0. J0.008
Y2.9748 Z0.0652 I0. J-0.008
Y2.9908 Z0.0629 I0. J0.008
Y2.9748 Z0.0605 I0. J-0.008
Y2.9908 Z0.0582 I0. J0.008
Y2.9748 Z0.0559 I0. J-0.008
Y2.9908 Z0.0536 I0. J0.008
Y2.9748 Z0.0512 I0. J-0.008
Y2.9908 Z0.0489 I0. J0.008
Y2.9748 Z0.0466 I0. J-0.008
Y2.9908 Z0.0443 I0. J0.008
Y2.9748 Z0.042 I0. J-0.008
Y2.9908 Z0.0396 I0. J0.008
Y2.9748 Z0.0373 I0. J-0.008
Y2.9908 Z0.035 I0. J0.008
Y2.9748 Z0.0327 I0. J-0.008
Y2.9908 Z0.0304 I0. J0.008
Y2.9748 Z0.028 I0. J-0.008
Y2.9908 Z0.0257 I0. J0.008
Y2.9748 Z0.0234 I0. J-0.008
Y2.9908 Z0.0211 I0. J0.008
Y2.9748 Z0.0187 I0. J-0.008
Y2.9908 Z0.0164 I0. J0.008
Y2.9748 Z0.0141 I0. J-0.008
Y2.9908 Z0.0118 I0. J0.008
Y2.9748 Z0.0095 I0. J-0.008
Y2.9908 Z0.0071 I0. J0.008
Y2.9748 Z0.0048 I0. J-0.008
Y2.9908 Z0.0025 I0. J0.008
Y2.9748 Z0.0002 I0. J-0.008
Y2.9908 Z-0.0021 I0. J0.008
Y2.9748 Z-0.0045 I0. J-0.008
Y2.9908 Z-0.0068 I0. J0.008
Y2.9748 Z-0.0091 I0. J-0.008
Y2.9908 Z-0.0114 I0. J0.008
Y2.9748 Z-0.0138 I0. J-0.008
Y2.9908 Z-0.0161 I0. J0.008
Y2.9748 Z-0.0184 I0. J-0.008
Y2.9908 Z-0.0207 I0. J0.008
Y2.9748 Z-0.023 I0. J-0.008
Y2.9908 Z-0.0254 I0. J0.008
Y2.9748 Z-0.0277 I0. J-0.008
Y2.9908 Z-0.03 I0. J0.008
Y2.9748 Z-0.0323 I0. J-0.008
Y2.9908 Z-0.0346 I0. J0.008
Y2.9748 Z-0.037 I0. J-0.008
Y2.9908 Z-0.0393 I0. J0.008
Y2.9748 Z-0.0416 I0. J-0.008
Y2.9908 Z-0.0439 I0. J0.008
Y2.9748 Z-0.0463 I0. J-0.008
Y2.9908 Z-0.0486 I0. J0.008
Y2.9748 Z-0.0509 I0. J-0.008
Y2.9908 Z-0.0532 I0. J0.008
Y2.9748 Z-0.0555 I0. J-0.008
Y2.9908 Z-0.0579 I0. J0.008
Y2.9748 Z-0.0602 I0. J-0.008
Y2.9908 Z-0.0625 I0. J0.008
Y2.9748 Z-0.0648 I0. J-0.008
Y2.9908 Z-0.0671 I0. J0.008
Y2.9748 Z-0.0695 I0. J-0.008
Y2.9908 Z-0.0718 I0. J0.008
Y2.9748 Z-0.0741 I0. J-0.008
Y2.9908 Z-0.0764 I0. J0.008
Y2.9748 Z-0.0788 I0. J-0.008
Y2.9908 Z-0.0811 I0. J0.008
Y2.9748 Z-0.0834 I0. J-0.008
Y2.9908 Z-0.0857 I0. J0.008
Y2.9748 Z-0.088 I0. J-0.008
Y2.9908 Z-0.0904 I0. J0.008
Y2.9748 Z-0.0927 I0. J-0.008
Y2.9908 Z-0.095 I0. J0.008
Y2.9748 Z-0.0973 I0. J-0.008
Y2.9908 Z-0.0997 I0. J0.008
Y2.9748 Z-0.102 I0. J-0.008
Y2.9908 Z-0.1043 I0. J0.008
Y2.9748 Z-0.1066 I0. J-0.008
Y2.9908 Z-0.1089 I0. J0.008
Y2.9748 Z-0.1113 I0. J-0.008
Y2.9908 Z-0.1136 I0. J0.008
Y2.9748 Z-0.1159 I0. J-0.008
Y2.9908 Z-0.1182 I0. J0.008
Y2.9748 Z-0.1205 I0. J-0.008
Y2.9908 Z-0.1229 I0. J0.008
Y2.9748 Z-0.1252 I0. J-0.008
Y2.9908 Z-0.1275 I0. J0.008
Y2.9748 Z-0.1298 I0. J-0.008
Y2.9908 Z-0.1322 I0. J0.008
Y2.9748 Z-0.1345 I0. J-0.008
Y2.9908 Z-0.1368 I0. J0.008
Y2.9748 Z-0.1391 I0. J-0.008
Y2.9908 Z-0.1414 I0. J0.008
Y2.9748 Z-0.1438 I0. J-0.008
Y2.9908 Z-0.1461 I0. J0.008
Y2.9748 Z-0.1484 I0. J-0.008
Y2.9908 Z-0.1507 I0. J0.008
Y2.9748 Z-0.153 I0. J-0.008
Y2.9908 Z-0.1554 I0. J0.008
Y2.9748 Z-0.1577 I0. J-0.008
Y2.9908 Z-0.16 I0. J0.008
Y2.9748 Z-0.1623 I0. J-0.008
Y2.9908 Z-0.1647 I0. J0.008
Y2.9748 Z-0.167 I0. J-0.008
Y2.9908 Z-0.1693 I0. J0.008
Y2.9748 Z-0.1716 I0. J-0.008
Y2.9908 Z-0.1739 I0. J0.008
Y2.9748 Z-0.1763 I0. J-0.008
Y2.9908 Z-0.1786 I0. J0.008
Y2.9748 Z-0.1809 I0. J-0.008
Y2.9908 Z-0.1832 I0. J0.008
Y2.9748 Z-0.1855 I0. J-0.008
Y2.9908 Z-0.1879 I0. J0.008
Y2.9748 Z-0.1902 I0. J-0.008
Y2.9908 Z-0.1925 I0. J0.008
Y2.9748 Z-0.1948 I0. J-0.008
Y2.9908 Z-0.1972 I0. J0.008
Y2.9748 Z-0.1995 I0. J-0.008
Y2.9908 Z-0.2018 I0. J0.008
Y2.9748 Z-0.2041 I0. J-0.008
Y2.9908 Z-0.2064 I0. J0.008
Y2.9748 Z-0.2088 I0. J-0.008
Y2.9908 Z-0.2111 I0. J0.008
Y2.9748 Z-0.2134 I0. J-0.008
Y2.9908 Z-0.2157 I0. J0.008
Y2.9748 Z-0.218 I0. J-0.008
Y2.9908 Z-0.2204 I0. J0.008
Y2.9748 Z-0.2227 I0. J-0.008
Y2.9908 Z-0.225 I0. J0.008
Y2.9748 Z-0.2273 I0. J-0.008
Y2.9908 Z-0.2297 I0. J0.008
Y2.9748 Z-0.232 I0. J-0.008
Y2.9908 Z-0.2343 I0. J0.008
Y2.9748 Z-0.2366 I0. J-0.008
Y2.9908 Z-0.2389 I0. J0.008
Y2.9748 Z-0.2413 I0. J-0.008
Y2.9908 Z-0.2436 I0. J0.008
Y2.9748 Z-0.2459 I0. J-0.008
Y2.9908 Z-0.2482 I0. J0.008
Y2.9748 Z-0.2506 I0. J-0.008
Y2.9908 Z-0.2529 I0. J0.008
Y2.9748 Z-0.2552 I0. J-0.008
Y2.9908 Z-0.2575 I0. J0.008
Y2.9748 Z-0.2598 I0. J-0.008
Y2.9908 Z-0.2622 I0. J0.008
Y2.9748 Z-0.2645 I0. J-0.008
Y2.9908 Z-0.2668 I0. J0.008
Y2.9748 Z-0.2691 I0. J-0.008
Y2.9908 Z-0.2714 I0. J0.008
Y2.9748 Z-0.2738 I0. J-0.008
Y2.9908 Z-0.2761 I0. J0.008
Y2.9748 Z-0.2784 I0. J-0.008
Y2.9908 Z-0.2807 I0. J0.008
Y2.9748 Z-0.2831 I0. J-0.008
Y2.9908 Z-0.2854 I0. J0.008
Y2.9748 Z-0.2877 I0. J-0.008
Y2.9908 Z-0.29 I0. J0.008
Y2.9748 Z-0.2923 I0. J-0.008
Y2.9908 Z-0.2947 I0. J0.008
Y2.9748 Z-0.297 I0. J-0.008
Y2.9908 Z-0.2993 I0. J0.008
Y2.9748 Z-0.3016 I0. J-0.008
Y2.9908 Z-0.3039 I0. J0.008
Y2.9748 Z-0.3063 I0. J-0.008
Y2.9908 Z-0.3086 I0. J0.008
Y2.9748 Z-0.3109 I0. J-0.008
Y2.9908 Z-0.3132 I0. J0.008
Y2.9748 Z-0.3156 I0. J-0.008
Y2.9908 Z-0.3179 I0. J0.008
Y2.9748 Z-0.3202 I0. J-0.008
Y2.9908 Z-0.3225 I0. J0.008
X0.492 Y2.982 Z-0.3238 I0. J-0.008
X0.5017 Y2.975 Z-0.325 I0.008 J0.0009
X0.4983 Y2.9906 I-0.0017 J0.0078
X0.5017 Y2.975 I0.0017 J-0.0078
G1 X0.5032 Y2.9757 F10.
X0.5042 Y2.9768
X0.5048 Y2.9782
Y2.9798
X0.5 Y2.9828
G0 Z0.24
X1.8942 Y2.292
Z0.155
G1 Z0.1 F10.
X1.8982 Y2.296
X1.8979 Y2.2975
X1.8971 Y2.2988
X1.8958 Y2.2997
X1.8942 Y2.3
G3 Y2.284 Z0.0977 I0. J-0.008 F20.
Y2.3 Z0.0954 I0. J0.008
Y2.284 Z0.093 I0. J-0.008
Y2.3 Z0.0907 I0. J0.008
Y2.284 Z0.0884 I0. J-0.008
Y2.3 Z0.0861 I0. J0.008
Y2.284 Z0.0837 I0. J-0.008
Y2.3 Z0.0814 I0. J0.008
Y2.284 Z0.0791 I0. J-0.008
Y2.3 Z0.0768 I0. J0.008
Y2.284 Z0.0745 I0. J-0.008
Y2.3 Z0.0721 I0. J0.008
Y2.284 Z0.0698 I0. J-0.008
Y2.3 Z0.0675 I0. J0.008
Y2.284 Z0.0652 I0. J-0.008
Y2.3 Z0.0629 I0. J0.008
Y2.284 Z0.0605 I0. J-0.008
Y2.3 Z0.0582 I0. J0.008
Y2.284 Z0.0559 I0. J-0.008
Y2.3 Z0.0536 I0. J0.008
Y2.284 Z0.0512 I0. J-0.008
Y2.3 Z0.0489 I0. J0.008
Y2.284 Z0.0466 I0. J-0.008
Y2.3 Z0.0443 I0. J0.008
Y2.284 Z0.042 I0. J-0.008
Y2.3 Z0.0396 I0. J0.008
Y2.284 Z0.0373 I0. J-0.008
Y2.3 Z0.035 I0. J0.008
Y2.284 Z0.0327 I0. J-0.008
Y2.3 Z0.0304 I0. J0.008
Y2.284 Z0.028 I0. J-0.008
Y2.3 Z0.0257 I0. J0.008
Y2.284 Z0.0234 I0. J-0.008
Y2.3 Z0.0211 I0. J0.008
Y2.284 Z0.0187 I0. J-0.008
Y2.3 Z0.0164 I0. J0.008
Y2.284 Z0.0141 I0. J-0.008
Y2.3 Z0.0118 I0. J0.008
Y2.284 Z0.0095 I0. J-0.008
Y2.3 Z0.0071 I0. J0.008
Y2.284 Z0.0048 I0. J-0.008
Y2.3 Z0.0025 I0. J0.008
Y2.284 Z0.0002 I0. J-0.008
Y2.3 Z-0.0021 I0. J0.008
Y2.284 Z-0.0045 I0. J-0.008
Y2.3 Z-0.0068 I0. J0.008
Y2.284 Z-0.0091 I0. J-0.008
Y2.3 Z-0.0114 I0. J0.008
Y2.284 Z-0.0138 I0. J-0.008
Y2.3 Z-0.0161 I0. J0.008
Y2.284 Z-0.0184 I0. J-0.008
Y2.3 Z-0.0207 I0. J0.008
Y2.284 Z-0.023 I0. J-0.008
Y2.3 Z-0.0254 I0. J0.008
Y2.284 Z-0.0277 I0. J-0.008
Y2.3 Z-0.03 I0. J0.008
Y2.284 Z-0.0323 I0. J-0.008
Y2.3 Z-0.0346 I0. J0.008
Y2.284 Z-0.037 I0. J-0.008
Y2.3 Z-0.0393 I0. J0.008
Y2.284 Z-0.0416 I0. J-0.008
Y2.3 Z-0.0439 I0. J0.008
Y2.284 Z-0.0463 I0. J-0.008
Y2.3 Z-0.0486 I0. J0.008
Y2.284 Z-0.0509 I0. J-0.008
Y2.3 Z-0.0532 I0. J0.008
Y2.284 Z-0.0555 I0. J-0.008
Y2.3 Z-0.0579 I0. J0.008
Y2.284 Z-0.0602 I0. J-0.008
Y2.3 Z-0.0625 I0. J0.008
Y2.284 Z-0.0648 I0. J-0.008
Y2.3 Z-0.0671 I0. J0.008
Y2.284 Z-0.0695 I0. J-0.008
Y2.3 Z-0.0718 I0. J0.008
Y2.284 Z-0.0741 I0. J-0.008
Y2.3 Z-0.0764 I0. J0.008
Y2.284 Z-0.0788 I0. J-0.008
Y2.3 Z-0.0811 I0. J0.008
Y2.284 Z-0.0834 I0. J-0.008
Y2.3 Z-0.0857 I0. J0.008
Y2.284 Z-0.088 I0. J-0.008
Y2.3 Z-0.0904 I0. J0.008
Y2.284 Z-0.0927 I0. J-0.008
Y2.3 Z-0.095 I0. J0.008
Y2.284 Z-0.0973 I0. J-0.008
Y2.3 Z-0.0997 I0. J0.008
Y2.284 Z-0.102 I0. J-0.008
Y2.3 Z-0.1043 I0. J0.008
Y2.284 Z-0.1066 I0. J-0.008
Y2.3 Z-0.1089 I0. J0.008
Y2.284 Z-0.1113 I0. J-0.008
Y2.3 Z-0.1136 I0. J0.008
Y2.284 Z-0.1159 I0. J-0.008
Y2.3 Z-0.1182 I0. J0.008
Y2.284 Z-0.1205 I0. J-0.008
Y2.3 Z-0.1229 I0. J0.008
Y2.284 Z-0.1252 I0. J-0.008
Y2.3 Z-0.1275 I0. J0.008
Y2.284 Z-0.1298 I0. J-0.008
Y2.3 Z-0.1322 I0. J0.008
Y2.284 Z-0.1345 I0. J-0.008
Y2.3 Z-0.1368 I0. J0.008
Y2.284 Z-0.1391 I0. J-0.008
Y2.3 Z-0.1414 I0. J0.008
Y2.284 Z-0.1438 I0. J-0.008
Y2.3 Z-0.1461 I0. J0.008
Y2.284 Z-0.1484 I0. J-0.008
Y2.3 Z-0.1507 I0. J0.008
Y2.284 Z-0.153 I0. J-0.008
Y2.3 Z-0.1554 I0. J0.008
Y2.284 Z-0.1577 I0. J-0.008
Y2.3 Z-0.16 I0. J0.008
Y2.284 Z-0.1623 I0. J-0.008
Y2.3 Z-0.1647 I0. J0.008
Y2.284 Z-0.167 I0. J-0.008
Y2.3 Z-0.1693 I0. J0.008
Y2.284 Z-0.1716 I0. J-0.008
Y2.3 Z-0.1739 I0. J0.008
Y2.284 Z-0.1763 I0. J-0.008
Y2.3 Z-0.1786 I0. J0.008
Y2.284 Z-0.1809 I0. J-0.008
Y2.3 Z-0.1832 I0. J0.008
Y2.284 Z-0.1855 I0. J-0.008
Y2.3 Z-0.1879 I0. J0.008
Y2.284 Z-0.1902 I0. J-0.008
Y2.3 Z-0.1925 I0. J0.008
Y2.284 Z-0.1948 I0. J-0.008
Y2.3 Z-0.1972 I0. J0.008
Y2.284 Z-0.1995 I0. J-0.008
Y2.3 Z-0.2018 I0. J0.008
Y2.284 Z-0.2041 I0. J-0.008
Y2.3 Z-0.2064 I0. J0.008
Y2.284 Z-0.2088 I0. J-0.008
Y2.3 Z-0.2111 I0. J0.008
Y2.284 Z-0.2134 I0. J-0.008
Y2.3 Z-0.2157 I0. J0.008
Y2.284 Z-0.218 I0. J-0.008
Y2.3 Z-0.2204 I0. J0.008
Y2.284 Z-0.2227 I0. J-0.008
Y2.3 Z-0.225 I0. J0.008
Y2.284 Z-0.2273 I0. J-0.008
Y2.3 Z-0.2297 I0. J0.008
Y2.284 Z-0.232 I0. J-0.008
Y2.3 Z-0.2343 I0. J0.008
Y2.284 Z-0.2366 I0. J-0.008
Y2.3 Z-0.2389 I0. J0.008
Y2.284 Z-0.2413 I0. J-0.008
Y2.3 Z-0.2436 I0. J0.008
Y2.284 Z-0.2459 I0. J-0.008
Y2.3 Z-0.2482 I0. J0.008
Y2.284 Z-0.2506 I0. J-0.008
Y2.3 Z-0.2529 I0. J0.008
Y2.284 Z-0.2552 I0. J-0.008
Y2.3 Z-0.2575 I0. J0.008
Y2.284 Z-0.2598 I0. J-0.008
Y2.3 Z-0.2622 I0. J0.008
Y2.284 Z-0.2645 I0. J-0.008
Y2.3 Z-0.2668 I0. J0.008
Y2.284 Z-0.2691 I0. J-0.008
Y2.3 Z-0.2714 I0. J0.008
Y2.284 Z-0.2738 I0. J-0.008
Y2.3 Z-0.2761 I0. J0.008
Y2.284 Z-0.2784 I0. J-0.008
Y2.3 Z-0.2807 I0. J0.008
Y2.284 Z-0.2831 I0. J-0.008
Y2.3 Z-0.2854 I0. J0.008
Y2.284 Z-0.2877 I0. J-0.008
Y2.3 Z-0.29 I0. J0.008
Y2.284 Z-0.2923 I0. J-0.008
Y2.3 Z-0.2947 I0. J0.008
Y2.284 Z-0.297 I0. J-0.008
Y2.3 Z-0.2993 I0. J0.008
Y2.284 Z-0.3016 I0. J-0.008
Y2.3 Z-0.3039 I0. J0.008
Y2.284 Z-0.3063 I0. J-0.008
Y2.3 Z-0.3086 I0. J0.008
Y2.284 Z-0.3109 I0. J-0.008
Y2.3 Z-0.3132 I0. J0.008
Y2.284 Z-0.3156 I0. J-0.008
Y2.3 Z-0.3179 I0. J0.008
Y2.284 Z-0.3202 I0. J-0.008
Y2.3 Z-0.3225 I0. J0.008
X1.8863 Y2.2911 Z-0.3238 I0. J-0.008
X1.896 Y2.2842 Z-0.325 I0.008 J0.0009
X1.8925 Y2.2998 I-0.0017 J0.0078
X1.896 Y2.2842 I0.0017 J-0.0078
G1 X1.8974 Y2.2848 F10.
X1.8985 Y2.2859
X1.899 Y2.2874
Y2.289
X1.8942 Y2.292
G0 Z0.24
X2.525 Y1.5019
Z0.18
G1 Z0.125 F10.
G19 G3 Y1.5269 Z0.1 J0.025 K0.
G1 Y1.5394
G17 G3 X2.5 Y1.5644 I-0.025 J0.
Y1.4284 Z0.0966 I0. J-0.068 F20.
Y1.5644 Z0.0933 I0. J0.068
Y1.4284 Z0.0899 I0. J-0.068
Y1.5644 Z0.0865 I0. J0.068
Y1.4284 Z0.0832 I0. J-0.068
Y1.5644 Z0.0798 I0. J0.068
Y1.4284 Z0.0764 I0. J-0.068
Y1.5644 Z0.073 I0. J0.068
Y1.4284 Z0.0697 I0. J-0.068
Y1.5644 Z0.0663 I0. J0.068
Y1.4284 Z0.0629 I0. J-0.068
Y1.5644 Z0.0596 I0. J0.068
Y1.4284 Z0.0562 I0. J-0.068
Y1.5644 Z0.0528 I0. J0.068
Y1.4284 Z0.0495 I0. J-0.068
Y1.5644 Z0.0461 I0. J0.068
Y1.4284 Z0.0427 I0. J-0.068
Y1.5644 Z0.0394 I0. J0.068
Y1.4284 Z0.036 I0. J-0.068
Y1.5644 Z0.0326 I0. J0.068
Y1.4284 Z0.0293 I0. J-0.068
Y1.5644 Z0.0259 I0. J0.068
Y1.4284 Z0.0225 I0. J-0.068
Y1.5644 Z0.0191 I0. J0.068
Y1.4284 Z0.0158 I0. J-0.068
Y1.5644 Z0.0124 I0. J0.068
Y1.4284 Z0.009 I0. J-0.068
Y1.5644 Z0.0057 I0. J0.068
Y1.4284 Z0.0023 I0. J-0.068
Y1.5644 Z-0.0011 I0. J0.068
Y1.4284 Z-0.0044 I0. J-0.068
Y1.5644 Z-0.0078 I0. J0.068
Y1.4284 Z-0.0112 I0. J-0.068
Y1.5644 Z-0.0145 I0. J0.068
Y1.4284 Z-0.0179 I0. J-0.068
Y1.5644 Z-0.0213 I0. J0.068
Y1.4284 Z-0.0246 I0. J-0.068
Y1.5644 Z-0.028 I0. J0.068
Y1.4284 Z-0.0314 I0. J-0.068
Y1.5644 Z-0.0348 I0. J0.068
Y1.4284 Z-0.0381 I0. J-0.068
Y1.5644 Z-0.0415 I0. J0.068
Y1.4284 Z-0.0449 I0. J-0.068
Y1.5644 Z-0.0482 I0. J0.068
Y1.4284 Z-0.0516 I0. J-0.068
Y1.5644 Z-0.055 I0. J0.068
Y1.4284 Z-0.0583 I0. J-0.068
Y1.5644 Z-0.0617 I0. J0.068
Y1.4284 Z-0.0651 I0. J-0.068
Y1.5644 Z-0.0684 I0. J0.068
Y1.4284 Z-0.0718 I0. J-0.068
Y1.5644 Z-0.0752 I0. J0.068
Y1.4284 Z-0.0785 I0. J-0.068
Y1.5644 Z-0.0819 I0. J0.068
Y1.4284 Z-0.0853 I0. J-0.068
Y1.5644 Z-0.0887 I0. J0.068
Y1.4284 Z-0.092 I0. J-0.068
Y1.5644 Z-0.0954 I0. J0.068
Y1.4284 Z-0.0988 I0. J-0.068
Y1.5644 Z-0.1021 I0. J0.068
Y1.4284 Z-0.1055 I0. J-0.068
Y1.5644 Z-0.1089 I0. J0.068
Y1.4284 Z-0.1122 I0. J-0.068
Y1.5644 Z-0.1156 I0. J0.068
Y1.4284 Z-0.119 I0. J-0.068
Y1.5644 Z-0.1223 I0. J0.068
Y1.4284 Z-0.1257 I0. J-0.068
Y1.5644 Z-0.1291 I0. J0.068
Y1.4284 Z-0.1324 I0. J-0.068
Y1.5644 Z-0.1358 I0. J0.068
Y1.4284 Z-0.1392 I0. J-0.068
Y1.5644 Z-0.1426 I0. J0.068
Y1.4284 Z-0.1459 I0. J-0.068
Y1.5644 Z-0.1493 I0. J0.068
Y1.4284 Z-0.1527 I0. J-0.068
Y1.5644 Z-0.156 I0. J0.068
Y1.4284 Z-0.1594 I0. J-0.068
Y1.5644 Z-0.1628 I0. J0.068
Y1.4284 Z-0.1661 I0. J-0.068
Y1.5644 Z-0.1695 I0. J0.068
Y1.4284 Z-0.1729 I0. J-0.068
Y1.5644 Z-0.1762 I0. J0.068
Y1.4284 Z-0.1796 I0. J-0.068
Y1.5644 Z-0.183 I0. J0.068
Y1.4284 Z-0.1864 I0. J-0.068
Y1.5644 Z-0.1897 I0. J0.068
Y1.4284 Z-0.1931 I0. J-0.068
Y1.5644 Z-0.1965 I0. J0.068
Y1.4284 Z-0.1998 I0. J-0.068
Y1.5644 Z-0.2032 I0. J0.068
Y1.4284 Z-0.2066 I0. J-0.068
Y1.5644 Z-0.2099 I0. J0.068
Y1.4284 Z-0.2133 I0. J-0.068
Y1.5644 Z-0.2167 I0. J0.068
Y1.4284 Z-0.22 I0. J-0.068
Y1.5644 Z-0.2234 I0. J0.068
Y1.4284 Z-0.2268 I0. J-0.068
Y1.5644 Z-0.2301 I0. J0.068
Y1.4284 Z-0.2335 I0. J-0.068
Y1.5644 Z-0.2369 I0. J0.068
Y1.4284 Z-0.2403 I0. J-0.068
Y1.5644 Z-0.2436 I0. J0.068
Y1.4284 Z-0.247 I0. J-0.068
Y1.5644 Z-0.2504 I0. J0.068
Y1.4284 Z-0.2537 I0. J-0.068
Y1.5644 Z-0.2571 I0. J0.068
Y1.4284 Z-0.2605 I0. J-0.068
Y1.5644 Z-0.2638 I0. J0.068
Y1.4284 Z-0.2672 I0. J-0.068
Y1.5644 Z-0.2706 I0. J0.068
Y1.4284 Z-0.2739 I0. J-0.068
Y1.5644 Z-0.2773 I0. J0.068
Y1.4284 Z-0.2807 I0. J-0.068
Y1.5644 Z-0.284 I0. J0.068
Y1.4284 Z-0.2874 I0. J-0.068
Y1.5644 Z-0.2908 I0. J0.068
Y1.4284 Z-0.2942 I0. J-0.068
Y1.5644 Z-0.2975 I0. J0.068
Y1.4284 Z-0.3009 I0. J-0.068
Y1.5644 Z-0.3043 I0. J0.068
Y1.4284 Z-0.3076 I0. J-0.068
Y1.5644 Z-0.311 I0. J0.068
Y1.4284 Z-0.3144 I0. J-0.068
Y1.5644 Z-0.3177 I0. J0.068
Y1.4284 Z-0.3211 I0. J-0.068
Y1.5644 Z-0.3245 I0. J0.068
X2.4679 Y1.5563 Z-0.325 I0. J-0.068
X2.5321 Y1.4364 I0.0321 J-0.0599
X2.4679 Y1.5563 I-0.0321 J0.0599
X2.4576 Y1.5224 I0.0118 J-0.022 F10.
G1 X2.4636 Y1.5114
X2.4654 Y1.508 Z-0.3247
X2.4672 Y1.5046 Z-0.3238
X2.4689 Y1.5014 Z-0.3223
X2.4705 Y1.4985 Z-0.3202
X2.4719 Y1.4958 Z-0.3177
X2.4731 Y1.4936 Z-0.3147
X2.4741 Y1.4918 Z-0.3113
X2.4748 Y1.4905 Z-0.3077
X2.4752 Y1.4897 Z-0.3039
X2.4754 Y1.4894 Z-0.3
G0 Z0.24
X3.1058 Y0.7007
Z0.155
G1 Z0.1 F10.
X3.1098 Y0.7047
X3.1095 Y0.7062
X3.1086 Y0.7075
X3.1073 Y0.7084
X3.1058 Y0.7087
G3 Y0.6927 Z0.0977 I0. J-0.008 F20.
Y0.7087 Z0.0954 I0. J0.008
Y0.6927 Z0.093 I0. J-0.008
Y0.7087 Z0.0907 I0. J0.008
Y0.6927 Z0.0884 I0. J-0.008
Y0.7087 Z0.0861 I0. J0.008
Y0.6927 Z0.0837 I0. J-0.008
Y0.7087 Z0.0814 I0. J0.008
Y0.6927 Z0.0791 I0. J-0.008
Y0.7087 Z0.0768 I0. J0.008
Y0.6927 Z0.0745 I0. J-0.008
Y0.7087 Z0.0721 I0. J0.008
Y0.6927 Z0.0698 I0. J-0.008
Y0.7087 Z0.0675 I0. J0.008
Y0.6927 Z0.0652 I0. J-0.008
Y0.7087 Z0.0629 I0. J0.008
Y0.6927 Z0.0605 I0. J-0.008
Y0.7087 Z0.0582 I0. J0.008
Y0.6927 Z0.0559 I0. J-0.008
Y0.7087 Z0.0536 I0. J0.008
Y0.6927 Z0.0512 I0. J-0.008
Y0.7087 Z0.0489 I0. J0.008
Y0.6927 Z0.0466 I0. J-0.008
Y0.7087 Z0.0443 I0. J0.008
Y0.6927 Z0.042 I0. J-0.008
Y0.7087 Z0.0396 I0. J0.008
Y0.6927 Z0.0373 I0. J-0.008
Y0.7087 Z0.035 I0. J0.008
Y0.6927 Z0.0327 I0. J-0.008
Y0.7087 Z0.0304 I0. J0.008
Y0.6927 Z0.028 I0. J-0.008
Y0.7087 Z0.0257 I0. J0.008
Y0.6927 Z0.0234 I0. J-0.008
Y0.7087 Z0.0211 I0. J0.008
Y0.6927 Z0.0187 I0. J-0.008
Y0.7087 Z0.0164 I0. J0.008
Y0.6927 Z0.0141 I0. J-0.008
Y0.7087 Z0.0118 I0. J0.008
Y0.6927 Z0.0095 I0. J-0.008
Y0.7087 Z0.0071 I0. J0.008
Y0.6927 Z0.0048 I0. J-0.008
Y0.7087 Z0.0025 I0. J0.008
Y0.6927 Z0.0002 I0. J-0.008
Y0.7087 Z-0.0021 I0. J0.008
Y0.6927 Z-0.0045 I0. J-0.008
Y0.7087 Z-0.0068 I0. J0.008
Y0.6927 Z-0.0091 I0. J-0.008
Y0.7087 Z-0.0114 I0. J0.008
Y0.6927 Z-0.0138 I0. J-0.008
Y0.7087 Z-0.0161 I0. J0.008
Y0.6927 Z-0.0184 I0. J-0.008
Y0.7087 Z-0.0207 I0. J0.008
Y0.6927 Z-0.023 I0. J-0.008
Y0.7087 Z-0.0254 I0. J0.008
Y0.6927 Z-0.0277 I0. J-0.008
Y0.7087 Z-0.03 I0. J0.008
Y0.6927 Z-0.0323 I0. J-0.008
Y0.7087 Z-0.0346 I0. J0.008
Y0.6927 Z-0.037 I0. J-0.008
Y0.7087 Z-0.0393 I0. J0.008
Y0.6927 Z-0.0416 I0. J-0.008
Y0.7087 Z-0.0439 I0. J0.008
Y0.6927 Z-0.0463 I0. J-0.008
Y0.7087 Z-0.0486 I0. J0.008
Y0.6927 Z-0.0509 I0. J-0.008
Y0.7087 Z-0.0532 I0. J0.008
Y0.6927 Z-0.0555 I0. J-0.008
Y0.7087 Z-0.0579 I0. J0.008
Y0.6927 Z-0.0602 I0. J-0.008
Y0.7087 Z-0.0625 I0. J0.008
Y0.6927 Z-0.0648 I0. J-0.008
Y0.7087 Z-0.0671 I0. J0.008
Y0.6927 Z-0.0695 I0. J-0.008
Y0.7087 Z-0.0718 I0. J0.008
Y0.6927 Z-0.0741 I0. J-0.008
Y0.7087 Z-0.0764 I0. J0.008
Y0.6927 Z-0.0788 I0. J-0.008
Y0.7087 Z-0.0811 I0. J0.008
Y0.6927 Z-0.0834 I0. J-0.008
Y0.7087 Z-0.0857 I0. J0.008
Y0.6927 Z-0.088 I0. J-0.008
Y0.7087 Z-0.0904 I0. J0.008
Y0.6927 Z-0.0927 I0. J-0.008
Y0.7087 Z-0.095 I0. J0.008
Y0.6927 Z-0.0973 I0. J-0.008
Y0.7087 Z-0.0997 I0. J0.008
Y0.6927 Z-0.102 I0. J-0.008
Y0.7087 Z-0.1043 I0. J0.008
Y0.6927 Z-0.1066 I0. J-0.008
Y0.7087 Z-0.1089 I0. J0.008
Y0.6927 Z-0.1113 I0. J-0.008
Y0.7087 Z-0.1136 I0. J0.008
Y0.6927 Z-0.1159 I0. J-0.008
Y0.7087 Z-0.1182 I0. J0.008
Y0.6927 Z-0.1205 I0. J-0.008
Y0.7087 Z-0.1229 I0. J0.008
Y0.6927 Z-0.1252 I0. J-0.008
Y0.7087 Z-0.1275 I0. J0.008
Y0.6927 Z-0.1298 I0. J-0.008
Y0.7087 Z-0.1322 I0. J0.008
Y0.6927 Z-0.1345 I0. J-0.008
Y0.7087 Z-0.1368 I0. J0.008
Y0.6927 Z-0.1391 I0. J-0.008
Y0.7087 Z-0.1414 I0. J0.008
Y0.6927 Z-0.1438 I0. J-0.008
Y0.7087 Z-0.1461 I0. J0.008
Y0.6927 Z-0.1484 I0. J-0.008
Y0.7087 Z-0.1507 I0. J0.008
Y0.6927 Z-0.153 I0. J-0.008
Y0.7087 Z-0.1554 I0. J0.008
Y0.6927 Z-0.1577 I0. J-0.008
Y0.7087 Z-0.16 I0. J0.008
Y0.6927 Z-0.1623 I0. J-0.008
Y0.7087 Z-0.1647 I0. J0.008
Y0.6927 Z-0.167 I0. J-0.008
Y0.7087 Z-0.1693 I0. J0.008
Y0.6927 Z-0.1716 I0. J-0.008
Y0.7087 Z-0.1739 I0. J0.008
Y0.6927 Z-0.1763 I0. J-0.008
Y0.7087 Z-0.1786 I0. J0.008
Y0.6927 Z-0.1809 I0. J-0.008
Y0.7087 Z-0.1832 I0. J0.008
Y0.6927 Z-0.1855 I0. J-0.008
Y0.7087 Z-0.1879 I0. J0.008
Y0.6927 Z-0.1902 I0. J-0.008
Y0.7087 Z-0.1925 I0. J0.008
Y0.6927 Z-0.1948 I0. J-0.008
Y0.7087 Z-0.1972 I0. J0.008
Y0.6927 Z-0.1995 I0. J-0.008
Y0.7087 Z-0.2018 I0. J0.008
Y0.6927 Z-0.2041 I0. J-0.008
Y0.7087 Z-0.2064 I0. J0.008
Y0.6927 Z-0.2088 I0. J-0.008
Y0.7087 Z-0.2111 I0. J0.008
Y0.6927 Z-0.2134 I0. J-0.008
Y0.7087 Z-0.2157 I0. J0.008
Y0.6927 Z-0.218 I0. J-0.008
Y0.7087 Z-0.2204 I0. J0.008
Y0.6927 Z-0.2227 I0. J-0.008
Y0.7087 Z-0.225 I0. J0.008
Y0.6927 Z-0.2273 I0. J-0.008
Y0.7087 Z-0.2297 I0. J0.008
Y0.6927 Z-0.232 I0. J-0.008
Y0.7087 Z-0.2343 I0. J0.008
Y0.6927 Z-0.2366 I0. J-0.008
Y0.7087 Z-0.2389 I0. J0.008
Y0.6927 Z-0.2413 I0. J-0.008
Y0.7087 Z-0.2436 I0. J0.008
Y0.6927 Z-0.2459 I0. J-0.008
Y0.7087 Z-0.2482 I0. J0.008
Y0.6927 Z-0.2506 I0. J-0.008
Y0.7087 Z-0.2529 I0. J0.008
Y0.6927 Z-0.2552 I0. J-0.008
Y0.7087 Z-0.2575 I0. J0.008
Y0.6927 Z-0.2598 I0. J-0.008
Y0.7087 Z-0.2622 I0. J0.008
Y0.6927 Z-0.2645 I0. J-0.008
Y0.7087 Z-0.2668 I0. J0.008
Y0.6927 Z-0.2691 I0. J-0.008
Y0.7087 Z-0.2714 I0. J0.008
Y0.6927 Z-0.2738 I0. J-0.008
Y0.7087 Z-0.2761 I0. J0.008
Y0.6927 Z-0.2784 I0. J-0.008
Y0.7087 Z-0.2807 I0. J0.008
Y0.6927 Z-0.2831 I0. J-0.008
Y0.7087 Z-0.2854 I0. J0.008
Y0.6927 Z-0.2877 I0. J-0.008
Y0.7087 Z-0.29 I0. J0.008
Y0.6927 Z-0.2923 I0. J-0.008
Y0.7087 Z-0.2947 I0. J0.008
Y0.6927 Z-0.297 I0. J-0.008
Y0.7087 Z-0.2993 I0. J0.008
Y0.6927 Z-0.3016 I0. J-0.008
Y0.7087 Z-0.3039 I0. J0.008
Y0.6927 Z-0.3063 I0. J-0.008
Y0.7087 Z-0.3086 I0. J0.008
Y0.6927 Z-0.3109 I0. J-0.008
Y0.7087 Z-0.3132 I0. J0.008
Y0.6927 Z-0.3156 I0. J-0.008
Y0.7087 Z-0.3179 I0. J0.008
Y0.6927 Z-0.3202 I0. J-0.008
Y0.7087 Z-0.3225 I0. J0.008
X3.0978 Y0.6998 Z-0.3238 I0. J-0.008
X3.1075 Y0.6929 Z-0.325 I0.008 J0.0009
X3.104 Y0.7085 I-0.0017 J0.0078
X3.1075 Y0.6929 I0.0017 J-0.0078
G1 X3.1089 Y0.6935 F10.
X3.11 Y0.6946
X3.1106 Y0.6961
X3.1105 Y0.6977
X3.1058 Y0.7007
G0 Z0.64

M9
M30
