(1001)
(T1  D=0.125 CR=0. - ZMIN=-0.225 - FLAT END MILL)
G90 G94 G91.1 G40 G49 G17
G20

(BORE2)
M5
T1 M6
S15000 M3
G54
M8
G0 X0.496 Y0.4977
G43 Z0.54 H1
Z0.1575
G1 Z0.09 F39.4
Y0.504
X0.4963 Y0.5055
X0.4972 Y0.5068
X0.4985 Y0.5077
X0.5 Y0.508
G2 Y0.492 Z0.0888 I0. J-0.008
Y0.508 Z0.0875 I0. J0.008
Y0.492 Z0.0863 I0. J-0.008
Y0.508 Z0.0851 I0. J0.008
Y0.492 Z0.0838 I0. J-0.008
Y0.508 Z0.0826 I0. J0.008
Y0.492 Z0.0814 I0. J-0.008
Y0.508 Z0.0802 I0. J0.008
Y0.492 Z0.0789 I0. J-0.008
Y0.508 Z0.0777 I0. J0.008
Y0.492 Z0.0765 I0. J-0.008
Y0.508 Z0.0752 I0. J0.008
Y0.492 Z0.074 I0. J-0.008
Y0.508 Z0.0728 I0. J0.008
Y0.492 Z0.0715 I0. J-0.008
Y0.508 Z0.0703 I0. J0.008
Y0.492 Z0.0691 I0. J-0.008
Y0.508 Z0.0678 I0. J0.008
Y0.492 Z0.0666 I0. J-0.008
Y0.508 Z0.0654 I0. J0.008
Y0.492 Z0.0642 I0. J-0.008
Y0.508 Z0.0629 I0. J0.008
Y0.492 Z0.0617 I0. J-0.008
Y0.508 Z0.0605 I0. J0.008
Y0.492 Z0.0592 I0. J-0.008
Y0.508 Z0.058 I0. J0.008
Y0.492 Z0.0568 I0. J-0.008
Y0.508 Z0.0555 I0. J0.008
Y0.492 Z0.0543 I0. J-0.008
Y0.508 Z0.0531 I0. J0.008
Y0.492 Z0.0519 I0. J-0.008
Y0.508 Z0.0506 I0. J0.008
Y0.492 Z0.0494 I0. J-0.008
Y0.508 Z0.0482 I0. J0.008
Y0.492 Z0.0469 I0. J-0.008
Y0.508 Z0.0457 I0. J0.008
Y0.492 Z0.0445 I0. J-0.008
Y0.508 Z0.0432 I0. J0.008
Y0.492 Z0.042 I0. J-0.008
Y0.508 Z0.0408 I0. J0.008
Y0.492 Z0.0395 I0. J-0.008
Y0.508 Z0.0383 I0. J0.008
Y0.492 Z0.0371 I0. J-0.008
Y0.508 Z0.0359 I0. J0.008
Y0.492 Z0.0346 I0. J-0.008
Y0.508 Z0.0334 I0. J0.008
Y0.492 Z0.0322 I0. J-0.008
Y0.508 Z0.0309 I0. J0.008
Y0.492 Z0.0297 I0. J-0.008
Y0.508 Z0.0285 I0. J0.008
Y0.492 Z0.0272 I0. J-0.008
Y0.508 Z0.026 I0. J0.008
Y0.492 Z0.0248 I0. J-0.008
Y0.508 Z0.0235 I0. J0.008
Y0.492 Z0.0223 I0. J-0.008
Y0.508 Z0.0211 I0. J0.008
Y0.492 Z0.0199 I0. J-0.008
Y0.508 Z0.0186 I0. J0.008
Y0.492 Z0.0174 I0. J-0.008
Y0.508 Z0.0162 I0. J0.008
Y0.492 Z0.0149 I0. J-0.008
Y0.508 Z0.0137 I0. J0.008
Y0.492 Z0.0125 I0. J-0.008
Y0.508 Z0.0112 I0. J0.008
Y0.492 Z0.01 I0. J-0.008
Y0.508 Z0.0088 I0. J0.008
Y0.492 Z0.0076 I0. J-0.008
Y0.508 Z0.0063 I0. J0.008
Y0.492 Z0.0051 I0. J-0.008
Y0.508 Z0.0039 I0. J0.008
Y0.492 Z0.0026 I0. J-0.008
Y0.508 Z0.0014 I0. J0.008
Y0.492 Z0.0002 I0. J-0.008
Y0.508 Z-0.0011 I0. J0.008
Y0.492 Z-0.0023 I0. J-0.008
Y0.508 Z-0.0035 I0. J0.008
Y0.492 Z-0.0048 I0. J-0.008
Y0.508 Z-0.006 I0. J0.008
Y0.492 Z-0.0072 I0. J-0.008
Y0.508 Z-0.0084 I0. J0.008
Y0.492 Z-0.0097 I0. J-0.008
Y0.508 Z-0.0109 I0. J0.008
Y0.492 Z-0.0121 I0. J-0.008
Y0.508 Z-0.0134 I0. J0.008
Y0.492 Z-0.0146 I0. J-0.008
Y0.508 Z-0.0158 I0. J0.008
Y0.492 Z-0.0171 I0. J-0.008
Y0.508 Z-0.0183 I0. J0.008
Y0.492 Z-0.0195 I0. J-0.008
Y0.508 Z-0.0208 I0. J0.008
Y0.492 Z-0.022 I0. J-0.008
Y0.508 Z-0.0232 I0. J0.008
Y0.492 Z-0.0244 I0. J-0.008
Y0.508 Z-0.0257 I0. J0.008
Y0.492 Z-0.0269 I0. J-0.008
Y0.508 Z-0.0281 I0. J0.008
Y0.492 Z-0.0294 I0. J-0.008
Y0.508 Z-0.0306 I0. J0.008
Y0.492 Z-0.0318 I0. J-0.008
Y0.508 Z-0.0331 I0. J0.008
Y0.492 Z-0.0343 I0. J-0.008
Y0.508 Z-0.0355 I0. J0.008
Y0.492 Z-0.0367 I0. J-0.008
Y0.508 Z-0.038 I0. J0.008
Y0.492 Z-0.0392 I0. J-0.008
Y0.508 Z-0.0404 I0. J0.008
Y0.492 Z-0.0417 I0. J-0.008
Y0.508 Z-0.0429 I0. J0.008
Y0.492 Z-0.0441 I0. J-0.008
Y0.508 Z-0.0454 I0. J0.008
Y0.492 Z-0.0466 I0. J-0.008
Y0.508 Z-0.0478 I0. J0.008
Y0.492 Z-0.0491 I0. J-0.008
Y0.508 Z-0.0503 I0. J0.008
Y0.492 Z-0.0515 I0. J-0.008
Y0.508 Z-0.0527 I0. J0.008
Y0.492 Z-0.054 I0. J-0.008
Y0.508 Z-0.0552 I0. J0.008
Y0.492 Z-0.0564 I0. J-0.008
Y0.508 Z-0.0577 I0. J0.008
Y0.492 Z-0.0589 I0. J-0.008
Y0.508 Z-0.0601 I0. J0.008
Y0.492 Z-0.0614 I0. J-0.008
Y0.508 Z-0.0626 I0. J0.008
Y0.492 Z-0.0638 I0. J-0.008
Y0.508 Z-0.0651 I0. J0.008
Y0.492 Z-0.0663 I0. J-0.008
Y0.508 Z-0.0675 I0. J0.008
Y0.492 Z-0.0687 I0. J-0.008
Y0.508 Z-0.07 I0. J0.008
Y0.492 Z-0.0712 I0. J-0.008
Y0.508 Z-0.0724 I0. J0.008
Y0.492 Z-0.0737 I0. J-0.008
Y0.508 Z-0.0749 I0. J0.008
Y0.492 Z-0.0761 I0. J-0.008
Y0.508 Z-0.0774 I0. J0.008
Y0.492 Z-0.0786 I0. J-0.008
Y0.508 Z-0.0798 I0. J0.008
Y0.492 Z-0.0811 I0. J-0.008
Y0.508 Z-0.0823 I0. J0.008
Y0.492 Z-0.0835 I0. J-0.008
Y0.508 Z-0.0847 I0. J0.008
Y0.492 Z-0.086 I0. J-0.008
Y0.508 Z-0.0872 I0. J0.008
Y0.492 Z-0.0884 I0. J-0.008
Y0.508 Z-0.0897 I0. J0.008
Y0.492 Z-0.0909 I0. J-0.008
Y0.508 Z-0.0921 I0. J0.008
Y0.492 Z-0.0934 I0. J-0.008
Y0.508 Z-0.0946 I0. J0.008
Y0.492 Z-0.0958 I0. J-0.008
Y0.508 Z-0.097 I0. J0.008
Y0.492 Z-0.0983 I0. J-0.008
Y0.508 Z-0.0995 I0. J0.008
Y0.492 Z-0.1007 I0. J-0.008
Y0.508 Z-0.102 I0. J0.008
Y0.492 Z-0.1032 I0. J-0.008
Y0.508 Z-0.1044 I0. J0.008
Y0.492 Z-0.1057 I0. J-0.008
Y0.508 Z-0.1069 I0. J0.008
Y0.492 Z-0.1081 I0. J-0.008
Y0.508 Z-0.1094 I0. J0.008
Y0.492 Z-0.1106 I0. J-0.008
Y0.508 Z-0.1118 I0. J0.008
Y0.492 Z-0.113 I0. J-0.008
Y0.508 Z-0.1143 I0. J0.008
Y0.492 Z-0.1155 I0. J-0.008
Y0.508 Z-0.1167 I0. J0.008
Y0.492 Z-0.118 I0. J-0.008
Y0.508 Z-0.1192 I0. J0.008
Y0.492 Z-0.1204 I0. J-0.008
Y0.508 Z-0.1217 I0. J0.008
Y0.492 Z-0.1229 I0. J-0.008
Y0.508 Z-0.1241 I0. J0.008
Y0.492 Z-0.1254 I0. J-0.008
Y0.508 Z-0.1266 I0. J0.008
Y0.492 Z-0.1278 I0. J-0.008
Y0.508 Z-0.129 I0. J0.008
Y0.492 Z-0.1303 I0. J-0.008
Y0.508 Z-0.1315 I0. J0.008
Y0.492 Z-0.1327 I0. J-0.008
Y0.508 Z-0.134 I0. J0.008
Y0.492 Z-0.1352 I0. J-0.008
Y0.508 Z-0.1364 I0. J0.008
Y0.492 Z-0.1377 I0. J-0.008
Y0.508 Z-0.1389 I0. J0.008
Y0.492 Z-0.1401 I0. J-0.008
Y0.508 Z-0.1413 I0. J0.008
Y0.492 Z-0.1426 I0. J-0.008
Y0.508 Z-0.1438 I0. J0.008
Y0.492 Z-0.145 I0. J-0.008
Y0.508 Z-0.1463 I0. J0.008
Y0.492 Z-0.1475 I0. J-0.008
Y0.508 Z-0.1487 I0. J0.008
Y0.492 Z-0.15 I0. J-0.008
Y0.508 Z-0.1512 I0. J0.008
Y0.492 Z-0.1524 I0. J-0.008
Y0.508 Z-0.1537 I0. J0.008
Y0.492 Z-0.1549 I0. J-0.008
Y0.508 Z-0.1561 I0. J0.008
Y0.492 Z-0.1573 I0. J-0.008
Y0.508 Z-0.1586 I0. J0.008
Y0.492 Z-0.1598 I0. J-0.008
Y0.508 Z-0.161 I0. J0.008
Y0.492 Z-0.1623 I0. J-0.008
Y0.508 Z-0.1635 I0. J0.008
Y0.492 Z-0.1647 I0. J-0.008
Y0.508 Z-0.166 I0. J0.008
Y0.492 Z-0.1672 I0. J-0.008
Y0.508 Z-0.1684 I0. J0.008
Y0.492 Z-0.1697 I0. J-0.008
Y0.508 Z-0.1709 I0. J0.008
Y0.492 Z-0.1721 I0. J-0.008
Y0.508 Z-0.1733 I0. J0.008
Y0.492 Z-0.1746 I0. J-0.008
Y0.508 Z-0.1758 I0. J0.008
Y0.492 Z-0.177 I0. J-0.008
Y0.508 Z-0.1783 I0. J0.008
Y0.492 Z-0.1795 I0. J-0.008
Y0.508 Z-0.1807 I0. J0.008
Y0.492 Z-0.182 I0. J-0.008
Y0.508 Z-0.1832 I0. J0.008
Y0.492 Z-0.1844 I0. J-0.008
Y0.508 Z-0.1857 I0. J0.008
Y0.492 Z-0.1869 I0. J-0.008
Y0.508 Z-0.1881 I0. J0.008
Y0.492 Z-0.1893 I0. J-0.008
Y0.508 Z-0.1906 I0. J0.008
Y0.492 Z-0.1918 I0. J-0.008
Y0.508 Z-0.193 I0. J0.008
Y0.492 Z-0.1943 I0. J-0.008
Y0.508 Z-0.1955 I0. J0.008
Y0.492 Z-0.1967 I0. J-0.008
Y0.508 Z-0.198 I0. J0.008
Y0.492 Z-0.1992 I0. J-0.008
Y0.508 Z-0.2004 I0. J0.008
Y0.492 Z-0.2016 I0. J-0.008
Y0.508 Z-0.2029 I0. J0.008
Y0.492 Z-0.2041 I0. J-0.008
Y0.508 Z-0.2053 I0. J0.008
Y0.492 Z-0.2066 I0. J-0.008
Y0.508 Z-0.2078 I0. J0.008
Y0.492 Z-0.209 I0. J-0.008
Y0.508 Z-0.2103 I0. J0.008
Y0.492 Z-0.2115 I0. J-0.008
Y0.508 Z-0.2127 I0. J0.008
Y0.492 Z-0.214 I0. J-0.008
Y0.508 Z-0.2152 I0. J0.008
Y0.492 Z-0.2164 I0. J-0.008
Y0.508 Z-0.2176 I0. J0.008
Y0.492 Z-0.2189 I0. J-0.008
Y0.508 Z-0.2201 I0. J0.008
Y0.492 Z-0.2213 I0. J-0.008
Y0.508 Z-0.2226 I0. J0.008
Y0.492 Z-0.2238 I0. J-0.008
X0.4994 Y0.508 Z-0.225 I0. J0.008
X0.5006 Y0.492 I0.0006 J-0.008
X0.4994 Y0.508 I-0.0006 J0.008
G1 X0.501 Y0.5078
X0.5023 Y0.507
X0.5033 Y0.5058
X0.5037 Y0.5043
X0.5042 Y0.4981
G0 Z0.29
X0.4875 Y0.5392
Z0.17
G1 Z0.1025 F39.4
G19 G3 Y0.5518 Z0.09 J0.0125 K0.
G1 Y0.558
G17 G2 X0.5 Y0.5705 I0.0125 J0.
Y0.4295 Z0.0877 I0. J-0.0705
Y0.5705 Z0.0854 I0. J0.0705
Y0.4295 Z0.083 I0. J-0.0705
Y0.5705 Z0.0807 I0. J0.0705
Y0.4295 Z0.0784 I0. J-0.0705
Y0.5705 Z0.0761 I0. J0.0705
Y0.4295 Z0.0737 I0. J-0.0705
Y0.5705 Z0.0714 I0. J0.0705
Y0.4295 Z0.0691 I0. J-0.0705
Y0.5705 Z0.0668 I0. J0.0705
Y0.4295 Z0.0645 I0. J-0.0705
Y0.5705 Z0.0621 I0. J0.0705
Y0.4295 Z0.0598 I0. J-0.0705
Y0.5705 Z0.0575 I0. J0.0705
Y0.4295 Z0.0552 I0. J-0.0705
Y0.5705 Z0.0529 I0. J0.0705
Y0.4295 Z0.0505 I0. J-0.0705
Y0.5705 Z0.0482 I0. J0.0705
Y0.4295 Z0.0459 I0. J-0.0705
Y0.5705 Z0.0436 I0. J0.0705
Y0.4295 Z0.0412 I0. J-0.0705
Y0.5705 Z0.0389 I0. J0.0705
Y0.4295 Z0.0366 I0. J-0.0705
Y0.5705 Z0.0343 I0. J0.0705
Y0.4295 Z0.032 I0. J-0.0705
Y0.5705 Z0.0296 I0. J0.0705
Y0.4295 Z0.0273 I0. J-0.0705
Y0.5705 Z0.025 I0. J0.0705
Y0.4295 Z0.0227 I0. J-0.0705
Y0.5705 Z0.0204 I0. J0.0705
Y0.4295 Z0.018 I0. J-0.0705
Y0.5705 Z0.0157 I0. J0.0705
Y0.4295 Z0.0134 I0. J-0.0705
Y0.5705 Z0.0111 I0. J0.0705
Y0.4295 Z0.0087 I0. J-0.0705
Y0.5705 Z0.0064 I0. J0.0705
Y0.4295 Z0.0041 I0. J-0.0705
Y0.5705 Z0.0018 I0. J0.0705
Y0.4295 Z-0.0005 I0. J-0.0705
Y0.5705 Z-0.0029 I0. J0.0705
Y0.4295 Z-0.0052 I0. J-0.0705
Y0.5705 Z-0.0075 I0. J0.0705
Y0.4295 Z-0.0098 I0. J-0.0705
Y0.5705 Z-0.0121 I0. J0.0705
Y0.4295 Z-0.0145 I0. J-0.0705
Y0.5705 Z-0.0168 I0. J0.0705
Y0.4295 Z-0.0191 I0. J-0.0705
Y0.5705 Z-0.0214 I0. J0.0705
Y0.4295 Z-0.0238 I0. J-0.0705
Y0.5705 Z-0.0261 I0. J0.0705
Y0.4295 Z-0.0284 I0. J-0.0705
Y0.5705 Z-0.0307 I0. J0.0705
Y0.4295 Z-0.033 I0. J-0.0705
Y0.5705 Z-0.0354 I0. J0.0705
Y0.4295 Z-0.0377 I0. J-0.0705
Y0.5705 Z-0.04 I0. J0.0705
Y0.4295 Z-0.0423 I0. J-0.0705
Y0.5705 Z-0.0446 I0. J0.0705
Y0.4295 Z-0.047 I0. J-0.0705
Y0.5705 Z-0.0493 I0. J0.0705
Y0.4295 Z-0.0516 I0. J-0.0705
Y0.5705 Z-0.0539 I0. J0.0705
Y0.4295 Z-0.0563 I0. J-0.0705
Y0.5705 Z-0.0586 I0. J0.0705
Y0.4295 Z-0.0609 I0. J-0.0705
Y0.5705 Z-0.0632 I0. J0.0705
Y0.4295 Z-0.0655 I0. J-0.0705
Y0.5705 Z-0.0679 I0. J0.0705
Y0.4295 Z-0.0702 I0. J-0.0705
Y0.5705 Z-0.0725 I0. J0.0705
Y0.4295 Z-0.0748 I0. J-0.0705
Y0.5705 Z-0.0771 I0. J0.0705
Y0.4295 Z-0.0795 I0. J-0.0705
Y0.5705 Z-0.0818 I0. J0.0705
Y0.4295 Z-0.0841 I0. J-0.0705
Y0.5705 Z-0.0864 I0. J0.0705
Y0.4295 Z-0.0888 I0. J-0.0705
Y0.5705 Z-0.0911 I0. J0.0705
Y0.4295 Z-0.0934 I0. J-0.0705
Y0.5705 Z-0.0957 I0. J0.0705
Y0.4295 Z-0.098 I0. J-0.0705
Y0.5705 Z-0.1004 I0. J0.0705
Y0.4295 Z-0.1027 I0. J-0.0705
Y0.5705 Z-0.105 I0. J0.0705
Y0.4295 Z-0.1073 I0. J-0.0705
Y0.5705 Z-0.1097 I0. J0.0705
Y0.4295 Z-0.112 I0. J-0.0705
Y0.5705 Z-0.1143 I0. J0.0705
Y0.4295 Z-0.1166 I0. J-0.0705
Y0.5705 Z-0.1189 I0. J0.0705
Y0.4295 Z-0.1213 I0. J-0.0705
Y0.5705 Z-0.1236 I0. J0.0705
Y0.4295 Z-0.1259 I0. J-0.0705
Y0.5705 Z-0.1282 I0. J0.0705
Y0.4295 Z-0.1305 I0. J-0.0705
Y0.5705 Z-0.1329 I0. J0.0705
Y0.4295 Z-0.1352 I0. J-0.0705
Y0.5705 Z-0.1375 I0. J0.0705
Y0.4295 Z-0.1398 I0. J-0.0705
Y0.5705 Z-0.1422 I0. J0.0705
Y0.4295 Z-0.1445 I0. J-0.0705
Y0.5705 Z-0.1468 I0. J0.0705
Y0.4295 Z-0.1491 I0. J-0.0705
Y0.5705 Z-0.1514 I0. J0.0705
Y0.4295 Z-0.1538 I0. J-0.0705
Y0.5705 Z-0.1561 I0. J0.0705
Y0.4295 Z-0.1584 I0. J-0.0705
Y0.5705 Z-0.1607 I0. J0.0705
Y0.4295 Z-0.163 I0. J-0.0705
Y0.5705 Z-0.1654 I0. J0.0705
Y0.4295 Z-0.1677 I0. J-0.0705
Y0.5705 Z-0.17 I0. J0.0705
Y0.4295 Z-0.1723 I0. J-0.0705
Y0.5705 Z-0.1747 I0. J0.0705
Y0.4295 Z-0.177 I0. J-0.0705
Y0.5705 Z-0.1793 I0. J0.0705
Y0.4295 Z-0.1816 I0. J-0.0705
Y0.5705 Z-0.1839 I0. J0.0705
Y0.4295 Z-0.1863 I0. J-0.0705
Y0.5705 Z-0.1886 I0. J0.0705
Y0.4295 Z-0.1909 I0. J-0.0705
Y0.5705 Z-0.1932 I0. J0.0705
Y0.4295 Z-0.1955 I0. J-0.0705
Y0.5705 Z-0.1979 I0. J0.0705
Y0.4295 Z-0.2002 I0. J-0.0705
Y0.5705 Z-0.2025 I0. J0.0705
Y0.4295 Z-0.2048 I0. J-0.0705
Y0.5705 Z-0.2072 I0. J0.0705
Y0.4295 Z-0.2095 I0. J-0.0705
Y0.5705 Z-0.2118 I0. J0.0705
Y0.4295 Z-0.2141 I0. J-0.0705
Y0.5705 Z-0.2164 I0. J0.0705
Y0.4295 Z-0.2188 I0. J-0.0705
Y0.5705 Z-0.2211 I0. J0.0705
Y0.4295 Z-0.2234 I0. J-0.0705
X0.4413 Y0.539 Z-0.225 I0. J0.0705
X0.5587 Y0.461 I0.0587 J-0.039
X0.4413 Y0.539 I-0.0587 J0.039
X0.4586 Y0.5425 I0.0104 J-0.0069
G1 X0.4638 Y0.5391
X0.4661 Y0.5375 Z-0.2247
X0.4683 Y0.5361 Z-0.2238
X0.4703 Y0.5347 Z-0.2223
X0.472 Y0.5336 Z-0.2203
X0.4732 Y0.5328 Z-0.2179
X0.474 Y0.5323 Z-0.2153
X0.4742 Y0.5321 Z-0.2125
G0 Z0.29
X0.496 Y1.7392
Z0.1575
G1 Z0.09 F39.4
Y1.7454
X0.4963 Y1.7469
X0.4972 Y1.7482
X0.4985 Y1.7491
X0.5 Y1.7494
G2 Y1.7334 Z0.0888 I0. J-0.008
Y1.7494 Z0.0875 I0. J0.008
Y1.7334 Z0.0863 I0. J-0.008
Y1.7494 Z0.0851 I0. J0.008
Y1.7334 Z0.0838 I0. J-0.008
Y1.7494 Z0.0826 I0. J0.008
Y1.7334 Z0.0814 I0. J-0.008
Y1.7494 Z0.0802 I0. J0.008
Y1.7334 Z0.0789 I0. J-0.008
Y1.7494 Z0.0777 I0. J0.008
Y1.7334 Z0.0765 I0. J-0.008
Y1.7494 Z0.0752 I0. J0.008
Y1.7334 Z0.074 I0. J-0.008
Y1.7494 Z0.0728 I0. J0.008
Y1.7334 Z0.0715 I0. J-0.008
Y1.7494 Z0.0703 I0. J0.008
Y1.7334 Z0.0691 I0. J-0.008
Y1.7494 Z0.0678 I0. J0.008
Y1.7334 Z0.0666 I0. J-0.008
Y1.7494 Z0.0654 I0. J0.008
Y1.7334 Z0.0642 I0. J-0.008
Y1.7494 Z0.0629 I0. J0.008
Y1.7334 Z0.0617 I0. J-0.008
Y1.7494 Z0.0605 I0. J0.008
Y1.7334 Z0.0592 I0. J-0.008
Y1.7494 Z0.058 I0. J0.008
Y1.7334 Z0.0568 I0. J-0.008
Y1.7494 Z0.0555 I0. J0.008
Y1.7334 Z0.0543 I0. J-0.008
Y1.7494 Z0.0531 I0. J0.008
Y1.7334 Z0.0519 I0. J-0.008
Y1.7494 Z0.0506 I0. J0.008
Y1.7334 Z0.0494 I0. J-0.008
Y1.7494 Z0.0482 I0. J0.008
Y1.7334 Z0.0469 I0. J-0.008
Y1.7494 Z0.0457 I0. J0.008
Y1.7334 Z0.0445 I0. J-0.008
Y1.7494 Z0.0432 I0. J0.008
Y1.7334 Z0.042 I0. J-0.008
Y1.7494 Z0.0408 I0. J0.008
Y1.7334 Z0.0395 I0. J-0.008
Y1.7494 Z0.0383 I0. J0.008
Y1.7334 Z0.0371 I0. J-0.008
Y1.7494 Z0.0359 I0. J0.008
Y1.7334 Z0.0346 I0. J-0.008
Y1.7494 Z0.0334 I0. J0.008
Y1.7334 Z0.0322 I0. J-0.008
Y1.7494 Z0.0309 I0. J0.008
Y1.7334 Z0.0297 I0. J-0.008
Y1.7494 Z0.0285 I0. J0.008
Y1.7334 Z0.0272 I0. J-0.008
Y1.7494 Z0.026 I0. J0.008
Y1.7334 Z0.0248 I0. J-0.008
Y1.7494 Z0.0235 I0. J0.008
Y1.7334 Z0.0223 I0. J-0.008
Y1.7494 Z0.0211 I0. J0.008
Y1.7334 Z0.0199 I0. J-0.008
Y1.7494 Z0.0186 I0. J0.008
Y1.7334 Z0.0174 I0. J-0.008
Y1.7494 Z0.0162 I0. J0.008
Y1.7334 Z0.0149 I0. J-0.008
Y1.7494 Z0.0137 I0. J0.008
Y1.7334 Z0.0125 I0. J-0.008
Y1.7494 Z0.0112 I0. J0.008
Y1.7334 Z0.01 I0. J-0.008
Y1.7494 Z0.0088 I0. J0.008
Y1.7334 Z0.0076 I0. J-0.008
Y1.7494 Z0.0063 I0. J0.008
Y1.7334 Z0.0051 I0. J-0.008
Y1.7494 Z0.0039 I0. J0.008
Y1.7334 Z0.0026 I0. J-0.008
Y1.7494 Z0.0014 I0. J0.008
Y1.7334 Z0.0002 I0. J-0.008
Y1.7494 Z-0.0011 I0. J0.008
Y1.7334 Z-0.0023 I0. J-0.008
Y1.7494 Z-0.0035 I0. J0.008
Y1.7334 Z-0.0048 I0. J-0.008
Y1.7494 Z-0.006 I0. J0.008
Y1.7334 Z-0.0072 I0. J-0.008
Y1.7494 Z-0.0084 I0. J0.008
Y1.7334 Z-0.0097 I0. J-0.008
Y1.7494 Z-0.0109 I0. J0.008
Y1.7334 Z-0.0121 I0. J-0.008
Y1.7494 Z-0.0134 I0. J0.008
Y1.7334 Z-0.0146 I0. J-0.008
Y1.7494 Z-0.0158 I0. J0.008
Y1.7334 Z-0.0171 I0. J-0.008
Y1.7494 Z-0.0183 I0. J0.008
Y1.7334 Z-0.0195 I0. J-0.008
Y1.7494 Z-0.0208 I0. J0.008
Y1.7334 Z-0.022 I0. J-0.008
Y1.7494 Z-0.0232 I0. J0.008
Y1.7334 Z-0.0244 I0. J-0.008
Y1.7494 Z-0.0257 I0. J0.008
Y1.7334 Z-0.0269 I0. J-0.008
Y1.7494 Z-0.0281 I0. J0.008
Y1.7334 Z-0.0294 I0. J-0.008
Y1.7494 Z-0.0306 I0. J0.008
Y1.7334 Z-0.0318 I0. J-0.008
Y1.7494 Z-0.0331 I0. J0.008
Y1.7334 Z-0.0343 I0. J-0.008
Y1.7494 Z-0.0355 I0. J0.008
Y1.7334 Z-0.0367 I0. J-0.008
Y1.7494 Z-0.038 I0. J0.008
Y1.7334 Z-0.0392 I0. J-0.008
Y1.7494 Z-0.0404 I0. J0.008
Y1.7334 Z-0.0417 I0. J-0.008
Y1.7494 Z-0.0429 I0. J0.008
Y1.7334 Z-0.0441 I0. J-0.008
Y1.7494 Z-0.0454 I0. J0.008
Y1.7334 Z-0.0466 I0. J-0.008
Y1.7494 Z-0.0478 I0. J0.008
Y1.7334 Z-0.0491 I0. J-0.008
Y1.7494 Z-0.0503 I0. J0.008
Y1.7334 Z-0.0515 I0. J-0.008
Y1.7494 Z-0.0527 I0. J0.008
Y1.7334 Z-0.054 I0. J-0.008
Y1.7494 Z-0.0552 I0. J0.008
Y1.7334 Z-0.0564 I0. J-0.008
Y1.7494 Z-0.0577 I0. J0.008
Y1.7334 Z-0.0589 I0. J-0.008
Y1.7494 Z-0.0601 I0. J0.008
Y1.7334 Z-0.0614 I0. J-0.008
Y1.7494 Z-0.0626 I0. J0.008
Y1.7334 Z-0.0638 I0. J-0.008
Y1.7494 Z-0.0651 I0. J0.008
Y1.7334 Z-0.0663 I0. J-0.008
Y1.7494 Z-0.0675 I0. J0.008
Y1.7334 Z-0.0687 I0. J-0.008
Y1.7494 Z-0.07 I0. J0.008
Y1.7334 Z-0.0712 I0. J-0.008
Y1.7494 Z-0.0724 I0. J0.008
Y1.7334 Z-0.0737 I0. J-0.008
Y1.7494 Z-0.0749 I0. J0.008
Y1.7334 Z-0.0761 I0. J-0.008
Y1.7494 Z-0.0774 I0. J0.008
Y1.7334 Z-0.0786 I0. J-0.008
Y1.7494 Z-0.0798 I0. J0.008
Y1.7334 Z-0.0811 I0. J-0.008
Y1.7494 Z-0.0823 I0. J0.008
Y1.7334 Z-0.0835 I0. J-0.008
Y1.7494 Z-0.0847 I0. J0.008
Y1.7334 Z-0.086 I0. J-0.008
Y1.7494 Z-0.0872 I0. J0.008
Y1.7334 Z-0.0884 I0. J-0.008
Y1.7494 Z-0.0897 I0. J0.008
Y1.7334 Z-0.0909 I0. J-0.008
Y1.7494 Z-0.0921 I0. J0.008
Y1.7334 Z-0.0934 I0. J-0.008
Y1.7494 Z-0.0946 I0. J0.008
Y1.7334 Z-0.0958 I0. J-0.008
Y1.7494 Z-0.097 I0. J0.008
Y1.7334 Z-0.0983 I0. J-0.008
Y1.7494 Z-0.0995 I0. J0.008
Y1.7334 Z-0.1007 I0. J-0.008
Y1.7494 Z-0.102 I0. J0.008
Y1.7334 Z-0.1032 I0. J-0.008
Y1.7494 Z-0.1044 I0. J0.008
Y1.7334 Z-0.1057 I0. J-0.008
Y1.7494 Z-0.1069 I0. J0.008
Y1.7334 Z-0.1081 I0. J-0.008
Y1.7494 Z-0.1094 I0. J0.008
Y1.7334 Z-0.1106 I0. J-0.008
Y1.7494 Z-0.1118 I0. J0.008
Y1.7334 Z-0.113 I0. J-0.008
Y1.7494 Z-0.1143 I0. J0.008
Y1.7334 Z-0.1155 I0. J-0.008
Y1.7494 Z-0.1167 I0. J0.008
Y1.7334 Z-0.118 I0. J-0.008
Y1.7494 Z-0.1192 I0. J0.008
Y1.7334 Z-0.1204 I0. J-0.008
Y1.7494 Z-0.1217 I0. J0.008
Y1.7334 Z-0.1229 I0. J-0.008
Y1.7494 Z-0.1241 I0. J0.008
Y1.7334 Z-0.1254 I0. J-0.008
Y1.7494 Z-0.1266 I0. J0.008
Y1.7334 Z-0.1278 I0. J-0.008
Y1.7494 Z-0.129 I0. J0.008
Y1.7334 Z-0.1303 I0. J-0.008
Y1.7494 Z-0.1315 I0. J0.008
Y1.7334 Z-0.1327 I0. J-0.008
Y1.7494 Z-0.134 I0. J0.008
Y1.7334 Z-0.1352 I0. J-0.008
Y1.7494 Z-0.1364 I0. J0.008
Y1.7334 Z-0.1377 I0. J-0.008
Y1.7494 Z-0.1389 I0. J0.008
Y1.7334 Z-0.1401 I0. J-0.008
Y1.7494 Z-0.1413 I0. J0.008
Y1.7334 Z-0.1426 I0. J-0.008
Y1.7494 Z-0.1438 I0. J0.008
Y1.7334 Z-0.145 I0. J-0.008
Y1.7494 Z-0.1463 I0. J0.008
Y1.7334 Z-0.1475 I0. J-0.008
Y1.7494 Z-0.1487 I0. J0.008
Y1.7334 Z-0.15 I0. J-0.008
Y1.7494 Z-0.1512 I0. J0.008
Y1.7334 Z-0.1524 I0. J-0.008
Y1.7494 Z-0.1537 I0. J0.008
Y1.7334 Z-0.1549 I0. J-0.008
Y1.7494 Z-0.1561 I0. J0.008
Y1.7334 Z-0.1573 I0. J-0.008
Y1.7494 Z-0.1586 I0. J0.008
Y1.7334 Z-0.1598 I0. J-0.008
Y1.7494 Z-0.161 I0. J0.008
Y1.7334 Z-0.1623 I0. J-0.008
Y1.7494 Z-0.1635 I0. J0.008
Y1.7334 Z-0.1647 I0. J-0.008
Y1.7494 Z-0.166 I0. J0.008
Y1.7334 Z-0.1672 I0. J-0.008
Y1.7494 Z-0.1684 I0. J0.008
Y1.7334 Z-0.1697 I0. J-0.008
Y1.7494 Z-0.1709 I0. J0.008
Y1.7334 Z-0.1721 I0. J-0.008
Y1.7494 Z-0.1733 I0. J0.008
Y1.7334 Z-0.1746 I0. J-0.008
Y1.7494 Z-0.1758 I0. J0.008
Y1.7334 Z-0.177 I0. J-0.008
Y1.7494 Z-0.1783 I0. J0.008
Y1.7334 Z-0.1795 I0. J-0.008
Y1.7494 Z-0.1807 I0. J0.008
Y1.7334 Z-0.182 I0. J-0.008
Y1.7494 Z-0.1832 I0. J0.008
Y1.7334 Z-0.1844 I0. J-0.008
Y1.7494 Z-0.1857 I0. J0.008
Y1.7334 Z-0.1869 I0. J-0.008
Y1.7494 Z-0.1881 I0. J0.008
Y1.7334 Z-0.1893 I0. J-0.008
Y1.7494 Z-0.1906 I0. J0.008
Y1.7334 Z-0.1918 I0. J-0.008
Y1.7494 Z-0.193 I0. J0.008
Y1.7334 Z-0.1943 I0. J-0.008
Y1.7494 Z-0.1955 I0. J0.008
Y1.7334 Z-0.1967 I0. J-0.008
Y1.7494 Z-0.198 I0. J0.008
Y1.7334 Z-0.1992 I0. J-0.008
Y1.7494 Z-0.2004 I0. J0.008
Y1.7334 Z-0.2016 I0. J-0.008
Y1.7494 Z-0.2029 I0. J0.008
Y1.7334 Z-0.2041 I0. J-0.008
Y1.7494 Z-0.2053 I0. J0.008
Y1.7334 Z-0.2066 I0. J-0.008
Y1.7494 Z-0.2078 I0. J0.008
Y1.7334 Z-0.209 I0. J-0.008
Y1.7494 Z-0.2103 I0. J0.008
Y1.7334 Z-0.2115 I0. J-0.008
Y1.7494 Z-0.2127 I0. J0.008
Y1.7334 Z-0.214 I0. J-0.008
Y1.7494 Z-0.2152 I0. J0.008
Y1.7334 Z-0.2164 I0. J-0.008
Y1.7494 Z-0.2176 I0. J0.008
Y1.7334 Z-0.2189 I0. J-0.008
Y1.7494 Z-0.2201 I0. J0.008
Y1.7334 Z-0.2213 I0. J-0.008
Y1.7494 Z-0.2226 I0. J0.008
Y1.7334 Z-0.2238 I0. J-0.008
X0.4994 Y1.7494 Z-0.225 I0. J0.008
X0.5006 Y1.7334 I0.0006 J-0.008
X0.4994 Y1.7494 I-0.0006 J0.008
G1 X0.501 Y1.7492
X0.5023 Y1.7484
X0.5033 Y1.7472
X0.5037 Y1.7457
X0.5042 Y1.7395
G0 Z0.29
X0.4875 Y1.7807
Z0.17
G1 Z0.1025 F39.4
G19 G3 Y1.7932 Z0.09 J0.0125 K0.
G1 Y1.7994
G17 G2 X0.5 Y1.8119 I0.0125 J0.
Y1.6709 Z0.0877 I0. J-0.0705
Y1.8119 Z0.0854 I0. J0.0705
Y1.6709 Z0.083 I0. J-0.0705
Y1.8119 Z0.0807 I0. J0.0705
Y1.6709 Z0.0784 I0. J-0.0705
Y1.8119 Z0.0761 I0. J0.0705
Y1.6709 Z0.0737 I0. J-0.0705
Y1.8119 Z0.0714 I0. J0.0705
Y1.6709 Z0.0691 I0. J-0.0705
Y1.8119 Z0.0668 I0. J0.0705
Y1.6709 Z0.0645 I0. J-0.0705
Y1.8119 Z0.0621 I0. J0.0705
Y1.6709 Z0.0598 I0. J-0.0705
Y1.8119 Z0.0575 I0. J0.0705
Y1.6709 Z0.0552 I0. J-0.0705
Y1.8119 Z0.0529 I0. J0.0705
Y1.6709 Z0.0505 I0. J-0.0705
Y1.8119 Z0.0482 I0. J0.0705
Y1.6709 Z0.0459 I0. J-0.0705
Y1.8119 Z0.0436 I0. J0.0705
Y1.6709 Z0.0412 I0. J-0.0705
Y1.8119 Z0.0389 I0. J0.0705
Y1.6709 Z0.0366 I0. J-0.0705
Y1.8119 Z0.0343 I0. J0.0705
Y1.6709 Z0.032 I0. J-0.0705
Y1.8119 Z0.0296 I0. J0.0705
Y1.6709 Z0.0273 I0. J-0.0705
Y1.8119 Z0.025 I0. J0.0705
Y1.6709 Z0.0227 I0. J-0.0705
Y1.8119 Z0.0204 I0. J0.0705
Y1.6709 Z0.018 I0. J-0.0705
Y1.8119 Z0.0157 I0. J0.0705
Y1.6709 Z0.0134 I0. J-0.0705
Y1.8119 Z0.0111 I0. J0.0705
Y1.6709 Z0.0087 I0. J-0.0705
Y1.8119 Z0.0064 I0. J0.0705
Y1.6709 Z0.0041 I0. J-0.0705
Y1.8119 Z0.0018 I0. J0.0705
Y1.6709 Z-0.0005 I0. J-0.0705
Y1.8119 Z-0.0029 I0. J0.0705
Y1.6709 Z-0.0052 I0. J-0.0705
Y1.8119 Z-0.0075 I0. J0.0705
Y1.6709 Z-0.0098 I0. J-0.0705
Y1.8119 Z-0.0121 I0. J0.0705
Y1.6709 Z-0.0145 I0. J-0.0705
Y1.8119 Z-0.0168 I0. J0.0705
Y1.6709 Z-0.0191 I0. J-0.0705
Y1.8119 Z-0.0214 I0. J0.0705
Y1.6709 Z-0.0238 I0. J-0.0705
Y1.8119 Z-0.0261 I0. J0.0705
Y1.6709 Z-0.0284 I0. J-0.0705
Y1.8119 Z-0.0307 I0. J0.0705
Y1.6709 Z-0.033 I0. J-0.0705
Y1.8119 Z-0.0354 I0. J0.0705
Y1.6709 Z-0.0377 I0. J-0.0705
Y1.8119 Z-0.04 I0. J0.0705
Y1.6709 Z-0.0423 I0. J-0.0705
Y1.8119 Z-0.0446 I0. J0.0705
Y1.6709 Z-0.047 I0. J-0.0705
Y1.8119 Z-0.0493 I0. J0.0705
Y1.6709 Z-0.0516 I0. J-0.0705
Y1.8119 Z-0.0539 I0. J0.0705
Y1.6709 Z-0.0563 I0. J-0.0705
Y1.8119 Z-0.0586 I0. J0.0705
Y1.6709 Z-0.0609 I0. J-0.0705
Y1.8119 Z-0.0632 I0. J0.0705
Y1.6709 Z-0.0655 I0. J-0.0705
Y1.8119 Z-0.0679 I0. J0.0705
Y1.6709 Z-0.0702 I0. J-0.0705
Y1.8119 Z-0.0725 I0. J0.0705
Y1.6709 Z-0.0748 I0. J-0.0705
Y1.8119 Z-0.0771 I0. J0.0705
Y1.6709 Z-0.0795 I0. J-0.0705
Y1.8119 Z-0.0818 I0. J0.0705
Y1.6709 Z-0.0841 I0. J-0.0705
Y1.8119 Z-0.0864 I0. J0.0705
Y1.6709 Z-0.0888 I0. J-0.0705
Y1.8119 Z-0.0911 I0. J0.0705
Y1.6709 Z-0.0934 I0. J-0.0705
Y1.8119 Z-0.0957 I0. J0.0705
Y1.6709 Z-0.098 I0. J-0.0705
Y1.8119 Z-0.1004 I0. J0.0705
Y1.6709 Z-0.1027 I0. J-0.0705
Y1.8119 Z-0.105 I0. J0.0705
Y1.6709 Z-0.1073 I0. J-0.0705
Y1.8119 Z-0.1097 I0. J0.0705
Y1.6709 Z-0.112 I0. J-0.0705
Y1.8119 Z-0.1143 I0. J0.0705
Y1.6709 Z-0.1166 I0. J-0.0705
Y1.8119 Z-0.1189 I0. J0.0705
Y1.6709 Z-0.1213 I0. J-0.0705
Y1.8119 Z-0.1236 I0. J0.0705
Y1.6709 Z-0.1259 I0. J-0.0705
Y1.8119 Z-0.1282 I0. J0.0705
Y1.6709 Z-0.1305 I0. J-0.0705
Y1.8119 Z-0.1329 I0. J0.0705
Y1.6709 Z-0.1352 I0. J-0.0705
Y1.8119 Z-0.1375 I0. J0.0705
Y1.6709 Z-0.1398 I0. J-0.0705
Y1.8119 Z-0.1422 I0. J0.0705
Y1.6709 Z-0.1445 I0. J-0.0705
Y1.8119 Z-0.1468 I0. J0.0705
Y1.6709 Z-0.1491 I0. J-0.0705
Y1.8119 Z-0.1514 I0. J0.0705
Y1.6709 Z-0.1538 I0. J-0.0705
Y1.8119 Z-0.1561 I0. J0.0705
Y1.6709 Z-0.1584 I0. J-0.0705
Y1.8119 Z-0.1607 I0. J0.0705
Y1.6709 Z-0.163 I0. J-0.0705
Y1.8119 Z-0.1654 I0. J0.0705
Y1.6709 Z-0.1677 I0. J-0.0705
Y1.8119 Z-0.17 I0. J0.0705
Y1.6709 Z-0.1723 I0. J-0.0705
Y1.8119 Z-0.1747 I0. J0.0705
Y1.6709 Z-0.177 I0. J-0.0705
Y1.8119 Z-0.1793 I0. J0.0705
Y1.6709 Z-0.1816 I0. J-0.0705
Y1.8119 Z-0.1839 I0. J0.0705
Y1.6709 Z-0.1863 I0. J-0.0705
Y1.8119 Z-0.1886 I0. J0.0705
Y1.6709 Z-0.1909 I0. J-0.0705
Y1.8119 Z-0.1932 I0. J0.0705
Y1.6709 Z-0.1955 I0. J-0.0705
Y1.8119 Z-0.1979 I0. J0.0705
Y1.6709 Z-0.2002 I0. J-0.0705
Y1.8119 Z-0.2025 I0. J0.0705
Y1.6709 Z-0.2048 I0. J-0.0705
Y1.8119 Z-0.2072 I0. J0.0705
Y1.6709 Z-0.2095 I0. J-0.0705
Y1.8119 Z-0.2118 I0. J0.0705
Y1.6709 Z-0.2141 I0. J-0.0705
Y1.8119 Z-0.2164 I0. J0.0705
Y1.6709 Z-0.2188 I0. J-0.0705
Y1.8119 Z-0.2211 I0. J0.0705
Y1.6709 Z-0.2234 I0. J-0.0705
X0.4413 Y1.7804 Z-0.225 I0. J0.0705
X0.5587 Y1.7024 I0.0587 J-0.039
X0.4413 Y1.7804 I-0.0587 J0.039
X0.4586 Y1.7839 I0.0104 J-0.0069
G1 X0.4638 Y1.7805
X0.4661 Y1.7789 Z-0.2247
X0.4683 Y1.7775 Z-0.2238
X0.4703 Y1.7762 Z-0.2223
X0.472 Y1.7751 Z-0.2203
X0.4732 Y1.7742 Z-0.2179
X0.474 Y1.7737 Z-0.2153
X0.4742 Y1.7736 Z-0.2125
G0 Z0.29
X0.496 Y2.9806
Z0.1575
G1 Z0.09 F39.4
Y2.9868
X0.4963 Y2.9884
X0.4972 Y2.9897
X0.4985 Y2.9905
X0.5 Y2.9908
G2 Y2.9748 Z0.0888 I0. J-0.008
Y2.9908 Z0.0875 I0. J0.008
Y2.9748 Z0.0863 I0. J-0.008
Y2.9908 Z0.0851 I0. J0.008
Y2.9748 Z0.0838 I0. J-0.008
Y2.9908 Z0.0826 I0. J0.008
Y2.9748 Z0.0814 I0. J-0.008
Y2.9908 Z0.0802 I0. J0.008
Y2.9748 Z0.0789 I0. J-0.008
Y2.9908 Z0.0777 I0. J0.008
Y2.9748 Z0.0765 I0. J-0.008
Y2.9908 Z0.0752 I0. J0.008
Y2.9748 Z0.074 I0. J-0.008
Y2.9908 Z0.0728 I0. J0.008
Y2.9748 Z0.0715 I0. J-0.008
Y2.9908 Z0.0703 I0. J0.008
Y2.9748 Z0.0691 I0. J-0.008
Y2.9908 Z0.0678 I0. J0.008
Y2.9748 Z0.0666 I0. J-0.008
Y2.9908 Z0.0654 I0. J0.008
Y2.9748 Z0.0642 I0. J-0.008
Y2.9908 Z0.0629 I0. J0.008
Y2.9748 Z0.0617 I0. J-0.008
Y2.9908 Z0.0605 I0. J0.008
Y2.9748 Z0.0592 I0. J-0.008
Y2.9908 Z0.058 I0. J0.008
Y2.9748 Z0.0568 I0. J-0.008
Y2.9908 Z0.0555 I0. J0.008
Y2.9748 Z0.0543 I0. J-0.008
Y2.9908 Z0.0531 I0. J0.008
Y2.9748 Z0.0519 I0. J-0.008
Y2.9908 Z0.0506 I0. J0.008
Y2.9748 Z0.0494 I0. J-0.008
Y2.9908 Z0.0482 I0. J0.008
Y2.9748 Z0.0469 I0. J-0.008
Y2.9908 Z0.0457 I0. J0.008
Y2.9748 Z0.0445 I0. J-0.008
Y2.9908 Z0.0432 I0. J0.008
Y2.9748 Z0.042 I0. J-0.008
Y2.9908 Z0.0408 I0. J0.008
Y2.9748 Z0.0395 I0. J-0.008
Y2.9908 Z0.0383 I0. J0.008
Y2.9748 Z0.0371 I0. J-0.008
Y2.9908 Z0.0359 I0. J0.008
Y2.9748 Z0.0346 I0. J-0.008
Y2.9908 Z0.0334 I0. J0.008
Y2.9748 Z0.0322 I0. J-0.008
Y2.9908 Z0.0309 I0. J0.008
Y2.9748 Z0.0297 I0. J-0.008
Y2.9908 Z0.0285 I0. J0.008
Y2.9748 Z0.0272 I0. J-0.008
Y2.9908 Z0.026 I0. J0.008
Y2.9748 Z0.0248 I0. J-0.008
Y2.9908 Z0.0235 I0. J0.008
Y2.9748 Z0.0223 I0. J-0.008
Y2.9908 Z0.0211 I0. J0.008
Y2.9748 Z0.0199 I0. J-0.008
Y2.9908 Z0.0186 I0. J0.008
Y2.9748 Z0.0174 I0. J-0.008
Y2.9908 Z0.0162 I0. J0.008
Y2.9748 Z0.0149 I0. J-0.008
Y2.9908 Z0.0137 I0. J0.008
Y2.9748 Z0.0125 I0. J-0.008
Y2.9908 Z0.0112 I0. J0.008
Y2.9748 Z0.01 I0. J-0.008
Y2.9908 Z0.0088 I0. J0.008
Y2.9748 Z0.0076 I0. J-0.008
Y2.9908 Z0.0063 I0. J0.008
Y2.9748 Z0.0051 I0. J-0.008
Y2.9908 Z0.0039 I0. J0.008
Y2.9748 Z0.0026 I0. J-0.008
Y2.9908 Z0.0014 I0. J0.008
Y2.9748 Z0.0002 I0. J-0.008
Y2.9908 Z-0.0011 I0. J0.008
Y2.9748 Z-0.0023 I0. J-0.008
Y2.9908 Z-0.0035 I0. J0.008
Y2.9748 Z-0.0048 I0. J-0.008
Y2.9908 Z-0.006 I0. J0.008
Y2.9748 Z-0.0072 I0. J-0.008
Y2.9908 Z-0.0084 I0. J0.008
Y2.9748 Z-0.0097 I0. J-0.008
Y2.9908 Z-0.0109 I0. J0.008
Y2.9748 Z-0.0121 I0. J-0.008
Y2.9908 Z-0.0134 I0. J0.008
Y2.9748 Z-0.0146 I0. J-0.008
Y2.9908 Z-0.0158 I0. J0.008
Y2.9748 Z-0.0171 I0. J-0.008
Y2.9908 Z-0.0183 I0. J0.008
Y2.9748 Z-0.0195 I0. J-0.008
Y2.9908 Z-0.0208 I0. J0.008
Y2.9748 Z-0.022 I0. J-0.008
Y2.9908 Z-0.0232 I0. J0.008
Y2.9748 Z-0.0244 I0. J-0.008
Y2.9908 Z-0.0257 I0. J0.008
Y2.9748 Z-0.0269 I0. J-0.008
Y2.9908 Z-0.0281 I0. J0.008
Y2.9748 Z-0.0294 I0. J-0.008
Y2.9908 Z-0.0306 I0. J0.008
Y2.9748 Z-0.0318 I0. J-0.008
Y2.9908 Z-0.0331 I0. J0.008
Y2.9748 Z-0.0343 I0. J-0.008
Y2.9908 Z-0.0355 I0. J0.008
Y2.9748 Z-0.0367 I0. J-0.008
Y2.9908 Z-0.038 I0. J0.008
Y2.9748 Z-0.0392 I0. J-0.008
Y2.9908 Z-0.0404 I0. J0.008
Y2.9748 Z-0.0417 I0. J-0.008
Y2.9908 Z-0.0429 I0. J0.008
Y2.9748 Z-0.0441 I0. J-0.008
Y2.9908 Z-0.0454 I0. J0.008
Y2.9748 Z-0.0466 I0. J-0.008
Y2.9908 Z-0.0478 I0. J0.008
Y2.9748 Z-0.0491 I0. J-0.008
Y2.9908 Z-0.0503 I0. J0.008
Y2.9748 Z-0.0515 I0. J-0.008
Y2.9908 Z-0.0527 I0. J0.008
Y2.9748 Z-0.054 I0. J-0.008
Y2.9908 Z-0.0552 I0. J0.008
Y2.9748 Z-0.0564 I0. J-0.008
Y2.9908 Z-0.0577 I0. J0.008
Y2.9748 Z-0.0589 I0. J-0.008
Y2.9908 Z-0.0601 I0. J0.008
Y2.9748 Z-0.0614 I0. J-0.008
Y2.9908 Z-0.0626 I0. J0.008
Y2.9748 Z-0.0638 I0. J-0.008
Y2.9908 Z-0.0651 I0. J0.008
Y2.9748 Z-0.0663 I0. J-0.008
Y2.9908 Z-0.0675 I0. J0.008
Y2.9748 Z-0.0687 I0. J-0.008
Y2.9908 Z-0.07 I0. J0.008
Y2.9748 Z-0.0712 I0. J-0.008
Y2.9908 Z-0.0724 I0. J0.008
Y2.9748 Z-0.0737 I0. J-0.008
Y2.9908 Z-0.0749 I0. J0.008
Y2.9748 Z-0.0761 I0. J-0.008
Y2.9908 Z-0.0774 I0. J0.008
Y2.9748 Z-0.0786 I0. J-0.008
Y2.9908 Z-0.0798 I0. J0.008
Y2.9748 Z-0.0811 I0. J-0.008
Y2.9908 Z-0.0823 I0. J0.008
Y2.9748 Z-0.0835 I0. J-0.008
Y2.9908 Z-0.0847 I0. J0.008
Y2.9748 Z-0.086 I0. J-0.008
Y2.9908 Z-0.0872 I0. J0.008
Y2.9748 Z-0.0884 I0. J-0.008
Y2.9908 Z-0.0897 I0. J0.008
Y2.9748 Z-0.0909 I0. J-0.008
Y2.9908 Z-0.0921 I0. J0.008
Y2.9748 Z-0.0934 I0. J-0.008
Y2.9908 Z-0.0946 I0. J0.008
Y2.9748 Z-0.0958 I0. J-0.008
Y2.9908 Z-0.097 I0. J0.008
Y2.9748 Z-0.0983 I0. J-0.008
Y2.9908 Z-0.0995 I0. J0.008
Y2.9748 Z-0.1007 I0. J-0.008
Y2.9908 Z-0.102 I0. J0.008
Y2.9748 Z-0.1032 I0. J-0.008
Y2.9908 Z-0.1044 I0. J0.008
Y2.9748 Z-0.1057 I0. J-0.008
Y2.9908 Z-0.1069 I0. J0.008
Y2.9748 Z-0.1081 I0. J-0.008
Y2.9908 Z-0.1094 I0. J0.008
Y2.9748 Z-0.1106 I0. J-0.008
Y2.9908 Z-0.1118 I0. J0.008
Y2.9748 Z-0.113 I0. J-0.008
Y2.9908 Z-0.1143 I0. J0.008
Y2.9748 Z-0.1155 I0. J-0.008
Y2.9908 Z-0.1167 I0. J0.008
Y2.9748 Z-0.118 I0. J-0.008
Y2.9908 Z-0.1192 I0. J0.008
Y2.9748 Z-0.1204 I0. J-0.008
Y2.9908 Z-0.1217 I0. J0.008
Y2.9748 Z-0.1229 I0. J-0.008
Y2.9908 Z-0.1241 I0. J0.008
Y2.9748 Z-0.1254 I0. J-0.008
Y2.9908 Z-0.1266 I0. J0.008
Y2.9748 Z-0.1278 I0. J-0.008
Y2.9908 Z-0.129 I0. J0.008
Y2.9748 Z-0.1303 I0. J-0.008
Y2.9908 Z-0.1315 I0. J0.008
Y2.9748 Z-0.1327 I0. J-0.008
Y2.9908 Z-0.134 I0. J0.008
Y2.9748 Z-0.1352 I0. J-0.008
Y2.9908 Z-0.1364 I0. J0.008
Y2.9748 Z-0.1377 I0. J-0.008
Y2.9908 Z-0.1389 I0. J0.008
Y2.9748 Z-0.1401 I0. J-0.008
Y2.9908 Z-0.1413 I0. J0.008
Y2.9748 Z-0.1426 I0. J-0.008
Y2.9908 Z-0.1438 I0. J0.008
Y2.9748 Z-0.145 I0. J-0.008
Y2.9908 Z-0.1463 I0. J0.008
Y2.9748 Z-0.1475 I0. J-0.008
Y2.9908 Z-0.1487 I0. J0.008
Y2.9748 Z-0.15 I0. J-0.008
Y2.9908 Z-0.1512 I0. J0.008
Y2.9748 Z-0.1524 I0. J-0.008
Y2.9908 Z-0.1537 I0. J0.008
Y2.9748 Z-0.1549 I0. J-0.008
Y2.9908 Z-0.1561 I0. J0.008
Y2.9748 Z-0.1573 I0. J-0.008
Y2.9908 Z-0.1586 I0. J0.008
Y2.9748 Z-0.1598 I0. J-0.008
Y2.9908 Z-0.161 I0. J0.008
Y2.9748 Z-0.1623 I0. J-0.008
Y2.9908 Z-0.1635 I0. J0.008
Y2.9748 Z-0.1647 I0. J-0.008
Y2.9908 Z-0.166 I0. J0.008
Y2.9748 Z-0.1672 I0. J-0.008
Y2.9908 Z-0.1684 I0. J0.008
Y2.9748 Z-0.1697 I0. J-0.008
Y2.9908 Z-0.1709 I0. J0.008
Y2.9748 Z-0.1721 I0. J-0.008
Y2.9908 Z-0.1733 I0. J0.008
Y2.9748 Z-0.1746 I0. J-0.008
Y2.9908 Z-0.1758 I0. J0.008
Y2.9748 Z-0.177 I0. J-0.008
Y2.9908 Z-0.1783 I0. J0.008
Y2.9748 Z-0.1795 I0. J-0.008
Y2.9908 Z-0.1807 I0. J0.008
Y2.9748 Z-0.182 I0. J-0.008
Y2.9908 Z-0.1832 I0. J0.008
Y2.9748 Z-0.1844 I0. J-0.008
Y2.9908 Z-0.1857 I0. J0.008
Y2.9748 Z-0.1869 I0. J-0.008
Y2.9908 Z-0.1881 I0. J0.008
Y2.9748 Z-0.1893 I0. J-0.008
Y2.9908 Z-0.1906 I0. J0.008
Y2.9748 Z-0.1918 I0. J-0.008
Y2.9908 Z-0.193 I0. J0.008
Y2.9748 Z-0.1943 I0. J-0.008
Y2.9908 Z-0.1955 I0. J0.008
Y2.9748 Z-0.1967 I0. J-0.008
Y2.9908 Z-0.198 I0. J0.008
Y2.9748 Z-0.1992 I0. J-0.008
Y2.9908 Z-0.2004 I0. J0.008
Y2.9748 Z-0.2016 I0. J-0.008
Y2.9908 Z-0.2029 I0. J0.008
Y2.9748 Z-0.2041 I0. J-0.008
Y2.9908 Z-0.2053 I0. J0.008
Y2.9748 Z-0.2066 I0. J-0.008
Y2.9908 Z-0.2078 I0. J0.008
Y2.9748 Z-0.209 I0. J-0.008
Y2.9908 Z-0.2103 I0. J0.008
Y2.9748 Z-0.2115 I0. J-0.008
Y2.9908 Z-0.2127 I0. J0.008
Y2.9748 Z-0.214 I0. J-0.008
Y2.9908 Z-0.2152 I0. J0.008
Y2.9748 Z-0.2164 I0. J-0.008
Y2.9908 Z-0.2176 I0. J0.008
Y2.9748 Z-0.2189 I0. J-0.008
Y2.9908 Z-0.2201 I0. J0.008
Y2.9748 Z-0.2213 I0. J-0.008
Y2.9908 Z-0.2226 I0. J0.008
Y2.9748 Z-0.2238 I0. J-0.008
X0.4994 Y2.9908 Z-0.225 I0. J0.008
X0.5006 Y2.9749 I0.0006 J-0.008
X0.4994 Y2.9908 I-0.0006 J0.008
G1 X0.501 Y2.9906
X0.5023 Y2.9899
X0.5033 Y2.9886
X0.5037 Y2.9871
X0.5042 Y2.9809
G0 Z0.29
X0.4875 Y3.0221
Z0.17
G1 Z0.1025 F39.4
G19 G3 Y3.0346 Z0.09 J0.0125 K0.
G1 Y3.0408
G17 G2 X0.5 Y3.0533 I0.0125 J0.
Y2.9123 Z0.0877 I0. J-0.0705
Y3.0533 Z0.0854 I0. J0.0705
Y2.9123 Z0.083 I0. J-0.0705
Y3.0533 Z0.0807 I0. J0.0705
Y2.9123 Z0.0784 I0. J-0.0705
Y3.0533 Z0.0761 I0. J0.0705
Y2.9123 Z0.0737 I0. J-0.0705
Y3.0533 Z0.0714 I0. J0.0705
Y2.9123 Z0.0691 I0. J-0.0705
Y3.0533 Z0.0668 I0. J0.0705
Y2.9123 Z0.0645 I0. J-0.0705
Y3.0533 Z0.0621 I0. J0.0705
Y2.9123 Z0.0598 I0. J-0.0705
Y3.0533 Z0.0575 I0. J0.0705
Y2.9123 Z0.0552 I0. J-0.0705
Y3.0533 Z0.0529 I0. J0.0705
Y2.9123 Z0.0505 I0. J-0.0705
Y3.0533 Z0.0482 I0. J0.0705
Y2.9123 Z0.0459 I0. J-0.0705
Y3.0533 Z0.0436 I0. J0.0705
Y2.9123 Z0.0412 I0. J-0.0705
Y3.0533 Z0.0389 I0. J0.0705
Y2.9123 Z0.0366 I0. J-0.0705
Y3.0533 Z0.0343 I0. J0.0705
Y2.9123 Z0.032 I0. J-0.0705
Y3.0533 Z0.0296 I0. J0.0705
Y2.9123 Z0.0273 I0. J-0.0705
Y3.0533 Z0.025 I0. J0.0705
Y2.9123 Z0.0227 I0. J-0.0705
Y3.0533 Z0.0204 I0. J0.0705
Y2.9123 Z0.018 I0. J-0.0705
Y3.0533 Z0.0157 I0. J0.0705
Y2.9123 Z0.0134 I0. J-0.0705
Y3.0533 Z0.0111 I0. J0.0705
Y2.9123 Z0.0087 I0. J-0.0705
Y3.0533 Z0.0064 I0. J0.0705
Y2.9123 Z0.0041 I0. J-0.0705
Y3.0533 Z0.0018 I0. J0.0705
Y2.9123 Z-0.0005 I0. J-0.0705
Y3.0533 Z-0.0029 I0. J0.0705
Y2.9123 Z-0.0052 I0. J-0.0705
Y3.0533 Z-0.0075 I0. J0.0705
Y2.9123 Z-0.0098 I0. J-0.0705
Y3.0533 Z-0.0121 I0. J0.0705
Y2.9123 Z-0.0145 I0. J-0.0705
Y3.0533 Z-0.0168 I0. J0.0705
Y2.9123 Z-0.0191 I0. J-0.0705
Y3.0533 Z-0.0214 I0. J0.0705
Y2.9123 Z-0.0238 I0. J-0.0705
Y3.0533 Z-0.0261 I0. J0.0705
Y2.9123 Z-0.0284 I0. J-0.0705
Y3.0533 Z-0.0307 I0. J0.0705
Y2.9123 Z-0.033 I0. J-0.0705
Y3.0533 Z-0.0354 I0. J0.0705
Y2.9123 Z-0.0377 I0. J-0.0705
Y3.0533 Z-0.04 I0. J0.0705
Y2.9123 Z-0.0423 I0. J-0.0705
Y3.0533 Z-0.0446 I0. J0.0705
Y2.9123 Z-0.047 I0. J-0.0705
Y3.0533 Z-0.0493 I0. J0.0705
Y2.9123 Z-0.0516 I0. J-0.0705
Y3.0533 Z-0.0539 I0. J0.0705
Y2.9123 Z-0.0563 I0. J-0.0705
Y3.0533 Z-0.0586 I0. J0.0705
Y2.9123 Z-0.0609 I0. J-0.0705
Y3.0533 Z-0.0632 I0. J0.0705
Y2.9123 Z-0.0655 I0. J-0.0705
Y3.0533 Z-0.0679 I0. J0.0705
Y2.9123 Z-0.0702 I0. J-0.0705
Y3.0533 Z-0.0725 I0. J0.0705
Y2.9123 Z-0.0748 I0. J-0.0705
Y3.0533 Z-0.0771 I0. J0.0705
Y2.9123 Z-0.0795 I0. J-0.0705
Y3.0533 Z-0.0818 I0. J0.0705
Y2.9123 Z-0.0841 I0. J-0.0705
Y3.0533 Z-0.0864 I0. J0.0705
Y2.9123 Z-0.0888 I0. J-0.0705
Y3.0533 Z-0.0911 I0. J0.0705
Y2.9123 Z-0.0934 I0. J-0.0705
Y3.0533 Z-0.0957 I0. J0.0705
Y2.9123 Z-0.098 I0. J-0.0705
Y3.0533 Z-0.1004 I0. J0.0705
Y2.9123 Z-0.1027 I0. J-0.0705
Y3.0533 Z-0.105 I0. J0.0705
Y2.9123 Z-0.1073 I0. J-0.0705
Y3.0533 Z-0.1097 I0. J0.0705
Y2.9123 Z-0.112 I0. J-0.0705
Y3.0533 Z-0.1143 I0. J0.0705
Y2.9123 Z-0.1166 I0. J-0.0705
Y3.0533 Z-0.1189 I0. J0.0705
Y2.9123 Z-0.1213 I0. J-0.0705
Y3.0533 Z-0.1236 I0. J0.0705
Y2.9123 Z-0.1259 I0. J-0.0705
Y3.0533 Z-0.1282 I0. J0.0705
Y2.9123 Z-0.1305 I0. J-0.0705
Y3.0533 Z-0.1329 I0. J0.0705
Y2.9123 Z-0.1352 I0. J-0.0705
Y3.0533 Z-0.1375 I0. J0.0705
Y2.9123 Z-0.1398 I0. J-0.0705
Y3.0533 Z-0.1422 I0. J0.0705
Y2.9123 Z-0.1445 I0. J-0.0705
Y3.0533 Z-0.1468 I0. J0.0705
Y2.9123 Z-0.1491 I0. J-0.0705
Y3.0533 Z-0.1514 I0. J0.0705
Y2.9123 Z-0.1538 I0. J-0.0705
Y3.0533 Z-0.1561 I0. J0.0705
Y2.9123 Z-0.1584 I0. J-0.0705
Y3.0533 Z-0.1607 I0. J0.0705
Y2.9123 Z-0.163 I0. J-0.0705
Y3.0533 Z-0.1654 I0. J0.0705
Y2.9123 Z-0.1677 I0. J-0.0705
Y3.0533 Z-0.17 I0. J0.0705
Y2.9123 Z-0.1723 I0. J-0.0705
Y3.0533 Z-0.1747 I0. J0.0705
Y2.9123 Z-0.177 I0. J-0.0705
Y3.0533 Z-0.1793 I0. J0.0705
Y2.9123 Z-0.1816 I0. J-0.0705
Y3.0533 Z-0.1839 I0. J0.0705
Y2.9123 Z-0.1863 I0. J-0.0705
Y3.0533 Z-0.1886 I0. J0.0705
Y2.9123 Z-0.1909 I0. J-0.0705
Y3.0533 Z-0.1932 I0. J0.0705
Y2.9123 Z-0.1955 I0. J-0.0705
Y3.0533 Z-0.1979 I0. J0.0705
Y2.9123 Z-0.2002 I0. J-0.0705
Y3.0533 Z-0.2025 I0. J0.0705
Y2.9123 Z-0.2048 I0. J-0.0705
Y3.0533 Z-0.2072 I0. J0.0705
Y2.9123 Z-0.2095 I0. J-0.0705
Y3.0533 Z-0.2118 I0. J0.0705
Y2.9123 Z-0.2141 I0. J-0.0705
Y3.0533 Z-0.2164 I0. J0.0705
Y2.9123 Z-0.2188 I0. J-0.0705
Y3.0533 Z-0.2211 I0. J0.0705
Y2.9123 Z-0.2234 I0. J-0.0705
X0.4413 Y3.0219 Z-0.225 I0. J0.0705
X0.5587 Y2.9438 I0.0587 J-0.039
X0.4413 Y3.0219 I-0.0587 J0.039
X0.4586 Y3.0254 I0.0104 J-0.0069
G1 X0.4638 Y3.0219
X0.4661 Y3.0204 Z-0.2247
X0.4683 Y3.0189 Z-0.2238
X0.4703 Y3.0176 Z-0.2223
X0.472 Y3.0165 Z-0.2203
X0.4732 Y3.0157 Z-0.2179
X0.474 Y3.0151 Z-0.2153
X0.4742 Y3.015 Z-0.2125
G0 Z0.29
X1.8902 Y2.2897
Z0.1575
G1 Z0.09 F39.4
Y2.296
X1.8905 Y2.2975
X1.8914 Y2.2988
X1.8927 Y2.2997
X1.8942 Y2.3
G2 Y2.284 Z0.0888 I0. J-0.008
Y2.3 Z0.0875 I0. J0.008
Y2.284 Z0.0863 I0. J-0.008
Y2.3 Z0.0851 I0. J0.008
Y2.284 Z0.0838 I0. J-0.008
Y2.3 Z0.0826 I0. J0.008
Y2.284 Z0.0814 I0. J-0.008
Y2.3 Z0.0802 I0. J0.008
Y2.284 Z0.0789 I0. J-0.008
Y2.3 Z0.0777 I0. J0.008
Y2.284 Z0.0765 I0. J-0.008
Y2.3 Z0.0752 I0. J0.008
Y2.284 Z0.074 I0. J-0.008
Y2.3 Z0.0728 I0. J0.008
Y2.284 Z0.0715 I0. J-0.008
Y2.3 Z0.0703 I0. J0.008
Y2.284 Z0.0691 I0. J-0.008
Y2.3 Z0.0678 I0. J0.008
Y2.284 Z0.0666 I0. J-0.008
Y2.3 Z0.0654 I0. J0.008
Y2.284 Z0.0642 I0. J-0.008
Y2.3 Z0.0629 I0. J0.008
Y2.284 Z0.0617 I0. J-0.008
Y2.3 Z0.0605 I0. J0.008
Y2.284 Z0.0592 I0. J-0.008
Y2.3 Z0.058 I0. J0.008
Y2.284 Z0.0568 I0. J-0.008
Y2.3 Z0.0555 I0. J0.008
Y2.284 Z0.0543 I0. J-0.008
Y2.3 Z0.0531 I0. J0.008
Y2.284 Z0.0519 I0. J-0.008
Y2.3 Z0.0506 I0. J0.008
Y2.284 Z0.0494 I0. J-0.008
Y2.3 Z0.0482 I0. J0.008
Y2.284 Z0.0469 I0. J-0.008
Y2.3 Z0.0457 I0. J0.008
Y2.284 Z0.0445 I0. J-0.008
Y2.3 Z0.0432 I0. J0.008
Y2.284 Z0.042 I0. J-0.008
Y2.3 Z0.0408 I0. J0.008
Y2.284 Z0.0395 I0. J-0.008
Y2.3 Z0.0383 I0. J0.008
Y2.284 Z0.0371 I0. J-0.008
Y2.3 Z0.0359 I0. J0.008
Y2.284 Z0.0346 I0. J-0.008
Y2.3 Z0.0334 I0. J0.008
Y2.284 Z0.0322 I0. J-0.008
Y2.3 Z0.0309 I0. J0.008
Y2.284 Z0.0297 I0. J-0.008
Y2.3 Z0.0285 I0. J0.008
Y2.284 Z0.0272 I0. J-0.008
Y2.3 Z0.026 I0. J0.008
Y2.284 Z0.0248 I0. J-0.008
Y2.3 Z0.0235 I0. J0.008
Y2.284 Z0.0223 I0. J-0.008
Y2.3 Z0.0211 I0. J0.008
Y2.284 Z0.0199 I0. J-0.008
Y2.3 Z0.0186 I0. J0.008
Y2.284 Z0.0174 I0. J-0.008
Y2.3 Z0.0162 I0. J0.008
Y2.284 Z0.0149 I0. J-0.008
Y2.3 Z0.0137 I0. J0.008
Y2.284 Z0.0125 I0. J-0.008
Y2.3 Z0.0112 I0. J0.008
Y2.284 Z0.01 I0. J-0.008
Y2.3 Z0.0088 I0. J0.008
Y2.284 Z0.0076 I0. J-0.008
Y2.3 Z0.0063 I0. J0.008
Y2.284 Z0.0051 I0. J-0.008
Y2.3 Z0.0039 I0. J0.008
Y2.284 Z0.0026 I0. J-0.008
Y2.3 Z0.0014 I0. J0.008
Y2.284 Z0.0002 I0. J-0.008
Y2.3 Z-0.0011 I0. J0.008
Y2.284 Z-0.0023 I0. J-0.008
Y2.3 Z-0.0035 I0. J0.008
Y2.284 Z-0.0048 I0. J-0.008
Y2.3 Z-0.006 I0. J0.008
Y2.284 Z-0.0072 I0. J-0.008
Y2.3 Z-0.0084 I0. J0.008
Y2.284 Z-0.0097 I0. J-0.008
Y2.3 Z-0.0109 I0. J0.008
Y2.284 Z-0.0121 I0. J-0.008
Y2.3 Z-0.0134 I0. J0.008
Y2.284 Z-0.0146 I0. J-0.008
Y2.3 Z-0.0158 I0. J0.008
Y2.284 Z-0.0171 I0. J-0.008
Y2.3 Z-0.0183 I0. J0.008
Y2.284 Z-0.0195 I0. J-0.008
Y2.3 Z-0.0208 I0. J0.008
Y2.284 Z-0.022 I0. J-0.008
Y2.3 Z-0.0232 I0. J0.008
Y2.284 Z-0.0244 I0. J-0.008
Y2.3 Z-0.0257 I0. J0.008
Y2.284 Z-0.0269 I0. J-0.008
Y2.3 Z-0.0281 I0. J0.008
Y2.284 Z-0.0294 I0. J-0.008
Y2.3 Z-0.0306 I0. J0.008
Y2.284 Z-0.0318 I0. J-0.008
Y2.3 Z-0.0331 I0. J0.008
Y2.284 Z-0.0343 I0. J-0.008
Y2.3 Z-0.0355 I0. J0.008
Y2.284 Z-0.0367 I0. J-0.008
Y2.3 Z-0.038 I0. J0.008
Y2.284 Z-0.0392 I0. J-0.008
Y2.3 Z-0.0404 I0. J0.008
Y2.284 Z-0.0417 I0. J-0.008
Y2.3 Z-0.0429 I0. J0.008
Y2.284 Z-0.0441 I0. J-0.008
Y2.3 Z-0.0454 I0. J0.008
Y2.284 Z-0.0466 I0. J-0.008
Y2.3 Z-0.0478 I0. J0.008
Y2.284 Z-0.0491 I0. J-0.008
Y2.3 Z-0.0503 I0. J0.008
Y2.284 Z-0.0515 I0. J-0.008
Y2.3 Z-0.0527 I0. J0.008
Y2.284 Z-0.054 I0. J-0.008
Y2.3 Z-0.0552 I0. J0.008
Y2.284 Z-0.0564 I0. J-0.008
Y2.3 Z-0.0577 I0. J0.008
Y2.284 Z-0.0589 I0. J-0.008
Y2.3 Z-0.0601 I0. J0.008
Y2.284 Z-0.0614 I0. J-0.008
Y2.3 Z-0.0626 I0. J0.008
Y2.284 Z-0.0638 I0. J-0.008
Y2.3 Z-0.0651 I0. J0.008
Y2.284 Z-0.0663 I0. J-0.008
Y2.3 Z-0.0675 I0. J0.008
Y2.284 Z-0.0687 I0. J-0.008
Y2.3 Z-0.07 I0. J0.008
Y2.284 Z-0.0712 I0. J-0.008
Y2.3 Z-0.0724 I0. J0.008
Y2.284 Z-0.0737 I0. J-0.008
Y2.3 Z-0.0749 I0. J0.008
Y2.284 Z-0.0761 I0. J-0.008
Y2.3 Z-0.0774 I0. J0.008
Y2.284 Z-0.0786 I0. J-0.008
Y2.3 Z-0.0798 I0. J0.008
Y2.284 Z-0.0811 I0. J-0.008
Y2.3 Z-0.0823 I0. J0.008
Y2.284 Z-0.0835 I0. J-0.008
Y2.3 Z-0.0847 I0. J0.008
Y2.284 Z-0.086 I0. J-0.008
Y2.3 Z-0.0872 I0. J0.008
Y2.284 Z-0.0884 I0. J-0.008
Y2.3 Z-0.0897 I0. J0.008
Y2.284 Z-0.0909 I0. J-0.008
Y2.3 Z-0.0921 I0. J0.008
Y2.284 Z-0.0934 I0. J-0.008
Y2.3 Z-0.0946 I0. J0.008
Y2.284 Z-0.0958 I0. J-0.008
Y2.3 Z-0.097 I0. J0.008
Y2.284 Z-0.0983 I0. J-0.008
Y2.3 Z-0.0995 I0. J0.008
Y2.284 Z-0.1007 I0. J-0.008
Y2.3 Z-0.102 I0. J0.008
Y2.284 Z-0.1032 I0. J-0.008
Y2.3 Z-0.1044 I0. J0.008
Y2.284 Z-0.1057 I0. J-0.008
Y2.3 Z-0.1069 I0. J0.008
Y2.284 Z-0.1081 I0. J-0.008
Y2.3 Z-0.1094 I0. J0.008
Y2.284 Z-0.1106 I0. J-0.008
Y2.3 Z-0.1118 I0. J0.008
Y2.284 Z-0.113 I0. J-0.008
Y2.3 Z-0.1143 I0. J0.008
Y2.284 Z-0.1155 I0. J-0.008
Y2.3 Z-0.1167 I0. J0.008
Y2.284 Z-0.118 I0. J-0.008
Y2.3 Z-0.1192 I0. J0.008
Y2.284 Z-0.1204 I0. J-0.008
Y2.3 Z-0.1217 I0. J0.008
Y2.284 Z-0.1229 I0. J-0.008
Y2.3 Z-0.1241 I0. J0.008
Y2.284 Z-0.1254 I0. J-0.008
Y2.3 Z-0.1266 I0. J0.008
Y2.284 Z-0.1278 I0. J-0.008
Y2.3 Z-0.129 I0. J0.008
Y2.284 Z-0.1303 I0. J-0.008
Y2.3 Z-0.1315 I0. J0.008
Y2.284 Z-0.1327 I0. J-0.008
Y2.3 Z-0.134 I0. J0.008
Y2.284 Z-0.1352 I0. J-0.008
Y2.3 Z-0.1364 I0. J0.008
Y2.284 Z-0.1377 I0. J-0.008
Y2.3 Z-0.1389 I0. J0.008
Y2.284 Z-0.1401 I0. J-0.008
Y2.3 Z-0.1413 I0. J0.008
Y2.284 Z-0.1426 I0. J-0.008
Y2.3 Z-0.1438 I0. J0.008
Y2.284 Z-0.145 I0. J-0.008
Y2.3 Z-0.1463 I0. J0.008
Y2.284 Z-0.1475 I0. J-0.008
Y2.3 Z-0.1487 I0. J0.008
Y2.284 Z-0.15 I0. J-0.008
Y2.3 Z-0.1512 I0. J0.008
Y2.284 Z-0.1524 I0. J-0.008
Y2.3 Z-0.1537 I0. J0.008
Y2.284 Z-0.1549 I0. J-0.008
Y2.3 Z-0.1561 I0. J0.008
Y2.284 Z-0.1573 I0. J-0.008
Y2.3 Z-0.1586 I0. J0.008
Y2.284 Z-0.1598 I0. J-0.008
Y2.3 Z-0.161 I0. J0.008
Y2.284 Z-0.1623 I0. J-0.008
Y2.3 Z-0.1635 I0. J0.008
Y2.284 Z-0.1647 I0. J-0.008
Y2.3 Z-0.166 I0. J0.008
Y2.284 Z-0.1672 I0. J-0.008
Y2.3 Z-0.1684 I0. J0.008
Y2.284 Z-0.1697 I0. J-0.008
Y2.3 Z-0.1709 I0. J0.008
Y2.284 Z-0.1721 I0. J-0.008
Y2.3 Z-0.1733 I0. J0.008
Y2.284 Z-0.1746 I0. J-0.008
Y2.3 Z-0.1758 I0. J0.008
Y2.284 Z-0.177 I0. J-0.008
Y2.3 Z-0.1783 I0. J0.008
Y2.284 Z-0.1795 I0. J-0.008
Y2.3 Z-0.1807 I0. J0.008
Y2.284 Z-0.182 I0. J-0.008
Y2.3 Z-0.1832 I0. J0.008
Y2.284 Z-0.1844 I0. J-0.008
Y2.3 Z-0.1857 I0. J0.008
Y2.284 Z-0.1869 I0. J-0.008
Y2.3 Z-0.1881 I0. J0.008
Y2.284 Z-0.1893 I0. J-0.008
Y2.3 Z-0.1906 I0. J0.008
Y2.284 Z-0.1918 I0. J-0.008
Y2.3 Z-0.193 I0. J0.008
Y2.284 Z-0.1943 I0. J-0.008
Y2.3 Z-0.1955 I0. J0.008
Y2.284 Z-0.1967 I0. J-0.008
Y2.3 Z-0.198 I0. J0.008
Y2.284 Z-0.1992 I0. J-0.008
Y2.3 Z-0.2004 I0. J0.008
Y2.284 Z-0.2016 I0. J-0.008
Y2.3 Z-0.2029 I0. J0.008
Y2.284 Z-0.2041 I0. J-0.008
Y2.3 Z-0.2053 I0. J0.008
Y2.284 Z-0.2066 I0. J-0.008
Y2.3 Z-0.2078 I0. J0.008
Y2.284 Z-0.209 I0. J-0.008
Y2.3 Z-0.2103 I0. J0.008
Y2.284 Z-0.2115 I0. J-0.008
Y2.3 Z-0.2127 I0. J0.008
Y2.284 Z-0.214 I0. J-0.008
Y2.3 Z-0.2152 I0. J0.008
Y2.284 Z-0.2164 I0. J-0.008
Y2.3 Z-0.2176 I0. J0.008
Y2.284 Z-0.2189 I0. J-0.008
Y2.3 Z-0.2201 I0. J0.008
Y2.284 Z-0.2213 I0. J-0.008
Y2.3 Z-0.2226 I0. J0.008
Y2.284 Z-0.2238 I0. J-0.008
X1.8936 Y2.3 Z-0.225 I0. J0.008
X1.8948 Y2.284 I0.0006 J-0.008
X1.8936 Y2.3 I-0.0006 J0.008
G1 X1.8952 Y2.2998
X1.8966 Y2.299
X1.8975 Y2.2978
X1.8979 Y2.2963
X1.8984 Y2.2901
G0 Z0.29
X1.8817 Y2.3312
Z0.17
G1 Z0.1025 F39.4
G19 G3 Y2.3437 Z0.09 J0.0125 K0.
G1 Y2.35
G17 G2 X1.8942 Y2.3625 I0.0125 J0.
Y2.2215 Z0.0877 I0. J-0.0705
Y2.3625 Z0.0854 I0. J0.0705
Y2.2215 Z0.083 I0. J-0.0705
Y2.3625 Z0.0807 I0. J0.0705
Y2.2215 Z0.0784 I0. J-0.0705
Y2.3625 Z0.0761 I0. J0.0705
Y2.2215 Z0.0737 I0. J-0.0705
Y2.3625 Z0.0714 I0. J0.0705
Y2.2215 Z0.0691 I0. J-0.0705
Y2.3625 Z0.0668 I0. J0.0705
Y2.2215 Z0.0645 I0. J-0.0705
Y2.3625 Z0.0621 I0. J0.0705
Y2.2215 Z0.0598 I0. J-0.0705
Y2.3625 Z0.0575 I0. J0.0705
Y2.2215 Z0.0552 I0. J-0.0705
Y2.3625 Z0.0529 I0. J0.0705
Y2.2215 Z0.0505 I0. J-0.0705
Y2.3625 Z0.0482 I0. J0.0705
Y2.2215 Z0.0459 I0. J-0.0705
Y2.3625 Z0.0436 I0. J0.0705
Y2.2215 Z0.0412 I0. J-0.0705
Y2.3625 Z0.0389 I0. J0.0705
Y2.2215 Z0.0366 I0. J-0.0705
Y2.3625 Z0.0343 I0. J0.0705
Y2.2215 Z0.032 I0. J-0.0705
Y2.3625 Z0.0296 I0. J0.0705
Y2.2215 Z0.0273 I0. J-0.0705
Y2.3625 Z0.025 I0. J0.0705
Y2.2215 Z0.0227 I0. J-0.0705
Y2.3625 Z0.0204 I0. J0.0705
Y2.2215 Z0.018 I0. J-0.0705
Y2.3625 Z0.0157 I0. J0.0705
Y2.2215 Z0.0134 I0. J-0.0705
Y2.3625 Z0.0111 I0. J0.0705
Y2.2215 Z0.0087 I0. J-0.0705
Y2.3625 Z0.0064 I0. J0.0705
Y2.2215 Z0.0041 I0. J-0.0705
Y2.3625 Z0.0018 I0. J0.0705
Y2.2215 Z-0.0005 I0. J-0.0705
Y2.3625 Z-0.0029 I0. J0.0705
Y2.2215 Z-0.0052 I0. J-0.0705
Y2.3625 Z-0.0075 I0. J0.0705
Y2.2215 Z-0.0098 I0. J-0.0705
Y2.3625 Z-0.0121 I0. J0.0705
Y2.2215 Z-0.0145 I0. J-0.0705
Y2.3625 Z-0.0168 I0. J0.0705
Y2.2215 Z-0.0191 I0. J-0.0705
Y2.3625 Z-0.0214 I0. J0.0705
Y2.2215 Z-0.0238 I0. J-0.0705
Y2.3625 Z-0.0261 I0. J0.0705
Y2.2215 Z-0.0284 I0. J-0.0705
Y2.3625 Z-0.0307 I0. J0.0705
Y2.2215 Z-0.033 I0. J-0.0705
Y2.3625 Z-0.0354 I0. J0.0705
Y2.2215 Z-0.0377 I0. J-0.0705
Y2.3625 Z-0.04 I0. J0.0705
Y2.2215 Z-0.0423 I0. J-0.0705
Y2.3625 Z-0.0446 I0. J0.0705
Y2.2215 Z-0.047 I0. J-0.0705
Y2.3625 Z-0.0493 I0. J0.0705
Y2.2215 Z-0.0516 I0. J-0.0705
Y2.3625 Z-0.0539 I0. J0.0705
Y2.2215 Z-0.0563 I0. J-0.0705
Y2.3625 Z-0.0586 I0. J0.0705
Y2.2215 Z-0.0609 I0. J-0.0705
Y2.3625 Z-0.0632 I0. J0.0705
Y2.2215 Z-0.0655 I0. J-0.0705
Y2.3625 Z-0.0679 I0. J0.0705
Y2.2215 Z-0.0702 I0. J-0.0705
Y2.3625 Z-0.0725 I0. J0.0705
Y2.2215 Z-0.0748 I0. J-0.0705
Y2.3625 Z-0.0771 I0. J0.0705
Y2.2215 Z-0.0795 I0. J-0.0705
Y2.3625 Z-0.0818 I0. J0.0705
Y2.2215 Z-0.0841 I0. J-0.0705
Y2.3625 Z-0.0864 I0. J0.0705
Y2.2215 Z-0.0888 I0. J-0.0705
Y2.3625 Z-0.0911 I0. J0.0705
Y2.2215 Z-0.0934 I0. J-0.0705
Y2.3625 Z-0.0957 I0. J0.0705
Y2.2215 Z-0.098 I0. J-0.0705
Y2.3625 Z-0.1004 I0. J0.0705
Y2.2215 Z-0.1027 I0. J-0.0705
Y2.3625 Z-0.105 I0. J0.0705
Y2.2215 Z-0.1073 I0. J-0.0705
Y2.3625 Z-0.1097 I0. J0.0705
Y2.2215 Z-0.112 I0. J-0.0705
Y2.3625 Z-0.1143 I0. J0.0705
Y2.2215 Z-0.1166 I0. J-0.0705
Y2.3625 Z-0.1189 I0. J0.0705
Y2.2215 Z-0.1213 I0. J-0.0705
Y2.3625 Z-0.1236 I0. J0.0705
Y2.2215 Z-0.1259 I0. J-0.0705
Y2.3625 Z-0.1282 I0. J0.0705
Y2.2215 Z-0.1305 I0. J-0.0705
Y2.3625 Z-0.1329 I0. J0.0705
Y2.2215 Z-0.1352 I0. J-0.0705
Y2.3625 Z-0.1375 I0. J0.0705
Y2.2215 Z-0.1398 I0. J-0.0705
Y2.3625 Z-0.1422 I0. J0.0705
Y2.2215 Z-0.1445 I0. J-0.0705
Y2.3625 Z-0.1468 I0. J0.0705
Y2.2215 Z-0.1491 I0. J-0.0705
Y2.3625 Z-0.1514 I0. J0.0705
Y2.2215 Z-0.1538 I0. J-0.0705
Y2.3625 Z-0.1561 I0. J0.0705
Y2.2215 Z-0.1584 I0. J-0.0705
Y2.3625 Z-0.1607 I0. J0.0705
Y2.2215 Z-0.163 I0. J-0.0705
Y2.3625 Z-0.1654 I0. J0.0705
Y2.2215 Z-0.1677 I0. J-0.0705
Y2.3625 Z-0.17 I0. J0.0705
Y2.2215 Z-0.1723 I0. J-0.0705
Y2.3625 Z-0.1747 I0. J0.0705
Y2.2215 Z-0.177 I0. J-0.0705
Y2.3625 Z-0.1793 I0. J0.0705
Y2.2215 Z-0.1816 I0. J-0.0705
Y2.3625 Z-0.1839 I0. J0.0705
Y2.2215 Z-0.1863 I0. J-0.0705
Y2.3625 Z-0.1886 I0. J0.0705
Y2.2215 Z-0.1909 I0. J-0.0705
Y2.3625 Z-0.1932 I0. J0.0705
Y2.2215 Z-0.1955 I0. J-0.0705
Y2.3625 Z-0.1979 I0. J0.0705
Y2.2215 Z-0.2002 I0. J-0.0705
Y2.3625 Z-0.2025 I0. J0.0705
Y2.2215 Z-0.2048 I0. J-0.0705
Y2.3625 Z-0.2072 I0. J0.0705
Y2.2215 Z-0.2095 I0. J-0.0705
Y2.3625 Z-0.2118 I0. J0.0705
Y2.2215 Z-0.2141 I0. J-0.0705
Y2.3625 Z-0.2164 I0. J0.0705
Y2.2215 Z-0.2188 I0. J-0.0705
Y2.3625 Z-0.2211 I0. J0.0705
Y2.2215 Z-0.2234 I0. J-0.0705
X1.8355 Y2.331 Z-0.225 I0. J0.0705
X1.9529 Y2.253 I0.0587 J-0.039
X1.8355 Y2.331 I-0.0587 J0.039
X1.8529 Y2.3345 I0.0104 J-0.0069
G1 X1.8581 Y2.3311
X1.8604 Y2.3295 Z-0.2247
X1.8626 Y2.3281 Z-0.2238
X1.8646 Y2.3267 Z-0.2223
X1.8662 Y2.3256 Z-0.2203
X1.8674 Y2.3248 Z-0.2179
X1.8682 Y2.3243 Z-0.2153
X1.8685 Y2.3241 Z-0.2125
G0 Z0.29
X2.4875 Y1.5331
Z0.17
G1 Z0.1025 F39.4
G19 G3 Y1.5456 Z0.09 J0.0125 K0.
G1 Y1.5519
G17 G2 X2.5 Y1.5644 I0.0125 J0.
Y1.4284 Z0.0877 I0. J-0.068
Y1.5644 Z0.0854 I0. J0.068
Y1.4284 Z0.0832 I0. J-0.068
Y1.5644 Z0.0809 I0. J0.068
Y1.4284 Z0.0786 I0. J-0.068
Y1.5644 Z0.0763 I0. J0.068
Y1.4284 Z0.0741 I0. J-0.068
Y1.5644 Z0.0718 I0. J0.068
Y1.4284 Z0.0695 I0. J-0.068
Y1.5644 Z0.0672 I0. J0.068
Y1.4284 Z0.0649 I0. J-0.068
Y1.5644 Z0.0627 I0. J0.068
Y1.4284 Z0.0604 I0. J-0.068
Y1.5644 Z0.0581 I0. J0.068
Y1.4284 Z0.0558 I0. J-0.068
Y1.5644 Z0.0536 I0. J0.068
Y1.4284 Z0.0513 I0. J-0.068
Y1.5644 Z0.049 I0. J0.068
Y1.4284 Z0.0467 I0. J-0.068
Y1.5644 Z0.0444 I0. J0.068
Y1.4284 Z0.0422 I0. J-0.068
Y1.5644 Z0.0399 I0. J0.068
Y1.4284 Z0.0376 I0. J-0.068
Y1.5644 Z0.0353 I0. J0.068
Y1.4284 Z0.0331 I0. J-0.068
Y1.5644 Z0.0308 I0. J0.068
Y1.4284 Z0.0285 I0. J-0.068
Y1.5644 Z0.0262 I0. J0.068
Y1.4284 Z0.0239 I0. J-0.068
Y1.5644 Z0.0217 I0. J0.068
Y1.4284 Z0.0194 I0. J-0.068
Y1.5644 Z0.0171 I0. J0.068
Y1.4284 Z0.0148 I0. J-0.068
Y1.5644 Z0.0126 I0. J0.068
Y1.4284 Z0.0103 I0. J-0.068
Y1.5644 Z0.008 I0. J0.068
Y1.4284 Z0.0057 I0. J-0.068
Y1.5644 Z0.0034 I0. J0.068
Y1.4284 Z0.0012 I0. J-0.068
Y1.5644 Z-0.0011 I0. J0.068
Y1.4284 Z-0.0034 I0. J-0.068
Y1.5644 Z-0.0057 I0. J0.068
Y1.4284 Z-0.0079 I0. J-0.068
Y1.5644 Z-0.0102 I0. J0.068
Y1.4284 Z-0.0125 I0. J-0.068
Y1.5644 Z-0.0148 I0. J0.068
Y1.4284 Z-0.0171 I0. J-0.068
Y1.5644 Z-0.0193 I0. J0.068
Y1.4284 Z-0.0216 I0. J-0.068
Y1.5644 Z-0.0239 I0. J0.068
Y1.4284 Z-0.0262 I0. J-0.068
Y1.5644 Z-0.0285 I0. J0.068
Y1.4284 Z-0.0307 I0. J-0.068
Y1.5644 Z-0.033 I0. J0.068
Y1.4284 Z-0.0353 I0. J-0.068
Y1.5644 Z-0.0376 I0. J0.068
Y1.4284 Z-0.0398 I0. J-0.068
Y1.5644 Z-0.0421 I0. J0.068
Y1.4284 Z-0.0444 I0. J-0.068
Y1.5644 Z-0.0467 I0. J0.068
Y1.4284 Z-0.049 I0. J-0.068
Y1.5644 Z-0.0512 I0. J0.068
Y1.4284 Z-0.0535 I0. J-0.068
Y1.5644 Z-0.0558 I0. J0.068
Y1.4284 Z-0.0581 I0. J-0.068
Y1.5644 Z-0.0603 I0. J0.068
Y1.4284 Z-0.0626 I0. J-0.068
Y1.5644 Z-0.0649 I0. J0.068
Y1.4284 Z-0.0672 I0. J-0.068
Y1.5644 Z-0.0695 I0. J0.068
Y1.4284 Z-0.0717 I0. J-0.068
Y1.5644 Z-0.074 I0. J0.068
Y1.4284 Z-0.0763 I0. J-0.068
Y1.5644 Z-0.0786 I0. J0.068
Y1.4284 Z-0.0808 I0. J-0.068
Y1.5644 Z-0.0831 I0. J0.068
Y1.4284 Z-0.0854 I0. J-0.068
Y1.5644 Z-0.0877 I0. J0.068
Y1.4284 Z-0.09 I0. J-0.068
Y1.5644 Z-0.0922 I0. J0.068
Y1.4284 Z-0.0945 I0. J-0.068
Y1.5644 Z-0.0968 I0. J0.068
Y1.4284 Z-0.0991 I0. J-0.068
Y1.5644 Z-0.1013 I0. J0.068
Y1.4284 Z-0.1036 I0. J-0.068
Y1.5644 Z-0.1059 I0. J0.068
Y1.4284 Z-0.1082 I0. J-0.068
Y1.5644 Z-0.1105 I0. J0.068
Y1.4284 Z-0.1127 I0. J-0.068
Y1.5644 Z-0.115 I0. J0.068
Y1.4284 Z-0.1173 I0. J-0.068
Y1.5644 Z-0.1196 I0. J0.068
Y1.4284 Z-0.1218 I0. J-0.068
Y1.5644 Z-0.1241 I0. J0.068
Y1.4284 Z-0.1264 I0. J-0.068
Y1.5644 Z-0.1287 I0. J0.068
Y1.4284 Z-0.131 I0. J-0.068
Y1.5644 Z-0.1332 I0. J0.068
Y1.4284 Z-0.1355 I0. J-0.068
Y1.5644 Z-0.1378 I0. J0.068
Y1.4284 Z-0.1401 I0. J-0.068
Y1.5644 Z-0.1423 I0. J0.068
Y1.4284 Z-0.1446 I0. J-0.068
Y1.5644 Z-0.1469 I0. J0.068
Y1.4284 Z-0.1492 I0. J-0.068
Y1.5644 Z-0.1515 I0. J0.068
Y1.4284 Z-0.1537 I0. J-0.068
Y1.5644 Z-0.156 I0. J0.068
Y1.4284 Z-0.1583 I0. J-0.068
Y1.5644 Z-0.1606 I0. J0.068
Y1.4284 Z-0.1628 I0. J-0.068
Y1.5644 Z-0.1651 I0. J0.068
Y1.4284 Z-0.1674 I0. J-0.068
Y1.5644 Z-0.1697 I0. J0.068
Y1.4284 Z-0.172 I0. J-0.068
Y1.5644 Z-0.1742 I0. J0.068
Y1.4284 Z-0.1765 I0. J-0.068
Y1.5644 Z-0.1788 I0. J0.068
Y1.4284 Z-0.1811 I0. J-0.068
Y1.5644 Z-0.1833 I0. J0.068
Y1.4284 Z-0.1856 I0. J-0.068
Y1.5644 Z-0.1879 I0. J0.068
Y1.4284 Z-0.1902 I0. J-0.068
Y1.5644 Z-0.1925 I0. J0.068
Y1.4284 Z-0.1947 I0. J-0.068
Y1.5644 Z-0.197 I0. J0.068
Y1.4284 Z-0.1993 I0. J-0.068
Y1.5644 Z-0.2016 I0. J0.068
Y1.4284 Z-0.2038 I0. J-0.068
Y1.5644 Z-0.2061 I0. J0.068
Y1.4284 Z-0.2084 I0. J-0.068
Y1.5644 Z-0.2107 I0. J0.068
Y1.4284 Z-0.213 I0. J-0.068
Y1.5644 Z-0.2152 I0. J0.068
Y1.4284 Z-0.2175 I0. J-0.068
Y1.5644 Z-0.2198 I0. J0.068
Y1.4284 Z-0.2221 I0. J-0.068
Y1.5644 Z-0.2243 I0. J0.068
X2.5532 Y1.5387 Z-0.225 I0. J-0.068
X2.4468 Y1.454 I-0.0532 J-0.0423
X2.5532 Y1.5387 I0.0532 J0.0423
X2.5512 Y1.5211 I-0.0098 J-0.0078
G1 X2.5463 Y1.5172
X2.5441 Y1.5155 Z-0.2247
X2.5421 Y1.5139 Z-0.2238
X2.5402 Y1.5124 Z-0.2223
X2.5387 Y1.5111 Z-0.2203
X2.5375 Y1.5102 Z-0.2179
X2.5368 Y1.5096 Z-0.2153
X2.5365 Y1.5094 Z-0.2125
G0 Z0.29
X2.4875 Y1.5956
Z0.17
G1 Z0.1025 F39.4
G19 G3 Y1.6081 Z0.09 J0.0125 K0.
G1 Y1.6144
G17 G2 X2.5 Y1.6269 I0.0125 J0.
Y1.3659 Z0.0866 I0. J-0.1305
Y1.6269 Z0.0833 I0. J0.1305
Y1.3659 Z0.0799 I0. J-0.1305
Y1.6269 Z0.0765 I0. J0.1305
Y1.3659 Z0.0732 I0. J-0.1305
Y1.6269 Z0.0698 I0. J0.1305
Y1.3659 Z0.0664 I0. J-0.1305
Y1.6269 Z0.063 I0. J0.1305
Y1.3659 Z0.0597 I0. J-0.1305
Y1.6269 Z0.0563 I0. J0.1305
Y1.3659 Z0.0529 I0. J-0.1305
Y1.6269 Z0.0496 I0. J0.1305
Y1.3659 Z0.0462 I0. J-0.1305
Y1.6269 Z0.0428 I0. J0.1305
Y1.3659 Z0.0395 I0. J-0.1305
Y1.6269 Z0.0361 I0. J0.1305
Y1.3659 Z0.0327 I0. J-0.1305
Y1.6269 Z0.0294 I0. J0.1305
Y1.3659 Z0.026 I0. J-0.1305
Y1.6269 Z0.0226 I0. J0.1305
Y1.3659 Z0.0193 I0. J-0.1305
Y1.6269 Z0.0159 I0. J0.1305
Y1.3659 Z0.0125 I0. J-0.1305
Y1.6269 Z0.0091 I0. J0.1305
Y1.3659 Z0.0058 I0. J-0.1305
Y1.6269 Z0.0024 I0. J0.1305
Y1.3659 Z-0.001 I0. J-0.1305
Y1.6269 Z-0.0043 I0. J0.1305
Y1.3659 Z-0.0077 I0. J-0.1305
Y1.6269 Z-0.0111 I0. J0.1305
Y1.3659 Z-0.0144 I0. J-0.1305
Y1.6269 Z-0.0178 I0. J0.1305
Y1.3659 Z-0.0212 I0. J-0.1305
Y1.6269 Z-0.0245 I0. J0.1305
Y1.3659 Z-0.0279 I0. J-0.1305
Y1.6269 Z-0.0313 I0. J0.1305
Y1.3659 Z-0.0346 I0. J-0.1305
Y1.6269 Z-0.038 I0. J0.1305
Y1.3659 Z-0.0414 I0. J-0.1305
Y1.6269 Z-0.0448 I0. J0.1305
Y1.3659 Z-0.0481 I0. J-0.1305
Y1.6269 Z-0.0515 I0. J0.1305
Y1.3659 Z-0.0549 I0. J-0.1305
Y1.6269 Z-0.0582 I0. J0.1305
Y1.3659 Z-0.0616 I0. J-0.1305
Y1.6269 Z-0.065 I0. J0.1305
Y1.3659 Z-0.0683 I0. J-0.1305
Y1.6269 Z-0.0717 I0. J0.1305
Y1.3659 Z-0.0751 I0. J-0.1305
Y1.6269 Z-0.0784 I0. J0.1305
Y1.3659 Z-0.0818 I0. J-0.1305
Y1.6269 Z-0.0852 I0. J0.1305
Y1.3659 Z-0.0885 I0. J-0.1305
Y1.6269 Z-0.0919 I0. J0.1305
Y1.3659 Z-0.0953 I0. J-0.1305
Y1.6269 Z-0.0987 I0. J0.1305
Y1.3659 Z-0.102 I0. J-0.1305
Y1.6269 Z-0.1054 I0. J0.1305
Y1.3659 Z-0.1088 I0. J-0.1305
Y1.6269 Z-0.1121 I0. J0.1305
Y1.3659 Z-0.1155 I0. J-0.1305
Y1.6269 Z-0.1189 I0. J0.1305
Y1.3659 Z-0.1222 I0. J-0.1305
Y1.6269 Z-0.1256 I0. J0.1305
Y1.3659 Z-0.129 I0. J-0.1305
Y1.6269 Z-0.1323 I0. J0.1305
Y1.3659 Z-0.1357 I0. J-0.1305
Y1.6269 Z-0.1391 I0. J0.1305
Y1.3659 Z-0.1424 I0. J-0.1305
Y1.6269 Z-0.1458 I0. J0.1305
Y1.3659 Z-0.1492 I0. J-0.1305
Y1.6269 Z-0.1526 I0. J0.1305
Y1.3659 Z-0.1559 I0. J-0.1305
Y1.6269 Z-0.1593 I0. J0.1305
Y1.3659 Z-0.1627 I0. J-0.1305
Y1.6269 Z-0.166 I0. J0.1305
Y1.3659 Z-0.1694 I0. J-0.1305
Y1.6269 Z-0.1728 I0. J0.1305
Y1.3659 Z-0.1761 I0. J-0.1305
Y1.6269 Z-0.1795 I0. J0.1305
Y1.3659 Z-0.1829 I0. J-0.1305
Y1.6269 Z-0.1862 I0. J0.1305
Y1.3659 Z-0.1896 I0. J-0.1305
Y1.6269 Z-0.193 I0. J0.1305
Y1.3659 Z-0.1964 I0. J-0.1305
Y1.6269 Z-0.1997 I0. J0.1305
Y1.3659 Z-0.2031 I0. J-0.1305
Y1.6269 Z-0.2065 I0. J0.1305
Y1.3659 Z-0.2098 I0. J-0.1305
Y1.6269 Z-0.2132 I0. J0.1305
Y1.3659 Z-0.2166 I0. J-0.1305
Y1.6269 Z-0.2199 I0. J0.1305
Y1.3659 Z-0.2233 I0. J-0.1305
X2.3695 Y1.4981 Z-0.225 I0. J0.1305
X2.6305 Y1.4946 I0.1305 J-0.0018
X2.3695 Y1.4981 I-0.1305 J0.0018
X2.3822 Y1.5105 I0.0125 J-0.0002
G1 X2.3884 Y1.5104
X2.3912 Y1.5103 Z-0.2247
X2.3939 Z-0.2238
X2.3962 Z-0.2223
X2.3982 Y1.5102 Z-0.2203
X2.3997 Z-0.2179
X2.4006 Z-0.2153
X2.4009 Z-0.2125
G0 Z0.29
X3.1018 Y0.6985
Z0.1575
G1 Z0.09 F39.4
Y0.7047
X3.1021 Y0.7062
X3.1029 Y0.7075
X3.1042 Y0.7084
X3.1058 Y0.7087
G2 Y0.6927 Z0.0888 I0. J-0.008
Y0.7087 Z0.0875 I0. J0.008
Y0.6927 Z0.0863 I0. J-0.008
Y0.7087 Z0.0851 I0. J0.008
Y0.6927 Z0.0838 I0. J-0.008
Y0.7087 Z0.0826 I0. J0.008
Y0.6927 Z0.0814 I0. J-0.008
Y0.7087 Z0.0802 I0. J0.008
Y0.6927 Z0.0789 I0. J-0.008
Y0.7087 Z0.0777 I0. J0.008
Y0.6927 Z0.0765 I0. J-0.008
Y0.7087 Z0.0752 I0. J0.008
Y0.6927 Z0.074 I0. J-0.008
Y0.7087 Z0.0728 I0. J0.008
Y0.6927 Z0.0715 I0. J-0.008
Y0.7087 Z0.0703 I0. J0.008
Y0.6927 Z0.0691 I0. J-0.008
Y0.7087 Z0.0678 I0. J0.008
Y0.6927 Z0.0666 I0. J-0.008
Y0.7087 Z0.0654 I0. J0.008
Y0.6927 Z0.0642 I0. J-0.008
Y0.7087 Z0.0629 I0. J0.008
Y0.6927 Z0.0617 I0. J-0.008
Y0.7087 Z0.0605 I0. J0.008
Y0.6927 Z0.0592 I0. J-0.008
Y0.7087 Z0.058 I0. J0.008
Y0.6927 Z0.0568 I0. J-0.008
Y0.7087 Z0.0555 I0. J0.008
Y0.6927 Z0.0543 I0. J-0.008
Y0.7087 Z0.0531 I0. J0.008
Y0.6927 Z0.0519 I0. J-0.008
Y0.7087 Z0.0506 I0. J0.008
Y0.6927 Z0.0494 I0. J-0.008
Y0.7087 Z0.0482 I0. J0.008
Y0.6927 Z0.0469 I0. J-0.008
Y0.7087 Z0.0457 I0. J0.008
Y0.6927 Z0.0445 I0. J-0.008
Y0.7087 Z0.0432 I0. J0.008
Y0.6927 Z0.042 I0. J-0.008
Y0.7087 Z0.0408 I0. J0.008
Y0.6927 Z0.0395 I0. J-0.008
Y0.7087 Z0.0383 I0. J0.008
Y0.6927 Z0.0371 I0. J-0.008
Y0.7087 Z0.0359 I0. J0.008
Y0.6927 Z0.0346 I0. J-0.008
Y0.7087 Z0.0334 I0. J0.008
Y0.6927 Z0.0322 I0. J-0.008
Y0.7087 Z0.0309 I0. J0.008
Y0.6927 Z0.0297 I0. J-0.008
Y0.7087 Z0.0285 I0. J0.008
Y0.6927 Z0.0272 I0. J-0.008
Y0.7087 Z0.026 I0. J0.008
Y0.6927 Z0.0248 I0. J-0.008
Y0.7087 Z0.0235 I0. J0.008
Y0.6927 Z0.0223 I0. J-0.008
Y0.7087 Z0.0211 I0. J0.008
Y0.6927 Z0.0199 I0. J-0.008
Y0.7087 Z0.0186 I0. J0.008
Y0.6927 Z0.0174 I0. J-0.008
Y0.7087 Z0.0162 I0. J0.008
Y0.6927 Z0.0149 I0. J-0.008
Y0.7087 Z0.0137 I0. J0.008
Y0.6927 Z0.0125 I0. J-0.008
Y0.7087 Z0.0112 I0. J0.008
Y0.6927 Z0.01 I0. J-0.008
Y0.7087 Z0.0088 I0. J0.008
Y0.6927 Z0.0076 I0. J-0.008
Y0.7087 Z0.0063 I0. J0.008
Y0.6927 Z0.0051 I0. J-0.008
Y0.7087 Z0.0039 I0. J0.008
Y0.6927 Z0.0026 I0. J-0.008
Y0.7087 Z0.0014 I0. J0.008
Y0.6927 Z0.0002 I0. J-0.008
Y0.7087 Z-0.0011 I0. J0.008
Y0.6927 Z-0.0023 I0. J-0.008
Y0.7087 Z-0.0035 I0. J0.008
Y0.6927 Z-0.0048 I0. J-0.008
Y0.7087 Z-0.006 I0. J0.008
Y0.6927 Z-0.0072 I0. J-0.008
Y0.7087 Z-0.0084 I0. J0.008
Y0.6927 Z-0.0097 I0. J-0.008
Y0.7087 Z-0.0109 I0. J0.008
Y0.6927 Z-0.0121 I0. J-0.008
Y0.7087 Z-0.0134 I0. J0.008
Y0.6927 Z-0.0146 I0. J-0.008
Y0.7087 Z-0.0158 I0. J0.008
Y0.6927 Z-0.0171 I0. J-0.008
Y0.7087 Z-0.0183 I0. J0.008
Y0.6927 Z-0.0195 I0. J-0.008
Y0.7087 Z-0.0208 I0. J0.008
Y0.6927 Z-0.022 I0. J-0.008
Y0.7087 Z-0.0232 I0. J0.008
Y0.6927 Z-0.0244 I0. J-0.008
Y0.7087 Z-0.0257 I0. J0.008
Y0.6927 Z-0.0269 I0. J-0.008
Y0.7087 Z-0.0281 I0. J0.008
Y0.6927 Z-0.0294 I0. J-0.008
Y0.7087 Z-0.0306 I0. J0.008
Y0.6927 Z-0.0318 I0. J-0.008
Y0.7087 Z-0.0331 I0. J0.008
Y0.6927 Z-0.0343 I0. J-0.008
Y0.7087 Z-0.0355 I0. J0.008
Y0.6927 Z-0.0367 I0. J-0.008
Y0.7087 Z-0.038 I0. J0.008
Y0.6927 Z-0.0392 I0. J-0.008
Y0.7087 Z-0.0404 I0. J0.008
Y0.6927 Z-0.0417 I0. J-0.008
Y0.7087 Z-0.0429 I0. J0.008
Y0.6927 Z-0.0441 I0. J-0.008
Y0.7087 Z-0.0454 I0. J0.008
Y0.6927 Z-0.0466 I0. J-0.008
Y0.7087 Z-0.0478 I0. J0.008
Y0.6927 Z-0.0491 I0. J-0.008
Y0.7087 Z-0.0503 I0. J0.008
Y0.6927 Z-0.0515 I0. J-0.008
Y0.7087 Z-0.0527 I0. J0.008
Y0.6927 Z-0.054 I0. J-0.008
Y0.7087 Z-0.0552 I0. J0.008
Y0.6927 Z-0.0564 I0. J-0.008
Y0.7087 Z-0.0577 I0. J0.008
Y0.6927 Z-0.0589 I0. J-0.008
Y0.7087 Z-0.0601 I0. J0.008
Y0.6927 Z-0.0614 I0. J-0.008
Y0.7087 Z-0.0626 I0. J0.008
Y0.6927 Z-0.0638 I0. J-0.008
Y0.7087 Z-0.0651 I0. J0.008
Y0.6927 Z-0.0663 I0. J-0.008
Y0.7087 Z-0.0675 I0. J0.008
Y0.6927 Z-0.0687 I0. J-0.008
Y0.7087 Z-0.07 I0. J0.008
Y0.6927 Z-0.0712 I0. J-0.008
Y0.7087 Z-0.0724 I0. J0.008
Y0.6927 Z-0.0737 I0. J-0.008
Y0.7087 Z-0.0749 I0. J0.008
Y0.6927 Z-0.0761 I0. J-0.008
Y0.7087 Z-0.0774 I0. J0.008
Y0.6927 Z-0.0786 I0. J-0.008
Y0.7087 Z-0.0798 I0. J0.008
Y0.6927 Z-0.0811 I0. J-0.008
Y0.7087 Z-0.0823 I0. J0.008
Y0.6927 Z-0.0835 I0. J-0.008
Y0.7087 Z-0.0847 I0. J0.008
Y0.6927 Z-0.086 I0. J-0.008
Y0.7087 Z-0.0872 I0. J0.008
Y0.6927 Z-0.0884 I0. J-0.008
Y0.7087 Z-0.0897 I0. J0.008
Y0.6927 Z-0.0909 I0. J-0.008
Y0.7087 Z-0.0921 I0. J0.008
Y0.6927 Z-0.0934 I0. J-0.008
Y0.7087 Z-0.0946 I0. J0.008
Y0.6927 Z-0.0958 I0. J-0.008
Y0.7087 Z-0.097 I0. J0.008
Y0.6927 Z-0.0983 I0. J-0.008
Y0.7087 Z-0.0995 I0. J0.008
Y0.6927 Z-0.1007 I0. J-0.008
Y0.7087 Z-0.102 I0. J0.008
Y0.6927 Z-0.1032 I0. J-0.008
Y0.7087 Z-0.1044 I0. J0.008
Y0.6927 Z-0.1057 I0. J-0.008
Y0.7087 Z-0.1069 I0. J0.008
Y0.6927 Z-0.1081 I0. J-0.008
Y0.7087 Z-0.1094 I0. J0.008
Y0.6927 Z-0.1106 I0. J-0.008
Y0.7087 Z-0.1118 I0. J0.008
Y0.6927 Z-0.113 I0. J-0.008
Y0.7087 Z-0.1143 I0. J0.008
Y0.6927 Z-0.1155 I0. J-0.008
Y0.7087 Z-0.1167 I0. J0.008
Y0.6927 Z-0.118 I0. J-0.008
Y0.7087 Z-0.1192 I0. J0.008
Y0.6927 Z-0.1204 I0. J-0.008
Y0.7087 Z-0.1217 I0. J0.008
Y0.6927 Z-0.1229 I0. J-0.008
Y0.7087 Z-0.1241 I0. J0.008
Y0.6927 Z-0.1254 I0. J-0.008
Y0.7087 Z-0.1266 I0. J0.008
Y0.6927 Z-0.1278 I0. J-0.008
Y0.7087 Z-0.129 I0. J0.008
Y0.6927 Z-0.1303 I0. J-0.008
Y0.7087 Z-0.1315 I0. J0.008
Y0.6927 Z-0.1327 I0. J-0.008
Y0.7087 Z-0.134 I0. J0.008
Y0.6927 Z-0.1352 I0. J-0.008
Y0.7087 Z-0.1364 I0. J0.008
Y0.6927 Z-0.1377 I0. J-0.008
Y0.7087 Z-0.1389 I0. J0.008
Y0.6927 Z-0.1401 I0. J-0.008
Y0.7087 Z-0.1413 I0. J0.008
Y0.6927 Z-0.1426 I0. J-0.008
Y0.7087 Z-0.1438 I0. J0.008
Y0.6927 Z-0.145 I0. J-0.008
Y0.7087 Z-0.1463 I0. J0.008
Y0.6927 Z-0.1475 I0. J-0.008
Y0.7087 Z-0.1487 I0. J0.008
Y0.6927 Z-0.15 I0. J-0.008
Y0.7087 Z-0.1512 I0. J0.008
Y0.6927 Z-0.1524 I0. J-0.008
Y0.7087 Z-0.1537 I0. J0.008
Y0.6927 Z-0.1549 I0. J-0.008
Y0.7087 Z-0.1561 I0. J0.008
Y0.6927 Z-0.1573 I0. J-0.008
Y0.7087 Z-0.1586 I0. J0.008
Y0.6927 Z-0.1598 I0. J-0.008
Y0.7087 Z-0.161 I0. J0.008
Y0.6927 Z-0.1623 I0. J-0.008
Y0.7087 Z-0.1635 I0. J0.008
Y0.6927 Z-0.1647 I0. J-0.008
Y0.7087 Z-0.166 I0. J0.008
Y0.6927 Z-0.1672 I0. J-0.008
Y0.7087 Z-0.1684 I0. J0.008
Y0.6927 Z-0.1697 I0. J-0.008
Y0.7087 Z-0.1709 I0. J0.008
Y0.6927 Z-0.1721 I0. J-0.008
Y0.7087 Z-0.1733 I0. J0.008
Y0.6927 Z-0.1746 I0. J-0.008
Y0.7087 Z-0.1758 I0. J0.008
Y0.6927 Z-0.177 I0. J-0.008
Y0.7087 Z-0.1783 I0. J0.008
Y0.6927 Z-0.1795 I0. J-0.008
Y0.7087 Z-0.1807 I0. J0.008
Y0.6927 Z-0.182 I0. J-0.008
Y0.7087 Z-0.1832 I0. J0.008
Y0.6927 Z-0.1844 I0. J-0.008
Y0.7087 Z-0.1857 I0. J0.008
Y0.6927 Z-0.1869 I0. J-0.008
Y0.7087 Z-0.1881 I0. J0.008
Y0.6927 Z-0.1893 I0. J-0.008
Y0.7087 Z-0.1906 I0. J0.008
Y0.6927 Z-0.1918 I0. J-0.008
Y0.7087 Z-0.193 I0. J0.008
Y0.6927 Z-0.1943 I0. J-0.008
Y0.7087 Z-0.1955 I0. J0.008
Y0.6927 Z-0.1967 I0. J-0.008
Y0.7087 Z-0.198 I0. J0.008
Y0.6927 Z-0.1992 I0. J-0.008
Y0.7087 Z-0.2004 I0. J0.008
Y0.6927 Z-0.2016 I0. J-0.008
Y0.7087 Z-0.2029 I0. J0.008
Y0.6927 Z-0.2041 I0. J-0.008
Y0.7087 Z-0.2053 I0. J0.008
Y0.6927 Z-0.2066 I0. J-0.008
Y0.7087 Z-0.2078 I0. J0.008
Y0.6927 Z-0.209 I0. J-0.008
Y0.7087 Z-0.2103 I0. J0.008
Y0.6927 Z-0.2115 I0. J-0.008
Y0.7087 Z-0.2127 I0. J0.008
Y0.6927 Z-0.214 I0. J-0.008
Y0.7087 Z-0.2152 I0. J0.008
Y0.6927 Z-0.2164 I0. J-0.008
Y0.7087 Z-0.2176 I0. J0.008
Y0.6927 Z-0.2189 I0. J-0.008
Y0.7087 Z-0.2201 I0. J0.008
Y0.6927 Z-0.2213 I0. J-0.008
Y0.7087 Z-0.2226 I0. J0.008
Y0.6927 Z-0.2238 I0. J-0.008
X3.1052 Y0.7087 Z-0.225 I0. J0.008
X3.1064 Y0.6927 I0.0006 J-0.008
X3.1052 Y0.7087 I-0.0006 J0.008
G1 X3.1067 Y0.7085
X3.1081 Y0.7077
X3.109 Y0.7065
X3.1095 Y0.705
X3.1099 Y0.6988
G0 Z0.29
X3.0933 Y0.74
Z0.17
G1 Z0.1025 F39.4
G19 G3 Y0.7525 Z0.09 J0.0125 K0.
G1 Y0.7587
G17 G2 X3.1058 Y0.7712 I0.0125 J0.
Y0.6302 Z0.0877 I0. J-0.0705
Y0.7712 Z0.0854 I0. J0.0705
Y0.6302 Z0.083 I0. J-0.0705
Y0.7712 Z0.0807 I0. J0.0705
Y0.6302 Z0.0784 I0. J-0.0705
Y0.7712 Z0.0761 I0. J0.0705
Y0.6302 Z0.0737 I0. J-0.0705
Y0.7712 Z0.0714 I0. J0.0705
Y0.6302 Z0.0691 I0. J-0.0705
Y0.7712 Z0.0668 I0. J0.0705
Y0.6302 Z0.0645 I0. J-0.0705
Y0.7712 Z0.0621 I0. J0.0705
Y0.6302 Z0.0598 I0. J-0.0705
Y0.7712 Z0.0575 I0. J0.0705
Y0.6302 Z0.0552 I0. J-0.0705
Y0.7712 Z0.0529 I0. J0.0705
Y0.6302 Z0.0505 I0. J-0.0705
Y0.7712 Z0.0482 I0. J0.0705
Y0.6302 Z0.0459 I0. J-0.0705
Y0.7712 Z0.0436 I0. J0.0705
Y0.6302 Z0.0412 I0. J-0.0705
Y0.7712 Z0.0389 I0. J0.0705
Y0.6302 Z0.0366 I0. J-0.0705
Y0.7712 Z0.0343 I0. J0.0705
Y0.6302 Z0.032 I0. J-0.0705
Y0.7712 Z0.0296 I0. J0.0705
Y0.6302 Z0.0273 I0. J-0.0705
Y0.7712 Z0.025 I0. J0.0705
Y0.6302 Z0.0227 I0. J-0.0705
Y0.7712 Z0.0204 I0. J0.0705
Y0.6302 Z0.018 I0. J-0.0705
Y0.7712 Z0.0157 I0. J0.0705
Y0.6302 Z0.0134 I0. J-0.0705
Y0.7712 Z0.0111 I0. J0.0705
Y0.6302 Z0.0087 I0. J-0.0705
Y0.7712 Z0.0064 I0. J0.0705
Y0.6302 Z0.0041 I0. J-0.0705
Y0.7712 Z0.0018 I0. J0.0705
Y0.6302 Z-0.0005 I0. J-0.0705
Y0.7712 Z-0.0029 I0. J0.0705
Y0.6302 Z-0.0052 I0. J-0.0705
Y0.7712 Z-0.0075 I0. J0.0705
Y0.6302 Z-0.0098 I0. J-0.0705
Y0.7712 Z-0.0121 I0. J0.0705
Y0.6302 Z-0.0145 I0. J-0.0705
Y0.7712 Z-0.0168 I0. J0.0705
Y0.6302 Z-0.0191 I0. J-0.0705
Y0.7712 Z-0.0214 I0. J0.0705
Y0.6302 Z-0.0238 I0. J-0.0705
Y0.7712 Z-0.0261 I0. J0.0705
Y0.6302 Z-0.0284 I0. J-0.0705
Y0.7712 Z-0.0307 I0. J0.0705
Y0.6302 Z-0.033 I0. J-0.0705
Y0.7712 Z-0.0354 I0. J0.0705
Y0.6302 Z-0.0377 I0. J-0.0705
Y0.7712 Z-0.04 I0. J0.0705
Y0.6302 Z-0.0423 I0. J-0.0705
Y0.7712 Z-0.0446 I0. J0.0705
Y0.6302 Z-0.047 I0. J-0.0705
Y0.7712 Z-0.0493 I0. J0.0705
Y0.6302 Z-0.0516 I0. J-0.0705
Y0.7712 Z-0.0539 I0. J0.0705
Y0.6302 Z-0.0563 I0. J-0.0705
Y0.7712 Z-0.0586 I0. J0.0705
Y0.6302 Z-0.0609 I0. J-0.0705
Y0.7712 Z-0.0632 I0. J0.0705
Y0.6302 Z-0.0655 I0. J-0.0705
Y0.7712 Z-0.0679 I0. J0.0705
Y0.6302 Z-0.0702 I0. J-0.0705
Y0.7712 Z-0.0725 I0. J0.0705
Y0.6302 Z-0.0748 I0. J-0.0705
Y0.7712 Z-0.0771 I0. J0.0705
Y0.6302 Z-0.0795 I0. J-0.0705
Y0.7712 Z-0.0818 I0. J0.0705
Y0.6302 Z-0.0841 I0. J-0.0705
Y0.7712 Z-0.0864 I0. J0.0705
Y0.6302 Z-0.0888 I0. J-0.0705
Y0.7712 Z-0.0911 I0. J0.0705
Y0.6302 Z-0.0934 I0. J-0.0705
Y0.7712 Z-0.0957 I0. J0.0705
Y0.6302 Z-0.098 I0. J-0.0705
Y0.7712 Z-0.1004 I0. J0.0705
Y0.6302 Z-0.1027 I0. J-0.0705
Y0.7712 Z-0.105 I0. J0.0705
Y0.6302 Z-0.1073 I0. J-0.0705
Y0.7712 Z-0.1097 I0. J0.0705
Y0.6302 Z-0.112 I0. J-0.0705
Y0.7712 Z-0.1143 I0. J0.0705
Y0.6302 Z-0.1166 I0. J-0.0705
Y0.7712 Z-0.1189 I0. J0.0705
Y0.6302 Z-0.1213 I0. J-0.0705
Y0.7712 Z-0.1236 I0. J0.0705
Y0.6302 Z-0.1259 I0. J-0.0705
Y0.7712 Z-0.1282 I0. J0.0705
Y0.6302 Z-0.1305 I0. J-0.0705
Y0.7712 Z-0.1329 I0. J0.0705
Y0.6302 Z-0.1352 I0. J-0.0705
Y0.7712 Z-0.1375 I0. J0.0705
Y0.6302 Z-0.1398 I0. J-0.0705
Y0.7712 Z-0.1422 I0. J0.0705
Y0.6302 Z-0.1445 I0. J-0.0705
Y0.7712 Z-0.1468 I0. J0.0705
Y0.6302 Z-0.1491 I0. J-0.0705
Y0.7712 Z-0.1514 I0. J0.0705
Y0.6302 Z-0.1538 I0. J-0.0705
Y0.7712 Z-0.1561 I0. J0.0705
Y0.6302 Z-0.1584 I0. J-0.0705
Y0.7712 Z-0.1607 I0. J0.0705
Y0.6302 Z-0.163 I0. J-0.0705
Y0.7712 Z-0.1654 I0. J0.0705
Y0.6302 Z-0.1677 I0. J-0.0705
Y0.7712 Z-0.17 I0. J0.0705
Y0.6302 Z-0.1723 I0. J-0.0705
Y0.7712 Z-0.1747 I0. J0.0705
Y0.6302 Z-0.177 I0. J-0.0705
Y0.7712 Z-0.1793 I0. J0.0705
Y0.6302 Z-0.1816 I0. J-0.0705
Y0.7712 Z-0.1839 I0. J0.0705
Y0.6302 Z-0.1863 I0. J-0.0705
Y0.7712 Z-0.1886 I0. J0.0705
Y0.6302 Z-0.1909 I0. J-0.0705
Y0.7712 Z-0.1932 I0. J0.0705
Y0.6302 Z-0.1955 I0. J-0.0705
Y0.7712 Z-0.1979 I0. J0.0705
Y0.6302 Z-0.2002 I0. J-0.0705
Y0.7712 Z-0.2025 I0. J0.0705
Y0.6302 Z-0.2048 I0. J-0.0705
Y0.7712 Z-0.2072 I0. J0.0705
Y0.6302 Z-0.2095 I0. J-0.0705
Y0.7712 Z-0.2118 I0. J0.0705
Y0.6302 Z-0.2141 I0. J-0.0705
Y0.7712 Z-0.2164 I0. J0.0705
Y0.6302 Z-0.2188 I0. J-0.0705
Y0.7712 Z-0.2211 I0. J0.0705
Y0.6302 Z-0.2234 I0. J-0.0705
X3.047 Y0.7397 Z-0.225 I0. J0.0705
X3.1645 Y0.6617 I0.0587 J-0.039
X3.047 Y0.7397 I-0.0587 J0.039
X3.0644 Y0.7432 I0.0104 J-0.0069
G1 X3.0696 Y0.7398
X3.0719 Y0.7382 Z-0.2247
X3.0741 Y0.7368 Z-0.2238
X3.0761 Y0.7354 Z-0.2223
X3.0777 Y0.7344 Z-0.2203
X3.079 Y0.7335 Z-0.2179
X3.0797 Y0.733 Z-0.2153
X3.08 Y0.7328 Z-0.2125
G0 Z0.54

M9
M30
