(TOP GUSSET)
(T1  D=0.125 CR=0. - ZMIN=0.125 - FLAT END MILL)
G90 G94 G91.1 G40 G49 G17
G20

(BORE2)
M5
T1 M6
S5000 M3
G54
M8
G0 X0.4875 Y0.5392
G43 Z0.54 H1
Z0.37
G1 Z0.3025 F39.4
G19 G3 Y0.5518 Z0.29 J0.0125 K0.
G1 Y0.558
G17 G2 X0.5 Y0.5705 I0.0125 J0.
Y0.4295 Z0.2703 I0. J-0.0705
Y0.5705 Z0.2506 I0. J0.0705
Y0.4295 Z0.2309 I0. J-0.0705
Y0.5705 Z0.2113 I0. J0.0705
Y0.4295 Z0.1916 I0. J-0.0705
Y0.5705 Z0.1719 I0. J0.0705
Y0.4295 Z0.1522 I0. J-0.0705
Y0.5705 Z0.1325 I0. J0.0705
X0.5657 Y0.5255 Z0.125 I0. J-0.0705
X0.4343 Y0.4745 I-0.0657 J-0.0255
X0.5657 Y0.5255 I0.0657 J0.0255
X0.5586 Y0.5094 I-0.0117 J-0.0045
G1 X0.5528 Y0.5071
X0.5502 Y0.5061 Z0.1253
X0.5477 Y0.5051 Z0.1262
X0.5455 Y0.5043 Z0.1277
X0.5437 Y0.5036 Z0.1297
X0.5423 Y0.503 Z0.1321
X0.5414 Y0.5027 Z0.1347
X0.5411 Y0.5026 Z0.1375
G0 Z0.54
X0.4875 Y1.7807
Z0.37
G1 Z0.3025 F39.4
G19 G3 Y1.7932 Z0.29 J0.0125 K0.
G1 Y1.7994
G17 G2 X0.5 Y1.8119 I0.0125 J0.
Y1.6709 Z0.2703 I0. J-0.0705
Y1.8119 Z0.2506 I0. J0.0705
Y1.6709 Z0.2309 I0. J-0.0705
Y1.8119 Z0.2113 I0. J0.0705
Y1.6709 Z0.1916 I0. J-0.0705
Y1.8119 Z0.1719 I0. J0.0705
Y1.6709 Z0.1522 I0. J-0.0705
Y1.8119 Z0.1325 I0. J0.0705
X0.5657 Y1.767 Z0.125 I0. J-0.0705
X0.4343 Y1.7159 I-0.0657 J-0.0255
X0.5657 Y1.767 I0.0657 J0.0255
X0.5586 Y1.7508 I-0.0117 J-0.0045
G1 X0.5528 Y1.7485
X0.5502 Y1.7475 Z0.1253
X0.5477 Y1.7466 Z0.1262
X0.5455 Y1.7457 Z0.1277
X0.5437 Y1.745 Z0.1297
X0.5423 Y1.7444 Z0.1321
X0.5414 Y1.7441 Z0.1347
X0.5411 Y1.744 Z0.1375
G0 Z0.54
X0.4875 Y3.0221
Z0.37
G1 Z0.3025 F39.4
G19 G3 Y3.0346 Z0.29 J0.0125 K0.
G1 Y3.0408
G17 G2 X0.5 Y3.0533 I0.0125 J0.
Y2.9123 Z0.2703 I0. J-0.0705
Y3.0533 Z0.2506 I0. J0.0705
Y2.9123 Z0.2309 I0. J-0.0705
Y3.0533 Z0.2113 I0. J0.0705
Y2.9123 Z0.1916 I0. J-0.0705
Y3.0533 Z0.1719 I0. J0.0705
Y2.9123 Z0.1522 I0. J-0.0705
Y3.0533 Z0.1325 I0. J0.0705
X0.5657 Y3.0084 Z0.125 I0. J-0.0705
X0.4343 Y2.9573 I-0.0657 J-0.0255
X0.5657 Y3.0084 I0.0657 J0.0255
X0.5586 Y2.9922 I-0.0117 J-0.0045
G1 X0.5528 Y2.9899
X0.5502 Y2.9889 Z0.1253
X0.5477 Y2.988 Z0.1262
X0.5455 Y2.9871 Z0.1277
X0.5437 Y2.9864 Z0.1297
X0.5423 Y2.9859 Z0.1321
X0.5414 Y2.9855 Z0.1347
X0.5411 Y2.9854 Z0.1375
G0 Z0.54
X1.8817 Y2.3312
Z0.37
G1 Z0.3025 F39.4
G19 G3 Y2.3437 Z0.29 J0.0125 K0.
G1 Y2.35
G17 G2 X1.8942 Y2.3625 I0.0125 J0.
Y2.2215 Z0.2703 I0. J-0.0705
Y2.3625 Z0.2506 I0. J0.0705
Y2.2215 Z0.2309 I0. J-0.0705
Y2.3625 Z0.2113 I0. J0.0705
Y2.2215 Z0.1916 I0. J-0.0705
Y2.3625 Z0.1719 I0. J0.0705
Y2.2215 Z0.1522 I0. J-0.0705
Y2.3625 Z0.1325 I0. J0.0705
X1.96 Y2.3175 Z0.125 I0. J-0.0705
X1.8285 Y2.2665 I-0.0657 J-0.0255
X1.96 Y2.3175 I0.0657 J0.0255
X1.9528 Y2.3014 I-0.0117 J-0.0045
G1 X1.947 Y2.2991
X1.9444 Y2.2981 Z0.1253
X1.9419 Y2.2971 Z0.1262
X1.9397 Y2.2963 Z0.1277
X1.9379 Y2.2956 Z0.1297
X1.9365 Y2.295 Z0.1321
X1.9356 Y2.2947 Z0.1347
X1.9354 Y2.2946 Z0.1375
G0 Z0.54
X2.4875 Y1.5956
Z0.37
G1 Z0.3025 F39.4
G19 G3 Y1.6081 Z0.29 J0.0125 K0.
G1 Y1.6144
G17 G2 X2.5 Y1.6269 I0.0125 J0.
Y1.3659 Z0.2703 I0. J-0.1305
Y1.6269 Z0.2506 I0. J0.1305
Y1.3659 Z0.2309 I0. J-0.1305
Y1.6269 Z0.2113 I0. J0.1305
Y1.3659 Z0.1916 I0. J-0.1305
Y1.6269 Z0.1719 I0. J0.1305
Y1.3659 Z0.1522 I0. J-0.1305
Y1.6269 Z0.1325 I0. J0.1305
X2.6216 Y1.5436 Z0.125 I0. J-0.1305
X2.3784 Y1.4491 I-0.1216 J-0.0473
X2.6216 Y1.5436 I0.1216 J0.0473
X2.6145 Y1.5274 I-0.0117 J-0.0045
G1 X2.6087 Y1.5252
X2.6061 Y1.5242 Z0.1253
X2.6036 Y1.5232 Z0.1262
X2.6014 Y1.5224 Z0.1277
X2.5996 Y1.5216 Z0.1297
X2.5982 Y1.5211 Z0.1321
X2.5973 Y1.5208 Z0.1347
X2.597 Y1.5207 Z0.1375
G0 Z0.54
X3.0933 Y0.74
Z0.37
G1 Z0.3025 F39.4
G19 G3 Y0.7525 Z0.29 J0.0125 K0.
G1 Y0.7587
G17 G2 X3.1058 Y0.7712 I0.0125 J0.
Y0.6302 Z0.2703 I0. J-0.0705
Y0.7712 Z0.2506 I0. J0.0705
Y0.6302 Z0.2309 I0. J-0.0705
Y0.7712 Z0.2113 I0. J0.0705
Y0.6302 Z0.1916 I0. J-0.0705
Y0.7712 Z0.1719 I0. J0.0705
Y0.6302 Z0.1522 I0. J-0.0705
Y0.7712 Z0.1325 I0. J0.0705
X3.1715 Y0.7262 Z0.125 I0. J-0.0705
X3.04 Y0.6752 I-0.0657 J-0.0255
X3.1715 Y0.7262 I0.0657 J0.0255
X3.1643 Y0.7101 I-0.0117 J-0.0045
G1 X3.1585 Y0.7078
X3.1559 Y0.7068 Z0.1253
X3.1535 Y0.7058 Z0.1262
X3.1513 Y0.705 Z0.1277
X3.1494 Y0.7043 Z0.1297
X3.148 Y0.7037 Z0.1321
X3.1472 Y0.7034 Z0.1347
X3.1469 Y0.7033 Z0.1375
G0 Z0.54

M9
M30
