(BOTTOM COVER MOUNTING BLOCK HOLES RUN 2.0)
(T3  D=0.118 CR=0. - ZMIN=-0.75 - FLAT END MILL)
G90 G94 G91.1 G40 G49 G17
G20

(2D POCKET3)
M5
T3 M6
S15000 M3
G54
M8
G0 X0.2811 Y1.7019
G43 Z0.6 H3
Z0.2
G1 Z-0.1906 F40.
Y1.7022 Z-0.1927
X0.281 Y1.7029 Z-0.1947
X0.2808 Y1.704 Z-0.1964
X0.2805 Y1.7054 Z-0.1979
X0.2802 Y1.7072 Z-0.1991
X0.2799 Y1.7092 Z-0.1998
X0.2796 Y1.7112 Z-0.2
X0.2791 Y1.713
X0.2784 Y1.7147
G3 X0.2181 Y1.703 I-0.0284 J-0.0147
G1 X0.2182 Y1.7011
X0.2187 Y1.6994
X0.2275 Y1.6782
X0.2284 Y1.6766
X0.2296 Y1.6753
G3 X0.2784 Y1.6853 I0.0204 J0.0247
G2 X0.3143 Y1.71 I0.041 J-0.0212
G3 X0.3338 Y1.7489 I-0.0029 J0.0258
X0.1662 Y1.6511 I-0.0838 J-0.0489
X0.3338 Y1.7489 I0.0838 J0.0489
X0.3206 Y1.7498 I-0.0069 J-0.004
G1 X0.2411 Y1.6496
G3 X0.2505 Y1.6373 I0.0063 J-0.005
X0.2069 Y1.7406 Z-0.2061 I-0.0218 J0.0516 F20.
X0.2505 Y1.6373 Z-0.2123 I0.0218 J-0.0516
X0.2069 Y1.7406 Z-0.2184 I-0.0218 J0.0516
X0.2505 Y1.6373 Z-0.2246 I0.0218 J-0.0516
X0.2069 Y1.7406 Z-0.2307 I-0.0218 J0.0516
X0.2505 Y1.6373 Z-0.2369 I0.0218 J-0.0516
X0.2069 Y1.7406 Z-0.243 I-0.0218 J0.0516
X0.2505 Y1.6373 Z-0.2492 I0.0218 J-0.0516
X0.2069 Y1.7406 Z-0.2553 I-0.0218 J0.0516
X0.2505 Y1.6373 Z-0.2615 I0.0218 J-0.0516
X0.2069 Y1.7406 Z-0.2676 I-0.0218 J0.0516
X0.2505 Y1.6373 Z-0.2738 I0.0218 J-0.0516
X0.2069 Y1.7406 Z-0.2799 I-0.0218 J0.0516
X0.2505 Y1.6373 Z-0.2861 I0.0218 J-0.0516
X0.2069 Y1.7406 Z-0.2922 I-0.0218 J0.0516
X0.2505 Y1.6373 Z-0.2984 I0.0218 J-0.0516
X0.2069 Y1.7406 Z-0.3045 I-0.0218 J0.0516
X0.2505 Y1.6373 Z-0.3107 I0.0218 J-0.0516
X0.2069 Y1.7406 Z-0.3168 I-0.0218 J0.0516
X0.2505 Y1.6373 Z-0.323 I0.0218 J-0.0516
X0.2069 Y1.7406 Z-0.3291 I-0.0218 J0.0516
X0.2505 Y1.6373 Z-0.3353 I0.0218 J-0.0516
X0.2069 Y1.7406 Z-0.3414 I-0.0218 J0.0516
X0.2505 Y1.6373 Z-0.3476 I0.0218 J-0.0516
X0.2069 Y1.7406 Z-0.3537 I-0.0218 J0.0516
X0.2505 Y1.6373 Z-0.3599 I0.0218 J-0.0516
X0.2069 Y1.7406 Z-0.366 I-0.0218 J0.0516
X0.2505 Y1.6373 Z-0.3722 I0.0218 J-0.0516
X0.2069 Y1.7406 Z-0.3783 I-0.0218 J0.0516
X0.2505 Y1.6373 Z-0.3845 I0.0218 J-0.0516
X0.2069 Y1.7406 Z-0.3906 I-0.0218 J0.0516
X0.2505 Y1.6373 Z-0.3968 I0.0218 J-0.0516
X0.2784 Y1.7147 Z-0.4 I-0.0218 J0.0516
X0.2181 Y1.703 I-0.0284 J-0.0147 F40.
G1 X0.2182 Y1.7011
X0.2187 Y1.6994
X0.2275 Y1.6782
X0.2284 Y1.6766
X0.2296 Y1.6753
G3 X0.2784 Y1.6853 I0.0204 J0.0247
G2 X0.3143 Y1.71 I0.041 J-0.0212
G3 X0.3338 Y1.7489 I-0.0029 J0.0258
X0.1662 Y1.6511 I-0.0838 J-0.0489
X0.3338 Y1.7489 I0.0838 J0.0489
X0.3206 Y1.7498 I-0.0069 J-0.004
G1 X0.2411 Y1.6496
G3 X0.2505 Y1.6373 I0.0063 J-0.005
X0.2069 Y1.7406 Z-0.4061 I-0.0218 J0.0516 F20.
X0.2505 Y1.6373 Z-0.4123 I0.0218 J-0.0516
X0.2069 Y1.7406 Z-0.4184 I-0.0218 J0.0516
X0.2505 Y1.6373 Z-0.4246 I0.0218 J-0.0516
X0.2069 Y1.7406 Z-0.4307 I-0.0218 J0.0516
X0.2505 Y1.6373 Z-0.4369 I0.0218 J-0.0516
X0.2069 Y1.7406 Z-0.443 I-0.0218 J0.0516
X0.2505 Y1.6373 Z-0.4492 I0.0218 J-0.0516
X0.2069 Y1.7406 Z-0.4553 I-0.0218 J0.0516
X0.2505 Y1.6373 Z-0.4615 I0.0218 J-0.0516
X0.2069 Y1.7406 Z-0.4676 I-0.0218 J0.0516
X0.2505 Y1.6373 Z-0.4738 I0.0218 J-0.0516
X0.2069 Y1.7406 Z-0.4799 I-0.0218 J0.0516
X0.2505 Y1.6373 Z-0.4861 I0.0218 J-0.0516
X0.2069 Y1.7406 Z-0.4922 I-0.0218 J0.0516
X0.2505 Y1.6373 Z-0.4984 I0.0218 J-0.0516
X0.2069 Y1.7406 Z-0.5045 I-0.0218 J0.0516
X0.2505 Y1.6373 Z-0.5107 I0.0218 J-0.0516
X0.2069 Y1.7406 Z-0.5168 I-0.0218 J0.0516
X0.2505 Y1.6373 Z-0.523 I0.0218 J-0.0516
X0.2069 Y1.7406 Z-0.5291 I-0.0218 J0.0516
X0.2505 Y1.6373 Z-0.5353 I0.0218 J-0.0516
X0.2069 Y1.7406 Z-0.5414 I-0.0218 J0.0516
X0.2505 Y1.6373 Z-0.5476 I0.0218 J-0.0516
X0.2069 Y1.7406 Z-0.5537 I-0.0218 J0.0516
X0.2505 Y1.6373 Z-0.5599 I0.0218 J-0.0516
X0.2069 Y1.7406 Z-0.566 I-0.0218 J0.0516
X0.2505 Y1.6373 Z-0.5722 I0.0218 J-0.0516
X0.2069 Y1.7406 Z-0.5783 I-0.0218 J0.0516
X0.2505 Y1.6373 Z-0.5845 I0.0218 J-0.0516
X0.2069 Y1.7406 Z-0.5906 I-0.0218 J0.0516
X0.2505 Y1.6373 Z-0.5968 I0.0218 J-0.0516
X0.2784 Y1.7147 Z-0.6 I-0.0218 J0.0516
X0.2181 Y1.703 I-0.0284 J-0.0147 F40.
G1 X0.2182 Y1.7011
X0.2187 Y1.6994
X0.2275 Y1.6782
X0.2284 Y1.6766
X0.2296 Y1.6753
G3 X0.2784 Y1.6853 I0.0204 J0.0247
G2 X0.3143 Y1.71 I0.041 J-0.0212
G3 X0.3338 Y1.7489 I-0.0029 J0.0258
X0.1662 Y1.6511 I-0.0838 J-0.0489
X0.3338 Y1.7489 I0.0838 J0.0489
X0.3204 Y1.7495 I-0.0069 J-0.004
G1 X0.257 Y1.6605
G3 X0.2693 Y1.6504 I0.0065 J-0.0046
X0.188 Y1.7275 Z-0.6061 I-0.0407 J0.0386 F20.
X0.2693 Y1.6504 Z-0.6123 I0.0407 J-0.0386
X0.188 Y1.7275 Z-0.6184 I-0.0407 J0.0386
X0.2693 Y1.6504 Z-0.6246 I0.0407 J-0.0386
X0.188 Y1.7275 Z-0.6307 I-0.0407 J0.0386
X0.2693 Y1.6504 Z-0.6369 I0.0407 J-0.0386
X0.188 Y1.7275 Z-0.643 I-0.0407 J0.0386
X0.2693 Y1.6504 Z-0.6492 I0.0407 J-0.0386
X0.188 Y1.7275 Z-0.6553 I-0.0407 J0.0386
X0.2693 Y1.6504 Z-0.6615 I0.0407 J-0.0386
X0.188 Y1.7275 Z-0.6676 I-0.0407 J0.0386
X0.2693 Y1.6504 Z-0.6738 I0.0407 J-0.0386
X0.188 Y1.7275 Z-0.6799 I-0.0407 J0.0386
X0.2693 Y1.6504 Z-0.6861 I0.0407 J-0.0386
X0.188 Y1.7275 Z-0.6922 I-0.0407 J0.0386
X0.2693 Y1.6504 Z-0.6984 I0.0407 J-0.0386
X0.188 Y1.7275 Z-0.7045 I-0.0407 J0.0386
X0.2693 Y1.6504 Z-0.7107 I0.0407 J-0.0386
X0.188 Y1.7275 Z-0.7168 I-0.0407 J0.0386
X0.2693 Y1.6504 Z-0.723 I0.0407 J-0.0386
X0.188 Y1.7275 Z-0.7291 I-0.0407 J0.0386
X0.2693 Y1.6504 Z-0.7353 I0.0407 J-0.0386
X0.188 Y1.7275 Z-0.7414 I-0.0407 J0.0386
X0.2693 Y1.6504 Z-0.7476 I0.0407 J-0.0386
X0.2784 Y1.7147 Z-0.75 I-0.0407 J0.0386
X0.2181 Y1.703 I-0.0284 J-0.0147 F40.
G1 X0.2182 Y1.7011
X0.2187 Y1.6994
X0.2275 Y1.6782
X0.2284 Y1.6766
X0.2296 Y1.6753
G3 X0.2784 Y1.6853 I0.0204 J0.0247
G2 X0.3143 Y1.71 I0.041 J-0.0212
G3 X0.3338 Y1.7489 I-0.0029 J0.0258
X0.1662 Y1.6511 I-0.0838 J-0.0489
X0.3338 Y1.7489 I0.0838 J0.0489
G1 X0.3325 Y1.7507 Z-0.7496
X0.3308 Y1.7523 Z-0.7491
X0.3292 Y1.7533 Z-0.7478
X0.3275 Y1.7541 Z-0.7465
X0.325 Y1.7547 Z-0.7427
X0.3241 Z-0.7382
G0 Z0.6
X0.9908 Y1.675
Z0.2
G1 Z0.1118 F40.
X0.9915 Y1.6736 Z0.106 F20.
X0.9936 Y1.67 Z0.1017
X0.9969 Y1.6654 Z0.1
G3 X1.085 Y1.7346 Z0.0939 I0.0441 J0.0346
X0.9969 Y1.6654 Z0.0877 I-0.0441 J-0.0346
X1.085 Y1.7346 Z0.0816 I0.0441 J0.0346
X0.9969 Y1.6654 Z0.0754 I-0.0441 J-0.0346
X1.085 Y1.7346 Z0.0693 I0.0441 J0.0346
X0.9969 Y1.6654 Z0.0631 I-0.0441 J-0.0346
X1.085 Y1.7346 Z0.057 I0.0441 J0.0346
X0.9969 Y1.6654 Z0.0508 I-0.0441 J-0.0346
X1.085 Y1.7346 Z0.0447 I0.0441 J0.0346
X0.9969 Y1.6654 Z0.0385 I-0.0441 J-0.0346
X1.085 Y1.7346 Z0.0324 I0.0441 J0.0346
X0.9969 Y1.6654 Z0.0262 I-0.0441 J-0.0346
X1.085 Y1.7346 Z0.0201 I0.0441 J0.0346
X0.9969 Y1.6654 Z0.0139 I-0.0441 J-0.0346
X1.085 Y1.7346 Z0.0078 I0.0441 J0.0346
X0.9969 Y1.6654 Z0.0016 I-0.0441 J-0.0346
X1.085 Y1.7346 Z-0.0045 I0.0441 J0.0346
X0.9969 Y1.6654 Z-0.0107 I-0.0441 J-0.0346
X1.085 Y1.7346 Z-0.0168 I0.0441 J0.0346
X0.9969 Y1.6654 Z-0.023 I-0.0441 J-0.0346
X1.085 Y1.7346 Z-0.0291 I0.0441 J0.0346
X0.9969 Y1.6654 Z-0.0353 I-0.0441 J-0.0346
X1.085 Y1.7346 Z-0.0414 I0.0441 J0.0346
X0.9969 Y1.6654 Z-0.0476 I-0.0441 J-0.0346
X1.085 Y1.7346 Z-0.0537 I0.0441 J0.0346
X0.9969 Y1.6654 Z-0.0599 I-0.0441 J-0.0346
X1.085 Y1.7346 Z-0.066 I0.0441 J0.0346
X0.9969 Y1.6654 Z-0.0722 I-0.0441 J-0.0346
X1.085 Y1.7346 Z-0.0783 I0.0441 J0.0346
X0.9969 Y1.6654 Z-0.0845 I-0.0441 J-0.0346
X1.085 Y1.7346 Z-0.0906 I0.0441 J0.0346
X0.9969 Y1.6654 Z-0.0968 I-0.0441 J-0.0346
X1.085 Y1.7346 Z-0.1029 I0.0441 J0.0346
X0.9969 Y1.6654 Z-0.1091 I-0.0441 J-0.0346
X1.085 Y1.7346 Z-0.1152 I0.0441 J0.0346
X0.9969 Y1.6654 Z-0.1214 I-0.0441 J-0.0346
X1.085 Y1.7346 Z-0.1275 I0.0441 J0.0346
X0.9969 Y1.6654 Z-0.1337 I-0.0441 J-0.0346
X1.085 Y1.7346 Z-0.1398 I0.0441 J0.0346
X0.9969 Y1.6654 Z-0.146 I-0.0441 J-0.0346
X1.085 Y1.7346 Z-0.1521 I0.0441 J0.0346
X0.9969 Y1.6654 Z-0.1583 I-0.0441 J-0.0346
X1.085 Y1.7346 Z-0.1644 I0.0441 J0.0346
X0.9969 Y1.6654 Z-0.1706 I-0.0441 J-0.0346
X1.085 Y1.7346 Z-0.1767 I0.0441 J0.0346
X0.9969 Y1.6654 Z-0.1829 I-0.0441 J-0.0346
X1.085 Y1.7346 Z-0.189 I0.0441 J0.0346
X0.9969 Y1.6654 Z-0.1952 I-0.0441 J-0.0346
X1.097 Y1.7 Z-0.2 I0.0441 J0.0346
X0.903 I-0.097 J0. F40.
X1.097 I0.097 J0.
X0.903 Z-0.2106 I-0.097 J0. F20.
X1.097 Z-0.2213 I0.097 J0.
X0.903 Z-0.2319 I-0.097 J0.
X1.097 Z-0.2426 I0.097 J0.
X0.903 Z-0.2532 I-0.097 J0.
X1.097 Z-0.2638 I0.097 J0.
X0.903 Z-0.2745 I-0.097 J0.
X1.097 Z-0.2851 I0.097 J0.
X0.903 Z-0.2958 I-0.097 J0.
X1.097 Z-0.3064 I0.097 J0.
X0.903 Z-0.3171 I-0.097 J0.
X1.097 Z-0.3277 I0.097 J0.
X0.903 Z-0.3383 I-0.097 J0.
X1.097 Z-0.349 I0.097 J0.
X0.903 Z-0.3596 I-0.097 J0.
X1.097 Z-0.3703 I0.097 J0.
X0.903 Z-0.3809 I-0.097 J0.
X1.097 Z-0.3915 I0.097 J0.
X0.9226 Y1.7584 Z-0.4 I-0.097 J0.
X1.0774 Y1.6416 I0.0774 J-0.0584 F40.
X0.9226 Y1.7584 I-0.0774 J0.0584
X1.0774 Y1.6416 Z-0.4106 I0.0774 J-0.0584 F20.
X0.9226 Y1.7584 Z-0.4213 I-0.0774 J0.0584
X1.0774 Y1.6416 Z-0.4319 I0.0774 J-0.0584
X0.9226 Y1.7584 Z-0.4426 I-0.0774 J0.0584
X1.0774 Y1.6416 Z-0.4532 I0.0774 J-0.0584
X0.9226 Y1.7584 Z-0.4638 I-0.0774 J0.0584
X1.0774 Y1.6416 Z-0.4745 I0.0774 J-0.0584
X0.9226 Y1.7584 Z-0.4851 I-0.0774 J0.0584
X1.0774 Y1.6416 Z-0.4958 I0.0774 J-0.0584
X0.9226 Y1.7584 Z-0.5064 I-0.0774 J0.0584
X1.0774 Y1.6416 Z-0.5171 I0.0774 J-0.0584
X0.9226 Y1.7584 Z-0.5277 I-0.0774 J0.0584
X1.0774 Y1.6416 Z-0.5383 I0.0774 J-0.0584
X0.9226 Y1.7584 Z-0.549 I-0.0774 J0.0584
X1.0774 Y1.6416 Z-0.5596 I0.0774 J-0.0584
X0.9226 Y1.7584 Z-0.5703 I-0.0774 J0.0584
X1.0774 Y1.6416 Z-0.5809 I0.0774 J-0.0584
X0.9226 Y1.7584 Z-0.5915 I-0.0774 J0.0584
X1.0266 Y1.6067 Z-0.6 I0.0774 J-0.0584
X0.9734 Y1.7933 I-0.0266 J0.0933 F40.
X1.0266 Y1.6067 I0.0266 J-0.0933
X0.9734 Y1.7933 Z-0.6106 I-0.0266 J0.0933 F20.
X1.0266 Y1.6067 Z-0.6213 I0.0266 J-0.0933
X0.9734 Y1.7933 Z-0.6319 I-0.0266 J0.0933
X1.0266 Y1.6067 Z-0.6426 I0.0266 J-0.0933
X0.9734 Y1.7933 Z-0.6532 I-0.0266 J0.0933
X1.0266 Y1.6067 Z-0.6638 I0.0266 J-0.0933
X0.9734 Y1.7933 Z-0.6745 I-0.0266 J0.0933
X1.0266 Y1.6067 Z-0.6851 I0.0266 J-0.0933
X0.9734 Y1.7933 Z-0.6958 I-0.0266 J0.0933
X1.0266 Y1.6067 Z-0.7064 I0.0266 J-0.0933
X0.9734 Y1.7933 Z-0.7171 I-0.0266 J0.0933
X1.0266 Y1.6067 Z-0.7277 I0.0266 J-0.0933
X0.9734 Y1.7933 Z-0.7383 I-0.0266 J0.0933
X0.9118 Y1.6597 Z-0.7442 I0.0266 J-0.0933
X1.053 Y1.6188 Z-0.75 I0.0882 J0.0403
X0.947 Y1.7812 I-0.053 J0.0812 F40.
X1.053 Y1.6188 I0.053 J-0.0812
G1 X1.0548 Y1.6202 Z-0.7496
X1.0563 Y1.6219 Z-0.7491
X1.0572 Y1.6236 Z-0.7478
X1.0579 Y1.6253 Z-0.7465
X1.0584 Y1.6279 Z-0.7427
Y1.6288 Z-0.7382
G0 Z0.6
X0.2811 Y0.5019
Z0.2
G1 Z-0.1906 F40.
Y0.5022 Z-0.1927
X0.281 Y0.5029 Z-0.1947
X0.2808 Y0.504 Z-0.1964
X0.2805 Y0.5054 Z-0.1979
X0.2802 Y0.5072 Z-0.1991
X0.2799 Y0.5092 Z-0.1998
X0.2796 Y0.5112 Z-0.2
X0.2791 Y0.513
X0.2784 Y0.5147
G3 X0.2181 Y0.503 I-0.0284 J-0.0147
G1 X0.2182 Y0.5011
X0.2187 Y0.4994
X0.2275 Y0.4782
X0.2284 Y0.4766
X0.2296 Y0.4753
G3 X0.2784 Y0.4853 I0.0204 J0.0247
G2 X0.3143 Y0.51 I0.041 J-0.0212
G3 X0.3338 Y0.5489 I-0.0029 J0.0258
X0.1662 Y0.4511 I-0.0838 J-0.0489
X0.3338 Y0.5489 I0.0838 J0.0489
X0.3206 Y0.5498 I-0.0069 J-0.004
G1 X0.2411 Y0.4496
G3 X0.2505 Y0.4373 I0.0063 J-0.005
X0.2069 Y0.5406 Z-0.2061 I-0.0218 J0.0516 F20.
X0.2505 Y0.4373 Z-0.2123 I0.0218 J-0.0516
X0.2069 Y0.5406 Z-0.2184 I-0.0218 J0.0516
X0.2505 Y0.4373 Z-0.2246 I0.0218 J-0.0516
X0.2069 Y0.5406 Z-0.2307 I-0.0218 J0.0516
X0.2505 Y0.4373 Z-0.2369 I0.0218 J-0.0516
X0.2069 Y0.5406 Z-0.243 I-0.0218 J0.0516
X0.2505 Y0.4373 Z-0.2492 I0.0218 J-0.0516
X0.2069 Y0.5406 Z-0.2553 I-0.0218 J0.0516
X0.2505 Y0.4373 Z-0.2615 I0.0218 J-0.0516
X0.2069 Y0.5406 Z-0.2676 I-0.0218 J0.0516
X0.2505 Y0.4373 Z-0.2738 I0.0218 J-0.0516
X0.2069 Y0.5406 Z-0.2799 I-0.0218 J0.0516
X0.2505 Y0.4373 Z-0.2861 I0.0218 J-0.0516
X0.2069 Y0.5406 Z-0.2922 I-0.0218 J0.0516
X0.2505 Y0.4373 Z-0.2984 I0.0218 J-0.0516
X0.2069 Y0.5406 Z-0.3045 I-0.0218 J0.0516
X0.2505 Y0.4373 Z-0.3107 I0.0218 J-0.0516
X0.2069 Y0.5406 Z-0.3168 I-0.0218 J0.0516
X0.2505 Y0.4373 Z-0.323 I0.0218 J-0.0516
X0.2069 Y0.5406 Z-0.3291 I-0.0218 J0.0516
X0.2505 Y0.4373 Z-0.3353 I0.0218 J-0.0516
X0.2069 Y0.5406 Z-0.3414 I-0.0218 J0.0516
X0.2505 Y0.4373 Z-0.3476 I0.0218 J-0.0516
X0.2069 Y0.5406 Z-0.3537 I-0.0218 J0.0516
X0.2505 Y0.4373 Z-0.3599 I0.0218 J-0.0516
X0.2069 Y0.5406 Z-0.366 I-0.0218 J0.0516
X0.2505 Y0.4373 Z-0.3722 I0.0218 J-0.0516
X0.2069 Y0.5406 Z-0.3783 I-0.0218 J0.0516
X0.2505 Y0.4373 Z-0.3845 I0.0218 J-0.0516
X0.2069 Y0.5406 Z-0.3906 I-0.0218 J0.0516
X0.2505 Y0.4373 Z-0.3968 I0.0218 J-0.0516
X0.2784 Y0.5147 Z-0.4 I-0.0218 J0.0516
X0.2181 Y0.503 I-0.0284 J-0.0147 F40.
G1 X0.2182 Y0.5011
X0.2187 Y0.4994
X0.2275 Y0.4782
X0.2284 Y0.4766
X0.2296 Y0.4753
G3 X0.2784 Y0.4853 I0.0204 J0.0247
G2 X0.3143 Y0.51 I0.041 J-0.0212
G3 X0.3338 Y0.5489 I-0.0029 J0.0258
X0.1662 Y0.4511 I-0.0838 J-0.0489
X0.3338 Y0.5489 I0.0838 J0.0489
X0.3206 Y0.5498 I-0.0069 J-0.004
G1 X0.2411 Y0.4496
G3 X0.2505 Y0.4373 I0.0063 J-0.005
X0.2069 Y0.5406 Z-0.4061 I-0.0218 J0.0516 F20.
X0.2505 Y0.4373 Z-0.4123 I0.0218 J-0.0516
X0.2069 Y0.5406 Z-0.4184 I-0.0218 J0.0516
X0.2505 Y0.4373 Z-0.4246 I0.0218 J-0.0516
X0.2069 Y0.5406 Z-0.4307 I-0.0218 J0.0516
X0.2505 Y0.4373 Z-0.4369 I0.0218 J-0.0516
X0.2069 Y0.5406 Z-0.443 I-0.0218 J0.0516
X0.2505 Y0.4373 Z-0.4492 I0.0218 J-0.0516
X0.2069 Y0.5406 Z-0.4553 I-0.0218 J0.0516
X0.2505 Y0.4373 Z-0.4615 I0.0218 J-0.0516
X0.2069 Y0.5406 Z-0.4676 I-0.0218 J0.0516
X0.2505 Y0.4373 Z-0.4738 I0.0218 J-0.0516
X0.2069 Y0.5406 Z-0.4799 I-0.0218 J0.0516
X0.2505 Y0.4373 Z-0.4861 I0.0218 J-0.0516
X0.2069 Y0.5406 Z-0.4922 I-0.0218 J0.0516
X0.2505 Y0.4373 Z-0.4984 I0.0218 J-0.0516
X0.2069 Y0.5406 Z-0.5045 I-0.0218 J0.0516
X0.2505 Y0.4373 Z-0.5107 I0.0218 J-0.0516
X0.2069 Y0.5406 Z-0.5168 I-0.0218 J0.0516
X0.2505 Y0.4373 Z-0.523 I0.0218 J-0.0516
X0.2069 Y0.5406 Z-0.5291 I-0.0218 J0.0516
X0.2505 Y0.4373 Z-0.5353 I0.0218 J-0.0516
X0.2069 Y0.5406 Z-0.5414 I-0.0218 J0.0516
X0.2505 Y0.4373 Z-0.5476 I0.0218 J-0.0516
X0.2069 Y0.5406 Z-0.5537 I-0.0218 J0.0516
X0.2505 Y0.4373 Z-0.5599 I0.0218 J-0.0516
X0.2069 Y0.5406 Z-0.566 I-0.0218 J0.0516
X0.2505 Y0.4373 Z-0.5722 I0.0218 J-0.0516
X0.2069 Y0.5406 Z-0.5783 I-0.0218 J0.0516
X0.2505 Y0.4373 Z-0.5845 I0.0218 J-0.0516
X0.2069 Y0.5406 Z-0.5906 I-0.0218 J0.0516
X0.2505 Y0.4373 Z-0.5968 I0.0218 J-0.0516
X0.2784 Y0.5147 Z-0.6 I-0.0218 J0.0516
X0.2181 Y0.503 I-0.0284 J-0.0147 F40.
G1 X0.2182 Y0.5011
X0.2187 Y0.4994
X0.2275 Y0.4782
X0.2284 Y0.4766
X0.2296 Y0.4753
G3 X0.2784 Y0.4853 I0.0204 J0.0247
G2 X0.3143 Y0.51 I0.041 J-0.0212
G3 X0.3338 Y0.5489 I-0.0029 J0.0258
X0.1662 Y0.4511 I-0.0838 J-0.0489
X0.3338 Y0.5489 I0.0838 J0.0489
X0.3204 Y0.5495 I-0.0069 J-0.004
G1 X0.257 Y0.4605
G3 X0.2693 Y0.4504 I0.0065 J-0.0046
X0.188 Y0.5275 Z-0.6061 I-0.0407 J0.0386 F20.
X0.2693 Y0.4504 Z-0.6123 I0.0407 J-0.0386
X0.188 Y0.5275 Z-0.6184 I-0.0407 J0.0386
X0.2693 Y0.4504 Z-0.6246 I0.0407 J-0.0386
X0.188 Y0.5275 Z-0.6307 I-0.0407 J0.0386
X0.2693 Y0.4504 Z-0.6369 I0.0407 J-0.0386
X0.188 Y0.5275 Z-0.643 I-0.0407 J0.0386
X0.2693 Y0.4504 Z-0.6492 I0.0407 J-0.0386
X0.188 Y0.5275 Z-0.6553 I-0.0407 J0.0386
X0.2693 Y0.4504 Z-0.6615 I0.0407 J-0.0386
X0.188 Y0.5275 Z-0.6676 I-0.0407 J0.0386
X0.2693 Y0.4504 Z-0.6738 I0.0407 J-0.0386
X0.188 Y0.5275 Z-0.6799 I-0.0407 J0.0386
X0.2693 Y0.4504 Z-0.6861 I0.0407 J-0.0386
X0.188 Y0.5275 Z-0.6922 I-0.0407 J0.0386
X0.2693 Y0.4504 Z-0.6984 I0.0407 J-0.0386
X0.188 Y0.5275 Z-0.7045 I-0.0407 J0.0386
X0.2693 Y0.4504 Z-0.7107 I0.0407 J-0.0386
X0.188 Y0.5275 Z-0.7168 I-0.0407 J0.0386
X0.2693 Y0.4504 Z-0.723 I0.0407 J-0.0386
X0.188 Y0.5275 Z-0.7291 I-0.0407 J0.0386
X0.2693 Y0.4504 Z-0.7353 I0.0407 J-0.0386
X0.188 Y0.5275 Z-0.7414 I-0.0407 J0.0386
X0.2693 Y0.4504 Z-0.7476 I0.0407 J-0.0386
X0.2784 Y0.5147 Z-0.75 I-0.0407 J0.0386
X0.2181 Y0.503 I-0.0284 J-0.0147 F40.
G1 X0.2182 Y0.5011
X0.2187 Y0.4994
X0.2275 Y0.4782
X0.2284 Y0.4766
X0.2296 Y0.4753
G3 X0.2784 Y0.4853 I0.0204 J0.0247
G2 X0.3143 Y0.51 I0.041 J-0.0212
G3 X0.3338 Y0.5489 I-0.0029 J0.0258
X0.1662 Y0.4511 I-0.0838 J-0.0489
X0.3338 Y0.5489 I0.0838 J0.0489
G1 X0.3325 Y0.5507 Z-0.7496
X0.3308 Y0.5523 Z-0.7491
X0.3292 Y0.5533 Z-0.7478
X0.3275 Y0.5541 Z-0.7465
X0.325 Y0.5547 Z-0.7427
X0.3241 Z-0.7382
G0 Z0.6
X0.9855 Y0.5224
Z0.2
G1 Z0.1118 F40.
X0.984 Y0.5226 Z0.106 F20.
X0.9799 Y0.5231 Z0.1017
X0.9741 Y0.5233 Z0.1
G3 X0.9767 Y0.4112 Z0.0939 I0.0013 J-0.056
X0.9741 Y0.5233 Z0.0877 I-0.0013 J0.056
X0.9767 Y0.4112 Z0.0816 I0.0013 J-0.056
X0.9741 Y0.5233 Z0.0754 I-0.0013 J0.056
X0.9767 Y0.4112 Z0.0693 I0.0013 J-0.056
X0.9741 Y0.5233 Z0.0631 I-0.0013 J0.056
X0.9767 Y0.4112 Z0.057 I0.0013 J-0.056
X0.9741 Y0.5233 Z0.0508 I-0.0013 J0.056
X0.9767 Y0.4112 Z0.0447 I0.0013 J-0.056
X0.9741 Y0.5233 Z0.0385 I-0.0013 J0.056
X0.9767 Y0.4112 Z0.0324 I0.0013 J-0.056
X0.9741 Y0.5233 Z0.0262 I-0.0013 J0.056
X0.9767 Y0.4112 Z0.0201 I0.0013 J-0.056
X0.9741 Y0.5233 Z0.0139 I-0.0013 J0.056
X0.9767 Y0.4112 Z0.0078 I0.0013 J-0.056
X0.9741 Y0.5233 Z0.0016 I-0.0013 J0.056
X0.9767 Y0.4112 Z-0.0045 I0.0013 J-0.056
X0.9741 Y0.5233 Z-0.0107 I-0.0013 J0.056
X0.9767 Y0.4112 Z-0.0168 I0.0013 J-0.056
X0.9741 Y0.5233 Z-0.023 I-0.0013 J0.056
X0.9767 Y0.4112 Z-0.0291 I0.0013 J-0.056
X0.9741 Y0.5233 Z-0.0353 I-0.0013 J0.056
X0.9767 Y0.4112 Z-0.0414 I0.0013 J-0.056
X0.9741 Y0.5233 Z-0.0476 I-0.0013 J0.056
X0.9767 Y0.4112 Z-0.0537 I0.0013 J-0.056
X0.9741 Y0.5233 Z-0.0599 I-0.0013 J0.056
X0.9767 Y0.4112 Z-0.066 I0.0013 J-0.056
X0.9741 Y0.5233 Z-0.0722 I-0.0013 J0.056
X0.9767 Y0.4112 Z-0.0783 I0.0013 J-0.056
X0.9741 Y0.5233 Z-0.0845 I-0.0013 J0.056
X0.9767 Y0.4112 Z-0.0906 I0.0013 J-0.056
X0.9741 Y0.5233 Z-0.0968 I-0.0013 J0.056
X0.9767 Y0.4112 Z-0.1029 I0.0013 J-0.056
X0.9741 Y0.5233 Z-0.1091 I-0.0013 J0.056
X0.9767 Y0.4112 Z-0.1152 I0.0013 J-0.056
X0.9741 Y0.5233 Z-0.1214 I-0.0013 J0.056
X0.9767 Y0.4112 Z-0.1275 I0.0013 J-0.056
X0.9741 Y0.5233 Z-0.1337 I-0.0013 J0.056
X0.9767 Y0.4112 Z-0.1398 I0.0013 J-0.056
X0.9741 Y0.5233 Z-0.146 I-0.0013 J0.056
X0.9767 Y0.4112 Z-0.1521 I0.0013 J-0.056
X0.9741 Y0.5233 Z-0.1583 I-0.0013 J0.056
X0.9767 Y0.4112 Z-0.1644 I0.0013 J-0.056
X0.9741 Y0.5233 Z-0.1706 I-0.0013 J0.056
X0.9767 Y0.4112 Z-0.1767 I0.0013 J-0.056
X0.9741 Y0.5233 Z-0.1829 I-0.0013 J0.056
X0.9767 Y0.4112 Z-0.189 I0.0013 J-0.056
X0.9741 Y0.5233 Z-0.1952 I-0.0013 J0.056
X0.9418 Y0.4224 Z-0.2 I0.0013 J-0.056
X1.0582 Y0.5776 I0.0582 J0.0776 F40.
X0.9418 Y0.4224 I-0.0582 J-0.0776
X1.0582 Y0.5776 Z-0.2106 I0.0582 J0.0776 F20.
X0.9418 Y0.4224 Z-0.2213 I-0.0582 J-0.0776
X1.0582 Y0.5776 Z-0.2319 I0.0582 J0.0776
X0.9418 Y0.4224 Z-0.2426 I-0.0582 J-0.0776
X1.0582 Y0.5776 Z-0.2532 I0.0582 J0.0776
X0.9418 Y0.4224 Z-0.2638 I-0.0582 J-0.0776
X1.0582 Y0.5776 Z-0.2745 I0.0582 J0.0776
X0.9418 Y0.4224 Z-0.2851 I-0.0582 J-0.0776
X1.0582 Y0.5776 Z-0.2958 I0.0582 J0.0776
X0.9418 Y0.4224 Z-0.3064 I-0.0582 J-0.0776
X1.0582 Y0.5776 Z-0.3171 I0.0582 J0.0776
X0.9418 Y0.4224 Z-0.3277 I-0.0582 J-0.0776
X1.0582 Y0.5776 Z-0.3383 I0.0582 J0.0776
X0.9418 Y0.4224 Z-0.349 I-0.0582 J-0.0776
X1.0582 Y0.5776 Z-0.3596 I0.0582 J0.0776
X0.9418 Y0.4224 Z-0.3703 I-0.0582 J-0.0776
X1.0582 Y0.5776 Z-0.3809 I0.0582 J0.0776
X0.9418 Y0.4224 Z-0.3915 I-0.0582 J-0.0776
X1.0932 Y0.5269 Z-0.4 I0.0582 J0.0776
X0.9068 Y0.4731 I-0.0932 J-0.0269 F40.
X1.0932 Y0.5269 I0.0932 J0.0269
X0.9068 Y0.4731 Z-0.4106 I-0.0932 J-0.0269 F20.
X1.0932 Y0.5269 Z-0.4213 I0.0932 J0.0269
X0.9068 Y0.4731 Z-0.4319 I-0.0932 J-0.0269
X1.0932 Y0.5269 Z-0.4426 I0.0932 J0.0269
X0.9068 Y0.4731 Z-0.4532 I-0.0932 J-0.0269
X1.0932 Y0.5269 Z-0.4638 I0.0932 J0.0269
X0.9068 Y0.4731 Z-0.4745 I-0.0932 J-0.0269
X1.0932 Y0.5269 Z-0.4851 I0.0932 J0.0269
X0.9068 Y0.4731 Z-0.4958 I-0.0932 J-0.0269
X1.0932 Y0.5269 Z-0.5064 I0.0932 J0.0269
X0.9068 Y0.4731 Z-0.5171 I-0.0932 J-0.0269
X1.0932 Y0.5269 Z-0.5277 I0.0932 J0.0269
X0.9068 Y0.4731 Z-0.5383 I-0.0932 J-0.0269
X1.0932 Y0.5269 Z-0.549 I0.0932 J0.0269
X0.9068 Y0.4731 Z-0.5596 I-0.0932 J-0.0269
X1.0932 Y0.5269 Z-0.5703 I0.0932 J0.0269
X0.9068 Y0.4731 Z-0.5809 I-0.0932 J-0.0269
X1.0932 Y0.5269 Z-0.5915 I0.0932 J0.0269
X0.9094 Y0.5347 Z-0.6 I-0.0932 J-0.0269
X1.0906 Y0.4653 I0.0906 J-0.0347 F40.
X0.9094 Y0.5347 I-0.0906 J0.0347
X1.0906 Y0.4653 Z-0.6106 I0.0906 J-0.0347 F20.
X0.9094 Y0.5347 Z-0.6213 I-0.0906 J0.0347
X1.0906 Y0.4653 Z-0.6319 I0.0906 J-0.0347
X0.9094 Y0.5347 Z-0.6426 I-0.0906 J0.0347
X1.0906 Y0.4653 Z-0.6532 I0.0906 J-0.0347
X0.9094 Y0.5347 Z-0.6638 I-0.0906 J0.0347
X1.0906 Y0.4653 Z-0.6745 I0.0906 J-0.0347
X0.9094 Y0.5347 Z-0.6851 I-0.0906 J0.0347
X1.0906 Y0.4653 Z-0.6958 I0.0906 J-0.0347
X0.9094 Y0.5347 Z-0.7064 I-0.0906 J0.0347
X1.0906 Y0.4653 Z-0.7171 I0.0906 J-0.0347
X0.9094 Y0.5347 Z-0.7277 I-0.0906 J0.0347
X1.0906 Y0.4653 Z-0.7383 I0.0906 J-0.0347
X1.0207 Y0.5948 Z-0.7442 I-0.0906 J0.0347
X0.9032 Y0.5063 Z-0.75 I-0.0207 J-0.0948
X1.0968 Y0.4937 I0.0968 J-0.0063 F40.
X0.9032 Y0.5063 I-0.0968 J0.0063
G1 X0.9033 Y0.504 Z-0.7496
X0.9038 Y0.5018 Z-0.7491
X0.9045 Y0.5001 Z-0.7478
X0.9055 Y0.4985 Z-0.7465
X0.9073 Y0.4966 Z-0.7427
X0.908 Y0.496 Z-0.7382
G0 Z0.6
X1.7256 Y1.7077
Z0.2
G1 Z0.1118 F40.
X1.7262 Y1.709 Z0.106 F20.
X1.7278 Y1.7129 Z0.1017
X1.7296 Y1.7183 Z0.1
G3 X1.6213 Y1.7472 Z0.0939 I-0.0542 J0.0145
X1.7296 Y1.7183 Z0.0877 I0.0542 J-0.0145
X1.6213 Y1.7472 Z0.0816 I-0.0542 J0.0145
X1.7296 Y1.7183 Z0.0754 I0.0542 J-0.0145
X1.6213 Y1.7472 Z0.0693 I-0.0542 J0.0145
X1.7296 Y1.7183 Z0.0631 I0.0542 J-0.0145
X1.6213 Y1.7472 Z0.057 I-0.0542 J0.0145
X1.7296 Y1.7183 Z0.0508 I0.0542 J-0.0145
X1.6213 Y1.7472 Z0.0447 I-0.0542 J0.0145
X1.7296 Y1.7183 Z0.0385 I0.0542 J-0.0145
X1.6213 Y1.7472 Z0.0324 I-0.0542 J0.0145
X1.7296 Y1.7183 Z0.0262 I0.0542 J-0.0145
X1.6213 Y1.7472 Z0.0201 I-0.0542 J0.0145
X1.7296 Y1.7183 Z0.0139 I0.0542 J-0.0145
X1.6213 Y1.7472 Z0.0078 I-0.0542 J0.0145
X1.7296 Y1.7183 Z0.0016 I0.0542 J-0.0145
X1.6213 Y1.7472 Z-0.0045 I-0.0542 J0.0145
X1.7296 Y1.7183 Z-0.0107 I0.0542 J-0.0145
X1.6213 Y1.7472 Z-0.0168 I-0.0542 J0.0145
X1.7296 Y1.7183 Z-0.023 I0.0542 J-0.0145
X1.6213 Y1.7472 Z-0.0291 I-0.0542 J0.0145
X1.7296 Y1.7183 Z-0.0353 I0.0542 J-0.0145
X1.6213 Y1.7472 Z-0.0414 I-0.0542 J0.0145
X1.7296 Y1.7183 Z-0.0476 I0.0542 J-0.0145
X1.6213 Y1.7472 Z-0.0537 I-0.0542 J0.0145
X1.7296 Y1.7183 Z-0.0599 I0.0542 J-0.0145
X1.6213 Y1.7472 Z-0.066 I-0.0542 J0.0145
X1.7296 Y1.7183 Z-0.0722 I0.0542 J-0.0145
X1.6213 Y1.7472 Z-0.0783 I-0.0542 J0.0145
X1.7296 Y1.7183 Z-0.0845 I0.0542 J-0.0145
X1.6213 Y1.7472 Z-0.0906 I-0.0542 J0.0145
X1.7296 Y1.7183 Z-0.0968 I0.0542 J-0.0145
X1.6213 Y1.7472 Z-0.1029 I-0.0542 J0.0145
X1.7296 Y1.7183 Z-0.1091 I0.0542 J-0.0145
X1.6213 Y1.7472 Z-0.1152 I-0.0542 J0.0145
X1.7296 Y1.7183 Z-0.1214 I0.0542 J-0.0145
X1.6213 Y1.7472 Z-0.1275 I-0.0542 J0.0145
X1.7296 Y1.7183 Z-0.1337 I0.0542 J-0.0145
X1.6213 Y1.7472 Z-0.1398 I-0.0542 J0.0145
X1.7296 Y1.7183 Z-0.146 I0.0542 J-0.0145
X1.6213 Y1.7472 Z-0.1521 I-0.0542 J0.0145
X1.7296 Y1.7183 Z-0.1583 I0.0542 J-0.0145
X1.6213 Y1.7472 Z-0.1644 I-0.0542 J0.0145
X1.7296 Y1.7183 Z-0.1706 I0.0542 J-0.0145
X1.6213 Y1.7472 Z-0.1767 I-0.0542 J0.0145
X1.7296 Y1.7183 Z-0.1829 I0.0542 J-0.0145
X1.6213 Y1.7472 Z-0.189 I-0.0542 J0.0145
X1.7296 Y1.7183 Z-0.1952 I0.0542 J-0.0145
X1.6418 Y1.7776 Z-0.2 I-0.0542 J0.0145
X1.7582 Y1.6224 I0.0582 J-0.0776 F40.
X1.6418 Y1.7776 I-0.0582 J0.0776
X1.7582 Y1.6224 Z-0.2106 I0.0582 J-0.0776 F20.
X1.6418 Y1.7776 Z-0.2213 I-0.0582 J0.0776
X1.7582 Y1.6224 Z-0.2319 I0.0582 J-0.0776
X1.6418 Y1.7776 Z-0.2426 I-0.0582 J0.0776
X1.7582 Y1.6224 Z-0.2532 I0.0582 J-0.0776
X1.6418 Y1.7776 Z-0.2638 I-0.0582 J0.0776
X1.7582 Y1.6224 Z-0.2745 I0.0582 J-0.0776
X1.6418 Y1.7776 Z-0.2851 I-0.0582 J0.0776
X1.7582 Y1.6224 Z-0.2958 I0.0582 J-0.0776
X1.6418 Y1.7776 Z-0.3064 I-0.0582 J0.0776
X1.7582 Y1.6224 Z-0.3171 I0.0582 J-0.0776
X1.6418 Y1.7776 Z-0.3277 I-0.0582 J0.0776
X1.7582 Y1.6224 Z-0.3383 I0.0582 J-0.0776
X1.6418 Y1.7776 Z-0.349 I-0.0582 J0.0776
X1.7582 Y1.6224 Z-0.3596 I0.0582 J-0.0776
X1.6418 Y1.7776 Z-0.3703 I-0.0582 J0.0776
X1.7582 Y1.6224 Z-0.3809 I0.0582 J-0.0776
X1.6418 Y1.7776 Z-0.3915 I-0.0582 J0.0776
X1.6997 Y1.603 Z-0.4 I0.0582 J-0.0776
X1.7003 Y1.797 I0.0003 J0.097 F40.
X1.6997 Y1.603 I-0.0003 J-0.097
X1.7003 Y1.797 Z-0.4106 I0.0003 J0.097 F20.
X1.6997 Y1.603 Z-0.4213 I-0.0003 J-0.097
X1.7003 Y1.797 Z-0.4319 I0.0003 J0.097
X1.6997 Y1.603 Z-0.4426 I-0.0003 J-0.097
X1.7003 Y1.797 Z-0.4532 I0.0003 J0.097
X1.6997 Y1.603 Z-0.4638 I-0.0003 J-0.097
X1.7003 Y1.797 Z-0.4745 I0.0003 J0.097
X1.6997 Y1.603 Z-0.4851 I-0.0003 J-0.097
X1.7003 Y1.797 Z-0.4958 I0.0003 J0.097
X1.6997 Y1.603 Z-0.5064 I-0.0003 J-0.097
X1.7003 Y1.797 Z-0.5171 I0.0003 J0.097
X1.6997 Y1.603 Z-0.5277 I-0.0003 J-0.097
X1.7003 Y1.797 Z-0.5383 I0.0003 J0.097
X1.6997 Y1.603 Z-0.549 I-0.0003 J-0.097
X1.7003 Y1.797 Z-0.5596 I0.0003 J0.097
X1.6997 Y1.603 Z-0.5703 I-0.0003 J-0.097
X1.7003 Y1.797 Z-0.5809 I0.0003 J0.097
X1.6997 Y1.603 Z-0.5915 I-0.0003 J-0.097
X1.7587 Y1.7773 Z-0.6 I0.0003 J0.097
X1.6413 Y1.6227 I-0.0587 J-0.0773 F40.
X1.7587 Y1.7773 I0.0587 J0.0773
X1.6413 Y1.6227 Z-0.6106 I-0.0587 J-0.0773 F20.
X1.7587 Y1.7773 Z-0.6213 I0.0587 J0.0773
X1.6413 Y1.6227 Z-0.6319 I-0.0587 J-0.0773
X1.7587 Y1.7773 Z-0.6426 I0.0587 J0.0773
X1.6413 Y1.6227 Z-0.6532 I-0.0587 J-0.0773
X1.7587 Y1.7773 Z-0.6638 I0.0587 J0.0773
X1.6413 Y1.6227 Z-0.6745 I-0.0587 J-0.0773
X1.7587 Y1.7773 Z-0.6851 I0.0587 J0.0773
X1.6413 Y1.6227 Z-0.6958 I-0.0587 J-0.0773
X1.7587 Y1.7773 Z-0.7064 I0.0587 J0.0773
X1.6413 Y1.6227 Z-0.7171 I-0.0587 J-0.0773
X1.7587 Y1.7773 Z-0.7277 I0.0587 J0.0773
X1.6413 Y1.6227 Z-0.7383 I-0.0587 J-0.0773
X1.7852 Y1.6536 Z-0.7442 I0.0587 J0.0773
X1.7332 Y1.7912 Z-0.75 I-0.0852 J0.0464
X1.6668 Y1.6088 I-0.0332 J-0.0912 F40.
X1.7332 Y1.7912 I0.0332 J0.0912
G1 X1.731 Y1.7917 Z-0.7496
X1.7287 Y1.7919 Z-0.7491
X1.7268 Y1.7916 Z-0.7478
X1.725 Y1.7911 Z-0.7465
X1.7227 Y1.79 Z-0.7427
X1.722 Y1.7895 Z-0.7382
G0 Z0.6
X2.4756 Y1.7077
Z0.2
G1 Z0.1118 F40.
X2.4762 Y1.709 Z0.106 F20.
X2.4778 Y1.7129 Z0.1017
X2.4796 Y1.7183 Z0.1
G3 X2.3713 Y1.7472 Z0.0939 I-0.0542 J0.0145
X2.4796 Y1.7183 Z0.0877 I0.0542 J-0.0145
X2.3713 Y1.7472 Z0.0816 I-0.0542 J0.0145
X2.4796 Y1.7183 Z0.0754 I0.0542 J-0.0145
X2.3713 Y1.7472 Z0.0693 I-0.0542 J0.0145
X2.4796 Y1.7183 Z0.0631 I0.0542 J-0.0145
X2.3713 Y1.7472 Z0.057 I-0.0542 J0.0145
X2.4796 Y1.7183 Z0.0508 I0.0542 J-0.0145
X2.3713 Y1.7472 Z0.0447 I-0.0542 J0.0145
X2.4796 Y1.7183 Z0.0385 I0.0542 J-0.0145
X2.3713 Y1.7472 Z0.0324 I-0.0542 J0.0145
X2.4796 Y1.7183 Z0.0262 I0.0542 J-0.0145
X2.3713 Y1.7472 Z0.0201 I-0.0542 J0.0145
X2.4796 Y1.7183 Z0.0139 I0.0542 J-0.0145
X2.3713 Y1.7472 Z0.0078 I-0.0542 J0.0145
X2.4796 Y1.7183 Z0.0016 I0.0542 J-0.0145
X2.3713 Y1.7472 Z-0.0045 I-0.0542 J0.0145
X2.4796 Y1.7183 Z-0.0107 I0.0542 J-0.0145
X2.3713 Y1.7472 Z-0.0168 I-0.0542 J0.0145
X2.4796 Y1.7183 Z-0.023 I0.0542 J-0.0145
X2.3713 Y1.7472 Z-0.0291 I-0.0542 J0.0145
X2.4796 Y1.7183 Z-0.0353 I0.0542 J-0.0145
X2.3713 Y1.7472 Z-0.0414 I-0.0542 J0.0145
X2.4796 Y1.7183 Z-0.0476 I0.0542 J-0.0145
X2.3713 Y1.7472 Z-0.0537 I-0.0542 J0.0145
X2.4796 Y1.7183 Z-0.0599 I0.0542 J-0.0145
X2.3713 Y1.7472 Z-0.066 I-0.0542 J0.0145
X2.4796 Y1.7183 Z-0.0722 I0.0542 J-0.0145
X2.3713 Y1.7472 Z-0.0783 I-0.0542 J0.0145
X2.4796 Y1.7183 Z-0.0845 I0.0542 J-0.0145
X2.3713 Y1.7472 Z-0.0906 I-0.0542 J0.0145
X2.4796 Y1.7183 Z-0.0968 I0.0542 J-0.0145
X2.3713 Y1.7472 Z-0.1029 I-0.0542 J0.0145
X2.4796 Y1.7183 Z-0.1091 I0.0542 J-0.0145
X2.3713 Y1.7472 Z-0.1152 I-0.0542 J0.0145
X2.4796 Y1.7183 Z-0.1214 I0.0542 J-0.0145
X2.3713 Y1.7472 Z-0.1275 I-0.0542 J0.0145
X2.4796 Y1.7183 Z-0.1337 I0.0542 J-0.0145
X2.3713 Y1.7472 Z-0.1398 I-0.0542 J0.0145
X2.4796 Y1.7183 Z-0.146 I0.0542 J-0.0145
X2.3713 Y1.7472 Z-0.1521 I-0.0542 J0.0145
X2.4796 Y1.7183 Z-0.1583 I0.0542 J-0.0145
X2.3713 Y1.7472 Z-0.1644 I-0.0542 J0.0145
X2.4796 Y1.7183 Z-0.1706 I0.0542 J-0.0145
X2.3713 Y1.7472 Z-0.1767 I-0.0542 J0.0145
X2.4796 Y1.7183 Z-0.1829 I0.0542 J-0.0145
X2.3713 Y1.7472 Z-0.189 I-0.0542 J0.0145
X2.4796 Y1.7183 Z-0.1952 I0.0542 J-0.0145
X2.3918 Y1.7776 Z-0.2 I-0.0542 J0.0145
X2.5082 Y1.6224 I0.0582 J-0.0776 F40.
X2.3918 Y1.7776 I-0.0582 J0.0776
X2.5082 Y1.6224 Z-0.2106 I0.0582 J-0.0776 F20.
X2.3918 Y1.7776 Z-0.2213 I-0.0582 J0.0776
X2.5082 Y1.6224 Z-0.2319 I0.0582 J-0.0776
X2.3918 Y1.7776 Z-0.2426 I-0.0582 J0.0776
X2.5082 Y1.6224 Z-0.2532 I0.0582 J-0.0776
X2.3918 Y1.7776 Z-0.2638 I-0.0582 J0.0776
X2.5082 Y1.6224 Z-0.2745 I0.0582 J-0.0776
X2.3918 Y1.7776 Z-0.2851 I-0.0582 J0.0776
X2.5082 Y1.6224 Z-0.2958 I0.0582 J-0.0776
X2.3918 Y1.7776 Z-0.3064 I-0.0582 J0.0776
X2.5082 Y1.6224 Z-0.3171 I0.0582 J-0.0776
X2.3918 Y1.7776 Z-0.3277 I-0.0582 J0.0776
X2.5082 Y1.6224 Z-0.3383 I0.0582 J-0.0776
X2.3918 Y1.7776 Z-0.349 I-0.0582 J0.0776
X2.5082 Y1.6224 Z-0.3596 I0.0582 J-0.0776
X2.3918 Y1.7776 Z-0.3703 I-0.0582 J0.0776
X2.5082 Y1.6224 Z-0.3809 I0.0582 J-0.0776
X2.3918 Y1.7776 Z-0.3915 I-0.0582 J0.0776
X2.4497 Y1.603 Z-0.4 I0.0582 J-0.0776
X2.4503 Y1.797 I0.0003 J0.097 F40.
X2.4497 Y1.603 I-0.0003 J-0.097
X2.4503 Y1.797 Z-0.4106 I0.0003 J0.097 F20.
X2.4497 Y1.603 Z-0.4213 I-0.0003 J-0.097
X2.4503 Y1.797 Z-0.4319 I0.0003 J0.097
X2.4497 Y1.603 Z-0.4426 I-0.0003 J-0.097
X2.4503 Y1.797 Z-0.4532 I0.0003 J0.097
X2.4497 Y1.603 Z-0.4638 I-0.0003 J-0.097
X2.4503 Y1.797 Z-0.4745 I0.0003 J0.097
X2.4497 Y1.603 Z-0.4851 I-0.0003 J-0.097
X2.4503 Y1.797 Z-0.4958 I0.0003 J0.097
X2.4497 Y1.603 Z-0.5064 I-0.0003 J-0.097
X2.4503 Y1.797 Z-0.5171 I0.0003 J0.097
X2.4497 Y1.603 Z-0.5277 I-0.0003 J-0.097
X2.4503 Y1.797 Z-0.5383 I0.0003 J0.097
X2.4497 Y1.603 Z-0.549 I-0.0003 J-0.097
X2.4503 Y1.797 Z-0.5596 I0.0003 J0.097
X2.4497 Y1.603 Z-0.5703 I-0.0003 J-0.097
X2.4503 Y1.797 Z-0.5809 I0.0003 J0.097
X2.4497 Y1.603 Z-0.5915 I-0.0003 J-0.097
X2.5087 Y1.7773 Z-0.6 I0.0003 J0.097
X2.3913 Y1.6227 I-0.0587 J-0.0773 F40.
X2.5087 Y1.7773 I0.0587 J0.0773
X2.3913 Y1.6227 Z-0.6106 I-0.0587 J-0.0773 F20.
X2.5087 Y1.7773 Z-0.6213 I0.0587 J0.0773
X2.3913 Y1.6227 Z-0.6319 I-0.0587 J-0.0773
X2.5087 Y1.7773 Z-0.6426 I0.0587 J0.0773
X2.3913 Y1.6227 Z-0.6532 I-0.0587 J-0.0773
X2.5087 Y1.7773 Z-0.6638 I0.0587 J0.0773
X2.3913 Y1.6227 Z-0.6745 I-0.0587 J-0.0773
X2.5087 Y1.7773 Z-0.6851 I0.0587 J0.0773
X2.3913 Y1.6227 Z-0.6958 I-0.0587 J-0.0773
X2.5087 Y1.7773 Z-0.7064 I0.0587 J0.0773
X2.3913 Y1.6227 Z-0.7171 I-0.0587 J-0.0773
X2.5087 Y1.7773 Z-0.7277 I0.0587 J0.0773
X2.3913 Y1.6227 Z-0.7383 I-0.0587 J-0.0773
X2.5352 Y1.6536 Z-0.7442 I0.0587 J0.0773
X2.4832 Y1.7912 Z-0.75 I-0.0852 J0.0464
X2.4168 Y1.6088 I-0.0332 J-0.0912 F40.
X2.4832 Y1.7912 I0.0332 J0.0912
G1 X2.481 Y1.7917 Z-0.7496
X2.4787 Y1.7919 Z-0.7491
X2.4768 Y1.7916 Z-0.7478
X2.475 Y1.7911 Z-0.7465
X2.4727 Y1.79 Z-0.7427
X2.472 Y1.7895 Z-0.7382
G0 Z0.6
X1.7256 Y0.5077
Z0.2
G1 Z0.1118 F40.
X1.7262 Y0.509 Z0.106 F20.
X1.7278 Y0.5129 Z0.1017
X1.7296 Y0.5183 Z0.1
G3 X1.6213 Y0.5472 Z0.0939 I-0.0542 J0.0145
X1.7296 Y0.5183 Z0.0877 I0.0542 J-0.0145
X1.6213 Y0.5472 Z0.0816 I-0.0542 J0.0145
X1.7296 Y0.5183 Z0.0754 I0.0542 J-0.0145
X1.6213 Y0.5472 Z0.0693 I-0.0542 J0.0145
X1.7296 Y0.5183 Z0.0631 I0.0542 J-0.0145
X1.6213 Y0.5472 Z0.057 I-0.0542 J0.0145
X1.7296 Y0.5183 Z0.0508 I0.0542 J-0.0145
X1.6213 Y0.5472 Z0.0447 I-0.0542 J0.0145
X1.7296 Y0.5183 Z0.0385 I0.0542 J-0.0145
X1.6213 Y0.5472 Z0.0324 I-0.0542 J0.0145
X1.7296 Y0.5183 Z0.0262 I0.0542 J-0.0145
X1.6213 Y0.5472 Z0.0201 I-0.0542 J0.0145
X1.7296 Y0.5183 Z0.0139 I0.0542 J-0.0145
X1.6213 Y0.5472 Z0.0078 I-0.0542 J0.0145
X1.7296 Y0.5183 Z0.0016 I0.0542 J-0.0145
X1.6213 Y0.5472 Z-0.0045 I-0.0542 J0.0145
X1.7296 Y0.5183 Z-0.0107 I0.0542 J-0.0145
X1.6213 Y0.5472 Z-0.0168 I-0.0542 J0.0145
X1.7296 Y0.5183 Z-0.023 I0.0542 J-0.0145
X1.6213 Y0.5472 Z-0.0291 I-0.0542 J0.0145
X1.7296 Y0.5183 Z-0.0353 I0.0542 J-0.0145
X1.6213 Y0.5472 Z-0.0414 I-0.0542 J0.0145
X1.7296 Y0.5183 Z-0.0476 I0.0542 J-0.0145
X1.6213 Y0.5472 Z-0.0537 I-0.0542 J0.0145
X1.7296 Y0.5183 Z-0.0599 I0.0542 J-0.0145
X1.6213 Y0.5472 Z-0.066 I-0.0542 J0.0145
X1.7296 Y0.5183 Z-0.0722 I0.0542 J-0.0145
X1.6213 Y0.5472 Z-0.0783 I-0.0542 J0.0145
X1.7296 Y0.5183 Z-0.0845 I0.0542 J-0.0145
X1.6213 Y0.5472 Z-0.0906 I-0.0542 J0.0145
X1.7296 Y0.5183 Z-0.0968 I0.0542 J-0.0145
X1.6213 Y0.5472 Z-0.1029 I-0.0542 J0.0145
X1.7296 Y0.5183 Z-0.1091 I0.0542 J-0.0145
X1.6213 Y0.5472 Z-0.1152 I-0.0542 J0.0145
X1.7296 Y0.5183 Z-0.1214 I0.0542 J-0.0145
X1.6213 Y0.5472 Z-0.1275 I-0.0542 J0.0145
X1.7296 Y0.5183 Z-0.1337 I0.0542 J-0.0145
X1.6213 Y0.5472 Z-0.1398 I-0.0542 J0.0145
X1.7296 Y0.5183 Z-0.146 I0.0542 J-0.0145
X1.6213 Y0.5472 Z-0.1521 I-0.0542 J0.0145
X1.7296 Y0.5183 Z-0.1583 I0.0542 J-0.0145
X1.6213 Y0.5472 Z-0.1644 I-0.0542 J0.0145
X1.7296 Y0.5183 Z-0.1706 I0.0542 J-0.0145
X1.6213 Y0.5472 Z-0.1767 I-0.0542 J0.0145
X1.7296 Y0.5183 Z-0.1829 I0.0542 J-0.0145
X1.6213 Y0.5472 Z-0.189 I-0.0542 J0.0145
X1.7296 Y0.5183 Z-0.1952 I0.0542 J-0.0145
X1.6418 Y0.5776 Z-0.2 I-0.0542 J0.0145
X1.7582 Y0.4224 I0.0582 J-0.0776 F40.
X1.6418 Y0.5776 I-0.0582 J0.0776
X1.7582 Y0.4224 Z-0.2106 I0.0582 J-0.0776 F20.
X1.6418 Y0.5776 Z-0.2213 I-0.0582 J0.0776
X1.7582 Y0.4224 Z-0.2319 I0.0582 J-0.0776
X1.6418 Y0.5776 Z-0.2426 I-0.0582 J0.0776
X1.7582 Y0.4224 Z-0.2532 I0.0582 J-0.0776
X1.6418 Y0.5776 Z-0.2638 I-0.0582 J0.0776
X1.7582 Y0.4224 Z-0.2745 I0.0582 J-0.0776
X1.6418 Y0.5776 Z-0.2851 I-0.0582 J0.0776
X1.7582 Y0.4224 Z-0.2958 I0.0582 J-0.0776
X1.6418 Y0.5776 Z-0.3064 I-0.0582 J0.0776
X1.7582 Y0.4224 Z-0.3171 I0.0582 J-0.0776
X1.6418 Y0.5776 Z-0.3277 I-0.0582 J0.0776
X1.7582 Y0.4224 Z-0.3383 I0.0582 J-0.0776
X1.6418 Y0.5776 Z-0.349 I-0.0582 J0.0776
X1.7582 Y0.4224 Z-0.3596 I0.0582 J-0.0776
X1.6418 Y0.5776 Z-0.3703 I-0.0582 J0.0776
X1.7582 Y0.4224 Z-0.3809 I0.0582 J-0.0776
X1.6418 Y0.5776 Z-0.3915 I-0.0582 J0.0776
X1.6997 Y0.403 Z-0.4 I0.0582 J-0.0776
X1.7003 Y0.597 I0.0003 J0.097 F40.
X1.6997 Y0.403 I-0.0003 J-0.097
X1.7003 Y0.597 Z-0.4106 I0.0003 J0.097 F20.
X1.6997 Y0.403 Z-0.4213 I-0.0003 J-0.097
X1.7003 Y0.597 Z-0.4319 I0.0003 J0.097
X1.6997 Y0.403 Z-0.4426 I-0.0003 J-0.097
X1.7003 Y0.597 Z-0.4532 I0.0003 J0.097
X1.6997 Y0.403 Z-0.4638 I-0.0003 J-0.097
X1.7003 Y0.597 Z-0.4745 I0.0003 J0.097
X1.6997 Y0.403 Z-0.4851 I-0.0003 J-0.097
X1.7003 Y0.597 Z-0.4958 I0.0003 J0.097
X1.6997 Y0.403 Z-0.5064 I-0.0003 J-0.097
X1.7003 Y0.597 Z-0.5171 I0.0003 J0.097
X1.6997 Y0.403 Z-0.5277 I-0.0003 J-0.097
X1.7003 Y0.597 Z-0.5383 I0.0003 J0.097
X1.6997 Y0.403 Z-0.549 I-0.0003 J-0.097
X1.7003 Y0.597 Z-0.5596 I0.0003 J0.097
X1.6997 Y0.403 Z-0.5703 I-0.0003 J-0.097
X1.7003 Y0.597 Z-0.5809 I0.0003 J0.097
X1.6997 Y0.403 Z-0.5915 I-0.0003 J-0.097
X1.7587 Y0.5773 Z-0.6 I0.0003 J0.097
X1.6413 Y0.4227 I-0.0587 J-0.0773 F40.
X1.7587 Y0.5773 I0.0587 J0.0773
X1.6413 Y0.4227 Z-0.6106 I-0.0587 J-0.0773 F20.
X1.7587 Y0.5773 Z-0.6213 I0.0587 J0.0773
X1.6413 Y0.4227 Z-0.6319 I-0.0587 J-0.0773
X1.7587 Y0.5773 Z-0.6426 I0.0587 J0.0773
X1.6413 Y0.4227 Z-0.6532 I-0.0587 J-0.0773
X1.7587 Y0.5773 Z-0.6638 I0.0587 J0.0773
X1.6413 Y0.4227 Z-0.6745 I-0.0587 J-0.0773
X1.7587 Y0.5773 Z-0.6851 I0.0587 J0.0773
X1.6413 Y0.4227 Z-0.6958 I-0.0587 J-0.0773
X1.7587 Y0.5773 Z-0.7064 I0.0587 J0.0773
X1.6413 Y0.4227 Z-0.7171 I-0.0587 J-0.0773
X1.7587 Y0.5773 Z-0.7277 I0.0587 J0.0773
X1.6413 Y0.4227 Z-0.7383 I-0.0587 J-0.0773
X1.7852 Y0.4536 Z-0.7442 I0.0587 J0.0773
X1.7332 Y0.5912 Z-0.75 I-0.0852 J0.0464
X1.6668 Y0.4088 I-0.0332 J-0.0912 F40.
X1.7332 Y0.5912 I0.0332 J0.0912
G1 X1.731 Y0.5917 Z-0.7496
X1.7287 Y0.5919 Z-0.7491
X1.7268 Y0.5916 Z-0.7478
X1.725 Y0.5911 Z-0.7465
X1.7227 Y0.59 Z-0.7427
X1.722 Y0.5895 Z-0.7382
G0 Z0.6
X2.4756 Y0.5077
Z0.2
G1 Z0.1118 F40.
X2.4762 Y0.509 Z0.106 F20.
X2.4778 Y0.5129 Z0.1017
X2.4796 Y0.5183 Z0.1
G3 X2.3713 Y0.5472 Z0.0939 I-0.0542 J0.0145
X2.4796 Y0.5183 Z0.0877 I0.0542 J-0.0145
X2.3713 Y0.5472 Z0.0816 I-0.0542 J0.0145
X2.4796 Y0.5183 Z0.0754 I0.0542 J-0.0145
X2.3713 Y0.5472 Z0.0693 I-0.0542 J0.0145
X2.4796 Y0.5183 Z0.0631 I0.0542 J-0.0145
X2.3713 Y0.5472 Z0.057 I-0.0542 J0.0145
X2.4796 Y0.5183 Z0.0508 I0.0542 J-0.0145
X2.3713 Y0.5472 Z0.0447 I-0.0542 J0.0145
X2.4796 Y0.5183 Z0.0385 I0.0542 J-0.0145
X2.3713 Y0.5472 Z0.0324 I-0.0542 J0.0145
X2.4796 Y0.5183 Z0.0262 I0.0542 J-0.0145
X2.3713 Y0.5472 Z0.0201 I-0.0542 J0.0145
X2.4796 Y0.5183 Z0.0139 I0.0542 J-0.0145
X2.3713 Y0.5472 Z0.0078 I-0.0542 J0.0145
X2.4796 Y0.5183 Z0.0016 I0.0542 J-0.0145
X2.3713 Y0.5472 Z-0.0045 I-0.0542 J0.0145
X2.4796 Y0.5183 Z-0.0107 I0.0542 J-0.0145
X2.3713 Y0.5472 Z-0.0168 I-0.0542 J0.0145
X2.4796 Y0.5183 Z-0.023 I0.0542 J-0.0145
X2.3713 Y0.5472 Z-0.0291 I-0.0542 J0.0145
X2.4796 Y0.5183 Z-0.0353 I0.0542 J-0.0145
X2.3713 Y0.5472 Z-0.0414 I-0.0542 J0.0145
X2.4796 Y0.5183 Z-0.0476 I0.0542 J-0.0145
X2.3713 Y0.5472 Z-0.0537 I-0.0542 J0.0145
X2.4796 Y0.5183 Z-0.0599 I0.0542 J-0.0145
X2.3713 Y0.5472 Z-0.066 I-0.0542 J0.0145
X2.4796 Y0.5183 Z-0.0722 I0.0542 J-0.0145
X2.3713 Y0.5472 Z-0.0783 I-0.0542 J0.0145
X2.4796 Y0.5183 Z-0.0845 I0.0542 J-0.0145
X2.3713 Y0.5472 Z-0.0906 I-0.0542 J0.0145
X2.4796 Y0.5183 Z-0.0968 I0.0542 J-0.0145
X2.3713 Y0.5472 Z-0.1029 I-0.0542 J0.0145
X2.4796 Y0.5183 Z-0.1091 I0.0542 J-0.0145
X2.3713 Y0.5472 Z-0.1152 I-0.0542 J0.0145
X2.4796 Y0.5183 Z-0.1214 I0.0542 J-0.0145
X2.3713 Y0.5472 Z-0.1275 I-0.0542 J0.0145
X2.4796 Y0.5183 Z-0.1337 I0.0542 J-0.0145
X2.3713 Y0.5472 Z-0.1398 I-0.0542 J0.0145
X2.4796 Y0.5183 Z-0.146 I0.0542 J-0.0145
X2.3713 Y0.5472 Z-0.1521 I-0.0542 J0.0145
X2.4796 Y0.5183 Z-0.1583 I0.0542 J-0.0145
X2.3713 Y0.5472 Z-0.1644 I-0.0542 J0.0145
X2.4796 Y0.5183 Z-0.1706 I0.0542 J-0.0145
X2.3713 Y0.5472 Z-0.1767 I-0.0542 J0.0145
X2.4796 Y0.5183 Z-0.1829 I0.0542 J-0.0145
X2.3713 Y0.5472 Z-0.189 I-0.0542 J0.0145
X2.4796 Y0.5183 Z-0.1952 I0.0542 J-0.0145
X2.3918 Y0.5776 Z-0.2 I-0.0542 J0.0145
X2.5082 Y0.4224 I0.0582 J-0.0776 F40.
X2.3918 Y0.5776 I-0.0582 J0.0776
X2.5082 Y0.4224 Z-0.2106 I0.0582 J-0.0776 F20.
X2.3918 Y0.5776 Z-0.2213 I-0.0582 J0.0776
X2.5082 Y0.4224 Z-0.2319 I0.0582 J-0.0776
X2.3918 Y0.5776 Z-0.2426 I-0.0582 J0.0776
X2.5082 Y0.4224 Z-0.2532 I0.0582 J-0.0776
X2.3918 Y0.5776 Z-0.2638 I-0.0582 J0.0776
X2.5082 Y0.4224 Z-0.2745 I0.0582 J-0.0776
X2.3918 Y0.5776 Z-0.2851 I-0.0582 J0.0776
X2.5082 Y0.4224 Z-0.2958 I0.0582 J-0.0776
X2.3918 Y0.5776 Z-0.3064 I-0.0582 J0.0776
X2.5082 Y0.4224 Z-0.3171 I0.0582 J-0.0776
X2.3918 Y0.5776 Z-0.3277 I-0.0582 J0.0776
X2.5082 Y0.4224 Z-0.3383 I0.0582 J-0.0776
X2.3918 Y0.5776 Z-0.349 I-0.0582 J0.0776
X2.5082 Y0.4224 Z-0.3596 I0.0582 J-0.0776
X2.3918 Y0.5776 Z-0.3703 I-0.0582 J0.0776
X2.5082 Y0.4224 Z-0.3809 I0.0582 J-0.0776
X2.3918 Y0.5776 Z-0.3915 I-0.0582 J0.0776
X2.4497 Y0.403 Z-0.4 I0.0582 J-0.0776
X2.4503 Y0.597 I0.0003 J0.097 F40.
X2.4497 Y0.403 I-0.0003 J-0.097
X2.4503 Y0.597 Z-0.4106 I0.0003 J0.097 F20.
X2.4497 Y0.403 Z-0.4213 I-0.0003 J-0.097
X2.4503 Y0.597 Z-0.4319 I0.0003 J0.097
X2.4497 Y0.403 Z-0.4426 I-0.0003 J-0.097
X2.4503 Y0.597 Z-0.4532 I0.0003 J0.097
X2.4497 Y0.403 Z-0.4638 I-0.0003 J-0.097
X2.4503 Y0.597 Z-0.4745 I0.0003 J0.097
X2.4497 Y0.403 Z-0.4851 I-0.0003 J-0.097
X2.4503 Y0.597 Z-0.4958 I0.0003 J0.097
X2.4497 Y0.403 Z-0.5064 I-0.0003 J-0.097
X2.4503 Y0.597 Z-0.5171 I0.0003 J0.097
X2.4497 Y0.403 Z-0.5277 I-0.0003 J-0.097
X2.4503 Y0.597 Z-0.5383 I0.0003 J0.097
X2.4497 Y0.403 Z-0.549 I-0.0003 J-0.097
X2.4503 Y0.597 Z-0.5596 I0.0003 J0.097
X2.4497 Y0.403 Z-0.5703 I-0.0003 J-0.097
X2.4503 Y0.597 Z-0.5809 I0.0003 J0.097
X2.4497 Y0.403 Z-0.5915 I-0.0003 J-0.097
X2.5087 Y0.5773 Z-0.6 I0.0003 J0.097
X2.3913 Y0.4227 I-0.0587 J-0.0773 F40.
X2.5087 Y0.5773 I0.0587 J0.0773
X2.3913 Y0.4227 Z-0.6106 I-0.0587 J-0.0773 F20.
X2.5087 Y0.5773 Z-0.6213 I0.0587 J0.0773
X2.3913 Y0.4227 Z-0.6319 I-0.0587 J-0.0773
X2.5087 Y0.5773 Z-0.6426 I0.0587 J0.0773
X2.3913 Y0.4227 Z-0.6532 I-0.0587 J-0.0773
X2.5087 Y0.5773 Z-0.6638 I0.0587 J0.0773
X2.3913 Y0.4227 Z-0.6745 I-0.0587 J-0.0773
X2.5087 Y0.5773 Z-0.6851 I0.0587 J0.0773
X2.3913 Y0.4227 Z-0.6958 I-0.0587 J-0.0773
X2.5087 Y0.5773 Z-0.7064 I0.0587 J0.0773
X2.3913 Y0.4227 Z-0.7171 I-0.0587 J-0.0773
X2.5087 Y0.5773 Z-0.7277 I0.0587 J0.0773
X2.3913 Y0.4227 Z-0.7383 I-0.0587 J-0.0773
X2.5352 Y0.4536 Z-0.7442 I0.0587 J0.0773
X2.4832 Y0.5912 Z-0.75 I-0.0852 J0.0464
X2.4168 Y0.4088 I-0.0332 J-0.0912 F40.
X2.4832 Y0.5912 I0.0332 J0.0912
G1 X2.481 Y0.5917 Z-0.7496
X2.4787 Y0.5919 Z-0.7491
X2.4768 Y0.5916 Z-0.7478
X2.475 Y0.5911 Z-0.7465
X2.4727 Y0.59 Z-0.7427
X2.472 Y0.5895 Z-0.7382
G0 Z0.6
X3.1355 Y0.5224
Z0.2
G1 Z0.1118 F40.
X3.134 Y0.5226 Z0.106 F20.
X3.1299 Y0.5231 Z0.1017
X3.1241 Y0.5233 Z0.1
G3 X3.1267 Y0.4112 Z0.0939 I0.0013 J-0.056
X3.1241 Y0.5233 Z0.0877 I-0.0013 J0.056
X3.1267 Y0.4112 Z0.0816 I0.0013 J-0.056
X3.1241 Y0.5233 Z0.0754 I-0.0013 J0.056
X3.1267 Y0.4112 Z0.0693 I0.0013 J-0.056
X3.1241 Y0.5233 Z0.0631 I-0.0013 J0.056
X3.1267 Y0.4112 Z0.057 I0.0013 J-0.056
X3.1241 Y0.5233 Z0.0508 I-0.0013 J0.056
X3.1267 Y0.4112 Z0.0447 I0.0013 J-0.056
X3.1241 Y0.5233 Z0.0385 I-0.0013 J0.056
X3.1267 Y0.4112 Z0.0324 I0.0013 J-0.056
X3.1241 Y0.5233 Z0.0262 I-0.0013 J0.056
X3.1267 Y0.4112 Z0.0201 I0.0013 J-0.056
X3.1241 Y0.5233 Z0.0139 I-0.0013 J0.056
X3.1267 Y0.4112 Z0.0078 I0.0013 J-0.056
X3.1241 Y0.5233 Z0.0016 I-0.0013 J0.056
X3.1267 Y0.4112 Z-0.0045 I0.0013 J-0.056
X3.1241 Y0.5233 Z-0.0107 I-0.0013 J0.056
X3.1267 Y0.4112 Z-0.0168 I0.0013 J-0.056
X3.1241 Y0.5233 Z-0.023 I-0.0013 J0.056
X3.1267 Y0.4112 Z-0.0291 I0.0013 J-0.056
X3.1241 Y0.5233 Z-0.0353 I-0.0013 J0.056
X3.1267 Y0.4112 Z-0.0414 I0.0013 J-0.056
X3.1241 Y0.5233 Z-0.0476 I-0.0013 J0.056
X3.1267 Y0.4112 Z-0.0537 I0.0013 J-0.056
X3.1241 Y0.5233 Z-0.0599 I-0.0013 J0.056
X3.1267 Y0.4112 Z-0.066 I0.0013 J-0.056
X3.1241 Y0.5233 Z-0.0722 I-0.0013 J0.056
X3.1267 Y0.4112 Z-0.0783 I0.0013 J-0.056
X3.1241 Y0.5233 Z-0.0845 I-0.0013 J0.056
X3.1267 Y0.4112 Z-0.0906 I0.0013 J-0.056
X3.1241 Y0.5233 Z-0.0968 I-0.0013 J0.056
X3.1267 Y0.4112 Z-0.1029 I0.0013 J-0.056
X3.1241 Y0.5233 Z-0.1091 I-0.0013 J0.056
X3.1267 Y0.4112 Z-0.1152 I0.0013 J-0.056
X3.1241 Y0.5233 Z-0.1214 I-0.0013 J0.056
X3.1267 Y0.4112 Z-0.1275 I0.0013 J-0.056
X3.1241 Y0.5233 Z-0.1337 I-0.0013 J0.056
X3.1267 Y0.4112 Z-0.1398 I0.0013 J-0.056
X3.1241 Y0.5233 Z-0.146 I-0.0013 J0.056
X3.1267 Y0.4112 Z-0.1521 I0.0013 J-0.056
X3.1241 Y0.5233 Z-0.1583 I-0.0013 J0.056
X3.1267 Y0.4112 Z-0.1644 I0.0013 J-0.056
X3.1241 Y0.5233 Z-0.1706 I-0.0013 J0.056
X3.1267 Y0.4112 Z-0.1767 I0.0013 J-0.056
X3.1241 Y0.5233 Z-0.1829 I-0.0013 J0.056
X3.1267 Y0.4112 Z-0.189 I0.0013 J-0.056
X3.1241 Y0.5233 Z-0.1952 I-0.0013 J0.056
X3.0918 Y0.4224 Z-0.2 I0.0013 J-0.056
X3.2082 Y0.5776 I0.0582 J0.0776 F40.
X3.0918 Y0.4224 I-0.0582 J-0.0776
X3.2082 Y0.5776 Z-0.2106 I0.0582 J0.0776 F20.
X3.0918 Y0.4224 Z-0.2213 I-0.0582 J-0.0776
X3.2082 Y0.5776 Z-0.2319 I0.0582 J0.0776
X3.0918 Y0.4224 Z-0.2426 I-0.0582 J-0.0776
X3.2082 Y0.5776 Z-0.2532 I0.0582 J0.0776
X3.0918 Y0.4224 Z-0.2638 I-0.0582 J-0.0776
X3.2082 Y0.5776 Z-0.2745 I0.0582 J0.0776
X3.0918 Y0.4224 Z-0.2851 I-0.0582 J-0.0776
X3.2082 Y0.5776 Z-0.2958 I0.0582 J0.0776
X3.0918 Y0.4224 Z-0.3064 I-0.0582 J-0.0776
X3.2082 Y0.5776 Z-0.3171 I0.0582 J0.0776
X3.0918 Y0.4224 Z-0.3277 I-0.0582 J-0.0776
X3.2082 Y0.5776 Z-0.3383 I0.0582 J0.0776
X3.0918 Y0.4224 Z-0.349 I-0.0582 J-0.0776
X3.2082 Y0.5776 Z-0.3596 I0.0582 J0.0776
X3.0918 Y0.4224 Z-0.3703 I-0.0582 J-0.0776
X3.2082 Y0.5776 Z-0.3809 I0.0582 J0.0776
X3.0918 Y0.4224 Z-0.3915 I-0.0582 J-0.0776
X3.2432 Y0.5269 Z-0.4 I0.0582 J0.0776
X3.0568 Y0.4731 I-0.0932 J-0.0269 F40.
X3.2432 Y0.5269 I0.0932 J0.0269
X3.0568 Y0.4731 Z-0.4106 I-0.0932 J-0.0269 F20.
X3.2432 Y0.5269 Z-0.4213 I0.0932 J0.0269
X3.0568 Y0.4731 Z-0.4319 I-0.0932 J-0.0269
X3.2432 Y0.5269 Z-0.4426 I0.0932 J0.0269
X3.0568 Y0.4731 Z-0.4532 I-0.0932 J-0.0269
X3.2432 Y0.5269 Z-0.4638 I0.0932 J0.0269
X3.0568 Y0.4731 Z-0.4745 I-0.0932 J-0.0269
X3.2432 Y0.5269 Z-0.4851 I0.0932 J0.0269
X3.0568 Y0.4731 Z-0.4958 I-0.0932 J-0.0269
X3.2432 Y0.5269 Z-0.5064 I0.0932 J0.0269
X3.0568 Y0.4731 Z-0.5171 I-0.0932 J-0.0269
X3.2432 Y0.5269 Z-0.5277 I0.0932 J0.0269
X3.0568 Y0.4731 Z-0.5383 I-0.0932 J-0.0269
X3.2432 Y0.5269 Z-0.549 I0.0932 J0.0269
X3.0568 Y0.4731 Z-0.5596 I-0.0932 J-0.0269
X3.2432 Y0.5269 Z-0.5703 I0.0932 J0.0269
X3.0568 Y0.4731 Z-0.5809 I-0.0932 J-0.0269
X3.2432 Y0.5269 Z-0.5915 I0.0932 J0.0269
X3.0594 Y0.5347 Z-0.6 I-0.0932 J-0.0269
X3.2406 Y0.4653 I0.0906 J-0.0347 F40.
X3.0594 Y0.5347 I-0.0906 J0.0347
X3.2406 Y0.4653 Z-0.6106 I0.0906 J-0.0347 F20.
X3.0594 Y0.5347 Z-0.6213 I-0.0906 J0.0347
X3.2406 Y0.4653 Z-0.6319 I0.0906 J-0.0347
X3.0594 Y0.5347 Z-0.6426 I-0.0906 J0.0347
X3.2406 Y0.4653 Z-0.6532 I0.0906 J-0.0347
X3.0594 Y0.5347 Z-0.6638 I-0.0906 J0.0347
X3.2406 Y0.4653 Z-0.6745 I0.0906 J-0.0347
X3.0594 Y0.5347 Z-0.6851 I-0.0906 J0.0347
X3.2406 Y0.4653 Z-0.6958 I0.0906 J-0.0347
X3.0594 Y0.5347 Z-0.7064 I-0.0906 J0.0347
X3.2406 Y0.4653 Z-0.7171 I0.0906 J-0.0347
X3.0594 Y0.5347 Z-0.7277 I-0.0906 J0.0347
X3.2406 Y0.4653 Z-0.7383 I0.0906 J-0.0347
X3.1707 Y0.5948 Z-0.7442 I-0.0906 J0.0347
X3.0532 Y0.5063 Z-0.75 I-0.0207 J-0.0948
X3.2468 Y0.4937 I0.0968 J-0.0063 F40.
X3.0532 Y0.5063 I-0.0968 J0.0063
G1 X3.0533 Y0.504 Z-0.7496
X3.0538 Y0.5018 Z-0.7491
X3.0545 Y0.5001 Z-0.7478
X3.0555 Y0.4985 Z-0.7465
X3.0573 Y0.4966 Z-0.7427
X3.058 Y0.496 Z-0.7382
G0 Z0.6
X3.925 Y0.4908
Z0.2
G1 Z0.1118 F40.
X3.9264 Y0.4915 Z0.106 F20.
X3.93 Y0.4936 Z0.1017
X3.9346 Y0.4969 Z0.1
G3 X3.8653 Y0.585 Z0.0939 I-0.0346 J0.0441
X3.9346 Y0.4969 Z0.0877 I0.0346 J-0.0441
X3.8653 Y0.585 Z0.0816 I-0.0346 J0.0441
X3.9346 Y0.4969 Z0.0754 I0.0346 J-0.0441
X3.8653 Y0.585 Z0.0693 I-0.0346 J0.0441
X3.9346 Y0.4969 Z0.0631 I0.0346 J-0.0441
X3.8653 Y0.585 Z0.057 I-0.0346 J0.0441
X3.9346 Y0.4969 Z0.0508 I0.0346 J-0.0441
X3.8653 Y0.585 Z0.0447 I-0.0346 J0.0441
X3.9346 Y0.4969 Z0.0385 I0.0346 J-0.0441
X3.8653 Y0.585 Z0.0324 I-0.0346 J0.0441
X3.9346 Y0.4969 Z0.0262 I0.0346 J-0.0441
X3.8653 Y0.585 Z0.0201 I-0.0346 J0.0441
X3.9346 Y0.4969 Z0.0139 I0.0346 J-0.0441
X3.8653 Y0.585 Z0.0078 I-0.0346 J0.0441
X3.9346 Y0.4969 Z0.0016 I0.0346 J-0.0441
X3.8653 Y0.585 Z-0.0045 I-0.0346 J0.0441
X3.9346 Y0.4969 Z-0.0107 I0.0346 J-0.0441
X3.8653 Y0.585 Z-0.0168 I-0.0346 J0.0441
X3.9346 Y0.4969 Z-0.023 I0.0346 J-0.0441
X3.8653 Y0.585 Z-0.0291 I-0.0346 J0.0441
X3.9346 Y0.4969 Z-0.0353 I0.0346 J-0.0441
X3.8653 Y0.585 Z-0.0414 I-0.0346 J0.0441
X3.9346 Y0.4969 Z-0.0476 I0.0346 J-0.0441
X3.8653 Y0.585 Z-0.0537 I-0.0346 J0.0441
X3.9346 Y0.4969 Z-0.0599 I0.0346 J-0.0441
X3.8653 Y0.585 Z-0.066 I-0.0346 J0.0441
X3.9346 Y0.4969 Z-0.0722 I0.0346 J-0.0441
X3.8653 Y0.585 Z-0.0783 I-0.0346 J0.0441
X3.9346 Y0.4969 Z-0.0845 I0.0346 J-0.0441
X3.8653 Y0.585 Z-0.0906 I-0.0346 J0.0441
X3.9346 Y0.4969 Z-0.0968 I0.0346 J-0.0441
X3.8653 Y0.585 Z-0.1029 I-0.0346 J0.0441
X3.9346 Y0.4969 Z-0.1091 I0.0346 J-0.0441
X3.8653 Y0.585 Z-0.1152 I-0.0346 J0.0441
X3.9346 Y0.4969 Z-0.1214 I0.0346 J-0.0441
X3.8653 Y0.585 Z-0.1275 I-0.0346 J0.0441
X3.9346 Y0.4969 Z-0.1337 I0.0346 J-0.0441
X3.8653 Y0.585 Z-0.1398 I-0.0346 J0.0441
X3.9346 Y0.4969 Z-0.146 I0.0346 J-0.0441
X3.8653 Y0.585 Z-0.1521 I-0.0346 J0.0441
X3.9346 Y0.4969 Z-0.1583 I0.0346 J-0.0441
X3.8653 Y0.585 Z-0.1644 I-0.0346 J0.0441
X3.9346 Y0.4969 Z-0.1706 I0.0346 J-0.0441
X3.8653 Y0.585 Z-0.1767 I-0.0346 J0.0441
X3.9346 Y0.4969 Z-0.1829 I0.0346 J-0.0441
X3.8653 Y0.585 Z-0.189 I-0.0346 J0.0441
X3.9346 Y0.4969 Z-0.1952 I0.0346 J-0.0441
X3.9 Y0.597 Z-0.2 I-0.0346 J0.0441
X3.803 Y0.5 I0. J-0.097 F40.
X3.997 I0.097 J0.
X3.9 Y0.597 I-0.097 J0.
X3.803 Y0.5 Z-0.2053 I0. J-0.097 F20.
X3.997 Z-0.216 I0.097 J0.
X3.803 Z-0.2266 I-0.097 J0.
X3.997 Z-0.2372 I0.097 J0.
X3.803 Z-0.2479 I-0.097 J0.
X3.997 Z-0.2585 I0.097 J0.
X3.803 Z-0.2692 I-0.097 J0.
X3.997 Z-0.2798 I0.097 J0.
X3.803 Z-0.2904 I-0.097 J0.
X3.997 Z-0.3011 I0.097 J0.
X3.803 Z-0.3117 I-0.097 J0.
X3.997 Z-0.3224 I0.097 J0.
X3.803 Z-0.333 I-0.097 J0.
X3.997 Z-0.3436 I0.097 J0.
X3.803 Z-0.3543 I-0.097 J0.
X3.997 Z-0.3649 I0.097 J0.
X3.803 Z-0.3756 I-0.097 J0.
X3.997 Z-0.3862 I0.097 J0.
X3.803 Z-0.3968 I-0.097 J0.
X3.8422 Y0.4221 Z-0.4 I0.097 J0.
X3.997 Y0.5 I0.0578 J0.0779 F40.
X3.803 I-0.097 J0.
X3.8422 Y0.4221 I0.097 J0.
X3.997 Y0.5 Z-0.4075 I0.0578 J0.0779 F20.
X3.803 Z-0.4181 I-0.097 J0.
X3.997 Z-0.4288 I0.097 J0.
X3.803 Z-0.4394 I-0.097 J0.
X3.997 Z-0.45 I0.097 J0.
X3.803 Z-0.4607 I-0.097 J0.
X3.997 Z-0.4713 I0.097 J0.
X3.803 Z-0.482 I-0.097 J0.
X3.997 Z-0.4926 I0.097 J0.
X3.803 Z-0.5032 I-0.097 J0.
X3.997 Z-0.5139 I0.097 J0.
X3.803 Z-0.5245 I-0.097 J0.
X3.997 Z-0.5352 I0.097 J0.
X3.803 Z-0.5458 I-0.097 J0.
X3.997 Z-0.5564 I0.097 J0.
X3.803 Z-0.5671 I-0.097 J0.
X3.997 Z-0.5777 I0.097 J0.
X3.803 Z-0.5884 I-0.097 J0.
X3.997 Z-0.599 I0.097 J0.
X3.9928 Y0.5281 Z-0.6 I-0.097 J0.
X3.803 Y0.5 I-0.0928 J-0.0281 F40.
X3.997 I0.097 J0.
X3.9928 Y0.5281 I-0.097 J0.
X3.803 Y0.5 Z-0.6096 I-0.0928 J-0.0281 F20.
X3.997 Z-0.6203 I0.097 J0.
X3.803 Z-0.6309 I-0.097 J0.
X3.997 Z-0.6416 I0.097 J0.
X3.803 Z-0.6522 I-0.097 J0.
X3.997 Z-0.6628 I0.097 J0.
X3.803 Z-0.6735 I-0.097 J0.
X3.997 Z-0.6841 I0.097 J0.
X3.803 Z-0.6948 I-0.097 J0.
X3.997 Z-0.7054 I0.097 J0.
X3.803 Z-0.716 I-0.097 J0.
X3.997 Z-0.7267 I0.097 J0.
X3.803 Z-0.7373 I-0.097 J0.
X3.997 Z-0.748 I0.097 J0.
X3.98 Y0.5548 Z-0.75 I-0.097 J0.
X3.803 Y0.5 I-0.08 J-0.0548 F40.
X3.997 I0.097 J0.
X3.98 Y0.5548 I-0.097 J0.
G1 X3.9786 Y0.5565 Z-0.7496
X3.9768 Y0.5579 Z-0.7491
X3.9752 Y0.5589 Z-0.7478
X3.9734 Y0.5595 Z-0.7465
X3.9708 Y0.5599 Z-0.7427
X3.97 Z-0.7382
G0 Z0.6
X3.1355 Y1.7224
Z0.2
G1 Z0.1118 F40.
X3.134 Y1.7226 Z0.106 F20.
X3.1299 Y1.7231 Z0.1017
X3.1241 Y1.7233 Z0.1
G3 X3.1267 Y1.6112 Z0.0939 I0.0013 J-0.056
X3.1241 Y1.7233 Z0.0877 I-0.0013 J0.056
X3.1267 Y1.6112 Z0.0816 I0.0013 J-0.056
X3.1241 Y1.7233 Z0.0754 I-0.0013 J0.056
X3.1267 Y1.6112 Z0.0693 I0.0013 J-0.056
X3.1241 Y1.7233 Z0.0631 I-0.0013 J0.056
X3.1267 Y1.6112 Z0.057 I0.0013 J-0.056
X3.1241 Y1.7233 Z0.0508 I-0.0013 J0.056
X3.1267 Y1.6112 Z0.0447 I0.0013 J-0.056
X3.1241 Y1.7233 Z0.0385 I-0.0013 J0.056
X3.1267 Y1.6112 Z0.0324 I0.0013 J-0.056
X3.1241 Y1.7233 Z0.0262 I-0.0013 J0.056
X3.1267 Y1.6112 Z0.0201 I0.0013 J-0.056
X3.1241 Y1.7233 Z0.0139 I-0.0013 J0.056
X3.1267 Y1.6112 Z0.0078 I0.0013 J-0.056
X3.1241 Y1.7233 Z0.0016 I-0.0013 J0.056
X3.1267 Y1.6112 Z-0.0045 I0.0013 J-0.056
X3.1241 Y1.7233 Z-0.0107 I-0.0013 J0.056
X3.1267 Y1.6112 Z-0.0168 I0.0013 J-0.056
X3.1241 Y1.7233 Z-0.023 I-0.0013 J0.056
X3.1267 Y1.6112 Z-0.0291 I0.0013 J-0.056
X3.1241 Y1.7233 Z-0.0353 I-0.0013 J0.056
X3.1267 Y1.6112 Z-0.0414 I0.0013 J-0.056
X3.1241 Y1.7233 Z-0.0476 I-0.0013 J0.056
X3.1267 Y1.6112 Z-0.0537 I0.0013 J-0.056
X3.1241 Y1.7233 Z-0.0599 I-0.0013 J0.056
X3.1267 Y1.6112 Z-0.066 I0.0013 J-0.056
X3.1241 Y1.7233 Z-0.0722 I-0.0013 J0.056
X3.1267 Y1.6112 Z-0.0783 I0.0013 J-0.056
X3.1241 Y1.7233 Z-0.0845 I-0.0013 J0.056
X3.1267 Y1.6112 Z-0.0906 I0.0013 J-0.056
X3.1241 Y1.7233 Z-0.0968 I-0.0013 J0.056
X3.1267 Y1.6112 Z-0.1029 I0.0013 J-0.056
X3.1241 Y1.7233 Z-0.1091 I-0.0013 J0.056
X3.1267 Y1.6112 Z-0.1152 I0.0013 J-0.056
X3.1241 Y1.7233 Z-0.1214 I-0.0013 J0.056
X3.1267 Y1.6112 Z-0.1275 I0.0013 J-0.056
X3.1241 Y1.7233 Z-0.1337 I-0.0013 J0.056
X3.1267 Y1.6112 Z-0.1398 I0.0013 J-0.056
X3.1241 Y1.7233 Z-0.146 I-0.0013 J0.056
X3.1267 Y1.6112 Z-0.1521 I0.0013 J-0.056
X3.1241 Y1.7233 Z-0.1583 I-0.0013 J0.056
X3.1267 Y1.6112 Z-0.1644 I0.0013 J-0.056
X3.1241 Y1.7233 Z-0.1706 I-0.0013 J0.056
X3.1267 Y1.6112 Z-0.1767 I0.0013 J-0.056
X3.1241 Y1.7233 Z-0.1829 I-0.0013 J0.056
X3.1267 Y1.6112 Z-0.189 I0.0013 J-0.056
X3.1241 Y1.7233 Z-0.1952 I-0.0013 J0.056
X3.0918 Y1.6224 Z-0.2 I0.0013 J-0.056
X3.2082 Y1.7776 I0.0582 J0.0776 F40.
X3.0918 Y1.6224 I-0.0582 J-0.0776
X3.2082 Y1.7776 Z-0.2106 I0.0582 J0.0776 F20.
X3.0918 Y1.6224 Z-0.2213 I-0.0582 J-0.0776
X3.2082 Y1.7776 Z-0.2319 I0.0582 J0.0776
X3.0918 Y1.6224 Z-0.2426 I-0.0582 J-0.0776
X3.2082 Y1.7776 Z-0.2532 I0.0582 J0.0776
X3.0918 Y1.6224 Z-0.2638 I-0.0582 J-0.0776
X3.2082 Y1.7776 Z-0.2745 I0.0582 J0.0776
X3.0918 Y1.6224 Z-0.2851 I-0.0582 J-0.0776
X3.2082 Y1.7776 Z-0.2958 I0.0582 J0.0776
X3.0918 Y1.6224 Z-0.3064 I-0.0582 J-0.0776
X3.2082 Y1.7776 Z-0.3171 I0.0582 J0.0776
X3.0918 Y1.6224 Z-0.3277 I-0.0582 J-0.0776
X3.2082 Y1.7776 Z-0.3383 I0.0582 J0.0776
X3.0918 Y1.6224 Z-0.349 I-0.0582 J-0.0776
X3.2082 Y1.7776 Z-0.3596 I0.0582 J0.0776
X3.0918 Y1.6224 Z-0.3703 I-0.0582 J-0.0776
X3.2082 Y1.7776 Z-0.3809 I0.0582 J0.0776
X3.0918 Y1.6224 Z-0.3915 I-0.0582 J-0.0776
X3.2432 Y1.7269 Z-0.4 I0.0582 J0.0776
X3.0568 Y1.6731 I-0.0932 J-0.0269 F40.
X3.2432 Y1.7269 I0.0932 J0.0269
X3.0568 Y1.6731 Z-0.4106 I-0.0932 J-0.0269 F20.
X3.2432 Y1.7269 Z-0.4213 I0.0932 J0.0269
X3.0568 Y1.6731 Z-0.4319 I-0.0932 J-0.0269
X3.2432 Y1.7269 Z-0.4426 I0.0932 J0.0269
X3.0568 Y1.6731 Z-0.4532 I-0.0932 J-0.0269
X3.2432 Y1.7269 Z-0.4638 I0.0932 J0.0269
X3.0568 Y1.6731 Z-0.4745 I-0.0932 J-0.0269
X3.2432 Y1.7269 Z-0.4851 I0.0932 J0.0269
X3.0568 Y1.6731 Z-0.4958 I-0.0932 J-0.0269
X3.2432 Y1.7269 Z-0.5064 I0.0932 J0.0269
X3.0568 Y1.6731 Z-0.5171 I-0.0932 J-0.0269
X3.2432 Y1.7269 Z-0.5277 I0.0932 J0.0269
X3.0568 Y1.6731 Z-0.5383 I-0.0932 J-0.0269
X3.2432 Y1.7269 Z-0.549 I0.0932 J0.0269
X3.0568 Y1.6731 Z-0.5596 I-0.0932 J-0.0269
X3.2432 Y1.7269 Z-0.5703 I0.0932 J0.0269
X3.0568 Y1.6731 Z-0.5809 I-0.0932 J-0.0269
X3.2432 Y1.7269 Z-0.5915 I0.0932 J0.0269
X3.0594 Y1.7347 Z-0.6 I-0.0932 J-0.0269
X3.2406 Y1.6653 I0.0906 J-0.0347 F40.
X3.0594 Y1.7347 I-0.0906 J0.0347
X3.2406 Y1.6653 Z-0.6106 I0.0906 J-0.0347 F20.
X3.0594 Y1.7347 Z-0.6213 I-0.0906 J0.0347
X3.2406 Y1.6653 Z-0.6319 I0.0906 J-0.0347
X3.0594 Y1.7347 Z-0.6426 I-0.0906 J0.0347
X3.2406 Y1.6653 Z-0.6532 I0.0906 J-0.0347
X3.0594 Y1.7347 Z-0.6638 I-0.0906 J0.0347
X3.2406 Y1.6653 Z-0.6745 I0.0906 J-0.0347
X3.0594 Y1.7347 Z-0.6851 I-0.0906 J0.0347
X3.2406 Y1.6653 Z-0.6958 I0.0906 J-0.0347
X3.0594 Y1.7347 Z-0.7064 I-0.0906 J0.0347
X3.2406 Y1.6653 Z-0.7171 I0.0906 J-0.0347
X3.0594 Y1.7347 Z-0.7277 I-0.0906 J0.0347
X3.2406 Y1.6653 Z-0.7383 I0.0906 J-0.0347
X3.1707 Y1.7948 Z-0.7442 I-0.0906 J0.0347
X3.0532 Y1.7063 Z-0.75 I-0.0207 J-0.0948
X3.2468 Y1.6937 I0.0968 J-0.0063 F40.
X3.0532 Y1.7063 I-0.0968 J0.0063
G1 X3.0533 Y1.704 Z-0.7496
X3.0538 Y1.7018 Z-0.7491
X3.0545 Y1.7001 Z-0.7478
X3.0555 Y1.6985 Z-0.7465
X3.0573 Y1.6966 Z-0.7427
X3.058 Y1.696 Z-0.7382
G0 Z0.6
X3.8749 Y1.7092
Z0.2
G1 Z0.1118 F40.
X3.8736 Y1.7085 Z0.106 F20.
X3.87 Y1.7064 Z0.1017
X3.8653 Y1.7031 Z0.1
G3 X3.9346 Y1.615 Z0.0939 I0.0346 J-0.0441
X3.8653 Y1.7031 Z0.0877 I-0.0346 J0.0441
X3.9346 Y1.615 Z0.0816 I0.0346 J-0.0441
X3.8653 Y1.7031 Z0.0754 I-0.0346 J0.0441
X3.9346 Y1.615 Z0.0693 I0.0346 J-0.0441
X3.8653 Y1.7031 Z0.0631 I-0.0346 J0.0441
X3.9346 Y1.615 Z0.057 I0.0346 J-0.0441
X3.8653 Y1.7031 Z0.0508 I-0.0346 J0.0441
X3.9346 Y1.615 Z0.0447 I0.0346 J-0.0441
X3.8653 Y1.7031 Z0.0385 I-0.0346 J0.0441
X3.9346 Y1.615 Z0.0324 I0.0346 J-0.0441
X3.8653 Y1.7031 Z0.0262 I-0.0346 J0.0441
X3.9346 Y1.615 Z0.0201 I0.0346 J-0.0441
X3.8653 Y1.7031 Z0.0139 I-0.0346 J0.0441
X3.9346 Y1.615 Z0.0078 I0.0346 J-0.0441
X3.8653 Y1.7031 Z0.0016 I-0.0346 J0.0441
X3.9346 Y1.615 Z-0.0045 I0.0346 J-0.0441
X3.8653 Y1.7031 Z-0.0107 I-0.0346 J0.0441
X3.9346 Y1.615 Z-0.0168 I0.0346 J-0.0441
X3.8653 Y1.7031 Z-0.023 I-0.0346 J0.0441
X3.9346 Y1.615 Z-0.0291 I0.0346 J-0.0441
X3.8653 Y1.7031 Z-0.0353 I-0.0346 J0.0441
X3.9346 Y1.615 Z-0.0414 I0.0346 J-0.0441
X3.8653 Y1.7031 Z-0.0476 I-0.0346 J0.0441
X3.9346 Y1.615 Z-0.0537 I0.0346 J-0.0441
X3.8653 Y1.7031 Z-0.0599 I-0.0346 J0.0441
X3.9346 Y1.615 Z-0.066 I0.0346 J-0.0441
X3.8653 Y1.7031 Z-0.0722 I-0.0346 J0.0441
X3.9346 Y1.615 Z-0.0783 I0.0346 J-0.0441
X3.8653 Y1.7031 Z-0.0845 I-0.0346 J0.0441
X3.9346 Y1.615 Z-0.0906 I0.0346 J-0.0441
X3.8653 Y1.7031 Z-0.0968 I-0.0346 J0.0441
X3.9346 Y1.615 Z-0.1029 I0.0346 J-0.0441
X3.8653 Y1.7031 Z-0.1091 I-0.0346 J0.0441
X3.9346 Y1.615 Z-0.1152 I0.0346 J-0.0441
X3.8653 Y1.7031 Z-0.1214 I-0.0346 J0.0441
X3.9346 Y1.615 Z-0.1275 I0.0346 J-0.0441
X3.8653 Y1.7031 Z-0.1337 I-0.0346 J0.0441
X3.9346 Y1.615 Z-0.1398 I0.0346 J-0.0441
X3.8653 Y1.7031 Z-0.146 I-0.0346 J0.0441
X3.9346 Y1.615 Z-0.1521 I0.0346 J-0.0441
X3.8653 Y1.7031 Z-0.1583 I-0.0346 J0.0441
X3.9346 Y1.615 Z-0.1644 I0.0346 J-0.0441
X3.8653 Y1.7031 Z-0.1706 I-0.0346 J0.0441
X3.9346 Y1.615 Z-0.1767 I0.0346 J-0.0441
X3.8653 Y1.7031 Z-0.1829 I-0.0346 J0.0441
X3.9346 Y1.615 Z-0.189 I0.0346 J-0.0441
X3.8653 Y1.7031 Z-0.1952 I-0.0346 J0.0441
X3.9 Y1.603 Z-0.2 I0.0346 J-0.0441
X3.997 Y1.7 I0. J0.097 F40.
X3.803 I-0.097 J0.
X3.9 Y1.603 I0.097 J0.
X3.997 Y1.7 Z-0.2053 I0. J0.097 F20.
X3.803 Z-0.216 I-0.097 J0.
X3.997 Z-0.2266 I0.097 J0.
X3.803 Z-0.2372 I-0.097 J0.
X3.997 Z-0.2479 I0.097 J0.
X3.803 Z-0.2585 I-0.097 J0.
X3.997 Z-0.2692 I0.097 J0.
X3.803 Z-0.2798 I-0.097 J0.
X3.997 Z-0.2904 I0.097 J0.
X3.803 Z-0.3011 I-0.097 J0.
X3.997 Z-0.3117 I0.097 J0.
X3.803 Z-0.3224 I-0.097 J0.
X3.997 Z-0.333 I0.097 J0.
X3.803 Z-0.3436 I-0.097 J0.
X3.997 Z-0.3543 I0.097 J0.
X3.803 Z-0.3649 I-0.097 J0.
X3.997 Z-0.3756 I0.097 J0.
X3.803 Z-0.3862 I-0.097 J0.
X3.997 Z-0.3968 I0.097 J0.
X3.9578 Y1.7779 Z-0.4 I-0.097 J0.
X3.803 Y1.7 I-0.0578 J-0.0779 F40.
X3.997 I0.097 J0.
X3.9578 Y1.7779 I-0.097 J0.
X3.803 Y1.7 Z-0.4075 I-0.0578 J-0.0779 F20.
X3.997 Z-0.4181 I0.097 J0.
X3.803 Z-0.4288 I-0.097 J0.
X3.997 Z-0.4394 I0.097 J0.
X3.803 Z-0.45 I-0.097 J0.
X3.997 Z-0.4607 I0.097 J0.
X3.803 Z-0.4713 I-0.097 J0.
X3.997 Z-0.482 I0.097 J0.
X3.803 Z-0.4926 I-0.097 J0.
X3.997 Z-0.5032 I0.097 J0.
X3.803 Z-0.5139 I-0.097 J0.
X3.997 Z-0.5245 I0.097 J0.
X3.803 Z-0.5352 I-0.097 J0.
X3.997 Z-0.5458 I0.097 J0.
X3.803 Z-0.5564 I-0.097 J0.
X3.997 Z-0.5671 I0.097 J0.
X3.803 Z-0.5777 I-0.097 J0.
X3.997 Z-0.5884 I0.097 J0.
X3.803 Z-0.599 I-0.097 J0.
X3.8072 Y1.6719 Z-0.6 I0.097 J0.
X3.997 Y1.7 I0.0928 J0.0281 F40.
X3.803 I-0.097 J0.
X3.8072 Y1.6719 I0.097 J0.
X3.997 Y1.7 Z-0.6096 I0.0928 J0.0281 F20.
X3.803 Z-0.6203 I-0.097 J0.
X3.997 Z-0.6309 I0.097 J0.
X3.803 Z-0.6416 I-0.097 J0.
X3.997 Z-0.6522 I0.097 J0.
X3.803 Z-0.6628 I-0.097 J0.
X3.997 Z-0.6735 I0.097 J0.
X3.803 Z-0.6841 I-0.097 J0.
X3.997 Z-0.6948 I0.097 J0.
X3.803 Z-0.7054 I-0.097 J0.
X3.997 Z-0.716 I0.097 J0.
X3.803 Z-0.7267 I-0.097 J0.
X3.997 Z-0.7373 I0.097 J0.
X3.803 Z-0.748 I-0.097 J0.
X3.8199 Y1.6452 Z-0.75 I0.097 J0.
X3.997 Y1.7 I0.08 J0.0548 F40.
X3.803 I-0.097 J0.
X3.8199 Y1.6452 I0.097 J0.
G1 X3.8214 Y1.6435 Z-0.7496
X3.8231 Y1.6421 Z-0.7491
X3.8248 Y1.6411 Z-0.7478
X3.8266 Y1.6405 Z-0.7465
X3.8291 Y1.6401 Z-0.7427
X3.83 Z-0.7382
G0 Z0.6

M9
M30
