(DRILPRESSTABLEPOCKETS)
(T3  D=0.118 CR=0. - ZMIN=-0.48 - FLAT END MILL)
G90 G94 G91.1 G40 G49 G17
G20

(2D POCKET4)
G0 X0. Y0. Z0.6
M5
T3 M6
S15000 M3
G4 P5.
G54
M8
G0 X5.8822 Y10.9901
G43 Z0.6 H3
Z-0.05
G1 Z-0.15 F40.
Z-0.4682 F20.
X5.8829 Y10.9906 Z-0.4727
X5.8848 Y10.9923 Z-0.4765
X5.8859 Y10.9939 Z-0.4778
X5.8867 Y10.9956 Z-0.4791
X5.8874 Y10.9978 Z-0.4796
X5.8876 Y11. Z-0.48
Y11.0032 F40.
G3 X5.8782 Y11.0126 I-0.0094 J0.
G1 X5.8718
G3 X5.8624 Y11.0032 I0. J-0.0094
G1 Y10.9968
G3 X5.8718 Y10.9874 I0.0094 J0.
G1 X5.8782
G3 X5.8876 Y10.9968 I0. J0.0094
G1 Y11.
G2 X5.916 Y11.0509 I0.0597 J0.
G3 X5.9002 Y11.107 I-0.0159 J0.0258
G1 X5.768
Y10.893
X5.982
Y11.107
X5.9002
X5.8979 Y11.1068 Z-0.4796
X5.8958 Y11.1061 Z-0.4791
X5.894 Y11.1053 Z-0.4778
X5.8925 Y11.1042 Z-0.4765
X5.8907 Y11.1023 Z-0.4727
X5.8902 Y11.1016 Z-0.4682
G0 Z0.2
X5.8678 Y13.0099
Z-0.05
G1 Z-0.15 F20.
Z-0.4682
X5.8671 Y13.0094 Z-0.4727
X5.8652 Y13.0077 Z-0.4765
X5.8641 Y13.0061 Z-0.4778
X5.8633 Y13.0044 Z-0.4791
X5.8626 Y13.0022 Z-0.4796
X5.8624 Y13. Z-0.48
Y12.9968 F40.
G3 X5.8718 Y12.9874 I0.0094 J0.
G1 X5.8782
G3 X5.8876 Y12.9968 I0. J0.0094
G1 Y13.0032
G3 X5.8782 Y13.0126 I-0.0094 J0.
G1 X5.8718
G3 X5.8624 Y13.0032 I0. J-0.0094
G1 Y13.
G2 X5.834 Y12.9491 I-0.0597 J0.
G3 X5.8498 Y12.893 I0.0159 J-0.0258
G1 X5.982
Y13.107
X5.768
Y12.893
X5.8498
X5.8521 Y12.8932 Z-0.4796
X5.8542 Y12.8939 Z-0.4791
X5.856 Y12.8947 Z-0.4778
X5.8575 Y12.8958 Z-0.4765
X5.8593 Y12.8977 Z-0.4727
X5.8598 Y12.8984 Z-0.4682
G0 Z0.8
G0 x0 y0
M9
M30
