(X8 BEARING TEST HOLES)
(T3  D=0.118 CR=0. - ZMIN=-0.13 - FLAT END MILL)
G90 G94 G91.1 G40 G49 G17
G20

(2D POCKET1)
M5
T3 M6
S15000 M3
G54
M8
G0 X1.0009 Y2.5675
G43 Z0.64 H3
Z0.24
G1 Z0.1518 F30.
X0.9994 Y2.5679 Z0.146 F20.
X0.9953 Y2.5686 Z0.1417
X0.9896 Y2.5692 Z0.14
G3 X0.9843 Y2.4572 Z0.1339 I-0.0027 J-0.056
X0.9896 Y2.5692 Z0.1277 I0.0027 J0.056
X0.9843 Y2.4572 Z0.1216 I-0.0027 J-0.056
X0.9896 Y2.5692 Z0.1154 I0.0027 J0.056
X0.9843 Y2.4572 Z0.1093 I-0.0027 J-0.056
X0.9896 Y2.5692 Z0.1031 I0.0027 J0.056
X0.9843 Y2.4572 Z0.097 I-0.0027 J-0.056
X0.9896 Y2.5692 Z0.0908 I0.0027 J0.056
X0.9843 Y2.4572 Z0.0847 I-0.0027 J-0.056
X0.9896 Y2.5692 Z0.0785 I0.0027 J0.056
X0.9843 Y2.4572 Z0.0724 I-0.0027 J-0.056
X0.9896 Y2.5692 Z0.0662 I0.0027 J0.056
X0.9843 Y2.4572 Z0.0601 I-0.0027 J-0.056
X0.9896 Y2.5692 Z0.0539 I0.0027 J0.056
X0.9843 Y2.4572 Z0.0478 I-0.0027 J-0.056
X0.9896 Y2.5692 Z0.0416 I0.0027 J0.056
X0.9843 Y2.4572 Z0.0355 I-0.0027 J-0.056
X0.9896 Y2.5692 Z0.0293 I0.0027 J0.056
X0.9843 Y2.4572 Z0.0232 I-0.0027 J-0.056
X1.043 Y2.5132 Z0.02 I0.0027 J0.056
X0.9378 I-0.0526 J0. F30.
X1.1551 I0.1087 J0.
X0.8257 I-0.1647 J0.
X1.2672 I0.2207 J0.
X0.7136 I-0.2768 J0.
X1.3793 I0.3329 J0.
X0.6015 I-0.3889 J0.
X1.4914 I0.445 J0.
X0.4894 I-0.501 J0.
X1.4914 I0.501 J0.
G1 X1.4912 Y2.5149
X1.4905 Y2.5164
X1.4894 Y2.5177
X1.488 Y2.5186
X1.4864 Y2.5191
X1.4847
X1.1973 Y2.4801
X1.1958 Y2.48
X1.1943 Y2.4802
X0.9535 Y2.5546
X0.952 Y2.5549
X0.9504 Y2.5547
X0.9489 Y2.5541
X0.9476 Y2.5532
G3 X1.0263 Y2.4733 Z0.0139 I0.0393 J-0.0399 F20.
X0.9476 Y2.5532 Z0.0077 I-0.0393 J0.0399
X1.0263 Y2.4733 Z0.0016 I0.0393 J-0.0399
X1.043 Y2.5132 Z0. I-0.0393 J0.0399
X0.9378 I-0.0526 J0. F30.
X1.1551 I0.1087 J0.
X0.8257 I-0.1647 J0.
X1.2672 I0.2207 J0.
X0.7136 I-0.2768 J0.
X1.3793 I0.3329 J0.
X0.6015 I-0.3889 J0.
X1.4914 I0.445 J0.
X0.4894 I-0.501 J0.
X1.4914 I0.501 J0.
G1 X1.4912 Y2.5149
X1.4905 Y2.5164
X1.4894 Y2.5177
X1.488 Y2.5186
X1.4864 Y2.5191
X1.4847
X1.1973 Y2.4801
X1.1958 Y2.48
X1.1943 Y2.4802
X0.9535 Y2.5546
X0.952 Y2.5549
X0.9504 Y2.5547
X0.9489 Y2.5541
X0.9476 Y2.5532
G3 X1.0263 Y2.4733 Z-0.0061 I0.0393 J-0.0399 F20.
X0.9476 Y2.5532 Z-0.0123 I-0.0393 J0.0399
X1.0263 Y2.4733 Z-0.0184 I0.0393 J-0.0399
X1.043 Y2.5132 Z-0.02 I-0.0393 J0.0399
X0.9378 I-0.0526 J0. F30.
X1.1551 I0.1087 J0.
X0.8257 I-0.1647 J0.
X1.2672 I0.2207 J0.
X0.7136 I-0.2768 J0.
X1.3793 I0.3329 J0.
X0.6015 I-0.3889 J0.
X1.4914 I0.445 J0.
X0.4894 I-0.501 J0.
X1.4914 I0.501 J0.
G1 X1.4912 Y2.5149
X1.4905 Y2.5164
X1.4894 Y2.5177
X1.488 Y2.5186
X1.4864 Y2.5191
X1.4847
X1.1973 Y2.4801
X1.1958 Y2.48
X1.1943 Y2.4802
X0.9535 Y2.5546
X0.952 Y2.5549
X0.9504 Y2.5547
X0.9489 Y2.5541
X0.9476 Y2.5532
G3 X1.0263 Y2.4733 Z-0.0261 I0.0393 J-0.0399 F20.
X0.9476 Y2.5532 Z-0.0323 I-0.0393 J0.0399
X1.0263 Y2.4733 Z-0.0384 I0.0393 J-0.0399
X1.043 Y2.5132 Z-0.04 I-0.0393 J0.0399
X0.9378 I-0.0526 J0. F30.
X1.1551 I0.1087 J0.
X0.8257 I-0.1647 J0.
X1.2672 I0.2207 J0.
X0.7136 I-0.2768 J0.
X1.3793 I0.3329 J0.
X0.6015 I-0.3889 J0.
X1.4914 I0.445 J0.
X0.4894 I-0.501 J0.
X1.4914 I0.501 J0.
G1 X1.4912 Y2.5149
X1.4905 Y2.5164
X1.4894 Y2.5177
X1.488 Y2.5186
X1.4864 Y2.5191
X1.4847
X1.1973 Y2.4801
X1.1958 Y2.48
X1.1943 Y2.4802
X0.9535 Y2.5546
X0.952 Y2.5549
X0.9504 Y2.5547
X0.9489 Y2.5541
X0.9476 Y2.5532
G3 X1.0263 Y2.4733 Z-0.0461 I0.0393 J-0.0399 F20.
X0.9476 Y2.5532 Z-0.0523 I-0.0393 J0.0399
X1.0263 Y2.4733 Z-0.0584 I0.0393 J-0.0399
X1.043 Y2.5132 Z-0.06 I-0.0393 J0.0399
X0.9378 I-0.0526 J0. F30.
X1.1551 I0.1087 J0.
X0.8257 I-0.1647 J0.
X1.2672 I0.2207 J0.
X0.7136 I-0.2768 J0.
X1.3793 I0.3329 J0.
X0.6015 I-0.3889 J0.
X1.4914 I0.445 J0.
X0.4894 I-0.501 J0.
X1.4914 I0.501 J0.
G1 X1.4912 Y2.5149
X1.4905 Y2.5164
X1.4894 Y2.5177
X1.488 Y2.5186
X1.4864 Y2.5191
X1.4847
X1.1973 Y2.4801
X1.1958 Y2.48
X1.1943 Y2.4802
X0.9535 Y2.5546
X0.952 Y2.5549
X0.9504 Y2.5547
X0.9489 Y2.5541
X0.9476 Y2.5532
G3 X1.0263 Y2.4733 Z-0.0661 I0.0393 J-0.0399 F20.
X0.9476 Y2.5532 Z-0.0723 I-0.0393 J0.0399
X1.0263 Y2.4733 Z-0.0784 I0.0393 J-0.0399
X1.043 Y2.5132 Z-0.08 I-0.0393 J0.0399
X0.9378 I-0.0526 J0. F30.
X1.1551 I0.1087 J0.
X0.8257 I-0.1647 J0.
X1.2672 I0.2207 J0.
X0.7136 I-0.2768 J0.
X1.3793 I0.3329 J0.
X0.6015 I-0.3889 J0.
X1.4914 I0.445 J0.
X0.4894 I-0.501 J0.
X1.4914 I0.501 J0.
G1 X1.4912 Y2.5149
X1.4905 Y2.5164
X1.4894 Y2.5177
X1.488 Y2.5186
X1.4864 Y2.5191
X1.4847
X1.1973 Y2.4801
X1.1958 Y2.48
X1.1943 Y2.4802
X0.9535 Y2.5546
X0.952 Y2.5549
X0.9504 Y2.5547
X0.9489 Y2.5541
X0.9476 Y2.5532
G3 X1.0263 Y2.4733 Z-0.0861 I0.0393 J-0.0399 F20.
X0.9476 Y2.5532 Z-0.0923 I-0.0393 J0.0399
X1.0263 Y2.4733 Z-0.0984 I0.0393 J-0.0399
X1.043 Y2.5132 Z-0.1 I-0.0393 J0.0399
X0.9378 I-0.0526 J0. F30.
X1.1551 I0.1087 J0.
X0.8257 I-0.1647 J0.
X1.2672 I0.2207 J0.
X0.7136 I-0.2768 J0.
X1.3793 I0.3329 J0.
X0.6015 I-0.3889 J0.
X1.4914 I0.445 J0.
X0.4894 I-0.501 J0.
X1.4914 I0.501 J0.
G1 X1.4912 Y2.5149
X1.4905 Y2.5164
X1.4894 Y2.5177
X1.488 Y2.5186
X1.4864 Y2.5191
X1.4847
X1.1973 Y2.4801
X1.1958 Y2.48
X1.1943 Y2.4802
X0.9535 Y2.5546
X0.952 Y2.5549
X0.9504 Y2.5547
X0.9489 Y2.5541
X0.9476 Y2.5532
G3 X1.0263 Y2.4733 Z-0.1061 I0.0393 J-0.0399 F20.
X0.9476 Y2.5532 Z-0.1123 I-0.0393 J0.0399
X1.0263 Y2.4733 Z-0.1184 I0.0393 J-0.0399
X1.043 Y2.5132 Z-0.12 I-0.0393 J0.0399
X0.9378 I-0.0526 J0. F30.
X1.1551 I0.1087 J0.
X0.8257 I-0.1647 J0.
X1.2672 I0.2207 J0.
X0.7136 I-0.2768 J0.
X1.3793 I0.3329 J0.
X0.6015 I-0.3889 J0.
X1.4914 I0.445 J0.
X0.4894 I-0.501 J0.
X1.4914 I0.501 J0.
X1.4167 Y2.5661 Z-0.122 I-0.0561 J0. F20.
G1 X1.1178 Y2.4604 Z-0.128
G2 X1.043 Y2.5132 Z-0.13 I-0.0187 J0.0528
G3 X0.9378 I-0.0526 J0. F30.
X1.1551 I0.1087 J0.
X0.8257 I-0.1647 J0.
X1.2672 I0.2207 J0.
X0.7136 I-0.2768 J0.
X1.3793 I0.3329 J0.
X0.6015 I-0.3889 J0.
X1.4914 I0.445 J0.
X0.4894 I-0.501 J0.
X1.4914 I0.501 J0.
G1 X1.4912 Y2.5155 Z-0.1296
X1.4906 Y2.5176 Z-0.1291
X1.4897 Y2.5193 Z-0.1278
X1.4886 Y2.5209 Z-0.1265
X1.4867 Y2.5226 Z-0.1227
X1.486 Y2.5231 Z-0.1182
G0 Z0.24
X1.0132 Y1.0535
G1 Z0.1518 F30.
X1.0117 Y1.0538 Z0.146 F20.
X1.0076 Y1.0546 Z0.1417
X1.0019 Y1.0552 Z0.14
G3 X0.9966 Y0.9432 Z0.1339 I-0.0027 J-0.056
X1.0019 Y1.0552 Z0.1277 I0.0027 J0.056
X0.9966 Y0.9432 Z0.1216 I-0.0027 J-0.056
X1.0019 Y1.0552 Z0.1154 I0.0027 J0.056
X0.9966 Y0.9432 Z0.1093 I-0.0027 J-0.056
X1.0019 Y1.0552 Z0.1031 I0.0027 J0.056
X0.9966 Y0.9432 Z0.097 I-0.0027 J-0.056
X1.0019 Y1.0552 Z0.0908 I0.0027 J0.056
X0.9966 Y0.9432 Z0.0847 I-0.0027 J-0.056
X1.0019 Y1.0552 Z0.0785 I0.0027 J0.056
X0.9966 Y0.9432 Z0.0724 I-0.0027 J-0.056
X1.0019 Y1.0552 Z0.0662 I0.0027 J0.056
X0.9966 Y0.9432 Z0.0601 I-0.0027 J-0.056
X1.0019 Y1.0552 Z0.0539 I0.0027 J0.056
X0.9966 Y0.9432 Z0.0478 I-0.0027 J-0.056
X1.0019 Y1.0552 Z0.0416 I0.0027 J0.056
X0.9966 Y0.9432 Z0.0355 I-0.0027 J-0.056
X1.0019 Y1.0552 Z0.0293 I0.0027 J0.056
X0.9966 Y0.9432 Z0.0232 I-0.0027 J-0.056
X1.0553 Y0.9992 Z0.02 I0.0027 J0.056
X0.9511 I-0.0521 J0. F30.
X1.1674 I0.1081 J0.
X0.839 I-0.1642 J0.
X1.2795 I0.2203 J0.
X0.7269 I-0.2763 J0.
X1.3916 I0.3324 J0.
X0.6148 I-0.3884 J0.
X1.5037 I0.4445 J0.
X0.5027 I-0.5005 J0.
X1.5037 I0.5005 J0.
G1 X1.5035 Y1.0008
X1.5028 Y1.0024
X1.5017 Y1.0036
X1.5003 Y1.0045
X1.4987 Y1.005
X1.497
X1.2096 Y0.9661
X1.208 Y0.9659
X1.2065 Y0.9662
X0.9658 Y1.0406
X0.9642 Y1.0408
X0.9627 Y1.0407
X0.9612 Y1.0401
X0.9599 Y1.0391
G3 X1.0386 Y0.9592 Z0.0139 I0.0393 J-0.0399 F20.
X0.9599 Y1.0391 Z0.0077 I-0.0393 J0.0399
X1.0386 Y0.9592 Z0.0016 I0.0393 J-0.0399
X1.0553 Y0.9992 Z0. I-0.0393 J0.0399
X0.9511 I-0.0521 J0. F30.
X1.1674 I0.1081 J0.
X0.839 I-0.1642 J0.
X1.2795 I0.2203 J0.
X0.7269 I-0.2763 J0.
X1.3916 I0.3324 J0.
X0.6148 I-0.3884 J0.
X1.5037 I0.4445 J0.
X0.5027 I-0.5005 J0.
X1.5037 I0.5005 J0.
G1 X1.5035 Y1.0008
X1.5028 Y1.0024
X1.5017 Y1.0036
X1.5003 Y1.0045
X1.4987 Y1.005
X1.497
X1.2096 Y0.9661
X1.208 Y0.9659
X1.2065 Y0.9662
X0.9658 Y1.0406
X0.9642 Y1.0408
X0.9627 Y1.0407
X0.9612 Y1.0401
X0.9599 Y1.0391
G3 X1.0386 Y0.9592 Z-0.0061 I0.0393 J-0.0399 F20.
X0.9599 Y1.0391 Z-0.0123 I-0.0393 J0.0399
X1.0386 Y0.9592 Z-0.0184 I0.0393 J-0.0399
X1.0553 Y0.9992 Z-0.02 I-0.0393 J0.0399
X0.9511 I-0.0521 J0. F30.
X1.1674 I0.1081 J0.
X0.839 I-0.1642 J0.
X1.2795 I0.2203 J0.
X0.7269 I-0.2763 J0.
X1.3916 I0.3324 J0.
X0.6148 I-0.3884 J0.
X1.5037 I0.4445 J0.
X0.5027 I-0.5005 J0.
X1.5037 I0.5005 J0.
G1 X1.5035 Y1.0008
X1.5028 Y1.0024
X1.5017 Y1.0036
X1.5003 Y1.0045
X1.4987 Y1.005
X1.497
X1.2096 Y0.9661
X1.208 Y0.9659
X1.2065 Y0.9662
X0.9658 Y1.0406
X0.9642 Y1.0408
X0.9627 Y1.0407
X0.9612 Y1.0401
X0.9599 Y1.0391
G3 X1.0386 Y0.9592 Z-0.0261 I0.0393 J-0.0399 F20.
X0.9599 Y1.0391 Z-0.0323 I-0.0393 J0.0399
X1.0386 Y0.9592 Z-0.0384 I0.0393 J-0.0399
X1.0553 Y0.9992 Z-0.04 I-0.0393 J0.0399
X0.9511 I-0.0521 J0. F30.
X1.1674 I0.1081 J0.
X0.839 I-0.1642 J0.
X1.2795 I0.2203 J0.
X0.7269 I-0.2763 J0.
X1.3916 I0.3324 J0.
X0.6148 I-0.3884 J0.
X1.5037 I0.4445 J0.
X0.5027 I-0.5005 J0.
X1.5037 I0.5005 J0.
G1 X1.5035 Y1.0008
X1.5028 Y1.0024
X1.5017 Y1.0036
X1.5003 Y1.0045
X1.4987 Y1.005
X1.497
X1.2096 Y0.9661
X1.208 Y0.9659
X1.2065 Y0.9662
X0.9658 Y1.0406
X0.9642 Y1.0408
X0.9627 Y1.0407
X0.9612 Y1.0401
X0.9599 Y1.0391
G3 X1.0386 Y0.9592 Z-0.0461 I0.0393 J-0.0399 F20.
X0.9599 Y1.0391 Z-0.0523 I-0.0393 J0.0399
X1.0386 Y0.9592 Z-0.0584 I0.0393 J-0.0399
X1.0553 Y0.9992 Z-0.06 I-0.0393 J0.0399
X0.9511 I-0.0521 J0. F30.
X1.1674 I0.1081 J0.
X0.839 I-0.1642 J0.
X1.2795 I0.2203 J0.
X0.7269 I-0.2763 J0.
X1.3916 I0.3324 J0.
X0.6148 I-0.3884 J0.
X1.5037 I0.4445 J0.
X0.5027 I-0.5005 J0.
X1.5037 I0.5005 J0.
G1 X1.5035 Y1.0008
X1.5028 Y1.0024
X1.5017 Y1.0036
X1.5003 Y1.0045
X1.4987 Y1.005
X1.497
X1.2096 Y0.9661
X1.208 Y0.9659
X1.2065 Y0.9662
X0.9658 Y1.0406
X0.9642 Y1.0408
X0.9627 Y1.0407
X0.9612 Y1.0401
X0.9599 Y1.0391
G3 X1.0386 Y0.9592 Z-0.0661 I0.0393 J-0.0399 F20.
X0.9599 Y1.0391 Z-0.0723 I-0.0393 J0.0399
X1.0386 Y0.9592 Z-0.0784 I0.0393 J-0.0399
X1.0553 Y0.9992 Z-0.08 I-0.0393 J0.0399
X0.9511 I-0.0521 J0. F30.
X1.1674 I0.1081 J0.
X0.839 I-0.1642 J0.
X1.2795 I0.2203 J0.
X0.7269 I-0.2763 J0.
X1.3916 I0.3324 J0.
X0.6148 I-0.3884 J0.
X1.5037 I0.4445 J0.
X0.5027 I-0.5005 J0.
X1.5037 I0.5005 J0.
G1 X1.5035 Y1.0008
X1.5028 Y1.0024
X1.5017 Y1.0036
X1.5003 Y1.0045
X1.4987 Y1.005
X1.497
X1.2096 Y0.9661
X1.208 Y0.9659
X1.2065 Y0.9662
X0.9658 Y1.0406
X0.9642 Y1.0408
X0.9627 Y1.0407
X0.9612 Y1.0401
X0.9599 Y1.0391
G3 X1.0386 Y0.9592 Z-0.0861 I0.0393 J-0.0399 F20.
X0.9599 Y1.0391 Z-0.0923 I-0.0393 J0.0399
X1.0386 Y0.9592 Z-0.0984 I0.0393 J-0.0399
X1.0553 Y0.9992 Z-0.1 I-0.0393 J0.0399
X0.9511 I-0.0521 J0. F30.
X1.1674 I0.1081 J0.
X0.839 I-0.1642 J0.
X1.2795 I0.2203 J0.
X0.7269 I-0.2763 J0.
X1.3916 I0.3324 J0.
X0.6148 I-0.3884 J0.
X1.5037 I0.4445 J0.
X0.5027 I-0.5005 J0.
X1.5037 I0.5005 J0.
G1 X1.5035 Y1.0008
X1.5028 Y1.0024
X1.5017 Y1.0036
X1.5003 Y1.0045
X1.4987 Y1.005
X1.497
X1.2096 Y0.9661
X1.208 Y0.9659
X1.2065 Y0.9662
X0.9658 Y1.0406
X0.9642 Y1.0408
X0.9627 Y1.0407
X0.9612 Y1.0401
X0.9599 Y1.0391
G3 X1.0386 Y0.9592 Z-0.1061 I0.0393 J-0.0399 F20.
X0.9599 Y1.0391 Z-0.1123 I-0.0393 J0.0399
X1.0386 Y0.9592 Z-0.1184 I0.0393 J-0.0399
X1.0553 Y0.9992 Z-0.12 I-0.0393 J0.0399
X0.9511 I-0.0521 J0. F30.
X1.1674 I0.1081 J0.
X0.839 I-0.1642 J0.
X1.2795 I0.2203 J0.
X0.7269 I-0.2763 J0.
X1.3916 I0.3324 J0.
X0.6148 I-0.3884 J0.
X1.5037 I0.4445 J0.
X0.5027 I-0.5005 J0.
X1.5037 I0.5005 J0.
X1.429 Y1.052 Z-0.122 I-0.0561 J0. F20.
G1 X1.13 Y0.9463 Z-0.128
G2 X1.0553 Y0.9992 Z-0.13 I-0.0187 J0.0528
G3 X0.9511 I-0.0521 J0. F30.
X1.1674 I0.1081 J0.
X0.839 I-0.1642 J0.
X1.2795 I0.2203 J0.
X0.7269 I-0.2763 J0.
X1.3916 I0.3324 J0.
X0.6148 I-0.3884 J0.
X1.5037 I0.4445 J0.
X0.5027 I-0.5005 J0.
X1.5037 I0.5005 J0.
G1 X1.5035 Y1.0014 Z-0.1296
X1.5028 Y1.0036 Z-0.1291
X1.502 Y1.0053 Z-0.1278
X1.5009 Y1.0068 Z-0.1265
X1.499 Y1.0086 Z-0.1227
X1.4983 Y1.0091 Z-0.1182
G0 Z0.24
X0.9797 Y4.0661
G1 Z0.1518 F30.
X0.9782 Y4.0664 Z0.146 F20.
X0.9742 Y4.0672 Z0.1417
X0.9685 Y4.0678 Z0.14
G3 X0.9631 Y3.9558 Z0.1339 I-0.0027 J-0.056
X0.9685 Y4.0678 Z0.1277 I0.0027 J0.056
X0.9631 Y3.9558 Z0.1216 I-0.0027 J-0.056
X0.9685 Y4.0678 Z0.1154 I0.0027 J0.056
X0.9631 Y3.9558 Z0.1093 I-0.0027 J-0.056
X0.9685 Y4.0678 Z0.1031 I0.0027 J0.056
X0.9631 Y3.9558 Z0.097 I-0.0027 J-0.056
X0.9685 Y4.0678 Z0.0908 I0.0027 J0.056
X0.9631 Y3.9558 Z0.0847 I-0.0027 J-0.056
X0.9685 Y4.0678 Z0.0785 I0.0027 J0.056
X0.9631 Y3.9558 Z0.0724 I-0.0027 J-0.056
X0.9685 Y4.0678 Z0.0662 I0.0027 J0.056
X0.9631 Y3.9558 Z0.0601 I-0.0027 J-0.056
X0.9685 Y4.0678 Z0.0539 I0.0027 J0.056
X0.9631 Y3.9558 Z0.0478 I-0.0027 J-0.056
X0.9685 Y4.0678 Z0.0416 I0.0027 J0.056
X0.9631 Y3.9558 Z0.0355 I-0.0027 J-0.056
X0.9685 Y4.0678 Z0.0293 I0.0027 J0.056
X0.9631 Y3.9558 Z0.0232 I-0.0027 J-0.056
X1.0218 Y4.0118 Z0.02 I0.0027 J0.056
X1.0011 Y4.0325 I-0.0208 J0. F30.
X0.9803 Y4.0118 I0. J-0.0208
X1.0011 Y3.991 I0.0208 J0.
X1.0218 Y4.0118 I0. J0.0208
G2 X1.0362 Y4.0389 I0.0327 J0.0001
G3 X1.0352 Y4.0695 I-0.0102 J0.015
X1.0011 Y4.0788 I-0.0342 J-0.0577
Y3.9447 I0. J-0.0671
X1.0681 Y4.0118 I0. J0.0671
X1.0352 Y4.0695 I-0.0671 J0.
G2 X0.997 Y4.1335 I0.0397 J0.0671
G3 X0.9342 Y4.1737 I-0.0454 J-0.0018
X1.0011 Y3.8366 I0.0668 J-0.1619
X1.1762 Y4.0118 I0. J0.1752
X1.0011 Y4.1869 I-0.1752 J0.
X0.9342 Y4.1737 I0. J-0.1752
G2 X0.8513 Y4.1855 I-0.0315 J0.0763
G3 X0.7684 Y4.1733 I-0.0358 J-0.0448
X1.0011 Y3.7285 I0.2327 J-0.1616
X1.2843 Y4.0118 I0. J0.2833
X1.0011 Y4.295 I-0.2833 J0.
X0.7684 Y4.1733 I0. J-0.2833
G2 X0.6881 Y4.1379 I-0.0692 J0.048
G3 X0.6169 Y4.0867 I-0.0084 J-0.0634
X1.0011 Y3.6204 I0.3841 J-0.075
X1.3924 Y4.0118 I0. J0.3914
X1.0011 Y4.4031 I-0.3914 J0.
X0.6169 Y4.0867 I0. J-0.3914
G2 X0.5547 Y4.0198 I-0.085 J0.0166
G3 X0.5043 Y3.9435 I0.0182 J-0.0668
X1.0011 Y3.5103 I0.4968 J0.0683
X1.5025 Y4.0118 I0. J0.5015
X1.0011 Y4.5132 I-0.5015 J0.
X0.5043 Y3.9435 I0. J-0.5015
X0.5681 Y3.8957 Z0.0169 I0.0555 J0.0076 F20.
G1 X0.9741 Y3.9563 Z0.0028
G3 X1.0218 Y4.0118 Z0. I-0.0083 J0.0554
X1.0011 Y4.0325 I-0.0208 J0. F30.
X0.9803 Y4.0118 I0. J-0.0208
X1.0011 Y3.991 I0.0208 J0.
X1.0218 Y4.0118 I0. J0.0208
G2 X1.0362 Y4.0389 I0.0327 J0.0001
G3 X1.0352 Y4.0695 I-0.0102 J0.015
X1.0011 Y4.0788 I-0.0342 J-0.0577
Y3.9447 I0. J-0.0671
X1.0681 Y4.0118 I0. J0.0671
X1.0352 Y4.0695 I-0.0671 J0.
G2 X0.997 Y4.1335 I0.0397 J0.0671
G3 X0.9342 Y4.1737 I-0.0454 J-0.0018
X1.0011 Y3.8366 I0.0668 J-0.1619
X1.1762 Y4.0118 I0. J0.1752
X1.0011 Y4.1869 I-0.1752 J0.
X0.9342 Y4.1737 I0. J-0.1752
G2 X0.8513 Y4.1855 I-0.0315 J0.0763
G3 X0.7684 Y4.1733 I-0.0358 J-0.0448
X1.0011 Y3.7285 I0.2327 J-0.1616
X1.2843 Y4.0118 I0. J0.2833
X1.0011 Y4.295 I-0.2833 J0.
X0.7684 Y4.1733 I0. J-0.2833
G2 X0.6881 Y4.1379 I-0.0692 J0.048
G3 X0.6169 Y4.0867 I-0.0084 J-0.0634
X1.0011 Y3.6204 I0.3841 J-0.075
X1.3924 Y4.0118 I0. J0.3914
X1.0011 Y4.4031 I-0.3914 J0.
X0.6169 Y4.0867 I0. J-0.3914
G2 X0.5547 Y4.0198 I-0.085 J0.0166
G3 X0.5043 Y3.9435 I0.0182 J-0.0668
X1.0011 Y3.5103 I0.4968 J0.0683
X1.5025 Y4.0118 I0. J0.5015
X1.0011 Y4.5132 I-0.5015 J0.
X0.5043 Y3.9435 I0. J-0.5015
X0.5681 Y3.8957 Z-0.0031 I0.0555 J0.0076 F20.
G1 X0.9741 Y3.9563 Z-0.0172
G3 X1.0218 Y4.0118 Z-0.02 I-0.0083 J0.0554
X1.0011 Y4.0325 I-0.0208 J0. F30.
X0.9803 Y4.0118 I0. J-0.0208
X1.0011 Y3.991 I0.0208 J0.
X1.0218 Y4.0118 I0. J0.0208
G2 X1.0362 Y4.0389 I0.0327 J0.0001
G3 X1.0352 Y4.0695 I-0.0102 J0.015
X1.0011 Y4.0788 I-0.0342 J-0.0577
Y3.9447 I0. J-0.0671
X1.0681 Y4.0118 I0. J0.0671
X1.0352 Y4.0695 I-0.0671 J0.
G2 X0.997 Y4.1335 I0.0397 J0.0671
G3 X0.9342 Y4.1737 I-0.0454 J-0.0018
X1.0011 Y3.8366 I0.0668 J-0.1619
X1.1762 Y4.0118 I0. J0.1752
X1.0011 Y4.1869 I-0.1752 J0.
X0.9342 Y4.1737 I0. J-0.1752
G2 X0.8513 Y4.1855 I-0.0315 J0.0763
G3 X0.7684 Y4.1733 I-0.0358 J-0.0448
X1.0011 Y3.7285 I0.2327 J-0.1616
X1.2843 Y4.0118 I0. J0.2833
X1.0011 Y4.295 I-0.2833 J0.
X0.7684 Y4.1733 I0. J-0.2833
G2 X0.6881 Y4.1379 I-0.0692 J0.048
G3 X0.6169 Y4.0867 I-0.0084 J-0.0634
X1.0011 Y3.6204 I0.3841 J-0.075
X1.3924 Y4.0118 I0. J0.3914
X1.0011 Y4.4031 I-0.3914 J0.
X0.6169 Y4.0867 I0. J-0.3914
G2 X0.5547 Y4.0198 I-0.085 J0.0166
G3 X0.5043 Y3.9435 I0.0182 J-0.0668
X1.0011 Y3.5103 I0.4968 J0.0683
X1.5025 Y4.0118 I0. J0.5015
X1.0011 Y4.5132 I-0.5015 J0.
X0.5043 Y3.9435 I0. J-0.5015
X0.5681 Y3.8957 Z-0.0231 I0.0555 J0.0076 F20.
G1 X0.9741 Y3.9563 Z-0.0372
G3 X1.0218 Y4.0118 Z-0.04 I-0.0083 J0.0554
X1.0011 Y4.0325 I-0.0208 J0. F30.
X0.9803 Y4.0118 I0. J-0.0208
X1.0011 Y3.991 I0.0208 J0.
X1.0218 Y4.0118 I0. J0.0208
G2 X1.0362 Y4.0389 I0.0327 J0.0001
G3 X1.0352 Y4.0695 I-0.0102 J0.015
X1.0011 Y4.0788 I-0.0342 J-0.0577
Y3.9447 I0. J-0.0671
X1.0681 Y4.0118 I0. J0.0671
X1.0352 Y4.0695 I-0.0671 J0.
G2 X0.997 Y4.1335 I0.0397 J0.0671
G3 X0.9342 Y4.1737 I-0.0454 J-0.0018
X1.0011 Y3.8366 I0.0668 J-0.1619
X1.1762 Y4.0118 I0. J0.1752
X1.0011 Y4.1869 I-0.1752 J0.
X0.9342 Y4.1737 I0. J-0.1752
G2 X0.8513 Y4.1855 I-0.0315 J0.0763
G3 X0.7684 Y4.1733 I-0.0358 J-0.0448
X1.0011 Y3.7285 I0.2327 J-0.1616
X1.2843 Y4.0118 I0. J0.2833
X1.0011 Y4.295 I-0.2833 J0.
X0.7684 Y4.1733 I0. J-0.2833
G2 X0.6881 Y4.1379 I-0.0692 J0.048
G3 X0.6169 Y4.0867 I-0.0084 J-0.0634
X1.0011 Y3.6204 I0.3841 J-0.075
X1.3924 Y4.0118 I0. J0.3914
X1.0011 Y4.4031 I-0.3914 J0.
X0.6169 Y4.0867 I0. J-0.3914
G2 X0.5547 Y4.0198 I-0.085 J0.0166
G3 X0.5043 Y3.9435 I0.0182 J-0.0668
X1.0011 Y3.5103 I0.4968 J0.0683
X1.5025 Y4.0118 I0. J0.5015
X1.0011 Y4.5132 I-0.5015 J0.
X0.5043 Y3.9435 I0. J-0.5015
X0.5681 Y3.8957 Z-0.0431 I0.0555 J0.0076 F20.
G1 X0.9741 Y3.9563 Z-0.0572
G3 X1.0218 Y4.0118 Z-0.06 I-0.0083 J0.0554
X1.0011 Y4.0325 I-0.0208 J0. F30.
X0.9803 Y4.0118 I0. J-0.0208
X1.0011 Y3.991 I0.0208 J0.
X1.0218 Y4.0118 I0. J0.0208
G2 X1.0362 Y4.0389 I0.0327 J0.0001
G3 X1.0352 Y4.0695 I-0.0102 J0.015
X1.0011 Y4.0788 I-0.0342 J-0.0577
Y3.9447 I0. J-0.0671
X1.0681 Y4.0118 I0. J0.0671
X1.0352 Y4.0695 I-0.0671 J0.
G2 X0.997 Y4.1335 I0.0397 J0.0671
G3 X0.9342 Y4.1737 I-0.0454 J-0.0018
X1.0011 Y3.8366 I0.0668 J-0.1619
X1.1762 Y4.0118 I0. J0.1752
X1.0011 Y4.1869 I-0.1752 J0.
X0.9342 Y4.1737 I0. J-0.1752
G2 X0.8513 Y4.1855 I-0.0315 J0.0763
G3 X0.7684 Y4.1733 I-0.0358 J-0.0448
X1.0011 Y3.7285 I0.2327 J-0.1616
X1.2843 Y4.0118 I0. J0.2833
X1.0011 Y4.295 I-0.2833 J0.
X0.7684 Y4.1733 I0. J-0.2833
G2 X0.6881 Y4.1379 I-0.0692 J0.048
G3 X0.6169 Y4.0867 I-0.0084 J-0.0634
X1.0011 Y3.6204 I0.3841 J-0.075
X1.3924 Y4.0118 I0. J0.3914
X1.0011 Y4.4031 I-0.3914 J0.
X0.6169 Y4.0867 I0. J-0.3914
G2 X0.5547 Y4.0198 I-0.085 J0.0166
G3 X0.5043 Y3.9435 I0.0182 J-0.0668
X1.0011 Y3.5103 I0.4968 J0.0683
X1.5025 Y4.0118 I0. J0.5015
X1.0011 Y4.5132 I-0.5015 J0.
X0.5043 Y3.9435 I0. J-0.5015
X0.5681 Y3.8957 Z-0.0631 I0.0555 J0.0076 F20.
G1 X0.9741 Y3.9563 Z-0.0772
G3 X1.0218 Y4.0118 Z-0.08 I-0.0083 J0.0554
X1.0011 Y4.0325 I-0.0208 J0. F30.
X0.9803 Y4.0118 I0. J-0.0208
X1.0011 Y3.991 I0.0208 J0.
X1.0218 Y4.0118 I0. J0.0208
G2 X1.0362 Y4.0389 I0.0327 J0.0001
G3 X1.0352 Y4.0695 I-0.0102 J0.015
X1.0011 Y4.0788 I-0.0342 J-0.0577
Y3.9447 I0. J-0.0671
X1.0681 Y4.0118 I0. J0.0671
X1.0352 Y4.0695 I-0.0671 J0.
G2 X0.997 Y4.1335 I0.0397 J0.0671
G3 X0.9342 Y4.1737 I-0.0454 J-0.0018
X1.0011 Y3.8366 I0.0668 J-0.1619
X1.1762 Y4.0118 I0. J0.1752
X1.0011 Y4.1869 I-0.1752 J0.
X0.9342 Y4.1737 I0. J-0.1752
G2 X0.8513 Y4.1855 I-0.0315 J0.0763
G3 X0.7684 Y4.1733 I-0.0358 J-0.0448
X1.0011 Y3.7285 I0.2327 J-0.1616
X1.2843 Y4.0118 I0. J0.2833
X1.0011 Y4.295 I-0.2833 J0.
X0.7684 Y4.1733 I0. J-0.2833
G2 X0.6881 Y4.1379 I-0.0692 J0.048
G3 X0.6169 Y4.0867 I-0.0084 J-0.0634
X1.0011 Y3.6204 I0.3841 J-0.075
X1.3924 Y4.0118 I0. J0.3914
X1.0011 Y4.4031 I-0.3914 J0.
X0.6169 Y4.0867 I0. J-0.3914
G2 X0.5547 Y4.0198 I-0.085 J0.0166
G3 X0.5043 Y3.9435 I0.0182 J-0.0668
X1.0011 Y3.5103 I0.4968 J0.0683
X1.5025 Y4.0118 I0. J0.5015
X1.0011 Y4.5132 I-0.5015 J0.
X0.5043 Y3.9435 I0. J-0.5015
X0.5681 Y3.8957 Z-0.0831 I0.0555 J0.0076 F20.
G1 X0.9741 Y3.9563 Z-0.0972
G3 X1.0218 Y4.0118 Z-0.1 I-0.0083 J0.0554
X1.0011 Y4.0325 I-0.0208 J0. F30.
X0.9803 Y4.0118 I0. J-0.0208
X1.0011 Y3.991 I0.0208 J0.
X1.0218 Y4.0118 I0. J0.0208
G2 X1.0362 Y4.0389 I0.0327 J0.0001
G3 X1.0352 Y4.0695 I-0.0102 J0.015
X1.0011 Y4.0788 I-0.0342 J-0.0577
Y3.9447 I0. J-0.0671
X1.0681 Y4.0118 I0. J0.0671
X1.0352 Y4.0695 I-0.0671 J0.
G2 X0.997 Y4.1335 I0.0397 J0.0671
G3 X0.9342 Y4.1737 I-0.0454 J-0.0018
X1.0011 Y3.8366 I0.0668 J-0.1619
X1.1762 Y4.0118 I0. J0.1752
X1.0011 Y4.1869 I-0.1752 J0.
X0.9342 Y4.1737 I0. J-0.1752
G2 X0.8513 Y4.1855 I-0.0315 J0.0763
G3 X0.7684 Y4.1733 I-0.0358 J-0.0448
X1.0011 Y3.7285 I0.2327 J-0.1616
X1.2843 Y4.0118 I0. J0.2833
X1.0011 Y4.295 I-0.2833 J0.
X0.7684 Y4.1733 I0. J-0.2833
G2 X0.6881 Y4.1379 I-0.0692 J0.048
G3 X0.6169 Y4.0867 I-0.0084 J-0.0634
X1.0011 Y3.6204 I0.3841 J-0.075
X1.3924 Y4.0118 I0. J0.3914
X1.0011 Y4.4031 I-0.3914 J0.
X0.6169 Y4.0867 I0. J-0.3914
G2 X0.5547 Y4.0198 I-0.085 J0.0166
G3 X0.5043 Y3.9435 I0.0182 J-0.0668
X1.0011 Y3.5103 I0.4968 J0.0683
X1.5025 Y4.0118 I0. J0.5015
X1.0011 Y4.5132 I-0.5015 J0.
X0.5043 Y3.9435 I0. J-0.5015
X0.5681 Y3.8957 Z-0.1031 I0.0555 J0.0076 F20.
G1 X0.9741 Y3.9563 Z-0.1172
G3 X1.0218 Y4.0118 Z-0.12 I-0.0083 J0.0554
X1.0011 Y4.0325 I-0.0208 J0. F30.
X0.9803 Y4.0118 I0. J-0.0208
X1.0011 Y3.991 I0.0208 J0.
X1.0218 Y4.0118 I0. J0.0208
G2 X1.0362 Y4.0389 I0.0327 J0.0001
G3 X1.0352 Y4.0695 I-0.0102 J0.015
X1.0011 Y4.0788 I-0.0342 J-0.0577
Y3.9447 I0. J-0.0671
X1.0681 Y4.0118 I0. J0.0671
X1.0352 Y4.0695 I-0.0671 J0.
G2 X0.997 Y4.1335 I0.0397 J0.0671
G3 X0.9342 Y4.1737 I-0.0454 J-0.0018
X1.0011 Y3.8366 I0.0668 J-0.1619
X1.1762 Y4.0118 I0. J0.1752
X1.0011 Y4.1869 I-0.1752 J0.
X0.9342 Y4.1737 I0. J-0.1752
G2 X0.8513 Y4.1855 I-0.0315 J0.0763
G3 X0.7684 Y4.1733 I-0.0358 J-0.0448
X1.0011 Y3.7285 I0.2327 J-0.1616
X1.2843 Y4.0118 I0. J0.2833
X1.0011 Y4.295 I-0.2833 J0.
X0.7684 Y4.1733 I0. J-0.2833
G2 X0.6881 Y4.1379 I-0.0692 J0.048
G3 X0.6169 Y4.0867 I-0.0084 J-0.0634
X1.0011 Y3.6204 I0.3841 J-0.075
X1.3924 Y4.0118 I0. J0.3914
X1.0011 Y4.4031 I-0.3914 J0.
X0.6169 Y4.0867 I0. J-0.3914
G2 X0.5547 Y4.0198 I-0.085 J0.0166
G3 X0.5043 Y3.9435 I0.0182 J-0.0668
X1.0011 Y3.5103 I0.4968 J0.0683
X1.5025 Y4.0118 I0. J0.5015
X1.0011 Y4.5132 I-0.5015 J0.
X0.5043 Y3.9435 I0. J-0.5015
X0.5681 Y3.8957 Z-0.1215 I0.0555 J0.0076 F20.
G1 X0.9741 Y3.9563 Z-0.1286
G3 X1.0218 Y4.0118 Z-0.13 I-0.0083 J0.0554
X1.0011 Y4.0325 I-0.0208 J0. F30.
X0.9803 Y4.0118 I0. J-0.0208
X1.0011 Y3.991 I0.0208 J0.
X1.0218 Y4.0118 I0. J0.0208
G2 X1.0362 Y4.0389 I0.0327 J0.0001
G3 X1.0352 Y4.0695 I-0.0102 J0.015
X1.0011 Y4.0788 I-0.0342 J-0.0577
Y3.9447 I0. J-0.0671
X1.0681 Y4.0118 I0. J0.0671
X1.0352 Y4.0695 I-0.0671 J0.
G2 X0.997 Y4.1335 I0.0397 J0.0671
G3 X0.9342 Y4.1737 I-0.0454 J-0.0018
X1.0011 Y3.8366 I0.0668 J-0.1619
X1.1762 Y4.0118 I0. J0.1752
X1.0011 Y4.1869 I-0.1752 J0.
X0.9342 Y4.1737 I0. J-0.1752
G2 X0.8513 Y4.1855 I-0.0315 J0.0763
G3 X0.7684 Y4.1733 I-0.0358 J-0.0448
X1.0011 Y3.7285 I0.2327 J-0.1616
X1.2843 Y4.0118 I0. J0.2833
X1.0011 Y4.295 I-0.2833 J0.
X0.7684 Y4.1733 I0. J-0.2833
G2 X0.6881 Y4.1379 I-0.0692 J0.048
G3 X0.6169 Y4.0867 I-0.0084 J-0.0634
X1.0011 Y3.6204 I0.3841 J-0.075
X1.3924 Y4.0118 I0. J0.3914
X1.0011 Y4.4031 I-0.3914 J0.
X0.6169 Y4.0867 I0. J-0.3914
G2 X0.5547 Y4.0198 I-0.085 J0.0166
G3 X0.5043 Y3.9435 I0.0182 J-0.0668
X1.0011 Y3.5103 I0.4968 J0.0683
X1.5025 Y4.0118 I0. J0.5015
X1.0011 Y4.5132 I-0.5015 J0.
X0.5043 Y3.9435 I0. J-0.5015
G1 X0.5048 Y3.9413 Z-0.1296
X0.5057 Y3.9392 Z-0.1291
X0.5068 Y3.9377 Z-0.1278
X0.5081 Y3.9363 Z-0.1265
X0.5102 Y3.9348 Z-0.1227
X0.511 Y3.9344 Z-0.1182
G0 Z0.64

M9
M30
