(X8 BEARING TEST HOLES)
(T3  D=0.118 CR=0. - ZMIN=-0.13 - FLAT END MILL)
G90 G94 G91.1 G40 G49 G17
G20

(2D POCKET1)
M5
T3 M6
S15000 M3
G54
M8
G0 X1.0024 Y2.5675
G43 Z0.64 H3
Z0.24
G1 Z0.1518 F30.
X1.0009 Y2.5679 Z0.146 F20.
X0.9968 Y2.5686 Z0.1417
X0.9911 Y2.5692 Z0.14
G3 X0.9858 Y2.4572 Z0.1339 I-0.0027 J-0.056
X0.9911 Y2.5692 Z0.1277 I0.0027 J0.056
X0.9858 Y2.4572 Z0.1216 I-0.0027 J-0.056
X0.9911 Y2.5692 Z0.1154 I0.0027 J0.056
X0.9858 Y2.4572 Z0.1093 I-0.0027 J-0.056
X0.9911 Y2.5692 Z0.1031 I0.0027 J0.056
X0.9858 Y2.4572 Z0.097 I-0.0027 J-0.056
X0.9911 Y2.5692 Z0.0908 I0.0027 J0.056
X0.9858 Y2.4572 Z0.0847 I-0.0027 J-0.056
X0.9911 Y2.5692 Z0.0785 I0.0027 J0.056
X0.9858 Y2.4572 Z0.0724 I-0.0027 J-0.056
X0.9911 Y2.5692 Z0.0662 I0.0027 J0.056
X0.9858 Y2.4572 Z0.0601 I-0.0027 J-0.056
X0.9911 Y2.5692 Z0.0539 I0.0027 J0.056
X0.9858 Y2.4572 Z0.0478 I-0.0027 J-0.056
X0.9911 Y2.5692 Z0.0416 I0.0027 J0.056
X0.9858 Y2.4572 Z0.0355 I-0.0027 J-0.056
X0.9911 Y2.5692 Z0.0293 I0.0027 J0.056
X0.9858 Y2.4572 Z0.0232 I-0.0027 J-0.056
X1.0445 Y2.5132 Z0.02 I0.0027 J0.056
X0.9363 I-0.0541 J0. F30.
X1.1566 I0.1102 J0.
X0.8242 I-0.1662 J0.
X1.2687 I0.2223 J0.
X0.7121 I-0.2783 J0.
X1.3808 I0.3344 J0.
X0.6 I-0.3904 J0.
X1.4929 I0.4465 J0.
X0.4879 I-0.5025 J0.
X1.4929 I0.5025 J0.
G1 X1.4927 Y2.5149
X1.492 Y2.5164
X1.4909 Y2.5177
X1.4895 Y2.5186
X1.4879 Y2.5191
X1.4862
X1.1988 Y2.4801
X1.1973 Y2.48
X1.1958 Y2.4802
X0.955 Y2.5546
X0.9535 Y2.5549
X0.9519 Y2.5547
X0.9504 Y2.5541
X0.9491 Y2.5532
G3 X1.0278 Y2.4733 Z0.0139 I0.0393 J-0.0399 F20.
X0.9491 Y2.5532 Z0.0077 I-0.0393 J0.0399
X1.0278 Y2.4733 Z0.0016 I0.0393 J-0.0399
X1.0445 Y2.5132 Z0. I-0.0393 J0.0399
X0.9363 I-0.0541 J0. F30.
X1.1566 I0.1102 J0.
X0.8242 I-0.1662 J0.
X1.2687 I0.2223 J0.
X0.7121 I-0.2783 J0.
X1.3808 I0.3344 J0.
X0.6 I-0.3904 J0.
X1.4929 I0.4465 J0.
X0.4879 I-0.5025 J0.
X1.4929 I0.5025 J0.
G1 X1.4927 Y2.5149
X1.492 Y2.5164
X1.4909 Y2.5177
X1.4895 Y2.5186
X1.4879 Y2.5191
X1.4862
X1.1988 Y2.4801
X1.1973 Y2.48
X1.1958 Y2.4802
X0.955 Y2.5546
X0.9535 Y2.5549
X0.9519 Y2.5547
X0.9504 Y2.5541
X0.9491 Y2.5532
G3 X1.0278 Y2.4733 Z-0.0061 I0.0393 J-0.0399 F20.
X0.9491 Y2.5532 Z-0.0123 I-0.0393 J0.0399
X1.0278 Y2.4733 Z-0.0184 I0.0393 J-0.0399
X1.0445 Y2.5132 Z-0.02 I-0.0393 J0.0399
X0.9363 I-0.0541 J0. F30.
X1.1566 I0.1102 J0.
X0.8242 I-0.1662 J0.
X1.2687 I0.2223 J0.
X0.7121 I-0.2783 J0.
X1.3808 I0.3344 J0.
X0.6 I-0.3904 J0.
X1.4929 I0.4465 J0.
X0.4879 I-0.5025 J0.
X1.4929 I0.5025 J0.
G1 X1.4927 Y2.5149
X1.492 Y2.5164
X1.4909 Y2.5177
X1.4895 Y2.5186
X1.4879 Y2.5191
X1.4862
X1.1988 Y2.4801
X1.1973 Y2.48
X1.1958 Y2.4802
X0.955 Y2.5546
X0.9535 Y2.5549
X0.9519 Y2.5547
X0.9504 Y2.5541
X0.9491 Y2.5532
G3 X1.0278 Y2.4733 Z-0.0261 I0.0393 J-0.0399 F20.
X0.9491 Y2.5532 Z-0.0323 I-0.0393 J0.0399
X1.0278 Y2.4733 Z-0.0384 I0.0393 J-0.0399
X1.0445 Y2.5132 Z-0.04 I-0.0393 J0.0399
X0.9363 I-0.0541 J0. F30.
X1.1566 I0.1102 J0.
X0.8242 I-0.1662 J0.
X1.2687 I0.2223 J0.
X0.7121 I-0.2783 J0.
X1.3808 I0.3344 J0.
X0.6 I-0.3904 J0.
X1.4929 I0.4465 J0.
X0.4879 I-0.5025 J0.
X1.4929 I0.5025 J0.
G1 X1.4927 Y2.5149
X1.492 Y2.5164
X1.4909 Y2.5177
X1.4895 Y2.5186
X1.4879 Y2.5191
X1.4862
X1.1988 Y2.4801
X1.1973 Y2.48
X1.1958 Y2.4802
X0.955 Y2.5546
X0.9535 Y2.5549
X0.9519 Y2.5547
X0.9504 Y2.5541
X0.9491 Y2.5532
G3 X1.0278 Y2.4733 Z-0.0461 I0.0393 J-0.0399 F20.
X0.9491 Y2.5532 Z-0.0523 I-0.0393 J0.0399
X1.0278 Y2.4733 Z-0.0584 I0.0393 J-0.0399
X1.0445 Y2.5132 Z-0.06 I-0.0393 J0.0399
X0.9363 I-0.0541 J0. F30.
X1.1566 I0.1102 J0.
X0.8242 I-0.1662 J0.
X1.2687 I0.2223 J0.
X0.7121 I-0.2783 J0.
X1.3808 I0.3344 J0.
X0.6 I-0.3904 J0.
X1.4929 I0.4465 J0.
X0.4879 I-0.5025 J0.
X1.4929 I0.5025 J0.
G1 X1.4927 Y2.5149
X1.492 Y2.5164
X1.4909 Y2.5177
X1.4895 Y2.5186
X1.4879 Y2.5191
X1.4862
X1.1988 Y2.4801
X1.1973 Y2.48
X1.1958 Y2.4802
X0.955 Y2.5546
X0.9535 Y2.5549
X0.9519 Y2.5547
X0.9504 Y2.5541
X0.9491 Y2.5532
G3 X1.0278 Y2.4733 Z-0.0661 I0.0393 J-0.0399 F20.
X0.9491 Y2.5532 Z-0.0723 I-0.0393 J0.0399
X1.0278 Y2.4733 Z-0.0784 I0.0393 J-0.0399
X1.0445 Y2.5132 Z-0.08 I-0.0393 J0.0399
X0.9363 I-0.0541 J0. F30.
X1.1566 I0.1102 J0.
X0.8242 I-0.1662 J0.
X1.2687 I0.2223 J0.
X0.7121 I-0.2783 J0.
X1.3808 I0.3344 J0.
X0.6 I-0.3904 J0.
X1.4929 I0.4465 J0.
X0.4879 I-0.5025 J0.
X1.4929 I0.5025 J0.
G1 X1.4927 Y2.5149
X1.492 Y2.5164
X1.4909 Y2.5177
X1.4895 Y2.5186
X1.4879 Y2.5191
X1.4862
X1.1988 Y2.4801
X1.1973 Y2.48
X1.1958 Y2.4802
X0.955 Y2.5546
X0.9535 Y2.5549
X0.9519 Y2.5547
X0.9504 Y2.5541
X0.9491 Y2.5532
G3 X1.0278 Y2.4733 Z-0.0861 I0.0393 J-0.0399 F20.
X0.9491 Y2.5532 Z-0.0923 I-0.0393 J0.0399
X1.0278 Y2.4733 Z-0.0984 I0.0393 J-0.0399
X1.0445 Y2.5132 Z-0.1 I-0.0393 J0.0399
X0.9363 I-0.0541 J0. F30.
X1.1566 I0.1102 J0.
X0.8242 I-0.1662 J0.
X1.2687 I0.2223 J0.
X0.7121 I-0.2783 J0.
X1.3808 I0.3344 J0.
X0.6 I-0.3904 J0.
X1.4929 I0.4465 J0.
X0.4879 I-0.5025 J0.
X1.4929 I0.5025 J0.
G1 X1.4927 Y2.5149
X1.492 Y2.5164
X1.4909 Y2.5177
X1.4895 Y2.5186
X1.4879 Y2.5191
X1.4862
X1.1988 Y2.4801
X1.1973 Y2.48
X1.1958 Y2.4802
X0.955 Y2.5546
X0.9535 Y2.5549
X0.9519 Y2.5547
X0.9504 Y2.5541
X0.9491 Y2.5532
G3 X1.0278 Y2.4733 Z-0.1061 I0.0393 J-0.0399 F20.
X0.9491 Y2.5532 Z-0.1123 I-0.0393 J0.0399
X1.0278 Y2.4733 Z-0.1184 I0.0393 J-0.0399
X1.0445 Y2.5132 Z-0.12 I-0.0393 J0.0399
X0.9363 I-0.0541 J0. F30.
X1.1566 I0.1102 J0.
X0.8242 I-0.1662 J0.
X1.2687 I0.2223 J0.
X0.7121 I-0.2783 J0.
X1.3808 I0.3344 J0.
X0.6 I-0.3904 J0.
X1.4929 I0.4465 J0.
X0.4879 I-0.5025 J0.
X1.4929 I0.5025 J0.
X1.4182 Y2.5661 Z-0.122 I-0.0561 J0. F20.
G1 X1.1193 Y2.4604 Z-0.128
G2 X1.0445 Y2.5132 Z-0.13 I-0.0187 J0.0528
G3 X0.9363 I-0.0541 J0. F30.
X1.1566 I0.1102 J0.
X0.8242 I-0.1662 J0.
X1.2687 I0.2223 J0.
X0.7121 I-0.2783 J0.
X1.3808 I0.3344 J0.
X0.6 I-0.3904 J0.
X1.4929 I0.4465 J0.
X0.4879 I-0.5025 J0.
X1.4929 I0.5025 J0.
G1 X1.4927 Y2.5155 Z-0.1296
X1.4921 Y2.5176 Z-0.1291
X1.4912 Y2.5193 Z-0.1278
X1.4901 Y2.5209 Z-0.1265
X1.4882 Y2.5226 Z-0.1227
X1.4875 Y2.5231 Z-0.1182
G0 Z0.24
X1.0147 Y1.0535
G1 Z0.1518 F30.
X1.0132 Y1.0538 Z0.146 F20.
X1.0091 Y1.0546 Z0.1417
X1.0034 Y1.0552 Z0.14
G3 X0.9981 Y0.9432 Z0.1339 I-0.0027 J-0.056
X1.0034 Y1.0552 Z0.1277 I0.0027 J0.056
X0.9981 Y0.9432 Z0.1216 I-0.0027 J-0.056
X1.0034 Y1.0552 Z0.1154 I0.0027 J0.056
X0.9981 Y0.9432 Z0.1093 I-0.0027 J-0.056
X1.0034 Y1.0552 Z0.1031 I0.0027 J0.056
X0.9981 Y0.9432 Z0.097 I-0.0027 J-0.056
X1.0034 Y1.0552 Z0.0908 I0.0027 J0.056
X0.9981 Y0.9432 Z0.0847 I-0.0027 J-0.056
X1.0034 Y1.0552 Z0.0785 I0.0027 J0.056
X0.9981 Y0.9432 Z0.0724 I-0.0027 J-0.056
X1.0034 Y1.0552 Z0.0662 I0.0027 J0.056
X0.9981 Y0.9432 Z0.0601 I-0.0027 J-0.056
X1.0034 Y1.0552 Z0.0539 I0.0027 J0.056
X0.9981 Y0.9432 Z0.0478 I-0.0027 J-0.056
X1.0034 Y1.0552 Z0.0416 I0.0027 J0.056
X0.9981 Y0.9432 Z0.0355 I-0.0027 J-0.056
X1.0034 Y1.0552 Z0.0293 I0.0027 J0.056
X0.9981 Y0.9432 Z0.0232 I-0.0027 J-0.056
X1.0568 Y0.9992 Z0.02 I0.0027 J0.056
X0.9496 I-0.0536 J0. F30.
X1.1689 I0.1097 J0.
X0.8375 I-0.1657 J0.
X1.281 I0.2218 J0.
X0.7254 I-0.2778 J0.
X1.3931 I0.3338 J0.
X0.6133 I-0.3899 J0.
X1.5052 I0.446 J0.
X0.5012 I-0.502 J0.
X1.5052 I0.502 J0.
G1 X1.505 Y1.0008
X1.5043 Y1.0024
X1.5032 Y1.0036
X1.5018 Y1.0045
X1.5002 Y1.005
X1.4985
X1.2111 Y0.9661
X1.2095 Y0.9659
X1.208 Y0.9662
X0.9673 Y1.0406
X0.9657 Y1.0408
X0.9642 Y1.0407
X0.9627 Y1.0401
X0.9614 Y1.0391
G3 X1.0401 Y0.9592 Z0.0139 I0.0393 J-0.0399 F20.
X0.9614 Y1.0391 Z0.0077 I-0.0393 J0.0399
X1.0401 Y0.9592 Z0.0016 I0.0393 J-0.0399
X1.0568 Y0.9992 Z0. I-0.0393 J0.0399
X0.9496 I-0.0536 J0. F30.
X1.1689 I0.1097 J0.
X0.8375 I-0.1657 J0.
X1.281 I0.2218 J0.
X0.7254 I-0.2778 J0.
X1.3931 I0.3338 J0.
X0.6133 I-0.3899 J0.
X1.5052 I0.446 J0.
X0.5012 I-0.502 J0.
X1.5052 I0.502 J0.
G1 X1.505 Y1.0008
X1.5043 Y1.0024
X1.5032 Y1.0036
X1.5018 Y1.0045
X1.5002 Y1.005
X1.4985
X1.2111 Y0.9661
X1.2095 Y0.9659
X1.208 Y0.9662
X0.9673 Y1.0406
X0.9657 Y1.0408
X0.9642 Y1.0407
X0.9627 Y1.0401
X0.9614 Y1.0391
G3 X1.0401 Y0.9592 Z-0.0061 I0.0393 J-0.0399 F20.
X0.9614 Y1.0391 Z-0.0123 I-0.0393 J0.0399
X1.0401 Y0.9592 Z-0.0184 I0.0393 J-0.0399
X1.0568 Y0.9992 Z-0.02 I-0.0393 J0.0399
X0.9496 I-0.0536 J0. F30.
X1.1689 I0.1097 J0.
X0.8375 I-0.1657 J0.
X1.281 I0.2218 J0.
X0.7254 I-0.2778 J0.
X1.3931 I0.3338 J0.
X0.6133 I-0.3899 J0.
X1.5052 I0.446 J0.
X0.5012 I-0.502 J0.
X1.5052 I0.502 J0.
G1 X1.505 Y1.0008
X1.5043 Y1.0024
X1.5032 Y1.0036
X1.5018 Y1.0045
X1.5002 Y1.005
X1.4985
X1.2111 Y0.9661
X1.2095 Y0.9659
X1.208 Y0.9662
X0.9673 Y1.0406
X0.9657 Y1.0408
X0.9642 Y1.0407
X0.9627 Y1.0401
X0.9614 Y1.0391
G3 X1.0401 Y0.9592 Z-0.0261 I0.0393 J-0.0399 F20.
X0.9614 Y1.0391 Z-0.0323 I-0.0393 J0.0399
X1.0401 Y0.9592 Z-0.0384 I0.0393 J-0.0399
X1.0568 Y0.9992 Z-0.04 I-0.0393 J0.0399
X0.9496 I-0.0536 J0. F30.
X1.1689 I0.1097 J0.
X0.8375 I-0.1657 J0.
X1.281 I0.2218 J0.
X0.7254 I-0.2778 J0.
X1.3931 I0.3338 J0.
X0.6133 I-0.3899 J0.
X1.5052 I0.446 J0.
X0.5012 I-0.502 J0.
X1.5052 I0.502 J0.
G1 X1.505 Y1.0008
X1.5043 Y1.0024
X1.5032 Y1.0036
X1.5018 Y1.0045
X1.5002 Y1.005
X1.4985
X1.2111 Y0.9661
X1.2095 Y0.9659
X1.208 Y0.9662
X0.9673 Y1.0406
X0.9657 Y1.0408
X0.9642 Y1.0407
X0.9627 Y1.0401
X0.9614 Y1.0391
G3 X1.0401 Y0.9592 Z-0.0461 I0.0393 J-0.0399 F20.
X0.9614 Y1.0391 Z-0.0523 I-0.0393 J0.0399
X1.0401 Y0.9592 Z-0.0584 I0.0393 J-0.0399
X1.0568 Y0.9992 Z-0.06 I-0.0393 J0.0399
X0.9496 I-0.0536 J0. F30.
X1.1689 I0.1097 J0.
X0.8375 I-0.1657 J0.
X1.281 I0.2218 J0.
X0.7254 I-0.2778 J0.
X1.3931 I0.3338 J0.
X0.6133 I-0.3899 J0.
X1.5052 I0.446 J0.
X0.5012 I-0.502 J0.
X1.5052 I0.502 J0.
G1 X1.505 Y1.0008
X1.5043 Y1.0024
X1.5032 Y1.0036
X1.5018 Y1.0045
X1.5002 Y1.005
X1.4985
X1.2111 Y0.9661
X1.2095 Y0.9659
X1.208 Y0.9662
X0.9673 Y1.0406
X0.9657 Y1.0408
X0.9642 Y1.0407
X0.9627 Y1.0401
X0.9614 Y1.0391
G3 X1.0401 Y0.9592 Z-0.0661 I0.0393 J-0.0399 F20.
X0.9614 Y1.0391 Z-0.0723 I-0.0393 J0.0399
X1.0401 Y0.9592 Z-0.0784 I0.0393 J-0.0399
X1.0568 Y0.9992 Z-0.08 I-0.0393 J0.0399
X0.9496 I-0.0536 J0. F30.
X1.1689 I0.1097 J0.
X0.8375 I-0.1657 J0.
X1.281 I0.2218 J0.
X0.7254 I-0.2778 J0.
X1.3931 I0.3338 J0.
X0.6133 I-0.3899 J0.
X1.5052 I0.446 J0.
X0.5012 I-0.502 J0.
X1.5052 I0.502 J0.
G1 X1.505 Y1.0008
X1.5043 Y1.0024
X1.5032 Y1.0036
X1.5018 Y1.0045
X1.5002 Y1.005
X1.4985
X1.2111 Y0.9661
X1.2095 Y0.9659
X1.208 Y0.9662
X0.9673 Y1.0406
X0.9657 Y1.0408
X0.9642 Y1.0407
X0.9627 Y1.0401
X0.9614 Y1.0391
G3 X1.0401 Y0.9592 Z-0.0861 I0.0393 J-0.0399 F20.
X0.9614 Y1.0391 Z-0.0923 I-0.0393 J0.0399
X1.0401 Y0.9592 Z-0.0984 I0.0393 J-0.0399
X1.0568 Y0.9992 Z-0.1 I-0.0393 J0.0399
X0.9496 I-0.0536 J0. F30.
X1.1689 I0.1097 J0.
X0.8375 I-0.1657 J0.
X1.281 I0.2218 J0.
X0.7254 I-0.2778 J0.
X1.3931 I0.3338 J0.
X0.6133 I-0.3899 J0.
X1.5052 I0.446 J0.
X0.5012 I-0.502 J0.
X1.5052 I0.502 J0.
G1 X1.505 Y1.0008
X1.5043 Y1.0024
X1.5032 Y1.0036
X1.5018 Y1.0045
X1.5002 Y1.005
X1.4985
X1.2111 Y0.9661
X1.2095 Y0.9659
X1.208 Y0.9662
X0.9673 Y1.0406
X0.9657 Y1.0408
X0.9642 Y1.0407
X0.9627 Y1.0401
X0.9614 Y1.0391
G3 X1.0401 Y0.9592 Z-0.1061 I0.0393 J-0.0399 F20.
X0.9614 Y1.0391 Z-0.1123 I-0.0393 J0.0399
X1.0401 Y0.9592 Z-0.1184 I0.0393 J-0.0399
X1.0568 Y0.9992 Z-0.12 I-0.0393 J0.0399
X0.9496 I-0.0536 J0. F30.
X1.1689 I0.1097 J0.
X0.8375 I-0.1657 J0.
X1.281 I0.2218 J0.
X0.7254 I-0.2778 J0.
X1.3931 I0.3338 J0.
X0.6133 I-0.3899 J0.
X1.5052 I0.446 J0.
X0.5012 I-0.502 J0.
X1.5052 I0.502 J0.
X1.4305 Y1.052 Z-0.122 I-0.056 J0. F20.
G1 X1.1315 Y0.9463 Z-0.128
G2 X1.0568 Y0.9992 Z-0.13 I-0.0187 J0.0528
G3 X0.9496 I-0.0536 J0. F30.
X1.1689 I0.1097 J0.
X0.8375 I-0.1657 J0.
X1.281 I0.2218 J0.
X0.7254 I-0.2778 J0.
X1.3931 I0.3338 J0.
X0.6133 I-0.3899 J0.
X1.5052 I0.446 J0.
X0.5012 I-0.502 J0.
X1.5052 I0.502 J0.
G1 X1.505 Y1.0014 Z-0.1296
X1.5043 Y1.0036 Z-0.1291
X1.5035 Y1.0053 Z-0.1278
X1.5024 Y1.0068 Z-0.1265
X1.5005 Y1.0086 Z-0.1227
X1.4998 Y1.0091 Z-0.1182
G0 Z0.24
X1.0135 Y4.0661
G1 Z0.1518 F30.
X1.0121 Y4.0664 Z0.146 F20.
X1.008 Y4.0672 Z0.1417
X1.0023 Y4.0678 Z0.14
G3 X0.9969 Y3.9558 Z0.1339 I-0.0027 J-0.056
X1.0023 Y4.0678 Z0.1277 I0.0027 J0.056
X0.9969 Y3.9558 Z0.1216 I-0.0027 J-0.056
X1.0023 Y4.0678 Z0.1154 I0.0027 J0.056
X0.9969 Y3.9558 Z0.1093 I-0.0027 J-0.056
X1.0023 Y4.0678 Z0.1031 I0.0027 J0.056
X0.9969 Y3.9558 Z0.097 I-0.0027 J-0.056
X1.0023 Y4.0678 Z0.0908 I0.0027 J0.056
X0.9969 Y3.9558 Z0.0847 I-0.0027 J-0.056
X1.0023 Y4.0678 Z0.0785 I0.0027 J0.056
X0.9969 Y3.9558 Z0.0724 I-0.0027 J-0.056
X1.0023 Y4.0678 Z0.0662 I0.0027 J0.056
X0.9969 Y3.9558 Z0.0601 I-0.0027 J-0.056
X1.0023 Y4.0678 Z0.0539 I0.0027 J0.056
X0.9969 Y3.9558 Z0.0478 I-0.0027 J-0.056
X1.0023 Y4.0678 Z0.0416 I0.0027 J0.056
X0.9969 Y3.9558 Z0.0355 I-0.0027 J-0.056
X1.0023 Y4.0678 Z0.0293 I0.0027 J0.056
X0.9969 Y3.9558 Z0.0232 I-0.0027 J-0.056
X1.0557 Y4.0118 Z0.02 I0.0027 J0.056
X0.9465 I-0.0546 J0. F30.
X1.1678 I0.1107 J0.
X0.8344 I-0.1667 J0.
X1.2799 I0.2228 J0.
X0.7223 I-0.2788 J0.
X1.392 I0.3349 J0.
X0.6102 I-0.3909 J0.
X1.5041 I0.447 J0.
X0.4981 I-0.503 J0.
X1.5041 I0.503 J0.
G1 X1.5038 Y4.0134
X1.5031 Y4.0149
X1.502 Y4.0162
X1.5006 Y4.0171
X1.499 Y4.0176
X1.4974
X1.21 Y3.9787
X1.2084 Y3.9785
X1.2069 Y3.9788
X0.9662 Y4.0532
X0.9646 Y4.0534
X0.963 Y4.0532
X0.9616 Y4.0527
X0.9603 Y4.0517
G3 X1.0389 Y3.9718 Z0.0139 I0.0393 J-0.0399 F20.
X0.9603 Y4.0517 Z0.0077 I-0.0393 J0.0399
X1.0389 Y3.9718 Z0.0016 I0.0393 J-0.0399
X1.0557 Y4.0118 Z0. I-0.0393 J0.0399
X0.9465 I-0.0546 J0. F30.
X1.1678 I0.1107 J0.
X0.8344 I-0.1667 J0.
X1.2799 I0.2228 J0.
X0.7223 I-0.2788 J0.
X1.392 I0.3349 J0.
X0.6102 I-0.3909 J0.
X1.5041 I0.447 J0.
X0.4981 I-0.503 J0.
X1.5041 I0.503 J0.
G1 X1.5038 Y4.0134
X1.5031 Y4.0149
X1.502 Y4.0162
X1.5006 Y4.0171
X1.499 Y4.0176
X1.4974
X1.21 Y3.9787
X1.2084 Y3.9785
X1.2069 Y3.9788
X0.9662 Y4.0532
X0.9646 Y4.0534
X0.963 Y4.0532
X0.9616 Y4.0527
X0.9603 Y4.0517
G3 X1.0389 Y3.9718 Z-0.0061 I0.0393 J-0.0399 F20.
X0.9603 Y4.0517 Z-0.0123 I-0.0393 J0.0399
X1.0389 Y3.9718 Z-0.0184 I0.0393 J-0.0399
X1.0557 Y4.0118 Z-0.02 I-0.0393 J0.0399
X0.9465 I-0.0546 J0. F30.
X1.1678 I0.1107 J0.
X0.8344 I-0.1667 J0.
X1.2799 I0.2228 J0.
X0.7223 I-0.2788 J0.
X1.392 I0.3349 J0.
X0.6102 I-0.3909 J0.
X1.5041 I0.447 J0.
X0.4981 I-0.503 J0.
X1.5041 I0.503 J0.
G1 X1.5038 Y4.0134
X1.5031 Y4.0149
X1.502 Y4.0162
X1.5006 Y4.0171
X1.499 Y4.0176
X1.4974
X1.21 Y3.9787
X1.2084 Y3.9785
X1.2069 Y3.9788
X0.9662 Y4.0532
X0.9646 Y4.0534
X0.963 Y4.0532
X0.9616 Y4.0527
X0.9603 Y4.0517
G3 X1.0389 Y3.9718 Z-0.0261 I0.0393 J-0.0399 F20.
X0.9603 Y4.0517 Z-0.0323 I-0.0393 J0.0399
X1.0389 Y3.9718 Z-0.0384 I0.0393 J-0.0399
X1.0557 Y4.0118 Z-0.04 I-0.0393 J0.0399
X0.9465 I-0.0546 J0. F30.
X1.1678 I0.1107 J0.
X0.8344 I-0.1667 J0.
X1.2799 I0.2228 J0.
X0.7223 I-0.2788 J0.
X1.392 I0.3349 J0.
X0.6102 I-0.3909 J0.
X1.5041 I0.447 J0.
X0.4981 I-0.503 J0.
X1.5041 I0.503 J0.
G1 X1.5038 Y4.0134
X1.5031 Y4.0149
X1.502 Y4.0162
X1.5006 Y4.0171
X1.499 Y4.0176
X1.4974
X1.21 Y3.9787
X1.2084 Y3.9785
X1.2069 Y3.9788
X0.9662 Y4.0532
X0.9646 Y4.0534
X0.963 Y4.0532
X0.9616 Y4.0527
X0.9603 Y4.0517
G3 X1.0389 Y3.9718 Z-0.0461 I0.0393 J-0.0399 F20.
X0.9603 Y4.0517 Z-0.0523 I-0.0393 J0.0399
X1.0389 Y3.9718 Z-0.0584 I0.0393 J-0.0399
X1.0557 Y4.0118 Z-0.06 I-0.0393 J0.0399
X0.9465 I-0.0546 J0. F30.
X1.1678 I0.1107 J0.
X0.8344 I-0.1667 J0.
X1.2799 I0.2228 J0.
X0.7223 I-0.2788 J0.
X1.392 I0.3349 J0.
X0.6102 I-0.3909 J0.
X1.5041 I0.447 J0.
X0.4981 I-0.503 J0.
X1.5041 I0.503 J0.
G1 X1.5038 Y4.0134
X1.5031 Y4.0149
X1.502 Y4.0162
X1.5006 Y4.0171
X1.499 Y4.0176
X1.4974
X1.21 Y3.9787
X1.2084 Y3.9785
X1.2069 Y3.9788
X0.9662 Y4.0532
X0.9646 Y4.0534
X0.963 Y4.0532
X0.9616 Y4.0527
X0.9603 Y4.0517
G3 X1.0389 Y3.9718 Z-0.0661 I0.0393 J-0.0399 F20.
X0.9603 Y4.0517 Z-0.0723 I-0.0393 J0.0399
X1.0389 Y3.9718 Z-0.0784 I0.0393 J-0.0399
X1.0557 Y4.0118 Z-0.08 I-0.0393 J0.0399
X0.9465 I-0.0546 J0. F30.
X1.1678 I0.1107 J0.
X0.8344 I-0.1667 J0.
X1.2799 I0.2228 J0.
X0.7223 I-0.2788 J0.
X1.392 I0.3349 J0.
X0.6102 I-0.3909 J0.
X1.5041 I0.447 J0.
X0.4981 I-0.503 J0.
X1.5041 I0.503 J0.
G1 X1.5038 Y4.0134
X1.5031 Y4.0149
X1.502 Y4.0162
X1.5006 Y4.0171
X1.499 Y4.0176
X1.4974
X1.21 Y3.9787
X1.2084 Y3.9785
X1.2069 Y3.9788
X0.9662 Y4.0532
X0.9646 Y4.0534
X0.963 Y4.0532
X0.9616 Y4.0527
X0.9603 Y4.0517
G3 X1.0389 Y3.9718 Z-0.0861 I0.0393 J-0.0399 F20.
X0.9603 Y4.0517 Z-0.0923 I-0.0393 J0.0399
X1.0389 Y3.9718 Z-0.0984 I0.0393 J-0.0399
X1.0557 Y4.0118 Z-0.1 I-0.0393 J0.0399
X0.9465 I-0.0546 J0. F30.
X1.1678 I0.1107 J0.
X0.8344 I-0.1667 J0.
X1.2799 I0.2228 J0.
X0.7223 I-0.2788 J0.
X1.392 I0.3349 J0.
X0.6102 I-0.3909 J0.
X1.5041 I0.447 J0.
X0.4981 I-0.503 J0.
X1.5041 I0.503 J0.
G1 X1.5038 Y4.0134
X1.5031 Y4.0149
X1.502 Y4.0162
X1.5006 Y4.0171
X1.499 Y4.0176
X1.4974
X1.21 Y3.9787
X1.2084 Y3.9785
X1.2069 Y3.9788
X0.9662 Y4.0532
X0.9646 Y4.0534
X0.963 Y4.0532
X0.9616 Y4.0527
X0.9603 Y4.0517
G3 X1.0389 Y3.9718 Z-0.1061 I0.0393 J-0.0399 F20.
X0.9603 Y4.0517 Z-0.1123 I-0.0393 J0.0399
X1.0389 Y3.9718 Z-0.1184 I0.0393 J-0.0399
X1.0557 Y4.0118 Z-0.12 I-0.0393 J0.0399
X0.9465 I-0.0546 J0. F30.
X1.1678 I0.1107 J0.
X0.8344 I-0.1667 J0.
X1.2799 I0.2228 J0.
X0.7223 I-0.2788 J0.
X1.392 I0.3349 J0.
X0.6102 I-0.3909 J0.
X1.5041 I0.447 J0.
X0.4981 I-0.503 J0.
X1.5041 I0.503 J0.
X1.4293 Y4.0646 Z-0.122 I-0.0561 J0. F20.
G1 X1.1304 Y3.9589 Z-0.128
G2 X1.0557 Y4.0118 Z-0.13 I-0.0187 J0.0528
G3 X0.9465 I-0.0546 J0. F30.
X1.1678 I0.1107 J0.
X0.8344 I-0.1667 J0.
X1.2799 I0.2228 J0.
X0.7223 I-0.2788 J0.
X1.392 I0.3349 J0.
X0.6102 I-0.3909 J0.
X1.5041 I0.447 J0.
X0.4981 I-0.503 J0.
X1.5041 I0.503 J0.
G1 X1.5039 Y4.014 Z-0.1296
X1.5032 Y4.0162 Z-0.1291
X1.5024 Y4.0179 Z-0.1278
X1.5012 Y4.0194 Z-0.1265
X1.4994 Y4.0212 Z-0.1227
X1.4986 Y4.0217 Z-0.1182
G0 Z0.64

M9
M30
