(X8 BUMPER MOUNT HOLES)
(T3  D=0.118 CR=0. - ZMIN=-0.31 - FLAT END MILL)
G90 G94 G91.1 G40 G49 G17
G20

(2D POCKET1)
M5
T3 M6
S15000 M3
G4 p5
G54
M8
G0 X0.2947 Y11.5557
G43 Z0.6 H3
Z0.2
G1 Z0.1118 F40.
X0.295 Y11.5569 Z0.1066 F20.
X0.2948 Y11.5586 Z0.1045
X0.2941 Y11.5602 Z0.1024
X0.293 Y11.5613 Z0.1017
X0.2916 Y11.5621 Z0.101
X0.29 Y11.5624 Z0.1002
X0.2891 Y11.5623 Z0.1001
X0.2882 Y11.562 Z0.1
G3 X0.2918 Y11.5527 Z0.0995 I0.0018 J-0.0046
X0.2882 Y11.562 Z0.0989 I-0.0018 J0.0046
X0.2918 Y11.5527 Z0.0984 I0.0018 J-0.0046
X0.2882 Y11.562 Z0.0978 I-0.0018 J0.0046
X0.2918 Y11.5527 Z0.0973 I0.0018 J-0.0046
X0.2882 Y11.562 Z0.0967 I-0.0018 J0.0046
X0.2918 Y11.5527 Z0.0962 I0.0018 J-0.0046
X0.2882 Y11.562 Z0.0956 I-0.0018 J0.0046
X0.2918 Y11.5527 Z0.0951 I0.0018 J-0.0046
X0.2882 Y11.562 Z0.0945 I-0.0018 J0.0046
X0.2918 Y11.5527 Z0.094 I0.0018 J-0.0046
X0.2882 Y11.562 Z0.0934 I-0.0018 J0.0046
X0.2918 Y11.5527 Z0.0929 I0.0018 J-0.0046
X0.2882 Y11.562 Z0.0923 I-0.0018 J0.0046
X0.2918 Y11.5527 Z0.0918 I0.0018 J-0.0046
X0.2882 Y11.562 Z0.0912 I-0.0018 J0.0046
X0.2918 Y11.5527 Z0.0907 I0.0018 J-0.0046
X0.2882 Y11.562 Z0.0901 I-0.0018 J0.0046
X0.2918 Y11.5527 Z0.0896 I0.0018 J-0.0046
X0.2882 Y11.562 Z0.089 I-0.0018 J0.0046
X0.2918 Y11.5527 Z0.0885 I0.0018 J-0.0046
X0.2882 Y11.562 Z0.0879 I-0.0018 J0.0046
X0.2918 Y11.5527 Z0.0874 I0.0018 J-0.0046
X0.2882 Y11.562 Z0.0868 I-0.0018 J0.0046
X0.2918 Y11.5527 Z0.0863 I0.0018 J-0.0046
X0.2882 Y11.562 Z0.0857 I-0.0018 J0.0046
X0.2918 Y11.5527 Z0.0852 I0.0018 J-0.0046
X0.2882 Y11.562 Z0.0846 I-0.0018 J0.0046
X0.2918 Y11.5527 Z0.0841 I0.0018 J-0.0046
X0.2882 Y11.562 Z0.0835 I-0.0018 J0.0046
X0.2918 Y11.5527 Z0.083 I0.0018 J-0.0046
X0.2882 Y11.562 Z0.0824 I-0.0018 J0.0046
X0.2918 Y11.5527 Z0.0819 I0.0018 J-0.0046
X0.2882 Y11.562 Z0.0813 I-0.0018 J0.0046
X0.2918 Y11.5527 Z0.0808 I0.0018 J-0.0046
X0.2882 Y11.562 Z0.0803 I-0.0018 J0.0046
X0.2918 Y11.5527 Z0.0797 I0.0018 J-0.0046
X0.2882 Y11.562 Z0.0792 I-0.0018 J0.0046
X0.2918 Y11.5527 Z0.0786 I0.0018 J-0.0046
X0.2882 Y11.562 Z0.0781 I-0.0018 J0.0046
X0.2918 Y11.5527 Z0.0775 I0.0018 J-0.0046
X0.2882 Y11.562 Z0.077 I-0.0018 J0.0046
X0.2918 Y11.5527 Z0.0764 I0.0018 J-0.0046
X0.2882 Y11.562 Z0.0759 I-0.0018 J0.0046
X0.2918 Y11.5527 Z0.0753 I0.0018 J-0.0046
X0.2882 Y11.562 Z0.0748 I-0.0018 J0.0046
X0.2918 Y11.5527 Z0.0742 I0.0018 J-0.0046
X0.2882 Y11.562 Z0.0737 I-0.0018 J0.0046
X0.2918 Y11.5527 Z0.0731 I0.0018 J-0.0046
X0.2882 Y11.562 Z0.0726 I-0.0018 J0.0046
X0.2918 Y11.5527 Z0.072 I0.0018 J-0.0046
X0.2882 Y11.562 Z0.0715 I-0.0018 J0.0046
X0.2918 Y11.5527 Z0.0709 I0.0018 J-0.0046
X0.2882 Y11.562 Z0.0704 I-0.0018 J0.0046
X0.2918 Y11.5527 Z0.0698 I0.0018 J-0.0046
X0.2882 Y11.562 Z0.0693 I-0.0018 J0.0046
X0.2918 Y11.5527 Z0.0687 I0.0018 J-0.0046
X0.2882 Y11.562 Z0.0682 I-0.0018 J0.0046
X0.2918 Y11.5527 Z0.0676 I0.0018 J-0.0046
X0.2882 Y11.562 Z0.0671 I-0.0018 J0.0046
X0.2918 Y11.5527 Z0.0665 I0.0018 J-0.0046
X0.2882 Y11.562 Z0.066 I-0.0018 J0.0046
X0.2918 Y11.5527 Z0.0654 I0.0018 J-0.0046
X0.2882 Y11.562 Z0.0649 I-0.0018 J0.0046
X0.2918 Y11.5527 Z0.0643 I0.0018 J-0.0046
X0.2882 Y11.562 Z0.0638 I-0.0018 J0.0046
X0.2918 Y11.5527 Z0.0632 I0.0018 J-0.0046
X0.2882 Y11.562 Z0.0627 I-0.0018 J0.0046
X0.2918 Y11.5527 Z0.0622 I0.0018 J-0.0046
X0.2882 Y11.562 Z0.0616 I-0.0018 J0.0046
X0.2918 Y11.5527 Z0.0611 I0.0018 J-0.0046
X0.2882 Y11.562 Z0.0605 I-0.0018 J0.0046
X0.2918 Y11.5527 Z0.06 I0.0018 J-0.0046
X0.2882 Y11.562 Z0.0594 I-0.0018 J0.0046
X0.2918 Y11.5527 Z0.0589 I0.0018 J-0.0046
X0.2882 Y11.562 Z0.0583 I-0.0018 J0.0046
X0.2918 Y11.5527 Z0.0578 I0.0018 J-0.0046
X0.2882 Y11.562 Z0.0572 I-0.0018 J0.0046
X0.2918 Y11.5527 Z0.0567 I0.0018 J-0.0046
X0.2882 Y11.562 Z0.0561 I-0.0018 J0.0046
X0.2918 Y11.5527 Z0.0556 I0.0018 J-0.0046
X0.2882 Y11.562 Z0.055 I-0.0018 J0.0046
X0.2918 Y11.5527 Z0.0545 I0.0018 J-0.0046
X0.2882 Y11.562 Z0.0539 I-0.0018 J0.0046
X0.2918 Y11.5527 Z0.0534 I0.0018 J-0.0046
X0.2882 Y11.562 Z0.0528 I-0.0018 J0.0046
X0.2918 Y11.5527 Z0.0523 I0.0018 J-0.0046
X0.2882 Y11.562 Z0.0517 I-0.0018 J0.0046
X0.2918 Y11.5527 Z0.0512 I0.0018 J-0.0046
X0.2882 Y11.562 Z0.0506 I-0.0018 J0.0046
X0.2918 Y11.5527 Z0.0501 I0.0018 J-0.0046
X0.2882 Y11.562 Z0.0495 I-0.0018 J0.0046
X0.2918 Y11.5527 Z0.049 I0.0018 J-0.0046
X0.2882 Y11.562 Z0.0484 I-0.0018 J0.0046
X0.2918 Y11.5527 Z0.0479 I0.0018 J-0.0046
X0.2882 Y11.562 Z0.0473 I-0.0018 J0.0046
X0.2918 Y11.5527 Z0.0468 I0.0018 J-0.0046
X0.2882 Y11.562 Z0.0462 I-0.0018 J0.0046
X0.2918 Y11.5527 Z0.0457 I0.0018 J-0.0046
X0.2882 Y11.562 Z0.0451 I-0.0018 J0.0046
X0.2918 Y11.5527 Z0.0446 I0.0018 J-0.0046
X0.2882 Y11.562 Z0.044 I-0.0018 J0.0046
X0.2918 Y11.5527 Z0.0435 I0.0018 J-0.0046
X0.2882 Y11.562 Z0.043 I-0.0018 J0.0046
X0.2918 Y11.5527 Z0.0424 I0.0018 J-0.0046
X0.2882 Y11.562 Z0.0419 I-0.0018 J0.0046
X0.2918 Y11.5527 Z0.0413 I0.0018 J-0.0046
X0.2882 Y11.562 Z0.0408 I-0.0018 J0.0046
X0.2918 Y11.5527 Z0.0402 I0.0018 J-0.0046
X0.2882 Y11.562 Z0.0397 I-0.0018 J0.0046
X0.2918 Y11.5527 Z0.0391 I0.0018 J-0.0046
X0.2882 Y11.562 Z0.0386 I-0.0018 J0.0046
X0.2918 Y11.5527 Z0.038 I0.0018 J-0.0046
X0.2882 Y11.562 Z0.0375 I-0.0018 J0.0046
X0.2918 Y11.5527 Z0.0369 I0.0018 J-0.0046
X0.2882 Y11.562 Z0.0364 I-0.0018 J0.0046
X0.2918 Y11.5527 Z0.0358 I0.0018 J-0.0046
X0.2882 Y11.562 Z0.0353 I-0.0018 J0.0046
X0.2918 Y11.5527 Z0.0347 I0.0018 J-0.0046
X0.2882 Y11.562 Z0.0342 I-0.0018 J0.0046
X0.2918 Y11.5527 Z0.0336 I0.0018 J-0.0046
X0.2882 Y11.562 Z0.0331 I-0.0018 J0.0046
X0.2918 Y11.5527 Z0.0325 I0.0018 J-0.0046
X0.2882 Y11.562 Z0.032 I-0.0018 J0.0046
X0.2918 Y11.5527 Z0.0314 I0.0018 J-0.0046
X0.2882 Y11.562 Z0.0309 I-0.0018 J0.0046
X0.2918 Y11.5527 Z0.0303 I0.0018 J-0.0046
X0.2882 Y11.562 Z0.0298 I-0.0018 J0.0046
X0.2918 Y11.5527 Z0.0292 I0.0018 J-0.0046
X0.2882 Y11.562 Z0.0287 I-0.0018 J0.0046
X0.2918 Y11.5527 Z0.0281 I0.0018 J-0.0046
X0.2882 Y11.562 Z0.0276 I-0.0018 J0.0046
X0.2918 Y11.5527 Z0.027 I0.0018 J-0.0046
X0.2882 Y11.562 Z0.0265 I-0.0018 J0.0046
X0.2918 Y11.5527 Z0.0259 I0.0018 J-0.0046
X0.2882 Y11.562 Z0.0254 I-0.0018 J0.0046
X0.2918 Y11.5527 Z0.0249 I0.0018 J-0.0046
X0.2882 Y11.562 Z0.0243 I-0.0018 J0.0046
X0.2918 Y11.5527 Z0.0238 I0.0018 J-0.0046
X0.2882 Y11.562 Z0.0232 I-0.0018 J0.0046
X0.2918 Y11.5527 Z0.0227 I0.0018 J-0.0046
X0.2882 Y11.562 Z0.0221 I-0.0018 J0.0046
X0.2918 Y11.5527 Z0.0216 I0.0018 J-0.0046
X0.2882 Y11.562 Z0.021 I-0.0018 J0.0046
X0.2918 Y11.5527 Z0.0205 I0.0018 J-0.0046
X0.2882 Y11.562 Z0.0199 I-0.0018 J0.0046
X0.2918 Y11.5527 Z0.0194 I0.0018 J-0.0046
X0.2882 Y11.562 Z0.0188 I-0.0018 J0.0046
X0.2918 Y11.5527 Z0.0183 I0.0018 J-0.0046
X0.2882 Y11.562 Z0.0177 I-0.0018 J0.0046
X0.2918 Y11.5527 Z0.0172 I0.0018 J-0.0046
X0.2882 Y11.562 Z0.0166 I-0.0018 J0.0046
X0.2918 Y11.5527 Z0.0161 I0.0018 J-0.0046
X0.2882 Y11.562 Z0.0155 I-0.0018 J0.0046
X0.2918 Y11.5527 Z0.015 I0.0018 J-0.0046
X0.2882 Y11.562 Z0.0144 I-0.0018 J0.0046
X0.2918 Y11.5527 Z0.0139 I0.0018 J-0.0046
X0.2882 Y11.562 Z0.0133 I-0.0018 J0.0046
X0.2918 Y11.5527 Z0.0128 I0.0018 J-0.0046
X0.2882 Y11.562 Z0.0122 I-0.0018 J0.0046
X0.2918 Y11.5527 Z0.0117 I0.0018 J-0.0046
X0.2882 Y11.562 Z0.0111 I-0.0018 J0.0046
X0.2918 Y11.5527 Z0.0106 I0.0018 J-0.0046
X0.2882 Y11.562 Z0.01 I-0.0018 J0.0046
X0.2918 Y11.5527 Z0.0095 I0.0018 J-0.0046
X0.2882 Y11.562 Z0.0089 I-0.0018 J0.0046
X0.2918 Y11.5527 Z0.0084 I0.0018 J-0.0046
X0.2882 Y11.562 Z0.0078 I-0.0018 J0.0046
X0.2918 Y11.5527 Z0.0073 I0.0018 J-0.0046
X0.2882 Y11.562 Z0.0067 I-0.0018 J0.0046
X0.2918 Y11.5527 Z0.0062 I0.0018 J-0.0046
X0.2882 Y11.562 Z0.0057 I-0.0018 J0.0046
X0.2918 Y11.5527 Z0.0051 I0.0018 J-0.0046
X0.2882 Y11.562 Z0.0046 I-0.0018 J0.0046
X0.2918 Y11.5527 Z0.004 I0.0018 J-0.0046
X0.2882 Y11.562 Z0.0035 I-0.0018 J0.0046
X0.2918 Y11.5527 Z0.0029 I0.0018 J-0.0046
X0.2882 Y11.562 Z0.0024 I-0.0018 J0.0046
X0.2918 Y11.5527 Z0.0018 I0.0018 J-0.0046
X0.2882 Y11.562 Z0.0013 I-0.0018 J0.0046
X0.2918 Y11.5527 Z0.0007 I0.0018 J-0.0046
X0.2882 Y11.562 Z0.0002 I-0.0018 J0.0046
X0.2918 Y11.5527 Z-0.0004 I0.0018 J-0.0046
X0.2882 Y11.562 Z-0.0009 I-0.0018 J0.0046
X0.2918 Y11.5527 Z-0.0015 I0.0018 J-0.0046
X0.2882 Y11.562 Z-0.002 I-0.0018 J0.0046
X0.2918 Y11.5527 Z-0.0026 I0.0018 J-0.0046
X0.2882 Y11.562 Z-0.0031 I-0.0018 J0.0046
X0.2918 Y11.5527 Z-0.0037 I0.0018 J-0.0046
X0.2882 Y11.562 Z-0.0042 I-0.0018 J0.0046
X0.2918 Y11.5527 Z-0.0048 I0.0018 J-0.0046
X0.2882 Y11.562 Z-0.0053 I-0.0018 J0.0046
X0.2918 Y11.5527 Z-0.0059 I0.0018 J-0.0046
X0.2882 Y11.562 Z-0.0064 I-0.0018 J0.0046
X0.2918 Y11.5527 Z-0.007 I0.0018 J-0.0046
X0.2882 Y11.562 Z-0.0075 I-0.0018 J0.0046
X0.2918 Y11.5527 Z-0.0081 I0.0018 J-0.0046
X0.2882 Y11.562 Z-0.0086 I-0.0018 J0.0046
X0.2918 Y11.5527 Z-0.0092 I0.0018 J-0.0046
X0.2882 Y11.562 Z-0.0097 I-0.0018 J0.0046
X0.2918 Y11.5527 Z-0.0103 I0.0018 J-0.0046
X0.2882 Y11.562 Z-0.0108 I-0.0018 J0.0046
X0.2918 Y11.5527 Z-0.0114 I0.0018 J-0.0046
X0.2882 Y11.562 Z-0.0119 I-0.0018 J0.0046
X0.2918 Y11.5527 Z-0.0124 I0.0018 J-0.0046
X0.2882 Y11.562 Z-0.013 I-0.0018 J0.0046
X0.2918 Y11.5527 Z-0.0135 I0.0018 J-0.0046
X0.2882 Y11.562 Z-0.0141 I-0.0018 J0.0046
X0.2918 Y11.5527 Z-0.0146 I0.0018 J-0.0046
X0.2882 Y11.562 Z-0.0152 I-0.0018 J0.0046
X0.2918 Y11.5527 Z-0.0157 I0.0018 J-0.0046
X0.2882 Y11.562 Z-0.0163 I-0.0018 J0.0046
X0.2918 Y11.5527 Z-0.0168 I0.0018 J-0.0046
X0.2882 Y11.562 Z-0.0174 I-0.0018 J0.0046
X0.2918 Y11.5527 Z-0.0179 I0.0018 J-0.0046
X0.2882 Y11.562 Z-0.0185 I-0.0018 J0.0046
X0.2918 Y11.5527 Z-0.019 I0.0018 J-0.0046
X0.2882 Y11.562 Z-0.0196 I-0.0018 J0.0046
X0.2918 Y11.5527 Z-0.0201 I0.0018 J-0.0046
X0.2882 Y11.562 Z-0.0207 I-0.0018 J0.0046
X0.2918 Y11.5527 Z-0.0212 I0.0018 J-0.0046
X0.2882 Y11.562 Z-0.0218 I-0.0018 J0.0046
X0.2918 Y11.5527 Z-0.0223 I0.0018 J-0.0046
X0.2882 Y11.562 Z-0.0229 I-0.0018 J0.0046
X0.2918 Y11.5527 Z-0.0234 I0.0018 J-0.0046
X0.2882 Y11.562 Z-0.024 I-0.0018 J0.0046
X0.2918 Y11.5527 Z-0.0245 I0.0018 J-0.0046
X0.29 Y11.5624 Z-0.025 I-0.0018 J0.0046
X0.2676 Y11.54 I0. J-0.0224 F40.
X0.29 Y11.5176 I0.0224 J0.
X0.3124 Y11.54 I0. J0.0224
X0.29 Y11.5624 I-0.0224 J0.
G2 X0.26 Y11.5782 I0. J0.0362
G3 X0.2261 Y11.577 I-0.0166 J-0.0113
X0.2162 Y11.54 I0.0639 J-0.037
X0.3638 I0.0738 J0.
X0.2261 Y11.577 I-0.0738 J0.
G1 X0.2255 Y11.5753
X0.2254 Y11.5735
X0.2258 Y11.5717
X0.2268 Y11.5701
X0.2282 Y11.569
X0.23 Y11.5683
X0.2847 Y11.5561
X0.2869 Y11.5528
G3 X0.2948 Y11.5615 I0.004 J0.0044
X0.2851 Y11.5585 I-0.004 J-0.0044
X0.2949 Y11.5562 Z-0.0255 I0.0049 J-0.0012 F20.
X0.2851 Y11.5585 Z-0.0261 I-0.0049 J0.0012
X0.2949 Y11.5562 Z-0.0266 I0.0049 J-0.0012
X0.2851 Y11.5585 Z-0.0272 I-0.0049 J0.0012
X0.2949 Y11.5562 Z-0.0277 I0.0049 J-0.0012
X0.2851 Y11.5585 Z-0.0283 I-0.0049 J0.0012
X0.2949 Y11.5562 Z-0.0288 I0.0049 J-0.0012
X0.2851 Y11.5585 Z-0.0294 I-0.0049 J0.0012
X0.2949 Y11.5562 Z-0.0299 I0.0049 J-0.0012
X0.2851 Y11.5585 Z-0.0305 I-0.0049 J0.0012
X0.2949 Y11.5562 Z-0.031 I0.0049 J-0.0012
X0.2851 Y11.5585 Z-0.0316 I-0.0049 J0.0012
X0.2949 Y11.5562 Z-0.0321 I0.0049 J-0.0012
X0.2851 Y11.5585 Z-0.0327 I-0.0049 J0.0012
X0.2949 Y11.5562 Z-0.0332 I0.0049 J-0.0012
X0.2851 Y11.5585 Z-0.0338 I-0.0049 J0.0012
X0.2949 Y11.5562 Z-0.0343 I0.0049 J-0.0012
X0.2851 Y11.5585 Z-0.0349 I-0.0049 J0.0012
X0.2949 Y11.5562 Z-0.0354 I0.0049 J-0.0012
X0.2851 Y11.5585 Z-0.036 I-0.0049 J0.0012
X0.2949 Y11.5562 Z-0.0365 I0.0049 J-0.0012
X0.2851 Y11.5585 Z-0.0371 I-0.0049 J0.0012
X0.2949 Y11.5562 Z-0.0376 I0.0049 J-0.0012
X0.2851 Y11.5585 Z-0.0382 I-0.0049 J0.0012
X0.2949 Y11.5562 Z-0.0387 I0.0049 J-0.0012
X0.2851 Y11.5585 Z-0.0393 I-0.0049 J0.0012
X0.2949 Y11.5562 Z-0.0398 I0.0049 J-0.0012
X0.2851 Y11.5585 Z-0.0404 I-0.0049 J0.0012
X0.2949 Y11.5562 Z-0.0409 I0.0049 J-0.0012
X0.2851 Y11.5585 Z-0.0415 I-0.0049 J0.0012
X0.2949 Y11.5562 Z-0.042 I0.0049 J-0.0012
X0.2851 Y11.5585 Z-0.0426 I-0.0049 J0.0012
X0.2949 Y11.5562 Z-0.0431 I0.0049 J-0.0012
X0.2851 Y11.5585 Z-0.0437 I-0.0049 J0.0012
X0.2949 Y11.5562 Z-0.0442 I0.0049 J-0.0012
X0.2851 Y11.5585 Z-0.0447 I-0.0049 J0.0012
X0.2949 Y11.5562 Z-0.0453 I0.0049 J-0.0012
X0.2851 Y11.5585 Z-0.0458 I-0.0049 J0.0012
X0.2949 Y11.5562 Z-0.0464 I0.0049 J-0.0012
X0.2851 Y11.5585 Z-0.0469 I-0.0049 J0.0012
X0.2949 Y11.5562 Z-0.0475 I0.0049 J-0.0012
X0.2851 Y11.5585 Z-0.048 I-0.0049 J0.0012
X0.2949 Y11.5562 Z-0.0486 I0.0049 J-0.0012
X0.2851 Y11.5585 Z-0.0491 I-0.0049 J0.0012
X0.2949 Y11.5562 Z-0.0497 I0.0049 J-0.0012
X0.29 Y11.5624 Z-0.05 I-0.0049 J0.0012
X0.2676 Y11.54 I0. J-0.0224 F40.
X0.29 Y11.5176 I0.0224 J0.
X0.3124 Y11.54 I0. J0.0224
X0.29 Y11.5624 I-0.0224 J0.
G2 X0.26 Y11.5782 I0. J0.0362
G3 X0.2261 Y11.577 I-0.0166 J-0.0113
X0.2162 Y11.54 I0.0639 J-0.037
X0.3638 I0.0738 J0.
X0.2261 Y11.577 I-0.0738 J0.
G1 X0.2255 Y11.5753
X0.2254 Y11.5735
X0.2258 Y11.5717
X0.2268 Y11.5701
X0.2282 Y11.569
X0.23 Y11.5683
X0.2847 Y11.5561
X0.2869 Y11.5528
G3 X0.2948 Y11.5615 I0.004 J0.0044
X0.2851 Y11.5585 I-0.004 J-0.0044
X0.2949 Y11.5562 Z-0.0505 I0.0049 J-0.0012 F20.
X0.2851 Y11.5585 Z-0.0511 I-0.0049 J0.0012
X0.2949 Y11.5562 Z-0.0516 I0.0049 J-0.0012
X0.2851 Y11.5585 Z-0.0522 I-0.0049 J0.0012
X0.2949 Y11.5562 Z-0.0527 I0.0049 J-0.0012
X0.2851 Y11.5585 Z-0.0533 I-0.0049 J0.0012
X0.2949 Y11.5562 Z-0.0538 I0.0049 J-0.0012
X0.2851 Y11.5585 Z-0.0544 I-0.0049 J0.0012
X0.2949 Y11.5562 Z-0.0549 I0.0049 J-0.0012
X0.2851 Y11.5585 Z-0.0555 I-0.0049 J0.0012
X0.2949 Y11.5562 Z-0.056 I0.0049 J-0.0012
X0.2851 Y11.5585 Z-0.0566 I-0.0049 J0.0012
X0.2949 Y11.5562 Z-0.0571 I0.0049 J-0.0012
X0.2851 Y11.5585 Z-0.0577 I-0.0049 J0.0012
X0.2949 Y11.5562 Z-0.0582 I0.0049 J-0.0012
X0.2851 Y11.5585 Z-0.0588 I-0.0049 J0.0012
X0.2949 Y11.5562 Z-0.0593 I0.0049 J-0.0012
X0.2851 Y11.5585 Z-0.0599 I-0.0049 J0.0012
X0.2949 Y11.5562 Z-0.0604 I0.0049 J-0.0012
X0.2851 Y11.5585 Z-0.061 I-0.0049 J0.0012
X0.2949 Y11.5562 Z-0.0615 I0.0049 J-0.0012
X0.2851 Y11.5585 Z-0.0621 I-0.0049 J0.0012
X0.2949 Y11.5562 Z-0.0626 I0.0049 J-0.0012
X0.2851 Y11.5585 Z-0.0632 I-0.0049 J0.0012
X0.2949 Y11.5562 Z-0.0637 I0.0049 J-0.0012
X0.2851 Y11.5585 Z-0.0643 I-0.0049 J0.0012
X0.2949 Y11.5562 Z-0.0648 I0.0049 J-0.0012
X0.2851 Y11.5585 Z-0.0654 I-0.0049 J0.0012
X0.2949 Y11.5562 Z-0.0659 I0.0049 J-0.0012
X0.2851 Y11.5585 Z-0.0665 I-0.0049 J0.0012
X0.2949 Y11.5562 Z-0.067 I0.0049 J-0.0012
X0.2851 Y11.5585 Z-0.0676 I-0.0049 J0.0012
X0.2949 Y11.5562 Z-0.0681 I0.0049 J-0.0012
X0.2851 Y11.5585 Z-0.0687 I-0.0049 J0.0012
X0.2949 Y11.5562 Z-0.0692 I0.0049 J-0.0012
X0.2851 Y11.5585 Z-0.0697 I-0.0049 J0.0012
X0.2949 Y11.5562 Z-0.0703 I0.0049 J-0.0012
X0.2851 Y11.5585 Z-0.0708 I-0.0049 J0.0012
X0.2949 Y11.5562 Z-0.0714 I0.0049 J-0.0012
X0.2851 Y11.5585 Z-0.0719 I-0.0049 J0.0012
X0.2949 Y11.5562 Z-0.0725 I0.0049 J-0.0012
X0.2851 Y11.5585 Z-0.073 I-0.0049 J0.0012
X0.2949 Y11.5562 Z-0.0736 I0.0049 J-0.0012
X0.2851 Y11.5585 Z-0.0741 I-0.0049 J0.0012
X0.2949 Y11.5562 Z-0.0747 I0.0049 J-0.0012
X0.29 Y11.5624 Z-0.075 I-0.0049 J0.0012
X0.2676 Y11.54 I0. J-0.0224 F40.
X0.29 Y11.5176 I0.0224 J0.
X0.3124 Y11.54 I0. J0.0224
X0.29 Y11.5624 I-0.0224 J0.
G2 X0.26 Y11.5782 I0. J0.0362
G3 X0.2261 Y11.577 I-0.0166 J-0.0113
X0.2162 Y11.54 I0.0639 J-0.037
X0.3638 I0.0738 J0.
X0.2261 Y11.577 I-0.0738 J0.
G1 X0.2255 Y11.5753
X0.2254 Y11.5735
X0.2258 Y11.5717
X0.2268 Y11.5701
X0.2282 Y11.569
X0.23 Y11.5683
X0.2847 Y11.5561
X0.2869 Y11.5528
G3 X0.2948 Y11.5615 I0.004 J0.0044
X0.2851 Y11.5585 I-0.004 J-0.0044
X0.2949 Y11.5562 Z-0.0755 I0.0049 J-0.0012 F20.
X0.2851 Y11.5585 Z-0.0761 I-0.0049 J0.0012
X0.2949 Y11.5562 Z-0.0766 I0.0049 J-0.0012
X0.2851 Y11.5585 Z-0.0772 I-0.0049 J0.0012
X0.2949 Y11.5562 Z-0.0777 I0.0049 J-0.0012
X0.2851 Y11.5585 Z-0.0783 I-0.0049 J0.0012
X0.2949 Y11.5562 Z-0.0788 I0.0049 J-0.0012
X0.2851 Y11.5585 Z-0.0794 I-0.0049 J0.0012
X0.2949 Y11.5562 Z-0.0799 I0.0049 J-0.0012
X0.2851 Y11.5585 Z-0.0805 I-0.0049 J0.0012
X0.2949 Y11.5562 Z-0.081 I0.0049 J-0.0012
X0.2851 Y11.5585 Z-0.0816 I-0.0049 J0.0012
X0.2949 Y11.5562 Z-0.0821 I0.0049 J-0.0012
X0.2851 Y11.5585 Z-0.0827 I-0.0049 J0.0012
X0.2949 Y11.5562 Z-0.0832 I0.0049 J-0.0012
X0.2851 Y11.5585 Z-0.0838 I-0.0049 J0.0012
X0.2949 Y11.5562 Z-0.0843 I0.0049 J-0.0012
X0.2851 Y11.5585 Z-0.0849 I-0.0049 J0.0012
X0.2949 Y11.5562 Z-0.0854 I0.0049 J-0.0012
X0.2851 Y11.5585 Z-0.086 I-0.0049 J0.0012
X0.2949 Y11.5562 Z-0.0865 I0.0049 J-0.0012
X0.2851 Y11.5585 Z-0.0871 I-0.0049 J0.0012
X0.2949 Y11.5562 Z-0.0876 I0.0049 J-0.0012
X0.2851 Y11.5585 Z-0.0882 I-0.0049 J0.0012
X0.2949 Y11.5562 Z-0.0887 I0.0049 J-0.0012
X0.2851 Y11.5585 Z-0.0893 I-0.0049 J0.0012
X0.2949 Y11.5562 Z-0.0898 I0.0049 J-0.0012
X0.2851 Y11.5585 Z-0.0904 I-0.0049 J0.0012
X0.2949 Y11.5562 Z-0.0909 I0.0049 J-0.0012
X0.2851 Y11.5585 Z-0.0915 I-0.0049 J0.0012
X0.2949 Y11.5562 Z-0.092 I0.0049 J-0.0012
X0.2851 Y11.5585 Z-0.0926 I-0.0049 J0.0012
X0.2949 Y11.5562 Z-0.0931 I0.0049 J-0.0012
X0.2851 Y11.5585 Z-0.0937 I-0.0049 J0.0012
X0.2949 Y11.5562 Z-0.0942 I0.0049 J-0.0012
X0.2851 Y11.5585 Z-0.0947 I-0.0049 J0.0012
X0.2949 Y11.5562 Z-0.0953 I0.0049 J-0.0012
X0.2851 Y11.5585 Z-0.0958 I-0.0049 J0.0012
X0.2949 Y11.5562 Z-0.0964 I0.0049 J-0.0012
X0.2851 Y11.5585 Z-0.0969 I-0.0049 J0.0012
X0.2949 Y11.5562 Z-0.0975 I0.0049 J-0.0012
X0.2851 Y11.5585 Z-0.098 I-0.0049 J0.0012
X0.2949 Y11.5562 Z-0.0986 I0.0049 J-0.0012
X0.2851 Y11.5585 Z-0.0991 I-0.0049 J0.0012
X0.2949 Y11.5562 Z-0.0997 I0.0049 J-0.0012
X0.29 Y11.5624 Z-0.1 I-0.0049 J0.0012
X0.2676 Y11.54 I0. J-0.0224 F40.
X0.29 Y11.5176 I0.0224 J0.
X0.3124 Y11.54 I0. J0.0224
X0.29 Y11.5624 I-0.0224 J0.
G2 X0.26 Y11.5782 I0. J0.0362
G3 X0.2261 Y11.577 I-0.0166 J-0.0113
X0.2162 Y11.54 I0.0639 J-0.037
X0.3638 I0.0738 J0.
X0.2261 Y11.577 I-0.0738 J0.
G1 X0.2255 Y11.5753
X0.2254 Y11.5735
X0.2258 Y11.5717
X0.2268 Y11.5701
X0.2282 Y11.569
X0.23 Y11.5683
X0.2847 Y11.5561
X0.2869 Y11.5528
G3 X0.2948 Y11.5615 I0.004 J0.0044
X0.2851 Y11.5585 I-0.004 J-0.0044
X0.2949 Y11.5562 Z-0.1005 I0.0049 J-0.0012 F20.
X0.2851 Y11.5585 Z-0.1011 I-0.0049 J0.0012
X0.2949 Y11.5562 Z-0.1016 I0.0049 J-0.0012
X0.2851 Y11.5585 Z-0.1022 I-0.0049 J0.0012
X0.2949 Y11.5562 Z-0.1027 I0.0049 J-0.0012
X0.2851 Y11.5585 Z-0.1033 I-0.0049 J0.0012
X0.2949 Y11.5562 Z-0.1038 I0.0049 J-0.0012
X0.2851 Y11.5585 Z-0.1044 I-0.0049 J0.0012
X0.2949 Y11.5562 Z-0.1049 I0.0049 J-0.0012
X0.2851 Y11.5585 Z-0.1055 I-0.0049 J0.0012
X0.2949 Y11.5562 Z-0.106 I0.0049 J-0.0012
X0.2851 Y11.5585 Z-0.1066 I-0.0049 J0.0012
X0.2949 Y11.5562 Z-0.1071 I0.0049 J-0.0012
X0.2851 Y11.5585 Z-0.1077 I-0.0049 J0.0012
X0.2949 Y11.5562 Z-0.1082 I0.0049 J-0.0012
X0.2851 Y11.5585 Z-0.1088 I-0.0049 J0.0012
X0.2949 Y11.5562 Z-0.1093 I0.0049 J-0.0012
X0.2851 Y11.5585 Z-0.1099 I-0.0049 J0.0012
X0.2949 Y11.5562 Z-0.1104 I0.0049 J-0.0012
X0.2851 Y11.5585 Z-0.111 I-0.0049 J0.0012
X0.2949 Y11.5562 Z-0.1115 I0.0049 J-0.0012
X0.2851 Y11.5585 Z-0.1121 I-0.0049 J0.0012
X0.2949 Y11.5562 Z-0.1126 I0.0049 J-0.0012
X0.2851 Y11.5585 Z-0.1132 I-0.0049 J0.0012
X0.2949 Y11.5562 Z-0.1137 I0.0049 J-0.0012
X0.2851 Y11.5585 Z-0.1143 I-0.0049 J0.0012
X0.2949 Y11.5562 Z-0.1148 I0.0049 J-0.0012
X0.2851 Y11.5585 Z-0.1154 I-0.0049 J0.0012
X0.2949 Y11.5562 Z-0.1159 I0.0049 J-0.0012
X0.2851 Y11.5585 Z-0.1165 I-0.0049 J0.0012
X0.2949 Y11.5562 Z-0.117 I0.0049 J-0.0012
X0.2851 Y11.5585 Z-0.1176 I-0.0049 J0.0012
X0.2949 Y11.5562 Z-0.1181 I0.0049 J-0.0012
X0.2851 Y11.5585 Z-0.1187 I-0.0049 J0.0012
X0.2949 Y11.5562 Z-0.1192 I0.0049 J-0.0012
X0.2851 Y11.5585 Z-0.1197 I-0.0049 J0.0012
X0.2949 Y11.5562 Z-0.1203 I0.0049 J-0.0012
X0.2851 Y11.5585 Z-0.1208 I-0.0049 J0.0012
X0.2949 Y11.5562 Z-0.1214 I0.0049 J-0.0012
X0.2851 Y11.5585 Z-0.1219 I-0.0049 J0.0012
X0.2949 Y11.5562 Z-0.1225 I0.0049 J-0.0012
X0.2851 Y11.5585 Z-0.123 I-0.0049 J0.0012
X0.2949 Y11.5562 Z-0.1236 I0.0049 J-0.0012
X0.2851 Y11.5585 Z-0.1241 I-0.0049 J0.0012
X0.2949 Y11.5562 Z-0.1247 I0.0049 J-0.0012
X0.29 Y11.5624 Z-0.125 I-0.0049 J0.0012
X0.2676 Y11.54 I0. J-0.0224 F40.
X0.29 Y11.5176 I0.0224 J0.
X0.3124 Y11.54 I0. J0.0224
X0.29 Y11.5624 I-0.0224 J0.
G2 X0.26 Y11.5782 I0. J0.0362
G3 X0.2261 Y11.577 I-0.0166 J-0.0113
X0.2162 Y11.54 I0.0639 J-0.037
X0.3638 I0.0738 J0.
X0.2261 Y11.577 I-0.0738 J0.
G1 X0.2255 Y11.5753
X0.2254 Y11.5735
X0.2258 Y11.5717
X0.2268 Y11.5701
X0.2282 Y11.569
X0.23 Y11.5683
X0.2847 Y11.5561
X0.2869 Y11.5528
G3 X0.2948 Y11.5615 I0.004 J0.0044
X0.2851 Y11.5585 I-0.004 J-0.0044
X0.2949 Y11.5562 Z-0.1255 I0.0049 J-0.0012 F20.
X0.2851 Y11.5585 Z-0.1261 I-0.0049 J0.0012
X0.2949 Y11.5562 Z-0.1266 I0.0049 J-0.0012
X0.2851 Y11.5585 Z-0.1272 I-0.0049 J0.0012
X0.2949 Y11.5562 Z-0.1277 I0.0049 J-0.0012
X0.2851 Y11.5585 Z-0.1283 I-0.0049 J0.0012
X0.2949 Y11.5562 Z-0.1288 I0.0049 J-0.0012
X0.2851 Y11.5585 Z-0.1294 I-0.0049 J0.0012
X0.2949 Y11.5562 Z-0.1299 I0.0049 J-0.0012
X0.2851 Y11.5585 Z-0.1305 I-0.0049 J0.0012
X0.2949 Y11.5562 Z-0.131 I0.0049 J-0.0012
X0.2851 Y11.5585 Z-0.1316 I-0.0049 J0.0012
X0.2949 Y11.5562 Z-0.1321 I0.0049 J-0.0012
X0.2851 Y11.5585 Z-0.1327 I-0.0049 J0.0012
X0.2949 Y11.5562 Z-0.1332 I0.0049 J-0.0012
X0.2851 Y11.5585 Z-0.1338 I-0.0049 J0.0012
X0.2949 Y11.5562 Z-0.1343 I0.0049 J-0.0012
X0.2851 Y11.5585 Z-0.1349 I-0.0049 J0.0012
X0.2949 Y11.5562 Z-0.1354 I0.0049 J-0.0012
X0.2851 Y11.5585 Z-0.136 I-0.0049 J0.0012
X0.2949 Y11.5562 Z-0.1365 I0.0049 J-0.0012
X0.2851 Y11.5585 Z-0.1371 I-0.0049 J0.0012
X0.2949 Y11.5562 Z-0.1376 I0.0049 J-0.0012
X0.2851 Y11.5585 Z-0.1382 I-0.0049 J0.0012
X0.2949 Y11.5562 Z-0.1387 I0.0049 J-0.0012
X0.2851 Y11.5585 Z-0.1393 I-0.0049 J0.0012
X0.2949 Y11.5562 Z-0.1398 I0.0049 J-0.0012
X0.2851 Y11.5585 Z-0.1404 I-0.0049 J0.0012
X0.2949 Y11.5562 Z-0.1409 I0.0049 J-0.0012
X0.2851 Y11.5585 Z-0.1415 I-0.0049 J0.0012
X0.2949 Y11.5562 Z-0.142 I0.0049 J-0.0012
X0.2851 Y11.5585 Z-0.1426 I-0.0049 J0.0012
X0.2949 Y11.5562 Z-0.1431 I0.0049 J-0.0012
X0.2851 Y11.5585 Z-0.1437 I-0.0049 J0.0012
X0.2949 Y11.5562 Z-0.1442 I0.0049 J-0.0012
X0.2851 Y11.5585 Z-0.1447 I-0.0049 J0.0012
X0.2949 Y11.5562 Z-0.1453 I0.0049 J-0.0012
X0.2851 Y11.5585 Z-0.1458 I-0.0049 J0.0012
X0.2949 Y11.5562 Z-0.1464 I0.0049 J-0.0012
X0.2851 Y11.5585 Z-0.1469 I-0.0049 J0.0012
X0.2949 Y11.5562 Z-0.1475 I0.0049 J-0.0012
X0.2851 Y11.5585 Z-0.148 I-0.0049 J0.0012
X0.2949 Y11.5562 Z-0.1486 I0.0049 J-0.0012
X0.2851 Y11.5585 Z-0.1491 I-0.0049 J0.0012
X0.2949 Y11.5562 Z-0.1497 I0.0049 J-0.0012
X0.29 Y11.5624 Z-0.15 I-0.0049 J0.0012
X0.2676 Y11.54 I0. J-0.0224 F40.
X0.29 Y11.5176 I0.0224 J0.
X0.3124 Y11.54 I0. J0.0224
X0.29 Y11.5624 I-0.0224 J0.
G2 X0.26 Y11.5782 I0. J0.0362
G3 X0.2261 Y11.577 I-0.0166 J-0.0113
X0.2162 Y11.54 I0.0639 J-0.037
X0.3638 I0.0738 J0.
X0.2261 Y11.577 I-0.0738 J0.
G1 X0.2255 Y11.5753
X0.2254 Y11.5735
X0.2258 Y11.5717
X0.2268 Y11.5701
X0.2282 Y11.569
X0.23 Y11.5683
X0.2847 Y11.5561
X0.2869 Y11.5528
G3 X0.2948 Y11.5615 I0.004 J0.0044
X0.2851 Y11.5585 I-0.004 J-0.0044
X0.2949 Y11.5562 Z-0.1505 I0.0049 J-0.0012 F20.
X0.2851 Y11.5585 Z-0.1511 I-0.0049 J0.0012
X0.2949 Y11.5562 Z-0.1516 I0.0049 J-0.0012
X0.2851 Y11.5585 Z-0.1522 I-0.0049 J0.0012
X0.2949 Y11.5562 Z-0.1527 I0.0049 J-0.0012
X0.2851 Y11.5585 Z-0.1533 I-0.0049 J0.0012
X0.2949 Y11.5562 Z-0.1538 I0.0049 J-0.0012
X0.2851 Y11.5585 Z-0.1544 I-0.0049 J0.0012
X0.2949 Y11.5562 Z-0.1549 I0.0049 J-0.0012
X0.2851 Y11.5585 Z-0.1555 I-0.0049 J0.0012
X0.2949 Y11.5562 Z-0.156 I0.0049 J-0.0012
X0.2851 Y11.5585 Z-0.1566 I-0.0049 J0.0012
X0.2949 Y11.5562 Z-0.1571 I0.0049 J-0.0012
X0.2851 Y11.5585 Z-0.1577 I-0.0049 J0.0012
X0.2949 Y11.5562 Z-0.1582 I0.0049 J-0.0012
X0.2851 Y11.5585 Z-0.1588 I-0.0049 J0.0012
X0.2949 Y11.5562 Z-0.1593 I0.0049 J-0.0012
X0.2851 Y11.5585 Z-0.1599 I-0.0049 J0.0012
X0.2949 Y11.5562 Z-0.1604 I0.0049 J-0.0012
X0.2851 Y11.5585 Z-0.161 I-0.0049 J0.0012
X0.2949 Y11.5562 Z-0.1615 I0.0049 J-0.0012
X0.2851 Y11.5585 Z-0.1621 I-0.0049 J0.0012
X0.2949 Y11.5562 Z-0.1626 I0.0049 J-0.0012
X0.2851 Y11.5585 Z-0.1632 I-0.0049 J0.0012
X0.2949 Y11.5562 Z-0.1637 I0.0049 J-0.0012
X0.2851 Y11.5585 Z-0.1643 I-0.0049 J0.0012
X0.2949 Y11.5562 Z-0.1648 I0.0049 J-0.0012
X0.2851 Y11.5585 Z-0.1654 I-0.0049 J0.0012
X0.2949 Y11.5562 Z-0.1659 I0.0049 J-0.0012
X0.2851 Y11.5585 Z-0.1665 I-0.0049 J0.0012
X0.2949 Y11.5562 Z-0.167 I0.0049 J-0.0012
X0.2851 Y11.5585 Z-0.1676 I-0.0049 J0.0012
X0.2949 Y11.5562 Z-0.1681 I0.0049 J-0.0012
X0.2851 Y11.5585 Z-0.1687 I-0.0049 J0.0012
X0.2949 Y11.5562 Z-0.1692 I0.0049 J-0.0012
X0.2851 Y11.5585 Z-0.1697 I-0.0049 J0.0012
X0.2949 Y11.5562 Z-0.1703 I0.0049 J-0.0012
X0.2851 Y11.5585 Z-0.1708 I-0.0049 J0.0012
X0.2949 Y11.5562 Z-0.1714 I0.0049 J-0.0012
X0.2851 Y11.5585 Z-0.1719 I-0.0049 J0.0012
X0.2949 Y11.5562 Z-0.1725 I0.0049 J-0.0012
X0.2851 Y11.5585 Z-0.173 I-0.0049 J0.0012
X0.2949 Y11.5562 Z-0.1736 I0.0049 J-0.0012
X0.2851 Y11.5585 Z-0.1741 I-0.0049 J0.0012
X0.2949 Y11.5562 Z-0.1747 I0.0049 J-0.0012
X0.29 Y11.5624 Z-0.175 I-0.0049 J0.0012
X0.2676 Y11.54 I0. J-0.0224 F40.
X0.29 Y11.5176 I0.0224 J0.
X0.3124 Y11.54 I0. J0.0224
X0.29 Y11.5624 I-0.0224 J0.
G2 X0.26 Y11.5782 I0. J0.0362
G3 X0.2261 Y11.577 I-0.0166 J-0.0113
X0.2162 Y11.54 I0.0639 J-0.037
X0.3638 I0.0738 J0.
X0.2261 Y11.577 I-0.0738 J0.
G1 X0.2255 Y11.5753
X0.2254 Y11.5735
X0.2258 Y11.5717
X0.2268 Y11.5701
X0.2282 Y11.569
X0.23 Y11.5683
X0.2847 Y11.5561
X0.2869 Y11.5528
G3 X0.2948 Y11.5615 I0.004 J0.0044
X0.2851 Y11.5585 I-0.004 J-0.0044
X0.2949 Y11.5562 Z-0.1755 I0.0049 J-0.0012 F20.
X0.2851 Y11.5585 Z-0.1761 I-0.0049 J0.0012
X0.2949 Y11.5562 Z-0.1766 I0.0049 J-0.0012
X0.2851 Y11.5585 Z-0.1772 I-0.0049 J0.0012
X0.2949 Y11.5562 Z-0.1777 I0.0049 J-0.0012
X0.2851 Y11.5585 Z-0.1783 I-0.0049 J0.0012
X0.2949 Y11.5562 Z-0.1788 I0.0049 J-0.0012
X0.2851 Y11.5585 Z-0.1794 I-0.0049 J0.0012
X0.2949 Y11.5562 Z-0.1799 I0.0049 J-0.0012
X0.2851 Y11.5585 Z-0.1805 I-0.0049 J0.0012
X0.2949 Y11.5562 Z-0.181 I0.0049 J-0.0012
X0.2851 Y11.5585 Z-0.1816 I-0.0049 J0.0012
X0.2949 Y11.5562 Z-0.1821 I0.0049 J-0.0012
X0.2851 Y11.5585 Z-0.1827 I-0.0049 J0.0012
X0.2949 Y11.5562 Z-0.1832 I0.0049 J-0.0012
X0.2851 Y11.5585 Z-0.1838 I-0.0049 J0.0012
X0.2949 Y11.5562 Z-0.1843 I0.0049 J-0.0012
X0.2851 Y11.5585 Z-0.1849 I-0.0049 J0.0012
X0.2949 Y11.5562 Z-0.1854 I0.0049 J-0.0012
X0.2851 Y11.5585 Z-0.186 I-0.0049 J0.0012
X0.2949 Y11.5562 Z-0.1865 I0.0049 J-0.0012
X0.2851 Y11.5585 Z-0.1871 I-0.0049 J0.0012
X0.2949 Y11.5562 Z-0.1876 I0.0049 J-0.0012
X0.2851 Y11.5585 Z-0.1882 I-0.0049 J0.0012
X0.2949 Y11.5562 Z-0.1887 I0.0049 J-0.0012
X0.2851 Y11.5585 Z-0.1893 I-0.0049 J0.0012
X0.2949 Y11.5562 Z-0.1898 I0.0049 J-0.0012
X0.2851 Y11.5585 Z-0.1904 I-0.0049 J0.0012
X0.2949 Y11.5562 Z-0.1909 I0.0049 J-0.0012
X0.2851 Y11.5585 Z-0.1915 I-0.0049 J0.0012
X0.2949 Y11.5562 Z-0.192 I0.0049 J-0.0012
X0.2851 Y11.5585 Z-0.1926 I-0.0049 J0.0012
X0.2949 Y11.5562 Z-0.1931 I0.0049 J-0.0012
X0.2851 Y11.5585 Z-0.1937 I-0.0049 J0.0012
X0.2949 Y11.5562 Z-0.1942 I0.0049 J-0.0012
X0.2851 Y11.5585 Z-0.1947 I-0.0049 J0.0012
X0.2949 Y11.5562 Z-0.1953 I0.0049 J-0.0012
X0.2851 Y11.5585 Z-0.1958 I-0.0049 J0.0012
X0.2949 Y11.5562 Z-0.1964 I0.0049 J-0.0012
X0.2851 Y11.5585 Z-0.1969 I-0.0049 J0.0012
X0.2949 Y11.5562 Z-0.1975 I0.0049 J-0.0012
X0.2851 Y11.5585 Z-0.198 I-0.0049 J0.0012
X0.2949 Y11.5562 Z-0.1986 I0.0049 J-0.0012
X0.2851 Y11.5585 Z-0.1991 I-0.0049 J0.0012
X0.2949 Y11.5562 Z-0.1997 I0.0049 J-0.0012
X0.29 Y11.5624 Z-0.2 I-0.0049 J0.0012
X0.2676 Y11.54 I0. J-0.0224 F40.
X0.29 Y11.5176 I0.0224 J0.
X0.3124 Y11.54 I0. J0.0224
X0.29 Y11.5624 I-0.0224 J0.
G2 X0.26 Y11.5782 I0. J0.0362
G3 X0.2261 Y11.577 I-0.0166 J-0.0113
X0.2162 Y11.54 I0.0639 J-0.037
X0.3638 I0.0738 J0.
X0.2261 Y11.577 I-0.0738 J0.
G1 X0.2255 Y11.5753
X0.2254 Y11.5735
X0.2258 Y11.5717
X0.2268 Y11.5701
X0.2282 Y11.569
X0.23 Y11.5683
X0.2847 Y11.5561
X0.2869 Y11.5528
G3 X0.2948 Y11.5615 I0.004 J0.0044
X0.2851 Y11.5585 I-0.004 J-0.0044
X0.2949 Y11.5562 Z-0.2005 I0.0049 J-0.0012 F20.
X0.2851 Y11.5585 Z-0.2011 I-0.0049 J0.0012
X0.2949 Y11.5562 Z-0.2016 I0.0049 J-0.0012
X0.2851 Y11.5585 Z-0.2022 I-0.0049 J0.0012
X0.2949 Y11.5562 Z-0.2027 I0.0049 J-0.0012
X0.2851 Y11.5585 Z-0.2033 I-0.0049 J0.0012
X0.2949 Y11.5562 Z-0.2038 I0.0049 J-0.0012
X0.2851 Y11.5585 Z-0.2044 I-0.0049 J0.0012
X0.2949 Y11.5562 Z-0.2049 I0.0049 J-0.0012
X0.2851 Y11.5585 Z-0.2055 I-0.0049 J0.0012
X0.2949 Y11.5562 Z-0.206 I0.0049 J-0.0012
X0.2851 Y11.5585 Z-0.2066 I-0.0049 J0.0012
X0.2949 Y11.5562 Z-0.2071 I0.0049 J-0.0012
X0.2851 Y11.5585 Z-0.2077 I-0.0049 J0.0012
X0.2949 Y11.5562 Z-0.2082 I0.0049 J-0.0012
X0.2851 Y11.5585 Z-0.2088 I-0.0049 J0.0012
X0.2949 Y11.5562 Z-0.2093 I0.0049 J-0.0012
X0.2851 Y11.5585 Z-0.2099 I-0.0049 J0.0012
X0.2949 Y11.5562 Z-0.2104 I0.0049 J-0.0012
X0.2851 Y11.5585 Z-0.211 I-0.0049 J0.0012
X0.2949 Y11.5562 Z-0.2115 I0.0049 J-0.0012
X0.2851 Y11.5585 Z-0.2121 I-0.0049 J0.0012
X0.2949 Y11.5562 Z-0.2126 I0.0049 J-0.0012
X0.2851 Y11.5585 Z-0.2132 I-0.0049 J0.0012
X0.2949 Y11.5562 Z-0.2137 I0.0049 J-0.0012
X0.2851 Y11.5585 Z-0.2143 I-0.0049 J0.0012
X0.2949 Y11.5562 Z-0.2148 I0.0049 J-0.0012
X0.2851 Y11.5585 Z-0.2154 I-0.0049 J0.0012
X0.2949 Y11.5562 Z-0.2159 I0.0049 J-0.0012
X0.2851 Y11.5585 Z-0.2165 I-0.0049 J0.0012
X0.2949 Y11.5562 Z-0.217 I0.0049 J-0.0012
X0.2851 Y11.5585 Z-0.2176 I-0.0049 J0.0012
X0.2949 Y11.5562 Z-0.2181 I0.0049 J-0.0012
X0.2851 Y11.5585 Z-0.2187 I-0.0049 J0.0012
X0.2949 Y11.5562 Z-0.2192 I0.0049 J-0.0012
X0.2851 Y11.5585 Z-0.2197 I-0.0049 J0.0012
X0.2949 Y11.5562 Z-0.2203 I0.0049 J-0.0012
X0.2851 Y11.5585 Z-0.2208 I-0.0049 J0.0012
X0.2949 Y11.5562 Z-0.2214 I0.0049 J-0.0012
X0.2851 Y11.5585 Z-0.2219 I-0.0049 J0.0012
X0.2949 Y11.5562 Z-0.2225 I0.0049 J-0.0012
X0.2851 Y11.5585 Z-0.223 I-0.0049 J0.0012
X0.2949 Y11.5562 Z-0.2236 I0.0049 J-0.0012
X0.2851 Y11.5585 Z-0.2241 I-0.0049 J0.0012
X0.2949 Y11.5562 Z-0.2247 I0.0049 J-0.0012
X0.29 Y11.5624 Z-0.225 I-0.0049 J0.0012
X0.2676 Y11.54 I0. J-0.0224 F40.
X0.29 Y11.5176 I0.0224 J0.
X0.3124 Y11.54 I0. J0.0224
X0.29 Y11.5624 I-0.0224 J0.
G2 X0.26 Y11.5782 I0. J0.0362
G3 X0.2261 Y11.577 I-0.0166 J-0.0113
X0.2162 Y11.54 I0.0639 J-0.037
X0.3638 I0.0738 J0.
X0.2261 Y11.577 I-0.0738 J0.
G1 X0.2255 Y11.5753
X0.2254 Y11.5735
X0.2258 Y11.5717
X0.2268 Y11.5701
X0.2282 Y11.569
X0.23 Y11.5683
X0.2847 Y11.5561
X0.2869 Y11.5528
G3 X0.2948 Y11.5615 I0.004 J0.0044
X0.2851 Y11.5585 I-0.004 J-0.0044
X0.2949 Y11.5562 Z-0.2255 I0.0049 J-0.0012 F20.
X0.2851 Y11.5585 Z-0.2261 I-0.0049 J0.0012
X0.2949 Y11.5562 Z-0.2266 I0.0049 J-0.0012
X0.2851 Y11.5585 Z-0.2272 I-0.0049 J0.0012
X0.2949 Y11.5562 Z-0.2277 I0.0049 J-0.0012
X0.2851 Y11.5585 Z-0.2283 I-0.0049 J0.0012
X0.2949 Y11.5562 Z-0.2288 I0.0049 J-0.0012
X0.2851 Y11.5585 Z-0.2294 I-0.0049 J0.0012
X0.2949 Y11.5562 Z-0.2299 I0.0049 J-0.0012
X0.2851 Y11.5585 Z-0.2305 I-0.0049 J0.0012
X0.2949 Y11.5562 Z-0.231 I0.0049 J-0.0012
X0.2851 Y11.5585 Z-0.2316 I-0.0049 J0.0012
X0.2949 Y11.5562 Z-0.2321 I0.0049 J-0.0012
X0.2851 Y11.5585 Z-0.2327 I-0.0049 J0.0012
X0.2949 Y11.5562 Z-0.2332 I0.0049 J-0.0012
X0.2851 Y11.5585 Z-0.2338 I-0.0049 J0.0012
X0.2949 Y11.5562 Z-0.2343 I0.0049 J-0.0012
X0.2851 Y11.5585 Z-0.2349 I-0.0049 J0.0012
X0.2949 Y11.5562 Z-0.2354 I0.0049 J-0.0012
X0.2851 Y11.5585 Z-0.236 I-0.0049 J0.0012
X0.2949 Y11.5562 Z-0.2365 I0.0049 J-0.0012
X0.2851 Y11.5585 Z-0.2371 I-0.0049 J0.0012
X0.2949 Y11.5562 Z-0.2376 I0.0049 J-0.0012
X0.2851 Y11.5585 Z-0.2382 I-0.0049 J0.0012
X0.2949 Y11.5562 Z-0.2387 I0.0049 J-0.0012
X0.2851 Y11.5585 Z-0.2393 I-0.0049 J0.0012
X0.2949 Y11.5562 Z-0.2398 I0.0049 J-0.0012
X0.2851 Y11.5585 Z-0.2404 I-0.0049 J0.0012
X0.2949 Y11.5562 Z-0.2409 I0.0049 J-0.0012
X0.2851 Y11.5585 Z-0.2415 I-0.0049 J0.0012
X0.2949 Y11.5562 Z-0.242 I0.0049 J-0.0012
X0.2851 Y11.5585 Z-0.2426 I-0.0049 J0.0012
X0.2949 Y11.5562 Z-0.2431 I0.0049 J-0.0012
X0.2851 Y11.5585 Z-0.2437 I-0.0049 J0.0012
X0.2949 Y11.5562 Z-0.2442 I0.0049 J-0.0012
X0.2851 Y11.5585 Z-0.2447 I-0.0049 J0.0012
X0.2949 Y11.5562 Z-0.2453 I0.0049 J-0.0012
X0.2851 Y11.5585 Z-0.2458 I-0.0049 J0.0012
X0.2949 Y11.5562 Z-0.2464 I0.0049 J-0.0012
X0.2851 Y11.5585 Z-0.2469 I-0.0049 J0.0012
X0.2949 Y11.5562 Z-0.2475 I0.0049 J-0.0012
X0.2851 Y11.5585 Z-0.248 I-0.0049 J0.0012
X0.2949 Y11.5562 Z-0.2486 I0.0049 J-0.0012
X0.2851 Y11.5585 Z-0.2491 I-0.0049 J0.0012
X0.2949 Y11.5562 Z-0.2497 I0.0049 J-0.0012
X0.29 Y11.5624 Z-0.25 I-0.0049 J0.0012
X0.2676 Y11.54 I0. J-0.0224 F40.
X0.29 Y11.5176 I0.0224 J0.
X0.3124 Y11.54 I0. J0.0224
X0.29 Y11.5624 I-0.0224 J0.
G2 X0.26 Y11.5782 I0. J0.0362
G3 X0.2261 Y11.577 I-0.0166 J-0.0113
X0.2162 Y11.54 I0.0639 J-0.037
X0.3638 I0.0738 J0.
X0.2261 Y11.577 I-0.0738 J0.
G1 X0.2255 Y11.5753
X0.2254 Y11.5735
X0.2258 Y11.5717
X0.2268 Y11.5701
X0.2282 Y11.569
X0.23 Y11.5683
X0.2847 Y11.5561
X0.2869 Y11.5528
G3 X0.2948 Y11.5615 I0.004 J0.0044
X0.2851 Y11.5585 I-0.004 J-0.0044
X0.2949 Y11.5562 Z-0.2505 I0.0049 J-0.0012 F20.
X0.2851 Y11.5585 Z-0.2511 I-0.0049 J0.0012
X0.2949 Y11.5562 Z-0.2516 I0.0049 J-0.0012
X0.2851 Y11.5585 Z-0.2522 I-0.0049 J0.0012
X0.2949 Y11.5562 Z-0.2527 I0.0049 J-0.0012
X0.2851 Y11.5585 Z-0.2533 I-0.0049 J0.0012
X0.2949 Y11.5562 Z-0.2538 I0.0049 J-0.0012
X0.2851 Y11.5585 Z-0.2544 I-0.0049 J0.0012
X0.2949 Y11.5562 Z-0.2549 I0.0049 J-0.0012
X0.2851 Y11.5585 Z-0.2555 I-0.0049 J0.0012
X0.2949 Y11.5562 Z-0.256 I0.0049 J-0.0012
X0.2851 Y11.5585 Z-0.2566 I-0.0049 J0.0012
X0.2949 Y11.5562 Z-0.2571 I0.0049 J-0.0012
X0.2851 Y11.5585 Z-0.2577 I-0.0049 J0.0012
X0.2949 Y11.5562 Z-0.2582 I0.0049 J-0.0012
X0.2851 Y11.5585 Z-0.2588 I-0.0049 J0.0012
X0.2949 Y11.5562 Z-0.2593 I0.0049 J-0.0012
X0.2851 Y11.5585 Z-0.2599 I-0.0049 J0.0012
X0.2949 Y11.5562 Z-0.2604 I0.0049 J-0.0012
X0.2851 Y11.5585 Z-0.261 I-0.0049 J0.0012
X0.2949 Y11.5562 Z-0.2615 I0.0049 J-0.0012
X0.2851 Y11.5585 Z-0.2621 I-0.0049 J0.0012
X0.2949 Y11.5562 Z-0.2626 I0.0049 J-0.0012
X0.2851 Y11.5585 Z-0.2632 I-0.0049 J0.0012
X0.2949 Y11.5562 Z-0.2637 I0.0049 J-0.0012
X0.2851 Y11.5585 Z-0.2643 I-0.0049 J0.0012
X0.2949 Y11.5562 Z-0.2648 I0.0049 J-0.0012
X0.2851 Y11.5585 Z-0.2654 I-0.0049 J0.0012
X0.2949 Y11.5562 Z-0.2659 I0.0049 J-0.0012
X0.2851 Y11.5585 Z-0.2665 I-0.0049 J0.0012
X0.2949 Y11.5562 Z-0.267 I0.0049 J-0.0012
X0.2851 Y11.5585 Z-0.2676 I-0.0049 J0.0012
X0.2949 Y11.5562 Z-0.2681 I0.0049 J-0.0012
X0.2851 Y11.5585 Z-0.2687 I-0.0049 J0.0012
X0.2949 Y11.5562 Z-0.2692 I0.0049 J-0.0012
X0.2851 Y11.5585 Z-0.2697 I-0.0049 J0.0012
X0.2949 Y11.5562 Z-0.2703 I0.0049 J-0.0012
X0.2851 Y11.5585 Z-0.2708 I-0.0049 J0.0012
X0.2949 Y11.5562 Z-0.2714 I0.0049 J-0.0012
X0.2851 Y11.5585 Z-0.2719 I-0.0049 J0.0012
X0.2949 Y11.5562 Z-0.2725 I0.0049 J-0.0012
X0.2851 Y11.5585 Z-0.273 I-0.0049 J0.0012
X0.2949 Y11.5562 Z-0.2736 I0.0049 J-0.0012
X0.2851 Y11.5585 Z-0.2741 I-0.0049 J0.0012
X0.2949 Y11.5562 Z-0.2747 I0.0049 J-0.0012
X0.29 Y11.5624 Z-0.275 I-0.0049 J0.0012
X0.2676 Y11.54 I0. J-0.0224 F40.
X0.29 Y11.5176 I0.0224 J0.
X0.3124 Y11.54 I0. J0.0224
X0.29 Y11.5624 I-0.0224 J0.
G2 X0.26 Y11.5782 I0. J0.0362
G3 X0.2261 Y11.577 I-0.0166 J-0.0113
X0.2162 Y11.54 I0.0639 J-0.037
X0.3638 I0.0738 J0.
X0.2261 Y11.577 I-0.0738 J0.
G1 X0.2255 Y11.5753
X0.2254 Y11.5735
X0.2258 Y11.5717
X0.2268 Y11.5701
X0.2282 Y11.569
X0.23 Y11.5683
X0.2847 Y11.5561
X0.2869 Y11.5528
G3 X0.2948 Y11.5615 I0.004 J0.0044
X0.2851 Y11.5585 I-0.004 J-0.0044
X0.2949 Y11.5562 Z-0.2755 I0.0049 J-0.0012 F20.
X0.2851 Y11.5585 Z-0.2761 I-0.0049 J0.0012
X0.2949 Y11.5562 Z-0.2766 I0.0049 J-0.0012
X0.2851 Y11.5585 Z-0.2772 I-0.0049 J0.0012
X0.2949 Y11.5562 Z-0.2777 I0.0049 J-0.0012
X0.2851 Y11.5585 Z-0.2783 I-0.0049 J0.0012
X0.2949 Y11.5562 Z-0.2788 I0.0049 J-0.0012
X0.2851 Y11.5585 Z-0.2794 I-0.0049 J0.0012
X0.2949 Y11.5562 Z-0.2799 I0.0049 J-0.0012
X0.2851 Y11.5585 Z-0.2805 I-0.0049 J0.0012
X0.2949 Y11.5562 Z-0.281 I0.0049 J-0.0012
X0.2851 Y11.5585 Z-0.2816 I-0.0049 J0.0012
X0.2949 Y11.5562 Z-0.2821 I0.0049 J-0.0012
X0.2851 Y11.5585 Z-0.2827 I-0.0049 J0.0012
X0.2949 Y11.5562 Z-0.2832 I0.0049 J-0.0012
X0.2851 Y11.5585 Z-0.2838 I-0.0049 J0.0012
X0.2949 Y11.5562 Z-0.2843 I0.0049 J-0.0012
X0.2851 Y11.5585 Z-0.2849 I-0.0049 J0.0012
X0.2949 Y11.5562 Z-0.2854 I0.0049 J-0.0012
X0.2851 Y11.5585 Z-0.286 I-0.0049 J0.0012
X0.2949 Y11.5562 Z-0.2865 I0.0049 J-0.0012
X0.2851 Y11.5585 Z-0.2871 I-0.0049 J0.0012
X0.2949 Y11.5562 Z-0.2876 I0.0049 J-0.0012
X0.2851 Y11.5585 Z-0.2882 I-0.0049 J0.0012
X0.2949 Y11.5562 Z-0.2887 I0.0049 J-0.0012
X0.2851 Y11.5585 Z-0.2893 I-0.0049 J0.0012
X0.2949 Y11.5562 Z-0.2898 I0.0049 J-0.0012
X0.2851 Y11.5585 Z-0.2904 I-0.0049 J0.0012
X0.2949 Y11.5562 Z-0.2909 I0.0049 J-0.0012
X0.2851 Y11.5585 Z-0.2915 I-0.0049 J0.0012
X0.2949 Y11.5562 Z-0.292 I0.0049 J-0.0012
X0.2851 Y11.5585 Z-0.2926 I-0.0049 J0.0012
X0.2949 Y11.5562 Z-0.2931 I0.0049 J-0.0012
X0.2851 Y11.5585 Z-0.2937 I-0.0049 J0.0012
X0.2949 Y11.5562 Z-0.2942 I0.0049 J-0.0012
X0.2851 Y11.5585 Z-0.2947 I-0.0049 J0.0012
X0.2949 Y11.5562 Z-0.2953 I0.0049 J-0.0012
X0.2851 Y11.5585 Z-0.2958 I-0.0049 J0.0012
X0.2949 Y11.5562 Z-0.2964 I0.0049 J-0.0012
X0.2851 Y11.5585 Z-0.2969 I-0.0049 J0.0012
X0.2949 Y11.5562 Z-0.2975 I0.0049 J-0.0012
X0.2851 Y11.5585 Z-0.298 I-0.0049 J0.0012
X0.2949 Y11.5562 Z-0.2986 I0.0049 J-0.0012
X0.2851 Y11.5585 Z-0.2991 I-0.0049 J0.0012
X0.2949 Y11.5562 Z-0.2997 I0.0049 J-0.0012
X0.29 Y11.5624 Z-0.3 I-0.0049 J0.0012
X0.2676 Y11.54 I0. J-0.0224 F40.
X0.29 Y11.5176 I0.0224 J0.
X0.3124 Y11.54 I0. J0.0224
X0.29 Y11.5624 I-0.0224 J0.
G2 X0.26 Y11.5782 I0. J0.0362
G3 X0.2261 Y11.577 I-0.0166 J-0.0113
X0.2162 Y11.54 I0.0639 J-0.037
X0.3638 I0.0738 J0.
X0.2261 Y11.577 I-0.0738 J0.
G1 X0.2255 Y11.5754
X0.2253 Y11.5737
X0.2257 Y11.5721
X0.2265 Y11.5706
X0.2277 Y11.5693
X0.2292 Y11.5685
X0.2618 Y11.5561
X0.2628 Y11.5557
X0.2638 Y11.5554
X0.2883 Y11.5509
G3 X0.2933 Y11.5611 I0.0011 J0.0058
X0.2867 Y11.5536 Z-0.3005 I-0.0033 J-0.0037 F20.
X0.2933 Y11.5611 Z-0.3011 I0.0033 J0.0037
X0.2867 Y11.5536 Z-0.3016 I-0.0033 J-0.0037
X0.2933 Y11.5611 Z-0.3022 I0.0033 J0.0037
X0.2867 Y11.5536 Z-0.3027 I-0.0033 J-0.0037
X0.2933 Y11.5611 Z-0.3033 I0.0033 J0.0037
X0.2867 Y11.5536 Z-0.3038 I-0.0033 J-0.0037
X0.2933 Y11.5611 Z-0.3044 I0.0033 J0.0037
X0.2867 Y11.5536 Z-0.3049 I-0.0033 J-0.0037
X0.2933 Y11.5611 Z-0.3055 I0.0033 J0.0037
X0.2867 Y11.5536 Z-0.306 I-0.0033 J-0.0037
X0.2933 Y11.5611 Z-0.3066 I0.0033 J0.0037
X0.2867 Y11.5536 Z-0.3071 I-0.0033 J-0.0037
X0.2933 Y11.5611 Z-0.3077 I0.0033 J0.0037
X0.2867 Y11.5536 Z-0.3082 I-0.0033 J-0.0037
X0.2933 Y11.5611 Z-0.3088 I0.0033 J0.0037
X0.2867 Y11.5536 Z-0.3093 I-0.0033 J-0.0037
X0.2933 Y11.5611 Z-0.3099 I0.0033 J0.0037
X0.29 Y11.5624 Z-0.31 I-0.0033 J-0.0037
X0.2676 Y11.54 I0. J-0.0224 F40.
X0.29 Y11.5176 I0.0224 J0.
X0.3124 Y11.54 I0. J0.0224
X0.29 Y11.5624 I-0.0224 J0.
G2 X0.26 Y11.5782 I0. J0.0362
G3 X0.2261 Y11.577 I-0.0166 J-0.0113
X0.2162 Y11.54 I0.0639 J-0.037
X0.3638 I0.0738 J0.
X0.2261 Y11.577 I-0.0738 J0.
G1 X0.2252 Y11.575 Z-0.3096
X0.2247 Y11.5728 Z-0.3091
X0.2245 Y11.5709 Z-0.3078
X0.2247 Y11.5689 Z-0.3065
X0.2255 Y11.5665 Z-0.3027
X0.2258 Y11.5657 Z-0.2982
G0 Z0.2
X0.2853 Y12.5243
G1 Z0.1118 F40.
X0.285 Y12.5231 Z0.1066 F20.
X0.2852 Y12.5214 Z0.1045
X0.2859 Y12.5198 Z0.1024
X0.287 Y12.5187 Z0.1017
X0.2884 Y12.5179 Z0.101
X0.29 Y12.5176 Z0.1002
X0.2909 Y12.5177 Z0.1001
X0.2918 Y12.518 Z0.1
G3 X0.2882 Y12.5273 Z0.0995 I-0.0018 J0.0046
X0.2918 Y12.518 Z0.0989 I0.0018 J-0.0046
X0.2882 Y12.5273 Z0.0984 I-0.0018 J0.0046
X0.2918 Y12.518 Z0.0978 I0.0018 J-0.0046
X0.2882 Y12.5273 Z0.0973 I-0.0018 J0.0046
X0.2918 Y12.518 Z0.0967 I0.0018 J-0.0046
X0.2882 Y12.5273 Z0.0962 I-0.0018 J0.0046
X0.2918 Y12.518 Z0.0956 I0.0018 J-0.0046
X0.2882 Y12.5273 Z0.0951 I-0.0018 J0.0046
X0.2918 Y12.518 Z0.0945 I0.0018 J-0.0046
X0.2882 Y12.5273 Z0.094 I-0.0018 J0.0046
X0.2918 Y12.518 Z0.0934 I0.0018 J-0.0046
X0.2882 Y12.5273 Z0.0929 I-0.0018 J0.0046
X0.2918 Y12.518 Z0.0923 I0.0018 J-0.0046
X0.2882 Y12.5273 Z0.0918 I-0.0018 J0.0046
X0.2918 Y12.518 Z0.0912 I0.0018 J-0.0046
X0.2882 Y12.5273 Z0.0907 I-0.0018 J0.0046
X0.2918 Y12.518 Z0.0901 I0.0018 J-0.0046
X0.2882 Y12.5273 Z0.0896 I-0.0018 J0.0046
X0.2918 Y12.518 Z0.089 I0.0018 J-0.0046
X0.2882 Y12.5273 Z0.0885 I-0.0018 J0.0046
X0.2918 Y12.518 Z0.0879 I0.0018 J-0.0046
X0.2882 Y12.5273 Z0.0874 I-0.0018 J0.0046
X0.2918 Y12.518 Z0.0868 I0.0018 J-0.0046
X0.2882 Y12.5273 Z0.0863 I-0.0018 J0.0046
X0.2918 Y12.518 Z0.0857 I0.0018 J-0.0046
X0.2882 Y12.5273 Z0.0852 I-0.0018 J0.0046
X0.2918 Y12.518 Z0.0846 I0.0018 J-0.0046
X0.2882 Y12.5273 Z0.0841 I-0.0018 J0.0046
X0.2918 Y12.518 Z0.0835 I0.0018 J-0.0046
X0.2882 Y12.5273 Z0.083 I-0.0018 J0.0046
X0.2918 Y12.518 Z0.0824 I0.0018 J-0.0046
X0.2882 Y12.5273 Z0.0819 I-0.0018 J0.0046
X0.2918 Y12.518 Z0.0813 I0.0018 J-0.0046
X0.2882 Y12.5273 Z0.0808 I-0.0018 J0.0046
X0.2918 Y12.518 Z0.0803 I0.0018 J-0.0046
X0.2882 Y12.5273 Z0.0797 I-0.0018 J0.0046
X0.2918 Y12.518 Z0.0792 I0.0018 J-0.0046
X0.2882 Y12.5273 Z0.0786 I-0.0018 J0.0046
X0.2918 Y12.518 Z0.0781 I0.0018 J-0.0046
X0.2882 Y12.5273 Z0.0775 I-0.0018 J0.0046
X0.2918 Y12.518 Z0.077 I0.0018 J-0.0046
X0.2882 Y12.5273 Z0.0764 I-0.0018 J0.0046
X0.2918 Y12.518 Z0.0759 I0.0018 J-0.0046
X0.2882 Y12.5273 Z0.0753 I-0.0018 J0.0046
X0.2918 Y12.518 Z0.0748 I0.0018 J-0.0046
X0.2882 Y12.5273 Z0.0742 I-0.0018 J0.0046
X0.2918 Y12.518 Z0.0737 I0.0018 J-0.0046
X0.2882 Y12.5273 Z0.0731 I-0.0018 J0.0046
X0.2918 Y12.518 Z0.0726 I0.0018 J-0.0046
X0.2882 Y12.5273 Z0.072 I-0.0018 J0.0046
X0.2918 Y12.518 Z0.0715 I0.0018 J-0.0046
X0.2882 Y12.5273 Z0.0709 I-0.0018 J0.0046
X0.2918 Y12.518 Z0.0704 I0.0018 J-0.0046
X0.2882 Y12.5273 Z0.0698 I-0.0018 J0.0046
X0.2918 Y12.518 Z0.0693 I0.0018 J-0.0046
X0.2882 Y12.5273 Z0.0687 I-0.0018 J0.0046
X0.2918 Y12.518 Z0.0682 I0.0018 J-0.0046
X0.2882 Y12.5273 Z0.0676 I-0.0018 J0.0046
X0.2918 Y12.518 Z0.0671 I0.0018 J-0.0046
X0.2882 Y12.5273 Z0.0665 I-0.0018 J0.0046
X0.2918 Y12.518 Z0.066 I0.0018 J-0.0046
X0.2882 Y12.5273 Z0.0654 I-0.0018 J0.0046
X0.2918 Y12.518 Z0.0649 I0.0018 J-0.0046
X0.2882 Y12.5273 Z0.0643 I-0.0018 J0.0046
X0.2918 Y12.518 Z0.0638 I0.0018 J-0.0046
X0.2882 Y12.5273 Z0.0632 I-0.0018 J0.0046
X0.2918 Y12.518 Z0.0627 I0.0018 J-0.0046
X0.2882 Y12.5273 Z0.0622 I-0.0018 J0.0046
X0.2918 Y12.518 Z0.0616 I0.0018 J-0.0046
X0.2882 Y12.5273 Z0.0611 I-0.0018 J0.0046
X0.2918 Y12.518 Z0.0605 I0.0018 J-0.0046
X0.2882 Y12.5273 Z0.06 I-0.0018 J0.0046
X0.2918 Y12.518 Z0.0594 I0.0018 J-0.0046
X0.2882 Y12.5273 Z0.0589 I-0.0018 J0.0046
X0.2918 Y12.518 Z0.0583 I0.0018 J-0.0046
X0.2882 Y12.5273 Z0.0578 I-0.0018 J0.0046
X0.2918 Y12.518 Z0.0572 I0.0018 J-0.0046
X0.2882 Y12.5273 Z0.0567 I-0.0018 J0.0046
X0.2918 Y12.518 Z0.0561 I0.0018 J-0.0046
X0.2882 Y12.5273 Z0.0556 I-0.0018 J0.0046
X0.2918 Y12.518 Z0.055 I0.0018 J-0.0046
X0.2882 Y12.5273 Z0.0545 I-0.0018 J0.0046
X0.2918 Y12.518 Z0.0539 I0.0018 J-0.0046
X0.2882 Y12.5273 Z0.0534 I-0.0018 J0.0046
X0.2918 Y12.518 Z0.0528 I0.0018 J-0.0046
X0.2882 Y12.5273 Z0.0523 I-0.0018 J0.0046
X0.2918 Y12.518 Z0.0517 I0.0018 J-0.0046
X0.2882 Y12.5273 Z0.0512 I-0.0018 J0.0046
X0.2918 Y12.518 Z0.0506 I0.0018 J-0.0046
X0.2882 Y12.5273 Z0.0501 I-0.0018 J0.0046
X0.2918 Y12.518 Z0.0495 I0.0018 J-0.0046
X0.2882 Y12.5273 Z0.049 I-0.0018 J0.0046
X0.2918 Y12.518 Z0.0484 I0.0018 J-0.0046
X0.2882 Y12.5273 Z0.0479 I-0.0018 J0.0046
X0.2918 Y12.518 Z0.0473 I0.0018 J-0.0046
X0.2882 Y12.5273 Z0.0468 I-0.0018 J0.0046
X0.2918 Y12.518 Z0.0462 I0.0018 J-0.0046
X0.2882 Y12.5273 Z0.0457 I-0.0018 J0.0046
X0.2918 Y12.518 Z0.0451 I0.0018 J-0.0046
X0.2882 Y12.5273 Z0.0446 I-0.0018 J0.0046
X0.2918 Y12.518 Z0.044 I0.0018 J-0.0046
X0.2882 Y12.5273 Z0.0435 I-0.0018 J0.0046
X0.2918 Y12.518 Z0.043 I0.0018 J-0.0046
X0.2882 Y12.5273 Z0.0424 I-0.0018 J0.0046
X0.2918 Y12.518 Z0.0419 I0.0018 J-0.0046
X0.2882 Y12.5273 Z0.0413 I-0.0018 J0.0046
X0.2918 Y12.518 Z0.0408 I0.0018 J-0.0046
X0.2882 Y12.5273 Z0.0402 I-0.0018 J0.0046
X0.2918 Y12.518 Z0.0397 I0.0018 J-0.0046
X0.2882 Y12.5273 Z0.0391 I-0.0018 J0.0046
X0.2918 Y12.518 Z0.0386 I0.0018 J-0.0046
X0.2882 Y12.5273 Z0.038 I-0.0018 J0.0046
X0.2918 Y12.518 Z0.0375 I0.0018 J-0.0046
X0.2882 Y12.5273 Z0.0369 I-0.0018 J0.0046
X0.2918 Y12.518 Z0.0364 I0.0018 J-0.0046
X0.2882 Y12.5273 Z0.0358 I-0.0018 J0.0046
X0.2918 Y12.518 Z0.0353 I0.0018 J-0.0046
X0.2882 Y12.5273 Z0.0347 I-0.0018 J0.0046
X0.2918 Y12.518 Z0.0342 I0.0018 J-0.0046
X0.2882 Y12.5273 Z0.0336 I-0.0018 J0.0046
X0.2918 Y12.518 Z0.0331 I0.0018 J-0.0046
X0.2882 Y12.5273 Z0.0325 I-0.0018 J0.0046
X0.2918 Y12.518 Z0.032 I0.0018 J-0.0046
X0.2882 Y12.5273 Z0.0314 I-0.0018 J0.0046
X0.2918 Y12.518 Z0.0309 I0.0018 J-0.0046
X0.2882 Y12.5273 Z0.0303 I-0.0018 J0.0046
X0.2918 Y12.518 Z0.0298 I0.0018 J-0.0046
X0.2882 Y12.5273 Z0.0292 I-0.0018 J0.0046
X0.2918 Y12.518 Z0.0287 I0.0018 J-0.0046
X0.2882 Y12.5273 Z0.0281 I-0.0018 J0.0046
X0.2918 Y12.518 Z0.0276 I0.0018 J-0.0046
X0.2882 Y12.5273 Z0.027 I-0.0018 J0.0046
X0.2918 Y12.518 Z0.0265 I0.0018 J-0.0046
X0.2882 Y12.5273 Z0.0259 I-0.0018 J0.0046
X0.2918 Y12.518 Z0.0254 I0.0018 J-0.0046
X0.2882 Y12.5273 Z0.0249 I-0.0018 J0.0046
X0.2918 Y12.518 Z0.0243 I0.0018 J-0.0046
X0.2882 Y12.5273 Z0.0238 I-0.0018 J0.0046
X0.2918 Y12.518 Z0.0232 I0.0018 J-0.0046
X0.2882 Y12.5273 Z0.0227 I-0.0018 J0.0046
X0.2918 Y12.518 Z0.0221 I0.0018 J-0.0046
X0.2882 Y12.5273 Z0.0216 I-0.0018 J0.0046
X0.2918 Y12.518 Z0.021 I0.0018 J-0.0046
X0.2882 Y12.5273 Z0.0205 I-0.0018 J0.0046
X0.2918 Y12.518 Z0.0199 I0.0018 J-0.0046
X0.2882 Y12.5273 Z0.0194 I-0.0018 J0.0046
X0.2918 Y12.518 Z0.0188 I0.0018 J-0.0046
X0.2882 Y12.5273 Z0.0183 I-0.0018 J0.0046
X0.2918 Y12.518 Z0.0177 I0.0018 J-0.0046
X0.2882 Y12.5273 Z0.0172 I-0.0018 J0.0046
X0.2918 Y12.518 Z0.0166 I0.0018 J-0.0046
X0.2882 Y12.5273 Z0.0161 I-0.0018 J0.0046
X0.2918 Y12.518 Z0.0155 I0.0018 J-0.0046
X0.2882 Y12.5273 Z0.015 I-0.0018 J0.0046
X0.2918 Y12.518 Z0.0144 I0.0018 J-0.0046
X0.2882 Y12.5273 Z0.0139 I-0.0018 J0.0046
X0.2918 Y12.518 Z0.0133 I0.0018 J-0.0046
X0.2882 Y12.5273 Z0.0128 I-0.0018 J0.0046
X0.2918 Y12.518 Z0.0122 I0.0018 J-0.0046
X0.2882 Y12.5273 Z0.0117 I-0.0018 J0.0046
X0.2918 Y12.518 Z0.0111 I0.0018 J-0.0046
X0.2882 Y12.5273 Z0.0106 I-0.0018 J0.0046
X0.2918 Y12.518 Z0.01 I0.0018 J-0.0046
X0.2882 Y12.5273 Z0.0095 I-0.0018 J0.0046
X0.2918 Y12.518 Z0.0089 I0.0018 J-0.0046
X0.2882 Y12.5273 Z0.0084 I-0.0018 J0.0046
X0.2918 Y12.518 Z0.0078 I0.0018 J-0.0046
X0.2882 Y12.5273 Z0.0073 I-0.0018 J0.0046
X0.2918 Y12.518 Z0.0067 I0.0018 J-0.0046
X0.2882 Y12.5273 Z0.0062 I-0.0018 J0.0046
X0.2918 Y12.518 Z0.0057 I0.0018 J-0.0046
X0.2882 Y12.5273 Z0.0051 I-0.0018 J0.0046
X0.2918 Y12.518 Z0.0046 I0.0018 J-0.0046
X0.2882 Y12.5273 Z0.004 I-0.0018 J0.0046
X0.2918 Y12.518 Z0.0035 I0.0018 J-0.0046
X0.2882 Y12.5273 Z0.0029 I-0.0018 J0.0046
X0.2918 Y12.518 Z0.0024 I0.0018 J-0.0046
X0.2882 Y12.5273 Z0.0018 I-0.0018 J0.0046
X0.2918 Y12.518 Z0.0013 I0.0018 J-0.0046
X0.2882 Y12.5273 Z0.0007 I-0.0018 J0.0046
X0.2918 Y12.518 Z0.0002 I0.0018 J-0.0046
X0.2882 Y12.5273 Z-0.0004 I-0.0018 J0.0046
X0.2918 Y12.518 Z-0.0009 I0.0018 J-0.0046
X0.2882 Y12.5273 Z-0.0015 I-0.0018 J0.0046
X0.2918 Y12.518 Z-0.002 I0.0018 J-0.0046
X0.2882 Y12.5273 Z-0.0026 I-0.0018 J0.0046
X0.2918 Y12.518 Z-0.0031 I0.0018 J-0.0046
X0.2882 Y12.5273 Z-0.0037 I-0.0018 J0.0046
X0.2918 Y12.518 Z-0.0042 I0.0018 J-0.0046
X0.2882 Y12.5273 Z-0.0048 I-0.0018 J0.0046
X0.2918 Y12.518 Z-0.0053 I0.0018 J-0.0046
X0.2882 Y12.5273 Z-0.0059 I-0.0018 J0.0046
X0.2918 Y12.518 Z-0.0064 I0.0018 J-0.0046
X0.2882 Y12.5273 Z-0.007 I-0.0018 J0.0046
X0.2918 Y12.518 Z-0.0075 I0.0018 J-0.0046
X0.2882 Y12.5273 Z-0.0081 I-0.0018 J0.0046
X0.2918 Y12.518 Z-0.0086 I0.0018 J-0.0046
X0.2882 Y12.5273 Z-0.0092 I-0.0018 J0.0046
X0.2918 Y12.518 Z-0.0097 I0.0018 J-0.0046
X0.2882 Y12.5273 Z-0.0103 I-0.0018 J0.0046
X0.2918 Y12.518 Z-0.0108 I0.0018 J-0.0046
X0.2882 Y12.5273 Z-0.0114 I-0.0018 J0.0046
X0.2918 Y12.518 Z-0.0119 I0.0018 J-0.0046
X0.2882 Y12.5273 Z-0.0124 I-0.0018 J0.0046
X0.2918 Y12.518 Z-0.013 I0.0018 J-0.0046
X0.2882 Y12.5273 Z-0.0135 I-0.0018 J0.0046
X0.2918 Y12.518 Z-0.0141 I0.0018 J-0.0046
X0.2882 Y12.5273 Z-0.0146 I-0.0018 J0.0046
X0.2918 Y12.518 Z-0.0152 I0.0018 J-0.0046
X0.2882 Y12.5273 Z-0.0157 I-0.0018 J0.0046
X0.2918 Y12.518 Z-0.0163 I0.0018 J-0.0046
X0.2882 Y12.5273 Z-0.0168 I-0.0018 J0.0046
X0.2918 Y12.518 Z-0.0174 I0.0018 J-0.0046
X0.2882 Y12.5273 Z-0.0179 I-0.0018 J0.0046
X0.2918 Y12.518 Z-0.0185 I0.0018 J-0.0046
X0.2882 Y12.5273 Z-0.019 I-0.0018 J0.0046
X0.2918 Y12.518 Z-0.0196 I0.0018 J-0.0046
X0.2882 Y12.5273 Z-0.0201 I-0.0018 J0.0046
X0.2918 Y12.518 Z-0.0207 I0.0018 J-0.0046
X0.2882 Y12.5273 Z-0.0212 I-0.0018 J0.0046
X0.2918 Y12.518 Z-0.0218 I0.0018 J-0.0046
X0.2882 Y12.5273 Z-0.0223 I-0.0018 J0.0046
X0.2918 Y12.518 Z-0.0229 I0.0018 J-0.0046
X0.2882 Y12.5273 Z-0.0234 I-0.0018 J0.0046
X0.2918 Y12.518 Z-0.024 I0.0018 J-0.0046
X0.2882 Y12.5273 Z-0.0245 I-0.0018 J0.0046
X0.29 Y12.5176 Z-0.025 I0.0018 J-0.0046
X0.3124 Y12.54 I0. J0.0224 F40.
X0.29 Y12.5624 I-0.0224 J0.
X0.2676 Y12.54 I0. J-0.0224
X0.29 Y12.5176 I0.0224 J0.
G2 X0.32 Y12.5018 I0. J-0.0362
G3 X0.3539 Y12.503 I0.0166 J0.0113
X0.3638 Y12.54 I-0.0639 J0.037
X0.2162 I-0.0738 J0.
X0.3539 Y12.503 I0.0738 J0.
G1 X0.3545 Y12.5047
X0.3546 Y12.5065
X0.3542 Y12.5083
X0.3532 Y12.5099
X0.3518 Y12.511
X0.35 Y12.5117
X0.2953 Y12.5239
X0.2931 Y12.5272
G3 X0.2852 Y12.5185 I-0.004 J-0.0044
X0.2949 Y12.5215 I0.004 J0.0044
X0.2851 Y12.5238 Z-0.0255 I-0.0049 J0.0012 F20.
X0.2949 Y12.5215 Z-0.0261 I0.0049 J-0.0012
X0.2851 Y12.5238 Z-0.0266 I-0.0049 J0.0012
X0.2949 Y12.5215 Z-0.0272 I0.0049 J-0.0012
X0.2851 Y12.5238 Z-0.0277 I-0.0049 J0.0012
X0.2949 Y12.5215 Z-0.0283 I0.0049 J-0.0012
X0.2851 Y12.5238 Z-0.0288 I-0.0049 J0.0012
X0.2949 Y12.5215 Z-0.0294 I0.0049 J-0.0012
X0.2851 Y12.5238 Z-0.0299 I-0.0049 J0.0012
X0.2949 Y12.5215 Z-0.0305 I0.0049 J-0.0012
X0.2851 Y12.5238 Z-0.031 I-0.0049 J0.0012
X0.2949 Y12.5215 Z-0.0316 I0.0049 J-0.0012
X0.2851 Y12.5238 Z-0.0321 I-0.0049 J0.0012
X0.2949 Y12.5215 Z-0.0327 I0.0049 J-0.0012
X0.2851 Y12.5238 Z-0.0332 I-0.0049 J0.0012
X0.2949 Y12.5215 Z-0.0338 I0.0049 J-0.0012
X0.2851 Y12.5238 Z-0.0343 I-0.0049 J0.0012
X0.2949 Y12.5215 Z-0.0349 I0.0049 J-0.0012
X0.2851 Y12.5238 Z-0.0354 I-0.0049 J0.0012
X0.2949 Y12.5215 Z-0.036 I0.0049 J-0.0012
X0.2851 Y12.5238 Z-0.0365 I-0.0049 J0.0012
X0.2949 Y12.5215 Z-0.0371 I0.0049 J-0.0012
X0.2851 Y12.5238 Z-0.0376 I-0.0049 J0.0012
X0.2949 Y12.5215 Z-0.0382 I0.0049 J-0.0012
X0.2851 Y12.5238 Z-0.0387 I-0.0049 J0.0012
X0.2949 Y12.5215 Z-0.0393 I0.0049 J-0.0012
X0.2851 Y12.5238 Z-0.0398 I-0.0049 J0.0012
X0.2949 Y12.5215 Z-0.0404 I0.0049 J-0.0012
X0.2851 Y12.5238 Z-0.0409 I-0.0049 J0.0012
X0.2949 Y12.5215 Z-0.0415 I0.0049 J-0.0012
X0.2851 Y12.5238 Z-0.042 I-0.0049 J0.0012
X0.2949 Y12.5215 Z-0.0426 I0.0049 J-0.0012
X0.2851 Y12.5238 Z-0.0431 I-0.0049 J0.0012
X0.2949 Y12.5215 Z-0.0437 I0.0049 J-0.0012
X0.2851 Y12.5238 Z-0.0442 I-0.0049 J0.0012
X0.2949 Y12.5215 Z-0.0447 I0.0049 J-0.0012
X0.2851 Y12.5238 Z-0.0453 I-0.0049 J0.0012
X0.2949 Y12.5215 Z-0.0458 I0.0049 J-0.0012
X0.2851 Y12.5238 Z-0.0464 I-0.0049 J0.0012
X0.2949 Y12.5215 Z-0.0469 I0.0049 J-0.0012
X0.2851 Y12.5238 Z-0.0475 I-0.0049 J0.0012
X0.2949 Y12.5215 Z-0.048 I0.0049 J-0.0012
X0.2851 Y12.5238 Z-0.0486 I-0.0049 J0.0012
X0.2949 Y12.5215 Z-0.0491 I0.0049 J-0.0012
X0.2851 Y12.5238 Z-0.0497 I-0.0049 J0.0012
X0.29 Y12.5176 Z-0.05 I0.0049 J-0.0012
X0.3124 Y12.54 I0. J0.0224 F40.
X0.29 Y12.5624 I-0.0224 J0.
X0.2676 Y12.54 I0. J-0.0224
X0.29 Y12.5176 I0.0224 J0.
G2 X0.32 Y12.5018 I0. J-0.0362
G3 X0.3539 Y12.503 I0.0166 J0.0113
X0.3638 Y12.54 I-0.0639 J0.037
X0.2162 I-0.0738 J0.
X0.3539 Y12.503 I0.0738 J0.
G1 X0.3545 Y12.5047
X0.3546 Y12.5065
X0.3542 Y12.5083
X0.3532 Y12.5099
X0.3518 Y12.511
X0.35 Y12.5117
X0.2953 Y12.5239
X0.2931 Y12.5272
G3 X0.2852 Y12.5185 I-0.004 J-0.0044
X0.2949 Y12.5215 I0.004 J0.0044
X0.2851 Y12.5238 Z-0.0505 I-0.0049 J0.0012 F20.
X0.2949 Y12.5215 Z-0.0511 I0.0049 J-0.0012
X0.2851 Y12.5238 Z-0.0516 I-0.0049 J0.0012
X0.2949 Y12.5215 Z-0.0522 I0.0049 J-0.0012
X0.2851 Y12.5238 Z-0.0527 I-0.0049 J0.0012
X0.2949 Y12.5215 Z-0.0533 I0.0049 J-0.0012
X0.2851 Y12.5238 Z-0.0538 I-0.0049 J0.0012
X0.2949 Y12.5215 Z-0.0544 I0.0049 J-0.0012
X0.2851 Y12.5238 Z-0.0549 I-0.0049 J0.0012
X0.2949 Y12.5215 Z-0.0555 I0.0049 J-0.0012
X0.2851 Y12.5238 Z-0.056 I-0.0049 J0.0012
X0.2949 Y12.5215 Z-0.0566 I0.0049 J-0.0012
X0.2851 Y12.5238 Z-0.0571 I-0.0049 J0.0012
X0.2949 Y12.5215 Z-0.0577 I0.0049 J-0.0012
X0.2851 Y12.5238 Z-0.0582 I-0.0049 J0.0012
X0.2949 Y12.5215 Z-0.0588 I0.0049 J-0.0012
X0.2851 Y12.5238 Z-0.0593 I-0.0049 J0.0012
X0.2949 Y12.5215 Z-0.0599 I0.0049 J-0.0012
X0.2851 Y12.5238 Z-0.0604 I-0.0049 J0.0012
X0.2949 Y12.5215 Z-0.061 I0.0049 J-0.0012
X0.2851 Y12.5238 Z-0.0615 I-0.0049 J0.0012
X0.2949 Y12.5215 Z-0.0621 I0.0049 J-0.0012
X0.2851 Y12.5238 Z-0.0626 I-0.0049 J0.0012
X0.2949 Y12.5215 Z-0.0632 I0.0049 J-0.0012
X0.2851 Y12.5238 Z-0.0637 I-0.0049 J0.0012
X0.2949 Y12.5215 Z-0.0643 I0.0049 J-0.0012
X0.2851 Y12.5238 Z-0.0648 I-0.0049 J0.0012
X0.2949 Y12.5215 Z-0.0654 I0.0049 J-0.0012
X0.2851 Y12.5238 Z-0.0659 I-0.0049 J0.0012
X0.2949 Y12.5215 Z-0.0665 I0.0049 J-0.0012
X0.2851 Y12.5238 Z-0.067 I-0.0049 J0.0012
X0.2949 Y12.5215 Z-0.0676 I0.0049 J-0.0012
X0.2851 Y12.5238 Z-0.0681 I-0.0049 J0.0012
X0.2949 Y12.5215 Z-0.0687 I0.0049 J-0.0012
X0.2851 Y12.5238 Z-0.0692 I-0.0049 J0.0012
X0.2949 Y12.5215 Z-0.0697 I0.0049 J-0.0012
X0.2851 Y12.5238 Z-0.0703 I-0.0049 J0.0012
X0.2949 Y12.5215 Z-0.0708 I0.0049 J-0.0012
X0.2851 Y12.5238 Z-0.0714 I-0.0049 J0.0012
X0.2949 Y12.5215 Z-0.0719 I0.0049 J-0.0012
X0.2851 Y12.5238 Z-0.0725 I-0.0049 J0.0012
X0.2949 Y12.5215 Z-0.073 I0.0049 J-0.0012
X0.2851 Y12.5238 Z-0.0736 I-0.0049 J0.0012
X0.2949 Y12.5215 Z-0.0741 I0.0049 J-0.0012
X0.2851 Y12.5238 Z-0.0747 I-0.0049 J0.0012
X0.29 Y12.5176 Z-0.075 I0.0049 J-0.0012
X0.3124 Y12.54 I0. J0.0224 F40.
X0.29 Y12.5624 I-0.0224 J0.
X0.2676 Y12.54 I0. J-0.0224
X0.29 Y12.5176 I0.0224 J0.
G2 X0.32 Y12.5018 I0. J-0.0362
G3 X0.3539 Y12.503 I0.0166 J0.0113
X0.3638 Y12.54 I-0.0639 J0.037
X0.2162 I-0.0738 J0.
X0.3539 Y12.503 I0.0738 J0.
G1 X0.3545 Y12.5047
X0.3546 Y12.5065
X0.3542 Y12.5083
X0.3532 Y12.5099
X0.3518 Y12.511
X0.35 Y12.5117
X0.2953 Y12.5239
X0.2931 Y12.5272
G3 X0.2852 Y12.5185 I-0.004 J-0.0044
X0.2949 Y12.5215 I0.004 J0.0044
X0.2851 Y12.5238 Z-0.0755 I-0.0049 J0.0012 F20.
X0.2949 Y12.5215 Z-0.0761 I0.0049 J-0.0012
X0.2851 Y12.5238 Z-0.0766 I-0.0049 J0.0012
X0.2949 Y12.5215 Z-0.0772 I0.0049 J-0.0012
X0.2851 Y12.5238 Z-0.0777 I-0.0049 J0.0012
X0.2949 Y12.5215 Z-0.0783 I0.0049 J-0.0012
X0.2851 Y12.5238 Z-0.0788 I-0.0049 J0.0012
X0.2949 Y12.5215 Z-0.0794 I0.0049 J-0.0012
X0.2851 Y12.5238 Z-0.0799 I-0.0049 J0.0012
X0.2949 Y12.5215 Z-0.0805 I0.0049 J-0.0012
X0.2851 Y12.5238 Z-0.081 I-0.0049 J0.0012
X0.2949 Y12.5215 Z-0.0816 I0.0049 J-0.0012
X0.2851 Y12.5238 Z-0.0821 I-0.0049 J0.0012
X0.2949 Y12.5215 Z-0.0827 I0.0049 J-0.0012
X0.2851 Y12.5238 Z-0.0832 I-0.0049 J0.0012
X0.2949 Y12.5215 Z-0.0838 I0.0049 J-0.0012
X0.2851 Y12.5238 Z-0.0843 I-0.0049 J0.0012
X0.2949 Y12.5215 Z-0.0849 I0.0049 J-0.0012
X0.2851 Y12.5238 Z-0.0854 I-0.0049 J0.0012
X0.2949 Y12.5215 Z-0.086 I0.0049 J-0.0012
X0.2851 Y12.5238 Z-0.0865 I-0.0049 J0.0012
X0.2949 Y12.5215 Z-0.0871 I0.0049 J-0.0012
X0.2851 Y12.5238 Z-0.0876 I-0.0049 J0.0012
X0.2949 Y12.5215 Z-0.0882 I0.0049 J-0.0012
X0.2851 Y12.5238 Z-0.0887 I-0.0049 J0.0012
X0.2949 Y12.5215 Z-0.0893 I0.0049 J-0.0012
X0.2851 Y12.5238 Z-0.0898 I-0.0049 J0.0012
X0.2949 Y12.5215 Z-0.0904 I0.0049 J-0.0012
X0.2851 Y12.5238 Z-0.0909 I-0.0049 J0.0012
X0.2949 Y12.5215 Z-0.0915 I0.0049 J-0.0012
X0.2851 Y12.5238 Z-0.092 I-0.0049 J0.0012
X0.2949 Y12.5215 Z-0.0926 I0.0049 J-0.0012
X0.2851 Y12.5238 Z-0.0931 I-0.0049 J0.0012
X0.2949 Y12.5215 Z-0.0937 I0.0049 J-0.0012
X0.2851 Y12.5238 Z-0.0942 I-0.0049 J0.0012
X0.2949 Y12.5215 Z-0.0947 I0.0049 J-0.0012
X0.2851 Y12.5238 Z-0.0953 I-0.0049 J0.0012
X0.2949 Y12.5215 Z-0.0958 I0.0049 J-0.0012
X0.2851 Y12.5238 Z-0.0964 I-0.0049 J0.0012
X0.2949 Y12.5215 Z-0.0969 I0.0049 J-0.0012
X0.2851 Y12.5238 Z-0.0975 I-0.0049 J0.0012
X0.2949 Y12.5215 Z-0.098 I0.0049 J-0.0012
X0.2851 Y12.5238 Z-0.0986 I-0.0049 J0.0012
X0.2949 Y12.5215 Z-0.0991 I0.0049 J-0.0012
X0.2851 Y12.5238 Z-0.0997 I-0.0049 J0.0012
X0.29 Y12.5176 Z-0.1 I0.0049 J-0.0012
X0.3124 Y12.54 I0. J0.0224 F40.
X0.29 Y12.5624 I-0.0224 J0.
X0.2676 Y12.54 I0. J-0.0224
X0.29 Y12.5176 I0.0224 J0.
G2 X0.32 Y12.5018 I0. J-0.0362
G3 X0.3539 Y12.503 I0.0166 J0.0113
X0.3638 Y12.54 I-0.0639 J0.037
X0.2162 I-0.0738 J0.
X0.3539 Y12.503 I0.0738 J0.
G1 X0.3545 Y12.5047
X0.3546 Y12.5065
X0.3542 Y12.5083
X0.3532 Y12.5099
X0.3518 Y12.511
X0.35 Y12.5117
X0.2953 Y12.5239
X0.2931 Y12.5272
G3 X0.2852 Y12.5185 I-0.004 J-0.0044
X0.2949 Y12.5215 I0.004 J0.0044
X0.2851 Y12.5238 Z-0.1005 I-0.0049 J0.0012 F20.
X0.2949 Y12.5215 Z-0.1011 I0.0049 J-0.0012
X0.2851 Y12.5238 Z-0.1016 I-0.0049 J0.0012
X0.2949 Y12.5215 Z-0.1022 I0.0049 J-0.0012
X0.2851 Y12.5238 Z-0.1027 I-0.0049 J0.0012
X0.2949 Y12.5215 Z-0.1033 I0.0049 J-0.0012
X0.2851 Y12.5238 Z-0.1038 I-0.0049 J0.0012
X0.2949 Y12.5215 Z-0.1044 I0.0049 J-0.0012
X0.2851 Y12.5238 Z-0.1049 I-0.0049 J0.0012
X0.2949 Y12.5215 Z-0.1055 I0.0049 J-0.0012
X0.2851 Y12.5238 Z-0.106 I-0.0049 J0.0012
X0.2949 Y12.5215 Z-0.1066 I0.0049 J-0.0012
X0.2851 Y12.5238 Z-0.1071 I-0.0049 J0.0012
X0.2949 Y12.5215 Z-0.1077 I0.0049 J-0.0012
X0.2851 Y12.5238 Z-0.1082 I-0.0049 J0.0012
X0.2949 Y12.5215 Z-0.1088 I0.0049 J-0.0012
X0.2851 Y12.5238 Z-0.1093 I-0.0049 J0.0012
X0.2949 Y12.5215 Z-0.1099 I0.0049 J-0.0012
X0.2851 Y12.5238 Z-0.1104 I-0.0049 J0.0012
X0.2949 Y12.5215 Z-0.111 I0.0049 J-0.0012
X0.2851 Y12.5238 Z-0.1115 I-0.0049 J0.0012
X0.2949 Y12.5215 Z-0.1121 I0.0049 J-0.0012
X0.2851 Y12.5238 Z-0.1126 I-0.0049 J0.0012
X0.2949 Y12.5215 Z-0.1132 I0.0049 J-0.0012
X0.2851 Y12.5238 Z-0.1137 I-0.0049 J0.0012
X0.2949 Y12.5215 Z-0.1143 I0.0049 J-0.0012
X0.2851 Y12.5238 Z-0.1148 I-0.0049 J0.0012
X0.2949 Y12.5215 Z-0.1154 I0.0049 J-0.0012
X0.2851 Y12.5238 Z-0.1159 I-0.0049 J0.0012
X0.2949 Y12.5215 Z-0.1165 I0.0049 J-0.0012
X0.2851 Y12.5238 Z-0.117 I-0.0049 J0.0012
X0.2949 Y12.5215 Z-0.1176 I0.0049 J-0.0012
X0.2851 Y12.5238 Z-0.1181 I-0.0049 J0.0012
X0.2949 Y12.5215 Z-0.1187 I0.0049 J-0.0012
X0.2851 Y12.5238 Z-0.1192 I-0.0049 J0.0012
X0.2949 Y12.5215 Z-0.1197 I0.0049 J-0.0012
X0.2851 Y12.5238 Z-0.1203 I-0.0049 J0.0012
X0.2949 Y12.5215 Z-0.1208 I0.0049 J-0.0012
X0.2851 Y12.5238 Z-0.1214 I-0.0049 J0.0012
X0.2949 Y12.5215 Z-0.1219 I0.0049 J-0.0012
X0.2851 Y12.5238 Z-0.1225 I-0.0049 J0.0012
X0.2949 Y12.5215 Z-0.123 I0.0049 J-0.0012
X0.2851 Y12.5238 Z-0.1236 I-0.0049 J0.0012
X0.2949 Y12.5215 Z-0.1241 I0.0049 J-0.0012
X0.2851 Y12.5238 Z-0.1247 I-0.0049 J0.0012
X0.29 Y12.5176 Z-0.125 I0.0049 J-0.0012
X0.3124 Y12.54 I0. J0.0224 F40.
X0.29 Y12.5624 I-0.0224 J0.
X0.2676 Y12.54 I0. J-0.0224
X0.29 Y12.5176 I0.0224 J0.
G2 X0.32 Y12.5018 I0. J-0.0362
G3 X0.3539 Y12.503 I0.0166 J0.0113
X0.3638 Y12.54 I-0.0639 J0.037
X0.2162 I-0.0738 J0.
X0.3539 Y12.503 I0.0738 J0.
G1 X0.3545 Y12.5047
X0.3546 Y12.5065
X0.3542 Y12.5083
X0.3532 Y12.5099
X0.3518 Y12.511
X0.35 Y12.5117
X0.2953 Y12.5239
X0.2931 Y12.5272
G3 X0.2852 Y12.5185 I-0.004 J-0.0044
X0.2949 Y12.5215 I0.004 J0.0044
X0.2851 Y12.5238 Z-0.1255 I-0.0049 J0.0012 F20.
X0.2949 Y12.5215 Z-0.1261 I0.0049 J-0.0012
X0.2851 Y12.5238 Z-0.1266 I-0.0049 J0.0012
X0.2949 Y12.5215 Z-0.1272 I0.0049 J-0.0012
X0.2851 Y12.5238 Z-0.1277 I-0.0049 J0.0012
X0.2949 Y12.5215 Z-0.1283 I0.0049 J-0.0012
X0.2851 Y12.5238 Z-0.1288 I-0.0049 J0.0012
X0.2949 Y12.5215 Z-0.1294 I0.0049 J-0.0012
X0.2851 Y12.5238 Z-0.1299 I-0.0049 J0.0012
X0.2949 Y12.5215 Z-0.1305 I0.0049 J-0.0012
X0.2851 Y12.5238 Z-0.131 I-0.0049 J0.0012
X0.2949 Y12.5215 Z-0.1316 I0.0049 J-0.0012
X0.2851 Y12.5238 Z-0.1321 I-0.0049 J0.0012
X0.2949 Y12.5215 Z-0.1327 I0.0049 J-0.0012
X0.2851 Y12.5238 Z-0.1332 I-0.0049 J0.0012
X0.2949 Y12.5215 Z-0.1338 I0.0049 J-0.0012
X0.2851 Y12.5238 Z-0.1343 I-0.0049 J0.0012
X0.2949 Y12.5215 Z-0.1349 I0.0049 J-0.0012
X0.2851 Y12.5238 Z-0.1354 I-0.0049 J0.0012
X0.2949 Y12.5215 Z-0.136 I0.0049 J-0.0012
X0.2851 Y12.5238 Z-0.1365 I-0.0049 J0.0012
X0.2949 Y12.5215 Z-0.1371 I0.0049 J-0.0012
X0.2851 Y12.5238 Z-0.1376 I-0.0049 J0.0012
X0.2949 Y12.5215 Z-0.1382 I0.0049 J-0.0012
X0.2851 Y12.5238 Z-0.1387 I-0.0049 J0.0012
X0.2949 Y12.5215 Z-0.1393 I0.0049 J-0.0012
X0.2851 Y12.5238 Z-0.1398 I-0.0049 J0.0012
X0.2949 Y12.5215 Z-0.1404 I0.0049 J-0.0012
X0.2851 Y12.5238 Z-0.1409 I-0.0049 J0.0012
X0.2949 Y12.5215 Z-0.1415 I0.0049 J-0.0012
X0.2851 Y12.5238 Z-0.142 I-0.0049 J0.0012
X0.2949 Y12.5215 Z-0.1426 I0.0049 J-0.0012
X0.2851 Y12.5238 Z-0.1431 I-0.0049 J0.0012
X0.2949 Y12.5215 Z-0.1437 I0.0049 J-0.0012
X0.2851 Y12.5238 Z-0.1442 I-0.0049 J0.0012
X0.2949 Y12.5215 Z-0.1447 I0.0049 J-0.0012
X0.2851 Y12.5238 Z-0.1453 I-0.0049 J0.0012
X0.2949 Y12.5215 Z-0.1458 I0.0049 J-0.0012
X0.2851 Y12.5238 Z-0.1464 I-0.0049 J0.0012
X0.2949 Y12.5215 Z-0.1469 I0.0049 J-0.0012
X0.2851 Y12.5238 Z-0.1475 I-0.0049 J0.0012
X0.2949 Y12.5215 Z-0.148 I0.0049 J-0.0012
X0.2851 Y12.5238 Z-0.1486 I-0.0049 J0.0012
X0.2949 Y12.5215 Z-0.1491 I0.0049 J-0.0012
X0.2851 Y12.5238 Z-0.1497 I-0.0049 J0.0012
X0.29 Y12.5176 Z-0.15 I0.0049 J-0.0012
X0.3124 Y12.54 I0. J0.0224 F40.
X0.29 Y12.5624 I-0.0224 J0.
X0.2676 Y12.54 I0. J-0.0224
X0.29 Y12.5176 I0.0224 J0.
G2 X0.32 Y12.5018 I0. J-0.0362
G3 X0.3539 Y12.503 I0.0166 J0.0113
X0.3638 Y12.54 I-0.0639 J0.037
X0.2162 I-0.0738 J0.
X0.3539 Y12.503 I0.0738 J0.
G1 X0.3545 Y12.5047
X0.3546 Y12.5065
X0.3542 Y12.5083
X0.3532 Y12.5099
X0.3518 Y12.511
X0.35 Y12.5117
X0.2953 Y12.5239
X0.2931 Y12.5272
G3 X0.2852 Y12.5185 I-0.004 J-0.0044
X0.2949 Y12.5215 I0.004 J0.0044
X0.2851 Y12.5238 Z-0.1505 I-0.0049 J0.0012 F20.
X0.2949 Y12.5215 Z-0.1511 I0.0049 J-0.0012
X0.2851 Y12.5238 Z-0.1516 I-0.0049 J0.0012
X0.2949 Y12.5215 Z-0.1522 I0.0049 J-0.0012
X0.2851 Y12.5238 Z-0.1527 I-0.0049 J0.0012
X0.2949 Y12.5215 Z-0.1533 I0.0049 J-0.0012
X0.2851 Y12.5238 Z-0.1538 I-0.0049 J0.0012
X0.2949 Y12.5215 Z-0.1544 I0.0049 J-0.0012
X0.2851 Y12.5238 Z-0.1549 I-0.0049 J0.0012
X0.2949 Y12.5215 Z-0.1555 I0.0049 J-0.0012
X0.2851 Y12.5238 Z-0.156 I-0.0049 J0.0012
X0.2949 Y12.5215 Z-0.1566 I0.0049 J-0.0012
X0.2851 Y12.5238 Z-0.1571 I-0.0049 J0.0012
X0.2949 Y12.5215 Z-0.1577 I0.0049 J-0.0012
X0.2851 Y12.5238 Z-0.1582 I-0.0049 J0.0012
X0.2949 Y12.5215 Z-0.1588 I0.0049 J-0.0012
X0.2851 Y12.5238 Z-0.1593 I-0.0049 J0.0012
X0.2949 Y12.5215 Z-0.1599 I0.0049 J-0.0012
X0.2851 Y12.5238 Z-0.1604 I-0.0049 J0.0012
X0.2949 Y12.5215 Z-0.161 I0.0049 J-0.0012
X0.2851 Y12.5238 Z-0.1615 I-0.0049 J0.0012
X0.2949 Y12.5215 Z-0.1621 I0.0049 J-0.0012
X0.2851 Y12.5238 Z-0.1626 I-0.0049 J0.0012
X0.2949 Y12.5215 Z-0.1632 I0.0049 J-0.0012
X0.2851 Y12.5238 Z-0.1637 I-0.0049 J0.0012
X0.2949 Y12.5215 Z-0.1643 I0.0049 J-0.0012
X0.2851 Y12.5238 Z-0.1648 I-0.0049 J0.0012
X0.2949 Y12.5215 Z-0.1654 I0.0049 J-0.0012
X0.2851 Y12.5238 Z-0.1659 I-0.0049 J0.0012
X0.2949 Y12.5215 Z-0.1665 I0.0049 J-0.0012
X0.2851 Y12.5238 Z-0.167 I-0.0049 J0.0012
X0.2949 Y12.5215 Z-0.1676 I0.0049 J-0.0012
X0.2851 Y12.5238 Z-0.1681 I-0.0049 J0.0012
X0.2949 Y12.5215 Z-0.1687 I0.0049 J-0.0012
X0.2851 Y12.5238 Z-0.1692 I-0.0049 J0.0012
X0.2949 Y12.5215 Z-0.1697 I0.0049 J-0.0012
X0.2851 Y12.5238 Z-0.1703 I-0.0049 J0.0012
X0.2949 Y12.5215 Z-0.1708 I0.0049 J-0.0012
X0.2851 Y12.5238 Z-0.1714 I-0.0049 J0.0012
X0.2949 Y12.5215 Z-0.1719 I0.0049 J-0.0012
X0.2851 Y12.5238 Z-0.1725 I-0.0049 J0.0012
X0.2949 Y12.5215 Z-0.173 I0.0049 J-0.0012
X0.2851 Y12.5238 Z-0.1736 I-0.0049 J0.0012
X0.2949 Y12.5215 Z-0.1741 I0.0049 J-0.0012
X0.2851 Y12.5238 Z-0.1747 I-0.0049 J0.0012
X0.29 Y12.5176 Z-0.175 I0.0049 J-0.0012
X0.3124 Y12.54 I0. J0.0224 F40.
X0.29 Y12.5624 I-0.0224 J0.
X0.2676 Y12.54 I0. J-0.0224
X0.29 Y12.5176 I0.0224 J0.
G2 X0.32 Y12.5018 I0. J-0.0362
G3 X0.3539 Y12.503 I0.0166 J0.0113
X0.3638 Y12.54 I-0.0639 J0.037
X0.2162 I-0.0738 J0.
X0.3539 Y12.503 I0.0738 J0.
G1 X0.3545 Y12.5047
X0.3546 Y12.5065
X0.3542 Y12.5083
X0.3532 Y12.5099
X0.3518 Y12.511
X0.35 Y12.5117
X0.2953 Y12.5239
X0.2931 Y12.5272
G3 X0.2852 Y12.5185 I-0.004 J-0.0044
X0.2949 Y12.5215 I0.004 J0.0044
X0.2851 Y12.5238 Z-0.1755 I-0.0049 J0.0012 F20.
X0.2949 Y12.5215 Z-0.1761 I0.0049 J-0.0012
X0.2851 Y12.5238 Z-0.1766 I-0.0049 J0.0012
X0.2949 Y12.5215 Z-0.1772 I0.0049 J-0.0012
X0.2851 Y12.5238 Z-0.1777 I-0.0049 J0.0012
X0.2949 Y12.5215 Z-0.1783 I0.0049 J-0.0012
X0.2851 Y12.5238 Z-0.1788 I-0.0049 J0.0012
X0.2949 Y12.5215 Z-0.1794 I0.0049 J-0.0012
X0.2851 Y12.5238 Z-0.1799 I-0.0049 J0.0012
X0.2949 Y12.5215 Z-0.1805 I0.0049 J-0.0012
X0.2851 Y12.5238 Z-0.181 I-0.0049 J0.0012
X0.2949 Y12.5215 Z-0.1816 I0.0049 J-0.0012
X0.2851 Y12.5238 Z-0.1821 I-0.0049 J0.0012
X0.2949 Y12.5215 Z-0.1827 I0.0049 J-0.0012
X0.2851 Y12.5238 Z-0.1832 I-0.0049 J0.0012
X0.2949 Y12.5215 Z-0.1838 I0.0049 J-0.0012
X0.2851 Y12.5238 Z-0.1843 I-0.0049 J0.0012
X0.2949 Y12.5215 Z-0.1849 I0.0049 J-0.0012
X0.2851 Y12.5238 Z-0.1854 I-0.0049 J0.0012
X0.2949 Y12.5215 Z-0.186 I0.0049 J-0.0012
X0.2851 Y12.5238 Z-0.1865 I-0.0049 J0.0012
X0.2949 Y12.5215 Z-0.1871 I0.0049 J-0.0012
X0.2851 Y12.5238 Z-0.1876 I-0.0049 J0.0012
X0.2949 Y12.5215 Z-0.1882 I0.0049 J-0.0012
X0.2851 Y12.5238 Z-0.1887 I-0.0049 J0.0012
X0.2949 Y12.5215 Z-0.1893 I0.0049 J-0.0012
X0.2851 Y12.5238 Z-0.1898 I-0.0049 J0.0012
X0.2949 Y12.5215 Z-0.1904 I0.0049 J-0.0012
X0.2851 Y12.5238 Z-0.1909 I-0.0049 J0.0012
X0.2949 Y12.5215 Z-0.1915 I0.0049 J-0.0012
X0.2851 Y12.5238 Z-0.192 I-0.0049 J0.0012
X0.2949 Y12.5215 Z-0.1926 I0.0049 J-0.0012
X0.2851 Y12.5238 Z-0.1931 I-0.0049 J0.0012
X0.2949 Y12.5215 Z-0.1937 I0.0049 J-0.0012
X0.2851 Y12.5238 Z-0.1942 I-0.0049 J0.0012
X0.2949 Y12.5215 Z-0.1947 I0.0049 J-0.0012
X0.2851 Y12.5238 Z-0.1953 I-0.0049 J0.0012
X0.2949 Y12.5215 Z-0.1958 I0.0049 J-0.0012
X0.2851 Y12.5238 Z-0.1964 I-0.0049 J0.0012
X0.2949 Y12.5215 Z-0.1969 I0.0049 J-0.0012
X0.2851 Y12.5238 Z-0.1975 I-0.0049 J0.0012
X0.2949 Y12.5215 Z-0.198 I0.0049 J-0.0012
X0.2851 Y12.5238 Z-0.1986 I-0.0049 J0.0012
X0.2949 Y12.5215 Z-0.1991 I0.0049 J-0.0012
X0.2851 Y12.5238 Z-0.1997 I-0.0049 J0.0012
X0.29 Y12.5176 Z-0.2 I0.0049 J-0.0012
X0.3124 Y12.54 I0. J0.0224 F40.
X0.29 Y12.5624 I-0.0224 J0.
X0.2676 Y12.54 I0. J-0.0224
X0.29 Y12.5176 I0.0224 J0.
G2 X0.32 Y12.5018 I0. J-0.0362
G3 X0.3539 Y12.503 I0.0166 J0.0113
X0.3638 Y12.54 I-0.0639 J0.037
X0.2162 I-0.0738 J0.
X0.3539 Y12.503 I0.0738 J0.
G1 X0.3545 Y12.5047
X0.3546 Y12.5065
X0.3542 Y12.5083
X0.3532 Y12.5099
X0.3518 Y12.511
X0.35 Y12.5117
X0.2953 Y12.5239
X0.2931 Y12.5272
G3 X0.2852 Y12.5185 I-0.004 J-0.0044
X0.2949 Y12.5215 I0.004 J0.0044
X0.2851 Y12.5238 Z-0.2005 I-0.0049 J0.0012 F20.
X0.2949 Y12.5215 Z-0.2011 I0.0049 J-0.0012
X0.2851 Y12.5238 Z-0.2016 I-0.0049 J0.0012
X0.2949 Y12.5215 Z-0.2022 I0.0049 J-0.0012
X0.2851 Y12.5238 Z-0.2027 I-0.0049 J0.0012
X0.2949 Y12.5215 Z-0.2033 I0.0049 J-0.0012
X0.2851 Y12.5238 Z-0.2038 I-0.0049 J0.0012
X0.2949 Y12.5215 Z-0.2044 I0.0049 J-0.0012
X0.2851 Y12.5238 Z-0.2049 I-0.0049 J0.0012
X0.2949 Y12.5215 Z-0.2055 I0.0049 J-0.0012
X0.2851 Y12.5238 Z-0.206 I-0.0049 J0.0012
X0.2949 Y12.5215 Z-0.2066 I0.0049 J-0.0012
X0.2851 Y12.5238 Z-0.2071 I-0.0049 J0.0012
X0.2949 Y12.5215 Z-0.2077 I0.0049 J-0.0012
X0.2851 Y12.5238 Z-0.2082 I-0.0049 J0.0012
X0.2949 Y12.5215 Z-0.2088 I0.0049 J-0.0012
X0.2851 Y12.5238 Z-0.2093 I-0.0049 J0.0012
X0.2949 Y12.5215 Z-0.2099 I0.0049 J-0.0012
X0.2851 Y12.5238 Z-0.2104 I-0.0049 J0.0012
X0.2949 Y12.5215 Z-0.211 I0.0049 J-0.0012
X0.2851 Y12.5238 Z-0.2115 I-0.0049 J0.0012
X0.2949 Y12.5215 Z-0.2121 I0.0049 J-0.0012
X0.2851 Y12.5238 Z-0.2126 I-0.0049 J0.0012
X0.2949 Y12.5215 Z-0.2132 I0.0049 J-0.0012
X0.2851 Y12.5238 Z-0.2137 I-0.0049 J0.0012
X0.2949 Y12.5215 Z-0.2143 I0.0049 J-0.0012
X0.2851 Y12.5238 Z-0.2148 I-0.0049 J0.0012
X0.2949 Y12.5215 Z-0.2154 I0.0049 J-0.0012
X0.2851 Y12.5238 Z-0.2159 I-0.0049 J0.0012
X0.2949 Y12.5215 Z-0.2165 I0.0049 J-0.0012
X0.2851 Y12.5238 Z-0.217 I-0.0049 J0.0012
X0.2949 Y12.5215 Z-0.2176 I0.0049 J-0.0012
X0.2851 Y12.5238 Z-0.2181 I-0.0049 J0.0012
X0.2949 Y12.5215 Z-0.2187 I0.0049 J-0.0012
X0.2851 Y12.5238 Z-0.2192 I-0.0049 J0.0012
X0.2949 Y12.5215 Z-0.2197 I0.0049 J-0.0012
X0.2851 Y12.5238 Z-0.2203 I-0.0049 J0.0012
X0.2949 Y12.5215 Z-0.2208 I0.0049 J-0.0012
X0.2851 Y12.5238 Z-0.2214 I-0.0049 J0.0012
X0.2949 Y12.5215 Z-0.2219 I0.0049 J-0.0012
X0.2851 Y12.5238 Z-0.2225 I-0.0049 J0.0012
X0.2949 Y12.5215 Z-0.223 I0.0049 J-0.0012
X0.2851 Y12.5238 Z-0.2236 I-0.0049 J0.0012
X0.2949 Y12.5215 Z-0.2241 I0.0049 J-0.0012
X0.2851 Y12.5238 Z-0.2247 I-0.0049 J0.0012
X0.29 Y12.5176 Z-0.225 I0.0049 J-0.0012
X0.3124 Y12.54 I0. J0.0224 F40.
X0.29 Y12.5624 I-0.0224 J0.
X0.2676 Y12.54 I0. J-0.0224
X0.29 Y12.5176 I0.0224 J0.
G2 X0.32 Y12.5018 I0. J-0.0362
G3 X0.3539 Y12.503 I0.0166 J0.0113
X0.3638 Y12.54 I-0.0639 J0.037
X0.2162 I-0.0738 J0.
X0.3539 Y12.503 I0.0738 J0.
G1 X0.3545 Y12.5047
X0.3546 Y12.5065
X0.3542 Y12.5083
X0.3532 Y12.5099
X0.3518 Y12.511
X0.35 Y12.5117
X0.2953 Y12.5239
X0.2931 Y12.5272
G3 X0.2852 Y12.5185 I-0.004 J-0.0044
X0.2949 Y12.5215 I0.004 J0.0044
X0.2851 Y12.5238 Z-0.2255 I-0.0049 J0.0012 F20.
X0.2949 Y12.5215 Z-0.2261 I0.0049 J-0.0012
X0.2851 Y12.5238 Z-0.2266 I-0.0049 J0.0012
X0.2949 Y12.5215 Z-0.2272 I0.0049 J-0.0012
X0.2851 Y12.5238 Z-0.2277 I-0.0049 J0.0012
X0.2949 Y12.5215 Z-0.2283 I0.0049 J-0.0012
X0.2851 Y12.5238 Z-0.2288 I-0.0049 J0.0012
X0.2949 Y12.5215 Z-0.2294 I0.0049 J-0.0012
X0.2851 Y12.5238 Z-0.2299 I-0.0049 J0.0012
X0.2949 Y12.5215 Z-0.2305 I0.0049 J-0.0012
X0.2851 Y12.5238 Z-0.231 I-0.0049 J0.0012
X0.2949 Y12.5215 Z-0.2316 I0.0049 J-0.0012
X0.2851 Y12.5238 Z-0.2321 I-0.0049 J0.0012
X0.2949 Y12.5215 Z-0.2327 I0.0049 J-0.0012
X0.2851 Y12.5238 Z-0.2332 I-0.0049 J0.0012
X0.2949 Y12.5215 Z-0.2338 I0.0049 J-0.0012
X0.2851 Y12.5238 Z-0.2343 I-0.0049 J0.0012
X0.2949 Y12.5215 Z-0.2349 I0.0049 J-0.0012
X0.2851 Y12.5238 Z-0.2354 I-0.0049 J0.0012
X0.2949 Y12.5215 Z-0.236 I0.0049 J-0.0012
X0.2851 Y12.5238 Z-0.2365 I-0.0049 J0.0012
X0.2949 Y12.5215 Z-0.2371 I0.0049 J-0.0012
X0.2851 Y12.5238 Z-0.2376 I-0.0049 J0.0012
X0.2949 Y12.5215 Z-0.2382 I0.0049 J-0.0012
X0.2851 Y12.5238 Z-0.2387 I-0.0049 J0.0012
X0.2949 Y12.5215 Z-0.2393 I0.0049 J-0.0012
X0.2851 Y12.5238 Z-0.2398 I-0.0049 J0.0012
X0.2949 Y12.5215 Z-0.2404 I0.0049 J-0.0012
X0.2851 Y12.5238 Z-0.2409 I-0.0049 J0.0012
X0.2949 Y12.5215 Z-0.2415 I0.0049 J-0.0012
X0.2851 Y12.5238 Z-0.242 I-0.0049 J0.0012
X0.2949 Y12.5215 Z-0.2426 I0.0049 J-0.0012
X0.2851 Y12.5238 Z-0.2431 I-0.0049 J0.0012
X0.2949 Y12.5215 Z-0.2437 I0.0049 J-0.0012
X0.2851 Y12.5238 Z-0.2442 I-0.0049 J0.0012
X0.2949 Y12.5215 Z-0.2447 I0.0049 J-0.0012
X0.2851 Y12.5238 Z-0.2453 I-0.0049 J0.0012
X0.2949 Y12.5215 Z-0.2458 I0.0049 J-0.0012
X0.2851 Y12.5238 Z-0.2464 I-0.0049 J0.0012
X0.2949 Y12.5215 Z-0.2469 I0.0049 J-0.0012
X0.2851 Y12.5238 Z-0.2475 I-0.0049 J0.0012
X0.2949 Y12.5215 Z-0.248 I0.0049 J-0.0012
X0.2851 Y12.5238 Z-0.2486 I-0.0049 J0.0012
X0.2949 Y12.5215 Z-0.2491 I0.0049 J-0.0012
X0.2851 Y12.5238 Z-0.2497 I-0.0049 J0.0012
X0.29 Y12.5176 Z-0.25 I0.0049 J-0.0012
X0.3124 Y12.54 I0. J0.0224 F40.
X0.29 Y12.5624 I-0.0224 J0.
X0.2676 Y12.54 I0. J-0.0224
X0.29 Y12.5176 I0.0224 J0.
G2 X0.32 Y12.5018 I0. J-0.0362
G3 X0.3539 Y12.503 I0.0166 J0.0113
X0.3638 Y12.54 I-0.0639 J0.037
X0.2162 I-0.0738 J0.
X0.3539 Y12.503 I0.0738 J0.
G1 X0.3545 Y12.5047
X0.3546 Y12.5065
X0.3542 Y12.5083
X0.3532 Y12.5099
X0.3518 Y12.511
X0.35 Y12.5117
X0.2953 Y12.5239
X0.2931 Y12.5272
G3 X0.2852 Y12.5185 I-0.004 J-0.0044
X0.2949 Y12.5215 I0.004 J0.0044
X0.2851 Y12.5238 Z-0.2505 I-0.0049 J0.0012 F20.
X0.2949 Y12.5215 Z-0.2511 I0.0049 J-0.0012
X0.2851 Y12.5238 Z-0.2516 I-0.0049 J0.0012
X0.2949 Y12.5215 Z-0.2522 I0.0049 J-0.0012
X0.2851 Y12.5238 Z-0.2527 I-0.0049 J0.0012
X0.2949 Y12.5215 Z-0.2533 I0.0049 J-0.0012
X0.2851 Y12.5238 Z-0.2538 I-0.0049 J0.0012
X0.2949 Y12.5215 Z-0.2544 I0.0049 J-0.0012
X0.2851 Y12.5238 Z-0.2549 I-0.0049 J0.0012
X0.2949 Y12.5215 Z-0.2555 I0.0049 J-0.0012
X0.2851 Y12.5238 Z-0.256 I-0.0049 J0.0012
X0.2949 Y12.5215 Z-0.2566 I0.0049 J-0.0012
X0.2851 Y12.5238 Z-0.2571 I-0.0049 J0.0012
X0.2949 Y12.5215 Z-0.2577 I0.0049 J-0.0012
X0.2851 Y12.5238 Z-0.2582 I-0.0049 J0.0012
X0.2949 Y12.5215 Z-0.2588 I0.0049 J-0.0012
X0.2851 Y12.5238 Z-0.2593 I-0.0049 J0.0012
X0.2949 Y12.5215 Z-0.2599 I0.0049 J-0.0012
X0.2851 Y12.5238 Z-0.2604 I-0.0049 J0.0012
X0.2949 Y12.5215 Z-0.261 I0.0049 J-0.0012
X0.2851 Y12.5238 Z-0.2615 I-0.0049 J0.0012
X0.2949 Y12.5215 Z-0.2621 I0.0049 J-0.0012
X0.2851 Y12.5238 Z-0.2626 I-0.0049 J0.0012
X0.2949 Y12.5215 Z-0.2632 I0.0049 J-0.0012
X0.2851 Y12.5238 Z-0.2637 I-0.0049 J0.0012
X0.2949 Y12.5215 Z-0.2643 I0.0049 J-0.0012
X0.2851 Y12.5238 Z-0.2648 I-0.0049 J0.0012
X0.2949 Y12.5215 Z-0.2654 I0.0049 J-0.0012
X0.2851 Y12.5238 Z-0.2659 I-0.0049 J0.0012
X0.2949 Y12.5215 Z-0.2665 I0.0049 J-0.0012
X0.2851 Y12.5238 Z-0.267 I-0.0049 J0.0012
X0.2949 Y12.5215 Z-0.2676 I0.0049 J-0.0012
X0.2851 Y12.5238 Z-0.2681 I-0.0049 J0.0012
X0.2949 Y12.5215 Z-0.2687 I0.0049 J-0.0012
X0.2851 Y12.5238 Z-0.2692 I-0.0049 J0.0012
X0.2949 Y12.5215 Z-0.2697 I0.0049 J-0.0012
X0.2851 Y12.5238 Z-0.2703 I-0.0049 J0.0012
X0.2949 Y12.5215 Z-0.2708 I0.0049 J-0.0012
X0.2851 Y12.5238 Z-0.2714 I-0.0049 J0.0012
X0.2949 Y12.5215 Z-0.2719 I0.0049 J-0.0012
X0.2851 Y12.5238 Z-0.2725 I-0.0049 J0.0012
X0.2949 Y12.5215 Z-0.273 I0.0049 J-0.0012
X0.2851 Y12.5238 Z-0.2736 I-0.0049 J0.0012
X0.2949 Y12.5215 Z-0.2741 I0.0049 J-0.0012
X0.2851 Y12.5238 Z-0.2747 I-0.0049 J0.0012
X0.29 Y12.5176 Z-0.275 I0.0049 J-0.0012
X0.3124 Y12.54 I0. J0.0224 F40.
X0.29 Y12.5624 I-0.0224 J0.
X0.2676 Y12.54 I0. J-0.0224
X0.29 Y12.5176 I0.0224 J0.
G2 X0.32 Y12.5018 I0. J-0.0362
G3 X0.3539 Y12.503 I0.0166 J0.0113
X0.3638 Y12.54 I-0.0639 J0.037
X0.2162 I-0.0738 J0.
X0.3539 Y12.503 I0.0738 J0.
G1 X0.3545 Y12.5047
X0.3546 Y12.5065
X0.3542 Y12.5083
X0.3532 Y12.5099
X0.3518 Y12.511
X0.35 Y12.5117
X0.2953 Y12.5239
X0.2931 Y12.5272
G3 X0.2852 Y12.5185 I-0.004 J-0.0044
X0.2949 Y12.5215 I0.004 J0.0044
X0.2851 Y12.5238 Z-0.2755 I-0.0049 J0.0012 F20.
X0.2949 Y12.5215 Z-0.2761 I0.0049 J-0.0012
X0.2851 Y12.5238 Z-0.2766 I-0.0049 J0.0012
X0.2949 Y12.5215 Z-0.2772 I0.0049 J-0.0012
X0.2851 Y12.5238 Z-0.2777 I-0.0049 J0.0012
X0.2949 Y12.5215 Z-0.2783 I0.0049 J-0.0012
X0.2851 Y12.5238 Z-0.2788 I-0.0049 J0.0012
X0.2949 Y12.5215 Z-0.2794 I0.0049 J-0.0012
X0.2851 Y12.5238 Z-0.2799 I-0.0049 J0.0012
X0.2949 Y12.5215 Z-0.2805 I0.0049 J-0.0012
X0.2851 Y12.5238 Z-0.281 I-0.0049 J0.0012
X0.2949 Y12.5215 Z-0.2816 I0.0049 J-0.0012
X0.2851 Y12.5238 Z-0.2821 I-0.0049 J0.0012
X0.2949 Y12.5215 Z-0.2827 I0.0049 J-0.0012
X0.2851 Y12.5238 Z-0.2832 I-0.0049 J0.0012
X0.2949 Y12.5215 Z-0.2838 I0.0049 J-0.0012
X0.2851 Y12.5238 Z-0.2843 I-0.0049 J0.0012
X0.2949 Y12.5215 Z-0.2849 I0.0049 J-0.0012
X0.2851 Y12.5238 Z-0.2854 I-0.0049 J0.0012
X0.2949 Y12.5215 Z-0.286 I0.0049 J-0.0012
X0.2851 Y12.5238 Z-0.2865 I-0.0049 J0.0012
X0.2949 Y12.5215 Z-0.2871 I0.0049 J-0.0012
X0.2851 Y12.5238 Z-0.2876 I-0.0049 J0.0012
X0.2949 Y12.5215 Z-0.2882 I0.0049 J-0.0012
X0.2851 Y12.5238 Z-0.2887 I-0.0049 J0.0012
X0.2949 Y12.5215 Z-0.2893 I0.0049 J-0.0012
X0.2851 Y12.5238 Z-0.2898 I-0.0049 J0.0012
X0.2949 Y12.5215 Z-0.2904 I0.0049 J-0.0012
X0.2851 Y12.5238 Z-0.2909 I-0.0049 J0.0012
X0.2949 Y12.5215 Z-0.2915 I0.0049 J-0.0012
X0.2851 Y12.5238 Z-0.292 I-0.0049 J0.0012
X0.2949 Y12.5215 Z-0.2926 I0.0049 J-0.0012
X0.2851 Y12.5238 Z-0.2931 I-0.0049 J0.0012
X0.2949 Y12.5215 Z-0.2937 I0.0049 J-0.0012
X0.2851 Y12.5238 Z-0.2942 I-0.0049 J0.0012
X0.2949 Y12.5215 Z-0.2947 I0.0049 J-0.0012
X0.2851 Y12.5238 Z-0.2953 I-0.0049 J0.0012
X0.2949 Y12.5215 Z-0.2958 I0.0049 J-0.0012
X0.2851 Y12.5238 Z-0.2964 I-0.0049 J0.0012
X0.2949 Y12.5215 Z-0.2969 I0.0049 J-0.0012
X0.2851 Y12.5238 Z-0.2975 I-0.0049 J0.0012
X0.2949 Y12.5215 Z-0.298 I0.0049 J-0.0012
X0.2851 Y12.5238 Z-0.2986 I-0.0049 J0.0012
X0.2949 Y12.5215 Z-0.2991 I0.0049 J-0.0012
X0.2851 Y12.5238 Z-0.2997 I-0.0049 J0.0012
X0.29 Y12.5176 Z-0.3 I0.0049 J-0.0012
X0.3124 Y12.54 I0. J0.0224 F40.
X0.29 Y12.5624 I-0.0224 J0.
X0.2676 Y12.54 I0. J-0.0224
X0.29 Y12.5176 I0.0224 J0.
G2 X0.32 Y12.5018 I0. J-0.0362
G3 X0.3539 Y12.503 I0.0166 J0.0113
X0.3638 Y12.54 I-0.0639 J0.037
X0.2162 I-0.0738 J0.
X0.3539 Y12.503 I0.0738 J0.
G1 X0.3545 Y12.5046
X0.3547 Y12.5063
X0.3543 Y12.5079
X0.3535 Y12.5094
X0.3523 Y12.5107
X0.3508 Y12.5115
X0.3182 Y12.5239
X0.3172 Y12.5243
X0.3162 Y12.5246
X0.2917 Y12.5291
G3 X0.2867 Y12.5189 I-0.0011 J-0.0058
X0.2933 Y12.5264 Z-0.3005 I0.0033 J0.0037 F20.
X0.2867 Y12.5189 Z-0.3011 I-0.0033 J-0.0037
X0.2933 Y12.5264 Z-0.3016 I0.0033 J0.0037
X0.2867 Y12.5189 Z-0.3022 I-0.0033 J-0.0037
X0.2933 Y12.5264 Z-0.3027 I0.0033 J0.0037
X0.2867 Y12.5189 Z-0.3033 I-0.0033 J-0.0037
X0.2933 Y12.5264 Z-0.3038 I0.0033 J0.0037
X0.2867 Y12.5189 Z-0.3044 I-0.0033 J-0.0037
X0.2933 Y12.5264 Z-0.3049 I0.0033 J0.0037
X0.2867 Y12.5189 Z-0.3055 I-0.0033 J-0.0037
X0.2933 Y12.5264 Z-0.306 I0.0033 J0.0037
X0.2867 Y12.5189 Z-0.3066 I-0.0033 J-0.0037
X0.2933 Y12.5264 Z-0.3071 I0.0033 J0.0037
X0.2867 Y12.5189 Z-0.3077 I-0.0033 J-0.0037
X0.2933 Y12.5264 Z-0.3082 I0.0033 J0.0037
X0.2867 Y12.5189 Z-0.3088 I-0.0033 J-0.0037
X0.2933 Y12.5264 Z-0.3093 I0.0033 J0.0037
X0.2867 Y12.5189 Z-0.3099 I-0.0033 J-0.0037
X0.29 Y12.5176 Z-0.31 I0.0033 J0.0037
X0.3124 Y12.54 I0. J0.0224 F40.
X0.29 Y12.5624 I-0.0224 J0.
X0.2676 Y12.54 I0. J-0.0224
X0.29 Y12.5176 I0.0224 J0.
G2 X0.32 Y12.5018 I0. J-0.0362
G3 X0.3539 Y12.503 I0.0166 J0.0113
X0.3638 Y12.54 I-0.0639 J0.037
X0.2162 I-0.0738 J0.
X0.3539 Y12.503 I0.0738 J0.
G1 X0.3548 Y12.505 Z-0.3096
X0.3553 Y12.5072 Z-0.3091
X0.3555 Y12.5091 Z-0.3078
X0.3553 Y12.5111 Z-0.3065
X0.3545 Y12.5135 Z-0.3027
X0.3542 Y12.5143 Z-0.2982
G0 Z0.2
X1.3349 Y12.5447
G1 Z0.1118 F40.
X1.3337 Y12.545 Z0.1066 F20.
X1.332 Y12.5448 Z0.1045
X1.3305 Y12.5441 Z0.1024
X1.3293 Y12.543 Z0.1017
X1.3286 Y12.5416 Z0.101
X1.3283 Y12.54 Z0.1002
X1.3284 Y12.5391 Z0.1001
X1.3286 Y12.5382 Z0.1
G3 X1.3379 Y12.5418 Z0.0995 I0.0046 J0.0018
X1.3286 Y12.5382 Z0.0989 I-0.0046 J-0.0018
X1.3379 Y12.5418 Z0.0984 I0.0046 J0.0018
X1.3286 Y12.5382 Z0.0978 I-0.0046 J-0.0018
X1.3379 Y12.5418 Z0.0973 I0.0046 J0.0018
X1.3286 Y12.5382 Z0.0967 I-0.0046 J-0.0018
X1.3379 Y12.5418 Z0.0962 I0.0046 J0.0018
X1.3286 Y12.5382 Z0.0956 I-0.0046 J-0.0018
X1.3379 Y12.5418 Z0.0951 I0.0046 J0.0018
X1.3286 Y12.5382 Z0.0945 I-0.0046 J-0.0018
X1.3379 Y12.5418 Z0.094 I0.0046 J0.0018
X1.3286 Y12.5382 Z0.0934 I-0.0046 J-0.0018
X1.3379 Y12.5418 Z0.0929 I0.0046 J0.0018
X1.3286 Y12.5382 Z0.0923 I-0.0046 J-0.0018
X1.3379 Y12.5418 Z0.0918 I0.0046 J0.0018
X1.3286 Y12.5382 Z0.0912 I-0.0046 J-0.0018
X1.3379 Y12.5418 Z0.0907 I0.0046 J0.0018
X1.3286 Y12.5382 Z0.0901 I-0.0046 J-0.0018
X1.3379 Y12.5418 Z0.0896 I0.0046 J0.0018
X1.3286 Y12.5382 Z0.089 I-0.0046 J-0.0018
X1.3379 Y12.5418 Z0.0885 I0.0046 J0.0018
X1.3286 Y12.5382 Z0.0879 I-0.0046 J-0.0018
X1.3379 Y12.5418 Z0.0874 I0.0046 J0.0018
X1.3286 Y12.5382 Z0.0868 I-0.0046 J-0.0018
X1.3379 Y12.5418 Z0.0863 I0.0046 J0.0018
X1.3286 Y12.5382 Z0.0857 I-0.0046 J-0.0018
X1.3379 Y12.5418 Z0.0852 I0.0046 J0.0018
X1.3286 Y12.5382 Z0.0846 I-0.0046 J-0.0018
X1.3379 Y12.5418 Z0.0841 I0.0046 J0.0018
X1.3286 Y12.5382 Z0.0835 I-0.0046 J-0.0018
X1.3379 Y12.5418 Z0.083 I0.0046 J0.0018
X1.3286 Y12.5382 Z0.0824 I-0.0046 J-0.0018
X1.3379 Y12.5418 Z0.0819 I0.0046 J0.0018
X1.3286 Y12.5382 Z0.0813 I-0.0046 J-0.0018
X1.3379 Y12.5418 Z0.0808 I0.0046 J0.0018
X1.3286 Y12.5382 Z0.0803 I-0.0046 J-0.0018
X1.3379 Y12.5418 Z0.0797 I0.0046 J0.0018
X1.3286 Y12.5382 Z0.0792 I-0.0046 J-0.0018
X1.3379 Y12.5418 Z0.0786 I0.0046 J0.0018
X1.3286 Y12.5382 Z0.0781 I-0.0046 J-0.0018
X1.3379 Y12.5418 Z0.0775 I0.0046 J0.0018
X1.3286 Y12.5382 Z0.077 I-0.0046 J-0.0018
X1.3379 Y12.5418 Z0.0764 I0.0046 J0.0018
X1.3286 Y12.5382 Z0.0759 I-0.0046 J-0.0018
X1.3379 Y12.5418 Z0.0753 I0.0046 J0.0018
X1.3286 Y12.5382 Z0.0748 I-0.0046 J-0.0018
X1.3379 Y12.5418 Z0.0742 I0.0046 J0.0018
X1.3286 Y12.5382 Z0.0737 I-0.0046 J-0.0018
X1.3379 Y12.5418 Z0.0731 I0.0046 J0.0018
X1.3286 Y12.5382 Z0.0726 I-0.0046 J-0.0018
X1.3379 Y12.5418 Z0.072 I0.0046 J0.0018
X1.3286 Y12.5382 Z0.0715 I-0.0046 J-0.0018
X1.3379 Y12.5418 Z0.0709 I0.0046 J0.0018
X1.3286 Y12.5382 Z0.0704 I-0.0046 J-0.0018
X1.3379 Y12.5418 Z0.0698 I0.0046 J0.0018
X1.3286 Y12.5382 Z0.0693 I-0.0046 J-0.0018
X1.3379 Y12.5418 Z0.0687 I0.0046 J0.0018
X1.3286 Y12.5382 Z0.0682 I-0.0046 J-0.0018
X1.3379 Y12.5418 Z0.0676 I0.0046 J0.0018
X1.3286 Y12.5382 Z0.0671 I-0.0046 J-0.0018
X1.3379 Y12.5418 Z0.0665 I0.0046 J0.0018
X1.3286 Y12.5382 Z0.066 I-0.0046 J-0.0018
X1.3379 Y12.5418 Z0.0654 I0.0046 J0.0018
X1.3286 Y12.5382 Z0.0649 I-0.0046 J-0.0018
X1.3379 Y12.5418 Z0.0643 I0.0046 J0.0018
X1.3286 Y12.5382 Z0.0638 I-0.0046 J-0.0018
X1.3379 Y12.5418 Z0.0632 I0.0046 J0.0018
X1.3286 Y12.5382 Z0.0627 I-0.0046 J-0.0018
X1.3379 Y12.5418 Z0.0622 I0.0046 J0.0018
X1.3286 Y12.5382 Z0.0616 I-0.0046 J-0.0018
X1.3379 Y12.5418 Z0.0611 I0.0046 J0.0018
X1.3286 Y12.5382 Z0.0605 I-0.0046 J-0.0018
X1.3379 Y12.5418 Z0.06 I0.0046 J0.0018
X1.3286 Y12.5382 Z0.0594 I-0.0046 J-0.0018
X1.3379 Y12.5418 Z0.0589 I0.0046 J0.0018
X1.3286 Y12.5382 Z0.0583 I-0.0046 J-0.0018
X1.3379 Y12.5418 Z0.0578 I0.0046 J0.0018
X1.3286 Y12.5382 Z0.0572 I-0.0046 J-0.0018
X1.3379 Y12.5418 Z0.0567 I0.0046 J0.0018
X1.3286 Y12.5382 Z0.0561 I-0.0046 J-0.0018
X1.3379 Y12.5418 Z0.0556 I0.0046 J0.0018
X1.3286 Y12.5382 Z0.055 I-0.0046 J-0.0018
X1.3379 Y12.5418 Z0.0545 I0.0046 J0.0018
X1.3286 Y12.5382 Z0.0539 I-0.0046 J-0.0018
X1.3379 Y12.5418 Z0.0534 I0.0046 J0.0018
X1.3286 Y12.5382 Z0.0528 I-0.0046 J-0.0018
X1.3379 Y12.5418 Z0.0523 I0.0046 J0.0018
X1.3286 Y12.5382 Z0.0517 I-0.0046 J-0.0018
X1.3379 Y12.5418 Z0.0512 I0.0046 J0.0018
X1.3286 Y12.5382 Z0.0506 I-0.0046 J-0.0018
X1.3379 Y12.5418 Z0.0501 I0.0046 J0.0018
X1.3286 Y12.5382 Z0.0495 I-0.0046 J-0.0018
X1.3379 Y12.5418 Z0.049 I0.0046 J0.0018
X1.3286 Y12.5382 Z0.0484 I-0.0046 J-0.0018
X1.3379 Y12.5418 Z0.0479 I0.0046 J0.0018
X1.3286 Y12.5382 Z0.0473 I-0.0046 J-0.0018
X1.3379 Y12.5418 Z0.0468 I0.0046 J0.0018
X1.3286 Y12.5382 Z0.0462 I-0.0046 J-0.0018
X1.3379 Y12.5418 Z0.0457 I0.0046 J0.0018
X1.3286 Y12.5382 Z0.0451 I-0.0046 J-0.0018
X1.3379 Y12.5418 Z0.0446 I0.0046 J0.0018
X1.3286 Y12.5382 Z0.044 I-0.0046 J-0.0018
X1.3379 Y12.5418 Z0.0435 I0.0046 J0.0018
X1.3286 Y12.5382 Z0.043 I-0.0046 J-0.0018
X1.3379 Y12.5418 Z0.0424 I0.0046 J0.0018
X1.3286 Y12.5382 Z0.0419 I-0.0046 J-0.0018
X1.3379 Y12.5418 Z0.0413 I0.0046 J0.0018
X1.3286 Y12.5382 Z0.0408 I-0.0046 J-0.0018
X1.3379 Y12.5418 Z0.0402 I0.0046 J0.0018
X1.3286 Y12.5382 Z0.0397 I-0.0046 J-0.0018
X1.3379 Y12.5418 Z0.0391 I0.0046 J0.0018
X1.3286 Y12.5382 Z0.0386 I-0.0046 J-0.0018
X1.3379 Y12.5418 Z0.038 I0.0046 J0.0018
X1.3286 Y12.5382 Z0.0375 I-0.0046 J-0.0018
X1.3379 Y12.5418 Z0.0369 I0.0046 J0.0018
X1.3286 Y12.5382 Z0.0364 I-0.0046 J-0.0018
X1.3379 Y12.5418 Z0.0358 I0.0046 J0.0018
X1.3286 Y12.5382 Z0.0353 I-0.0046 J-0.0018
X1.3379 Y12.5418 Z0.0347 I0.0046 J0.0018
X1.3286 Y12.5382 Z0.0342 I-0.0046 J-0.0018
X1.3379 Y12.5418 Z0.0336 I0.0046 J0.0018
X1.3286 Y12.5382 Z0.0331 I-0.0046 J-0.0018
X1.3379 Y12.5418 Z0.0325 I0.0046 J0.0018
X1.3286 Y12.5382 Z0.032 I-0.0046 J-0.0018
X1.3379 Y12.5418 Z0.0314 I0.0046 J0.0018
X1.3286 Y12.5382 Z0.0309 I-0.0046 J-0.0018
X1.3379 Y12.5418 Z0.0303 I0.0046 J0.0018
X1.3286 Y12.5382 Z0.0298 I-0.0046 J-0.0018
X1.3379 Y12.5418 Z0.0292 I0.0046 J0.0018
X1.3286 Y12.5382 Z0.0287 I-0.0046 J-0.0018
X1.3379 Y12.5418 Z0.0281 I0.0046 J0.0018
X1.3286 Y12.5382 Z0.0276 I-0.0046 J-0.0018
X1.3379 Y12.5418 Z0.027 I0.0046 J0.0018
X1.3286 Y12.5382 Z0.0265 I-0.0046 J-0.0018
X1.3379 Y12.5418 Z0.0259 I0.0046 J0.0018
X1.3286 Y12.5382 Z0.0254 I-0.0046 J-0.0018
X1.3379 Y12.5418 Z0.0249 I0.0046 J0.0018
X1.3286 Y12.5382 Z0.0243 I-0.0046 J-0.0018
X1.3379 Y12.5418 Z0.0238 I0.0046 J0.0018
X1.3286 Y12.5382 Z0.0232 I-0.0046 J-0.0018
X1.3379 Y12.5418 Z0.0227 I0.0046 J0.0018
X1.3286 Y12.5382 Z0.0221 I-0.0046 J-0.0018
X1.3379 Y12.5418 Z0.0216 I0.0046 J0.0018
X1.3286 Y12.5382 Z0.021 I-0.0046 J-0.0018
X1.3379 Y12.5418 Z0.0205 I0.0046 J0.0018
X1.3286 Y12.5382 Z0.0199 I-0.0046 J-0.0018
X1.3379 Y12.5418 Z0.0194 I0.0046 J0.0018
X1.3286 Y12.5382 Z0.0188 I-0.0046 J-0.0018
X1.3379 Y12.5418 Z0.0183 I0.0046 J0.0018
X1.3286 Y12.5382 Z0.0177 I-0.0046 J-0.0018
X1.3379 Y12.5418 Z0.0172 I0.0046 J0.0018
X1.3286 Y12.5382 Z0.0166 I-0.0046 J-0.0018
X1.3379 Y12.5418 Z0.0161 I0.0046 J0.0018
X1.3286 Y12.5382 Z0.0155 I-0.0046 J-0.0018
X1.3379 Y12.5418 Z0.015 I0.0046 J0.0018
X1.3286 Y12.5382 Z0.0144 I-0.0046 J-0.0018
X1.3379 Y12.5418 Z0.0139 I0.0046 J0.0018
X1.3286 Y12.5382 Z0.0133 I-0.0046 J-0.0018
X1.3379 Y12.5418 Z0.0128 I0.0046 J0.0018
X1.3286 Y12.5382 Z0.0122 I-0.0046 J-0.0018
X1.3379 Y12.5418 Z0.0117 I0.0046 J0.0018
X1.3286 Y12.5382 Z0.0111 I-0.0046 J-0.0018
X1.3379 Y12.5418 Z0.0106 I0.0046 J0.0018
X1.3286 Y12.5382 Z0.01 I-0.0046 J-0.0018
X1.3379 Y12.5418 Z0.0095 I0.0046 J0.0018
X1.3286 Y12.5382 Z0.0089 I-0.0046 J-0.0018
X1.3379 Y12.5418 Z0.0084 I0.0046 J0.0018
X1.3286 Y12.5382 Z0.0078 I-0.0046 J-0.0018
X1.3379 Y12.5418 Z0.0073 I0.0046 J0.0018
X1.3286 Y12.5382 Z0.0067 I-0.0046 J-0.0018
X1.3379 Y12.5418 Z0.0062 I0.0046 J0.0018
X1.3286 Y12.5382 Z0.0057 I-0.0046 J-0.0018
X1.3379 Y12.5418 Z0.0051 I0.0046 J0.0018
X1.3286 Y12.5382 Z0.0046 I-0.0046 J-0.0018
X1.3379 Y12.5418 Z0.004 I0.0046 J0.0018
X1.3286 Y12.5382 Z0.0035 I-0.0046 J-0.0018
X1.3379 Y12.5418 Z0.0029 I0.0046 J0.0018
X1.3286 Y12.5382 Z0.0024 I-0.0046 J-0.0018
X1.3379 Y12.5418 Z0.0018 I0.0046 J0.0018
X1.3286 Y12.5382 Z0.0013 I-0.0046 J-0.0018
X1.3379 Y12.5418 Z0.0007 I0.0046 J0.0018
X1.3286 Y12.5382 Z0.0002 I-0.0046 J-0.0018
X1.3379 Y12.5418 Z-0.0004 I0.0046 J0.0018
X1.3286 Y12.5382 Z-0.0009 I-0.0046 J-0.0018
X1.3379 Y12.5418 Z-0.0015 I0.0046 J0.0018
X1.3286 Y12.5382 Z-0.002 I-0.0046 J-0.0018
X1.3379 Y12.5418 Z-0.0026 I0.0046 J0.0018
X1.3286 Y12.5382 Z-0.0031 I-0.0046 J-0.0018
X1.3379 Y12.5418 Z-0.0037 I0.0046 J0.0018
X1.3286 Y12.5382 Z-0.0042 I-0.0046 J-0.0018
X1.3379 Y12.5418 Z-0.0048 I0.0046 J0.0018
X1.3286 Y12.5382 Z-0.0053 I-0.0046 J-0.0018
X1.3379 Y12.5418 Z-0.0059 I0.0046 J0.0018
X1.3286 Y12.5382 Z-0.0064 I-0.0046 J-0.0018
X1.3379 Y12.5418 Z-0.007 I0.0046 J0.0018
X1.3286 Y12.5382 Z-0.0075 I-0.0046 J-0.0018
X1.3379 Y12.5418 Z-0.0081 I0.0046 J0.0018
X1.3286 Y12.5382 Z-0.0086 I-0.0046 J-0.0018
X1.3379 Y12.5418 Z-0.0092 I0.0046 J0.0018
X1.3286 Y12.5382 Z-0.0097 I-0.0046 J-0.0018
X1.3379 Y12.5418 Z-0.0103 I0.0046 J0.0018
X1.3286 Y12.5382 Z-0.0108 I-0.0046 J-0.0018
X1.3379 Y12.5418 Z-0.0114 I0.0046 J0.0018
X1.3286 Y12.5382 Z-0.0119 I-0.0046 J-0.0018
X1.3379 Y12.5418 Z-0.0124 I0.0046 J0.0018
X1.3286 Y12.5382 Z-0.013 I-0.0046 J-0.0018
X1.3379 Y12.5418 Z-0.0135 I0.0046 J0.0018
X1.3286 Y12.5382 Z-0.0141 I-0.0046 J-0.0018
X1.3379 Y12.5418 Z-0.0146 I0.0046 J0.0018
X1.3286 Y12.5382 Z-0.0152 I-0.0046 J-0.0018
X1.3379 Y12.5418 Z-0.0157 I0.0046 J0.0018
X1.3286 Y12.5382 Z-0.0163 I-0.0046 J-0.0018
X1.3379 Y12.5418 Z-0.0168 I0.0046 J0.0018
X1.3286 Y12.5382 Z-0.0174 I-0.0046 J-0.0018
X1.3379 Y12.5418 Z-0.0179 I0.0046 J0.0018
X1.3286 Y12.5382 Z-0.0185 I-0.0046 J-0.0018
X1.3379 Y12.5418 Z-0.019 I0.0046 J0.0018
X1.3286 Y12.5382 Z-0.0196 I-0.0046 J-0.0018
X1.3379 Y12.5418 Z-0.0201 I0.0046 J0.0018
X1.3286 Y12.5382 Z-0.0207 I-0.0046 J-0.0018
X1.3379 Y12.5418 Z-0.0212 I0.0046 J0.0018
X1.3286 Y12.5382 Z-0.0218 I-0.0046 J-0.0018
X1.3379 Y12.5418 Z-0.0223 I0.0046 J0.0018
X1.3286 Y12.5382 Z-0.0229 I-0.0046 J-0.0018
X1.3379 Y12.5418 Z-0.0234 I0.0046 J0.0018
X1.3286 Y12.5382 Z-0.024 I-0.0046 J-0.0018
X1.3379 Y12.5418 Z-0.0245 I0.0046 J0.0018
X1.3283 Y12.54 Z-0.025 I-0.0046 J-0.0018
X1.3638 I0.0178 J0. F40.
X1.2162 I-0.0738 J0.
X1.3638 I0.0738 J0.
G1 X1.3635 Y12.5413
X1.3628 Y12.5424
X1.3616 Y12.5431
X1.3603 Y12.5433
X1.3441 Y12.5424
X1.3326 Y12.5417
X1.3314 Y12.5413
X1.3303 Y12.5405
X1.3297 Y12.5393
X1.3296 Y12.538
X1.33 Y12.5367
X1.3309 Y12.5357
X1.3321 Y12.5351
G3 X1.3345 Y12.5449 Z-0.0255 I0.0012 J0.0049 F20.
X1.3321 Y12.5351 Z-0.0261 I-0.0012 J-0.0049
X1.3345 Y12.5449 Z-0.0266 I0.0012 J0.0049
X1.3321 Y12.5351 Z-0.0272 I-0.0012 J-0.0049
X1.3345 Y12.5449 Z-0.0277 I0.0012 J0.0049
X1.3321 Y12.5351 Z-0.0283 I-0.0012 J-0.0049
X1.3345 Y12.5449 Z-0.0288 I0.0012 J0.0049
X1.3321 Y12.5351 Z-0.0294 I-0.0012 J-0.0049
X1.3345 Y12.5449 Z-0.0299 I0.0012 J0.0049
X1.3321 Y12.5351 Z-0.0305 I-0.0012 J-0.0049
X1.3345 Y12.5449 Z-0.031 I0.0012 J0.0049
X1.3321 Y12.5351 Z-0.0316 I-0.0012 J-0.0049
X1.3345 Y12.5449 Z-0.0321 I0.0012 J0.0049
X1.3321 Y12.5351 Z-0.0327 I-0.0012 J-0.0049
X1.3345 Y12.5449 Z-0.0332 I0.0012 J0.0049
X1.3321 Y12.5351 Z-0.0338 I-0.0012 J-0.0049
X1.3345 Y12.5449 Z-0.0343 I0.0012 J0.0049
X1.3321 Y12.5351 Z-0.0349 I-0.0012 J-0.0049
X1.3345 Y12.5449 Z-0.0354 I0.0012 J0.0049
X1.3321 Y12.5351 Z-0.036 I-0.0012 J-0.0049
X1.3345 Y12.5449 Z-0.0365 I0.0012 J0.0049
X1.3321 Y12.5351 Z-0.0371 I-0.0012 J-0.0049
X1.3345 Y12.5449 Z-0.0376 I0.0012 J0.0049
X1.3321 Y12.5351 Z-0.0382 I-0.0012 J-0.0049
X1.3345 Y12.5449 Z-0.0387 I0.0012 J0.0049
X1.3321 Y12.5351 Z-0.0393 I-0.0012 J-0.0049
X1.3345 Y12.5449 Z-0.0398 I0.0012 J0.0049
X1.3321 Y12.5351 Z-0.0404 I-0.0012 J-0.0049
X1.3345 Y12.5449 Z-0.0409 I0.0012 J0.0049
X1.3321 Y12.5351 Z-0.0415 I-0.0012 J-0.0049
X1.3345 Y12.5449 Z-0.042 I0.0012 J0.0049
X1.3321 Y12.5351 Z-0.0426 I-0.0012 J-0.0049
X1.3345 Y12.5449 Z-0.0431 I0.0012 J0.0049
X1.3321 Y12.5351 Z-0.0437 I-0.0012 J-0.0049
X1.3345 Y12.5449 Z-0.0442 I0.0012 J0.0049
X1.3321 Y12.5351 Z-0.0447 I-0.0012 J-0.0049
X1.3345 Y12.5449 Z-0.0453 I0.0012 J0.0049
X1.3321 Y12.5351 Z-0.0458 I-0.0012 J-0.0049
X1.3345 Y12.5449 Z-0.0464 I0.0012 J0.0049
X1.3321 Y12.5351 Z-0.0469 I-0.0012 J-0.0049
X1.3345 Y12.5449 Z-0.0475 I0.0012 J0.0049
X1.3321 Y12.5351 Z-0.048 I-0.0012 J-0.0049
X1.3345 Y12.5449 Z-0.0486 I0.0012 J0.0049
X1.3321 Y12.5351 Z-0.0491 I-0.0012 J-0.0049
X1.3345 Y12.5449 Z-0.0497 I0.0012 J0.0049
X1.3283 Y12.54 Z-0.05 I-0.0012 J-0.0049
X1.3638 I0.0178 J0. F40.
X1.2162 I-0.0738 J0.
X1.3638 I0.0738 J0.
G1 X1.3635 Y12.5413
X1.3628 Y12.5424
X1.3616 Y12.5431
X1.3603 Y12.5433
X1.3441 Y12.5424
X1.3326 Y12.5417
X1.3314 Y12.5413
X1.3303 Y12.5405
X1.3297 Y12.5393
X1.3296 Y12.538
X1.33 Y12.5367
X1.3309 Y12.5357
X1.3321 Y12.5351
G3 X1.3345 Y12.5449 Z-0.0505 I0.0012 J0.0049 F20.
X1.3321 Y12.5351 Z-0.0511 I-0.0012 J-0.0049
X1.3345 Y12.5449 Z-0.0516 I0.0012 J0.0049
X1.3321 Y12.5351 Z-0.0522 I-0.0012 J-0.0049
X1.3345 Y12.5449 Z-0.0527 I0.0012 J0.0049
X1.3321 Y12.5351 Z-0.0533 I-0.0012 J-0.0049
X1.3345 Y12.5449 Z-0.0538 I0.0012 J0.0049
X1.3321 Y12.5351 Z-0.0544 I-0.0012 J-0.0049
X1.3345 Y12.5449 Z-0.0549 I0.0012 J0.0049
X1.3321 Y12.5351 Z-0.0555 I-0.0012 J-0.0049
X1.3345 Y12.5449 Z-0.056 I0.0012 J0.0049
X1.3321 Y12.5351 Z-0.0566 I-0.0012 J-0.0049
X1.3345 Y12.5449 Z-0.0571 I0.0012 J0.0049
X1.3321 Y12.5351 Z-0.0577 I-0.0012 J-0.0049
X1.3345 Y12.5449 Z-0.0582 I0.0012 J0.0049
X1.3321 Y12.5351 Z-0.0588 I-0.0012 J-0.0049
X1.3345 Y12.5449 Z-0.0593 I0.0012 J0.0049
X1.3321 Y12.5351 Z-0.0599 I-0.0012 J-0.0049
X1.3345 Y12.5449 Z-0.0604 I0.0012 J0.0049
X1.3321 Y12.5351 Z-0.061 I-0.0012 J-0.0049
X1.3345 Y12.5449 Z-0.0615 I0.0012 J0.0049
X1.3321 Y12.5351 Z-0.0621 I-0.0012 J-0.0049
X1.3345 Y12.5449 Z-0.0626 I0.0012 J0.0049
X1.3321 Y12.5351 Z-0.0632 I-0.0012 J-0.0049
X1.3345 Y12.5449 Z-0.0637 I0.0012 J0.0049
X1.3321 Y12.5351 Z-0.0643 I-0.0012 J-0.0049
X1.3345 Y12.5449 Z-0.0648 I0.0012 J0.0049
X1.3321 Y12.5351 Z-0.0654 I-0.0012 J-0.0049
X1.3345 Y12.5449 Z-0.0659 I0.0012 J0.0049
X1.3321 Y12.5351 Z-0.0665 I-0.0012 J-0.0049
X1.3345 Y12.5449 Z-0.067 I0.0012 J0.0049
X1.3321 Y12.5351 Z-0.0676 I-0.0012 J-0.0049
X1.3345 Y12.5449 Z-0.0681 I0.0012 J0.0049
X1.3321 Y12.5351 Z-0.0687 I-0.0012 J-0.0049
X1.3345 Y12.5449 Z-0.0692 I0.0012 J0.0049
X1.3321 Y12.5351 Z-0.0697 I-0.0012 J-0.0049
X1.3345 Y12.5449 Z-0.0703 I0.0012 J0.0049
X1.3321 Y12.5351 Z-0.0708 I-0.0012 J-0.0049
X1.3345 Y12.5449 Z-0.0714 I0.0012 J0.0049
X1.3321 Y12.5351 Z-0.0719 I-0.0012 J-0.0049
X1.3345 Y12.5449 Z-0.0725 I0.0012 J0.0049
X1.3321 Y12.5351 Z-0.073 I-0.0012 J-0.0049
X1.3345 Y12.5449 Z-0.0736 I0.0012 J0.0049
X1.3321 Y12.5351 Z-0.0741 I-0.0012 J-0.0049
X1.3345 Y12.5449 Z-0.0747 I0.0012 J0.0049
X1.3283 Y12.54 Z-0.075 I-0.0012 J-0.0049
X1.3638 I0.0178 J0. F40.
X1.2162 I-0.0738 J0.
X1.3638 I0.0738 J0.
G1 X1.3635 Y12.5413
X1.3628 Y12.5424
X1.3616 Y12.5431
X1.3603 Y12.5433
X1.3441 Y12.5424
X1.3326 Y12.5417
X1.3314 Y12.5413
X1.3303 Y12.5405
X1.3297 Y12.5393
X1.3296 Y12.538
X1.33 Y12.5367
X1.3309 Y12.5357
X1.3321 Y12.5351
G3 X1.3345 Y12.5449 Z-0.0755 I0.0012 J0.0049 F20.
X1.3321 Y12.5351 Z-0.0761 I-0.0012 J-0.0049
X1.3345 Y12.5449 Z-0.0766 I0.0012 J0.0049
X1.3321 Y12.5351 Z-0.0772 I-0.0012 J-0.0049
X1.3345 Y12.5449 Z-0.0777 I0.0012 J0.0049
X1.3321 Y12.5351 Z-0.0783 I-0.0012 J-0.0049
X1.3345 Y12.5449 Z-0.0788 I0.0012 J0.0049
X1.3321 Y12.5351 Z-0.0794 I-0.0012 J-0.0049
X1.3345 Y12.5449 Z-0.0799 I0.0012 J0.0049
X1.3321 Y12.5351 Z-0.0805 I-0.0012 J-0.0049
X1.3345 Y12.5449 Z-0.081 I0.0012 J0.0049
X1.3321 Y12.5351 Z-0.0816 I-0.0012 J-0.0049
X1.3345 Y12.5449 Z-0.0821 I0.0012 J0.0049
X1.3321 Y12.5351 Z-0.0827 I-0.0012 J-0.0049
X1.3345 Y12.5449 Z-0.0832 I0.0012 J0.0049
X1.3321 Y12.5351 Z-0.0838 I-0.0012 J-0.0049
X1.3345 Y12.5449 Z-0.0843 I0.0012 J0.0049
X1.3321 Y12.5351 Z-0.0849 I-0.0012 J-0.0049
X1.3345 Y12.5449 Z-0.0854 I0.0012 J0.0049
X1.3321 Y12.5351 Z-0.086 I-0.0012 J-0.0049
X1.3345 Y12.5449 Z-0.0865 I0.0012 J0.0049
X1.3321 Y12.5351 Z-0.0871 I-0.0012 J-0.0049
X1.3345 Y12.5449 Z-0.0876 I0.0012 J0.0049
X1.3321 Y12.5351 Z-0.0882 I-0.0012 J-0.0049
X1.3345 Y12.5449 Z-0.0887 I0.0012 J0.0049
X1.3321 Y12.5351 Z-0.0893 I-0.0012 J-0.0049
X1.3345 Y12.5449 Z-0.0898 I0.0012 J0.0049
X1.3321 Y12.5351 Z-0.0904 I-0.0012 J-0.0049
X1.3345 Y12.5449 Z-0.0909 I0.0012 J0.0049
X1.3321 Y12.5351 Z-0.0915 I-0.0012 J-0.0049
X1.3345 Y12.5449 Z-0.092 I0.0012 J0.0049
X1.3321 Y12.5351 Z-0.0926 I-0.0012 J-0.0049
X1.3345 Y12.5449 Z-0.0931 I0.0012 J0.0049
X1.3321 Y12.5351 Z-0.0937 I-0.0012 J-0.0049
X1.3345 Y12.5449 Z-0.0942 I0.0012 J0.0049
X1.3321 Y12.5351 Z-0.0947 I-0.0012 J-0.0049
X1.3345 Y12.5449 Z-0.0953 I0.0012 J0.0049
X1.3321 Y12.5351 Z-0.0958 I-0.0012 J-0.0049
X1.3345 Y12.5449 Z-0.0964 I0.0012 J0.0049
X1.3321 Y12.5351 Z-0.0969 I-0.0012 J-0.0049
X1.3345 Y12.5449 Z-0.0975 I0.0012 J0.0049
X1.3321 Y12.5351 Z-0.098 I-0.0012 J-0.0049
X1.3345 Y12.5449 Z-0.0986 I0.0012 J0.0049
X1.3321 Y12.5351 Z-0.0991 I-0.0012 J-0.0049
X1.3345 Y12.5449 Z-0.0997 I0.0012 J0.0049
X1.3283 Y12.54 Z-0.1 I-0.0012 J-0.0049
X1.3638 I0.0178 J0. F40.
X1.2162 I-0.0738 J0.
X1.3638 I0.0738 J0.
G1 X1.3635 Y12.5413
X1.3628 Y12.5424
X1.3616 Y12.5431
X1.3603 Y12.5433
X1.3441 Y12.5424
X1.3326 Y12.5417
X1.3314 Y12.5413
X1.3303 Y12.5405
X1.3297 Y12.5393
X1.3296 Y12.538
X1.33 Y12.5367
X1.3309 Y12.5357
X1.3321 Y12.5351
G3 X1.3345 Y12.5449 Z-0.1005 I0.0012 J0.0049 F20.
X1.3321 Y12.5351 Z-0.1011 I-0.0012 J-0.0049
X1.3345 Y12.5449 Z-0.1016 I0.0012 J0.0049
X1.3321 Y12.5351 Z-0.1022 I-0.0012 J-0.0049
X1.3345 Y12.5449 Z-0.1027 I0.0012 J0.0049
X1.3321 Y12.5351 Z-0.1033 I-0.0012 J-0.0049
X1.3345 Y12.5449 Z-0.1038 I0.0012 J0.0049
X1.3321 Y12.5351 Z-0.1044 I-0.0012 J-0.0049
X1.3345 Y12.5449 Z-0.1049 I0.0012 J0.0049
X1.3321 Y12.5351 Z-0.1055 I-0.0012 J-0.0049
X1.3345 Y12.5449 Z-0.106 I0.0012 J0.0049
X1.3321 Y12.5351 Z-0.1066 I-0.0012 J-0.0049
X1.3345 Y12.5449 Z-0.1071 I0.0012 J0.0049
X1.3321 Y12.5351 Z-0.1077 I-0.0012 J-0.0049
X1.3345 Y12.5449 Z-0.1082 I0.0012 J0.0049
X1.3321 Y12.5351 Z-0.1088 I-0.0012 J-0.0049
X1.3345 Y12.5449 Z-0.1093 I0.0012 J0.0049
X1.3321 Y12.5351 Z-0.1099 I-0.0012 J-0.0049
X1.3345 Y12.5449 Z-0.1104 I0.0012 J0.0049
X1.3321 Y12.5351 Z-0.111 I-0.0012 J-0.0049
X1.3345 Y12.5449 Z-0.1115 I0.0012 J0.0049
X1.3321 Y12.5351 Z-0.1121 I-0.0012 J-0.0049
X1.3345 Y12.5449 Z-0.1126 I0.0012 J0.0049
X1.3321 Y12.5351 Z-0.1132 I-0.0012 J-0.0049
X1.3345 Y12.5449 Z-0.1137 I0.0012 J0.0049
X1.3321 Y12.5351 Z-0.1143 I-0.0012 J-0.0049
X1.3345 Y12.5449 Z-0.1148 I0.0012 J0.0049
X1.3321 Y12.5351 Z-0.1154 I-0.0012 J-0.0049
X1.3345 Y12.5449 Z-0.1159 I0.0012 J0.0049
X1.3321 Y12.5351 Z-0.1165 I-0.0012 J-0.0049
X1.3345 Y12.5449 Z-0.117 I0.0012 J0.0049
X1.3321 Y12.5351 Z-0.1176 I-0.0012 J-0.0049
X1.3345 Y12.5449 Z-0.1181 I0.0012 J0.0049
X1.3321 Y12.5351 Z-0.1187 I-0.0012 J-0.0049
X1.3345 Y12.5449 Z-0.1192 I0.0012 J0.0049
X1.3321 Y12.5351 Z-0.1197 I-0.0012 J-0.0049
X1.3345 Y12.5449 Z-0.1203 I0.0012 J0.0049
X1.3321 Y12.5351 Z-0.1208 I-0.0012 J-0.0049
X1.3345 Y12.5449 Z-0.1214 I0.0012 J0.0049
X1.3321 Y12.5351 Z-0.1219 I-0.0012 J-0.0049
X1.3345 Y12.5449 Z-0.1225 I0.0012 J0.0049
X1.3321 Y12.5351 Z-0.123 I-0.0012 J-0.0049
X1.3345 Y12.5449 Z-0.1236 I0.0012 J0.0049
X1.3321 Y12.5351 Z-0.1241 I-0.0012 J-0.0049
X1.3345 Y12.5449 Z-0.1247 I0.0012 J0.0049
X1.3283 Y12.54 Z-0.125 I-0.0012 J-0.0049
X1.3638 I0.0178 J0. F40.
X1.2162 I-0.0738 J0.
X1.3638 I0.0738 J0.
G1 X1.3635 Y12.5413
X1.3628 Y12.5424
X1.3616 Y12.5431
X1.3603 Y12.5433
X1.3441 Y12.5424
X1.3326 Y12.5417
X1.3314 Y12.5413
X1.3303 Y12.5405
X1.3297 Y12.5393
X1.3296 Y12.538
X1.33 Y12.5367
X1.3309 Y12.5357
X1.3321 Y12.5351
G3 X1.3345 Y12.5449 Z-0.1255 I0.0012 J0.0049 F20.
X1.3321 Y12.5351 Z-0.1261 I-0.0012 J-0.0049
X1.3345 Y12.5449 Z-0.1266 I0.0012 J0.0049
X1.3321 Y12.5351 Z-0.1272 I-0.0012 J-0.0049
X1.3345 Y12.5449 Z-0.1277 I0.0012 J0.0049
X1.3321 Y12.5351 Z-0.1283 I-0.0012 J-0.0049
X1.3345 Y12.5449 Z-0.1288 I0.0012 J0.0049
X1.3321 Y12.5351 Z-0.1294 I-0.0012 J-0.0049
X1.3345 Y12.5449 Z-0.1299 I0.0012 J0.0049
X1.3321 Y12.5351 Z-0.1305 I-0.0012 J-0.0049
X1.3345 Y12.5449 Z-0.131 I0.0012 J0.0049
X1.3321 Y12.5351 Z-0.1316 I-0.0012 J-0.0049
X1.3345 Y12.5449 Z-0.1321 I0.0012 J0.0049
X1.3321 Y12.5351 Z-0.1327 I-0.0012 J-0.0049
X1.3345 Y12.5449 Z-0.1332 I0.0012 J0.0049
X1.3321 Y12.5351 Z-0.1338 I-0.0012 J-0.0049
X1.3345 Y12.5449 Z-0.1343 I0.0012 J0.0049
X1.3321 Y12.5351 Z-0.1349 I-0.0012 J-0.0049
X1.3345 Y12.5449 Z-0.1354 I0.0012 J0.0049
X1.3321 Y12.5351 Z-0.136 I-0.0012 J-0.0049
X1.3345 Y12.5449 Z-0.1365 I0.0012 J0.0049
X1.3321 Y12.5351 Z-0.1371 I-0.0012 J-0.0049
X1.3345 Y12.5449 Z-0.1376 I0.0012 J0.0049
X1.3321 Y12.5351 Z-0.1382 I-0.0012 J-0.0049
X1.3345 Y12.5449 Z-0.1387 I0.0012 J0.0049
X1.3321 Y12.5351 Z-0.1393 I-0.0012 J-0.0049
X1.3345 Y12.5449 Z-0.1398 I0.0012 J0.0049
X1.3321 Y12.5351 Z-0.1404 I-0.0012 J-0.0049
X1.3345 Y12.5449 Z-0.1409 I0.0012 J0.0049
X1.3321 Y12.5351 Z-0.1415 I-0.0012 J-0.0049
X1.3345 Y12.5449 Z-0.142 I0.0012 J0.0049
X1.3321 Y12.5351 Z-0.1426 I-0.0012 J-0.0049
X1.3345 Y12.5449 Z-0.1431 I0.0012 J0.0049
X1.3321 Y12.5351 Z-0.1437 I-0.0012 J-0.0049
X1.3345 Y12.5449 Z-0.1442 I0.0012 J0.0049
X1.3321 Y12.5351 Z-0.1447 I-0.0012 J-0.0049
X1.3345 Y12.5449 Z-0.1453 I0.0012 J0.0049
X1.3321 Y12.5351 Z-0.1458 I-0.0012 J-0.0049
X1.3345 Y12.5449 Z-0.1464 I0.0012 J0.0049
X1.3321 Y12.5351 Z-0.1469 I-0.0012 J-0.0049
X1.3345 Y12.5449 Z-0.1475 I0.0012 J0.0049
X1.3321 Y12.5351 Z-0.148 I-0.0012 J-0.0049
X1.3345 Y12.5449 Z-0.1486 I0.0012 J0.0049
X1.3321 Y12.5351 Z-0.1491 I-0.0012 J-0.0049
X1.3345 Y12.5449 Z-0.1497 I0.0012 J0.0049
X1.3283 Y12.54 Z-0.15 I-0.0012 J-0.0049
X1.3638 I0.0178 J0. F40.
X1.2162 I-0.0738 J0.
X1.3638 I0.0738 J0.
G1 X1.3635 Y12.5413
X1.3628 Y12.5424
X1.3616 Y12.5431
X1.3603 Y12.5433
X1.3441 Y12.5424
X1.3326 Y12.5417
X1.3314 Y12.5413
X1.3303 Y12.5405
X1.3297 Y12.5393
X1.3296 Y12.538
X1.33 Y12.5367
X1.3309 Y12.5357
X1.3321 Y12.5351
G3 X1.3345 Y12.5449 Z-0.1505 I0.0012 J0.0049 F20.
X1.3321 Y12.5351 Z-0.1511 I-0.0012 J-0.0049
X1.3345 Y12.5449 Z-0.1516 I0.0012 J0.0049
X1.3321 Y12.5351 Z-0.1522 I-0.0012 J-0.0049
X1.3345 Y12.5449 Z-0.1527 I0.0012 J0.0049
X1.3321 Y12.5351 Z-0.1533 I-0.0012 J-0.0049
X1.3345 Y12.5449 Z-0.1538 I0.0012 J0.0049
X1.3321 Y12.5351 Z-0.1544 I-0.0012 J-0.0049
X1.3345 Y12.5449 Z-0.1549 I0.0012 J0.0049
X1.3321 Y12.5351 Z-0.1555 I-0.0012 J-0.0049
X1.3345 Y12.5449 Z-0.156 I0.0012 J0.0049
X1.3321 Y12.5351 Z-0.1566 I-0.0012 J-0.0049
X1.3345 Y12.5449 Z-0.1571 I0.0012 J0.0049
X1.3321 Y12.5351 Z-0.1577 I-0.0012 J-0.0049
X1.3345 Y12.5449 Z-0.1582 I0.0012 J0.0049
X1.3321 Y12.5351 Z-0.1588 I-0.0012 J-0.0049
X1.3345 Y12.5449 Z-0.1593 I0.0012 J0.0049
X1.3321 Y12.5351 Z-0.1599 I-0.0012 J-0.0049
X1.3345 Y12.5449 Z-0.1604 I0.0012 J0.0049
X1.3321 Y12.5351 Z-0.161 I-0.0012 J-0.0049
X1.3345 Y12.5449 Z-0.1615 I0.0012 J0.0049
X1.3321 Y12.5351 Z-0.1621 I-0.0012 J-0.0049
X1.3345 Y12.5449 Z-0.1626 I0.0012 J0.0049
X1.3321 Y12.5351 Z-0.1632 I-0.0012 J-0.0049
X1.3345 Y12.5449 Z-0.1637 I0.0012 J0.0049
X1.3321 Y12.5351 Z-0.1643 I-0.0012 J-0.0049
X1.3345 Y12.5449 Z-0.1648 I0.0012 J0.0049
X1.3321 Y12.5351 Z-0.1654 I-0.0012 J-0.0049
X1.3345 Y12.5449 Z-0.1659 I0.0012 J0.0049
X1.3321 Y12.5351 Z-0.1665 I-0.0012 J-0.0049
X1.3345 Y12.5449 Z-0.167 I0.0012 J0.0049
X1.3321 Y12.5351 Z-0.1676 I-0.0012 J-0.0049
X1.3345 Y12.5449 Z-0.1681 I0.0012 J0.0049
X1.3321 Y12.5351 Z-0.1687 I-0.0012 J-0.0049
X1.3345 Y12.5449 Z-0.1692 I0.0012 J0.0049
X1.3321 Y12.5351 Z-0.1697 I-0.0012 J-0.0049
X1.3345 Y12.5449 Z-0.1703 I0.0012 J0.0049
X1.3321 Y12.5351 Z-0.1708 I-0.0012 J-0.0049
X1.3345 Y12.5449 Z-0.1714 I0.0012 J0.0049
X1.3321 Y12.5351 Z-0.1719 I-0.0012 J-0.0049
X1.3345 Y12.5449 Z-0.1725 I0.0012 J0.0049
X1.3321 Y12.5351 Z-0.173 I-0.0012 J-0.0049
