(X8 RSL BRACKET RUN 2.0)
(T3  D=0.118 CR=0. - ZMIN=-0.35 - FLAT END MILL)
G90 G94 G91.1 G40 G49 G17
G20

(2D POCKET2)
M5
T3 M6
S15000 M3
G54
M8
G0 X2.4718 Y1.0836
G43 Z0.6 H3
Z0.2
G1 Z0.1118 F40.
X2.4705 Y1.0828 Z0.106 F20.
X2.4671 Y1.0805 Z0.1017
X2.4626 Y1.0769 Z0.1
G3 X2.5374 Y0.9933 Z0.0939 I0.0374 J-0.0418
X2.4626 Y1.0769 Z0.0877 I-0.0374 J0.0418
X2.5374 Y0.9933 Z0.0816 I0.0374 J-0.0418
X2.4626 Y1.0769 Z0.0754 I-0.0374 J0.0418
X2.5374 Y0.9933 Z0.0693 I0.0374 J-0.0418
X2.4626 Y1.0769 Z0.0631 I-0.0374 J0.0418
X2.5374 Y0.9933 Z0.057 I0.0374 J-0.0418
X2.4626 Y1.0769 Z0.0508 I-0.0374 J0.0418
X2.5374 Y0.9933 Z0.0447 I0.0374 J-0.0418
X2.4626 Y1.0769 Z0.0385 I-0.0374 J0.0418
X2.5374 Y0.9933 Z0.0324 I0.0374 J-0.0418
X2.4626 Y1.0769 Z0.0262 I-0.0374 J0.0418
X2.5374 Y0.9933 Z0.0201 I0.0374 J-0.0418
X2.4626 Y1.0769 Z0.0139 I-0.0374 J0.0418
X2.5374 Y0.9933 Z0.0078 I0.0374 J-0.0418
X2.4626 Y1.0769 Z0.0016 I-0.0374 J0.0418
X2.5374 Y0.9933 Z-0.0045 I0.0374 J-0.0418
X2.4626 Y1.0769 Z-0.0107 I-0.0374 J0.0418
X2.5374 Y0.9933 Z-0.0168 I0.0374 J-0.0418
X2.4626 Y1.0769 Z-0.023 I-0.0374 J0.0418
X2.5374 Y0.9933 Z-0.0291 I0.0374 J-0.0418
X2.4626 Y1.0769 Z-0.0353 I-0.0374 J0.0418
X2.5 Y0.9791 Z-0.04 I0.0374 J-0.0418
X2.5209 Y1. I0. J0.0209 F40.
X2.5 Y1.0209 I-0.0209 J0.
X2.479 Y1. I0. J-0.0209
X2.5 Y0.9791 I0.021 J0.
G2 X2.5583 Y0.9496 I0. J-0.0725
G3 X2.6227 Y0.9601 I0.0295 J0.0218
X2.629 Y1. I-0.1227 J0.0399
X2.5 Y1.129 I-0.129 J0.
X2.3709 Y1. I0. J-0.1291
X2.6227 Y0.9601 I0.1291 J0.
G2 X2.6828 Y1.0144 I0.0772 J-0.0251
G3 X2.7211 Y1.0856 I-0.0113 J0.052
X2.5 Y1.2371 I-0.2211 J-0.0856
X2.2628 Y1. I0. J-0.2371
X2.7371 I0.2371 J0.
X2.7211 Y1.0856 I-0.2371 J0.
G2 X2.7362 Y1.1721 I0.0794 J0.0307
G3 X2.7305 Y1.2597 I-0.0472 J0.0409
X2.1527 Y1. I-0.2305 J-0.2597
X2.8472 I0.3472 J0.
X2.7305 Y1.2597 I-0.3472 J0.
X2.7202 Y1.26 I-0.0053 J-0.006
G1 X2.447 Y1.0421
X2.4457 Y1.0409
X2.4448 Y1.0394
X2.4442 Y1.0377
X2.444 Y1.036
G3 X2.556 Y1.0342 Z-0.0461 I0.056 J-0.0009 F20.
X2.444 Y1.036 Z-0.0523 I-0.056 J0.0009
X2.556 Y1.0342 Z-0.0584 I0.056 J-0.0009
X2.444 Y1.036 Z-0.0646 I-0.056 J0.0009
X2.556 Y1.0342 Z-0.0707 I0.056 J-0.0009
X2.444 Y1.036 Z-0.0769 I-0.056 J0.0009
X2.5 Y0.9791 Z-0.08 I0.056 J-0.0009
X2.5209 Y1. I0. J0.0209 F40.
X2.5 Y1.0209 I-0.0209 J0.
X2.479 Y1. I0. J-0.0209
X2.5 Y0.9791 I0.021 J0.
G2 X2.5583 Y0.9496 I0. J-0.0725
G3 X2.6227 Y0.9601 I0.0295 J0.0218
X2.629 Y1. I-0.1227 J0.0399
X2.5 Y1.129 I-0.129 J0.
X2.3709 Y1. I0. J-0.1291
X2.6227 Y0.9601 I0.1291 J0.
G2 X2.6828 Y1.0144 I0.0772 J-0.0251
G3 X2.7211 Y1.0856 I-0.0113 J0.052
X2.5 Y1.2371 I-0.2211 J-0.0856
X2.2628 Y1. I0. J-0.2371
X2.7371 I0.2371 J0.
X2.7211 Y1.0856 I-0.2371 J0.
G2 X2.7362 Y1.1721 I0.0794 J0.0307
G3 X2.7305 Y1.2597 I-0.0472 J0.0409
X2.1527 Y1. I-0.2305 J-0.2597
X2.8472 I0.3472 J0.
X2.7305 Y1.2597 I-0.3472 J0.
X2.7202 Y1.26 I-0.0053 J-0.006
G1 X2.447 Y1.0421
X2.4457 Y1.0409
X2.4448 Y1.0394
X2.4442 Y1.0377
X2.444 Y1.036
G3 X2.556 Y1.0342 Z-0.0861 I0.056 J-0.0009 F20.
X2.444 Y1.036 Z-0.0923 I-0.056 J0.0009
X2.556 Y1.0342 Z-0.0984 I0.056 J-0.0009
X2.444 Y1.036 Z-0.1046 I-0.056 J0.0009
X2.556 Y1.0342 Z-0.1107 I0.056 J-0.0009
X2.444 Y1.036 Z-0.1169 I-0.056 J0.0009
X2.5 Y0.9791 Z-0.12 I0.056 J-0.0009
X2.5209 Y1. I0. J0.0209 F40.
X2.5 Y1.0209 I-0.0209 J0.
X2.479 Y1. I0. J-0.0209
X2.5 Y0.9791 I0.021 J0.
G2 X2.5583 Y0.9496 I0. J-0.0725
G3 X2.6227 Y0.9601 I0.0295 J0.0218
X2.629 Y1. I-0.1227 J0.0399
X2.5 Y1.129 I-0.129 J0.
X2.3709 Y1. I0. J-0.1291
X2.6227 Y0.9601 I0.1291 J0.
G2 X2.6828 Y1.0144 I0.0772 J-0.0251
G3 X2.7211 Y1.0856 I-0.0113 J0.052
X2.5 Y1.2371 I-0.2211 J-0.0856
X2.2628 Y1. I0. J-0.2371
X2.7371 I0.2371 J0.
X2.7211 Y1.0856 I-0.2371 J0.
G2 X2.7362 Y1.1721 I0.0794 J0.0307
G3 X2.7305 Y1.2597 I-0.0472 J0.0409
X2.1527 Y1. I-0.2305 J-0.2597
X2.8472 I0.3472 J0.
X2.7305 Y1.2597 I-0.3472 J0.
X2.7202 Y1.26 I-0.0053 J-0.006
G1 X2.447 Y1.0421
X2.4457 Y1.0409
X2.4448 Y1.0394
X2.4442 Y1.0377
X2.444 Y1.036
G3 X2.556 Y1.0342 Z-0.1261 I0.056 J-0.0009 F20.
X2.444 Y1.036 Z-0.1323 I-0.056 J0.0009
X2.556 Y1.0342 Z-0.1384 I0.056 J-0.0009
X2.444 Y1.036 Z-0.1446 I-0.056 J0.0009
X2.556 Y1.0342 Z-0.1507 I0.056 J-0.0009
X2.444 Y1.036 Z-0.1569 I-0.056 J0.0009
X2.5 Y0.9791 Z-0.16 I0.056 J-0.0009
X2.5209 Y1. I0. J0.0209 F40.
X2.5 Y1.0209 I-0.0209 J0.
X2.479 Y1. I0. J-0.0209
X2.5 Y0.9791 I0.021 J0.
G2 X2.5583 Y0.9496 I0. J-0.0725
G3 X2.6227 Y0.9601 I0.0295 J0.0218
X2.629 Y1. I-0.1227 J0.0399
X2.5 Y1.129 I-0.129 J0.
X2.3709 Y1. I0. J-0.1291
X2.6227 Y0.9601 I0.1291 J0.
G2 X2.6828 Y1.0144 I0.0772 J-0.0251
G3 X2.7211 Y1.0856 I-0.0113 J0.052
X2.5 Y1.2371 I-0.2211 J-0.0856
X2.2628 Y1. I0. J-0.2371
X2.7371 I0.2371 J0.
X2.7211 Y1.0856 I-0.2371 J0.
G2 X2.7362 Y1.1721 I0.0794 J0.0307
G3 X2.7305 Y1.2597 I-0.0472 J0.0409
X2.1527 Y1. I-0.2305 J-0.2597
X2.8472 I0.3472 J0.
X2.7305 Y1.2597 I-0.3472 J0.
X2.7202 Y1.26 I-0.0053 J-0.006
G1 X2.447 Y1.0421
X2.4457 Y1.0409
X2.4448 Y1.0394
X2.4442 Y1.0377
X2.444 Y1.036
G3 X2.556 Y1.0342 Z-0.1661 I0.056 J-0.0009 F20.
X2.444 Y1.036 Z-0.1723 I-0.056 J0.0009
X2.556 Y1.0342 Z-0.1784 I0.056 J-0.0009
X2.444 Y1.036 Z-0.1846 I-0.056 J0.0009
X2.556 Y1.0342 Z-0.1907 I0.056 J-0.0009
X2.444 Y1.036 Z-0.1969 I-0.056 J0.0009
X2.5 Y0.9791 Z-0.2 I0.056 J-0.0009
X2.5209 Y1. I0. J0.0209 F40.
X2.5 Y1.0209 I-0.0209 J0.
X2.479 Y1. I0. J-0.0209
X2.5 Y0.9791 I0.021 J0.
G2 X2.5583 Y0.9496 I0. J-0.0725
G3 X2.6227 Y0.9601 I0.0295 J0.0218
X2.629 Y1. I-0.1227 J0.0399
X2.5 Y1.129 I-0.129 J0.
X2.3709 Y1. I0. J-0.1291
X2.6227 Y0.9601 I0.1291 J0.
G2 X2.6828 Y1.0144 I0.0772 J-0.0251
G3 X2.7211 Y1.0856 I-0.0113 J0.052
X2.5 Y1.2371 I-0.2211 J-0.0856
X2.2628 Y1. I0. J-0.2371
X2.7371 I0.2371 J0.
X2.7211 Y1.0856 I-0.2371 J0.
G2 X2.7362 Y1.1721 I0.0794 J0.0307
G3 X2.7305 Y1.2597 I-0.0472 J0.0409
X2.1527 Y1. I-0.2305 J-0.2597
X2.8472 I0.3472 J0.
X2.7305 Y1.2597 I-0.3472 J0.
X2.7202 Y1.26 I-0.0053 J-0.006
G1 X2.447 Y1.0421
X2.4457 Y1.0409
X2.4448 Y1.0394
X2.4442 Y1.0377
X2.444 Y1.036
G3 X2.556 Y1.0342 Z-0.2061 I0.056 J-0.0009 F20.
X2.444 Y1.036 Z-0.2123 I-0.056 J0.0009
X2.556 Y1.0342 Z-0.2184 I0.056 J-0.0009
X2.444 Y1.036 Z-0.2246 I-0.056 J0.0009
X2.556 Y1.0342 Z-0.2307 I0.056 J-0.0009
X2.444 Y1.036 Z-0.2369 I-0.056 J0.0009
X2.5 Y0.9791 Z-0.24 I0.056 J-0.0009
X2.5209 Y1. I0. J0.0209 F40.
X2.5 Y1.0209 I-0.0209 J0.
X2.479 Y1. I0. J-0.0209
X2.5 Y0.9791 I0.021 J0.
G2 X2.5583 Y0.9496 I0. J-0.0725
G3 X2.6227 Y0.9601 I0.0295 J0.0218
X2.629 Y1. I-0.1227 J0.0399
X2.5 Y1.129 I-0.129 J0.
X2.3709 Y1. I0. J-0.1291
X2.6227 Y0.9601 I0.1291 J0.
G2 X2.6828 Y1.0144 I0.0772 J-0.0251
G3 X2.7211 Y1.0856 I-0.0113 J0.052
X2.5 Y1.2371 I-0.2211 J-0.0856
X2.2628 Y1. I0. J-0.2371
X2.7371 I0.2371 J0.
X2.7211 Y1.0856 I-0.2371 J0.
G2 X2.7362 Y1.1721 I0.0794 J0.0307
G3 X2.7305 Y1.2597 I-0.0472 J0.0409
X2.1527 Y1. I-0.2305 J-0.2597
X2.8472 I0.3472 J0.
X2.7305 Y1.2597 I-0.3472 J0.
X2.7202 Y1.26 I-0.0053 J-0.006
G1 X2.447 Y1.0421
X2.4457 Y1.0409
X2.4448 Y1.0394
X2.4442 Y1.0377
X2.444 Y1.036
G3 X2.556 Y1.0342 Z-0.2461 I0.056 J-0.0009 F20.
X2.444 Y1.036 Z-0.2523 I-0.056 J0.0009
X2.556 Y1.0342 Z-0.2584 I0.056 J-0.0009
X2.444 Y1.036 Z-0.2646 I-0.056 J0.0009
X2.556 Y1.0342 Z-0.2707 I0.056 J-0.0009
X2.444 Y1.036 Z-0.2769 I-0.056 J0.0009
X2.5 Y0.9791 Z-0.28 I0.056 J-0.0009
X2.5209 Y1. I0. J0.0209 F40.
X2.5 Y1.0209 I-0.0209 J0.
X2.479 Y1. I0. J-0.0209
X2.5 Y0.9791 I0.021 J0.
G2 X2.5583 Y0.9496 I0. J-0.0725
G3 X2.6227 Y0.9601 I0.0295 J0.0218
X2.629 Y1. I-0.1227 J0.0399
X2.5 Y1.129 I-0.129 J0.
X2.3709 Y1. I0. J-0.1291
X2.6227 Y0.9601 I0.1291 J0.
G2 X2.6828 Y1.0144 I0.0772 J-0.0251
G3 X2.7211 Y1.0856 I-0.0113 J0.052
X2.5 Y1.2371 I-0.2211 J-0.0856
X2.2628 Y1. I0. J-0.2371
X2.7371 I0.2371 J0.
X2.7211 Y1.0856 I-0.2371 J0.
G2 X2.7362 Y1.1721 I0.0794 J0.0307
G3 X2.7305 Y1.2597 I-0.0472 J0.0409
X2.1527 Y1. I-0.2305 J-0.2597
X2.8472 I0.3472 J0.
X2.7305 Y1.2597 I-0.3472 J0.
X2.7202 Y1.26 I-0.0053 J-0.006
G1 X2.447 Y1.0421
X2.4457 Y1.0409
X2.4448 Y1.0394
X2.4442 Y1.0377
X2.444 Y1.036
G3 X2.556 Y1.0342 Z-0.2861 I0.056 J-0.0009 F20.
X2.444 Y1.036 Z-0.2923 I-0.056 J0.0009
X2.556 Y1.0342 Z-0.2984 I0.056 J-0.0009
X2.444 Y1.036 Z-0.3046 I-0.056 J0.0009
X2.556 Y1.0342 Z-0.3107 I0.056 J-0.0009
X2.444 Y1.036 Z-0.3169 I-0.056 J0.0009
X2.5 Y0.9791 Z-0.32 I0.056 J-0.0009
X2.5209 Y1. I0. J0.0209 F40.
X2.5 Y1.0209 I-0.0209 J0.
X2.479 Y1. I0. J-0.0209
X2.5 Y0.9791 I0.021 J0.
G2 X2.5583 Y0.9496 I0. J-0.0725
G3 X2.6227 Y0.9601 I0.0295 J0.0218
X2.629 Y1. I-0.1227 J0.0399
X2.5 Y1.129 I-0.129 J0.
X2.3709 Y1. I0. J-0.1291
X2.6227 Y0.9601 I0.1291 J0.
G2 X2.6828 Y1.0144 I0.0772 J-0.0251
G3 X2.7211 Y1.0856 I-0.0113 J0.052
X2.5 Y1.2371 I-0.2211 J-0.0856
X2.2628 Y1. I0. J-0.2371
X2.7371 I0.2371 J0.
X2.7211 Y1.0856 I-0.2371 J0.
G2 X2.7362 Y1.1721 I0.0794 J0.0307
G3 X2.7305 Y1.2597 I-0.0472 J0.0409
X2.1527 Y1. I-0.2305 J-0.2597
X2.8472 I0.3472 J0.
X2.7305 Y1.2597 I-0.3472 J0.
X2.7205 Y1.2603 I-0.0053 J-0.006
G1 X2.4792 Y1.0871
G3 X2.5208 Y0.9831 Z-0.3261 I0.0208 J-0.052 F20.
X2.4792 Y1.0871 Z-0.3323 I-0.0208 J0.052
X2.5208 Y0.9831 Z-0.3384 I0.0208 J-0.052
X2.4792 Y1.0871 Z-0.3446 I-0.0208 J0.052
X2.5 Y0.9791 Z-0.35 I0.0208 J-0.052
X2.5209 Y1. I0. J0.0209 F40.
X2.5 Y1.0209 I-0.0209 J0.
X2.479 Y1. I0. J-0.0209
X2.5 Y0.9791 I0.021 J0.
G2 X2.5583 Y0.9496 I0. J-0.0725
G3 X2.6227 Y0.9601 I0.0295 J0.0218
X2.629 Y1. I-0.1227 J0.0399
X2.5 Y1.129 I-0.129 J0.
X2.3709 Y1. I0. J-0.1291
X2.6227 Y0.9601 I0.1291 J0.
G2 X2.6828 Y1.0144 I0.0772 J-0.0251
G3 X2.7211 Y1.0856 I-0.0113 J0.052
X2.5 Y1.2371 I-0.2211 J-0.0856
X2.2628 Y1. I0. J-0.2371
X2.7371 I0.2371 J0.
X2.7211 Y1.0856 I-0.2371 J0.
G2 X2.7362 Y1.1721 I0.0794 J0.0307
G3 X2.7305 Y1.2597 I-0.0472 J0.0409
X2.1527 Y1. I-0.2305 J-0.2597
X2.8472 I0.3472 J0.
X2.7305 Y1.2597 I-0.3472 J0.
G1 X2.7286 Y1.2611 Z-0.3496
X2.7266 Y1.262 Z-0.3491
X2.7248 Y1.2625 Z-0.3478
X2.7229 Y1.2627 Z-0.3465
X2.7203 Y1.2625 Z-0.3427
X2.7194 Y1.2623 Z-0.3382
G0 Z0.6

M9
M30
