(X8 RSL BRACKET CONTOUR)
(T3  D=0.118 CR=0. - ZMIN=-0.1025 - FLAT END MILL)
G90 G94 G91.1 G40 G49 G17
G20

(2D CONTOUR1)
M5
T3 M6
S15000 M3
G54
M8
G0 X5.4694 Y1.348
G43 Z0.6 H3
Z0.2
G1 Z0.1118 F20.
G18 G3 X5.4576 Z0.1 I-0.0118 K0. F40.
G1 X5.4458
G17 G3 X5.434 Y1.3362 I0. J-0.0118
G1 Y0.25 Z0.0621 F20.
G2 X5.125 Y-0.059 Z0.0451 I-0.309 J0.
G1 X2.6875 Z-0.04
X0.25 F40.
G2 X-0.059 Y0.25 I0. J0.309
G1 Y1.75
G2 X0.25 Y2.059 I0.309 J0.
G1 X5.125
G2 X5.434 Y1.75 I0. J-0.309
G1 Y0.25
G2 X5.125 Y-0.059 I-0.309 J0.
G1 X2.6875
X1.542 Z-0.08 F20.
X0.25 F40.
G2 X-0.059 Y0.25 I0. J0.309
G1 Y1.75
G2 X0.25 Y2.059 I0.309 J0.
G1 X5.125
G2 X5.434 Y1.75 I0. J-0.309
G1 Y0.25
G2 X5.125 Y-0.059 I-0.309 J0.
G1 X2.6875
X1.542
X0.8977 Z-0.1025 F20.
X0.25 F40.
G2 X-0.059 Y0.25 I0. J0.309
G1 Y1.75
G2 X0.25 Y2.059 I0.309 J0.
G1 X5.125
G2 X5.434 Y1.75 I0. J-0.309
G1 Y0.25
G2 X5.125 Y-0.059 I-0.309 J0.
G1 X1.542
X0.8977
G3 X0.8859 Y-0.0708 I0. J-0.0118
G1 Y-0.0826
G19 G2 Y-0.0944 Z-0.0907 J0. K0.0118
G0 Z0.6
G17

M9
M30
