(SCSISSOR GUIDES HOLES )
(T1  D=6.35 CR=0. - ZMIN=-12.7 - FLAT END MILL)
G90 G94 G91.1 G40 G49 G17
G21
G0 Z15

(BORE1)
M5
T1 M6
S15000 M3
G54
M8
G0 X12.3 Y15.
G43 Z15. H1
Z2.
G1 Z0. F1600.
X13.451 Y14.365
G3 X14.086 Y15. I0. J0.635
X10.514 Z-0.087 I-1.786 J0.
X14.086 Z-0.173 I1.786 J0.
X10.514 Z-0.26 I-1.786 J0.
X14.086 Z-0.346 I1.786 J0.
X10.514 Z-0.433 I-1.786 J0.
X14.086 Z-0.52 I1.786 J0.
X10.514 Z-0.606 I-1.786 J0.
X14.086 Z-0.693 I1.786 J0.
X10.514 Z-0.779 I-1.786 J0.
X14.086 Z-0.866 I1.786 J0.
X10.514 Z-0.953 I-1.786 J0.
X14.086 Z-1.039 I1.786 J0.
X10.514 Z-1.126 I-1.786 J0.
X14.086 Z-1.212 I1.786 J0.
X10.514 Z-1.299 I-1.786 J0.
X14.086 Z-1.385 I1.786 J0.
X10.514 Z-1.472 I-1.786 J0.
X14.086 Z-1.559 I1.786 J0.
X10.514 Z-1.645 I-1.786 J0.
X14.086 Z-1.732 I1.786 J0.
X10.514 Z-1.818 I-1.786 J0.
X14.086 Z-1.905 I1.786 J0.
X10.514 Z-1.992 I-1.786 J0.
X14.086 Z-2.078 I1.786 J0.
X10.514 Z-2.165 I-1.786 J0.
X14.086 Z-2.251 I1.786 J0.
X10.514 Z-2.338 I-1.786 J0.
X14.086 Z-2.425 I1.786 J0.
X10.514 Z-2.511 I-1.786 J0.
X14.086 Z-2.598 I1.786 J0.
X10.514 Z-2.684 I-1.786 J0.
X14.086 Z-2.771 I1.786 J0.
X10.514 Z-2.858 I-1.786 J0.
X14.086 Z-2.944 I1.786 J0.
X10.514 Z-3.031 I-1.786 J0.
X14.086 Z-3.117 I1.786 J0.
X10.514 Z-3.204 I-1.786 J0.
X14.086 Z-3.291 I1.786 J0.
X10.514 Z-3.377 I-1.786 J0.
X14.086 Z-3.464 I1.786 J0.
X10.514 Z-3.55 I-1.786 J0.
X14.086 Z-3.637 I1.786 J0.
X10.514 Z-3.724 I-1.786 J0.
X14.086 Z-3.81 I1.786 J0.
X10.514 Z-3.897 I-1.786 J0.
X14.086 Z-3.983 I1.786 J0.
X10.514 Z-4.07 I-1.786 J0.
X14.086 Z-4.156 I1.786 J0.
X10.514 Z-4.243 I-1.786 J0.
X14.086 Z-4.33 I1.786 J0.
X10.514 Z-4.416 I-1.786 J0.
X14.086 Z-4.503 I1.786 J0.
X10.514 Z-4.589 I-1.786 J0.
X14.086 Z-4.676 I1.786 J0.
X10.514 Z-4.763 I-1.786 J0.
X14.086 Z-4.849 I1.786 J0.
X10.514 Z-4.936 I-1.786 J0.
X14.086 Z-5.022 I1.786 J0.
X10.514 Z-5.109 I-1.786 J0.
X14.086 Z-5.196 I1.786 J0.
X10.514 Z-5.282 I-1.786 J0.
X14.086 Z-5.369 I1.786 J0.
X10.514 Z-5.455 I-1.786 J0.
X14.086 Z-5.542 I1.786 J0.
X10.514 Z-5.629 I-1.786 J0.
X14.086 Z-5.715 I1.786 J0.
X10.514 Z-5.802 I-1.786 J0.
X14.086 Z-5.888 I1.786 J0.
X10.514 Z-5.975 I-1.786 J0.
X14.086 Z-6.062 I1.786 J0.
X10.514 Z-6.148 I-1.786 J0.
X14.086 Z-6.235 I1.786 J0.
X10.514 Z-6.321 I-1.786 J0.
X14.086 Z-6.408 I1.786 J0.
X10.514 Z-6.495 I-1.786 J0.
X14.086 Z-6.581 I1.786 J0.
X10.514 Z-6.668 I-1.786 J0.
X14.086 Z-6.754 I1.786 J0.
X10.514 Z-6.841 I-1.786 J0.
X14.086 Z-6.927 I1.786 J0.
X10.514 Z-7.014 I-1.786 J0.
X14.086 Z-7.101 I1.786 J0.
X10.514 Z-7.187 I-1.786 J0.
X14.086 Z-7.274 I1.786 J0.
X10.514 Z-7.36 I-1.786 J0.
X14.086 Z-7.447 I1.786 J0.
X10.514 Z-7.534 I-1.786 J0.
X14.086 Z-7.62 I1.786 J0.
X10.514 Z-7.707 I-1.786 J0.
X14.086 Z-7.793 I1.786 J0.
X10.514 Z-7.88 I-1.786 J0.
X14.086 Z-7.967 I1.786 J0.
X10.514 Z-8.053 I-1.786 J0.
X14.086 Z-8.14 I1.786 J0.
X10.514 Z-8.226 I-1.786 J0.
X14.086 Z-8.313 I1.786 J0.
X10.514 Z-8.4 I-1.786 J0.
X14.086 Z-8.486 I1.786 J0.
X10.514 Z-8.573 I-1.786 J0.
X14.086 Z-8.659 I1.786 J0.
X10.514 Z-8.746 I-1.786 J0.
X14.086 Z-8.833 I1.786 J0.
X10.514 Z-8.919 I-1.786 J0.
X14.086 Z-9.006 I1.786 J0.
X10.514 Z-9.092 I-1.786 J0.
X14.086 Z-9.179 I1.786 J0.
X10.514 Z-9.266 I-1.786 J0.
X14.086 Z-9.352 I1.786 J0.
X10.514 Z-9.439 I-1.786 J0.
X14.086 Z-9.525 I1.786 J0.
X10.514 Z-9.612 I-1.786 J0.
X14.086 Z-9.698 I1.786 J0.
X10.514 Z-9.785 I-1.786 J0.
X14.086 Z-9.872 I1.786 J0.
X10.514 Z-9.958 I-1.786 J0.
X14.086 Z-10.045 I1.786 J0.
X10.514 Z-10.131 I-1.786 J0.
X14.086 Z-10.218 I1.786 J0.
X10.514 Z-10.305 I-1.786 J0.
X14.086 Z-10.391 I1.786 J0.
X10.514 Z-10.478 I-1.786 J0.
X14.086 Z-10.564 I1.786 J0.
X10.514 Z-10.651 I-1.786 J0.
X14.086 Z-10.738 I1.786 J0.
X10.514 Z-10.824 I-1.786 J0.
X14.086 Z-10.911 I1.786 J0.
X10.514 Z-10.997 I-1.786 J0.
X14.086 Z-11.084 I1.786 J0.
X10.514 Z-11.171 I-1.786 J0.
X14.086 Z-11.257 I1.786 J0.
X10.514 Z-11.344 I-1.786 J0.
X14.086 Z-11.43 I1.786 J0.
X10.514 Z-11.517 I-1.786 J0.
X14.086 Z-11.604 I1.786 J0.
X10.514 Z-11.69 I-1.786 J0.
X14.086 Z-11.777 I1.786 J0.
X10.514 Z-11.863 I-1.786 J0.
X14.086 Z-11.95 I1.786 J0.
X10.514 Z-12.036 I-1.786 J0.
X14.086 Z-12.123 I1.786 J0.
X10.514 Z-12.21 I-1.786 J0.
X14.086 Z-12.296 I1.786 J0.
X10.514 Z-12.383 I-1.786 J0.
X14.086 Z-12.469 I1.786 J0.
X10.514 Z-12.556 I-1.786 J0.
X14.086 Z-12.643 I1.786 J0.
X11.428 Y16.559 Z-12.7 I-1.786 J0.
X13.172 Y13.441 I0.872 J-1.559
X11.428 Y16.559 I-0.872 J1.559
X11.184 Y15.695 I0.31 J-0.554
G1 X12.3 Y15.
G0 Z5.
Z2.
G1 Z0. F1600.
X16.626 Y14.365
G3 X17.261 Y15. I0. J0.635
X7.339 Z-0.142 I-4.961 J0.
X17.261 Z-0.284 I4.961 J0.
X7.339 Z-0.426 I-4.961 J0.
X17.261 Z-0.568 I4.961 J0.
X7.339 Z-0.71 I-4.961 J0.
X17.261 Z-0.852 I4.961 J0.
X7.339 Z-0.994 I-4.961 J0.
X17.261 Z-1.136 I4.961 J0.
X7.339 Z-1.278 I-4.961 J0.
X17.261 Z-1.42 I4.961 J0.
X7.339 Z-1.562 I-4.961 J0.
X17.261 Z-1.704 I4.961 J0.
X7.339 Z-1.846 I-4.961 J0.
X17.261 Z-1.988 I4.961 J0.
X7.339 Z-2.13 I-4.961 J0.
X17.261 Z-2.272 I4.961 J0.
X7.339 Z-2.414 I-4.961 J0.
X17.261 Z-2.556 I4.961 J0.
X7.339 Z-2.698 I-4.961 J0.
X17.261 Z-2.84 I4.961 J0.
X7.339 Z-2.982 I-4.961 J0.
X17.261 Z-3.124 I4.961 J0.
X7.339 Z-3.266 I-4.961 J0.
X17.261 Z-3.408 I4.961 J0.
X7.339 Z-3.55 I-4.961 J0.
X17.261 Z-3.692 I4.961 J0.
X7.339 Z-3.834 I-4.961 J0.
X17.261 Z-3.976 I4.961 J0.
X7.339 Z-4.118 I-4.961 J0.
X17.261 Z-4.26 I4.961 J0.
X7.339 Z-4.402 I-4.961 J0.
X17.261 Z-4.544 I4.961 J0.
X7.339 Z-4.686 I-4.961 J0.
X17.261 Z-4.828 I4.961 J0.
X7.339 Z-4.97 I-4.961 J0.
X17.261 Z-5.112 I4.961 J0.
X7.339 Z-5.254 I-4.961 J0.
X17.261 Z-5.397 I4.961 J0.
X7.339 Z-5.539 I-4.961 J0.
X17.261 Z-5.681 I4.961 J0.
X7.339 Z-5.823 I-4.961 J0.
X17.261 Z-5.965 I4.961 J0.
X7.339 Z-6.107 I-4.961 J0.
X17.261 Z-6.249 I4.961 J0.
X7.339 Z-6.391 I-4.961 J0.
X17.261 Z-6.533 I4.961 J0.
X7.339 Z-6.675 I-4.961 J0.
X17.261 Z-6.817 I4.961 J0.
X7.339 Z-6.959 I-4.961 J0.
X17.261 Z-7.101 I4.961 J0.
X7.339 Z-7.243 I-4.961 J0.
X17.261 Z-7.385 I4.961 J0.
X7.339 Z-7.527 I-4.961 J0.
X17.261 Z-7.669 I4.961 J0.
X7.339 Z-7.811 I-4.961 J0.
X17.261 Z-7.953 I4.961 J0.
X7.339 Z-8.095 I-4.961 J0.
X17.261 Z-8.237 I4.961 J0.
X7.339 Z-8.379 I-4.961 J0.
X17.261 Z-8.521 I4.961 J0.
X7.339 Z-8.663 I-4.961 J0.
X17.261 Z-8.805 I4.961 J0.
X7.339 Z-8.947 I-4.961 J0.
X17.261 Z-9.089 I4.961 J0.
X7.339 Z-9.231 I-4.961 J0.
X17.261 Z-9.373 I4.961 J0.
X7.339 Z-9.515 I-4.961 J0.
X17.261 Z-9.657 I4.961 J0.
X7.339 Z-9.799 I-4.961 J0.
X17.261 Z-9.941 I4.961 J0.
X7.339 Z-10.083 I-4.961 J0.
X17.261 Z-10.225 I4.961 J0.
X7.339 Z-10.367 I-4.961 J0.
X17.261 Z-10.509 I4.961 J0.
X7.339 Z-10.651 I-4.961 J0.
X17.261 Z-10.793 I4.961 J0.
X7.339 Z-10.935 I-4.961 J0.
X17.261 Z-11.077 I4.961 J0.
X7.339 Z-11.219 I-4.961 J0.
X17.261 Z-11.361 I4.961 J0.
X7.339 Z-11.503 I-4.961 J0.
X17.261 Z-11.645 I4.961 J0.
X7.339 Z-11.787 I-4.961 J0.
X17.261 Z-11.929 I4.961 J0.
X7.339 Z-12.071 I-4.961 J0.
X17.261 Z-12.213 I4.961 J0.
X7.339 Z-12.355 I-4.961 J0.
X17.261 Z-12.497 I4.961 J0.
X7.339 Z-12.639 I-4.961 J0.
X11.191 Y10.165 Z-12.7 I4.961 J0.
X13.409 Y19.835 I1.109 J4.835
X11.191 Y10.165 I-1.109 J-4.835
X11.952 Y10.642 I0.142 J0.619
G1 X12.3 Y15.
G0 Z5.
X37.7
Z2.
G1 Z0. F1600.
X38.851 Y14.365
G3 X39.486 Y15. I0. J0.635
X35.914 Z-0.087 I-1.786 J0.
X39.486 Z-0.173 I1.786 J0.
X35.914 Z-0.26 I-1.786 J0.
X39.486 Z-0.346 I1.786 J0.
X35.914 Z-0.433 I-1.786 J0.
X39.486 Z-0.52 I1.786 J0.
X35.914 Z-0.606 I-1.786 J0.
X39.486 Z-0.693 I1.786 J0.
X35.914 Z-0.779 I-1.786 J0.
X39.486 Z-0.866 I1.786 J0.
X35.914 Z-0.953 I-1.786 J0.
X39.486 Z-1.039 I1.786 J0.
X35.914 Z-1.126 I-1.786 J0.
X39.486 Z-1.212 I1.786 J0.
X35.914 Z-1.299 I-1.786 J0.
X39.486 Z-1.385 I1.786 J0.
X35.914 Z-1.472 I-1.786 J0.
X39.486 Z-1.559 I1.786 J0.
X35.914 Z-1.645 I-1.786 J0.
X39.486 Z-1.732 I1.786 J0.
X35.914 Z-1.818 I-1.786 J0.
X39.486 Z-1.905 I1.786 J0.
X35.914 Z-1.992 I-1.786 J0.
X39.486 Z-2.078 I1.786 J0.
X35.914 Z-2.165 I-1.786 J0.
X39.486 Z-2.251 I1.786 J0.
X35.914 Z-2.338 I-1.786 J0.
X39.486 Z-2.425 I1.786 J0.
X35.914 Z-2.511 I-1.786 J0.
X39.486 Z-2.598 I1.786 J0.
X35.914 Z-2.684 I-1.786 J0.
X39.486 Z-2.771 I1.786 J0.
X35.914 Z-2.858 I-1.786 J0.
X39.486 Z-2.944 I1.786 J0.
X35.914 Z-3.031 I-1.786 J0.
X39.486 Z-3.117 I1.786 J0.
X35.914 Z-3.204 I-1.786 J0.
X39.486 Z-3.291 I1.786 J0.
X35.914 Z-3.377 I-1.786 J0.
X39.486 Z-3.464 I1.786 J0.
X35.914 Z-3.55 I-1.786 J0.
X39.486 Z-3.637 I1.786 J0.
X35.914 Z-3.724 I-1.786 J0.
X39.486 Z-3.81 I1.786 J0.
X35.914 Z-3.897 I-1.786 J0.
X39.486 Z-3.983 I1.786 J0.
X35.914 Z-4.07 I-1.786 J0.
X39.486 Z-4.156 I1.786 J0.
X35.914 Z-4.243 I-1.786 J0.
X39.486 Z-4.33 I1.786 J0.
X35.914 Z-4.416 I-1.786 J0.
X39.486 Z-4.503 I1.786 J0.
X35.914 Z-4.589 I-1.786 J0.
X39.486 Z-4.676 I1.786 J0.
X35.914 Z-4.763 I-1.786 J0.
X39.486 Z-4.849 I1.786 J0.
X35.914 Z-4.936 I-1.786 J0.
X39.486 Z-5.022 I1.786 J0.
X35.914 Z-5.109 I-1.786 J0.
X39.486 Z-5.196 I1.786 J0.
X35.914 Z-5.282 I-1.786 J0.
X39.486 Z-5.369 I1.786 J0.
X35.914 Z-5.455 I-1.786 J0.
X39.486 Z-5.542 I1.786 J0.
X35.914 Z-5.629 I-1.786 J0.
X39.486 Z-5.715 I1.786 J0.
X35.914 Z-5.802 I-1.786 J0.
X39.486 Z-5.888 I1.786 J0.
X35.914 Z-5.975 I-1.786 J0.
X39.486 Z-6.062 I1.786 J0.
X35.914 Z-6.148 I-1.786 J0.
X39.486 Z-6.235 I1.786 J0.
X35.914 Z-6.321 I-1.786 J0.
X39.486 Z-6.408 I1.786 J0.
X35.914 Z-6.495 I-1.786 J0.
X39.486 Z-6.581 I1.786 J0.
X35.914 Z-6.668 I-1.786 J0.
X39.486 Z-6.754 I1.786 J0.
X35.914 Z-6.841 I-1.786 J0.
X39.486 Z-6.927 I1.786 J0.
X35.914 Z-7.014 I-1.786 J0.
X39.486 Z-7.101 I1.786 J0.
X35.914 Z-7.187 I-1.786 J0.
X39.486 Z-7.274 I1.786 J0.
X35.914 Z-7.36 I-1.786 J0.
X39.486 Z-7.447 I1.786 J0.
X35.914 Z-7.534 I-1.786 J0.
X39.486 Z-7.62 I1.786 J0.
X35.914 Z-7.707 I-1.786 J0.
X39.486 Z-7.793 I1.786 J0.
X35.914 Z-7.88 I-1.786 J0.
X39.486 Z-7.967 I1.786 J0.
X35.914 Z-8.053 I-1.786 J0.
X39.486 Z-8.14 I1.786 J0.
X35.914 Z-8.226 I-1.786 J0.
X39.486 Z-8.313 I1.786 J0.
X35.914 Z-8.4 I-1.786 J0.
X39.486 Z-8.486 I1.786 J0.
X35.914 Z-8.573 I-1.786 J0.
X39.486 Z-8.659 I1.786 J0.
X35.914 Z-8.746 I-1.786 J0.
X39.486 Z-8.833 I1.786 J0.
X35.914 Z-8.919 I-1.786 J0.
X39.486 Z-9.006 I1.786 J0.
X35.914 Z-9.092 I-1.786 J0.
X39.486 Z-9.179 I1.786 J0.
X35.914 Z-9.266 I-1.786 J0.
X39.486 Z-9.352 I1.786 J0.
X35.914 Z-9.439 I-1.786 J0.
X39.486 Z-9.525 I1.786 J0.
X35.914 Z-9.612 I-1.786 J0.
X39.486 Z-9.698 I1.786 J0.
X35.914 Z-9.785 I-1.786 J0.
X39.486 Z-9.872 I1.786 J0.
X35.914 Z-9.958 I-1.786 J0.
X39.486 Z-10.045 I1.786 J0.
X35.914 Z-10.131 I-1.786 J0.
X39.486 Z-10.218 I1.786 J0.
X35.914 Z-10.305 I-1.786 J0.
X39.486 Z-10.391 I1.786 J0.
X35.914 Z-10.478 I-1.786 J0.
X39.486 Z-10.564 I1.786 J0.
X35.914 Z-10.651 I-1.786 J0.
X39.486 Z-10.738 I1.786 J0.
X35.914 Z-10.824 I-1.786 J0.
X39.486 Z-10.911 I1.786 J0.
X35.914 Z-10.997 I-1.786 J0.
X39.486 Z-11.084 I1.786 J0.
X35.914 Z-11.171 I-1.786 J0.
X39.486 Z-11.257 I1.786 J0.
X35.914 Z-11.344 I-1.786 J0.
X39.486 Z-11.43 I1.786 J0.
X35.914 Z-11.517 I-1.786 J0.
X39.486 Z-11.604 I1.786 J0.
X35.914 Z-11.69 I-1.786 J0.
X39.486 Z-11.777 I1.786 J0.
X35.914 Z-11.863 I-1.786 J0.
X39.486 Z-11.95 I1.786 J0.
X35.914 Z-12.036 I-1.786 J0.
X39.486 Z-12.123 I1.786 J0.
X35.914 Z-12.21 I-1.786 J0.
X39.486 Z-12.296 I1.786 J0.
X35.914 Z-12.383 I-1.786 J0.
X39.486 Z-12.469 I1.786 J0.
X35.914 Z-12.556 I-1.786 J0.
X39.486 Z-12.643 I1.786 J0.
X36.828 Y16.559 Z-12.7 I-1.786 J0.
X38.572 Y13.441 I0.872 J-1.559
X36.828 Y16.559 I-0.872 J1.559
X36.584 Y15.695 I0.31 J-0.554
G1 X37.7 Y15.
G0 Z5.
Z2.
G1 Z0. F1600.
X42.026 Y14.365
G3 X42.661 Y15. I0. J0.635
X32.739 Z-0.142 I-4.961 J0.
X42.661 Z-0.284 I4.961 J0.
X32.739 Z-0.426 I-4.961 J0.
X42.661 Z-0.568 I4.961 J0.
X32.739 Z-0.71 I-4.961 J0.
X42.661 Z-0.852 I4.961 J0.
X32.739 Z-0.994 I-4.961 J0.
X42.661 Z-1.136 I4.961 J0.
X32.739 Z-1.278 I-4.961 J0.
X42.661 Z-1.42 I4.961 J0.
X32.739 Z-1.562 I-4.961 J0.
X42.661 Z-1.704 I4.961 J0.
X32.739 Z-1.846 I-4.961 J0.
X42.661 Z-1.988 I4.961 J0.
X32.739 Z-2.13 I-4.961 J0.
X42.661 Z-2.272 I4.961 J0.
X32.739 Z-2.414 I-4.961 J0.
X42.661 Z-2.556 I4.961 J0.
X32.739 Z-2.698 I-4.961 J0.
X42.661 Z-2.84 I4.961 J0.
X32.739 Z-2.982 I-4.961 J0.
X42.661 Z-3.124 I4.961 J0.
X32.739 Z-3.266 I-4.961 J0.
X42.661 Z-3.408 I4.961 J0.
X32.739 Z-3.55 I-4.961 J0.
X42.661 Z-3.692 I4.961 J0.
X32.739 Z-3.834 I-4.961 J0.
X42.661 Z-3.976 I4.961 J0.
X32.739 Z-4.118 I-4.961 J0.
X42.661 Z-4.26 I4.961 J0.
X32.739 Z-4.402 I-4.961 J0.
X42.661 Z-4.544 I4.961 J0.
X32.739 Z-4.686 I-4.961 J0.
X42.661 Z-4.828 I4.961 J0.
X32.739 Z-4.97 I-4.961 J0.
X42.661 Z-5.112 I4.961 J0.
X32.739 Z-5.254 I-4.961 J0.
X42.661 Z-5.397 I4.961 J0.
X32.739 Z-5.539 I-4.961 J0.
X42.661 Z-5.681 I4.961 J0.
X32.739 Z-5.823 I-4.961 J0.
X42.661 Z-5.965 I4.961 J0.
X32.739 Z-6.107 I-4.961 J0.
X42.661 Z-6.249 I4.961 J0.
X32.739 Z-6.391 I-4.961 J0.
X42.661 Z-6.533 I4.961 J0.
X32.739 Z-6.675 I-4.961 J0.
X42.661 Z-6.817 I4.961 J0.
X32.739 Z-6.959 I-4.961 J0.
X42.661 Z-7.101 I4.961 J0.
X32.739 Z-7.243 I-4.961 J0.
X42.661 Z-7.385 I4.961 J0.
X32.739 Z-7.527 I-4.961 J0.
X42.661 Z-7.669 I4.961 J0.
X32.739 Z-7.811 I-4.961 J0.
X42.661 Z-7.953 I4.961 J0.
X32.739 Z-8.095 I-4.961 J0.
X42.661 Z-8.237 I4.961 J0.
X32.739 Z-8.379 I-4.961 J0.
X42.661 Z-8.521 I4.961 J0.
X32.739 Z-8.663 I-4.961 J0.
X42.661 Z-8.805 I4.961 J0.
X32.739 Z-8.947 I-4.961 J0.
X42.661 Z-9.089 I4.961 J0.
X32.739 Z-9.231 I-4.961 J0.
X42.661 Z-9.373 I4.961 J0.
X32.739 Z-9.515 I-4.961 J0.
X42.661 Z-9.657 I4.961 J0.
X32.739 Z-9.799 I-4.961 J0.
X42.661 Z-9.941 I4.961 J0.
X32.739 Z-10.083 I-4.961 J0.
X42.661 Z-10.225 I4.961 J0.
X32.739 Z-10.367 I-4.961 J0.
X42.661 Z-10.509 I4.961 J0.
X32.739 Z-10.651 I-4.961 J0.
X42.661 Z-10.793 I4.961 J0.
X32.739 Z-10.935 I-4.961 J0.
X42.661 Z-11.077 I4.961 J0.
X32.739 Z-11.219 I-4.961 J0.
X42.661 Z-11.361 I4.961 J0.
X32.739 Z-11.503 I-4.961 J0.
X42.661 Z-11.645 I4.961 J0.
X32.739 Z-11.787 I-4.961 J0.
X42.661 Z-11.929 I4.961 J0.
X32.739 Z-12.071 I-4.961 J0.
X42.661 Z-12.213 I4.961 J0.
X32.739 Z-12.355 I-4.961 J0.
X42.661 Z-12.497 I4.961 J0.
X32.739 Z-12.639 I-4.961 J0.
X36.591 Y10.165 Z-12.7 I4.961 J0.
X38.809 Y19.835 I1.109 J4.835
X36.591 Y10.165 I-1.109 J-4.835
X37.352 Y10.642 I0.142 J0.619
G1 X37.7 Y15.
G0 Z15.
M5
G0 Z15
G0 X0 Y0

M9
M30
