(1001.1)
(T1  D=0.25 CR=0. - ZMIN=-0.8 - FLAT END MILL)
G90 G94 G91.1 G40 G49 G17
G20

(2D CONTOUR1 3)
G0 X0. Y0. Z0.6
M5
T1 M6
S15000 M3
G4 P5.
G54
M8
G0 X11.2126 Y12.6379
G43 Z0.6 H1
Z0.2
G1 Z0.1644 F13.3
Z0.125
X11.2124 Y12.6381 Z0.1211 F60.
X11.2118 Y12.6388 Z0.1173
X11.2108 Y12.64 Z0.1137
X11.2095 Y12.6415 Z0.1103
X11.2078 Y12.6434 Z0.1073
X11.2059 Y12.6457 Z0.1048
X11.2037 Y12.6482 Z0.1027
X11.2013 Y12.651 Z0.1012
X11.1988 Y12.6538 Z0.1003
X11.1962 Y12.6568 Z0.1
X11.1799 Y12.6757
G3 X11.1446 Y12.6782 I-0.0189 J-0.0164
X11.4343 Y11.9013 Z0.0812 I0.2897 J-0.3345 F30.
Y12.7863 Z0.057 I0. J0.4425
Y11.9013 Z0.0327 I0. J-0.4425
Y12.7863 Z0.0085 I0. J0.4425
Y11.9013 Z-0.0158 I0. J-0.4425
Y12.7863 Z-0.0401 I0. J0.4425
Y11.9013 Z-0.0643 I0. J-0.4425
Y12.7863 Z-0.0886 I0. J0.4425
Y11.9013 Z-0.1129 I0. J-0.4425
X11.8768 Y12.3438 Z-0.125 I0. J0.4425
X11.4343 Y12.7863 I-0.4425 J0. F60.
Y11.9013 I0. J-0.4425
X11.8768 Y12.3438 I0. J0.4425
X11.4343 Y12.7863 Z-0.1371 I-0.4425 J0. F30.
Y11.9013 Z-0.1614 I0. J-0.4425
Y12.7863 Z-0.1857 I0. J0.4425
Y11.9013 Z-0.2099 I0. J-0.4425
Y12.7863 Z-0.2342 I0. J0.4425
X11.0411 Y12.1409 Z-0.25 I0. J-0.4425
X11.4343 Y11.9013 I0.3933 J0.2028 F60.
Y12.7863 I0. J0.4425
X11.0411 Y12.1409 I0. J-0.4425
X11.4343 Y11.9013 Z-0.2585 I0.3933 J0.2028 F30.
Y12.7863 Z-0.2827 I0. J0.4425
Y11.9013 Z-0.307 I0. J-0.4425
Y12.7863 Z-0.3312 I0. J0.4425
Y11.9013 Z-0.3555 I0. J-0.4425
X11.6909 Y12.7043 Z-0.375 I0. J0.4425
X11.4343 Y12.7863 I-0.2566 J-0.3605 F60.
Y11.9013 I0. J-0.4425
X11.6909 Y12.7043 I0. J0.4425
X11.4343 Y12.7863 Z-0.3798 I-0.2566 J-0.3605 F30.
Y11.9013 Z-0.404 I0. J-0.4425
Y12.7863 Z-0.4283 I0. J0.4425
Y11.9013 Z-0.4526 I0. J-0.4425
Y12.7863 Z-0.4768 I0. J0.4425
X11.3715 Y11.9057 Z-0.5 I0. J-0.4425
X11.4343 Y11.9013 I0.0628 J0.438 F60.
Y12.7863 I0. J0.4425
X11.3715 Y11.9057 I0. J-0.4425
X11.4343 Y11.9013 Z-0.5011 I0.0628 J0.438 F30.
Y12.7863 Z-0.5254 I0. J0.4425
Y11.9013 Z-0.5496 I0. J-0.4425
Y12.7863 Z-0.5739 I0. J0.4425
Y11.9013 Z-0.5982 I0. J-0.4425
Y12.7863 Z-0.6224 I0. J0.4425
X11.2894 Y12.7619 Z-0.625 I0. J-0.4425
X11.4343 Y11.9013 I0.1449 J-0.4181 F60.
Y12.7863 I0. J0.4425
X11.2894 Y12.7619 I0. J-0.4425
X11.4343 Y11.9013 Z-0.6467 I0.1449 J-0.4181 F30.
Y12.7863 Z-0.671 I0. J0.4425
X11.2746 Y11.9311 Z-0.6924 I0. J-0.4425
X11.3093 Y11.9193 Z-0.675 I0.1597 J0.4127
X11.4343 Y11.9013 I0.125 J0.4245
X11.5593 Y11.9193 I0. J0.4425
X11.5949 Y11.9314 Z-0.6928 I-0.125 J0.4245 F13.3
X11.6059 Y11.9359 Z-0.6983 I-0.1606 J0.4123
X11.4343 Y12.7863 Z-0.7195 I-0.1716 J0.4079 F30.
X11.1812 Y11.9808 Z-0.739 I0. J-0.4425
X11.213 Y11.9606 Z-0.7232 I0.2531 J0.363
X11.2463 Y11.9432 Z-0.7065 I0.2214 J0.3832
X11.281 Y11.9287 Z-0.6891 I0.188 J0.4006
X11.3093 Y11.9193 Z-0.675 I0.1533 J0.4151
X11.4343 Y11.9013 I0.125 J0.4245
X11.5593 Y11.9193 I0. J0.4425
X11.5949 Y11.9314 Z-0.6928 I-0.125 J0.4245 F13.3
X11.6294 Y11.9466 Z-0.71 I-0.1606 J0.4123
X11.6624 Y11.9646 Z-0.7265 I-0.1951 J0.3972
X11.6938 Y11.9853 Z-0.7422 I-0.2281 J0.3792
X11.7071 Y11.9953 Z-0.7489 I-0.2595 J0.3584
X11.7547 Y12.0386 Z-0.75 I-0.2728 J0.3484 F30.
X11.4343 Y12.7863 I-0.3204 J0.3052 F60.
X11.1593 Y11.9971 I0. J-0.4425
X11.1898 Y11.975 Z-0.7348 I0.275 J0.3467
X11.222 Y11.9556 Z-0.7187 I0.2446 J0.3688
X11.2557 Y11.9389 Z-0.7018 I0.2124 J0.3882
X11.2908 Y11.9252 Z-0.6843 I0.1786 J0.4048
X11.3093 Y11.9193 Z-0.675 I0.1436 J0.4186
X11.4343 Y11.9013 I0.125 J0.4245
X11.5593 Y11.9193 I0. J0.4425
X11.5949 Y11.9314 Z-0.6928 I-0.125 J0.4245 F13.3
X11.6294 Y11.9466 Z-0.71 I-0.1606 J0.4123
X11.6624 Y11.9646 Z-0.7265 I-0.1951 J0.3972
X11.6938 Y11.9853 Z-0.7422 I-0.2281 J0.3792
X11.7093 Y11.9971 Z-0.75 I-0.2595 J0.3584
X11.7547 Y12.0386 I-0.275 J0.3467 F60.
X11.4343 Y12.7863 Z-0.768 I-0.3204 J0.3052 F30.
X11.1023 Y12.0513 Z-0.7857 I0. J-0.4425
G1 Z-0.7785
G3 X11.1284 Y12.0241 Z-0.7655 I0.332 J0.2925
X11.1566 Y11.9993 Z-0.7514 I0.306 J0.3196
X11.1869 Y11.9769 Z-0.7362 I0.2777 J0.3445
X11.2189 Y11.9572 Z-0.7202 I0.2475 J0.3668
X11.2525 Y11.9403 Z-0.7034 I0.2154 J0.3865
X11.2875 Y11.9263 Z-0.6859 I0.1818 J0.4034
X11.3093 Y11.9193 Z-0.675 I0.1469 J0.4174
X11.4343 Y11.9013 I0.125 J0.4245
X11.5593 Y11.9193 I0. J0.4425
X11.5949 Y11.9314 Z-0.6928 I-0.125 J0.4245 F13.3
X11.6294 Y11.9466 Z-0.71 I-0.1606 J0.4123
X11.6624 Y11.9646 Z-0.7265 I-0.1951 J0.3972
X11.6938 Y11.9853 Z-0.7422 I-0.2281 J0.3792
X11.7233 Y12.0087 Z-0.757 I-0.2595 J0.3584
X11.7507 Y12.0344 Z-0.7707 I-0.289 J0.3351
G1 X11.7547 Y12.0386 Z-0.7727
G3 X11.7664 Y12.0513 Z-0.7785 I-0.3204 J0.3052
G1 Z-0.7988
G3 X11.8067 Y12.1047 Z-0.8 I-0.332 J0.2925 F30.
X11.4343 Y12.7863 I-0.3724 J0.239 F60.
X11.1023 Y12.0513 I0. J-0.4425
G1 Z-0.7785
G3 X11.1284 Y12.0241 Z-0.7655 I0.332 J0.2925
X11.1566 Y11.9993 Z-0.7514 I0.306 J0.3196
X11.1869 Y11.9769 Z-0.7362 I0.2777 J0.3445
X11.2189 Y11.9572 Z-0.7202 I0.2475 J0.3668
X11.2525 Y11.9403 Z-0.7034 I0.2154 J0.3865
X11.2875 Y11.9263 Z-0.6859 I0.1818 J0.4034
X11.3093 Y11.9193 Z-0.675 I0.1469 J0.4174
X11.4343 Y11.9013 I0.125 J0.4245
X11.5593 Y11.9193 I0. J0.4425
X11.5949 Y11.9314 Z-0.6928 I-0.125 J0.4245 F13.3
X11.6294 Y11.9466 Z-0.71 I-0.1606 J0.4123
X11.6624 Y11.9646 Z-0.7265 I-0.1951 J0.3972
X11.6938 Y11.9853 Z-0.7422 I-0.2281 J0.3792
X11.7233 Y12.0087 Z-0.757 I-0.2595 J0.3584
X11.7507 Y12.0344 Z-0.7707 I-0.289 J0.3351
G1 X11.7547 Y12.0386 Z-0.7727
G3 X11.7664 Y12.0513 Z-0.7785 I-0.3204 J0.3052
G1 Z-0.8
G3 X11.8067 Y12.1047 I-0.332 J0.2925 F60.
X11.7992 Y12.1393 I-0.021 J0.0135
G1 X11.7781 Y12.1528
X11.7748 Y12.1549 Z-0.7997
X11.7716 Y12.157 Z-0.7988
X11.7686 Y12.1589 Z-0.7973
X11.7658 Y12.1607 Z-0.7952
X11.7633 Y12.1623 Z-0.7927
X11.7611 Y12.1637 Z-0.7897
X11.7594 Y12.1648 Z-0.7863
X11.7581 Y12.1656 Z-0.7827
X11.7574 Y12.1661 Z-0.7789
X11.7571 Y12.1663 Z-0.775
G0 Z0.2
X8.6097 Y9.9485
G1 Z0.1644 F13.3
Z0.125
X8.6098 Y9.9487 Z0.1211 F60.
X8.6103 Y9.9495 Z0.1173
X8.611 Y9.9508 Z0.1137
X8.612 Y9.9526 Z0.1103
X8.6133 Y9.9549 Z0.1073
X8.6147 Y9.9575 Z0.1048
X8.6164 Y9.9604 Z0.1027
X8.6181 Y9.9635 Z0.1012
X8.62 Y9.9669 Z0.1003
X8.6219 Y9.9703 Z0.1
X8.6341 Y9.9921
G3 X8.6246 Y10.0261 I-0.0218 J0.0122
X8.594 Y10.0341 Z0.0994 I-0.0306 J-0.0545 F30.
Y9.9091 Z0.096 I0. J-0.0625
Y10.0341 Z0.0926 I0. J0.0625
Y9.9091 Z0.0892 I0. J-0.0625
Y10.0341 Z0.0857 I0. J0.0625
Y9.9091 Z0.0823 I0. J-0.0625
Y10.0341 Z0.0789 I0. J0.0625
Y9.9091 Z0.0755 I0. J-0.0625
Y10.0341 Z0.072 I0. J0.0625
Y9.9091 Z0.0686 I0. J-0.0625
Y10.0341 Z0.0652 I0. J0.0625
Y9.9091 Z0.0618 I0. J-0.0625
Y10.0341 Z0.0583 I0. J0.0625
Y9.9091 Z0.0549 I0. J-0.0625
Y10.0341 Z0.0515 I0. J0.0625
Y9.9091 Z0.048 I0. J-0.0625
Y10.0341 Z0.0446 I0. J0.0625
Y9.9091 Z0.0412 I0. J-0.0625
Y10.0341 Z0.0378 I0. J0.0625
Y9.9091 Z0.0343 I0. J-0.0625
Y10.0341 Z0.0309 I0. J0.0625
Y9.9091 Z0.0275 I0. J-0.0625
Y10.0341 Z0.0241 I0. J0.0625
Y9.9091 Z0.0206 I0. J-0.0625
Y10.0341 Z0.0172 I0. J0.0625
Y9.9091 Z0.0138 I0. J-0.0625
Y10.0341 Z0.0104 I0. J0.0625
Y9.9091 Z0.0069 I0. J-0.0625
Y10.0341 Z0.0035 I0. J0.0625
Y9.9091 Z0.0001 I0. J-0.0625
Y10.0341 Z-0.0034 I0. J0.0625
Y9.9091 Z-0.0068 I0. J-0.0625
Y10.0341 Z-0.0102 I0. J0.0625
Y9.9091 Z-0.0136 I0. J-0.0625
Y10.0341 Z-0.0171 I0. J0.0625
Y9.9091 Z-0.0205 I0. J-0.0625
Y10.0341 Z-0.0239 I0. J0.0625
Y9.9091 Z-0.0273 I0. J-0.0625
Y10.0341 Z-0.0308 I0. J0.0625
Y9.9091 Z-0.0342 I0. J-0.0625
Y10.0341 Z-0.0376 I0. J0.0625
Y9.9091 Z-0.041 I0. J-0.0625
Y10.0341 Z-0.0445 I0. J0.0625
Y9.9091 Z-0.0479 I0. J-0.0625
Y10.0341 Z-0.0513 I0. J0.0625
Y9.9091 Z-0.0548 I0. J-0.0625
Y10.0341 Z-0.0582 I0. J0.0625
Y9.9091 Z-0.0616 I0. J-0.0625
Y10.0341 Z-0.065 I0. J0.0625
Y9.9091 Z-0.0685 I0. J-0.0625
Y10.0341 Z-0.0719 I0. J0.0625
Y9.9091 Z-0.0753 I0. J-0.0625
Y10.0341 Z-0.0787 I0. J0.0625
Y9.9091 Z-0.0822 I0. J-0.0625
Y10.0341 Z-0.0856 I0. J0.0625
Y9.9091 Z-0.089 I0. J-0.0625
Y10.0341 Z-0.0924 I0. J0.0625
Y9.9091 Z-0.0959 I0. J-0.0625
Y10.0341 Z-0.0993 I0. J0.0625
Y9.9091 Z-0.1027 I0. J-0.0625
Y10.0341 Z-0.1062 I0. J0.0625
Y9.9091 Z-0.1096 I0. J-0.0625
Y10.0341 Z-0.113 I0. J0.0625
Y9.9091 Z-0.1164 I0. J-0.0625
Y10.0341 Z-0.1199 I0. J0.0625
Y9.9091 Z-0.1233 I0. J-0.0625
X8.6565 Y9.9716 Z-0.125 I0. J0.0625
X8.594 Y10.0341 I-0.0625 J0. F60.
Y9.9091 I0. J-0.0625
X8.6565 Y9.9716 I0. J0.0625
X8.594 Y10.0341 Z-0.1267 I-0.0625 J0. F30.
Y9.9091 Z-0.1301 I0. J-0.0625
Y10.0341 Z-0.1336 I0. J0.0625
Y9.9091 Z-0.137 I0. J-0.0625
Y10.0341 Z-0.1404 I0. J0.0625
Y9.9091 Z-0.1438 I0. J-0.0625
Y10.0341 Z-0.1473 I0. J0.0625
Y9.9091 Z-0.1507 I0. J-0.0625
Y10.0341 Z-0.1541 I0. J0.0625
Y9.9091 Z-0.1576 I0. J-0.0625
Y10.0341 Z-0.161 I0. J0.0625
Y9.9091 Z-0.1644 I0. J-0.0625
Y10.0341 Z-0.1678 I0. J0.0625
Y9.9091 Z-0.1713 I0. J-0.0625
Y10.0341 Z-0.1747 I0. J0.0625
Y9.9091 Z-0.1781 I0. J-0.0625
Y10.0341 Z-0.1815 I0. J0.0625
Y9.9091 Z-0.185 I0. J-0.0625
Y10.0341 Z-0.1884 I0. J0.0625
Y9.9091 Z-0.1918 I0. J-0.0625
Y10.0341 Z-0.1952 I0. J0.0625
Y9.9091 Z-0.1987 I0. J-0.0625
Y10.0341 Z-0.2021 I0. J0.0625
Y9.9091 Z-0.2055 I0. J-0.0625
Y10.0341 Z-0.209 I0. J0.0625
Y9.9091 Z-0.2124 I0. J-0.0625
Y10.0341 Z-0.2158 I0. J0.0625
Y9.9091 Z-0.2192 I0. J-0.0625
Y10.0341 Z-0.2227 I0. J0.0625
Y9.9091 Z-0.2261 I0. J-0.0625
Y10.0341 Z-0.2295 I0. J0.0625
Y9.9091 Z-0.2329 I0. J-0.0625
Y10.0341 Z-0.2364 I0. J0.0625
Y9.9091 Z-0.2398 I0. J-0.0625
Y10.0341 Z-0.2432 I0. J0.0625
Y9.9091 Z-0.2466 I0. J-0.0625
X8.5981 Y10.034 Z-0.25 I0. J0.0625
G1 X8.594 Y10.0341 F60.
G3 Y9.9091 I0. J-0.0625
X8.5981 Y10.034 I0. J0.0625
G1 X8.594 Y10.0341 Z-0.2501 F30.
G3 Y9.9091 Z-0.2535 I0. J-0.0625
Y10.0341 Z-0.2569 I0. J0.0625
Y9.9091 Z-0.2604 I0. J-0.0625
Y10.0341 Z-0.2638 I0. J0.0625
Y9.9091 Z-0.2672 I0. J-0.0625
Y10.0341 Z-0.2706 I0. J0.0625
Y9.9091 Z-0.2741 I0. J-0.0625
Y10.0341 Z-0.2775 I0. J0.0625
Y9.9091 Z-0.2809 I0. J-0.0625
Y10.0341 Z-0.2843 I0. J0.0625
Y9.9091 Z-0.2878 I0. J-0.0625
Y10.0341 Z-0.2912 I0. J0.0625
Y9.9091 Z-0.2946 I0. J-0.0625
Y10.0341 Z-0.298 I0. J0.0625
Y9.9091 Z-0.3015 I0. J-0.0625
Y10.0341 Z-0.3049 I0. J0.0625
Y9.9091 Z-0.3083 I0. J-0.0625
Y10.0341 Z-0.3117 I0. J0.0625
Y9.9091 Z-0.3152 I0. J-0.0625
Y10.0341 Z-0.3186 I0. J0.0625
Y9.9091 Z-0.322 I0. J-0.0625
Y10.0341 Z-0.3255 I0. J0.0625
Y9.9091 Z-0.3289 I0. J-0.0625
Y10.0341 Z-0.3323 I0. J0.0625
Y9.9091 Z-0.3357 I0. J-0.0625
Y10.0341 Z-0.3392 I0. J0.0625
Y9.9091 Z-0.3426 I0. J-0.0625
Y10.0341 Z-0.346 I0. J0.0625
Y9.9091 Z-0.3494 I0. J-0.0625
Y10.0341 Z-0.3529 I0. J0.0625
Y9.9091 Z-0.3563 I0. J-0.0625
Y10.0341 Z-0.3597 I0. J0.0625
Y9.9091 Z-0.3631 I0. J-0.0625
Y10.0341 Z-0.3666 I0. J0.0625
Y9.9091 Z-0.37 I0. J-0.0625
Y10.0341 Z-0.3734 I0. J0.0625
X8.5321 Y9.9797 Z-0.375 I0. J-0.0625
X8.594 Y9.9091 I0.062 J-0.0081 F60.
Y10.0341 I0. J0.0625
X8.5321 Y9.9797 I0. J-0.0625
X8.594 Y9.9091 Z-0.3769 I0.062 J-0.0081 F30.
Y10.0341 Z-0.3803 I0. J0.0625
Y9.9091 Z-0.3837 I0. J-0.0625
Y10.0341 Z-0.3871 I0. J0.0625
Y9.9091 Z-0.3906 I0. J-0.0625
Y10.0341 Z-0.394 I0. J0.0625
Y9.9091 Z-0.3974 I0. J-0.0625
Y10.0341 Z-0.4008 I0. J0.0625
Y9.9091 Z-0.4043 I0. J-0.0625
Y10.0341 Z-0.4077 I0. J0.0625
Y9.9091 Z-0.4111 I0. J-0.0625
Y10.0341 Z-0.4145 I0. J0.0625
Y9.9091 Z-0.418 I0. J-0.0625
Y10.0341 Z-0.4214 I0. J0.0625
Y9.9091 Z-0.4248 I0. J-0.0625
Y10.0341 Z-0.4283 I0. J0.0625
Y9.9091 Z-0.4317 I0. J-0.0625
Y10.0341 Z-0.4351 I0. J0.0625
Y9.9091 Z-0.4385 I0. J-0.0625
Y10.0341 Z-0.442 I0. J0.0625
Y9.9091 Z-0.4454 I0. J-0.0625
Y10.0341 Z-0.4488 I0. J0.0625
Y9.9091 Z-0.4522 I0. J-0.0625
Y10.0341 Z-0.4557 I0. J0.0625
Y9.9091 Z-0.4591 I0. J-0.0625
Y10.0341 Z-0.4625 I0. J0.0625
Y9.9091 Z-0.4659 I0. J-0.0625
Y10.0341 Z-0.4694 I0. J0.0625
Y9.9091 Z-0.4728 I0. J-0.0625
Y10.0341 Z-0.4762 I0. J0.0625
Y9.9091 Z-0.4797 I0. J-0.0625
Y10.0341 Z-0.4831 I0. J0.0625
Y9.9091 Z-0.4865 I0. J-0.0625
Y10.0341 Z-0.4899 I0. J0.0625
Y9.9091 Z-0.4934 I0. J-0.0625
Y10.0341 Z-0.4968 I0. J0.0625
X8.5819 Y9.9103 Z-0.5 I0. J-0.0625
X8.594 Y9.9091 I0.0122 J0.0613 F60.
Y10.0341 I0. J0.0625
X8.5819 Y9.9103 I0. J-0.0625
X8.594 Y9.9091 Z-0.5002 I0.0122 J0.0613 F30.
Y10.0341 Z-0.5036 I0. J0.0625
Y9.9091 Z-0.5071 I0. J-0.0625
Y10.0341 Z-0.5105 I0. J0.0625
Y9.9091 Z-0.5139 I0. J-0.0625
Y10.0341 Z-0.5173 I0. J0.0625
Y9.9091 Z-0.5208 I0. J-0.0625
Y10.0341 Z-0.5242 I0. J0.0625
Y9.9091 Z-0.5276 I0. J-0.0625
Y10.0341 Z-0.5311 I0. J0.0625
Y9.9091 Z-0.5345 I0. J-0.0625
Y10.0341 Z-0.5379 I0. J0.0625
Y9.9091 Z-0.5413 I0. J-0.0625
Y10.0341 Z-0.5448 I0. J0.0625
Y9.9091 Z-0.5482 I0. J-0.0625
Y10.0341 Z-0.5516 I0. J0.0625
Y9.9091 Z-0.555 I0. J-0.0625
Y10.0341 Z-0.5585 I0. J0.0625
Y9.9091 Z-0.5619 I0. J-0.0625
Y10.0341 Z-0.5653 I0. J0.0625
Y9.9091 Z-0.5687 I0. J-0.0625
Y10.0341 Z-0.5722 I0. J0.0625
Y9.9091 Z-0.5756 I0. J-0.0625
Y10.0341 Z-0.579 I0. J0.0625
Y9.9091 Z-0.5825 I0. J-0.0625
Y10.0341 Z-0.5859 I0. J0.0625
Y9.9091 Z-0.5893 I0. J-0.0625
Y10.0341 Z-0.5927 I0. J0.0625
Y9.9091 Z-0.5962 I0. J-0.0625
Y10.0341 Z-0.5996 I0. J0.0625
Y9.9091 Z-0.603 I0. J-0.0625
Y10.0341 Z-0.6064 I0. J0.0625
Y9.9091 Z-0.6099 I0. J-0.0625
Y10.0341 Z-0.6133 I0. J0.0625
Y9.9091 Z-0.6167 I0. J-0.0625
Y10.0341 Z-0.6201 I0. J0.0625
Y9.9091 Z-0.6236 I0. J-0.0625
X8.6544 Y9.9555 Z-0.625 I0. J0.0625
X8.594 Y10.0341 I-0.0604 J0.0161 F60.
Y9.9091 I0. J-0.0625
X8.6544 Y9.9555 I0. J0.0625
X8.594 Y10.0341 Z-0.627 I-0.0604 J0.0161 F30.
Y9.9091 Z-0.6304 I0. J-0.0625
Y10.0341 Z-0.6339 I0. J0.0625
Y9.9091 Z-0.6373 I0. J-0.0625
Y10.0341 Z-0.6407 I0. J0.0625
Y9.9091 Z-0.6441 I0. J-0.0625
Y10.0341 Z-0.6476 I0. J0.0625
Y9.9091 Z-0.651 I0. J-0.0625
Y10.0341 Z-0.6544 I0. J0.0625
Y9.9091 Z-0.6578 I0. J-0.0625
Y10.0341 Z-0.6613 I0. J0.0625
Y9.9091 Z-0.6647 I0. J-0.0625
Y10.0341 Z-0.6681 I0. J0.0625
Y9.9091 Z-0.6715 I0. J-0.0625
Y10.0341 Z-0.675 I0. J0.0625
Y9.9091 Z-0.6784 I0. J-0.0625
Y10.0341 Z-0.6818 I0. J0.0625
Y9.9091 Z-0.6853 I0. J-0.0625
Y10.0341 Z-0.6887 I0. J0.0625
Y9.9091 Z-0.6921 I0. J-0.0625
Y10.0341 Z-0.6955 I0. J0.0625
Y9.9091 Z-0.699 I0. J-0.0625
Y10.0341 Z-0.7024 I0. J0.0625
Y9.9091 Z-0.7058 I0. J-0.0625
Y10.0341 Z-0.7092 I0. J0.0625
Y9.9091 Z-0.7127 I0. J-0.0625
Y10.0341 Z-0.7161 I0. J0.0625
Y9.9091 Z-0.7195 I0. J-0.0625
Y10.0341 Z-0.7229 I0. J0.0625
Y9.9091 Z-0.7264 I0. J-0.0625
Y10.0341 Z-0.7298 I0. J0.0625
Y9.9091 Z-0.7332 I0. J-0.0625
Y10.0341 Z-0.7366 I0. J0.0625
Y9.9091 Z-0.7401 I0. J-0.0625
Y10.0341 Z-0.7435 I0. J0.0625
Y9.9091 Z-0.7469 I0. J-0.0625
X8.614 Y10.0308 Z-0.75 I0. J0.0625
X8.594 Y10.0341 I-0.02 J-0.0592 F60.
Y9.9091 I0. J-0.0625
X8.614 Y10.0308 I0. J0.0625
X8.594 Y10.0341 Z-0.7504 I-0.02 J-0.0592 F30.
Y9.9091 Z-0.7538 I0. J-0.0625
Y10.0341 Z-0.7572 I0. J0.0625
Y9.9091 Z-0.7606 I0. J-0.0625
Y10.0341 Z-0.7641 I0. J0.0625
Y9.9091 Z-0.7675 I0. J-0.0625
Y10.0341 Z-0.7709 I0. J0.0625
Y9.9091 Z-0.7743 I0. J-0.0625
Y10.0341 Z-0.7778 I0. J0.0625
Y9.9091 Z-0.7812 I0. J-0.0625
Y10.0341 Z-0.7846 I0. J0.0625
Y9.9091 Z-0.788 I0. J-0.0625
Y10.0341 Z-0.7915 I0. J0.0625
Y9.9091 Z-0.7949 I0. J-0.0625
Y10.0341 Z-0.7983 I0. J0.0625
X8.5316 Y9.974 Z-0.8 I0. J-0.0625
X8.594 Y9.9091 I0.0625 J-0.0024 F60.
Y10.0341 I0. J0.0625
X8.5316 Y9.974 I0. J-0.0625
X8.5556 Y9.948 I0.025 J-0.0009
G1 X8.5806 Y9.9471
X8.5845 Y9.9469 Z-0.7997
X8.5883 Y9.9468 Z-0.7988
X8.5919 Y9.9467 Z-0.7973
X8.5953 Y9.9465 Z-0.7952
X8.5983 Y9.9464 Z-0.7927
X8.6008 Y9.9463 Z-0.7897
X8.6029 Y9.9462 Z-0.7863
X8.6044 Z-0.7827
X8.6053 Y9.9461 Z-0.7789
X8.6056 Z-0.775
G0 Z0.2
X7.4866 Y8.7171
G1 Z0.1644 F13.3
Z0.125
X7.4867 Y8.7174 Z0.1211 F60.
X7.4872 Y8.7182 Z0.1173
X7.4879 Y8.7195 Z0.1137
X7.4889 Y8.7213 Z0.1103
X7.4902 Y8.7235 Z0.1073
X7.4916 Y8.7261 Z0.1048
X7.4933 Y8.729 Z0.1027
X7.495 Y8.7322 Z0.1012
X7.4969 Y8.7355 Z0.1003
X7.4988 Y8.7389 Z0.1
X7.511 Y8.7607
G3 X7.5015 Y8.7947 I-0.0218 J0.0122
X7.4709 Y8.8027 Z0.0994 I-0.0306 J-0.0545 F30.
Y8.6777 Z0.096 I0. J-0.0625
Y8.8027 Z0.0926 I0. J0.0625
Y8.6777 Z0.0892 I0. J-0.0625
Y8.8027 Z0.0857 I0. J0.0625
Y8.6777 Z0.0823 I0. J-0.0625
Y8.8027 Z0.0789 I0. J0.0625
Y8.6777 Z0.0755 I0. J-0.0625
Y8.8027 Z0.072 I0. J0.0625
Y8.6777 Z0.0686 I0. J-0.0625
Y8.8027 Z0.0652 I0. J0.0625
Y8.6777 Z0.0618 I0. J-0.0625
Y8.8027 Z0.0583 I0. J0.0625
Y8.6777 Z0.0549 I0. J-0.0625
Y8.8027 Z0.0515 I0. J0.0625
Y8.6777 Z0.048 I0. J-0.0625
Y8.8027 Z0.0446 I0. J0.0625
Y8.6777 Z0.0412 I0. J-0.0625
Y8.8027 Z0.0378 I0. J0.0625
Y8.6777 Z0.0343 I0. J-0.0625
Y8.8027 Z0.0309 I0. J0.0625
Y8.6777 Z0.0275 I0. J-0.0625
Y8.8027 Z0.0241 I0. J0.0625
Y8.6777 Z0.0206 I0. J-0.0625
Y8.8027 Z0.0172 I0. J0.0625
Y8.6777 Z0.0138 I0. J-0.0625
Y8.8027 Z0.0104 I0. J0.0625
Y8.6777 Z0.0069 I0. J-0.0625
Y8.8027 Z0.0035 I0. J0.0625
Y8.6777 Z0.0001 I0. J-0.0625
Y8.8027 Z-0.0034 I0. J0.0625
Y8.6777 Z-0.0068 I0. J-0.0625
Y8.8027 Z-0.0102 I0. J0.0625
Y8.6777 Z-0.0136 I0. J-0.0625
Y8.8027 Z-0.0171 I0. J0.0625
Y8.6777 Z-0.0205 I0. J-0.0625
Y8.8027 Z-0.0239 I0. J0.0625
Y8.6777 Z-0.0273 I0. J-0.0625
Y8.8027 Z-0.0308 I0. J0.0625
Y8.6777 Z-0.0342 I0. J-0.0625
Y8.8027 Z-0.0376 I0. J0.0625
Y8.6777 Z-0.041 I0. J-0.0625
Y8.8027 Z-0.0445 I0. J0.0625
Y8.6777 Z-0.0479 I0. J-0.0625
Y8.8027 Z-0.0513 I0. J0.0625
Y8.6777 Z-0.0548 I0. J-0.0625
Y8.8027 Z-0.0582 I0. J0.0625
Y8.6777 Z-0.0616 I0. J-0.0625
Y8.8027 Z-0.065 I0. J0.0625
Y8.6777 Z-0.0685 I0. J-0.0625
Y8.8027 Z-0.0719 I0. J0.0625
Y8.6777 Z-0.0753 I0. J-0.0625
Y8.8027 Z-0.0787 I0. J0.0625
Y8.6777 Z-0.0822 I0. J-0.0625
Y8.8027 Z-0.0856 I0. J0.0625
Y8.6777 Z-0.089 I0. J-0.0625
Y8.8027 Z-0.0924 I0. J0.0625
Y8.6777 Z-0.0959 I0. J-0.0625
Y8.8027 Z-0.0993 I0. J0.0625
Y8.6777 Z-0.1027 I0. J-0.0625
Y8.8027 Z-0.1062 I0. J0.0625
Y8.6777 Z-0.1096 I0. J-0.0625
Y8.8027 Z-0.113 I0. J0.0625
Y8.6777 Z-0.1164 I0. J-0.0625
Y8.8027 Z-0.1199 I0. J0.0625
Y8.6777 Z-0.1233 I0. J-0.0625
X7.5334 Y8.7402 Z-0.125 I0. J0.0625
X7.4709 Y8.8027 I-0.0625 J0. F60.
Y8.6777 I0. J-0.0625
X7.5334 Y8.7402 I0. J0.0625
X7.4709 Y8.8027 Z-0.1267 I-0.0625 J0. F30.
Y8.6777 Z-0.1301 I0. J-0.0625
Y8.8027 Z-0.1336 I0. J0.0625
Y8.6777 Z-0.137 I0. J-0.0625
Y8.8027 Z-0.1404 I0. J0.0625
Y8.6777 Z-0.1438 I0. J-0.0625
Y8.8027 Z-0.1473 I0. J0.0625
Y8.6777 Z-0.1507 I0. J-0.0625
Y8.8027 Z-0.1541 I0. J0.0625
Y8.6777 Z-0.1576 I0. J-0.0625
Y8.8027 Z-0.161 I0. J0.0625
Y8.6777 Z-0.1644 I0. J-0.0625
Y8.8027 Z-0.1678 I0. J0.0625
Y8.6777 Z-0.1713 I0. J-0.0625
Y8.8027 Z-0.1747 I0. J0.0625
Y8.6777 Z-0.1781 I0. J-0.0625
Y8.8027 Z-0.1815 I0. J0.0625
Y8.6777 Z-0.185 I0. J-0.0625
Y8.8027 Z-0.1884 I0. J0.0625
Y8.6777 Z-0.1918 I0. J-0.0625
Y8.8027 Z-0.1952 I0. J0.0625
Y8.6777 Z-0.1987 I0. J-0.0625
Y8.8027 Z-0.2021 I0. J0.0625
Y8.6777 Z-0.2055 I0. J-0.0625
Y8.8027 Z-0.209 I0. J0.0625
Y8.6777 Z-0.2124 I0. J-0.0625
Y8.8027 Z-0.2158 I0. J0.0625
Y8.6777 Z-0.2192 I0. J-0.0625
Y8.8027 Z-0.2227 I0. J0.0625
Y8.6777 Z-0.2261 I0. J-0.0625
Y8.8027 Z-0.2295 I0. J0.0625
Y8.6777 Z-0.2329 I0. J-0.0625
Y8.8027 Z-0.2364 I0. J0.0625
Y8.6777 Z-0.2398 I0. J-0.0625
Y8.8027 Z-0.2432 I0. J0.0625
Y8.6777 Z-0.2466 I0. J-0.0625
X7.475 Y8.8026 Z-0.25 I0. J0.0625
G1 X7.4709 Y8.8027 F60.
G3 Y8.6777 I0. J-0.0625
X7.475 Y8.8026 I0. J0.0625
G1 X7.4709 Y8.8027 Z-0.2501 F30.
G3 Y8.6777 Z-0.2535 I0. J-0.0625
Y8.8027 Z-0.2569 I0. J0.0625
Y8.6777 Z-0.2604 I0. J-0.0625
Y8.8027 Z-0.2638 I0. J0.0625
Y8.6777 Z-0.2672 I0. J-0.0625
Y8.8027 Z-0.2706 I0. J0.0625
Y8.6777 Z-0.2741 I0. J-0.0625
Y8.8027 Z-0.2775 I0. J0.0625
Y8.6777 Z-0.2809 I0. J-0.0625
Y8.8027 Z-0.2843 I0. J0.0625
Y8.6777 Z-0.2878 I0. J-0.0625
Y8.8027 Z-0.2912 I0. J0.0625
Y8.6777 Z-0.2946 I0. J-0.0625
Y8.8027 Z-0.298 I0. J0.0625
Y8.6777 Z-0.3015 I0. J-0.0625
Y8.8027 Z-0.3049 I0. J0.0625
Y8.6777 Z-0.3083 I0. J-0.0625
Y8.8027 Z-0.3117 I0. J0.0625
Y8.6777 Z-0.3152 I0. J-0.0625
Y8.8027 Z-0.3186 I0. J0.0625
Y8.6777 Z-0.322 I0. J-0.0625
Y8.8027 Z-0.3255 I0. J0.0625
Y8.6777 Z-0.3289 I0. J-0.0625
Y8.8027 Z-0.3323 I0. J0.0625
Y8.6777 Z-0.3357 I0. J-0.0625
Y8.8027 Z-0.3392 I0. J0.0625
Y8.6777 Z-0.3426 I0. J-0.0625
Y8.8027 Z-0.346 I0. J0.0625
Y8.6777 Z-0.3494 I0. J-0.0625
Y8.8027 Z-0.3529 I0. J0.0625
Y8.6777 Z-0.3563 I0. J-0.0625
Y8.8027 Z-0.3597 I0. J0.0625
Y8.6777 Z-0.3631 I0. J-0.0625
Y8.8027 Z-0.3666 I0. J0.0625
Y8.6777 Z-0.37 I0. J-0.0625
Y8.8027 Z-0.3734 I0. J0.0625
X7.409 Y8.7483 Z-0.375 I0. J-0.0625
X7.4709 Y8.6777 I0.062 J-0.0081 F60.
Y8.8027 I0. J0.0625
X7.409 Y8.7483 I0. J-0.0625
X7.4709 Y8.6777 Z-0.3769 I0.062 J-0.0081 F30.
Y8.8027 Z-0.3803 I0. J0.0625
Y8.6777 Z-0.3837 I0. J-0.0625
Y8.8027 Z-0.3871 I0. J0.0625
Y8.6777 Z-0.3906 I0. J-0.0625
Y8.8027 Z-0.394 I0. J0.0625
Y8.6777 Z-0.3974 I0. J-0.0625
Y8.8027 Z-0.4008 I0. J0.0625
Y8.6777 Z-0.4043 I0. J-0.0625
Y8.8027 Z-0.4077 I0. J0.0625
Y8.6777 Z-0.4111 I0. J-0.0625
Y8.8027 Z-0.4145 I0. J0.0625
Y8.6777 Z-0.418 I0. J-0.0625
Y8.8027 Z-0.4214 I0. J0.0625
Y8.6777 Z-0.4248 I0. J-0.0625
Y8.8027 Z-0.4283 I0. J0.0625
Y8.6777 Z-0.4317 I0. J-0.0625
Y8.8027 Z-0.4351 I0. J0.0625
Y8.6777 Z-0.4385 I0. J-0.0625
Y8.8027 Z-0.442 I0. J0.0625
Y8.6777 Z-0.4454 I0. J-0.0625
Y8.8027 Z-0.4488 I0. J0.0625
Y8.6777 Z-0.4522 I0. J-0.0625
Y8.8027 Z-0.4557 I0. J0.0625
Y8.6777 Z-0.4591 I0. J-0.0625
Y8.8027 Z-0.4625 I0. J0.0625
Y8.6777 Z-0.4659 I0. J-0.0625
Y8.8027 Z-0.4694 I0. J0.0625
Y8.6777 Z-0.4728 I0. J-0.0625
Y8.8027 Z-0.4762 I0. J0.0625
Y8.6777 Z-0.4797 I0. J-0.0625
Y8.8027 Z-0.4831 I0. J0.0625
Y8.6777 Z-0.4865 I0. J-0.0625
Y8.8027 Z-0.4899 I0. J0.0625
Y8.6777 Z-0.4934 I0. J-0.0625
Y8.8027 Z-0.4968 I0. J0.0625
X7.4588 Y8.6789 Z-0.5 I0. J-0.0625
X7.4709 Y8.6777 I0.0122 J0.0613 F60.
Y8.8027 I0. J0.0625
X7.4588 Y8.6789 I0. J-0.0625
X7.4709 Y8.6777 Z-0.5002 I0.0122 J0.0613 F30.
Y8.8027 Z-0.5036 I0. J0.0625
Y8.6777 Z-0.5071 I0. J-0.0625
Y8.8027 Z-0.5105 I0. J0.0625
Y8.6777 Z-0.5139 I0. J-0.0625
Y8.8027 Z-0.5173 I0. J0.0625
Y8.6777 Z-0.5208 I0. J-0.0625
Y8.8027 Z-0.5242 I0. J0.0625
Y8.6777 Z-0.5276 I0. J-0.0625
Y8.8027 Z-0.5311 I0. J0.0625
Y8.6777 Z-0.5345 I0. J-0.0625
Y8.8027 Z-0.5379 I0. J0.0625
Y8.6777 Z-0.5413 I0. J-0.0625
Y8.8027 Z-0.5448 I0. J0.0625
Y8.6777 Z-0.5482 I0. J-0.0625
Y8.8027 Z-0.5516 I0. J0.0625
Y8.6777 Z-0.555 I0. J-0.0625
Y8.8027 Z-0.5585 I0. J0.0625
Y8.6777 Z-0.5619 I0. J-0.0625
Y8.8027 Z-0.5653 I0. J0.0625
Y8.6777 Z-0.5687 I0. J-0.0625
Y8.8027 Z-0.5722 I0. J0.0625
Y8.6777 Z-0.5756 I0. J-0.0625
Y8.8027 Z-0.579 I0. J0.0625
Y8.6777 Z-0.5825 I0. J-0.0625
Y8.8027 Z-0.5859 I0. J0.0625
Y8.6777 Z-0.5893 I0. J-0.0625
Y8.8027 Z-0.5927 I0. J0.0625
Y8.6777 Z-0.5962 I0. J-0.0625
Y8.8027 Z-0.5996 I0. J0.0625
Y8.6777 Z-0.603 I0. J-0.0625
Y8.8027 Z-0.6064 I0. J0.0625
Y8.6777 Z-0.6099 I0. J-0.0625
Y8.8027 Z-0.6133 I0. J0.0625
Y8.6777 Z-0.6167 I0. J-0.0625
Y8.8027 Z-0.6201 I0. J0.0625
Y8.6777 Z-0.6236 I0. J-0.0625
X7.5313 Y8.7241 Z-0.625 I0. J0.0625
X7.4709 Y8.8027 I-0.0604 J0.0161 F60.
Y8.6777 I0. J-0.0625
X7.5313 Y8.7241 I0. J0.0625
X7.4709 Y8.8027 Z-0.627 I-0.0604 J0.0161 F30.
Y8.6777 Z-0.6304 I0. J-0.0625
Y8.8027 Z-0.6339 I0. J0.0625
Y8.6777 Z-0.6373 I0. J-0.0625
Y8.8027 Z-0.6407 I0. J0.0625
Y8.6777 Z-0.6441 I0. J-0.0625
Y8.8027 Z-0.6476 I0. J0.0625
Y8.6777 Z-0.651 I0. J-0.0625
Y8.8027 Z-0.6544 I0. J0.0625
Y8.6777 Z-0.6578 I0. J-0.0625
Y8.8027 Z-0.6613 I0. J0.0625
Y8.6777 Z-0.6647 I0. J-0.0625
Y8.8027 Z-0.6681 I0. J0.0625
Y8.6777 Z-0.6715 I0. J-0.0625
Y8.8027 Z-0.675 I0. J0.0625
Y8.6777 Z-0.6784 I0. J-0.0625
Y8.8027 Z-0.6818 I0. J0.0625
Y8.6777 Z-0.6853 I0. J-0.0625
Y8.8027 Z-0.6887 I0. J0.0625
Y8.6777 Z-0.6921 I0. J-0.0625
Y8.8027 Z-0.6955 I0. J0.0625
Y8.6777 Z-0.699 I0. J-0.0625
Y8.8027 Z-0.7024 I0. J0.0625
Y8.6777 Z-0.7058 I0. J-0.0625
Y8.8027 Z-0.7092 I0. J0.0625
Y8.6777 Z-0.7127 I0. J-0.0625
Y8.8027 Z-0.7161 I0. J0.0625
Y8.6777 Z-0.7195 I0. J-0.0625
Y8.8027 Z-0.7229 I0. J0.0625
Y8.6777 Z-0.7264 I0. J-0.0625
Y8.8027 Z-0.7298 I0. J0.0625
Y8.6777 Z-0.7332 I0. J-0.0625
Y8.8027 Z-0.7366 I0. J0.0625
Y8.6777 Z-0.7401 I0. J-0.0625
Y8.8027 Z-0.7435 I0. J0.0625
Y8.6777 Z-0.7469 I0. J-0.0625
X7.4909 Y8.7994 Z-0.75 I0. J0.0625
X7.4709 Y8.8027 I-0.02 J-0.0592 F60.
Y8.6777 I0. J-0.0625
X7.4909 Y8.7994 I0. J0.0625
X7.4709 Y8.8027 Z-0.7504 I-0.02 J-0.0592 F30.
Y8.6777 Z-0.7538 I0. J-0.0625
Y8.8027 Z-0.7572 I0. J0.0625
Y8.6777 Z-0.7606 I0. J-0.0625
Y8.8027 Z-0.7641 I0. J0.0625
Y8.6777 Z-0.7675 I0. J-0.0625
Y8.8027 Z-0.7709 I0. J0.0625
Y8.6777 Z-0.7743 I0. J-0.0625
Y8.8027 Z-0.7778 I0. J0.0625
Y8.6777 Z-0.7812 I0. J-0.0625
Y8.8027 Z-0.7846 I0. J0.0625
Y8.6777 Z-0.788 I0. J-0.0625
Y8.8027 Z-0.7915 I0. J0.0625
Y8.6777 Z-0.7949 I0. J-0.0625
Y8.8027 Z-0.7983 I0. J0.0625
X7.4085 Y8.7426 Z-0.8 I0. J-0.0625
X7.4709 Y8.6777 I0.0625 J-0.0024 F60.
Y8.8027 I0. J0.0625
X7.4085 Y8.7426 I0. J-0.0625
X7.4325 Y8.7167 I0.025 J-0.0009
G1 X7.4575 Y8.7157
X7.4614 Y8.7156 Z-0.7997
X7.4652 Y8.7154 Z-0.7988
X7.4688 Y8.7153 Z-0.7973
X7.4722 Y8.7152 Z-0.7952
X7.4751 Y8.715 Z-0.7927
X7.4777 Y8.7149 Z-0.7897
X7.4797 Z-0.7863
X7.4812 Y8.7148 Z-0.7827
X7.4822 Z-0.7789
X7.4825 Z-0.775
G0 Z0.2
X6.3634 Y7.4857
G1 Z0.1644 F13.3
Z0.125
X6.3636 Y7.4859 Z0.1211 F60.
X6.364 Y7.4867 Z0.1173
X6.3648 Y7.488 Z0.1137
X6.3658 Y7.4898 Z0.1103
X6.367 Y7.4921 Z0.1073
X6.3685 Y7.4947 Z0.1048
X6.3701 Y7.4976 Z0.1027
X6.3719 Y7.5007 Z0.1012
X6.3737 Y7.5041 Z0.1003
X6.3757 Y7.5075 Z0.1
X6.3879 Y7.5293
G3 X6.3783 Y7.5633 I-0.0218 J0.0122
X6.3478 Y7.5713 Z0.0994 I-0.0306 J-0.0545 F30.
Y7.4463 Z0.096 I0. J-0.0625
Y7.5713 Z0.0926 I0. J0.0625
Y7.4463 Z0.0892 I0. J-0.0625
Y7.5713 Z0.0857 I0. J0.0625
Y7.4463 Z0.0823 I0. J-0.0625
Y7.5713 Z0.0789 I0. J0.0625
Y7.4463 Z0.0755 I0. J-0.0625
Y7.5713 Z0.072 I0. J0.0625
Y7.4463 Z0.0686 I0. J-0.0625
Y7.5713 Z0.0652 I0. J0.0625
Y7.4463 Z0.0618 I0. J-0.0625
Y7.5713 Z0.0583 I0. J0.0625
Y7.4463 Z0.0549 I0. J-0.0625
Y7.5713 Z0.0515 I0. J0.0625
Y7.4463 Z0.048 I0. J-0.0625
Y7.5713 Z0.0446 I0. J0.0625
Y7.4463 Z0.0412 I0. J-0.0625
Y7.5713 Z0.0378 I0. J0.0625
Y7.4463 Z0.0343 I0. J-0.0625
Y7.5713 Z0.0309 I0. J0.0625
Y7.4463 Z0.0275 I0. J-0.0625
Y7.5713 Z0.0241 I0. J0.0625
Y7.4463 Z0.0206 I0. J-0.0625
Y7.5713 Z0.0172 I0. J0.0625
Y7.4463 Z0.0138 I0. J-0.0625
Y7.5713 Z0.0104 I0. J0.0625
Y7.4463 Z0.0069 I0. J-0.0625
Y7.5713 Z0.0035 I0. J0.0625
Y7.4463 Z0.0001 I0. J-0.0625
Y7.5713 Z-0.0034 I0. J0.0625
Y7.4463 Z-0.0068 I0. J-0.0625
Y7.5713 Z-0.0102 I0. J0.0625
Y7.4463 Z-0.0136 I0. J-0.0625
Y7.5713 Z-0.0171 I0. J0.0625
Y7.4463 Z-0.0205 I0. J-0.0625
Y7.5713 Z-0.0239 I0. J0.0625
Y7.4463 Z-0.0273 I0. J-0.0625
Y7.5713 Z-0.0308 I0. J0.0625
Y7.4463 Z-0.0342 I0. J-0.0625
Y7.5713 Z-0.0376 I0. J0.0625
Y7.4463 Z-0.041 I0. J-0.0625
Y7.5713 Z-0.0445 I0. J0.0625
Y7.4463 Z-0.0479 I0. J-0.0625
Y7.5713 Z-0.0513 I0. J0.0625
Y7.4463 Z-0.0548 I0. J-0.0625
Y7.5713 Z-0.0582 I0. J0.0625
Y7.4463 Z-0.0616 I0. J-0.0625
Y7.5713 Z-0.065 I0. J0.0625
Y7.4463 Z-0.0685 I0. J-0.0625
Y7.5713 Z-0.0719 I0. J0.0625
Y7.4463 Z-0.0753 I0. J-0.0625
Y7.5713 Z-0.0787 I0. J0.0625
Y7.4463 Z-0.0822 I0. J-0.0625
Y7.5713 Z-0.0856 I0. J0.0625
Y7.4463 Z-0.089 I0. J-0.0625
Y7.5713 Z-0.0924 I0. J0.0625
Y7.4463 Z-0.0959 I0. J-0.0625
Y7.5713 Z-0.0993 I0. J0.0625
Y7.4463 Z-0.1027 I0. J-0.0625
Y7.5713 Z-0.1062 I0. J0.0625
Y7.4463 Z-0.1096 I0. J-0.0625
Y7.5713 Z-0.113 I0. J0.0625
Y7.4463 Z-0.1164 I0. J-0.0625
Y7.5713 Z-0.1199 I0. J0.0625
Y7.4463 Z-0.1233 I0. J-0.0625
X6.4102 Y7.5088 Z-0.125 I0. J0.0625
X6.3478 Y7.5713 I-0.0625 J0. F60.
Y7.4463 I0. J-0.0625
X6.4102 Y7.5088 I0. J0.0625
X6.3478 Y7.5713 Z-0.1267 I-0.0625 J0. F30.
Y7.4463 Z-0.1301 I0. J-0.0625
Y7.5713 Z-0.1336 I0. J0.0625
Y7.4463 Z-0.137 I0. J-0.0625
Y7.5713 Z-0.1404 I0. J0.0625
Y7.4463 Z-0.1438 I0. J-0.0625
Y7.5713 Z-0.1473 I0. J0.0625
Y7.4463 Z-0.1507 I0. J-0.0625
Y7.5713 Z-0.1541 I0. J0.0625
Y7.4463 Z-0.1576 I0. J-0.0625
Y7.5713 Z-0.161 I0. J0.0625
Y7.4463 Z-0.1644 I0. J-0.0625
Y7.5713 Z-0.1678 I0. J0.0625
Y7.4463 Z-0.1713 I0. J-0.0625
Y7.5713 Z-0.1747 I0. J0.0625
Y7.4463 Z-0.1781 I0. J-0.0625
Y7.5713 Z-0.1815 I0. J0.0625
Y7.4463 Z-0.185 I0. J-0.0625
Y7.5713 Z-0.1884 I0. J0.0625
Y7.4463 Z-0.1918 I0. J-0.0625
Y7.5713 Z-0.1952 I0. J0.0625
Y7.4463 Z-0.1987 I0. J-0.0625
Y7.5713 Z-0.2021 I0. J0.0625
Y7.4463 Z-0.2055 I0. J-0.0625
Y7.5713 Z-0.209 I0. J0.0625
Y7.4463 Z-0.2124 I0. J-0.0625
Y7.5713 Z-0.2158 I0. J0.0625
Y7.4463 Z-0.2192 I0. J-0.0625
Y7.5713 Z-0.2227 I0. J0.0625
Y7.4463 Z-0.2261 I0. J-0.0625
Y7.5713 Z-0.2295 I0. J0.0625
Y7.4463 Z-0.2329 I0. J-0.0625
Y7.5713 Z-0.2364 I0. J0.0625
Y7.4463 Z-0.2398 I0. J-0.0625
Y7.5713 Z-0.2432 I0. J0.0625
Y7.4463 Z-0.2466 I0. J-0.0625
X6.3518 Y7.5712 Z-0.25 I0. J0.0625
G1 X6.3478 Y7.5713 F60.
G3 Y7.4463 I0. J-0.0625
X6.3518 Y7.5712 I0. J0.0625
G1 X6.3478 Y7.5713 Z-0.2501 F30.
G3 Y7.4463 Z-0.2535 I0. J-0.0625
Y7.5713 Z-0.2569 I0. J0.0625
Y7.4463 Z-0.2604 I0. J-0.0625
Y7.5713 Z-0.2638 I0. J0.0625
Y7.4463 Z-0.2672 I0. J-0.0625
Y7.5713 Z-0.2706 I0. J0.0625
Y7.4463 Z-0.2741 I0. J-0.0625
Y7.5713 Z-0.2775 I0. J0.0625
Y7.4463 Z-0.2809 I0. J-0.0625
Y7.5713 Z-0.2843 I0. J0.0625
Y7.4463 Z-0.2878 I0. J-0.0625
Y7.5713 Z-0.2912 I0. J0.0625
Y7.4463 Z-0.2946 I0. J-0.0625
Y7.5713 Z-0.298 I0. J0.0625
Y7.4463 Z-0.3015 I0. J-0.0625
Y7.5713 Z-0.3049 I0. J0.0625
Y7.4463 Z-0.3083 I0. J-0.0625
Y7.5713 Z-0.3117 I0. J0.0625
Y7.4463 Z-0.3152 I0. J-0.0625
Y7.5713 Z-0.3186 I0. J0.0625
Y7.4463 Z-0.322 I0. J-0.0625
Y7.5713 Z-0.3255 I0. J0.0625
Y7.4463 Z-0.3289 I0. J-0.0625
Y7.5713 Z-0.3323 I0. J0.0625
Y7.4463 Z-0.3357 I0. J-0.0625
Y7.5713 Z-0.3392 I0. J0.0625
Y7.4463 Z-0.3426 I0. J-0.0625
Y7.5713 Z-0.346 I0. J0.0625
Y7.4463 Z-0.3494 I0. J-0.0625
Y7.5713 Z-0.3529 I0. J0.0625
Y7.4463 Z-0.3563 I0. J-0.0625
Y7.5713 Z-0.3597 I0. J0.0625
Y7.4463 Z-0.3631 I0. J-0.0625
Y7.5713 Z-0.3666 I0. J0.0625
Y7.4463 Z-0.37 I0. J-0.0625
Y7.5713 Z-0.3734 I0. J0.0625
X6.2858 Y7.5169 Z-0.375 I0. J-0.0625
X6.3478 Y7.4463 I0.062 J-0.0081 F60.
Y7.5713 I0. J0.0625
X6.2858 Y7.5169 I0. J-0.0625
X6.3478 Y7.4463 Z-0.3769 I0.062 J-0.0081 F30.
Y7.5713 Z-0.3803 I0. J0.0625
Y7.4463 Z-0.3837 I0. J-0.0625
Y7.5713 Z-0.3871 I0. J0.0625
Y7.4463 Z-0.3906 I0. J-0.0625
Y7.5713 Z-0.394 I0. J0.0625
Y7.4463 Z-0.3974 I0. J-0.0625
Y7.5713 Z-0.4008 I0. J0.0625
Y7.4463 Z-0.4043 I0. J-0.0625
Y7.5713 Z-0.4077 I0. J0.0625
Y7.4463 Z-0.4111 I0. J-0.0625
Y7.5713 Z-0.4145 I0. J0.0625
Y7.4463 Z-0.418 I0. J-0.0625
Y7.5713 Z-0.4214 I0. J0.0625
Y7.4463 Z-0.4248 I0. J-0.0625
Y7.5713 Z-0.4283 I0. J0.0625
Y7.4463 Z-0.4317 I0. J-0.0625
Y7.5713 Z-0.4351 I0. J0.0625
Y7.4463 Z-0.4385 I0. J-0.0625
Y7.5713 Z-0.442 I0. J0.0625
Y7.4463 Z-0.4454 I0. J-0.0625
Y7.5713 Z-0.4488 I0. J0.0625
Y7.4463 Z-0.4522 I0. J-0.0625
Y7.5713 Z-0.4557 I0. J0.0625
Y7.4463 Z-0.4591 I0. J-0.0625
Y7.5713 Z-0.4625 I0. J0.0625
Y7.4463 Z-0.4659 I0. J-0.0625
Y7.5713 Z-0.4694 I0. J0.0625
Y7.4463 Z-0.4728 I0. J-0.0625
Y7.5713 Z-0.4762 I0. J0.0625
Y7.4463 Z-0.4797 I0. J-0.0625
Y7.5713 Z-0.4831 I0. J0.0625
Y7.4463 Z-0.4865 I0. J-0.0625
Y7.5713 Z-0.4899 I0. J0.0625
Y7.4463 Z-0.4934 I0. J-0.0625
Y7.5713 Z-0.4968 I0. J0.0625
X6.3356 Y7.4475 Z-0.5 I0. J-0.0625
X6.3478 Y7.4463 I0.0122 J0.0613 F60.
Y7.5713 I0. J0.0625
X6.3356 Y7.4475 I0. J-0.0625
X6.3478 Y7.4463 Z-0.5002 I0.0122 J0.0613 F30.
Y7.5713 Z-0.5036 I0. J0.0625
Y7.4463 Z-0.5071 I0. J-0.0625
Y7.5713 Z-0.5105 I0. J0.0625
Y7.4463 Z-0.5139 I0. J-0.0625
Y7.5713 Z-0.5173 I0. J0.0625
Y7.4463 Z-0.5208 I0. J-0.0625
Y7.5713 Z-0.5242 I0. J0.0625
Y7.4463 Z-0.5276 I0. J-0.0625
Y7.5713 Z-0.5311 I0. J0.0625
Y7.4463 Z-0.5345 I0. J-0.0625
Y7.5713 Z-0.5379 I0. J0.0625
Y7.4463 Z-0.5413 I0. J-0.0625
Y7.5713 Z-0.5448 I0. J0.0625
Y7.4463 Z-0.5482 I0. J-0.0625
Y7.5713 Z-0.5516 I0. J0.0625
Y7.4463 Z-0.555 I0. J-0.0625
Y7.5713 Z-0.5585 I0. J0.0625
Y7.4463 Z-0.5619 I0. J-0.0625
Y7.5713 Z-0.5653 I0. J0.0625
Y7.4463 Z-0.5687 I0. J-0.0625
Y7.5713 Z-0.5722 I0. J0.0625
Y7.4463 Z-0.5756 I0. J-0.0625
Y7.5713 Z-0.579 I0. J0.0625
Y7.4463 Z-0.5825 I0. J-0.0625
Y7.5713 Z-0.5859 I0. J0.0625
Y7.4463 Z-0.5893 I0. J-0.0625
Y7.5713 Z-0.5927 I0. J0.0625
Y7.4463 Z-0.5962 I0. J-0.0625
Y7.5713 Z-0.5996 I0. J0.0625
Y7.4463 Z-0.603 I0. J-0.0625
Y7.5713 Z-0.6064 I0. J0.0625
Y7.4463 Z-0.6099 I0. J-0.0625
Y7.5713 Z-0.6133 I0. J0.0625
Y7.4463 Z-0.6167 I0. J-0.0625
Y7.5713 Z-0.6201 I0. J0.0625
Y7.4463 Z-0.6236 I0. J-0.0625
X6.4081 Y7.4927 Z-0.625 I0. J0.0625
X6.3478 Y7.5713 I-0.0604 J0.0161 F60.
Y7.4463 I0. J-0.0625
X6.4081 Y7.4927 I0. J0.0625
X6.3478 Y7.5713 Z-0.627 I-0.0604 J0.0161 F30.
Y7.4463 Z-0.6304 I0. J-0.0625
Y7.5713 Z-0.6339 I0. J0.0625
Y7.4463 Z-0.6373 I0. J-0.0625
Y7.5713 Z-0.6407 I0. J0.0625
Y7.4463 Z-0.6441 I0. J-0.0625
Y7.5713 Z-0.6476 I0. J0.0625
Y7.4463 Z-0.651 I0. J-0.0625
Y7.5713 Z-0.6544 I0. J0.0625
Y7.4463 Z-0.6578 I0. J-0.0625
Y7.5713 Z-0.6613 I0. J0.0625
Y7.4463 Z-0.6647 I0. J-0.0625
Y7.5713 Z-0.6681 I0. J0.0625
Y7.4463 Z-0.6715 I0. J-0.0625
Y7.5713 Z-0.675 I0. J0.0625
Y7.4463 Z-0.6784 I0. J-0.0625
Y7.5713 Z-0.6818 I0. J0.0625
Y7.4463 Z-0.6853 I0. J-0.0625
Y7.5713 Z-0.6887 I0. J0.0625
Y7.4463 Z-0.6921 I0. J-0.0625
Y7.5713 Z-0.6955 I0. J0.0625
Y7.4463 Z-0.699 I0. J-0.0625
Y7.5713 Z-0.7024 I0. J0.0625
Y7.4463 Z-0.7058 I0. J-0.0625
Y7.5713 Z-0.7092 I0. J0.0625
Y7.4463 Z-0.7127 I0. J-0.0625
Y7.5713 Z-0.7161 I0. J0.0625
Y7.4463 Z-0.7195 I0. J-0.0625
Y7.5713 Z-0.7229 I0. J0.0625
Y7.4463 Z-0.7264 I0. J-0.0625
Y7.5713 Z-0.7298 I0. J0.0625
Y7.4463 Z-0.7332 I0. J-0.0625
Y7.5713 Z-0.7366 I0. J0.0625
Y7.4463 Z-0.7401 I0. J-0.0625
Y7.5713 Z-0.7435 I0. J0.0625
Y7.4463 Z-0.7469 I0. J-0.0625
X6.3678 Y7.568 Z-0.75 I0. J0.0625
X6.3478 Y7.5713 I-0.02 J-0.0592 F60.
Y7.4463 I0. J-0.0625
X6.3678 Y7.568 I0. J0.0625
X6.3478 Y7.5713 Z-0.7504 I-0.02 J-0.0592 F30.
Y7.4463 Z-0.7538 I0. J-0.0625
Y7.5713 Z-0.7572 I0. J0.0625
Y7.4463 Z-0.7606 I0. J-0.0625
Y7.5713 Z-0.7641 I0. J0.0625
Y7.4463 Z-0.7675 I0. J-0.0625
Y7.5713 Z-0.7709 I0. J0.0625
Y7.4463 Z-0.7743 I0. J-0.0625
Y7.5713 Z-0.7778 I0. J0.0625
Y7.4463 Z-0.7812 I0. J-0.0625
Y7.5713 Z-0.7846 I0. J0.0625
Y7.4463 Z-0.788 I0. J-0.0625
Y7.5713 Z-0.7915 I0. J0.0625
Y7.4463 Z-0.7949 I0. J-0.0625
Y7.5713 Z-0.7983 I0. J0.0625
X6.2853 Y7.5112 Z-0.8 I0. J-0.0625
X6.3478 Y7.4463 I0.0625 J-0.0024 F60.
Y7.5713 I0. J0.0625
X6.2853 Y7.5112 I0. J-0.0625
X6.3094 Y7.4852 I0.025 J-0.0009
G1 X6.3343 Y7.4843
X6.3382 Y7.4841 Z-0.7997
X6.3421 Y7.484 Z-0.7988
X6.3457 Y7.4839 Z-0.7973
X6.349 Y7.4837 Z-0.7952
X6.352 Y7.4836 Z-0.7927
X6.3545 Y7.4835 Z-0.7897
X6.3566 Y7.4834 Z-0.7863
X6.3581 Z-0.7827
X6.359 Z-0.7789
X6.3593 Y7.4833 Z-0.775
G0 Z0.2
X5.2403 Y6.2543
G1 Z0.1644 F13.3
Z0.125
X5.2404 Y6.2546 Z0.1211 F60.
X5.2409 Y6.2554 Z0.1173
X5.2416 Y6.2567 Z0.1137
X5.2426 Y6.2585 Z0.1103
X5.2439 Y6.2607 Z0.1073
X5.2453 Y6.2633 Z0.1048
X5.247 Y6.2662 Z0.1027
X5.2487 Y6.2694 Z0.1012
X5.2506 Y6.2727 Z0.1003
X5.2525 Y6.2761 Z0.1
X5.2647 Y6.2979
G3 X5.2552 Y6.3319 I-0.0218 J0.0122
X5.2246 Y6.3399 Z0.0994 I-0.0306 J-0.0545 F30.
Y6.2149 Z0.096 I0. J-0.0625
Y6.3399 Z0.0926 I0. J0.0625
Y6.2149 Z0.0892 I0. J-0.0625
Y6.3399 Z0.0857 I0. J0.0625
Y6.2149 Z0.0823 I0. J-0.0625
Y6.3399 Z0.0789 I0. J0.0625
Y6.2149 Z0.0755 I0. J-0.0625
Y6.3399 Z0.072 I0. J0.0625
Y6.2149 Z0.0686 I0. J-0.0625
Y6.3399 Z0.0652 I0. J0.0625
Y6.2149 Z0.0618 I0. J-0.0625
Y6.3399 Z0.0583 I0. J0.0625
Y6.2149 Z0.0549 I0. J-0.0625
Y6.3399 Z0.0515 I0. J0.0625
Y6.2149 Z0.048 I0. J-0.0625
Y6.3399 Z0.0446 I0. J0.0625
Y6.2149 Z0.0412 I0. J-0.0625
Y6.3399 Z0.0378 I0. J0.0625
Y6.2149 Z0.0343 I0. J-0.0625
Y6.3399 Z0.0309 I0. J0.0625
Y6.2149 Z0.0275 I0. J-0.0625
Y6.3399 Z0.0241 I0. J0.0625
Y6.2149 Z0.0206 I0. J-0.0625
Y6.3399 Z0.0172 I0. J0.0625
Y6.2149 Z0.0138 I0. J-0.0625
Y6.3399 Z0.0104 I0. J0.0625
Y6.2149 Z0.0069 I0. J-0.0625
Y6.3399 Z0.0035 I0. J0.0625
Y6.2149 Z0.0001 I0. J-0.0625
Y6.3399 Z-0.0034 I0. J0.0625
Y6.2149 Z-0.0068 I0. J-0.0625
Y6.3399 Z-0.0102 I0. J0.0625
Y6.2149 Z-0.0136 I0. J-0.0625
Y6.3399 Z-0.0171 I0. J0.0625
Y6.2149 Z-0.0205 I0. J-0.0625
Y6.3399 Z-0.0239 I0. J0.0625
Y6.2149 Z-0.0273 I0. J-0.0625
Y6.3399 Z-0.0308 I0. J0.0625
Y6.2149 Z-0.0342 I0. J-0.0625
Y6.3399 Z-0.0376 I0. J0.0625
Y6.2149 Z-0.041 I0. J-0.0625
Y6.3399 Z-0.0445 I0. J0.0625
Y6.2149 Z-0.0479 I0. J-0.0625
Y6.3399 Z-0.0513 I0. J0.0625
Y6.2149 Z-0.0548 I0. J-0.0625
Y6.3399 Z-0.0582 I0. J0.0625
Y6.2149 Z-0.0616 I0. J-0.0625
Y6.3399 Z-0.065 I0. J0.0625
Y6.2149 Z-0.0685 I0. J-0.0625
Y6.3399 Z-0.0719 I0. J0.0625
Y6.2149 Z-0.0753 I0. J-0.0625
Y6.3399 Z-0.0787 I0. J0.0625
Y6.2149 Z-0.0822 I0. J-0.0625
Y6.3399 Z-0.0856 I0. J0.0625
Y6.2149 Z-0.089 I0. J-0.0625
Y6.3399 Z-0.0924 I0. J0.0625
Y6.2149 Z-0.0959 I0. J-0.0625
Y6.3399 Z-0.0993 I0. J0.0625
Y6.2149 Z-0.1027 I0. J-0.0625
Y6.3399 Z-0.1062 I0. J0.0625
Y6.2149 Z-0.1096 I0. J-0.0625
Y6.3399 Z-0.113 I0. J0.0625
Y6.2149 Z-0.1164 I0. J-0.0625
Y6.3399 Z-0.1199 I0. J0.0625
Y6.2149 Z-0.1233 I0. J-0.0625
X5.2871 Y6.2774 Z-0.125 I0. J0.0625
X5.2246 Y6.3399 I-0.0625 J0. F60.
Y6.2149 I0. J-0.0625
X5.2871 Y6.2774 I0. J0.0625
X5.2246 Y6.3399 Z-0.1267 I-0.0625 J0. F30.
Y6.2149 Z-0.1301 I0. J-0.0625
Y6.3399 Z-0.1336 I0. J0.0625
Y6.2149 Z-0.137 I0. J-0.0625
Y6.3399 Z-0.1404 I0. J0.0625
Y6.2149 Z-0.1438 I0. J-0.0625
Y6.3399 Z-0.1473 I0. J0.0625
Y6.2149 Z-0.1507 I0. J-0.0625
Y6.3399 Z-0.1541 I0. J0.0625
Y6.2149 Z-0.1576 I0. J-0.0625
Y6.3399 Z-0.161 I0. J0.0625
Y6.2149 Z-0.1644 I0. J-0.0625
Y6.3399 Z-0.1678 I0. J0.0625
Y6.2149 Z-0.1713 I0. J-0.0625
Y6.3399 Z-0.1747 I0. J0.0625
Y6.2149 Z-0.1781 I0. J-0.0625
Y6.3399 Z-0.1815 I0. J0.0625
Y6.2149 Z-0.185 I0. J-0.0625
Y6.3399 Z-0.1884 I0. J0.0625
Y6.2149 Z-0.1918 I0. J-0.0625
Y6.3399 Z-0.1952 I0. J0.0625
Y6.2149 Z-0.1987 I0. J-0.0625
Y6.3399 Z-0.2021 I0. J0.0625
Y6.2149 Z-0.2055 I0. J-0.0625
Y6.3399 Z-0.209 I0. J0.0625
Y6.2149 Z-0.2124 I0. J-0.0625
Y6.3399 Z-0.2158 I0. J0.0625
Y6.2149 Z-0.2192 I0. J-0.0625
Y6.3399 Z-0.2227 I0. J0.0625
Y6.2149 Z-0.2261 I0. J-0.0625
Y6.3399 Z-0.2295 I0. J0.0625
Y6.2149 Z-0.2329 I0. J-0.0625
Y6.3399 Z-0.2364 I0. J0.0625
Y6.2149 Z-0.2398 I0. J-0.0625
Y6.3399 Z-0.2432 I0. J0.0625
Y6.2149 Z-0.2466 I0. J-0.0625
X5.2287 Y6.3398 Z-0.25 I0. J0.0625
G1 X5.2246 Y6.3399 F60.
G3 Y6.2149 I0. J-0.0625
X5.2287 Y6.3398 I0. J0.0625
G1 X5.2246 Y6.3399 Z-0.2501 F30.
G3 Y6.2149 Z-0.2535 I0. J-0.0625
Y6.3399 Z-0.2569 I0. J0.0625
Y6.2149 Z-0.2604 I0. J-0.0625
Y6.3399 Z-0.2638 I0. J0.0625
Y6.2149 Z-0.2672 I0. J-0.0625
Y6.3399 Z-0.2706 I0. J0.0625
Y6.2149 Z-0.2741 I0. J-0.0625
Y6.3399 Z-0.2775 I0. J0.0625
Y6.2149 Z-0.2809 I0. J-0.0625
Y6.3399 Z-0.2843 I0. J0.0625
Y6.2149 Z-0.2878 I0. J-0.0625
Y6.3399 Z-0.2912 I0. J0.0625
Y6.2149 Z-0.2946 I0. J-0.0625
Y6.3399 Z-0.298 I0. J0.0625
Y6.2149 Z-0.3015 I0. J-0.0625
Y6.3399 Z-0.3049 I0. J0.0625
Y6.2149 Z-0.3083 I0. J-0.0625
Y6.3399 Z-0.3117 I0. J0.0625
Y6.2149 Z-0.3152 I0. J-0.0625
Y6.3399 Z-0.3186 I0. J0.0625
Y6.2149 Z-0.322 I0. J-0.0625
Y6.3399 Z-0.3255 I0. J0.0625
Y6.2149 Z-0.3289 I0. J-0.0625
Y6.3399 Z-0.3323 I0. J0.0625
Y6.2149 Z-0.3357 I0. J-0.0625
Y6.3399 Z-0.3392 I0. J0.0625
Y6.2149 Z-0.3426 I0. J-0.0625
Y6.3399 Z-0.346 I0. J0.0625
Y6.2149 Z-0.3494 I0. J-0.0625
Y6.3399 Z-0.3529 I0. J0.0625
Y6.2149 Z-0.3563 I0. J-0.0625
Y6.3399 Z-0.3597 I0. J0.0625
Y6.2149 Z-0.3631 I0. J-0.0625
Y6.3399 Z-0.3666 I0. J0.0625
Y6.2149 Z-0.37 I0. J-0.0625
Y6.3399 Z-0.3734 I0. J0.0625
X5.1627 Y6.2855 Z-0.375 I0. J-0.0625
X5.2246 Y6.2149 I0.062 J-0.0081 F60.
Y6.3399 I0. J0.0625
X5.1627 Y6.2855 I0. J-0.0625
X5.2246 Y6.2149 Z-0.3769 I0.062 J-0.0081 F30.
Y6.3399 Z-0.3803 I0. J0.0625
Y6.2149 Z-0.3837 I0. J-0.0625
Y6.3399 Z-0.3871 I0. J0.0625
Y6.2149 Z-0.3906 I0. J-0.0625
Y6.3399 Z-0.394 I0. J0.0625
Y6.2149 Z-0.3974 I0. J-0.0625
Y6.3399 Z-0.4008 I0. J0.0625
Y6.2149 Z-0.4043 I0. J-0.0625
Y6.3399 Z-0.4077 I0. J0.0625
Y6.2149 Z-0.4111 I0. J-0.0625
Y6.3399 Z-0.4145 I0. J0.0625
Y6.2149 Z-0.418 I0. J-0.0625
Y6.3399 Z-0.4214 I0. J0.0625
Y6.2149 Z-0.4248 I0. J-0.0625
Y6.3399 Z-0.4283 I0. J0.0625
Y6.2149 Z-0.4317 I0. J-0.0625
Y6.3399 Z-0.4351 I0. J0.0625
Y6.2149 Z-0.4385 I0. J-0.0625
Y6.3399 Z-0.442 I0. J0.0625
Y6.2149 Z-0.4454 I0. J-0.0625
Y6.3399 Z-0.4488 I0. J0.0625
Y6.2149 Z-0.4522 I0. J-0.0625
Y6.3399 Z-0.4557 I0. J0.0625
Y6.2149 Z-0.4591 I0. J-0.0625
Y6.3399 Z-0.4625 I0. J0.0625
Y6.2149 Z-0.4659 I0. J-0.0625
Y6.3399 Z-0.4694 I0. J0.0625
Y6.2149 Z-0.4728 I0. J-0.0625
Y6.3399 Z-0.4762 I0. J0.0625
Y6.2149 Z-0.4797 I0. J-0.0625
Y6.3399 Z-0.4831 I0. J0.0625
Y6.2149 Z-0.4865 I0. J-0.0625
Y6.3399 Z-0.4899 I0. J0.0625
Y6.2149 Z-0.4934 I0. J-0.0625
Y6.3399 Z-0.4968 I0. J0.0625
X5.2125 Y6.2161 Z-0.5 I0. J-0.0625
X5.2246 Y6.2149 I0.0122 J0.0613 F60.
Y6.3399 I0. J0.0625
X5.2125 Y6.2161 I0. J-0.0625
X5.2246 Y6.2149 Z-0.5002 I0.0122 J0.0613 F30.
Y6.3399 Z-0.5036 I0. J0.0625
Y6.2149 Z-0.5071 I0. J-0.0625
Y6.3399 Z-0.5105 I0. J0.0625
Y6.2149 Z-0.5139 I0. J-0.0625
Y6.3399 Z-0.5173 I0. J0.0625
Y6.2149 Z-0.5208 I0. J-0.0625
Y6.3399 Z-0.5242 I0. J0.0625
Y6.2149 Z-0.5276 I0. J-0.0625
Y6.3399 Z-0.5311 I0. J0.0625
Y6.2149 Z-0.5345 I0. J-0.0625
Y6.3399 Z-0.5379 I0. J0.0625
Y6.2149 Z-0.5413 I0. J-0.0625
Y6.3399 Z-0.5448 I0. J0.0625
Y6.2149 Z-0.5482 I0. J-0.0625
Y6.3399 Z-0.5516 I0. J0.0625
Y6.2149 Z-0.555 I0. J-0.0625
Y6.3399 Z-0.5585 I0. J0.0625
Y6.2149 Z-0.5619 I0. J-0.0625
Y6.3399 Z-0.5653 I0. J0.0625
Y6.2149 Z-0.5687 I0. J-0.0625
Y6.3399 Z-0.5722 I0. J0.0625
Y6.2149 Z-0.5756 I0. J-0.0625
Y6.3399 Z-0.579 I0. J0.0625
Y6.2149 Z-0.5825 I0. J-0.0625
Y6.3399 Z-0.5859 I0. J0.0625
Y6.2149 Z-0.5893 I0. J-0.0625
Y6.3399 Z-0.5927 I0. J0.0625
Y6.2149 Z-0.5962 I0. J-0.0625
Y6.3399 Z-0.5996 I0. J0.0625
Y6.2149 Z-0.603 I0. J-0.0625
Y6.3399 Z-0.6064 I0. J0.0625
Y6.2149 Z-0.6099 I0. J-0.0625
Y6.3399 Z-0.6133 I0. J0.0625
Y6.2149 Z-0.6167 I0. J-0.0625
Y6.3399 Z-0.6201 I0. J0.0625
Y6.2149 Z-0.6236 I0. J-0.0625
X5.285 Y6.2613 Z-0.625 I0. J0.0625
X5.2246 Y6.3399 I-0.0604 J0.0161 F60.
Y6.2149 I0. J-0.0625
X5.285 Y6.2613 I0. J0.0625
X5.2246 Y6.3399 Z-0.627 I-0.0604 J0.0161 F30.
Y6.2149 Z-0.6304 I0. J-0.0625
Y6.3399 Z-0.6339 I0. J0.0625
Y6.2149 Z-0.6373 I0. J-0.0625
Y6.3399 Z-0.6407 I0. J0.0625
Y6.2149 Z-0.6441 I0. J-0.0625
Y6.3399 Z-0.6476 I0. J0.0625
Y6.2149 Z-0.651 I0. J-0.0625
Y6.3399 Z-0.6544 I0. J0.0625
Y6.2149 Z-0.6578 I0. J-0.0625
Y6.3399 Z-0.6613 I0. J0.0625
Y6.2149 Z-0.6647 I0. J-0.0625
Y6.3399 Z-0.6681 I0. J0.0625
Y6.2149 Z-0.6715 I0. J-0.0625
Y6.3399 Z-0.675 I0. J0.0625
Y6.2149 Z-0.6784 I0. J-0.0625
Y6.3399 Z-0.6818 I0. J0.0625
Y6.2149 Z-0.6853 I0. J-0.0625
Y6.3399 Z-0.6887 I0. J0.0625
Y6.2149 Z-0.6921 I0. J-0.0625
Y6.3399 Z-0.6955 I0. J0.0625
Y6.2149 Z-0.699 I0. J-0.0625
Y6.3399 Z-0.7024 I0. J0.0625
Y6.2149 Z-0.7058 I0. J-0.0625
Y6.3399 Z-0.7092 I0. J0.0625
Y6.2149 Z-0.7127 I0. J-0.0625
Y6.3399 Z-0.7161 I0. J0.0625
Y6.2149 Z-0.7195 I0. J-0.0625
Y6.3399 Z-0.7229 I0. J0.0625
Y6.2149 Z-0.7264 I0. J-0.0625
Y6.3399 Z-0.7298 I0. J0.0625
Y6.2149 Z-0.7332 I0. J-0.0625
Y6.3399 Z-0.7366 I0. J0.0625
Y6.2149 Z-0.7401 I0. J-0.0625
Y6.3399 Z-0.7435 I0. J0.0625
Y6.2149 Z-0.7469 I0. J-0.0625
X5.2446 Y6.3366 Z-0.75 I0. J0.0625
X5.2246 Y6.3399 I-0.02 J-0.0592 F60.
Y6.2149 I0. J-0.0625
X5.2446 Y6.3366 I0. J0.0625
X5.2246 Y6.3399 Z-0.7504 I-0.02 J-0.0592 F30.
Y6.2149 Z-0.7538 I0. J-0.0625
Y6.3399 Z-0.7572 I0. J0.0625
Y6.2149 Z-0.7606 I0. J-0.0625
Y6.3399 Z-0.7641 I0. J0.0625
Y6.2149 Z-0.7675 I0. J-0.0625
Y6.3399 Z-0.7709 I0. J0.0625
Y6.2149 Z-0.7743 I0. J-0.0625
Y6.3399 Z-0.7778 I0. J0.0625
Y6.2149 Z-0.7812 I0. J-0.0625
Y6.3399 Z-0.7846 I0. J0.0625
Y6.2149 Z-0.788 I0. J-0.0625
Y6.3399 Z-0.7915 I0. J0.0625
Y6.2149 Z-0.7949 I0. J-0.0625
Y6.3399 Z-0.7983 I0. J0.0625
X5.1622 Y6.2798 Z-0.8 I0. J-0.0625
X5.2246 Y6.2149 I0.0625 J-0.0024 F60.
Y6.3399 I0. J0.0625
X5.1622 Y6.2798 I0. J-0.0625
X5.1862 Y6.2539 I0.025 J-0.0009
G1 X5.2112 Y6.2529
X5.2151 Y6.2528 Z-0.7997
X5.2189 Y6.2526 Z-0.7988
X5.2225 Y6.2525 Z-0.7973
X5.2259 Y6.2524 Z-0.7952
X5.2289 Y6.2522 Z-0.7927
X5.2314 Y6.2521 Z-0.7897
X5.2334 Z-0.7863
X5.2349 Y6.252 Z-0.7827
X5.2359 Z-0.7789
X5.2362 Z-0.775
G0 Z0.2
X4.1172 Y5.0229
G1 Z0.1644 F13.3
Z0.125
X4.1173 Y5.0231 Z0.1211 F60.
X4.1178 Y5.0239 Z0.1173
X4.1185 Y5.0253 Z0.1137
X4.1195 Y5.027 Z0.1103
X4.1208 Y5.0293 Z0.1073
X4.1222 Y5.0319 Z0.1048
X4.1238 Y5.0348 Z0.1027
X4.1256 Y5.0379 Z0.1012
X4.1275 Y5.0413 Z0.1003
X4.1294 Y5.0447 Z0.1
X4.1416 Y5.0665
G3 X4.132 Y5.1005 I-0.0218 J0.0122
X4.1015 Y5.1085 Z0.0994 I-0.0306 J-0.0545 F30.
Y4.9835 Z0.096 I0. J-0.0625
Y5.1085 Z0.0926 I0. J0.0625
Y4.9835 Z0.0892 I0. J-0.0625
Y5.1085 Z0.0857 I0. J0.0625
Y4.9835 Z0.0823 I0. J-0.0625
Y5.1085 Z0.0789 I0. J0.0625
Y4.9835 Z0.0755 I0. J-0.0625
Y5.1085 Z0.072 I0. J0.0625
Y4.9835 Z0.0686 I0. J-0.0625
Y5.1085 Z0.0652 I0. J0.0625
Y4.9835 Z0.0618 I0. J-0.0625
Y5.1085 Z0.0583 I0. J0.0625
Y4.9835 Z0.0549 I0. J-0.0625
Y5.1085 Z0.0515 I0. J0.0625
Y4.9835 Z0.048 I0. J-0.0625
Y5.1085 Z0.0446 I0. J0.0625
Y4.9835 Z0.0412 I0. J-0.0625
Y5.1085 Z0.0378 I0. J0.0625
Y4.9835 Z0.0343 I0. J-0.0625
Y5.1085 Z0.0309 I0. J0.0625
Y4.9835 Z0.0275 I0. J-0.0625
Y5.1085 Z0.0241 I0. J0.0625
Y4.9835 Z0.0206 I0. J-0.0625
Y5.1085 Z0.0172 I0. J0.0625
Y4.9835 Z0.0138 I0. J-0.0625
Y5.1085 Z0.0104 I0. J0.0625
Y4.9835 Z0.0069 I0. J-0.0625
Y5.1085 Z0.0035 I0. J0.0625
Y4.9835 Z0.0001 I0. J-0.0625
Y5.1085 Z-0.0034 I0. J0.0625
Y4.9835 Z-0.0068 I0. J-0.0625
Y5.1085 Z-0.0102 I0. J0.0625
Y4.9835 Z-0.0136 I0. J-0.0625
Y5.1085 Z-0.0171 I0. J0.0625
Y4.9835 Z-0.0205 I0. J-0.0625
Y5.1085 Z-0.0239 I0. J0.0625
Y4.9835 Z-0.0273 I0. J-0.0625
Y5.1085 Z-0.0308 I0. J0.0625
Y4.9835 Z-0.0342 I0. J-0.0625
Y5.1085 Z-0.0376 I0. J0.0625
Y4.9835 Z-0.041 I0. J-0.0625
Y5.1085 Z-0.0445 I0. J0.0625
Y4.9835 Z-0.0479 I0. J-0.0625
Y5.1085 Z-0.0513 I0. J0.0625
Y4.9835 Z-0.0548 I0. J-0.0625
Y5.1085 Z-0.0582 I0. J0.0625
Y4.9835 Z-0.0616 I0. J-0.0625
Y5.1085 Z-0.065 I0. J0.0625
Y4.9835 Z-0.0685 I0. J-0.0625
Y5.1085 Z-0.0719 I0. J0.0625
Y4.9835 Z-0.0753 I0. J-0.0625
Y5.1085 Z-0.0787 I0. J0.0625
Y4.9835 Z-0.0822 I0. J-0.0625
Y5.1085 Z-0.0856 I0. J0.0625
Y4.9835 Z-0.089 I0. J-0.0625
Y5.1085 Z-0.0924 I0. J0.0625
Y4.9835 Z-0.0959 I0. J-0.0625
Y5.1085 Z-0.0993 I0. J0.0625
Y4.9835 Z-0.1027 I0. J-0.0625
Y5.1085 Z-0.1062 I0. J0.0625
Y4.9835 Z-0.1096 I0. J-0.0625
Y5.1085 Z-0.113 I0. J0.0625
Y4.9835 Z-0.1164 I0. J-0.0625
Y5.1085 Z-0.1199 I0. J0.0625
Y4.9835 Z-0.1233 I0. J-0.0625
X4.164 Y5.046 Z-0.125 I0. J0.0625
X4.1015 Y5.1085 I-0.0625 J0. F60.
Y4.9835 I0. J-0.0625
X4.164 Y5.046 I0. J0.0625
X4.1015 Y5.1085 Z-0.1267 I-0.0625 J0. F30.
Y4.9835 Z-0.1301 I0. J-0.0625
Y5.1085 Z-0.1336 I0. J0.0625
Y4.9835 Z-0.137 I0. J-0.0625
Y5.1085 Z-0.1404 I0. J0.0625
Y4.9835 Z-0.1438 I0. J-0.0625
Y5.1085 Z-0.1473 I0. J0.0625
Y4.9835 Z-0.1507 I0. J-0.0625
Y5.1085 Z-0.1541 I0. J0.0625
Y4.9835 Z-0.1576 I0. J-0.0625
Y5.1085 Z-0.161 I0. J0.0625
Y4.9835 Z-0.1644 I0. J-0.0625
Y5.1085 Z-0.1678 I0. J0.0625
Y4.9835 Z-0.1713 I0. J-0.0625
Y5.1085 Z-0.1747 I0. J0.0625
Y4.9835 Z-0.1781 I0. J-0.0625
Y5.1085 Z-0.1815 I0. J0.0625
Y4.9835 Z-0.185 I0. J-0.0625
Y5.1085 Z-0.1884 I0. J0.0625
Y4.9835 Z-0.1918 I0. J-0.0625
Y5.1085 Z-0.1952 I0. J0.0625
Y4.9835 Z-0.1987 I0. J-0.0625
Y5.1085 Z-0.2021 I0. J0.0625
Y4.9835 Z-0.2055 I0. J-0.0625
Y5.1085 Z-0.209 I0. J0.0625
Y4.9835 Z-0.2124 I0. J-0.0625
Y5.1085 Z-0.2158 I0. J0.0625
Y4.9835 Z-0.2192 I0. J-0.0625
Y5.1085 Z-0.2227 I0. J0.0625
Y4.9835 Z-0.2261 I0. J-0.0625
Y5.1085 Z-0.2295 I0. J0.0625
Y4.9835 Z-0.2329 I0. J-0.0625
Y5.1085 Z-0.2364 I0. J0.0625
Y4.9835 Z-0.2398 I0. J-0.0625
Y5.1085 Z-0.2432 I0. J0.0625
Y4.9835 Z-0.2466 I0. J-0.0625
X4.1056 Y5.1084 Z-0.25 I0. J0.0625
G1 X4.1015 Y5.1085 F60.
G3 Y4.9835 I0. J-0.0625
X4.1056 Y5.1084 I0. J0.0625
G1 X4.1015 Y5.1085 Z-0.2501 F30.
G3 Y4.9835 Z-0.2535 I0. J-0.0625
Y5.1085 Z-0.2569 I0. J0.0625
Y4.9835 Z-0.2604 I0. J-0.0625
Y5.1085 Z-0.2638 I0. J0.0625
Y4.9835 Z-0.2672 I0. J-0.0625
Y5.1085 Z-0.2706 I0. J0.0625
Y4.9835 Z-0.2741 I0. J-0.0625
Y5.1085 Z-0.2775 I0. J0.0625
Y4.9835 Z-0.2809 I0. J-0.0625
Y5.1085 Z-0.2843 I0. J0.0625
Y4.9835 Z-0.2878 I0. J-0.0625
Y5.1085 Z-0.2912 I0. J0.0625
Y4.9835 Z-0.2946 I0. J-0.0625
Y5.1085 Z-0.298 I0. J0.0625
Y4.9835 Z-0.3015 I0. J-0.0625
Y5.1085 Z-0.3049 I0. J0.0625
Y4.9835 Z-0.3083 I0. J-0.0625
Y5.1085 Z-0.3117 I0. J0.0625
Y4.9835 Z-0.3152 I0. J-0.0625
Y5.1085 Z-0.3186 I0. J0.0625
Y4.9835 Z-0.322 I0. J-0.0625
Y5.1085 Z-0.3255 I0. J0.0625
Y4.9835 Z-0.3289 I0. J-0.0625
Y5.1085 Z-0.3323 I0. J0.0625
Y4.9835 Z-0.3357 I0. J-0.0625
Y5.1085 Z-0.3392 I0. J0.0625
Y4.9835 Z-0.3426 I0. J-0.0625
Y5.1085 Z-0.346 I0. J0.0625
Y4.9835 Z-0.3494 I0. J-0.0625
Y5.1085 Z-0.3529 I0. J0.0625
Y4.9835 Z-0.3563 I0. J-0.0625
Y5.1085 Z-0.3597 I0. J0.0625
Y4.9835 Z-0.3631 I0. J-0.0625
Y5.1085 Z-0.3666 I0. J0.0625
Y4.9835 Z-0.37 I0. J-0.0625
Y5.1085 Z-0.3734 I0. J0.0625
X4.0395 Y5.0541 Z-0.375 I0. J-0.0625
X4.1015 Y4.9835 I0.062 J-0.0081 F60.
Y5.1085 I0. J0.0625
X4.0395 Y5.0541 I0. J-0.0625
X4.1015 Y4.9835 Z-0.3769 I0.062 J-0.0081 F30.
Y5.1085 Z-0.3803 I0. J0.0625
Y4.9835 Z-0.3837 I0. J-0.0625
Y5.1085 Z-0.3871 I0. J0.0625
Y4.9835 Z-0.3906 I0. J-0.0625
Y5.1085 Z-0.394 I0. J0.0625
Y4.9835 Z-0.3974 I0. J-0.0625
Y5.1085 Z-0.4008 I0. J0.0625
Y4.9835 Z-0.4043 I0. J-0.0625
Y5.1085 Z-0.4077 I0. J0.0625
Y4.9835 Z-0.4111 I0. J-0.0625
Y5.1085 Z-0.4145 I0. J0.0625
Y4.9835 Z-0.418 I0. J-0.0625
Y5.1085 Z-0.4214 I0. J0.0625
Y4.9835 Z-0.4248 I0. J-0.0625
Y5.1085 Z-0.4283 I0. J0.0625
Y4.9835 Z-0.4317 I0. J-0.0625
Y5.1085 Z-0.4351 I0. J0.0625
Y4.9835 Z-0.4385 I0. J-0.0625
Y5.1085 Z-0.442 I0. J0.0625
Y4.9835 Z-0.4454 I0. J-0.0625
Y5.1085 Z-0.4488 I0. J0.0625
Y4.9835 Z-0.4522 I0. J-0.0625
Y5.1085 Z-0.4557 I0. J0.0625
Y4.9835 Z-0.4591 I0. J-0.0625
Y5.1085 Z-0.4625 I0. J0.0625
Y4.9835 Z-0.4659 I0. J-0.0625
Y5.1085 Z-0.4694 I0. J0.0625
Y4.9835 Z-0.4728 I0. J-0.0625
Y5.1085 Z-0.4762 I0. J0.0625
Y4.9835 Z-0.4797 I0. J-0.0625
Y5.1085 Z-0.4831 I0. J0.0625
Y4.9835 Z-0.4865 I0. J-0.0625
Y5.1085 Z-0.4899 I0. J0.0625
Y4.9835 Z-0.4934 I0. J-0.0625
Y5.1085 Z-0.4968 I0. J0.0625
X4.0894 Y4.9847 Z-0.5 I0. J-0.0625
X4.1015 Y4.9835 I0.0122 J0.0613 F60.
Y5.1085 I0. J0.0625
X4.0894 Y4.9847 I0. J-0.0625
X4.1015 Y4.9835 Z-0.5002 I0.0122 J0.0613 F30.
Y5.1085 Z-0.5036 I0. J0.0625
Y4.9835 Z-0.5071 I0. J-0.0625
Y5.1085 Z-0.5105 I0. J0.0625
Y4.9835 Z-0.5139 I0. J-0.0625
Y5.1085 Z-0.5173 I0. J0.0625
Y4.9835 Z-0.5208 I0. J-0.0625
Y5.1085 Z-0.5242 I0. J0.0625
Y4.9835 Z-0.5276 I0. J-0.0625
Y5.1085 Z-0.5311 I0. J0.0625
Y4.9835 Z-0.5345 I0. J-0.0625
Y5.1085 Z-0.5379 I0. J0.0625
Y4.9835 Z-0.5413 I0. J-0.0625
Y5.1085 Z-0.5448 I0. J0.0625
Y4.9835 Z-0.5482 I0. J-0.0625
Y5.1085 Z-0.5516 I0. J0.0625
Y4.9835 Z-0.555 I0. J-0.0625
Y5.1085 Z-0.5585 I0. J0.0625
Y4.9835 Z-0.5619 I0. J-0.0625
Y5.1085 Z-0.5653 I0. J0.0625
Y4.9835 Z-0.5687 I0. J-0.0625
Y5.1085 Z-0.5722 I0. J0.0625
Y4.9835 Z-0.5756 I0. J-0.0625
Y5.1085 Z-0.579 I0. J0.0625
Y4.9835 Z-0.5825 I0. J-0.0625
Y5.1085 Z-0.5859 I0. J0.0625
Y4.9835 Z-0.5893 I0. J-0.0625
Y5.1085 Z-0.5927 I0. J0.0625
Y4.9835 Z-0.5962 I0. J-0.0625
Y5.1085 Z-0.5996 I0. J0.0625
Y4.9835 Z-0.603 I0. J-0.0625
Y5.1085 Z-0.6064 I0. J0.0625
Y4.9835 Z-0.6099 I0. J-0.0625
Y5.1085 Z-0.6133 I0. J0.0625
Y4.9835 Z-0.6167 I0. J-0.0625
Y5.1085 Z-0.6201 I0. J0.0625
Y4.9835 Z-0.6236 I0. J-0.0625
X4.1619 Y5.0299 Z-0.625 I0. J0.0625
X4.1015 Y5.1085 I-0.0604 J0.0161 F60.
Y4.9835 I0. J-0.0625
X4.1619 Y5.0299 I0. J0.0625
X4.1015 Y5.1085 Z-0.627 I-0.0604 J0.0161 F30.
Y4.9835 Z-0.6304 I0. J-0.0625
Y5.1085 Z-0.6339 I0. J0.0625
Y4.9835 Z-0.6373 I0. J-0.0625
Y5.1085 Z-0.6407 I0. J0.0625
Y4.9835 Z-0.6441 I0. J-0.0625
Y5.1085 Z-0.6476 I0. J0.0625
Y4.9835 Z-0.651 I0. J-0.0625
Y5.1085 Z-0.6544 I0. J0.0625
Y4.9835 Z-0.6578 I0. J-0.0625
Y5.1085 Z-0.6613 I0. J0.0625
Y4.9835 Z-0.6647 I0. J-0.0625
Y5.1085 Z-0.6681 I0. J0.0625
Y4.9835 Z-0.6715 I0. J-0.0625
Y5.1085 Z-0.675 I0. J0.0625
Y4.9835 Z-0.6784 I0. J-0.0625
Y5.1085 Z-0.6818 I0. J0.0625
Y4.9835 Z-0.6853 I0. J-0.0625
Y5.1085 Z-0.6887 I0. J0.0625
Y4.9835 Z-0.6921 I0. J-0.0625
Y5.1085 Z-0.6955 I0. J0.0625
Y4.9835 Z-0.699 I0. J-0.0625
Y5.1085 Z-0.7024 I0. J0.0625
Y4.9835 Z-0.7058 I0. J-0.0625
Y5.1085 Z-0.7092 I0. J0.0625
Y4.9835 Z-0.7127 I0. J-0.0625
Y5.1085 Z-0.7161 I0. J0.0625
Y4.9835 Z-0.7195 I0. J-0.0625
Y5.1085 Z-0.7229 I0. J0.0625
Y4.9835 Z-0.7264 I0. J-0.0625
Y5.1085 Z-0.7298 I0. J0.0625
Y4.9835 Z-0.7332 I0. J-0.0625
Y5.1085 Z-0.7366 I0. J0.0625
Y4.9835 Z-0.7401 I0. J-0.0625
Y5.1085 Z-0.7435 I0. J0.0625
Y4.9835 Z-0.7469 I0. J-0.0625
X4.1215 Y5.1052 Z-0.75 I0. J0.0625
X4.1015 Y5.1085 I-0.02 J-0.0592 F60.
Y4.9835 I0. J-0.0625
X4.1215 Y5.1052 I0. J0.0625
X4.1015 Y5.1085 Z-0.7504 I-0.02 J-0.0592 F30.
Y4.9835 Z-0.7538 I0. J-0.0625
Y5.1085 Z-0.7572 I0. J0.0625
Y4.9835 Z-0.7606 I0. J-0.0625
Y5.1085 Z-0.7641 I0. J0.0625
Y4.9835 Z-0.7675 I0. J-0.0625
Y5.1085 Z-0.7709 I0. J0.0625
Y4.9835 Z-0.7743 I0. J-0.0625
Y5.1085 Z-0.7778 I0. J0.0625
Y4.9835 Z-0.7812 I0. J-0.0625
Y5.1085 Z-0.7846 I0. J0.0625
Y4.9835 Z-0.788 I0. J-0.0625
Y5.1085 Z-0.7915 I0. J0.0625
Y4.9835 Z-0.7949 I0. J-0.0625
Y5.1085 Z-0.7983 I0. J0.0625
X4.0391 Y5.0484 Z-0.8 I0. J-0.0625
X4.1015 Y4.9835 I0.0625 J-0.0024 F60.
Y5.1085 I0. J0.0625
X4.0391 Y5.0484 I0. J-0.0625
X4.0631 Y5.0224 I0.025 J-0.0009
G1 X4.0881 Y5.0215
X4.092 Y5.0213 Z-0.7997
X4.0958 Y5.0212 Z-0.7988
X4.0994 Y5.0211 Z-0.7973
X4.1028 Y5.0209 Z-0.7952
X4.1057 Y5.0208 Z-0.7927
X4.1083 Y5.0207 Z-0.7897
X4.1103 Z-0.7863
X4.1118 Y5.0206 Z-0.7827
X4.1128 Z-0.7789
X4.1131 Y5.0205 Z-0.775
G0 Z0.2
X1.706 Y1.778
G1 Z0.1644 F13.3
Z0.125
X1.7058 Y1.7778 Z0.1211 F60.
X1.7051 Y1.7772 Z0.1173
X1.704 Y1.7763 Z0.1137
X1.7024 Y1.7749 Z0.1103
X1.7005 Y1.7732 Z0.1073
X1.6982 Y1.7713 Z0.1048
X1.6957 Y1.7691 Z0.1027
X1.693 Y1.7667 Z0.1012
X1.6901 Y1.7642 Z0.1003
X1.6871 Y1.7617 Z0.1
X1.6683 Y1.7453
G3 X1.6658 Y1.71 I0.0164 J-0.0189
X2.3342 Y2.29 Z0.0757 I0.3342 J0.29 F30.
X1.6658 Y1.71 Z0.0515 I-0.3342 J-0.29
X2.3342 Y2.29 Z0.0272 I0.3342 J0.29
X1.6658 Y1.71 Z0.0029 I-0.3342 J-0.29
X2.3342 Y2.29 Z-0.0213 I0.3342 J0.29
X1.6658 Y1.71 Z-0.0456 I-0.3342 J-0.29
X2.3342 Y2.29 Z-0.0699 I0.3342 J0.29
X1.6658 Y1.71 Z-0.0941 I-0.3342 J-0.29
X2.3342 Y2.29 Z-0.1184 I0.3342 J0.29
X2. Y2.4425 Z-0.125 I-0.3342 J-0.29
Y1.5575 I0. J-0.4425 F60.
Y2.4425 I0. J0.4425
Y1.5575 Z-0.1493 I0. J-0.4425 F30.
Y2.4425 Z-0.1735 I0. J0.4425
Y1.5575 Z-0.1978 I0. J-0.4425
Y2.4425 Z-0.2221 I0. J0.4425
Y1.5575 Z-0.2463 I0. J-0.4425
X2.2026 Y1.6066 Z-0.25 I0. J0.4425
X1.7974 Y2.3934 I-0.2026 J0.3934 F60.
X2.2026 Y1.6066 I0.2026 J-0.3934
X1.7974 Y2.3934 Z-0.2743 I-0.2026 J0.3934 F30.
X2.2026 Y1.6066 Z-0.2985 I0.2026 J-0.3934
X1.7974 Y2.3934 Z-0.3228 I-0.2026 J0.3934
X2.2026 Y1.6066 Z-0.3471 I0.2026 J-0.3934
X1.7974 Y2.3934 Z-0.3713 I-0.2026 J0.3934
X1.6397 Y2.2569 Z-0.375 I0.2026 J-0.3934
X2.3603 Y1.7431 I0.3603 J-0.2569 F60.
X1.6397 Y2.2569 I-0.3603 J0.2569
X2.3603 Y1.7431 Z-0.3993 I0.3603 J-0.2569 F30.
X1.6397 Y2.2569 Z-0.4235 I-0.3603 J0.2569
X2.3603 Y1.7431 Z-0.4478 I0.3603 J-0.2569
X1.6397 Y2.2569 Z-0.4721 I-0.3603 J0.2569
X2.3603 Y1.7431 Z-0.4963 I0.3603 J-0.2569
X2.4379 Y1.9366 Z-0.5 I-0.3603 J0.2569
X1.5621 Y2.0634 I-0.4379 J0.0634 F60.
X2.4379 Y1.9366 I0.4379 J-0.0634
X1.5621 Y2.0634 Z-0.5243 I-0.4379 J0.0634 F30.
X2.4379 Y1.9366 Z-0.5485 I0.4379 J-0.0634
X1.5621 Y2.0634 Z-0.5728 I-0.4379 J0.0634
X2.4379 Y1.9366 Z-0.5971 I0.4379 J-0.0634
X1.5621 Y2.0634 Z-0.6213 I-0.4379 J0.0634
X1.5816 Y1.8559 Z-0.625 I0.4379 J-0.0634
X2.4184 Y2.1441 I0.4184 J0.1441 F60.
X1.5816 Y1.8559 I-0.4184 J-0.1441
X2.4184 Y2.1441 Z-0.6493 I0.4184 J0.1441 F30.
X1.5816 Y1.8559 Z-0.6735 I-0.4184 J-0.1441
X1.8636 Y1.579 Z-0.6807 I0.4184 J0.1441
X1.875 Y1.5755 Z-0.675 I0.1364 J0.421
X2.125 I0.125 J0.4245
X2.1464 Y1.5824 Z-0.6857 I-0.125 J0.4245 F13.3
X1.8536 Y2.4176 Z-0.71 I-0.1464 J0.4176 F30.
X1.7702 Y1.6219 Z-0.7274 I0.1464 J-0.4176
X1.8031 Y1.6037 Z-0.7109 I0.2298 J0.3781
X1.8375 Y1.5884 Z-0.6938 I0.1969 J0.3963
X1.873 Y1.5761 Z-0.676 I0.1625 J0.4116
G1 X1.875 Y1.5755 Z-0.675
G3 X2.125 I0.125 J0.4245
X2.1606 Y1.5877 Z-0.6928 I-0.125 J0.4245 F13.3
X2.195 Y1.6028 Z-0.71 I-0.1606 J0.4123
X2.2281 Y1.6208 Z-0.7265 I-0.195 J0.3972
X2.2474 Y1.6331 Z-0.7362 I-0.2281 J0.3792
X2.3059 Y2.3197 Z-0.75 I-0.2474 J0.3669 F30.
X1.6665 Y2.2908 I-0.3059 J-0.3197 F60.
X1.725 Y1.6533 I0.3335 J-0.2908
X1.7554 Y1.6312 Z-0.7348 I0.275 J0.3467
X1.7877 Y1.6118 Z-0.7187 I0.2446 J0.3688
X1.8214 Y1.5951 Z-0.7018 I0.2123 J0.3882
X1.8564 Y1.5814 Z-0.6843 I0.1786 J0.4049
X1.875 Y1.5755 Z-0.675 I0.1436 J0.4186
X2.125 I0.125 J0.4245
X2.1606 Y1.5877 Z-0.6928 I-0.125 J0.4245 F13.3
X2.195 Y1.6028 Z-0.71 I-0.1606 J0.4123
X2.2281 Y1.6208 Z-0.7265 I-0.195 J0.3972
X2.2595 Y1.6416 Z-0.7422 I-0.2281 J0.3792
X2.275 Y1.6533 Z-0.75 I-0.2595 J0.3584
X2.3059 Y2.3197 I-0.275 J0.3467 F60.
X1.6773 Y1.6972 Z-0.7738 I-0.3059 J-0.3197 F30.
X1.7042 Y1.6709 Z-0.7604 I0.3227 J0.3028
X1.7332 Y1.647 Z-0.7459 I0.2958 J0.3291
X1.7642 Y1.6256 Z-0.7304 I0.2668 J0.353
X1.7968 Y1.6069 Z-0.7141 I0.2358 J0.3744
X1.8309 Y1.5911 Z-0.697 I0.2032 J0.3931
X1.8663 Y1.5782 Z-0.6794 I0.1691 J0.4089
G1 X1.875 Y1.5755 Z-0.675
G3 X2.125 I0.125 J0.4245
X2.1606 Y1.5877 Z-0.6928 I-0.125 J0.4245 F13.3
X2.195 Y1.6028 Z-0.71 I-0.1606 J0.4123
X2.2281 Y1.6208 Z-0.7265 I-0.195 J0.3972
X2.2595 Y1.6416 Z-0.7422 I-0.2281 J0.3792
X2.289 Y1.6649 Z-0.757 I-0.2595 J0.3584
X2.3164 Y1.6906 Z-0.7707 I-0.289 J0.3351
X2.332 Y1.7075 Z-0.7785 I-0.3164 J0.3094
G1 Z-0.7867
G3 X2.24 Y2.3718 Z-0.8 I-0.332 J0.2925 F30.
X1.668 Y1.7075 I-0.24 J-0.3718 F60.
G1 Z-0.7785
G3 X1.694 Y1.6804 Z-0.7655 I0.332 J0.2925
X1.7223 Y1.6555 Z-0.7514 I0.306 J0.3196
X1.7525 Y1.6332 Z-0.7362 I0.2777 J0.3445
X1.7846 Y1.6135 Z-0.7202 I0.2475 J0.3668
X1.8182 Y1.5966 Z-0.7034 I0.2154 J0.3865
X1.8531 Y1.5826 Z-0.6859 I0.1818 J0.4034
X1.875 Y1.5755 Z-0.675 I0.1469 J0.4174
X2.125 I0.125 J0.4245
X2.1606 Y1.5877 Z-0.6928 I-0.125 J0.4245 F13.3
X2.195 Y1.6028 Z-0.71 I-0.1606 J0.4123
X2.2281 Y1.6208 Z-0.7265 I-0.195 J0.3972
X2.2595 Y1.6416 Z-0.7422 I-0.2281 J0.3792
X2.289 Y1.6649 Z-0.757 I-0.2595 J0.3584
X2.3164 Y1.6906 Z-0.7707 I-0.289 J0.3351
X2.332 Y1.7075 Z-0.7785 I-0.3164 J0.3094
G1 Z-0.8
G3 X2.24 Y2.3718 I-0.332 J0.2925 F60.
X2.2054 Y2.3643 I-0.0136 J-0.021
G1 X2.1918 Y2.3433
X2.1897 Y2.3401 Z-0.7997
X2.1876 Y2.3368 Z-0.7988
X2.1857 Y2.3338 Z-0.7973
X2.1839 Y2.331 Z-0.7952
X2.1822 Y2.3285 Z-0.7927
X2.1809 Y2.3263 Z-0.7897
X2.1798 Y2.3246 Z-0.7863
X2.1789 Y2.3234 Z-0.7827
X2.1784 Y2.3226 Z-0.7789
X2.1783 Y2.3223 Z-0.775
G0 Z0.2
X11.2126 Y23.6379
G1 Z0.1644 F13.3
Z0.125
X11.2124 Y23.6381 Z0.1211 F60.
X11.2118 Y23.6388 Z0.1173
X11.2108 Y23.64 Z0.1137
X11.2095 Y23.6415 Z0.1103
X11.2078 Y23.6434 Z0.1073
X11.2059 Y23.6457 Z0.1048
X11.2037 Y23.6482 Z0.1027
X11.2013 Y23.651 Z0.1012
X11.1988 Y23.6538 Z0.1003
X11.1962 Y23.6568 Z0.1
X11.1799 Y23.6757
G3 X11.1446 Y23.6782 I-0.0189 J-0.0164
X11.4343 Y22.9013 Z0.0812 I0.2897 J-0.3345 F30.
Y23.7863 Z0.057 I0. J0.4425
Y22.9013 Z0.0327 I0. J-0.4425
Y23.7863 Z0.0085 I0. J0.4425
Y22.9013 Z-0.0158 I0. J-0.4425
Y23.7863 Z-0.0401 I0. J0.4425
Y22.9013 Z-0.0643 I0. J-0.4425
Y23.7863 Z-0.0886 I0. J0.4425
Y22.9013 Z-0.1129 I0. J-0.4425
X11.8768 Y23.3438 Z-0.125 I0. J0.4425
X11.4343 Y23.7863 I-0.4425 J0. F60.
Y22.9013 I0. J-0.4425
X11.8768 Y23.3438 I0. J0.4425
X11.4343 Y23.7863 Z-0.1371 I-0.4425 J0. F30.
Y22.9013 Z-0.1614 I0. J-0.4425
Y23.7863 Z-0.1857 I0. J0.4425
Y22.9013 Z-0.2099 I0. J-0.4425
Y23.7863 Z-0.2342 I0. J0.4425
X11.0411 Y23.1409 Z-0.25 I0. J-0.4425
X11.4343 Y22.9013 I0.3933 J0.2028 F60.
Y23.7863 I0. J0.4425
X11.0411 Y23.1409 I0. J-0.4425
X11.4343 Y22.9013 Z-0.2585 I0.3933 J0.2028 F30.
Y23.7863 Z-0.2827 I0. J0.4425
Y22.9013 Z-0.307 I0. J-0.4425
Y23.7863 Z-0.3312 I0. J0.4425
Y22.9013 Z-0.3555 I0. J-0.4425
X11.6909 Y23.7043 Z-0.375 I0. J0.4425
X11.4343 Y23.7863 I-0.2566 J-0.3605 F60.
Y22.9013 I0. J-0.4425
X11.6909 Y23.7043 I0. J0.4425
X11.4343 Y23.7863 Z-0.3798 I-0.2566 J-0.3605 F30.
Y22.9013 Z-0.404 I0. J-0.4425
Y23.7863 Z-0.4283 I0. J0.4425
Y22.9013 Z-0.4526 I0. J-0.4425
Y23.7863 Z-0.4768 I0. J0.4425
X11.3715 Y22.9057 Z-0.5 I0. J-0.4425
X11.4343 Y22.9013 I0.0628 J0.438 F60.
Y23.7863 I0. J0.4425
X11.3715 Y22.9057 I0. J-0.4425
X11.4343 Y22.9013 Z-0.5011 I0.0628 J0.438 F30.
Y23.7863 Z-0.5254 I0. J0.4425
Y22.9013 Z-0.5496 I0. J-0.4425
Y23.7863 Z-0.5739 I0. J0.4425
Y22.9013 Z-0.5982 I0. J-0.4425
Y23.7863 Z-0.6224 I0. J0.4425
X11.2894 Y23.7619 Z-0.625 I0. J-0.4425
X11.4343 Y22.9013 I0.1449 J-0.4181 F60.
Y23.7863 I0. J0.4425
X11.2894 Y23.7619 I0. J-0.4425
X11.4343 Y22.9013 Z-0.6467 I0.1449 J-0.4181 F30.
Y23.7863 Z-0.671 I0. J0.4425
X11.2746 Y22.9311 Z-0.6924 I0. J-0.4425
X11.3093 Y22.9193 Z-0.675 I0.1597 J0.4127
X11.4343 Y22.9013 I0.125 J0.4245
X11.5593 Y22.9193 I0. J0.4425
X11.5949 Y22.9314 Z-0.6928 I-0.125 J0.4245 F13.3
X11.6059 Y22.9359 Z-0.6983 I-0.1606 J0.4123
X11.4343 Y23.7863 Z-0.7195 I-0.1716 J0.4079 F30.
X11.1812 Y22.9808 Z-0.739 I0. J-0.4425
X11.213 Y22.9606 Z-0.7232 I0.2531 J0.363
X11.2463 Y22.9432 Z-0.7065 I0.2214 J0.3832
X11.281 Y22.9287 Z-0.6891 I0.188 J0.4006
X11.3093 Y22.9193 Z-0.675 I0.1533 J0.4151
X11.4343 Y22.9013 I0.125 J0.4245
X11.5593 Y22.9193 I0. J0.4425
X11.5949 Y22.9314 Z-0.6928 I-0.125 J0.4245 F13.3
X11.6294 Y22.9466 Z-0.71 I-0.1606 J0.4123
X11.6624 Y22.9646 Z-0.7265 I-0.1951 J0.3972
X11.6938 Y22.9853 Z-0.7422 I-0.2281 J0.3792
X11.7071 Y22.9953 Z-0.7489 I-0.2595 J0.3584
X11.7547 Y23.0386 Z-0.75 I-0.2728 J0.3484 F30.
X11.4343 Y23.7863 I-0.3204 J0.3052 F60.
X11.1593 Y22.9971 I0. J-0.4425
X11.1898 Y22.975 Z-0.7348 I0.275 J0.3467
X11.222 Y22.9556 Z-0.7187 I0.2446 J0.3688
X11.2557 Y22.9389 Z-0.7018 I0.2124 J0.3882
X11.2908 Y22.9252 Z-0.6843 I0.1786 J0.4048
X11.3093 Y22.9193 Z-0.675 I0.1436 J0.4186
X11.4343 Y22.9013 I0.125 J0.4245
X11.5593 Y22.9193 I0. J0.4425
X11.5949 Y22.9314 Z-0.6928 I-0.125 J0.4245 F13.3
X11.6294 Y22.9466 Z-0.71 I-0.1606 J0.4123
X11.6624 Y22.9646 Z-0.7265 I-0.1951 J0.3972
X11.6938 Y22.9853 Z-0.7422 I-0.2281 J0.3792
X11.7093 Y22.9971 Z-0.75 I-0.2595 J0.3584
X11.7547 Y23.0386 I-0.275 J0.3467 F60.
X11.4343 Y23.7863 Z-0.768 I-0.3204 J0.3052 F30.
X11.1023 Y23.0513 Z-0.7857 I0. J-0.4425
G1 Z-0.7785
G3 X11.1284 Y23.0241 Z-0.7655 I0.332 J0.2925
X11.1566 Y22.9993 Z-0.7514 I0.306 J0.3196
X11.1869 Y22.9769 Z-0.7362 I0.2777 J0.3445
X11.2189 Y22.9572 Z-0.7202 I0.2475 J0.3668
X11.2525 Y22.9403 Z-0.7034 I0.2154 J0.3865
X11.2875 Y22.9263 Z-0.6859 I0.1818 J0.4034
X11.3093 Y22.9193 Z-0.675 I0.1469 J0.4174
X11.4343 Y22.9013 I0.125 J0.4245
X11.5593 Y22.9193 I0. J0.4425
X11.5949 Y22.9314 Z-0.6928 I-0.125 J0.4245 F13.3
X11.6294 Y22.9466 Z-0.71 I-0.1606 J0.4123
X11.6624 Y22.9646 Z-0.7265 I-0.1951 J0.3972
X11.6938 Y22.9853 Z-0.7422 I-0.2281 J0.3792
X11.7233 Y23.0087 Z-0.757 I-0.2595 J0.3584
X11.7507 Y23.0344 Z-0.7707 I-0.289 J0.3351
G1 X11.7547 Y23.0386 Z-0.7727
G3 X11.7664 Y23.0513 Z-0.7785 I-0.3204 J0.3052
G1 Z-0.7988
G3 X11.8067 Y23.1047 Z-0.8 I-0.332 J0.2925 F30.
X11.4343 Y23.7863 I-0.3724 J0.239 F60.
X11.1023 Y23.0513 I0. J-0.4425
G1 Z-0.7785
G3 X11.1284 Y23.0241 Z-0.7655 I0.332 J0.2925
X11.1566 Y22.9993 Z-0.7514 I0.306 J0.3196
X11.1869 Y22.9769 Z-0.7362 I0.2777 J0.3445
X11.2189 Y22.9572 Z-0.7202 I0.2475 J0.3668
X11.2525 Y22.9403 Z-0.7034 I0.2154 J0.3865
X11.2875 Y22.9263 Z-0.6859 I0.1818 J0.4034
X11.3093 Y22.9193 Z-0.675 I0.1469 J0.4174
X11.4343 Y22.9013 I0.125 J0.4245
X11.5593 Y22.9193 I0. J0.4425
X11.5949 Y22.9314 Z-0.6928 I-0.125 J0.4245 F13.3
X11.6294 Y22.9466 Z-0.71 I-0.1606 J0.4123
X11.6624 Y22.9646 Z-0.7265 I-0.1951 J0.3972
X11.6938 Y22.9853 Z-0.7422 I-0.2281 J0.3792
X11.7233 Y23.0087 Z-0.757 I-0.2595 J0.3584
X11.7507 Y23.0344 Z-0.7707 I-0.289 J0.3351
G1 X11.7547 Y23.0386 Z-0.7727
G3 X11.7664 Y23.0513 Z-0.7785 I-0.3204 J0.3052
G1 Z-0.8
G3 X11.8067 Y23.1047 I-0.332 J0.2925 F60.
X11.7992 Y23.1393 I-0.021 J0.0135
G1 X11.7781 Y23.1528
X11.7748 Y23.1549 Z-0.7997
X11.7716 Y23.157 Z-0.7988
X11.7686 Y23.1589 Z-0.7973
X11.7658 Y23.1607 Z-0.7952
X11.7633 Y23.1623 Z-0.7927
X11.7611 Y23.1637 Z-0.7897
X11.7594 Y23.1648 Z-0.7863
X11.7581 Y23.1656 Z-0.7827
X11.7574 Y23.1661 Z-0.7789
X11.7571 Y23.1663 Z-0.775
G0 Z0.2
X8.6097 Y25.6928
G1 Z0.1644 F13.3
Z0.125
X8.6098 Y25.693 Z0.1211 F60.
X8.6103 Y25.6938 Z0.1173
X8.611 Y25.6951 Z0.1137
X8.612 Y25.6969 Z0.1103
X8.6133 Y25.6991 Z0.1073
X8.6147 Y25.7017 Z0.1048
X8.6164 Y25.7047 Z0.1027
X8.6181 Y25.7078 Z0.1012
X8.62 Y25.7112 Z0.1003
X8.6219 Y25.7146 Z0.1
X8.6341 Y25.7364
G3 X8.6246 Y25.7704 I-0.0218 J0.0122
X8.594 Y25.7784 Z0.0994 I-0.0306 J-0.0545 F30.
Y25.6534 Z0.096 I0. J-0.0625
Y25.7784 Z0.0926 I0. J0.0625
Y25.6534 Z0.0892 I0. J-0.0625
Y25.7784 Z0.0857 I0. J0.0625
Y25.6534 Z0.0823 I0. J-0.0625
Y25.7784 Z0.0789 I0. J0.0625
Y25.6534 Z0.0755 I0. J-0.0625
Y25.7784 Z0.072 I0. J0.0625
Y25.6534 Z0.0686 I0. J-0.0625
Y25.7784 Z0.0652 I0. J0.0625
Y25.6534 Z0.0618 I0. J-0.0625
Y25.7784 Z0.0583 I0. J0.0625
Y25.6534 Z0.0549 I0. J-0.0625
Y25.7784 Z0.0515 I0. J0.0625
Y25.6534 Z0.048 I0. J-0.0625
Y25.7784 Z0.0446 I0. J0.0625
Y25.6534 Z0.0412 I0. J-0.0625
Y25.7784 Z0.0378 I0. J0.0625
Y25.6534 Z0.0343 I0. J-0.0625
Y25.7784 Z0.0309 I0. J0.0625
Y25.6534 Z0.0275 I0. J-0.0625
Y25.7784 Z0.0241 I0. J0.0625
Y25.6534 Z0.0206 I0. J-0.0625
Y25.7784 Z0.0172 I0. J0.0625
Y25.6534 Z0.0138 I0. J-0.0625
Y25.7784 Z0.0104 I0. J0.0625
Y25.6534 Z0.0069 I0. J-0.0625
Y25.7784 Z0.0035 I0. J0.0625
Y25.6534 Z0.0001 I0. J-0.0625
Y25.7784 Z-0.0034 I0. J0.0625
Y25.6534 Z-0.0068 I0. J-0.0625
Y25.7784 Z-0.0102 I0. J0.0625
Y25.6534 Z-0.0136 I0. J-0.0625
Y25.7784 Z-0.0171 I0. J0.0625
Y25.6534 Z-0.0205 I0. J-0.0625
Y25.7784 Z-0.0239 I0. J0.0625
Y25.6534 Z-0.0273 I0. J-0.0625
Y25.7784 Z-0.0308 I0. J0.0625
Y25.6534 Z-0.0342 I0. J-0.0625
Y25.7784 Z-0.0376 I0. J0.0625
Y25.6534 Z-0.041 I0. J-0.0625
Y25.7784 Z-0.0445 I0. J0.0625
Y25.6534 Z-0.0479 I0. J-0.0625
Y25.7784 Z-0.0513 I0. J0.0625
Y25.6534 Z-0.0548 I0. J-0.0625
Y25.7784 Z-0.0582 I0. J0.0625
Y25.6534 Z-0.0616 I0. J-0.0625
Y25.7784 Z-0.065 I0. J0.0625
Y25.6534 Z-0.0685 I0. J-0.0625
Y25.7784 Z-0.0719 I0. J0.0625
Y25.6534 Z-0.0753 I0. J-0.0625
Y25.7784 Z-0.0787 I0. J0.0625
Y25.6534 Z-0.0822 I0. J-0.0625
Y25.7784 Z-0.0856 I0. J0.0625
Y25.6534 Z-0.089 I0. J-0.0625
Y25.7784 Z-0.0924 I0. J0.0625
Y25.6534 Z-0.0959 I0. J-0.0625
Y25.7784 Z-0.0993 I0. J0.0625
Y25.6534 Z-0.1027 I0. J-0.0625
Y25.7784 Z-0.1062 I0. J0.0625
Y25.6534 Z-0.1096 I0. J-0.0625
Y25.7784 Z-0.113 I0. J0.0625
Y25.6534 Z-0.1164 I0. J-0.0625
Y25.7784 Z-0.1199 I0. J0.0625
Y25.6534 Z-0.1233 I0. J-0.0625
X8.6565 Y25.7159 Z-0.125 I0. J0.0625
X8.594 Y25.7784 I-0.0625 J0. F60.
Y25.6534 I0. J-0.0625
X8.6565 Y25.7159 I0. J0.0625
X8.594 Y25.7784 Z-0.1267 I-0.0625 J0. F30.
Y25.6534 Z-0.1301 I0. J-0.0625
Y25.7784 Z-0.1336 I0. J0.0625
Y25.6534 Z-0.137 I0. J-0.0625
Y25.7784 Z-0.1404 I0. J0.0625
Y25.6534 Z-0.1438 I0. J-0.0625
Y25.7784 Z-0.1473 I0. J0.0625
Y25.6534 Z-0.1507 I0. J-0.0625
Y25.7784 Z-0.1541 I0. J0.0625
Y25.6534 Z-0.1576 I0. J-0.0625
Y25.7784 Z-0.161 I0. J0.0625
Y25.6534 Z-0.1644 I0. J-0.0625
Y25.7784 Z-0.1678 I0. J0.0625
Y25.6534 Z-0.1713 I0. J-0.0625
Y25.7784 Z-0.1747 I0. J0.0625
Y25.6534 Z-0.1781 I0. J-0.0625
Y25.7784 Z-0.1815 I0. J0.0625
Y25.6534 Z-0.185 I0. J-0.0625
Y25.7784 Z-0.1884 I0. J0.0625
Y25.6534 Z-0.1918 I0. J-0.0625
Y25.7784 Z-0.1952 I0. J0.0625
Y25.6534 Z-0.1987 I0. J-0.0625
Y25.7784 Z-0.2021 I0. J0.0625
Y25.6534 Z-0.2055 I0. J-0.0625
Y25.7784 Z-0.209 I0. J0.0625
Y25.6534 Z-0.2124 I0. J-0.0625
Y25.7784 Z-0.2158 I0. J0.0625
Y25.6534 Z-0.2192 I0. J-0.0625
Y25.7784 Z-0.2227 I0. J0.0625
Y25.6534 Z-0.2261 I0. J-0.0625
Y25.7784 Z-0.2295 I0. J0.0625
Y25.6534 Z-0.2329 I0. J-0.0625
Y25.7784 Z-0.2364 I0. J0.0625
Y25.6534 Z-0.2398 I0. J-0.0625
Y25.7784 Z-0.2432 I0. J0.0625
Y25.6534 Z-0.2466 I0. J-0.0625
X8.5981 Y25.7783 Z-0.25 I0. J0.0625
G1 X8.594 Y25.7784 F60.
G3 Y25.6534 I0. J-0.0625
X8.5981 Y25.7783 I0. J0.0625
G1 X8.594 Y25.7784 Z-0.2501 F30.
G3 Y25.6534 Z-0.2535 I0. J-0.0625
Y25.7784 Z-0.2569 I0. J0.0625
Y25.6534 Z-0.2604 I0. J-0.0625
Y25.7784 Z-0.2638 I0. J0.0625
Y25.6534 Z-0.2672 I0. J-0.0625
Y25.7784 Z-0.2706 I0. J0.0625
Y25.6534 Z-0.2741 I0. J-0.0625
Y25.7784 Z-0.2775 I0. J0.0625
Y25.6534 Z-0.2809 I0. J-0.0625
Y25.7784 Z-0.2843 I0. J0.0625
Y25.6534 Z-0.2878 I0. J-0.0625
Y25.7784 Z-0.2912 I0. J0.0625
Y25.6534 Z-0.2946 I0. J-0.0625
Y25.7784 Z-0.298 I0. J0.0625
Y25.6534 Z-0.3015 I0. J-0.0625
Y25.7784 Z-0.3049 I0. J0.0625
Y25.6534 Z-0.3083 I0. J-0.0625
Y25.7784 Z-0.3117 I0. J0.0625
Y25.6534 Z-0.3152 I0. J-0.0625
Y25.7784 Z-0.3186 I0. J0.0625
Y25.6534 Z-0.322 I0. J-0.0625
Y25.7784 Z-0.3255 I0. J0.0625
Y25.6534 Z-0.3289 I0. J-0.0625
Y25.7784 Z-0.3323 I0. J0.0625
Y25.6534 Z-0.3357 I0. J-0.0625
Y25.7784 Z-0.3392 I0. J0.0625
Y25.6534 Z-0.3426 I0. J-0.0625
Y25.7784 Z-0.346 I0. J0.0625
Y25.6534 Z-0.3494 I0. J-0.0625
Y25.7784 Z-0.3529 I0. J0.0625
Y25.6534 Z-0.3563 I0. J-0.0625
Y25.7784 Z-0.3597 I0. J0.0625
Y25.6534 Z-0.3631 I0. J-0.0625
Y25.7784 Z-0.3666 I0. J0.0625
Y25.6534 Z-0.37 I0. J-0.0625
Y25.7784 Z-0.3734 I0. J0.0625
X8.5321 Y25.724 Z-0.375 I0. J-0.0625
X8.594 Y25.6534 I0.062 J-0.0081 F60.
Y25.7784 I0. J0.0625
X8.5321 Y25.724 I0. J-0.0625
X8.594 Y25.6534 Z-0.3769 I0.062 J-0.0081 F30.
Y25.7784 Z-0.3803 I0. J0.0625
Y25.6534 Z-0.3837 I0. J-0.0625
Y25.7784 Z-0.3871 I0. J0.0625
Y25.6534 Z-0.3906 I0. J-0.0625
Y25.7784 Z-0.394 I0. J0.0625
Y25.6534 Z-0.3974 I0. J-0.0625
Y25.7784 Z-0.4008 I0. J0.0625
Y25.6534 Z-0.4043 I0. J-0.0625
Y25.7784 Z-0.4077 I0. J0.0625
Y25.6534 Z-0.4111 I0. J-0.0625
Y25.7784 Z-0.4145 I0. J0.0625
Y25.6534 Z-0.418 I0. J-0.0625
Y25.7784 Z-0.4214 I0. J0.0625
Y25.6534 Z-0.4248 I0. J-0.0625
Y25.7784 Z-0.4283 I0. J0.0625
Y25.6534 Z-0.4317 I0. J-0.0625
Y25.7784 Z-0.4351 I0. J0.0625
Y25.6534 Z-0.4385 I0. J-0.0625
Y25.7784 Z-0.442 I0. J0.0625
Y25.6534 Z-0.4454 I0. J-0.0625
Y25.7784 Z-0.4488 I0. J0.0625
Y25.6534 Z-0.4522 I0. J-0.0625
Y25.7784 Z-0.4557 I0. J0.0625
Y25.6534 Z-0.4591 I0. J-0.0625
Y25.7784 Z-0.4625 I0. J0.0625
Y25.6534 Z-0.4659 I0. J-0.0625
Y25.7784 Z-0.4694 I0. J0.0625
Y25.6534 Z-0.4728 I0. J-0.0625
Y25.7784 Z-0.4762 I0. J0.0625
Y25.6534 Z-0.4797 I0. J-0.0625
Y25.7784 Z-0.4831 I0. J0.0625
Y25.6534 Z-0.4865 I0. J-0.0625
Y25.7784 Z-0.4899 I0. J0.0625
Y25.6534 Z-0.4934 I0. J-0.0625
Y25.7784 Z-0.4968 I0. J0.0625
X8.5819 Y25.6546 Z-0.5 I0. J-0.0625
X8.594 Y25.6534 I0.0122 J0.0613 F60.
Y25.7784 I0. J0.0625
X8.5819 Y25.6546 I0. J-0.0625
X8.594 Y25.6534 Z-0.5002 I0.0122 J0.0613 F30.
Y25.7784 Z-0.5036 I0. J0.0625
Y25.6534 Z-0.5071 I0. J-0.0625
Y25.7784 Z-0.5105 I0. J0.0625
Y25.6534 Z-0.5139 I0. J-0.0625
Y25.7784 Z-0.5173 I0. J0.0625
Y25.6534 Z-0.5208 I0. J-0.0625
Y25.7784 Z-0.5242 I0. J0.0625
Y25.6534 Z-0.5276 I0. J-0.0625
Y25.7784 Z-0.5311 I0. J0.0625
Y25.6534 Z-0.5345 I0. J-0.0625
Y25.7784 Z-0.5379 I0. J0.0625
Y25.6534 Z-0.5413 I0. J-0.0625
Y25.7784 Z-0.5448 I0. J0.0625
Y25.6534 Z-0.5482 I0. J-0.0625
Y25.7784 Z-0.5516 I0. J0.0625
Y25.6534 Z-0.555 I0. J-0.0625
Y25.7784 Z-0.5585 I0. J0.0625
Y25.6534 Z-0.5619 I0. J-0.0625
Y25.7784 Z-0.5653 I0. J0.0625
Y25.6534 Z-0.5687 I0. J-0.0625
Y25.7784 Z-0.5722 I0. J0.0625
Y25.6534 Z-0.5756 I0. J-0.0625
Y25.7784 Z-0.579 I0. J0.0625
Y25.6534 Z-0.5825 I0. J-0.0625
Y25.7784 Z-0.5859 I0. J0.0625
Y25.6534 Z-0.5893 I0. J-0.0625
Y25.7784 Z-0.5927 I0. J0.0625
Y25.6534 Z-0.5962 I0. J-0.0625
Y25.7784 Z-0.5996 I0. J0.0625
Y25.6534 Z-0.603 I0. J-0.0625
Y25.7784 Z-0.6064 I0. J0.0625
Y25.6534 Z-0.6099 I0. J-0.0625
Y25.7784 Z-0.6133 I0. J0.0625
Y25.6534 Z-0.6167 I0. J-0.0625
Y25.7784 Z-0.6201 I0. J0.0625
Y25.6534 Z-0.6236 I0. J-0.0625
X8.6544 Y25.6998 Z-0.625 I0. J0.0625
X8.594 Y25.7784 I-0.0604 J0.0161 F60.
Y25.6534 I0. J-0.0625
X8.6544 Y25.6998 I0. J0.0625
X8.594 Y25.7784 Z-0.627 I-0.0604 J0.0161 F30.
Y25.6534 Z-0.6304 I0. J-0.0625
Y25.7784 Z-0.6339 I0. J0.0625
Y25.6534 Z-0.6373 I0. J-0.0625
Y25.7784 Z-0.6407 I0. J0.0625
Y25.6534 Z-0.6441 I0. J-0.0625
Y25.7784 Z-0.6476 I0. J0.0625
Y25.6534 Z-0.651 I0. J-0.0625
Y25.7784 Z-0.6544 I0. J0.0625
Y25.6534 Z-0.6578 I0. J-0.0625
Y25.7784 Z-0.6613 I0. J0.0625
Y25.6534 Z-0.6647 I0. J-0.0625
Y25.7784 Z-0.6681 I0. J0.0625
Y25.6534 Z-0.6715 I0. J-0.0625
Y25.7784 Z-0.675 I0. J0.0625
Y25.6534 Z-0.6784 I0. J-0.0625
Y25.7784 Z-0.6818 I0. J0.0625
Y25.6534 Z-0.6853 I0. J-0.0625
Y25.7784 Z-0.6887 I0. J0.0625
Y25.6534 Z-0.6921 I0. J-0.0625
Y25.7784 Z-0.6955 I0. J0.0625
Y25.6534 Z-0.699 I0. J-0.0625
Y25.7784 Z-0.7024 I0. J0.0625
Y25.6534 Z-0.7058 I0. J-0.0625
Y25.7784 Z-0.7092 I0. J0.0625
Y25.6534 Z-0.7127 I0. J-0.0625
Y25.7784 Z-0.7161 I0. J0.0625
Y25.6534 Z-0.7195 I0. J-0.0625
Y25.7784 Z-0.7229 I0. J0.0625
Y25.6534 Z-0.7264 I0. J-0.0625
Y25.7784 Z-0.7298 I0. J0.0625
Y25.6534 Z-0.7332 I0. J-0.0625
Y25.7784 Z-0.7366 I0. J0.0625
Y25.6534 Z-0.7401 I0. J-0.0625
Y25.7784 Z-0.7435 I0. J0.0625
Y25.6534 Z-0.7469 I0. J-0.0625
X8.614 Y25.7751 Z-0.75 I0. J0.0625
X8.594 Y25.7784 I-0.02 J-0.0592 F60.
Y25.6534 I0. J-0.0625
X8.614 Y25.7751 I0. J0.0625
X8.594 Y25.7784 Z-0.7504 I-0.02 J-0.0592 F30.
Y25.6534 Z-0.7538 I0. J-0.0625
Y25.7784 Z-0.7572 I0. J0.0625
Y25.6534 Z-0.7606 I0. J-0.0625
Y25.7784 Z-0.7641 I0. J0.0625
Y25.6534 Z-0.7675 I0. J-0.0625
Y25.7784 Z-0.7709 I0. J0.0625
Y25.6534 Z-0.7743 I0. J-0.0625
Y25.7784 Z-0.7778 I0. J0.0625
Y25.6534 Z-0.7812 I0. J-0.0625
Y25.7784 Z-0.7846 I0. J0.0625
Y25.6534 Z-0.788 I0. J-0.0625
Y25.7784 Z-0.7915 I0. J0.0625
Y25.6534 Z-0.7949 I0. J-0.0625
Y25.7784 Z-0.7983 I0. J0.0625
X8.5316 Y25.7183 Z-0.8 I0. J-0.0625
X8.594 Y25.6534 I0.0625 J-0.0024 F60.
Y25.7784 I0. J0.0625
X8.5316 Y25.7183 I0. J-0.0625
X8.5556 Y25.6923 I0.025 J-0.0009
G1 X8.5806 Y25.6914
X8.5845 Y25.6912 Z-0.7997
X8.5883 Y25.6911 Z-0.7988
X8.5919 Y25.6909 Z-0.7973
X8.5953 Y25.6908 Z-0.7952
X8.5983 Y25.6907 Z-0.7927
X8.6008 Y25.6906 Z-0.7897
X8.6029 Y25.6905 Z-0.7863
X8.6044 Z-0.7827
X8.6053 Y25.6904 Z-0.7789
X8.6056 Z-0.775
G0 Z0.2
X7.4866 Y26.9242
G1 Z0.1644 F13.3
Z0.125
X7.4867 Y26.9244 Z0.1211 F60.
X7.4872 Y26.9252 Z0.1173
X7.4879 Y26.9266 Z0.1137
X7.4889 Y26.9283 Z0.1103
X7.4902 Y26.9306 Z0.1073
X7.4916 Y26.9332 Z0.1048
X7.4933 Y26.9361 Z0.1027
X7.495 Y26.9392 Z0.1012
X7.4969 Y26.9426 Z0.1003
X7.4988 Y26.946 Z0.1
X7.511 Y26.9678
G3 X7.5015 Y27.0018 I-0.0218 J0.0122
X7.4709 Y27.0098 Z0.0994 I-0.0306 J-0.0545 F30.
Y26.8848 Z0.096 I0. J-0.0625
Y27.0098 Z0.0926 I0. J0.0625
Y26.8848 Z0.0892 I0. J-0.0625
Y27.0098 Z0.0857 I0. J0.0625
Y26.8848 Z0.0823 I0. J-0.0625
Y27.0098 Z0.0789 I0. J0.0625
Y26.8848 Z0.0755 I0. J-0.0625
Y27.0098 Z0.072 I0. J0.0625
Y26.8848 Z0.0686 I0. J-0.0625
Y27.0098 Z0.0652 I0. J0.0625
Y26.8848 Z0.0618 I0. J-0.0625
Y27.0098 Z0.0583 I0. J0.0625
Y26.8848 Z0.0549 I0. J-0.0625
Y27.0098 Z0.0515 I0. J0.0625
Y26.8848 Z0.048 I0. J-0.0625
Y27.0098 Z0.0446 I0. J0.0625
Y26.8848 Z0.0412 I0. J-0.0625
Y27.0098 Z0.0378 I0. J0.0625
Y26.8848 Z0.0343 I0. J-0.0625
Y27.0098 Z0.0309 I0. J0.0625
Y26.8848 Z0.0275 I0. J-0.0625
Y27.0098 Z0.0241 I0. J0.0625
Y26.8848 Z0.0206 I0. J-0.0625
Y27.0098 Z0.0172 I0. J0.0625
Y26.8848 Z0.0138 I0. J-0.0625
Y27.0098 Z0.0104 I0. J0.0625
Y26.8848 Z0.0069 I0. J-0.0625
Y27.0098 Z0.0035 I0. J0.0625
Y26.8848 Z0.0001 I0. J-0.0625
Y27.0098 Z-0.0034 I0. J0.0625
Y26.8848 Z-0.0068 I0. J-0.0625
Y27.0098 Z-0.0102 I0. J0.0625
Y26.8848 Z-0.0136 I0. J-0.0625
Y27.0098 Z-0.0171 I0. J0.0625
Y26.8848 Z-0.0205 I0. J-0.0625
Y27.0098 Z-0.0239 I0. J0.0625
Y26.8848 Z-0.0273 I0. J-0.0625
Y27.0098 Z-0.0308 I0. J0.0625
Y26.8848 Z-0.0342 I0. J-0.0625
Y27.0098 Z-0.0376 I0. J0.0625
Y26.8848 Z-0.041 I0. J-0.0625
Y27.0098 Z-0.0445 I0. J0.0625
Y26.8848 Z-0.0479 I0. J-0.0625
Y27.0098 Z-0.0513 I0. J0.0625
Y26.8848 Z-0.0548 I0. J-0.0625
Y27.0098 Z-0.0582 I0. J0.0625
Y26.8848 Z-0.0616 I0. J-0.0625
Y27.0098 Z-0.065 I0. J0.0625
Y26.8848 Z-0.0685 I0. J-0.0625
Y27.0098 Z-0.0719 I0. J0.0625
Y26.8848 Z-0.0753 I0. J-0.0625
Y27.0098 Z-0.0787 I0. J0.0625
Y26.8848 Z-0.0822 I0. J-0.0625
Y27.0098 Z-0.0856 I0. J0.0625
Y26.8848 Z-0.089 I0. J-0.0625
Y27.0098 Z-0.0924 I0. J0.0625
Y26.8848 Z-0.0959 I0. J-0.0625
Y27.0098 Z-0.0993 I0. J0.0625
Y26.8848 Z-0.1027 I0. J-0.0625
Y27.0098 Z-0.1062 I0. J0.0625
Y26.8848 Z-0.1096 I0. J-0.0625
Y27.0098 Z-0.113 I0. J0.0625
Y26.8848 Z-0.1164 I0. J-0.0625
Y27.0098 Z-0.1199 I0. J0.0625
Y26.8848 Z-0.1233 I0. J-0.0625
X7.5334 Y26.9473 Z-0.125 I0. J0.0625
X7.4709 Y27.0098 I-0.0625 J0. F60.
Y26.8848 I0. J-0.0625
X7.5334 Y26.9473 I0. J0.0625
X7.4709 Y27.0098 Z-0.1267 I-0.0625 J0. F30.
Y26.8848 Z-0.1301 I0. J-0.0625
Y27.0098 Z-0.1336 I0. J0.0625
Y26.8848 Z-0.137 I0. J-0.0625
Y27.0098 Z-0.1404 I0. J0.0625
Y26.8848 Z-0.1438 I0. J-0.0625
Y27.0098 Z-0.1473 I0. J0.0625
Y26.8848 Z-0.1507 I0. J-0.0625
Y27.0098 Z-0.1541 I0. J0.0625
Y26.8848 Z-0.1576 I0. J-0.0625
Y27.0098 Z-0.161 I0. J0.0625
Y26.8848 Z-0.1644 I0. J-0.0625
Y27.0098 Z-0.1678 I0. J0.0625
Y26.8848 Z-0.1713 I0. J-0.0625
Y27.0098 Z-0.1747 I0. J0.0625
Y26.8848 Z-0.1781 I0. J-0.0625
Y27.0098 Z-0.1815 I0. J0.0625
Y26.8848 Z-0.185 I0. J-0.0625
Y27.0098 Z-0.1884 I0. J0.0625
Y26.8848 Z-0.1918 I0. J-0.0625
Y27.0098 Z-0.1952 I0. J0.0625
Y26.8848 Z-0.1987 I0. J-0.0625
Y27.0098 Z-0.2021 I0. J0.0625
Y26.8848 Z-0.2055 I0. J-0.0625
Y27.0098 Z-0.209 I0. J0.0625
Y26.8848 Z-0.2124 I0. J-0.0625
Y27.0098 Z-0.2158 I0. J0.0625
Y26.8848 Z-0.2192 I0. J-0.0625
Y27.0098 Z-0.2227 I0. J0.0625
Y26.8848 Z-0.2261 I0. J-0.0625
Y27.0098 Z-0.2295 I0. J0.0625
Y26.8848 Z-0.2329 I0. J-0.0625
Y27.0098 Z-0.2364 I0. J0.0625
Y26.8848 Z-0.2398 I0. J-0.0625
Y27.0098 Z-0.2432 I0. J0.0625
Y26.8848 Z-0.2466 I0. J-0.0625
X7.475 Y27.0097 Z-0.25 I0. J0.0625
G1 X7.4709 Y27.0098 F60.
G3 Y26.8848 I0. J-0.0625
X7.475 Y27.0097 I0. J0.0625
G1 X7.4709 Y27.0098 Z-0.2501 F30.
G3 Y26.8848 Z-0.2535 I0. J-0.0625
Y27.0098 Z-0.2569 I0. J0.0625
Y26.8848 Z-0.2604 I0. J-0.0625
Y27.0098 Z-0.2638 I0. J0.0625
Y26.8848 Z-0.2672 I0. J-0.0625
Y27.0098 Z-0.2706 I0. J0.0625
Y26.8848 Z-0.2741 I0. J-0.0625
Y27.0098 Z-0.2775 I0. J0.0625
Y26.8848 Z-0.2809 I0. J-0.0625
Y27.0098 Z-0.2843 I0. J0.0625
Y26.8848 Z-0.2878 I0. J-0.0625
Y27.0098 Z-0.2912 I0. J0.0625
Y26.8848 Z-0.2946 I0. J-0.0625
Y27.0098 Z-0.298 I0. J0.0625
Y26.8848 Z-0.3015 I0. J-0.0625
Y27.0098 Z-0.3049 I0. J0.0625
Y26.8848 Z-0.3083 I0. J-0.0625
Y27.0098 Z-0.3117 I0. J0.0625
Y26.8848 Z-0.3152 I0. J-0.0625
Y27.0098 Z-0.3186 I0. J0.0625
Y26.8848 Z-0.322 I0. J-0.0625
Y27.0098 Z-0.3255 I0. J0.0625
Y26.8848 Z-0.3289 I0. J-0.0625
Y27.0098 Z-0.3323 I0. J0.0625
Y26.8848 Z-0.3357 I0. J-0.0625
Y27.0098 Z-0.3392 I0. J0.0625
Y26.8848 Z-0.3426 I0. J-0.0625
Y27.0098 Z-0.346 I0. J0.0625
Y26.8848 Z-0.3494 I0. J-0.0625
Y27.0098 Z-0.3529 I0. J0.0625
Y26.8848 Z-0.3563 I0. J-0.0625
Y27.0098 Z-0.3597 I0. J0.0625
Y26.8848 Z-0.3631 I0. J-0.0625
Y27.0098 Z-0.3666 I0. J0.0625
Y26.8848 Z-0.37 I0. J-0.0625
Y27.0098 Z-0.3734 I0. J0.0625
X7.409 Y26.9554 Z-0.375 I0. J-0.0625
X7.4709 Y26.8848 I0.062 J-0.0081 F60.
Y27.0098 I0. J0.0625
X7.409 Y26.9554 I0. J-0.0625
G1 X7.4086 Y26.9514 Z-0.3751 F30.
X7.4084 Y26.9473
G3 X7.4709 Y26.8848 Z-0.3769 I0.0625 J0.
Y27.0098 Z-0.3803 I0. J0.0625
Y26.8848 Z-0.3837 I0. J-0.0625
Y27.0098 Z-0.3871 I0. J0.0625
Y26.8848 Z-0.3906 I0. J-0.0625
Y27.0098 Z-0.394 I0. J0.0625
Y26.8848 Z-0.3974 I0. J-0.0625
Y27.0098 Z-0.4008 I0. J0.0625
Y26.8848 Z-0.4043 I0. J-0.0625
Y27.0098 Z-0.4077 I0. J0.0625
Y26.8848 Z-0.4111 I0. J-0.0625
Y27.0098 Z-0.4145 I0. J0.0625
Y26.8848 Z-0.418 I0. J-0.0625
Y27.0098 Z-0.4214 I0. J0.0625
Y26.8848 Z-0.4248 I0. J-0.0625
Y27.0098 Z-0.4283 I0. J0.0625
Y26.8848 Z-0.4317 I0. J-0.0625
Y27.0098 Z-0.4351 I0. J0.0625
Y26.8848 Z-0.4385 I0. J-0.0625
Y27.0098 Z-0.442 I0. J0.0625
Y26.8848 Z-0.4454 I0. J-0.0625
Y27.0098 Z-0.4488 I0. J0.0625
Y26.8848 Z-0.4522 I0. J-0.0625
Y27.0098 Z-0.4557 I0. J0.0625
Y26.8848 Z-0.4591 I0. J-0.0625
Y27.0098 Z-0.4625 I0. J0.0625
Y26.8848 Z-0.4659 I0. J-0.0625
Y27.0098 Z-0.4694 I0. J0.0625
Y26.8848 Z-0.4728 I0. J-0.0625
Y27.0098 Z-0.4762 I0. J0.0625
Y26.8848 Z-0.4797 I0. J-0.0625
Y27.0098 Z-0.4831 I0. J0.0625
Y26.8848 Z-0.4865 I0. J-0.0625
Y27.0098 Z-0.4899 I0. J0.0625
Y26.8848 Z-0.4934 I0. J-0.0625
Y27.0098 Z-0.4968 I0. J0.0625
X7.4588 Y26.886 Z-0.5 I0. J-0.0625
X7.4709 Y26.8848 I0.0122 J0.0613 F60.
Y27.0098 I0. J0.0625
X7.4588 Y26.886 I0. J-0.0625
X7.4709 Y26.8848 Z-0.5002 I0.0122 J0.0613 F30.
Y27.0098 Z-0.5036 I0. J0.0625
Y26.8848 Z-0.5071 I0. J-0.0625
Y27.0098 Z-0.5105 I0. J0.0625
Y26.8848 Z-0.5139 I0. J-0.0625
Y27.0098 Z-0.5173 I0. J0.0625
Y26.8848 Z-0.5208 I0. J-0.0625
Y27.0098 Z-0.5242 I0. J0.0625
Y26.8848 Z-0.5276 I0. J-0.0625
Y27.0098 Z-0.5311 I0. J0.0625
Y26.8848 Z-0.5345 I0. J-0.0625
Y27.0098 Z-0.5379 I0. J0.0625
Y26.8848 Z-0.5413 I0. J-0.0625
Y27.0098 Z-0.5448 I0. J0.0625
Y26.8848 Z-0.5482 I0. J-0.0625
Y27.0098 Z-0.5516 I0. J0.0625
Y26.8848 Z-0.555 I0. J-0.0625
Y27.0098 Z-0.5585 I0. J0.0625
Y26.8848 Z-0.5619 I0. J-0.0625
Y27.0098 Z-0.5653 I0. J0.0625
Y26.8848 Z-0.5687 I0. J-0.0625
Y27.0098 Z-0.5722 I0. J0.0625
Y26.8848 Z-0.5756 I0. J-0.0625
Y27.0098 Z-0.579 I0. J0.0625
Y26.8848 Z-0.5825 I0. J-0.0625
Y27.0098 Z-0.5859 I0. J0.0625
Y26.8848 Z-0.5893 I0. J-0.0625
Y27.0098 Z-0.5927 I0. J0.0625
Y26.8848 Z-0.5962 I0. J-0.0625
Y27.0098 Z-0.5996 I0. J0.0625
Y26.8848 Z-0.603 I0. J-0.0625
Y27.0098 Z-0.6064 I0. J0.0625
Y26.8848 Z-0.6099 I0. J-0.0625
Y27.0098 Z-0.6133 I0. J0.0625
Y26.8848 Z-0.6167 I0. J-0.0625
Y27.0098 Z-0.6201 I0. J0.0625
Y26.8848 Z-0.6236 I0. J-0.0625
X7.5313 Y26.9312 Z-0.625 I0. J0.0625
X7.4709 Y27.0098 I-0.0604 J0.0161 F60.
Y26.8848 I0. J-0.0625
X7.5313 Y26.9312 I0. J0.0625
X7.4709 Y27.0098 Z-0.627 I-0.0604 J0.0161 F30.
Y26.8848 Z-0.6304 I0. J-0.0625
Y27.0098 Z-0.6339 I0. J0.0625
Y26.8848 Z-0.6373 I0. J-0.0625
Y27.0098 Z-0.6407 I0. J0.0625
Y26.8848 Z-0.6441 I0. J-0.0625
Y27.0098 Z-0.6476 I0. J0.0625
Y26.8848 Z-0.651 I0. J-0.0625
Y27.0098 Z-0.6544 I0. J0.0625
Y26.8848 Z-0.6578 I0. J-0.0625
Y27.0098 Z-0.6613 I0. J0.0625
Y26.8848 Z-0.6647 I0. J-0.0625
Y27.0098 Z-0.6681 I0. J0.0625
Y26.8848 Z-0.6715 I0. J-0.0625
Y27.0098 Z-0.675 I0. J0.0625
Y26.8848 Z-0.6784 I0. J-0.0625
Y27.0098 Z-0.6818 I0. J0.0625
Y26.8848 Z-0.6853 I0. J-0.0625
Y27.0098 Z-0.6887 I0. J0.0625
Y26.8848 Z-0.6921 I0. J-0.0625
Y27.0098 Z-0.6955 I0. J0.0625
Y26.8848 Z-0.699 I0. J-0.0625
Y27.0098 Z-0.7024 I0. J0.0625
Y26.8848 Z-0.7058 I0. J-0.0625
Y27.0098 Z-0.7092 I0. J0.0625
Y26.8848 Z-0.7127 I0. J-0.0625
Y27.0098 Z-0.7161 I0. J0.0625
Y26.8848 Z-0.7195 I0. J-0.0625
Y27.0098 Z-0.7229 I0. J0.0625
Y26.8848 Z-0.7264 I0. J-0.0625
Y27.0098 Z-0.7298 I0. J0.0625
Y26.8848 Z-0.7332 I0. J-0.0625
Y27.0098 Z-0.7366 I0. J0.0625
Y26.8848 Z-0.7401 I0. J-0.0625
Y27.0098 Z-0.7435 I0. J0.0625
Y26.8848 Z-0.7469 I0. J-0.0625
X7.4909 Y27.0065 Z-0.75 I0. J0.0625
X7.4709 Y27.0098 I-0.02 J-0.0592 F60.
Y26.8848 I0. J-0.0625
X7.4909 Y27.0065 I0. J0.0625
X7.4709 Y27.0098 Z-0.7504 I-0.02 J-0.0592 F30.
Y26.8848 Z-0.7538 I0. J-0.0625
Y27.0098 Z-0.7572 I0. J0.0625
Y26.8848 Z-0.7606 I0. J-0.0625
Y27.0098 Z-0.7641 I0. J0.0625
Y26.8848 Z-0.7675 I0. J-0.0625
Y27.0098 Z-0.7709 I0. J0.0625
Y26.8848 Z-0.7743 I0. J-0.0625
Y27.0098 Z-0.7778 I0. J0.0625
Y26.8848 Z-0.7812 I0. J-0.0625
Y27.0098 Z-0.7846 I0. J0.0625
Y26.8848 Z-0.788 I0. J-0.0625
Y27.0098 Z-0.7915 I0. J0.0625
Y26.8848 Z-0.7949 I0. J-0.0625
Y27.0098 Z-0.7983 I0. J0.0625
X7.4085 Y26.9497 Z-0.8 I0. J-0.0625
X7.4709 Y26.8848 I0.0625 J-0.0024 F60.
Y27.0098 I0. J0.0625
X7.4085 Y26.9497 I0. J-0.0625
X7.4325 Y26.9237 I0.025 J-0.0009
G1 X7.4575 Y26.9228
X7.4614 Y26.9226 Z-0.7997
X7.4652 Y26.9225 Z-0.7988
X7.4688 Y26.9224 Z-0.7973
X7.4722 Y26.9222 Z-0.7952
X7.4751 Y26.9221 Z-0.7927
X7.4777 Y26.922 Z-0.7897
X7.4797 Y26.9219 Z-0.7863
X7.4812 Z-0.7827
X7.4822 Z-0.7789
X7.4825 Y26.9218 Z-0.775
G0 Z0.2
X6.3634 Y28.1556
G1 Z0.1644 F13.3
Z0.125
X6.3636 Y28.1558 Z0.1211 F60.
X6.364 Y28.1566 Z0.1173
X6.3648 Y28.1579 Z0.1137
X6.3658 Y28.1597 Z0.1103
X6.367 Y28.1619 Z0.1073
X6.3685 Y28.1645 Z0.1048
X6.3701 Y28.1675 Z0.1027
X6.3719 Y28.1706 Z0.1012
X6.3737 Y28.1739 Z0.1003
X6.3757 Y28.1774 Z0.1
X6.3879 Y28.1992
G3 X6.3783 Y28.2332 I-0.0218 J0.0122
X6.3478 Y28.2412 Z0.0994 I-0.0306 J-0.0545 F30.
Y28.1162 Z0.096 I0. J-0.0625
Y28.2412 Z0.0926 I0. J0.0625
Y28.1162 Z0.0892 I0. J-0.0625
Y28.2412 Z0.0857 I0. J0.0625
Y28.1162 Z0.0823 I0. J-0.0625
Y28.2412 Z0.0789 I0. J0.0625
Y28.1162 Z0.0755 I0. J-0.0625
Y28.2412 Z0.072 I0. J0.0625
Y28.1162 Z0.0686 I0. J-0.0625
Y28.2412 Z0.0652 I0. J0.0625
Y28.1162 Z0.0618 I0. J-0.0625
Y28.2412 Z0.0583 I0. J0.0625
Y28.1162 Z0.0549 I0. J-0.0625
Y28.2412 Z0.0515 I0. J0.0625
Y28.1162 Z0.048 I0. J-0.0625
Y28.2412 Z0.0446 I0. J0.0625
Y28.1162 Z0.0412 I0. J-0.0625
Y28.2412 Z0.0378 I0. J0.0625
Y28.1162 Z0.0343 I0. J-0.0625
Y28.2412 Z0.0309 I0. J0.0625
Y28.1162 Z0.0275 I0. J-0.0625
Y28.2412 Z0.0241 I0. J0.0625
Y28.1162 Z0.0206 I0. J-0.0625
Y28.2412 Z0.0172 I0. J0.0625
Y28.1162 Z0.0138 I0. J-0.0625
Y28.2412 Z0.0104 I0. J0.0625
Y28.1162 Z0.0069 I0. J-0.0625
Y28.2412 Z0.0035 I0. J0.0625
Y28.1162 Z0.0001 I0. J-0.0625
Y28.2412 Z-0.0034 I0. J0.0625
Y28.1162 Z-0.0068 I0. J-0.0625
Y28.2412 Z-0.0102 I0. J0.0625
Y28.1162 Z-0.0136 I0. J-0.0625
Y28.2412 Z-0.0171 I0. J0.0625
Y28.1162 Z-0.0205 I0. J-0.0625
Y28.2412 Z-0.0239 I0. J0.0625
Y28.1162 Z-0.0273 I0. J-0.0625
Y28.2412 Z-0.0308 I0. J0.0625
Y28.1162 Z-0.0342 I0. J-0.0625
Y28.2412 Z-0.0376 I0. J0.0625
Y28.1162 Z-0.041 I0. J-0.0625
Y28.2412 Z-0.0445 I0. J0.0625
Y28.1162 Z-0.0479 I0. J-0.0625
Y28.2412 Z-0.0513 I0. J0.0625
Y28.1162 Z-0.0548 I0. J-0.0625
Y28.2412 Z-0.0582 I0. J0.0625
Y28.1162 Z-0.0616 I0. J-0.0625
Y28.2412 Z-0.065 I0. J0.0625
Y28.1162 Z-0.0685 I0. J-0.0625
Y28.2412 Z-0.0719 I0. J0.0625
Y28.1162 Z-0.0753 I0. J-0.0625
Y28.2412 Z-0.0787 I0. J0.0625
Y28.1162 Z-0.0822 I0. J-0.0625
Y28.2412 Z-0.0856 I0. J0.0625
Y28.1162 Z-0.089 I0. J-0.0625
Y28.2412 Z-0.0924 I0. J0.0625
Y28.1162 Z-0.0959 I0. J-0.0625
Y28.2412 Z-0.0993 I0. J0.0625
Y28.1162 Z-0.1027 I0. J-0.0625
Y28.2412 Z-0.1062 I0. J0.0625
Y28.1162 Z-0.1096 I0. J-0.0625
Y28.2412 Z-0.113 I0. J0.0625
Y28.1162 Z-0.1164 I0. J-0.0625
Y28.2412 Z-0.1199 I0. J0.0625
Y28.1162 Z-0.1233 I0. J-0.0625
X6.4102 Y28.1787 Z-0.125 I0. J0.0625
X6.3478 Y28.2412 I-0.0625 J0. F60.
Y28.1162 I0. J-0.0625
X6.4102 Y28.1787 I0. J0.0625
X6.3478 Y28.2412 Z-0.1267 I-0.0625 J0. F30.
Y28.1162 Z-0.1301 I0. J-0.0625
Y28.2412 Z-0.1336 I0. J0.0625
Y28.1162 Z-0.137 I0. J-0.0625
Y28.2412 Z-0.1404 I0. J0.0625
Y28.1162 Z-0.1438 I0. J-0.0625
Y28.2412 Z-0.1473 I0. J0.0625
Y28.1162 Z-0.1507 I0. J-0.0625
Y28.2412 Z-0.1541 I0. J0.0625
Y28.1162 Z-0.1576 I0. J-0.0625
Y28.2412 Z-0.161 I0. J0.0625
Y28.1162 Z-0.1644 I0. J-0.0625
Y28.2412 Z-0.1678 I0. J0.0625
Y28.1162 Z-0.1713 I0. J-0.0625
Y28.2412 Z-0.1747 I0. J0.0625
Y28.1162 Z-0.1781 I0. J-0.0625
Y28.2412 Z-0.1815 I0. J0.0625
Y28.1162 Z-0.185 I0. J-0.0625
Y28.2412 Z-0.1884 I0. J0.0625
Y28.1162 Z-0.1918 I0. J-0.0625
Y28.2412 Z-0.1952 I0. J0.0625
Y28.1162 Z-0.1987 I0. J-0.0625
Y28.2412 Z-0.2021 I0. J0.0625
Y28.1162 Z-0.2055 I0. J-0.0625
Y28.2412 Z-0.209 I0. J0.0625
Y28.1162 Z-0.2124 I0. J-0.0625
Y28.2412 Z-0.2158 I0. J0.0625
Y28.1162 Z-0.2192 I0. J-0.0625
Y28.2412 Z-0.2227 I0. J0.0625
Y28.1162 Z-0.2261 I0. J-0.0625
Y28.2412 Z-0.2295 I0. J0.0625
Y28.1162 Z-0.2329 I0. J-0.0625
Y28.2412 Z-0.2364 I0. J0.0625
Y28.1162 Z-0.2398 I0. J-0.0625
Y28.2412 Z-0.2432 I0. J0.0625
Y28.1162 Z-0.2466 I0. J-0.0625
X6.3518 Y28.241 Z-0.25 I0. J0.0625
G1 X6.3478 Y28.2412 F60.
G3 Y28.1162 I0. J-0.0625
X6.3518 Y28.241 I0. J0.0625
G1 X6.3478 Y28.2412 Z-0.2501 F30.
G3 Y28.1162 Z-0.2535 I0. J-0.0625
Y28.2412 Z-0.2569 I0. J0.0625
Y28.1162 Z-0.2604 I0. J-0.0625
Y28.2412 Z-0.2638 I0. J0.0625
Y28.1162 Z-0.2672 I0. J-0.0625
Y28.2412 Z-0.2706 I0. J0.0625
Y28.1162 Z-0.2741 I0. J-0.0625
Y28.2412 Z-0.2775 I0. J0.0625
Y28.1162 Z-0.2809 I0. J-0.0625
Y28.2412 Z-0.2843 I0. J0.0625
Y28.1162 Z-0.2878 I0. J-0.0625
Y28.2412 Z-0.2912 I0. J0.0625
Y28.1162 Z-0.2946 I0. J-0.0625
Y28.2412 Z-0.298 I0. J0.0625
Y28.1162 Z-0.3015 I0. J-0.0625
Y28.2412 Z-0.3049 I0. J0.0625
Y28.1162 Z-0.3083 I0. J-0.0625
Y28.2412 Z-0.3117 I0. J0.0625
Y28.1162 Z-0.3152 I0. J-0.0625
Y28.2412 Z-0.3186 I0. J0.0625
Y28.1162 Z-0.322 I0. J-0.0625
Y28.2412 Z-0.3255 I0. J0.0625
Y28.1162 Z-0.3289 I0. J-0.0625
Y28.2412 Z-0.3323 I0. J0.0625
Y28.1162 Z-0.3357 I0. J-0.0625
Y28.2412 Z-0.3392 I0. J0.0625
Y28.1162 Z-0.3426 I0. J-0.0625
Y28.2412 Z-0.346 I0. J0.0625
Y28.1162 Z-0.3494 I0. J-0.0625
Y28.2412 Z-0.3529 I0. J0.0625
Y28.1162 Z-0.3563 I0. J-0.0625
Y28.2412 Z-0.3597 I0. J0.0625
Y28.1162 Z-0.3631 I0. J-0.0625
Y28.2412 Z-0.3666 I0. J0.0625
Y28.1162 Z-0.37 I0. J-0.0625
Y28.2412 Z-0.3734 I0. J0.0625
X6.2858 Y28.1868 Z-0.375 I0. J-0.0625
X6.3478 Y28.1162 I0.062 J-0.0081 F60.
Y28.2412 I0. J0.0625
X6.2858 Y28.1868 I0. J-0.0625
X6.3478 Y28.1162 Z-0.3769 I0.062 J-0.0081 F30.
Y28.2412 Z-0.3803 I0. J0.0625
Y28.1162 Z-0.3837 I0. J-0.0625
Y28.2412 Z-0.3871 I0. J0.0625
Y28.1162 Z-0.3906 I0. J-0.0625
Y28.2412 Z-0.394 I0. J0.0625
Y28.1162 Z-0.3974 I0. J-0.0625
Y28.2412 Z-0.4008 I0. J0.0625
Y28.1162 Z-0.4043 I0. J-0.0625
Y28.2412 Z-0.4077 I0. J0.0625
Y28.1162 Z-0.4111 I0. J-0.0625
Y28.2412 Z-0.4145 I0. J0.0625
Y28.1162 Z-0.418 I0. J-0.0625
Y28.2412 Z-0.4214 I0. J0.0625
Y28.1162 Z-0.4248 I0. J-0.0625
Y28.2412 Z-0.4283 I0. J0.0625
Y28.1162 Z-0.4317 I0. J-0.0625
Y28.2412 Z-0.4351 I0. J0.0625
Y28.1162 Z-0.4385 I0. J-0.0625
Y28.2412 Z-0.442 I0. J0.0625
Y28.1162 Z-0.4454 I0. J-0.0625
Y28.2412 Z-0.4488 I0. J0.0625
Y28.1162 Z-0.4522 I0. J-0.0625
Y28.2412 Z-0.4557 I0. J0.0625
Y28.1162 Z-0.4591 I0. J-0.0625
Y28.2412 Z-0.4625 I0. J0.0625
Y28.1162 Z-0.4659 I0. J-0.0625
Y28.2412 Z-0.4694 I0. J0.0625
Y28.1162 Z-0.4728 I0. J-0.0625
Y28.2412 Z-0.4762 I0. J0.0625
Y28.1162 Z-0.4797 I0. J-0.0625
Y28.2412 Z-0.4831 I0. J0.0625
Y28.1162 Z-0.4865 I0. J-0.0625
Y28.2412 Z-0.4899 I0. J0.0625
Y28.1162 Z-0.4934 I0. J-0.0625
Y28.2412 Z-0.4968 I0. J0.0625
X6.3356 Y28.1174 Z-0.5 I0. J-0.0625
X6.3478 Y28.1162 I0.0122 J0.0613 F60.
Y28.2412 I0. J0.0625
X6.3356 Y28.1174 I0. J-0.0625
X6.3478 Y28.1162 Z-0.5002 I0.0122 J0.0613 F30.
Y28.2412 Z-0.5036 I0. J0.0625
Y28.1162 Z-0.5071 I0. J-0.0625
Y28.2412 Z-0.5105 I0. J0.0625
Y28.1162 Z-0.5139 I0. J-0.0625
Y28.2412 Z-0.5173 I0. J0.0625
Y28.1162 Z-0.5208 I0. J-0.0625
Y28.2412 Z-0.5242 I0. J0.0625
Y28.1162 Z-0.5276 I0. J-0.0625
Y28.2412 Z-0.5311 I0. J0.0625
Y28.1162 Z-0.5345 I0. J-0.0625
Y28.2412 Z-0.5379 I0. J0.0625
Y28.1162 Z-0.5413 I0. J-0.0625
Y28.2412 Z-0.5448 I0. J0.0625
Y28.1162 Z-0.5482 I0. J-0.0625
Y28.2412 Z-0.5516 I0. J0.0625
Y28.1162 Z-0.555 I0. J-0.0625
Y28.2412 Z-0.5585 I0. J0.0625
Y28.1162 Z-0.5619 I0. J-0.0625
Y28.2412 Z-0.5653 I0. J0.0625
Y28.1162 Z-0.5687 I0. J-0.0625
Y28.2412 Z-0.5722 I0. J0.0625
Y28.1162 Z-0.5756 I0. J-0.0625
Y28.2412 Z-0.579 I0. J0.0625
Y28.1162 Z-0.5825 I0. J-0.0625
Y28.2412 Z-0.5859 I0. J0.0625
Y28.1162 Z-0.5893 I0. J-0.0625
Y28.2412 Z-0.5927 I0. J0.0625
Y28.1162 Z-0.5962 I0. J-0.0625
Y28.2412 Z-0.5996 I0. J0.0625
Y28.1162 Z-0.603 I0. J-0.0625
Y28.2412 Z-0.6064 I0. J0.0625
Y28.1162 Z-0.6099 I0. J-0.0625
Y28.2412 Z-0.6133 I0. J0.0625
Y28.1162 Z-0.6167 I0. J-0.0625
Y28.2412 Z-0.6201 I0. J0.0625
Y28.1162 Z-0.6236 I0. J-0.0625
X6.4081 Y28.1626 Z-0.625 I0. J0.0625
X6.3478 Y28.2412 I-0.0604 J0.0161 F60.
Y28.1162 I0. J-0.0625
X6.4081 Y28.1626 I0. J0.0625
X6.3478 Y28.2412 Z-0.627 I-0.0604 J0.0161 F30.
Y28.1162 Z-0.6304 I0. J-0.0625
Y28.2412 Z-0.6339 I0. J0.0625
Y28.1162 Z-0.6373 I0. J-0.0625
Y28.2412 Z-0.6407 I0. J0.0625
Y28.1162 Z-0.6441 I0. J-0.0625
Y28.2412 Z-0.6476 I0. J0.0625
Y28.1162 Z-0.651 I0. J-0.0625
Y28.2412 Z-0.6544 I0. J0.0625
Y28.1162 Z-0.6578 I0. J-0.0625
Y28.2412 Z-0.6613 I0. J0.0625
Y28.1162 Z-0.6647 I0. J-0.0625
Y28.2412 Z-0.6681 I0. J0.0625
Y28.1162 Z-0.6715 I0. J-0.0625
Y28.2412 Z-0.675 I0. J0.0625
Y28.1162 Z-0.6784 I0. J-0.0625
Y28.2412 Z-0.6818 I0. J0.0625
Y28.1162 Z-0.6853 I0. J-0.0625
Y28.2412 Z-0.6887 I0. J0.0625
Y28.1162 Z-0.6921 I0. J-0.0625
Y28.2412 Z-0.6955 I0. J0.0625
Y28.1162 Z-0.699 I0. J-0.0625
Y28.2412 Z-0.7024 I0. J0.0625
Y28.1162 Z-0.7058 I0. J-0.0625
Y28.2412 Z-0.7092 I0. J0.0625
Y28.1162 Z-0.7127 I0. J-0.0625
Y28.2412 Z-0.7161 I0. J0.0625
Y28.1162 Z-0.7195 I0. J-0.0625
Y28.2412 Z-0.7229 I0. J0.0625
Y28.1162 Z-0.7264 I0. J-0.0625
Y28.2412 Z-0.7298 I0. J0.0625
Y28.1162 Z-0.7332 I0. J-0.0625
Y28.2412 Z-0.7366 I0. J0.0625
Y28.1162 Z-0.7401 I0. J-0.0625
Y28.2412 Z-0.7435 I0. J0.0625
Y28.1162 Z-0.7469 I0. J-0.0625
X6.3678 Y28.2379 Z-0.75 I0. J0.0625
X6.3478 Y28.2412 I-0.02 J-0.0592 F60.
Y28.1162 I0. J-0.0625
X6.3678 Y28.2379 I0. J0.0625
X6.3478 Y28.2412 Z-0.7504 I-0.02 J-0.0592 F30.
Y28.1162 Z-0.7538 I0. J-0.0625
Y28.2412 Z-0.7572 I0. J0.0625
Y28.1162 Z-0.7606 I0. J-0.0625
Y28.2412 Z-0.7641 I0. J0.0625
Y28.1162 Z-0.7675 I0. J-0.0625
Y28.2412 Z-0.7709 I0. J0.0625
Y28.1162 Z-0.7743 I0. J-0.0625
Y28.2412 Z-0.7778 I0. J0.0625
Y28.1162 Z-0.7812 I0. J-0.0625
Y28.2412 Z-0.7846 I0. J0.0625
Y28.1162 Z-0.788 I0. J-0.0625
Y28.2412 Z-0.7915 I0. J0.0625
Y28.1162 Z-0.7949 I0. J-0.0625
Y28.2412 Z-0.7983 I0. J0.0625
X6.2853 Y28.1811 Z-0.8 I0. J-0.0625
X6.3478 Y28.1162 I0.0625 J-0.0024 F60.
Y28.2412 I0. J0.0625
X6.2853 Y28.1811 I0. J-0.0625
X6.3094 Y28.1551 I0.025 J-0.0009
G1 X6.3343 Y28.1542
X6.3382 Y28.154 Z-0.7997
X6.3421 Y28.1539 Z-0.7988
X6.3457 Y28.1537 Z-0.7973
X6.349 Y28.1536 Z-0.7952
X6.352 Y28.1535 Z-0.7927
X6.3545 Y28.1534 Z-0.7897
X6.3566 Y28.1533 Z-0.7863
X6.3581 Z-0.7827
X6.359 Y28.1532 Z-0.7789
X6.3593 Z-0.775
G0 Z0.2
X5.2403 Y29.387
G1 Z0.1644 F13.3
Z0.125
X5.2404 Y29.3872 Z0.1211 F60.
X5.2409 Y29.388 Z0.1173
X5.2416 Y29.3893 Z0.1137
X5.2426 Y29.3911 Z0.1103
X5.2439 Y29.3934 Z0.1073
X5.2453 Y29.396 Z0.1048
X5.247 Y29.3989 Z0.1027
X5.2487 Y29.402 Z0.1012
X5.2506 Y29.4054 Z0.1003
X5.2525 Y29.4088 Z0.1
X5.2647 Y29.4306
G3 X5.2552 Y29.4646 I-0.0218 J0.0122
X5.2246 Y29.4726 Z0.0994 I-0.0306 J-0.0545 F30.
Y29.3476 Z0.096 I0. J-0.0625
Y29.4726 Z0.0926 I0. J0.0625
Y29.3476 Z0.0892 I0. J-0.0625
Y29.4726 Z0.0857 I0. J0.0625
Y29.3476 Z0.0823 I0. J-0.0625
Y29.4726 Z0.0789 I0. J0.0625
Y29.3476 Z0.0755 I0. J-0.0625
Y29.4726 Z0.072 I0. J0.0625
Y29.3476 Z0.0686 I0. J-0.0625
Y29.4726 Z0.0652 I0. J0.0625
Y29.3476 Z0.0618 I0. J-0.0625
Y29.4726 Z0.0583 I0. J0.0625
Y29.3476 Z0.0549 I0. J-0.0625
Y29.4726 Z0.0515 I0. J0.0625
Y29.3476 Z0.048 I0. J-0.0625
Y29.4726 Z0.0446 I0. J0.0625
Y29.3476 Z0.0412 I0. J-0.0625
Y29.4726 Z0.0378 I0. J0.0625
Y29.3476 Z0.0343 I0. J-0.0625
Y29.4726 Z0.0309 I0. J0.0625
Y29.3476 Z0.0275 I0. J-0.0625
Y29.4726 Z0.0241 I0. J0.0625
Y29.3476 Z0.0206 I0. J-0.0625
Y29.4726 Z0.0172 I0. J0.0625
Y29.3476 Z0.0138 I0. J-0.0625
Y29.4726 Z0.0104 I0. J0.0625
Y29.3476 Z0.0069 I0. J-0.0625
Y29.4726 Z0.0035 I0. J0.0625
Y29.3476 Z0.0001 I0. J-0.0625
Y29.4726 Z-0.0034 I0. J0.0625
Y29.3476 Z-0.0068 I0. J-0.0625
Y29.4726 Z-0.0102 I0. J0.0625
Y29.3476 Z-0.0136 I0. J-0.0625
Y29.4726 Z-0.0171 I0. J0.0625
Y29.3476 Z-0.0205 I0. J-0.0625
Y29.4726 Z-0.0239 I0. J0.0625
Y29.3476 Z-0.0273 I0. J-0.0625
Y29.4726 Z-0.0308 I0. J0.0625
Y29.3476 Z-0.0342 I0. J-0.0625
Y29.4726 Z-0.0376 I0. J0.0625
Y29.3476 Z-0.041 I0. J-0.0625
Y29.4726 Z-0.0445 I0. J0.0625
Y29.3476 Z-0.0479 I0. J-0.0625
Y29.4726 Z-0.0513 I0. J0.0625
Y29.3476 Z-0.0548 I0. J-0.0625
Y29.4726 Z-0.0582 I0. J0.0625
Y29.3476 Z-0.0616 I0. J-0.0625
Y29.4726 Z-0.065 I0. J0.0625
Y29.3476 Z-0.0685 I0. J-0.0625
Y29.4726 Z-0.0719 I0. J0.0625
Y29.3476 Z-0.0753 I0. J-0.0625
Y29.4726 Z-0.0787 I0. J0.0625
Y29.3476 Z-0.0822 I0. J-0.0625
Y29.4726 Z-0.0856 I0. J0.0625
Y29.3476 Z-0.089 I0. J-0.0625
Y29.4726 Z-0.0924 I0. J0.0625
Y29.3476 Z-0.0959 I0. J-0.0625
Y29.4726 Z-0.0993 I0. J0.0625
Y29.3476 Z-0.1027 I0. J-0.0625
Y29.4726 Z-0.1062 I0. J0.0625
Y29.3476 Z-0.1096 I0. J-0.0625
Y29.4726 Z-0.113 I0. J0.0625
Y29.3476 Z-0.1164 I0. J-0.0625
Y29.4726 Z-0.1199 I0. J0.0625
Y29.3476 Z-0.1233 I0. J-0.0625
X5.2871 Y29.4101 Z-0.125 I0. J0.0625
X5.2246 Y29.4726 I-0.0625 J0. F60.
Y29.3476 I0. J-0.0625
X5.2871 Y29.4101 I0. J0.0625
X5.2246 Y29.4726 Z-0.1267 I-0.0625 J0. F30.
Y29.3476 Z-0.1301 I0. J-0.0625
Y29.4726 Z-0.1336 I0. J0.0625
Y29.3476 Z-0.137 I0. J-0.0625
Y29.4726 Z-0.1404 I0. J0.0625
Y29.3476 Z-0.1438 I0. J-0.0625
Y29.4726 Z-0.1473 I0. J0.0625
Y29.3476 Z-0.1507 I0. J-0.0625
Y29.4726 Z-0.1541 I0. J0.0625
Y29.3476 Z-0.1576 I0. J-0.0625
Y29.4726 Z-0.161 I0. J0.0625
Y29.3476 Z-0.1644 I0. J-0.0625
Y29.4726 Z-0.1678 I0. J0.0625
Y29.3476 Z-0.1713 I0. J-0.0625
Y29.4726 Z-0.1747 I0. J0.0625
Y29.3476 Z-0.1781 I0. J-0.0625
Y29.4726 Z-0.1815 I0. J0.0625
Y29.3476 Z-0.185 I0. J-0.0625
Y29.4726 Z-0.1884 I0. J0.0625
Y29.3476 Z-0.1918 I0. J-0.0625
Y29.4726 Z-0.1952 I0. J0.0625
Y29.3476 Z-0.1987 I0. J-0.0625
Y29.4726 Z-0.2021 I0. J0.0625
Y29.3476 Z-0.2055 I0. J-0.0625
Y29.4726 Z-0.209 I0. J0.0625
Y29.3476 Z-0.2124 I0. J-0.0625
Y29.4726 Z-0.2158 I0. J0.0625
Y29.3476 Z-0.2192 I0. J-0.0625
Y29.4726 Z-0.2227 I0. J0.0625
Y29.3476 Z-0.2261 I0. J-0.0625
Y29.4726 Z-0.2295 I0. J0.0625
Y29.3476 Z-0.2329 I0. J-0.0625
Y29.4726 Z-0.2364 I0. J0.0625
Y29.3476 Z-0.2398 I0. J-0.0625
Y29.4726 Z-0.2432 I0. J0.0625
Y29.3476 Z-0.2466 I0. J-0.0625
X5.2287 Y29.4725 Z-0.25 I0. J0.0625
G1 X5.2246 Y29.4726 F60.
G3 Y29.3476 I0. J-0.0625
X5.2287 Y29.4725 I0. J0.0625
G1 X5.2246 Y29.4726 Z-0.2501 F30.
G3 Y29.3476 Z-0.2535 I0. J-0.0625
Y29.4726 Z-0.2569 I0. J0.0625
Y29.3476 Z-0.2604 I0. J-0.0625
Y29.4726 Z-0.2638 I0. J0.0625
Y29.3476 Z-0.2672 I0. J-0.0625
Y29.4726 Z-0.2706 I0. J0.0625
Y29.3476 Z-0.2741 I0. J-0.0625
Y29.4726 Z-0.2775 I0. J0.0625
Y29.3476 Z-0.2809 I0. J-0.0625
Y29.4726 Z-0.2843 I0. J0.0625
Y29.3476 Z-0.2878 I0. J-0.0625
Y29.4726 Z-0.2912 I0. J0.0625
Y29.3476 Z-0.2946 I0. J-0.0625
Y29.4726 Z-0.298 I0. J0.0625
Y29.3476 Z-0.3015 I0. J-0.0625
Y29.4726 Z-0.3049 I0. J0.0625
Y29.3476 Z-0.3083 I0. J-0.0625
Y29.4726 Z-0.3117 I0. J0.0625
Y29.3476 Z-0.3152 I0. J-0.0625
Y29.4726 Z-0.3186 I0. J0.0625
Y29.3476 Z-0.322 I0. J-0.0625
Y29.4726 Z-0.3255 I0. J0.0625
Y29.3476 Z-0.3289 I0. J-0.0625
Y29.4726 Z-0.3323 I0. J0.0625
Y29.3476 Z-0.3357 I0. J-0.0625
Y29.4726 Z-0.3392 I0. J0.0625
Y29.3476 Z-0.3426 I0. J-0.0625
Y29.4726 Z-0.346 I0. J0.0625
Y29.3476 Z-0.3494 I0. J-0.0625
Y29.4726 Z-0.3529 I0. J0.0625
Y29.3476 Z-0.3563 I0. J-0.0625
Y29.4726 Z-0.3597 I0. J0.0625
Y29.3476 Z-0.3631 I0. J-0.0625
Y29.4726 Z-0.3666 I0. J0.0625
Y29.3476 Z-0.37 I0. J-0.0625
Y29.4726 Z-0.3734 I0. J0.0625
X5.1627 Y29.4182 Z-0.375 I0. J-0.0625
X5.2246 Y29.3476 I0.062 J-0.0081 F60.
Y29.4726 I0. J0.0625
X5.1627 Y29.4182 I0. J-0.0625
X5.2246 Y29.3476 Z-0.3769 I0.062 J-0.0081 F30.
Y29.4726 Z-0.3803 I0. J0.0625
Y29.3476 Z-0.3837 I0. J-0.0625
Y29.4726 Z-0.3871 I0. J0.0625
Y29.3476 Z-0.3906 I0. J-0.0625
Y29.4726 Z-0.394 I0. J0.0625
Y29.3476 Z-0.3974 I0. J-0.0625
Y29.4726 Z-0.4008 I0. J0.0625
Y29.3476 Z-0.4043 I0. J-0.0625
Y29.4726 Z-0.4077 I0. J0.0625
Y29.3476 Z-0.4111 I0. J-0.0625
Y29.4726 Z-0.4145 I0. J0.0625
Y29.3476 Z-0.418 I0. J-0.0625
Y29.4726 Z-0.4214 I0. J0.0625
Y29.3476 Z-0.4248 I0. J-0.0625
Y29.4726 Z-0.4283 I0. J0.0625
Y29.3476 Z-0.4317 I0. J-0.0625
Y29.4726 Z-0.4351 I0. J0.0625
Y29.3476 Z-0.4385 I0. J-0.0625
Y29.4726 Z-0.442 I0. J0.0625
Y29.3476 Z-0.4454 I0. J-0.0625
Y29.4726 Z-0.4488 I0. J0.0625
Y29.3476 Z-0.4522 I0. J-0.0625
Y29.4726 Z-0.4557 I0. J0.0625
Y29.3476 Z-0.4591 I0. J-0.0625
Y29.4726 Z-0.4625 I0. J0.0625
Y29.3476 Z-0.4659 I0. J-0.0625
Y29.4726 Z-0.4694 I0. J0.0625
Y29.3476 Z-0.4728 I0. J-0.0625
Y29.4726 Z-0.4762 I0. J0.0625
Y29.3476 Z-0.4797 I0. J-0.0625
Y29.4726 Z-0.4831 I0. J0.0625
Y29.3476 Z-0.4865 I0. J-0.0625
Y29.4726 Z-0.4899 I0. J0.0625
Y29.3476 Z-0.4934 I0. J-0.0625
Y29.4726 Z-0.4968 I0. J0.0625
X5.2125 Y29.3488 Z-0.5 I0. J-0.0625
X5.2246 Y29.3476 I0.0122 J0.0613 F60.
Y29.4726 I0. J0.0625
X5.2125 Y29.3488 I0. J-0.0625
X5.2246 Y29.3476 Z-0.5002 I0.0122 J0.0613 F30.
Y29.4726 Z-0.5036 I0. J0.0625
Y29.3476 Z-0.5071 I0. J-0.0625
Y29.4726 Z-0.5105 I0. J0.0625
Y29.3476 Z-0.5139 I0. J-0.0625
Y29.4726 Z-0.5173 I0. J0.0625
Y29.3476 Z-0.5208 I0. J-0.0625
Y29.4726 Z-0.5242 I0. J0.0625
Y29.3476 Z-0.5276 I0. J-0.0625
Y29.4726 Z-0.5311 I0. J0.0625
Y29.3476 Z-0.5345 I0. J-0.0625
Y29.4726 Z-0.5379 I0. J0.0625
Y29.3476 Z-0.5413 I0. J-0.0625
Y29.4726 Z-0.5448 I0. J0.0625
Y29.3476 Z-0.5482 I0. J-0.0625
Y29.4726 Z-0.5516 I0. J0.0625
Y29.3476 Z-0.555 I0. J-0.0625
Y29.4726 Z-0.5585 I0. J0.0625
Y29.3476 Z-0.5619 I0. J-0.0625
Y29.4726 Z-0.5653 I0. J0.0625
Y29.3476 Z-0.5687 I0. J-0.0625
Y29.4726 Z-0.5722 I0. J0.0625
Y29.3476 Z-0.5756 I0. J-0.0625
Y29.4726 Z-0.579 I0. J0.0625
Y29.3476 Z-0.5825 I0. J-0.0625
Y29.4726 Z-0.5859 I0. J0.0625
Y29.3476 Z-0.5893 I0. J-0.0625
Y29.4726 Z-0.5927 I0. J0.0625
Y29.3476 Z-0.5962 I0. J-0.0625
Y29.4726 Z-0.5996 I0. J0.0625
Y29.3476 Z-0.603 I0. J-0.0625
Y29.4726 Z-0.6064 I0. J0.0625
Y29.3476 Z-0.6099 I0. J-0.0625
Y29.4726 Z-0.6133 I0. J0.0625
Y29.3476 Z-0.6167 I0. J-0.0625
Y29.4726 Z-0.6201 I0. J0.0625
Y29.3476 Z-0.6236 I0. J-0.0625
X5.285 Y29.394 Z-0.625 I0. J0.0625
X5.2246 Y29.4726 I-0.0604 J0.0161 F60.
Y29.3476 I0. J-0.0625
X5.285 Y29.394 I0. J0.0625
X5.2246 Y29.4726 Z-0.627 I-0.0604 J0.0161 F30.
Y29.3476 Z-0.6304 I0. J-0.0625
Y29.4726 Z-0.6339 I0. J0.0625
Y29.3476 Z-0.6373 I0. J-0.0625
Y29.4726 Z-0.6407 I0. J0.0625
Y29.3476 Z-0.6441 I0. J-0.0625
Y29.4726 Z-0.6476 I0. J0.0625
Y29.3476 Z-0.651 I0. J-0.0625
Y29.4726 Z-0.6544 I0. J0.0625
Y29.3476 Z-0.6578 I0. J-0.0625
Y29.4726 Z-0.6613 I0. J0.0625
Y29.3476 Z-0.6647 I0. J-0.0625
Y29.4726 Z-0.6681 I0. J0.0625
Y29.3476 Z-0.6715 I0. J-0.0625
Y29.4726 Z-0.675 I0. J0.0625
Y29.3476 Z-0.6784 I0. J-0.0625
Y29.4726 Z-0.6818 I0. J0.0625
Y29.3476 Z-0.6853 I0. J-0.0625
Y29.4726 Z-0.6887 I0. J0.0625
Y29.3476 Z-0.6921 I0. J-0.0625
Y29.4726 Z-0.6955 I0. J0.0625
Y29.3476 Z-0.699 I0. J-0.0625
Y29.4726 Z-0.7024 I0. J0.0625
Y29.3476 Z-0.7058 I0. J-0.0625
Y29.4726 Z-0.7092 I0. J0.0625
Y29.3476 Z-0.7127 I0. J-0.0625
Y29.4726 Z-0.7161 I0. J0.0625
Y29.3476 Z-0.7195 I0. J-0.0625
Y29.4726 Z-0.7229 I0. J0.0625
Y29.3476 Z-0.7264 I0. J-0.0625
Y29.4726 Z-0.7298 I0. J0.0625
Y29.3476 Z-0.7332 I0. J-0.0625
Y29.4726 Z-0.7366 I0. J0.0625
Y29.3476 Z-0.7401 I0. J-0.0625
Y29.4726 Z-0.7435 I0. J0.0625
Y29.3476 Z-0.7469 I0. J-0.0625
X5.2446 Y29.4693 Z-0.75 I0. J0.0625
