(1001.1)
(T1  D=0.25 CR=0. - ZMIN=-0.77 - FLAT END MILL)
G90 G94 G91.1 G40 G49 G17
G20

(2D POCKET2 3)
G0 X0. Y0. Z0.6
M5
T1 M6
S15000 M3
G4 P5.
G54
M8
G0 X13.2103 Y15.5252
G43 Z0.6 H1
Z0.2
G1 Z0.125 F30.
G19 G3 Y15.5493 Z0.1 J0.025 K0. F40.
G1 Y21.4853 Z-0.1073
G17 G3 X13.1548 Y21.5182 Z-0.11 I-0.0375 J0.
X13.1353 Y21.4853 I0.018 J-0.0329
G1 Y10.4853
G3 X13.2103 I0.0375 J0.
G1 Y21.4853
G3 X13.1548 Y21.5182 I-0.0375 J0.
G2 X13.1356 Y21.5187 I-0.0091 J0.0167
G3 X13.1171 Y21.5136 I-0.0069 J-0.011
X13.1103 Y21.4853 I0.0557 J-0.0283
G1 Y10.4853
G3 X13.2353 I0.0625 J0.
G1 Y21.4853
G3 X13.1171 Y21.5136 I-0.0625 J0.
G1 X13.1156 Y21.51 Z-0.1094
X13.1147 Y21.5063 Z-0.1088
X13.1144 Y21.5028 Z-0.107
X13.1145 Y21.4993 Z-0.1052
X13.115 Y21.4966 Z-0.1025
X13.1158 Y21.494 Z-0.0997
X13.1172 Y21.4907 Z-0.0927
X13.1178 Y21.4896 Z-0.085
G0 Z0.2
X13.2103 Y15.5252
G1 Z0.015 F30.
G19 G3 Y15.5493 Z-0.01 J0.025 K0. F40.
G1 Y21.4853 Z-0.2173
G17 G3 X13.1548 Y21.5182 Z-0.22 I-0.0375 J0.
X13.1353 Y21.4853 I0.018 J-0.0329
G1 Y10.4853
G3 X13.2103 I0.0375 J0.
G1 Y21.4853
G3 X13.1548 Y21.5182 I-0.0375 J0.
G2 X13.1356 Y21.5187 I-0.0091 J0.0167
G3 X13.1171 Y21.5136 I-0.0069 J-0.011
X13.1103 Y21.4853 I0.0557 J-0.0283
G1 Y10.4853
G3 X13.2353 I0.0625 J0.
G1 Y21.4853
G3 X13.1171 Y21.5136 I-0.0625 J0.
G1 X13.1156 Y21.51 Z-0.2194
X13.1147 Y21.5063 Z-0.2188
X13.1144 Y21.5028 Z-0.217
X13.1145 Y21.4993 Z-0.2152
X13.115 Y21.4966 Z-0.2125
X13.1158 Y21.494 Z-0.2097
X13.1172 Y21.4907 Z-0.2027
X13.1178 Y21.4896 Z-0.195
G0 Z0.2
X13.2103 Y15.5252
G1 Z0.0062 F30.
Z-0.095 F40.
G19 G3 Y15.5493 Z-0.12 J0.025 K0.
G1 Y21.4853 Z-0.3273
G17 G3 X13.1548 Y21.5182 Z-0.33 I-0.0375 J0.
X13.1353 Y21.4853 I0.018 J-0.0329
G1 Y10.4853
G3 X13.2103 I0.0375 J0.
G1 Y21.4853
G3 X13.1548 Y21.5182 I-0.0375 J0.
G2 X13.1356 Y21.5187 I-0.0091 J0.0167
G3 X13.1171 Y21.5136 I-0.0069 J-0.011
X13.1103 Y21.4853 I0.0557 J-0.0283
G1 Y10.4853
G3 X13.2353 I0.0625 J0.
G1 Y21.4853
G3 X13.1171 Y21.5136 I-0.0625 J0.
G1 X13.1156 Y21.51 Z-0.3294
X13.1147 Y21.5063 Z-0.3288
X13.1144 Y21.5028 Z-0.327
X13.1145 Y21.4993 Z-0.3252
X13.115 Y21.4966 Z-0.3225
X13.1158 Y21.494 Z-0.3197
X13.1172 Y21.4907 Z-0.3127
X13.1178 Y21.4896 Z-0.305
G0 Z0.2
X13.2103 Y15.5252
G1 Z-0.0738 F30.
Z-0.205 F40.
G19 G3 Y15.5493 Z-0.23 J0.025 K0.
G1 Y21.4853 Z-0.4373
G17 G3 X13.1548 Y21.5182 Z-0.44 I-0.0375 J0.
X13.1353 Y21.4853 I0.018 J-0.0329
G1 Y10.4853
G3 X13.2103 I0.0375 J0.
G1 Y21.4853
G3 X13.1548 Y21.5182 I-0.0375 J0.
G2 X13.1356 Y21.5187 I-0.0091 J0.0167
G3 X13.1171 Y21.5136 I-0.0069 J-0.011
X13.1103 Y21.4853 I0.0557 J-0.0283
G1 Y10.4853
G3 X13.2353 I0.0625 J0.
G1 Y21.4853
G3 X13.1171 Y21.5136 I-0.0625 J0.
G1 X13.1156 Y21.51 Z-0.4394
X13.1147 Y21.5063 Z-0.4388
X13.1144 Y21.5028 Z-0.437
X13.1145 Y21.4993 Z-0.4352
X13.115 Y21.4966 Z-0.4325
X13.1158 Y21.494 Z-0.4297
X13.1172 Y21.4907 Z-0.4227
X13.1178 Y21.4896 Z-0.415
G0 Z0.2
X13.2103 Y15.5252
G1 Z-0.1838 F30.
Z-0.315 F40.
G19 G3 Y15.5493 Z-0.34 J0.025 K0.
G1 Y21.4853 Z-0.5473
G17 G3 X13.1548 Y21.5182 Z-0.55 I-0.0375 J0.
X13.1353 Y21.4853 I0.018 J-0.0329
G1 Y10.4853
G3 X13.2103 I0.0375 J0.
G1 Y21.4853
G3 X13.1548 Y21.5182 I-0.0375 J0.
G2 X13.1356 Y21.5187 I-0.0091 J0.0167
G3 X13.1171 Y21.5136 I-0.0069 J-0.011
X13.1103 Y21.4853 I0.0557 J-0.0283
G1 Y10.4853
G3 X13.2353 I0.0625 J0.
G1 Y21.4853
G3 X13.1171 Y21.5136 I-0.0625 J0.
G1 X13.1156 Y21.51 Z-0.5494
X13.1147 Y21.5063 Z-0.5488
X13.1144 Y21.5028 Z-0.547
X13.1145 Y21.4993 Z-0.5452
X13.115 Y21.4966 Z-0.5425
X13.1158 Y21.494 Z-0.5397
X13.1172 Y21.4907 Z-0.5327
X13.1178 Y21.4896 Z-0.525
G0 Z0.2
X13.2103 Y15.5252
G1 Z-0.2938 F30.
Z-0.425 F40.
G19 G3 Y15.5493 Z-0.45 J0.025 K0.
G1 Y21.4853 Z-0.6573
G17 G3 X13.1548 Y21.5182 Z-0.66 I-0.0375 J0.
X13.1353 Y21.4853 I0.018 J-0.0329
G1 Y10.4853
G3 X13.2103 I0.0375 J0.
G1 Y21.4853
G3 X13.1548 Y21.5182 I-0.0375 J0.
G2 X13.1356 Y21.5187 I-0.0091 J0.0167
G3 X13.1171 Y21.5136 I-0.0069 J-0.011
X13.1103 Y21.4853 I0.0557 J-0.0283
G1 Y10.4853
G3 X13.2353 I0.0625 J0.
G1 Y21.4853
G3 X13.1171 Y21.5136 I-0.0625 J0.
G1 X13.1156 Y21.51 Z-0.6594
X13.1147 Y21.5063 Z-0.6588
X13.1144 Y21.5028 Z-0.657
X13.1145 Y21.4993 Z-0.6552
X13.115 Y21.4966 Z-0.6525
X13.1158 Y21.494 Z-0.6497
X13.1172 Y21.4907 Z-0.6427
X13.1178 Y21.4896 Z-0.635
G0 Z0.2
X13.2103 Y15.5252
G1 Z-0.4038 F30.
Z-0.535 F40.
G19 G3 Y15.5493 Z-0.56 J0.025 K0.
G1 Y21.4853 Z-0.7673
G17 G3 X13.1548 Y21.5182 Z-0.77 I-0.0375 J0.
X13.1353 Y21.4853 I0.018 J-0.0329
G1 Y10.4853
G3 X13.2103 I0.0375 J0.
G1 Y21.4853
G3 X13.1548 Y21.5182 I-0.0375 J0.
G2 X13.1356 Y21.5187 I-0.0091 J0.0167
G3 X13.1171 Y21.5136 I-0.0069 J-0.011
X13.1103 Y21.4853 I0.0557 J-0.0283
G1 Y10.4853
G3 X13.2353 I0.0625 J0.
G1 Y21.4853
G3 X13.1171 Y21.5136 I-0.0625 J0.
G1 X13.1156 Y21.51 Z-0.7694
X13.1147 Y21.5063 Z-0.7688
X13.1144 Y21.5028 Z-0.767
X13.1145 Y21.4993 Z-0.7652
X13.115 Y21.4966 Z-0.7625
X13.1158 Y21.494 Z-0.7597
X13.1172 Y21.4907 Z-0.7527
X13.1178 Y21.4896 Z-0.745
G0 Z0.2
X10.4882 Y21.5337
G1 Z0.125 F30.
X10.487 Z0.1174 F40.
X10.4836 Z0.1106
X10.4783 Y21.5333 Z0.1051
X10.475 Y21.5327 Z0.1033
X10.4718 Y21.5319 Z0.1014
X10.4682 Y21.5307 Z0.1007
X10.4647 Y21.5292 Z0.1
G3 X10.5058 Y21.4414 Z0.0947 I0.0205 J-0.0439
X10.4647 Y21.5292 Z0.0894 I-0.0205 J0.0439
X10.5058 Y21.4414 Z0.084 I0.0205 J-0.0439
X10.4647 Y21.5292 Z0.0787 I-0.0205 J0.0439
X10.5058 Y21.4414 Z0.0734 I0.0205 J-0.0439
X10.4647 Y21.5292 Z0.0681 I-0.0205 J0.0439
X10.5058 Y21.4414 Z0.0628 I0.0205 J-0.0439
X10.4647 Y21.5292 Z0.0575 I-0.0205 J0.0439
X10.5058 Y21.4414 Z0.0521 I0.0205 J-0.0439
X10.4647 Y21.5292 Z0.0468 I-0.0205 J0.0439
X10.5058 Y21.4414 Z0.0415 I0.0205 J-0.0439
X10.4647 Y21.5292 Z0.0362 I-0.0205 J0.0439
X10.5058 Y21.4414 Z0.0309 I0.0205 J-0.0439
X10.4647 Y21.5292 Z0.0255 I-0.0205 J0.0439
X10.5058 Y21.4414 Z0.0202 I0.0205 J-0.0439
X10.4647 Y21.5292 Z0.0149 I-0.0205 J0.0439
X10.5058 Y21.4414 Z0.0096 I0.0205 J-0.0439
X10.4647 Y21.5292 Z0.0043 I-0.0205 J0.0439
X10.5058 Y21.4414 Z-0.0011 I0.0205 J-0.0439
X10.4647 Y21.5292 Z-0.0064 I-0.0205 J0.0439
X10.5058 Y21.4414 Z-0.0117 I0.0205 J-0.0439
X10.4647 Y21.5292 Z-0.017 I-0.0205 J0.0439
X10.5058 Y21.4414 Z-0.0223 I0.0205 J-0.0439
X10.4647 Y21.5292 Z-0.0276 I-0.0205 J0.0439
X10.5058 Y21.4414 Z-0.033 I0.0205 J-0.0439
X10.4647 Y21.5292 Z-0.0383 I-0.0205 J0.0439
X10.5058 Y21.4414 Z-0.0436 I0.0205 J-0.0439
X10.4647 Y21.5292 Z-0.0489 I-0.0205 J0.0439
X10.5058 Y21.4414 Z-0.0542 I0.0205 J-0.0439
X10.4647 Y21.5292 Z-0.0596 I-0.0205 J0.0439
X10.5058 Y21.4414 Z-0.0649 I0.0205 J-0.0439
X10.4647 Y21.5292 Z-0.0702 I-0.0205 J0.0439
X10.5058 Y21.4414 Z-0.0755 I0.0205 J-0.0439
X10.4647 Y21.5292 Z-0.0808 I-0.0205 J0.0439
X10.5058 Y21.4414 Z-0.0862 I0.0205 J-0.0439
X10.4647 Y21.5292 Z-0.0915 I-0.0205 J0.0439
X10.5058 Y21.4414 Z-0.0968 I0.0205 J-0.0439
X10.4647 Y21.5292 Z-0.1021 I-0.0205 J0.0439
X10.5058 Y21.4414 Z-0.1074 I0.0205 J-0.0439
X10.5302 Y21.5036 Z-0.11 I-0.0205 J0.0439
X10.4404 Y21.467 I-0.0449 J-0.0183
X10.5302 Y21.5036 I0.0449 J0.0183
G2 X10.5401 Y21.6174 I0.1159 J0.0472
G3 X10.4847 Y21.7173 I-0.0552 J0.0347
X10.4859 Y21.2533 I0.0006 J-0.232
X10.4847 Y21.7173 I-0.0006 J0.232
G2 X10.3636 Y21.7868 I-0.0003 J0.1398
G3 X10.2263 Y21.8128 I-0.0799 J-0.0465
X10.4853 Y21.0678 I0.259 J-0.3275
Y21.9028 I0. J0.4175
X10.2263 Y21.8128 I0. J-0.4175
G2 X10.2043 Y21.8108 I-0.0125 J0.0158
G3 X10.1824 Y21.8079 I-0.0089 J-0.0167
X10.4853 Y21.0428 I0.3029 J-0.3226
Y21.9278 I0. J0.4425
X10.1824 Y21.8079 I0. J-0.4425
X10.1826 Y21.7896 I0.0086 J-0.0091
G1 X10.2634 Y21.7157
X10.4694 Y21.4646
X10.4702 Y21.4633
X10.4706 Y21.4618
X10.4722 Y21.4422
X10.4726 Y21.4406
X10.4735 Y21.4392
X10.4748 Y21.4382
X10.4763 Y21.4376
G3 X10.4942 Y21.5329 Z-0.1153 I0.0089 J0.0477
X10.4763 Y21.4376 Z-0.1206 I-0.0089 J-0.0477
X10.4942 Y21.5329 Z-0.126 I0.0089 J0.0477
X10.4763 Y21.4376 Z-0.1313 I-0.0089 J-0.0477
X10.4942 Y21.5329 Z-0.1366 I0.0089 J0.0477
X10.4763 Y21.4376 Z-0.1419 I-0.0089 J-0.0477
X10.4942 Y21.5329 Z-0.1472 I0.0089 J0.0477
X10.4763 Y21.4376 Z-0.1525 I-0.0089 J-0.0477
X10.4942 Y21.5329 Z-0.1579 I0.0089 J0.0477
X10.4763 Y21.4376 Z-0.1632 I-0.0089 J-0.0477
X10.4942 Y21.5329 Z-0.1685 I0.0089 J0.0477
X10.4763 Y21.4376 Z-0.1738 I-0.0089 J-0.0477
X10.4942 Y21.5329 Z-0.1791 I0.0089 J0.0477
X10.4763 Y21.4376 Z-0.1845 I-0.0089 J-0.0477
X10.4942 Y21.5329 Z-0.1898 I0.0089 J0.0477
X10.4763 Y21.4376 Z-0.1951 I-0.0089 J-0.0477
X10.4942 Y21.5329 Z-0.2004 I0.0089 J0.0477
X10.4763 Y21.4376 Z-0.2057 I-0.0089 J-0.0477
X10.4942 Y21.5329 Z-0.2111 I0.0089 J0.0477
X10.4763 Y21.4376 Z-0.2164 I-0.0089 J-0.0477
X10.5302 Y21.5036 Z-0.22 I0.0089 J0.0477
X10.4404 Y21.467 I-0.0449 J-0.0183
X10.5302 Y21.5036 I0.0449 J0.0183
G2 X10.5401 Y21.6174 I0.1159 J0.0472
G3 X10.4847 Y21.7173 I-0.0552 J0.0347
X10.4859 Y21.2533 I0.0006 J-0.232
X10.4847 Y21.7173 I-0.0006 J0.232
G2 X10.3636 Y21.7868 I-0.0003 J0.1398
G3 X10.2263 Y21.8128 I-0.0799 J-0.0465
X10.4853 Y21.0678 I0.259 J-0.3275
Y21.9028 I0. J0.4175
X10.2263 Y21.8128 I0. J-0.4175
G2 X10.2043 Y21.8108 I-0.0125 J0.0158
G3 X10.1824 Y21.8079 I-0.0089 J-0.0167
X10.4853 Y21.0428 I0.3029 J-0.3226
Y21.9278 I0. J0.4425
X10.1824 Y21.8079 I0. J-0.4425
X10.1826 Y21.7896 I0.0086 J-0.0091
G1 X10.2634 Y21.7157
X10.4694 Y21.4646
X10.4702 Y21.4633
X10.4706 Y21.4618
X10.4722 Y21.4422
X10.4726 Y21.4406
X10.4735 Y21.4392
X10.4748 Y21.4382
X10.4763 Y21.4376
G3 X10.4942 Y21.5329 Z-0.2253 I0.0089 J0.0477
X10.4763 Y21.4376 Z-0.2306 I-0.0089 J-0.0477
X10.4942 Y21.5329 Z-0.236 I0.0089 J0.0477
X10.4763 Y21.4376 Z-0.2413 I-0.0089 J-0.0477
X10.4942 Y21.5329 Z-0.2466 I0.0089 J0.0477
X10.4763 Y21.4376 Z-0.2519 I-0.0089 J-0.0477
X10.4942 Y21.5329 Z-0.2572 I0.0089 J0.0477
X10.4763 Y21.4376 Z-0.2625 I-0.0089 J-0.0477
X10.4942 Y21.5329 Z-0.2679 I0.0089 J0.0477
X10.4763 Y21.4376 Z-0.2732 I-0.0089 J-0.0477
X10.4942 Y21.5329 Z-0.2785 I0.0089 J0.0477
X10.4763 Y21.4376 Z-0.2838 I-0.0089 J-0.0477
X10.4942 Y21.5329 Z-0.2891 I0.0089 J0.0477
X10.4763 Y21.4376 Z-0.2945 I-0.0089 J-0.0477
X10.4942 Y21.5329 Z-0.2998 I0.0089 J0.0477
X10.4763 Y21.4376 Z-0.3051 I-0.0089 J-0.0477
X10.4942 Y21.5329 Z-0.3104 I0.0089 J0.0477
X10.4763 Y21.4376 Z-0.3157 I-0.0089 J-0.0477
X10.4942 Y21.5329 Z-0.3211 I0.0089 J0.0477
X10.4763 Y21.4376 Z-0.3264 I-0.0089 J-0.0477
X10.5302 Y21.5036 Z-0.33 I0.0089 J0.0477
X10.4404 Y21.467 I-0.0449 J-0.0183
X10.5302 Y21.5036 I0.0449 J0.0183
G2 X10.5401 Y21.6174 I0.1159 J0.0472
G3 X10.4847 Y21.7173 I-0.0552 J0.0347
X10.4859 Y21.2533 I0.0006 J-0.232
X10.4847 Y21.7173 I-0.0006 J0.232
G2 X10.3636 Y21.7868 I-0.0003 J0.1398
G3 X10.2263 Y21.8128 I-0.0799 J-0.0465
X10.4853 Y21.0678 I0.259 J-0.3275
Y21.9028 I0. J0.4175
X10.2263 Y21.8128 I0. J-0.4175
G2 X10.2043 Y21.8108 I-0.0125 J0.0158
G3 X10.1824 Y21.8079 I-0.0089 J-0.0167
X10.4853 Y21.0428 I0.3029 J-0.3226
Y21.9278 I0. J0.4425
X10.1824 Y21.8079 I0. J-0.4425
X10.1826 Y21.7896 I0.0086 J-0.0091
G1 X10.2634 Y21.7157
X10.4694 Y21.4646
X10.4702 Y21.4633
X10.4706 Y21.4618
X10.4722 Y21.4422
X10.4726 Y21.4406
X10.4735 Y21.4392
X10.4748 Y21.4382
X10.4763 Y21.4376
G3 X10.4942 Y21.5329 Z-0.3353 I0.0089 J0.0477
X10.4763 Y21.4376 Z-0.3406 I-0.0089 J-0.0477
X10.4942 Y21.5329 Z-0.346 I0.0089 J0.0477
X10.4763 Y21.4376 Z-0.3513 I-0.0089 J-0.0477
X10.4942 Y21.5329 Z-0.3566 I0.0089 J0.0477
X10.4763 Y21.4376 Z-0.3619 I-0.0089 J-0.0477
X10.4942 Y21.5329 Z-0.3672 I0.0089 J0.0477
X10.4763 Y21.4376 Z-0.3725 I-0.0089 J-0.0477
X10.4942 Y21.5329 Z-0.3779 I0.0089 J0.0477
X10.4763 Y21.4376 Z-0.3832 I-0.0089 J-0.0477
X10.4942 Y21.5329 Z-0.3885 I0.0089 J0.0477
X10.4763 Y21.4376 Z-0.3938 I-0.0089 J-0.0477
X10.4942 Y21.5329 Z-0.3991 I0.0089 J0.0477
X10.4763 Y21.4376 Z-0.4045 I-0.0089 J-0.0477
X10.4942 Y21.5329 Z-0.4098 I0.0089 J0.0477
X10.4763 Y21.4376 Z-0.4151 I-0.0089 J-0.0477
X10.4942 Y21.5329 Z-0.4204 I0.0089 J0.0477
X10.4763 Y21.4376 Z-0.4257 I-0.0089 J-0.0477
X10.4942 Y21.5329 Z-0.4311 I0.0089 J0.0477
X10.4763 Y21.4376 Z-0.4364 I-0.0089 J-0.0477
X10.5302 Y21.5036 Z-0.44 I0.0089 J0.0477
X10.4404 Y21.467 I-0.0449 J-0.0183
X10.5302 Y21.5036 I0.0449 J0.0183
G2 X10.5401 Y21.6174 I0.1159 J0.0472
G3 X10.4847 Y21.7173 I-0.0552 J0.0347
X10.4859 Y21.2533 I0.0006 J-0.232
X10.4847 Y21.7173 I-0.0006 J0.232
G2 X10.3636 Y21.7868 I-0.0003 J0.1398
G3 X10.2263 Y21.8128 I-0.0799 J-0.0465
X10.4853 Y21.0678 I0.259 J-0.3275
Y21.9028 I0. J0.4175
X10.2263 Y21.8128 I0. J-0.4175
G2 X10.2043 Y21.8108 I-0.0125 J0.0158
G3 X10.1824 Y21.8079 I-0.0089 J-0.0167
X10.4853 Y21.0428 I0.3029 J-0.3226
Y21.9278 I0. J0.4425
X10.1824 Y21.8079 I0. J-0.4425
X10.1826 Y21.7896 I0.0086 J-0.0091
G1 X10.2634 Y21.7157
X10.4694 Y21.4646
X10.4702 Y21.4633
X10.4706 Y21.4618
X10.4722 Y21.4422
X10.4726 Y21.4406
X10.4735 Y21.4392
X10.4748 Y21.4382
X10.4763 Y21.4376
G3 X10.4942 Y21.5329 Z-0.4453 I0.0089 J0.0477
X10.4763 Y21.4376 Z-0.4506 I-0.0089 J-0.0477
X10.4942 Y21.5329 Z-0.456 I0.0089 J0.0477
X10.4763 Y21.4376 Z-0.4613 I-0.0089 J-0.0477
X10.4942 Y21.5329 Z-0.4666 I0.0089 J0.0477
X10.4763 Y21.4376 Z-0.4719 I-0.0089 J-0.0477
X10.4942 Y21.5329 Z-0.4772 I0.0089 J0.0477
X10.4763 Y21.4376 Z-0.4825 I-0.0089 J-0.0477
X10.4942 Y21.5329 Z-0.4879 I0.0089 J0.0477
X10.4763 Y21.4376 Z-0.4932 I-0.0089 J-0.0477
X10.4942 Y21.5329 Z-0.4985 I0.0089 J0.0477
X10.4763 Y21.4376 Z-0.5038 I-0.0089 J-0.0477
X10.4942 Y21.5329 Z-0.5091 I0.0089 J0.0477
X10.4763 Y21.4376 Z-0.5145 I-0.0089 J-0.0477
X10.4942 Y21.5329 Z-0.5198 I0.0089 J0.0477
X10.4763 Y21.4376 Z-0.5251 I-0.0089 J-0.0477
X10.4942 Y21.5329 Z-0.5304 I0.0089 J0.0477
X10.4763 Y21.4376 Z-0.5357 I-0.0089 J-0.0477
X10.4942 Y21.5329 Z-0.5411 I0.0089 J0.0477
X10.4763 Y21.4376 Z-0.5464 I-0.0089 J-0.0477
X10.5302 Y21.5036 Z-0.55 I0.0089 J0.0477
X10.4404 Y21.467 I-0.0449 J-0.0183
X10.5302 Y21.5036 I0.0449 J0.0183
G2 X10.5401 Y21.6174 I0.1159 J0.0472
G3 X10.4847 Y21.7173 I-0.0552 J0.0347
X10.4859 Y21.2533 I0.0006 J-0.232
X10.4847 Y21.7173 I-0.0006 J0.232
G2 X10.3636 Y21.7868 I-0.0003 J0.1398
G3 X10.2263 Y21.8128 I-0.0799 J-0.0465
X10.4853 Y21.0678 I0.259 J-0.3275
Y21.9028 I0. J0.4175
X10.2263 Y21.8128 I0. J-0.4175
G2 X10.2043 Y21.8108 I-0.0125 J0.0158
G3 X10.1824 Y21.8079 I-0.0089 J-0.0167
X10.4853 Y21.0428 I0.3029 J-0.3226
Y21.9278 I0. J0.4425
X10.1824 Y21.8079 I0. J-0.4425
X10.1826 Y21.7896 I0.0086 J-0.0091
G1 X10.2634 Y21.7157
X10.4694 Y21.4646
X10.4702 Y21.4633
X10.4706 Y21.4618
X10.4722 Y21.4422
X10.4726 Y21.4406
X10.4735 Y21.4392
X10.4748 Y21.4382
X10.4763 Y21.4376
G3 X10.4942 Y21.5329 Z-0.5553 I0.0089 J0.0477
X10.4763 Y21.4376 Z-0.5606 I-0.0089 J-0.0477
X10.4942 Y21.5329 Z-0.566 I0.0089 J0.0477
X10.4763 Y21.4376 Z-0.5713 I-0.0089 J-0.0477
X10.4942 Y21.5329 Z-0.5766 I0.0089 J0.0477
X10.4763 Y21.4376 Z-0.5819 I-0.0089 J-0.0477
X10.4942 Y21.5329 Z-0.5872 I0.0089 J0.0477
X10.4763 Y21.4376 Z-0.5925 I-0.0089 J-0.0477
X10.4942 Y21.5329 Z-0.5979 I0.0089 J0.0477
X10.4763 Y21.4376 Z-0.6032 I-0.0089 J-0.0477
X10.4942 Y21.5329 Z-0.6085 I0.0089 J0.0477
X10.4763 Y21.4376 Z-0.6138 I-0.0089 J-0.0477
X10.4942 Y21.5329 Z-0.6191 I0.0089 J0.0477
X10.4763 Y21.4376 Z-0.6245 I-0.0089 J-0.0477
X10.4942 Y21.5329 Z-0.6298 I0.0089 J0.0477
X10.4763 Y21.4376 Z-0.6351 I-0.0089 J-0.0477
X10.4942 Y21.5329 Z-0.6404 I0.0089 J0.0477
X10.4763 Y21.4376 Z-0.6457 I-0.0089 J-0.0477
X10.4942 Y21.5329 Z-0.6511 I0.0089 J0.0477
X10.4763 Y21.4376 Z-0.6564 I-0.0089 J-0.0477
X10.5302 Y21.5036 Z-0.66 I0.0089 J0.0477
X10.4404 Y21.467 I-0.0449 J-0.0183
X10.5302 Y21.5036 I0.0449 J0.0183
G2 X10.5401 Y21.6174 I0.1159 J0.0472
G3 X10.4847 Y21.7173 I-0.0552 J0.0347
X10.4859 Y21.2533 I0.0006 J-0.232
X10.4847 Y21.7173 I-0.0006 J0.232
G2 X10.3636 Y21.7868 I-0.0003 J0.1398
G3 X10.2263 Y21.8128 I-0.0799 J-0.0465
X10.4853 Y21.0678 I0.259 J-0.3275
Y21.9028 I0. J0.4175
X10.2263 Y21.8128 I0. J-0.4175
G2 X10.2043 Y21.8108 I-0.0125 J0.0158
G3 X10.1824 Y21.8079 I-0.0089 J-0.0167
X10.4853 Y21.0428 I0.3029 J-0.3226
Y21.9278 I0. J0.4425
X10.1824 Y21.8079 I0. J-0.4425
X10.1826 Y21.7896 I0.0086 J-0.0091
G1 X10.2634 Y21.7157
X10.4694 Y21.4646
X10.4702 Y21.4633
X10.4706 Y21.4618
X10.4722 Y21.4422
X10.4726 Y21.4406
X10.4735 Y21.4392
X10.4748 Y21.4382
X10.4763 Y21.4376
G3 X10.4942 Y21.5329 Z-0.6653 I0.0089 J0.0477
X10.4763 Y21.4376 Z-0.6706 I-0.0089 J-0.0477
X10.4942 Y21.5329 Z-0.676 I0.0089 J0.0477
X10.4763 Y21.4376 Z-0.6813 I-0.0089 J-0.0477
X10.4942 Y21.5329 Z-0.6866 I0.0089 J0.0477
X10.4763 Y21.4376 Z-0.6919 I-0.0089 J-0.0477
X10.4942 Y21.5329 Z-0.6972 I0.0089 J0.0477
X10.4763 Y21.4376 Z-0.7025 I-0.0089 J-0.0477
X10.4942 Y21.5329 Z-0.7079 I0.0089 J0.0477
X10.4763 Y21.4376 Z-0.7132 I-0.0089 J-0.0477
X10.4942 Y21.5329 Z-0.7185 I0.0089 J0.0477
X10.4763 Y21.4376 Z-0.7238 I-0.0089 J-0.0477
X10.4942 Y21.5329 Z-0.7291 I0.0089 J0.0477
X10.4763 Y21.4376 Z-0.7345 I-0.0089 J-0.0477
X10.4942 Y21.5329 Z-0.7398 I0.0089 J0.0477
X10.4763 Y21.4376 Z-0.7451 I-0.0089 J-0.0477
X10.4942 Y21.5329 Z-0.7504 I0.0089 J0.0477
X10.4763 Y21.4376 Z-0.7557 I-0.0089 J-0.0477
X10.4942 Y21.5329 Z-0.7611 I0.0089 J0.0477
X10.4763 Y21.4376 Z-0.7664 I-0.0089 J-0.0477
X10.5302 Y21.5036 Z-0.77 I0.0089 J0.0477
X10.4404 Y21.467 I-0.0449 J-0.0183
X10.5302 Y21.5036 I0.0449 J0.0183
G2 X10.5401 Y21.6174 I0.1159 J0.0472
G3 X10.4847 Y21.7173 I-0.0552 J0.0347
X10.4859 Y21.2533 I0.0006 J-0.232
X10.4847 Y21.7173 I-0.0006 J0.232
G2 X10.3636 Y21.7868 I-0.0003 J0.1398
G3 X10.2263 Y21.8128 I-0.0799 J-0.0465
X10.4853 Y21.0678 I0.259 J-0.3275
Y21.9028 I0. J0.4175
X10.2263 Y21.8128 I0. J-0.4175
G2 X10.2043 Y21.8108 I-0.0125 J0.0158
G3 X10.1824 Y21.8079 I-0.0089 J-0.0167
X10.4853 Y21.0428 I0.3029 J-0.3226
Y21.9278 I0. J0.4425
X10.1824 Y21.8079 I0. J-0.4425
G1 X10.1798 Y21.8051 Z-0.7694
X10.1777 Y21.8018 Z-0.7688
X10.1762 Y21.7987 Z-0.767
X10.1752 Y21.7954 Z-0.7652
X10.1747 Y21.7926 Z-0.7625
X10.1745 Y21.7899 Z-0.7597
X10.1748 Y21.7863 Z-0.7527
X10.175 Y21.7851 Z-0.745
G0 Z0.2
X7.7394 Y23.5012
G1 Z0.125 F30.
X7.7389 Y23.4998 Z0.1164 F40.
X7.7378 Y23.4955 Z0.1088
X7.7374 Y23.4921 Z0.106
X7.7372 Y23.4888 Z0.1032
X7.7373 Y23.486 Z0.1021
X7.7377 Y23.4833 Z0.1009
X7.7382 Y23.4804 Z0.1005
X7.739 Y23.4775 Z0.1
G3 X7.7747 Y23.4513 Z0.0983 I0.0358 J0.0113
Y23.5263 Z0.0942 I0. J0.0375
Y23.4513 Z0.0901 I0. J-0.0375
Y23.5263 Z0.086 I0. J0.0375
Y23.4513 Z0.0819 I0. J-0.0375
Y23.5263 Z0.0778 I0. J0.0375
Y23.4513 Z0.0737 I0. J-0.0375
Y23.5263 Z0.0696 I0. J0.0375
Y23.4513 Z0.0654 I0. J-0.0375
Y23.5263 Z0.0613 I0. J0.0375
Y23.4513 Z0.0572 I0. J-0.0375
Y23.5263 Z0.0531 I0. J0.0375
Y23.4513 Z0.049 I0. J-0.0375
Y23.5263 Z0.0449 I0. J0.0375
Y23.4513 Z0.0408 I0. J-0.0375
Y23.5263 Z0.0367 I0. J0.0375
Y23.4513 Z0.0325 I0. J-0.0375
Y23.5263 Z0.0284 I0. J0.0375
Y23.4513 Z0.0243 I0. J-0.0375
Y23.5263 Z0.0202 I0. J0.0375
Y23.4513 Z0.0161 I0. J-0.0375
Y23.5263 Z0.012 I0. J0.0375
Y23.4513 Z0.0079 I0. J-0.0375
Y23.5263 Z0.0038 I0. J0.0375
Y23.4513 Z-0.0004 I0. J-0.0375
Y23.5263 Z-0.0045 I0. J0.0375
Y23.4513 Z-0.0086 I0. J-0.0375
Y23.5263 Z-0.0127 I0. J0.0375
Y23.4513 Z-0.0168 I0. J-0.0375
Y23.5263 Z-0.0209 I0. J0.0375
Y23.4513 Z-0.025 I0. J-0.0375
Y23.5263 Z-0.0291 I0. J0.0375
Y23.4513 Z-0.0333 I0. J-0.0375
Y23.5263 Z-0.0374 I0. J0.0375
Y23.4513 Z-0.0415 I0. J-0.0375
Y23.5263 Z-0.0456 I0. J0.0375
Y23.4513 Z-0.0497 I0. J-0.0375
Y23.5263 Z-0.0538 I0. J0.0375
Y23.4513 Z-0.0579 I0. J-0.0375
Y23.5263 Z-0.062 I0. J0.0375
Y23.4513 Z-0.0662 I0. J-0.0375
Y23.5263 Z-0.0703 I0. J0.0375
Y23.4513 Z-0.0744 I0. J-0.0375
Y23.5263 Z-0.0785 I0. J0.0375
Y23.4513 Z-0.0826 I0. J-0.0375
Y23.5263 Z-0.0867 I0. J0.0375
Y23.4513 Z-0.0908 I0. J-0.0375
Y23.5263 Z-0.095 I0. J0.0375
Y23.4513 Z-0.0991 I0. J-0.0375
Y23.5263 Z-0.1032 I0. J0.0375
Y23.4513 Z-0.1073 I0. J-0.0375
X7.8076 Y23.5067 Z-0.11 I0. J0.0375
X7.7747 Y23.5263 I-0.0329 J-0.018
Y23.4513 I0. J-0.0375
X7.8076 Y23.5067 I0. J0.0375
G2 X7.8082 Y23.5259 I0.0167 J0.0091
G3 X7.803 Y23.5445 I-0.011 J0.0069
X7.7747 Y23.5513 I-0.0283 J-0.0557
Y23.4263 I0. J-0.0625
X7.803 Y23.5445 I0. J0.0625
X7.7912 Y23.539 I-0.0038 J-0.0074
G1 X7.7815 Y23.4995
X7.7598 Y23.4651
G3 X7.7645 Y23.4527 I0.007 J-0.0045
X7.7747 Y23.4513 Z-0.1104 I0.0102 J0.0361
Y23.5263 Z-0.1145 I0. J0.0375
Y23.4513 Z-0.1186 I0. J-0.0375
Y23.5263 Z-0.1227 I0. J0.0375
Y23.4513 Z-0.1268 I0. J-0.0375
Y23.5263 Z-0.1309 I0. J0.0375
Y23.4513 Z-0.135 I0. J-0.0375
Y23.5263 Z-0.1391 I0. J0.0375
Y23.4513 Z-0.1433 I0. J-0.0375
Y23.5263 Z-0.1474 I0. J0.0375
Y23.4513 Z-0.1515 I0. J-0.0375
Y23.5263 Z-0.1556 I0. J0.0375
Y23.4513 Z-0.1597 I0. J-0.0375
Y23.5263 Z-0.1638 I0. J0.0375
Y23.4513 Z-0.1679 I0. J-0.0375
Y23.5263 Z-0.172 I0. J0.0375
Y23.4513 Z-0.1762 I0. J-0.0375
Y23.5263 Z-0.1803 I0. J0.0375
Y23.4513 Z-0.1844 I0. J-0.0375
Y23.5263 Z-0.1885 I0. J0.0375
Y23.4513 Z-0.1926 I0. J-0.0375
Y23.5263 Z-0.1967 I0. J0.0375
Y23.4513 Z-0.2008 I0. J-0.0375
Y23.5263 Z-0.205 I0. J0.0375
Y23.4513 Z-0.2091 I0. J-0.0375
Y23.5263 Z-0.2132 I0. J0.0375
Y23.4513 Z-0.2173 I0. J-0.0375
X7.8076 Y23.5067 Z-0.22 I0. J0.0375
X7.7747 Y23.5263 I-0.0329 J-0.018
Y23.4513 I0. J-0.0375
X7.8076 Y23.5067 I0. J0.0375
G2 X7.8082 Y23.5259 I0.0167 J0.0091
G3 X7.803 Y23.5445 I-0.011 J0.0069
X7.7747 Y23.5513 I-0.0283 J-0.0557
Y23.4263 I0. J-0.0625
X7.803 Y23.5445 I0. J0.0625
X7.7912 Y23.539 I-0.0038 J-0.0074
G1 X7.7815 Y23.4995
X7.7598 Y23.4651
G3 X7.7645 Y23.4527 I0.007 J-0.0045
X7.7747 Y23.4513 Z-0.2204 I0.0102 J0.0361
Y23.5263 Z-0.2245 I0. J0.0375
Y23.4513 Z-0.2286 I0. J-0.0375
Y23.5263 Z-0.2327 I0. J0.0375
Y23.4513 Z-0.2368 I0. J-0.0375
Y23.5263 Z-0.2409 I0. J0.0375
Y23.4513 Z-0.245 I0. J-0.0375
Y23.5263 Z-0.2491 I0. J0.0375
Y23.4513 Z-0.2533 I0. J-0.0375
Y23.5263 Z-0.2574 I0. J0.0375
Y23.4513 Z-0.2615 I0. J-0.0375
Y23.5263 Z-0.2656 I0. J0.0375
Y23.4513 Z-0.2697 I0. J-0.0375
Y23.5263 Z-0.2738 I0. J0.0375
Y23.4513 Z-0.2779 I0. J-0.0375
Y23.5263 Z-0.282 I0. J0.0375
Y23.4513 Z-0.2862 I0. J-0.0375
Y23.5263 Z-0.2903 I0. J0.0375
Y23.4513 Z-0.2944 I0. J-0.0375
Y23.5263 Z-0.2985 I0. J0.0375
Y23.4513 Z-0.3026 I0. J-0.0375
Y23.5263 Z-0.3067 I0. J0.0375
Y23.4513 Z-0.3108 I0. J-0.0375
Y23.5263 Z-0.315 I0. J0.0375
Y23.4513 Z-0.3191 I0. J-0.0375
Y23.5263 Z-0.3232 I0. J0.0375
Y23.4513 Z-0.3273 I0. J-0.0375
X7.8076 Y23.5067 Z-0.33 I0. J0.0375
X7.7747 Y23.5263 I-0.0329 J-0.018
Y23.4513 I0. J-0.0375
X7.8076 Y23.5067 I0. J0.0375
G2 X7.8082 Y23.5259 I0.0167 J0.0091
G3 X7.803 Y23.5445 I-0.011 J0.0069
X7.7747 Y23.5513 I-0.0283 J-0.0557
Y23.4263 I0. J-0.0625
X7.803 Y23.5445 I0. J0.0625
X7.7912 Y23.539 I-0.0038 J-0.0074
G1 X7.7815 Y23.4995
X7.7598 Y23.4651
G3 X7.7645 Y23.4527 I0.007 J-0.0045
X7.7747 Y23.4513 Z-0.3304 I0.0102 J0.0361
Y23.5263 Z-0.3345 I0. J0.0375
Y23.4513 Z-0.3386 I0. J-0.0375
Y23.5263 Z-0.3427 I0. J0.0375
Y23.4513 Z-0.3468 I0. J-0.0375
Y23.5263 Z-0.3509 I0. J0.0375
Y23.4513 Z-0.355 I0. J-0.0375
Y23.5263 Z-0.3591 I0. J0.0375
Y23.4513 Z-0.3633 I0. J-0.0375
Y23.5263 Z-0.3674 I0. J0.0375
Y23.4513 Z-0.3715 I0. J-0.0375
Y23.5263 Z-0.3756 I0. J0.0375
Y23.4513 Z-0.3797 I0. J-0.0375
Y23.5263 Z-0.3838 I0. J0.0375
Y23.4513 Z-0.3879 I0. J-0.0375
Y23.5263 Z-0.392 I0. J0.0375
Y23.4513 Z-0.3962 I0. J-0.0375
Y23.5263 Z-0.4003 I0. J0.0375
Y23.4513 Z-0.4044 I0. J-0.0375
Y23.5263 Z-0.4085 I0. J0.0375
Y23.4513 Z-0.4126 I0. J-0.0375
Y23.5263 Z-0.4167 I0. J0.0375
Y23.4513 Z-0.4208 I0. J-0.0375
Y23.5263 Z-0.425 I0. J0.0375
Y23.4513 Z-0.4291 I0. J-0.0375
Y23.5263 Z-0.4332 I0. J0.0375
Y23.4513 Z-0.4373 I0. J-0.0375
X7.8076 Y23.5067 Z-0.44 I0. J0.0375
X7.7747 Y23.5263 I-0.0329 J-0.018
Y23.4513 I0. J-0.0375
X7.8076 Y23.5067 I0. J0.0375
G2 X7.8082 Y23.5259 I0.0167 J0.0091
G3 X7.803 Y23.5445 I-0.011 J0.0069
X7.7747 Y23.5513 I-0.0283 J-0.0557
Y23.4263 I0. J-0.0625
X7.803 Y23.5445 I0. J0.0625
X7.7912 Y23.539 I-0.0038 J-0.0074
G1 X7.7815 Y23.4995
X7.7598 Y23.4651
G3 X7.7645 Y23.4527 I0.007 J-0.0045
X7.7747 Y23.4513 Z-0.4404 I0.0102 J0.0361
Y23.5263 Z-0.4445 I0. J0.0375
Y23.4513 Z-0.4486 I0. J-0.0375
Y23.5263 Z-0.4527 I0. J0.0375
Y23.4513 Z-0.4568 I0. J-0.0375
Y23.5263 Z-0.4609 I0. J0.0375
Y23.4513 Z-0.465 I0. J-0.0375
Y23.5263 Z-0.4691 I0. J0.0375
Y23.4513 Z-0.4733 I0. J-0.0375
Y23.5263 Z-0.4774 I0. J0.0375
Y23.4513 Z-0.4815 I0. J-0.0375
Y23.5263 Z-0.4856 I0. J0.0375
Y23.4513 Z-0.4897 I0. J-0.0375
Y23.5263 Z-0.4938 I0. J0.0375
Y23.4513 Z-0.4979 I0. J-0.0375
Y23.5263 Z-0.502 I0. J0.0375
Y23.4513 Z-0.5062 I0. J-0.0375
Y23.5263 Z-0.5103 I0. J0.0375
Y23.4513 Z-0.5144 I0. J-0.0375
Y23.5263 Z-0.5185 I0. J0.0375
Y23.4513 Z-0.5226 I0. J-0.0375
Y23.5263 Z-0.5267 I0. J0.0375
Y23.4513 Z-0.5308 I0. J-0.0375
Y23.5263 Z-0.535 I0. J0.0375
Y23.4513 Z-0.5391 I0. J-0.0375
Y23.5263 Z-0.5432 I0. J0.0375
Y23.4513 Z-0.5473 I0. J-0.0375
X7.8076 Y23.5067 Z-0.55 I0. J0.0375
X7.7747 Y23.5263 I-0.0329 J-0.018
Y23.4513 I0. J-0.0375
X7.8076 Y23.5067 I0. J0.0375
G2 X7.8082 Y23.5259 I0.0167 J0.0091
G3 X7.803 Y23.5445 I-0.011 J0.0069
X7.7747 Y23.5513 I-0.0283 J-0.0557
Y23.4263 I0. J-0.0625
X7.803 Y23.5445 I0. J0.0625
X7.7912 Y23.539 I-0.0038 J-0.0074
G1 X7.7815 Y23.4995
X7.7598 Y23.4651
G3 X7.7645 Y23.4527 I0.007 J-0.0045
X7.7747 Y23.4513 Z-0.5504 I0.0102 J0.0361
Y23.5263 Z-0.5545 I0. J0.0375
Y23.4513 Z-0.5586 I0. J-0.0375
Y23.5263 Z-0.5627 I0. J0.0375
Y23.4513 Z-0.5668 I0. J-0.0375
Y23.5263 Z-0.5709 I0. J0.0375
Y23.4513 Z-0.575 I0. J-0.0375
Y23.5263 Z-0.5791 I0. J0.0375
Y23.4513 Z-0.5833 I0. J-0.0375
Y23.5263 Z-0.5874 I0. J0.0375
Y23.4513 Z-0.5915 I0. J-0.0375
Y23.5263 Z-0.5956 I0. J0.0375
Y23.4513 Z-0.5997 I0. J-0.0375
Y23.5263 Z-0.6038 I0. J0.0375
Y23.4513 Z-0.6079 I0. J-0.0375
Y23.5263 Z-0.612 I0. J0.0375
Y23.4513 Z-0.6162 I0. J-0.0375
Y23.5263 Z-0.6203 I0. J0.0375
Y23.4513 Z-0.6244 I0. J-0.0375
Y23.5263 Z-0.6285 I0. J0.0375
Y23.4513 Z-0.6326 I0. J-0.0375
Y23.5263 Z-0.6367 I0. J0.0375
Y23.4513 Z-0.6408 I0. J-0.0375
Y23.5263 Z-0.645 I0. J0.0375
Y23.4513 Z-0.6491 I0. J-0.0375
Y23.5263 Z-0.6532 I0. J0.0375
Y23.4513 Z-0.6573 I0. J-0.0375
X7.8076 Y23.5067 Z-0.66 I0. J0.0375
X7.7747 Y23.5263 I-0.0329 J-0.018
Y23.4513 I0. J-0.0375
X7.8076 Y23.5067 I0. J0.0375
G2 X7.8082 Y23.5259 I0.0167 J0.0091
G3 X7.803 Y23.5445 I-0.011 J0.0069
X7.7747 Y23.5513 I-0.0283 J-0.0557
Y23.4263 I0. J-0.0625
X7.803 Y23.5445 I0. J0.0625
X7.7912 Y23.539 I-0.0038 J-0.0074
G1 X7.7815 Y23.4995
X7.7598 Y23.4651
G3 X7.7645 Y23.4527 I0.007 J-0.0045
X7.7747 Y23.4513 Z-0.6604 I0.0102 J0.0361
Y23.5263 Z-0.6645 I0. J0.0375
Y23.4513 Z-0.6686 I0. J-0.0375
Y23.5263 Z-0.6727 I0. J0.0375
Y23.4513 Z-0.6768 I0. J-0.0375
Y23.5263 Z-0.6809 I0. J0.0375
Y23.4513 Z-0.685 I0. J-0.0375
Y23.5263 Z-0.6891 I0. J0.0375
Y23.4513 Z-0.6933 I0. J-0.0375
Y23.5263 Z-0.6974 I0. J0.0375
Y23.4513 Z-0.7015 I0. J-0.0375
Y23.5263 Z-0.7056 I0. J0.0375
Y23.4513 Z-0.7097 I0. J-0.0375
Y23.5263 Z-0.7138 I0. J0.0375
Y23.4513 Z-0.7179 I0. J-0.0375
Y23.5263 Z-0.722 I0. J0.0375
Y23.4513 Z-0.7262 I0. J-0.0375
Y23.5263 Z-0.7303 I0. J0.0375
Y23.4513 Z-0.7344 I0. J-0.0375
Y23.5263 Z-0.7385 I0. J0.0375
Y23.4513 Z-0.7426 I0. J-0.0375
Y23.5263 Z-0.7467 I0. J0.0375
Y23.4513 Z-0.7508 I0. J-0.0375
Y23.5263 Z-0.755 I0. J0.0375
Y23.4513 Z-0.7591 I0. J-0.0375
Y23.5263 Z-0.7632 I0. J0.0375
Y23.4513 Z-0.7673 I0. J-0.0375
X7.8076 Y23.5067 Z-0.77 I0. J0.0375
X7.7747 Y23.5263 I-0.0329 J-0.018
Y23.4513 I0. J-0.0375
X7.8076 Y23.5067 I0. J0.0375
G2 X7.8082 Y23.5259 I0.0167 J0.0091
G3 X7.803 Y23.5445 I-0.011 J0.0069
X7.7747 Y23.5513 I-0.0283 J-0.0557
Y23.4263 I0. J-0.0625
X7.803 Y23.5445 I0. J0.0625
G1 X7.7995 Y23.5459 Z-0.7694
X7.7957 Y23.5469 Z-0.7688
X7.7923 Y23.5472 Z-0.767
X7.7888 Y23.547 Z-0.7652
X7.7861 Y23.5465 Z-0.7625
X7.7834 Y23.5458 Z-0.7597
X7.7802 Y23.5444 Z-0.7527
X7.7791 Y23.5438 Z-0.745
G0 Z0.2
X6.7965 Y24.444
G1 Z0.125 F30.
X6.7961 Y24.4426 Z0.1164 F40.
X6.795 Y24.4383 Z0.1088
X6.7946 Y24.4349 Z0.106
X6.7944 Y24.4316 Z0.1032
X6.7945 Y24.4288 Z0.1021
X6.7948 Y24.4261 Z0.1009
X6.7954 Y24.4232 Z0.1005
X6.7961 Y24.4203 Z0.1
G3 X6.8319 Y24.3941 Z0.0983 I0.0358 J0.0113
Y24.4691 Z0.0942 I0. J0.0375
Y24.3941 Z0.0901 I0. J-0.0375
Y24.4691 Z0.086 I0. J0.0375
Y24.3941 Z0.0819 I0. J-0.0375
Y24.4691 Z0.0778 I0. J0.0375
Y24.3941 Z0.0737 I0. J-0.0375
Y24.4691 Z0.0696 I0. J0.0375
Y24.3941 Z0.0654 I0. J-0.0375
Y24.4691 Z0.0613 I0. J0.0375
Y24.3941 Z0.0572 I0. J-0.0375
Y24.4691 Z0.0531 I0. J0.0375
Y24.3941 Z0.049 I0. J-0.0375
Y24.4691 Z0.0449 I0. J0.0375
Y24.3941 Z0.0408 I0. J-0.0375
Y24.4691 Z0.0367 I0. J0.0375
Y24.3941 Z0.0325 I0. J-0.0375
Y24.4691 Z0.0284 I0. J0.0375
Y24.3941 Z0.0243 I0. J-0.0375
Y24.4691 Z0.0202 I0. J0.0375
Y24.3941 Z0.0161 I0. J-0.0375
Y24.4691 Z0.012 I0. J0.0375
Y24.3941 Z0.0079 I0. J-0.0375
Y24.4691 Z0.0038 I0. J0.0375
Y24.3941 Z-0.0004 I0. J-0.0375
Y24.4691 Z-0.0045 I0. J0.0375
Y24.3941 Z-0.0086 I0. J-0.0375
Y24.4691 Z-0.0127 I0. J0.0375
Y24.3941 Z-0.0168 I0. J-0.0375
Y24.4691 Z-0.0209 I0. J0.0375
Y24.3941 Z-0.025 I0. J-0.0375
Y24.4691 Z-0.0291 I0. J0.0375
Y24.3941 Z-0.0333 I0. J-0.0375
Y24.4691 Z-0.0374 I0. J0.0375
Y24.3941 Z-0.0415 I0. J-0.0375
Y24.4691 Z-0.0456 I0. J0.0375
Y24.3941 Z-0.0497 I0. J-0.0375
Y24.4691 Z-0.0538 I0. J0.0375
Y24.3941 Z-0.0579 I0. J-0.0375
Y24.4691 Z-0.062 I0. J0.0375
Y24.3941 Z-0.0662 I0. J-0.0375
Y24.4691 Z-0.0703 I0. J0.0375
Y24.3941 Z-0.0744 I0. J-0.0375
Y24.4691 Z-0.0785 I0. J0.0375
Y24.3941 Z-0.0826 I0. J-0.0375
Y24.4691 Z-0.0867 I0. J0.0375
Y24.3941 Z-0.0908 I0. J-0.0375
Y24.4691 Z-0.095 I0. J0.0375
Y24.3941 Z-0.0991 I0. J-0.0375
Y24.4691 Z-0.1032 I0. J0.0375
Y24.3941 Z-0.1073 I0. J-0.0375
X6.8648 Y24.4495 Z-0.11 I0. J0.0375
X6.8319 Y24.4691 I-0.0329 J-0.018
Y24.3941 I0. J-0.0375
X6.8648 Y24.4495 I0. J0.0375
G2 X6.8653 Y24.4687 I0.0167 J0.0091
G3 X6.8602 Y24.4873 I-0.011 J0.0069
X6.8319 Y24.4941 I-0.0283 J-0.0557
Y24.3691 I0. J-0.0625
X6.8602 Y24.4873 I0. J0.0625
X6.8484 Y24.4818 I-0.0038 J-0.0074
G1 X6.8387 Y24.4423
X6.8169 Y24.4079
G3 X6.8217 Y24.3955 I0.007 J-0.0045
X6.8319 Y24.3941 Z-0.1104 I0.0102 J0.0361
Y24.4691 Z-0.1145 I0. J0.0375
Y24.3941 Z-0.1186 I0. J-0.0375
Y24.4691 Z-0.1227 I0. J0.0375
Y24.3941 Z-0.1268 I0. J-0.0375
Y24.4691 Z-0.1309 I0. J0.0375
Y24.3941 Z-0.135 I0. J-0.0375
Y24.4691 Z-0.1391 I0. J0.0375
Y24.3941 Z-0.1433 I0. J-0.0375
Y24.4691 Z-0.1474 I0. J0.0375
Y24.3941 Z-0.1515 I0. J-0.0375
Y24.4691 Z-0.1556 I0. J0.0375
Y24.3941 Z-0.1597 I0. J-0.0375
Y24.4691 Z-0.1638 I0. J0.0375
Y24.3941 Z-0.1679 I0. J-0.0375
Y24.4691 Z-0.172 I0. J0.0375
Y24.3941 Z-0.1762 I0. J-0.0375
Y24.4691 Z-0.1803 I0. J0.0375
Y24.3941 Z-0.1844 I0. J-0.0375
Y24.4691 Z-0.1885 I0. J0.0375
Y24.3941 Z-0.1926 I0. J-0.0375
Y24.4691 Z-0.1967 I0. J0.0375
Y24.3941 Z-0.2008 I0. J-0.0375
Y24.4691 Z-0.205 I0. J0.0375
Y24.3941 Z-0.2091 I0. J-0.0375
Y24.4691 Z-0.2132 I0. J0.0375
Y24.3941 Z-0.2173 I0. J-0.0375
X6.8648 Y24.4495 Z-0.22 I0. J0.0375
X6.8319 Y24.4691 I-0.0329 J-0.018
Y24.3941 I0. J-0.0375
X6.8648 Y24.4495 I0. J0.0375
G2 X6.8653 Y24.4687 I0.0167 J0.0091
G3 X6.8602 Y24.4873 I-0.011 J0.0069
X6.8319 Y24.4941 I-0.0283 J-0.0557
Y24.3691 I0. J-0.0625
X6.8602 Y24.4873 I0. J0.0625
X6.8484 Y24.4818 I-0.0038 J-0.0074
G1 X6.8387 Y24.4423
X6.8169 Y24.4079
G3 X6.8217 Y24.3955 I0.007 J-0.0045
X6.8319 Y24.3941 Z-0.2204 I0.0102 J0.0361
Y24.4691 Z-0.2245 I0. J0.0375
Y24.3941 Z-0.2286 I0. J-0.0375
Y24.4691 Z-0.2327 I0. J0.0375
Y24.3941 Z-0.2368 I0. J-0.0375
Y24.4691 Z-0.2409 I0. J0.0375
Y24.3941 Z-0.245 I0. J-0.0375
Y24.4691 Z-0.2491 I0. J0.0375
Y24.3941 Z-0.2533 I0. J-0.0375
Y24.4691 Z-0.2574 I0. J0.0375
Y24.3941 Z-0.2615 I0. J-0.0375
Y24.4691 Z-0.2656 I0. J0.0375
Y24.3941 Z-0.2697 I0. J-0.0375
Y24.4691 Z-0.2738 I0. J0.0375
Y24.3941 Z-0.2779 I0. J-0.0375
Y24.4691 Z-0.282 I0. J0.0375
Y24.3941 Z-0.2862 I0. J-0.0375
Y24.4691 Z-0.2903 I0. J0.0375
Y24.3941 Z-0.2944 I0. J-0.0375
Y24.4691 Z-0.2985 I0. J0.0375
Y24.3941 Z-0.3026 I0. J-0.0375
Y24.4691 Z-0.3067 I0. J0.0375
Y24.3941 Z-0.3108 I0. J-0.0375
Y24.4691 Z-0.315 I0. J0.0375
Y24.3941 Z-0.3191 I0. J-0.0375
Y24.4691 Z-0.3232 I0. J0.0375
Y24.3941 Z-0.3273 I0. J-0.0375
X6.8648 Y24.4495 Z-0.33 I0. J0.0375
X6.8319 Y24.4691 I-0.0329 J-0.018
Y24.3941 I0. J-0.0375
X6.8648 Y24.4495 I0. J0.0375
G2 X6.8653 Y24.4687 I0.0167 J0.0091
G3 X6.8602 Y24.4873 I-0.011 J0.0069
X6.8319 Y24.4941 I-0.0283 J-0.0557
Y24.3691 I0. J-0.0625
X6.8602 Y24.4873 I0. J0.0625
X6.8484 Y24.4818 I-0.0038 J-0.0074
G1 X6.8387 Y24.4423
X6.8169 Y24.4079
G3 X6.8217 Y24.3955 I0.007 J-0.0045
X6.8319 Y24.3941 Z-0.3304 I0.0102 J0.0361
Y24.4691 Z-0.3345 I0. J0.0375
Y24.3941 Z-0.3386 I0. J-0.0375
Y24.4691 Z-0.3427 I0. J0.0375
Y24.3941 Z-0.3468 I0. J-0.0375
Y24.4691 Z-0.3509 I0. J0.0375
Y24.3941 Z-0.355 I0. J-0.0375
Y24.4691 Z-0.3591 I0. J0.0375
Y24.3941 Z-0.3633 I0. J-0.0375
Y24.4691 Z-0.3674 I0. J0.0375
Y24.3941 Z-0.3715 I0. J-0.0375
Y24.4691 Z-0.3756 I0. J0.0375
Y24.3941 Z-0.3797 I0. J-0.0375
Y24.4691 Z-0.3838 I0. J0.0375
Y24.3941 Z-0.3879 I0. J-0.0375
Y24.4691 Z-0.392 I0. J0.0375
Y24.3941 Z-0.3962 I0. J-0.0375
Y24.4691 Z-0.4003 I0. J0.0375
Y24.3941 Z-0.4044 I0. J-0.0375
Y24.4691 Z-0.4085 I0. J0.0375
Y24.3941 Z-0.4126 I0. J-0.0375
Y24.4691 Z-0.4167 I0. J0.0375
Y24.3941 Z-0.4208 I0. J-0.0375
Y24.4691 Z-0.425 I0. J0.0375
Y24.3941 Z-0.4291 I0. J-0.0375
Y24.4691 Z-0.4332 I0. J0.0375
Y24.3941 Z-0.4373 I0. J-0.0375
X6.8648 Y24.4495 Z-0.44 I0. J0.0375
X6.8319 Y24.4691 I-0.0329 J-0.018
Y24.3941 I0. J-0.0375
X6.8648 Y24.4495 I0. J0.0375
G2 X6.8653 Y24.4687 I0.0167 J0.0091
G3 X6.8602 Y24.4873 I-0.011 J0.0069
X6.8319 Y24.4941 I-0.0283 J-0.0557
Y24.3691 I0. J-0.0625
X6.8602 Y24.4873 I0. J0.0625
X6.8484 Y24.4818 I-0.0038 J-0.0074
G1 X6.8387 Y24.4423
X6.8169 Y24.4079
G3 X6.8217 Y24.3955 I0.007 J-0.0045
X6.8319 Y24.3941 Z-0.4404 I0.0102 J0.0361
Y24.4691 Z-0.4445 I0. J0.0375
Y24.3941 Z-0.4486 I0. J-0.0375
Y24.4691 Z-0.4527 I0. J0.0375
Y24.3941 Z-0.4568 I0. J-0.0375
Y24.4691 Z-0.4609 I0. J0.0375
Y24.3941 Z-0.465 I0. J-0.0375
Y24.4691 Z-0.4691 I0. J0.0375
Y24.3941 Z-0.4733 I0. J-0.0375
Y24.4691 Z-0.4774 I0. J0.0375
Y24.3941 Z-0.4815 I0. J-0.0375
Y24.4691 Z-0.4856 I0. J0.0375
Y24.3941 Z-0.4897 I0. J-0.0375
Y24.4691 Z-0.4938 I0. J0.0375
Y24.3941 Z-0.4979 I0. J-0.0375
Y24.4691 Z-0.502 I0. J0.0375
Y24.3941 Z-0.5062 I0. J-0.0375
Y24.4691 Z-0.5103 I0. J0.0375
Y24.3941 Z-0.5144 I0. J-0.0375
Y24.4691 Z-0.5185 I0. J0.0375
Y24.3941 Z-0.5226 I0. J-0.0375
Y24.4691 Z-0.5267 I0. J0.0375
Y24.3941 Z-0.5308 I0. J-0.0375
Y24.4691 Z-0.535 I0. J0.0375
Y24.3941 Z-0.5391 I0. J-0.0375
Y24.4691 Z-0.5432 I0. J0.0375
Y24.3941 Z-0.5473 I0. J-0.0375
X6.8648 Y24.4495 Z-0.55 I0. J0.0375
X6.8319 Y24.4691 I-0.0329 J-0.018
Y24.3941 I0. J-0.0375
X6.8648 Y24.4495 I0. J0.0375
G2 X6.8653 Y24.4687 I0.0167 J0.0091
G3 X6.8602 Y24.4873 I-0.011 J0.0069
X6.8319 Y24.4941 I-0.0283 J-0.0557
Y24.3691 I0. J-0.0625
X6.8602 Y24.4873 I0. J0.0625
X6.8484 Y24.4818 I-0.0038 J-0.0074
G1 X6.8387 Y24.4423
X6.8169 Y24.4079
G3 X6.8217 Y24.3955 I0.007 J-0.0045
X6.8319 Y24.3941 Z-0.5504 I0.0102 J0.0361
Y24.4691 Z-0.5545 I0. J0.0375
Y24.3941 Z-0.5586 I0. J-0.0375
Y24.4691 Z-0.5627 I0. J0.0375
Y24.3941 Z-0.5668 I0. J-0.0375
Y24.4691 Z-0.5709 I0. J0.0375
Y24.3941 Z-0.575 I0. J-0.0375
Y24.4691 Z-0.5791 I0. J0.0375
Y24.3941 Z-0.5833 I0. J-0.0375
Y24.4691 Z-0.5874 I0. J0.0375
Y24.3941 Z-0.5915 I0. J-0.0375
Y24.4691 Z-0.5956 I0. J0.0375
Y24.3941 Z-0.5997 I0. J-0.0375
Y24.4691 Z-0.6038 I0. J0.0375
Y24.3941 Z-0.6079 I0. J-0.0375
Y24.4691 Z-0.612 I0. J0.0375
Y24.3941 Z-0.6162 I0. J-0.0375
Y24.4691 Z-0.6203 I0. J0.0375
Y24.3941 Z-0.6244 I0. J-0.0375
Y24.4691 Z-0.6285 I0. J0.0375
Y24.3941 Z-0.6326 I0. J-0.0375
Y24.4691 Z-0.6367 I0. J0.0375
Y24.3941 Z-0.6408 I0. J-0.0375
Y24.4691 Z-0.645 I0. J0.0375
Y24.3941 Z-0.6491 I0. J-0.0375
Y24.4691 Z-0.6532 I0. J0.0375
Y24.3941 Z-0.6573 I0. J-0.0375
X6.8648 Y24.4495 Z-0.66 I0. J0.0375
X6.8319 Y24.4691 I-0.0329 J-0.018
Y24.3941 I0. J-0.0375
X6.8648 Y24.4495 I0. J0.0375
G2 X6.8653 Y24.4687 I0.0167 J0.0091
G3 X6.8602 Y24.4873 I-0.011 J0.0069
X6.8319 Y24.4941 I-0.0283 J-0.0557
Y24.3691 I0. J-0.0625
X6.8602 Y24.4873 I0. J0.0625
X6.8484 Y24.4818 I-0.0038 J-0.0074
G1 X6.8387 Y24.4423
X6.8169 Y24.4079
G3 X6.8217 Y24.3955 I0.007 J-0.0045
X6.8319 Y24.3941 Z-0.6604 I0.0102 J0.0361
Y24.4691 Z-0.6645 I0. J0.0375
Y24.3941 Z-0.6686 I0. J-0.0375
Y24.4691 Z-0.6727 I0. J0.0375
Y24.3941 Z-0.6768 I0. J-0.0375
Y24.4691 Z-0.6809 I0. J0.0375
Y24.3941 Z-0.685 I0. J-0.0375
Y24.4691 Z-0.6891 I0. J0.0375
Y24.3941 Z-0.6933 I0. J-0.0375
Y24.4691 Z-0.6974 I0. J0.0375
Y24.3941 Z-0.7015 I0. J-0.0375
Y24.4691 Z-0.7056 I0. J0.0375
Y24.3941 Z-0.7097 I0. J-0.0375
Y24.4691 Z-0.7138 I0. J0.0375
Y24.3941 Z-0.7179 I0. J-0.0375
Y24.4691 Z-0.722 I0. J0.0375
Y24.3941 Z-0.7262 I0. J-0.0375
Y24.4691 Z-0.7303 I0. J0.0375
Y24.3941 Z-0.7344 I0. J-0.0375
Y24.4691 Z-0.7385 I0. J0.0375
Y24.3941 Z-0.7426 I0. J-0.0375
Y24.4691 Z-0.7467 I0. J0.0375
Y24.3941 Z-0.7508 I0. J-0.0375
Y24.4691 Z-0.755 I0. J0.0375
Y24.3941 Z-0.7591 I0. J-0.0375
Y24.4691 Z-0.7632 I0. J0.0375
Y24.3941 Z-0.7673 I0. J-0.0375
X6.8648 Y24.4495 Z-0.77 I0. J0.0375
X6.8319 Y24.4691 I-0.0329 J-0.018
Y24.3941 I0. J-0.0375
X6.8648 Y24.4495 I0. J0.0375
G2 X6.8653 Y24.4687 I0.0167 J0.0091
G3 X6.8602 Y24.4873 I-0.011 J0.0069
X6.8319 Y24.4941 I-0.0283 J-0.0557
Y24.3691 I0. J-0.0625
X6.8602 Y24.4873 I0. J0.0625
G1 X6.8566 Y24.4887 Z-0.7694
X6.8529 Y24.4896 Z-0.7688
X6.8494 Y24.49 Z-0.767
X6.846 Y24.4898 Z-0.7652
X6.8432 Y24.4893 Z-0.7625
X6.8406 Y24.4886 Z-0.7597
X6.8373 Y24.4871 Z-0.7527
X6.8363 Y24.4866 Z-0.745
G0 Z0.2
X5.8537 Y25.3868
G1 Z0.125 F30.
X5.8533 Y25.3854 Z0.1164 F40.
X5.8522 Y25.3811 Z0.1088
X5.8518 Y25.3777 Z0.106
X5.8516 Y25.3743 Z0.1032
X5.8517 Y25.3716 Z0.1021
X5.852 Y25.3688 Z0.1009
X5.8526 Y25.3659 Z0.1005
X5.8533 Y25.3631 Z0.1
G3 X5.8891 Y25.3369 Z0.0983 I0.0358 J0.0113
Y25.4119 Z0.0942 I0. J0.0375
Y25.3369 Z0.0901 I0. J-0.0375
Y25.4119 Z0.086 I0. J0.0375
Y25.3369 Z0.0819 I0. J-0.0375
Y25.4119 Z0.0778 I0. J0.0375
Y25.3369 Z0.0737 I0. J-0.0375
Y25.4119 Z0.0696 I0. J0.0375
Y25.3369 Z0.0654 I0. J-0.0375
Y25.4119 Z0.0613 I0. J0.0375
Y25.3369 Z0.0572 I0. J-0.0375
Y25.4119 Z0.0531 I0. J0.0375
Y25.3369 Z0.049 I0. J-0.0375
Y25.4119 Z0.0449 I0. J0.0375
Y25.3369 Z0.0408 I0. J-0.0375
Y25.4119 Z0.0367 I0. J0.0375
Y25.3369 Z0.0325 I0. J-0.0375
Y25.4119 Z0.0284 I0. J0.0375
Y25.3369 Z0.0243 I0. J-0.0375
Y25.4119 Z0.0202 I0. J0.0375
Y25.3369 Z0.0161 I0. J-0.0375
Y25.4119 Z0.012 I0. J0.0375
Y25.3369 Z0.0079 I0. J-0.0375
Y25.4119 Z0.0038 I0. J0.0375
Y25.3369 Z-0.0004 I0. J-0.0375
Y25.4119 Z-0.0045 I0. J0.0375
Y25.3369 Z-0.0086 I0. J-0.0375
Y25.4119 Z-0.0127 I0. J0.0375
Y25.3369 Z-0.0168 I0. J-0.0375
Y25.4119 Z-0.0209 I0. J0.0375
Y25.3369 Z-0.025 I0. J-0.0375
Y25.4119 Z-0.0291 I0. J0.0375
Y25.3369 Z-0.0333 I0. J-0.0375
Y25.4119 Z-0.0374 I0. J0.0375
Y25.3369 Z-0.0415 I0. J-0.0375
Y25.4119 Z-0.0456 I0. J0.0375
Y25.3369 Z-0.0497 I0. J-0.0375
Y25.4119 Z-0.0538 I0. J0.0375
Y25.3369 Z-0.0579 I0. J-0.0375
Y25.4119 Z-0.062 I0. J0.0375
Y25.3369 Z-0.0662 I0. J-0.0375
Y25.4119 Z-0.0703 I0. J0.0375
Y25.3369 Z-0.0744 I0. J-0.0375
Y25.4119 Z-0.0785 I0. J0.0375
Y25.3369 Z-0.0826 I0. J-0.0375
Y25.4119 Z-0.0867 I0. J0.0375
Y25.3369 Z-0.0908 I0. J-0.0375
Y25.4119 Z-0.095 I0. J0.0375
Y25.3369 Z-0.0991 I0. J-0.0375
Y25.4119 Z-0.1032 I0. J0.0375
Y25.3369 Z-0.1073 I0. J-0.0375
X5.922 Y25.3923 Z-0.11 I0. J0.0375
X5.8891 Y25.4119 I-0.0329 J-0.018
Y25.3369 I0. J-0.0375
X5.922 Y25.3923 I0. J0.0375
G2 X5.9226 Y25.4115 I0.0167 J0.0091
G3 X5.9174 Y25.4301 I-0.011 J0.0069
X5.8891 Y25.4369 I-0.0283 J-0.0557
Y25.3119 I0. J-0.0625
X5.9174 Y25.4301 I0. J0.0625
X5.9056 Y25.4246 I-0.0038 J-0.0074
G1 X5.8959 Y25.385
X5.8742 Y25.3507
G3 X5.8789 Y25.3383 I0.007 J-0.0045
X5.8891 Y25.3369 Z-0.1104 I0.0102 J0.0361
Y25.4119 Z-0.1145 I0. J0.0375
Y25.3369 Z-0.1186 I0. J-0.0375
Y25.4119 Z-0.1227 I0. J0.0375
Y25.3369 Z-0.1268 I0. J-0.0375
Y25.4119 Z-0.1309 I0. J0.0375
Y25.3369 Z-0.135 I0. J-0.0375
Y25.4119 Z-0.1391 I0. J0.0375
Y25.3369 Z-0.1433 I0. J-0.0375
Y25.4119 Z-0.1474 I0. J0.0375
Y25.3369 Z-0.1515 I0. J-0.0375
Y25.4119 Z-0.1556 I0. J0.0375
Y25.3369 Z-0.1597 I0. J-0.0375
Y25.4119 Z-0.1638 I0. J0.0375
Y25.3369 Z-0.1679 I0. J-0.0375
Y25.4119 Z-0.172 I0. J0.0375
Y25.3369 Z-0.1762 I0. J-0.0375
Y25.4119 Z-0.1803 I0. J0.0375
Y25.3369 Z-0.1844 I0. J-0.0375
Y25.4119 Z-0.1885 I0. J0.0375
Y25.3369 Z-0.1926 I0. J-0.0375
Y25.4119 Z-0.1967 I0. J0.0375
Y25.3369 Z-0.2008 I0. J-0.0375
Y25.4119 Z-0.205 I0. J0.0375
Y25.3369 Z-0.2091 I0. J-0.0375
Y25.4119 Z-0.2132 I0. J0.0375
Y25.3369 Z-0.2173 I0. J-0.0375
X5.922 Y25.3923 Z-0.22 I0. J0.0375
X5.8891 Y25.4119 I-0.0329 J-0.018
Y25.3369 I0. J-0.0375
X5.922 Y25.3923 I0. J0.0375
G2 X5.9226 Y25.4115 I0.0167 J0.0091
G3 X5.9174 Y25.4301 I-0.011 J0.0069
X5.8891 Y25.4369 I-0.0283 J-0.0557
Y25.3119 I0. J-0.0625
X5.9174 Y25.4301 I0. J0.0625
X5.9056 Y25.4246 I-0.0038 J-0.0074
G1 X5.8959 Y25.385
X5.8742 Y25.3507
G3 X5.8789 Y25.3383 I0.007 J-0.0045
X5.8891 Y25.3369 Z-0.2204 I0.0102 J0.0361
Y25.4119 Z-0.2245 I0. J0.0375
Y25.3369 Z-0.2286 I0. J-0.0375
Y25.4119 Z-0.2327 I0. J0.0375
Y25.3369 Z-0.2368 I0. J-0.0375
Y25.4119 Z-0.2409 I0. J0.0375
Y25.3369 Z-0.245 I0. J-0.0375
Y25.4119 Z-0.2491 I0. J0.0375
Y25.3369 Z-0.2533 I0. J-0.0375
Y25.4119 Z-0.2574 I0. J0.0375
Y25.3369 Z-0.2615 I0. J-0.0375
Y25.4119 Z-0.2656 I0. J0.0375
Y25.3369 Z-0.2697 I0. J-0.0375
Y25.4119 Z-0.2738 I0. J0.0375
Y25.3369 Z-0.2779 I0. J-0.0375
Y25.4119 Z-0.282 I0. J0.0375
Y25.3369 Z-0.2862 I0. J-0.0375
Y25.4119 Z-0.2903 I0. J0.0375
Y25.3369 Z-0.2944 I0. J-0.0375
Y25.4119 Z-0.2985 I0. J0.0375
Y25.3369 Z-0.3026 I0. J-0.0375
Y25.4119 Z-0.3067 I0. J0.0375
Y25.3369 Z-0.3108 I0. J-0.0375
Y25.4119 Z-0.315 I0. J0.0375
Y25.3369 Z-0.3191 I0. J-0.0375
Y25.4119 Z-0.3232 I0. J0.0375
Y25.3369 Z-0.3273 I0. J-0.0375
X5.922 Y25.3923 Z-0.33 I0. J0.0375
X5.8891 Y25.4119 I-0.0329 J-0.018
Y25.3369 I0. J-0.0375
X5.922 Y25.3923 I0. J0.0375
G2 X5.9226 Y25.4115 I0.0167 J0.0091
G3 X5.9174 Y25.4301 I-0.011 J0.0069
X5.8891 Y25.4369 I-0.0283 J-0.0557
Y25.3119 I0. J-0.0625
X5.9174 Y25.4301 I0. J0.0625
X5.9056 Y25.4246 I-0.0038 J-0.0074
G1 X5.8959 Y25.385
X5.8742 Y25.3507
G3 X5.8789 Y25.3383 I0.007 J-0.0045
X5.8891 Y25.3369 Z-0.3304 I0.0102 J0.0361
Y25.4119 Z-0.3345 I0. J0.0375
Y25.3369 Z-0.3386 I0. J-0.0375
Y25.4119 Z-0.3427 I0. J0.0375
Y25.3369 Z-0.3468 I0. J-0.0375
Y25.4119 Z-0.3509 I0. J0.0375
Y25.3369 Z-0.355 I0. J-0.0375
Y25.4119 Z-0.3591 I0. J0.0375
Y25.3369 Z-0.3633 I0. J-0.0375
Y25.4119 Z-0.3674 I0. J0.0375
Y25.3369 Z-0.3715 I0. J-0.0375
Y25.4119 Z-0.3756 I0. J0.0375
Y25.3369 Z-0.3797 I0. J-0.0375
Y25.4119 Z-0.3838 I0. J0.0375
Y25.3369 Z-0.3879 I0. J-0.0375
Y25.4119 Z-0.392 I0. J0.0375
Y25.3369 Z-0.3962 I0. J-0.0375
Y25.4119 Z-0.4003 I0. J0.0375
Y25.3369 Z-0.4044 I0. J-0.0375
Y25.4119 Z-0.4085 I0. J0.0375
Y25.3369 Z-0.4126 I0. J-0.0375
Y25.4119 Z-0.4167 I0. J0.0375
Y25.3369 Z-0.4208 I0. J-0.0375
Y25.4119 Z-0.425 I0. J0.0375
Y25.3369 Z-0.4291 I0. J-0.0375
Y25.4119 Z-0.4332 I0. J0.0375
Y25.3369 Z-0.4373 I0. J-0.0375
X5.922 Y25.3923 Z-0.44 I0. J0.0375
X5.8891 Y25.4119 I-0.0329 J-0.018
Y25.3369 I0. J-0.0375
X5.922 Y25.3923 I0. J0.0375
G2 X5.9226 Y25.4115 I0.0167 J0.0091
G3 X5.9174 Y25.4301 I-0.011 J0.0069
X5.8891 Y25.4369 I-0.0283 J-0.0557
Y25.3119 I0. J-0.0625
X5.9174 Y25.4301 I0. J0.0625
X5.9056 Y25.4246 I-0.0038 J-0.0074
G1 X5.8959 Y25.385
X5.8742 Y25.3507
G3 X5.8789 Y25.3383 I0.007 J-0.0045
X5.8891 Y25.3369 Z-0.4404 I0.0102 J0.0361
Y25.4119 Z-0.4445 I0. J0.0375
Y25.3369 Z-0.4486 I0. J-0.0375
Y25.4119 Z-0.4527 I0. J0.0375
Y25.3369 Z-0.4568 I0. J-0.0375
Y25.4119 Z-0.4609 I0. J0.0375
Y25.3369 Z-0.465 I0. J-0.0375
Y25.4119 Z-0.4691 I0. J0.0375
Y25.3369 Z-0.4733 I0. J-0.0375
Y25.4119 Z-0.4774 I0. J0.0375
Y25.3369 Z-0.4815 I0. J-0.0375
Y25.4119 Z-0.4856 I0. J0.0375
Y25.3369 Z-0.4897 I0. J-0.0375
Y25.4119 Z-0.4938 I0. J0.0375
Y25.3369 Z-0.4979 I0. J-0.0375
Y25.4119 Z-0.502 I0. J0.0375
Y25.3369 Z-0.5062 I0. J-0.0375
Y25.4119 Z-0.5103 I0. J0.0375
Y25.3369 Z-0.5144 I0. J-0.0375
Y25.4119 Z-0.5185 I0. J0.0375
Y25.3369 Z-0.5226 I0. J-0.0375
Y25.4119 Z-0.5267 I0. J0.0375
Y25.3369 Z-0.5308 I0. J-0.0375
Y25.4119 Z-0.535 I0. J0.0375
Y25.3369 Z-0.5391 I0. J-0.0375
Y25.4119 Z-0.5432 I0. J0.0375
Y25.3369 Z-0.5473 I0. J-0.0375
X5.922 Y25.3923 Z-0.55 I0. J0.0375
X5.8891 Y25.4119 I-0.0329 J-0.018
Y25.3369 I0. J-0.0375
X5.922 Y25.3923 I0. J0.0375
G2 X5.9226 Y25.4115 I0.0167 J0.0091
G3 X5.9174 Y25.4301 I-0.011 J0.0069
X5.8891 Y25.4369 I-0.0283 J-0.0557
Y25.3119 I0. J-0.0625
X5.9174 Y25.4301 I0. J0.0625
X5.9056 Y25.4246 I-0.0038 J-0.0074
G1 X5.8959 Y25.385
X5.8742 Y25.3507
G3 X5.8789 Y25.3383 I0.007 J-0.0045
X5.8891 Y25.3369 Z-0.5504 I0.0102 J0.0361
Y25.4119 Z-0.5545 I0. J0.0375
Y25.3369 Z-0.5586 I0. J-0.0375
Y25.4119 Z-0.5627 I0. J0.0375
Y25.3369 Z-0.5668 I0. J-0.0375
Y25.4119 Z-0.5709 I0. J0.0375
Y25.3369 Z-0.575 I0. J-0.0375
Y25.4119 Z-0.5791 I0. J0.0375
Y25.3369 Z-0.5833 I0. J-0.0375
Y25.4119 Z-0.5874 I0. J0.0375
Y25.3369 Z-0.5915 I0. J-0.0375
Y25.4119 Z-0.5956 I0. J0.0375
Y25.3369 Z-0.5997 I0. J-0.0375
Y25.4119 Z-0.6038 I0. J0.0375
Y25.3369 Z-0.6079 I0. J-0.0375
Y25.4119 Z-0.612 I0. J0.0375
Y25.3369 Z-0.6162 I0. J-0.0375
Y25.4119 Z-0.6203 I0. J0.0375
Y25.3369 Z-0.6244 I0. J-0.0375
Y25.4119 Z-0.6285 I0. J0.0375
Y25.3369 Z-0.6326 I0. J-0.0375
Y25.4119 Z-0.6367 I0. J0.0375
Y25.3369 Z-0.6408 I0. J-0.0375
Y25.4119 Z-0.645 I0. J0.0375
Y25.3369 Z-0.6491 I0. J-0.0375
Y25.4119 Z-0.6532 I0. J0.0375
Y25.3369 Z-0.6573 I0. J-0.0375
X5.922 Y25.3923 Z-0.66 I0. J0.0375
X5.8891 Y25.4119 I-0.0329 J-0.018
Y25.3369 I0. J-0.0375
X5.922 Y25.3923 I0. J0.0375
G2 X5.9226 Y25.4115 I0.0167 J0.0091
G3 X5.9174 Y25.4301 I-0.011 J0.0069
X5.8891 Y25.4369 I-0.0283 J-0.0557
Y25.3119 I0. J-0.0625
X5.9174 Y25.4301 I0. J0.0625
X5.9056 Y25.4246 I-0.0038 J-0.0074
G1 X5.8959 Y25.385
X5.8742 Y25.3507
G3 X5.8789 Y25.3383 I0.007 J-0.0045
X5.8891 Y25.3369 Z-0.6604 I0.0102 J0.0361
Y25.4119 Z-0.6645 I0. J0.0375
Y25.3369 Z-0.6686 I0. J-0.0375
Y25.4119 Z-0.6727 I0. J0.0375
Y25.3369 Z-0.6768 I0. J-0.0375
Y25.4119 Z-0.6809 I0. J0.0375
Y25.3369 Z-0.685 I0. J-0.0375
Y25.4119 Z-0.6891 I0. J0.0375
Y25.3369 Z-0.6933 I0. J-0.0375
Y25.4119 Z-0.6974 I0. J0.0375
Y25.3369 Z-0.7015 I0. J-0.0375
Y25.4119 Z-0.7056 I0. J0.0375
Y25.3369 Z-0.7097 I0. J-0.0375
Y25.4119 Z-0.7138 I0. J0.0375
Y25.3369 Z-0.7179 I0. J-0.0375
Y25.4119 Z-0.722 I0. J0.0375
Y25.3369 Z-0.7262 I0. J-0.0375
Y25.4119 Z-0.7303 I0. J0.0375
Y25.3369 Z-0.7344 I0. J-0.0375
Y25.4119 Z-0.7385 I0. J0.0375
Y25.3369 Z-0.7426 I0. J-0.0375
Y25.4119 Z-0.7467 I0. J0.0375
Y25.3369 Z-0.7508 I0. J-0.0375
Y25.4119 Z-0.755 I0. J0.0375
Y25.3369 Z-0.7591 I0. J-0.0375
Y25.4119 Z-0.7632 I0. J0.0375
Y25.3369 Z-0.7673 I0. J-0.0375
X5.922 Y25.3923 Z-0.77 I0. J0.0375
X5.8891 Y25.4119 I-0.0329 J-0.018
Y25.3369 I0. J-0.0375
X5.922 Y25.3923 I0. J0.0375
G2 X5.9226 Y25.4115 I0.0167 J0.0091
G3 X5.9174 Y25.4301 I-0.011 J0.0069
X5.8891 Y25.4369 I-0.0283 J-0.0557
Y25.3119 I0. J-0.0625
X5.9174 Y25.4301 I0. J0.0625
G1 X5.9139 Y25.4315 Z-0.7694
X5.9101 Y25.4324 Z-0.7688
X5.9066 Y25.4328 Z-0.767
X5.9032 Y25.4326 Z-0.7652
X5.9004 Y25.4321 Z-0.7625
X5.8978 Y25.4314 Z-0.7597
X5.8945 Y25.4299 Z-0.7527
X5.8935 Y25.4294 Z-0.745
G0 Z0.2
X4.9109 Y26.3296
G1 Z0.125 F30.
X4.9104 Y26.3282 Z0.1164 F40.
X4.9094 Y26.3239 Z0.1088
X4.9089 Y26.3206 Z0.106
X4.9088 Y26.3172 Z0.1032
X4.9089 Y26.3144 Z0.1021
X4.9092 Y26.3117 Z0.1009
X4.9097 Y26.3088 Z0.1005
X4.9105 Y26.3059 Z0.1
G3 X4.9463 Y26.2797 Z0.0983 I0.0358 J0.0113
Y26.3547 Z0.0942 I0. J0.0375
Y26.2797 Z0.0901 I0. J-0.0375
Y26.3547 Z0.086 I0. J0.0375
Y26.2797 Z0.0819 I0. J-0.0375
Y26.3547 Z0.0778 I0. J0.0375
Y26.2797 Z0.0737 I0. J-0.0375
Y26.3547 Z0.0696 I0. J0.0375
Y26.2797 Z0.0654 I0. J-0.0375
Y26.3547 Z0.0613 I0. J0.0375
Y26.2797 Z0.0572 I0. J-0.0375
Y26.3547 Z0.0531 I0. J0.0375
Y26.2797 Z0.049 I0. J-0.0375
Y26.3547 Z0.0449 I0. J0.0375
Y26.2797 Z0.0408 I0. J-0.0375
Y26.3547 Z0.0367 I0. J0.0375
Y26.2797 Z0.0325 I0. J-0.0375
Y26.3547 Z0.0284 I0. J0.0375
Y26.2797 Z0.0243 I0. J-0.0375
Y26.3547 Z0.0202 I0. J0.0375
Y26.2797 Z0.0161 I0. J-0.0375
Y26.3547 Z0.012 I0. J0.0375
Y26.2797 Z0.0079 I0. J-0.0375
Y26.3547 Z0.0038 I0. J0.0375
Y26.2797 Z-0.0004 I0. J-0.0375
Y26.3547 Z-0.0045 I0. J0.0375
Y26.2797 Z-0.0086 I0. J-0.0375
Y26.3547 Z-0.0127 I0. J0.0375
Y26.2797 Z-0.0168 I0. J-0.0375
Y26.3547 Z-0.0209 I0. J0.0375
Y26.2797 Z-0.025 I0. J-0.0375
Y26.3547 Z-0.0291 I0. J0.0375
Y26.2797 Z-0.0333 I0. J-0.0375
Y26.3547 Z-0.0374 I0. J0.0375
Y26.2797 Z-0.0415 I0. J-0.0375
Y26.3547 Z-0.0456 I0. J0.0375
Y26.2797 Z-0.0497 I0. J-0.0375
Y26.3547 Z-0.0538 I0. J0.0375
Y26.2797 Z-0.0579 I0. J-0.0375
Y26.3547 Z-0.062 I0. J0.0375
Y26.2797 Z-0.0662 I0. J-0.0375
Y26.3547 Z-0.0703 I0. J0.0375
Y26.2797 Z-0.0744 I0. J-0.0375
Y26.3547 Z-0.0785 I0. J0.0375
Y26.2797 Z-0.0826 I0. J-0.0375
Y26.3547 Z-0.0867 I0. J0.0375
Y26.2797 Z-0.0908 I0. J-0.0375
Y26.3547 Z-0.095 I0. J0.0375
Y26.2797 Z-0.0991 I0. J-0.0375
Y26.3547 Z-0.1032 I0. J0.0375
Y26.2797 Z-0.1073 I0. J-0.0375
X4.9791 Y26.3352 Z-0.11 I0. J0.0375
X4.9463 Y26.3547 I-0.0329 J-0.018
Y26.2797 I0. J-0.0375
X4.9791 Y26.3352 I0. J0.0375
G2 X4.9797 Y26.3544 I0.0167 J0.0091
G3 X4.9746 Y26.3729 I-0.011 J0.0069
X4.9463 Y26.3797 I-0.0283 J-0.0557
Y26.2547 I0. J-0.0625
X4.9746 Y26.3729 I0. J0.0625
X4.9627 Y26.3674 I-0.0038 J-0.0074
G1 X4.9531 Y26.3279
X4.9313 Y26.2936
G3 X4.9361 Y26.2811 I0.007 J-0.0045
X4.9463 Y26.2797 Z-0.1104 I0.0102 J0.0361
Y26.3547 Z-0.1145 I0. J0.0375
Y26.2797 Z-0.1186 I0. J-0.0375
Y26.3547 Z-0.1227 I0. J0.0375
Y26.2797 Z-0.1268 I0. J-0.0375
Y26.3547 Z-0.1309 I0. J0.0375
Y26.2797 Z-0.135 I0. J-0.0375
Y26.3547 Z-0.1391 I0. J0.0375
Y26.2797 Z-0.1433 I0. J-0.0375
Y26.3547 Z-0.1474 I0. J0.0375
Y26.2797 Z-0.1515 I0. J-0.0375
Y26.3547 Z-0.1556 I0. J0.0375
Y26.2797 Z-0.1597 I0. J-0.0375
Y26.3547 Z-0.1638 I0. J0.0375
Y26.2797 Z-0.1679 I0. J-0.0375
Y26.3547 Z-0.172 I0. J0.0375
Y26.2797 Z-0.1762 I0. J-0.0375
Y26.3547 Z-0.1803 I0. J0.0375
Y26.2797 Z-0.1844 I0. J-0.0375
Y26.3547 Z-0.1885 I0. J0.0375
Y26.2797 Z-0.1926 I0. J-0.0375
Y26.3547 Z-0.1967 I0. J0.0375
Y26.2797 Z-0.2008 I0. J-0.0375
Y26.3547 Z-0.205 I0. J0.0375
Y26.2797 Z-0.2091 I0. J-0.0375
Y26.3547 Z-0.2132 I0. J0.0375
Y26.2797 Z-0.2173 I0. J-0.0375
X4.9791 Y26.3352 Z-0.22 I0. J0.0375
X4.9463 Y26.3547 I-0.0329 J-0.018
Y26.2797 I0. J-0.0375
X4.9791 Y26.3352 I0. J0.0375
G2 X4.9797 Y26.3544 I0.0167 J0.0091
G3 X4.9746 Y26.3729 I-0.011 J0.0069
X4.9463 Y26.3797 I-0.0283 J-0.0557
Y26.2547 I0. J-0.0625
X4.9746 Y26.3729 I0. J0.0625
X4.9627 Y26.3674 I-0.0038 J-0.0074
G1 X4.9531 Y26.3279
X4.9313 Y26.2936
G3 X4.9361 Y26.2811 I0.007 J-0.0045
X4.9463 Y26.2797 Z-0.2204 I0.0102 J0.0361
Y26.3547 Z-0.2245 I0. J0.0375
Y26.2797 Z-0.2286 I0. J-0.0375
Y26.3547 Z-0.2327 I0. J0.0375
Y26.2797 Z-0.2368 I0. J-0.0375
Y26.3547 Z-0.2409 I0. J0.0375
Y26.2797 Z-0.245 I0. J-0.0375
Y26.3547 Z-0.2491 I0. J0.0375
Y26.2797 Z-0.2533 I0. J-0.0375
Y26.3547 Z-0.2574 I0. J0.0375
Y26.2797 Z-0.2615 I0. J-0.0375
Y26.3547 Z-0.2656 I0. J0.0375
Y26.2797 Z-0.2697 I0. J-0.0375
Y26.3547 Z-0.2738 I0. J0.0375
Y26.2797 Z-0.2779 I0. J-0.0375
Y26.3547 Z-0.282 I0. J0.0375
Y26.2797 Z-0.2862 I0. J-0.0375
Y26.3547 Z-0.2903 I0. J0.0375
Y26.2797 Z-0.2944 I0. J-0.0375
Y26.3547 Z-0.2985 I0. J0.0375
Y26.2797 Z-0.3026 I0. J-0.0375
Y26.3547 Z-0.3067 I0. J0.0375
Y26.2797 Z-0.3108 I0. J-0.0375
Y26.3547 Z-0.315 I0. J0.0375
Y26.2797 Z-0.3191 I0. J-0.0375
Y26.3547 Z-0.3232 I0. J0.0375
Y26.2797 Z-0.3273 I0. J-0.0375
X4.9791 Y26.3352 Z-0.33 I0. J0.0375
X4.9463 Y26.3547 I-0.0329 J-0.018
Y26.2797 I0. J-0.0375
X4.9791 Y26.3352 I0. J0.0375
G2 X4.9797 Y26.3544 I0.0167 J0.0091
G3 X4.9746 Y26.3729 I-0.011 J0.0069
X4.9463 Y26.3797 I-0.0283 J-0.0557
Y26.2547 I0. J-0.0625
X4.9746 Y26.3729 I0. J0.0625
X4.9627 Y26.3674 I-0.0038 J-0.0074
G1 X4.9531 Y26.3279
X4.9313 Y26.2936
G3 X4.9361 Y26.2811 I0.007 J-0.0045
X4.9463 Y26.2797 Z-0.3304 I0.0102 J0.0361
Y26.3547 Z-0.3345 I0. J0.0375
Y26.2797 Z-0.3386 I0. J-0.0375
Y26.3547 Z-0.3427 I0. J0.0375
Y26.2797 Z-0.3468 I0. J-0.0375
Y26.3547 Z-0.3509 I0. J0.0375
Y26.2797 Z-0.355 I0. J-0.0375
Y26.3547 Z-0.3591 I0. J0.0375
Y26.2797 Z-0.3633 I0. J-0.0375
Y26.3547 Z-0.3674 I0. J0.0375
Y26.2797 Z-0.3715 I0. J-0.0375
Y26.3547 Z-0.3756 I0. J0.0375
Y26.2797 Z-0.3797 I0. J-0.0375
Y26.3547 Z-0.3838 I0. J0.0375
Y26.2797 Z-0.3879 I0. J-0.0375
Y26.3547 Z-0.392 I0. J0.0375
Y26.2797 Z-0.3962 I0. J-0.0375
Y26.3547 Z-0.4003 I0. J0.0375
Y26.2797 Z-0.4044 I0. J-0.0375
Y26.3547 Z-0.4085 I0. J0.0375
Y26.2797 Z-0.4126 I0. J-0.0375
Y26.3547 Z-0.4167 I0. J0.0375
Y26.2797 Z-0.4208 I0. J-0.0375
Y26.3547 Z-0.425 I0. J0.0375
Y26.2797 Z-0.4291 I0. J-0.0375
Y26.3547 Z-0.4332 I0. J0.0375
Y26.2797 Z-0.4373 I0. J-0.0375
X4.9791 Y26.3352 Z-0.44 I0. J0.0375
X4.9463 Y26.3547 I-0.0329 J-0.018
Y26.2797 I0. J-0.0375
X4.9791 Y26.3352 I0. J0.0375
G2 X4.9797 Y26.3544 I0.0167 J0.0091
G3 X4.9746 Y26.3729 I-0.011 J0.0069
X4.9463 Y26.3797 I-0.0283 J-0.0557
Y26.2547 I0. J-0.0625
X4.9746 Y26.3729 I0. J0.0625
X4.9627 Y26.3674 I-0.0038 J-0.0074
G1 X4.9531 Y26.3279
X4.9313 Y26.2936
G3 X4.9361 Y26.2811 I0.007 J-0.0045
X4.9463 Y26.2797 Z-0.4404 I0.0102 J0.0361
Y26.3547 Z-0.4445 I0. J0.0375
Y26.2797 Z-0.4486 I0. J-0.0375
Y26.3547 Z-0.4527 I0. J0.0375
Y26.2797 Z-0.4568 I0. J-0.0375
Y26.3547 Z-0.4609 I0. J0.0375
Y26.2797 Z-0.465 I0. J-0.0375
Y26.3547 Z-0.4691 I0. J0.0375
Y26.2797 Z-0.4733 I0. J-0.0375
Y26.3547 Z-0.4774 I0. J0.0375
Y26.2797 Z-0.4815 I0. J-0.0375
Y26.3547 Z-0.4856 I0. J0.0375
Y26.2797 Z-0.4897 I0. J-0.0375
Y26.3547 Z-0.4938 I0. J0.0375
Y26.2797 Z-0.4979 I0. J-0.0375
Y26.3547 Z-0.502 I0. J0.0375
Y26.2797 Z-0.5062 I0. J-0.0375
Y26.3547 Z-0.5103 I0. J0.0375
Y26.2797 Z-0.5144 I0. J-0.0375
Y26.3547 Z-0.5185 I0. J0.0375
Y26.2797 Z-0.5226 I0. J-0.0375
Y26.3547 Z-0.5267 I0. J0.0375
Y26.2797 Z-0.5308 I0. J-0.0375
Y26.3547 Z-0.535 I0. J0.0375
Y26.2797 Z-0.5391 I0. J-0.0375
Y26.3547 Z-0.5432 I0. J0.0375
Y26.2797 Z-0.5473 I0. J-0.0375
X4.9791 Y26.3352 Z-0.55 I0. J0.0375
X4.9463 Y26.3547 I-0.0329 J-0.018
Y26.2797 I0. J-0.0375
X4.9791 Y26.3352 I0. J0.0375
G2 X4.9797 Y26.3544 I0.0167 J0.0091
G3 X4.9746 Y26.3729 I-0.011 J0.0069
X4.9463 Y26.3797 I-0.0283 J-0.0557
Y26.2547 I0. J-0.0625
X4.9746 Y26.3729 I0. J0.0625
X4.9627 Y26.3674 I-0.0038 J-0.0074
G1 X4.9531 Y26.3279
X4.9313 Y26.2936
G3 X4.9361 Y26.2811 I0.007 J-0.0045
X4.9463 Y26.2797 Z-0.5504 I0.0102 J0.0361
Y26.3547 Z-0.5545 I0. J0.0375
Y26.2797 Z-0.5586 I0. J-0.0375
Y26.3547 Z-0.5627 I0. J0.0375
Y26.2797 Z-0.5668 I0. J-0.0375
Y26.3547 Z-0.5709 I0. J0.0375
Y26.2797 Z-0.575 I0. J-0.0375
Y26.3547 Z-0.5791 I0. J0.0375
Y26.2797 Z-0.5833 I0. J-0.0375
Y26.3547 Z-0.5874 I0. J0.0375
Y26.2797 Z-0.5915 I0. J-0.0375
Y26.3547 Z-0.5956 I0. J0.0375
Y26.2797 Z-0.5997 I0. J-0.0375
Y26.3547 Z-0.6038 I0. J0.0375
Y26.2797 Z-0.6079 I0. J-0.0375
Y26.3547 Z-0.612 I0. J0.0375
Y26.2797 Z-0.6162 I0. J-0.0375
Y26.3547 Z-0.6203 I0. J0.0375
Y26.2797 Z-0.6244 I0. J-0.0375
Y26.3547 Z-0.6285 I0. J0.0375
Y26.2797 Z-0.6326 I0. J-0.0375
Y26.3547 Z-0.6367 I0. J0.0375
Y26.2797 Z-0.6408 I0. J-0.0375
Y26.3547 Z-0.645 I0. J0.0375
Y26.2797 Z-0.6491 I0. J-0.0375
Y26.3547 Z-0.6532 I0. J0.0375
Y26.2797 Z-0.6573 I0. J-0.0375
X4.9791 Y26.3352 Z-0.66 I0. J0.0375
X4.9463 Y26.3547 I-0.0329 J-0.018
Y26.2797 I0. J-0.0375
X4.9791 Y26.3352 I0. J0.0375
G2 X4.9797 Y26.3544 I0.0167 J0.0091
G3 X4.9746 Y26.3729 I-0.011 J0.0069
X4.9463 Y26.3797 I-0.0283 J-0.0557
Y26.2547 I0. J-0.0625
X4.9746 Y26.3729 I0. J0.0625
X4.9627 Y26.3674 I-0.0038 J-0.0074
G1 X4.9531 Y26.3279
X4.9313 Y26.2936
G3 X4.9361 Y26.2811 I0.007 J-0.0045
X4.9463 Y26.2797 Z-0.6604 I0.0102 J0.0361
Y26.3547 Z-0.6645 I0. J0.0375
Y26.2797 Z-0.6686 I0. J-0.0375
Y26.3547 Z-0.6727 I0. J0.0375
Y26.2797 Z-0.6768 I0. J-0.0375
Y26.3547 Z-0.6809 I0. J0.0375
Y26.2797 Z-0.685 I0. J-0.0375
Y26.3547 Z-0.6891 I0. J0.0375
Y26.2797 Z-0.6933 I0. J-0.0375
Y26.3547 Z-0.6974 I0. J0.0375
Y26.2797 Z-0.7015 I0. J-0.0375
Y26.3547 Z-0.7056 I0. J0.0375
Y26.2797 Z-0.7097 I0. J-0.0375
Y26.3547 Z-0.7138 I0. J0.0375
Y26.2797 Z-0.7179 I0. J-0.0375
Y26.3547 Z-0.722 I0. J0.0375
Y26.2797 Z-0.7262 I0. J-0.0375
Y26.3547 Z-0.7303 I0. J0.0375
Y26.2797 Z-0.7344 I0. J-0.0375
Y26.3547 Z-0.7385 I0. J0.0375
Y26.2797 Z-0.7426 I0. J-0.0375
Y26.3547 Z-0.7467 I0. J0.0375
Y26.2797 Z-0.7508 I0. J-0.0375
Y26.3547 Z-0.755 I0. J0.0375
Y26.2797 Z-0.7591 I0. J-0.0375
Y26.3547 Z-0.7632 I0. J0.0375
Y26.2797 Z-0.7673 I0. J-0.0375
X4.9791 Y26.3352 Z-0.77 I0. J0.0375
X4.9463 Y26.3547 I-0.0329 J-0.018
Y26.2797 I0. J-0.0375
X4.9791 Y26.3352 I0. J0.0375
G2 X4.9797 Y26.3544 I0.0167 J0.0091
G3 X4.9746 Y26.3729 I-0.011 J0.0069
X4.9463 Y26.3797 I-0.0283 J-0.0557
Y26.2547 I0. J-0.0625
X4.9746 Y26.3729 I0. J0.0625
G1 X4.971 Y26.3744 Z-0.7694
X4.9673 Y26.3753 Z-0.7688
X4.9638 Y26.3756 Z-0.767
X4.9603 Y26.3754 Z-0.7652
X4.9576 Y26.375 Z-0.7625
X4.9549 Y26.3742 Z-0.7597
X4.9517 Y26.3728 Z-0.7527
X4.9506 Y26.3722 Z-0.745
G0 Z0.2
X3.9681 Y27.2724
G1 Z0.125 F30.
X3.9676 Y27.271 Z0.1164 F40.
X3.9666 Y27.2667 Z0.1088
X3.9661 Y27.2633 Z0.106
X3.966 Y27.26 Z0.1032
X3.9661 Y27.2572 Z0.1021
X3.9664 Y27.2545 Z0.1009
X3.9669 Y27.2516 Z0.1005
X3.9677 Y27.2487 Z0.1
G3 X4.0035 Y27.2225 Z0.0983 I0.0358 J0.0113
Y27.2975 Z0.0942 I0. J0.0375
Y27.2225 Z0.0901 I0. J-0.0375
Y27.2975 Z0.086 I0. J0.0375
Y27.2225 Z0.0819 I0. J-0.0375
Y27.2975 Z0.0778 I0. J0.0375
Y27.2225 Z0.0737 I0. J-0.0375
Y27.2975 Z0.0696 I0. J0.0375
Y27.2225 Z0.0654 I0. J-0.0375
Y27.2975 Z0.0613 I0. J0.0375
Y27.2225 Z0.0572 I0. J-0.0375
Y27.2975 Z0.0531 I0. J0.0375
Y27.2225 Z0.049 I0. J-0.0375
Y27.2975 Z0.0449 I0. J0.0375
Y27.2225 Z0.0408 I0. J-0.0375
Y27.2975 Z0.0367 I0. J0.0375
Y27.2225 Z0.0325 I0. J-0.0375
Y27.2975 Z0.0284 I0. J0.0375
Y27.2225 Z0.0243 I0. J-0.0375
Y27.2975 Z0.0202 I0. J0.0375
Y27.2225 Z0.0161 I0. J-0.0375
Y27.2975 Z0.012 I0. J0.0375
Y27.2225 Z0.0079 I0. J-0.0375
Y27.2975 Z0.0038 I0. J0.0375
Y27.2225 Z-0.0004 I0. J-0.0375
Y27.2975 Z-0.0045 I0. J0.0375
Y27.2225 Z-0.0086 I0. J-0.0375
Y27.2975 Z-0.0127 I0. J0.0375
Y27.2225 Z-0.0168 I0. J-0.0375
Y27.2975 Z-0.0209 I0. J0.0375
Y27.2225 Z-0.025 I0. J-0.0375
Y27.2975 Z-0.0291 I0. J0.0375
Y27.2225 Z-0.0333 I0. J-0.0375
Y27.2975 Z-0.0374 I0. J0.0375
Y27.2225 Z-0.0415 I0. J-0.0375
Y27.2975 Z-0.0456 I0. J0.0375
Y27.2225 Z-0.0497 I0. J-0.0375
Y27.2975 Z-0.0538 I0. J0.0375
Y27.2225 Z-0.0579 I0. J-0.0375
Y27.2975 Z-0.062 I0. J0.0375
Y27.2225 Z-0.0662 I0. J-0.0375
Y27.2975 Z-0.0703 I0. J0.0375
Y27.2225 Z-0.0744 I0. J-0.0375
Y27.2975 Z-0.0785 I0. J0.0375
Y27.2225 Z-0.0826 I0. J-0.0375
Y27.2975 Z-0.0867 I0. J0.0375
Y27.2225 Z-0.0908 I0. J-0.0375
Y27.2975 Z-0.095 I0. J0.0375
Y27.2225 Z-0.0991 I0. J-0.0375
Y27.2975 Z-0.1032 I0. J0.0375
Y27.2225 Z-0.1073 I0. J-0.0375
X4.0364 Y27.278 Z-0.11 I0. J0.0375
X4.0035 Y27.2975 I-0.0329 J-0.018
Y27.2225 I0. J-0.0375
X4.0364 Y27.278 I0. J0.0375
G2 X4.0369 Y27.2972 I0.0167 J0.0091
G3 X4.0318 Y27.3157 I-0.011 J0.0069
X4.0035 Y27.3225 I-0.0283 J-0.0557
Y27.1975 I0. J-0.0625
X4.0318 Y27.3157 I0. J0.0625
X4.0199 Y27.3102 I-0.0038 J-0.0074
G1 X4.0103 Y27.2707
X3.9885 Y27.2364
G3 X3.9933 Y27.2239 I0.007 J-0.0045
X4.0035 Y27.2225 Z-0.1104 I0.0102 J0.0361
Y27.2975 Z-0.1145 I0. J0.0375
Y27.2225 Z-0.1186 I0. J-0.0375
Y27.2975 Z-0.1227 I0. J0.0375
Y27.2225 Z-0.1268 I0. J-0.0375
Y27.2975 Z-0.1309 I0. J0.0375
Y27.2225 Z-0.135 I0. J-0.0375
Y27.2975 Z-0.1391 I0. J0.0375
Y27.2225 Z-0.1433 I0. J-0.0375
Y27.2975 Z-0.1474 I0. J0.0375
Y27.2225 Z-0.1515 I0. J-0.0375
Y27.2975 Z-0.1556 I0. J0.0375
Y27.2225 Z-0.1597 I0. J-0.0375
Y27.2975 Z-0.1638 I0. J0.0375
Y27.2225 Z-0.1679 I0. J-0.0375
Y27.2975 Z-0.172 I0. J0.0375
Y27.2225 Z-0.1762 I0. J-0.0375
Y27.2975 Z-0.1803 I0. J0.0375
Y27.2225 Z-0.1844 I0. J-0.0375
Y27.2975 Z-0.1885 I0. J0.0375
Y27.2225 Z-0.1926 I0. J-0.0375
Y27.2975 Z-0.1967 I0. J0.0375
Y27.2225 Z-0.2008 I0. J-0.0375
Y27.2975 Z-0.205 I0. J0.0375
Y27.2225 Z-0.2091 I0. J-0.0375
Y27.2975 Z-0.2132 I0. J0.0375
Y27.2225 Z-0.2173 I0. J-0.0375
X4.0364 Y27.278 Z-0.22 I0. J0.0375
X4.0035 Y27.2975 I-0.0329 J-0.018
Y27.2225 I0. J-0.0375
X4.0364 Y27.278 I0. J0.0375
G2 X4.0369 Y27.2972 I0.0167 J0.0091
G3 X4.0318 Y27.3157 I-0.011 J0.0069
X4.0035 Y27.3225 I-0.0283 J-0.0557
Y27.1975 I0. J-0.0625
X4.0318 Y27.3157 I0. J0.0625
X4.0199 Y27.3102 I-0.0038 J-0.0074
G1 X4.0103 Y27.2707
X3.9885 Y27.2364
G3 X3.9933 Y27.2239 I0.007 J-0.0045
X4.0035 Y27.2225 Z-0.2204 I0.0102 J0.0361
Y27.2975 Z-0.2245 I0. J0.0375
Y27.2225 Z-0.2286 I0. J-0.0375
Y27.2975 Z-0.2327 I0. J0.0375
Y27.2225 Z-0.2368 I0. J-0.0375
Y27.2975 Z-0.2409 I0. J0.0375
Y27.2225 Z-0.245 I0. J-0.0375
Y27.2975 Z-0.2491 I0. J0.0375
Y27.2225 Z-0.2533 I0. J-0.0375
Y27.2975 Z-0.2574 I0. J0.0375
Y27.2225 Z-0.2615 I0. J-0.0375
Y27.2975 Z-0.2656 I0. J0.0375
Y27.2225 Z-0.2697 I0. J-0.0375
Y27.2975 Z-0.2738 I0. J0.0375
Y27.2225 Z-0.2779 I0. J-0.0375
Y27.2975 Z-0.282 I0. J0.0375
Y27.2225 Z-0.2862 I0. J-0.0375
Y27.2975 Z-0.2903 I0. J0.0375
Y27.2225 Z-0.2944 I0. J-0.0375
Y27.2975 Z-0.2985 I0. J0.0375
Y27.2225 Z-0.3026 I0. J-0.0375
Y27.2975 Z-0.3067 I0. J0.0375
Y27.2225 Z-0.3108 I0. J-0.0375
Y27.2975 Z-0.315 I0. J0.0375
Y27.2225 Z-0.3191 I0. J-0.0375
Y27.2975 Z-0.3232 I0. J0.0375
Y27.2225 Z-0.3273 I0. J-0.0375
X4.0364 Y27.278 Z-0.33 I0. J0.0375
X4.0035 Y27.2975 I-0.0329 J-0.018
Y27.2225 I0. J-0.0375
X4.0364 Y27.278 I0. J0.0375
G2 X4.0369 Y27.2972 I0.0167 J0.0091
G3 X4.0318 Y27.3157 I-0.011 J0.0069
X4.0035 Y27.3225 I-0.0283 J-0.0557
Y27.1975 I0. J-0.0625
X4.0318 Y27.3157 I0. J0.0625
X4.0199 Y27.3102 I-0.0038 J-0.0074
G1 X4.0103 Y27.2707
X3.9885 Y27.2364
G3 X3.9933 Y27.2239 I0.007 J-0.0045
X4.0035 Y27.2225 Z-0.3304 I0.0102 J0.0361
Y27.2975 Z-0.3345 I0. J0.0375
Y27.2225 Z-0.3386 I0. J-0.0375
Y27.2975 Z-0.3427 I0. J0.0375
Y27.2225 Z-0.3468 I0. J-0.0375
Y27.2975 Z-0.3509 I0. J0.0375
Y27.2225 Z-0.355 I0. J-0.0375
Y27.2975 Z-0.3591 I0. J0.0375
Y27.2225 Z-0.3633 I0. J-0.0375
Y27.2975 Z-0.3674 I0. J0.0375
Y27.2225 Z-0.3715 I0. J-0.0375
Y27.2975 Z-0.3756 I0. J0.0375
Y27.2225 Z-0.3797 I0. J-0.0375
Y27.2975 Z-0.3838 I0. J0.0375
Y27.2225 Z-0.3879 I0. J-0.0375
Y27.2975 Z-0.392 I0. J0.0375
Y27.2225 Z-0.3962 I0. J-0.0375
Y27.2975 Z-0.4003 I0. J0.0375
Y27.2225 Z-0.4044 I0. J-0.0375
Y27.2975 Z-0.4085 I0. J0.0375
Y27.2225 Z-0.4126 I0. J-0.0375
Y27.2975 Z-0.4167 I0. J0.0375
Y27.2225 Z-0.4208 I0. J-0.0375
Y27.2975 Z-0.425 I0. J0.0375
Y27.2225 Z-0.4291 I0. J-0.0375
Y27.2975 Z-0.4332 I0. J0.0375
Y27.2225 Z-0.4373 I0. J-0.0375
X4.0364 Y27.278 Z-0.44 I0. J0.0375
X4.0035 Y27.2975 I-0.0329 J-0.018
Y27.2225 I0. J-0.0375
X4.0364 Y27.278 I0. J0.0375
G2 X4.0369 Y27.2972 I0.0167 J0.0091
G3 X4.0318 Y27.3157 I-0.011 J0.0069
X4.0035 Y27.3225 I-0.0283 J-0.0557
Y27.1975 I0. J-0.0625
X4.0318 Y27.3157 I0. J0.0625
X4.0199 Y27.3102 I-0.0038 J-0.0074
G1 X4.0103 Y27.2707
X3.9885 Y27.2364
G3 X3.9933 Y27.2239 I0.007 J-0.0045
X4.0035 Y27.2225 Z-0.4404 I0.0102 J0.0361
Y27.2975 Z-0.4445 I0. J0.0375
Y27.2225 Z-0.4486 I0. J-0.0375
Y27.2975 Z-0.4527 I0. J0.0375
Y27.2225 Z-0.4568 I0. J-0.0375
Y27.2975 Z-0.4609 I0. J0.0375
Y27.2225 Z-0.465 I0. J-0.0375
Y27.2975 Z-0.4691 I0. J0.0375
Y27.2225 Z-0.4733 I0. J-0.0375
Y27.2975 Z-0.4774 I0. J0.0375
Y27.2225 Z-0.4815 I0. J-0.0375
Y27.2975 Z-0.4856 I0. J0.0375
Y27.2225 Z-0.4897 I0. J-0.0375
Y27.2975 Z-0.4938 I0. J0.0375
Y27.2225 Z-0.4979 I0. J-0.0375
Y27.2975 Z-0.502 I0. J0.0375
Y27.2225 Z-0.5062 I0. J-0.0375
Y27.2975 Z-0.5103 I0. J0.0375
Y27.2225 Z-0.5144 I0. J-0.0375
Y27.2975 Z-0.5185 I0. J0.0375
Y27.2225 Z-0.5226 I0. J-0.0375
Y27.2975 Z-0.5267 I0. J0.0375
Y27.2225 Z-0.5308 I0. J-0.0375
Y27.2975 Z-0.535 I0. J0.0375
Y27.2225 Z-0.5391 I0. J-0.0375
Y27.2975 Z-0.5432 I0. J0.0375
Y27.2225 Z-0.5473 I0. J-0.0375
X4.0364 Y27.278 Z-0.55 I0. J0.0375
X4.0035 Y27.2975 I-0.0329 J-0.018
Y27.2225 I0. J-0.0375
X4.0364 Y27.278 I0. J0.0375
G2 X4.0369 Y27.2972 I0.0167 J0.0091
G3 X4.0318 Y27.3157 I-0.011 J0.0069
X4.0035 Y27.3225 I-0.0283 J-0.0557
Y27.1975 I0. J-0.0625
X4.0318 Y27.3157 I0. J0.0625
X4.0199 Y27.3102 I-0.0038 J-0.0074
G1 X4.0103 Y27.2707
X3.9885 Y27.2364
G3 X3.9933 Y27.2239 I0.007 J-0.0045
X4.0035 Y27.2225 Z-0.5504 I0.0102 J0.0361
Y27.2975 Z-0.5545 I0. J0.0375
Y27.2225 Z-0.5586 I0. J-0.0375
Y27.2975 Z-0.5627 I0. J0.0375
Y27.2225 Z-0.5668 I0. J-0.0375
Y27.2975 Z-0.5709 I0. J0.0375
Y27.2225 Z-0.575 I0. J-0.0375
Y27.2975 Z-0.5791 I0. J0.0375
Y27.2225 Z-0.5833 I0. J-0.0375
Y27.2975 Z-0.5874 I0. J0.0375
Y27.2225 Z-0.5915 I0. J-0.0375
Y27.2975 Z-0.5956 I0. J0.0375
Y27.2225 Z-0.5997 I0. J-0.0375
Y27.2975 Z-0.6038 I0. J0.0375
Y27.2225 Z-0.6079 I0. J-0.0375
Y27.2975 Z-0.612 I0. J0.0375
Y27.2225 Z-0.6162 I0. J-0.0375
Y27.2975 Z-0.6203 I0. J0.0375
Y27.2225 Z-0.6244 I0. J-0.0375
Y27.2975 Z-0.6285 I0. J0.0375
Y27.2225 Z-0.6326 I0. J-0.0375
Y27.2975 Z-0.6367 I0. J0.0375
Y27.2225 Z-0.6408 I0. J-0.0375
Y27.2975 Z-0.645 I0. J0.0375
Y27.2225 Z-0.6491 I0. J-0.0375
Y27.2975 Z-0.6532 I0. J0.0375
Y27.2225 Z-0.6573 I0. J-0.0375
X4.0364 Y27.278 Z-0.66 I0. J0.0375
X4.0035 Y27.2975 I-0.0329 J-0.018
Y27.2225 I0. J-0.0375
X4.0364 Y27.278 I0. J0.0375
G2 X4.0369 Y27.2972 I0.0167 J0.0091
G3 X4.0318 Y27.3157 I-0.011 J0.0069
X4.0035 Y27.3225 I-0.0283 J-0.0557
Y27.1975 I0. J-0.0625
X4.0318 Y27.3157 I0. J0.0625
X4.0199 Y27.3102 I-0.0038 J-0.0074
G1 X4.0103 Y27.2707
X3.9885 Y27.2364
G3 X3.9933 Y27.2239 I0.007 J-0.0045
X4.0035 Y27.2225 Z-0.6604 I0.0102 J0.0361
Y27.2975 Z-0.6645 I0. J0.0375
Y27.2225 Z-0.6686 I0. J-0.0375
Y27.2975 Z-0.6727 I0. J0.0375
Y27.2225 Z-0.6768 I0. J-0.0375
Y27.2975 Z-0.6809 I0. J0.0375
Y27.2225 Z-0.685 I0. J-0.0375
Y27.2975 Z-0.6891 I0. J0.0375
Y27.2225 Z-0.6933 I0. J-0.0375
Y27.2975 Z-0.6974 I0. J0.0375
Y27.2225 Z-0.7015 I0. J-0.0375
Y27.2975 Z-0.7056 I0. J0.0375
Y27.2225 Z-0.7097 I0. J-0.0375
Y27.2975 Z-0.7138 I0. J0.0375
Y27.2225 Z-0.7179 I0. J-0.0375
Y27.2975 Z-0.722 I0. J0.0375
Y27.2225 Z-0.7262 I0. J-0.0375
Y27.2975 Z-0.7303 I0. J0.0375
Y27.2225 Z-0.7344 I0. J-0.0375
Y27.2975 Z-0.7385 I0. J0.0375
Y27.2225 Z-0.7426 I0. J-0.0375
Y27.2975 Z-0.7467 I0. J0.0375
Y27.2225 Z-0.7508 I0. J-0.0375
Y27.2975 Z-0.755 I0. J0.0375
Y27.2225 Z-0.7591 I0. J-0.0375
Y27.2975 Z-0.7632 I0. J0.0375
Y27.2225 Z-0.7673 I0. J-0.0375
X4.0364 Y27.278 Z-0.77 I0. J0.0375
X4.0035 Y27.2975 I-0.0329 J-0.018
Y27.2225 I0. J-0.0375
X4.0364 Y27.278 I0. J0.0375
G2 X4.0369 Y27.2972 I0.0167 J0.0091
G3 X4.0318 Y27.3157 I-0.011 J0.0069
X4.0035 Y27.3225 I-0.0283 J-0.0557
Y27.1975 I0. J-0.0625
X4.0318 Y27.3157 I0. J0.0625
G1 X4.0282 Y27.3172 Z-0.7694
X4.0245 Y27.3181 Z-0.7688
X4.021 Y27.3184 Z-0.767
X4.0175 Y27.3182 Z-0.7652
X4.0148 Y27.3178 Z-0.7625
X4.0122 Y27.317 Z-0.7597
X4.0089 Y27.3156 Z-0.7527
X4.0078 Y27.315 Z-0.745
G0 Z0.2
X2.0029 Y30.019
G1 Z0.125 F30.
X2.0018 Z0.1174 F40.
X1.9984 Z0.1106
X1.9931 Y30.0186 Z0.1051
X1.9898 Y30.018 Z0.1033
X1.9865 Y30.0171 Z0.1014
X1.9829 Y30.0159 Z0.1007
X1.9795 Y30.0145 Z0.1
G3 X2.0205 Y29.9267 Z0.0947 I0.0205 J-0.0439
X1.9795 Y30.0145 Z0.0894 I-0.0205 J0.0439
X2.0205 Y29.9267 Z0.084 I0.0205 J-0.0439
X1.9795 Y30.0145 Z0.0787 I-0.0205 J0.0439
X2.0205 Y29.9267 Z0.0734 I0.0205 J-0.0439
X1.9795 Y30.0145 Z0.0681 I-0.0205 J0.0439
X2.0205 Y29.9267 Z0.0628 I0.0205 J-0.0439
X1.9795 Y30.0145 Z0.0575 I-0.0205 J0.0439
X2.0205 Y29.9267 Z0.0521 I0.0205 J-0.0439
X1.9795 Y30.0145 Z0.0468 I-0.0205 J0.0439
X2.0205 Y29.9267 Z0.0415 I0.0205 J-0.0439
X1.9795 Y30.0145 Z0.0362 I-0.0205 J0.0439
X2.0205 Y29.9267 Z0.0309 I0.0205 J-0.0439
X1.9795 Y30.0145 Z0.0255 I-0.0205 J0.0439
X2.0205 Y29.9267 Z0.0202 I0.0205 J-0.0439
X1.9795 Y30.0145 Z0.0149 I-0.0205 J0.0439
X2.0205 Y29.9267 Z0.0096 I0.0205 J-0.0439
X1.9795 Y30.0145 Z0.0043 I-0.0205 J0.0439
X2.0205 Y29.9267 Z-0.0011 I0.0205 J-0.0439
X1.9795 Y30.0145 Z-0.0064 I-0.0205 J0.0439
X2.0205 Y29.9267 Z-0.0117 I0.0205 J-0.0439
X1.9795 Y30.0145 Z-0.017 I-0.0205 J0.0439
X2.0205 Y29.9267 Z-0.0223 I0.0205 J-0.0439
X1.9795 Y30.0145 Z-0.0276 I-0.0205 J0.0439
X2.0205 Y29.9267 Z-0.033 I0.0205 J-0.0439
X1.9795 Y30.0145 Z-0.0383 I-0.0205 J0.0439
X2.0205 Y29.9267 Z-0.0436 I0.0205 J-0.0439
X1.9795 Y30.0145 Z-0.0489 I-0.0205 J0.0439
X2.0205 Y29.9267 Z-0.0542 I0.0205 J-0.0439
X1.9795 Y30.0145 Z-0.0596 I-0.0205 J0.0439
X2.0205 Y29.9267 Z-0.0649 I0.0205 J-0.0439
X1.9795 Y30.0145 Z-0.0702 I-0.0205 J0.0439
X2.0205 Y29.9267 Z-0.0755 I0.0205 J-0.0439
X1.9795 Y30.0145 Z-0.0808 I-0.0205 J0.0439
X2.0205 Y29.9267 Z-0.0862 I0.0205 J-0.0439
X1.9795 Y30.0145 Z-0.0915 I-0.0205 J0.0439
X2.0205 Y29.9267 Z-0.0968 I0.0205 J-0.0439
X1.9795 Y30.0145 Z-0.1021 I-0.0205 J0.0439
X2.0205 Y29.9267 Z-0.1074 I0.0205 J-0.0439
X2.0449 Y29.9889 Z-0.11 I-0.0205 J0.0439
X1.9551 Y29.9523 I-0.0449 J-0.0183
X2.0449 Y29.9889 I0.0449 J0.0183
G2 X2.0548 Y30.1027 I0.116 J0.0472
G3 X1.9994 Y30.2026 I-0.0552 J0.0347
X2.0006 Y29.7386 I0.0006 J-0.232
X1.9994 Y30.2026 I-0.0006 J0.232
G2 X1.8783 Y30.272 I-0.0003 J0.1398
G3 X1.7411 Y30.2981 I-0.0799 J-0.0465
X2. Y29.5531 I0.259 J-0.3275
Y30.3881 I0. J0.4175
X1.7411 Y30.2981 I0. J-0.4175
G2 X1.7191 Y30.2961 I-0.0125 J0.0158
G3 X1.6972 Y30.2932 I-0.0089 J-0.0167
X2. Y29.5281 I0.3029 J-0.3226
Y30.4131 I0. J0.4425
X1.6972 Y30.2932 I0. J-0.4425
X1.6973 Y30.2748 I0.0086 J-0.0091
G1 X1.7781 Y30.201
X1.9842 Y29.9499
X1.985 Y29.9485
X1.9853 Y29.947
X1.9869 Y29.9275
X1.9873 Y29.9259
X1.9882 Y29.9245
X1.9895 Y29.9235
X1.9911 Y29.9229
G3 X2.0089 Y30.0182 Z-0.1153 I0.0089 J0.0477
X1.9911 Y29.9229 Z-0.1206 I-0.0089 J-0.0477
X2.0089 Y30.0182 Z-0.126 I0.0089 J0.0477
X1.9911 Y29.9229 Z-0.1313 I-0.0089 J-0.0477
X2.0089 Y30.0182 Z-0.1366 I0.0089 J0.0477
X1.9911 Y29.9229 Z-0.1419 I-0.0089 J-0.0477
X2.0089 Y30.0182 Z-0.1472 I0.0089 J0.0477
X1.9911 Y29.9229 Z-0.1525 I-0.0089 J-0.0477
X2.0089 Y30.0182 Z-0.1579 I0.0089 J0.0477
X1.9911 Y29.9229 Z-0.1632 I-0.0089 J-0.0477
X2.0089 Y30.0182 Z-0.1685 I0.0089 J0.0477
X1.9911 Y29.9229 Z-0.1738 I-0.0089 J-0.0477
X2.0089 Y30.0182 Z-0.1791 I0.0089 J0.0477
X1.9911 Y29.9229 Z-0.1845 I-0.0089 J-0.0477
X2.0089 Y30.0182 Z-0.1898 I0.0089 J0.0477
X1.9911 Y29.9229 Z-0.1951 I-0.0089 J-0.0477
X2.0089 Y30.0182 Z-0.2004 I0.0089 J0.0477
X1.9911 Y29.9229 Z-0.2057 I-0.0089 J-0.0477
X2.0089 Y30.0182 Z-0.2111 I0.0089 J0.0477
X1.9911 Y29.9229 Z-0.2164 I-0.0089 J-0.0477
X2.0449 Y29.9889 Z-0.22 I0.0089 J0.0477
X1.9551 Y29.9523 I-0.0449 J-0.0183
X2.0449 Y29.9889 I0.0449 J0.0183
G2 X2.0548 Y30.1027 I0.116 J0.0472
G3 X1.9994 Y30.2026 I-0.0552 J0.0347
X2.0006 Y29.7386 I0.0006 J-0.232
X1.9994 Y30.2026 I-0.0006 J0.232
G2 X1.8783 Y30.272 I-0.0003 J0.1398
G3 X1.7411 Y30.2981 I-0.0799 J-0.0465
X2. Y29.5531 I0.259 J-0.3275
Y30.3881 I0. J0.4175
X1.7411 Y30.2981 I0. J-0.4175
G2 X1.7191 Y30.2961 I-0.0125 J0.0158
G3 X1.6972 Y30.2932 I-0.0089 J-0.0167
X2. Y29.5281 I0.3029 J-0.3226
Y30.4131 I0. J0.4425
X1.6972 Y30.2932 I0. J-0.4425
X1.6973 Y30.2748 I0.0086 J-0.0091
G1 X1.7781 Y30.201
X1.9842 Y29.9499
X1.985 Y29.9485
X1.9853 Y29.947
X1.9869 Y29.9275
X1.9873 Y29.9259
X1.9882 Y29.9245
X1.9895 Y29.9235
X1.9911 Y29.9229
G3 X2.0089 Y30.0182 Z-0.2253 I0.0089 J0.0477
X1.9911 Y29.9229 Z-0.2306 I-0.0089 J-0.0477
X2.0089 Y30.0182 Z-0.236 I0.0089 J0.0477
X1.9911 Y29.9229 Z-0.2413 I-0.0089 J-0.0477
X2.0089 Y30.0182 Z-0.2466 I0.0089 J0.0477
X1.9911 Y29.9229 Z-0.2519 I-0.0089 J-0.0477
X2.0089 Y30.0182 Z-0.2572 I0.0089 J0.0477
X1.9911 Y29.9229 Z-0.2625 I-0.0089 J-0.0477
X2.0089 Y30.0182 Z-0.2679 I0.0089 J0.0477
X1.9911 Y29.9229 Z-0.2732 I-0.0089 J-0.0477
X2.0089 Y30.0182 Z-0.2785 I0.0089 J0.0477
X1.9911 Y29.9229 Z-0.2838 I-0.0089 J-0.0477
X2.0089 Y30.0182 Z-0.2891 I0.0089 J0.0477
X1.9911 Y29.9229 Z-0.2945 I-0.0089 J-0.0477
X2.0089 Y30.0182 Z-0.2998 I0.0089 J0.0477
X1.9911 Y29.9229 Z-0.3051 I-0.0089 J-0.0477
X2.0089 Y30.0182 Z-0.3104 I0.0089 J0.0477
X1.9911 Y29.9229 Z-0.3157 I-0.0089 J-0.0477
X2.0089 Y30.0182 Z-0.3211 I0.0089 J0.0477
X1.9911 Y29.9229 Z-0.3264 I-0.0089 J-0.0477
X2.0449 Y29.9889 Z-0.33 I0.0089 J0.0477
X1.9551 Y29.9523 I-0.0449 J-0.0183
X2.0449 Y29.9889 I0.0449 J0.0183
G2 X2.0548 Y30.1027 I0.116 J0.0472
G3 X1.9994 Y30.2026 I-0.0552 J0.0347
X2.0006 Y29.7386 I0.0006 J-0.232
X1.9994 Y30.2026 I-0.0006 J0.232
G2 X1.8783 Y30.272 I-0.0003 J0.1398
G3 X1.7411 Y30.2981 I-0.0799 J-0.0465
X2. Y29.5531 I0.259 J-0.3275
Y30.3881 I0. J0.4175
X1.7411 Y30.2981 I0. J-0.4175
G2 X1.7191 Y30.2961 I-0.0125 J0.0158
G3 X1.6972 Y30.2932 I-0.0089 J-0.0167
X2. Y29.5281 I0.3029 J-0.3226
Y30.4131 I0. J0.4425
X1.6972 Y30.2932 I0. J-0.4425
X1.6973 Y30.2748 I0.0086 J-0.0091
G1 X1.7781 Y30.201
X1.9842 Y29.9499
X1.985 Y29.9485
X1.9853 Y29.947
X1.9869 Y29.9275
X1.9873 Y29.9259
X1.9882 Y29.9245
X1.9895 Y29.9235
X1.9911 Y29.9229
G3 X2.0089 Y30.0182 Z-0.3353 I0.0089 J0.0477
X1.9911 Y29.9229 Z-0.3406 I-0.0089 J-0.0477
X2.0089 Y30.0182 Z-0.346 I0.0089 J0.0477
X1.9911 Y29.9229 Z-0.3513 I-0.0089 J-0.0477
X2.0089 Y30.0182 Z-0.3566 I0.0089 J0.0477
X1.9911 Y29.9229 Z-0.3619 I-0.0089 J-0.0477
X2.0089 Y30.0182 Z-0.3672 I0.0089 J0.0477
X1.9911 Y29.9229 Z-0.3725 I-0.0089 J-0.0477
X2.0089 Y30.0182 Z-0.3779 I0.0089 J0.0477
X1.9911 Y29.9229 Z-0.3832 I-0.0089 J-0.0477
X2.0089 Y30.0182 Z-0.3885 I0.0089 J0.0477
X1.9911 Y29.9229 Z-0.3938 I-0.0089 J-0.0477
X2.0089 Y30.0182 Z-0.3991 I0.0089 J0.0477
X1.9911 Y29.9229 Z-0.4045 I-0.0089 J-0.0477
X2.0089 Y30.0182 Z-0.4098 I0.0089 J0.0477
X1.9911 Y29.9229 Z-0.4151 I-0.0089 J-0.0477
X2.0089 Y30.0182 Z-0.4204 I0.0089 J0.0477
X1.9911 Y29.9229 Z-0.4257 I-0.0089 J-0.0477
X2.0089 Y30.0182 Z-0.4311 I0.0089 J0.0477
X1.9911 Y29.9229 Z-0.4364 I-0.0089 J-0.0477
X2.0449 Y29.9889 Z-0.44 I0.0089 J0.0477
X1.9551 Y29.9523 I-0.0449 J-0.0183
X2.0449 Y29.9889 I0.0449 J0.0183
G2 X2.0548 Y30.1027 I0.116 J0.0472
G3 X1.9994 Y30.2026 I-0.0552 J0.0347
X2.0006 Y29.7386 I0.0006 J-0.232
X1.9994 Y30.2026 I-0.0006 J0.232
G2 X1.8783 Y30.272 I-0.0003 J0.1398
G3 X1.7411 Y30.2981 I-0.0799 J-0.0465
X2. Y29.5531 I0.259 J-0.3275
Y30.3881 I0. J0.4175
X1.7411 Y30.2981 I0. J-0.4175
G2 X1.7191 Y30.2961 I-0.0125 J0.0158
G3 X1.6972 Y30.2932 I-0.0089 J-0.0167
X2. Y29.5281 I0.3029 J-0.3226
Y30.4131 I0. J0.4425
X1.6972 Y30.2932 I0. J-0.4425
X1.6973 Y30.2748 I0.0086 J-0.0091
G1 X1.7781 Y30.201
X1.9842 Y29.9499
X1.985 Y29.9485
X1.9853 Y29.947
X1.9869 Y29.9275
X1.9873 Y29.9259
X1.9882 Y29.9245
X1.9895 Y29.9235
X1.9911 Y29.9229
G3 X2.0089 Y30.0182 Z-0.4453 I0.0089 J0.0477
X1.9911 Y29.9229 Z-0.4506 I-0.0089 J-0.0477
X2.0089 Y30.0182 Z-0.456 I0.0089 J0.0477
X1.9911 Y29.9229 Z-0.4613 I-0.0089 J-0.0477
X2.0089 Y30.0182 Z-0.4666 I0.0089 J0.0477
X1.9911 Y29.9229 Z-0.4719 I-0.0089 J-0.0477
X2.0089 Y30.0182 Z-0.4772 I0.0089 J0.0477
X1.9911 Y29.9229 Z-0.4825 I-0.0089 J-0.0477
X2.0089 Y30.0182 Z-0.4879 I0.0089 J0.0477
X1.9911 Y29.9229 Z-0.4932 I-0.0089 J-0.0477
X2.0089 Y30.0182 Z-0.4985 I0.0089 J0.0477
X1.9911 Y29.9229 Z-0.5038 I-0.0089 J-0.0477
X2.0089 Y30.0182 Z-0.5091 I0.0089 J0.0477
X1.9911 Y29.9229 Z-0.5145 I-0.0089 J-0.0477
X2.0089 Y30.0182 Z-0.5198 I0.0089 J0.0477
X1.9911 Y29.9229 Z-0.5251 I-0.0089 J-0.0477
X2.0089 Y30.0182 Z-0.5304 I0.0089 J0.0477
X1.9911 Y29.9229 Z-0.5357 I-0.0089 J-0.0477
X2.0089 Y30.0182 Z-0.5411 I0.0089 J0.0477
X1.9911 Y29.9229 Z-0.5464 I-0.0089 J-0.0477
X2.0449 Y29.9889 Z-0.55 I0.0089 J0.0477
X1.9551 Y29.9523 I-0.0449 J-0.0183
X2.0449 Y29.9889 I0.0449 J0.0183
G2 X2.0548 Y30.1027 I0.116 J0.0472
G3 X1.9994 Y30.2026 I-0.0552 J0.0347
X2.0006 Y29.7386 I0.0006 J-0.232
X1.9994 Y30.2026 I-0.0006 J0.232
G2 X1.8783 Y30.272 I-0.0003 J0.1398
G3 X1.7411 Y30.2981 I-0.0799 J-0.0465
X2. Y29.5531 I0.259 J-0.3275
Y30.3881 I0. J0.4175
X1.7411 Y30.2981 I0. J-0.4175
G2 X1.7191 Y30.2961 I-0.0125 J0.0158
G3 X1.6972 Y30.2932 I-0.0089 J-0.0167
X2. Y29.5281 I0.3029 J-0.3226
Y30.4131 I0. J0.4425
X1.6972 Y30.2932 I0. J-0.4425
X1.6973 Y30.2748 I0.0086 J-0.0091
G1 X1.7781 Y30.201
X1.9842 Y29.9499
X1.985 Y29.9485
X1.9853 Y29.947
X1.9869 Y29.9275
X1.9873 Y29.9259
X1.9882 Y29.9245
X1.9895 Y29.9235
X1.9911 Y29.9229
G3 X2.0089 Y30.0182 Z-0.5553 I0.0089 J0.0477
X1.9911 Y29.9229 Z-0.5606 I-0.0089 J-0.0477
X2.0089 Y30.0182 Z-0.566 I0.0089 J0.0477
X1.9911 Y29.9229 Z-0.5713 I-0.0089 J-0.0477
X2.0089 Y30.0182 Z-0.5766 I0.0089 J0.0477
X1.9911 Y29.9229 Z-0.5819 I-0.0089 J-0.0477
X2.0089 Y30.0182 Z-0.5872 I0.0089 J0.0477
X1.9911 Y29.9229 Z-0.5925 I-0.0089 J-0.0477
X2.0089 Y30.0182 Z-0.5979 I0.0089 J0.0477
X1.9911 Y29.9229 Z-0.6032 I-0.0089 J-0.0477
X2.0089 Y30.0182 Z-0.6085 I0.0089 J0.0477
X1.9911 Y29.9229 Z-0.6138 I-0.0089 J-0.0477
X2.0089 Y30.0182 Z-0.6191 I0.0089 J0.0477
X1.9911 Y29.9229 Z-0.6245 I-0.0089 J-0.0477
X2.0089 Y30.0182 Z-0.6298 I0.0089 J0.0477
X1.9911 Y29.9229 Z-0.6351 I-0.0089 J-0.0477
X2.0089 Y30.0182 Z-0.6404 I0.0089 J0.0477
X1.9911 Y29.9229 Z-0.6457 I-0.0089 J-0.0477
X2.0089 Y30.0182 Z-0.6511 I0.0089 J0.0477
X1.9911 Y29.9229 Z-0.6564 I-0.0089 J-0.0477
X2.0449 Y29.9889 Z-0.66 I0.0089 J0.0477
X1.9551 Y29.9523 I-0.0449 J-0.0183
X2.0449 Y29.9889 I0.0449 J0.0183
G2 X2.0548 Y30.1027 I0.116 J0.0472
G3 X1.9994 Y30.2026 I-0.0552 J0.0347
X2.0006 Y29.7386 I0.0006 J-0.232
X1.9994 Y30.2026 I-0.0006 J0.232
G2 X1.8783 Y30.272 I-0.0003 J0.1398
G3 X1.7411 Y30.2981 I-0.0799 J-0.0465
X2. Y29.5531 I0.259 J-0.3275
Y30.3881 I0. J0.4175
X1.7411 Y30.2981 I0. J-0.4175
G2 X1.7191 Y30.2961 I-0.0125 J0.0158
G3 X1.6972 Y30.2932 I-0.0089 J-0.0167
X2. Y29.5281 I0.3029 J-0.3226
Y30.4131 I0. J0.4425
X1.6972 Y30.2932 I0. J-0.4425
X1.6973 Y30.2748 I0.0086 J-0.0091
G1 X1.7781 Y30.201
X1.9842 Y29.9499
X1.985 Y29.9485
X1.9853 Y29.947
X1.9869 Y29.9275
X1.9873 Y29.9259
X1.9882 Y29.9245
X1.9895 Y29.9235
X1.9911 Y29.9229
G3 X2.0089 Y30.0182 Z-0.6653 I0.0089 J0.0477
X1.9911 Y29.9229 Z-0.6706 I-0.0089 J-0.0477
X2.0089 Y30.0182 Z-0.676 I0.0089 J0.0477
X1.9911 Y29.9229 Z-0.6813 I-0.0089 J-0.0477
X2.0089 Y30.0182 Z-0.6866 I0.0089 J0.0477
X1.9911 Y29.9229 Z-0.6919 I-0.0089 J-0.0477
X2.0089 Y30.0182 Z-0.6972 I0.0089 J0.0477
X1.9911 Y29.9229 Z-0.7025 I-0.0089 J-0.0477
X2.0089 Y30.0182 Z-0.7079 I0.0089 J0.0477
X1.9911 Y29.9229 Z-0.7132 I-0.0089 J-0.0477
X2.0089 Y30.0182 Z-0.7185 I0.0089 J0.0477
X1.9911 Y29.9229 Z-0.7238 I-0.0089 J-0.0477
X2.0089 Y30.0182 Z-0.7291 I0.0089 J0.0477
X1.9911 Y29.9229 Z-0.7345 I-0.0089 J-0.0477
X2.0089 Y30.0182 Z-0.7398 I0.0089 J0.0477
X1.9911 Y29.9229 Z-0.7451 I-0.0089 J-0.0477
X2.0089 Y30.0182 Z-0.7504 I0.0089 J0.0477
X1.9911 Y29.9229 Z-0.7557 I-0.0089 J-0.0477
X2.0089 Y30.0182 Z-0.7611 I0.0089 J0.0477
X1.9911 Y29.9229 Z-0.7664 I-0.0089 J-0.0477
X2.0449 Y29.9889 Z-0.77 I0.0089 J0.0477
X1.9551 Y29.9523 I-0.0449 J-0.0183
X2.0449 Y29.9889 I0.0449 J0.0183
G2 X2.0548 Y30.1027 I0.116 J0.0472
G3 X1.9994 Y30.2026 I-0.0552 J0.0347
X2.0006 Y29.7386 I0.0006 J-0.232
X1.9994 Y30.2026 I-0.0006 J0.232
G2 X1.8783 Y30.272 I-0.0003 J0.1398
G3 X1.7411 Y30.2981 I-0.0799 J-0.0465
X2. Y29.5531 I0.259 J-0.3275
Y30.3881 I0. J0.4175
X1.7411 Y30.2981 I0. J-0.4175
G2 X1.7191 Y30.2961 I-0.0125 J0.0158
G3 X1.6972 Y30.2932 I-0.0089 J-0.0167
X2. Y29.5281 I0.3029 J-0.3226
Y30.4131 I0. J0.4425
X1.6972 Y30.2932 I0. J-0.4425
G1 X1.6946 Y30.2903 Z-0.7694
X1.6924 Y30.2871 Z-0.7688
X1.691 Y30.284 Z-0.767
X1.6899 Y30.2806 Z-0.7652
X1.6894 Y30.2779 Z-0.7625
X1.6893 Y30.2752 Z-0.7597
X1.6895 Y30.2716 Z-0.7527
X1.6897 Y30.2704 Z-0.745
G0 Z0.2
X10.4882 Y10.5337
G1 Z0.125 F30.
X10.487 Z0.1174 F40.
X10.4836 Z0.1106
X10.4783 Y10.5333 Z0.1051
X10.475 Y10.5327 Z0.1033
X10.4718 Y10.5319 Z0.1014
X10.4682 Y10.5307 Z0.1007
X10.4647 Y10.5292 Z0.1
G3 X10.5058 Y10.4414 Z0.0947 I0.0205 J-0.0439
X10.4647 Y10.5292 Z0.0894 I-0.0205 J0.0439
X10.5058 Y10.4414 Z0.084 I0.0205 J-0.0439
X10.4647 Y10.5292 Z0.0787 I-0.0205 J0.0439
X10.5058 Y10.4414 Z0.0734 I0.0205 J-0.0439
X10.4647 Y10.5292 Z0.0681 I-0.0205 J0.0439
X10.5058 Y10.4414 Z0.0628 I0.0205 J-0.0439
X10.4647 Y10.5292 Z0.0575 I-0.0205 J0.0439
X10.5058 Y10.4414 Z0.0521 I0.0205 J-0.0439
X10.4647 Y10.5292 Z0.0468 I-0.0205 J0.0439
X10.5058 Y10.4414 Z0.0415 I0.0205 J-0.0439
X10.4647 Y10.5292 Z0.0362 I-0.0205 J0.0439
X10.5058 Y10.4414 Z0.0309 I0.0205 J-0.0439
X10.4647 Y10.5292 Z0.0255 I-0.0205 J0.0439
X10.5058 Y10.4414 Z0.0202 I0.0205 J-0.0439
X10.4647 Y10.5292 Z0.0149 I-0.0205 J0.0439
X10.5058 Y10.4414 Z0.0096 I0.0205 J-0.0439
X10.4647 Y10.5292 Z0.0043 I-0.0205 J0.0439
X10.5058 Y10.4414 Z-0.0011 I0.0205 J-0.0439
X10.4647 Y10.5292 Z-0.0064 I-0.0205 J0.0439
X10.5058 Y10.4414 Z-0.0117 I0.0205 J-0.0439
X10.4647 Y10.5292 Z-0.017 I-0.0205 J0.0439
X10.5058 Y10.4414 Z-0.0223 I0.0205 J-0.0439
X10.4647 Y10.5292 Z-0.0276 I-0.0205 J0.0439
X10.5058 Y10.4414 Z-0.033 I0.0205 J-0.0439
X10.4647 Y10.5292 Z-0.0383 I-0.0205 J0.0439
X10.5058 Y10.4414 Z-0.0436 I0.0205 J-0.0439
X10.4647 Y10.5292 Z-0.0489 I-0.0205 J0.0439
X10.5058 Y10.4414 Z-0.0542 I0.0205 J-0.0439
X10.4647 Y10.5292 Z-0.0596 I-0.0205 J0.0439
X10.5058 Y10.4414 Z-0.0649 I0.0205 J-0.0439
X10.4647 Y10.5292 Z-0.0702 I-0.0205 J0.0439
X10.5058 Y10.4414 Z-0.0755 I0.0205 J-0.0439
X10.4647 Y10.5292 Z-0.0808 I-0.0205 J0.0439
X10.5058 Y10.4414 Z-0.0862 I0.0205 J-0.0439
X10.4647 Y10.5292 Z-0.0915 I-0.0205 J0.0439
X10.5058 Y10.4414 Z-0.0968 I0.0205 J-0.0439
X10.4647 Y10.5292 Z-0.1021 I-0.0205 J0.0439
X10.5058 Y10.4414 Z-0.1074 I0.0205 J-0.0439
X10.5302 Y10.5036 Z-0.11 I-0.0205 J0.0439
X10.4404 Y10.467 I-0.0449 J-0.0183
X10.5302 Y10.5036 I0.0449 J0.0183
G2 X10.5401 Y10.6174 I0.1159 J0.0472
G3 X10.4847 Y10.7173 I-0.0552 J0.0347
X10.4859 Y10.2533 I0.0006 J-0.232
X10.4847 Y10.7173 I-0.0006 J0.232
G2 X10.3636 Y10.7868 I-0.0003 J0.1398
G3 X10.2263 Y10.8128 I-0.0799 J-0.0465
X10.4853 Y10.0678 I0.259 J-0.3275
Y10.9028 I0. J0.4175
X10.2263 Y10.8128 I0. J-0.4175
G2 X10.2043 Y10.8108 I-0.0125 J0.0158
G3 X10.1824 Y10.8079 I-0.0089 J-0.0167
X10.4853 Y10.0428 I0.3029 J-0.3226
Y10.9278 I0. J0.4425
X10.1824 Y10.8079 I0. J-0.4425
X10.1826 Y10.7896 I0.0086 J-0.0091
G1 X10.2634 Y10.7157
X10.4694 Y10.4646
X10.4702 Y10.4633
X10.4706 Y10.4618
X10.4722 Y10.4422
X10.4726 Y10.4406
X10.4735 Y10.4392
X10.4748 Y10.4382
X10.4763 Y10.4376
G3 X10.4942 Y10.5329 Z-0.1153 I0.0089 J0.0477
X10.4763 Y10.4376 Z-0.1206 I-0.0089 J-0.0477
X10.4942 Y10.5329 Z-0.126 I0.0089 J0.0477
X10.4763 Y10.4376 Z-0.1313 I-0.0089 J-0.0477
X10.4942 Y10.5329 Z-0.1366 I0.0089 J0.0477
X10.4763 Y10.4376 Z-0.1419 I-0.0089 J-0.0477
X10.4942 Y10.5329 Z-0.1472 I0.0089 J0.0477
X10.4763 Y10.4376 Z-0.1525 I-0.0089 J-0.0477
X10.4942 Y10.5329 Z-0.1579 I0.0089 J0.0477
X10.4763 Y10.4376 Z-0.1632 I-0.0089 J-0.0477
X10.4942 Y10.5329 Z-0.1685 I0.0089 J0.0477
X10.4763 Y10.4376 Z-0.1738 I-0.0089 J-0.0477
X10.4942 Y10.5329 Z-0.1791 I0.0089 J0.0477
X10.4763 Y10.4376 Z-0.1845 I-0.0089 J-0.0477
X10.4942 Y10.5329 Z-0.1898 I0.0089 J0.0477
X10.4763 Y10.4376 Z-0.1951 I-0.0089 J-0.0477
X10.4942 Y10.5329 Z-0.2004 I0.0089 J0.0477
X10.4763 Y10.4376 Z-0.2057 I-0.0089 J-0.0477
X10.4942 Y10.5329 Z-0.2111 I0.0089 J0.0477
X10.4763 Y10.4376 Z-0.2164 I-0.0089 J-0.0477
X10.5302 Y10.5036 Z-0.22 I0.0089 J0.0477
X10.4404 Y10.467 I-0.0449 J-0.0183
X10.5302 Y10.5036 I0.0449 J0.0183
G2 X10.5401 Y10.6174 I0.1159 J0.0472
G3 X10.4847 Y10.7173 I-0.0552 J0.0347
X10.4859 Y10.2533 I0.0006 J-0.232
X10.4847 Y10.7173 I-0.0006 J0.232
G2 X10.3636 Y10.7868 I-0.0003 J0.1398
G3 X10.2263 Y10.8128 I-0.0799 J-0.0465
X10.4853 Y10.0678 I0.259 J-0.3275
Y10.9028 I0. J0.4175
X10.2263 Y10.8128 I0. J-0.4175
G2 X10.2043 Y10.8108 I-0.0125 J0.0158
G3 X10.1824 Y10.8079 I-0.0089 J-0.0167
X10.4853 Y10.0428 I0.3029 J-0.3226
Y10.9278 I0. J0.4425
X10.1824 Y10.8079 I0. J-0.4425
X10.1826 Y10.7896 I0.0086 J-0.0091
G1 X10.2634 Y10.7157
X10.4694 Y10.4646
X10.4702 Y10.4633
X10.4706 Y10.4618
X10.4722 Y10.4422
X10.4726 Y10.4406
X10.4735 Y10.4392
X10.4748 Y10.4382
X10.4763 Y10.4376
G3 X10.4942 Y10.5329 Z-0.2253 I0.0089 J0.0477
X10.4763 Y10.4376 Z-0.2306 I-0.0089 J-0.0477
X10.4942 Y10.5329 Z-0.236 I0.0089 J0.0477
X10.4763 Y10.4376 Z-0.2413 I-0.0089 J-0.0477
X10.4942 Y10.5329 Z-0.2466 I0.0089 J0.0477
X10.4763 Y10.4376 Z-0.2519 I-0.0089 J-0.0477
X10.4942 Y10.5329 Z-0.2572 I0.0089 J0.0477
X10.4763 Y10.4376 Z-0.2625 I-0.0089 J-0.0477
X10.4942 Y10.5329 Z-0.2679 I0.0089 J0.0477
X10.4763 Y10.4376 Z-0.2732 I-0.0089 J-0.0477
X10.4942 Y10.5329 Z-0.2785 I0.0089 J0.0477
X10.4763 Y10.4376 Z-0.2838 I-0.0089 J-0.0477
X10.4942 Y10.5329 Z-0.2891 I0.0089 J0.0477
X10.4763 Y10.4376 Z-0.2945 I-0.0089 J-0.0477
X10.4942 Y10.5329 Z-0.2998 I0.0089 J0.0477
X10.4763 Y10.4376 Z-0.3051 I-0.0089 J-0.0477
X10.4942 Y10.5329 Z-0.3104 I0.0089 J0.0477
X10.4763 Y10.4376 Z-0.3157 I-0.0089 J-0.0477
X10.4942 Y10.5329 Z-0.3211 I0.0089 J0.0477
X10.4763 Y10.4376 Z-0.3264 I-0.0089 J-0.0477
X10.5302 Y10.5036 Z-0.33 I0.0089 J0.0477
X10.4404 Y10.467 I-0.0449 J-0.0183
X10.5302 Y10.5036 I0.0449 J0.0183
G2 X10.5401 Y10.6174 I0.1159 J0.0472
G3 X10.4847 Y10.7173 I-0.0552 J0.0347
X10.4859 Y10.2533 I0.0006 J-0.232
X10.4847 Y10.7173 I-0.0006 J0.232
G2 X10.3636 Y10.7868 I-0.0003 J0.1398
G3 X10.2263 Y10.8128 I-0.0799 J-0.0465
X10.4853 Y10.0678 I0.259 J-0.3275
Y10.9028 I0. J0.4175
X10.2263 Y10.8128 I0. J-0.4175
G2 X10.2043 Y10.8108 I-0.0125 J0.0158
G3 X10.1824 Y10.8079 I-0.0089 J-0.0167
X10.4853 Y10.0428 I0.3029 J-0.3226
Y10.9278 I0. J0.4425
X10.1824 Y10.8079 I0. J-0.4425
X10.1826 Y10.7896 I0.0086 J-0.0091
G1 X10.2634 Y10.7157
X10.4694 Y10.4646
X10.4702 Y10.4633
X10.4706 Y10.4618
X10.4722 Y10.4422
X10.4726 Y10.4406
X10.4735 Y10.4392
X10.4748 Y10.4382
X10.4763 Y10.4376
G3 X10.4942 Y10.5329 Z-0.3353 I0.0089 J0.0477
X10.4763 Y10.4376 Z-0.3406 I-0.0089 J-0.0477
X10.4942 Y10.5329 Z-0.346 I0.0089 J0.0477
X10.4763 Y10.4376 Z-0.3513 I-0.0089 J-0.0477
X10.4942 Y10.5329 Z-0.3566 I0.0089 J0.0477
X10.4763 Y10.4376 Z-0.3619 I-0.0089 J-0.0477
X10.4942 Y10.5329 Z-0.3672 I0.0089 J0.0477
X10.4763 Y10.4376 Z-0.3725 I-0.0089 J-0.0477
X10.4942 Y10.5329 Z-0.3779 I0.0089 J0.0477
X10.4763 Y10.4376 Z-0.3832 I-0.0089 J-0.0477
X10.4942 Y10.5329 Z-0.3885 I0.0089 J0.0477
X10.4763 Y10.4376 Z-0.3938 I-0.0089 J-0.0477
X10.4942 Y10.5329 Z-0.3991 I0.0089 J0.0477
X10.4763 Y10.4376 Z-0.4045 I-0.0089 J-0.0477
X10.4942 Y10.5329 Z-0.4098 I0.0089 J0.0477
X10.4763 Y10.4376 Z-0.4151 I-0.0089 J-0.0477
X10.4942 Y10.5329 Z-0.4204 I0.0089 J0.0477
X10.4763 Y10.4376 Z-0.4257 I-0.0089 J-0.0477
X10.4942 Y10.5329 Z-0.4311 I0.0089 J0.0477
X10.4763 Y10.4376 Z-0.4364 I-0.0089 J-0.0477
X10.5302 Y10.5036 Z-0.44 I0.0089 J0.0477
X10.4404 Y10.467 I-0.0449 J-0.0183
X10.5302 Y10.5036 I0.0449 J0.0183
G2 X10.5401 Y10.6174 I0.1159 J0.0472
G3 X10.4847 Y10.7173 I-0.0552 J0.0347
X10.4859 Y10.2533 I0.0006 J-0.232
X10.4847 Y10.7173 I-0.0006 J0.232
G2 X10.3636 Y10.7868 I-0.0003 J0.1398
G3 X10.2263 Y10.8128 I-0.0799 J-0.0465
X10.4853 Y10.0678 I0.259 J-0.3275
Y10.9028 I0. J0.4175
X10.2263 Y10.8128 I0. J-0.4175
G2 X10.2043 Y10.8108 I-0.0125 J0.0158
G3 X10.1824 Y10.8079 I-0.0089 J-0.0167
X10.4853 Y10.0428 I0.3029 J-0.3226
Y10.9278 I0. J0.4425
X10.1824 Y10.8079 I0. J-0.4425
X10.1826 Y10.7896 I0.0086 J-0.0091
G1 X10.2634 Y10.7157
X10.4694 Y10.4646
X10.4702 Y10.4633
X10.4706 Y10.4618
X10.4722 Y10.4422
X10.4726 Y10.4406
X10.4735 Y10.4392
X10.4748 Y10.4382
X10.4763 Y10.4376
G3 X10.4942 Y10.5329 Z-0.4453 I0.0089 J0.0477
X10.4763 Y10.4376 Z-0.4506 I-0.0089 J-0.0477
X10.4942 Y10.5329 Z-0.456 I0.0089 J0.0477
X10.4763 Y10.4376 Z-0.4613 I-0.0089 J-0.0477
X10.4942 Y10.5329 Z-0.4666 I0.0089 J0.0477
X10.4763 Y10.4376 Z-0.4719 I-0.0089 J-0.0477
X10.4942 Y10.5329 Z-0.4772 I0.0089 J0.0477
X10.4763 Y10.4376 Z-0.4825 I-0.0089 J-0.0477
X10.4942 Y10.5329 Z-0.4879 I0.0089 J0.0477
X10.4763 Y10.4376 Z-0.4932 I-0.0089 J-0.0477
X10.4942 Y10.5329 Z-0.4985 I0.0089 J0.0477
X10.4763 Y10.4376 Z-0.5038 I-0.0089 J-0.0477
X10.4942 Y10.5329 Z-0.5091 I0.0089 J0.0477
X10.4763 Y10.4376 Z-0.5145 I-0.0089 J-0.0477
X10.4942 Y10.5329 Z-0.5198 I0.0089 J0.0477
X10.4763 Y10.4376 Z-0.5251 I-0.0089 J-0.0477
X10.4942 Y10.5329 Z-0.5304 I0.0089 J0.0477
X10.4763 Y10.4376 Z-0.5357 I-0.0089 J-0.0477
X10.4942 Y10.5329 Z-0.5411 I0.0089 J0.0477
X10.4763 Y10.4376 Z-0.5464 I-0.0089 J-0.0477
X10.5302 Y10.5036 Z-0.55 I0.0089 J0.0477
X10.4404 Y10.467 I-0.0449 J-0.0183
X10.5302 Y10.5036 I0.0449 J0.0183
G2 X10.5401 Y10.6174 I0.1159 J0.0472
G3 X10.4847 Y10.7173 I-0.0552 J0.0347
X10.4859 Y10.2533 I0.0006 J-0.232
X10.4847 Y10.7173 I-0.0006 J0.232
G2 X10.3636 Y10.7868 I-0.0003 J0.1398
G3 X10.2263 Y10.8128 I-0.0799 J-0.0465
X10.4853 Y10.0678 I0.259 J-0.3275
Y10.9028 I0. J0.4175
X10.2263 Y10.8128 I0. J-0.4175
G2 X10.2043 Y10.8108 I-0.0125 J0.0158
G3 X10.1824 Y10.8079 I-0.0089 J-0.0167
X10.4853 Y10.0428 I0.3029 J-0.3226
Y10.9278 I0. J0.4425
X10.1824 Y10.8079 I0. J-0.4425
X10.1826 Y10.7896 I0.0086 J-0.0091
G1 X10.2634 Y10.7157
X10.4694 Y10.4646
X10.4702 Y10.4633
X10.4706 Y10.4618
X10.4722 Y10.4422
X10.4726 Y10.4406
X10.4735 Y10.4392
X10.4748 Y10.4382
X10.4763 Y10.4376
G3 X10.4942 Y10.5329 Z-0.5553 I0.0089 J0.0477
X10.4763 Y10.4376 Z-0.5606 I-0.0089 J-0.0477
X10.4942 Y10.5329 Z-0.566 I0.0089 J0.0477
X10.4763 Y10.4376 Z-0.5713 I-0.0089 J-0.0477
X10.4942 Y10.5329 Z-0.5766 I0.0089 J0.0477
X10.4763 Y10.4376 Z-0.5819 I-0.0089 J-0.0477
X10.4942 Y10.5329 Z-0.5872 I0.0089 J0.0477
X10.4763 Y10.4376 Z-0.5925 I-0.0089 J-0.0477
X10.4942 Y10.5329 Z-0.5979 I0.0089 J0.0477
X10.4763 Y10.4376 Z-0.6032 I-0.0089 J-0.0477
X10.4942 Y10.5329 Z-0.6085 I0.0089 J0.0477
X10.4763 Y10.4376 Z-0.6138 I-0.0089 J-0.0477
X10.4942 Y10.5329 Z-0.6191 I0.0089 J0.0477
X10.4763 Y10.4376 Z-0.6245 I-0.0089 J-0.0477
X10.4942 Y10.5329 Z-0.6298 I0.0089 J0.0477
X10.4763 Y10.4376 Z-0.6351 I-0.0089 J-0.0477
X10.4942 Y10.5329 Z-0.6404 I0.0089 J0.0477
X10.4763 Y10.4376 Z-0.6457 I-0.0089 J-0.0477
X10.4942 Y10.5329 Z-0.6511 I0.0089 J0.0477
X10.4763 Y10.4376 Z-0.6564 I-0.0089 J-0.0477
X10.5302 Y10.5036 Z-0.66 I0.0089 J0.0477
X10.4404 Y10.467 I-0.0449 J-0.0183
X10.5302 Y10.5036 I0.0449 J0.0183
G2 X10.5401 Y10.6174 I0.1159 J0.0472
G3 X10.4847 Y10.7173 I-0.0552 J0.0347
X10.4859 Y10.2533 I0.0006 J-0.232
X10.4847 Y10.7173 I-0.0006 J0.232
G2 X10.3636 Y10.7868 I-0.0003 J0.1398
G3 X10.2263 Y10.8128 I-0.0799 J-0.0465
X10.4853 Y10.0678 I0.259 J-0.3275
Y10.9028 I0. J0.4175
X10.2263 Y10.8128 I0. J-0.4175
G2 X10.2043 Y10.8108 I-0.0125 J0.0158
G3 X10.1824 Y10.8079 I-0.0089 J-0.0167
X10.4853 Y10.0428 I0.3029 J-0.3226
Y10.9278 I0. J0.4425
X10.1824 Y10.8079 I0. J-0.4425
X10.1826 Y10.7896 I0.0086 J-0.0091
G1 X10.2634 Y10.7157
X10.4694 Y10.4646
X10.4702 Y10.4633
X10.4706 Y10.4618
X10.4722 Y10.4422
X10.4726 Y10.4406
X10.4735 Y10.4392
X10.4748 Y10.4382
X10.4763 Y10.4376
G3 X10.4942 Y10.5329 Z-0.6653 I0.0089 J0.0477
X10.4763 Y10.4376 Z-0.6706 I-0.0089 J-0.0477
X10.4942 Y10.5329 Z-0.676 I0.0089 J0.0477
X10.4763 Y10.4376 Z-0.6813 I-0.0089 J-0.0477
X10.4942 Y10.5329 Z-0.6866 I0.0089 J0.0477
X10.4763 Y10.4376 Z-0.6919 I-0.0089 J-0.0477
X10.4942 Y10.5329 Z-0.6972 I0.0089 J0.0477
X10.4763 Y10.4376 Z-0.7025 I-0.0089 J-0.0477
X10.4942 Y10.5329 Z-0.7079 I0.0089 J0.0477
X10.4763 Y10.4376 Z-0.7132 I-0.0089 J-0.0477
X10.4942 Y10.5329 Z-0.7185 I0.0089 J0.0477
X10.4763 Y10.4376 Z-0.7238 I-0.0089 J-0.0477
X10.4942 Y10.5329 Z-0.7291 I0.0089 J0.0477
X10.4763 Y10.4376 Z-0.7345 I-0.0089 J-0.0477
X10.4942 Y10.5329 Z-0.7398 I0.0089 J0.0477
X10.4763 Y10.4376 Z-0.7451 I-0.0089 J-0.0477
X10.4942 Y10.5329 Z-0.7504 I0.0089 J0.0477
X10.4763 Y10.4376 Z-0.7557 I-0.0089 J-0.0477
X10.4942 Y10.5329 Z-0.7611 I0.0089 J0.0477
X10.4763 Y10.4376 Z-0.7664 I-0.0089 J-0.0477
X10.5302 Y10.5036 Z-0.77 I0.0089 J0.0477
X10.4404 Y10.467 I-0.0449 J-0.0183
X10.5302 Y10.5036 I0.0449 J0.0183
G2 X10.5401 Y10.6174 I0.1159 J0.0472
G3 X10.4847 Y10.7173 I-0.0552 J0.0347
X10.4859 Y10.2533 I0.0006 J-0.232
X10.4847 Y10.7173 I-0.0006 J0.232
G2 X10.3636 Y10.7868 I-0.0003 J0.1398
G3 X10.2263 Y10.8128 I-0.0799 J-0.0465
X10.4853 Y10.0678 I0.259 J-0.3275
Y10.9028 I0. J0.4175
X10.2263 Y10.8128 I0. J-0.4175
G2 X10.2043 Y10.8108 I-0.0125 J0.0158
G3 X10.1824 Y10.8079 I-0.0089 J-0.0167
X10.4853 Y10.0428 I0.3029 J-0.3226
Y10.9278 I0. J0.4425
X10.1824 Y10.8079 I0. J-0.4425
G1 X10.1798 Y10.8051 Z-0.7694
X10.1777 Y10.8018 Z-0.7688
X10.1762 Y10.7987 Z-0.767
X10.1752 Y10.7954 Z-0.7652
X10.1747 Y10.7926 Z-0.7625
X10.1745 Y10.7899 Z-0.7597
X10.1748 Y10.7863 Z-0.7527
X10.175 Y10.7851 Z-0.745
G0 Z0.2
X7.7394 Y8.4943
G1 Z0.125 F30.
X7.7389 Y8.4928 Z0.1164 F40.
X7.7378 Y8.4885 Z0.1088
X7.7374 Y8.4852 Z0.106
X7.7372 Y8.4818 Z0.1032
X7.7373 Y8.4791 Z0.1021
X7.7377 Y8.4763 Z0.1009
X7.7382 Y8.4734 Z0.1005
X7.739 Y8.4706 Z0.1
G3 X7.7747 Y8.4443 Z0.0983 I0.0358 J0.0113
Y8.5193 Z0.0942 I0. J0.0375
Y8.4443 Z0.0901 I0. J-0.0375
Y8.5193 Z0.086 I0. J0.0375
Y8.4443 Z0.0819 I0. J-0.0375
Y8.5193 Z0.0778 I0. J0.0375
Y8.4443 Z0.0737 I0. J-0.0375
Y8.5193 Z0.0696 I0. J0.0375
Y8.4443 Z0.0654 I0. J-0.0375
Y8.5193 Z0.0613 I0. J0.0375
Y8.4443 Z0.0572 I0. J-0.0375
Y8.5193 Z0.0531 I0. J0.0375
Y8.4443 Z0.049 I0. J-0.0375
Y8.5193 Z0.0449 I0. J0.0375
Y8.4443 Z0.0408 I0. J-0.0375
Y8.5193 Z0.0367 I0. J0.0375
Y8.4443 Z0.0325 I0. J-0.0375
Y8.5193 Z0.0284 I0. J0.0375
Y8.4443 Z0.0243 I0. J-0.0375
Y8.5193 Z0.0202 I0. J0.0375
Y8.4443 Z0.0161 I0. J-0.0375
Y8.5193 Z0.012 I0. J0.0375
Y8.4443 Z0.0079 I0. J-0.0375
Y8.5193 Z0.0038 I0. J0.0375
Y8.4443 Z-0.0004 I0. J-0.0375
Y8.5193 Z-0.0045 I0. J0.0375
Y8.4443 Z-0.0086 I0. J-0.0375
Y8.5193 Z-0.0127 I0. J0.0375
Y8.4443 Z-0.0168 I0. J-0.0375
Y8.5193 Z-0.0209 I0. J0.0375
Y8.4443 Z-0.025 I0. J-0.0375
Y8.5193 Z-0.0291 I0. J0.0375
Y8.4443 Z-0.0333 I0. J-0.0375
Y8.5193 Z-0.0374 I0. J0.0375
Y8.4443 Z-0.0415 I0. J-0.0375
Y8.5193 Z-0.0456 I0. J0.0375
Y8.4443 Z-0.0497 I0. J-0.0375
Y8.5193 Z-0.0538 I0. J0.0375
Y8.4443 Z-0.0579 I0. J-0.0375
Y8.5193 Z-0.062 I0. J0.0375
Y8.4443 Z-0.0662 I0. J-0.0375
Y8.5193 Z-0.0703 I0. J0.0375
Y8.4443 Z-0.0744 I0. J-0.0375
Y8.5193 Z-0.0785 I0. J0.0375
Y8.4443 Z-0.0826 I0. J-0.0375
Y8.5193 Z-0.0867 I0. J0.0375
Y8.4443 Z-0.0908 I0. J-0.0375
Y8.5193 Z-0.095 I0. J0.0375
Y8.4443 Z-0.0991 I0. J-0.0375
Y8.5193 Z-0.1032 I0. J0.0375
Y8.4443 Z-0.1073 I0. J-0.0375
X7.8076 Y8.4998 Z-0.11 I0. J0.0375
X7.7747 Y8.5193 I-0.0329 J-0.018
Y8.4443 I0. J-0.0375
X7.8076 Y8.4998 I0. J0.0375
G2 X7.8082 Y8.519 I0.0167 J0.0091
G3 X7.803 Y8.5375 I-0.011 J0.0069
X7.7747 Y8.5443 I-0.0283 J-0.0557
Y8.4193 I0. J-0.0625
X7.803 Y8.5375 I0. J0.0625
X7.7912 Y8.5321 I-0.0038 J-0.0074
G1 X7.7815 Y8.4925
X7.7598 Y8.4582
G3 X7.7645 Y8.4457 I0.007 J-0.0045
X7.7747 Y8.4443 Z-0.1104 I0.0102 J0.0361
Y8.5193 Z-0.1145 I0. J0.0375
Y8.4443 Z-0.1186 I0. J-0.0375
Y8.5193 Z-0.1227 I0. J0.0375
Y8.4443 Z-0.1268 I0. J-0.0375
Y8.5193 Z-0.1309 I0. J0.0375
Y8.4443 Z-0.135 I0. J-0.0375
Y8.5193 Z-0.1391 I0. J0.0375
Y8.4443 Z-0.1433 I0. J-0.0375
Y8.5193 Z-0.1474 I0. J0.0375
Y8.4443 Z-0.1515 I0. J-0.0375
Y8.5193 Z-0.1556 I0. J0.0375
Y8.4443 Z-0.1597 I0. J-0.0375
Y8.5193 Z-0.1638 I0. J0.0375
Y8.4443 Z-0.1679 I0. J-0.0375
Y8.5193 Z-0.172 I0. J0.0375
Y8.4443 Z-0.1762 I0. J-0.0375
Y8.5193 Z-0.1803 I0. J0.0375
Y8.4443 Z-0.1844 I0. J-0.0375
Y8.5193 Z-0.1885 I0. J0.0375
Y8.4443 Z-0.1926 I0. J-0.0375
Y8.5193 Z-0.1967 I0. J0.0375
Y8.4443 Z-0.2008 I0. J-0.0375
Y8.5193 Z-0.205 I0. J0.0375
Y8.4443 Z-0.2091 I0. J-0.0375
Y8.5193 Z-0.2132 I0. J0.0375
Y8.4443 Z-0.2173 I0. J-0.0375
X7.8076 Y8.4998 Z-0.22 I0. J0.0375
X7.7747 Y8.5193 I-0.0329 J-0.018
Y8.4443 I0. J-0.0375
X7.8076 Y8.4998 I0. J0.0375
G2 X7.8082 Y8.519 I0.0167 J0.0091
G3 X7.803 Y8.5375 I-0.011 J0.0069
X7.7747 Y8.5443 I-0.0283 J-0.0557
Y8.4193 I0. J-0.0625
X7.803 Y8.5375 I0. J0.0625
X7.7912 Y8.5321 I-0.0038 J-0.0074
G1 X7.7815 Y8.4925
X7.7598 Y8.4582
G3 X7.7645 Y8.4457 I0.007 J-0.0045
X7.7747 Y8.4443 Z-0.2204 I0.0102 J0.0361
Y8.5193 Z-0.2245 I0. J0.0375
Y8.4443 Z-0.2286 I0. J-0.0375
Y8.5193 Z-0.2327 I0. J0.0375
Y8.4443 Z-0.2368 I0. J-0.0375
Y8.5193 Z-0.2409 I0. J0.0375
Y8.4443 Z-0.245 I0. J-0.0375
Y8.5193 Z-0.2491 I0. J0.0375
Y8.4443 Z-0.2533 I0. J-0.0375
Y8.5193 Z-0.2574 I0. J0.0375
Y8.4443 Z-0.2615 I0. J-0.0375
Y8.5193 Z-0.2656 I0. J0.0375
Y8.4443 Z-0.2697 I0. J-0.0375
Y8.5193 Z-0.2738 I0. J0.0375
Y8.4443 Z-0.2779 I0. J-0.0375
Y8.5193 Z-0.282 I0. J0.0375
Y8.4443 Z-0.2862 I0. J-0.0375
Y8.5193 Z-0.2903 I0. J0.0375
Y8.4443 Z-0.2944 I0. J-0.0375
Y8.5193 Z-0.2985 I0. J0.0375
Y8.4443 Z-0.3026 I0. J-0.0375
Y8.5193 Z-0.3067 I0. J0.0375
Y8.4443 Z-0.3108 I0. J-0.0375
Y8.5193 Z-0.315 I0. J0.0375
Y8.4443 Z-0.3191 I0. J-0.0375
Y8.5193 Z-0.3232 I0. J0.0375
Y8.4443 Z-0.3273 I0. J-0.0375
X7.8076 Y8.4998 Z-0.33 I0. J0.0375
X7.7747 Y8.5193 I-0.0329 J-0.018
Y8.4443 I0. J-0.0375
X7.8076 Y8.4998 I0. J0.0375
G2 X7.8082 Y8.519 I0.0167 J0.0091
G3 X7.803 Y8.5375 I-0.011 J0.0069
X7.7747 Y8.5443 I-0.0283 J-0.0557
Y8.4193 I0. J-0.0625
X7.803 Y8.5375 I0. J0.0625
X7.7912 Y8.5321 I-0.0038 J-0.0074
G1 X7.7815 Y8.4925
X7.7598 Y8.4582
G3 X7.7645 Y8.4457 I0.007 J-0.0045
X7.7747 Y8.4443 Z-0.3304 I0.0102 J0.0361
Y8.5193 Z-0.3345 I0. J0.0375
Y8.4443 Z-0.3386 I0. J-0.0375
Y8.5193 Z-0.3427 I0. J0.0375
Y8.4443 Z-0.3468 I0. J-0.0375
Y8.5193 Z-0.3509 I0. J0.0375
Y8.4443 Z-0.355 I0. J-0.0375
Y8.5193 Z-0.3591 I0. J0.0375
Y8.4443 Z-0.3633 I0. J-0.0375
Y8.5193 Z-0.3674 I0. J0.0375
Y8.4443 Z-0.3715 I0. J-0.0375
Y8.5193 Z-0.3756 I0. J0.0375
Y8.4443 Z-0.3797 I0. J-0.0375
Y8.5193 Z-0.3838 I0. J0.0375
Y8.4443 Z-0.3879 I0. J-0.0375
Y8.5193 Z-0.392 I0. J0.0375
Y8.4443 Z-0.3962 I0. J-0.0375
Y8.5193 Z-0.4003 I0. J0.0375
Y8.4443 Z-0.4044 I0. J-0.0375
Y8.5193 Z-0.4085 I0. J0.0375
Y8.4443 Z-0.4126 I0. J-0.0375
Y8.5193 Z-0.4167 I0. J0.0375
Y8.4443 Z-0.4208 I0. J-0.0375
Y8.5193 Z-0.425 I0. J0.0375
Y8.4443 Z-0.4291 I0. J-0.0375
Y8.5193 Z-0.4332 I0. J0.0375
Y8.4443 Z-0.4373 I0. J-0.0375
X7.8076 Y8.4998 Z-0.44 I0. J0.0375
X7.7747 Y8.5193 I-0.0329 J-0.018
Y8.4443 I0. J-0.0375
X7.8076 Y8.4998 I0. J0.0375
G2 X7.8082 Y8.519 I0.0167 J0.0091
G3 X7.803 Y8.5375 I-0.011 J0.0069
X7.7747 Y8.5443 I-0.0283 J-0.0557
Y8.4193 I0. J-0.0625
X7.803 Y8.5375 I0. J0.0625
X7.7912 Y8.5321 I-0.0038 J-0.0074
G1 X7.7815 Y8.4925
X7.7598 Y8.4582
G3 X7.7645 Y8.4457 I0.007 J-0.0045
X7.7747 Y8.4443 Z-0.4404 I0.0102 J0.0361
Y8.5193 Z-0.4445 I0. J0.0375
Y8.4443 Z-0.4486 I0. J-0.0375
Y8.5193 Z-0.4527 I0. J0.0375
Y8.4443 Z-0.4568 I0. J-0.0375
Y8.5193 Z-0.4609 I0. J0.0375
Y8.4443 Z-0.465 I0. J-0.0375
Y8.5193 Z-0.4691 I0. J0.0375
Y8.4443 Z-0.4733 I0. J-0.0375
Y8.5193 Z-0.4774 I0. J0.0375
Y8.4443 Z-0.4815 I0. J-0.0375
Y8.5193 Z-0.4856 I0. J0.0375
Y8.4443 Z-0.4897 I0. J-0.0375
Y8.5193 Z-0.4938 I0. J0.0375
Y8.4443 Z-0.4979 I0. J-0.0375
Y8.5193 Z-0.502 I0. J0.0375
Y8.4443 Z-0.5062 I0. J-0.0375
Y8.5193 Z-0.5103 I0. J0.0375
Y8.4443 Z-0.5144 I0. J-0.0375
Y8.5193 Z-0.5185 I0. J0.0375
Y8.4443 Z-0.5226 I0. J-0.0375
Y8.5193 Z-0.5267 I0. J0.0375
Y8.4443 Z-0.5308 I0. J-0.0375
Y8.5193 Z-0.535 I0. J0.0375
Y8.4443 Z-0.5391 I0. J-0.0375
Y8.5193 Z-0.5432 I0. J0.0375
Y8.4443 Z-0.5473 I0. J-0.0375
X7.8076 Y8.4998 Z-0.55 I0. J0.0375
X7.7747 Y8.5193 I-0.0329 J-0.018
Y8.4443 I0. J-0.0375
X7.8076 Y8.4998 I0. J0.0375
G2 X7.8082 Y8.519 I0.0167 J0.0091
G3 X7.803 Y8.5375 I-0.011 J0.0069
X7.7747 Y8.5443 I-0.0283 J-0.0557
Y8.4193 I0. J-0.0625
X7.803 Y8.5375 I0. J0.0625
X7.7912 Y8.5321 I-0.0038 J-0.0074
G1 X7.7815 Y8.4925
X7.7598 Y8.4582
G3 X7.7645 Y8.4457 I0.007 J-0.0045
X7.7747 Y8.4443 Z-0.5504 I0.0102 J0.0361
Y8.5193 Z-0.5545 I0. J0.0375
Y8.4443 Z-0.5586 I0. J-0.0375
Y8.5193 Z-0.5627 I0. J0.0375
Y8.4443 Z-0.5668 I0. J-0.0375
Y8.5193 Z-0.5709 I0. J0.0375
Y8.4443 Z-0.575 I0. J-0.0375
Y8.5193 Z-0.5791 I0. J0.0375
Y8.4443 Z-0.5833 I0. J-0.0375
Y8.5193 Z-0.5874 I0. J0.0375
Y8.4443 Z-0.5915 I0. J-0.0375
Y8.5193 Z-0.5956 I0. J0.0375
Y8.4443 Z-0.5997 I0. J-0.0375
Y8.5193 Z-0.6038 I0. J0.0375
Y8.4443 Z-0.6079 I0. J-0.0375
Y8.5193 Z-0.612 I0. J0.0375
Y8.4443 Z-0.6162 I0. J-0.0375
Y8.5193 Z-0.6203 I0. J0.0375
Y8.4443 Z-0.6244 I0. J-0.0375
Y8.5193 Z-0.6285 I0. J0.0375
Y8.4443 Z-0.6326 I0. J-0.0375
Y8.5193 Z-0.6367 I0. J0.0375
Y8.4443 Z-0.6408 I0. J-0.0375
Y8.5193 Z-0.645 I0. J0.0375
Y8.4443 Z-0.6491 I0. J-0.0375
Y8.5193 Z-0.6532 I0. J0.0375
Y8.4443 Z-0.6573 I0. J-0.0375
X7.8076 Y8.4998 Z-0.66 I0. J0.0375
X7.7747 Y8.5193 I-0.0329 J-0.018
Y8.4443 I0. J-0.0375
X7.8076 Y8.4998 I0. J0.0375
G2 X7.8082 Y8.519 I0.0167 J0.0091
G3 X7.803 Y8.5375 I-0.011 J0.0069
X7.7747 Y8.5443 I-0.0283 J-0.0557
Y8.4193 I0. J-0.0625
X7.803 Y8.5375 I0. J0.0625
X7.7912 Y8.5321 I-0.0038 J-0.0074
G1 X7.7815 Y8.4925
X7.7598 Y8.4582
G3 X7.7645 Y8.4457 I0.007 J-0.0045
X7.7747 Y8.4443 Z-0.6604 I0.0102 J0.0361
Y8.5193 Z-0.6645 I0. J0.0375
Y8.4443 Z-0.6686 I0. J-0.0375
Y8.5193 Z-0.6727 I0. J0.0375
Y8.4443 Z-0.6768 I0. J-0.0375
Y8.5193 Z-0.6809 I0. J0.0375
Y8.4443 Z-0.685 I0. J-0.0375
Y8.5193 Z-0.6891 I0. J0.0375
Y8.4443 Z-0.6933 I0. J-0.0375
Y8.5193 Z-0.6974 I0. J0.0375
Y8.4443 Z-0.7015 I0. J-0.0375
Y8.5193 Z-0.7056 I0. J0.0375
Y8.4443 Z-0.7097 I0. J-0.0375
Y8.5193 Z-0.7138 I0. J0.0375
Y8.4443 Z-0.7179 I0. J-0.0375
Y8.5193 Z-0.722 I0. J0.0375
Y8.4443 Z-0.7262 I0. J-0.0375
Y8.5193 Z-0.7303 I0. J0.0375
Y8.4443 Z-0.7344 I0. J-0.0375
Y8.5193 Z-0.7385 I0. J0.0375
Y8.4443 Z-0.7426 I0. J-0.0375
Y8.5193 Z-0.7467 I0. J0.0375
Y8.4443 Z-0.7508 I0. J-0.0375
Y8.5193 Z-0.755 I0. J0.0375
Y8.4443 Z-0.7591 I0. J-0.0375
Y8.5193 Z-0.7632 I0. J0.0375
Y8.4443 Z-0.7673 I0. J-0.0375
X7.8076 Y8.4998 Z-0.77 I0. J0.0375
X7.7747 Y8.5193 I-0.0329 J-0.018
Y8.4443 I0. J-0.0375
X7.8076 Y8.4998 I0. J0.0375
G2 X7.8082 Y8.519 I0.0167 J0.0091
G3 X7.803 Y8.5375 I-0.011 J0.0069
X7.7747 Y8.5443 I-0.0283 J-0.0557
Y8.4193 I0. J-0.0625
X7.803 Y8.5375 I0. J0.0625
G1 X7.7995 Y8.539 Z-0.7694
X7.7957 Y8.5399 Z-0.7688
X7.7923 Y8.5402 Z-0.767
X7.7888 Y8.5401 Z-0.7652
X7.7861 Y8.5396 Z-0.7625
X7.7834 Y8.5388 Z-0.7597
X7.7802 Y8.5374 Z-0.7527
X7.7791 Y8.5368 Z-0.745
G0 Z0.2
X6.7965 Y7.5515
G1 Z0.125 F30.
X6.7961 Y7.55 Z0.1164 F40.
X6.795 Y7.5457 Z0.1088
X6.7946 Y7.5424 Z0.106
X6.7944 Y7.539 Z0.1032
X6.7945 Y7.5362 Z0.1021
X6.7948 Y7.5335 Z0.1009
X6.7954 Y7.5306 Z0.1005
X6.7961 Y7.5277 Z0.1
G3 X6.8319 Y7.5015 Z0.0983 I0.0358 J0.0113
Y7.5765 Z0.0942 I0. J0.0375
Y7.5015 Z0.0901 I0. J-0.0375
Y7.5765 Z0.086 I0. J0.0375
Y7.5015 Z0.0819 I0. J-0.0375
Y7.5765 Z0.0778 I0. J0.0375
