(1002)
(T1  D=0.25 CR=0. - ZMIN=-0.8 - FLAT END MILL)
G90 G94 G91.1 G40 G49 G17
G20

(2D CONTOUR1 3)
G0 X0. Y0. Z0.6
M5
T1 M6
S15000 M3
G4 P5.
G54
M8
G0 X2.55 Y7.4191
G43 Z0.6 H1
Z0.2
G1 Z0.1644 F13.3
Z0.125
G18 G2 X2.575 Z0.1 I0.025 K0. F60.
G1 X2.6
G17 G3 X2.625 Y7.4441 I0. J0.025
G1 Y8.75 Z0.0772 F30.
G2 X2.7486 Y8.875 Z0.0738 I0.125 J0.
G1 X5.5299 Y8.9063 Z0.0253
X5.5313 Z0.0252
X5.9063 Z0.0187
Y10.8125 Z-0.0146
G3 X4.25 Y12.4687 Z-0.06 I-1.6563 J0.
G1 X1.5 Z-0.108
G2 X0.8751 Y13.0856 Z-0.125 I0. J0.625
G1 X0.875 Y13.0937 F60.
Y16.1252
G2 X1.5405 Y16.7489 I0.625 J0.
G1 X1.8328 Y16.7299
G3 X2.0722 Y16.7969 I0.0243 J0.3742
G1 X6.4869 Y19.8881
X12.1677 Y23.8659
G2 X13.0381 Y23.7124 I0.3585 J-0.512
G1 X14.2407 Y21.9949
G2 X14.4305 Y21.1749 I-0.9216 J-0.6453
G1 X12.9148 Y11.5359
G2 X12.2019 Y9.9893 I-3.0871 J0.4854
G1 X5.6231 Y2.3026
G2 X5.2138 Y1.7637 I-0.6231 J0.0484
G1 X2.7928 Y0.8825
G2 X2.625 Y1. I-0.0428 J0.1175
G1 Y8.75
G2 X2.7486 Y8.875 I0.125 J0.
G1 X5.5299 Y8.9063
X5.5313
X5.9063
Y10.8125
G3 X4.25 Y12.4687 I-1.6563 J0.
G1 X1.5
G2 X0.8751 Y13.0856 I0. J0.625
G1 X0.875 Y13.0937 Z-0.1251 F30.
Y16.1252 Z-0.1715
G2 X1.5405 Y16.7489 Z-0.1872 I0.625 J0.
G1 X1.8328 Y16.7299 Z-0.1916
G3 X2.0722 Y16.7969 Z-0.1955 I0.0243 J0.3742
G1 X4.9878 Y18.8384 Z-0.25
X6.4869 Y19.8881 F60.
X12.1677 Y23.8659
G2 X13.0381 Y23.7124 I0.3585 J-0.512
G1 X14.2407 Y21.9949
G2 X14.4305 Y21.1749 I-0.9216 J-0.6453
G1 X12.9148 Y11.5359
G2 X12.2019 Y9.9893 I-3.0871 J0.4854
G1 X5.6231 Y2.3026
G2 X5.2138 Y1.7637 I-0.6231 J0.0484
G1 X2.7928 Y0.8825
G2 X2.625 Y1. I-0.0428 J0.1175
G1 Y8.75
G2 X2.7486 Y8.875 I0.125 J0.
G1 X5.5299 Y8.9063
X5.5313
X5.9063
Y10.8125
G3 X4.25 Y12.4687 I-1.6563 J0.
G1 X1.5
G2 X0.875 Y13.0937 I0. J0.625
G1 Y16.1252
G2 X1.5405 Y16.7489 I0.625 J0.
G1 X1.8328 Y16.7299
G3 X2.0722 Y16.7969 I0.0243 J0.3742
G1 X4.9878 Y18.8384
X6.4869 Y19.8881 Z-0.278 F30.
X11.6781 Y23.523 Z-0.375
X12.1677 Y23.8659 F60.
G2 X13.0381 Y23.7124 I0.3585 J-0.512
G1 X14.2407 Y21.9949
G2 X14.4305 Y21.1749 I-0.9216 J-0.6453
G1 X12.9148 Y11.5359
G2 X12.2019 Y9.9893 I-3.0871 J0.4854
G1 X5.6231 Y2.3026
G2 X5.2138 Y1.7637 I-0.6231 J0.0484
G1 X2.7928 Y0.8825
G2 X2.625 Y1. I-0.0428 J0.1175
G1 Y8.75
G2 X2.7486 Y8.875 I0.125 J0.
G1 X5.5299 Y8.9063
X5.5313
X5.9063
Y10.8125
G3 X4.25 Y12.4687 I-1.6563 J0.
G1 X1.5
G2 X0.875 Y13.0937 I0. J0.625
G1 Y16.1252
G2 X1.5405 Y16.7489 I0.625 J0.
G1 X1.8328 Y16.7299
G3 X2.0722 Y16.7969 I0.0243 J0.3742
G1 X4.9878 Y18.8384
X6.4869 Y19.8881
X11.6781 Y23.523
X12.1677 Y23.8659 Z-0.3841 F30.
G2 X13.0381 Y23.7124 Z-0.3992 I0.3585 J-0.512
G1 X14.2407 Y21.9949 Z-0.4313
G2 X14.4305 Y21.1749 Z-0.4445 I-0.9216 J-0.6453
G1 X13.8668 Y17.5903 Z-0.5
X12.9148 Y11.5359 F60.
G2 X12.2019 Y9.9893 I-3.0871 J0.4854
G1 X5.6231 Y2.3026
G2 X5.2138 Y1.7637 I-0.6231 J0.0484
G1 X2.7928 Y0.8825
G2 X2.625 Y1. I-0.0428 J0.1175
G1 Y8.75
G2 X2.7486 Y8.875 I0.125 J0.
G1 X5.5299 Y8.9063
X5.5313
X5.9063
Y10.8125
G3 X4.25 Y12.4687 I-1.6563 J0.
G1 X1.5
G2 X0.875 Y13.0937 I0. J0.625
G1 Y16.1252
G2 X1.5405 Y16.7489 I0.625 J0.
G1 X1.8328 Y16.7299
G3 X2.0722 Y16.7969 I0.0243 J0.3742
G1 X6.4869 Y19.8881
X11.6781 Y23.523
X12.1677 Y23.8659
G2 X13.0381 Y23.7124 I0.3585 J-0.512
G1 X14.2407 Y21.9949
G2 X14.4305 Y21.1749 I-0.9216 J-0.6453
G1 X13.8668 Y17.5903
X12.9148 Y11.5359 Z-0.5938 F30.
G2 X12.2019 Y9.9893 Z-0.6202 I-3.0871 J0.4854
G1 X11.9978 Y9.7509 Z-0.625
X5.6231 Y2.3026 F60.
G2 X5.2138 Y1.7637 I-0.6231 J0.0484
G1 X2.7928 Y0.8825
G2 X2.625 Y1. I-0.0428 J0.1175
G1 Y8.75
G2 X2.7486 Y8.875 I0.125 J0.
G1 X5.5299 Y8.9063
X5.5313
X5.9063
Y10.8125
G3 X4.25 Y12.4687 I-1.6563 J0.
G1 X1.5
G2 X0.875 Y13.0937 I0. J0.625
G1 Y16.1252
G2 X1.5405 Y16.7489 I0.625 J0.
G1 X1.8328 Y16.7299
G3 X2.0722 Y16.7969 I0.0243 J0.3742
G1 X6.4869 Y19.8881
X12.1677 Y23.8659
G2 X13.0381 Y23.7124 I0.3585 J-0.512
G1 X14.2407 Y21.9949
G2 X14.4305 Y21.1749 I-0.9216 J-0.6453
G1 X12.9148 Y11.5359
G2 X12.2019 Y9.9893 I-3.0871 J0.4854
G1 X11.9978 Y9.7509
X9.2651 Y6.558 Z-0.6893 F30.
X9.2465 Y6.5362 Z-0.675
X9.0839 Y6.3463
X9.059 Y6.3171 Z-0.6942 F13.3
X7.9923 Y5.0708 Z-0.7193 F30.
X7.9347 Y5.0035 Z-0.675
X7.7721 Y4.8136
X7.7058 Y4.736 Z-0.726 F13.3
X6.7195 Y3.5836 Z-0.7492 F30.
X6.6871 Y3.5458 Z-0.7244
X6.6229 Y3.4708 Z-0.675 F60.
X6.4604 Y3.2809
X6.3628 Y3.1669 Z-0.75 F13.3
X5.6231 Y2.3026 F60.
G2 X5.4909 Y1.9642 I-0.6231 J0.0484
X5.462 Y1.9301 Z-0.7296 I-0.4909 J0.3868
X5.4307 Y1.8981 Z-0.7086 I-0.462 J0.4209
X5.3972 Y1.8685 Z-0.6871 I-0.4307 J0.4529
X5.3778 Y1.8532 Z-0.675 I-0.3972 J0.4825
X5.2138 Y1.7637 I-0.3778 J0.4979
G1 X5.1539 Y1.7419
X5.0123 Y1.6904 Z-0.75 F13.3
X3.6228 Y1.1847 F60.
X3.4819 Y1.1334 Z-0.675
X3.2469 Y1.0479
X3.106 Y0.9965 Z-0.75 F13.3
X2.7928 Y0.8825 F60.
G2 X2.625 Y1. I-0.0428 J0.1175
G1 Y2.1341
Y2.2841 Z-0.675
Y2.5341
Y2.6841 Z-0.75 F13.3
Y4.1515 F60.
Y4.3015 Z-0.675
Y4.5515
Y4.7015 Z-0.75 F13.3
Y6.1689 F60.
Y6.3189 Z-0.675
Y6.5689
Y6.7189 Z-0.75 F13.3
Y8.1863 F60.
Y8.3363 Z-0.675
Y8.5863
Y8.7363 Z-0.75 F13.3
Y8.75 F60.
G2 X2.7486 Y8.875 I0.125 J0.
G1 X4.2022 Y8.8913
X4.3522 Y8.893 Z-0.675
X4.6022 Y8.8958
X4.7522 Y8.8975 Z-0.75 F13.3
X5.5299 Y8.9063 F60.
X5.5313
X5.9063
Y9.0246
Y9.1746 Z-0.675
Y9.4246
Y9.5746 Z-0.75 F13.3
Y10.8125 F60.
G3 X5.8951 Y11.0049 I-1.6563 J0.
X5.885 Y11.0769 Z-0.714 I-1.6451 J-0.1924
X5.8718 Y11.1485 Z-0.6778 I-1.635 J-0.2645
G1 X5.8707 Y11.154 Z-0.675
G3 X5.8008 Y11.394 I-1.6207 J-0.3415
X5.7738 Y11.4616 Z-0.7112 I-1.5508 J-0.5815 F13.3
X5.7438 Y11.5279 Z-0.7473 I-1.5238 J-0.6491
G1 X5.7414 Y11.5329 Z-0.75
G3 X4.7739 Y12.3837 I-1.4914 J-0.7205 F60.
X4.7043 Y12.4052 Z-0.714 I-0.5239 J-1.5712
X4.6339 Y12.4236 Z-0.6778 I-0.4543 J-1.5927
G1 X4.6285 Y12.4249 Z-0.675
G3 X4.3815 Y12.4635 I-0.3785 J-1.6124
X4.3088 Y12.4677 Z-0.7112 I-0.1315 J-1.651 F13.3
X4.25 Y12.4687 Z-0.7404 I-0.0588 J-1.6552
G1 X4.2305 Z-0.75
X2.7837 F60.
X2.6337 Z-0.675
X2.3837
X2.2337 Z-0.75 F13.3
X1.5 F60.
G2 X0.8771 Y13.042 I0. J0.625
X0.875 Y13.0867 Z-0.7277 I0.6229 J0.0517
G1 Y13.0937 Z-0.7242
Y13.192 Z-0.675
Y13.442
Y13.592 Z-0.75 F13.3
Y15.0594 F60.
Y15.2094 Z-0.675
Y15.4594
Y15.6094 Z-0.75 F13.3
Y16.1252 F60.
G2 X1.5405 Y16.7489 I0.625 J0.
G1 X1.6392 Y16.7425
X1.793 Y16.7325 Z-0.675
X1.8328 Y16.7299
G3 X2.0391 Y16.7762 I0.0243 J0.3742
X2.0686 Y16.7944 Z-0.691 I-0.182 J0.3279 F13.3
G1 X2.0722 Y16.7969 Z-0.693
X2.1756 Y16.8693 Z-0.75
X3.3177 Y17.669 F60.
X3.4406 Y17.7551 Z-0.675
X3.6454 Y17.8985
X3.7682 Y17.9845 Z-0.75 F13.3
X4.9703 Y18.8262 F60.
X5.0931 Y18.9122 Z-0.675
X5.2979 Y19.0556
X5.4208 Y19.1416 Z-0.75 F13.3
X6.6228 Y19.9833 F60.
X6.7457 Y20.0693 Z-0.675
X6.9505 Y20.2127
X7.0734 Y20.2988 Z-0.75 F13.3
X8.2754 Y21.1404 F60.
X8.3983 Y21.2265 Z-0.675
X8.603 Y21.3699
X8.7259 Y21.4559 Z-0.75 F13.3
X9.928 Y22.2976 F60.
X10.0508 Y22.3836 Z-0.675
X10.2556 Y22.527
X10.3785 Y22.613 Z-0.75 F13.3
X11.5805 Y23.4547 F60.
X11.7034 Y23.5407 Z-0.675
X11.9082 Y23.6841
X12.0311 Y23.7702 Z-0.75 F13.3
X12.1677 Y23.8659 F60.
G2 X13.0381 Y23.7124 I0.3585 J-0.512
G1 X13.3337 Y23.2903
X13.4197 Y23.1675 Z-0.675
X13.5631 Y22.9627
X13.6491 Y22.8398 Z-0.75 F13.3
X14.2407 Y21.9949 F60.
G2 X14.4321 Y21.5142 I-0.9216 J-0.6453
X14.4393 Y21.4547 Z-0.7207 I-1.1129 J-0.1646
X14.4433 Y21.3948 Z-0.6911 I-1.1201 J-0.105
X14.4441 Y21.3623 Z-0.675 I-1.1241 J-0.0451
X14.4305 Y21.1749 I-1.1249 J-0.0126
G1 X14.4209 Y21.1133
X14.3975 Y20.9649 Z-0.75 F13.3
X14.1685 Y19.5088 F60.
X14.1452 Y19.3606 Z-0.675
X14.1064 Y19.1137
X14.0831 Y18.9655 Z-0.75 F13.3
X13.8552 Y17.5159 F60.
X13.8319 Y17.3677 Z-0.675
X13.793 Y17.1208
X13.7697 Y16.9726 Z-0.75 F13.3
X13.5418 Y15.523 F60.
X13.5185 Y15.3748 Z-0.675
X13.4796 Y15.1278
X13.4563 Y14.9797 Z-0.75 F13.3
X13.2284 Y13.5301 F60.
X13.2051 Y13.3819 Z-0.675
X13.1662 Y13.1349
X13.1429 Y12.9868 Z-0.75 F13.3
X12.9148 Y11.5359 F60.
X12.9133 Y11.5262
G2 X12.8958 Y11.4278 Z-0.7001 I-3.0855 J0.495
X12.8859 Y11.3784 Z-0.675 I-3.0681 J0.5935
X12.8247 Y11.136 I-3.0582 J0.6428
X12.7949 Y11.0406 Z-0.7249 I-2.997 J0.8852 F13.3
X12.7787 Y10.993 Z-0.75 I-2.9671 J0.9807
X12.2019 Y9.9893 I-2.951 J1.0283 F60.
G1 X11.9676 Y9.7156
X11.8701 Y9.6016 Z-0.675
X11.7075 Y9.4117
X11.61 Y9.2977 Z-0.75 F13.3
X10.6558 Y8.1828 F60.
X10.5583 Y8.0689 Z-0.675
X10.3957 Y7.8789
X10.2982 Y7.765 Z-0.75 F13.3
X9.344 Y6.6502 F60.
X9.2465 Y6.5362 Z-0.675
X9.0839 Y6.3463
X8.9864 Y6.2323 Z-0.75 F13.3
X8.0322 Y5.1175 F60.
X7.9347 Y5.0035 Z-0.675
X7.7721 Y4.8136
X7.6746 Y4.6996 Z-0.75 F13.3
X6.7205 Y3.5848 F60.
X6.6871 Y3.5458 Z-0.7244
X6.6229 Y3.4708 Z-0.675 F30.
X6.4604 Y3.2809
X6.3526 Y3.155 Z-0.7579 F13.3
X5.6231 Y2.3026 Z-0.775 F30.
G2 X5.53 Y2.0198 Z-0.7796 I-0.6231 J0.0484
X5.5049 Y1.9827 Z-0.7603 I-0.53 J0.3313
X5.4773 Y1.9475 Z-0.7403 I-0.5049 J0.3683
X5.4473 Y1.9145 Z-0.7196 I-0.4773 J0.4035
X5.4149 Y1.8836 Z-0.6983 I-0.4473 J0.4366
X5.3804 Y1.8551 Z-0.6766 I-0.4149 J0.4674
G1 X5.3778 Y1.8532 Z-0.675
G2 X5.2138 Y1.7637 I-0.3778 J0.4979
G1 X5.1539 Y1.7419
X4.9357 Y1.6625 Z-0.7905 F13.3
X4.3535 Y1.4506 Z-0.8 F30.
X3.7168 Y1.2189 F60.
X3.4819 Y1.1334 Z-0.675
X3.2469 Y1.0479
X3.012 Y0.9623 Z-0.8 F13.3
X2.7928 Y0.8825 F60.
G2 X2.625 Y1. I-0.0428 J0.1175
G1 Y2.0341
Y2.2841 Z-0.675
Y2.5341
Y2.7841 Z-0.8 F13.3
Y4.0515 F60.
Y4.3015 Z-0.675
Y4.5515
Y4.8015 Z-0.8 F13.3
Y6.0689 F60.
Y6.3189 Z-0.675
Y6.5689
Y6.8189 Z-0.8 F13.3
Y8.0863 F60.
Y8.3363 Z-0.675
Y8.5863
Y8.75 Z-0.7569 F13.3
G2 X2.6266 Y8.7699 Z-0.7668 I0.125 J0.
X2.6313 Y8.7893 Z-0.7765 I0.1234 J-0.0199
X2.6391 Y8.8077 Z-0.7857 I0.1187 J-0.0393
X2.6498 Y8.8247 Z-0.7942 I0.1109 J-0.0577
X2.6595 Y8.8363 Z-0.8 I0.1002 J-0.0747
X2.7486 Y8.875 I0.0905 J-0.0863 F60.
G1 X4.1022 Y8.8902
X4.3522 Y8.893 Z-0.675
X4.6022 Y8.8958
X4.8522 Y8.8986 Z-0.8 F13.3
X5.5299 Y8.9063 F60.
X5.5313
X5.9063
Y8.9246
Y9.1746 Z-0.675
Y9.4246
Y9.6746 Z-0.8 F13.3
Y10.8125 F60.
G3 X5.9038 Y10.9032 I-1.6563 J0.
X5.8982 Y10.9758 Z-0.7644 I-1.6538 J-0.0908
X5.8894 Y11.0481 Z-0.7285 I-1.6482 J-0.1633
X5.8775 Y11.1199 Z-0.6923 I-1.6394 J-0.2356
X5.8707 Y11.154 Z-0.675 I-1.6275 J-0.3074
X5.8008 Y11.394 I-1.6207 J-0.3415
X5.7738 Y11.4616 Z-0.7112 I-1.5508 J-0.5815 F13.3
X5.7438 Y11.5279 Z-0.7473 I-1.5238 J-0.6491
X5.7109 Y11.5929 Z-0.783 I-1.4938 J-0.7155
X5.6942 Y11.6234 Z-0.8 I-1.4609 J-0.7804
X4.8696 Y12.3485 I-1.4442 J-0.8109 F60.
X4.8015 Y12.3742 Z-0.7644 I-0.6196 J-1.536
X4.7323 Y12.397 Z-0.7285 I-0.5515 J-1.5618
X4.6622 Y12.4166 Z-0.6923 I-0.4823 J-1.5845
X4.6285 Y12.4249 Z-0.675 I-0.4122 J-1.6041
X4.3815 Y12.4635 I-0.3785 J-1.6124
X4.3088 Y12.4677 Z-0.7112 I-0.1315 J-1.651 F13.3
X4.25 Y12.4687 Z-0.7404 I-0.0588 J-1.6552
G1 X4.1293 Z-0.8
X2.8837 F60.
X2.6337 Z-0.675
X2.3837
X2.1337 Z-0.8 F13.3
X1.5 F60.
G2 X0.8937 Y12.942 I0. J0.625
X0.8844 Y12.9858 Z-0.7781 I0.6063 J0.1517
X0.8783 Y13.0301 Z-0.756 I0.6156 J0.108
X0.8753 Y13.0747 Z-0.7337 I0.6217 J0.0637
X0.875 Y13.0937 Z-0.7242 I0.6247 J0.019
G1 Y13.192 Z-0.675
Y13.442
Y13.692 Z-0.8 F13.3
Y14.9594 F60.
Y15.2094 Z-0.675
Y15.4594
Y15.7094 Z-0.8 F13.3
Y16.1252 F60.
G2 X1.5367 Y16.7491 I0.625 J0.
G1 X1.5405 Y16.7489 Z-0.7981
X1.793 Y16.7325 Z-0.675
X1.8328 Y16.7299
G3 X2.0391 Y16.7762 I0.0243 J0.3742
X2.0686 Y16.7944 Z-0.691 I-0.182 J0.3279 F13.3
G1 X2.0722 Y16.7969 Z-0.693
X2.2663 Y16.9328 Z-0.8
X3.2358 Y17.6117 F60.
X3.4406 Y17.7551 Z-0.675
X3.6454 Y17.8985
X3.8502 Y18.0419 Z-0.8 F13.3
X4.8884 Y18.7688 F60.
X5.0931 Y18.9122 Z-0.675
X5.2979 Y19.0556
X5.5027 Y19.199 Z-0.8 F13.3
X6.5409 Y19.9259 F60.
X6.7457 Y20.0693 Z-0.675
X6.9505 Y20.2127
X7.1553 Y20.3561 Z-0.8 F13.3
X8.1935 Y21.0831 F60.
X8.3983 Y21.2265 Z-0.675
X8.603 Y21.3699
X8.8078 Y21.5133 Z-0.8 F13.3
X9.846 Y22.2402 F60.
X10.0508 Y22.3836 Z-0.675
X10.2556 Y22.527
X10.4604 Y22.6704 Z-0.8 F13.3
X11.4986 Y23.3973 F60.
X11.7034 Y23.5407 Z-0.675
X11.9082 Y23.6841
X12.113 Y23.8275 Z-0.8 F13.3
X12.1677 Y23.8659 F60.
G2 X13.0381 Y23.7124 I0.3585 J-0.512
G1 X13.2763 Y23.3723
X13.4197 Y23.1675 Z-0.675
X13.5631 Y22.9627
X13.7065 Y22.7579 Z-0.8 F13.3
X14.2407 Y21.9949 F60.
G2 X14.412 Y21.6167 I-0.9216 J-0.6453
X14.4247 Y21.5581 Z-0.7715 I-1.0929 J-0.2671
X14.4342 Y21.4989 Z-0.7425 I-1.1055 J-0.2084
X14.4406 Y21.4392 Z-0.7131 I-1.1151 J-0.1492
X14.4438 Y21.3793 Z-0.6835 I-1.1214 J-0.0896
X14.4441 Y21.3623 Z-0.675 I-1.1246 J-0.0297
X14.4305 Y21.1749 I-1.1249 J-0.0126
G1 X14.4209 Y21.1133
X14.382 Y20.866 Z-0.8 F13.3
X14.1841 Y19.6076 F60.
X14.1452 Y19.3606 Z-0.675
X14.1064 Y19.1137
X14.0676 Y18.8667 Z-0.8 F13.3
X13.8707 Y17.6147 F60.
X13.8319 Y17.3677 Z-0.675
X13.793 Y17.1208
X13.7542 Y16.8738 Z-0.8 F13.3
X13.5573 Y15.6218 F60.
X13.5185 Y15.3748 Z-0.675
X13.4796 Y15.1278
X13.4408 Y14.8809 Z-0.8 F13.3
X13.2439 Y13.6289 F60.
X13.2051 Y13.3819 Z-0.675
X13.1662 Y13.1349
X13.1274 Y12.888 Z-0.8 F13.3
X12.9289 Y11.6254 F60.
X12.9148 Y11.5359 Z-0.7549
G2 X12.8977 Y11.4373 Z-0.705 I-3.0871 J0.4854
X12.8859 Y11.3784 Z-0.675 I-3.07 J0.5839
X12.8247 Y11.136 I-3.0582 J0.6428
X12.7949 Y11.0406 Z-0.7249 I-2.997 J0.8852 F13.3
X12.762 Y10.9462 Z-0.7747 I-2.9671 J0.9807
X12.7441 Y10.8986 Z-0.8 I-2.9342 J1.0751
X12.2019 Y9.9893 I-2.9164 J1.1227 F60.
G1 X12.0326 Y9.7915
X11.8701 Y9.6016 Z-0.675
X11.7075 Y9.4117
X11.5449 Y9.2217 Z-0.8 F13.3
X10.7208 Y8.2588 F60.
X10.5583 Y8.0689 Z-0.675
X10.3957 Y7.8789
X10.2331 Y7.689 Z-0.8 F13.3
X9.409 Y6.7261 F60.
X9.2465 Y6.5362 Z-0.675
X9.0839 Y6.3463
X8.9214 Y6.1563 Z-0.8 F13.3
X8.0973 Y5.1934 F60.
X7.9347 Y5.0035 Z-0.675
X7.7721 Y4.8136
X7.6096 Y4.6236 Z-0.8 F13.3
X6.7855 Y3.6608 F60.
X6.6229 Y3.4708 Z-0.675
X6.4604 Y3.2809
X6.2978 Y3.091 Z-0.8 F13.3
X5.6231 Y2.3026 F60.
G2 X5.5545 Y2.0627 I-0.6231 J0.0484
X5.5325 Y2.0238 Z-0.7816 I-0.5545 J0.2883
X5.5077 Y1.9866 Z-0.7624 I-0.5325 J0.3272
X5.4804 Y1.9512 Z-0.7424 I-0.5077 J0.3645
X5.4506 Y1.9179 Z-0.7218 I-0.4804 J0.3998
X5.4184 Y1.8868 Z-0.7006 I-0.4506 J0.4332
X5.3842 Y1.858 Z-0.6789 I-0.4184 J0.4643
G1 X5.3778 Y1.8532 Z-0.675
G2 X5.2138 Y1.7637 I-0.3778 J0.4979
G1 X5.1539 Y1.7419
X4.9178 Y1.656 Z-0.8 F13.3
X4.3535 Y1.4506 F60.
G3 X4.3386 Y1.4186 I0.0086 J-0.0235
G1 X4.3471 Y1.3951
X4.3485 Y1.3914 Z-0.7997
X4.3498 Y1.3878 Z-0.7988
X4.351 Y1.3844 Z-0.7973
X4.3522 Y1.3813 Z-0.7952
X4.3532 Y1.3785 Z-0.7927
X4.354 Y1.3761 Z-0.7897
X4.3547 Y1.3741 Z-0.7863
X4.3553 Y1.3727 Z-0.7827
X4.3556 Y1.3719 Z-0.7789
X4.3557 Y1.3716 Z-0.775
G0 Z0.6

M9
M30
