(1002)
(T1  D=0.25 CR=0. - ZMIN=-0.7 - FLAT END MILL)
G90 G94 G91.1 G40 G49 G17
G20

(2D CONTOUR1 3)
G0 X0. Y0. Z0.6
M5
T1 M6
S15000 M3
G4 P5.
G54
M8
G0 X2.55 Y7.4191
G43 Z0.6 H1
Z0.2
G1 Z0.1644 F13.3
Z0.125
G18 G2 X2.575 Z0.1 I0.025 K0. F60.
G1 X2.6
G17 G3 X2.625 Y7.4441 I0. J0.025
G1 Y8.75 Z0.0772 F30.
G2 X2.7486 Y8.875 Z0.0738 I0.125 J0.
G1 X5.5299 Y8.9063 Z0.0253
X5.5313 Z0.0252
X5.9063 Z0.0187
Y10.8125 Z-0.0146
G3 X4.25 Y12.4687 Z-0.06 I-1.6563 J0.
G1 X1.5 Z-0.108
G2 X0.8751 Y13.0856 Z-0.125 I0. J0.625
G1 X0.875 Y13.0937 F60.
Y16.1252
G2 X1.5405 Y16.7489 I0.625 J0.
G1 X1.8328 Y16.7299
G3 X2.0722 Y16.7969 I0.0243 J0.3742
G1 X6.4869 Y19.8881
X12.1677 Y23.8659
G2 X13.0381 Y23.7124 I0.3585 J-0.512
G1 X14.2407 Y21.9949
G2 X14.4305 Y21.1749 I-0.9216 J-0.6453
G1 X12.9148 Y11.5359
G2 X12.2019 Y9.9893 I-3.0871 J0.4854
G1 X5.6231 Y2.3026
G2 X5.2138 Y1.7637 I-0.6231 J0.0484
G1 X2.7928 Y0.8825
G2 X2.625 Y1. I-0.0428 J0.1175
G1 Y8.75
G2 X2.7486 Y8.875 I0.125 J0.
G1 X5.5299 Y8.9063
X5.5313
X5.9063
Y10.8125
G3 X4.25 Y12.4687 I-1.6563 J0.
G1 X1.5
G2 X0.8751 Y13.0856 I0. J0.625
G1 X0.875 Y13.0937 Z-0.1251 F30.
Y16.1252 Z-0.1715
G2 X1.5405 Y16.7489 Z-0.1872 I0.625 J0.
G1 X1.8328 Y16.7299 Z-0.1916
G3 X2.0722 Y16.7969 Z-0.1955 I0.0243 J0.3742
G1 X4.9878 Y18.8384 Z-0.25
X6.4869 Y19.8881 F60.
X12.1677 Y23.8659
G2 X13.0381 Y23.7124 I0.3585 J-0.512
G1 X14.2407 Y21.9949
G2 X14.4305 Y21.1749 I-0.9216 J-0.6453
G1 X12.9148 Y11.5359
G2 X12.2019 Y9.9893 I-3.0871 J0.4854
G1 X5.6231 Y2.3026
G2 X5.2138 Y1.7637 I-0.6231 J0.0484
G1 X2.7928 Y0.8825
G2 X2.625 Y1. I-0.0428 J0.1175
G1 Y8.75
G2 X2.7486 Y8.875 I0.125 J0.
G1 X5.5299 Y8.9063
X5.5313
X5.9063
Y10.8125
G3 X4.25 Y12.4687 I-1.6563 J0.
G1 X1.5
G2 X0.875 Y13.0937 I0. J0.625
G1 Y16.1252
G2 X1.5405 Y16.7489 I0.625 J0.
G1 X1.8328 Y16.7299
G3 X2.0722 Y16.7969 I0.0243 J0.3742
G1 X4.9878 Y18.8384
X6.4869 Y19.8881 Z-0.278 F30.
X11.6781 Y23.523 Z-0.375
X12.1677 Y23.8659 F60.
G2 X13.0381 Y23.7124 I0.3585 J-0.512
G1 X14.2407 Y21.9949
G2 X14.4305 Y21.1749 I-0.9216 J-0.6453
G1 X12.9148 Y11.5359
G2 X12.2019 Y9.9893 I-3.0871 J0.4854
G1 X5.6231 Y2.3026
G2 X5.2138 Y1.7637 I-0.6231 J0.0484
G1 X2.7928 Y0.8825
G2 X2.625 Y1. I-0.0428 J0.1175
G1 Y8.75
G2 X2.7486 Y8.875 I0.125 J0.
G1 X5.5299 Y8.9063
X5.5313
X5.9063
Y10.8125
G3 X4.25 Y12.4687 I-1.6563 J0.
G1 X1.5
G2 X0.875 Y13.0937 I0. J0.625
G1 Y16.1252
G2 X1.5405 Y16.7489 I0.625 J0.
G1 X1.8328 Y16.7299
G3 X2.0722 Y16.7969 I0.0243 J0.3742
G1 X4.9878 Y18.8384
X6.4869 Y19.8881
X11.6781 Y23.523
X12.1677 Y23.8659 Z-0.3841 F30.
G2 X13.0381 Y23.7124 Z-0.3992 I0.3585 J-0.512
G1 X14.2407 Y21.9949 Z-0.4313
G2 X14.4305 Y21.1749 Z-0.4445 I-0.9216 J-0.6453
G1 X13.8668 Y17.5903 Z-0.5
X12.9148 Y11.5359 F60.
G2 X12.2019 Y9.9893 I-3.0871 J0.4854
G1 X5.6231 Y2.3026
G2 X5.2138 Y1.7637 I-0.6231 J0.0484
G1 X2.7928 Y0.8825
G2 X2.625 Y1. I-0.0428 J0.1175
G1 Y8.75
G2 X2.7486 Y8.875 I0.125 J0.
G1 X5.5299 Y8.9063
X5.5313
X5.9063
Y10.8125
G3 X4.25 Y12.4687 I-1.6563 J0.
G1 X1.5
G2 X0.875 Y13.0937 I0. J0.625
G1 Y16.1252
G2 X1.5405 Y16.7489 I0.625 J0.
G1 X1.8328 Y16.7299
G3 X2.0722 Y16.7969 I0.0243 J0.3742
G1 X6.4869 Y19.8881
X11.6781 Y23.523
X12.1677 Y23.8659
G2 X13.0381 Y23.7124 I0.3585 J-0.512
G1 X14.2407 Y21.9949
G2 X14.4305 Y21.1749 I-0.9216 J-0.6453
G1 X13.8668 Y17.5903
X12.9148 Y11.5359 Z-0.5938 F30.
G2 X12.8941 Y11.4189 Z-0.5956 I-3.0871 J0.4854
X12.8859 Y11.3784 Z-0.575 I-3.0664 J0.6024
X12.8247 Y11.136 I-3.0582 J0.6428
X12.8096 Y11.0865 Z-0.6009 I-2.997 J0.8852 F13.3
X12.2019 Y9.9893 Z-0.6202 I-2.9819 J0.9348 F30.
G1 X11.9978 Y9.7509 Z-0.625
X11.9351 Y9.6776 F60.
X11.8701 Y9.6016 Z-0.575
X11.7075 Y9.4117
X11.6425 Y9.3357 Z-0.625 F13.3
X10.6233 Y8.1449 F60.
X10.5583 Y8.0689 Z-0.575
X10.3957 Y7.8789
X10.3307 Y7.803 Z-0.625 F13.3
X9.3115 Y6.6122 F60.
X9.2465 Y6.5362 Z-0.575
X9.0839 Y6.3463
X9.0189 Y6.2703 Z-0.625 F13.3
X7.9997 Y5.0795 F60.
X7.9347 Y5.0035 Z-0.575
X7.7721 Y4.8136
X7.7071 Y4.7376 Z-0.625 F13.3
X6.688 Y3.5468 F60.
X6.6229 Y3.4708 Z-0.575
X6.4604 Y3.2809
X6.3953 Y3.2049 Z-0.625 F13.3
X5.6231 Y2.3026 F60.
G2 X5.4553 Y1.9228 I-0.6231 J0.0484
X5.4235 Y1.8914 Z-0.6039 I-0.4553 J0.4282
X5.3896 Y1.8623 Z-0.5823 I-0.4235 J0.4596
X5.3778 Y1.8532 Z-0.575 I-0.3896 J0.4887
X5.2138 Y1.7637 I-0.3778 J0.4979
G1 X5.1539 Y1.7419
X5.0595 Y1.7076 Z-0.625 F13.3
X3.5758 Y1.1676 F60.
X3.4819 Y1.1334 Z-0.575
X3.2469 Y1.0479
X3.153 Y1.0136 Z-0.625 F13.3
X2.7928 Y0.8825 F60.
G2 X2.625 Y1. I-0.0428 J0.1175
G1 Y2.1841
Y2.2841 Z-0.575
Y2.5341
Y2.6341 Z-0.625 F13.3
Y4.2015 F60.
Y4.3015 Z-0.575
Y4.5515
Y4.6515 Z-0.625 F13.3
Y6.2189 F60.
Y6.3189 Z-0.575
Y6.5689
Y6.6689 Z-0.625 F13.3
Y8.2363 F60.
Y8.3363 Z-0.575
Y8.5863
Y8.6863 Z-0.625 F13.3
Y8.75 F60.
G2 X2.7486 Y8.875 I0.125 J0.
G1 X4.2522 Y8.8919
X4.3522 Y8.893 Z-0.575
X4.6022 Y8.8958
X4.7022 Y8.8969 Z-0.625 F13.3
X5.5299 Y8.9063 F60.
X5.5313
X5.9063
Y9.0746
Y9.1746 Z-0.575
Y9.4246
Y9.5246 Z-0.625 F13.3
Y10.8125 F60.
G3 X5.8884 Y11.055 I-1.6563 J0.
X5.8762 Y11.1268 Z-0.5888 I-1.6384 J-0.2425
X5.8707 Y11.154 Z-0.575 I-1.6262 J-0.3143
X5.8008 Y11.394 I-1.6207 J-0.3415
X5.7738 Y11.4616 Z-0.6112 I-1.5508 J-0.5815 F13.3
X5.7627 Y11.4871 Z-0.625 I-1.5238 J-0.6491
X4.7256 Y12.399 I-1.5127 J-0.6746 F60.
X4.6555 Y12.4183 Z-0.5888 I-0.4756 J-1.5865
X4.6285 Y12.4249 Z-0.575 I-0.4055 J-1.6059
X4.3815 Y12.4635 I-0.3785 J-1.6124
X4.3088 Y12.4677 Z-0.6112 I-0.1315 J-1.651 F13.3
X4.281 Y12.4684 Z-0.625 I-0.0588 J-1.6552
X4.25 Y12.4687 I-0.031 J-1.656 F60.
G1 X2.7337
X2.6337 Z-0.575
X2.3837
X2.2837 Z-0.625 F13.3
X1.5 F60.
G2 X0.875 Y13.092 I0. J0.625
G1 Y13.0937 Z-0.6242
Y13.192 Z-0.575
Y13.442
Y13.542 Z-0.625 F13.3
Y15.1094 F60.
Y15.2094 Z-0.575
Y15.4594
Y15.5594 Z-0.625 F13.3
Y16.1252 F60.
G2 X1.5405 Y16.7489 I0.625 J0.
G1 X1.6905 Y16.7391
X1.793 Y16.7325 Z-0.575
X1.8328 Y16.7299
G3 X2.0391 Y16.7762 I0.0243 J0.3742
X2.0686 Y16.7944 Z-0.591 I-0.182 J0.3279 F13.3
G1 X2.0722 Y16.7969 Z-0.593
X2.1302 Y16.8375 Z-0.625
X3.3587 Y17.6977 F60.
X3.4406 Y17.7551 Z-0.575
X3.6454 Y17.8985
X3.7273 Y17.9558 Z-0.625 F13.3
X5.0112 Y18.8548 F60.
X5.0931 Y18.9122 Z-0.575
X5.2979 Y19.0556
X5.3798 Y19.113 Z-0.625 F13.3
X6.6638 Y20.012 F60.
X6.7457 Y20.0693 Z-0.575
X6.9505 Y20.2127
X7.0324 Y20.2701 Z-0.625 F13.3
X8.3163 Y21.1691 F60.
X8.3983 Y21.2265 Z-0.575
X8.603 Y21.3699
X8.685 Y21.4272 Z-0.625 F13.3
X9.9689 Y22.3262 F60.
X10.0508 Y22.3836 Z-0.575
X10.2556 Y22.527
X10.3375 Y22.5844 Z-0.625 F13.3
X11.6215 Y23.4834 F60.
X11.7034 Y23.5407 Z-0.575
X11.9082 Y23.6841
X11.9901 Y23.7415 Z-0.625 F13.3
X12.1677 Y23.8659 F60.
G2 X13.0381 Y23.7124 I0.3585 J-0.512
G1 X13.3623 Y23.2494
X13.4197 Y23.1675 Z-0.575
X13.5631 Y22.9627
X13.6205 Y22.8808 Z-0.625 F13.3
X14.2407 Y21.9949 F60.
G2 X14.4384 Y21.4633 I-0.9216 J-0.6453
X14.4429 Y21.4035 Z-0.5955 I-1.1193 J-0.1137
X14.4441 Y21.3623 Z-0.575 I-1.1237 J-0.0539
X14.4305 Y21.1749 I-1.1249 J-0.0126
G1 X14.4209 Y21.1133
X14.4053 Y21.0144 Z-0.625 F13.3
X14.1608 Y19.4594 F60.
X14.1452 Y19.3606 Z-0.575
X14.1064 Y19.1137
X14.0909 Y19.0149 Z-0.625 F13.3
X13.8474 Y17.4665 F60.
X13.8319 Y17.3677 Z-0.575
X13.793 Y17.1208
X13.7775 Y17.022 Z-0.625 F13.3
X13.534 Y15.4736 F60.
X13.5185 Y15.3748 Z-0.575
X13.4796 Y15.1278
X13.4641 Y15.0291 Z-0.625 F13.3
X13.2206 Y13.4807 F60.
X13.2051 Y13.3819 Z-0.575
X13.1662 Y13.1349
X13.1507 Y13.0361 Z-0.625 F13.3
X12.9148 Y11.5359 F60.
G2 X12.9049 Y11.4768 I-3.0871 J0.4854
X12.8859 Y11.3784 Z-0.575 I-3.0772 J0.5445
X12.8247 Y11.136 I-3.0582 J0.6428
X12.7948 Y11.0405 Z-0.625 I-2.997 J0.8852 F13.3
X12.2019 Y9.9893 I-2.9671 J0.9808 F60.
G1 X11.9978 Y9.7509
X11.937 Y9.6798 Z-0.6264 F30.
X11.8701 Y9.6016 Z-0.575
X11.7075 Y9.4117
X11.6313 Y9.3226 Z-0.6336 F13.3
X10.6641 Y8.1926 Z-0.6564 F30.
X10.5583 Y8.0689 Z-0.575
X10.3957 Y7.8789
X10.278 Y7.7415 Z-0.6655 F13.3
X9.3913 Y6.7054 Z-0.6864 F30.
X9.2465 Y6.5362 Z-0.575
X9.0839 Y6.3463
X8.9248 Y6.1604 Z-0.6973 F13.3
X8.8114 Y6.0279 Z-0.7 F30.
X8.0973 Y5.1934 F60.
X7.9347 Y5.0035 Z-0.575
X7.7721 Y4.8136
X7.6096 Y4.6236 Z-0.7 F13.3
X6.7855 Y3.6608 F60.
X6.6229 Y3.4708 Z-0.575
X6.4604 Y3.2809
X6.2978 Y3.091 Z-0.7 F13.3
X5.6231 Y2.3026 F60.
G2 X5.5545 Y2.0627 I-0.6231 J0.0484
X5.5325 Y2.0238 Z-0.6816 I-0.5545 J0.2883
X5.5077 Y1.9866 Z-0.6624 I-0.5325 J0.3272
X5.4804 Y1.9512 Z-0.6424 I-0.5077 J0.3645
X5.4506 Y1.9179 Z-0.6218 I-0.4804 J0.3998
X5.4184 Y1.8868 Z-0.6006 I-0.4506 J0.4332
X5.3842 Y1.858 Z-0.5789 I-0.4184 J0.4643
G1 X5.3778 Y1.8532 Z-0.575
G2 X5.2138 Y1.7637 I-0.3778 J0.4979
G1 X5.1539 Y1.7419
X4.9178 Y1.656 Z-0.7 F13.3
X3.7168 Y1.2189 F60.
X3.4819 Y1.1334 Z-0.575
X3.2469 Y1.0479
X3.012 Y0.9623 Z-0.7 F13.3
X2.7928 Y0.8825 F60.
G2 X2.625 Y1. I-0.0428 J0.1175
G1 Y2.0341
Y2.2841 Z-0.575
Y2.5341
Y2.7841 Z-0.7 F13.3
Y4.0515 F60.
Y4.3015 Z-0.575
Y4.5515
Y4.8015 Z-0.7 F13.3
Y6.0689 F60.
Y6.3189 Z-0.575
Y6.5689
Y6.8189 Z-0.7 F13.3
Y8.0863 F60.
Y8.3363 Z-0.575
Y8.5863
Y8.75 Z-0.6569 F13.3
G2 X2.6266 Y8.7699 Z-0.6668 I0.125 J0.
X2.6313 Y8.7893 Z-0.6765 I0.1234 J-0.0199
X2.6391 Y8.8077 Z-0.6857 I0.1187 J-0.0393
X2.6498 Y8.8247 Z-0.6942 I0.1109 J-0.0577
X2.6595 Y8.8363 Z-0.7 I0.1002 J-0.0747
X2.7486 Y8.875 I0.0905 J-0.0863 F60.
G1 X4.1022 Y8.8902
X4.3522 Y8.893 Z-0.575
X4.6022 Y8.8958
X4.8522 Y8.8986 Z-0.7 F13.3
X5.5299 Y8.9063 F60.
X5.5313
X5.9063
Y8.9246
Y9.1746 Z-0.575
Y9.4246
Y9.6746 Z-0.7 F13.3
Y10.8125 F60.
G3 X5.9038 Y10.9032 I-1.6563 J0.
X5.8982 Y10.9758 Z-0.6644 I-1.6538 J-0.0908
X5.8894 Y11.0481 Z-0.6285 I-1.6482 J-0.1633
X5.8775 Y11.1199 Z-0.5923 I-1.6394 J-0.2356
X5.8707 Y11.154 Z-0.575 I-1.6275 J-0.3074
X5.8008 Y11.394 I-1.6207 J-0.3415
X5.7738 Y11.4616 Z-0.6112 I-1.5508 J-0.5815 F13.3
X5.7438 Y11.5279 Z-0.6473 I-1.5238 J-0.6491
X5.7109 Y11.5929 Z-0.683 I-1.4938 J-0.7155
X5.6942 Y11.6234 Z-0.7 I-1.4609 J-0.7804
X4.8696 Y12.3485 I-1.4442 J-0.8109 F60.
X4.8015 Y12.3742 Z-0.6644 I-0.6196 J-1.536
X4.7323 Y12.397 Z-0.6285 I-0.5515 J-1.5618
X4.6622 Y12.4166 Z-0.5923 I-0.4823 J-1.5845
X4.6285 Y12.4249 Z-0.575 I-0.4122 J-1.6041
X4.3815 Y12.4635 I-0.3785 J-1.6124
X4.3088 Y12.4677 Z-0.6112 I-0.1315 J-1.651 F13.3
X4.25 Y12.4687 Z-0.6404 I-0.0588 J-1.6552
G1 X4.1293 Z-0.7
X2.8837 F60.
X2.6337 Z-0.575
X2.3837
X2.1337 Z-0.7 F13.3
X1.5 F60.
G2 X0.8937 Y12.942 I0. J0.625
X0.8844 Y12.9858 Z-0.6781 I0.6063 J0.1517
X0.8783 Y13.0301 Z-0.656 I0.6156 J0.108
X0.8753 Y13.0747 Z-0.6337 I0.6217 J0.0637
X0.875 Y13.0937 Z-0.6242 I0.6247 J0.019
G1 Y13.192 Z-0.575
Y13.442
Y13.692 Z-0.7 F13.3
Y14.9594 F60.
Y15.2094 Z-0.575
Y15.4594
Y15.7094 Z-0.7 F13.3
Y16.1252 F60.
G2 X1.5367 Y16.7491 I0.625 J0.
G1 X1.5405 Y16.7489 Z-0.6981
X1.793 Y16.7325 Z-0.575
X1.8328 Y16.7299
G3 X2.0391 Y16.7762 I0.0243 J0.3742
X2.0686 Y16.7944 Z-0.591 I-0.182 J0.3279 F13.3
G1 X2.0722 Y16.7969 Z-0.593
X2.2663 Y16.9328 Z-0.7
X3.2358 Y17.6117 F60.
X3.4406 Y17.7551 Z-0.575
X3.6454 Y17.8985
X3.8502 Y18.0419 Z-0.7 F13.3
X4.8884 Y18.7688 F60.
X5.0931 Y18.9122 Z-0.575
X5.2979 Y19.0556
X5.5027 Y19.199 Z-0.7 F13.3
X6.5409 Y19.9259 F60.
X6.7457 Y20.0693 Z-0.575
X6.9505 Y20.2127
X7.1553 Y20.3561 Z-0.7 F13.3
X8.1935 Y21.0831 F60.
X8.3983 Y21.2265 Z-0.575
X8.603 Y21.3699
X8.8078 Y21.5133 Z-0.7 F13.3
X9.846 Y22.2402 F60.
X10.0508 Y22.3836 Z-0.575
X10.2556 Y22.527
X10.4604 Y22.6704 Z-0.7 F13.3
X11.4986 Y23.3973 F60.
X11.7034 Y23.5407 Z-0.575
X11.9082 Y23.6841
X12.113 Y23.8275 Z-0.7 F13.3
X12.1677 Y23.8659 F60.
G2 X13.0381 Y23.7124 I0.3585 J-0.512
G1 X13.2763 Y23.3723
X13.4197 Y23.1675 Z-0.575
X13.5631 Y22.9627
X13.7065 Y22.7579 Z-0.7 F13.3
X14.2407 Y21.9949 F60.
G2 X14.412 Y21.6167 I-0.9216 J-0.6453
X14.4247 Y21.5581 Z-0.6715 I-1.0929 J-0.2671
X14.4342 Y21.4989 Z-0.6425 I-1.1055 J-0.2084
X14.4406 Y21.4392 Z-0.6131 I-1.1151 J-0.1492
X14.4438 Y21.3793 Z-0.5835 I-1.1214 J-0.0896
X14.4441 Y21.3623 Z-0.575 I-1.1246 J-0.0297
X14.4305 Y21.1749 I-1.1249 J-0.0126
G1 X14.4209 Y21.1133
X14.382 Y20.866 Z-0.7 F13.3
X14.1841 Y19.6076 F60.
X14.1452 Y19.3606 Z-0.575
X14.1064 Y19.1137
X14.0676 Y18.8667 Z-0.7 F13.3
X13.8707 Y17.6147 F60.
X13.8319 Y17.3677 Z-0.575
X13.793 Y17.1208
X13.7542 Y16.8738 Z-0.7 F13.3
X13.5573 Y15.6218 F60.
X13.5185 Y15.3748 Z-0.575
X13.4796 Y15.1278
X13.4408 Y14.8809 Z-0.7 F13.3
X13.2439 Y13.6289 F60.
X13.2051 Y13.3819 Z-0.575
X13.1662 Y13.1349
X13.1274 Y12.888 Z-0.7 F13.3
X12.9289 Y11.6254 F60.
X12.9148 Y11.5359 Z-0.6549
G2 X12.8977 Y11.4373 Z-0.605 I-3.0871 J0.4854
X12.8859 Y11.3784 Z-0.575 I-3.07 J0.5839
X12.8247 Y11.136 I-3.0582 J0.6428
X12.7949 Y11.0406 Z-0.6249 I-2.997 J0.8852 F13.3
X12.762 Y10.9462 Z-0.6747 I-2.9671 J0.9807
X12.7441 Y10.8986 Z-0.7 I-2.9342 J1.0751
X12.2019 Y9.9893 I-2.9164 J1.1227 F60.
G1 X12.0326 Y9.7915
X11.8701 Y9.6016 Z-0.575
X11.7075 Y9.4117
X11.5449 Y9.2217 Z-0.7 F13.3
X10.7208 Y8.2588 F60.
X10.5583 Y8.0689 Z-0.575
X10.3957 Y7.8789
X10.2331 Y7.689 Z-0.7 F13.3
X9.409 Y6.7261 F60.
X9.2465 Y6.5362 Z-0.575
X9.0839 Y6.3463
X8.9214 Y6.1563 Z-0.7 F13.3
X8.8114 Y6.0279 F60.
G3 X8.8142 Y5.9926 I0.019 J-0.0163
G1 X8.8331 Y5.9764
X8.8361 Y5.9738 Z-0.6997
X8.839 Y5.9713 Z-0.6988
X8.8418 Y5.969 Z-0.6973
X8.8443 Y5.9668 Z-0.6952
X8.8466 Y5.9649 Z-0.6927
X8.8485 Y5.9632 Z-0.6897
X8.8501 Y5.9619 Z-0.6863
X8.8512 Y5.9609 Z-0.6827
X8.8519 Y5.9603 Z-0.6789
X8.8521 Y5.9601 Z-0.675
G0 Z0.6

M9
M30
