(1002)
(T1  D=0.25 CR=0. - ZMIN=-0.3 - FLAT END MILL)
G90 G94 G91.1 G40 G49 G17
G20

(2D CONTOUR1 2)
G0 X0. Y0. Z0.6
M5
T1 M6
S15000 M3
G4 P5.
G54
M8
G0 X5.5062 Y8.9782
G43 Z0.6 H1
Z0.2
G1 Z0.125 F13.3
Y8.9779 Z0.1211 F60.
Y8.977 Z0.1173
Y8.9755 Z0.1137
X5.5063 Y8.9734 Z0.1103
Y8.9709 Z0.1073
Y8.9679 Z0.1048
X5.5064 Y8.9645 Z0.1027
Y8.9609 Z0.1012
Y8.9571 Z0.1003
X5.5065 Y8.9532 Z0.1
X5.5068 Y8.9282
G3 X5.5321 Y8.9035 I0.025 J0.0003
G1 X5.7799 Y8.9063 Z0.0957 F30.
X5.7813 Z0.0956
X6.1563 Z0.0891
Y10.8125 Z0.0558
G3 X4.5 Y12.4687 Z0.0104 I-1.6563 J0.
G1 X1.5 Z-0.0419
G2 X0.875 Y13.0937 Z-0.0591 I0. J0.625
G1 Y13.2895 Z-0.0625
Y16.0937 F60.
G2 X1.5 Y16.7187 I0.625 J0.
G1 X1.7929
G3 X2.0581 Y16.8286 I0. J0.375
G1 X10.7504 Y25.521
G2 X11.6343 I0.442 J-0.442
G1 X13.1174 Y24.0379
G2 X13.2015 Y23.2584 I-0.4419 J-0.442
G1 X8.9643 Y16.6555
G3 X8.875 Y16.351 I0.4746 J-0.3045
G1 Y5.8067
G2 X8.5162 Y4.9405 I-1.225 J0.
G1 X5.8727 Y2.2969
G2 X5.4638 Y1.7637 I-0.6227 J0.0541
G1 X3.0428 Y0.8825
G2 X2.875 Y1. I-0.0428 J0.1175
G1 Y8.75
G2 X2.9986 Y8.875 I0.125 J0.
G1 X5.7799 Y8.9063
X5.7813
X6.1563
Y10.8125
G3 X4.5 Y12.4687 I-1.6563 J0.
G1 X1.5
G2 X0.875 Y13.0937 I0. J0.625
G1 Y13.2895
Y16.0937 Z-0.1042 F30.
G2 X1.5 Y16.7187 Z-0.1187 I0.625 J0.
G1 X1.7929 Z-0.1231
G3 X1.919 Y16.7406 Z-0.125 I0. J0.375
X2.0581 Y16.8286 I-0.1261 J0.3532 F60.
G1 X10.7504 Y25.521
G2 X11.6343 I0.442 J-0.442
G1 X13.1174 Y24.0379
G2 X13.2015 Y23.2584 I-0.4419 J-0.442
G1 X8.9643 Y16.6555
G3 X8.875 Y16.351 I0.4746 J-0.3045
G1 Y5.8067
G2 X8.5162 Y4.9405 I-1.225 J0.
G1 X5.8727 Y2.2969
G2 X5.4638 Y1.7637 I-0.6227 J0.0541
G1 X3.0428 Y0.8825
G2 X2.875 Y1. I-0.0428 J0.1175
G1 Y8.75
G2 X2.9986 Y8.875 I0.125 J0.
G1 X5.7799 Y8.9063
X5.7813
X6.1563
Y10.8125
G3 X4.5 Y12.4687 I-1.6563 J0.
G1 X1.5
G2 X0.875 Y13.0937 I0. J0.625
G1 Y16.0937
G2 X1.5 Y16.7187 I0.625 J0.
G1 X1.7929
G3 X1.919 Y16.7406 I0. J0.375
X2.0581 Y16.8286 Z-0.1275 I-0.1261 J0.3532 F30.
G1 X4.9158 Y19.6864 Z-0.1875
X5.3812 Y20.1517 F60.
X5.3988 Y20.1694 Z-0.175
X5.5756 Y20.3462
X5.5933 Y20.3638 Z-0.1875 F13.3
X6.8069 Y21.5775 F60.
X6.8246 Y21.5951 Z-0.175
X7.0014 Y21.7719
X7.019 Y21.7896 Z-0.1875 F13.3
X8.2327 Y23.0032 F60.
X8.2503 Y23.0209 Z-0.175
X8.4271 Y23.1977
X8.4448 Y23.2153 Z-0.1875 F13.3
X9.6584 Y24.4289 F60.
X9.6761 Y24.4466 Z-0.175
X9.8528 Y24.6234
X9.8705 Y24.6411 Z-0.1875 F13.3
X10.7504 Y25.521 F60.
G2 X11.3264 Y25.6895 I0.442 J-0.442
X11.3513 Y25.6835 Z-0.175 I-0.134 J-0.6105
X11.5755 Y25.5729 I-0.1589 J-0.6045
X11.5954 Y25.5568 Z-0.1875 I-0.3831 J-0.4939 F13.3
X11.6343 Y25.521 I-0.403 J-0.4777 F60.
G1 X12.8384 Y24.3169
X12.8561 Y24.2992 Z-0.175
X13.0329 Y24.1224
X13.0505 Y24.1047 Z-0.1875 F13.3
X13.1174 Y24.0379 F60.
G2 X13.2015 Y23.2584 I-0.4419 J-0.442
G1 X12.6917 Y22.4641
X12.6782 Y22.443 Z-0.175
X12.5432 Y22.2326
X12.5297 Y22.2116 Z-0.1875 F13.3
X11.6028 Y20.7671 F60.
X11.5893 Y20.7461 Z-0.175
X11.4543 Y20.5357
X11.4407 Y20.5147 Z-0.1875 F13.3
X10.5138 Y19.0702 F60.
X10.5003 Y19.0491 Z-0.175
X10.3653 Y18.8387
X10.3518 Y18.8177 Z-0.1875 F13.3
X9.4249 Y17.3732 F60.
X9.4114 Y17.3522 Z-0.175
X9.2763 Y17.1418
X9.2628 Y17.1207 Z-0.1875 F13.3
X8.9643 Y16.6555 F60.
G3 X8.875 Y16.351 I0.4746 J-0.3045
G1 Y15.5805
Y15.5555 Z-0.175
Y15.3055
Y15.2805 Z-0.1875 F13.3
Y13.5642 F60.
Y13.5392 Z-0.175
Y13.2892
Y13.2642 Z-0.1875 F13.3
Y11.5479 F60.
Y11.5229 Z-0.175
Y11.2729
Y11.2479 Z-0.1875 F13.3
Y9.5316 F60.
Y9.5066 Z-0.175
Y9.2566
Y9.2316 Z-0.1875 F13.3
Y7.5153 F60.
Y7.4903 Z-0.175
Y7.2403
Y7.2153 Z-0.1875 F13.3
Y5.8067 F60.
G2 X8.8227 Y5.4525 I-1.225 J0.
X8.8152 Y5.4285 Z-0.175 I-1.1727 J0.3542
X8.7141 Y5.1998 I-1.1652 J0.3782
X8.7014 Y5.1781 Z-0.1875 I-1.0641 J0.6069 F13.3
X8.5162 Y4.9405 I-1.0514 J0.6286 F60.
G1 X7.4838 Y3.908
X7.4661 Y3.8904 Z-0.175
X7.2893 Y3.7136
X7.2717 Y3.6959 Z-0.1875 F13.3
X6.058 Y2.4823 F60.
X6.0404 Y2.4646 Z-0.175
X5.8727 Y2.2969
G2 X5.871 Y2.2804 I-0.6227 J0.0541
X5.8667 Y2.2494 Z-0.1875 I-0.621 J0.0706 F13.3
X5.4638 Y1.7637 I-0.6167 J0.1016 F60.
G1 X4.435 Y1.3893
X4.4115 Y1.3807 Z-0.175
X4.1766 Y1.2952
X4.1531 Y1.2867 Z-0.1875 F13.3
X3.0428 Y0.8825 F60.
G2 X2.875 Y1. I-0.0428 J0.1175
G1 Y1.5347
Y1.5597 Z-0.175
Y1.8097
Y1.8347 Z-0.1875 F13.3
Y3.551 F60.
Y3.576 Z-0.175
Y3.826
Y3.851 Z-0.1875 F13.3
Y5.5673 F60.
Y5.5923 Z-0.175
Y5.8423
Y5.8673 Z-0.1875 F13.3
Y7.5836 F60.
Y7.6086 Z-0.175
Y7.8586
Y7.8836 Z-0.1875 F13.3
Y8.75 F60.
G2 X2.9986 Y8.875 I0.125 J0.
G1 X3.8485 Y8.8845
X3.8735 Y8.8848 Z-0.175
X4.1235 Y8.8876
X4.1485 Y8.8879 Z-0.1875 F13.3
X5.7799 Y8.9063 F60.
X5.7813
X5.8661
X5.8911 Z-0.175
X6.1411
X6.1563 Z-0.1826 F13.3
Y9.0563
Z-0.1875
Y10.436 F60.
Y10.461 Z-0.175
Y10.711
Y10.736 Z-0.1875 F13.3
Y10.8125 F60.
G3 X5.5111 Y12.1243 I-1.6563 J0.
X5.4911 Y12.1395 Z-0.175 I-1.0111 J-1.3118
X5.2801 Y12.2735 I-0.9911 J-1.327
X5.2579 Y12.2852 Z-0.1875 I-0.7801 J-1.461 F13.3
X4.5 Y12.4687 I-0.7579 J-1.4727 F60.
G1 X3.6418
X3.6168 Z-0.175
X3.3668
X3.3418 Z-0.1875 F13.3
X1.6196 F60.
X1.5946 Z-0.175
X1.5
G2 X1.3452 Y12.4882 I0. J0.625
X1.3205 Y12.4951 Z-0.1875 I0.1548 J0.6055 F13.3
X0.875 Y13.0937 I0.1795 J0.5987 F60.
G1 Y14.1991
Y14.2241 Z-0.175
Y14.4741
Y14.4991 Z-0.1875 F13.3
Y16.0937 F60.
G2 X0.9031 Y16.279 I0.625 J0.
X0.9112 Y16.3033 Z-0.175 I0.5969 J-0.1853
X1.0404 Y16.5173 I0.5888 J-0.2096
X1.0582 Y16.5358 Z-0.1875 I0.4596 J-0.4236 F13.3
X1.5 Y16.7187 I0.4418 J-0.4421 F60.
G1 X1.7929
G3 X2.0581 Y16.8286 I0. J0.375
G1 X2.5297 Y17.3002
X2.5474 Y17.3179 Z-0.175
X2.7241 Y17.4947
X2.7418 Y17.5123 Z-0.1875 F13.3
X3.9554 Y18.726 F60.
X3.9731 Y18.7436 Z-0.175
X4.1499 Y18.9204
X4.1676 Y18.9381 Z-0.1875 F13.3
X4.9158 Y19.6864 F60.
X5.3677 Y20.1383 Z-0.197 F30.
X5.3988 Y20.1694 Z-0.175
X5.5756 Y20.3462
X5.614 Y20.3846 Z-0.2022 F13.3
X6.7523 Y21.5229 Z-0.2261 F30.
X6.8246 Y21.5951 Z-0.175
X7.0014 Y21.7719
X7.0834 Y21.854 Z-0.233 F13.3
X7.8909 Y22.6615 Z-0.25 F30.
X8.1443 Y22.9148 F60.
X8.2503 Y23.0209 Z-0.175
X8.4271 Y23.1977
X8.5332 Y23.3037 Z-0.25 F13.3
X9.57 Y24.3405 F60.
X9.6761 Y24.4466 Z-0.175
X9.8528 Y24.6234
X9.9589 Y24.7295 Z-0.25 F13.3
X10.7504 Y25.521 F60.
G2 X11.1941 Y25.704 I0.442 J-0.442
X11.2388 Y25.7023 Z-0.2296 I-0.0018 J-0.625
X11.2833 Y25.6974 Z-0.2086 I-0.0464 J-0.6233
X11.3273 Y25.6893 Z-0.1871 I-0.0909 J-0.6184
X11.3513 Y25.6835 Z-0.175 I-0.1349 J-0.6103
X11.5755 Y25.5729 I-0.1589 J-0.6045
X11.6098 Y25.5442 Z-0.1967 I-0.3831 J-0.4939 F13.3
X11.6343 Y25.521 Z-0.2129 I-0.4174 J-0.4652
G1 X11.6898 Y25.4655 Z-0.25
X12.75 Y24.4053 F60.
X12.8561 Y24.2992 Z-0.175
X13.0329 Y24.1224
X13.1174 Y24.0379 Z-0.2348 F13.3
G2 X13.1384 Y24.0158 Z-0.25 I-0.4419 J-0.442
X13.2015 Y23.2584 I-0.463 J-0.4199 F60.
G1 X12.7592 Y22.5693
X12.6782 Y22.443 Z-0.175
X12.5432 Y22.2326
X12.4622 Y22.1064 Z-0.25 F13.3
X11.6703 Y20.8723 F60.
X11.5893 Y20.7461 Z-0.175
X11.4543 Y20.5357
X11.3732 Y20.4095 Z-0.25 F13.3
X10.5813 Y19.1754 F60.
X10.5003 Y19.0491 Z-0.175
X10.3653 Y18.8387
X10.2843 Y18.7125 Z-0.25 F13.3
X9.4924 Y17.4784 F60.
X9.4114 Y17.3522 Z-0.175
X9.2763 Y17.1418
X9.1953 Y17.0155 Z-0.25 F13.3
X8.9643 Y16.6555 F60.
G3 X8.875 Y16.351 I0.4746 J-0.3045
G1 Y15.7055
Y15.5555 Z-0.175
Y15.3055
Y15.1555 Z-0.25 F13.3
Y13.6892 F60.
Y13.5392 Z-0.175
Y13.2892
Y13.1392 Z-0.25 F13.3
Y11.6729 F60.
Y11.5229 Z-0.175
Y11.2729
Y11.1229 Z-0.25 F13.3
Y9.6566 F60.
Y9.5066 Z-0.175
Y9.2566
Y9.1066 Z-0.25 F13.3
Y7.6403 F60.
Y7.4903 Z-0.175
Y7.2403
Y7.0903 Z-0.25 F13.3
Y5.8067 F60.
G2 X8.853 Y5.5757 I-1.225 J0.
X8.8397 Y5.5145 Z-0.2193 I-1.203 J0.2309
X8.8232 Y5.4542 Z-0.1884 I-1.1897 J0.2921
X8.8152 Y5.4285 Z-0.175 I-1.1732 J0.3525
X8.7141 Y5.1998 I-1.1652 J0.3782
X8.6817 Y5.1462 Z-0.206 I-1.0641 J0.6069 F13.3
X8.6466 Y5.0944 Z-0.2368 I-1.0317 J0.6604
X8.6307 Y5.0726 Z-0.25 I-0.9966 J0.7123
X8.5162 Y4.9405 I-0.9807 J0.734 F60.
G1 X7.5722 Y3.9964
X7.4661 Y3.8904 Z-0.175
X7.2893 Y3.7136
X7.1833 Y3.6075 Z-0.25 F13.3
X6.1464 Y2.5707 F60.
X6.0404 Y2.4646 Z-0.175
X5.8727 Y2.2969
G2 X5.871 Y2.2804 I-0.6227 J0.0541
X5.8644 Y2.2362 Z-0.193 I-0.621 J0.0706 F13.3
X5.8546 Y2.1926 Z-0.2119 I-0.6144 J0.1148
X5.8417 Y2.1497 Z-0.2316 I-0.6046 J0.1585
X5.8274 Y2.1119 Z-0.25 I-0.5917 J0.2013
X5.4638 Y1.7637 I-0.5774 J0.2392 F60.
G1 X4.5524 Y1.432
X4.4115 Y1.3807 Z-0.175
X4.1766 Y1.2952
X4.0356 Y1.2439 Z-0.25 F13.3
X3.0428 Y0.8825 F60.
G2 X2.875 Y1. I-0.0428 J0.1175
G1 Y1.4097
Y1.5597 Z-0.175
Y1.8097
Y1.9597 Z-0.25 F13.3
Y3.426 F60.
Y3.576 Z-0.175
Y3.826
Y3.976 Z-0.25 F13.3
Y5.4423 F60.
Y5.5923 Z-0.175
Y5.8423
Y5.9923 Z-0.25 F13.3
Y7.4586 F60.
Y7.6086 Z-0.175
Y7.8586
Y8.0086 Z-0.25 F13.3
Y8.75 F60.
G2 X2.9986 Y8.875 I0.125 J0.
G1 X3.7235 Y8.8831
X3.8735 Y8.8848 Z-0.175
X4.1235 Y8.8876
X4.2735 Y8.8893 Z-0.25 F13.3
X5.7411 Y8.9058 F60.
X5.7799 Y8.9063 Z-0.2306
X5.7813 Z-0.2299
X5.8911 Z-0.175
X6.1411
X6.1563 Z-0.1826 F13.3
Y9.0563
Z-0.25
Y10.311 F60.
Y10.461 Z-0.175
Y10.711
Y10.8125 Z-0.2257 F13.3
G3 X6.1555 Y10.861 Z-0.25 I-1.6563 J0.
X5.6079 Y12.0436 I-1.6555 J-0.0485 F60.
X5.5528 Y12.0911 Z-0.214 I-1.1079 J-1.2311
X5.4956 Y12.1361 Z-0.1778 I-1.0528 J-1.2786
G1 X5.4911 Y12.1395 Z-0.175
G3 X5.2801 Y12.2735 I-0.9911 J-1.327
X5.2151 Y12.3064 Z-0.2112 I-0.7801 J-1.461 F13.3
X5.1488 Y12.3364 Z-0.2473 I-0.7151 J-1.4939
G1 X5.1437 Y12.3385 Z-0.25
G3 X4.5 Y12.4687 I-0.6437 J-1.5261 F60.
G1 X3.7668
X3.6168 Z-0.175
X3.3668
X3.2168 Z-0.25 F13.3
X1.7447 F60.
X1.5946 Z-0.175
X1.5
G2 X1.3452 Y12.4882 I0. J0.625
X1.3023 Y12.5008 Z-0.1967 I0.1548 J0.6055 F13.3
X1.2604 Y12.5165 Z-0.218 I0.1977 J0.5929
X1.2198 Y12.5351 Z-0.2388 I0.2396 J0.5773
X1.1979 Y12.5466 Z-0.25 I0.2802 J0.5587
X0.875 Y13.0937 I0.3021 J0.5471 F60.
G1 Y14.0741
Y14.2241 Z-0.175
Y14.4741
Y14.6241 Z-0.25 F13.3
Y16.0937 F60.
G2 X0.8774 Y16.1485 I0.625 J0.
X0.8829 Y16.1929 Z-0.2296 I0.6226 J-0.0548
X0.8916 Y16.2367 Z-0.2086 I0.6171 J-0.0991
X0.9034 Y16.2799 Z-0.1871 I0.6084 J-0.143
X0.9112 Y16.3033 Z-0.175 I0.5966 J-0.1861
X1.0404 Y16.5173 I0.5888 J-0.2096
X1.0719 Y16.5491 Z-0.1967 I0.4596 J-0.4236 F13.3
X1.1055 Y16.5785 Z-0.218 I0.4281 J-0.4553
X1.1412 Y16.6055 Z-0.2388 I0.3945 J-0.4848
X1.1617 Y16.6193 Z-0.25 I0.3588 J-0.5118
X1.5 Y16.7187 I0.3383 J-0.5256 F60.
G1 X1.7929
G3 X2.0581 Y16.8286 I0. J0.375
G1 X2.4413 Y17.2118
X2.5474 Y17.3179 Z-0.175
X2.7241 Y17.4947
X2.8302 Y17.6007 Z-0.25 F13.3
X3.867 Y18.6376 F60.
X3.9731 Y18.7436 Z-0.175
X4.1499 Y18.9204
X4.2559 Y19.0265 Z-0.25 F13.3
X5.2928 Y20.0633 F60.
X5.3988 Y20.1694 Z-0.175
X5.5756 Y20.3462
X5.6817 Y20.4522 Z-0.25 F13.3
X6.7185 Y21.4891 F60.
X6.8246 Y21.5951 Z-0.175
X7.0014 Y21.7719
X7.1074 Y21.878 Z-0.25 F13.3
X7.8909 Y22.6615 F60.
X8.137 Y22.9075 Z-0.2552 F30.
X8.2503 Y23.0209 Z-0.175
X8.4271 Y23.1977
X8.5528 Y23.3234 Z-0.2639 F13.3
X9.5215 Y24.2921 Z-0.2843 F30.
X9.6761 Y24.4466 Z-0.175
X9.8528 Y24.6234
X10.0222 Y24.7928 Z-0.2948 F13.3
X10.271 Y25.0416 Z-0.3 F30.
X10.7504 Y25.521 F60.
G2 X11.0774 Y25.6934 I0.442 J-0.442
X11.1216 Y25.7 Z-0.2816 I0.115 J-0.6144
X11.1662 Y25.7035 Z-0.2624 I0.0708 J-0.621
X11.2109 Y25.7038 Z-0.2424 I0.0262 J-0.6245
X11.2555 Y25.7008 Z-0.2218 I-0.0185 J-0.6248
X11.2998 Y25.6947 Z-0.2006 I-0.0631 J-0.6218
X11.3436 Y25.6855 Z-0.1789 I-0.1074 J-0.6157
G1 X11.3513 Y25.6835 Z-0.175
G2 X11.5755 Y25.5729 I-0.1589 J-0.6045
X11.6098 Y25.5442 Z-0.1967 I-0.3831 J-0.4939 F13.3
X11.6343 Y25.521 Z-0.2129 I-0.4174 J-0.4652
G1 X11.7644 Y25.3909 Z-0.3
X12.6793 Y24.476 F60.
X12.8561 Y24.2992 Z-0.175
X13.0329 Y24.1224
X13.1174 Y24.0379 Z-0.2348 F13.3
G2 X13.1478 Y24.0052 Z-0.2571 I-0.4419 J-0.442
X13.1759 Y23.9704 Z-0.2793 I-0.4724 J-0.4092
X13.1999 Y23.9359 Z-0.3 I-0.5004 J-0.3744
X13.2015 Y23.2584 I-0.5245 J-0.3399 F60.
G1 X12.8132 Y22.6535
X12.6782 Y22.443 Z-0.175
X12.5432 Y22.2326
X12.4082 Y22.0222 Z-0.3 F13.3
X11.7243 Y20.9565 F60.
X11.5893 Y20.7461 Z-0.175
X11.4543 Y20.5357
X11.3192 Y20.3253 Z-0.3 F13.3
X10.6353 Y19.2596 F60.
X10.5003 Y19.0491 Z-0.175
X10.3653 Y18.8387
X10.2303 Y18.6283 Z-0.3 F13.3
X9.5464 Y17.5626 F60.
X9.4114 Y17.3522 Z-0.175
X9.2763 Y17.1418
X9.1413 Y16.9314 Z-0.3 F13.3
X8.9643 Y16.6555 F60.
G3 X8.875 Y16.351 I0.4746 J-0.3045
G1 Y15.8055
Y15.5555 Z-0.175
Y15.3055
Y15.0555 Z-0.3 F13.3
Y13.7892 F60.
Y13.5392 Z-0.175
Y13.2892
Y13.0392 Z-0.3 F13.3
Y11.7729 F60.
Y11.5229 Z-0.175
Y11.2729
Y11.0229 Z-0.3 F13.3
Y9.7566 F60.
Y9.5066 Z-0.175
Y9.2566
Y9.0066 Z-0.3 F13.3
Y7.7403 F60.
Y7.4903 Z-0.175
Y7.2403
Y6.9903 Z-0.3 F13.3
Y5.8067 F60.
G2 X8.8683 Y5.6783 I-1.225 J0.
X8.8601 Y5.6162 Z-0.27 I-1.2183 J0.1284
X8.8488 Y5.5547 Z-0.2395 I-1.2101 J0.1904
X8.8344 Y5.4937 Z-0.2087 I-1.1988 J0.252
X8.8168 Y5.4336 Z-0.1777 I-1.1844 J0.3129
G1 X8.8152 Y5.4285 Z-0.175
G2 X8.7141 Y5.1998 I-1.1652 J0.3782
X8.6817 Y5.1462 Z-0.206 I-1.0641 J0.6069 F13.3
X8.6466 Y5.0944 Z-0.2368 I-1.0317 J0.6604
X8.6089 Y5.0444 Z-0.2673 I-0.9966 J0.7123
X8.5687 Y4.9964 Z-0.2974 I-0.9589 J0.7623
G1 X8.5651 Y4.9923 Z-0.3
G2 X8.5162 Y4.9405 I-0.9151 J0.8144 F60.
G1 X7.6429 Y4.0671
X7.4661 Y3.8904 Z-0.175
X7.2893 Y3.7136
X7.1126 Y3.5368 Z-0.3 F13.3
X6.2171 Y2.6414 F60.
X6.0404 Y2.4646 Z-0.175
X5.8727 Y2.2969
G2 X5.871 Y2.2804 I-0.6227 J0.0541
X5.8644 Y2.2362 Z-0.193 I-0.621 J0.0706 F13.3
X5.8546 Y2.1926 Z-0.2119 I-0.6144 J0.1148
X5.8417 Y2.1497 Z-0.2316 I-0.6046 J0.1585
X5.8258 Y2.108 Z-0.252 I-0.5917 J0.2013
X5.8069 Y2.0674 Z-0.273 I-0.5758 J0.2431
X5.7852 Y2.0283 Z-0.2944 I-0.557 J0.2836
X5.7793 Y2.0186 Z-0.3 I-0.5352 J0.3227
X5.4638 Y1.7637 I-0.5293 J0.3324 F60.
G1 X4.6464 Y1.4662
X4.4115 Y1.3807 Z-0.175
X4.1766 Y1.2952
X3.9416 Y1.2097 Z-0.3 F13.3
X3.0428 Y0.8825 F60.
G2 X2.875 Y1. I-0.0428 J0.1175
G1 Y1.3097
Y1.5597 Z-0.175
Y1.8097
Y2.0597 Z-0.3 F13.3
Y3.326 F60.
Y3.576 Z-0.175
Y3.826
Y4.076 Z-0.3 F13.3
Y5.3423 F60.
Y5.5923 Z-0.175
Y5.8423
Y6.0923 Z-0.3 F13.3
Y7.3586 F60.
Y7.6086 Z-0.175
Y7.8586
Y8.1086 Z-0.3 F13.3
Y8.75 F60.
G2 X2.9986 Y8.875 I0.125 J0.
G1 X3.6235 Y8.882
X3.8735 Y8.8848 Z-0.175
X4.1235 Y8.8876
X4.3735 Y8.8904 Z-0.3 F13.3
X5.6411 Y8.9047 F60.
X5.7799 Y8.9063 Z-0.2306
X5.7813 Z-0.2299
X5.8911 Z-0.175
X6.1411
X6.1563 Z-0.1826 F13.3
Y9.0563
Z-0.3
Y10.211 F60.
Y10.461 Z-0.175
Y10.711
Y10.8125 Z-0.2257 F13.3
G3 X6.1547 Y10.8853 Z-0.2621 I-1.6563 J0.
X6.1499 Y10.9579 Z-0.2984 I-1.6547 J-0.0728
G1 X6.1496 Y10.961 Z-0.3
G3 X5.6816 Y11.9731 I-1.6496 J-0.1485 F60.
X5.6295 Y12.0239 Z-0.2644 I-1.1816 J-1.1606
X5.5751 Y12.0724 Z-0.2285 I-1.1295 J-1.2114
X5.5187 Y12.1184 Z-0.1923 I-1.0751 J-1.2599
X5.4911 Y12.1395 Z-0.175 I-1.0187 J-1.3059
X5.2801 Y12.2735 I-0.9911 J-1.327
X5.2151 Y12.3064 Z-0.2112 I-0.7801 J-1.461 F13.3
X5.1488 Y12.3364 Z-0.2473 I-0.7151 J-1.4939
X5.0812 Y12.3634 Z-0.283 I-0.6488 J-1.5239
X5.0485 Y12.3753 Z-0.3 I-0.5812 J-1.5509
X4.5 Y12.4687 I-0.5485 J-1.5628 F60.
G1 X3.8668
X3.6168 Z-0.175
X3.3668
X3.1168 Z-0.3 F13.3
X1.8449 F60.
X1.5946 Z-0.175
X1.5
G2 X1.3452 Y12.4882 I0. J0.625
X1.3023 Y12.5008 Z-0.1967 I0.1548 J0.6055 F13.3
X1.2604 Y12.5165 Z-0.218 I0.1977 J0.5929
X1.2198 Y12.5351 Z-0.2388 I0.2396 J0.5773
X1.1806 Y12.5565 Z-0.2589 I0.2802 J0.5587
X1.143 Y12.5808 Z-0.2783 I0.3194 J0.5372
X1.1072 Y12.6076 Z-0.2968 I0.357 J0.513
G1 X1.101 Y12.6127 Z-0.3
G2 X0.875 Y13.0937 I0.399 J0.4811 F60.
G1 Y13.9741
Y14.2241 Z-0.175
Y14.4741
Y14.7241 Z-0.3 F13.3
Y16.0331 F60.
Y16.0937 Z-0.2741
G2 X0.8766 Y16.1384 Z-0.2545 I0.625 J0.
X0.8814 Y16.1829 Z-0.2342 I0.6234 J-0.0447
X0.8893 Y16.2269 Z-0.2134 I0.6186 J-0.0891
X0.9004 Y16.2702 Z-0.1919 I0.6107 J-0.1331
X0.9112 Y16.3033 Z-0.175 I0.5996 J-0.1765
X1.0404 Y16.5173 I0.5888 J-0.2096
X1.0719 Y16.5491 Z-0.1967 I0.4596 J-0.4236 F13.3
X1.1055 Y16.5785 Z-0.218 I0.4281 J-0.4553
X1.1412 Y16.6055 Z-0.2388 I0.3945 J-0.4848
X1.1787 Y16.6298 Z-0.2589 I0.3588 J-0.5118
X1.2179 Y16.6514 Z-0.2783 I0.3213 J-0.5361
X1.2585 Y16.6702 Z-0.2968 I0.2821 J-0.5577
G1 X1.2659 Y16.6732 Z-0.3
G2 X1.5 Y16.7187 I0.2341 J-0.5795 F60.
G1 X1.7929
G3 X2.0581 Y16.8286 I0. J0.375
G1 X2.3706 Y17.1411
X2.5474 Y17.3179 Z-0.175
X2.7241 Y17.4947
X2.9009 Y17.6714 Z-0.3 F13.3
X3.7963 Y18.5669 F60.
X3.9731 Y18.7436 Z-0.175
X4.1499 Y18.9204
X4.3266 Y19.0972 Z-0.3 F13.3
X5.2221 Y19.9926 F60.
X5.3988 Y20.1694 Z-0.175
X5.5756 Y20.3462
X5.7524 Y20.5229 Z-0.3 F13.3
X6.6478 Y21.4184 F60.
X6.8246 Y21.5951 Z-0.175
X7.0014 Y21.7719
X7.1781 Y21.9487 Z-0.3 F13.3
X8.0736 Y22.8441 F60.
X8.2503 Y23.0209 Z-0.175
X8.4271 Y23.1977
X8.6039 Y23.3744 Z-0.3 F13.3
X9.4993 Y24.2698 F60.
X9.6761 Y24.4466 Z-0.175
X9.8528 Y24.6234
X10.0296 Y24.8002 Z-0.3 F13.3
X10.271 Y25.0416 F60.
G3 Y25.0769 I-0.0177 J0.0177
G1 X10.2533 Y25.0946
X10.2506 Y25.0974 Z-0.2997
X10.2479 Y25.1 Z-0.2988
X10.2453 Y25.1026 Z-0.2973
X10.2429 Y25.105 Z-0.2952
X10.2408 Y25.1071 Z-0.2927
X10.239 Y25.1089 Z-0.2897
X10.2376 Y25.1103 Z-0.2863
X10.2365 Y25.1114 Z-0.2827
X10.2359 Y25.112 Z-0.2789
X10.2356 Y25.1123 Z-0.275
G0 Z0.6

M9
M30
