(1001)
(T1  D=0.25 CR=0. - ZMIN=-1.0313 - FLAT END MILL)
G90 G94 G91.1 G40 G49 G17
G20

(2D CONTOUR5 2)
G0 X0. Y0. Z0.6
M5
T1 M6
S15000 M3
G4 P5.
G54
G0 X2. Y-17.125
G43 Z0.6 H1
Z0.2
G1 Z0.1644 F10.
Z-0.125
X0. F45.
G3 X-0.025 Y-17.15 I0. J-0.025
G1 Y-17.175
G19 G2 Y-17.2 Z-0.1 J0. K0.025
G0 Z0.2
X2. Y-17.125
G1 Z0.0394 F10.
Z-0.25
X0. F45.
G17 G3 X-0.025 Y-17.15 I0. J-0.025
G1 Y-17.175
G19 G2 Y-17.2 Z-0.225 J0. K0.025
G0 Z0.2
X2. Y-17.125
G1 Z-0.0856 F10.
Z-0.375
X0. F45.
G17 G3 X-0.025 Y-17.15 I0. J-0.025
G1 Y-17.175
G19 G2 Y-17.2 Z-0.35 J0. K0.025
G0 Z0.2
X2. Y-17.125
G1 Z-0.2106 F10.
Z-0.5
X0. F45.
G17 G3 X-0.025 Y-17.15 I0. J-0.025
G1 Y-17.175
G19 G2 Y-17.2 Z-0.475 J0. K0.025
G0 Z0.2
X2. Y-17.125
G1 Z-0.3356 F10.
Z-0.625
X0. F45.
G17 G3 X-0.025 Y-17.15 I0. J-0.025
G1 Y-17.175
G19 G2 Y-17.2 Z-0.6 J0. K0.025
G0 Z0.2
X2. Y-17.125
G1 Z-0.4606 F10.
Z-0.75
X0. F45.
G17 G3 X-0.025 Y-17.15 I0. J-0.025
G1 Y-17.175
G19 G2 Y-17.2 Z-0.725 J0. K0.025
G0 Z0.2
X2. Y-17.125
G1 Z-0.5856 F10.
Z-0.875
X0. F45.
G17 G3 X-0.025 Y-17.15 I0. J-0.025
G1 Y-17.175
G19 G2 Y-17.2 Z-0.85 J0. K0.025
G0 Z0.2
X2. Y-17.125
G1 Z-0.7106 F10.
Z-0.9531
X0. F45.
G17 G3 X-0.025 Y-17.15 I0. J-0.025
G1 Y-17.175
G19 G2 Y-17.2 Z-0.9281 J0. K0.025
G0 Z0.2
X2. Y-17.125
G1 Z-0.7888 F10.
Z-1.0313
X0. F45.
G17 G3 X-0.025 Y-17.15 I0. J-0.025
G1 Y-17.175
G19 G2 Y-17.2 Z-1.0063 J0. K0.025
G0 Z0.6
G17

M30
