(HOLES AND CUT OUT)
(T1  D=0.125 CR=0. - ZMIN=-0.7813 - FLAT END MILL)
G90 G94 G91.1 G40 G49 G17
G20

(2D CONTOUR3)
G0 X0. Y0. Z1.4
M5
T1 M6
S15000 M3
G4 P5.
G54
G0 X4.0123 Y0.6183
G43 Z1.4 H1
Z0.2
G1 Z0.0394 F10.
Z-0.7688
Y0.6186 Z-0.7715 F45.
Y0.6195 Z-0.7742
Y0.621 Z-0.7765
X4.0124 Y0.623 Z-0.7785
Y0.6253 Z-0.78
X4.0125 Y0.628 Z-0.7809
Y0.6307 Z-0.7812
X4.0128 Y0.6432 Z-0.7813
G3 X4.0005 Y0.656 I-0.0125 J0.0003
X3.974 Y0.63 I-0.0005 J-0.026
X4.026 I0.026 J0.
X4.0005 Y0.656 I-0.026 J0.
X3.9878 Y0.6437 I-0.0003 J-0.0125
G1 X3.9875 Y0.6313
Y0.6285 Z-0.7809
X3.9874 Y0.6258 Z-0.78
Y0.6235 Z-0.7785
X3.9873 Y0.6215 Z-0.7765
Y0.62 Z-0.7742
Y0.6191 Z-0.7715
Y0.6188 Z-0.7688
G0 Z1.
X1.99 Y3.9875
Z0.2
G1 Z0.0394 F10.
Z-0.7688
G18 G2 X2.0025 Z-0.7813 I0.0125 K0. F45.
G1 X2.015
G17 G3 X2.0275 Y4. I0. J0.0125
X1.9725 I-0.0275 J0.
X2.0275 I0.0275 J0.
X2.015 Y4.0125 I-0.0125 J0.
G1 X2.0025
G18 G3 X1.99 Z-0.7688 I0. K0.0125
G0 Z1.
X0.6263 Y3.9834
Z0.2
G1 Z0.0394 F10.
Z-0.7688
X0.6266 Y3.9836 Z-0.7715 F45.
X0.6274 Y3.984 Z-0.7742
X0.6287 Y3.9848 Z-0.7765
X0.6304 Y3.9858 Z-0.7785
X0.6324 Y3.987 Z-0.78
X0.6347 Y3.9883 Z-0.7809
X0.6371 Y3.9897 Z-0.7812
X0.6479 Y3.9959 Z-0.7813
G17 G3 X0.6525 Y4.013 I-0.0063 J0.0108
X0.6075 Y3.987 I-0.0225 J-0.013
X0.6525 Y4.013 I0.0225 J0.013
X0.6354 Y4.0176 I-0.0108 J-0.0063
G1 X0.6246 Y4.0113
X0.6222 Y4.0099 Z-0.7809
X0.6199 Y4.0086 Z-0.78
X0.6179 Y4.0074 Z-0.7785
X0.6162 Y4.0064 Z-0.7765
X0.6149 Y4.0057 Z-0.7742
X0.6141 Y4.0052 Z-0.7715
X0.6138 Y4.0051 Z-0.7688
G0 Z1.
X5.99 Y3.9875
Z0.2
G1 Z0.0394 F10.
Z-0.7688
G18 G2 X6.0025 Z-0.7813 I0.0125 K0. F45.
G1 X6.015
G17 G3 X6.0275 Y4. I0. J0.0125
X5.9725 I-0.0275 J0.
X6.0275 I0.0275 J0.
X6.015 Y4.0125 I-0.0125 J0.
G1 X6.0025
G18 G3 X5.99 Z-0.7688 I0. K0.0125
G0 Z1.
X7.3663 Y3.9834
Z0.2
G1 Z0.0394 F10.
Z-0.7688
X7.3666 Y3.9836 Z-0.7715 F45.
X7.3674 Y3.984 Z-0.7742
X7.3687 Y3.9848 Z-0.7765
X7.3704 Y3.9858 Z-0.7785
X7.3724 Y3.987 Z-0.78
X7.3747 Y3.9883 Z-0.7809
X7.3771 Y3.9897 Z-0.7812
X7.3879 Y3.9959 Z-0.7813
G17 G3 X7.3925 Y4.013 I-0.0063 J0.0108
X7.3475 Y3.987 I-0.0225 J-0.013
X7.3925 Y4.013 I0.0225 J0.013
X7.3754 Y4.0176 I-0.0108 J-0.0063
G1 X7.3646 Y4.0113
X7.3622 Y4.0099 Z-0.7809
X7.3599 Y4.0086 Z-0.78
X7.3579 Y4.0074 Z-0.7785
X7.3562 Y4.0064 Z-0.7765
X7.3549 Y4.0057 Z-0.7742
X7.3541 Y4.0052 Z-0.7715
X7.3538 Y4.0051 Z-0.7688
G0 Z1.4
M02

(2D CONTOUR4)
G0 X1.2024 Y1.5481
Z1.4
Z0.2
G1 Z0.1644 F10.
Z-0.1125
X1.2026 Y1.5483 Z-0.1153 F45.
X1.2033 Y1.5489 Z-0.1179
X1.2044 Y1.5499 Z-0.1203
X1.2059 Y1.5512 Z-0.1223
X1.2077 Y1.5527 Z-0.1238
X1.2097 Y1.5545 Z-0.1247
X1.2118 Y1.5563 Z-0.125
X1.2212 Y1.5645
G3 X1.2225 Y1.5821 I-0.0082 J0.0094
G2 X6.7775 Y6.4179 I2.7775 J2.4179
Y1.5821 I-2.7775 J-2.4179
X6.6862 Y1.579 I-0.0471 J0.041
G1 X6.5866 Y1.6786
G3 X6.5191 Y1.6648 I-0.0233 J-0.058
G1 X6.3352 Y1.4809
G3 X6.3214 Y1.4134 I0.0442 J-0.0442
G1 X6.421 Y1.3138
G2 X6.4179 Y1.2225 I-0.0442 J-0.0442
X1.5821 I-2.4179 J2.7775
X1.579 Y1.3138 I0.041 J0.0471
G1 X1.6786 Y1.4134
G3 X1.6648 Y1.4809 I-0.058 J0.0233
G1 X1.4809 Y1.6648
G3 X1.4134 Y1.6786 I-0.0442 J-0.0442
G1 X1.3138 Y1.579
G2 X1.2225 Y1.5821 I-0.0442 J0.0442
G3 X1.2048 Y1.5833 I-0.0094 J-0.0082
G1 X1.1954 Y1.5751
X1.1933 Y1.5733 Z-0.1247
X1.1913 Y1.5716 Z-0.1238
X1.1895 Y1.57 Z-0.1223
X1.188 Y1.5687 Z-0.1203
X1.1869 Y1.5677 Z-0.1179
X1.1862 Y1.5671 Z-0.1153
X1.186 Y1.5669 Z-0.1125
G0 Z1.
X1.2024 Y1.5481
Z0.2
G1 Z0.0394 F10.
Z-0.2375
X1.2026 Y1.5483 Z-0.2403 F45.
X1.2033 Y1.5489 Z-0.2429
X1.2044 Y1.5499 Z-0.2453
X1.2059 Y1.5512 Z-0.2473
X1.2077 Y1.5527 Z-0.2488
X1.2097 Y1.5545 Z-0.2497
X1.2118 Y1.5563 Z-0.25
X1.2212 Y1.5645
G3 X1.2225 Y1.5821 I-0.0082 J0.0094
G2 X6.7775 Y6.4179 I2.7775 J2.4179
Y1.5821 I-2.7775 J-2.4179
X6.6862 Y1.579 I-0.0471 J0.041
G1 X6.5866 Y1.6786
G3 X6.5191 Y1.6648 I-0.0233 J-0.058
G1 X6.3352 Y1.4809
G3 X6.3214 Y1.4134 I0.0442 J-0.0442
G1 X6.421 Y1.3138
G2 X6.4179 Y1.2225 I-0.0442 J-0.0442
X1.5821 I-2.4179 J2.7775
X1.579 Y1.3138 I0.041 J0.0471
G1 X1.6786 Y1.4134
G3 X1.6648 Y1.4809 I-0.058 J0.0233
G1 X1.4809 Y1.6648
G3 X1.4134 Y1.6786 I-0.0442 J-0.0442
G1 X1.3138 Y1.579
G2 X1.2225 Y1.5821 I-0.0442 J0.0442
G3 X1.2048 Y1.5833 I-0.0094 J-0.0082
G1 X1.1954 Y1.5751
X1.1933 Y1.5733 Z-0.2497
X1.1913 Y1.5716 Z-0.2488
X1.1895 Y1.57 Z-0.2473
X1.188 Y1.5687 Z-0.2453
X1.1869 Y1.5677 Z-0.2429
X1.1862 Y1.5671 Z-0.2403
X1.186 Y1.5669 Z-0.2375
G0 Z1.
X1.2024 Y1.5481
Z0.2
G1 Z-0.0856 F10.
Z-0.3625
X1.2026 Y1.5483 Z-0.3653 F45.
X1.2033 Y1.5489 Z-0.3679
X1.2044 Y1.5499 Z-0.3703
X1.2059 Y1.5512 Z-0.3723
X1.2077 Y1.5527 Z-0.3738
X1.2097 Y1.5545 Z-0.3747
X1.2118 Y1.5563 Z-0.375
X1.2212 Y1.5645
G3 X1.2225 Y1.5821 I-0.0082 J0.0094
G2 X6.7775 Y6.4179 I2.7775 J2.4179
Y1.5821 I-2.7775 J-2.4179
X6.6862 Y1.579 I-0.0471 J0.041
G1 X6.5866 Y1.6786
G3 X6.5191 Y1.6648 I-0.0233 J-0.058
G1 X6.3352 Y1.4809
G3 X6.3214 Y1.4134 I0.0442 J-0.0442
G1 X6.421 Y1.3138
G2 X6.4179 Y1.2225 I-0.0442 J-0.0442
X1.5821 I-2.4179 J2.7775
X1.579 Y1.3138 I0.041 J0.0471
G1 X1.6786 Y1.4134
G3 X1.6648 Y1.4809 I-0.058 J0.0233
G1 X1.4809 Y1.6648
G3 X1.4134 Y1.6786 I-0.0442 J-0.0442
G1 X1.3138 Y1.579
G2 X1.2225 Y1.5821 I-0.0442 J0.0442
G3 X1.2048 Y1.5833 I-0.0094 J-0.0082
G1 X1.1954 Y1.5751
X1.1933 Y1.5733 Z-0.3747
X1.1913 Y1.5716 Z-0.3738
X1.1895 Y1.57 Z-0.3723
X1.188 Y1.5687 Z-0.3703
X1.1869 Y1.5677 Z-0.3679
X1.1862 Y1.5671 Z-0.3653
X1.186 Y1.5669 Z-0.3625
G0 Z1.
X1.2024 Y1.5481
Z0.2
G1 Z-0.2106 F10.
Z-0.4875
X1.2026 Y1.5483 Z-0.4903 F45.
X1.2033 Y1.5489 Z-0.4929
X1.2044 Y1.5499 Z-0.4953
X1.2059 Y1.5512 Z-0.4973
X1.2077 Y1.5527 Z-0.4988
X1.2097 Y1.5545 Z-0.4997
X1.2118 Y1.5563 Z-0.5
X1.2212 Y1.5645
G3 X1.2225 Y1.5821 I-0.0082 J0.0094
G2 X6.7775 Y6.4179 I2.7775 J2.4179
Y1.5821 I-2.7775 J-2.4179
X6.6862 Y1.579 I-0.0471 J0.041
G1 X6.5866 Y1.6786
G3 X6.5191 Y1.6648 I-0.0233 J-0.058
G1 X6.3352 Y1.4809
G3 X6.3214 Y1.4134 I0.0442 J-0.0442
G1 X6.421 Y1.3138
G2 X6.4179 Y1.2225 I-0.0442 J-0.0442
X1.5821 I-2.4179 J2.7775
X1.579 Y1.3138 I0.041 J0.0471
G1 X1.6786 Y1.4134
G3 X1.6648 Y1.4809 I-0.058 J0.0233
G1 X1.4809 Y1.6648
G3 X1.4134 Y1.6786 I-0.0442 J-0.0442
G1 X1.3138 Y1.579
G2 X1.2225 Y1.5821 I-0.0442 J0.0442
G3 X1.2048 Y1.5833 I-0.0094 J-0.0082
G1 X1.1954 Y1.5751
X1.1933 Y1.5733 Z-0.4997
X1.1913 Y1.5716 Z-0.4988
X1.1895 Y1.57 Z-0.4973
X1.188 Y1.5687 Z-0.4953
X1.1869 Y1.5677 Z-0.4929
X1.1862 Y1.5671 Z-0.4903
X1.186 Y1.5669 Z-0.4875
G0 Z1.
X1.2024 Y1.5481
Z0.2
G1 Z-0.3356 F10.
Z-0.6125
X1.2026 Y1.5483 Z-0.6153 F45.
X1.2033 Y1.5489 Z-0.6179
X1.2044 Y1.5499 Z-0.6203
X1.2059 Y1.5512 Z-0.6223
X1.2077 Y1.5527 Z-0.6238
X1.2097 Y1.5545 Z-0.6247
X1.2118 Y1.5563 Z-0.625
X1.2212 Y1.5645
G3 X1.2225 Y1.5821 I-0.0082 J0.0094
G2 X6.7775 Y6.4179 I2.7775 J2.4179
Y1.5821 I-2.7775 J-2.4179
X6.6862 Y1.579 I-0.0471 J0.041
G1 X6.5866 Y1.6786
G3 X6.5191 Y1.6648 I-0.0233 J-0.058
G1 X6.3352 Y1.4809
G3 X6.3214 Y1.4134 I0.0442 J-0.0442
G1 X6.421 Y1.3138
G2 X6.4179 Y1.2225 I-0.0442 J-0.0442
X1.5821 I-2.4179 J2.7775
X1.579 Y1.3138 I0.041 J0.0471
G1 X1.6786 Y1.4134
G3 X1.6648 Y1.4809 I-0.058 J0.0233
G1 X1.4809 Y1.6648
G3 X1.4134 Y1.6786 I-0.0442 J-0.0442
G1 X1.3138 Y1.579
G2 X1.2225 Y1.5821 I-0.0442 J0.0442
G3 X1.2048 Y1.5833 I-0.0094 J-0.0082
G1 X1.1954 Y1.5751
X1.1933 Y1.5733 Z-0.6247
X1.1913 Y1.5716 Z-0.6238
X1.1895 Y1.57 Z-0.6223
X1.188 Y1.5687 Z-0.6203
X1.1869 Y1.5677 Z-0.6179
X1.1862 Y1.5671 Z-0.6153
X1.186 Y1.5669 Z-0.6125
G0 Z1.
X1.2024 Y1.5481
Z0.2
G1 Z-0.4606 F10.
Z-0.7375
X1.2026 Y1.5483 Z-0.7403 F45.
X1.2033 Y1.5489 Z-0.7429
X1.2044 Y1.5499 Z-0.7453
X1.2059 Y1.5512 Z-0.7473
X1.2077 Y1.5527 Z-0.7488
X1.2097 Y1.5545 Z-0.7497
X1.2118 Y1.5563 Z-0.75
X1.2212 Y1.5645
G3 X1.2225 Y1.5821 I-0.0082 J0.0094
G2 X6.7775 Y6.4179 I2.7775 J2.4179
Y1.5821 I-2.7775 J-2.4179
X6.6862 Y1.579 I-0.0471 J0.041
G1 X6.5866 Y1.6786
G3 X6.5191 Y1.6648 I-0.0233 J-0.058
G1 X6.3352 Y1.4809
G3 X6.3214 Y1.4134 I0.0442 J-0.0442
G1 X6.421 Y1.3138
G2 X6.4179 Y1.2225 I-0.0442 J-0.0442
X1.5821 I-2.4179 J2.7775
X1.579 Y1.3138 I0.041 J0.0471
G1 X1.6786 Y1.4134
G3 X1.6648 Y1.4809 I-0.058 J0.0233
G1 X1.4809 Y1.6648
G3 X1.4134 Y1.6786 I-0.0442 J-0.0442
G1 X1.3138 Y1.579
G2 X1.2225 Y1.5821 I-0.0442 J0.0442
G3 X1.2048 Y1.5833 I-0.0094 J-0.0082
G1 X1.1954 Y1.5751
X1.1933 Y1.5733 Z-0.7497
X1.1913 Y1.5716 Z-0.7488
X1.1895 Y1.57 Z-0.7473
X1.188 Y1.5687 Z-0.7453
X1.1869 Y1.5677 Z-0.7429
X1.1862 Y1.5671 Z-0.7403
X1.186 Y1.5669 Z-0.7375
G0 Z1.
X1.2024 Y1.5481
Z0.2
G1 Z-0.5856 F10.
Z-0.7688
X1.2026 Y1.5483 Z-0.7715 F45.
X1.2033 Y1.5489 Z-0.7742
X1.2044 Y1.5499 Z-0.7765
X1.2059 Y1.5512 Z-0.7785
X1.2077 Y1.5527 Z-0.78
X1.2097 Y1.5545 Z-0.7809
X1.2118 Y1.5563 Z-0.7813
X1.2212 Y1.5645
G3 X1.2225 Y1.5821 I-0.0082 J0.0094
G2 X6.7775 Y6.4179 I2.7775 J2.4179
Y1.5821 I-2.7775 J-2.4179
X6.6862 Y1.579 I-0.0471 J0.041
G1 X6.5866 Y1.6786
G3 X6.5191 Y1.6648 I-0.0233 J-0.058
G1 X6.3352 Y1.4809
G3 X6.3214 Y1.4134 I0.0442 J-0.0442
G1 X6.421 Y1.3138
G2 X6.4179 Y1.2225 I-0.0442 J-0.0442
X1.5821 I-2.4179 J2.7775
X1.579 Y1.3138 I0.041 J0.0471
G1 X1.6786 Y1.4134
G3 X1.6648 Y1.4809 I-0.058 J0.0233
G1 X1.4809 Y1.6648
G3 X1.4134 Y1.6786 I-0.0442 J-0.0442
G1 X1.3138 Y1.579
G2 X1.2225 Y1.5821 I-0.0442 J0.0442
G3 X1.2048 Y1.5833 I-0.0094 J-0.0082
G1 X1.1954 Y1.5751
X1.1933 Y1.5733 Z-0.7809
X1.1913 Y1.5716 Z-0.78
X1.1895 Y1.57 Z-0.7785
X1.188 Y1.5687 Z-0.7765
X1.1869 Y1.5677 Z-0.7742
X1.1862 Y1.5671 Z-0.7715
X1.186 Y1.5669 Z-0.7688
G0 Z1.4

M30
