(SB50 CONTOUR)
(T1  D=0.25 CR=0. - ZMIN=-0.175 - FLAT END MILL)
G90 G94 G91.1 G40 G49 G17
G20

(2D CONTOUR1 2)
G0 X0. Y0. Z0.6
M5
T1 M6
S15000 M3
G4 P5.
G54
M7
G0 X0.0469 Y2.8037
G43 Z0.6 H1
Z0.2
G1 Z0.125 F13.3
X0.0471 Y2.8034 Z0.1211 F40.
X0.0475 Y2.8026 Z0.1173
X0.0482 Y2.8013 Z0.1137
X0.0493 Y2.7995 Z0.1103
X0.0505 Y2.7973 Z0.1073
X0.052 Y2.7947 Z0.1048
X0.0536 Y2.7918 Z0.1027
X0.0554 Y2.7887 Z0.1012
X0.0573 Y2.7853 Z0.1003
X0.0592 Y2.7819 Z0.1
X0.0715 Y2.7602
G3 X0.1056 Y2.7507 I0.0218 J0.0123
G2 X0.29 Y2.7992 Z0.0966 I0.1844 J-0.3265 F13.3
G1 X1.29 Z0.0792
G2 X1.665 Y2.4242 Z0.0689 I0. J-0.375
G1 Y0.29 Z0.0316
G2 X1.29 Y-0.085 Z0.0214 I-0.375 J0.
G1 X0.29 Z0.0039
G2 X-0.085 Y0.29 Z-0.0064 I0. J0.375
G1 Y1.3571 Z-0.025
Y2.4242 F40.
G2 X0.29 Y2.7992 I0.375 J0.
G1 X1.29
G2 X1.665 Y2.4242 I0. J-0.375
G1 Y0.29
G2 X1.29 Y-0.085 I-0.375 J0.
G1 X0.29
G2 X-0.085 Y0.29 I0. J0.375
G1 Y1.3571
Y2.4242 Z-0.0436 F13.3
G2 X0.0792 Y2.7343 Z-0.05 I0.375 J0.
X0.29 Y2.7992 I0.2108 J-0.3101 F40.
G1 X1.29
G2 X1.665 Y2.4242 I0. J-0.375
G1 Y0.29
G2 X1.29 Y-0.085 I-0.375 J0.
G1 X0.29
G2 X-0.085 Y0.29 I0. J0.375
G1 Y1.3571
Y2.4242
G2 X0.0792 Y2.7343 I0.375 J0.
X0.29 Y2.7992 Z-0.0539 I0.2108 J-0.3101 F13.3
G1 X1.29 Z-0.0714
G2 X1.4878 Y2.7428 Z-0.075 I0. J-0.375
X1.665 Y2.4242 I-0.1978 J-0.3186 F40.
G1 Y0.29
G2 X1.29 Y-0.085 I-0.375 J0.
G1 X0.29
G2 X-0.085 Y0.29 I0. J0.375
G1 Y2.4242
G2 X0.29 Y2.7992 I0.375 J0.
G1 X1.29
G2 X1.4878 Y2.7428 I0. J-0.375
X1.665 Y2.4242 Z-0.0816 I-0.1978 J-0.3186 F13.3
G1 Y1.3726 Z-0.1
Y0.29 F40.
G2 X1.29 Y-0.085 I-0.375 J0.
G1 X0.29
G2 X-0.085 Y0.29 I0. J0.375
G1 Y2.4242
G2 X0.29 Y2.7992 I0.375 J0.
G1 X1.29
G2 X1.665 Y2.4242 I0. J-0.375
G1 Y1.3726
Y0.29 Z-0.1189 F13.3
G2 X1.5135 Y-0.0111 Z-0.125 I-0.375 J0.
X1.29 Y-0.085 I-0.2235 J0.3011 F40.
G1 X0.29
G2 X-0.085 Y0.29 I0. J0.375
G1 Y2.4242
G2 X0.29 Y2.7992 I0.375 J0.
G1 X1.29
G2 X1.665 Y2.4242 I0. J-0.375
G1 Y0.29
G2 X1.5135 Y-0.0111 I-0.375 J0.
X1.29 Y-0.085 Z-0.1292 I-0.2235 J0.3011 F13.3
G1 X0.29 Z-0.1466
G2 X0.1056 Y-0.0365 Z-0.15 I0. J0.375
X-0.085 Y0.29 I0.1844 J0.3265 F40.
G1 Y2.4242
G2 X0.29 Y2.7992 I0.375 J0.
G1 X1.29
G2 X1.665 Y2.4242 I0. J-0.375
G1 Y0.29
G2 X1.29 Y-0.085 I-0.375 J0.
G1 X0.29
G2 X0.1056 Y-0.0365 I0. J0.375
X-0.085 Y0.29 Z-0.1569 I0.1844 J0.3265 F13.3
G1 Y1.326 Z-0.175
Y2.4242 F40.
G2 X0.29 Y2.7992 I0.375 J0.
G1 X1.29
G2 X1.665 Y2.4242 I0. J-0.375
G1 Y0.29
G2 X1.29 Y-0.085 I-0.375 J0.
G1 X0.29
G2 X-0.085 Y0.29 I0. J0.375
G1 Y1.326
G3 X-0.11 Y1.351 I-0.025 J0.
G1 X-0.135
G18 G3 X-0.16 Z-0.15 I0. K0.025
G0 Z0.6
G17

M9
M30
