(SB50 CONTOUR)
(T1  D=0.25 CR=0. - ZMIN=-0.175 - FLAT END MILL)
G90 G94 G91.1 G40 G49 G17
G20

(2D CONTOUR1 2)
G0 X0. Y0. Z0.6
M5
T1 M6
S15000 M3
G4 P5.
G54
M7
G0 X0.6451 Y2.8742
G43 Z0.6 H1
Z0.2
G1 Z0.125 F25.
G19 G2 Y2.8492 Z0.1 J-0.025 K0. F75.
G1 Y2.8242
G17 G3 X0.6701 Y2.7992 I0.025 J0.
G1 X1.29 Z0.0892 F25.
G2 X1.665 Y2.4242 Z0.0789 I0. J-0.375
G1 Y0.29 Z0.0416
G2 X1.29 Y-0.085 Z0.0314 I-0.375 J0.
G1 X0.29 Z0.0139
G2 X-0.085 Y0.29 Z0.0036 I0. J0.375
G1 Y1.3571 Z-0.015
Y2.4242 F75.
G2 X0.29 Y2.7992 I0.375 J0.
G1 X1.29
G2 X1.665 Y2.4242 I0. J-0.375
G1 Y0.29
G2 X1.29 Y-0.085 I-0.375 J0.
G1 X0.29
G2 X-0.085 Y0.29 I0. J0.375
G1 Y1.3571
Y2.2164 Z-0.03 F25.
Y2.4242 F75.
G2 X0.29 Y2.7992 I0.375 J0.
G1 X1.29
G2 X1.665 Y2.4242 I0. J-0.375
G1 Y0.29
G2 X1.29 Y-0.085 I-0.375 J0.
G1 X0.29
G2 X-0.085 Y0.29 I0. J0.375
G1 Y1.3571
Y2.2164
Y2.4242 Z-0.0336 F25.
G2 X0.29 Y2.7992 Z-0.0439 I0.375 J0.
G1 X0.3526 Z-0.045
X1.29 F75.
G2 X1.665 Y2.4242 I0. J-0.375
G1 Y0.29
G2 X1.29 Y-0.085 I-0.375 J0.
G1 X0.29
G2 X-0.085 Y0.29 I0. J0.375
G1 Y2.2164
Y2.4242
G2 X0.29 Y2.7992 I0.375 J0.
G1 X0.3526
X1.2119 Z-0.06 F25.
X1.29 F75.
G2 X1.665 Y2.4242 I0. J-0.375
G1 Y0.29
G2 X1.29 Y-0.085 I-0.375 J0.
G1 X0.29
G2 X-0.085 Y0.29 I0. J0.375
G1 Y2.4242
G2 X0.29 Y2.7992 I0.375 J0.
G1 X1.2119
X1.29 Z-0.0614 F25.
G2 X1.665 Y2.4242 Z-0.0716 I0. J-0.375
G1 Y2.232 Z-0.075
Y0.29 F75.
G2 X1.29 Y-0.085 I-0.375 J0.
G1 X0.29
G2 X-0.085 Y0.29 I0. J0.375
G1 Y2.4242
G2 X0.29 Y2.7992 I0.375 J0.
G1 X1.2119
X1.29
G2 X1.665 Y2.4242 I0. J-0.375
G1 Y2.232
Y1.3726 Z-0.09 F25.
Y0.29 F75.
G2 X1.29 Y-0.085 I-0.375 J0.
G1 X0.29
G2 X-0.085 Y0.29 I0. J0.375
G1 Y2.4242
G2 X0.29 Y2.7992 I0.375 J0.
G1 X1.29
G2 X1.665 Y2.4242 I0. J-0.375
G1 Y1.3726
Y0.5133 Z-0.105 F25.
Y0.29 F75.
G2 X1.29 Y-0.085 I-0.375 J0.
G1 X0.29
G2 X-0.085 Y0.29 I0. J0.375
G1 Y2.4242
G2 X0.29 Y2.7992 I0.375 J0.
G1 X1.29
G2 X1.665 Y2.4242 I0. J-0.375
G1 Y1.3726
Y0.5133
Y0.29 Z-0.1089 F25.
G2 X1.29 Y-0.085 Z-0.1192 I-0.375 J0.
G1 X1.243 Z-0.12
X0.29 F75.
G2 X-0.085 Y0.29 I0. J0.375
G1 Y2.4242
G2 X0.29 Y2.7992 I0.375 J0.
G1 X1.29
G2 X1.665 Y2.4242 I0. J-0.375
G1 Y0.5133
Y0.29
G2 X1.29 Y-0.085 I-0.375 J0.
G1 X1.243
X0.3836 Z-0.135 F25.
X0.29 F75.
G2 X-0.085 Y0.29 I0. J0.375
G1 Y2.4242
G2 X0.29 Y2.7992 I0.375 J0.
G1 X1.29
G2 X1.665 Y2.4242 I0. J-0.375
G1 Y0.29
G2 X1.29 Y-0.085 I-0.375 J0.
G1 X0.3836
X0.29 Z-0.1366 F25.
G2 X-0.085 Y0.29 Z-0.1469 I0. J0.375
G1 Y0.4667 Z-0.15
Y2.4242 F75.
G2 X0.29 Y2.7992 I0.375 J0.
G1 X1.29
G2 X1.665 Y2.4242 I0. J-0.375
G1 Y0.29
G2 X1.29 Y-0.085 I-0.375 J0.
G1 X0.3836
X0.29
G2 X-0.085 Y0.29 I0. J0.375
G1 Y0.4667
Y1.326 Z-0.165 F25.
Y2.4242 F75.
G2 X0.29 Y2.7992 I0.375 J0.
G1 X1.29
G2 X1.665 Y2.4242 I0. J-0.375
G1 Y0.29
G2 X1.29 Y-0.085 I-0.375 J0.
G1 X0.29
G2 X-0.085 Y0.29 I0. J0.375
G1 Y1.326
Y1.8989 Z-0.175 F25.
Y2.4242 F75.
G2 X0.29 Y2.7992 I0.375 J0.
G1 X1.29
G2 X1.665 Y2.4242 I0. J-0.375
G1 Y0.29
G2 X1.29 Y-0.085 I-0.375 J0.
G1 X0.29
G2 X-0.085 Y0.29 I0. J0.375
G1 Y1.326
Y1.8989
G3 X-0.11 Y1.9239 I-0.025 J0.
G1 X-0.135
G18 G3 X-0.16 Z-0.15 I0. K0.025
G0 Z0.6
G17

M9
M30
