(X4 FEEDER PLATE 2 LIGHT CONTOUR)
(T3  D=0.118 CR=0. - ZMIN=-0.02 - FLAT END MILL)
G90 G94 G91.1 G40 G49 G17
G20

(2D CONTOUR1)
M5
T3 M6
S15000 M3
g4 p5
G54
M8
G0 X2.9397 Y7.5114
G43 Z0.6 H3
Z0.2
G1 Z0.1118 F20.
G19 G2 Y7.4996 Z0.1 J-0.0118 K0. F40.
G1 Y7.4878
G17 G3 X2.9515 Y7.476 I0.0118 J0.
G1 X5.3095 Z0.0588 F20.
G2 X5.6185 Y7.167 Z0.0504 I0. J-0.309
G1 Y3.7085 Z-0.01
Y1.167 F40.
G2 X5.3095 Y0.858 I-0.309 J0.
G1 X4.9299
G3 X4.2146 Y0.7697 I0. J-2.941
G1 X0.9465 Y-0.0497
G2 X0.5716 Y0.1748 I-0.0752 J0.2997
G1 X0.0644 Y2.1977
G2 X0.289 Y2.5726 I0.2997 J0.0752
G1 X1.259 Y2.8158
G3 X1.3978 Y3.0475 I-0.0465 J0.1853
G1 X1.3608 Y3.1952
G3 X1.216 Y3.3354 I-0.1853 J-0.0464
G2 X0.8887 Y6.39 I0.3435 J1.5816
G3 X1.0005 Y6.5638 I-0.0792 J0.1738
G1 Y7.167
G2 X1.3095 Y7.476 I0.309 J0.
G1 X5.3095
G2 X5.6185 Y7.167 I0. J-0.309
G1 Y3.7085
Y3.1356 Z-0.02 F20.
Y1.167 F40.
G2 X5.3095 Y0.858 I-0.309 J0.
G1 X4.9299
G3 X4.2146 Y0.7697 I0. J-2.941
G1 X0.9465 Y-0.0497
G2 X0.5716 Y0.1748 I-0.0752 J0.2997
G1 X0.0644 Y2.1977
G2 X0.289 Y2.5726 I0.2997 J0.0752
G1 X1.259 Y2.8158
G3 X1.3978 Y3.0475 I-0.0465 J0.1853
G1 X1.3608 Y3.1952
G3 X1.216 Y3.3354 I-0.1853 J-0.0464
G2 X0.8887 Y6.39 I0.3435 J1.5816
G3 X1.0005 Y6.5638 I-0.0792 J0.1738
G1 Y7.167
G2 X1.3095 Y7.476 I0.309 J0.
G1 X5.3095
G2 X5.6185 Y7.167 I0. J-0.309
G1 Y3.7085
Y3.1356
G3 X5.6303 Y3.1238 I0.0118 J0.
G1 X5.6421
G18 G2 X5.6539 Z-0.0082 I0. K0.0118
G0 Z0.6
G17

M9
M30
