(TURRET STEP 3)
(T3  D=0.118 CR=0. - ZMIN=-0.145 - FLAT END MILL)
G90 G94 G91.1 G40 G49 G17
G20

(2D POCKET3)
M5
T3 M6
S15000 M3
g4 p5
G54
M8
G0 X0.5993 Y8.65
G43 Z0.6 H3
Z0.2
G1 Z0.1118 F30.
X0.5982 Y8.649 Z0.106
X0.5952 Y8.6461 Z0.1017
X0.5915 Y8.6417 Z0.1
G3 X0.68 Y8.573 Z0.0939 I0.0443 J-0.0344
X0.5915 Y8.6417 Z0.0877 I-0.0443 J0.0344
X0.68 Y8.573 Z0.0816 I0.0443 J-0.0344
X0.5915 Y8.6417 Z0.0754 I-0.0443 J0.0344
X0.68 Y8.573 Z0.0693 I0.0443 J-0.0344
X0.5915 Y8.6417 Z0.0631 I-0.0443 J0.0344
X0.68 Y8.573 Z0.057 I0.0443 J-0.0344
X0.5915 Y8.6417 Z0.0508 I-0.0443 J0.0344
X0.68 Y8.573 Z0.0447 I0.0443 J-0.0344
X0.5915 Y8.6417 Z0.0385 I-0.0443 J0.0344
X0.68 Y8.573 Z0.0324 I0.0443 J-0.0344
X0.5915 Y8.6417 Z0.0262 I-0.0443 J0.0344
X0.68 Y8.573 Z0.0201 I0.0443 J-0.0344
X0.5915 Y8.6417 Z0.0139 I-0.0443 J0.0344
X0.68 Y8.573 Z0.0078 I0.0443 J-0.0344
X0.5915 Y8.6417 Z0.0016 I-0.0443 J0.0344
X0.68 Y8.573 Z-0.0045 I0.0443 J-0.0344
X0.5915 Y8.6417 Z-0.0107 I-0.0443 J0.0344
X0.68 Y8.573 Z-0.0168 I0.0443 J-0.0344
X0.6918 Y8.6074 Z-0.0181 I-0.0443 J0.0344
X0.6263 I-0.0328 J0.
X0.6945 I0.0341 J0. F40.
X0.5555 I-0.0695 J0.
X0.6945 I0.0695 J0.
X0.6859 Y8.6153 I-0.008 J0.
G1 X0.5877 Y8.6075
G3 X0.5805 Y8.5982 I0.0006 J-0.008
X0.691 Y8.6165 Z-0.0243 I0.0553 J0.0092 F30.
X0.5805 Y8.5982 Z-0.0304 I-0.0553 J-0.0092
X0.6918 Y8.6074 Z-0.0363 I0.0553 J0.0092
X0.6263 I-0.0328 J0.
X0.6945 I0.0341 J0. F40.
X0.5555 I-0.0695 J0.
X0.6945 I0.0695 J0.
X0.6859 Y8.6153 I-0.008 J0.
G1 X0.5877 Y8.6075
G3 X0.5805 Y8.5982 I0.0006 J-0.008
X0.691 Y8.6165 Z-0.0424 I0.0553 J0.0092 F30.
X0.5805 Y8.5982 Z-0.0485 I-0.0553 J-0.0092
X0.6918 Y8.6074 Z-0.0544 I0.0553 J0.0092
X0.6263 I-0.0328 J0.
X0.6945 I0.0341 J0. F40.
X0.5555 I-0.0695 J0.
X0.6945 I0.0695 J0.
X0.6859 Y8.6153 I-0.008 J0.
G1 X0.5877 Y8.6075
G3 X0.5805 Y8.5982 I0.0006 J-0.008
X0.691 Y8.6165 Z-0.0605 I0.0553 J0.0092 F30.
X0.5805 Y8.5982 Z-0.0667 I-0.0553 J-0.0092
X0.6918 Y8.6074 Z-0.0725 I0.0553 J0.0092
X0.6263 I-0.0328 J0.
X0.6945 I0.0341 J0. F40.
X0.5555 I-0.0695 J0.
X0.6945 I0.0695 J0.
X0.6859 Y8.6153 I-0.008 J0.
G1 X0.5877 Y8.6075
G3 X0.5805 Y8.5982 I0.0006 J-0.008
X0.691 Y8.6165 Z-0.0786 I0.0553 J0.0092 F30.
X0.5805 Y8.5982 Z-0.0848 I-0.0553 J-0.0092
X0.6918 Y8.6074 Z-0.0906 I0.0553 J0.0092
X0.6263 I-0.0328 J0.
X0.6945 I0.0341 J0. F40.
X0.5555 I-0.0695 J0.
X0.6945 I0.0695 J0.
X0.6859 Y8.6153 I-0.008 J0.
G1 X0.5877 Y8.6075
G3 X0.5805 Y8.5982 I0.0006 J-0.008
X0.691 Y8.6165 Z-0.0968 I0.0553 J0.0092 F30.
X0.5805 Y8.5982 Z-0.1029 I-0.0553 J-0.0092
X0.6918 Y8.6074 Z-0.1087 I0.0553 J0.0092
X0.6263 I-0.0328 J0.
X0.6945 I0.0341 J0. F40.
X0.5555 I-0.0695 J0.
X0.6945 I0.0695 J0.
X0.6859 Y8.6153 I-0.008 J0.
G1 X0.5877 Y8.6075
G3 X0.5805 Y8.5982 I0.0006 J-0.008
X0.691 Y8.6165 Z-0.1149 I0.0553 J0.0092 F30.
X0.5805 Y8.5982 Z-0.121 I-0.0553 J-0.0092
X0.6918 Y8.6074 Z-0.1269 I0.0553 J0.0092
X0.6263 I-0.0328 J0.
X0.6945 I0.0341 J0. F40.
X0.5555 I-0.0695 J0.
X0.6945 I0.0695 J0.
X0.6859 Y8.6153 I-0.008 J0.
G1 X0.5877 Y8.6075
G3 X0.5805 Y8.5982 I0.0006 J-0.008
X0.691 Y8.6165 Z-0.133 I0.0553 J0.0092 F30.
X0.5805 Y8.5982 Z-0.1392 I-0.0553 J-0.0092
X0.6918 Y8.6074 Z-0.145 I0.0553 J0.0092
X0.6263 I-0.0328 J0.
X0.6945 I0.0341 J0. F40.
X0.5555 I-0.0695 J0.
X0.6945 I0.0695 J0.
G1 X0.6943 Y8.6096 Z-0.1446
X0.6937 Y8.6118 Z-0.1441
X0.6928 Y8.6135 Z-0.1428
X0.6917 Y8.615 Z-0.1415
X0.6898 Y8.6168 Z-0.1377
X0.6891 Y8.6173 Z-0.1332
G0 Z0.2
X1.3543 Y5.8325
G1 Z0.1118 F30.
X1.3532 Y5.8315 Z0.106
X1.3502 Y5.8286 Z0.1017
X1.3465 Y5.8243 Z0.1
G3 X1.435 Y5.7555 Z0.0939 I0.0443 J-0.0344
X1.3465 Y5.8243 Z0.0877 I-0.0443 J0.0344
X1.435 Y5.7555 Z0.0816 I0.0443 J-0.0344
X1.3465 Y5.8243 Z0.0754 I-0.0443 J0.0344
X1.435 Y5.7555 Z0.0693 I0.0443 J-0.0344
X1.3465 Y5.8243 Z0.0631 I-0.0443 J0.0344
X1.435 Y5.7555 Z0.057 I0.0443 J-0.0344
X1.3465 Y5.8243 Z0.0508 I-0.0443 J0.0344
X1.435 Y5.7555 Z0.0447 I0.0443 J-0.0344
X1.3465 Y5.8243 Z0.0385 I-0.0443 J0.0344
X1.435 Y5.7555 Z0.0324 I0.0443 J-0.0344
X1.3465 Y5.8243 Z0.0262 I-0.0443 J0.0344
X1.435 Y5.7555 Z0.0201 I0.0443 J-0.0344
X1.3465 Y5.8243 Z0.0139 I-0.0443 J0.0344
X1.435 Y5.7555 Z0.0078 I0.0443 J-0.0344
X1.3465 Y5.8243 Z0.0016 I-0.0443 J0.0344
X1.435 Y5.7555 Z-0.0045 I0.0443 J-0.0344
X1.3465 Y5.8243 Z-0.0107 I-0.0443 J0.0344
X1.435 Y5.7555 Z-0.0168 I0.0443 J-0.0344
X1.4468 Y5.7899 Z-0.0181 I-0.0443 J0.0344
X1.3813 I-0.0327 J0.
X1.4495 I0.0341 J0. F40.
X1.3105 I-0.0695 J0.
X1.4495 I0.0695 J0.
X1.4408 Y5.7978 I-0.008 J0.
G1 X1.3427 Y5.79
G3 X1.3354 Y5.7807 I0.0006 J-0.008
X1.446 Y5.7991 Z-0.0243 I0.0553 J0.0092 F30.
X1.3354 Y5.7807 Z-0.0304 I-0.0553 J-0.0092
X1.4468 Y5.7899 Z-0.0363 I0.0553 J0.0092
X1.3813 I-0.0327 J0.
X1.4495 I0.0341 J0. F40.
X1.3105 I-0.0695 J0.
X1.4495 I0.0695 J0.
X1.4408 Y5.7978 I-0.008 J0.
G1 X1.3427 Y5.79
G3 X1.3354 Y5.7807 I0.0006 J-0.008
X1.446 Y5.7991 Z-0.0424 I0.0553 J0.0092 F30.
X1.3354 Y5.7807 Z-0.0485 I-0.0553 J-0.0092
X1.4468 Y5.7899 Z-0.0544 I0.0553 J0.0092
X1.3813 I-0.0327 J0.
X1.4495 I0.0341 J0. F40.
X1.3105 I-0.0695 J0.
X1.4495 I0.0695 J0.
X1.4408 Y5.7978 I-0.008 J0.
G1 X1.3427 Y5.79
G3 X1.3354 Y5.7807 I0.0006 J-0.008
X1.446 Y5.7991 Z-0.0605 I0.0553 J0.0092 F30.
X1.3354 Y5.7807 Z-0.0667 I-0.0553 J-0.0092
X1.4468 Y5.7899 Z-0.0725 I0.0553 J0.0092
X1.3813 I-0.0327 J0.
X1.4495 I0.0341 J0. F40.
X1.3105 I-0.0695 J0.
X1.4495 I0.0695 J0.
X1.4408 Y5.7978 I-0.008 J0.
G1 X1.3427 Y5.79
G3 X1.3354 Y5.7807 I0.0006 J-0.008
X1.446 Y5.7991 Z-0.0786 I0.0553 J0.0092 F30.
X1.3354 Y5.7807 Z-0.0848 I-0.0553 J-0.0092
X1.4468 Y5.7899 Z-0.0906 I0.0553 J0.0092
X1.3813 I-0.0327 J0.
X1.4495 I0.0341 J0. F40.
X1.3105 I-0.0695 J0.
X1.4495 I0.0695 J0.
X1.4408 Y5.7978 I-0.008 J0.
G1 X1.3427 Y5.79
G3 X1.3354 Y5.7807 I0.0006 J-0.008
X1.446 Y5.7991 Z-0.0968 I0.0553 J0.0092 F30.
X1.3354 Y5.7807 Z-0.1029 I-0.0553 J-0.0092
X1.4468 Y5.7899 Z-0.1087 I0.0553 J0.0092
X1.3813 I-0.0327 J0.
X1.4495 I0.0341 J0. F40.
X1.3105 I-0.0695 J0.
X1.4495 I0.0695 J0.
X1.4408 Y5.7978 I-0.008 J0.
G1 X1.3427 Y5.79
G3 X1.3354 Y5.7807 I0.0006 J-0.008
X1.446 Y5.7991 Z-0.1149 I0.0553 J0.0092 F30.
X1.3354 Y5.7807 Z-0.121 I-0.0553 J-0.0092
X1.4468 Y5.7899 Z-0.1269 I0.0553 J0.0092
X1.3813 I-0.0327 J0.
X1.4495 I0.0341 J0. F40.
X1.3105 I-0.0695 J0.
X1.4495 I0.0695 J0.
X1.4408 Y5.7978 I-0.008 J0.
G1 X1.3427 Y5.79
G3 X1.3354 Y5.7807 I0.0006 J-0.008
X1.446 Y5.7991 Z-0.133 I0.0553 J0.0092 F30.
X1.3354 Y5.7807 Z-0.1392 I-0.0553 J-0.0092
X1.4468 Y5.7899 Z-0.145 I0.0553 J0.0092
X1.3813 I-0.0327 J0.
X1.4495 I0.0341 J0. F40.
X1.3105 I-0.0695 J0.
X1.4495 I0.0695 J0.
G1 X1.4492 Y5.7921 Z-0.1446
X1.4486 Y5.7943 Z-0.1441
X1.4478 Y5.796 Z-0.1428
X1.4466 Y5.7975 Z-0.1415
X1.4448 Y5.7993 Z-0.1377
X1.444 Y5.7998 Z-0.1332
G0 Z0.2
X3.4168 Y3.7699
G1 Z0.1118 F30.
X3.4157 Y3.7689 Z0.106
X3.4127 Y3.766 Z0.1017
X3.409 Y3.7617 Z0.1
G3 X3.4975 Y3.6929 Z0.0939 I0.0443 J-0.0344
X3.409 Y3.7617 Z0.0877 I-0.0443 J0.0344
X3.4975 Y3.6929 Z0.0816 I0.0443 J-0.0344
X3.409 Y3.7617 Z0.0754 I-0.0443 J0.0344
X3.4975 Y3.6929 Z0.0693 I0.0443 J-0.0344
X3.409 Y3.7617 Z0.0631 I-0.0443 J0.0344
X3.4975 Y3.6929 Z0.057 I0.0443 J-0.0344
X3.409 Y3.7617 Z0.0508 I-0.0443 J0.0344
X3.4975 Y3.6929 Z0.0447 I0.0443 J-0.0344
X3.409 Y3.7617 Z0.0385 I-0.0443 J0.0344
X3.4975 Y3.6929 Z0.0324 I0.0443 J-0.0344
X3.409 Y3.7617 Z0.0262 I-0.0443 J0.0344
X3.4975 Y3.6929 Z0.0201 I0.0443 J-0.0344
X3.409 Y3.7617 Z0.0139 I-0.0443 J0.0344
X3.4975 Y3.6929 Z0.0078 I0.0443 J-0.0344
X3.409 Y3.7617 Z0.0016 I-0.0443 J0.0344
X3.4975 Y3.6929 Z-0.0045 I0.0443 J-0.0344
X3.409 Y3.7617 Z-0.0107 I-0.0443 J0.0344
X3.4975 Y3.6929 Z-0.0168 I0.0443 J-0.0344
X3.5093 Y3.7273 Z-0.0181 I-0.0443 J0.0344
X3.4438 I-0.0328 J0.
X3.512 I0.0341 J0. F40.
X3.373 I-0.0695 J0.
X3.512 I0.0695 J0.
X3.5034 Y3.7353 I-0.008 J0.
G1 X3.4052 Y3.7274
G3 X3.398 Y3.7181 I0.0006 J-0.008
X3.5085 Y3.7365 Z-0.0243 I0.0553 J0.0092 F30.
X3.398 Y3.7181 Z-0.0304 I-0.0553 J-0.0092
X3.5093 Y3.7273 Z-0.0363 I0.0553 J0.0092
X3.4438 I-0.0328 J0.
X3.512 I0.0341 J0. F40.
X3.373 I-0.0695 J0.
X3.512 I0.0695 J0.
X3.5034 Y3.7353 I-0.008 J0.
G1 X3.4052 Y3.7274
G3 X3.398 Y3.7181 I0.0006 J-0.008
X3.5085 Y3.7365 Z-0.0424 I0.0553 J0.0092 F30.
X3.398 Y3.7181 Z-0.0485 I-0.0553 J-0.0092
X3.5093 Y3.7273 Z-0.0544 I0.0553 J0.0092
X3.4438 I-0.0328 J0.
X3.512 I0.0341 J0. F40.
X3.373 I-0.0695 J0.
X3.512 I0.0695 J0.
X3.5034 Y3.7353 I-0.008 J0.
G1 X3.4052 Y3.7274
G3 X3.398 Y3.7181 I0.0006 J-0.008
X3.5085 Y3.7365 Z-0.0605 I0.0553 J0.0092 F30.
X3.398 Y3.7181 Z-0.0667 I-0.0553 J-0.0092
X3.5093 Y3.7273 Z-0.0725 I0.0553 J0.0092
X3.4438 I-0.0328 J0.
X3.512 I0.0341 J0. F40.
X3.373 I-0.0695 J0.
X3.512 I0.0695 J0.
X3.5034 Y3.7353 I-0.008 J0.
G1 X3.4052 Y3.7274
G3 X3.398 Y3.7181 I0.0006 J-0.008
X3.5085 Y3.7365 Z-0.0786 I0.0553 J0.0092 F30.
X3.398 Y3.7181 Z-0.0848 I-0.0553 J-0.0092
X3.5093 Y3.7273 Z-0.0906 I0.0553 J0.0092
X3.4438 I-0.0328 J0.
X3.512 I0.0341 J0. F40.
X3.373 I-0.0695 J0.
X3.512 I0.0695 J0.
X3.5034 Y3.7353 I-0.008 J0.
G1 X3.4052 Y3.7274
G3 X3.398 Y3.7181 I0.0006 J-0.008
X3.5085 Y3.7365 Z-0.0968 I0.0553 J0.0092 F30.
X3.398 Y3.7181 Z-0.1029 I-0.0553 J-0.0092
X3.5093 Y3.7273 Z-0.1087 I0.0553 J0.0092
X3.4438 I-0.0328 J0.
X3.512 I0.0341 J0. F40.
X3.373 I-0.0695 J0.
X3.512 I0.0695 J0.
X3.5034 Y3.7353 I-0.008 J0.
G1 X3.4052 Y3.7274
G3 X3.398 Y3.7181 I0.0006 J-0.008
X3.5085 Y3.7365 Z-0.1149 I0.0553 J0.0092 F30.
X3.398 Y3.7181 Z-0.121 I-0.0553 J-0.0092
X3.5093 Y3.7273 Z-0.1269 I0.0553 J0.0092
X3.4438 I-0.0328 J0.
X3.512 I0.0341 J0. F40.
X3.373 I-0.0695 J0.
X3.512 I0.0695 J0.
X3.5034 Y3.7353 I-0.008 J0.
G1 X3.4052 Y3.7274
G3 X3.398 Y3.7181 I0.0006 J-0.008
X3.5085 Y3.7365 Z-0.133 I0.0553 J0.0092 F30.
X3.398 Y3.7181 Z-0.1392 I-0.0553 J-0.0092
X3.5093 Y3.7273 Z-0.145 I0.0553 J0.0092
X3.4438 I-0.0328 J0.
X3.512 I0.0341 J0. F40.
X3.373 I-0.0695 J0.
X3.512 I0.0695 J0.
G1 X3.5118 Y3.7296 Z-0.1446
X3.5111 Y3.7317 Z-0.1441
X3.5103 Y3.7334 Z-0.1428
X3.5092 Y3.735 Z-0.1415
X3.5073 Y3.7367 Z-0.1377
X3.5066 Y3.7372 Z-0.1332
G0 Z0.2
X6.2343 Y3.015
G1 Z0.1118 F30.
X6.2332 Y3.014 Z0.106
X6.2302 Y3.0111 Z0.1017
X6.2265 Y3.0068 Z0.1
G3 X6.315 Y2.938 Z0.0939 I0.0443 J-0.0344
X6.2265 Y3.0068 Z0.0877 I-0.0443 J0.0344
X6.315 Y2.938 Z0.0816 I0.0443 J-0.0344
X6.2265 Y3.0068 Z0.0754 I-0.0443 J0.0344
X6.315 Y2.938 Z0.0693 I0.0443 J-0.0344
X6.2265 Y3.0068 Z0.0631 I-0.0443 J0.0344
X6.315 Y2.938 Z0.057 I0.0443 J-0.0344
X6.2265 Y3.0068 Z0.0508 I-0.0443 J0.0344
X6.315 Y2.938 Z0.0447 I0.0443 J-0.0344
X6.2265 Y3.0068 Z0.0385 I-0.0443 J0.0344
X6.315 Y2.938 Z0.0324 I0.0443 J-0.0344
X6.2265 Y3.0068 Z0.0262 I-0.0443 J0.0344
X6.315 Y2.938 Z0.0201 I0.0443 J-0.0344
X6.2265 Y3.0068 Z0.0139 I-0.0443 J0.0344
X6.315 Y2.938 Z0.0078 I0.0443 J-0.0344
X6.2265 Y3.0068 Z0.0016 I-0.0443 J0.0344
X6.315 Y2.938 Z-0.0045 I0.0443 J-0.0344
X6.2265 Y3.0068 Z-0.0107 I-0.0443 J0.0344
X6.315 Y2.938 Z-0.0168 I0.0443 J-0.0344
X6.3268 Y2.9724 Z-0.0181 I-0.0443 J0.0344
X6.2613 I-0.0328 J0.
X6.3295 I0.0341 J0. F40.
X6.1905 I-0.0695 J0.
X6.3295 I0.0695 J0.
X6.3209 Y2.9803 I-0.008 J0.
G1 X6.2227 Y2.9725
G3 X6.2155 Y2.9632 I0.0006 J-0.008
X6.326 Y2.9816 Z-0.0243 I0.0553 J0.0092 F30.
X6.2155 Y2.9632 Z-0.0304 I-0.0553 J-0.0092
X6.3268 Y2.9724 Z-0.0363 I0.0553 J0.0092
X6.2613 I-0.0328 J0.
X6.3295 I0.0341 J0. F40.
X6.1905 I-0.0695 J0.
X6.3295 I0.0695 J0.
X6.3209 Y2.9803 I-0.008 J0.
G1 X6.2227 Y2.9725
G3 X6.2155 Y2.9632 I0.0006 J-0.008
X6.326 Y2.9816 Z-0.0424 I0.0553 J0.0092 F30.
X6.2155 Y2.9632 Z-0.0485 I-0.0553 J-0.0092
X6.3268 Y2.9724 Z-0.0544 I0.0553 J0.0092
X6.2613 I-0.0328 J0.
X6.3295 I0.0341 J0. F40.
X6.1905 I-0.0695 J0.
X6.3295 I0.0695 J0.
X6.3209 Y2.9803 I-0.008 J0.
G1 X6.2227 Y2.9725
G3 X6.2155 Y2.9632 I0.0006 J-0.008
X6.326 Y2.9816 Z-0.0605 I0.0553 J0.0092 F30.
X6.2155 Y2.9632 Z-0.0667 I-0.0553 J-0.0092
X6.3268 Y2.9724 Z-0.0725 I0.0553 J0.0092
X6.2613 I-0.0328 J0.
X6.3295 I0.0341 J0. F40.
X6.1905 I-0.0695 J0.
X6.3295 I0.0695 J0.
X6.3209 Y2.9803 I-0.008 J0.
G1 X6.2227 Y2.9725
G3 X6.2155 Y2.9632 I0.0006 J-0.008
X6.326 Y2.9816 Z-0.0786 I0.0553 J0.0092 F30.
X6.2155 Y2.9632 Z-0.0848 I-0.0553 J-0.0092
X6.3268 Y2.9724 Z-0.0906 I0.0553 J0.0092
X6.2613 I-0.0328 J0.
X6.3295 I0.0341 J0. F40.
X6.1905 I-0.0695 J0.
X6.3295 I0.0695 J0.
X6.3209 Y2.9803 I-0.008 J0.
G1 X6.2227 Y2.9725
G3 X6.2155 Y2.9632 I0.0006 J-0.008
X6.326 Y2.9816 Z-0.0968 I0.0553 J0.0092 F30.
X6.2155 Y2.9632 Z-0.1029 I-0.0553 J-0.0092
X6.3268 Y2.9724 Z-0.1087 I0.0553 J0.0092
X6.2613 I-0.0328 J0.
X6.3295 I0.0341 J0. F40.
X6.1905 I-0.0695 J0.
X6.3295 I0.0695 J0.
X6.3209 Y2.9803 I-0.008 J0.
G1 X6.2227 Y2.9725
G3 X6.2155 Y2.9632 I0.0006 J-0.008
X6.326 Y2.9816 Z-0.1149 I0.0553 J0.0092 F30.
X6.2155 Y2.9632 Z-0.121 I-0.0553 J-0.0092
X6.3268 Y2.9724 Z-0.1269 I0.0553 J0.0092
X6.2613 I-0.0328 J0.
X6.3295 I0.0341 J0. F40.
X6.1905 I-0.0695 J0.
X6.3295 I0.0695 J0.
X6.3209 Y2.9803 I-0.008 J0.
G1 X6.2227 Y2.9725
G3 X6.2155 Y2.9632 I0.0006 J-0.008
X6.326 Y2.9816 Z-0.133 I0.0553 J0.0092 F30.
X6.2155 Y2.9632 Z-0.1392 I-0.0553 J-0.0092
X6.3268 Y2.9724 Z-0.145 I0.0553 J0.0092
X6.2613 I-0.0328 J0.
X6.3295 I0.0341 J0. F40.
X6.1905 I-0.0695 J0.
X6.3295 I0.0695 J0.
G1 X6.3293 Y2.9746 Z-0.1446
X6.3287 Y2.9768 Z-0.1441
X6.3278 Y2.9785 Z-0.1428
X6.3267 Y2.98 Z-0.1415
X6.3248 Y2.9818 Z-0.1377
X6.3241 Y2.9823 Z-0.1332
G0 Z0.2
X9.0518 Y3.7699
G1 Z0.1118 F30.
X9.0507 Y3.7689 Z0.106
X9.0477 Y3.7661 Z0.1017
X9.044 Y3.7617 Z0.1
G3 X9.1325 Y3.693 Z0.0939 I0.0443 J-0.0344
X9.044 Y3.7617 Z0.0877 I-0.0443 J0.0344
X9.1325 Y3.693 Z0.0816 I0.0443 J-0.0344
X9.044 Y3.7617 Z0.0754 I-0.0443 J0.0344
X9.1325 Y3.693 Z0.0693 I0.0443 J-0.0344
X9.044 Y3.7617 Z0.0631 I-0.0443 J0.0344
X9.1325 Y3.693 Z0.057 I0.0443 J-0.0344
X9.044 Y3.7617 Z0.0508 I-0.0443 J0.0344
X9.1325 Y3.693 Z0.0447 I0.0443 J-0.0344
X9.044 Y3.7617 Z0.0385 I-0.0443 J0.0344
X9.1325 Y3.693 Z0.0324 I0.0443 J-0.0344
X9.044 Y3.7617 Z0.0262 I-0.0443 J0.0344
X9.1325 Y3.693 Z0.0201 I0.0443 J-0.0344
X9.044 Y3.7617 Z0.0139 I-0.0443 J0.0344
X9.1325 Y3.693 Z0.0078 I0.0443 J-0.0344
X9.044 Y3.7617 Z0.0016 I-0.0443 J0.0344
X9.1325 Y3.693 Z-0.0045 I0.0443 J-0.0344
X9.044 Y3.7617 Z-0.0107 I-0.0443 J0.0344
X9.1325 Y3.693 Z-0.0168 I0.0443 J-0.0344
X9.1443 Y3.7273 Z-0.0181 I-0.0443 J0.0344
X9.0788 I-0.0327 J0.
X9.147 I0.0341 J0. F40.
X9.008 I-0.0695 J0.
X9.147 I0.0695 J0.
X9.1383 Y3.7353 I-0.008 J0.
G1 X9.0402 Y3.7274
G3 X9.033 Y3.7182 I0.0006 J-0.008
X9.1435 Y3.7365 Z-0.0243 I0.0553 J0.0092 F30.
X9.033 Y3.7182 Z-0.0304 I-0.0553 J-0.0092
X9.1443 Y3.7273 Z-0.0363 I0.0553 J0.0092
X9.0788 I-0.0327 J0.
X9.147 I0.0341 J0. F40.
X9.008 I-0.0695 J0.
X9.147 I0.0695 J0.
X9.1383 Y3.7353 I-0.008 J0.
G1 X9.0402 Y3.7274
G3 X9.033 Y3.7182 I0.0006 J-0.008
X9.1435 Y3.7365 Z-0.0424 I0.0553 J0.0092 F30.
X9.033 Y3.7182 Z-0.0485 I-0.0553 J-0.0092
X9.1443 Y3.7273 Z-0.0544 I0.0553 J0.0092
X9.0788 I-0.0327 J0.
X9.147 I0.0341 J0. F40.
X9.008 I-0.0695 J0.
X9.147 I0.0695 J0.
X9.1383 Y3.7353 I-0.008 J0.
G1 X9.0402 Y3.7274
G3 X9.033 Y3.7182 I0.0006 J-0.008
X9.1435 Y3.7365 Z-0.0605 I0.0553 J0.0092 F30.
X9.033 Y3.7182 Z-0.0667 I-0.0553 J-0.0092
X9.1443 Y3.7273 Z-0.0725 I0.0553 J0.0092
X9.0788 I-0.0327 J0.
X9.147 I0.0341 J0. F40.
X9.008 I-0.0695 J0.
X9.147 I0.0695 J0.
X9.1383 Y3.7353 I-0.008 J0.
G1 X9.0402 Y3.7274
G3 X9.033 Y3.7182 I0.0006 J-0.008
X9.1435 Y3.7365 Z-0.0786 I0.0553 J0.0092 F30.
X9.033 Y3.7182 Z-0.0848 I-0.0553 J-0.0092
X9.1443 Y3.7273 Z-0.0906 I0.0553 J0.0092
X9.0788 I-0.0327 J0.
X9.147 I0.0341 J0. F40.
X9.008 I-0.0695 J0.
X9.147 I0.0695 J0.
X9.1383 Y3.7353 I-0.008 J0.
G1 X9.0402 Y3.7274
G3 X9.033 Y3.7182 I0.0006 J-0.008
X9.1435 Y3.7365 Z-0.0968 I0.0553 J0.0092 F30.
X9.033 Y3.7182 Z-0.1029 I-0.0553 J-0.0092
X9.1443 Y3.7273 Z-0.1087 I0.0553 J0.0092
X9.0788 I-0.0327 J0.
X9.147 I0.0341 J0. F40.
X9.008 I-0.0695 J0.
X9.147 I0.0695 J0.
X9.1383 Y3.7353 I-0.008 J0.
G1 X9.0402 Y3.7274
G3 X9.033 Y3.7182 I0.0006 J-0.008
X9.1435 Y3.7365 Z-0.1149 I0.0553 J0.0092 F30.
X9.033 Y3.7182 Z-0.121 I-0.0553 J-0.0092
X9.1443 Y3.7273 Z-0.1269 I0.0553 J0.0092
X9.0788 I-0.0327 J0.
X9.147 I0.0341 J0. F40.
X9.008 I-0.0695 J0.
X9.147 I0.0695 J0.
X9.1383 Y3.7353 I-0.008 J0.
G1 X9.0402 Y3.7274
G3 X9.033 Y3.7182 I0.0006 J-0.008
X9.1435 Y3.7365 Z-0.133 I0.0553 J0.0092 F30.
X9.033 Y3.7182 Z-0.1392 I-0.0553 J-0.0092
X9.1443 Y3.7273 Z-0.145 I0.0553 J0.0092
X9.0788 I-0.0327 J0.
X9.147 I0.0341 J0. F40.
X9.008 I-0.0695 J0.
X9.147 I0.0695 J0.
G1 X9.1468 Y3.7296 Z-0.1446
X9.1461 Y3.7317 Z-0.1441
X9.1453 Y3.7335 Z-0.1428
X9.1442 Y3.735 Z-0.1415
X9.1423 Y3.7368 Z-0.1377
X9.1416 Y3.7373 Z-0.1332
G0 Z0.2
X11.1144 Y5.8325
G1 Z0.1118 F30.
X11.1132 Y5.8315 Z0.106
X11.1102 Y5.8286 Z0.1017
X11.1065 Y5.8243 Z0.1
G3 X11.195 Y5.7555 Z0.0939 I0.0443 J-0.0344
X11.1065 Y5.8243 Z0.0877 I-0.0443 J0.0344
X11.195 Y5.7555 Z0.0816 I0.0443 J-0.0344
X11.1065 Y5.8243 Z0.0754 I-0.0443 J0.0344
X11.195 Y5.7555 Z0.0693 I0.0443 J-0.0344
X11.1065 Y5.8243 Z0.0631 I-0.0443 J0.0344
X11.195 Y5.7555 Z0.057 I0.0443 J-0.0344
X11.1065 Y5.8243 Z0.0508 I-0.0443 J0.0344
X11.195 Y5.7555 Z0.0447 I0.0443 J-0.0344
X11.1065 Y5.8243 Z0.0385 I-0.0443 J0.0344
X11.195 Y5.7555 Z0.0324 I0.0443 J-0.0344
X11.1065 Y5.8243 Z0.0262 I-0.0443 J0.0344
X11.195 Y5.7555 Z0.0201 I0.0443 J-0.0344
X11.1065 Y5.8243 Z0.0139 I-0.0443 J0.0344
X11.195 Y5.7555 Z0.0078 I0.0443 J-0.0344
X11.1065 Y5.8243 Z0.0016 I-0.0443 J0.0344
X11.195 Y5.7555 Z-0.0045 I0.0443 J-0.0344
X11.1065 Y5.8243 Z-0.0107 I-0.0443 J0.0344
X11.195 Y5.7555 Z-0.0168 I0.0443 J-0.0344
X11.2068 Y5.7899 Z-0.0181 I-0.0443 J0.0344
X11.1413 I-0.0327 J0.
X11.2095 I0.0341 J0. F40.
X11.0705 I-0.0695 J0.
X11.2095 I0.0695 J0.
X11.2009 Y5.7978 I-0.008 J0.
G1 X11.1027 Y5.79
G3 X11.0955 Y5.7807 I0.0006 J-0.008
X11.2061 Y5.7991 Z-0.0243 I0.0553 J0.0092 F30.
X11.0955 Y5.7807 Z-0.0304 I-0.0553 J-0.0092
X11.2068 Y5.7899 Z-0.0363 I0.0553 J0.0092
X11.1413 I-0.0327 J0.
X11.2095 I0.0341 J0. F40.
X11.0705 I-0.0695 J0.
X11.2095 I0.0695 J0.
X11.2009 Y5.7978 I-0.008 J0.
G1 X11.1027 Y5.79
G3 X11.0955 Y5.7807 I0.0006 J-0.008
X11.2061 Y5.7991 Z-0.0424 I0.0553 J0.0092 F30.
X11.0955 Y5.7807 Z-0.0485 I-0.0553 J-0.0092
X11.2068 Y5.7899 Z-0.0544 I0.0553 J0.0092
X11.1413 I-0.0327 J0.
X11.2095 I0.0341 J0. F40.
X11.0705 I-0.0695 J0.
X11.2095 I0.0695 J0.
X11.2009 Y5.7978 I-0.008 J0.
G1 X11.1027 Y5.79
G3 X11.0955 Y5.7807 I0.0006 J-0.008
X11.2061 Y5.7991 Z-0.0605 I0.0553 J0.0092 F30.
X11.0955 Y5.7807 Z-0.0667 I-0.0553 J-0.0092
X11.2068 Y5.7899 Z-0.0725 I0.0553 J0.0092
X11.1413 I-0.0327 J0.
X11.2095 I0.0341 J0. F40.
X11.0705 I-0.0695 J0.
X11.2095 I0.0695 J0.
X11.2009 Y5.7978 I-0.008 J0.
G1 X11.1027 Y5.79
G3 X11.0955 Y5.7807 I0.0006 J-0.008
X11.2061 Y5.7991 Z-0.0786 I0.0553 J0.0092 F30.
X11.0955 Y5.7807 Z-0.0848 I-0.0553 J-0.0092
X11.2068 Y5.7899 Z-0.0906 I0.0553 J0.0092
X11.1413 I-0.0327 J0.
X11.2095 I0.0341 J0. F40.
X11.0705 I-0.0695 J0.
X11.2095 I0.0695 J0.
X11.2009 Y5.7978 I-0.008 J0.
G1 X11.1027 Y5.79
G3 X11.0955 Y5.7807 I0.0006 J-0.008
X11.2061 Y5.7991 Z-0.0968 I0.0553 J0.0092 F30.
X11.0955 Y5.7807 Z-0.1029 I-0.0553 J-0.0092
X11.2068 Y5.7899 Z-0.1087 I0.0553 J0.0092
X11.1413 I-0.0327 J0.
X11.2095 I0.0341 J0. F40.
X11.0705 I-0.0695 J0.
X11.2095 I0.0695 J0.
X11.2009 Y5.7978 I-0.008 J0.
G1 X11.1027 Y5.79
G3 X11.0955 Y5.7807 I0.0006 J-0.008
X11.2061 Y5.7991 Z-0.1149 I0.0553 J0.0092 F30.
X11.0955 Y5.7807 Z-0.121 I-0.0553 J-0.0092
X11.2068 Y5.7899 Z-0.1269 I0.0553 J0.0092
X11.1413 I-0.0327 J0.
X11.2095 I0.0341 J0. F40.
X11.0705 I-0.0695 J0.
X11.2095 I0.0695 J0.
X11.2009 Y5.7978 I-0.008 J0.
G1 X11.1027 Y5.79
G3 X11.0955 Y5.7807 I0.0006 J-0.008
X11.2061 Y5.7991 Z-0.133 I0.0553 J0.0092 F30.
X11.0955 Y5.7807 Z-0.1392 I-0.0553 J-0.0092
X11.2068 Y5.7899 Z-0.145 I0.0553 J0.0092
X11.1413 I-0.0327 J0.
X11.2095 I0.0341 J0. F40.
X11.0705 I-0.0695 J0.
X11.2095 I0.0695 J0.
G1 X11.2093 Y5.7921 Z-0.1446
X11.2087 Y5.7943 Z-0.1441
X11.2078 Y5.796 Z-0.1428
X11.2067 Y5.7975 Z-0.1415
X11.2048 Y5.7993 Z-0.1377
X11.2041 Y5.7998 Z-0.1332
G0 Z0.2
X11.8693 Y8.65
G1 Z0.1118 F30.
X11.8682 Y8.649 Z0.106
X11.8652 Y8.6461 Z0.1017
X11.8615 Y8.6417 Z0.1
G3 X11.95 Y8.573 Z0.0939 I0.0443 J-0.0344
X11.8615 Y8.6417 Z0.0877 I-0.0443 J0.0344
X11.95 Y8.573 Z0.0816 I0.0443 J-0.0344
X11.8615 Y8.6417 Z0.0754 I-0.0443 J0.0344
X11.95 Y8.573 Z0.0693 I0.0443 J-0.0344
X11.8615 Y8.6417 Z0.0631 I-0.0443 J0.0344
X11.95 Y8.573 Z0.057 I0.0443 J-0.0344
X11.8615 Y8.6417 Z0.0508 I-0.0443 J0.0344
X11.95 Y8.573 Z0.0447 I0.0443 J-0.0344
X11.8615 Y8.6417 Z0.0385 I-0.0443 J0.0344
X11.95 Y8.573 Z0.0324 I0.0443 J-0.0344
X11.8615 Y8.6417 Z0.0262 I-0.0443 J0.0344
X11.95 Y8.573 Z0.0201 I0.0443 J-0.0344
X11.8615 Y8.6417 Z0.0139 I-0.0443 J0.0344
X11.95 Y8.573 Z0.0078 I0.0443 J-0.0344
X11.8615 Y8.6417 Z0.0016 I-0.0443 J0.0344
X11.95 Y8.573 Z-0.0045 I0.0443 J-0.0344
X11.8615 Y8.6417 Z-0.0107 I-0.0443 J0.0344
X11.95 Y8.573 Z-0.0168 I0.0443 J-0.0344
X11.9618 Y8.6074 Z-0.0181 I-0.0443 J0.0344
X11.8963 I-0.0328 J0.
X11.9645 I0.0341 J0. F40.
X11.8255 I-0.0695 J0.
X11.9645 I0.0695 J0.
X11.9559 Y8.6153 I-0.008 J0.
G1 X11.8577 Y8.6075
G3 X11.8505 Y8.5982 I0.0006 J-0.008
X11.961 Y8.6165 Z-0.0243 I0.0553 J0.0092 F30.
X11.8505 Y8.5982 Z-0.0304 I-0.0553 J-0.0092
X11.9618 Y8.6074 Z-0.0363 I0.0553 J0.0092
X11.8963 I-0.0328 J0.
X11.9645 I0.0341 J0. F40.
X11.8255 I-0.0695 J0.
X11.9645 I0.0695 J0.
X11.9559 Y8.6153 I-0.008 J0.
G1 X11.8577 Y8.6075
G3 X11.8505 Y8.5982 I0.0006 J-0.008
X11.961 Y8.6165 Z-0.0424 I0.0553 J0.0092 F30.
X11.8505 Y8.5982 Z-0.0485 I-0.0553 J-0.0092
X11.9618 Y8.6074 Z-0.0544 I0.0553 J0.0092
X11.8963 I-0.0328 J0.
X11.9645 I0.0341 J0. F40.
X11.8255 I-0.0695 J0.
X11.9645 I0.0695 J0.
X11.9559 Y8.6153 I-0.008 J0.
G1 X11.8577 Y8.6075
G3 X11.8505 Y8.5982 I0.0006 J-0.008
X11.961 Y8.6165 Z-0.0605 I0.0553 J0.0092 F30.
X11.8505 Y8.5982 Z-0.0667 I-0.0553 J-0.0092
X11.9618 Y8.6074 Z-0.0725 I0.0553 J0.0092
X11.8963 I-0.0328 J0.
X11.9645 I0.0341 J0. F40.
X11.8255 I-0.0695 J0.
X11.9645 I0.0695 J0.
X11.9559 Y8.6153 I-0.008 J0.
G1 X11.8577 Y8.6075
G3 X11.8505 Y8.5982 I0.0006 J-0.008
X11.961 Y8.6165 Z-0.0786 I0.0553 J0.0092 F30.
X11.8505 Y8.5982 Z-0.0848 I-0.0553 J-0.0092
X11.9618 Y8.6074 Z-0.0906 I0.0553 J0.0092
X11.8963 I-0.0328 J0.
X11.9645 I0.0341 J0. F40.
X11.8255 I-0.0695 J0.
X11.9645 I0.0695 J0.
X11.9559 Y8.6153 I-0.008 J0.
G1 X11.8577 Y8.6075
G3 X11.8505 Y8.5982 I0.0006 J-0.008
X11.961 Y8.6165 Z-0.0968 I0.0553 J0.0092 F30.
X11.8505 Y8.5982 Z-0.1029 I-0.0553 J-0.0092
X11.9618 Y8.6074 Z-0.1087 I0.0553 J0.0092
X11.8963 I-0.0328 J0.
X11.9645 I0.0341 J0. F40.
X11.8255 I-0.0695 J0.
X11.9645 I0.0695 J0.
X11.9559 Y8.6153 I-0.008 J0.
G1 X11.8577 Y8.6075
G3 X11.8505 Y8.5982 I0.0006 J-0.008
X11.961 Y8.6165 Z-0.1149 I0.0553 J0.0092 F30.
X11.8505 Y8.5982 Z-0.121 I-0.0553 J-0.0092
X11.9618 Y8.6074 Z-0.1269 I0.0553 J0.0092
X11.8963 I-0.0328 J0.
X11.9645 I0.0341 J0. F40.
X11.8255 I-0.0695 J0.
X11.9645 I0.0695 J0.
X11.9559 Y8.6153 I-0.008 J0.
G1 X11.8577 Y8.6075
G3 X11.8505 Y8.5982 I0.0006 J-0.008
X11.961 Y8.6165 Z-0.133 I0.0553 J0.0092 F30.
X11.8505 Y8.5982 Z-0.1392 I-0.0553 J-0.0092
X11.9618 Y8.6074 Z-0.145 I0.0553 J0.0092
X11.8963 I-0.0328 J0.
X11.9645 I0.0341 J0. F40.
X11.8255 I-0.0695 J0.
X11.9645 I0.0695 J0.
G1 X11.9643 Y8.6096 Z-0.1446
X11.9636 Y8.6118 Z-0.1441
X11.9628 Y8.6135 Z-0.1428
X11.9617 Y8.615 Z-0.1415
X11.9598 Y8.6168 Z-0.1377
X11.9591 Y8.6173 Z-0.1332
G0 Z0.2
X11.1144 Y11.4675
G1 Z0.1118 F30.
X11.1133 Y11.4665 Z0.106
X11.1103 Y11.4636 Z0.1017
X11.1065 Y11.4593 Z0.1
G3 X11.1951 Y11.3905 Z0.0939 I0.0443 J-0.0344
X11.1065 Y11.4593 Z0.0877 I-0.0443 J0.0344
X11.1951 Y11.3905 Z0.0816 I0.0443 J-0.0344
X11.1065 Y11.4593 Z0.0754 I-0.0443 J0.0344
X11.1951 Y11.3905 Z0.0693 I0.0443 J-0.0344
X11.1065 Y11.4593 Z0.0631 I-0.0443 J0.0344
X11.1951 Y11.3905 Z0.057 I0.0443 J-0.0344
X11.1065 Y11.4593 Z0.0508 I-0.0443 J0.0344
X11.1951 Y11.3905 Z0.0447 I0.0443 J-0.0344
X11.1065 Y11.4593 Z0.0385 I-0.0443 J0.0344
X11.1951 Y11.3905 Z0.0324 I0.0443 J-0.0344
X11.1065 Y11.4593 Z0.0262 I-0.0443 J0.0344
X11.1951 Y11.3905 Z0.0201 I0.0443 J-0.0344
X11.1065 Y11.4593 Z0.0139 I-0.0443 J0.0344
X11.1951 Y11.3905 Z0.0078 I0.0443 J-0.0344
X11.1065 Y11.4593 Z0.0016 I-0.0443 J0.0344
X11.1951 Y11.3905 Z-0.0045 I0.0443 J-0.0344
X11.1065 Y11.4593 Z-0.0107 I-0.0443 J0.0344
X11.1951 Y11.3905 Z-0.0168 I0.0443 J-0.0344
X11.2069 Y11.4249 Z-0.0181 I-0.0443 J0.0344
X11.1414 I-0.0327 J0.
X11.2096 I0.0341 J0. F40.
X11.0706 I-0.0695 J0.
X11.2096 I0.0695 J0.
X11.2009 Y11.4328 I-0.008 J0.
G1 X11.1028 Y11.425
G3 X11.0955 Y11.4157 I0.0006 J-0.008
X11.2061 Y11.4341 Z-0.0243 I0.0553 J0.0092 F30.
X11.0955 Y11.4157 Z-0.0304 I-0.0553 J-0.0092
X11.2069 Y11.4249 Z-0.0363 I0.0553 J0.0092
X11.1414 I-0.0327 J0.
X11.2096 I0.0341 J0. F40.
X11.0706 I-0.0695 J0.
X11.2096 I0.0695 J0.
X11.2009 Y11.4328 I-0.008 J0.
G1 X11.1028 Y11.425
G3 X11.0955 Y11.4157 I0.0006 J-0.008
X11.2061 Y11.4341 Z-0.0424 I0.0553 J0.0092 F30.
X11.0955 Y11.4157 Z-0.0485 I-0.0553 J-0.0092
X11.2069 Y11.4249 Z-0.0544 I0.0553 J0.0092
X11.1414 I-0.0327 J0.
X11.2096 I0.0341 J0. F40.
X11.0706 I-0.0695 J0.
X11.2096 I0.0695 J0.
X11.2009 Y11.4328 I-0.008 J0.
G1 X11.1028 Y11.425
G3 X11.0955 Y11.4157 I0.0006 J-0.008
X11.2061 Y11.4341 Z-0.0605 I0.0553 J0.0092 F30.
X11.0955 Y11.4157 Z-0.0667 I-0.0553 J-0.0092
X11.2069 Y11.4249 Z-0.0725 I0.0553 J0.0092
X11.1414 I-0.0327 J0.
X11.2096 I0.0341 J0. F40.
X11.0706 I-0.0695 J0.
X11.2096 I0.0695 J0.
X11.2009 Y11.4328 I-0.008 J0.
G1 X11.1028 Y11.425
G3 X11.0955 Y11.4157 I0.0006 J-0.008
X11.2061 Y11.4341 Z-0.0786 I0.0553 J0.0092 F30.
X11.0955 Y11.4157 Z-0.0848 I-0.0553 J-0.0092
X11.2069 Y11.4249 Z-0.0906 I0.0553 J0.0092
X11.1414 I-0.0327 J0.
X11.2096 I0.0341 J0. F40.
X11.0706 I-0.0695 J0.
X11.2096 I0.0695 J0.
X11.2009 Y11.4328 I-0.008 J0.
G1 X11.1028 Y11.425
G3 X11.0955 Y11.4157 I0.0006 J-0.008
X11.2061 Y11.4341 Z-0.0968 I0.0553 J0.0092 F30.
X11.0955 Y11.4157 Z-0.1029 I-0.0553 J-0.0092
X11.2069 Y11.4249 Z-0.1087 I0.0553 J0.0092
X11.1414 I-0.0327 J0.
X11.2096 I0.0341 J0. F40.
X11.0706 I-0.0695 J0.
X11.2096 I0.0695 J0.
X11.2009 Y11.4328 I-0.008 J0.
G1 X11.1028 Y11.425
G3 X11.0955 Y11.4157 I0.0006 J-0.008
X11.2061 Y11.4341 Z-0.1149 I0.0553 J0.0092 F30.
X11.0955 Y11.4157 Z-0.121 I-0.0553 J-0.0092
X11.2069 Y11.4249 Z-0.1269 I0.0553 J0.0092
X11.1414 I-0.0327 J0.
X11.2096 I0.0341 J0. F40.
X11.0706 I-0.0695 J0.
X11.2096 I0.0695 J0.
X11.2009 Y11.4328 I-0.008 J0.
G1 X11.1028 Y11.425
G3 X11.0955 Y11.4157 I0.0006 J-0.008
X11.2061 Y11.4341 Z-0.133 I0.0553 J0.0092 F30.
X11.0955 Y11.4157 Z-0.1392 I-0.0553 J-0.0092
X11.2069 Y11.4249 Z-0.145 I0.0553 J0.0092
X11.1414 I-0.0327 J0.
X11.2096 I0.0341 J0. F40.
X11.0706 I-0.0695 J0.
X11.2096 I0.0695 J0.
G1 X11.2093 Y11.4271 Z-0.1446
X11.2087 Y11.4293 Z-0.1441
X11.2078 Y11.431 Z-0.1428
X11.2067 Y11.4325 Z-0.1415
X11.2049 Y11.4343 Z-0.1377
X11.2041 Y11.4348 Z-0.1332
G0 Z0.2
X9.0518 Y13.53
G1 Z0.1118 F30.
X9.0507 Y13.529 Z0.106
X9.0477 Y13.5261 Z0.1017
X9.044 Y13.5218 Z0.1
G3 X9.1325 Y13.453 Z0.0939 I0.0443 J-0.0344
X9.044 Y13.5218 Z0.0877 I-0.0443 J0.0344
X9.1325 Y13.453 Z0.0816 I0.0443 J-0.0344
X9.044 Y13.5218 Z0.0754 I-0.0443 J0.0344
X9.1325 Y13.453 Z0.0693 I0.0443 J-0.0344
X9.044 Y13.5218 Z0.0631 I-0.0443 J0.0344
X9.1325 Y13.453 Z0.057 I0.0443 J-0.0344
X9.044 Y13.5218 Z0.0508 I-0.0443 J0.0344
X9.1325 Y13.453 Z0.0447 I0.0443 J-0.0344
X9.044 Y13.5218 Z0.0385 I-0.0443 J0.0344
X9.1325 Y13.453 Z0.0324 I0.0443 J-0.0344
X9.044 Y13.5218 Z0.0262 I-0.0443 J0.0344
X9.1325 Y13.453 Z0.0201 I0.0443 J-0.0344
X9.044 Y13.5218 Z0.0139 I-0.0443 J0.0344
X9.1325 Y13.453 Z0.0078 I0.0443 J-0.0344
X9.044 Y13.5218 Z0.0016 I-0.0443 J0.0344
X9.1325 Y13.453 Z-0.0045 I0.0443 J-0.0344
X9.044 Y13.5218 Z-0.0107 I-0.0443 J0.0344
X9.1325 Y13.453 Z-0.0168 I0.0443 J-0.0344
X9.1443 Y13.4874 Z-0.0181 I-0.0443 J0.0344
X9.0788 I-0.0327 J0.
X9.147 I0.0341 J0. F40.
X9.008 I-0.0695 J0.
X9.147 I0.0695 J0.
X9.1383 Y13.4954 I-0.008 J0.
G1 X9.0402 Y13.4875
G3 X9.033 Y13.4782 I0.0006 J-0.008
X9.1435 Y13.4966 Z-0.0243 I0.0553 J0.0092 F30.
X9.033 Y13.4782 Z-0.0304 I-0.0553 J-0.0092
X9.1443 Y13.4874 Z-0.0363 I0.0553 J0.0092
X9.0788 I-0.0327 J0.
X9.147 I0.0341 J0. F40.
X9.008 I-0.0695 J0.
X9.147 I0.0695 J0.
X9.1383 Y13.4954 I-0.008 J0.
G1 X9.0402 Y13.4875
G3 X9.033 Y13.4782 I0.0006 J-0.008
X9.1435 Y13.4966 Z-0.0424 I0.0553 J0.0092 F30.
X9.033 Y13.4782 Z-0.0485 I-0.0553 J-0.0092
X9.1443 Y13.4874 Z-0.0544 I0.0553 J0.0092
X9.0788 I-0.0327 J0.
X9.147 I0.0341 J0. F40.
X9.008 I-0.0695 J0.
X9.147 I0.0695 J0.
X9.1383 Y13.4954 I-0.008 J0.
G1 X9.0402 Y13.4875
G3 X9.033 Y13.4782 I0.0006 J-0.008
X9.1435 Y13.4966 Z-0.0605 I0.0553 J0.0092 F30.
X9.033 Y13.4782 Z-0.0667 I-0.0553 J-0.0092
X9.1443 Y13.4874 Z-0.0725 I0.0553 J0.0092
X9.0788 I-0.0327 J0.
X9.147 I0.0341 J0. F40.
X9.008 I-0.0695 J0.
X9.147 I0.0695 J0.
X9.1383 Y13.4954 I-0.008 J0.
G1 X9.0402 Y13.4875
G3 X9.033 Y13.4782 I0.0006 J-0.008
X9.1435 Y13.4966 Z-0.0786 I0.0553 J0.0092 F30.
X9.033 Y13.4782 Z-0.0848 I-0.0553 J-0.0092
X9.1443 Y13.4874 Z-0.0906 I0.0553 J0.0092
X9.0788 I-0.0327 J0.
X9.147 I0.0341 J0. F40.
X9.008 I-0.0695 J0.
X9.147 I0.0695 J0.
X9.1383 Y13.4954 I-0.008 J0.
G1 X9.0402 Y13.4875
G3 X9.033 Y13.4782 I0.0006 J-0.008
X9.1435 Y13.4966 Z-0.0968 I0.0553 J0.0092 F30.
X9.033 Y13.4782 Z-0.1029 I-0.0553 J-0.0092
X9.1443 Y13.4874 Z-0.1087 I0.0553 J0.0092
X9.0788 I-0.0327 J0.
X9.147 I0.0341 J0. F40.
X9.008 I-0.0695 J0.
X9.147 I0.0695 J0.
X9.1383 Y13.4954 I-0.008 J0.
G1 X9.0402 Y13.4875
G3 X9.033 Y13.4782 I0.0006 J-0.008
X9.1435 Y13.4966 Z-0.1149 I0.0553 J0.0092 F30.
X9.033 Y13.4782 Z-0.121 I-0.0553 J-0.0092
X9.1443 Y13.4874 Z-0.1269 I0.0553 J0.0092
X9.0788 I-0.0327 J0.
X9.147 I0.0341 J0. F40.
X9.008 I-0.0695 J0.
X9.147 I0.0695 J0.
X9.1383 Y13.4954 I-0.008 J0.
G1 X9.0402 Y13.4875
G3 X9.033 Y13.4782 I0.0006 J-0.008
X9.1435 Y13.4966 Z-0.133 I0.0553 J0.0092 F30.
X9.033 Y13.4782 Z-0.1392 I-0.0553 J-0.0092
X9.1443 Y13.4874 Z-0.145 I0.0553 J0.0092
X9.0788 I-0.0327 J0.
X9.147 I0.0341 J0. F40.
X9.008 I-0.0695 J0.
X9.147 I0.0695 J0.
G1 X9.1468 Y13.4897 Z-0.1446
X9.1461 Y13.4918 Z-0.1441
X9.1453 Y13.4935 Z-0.1428
X9.1442 Y13.4951 Z-0.1415
X9.1423 Y13.4968 Z-0.1377
X9.1416 Y13.4974 Z-0.1332
G0 Z0.2
X6.2343 Y14.285
G1 Z0.1118 F30.
X6.2332 Y14.284 Z0.106
X6.2302 Y14.2811 Z0.1017
X6.2265 Y14.2767 Z0.1
G3 X6.315 Y14.208 Z0.0939 I0.0443 J-0.0344
X6.2265 Y14.2767 Z0.0877 I-0.0443 J0.0344
X6.315 Y14.208 Z0.0816 I0.0443 J-0.0344
X6.2265 Y14.2767 Z0.0754 I-0.0443 J0.0344
X6.315 Y14.208 Z0.0693 I0.0443 J-0.0344
X6.2265 Y14.2767 Z0.0631 I-0.0443 J0.0344
X6.315 Y14.208 Z0.057 I0.0443 J-0.0344
X6.2265 Y14.2767 Z0.0508 I-0.0443 J0.0344
X6.315 Y14.208 Z0.0447 I0.0443 J-0.0344
X6.2265 Y14.2767 Z0.0385 I-0.0443 J0.0344
X6.315 Y14.208 Z0.0324 I0.0443 J-0.0344
X6.2265 Y14.2767 Z0.0262 I-0.0443 J0.0344
X6.315 Y14.208 Z0.0201 I0.0443 J-0.0344
X6.2265 Y14.2767 Z0.0139 I-0.0443 J0.0344
X6.315 Y14.208 Z0.0078 I0.0443 J-0.0344
X6.2265 Y14.2767 Z0.0016 I-0.0443 J0.0344
X6.315 Y14.208 Z-0.0045 I0.0443 J-0.0344
X6.2265 Y14.2767 Z-0.0107 I-0.0443 J0.0344
X6.315 Y14.208 Z-0.0168 I0.0443 J-0.0344
X6.3268 Y14.2424 Z-0.0181 I-0.0443 J0.0344
X6.2613 I-0.0328 J0.
X6.3295 I0.0341 J0. F40.
X6.1905 I-0.0695 J0.
X6.3295 I0.0695 J0.
X6.3209 Y14.2503 I-0.008 J0.
G1 X6.2227 Y14.2425
G3 X6.2155 Y14.2332 I0.0006 J-0.008
X6.326 Y14.2515 Z-0.0243 I0.0553 J0.0092 F30.
X6.2155 Y14.2332 Z-0.0304 I-0.0553 J-0.0092
X6.3268 Y14.2424 Z-0.0363 I0.0553 J0.0092
X6.2613 I-0.0328 J0.
X6.3295 I0.0341 J0. F40.
X6.1905 I-0.0695 J0.
X6.3295 I0.0695 J0.
X6.3209 Y14.2503 I-0.008 J0.
G1 X6.2227 Y14.2425
G3 X6.2155 Y14.2332 I0.0006 J-0.008
X6.326 Y14.2515 Z-0.0424 I0.0553 J0.0092 F30.
X6.2155 Y14.2332 Z-0.0485 I-0.0553 J-0.0092
X6.3268 Y14.2424 Z-0.0544 I0.0553 J0.0092
X6.2613 I-0.0328 J0.
X6.3295 I0.0341 J0. F40.
X6.1905 I-0.0695 J0.
X6.3295 I0.0695 J0.
X6.3209 Y14.2503 I-0.008 J0.
G1 X6.2227 Y14.2425
G3 X6.2155 Y14.2332 I0.0006 J-0.008
X6.326 Y14.2515 Z-0.0605 I0.0553 J0.0092 F30.
X6.2155 Y14.2332 Z-0.0667 I-0.0553 J-0.0092
X6.3268 Y14.2424 Z-0.0725 I0.0553 J0.0092
X6.2613 I-0.0328 J0.
X6.3295 I0.0341 J0. F40.
X6.1905 I-0.0695 J0.
X6.3295 I0.0695 J0.
X6.3209 Y14.2503 I-0.008 J0.
G1 X6.2227 Y14.2425
G3 X6.2155 Y14.2332 I0.0006 J-0.008
X6.326 Y14.2515 Z-0.0786 I0.0553 J0.0092 F30.
X6.2155 Y14.2332 Z-0.0848 I-0.0553 J-0.0092
X6.3268 Y14.2424 Z-0.0906 I0.0553 J0.0092
X6.2613 I-0.0328 J0.
X6.3295 I0.0341 J0. F40.
X6.1905 I-0.0695 J0.
X6.3295 I0.0695 J0.
X6.3209 Y14.2503 I-0.008 J0.
G1 X6.2227 Y14.2425
G3 X6.2155 Y14.2332 I0.0006 J-0.008
X6.326 Y14.2515 Z-0.0968 I0.0553 J0.0092 F30.
X6.2155 Y14.2332 Z-0.1029 I-0.0553 J-0.0092
X6.3268 Y14.2424 Z-0.1087 I0.0553 J0.0092
X6.2613 I-0.0328 J0.
X6.3295 I0.0341 J0. F40.
X6.1905 I-0.0695 J0.
X6.3295 I0.0695 J0.
X6.3209 Y14.2503 I-0.008 J0.
G1 X6.2227 Y14.2425
G3 X6.2155 Y14.2332 I0.0006 J-0.008
X6.326 Y14.2515 Z-0.1149 I0.0553 J0.0092 F30.
X6.2155 Y14.2332 Z-0.121 I-0.0553 J-0.0092
X6.3268 Y14.2424 Z-0.1269 I0.0553 J0.0092
X6.2613 I-0.0328 J0.
X6.3295 I0.0341 J0. F40.
X6.1905 I-0.0695 J0.
X6.3295 I0.0695 J0.
X6.3209 Y14.2503 I-0.008 J0.
G1 X6.2227 Y14.2425
G3 X6.2155 Y14.2332 I0.0006 J-0.008
X6.326 Y14.2515 Z-0.133 I0.0553 J0.0092 F30.
X6.2155 Y14.2332 Z-0.1392 I-0.0553 J-0.0092
X6.3268 Y14.2424 Z-0.145 I0.0553 J0.0092
X6.2613 I-0.0328 J0.
X6.3295 I0.0341 J0. F40.
X6.1905 I-0.0695 J0.
X6.3295 I0.0695 J0.
G1 X6.3292 Y14.2438 Z-0.1447
X6.3286 Y14.2449 Z-0.1438
X6.3279 Y14.2455 Z-0.1426
X6.3277 Y14.2457 Z-0.1411
G0 Z0.2
X3.4168 Y13.53
G1 Z0.1118 F30.
X3.4157 Y13.5291 Z0.106
X3.4127 Y13.5262 Z0.1017
X3.409 Y13.5218 Z0.1
G3 X3.4975 Y13.4531 Z0.0939 I0.0443 J-0.0344
X3.409 Y13.5218 Z0.0877 I-0.0443 J0.0344
X3.4975 Y13.4531 Z0.0816 I0.0443 J-0.0344
X3.409 Y13.5218 Z0.0754 I-0.0443 J0.0344
X3.4975 Y13.4531 Z0.0693 I0.0443 J-0.0344
X3.409 Y13.5218 Z0.0631 I-0.0443 J0.0344
X3.4975 Y13.4531 Z0.057 I0.0443 J-0.0344
X3.409 Y13.5218 Z0.0508 I-0.0443 J0.0344
X3.4975 Y13.4531 Z0.0447 I0.0443 J-0.0344
X3.409 Y13.5218 Z0.0385 I-0.0443 J0.0344
X3.4975 Y13.4531 Z0.0324 I0.0443 J-0.0344
X3.409 Y13.5218 Z0.0262 I-0.0443 J0.0344
X3.4975 Y13.4531 Z0.0201 I0.0443 J-0.0344
X3.409 Y13.5218 Z0.0139 I-0.0443 J0.0344
X3.4975 Y13.4531 Z0.0078 I0.0443 J-0.0344
X3.409 Y13.5218 Z0.0016 I-0.0443 J0.0344
X3.4975 Y13.4531 Z-0.0045 I0.0443 J-0.0344
X3.409 Y13.5218 Z-0.0107 I-0.0443 J0.0344
X3.4975 Y13.4531 Z-0.0168 I0.0443 J-0.0344
X3.5093 Y13.4874 Z-0.0181 I-0.0443 J0.0344
X3.4438 I-0.0328 J0.
X3.512 I0.0341 J0. F40.
X3.373 I-0.0695 J0.
X3.512 I0.0695 J0.
X3.5034 Y13.4954 I-0.008 J0.
G1 X3.4052 Y13.4875
G3 X3.398 Y13.4783 I0.0006 J-0.008
X3.5085 Y13.4966 Z-0.0243 I0.0553 J0.0092 F30.
X3.398 Y13.4783 Z-0.0304 I-0.0553 J-0.0092
X3.5093 Y13.4874 Z-0.0363 I0.0553 J0.0092
X3.4438 I-0.0328 J0.
X3.512 I0.0341 J0. F40.
X3.373 I-0.0695 J0.
X3.512 I0.0695 J0.
X3.5034 Y13.4954 I-0.008 J0.
G1 X3.4052 Y13.4875
G3 X3.398 Y13.4783 I0.0006 J-0.008
X3.5085 Y13.4966 Z-0.0424 I0.0553 J0.0092 F30.
X3.398 Y13.4783 Z-0.0485 I-0.0553 J-0.0092
X3.5093 Y13.4874 Z-0.0544 I0.0553 J0.0092
X3.4438 I-0.0328 J0.
X3.512 I0.0341 J0. F40.
X3.373 I-0.0695 J0.
X3.512 I0.0695 J0.
X3.5034 Y13.4954 I-0.008 J0.
G1 X3.4052 Y13.4875
G3 X3.398 Y13.4783 I0.0006 J-0.008
X3.5085 Y13.4966 Z-0.0605 I0.0553 J0.0092 F30.
X3.398 Y13.4783 Z-0.0667 I-0.0553 J-0.0092
X3.5093 Y13.4874 Z-0.0725 I0.0553 J0.0092
X3.4438 I-0.0328 J0.
X3.512 I0.0341 J0. F40.
X3.373 I-0.0695 J0.
X3.512 I0.0695 J0.
X3.5034 Y13.4954 I-0.008 J0.
G1 X3.4052 Y13.4875
G3 X3.398 Y13.4783 I0.0006 J-0.008
X3.5085 Y13.4966 Z-0.0786 I0.0553 J0.0092 F30.
X3.398 Y13.4783 Z-0.0848 I-0.0553 J-0.0092
X3.5093 Y13.4874 Z-0.0906 I0.0553 J0.0092
X3.4438 I-0.0328 J0.
X3.512 I0.0341 J0. F40.
X3.373 I-0.0695 J0.
X3.512 I0.0695 J0.
X3.5034 Y13.4954 I-0.008 J0.
G1 X3.4052 Y13.4875
G3 X3.398 Y13.4783 I0.0006 J-0.008
X3.5085 Y13.4966 Z-0.0968 I0.0553 J0.0092 F30.
X3.398 Y13.4783 Z-0.1029 I-0.0553 J-0.0092
X3.5093 Y13.4874 Z-0.1087 I0.0553 J0.0092
X3.4438 I-0.0328 J0.
X3.512 I0.0341 J0. F40.
X3.373 I-0.0695 J0.
X3.512 I0.0695 J0.
X3.5034 Y13.4954 I-0.008 J0.
G1 X3.4052 Y13.4875
G3 X3.398 Y13.4783 I0.0006 J-0.008
X3.5085 Y13.4966 Z-0.1149 I0.0553 J0.0092 F30.
X3.398 Y13.4783 Z-0.121 I-0.0553 J-0.0092
X3.5093 Y13.4874 Z-0.1269 I0.0553 J0.0092
X3.4438 I-0.0328 J0.
X3.512 I0.0341 J0. F40.
X3.373 I-0.0695 J0.
X3.512 I0.0695 J0.
X3.5034 Y13.4954 I-0.008 J0.
G1 X3.4052 Y13.4875
G3 X3.398 Y13.4783 I0.0006 J-0.008
X3.5085 Y13.4966 Z-0.133 I0.0553 J0.0092 F30.
X3.398 Y13.4783 Z-0.1392 I-0.0553 J-0.0092
X3.5093 Y13.4874 Z-0.145 I0.0553 J0.0092
X3.4438 I-0.0328 J0.
X3.512 I0.0341 J0. F40.
X3.373 I-0.0695 J0.
X3.512 I0.0695 J0.
G1 X3.5118 Y13.4897 Z-0.1446
X3.5111 Y13.4918 Z-0.1441
X3.5103 Y13.4936 Z-0.1428
X3.5092 Y13.4951 Z-0.1415
X3.5073 Y13.4969 Z-0.1377
X3.5066 Y13.4974 Z-0.1332
G0 Z0.2
X1.3543 Y11.4675
G1 Z0.1118 F30.
X1.3531 Y11.4665 Z0.106
X1.3502 Y11.4636 Z0.1017
X1.3464 Y11.4593 Z0.1
G3 X1.4349 Y11.3905 Z0.0939 I0.0443 J-0.0344
X1.3464 Y11.4593 Z0.0877 I-0.0443 J0.0344
X1.4349 Y11.3905 Z0.0816 I0.0443 J-0.0344
X1.3464 Y11.4593 Z0.0754 I-0.0443 J0.0344
X1.4349 Y11.3905 Z0.0693 I0.0443 J-0.0344
X1.3464 Y11.4593 Z0.0631 I-0.0443 J0.0344
X1.4349 Y11.3905 Z0.057 I0.0443 J-0.0344
X1.3464 Y11.4593 Z0.0508 I-0.0443 J0.0344
X1.4349 Y11.3905 Z0.0447 I0.0443 J-0.0344
X1.3464 Y11.4593 Z0.0385 I-0.0443 J0.0344
X1.4349 Y11.3905 Z0.0324 I0.0443 J-0.0344
X1.3464 Y11.4593 Z0.0262 I-0.0443 J0.0344
X1.4349 Y11.3905 Z0.0201 I0.0443 J-0.0344
X1.3464 Y11.4593 Z0.0139 I-0.0443 J0.0344
X1.4349 Y11.3905 Z0.0078 I0.0443 J-0.0344
X1.3464 Y11.4593 Z0.0016 I-0.0443 J0.0344
X1.4349 Y11.3905 Z-0.0045 I0.0443 J-0.0344
X1.3464 Y11.4593 Z-0.0107 I-0.0443 J0.0344
X1.4349 Y11.3905 Z-0.0168 I0.0443 J-0.0344
X1.4467 Y11.4249 Z-0.0181 I-0.0443 J0.0344
X1.3812 I-0.0327 J0.
X1.4494 I0.0341 J0. F40.
X1.3104 I-0.0695 J0.
X1.4494 I0.0695 J0.
X1.4408 Y11.4328 I-0.008 J0.
G1 X1.3426 Y11.425
G3 X1.3354 Y11.4157 I0.0006 J-0.008
X1.446 Y11.4341 Z-0.0243 I0.0553 J0.0092 F30.
X1.3354 Y11.4157 Z-0.0304 I-0.0553 J-0.0092
X1.4467 Y11.4249 Z-0.0363 I0.0553 J0.0092
X1.3812 I-0.0327 J0.
X1.4494 I0.0341 J0. F40.
X1.3104 I-0.0695 J0.
X1.4494 I0.0695 J0.
X1.4408 Y11.4328 I-0.008 J0.
G1 X1.3426 Y11.425
G3 X1.3354 Y11.4157 I0.0006 J-0.008
X1.446 Y11.4341 Z-0.0424 I0.0553 J0.0092 F30.
X1.3354 Y11.4157 Z-0.0485 I-0.0553 J-0.0092
X1.4467 Y11.4249 Z-0.0544 I0.0553 J0.0092
X1.3812 I-0.0327 J0.
X1.4494 I0.0341 J0. F40.
X1.3104 I-0.0695 J0.
X1.4494 I0.0695 J0.
X1.4408 Y11.4328 I-0.008 J0.
G1 X1.3426 Y11.425
G3 X1.3354 Y11.4157 I0.0006 J-0.008
X1.446 Y11.4341 Z-0.0605 I0.0553 J0.0092 F30.
X1.3354 Y11.4157 Z-0.0667 I-0.0553 J-0.0092
X1.4467 Y11.4249 Z-0.0725 I0.0553 J0.0092
X1.3812 I-0.0327 J0.
X1.4494 I0.0341 J0. F40.
X1.3104 I-0.0695 J0.
X1.4494 I0.0695 J0.
X1.4408 Y11.4328 I-0.008 J0.
G1 X1.3426 Y11.425
G3 X1.3354 Y11.4157 I0.0006 J-0.008
X1.446 Y11.4341 Z-0.0786 I0.0553 J0.0092 F30.
X1.3354 Y11.4157 Z-0.0848 I-0.0553 J-0.0092
X1.4467 Y11.4249 Z-0.0906 I0.0553 J0.0092
X1.3812 I-0.0327 J0.
X1.4494 I0.0341 J0. F40.
X1.3104 I-0.0695 J0.
X1.4494 I0.0695 J0.
X1.4408 Y11.4328 I-0.008 J0.
G1 X1.3426 Y11.425
G3 X1.3354 Y11.4157 I0.0006 J-0.008
X1.446 Y11.4341 Z-0.0968 I0.0553 J0.0092 F30.
X1.3354 Y11.4157 Z-0.1029 I-0.0553 J-0.0092
X1.4467 Y11.4249 Z-0.1087 I0.0553 J0.0092
X1.3812 I-0.0327 J0.
X1.4494 I0.0341 J0. F40.
X1.3104 I-0.0695 J0.
X1.4494 I0.0695 J0.
X1.4408 Y11.4328 I-0.008 J0.
G1 X1.3426 Y11.425
G3 X1.3354 Y11.4157 I0.0006 J-0.008
X1.446 Y11.4341 Z-0.1149 I0.0553 J0.0092 F30.
X1.3354 Y11.4157 Z-0.121 I-0.0553 J-0.0092
X1.4467 Y11.4249 Z-0.1269 I0.0553 J0.0092
X1.3812 I-0.0327 J0.
X1.4494 I0.0341 J0. F40.
X1.3104 I-0.0695 J0.
X1.4494 I0.0695 J0.
X1.4408 Y11.4328 I-0.008 J0.
G1 X1.3426 Y11.425
G3 X1.3354 Y11.4157 I0.0006 J-0.008
X1.446 Y11.4341 Z-0.133 I0.0553 J0.0092 F30.
X1.3354 Y11.4157 Z-0.1392 I-0.0553 J-0.0092
X1.4467 Y11.4249 Z-0.145 I0.0553 J0.0092
X1.3812 I-0.0327 J0.
X1.4494 I0.0341 J0. F40.
X1.3104 I-0.0695 J0.
X1.4494 I0.0695 J0.
G1 X1.4492 Y11.4271 Z-0.1446
X1.4486 Y11.4293 Z-0.1441
X1.4477 Y11.431 Z-0.1428
X1.4466 Y11.4325 Z-0.1415
X1.4447 Y11.4343 Z-0.1377
X1.444 Y11.4348 Z-0.1332
G0 Z0.6

M9
M30
