(TURRET STEP 4)
(T3  D=0.118 CR=0. - ZMIN=-0.145 - FLAT END MILL)
G90 G94 G91.1 G40 G49 G17
G20

(2D POCKET4)
M5
T3 M6
S15000 M3
g4 p5
G54
M8
G0 X4.6134 Y0.34
G43 Z0.6 H3
Z0.2
G1 Z0.1118 F30.
X4.6123 Y0.3402 Z0.1068
X4.6092 Y0.3407 Z0.1027
X4.6046 Y0.341 Z0.1004
X4.6021 Y0.3409 Z0.1
G3 X4.6071 Y0.2631 Z0.0957 I0.0025 J-0.0389
X4.6021 Y0.3409 Z0.0914 I-0.0025 J0.0389
X4.6071 Y0.2631 Z0.0872 I0.0025 J-0.0389
X4.6021 Y0.3409 Z0.0829 I-0.0025 J0.0389
X4.6071 Y0.2631 Z0.0786 I0.0025 J-0.0389
X4.6021 Y0.3409 Z0.0743 I-0.0025 J0.0389
X4.6071 Y0.2631 Z0.0701 I0.0025 J-0.0389
X4.6021 Y0.3409 Z0.0658 I-0.0025 J0.0389
X4.6071 Y0.2631 Z0.0615 I0.0025 J-0.0389
X4.6021 Y0.3409 Z0.0572 I-0.0025 J0.0389
X4.6071 Y0.2631 Z0.0529 I0.0025 J-0.0389
X4.6021 Y0.3409 Z0.0487 I-0.0025 J0.0389
X4.6071 Y0.2631 Z0.0444 I0.0025 J-0.0389
X4.6021 Y0.3409 Z0.0401 I-0.0025 J0.0389
X4.6071 Y0.2631 Z0.0358 I0.0025 J-0.0389
X4.6021 Y0.3409 Z0.0315 I-0.0025 J0.0389
X4.6071 Y0.2631 Z0.0273 I0.0025 J-0.0389
X4.6021 Y0.3409 Z0.023 I-0.0025 J0.0389
X4.6071 Y0.2631 Z0.0187 I0.0025 J-0.0389
X4.6021 Y0.3409 Z0.0144 I-0.0025 J0.0389
X4.6071 Y0.2631 Z0.0102 I0.0025 J-0.0389
X4.6021 Y0.3409 Z0.0059 I-0.0025 J0.0389
X4.6071 Y0.2631 Z0.0016 I0.0025 J-0.0389
X4.6021 Y0.3409 Z-0.0027 I-0.0025 J0.0389
X4.6071 Y0.2631 Z-0.007 I0.0025 J-0.0389
X4.6046 Y0.341 Z-0.0112 I-0.0025 J0.0389
Y0.263 I0. J-0.039 F40.
Y0.341 I0. J0.039
Y0.263 Z-0.0154 I0. J-0.039 F30.
Y0.341 Z-0.0197 I0. J0.039
X4.5678 Y0.2891 Z-0.0223 I0. J-0.039
X4.6414 Y0.3149 I0.0368 J0.0129 F40.
X4.5678 Y0.2891 I-0.0368 J-0.0129
X4.6414 Y0.3149 Z-0.0266 I0.0368 J0.0129 F30.
X4.5678 Y0.2891 Z-0.0309 I-0.0368 J-0.0129
X4.6289 Y0.2715 Z-0.0335 I0.0368 J0.0129
X4.5803 Y0.3325 I-0.0243 J0.0305 F40.
X4.6289 Y0.2715 I0.0243 J-0.0305
X4.5803 Y0.3325 Z-0.0377 I-0.0243 J0.0305 F30.
X4.6289 Y0.2715 Z-0.042 I0.0243 J-0.0305
X4.6254 Y0.335 Z-0.0446 I-0.0243 J0.0305
X4.5838 Y0.269 I-0.0208 J-0.033 F40.
X4.6254 Y0.335 I0.0208 J0.033
X4.5838 Y0.269 Z-0.0489 I-0.0208 J-0.033 F30.
X4.6254 Y0.335 Z-0.0532 I0.0208 J0.033
X4.5666 Y0.3108 Z-0.0558 I-0.0208 J-0.033
X4.6426 Y0.2932 I0.038 J-0.0088 F40.
X4.5666 Y0.3108 I-0.038 J0.0088
X4.6426 Y0.2932 Z-0.06 I0.038 J-0.0088 F30.
X4.5666 Y0.3108 Z-0.0643 I-0.038 J0.0088
X4.6088 Y0.2632 Z-0.0669 I0.038 J-0.0088
X4.6004 Y0.3408 I-0.0042 J0.0388 F40.
X4.6088 Y0.2632 I0.0042 J-0.0388
X4.6004 Y0.3408 Z-0.0712 I-0.0042 J0.0388 F30.
X4.6088 Y0.2632 Z-0.0755 I0.0042 J-0.0388
X4.6398 Y0.3188 Z-0.0781 I-0.0042 J0.0388
X4.5694 Y0.2852 I-0.0352 J-0.0168 F40.
X4.6398 Y0.3188 I0.0352 J0.0168
X4.5694 Y0.2852 Z-0.0824 I-0.0352 J-0.0168 F30.
X4.6398 Y0.3188 Z-0.0866 I0.0352 J0.0168
X4.5772 Y0.3297 Z-0.0892 I-0.0352 J-0.0168
X4.632 Y0.2743 I0.0274 J-0.0277 F40.
X4.5772 Y0.3297 I-0.0274 J0.0277
X4.632 Y0.2743 Z-0.0935 I0.0274 J-0.0277 F30.
X4.5772 Y0.3297 Z-0.0978 I-0.0274 J0.0277
X4.5875 Y0.267 Z-0.1004 I0.0274 J-0.0277
X4.6217 Y0.337 I0.0171 J0.035 F40.
X4.5875 Y0.267 I-0.0171 J-0.035
X4.6217 Y0.337 Z-0.1047 I0.0171 J0.035 F30.
X4.5875 Y0.267 Z-0.1089 I-0.0171 J-0.035
X4.6433 Y0.2974 Z-0.1115 I0.0171 J0.035
X4.5659 Y0.3066 I-0.0387 J0.0046 F40.
X4.6433 Y0.2974 I0.0387 J-0.0046
X4.5659 Y0.3066 Z-0.1158 I-0.0387 J0.0046 F30.
X4.6433 Y0.2974 Z-0.1201 I0.0387 J-0.0046
X4.5962 Y0.3401 Z-0.1227 I-0.0387 J0.0046
X4.613 Y0.2639 I0.0084 J-0.0381 F40.
X4.5962 Y0.3401 I-0.0084 J0.0381
X4.613 Y0.2639 Z-0.127 I0.0084 J-0.0381 F30.
X4.5962 Y0.3401 Z-0.1312 I-0.0084 J0.0381
X4.5714 Y0.2815 Z-0.1338 I0.0084 J-0.0381
X4.6378 Y0.3225 I0.0332 J0.0205 F40.
X4.5714 Y0.2815 I-0.0332 J-0.0205
X4.6378 Y0.3225 Z-0.1381 I0.0332 J0.0205 F30.
X4.5714 Y0.2815 Z-0.1424 I-0.0332 J-0.0205
X4.6349 Y0.2774 Z-0.145 I0.0332 J0.0205
X4.5743 Y0.3266 I-0.0303 J0.0246 F40.
X4.6349 Y0.2774 I0.0303 J-0.0246
G1 X4.6361 Y0.2793 Z-0.1446
X4.637 Y0.2814 Z-0.1441
X4.6374 Y0.2832 Z-0.1428
X4.6375 Y0.2852 Z-0.1415
X4.6372 Y0.2877 Z-0.1377
X4.6369 Y0.2885 Z-0.1332
G0 Z0.2
X4.9806 Y1.6059
G1 Z0.1118 F30.
X4.9817 Y1.6057 Z0.1068
X4.9848 Y1.6052 Z0.1027
X4.9894 Y1.6049 Z0.1004
X4.992 Y1.605 Z0.1
G3 X4.9869 Y1.6828 Z0.0957 I-0.0025 J0.0389
X4.992 Y1.605 Z0.0914 I0.0025 J-0.0389
X4.9869 Y1.6828 Z0.0872 I-0.0025 J0.0389
X4.992 Y1.605 Z0.0829 I0.0025 J-0.0389
X4.9869 Y1.6828 Z0.0786 I-0.0025 J0.0389
X4.992 Y1.605 Z0.0743 I0.0025 J-0.0389
X4.9869 Y1.6828 Z0.0701 I-0.0025 J0.0389
X4.992 Y1.605 Z0.0658 I0.0025 J-0.0389
X4.9869 Y1.6828 Z0.0615 I-0.0025 J0.0389
X4.992 Y1.605 Z0.0572 I0.0025 J-0.0389
X4.9869 Y1.6828 Z0.0529 I-0.0025 J0.0389
X4.992 Y1.605 Z0.0487 I0.0025 J-0.0389
X4.9869 Y1.6828 Z0.0444 I-0.0025 J0.0389
X4.992 Y1.605 Z0.0401 I0.0025 J-0.0389
X4.9869 Y1.6828 Z0.0358 I-0.0025 J0.0389
X4.992 Y1.605 Z0.0315 I0.0025 J-0.0389
X4.9869 Y1.6828 Z0.0273 I-0.0025 J0.0389
X4.992 Y1.605 Z0.023 I0.0025 J-0.0389
X4.9869 Y1.6828 Z0.0187 I-0.0025 J0.0389
X4.992 Y1.605 Z0.0144 I0.0025 J-0.0389
X4.9869 Y1.6828 Z0.0102 I-0.0025 J0.0389
X4.992 Y1.605 Z0.0059 I0.0025 J-0.0389
X4.9869 Y1.6828 Z0.0016 I-0.0025 J0.0389
X4.992 Y1.605 Z-0.0027 I0.0025 J-0.0389
X4.9869 Y1.6828 Z-0.007 I-0.0025 J0.0389
X4.9894 Y1.6049 Z-0.0112 I0.0025 J-0.0389
Y1.6829 I0. J0.039 F40.
Y1.6049 I0. J-0.039
Y1.6829 Z-0.0154 I0. J0.039 F30.
Y1.6049 Z-0.0197 I0. J-0.039
X5.0262 Y1.6568 Z-0.0223 I0. J0.039
X4.9526 Y1.6311 I-0.0368 J-0.0129 F40.
X5.0262 Y1.6568 I0.0368 J0.0129
X4.9526 Y1.6311 Z-0.0266 I-0.0368 J-0.0129 F30.
X5.0262 Y1.6568 Z-0.0309 I0.0368 J0.0129
X4.9651 Y1.6744 Z-0.0335 I-0.0368 J-0.0129
X5.0137 Y1.6134 I0.0243 J-0.0305 F40.
X4.9651 Y1.6744 I-0.0243 J0.0305
X5.0137 Y1.6134 Z-0.0377 I0.0243 J-0.0305 F30.
X4.9651 Y1.6744 Z-0.042 I-0.0243 J0.0305
X4.9686 Y1.6109 Z-0.0446 I0.0243 J-0.0305
X5.0102 Y1.6769 I0.0208 J0.033 F40.
X4.9686 Y1.6109 I-0.0208 J-0.033
X5.0102 Y1.6769 Z-0.0489 I0.0208 J0.033 F30.
X4.9686 Y1.6109 Z-0.0532 I-0.0208 J-0.033
X5.0274 Y1.6351 Z-0.0558 I0.0208 J0.033
X4.9514 Y1.6527 I-0.038 J0.0088 F40.
X5.0274 Y1.6351 I0.038 J-0.0088
X4.9514 Y1.6527 Z-0.06 I-0.038 J0.0088 F30.
X5.0274 Y1.6351 Z-0.0643 I0.038 J-0.0088
X4.9852 Y1.6827 Z-0.0669 I-0.038 J0.0088
X4.9936 Y1.6052 I0.0042 J-0.0388 F40.
X4.9852 Y1.6827 I-0.0042 J0.0388
X4.9936 Y1.6052 Z-0.0712 I0.0042 J-0.0388 F30.
X4.9852 Y1.6827 Z-0.0755 I-0.0042 J0.0388
X4.9542 Y1.6272 Z-0.0781 I0.0042 J-0.0388
X5.0246 Y1.6607 I0.0352 J0.0168 F40.
X4.9542 Y1.6272 I-0.0352 J-0.0168
X5.0246 Y1.6607 Z-0.0824 I0.0352 J0.0168 F30.
X4.9542 Y1.6272 Z-0.0866 I-0.0352 J-0.0168
X5.0168 Y1.6162 Z-0.0892 I0.0352 J0.0168
X4.962 Y1.6716 I-0.0274 J0.0277 F40.
X5.0168 Y1.6162 I0.0274 J-0.0277
X4.962 Y1.6716 Z-0.0935 I-0.0274 J0.0277 F30.
X5.0168 Y1.6162 Z-0.0978 I0.0274 J-0.0277
X5.0065 Y1.679 Z-0.1004 I-0.0274 J0.0277
X4.9723 Y1.6089 I-0.0171 J-0.035 F40.
X5.0065 Y1.679 I0.0171 J0.035
X4.9723 Y1.6089 Z-0.1047 I-0.0171 J-0.035 F30.
X5.0065 Y1.679 Z-0.1089 I0.0171 J0.035
X4.9507 Y1.6485 Z-0.1115 I-0.0171 J-0.035
X5.0281 Y1.6393 I0.0387 J-0.0046 F40.
X4.9507 Y1.6485 I-0.0387 J0.0046
X5.0281 Y1.6393 Z-0.1158 I0.0387 J-0.0046 F30.
X4.9507 Y1.6485 Z-0.1201 I-0.0387 J0.0046
X4.9978 Y1.6058 Z-0.1227 I0.0387 J-0.0046
X4.981 Y1.682 I-0.0084 J0.0381 F40.
X4.9978 Y1.6058 I0.0084 J-0.0381
X4.981 Y1.682 Z-0.127 I-0.0084 J0.0381 F30.
X4.9978 Y1.6058 Z-0.1312 I0.0084 J-0.0381
X5.0226 Y1.6644 Z-0.1338 I-0.0084 J0.0381
X4.9562 Y1.6234 I-0.0332 J-0.0205 F40.
X5.0226 Y1.6644 I0.0332 J0.0205
X4.9562 Y1.6234 Z-0.1381 I-0.0332 J-0.0205 F30.
X5.0226 Y1.6644 Z-0.1424 I0.0332 J0.0205
X4.9591 Y1.6685 Z-0.145 I-0.0332 J-0.0205
X5.0197 Y1.6193 I0.0303 J-0.0246 F40.
X4.9591 Y1.6685 I-0.0303 J0.0246
G1 X4.9579 Y1.6666 Z-0.1446
X4.957 Y1.6645 Z-0.1441
X4.9566 Y1.6627 Z-0.1428
X4.9565 Y1.6608 Z-0.1415
X4.9568 Y1.6582 Z-0.1377
X4.9571 Y1.6574 Z-0.1332
G0 Z0.2
X3.6387 Y1.9907
G1 Z0.1118 F30.
X3.6398 Y1.9905 Z0.1068
X3.6429 Y1.99 Z0.1027
X3.6475 Y1.9897 Z0.1004
X3.65 Y1.9898 Z0.1
G3 X3.6449 Y2.0676 Z0.0957 I-0.0025 J0.0389
X3.65 Y1.9898 Z0.0914 I0.0025 J-0.0389
X3.6449 Y2.0676 Z0.0872 I-0.0025 J0.0389
X3.65 Y1.9898 Z0.0829 I0.0025 J-0.0389
X3.6449 Y2.0676 Z0.0786 I-0.0025 J0.0389
X3.65 Y1.9898 Z0.0743 I0.0025 J-0.0389
X3.6449 Y2.0676 Z0.0701 I-0.0025 J0.0389
X3.65 Y1.9898 Z0.0658 I0.0025 J-0.0389
X3.6449 Y2.0676 Z0.0615 I-0.0025 J0.0389
X3.65 Y1.9898 Z0.0572 I0.0025 J-0.0389
X3.6449 Y2.0676 Z0.0529 I-0.0025 J0.0389
X3.65 Y1.9898 Z0.0487 I0.0025 J-0.0389
X3.6449 Y2.0676 Z0.0444 I-0.0025 J0.0389
X3.65 Y1.9898 Z0.0401 I0.0025 J-0.0389
X3.6449 Y2.0676 Z0.0358 I-0.0025 J0.0389
X3.65 Y1.9898 Z0.0315 I0.0025 J-0.0389
X3.6449 Y2.0676 Z0.0273 I-0.0025 J0.0389
X3.65 Y1.9898 Z0.023 I0.0025 J-0.0389
X3.6449 Y2.0676 Z0.0187 I-0.0025 J0.0389
X3.65 Y1.9898 Z0.0144 I0.0025 J-0.0389
X3.6449 Y2.0676 Z0.0102 I-0.0025 J0.0389
X3.65 Y1.9898 Z0.0059 I0.0025 J-0.0389
X3.6449 Y2.0676 Z0.0016 I-0.0025 J0.0389
X3.65 Y1.9898 Z-0.0027 I0.0025 J-0.0389
X3.6449 Y2.0676 Z-0.007 I-0.0025 J0.0389
X3.6475 Y1.9897 Z-0.0112 I0.0025 J-0.0389
Y2.0677 I0. J0.039 F40.
Y1.9897 I0. J-0.039
Y2.0677 Z-0.0154 I0. J0.039 F30.
Y1.9897 Z-0.0197 I0. J-0.039
X3.6843 Y2.0416 Z-0.0223 I0. J0.039
X3.6106 Y2.0159 I-0.0368 J-0.0129 F40.
X3.6843 Y2.0416 I0.0368 J0.0129
X3.6106 Y2.0159 Z-0.0266 I-0.0368 J-0.0129 F30.
X3.6843 Y2.0416 Z-0.0309 I0.0368 J0.0129
X3.6232 Y2.0592 Z-0.0335 I-0.0368 J-0.0129
X3.6717 Y1.9982 I0.0243 J-0.0305 F40.
X3.6232 Y2.0592 I-0.0243 J0.0305
X3.6717 Y1.9982 Z-0.0377 I0.0243 J-0.0305 F30.
X3.6232 Y2.0592 Z-0.042 I-0.0243 J0.0305
X3.6266 Y1.9957 Z-0.0446 I0.0243 J-0.0305
X3.6683 Y2.0617 I0.0208 J0.033 F40.
X3.6266 Y1.9957 I-0.0208 J-0.033
X3.6683 Y2.0617 Z-0.0489 I0.0208 J0.033 F30.
X3.6266 Y1.9957 Z-0.0532 I-0.0208 J-0.033
X3.6855 Y2.0199 Z-0.0558 I0.0208 J0.033
X3.6095 Y2.0375 I-0.038 J0.0088 F40.
X3.6855 Y2.0199 I0.038 J-0.0088
X3.6095 Y2.0375 Z-0.06 I-0.038 J0.0088 F30.
X3.6855 Y2.0199 Z-0.0643 I0.038 J-0.0088
X3.6432 Y2.0675 Z-0.0669 I-0.038 J0.0088
X3.6517 Y1.9899 I0.0042 J-0.0388 F40.
X3.6432 Y2.0675 I-0.0042 J0.0388
X3.6517 Y1.9899 Z-0.0712 I0.0042 J-0.0388 F30.
X3.6432 Y2.0675 Z-0.0755 I-0.0042 J0.0388
X3.6123 Y2.0119 Z-0.0781 I0.0042 J-0.0388
X3.6827 Y2.0455 I0.0352 J0.0168 F40.
X3.6123 Y2.0119 I-0.0352 J-0.0168
X3.6827 Y2.0455 Z-0.0824 I0.0352 J0.0168 F30.
X3.6123 Y2.0119 Z-0.0866 I-0.0352 J-0.0168
X3.6749 Y2.001 Z-0.0892 I0.0352 J0.0168
X3.62 Y2.0564 I-0.0274 J0.0277 F40.
X3.6749 Y2.001 I0.0274 J-0.0277
X3.62 Y2.0564 Z-0.0935 I-0.0274 J0.0277 F30.
X3.6749 Y2.001 Z-0.0978 I0.0274 J-0.0277
X3.6646 Y2.0638 Z-0.1004 I-0.0274 J0.0277
X3.6303 Y1.9937 I-0.0171 J-0.035 F40.
X3.6646 Y2.0638 I0.0171 J0.035
X3.6303 Y1.9937 Z-0.1047 I-0.0171 J-0.035 F30.
X3.6646 Y2.0638 Z-0.1089 I0.0171 J0.035
X3.6087 Y2.0333 Z-0.1115 I-0.0171 J-0.035
X3.6862 Y2.0241 I0.0387 J-0.0046 F40.
X3.6087 Y2.0333 I-0.0387 J0.0046
X3.6862 Y2.0241 Z-0.1158 I0.0387 J-0.0046 F30.
X3.6087 Y2.0333 Z-0.1201 I-0.0387 J0.0046
X3.6559 Y1.9906 Z-0.1227 I0.0387 J-0.0046
X3.6391 Y2.0668 I-0.0084 J0.0381 F40.
X3.6559 Y1.9906 I0.0084 J-0.0381
X3.6391 Y2.0668 Z-0.127 I-0.0084 J0.0381 F30.
X3.6559 Y1.9906 Z-0.1312 I0.0084 J-0.0381
X3.6807 Y2.0492 Z-0.1338 I-0.0084 J0.0381
X3.6143 Y2.0082 I-0.0332 J-0.0205 F40.
X3.6807 Y2.0492 I0.0332 J0.0205
X3.6143 Y2.0082 Z-0.1381 I-0.0332 J-0.0205 F30.
X3.6807 Y2.0492 Z-0.1424 I0.0332 J0.0205
X3.6172 Y2.0533 Z-0.145 I-0.0332 J-0.0205
X3.6777 Y2.0041 I0.0303 J-0.0246 F40.
X3.6172 Y2.0533 I-0.0303 J0.0246
G1 X3.6159 Y2.0514 Z-0.1446
X3.6151 Y2.0493 Z-0.1441
X3.6147 Y2.0475 Z-0.1428
X3.6146 Y2.0456 Z-0.1415
X3.6149 Y2.043 Z-0.1377
X3.6151 Y2.0422 Z-0.1332
G0 Z0.2
X3.2714 Y0.7248
G1 Z0.1118 F30.
X3.2704 Y0.725 Z0.1068
X3.2672 Y0.7255 Z0.1027
X3.2627 Y0.7258 Z0.1004
X3.2601 Y0.7257 Z0.1
G3 X3.2652 Y0.6479 Z0.0957 I0.0025 J-0.0389
X3.2601 Y0.7257 Z0.0914 I-0.0025 J0.0389
X3.2652 Y0.6479 Z0.0872 I0.0025 J-0.0389
X3.2601 Y0.7257 Z0.0829 I-0.0025 J0.0389
X3.2652 Y0.6479 Z0.0786 I0.0025 J-0.0389
X3.2601 Y0.7257 Z0.0743 I-0.0025 J0.0389
X3.2652 Y0.6479 Z0.0701 I0.0025 J-0.0389
X3.2601 Y0.7257 Z0.0658 I-0.0025 J0.0389
X3.2652 Y0.6479 Z0.0615 I0.0025 J-0.0389
X3.2601 Y0.7257 Z0.0572 I-0.0025 J0.0389
X3.2652 Y0.6479 Z0.0529 I0.0025 J-0.0389
X3.2601 Y0.7257 Z0.0487 I-0.0025 J0.0389
X3.2652 Y0.6479 Z0.0444 I0.0025 J-0.0389
X3.2601 Y0.7257 Z0.0401 I-0.0025 J0.0389
X3.2652 Y0.6479 Z0.0358 I0.0025 J-0.0389
X3.2601 Y0.7257 Z0.0315 I-0.0025 J0.0389
X3.2652 Y0.6479 Z0.0273 I0.0025 J-0.0389
X3.2601 Y0.7257 Z0.023 I-0.0025 J0.0389
X3.2652 Y0.6479 Z0.0187 I0.0025 J-0.0389
X3.2601 Y0.7257 Z0.0144 I-0.0025 J0.0389
X3.2652 Y0.6479 Z0.0102 I0.0025 J-0.0389
X3.2601 Y0.7257 Z0.0059 I-0.0025 J0.0389
X3.2652 Y0.6479 Z0.0016 I0.0025 J-0.0389
X3.2601 Y0.7257 Z-0.0027 I-0.0025 J0.0389
X3.2652 Y0.6479 Z-0.007 I0.0025 J-0.0389
X3.2627 Y0.7258 Z-0.0112 I-0.0025 J0.0389
Y0.6478 I0. J-0.039 F40.
Y0.7258 I0. J0.039
Y0.6478 Z-0.0154 I0. J-0.039 F30.
Y0.7258 Z-0.0197 I0. J0.039
X3.2259 Y0.6739 Z-0.0223 I0. J-0.039
X3.2995 Y0.6996 I0.0368 J0.0129 F40.
X3.2259 Y0.6739 I-0.0368 J-0.0129
X3.2995 Y0.6996 Z-0.0266 I0.0368 J0.0129 F30.
X3.2259 Y0.6739 Z-0.0309 I-0.0368 J-0.0129
X3.287 Y0.6563 Z-0.0335 I0.0368 J0.0129
X3.2384 Y0.7173 I-0.0243 J0.0305 F40.
X3.287 Y0.6563 I0.0243 J-0.0305
X3.2384 Y0.7173 Z-0.0377 I-0.0243 J0.0305 F30.
X3.287 Y0.6563 Z-0.042 I0.0243 J-0.0305
X3.2835 Y0.7198 Z-0.0446 I-0.0243 J0.0305
X3.2419 Y0.6538 I-0.0208 J-0.033 F40.
X3.2835 Y0.7198 I0.0208 J0.033
X3.2419 Y0.6538 Z-0.0489 I-0.0208 J-0.033 F30.
X3.2835 Y0.7198 Z-0.0532 I0.0208 J0.033
X3.2247 Y0.6956 Z-0.0558 I-0.0208 J-0.033
X3.3007 Y0.678 I0.038 J-0.0088 F40.
X3.2247 Y0.6956 I-0.038 J0.0088
X3.3007 Y0.678 Z-0.06 I0.038 J-0.0088 F30.
X3.2247 Y0.6956 Z-0.0643 I-0.038 J0.0088
X3.2669 Y0.648 Z-0.0669 I0.038 J-0.0088
X3.2585 Y0.7256 I-0.0042 J0.0388 F40.
X3.2669 Y0.648 I0.0042 J-0.0388
X3.2585 Y0.7256 Z-0.0712 I-0.0042 J0.0388 F30.
X3.2669 Y0.648 Z-0.0755 I0.0042 J-0.0388
X3.2979 Y0.7036 Z-0.0781 I-0.0042 J0.0388
X3.2275 Y0.67 I-0.0352 J-0.0168 F40.
X3.2979 Y0.7036 I0.0352 J0.0168
X3.2275 Y0.67 Z-0.0824 I-0.0352 J-0.0168 F30.
X3.2979 Y0.7036 Z-0.0866 I0.0352 J0.0168
X3.2352 Y0.7145 Z-0.0892 I-0.0352 J-0.0168
X3.2901 Y0.6591 I0.0274 J-0.0277 F40.
X3.2352 Y0.7145 I-0.0274 J0.0277
X3.2901 Y0.6591 Z-0.0935 I0.0274 J-0.0277 F30.
X3.2352 Y0.7145 Z-0.0978 I-0.0274 J0.0277
X3.2456 Y0.6518 Z-0.1004 I0.0274 J-0.0277
X3.2798 Y0.7218 I0.0171 J0.035 F40.
X3.2456 Y0.6518 I-0.0171 J-0.035
X3.2798 Y0.7218 Z-0.1047 I0.0171 J0.035 F30.
X3.2456 Y0.6518 Z-0.1089 I-0.0171 J-0.035
X3.3014 Y0.6822 Z-0.1115 I0.0171 J0.035
X3.224 Y0.6914 I-0.0387 J0.0046 F40.
X3.3014 Y0.6822 I0.0387 J-0.0046
X3.224 Y0.6914 Z-0.1158 I-0.0387 J0.0046 F30.
X3.3014 Y0.6822 Z-0.1201 I0.0387 J-0.0046
X3.2543 Y0.7249 Z-0.1227 I-0.0387 J0.0046
X3.2711 Y0.6487 I0.0084 J-0.0381 F40.
X3.2543 Y0.7249 I-0.0084 J0.0381
X3.2711 Y0.6487 Z-0.127 I0.0084 J-0.0381 F30.
X3.2543 Y0.7249 Z-0.1312 I-0.0084 J0.0381
X3.2295 Y0.6663 Z-0.1338 I0.0084 J-0.0381
X3.2959 Y0.7073 I0.0332 J0.0205 F40.
X3.2295 Y0.6663 I-0.0332 J-0.0205
X3.2959 Y0.7073 Z-0.1381 I0.0332 J0.0205 F30.
X3.2295 Y0.6663 Z-0.1424 I-0.0332 J-0.0205
X3.293 Y0.6622 Z-0.145 I0.0332 J0.0205
X3.2324 Y0.7114 I-0.0303 J0.0246 F40.
X3.293 Y0.6622 I0.0303 J-0.0246
G1 X3.2942 Y0.6641 Z-0.1446
X3.2951 Y0.6662 Z-0.1441
X3.2955 Y0.668 Z-0.1428
X3.2956 Y0.6699 Z-0.1415
X3.2953 Y0.6725 Z-0.1377
X3.295 Y0.6733 Z-0.1332
G0 Z0.6

M9
M30
