(X8 BATTERY HOLDER RIVET HOLE 2)
(T3  D=0.118 CR=0. - ZMIN=-0.375 - FLAT END MILL)
G90 G94 G91.1 G40 G49 G17
G20

(2D POCKET1 4)
M5
T3 M6
S15000 M3
g4 p5
G54
M8
G0 X10.3339 Y6.4342
G43 Z0.61 H3
Z0.4
G1 Z0.3 F40.
Z0.1918 F20.
X10.3331 Y6.4346 Z0.1873
X10.3319 Y6.435 Z0.1854
X10.3306 Y6.4351 Z0.1835
X10.3293 Y6.4349 Z0.1826
X10.3282 Y6.4344 Z0.1818
X10.3271 Y6.4336 Z0.1809
X10.3262 Y6.4324 Z0.1806
X10.3256 Y6.4311 Z0.1803
X10.3254 Y6.4296 Z0.18
X10.3256 Y6.4279 F40.
X10.3264 Y6.4264
X10.3276 Y6.4251
X10.3292 Y6.4244
X10.3309 Y6.4241
G3 Y6.4351 I0. J0.0055
G1 X10.3292 Y6.4348
X10.3276 Y6.434
X10.3264 Y6.4328
X10.3256 Y6.4313
X10.3254 Y6.4296
X10.3257 Y6.428
X10.3265 Y6.4265
X10.3277 Y6.4254
X10.3293 Y6.4248
X10.3309
X10.3325 Y6.4253
X10.3335 Y6.4259
X10.3348 Y6.4269
X10.3357 Y6.4283
X10.3361 Y6.4299
X10.3358 Y6.4316
X10.3351 Y6.4331
X10.3339 Y6.4342
Z0.1718 F20.
X10.3331 Y6.4346 Z0.1673
X10.3319 Y6.435 Z0.1654
X10.3306 Y6.4351 Z0.1635
X10.3293 Y6.4349 Z0.1626
X10.3282 Y6.4344 Z0.1618
X10.3271 Y6.4336 Z0.1609
X10.3262 Y6.4324 Z0.1606
X10.3256 Y6.4311 Z0.1603
X10.3254 Y6.4296 Z0.16
X10.3256 Y6.4279 F40.
X10.3264 Y6.4264
X10.3276 Y6.4251
X10.3292 Y6.4244
X10.3309 Y6.4241
G3 Y6.4351 I0. J0.0055
G1 X10.3292 Y6.4348
X10.3276 Y6.434
X10.3264 Y6.4328
X10.3256 Y6.4313
X10.3254 Y6.4296
X10.3257 Y6.428
X10.3265 Y6.4265
X10.3277 Y6.4254
X10.3293 Y6.4248
X10.3309
X10.3325 Y6.4253
X10.3335 Y6.4259
X10.3348 Y6.4269
X10.3357 Y6.4283
X10.3361 Y6.4299
X10.3358 Y6.4316
X10.3351 Y6.4331
X10.3339 Y6.4342
Z0.1518 F20.
X10.3331 Y6.4346 Z0.1473
X10.3319 Y6.435 Z0.1454
X10.3306 Y6.4351 Z0.1435
X10.3293 Y6.4349 Z0.1426
X10.3282 Y6.4344 Z0.1418
X10.3271 Y6.4336 Z0.1409
X10.3262 Y6.4324 Z0.1406
X10.3256 Y6.4311 Z0.1403
X10.3254 Y6.4296 Z0.14
X10.3256 Y6.4279 F40.
X10.3264 Y6.4264
X10.3276 Y6.4251
X10.3292 Y6.4244
X10.3309 Y6.4241
G3 Y6.4351 I0. J0.0055
G1 X10.3292 Y6.4348
X10.3276 Y6.434
X10.3264 Y6.4328
X10.3256 Y6.4313
X10.3254 Y6.4296
X10.3257 Y6.428
X10.3265 Y6.4265
X10.3277 Y6.4254
X10.3293 Y6.4248
X10.3309
X10.3325 Y6.4253
X10.3335 Y6.4259
X10.3348 Y6.4269
X10.3357 Y6.4283
X10.3361 Y6.4299
X10.3358 Y6.4316
X10.3351 Y6.4331
X10.3339 Y6.4342
Z0.1318 F20.
X10.3331 Y6.4346 Z0.1273
X10.3319 Y6.435 Z0.1254
X10.3306 Y6.4351 Z0.1235
X10.3293 Y6.4349 Z0.1226
X10.3282 Y6.4344 Z0.1218
X10.3271 Y6.4336 Z0.1209
X10.3262 Y6.4324 Z0.1206
X10.3256 Y6.4311 Z0.1203
X10.3254 Y6.4296 Z0.12
X10.3256 Y6.4279 F40.
X10.3264 Y6.4264
X10.3276 Y6.4251
X10.3292 Y6.4244
X10.3309 Y6.4241
G3 Y6.4351 I0. J0.0055
G1 X10.3292 Y6.4348
X10.3276 Y6.434
X10.3264 Y6.4328
X10.3256 Y6.4313
X10.3254 Y6.4296
X10.3257 Y6.428
X10.3265 Y6.4265
X10.3277 Y6.4254
X10.3293 Y6.4248
X10.3309
X10.3325 Y6.4253
X10.3335 Y6.4259
X10.3348 Y6.4269
X10.3357 Y6.4283
X10.3361 Y6.4299
X10.3358 Y6.4316
X10.3351 Y6.4331
X10.3339 Y6.4342
Z0.1118 F20.
X10.3331 Y6.4346 Z0.1073
X10.3319 Y6.435 Z0.1054
X10.3306 Y6.4351 Z0.1035
X10.3293 Y6.4349 Z0.1026
X10.3282 Y6.4344 Z0.1018
X10.3271 Y6.4336 Z0.1009
X10.3262 Y6.4324 Z0.1006
X10.3256 Y6.4311 Z0.1003
X10.3254 Y6.4296 Z0.1
X10.3256 Y6.4279 F40.
X10.3264 Y6.4264
X10.3276 Y6.4251
X10.3292 Y6.4244
X10.3309 Y6.4241
G3 Y6.4351 I0. J0.0055
G1 X10.3292 Y6.4348
X10.3276 Y6.434
X10.3264 Y6.4328
X10.3256 Y6.4313
X10.3254 Y6.4296
X10.3257 Y6.428
X10.3265 Y6.4265
X10.3277 Y6.4254
X10.3293 Y6.4248
X10.3309
X10.3325 Y6.4253
X10.3335 Y6.4259
X10.3348 Y6.4269
X10.3357 Y6.4283
X10.3361 Y6.4299
X10.3358 Y6.4316
X10.3351 Y6.4331
X10.3339 Y6.4342
Z0.0918 F20.
X10.3331 Y6.4346 Z0.0873
X10.3319 Y6.435 Z0.0854
X10.3306 Y6.4351 Z0.0835
X10.3293 Y6.4349 Z0.0826
X10.3282 Y6.4344 Z0.0818
X10.3271 Y6.4336 Z0.0809
X10.3262 Y6.4324 Z0.0806
X10.3256 Y6.4311 Z0.0803
X10.3254 Y6.4296 Z0.08
X10.3256 Y6.4279 F40.
X10.3264 Y6.4264
X10.3276 Y6.4251
X10.3292 Y6.4244
X10.3309 Y6.4241
G3 Y6.4351 I0. J0.0055
G1 X10.3292 Y6.4348
X10.3276 Y6.434
X10.3264 Y6.4328
X10.3256 Y6.4313
X10.3254 Y6.4296
X10.3257 Y6.428
X10.3265 Y6.4265
X10.3277 Y6.4254
X10.3293 Y6.4248
X10.3309
X10.3325 Y6.4253
X10.3335 Y6.4259
X10.3348 Y6.4269
X10.3357 Y6.4283
X10.3361 Y6.4299
X10.3358 Y6.4316
X10.3351 Y6.4331
X10.3339 Y6.4342
Z0.0718 F20.
X10.3331 Y6.4346 Z0.0673
X10.3319 Y6.435 Z0.0654
X10.3306 Y6.4351 Z0.0635
X10.3293 Y6.4349 Z0.0626
X10.3282 Y6.4344 Z0.0618
X10.3271 Y6.4336 Z0.0609
X10.3262 Y6.4324 Z0.0606
X10.3256 Y6.4311 Z0.0603
X10.3254 Y6.4296 Z0.06
X10.3256 Y6.4279 F40.
X10.3264 Y6.4264
X10.3276 Y6.4251
X10.3292 Y6.4244
X10.3309 Y6.4241
G3 Y6.4351 I0. J0.0055
G1 X10.3292 Y6.4348
X10.3276 Y6.434
X10.3264 Y6.4328
X10.3256 Y6.4313
X10.3254 Y6.4296
X10.3257 Y6.428
X10.3265 Y6.4265
X10.3277 Y6.4254
X10.3293 Y6.4248
X10.3309
X10.3325 Y6.4253
X10.3335 Y6.4259
X10.3348 Y6.4269
X10.3357 Y6.4283
X10.3361 Y6.4299
X10.3358 Y6.4316
X10.3351 Y6.4331
X10.3339 Y6.4342
Z0.0518 F20.
X10.3331 Y6.4346 Z0.0473
X10.3319 Y6.435 Z0.0454
X10.3306 Y6.4351 Z0.0435
X10.3293 Y6.4349 Z0.0426
X10.3282 Y6.4344 Z0.0418
X10.3271 Y6.4336 Z0.0409
X10.3262 Y6.4324 Z0.0406
X10.3256 Y6.4311 Z0.0403
X10.3254 Y6.4296 Z0.04
X10.3256 Y6.4279 F40.
X10.3264 Y6.4264
X10.3276 Y6.4251
X10.3292 Y6.4244
X10.3309 Y6.4241
G3 Y6.4351 I0. J0.0055
G1 X10.3292 Y6.4348
X10.3276 Y6.434
X10.3264 Y6.4328
X10.3256 Y6.4313
X10.3254 Y6.4296
X10.3257 Y6.428
X10.3265 Y6.4265
X10.3277 Y6.4254
X10.3293 Y6.4248
X10.3309
X10.3325 Y6.4253
X10.3335 Y6.4259
X10.3348 Y6.4269
X10.3357 Y6.4283
X10.3361 Y6.4299
X10.3358 Y6.4316
X10.3351 Y6.4331
X10.3339 Y6.4342
Z0.0318 F20.
X10.3331 Y6.4346 Z0.0273
X10.3319 Y6.435 Z0.0254
X10.3306 Y6.4351 Z0.0235
X10.3293 Y6.4349 Z0.0226
X10.3282 Y6.4344 Z0.0218
X10.3271 Y6.4336 Z0.0209
X10.3262 Y6.4324 Z0.0206
X10.3256 Y6.4311 Z0.0203
X10.3254 Y6.4296 Z0.02
X10.3256 Y6.4279 F40.
X10.3264 Y6.4264
X10.3276 Y6.4251
X10.3292 Y6.4244
X10.3309 Y6.4241
G3 Y6.4351 I0. J0.0055
G1 X10.3292 Y6.4348
X10.3276 Y6.434
X10.3264 Y6.4328
X10.3256 Y6.4313
X10.3254 Y6.4296
X10.3257 Y6.428
X10.3265 Y6.4265
X10.3277 Y6.4254
X10.3293 Y6.4248
X10.3309
X10.3325 Y6.4253
X10.3335 Y6.4259
X10.3348 Y6.4269
X10.3357 Y6.4283
X10.3361 Y6.4299
X10.3358 Y6.4316
X10.3351 Y6.4331
X10.3339 Y6.4342
Z0.0118 F20.
X10.3331 Y6.4346 Z0.0073
X10.3319 Y6.435 Z0.0054
X10.3306 Y6.4351 Z0.0035
X10.3293 Y6.4349 Z0.0026
X10.3282 Y6.4344 Z0.0018
X10.3271 Y6.4336 Z0.0009
X10.3262 Y6.4324 Z0.0006
X10.3256 Y6.4311 Z0.0003
X10.3254 Y6.4296 Z0.
X10.3256 Y6.4279 F40.
X10.3264 Y6.4264
X10.3276 Y6.4251
X10.3292 Y6.4244
X10.3309 Y6.4241
G3 Y6.4351 I0. J0.0055
G1 X10.3292 Y6.4348
X10.3276 Y6.434
X10.3264 Y6.4328
X10.3256 Y6.4313
X10.3254 Y6.4296
X10.3257 Y6.428
X10.3265 Y6.4265
X10.3277 Y6.4254
X10.3293 Y6.4248
X10.3309
X10.3325 Y6.4253
X10.3335 Y6.4259
X10.3348 Y6.4269
X10.3357 Y6.4283
X10.3361 Y6.4299
X10.3358 Y6.4316
X10.3351 Y6.4331
X10.3339 Y6.4342
Z-0.0082 F20.
X10.3331 Y6.4346 Z-0.0127
X10.3319 Y6.435 Z-0.0146
X10.3306 Y6.4351 Z-0.0165
X10.3293 Y6.4349 Z-0.0174
X10.3282 Y6.4344 Z-0.0182
X10.3271 Y6.4336 Z-0.0191
X10.3262 Y6.4324 Z-0.0194
X10.3256 Y6.4311 Z-0.0197
X10.3254 Y6.4296 Z-0.02
X10.3256 Y6.4279 F40.
X10.3264 Y6.4264
X10.3276 Y6.4251
X10.3292 Y6.4244
X10.3309 Y6.4241
G3 Y6.4351 I0. J0.0055
G1 X10.3292 Y6.4348
X10.3276 Y6.434
X10.3264 Y6.4328
X10.3256 Y6.4313
X10.3254 Y6.4296
X10.3257 Y6.428
X10.3265 Y6.4265
X10.3277 Y6.4254
X10.3293 Y6.4248
X10.3309
X10.3325 Y6.4253
X10.3335 Y6.4259
X10.3348 Y6.4269
X10.3357 Y6.4283
X10.3361 Y6.4299
X10.3358 Y6.4316
X10.3351 Y6.4331
X10.3339 Y6.4342
Z-0.0282 F20.
X10.3331 Y6.4346 Z-0.0327
X10.3319 Y6.435 Z-0.0346
X10.3306 Y6.4351 Z-0.0365
X10.3293 Y6.4349 Z-0.0374
X10.3282 Y6.4344 Z-0.0382
X10.3271 Y6.4336 Z-0.0391
X10.3262 Y6.4324 Z-0.0394
X10.3256 Y6.4311 Z-0.0397
X10.3254 Y6.4296 Z-0.04
X10.3256 Y6.4279 F40.
X10.3264 Y6.4264
X10.3276 Y6.4251
X10.3292 Y6.4244
X10.3309 Y6.4241
G3 Y6.4351 I0. J0.0055
G1 X10.3292 Y6.4348
X10.3276 Y6.434
X10.3264 Y6.4328
X10.3256 Y6.4313
X10.3254 Y6.4296
X10.3257 Y6.428
X10.3265 Y6.4265
X10.3277 Y6.4254
X10.3293 Y6.4248
X10.3309
X10.3325 Y6.4253
X10.3335 Y6.4259
X10.3348 Y6.4269
X10.3357 Y6.4283
X10.3361 Y6.4299
X10.3358 Y6.4316
X10.3351 Y6.4331
X10.3339 Y6.4342
Z-0.0482 F20.
X10.3331 Y6.4346 Z-0.0527
X10.3319 Y6.435 Z-0.0546
X10.3306 Y6.4351 Z-0.0565
X10.3293 Y6.4349 Z-0.0574
X10.3282 Y6.4344 Z-0.0582
X10.3271 Y6.4336 Z-0.0591
X10.3262 Y6.4324 Z-0.0594
X10.3256 Y6.4311 Z-0.0597
X10.3254 Y6.4296 Z-0.06
X10.3256 Y6.4279 F40.
X10.3264 Y6.4264
X10.3276 Y6.4251
X10.3292 Y6.4244
X10.3309 Y6.4241
G3 Y6.4351 I0. J0.0055
G1 X10.3292 Y6.4348
X10.3276 Y6.434
X10.3264 Y6.4328
X10.3256 Y6.4313
X10.3254 Y6.4296
X10.3257 Y6.428
X10.3265 Y6.4265
X10.3277 Y6.4254
X10.3293 Y6.4248
X10.3309
X10.3325 Y6.4253
X10.3335 Y6.4259
X10.3348 Y6.4269
X10.3357 Y6.4283
X10.3361 Y6.4299
X10.3358 Y6.4316
X10.3351 Y6.4331
X10.3339 Y6.4342
Z-0.0682 F20.
X10.3331 Y6.4346 Z-0.0727
X10.3319 Y6.435 Z-0.0746
X10.3306 Y6.4351 Z-0.0765
X10.3293 Y6.4349 Z-0.0774
X10.3282 Y6.4344 Z-0.0782
X10.3271 Y6.4336 Z-0.0791
X10.3262 Y6.4324 Z-0.0794
X10.3256 Y6.4311 Z-0.0797
X10.3254 Y6.4296 Z-0.08
X10.3256 Y6.4279 F40.
X10.3264 Y6.4264
X10.3276 Y6.4251
X10.3292 Y6.4244
X10.3309 Y6.4241
G3 Y6.4351 I0. J0.0055
G1 X10.3292 Y6.4348
X10.3276 Y6.434
X10.3264 Y6.4328
X10.3256 Y6.4313
X10.3254 Y6.4296
X10.3257 Y6.428
X10.3265 Y6.4265
X10.3277 Y6.4254
X10.3293 Y6.4248
X10.3309
X10.3325 Y6.4253
X10.3335 Y6.4259
X10.3348 Y6.4269
X10.3357 Y6.4283
X10.3361 Y6.4299
X10.3358 Y6.4316
X10.3351 Y6.4331
X10.3339 Y6.4342
Z-0.0882 F20.
X10.3331 Y6.4346 Z-0.0927
X10.3319 Y6.435 Z-0.0946
X10.3306 Y6.4351 Z-0.0965
X10.3293 Y6.4349 Z-0.0974
X10.3282 Y6.4344 Z-0.0982
X10.3271 Y6.4336 Z-0.0991
X10.3262 Y6.4324 Z-0.0994
X10.3256 Y6.4311 Z-0.0997
X10.3254 Y6.4296 Z-0.1
X10.3256 Y6.4279 F40.
X10.3264 Y6.4264
X10.3276 Y6.4251
X10.3292 Y6.4244
X10.3309 Y6.4241
G3 Y6.4351 I0. J0.0055
G1 X10.3292 Y6.4348
X10.3276 Y6.434
X10.3264 Y6.4328
X10.3256 Y6.4313
X10.3254 Y6.4296
X10.3257 Y6.428
X10.3265 Y6.4265
X10.3277 Y6.4254
X10.3293 Y6.4248
X10.3309
X10.3325 Y6.4253
X10.3335 Y6.4259
X10.3348 Y6.4269
X10.3357 Y6.4283
X10.3361 Y6.4299
X10.3358 Y6.4316
X10.3351 Y6.4331
X10.3339 Y6.4342
Z-0.1082 F20.
X10.3331 Y6.4346 Z-0.1127
X10.3319 Y6.435 Z-0.1146
X10.3306 Y6.4351 Z-0.1165
X10.3293 Y6.4349 Z-0.1174
X10.3282 Y6.4344 Z-0.1182
X10.3271 Y6.4336 Z-0.1191
X10.3262 Y6.4324 Z-0.1194
X10.3256 Y6.4311 Z-0.1197
X10.3254 Y6.4296 Z-0.12
X10.3256 Y6.4279 F40.
X10.3264 Y6.4264
X10.3276 Y6.4251
X10.3292 Y6.4244
X10.3309 Y6.4241
G3 Y6.4351 I0. J0.0055
G1 X10.3292 Y6.4348
X10.3276 Y6.434
X10.3264 Y6.4328
X10.3256 Y6.4313
X10.3254 Y6.4296
X10.3257 Y6.428
X10.3265 Y6.4265
X10.3277 Y6.4254
X10.3293 Y6.4248
X10.3309
X10.3325 Y6.4253
X10.3335 Y6.4259
X10.3348 Y6.4269
X10.3357 Y6.4283
X10.3361 Y6.4299
X10.3358 Y6.4316
X10.3351 Y6.4331
X10.3339 Y6.4342
Z-0.1282 F20.
X10.3331 Y6.4346 Z-0.1327
X10.3319 Y6.435 Z-0.1346
X10.3306 Y6.4351 Z-0.1365
X10.3293 Y6.4349 Z-0.1374
X10.3282 Y6.4344 Z-0.1382
X10.3271 Y6.4336 Z-0.1391
X10.3262 Y6.4324 Z-0.1394
X10.3256 Y6.4311 Z-0.1397
X10.3254 Y6.4296 Z-0.14
X10.3256 Y6.4279 F40.
X10.3264 Y6.4264
X10.3276 Y6.4251
X10.3292 Y6.4244
X10.3309 Y6.4241
G3 Y6.4351 I0. J0.0055
G1 X10.3292 Y6.4348
X10.3276 Y6.434
X10.3264 Y6.4328
X10.3256 Y6.4313
X10.3254 Y6.4296
X10.3257 Y6.428
X10.3265 Y6.4265
X10.3277 Y6.4254
X10.3293 Y6.4248
X10.3309
X10.3325 Y6.4253
X10.3335 Y6.4259
X10.3348 Y6.4269
X10.3357 Y6.4283
X10.3361 Y6.4299
X10.3358 Y6.4316
X10.3351 Y6.4331
X10.3339 Y6.4342
Z-0.1482 F20.
X10.3331 Y6.4346 Z-0.1527
X10.3319 Y6.435 Z-0.1546
X10.3306 Y6.4351 Z-0.1565
X10.3293 Y6.4349 Z-0.1574
X10.3282 Y6.4344 Z-0.1582
X10.3271 Y6.4336 Z-0.1591
X10.3262 Y6.4324 Z-0.1594
X10.3256 Y6.4311 Z-0.1597
X10.3254 Y6.4296 Z-0.16
X10.3256 Y6.4279 F40.
X10.3264 Y6.4264
X10.3276 Y6.4251
X10.3292 Y6.4244
X10.3309 Y6.4241
G3 Y6.4351 I0. J0.0055
G1 X10.3292 Y6.4348
X10.3276 Y6.434
X10.3264 Y6.4328
X10.3256 Y6.4313
X10.3254 Y6.4296
X10.3257 Y6.428
X10.3265 Y6.4265
X10.3277 Y6.4254
X10.3293 Y6.4248
X10.3309
X10.3325 Y6.4253
X10.3335 Y6.4259
X10.3348 Y6.4269
X10.3357 Y6.4283
X10.3361 Y6.4299
X10.3358 Y6.4316
X10.3351 Y6.4331
X10.3339 Y6.4342
Z-0.1682 F20.
X10.3331 Y6.4346 Z-0.1727
X10.3319 Y6.435 Z-0.1746
X10.3306 Y6.4351 Z-0.1765
X10.3293 Y6.4349 Z-0.1774
X10.3282 Y6.4344 Z-0.1782
X10.3271 Y6.4336 Z-0.1791
X10.3262 Y6.4324 Z-0.1794
X10.3256 Y6.4311 Z-0.1797
X10.3254 Y6.4296 Z-0.18
X10.3256 Y6.4279 F40.
X10.3264 Y6.4264
X10.3276 Y6.4251
X10.3292 Y6.4244
X10.3309 Y6.4241
G3 Y6.4351 I0. J0.0055
G1 X10.3292 Y6.4348
X10.3276 Y6.434
X10.3264 Y6.4328
X10.3256 Y6.4313
X10.3254 Y6.4296
X10.3257 Y6.428
X10.3265 Y6.4265
X10.3277 Y6.4254
X10.3293 Y6.4248
X10.3309
X10.3325 Y6.4253
X10.3335 Y6.4259
X10.3348 Y6.4269
X10.3357 Y6.4283
X10.3361 Y6.4299
X10.3358 Y6.4316
X10.3351 Y6.4331
X10.3339 Y6.4342
Z-0.1882 F20.
X10.3331 Y6.4346 Z-0.1927
X10.3319 Y6.435 Z-0.1946
X10.3306 Y6.4351 Z-0.1965
X10.3293 Y6.4349 Z-0.1974
X10.3282 Y6.4344 Z-0.1982
X10.3271 Y6.4336 Z-0.1991
X10.3262 Y6.4324 Z-0.1994
X10.3256 Y6.4311 Z-0.1997
X10.3254 Y6.4296 Z-0.2
X10.3256 Y6.4279 F40.
X10.3264 Y6.4264
X10.3276 Y6.4251
X10.3292 Y6.4244
X10.3309 Y6.4241
G3 Y6.4351 I0. J0.0055
G1 X10.3292 Y6.4348
X10.3276 Y6.434
X10.3264 Y6.4328
X10.3256 Y6.4313
X10.3254 Y6.4296
X10.3257 Y6.428
X10.3265 Y6.4265
X10.3277 Y6.4254
X10.3293 Y6.4248
X10.3309
X10.3325 Y6.4253
X10.3335 Y6.4259
X10.3348 Y6.4269
X10.3357 Y6.4283
X10.3361 Y6.4299
X10.3358 Y6.4316
X10.3351 Y6.4331
X10.3339 Y6.4342
Z-0.2082 F20.
X10.3331 Y6.4346 Z-0.2127
X10.3319 Y6.435 Z-0.2146
X10.3306 Y6.4351 Z-0.2165
X10.3293 Y6.4349 Z-0.2174
X10.3282 Y6.4344 Z-0.2182
X10.3271 Y6.4336 Z-0.2191
X10.3262 Y6.4324 Z-0.2194
X10.3256 Y6.4311 Z-0.2197
X10.3254 Y6.4296 Z-0.22
X10.3256 Y6.4279 F40.
X10.3264 Y6.4264
X10.3276 Y6.4251
X10.3292 Y6.4244
X10.3309 Y6.4241
G3 Y6.4351 I0. J0.0055
G1 X10.3292 Y6.4348
X10.3276 Y6.434
X10.3264 Y6.4328
X10.3256 Y6.4313
X10.3254 Y6.4296
X10.3257 Y6.428
X10.3265 Y6.4265
X10.3277 Y6.4254
X10.3293 Y6.4248
X10.3309
X10.3325 Y6.4253
X10.3335 Y6.4259
X10.3348 Y6.4269
X10.3357 Y6.4283
X10.3361 Y6.4299
X10.3358 Y6.4316
X10.3351 Y6.4331
X10.3339 Y6.4342
Z-0.2282 F20.
X10.3331 Y6.4346 Z-0.2327
X10.3319 Y6.435 Z-0.2346
X10.3306 Y6.4351 Z-0.2365
X10.3293 Y6.4349 Z-0.2374
X10.3282 Y6.4344 Z-0.2382
X10.3271 Y6.4336 Z-0.2391
X10.3262 Y6.4324 Z-0.2394
X10.3256 Y6.4311 Z-0.2397
X10.3254 Y6.4296 Z-0.24
X10.3256 Y6.4279 F40.
X10.3264 Y6.4264
X10.3276 Y6.4251
X10.3292 Y6.4244
X10.3309 Y6.4241
G3 Y6.4351 I0. J0.0055
G1 X10.3292 Y6.4348
X10.3276 Y6.434
X10.3264 Y6.4328
X10.3256 Y6.4313
X10.3254 Y6.4296
X10.3257 Y6.428
X10.3265 Y6.4265
X10.3277 Y6.4254
X10.3293 Y6.4248
X10.3309
X10.3325 Y6.4253
X10.3335 Y6.4259
X10.3348 Y6.4269
X10.3357 Y6.4283
X10.3361 Y6.4299
X10.3358 Y6.4316
X10.3351 Y6.4331
X10.3339 Y6.4342
Z-0.2482 F20.
X10.3331 Y6.4346 Z-0.2527
X10.3319 Y6.435 Z-0.2546
X10.3306 Y6.4351 Z-0.2565
X10.3293 Y6.4349 Z-0.2574
X10.3282 Y6.4344 Z-0.2582
X10.3271 Y6.4336 Z-0.2591
X10.3262 Y6.4324 Z-0.2594
X10.3256 Y6.4311 Z-0.2597
X10.3254 Y6.4296 Z-0.26
X10.3256 Y6.4279 F40.
X10.3264 Y6.4264
X10.3276 Y6.4251
X10.3292 Y6.4244
X10.3309 Y6.4241
G3 Y6.4351 I0. J0.0055
G1 X10.3292 Y6.4348
X10.3276 Y6.434
X10.3264 Y6.4328
X10.3256 Y6.4313
X10.3254 Y6.4296
X10.3257 Y6.428
X10.3265 Y6.4265
X10.3277 Y6.4254
X10.3293 Y6.4248
X10.3309
X10.3325 Y6.4253
X10.3335 Y6.4259
X10.3348 Y6.4269
X10.3357 Y6.4283
X10.3361 Y6.4299
X10.3358 Y6.4316
X10.3351 Y6.4331
X10.3339 Y6.4342
Z-0.2682 F20.
X10.3331 Y6.4346 Z-0.2727
X10.3319 Y6.435 Z-0.2746
X10.3306 Y6.4351 Z-0.2765
X10.3293 Y6.4349 Z-0.2774
X10.3282 Y6.4344 Z-0.2782
X10.3271 Y6.4336 Z-0.2791
X10.3262 Y6.4324 Z-0.2794
X10.3256 Y6.4311 Z-0.2797
X10.3254 Y6.4296 Z-0.28
X10.3256 Y6.4279 F40.
X10.3264 Y6.4264
X10.3276 Y6.4251
X10.3292 Y6.4244
X10.3309 Y6.4241
G3 Y6.4351 I0. J0.0055
G1 X10.3292 Y6.4348
X10.3276 Y6.434
X10.3264 Y6.4328
X10.3256 Y6.4313
X10.3254 Y6.4296
X10.3257 Y6.428
X10.3265 Y6.4265
X10.3277 Y6.4254
X10.3293 Y6.4248
X10.3309
X10.3325 Y6.4253
X10.3335 Y6.4259
X10.3348 Y6.4269
X10.3357 Y6.4283
X10.3361 Y6.4299
X10.3358 Y6.4316
X10.3351 Y6.4331
X10.3339 Y6.4342
Z-0.2882 F20.
X10.3331 Y6.4346 Z-0.2927
X10.3319 Y6.435 Z-0.2946
X10.3306 Y6.4351 Z-0.2965
X10.3293 Y6.4349 Z-0.2974
X10.3282 Y6.4344 Z-0.2982
X10.3271 Y6.4336 Z-0.2991
X10.3262 Y6.4324 Z-0.2994
X10.3256 Y6.4311 Z-0.2997
X10.3254 Y6.4296 Z-0.3
X10.3256 Y6.4279 F40.
X10.3264 Y6.4264
X10.3276 Y6.4251
X10.3292 Y6.4244
X10.3309 Y6.4241
G3 Y6.4351 I0. J0.0055
G1 X10.3292 Y6.4348
X10.3276 Y6.434
X10.3264 Y6.4328
X10.3256 Y6.4313
X10.3254 Y6.4296
X10.3257 Y6.428
X10.3265 Y6.4265
X10.3277 Y6.4254
X10.3293 Y6.4248
X10.3309
X10.3325 Y6.4253
X10.3335 Y6.4259
X10.3348 Y6.4269
X10.3357 Y6.4283
X10.3361 Y6.4299
X10.3358 Y6.4316
X10.3351 Y6.4331
X10.3339 Y6.4342
Z-0.3082 F20.
X10.3331 Y6.4346 Z-0.3127
X10.3319 Y6.435 Z-0.3146
X10.3306 Y6.4351 Z-0.3165
X10.3293 Y6.4349 Z-0.3174
X10.3282 Y6.4344 Z-0.3182
X10.3271 Y6.4336 Z-0.3191
X10.3262 Y6.4324 Z-0.3194
X10.3256 Y6.4311 Z-0.3197
X10.3254 Y6.4296 Z-0.32
X10.3256 Y6.4279 F40.
X10.3264 Y6.4264
X10.3276 Y6.4251
X10.3292 Y6.4244
X10.3309 Y6.4241
G3 Y6.4351 I0. J0.0055
G1 X10.3292 Y6.4348
X10.3276 Y6.434
X10.3264 Y6.4328
X10.3256 Y6.4313
X10.3254 Y6.4296
X10.3257 Y6.428
X10.3265 Y6.4265
X10.3277 Y6.4254
X10.3293 Y6.4248
X10.3309
X10.3325 Y6.4253
X10.3335 Y6.4259
X10.3348 Y6.4269
X10.3357 Y6.4283
X10.3361 Y6.4299
X10.3358 Y6.4316
X10.3351 Y6.4331
X10.3339 Y6.4342
Z-0.3282 F20.
X10.3331 Y6.4346 Z-0.3327
X10.3319 Y6.435 Z-0.3346
X10.3306 Y6.4351 Z-0.3365
X10.3293 Y6.4349 Z-0.3374
X10.3282 Y6.4344 Z-0.3382
X10.3271 Y6.4336 Z-0.3391
X10.3262 Y6.4324 Z-0.3394
X10.3256 Y6.4311 Z-0.3397
X10.3254 Y6.4296 Z-0.34
X10.3256 Y6.4279 F40.
X10.3264 Y6.4264
X10.3276 Y6.4251
X10.3292 Y6.4244
X10.3309 Y6.4241
G3 Y6.4351 I0. J0.0055
G1 X10.3292 Y6.4348
X10.3276 Y6.434
X10.3264 Y6.4328
X10.3256 Y6.4313
X10.3254 Y6.4296
X10.3257 Y6.428
X10.3265 Y6.4265
X10.3277 Y6.4254
X10.3293 Y6.4248
X10.3309
X10.3325 Y6.4253
X10.3335 Y6.4259
X10.3348 Y6.4269
X10.3357 Y6.4283
X10.3361 Y6.4299
X10.3358 Y6.4316
X10.3351 Y6.4331
X10.3339 Y6.4342
Z-0.3482 F20.
X10.3331 Y6.4346 Z-0.3527
X10.3319 Y6.435 Z-0.3546
X10.3306 Y6.4351 Z-0.3565
X10.3293 Y6.4349 Z-0.3574
X10.3282 Y6.4344 Z-0.3582
X10.3271 Y6.4336 Z-0.3591
X10.3262 Y6.4324 Z-0.3594
X10.3256 Y6.4311 Z-0.3597
X10.3254 Y6.4296 Z-0.36
X10.3256 Y6.4279 F40.
X10.3264 Y6.4264
X10.3276 Y6.4251
X10.3292 Y6.4244
X10.3309 Y6.4241
G3 Y6.4351 I0. J0.0055
G1 X10.3292 Y6.4348
X10.3276 Y6.434
X10.3264 Y6.4328
X10.3256 Y6.4313
X10.3254 Y6.4296
X10.3257 Y6.428
X10.3265 Y6.4265
X10.3277 Y6.4254
X10.3293 Y6.4248
X10.3309
X10.3325 Y6.4253
X10.3335 Y6.4259
X10.3348 Y6.4269
X10.3357 Y6.4283
X10.3361 Y6.4299
X10.3358 Y6.4316
X10.3351 Y6.4331
X10.3339 Y6.4342
Z-0.3632 F20.
X10.3331 Y6.4346 Z-0.3677
X10.3319 Y6.435 Z-0.3696
X10.3306 Y6.4351 Z-0.3715
X10.3293 Y6.4349 Z-0.3724
X10.3282 Y6.4344 Z-0.3732
X10.3271 Y6.4336 Z-0.3741
X10.3262 Y6.4324 Z-0.3744
X10.3256 Y6.4311 Z-0.3747
X10.3254 Y6.4296 Z-0.375
X10.3256 Y6.4279 F40.
X10.3264 Y6.4264
X10.3276 Y6.4251
X10.3292 Y6.4244
X10.3309 Y6.4241
G3 Y6.4351 I0. J0.0055
G1 X10.3292 Y6.4348
X10.3276 Y6.434
X10.3264 Y6.4328
X10.3256 Y6.4313
X10.3254 Y6.4296
X10.3256 Y6.428 Z-0.3747
X10.3262 Y6.4266 Z-0.3743
X10.3273 Y6.4254 Z-0.374
X10.3283 Y6.4247 Z-0.3731
X10.3296 Y6.4242 Z-0.3722
X10.3309 Y6.4241 Z-0.3712
X10.332 Y6.4242 Z-0.3694
X10.3331 Y6.4246 Z-0.3675
X10.3339 Y6.425 Z-0.3632
G0 Z0.41
Y5.9342
Z0.4
G1 Z0.3 F20.
Z0.1918
X10.3331 Y5.9346 Z0.1873
X10.3319 Y5.935 Z0.1854
X10.3306 Y5.9351 Z0.1835
X10.3293 Y5.9349 Z0.1826
X10.3282 Y5.9344 Z0.1818
X10.3271 Y5.9336 Z0.1809
X10.3262 Y5.9324 Z0.1806
X10.3256 Y5.9311 Z0.1803
X10.3254 Y5.9296 Z0.18
X10.3256 Y5.9279 F40.
X10.3264 Y5.9264
X10.3276 Y5.9251
X10.3292 Y5.9244
X10.3309 Y5.9241
G3 Y5.9351 I0. J0.0055
G1 X10.3292 Y5.9348
X10.3276 Y5.934
X10.3264 Y5.9328
X10.3256 Y5.9313
X10.3254 Y5.9296
X10.3257 Y5.928
X10.3265 Y5.9265
X10.3277 Y5.9254
X10.3293 Y5.9248
X10.3309
X10.3325 Y5.9253
X10.3335 Y5.9259
X10.3348 Y5.9269
X10.3357 Y5.9283
X10.3361 Y5.9299
X10.3358 Y5.9316
X10.3351 Y5.9331
X10.3339 Y5.9342
Z0.1718 F20.
X10.3331 Y5.9346 Z0.1673
X10.3319 Y5.935 Z0.1654
X10.3306 Y5.9351 Z0.1635
X10.3293 Y5.9349 Z0.1626
X10.3282 Y5.9344 Z0.1618
X10.3271 Y5.9336 Z0.1609
X10.3262 Y5.9324 Z0.1606
X10.3256 Y5.9311 Z0.1603
X10.3254 Y5.9296 Z0.16
X10.3256 Y5.9279 F40.
X10.3264 Y5.9264
X10.3276 Y5.9251
X10.3292 Y5.9244
X10.3309 Y5.9241
G3 Y5.9351 I0. J0.0055
G1 X10.3292 Y5.9348
X10.3276 Y5.934
X10.3264 Y5.9328
X10.3256 Y5.9313
X10.3254 Y5.9296
X10.3257 Y5.928
X10.3265 Y5.9265
X10.3277 Y5.9254
X10.3293 Y5.9248
X10.3309
X10.3325 Y5.9253
X10.3335 Y5.9259
X10.3348 Y5.9269
X10.3357 Y5.9283
X10.3361 Y5.9299
X10.3358 Y5.9316
X10.3351 Y5.9331
X10.3339 Y5.9342
Z0.1518 F20.
X10.3331 Y5.9346 Z0.1473
X10.3319 Y5.935 Z0.1454
X10.3306 Y5.9351 Z0.1435
X10.3293 Y5.9349 Z0.1426
X10.3282 Y5.9344 Z0.1418
X10.3271 Y5.9336 Z0.1409
X10.3262 Y5.9324 Z0.1406
X10.3256 Y5.9311 Z0.1403
X10.3254 Y5.9296 Z0.14
X10.3256 Y5.9279 F40.
X10.3264 Y5.9264
X10.3276 Y5.9251
X10.3292 Y5.9244
X10.3309 Y5.9241
G3 Y5.9351 I0. J0.0055
G1 X10.3292 Y5.9348
X10.3276 Y5.934
X10.3264 Y5.9328
X10.3256 Y5.9313
X10.3254 Y5.9296
X10.3257 Y5.928
X10.3265 Y5.9265
X10.3277 Y5.9254
X10.3293 Y5.9248
X10.3309
X10.3325 Y5.9253
X10.3335 Y5.9259
X10.3348 Y5.9269
X10.3357 Y5.9283
X10.3361 Y5.9299
X10.3358 Y5.9316
X10.3351 Y5.9331
X10.3339 Y5.9342
Z0.1318 F20.
X10.3331 Y5.9346 Z0.1273
X10.3319 Y5.935 Z0.1254
X10.3306 Y5.9351 Z0.1235
X10.3293 Y5.9349 Z0.1226
X10.3282 Y5.9344 Z0.1218
X10.3271 Y5.9336 Z0.1209
X10.3262 Y5.9324 Z0.1206
X10.3256 Y5.9311 Z0.1203
X10.3254 Y5.9296 Z0.12
X10.3256 Y5.9279 F40.
X10.3264 Y5.9264
X10.3276 Y5.9251
X10.3292 Y5.9244
X10.3309 Y5.9241
G3 Y5.9351 I0. J0.0055
G1 X10.3292 Y5.9348
X10.3276 Y5.934
X10.3264 Y5.9328
X10.3256 Y5.9313
X10.3254 Y5.9296
X10.3257 Y5.928
X10.3265 Y5.9265
X10.3277 Y5.9254
X10.3293 Y5.9248
X10.3309
X10.3325 Y5.9253
X10.3335 Y5.9259
X10.3348 Y5.9269
X10.3357 Y5.9283
X10.3361 Y5.9299
X10.3358 Y5.9316
X10.3351 Y5.9331
X10.3339 Y5.9342
Z0.1118 F20.
X10.3331 Y5.9346 Z0.1073
X10.3319 Y5.935 Z0.1054
X10.3306 Y5.9351 Z0.1035
X10.3293 Y5.9349 Z0.1026
X10.3282 Y5.9344 Z0.1018
X10.3271 Y5.9336 Z0.1009
X10.3262 Y5.9324 Z0.1006
X10.3256 Y5.9311 Z0.1003
X10.3254 Y5.9296 Z0.1
X10.3256 Y5.9279 F40.
X10.3264 Y5.9264
X10.3276 Y5.9251
X10.3292 Y5.9244
X10.3309 Y5.9241
G3 Y5.9351 I0. J0.0055
G1 X10.3292 Y5.9348
X10.3276 Y5.934
X10.3264 Y5.9328
X10.3256 Y5.9313
X10.3254 Y5.9296
X10.3257 Y5.928
X10.3265 Y5.9265
X10.3277 Y5.9254
X10.3293 Y5.9248
X10.3309
X10.3325 Y5.9253
X10.3335 Y5.9259
X10.3348 Y5.9269
X10.3357 Y5.9283
X10.3361 Y5.9299
X10.3358 Y5.9316
X10.3351 Y5.9331
X10.3339 Y5.9342
Z0.0918 F20.
X10.3331 Y5.9346 Z0.0873
X10.3319 Y5.935 Z0.0854
X10.3306 Y5.9351 Z0.0835
X10.3293 Y5.9349 Z0.0826
X10.3282 Y5.9344 Z0.0818
X10.3271 Y5.9336 Z0.0809
X10.3262 Y5.9324 Z0.0806
X10.3256 Y5.9311 Z0.0803
X10.3254 Y5.9296 Z0.08
X10.3256 Y5.9279 F40.
X10.3264 Y5.9264
X10.3276 Y5.9251
X10.3292 Y5.9244
X10.3309 Y5.9241
G3 Y5.9351 I0. J0.0055
G1 X10.3292 Y5.9348
X10.3276 Y5.934
X10.3264 Y5.9328
X10.3256 Y5.9313
X10.3254 Y5.9296
X10.3257 Y5.928
X10.3265 Y5.9265
X10.3277 Y5.9254
X10.3293 Y5.9248
X10.3309
X10.3325 Y5.9253
X10.3335 Y5.9259
X10.3348 Y5.9269
X10.3357 Y5.9283
X10.3361 Y5.9299
X10.3358 Y5.9316
X10.3351 Y5.9331
X10.3339 Y5.9342
Z0.0718 F20.
X10.3331 Y5.9346 Z0.0673
X10.3319 Y5.935 Z0.0654
X10.3306 Y5.9351 Z0.0635
X10.3293 Y5.9349 Z0.0626
X10.3282 Y5.9344 Z0.0618
X10.3271 Y5.9336 Z0.0609
X10.3262 Y5.9324 Z0.0606
X10.3256 Y5.9311 Z0.0603
X10.3254 Y5.9296 Z0.06
X10.3256 Y5.9279 F40.
X10.3264 Y5.9264
X10.3276 Y5.9251
X10.3292 Y5.9244
X10.3309 Y5.9241
G3 Y5.9351 I0. J0.0055
G1 X10.3292 Y5.9348
X10.3276 Y5.934
X10.3264 Y5.9328
X10.3256 Y5.9313
X10.3254 Y5.9296
X10.3257 Y5.928
X10.3265 Y5.9265
X10.3277 Y5.9254
X10.3293 Y5.9248
X10.3309
X10.3325 Y5.9253
X10.3335 Y5.9259
X10.3348 Y5.9269
X10.3357 Y5.9283
X10.3361 Y5.9299
X10.3358 Y5.9316
X10.3351 Y5.9331
X10.3339 Y5.9342
Z0.0518 F20.
X10.3331 Y5.9346 Z0.0473
X10.3319 Y5.935 Z0.0454
X10.3306 Y5.9351 Z0.0435
X10.3293 Y5.9349 Z0.0426
X10.3282 Y5.9344 Z0.0418
X10.3271 Y5.9336 Z0.0409
X10.3262 Y5.9324 Z0.0406
X10.3256 Y5.9311 Z0.0403
X10.3254 Y5.9296 Z0.04
X10.3256 Y5.9279 F40.
X10.3264 Y5.9264
X10.3276 Y5.9251
X10.3292 Y5.9244
X10.3309 Y5.9241
G3 Y5.9351 I0. J0.0055
G1 X10.3292 Y5.9348
X10.3276 Y5.934
X10.3264 Y5.9328
X10.3256 Y5.9313
X10.3254 Y5.9296
X10.3257 Y5.928
X10.3265 Y5.9265
X10.3277 Y5.9254
X10.3293 Y5.9248
X10.3309
X10.3325 Y5.9253
X10.3335 Y5.9259
X10.3348 Y5.9269
X10.3357 Y5.9283
X10.3361 Y5.9299
X10.3358 Y5.9316
X10.3351 Y5.9331
X10.3339 Y5.9342
Z0.0318 F20.
X10.3331 Y5.9346 Z0.0273
X10.3319 Y5.935 Z0.0254
X10.3306 Y5.9351 Z0.0235
X10.3293 Y5.9349 Z0.0226
X10.3282 Y5.9344 Z0.0218
X10.3271 Y5.9336 Z0.0209
X10.3262 Y5.9324 Z0.0206
X10.3256 Y5.9311 Z0.0203
X10.3254 Y5.9296 Z0.02
X10.3256 Y5.9279 F40.
X10.3264 Y5.9264
X10.3276 Y5.9251
X10.3292 Y5.9244
X10.3309 Y5.9241
G3 Y5.9351 I0. J0.0055
G1 X10.3292 Y5.9348
X10.3276 Y5.934
X10.3264 Y5.9328
X10.3256 Y5.9313
X10.3254 Y5.9296
X10.3257 Y5.928
X10.3265 Y5.9265
X10.3277 Y5.9254
X10.3293 Y5.9248
X10.3309
X10.3325 Y5.9253
X10.3335 Y5.9259
X10.3348 Y5.9269
X10.3357 Y5.9283
X10.3361 Y5.9299
X10.3358 Y5.9316
X10.3351 Y5.9331
X10.3339 Y5.9342
Z0.0118 F20.
X10.3331 Y5.9346 Z0.0073
X10.3319 Y5.935 Z0.0054
X10.3306 Y5.9351 Z0.0035
X10.3293 Y5.9349 Z0.0026
X10.3282 Y5.9344 Z0.0018
X10.3271 Y5.9336 Z0.0009
X10.3262 Y5.9324 Z0.0006
X10.3256 Y5.9311 Z0.0003
X10.3254 Y5.9296 Z0.
X10.3256 Y5.9279 F40.
X10.3264 Y5.9264
X10.3276 Y5.9251
X10.3292 Y5.9244
X10.3309 Y5.9241
G3 Y5.9351 I0. J0.0055
G1 X10.3292 Y5.9348
X10.3276 Y5.934
X10.3264 Y5.9328
X10.3256 Y5.9313
X10.3254 Y5.9296
X10.3257 Y5.928
X10.3265 Y5.9265
X10.3277 Y5.9254
X10.3293 Y5.9248
X10.3309
X10.3325 Y5.9253
X10.3335 Y5.9259
X10.3348 Y5.9269
X10.3357 Y5.9283
X10.3361 Y5.9299
X10.3358 Y5.9316
X10.3351 Y5.9331
X10.3339 Y5.9342
Z-0.0082 F20.
X10.3331 Y5.9346 Z-0.0127
X10.3319 Y5.935 Z-0.0146
X10.3306 Y5.9351 Z-0.0165
X10.3293 Y5.9349 Z-0.0174
X10.3282 Y5.9344 Z-0.0182
X10.3271 Y5.9336 Z-0.0191
X10.3262 Y5.9324 Z-0.0194
X10.3256 Y5.9311 Z-0.0197
X10.3254 Y5.9296 Z-0.02
X10.3256 Y5.9279 F40.
X10.3264 Y5.9264
X10.3276 Y5.9251
X10.3292 Y5.9244
X10.3309 Y5.9241
G3 Y5.9351 I0. J0.0055
G1 X10.3292 Y5.9348
X10.3276 Y5.934
X10.3264 Y5.9328
X10.3256 Y5.9313
X10.3254 Y5.9296
X10.3257 Y5.928
X10.3265 Y5.9265
X10.3277 Y5.9254
X10.3293 Y5.9248
X10.3309
X10.3325 Y5.9253
X10.3335 Y5.9259
X10.3348 Y5.9269
X10.3357 Y5.9283
X10.3361 Y5.9299
X10.3358 Y5.9316
X10.3351 Y5.9331
X10.3339 Y5.9342
Z-0.0282 F20.
X10.3331 Y5.9346 Z-0.0327
X10.3319 Y5.935 Z-0.0346
X10.3306 Y5.9351 Z-0.0365
X10.3293 Y5.9349 Z-0.0374
X10.3282 Y5.9344 Z-0.0382
X10.3271 Y5.9336 Z-0.0391
X10.3262 Y5.9324 Z-0.0394
X10.3256 Y5.9311 Z-0.0397
X10.3254 Y5.9296 Z-0.04
X10.3256 Y5.9279 F40.
X10.3264 Y5.9264
X10.3276 Y5.9251
X10.3292 Y5.9244
X10.3309 Y5.9241
G3 Y5.9351 I0. J0.0055
G1 X10.3292 Y5.9348
X10.3276 Y5.934
X10.3264 Y5.9328
X10.3256 Y5.9313
X10.3254 Y5.9296
X10.3257 Y5.928
X10.3265 Y5.9265
X10.3277 Y5.9254
X10.3293 Y5.9248
X10.3309
X10.3325 Y5.9253
X10.3335 Y5.9259
X10.3348 Y5.9269
X10.3357 Y5.9283
X10.3361 Y5.9299
X10.3358 Y5.9316
X10.3351 Y5.9331
X10.3339 Y5.9342
Z-0.0482 F20.
X10.3331 Y5.9346 Z-0.0527
X10.3319 Y5.935 Z-0.0546
X10.3306 Y5.9351 Z-0.0565
X10.3293 Y5.9349 Z-0.0574
X10.3282 Y5.9344 Z-0.0582
X10.3271 Y5.9336 Z-0.0591
X10.3262 Y5.9324 Z-0.0594
X10.3256 Y5.9311 Z-0.0597
X10.3254 Y5.9296 Z-0.06
X10.3256 Y5.9279 F40.
X10.3264 Y5.9264
X10.3276 Y5.9251
X10.3292 Y5.9244
X10.3309 Y5.9241
G3 Y5.9351 I0. J0.0055
G1 X10.3292 Y5.9348
X10.3276 Y5.934
X10.3264 Y5.9328
X10.3256 Y5.9313
X10.3254 Y5.9296
X10.3257 Y5.928
X10.3265 Y5.9265
X10.3277 Y5.9254
X10.3293 Y5.9248
X10.3309
X10.3325 Y5.9253
X10.3335 Y5.9259
X10.3348 Y5.9269
X10.3357 Y5.9283
X10.3361 Y5.9299
X10.3358 Y5.9316
X10.3351 Y5.9331
X10.3339 Y5.9342
Z-0.0682 F20.
X10.3331 Y5.9346 Z-0.0727
X10.3319 Y5.935 Z-0.0746
X10.3306 Y5.9351 Z-0.0765
X10.3293 Y5.9349 Z-0.0774
X10.3282 Y5.9344 Z-0.0782
X10.3271 Y5.9336 Z-0.0791
X10.3262 Y5.9324 Z-0.0794
X10.3256 Y5.9311 Z-0.0797
X10.3254 Y5.9296 Z-0.08
X10.3256 Y5.9279 F40.
X10.3264 Y5.9264
X10.3276 Y5.9251
X10.3292 Y5.9244
X10.3309 Y5.9241
G3 Y5.9351 I0. J0.0055
G1 X10.3292 Y5.9348
X10.3276 Y5.934
X10.3264 Y5.9328
X10.3256 Y5.9313
X10.3254 Y5.9296
X10.3257 Y5.928
X10.3265 Y5.9265
X10.3277 Y5.9254
X10.3293 Y5.9248
X10.3309
X10.3325 Y5.9253
X10.3335 Y5.9259
X10.3348 Y5.9269
X10.3357 Y5.9283
X10.3361 Y5.9299
X10.3358 Y5.9316
X10.3351 Y5.9331
X10.3339 Y5.9342
Z-0.0882 F20.
X10.3331 Y5.9346 Z-0.0927
X10.3319 Y5.935 Z-0.0946
X10.3306 Y5.9351 Z-0.0965
X10.3293 Y5.9349 Z-0.0974
X10.3282 Y5.9344 Z-0.0982
X10.3271 Y5.9336 Z-0.0991
X10.3262 Y5.9324 Z-0.0994
X10.3256 Y5.9311 Z-0.0997
X10.3254 Y5.9296 Z-0.1
X10.3256 Y5.9279 F40.
X10.3264 Y5.9264
X10.3276 Y5.9251
X10.3292 Y5.9244
X10.3309 Y5.9241
G3 Y5.9351 I0. J0.0055
G1 X10.3292 Y5.9348
X10.3276 Y5.934
X10.3264 Y5.9328
X10.3256 Y5.9313
X10.3254 Y5.9296
X10.3257 Y5.928
X10.3265 Y5.9265
X10.3277 Y5.9254
X10.3293 Y5.9248
X10.3309
X10.3325 Y5.9253
X10.3335 Y5.9259
X10.3348 Y5.9269
X10.3357 Y5.9283
X10.3361 Y5.9299
X10.3358 Y5.9316
X10.3351 Y5.9331
X10.3339 Y5.9342
Z-0.1082 F20.
X10.3331 Y5.9346 Z-0.1127
X10.3319 Y5.935 Z-0.1146
X10.3306 Y5.9351 Z-0.1165
X10.3293 Y5.9349 Z-0.1174
X10.3282 Y5.9344 Z-0.1182
X10.3271 Y5.9336 Z-0.1191
X10.3262 Y5.9324 Z-0.1194
X10.3256 Y5.9311 Z-0.1197
X10.3254 Y5.9296 Z-0.12
X10.3256 Y5.9279 F40.
X10.3264 Y5.9264
X10.3276 Y5.9251
X10.3292 Y5.9244
X10.3309 Y5.9241
G3 Y5.9351 I0. J0.0055
G1 X10.3292 Y5.9348
X10.3276 Y5.934
X10.3264 Y5.9328
X10.3256 Y5.9313
X10.3254 Y5.9296
X10.3257 Y5.928
X10.3265 Y5.9265
X10.3277 Y5.9254
X10.3293 Y5.9248
X10.3309
X10.3325 Y5.9253
X10.3335 Y5.9259
X10.3348 Y5.9269
X10.3357 Y5.9283
X10.3361 Y5.9299
X10.3358 Y5.9316
X10.3351 Y5.9331
X10.3339 Y5.9342
Z-0.1282 F20.
X10.3331 Y5.9346 Z-0.1327
X10.3319 Y5.935 Z-0.1346
X10.3306 Y5.9351 Z-0.1365
X10.3293 Y5.9349 Z-0.1374
X10.3282 Y5.9344 Z-0.1382
X10.3271 Y5.9336 Z-0.1391
X10.3262 Y5.9324 Z-0.1394
X10.3256 Y5.9311 Z-0.1397
X10.3254 Y5.9296 Z-0.14
X10.3256 Y5.9279 F40.
X10.3264 Y5.9264
X10.3276 Y5.9251
X10.3292 Y5.9244
X10.3309 Y5.9241
G3 Y5.9351 I0. J0.0055
G1 X10.3292 Y5.9348
X10.3276 Y5.934
X10.3264 Y5.9328
X10.3256 Y5.9313
X10.3254 Y5.9296
X10.3257 Y5.928
X10.3265 Y5.9265
X10.3277 Y5.9254
X10.3293 Y5.9248
X10.3309
X10.3325 Y5.9253
X10.3335 Y5.9259
X10.3348 Y5.9269
X10.3357 Y5.9283
X10.3361 Y5.9299
X10.3358 Y5.9316
X10.3351 Y5.9331
X10.3339 Y5.9342
Z-0.1482 F20.
X10.3331 Y5.9346 Z-0.1527
X10.3319 Y5.935 Z-0.1546
X10.3306 Y5.9351 Z-0.1565
X10.3293 Y5.9349 Z-0.1574
X10.3282 Y5.9344 Z-0.1582
X10.3271 Y5.9336 Z-0.1591
X10.3262 Y5.9324 Z-0.1594
X10.3256 Y5.9311 Z-0.1597
X10.3254 Y5.9296 Z-0.16
X10.3256 Y5.9279 F40.
X10.3264 Y5.9264
X10.3276 Y5.9251
X10.3292 Y5.9244
X10.3309 Y5.9241
G3 Y5.9351 I0. J0.0055
G1 X10.3292 Y5.9348
X10.3276 Y5.934
X10.3264 Y5.9328
X10.3256 Y5.9313
X10.3254 Y5.9296
X10.3257 Y5.928
X10.3265 Y5.9265
X10.3277 Y5.9254
X10.3293 Y5.9248
X10.3309
X10.3325 Y5.9253
X10.3335 Y5.9259
X10.3348 Y5.9269
X10.3357 Y5.9283
X10.3361 Y5.9299
X10.3358 Y5.9316
X10.3351 Y5.9331
X10.3339 Y5.9342
Z-0.1682 F20.
X10.3331 Y5.9346 Z-0.1727
X10.3319 Y5.935 Z-0.1746
X10.3306 Y5.9351 Z-0.1765
X10.3293 Y5.9349 Z-0.1774
X10.3282 Y5.9344 Z-0.1782
X10.3271 Y5.9336 Z-0.1791
X10.3262 Y5.9324 Z-0.1794
X10.3256 Y5.9311 Z-0.1797
X10.3254 Y5.9296 Z-0.18
X10.3256 Y5.9279 F40.
X10.3264 Y5.9264
X10.3276 Y5.9251
X10.3292 Y5.9244
X10.3309 Y5.9241
G3 Y5.9351 I0. J0.0055
G1 X10.3292 Y5.9348
X10.3276 Y5.934
X10.3264 Y5.9328
X10.3256 Y5.9313
X10.3254 Y5.9296
X10.3257 Y5.928
X10.3265 Y5.9265
X10.3277 Y5.9254
X10.3293 Y5.9248
X10.3309
X10.3325 Y5.9253
X10.3335 Y5.9259
X10.3348 Y5.9269
X10.3357 Y5.9283
X10.3361 Y5.9299
X10.3358 Y5.9316
X10.3351 Y5.9331
X10.3339 Y5.9342
Z-0.1882 F20.
X10.3331 Y5.9346 Z-0.1927
X10.3319 Y5.935 Z-0.1946
X10.3306 Y5.9351 Z-0.1965
X10.3293 Y5.9349 Z-0.1974
X10.3282 Y5.9344 Z-0.1982
X10.3271 Y5.9336 Z-0.1991
X10.3262 Y5.9324 Z-0.1994
X10.3256 Y5.9311 Z-0.1997
X10.3254 Y5.9296 Z-0.2
X10.3256 Y5.9279 F40.
X10.3264 Y5.9264
X10.3276 Y5.9251
X10.3292 Y5.9244
X10.3309 Y5.9241
G3 Y5.9351 I0. J0.0055
G1 X10.3292 Y5.9348
X10.3276 Y5.934
X10.3264 Y5.9328
X10.3256 Y5.9313
X10.3254 Y5.9296
X10.3257 Y5.928
X10.3265 Y5.9265
X10.3277 Y5.9254
X10.3293 Y5.9248
X10.3309
X10.3325 Y5.9253
X10.3335 Y5.9259
X10.3348 Y5.9269
X10.3357 Y5.9283
X10.3361 Y5.9299
X10.3358 Y5.9316
X10.3351 Y5.9331
X10.3339 Y5.9342
Z-0.2082 F20.
X10.3331 Y5.9346 Z-0.2127
X10.3319 Y5.935 Z-0.2146
X10.3306 Y5.9351 Z-0.2165
X10.3293 Y5.9349 Z-0.2174
X10.3282 Y5.9344 Z-0.2182
X10.3271 Y5.9336 Z-0.2191
X10.3262 Y5.9324 Z-0.2194
X10.3256 Y5.9311 Z-0.2197
X10.3254 Y5.9296 Z-0.22
X10.3256 Y5.9279 F40.
X10.3264 Y5.9264
X10.3276 Y5.9251
X10.3292 Y5.9244
X10.3309 Y5.9241
G3 Y5.9351 I0. J0.0055
G1 X10.3292 Y5.9348
X10.3276 Y5.934
X10.3264 Y5.9328
X10.3256 Y5.9313
X10.3254 Y5.9296
X10.3257 Y5.928
X10.3265 Y5.9265
X10.3277 Y5.9254
X10.3293 Y5.9248
X10.3309
X10.3325 Y5.9253
X10.3335 Y5.9259
X10.3348 Y5.9269
X10.3357 Y5.9283
X10.3361 Y5.9299
X10.3358 Y5.9316
X10.3351 Y5.9331
X10.3339 Y5.9342
Z-0.2282 F20.
X10.3331 Y5.9346 Z-0.2327
X10.3319 Y5.935 Z-0.2346
X10.3306 Y5.9351 Z-0.2365
X10.3293 Y5.9349 Z-0.2374
X10.3282 Y5.9344 Z-0.2382
X10.3271 Y5.9336 Z-0.2391
X10.3262 Y5.9324 Z-0.2394
X10.3256 Y5.9311 Z-0.2397
X10.3254 Y5.9296 Z-0.24
X10.3256 Y5.9279 F40.
X10.3264 Y5.9264
X10.3276 Y5.9251
X10.3292 Y5.9244
X10.3309 Y5.9241
G3 Y5.9351 I0. J0.0055
G1 X10.3292 Y5.9348
X10.3276 Y5.934
X10.3264 Y5.9328
X10.3256 Y5.9313
X10.3254 Y5.9296
X10.3257 Y5.928
X10.3265 Y5.9265
X10.3277 Y5.9254
X10.3293 Y5.9248
X10.3309
X10.3325 Y5.9253
X10.3335 Y5.9259
X10.3348 Y5.9269
X10.3357 Y5.9283
X10.3361 Y5.9299
X10.3358 Y5.9316
X10.3351 Y5.9331
X10.3339 Y5.9342
Z-0.2482 F20.
X10.3331 Y5.9346 Z-0.2527
X10.3319 Y5.935 Z-0.2546
X10.3306 Y5.9351 Z-0.2565
X10.3293 Y5.9349 Z-0.2574
X10.3282 Y5.9344 Z-0.2582
X10.3271 Y5.9336 Z-0.2591
X10.3262 Y5.9324 Z-0.2594
X10.3256 Y5.9311 Z-0.2597
X10.3254 Y5.9296 Z-0.26
X10.3256 Y5.9279 F40.
X10.3264 Y5.9264
X10.3276 Y5.9251
X10.3292 Y5.9244
X10.3309 Y5.9241
G3 Y5.9351 I0. J0.0055
G1 X10.3292 Y5.9348
X10.3276 Y5.934
X10.3264 Y5.9328
X10.3256 Y5.9313
X10.3254 Y5.9296
X10.3257 Y5.928
X10.3265 Y5.9265
X10.3277 Y5.9254
X10.3293 Y5.9248
X10.3309
X10.3325 Y5.9253
X10.3335 Y5.9259
X10.3348 Y5.9269
X10.3357 Y5.9283
X10.3361 Y5.9299
X10.3358 Y5.9316
X10.3351 Y5.9331
X10.3339 Y5.9342
Z-0.2682 F20.
X10.3331 Y5.9346 Z-0.2727
X10.3319 Y5.935 Z-0.2746
X10.3306 Y5.9351 Z-0.2765
X10.3293 Y5.9349 Z-0.2774
X10.3282 Y5.9344 Z-0.2782
X10.3271 Y5.9336 Z-0.2791
X10.3262 Y5.9324 Z-0.2794
X10.3256 Y5.9311 Z-0.2797
X10.3254 Y5.9296 Z-0.28
X10.3256 Y5.9279 F40.
X10.3264 Y5.9264
X10.3276 Y5.9251
X10.3292 Y5.9244
X10.3309 Y5.9241
G3 Y5.9351 I0. J0.0055
G1 X10.3292 Y5.9348
X10.3276 Y5.934
X10.3264 Y5.9328
X10.3256 Y5.9313
X10.3254 Y5.9296
X10.3257 Y5.928
X10.3265 Y5.9265
X10.3277 Y5.9254
X10.3293 Y5.9248
X10.3309
X10.3325 Y5.9253
X10.3335 Y5.9259
X10.3348 Y5.9269
X10.3357 Y5.9283
X10.3361 Y5.9299
X10.3358 Y5.9316
X10.3351 Y5.9331
X10.3339 Y5.9342
Z-0.2882 F20.
X10.3331 Y5.9346 Z-0.2927
X10.3319 Y5.935 Z-0.2946
X10.3306 Y5.9351 Z-0.2965
X10.3293 Y5.9349 Z-0.2974
X10.3282 Y5.9344 Z-0.2982
X10.3271 Y5.9336 Z-0.2991
X10.3262 Y5.9324 Z-0.2994
X10.3256 Y5.9311 Z-0.2997
X10.3254 Y5.9296 Z-0.3
X10.3256 Y5.9279 F40.
X10.3264 Y5.9264
X10.3276 Y5.9251
X10.3292 Y5.9244
X10.3309 Y5.9241
G3 Y5.9351 I0. J0.0055
G1 X10.3292 Y5.9348
X10.3276 Y5.934
X10.3264 Y5.9328
X10.3256 Y5.9313
X10.3254 Y5.9296
X10.3257 Y5.928
X10.3265 Y5.9265
X10.3277 Y5.9254
X10.3293 Y5.9248
X10.3309
X10.3325 Y5.9253
X10.3335 Y5.9259
X10.3348 Y5.9269
X10.3357 Y5.9283
X10.3361 Y5.9299
X10.3358 Y5.9316
X10.3351 Y5.9331
X10.3339 Y5.9342
Z-0.3082 F20.
X10.3331 Y5.9346 Z-0.3127
X10.3319 Y5.935 Z-0.3146
X10.3306 Y5.9351 Z-0.3165
X10.3293 Y5.9349 Z-0.3174
X10.3282 Y5.9344 Z-0.3182
X10.3271 Y5.9336 Z-0.3191
X10.3262 Y5.9324 Z-0.3194
X10.3256 Y5.9311 Z-0.3197
X10.3254 Y5.9296 Z-0.32
X10.3256 Y5.9279 F40.
X10.3264 Y5.9264
X10.3276 Y5.9251
X10.3292 Y5.9244
X10.3309 Y5.9241
G3 Y5.9351 I0. J0.0055
G1 X10.3292 Y5.9348
X10.3276 Y5.934
X10.3264 Y5.9328
X10.3256 Y5.9313
X10.3254 Y5.9296
X10.3257 Y5.928
X10.3265 Y5.9265
X10.3277 Y5.9254
X10.3293 Y5.9248
X10.3309
X10.3325 Y5.9253
X10.3335 Y5.9259
X10.3348 Y5.9269
X10.3357 Y5.9283
X10.3361 Y5.9299
X10.3358 Y5.9316
X10.3351 Y5.9331
X10.3339 Y5.9342
Z-0.3282 F20.
X10.3331 Y5.9346 Z-0.3327
X10.3319 Y5.935 Z-0.3346
X10.3306 Y5.9351 Z-0.3365
X10.3293 Y5.9349 Z-0.3374
X10.3282 Y5.9344 Z-0.3382
X10.3271 Y5.9336 Z-0.3391
X10.3262 Y5.9324 Z-0.3394
X10.3256 Y5.9311 Z-0.3397
X10.3254 Y5.9296 Z-0.34
X10.3256 Y5.9279 F40.
X10.3264 Y5.9264
X10.3276 Y5.9251
X10.3292 Y5.9244
X10.3309 Y5.9241
G3 Y5.9351 I0. J0.0055
G1 X10.3292 Y5.9348
X10.3276 Y5.934
X10.3264 Y5.9328
X10.3256 Y5.9313
X10.3254 Y5.9296
X10.3257 Y5.928
X10.3265 Y5.9265
X10.3277 Y5.9254
X10.3293 Y5.9248
X10.3309
X10.3325 Y5.9253
X10.3335 Y5.9259
X10.3348 Y5.9269
X10.3357 Y5.9283
X10.3361 Y5.9299
X10.3358 Y5.9316
X10.3351 Y5.9331
X10.3339 Y5.9342
Z-0.3482 F20.
X10.3331 Y5.9346 Z-0.3527
X10.3319 Y5.935 Z-0.3546
X10.3306 Y5.9351 Z-0.3565
X10.3293 Y5.9349 Z-0.3574
X10.3282 Y5.9344 Z-0.3582
X10.3271 Y5.9336 Z-0.3591
X10.3262 Y5.9324 Z-0.3594
X10.3256 Y5.9311 Z-0.3597
X10.3254 Y5.9296 Z-0.36
X10.3256 Y5.9279 F40.
X10.3264 Y5.9264
X10.3276 Y5.9251
X10.3292 Y5.9244
X10.3309 Y5.9241
G3 Y5.9351 I0. J0.0055
G1 X10.3292 Y5.9348
X10.3276 Y5.934
X10.3264 Y5.9328
X10.3256 Y5.9313
X10.3254 Y5.9296
X10.3257 Y5.928
X10.3265 Y5.9265
X10.3277 Y5.9254
X10.3293 Y5.9248
X10.3309
X10.3325 Y5.9253
X10.3335 Y5.9259
X10.3348 Y5.9269
X10.3357 Y5.9283
X10.3361 Y5.9299
X10.3358 Y5.9316
X10.3351 Y5.9331
X10.3339 Y5.9342
Z-0.3632 F20.
X10.3331 Y5.9346 Z-0.3677
X10.3319 Y5.935 Z-0.3696
X10.3306 Y5.9351 Z-0.3715
X10.3293 Y5.9349 Z-0.3724
X10.3282 Y5.9344 Z-0.3732
X10.3271 Y5.9336 Z-0.3741
X10.3262 Y5.9324 Z-0.3744
X10.3256 Y5.9311 Z-0.3747
X10.3254 Y5.9296 Z-0.375
X10.3256 Y5.9279 F40.
X10.3264 Y5.9264
X10.3276 Y5.9251
X10.3292 Y5.9244
X10.3309 Y5.9241
G3 Y5.9351 I0. J0.0055
G1 X10.3292 Y5.9348
X10.3276 Y5.934
X10.3264 Y5.9328
X10.3256 Y5.9313
X10.3254 Y5.9296
X10.3256 Y5.928 Z-0.3747
X10.3262 Y5.9266 Z-0.3743
X10.3273 Y5.9254 Z-0.374
X10.3283 Y5.9247 Z-0.3731
X10.3296 Y5.9242 Z-0.3722
X10.3309 Y5.9241 Z-0.3712
X10.332 Y5.9242 Z-0.3694
X10.3331 Y5.9246 Z-0.3675
X10.3339 Y5.925 Z-0.3632
G0 Z0.41
Y5.4342
Z0.4
G1 Z0.3 F20.
Z0.1918
X10.3331 Y5.4346 Z0.1873
X10.3319 Y5.435 Z0.1854
X10.3306 Y5.4351 Z0.1835
X10.3293 Y5.4349 Z0.1826
X10.3282 Y5.4344 Z0.1818
X10.3271 Y5.4336 Z0.1809
X10.3262 Y5.4324 Z0.1806
X10.3256 Y5.4311 Z0.1803
X10.3254 Y5.4296 Z0.18
X10.3256 Y5.4279 F40.
X10.3264 Y5.4264
X10.3276 Y5.4251
X10.3292 Y5.4244
X10.3309 Y5.4241
G3 Y5.4351 I0. J0.0055
G1 X10.3292 Y5.4348
X10.3276 Y5.434
X10.3264 Y5.4328
X10.3256 Y5.4313
X10.3254 Y5.4296
X10.3257 Y5.428
X10.3265 Y5.4265
X10.3277 Y5.4254
X10.3293 Y5.4248
X10.3309
X10.3325 Y5.4253
X10.3335 Y5.4259
X10.3348 Y5.4269
X10.3357 Y5.4283
X10.3361 Y5.4299
X10.3358 Y5.4316
X10.3351 Y5.4331
X10.3339 Y5.4342
Z0.1718 F20.
X10.3331 Y5.4346 Z0.1673
X10.3319 Y5.435 Z0.1654
X10.3306 Y5.4351 Z0.1635
X10.3293 Y5.4349 Z0.1626
X10.3282 Y5.4344 Z0.1618
X10.3271 Y5.4336 Z0.1609
X10.3262 Y5.4324 Z0.1606
X10.3256 Y5.4311 Z0.1603
X10.3254 Y5.4296 Z0.16
X10.3256 Y5.4279 F40.
X10.3264 Y5.4264
X10.3276 Y5.4251
X10.3292 Y5.4244
X10.3309 Y5.4241
G3 Y5.4351 I0. J0.0055
G1 X10.3292 Y5.4348
X10.3276 Y5.434
X10.3264 Y5.4328
X10.3256 Y5.4313
X10.3254 Y5.4296
X10.3257 Y5.428
X10.3265 Y5.4265
X10.3277 Y5.4254
X10.3293 Y5.4248
X10.3309
X10.3325 Y5.4253
X10.3335 Y5.4259
X10.3348 Y5.4269
X10.3357 Y5.4283
X10.3361 Y5.4299
X10.3358 Y5.4316
X10.3351 Y5.4331
X10.3339 Y5.4342
Z0.1518 F20.
X10.3331 Y5.4346 Z0.1473
X10.3319 Y5.435 Z0.1454
X10.3306 Y5.4351 Z0.1435
X10.3293 Y5.4349 Z0.1426
X10.3282 Y5.4344 Z0.1418
X10.3271 Y5.4336 Z0.1409
X10.3262 Y5.4324 Z0.1406
X10.3256 Y5.4311 Z0.1403
X10.3254 Y5.4296 Z0.14
X10.3256 Y5.4279 F40.
X10.3264 Y5.4264
X10.3276 Y5.4251
X10.3292 Y5.4244
X10.3309 Y5.4241
G3 Y5.4351 I0. J0.0055
G1 X10.3292 Y5.4348
X10.3276 Y5.434
X10.3264 Y5.4328
X10.3256 Y5.4313
X10.3254 Y5.4296
X10.3257 Y5.428
X10.3265 Y5.4265
X10.3277 Y5.4254
X10.3293 Y5.4248
X10.3309
X10.3325 Y5.4253
X10.3335 Y5.4259
X10.3348 Y5.4269
X10.3357 Y5.4283
X10.3361 Y5.4299
X10.3358 Y5.4316
X10.3351 Y5.4331
X10.3339 Y5.4342
Z0.1318 F20.
X10.3331 Y5.4346 Z0.1273
X10.3319 Y5.435 Z0.1254
X10.3306 Y5.4351 Z0.1235
X10.3293 Y5.4349 Z0.1226
X10.3282 Y5.4344 Z0.1218
X10.3271 Y5.4336 Z0.1209
X10.3262 Y5.4324 Z0.1206
X10.3256 Y5.4311 Z0.1203
X10.3254 Y5.4296 Z0.12
X10.3256 Y5.4279 F40.
X10.3264 Y5.4264
X10.3276 Y5.4251
X10.3292 Y5.4244
X10.3309 Y5.4241
G3 Y5.4351 I0. J0.0055
G1 X10.3292 Y5.4348
X10.3276 Y5.434
X10.3264 Y5.4328
X10.3256 Y5.4313
X10.3254 Y5.4296
X10.3257 Y5.428
X10.3265 Y5.4265
X10.3277 Y5.4254
X10.3293 Y5.4248
X10.3309
X10.3325 Y5.4253
X10.3335 Y5.4259
X10.3348 Y5.4269
X10.3357 Y5.4283
X10.3361 Y5.4299
X10.3358 Y5.4316
X10.3351 Y5.4331
X10.3339 Y5.4342
Z0.1118 F20.
X10.3331 Y5.4346 Z0.1073
X10.3319 Y5.435 Z0.1054
X10.3306 Y5.4351 Z0.1035
X10.3293 Y5.4349 Z0.1026
X10.3282 Y5.4344 Z0.1018
X10.3271 Y5.4336 Z0.1009
X10.3262 Y5.4324 Z0.1006
X10.3256 Y5.4311 Z0.1003
X10.3254 Y5.4296 Z0.1
X10.3256 Y5.4279 F40.
X10.3264 Y5.4264
X10.3276 Y5.4251
X10.3292 Y5.4244
X10.3309 Y5.4241
G3 Y5.4351 I0. J0.0055
G1 X10.3292 Y5.4348
X10.3276 Y5.434
X10.3264 Y5.4328
X10.3256 Y5.4313
X10.3254 Y5.4296
X10.3257 Y5.428
X10.3265 Y5.4265
X10.3277 Y5.4254
X10.3293 Y5.4248
X10.3309
X10.3325 Y5.4253
X10.3335 Y5.4259
X10.3348 Y5.4269
X10.3357 Y5.4283
X10.3361 Y5.4299
X10.3358 Y5.4316
X10.3351 Y5.4331
X10.3339 Y5.4342
Z0.0918 F20.
X10.3331 Y5.4346 Z0.0873
X10.3319 Y5.435 Z0.0854
X10.3306 Y5.4351 Z0.0835
X10.3293 Y5.4349 Z0.0826
X10.3282 Y5.4344 Z0.0818
X10.3271 Y5.4336 Z0.0809
X10.3262 Y5.4324 Z0.0806
X10.3256 Y5.4311 Z0.0803
X10.3254 Y5.4296 Z0.08
X10.3256 Y5.4279 F40.
X10.3264 Y5.4264
X10.3276 Y5.4251
X10.3292 Y5.4244
X10.3309 Y5.4241
G3 Y5.4351 I0. J0.0055
G1 X10.3292 Y5.4348
X10.3276 Y5.434
X10.3264 Y5.4328
X10.3256 Y5.4313
X10.3254 Y5.4296
X10.3257 Y5.428
X10.3265 Y5.4265
X10.3277 Y5.4254
X10.3293 Y5.4248
X10.3309
X10.3325 Y5.4253
X10.3335 Y5.4259
X10.3348 Y5.4269
X10.3357 Y5.4283
X10.3361 Y5.4299
X10.3358 Y5.4316
X10.3351 Y5.4331
X10.3339 Y5.4342
Z0.0718 F20.
X10.3331 Y5.4346 Z0.0673
X10.3319 Y5.435 Z0.0654
X10.3306 Y5.4351 Z0.0635
X10.3293 Y5.4349 Z0.0626
X10.3282 Y5.4344 Z0.0618
X10.3271 Y5.4336 Z0.0609
X10.3262 Y5.4324 Z0.0606
X10.3256 Y5.4311 Z0.0603
X10.3254 Y5.4296 Z0.06
X10.3256 Y5.4279 F40.
X10.3264 Y5.4264
X10.3276 Y5.4251
X10.3292 Y5.4244
X10.3309 Y5.4241
G3 Y5.4351 I0. J0.0055
G1 X10.3292 Y5.4348
X10.3276 Y5.434
X10.3264 Y5.4328
X10.3256 Y5.4313
X10.3254 Y5.4296
X10.3257 Y5.428
X10.3265 Y5.4265
X10.3277 Y5.4254
X10.3293 Y5.4248
X10.3309
X10.3325 Y5.4253
X10.3335 Y5.4259
X10.3348 Y5.4269
X10.3357 Y5.4283
X10.3361 Y5.4299
X10.3358 Y5.4316
X10.3351 Y5.4331
X10.3339 Y5.4342
Z0.0518 F20.
X10.3331 Y5.4346 Z0.0473
X10.3319 Y5.435 Z0.0454
X10.3306 Y5.4351 Z0.0435
X10.3293 Y5.4349 Z0.0426
X10.3282 Y5.4344 Z0.0418
X10.3271 Y5.4336 Z0.0409
X10.3262 Y5.4324 Z0.0406
X10.3256 Y5.4311 Z0.0403
X10.3254 Y5.4296 Z0.04
X10.3256 Y5.4279 F40.
X10.3264 Y5.4264
X10.3276 Y5.4251
X10.3292 Y5.4244
X10.3309 Y5.4241
G3 Y5.4351 I0. J0.0055
G1 X10.3292 Y5.4348
X10.3276 Y5.434
X10.3264 Y5.4328
X10.3256 Y5.4313
X10.3254 Y5.4296
X10.3257 Y5.428
X10.3265 Y5.4265
X10.3277 Y5.4254
X10.3293 Y5.4248
X10.3309
X10.3325 Y5.4253
X10.3335 Y5.4259
X10.3348 Y5.4269
X10.3357 Y5.4283
X10.3361 Y5.4299
X10.3358 Y5.4316
X10.3351 Y5.4331
X10.3339 Y5.4342
Z0.0318 F20.
X10.3331 Y5.4346 Z0.0273
X10.3319 Y5.435 Z0.0254
X10.3306 Y5.4351 Z0.0235
X10.3293 Y5.4349 Z0.0226
X10.3282 Y5.4344 Z0.0218
X10.3271 Y5.4336 Z0.0209
X10.3262 Y5.4324 Z0.0206
X10.3256 Y5.4311 Z0.0203
X10.3254 Y5.4296 Z0.02
X10.3256 Y5.4279 F40.
X10.3264 Y5.4264
X10.3276 Y5.4251
X10.3292 Y5.4244
X10.3309 Y5.4241
G3 Y5.4351 I0. J0.0055
G1 X10.3292 Y5.4348
X10.3276 Y5.434
X10.3264 Y5.4328
X10.3256 Y5.4313
X10.3254 Y5.4296
X10.3257 Y5.428
X10.3265 Y5.4265
X10.3277 Y5.4254
X10.3293 Y5.4248
X10.3309
X10.3325 Y5.4253
X10.3335 Y5.4259
X10.3348 Y5.4269
X10.3357 Y5.4283
X10.3361 Y5.4299
X10.3358 Y5.4316
X10.3351 Y5.4331
X10.3339 Y5.4342
Z0.0118 F20.
X10.3331 Y5.4346 Z0.0073
X10.3319 Y5.435 Z0.0054
X10.3306 Y5.4351 Z0.0035
X10.3293 Y5.4349 Z0.0026
X10.3282 Y5.4344 Z0.0018
X10.3271 Y5.4336 Z0.0009
X10.3262 Y5.4324 Z0.0006
X10.3256 Y5.4311 Z0.0003
X10.3254 Y5.4296 Z0.
X10.3256 Y5.4279 F40.
X10.3264 Y5.4264
X10.3276 Y5.4251
X10.3292 Y5.4244
X10.3309 Y5.4241
G3 Y5.4351 I0. J0.0055
G1 X10.3292 Y5.4348
X10.3276 Y5.434
X10.3264 Y5.4328
X10.3256 Y5.4313
X10.3254 Y5.4296
X10.3257 Y5.428
X10.3265 Y5.4265
X10.3277 Y5.4254
X10.3293 Y5.4248
X10.3309
X10.3325 Y5.4253
X10.3335 Y5.4259
X10.3348 Y5.4269
X10.3357 Y5.4283
X10.3361 Y5.4299
X10.3358 Y5.4316
X10.3351 Y5.4331
X10.3339 Y5.4342
Z-0.0082 F20.
X10.3331 Y5.4346 Z-0.0127
X10.3319 Y5.435 Z-0.0146
X10.3306 Y5.4351 Z-0.0165
X10.3293 Y5.4349 Z-0.0174
X10.3282 Y5.4344 Z-0.0182
X10.3271 Y5.4336 Z-0.0191
X10.3262 Y5.4324 Z-0.0194
X10.3256 Y5.4311 Z-0.0197
X10.3254 Y5.4296 Z-0.02
X10.3256 Y5.4279 F40.
X10.3264 Y5.4264
X10.3276 Y5.4251
X10.3292 Y5.4244
X10.3309 Y5.4241
G3 Y5.4351 I0. J0.0055
G1 X10.3292 Y5.4348
X10.3276 Y5.434
X10.3264 Y5.4328
X10.3256 Y5.4313
X10.3254 Y5.4296
X10.3257 Y5.428
X10.3265 Y5.4265
X10.3277 Y5.4254
X10.3293 Y5.4248
X10.3309
X10.3325 Y5.4253
X10.3335 Y5.4259
X10.3348 Y5.4269
X10.3357 Y5.4283
X10.3361 Y5.4299
X10.3358 Y5.4316
X10.3351 Y5.4331
X10.3339 Y5.4342
Z-0.0282 F20.
X10.3331 Y5.4346 Z-0.0327
X10.3319 Y5.435 Z-0.0346
X10.3306 Y5.4351 Z-0.0365
X10.3293 Y5.4349 Z-0.0374
X10.3282 Y5.4344 Z-0.0382
X10.3271 Y5.4336 Z-0.0391
X10.3262 Y5.4324 Z-0.0394
X10.3256 Y5.4311 Z-0.0397
X10.3254 Y5.4296 Z-0.04
X10.3256 Y5.4279 F40.
X10.3264 Y5.4264
X10.3276 Y5.4251
X10.3292 Y5.4244
X10.3309 Y5.4241
G3 Y5.4351 I0. J0.0055
G1 X10.3292 Y5.4348
X10.3276 Y5.434
X10.3264 Y5.4328
X10.3256 Y5.4313
X10.3254 Y5.4296
X10.3257 Y5.428
X10.3265 Y5.4265
X10.3277 Y5.4254
X10.3293 Y5.4248
X10.3309
X10.3325 Y5.4253
X10.3335 Y5.4259
X10.3348 Y5.4269
X10.3357 Y5.4283
X10.3361 Y5.4299
X10.3358 Y5.4316
X10.3351 Y5.4331
X10.3339 Y5.4342
Z-0.0482 F20.
X10.3331 Y5.4346 Z-0.0527
X10.3319 Y5.435 Z-0.0546
X10.3306 Y5.4351 Z-0.0565
X10.3293 Y5.4349 Z-0.0574
X10.3282 Y5.4344 Z-0.0582
X10.3271 Y5.4336 Z-0.0591
X10.3262 Y5.4324 Z-0.0594
X10.3256 Y5.4311 Z-0.0597
X10.3254 Y5.4296 Z-0.06
X10.3256 Y5.4279 F40.
X10.3264 Y5.4264
X10.3276 Y5.4251
X10.3292 Y5.4244
X10.3309 Y5.4241
G3 Y5.4351 I0. J0.0055
G1 X10.3292 Y5.4348
X10.3276 Y5.434
X10.3264 Y5.4328
X10.3256 Y5.4313
X10.3254 Y5.4296
X10.3257 Y5.428
X10.3265 Y5.4265
X10.3277 Y5.4254
X10.3293 Y5.4248
X10.3309
X10.3325 Y5.4253
X10.3335 Y5.4259
X10.3348 Y5.4269
X10.3357 Y5.4283
X10.3361 Y5.4299
X10.3358 Y5.4316
X10.3351 Y5.4331
X10.3339 Y5.4342
Z-0.0682 F20.
X10.3331 Y5.4346 Z-0.0727
X10.3319 Y5.435 Z-0.0746
X10.3306 Y5.4351 Z-0.0765
X10.3293 Y5.4349 Z-0.0774
X10.3282 Y5.4344 Z-0.0782
X10.3271 Y5.4336 Z-0.0791
X10.3262 Y5.4324 Z-0.0794
X10.3256 Y5.4311 Z-0.0797
X10.3254 Y5.4296 Z-0.08
X10.3256 Y5.4279 F40.
X10.3264 Y5.4264
X10.3276 Y5.4251
X10.3292 Y5.4244
X10.3309 Y5.4241
G3 Y5.4351 I0. J0.0055
G1 X10.3292 Y5.4348
X10.3276 Y5.434
X10.3264 Y5.4328
X10.3256 Y5.4313
X10.3254 Y5.4296
X10.3257 Y5.428
X10.3265 Y5.4265
X10.3277 Y5.4254
X10.3293 Y5.4248
X10.3309
X10.3325 Y5.4253
X10.3335 Y5.4259
X10.3348 Y5.4269
X10.3357 Y5.4283
X10.3361 Y5.4299
X10.3358 Y5.4316
X10.3351 Y5.4331
X10.3339 Y5.4342
Z-0.0882 F20.
X10.3331 Y5.4346 Z-0.0927
X10.3319 Y5.435 Z-0.0946
X10.3306 Y5.4351 Z-0.0965
X10.3293 Y5.4349 Z-0.0974
X10.3282 Y5.4344 Z-0.0982
X10.3271 Y5.4336 Z-0.0991
X10.3262 Y5.4324 Z-0.0994
X10.3256 Y5.4311 Z-0.0997
X10.3254 Y5.4296 Z-0.1
X10.3256 Y5.4279 F40.
X10.3264 Y5.4264
X10.3276 Y5.4251
X10.3292 Y5.4244
X10.3309 Y5.4241
G3 Y5.4351 I0. J0.0055
G1 X10.3292 Y5.4348
X10.3276 Y5.434
X10.3264 Y5.4328
X10.3256 Y5.4313
X10.3254 Y5.4296
X10.3257 Y5.428
X10.3265 Y5.4265
X10.3277 Y5.4254
X10.3293 Y5.4248
X10.3309
X10.3325 Y5.4253
X10.3335 Y5.4259
X10.3348 Y5.4269
X10.3357 Y5.4283
X10.3361 Y5.4299
X10.3358 Y5.4316
X10.3351 Y5.4331
X10.3339 Y5.4342
Z-0.1082 F20.
X10.3331 Y5.4346 Z-0.1127
X10.3319 Y5.435 Z-0.1146
X10.3306 Y5.4351 Z-0.1165
X10.3293 Y5.4349 Z-0.1174
X10.3282 Y5.4344 Z-0.1182
X10.3271 Y5.4336 Z-0.1191
X10.3262 Y5.4324 Z-0.1194
X10.3256 Y5.4311 Z-0.1197
X10.3254 Y5.4296 Z-0.12
X10.3256 Y5.4279 F40.
X10.3264 Y5.4264
X10.3276 Y5.4251
X10.3292 Y5.4244
X10.3309 Y5.4241
G3 Y5.4351 I0. J0.0055
G1 X10.3292 Y5.4348
X10.3276 Y5.434
X10.3264 Y5.4328
X10.3256 Y5.4313
X10.3254 Y5.4296
X10.3257 Y5.428
X10.3265 Y5.4265
X10.3277 Y5.4254
X10.3293 Y5.4248
X10.3309
X10.3325 Y5.4253
X10.3335 Y5.4259
X10.3348 Y5.4269
X10.3357 Y5.4283
X10.3361 Y5.4299
X10.3358 Y5.4316
X10.3351 Y5.4331
X10.3339 Y5.4342
Z-0.1282 F20.
X10.3331 Y5.4346 Z-0.1327
X10.3319 Y5.435 Z-0.1346
X10.3306 Y5.4351 Z-0.1365
X10.3293 Y5.4349 Z-0.1374
X10.3282 Y5.4344 Z-0.1382
X10.3271 Y5.4336 Z-0.1391
X10.3262 Y5.4324 Z-0.1394
X10.3256 Y5.4311 Z-0.1397
X10.3254 Y5.4296 Z-0.14
X10.3256 Y5.4279 F40.
X10.3264 Y5.4264
X10.3276 Y5.4251
X10.3292 Y5.4244
X10.3309 Y5.4241
G3 Y5.4351 I0. J0.0055
G1 X10.3292 Y5.4348
X10.3276 Y5.434
X10.3264 Y5.4328
X10.3256 Y5.4313
X10.3254 Y5.4296
X10.3257 Y5.428
X10.3265 Y5.4265
X10.3277 Y5.4254
X10.3293 Y5.4248
X10.3309
X10.3325 Y5.4253
X10.3335 Y5.4259
X10.3348 Y5.4269
X10.3357 Y5.4283
X10.3361 Y5.4299
X10.3358 Y5.4316
X10.3351 Y5.4331
X10.3339 Y5.4342
Z-0.1482 F20.
X10.3331 Y5.4346 Z-0.1527
X10.3319 Y5.435 Z-0.1546
X10.3306 Y5.4351 Z-0.1565
X10.3293 Y5.4349 Z-0.1574
X10.3282 Y5.4344 Z-0.1582
X10.3271 Y5.4336 Z-0.1591
X10.3262 Y5.4324 Z-0.1594
X10.3256 Y5.4311 Z-0.1597
X10.3254 Y5.4296 Z-0.16
X10.3256 Y5.4279 F40.
X10.3264 Y5.4264
X10.3276 Y5.4251
X10.3292 Y5.4244
X10.3309 Y5.4241
G3 Y5.4351 I0. J0.0055
G1 X10.3292 Y5.4348
X10.3276 Y5.434
X10.3264 Y5.4328
X10.3256 Y5.4313
X10.3254 Y5.4296
X10.3257 Y5.428
X10.3265 Y5.4265
X10.3277 Y5.4254
X10.3293 Y5.4248
X10.3309
X10.3325 Y5.4253
X10.3335 Y5.4259
X10.3348 Y5.4269
X10.3357 Y5.4283
X10.3361 Y5.4299
X10.3358 Y5.4316
X10.3351 Y5.4331
X10.3339 Y5.4342
Z-0.1682 F20.
X10.3331 Y5.4346 Z-0.1727
X10.3319 Y5.435 Z-0.1746
X10.3306 Y5.4351 Z-0.1765
X10.3293 Y5.4349 Z-0.1774
X10.3282 Y5.4344 Z-0.1782
X10.3271 Y5.4336 Z-0.1791
X10.3262 Y5.4324 Z-0.1794
X10.3256 Y5.4311 Z-0.1797
X10.3254 Y5.4296 Z-0.18
X10.3256 Y5.4279 F40.
X10.3264 Y5.4264
X10.3276 Y5.4251
X10.3292 Y5.4244
X10.3309 Y5.4241
G3 Y5.4351 I0. J0.0055
G1 X10.3292 Y5.4348
X10.3276 Y5.434
X10.3264 Y5.4328
X10.3256 Y5.4313
X10.3254 Y5.4296
X10.3257 Y5.428
X10.3265 Y5.4265
X10.3277 Y5.4254
X10.3293 Y5.4248
X10.3309
X10.3325 Y5.4253
X10.3335 Y5.4259
X10.3348 Y5.4269
X10.3357 Y5.4283
X10.3361 Y5.4299
X10.3358 Y5.4316
X10.3351 Y5.4331
X10.3339 Y5.4342
Z-0.1882 F20.
X10.3331 Y5.4346 Z-0.1927
X10.3319 Y5.435 Z-0.1946
X10.3306 Y5.4351 Z-0.1965
X10.3293 Y5.4349 Z-0.1974
X10.3282 Y5.4344 Z-0.1982
X10.3271 Y5.4336 Z-0.1991
X10.3262 Y5.4324 Z-0.1994
X10.3256 Y5.4311 Z-0.1997
X10.3254 Y5.4296 Z-0.2
X10.3256 Y5.4279 F40.
X10.3264 Y5.4264
X10.3276 Y5.4251
X10.3292 Y5.4244
X10.3309 Y5.4241
G3 Y5.4351 I0. J0.0055
G1 X10.3292 Y5.4348
X10.3276 Y5.434
X10.3264 Y5.4328
X10.3256 Y5.4313
X10.3254 Y5.4296
X10.3257 Y5.428
X10.3265 Y5.4265
X10.3277 Y5.4254
X10.3293 Y5.4248
X10.3309
X10.3325 Y5.4253
X10.3335 Y5.4259
X10.3348 Y5.4269
X10.3357 Y5.4283
X10.3361 Y5.4299
X10.3358 Y5.4316
X10.3351 Y5.4331
X10.3339 Y5.4342
Z-0.2082 F20.
X10.3331 Y5.4346 Z-0.2127
X10.3319 Y5.435 Z-0.2146
X10.3306 Y5.4351 Z-0.2165
X10.3293 Y5.4349 Z-0.2174
X10.3282 Y5.4344 Z-0.2182
X10.3271 Y5.4336 Z-0.2191
X10.3262 Y5.4324 Z-0.2194
X10.3256 Y5.4311 Z-0.2197
X10.3254 Y5.4296 Z-0.22
X10.3256 Y5.4279 F40.
X10.3264 Y5.4264
X10.3276 Y5.4251
X10.3292 Y5.4244
X10.3309 Y5.4241
G3 Y5.4351 I0. J0.0055
G1 X10.3292 Y5.4348
X10.3276 Y5.434
X10.3264 Y5.4328
X10.3256 Y5.4313
X10.3254 Y5.4296
X10.3257 Y5.428
X10.3265 Y5.4265
X10.3277 Y5.4254
X10.3293 Y5.4248
X10.3309
X10.3325 Y5.4253
X10.3335 Y5.4259
X10.3348 Y5.4269
X10.3357 Y5.4283
X10.3361 Y5.4299
X10.3358 Y5.4316
X10.3351 Y5.4331
X10.3339 Y5.4342
Z-0.2282 F20.
X10.3331 Y5.4346 Z-0.2327
X10.3319 Y5.435 Z-0.2346
X10.3306 Y5.4351 Z-0.2365
X10.3293 Y5.4349 Z-0.2374
X10.3282 Y5.4344 Z-0.2382
X10.3271 Y5.4336 Z-0.2391
X10.3262 Y5.4324 Z-0.2394
X10.3256 Y5.4311 Z-0.2397
X10.3254 Y5.4296 Z-0.24
X10.3256 Y5.4279 F40.
X10.3264 Y5.4264
X10.3276 Y5.4251
X10.3292 Y5.4244
X10.3309 Y5.4241
G3 Y5.4351 I0. J0.0055
G1 X10.3292 Y5.4348
X10.3276 Y5.434
X10.3264 Y5.4328
X10.3256 Y5.4313
X10.3254 Y5.4296
X10.3257 Y5.428
X10.3265 Y5.4265
X10.3277 Y5.4254
X10.3293 Y5.4248
X10.3309
X10.3325 Y5.4253
X10.3335 Y5.4259
X10.3348 Y5.4269
X10.3357 Y5.4283
X10.3361 Y5.4299
X10.3358 Y5.4316
X10.3351 Y5.4331
X10.3339 Y5.4342
Z-0.2482 F20.
X10.3331 Y5.4346 Z-0.2527
X10.3319 Y5.435 Z-0.2546
X10.3306 Y5.4351 Z-0.2565
X10.3293 Y5.4349 Z-0.2574
X10.3282 Y5.4344 Z-0.2582
X10.3271 Y5.4336 Z-0.2591
X10.3262 Y5.4324 Z-0.2594
X10.3256 Y5.4311 Z-0.2597
X10.3254 Y5.4296 Z-0.26
X10.3256 Y5.4279 F40.
X10.3264 Y5.4264
X10.3276 Y5.4251
X10.3292 Y5.4244
X10.3309 Y5.4241
G3 Y5.4351 I0. J0.0055
G1 X10.3292 Y5.4348
X10.3276 Y5.434
X10.3264 Y5.4328
X10.3256 Y5.4313
X10.3254 Y5.4296
X10.3257 Y5.428
X10.3265 Y5.4265
X10.3277 Y5.4254
X10.3293 Y5.4248
X10.3309
X10.3325 Y5.4253
X10.3335 Y5.4259
X10.3348 Y5.4269
X10.3357 Y5.4283
X10.3361 Y5.4299
X10.3358 Y5.4316
X10.3351 Y5.4331
X10.3339 Y5.4342
Z-0.2682 F20.
X10.3331 Y5.4346 Z-0.2727
X10.3319 Y5.435 Z-0.2746
X10.3306 Y5.4351 Z-0.2765
X10.3293 Y5.4349 Z-0.2774
X10.3282 Y5.4344 Z-0.2782
X10.3271 Y5.4336 Z-0.2791
X10.3262 Y5.4324 Z-0.2794
X10.3256 Y5.4311 Z-0.2797
X10.3254 Y5.4296 Z-0.28
X10.3256 Y5.4279 F40.
X10.3264 Y5.4264
X10.3276 Y5.4251
X10.3292 Y5.4244
X10.3309 Y5.4241
G3 Y5.4351 I0. J0.0055
G1 X10.3292 Y5.4348
X10.3276 Y5.434
X10.3264 Y5.4328
X10.3256 Y5.4313
X10.3254 Y5.4296
X10.3257 Y5.428
X10.3265 Y5.4265
X10.3277 Y5.4254
X10.3293 Y5.4248
X10.3309
X10.3325 Y5.4253
X10.3335 Y5.4259
X10.3348 Y5.4269
X10.3357 Y5.4283
X10.3361 Y5.4299
X10.3358 Y5.4316
X10.3351 Y5.4331
X10.3339 Y5.4342
Z-0.2882 F20.
X10.3331 Y5.4346 Z-0.2927
X10.3319 Y5.435 Z-0.2946
X10.3306 Y5.4351 Z-0.2965
X10.3293 Y5.4349 Z-0.2974
X10.3282 Y5.4344 Z-0.2982
X10.3271 Y5.4336 Z-0.2991
X10.3262 Y5.4324 Z-0.2994
X10.3256 Y5.4311 Z-0.2997
X10.3254 Y5.4296 Z-0.3
X10.3256 Y5.4279 F40.
X10.3264 Y5.4264
X10.3276 Y5.4251
X10.3292 Y5.4244
X10.3309 Y5.4241
G3 Y5.4351 I0. J0.0055
G1 X10.3292 Y5.4348
X10.3276 Y5.434
X10.3264 Y5.4328
X10.3256 Y5.4313
X10.3254 Y5.4296
X10.3257 Y5.428
X10.3265 Y5.4265
X10.3277 Y5.4254
X10.3293 Y5.4248
X10.3309
X10.3325 Y5.4253
X10.3335 Y5.4259
X10.3348 Y5.4269
X10.3357 Y5.4283
X10.3361 Y5.4299
X10.3358 Y5.4316
X10.3351 Y5.4331
X10.3339 Y5.4342
Z-0.3082 F20.
X10.3331 Y5.4346 Z-0.3127
X10.3319 Y5.435 Z-0.3146
X10.3306 Y5.4351 Z-0.3165
X10.3293 Y5.4349 Z-0.3174
X10.3282 Y5.4344 Z-0.3182
X10.3271 Y5.4336 Z-0.3191
X10.3262 Y5.4324 Z-0.3194
X10.3256 Y5.4311 Z-0.3197
X10.3254 Y5.4296 Z-0.32
X10.3256 Y5.4279 F40.
X10.3264 Y5.4264
X10.3276 Y5.4251
X10.3292 Y5.4244
X10.3309 Y5.4241
G3 Y5.4351 I0. J0.0055
G1 X10.3292 Y5.4348
X10.3276 Y5.434
X10.3264 Y5.4328
X10.3256 Y5.4313
X10.3254 Y5.4296
X10.3257 Y5.428
X10.3265 Y5.4265
X10.3277 Y5.4254
X10.3293 Y5.4248
X10.3309
X10.3325 Y5.4253
X10.3335 Y5.4259
X10.3348 Y5.4269
X10.3357 Y5.4283
X10.3361 Y5.4299
X10.3358 Y5.4316
X10.3351 Y5.4331
X10.3339 Y5.4342
Z-0.3282 F20.
X10.3331 Y5.4346 Z-0.3327
X10.3319 Y5.435 Z-0.3346
X10.3306 Y5.4351 Z-0.3365
X10.3293 Y5.4349 Z-0.3374
X10.3282 Y5.4344 Z-0.3382
X10.3271 Y5.4336 Z-0.3391
X10.3262 Y5.4324 Z-0.3394
X10.3256 Y5.4311 Z-0.3397
X10.3254 Y5.4296 Z-0.34
X10.3256 Y5.4279 F40.
X10.3264 Y5.4264
X10.3276 Y5.4251
X10.3292 Y5.4244
X10.3309 Y5.4241
G3 Y5.4351 I0. J0.0055
G1 X10.3292 Y5.4348
X10.3276 Y5.434
X10.3264 Y5.4328
X10.3256 Y5.4313
X10.3254 Y5.4296
X10.3257 Y5.428
X10.3265 Y5.4265
X10.3277 Y5.4254
X10.3293 Y5.4248
X10.3309
X10.3325 Y5.4253
X10.3335 Y5.4259
X10.3348 Y5.4269
X10.3357 Y5.4283
X10.3361 Y5.4299
X10.3358 Y5.4316
X10.3351 Y5.4331
X10.3339 Y5.4342
Z-0.3482 F20.
X10.3331 Y5.4346 Z-0.3527
X10.3319 Y5.435 Z-0.3546
X10.3306 Y5.4351 Z-0.3565
X10.3293 Y5.4349 Z-0.3574
X10.3282 Y5.4344 Z-0.3582
X10.3271 Y5.4336 Z-0.3591
X10.3262 Y5.4324 Z-0.3594
X10.3256 Y5.4311 Z-0.3597
X10.3254 Y5.4296 Z-0.36
X10.3256 Y5.4279 F40.
X10.3264 Y5.4264
X10.3276 Y5.4251
X10.3292 Y5.4244
X10.3309 Y5.4241
G3 Y5.4351 I0. J0.0055
G1 X10.3292 Y5.4348
X10.3276 Y5.434
X10.3264 Y5.4328
X10.3256 Y5.4313
X10.3254 Y5.4296
X10.3257 Y5.428
X10.3265 Y5.4265
X10.3277 Y5.4254
X10.3293 Y5.4248
X10.3309
X10.3325 Y5.4253
X10.3335 Y5.4259
X10.3348 Y5.4269
X10.3357 Y5.4283
X10.3361 Y5.4299
X10.3358 Y5.4316
X10.3351 Y5.4331
X10.3339 Y5.4342
Z-0.3632 F20.
X10.3331 Y5.4346 Z-0.3677
X10.3319 Y5.435 Z-0.3696
X10.3306 Y5.4351 Z-0.3715
X10.3293 Y5.4349 Z-0.3724
X10.3282 Y5.4344 Z-0.3732
X10.3271 Y5.4336 Z-0.3741
X10.3262 Y5.4324 Z-0.3744
X10.3256 Y5.4311 Z-0.3747
X10.3254 Y5.4296 Z-0.375
X10.3256 Y5.4279 F40.
X10.3264 Y5.4264
X10.3276 Y5.4251
X10.3292 Y5.4244
X10.3309 Y5.4241
G3 Y5.4351 I0. J0.0055
G1 X10.3292 Y5.4348
X10.3276 Y5.434
X10.3264 Y5.4328
X10.3256 Y5.4313
X10.3254 Y5.4296
X10.3256 Y5.428 Z-0.3747
X10.3262 Y5.4266 Z-0.3743
X10.3273 Y5.4254 Z-0.374
X10.3283 Y5.4247 Z-0.3731
X10.3296 Y5.4242 Z-0.3722
X10.3309 Y5.4241 Z-0.3712
X10.332 Y5.4242 Z-0.3694
X10.3331 Y5.4246 Z-0.3675
X10.3339 Y5.425 Z-0.3632
G0 Z0.41
Y4.9342
Z0.4
G1 Z0.3 F20.
Z0.1918
X10.3331 Y4.9346 Z0.1873
X10.3319 Y4.935 Z0.1854
X10.3306 Y4.9351 Z0.1835
X10.3293 Y4.9349 Z0.1826
X10.3282 Y4.9344 Z0.1818
X10.3271 Y4.9336 Z0.1809
X10.3262 Y4.9324 Z0.1806
X10.3256 Y4.9311 Z0.1803
X10.3254 Y4.9296 Z0.18
X10.3256 Y4.9279 F40.
X10.3264 Y4.9264
X10.3276 Y4.9251
X10.3292 Y4.9244
X10.3309 Y4.9241
G3 Y4.9351 I0. J0.0055
G1 X10.3292 Y4.9348
X10.3276 Y4.934
X10.3264 Y4.9328
X10.3256 Y4.9313
X10.3254 Y4.9296
X10.3257 Y4.928
X10.3265 Y4.9265
X10.3277 Y4.9254
X10.3293 Y4.9248
X10.3309
X10.3325 Y4.9253
X10.3335 Y4.9259
X10.3348 Y4.9269
X10.3357 Y4.9283
X10.3361 Y4.9299
X10.3358 Y4.9316
X10.3351 Y4.9331
X10.3339 Y4.9342
Z0.1718 F20.
X10.3331 Y4.9346 Z0.1673
X10.3319 Y4.935 Z0.1654
X10.3306 Y4.9351 Z0.1635
X10.3293 Y4.9349 Z0.1626
X10.3282 Y4.9344 Z0.1618
X10.3271 Y4.9336 Z0.1609
X10.3262 Y4.9324 Z0.1606
X10.3256 Y4.9311 Z0.1603
X10.3254 Y4.9296 Z0.16
X10.3256 Y4.9279 F40.
X10.3264 Y4.9264
X10.3276 Y4.9251
X10.3292 Y4.9244
X10.3309 Y4.9241
G3 Y4.9351 I0. J0.0055
G1 X10.3292 Y4.9348
X10.3276 Y4.934
X10.3264 Y4.9328
X10.3256 Y4.9313
X10.3254 Y4.9296
X10.3257 Y4.928
X10.3265 Y4.9265
X10.3277 Y4.9254
X10.3293 Y4.9248
X10.3309
X10.3325 Y4.9253
X10.3335 Y4.9259
X10.3348 Y4.9269
X10.3357 Y4.9283
X10.3361 Y4.9299
X10.3358 Y4.9316
X10.3351 Y4.9331
X10.3339 Y4.9342
Z0.1518 F20.
X10.3331 Y4.9346 Z0.1473
X10.3319 Y4.935 Z0.1454
X10.3306 Y4.9351 Z0.1435
X10.3293 Y4.9349 Z0.1426
X10.3282 Y4.9344 Z0.1418
X10.3271 Y4.9336 Z0.1409
X10.3262 Y4.9324 Z0.1406
X10.3256 Y4.9311 Z0.1403
X10.3254 Y4.9296 Z0.14
X10.3256 Y4.9279 F40.
X10.3264 Y4.9264
X10.3276 Y4.9251
X10.3292 Y4.9244
X10.3309 Y4.9241
G3 Y4.9351 I0. J0.0055
G1 X10.3292 Y4.9348
X10.3276 Y4.934
X10.3264 Y4.9328
X10.3256 Y4.9313
X10.3254 Y4.9296
X10.3257 Y4.928
X10.3265 Y4.9265
X10.3277 Y4.9254
X10.3293 Y4.9248
X10.3309
X10.3325 Y4.9253
X10.3335 Y4.9259
X10.3348 Y4.9269
X10.3357 Y4.9283
X10.3361 Y4.9299
X10.3358 Y4.9316
X10.3351 Y4.9331
X10.3339 Y4.9342
Z0.1318 F20.
X10.3331 Y4.9346 Z0.1273
X10.3319 Y4.935 Z0.1254
X10.3306 Y4.9351 Z0.1235
X10.3293 Y4.9349 Z0.1226
X10.3282 Y4.9344 Z0.1218
X10.3271 Y4.9336 Z0.1209
X10.3262 Y4.9324 Z0.1206
X10.3256 Y4.9311 Z0.1203
X10.3254 Y4.9296 Z0.12
X10.3256 Y4.9279 F40.
X10.3264 Y4.9264
X10.3276 Y4.9251
X10.3292 Y4.9244
X10.3309 Y4.9241
G3 Y4.9351 I0. J0.0055
G1 X10.3292 Y4.9348
X10.3276 Y4.934
X10.3264 Y4.9328
X10.3256 Y4.9313
X10.3254 Y4.9296
X10.3257 Y4.928
X10.3265 Y4.9265
X10.3277 Y4.9254
X10.3293 Y4.9248
X10.3309
X10.3325 Y4.9253
X10.3335 Y4.9259
X10.3348 Y4.9269
X10.3357 Y4.9283
X10.3361 Y4.9299
X10.3358 Y4.9316
X10.3351 Y4.9331
X10.3339 Y4.9342
Z0.1118 F20.
X10.3331 Y4.9346 Z0.1073
X10.3319 Y4.935 Z0.1054
X10.3306 Y4.9351 Z0.1035
X10.3293 Y4.9349 Z0.1026
X10.3282 Y4.9344 Z0.1018
X10.3271 Y4.9336 Z0.1009
X10.3262 Y4.9324 Z0.1006
X10.3256 Y4.9311 Z0.1003
X10.3254 Y4.9296 Z0.1
X10.3256 Y4.9279 F40.
X10.3264 Y4.9264
X10.3276 Y4.9251
X10.3292 Y4.9244
X10.3309 Y4.9241
G3 Y4.9351 I0. J0.0055
G1 X10.3292 Y4.9348
X10.3276 Y4.934
X10.3264 Y4.9328
X10.3256 Y4.9313
X10.3254 Y4.9296
X10.3257 Y4.928
X10.3265 Y4.9265
X10.3277 Y4.9254
X10.3293 Y4.9248
X10.3309
X10.3325 Y4.9253
X10.3335 Y4.9259
X10.3348 Y4.9269
X10.3357 Y4.9283
X10.3361 Y4.9299
X10.3358 Y4.9316
X10.3351 Y4.9331
X10.3339 Y4.9342
Z0.0918 F20.
X10.3331 Y4.9346 Z0.0873
X10.3319 Y4.935 Z0.0854
X10.3306 Y4.9351 Z0.0835
X10.3293 Y4.9349 Z0.0826
X10.3282 Y4.9344 Z0.0818
X10.3271 Y4.9336 Z0.0809
X10.3262 Y4.9324 Z0.0806
X10.3256 Y4.9311 Z0.0803
X10.3254 Y4.9296 Z0.08
X10.3256 Y4.9279 F40.
X10.3264 Y4.9264
X10.3276 Y4.9251
X10.3292 Y4.9244
X10.3309 Y4.9241
G3 Y4.9351 I0. J0.0055
G1 X10.3292 Y4.9348
X10.3276 Y4.934
X10.3264 Y4.9328
X10.3256 Y4.9313
X10.3254 Y4.9296
X10.3257 Y4.928
X10.3265 Y4.9265
X10.3277 Y4.9254
X10.3293 Y4.9248
X10.3309
X10.3325 Y4.9253
X10.3335 Y4.9259
X10.3348 Y4.9269
X10.3357 Y4.9283
X10.3361 Y4.9299
X10.3358 Y4.9316
X10.3351 Y4.9331
X10.3339 Y4.9342
Z0.0718 F20.
X10.3331 Y4.9346 Z0.0673
X10.3319 Y4.935 Z0.0654
X10.3306 Y4.9351 Z0.0635
X10.3293 Y4.9349 Z0.0626
X10.3282 Y4.9344 Z0.0618
X10.3271 Y4.9336 Z0.0609
X10.3262 Y4.9324 Z0.0606
X10.3256 Y4.9311 Z0.0603
X10.3254 Y4.9296 Z0.06
X10.3256 Y4.9279 F40.
X10.3264 Y4.9264
X10.3276 Y4.9251
X10.3292 Y4.9244
X10.3309 Y4.9241
G3 Y4.9351 I0. J0.0055
G1 X10.3292 Y4.9348
X10.3276 Y4.934
X10.3264 Y4.9328
X10.3256 Y4.9313
X10.3254 Y4.9296
X10.3257 Y4.928
X10.3265 Y4.9265
X10.3277 Y4.9254
X10.3293 Y4.9248
X10.3309
X10.3325 Y4.9253
X10.3335 Y4.9259
X10.3348 Y4.9269
X10.3357 Y4.9283
X10.3361 Y4.9299
X10.3358 Y4.9316
X10.3351 Y4.9331
X10.3339 Y4.9342
Z0.0518 F20.
X10.3331 Y4.9346 Z0.0473
X10.3319 Y4.935 Z0.0454
X10.3306 Y4.9351 Z0.0435
X10.3293 Y4.9349 Z0.0426
X10.3282 Y4.9344 Z0.0418
X10.3271 Y4.9336 Z0.0409
X10.3262 Y4.9324 Z0.0406
X10.3256 Y4.9311 Z0.0403
X10.3254 Y4.9296 Z0.04
X10.3256 Y4.9279 F40.
X10.3264 Y4.9264
X10.3276 Y4.9251
X10.3292 Y4.9244
X10.3309 Y4.9241
G3 Y4.9351 I0. J0.0055
G1 X10.3292 Y4.9348
X10.3276 Y4.934
X10.3264 Y4.9328
X10.3256 Y4.9313
X10.3254 Y4.9296
X10.3257 Y4.928
X10.3265 Y4.9265
X10.3277 Y4.9254
X10.3293 Y4.9248
X10.3309
X10.3325 Y4.9253
X10.3335 Y4.9259
X10.3348 Y4.9269
X10.3357 Y4.9283
X10.3361 Y4.9299
X10.3358 Y4.9316
X10.3351 Y4.9331
X10.3339 Y4.9342
Z0.0318 F20.
X10.3331 Y4.9346 Z0.0273
X10.3319 Y4.935 Z0.0254
X10.3306 Y4.9351 Z0.0235
X10.3293 Y4.9349 Z0.0226
X10.3282 Y4.9344 Z0.0218
X10.3271 Y4.9336 Z0.0209
X10.3262 Y4.9324 Z0.0206
X10.3256 Y4.9311 Z0.0203
X10.3254 Y4.9296 Z0.02
X10.3256 Y4.9279 F40.
X10.3264 Y4.9264
X10.3276 Y4.9251
X10.3292 Y4.9244
X10.3309 Y4.9241
G3 Y4.9351 I0. J0.0055
G1 X10.3292 Y4.9348
X10.3276 Y4.934
X10.3264 Y4.9328
X10.3256 Y4.9313
X10.3254 Y4.9296
X10.3257 Y4.928
X10.3265 Y4.9265
X10.3277 Y4.9254
X10.3293 Y4.9248
X10.3309
X10.3325 Y4.9253
X10.3335 Y4.9259
X10.3348 Y4.9269
X10.3357 Y4.9283
X10.3361 Y4.9299
X10.3358 Y4.9316
X10.3351 Y4.9331
X10.3339 Y4.9342
Z0.0118 F20.
X10.3331 Y4.9346 Z0.0073
X10.3319 Y4.935 Z0.0054
X10.3306 Y4.9351 Z0.0035
X10.3293 Y4.9349 Z0.0026
X10.3282 Y4.9344 Z0.0018
X10.3271 Y4.9336 Z0.0009
X10.3262 Y4.9324 Z0.0006
X10.3256 Y4.9311 Z0.0003
X10.3254 Y4.9296 Z0.
X10.3256 Y4.9279 F40.
X10.3264 Y4.9264
X10.3276 Y4.9251
X10.3292 Y4.9244
X10.3309 Y4.9241
G3 Y4.9351 I0. J0.0055
G1 X10.3292 Y4.9348
X10.3276 Y4.934
X10.3264 Y4.9328
X10.3256 Y4.9313
X10.3254 Y4.9296
X10.3257 Y4.928
X10.3265 Y4.9265
X10.3277 Y4.9254
X10.3293 Y4.9248
X10.3309
X10.3325 Y4.9253
X10.3335 Y4.9259
X10.3348 Y4.9269
X10.3357 Y4.9283
X10.3361 Y4.9299
X10.3358 Y4.9316
X10.3351 Y4.9331
X10.3339 Y4.9342
Z-0.0082 F20.
X10.3331 Y4.9346 Z-0.0127
X10.3319 Y4.935 Z-0.0146
X10.3306 Y4.9351 Z-0.0165
X10.3293 Y4.9349 Z-0.0174
X10.3282 Y4.9344 Z-0.0182
X10.3271 Y4.9336 Z-0.0191
X10.3262 Y4.9324 Z-0.0194
X10.3256 Y4.9311 Z-0.0197
X10.3254 Y4.9296 Z-0.02
X10.3256 Y4.9279 F40.
X10.3264 Y4.9264
X10.3276 Y4.9251
X10.3292 Y4.9244
X10.3309 Y4.9241
G3 Y4.9351 I0. J0.0055
G1 X10.3292 Y4.9348
X10.3276 Y4.934
X10.3264 Y4.9328
X10.3256 Y4.9313
X10.3254 Y4.9296
X10.3257 Y4.928
X10.3265 Y4.9265
X10.3277 Y4.9254
X10.3293 Y4.9248
X10.3309
X10.3325 Y4.9253
X10.3335 Y4.9259
X10.3348 Y4.9269
X10.3357 Y4.9283
X10.3361 Y4.9299
X10.3358 Y4.9316
X10.3351 Y4.9331
X10.3339 Y4.9342
Z-0.0282 F20.
X10.3331 Y4.9346 Z-0.0327
X10.3319 Y4.935 Z-0.0346
X10.3306 Y4.9351 Z-0.0365
X10.3293 Y4.9349 Z-0.0374
X10.3282 Y4.9344 Z-0.0382
X10.3271 Y4.9336 Z-0.0391
X10.3262 Y4.9324 Z-0.0394
X10.3256 Y4.9311 Z-0.0397
X10.3254 Y4.9296 Z-0.04
X10.3256 Y4.9279 F40.
X10.3264 Y4.9264
X10.3276 Y4.9251
X10.3292 Y4.9244
X10.3309 Y4.9241
G3 Y4.9351 I0. J0.0055
G1 X10.3292 Y4.9348
X10.3276 Y4.934
X10.3264 Y4.9328
X10.3256 Y4.9313
X10.3254 Y4.9296
X10.3257 Y4.928
X10.3265 Y4.9265
X10.3277 Y4.9254
X10.3293 Y4.9248
X10.3309
X10.3325 Y4.9253
X10.3335 Y4.9259
X10.3348 Y4.9269
X10.3357 Y4.9283
X10.3361 Y4.9299
X10.3358 Y4.9316
X10.3351 Y4.9331
X10.3339 Y4.9342
Z-0.0482 F20.
X10.3331 Y4.9346 Z-0.0527
X10.3319 Y4.935 Z-0.0546
X10.3306 Y4.9351 Z-0.0565
X10.3293 Y4.9349 Z-0.0574
X10.3282 Y4.9344 Z-0.0582
X10.3271 Y4.9336 Z-0.0591
X10.3262 Y4.9324 Z-0.0594
X10.3256 Y4.9311 Z-0.0597
X10.3254 Y4.9296 Z-0.06
X10.3256 Y4.9279 F40.
X10.3264 Y4.9264
X10.3276 Y4.9251
X10.3292 Y4.9244
X10.3309 Y4.9241
G3 Y4.9351 I0. J0.0055
G1 X10.3292 Y4.9348
X10.3276 Y4.934
X10.3264 Y4.9328
X10.3256 Y4.9313
X10.3254 Y4.9296
X10.3257 Y4.928
X10.3265 Y4.9265
X10.3277 Y4.9254
X10.3293 Y4.9248
X10.3309
X10.3325 Y4.9253
X10.3335 Y4.9259
X10.3348 Y4.9269
X10.3357 Y4.9283
X10.3361 Y4.9299
X10.3358 Y4.9316
X10.3351 Y4.9331
X10.3339 Y4.9342
Z-0.0682 F20.
X10.3331 Y4.9346 Z-0.0727
X10.3319 Y4.935 Z-0.0746
X10.3306 Y4.9351 Z-0.0765
X10.3293 Y4.9349 Z-0.0774
X10.3282 Y4.9344 Z-0.0782
X10.3271 Y4.9336 Z-0.0791
X10.3262 Y4.9324 Z-0.0794
X10.3256 Y4.9311 Z-0.0797
X10.3254 Y4.9296 Z-0.08
X10.3256 Y4.9279 F40.
X10.3264 Y4.9264
X10.3276 Y4.9251
X10.3292 Y4.9244
X10.3309 Y4.9241
G3 Y4.9351 I0. J0.0055
G1 X10.3292 Y4.9348
X10.3276 Y4.934
X10.3264 Y4.9328
X10.3256 Y4.9313
X10.3254 Y4.9296
X10.3257 Y4.928
X10.3265 Y4.9265
X10.3277 Y4.9254
X10.3293 Y4.9248
X10.3309
X10.3325 Y4.9253
X10.3335 Y4.9259
X10.3348 Y4.9269
X10.3357 Y4.9283
X10.3361 Y4.9299
X10.3358 Y4.9316
X10.3351 Y4.9331
X10.3339 Y4.9342
Z-0.0882 F20.
X10.3331 Y4.9346 Z-0.0927
X10.3319 Y4.935 Z-0.0946
X10.3306 Y4.9351 Z-0.0965
X10.3293 Y4.9349 Z-0.0974
X10.3282 Y4.9344 Z-0.0982
X10.3271 Y4.9336 Z-0.0991
X10.3262 Y4.9324 Z-0.0994
X10.3256 Y4.9311 Z-0.0997
X10.3254 Y4.9296 Z-0.1
X10.3256 Y4.9279 F40.
X10.3264 Y4.9264
X10.3276 Y4.9251
X10.3292 Y4.9244
X10.3309 Y4.9241
G3 Y4.9351 I0. J0.0055
G1 X10.3292 Y4.9348
X10.3276 Y4.934
X10.3264 Y4.9328
X10.3256 Y4.9313
X10.3254 Y4.9296
X10.3257 Y4.928
X10.3265 Y4.9265
X10.3277 Y4.9254
X10.3293 Y4.9248
X10.3309
X10.3325 Y4.9253
X10.3335 Y4.9259
X10.3348 Y4.9269
X10.3357 Y4.9283
X10.3361 Y4.9299
X10.3358 Y4.9316
X10.3351 Y4.9331
X10.3339 Y4.9342
Z-0.1082 F20.
X10.3331 Y4.9346 Z-0.1127
X10.3319 Y4.935 Z-0.1146
X10.3306 Y4.9351 Z-0.1165
X10.3293 Y4.9349 Z-0.1174
X10.3282 Y4.9344 Z-0.1182
X10.3271 Y4.9336 Z-0.1191
X10.3262 Y4.9324 Z-0.1194
X10.3256 Y4.9311 Z-0.1197
X10.3254 Y4.9296 Z-0.12
X10.3256 Y4.9279 F40.
X10.3264 Y4.9264
X10.3276 Y4.9251
X10.3292 Y4.9244
X10.3309 Y4.9241
G3 Y4.9351 I0. J0.0055
G1 X10.3292 Y4.9348
X10.3276 Y4.934
X10.3264 Y4.9328
X10.3256 Y4.9313
X10.3254 Y4.9296
X10.3257 Y4.928
X10.3265 Y4.9265
X10.3277 Y4.9254
X10.3293 Y4.9248
X10.3309
X10.3325 Y4.9253
X10.3335 Y4.9259
X10.3348 Y4.9269
X10.3357 Y4.9283
X10.3361 Y4.9299
X10.3358 Y4.9316
X10.3351 Y4.9331
X10.3339 Y4.9342
Z-0.1282 F20.
X10.3331 Y4.9346 Z-0.1327
X10.3319 Y4.935 Z-0.1346
X10.3306 Y4.9351 Z-0.1365
X10.3293 Y4.9349 Z-0.1374
X10.3282 Y4.9344 Z-0.1382
X10.3271 Y4.9336 Z-0.1391
X10.3262 Y4.9324 Z-0.1394
X10.3256 Y4.9311 Z-0.1397
X10.3254 Y4.9296 Z-0.14
X10.3256 Y4.9279 F40.
X10.3264 Y4.9264
X10.3276 Y4.9251
X10.3292 Y4.9244
X10.3309 Y4.9241
G3 Y4.9351 I0. J0.0055
G1 X10.3292 Y4.9348
X10.3276 Y4.934
X10.3264 Y4.9328
X10.3256 Y4.9313
X10.3254 Y4.9296
X10.3257 Y4.928
X10.3265 Y4.9265
X10.3277 Y4.9254
X10.3293 Y4.9248
X10.3309
X10.3325 Y4.9253
X10.3335 Y4.9259
X10.3348 Y4.9269
X10.3357 Y4.9283
X10.3361 Y4.9299
X10.3358 Y4.9316
X10.3351 Y4.9331
X10.3339 Y4.9342
Z-0.1482 F20.
X10.3331 Y4.9346 Z-0.1527
X10.3319 Y4.935 Z-0.1546
X10.3306 Y4.9351 Z-0.1565
X10.3293 Y4.9349 Z-0.1574
X10.3282 Y4.9344 Z-0.1582
X10.3271 Y4.9336 Z-0.1591
X10.3262 Y4.9324 Z-0.1594
X10.3256 Y4.9311 Z-0.1597
X10.3254 Y4.9296 Z-0.16
X10.3256 Y4.9279 F40.
X10.3264 Y4.9264
X10.3276 Y4.9251
X10.3292 Y4.9244
X10.3309 Y4.9241
G3 Y4.9351 I0. J0.0055
G1 X10.3292 Y4.9348
X10.3276 Y4.934
X10.3264 Y4.9328
X10.3256 Y4.9313
X10.3254 Y4.9296
X10.3257 Y4.928
X10.3265 Y4.9265
X10.3277 Y4.9254
X10.3293 Y4.9248
X10.3309
X10.3325 Y4.9253
X10.3335 Y4.9259
X10.3348 Y4.9269
X10.3357 Y4.9283
X10.3361 Y4.9299
X10.3358 Y4.9316
X10.3351 Y4.9331
X10.3339 Y4.9342
Z-0.1682 F20.
X10.3331 Y4.9346 Z-0.1727
X10.3319 Y4.935 Z-0.1746
X10.3306 Y4.9351 Z-0.1765
X10.3293 Y4.9349 Z-0.1774
X10.3282 Y4.9344 Z-0.1782
X10.3271 Y4.9336 Z-0.1791
X10.3262 Y4.9324 Z-0.1794
X10.3256 Y4.9311 Z-0.1797
X10.3254 Y4.9296 Z-0.18
X10.3256 Y4.9279 F40.
X10.3264 Y4.9264
X10.3276 Y4.9251
X10.3292 Y4.9244
X10.3309 Y4.9241
G3 Y4.9351 I0. J0.0055
G1 X10.3292 Y4.9348
X10.3276 Y4.934
X10.3264 Y4.9328
X10.3256 Y4.9313
X10.3254 Y4.9296
X10.3257 Y4.928
X10.3265 Y4.9265
X10.3277 Y4.9254
X10.3293 Y4.9248
X10.3309
X10.3325 Y4.9253
X10.3335 Y4.9259
X10.3348 Y4.9269
X10.3357 Y4.9283
X10.3361 Y4.9299
X10.3358 Y4.9316
X10.3351 Y4.9331
X10.3339 Y4.9342
Z-0.1882 F20.
X10.3331 Y4.9346 Z-0.1927
X10.3319 Y4.935 Z-0.1946
X10.3306 Y4.9351 Z-0.1965
X10.3293 Y4.9349 Z-0.1974
X10.3282 Y4.9344 Z-0.1982
X10.3271 Y4.9336 Z-0.1991
X10.3262 Y4.9324 Z-0.1994
X10.3256 Y4.9311 Z-0.1997
X10.3254 Y4.9296 Z-0.2
X10.3256 Y4.9279 F40.
X10.3264 Y4.9264
X10.3276 Y4.9251
X10.3292 Y4.9244
X10.3309 Y4.9241
G3 Y4.9351 I0. J0.0055
G1 X10.3292 Y4.9348
X10.3276 Y4.934
X10.3264 Y4.9328
X10.3256 Y4.9313
X10.3254 Y4.9296
X10.3257 Y4.928
X10.3265 Y4.9265
X10.3277 Y4.9254
X10.3293 Y4.9248
X10.3309
X10.3325 Y4.9253
X10.3335 Y4.9259
X10.3348 Y4.9269
X10.3357 Y4.9283
X10.3361 Y4.9299
X10.3358 Y4.9316
X10.3351 Y4.9331
X10.3339 Y4.9342
Z-0.2082 F20.
X10.3331 Y4.9346 Z-0.2127
X10.3319 Y4.935 Z-0.2146
X10.3306 Y4.9351 Z-0.2165
X10.3293 Y4.9349 Z-0.2174
X10.3282 Y4.9344 Z-0.2182
X10.3271 Y4.9336 Z-0.2191
X10.3262 Y4.9324 Z-0.2194
X10.3256 Y4.9311 Z-0.2197
X10.3254 Y4.9296 Z-0.22
X10.3256 Y4.9279 F40.
X10.3264 Y4.9264
X10.3276 Y4.9251
X10.3292 Y4.9244
X10.3309 Y4.9241
G3 Y4.9351 I0. J0.0055
G1 X10.3292 Y4.9348
X10.3276 Y4.934
X10.3264 Y4.9328
X10.3256 Y4.9313
X10.3254 Y4.9296
X10.3257 Y4.928
X10.3265 Y4.9265
X10.3277 Y4.9254
X10.3293 Y4.9248
X10.3309
X10.3325 Y4.9253
X10.3335 Y4.9259
X10.3348 Y4.9269
X10.3357 Y4.9283
X10.3361 Y4.9299
X10.3358 Y4.9316
X10.3351 Y4.9331
X10.3339 Y4.9342
Z-0.2282 F20.
X10.3331 Y4.9346 Z-0.2327
X10.3319 Y4.935 Z-0.2346
X10.3306 Y4.9351 Z-0.2365
X10.3293 Y4.9349 Z-0.2374
X10.3282 Y4.9344 Z-0.2382
X10.3271 Y4.9336 Z-0.2391
X10.3262 Y4.9324 Z-0.2394
X10.3256 Y4.9311 Z-0.2397
X10.3254 Y4.9296 Z-0.24
X10.3256 Y4.9279 F40.
X10.3264 Y4.9264
X10.3276 Y4.9251
X10.3292 Y4.9244
X10.3309 Y4.9241
G3 Y4.9351 I0. J0.0055
G1 X10.3292 Y4.9348
X10.3276 Y4.934
X10.3264 Y4.9328
X10.3256 Y4.9313
X10.3254 Y4.9296
X10.3257 Y4.928
X10.3265 Y4.9265
X10.3277 Y4.9254
X10.3293 Y4.9248
X10.3309
X10.3325 Y4.9253
X10.3335 Y4.9259
X10.3348 Y4.9269
X10.3357 Y4.9283
X10.3361 Y4.9299
X10.3358 Y4.9316
X10.3351 Y4.9331
X10.3339 Y4.9342
Z-0.2482 F20.
X10.3331 Y4.9346 Z-0.2527
X10.3319 Y4.935 Z-0.2546
X10.3306 Y4.9351 Z-0.2565
X10.3293 Y4.9349 Z-0.2574
X10.3282 Y4.9344 Z-0.2582
X10.3271 Y4.9336 Z-0.2591
X10.3262 Y4.9324 Z-0.2594
X10.3256 Y4.9311 Z-0.2597
X10.3254 Y4.9296 Z-0.26
X10.3256 Y4.9279 F40.
X10.3264 Y4.9264
X10.3276 Y4.9251
X10.3292 Y4.9244
X10.3309 Y4.9241
G3 Y4.9351 I0. J0.0055
G1 X10.3292 Y4.9348
X10.3276 Y4.934
X10.3264 Y4.9328
X10.3256 Y4.9313
X10.3254 Y4.9296
X10.3257 Y4.928
X10.3265 Y4.9265
X10.3277 Y4.9254
X10.3293 Y4.9248
X10.3309
X10.3325 Y4.9253
X10.3335 Y4.9259
X10.3348 Y4.9269
X10.3357 Y4.9283
X10.3361 Y4.9299
X10.3358 Y4.9316
X10.3351 Y4.9331
X10.3339 Y4.9342
Z-0.2682 F20.
X10.3331 Y4.9346 Z-0.2727
X10.3319 Y4.935 Z-0.2746
X10.3306 Y4.9351 Z-0.2765
X10.3293 Y4.9349 Z-0.2774
X10.3282 Y4.9344 Z-0.2782
X10.3271 Y4.9336 Z-0.2791
X10.3262 Y4.9324 Z-0.2794
X10.3256 Y4.9311 Z-0.2797
X10.3254 Y4.9296 Z-0.28
X10.3256 Y4.9279 F40.
X10.3264 Y4.9264
X10.3276 Y4.9251
X10.3292 Y4.9244
X10.3309 Y4.9241
G3 Y4.9351 I0. J0.0055
G1 X10.3292 Y4.9348
X10.3276 Y4.934
X10.3264 Y4.9328
X10.3256 Y4.9313
X10.3254 Y4.9296
X10.3257 Y4.928
X10.3265 Y4.9265
X10.3277 Y4.9254
X10.3293 Y4.9248
X10.3309
X10.3325 Y4.9253
X10.3335 Y4.9259
X10.3348 Y4.9269
X10.3357 Y4.9283
X10.3361 Y4.9299
X10.3358 Y4.9316
X10.3351 Y4.9331
X10.3339 Y4.9342
Z-0.2882 F20.
X10.3331 Y4.9346 Z-0.2927
X10.3319 Y4.935 Z-0.2946
X10.3306 Y4.9351 Z-0.2965
X10.3293 Y4.9349 Z-0.2974
X10.3282 Y4.9344 Z-0.2982
X10.3271 Y4.9336 Z-0.2991
X10.3262 Y4.9324 Z-0.2994
X10.3256 Y4.9311 Z-0.2997
X10.3254 Y4.9296 Z-0.3
X10.3256 Y4.9279 F40.
X10.3264 Y4.9264
X10.3276 Y4.9251
X10.3292 Y4.9244
X10.3309 Y4.9241
G3 Y4.9351 I0. J0.0055
G1 X10.3292 Y4.9348
X10.3276 Y4.934
X10.3264 Y4.9328
X10.3256 Y4.9313
X10.3254 Y4.9296
X10.3257 Y4.928
X10.3265 Y4.9265
X10.3277 Y4.9254
X10.3293 Y4.9248
X10.3309
X10.3325 Y4.9253
X10.3335 Y4.9259
X10.3348 Y4.9269
X10.3357 Y4.9283
X10.3361 Y4.9299
X10.3358 Y4.9316
X10.3351 Y4.9331
X10.3339 Y4.9342
Z-0.3082 F20.
X10.3331 Y4.9346 Z-0.3127
X10.3319 Y4.935 Z-0.3146
X10.3306 Y4.9351 Z-0.3165
X10.3293 Y4.9349 Z-0.3174
X10.3282 Y4.9344 Z-0.3182
X10.3271 Y4.9336 Z-0.3191
X10.3262 Y4.9324 Z-0.3194
X10.3256 Y4.9311 Z-0.3197
X10.3254 Y4.9296 Z-0.32
X10.3256 Y4.9279 F40.
X10.3264 Y4.9264
X10.3276 Y4.9251
X10.3292 Y4.9244
X10.3309 Y4.9241
G3 Y4.9351 I0. J0.0055
G1 X10.3292 Y4.9348
X10.3276 Y4.934
X10.3264 Y4.9328
X10.3256 Y4.9313
X10.3254 Y4.9296
X10.3257 Y4.928
X10.3265 Y4.9265
X10.3277 Y4.9254
X10.3293 Y4.9248
X10.3309
X10.3325 Y4.9253
X10.3335 Y4.9259
X10.3348 Y4.9269
X10.3357 Y4.9283
X10.3361 Y4.9299
X10.3358 Y4.9316
X10.3351 Y4.9331
X10.3339 Y4.9342
Z-0.3282 F20.
X10.3331 Y4.9346 Z-0.3327
X10.3319 Y4.935 Z-0.3346
X10.3306 Y4.9351 Z-0.3365
X10.3293 Y4.9349 Z-0.3374
X10.3282 Y4.9344 Z-0.3382
X10.3271 Y4.9336 Z-0.3391
X10.3262 Y4.9324 Z-0.3394
X10.3256 Y4.9311 Z-0.3397
X10.3254 Y4.9296 Z-0.34
X10.3256 Y4.9279 F40.
X10.3264 Y4.9264
X10.3276 Y4.9251
X10.3292 Y4.9244
X10.3309 Y4.9241
G3 Y4.9351 I0. J0.0055
G1 X10.3292 Y4.9348
X10.3276 Y4.934
X10.3264 Y4.9328
X10.3256 Y4.9313
X10.3254 Y4.9296
X10.3257 Y4.928
X10.3265 Y4.9265
X10.3277 Y4.9254
X10.3293 Y4.9248
X10.3309
X10.3325 Y4.9253
X10.3335 Y4.9259
X10.3348 Y4.9269
X10.3357 Y4.9283
X10.3361 Y4.9299
X10.3358 Y4.9316
X10.3351 Y4.9331
X10.3339 Y4.9342
Z-0.3482 F20.
X10.3331 Y4.9346 Z-0.3527
X10.3319 Y4.935 Z-0.3546
X10.3306 Y4.9351 Z-0.3565
X10.3293 Y4.9349 Z-0.3574
X10.3282 Y4.9344 Z-0.3582
X10.3271 Y4.9336 Z-0.3591
X10.3262 Y4.9324 Z-0.3594
X10.3256 Y4.9311 Z-0.3597
X10.3254 Y4.9296 Z-0.36
X10.3256 Y4.9279 F40.
X10.3264 Y4.9264
X10.3276 Y4.9251
X10.3292 Y4.9244
X10.3309 Y4.9241
G3 Y4.9351 I0. J0.0055
G1 X10.3292 Y4.9348
X10.3276 Y4.934
X10.3264 Y4.9328
X10.3256 Y4.9313
X10.3254 Y4.9296
X10.3257 Y4.928
X10.3265 Y4.9265
X10.3277 Y4.9254
X10.3293 Y4.9248
X10.3309
X10.3325 Y4.9253
X10.3335 Y4.9259
X10.3348 Y4.9269
X10.3357 Y4.9283
X10.3361 Y4.9299
X10.3358 Y4.9316
X10.3351 Y4.9331
X10.3339 Y4.9342
Z-0.3632 F20.
X10.3331 Y4.9346 Z-0.3677
X10.3319 Y4.935 Z-0.3696
X10.3306 Y4.9351 Z-0.3715
X10.3293 Y4.9349 Z-0.3724
X10.3282 Y4.9344 Z-0.3732
X10.3271 Y4.9336 Z-0.3741
X10.3262 Y4.9324 Z-0.3744
X10.3256 Y4.9311 Z-0.3747
X10.3254 Y4.9296 Z-0.375
X10.3256 Y4.9279 F40.
X10.3264 Y4.9264
X10.3276 Y4.9251
X10.3292 Y4.9244
X10.3309 Y4.9241
G3 Y4.9351 I0. J0.0055
G1 X10.3292 Y4.9348
X10.3276 Y4.934
X10.3264 Y4.9328
X10.3256 Y4.9313
X10.3254 Y4.9296
X10.3256 Y4.928 Z-0.3747
X10.3262 Y4.9266 Z-0.3743
X10.3273 Y4.9254 Z-0.374
X10.3283 Y4.9247 Z-0.3731
X10.3296 Y4.9242 Z-0.3722
X10.3309 Y4.9241 Z-0.3712
X10.332 Y4.9242 Z-0.3694
X10.3331 Y4.9246 Z-0.3675
X10.3339 Y4.925 Z-0.3632
G0 Z0.41
X10.3279 Y4.425
Z0.4
G1 Z0.3 F20.
Z0.1918
X10.3287 Y4.4246 Z0.1873
X10.3299 Y4.4242 Z0.1854
X10.3311 Y4.4241 Z0.1835
X10.3324 Y4.4243 Z0.1826
X10.3336 Y4.4248 Z0.1818
X10.3346 Y4.4256 Z0.1809
X10.3355 Y4.4267 Z0.1806
X10.3361 Y4.4281 Z0.1803
X10.3364 Y4.4296 Z0.18
X10.3361 Y4.4313 F40.
X10.3353 Y4.4328
X10.3341 Y4.434
X10.3326 Y4.4348
X10.3309 Y4.4351
G3 Y4.4241 I0. J-0.0055
G1 X10.3326 Y4.4244
X10.3341 Y4.4251
X10.3353 Y4.4264
X10.3361 Y4.4279
X10.3364 Y4.4296
X10.3361 Y4.4312
X10.3353 Y4.4327
X10.334 Y4.4337
X10.3325 Y4.4343
X10.3308 Y4.4344
X10.3292 Y4.4338
X10.3282 Y4.4333
X10.3269 Y4.4323
X10.326 Y4.4309
X10.3257 Y4.4292
X10.3259 Y4.4276
X10.3267 Y4.4261
X10.3279 Y4.425
Z0.1718 F20.
X10.3287 Y4.4246 Z0.1673
X10.3299 Y4.4242 Z0.1654
X10.3311 Y4.4241 Z0.1635
X10.3324 Y4.4243 Z0.1626
X10.3336 Y4.4248 Z0.1618
X10.3346 Y4.4256 Z0.1609
X10.3355 Y4.4267 Z0.1606
X10.3361 Y4.4281 Z0.1603
X10.3364 Y4.4296 Z0.16
X10.3361 Y4.4313 F40.
X10.3353 Y4.4328
X10.3341 Y4.434
X10.3326 Y4.4348
X10.3309 Y4.4351
G3 Y4.4241 I0. J-0.0055
G1 X10.3326 Y4.4244
X10.3341 Y4.4251
X10.3353 Y4.4264
X10.3361 Y4.4279
X10.3364 Y4.4296
X10.3361 Y4.4312
X10.3353 Y4.4327
X10.334 Y4.4337
X10.3325 Y4.4343
X10.3308 Y4.4344
X10.3292 Y4.4338
X10.3282 Y4.4333
X10.3269 Y4.4323
X10.326 Y4.4309
X10.3257 Y4.4292
X10.3259 Y4.4276
X10.3267 Y4.4261
X10.3279 Y4.425
Z0.1518 F20.
X10.3287 Y4.4246 Z0.1473
X10.3299 Y4.4242 Z0.1454
X10.3311 Y4.4241 Z0.1435
X10.3324 Y4.4243 Z0.1426
X10.3336 Y4.4248 Z0.1418
X10.3346 Y4.4256 Z0.1409
X10.3355 Y4.4267 Z0.1406
X10.3361 Y4.4281 Z0.1403
X10.3364 Y4.4296 Z0.14
X10.3361 Y4.4313 F40.
X10.3353 Y4.4328
X10.3341 Y4.434
X10.3326 Y4.4348
X10.3309 Y4.4351
G3 Y4.4241 I0. J-0.0055
G1 X10.3326 Y4.4244
X10.3341 Y4.4251
X10.3353 Y4.4264
X10.3361 Y4.4279
X10.3364 Y4.4296
X10.3361 Y4.4312
X10.3353 Y4.4327
X10.334 Y4.4337
X10.3325 Y4.4343
X10.3308 Y4.4344
X10.3292 Y4.4338
X10.3282 Y4.4333
X10.3269 Y4.4323
X10.326 Y4.4309
X10.3257 Y4.4292
X10.3259 Y4.4276
X10.3267 Y4.4261
X10.3279 Y4.425
Z0.1318 F20.
X10.3287 Y4.4246 Z0.1273
X10.3299 Y4.4242 Z0.1254
X10.3311 Y4.4241 Z0.1235
X10.3324 Y4.4243 Z0.1226
X10.3336 Y4.4248 Z0.1218
X10.3346 Y4.4256 Z0.1209
X10.3355 Y4.4267 Z0.1206
X10.3361 Y4.4281 Z0.1203
X10.3364 Y4.4296 Z0.12
X10.3361 Y4.4313 F40.
X10.3353 Y4.4328
X10.3341 Y4.434
X10.3326 Y4.4348
X10.3309 Y4.4351
G3 Y4.4241 I0. J-0.0055
G1 X10.3326 Y4.4244
X10.3341 Y4.4251
X10.3353 Y4.4264
X10.3361 Y4.4279
X10.3364 Y4.4296
X10.3361 Y4.4312
X10.3353 Y4.4327
X10.334 Y4.4337
X10.3325 Y4.4343
X10.3308 Y4.4344
X10.3292 Y4.4338
X10.3282 Y4.4333
X10.3269 Y4.4323
X10.326 Y4.4309
X10.3257 Y4.4292
X10.3259 Y4.4276
X10.3267 Y4.4261
X10.3279 Y4.425
Z0.1118 F20.
X10.3287 Y4.4246 Z0.1073
X10.3299 Y4.4242 Z0.1054
X10.3311 Y4.4241 Z0.1035
X10.3324 Y4.4243 Z0.1026
X10.3336 Y4.4248 Z0.1018
X10.3346 Y4.4256 Z0.1009
X10.3355 Y4.4267 Z0.1006
X10.3361 Y4.4281 Z0.1003
X10.3364 Y4.4296 Z0.1
X10.3361 Y4.4313 F40.
X10.3353 Y4.4328
X10.3341 Y4.434
X10.3326 Y4.4348
X10.3309 Y4.4351
G3 Y4.4241 I0. J-0.0055
G1 X10.3326 Y4.4244
X10.3341 Y4.4251
X10.3353 Y4.4264
X10.3361 Y4.4279
X10.3364 Y4.4296
X10.3361 Y4.4312
X10.3353 Y4.4327
X10.334 Y4.4337
X10.3325 Y4.4343
X10.3308 Y4.4344
X10.3292 Y4.4338
X10.3282 Y4.4333
X10.3269 Y4.4323
X10.326 Y4.4309
X10.3257 Y4.4292
X10.3259 Y4.4276
X10.3267 Y4.4261
X10.3279 Y4.425
Z0.0918 F20.
X10.3287 Y4.4246 Z0.0873
X10.3299 Y4.4242 Z0.0854
X10.3311 Y4.4241 Z0.0835
X10.3324 Y4.4243 Z0.0826
X10.3336 Y4.4248 Z0.0818
X10.3346 Y4.4256 Z0.0809
X10.3355 Y4.4267 Z0.0806
X10.3361 Y4.4281 Z0.0803
X10.3364 Y4.4296 Z0.08
X10.3361 Y4.4313 F40.
X10.3353 Y4.4328
X10.3341 Y4.434
X10.3326 Y4.4348
X10.3309 Y4.4351
G3 Y4.4241 I0. J-0.0055
G1 X10.3326 Y4.4244
X10.3341 Y4.4251
X10.3353 Y4.4264
X10.3361 Y4.4279
X10.3364 Y4.4296
X10.3361 Y4.4312
X10.3353 Y4.4327
X10.334 Y4.4337
X10.3325 Y4.4343
X10.3308 Y4.4344
X10.3292 Y4.4338
X10.3282 Y4.4333
X10.3269 Y4.4323
X10.326 Y4.4309
X10.3257 Y4.4292
X10.3259 Y4.4276
X10.3267 Y4.4261
X10.3279 Y4.425
Z0.0718 F20.
X10.3287 Y4.4246 Z0.0673
X10.3299 Y4.4242 Z0.0654
X10.3311 Y4.4241 Z0.0635
X10.3324 Y4.4243 Z0.0626
X10.3336 Y4.4248 Z0.0618
X10.3346 Y4.4256 Z0.0609
X10.3355 Y4.4267 Z0.0606
X10.3361 Y4.4281 Z0.0603
X10.3364 Y4.4296 Z0.06
X10.3361 Y4.4313 F40.
X10.3353 Y4.4328
X10.3341 Y4.434
X10.3326 Y4.4348
X10.3309 Y4.4351
G3 Y4.4241 I0. J-0.0055
G1 X10.3326 Y4.4244
X10.3341 Y4.4251
X10.3353 Y4.4264
X10.3361 Y4.4279
X10.3364 Y4.4296
X10.3361 Y4.4312
X10.3353 Y4.4327
X10.334 Y4.4337
X10.3325 Y4.4343
X10.3308 Y4.4344
X10.3292 Y4.4338
X10.3282 Y4.4333
X10.3269 Y4.4323
X10.326 Y4.4309
X10.3257 Y4.4292
X10.3259 Y4.4276
X10.3267 Y4.4261
X10.3279 Y4.425
Z0.0518 F20.
X10.3287 Y4.4246 Z0.0473
X10.3299 Y4.4242 Z0.0454
X10.3311 Y4.4241 Z0.0435
X10.3324 Y4.4243 Z0.0426
X10.3336 Y4.4248 Z0.0418
X10.3346 Y4.4256 Z0.0409
X10.3355 Y4.4267 Z0.0406
X10.3361 Y4.4281 Z0.0403
X10.3364 Y4.4296 Z0.04
X10.3361 Y4.4313 F40.
X10.3353 Y4.4328
X10.3341 Y4.434
X10.3326 Y4.4348
X10.3309 Y4.4351
G3 Y4.4241 I0. J-0.0055
G1 X10.3326 Y4.4244
X10.3341 Y4.4251
X10.3353 Y4.4264
X10.3361 Y4.4279
X10.3364 Y4.4296
X10.3361 Y4.4312
X10.3353 Y4.4327
X10.334 Y4.4337
X10.3325 Y4.4343
X10.3308 Y4.4344
X10.3292 Y4.4338
X10.3282 Y4.4333
X10.3269 Y4.4323
X10.326 Y4.4309
X10.3257 Y4.4292
X10.3259 Y4.4276
X10.3267 Y4.4261
X10.3279 Y4.425
Z0.0318 F20.
X10.3287 Y4.4246 Z0.0273
X10.3299 Y4.4242 Z0.0254
X10.3311 Y4.4241 Z0.0235
X10.3324 Y4.4243 Z0.0226
X10.3336 Y4.4248 Z0.0218
X10.3346 Y4.4256 Z0.0209
X10.3355 Y4.4267 Z0.0206
X10.3361 Y4.4281 Z0.0203
X10.3364 Y4.4296 Z0.02
X10.3361 Y4.4313 F40.
X10.3353 Y4.4328
X10.3341 Y4.434
X10.3326 Y4.4348
X10.3309 Y4.4351
G3 Y4.4241 I0. J-0.0055
G1 X10.3326 Y4.4244
X10.3341 Y4.4251
X10.3353 Y4.4264
X10.3361 Y4.4279
X10.3364 Y4.4296
X10.3361 Y4.4312
X10.3353 Y4.4327
X10.334 Y4.4337
X10.3325 Y4.4343
X10.3308 Y4.4344
X10.3292 Y4.4338
X10.3282 Y4.4333
X10.3269 Y4.4323
X10.326 Y4.4309
X10.3257 Y4.4292
X10.3259 Y4.4276
X10.3267 Y4.4261
X10.3279 Y4.425
Z0.0118 F20.
X10.3287 Y4.4246 Z0.0073
X10.3299 Y4.4242 Z0.0054
X10.3311 Y4.4241 Z0.0035
X10.3324 Y4.4243 Z0.0026
X10.3336 Y4.4248 Z0.0018
X10.3346 Y4.4256 Z0.0009
X10.3355 Y4.4267 Z0.0006
X10.3361 Y4.4281 Z0.0003
X10.3364 Y4.4296 Z0.
X10.3361 Y4.4313 F40.
X10.3353 Y4.4328
X10.3341 Y4.434
X10.3326 Y4.4348
X10.3309 Y4.4351
G3 Y4.4241 I0. J-0.0055
G1 X10.3326 Y4.4244
X10.3341 Y4.4251
X10.3353 Y4.4264
X10.3361 Y4.4279
X10.3364 Y4.4296
X10.3361 Y4.4312
X10.3353 Y4.4327
X10.334 Y4.4337
X10.3325 Y4.4343
X10.3308 Y4.4344
X10.3292 Y4.4338
X10.3282 Y4.4333
X10.3269 Y4.4323
X10.326 Y4.4309
X10.3257 Y4.4292
X10.3259 Y4.4276
X10.3267 Y4.4261
X10.3279 Y4.425
Z-0.0082 F20.
X10.3287 Y4.4246 Z-0.0127
X10.3299 Y4.4242 Z-0.0146
X10.3311 Y4.4241 Z-0.0165
X10.3324 Y4.4243 Z-0.0174
X10.3336 Y4.4248 Z-0.0182
X10.3346 Y4.4256 Z-0.0191
X10.3355 Y4.4267 Z-0.0194
X10.3361 Y4.4281 Z-0.0197
X10.3364 Y4.4296 Z-0.02
X10.3361 Y4.4313 F40.
X10.3353 Y4.4328
X10.3341 Y4.434
X10.3326 Y4.4348
X10.3309 Y4.4351
G3 Y4.4241 I0. J-0.0055
G1 X10.3326 Y4.4244
X10.3341 Y4.4251
X10.3353 Y4.4264
X10.3361 Y4.4279
X10.3364 Y4.4296
X10.3361 Y4.4312
X10.3353 Y4.4327
X10.334 Y4.4337
X10.3325 Y4.4343
X10.3308 Y4.4344
X10.3292 Y4.4338
X10.3282 Y4.4333
X10.3269 Y4.4323
X10.326 Y4.4309
X10.3257 Y4.4292
X10.3259 Y4.4276
X10.3267 Y4.4261
X10.3279 Y4.425
Z-0.0282 F20.
X10.3287 Y4.4246 Z-0.0327
X10.3299 Y4.4242 Z-0.0346
X10.3311 Y4.4241 Z-0.0365
X10.3324 Y4.4243 Z-0.0374
X10.3336 Y4.4248 Z-0.0382
X10.3346 Y4.4256 Z-0.0391
X10.3355 Y4.4267 Z-0.0394
X10.3361 Y4.4281 Z-0.0397
X10.3364 Y4.4296 Z-0.04
X10.3361 Y4.4313 F40.
X10.3353 Y4.4328
X10.3341 Y4.434
X10.3326 Y4.4348
X10.3309 Y4.4351
G3 Y4.4241 I0. J-0.0055
G1 X10.3326 Y4.4244
X10.3341 Y4.4251
X10.3353 Y4.4264
X10.3361 Y4.4279
X10.3364 Y4.4296
X10.3361 Y4.4312
X10.3353 Y4.4327
X10.334 Y4.4337
X10.3325 Y4.4343
X10.3308 Y4.4344
X10.3292 Y4.4338
X10.3282 Y4.4333
X10.3269 Y4.4323
X10.326 Y4.4309
X10.3257 Y4.4292
X10.3259 Y4.4276
X10.3267 Y4.4261
X10.3279 Y4.425
Z-0.0482 F20.
X10.3287 Y4.4246 Z-0.0527
X10.3299 Y4.4242 Z-0.0546
X10.3311 Y4.4241 Z-0.0565
X10.3324 Y4.4243 Z-0.0574
X10.3336 Y4.4248 Z-0.0582
X10.3346 Y4.4256 Z-0.0591
X10.3355 Y4.4267 Z-0.0594
X10.3361 Y4.4281 Z-0.0597
X10.3364 Y4.4296 Z-0.06
X10.3361 Y4.4313 F40.
X10.3353 Y4.4328
X10.3341 Y4.434
X10.3326 Y4.4348
X10.3309 Y4.4351
G3 Y4.4241 I0. J-0.0055
G1 X10.3326 Y4.4244
X10.3341 Y4.4251
X10.3353 Y4.4264
X10.3361 Y4.4279
X10.3364 Y4.4296
X10.3361 Y4.4312
X10.3353 Y4.4327
X10.334 Y4.4337
X10.3325 Y4.4343
X10.3308 Y4.4344
X10.3292 Y4.4338
X10.3282 Y4.4333
X10.3269 Y4.4323
X10.326 Y4.4309
X10.3257 Y4.4292
X10.3259 Y4.4276
X10.3267 Y4.4261
X10.3279 Y4.425
Z-0.0682 F20.
X10.3287 Y4.4246 Z-0.0727
X10.3299 Y4.4242 Z-0.0746
X10.3311 Y4.4241 Z-0.0765
X10.3324 Y4.4243 Z-0.0774
X10.3336 Y4.4248 Z-0.0782
X10.3346 Y4.4256 Z-0.0791
X10.3355 Y4.4267 Z-0.0794
X10.3361 Y4.4281 Z-0.0797
X10.3364 Y4.4296 Z-0.08
X10.3361 Y4.4313 F40.
X10.3353 Y4.4328
X10.3341 Y4.434
X10.3326 Y4.4348
X10.3309 Y4.4351
G3 Y4.4241 I0. J-0.0055
G1 X10.3326 Y4.4244
X10.3341 Y4.4251
X10.3353 Y4.4264
X10.3361 Y4.4279
X10.3364 Y4.4296
X10.3361 Y4.4312
X10.3353 Y4.4327
X10.334 Y4.4337
X10.3325 Y4.4343
X10.3308 Y4.4344
X10.3292 Y4.4338
X10.3282 Y4.4333
X10.3269 Y4.4323
X10.326 Y4.4309
X10.3257 Y4.4292
X10.3259 Y4.4276
X10.3267 Y4.4261
X10.3279 Y4.425
Z-0.0882 F20.
X10.3287 Y4.4246 Z-0.0927
X10.3299 Y4.4242 Z-0.0946
X10.3311 Y4.4241 Z-0.0965
X10.3324 Y4.4243 Z-0.0974
X10.3336 Y4.4248 Z-0.0982
X10.3346 Y4.4256 Z-0.0991
X10.3355 Y4.4267 Z-0.0994
X10.3361 Y4.4281 Z-0.0997
X10.3364 Y4.4296 Z-0.1
X10.3361 Y4.4313 F40.
X10.3353 Y4.4328
X10.3341 Y4.434
X10.3326 Y4.4348
X10.3309 Y4.4351
G3 Y4.4241 I0. J-0.0055
G1 X10.3326 Y4.4244
X10.3341 Y4.4251
X10.3353 Y4.4264
X10.3361 Y4.4279
X10.3364 Y4.4296
X10.3361 Y4.4312
X10.3353 Y4.4327
X10.334 Y4.4337
X10.3325 Y4.4343
X10.3308 Y4.4344
X10.3292 Y4.4338
X10.3282 Y4.4333
X10.3269 Y4.4323
X10.326 Y4.4309
X10.3257 Y4.4292
X10.3259 Y4.4276
X10.3267 Y4.4261
X10.3279 Y4.425
Z-0.1082 F20.
X10.3287 Y4.4246 Z-0.1127
X10.3299 Y4.4242 Z-0.1146
X10.3311 Y4.4241 Z-0.1165
X10.3324 Y4.4243 Z-0.1174
X10.3336 Y4.4248 Z-0.1182
X10.3346 Y4.4256 Z-0.1191
X10.3355 Y4.4267 Z-0.1194
X10.3361 Y4.4281 Z-0.1197
X10.3364 Y4.4296 Z-0.12
X10.3361 Y4.4313 F40.
X10.3353 Y4.4328
X10.3341 Y4.434
X10.3326 Y4.4348
X10.3309 Y4.4351
G3 Y4.4241 I0. J-0.0055
G1 X10.3326 Y4.4244
X10.3341 Y4.4251
X10.3353 Y4.4264
X10.3361 Y4.4279
X10.3364 Y4.4296
X10.3361 Y4.4312
X10.3353 Y4.4327
X10.334 Y4.4337
X10.3325 Y4.4343
X10.3308 Y4.4344
X10.3292 Y4.4338
X10.3282 Y4.4333
X10.3269 Y4.4323
X10.326 Y4.4309
X10.3257 Y4.4292
X10.3259 Y4.4276
X10.3267 Y4.4261
X10.3279 Y4.425
Z-0.1282 F20.
X10.3287 Y4.4246 Z-0.1327
X10.3299 Y4.4242 Z-0.1346
X10.3311 Y4.4241 Z-0.1365
X10.3324 Y4.4243 Z-0.1374
X10.3336 Y4.4248 Z-0.1382
X10.3346 Y4.4256 Z-0.1391
X10.3355 Y4.4267 Z-0.1394
X10.3361 Y4.4281 Z-0.1397
X10.3364 Y4.4296 Z-0.14
X10.3361 Y4.4313 F40.
X10.3353 Y4.4328
X10.3341 Y4.434
X10.3326 Y4.4348
X10.3309 Y4.4351
G3 Y4.4241 I0. J-0.0055
G1 X10.3326 Y4.4244
X10.3341 Y4.4251
X10.3353 Y4.4264
X10.3361 Y4.4279
X10.3364 Y4.4296
X10.3361 Y4.4312
X10.3353 Y4.4327
X10.334 Y4.4337
X10.3325 Y4.4343
X10.3308 Y4.4344
X10.3292 Y4.4338
X10.3282 Y4.4333
X10.3269 Y4.4323
X10.326 Y4.4309
X10.3257 Y4.4292
X10.3259 Y4.4276
X10.3267 Y4.4261
X10.3279 Y4.425
Z-0.1482 F20.
X10.3287 Y4.4246 Z-0.1527
X10.3299 Y4.4242 Z-0.1546
X10.3311 Y4.4241 Z-0.1565
X10.3324 Y4.4243 Z-0.1574
X10.3336 Y4.4248 Z-0.1582
X10.3346 Y4.4256 Z-0.1591
X10.3355 Y4.4267 Z-0.1594
X10.3361 Y4.4281 Z-0.1597
X10.3364 Y4.4296 Z-0.16
X10.3361 Y4.4313 F40.
X10.3353 Y4.4328
X10.3341 Y4.434
X10.3326 Y4.4348
X10.3309 Y4.4351
G3 Y4.4241 I0. J-0.0055
G1 X10.3326 Y4.4244
X10.3341 Y4.4251
X10.3353 Y4.4264
X10.3361 Y4.4279
X10.3364 Y4.4296
X10.3361 Y4.4312
X10.3353 Y4.4327
X10.334 Y4.4337
X10.3325 Y4.4343
X10.3308 Y4.4344
X10.3292 Y4.4338
X10.3282 Y4.4333
X10.3269 Y4.4323
X10.326 Y4.4309
X10.3257 Y4.4292
X10.3259 Y4.4276
X10.3267 Y4.4261
X10.3279 Y4.425
Z-0.1682 F20.
X10.3287 Y4.4246 Z-0.1727
X10.3299 Y4.4242 Z-0.1746
X10.3311 Y4.4241 Z-0.1765
X10.3324 Y4.4243 Z-0.1774
X10.3336 Y4.4248 Z-0.1782
X10.3346 Y4.4256 Z-0.1791
X10.3355 Y4.4267 Z-0.1794
X10.3361 Y4.4281 Z-0.1797
X10.3364 Y4.4296 Z-0.18
X10.3361 Y4.4313 F40.
X10.3353 Y4.4328
X10.3341 Y4.434
X10.3326 Y4.4348
X10.3309 Y4.4351
G3 Y4.4241 I0. J-0.0055
G1 X10.3326 Y4.4244
X10.3341 Y4.4251
X10.3353 Y4.4264
X10.3361 Y4.4279
X10.3364 Y4.4296
X10.3361 Y4.4312
X10.3353 Y4.4327
X10.334 Y4.4337
X10.3325 Y4.4343
X10.3308 Y4.4344
X10.3292 Y4.4338
X10.3282 Y4.4333
X10.3269 Y4.4323
X10.326 Y4.4309
X10.3257 Y4.4292
X10.3259 Y4.4276
X10.3267 Y4.4261
X10.3279 Y4.425
Z-0.1882 F20.
X10.3287 Y4.4246 Z-0.1927
X10.3299 Y4.4242 Z-0.1946
X10.3311 Y4.4241 Z-0.1965
X10.3324 Y4.4243 Z-0.1974
X10.3336 Y4.4248 Z-0.1982
X10.3346 Y4.4256 Z-0.1991
X10.3355 Y4.4267 Z-0.1994
X10.3361 Y4.4281 Z-0.1997
X10.3364 Y4.4296 Z-0.2
X10.3361 Y4.4313 F40.
X10.3353 Y4.4328
X10.3341 Y4.434
X10.3326 Y4.4348
X10.3309 Y4.4351
G3 Y4.4241 I0. J-0.0055
G1 X10.3326 Y4.4244
X10.3341 Y4.4251
X10.3353 Y4.4264
X10.3361 Y4.4279
X10.3364 Y4.4296
X10.3361 Y4.4312
X10.3353 Y4.4327
X10.334 Y4.4337
X10.3325 Y4.4343
X10.3308 Y4.4344
X10.3292 Y4.4338
X10.3282 Y4.4333
X10.3269 Y4.4323
X10.326 Y4.4309
X10.3257 Y4.4292
X10.3259 Y4.4276
X10.3267 Y4.4261
X10.3279 Y4.425
Z-0.2082 F20.
X10.3287 Y4.4246 Z-0.2127
X10.3299 Y4.4242 Z-0.2146
X10.3311 Y4.4241 Z-0.2165
X10.3324 Y4.4243 Z-0.2174
X10.3336 Y4.4248 Z-0.2182
X10.3346 Y4.4256 Z-0.2191
X10.3355 Y4.4267 Z-0.2194
X10.3361 Y4.4281 Z-0.2197
X10.3364 Y4.4296 Z-0.22
X10.3361 Y4.4313 F40.
X10.3353 Y4.4328
X10.3341 Y4.434
X10.3326 Y4.4348
X10.3309 Y4.4351
G3 Y4.4241 I0. J-0.0055
G1 X10.3326 Y4.4244
X10.3341 Y4.4251
X10.3353 Y4.4264
X10.3361 Y4.4279
X10.3364 Y4.4296
X10.3361 Y4.4312
X10.3353 Y4.4327
X10.334 Y4.4337
X10.3325 Y4.4343
X10.3308 Y4.4344
X10.3292 Y4.4338
X10.3282 Y4.4333
X10.3269 Y4.4323
X10.326 Y4.4309
X10.3257 Y4.4292
X10.3259 Y4.4276
X10.3267 Y4.4261
X10.3279 Y4.425
Z-0.2282 F20.
X10.3287 Y4.4246 Z-0.2327
X10.3299 Y4.4242 Z-0.2346
X10.3311 Y4.4241 Z-0.2365
X10.3324 Y4.4243 Z-0.2374
X10.3336 Y4.4248 Z-0.2382
X10.3346 Y4.4256 Z-0.2391
X10.3355 Y4.4267 Z-0.2394
X10.3361 Y4.4281 Z-0.2397
X10.3364 Y4.4296 Z-0.24
X10.3361 Y4.4313 F40.
X10.3353 Y4.4328
X10.3341 Y4.434
X10.3326 Y4.4348
X10.3309 Y4.4351
G3 Y4.4241 I0. J-0.0055
G1 X10.3326 Y4.4244
X10.3341 Y4.4251
X10.3353 Y4.4264
X10.3361 Y4.4279
X10.3364 Y4.4296
X10.3361 Y4.4312
X10.3353 Y4.4327
X10.334 Y4.4337
X10.3325 Y4.4343
X10.3308 Y4.4344
X10.3292 Y4.4338
X10.3282 Y4.4333
X10.3269 Y4.4323
X10.326 Y4.4309
X10.3257 Y4.4292
X10.3259 Y4.4276
X10.3267 Y4.4261
X10.3279 Y4.425
Z-0.2482 F20.
X10.3287 Y4.4246 Z-0.2527
X10.3299 Y4.4242 Z-0.2546
X10.3311 Y4.4241 Z-0.2565
X10.3324 Y4.4243 Z-0.2574
X10.3336 Y4.4248 Z-0.2582
X10.3346 Y4.4256 Z-0.2591
X10.3355 Y4.4267 Z-0.2594
X10.3361 Y4.4281 Z-0.2597
X10.3364 Y4.4296 Z-0.26
X10.3361 Y4.4313 F40.
X10.3353 Y4.4328
X10.3341 Y4.434
X10.3326 Y4.4348
X10.3309 Y4.4351
G3 Y4.4241 I0. J-0.0055
G1 X10.3326 Y4.4244
X10.3341 Y4.4251
X10.3353 Y4.4264
X10.3361 Y4.4279
X10.3364 Y4.4296
X10.3361 Y4.4312
X10.3353 Y4.4327
X10.334 Y4.4337
X10.3325 Y4.4343
X10.3308 Y4.4344
X10.3292 Y4.4338
X10.3282 Y4.4333
X10.3269 Y4.4323
X10.326 Y4.4309
X10.3257 Y4.4292
X10.3259 Y4.4276
X10.3267 Y4.4261
X10.3279 Y4.425
Z-0.2682 F20.
X10.3287 Y4.4246 Z-0.2727
X10.3299 Y4.4242 Z-0.2746
X10.3311 Y4.4241 Z-0.2765
X10.3324 Y4.4243 Z-0.2774
X10.3336 Y4.4248 Z-0.2782
X10.3346 Y4.4256 Z-0.2791
X10.3355 Y4.4267 Z-0.2794
X10.3361 Y4.4281 Z-0.2797
X10.3364 Y4.4296 Z-0.28
X10.3361 Y4.4313 F40.
X10.3353 Y4.4328
X10.3341 Y4.434
X10.3326 Y4.4348
X10.3309 Y4.4351
G3 Y4.4241 I0. J-0.0055
G1 X10.3326 Y4.4244
X10.3341 Y4.4251
X10.3353 Y4.4264
X10.3361 Y4.4279
X10.3364 Y4.4296
X10.3361 Y4.4312
X10.3353 Y4.4327
X10.334 Y4.4337
X10.3325 Y4.4343
X10.3308 Y4.4344
X10.3292 Y4.4338
X10.3282 Y4.4333
X10.3269 Y4.4323
X10.326 Y4.4309
X10.3257 Y4.4292
X10.3259 Y4.4276
X10.3267 Y4.4261
X10.3279 Y4.425
Z-0.2882 F20.
X10.3287 Y4.4246 Z-0.2927
X10.3299 Y4.4242 Z-0.2946
X10.3311 Y4.4241 Z-0.2965
X10.3324 Y4.4243 Z-0.2974
X10.3336 Y4.4248 Z-0.2982
X10.3346 Y4.4256 Z-0.2991
X10.3355 Y4.4267 Z-0.2994
X10.3361 Y4.4281 Z-0.2997
X10.3364 Y4.4296 Z-0.3
X10.3361 Y4.4313 F40.
X10.3353 Y4.4328
X10.3341 Y4.434
X10.3326 Y4.4348
X10.3309 Y4.4351
G3 Y4.4241 I0. J-0.0055
G1 X10.3326 Y4.4244
X10.3341 Y4.4251
X10.3353 Y4.4264
X10.3361 Y4.4279
X10.3364 Y4.4296
X10.3361 Y4.4312
X10.3353 Y4.4327
X10.334 Y4.4337
X10.3325 Y4.4343
X10.3308 Y4.4344
X10.3292 Y4.4338
X10.3282 Y4.4333
X10.3269 Y4.4323
X10.326 Y4.4309
X10.3257 Y4.4292
X10.3259 Y4.4276
X10.3267 Y4.4261
X10.3279 Y4.425
Z-0.3082 F20.
X10.3287 Y4.4246 Z-0.3127
X10.3299 Y4.4242 Z-0.3146
X10.3311 Y4.4241 Z-0.3165
X10.3324 Y4.4243 Z-0.3174
X10.3336 Y4.4248 Z-0.3182
X10.3346 Y4.4256 Z-0.3191
X10.3355 Y4.4267 Z-0.3194
X10.3361 Y4.4281 Z-0.3197
X10.3364 Y4.4296 Z-0.32
X10.3361 Y4.4313 F40.
X10.3353 Y4.4328
X10.3341 Y4.434
X10.3326 Y4.4348
X10.3309 Y4.4351
G3 Y4.4241 I0. J-0.0055
G1 X10.3326 Y4.4244
X10.3341 Y4.4251
X10.3353 Y4.4264
X10.3361 Y4.4279
X10.3364 Y4.4296
X10.3361 Y4.4312
X10.3353 Y4.4327
X10.334 Y4.4337
X10.3325 Y4.4343
X10.3308 Y4.4344
X10.3292 Y4.4338
X10.3282 Y4.4333
X10.3269 Y4.4323
X10.326 Y4.4309
X10.3257 Y4.4292
X10.3259 Y4.4276
X10.3267 Y4.4261
X10.3279 Y4.425
Z-0.3282 F20.
X10.3287 Y4.4246 Z-0.3327
X10.3299 Y4.4242 Z-0.3346
X10.3311 Y4.4241 Z-0.3365
X10.3324 Y4.4243 Z-0.3374
X10.3336 Y4.4248 Z-0.3382
X10.3346 Y4.4256 Z-0.3391
X10.3355 Y4.4267 Z-0.3394
X10.3361 Y4.4281 Z-0.3397
X10.3364 Y4.4296 Z-0.34
X10.3361 Y4.4313 F40.
X10.3353 Y4.4328
X10.3341 Y4.434
X10.3326 Y4.4348
X10.3309 Y4.4351
G3 Y4.4241 I0. J-0.0055
G1 X10.3326 Y4.4244
X10.3341 Y4.4251
X10.3353 Y4.4264
X10.3361 Y4.4279
X10.3364 Y4.4296
X10.3361 Y4.4312
X10.3353 Y4.4327
X10.334 Y4.4337
X10.3325 Y4.4343
X10.3308 Y4.4344
X10.3292 Y4.4338
X10.3282 Y4.4333
X10.3269 Y4.4323
X10.326 Y4.4309
X10.3257 Y4.4292
X10.3259 Y4.4276
X10.3267 Y4.4261
X10.3279 Y4.425
Z-0.3482 F20.
X10.3287 Y4.4246 Z-0.3527
X10.3299 Y4.4242 Z-0.3546
X10.3311 Y4.4241 Z-0.3565
X10.3324 Y4.4243 Z-0.3574
X10.3336 Y4.4248 Z-0.3582
X10.3346 Y4.4256 Z-0.3591
X10.3355 Y4.4267 Z-0.3594
X10.3361 Y4.4281 Z-0.3597
X10.3364 Y4.4296 Z-0.36
X10.3361 Y4.4313 F40.
X10.3353 Y4.4328
X10.3341 Y4.434
X10.3326 Y4.4348
X10.3309 Y4.4351
G3 Y4.4241 I0. J-0.0055
G1 X10.3326 Y4.4244
X10.3341 Y4.4251
X10.3353 Y4.4264
X10.3361 Y4.4279
X10.3364 Y4.4296
X10.3361 Y4.4312
X10.3353 Y4.4327
X10.334 Y4.4337
X10.3325 Y4.4343
X10.3308 Y4.4344
X10.3292 Y4.4338
X10.3282 Y4.4333
X10.3269 Y4.4323
X10.326 Y4.4309
X10.3257 Y4.4292
X10.3259 Y4.4276
X10.3267 Y4.4261
X10.3279 Y4.425
Z-0.3632 F20.
X10.3287 Y4.4246 Z-0.3677
X10.3299 Y4.4242 Z-0.3696
X10.3311 Y4.4241 Z-0.3715
X10.3324 Y4.4243 Z-0.3724
X10.3336 Y4.4248 Z-0.3732
X10.3346 Y4.4256 Z-0.3741
X10.3355 Y4.4267 Z-0.3744
X10.3361 Y4.4281 Z-0.3747
X10.3364 Y4.4296 Z-0.375
X10.3361 Y4.4313 F40.
X10.3353 Y4.4328
X10.3341 Y4.434
X10.3326 Y4.4348
X10.3309 Y4.4351
G3 Y4.4241 I0. J-0.0055
G1 X10.3326 Y4.4244
X10.3341 Y4.4251
X10.3353 Y4.4264
X10.3361 Y4.4279
X10.3364 Y4.4296
X10.3361 Y4.4311 Z-0.3747
X10.3355 Y4.4326 Z-0.3743
X10.3345 Y4.4337 Z-0.374
X10.3334 Y4.4345 Z-0.3731
X10.3322 Y4.4349 Z-0.3722
X10.3309 Y4.4351 Z-0.3712
X10.3297 Y4.435 Z-0.3694
X10.3286 Y4.4346 Z-0.3675
X10.3279 Y4.4342 Z-0.3632
G0 Z0.41
X10.3339 Y3.9342
Z0.4
G1 Z0.3 F20.
Z0.1918
X10.3331 Y3.9346 Z0.1873
X10.3318 Y3.935 Z0.1854
X10.3306 Y3.9351 Z0.1835
X10.3293 Y3.9349 Z0.1826
X10.3281 Y3.9344 Z0.1818
X10.3271 Y3.9336 Z0.1809
X10.3262 Y3.9325 Z0.1806
X10.3256 Y3.9311 Z0.1803
X10.3254 Y3.9296 Z0.18
X10.3256 Y3.9279 F40.
X10.3264 Y3.9264
X10.3276 Y3.9251
X10.3292 Y3.9244
X10.3309 Y3.9241
G3 Y3.9351 I0. J0.0055
G1 X10.3292 Y3.9348
X10.3276 Y3.934
X10.3264 Y3.9328
X10.3256 Y3.9313
X10.3254 Y3.9296
X10.3257 Y3.928
X10.3265 Y3.9265
X10.3277 Y3.9254
X10.3293 Y3.9248
X10.3309
X10.3325 Y3.9253
X10.3335 Y3.9259
X10.3348 Y3.9269
X10.3357 Y3.9283
X10.3361 Y3.93
X10.3358 Y3.9316
X10.3351 Y3.9331
X10.3339 Y3.9342
Z0.1718 F20.
X10.3331 Y3.9346 Z0.1673
X10.3318 Y3.935 Z0.1654
X10.3306 Y3.9351 Z0.1635
X10.3293 Y3.9349 Z0.1626
X10.3281 Y3.9344 Z0.1618
X10.3271 Y3.9336 Z0.1609
X10.3262 Y3.9325 Z0.1606
X10.3256 Y3.9311 Z0.1603
X10.3254 Y3.9296 Z0.16
X10.3256 Y3.9279 F40.
X10.3264 Y3.9264
X10.3276 Y3.9251
X10.3292 Y3.9244
X10.3309 Y3.9241
G3 Y3.9351 I0. J0.0055
G1 X10.3292 Y3.9348
X10.3276 Y3.934
X10.3264 Y3.9328
X10.3256 Y3.9313
X10.3254 Y3.9296
X10.3257 Y3.928
X10.3265 Y3.9265
X10.3277 Y3.9254
X10.3293 Y3.9248
X10.3309
X10.3325 Y3.9253
X10.3335 Y3.9259
X10.3348 Y3.9269
X10.3357 Y3.9283
X10.3361 Y3.93
X10.3358 Y3.9316
X10.3351 Y3.9331
X10.3339 Y3.9342
Z0.1518 F20.
X10.3331 Y3.9346 Z0.1473
X10.3318 Y3.935 Z0.1454
X10.3306 Y3.9351 Z0.1435
X10.3293 Y3.9349 Z0.1426
X10.3281 Y3.9344 Z0.1418
X10.3271 Y3.9336 Z0.1409
X10.3262 Y3.9325 Z0.1406
X10.3256 Y3.9311 Z0.1403
X10.3254 Y3.9296 Z0.14
X10.3256 Y3.9279 F40.
X10.3264 Y3.9264
X10.3276 Y3.9251
X10.3292 Y3.9244
X10.3309 Y3.9241
G3 Y3.9351 I0. J0.0055
G1 X10.3292 Y3.9348
X10.3276 Y3.934
X10.3264 Y3.9328
X10.3256 Y3.9313
X10.3254 Y3.9296
X10.3257 Y3.928
X10.3265 Y3.9265
X10.3277 Y3.9254
X10.3293 Y3.9248
X10.3309
X10.3325 Y3.9253
X10.3335 Y3.9259
X10.3348 Y3.9269
X10.3357 Y3.9283
X10.3361 Y3.93
X10.3358 Y3.9316
X10.3351 Y3.9331
X10.3339 Y3.9342
Z0.1318 F20.
X10.3331 Y3.9346 Z0.1273
X10.3318 Y3.935 Z0.1254
X10.3306 Y3.9351 Z0.1235
X10.3293 Y3.9349 Z0.1226
X10.3281 Y3.9344 Z0.1218
X10.3271 Y3.9336 Z0.1209
X10.3262 Y3.9325 Z0.1206
X10.3256 Y3.9311 Z0.1203
X10.3254 Y3.9296 Z0.12
X10.3256 Y3.9279 F40.
X10.3264 Y3.9264
X10.3276 Y3.9251
X10.3292 Y3.9244
X10.3309 Y3.9241
G3 Y3.9351 I0. J0.0055
G1 X10.3292 Y3.9348
X10.3276 Y3.934
X10.3264 Y3.9328
X10.3256 Y3.9313
X10.3254 Y3.9296
X10.3257 Y3.928
X10.3265 Y3.9265
X10.3277 Y3.9254
X10.3293 Y3.9248
X10.3309
X10.3325 Y3.9253
X10.3335 Y3.9259
X10.3348 Y3.9269
X10.3357 Y3.9283
X10.3361 Y3.93
X10.3358 Y3.9316
X10.3351 Y3.9331
X10.3339 Y3.9342
Z0.1118 F20.
X10.3331 Y3.9346 Z0.1073
X10.3318 Y3.935 Z0.1054
X10.3306 Y3.9351 Z0.1035
X10.3293 Y3.9349 Z0.1026
X10.3281 Y3.9344 Z0.1018
X10.3271 Y3.9336 Z0.1009
X10.3262 Y3.9325 Z0.1006
X10.3256 Y3.9311 Z0.1003
X10.3254 Y3.9296 Z0.1
X10.3256 Y3.9279 F40.
X10.3264 Y3.9264
X10.3276 Y3.9251
X10.3292 Y3.9244
X10.3309 Y3.9241
G3 Y3.9351 I0. J0.0055
G1 X10.3292 Y3.9348
X10.3276 Y3.934
X10.3264 Y3.9328
X10.3256 Y3.9313
X10.3254 Y3.9296
X10.3257 Y3.928
X10.3265 Y3.9265
X10.3277 Y3.9254
X10.3293 Y3.9248
X10.3309
X10.3325 Y3.9253
X10.3335 Y3.9259
X10.3348 Y3.9269
X10.3357 Y3.9283
X10.3361 Y3.93
X10.3358 Y3.9316
X10.3351 Y3.9331
X10.3339 Y3.9342
Z0.0918 F20.
X10.3331 Y3.9346 Z0.0873
X10.3318 Y3.935 Z0.0854
X10.3306 Y3.9351 Z0.0835
X10.3293 Y3.9349 Z0.0826
X10.3281 Y3.9344 Z0.0818
X10.3271 Y3.9336 Z0.0809
X10.3262 Y3.9325 Z0.0806
X10.3256 Y3.9311 Z0.0803
X10.3254 Y3.9296 Z0.08
X10.3256 Y3.9279 F40.
X10.3264 Y3.9264
X10.3276 Y3.9251
X10.3292 Y3.9244
X10.3309 Y3.9241
G3 Y3.9351 I0. J0.0055
G1 X10.3292 Y3.9348
X10.3276 Y3.934
X10.3264 Y3.9328
X10.3256 Y3.9313
X10.3254 Y3.9296
X10.3257 Y3.928
X10.3265 Y3.9265
X10.3277 Y3.9254
X10.3293 Y3.9248
X10.3309
X10.3325 Y3.9253
X10.3335 Y3.9259
X10.3348 Y3.9269
X10.3357 Y3.9283
X10.3361 Y3.93
X10.3358 Y3.9316
X10.3351 Y3.9331
X10.3339 Y3.9342
Z0.0718 F20.
X10.3331 Y3.9346 Z0.0673
X10.3318 Y3.935 Z0.0654
X10.3306 Y3.9351 Z0.0635
X10.3293 Y3.9349 Z0.0626
X10.3281 Y3.9344 Z0.0618
X10.3271 Y3.9336 Z0.0609
X10.3262 Y3.9325 Z0.0606
X10.3256 Y3.9311 Z0.0603
X10.3254 Y3.9296 Z0.06
X10.3256 Y3.9279 F40.
X10.3264 Y3.9264
X10.3276 Y3.9251
X10.3292 Y3.9244
X10.3309 Y3.9241
G3 Y3.9351 I0. J0.0055
G1 X10.3292 Y3.9348
X10.3276 Y3.934
X10.3264 Y3.9328
X10.3256 Y3.9313
X10.3254 Y3.9296
X10.3257 Y3.928
X10.3265 Y3.9265
X10.3277 Y3.9254
X10.3293 Y3.9248
X10.3309
X10.3325 Y3.9253
X10.3335 Y3.9259
X10.3348 Y3.9269
X10.3357 Y3.9283
X10.3361 Y3.93
X10.3358 Y3.9316
X10.3351 Y3.9331
X10.3339 Y3.9342
Z0.0518 F20.
X10.3331 Y3.9346 Z0.0473
