(X4 L CLIMBER HOLE RUN 3.0)
(T3  D=0.118 CR=0. - ZMIN=-0.29 - FLAT END MILL)
G90 G94 G91.1 G40 G49 G17
G20

(2D POCKET3)
M5
T3 M6
S15000 M3
g4 p5
G54
M8
G0 X2.1484 Y0.809
G43 Z0.6 H3
Z0.2
G1 Z0.1118 F40.
G18 G2 X2.1597 Z0.1 I0.0118 K0. F20.
G1 X2.185 Z0.0991
X2.1863 Y0.8093
X2.1875 Y0.81 Z0.099
X2.1882 Y0.8112
X2.1885 Y0.8125 Z0.0989
X2.1882 Y0.8138
X2.1875 Y0.815 Z0.0988
X2.1863 Y0.8157
X2.185 Y0.816 Z0.0987
X2.06 Z0.0944
X2.0587 Y0.8157 Z0.0943
X2.0575 Y0.815
X2.0568 Y0.8138 Z0.0942
X2.0565 Y0.8125
X2.0568 Y0.8112 Z0.0941
X2.0575 Y0.81
X2.0587 Y0.8093 Z0.094
X2.06 Y0.809
X2.185 Z0.0896
X2.1863 Y0.8093
X2.1875 Y0.81 Z0.0895
X2.1882 Y0.8112
X2.1885 Y0.8125 Z0.0894
X2.1882 Y0.8138
X2.1875 Y0.815 Z0.0893
X2.1863 Y0.8157
X2.185 Y0.816 Z0.0892
X2.06 Z0.0849
X2.0587 Y0.8157 Z0.0848
X2.0575 Y0.815
X2.0568 Y0.8138 Z0.0847
X2.0565 Y0.8125
X2.0568 Y0.8112 Z0.0846
X2.0575 Y0.81
X2.0587 Y0.8093 Z0.0845
X2.06 Y0.809
X2.185 Z0.0801
X2.1863 Y0.8093
X2.1875 Y0.81 Z0.08
X2.1882 Y0.8112
X2.1885 Y0.8125 Z0.0799
X2.1882 Y0.8138
X2.1875 Y0.815 Z0.0798
X2.1863 Y0.8157
X2.185 Y0.816 Z0.0797
X2.06 Z0.0754
X2.0587 Y0.8157 Z0.0753
X2.0575 Y0.815
X2.0568 Y0.8138 Z0.0752
X2.0565 Y0.8125
X2.0568 Y0.8112 Z0.0751
X2.0575 Y0.81
X2.0587 Y0.8093 Z0.075
X2.06 Y0.809
X2.185 Z0.0706
X2.1863 Y0.8093
X2.1875 Y0.81 Z0.0705
X2.1882 Y0.8112
X2.1885 Y0.8125 Z0.0704
X2.1882 Y0.8138
X2.1875 Y0.815 Z0.0703
X2.1863 Y0.8157
X2.185 Y0.816 Z0.0702
X2.06 Z0.0659
X2.0587 Y0.8157 Z0.0658
X2.0575 Y0.815
X2.0568 Y0.8138 Z0.0657
X2.0565 Y0.8125
X2.0568 Y0.8112 Z0.0656
X2.0575 Y0.81
X2.0587 Y0.8093 Z0.0655
X2.06 Y0.809
X2.185 Z0.0611
X2.1863 Y0.8093
X2.1875 Y0.81 Z0.061
X2.1882 Y0.8112
X2.1885 Y0.8125 Z0.0609
X2.1882 Y0.8138
X2.1875 Y0.815 Z0.0608
X2.1863 Y0.8157
X2.185 Y0.816 Z0.0607
X2.06 Z0.0564
X2.0587 Y0.8157 Z0.0563
X2.0575 Y0.815
X2.0568 Y0.8138 Z0.0562
X2.0565 Y0.8125
X2.0568 Y0.8112 Z0.0561
X2.0575 Y0.81
X2.0587 Y0.8093 Z0.056
X2.06 Y0.809
X2.185 Z0.0516
X2.1863 Y0.8093
X2.1875 Y0.81 Z0.0515
X2.1882 Y0.8112
X2.1885 Y0.8125 Z0.0514
X2.1882 Y0.8138
X2.1875 Y0.815 Z0.0513
X2.1863 Y0.8157
X2.185 Y0.816 Z0.0512
X2.06 Z0.0469
X2.0587 Y0.8157 Z0.0468
X2.0575 Y0.815
X2.0568 Y0.8138 Z0.0467
X2.0565 Y0.8125
X2.0568 Y0.8112 Z0.0466
X2.0575 Y0.81
X2.0587 Y0.8093 Z0.0465
X2.06 Y0.809
X2.185 Z0.0421
X2.1863 Y0.8093
X2.1875 Y0.81 Z0.042
X2.1882 Y0.8112
X2.1885 Y0.8125 Z0.0419
X2.1882 Y0.8138
X2.1875 Y0.815 Z0.0418
X2.1863 Y0.8157
X2.185 Y0.816 Z0.0417
X2.06 Z0.0374
X2.0587 Y0.8157 Z0.0373
X2.0575 Y0.815
X2.0568 Y0.8138 Z0.0372
X2.0565 Y0.8125
X2.0568 Y0.8112 Z0.0371
X2.0575 Y0.81
X2.0587 Y0.8093 Z0.037
X2.06 Y0.809
X2.185 Z0.0326
X2.1863 Y0.8093
X2.1875 Y0.81 Z0.0325
X2.1882 Y0.8112
X2.1885 Y0.8125 Z0.0324
X2.1882 Y0.8138
X2.1875 Y0.815 Z0.0323
X2.1863 Y0.8157
X2.185 Y0.816 Z0.0322
X2.06 Z0.0279
X2.0587 Y0.8157 Z0.0278
X2.0575 Y0.815
X2.0568 Y0.8138 Z0.0277
X2.0565 Y0.8125
X2.0568 Y0.8112 Z0.0276
X2.0575 Y0.81
X2.0587 Y0.8093 Z0.0275
X2.06 Y0.809
X2.185 Z0.0231
X2.1863 Y0.8093
X2.1875 Y0.81 Z0.023
X2.1882 Y0.8112
X2.1885 Y0.8125 Z0.0229
X2.1882 Y0.8138
X2.1875 Y0.815 Z0.0228
X2.1863 Y0.8157
X2.185 Y0.816 Z0.0227
X2.06 Z0.0184
X2.0587 Y0.8157 Z0.0183
X2.0575 Y0.815
X2.0568 Y0.8138 Z0.0182
X2.0565 Y0.8125
X2.0568 Y0.8112 Z0.0181
X2.0575 Y0.81
X2.0587 Y0.8093 Z0.018
X2.06 Y0.809
X2.185 Z0.0136
X2.1863 Y0.8093
X2.1875 Y0.81 Z0.0135
X2.1882 Y0.8112
X2.1885 Y0.8125 Z0.0134
X2.1882 Y0.8138
X2.1875 Y0.815 Z0.0133
X2.1863 Y0.8157
X2.185 Y0.816
X2.06 Z0.0089
X2.0587 Y0.8157 Z0.0088
X2.0575 Y0.815
X2.0568 Y0.8138 Z0.0087
X2.0565 Y0.8125
X2.0568 Y0.8112 Z0.0086
X2.0575 Y0.81
X2.0587 Y0.8093 Z0.0085
X2.06 Y0.809
X2.185 Z0.0041
X2.1863 Y0.8093
X2.1875 Y0.81 Z0.004
X2.1882 Y0.8112
X2.1885 Y0.8125 Z0.0039
X2.1882 Y0.8138
X2.1875 Y0.815 Z0.0038
X2.1863 Y0.8157
X2.185 Y0.816
X2.06 Z-0.0006
X2.0587 Y0.8157 Z-0.0007
X2.0575 Y0.815
X2.0568 Y0.8138 Z-0.0008
X2.0565 Y0.8125
X2.0568 Y0.8112 Z-0.0009
X2.0575 Y0.81
X2.0587 Y0.8093
X2.06 Y0.809 Z-0.001
X2.185 Z-0.0054
X2.1863 Y0.8093
X2.1875 Y0.81 Z-0.0055
X2.1882 Y0.8112
X2.1885 Y0.8125 Z-0.0056
X2.1882 Y0.8138
X2.1875 Y0.815
X2.1863 Y0.8157 Z-0.0057
X2.185 Y0.816
X2.06 Z-0.0101
X2.0587 Y0.8157 Z-0.0102
X2.0575 Y0.815
X2.0568 Y0.8138 Z-0.0103
X2.0565 Y0.8125
X2.0568 Y0.8112 Z-0.0104
X2.0575 Y0.81
X2.0587 Y0.8093
X2.06 Y0.809 Z-0.0105
X2.185 Z-0.0149
X2.1863 Y0.8093
X2.1875 Y0.81 Z-0.015
X2.1882 Y0.8112
X2.1885 Y0.8125 Z-0.0151
X2.1882 Y0.8138
X2.1875 Y0.815
X2.1863 Y0.8157 Z-0.0152
X2.185 Y0.816
X2.06 Z-0.0196
X2.0587 Y0.8157 Z-0.0197
X2.0575 Y0.815
X2.0568 Y0.8138 Z-0.0198
X2.0565 Y0.8125
X2.0568 Y0.8112
X2.0575 Y0.81 Z-0.0199
X2.0587 Y0.8093
X2.06 Y0.809 Z-0.02
X2.0602
X2.185 F40.
X2.1863 Y0.8093
X2.1875 Y0.81
X2.1882 Y0.8112
X2.1885 Y0.8125
X2.1882 Y0.8138
X2.1875 Y0.815
X2.1863 Y0.8157
X2.185 Y0.816
X2.06
X2.0587 Y0.8157
X2.0575 Y0.815
X2.0568 Y0.8138
X2.0565 Y0.8125
X2.0568 Y0.8112
X2.0575 Y0.81
X2.0587 Y0.8093
X2.06 Y0.809
X2.0602
X2.185 Z-0.0244 F20.
X2.1863 Y0.8093
X2.1875 Y0.81 Z-0.0245
X2.1882 Y0.8112
X2.1885 Y0.8125
X2.1882 Y0.8138 Z-0.0246
X2.1875 Y0.815
X2.1863 Y0.8157 Z-0.0247
X2.185 Y0.816
X2.06 Z-0.0291
X2.0587 Y0.8157 Z-0.0292
X2.0575 Y0.815
X2.0568 Y0.8138 Z-0.0293
X2.0565 Y0.8125
X2.0568 Y0.8112
X2.0575 Y0.81 Z-0.0294
X2.0587 Y0.8093
X2.06 Y0.809 Z-0.0295
X2.185 Z-0.0339
X2.1863 Y0.8093
X2.1875 Y0.81 Z-0.034
X2.1882 Y0.8112
X2.1885 Y0.8125
X2.1882 Y0.8138 Z-0.0341
X2.1875 Y0.815
X2.1863 Y0.8157 Z-0.0342
X2.185 Y0.816
X2.06 Z-0.0386
X2.0587 Y0.8157 Z-0.0387
X2.0575 Y0.815
X2.0568 Y0.8138
X2.0565 Y0.8125 Z-0.0388
X2.0568 Y0.8112
X2.0575 Y0.81 Z-0.0389
X2.0587 Y0.8093
X2.06 Y0.809 Z-0.039
X2.089 Z-0.04
X2.185 F40.
X2.1863 Y0.8093
X2.1875 Y0.81
X2.1882 Y0.8112
X2.1885 Y0.8125
X2.1882 Y0.8138
X2.1875 Y0.815
X2.1863 Y0.8157
X2.185 Y0.816
X2.06
X2.0587 Y0.8157
X2.0575 Y0.815
X2.0568 Y0.8138
X2.0565 Y0.8125
X2.0568 Y0.8112
X2.0575 Y0.81
X2.0587 Y0.8093
X2.06 Y0.809
X2.089
X2.185 Z-0.0434 F20.
X2.1863 Y0.8093
X2.1875 Y0.81
X2.1882 Y0.8112 Z-0.0435
X2.1885 Y0.8125
X2.1882 Y0.8138 Z-0.0436
X2.1875 Y0.815
X2.1863 Y0.8157 Z-0.0437
X2.185 Y0.816
X2.06 Z-0.0481
X2.0587 Y0.8157 Z-0.0482
X2.0575 Y0.815
X2.0568 Y0.8138
X2.0565 Y0.8125 Z-0.0483
X2.0568 Y0.8112
X2.0575 Y0.81 Z-0.0484
X2.0587 Y0.8093
X2.06 Y0.809 Z-0.0485
X2.185 Z-0.0529
X2.1863 Y0.8093
X2.1875 Y0.81
X2.1882 Y0.8112 Z-0.053
X2.1885 Y0.8125
X2.1882 Y0.8138 Z-0.0531
X2.1875 Y0.815
X2.1863 Y0.8157 Z-0.0532
X2.185 Y0.816
X2.06 Z-0.0576
X2.0587 Y0.8157
X2.0575 Y0.815 Z-0.0577
X2.0568 Y0.8138
X2.0565 Y0.8125 Z-0.0578
X2.0568 Y0.8112
X2.0575 Y0.81 Z-0.0579
X2.0587 Y0.8093
X2.06 Y0.809 Z-0.058
X2.1177 Z-0.06
X2.185 F40.
X2.1863 Y0.8093
X2.1875 Y0.81
X2.1882 Y0.8112
X2.1885 Y0.8125
X2.1882 Y0.8138
X2.1875 Y0.815
X2.1863 Y0.8157
X2.185 Y0.816
X2.06
X2.0587 Y0.8157
X2.0575 Y0.815
X2.0568 Y0.8138
X2.0565 Y0.8125
X2.0568 Y0.8112
X2.0575 Y0.81
X2.0587 Y0.8093
X2.06 Y0.809
X2.089
X2.1177
X2.185 Z-0.0624 F20.
X2.1863 Y0.8093
X2.1875 Y0.81
X2.1882 Y0.8112 Z-0.0625
X2.1885 Y0.8125
X2.1882 Y0.8138 Z-0.0626
X2.1875 Y0.815
X2.1863 Y0.8157 Z-0.0627
X2.185 Y0.816
X2.06 Z-0.0671
X2.0587 Y0.8157
X2.0575 Y0.815 Z-0.0672
X2.0568 Y0.8138
X2.0565 Y0.8125 Z-0.0673
X2.0568 Y0.8112
X2.0575 Y0.81 Z-0.0674
X2.0587 Y0.8093
X2.06 Y0.809 Z-0.0675
X2.185 Z-0.0718
X2.1863 Y0.8093 Z-0.0719
X2.1875 Y0.81
X2.1882 Y0.8112 Z-0.072
X2.1885 Y0.8125
X2.1882 Y0.8138 Z-0.0721
X2.1875 Y0.815
X2.1863 Y0.8157 Z-0.0722
X2.185 Y0.816
X2.06 Z-0.0766
X2.0587 Y0.8157
X2.0575 Y0.815 Z-0.0767
X2.0568 Y0.8138
X2.0565 Y0.8125 Z-0.0768
X2.0568 Y0.8112
X2.0575 Y0.81 Z-0.0769
X2.0587 Y0.8093
X2.06 Y0.809 Z-0.077
X2.1464 Z-0.08
X2.185 F40.
X2.1863 Y0.8093
X2.1875 Y0.81
X2.1882 Y0.8112
X2.1885 Y0.8125
X2.1882 Y0.8138
X2.1875 Y0.815
X2.1863 Y0.8157
X2.185 Y0.816
X2.06
X2.0587 Y0.8157
X2.0575 Y0.815
X2.0568 Y0.8138
X2.0565 Y0.8125
X2.0568 Y0.8112
X2.0575 Y0.81
X2.0587 Y0.8093
X2.06 Y0.809
X2.1177
X2.1464
X2.185 Z-0.0813 F20.
X2.1863 Y0.8093 Z-0.0814
X2.1875 Y0.81
X2.1882 Y0.8112 Z-0.0815
X2.1885 Y0.8125
X2.1882 Y0.8138 Z-0.0816
X2.1875 Y0.815
X2.1863 Y0.8157 Z-0.0817
X2.185 Y0.816
X2.06 Z-0.0861
X2.0587 Y0.8157
X2.0575 Y0.815 Z-0.0862
X2.0568 Y0.8138
X2.0565 Y0.8125 Z-0.0863
X2.0568 Y0.8112
X2.0575 Y0.81 Z-0.0864
X2.0587 Y0.8093
X2.06 Y0.809 Z-0.0865
X2.185 Z-0.0908
X2.1863 Y0.8093 Z-0.0909
X2.1875 Y0.81
X2.1882 Y0.8112 Z-0.091
X2.1885 Y0.8125
X2.1882 Y0.8138 Z-0.0911
X2.1875 Y0.815
X2.1863 Y0.8157 Z-0.0912
X2.185 Y0.816
X2.06 Z-0.0956
X2.0587 Y0.8157
X2.0575 Y0.815 Z-0.0957
X2.0568 Y0.8138
X2.0565 Y0.8125 Z-0.0958
X2.0568 Y0.8112
X2.0575 Y0.81 Z-0.0959
X2.0587 Y0.8093
X2.06 Y0.809 Z-0.096
X2.1752 Z-0.1
X2.185 F40.
X2.1863 Y0.8093
X2.1875 Y0.81
X2.1882 Y0.8112
X2.1885 Y0.8125
X2.1882 Y0.8138
X2.1875 Y0.815
X2.1863 Y0.8157
X2.185 Y0.816
X2.06
X2.0587 Y0.8157
X2.0575 Y0.815
X2.0568 Y0.8138
X2.0565 Y0.8125
X2.0568 Y0.8112
X2.0575 Y0.81
X2.0587 Y0.8093
X2.06 Y0.809
X2.1464
X2.1752
X2.185 Z-0.1003 F20.
X2.1863 Y0.8093 Z-0.1004
X2.1875 Y0.81
X2.1882 Y0.8112 Z-0.1005
X2.1885 Y0.8125
X2.1882 Y0.8138 Z-0.1006
X2.1875 Y0.815
X2.1863 Y0.8157 Z-0.1007
X2.185 Y0.816
X2.06 Z-0.1051
X2.0587 Y0.8157
X2.0575 Y0.815 Z-0.1052
X2.0568 Y0.8138
X2.0565 Y0.8125 Z-0.1053
X2.0568 Y0.8112
X2.0575 Y0.81 Z-0.1054
X2.0587 Y0.8093
X2.06 Y0.809 Z-0.1055
X2.185 Z-0.1098
X2.1863 Y0.8093 Z-0.1099
X2.1875 Y0.81
X2.1882 Y0.8112 Z-0.11
X2.1885 Y0.8125
X2.1882 Y0.8138 Z-0.1101
X2.1875 Y0.815
X2.1863 Y0.8157 Z-0.1102
X2.185 Y0.816
X2.06 Z-0.1146
X2.0587 Y0.8157
X2.0575 Y0.815 Z-0.1147
X2.0568 Y0.8138
X2.0565 Y0.8125 Z-0.1148
X2.0568 Y0.8112
X2.0575 Y0.81 Z-0.1149
X2.0587 Y0.8093
X2.06 Y0.809 Z-0.115
X2.185 Z-0.1193
X2.1863 Y0.8093 Z-0.1194
X2.1875 Y0.81
X2.1882 Y0.8112 Z-0.1195
X2.1885 Y0.8125
X2.1882 Y0.8138 Z-0.1196
X2.1875 Y0.815
X2.1863 Y0.8157 Z-0.1197
X2.185 Y0.816
X2.1771 Z-0.12
X2.06 F40.
X2.0587 Y0.8157
X2.0575 Y0.815
X2.0568 Y0.8138
X2.0565 Y0.8125
X2.0568 Y0.8112
X2.0575 Y0.81
X2.0587 Y0.8093
X2.06 Y0.809
X2.1752
X2.185
X2.1863 Y0.8093
X2.1875 Y0.81
X2.1882 Y0.8112
X2.1885 Y0.8125
X2.1882 Y0.8138
X2.1875 Y0.815
X2.1863 Y0.8157
X2.185 Y0.816
X2.1771
X2.06 Z-0.1241 F20.
X2.0587 Y0.8157
X2.0575 Y0.815 Z-0.1242
X2.0568 Y0.8138
X2.0565 Y0.8125 Z-0.1243
X2.0568 Y0.8112
X2.0575 Y0.81 Z-0.1244
X2.0587 Y0.8093
X2.06 Y0.809 Z-0.1245
X2.185 Z-0.1288
X2.1863 Y0.8093 Z-0.1289
X2.1875 Y0.81
X2.1882 Y0.8112 Z-0.129
X2.1885 Y0.8125
X2.1882 Y0.8138 Z-0.1291
X2.1875 Y0.815
X2.1863 Y0.8157 Z-0.1292
X2.185 Y0.816
X2.06 Z-0.1336
X2.0587 Y0.8157
X2.0575 Y0.815 Z-0.1337
X2.0568 Y0.8138
X2.0565 Y0.8125 Z-0.1338
X2.0568 Y0.8112
X2.0575 Y0.81 Z-0.1339
X2.0587 Y0.8093
X2.06 Y0.809 Z-0.134
X2.185 Z-0.1383
X2.1863 Y0.8093 Z-0.1384
X2.1875 Y0.81
X2.1882 Y0.8112 Z-0.1385
X2.1885 Y0.8125
X2.1882 Y0.8138 Z-0.1386
X2.1875 Y0.815
X2.1863 Y0.8157 Z-0.1387
X2.185 Y0.816
X2.1483 Z-0.14
X2.06 F40.
X2.0587 Y0.8157
X2.0575 Y0.815
X2.0568 Y0.8138
X2.0565 Y0.8125
X2.0568 Y0.8112
X2.0575 Y0.81
X2.0587 Y0.8093
X2.06 Y0.809
X2.185
X2.1863 Y0.8093
X2.1875 Y0.81
X2.1882 Y0.8112
X2.1885 Y0.8125
X2.1882 Y0.8138
X2.1875 Y0.815
X2.1863 Y0.8157
X2.185 Y0.816
X2.1483
X2.06 Z-0.1431 F20.
X2.0587 Y0.8157
X2.0575 Y0.815 Z-0.1432
X2.0568 Y0.8138
X2.0565 Y0.8125 Z-0.1433
X2.0568 Y0.8112
X2.0575 Y0.81 Z-0.1434
X2.0587 Y0.8093
X2.06 Y0.809 Z-0.1435
X2.185 Z-0.1478
X2.1863 Y0.8093 Z-0.1479
X2.1875 Y0.81
X2.1882 Y0.8112 Z-0.148
X2.1885 Y0.8125
X2.1882 Y0.8138 Z-0.1481
X2.1875 Y0.815
X2.1863 Y0.8157 Z-0.1482
X2.185 Y0.816
X2.06 Z-0.1526
X2.0587 Y0.8157
X2.0575 Y0.815 Z-0.1527
X2.0568 Y0.8138
X2.0565 Y0.8125 Z-0.1528
X2.0568 Y0.8112
X2.0575 Y0.81 Z-0.1529
X2.0587 Y0.8093
X2.06 Y0.809 Z-0.153
X2.185 Z-0.1573
X2.1863 Y0.8093 Z-0.1574
X2.1875 Y0.81
X2.1882 Y0.8112 Z-0.1575
X2.1885 Y0.8125
X2.1882 Y0.8138 Z-0.1576
X2.1875 Y0.815
X2.1863 Y0.8157 Z-0.1577
X2.185 Y0.816
X2.1196 Z-0.16
X2.06 F40.
X2.0587 Y0.8157
X2.0575 Y0.815
X2.0568 Y0.8138
X2.0565 Y0.8125
X2.0568 Y0.8112
X2.0575 Y0.81
X2.0587 Y0.8093
X2.06 Y0.809
X2.185
X2.1863 Y0.8093
X2.1875 Y0.81
X2.1882 Y0.8112
X2.1885 Y0.8125
X2.1882 Y0.8138
X2.1875 Y0.815
X2.1863 Y0.8157
X2.185 Y0.816
X2.1483
X2.1196
X2.06 Z-0.1621 F20.
X2.0587 Y0.8157
X2.0575 Y0.815 Z-0.1622
X2.0568 Y0.8138
X2.0565 Y0.8125 Z-0.1623
X2.0568 Y0.8112
X2.0575 Y0.81 Z-0.1624
X2.0587 Y0.8093
X2.06 Y0.809 Z-0.1625
X2.185 Z-0.1668
X2.1863 Y0.8093 Z-0.1669
X2.1875 Y0.81
X2.1882 Y0.8112 Z-0.167
X2.1885 Y0.8125
X2.1882 Y0.8138 Z-0.1671
X2.1875 Y0.815
X2.1863 Y0.8157 Z-0.1672
X2.185 Y0.816
X2.06 Z-0.1716
X2.0587 Y0.8157
X2.0575 Y0.815 Z-0.1717
X2.0568 Y0.8138
X2.0565 Y0.8125 Z-0.1718
X2.0568 Y0.8112
X2.0575 Y0.81 Z-0.1719
X2.0587 Y0.8093
X2.06 Y0.809 Z-0.172
X2.185 Z-0.1763
X2.1863 Y0.8093 Z-0.1764
X2.1875 Y0.81
X2.1882 Y0.8112 Z-0.1765
X2.1885 Y0.8125
X2.1882 Y0.8138 Z-0.1766
X2.1875 Y0.815
X2.1863 Y0.8157 Z-0.1767
X2.185 Y0.816
X2.0908 Z-0.18
X2.06 F40.
X2.0587 Y0.8157
X2.0575 Y0.815
X2.0568 Y0.8138
X2.0565 Y0.8125
X2.0568 Y0.8112
X2.0575 Y0.81
X2.0587 Y0.8093
X2.06 Y0.809
X2.185
X2.1863 Y0.8093
X2.1875 Y0.81
X2.1882 Y0.8112
X2.1885 Y0.8125
X2.1882 Y0.8138
X2.1875 Y0.815
X2.1863 Y0.8157
X2.185 Y0.816
X2.1196
X2.0908
X2.06 Z-0.1811 F20.
X2.0587 Y0.8157
X2.0575 Y0.815 Z-0.1812
X2.0568 Y0.8138
X2.0565 Y0.8125 Z-0.1813
X2.0568 Y0.8112
X2.0575 Y0.81 Z-0.1814
X2.0587 Y0.8093
X2.06 Y0.809 Z-0.1815
X2.185 Z-0.1858
X2.1863 Y0.8093 Z-0.1859
X2.1875 Y0.81
X2.1882 Y0.8112 Z-0.186
X2.1885 Y0.8125
X2.1882 Y0.8138 Z-0.1861
X2.1875 Y0.815
X2.1863 Y0.8157 Z-0.1862
X2.185 Y0.816
X2.06 Z-0.1906
X2.0587 Y0.8157
X2.0575 Y0.815 Z-0.1907
X2.0568 Y0.8138
X2.0565 Y0.8125 Z-0.1908
X2.0568 Y0.8112
X2.0575 Y0.81 Z-0.1909
X2.0587 Y0.8093
X2.06 Y0.809 Z-0.191
X2.185 Z-0.1953
X2.1863 Y0.8093 Z-0.1954
X2.1875 Y0.81
X2.1882 Y0.8112 Z-0.1955
X2.1885 Y0.8125
X2.1882 Y0.8138 Z-0.1956
X2.1875 Y0.815
X2.1863 Y0.8157 Z-0.1957
X2.185 Y0.816
X2.0621 Z-0.2
X2.06 F40.
X2.0587 Y0.8157
X2.0575 Y0.815
X2.0568 Y0.8138
X2.0565 Y0.8125
X2.0568 Y0.8112
X2.0575 Y0.81
X2.0587 Y0.8093
X2.06 Y0.809
X2.185
X2.1863 Y0.8093
X2.1875 Y0.81
X2.1882 Y0.8112
X2.1885 Y0.8125
X2.1882 Y0.8138
X2.1875 Y0.815
X2.1863 Y0.8157
X2.185 Y0.816
X2.0908
X2.0621
X2.06 Z-0.2001 F20.
X2.0587 Y0.8157
X2.0575 Y0.815 Z-0.2002
X2.0568 Y0.8138
X2.0565 Y0.8125 Z-0.2003
X2.0568 Y0.8112
X2.0575 Y0.81 Z-0.2004
X2.0587 Y0.8093
X2.06 Y0.809 Z-0.2005
X2.185 Z-0.2048
X2.1863 Y0.8093 Z-0.2049
X2.1875 Y0.81
X2.1882 Y0.8112 Z-0.205
X2.1885 Y0.8125
X2.1882 Y0.8138 Z-0.2051
X2.1875 Y0.815
X2.1863 Y0.8157 Z-0.2052
X2.185 Y0.816
X2.06 Z-0.2096
X2.0587 Y0.8157
X2.0575 Y0.815 Z-0.2097
X2.0568 Y0.8138
X2.0565 Y0.8125 Z-0.2098
X2.0568 Y0.8112
X2.0575 Y0.81 Z-0.2099
X2.0587 Y0.8093
X2.06 Y0.809 Z-0.21
X2.185 Z-0.2143
X2.1863 Y0.8093 Z-0.2144
X2.1875 Y0.81
X2.1882 Y0.8112 Z-0.2145
X2.1885 Y0.8125
X2.1882 Y0.8138 Z-0.2146
X2.1875 Y0.815
X2.1863 Y0.8157 Z-0.2147
X2.185 Y0.816
X2.06 Z-0.2191
X2.0587 Y0.8157
X2.0575 Y0.815 Z-0.2192
X2.0568 Y0.8138
X2.0565 Y0.8125 Z-0.2193
X2.0568 Y0.8112
X2.0575 Y0.81 Z-0.2194
X2.0587 Y0.8093
X2.06 Y0.809 Z-0.2195
X2.0757 Z-0.22
X2.185 F40.
X2.1863 Y0.8093
X2.1875 Y0.81
X2.1882 Y0.8112
X2.1885 Y0.8125
X2.1882 Y0.8138
X2.1875 Y0.815
X2.1863 Y0.8157
X2.185 Y0.816
X2.0621
X2.06
X2.0587 Y0.8157
X2.0575 Y0.815
X2.0568 Y0.8138
X2.0565 Y0.8125
X2.0568 Y0.8112
X2.0575 Y0.81
X2.0587 Y0.8093
X2.06 Y0.809
X2.0757
X2.185 Z-0.2238 F20.
X2.1863 Y0.8093 Z-0.2239
X2.1875 Y0.81
X2.1882 Y0.8112 Z-0.224
X2.1885 Y0.8125
X2.1882 Y0.8138 Z-0.2241
X2.1875 Y0.815
X2.1863 Y0.8157 Z-0.2242
X2.185 Y0.816
X2.06 Z-0.2286
X2.0587 Y0.8157
X2.0575 Y0.815 Z-0.2287
X2.0568 Y0.8138
X2.0565 Y0.8125 Z-0.2288
X2.0568 Y0.8112
X2.0575 Y0.81 Z-0.2289
X2.0587 Y0.8093
X2.06 Y0.809 Z-0.229
X2.185 Z-0.2333
X2.1863 Y0.8093 Z-0.2334
X2.1875 Y0.81
X2.1882 Y0.8112 Z-0.2335
X2.1885 Y0.8125
X2.1882 Y0.8138 Z-0.2336
X2.1875 Y0.815
X2.1863 Y0.8157 Z-0.2337
X2.185 Y0.816
X2.06 Z-0.2381
X2.0587 Y0.8157
X2.0575 Y0.815 Z-0.2382
X2.0568 Y0.8138
X2.0565 Y0.8125 Z-0.2383
X2.0568 Y0.8112
X2.0575 Y0.81 Z-0.2384
X2.0587 Y0.8093
X2.06 Y0.809
X2.1044 Z-0.24
X2.185 F40.
X2.1863 Y0.8093
X2.1875 Y0.81
X2.1882 Y0.8112
X2.1885 Y0.8125
X2.1882 Y0.8138
X2.1875 Y0.815
X2.1863 Y0.8157
X2.185 Y0.816
X2.06
X2.0587 Y0.8157
X2.0575 Y0.815
X2.0568 Y0.8138
X2.0565 Y0.8125
X2.0568 Y0.8112
X2.0575 Y0.81
X2.0587 Y0.8093
X2.06 Y0.809
X2.1044
X2.185 Z-0.2428 F20.
X2.1863 Y0.8093 Z-0.2429
X2.1875 Y0.81
X2.1882 Y0.8112 Z-0.243
X2.1885 Y0.8125
X2.1882 Y0.8138 Z-0.2431
X2.1875 Y0.815
X2.1863 Y0.8157 Z-0.2432
X2.185 Y0.816
X2.06 Z-0.2476
X2.0587 Y0.8157
X2.0575 Y0.815 Z-0.2477
X2.0568 Y0.8138
X2.0565 Y0.8125 Z-0.2478
X2.0568 Y0.8112
X2.0575 Y0.81 Z-0.2479
X2.0587 Y0.8093
X2.06 Y0.809
X2.185 Z-0.2523
X2.1863 Y0.8093 Z-0.2524
X2.1875 Y0.81
X2.1882 Y0.8112 Z-0.2525
X2.1885 Y0.8125
X2.1882 Y0.8138 Z-0.2526
X2.1875 Y0.815
X2.1863 Y0.8157
X2.185 Y0.816 Z-0.2527
X2.06 Z-0.2571
X2.0587 Y0.8157
X2.0575 Y0.815 Z-0.2572
X2.0568 Y0.8138
X2.0565 Y0.8125 Z-0.2573
X2.0568 Y0.8112
X2.0575 Y0.81 Z-0.2574
X2.0587 Y0.8093
X2.06 Y0.809
X2.1331 Z-0.26
X2.185 F40.
X2.1863 Y0.8093
X2.1875 Y0.81
X2.1882 Y0.8112
X2.1885 Y0.8125
X2.1882 Y0.8138
X2.1875 Y0.815
X2.1863 Y0.8157
X2.185 Y0.816
X2.06
X2.0587 Y0.8157
X2.0575 Y0.815
X2.0568 Y0.8138
X2.0565 Y0.8125
X2.0568 Y0.8112
X2.0575 Y0.81
X2.0587 Y0.8093
X2.06 Y0.809
X2.1044
X2.1331
X2.185 Z-0.2618 F20.
X2.1863 Y0.8093 Z-0.2619
X2.1875 Y0.81
X2.1882 Y0.8112 Z-0.262
X2.1885 Y0.8125
X2.1882 Y0.8138 Z-0.2621
X2.1875 Y0.815
X2.1863 Y0.8157
X2.185 Y0.816 Z-0.2622
X2.06 Z-0.2666
X2.0587 Y0.8157
X2.0575 Y0.815 Z-0.2667
X2.0568 Y0.8138
X2.0565 Y0.8125 Z-0.2668
X2.0568 Y0.8112
X2.0575 Y0.81
X2.0587 Y0.8093 Z-0.2669
X2.06 Y0.809
X2.185 Z-0.2713
X2.1863 Y0.8093 Z-0.2714
X2.1875 Y0.81
X2.1882 Y0.8112 Z-0.2715
X2.1885 Y0.8125
X2.1882 Y0.8138
X2.1875 Y0.815 Z-0.2716
X2.1863 Y0.8157
X2.185 Y0.816 Z-0.2717
X2.06 Z-0.2761
X2.0587 Y0.8157
X2.0575 Y0.815 Z-0.2762
X2.0568 Y0.8138
X2.0565 Y0.8125 Z-0.2763
X2.0568 Y0.8112
X2.0575 Y0.81
X2.0587 Y0.8093 Z-0.2764
X2.06 Y0.809
X2.1619 Z-0.28
X2.185 F40.
X2.1863 Y0.8093
X2.1875 Y0.81
X2.1882 Y0.8112
X2.1885 Y0.8125
X2.1882 Y0.8138
X2.1875 Y0.815
X2.1863 Y0.8157
X2.185 Y0.816
X2.06
X2.0587 Y0.8157
X2.0575 Y0.815
X2.0568 Y0.8138
X2.0565 Y0.8125
X2.0568 Y0.8112
X2.0575 Y0.81
X2.0587 Y0.8093
X2.06 Y0.809
X2.1331
X2.1619
X2.185 Z-0.2808 F20.
X2.1863 Y0.8093 Z-0.2809
X2.1875 Y0.81
X2.1882 Y0.8112 Z-0.281
X2.1885 Y0.8125
X2.1882 Y0.8138
X2.1875 Y0.815 Z-0.2811
X2.1863 Y0.8157
X2.185 Y0.816 Z-0.2812
X2.06 Z-0.2856
X2.0587 Y0.8157
X2.0575 Y0.815 Z-0.2857
X2.0568 Y0.8138
X2.0565 Y0.8125
X2.0568 Y0.8112 Z-0.2858
X2.0575 Y0.81
X2.0587 Y0.8093 Z-0.2859
X2.06 Y0.809
X2.1763 Z-0.29
X2.185 F40.
X2.1863 Y0.8093
X2.1875 Y0.81
X2.1882 Y0.8112
X2.1885 Y0.8125
X2.1882 Y0.8138
X2.1875 Y0.815
X2.1863 Y0.8157
X2.185 Y0.816
X2.06
X2.0587 Y0.8157
X2.0575 Y0.815
X2.0568 Y0.8138
X2.0565 Y0.8125
X2.0568 Y0.8112
X2.0575 Y0.81
X2.0587 Y0.8093
X2.06 Y0.809
X2.1619
X2.1763
X2.1787 Z-0.2897
X2.181 Z-0.289
X2.1832 Z-0.2878
X2.185 Z-0.2861
X2.1861 Y0.8092 Z-0.2843
X2.1871 Y0.8097 Z-0.2824
X2.1877 Y0.8102 Z-0.2782
G0 Z0.2
X2.0966 Y1.316
G1 Z0.1118 F40.
G3 X2.0853 Z0.1 I-0.0118 K0. F20.
G1 X2.06 Z0.0991
X2.0587 Y1.3157
X2.0575 Y1.315 Z0.099
X2.0568 Y1.3138
X2.0565 Y1.3125 Z0.0989
X2.0568 Y1.3112
X2.0575 Y1.31 Z0.0988
X2.0587 Y1.3093
X2.06 Y1.309 Z0.0987
X2.185 Z0.0944
X2.1863 Y1.3093 Z0.0943
X2.1875 Y1.31
X2.1882 Y1.3112 Z0.0942
X2.1885 Y1.3125
X2.1882 Y1.3138 Z0.0941
X2.1875 Y1.315
X2.1863 Y1.3157 Z0.094
X2.185 Y1.316
X2.1848
X2.06 Z0.0896
X2.0587 Y1.3157
X2.0575 Y1.315 Z0.0895
X2.0568 Y1.3138
X2.0565 Y1.3125 Z0.0894
X2.0568 Y1.3112
X2.0575 Y1.31 Z0.0893
X2.0587 Y1.3093
X2.06 Y1.309 Z0.0892
X2.185 Z0.0849
X2.1863 Y1.3093 Z0.0848
X2.1875 Y1.31
X2.1882 Y1.3112 Z0.0847
X2.1885 Y1.3125
X2.1882 Y1.3138 Z0.0846
X2.1875 Y1.315
X2.1863 Y1.3157 Z0.0845
X2.185 Y1.316
X2.1848
X2.06 Z0.0801
X2.0587 Y1.3157
X2.0575 Y1.315 Z0.08
X2.0568 Y1.3138
X2.0565 Y1.3125 Z0.0799
X2.0568 Y1.3112
X2.0575 Y1.31 Z0.0798
X2.0587 Y1.3093
X2.06 Y1.309 Z0.0797
X2.185 Z0.0754
X2.1863 Y1.3093 Z0.0753
X2.1875 Y1.31
X2.1882 Y1.3112 Z0.0752
X2.1885 Y1.3125
X2.1882 Y1.3138 Z0.0751
X2.1875 Y1.315
X2.1863 Y1.3157 Z0.075
X2.185 Y1.316
X2.1848
X2.06 Z0.0706
X2.0587 Y1.3157
X2.0575 Y1.315 Z0.0705
X2.0568 Y1.3138
X2.0565 Y1.3125 Z0.0704
X2.0568 Y1.3112
X2.0575 Y1.31 Z0.0703
X2.0587 Y1.3093
X2.06 Y1.309 Z0.0702
X2.185 Z0.0659
X2.1863 Y1.3093 Z0.0658
X2.1875 Y1.31
X2.1882 Y1.3112 Z0.0657
X2.1885 Y1.3125
X2.1882 Y1.3138 Z0.0656
X2.1875 Y1.315
X2.1863 Y1.3157 Z0.0655
X2.185 Y1.316
X2.1848
X2.06 Z0.0611
X2.0587 Y1.3157
X2.0575 Y1.315 Z0.061
X2.0568 Y1.3138
X2.0565 Y1.3125 Z0.0609
X2.0568 Y1.3112
X2.0575 Y1.31 Z0.0608
X2.0587 Y1.3093
X2.06 Y1.309 Z0.0607
X2.185 Z0.0564
X2.1863 Y1.3093 Z0.0563
X2.1875 Y1.31
X2.1882 Y1.3112 Z0.0562
X2.1885 Y1.3125
X2.1882 Y1.3138 Z0.0561
X2.1875 Y1.315
X2.1863 Y1.3157 Z0.056
X2.185 Y1.316
X2.1848
X2.06 Z0.0516
X2.0587 Y1.3157
X2.0575 Y1.315 Z0.0515
X2.0568 Y1.3138
X2.0565 Y1.3125 Z0.0514
X2.0568 Y1.3112
X2.0575 Y1.31 Z0.0513
X2.0587 Y1.3093
X2.06 Y1.309 Z0.0512
X2.185 Z0.0469
X2.1863 Y1.3093 Z0.0468
X2.1875 Y1.31
X2.1882 Y1.3112 Z0.0467
X2.1885 Y1.3125
X2.1882 Y1.3138 Z0.0466
X2.1875 Y1.315
X2.1863 Y1.3157 Z0.0465
X2.185 Y1.316
X2.1848
X2.06 Z0.0421
X2.0587 Y1.3157
X2.0575 Y1.315 Z0.042
X2.0568 Y1.3138
X2.0565 Y1.3125 Z0.0419
X2.0568 Y1.3112
X2.0575 Y1.31 Z0.0418
X2.0587 Y1.3093
X2.06 Y1.309 Z0.0417
X2.185 Z0.0374
X2.1863 Y1.3093 Z0.0373
X2.1875 Y1.31
X2.1882 Y1.3112 Z0.0372
X2.1885 Y1.3125
X2.1882 Y1.3138 Z0.0371
X2.1875 Y1.315
X2.1863 Y1.3157 Z0.037
X2.185 Y1.316
X2.1848
X2.06 Z0.0326
X2.0587 Y1.3157
X2.0575 Y1.315 Z0.0325
X2.0568 Y1.3138
X2.0565 Y1.3125 Z0.0324
X2.0568 Y1.3112
X2.0575 Y1.31 Z0.0323
X2.0587 Y1.3093
X2.06 Y1.309 Z0.0322
X2.185 Z0.0279
X2.1863 Y1.3093 Z0.0278
X2.1875 Y1.31
X2.1882 Y1.3112 Z0.0277
X2.1885 Y1.3125
X2.1882 Y1.3138 Z0.0276
X2.1875 Y1.315
X2.1863 Y1.3157 Z0.0275
X2.185 Y1.316
X2.1848
X2.06 Z0.0231
X2.0587 Y1.3157
X2.0575 Y1.315 Z0.023
X2.0568 Y1.3138
X2.0565 Y1.3125 Z0.0229
X2.0568 Y1.3112
X2.0575 Y1.31 Z0.0228
X2.0587 Y1.3093
X2.06 Y1.309 Z0.0227
X2.185 Z0.0184
X2.1863 Y1.3093 Z0.0183
X2.1875 Y1.31
X2.1882 Y1.3112 Z0.0182
X2.1885 Y1.3125
X2.1882 Y1.3138 Z0.0181
X2.1875 Y1.315
X2.1863 Y1.3157 Z0.018
X2.185 Y1.316
X2.1848
X2.06 Z0.0136
X2.0587 Y1.3157
X2.0575 Y1.315 Z0.0135
X2.0568 Y1.3138
X2.0565 Y1.3125 Z0.0134
X2.0568 Y1.3112
X2.0575 Y1.31 Z0.0133
X2.0587 Y1.3093
X2.06 Y1.309
X2.185 Z0.0089
X2.1863 Y1.3093 Z0.0088
X2.1875 Y1.31
X2.1882 Y1.3112 Z0.0087
X2.1885 Y1.3125
X2.1882 Y1.3138 Z0.0086
X2.1875 Y1.315
X2.1863 Y1.3157 Z0.0085
X2.185 Y1.316
X2.1848
X2.06 Z0.0041
X2.0587 Y1.3157
X2.0575 Y1.315 Z0.004
X2.0568 Y1.3138
X2.0565 Y1.3125 Z0.0039
X2.0568 Y1.3112
X2.0575 Y1.31 Z0.0038
X2.0587 Y1.3093
X2.06 Y1.309
X2.185 Z-0.0006
X2.1863 Y1.3093 Z-0.0007
X2.1875 Y1.31
X2.1882 Y1.3112 Z-0.0008
X2.1885 Y1.3125
X2.1882 Y1.3138 Z-0.0009
X2.1875 Y1.315
X2.1863 Y1.3157
X2.185 Y1.316 Z-0.001
X2.1848
X2.06 Z-0.0054
X2.0587 Y1.3157
X2.0575 Y1.315 Z-0.0055
X2.0568 Y1.3138
X2.0565 Y1.3125 Z-0.0056
X2.0568 Y1.3112
X2.0575 Y1.31
X2.0587 Y1.3093 Z-0.0057
X2.06 Y1.309
X2.185 Z-0.0101
X2.1863 Y1.3093 Z-0.0102
X2.1875 Y1.31
X2.1882 Y1.3112 Z-0.0103
X2.1885 Y1.3125
X2.1882 Y1.3138 Z-0.0104
X2.1875 Y1.315
X2.1863 Y1.3157
X2.185 Y1.316 Z-0.0105
X2.1848
X2.06 Z-0.0149
X2.0587 Y1.3157
X2.0575 Y1.315 Z-0.015
X2.0568 Y1.3138
X2.0565 Y1.3125 Z-0.0151
X2.0568 Y1.3112
X2.0575 Y1.31
X2.0587 Y1.3093 Z-0.0152
X2.06 Y1.309
X2.185 Z-0.0196
X2.1863 Y1.3093 Z-0.0197
X2.1875 Y1.31
X2.1882 Y1.3112 Z-0.0198
X2.1885 Y1.3125
X2.1882 Y1.3138
X2.1875 Y1.315 Z-0.0199
X2.1863 Y1.3157
X2.185 Y1.316 Z-0.02
X2.1848
X2.06 F40.
X2.0587 Y1.3157
X2.0575 Y1.315
X2.0568 Y1.3138
X2.0565 Y1.3125
X2.0568 Y1.3112
X2.0575 Y1.31
X2.0587 Y1.3093
X2.06 Y1.309
X2.185
X2.1863 Y1.3093
X2.1875 Y1.31
X2.1882 Y1.3112
X2.1885 Y1.3125
X2.1882 Y1.3138
X2.1875 Y1.315
X2.1863 Y1.3157
X2.185 Y1.316
X2.1848
X2.06 Z-0.0244 F20.
X2.0587 Y1.3157
X2.0575 Y1.315 Z-0.0245
X2.0568 Y1.3138
X2.0565 Y1.3125
X2.0568 Y1.3112 Z-0.0246
X2.0575 Y1.31
X2.0587 Y1.3093 Z-0.0247
X2.06 Y1.309
X2.185 Z-0.0291
X2.1863 Y1.3093 Z-0.0292
X2.1875 Y1.31
X2.1882 Y1.3112 Z-0.0293
X2.1885 Y1.3125
X2.1882 Y1.3138
X2.1875 Y1.315 Z-0.0294
X2.1863 Y1.3157
X2.185 Y1.316 Z-0.0295
X2.156 Z-0.0305
X2.06 Z-0.0339
X2.0587 Y1.3157
X2.0575 Y1.315 Z-0.034
X2.0568 Y1.3138
X2.0565 Y1.3125
X2.0568 Y1.3112 Z-0.0341
X2.0575 Y1.31
X2.0587 Y1.3093 Z-0.0342
X2.06 Y1.309
X2.185 Z-0.0386
X2.1863 Y1.3093 Z-0.0387
X2.1875 Y1.31
X2.1882 Y1.3112
X2.1885 Y1.3125 Z-0.0388
X2.1882 Y1.3138
X2.1875 Y1.315 Z-0.0389
X2.1863 Y1.3157
X2.185 Y1.316 Z-0.039
X2.156 Z-0.04
X2.06 F40.
X2.0587 Y1.3157
X2.0575 Y1.315
X2.0568 Y1.3138
X2.0565 Y1.3125
X2.0568 Y1.3112
X2.0575 Y1.31
X2.0587 Y1.3093
X2.06 Y1.309
X2.185
X2.1863 Y1.3093
X2.1875 Y1.31
X2.1882 Y1.3112
X2.1885 Y1.3125
X2.1882 Y1.3138
X2.1875 Y1.315
X2.1863 Y1.3157
X2.185 Y1.316
X2.156
X2.06 Z-0.0434 F20.
X2.0587 Y1.3157
X2.0575 Y1.315
X2.0568 Y1.3138 Z-0.0435
X2.0565 Y1.3125
X2.0568 Y1.3112 Z-0.0436
X2.0575 Y1.31
X2.0587 Y1.3093 Z-0.0437
X2.06 Y1.309
X2.185 Z-0.0481
X2.1863 Y1.3093 Z-0.0482
X2.1875 Y1.31
X2.1882 Y1.3112
X2.1885 Y1.3125 Z-0.0483
X2.1882 Y1.3138
X2.1875 Y1.315 Z-0.0484
X2.1863 Y1.3157
X2.185 Y1.316 Z-0.0485
X2.06 Z-0.0529
X2.0587 Y1.3157
X2.0575 Y1.315
X2.0568 Y1.3138 Z-0.053
X2.0565 Y1.3125
X2.0568 Y1.3112 Z-0.0531
X2.0575 Y1.31
X2.0587 Y1.3093 Z-0.0532
X2.06 Y1.309
X2.185 Z-0.0576
X2.1863 Y1.3093
X2.1875 Y1.31 Z-0.0577
X2.1882 Y1.3112
X2.1885 Y1.3125 Z-0.0578
X2.1882 Y1.3138
X2.1875 Y1.315 Z-0.0579
X2.1863 Y1.3157
X2.185 Y1.316 Z-0.058
X2.1273 Z-0.06
X2.06 F40.
X2.0587 Y1.3157
X2.0575 Y1.315
X2.0568 Y1.3138
X2.0565 Y1.3125
X2.0568 Y1.3112
X2.0575 Y1.31
X2.0587 Y1.3093
X2.06 Y1.309
X2.185
X2.1863 Y1.3093
X2.1875 Y1.31
X2.1882 Y1.3112
X2.1885 Y1.3125
X2.1882 Y1.3138
X2.1875 Y1.315
X2.1863 Y1.3157
X2.185 Y1.316
X2.156
X2.1273
X2.06 Z-0.0624 F20.
X2.0587 Y1.3157
X2.0575 Y1.315
X2.0568 Y1.3138 Z-0.0625
X2.0565 Y1.3125
X2.0568 Y1.3112 Z-0.0626
X2.0575 Y1.31
X2.0587 Y1.3093 Z-0.0627
X2.06 Y1.309
X2.185 Z-0.0671
X2.1863 Y1.3093
X2.1875 Y1.31 Z-0.0672
X2.1882 Y1.3112
X2.1885 Y1.3125 Z-0.0673
X2.1882 Y1.3138
X2.1875 Y1.315 Z-0.0674
X2.1863 Y1.3157
X2.185 Y1.316 Z-0.0675
X2.06 Z-0.0718
X2.0587 Y1.3157 Z-0.0719
X2.0575 Y1.315
X2.0568 Y1.3138 Z-0.072
X2.0565 Y1.3125
X2.0568 Y1.3112 Z-0.0721
X2.0575 Y1.31
X2.0587 Y1.3093 Z-0.0722
X2.06 Y1.309
X2.185 Z-0.0766
X2.1863 Y1.3093
X2.1875 Y1.31 Z-0.0767
X2.1882 Y1.3112
X2.1885 Y1.3125 Z-0.0768
X2.1882 Y1.3138
X2.1875 Y1.315 Z-0.0769
X2.1863 Y1.3157
X2.185 Y1.316 Z-0.077
X2.0986 Z-0.08
X2.06 F40.
X2.0587 Y1.3157
X2.0575 Y1.315
X2.0568 Y1.3138
X2.0565 Y1.3125
X2.0568 Y1.3112
X2.0575 Y1.31
X2.0587 Y1.3093
X2.06 Y1.309
X2.185
X2.1863 Y1.3093
X2.1875 Y1.31
X2.1882 Y1.3112
X2.1885 Y1.3125
X2.1882 Y1.3138
X2.1875 Y1.315
X2.1863 Y1.3157
X2.185 Y1.316
X2.1273
X2.0986
X2.06 Z-0.0813 F20.
X2.0587 Y1.3157 Z-0.0814
X2.0575 Y1.315
X2.0568 Y1.3138 Z-0.0815
X2.0565 Y1.3125
X2.0568 Y1.3112 Z-0.0816
X2.0575 Y1.31
X2.0587 Y1.3093 Z-0.0817
X2.06 Y1.309
X2.185 Z-0.0861
X2.1863 Y1.3093
X2.1875 Y1.31 Z-0.0862
X2.1882 Y1.3112
X2.1885 Y1.3125 Z-0.0863
X2.1882 Y1.3138
X2.1875 Y1.315 Z-0.0864
X2.1863 Y1.3157
X2.185 Y1.316 Z-0.0865
X2.06 Z-0.0908
X2.0587 Y1.3157 Z-0.0909
X2.0575 Y1.315
X2.0568 Y1.3138 Z-0.091
X2.0565 Y1.3125
X2.0568 Y1.3112 Z-0.0911
X2.0575 Y1.31
X2.0587 Y1.3093 Z-0.0912
X2.06 Y1.309
X2.185 Z-0.0956
X2.1863 Y1.3093
X2.1875 Y1.31 Z-0.0957
X2.1882 Y1.3112
X2.1885 Y1.3125 Z-0.0958
X2.1882 Y1.3138
X2.1875 Y1.315 Z-0.0959
X2.1863 Y1.3157
X2.185 Y1.316 Z-0.096
X2.0698 Z-0.1
X2.06 F40.
X2.0587 Y1.3157
X2.0575 Y1.315
X2.0568 Y1.3138
X2.0565 Y1.3125
X2.0568 Y1.3112
X2.0575 Y1.31
X2.0587 Y1.3093
X2.06 Y1.309
X2.185
X2.1863 Y1.3093
X2.1875 Y1.31
X2.1882 Y1.3112
X2.1885 Y1.3125
X2.1882 Y1.3138
X2.1875 Y1.315
X2.1863 Y1.3157
X2.185 Y1.316
X2.0986
X2.0698
X2.06 Z-0.1003 F20.
X2.0587 Y1.3157 Z-0.1004
X2.0575 Y1.315
X2.0568 Y1.3138 Z-0.1005
X2.0565 Y1.3125
X2.0568 Y1.3112 Z-0.1006
X2.0575 Y1.31
X2.0587 Y1.3093 Z-0.1007
X2.06 Y1.309
X2.185 Z-0.1051
X2.1863 Y1.3093
X2.1875 Y1.31 Z-0.1052
X2.1882 Y1.3112
X2.1885 Y1.3125 Z-0.1053
X2.1882 Y1.3138
X2.1875 Y1.315 Z-0.1054
X2.1863 Y1.3157
X2.185 Y1.316 Z-0.1055
X2.06 Z-0.1098
X2.0587 Y1.3157 Z-0.1099
X2.0575 Y1.315
X2.0568 Y1.3138 Z-0.11
X2.0565 Y1.3125
X2.0568 Y1.3112 Z-0.1101
X2.0575 Y1.31
X2.0587 Y1.3093 Z-0.1102
X2.06 Y1.309
X2.185 Z-0.1146
X2.1863 Y1.3093
X2.1875 Y1.31 Z-0.1147
X2.1882 Y1.3112
X2.1885 Y1.3125 Z-0.1148
X2.1882 Y1.3138
X2.1875 Y1.315 Z-0.1149
X2.1863 Y1.3157
X2.185 Y1.316 Z-0.115
X2.06 Z-0.1193
X2.0587 Y1.3157 Z-0.1194
X2.0575 Y1.315
X2.0568 Y1.3138 Z-0.1195
X2.0565 Y1.3125
X2.0568 Y1.3112 Z-0.1196
X2.0575 Y1.31
X2.0587 Y1.3093 Z-0.1197
X2.06 Y1.309
X2.0679 Z-0.12
X2.185 F40.
X2.1863 Y1.3093
X2.1875 Y1.31
X2.1882 Y1.3112
X2.1885 Y1.3125
X2.1882 Y1.3138
X2.1875 Y1.315
X2.1863 Y1.3157
X2.185 Y1.316
X2.0698
X2.06
X2.0587 Y1.3157
X2.0575 Y1.315
X2.0568 Y1.3138
X2.0565 Y1.3125
X2.0568 Y1.3112
X2.0575 Y1.31
X2.0587 Y1.3093
X2.06 Y1.309
X2.0679
X2.185 Z-0.1241 F20.
X2.1863 Y1.3093
X2.1875 Y1.31 Z-0.1242
X2.1882 Y1.3112
X2.1885 Y1.3125 Z-0.1243
X2.1882 Y1.3138
X2.1875 Y1.315 Z-0.1244
X2.1863 Y1.3157
X2.185 Y1.316 Z-0.1245
X2.06 Z-0.1288
X2.0587 Y1.3157 Z-0.1289
X2.0575 Y1.315
X2.0568 Y1.3138 Z-0.129
X2.0565 Y1.3125
X2.0568 Y1.3112 Z-0.1291
X2.0575 Y1.31
X2.0587 Y1.3093 Z-0.1292
X2.06 Y1.309
X2.185 Z-0.1336
X2.1863 Y1.3093
X2.1875 Y1.31 Z-0.1337
X2.1882 Y1.3112
X2.1885 Y1.3125 Z-0.1338
X2.1882 Y1.3138
X2.1875 Y1.315 Z-0.1339
X2.1863 Y1.3157
X2.185 Y1.316 Z-0.134
X2.06 Z-0.1383
X2.0587 Y1.3157 Z-0.1384
X2.0575 Y1.315
X2.0568 Y1.3138 Z-0.1385
X2.0565 Y1.3125
X2.0568 Y1.3112 Z-0.1386
X2.0575 Y1.31
X2.0587 Y1.3093 Z-0.1387
X2.06 Y1.309
X2.0967 Z-0.14
X2.185 F40.
X2.1863 Y1.3093
X2.1875 Y1.31
X2.1882 Y1.3112
X2.1885 Y1.3125
X2.1882 Y1.3138
X2.1875 Y1.315
X2.1863 Y1.3157
X2.185 Y1.316
X2.06
X2.0587 Y1.3157
X2.0575 Y1.315
X2.0568 Y1.3138
X2.0565 Y1.3125
X2.0568 Y1.3112
X2.0575 Y1.31
X2.0587 Y1.3093
X2.06 Y1.309
X2.0967
X2.185 Z-0.1431 F20.
X2.1863 Y1.3093
X2.1875 Y1.31 Z-0.1432
X2.1882 Y1.3112
X2.1885 Y1.3125 Z-0.1433
X2.1882 Y1.3138
X2.1875 Y1.315 Z-0.1434
X2.1863 Y1.3157
X2.185 Y1.316 Z-0.1435
X2.06 Z-0.1478
X2.0587 Y1.3157 Z-0.1479
X2.0575 Y1.315
X2.0568 Y1.3138 Z-0.148
X2.0565 Y1.3125
X2.0568 Y1.3112 Z-0.1481
X2.0575 Y1.31
X2.0587 Y1.3093 Z-0.1482
X2.06 Y1.309
X2.185 Z-0.1526
X2.1863 Y1.3093
X2.1875 Y1.31 Z-0.1527
X2.1882 Y1.3112
X2.1885 Y1.3125 Z-0.1528
X2.1882 Y1.3138
X2.1875 Y1.315 Z-0.1529
X2.1863 Y1.3157
X2.185 Y1.316 Z-0.153
X2.06 Z-0.1573
X2.0587 Y1.3157 Z-0.1574
X2.0575 Y1.315
X2.0568 Y1.3138 Z-0.1575
X2.0565 Y1.3125
X2.0568 Y1.3112 Z-0.1576
X2.0575 Y1.31
X2.0587 Y1.3093 Z-0.1577
X2.06 Y1.309
X2.1254 Z-0.16
X2.185 F40.
X2.1863 Y1.3093
X2.1875 Y1.31
X2.1882 Y1.3112
X2.1885 Y1.3125
X2.1882 Y1.3138
X2.1875 Y1.315
X2.1863 Y1.3157
X2.185 Y1.316
X2.06
X2.0587 Y1.3157
X2.0575 Y1.315
X2.0568 Y1.3138
X2.0565 Y1.3125
X2.0568 Y1.3112
X2.0575 Y1.31
X2.0587 Y1.3093
X2.06 Y1.309
X2.0967
X2.1254
X2.185 Z-0.1621 F20.
X2.1863 Y1.3093
X2.1875 Y1.31 Z-0.1622
X2.1882 Y1.3112
X2.1885 Y1.3125 Z-0.1623
X2.1882 Y1.3138
X2.1875 Y1.315 Z-0.1624
X2.1863 Y1.3157
X2.185 Y1.316 Z-0.1625
X2.06 Z-0.1668
X2.0587 Y1.3157 Z-0.1669
X2.0575 Y1.315
X2.0568 Y1.3138 Z-0.167
X2.0565 Y1.3125
X2.0568 Y1.3112 Z-0.1671
X2.0575 Y1.31
X2.0587 Y1.3093 Z-0.1672
X2.06 Y1.309
X2.185 Z-0.1716
X2.1863 Y1.3093
X2.1875 Y1.31 Z-0.1717
X2.1882 Y1.3112
X2.1885 Y1.3125 Z-0.1718
X2.1882 Y1.3138
X2.1875 Y1.315 Z-0.1719
X2.1863 Y1.3157
X2.185 Y1.316 Z-0.172
X2.06 Z-0.1763
X2.0587 Y1.3157 Z-0.1764
X2.0575 Y1.315
X2.0568 Y1.3138 Z-0.1765
X2.0565 Y1.3125
X2.0568 Y1.3112 Z-0.1766
X2.0575 Y1.31
X2.0587 Y1.3093 Z-0.1767
X2.06 Y1.309
X2.1542 Z-0.18
X2.185 F40.
X2.1863 Y1.3093
X2.1875 Y1.31
X2.1882 Y1.3112
X2.1885 Y1.3125
X2.1882 Y1.3138
X2.1875 Y1.315
X2.1863 Y1.3157
X2.185 Y1.316
X2.06
X2.0587 Y1.3157
X2.0575 Y1.315
X2.0568 Y1.3138
X2.0565 Y1.3125
X2.0568 Y1.3112
X2.0575 Y1.31
X2.0587 Y1.3093
X2.06 Y1.309
X2.1254
X2.1542
X2.185 Z-0.1811 F20.
X2.1863 Y1.3093
X2.1875 Y1.31 Z-0.1812
X2.1882 Y1.3112
X2.1885 Y1.3125 Z-0.1813
X2.1882 Y1.3138
X2.1875 Y1.315 Z-0.1814
X2.1863 Y1.3157
X2.185 Y1.316 Z-0.1815
X2.06 Z-0.1858
X2.0587 Y1.3157 Z-0.1859
X2.0575 Y1.315
X2.0568 Y1.3138 Z-0.186
X2.0565 Y1.3125
X2.0568 Y1.3112 Z-0.1861
X2.0575 Y1.31
X2.0587 Y1.3093 Z-0.1862
X2.06 Y1.309
X2.185 Z-0.1906
X2.1863 Y1.3093
X2.1875 Y1.31 Z-0.1907
X2.1882 Y1.3112
X2.1885 Y1.3125 Z-0.1908
X2.1882 Y1.3138
X2.1875 Y1.315 Z-0.1909
X2.1863 Y1.3157
X2.185 Y1.316 Z-0.191
X2.06 Z-0.1953
X2.0587 Y1.3157 Z-0.1954
X2.0575 Y1.315
X2.0568 Y1.3138 Z-0.1955
X2.0565 Y1.3125
X2.0568 Y1.3112 Z-0.1956
X2.0575 Y1.31
X2.0587 Y1.3093 Z-0.1957
X2.06 Y1.309
X2.1829 Z-0.2
X2.185 F40.
X2.1863 Y1.3093
X2.1875 Y1.31
X2.1882 Y1.3112
X2.1885 Y1.3125
X2.1882 Y1.3138
X2.1875 Y1.315
X2.1863 Y1.3157
X2.185 Y1.316
X2.06
X2.0587 Y1.3157
X2.0575 Y1.315
X2.0568 Y1.3138
X2.0565 Y1.3125
X2.0568 Y1.3112
X2.0575 Y1.31
X2.0587 Y1.3093
X2.06 Y1.309
X2.1542
X2.1829
X2.185 Z-0.2001 F20.
X2.1863 Y1.3093
X2.1875 Y1.31 Z-0.2002
X2.1882 Y1.3112
X2.1885 Y1.3125 Z-0.2003
X2.1882 Y1.3138
X2.1875 Y1.315 Z-0.2004
X2.1863 Y1.3157
X2.185 Y1.316 Z-0.2005
X2.06 Z-0.2048
X2.0587 Y1.3157 Z-0.2049
X2.0575 Y1.315
X2.0568 Y1.3138 Z-0.205
X2.0565 Y1.3125
X2.0568 Y1.3112 Z-0.2051
X2.0575 Y1.31
X2.0587 Y1.3093 Z-0.2052
X2.06 Y1.309
X2.185 Z-0.2096
X2.1863 Y1.3093
X2.1875 Y1.31 Z-0.2097
X2.1882 Y1.3112
X2.1885 Y1.3125 Z-0.2098
X2.1882 Y1.3138
X2.1875 Y1.315 Z-0.2099
X2.1863 Y1.3157
X2.185 Y1.316 Z-0.21
X2.06 Z-0.2143
X2.0587 Y1.3157 Z-0.2144
X2.0575 Y1.315
X2.0568 Y1.3138 Z-0.2145
X2.0565 Y1.3125
X2.0568 Y1.3112 Z-0.2146
X2.0575 Y1.31
X2.0587 Y1.3093 Z-0.2147
X2.06 Y1.309
X2.185 Z-0.2191
X2.1863 Y1.3093
X2.1875 Y1.31 Z-0.2192
X2.1882 Y1.3112
X2.1885 Y1.3125 Z-0.2193
X2.1882 Y1.3138
X2.1875 Y1.315 Z-0.2194
X2.1863 Y1.3157
X2.185 Y1.316 Z-0.2195
X2.1693 Z-0.22
X2.06 F40.
X2.0587 Y1.3157
X2.0575 Y1.315
X2.0568 Y1.3138
X2.0565 Y1.3125
X2.0568 Y1.3112
X2.0575 Y1.31
X2.0587 Y1.3093
X2.06 Y1.309
X2.1829
X2.185
X2.1863 Y1.3093
X2.1875 Y1.31
X2.1882 Y1.3112
X2.1885 Y1.3125
X2.1882 Y1.3138
X2.1875 Y1.315
X2.1863 Y1.3157
X2.185 Y1.316
X2.1693
X2.06 Z-0.2238 F20.
X2.0587 Y1.3157 Z-0.2239
X2.0575 Y1.315
X2.0568 Y1.3138 Z-0.224
X2.0565 Y1.3125
X2.0568 Y1.3112 Z-0.2241
X2.0575 Y1.31
X2.0587 Y1.3093 Z-0.2242
X2.06 Y1.309
X2.185 Z-0.2286
X2.1863 Y1.3093
X2.1875 Y1.31 Z-0.2287
X2.1882 Y1.3112
X2.1885 Y1.3125 Z-0.2288
X2.1882 Y1.3138
X2.1875 Y1.315 Z-0.2289
X2.1863 Y1.3157
X2.185 Y1.316 Z-0.229
X2.06 Z-0.2333
X2.0587 Y1.3157 Z-0.2334
X2.0575 Y1.315
X2.0568 Y1.3138 Z-0.2335
X2.0565 Y1.3125
X2.0568 Y1.3112 Z-0.2336
X2.0575 Y1.31
X2.0587 Y1.3093 Z-0.2337
X2.06 Y1.309
X2.185 Z-0.2381
X2.1863 Y1.3093
X2.1875 Y1.31 Z-0.2382
X2.1882 Y1.3112
X2.1885 Y1.3125 Z-0.2383
X2.1882 Y1.3138
X2.1875 Y1.315 Z-0.2384
X2.1863 Y1.3157
X2.185 Y1.316
X2.1406 Z-0.24
X2.06 F40.
X2.0587 Y1.3157
X2.0575 Y1.315
X2.0568 Y1.3138
X2.0565 Y1.3125
X2.0568 Y1.3112
X2.0575 Y1.31
X2.0587 Y1.3093
X2.06 Y1.309
X2.185
X2.1863 Y1.3093
X2.1875 Y1.31
X2.1882 Y1.3112
X2.1885 Y1.3125
X2.1882 Y1.3138
X2.1875 Y1.315
X2.1863 Y1.3157
X2.185 Y1.316
X2.1406
X2.06 Z-0.2428 F20.
X2.0587 Y1.3157 Z-0.2429
X2.0575 Y1.315
X2.0568 Y1.3138 Z-0.243
X2.0565 Y1.3125
X2.0568 Y1.3112 Z-0.2431
X2.0575 Y1.31
X2.0587 Y1.3093 Z-0.2432
X2.06 Y1.309
X2.185 Z-0.2476
X2.1863 Y1.3093
X2.1875 Y1.31 Z-0.2477
X2.1882 Y1.3112
X2.1885 Y1.3125 Z-0.2478
X2.1882 Y1.3138
X2.1875 Y1.315 Z-0.2479
X2.1863 Y1.3157
X2.185 Y1.316
X2.06 Z-0.2523
X2.0587 Y1.3157 Z-0.2524
X2.0575 Y1.315
X2.0568 Y1.3138 Z-0.2525
X2.0565 Y1.3125
X2.0568 Y1.3112 Z-0.2526
X2.0575 Y1.31
X2.0587 Y1.3093
X2.06 Y1.309 Z-0.2527
X2.185 Z-0.2571
X2.1863 Y1.3093
X2.1875 Y1.31 Z-0.2572
X2.1882 Y1.3112
X2.1885 Y1.3125 Z-0.2573
X2.1882 Y1.3138
X2.1875 Y1.315 Z-0.2574
X2.1863 Y1.3157
X2.185 Y1.316
X2.1119 Z-0.26
X2.06 F40.
X2.0587 Y1.3157
X2.0575 Y1.315
X2.0568 Y1.3138
X2.0565 Y1.3125
X2.0568 Y1.3112
X2.0575 Y1.31
X2.0587 Y1.3093
X2.06 Y1.309
X2.185
X2.1863 Y1.3093
X2.1875 Y1.31
X2.1882 Y1.3112
X2.1885 Y1.3125
X2.1882 Y1.3138
X2.1875 Y1.315
X2.1863 Y1.3157
X2.185 Y1.316
X2.1406
X2.1119
X2.06 Z-0.2618 F20.
X2.0587 Y1.3157 Z-0.2619
X2.0575 Y1.315
X2.0568 Y1.3138 Z-0.262
X2.0565 Y1.3125
X2.0568 Y1.3112 Z-0.2621
X2.0575 Y1.31
X2.0587 Y1.3093
X2.06 Y1.309 Z-0.2622
X2.185 Z-0.2666
X2.1863 Y1.3093
X2.1875 Y1.31 Z-0.2667
X2.1882 Y1.3112
X2.1885 Y1.3125 Z-0.2668
X2.1882 Y1.3138
X2.1875 Y1.315
X2.1863 Y1.3157 Z-0.2669
X2.185 Y1.316
X2.06 Z-0.2713
X2.0587 Y1.3157 Z-0.2714
X2.0575 Y1.315
X2.0568 Y1.3138 Z-0.2715
X2.0565 Y1.3125
X2.0568 Y1.3112
X2.0575 Y1.31 Z-0.2716
X2.0587 Y1.3093
X2.06 Y1.309 Z-0.2717
X2.185 Z-0.2761
X2.1863 Y1.3093
X2.1875 Y1.31 Z-0.2762
X2.1882 Y1.3112
X2.1885 Y1.3125 Z-0.2763
X2.1882 Y1.3138
X2.1875 Y1.315
X2.1863 Y1.3157 Z-0.2764
X2.185 Y1.316
X2.0831 Z-0.28
X2.06 F40.
X2.0587 Y1.3157
X2.0575 Y1.315
X2.0568 Y1.3138
X2.0565 Y1.3125
X2.0568 Y1.3112
X2.0575 Y1.31
X2.0587 Y1.3093
X2.06 Y1.309
X2.185
X2.1863 Y1.3093
X2.1875 Y1.31
X2.1882 Y1.3112
X2.1885 Y1.3125
X2.1882 Y1.3138
X2.1875 Y1.315
X2.1863 Y1.3157
X2.185 Y1.316
X2.1119
X2.0831
X2.06 Z-0.2808 F20.
X2.0587 Y1.3157 Z-0.2809
X2.0575 Y1.315
X2.0568 Y1.3138 Z-0.281
X2.0565 Y1.3125
X2.0568 Y1.3112
X2.0575 Y1.31 Z-0.2811
X2.0587 Y1.3093
X2.06 Y1.309 Z-0.2812
X2.185 Z-0.2856
X2.1863 Y1.3093
X2.1875 Y1.31 Z-0.2857
X2.1882 Y1.3112
X2.1885 Y1.3125
X2.1882 Y1.3138 Z-0.2858
X2.1875 Y1.315
X2.1863 Y1.3157 Z-0.2859
X2.185 Y1.316
X2.0687 Z-0.29
X2.06 F40.
X2.0587 Y1.3157
X2.0575 Y1.315
X2.0568 Y1.3138
X2.0565 Y1.3125
X2.0568 Y1.3112
X2.0575 Y1.31
X2.0587 Y1.3093
X2.06 Y1.309
X2.185
X2.1863 Y1.3093
X2.1875 Y1.31
X2.1882 Y1.3112
X2.1885 Y1.3125
X2.1882 Y1.3138
X2.1875 Y1.315
X2.1863 Y1.3157
X2.185 Y1.316
X2.0831
X2.0687
X2.0663 Z-0.2897
X2.064 Z-0.289
X2.0618 Z-0.2878
X2.06 Z-0.2861
X2.0589 Y1.3158 Z-0.2843
X2.0579 Y1.3153 Z-0.2824
X2.0573 Y1.3148 Z-0.2782
G0 Z0.6
g0 x0 y0
G17

M9
M30
