(COMBO BRACKET CUTOUT )
(T1  D=6.35 CR=0. - ZMIN=-4.675 - FLAT END MILL)
G90 G94 G91.1 G40 G49 G17
G21
G0 Z15

(2D CONTOUR1)
M5
T1 M6
S15000 M3
G54
M8
G0 X36.974 Y77.671
G43 Z16. H1
Z6.
G1 Z4.135 F1600.
X36.978 Y77.678 Z4.036
X36.992 Y77.696 Z3.939
X37.015 Y77.727 Z3.847
X37.045 Y77.769 Z3.762
X37.084 Y77.821 Z3.686
X37.129 Y77.882 Z3.621
X37.179 Y77.951 Z3.569
X37.234 Y78.025 Z3.531
X37.291 Y78.103 Z3.508
X37.35 Y78.183 Z3.5
X37.726 Y78.695
G2 X38.614 Y78.83 I0.512 J-0.376
X45.085 Y66.04 Z3.24 I-9.404 J-12.79
G1 Y59.69 Z3.13
G2 X29.21 Y43.815 Z2.694 I-15.875 J0.
G1 X26.035 Z2.639
G3 X19.685 Y37.465 Z2.465 I0. J-6.35
G1 Y18.415 Z2.132
G3 X26.035 Y12.065 Z1.958 I6.35 J0.
G1 X95.25 Z0.75
X95.885
G3 X102.235 Y18.415 I0. J6.35
G1 Y37.465
G3 X95.885 Y43.815 I-6.35 J0.
G1 X80.01
G2 X76.835 Y46.99 I0. J3.175
G1 Y107.315
G3 X70.485 Y113.665 I-6.35 J0.
G1 X13.335
G3 X6.985 Y107.315 I0. J-6.35
G1 Y88.265
G3 X13.335 Y81.915 I6.35 J0.
G1 X29.21
G2 X45.085 Y66.04 I0. J-15.875
G1 Y59.69
G2 X29.21 Y43.815 I-15.875 J0.
G1 X26.035
G3 X19.685 Y37.465 I0. J-6.35
G1 Y18.415
G3 X26.035 Y12.065 I6.35 J0.
G1 X95.25
X95.885 Z0.739
G3 X102.235 Y18.415 Z0.565 I0. J6.35
G1 Y22.128 Z0.5
Y37.465
G3 X95.885 Y43.815 I-6.35 J0.
G1 X80.01
G2 X76.835 Y46.99 I0. J3.175
G1 Y107.315
G3 X70.485 Y113.665 I-6.35 J0.
G1 X13.335
G3 X6.985 Y107.315 I0. J-6.35
G1 Y88.265
G3 X13.335 Y81.915 I6.35 J0.
G1 X29.21
G2 X45.085 Y66.04 I0. J-15.875
G1 Y59.69
G2 X29.21 Y43.815 I-15.875 J0.
G1 X26.035
G3 X19.685 Y37.465 I0. J-6.35
G1 Y18.415
G3 X26.035 Y12.065 I6.35 J0.
G1 X95.25
X95.885
G3 X102.235 Y18.415 I0. J6.35
G1 Y22.128
Y36.45 Z0.25
Y37.465
G3 X95.885 Y43.815 I-6.35 J0.
G1 X80.01
G2 X76.835 Y46.99 I0. J3.175
G1 Y107.315
G3 X70.485 Y113.665 I-6.35 J0.
G1 X13.335
G3 X6.985 Y107.315 I0. J-6.35
G1 Y88.265
G3 X13.335 Y81.915 I6.35 J0.
G1 X29.21
G2 X45.085 Y66.04 I0. J-15.875
G1 Y59.69
G2 X29.21 Y43.815 I-15.875 J0.
G1 X26.035
G3 X19.685 Y37.465 I0. J-6.35
G1 Y18.415
G3 X26.035 Y12.065 I6.35 J0.
G1 X95.885
G3 X102.235 Y18.415 I0. J6.35
G1 Y36.45
Y37.465 Z0.232
G3 X95.885 Y43.815 Z0.058 I-6.35 J0.
G1 X92.552 Z0.
X80.01
G2 X76.835 Y46.99 I0. J3.175
G1 Y107.315
G3 X70.485 Y113.665 I-6.35 J0.
G1 X13.335
G3 X6.985 Y107.315 I0. J-6.35
G1 Y88.265
G3 X13.335 Y81.915 I6.35 J0.
G1 X29.21
G2 X45.085 Y66.04 I0. J-15.875
G1 Y59.69
G2 X29.21 Y43.815 I-15.875 J0.
G1 X26.035
G3 X19.685 Y37.465 I0. J-6.35
G1 Y18.415
G3 X26.035 Y12.065 I6.35 J0.
G1 X95.885
G3 X102.235 Y18.415 I0. J6.35
G1 Y36.45
Y37.465
G3 X95.885 Y43.815 I-6.35 J0.
G1 X92.552
X80.01 Z-0.219
G2 X78.321 Y44.301 Z-0.25 I0. J3.175
X76.835 Y46.99 I1.689 J2.689
G1 Y107.315
G3 X70.485 Y113.665 I-6.35 J0.
G1 X13.335
G3 X6.985 Y107.315 I0. J-6.35
G1 Y88.265
G3 X13.335 Y81.915 I6.35 J0.
G1 X29.21
G2 X45.085 Y66.04 I0. J-15.875
G1 Y59.69
G2 X29.21 Y43.815 I-15.875 J0.
G1 X26.035
G3 X19.685 Y37.465 I0. J-6.35
G1 Y18.415
G3 X26.035 Y12.065 I6.35 J0.
G1 X95.885
G3 X102.235 Y18.415 I0. J6.35
G1 Y37.465
G3 X95.885 Y43.815 I-6.35 J0.
G1 X80.01
G2 X78.321 Y44.301 I0. J3.175
X76.835 Y46.99 Z-0.306 I1.689 J2.689
G1 Y58.106 Z-0.5
Y107.315
G3 X70.485 Y113.665 I-6.35 J0.
G1 X13.335
G3 X6.985 Y107.315 I0. J-6.35
G1 Y88.265
G3 X13.335 Y81.915 I6.35 J0.
G1 X29.21
G2 X45.085 Y66.04 I0. J-15.875
G1 Y59.69
G2 X29.21 Y43.815 I-15.875 J0.
G1 X26.035
G3 X19.685 Y37.465 I0. J-6.35
G1 Y18.415
G3 X26.035 Y12.065 I6.35 J0.
G1 X95.885
G3 X102.235 Y18.415 I0. J6.35
G1 Y37.465
G3 X95.885 Y43.815 I-6.35 J0.
G1 X80.01
G2 X76.835 Y46.99 I0. J3.175
G1 Y58.106
Y72.429 Z-0.75
Y107.315
G3 X70.485 Y113.665 I-6.35 J0.
G1 X13.335
G3 X6.985 Y107.315 I0. J-6.35
G1 Y88.265
G3 X13.335 Y81.915 I6.35 J0.
G1 X29.21
G2 X45.085 Y66.04 I0. J-15.875
G1 Y59.69
G2 X29.21 Y43.815 I-15.875 J0.
G1 X26.035
G3 X19.685 Y37.465 I0. J-6.35
G1 Y18.415
G3 X26.035 Y12.065 I6.35 J0.
G1 X95.885
G3 X102.235 Y18.415 I0. J6.35
G1 Y37.465
G3 X95.885 Y43.815 I-6.35 J0.
G1 X80.01
G2 X76.835 Y46.99 I0. J3.175
G1 Y72.429
Y86.751 Z-1.
Y107.315
G3 X70.485 Y113.665 I-6.35 J0.
G1 X13.335
G3 X6.985 Y107.315 I0. J-6.35
G1 Y88.265
G3 X13.335 Y81.915 I6.35 J0.
G1 X29.21
G2 X45.085 Y66.04 I0. J-15.875
G1 Y59.69
G2 X29.21 Y43.815 I-15.875 J0.
G1 X26.035
G3 X19.685 Y37.465 I0. J-6.35
G1 Y18.415
G3 X26.035 Y12.065 I6.35 J0.
G1 X95.885
G3 X102.235 Y18.415 I0. J6.35
G1 Y37.465
G3 X95.885 Y43.815 I-6.35 J0.
G1 X80.01
G2 X76.835 Y46.99 I0. J3.175
G1 Y72.429
Y86.751
Y101.074 Z-1.25
Y107.315
G3 X70.485 Y113.665 I-6.35 J0.
G1 X13.335
G3 X6.985 Y107.315 I0. J-6.35
G1 Y88.265
G3 X13.335 Y81.915 I6.35 J0.
G1 X29.21
G2 X45.085 Y66.04 I0. J-15.875
G1 Y59.69
G2 X29.21 Y43.815 I-15.875 J0.
G1 X26.035
G3 X19.685 Y37.465 I0. J-6.35
G1 Y18.415
G3 X26.035 Y12.065 I6.35 J0.
G1 X95.885
G3 X102.235 Y18.415 I0. J6.35
G1 Y37.465
G3 X95.885 Y43.815 I-6.35 J0.
G1 X80.01
G2 X76.835 Y46.99 I0. J3.175
G1 Y86.751
Y101.074
Y107.315 Z-1.359
G3 X72.351 Y113.385 Z-1.5 I-6.35 J0.
X70.485 Y113.665 I-1.866 J-6.07
G1 X13.335
G3 X6.985 Y107.315 I0. J-6.35
G1 Y88.265
G3 X13.335 Y81.915 I6.35 J0.
G1 X29.21
G2 X45.085 Y66.04 I0. J-15.875
G1 Y59.69
G2 X29.21 Y43.815 I-15.875 J0.
G1 X26.035
G3 X19.685 Y37.465 I0. J-6.35
G1 Y18.415
G3 X26.035 Y12.065 I6.35 J0.
G1 X95.885
G3 X102.235 Y18.415 I0. J6.35
G1 Y37.465
G3 X95.885 Y43.815 I-6.35 J0.
G1 X80.01
G2 X76.835 Y46.99 I0. J3.175
G1 Y101.074
Y107.315
G3 X72.351 Y113.385 I-6.35 J0.
X70.485 Y113.665 Z-1.533 I-1.866 J-6.07
G1 X58.056 Z-1.75
X13.335
G3 X6.985 Y107.315 I0. J-6.35
G1 Y88.265
G3 X13.335 Y81.915 I6.35 J0.
G1 X29.21
G2 X45.085 Y66.04 I0. J-15.875
G1 Y59.69
G2 X29.21 Y43.815 I-15.875 J0.
G1 X26.035
G3 X19.685 Y37.465 I0. J-6.35
G1 Y18.415
G3 X26.035 Y12.065 I6.35 J0.
G1 X95.885
G3 X102.235 Y18.415 I0. J6.35
G1 Y37.465
G3 X95.885 Y43.815 I-6.35 J0.
G1 X80.01
G2 X76.835 Y46.99 I0. J3.175
G1 Y107.315
G3 X70.485 Y113.665 I-6.35 J0.
G1 X58.056
X43.734 Z-2.
X13.335
G3 X6.985 Y107.315 I0. J-6.35
G1 Y88.265
G3 X13.335 Y81.915 I6.35 J0.
G1 X29.21
G2 X45.085 Y66.04 I0. J-15.875
G1 Y59.69
G2 X29.21 Y43.815 I-15.875 J0.
G1 X26.035
G3 X19.685 Y37.465 I0. J-6.35
G1 Y18.415
G3 X26.035 Y12.065 I6.35 J0.
G1 X95.885
G3 X102.235 Y18.415 I0. J6.35
G1 Y37.465
G3 X95.885 Y43.815 I-6.35 J0.
G1 X80.01
G2 X76.835 Y46.99 I0. J3.175
G1 Y107.315
G3 X70.485 Y113.665 I-6.35 J0.
G1 X43.734
X29.411 Z-2.25
X13.335
G3 X6.985 Y107.315 I0. J-6.35
G1 Y88.265
G3 X13.335 Y81.915 I6.35 J0.
G1 X29.21
G2 X45.085 Y66.04 I0. J-15.875
G1 Y59.69
G2 X29.21 Y43.815 I-15.875 J0.
G1 X26.035
G3 X19.685 Y37.465 I0. J-6.35
G1 Y18.415
G3 X26.035 Y12.065 I6.35 J0.
G1 X95.885
G3 X102.235 Y18.415 I0. J6.35
G1 Y37.465
G3 X95.885 Y43.815 I-6.35 J0.
G1 X80.01
G2 X76.835 Y46.99 I0. J3.175
G1 Y107.315
G3 X70.485 Y113.665 I-6.35 J0.
G1 X43.734
X29.411
X15.089 Z-2.5
X13.335
G3 X6.985 Y107.315 I0. J-6.35
G1 Y88.265
G3 X13.335 Y81.915 I6.35 J0.
G1 X29.21
G2 X45.085 Y66.04 I0. J-15.875
G1 Y59.69
G2 X29.21 Y43.815 I-15.875 J0.
G1 X26.035
G3 X19.685 Y37.465 I0. J-6.35
G1 Y18.415
G3 X26.035 Y12.065 I6.35 J0.
G1 X95.885
G3 X102.235 Y18.415 I0. J6.35
G1 Y37.465
G3 X95.885 Y43.815 I-6.35 J0.
G1 X80.01
G2 X76.835 Y46.99 I0. J3.175
G1 Y107.315
G3 X70.485 Y113.665 I-6.35 J0.
G1 X29.411
X15.089
X13.335 Z-2.531
G3 X6.985 Y107.315 Z-2.705 I0. J-6.35
G1 Y104.721 Z-2.75
Y88.265
G3 X13.335 Y81.915 I6.35 J0.
G1 X29.21
G2 X45.085 Y66.04 I0. J-15.875
G1 Y59.69
G2 X29.21 Y43.815 I-15.875 J0.
G1 X26.035
G3 X19.685 Y37.465 I0. J-6.35
G1 Y18.415
G3 X26.035 Y12.065 I6.35 J0.
G1 X95.885
G3 X102.235 Y18.415 I0. J6.35
G1 Y37.465
G3 X95.885 Y43.815 I-6.35 J0.
G1 X80.01
G2 X76.835 Y46.99 I0. J3.175
G1 Y107.315
G3 X70.485 Y113.665 I-6.35 J0.
G1 X15.089
X13.335
G3 X6.985 Y107.315 I0. J-6.35
G1 Y104.721
Y90.398 Z-3.
Y88.265
G3 X13.335 Y81.915 I6.35 J0.
G1 X29.21
G2 X45.085 Y66.04 I0. J-15.875
G1 Y59.69
G2 X29.21 Y43.815 I-15.875 J0.
G1 X26.035
G3 X19.685 Y37.465 I0. J-6.35
G1 Y18.415
G3 X26.035 Y12.065 I6.35 J0.
G1 X95.885
G3 X102.235 Y18.415 I0. J6.35
G1 Y37.465
G3 X95.885 Y43.815 I-6.35 J0.
G1 X80.01
G2 X76.835 Y46.99 I0. J3.175
G1 Y107.315
G3 X70.485 Y113.665 I-6.35 J0.
G1 X13.335
G3 X6.985 Y107.315 I0. J-6.35
G1 Y90.398
Y88.265 Z-3.037
G3 X13.335 Y81.915 Z-3.211 I6.35 J0.
G1 X15.55 Z-3.25
X29.21
G2 X45.085 Y66.04 I0. J-15.875
G1 Y59.69
G2 X29.21 Y43.815 I-15.875 J0.
G1 X26.035
G3 X19.685 Y37.465 I0. J-6.35
G1 Y18.415
G3 X26.035 Y12.065 I6.35 J0.
G1 X95.885
G3 X102.235 Y18.415 I0. J6.35
G1 Y37.465
G3 X95.885 Y43.815 I-6.35 J0.
G1 X80.01
G2 X76.835 Y46.99 I0. J3.175
G1 Y107.315
G3 X70.485 Y113.665 I-6.35 J0.
G1 X13.335
G3 X6.985 Y107.315 I0. J-6.35
G1 Y90.398
Y88.265
G3 X13.335 Y81.915 I6.35 J0.
G1 X15.55
X29.21 Z-3.488
G2 X29.872 Y81.901 Z-3.5 I0. J-15.875
X45.085 Y66.04 I-0.662 J-15.861
G1 Y59.69
G2 X29.21 Y43.815 I-15.875 J0.
G1 X26.035
G3 X19.685 Y37.465 I0. J-6.35
G1 Y18.415
G3 X26.035 Y12.065 I6.35 J0.
G1 X95.885
G3 X102.235 Y18.415 I0. J6.35
G1 Y37.465
G3 X95.885 Y43.815 I-6.35 J0.
G1 X80.01
G2 X76.835 Y46.99 I0. J3.175
G1 Y107.315
G3 X70.485 Y113.665 I-6.35 J0.
G1 X13.335
G3 X6.985 Y107.315 I0. J-6.35
G1 Y88.265
G3 X13.335 Y81.915 I6.35 J0.
G1 X29.21
G2 X29.872 Y81.901 I0. J-15.875
X42.067 Y75.353 Z-3.75 I-0.662 J-15.861
X45.085 Y66.04 I-12.857 J-9.313
G1 Y59.69
G2 X29.21 Y43.815 I-15.875 J0.
G1 X26.035
G3 X19.685 Y37.465 I0. J-6.35
G1 Y18.415
G3 X26.035 Y12.065 I6.35 J0.
G1 X95.885
G3 X102.235 Y18.415 I0. J6.35
G1 Y37.465
G3 X95.885 Y43.815 I-6.35 J0.
G1 X80.01
G2 X76.835 Y46.99 I0. J3.175
G1 Y107.315
G3 X70.485 Y113.665 I-6.35 J0.
G1 X13.335
G3 X6.985 Y107.315 I0. J-6.35
G1 Y88.265
G3 X13.335 Y81.915 I6.35 J0.
G1 X29.21
G2 X42.067 Y75.353 I0. J-15.875
X45.085 Y66.04 Z-3.924 I-12.857 J-9.313
G1 Y61.669 Z-4.
Y59.69
G2 X29.21 Y43.815 I-15.875 J0.
G1 X26.035
G3 X19.685 Y37.465 I0. J-6.35
G1 Y18.415
G3 X26.035 Y12.065 I6.35 J0.
G1 X95.885
G3 X102.235 Y18.415 I0. J6.35
G1 Y37.465
G3 X95.885 Y43.815 I-6.35 J0.
G1 X80.01
G2 X76.835 Y46.99 I0. J3.175
G1 Y107.315
G3 X70.485 Y113.665 I-6.35 J0.
G1 X13.335
G3 X6.985 Y107.315 I0. J-6.35
G1 Y88.265
G3 X13.335 Y81.915 I6.35 J0.
G1 X29.21
G2 X45.085 Y66.04 I0. J-15.875
G1 Y61.669
Y59.69 Z-4.035
G2 X40.523 Y48.553 Z-4.25 I-15.875 J0.
X29.21 Y43.815 I-11.313 J11.137
G1 X26.035
G3 X19.685 Y37.465 I0. J-6.35
G1 Y18.415
G3 X26.035 Y12.065 I6.35 J0.
G1 X95.885
G3 X102.235 Y18.415 I0. J6.35
G1 Y37.465
G3 X95.885 Y43.815 I-6.35 J0.
G1 X80.01
G2 X76.835 Y46.99 I0. J3.175
G1 Y107.315
G3 X70.485 Y113.665 I-6.35 J0.
G1 X13.335
G3 X6.985 Y107.315 I0. J-6.35
G1 Y88.265
G3 X13.335 Y81.915 I6.35 J0.
G1 X29.21
G2 X45.085 Y66.04 I0. J-15.875
G1 Y61.669
Y59.69
G2 X40.523 Y48.553 I-15.875 J0.
X29.21 Y43.815 Z-4.47 I-11.313 J11.137
G1 X27.481 Z-4.5
X26.035
G3 X19.685 Y37.465 I0. J-6.35
G1 Y18.415
G3 X26.035 Y12.065 I6.35 J0.
G1 X95.885
G3 X102.235 Y18.415 I0. J6.35
G1 Y37.465
G3 X95.885 Y43.815 I-6.35 J0.
G1 X80.01
G2 X76.835 Y46.99 I0. J3.175
G1 Y107.315
G3 X70.485 Y113.665 I-6.35 J0.
G1 X13.335
G3 X6.985 Y107.315 I0. J-6.35
G1 Y88.265
G3 X13.335 Y81.915 I6.35 J0.
G1 X29.21
G2 X45.085 Y66.04 I0. J-15.875
G1 Y59.69
G2 X29.21 Y43.815 I-15.875 J0.
G1 X27.481
X26.035 Z-4.525
G3 X19.837 Y38.848 Z-4.675 I0. J-6.35
X19.685 Y37.465 I6.198 J-1.383
G1 Y18.415
G3 X26.035 Y12.065 I6.35 J0.
G1 X95.885
G3 X102.235 Y18.415 I0. J6.35
G1 Y37.465
G3 X95.885 Y43.815 I-6.35 J0.
G1 X80.01
G2 X76.835 Y46.99 I0. J3.175
G1 Y107.315
G3 X70.485 Y113.665 I-6.35 J0.
G1 X13.335
G3 X6.985 Y107.315 I0. J-6.35
G1 Y88.265
G3 X13.335 Y81.915 I6.35 J0.
G1 X29.21
G2 X45.085 Y66.04 I0. J-15.875
G1 Y59.69
G2 X29.21 Y43.815 I-15.875 J0.
G1 X27.481
X26.035
G3 X19.837 Y38.848 I0. J-6.35
G2 X19.079 Y38.367 I-0.62 J0.138
G1 X18.46 Y38.505
X18.363 Y38.527 Z-4.667
X18.268 Y38.548 Z-4.644
X18.178 Y38.568 Z-4.606
X18.095 Y38.586 Z-4.554
X18.021 Y38.603 Z-4.489
X17.958 Y38.617 Z-4.413
X17.907 Y38.628 Z-4.328
X17.87 Y38.637 Z-4.236
X17.848 Y38.642 Z-4.139
X17.84 Y38.643 Z-4.04
G0 Z6.
X153.526 Y49.329
G1 Z4.135 F1600.
X153.522 Y49.322 Z4.036
X153.508 Y49.304 Z3.939
X153.485 Y49.273 Z3.847
X153.455 Y49.231 Z3.762
X153.416 Y49.179 Z3.686
X153.371 Y49.118 Z3.621
X153.321 Y49.049 Z3.569
X153.266 Y48.975 Z3.531
X153.209 Y48.897 Z3.508
X153.15 Y48.817 Z3.5
X152.774 Y48.305
G2 X151.886 Y48.17 I-0.512 J0.376
X145.415 Y60.96 Z3.24 I9.404 J12.79
G1 Y67.31 Z3.13
G2 X161.29 Y83.185 Z2.694 I15.875 J0.
G1 X164.465 Z2.639
G3 X170.815 Y89.535 Z2.465 I0. J6.35
G1 Y108.585 Z2.132
G3 X164.465 Y114.935 Z1.958 I-6.35 J0.
G1 X95.25 Z0.75
X94.615
G3 X88.265 Y108.585 I0. J-6.35
G1 Y89.535
G3 X94.615 Y83.185 I6.35 J0.
G1 X110.49
G2 X113.665 Y80.01 I0. J-3.175
G1 Y19.685
G3 X120.015 Y13.335 I6.35 J0.
G1 X177.165
G3 X183.515 Y19.685 I0. J6.35
G1 Y38.735
G3 X177.165 Y45.085 I-6.35 J0.
G1 X161.29
G2 X145.415 Y60.96 I0. J15.875
G1 Y67.31
G2 X161.29 Y83.185 I15.875 J0.
G1 X164.465
G3 X170.815 Y89.535 I0. J6.35
G1 Y108.585
G3 X164.465 Y114.935 I-6.35 J0.
G1 X95.25
X94.615 Z0.739
G3 X88.265 Y108.585 Z0.565 I0. J-6.35
G1 Y104.872 Z0.5
Y89.535
G3 X94.615 Y83.185 I6.35 J0.
G1 X110.49
G2 X113.665 Y80.01 I0. J-3.175
G1 Y19.685
G3 X120.015 Y13.335 I6.35 J0.
G1 X177.165
G3 X183.515 Y19.685 I0. J6.35
G1 Y38.735
G3 X177.165 Y45.085 I-6.35 J0.
G1 X161.29
G2 X145.415 Y60.96 I0. J15.875
G1 Y67.31
G2 X161.29 Y83.185 I15.875 J0.
G1 X164.465
G3 X170.815 Y89.535 I0. J6.35
G1 Y108.585
G3 X164.465 Y114.935 I-6.35 J0.
G1 X95.25
X94.615
G3 X88.265 Y108.585 I0. J-6.35
G1 Y104.872
Y90.55 Z0.25
Y89.535
G3 X94.615 Y83.185 I6.35 J0.
G1 X110.49
G2 X113.665 Y80.01 I0. J-3.175
G1 Y19.685
G3 X120.015 Y13.335 I6.35 J0.
G1 X177.165
G3 X183.515 Y19.685 I0. J6.35
G1 Y38.735
G3 X177.165 Y45.085 I-6.35 J0.
G1 X161.29
G2 X145.415 Y60.96 I0. J15.875
G1 Y67.31
G2 X161.29 Y83.185 I15.875 J0.
G1 X164.465
G3 X170.815 Y89.535 I0. J6.35
G1 Y108.585
G3 X164.465 Y114.935 I-6.35 J0.
G1 X94.615
G3 X88.265 Y108.585 I0. J-6.35
G1 Y90.55
Y89.535 Z0.232
G3 X94.615 Y83.185 Z0.058 I6.35 J0.
G1 X97.948 Z0.
X110.49
G2 X113.665 Y80.01 I0. J-3.175
G1 Y19.685
G3 X120.015 Y13.335 I6.35 J0.
G1 X177.165
G3 X183.515 Y19.685 I0. J6.35
G1 Y38.735
G3 X177.165 Y45.085 I-6.35 J0.
G1 X161.29
G2 X145.415 Y60.96 I0. J15.875
G1 Y67.31
G2 X161.29 Y83.185 I15.875 J0.
G1 X164.465
G3 X170.815 Y89.535 I0. J6.35
G1 Y108.585
G3 X164.465 Y114.935 I-6.35 J0.
G1 X94.615
G3 X88.265 Y108.585 I0. J-6.35
G1 Y90.55
Y89.535
G3 X94.615 Y83.185 I6.35 J0.
G1 X97.948
X110.49 Z-0.219
G2 X112.179 Y82.699 Z-0.25 I0. J-3.175
X113.665 Y80.01 I-1.689 J-2.689
G1 Y19.685
G3 X120.015 Y13.335 I6.35 J0.
G1 X177.165
G3 X183.515 Y19.685 I0. J6.35
G1 Y38.735
G3 X177.165 Y45.085 I-6.35 J0.
G1 X161.29
G2 X145.415 Y60.96 I0. J15.875
G1 Y67.31
G2 X161.29 Y83.185 I15.875 J0.
G1 X164.465
G3 X170.815 Y89.535 I0. J6.35
G1 Y108.585
G3 X164.465 Y114.935 I-6.35 J0.
G1 X94.615
G3 X88.265 Y108.585 I0. J-6.35
G1 Y89.535
G3 X94.615 Y83.185 I6.35 J0.
G1 X110.49
G2 X112.179 Y82.699 I0. J-3.175
X113.665 Y80.01 Z-0.306 I-1.689 J-2.689
G1 Y68.894 Z-0.5
Y19.685
G3 X120.015 Y13.335 I6.35 J0.
G1 X177.165
G3 X183.515 Y19.685 I0. J6.35
G1 Y38.735
G3 X177.165 Y45.085 I-6.35 J0.
G1 X161.29
G2 X145.415 Y60.96 I0. J15.875
G1 Y67.31
G2 X161.29 Y83.185 I15.875 J0.
G1 X164.465
G3 X170.815 Y89.535 I0. J6.35
G1 Y108.585
G3 X164.465 Y114.935 I-6.35 J0.
G1 X94.615
G3 X88.265 Y108.585 I0. J-6.35
G1 Y89.535
G3 X94.615 Y83.185 I6.35 J0.
G1 X110.49
G2 X113.665 Y80.01 I0. J-3.175
G1 Y68.894
Y54.571 Z-0.75
Y19.685
G3 X120.015 Y13.335 I6.35 J0.
G1 X177.165
G3 X183.515 Y19.685 I0. J6.35
G1 Y38.735
G3 X177.165 Y45.085 I-6.35 J0.
G1 X161.29
G2 X145.415 Y60.96 I0. J15.875
G1 Y67.31
G2 X161.29 Y83.185 I15.875 J0.
G1 X164.465
G3 X170.815 Y89.535 I0. J6.35
G1 Y108.585
G3 X164.465 Y114.935 I-6.35 J0.
G1 X94.615
G3 X88.265 Y108.585 I0. J-6.35
G1 Y89.535
G3 X94.615 Y83.185 I6.35 J0.
G1 X110.49
G2 X113.665 Y80.01 I0. J-3.175
G1 Y54.571
Y40.249 Z-1.
Y19.685
G3 X120.015 Y13.335 I6.35 J0.
G1 X177.165
G3 X183.515 Y19.685 I0. J6.35
G1 Y38.735
G3 X177.165 Y45.085 I-6.35 J0.
G1 X161.29
G2 X145.415 Y60.96 I0. J15.875
G1 Y67.31
G2 X161.29 Y83.185 I15.875 J0.
G1 X164.465
G3 X170.815 Y89.535 I0. J6.35
G1 Y108.585
G3 X164.465 Y114.935 I-6.35 J0.
G1 X94.615
G3 X88.265 Y108.585 I0. J-6.35
G1 Y89.535
G3 X94.615 Y83.185 I6.35 J0.
G1 X110.49
G2 X113.665 Y80.01 I0. J-3.175
G1 Y54.571
Y40.249
Y25.926 Z-1.25
Y19.685
G3 X120.015 Y13.335 I6.35 J0.
G1 X177.165
G3 X183.515 Y19.685 I0. J6.35
G1 Y38.735
G3 X177.165 Y45.085 I-6.35 J0.
G1 X161.29
G2 X145.415 Y60.96 I0. J15.875
G1 Y67.31
G2 X161.29 Y83.185 I15.875 J0.
G1 X164.465
G3 X170.815 Y89.535 I0. J6.35
G1 Y108.585
G3 X164.465 Y114.935 I-6.35 J0.
G1 X94.615
G3 X88.265 Y108.585 I0. J-6.35
G1 Y89.535
G3 X94.615 Y83.185 I6.35 J0.
G1 X110.49
G2 X113.665 Y80.01 I0. J-3.175
G1 Y40.249
Y25.926
Y19.685 Z-1.359
G3 X118.149 Y13.615 Z-1.5 I6.35 J0.
X120.015 Y13.335 I1.866 J6.07
G1 X177.165
G3 X183.515 Y19.685 I0. J6.35
G1 Y38.735
G3 X177.165 Y45.085 I-6.35 J0.
G1 X161.29
G2 X145.415 Y60.96 I0. J15.875
G1 Y67.31
G2 X161.29 Y83.185 I15.875 J0.
G1 X164.465
G3 X170.815 Y89.535 I0. J6.35
G1 Y108.585
G3 X164.465 Y114.935 I-6.35 J0.
G1 X94.615
G3 X88.265 Y108.585 I0. J-6.35
G1 Y89.535
G3 X94.615 Y83.185 I6.35 J0.
G1 X110.49
G2 X113.665 Y80.01 I0. J-3.175
G1 Y25.926
Y19.685
G3 X118.149 Y13.615 I6.35 J0.
X120.015 Y13.335 Z-1.533 I1.866 J6.07
G1 X132.444 Z-1.75
X177.165
G3 X183.515 Y19.685 I0. J6.35
G1 Y38.735
G3 X177.165 Y45.085 I-6.35 J0.
G1 X161.29
G2 X145.415 Y60.96 I0. J15.875
G1 Y67.31
G2 X161.29 Y83.185 I15.875 J0.
G1 X164.465
G3 X170.815 Y89.535 I0. J6.35
G1 Y108.585
G3 X164.465 Y114.935 I-6.35 J0.
G1 X94.615
G3 X88.265 Y108.585 I0. J-6.35
G1 Y89.535
G3 X94.615 Y83.185 I6.35 J0.
G1 X110.49
G2 X113.665 Y80.01 I0. J-3.175
G1 Y19.685
G3 X120.015 Y13.335 I6.35 J0.
G1 X132.444
X146.766 Z-2.
X177.165
G3 X183.515 Y19.685 I0. J6.35
G1 Y38.735
G3 X177.165 Y45.085 I-6.35 J0.
G1 X161.29
G2 X145.415 Y60.96 I0. J15.875
G1 Y67.31
G2 X161.29 Y83.185 I15.875 J0.
G1 X164.465
G3 X170.815 Y89.535 I0. J6.35
G1 Y108.585
G3 X164.465 Y114.935 I-6.35 J0.
G1 X94.615
G3 X88.265 Y108.585 I0. J-6.35
G1 Y89.535
G3 X94.615 Y83.185 I6.35 J0.
G1 X110.49
G2 X113.665 Y80.01 I0. J-3.175
G1 Y19.685
G3 X120.015 Y13.335 I6.35 J0.
G1 X146.766
X161.089 Z-2.25
X177.165
G3 X183.515 Y19.685 I0. J6.35
G1 Y38.735
G3 X177.165 Y45.085 I-6.35 J0.
G1 X161.29
G2 X145.415 Y60.96 I0. J15.875
G1 Y67.31
G2 X161.29 Y83.185 I15.875 J0.
G1 X164.465
G3 X170.815 Y89.535 I0. J6.35
G1 Y108.585
G3 X164.465 Y114.935 I-6.35 J0.
G1 X94.615
G3 X88.265 Y108.585 I0. J-6.35
G1 Y89.535
G3 X94.615 Y83.185 I6.35 J0.
G1 X110.49
G2 X113.665 Y80.01 I0. J-3.175
G1 Y19.685
G3 X120.015 Y13.335 I6.35 J0.
G1 X146.766
X161.089
X175.411 Z-2.5
X177.165
G3 X183.515 Y19.685 I0. J6.35
G1 Y38.735
G3 X177.165 Y45.085 I-6.35 J0.
G1 X161.29
G2 X145.415 Y60.96 I0. J15.875
G1 Y67.31
G2 X161.29 Y83.185 I15.875 J0.
G1 X164.465
G3 X170.815 Y89.535 I0. J6.35
G1 Y108.585
G3 X164.465 Y114.935 I-6.35 J0.
G1 X94.615
G3 X88.265 Y108.585 I0. J-6.35
G1 Y89.535
G3 X94.615 Y83.185 I6.35 J0.
G1 X110.49
G2 X113.665 Y80.01 I0. J-3.175
G1 Y19.685
G3 X120.015 Y13.335 I6.35 J0.
G1 X161.089
X175.411
X177.165 Z-2.531
G3 X183.515 Y19.685 Z-2.705 I0. J6.35
G1 Y22.279 Z-2.75
Y38.735
G3 X177.165 Y45.085 I-6.35 J0.
G1 X161.29
G2 X145.415 Y60.96 I0. J15.875
G1 Y67.31
G2 X161.29 Y83.185 I15.875 J0.
G1 X164.465
G3 X170.815 Y89.535 I0. J6.35
G1 Y108.585
G3 X164.465 Y114.935 I-6.35 J0.
G1 X94.615
G3 X88.265 Y108.585 I0. J-6.35
G1 Y89.535
G3 X94.615 Y83.185 I6.35 J0.
G1 X110.49
G2 X113.665 Y80.01 I0. J-3.175
G1 Y19.685
G3 X120.015 Y13.335 I6.35 J0.
G1 X175.411
X177.165
G3 X183.515 Y19.685 I0. J6.35
G1 Y22.279
Y36.602 Z-3.
Y38.735
G3 X177.165 Y45.085 I-6.35 J0.
G1 X161.29
G2 X145.415 Y60.96 I0. J15.875
G1 Y67.31
G2 X161.29 Y83.185 I15.875 J0.
G1 X164.465
G3 X170.815 Y89.535 I0. J6.35
G1 Y108.585
G3 X164.465 Y114.935 I-6.35 J0.
G1 X94.615
G3 X88.265 Y108.585 I0. J-6.35
G1 Y89.535
G3 X94.615 Y83.185 I6.35 J0.
G1 X110.49
G2 X113.665 Y80.01 I0. J-3.175
G1 Y19.685
G3 X120.015 Y13.335 I6.35 J0.
G1 X177.165
G3 X183.515 Y19.685 I0. J6.35
G1 Y36.602
Y38.735 Z-3.037
G3 X177.165 Y45.085 Z-3.211 I-6.35 J0.
G1 X174.95 Z-3.25
X161.29
G2 X145.415 Y60.96 I0. J15.875
G1 Y67.31
G2 X161.29 Y83.185 I15.875 J0.
G1 X164.465
G3 X170.815 Y89.535 I0. J6.35
G1 Y108.585
G3 X164.465 Y114.935 I-6.35 J0.
G1 X94.615
G3 X88.265 Y108.585 I0. J-6.35
G1 Y89.535
G3 X94.615 Y83.185 I6.35 J0.
G1 X110.49
G2 X113.665 Y80.01 I0. J-3.175
G1 Y19.685
G3 X120.015 Y13.335 I6.35 J0.
G1 X177.165
G3 X183.515 Y19.685 I0. J6.35
G1 Y36.602
Y38.735
G3 X177.165 Y45.085 I-6.35 J0.
G1 X174.95
X161.29 Z-3.488
G2 X160.628 Y45.099 Z-3.5 I0. J15.875
X145.415 Y60.96 I0.662 J15.861
G1 Y67.31
G2 X161.29 Y83.185 I15.875 J0.
G1 X164.465
G3 X170.815 Y89.535 I0. J6.35
G1 Y108.585
G3 X164.465 Y114.935 I-6.35 J0.
G1 X94.615
G3 X88.265 Y108.585 I0. J-6.35
G1 Y89.535
G3 X94.615 Y83.185 I6.35 J0.
G1 X110.49
G2 X113.665 Y80.01 I0. J-3.175
G1 Y19.685
G3 X120.015 Y13.335 I6.35 J0.
G1 X177.165
G3 X183.515 Y19.685 I0. J6.35
G1 Y38.735
G3 X177.165 Y45.085 I-6.35 J0.
G1 X161.29
G2 X160.628 Y45.099 I0. J15.875
X148.433 Y51.647 Z-3.75 I0.662 J15.861
X145.415 Y60.96 I12.857 J9.313
G1 Y67.31
G2 X161.29 Y83.185 I15.875 J0.
G1 X164.465
G3 X170.815 Y89.535 I0. J6.35
G1 Y108.585
G3 X164.465 Y114.935 I-6.35 J0.
G1 X94.615
G3 X88.265 Y108.585 I0. J-6.35
G1 Y89.535
G3 X94.615 Y83.185 I6.35 J0.
G1 X110.49
G2 X113.665 Y80.01 I0. J-3.175
G1 Y19.685
G3 X120.015 Y13.335 I6.35 J0.
G1 X177.165
G3 X183.515 Y19.685 I0. J6.35
G1 Y38.735
G3 X177.165 Y45.085 I-6.35 J0.
G1 X161.29
G2 X148.433 Y51.647 I0. J15.875
X145.415 Y60.96 Z-3.924 I12.857 J9.313
G1 Y65.331 Z-4.
Y67.31
G2 X161.29 Y83.185 I15.875 J0.
G1 X164.465
G3 X170.815 Y89.535 I0. J6.35
G1 Y108.585
G3 X164.465 Y114.935 I-6.35 J0.
G1 X94.615
G3 X88.265 Y108.585 I0. J-6.35
G1 Y89.535
G3 X94.615 Y83.185 I6.35 J0.
G1 X110.49
G2 X113.665 Y80.01 I0. J-3.175
G1 Y19.685
G3 X120.015 Y13.335 I6.35 J0.
G1 X177.165
G3 X183.515 Y19.685 I0. J6.35
G1 Y38.735
G3 X177.165 Y45.085 I-6.35 J0.
G1 X161.29
G2 X145.415 Y60.96 I0. J15.875
G1 Y65.331
Y67.31 Z-4.035
G2 X149.977 Y78.447 Z-4.25 I15.875 J0.
X161.29 Y83.185 I11.313 J-11.137
G1 X164.465
G3 X170.815 Y89.535 I0. J6.35
G1 Y108.585
G3 X164.465 Y114.935 I-6.35 J0.
G1 X94.615
G3 X88.265 Y108.585 I0. J-6.35
G1 Y89.535
G3 X94.615 Y83.185 I6.35 J0.
G1 X110.49
G2 X113.665 Y80.01 I0. J-3.175
G1 Y19.685
G3 X120.015 Y13.335 I6.35 J0.
G1 X177.165
G3 X183.515 Y19.685 I0. J6.35
G1 Y38.735
G3 X177.165 Y45.085 I-6.35 J0.
G1 X161.29
G2 X145.415 Y60.96 I0. J15.875
G1 Y65.331
Y67.31
G2 X149.977 Y78.447 I15.875 J0.
X161.29 Y83.185 Z-4.47 I11.313 J-11.137
G1 X163.019 Z-4.5
X164.465
G3 X170.815 Y89.535 I0. J6.35
G1 Y108.585
G3 X164.465 Y114.935 I-6.35 J0.
G1 X94.615
G3 X88.265 Y108.585 I0. J-6.35
G1 Y89.535
G3 X94.615 Y83.185 I6.35 J0.
G1 X110.49
G2 X113.665 Y80.01 I0. J-3.175
G1 Y19.685
G3 X120.015 Y13.335 I6.35 J0.
G1 X177.165
G3 X183.515 Y19.685 I0. J6.35
G1 Y38.735
G3 X177.165 Y45.085 I-6.35 J0.
G1 X161.29
G2 X145.415 Y60.96 I0. J15.875
G1 Y67.31
G2 X161.29 Y83.185 I15.875 J0.
G1 X163.019
X164.465 Z-4.525
G3 X170.663 Y88.152 Z-4.675 I0. J6.35
X170.815 Y89.535 I-6.198 J1.383
G1 Y108.585
G3 X164.465 Y114.935 I-6.35 J0.
G1 X94.615
G3 X88.265 Y108.585 I0. J-6.35
G1 Y89.535
G3 X94.615 Y83.185 I6.35 J0.
G1 X110.49
G2 X113.665 Y80.01 I0. J-3.175
G1 Y19.685
G3 X120.015 Y13.335 I6.35 J0.
G1 X177.165
G3 X183.515 Y19.685 I0. J6.35
G1 Y38.735
G3 X177.165 Y45.085 I-6.35 J0.
G1 X161.29
G2 X145.415 Y60.96 I0. J15.875
G1 Y67.31
G2 X161.29 Y83.185 I15.875 J0.
G1 X163.019
X164.465
G3 X170.663 Y88.152 I0. J6.35
G2 X171.421 Y88.633 I0.62 J-0.138
G1 X172.04 Y88.495
X172.137 Y88.473 Z-4.667
X172.232 Y88.452 Z-4.644
X172.322 Y88.432 Z-4.606
X172.405 Y88.414 Z-4.554
X172.479 Y88.397 Z-4.489
X172.542 Y88.383 Z-4.413
X172.593 Y88.372 Z-4.328
X172.63 Y88.363 Z-4.236
X172.652 Y88.358 Z-4.139
X172.66 Y88.357 Z-4.04
G0 Z16.
M5
G0 Z15
G0 X0 Y0

M9
M30
