(1001)
(T1  D=3.175 CR=0. - ZMIN=-3. - FLAT END MILL)
G90 G94 G91.1 G40 G49 G17
G21
G0 Z15
(2D CONTOUR3)
M5
T1 M6
S15000 M3
G54
M8
G0 X32.245 Y58.811
G43 Z16.016 H1
Z6.016
G1 Z4.833 F333.
X32.25 Y58.805 Z4.763
X32.266 Y58.787 Z4.696
X32.291 Y58.759 Z4.636
X32.325 Y58.722 Z4.585
X32.365 Y58.677 Z4.547
X32.409 Y58.627 Z4.524
X32.457 Y58.574 Z4.516
X32.668 Y58.338 F1000.
G3 X33.117 Y58.313 I0.236 J0.212
G2 X84.564 Y92.27 Z2.356 I140.342 J-156.679 F1600
X97.385 Y64.775 Z0.691 I6.41 J-13.748
G3 X26.02 Y4.899 Z-2.599 I76.074 J-163.141
G2 X16.661 Y-1.271 Z-3. I-12.438 J8.682
X1.142 Y22.262 I-3.08 J14.853 F1000.
G1 X1.143 Y22.264
G2 X84.564 Y92.27 I172.316 J-120.631
X97.385 Y64.775 I6.41 J-13.748
G3 X26.02 Y4.899 I76.074 J-163.141
G2 X16.661 Y-1.271 I-12.438 J8.682
G0 Z16.016
G0 z15
M9
M30
G0 X0 Y0