(1001)
(T1  D=3.175 CR=0. - ZMIN=-6.675 - FLAT END MILL)
G90 G94 G91.1 G40 G49 G17
G21
G0 Z15

(2D POCKET1)
M5
T1 M6
S15000 M3
G54
M8
G0 X43.888 Y44.29
G43 Z16. H1
Z6.
G1 Z3.817 F1600.
X43.911 Y44.291 Z3.698
X43.977 Y44.295 Z3.597
X44.075 Y44.308 Z3.527
X44.191 Y44.331 Z3.5
G3 X43.481 Y47.263 Z3.335 I-0.355 J1.466
X44.191 Y44.331 Z3.169 I0.355 J-1.466
X43.481 Y47.263 Z3.004 I-0.355 J1.466
X44.191 Y44.331 Z2.838 I0.355 J-1.466
X43.481 Y47.263 Z2.673 I-0.355 J1.466
X44.191 Y44.331 Z2.507 I0.355 J-1.466
X43.481 Y47.263 Z2.342 I-0.355 J1.466
X44.191 Y44.331 Z2.176 I0.355 J-1.466
X43.481 Y47.263 Z2.011 I-0.355 J1.466
X44.191 Y44.331 Z1.845 I0.355 J-1.466
X43.481 Y47.263 Z1.68 I-0.355 J1.466
X44.191 Y44.331 Z1.515 I0.355 J-1.466
X43.481 Y47.263 Z1.349 I-0.355 J1.466
X44.191 Y44.331 Z1.184 I0.355 J-1.466
X43.481 Y47.263 Z1.018 I-0.355 J1.466
X44.191 Y44.331 Z0.853 I0.355 J-1.466
X43.481 Y47.263 Z0.687 I-0.355 J1.466
X44.191 Y44.331 Z0.522 I0.355 J-1.466
X43.481 Y47.263 Z0.356 I-0.355 J1.466
X44.191 Y44.331 Z0.191 I0.355 J-1.466
X43.481 Y47.263 Z0.026 I-0.355 J1.466
X42.839 Y46.929 Z0. I0.355 J-1.466
G1 X42.676 Y46.785
X37.419 Y41.797
X32.653 Y36.937
X27.768 Y31.584
X23.364 Y26.394
X18.876 Y20.703
X17.151 Y18.43
G3 X15.218 Y15.798 I82.18 J-62.383
X15.513 Y15.588 I0.148 J-0.105
G2 X54.261 Y56.232 I159.83 J-113.581
G1 X60.042 Y60.586
X65.615 Y64.477
X71.695 Y68.403
G2 X76.348 Y71.199 I100.574 J-162.125
G1 X76.94 Y71.542
G3 X76.804 Y71.778 I-0.068 J0.118
G1 X70.782 Y68.156
X64.713 Y64.195
X59.15 Y60.273
X53.381 Y55.887
X48.115 Y51.575
X42.839 Y46.929
G2 X40.251 Y46.554 I-1.581 J1.796
G3 X37.67 Y46.128 I-0.978 J-2.107
X12.255 Y16.614 I136.789 J-143.494
X17.289 Y13.092 I3.179 J-0.815
G2 X17.999 Y14.096 I157.179 J-110.446
X78.408 Y69. I156.46 J-111.462
G3 X75.336 Y74.32 I-1.536 J2.66
X37.67 Y46.128 I99.123 J-171.687
G1 X37.644 Y46.095
X37.627 Y46.056
X37.621 Y46.014
X37.626 Y45.972
X37.643 Y45.933
X37.669 Y45.899
X39.675 Y43.935
X39.744 Y43.819
G3 X40.021 Y43.976 I0.138 J0.078
X39.79 Y44.027 I-0.138 J-0.078
X41.545 Y41.573 Z-0.165 I0.877 J-1.227
X39.79 Y44.027 Z-0.331 I-0.877 J1.227
X41.545 Y41.573 Z-0.496 I0.877 J-1.227
X39.79 Y44.027 Z-0.662 I-0.877 J1.227
X41.545 Y41.573 Z-0.827 I0.877 J-1.227
X41.831 Y43.76 Z-0.914 I-0.877 J1.227
X39.629 Y43.894 Z-1. I-1.163 J-0.96
G1 X37.419 Y41.797
X32.653 Y36.937
X27.768 Y31.584
X23.364 Y26.394
X18.876 Y20.703
X17.151 Y18.43
G3 X15.218 Y15.798 I82.18 J-62.383
X15.513 Y15.588 I0.148 J-0.105
G2 X54.261 Y56.232 I159.83 J-113.581
G1 X60.042 Y60.586
X65.615 Y64.477
X71.695 Y68.403
G2 X76.348 Y71.199 I100.574 J-162.125
G1 X76.94 Y71.542
G3 X76.804 Y71.778 I-0.068 J0.118
G1 X70.782 Y68.156
X64.713 Y64.195
X59.15 Y60.273
X53.381 Y55.887
X48.115 Y51.575
X42.676 Y46.785
X39.629 Y43.894
G2 X37.012 Y43.432 I-1.658 J1.747
G3 X34.4 Y42.937 I-0.942 J-2.168
X12.255 Y16.614 I140.059 J-140.304
X17.289 Y13.092 I3.179 J-0.815
G2 X17.999 Y14.096 I157.179 J-110.446
X78.408 Y69. I156.46 J-111.462
G3 X75.336 Y74.32 I-1.536 J2.66
X34.4 Y42.937 I99.123 J-171.687
G1 X34.373 Y42.901
X34.357 Y42.859
X34.354 Y42.815
X34.363 Y42.771
X34.384 Y42.731
X34.415 Y42.699
X36.643 Y40.987
X36.678 Y40.968
X36.717 Y40.957
X36.757
X37.039 Y40.989
G3 X37.004 Y41.304 I-0.018 J0.158
X36.925 Y41.272 I0.018 J-0.158
X38.766 Y38.883 Z-1.165 I0.921 J-1.194
X36.925 Y41.272 Z-1.331 I-0.921 J1.194
X38.766 Y38.883 Z-1.496 I0.921 J-1.194
X36.925 Y41.272 Z-1.662 I-0.921 J1.194
X38.766 Y38.883 Z-1.827 I0.921 J-1.194
X38.973 Y41.079 Z-1.914 I-0.921 J1.194
X36.769 Y41.134 Z-2. I-1.128 J-1.001
G1 X32.653 Y36.937
X27.768 Y31.584
X23.364 Y26.394
X18.876 Y20.703
X17.151 Y18.43
G3 X15.218 Y15.798 I82.18 J-62.383
X15.513 Y15.588 I0.148 J-0.105
G2 X54.261 Y56.232 I159.83 J-113.581
G1 X60.042 Y60.586
X65.615 Y64.477
X71.695 Y68.403
G2 X76.348 Y71.199 I100.574 J-162.125
G1 X76.94 Y71.542
G3 X76.804 Y71.778 I-0.068 J0.118
G1 X70.782 Y68.156
X64.713 Y64.195
X59.15 Y60.273
X53.381 Y55.887
X48.115 Y51.575
X42.676 Y46.785
X37.419 Y41.797
X36.769 Y41.134
G2 X34.164 Y40.589 I-1.71 J1.677
G3 X31.56 Y40.044 I-0.903 J-2.181
X12.255 Y16.614 I142.899 J-137.411
X17.289 Y13.092 I3.179 J-0.815
G2 X17.999 Y14.096 I157.179 J-110.446
X78.408 Y69. I156.46 J-111.462
G3 X75.336 Y74.32 I-1.536 J2.66
X31.56 Y40.044 I99.123 J-171.687
G1 X31.535 Y40.01
X31.52 Y39.969
X31.516 Y39.927
X31.524 Y39.885
X31.542 Y39.846
X31.571 Y39.814
X33.682 Y37.985
X33.838 Y37.868
G3 X34.026 Y38.124 I0.094 J0.128
X33.835 Y38.122 I-0.094 J-0.128
X35.677 Y35.733 Z-2.165 I0.921 J-1.194
X33.835 Y38.122 Z-2.331 I-0.921 J1.194
X35.677 Y35.733 Z-2.496 I0.921 J-1.194
X33.835 Y38.122 Z-2.662 I-0.921 J1.194
X35.677 Y35.733 Z-2.827 I0.921 J-1.194
X35.884 Y37.929 Z-2.914 I-0.921 J1.194
X33.679 Y37.983 Z-3. I-1.128 J-1.001
G1 X32.653 Y36.937
X27.768 Y31.584
X23.364 Y26.394
X18.876 Y20.703
X17.151 Y18.43
G3 X15.218 Y15.798 I82.18 J-62.383
X15.513 Y15.588 I0.148 J-0.105
G2 X54.261 Y56.232 I159.83 J-113.581
G1 X60.042 Y60.586
X65.615 Y64.477
X71.695 Y68.403
G2 X76.348 Y71.199 I100.574 J-162.125
G1 X76.94 Y71.542
G3 X76.804 Y71.778 I-0.068 J0.118
G1 X70.782 Y68.156
X64.713 Y64.195
X59.15 Y60.273
X53.381 Y55.887
X48.115 Y51.575
X42.676 Y46.785
X37.419 Y41.797
X33.679 Y37.983
G2 X31.101 Y37.424 I-1.715 J1.682
G3 X28.531 Y36.823 I-0.843 J-2.188
X12.255 Y16.614 I145.928 J-134.19
X17.289 Y13.092 I3.179 J-0.815
G2 X17.999 Y14.096 I157.179 J-110.446
X78.408 Y69. I156.46 J-111.462
G3 X75.336 Y74.32 I-1.536 J2.66
X28.531 Y36.823 I99.123 J-171.687
G1 X28.507 Y36.788
X28.493 Y36.748
X28.49 Y36.705
X28.498 Y36.664
X28.517 Y36.626
X28.546 Y36.594
X30.693 Y34.788
X30.798 Y34.673
G3 X31.034 Y34.885 I0.118 J0.106
X30.814 Y34.901 I-0.118 J-0.106
X32.741 Y32.58 Z-3.165 I0.963 J-1.161
X30.814 Y34.901 Z-3.331 I-0.963 J1.161
X32.741 Y32.58 Z-3.496 I0.963 J-1.161
X30.814 Y34.901 Z-3.662 I-0.963 J1.161
X32.741 Y32.58 Z-3.827 I0.963 J-1.161
X32.869 Y34.781 Z-3.914 I-0.963 J1.161
X30.663 Y34.757 Z-4. I-1.091 J-1.041
G1 X27.768 Y31.584
X23.364 Y26.394
X18.876 Y20.703
X17.151 Y18.43
G3 X15.218 Y15.798 I82.18 J-62.383
X15.513 Y15.588 I0.148 J-0.105
G2 X54.261 Y56.232 I159.83 J-113.581
G1 X60.042 Y60.586
X65.615 Y64.477
X71.695 Y68.403
G2 X76.348 Y71.199 I100.574 J-162.125
G1 X76.94 Y71.542
G3 X76.804 Y71.778 I-0.068 J0.118
G1 X70.782 Y68.156
X64.713 Y64.195
X59.15 Y60.273
X53.381 Y55.887
X48.115 Y51.575
X42.676 Y46.785
X37.419 Y41.797
X32.653 Y36.937
X30.663 Y34.757
G2 X28.077 Y34.113 I-1.777 J1.621
G3 X25.496 Y33.445 I-0.799 J-2.233
X12.255 Y16.614 I148.963 J-130.812
X17.289 Y13.092 I3.179 J-0.815
G2 X17.999 Y14.096 I157.179 J-110.446
X78.408 Y69. I156.46 J-111.462
G3 X75.336 Y74.32 I-1.536 J2.66
X25.496 Y33.445 I99.123 J-171.687
G1 X25.472 Y33.409
X25.459 Y33.369
X25.457 Y33.326
X25.467 Y33.284
X25.488 Y33.246
X25.518 Y33.215
X27.706 Y31.51
X27.839 Y31.4
G3 X28.042 Y31.644 I0.101 J0.122
X27.835 Y31.64 I-0.101 J-0.122
X29.843 Y29.39 Z-4.165 I1.004 J-1.125
X27.835 Y31.64 Z-4.331 I-1.004 J1.125
X29.843 Y29.39 Z-4.496 I1.004 J-1.125
X27.835 Y31.64 Z-4.662 I-1.004 J1.125
X29.843 Y29.39 Z-4.827 I1.004 J-1.125
X29.892 Y31.595 Z-4.914 I-1.004 J1.125
X27.689 Y31.491 Z-5. I-1.053 J-1.08
G1 X23.364 Y26.394
X18.876 Y20.703
X17.151 Y18.43
G3 X15.218 Y15.798 I82.18 J-62.383
X15.513 Y15.588 I0.148 J-0.105
G2 X54.261 Y56.232 I159.83 J-113.581
G1 X60.042 Y60.586
X65.615 Y64.477
X71.695 Y68.403
G2 X76.348 Y71.199 I100.574 J-162.125
G1 X76.94 Y71.542
G3 X76.804 Y71.778 I-0.068 J0.118
G1 X70.782 Y68.156
X64.713 Y64.195
X59.15 Y60.273
X53.381 Y55.887
X48.115 Y51.575
X42.676 Y46.785
X37.419 Y41.797
X32.653 Y36.937
X27.768 Y31.584
X27.689 Y31.491
G2 X25.134 Y30.769 I-1.814 J1.54
G3 X22.579 Y30.047 I-0.747 J-2.238
X12.255 Y16.614 I151.88 J-127.414
X17.289 Y13.092 I3.179 J-0.815
G2 X17.999 Y14.096 I157.179 J-110.446
X78.408 Y69. I156.46 J-111.462
G3 X75.336 Y74.32 I-1.536 J2.66
X22.579 Y30.047 I99.123 J-171.687
G1 X22.556 Y30.009
X22.544 Y29.966
Y29.921
X22.557 Y29.878
X22.581 Y29.841
X22.615 Y29.812
X24.994 Y28.291
X25.032 Y28.273
X25.073 Y28.267
X25.115 Y28.271
X25.408 Y28.34
G3 X25.335 Y28.649 I-0.036 J0.155
X25.266 Y28.613 I0.036 J-0.155
X27.274 Y26.362 Z-5.165 I1.004 J-1.125
X25.266 Y28.613 Z-5.331 I-1.004 J1.125
X27.274 Y26.362 Z-5.496 I1.004 J-1.125
X25.266 Y28.613 Z-5.662 I-1.004 J1.125
X27.274 Y26.362 Z-5.827 I1.004 J-1.125
X27.323 Y28.567 Z-5.914 I-1.004 J1.125
X25.12 Y28.463 Z-6. I-1.053 J-1.08
G1 X23.364 Y26.394
X18.876 Y20.703
X17.151 Y18.43
G3 X15.218 Y15.798 I82.18 J-62.383
X15.513 Y15.588 I0.148 J-0.105
G2 X54.261 Y56.232 I159.83 J-113.581
G1 X60.042 Y60.586
X65.615 Y64.477
X71.695 Y68.403
G2 X76.348 Y71.199 I100.574 J-162.125
G1 X76.94 Y71.542
G3 X76.804 Y71.778 I-0.068 J0.118
G1 X70.782 Y68.156
X64.713 Y64.195
X59.15 Y60.273
X53.381 Y55.887
X48.115 Y51.575
X42.676 Y46.785
X37.419 Y41.797
X32.653 Y36.937
X27.768 Y31.584
X25.12 Y28.463
G2 X22.572 Y27.723 I-1.834 J1.556
G3 X20.033 Y26.949 I-0.701 J-2.253
X12.255 Y16.614 I154.426 J-124.316
X17.289 Y13.092 I3.179 J-0.815
G2 X17.999 Y14.096 I157.179 J-110.446
X78.408 Y69. I156.46 J-111.462
G3 X75.336 Y74.32 I-1.536 J2.66
X20.033 Y26.949 I99.123 J-171.687
G1 X20.011 Y26.913
X20. Y26.871
Y26.829
X20.011 Y26.787
X20.033 Y26.751
X20.064 Y26.721
X22.331 Y25.083
X22.36 Y25.064
X22.391 Y25.052
X22.425 Y25.047
X22.667 Y25.036
G3 X22.681 Y25.353 I0.007 J0.159
X22.578 Y25.321 I-0.007 J-0.159
X24.409 Y22.925 Z-6.165 I0.916 J-1.198
X22.578 Y25.321 Z-6.331 I-0.916 J1.198
X24.409 Y22.925 Z-6.496 I0.916 J-1.198
X24.568 Y25.181 Z-6.586 I-0.916 J1.198
X22.309 Y25.057 Z-6.675 I-1.074 J-1.058
G1 X18.876 Y20.703
X17.151 Y18.43
G3 X15.218 Y15.798 I82.18 J-62.383
X15.513 Y15.588 I0.148 J-0.105
G2 X54.261 Y56.232 I159.83 J-113.581
G1 X60.042 Y60.586
X65.615 Y64.477
X71.695 Y68.403
G2 X76.348 Y71.199 I100.574 J-162.125
G1 X76.94 Y71.542
G3 X76.804 Y71.778 I-0.068 J0.118
G1 X70.782 Y68.156
X64.713 Y64.195
X59.15 Y60.273
X53.381 Y55.887
X48.115 Y51.575
X42.676 Y46.785
X37.419 Y41.797
X32.653 Y36.937
X27.768 Y31.584
X23.364 Y26.394
X22.309 Y25.057
G2 X19.773 Y24.236 I-1.881 J1.483
G3 X17.241 Y23.399 I-0.649 J-2.283
X12.255 Y16.614 I157.218 J-120.765
X17.289 Y13.092 I3.179 J-0.815
G2 X17.999 Y14.096 I157.179 J-110.446
X78.408 Y69. I156.46 J-111.462
G3 X75.336 Y74.32 I-1.536 J2.66
X17.241 Y23.399 I99.123 J-171.687
G1 X17.209 Y23.347 Z-6.663
X17.187 Y23.291 Z-6.651
X17.177 Y23.24 Z-6.616
X17.176 Y23.189 Z-6.582
X17.187 Y23.121 Z-6.479
X17.194 Y23.098 Z-6.358
G0 Z16.

(BORE1)
G0 X92.292 Y81.903
Z15.
Z1.
G1 Z-0.683 F1600.
G19 G3 Y82.221 Z-1. J0.317 K0.
G1 Y82.38
G17 G3 X91.975 Y82.697 I-0.317 J0.
Y76.347 Z-1.5 I0. J-3.175
Y82.697 Z-2. I0. J3.175
Y76.347 Z-2.5 I0. J-3.175
Y82.697 Z-3. I0. J3.175
Y76.347 Z-3.5 I0. J-3.175
Y82.697 Z-4. I0. J3.175
Y76.347 Z-4.5 I0. J-3.175
Y82.697 Z-5. I0. J3.175
Y76.347 Z-5.5 I0. J-3.175
Y82.697 Z-6. I0. J3.175
X89.146 Y80.964 Z-6.175 I0. J-3.175
X94.804 Y78.081 I2.829 J-1.441
X89.146 Y80.964 I-2.829 J1.441
X89.285 Y80.536 I0.283 J-0.144
G1 X89.426 Y80.464
X89.489 Y80.432 Z-6.167
X89.549 Y80.402 Z-6.144
X89.602 Y80.375 Z-6.106
X89.647 Y80.352 Z-6.055
X89.681 Y80.335 Z-5.995
X89.702 Y80.324 Z-5.928
X89.709 Y80.32 Z-5.858
G0 Z15.
M5
G0 Z15
G0 X0 Y0

M9
M30
