(1001)
(T1  D=3.175 CR=0. - ZMIN=-4.016 - FLAT END MILL)
G90 G94 G91.1 G40 G49 G17
G21
G0 Z15
<<<<<<< HEAD

=======
>>>>>>> d610b355a1f89b3cd9679930e842120cdfdd5888
(2D CONTOUR3)
M5
T1 M6
S15000 M3
G54
M8
<<<<<<< HEAD
G0 X92.685 Y61.931
G43 Z15. H1
Z5.
G1 Z3.817 F1600.
X92.681 Y61.938 Z3.747
X92.671 Y61.959 Z3.68
X92.653 Y61.993 Z3.62
X92.631 Y62.038 Z3.569
X92.603 Y62.091 Z3.531
X92.573 Y62.151 Z3.508
X92.54 Y62.214 Z3.5
X92.396 Y62.497
G2 X92.534 Y62.924 I0.283 J0.145
X98.401 Y65.791 Z3.386 I81.941 J-160.274
G3 X85.581 Y93.286 Z2.554 I-6.411 J13.748
X2.159 Y23.28 Z0.631 I88.895 J-190.636
G1 X2.158 Y23.278
G3 X17.677 Y-0.255 Z0. I12.439 J-8.681
X27.036 Y5.915 I-3.08 J14.853
G2 X98.401 Y65.791 I147.439 J-103.266
G3 X85.581 Y93.286 I-6.411 J13.748
X2.159 Y23.28 I88.895 J-190.636
G1 X2.158 Y23.278
G3 X17.677 Y-0.255 I12.439 J-8.681
X27.036 Y5.915 Z-0.2 I-3.08 J14.853
G2 X57.781 Y39.706 Z-1. I147.439 J-103.266
X98.401 Y65.791 I116.695 J-137.057
G3 X85.581 Y93.286 I-6.411 J13.748
X2.159 Y23.28 I88.895 J-190.636
G1 X2.158 Y23.278
G3 X27.036 Y5.915 I12.439 J-8.681
G2 X57.781 Y39.706 I147.439 J-103.266
X98.401 Y65.791 Z-1.845 I116.695 J-137.057
G3 X104.925 Y71.613 Z-2. I-6.411 J13.748
X85.581 Y93.286 I-12.934 J7.925
X2.159 Y23.28 I88.895 J-190.636
G1 X2.158 Y23.278
G3 X27.036 Y5.915 I12.439 J-8.681
G2 X98.401 Y65.791 I147.439 J-103.266
G3 X104.925 Y71.613 I-6.411 J13.748
X85.581 Y93.286 Z-2.677 I-12.934 J7.925
X69.174 Y84.738 Z-3. I88.895 J-190.636
X2.159 Y23.28 I105.301 J-182.088
G1 X2.158 Y23.278
G3 X27.036 Y5.915 I12.439 J-8.681
G2 X98.401 Y65.791 I147.439 J-103.266
G3 X85.581 Y93.286 I-6.411 J13.748
X69.174 Y84.738 I88.895 J-190.636
X45.066 Y68.474 Z-3.508 I105.301 J-182.088
X2.159 Y23.28 I129.409 J-165.825
G1 X2.158 Y23.278
G3 X27.036 Y5.915 I12.439 J-8.681
G2 X98.401 Y65.791 I147.439 J-103.266
G3 X85.581 Y93.286 I-6.411 J13.748
X45.066 Y68.474 I88.895 J-190.636
X23.433 Y49.042 Z-4.016 I129.409 J-165.825
X2.159 Y23.28 I151.042 J-146.392
G1 X2.158 Y23.278
G3 X27.036 Y5.915 I12.439 J-8.681
G2 X98.401 Y65.791 I147.439 J-103.266
G3 X85.581 Y93.286 I-6.411 J13.748
X23.433 Y49.042 I88.895 J-190.636
G0 Z15.
M5
G0 Z15
G0 X0 Y0

=======
G0 X32.245 Y58.811
G43 Z16.016 H1
Z6.016
G1 Z4.833 F333.
X32.25 Y58.805 Z4.763
X32.266 Y58.787 Z4.696
X32.291 Y58.759 Z4.636
X32.325 Y58.722 Z4.585
X32.365 Y58.677 Z4.547
X32.409 Y58.627 Z4.524
X32.457 Y58.574 Z4.516
X32.668 Y58.338 F1000.
G3 X33.117 Y58.313 I0.236 J0.212
G2 X84.564 Y92.27 Z2.356 I140.342 J-156.679 F1600
X97.385 Y64.775 Z0.691 I6.41 J-13.748
G3 X26.02 Y4.899 Z-2.599 I76.074 J-163.141
G2 X16.661 Y-1.271 Z-3. I-12.438 J8.682
X1.142 Y22.262 I-3.08 J14.853 F1000.
G1 X1.143 Y22.264
G2 X84.564 Y92.27 I172.316 J-120.631
X97.385 Y64.775 I6.41 J-13.748
G3 X26.02 Y4.899 I76.074 J-163.141
G2 X16.661 Y-1.271 I-12.438 J8.682
G0 Z16.016
G0 z15
>>>>>>> d610b355a1f89b3cd9679930e842120cdfdd5888
M9
M30
G0 X0 Y0