(1001)
(T1  D=3.175 CR=0. - ZMIN=-1. - FLAT END MILL)
G90 G94 G91.1 G40 G49 G17
G21

(2D CONTOUR2)
M5
T1 M6
S15000 M3
G54
M8
G0 X42.651 Y49.997
G43 Z16.016 H1
Z6.016
G1 Z4.833 F333.
X42.646 Y50.003 Z4.763
X42.63 Y50.021 Z4.696
X42.605 Y50.05 Z4.636
X42.572 Y50.087 Z4.585
X42.532 Y50.132 Z4.547
X42.488 Y50.183 Z4.524
X42.441 Y50.236 Z4.516
X42.232 Y50.474 F1000.
G2 X42.261 Y50.923 I0.238 J0.21
X74.086 Y73.753 Z3.831 I131.198 J-149.289 F333.
X77.658 Y67.567 Z3.635 I1.786 J-3.093
G3 X16.647 Y11.733 Z2.18 I95.801 J-165.933
G2 X10.795 Y15.83 Z2.017 I-2.213 J3.067
X74.086 Y73.753 Z0.508 I162.663 J-114.197
X77.658 Y67.567 Z0.312 I1.786 J-3.093
G3 X21.503 Y18.343 Z-1. I95.801 J-165.933
X16.647 Y11.733 I151.956 J-116.709 F1000.
G2 X10.795 Y15.83 I-2.213 J3.067
X74.086 Y73.753 I162.663 J-114.197
X77.658 Y67.567 I1.786 J-3.093
G3 X21.503 Y18.343 I95.801 J-165.933
G0 Z6.016
X89.506 Y80.22
G1 Z4.833 F333.
X89.502 Y80.227 Z4.763
X89.489 Y80.247 Z4.696
X89.469 Y80.279 Z4.636
X89.442 Y80.321 Z4.585
X89.409 Y80.372 Z4.547
X89.373 Y80.428 Z4.524
X89.335 Y80.488 Z4.516
X89.163 Y80.755 F1000.
G2 X89.259 Y81.193 I0.267 J0.172
X92.691 Y75.851 Z4.342 I1.716 J-2.671 F333.
X89.259 Y81.193 Z4.168 I-1.716 J2.671
X92.691 Y75.851 Z3.994 I1.716 J-2.671
X89.259 Y81.193 Z3.82 I-1.716 J2.671
X92.691 Y75.851 Z3.645 I1.716 J-2.671
X89.259 Y81.193 Z3.471 I-1.716 J2.671
X92.691 Y75.851 Z3.297 I1.716 J-2.671
X89.259 Y81.193 Z3.123 I-1.716 J2.671
X92.691 Y75.851 Z2.949 I1.716 J-2.671
X89.259 Y81.193 Z2.775 I-1.716 J2.671
X92.691 Y75.851 Z2.601 I1.716 J-2.671
X89.259 Y81.193 Z2.427 I-1.716 J2.671
X92.691 Y75.851 Z2.253 I1.716 J-2.671
X89.259 Y81.193 Z2.079 I-1.716 J2.671
X92.691 Y75.851 Z1.904 I1.716 J-2.671
X89.259 Y81.193 Z1.73 I-1.716 J2.671
X92.691 Y75.851 Z1.556 I1.716 J-2.671
X89.259 Y81.193 Z1.382 I-1.716 J2.671
X92.691 Y75.851 Z1.208 I1.716 J-2.671
X89.259 Y81.193 Z1.034 I-1.716 J2.671
X92.691 Y75.851 Z0.86 I1.716 J-2.671
X89.259 Y81.193 Z0.686 I-1.716 J2.671
X92.691 Y75.851 Z0.512 I1.716 J-2.671
X89.259 Y81.193 Z0.337 I-1.716 J2.671
X92.691 Y75.851 Z0.163 I1.716 J-2.671
X89.259 Y81.193 Z-0.011 I-1.716 J2.671
X92.691 Y75.851 Z-0.185 I1.716 J-2.671
X89.259 Y81.193 Z-0.359 I-1.716 J2.671
X92.691 Y75.851 Z-0.533 I1.716 J-2.671
X89.259 Y81.193 Z-0.707 I-1.716 J2.671
X92.691 Y75.851 Z-0.881 I1.716 J-2.671
X87.8 Y78.522 Z-1. I-1.716 J2.671
X94.15 I3.175 J0. F1000.
X87.8 I-3.175 J0.
G0 Z16.016

M9
M30
