(1001)
(T1  D=3.175 CR=0. - ZMIN=0. - FLAT END MILL)
G90 G94 G91.1 G40 G49 G17
G21

(2D CONTOUR3)
M5
T1 M6
S15000 M3
G54
M8
G0 X93.572 Y61.878
G43 Z16.016 H1
Z5.016
G1 Z3.833 F333.
X93.568 Y61.885 Z3.763
X93.557 Y61.906 Z3.696
X93.541 Y61.94 Z3.636
X93.518 Y61.985 Z3.585
X93.491 Y62.039 Z3.547
X93.461 Y62.099 Z3.524
X93.429 Y62.162 Z3.516
X93.287 Y62.446 F1000.
G3 X92.861 Y62.588 I-0.284 J-0.142
X26.02 Y4.899 Z0.401 I80.598 J-160.954 F333.
G2 X16.661 Y-1.271 Z0. I-12.438 J8.682
X1.142 Y22.262 I-3.08 J14.853 F1000.
G1 X1.143 Y22.264
G2 X84.564 Y92.27 I172.316 J-120.631
X97.385 Y64.775 I6.41 J-13.748
G3 X26.02 Y4.899 I76.074 J-163.141
G2 X16.661 Y-1.271 I-12.438 J8.682
G0 Z16.016

M9
M30
