(1001)
(T1  D=3.175 CR=0. - ZMIN=-3. - FLAT END MILL)
G90 G94 G91.1 G40 G49 G17
G21

(2D CONTOUR2)
M5
T1 M6
S15000 M3
G54
M8
G0 X56.259 Y54.414
G43 Z16.016 H1
Z6.016
G1 Z4.833 F333.
X56.264 Y54.408 Z4.763
X56.278 Y54.389 Z4.696
X56.301 Y54.359 Z4.636
X56.332 Y54.319 Z4.585
X56.369 Y54.272 Z4.547
X56.41 Y54.218 Z4.524
X56.453 Y54.162 Z4.516
X56.646 Y53.911 F1000.
G2 X56.588 Y53.466 I-0.252 J-0.194
G3 X16.647 Y11.733 Z3.504 I116.871 J-151.832 F333.
G2 X10.795 Y15.83 Z3.341 I-2.213 J3.067
X74.086 Y73.753 Z1.831 I162.663 J-114.197
X77.658 Y67.567 Z1.635 I1.786 J-3.093
G3 X16.647 Y11.733 Z0.18 I95.801 J-165.933
G2 X10.795 Y15.83 Z0.017 I-2.213 J3.067
X74.086 Y73.753 Z-1.492 I162.663 J-114.197
X77.658 Y67.567 Z-1.688 I1.786 J-3.093
G3 X21.503 Y18.343 Z-3. I95.801 J-165.933
X16.647 Y11.733 I151.956 J-116.709 F1000.
G2 X10.795 Y15.83 I-2.213 J3.067
X74.086 Y73.753 I162.663 J-114.197
X77.658 Y67.567 I1.786 J-3.093
G3 X21.503 Y18.343 I95.801 J-165.933
G0 Z6.016
X92.731 Y79.921
G1 Z4.833 F333.
X92.737 Y79.925 Z4.763
X92.758 Y79.937 Z4.696
X92.79 Y79.956 Z4.636
X92.834 Y79.982 Z4.585
X92.886 Y80.012 Z4.547
X92.943 Y80.046 Z4.524
X93.004 Y80.082 Z4.516
X93.278 Y80.243 F1000.
G2 X93.713 Y80.129 I0.161 J-0.274
X88.237 Y76.915 Z4.342 I-2.738 J-1.607 F333.
X93.713 Y80.129 Z4.168 I2.738 J1.607
X88.237 Y76.915 Z3.994 I-2.738 J-1.607
X93.713 Y80.129 Z3.82 I2.738 J1.607
X88.237 Y76.915 Z3.645 I-2.738 J-1.607
X93.713 Y80.129 Z3.471 I2.738 J1.607
X88.237 Y76.915 Z3.297 I-2.738 J-1.607
X93.713 Y80.129 Z3.123 I2.738 J1.607
X88.237 Y76.915 Z2.949 I-2.738 J-1.607
X93.713 Y80.129 Z2.775 I2.738 J1.607
X88.237 Y76.915 Z2.601 I-2.738 J-1.607
X93.713 Y80.129 Z2.427 I2.738 J1.607
X88.237 Y76.915 Z2.253 I-2.738 J-1.607
X93.713 Y80.129 Z2.079 I2.738 J1.607
X88.237 Y76.915 Z1.904 I-2.738 J-1.607
X93.713 Y80.129 Z1.73 I2.738 J1.607
X88.237 Y76.915 Z1.556 I-2.738 J-1.607
X93.713 Y80.129 Z1.382 I2.738 J1.607
X88.237 Y76.915 Z1.208 I-2.738 J-1.607
X93.713 Y80.129 Z1.034 I2.738 J1.607
X88.237 Y76.915 Z0.86 I-2.738 J-1.607
X93.713 Y80.129 Z0.686 I2.738 J1.607
X88.237 Y76.915 Z0.512 I-2.738 J-1.607
X93.713 Y80.129 Z0.337 I2.738 J1.607
X88.237 Y76.915 Z0.163 I-2.738 J-1.607
X93.713 Y80.129 Z-0.011 I2.738 J1.607
X88.237 Y76.915 Z-0.185 I-2.738 J-1.607
X93.713 Y80.129 Z-0.359 I2.738 J1.607
X88.237 Y76.915 Z-0.533 I-2.738 J-1.607
X93.713 Y80.129 Z-0.707 I2.738 J1.607
X88.237 Y76.915 Z-0.881 I-2.738 J-1.607
X93.713 Y80.129 Z-1.055 I2.738 J1.607
X88.237 Y76.915 Z-1.23 I-2.738 J-1.607
X93.713 Y80.129 Z-1.404 I2.738 J1.607
X88.237 Y76.915 Z-1.578 I-2.738 J-1.607
X93.713 Y80.129 Z-1.752 I2.738 J1.607
X88.237 Y76.915 Z-1.926 I-2.738 J-1.607
X93.713 Y80.129 Z-2.1 I2.738 J1.607
X88.237 Y76.915 Z-2.274 I-2.738 J-1.607
X93.713 Y80.129 Z-2.448 I2.738 J1.607
X88.237 Y76.915 Z-2.622 I-2.738 J-1.607
X93.713 Y80.129 Z-2.796 I2.738 J1.607
X88.237 Y76.915 Z-2.971 I-2.738 J-1.607
X87.8 Y78.522 Z-3. I2.738 J1.607
X94.15 I3.175 J0. F1000.
X87.8 I-3.175 J0.
G0 Z16.016

M9
M30
