(1001)
(T1  D=6.35 CR=0. - ZMIN=-8.35 - FLAT END MILL)
G90 G94 G91.1 G40 G49 G17
G21
G0 Z15

(2D CONTOUR1)
M5
T1 M6
S15000 M3
G54
M8
G0 X154.651 Y326.908
G43 Z16. H1
Z6.
G1 Z4.135 F1600.
X154.644 Y326.905 Z4.036
X154.624 Y326.894 Z3.939
X154.59 Y326.876 Z3.847
X154.544 Y326.852 Z3.762
X154.486 Y326.822 Z3.686
X154.419 Y326.787 Z3.621
X154.344 Y326.747 Z3.569
X154.263 Y326.705 Z3.531
X154.177 Y326.66 Z3.508
X154.089 Y326.614 Z3.5
X153.526 Y326.319
G2 X152.669 Y326.586 I-0.295 J0.562
G3 X111.125 Y351.71 Z1.718 I-41.544 J-21.786
G1 X73.025 Z0.388
G3 X27.846 Y317.256 Z-1.744 I0. J-46.849
G2 X27.32 Y316.672 Z-1.773 I-0.847 J0.234
G3 X-2.444 Y273.05 Z-3.731 I17.147 J-43.665
X-2.429 Y272.588 Z-3.748 I7.407 J0.
G2 X-2.415 Y272.125 Z-3.764 I-7.392 J-0.462
X-2.759 Y271.601 Z-3.787 I-0.571 J0.
G3 X-31.035 Y228.6 Z-5.689 I18.664 J-43.07
G1 Y152.4 Z-8.35
Y101.6
G3 X-2.759 Y58.599 I46.835 J0.
G2 X-2.415 Y58.075 I-0.227 J-0.524
G1 X-2.46 Y31.75
G3 X27.32 Y-11.872 I46.839 J0.
G2 X27.846 Y-12.456 I-0.321 J-0.818
G3 X73.025 Y-46.91 I45.238 J12.473
G1 X111.125
G3 X158.035 Y0. I0. J46.91
G1 Y304.8
G3 X111.125 Y351.71 I-46.91 J0.
G1 X73.025
G3 X27.846 Y317.256 I0. J-46.849
G2 X27.32 Y316.672 I-0.847 J0.234
G3 X-2.444 Y273.05 I17.147 J-43.665
X-2.429 Y272.588 I7.407 J0.
G2 X-2.415 Y272.125 I-7.392 J-0.462
X-2.759 Y271.601 I-0.571 J0.
G3 X-31.035 Y228.6 I18.664 J-43.07
G1 Y152.4
G3 X-29.497 Y150.094 I2.498 J0.
G2 X-27.96 Y147.788 I-0.961 J-2.306
G1 Y101.6
G3 X0.319 Y60.666 I43.765 J0.
G2 X0.66 Y60.172 I-0.188 J-0.495
G1 X0.615 Y31.75
G3 X29.93 Y-9.563 I43.768 J0.
G2 X30.416 Y-10.103 I-0.252 J-0.716
G3 X73.025 Y-43.835 I42.666 J10.117
G1 X111.125
G3 X154.96 Y0. I0. J43.835
G1 Y304.8
G3 X111.125 Y348.635 I-43.835 J0.
G1 X73.025
G3 X30.416 Y314.903 I0. J-43.777
G2 X29.93 Y314.363 I-0.738 J0.175
G3 X0.615 Y273.05 I14.542 J-41.376
X0.637 Y271.539 I50.732 J0.
G2 X0.66 Y270.028 I-50.709 J-1.511
X0.319 Y269.534 I-0.529 J0.
G3 X-27.96 Y228.6 I15.581 J-40.999
G1 Y147.788
G3 X-26.423 Y145.481 I2.498 J0.
G2 X-24.885 Y143.175 I-0.961 J-2.306
G1 Y101.6
G3 X3.397 Y62.844 I40.695 J0.
G2 X3.735 Y62.38 I-0.149 J-0.464
G1 X3.69 Y31.75
G3 X32.598 Y-7.202 I40.697 J0.
G2 X33.044 Y-7.698 I-0.188 J-0.619
G3 X73.025 Y-40.76 I40.035 J7.709
G1 X111.125
G3 X151.885 Y0. I0. J40.76
G1 Y304.8
G3 X111.125 Y345.56 I-40.76 J0.
G1 X73.025
G3 X33.044 Y312.498 I0. J-40.705
G2 X32.598 Y312.002 I-0.635 J0.122
G3 X3.69 Y273.05 I11.871 J-39.012
X3.713 Y270.435 I151.975 J0.
G2 X3.735 Y267.82 I-151.952 J-2.615
X3.397 Y267.356 I-0.488 J0.
G3 X-24.885 Y228.6 I12.498 J-38.818
G1 Y143.175
G3 X-23.347 Y140.869 I2.498 J0.
G2 X-21.81 Y138.563 I-0.961 J-2.306
G1 Y101.6
G3 X6.475 Y65.153 I37.625 J0.
G2 X6.81 Y64.721 I-0.111 J-0.432
G1 X6.765 Y31.75
G3 X35.343 Y-4.772 I37.626 J0.
G2 X35.749 Y-5.223 I-0.131 J-0.527
G3 X73.025 Y-37.685 I37.328 J5.23
G1 X111.125
G3 X148.81 Y0. I0. J37.685
G1 Y304.8
G3 X111.125 Y342.485 I-37.685 J0.
G1 X73.025
G3 X35.749 Y310.023 I0. J-37.633
G2 X35.343 Y309.572 I-0.538 J0.075
G3 X6.765 Y273.05 I9.122 J-36.579
X6.787 Y269.265 I318.428 J0.
G2 X6.81 Y265.479 I-318.405 J-3.785
X6.475 Y265.047 I-0.446 J0.
G3 X-21.81 Y228.6 I9.415 J-36.506
G1 Y138.563
G3 X-20.272 Y136.256 I2.498 J0.
G2 X-18.735 Y133.95 I-0.961 J-2.306
G1 Y101.6
G3 X9.555 Y67.618 I34.555 J0.
G2 X9.885 Y67.22 I-0.074 J-0.397
G1 X9.84 Y31.75
G3 X38.197 Y-2.245 I34.555 J0.
G2 X38.562 Y-2.65 I-0.081 J-0.44
G3 X73.025 Y-34.61 I34.512 J2.654
G1 X111.125
G3 X145.735 Y0. I0. J34.61
G1 Y304.8
G3 X111.125 Y339.41 I-34.61 J0.
G1 X73.025
G3 X38.562 Y307.45 I0. J-34.561
G2 X38.197 Y307.045 I-0.446 J0.034
G3 X9.84 Y273.05 I6.263 J-34.049
G1 X9.885 Y262.98
G2 X9.555 Y262.582 I-0.404 J0.
G3 X-18.735 Y228.6 I6.33 J-34.036
G1 Y133.95
G3 X-17.198 Y131.644 I2.498 J0.
G2 X-15.66 Y129.337 I-0.961 J-2.306
G1 Y101.6
G3 X12.635 Y70.277 I31.485 J0.
G2 X12.96 Y69.917 I-0.037 J-0.36
G1 X12.915 Y31.75
G3 X41.21 Y0.427 I31.485 J0.
G2 X41.535 Y0.067 I-0.037 J-0.36
G1 X41.534 Y0.033
X41.533 Y0.
G3 X73.025 Y-31.535 I31.535 J0.
G1 X111.125
G3 X142.66 Y0. I0. J31.535
G1 Y304.8
G3 X111.125 Y336.335 I-31.535 J0.
G1 X73.025
G3 X41.535 Y304.733 I0. J-31.49
G2 X41.21 Y304.373 I-0.362 J0.
G3 X12.915 Y273.05 I3.245 J-31.373
G1 X12.96 Y260.283
G2 X12.635 Y259.923 I-0.362 J0.
G3 X-15.66 Y228.6 I3.245 J-31.373
G1 Y129.337
G3 X-14.123 Y127.031 I2.498 J0.
G2 X-12.585 Y124.725 I-0.961 J-2.306
G1 Y101.6
G3 X15.717 Y73.185 I28.415 J0.
G2 X16.035 Y72.865 I-0.002 J-0.32
G1 X15.99 Y31.75
G3 X44.292 Y3.335 I28.415 J0.
G2 X44.61 Y3.015 I-0.002 J-0.32
X44.588 Y1.508 I-50.524 J0.
G3 X44.565 Y0. I50.501 J-1.508
X73.025 Y-28.46 I28.46 J0.
G1 X111.125
G3 X139.585 Y0. I0. J28.46
G1 Y304.8
G3 X111.125 Y333.26 I-28.46 J0.
G1 X73.025
G3 X44.565 Y304.8 I0. J-28.46
X44.588 Y303.292 I50.524 J0.
G2 X44.61 Y301.785 I-50.501 J-1.508
X44.292 Y301.465 I-0.32 J0.
G3 X15.99 Y273.05 I0.159 J-28.46
G1 X16.035 Y257.335
G2 X15.717 Y257.015 I-0.32 J0.
G3 X-12.585 Y228.6 I0.159 J-28.46
G1 Y124.725
G3 X-11.047 Y122.419 I2.498 J0.
G2 X-9.51 Y120.113 I-0.961 J-2.306
G1 Y101.6
G3 X15.875 Y76.215 I25.385 J0.
X17.333 Y76.238 I0. J47.239
G2 X18.791 Y76.26 I1.458 J-47.217
X19.11 Y75.941 I0. J-0.319
G1 X19.065 Y31.75
G3 X44.45 Y6.365 I25.385 J0.
X45.908 Y6.387 I0. J47.239
G2 X47.366 Y6.41 I1.458 J-47.217
X47.685 Y6.091 I0. J-0.319
X47.662 Y3.045 I-206.1 J0.
G3 X47.64 Y0. I206.078 J-3.045
X73.025 Y-25.385 I25.385 J0.
G1 X111.125
G3 X136.51 Y0. I0. J25.385
G1 Y304.8
G3 X111.125 Y330.185 I-25.385 J0.
G1 X73.025
G3 X47.64 Y304.8 I0. J-25.385
X47.662 Y301.755 I206.1 J0.
G2 X47.685 Y298.709 I-206.078 J-3.045
X47.366 Y298.39 I-0.319 J0.
X45.908 Y298.413 I0. J47.239
G3 X44.45 Y298.435 I-1.458 J-47.217
X19.065 Y273.05 I0. J-25.385
G1 X19.11 Y254.259
G2 X18.791 Y253.94 I-0.319 J0.
X17.333 Y253.962 I0. J47.239
G3 X15.875 Y253.985 I-1.458 J-47.217
X-9.51 Y228.6 I0. J-25.385
G1 Y120.113
G3 X-7.972 Y117.806 I2.498 J0.
G2 X-6.435 Y115.5 I-0.961 J-2.306
G1 Y101.6
G3 X15.875 Y79.29 I22.31 J0.
X18.87 Y79.313 I0. J199.388
G2 X21.866 Y79.335 I2.995 J-199.366
X22.185 Y79.016 I0. J-0.319
G1 X22.14 Y31.75
G3 X44.45 Y9.44 I22.31 J0.
X47.445 Y9.462 I0. J199.388
G2 X50.441 Y9.485 I2.995 J-199.366
X50.76 Y9.166 I0. J-0.319
G1 X50.715 Y0.
G3 X73.025 Y-22.31 I22.31 J0.
G1 X111.125
G3 X133.435 Y0. I0. J22.31
G1 Y304.8
G3 X111.125 Y327.11 I-22.31 J0.
G1 X73.025
G3 X50.715 Y304.8 I0. J-22.31
G1 X50.76 Y295.634
G2 X50.441 Y295.315 I-0.319 J0.
X47.445 Y295.337 I0. J199.388
G3 X44.45 Y295.36 I-2.995 J-199.366
X22.14 Y273.05 I0. J-22.31
G1 X22.185 Y251.184
G2 X21.866 Y250.865 I-0.319 J0.
X18.87 Y250.887 I0. J199.388
G3 X15.875 Y250.91 I-2.995 J-199.366
X-6.435 Y228.6 I0. J-22.31
G1 Y115.5
G3 X-4.898 Y113.194 I2.498 J0.
G2 X-3.36 Y110.887 I-0.961 J-2.306
G1 Y101.6
G3 X15.875 Y82.365 I19.235 J0.
G1 X24.941 Y82.41
G2 X25.26 Y82.091 I0. J-0.319
G1 X25.215 Y31.75
G3 X44.45 Y12.515 I19.235 J0.
G1 X53.516 Y12.56
G2 X53.835 Y12.241 I0. J-0.319
G1 X53.79 Y0.
G3 X73.025 Y-19.235 I19.235 J0.
G1 X111.125
G3 X130.36 Y0. I0. J19.235
G1 Y304.8
G3 X111.125 Y324.035 I-19.235 J0.
G1 X73.025
G3 X53.79 Y304.8 I0. J-19.235
G1 X53.835 Y292.559
G2 X53.516 Y292.24 I-0.319 J0.
G1 X44.45 Y292.285
G3 X25.215 Y273.05 I0. J-19.235
G1 X25.26 Y248.109
G2 X24.941 Y247.79 I-0.319 J0.
G1 X15.875 Y247.835
G3 X-3.36 Y228.6 I0. J-19.235
G1 Y110.887
G3 X-1.822 Y108.581 I2.498 J0.
G2 X-0.285 Y106.275 I-0.961 J-2.306
G1 Y101.6
G3 X15.875 Y85.44 I16.16 J0.
G1 X28.016 Y85.485
G2 X28.335 Y85.166 I0. J-0.319
G1 X28.29 Y31.75
G3 X44.45 Y15.59 I16.16 J0.
G1 X56.591 Y15.635
G2 X56.91 Y15.316 I0. J-0.319
G1 X56.904 Y10.254
X56.886 Y5.193
X56.856 Y0.131
G3 X63.887 Y-13.328 I16.18 J-0.114
X73.025 Y-16.16 I9.138 J13.328
G1 X111.125
G3 X127.285 Y0. I0. J16.16
G1 Y304.8
G3 X111.125 Y320.96 I-16.16 J0.
G1 X73.025
G3 X56.865 Y304.8 I0. J-16.16
G1 X56.91 Y289.484
G2 X56.591 Y289.165 I-0.319 J0.
G1 X44.45 Y289.21
G3 X28.29 Y273.05 I0. J-16.16
G1 X28.335 Y245.034
G2 X28.016 Y244.715 I-0.319 J0.
G1 X15.875 Y244.76
G3 X-0.285 Y228.6 I0. J-16.16
G1 Y106.275
G3 X1.253 Y103.969 I2.498 J0.
G2 X2.79 Y101.662 I-0.961 J-2.306
G1 Y101.6
G3 X15.875 Y88.515 I13.085 J0.
G1 X31.091 Y88.56
G2 X31.41 Y88.241 I0. J-0.319
G1 X31.365 Y31.75
G3 X44.45 Y18.665 I13.085 J0.
G1 X59.666 Y18.71
G2 X59.985 Y18.391 I0. J-0.319
G1 X59.94 Y0.
G3 X73.025 Y-13.085 I13.085 J0.
G1 X111.125
G3 X124.21 Y0. I0. J13.085
G1 Y304.8
G3 X111.125 Y317.885 I-13.085 J0.
G1 X73.025
G3 X59.985 Y304.845 I0. J-13.04
G1 Y286.409
G2 X59.666 Y286.09 I-0.319 J0.
G1 X44.45 Y286.135
G3 X31.365 Y273.05 I0. J-13.085
G1 X31.41 Y241.959
G2 X31.091 Y241.64 I-0.319 J0.
G1 X15.875 Y241.685
G3 X2.79 Y228.6 I0. J-13.085
G1 Y101.662
G3 X4.581 Y99.2 I2.588 J0.
G2 X6.881 Y97.205 I-1.198 J-3.705
G3 X15.875 Y91.59 I8.994 J4.395
G1 X34.166 Y91.635
G2 X34.485 Y91.316 I0. J-0.319
G1 X34.44 Y31.75
G3 X44.45 Y21.74 I10.01 J0.
G1 X62.741 Y21.785
G2 X63.06 Y21.466 I0. J-0.319
G1 X63.015 Y0.
G3 X73.025 Y-10.01 I10.01 J0.
G1 X111.125
G3 X121.135 Y0. I0. J10.01
G1 Y304.8
G3 X111.125 Y314.81 I-10.01 J0.
G1 X73.025
G3 X63.015 Y304.8 I0. J-10.01
G1 X63.06 Y283.334
G2 X62.741 Y283.015 I-0.319 J0.
G1 X44.45 Y283.06
G3 X34.44 Y273.05 I0. J-10.01
G1 X34.485 Y238.884
G2 X34.166 Y238.565 I-0.319 J0.
G1 X15.875 Y238.61
G3 X5.865 Y228.6 I0. J-10.01
G1 Y101.6
G3 X6.881 Y97.205 I10.01 J0.
X9.711 Y95.781 I2.352 J1.149
G2 X12.851 Y95.359 I0.928 J-4.989
G3 X15.875 Y94.665 I3.024 J6.241
G1 X37.241 Y94.71
G2 X37.56 Y94.391 I0. J-0.319
G1 X37.515 Y31.75
G3 X44.45 Y24.815 I6.935 J0.
G1 X65.816 Y24.86
G2 X66.135 Y24.541 I0. J-0.319
G1 X66.09 Y0.
G3 X73.025 Y-6.935 I6.935 J0.
G1 X111.125
G3 X118.06 Y0. I0. J6.935
G1 Y304.8
G3 X111.125 Y311.735 I-6.935 J0.
G1 X73.025
G3 X66.09 Y304.8 I0. J-6.935
G1 X66.135 Y280.259
G2 X65.816 Y279.94 I-0.319 J0.
G1 X44.45 Y279.985
G3 X37.515 Y273.05 I0. J-6.935
G1 X37.56 Y235.809
G2 X37.241 Y235.49 I-0.319 J0.
G1 X15.875 Y235.535
G3 X8.94 Y228.6 I0. J-6.935
G1 Y101.6
G3 X12.851 Y95.359 I6.935 J0.
X15.985 Y96.235 I1.071 J2.211
G2 X18.844 Y97.79 I2.858 J-1.85
G1 X40.64
Y31.75
G3 X44.45 Y27.94 I3.81 J0.
G1 X69.215
Y0.
G3 X73.025 Y-3.81 I3.81 J0.
G1 X111.125
G3 X114.935 Y0. I0. J3.81
G1 Y304.8
G3 X111.125 Y308.61 I-3.81 J0.
G1 X73.025
G3 X69.215 Y304.8 I0. J-3.81
G1 Y276.86
X44.45
G3 X40.64 Y273.05 I0. J-3.81
G1 Y232.41
X15.875
G3 X12.065 Y228.6 I0. J-3.81
G1 Y101.6
G3 X15.875 Y97.79 I3.81 J0.
G1 X18.844
G3 X19.32 Y98.107 I0. J0.516
G2 X19.796 Y98.425 I0.476 J-0.198
G1 X41.275
Y31.75
G3 X44.45 Y28.575 I3.175 J0.
G1 X69.85
Y0.
G3 X73.025 Y-3.175 I3.175 J0.
G1 X111.125
G3 X114.3 Y0. I0. J3.175
G1 Y304.8
G3 X111.125 Y307.975 I-3.175 J0.
G1 X73.025
G3 X69.85 Y304.8 I0. J-3.175
G1 Y276.225
X44.45
G3 X41.275 Y273.05 I0. J-3.175
G1 Y231.775
X15.875
G3 X12.7 Y228.6 I0. J-3.175
G1 Y101.6
G3 X15.875 Y98.425 I3.175 J0.
G1 X19.796
G2 X20.431 Y97.79 I0. J-0.635
G1 Y97.155
G19 G2 Y96.52 Z-7.715 J0. K0.635
G0 Z16.
G17
M5
G0 Z15
G0 X0 Y0

M9
M30
