(1001)
(T1  D=6.35 CR=0. - ZMIN=-8.35 - FLAT END MILL)
G90 G94 G91.1 G40 G49 G17
G21
G0 Z15

(2D CONTOUR1)
M5
T1 M6
S15000 M3
G54
M8
G0 X11.014 Y35.34
G43 Z16. H1
Z6.
G1 Z4.135 F1600.
X11.022 Z4.036
X11.045 Z3.939
X11.083 Z3.847
X11.136 Z3.762
X11.2 Z3.686
X11.276 Z3.621
X11.361 Z3.569
X11.453 Z3.531
X11.55 Y35.339 Z3.508
X11.649 Z3.5
X12.284
G2 X12.918 Y34.703 I-0.001 J-0.635
G1 X12.915 Y31.75 Z3.397
G3 X41.21 Y0.427 Z1.781 I31.485 J0.
G2 X41.535 Y0.067 Z1.763 I-0.037 J-0.36
G1 X41.534 Y0.033 Z1.762
X41.533 Y0. Z1.761
G3 X73.025 Y-31.535 Z0.032 I31.535 J0.
G1 X111.125 Z-1.298
G3 X142.66 Y0. Z-3.028 I0. J31.535
G1 Y152.4 Z-8.35
Y304.8
G3 X111.125 Y336.335 I-31.535 J0.
G1 X73.025
G3 X41.535 Y304.733 I0. J-31.49
G2 X41.21 Y304.373 I-0.362 J0.
G3 X12.915 Y273.05 I3.245 J-31.373
G1 X12.96 Y260.283
G2 X12.635 Y259.923 I-0.362 J0.
G3 X-15.66 Y228.6 I3.245 J-31.373
G1 Y101.6
G3 X12.635 Y70.277 I31.485 J0.
G2 X12.96 Y69.917 I-0.037 J-0.36
G1 X12.915 Y31.75
G3 X41.21 Y0.427 I31.485 J0.
G2 X41.535 Y0.067 I-0.037 J-0.36
G1 X41.534 Y0.033
X41.533 Y0.
G3 X73.025 Y-31.535 I31.535 J0.
G1 X111.125
G3 X142.66 Y0. I0. J31.535
G1 Y152.4
G3 X141.122 Y154.706 I-2.498 J0.
G2 X139.585 Y157.012 I0.961 J2.306
G1 Y304.8
G3 X111.125 Y333.26 I-28.46 J0.
G1 X73.025
G3 X44.565 Y304.8 I0. J-28.46
X44.588 Y303.292 I50.524 J0.
G2 X44.61 Y301.785 I-50.501 J-1.508
X44.292 Y301.465 I-0.32 J0.
G3 X15.99 Y273.05 I0.159 J-28.46
G1 X16.035 Y257.335
G2 X15.717 Y257.015 I-0.32 J0.
G3 X-12.585 Y228.6 I0.159 J-28.46
G1 Y101.6
G3 X15.717 Y73.185 I28.415 J0.
G2 X16.035 Y72.865 I-0.002 J-0.32
G1 X15.99 Y31.75
G3 X44.292 Y3.335 I28.415 J0.
G2 X44.61 Y3.015 I-0.002 J-0.32
X44.588 Y1.508 I-50.524 J0.
G3 X44.565 Y0. I50.501 J-1.508
X73.025 Y-28.46 I28.46 J0.
G1 X111.125
G3 X139.585 Y0. I0. J28.46
G1 Y157.012
G3 X138.048 Y159.319 I-2.498 J0.
G2 X136.51 Y161.625 I0.961 J2.306
G1 Y304.8
G3 X111.125 Y330.185 I-25.385 J0.
G1 X73.025
G3 X47.64 Y304.8 I0. J-25.385
X47.662 Y301.755 I206.1 J0.
G2 X47.685 Y298.709 I-206.078 J-3.045
X47.366 Y298.39 I-0.319 J0.
X45.908 Y298.413 I0. J47.239
G3 X44.45 Y298.435 I-1.458 J-47.217
X19.065 Y273.05 I0. J-25.385
G1 X19.11 Y254.259
G2 X18.791 Y253.94 I-0.319 J0.
X17.333 Y253.962 I0. J47.239
G3 X15.875 Y253.985 I-1.458 J-47.217
X-9.51 Y228.6 I0. J-25.385
G1 Y101.6
G3 X15.875 Y76.215 I25.385 J0.
X17.333 Y76.238 I0. J47.239
G2 X18.791 Y76.26 I1.458 J-47.217
X19.11 Y75.941 I0. J-0.319
G1 X19.065 Y31.75
G3 X44.45 Y6.365 I25.385 J0.
X45.908 Y6.387 I0. J47.239
G2 X47.366 Y6.41 I1.458 J-47.217
X47.685 Y6.091 I0. J-0.319
X47.662 Y3.045 I-206.1 J0.
G3 X47.64 Y0. I206.078 J-3.045
X73.025 Y-25.385 I25.385 J0.
G1 X111.125
G3 X136.51 Y0. I0. J25.385
G1 Y161.625
G3 X134.973 Y163.931 I-2.498 J0.
G2 X133.435 Y166.238 I0.961 J2.306
G1 Y304.8
G3 X111.125 Y327.11 I-22.31 J0.
G1 X73.025
G3 X50.715 Y304.8 I0. J-22.31
G1 X50.76 Y295.634
G2 X50.441 Y295.315 I-0.319 J0.
X47.445 Y295.337 I0. J199.388
G3 X44.45 Y295.36 I-2.995 J-199.366
X22.14 Y273.05 I0. J-22.31
G1 X22.185 Y251.184
G2 X21.866 Y250.865 I-0.319 J0.
X18.87 Y250.887 I0. J199.388
G3 X15.875 Y250.91 I-2.995 J-199.366
X-6.435 Y228.6 I0. J-22.31
G1 Y101.6
G3 X15.875 Y79.29 I22.31 J0.
X18.87 Y79.313 I0. J199.388
G2 X21.866 Y79.335 I2.995 J-199.366
X22.185 Y79.016 I0. J-0.319
G1 X22.14 Y31.75
G3 X44.45 Y9.44 I22.31 J0.
X47.445 Y9.462 I0. J199.388
G2 X50.441 Y9.485 I2.995 J-199.366
X50.76 Y9.166 I0. J-0.319
G1 X50.715 Y0.
G3 X73.025 Y-22.31 I22.31 J0.
G1 X111.125
G3 X133.435 Y0. I0. J22.31
G1 Y166.238
G3 X131.898 Y168.544 I-2.498 J0.
G2 X130.36 Y170.85 I0.961 J2.306
G1 Y304.8
G3 X111.125 Y324.035 I-19.235 J0.
G1 X73.025
G3 X53.79 Y304.8 I0. J-19.235
G1 X53.835 Y292.559
G2 X53.516 Y292.24 I-0.319 J0.
G1 X44.45 Y292.285
G3 X25.215 Y273.05 I0. J-19.235
G1 X25.26 Y248.109
G2 X24.941 Y247.79 I-0.319 J0.
G1 X15.875 Y247.835
G3 X-3.36 Y228.6 I0. J-19.235
G1 Y101.6
G3 X15.875 Y82.365 I19.235 J0.
G1 X24.941 Y82.41
G2 X25.26 Y82.091 I0. J-0.319
G1 X25.215 Y31.75
G3 X44.45 Y12.515 I19.235 J0.
G1 X53.516 Y12.56
G2 X53.835 Y12.241 I0. J-0.319
G1 X53.79 Y0.
G3 X73.025 Y-19.235 I19.235 J0.
G1 X111.125
G3 X130.36 Y0. I0. J19.235
G1 Y170.85
G3 X128.822 Y173.156 I-2.498 J0.
G2 X127.285 Y175.462 I0.961 J2.306
G1 Y304.8
G3 X111.125 Y320.96 I-16.16 J0.
G1 X73.025
G3 X56.865 Y304.8 I0. J-16.16
G1 X56.91 Y289.484
G2 X56.591 Y289.165 I-0.319 J0.
G1 X44.45 Y289.21
G3 X28.29 Y273.05 I0. J-16.16
G1 X28.335 Y245.034
G2 X28.016 Y244.715 I-0.319 J0.
G1 X15.875 Y244.76
G3 X-0.285 Y228.6 I0. J-16.16
G1 Y101.6
G3 X15.875 Y85.44 I16.16 J0.
G1 X28.016 Y85.485
G2 X28.335 Y85.166 I0. J-0.319
G1 X28.29 Y31.75
G3 X44.45 Y15.59 I16.16 J0.
G1 X56.591 Y15.635
G2 X56.91 Y15.316 I0. J-0.319
G1 X56.904 Y10.254
X56.886 Y5.193
X56.856 Y0.131
G3 X63.887 Y-13.328 I16.18 J-0.114
X73.025 Y-16.16 I9.138 J13.328
G1 X111.125
G3 X127.285 Y0. I0. J16.16
G1 Y175.462
G3 X125.747 Y177.769 I-2.498 J0.
G2 X124.21 Y180.075 I0.961 J2.306
G1 Y304.8
G3 X111.125 Y317.885 I-13.085 J0.
G1 X73.025
G3 X59.985 Y304.845 I0. J-13.04
G1 Y286.409
G2 X59.666 Y286.09 I-0.319 J0.
G1 X44.45 Y286.135
G3 X31.365 Y273.05 I0. J-13.085
G1 X31.41 Y241.959
G2 X31.091 Y241.64 I-0.319 J0.
G1 X15.875 Y241.685
G3 X2.79 Y228.6 I0. J-13.085
G1 Y101.6
G3 X15.875 Y88.515 I13.085 J0.
G1 X31.091 Y88.56
G2 X31.41 Y88.241 I0. J-0.319
G1 X31.365 Y31.75
G3 X44.45 Y18.665 I13.085 J0.
G1 X59.666 Y18.71
G2 X59.985 Y18.391 I0. J-0.319
G1 X59.94 Y0.
G3 X73.025 Y-13.085 I13.085 J0.
G1 X111.125
G3 X124.21 Y0. I0. J13.085
G1 Y180.075
G3 X122.673 Y182.381 I-2.498 J0.
G2 X121.135 Y184.688 I0.961 J2.306
G1 Y304.8
G3 X111.125 Y314.81 I-10.01 J0.
G1 X73.025
G3 X63.015 Y304.8 I0. J-10.01
G1 X63.06 Y283.334
G2 X62.741 Y283.015 I-0.319 J0.
G1 X44.45 Y283.06
G3 X34.44 Y273.05 I0. J-10.01
G1 X34.485 Y238.884
G2 X34.166 Y238.565 I-0.319 J0.
G1 X15.875 Y238.61
G3 X5.865 Y228.6 I0. J-10.01
G1 Y101.6
G3 X15.875 Y91.59 I10.01 J0.
G1 X34.166 Y91.635
G2 X34.485 Y91.316 I0. J-0.319
G1 X34.44 Y31.75
G3 X44.45 Y21.74 I10.01 J0.
G1 X62.741 Y21.785
G2 X63.06 Y21.466 I0. J-0.319
G1 X63.015 Y0.
G3 X73.025 Y-10.01 I10.01 J0.
G1 X111.125
G3 X121.135 Y0. I0. J10.01
G1 Y184.688
G3 X119.598 Y186.994 I-2.498 J0.
G2 X118.06 Y189.3 I0.961 J2.306
G1 Y304.8
G3 X111.125 Y311.735 I-6.935 J0.
G1 X73.025
G3 X66.09 Y304.8 I0. J-6.935
G1 X66.135 Y280.259
G2 X65.816 Y279.94 I-0.319 J0.
G1 X44.45 Y279.985
G3 X37.515 Y273.05 I0. J-6.935
G1 X37.56 Y235.809
G2 X37.241 Y235.49 I-0.319 J0.
G1 X15.875 Y235.535
G3 X8.94 Y228.6 I0. J-6.935
G1 Y101.6
G3 X15.875 Y94.665 I6.935 J0.
G1 X37.241 Y94.71
G2 X37.56 Y94.391 I0. J-0.319
G1 X37.515 Y31.75
G3 X44.45 Y24.815 I6.935 J0.
G1 X65.816 Y24.86
G2 X66.135 Y24.541 I0. J-0.319
G1 X66.09 Y0.
G3 X73.025 Y-6.935 I6.935 J0.
G1 X111.125
G3 X118.06 Y0. I0. J6.935
G1 Y189.3
G3 X116.497 Y191.644 I-2.539 J0.
G2 X114.935 Y193.988 I0.977 J2.344
G1 Y304.8
G3 X111.125 Y308.61 I-3.81 J0.
G1 X73.025
G3 X69.215 Y304.8 I0. J-3.81
G1 Y276.86
X44.45
G3 X40.64 Y273.05 I0. J-3.81
G1 Y232.41
X15.875
G3 X12.065 Y228.6 I0. J-3.81
G1 Y101.6
G3 X15.875 Y97.79 I3.81 J0.
G1 X40.64
Y31.75
G3 X44.45 Y27.94 I3.81 J0.
G1 X69.215
Y0.
G3 X73.025 Y-3.81 I3.81 J0.
G1 X111.125
G3 X114.935 Y0. I0. J3.81
G1 Y193.988
G3 X114.618 Y194.464 I-0.516 J0.
G2 X114.3 Y194.94 I0.198 J0.476
G1 Y304.8
G3 X111.125 Y307.975 I-3.175 J0.
G1 X73.025
G3 X69.85 Y304.8 I0. J-3.175
G1 Y276.225
X44.45
G3 X41.275 Y273.05 I0. J-3.175
G1 Y231.775
X15.875
G3 X12.7 Y228.6 I0. J-3.175
G1 Y101.6
G3 X15.875 Y98.425 I3.175 J0.
G1 X41.275
Y31.75
G3 X44.45 Y28.575 I3.175 J0.
G1 X69.85
Y0.
G3 X73.025 Y-3.175 I3.175 J0.
G1 X111.125
G3 X114.3 Y0. I0. J3.175
G1 Y194.94
G2 X114.935 Y195.575 I0.635 J0.
G1 X115.57
G18 G2 X116.205 Z-7.715 I0. K0.635
G0 Z16.
G17
M5
G0 Z15
G0 X0 Y0

M9
M30
