(1001)
(T1  D=6.35 CR=0. - ZMIN=-8.35 - FLAT END MILL)
G90 G94 G91.1 G40 G49 G17
G21
G0 Z15

(2D CONTOUR1)
M5
T1 M6
S15000 M3
G54
M8
G0 X23.343 Y68.775
G43 Z16. H1
Z6.
G1 Z4.135 F1600.
X23.351 Z4.036
X23.374 Z3.939
X23.412 Z3.847
X23.464 Z3.762
X23.529 Z3.686
X23.605 Z3.621
X23.69 Z3.569
X23.782 Z3.531
X23.879 Z3.508
X23.978 Z3.5
X24.613 Y68.774
G2 X25.248 Y68.139 I-0.001 J-0.635
G1 X25.215 Y31.75 Z2.229
G3 X44.45 Y12.515 Z1.174 I19.235 J0.
G1 X53.516 Y12.56 Z0.858
G2 X53.835 Y12.241 Z0.84 I0. J-0.319
G1 X53.79 Y0. Z0.413
G3 X73.025 Y-19.235 Z-0.642 I19.235 J0.
G1 X111.125 Z-1.973
G3 X130.36 Y0. Z-3.028 I0. J19.235
G1 Y152.4 Z-8.35
Y304.8
G3 X111.125 Y324.035 I-19.235 J0.
G1 X73.025
G3 X53.79 Y304.8 I0. J-19.235
G1 X53.835 Y292.559
G2 X53.516 Y292.24 I-0.319 J0.
G1 X44.45 Y292.285
G3 X25.215 Y273.05 I0. J-19.235
G1 X25.26 Y248.109
G2 X24.941 Y247.79 I-0.319 J0.
G1 X15.875 Y247.835
G3 X-3.36 Y228.6 I0. J-19.235
G1 Y101.6
G3 X15.875 Y82.365 I19.235 J0.
G1 X24.941 Y82.41
G2 X25.26 Y82.091 I0. J-0.319
G1 X25.215 Y31.75
G3 X44.45 Y12.515 I19.235 J0.
G1 X53.516 Y12.56
G2 X53.835 Y12.241 I0. J-0.319
G1 X53.79 Y0.
G3 X73.025 Y-19.235 I19.235 J0.
G1 X111.125
G3 X130.36 Y0. I0. J19.235
G1 Y152.4
G3 X128.822 Y154.706 I-2.498 J0.
G2 X127.285 Y157.012 I0.961 J2.306
G1 Y304.8
G3 X111.125 Y320.96 I-16.16 J0.
G1 X73.025
G3 X56.865 Y304.8 I0. J-16.16
G1 X56.91 Y289.484
G2 X56.591 Y289.165 I-0.319 J0.
G1 X44.45 Y289.21
G3 X28.29 Y273.05 I0. J-16.16
G1 X28.335 Y245.034
G2 X28.016 Y244.715 I-0.319 J0.
G1 X15.875 Y244.76
G3 X-0.285 Y228.6 I0. J-16.16
G1 Y101.6
G3 X15.875 Y85.44 I16.16 J0.
G1 X28.016 Y85.485
G2 X28.335 Y85.166 I0. J-0.319
G1 X28.29 Y31.75
G3 X44.45 Y15.59 I16.16 J0.
G1 X56.591 Y15.635
G2 X56.91 Y15.316 I0. J-0.319
G1 X56.904 Y10.254
X56.886 Y5.193
X56.856 Y0.131
G3 X63.887 Y-13.328 I16.18 J-0.114
X73.025 Y-16.16 I9.138 J13.328
G1 X111.125
G3 X127.285 Y0. I0. J16.16
G1 Y157.012
G3 X125.747 Y159.319 I-2.498 J0.
G2 X124.21 Y161.625 I0.961 J2.306
G1 Y304.8
G3 X111.125 Y317.885 I-13.085 J0.
G1 X73.025
G3 X59.985 Y304.845 I0. J-13.04
G1 Y286.409
G2 X59.666 Y286.09 I-0.319 J0.
G1 X44.45 Y286.135
G3 X31.365 Y273.05 I0. J-13.085
G1 X31.41 Y241.959
G2 X31.091 Y241.64 I-0.319 J0.
G1 X15.875 Y241.685
G3 X2.79 Y228.6 I0. J-13.085
G1 Y101.6
G3 X15.875 Y88.515 I13.085 J0.
G1 X31.091 Y88.56
G2 X31.41 Y88.241 I0. J-0.319
G1 X31.365 Y31.75
G3 X44.45 Y18.665 I13.085 J0.
G1 X59.666 Y18.71
G2 X59.985 Y18.391 I0. J-0.319
G1 X59.94 Y0.
G3 X73.025 Y-13.085 I13.085 J0.
G1 X111.125
G3 X124.21 Y0. I0. J13.085
G1 Y161.625
G3 X122.673 Y163.931 I-2.498 J0.
G2 X121.135 Y166.238 I0.961 J2.306
G1 Y304.8
G3 X111.125 Y314.81 I-10.01 J0.
G1 X73.025
G3 X63.015 Y304.8 I0. J-10.01
G1 X63.06 Y283.334
G2 X62.741 Y283.015 I-0.319 J0.
G1 X44.45 Y283.06
G3 X34.44 Y273.05 I0. J-10.01
G1 X34.485 Y238.884
G2 X34.166 Y238.565 I-0.319 J0.
G1 X15.875 Y238.61
G3 X5.865 Y228.6 I0. J-10.01
G1 Y101.6
G3 X15.875 Y91.59 I10.01 J0.
G1 X34.166 Y91.635
G2 X34.485 Y91.316 I0. J-0.319
G1 X34.44 Y31.75
G3 X44.45 Y21.74 I10.01 J0.
G1 X62.741 Y21.785
G2 X63.06 Y21.466 I0. J-0.319
G1 X63.015 Y0.
G3 X73.025 Y-10.01 I10.01 J0.
G1 X111.125
G3 X121.135 Y0. I0. J10.01
G1 Y166.238
G3 X119.598 Y168.544 I-2.498 J0.
G2 X118.06 Y170.85 I0.961 J2.306
G1 Y304.8
G3 X111.125 Y311.735 I-6.935 J0.
G1 X73.025
G3 X66.09 Y304.8 I0. J-6.935
G1 X66.135 Y280.259
G2 X65.816 Y279.94 I-0.319 J0.
G1 X44.45 Y279.985
G3 X37.515 Y273.05 I0. J-6.935
G1 X37.56 Y235.809
G2 X37.241 Y235.49 I-0.319 J0.
G1 X15.875 Y235.535
G3 X8.94 Y228.6 I0. J-6.935
G1 Y101.6
G3 X15.875 Y94.665 I6.935 J0.
G1 X37.241 Y94.71
G2 X37.56 Y94.391 I0. J-0.319
G1 X37.515 Y31.75
G3 X44.45 Y24.815 I6.935 J0.
G1 X65.816 Y24.86
G2 X66.135 Y24.541 I0. J-0.319
G1 X66.09 Y0.
G3 X73.025 Y-6.935 I6.935 J0.
G1 X111.125
G3 X118.06 Y0. I0. J6.935
G1 Y170.85
G3 X116.497 Y173.194 I-2.539 J0.
G2 X114.935 Y175.538 I0.977 J2.344
G1 Y304.8
G3 X111.125 Y308.61 I-3.81 J0.
G1 X73.025
G3 X69.215 Y304.8 I0. J-3.81
G1 Y276.86
X44.45
G3 X40.64 Y273.05 I0. J-3.81
G1 Y232.41
X15.875
G3 X12.065 Y228.6 I0. J-3.81
G1 Y101.6
G3 X15.875 Y97.79 I3.81 J0.
G1 X40.64
Y31.75
G3 X44.45 Y27.94 I3.81 J0.
G1 X69.215
Y0.
G3 X73.025 Y-3.81 I3.81 J0.
G1 X111.125
G3 X114.935 Y0. I0. J3.81
G1 Y175.538
G3 X114.618 Y176.014 I-0.516 J0.
G2 X114.3 Y176.49 I0.198 J0.476
G1 Y304.8
G3 X111.125 Y307.975 I-3.175 J0.
G1 X73.025
G3 X69.85 Y304.8 I0. J-3.175
G1 Y276.225
X44.45
G3 X41.275 Y273.05 I0. J-3.175
G1 Y231.775
X15.875
G3 X12.7 Y228.6 I0. J-3.175
G1 Y101.6
G3 X15.875 Y98.425 I3.175 J0.
G1 X41.275
Y31.75
G3 X44.45 Y28.575 I3.175 J0.
G1 X69.85
Y0.
G3 X73.025 Y-3.175 I3.175 J0.
G1 X111.125
G3 X114.3 Y0. I0. J3.175
G1 Y176.49
G2 X114.935 Y177.125 I0.635 J0.
G1 X115.57
G18 G2 X116.205 Z-7.715 I0. K0.635
G0 Z16.
G17
M5
G0 Z15
G0 X0 Y0

M9
M30
