(1001)
(T1  D=6.35 CR=0. - ZMIN=-4.675 - FLAT END MILL)
G90 G94 G91.1 G40 G49 G17
G21
G0 Z15

(2D CONTOUR1)
M5
T1 M6
S15000 M3
G54
M8
G0 X-0.913 Y21.987
G43 Z16. H1
Z6.
G1 Z4.135 F1600.
X-0.906 Y21.986 Z4.036
X-0.883 Y21.982 Z3.939
X-0.845 Y21.976 Z3.847
X-0.794 Y21.968 Z3.762
X-0.73 Y21.957 Z3.686
X-0.655 Y21.945 Z3.621
X-0.571 Y21.931 Z3.569
X-0.48 Y21.917 Z3.531
X-0.385 Y21.901 Z3.508
X-0.287 Y21.885 Z3.5
X0.34 Y21.783
G2 X0.865 Y21.054 I-0.102 J-0.627
G1 X0.601 Y19.438 Z3.443
G3 X12.16 Y1.549 Z2.628 I15.668 J-2.555
X46.488 Y0.05 Z1.418 I20.544 J76.67
X59.562 Y16.864 Z0.603 I-2.757 J15.634
G1 X58.279 Y34.079 Z0.
X54.873 Y79.805
G3 X23.461 Y99.119 I-22.134 J-0.798
X22.827 Y98.73 I1.33 J-2.883
G1 X15.889 Y93.266
G3 X15.362 Y92.741 I1.964 J-2.494
X10.758 Y81.731 I17.377 J-13.733
G1 X0.601 Y19.438
G3 X12.16 Y1.549 I15.668 J-2.555
X46.488 Y0.05 I20.544 J76.67
X59.562 Y16.864 I-2.757 J15.634
G1 X58.279 Y34.079
X56.152 Y62.636 Z-1.
X54.873 Y79.805
G3 X23.461 Y99.119 I-22.134 J-0.798
X22.827 Y98.73 I1.33 J-2.883
G1 X15.889 Y93.266
G3 X15.362 Y92.741 I1.964 J-2.494
X10.758 Y81.731 I17.377 J-13.733
G1 X0.601 Y19.438
G3 X12.16 Y1.549 I15.668 J-2.555
X46.488 Y0.05 I20.544 J76.67
X59.562 Y16.864 I-2.757 J15.634
G1 X56.152 Y62.636
X54.873 Y79.805 Z-1.601
G3 X51.602 Y90.615 Z-2. I-22.134 J-0.798
X23.461 Y99.119 I-18.863 J-11.607
X22.827 Y98.73 I1.33 J-2.883
G1 X15.889 Y93.266
G3 X15.362 Y92.741 I1.964 J-2.494
X10.758 Y81.731 I17.377 J-13.733
G1 X0.601 Y19.438
G3 X12.16 Y1.549 I15.668 J-2.555
X46.488 Y0.05 I20.544 J76.67
X59.562 Y16.864 I-2.757 J15.634
G1 X56.152 Y62.636
X54.873 Y79.805
G3 X51.602 Y90.615 I-22.134 J-0.798
X26.751 Y100.331 Z-3. I-18.863 J-11.607
X23.461 Y99.119 I5.988 J-21.324
X22.827 Y98.73 I1.33 J-2.883
G1 X15.889 Y93.266
G3 X15.362 Y92.741 I1.964 J-2.494
X10.758 Y81.731 I17.377 J-13.733
G1 X0.601 Y19.438
G3 X12.16 Y1.549 I15.668 J-2.555
X46.488 Y0.05 I20.544 J76.67
X59.562 Y16.864 I-2.757 J15.634
G1 X54.873 Y79.805
G3 X26.751 Y100.331 I-22.134 J-0.798
X23.461 Y99.119 Z-3.123 I5.988 J-21.324
X22.827 Y98.73 Z-3.149 I1.33 J-2.883
G1 X15.889 Y93.266 Z-3.457
G3 X15.362 Y92.741 Z-3.483 I1.964 J-2.494
X13.671 Y90.276 Z-3.588 I17.377 J-13.733
X10.758 Y81.731 I19.068 J-11.268
G1 X0.601 Y19.438
G3 X12.16 Y1.549 I15.668 J-2.555
X46.488 Y0.05 I20.544 J76.67
X59.562 Y16.864 I-2.757 J15.634
G1 X54.873 Y79.805
G3 X23.461 Y99.119 I-22.134 J-0.798
X22.827 Y98.73 I1.33 J-2.883
G1 X15.889 Y93.266
G3 X15.362 Y92.741 I1.964 J-2.494
X13.671 Y90.276 I17.377 J-13.733
X10.758 Y81.731 Z-3.905 I19.068 J-11.268
G1 X9.514 Y74.099 Z-4.175
X0.601 Y19.438
G3 X12.16 Y1.549 I15.668 J-2.555
X46.488 Y0.05 I20.544 J76.67
X59.562 Y16.864 I-2.757 J15.634
G1 X54.873 Y79.805
G3 X23.461 Y99.119 I-22.134 J-0.798
X22.827 Y98.73 I1.33 J-2.883
G1 X15.889 Y93.266
G3 X15.362 Y92.741 I1.964 J-2.494
X10.758 Y81.731 I17.377 J-13.733
G1 X9.514 Y74.099
G2 X8.785 Y73.575 I-0.627 J0.102
G1 X8.158 Y73.677
X8.06 Y73.693 Z-4.167
X7.965 Y73.708 Z-4.144
X7.874 Y73.723 Z-4.106
X7.79 Y73.737 Z-4.054
X7.715 Y73.749 Z-3.989
X7.651 Y73.759 Z-3.913
X7.6 Y73.768 Z-3.828
X7.562 Y73.774 Z-3.736
X7.539 Y73.778 Z-3.639
X7.531 Y73.779 Z-3.54
G0 Z16.

(BORE1)
G0 X26.448 Y53.135
Z15.
Z4.5
G1 Z3.135 F1600.
X26.454 Y53.139 Z3.036
X26.475 Y53.151 Z2.939
X26.508 Y53.17 Z2.847
X26.553 Y53.196 Z2.762
X26.609 Y53.228 Z2.686
X26.674 Y53.266 Z2.621
X26.748 Y53.308 Z2.569
X26.828 Y53.354 Z2.531
X26.912 Y53.403 Z2.508
X26.998 Y53.452 Z2.5
X27.273 Y53.611
G3 X27.505 Y54.479 I-0.317 J0.55
X24.755 Y52.891 Z2.417 I-1.375 J-0.794
X27.505 Y54.479 Z2.334 I1.375 J0.794
X24.755 Y52.891 Z2.251 I-1.375 J-0.794
X27.505 Y54.479 Z2.167 I1.375 J0.794
X24.755 Y52.891 Z2.084 I-1.375 J-0.794
X27.505 Y54.479 Z2.001 I1.375 J0.794
X24.755 Y52.891 Z1.918 I-1.375 J-0.794
X27.505 Y54.479 Z1.835 I1.375 J0.794
X24.755 Y52.891 Z1.752 I-1.375 J-0.794
X27.505 Y54.479 Z1.669 I1.375 J0.794
X24.755 Y52.891 Z1.586 I-1.375 J-0.794
X27.505 Y54.479 Z1.502 I1.375 J0.794
X24.755 Y52.891 Z1.419 I-1.375 J-0.794
X27.505 Y54.479 Z1.336 I1.375 J0.794
X24.755 Y52.891 Z1.253 I-1.375 J-0.794
X27.505 Y54.479 Z1.17 I1.375 J0.794
X24.755 Y52.891 Z1.087 I-1.375 J-0.794
X27.505 Y54.479 Z1.004 I1.375 J0.794
X24.755 Y52.891 Z0.921 I-1.375 J-0.794
X27.505 Y54.479 Z0.837 I1.375 J0.794
X24.755 Y52.891 Z0.754 I-1.375 J-0.794
X27.505 Y54.479 Z0.671 I1.375 J0.794
X24.755 Y52.891 Z0.588 I-1.375 J-0.794
X27.505 Y54.479 Z0.505 I1.375 J0.794
X24.755 Y52.891 Z0.422 I-1.375 J-0.794
X27.505 Y54.479 Z0.339 I1.375 J0.794
X24.755 Y52.891 Z0.255 I-1.375 J-0.794
X27.505 Y54.479 Z0.172 I1.375 J0.794
X24.755 Y52.891 Z0.089 I-1.375 J-0.794
X27.505 Y54.479 Z0.006 I1.375 J0.794
X24.755 Y52.891 Z-0.077 I-1.375 J-0.794
X27.505 Y54.479 Z-0.16 I1.375 J0.794
X24.755 Y52.891 Z-0.243 I-1.375 J-0.794
X27.505 Y54.479 Z-0.326 I1.375 J0.794
X24.755 Y52.891 Z-0.41 I-1.375 J-0.794
X27.505 Y54.479 Z-0.493 I1.375 J0.794
X24.755 Y52.891 Z-0.576 I-1.375 J-0.794
X27.505 Y54.479 Z-0.659 I1.375 J0.794
X24.755 Y52.891 Z-0.742 I-1.375 J-0.794
X27.505 Y54.479 Z-0.825 I1.375 J0.794
X24.755 Y52.891 Z-0.908 I-1.375 J-0.794
X27.505 Y54.479 Z-0.991 I1.375 J0.794
X24.755 Y52.891 Z-1.075 I-1.375 J-0.794
X27.505 Y54.479 Z-1.158 I1.375 J0.794
X24.755 Y52.891 Z-1.241 I-1.375 J-0.794
X27.505 Y54.479 Z-1.324 I1.375 J0.794
X24.755 Y52.891 Z-1.407 I-1.375 J-0.794
X27.505 Y54.479 Z-1.49 I1.375 J0.794
X24.755 Y52.891 Z-1.573 I-1.375 J-0.794
X27.505 Y54.479 Z-1.656 I1.375 J0.794
X24.755 Y52.891 Z-1.74 I-1.375 J-0.794
X27.505 Y54.479 Z-1.823 I1.375 J0.794
X24.755 Y52.891 Z-1.906 I-1.375 J-0.794
X27.505 Y54.479 Z-1.989 I1.375 J0.794
X24.755 Y52.891 Z-2.072 I-1.375 J-0.794
X27.505 Y54.479 Z-2.155 I1.375 J0.794
X24.755 Y52.891 Z-2.238 I-1.375 J-0.794
X27.505 Y54.479 Z-2.322 I1.375 J0.794
X24.755 Y52.891 Z-2.405 I-1.375 J-0.794
X27.505 Y54.479 Z-2.488 I1.375 J0.794
X24.755 Y52.891 Z-2.571 I-1.375 J-0.794
X27.505 Y54.479 Z-2.654 I1.375 J0.794
X24.755 Y52.891 Z-2.737 I-1.375 J-0.794
X27.505 Y54.479 Z-2.82 I1.375 J0.794
X24.755 Y52.891 Z-2.903 I-1.375 J-0.794
X27.505 Y54.479 Z-2.987 I1.375 J0.794
X24.755 Y52.891 Z-3.07 I-1.375 J-0.794
X27.505 Y54.479 Z-3.153 I1.375 J0.794
X24.755 Y52.891 Z-3.236 I-1.375 J-0.794
X27.505 Y54.479 Z-3.319 I1.375 J0.794
X24.755 Y52.891 Z-3.402 I-1.375 J-0.794
X27.505 Y54.479 Z-3.485 I1.375 J0.794
X24.755 Y52.891 Z-3.568 I-1.375 J-0.794
X27.505 Y54.479 Z-3.652 I1.375 J0.794
X24.755 Y52.891 Z-3.735 I-1.375 J-0.794
X27.505 Y54.479 Z-3.818 I1.375 J0.794
X24.755 Y52.891 Z-3.901 I-1.375 J-0.794
X27.505 Y54.479 Z-3.984 I1.375 J0.794
X24.755 Y52.891 Z-4.067 I-1.375 J-0.794
X27.505 Y54.479 Z-4.15 I1.375 J0.794
X24.755 Y52.891 Z-4.234 I-1.375 J-0.794
X27.505 Y54.479 Z-4.317 I1.375 J0.794
X24.755 Y52.891 Z-4.4 I-1.375 J-0.794
X27.505 Y54.479 Z-4.483 I1.375 J0.794
X24.755 Y52.891 Z-4.566 I-1.375 J-0.794
X27.505 Y54.479 Z-4.649 I1.375 J0.794
X26.242 Y55.268 Z-4.675 I-1.375 J-0.794
X26.018 Y52.101 I-0.112 J-1.584
X26.242 Y55.268 I0.112 J1.584
X25.564 Y54.68 I-0.045 J-0.633
G1 X25.542 Y54.363
X25.535 Y54.264 Z-4.667
X25.528 Y54.167 Z-4.644
X25.521 Y54.076 Z-4.606
X25.515 Y53.991 Z-4.554
X25.51 Y53.915 Z-4.489
X25.505 Y53.851 Z-4.413
X25.502 Y53.799 Z-4.328
X25.499 Y53.761 Z-4.236
X25.497 Y53.737 Z-4.139
Y53.73 Z-4.04
G0 Z5.
X29.197 Y54.722
Z4.5
G1 Z3.135 F1600.
X29.204 Y54.726 Z3.036
X29.224 Y54.738 Z2.939
X29.257 Y54.757 Z2.847
X29.302 Y54.783 Z2.762
X29.358 Y54.815 Z2.686
X29.424 Y54.853 Z2.621
X29.498 Y54.896 Z2.569
X29.577 Y54.942 Z2.531
X29.661 Y54.99 Z2.508
X29.747 Y55.04 Z2.5
X30.022 Y55.199
G3 X30.255 Y56.066 I-0.318 J0.55
X22.006 Y51.304 Z2.361 I-4.124 J-2.381
X30.255 Y56.066 Z2.223 I4.124 J2.381
X22.006 Y51.304 Z2.084 I-4.124 J-2.381
X30.255 Y56.066 Z1.946 I4.124 J2.381
X22.006 Y51.304 Z1.807 I-4.124 J-2.381
X30.255 Y56.066 Z1.669 I4.124 J2.381
X22.006 Y51.304 Z1.53 I-4.124 J-2.381
X30.255 Y56.066 Z1.392 I4.124 J2.381
X22.006 Y51.304 Z1.253 I-4.124 J-2.381
X30.255 Y56.066 Z1.115 I4.124 J2.381
X22.006 Y51.304 Z0.976 I-4.124 J-2.381
X30.255 Y56.066 Z0.837 I4.124 J2.381
X22.006 Y51.304 Z0.699 I-4.124 J-2.381
X30.255 Y56.066 Z0.56 I4.124 J2.381
X22.006 Y51.304 Z0.422 I-4.124 J-2.381
X30.255 Y56.066 Z0.283 I4.124 J2.381
X22.006 Y51.304 Z0.145 I-4.124 J-2.381
X30.255 Y56.066 Z0.006 I4.124 J2.381
X22.006 Y51.304 Z-0.132 I-4.124 J-2.381
X30.255 Y56.066 Z-0.271 I4.124 J2.381
X22.006 Y51.304 Z-0.41 I-4.124 J-2.381
X30.255 Y56.066 Z-0.548 I4.124 J2.381
X22.006 Y51.304 Z-0.687 I-4.124 J-2.381
X30.255 Y56.066 Z-0.825 I4.124 J2.381
X22.006 Y51.304 Z-0.964 I-4.124 J-2.381
X30.255 Y56.066 Z-1.102 I4.124 J2.381
X22.006 Y51.304 Z-1.241 I-4.124 J-2.381
X30.255 Y56.066 Z-1.379 I4.124 J2.381
X22.006 Y51.304 Z-1.518 I-4.124 J-2.381
X30.255 Y56.066 Z-1.656 I4.124 J2.381
X22.006 Y51.304 Z-1.795 I-4.124 J-2.381
X30.255 Y56.066 Z-1.934 I4.124 J2.381
X22.006 Y51.304 Z-2.072 I-4.124 J-2.381
X30.255 Y56.066 Z-2.211 I4.124 J2.381
X22.006 Y51.304 Z-2.349 I-4.124 J-2.381
X30.255 Y56.066 Z-2.488 I4.124 J2.381
X22.006 Y51.304 Z-2.626 I-4.124 J-2.381
X30.255 Y56.066 Z-2.765 I4.124 J2.381
X22.006 Y51.304 Z-2.903 I-4.124 J-2.381
X30.255 Y56.066 Z-3.042 I4.124 J2.381
X22.006 Y51.304 Z-3.181 I-4.124 J-2.381
X30.255 Y56.066 Z-3.319 I4.124 J2.381
X22.006 Y51.304 Z-3.458 I-4.124 J-2.381
X30.255 Y56.066 Z-3.596 I4.124 J2.381
X22.006 Y51.304 Z-3.735 I-4.124 J-2.381
X30.255 Y56.066 Z-3.873 I4.124 J2.381
X22.006 Y51.304 Z-4.012 I-4.124 J-2.381
X30.255 Y56.066 Z-4.15 I4.124 J2.381
X22.006 Y51.304 Z-4.289 I-4.124 J-2.381
X30.255 Y56.066 Z-4.427 I4.124 J2.381
X22.006 Y51.304 Z-4.566 I-4.124 J-2.381
X30.841 Y52.987 Z-4.675 I4.124 J2.381
X21.419 Y54.383 I-4.711 J0.698
X30.841 Y52.987 I4.711 J-0.698
X30.306 Y53.708 I-0.628 J0.093
G1 X29.992 Y53.755
X29.894 Y53.769 Z-4.667
X29.798 Y53.783 Z-4.644
X29.707 Y53.797 Z-4.606
X29.623 Y53.809 Z-4.554
X29.548 Y53.82 Z-4.489
X29.484 Y53.83 Z-4.413
X29.432 Y53.838 Z-4.328
X29.395 Y53.843 Z-4.236
X29.372 Y53.847 Z-4.139
X29.364 Y53.848 Z-4.04
G0 Z5.
X31.947 Y56.31
Z4.5
G1 Z3.135 F1600.
X31.954 Y56.314 Z3.036
X31.974 Y56.326 Z2.939
X32.007 Y56.345 Z2.847
X32.052 Y56.371 Z2.762
X32.108 Y56.403 Z2.686
X32.174 Y56.441 Z2.621
X32.247 Y56.483 Z2.569
X32.327 Y56.529 Z2.531
X32.411 Y56.578 Z2.508
X32.497 Y56.627 Z2.5
X32.772 Y56.786
G3 X33.004 Y57.654 I-0.317 J0.55
X19.256 Y49.716 Z2.306 I-6.874 J-3.969
X33.004 Y57.654 Z2.112 I6.874 J3.969
X19.256 Y49.716 Z1.918 I-6.874 J-3.969
X33.004 Y57.654 Z1.724 I6.874 J3.969
X19.256 Y49.716 Z1.53 I-6.874 J-3.969
X33.004 Y57.654 Z1.336 I6.874 J3.969
X19.256 Y49.716 Z1.142 I-6.874 J-3.969
X33.004 Y57.654 Z0.948 I6.874 J3.969
X19.256 Y49.716 Z0.754 I-6.874 J-3.969
X33.004 Y57.654 Z0.56 I6.874 J3.969
X19.256 Y49.716 Z0.366 I-6.874 J-3.969
X33.004 Y57.654 Z0.172 I6.874 J3.969
X19.256 Y49.716 Z-0.022 I-6.874 J-3.969
X33.004 Y57.654 Z-0.216 I6.874 J3.969
X19.256 Y49.716 Z-0.41 I-6.874 J-3.969
X33.004 Y57.654 Z-0.604 I6.874 J3.969
X19.256 Y49.716 Z-0.797 I-6.874 J-3.969
X33.004 Y57.654 Z-0.991 I6.874 J3.969
X19.256 Y49.716 Z-1.185 I-6.874 J-3.969
X33.004 Y57.654 Z-1.379 I6.874 J3.969
X19.256 Y49.716 Z-1.573 I-6.874 J-3.969
X33.004 Y57.654 Z-1.767 I6.874 J3.969
X19.256 Y49.716 Z-1.961 I-6.874 J-3.969
X33.004 Y57.654 Z-2.155 I6.874 J3.969
X19.256 Y49.716 Z-2.349 I-6.874 J-3.969
X33.004 Y57.654 Z-2.543 I6.874 J3.969
X19.256 Y49.716 Z-2.737 I-6.874 J-3.969
X33.004 Y57.654 Z-2.931 I6.874 J3.969
X19.256 Y49.716 Z-3.125 I-6.874 J-3.969
X33.004 Y57.654 Z-3.319 I6.874 J3.969
X19.256 Y49.716 Z-3.513 I-6.874 J-3.969
X33.004 Y57.654 Z-3.707 I6.874 J3.969
X19.256 Y49.716 Z-3.901 I-6.874 J-3.969
X33.004 Y57.654 Z-4.095 I6.874 J3.969
X19.256 Y49.716 Z-4.289 I-6.874 J-3.969
X33.004 Y57.654 Z-4.483 I6.874 J3.969
X19.139 Y49.926 Z-4.675 I-6.874 J-3.969
X33.121 Y57.444 I6.991 J3.759
X19.139 Y49.926 I-6.991 J-3.759
X19.999 Y49.667 I0.559 J0.301
G1 X20.279 Y49.818
X20.366 Y49.865 Z-4.667
X20.452 Y49.911 Z-4.644
X20.533 Y49.954 Z-4.606
X20.608 Y49.994 Z-4.554
X20.674 Y50.03 Z-4.489
X20.731 Y50.061 Z-4.413
X20.777 Y50.086 Z-4.328
X20.811 Y50.104 Z-4.236
X20.831 Y50.115 Z-4.139
X20.838 Y50.118 Z-4.04
G0 Z15.
M5
G0 Z15
G0 X0 Y0

M9
M30
