(1001)
(T1  D=6.35 CR=0. - ZMIN=-18.35 - FLAT END MILL)
G90 G94 G91.1 G40 G49 G17
G21
G0 Z15

(2D CONTOUR2)
M5
T1 M6
S15000 M3
G54
M8
G0 X43.07 Y39.774
G43 Z16. H1
Z5.
G1 Z3.135 F800.
X43.062 Y39.773 Z3.036
X43.039 Y39.77 Z2.939
X43.002 Y39.763 Z2.847
X42.95 Y39.755 Z2.762
X42.886 Y39.745 Z2.686
X42.812 Y39.733 Z2.621
X42.728 Y39.719 Z2.569
X42.637 Y39.704 Z2.531
X42.541 Y39.689 Z2.508
X42.443 Y39.673 Z2.5
X41.816 Y39.572 F1600.
G2 X41.088 Y40.097 I-0.101 J0.627
G3 X9.364 Y118.238 Z-0.47 I-186.4 J-30.164 F800.
X4.943 Y119.018 Z-0.644 I-2.601 J-1.821
G1 X-0.259 Y115.376 Z-0.866
G3 X-1.515 Y111.994 Z-1. I1.821 J-2.601
X-1.039 Y110.954 I3.077 J0.781 F1600.
G2 X30.813 Y9.933 I-144.273 J-101.021
G1 Y3.583
G3 X33.988 Y0.408 I3.175 J0.
G1 X40.338
G3 X43.513 Y3.583 I0. J3.175
G1 Y9.933
G3 X9.364 Y118.238 I-188.825 J0.
X4.943 Y119.018 I-2.601 J-1.821
G1 X-0.259 Y115.376
G3 X-1.515 Y111.994 I1.821 J-2.601
X-1.039 Y110.954 Z-1.04 I3.077 J0.781 F800.
G2 X12.909 Y87.302 Z-2. I-144.273 J-101.021
X30.813 Y9.933 I-158.221 J-77.369 F1600.
G1 Y3.583
G3 X33.988 Y0.408 I3.175 J0.
G1 X40.338
G3 X43.513 Y3.583 I0. J3.175
G1 Y9.933
G3 X9.364 Y118.238 I-188.825 J0.
X4.943 Y119.018 I-2.601 J-1.821
G1 X-0.259 Y115.376
G3 X-1.039 Y110.954 I1.821 J-2.601
G2 X12.909 Y87.302 I-144.273 J-101.021
X23.347 Y60.669 Z-3. I-158.221 J-77.369 F800.
X30.813 Y9.933 I-168.659 J-50.737 F1600.
G1 Y3.583
G3 X33.988 Y0.408 I3.175 J0.
G1 X40.338
G3 X43.513 Y3.583 I0. J3.175
G1 Y9.933
G3 X9.364 Y118.238 I-188.825 J0.
X4.943 Y119.018 I-2.601 J-1.821
G1 X-0.259 Y115.376
G3 X-1.039 Y110.954 I1.821 J-2.601
G2 X23.347 Y60.669 I-144.273 J-101.021
X29.335 Y32.699 Z-4. I-168.659 J-50.737 F800.
X30.813 Y9.933 I-174.647 J-22.766 F1600.
G1 Y3.583
G3 X33.988 Y0.408 I3.175 J0.
G1 X40.338
G3 X43.513 Y3.583 I0. J3.175
G1 Y9.933
G3 X9.364 Y118.238 I-188.825 J0.
X4.943 Y119.018 I-2.601 J-1.821
G1 X-0.259 Y115.376
G3 X-1.039 Y110.954 I1.821 J-2.601
G2 X29.335 Y32.699 I-144.273 J-101.021
X30.813 Y9.933 Z-4.797 I-174.647 J-22.766 F800.
G1 Y4.126 Z-5.
Y3.583 F1600.
G3 X33.988 Y0.408 I3.175 J0.
G1 X40.338
G3 X43.513 Y3.583 I0. J3.175
G1 Y9.933
G3 X9.364 Y118.238 I-188.825 J0.
X4.943 Y119.018 I-2.601 J-1.821
G1 X-0.259 Y115.376
G3 X-1.039 Y110.954 I1.821 J-2.601
G2 X30.813 Y9.933 I-144.273 J-101.021
G1 Y4.126
Y3.583 Z-5.019 F800.
G3 X33.988 Y0.408 Z-5.193 I3.175 J0.
G1 X40.338 Z-5.415
G3 X43.513 Y3.583 Z-5.589 I0. J3.175
G1 Y9.933 Z-5.811
G3 X43.435 Y15.35 Z-6. I-188.825 J0.
X9.364 Y118.238 I-188.747 J-5.418 F1600.
X4.943 Y119.018 I-2.601 J-1.821
G1 X-0.259 Y115.376
G3 X-1.039 Y110.954 I1.821 J-2.601
G2 X30.813 Y9.933 I-144.273 J-101.021
G1 Y4.126
Y3.583
G3 X33.988 Y0.408 I3.175 J0.
G1 X40.338
G3 X43.513 Y3.583 I0. J3.175
G1 Y9.933
G3 X43.435 Y15.35 I-188.825 J0.
X40.45 Y43.803 Z-7. I-188.747 J-5.418 F800.
X9.364 Y118.238 I-185.762 J-33.87 F1600.
X4.943 Y119.018 I-2.601 J-1.821
G1 X-0.259 Y115.376
G3 X-1.039 Y110.954 I1.821 J-2.601
G2 X30.813 Y9.933 I-144.273 J-101.021
G1 Y3.583
G3 X33.988 Y0.408 I3.175 J0.
G1 X40.338
G3 X43.513 Y3.583 I0. J3.175
G1 Y9.933
G3 X40.45 Y43.803 I-188.825 J0.
X33.201 Y71.478 Z-8. I-185.762 J-33.87 F800.
X9.364 Y118.238 I-178.513 J-61.545 F1600.
X4.943 Y119.018 I-2.601 J-1.821
G1 X-0.259 Y115.376
G3 X-1.039 Y110.954 I1.821 J-2.601
G2 X30.813 Y9.933 I-144.273 J-101.021
G1 Y3.583
G3 X33.988 Y0.408 I3.175 J0.
G1 X40.338
G3 X43.513 Y3.583 I0. J3.175
G1 Y9.933
G3 X33.201 Y71.478 I-188.825 J0.
X21.855 Y97.74 Z-9. I-178.513 J-61.545 F800.
X9.364 Y118.238 I-167.166 J-87.808 F1600.
X4.943 Y119.018 I-2.601 J-1.821
G1 X-0.259 Y115.376
G3 X-1.039 Y110.954 I1.821 J-2.601
G2 X30.813 Y9.933 I-144.273 J-101.021
G1 Y3.583
G3 X33.988 Y0.408 I3.175 J0.
G1 X40.338
G3 X43.513 Y3.583 I0. J3.175
G1 Y9.933
G3 X21.855 Y97.74 I-188.825 J0.
X9.364 Y118.238 Z-9.839 I-167.166 J-87.808 F800.
X5.258 Y119.212 Z-10. I-2.601 J-1.821
X4.943 Y119.018 I1.506 J-2.795 F1600.
G1 X-0.259 Y115.376
G3 X-1.039 Y110.954 I1.821 J-2.601
G2 X30.813 Y9.933 I-144.273 J-101.021
G1 Y3.583
G3 X33.988 Y0.408 I3.175 J0.
G1 X40.338
G3 X43.513 Y3.583 I0. J3.175
G1 Y9.933
G3 X9.364 Y118.238 I-188.825 J0.
X5.258 Y119.212 I-2.601 J-1.821
X4.943 Y119.018 Z-10.013 I1.506 J-2.795 F800.
G1 X-0.259 Y115.376 Z-10.235
G3 X-1.039 Y110.954 Z-10.409 I1.821 J-2.601
G2 X7.99 Y96.642 Z-11. I-144.273 J-101.021
X30.813 Y9.933 I-153.302 J-86.709 F1600.
G1 Y3.583
G3 X33.988 Y0.408 I3.175 J0.
G1 X40.338
G3 X43.513 Y3.583 I0. J3.175
G1 Y9.933
G3 X9.364 Y118.238 I-188.825 J0.
X4.943 Y119.018 I-2.601 J-1.821
G1 X-0.259 Y115.376
G3 X-1.039 Y110.954 I1.821 J-2.601
G2 X7.99 Y96.642 I-144.273 J-101.021
X20.004 Y70.682 Z-12. I-153.302 J-86.709 F800.
X30.813 Y9.933 I-165.316 J-60.75 F1600.
G1 Y3.583
G3 X33.988 Y0.408 I3.175 J0.
G1 X40.338
G3 X43.513 Y3.583 I0. J3.175
G1 Y9.933
G3 X9.364 Y118.238 I-188.825 J0.
X4.943 Y119.018 I-2.601 J-1.821
G1 X-0.259 Y115.376
G3 X-1.039 Y110.954 I1.821 J-2.601
G2 X20.004 Y70.682 I-144.273 J-101.021
X27.658 Y43.121 Z-13. I-165.316 J-60.75 F800.
X30.813 Y9.933 I-172.97 J-33.188 F1600.
G1 Y3.583
G3 X33.988 Y0.408 I3.175 J0.
G1 X40.338
G3 X43.513 Y3.583 I0. J3.175
G1 Y9.933
G3 X9.364 Y118.238 I-188.825 J0.
X4.943 Y119.018 I-2.601 J-1.821
G1 X-0.259 Y115.376
G3 X-1.039 Y110.954 I1.821 J-2.601
G2 X27.658 Y43.121 I-144.273 J-101.021
X30.749 Y14.683 Z-14. I-172.97 J-33.188 F800.
X30.813 Y9.933 I-176.061 J-4.751 F1600.
G1 Y3.583
G3 X33.988 Y0.408 I3.175 J0.
G1 X40.338
G3 X43.513 Y3.583 I0. J3.175
G1 Y9.933
G3 X9.364 Y118.238 I-188.825 J0.
X4.943 Y119.018 I-2.601 J-1.821
G1 X-0.259 Y115.376
G3 X-1.039 Y110.954 I1.821 J-2.601
G2 X30.749 Y14.683 I-144.273 J-101.021
X30.813 Y9.933 Z-14.166 I-176.061 J-4.751 F800.
G1 Y3.583 Z-14.388
G3 X33.988 Y0.408 Z-14.562 I3.175 J0.
G1 X40.338 Z-14.784
G3 X43.513 Y3.583 Z-14.958 I0. J3.175
G1 Y4.793 Z-15.
Y9.933 F1600.
G3 X9.364 Y118.238 I-188.825 J0.
X4.943 Y119.018 I-2.601 J-1.821
G1 X-0.259 Y115.376
G3 X-1.039 Y110.954 I1.821 J-2.601
G2 X30.813 Y9.933 I-144.273 J-101.021
G1 Y3.583
G3 X33.988 Y0.408 I3.175 J0.
G1 X40.338
G3 X43.513 Y3.583 I0. J3.175
G1 Y4.793
Y9.933 Z-15.179 F800.
G3 X42.053 Y33.369 Z-16. I-188.825 J0.
X9.364 Y118.238 I-187.365 J-23.436 F1600.
X4.943 Y119.018 I-2.601 J-1.821
G1 X-0.259 Y115.376
G3 X-1.039 Y110.954 I1.821 J-2.601
G2 X30.813 Y9.933 I-144.273 J-101.021
G1 Y3.583
G3 X33.988 Y0.408 I3.175 J0.
G1 X40.338
G3 X43.513 Y3.583 I0. J3.175
G1 Y9.933
G3 X42.053 Y33.369 I-188.825 J0.
X36.362 Y61.406 Z-17. I-187.365 J-23.436 F800.
X25.623 Y90.159 I-181.674 J-51.473 F1600.
X25.42 Y90.589 Z-16.763 I-170.935 J-80.226
X22.612 Y96.284 I-170.732 J-80.656
X22.394 Y96.706 Z-17. I-167.924 J-86.351 F800.
X9.364 Y118.238 I-167.706 J-86.773 F1600.
X4.943 Y119.018 I-2.601 J-1.821
G1 X-0.259 Y115.376
G3 X-1.039 Y110.954 I1.821 J-2.601
G2 X11.001 Y91.088 I-144.273 J-101.021
X11.22 Y90.666 Z-16.763 I-156.313 J-81.155
X14.028 Y84.971 I-156.532 J-80.733
X14.23 Y84.541 Z-17. I-159.34 J-75.038 F800.
X28.171 Y40.327 I-159.542 J-74.608 F1600.
X28.252 Y39.859 Z-16.763 I-173.483 J-30.395
X29.218 Y33.583 I-173.564 J-29.926
X29.281 Y33.112 Z-17. I-174.53 J-23.65 F800.
X30.813 Y9.933 I-174.593 J-23.179 F1600.
G1 Y3.583
G3 X33.988 Y0.408 I3.175 J0.
G1 X40.338
G3 X43.513 Y3.583 I0. J3.175
G1 Y9.933
G3 X41.836 Y35.045 I-188.825 J0.
X41.772 Y35.515 Z-16.763 I-187.148 J-25.112
X40.806 Y41.791 I-187.084 J-25.583
X40.725 Y42.26 Z-17. I-186.118 J-31.859 F800.
X36.362 Y61.406 I-186.037 J-32.327 F1600.
X26.5 Y88.261 Z-18. I-181.674 J-51.473 F800.
G1 X26.463 Y88.343 F1600.
G3 X25.42 Y90.589 Z-16.763 I-171.775 J-78.411
X22.612 Y96.284 I-170.732 J-80.656
X21.465 Y98.478 Z-18. I-167.924 J-86.351 F800.
X9.364 Y118.238 I-166.777 J-88.545 F1600.
X4.943 Y119.018 I-2.601 J-1.821
G1 X-0.259 Y115.376
G3 X-1.039 Y110.954 I1.821 J-2.601
G2 X10.069 Y92.858 I-144.273 J-101.021
X11.22 Y90.666 Z-16.763 I-155.381 J-82.925
X14.028 Y84.971 I-156.532 J-80.733
X15.067 Y82.723 Z-18. I-159.34 J-75.038 F800.
X27.814 Y42.296 I-160.379 J-72.791 F1600.
X28.252 Y39.859 Z-16.763 I-173.126 J-32.363
X29.218 Y33.583 I-173.564 J-29.926
X29.533 Y31.127 Z-18. I-174.53 J-23.65 F800.
X30.813 Y9.933 I-174.845 J-21.195 F1600.
G1 Y3.583
G3 X33.988 Y0.408 I3.175 J0.
G1 X40.338
G3 X43.513 Y3.583 I0. J3.175
G1 Y9.933
G3 X42.091 Y33.06 I-188.825 J0.
X41.772 Y35.515 Z-16.763 I-187.403 J-23.128
X40.806 Y41.791 I-187.084 J-25.583
X40.372 Y44.229 Z-18. I-186.118 J-31.859 F800.
X26.5 Y88.261 I-185.684 J-34.296 F1600.
G1 X26.465 Y88.338 Z-18.003 F800.
G3 X25.42 Y90.589 Z-16.763 I-171.777 J-78.405
X22.612 Y96.284 I-170.732 J-80.656
X22.103 Y97.266 Z-17.316 I-167.924 J-86.351
X21.136 Y99.096 Z-18.35 I-167.415 J-87.334
X9.364 Y118.238 I-166.448 J-89.163 F1600.
X4.943 Y119.018 I-2.601 J-1.821
G1 X-0.259 Y115.376
G3 X-1.039 Y110.954 I1.821 J-2.601
G2 X9.738 Y93.475 I-144.273 J-101.021
X11.22 Y90.666 Z-16.763 I-155.05 J-83.543
X14.028 Y84.971 I-156.532 J-80.733
X15.356 Y82.085 Z-18.35 I-159.34 J-75.038 F800.
X27.684 Y42.984 I-160.668 J-72.152 F1600.
X28.252 Y39.859 Z-16.763 I-172.996 J-33.051
X29.218 Y33.583 I-173.564 J-29.926
X29.616 Y30.432 Z-18.35 I-174.53 J-23.65 F800.
X30.813 Y9.933 I-174.928 J-20.499 F1600.
G1 Y3.583
G3 X33.988 Y0.408 I3.175 J0.
G1 X40.338
G3 X43.513 Y3.583 I0. J3.175
G1 Y9.933
G3 X42.176 Y32.365 I-188.825 J0.
X41.772 Y35.515 Z-16.763 I-187.488 J-22.433
X40.806 Y41.791 I-187.084 J-25.583
X40.244 Y44.917 Z-18.35 I-186.118 J-31.859 F800.
X26.753 Y87.706 I-185.556 J-34.985 F1600.
X26.5 Y88.261 Z-18.045 I-172.065 J-77.773
X25.42 Y90.589 Z-16.763 I-171.812 J-78.329
X22.612 Y96.284 I-170.732 J-80.656
X22.103 Y97.266 Z-17.316 I-167.924 J-86.351 F800.
G1 X22.072 Y97.335 Z-17.353
X22.049 Y97.407 Z-17.39
X22.036 Y97.481 Z-17.427
X22.031 Y97.556 Z-17.459
X22.035 Y97.631 Z-17.492
X22.047 Y97.705 Z-17.525
X22.069 Y97.777 Z-17.549
X22.099 Y97.846 Z-17.573
X22.136 Y97.911 Z-17.597
X22.182 Y97.971 Z-17.61
X22.234 Y98.025 Z-17.623
X22.292 Y98.073 Z-17.636
X22.372 Y98.123 Z-17.64
X23.498 Y98.711 Z-17.655
G0 Z6.
X60.449 Y57.292
Z5.
G1 Z3.135 F800.
X60.456 Y57.294 Z3.036
X60.479 Y57.3 Z2.939
X60.515 Y57.31 Z2.847
X60.566 Y57.324 Z2.762
X60.628 Y57.342 Z2.686
X60.701 Y57.362 Z2.621
X60.783 Y57.385 Z2.569
X60.871 Y57.41 Z2.531
X60.965 Y57.436 Z2.508
X61.06 Y57.462 Z2.5
X61.672 Y57.633 F1600.
G2 X62.454 Y57.191 I0.17 J-0.612
X68.913 Y9.933 Z0.829 I-169.666 J-47.258 F800.
G1 Y3.583 Z0.607
G3 X72.088 Y0.408 Z0.433 I3.175 J0.
G1 X78.438 Z0.212
G3 X81.613 Y3.583 Z0.037 I0. J3.175
G1 Y9.933 Z-0.184
G3 X80.17 Y33.231 Z-1. I-188.825 J0.
X47.464 Y118.238 I-187.382 J-23.298 F1600.
X43.043 Y119.018 I-2.601 J-1.821
G1 X37.841 Y115.376
G3 X37.061 Y110.954 I1.821 J-2.601
G2 X68.913 Y9.933 I-144.273 J-101.021
G1 Y3.583
G3 X72.088 Y0.408 I3.175 J0.
G1 X78.438
G3 X81.613 Y3.583 I0. J3.175
G1 Y9.933
G3 X80.17 Y33.231 I-188.825 J0.
X74.5 Y61.272 Z-2. I-187.382 J-23.298 F800.
X47.464 Y118.238 I-181.712 J-51.339 F1600.
X43.043 Y119.018 I-2.601 J-1.821
G1 X37.841 Y115.376
G3 X37.061 Y110.954 I1.821 J-2.601
G2 X68.913 Y9.933 I-144.273 J-101.021
G1 Y3.583
G3 X72.088 Y0.408 I3.175 J0.
G1 X78.438
G3 X81.613 Y3.583 I0. J3.175
G1 Y9.933
G3 X74.5 Y61.272 I-188.825 J0.
X64.658 Y88.135 Z-3. I-181.712 J-51.339 F800.
X47.464 Y118.238 I-171.87 J-78.202 F1600.
X43.043 Y119.018 I-2.601 J-1.821
G1 X37.841 Y115.376
G3 X37.061 Y110.954 I1.821 J-2.601
G2 X68.913 Y9.933 I-144.273 J-101.021
G1 Y3.583
G3 X72.088 Y0.408 I3.175 J0.
G1 X78.438
G3 X81.613 Y3.583 I0. J3.175
G1 Y9.933
G3 X64.658 Y88.135 I-188.825 J0.
X50.871 Y113.202 Z-4. I-171.87 J-78.202 F800.
X47.464 Y118.238 I-158.083 J-103.27 F1600.
X43.043 Y119.018 I-2.601 J-1.821
G1 X37.841 Y115.376
G3 X37.061 Y110.954 I1.821 J-2.601
G2 X68.913 Y9.933 I-144.273 J-101.021
G1 Y3.583
G3 X72.088 Y0.408 I3.175 J0.
G1 X78.438
G3 X81.613 Y3.583 I0. J3.175
G1 Y9.933
G3 X50.871 Y113.202 I-188.825 J0.
X47.464 Y118.238 Z-4.212 I-158.083 J-103.27 F800.
X43.043 Y119.018 Z-4.386 I-2.601 J-1.821
G1 X37.841 Y115.376 Z-4.608
G3 X37.061 Y110.954 Z-4.782 I1.821 J-2.601
G2 X40.545 Y105.787 Z-5. I-144.273 J-101.021
X68.913 Y9.933 I-147.757 J-95.854 F1600.
G1 Y3.583
G3 X72.088 Y0.408 I3.175 J0.
G1 X78.438
G3 X81.613 Y3.583 I0. J3.175
G1 Y9.933
G3 X47.464 Y118.238 I-188.825 J0.
X43.043 Y119.018 I-2.601 J-1.821
G1 X37.841 Y115.376
G3 X37.061 Y110.954 I1.821 J-2.601
G2 X40.545 Y105.787 I-144.273 J-101.021
X54.112 Y80.605 Z-6. I-147.757 J-95.854 F800.
X68.913 Y9.933 I-161.324 J-70.672 F1600.
G1 Y3.583
G3 X72.088 Y0.408 I3.175 J0.
G1 X78.438
G3 X81.613 Y3.583 I0. J3.175
G1 Y9.933
G3 X47.464 Y118.238 I-188.825 J0.
X43.043 Y119.018 I-2.601 J-1.821
G1 X37.841 Y115.376
G3 X37.061 Y110.954 I1.821 J-2.601
G2 X54.112 Y80.605 I-144.273 J-101.021
X63.425 Y53.558 Z-7. I-161.324 J-70.672 F800.
X68.913 Y9.933 I-170.637 J-43.625 F1600.
G1 Y3.583
G3 X72.088 Y0.408 I3.175 J0.
G1 X78.438
G3 X81.613 Y3.583 I0. J3.175
G1 Y9.933
G3 X47.464 Y118.238 I-188.825 J0.
X43.043 Y119.018 I-2.601 J-1.821
G1 X37.841 Y115.376
G3 X37.061 Y110.954 I1.821 J-2.601
G2 X63.425 Y53.558 I-144.273 J-101.021
X68.236 Y25.361 Z-8. I-170.637 J-43.625 F800.
X68.913 Y9.933 I-175.448 J-15.428 F1600.
G1 Y3.583
G3 X72.088 Y0.408 I3.175 J0.
G1 X78.438
G3 X81.613 Y3.583 I0. J3.175
G1 Y9.933
G3 X47.464 Y118.238 I-188.825 J0.
X43.043 Y119.018 I-2.601 J-1.821
G1 X37.841 Y115.376
G3 X37.061 Y110.954 I1.821 J-2.601
G2 X68.236 Y25.361 I-144.273 J-101.021
X68.913 Y9.933 Z-8.539 I-175.448 J-15.428 F800.
G1 Y3.583 Z-8.761
G3 X72.088 Y0.408 Z-8.935 I3.175 J0.
G1 X73.939 Z-9.
X78.438 F1600.
G3 X81.613 Y3.583 I0. J3.175
G1 Y9.933
G3 X47.464 Y118.238 I-188.825 J0.
X43.043 Y119.018 I-2.601 J-1.821
G1 X37.841 Y115.376
G3 X37.061 Y110.954 I1.821 J-2.601
G2 X68.913 Y9.933 I-144.273 J-101.021
G1 Y3.583
G3 X72.088 Y0.408 I3.175 J0.
G1 X73.939
X78.438 Z-9.157 F800.
G3 X81.613 Y3.583 Z-9.331 I0. J3.175
G1 Y9.933 Z-9.553
G3 X81.179 Y22.723 Z-10. I-188.825 J0.
X47.464 Y118.238 I-188.391 J-12.79 F1600.
X43.043 Y119.018 I-2.601 J-1.821
G1 X37.841 Y115.376
G3 X37.061 Y110.954 I1.821 J-2.601
G2 X68.913 Y9.933 I-144.273 J-101.021
G1 Y3.583
G3 X72.088 Y0.408 I3.175 J0.
G1 X78.438
G3 X81.613 Y3.583 I0. J3.175
G1 Y9.933
G3 X81.179 Y22.723 I-188.825 J0.
X77.085 Y51.037 Z-11. I-188.391 J-12.79 F800.
X47.464 Y118.238 I-184.297 J-41.105 F1600.
X43.043 Y119.018 I-2.601 J-1.821
G1 X37.841 Y115.376
G3 X37.061 Y110.954 I1.821 J-2.601
G2 X68.913 Y9.933 I-144.273 J-101.021
G1 Y3.583
G3 X72.088 Y0.408 I3.175 J0.
G1 X78.438
G3 X81.613 Y3.583 I0. J3.175
G1 Y9.933
G3 X77.085 Y51.037 I-188.825 J0.
X68.76 Y78.408 Z-12. I-184.297 J-41.105 F800.
X47.464 Y118.238 I-175.972 J-68.475 F1600.
X43.043 Y119.018 I-2.601 J-1.821
G1 X37.841 Y115.376
G3 X37.061 Y110.954 I1.821 J-2.601
G2 X68.913 Y9.933 I-144.273 J-101.021
G1 Y3.583
G3 X72.088 Y0.408 I3.175 J0.
G1 X78.438
G3 X81.613 Y3.583 I0. J3.175
G1 Y9.933
G3 X68.76 Y78.408 I-188.825 J0.
X56.395 Y104.207 Z-13. I-175.972 J-68.475 F800.
X47.464 Y118.238 I-163.607 J-94.274 F1600.
X43.043 Y119.018 I-2.601 J-1.821
G1 X37.841 Y115.376
G3 X37.061 Y110.954 I1.821 J-2.601
G2 X68.913 Y9.933 I-144.273 J-101.021
G1 Y3.583
G3 X72.088 Y0.408 I3.175 J0.
G1 X78.438
G3 X81.613 Y3.583 I0. J3.175
G1 Y9.933
G3 X56.395 Y104.207 I-188.825 J0.
X47.464 Y118.238 Z-13.581 I-163.607 J-94.274 F800.
X43.043 Y119.018 Z-13.755 I-2.601 J-1.821
G1 X37.841 Y115.376 Z-13.977
G3 X37.342 Y114.943 Z-14. I1.821 J-2.601
X37.061 Y110.954 I2.32 J-2.168 F1600.
G2 X68.913 Y9.933 I-144.273 J-101.021
G1 Y3.583
G3 X72.088 Y0.408 I3.175 J0.
G1 X78.438
G3 X81.613 Y3.583 I0. J3.175
G1 Y9.933
G3 X47.464 Y118.238 I-188.825 J0.
X43.043 Y119.018 I-2.601 J-1.821
G1 X37.841 Y115.376
G3 X37.342 Y114.943 I1.821 J-2.601
X37.061 Y110.954 Z-14.151 I2.32 J-2.168 F800.
G2 X49.589 Y90.142 Z-15. I-144.273 J-101.021
X68.913 Y9.933 I-156.801 J-80.21 F1600.
G1 Y3.583
G3 X72.088 Y0.408 I3.175 J0.
G1 X78.438
G3 X81.613 Y3.583 I0. J3.175
G1 Y9.933
G3 X47.464 Y118.238 I-188.825 J0.
X43.043 Y119.018 I-2.601 J-1.821
G1 X37.841 Y115.376
G3 X37.061 Y110.954 I1.821 J-2.601
G2 X49.589 Y90.142 I-144.273 J-101.021
X60.505 Y63.702 Z-16. I-156.801 J-80.21 F800.
X68.913 Y9.933 I-167.717 J-53.77 F1600.
G1 Y3.583
G3 X72.088 Y0.408 I3.175 J0.
G1 X78.438
G3 X81.613 Y3.583 I0. J3.175
G1 Y9.933
G3 X47.464 Y118.238 I-188.825 J0.
X43.043 Y119.018 I-2.601 J-1.821
G1 X37.841 Y115.376
G3 X37.061 Y110.954 I1.821 J-2.601
G2 X60.505 Y63.702 I-144.273 J-101.021
X66.321 Y40.035 Z-16.852 I-167.717 J-53.77 F800.
G1 X66.352 Y39.859 Z-16.763
G2 X66.997 Y35.844 I-173.564 J-29.926
X67.318 Y33.583 I-174.209 J-25.911 F1600.
X67.381 Y33.112 Z-17. I-174.53 J-23.65 F800.
X68.913 Y9.933 I-174.593 J-23.179 F1600.
G1 Y3.583
G3 X72.088 Y0.408 I3.175 J0.
G1 X78.438
G3 X81.613 Y3.583 I0. J3.175
G1 Y9.933
G3 X79.936 Y35.045 I-188.825 J0.
X79.872 Y35.515 Z-16.763 I-187.148 J-25.112
X78.906 Y41.791 I-187.084 J-25.583
X78.825 Y42.26 Z-17. I-186.118 J-31.859 F800.
X63.723 Y90.159 I-186.037 J-32.327 F1600.
X63.52 Y90.589 Z-16.763 I-170.935 J-80.226
X60.712 Y96.284 I-170.732 J-80.656
X60.494 Y96.706 Z-17. I-167.924 J-86.351 F800.
X47.464 Y118.238 I-167.706 J-86.773 F1600.
X43.043 Y119.018 I-2.601 J-1.821
G1 X37.841 Y115.376
G3 X37.061 Y110.954 I1.821 J-2.601
G2 X49.101 Y91.088 I-144.273 J-101.021
X49.32 Y90.666 Z-16.763 I-156.313 J-81.155
X52.128 Y84.971 I-156.532 J-80.733
X52.33 Y84.541 Z-17. I-159.34 J-75.038 F800.
X66.271 Y40.327 I-159.542 J-74.608 F1600.
X66.352 Y39.859 Z-16.763 I-173.483 J-30.394
X66.997 Y35.844 I-173.564 J-29.926
X67.318 Y33.583 I-174.209 J-25.911 F800.
X67.408 Y32.907 Z-17.104 I-174.53 J-23.65
X68.913 Y9.933 Z-17.908 I-174.62 J-22.974
G1 Y7.302 Z-18.
Y3.583 F1600.
G3 X72.088 Y0.408 I3.175 J0.
G1 X78.438
G3 X81.613 Y3.583 I0. J3.175
G1 Y9.933
G3 X80.191 Y33.06 I-188.825 J0.
X79.872 Y35.515 Z-16.763 I-187.403 J-23.128
X78.906 Y41.791 I-187.084 J-25.583
X78.472 Y44.229 Z-18. I-186.118 J-31.859 F800.
X64.563 Y88.343 I-185.684 J-34.296 F1600.
X63.52 Y90.589 Z-16.763 I-171.775 J-78.411
X60.712 Y96.284 I-170.732 J-80.656
X59.565 Y98.478 Z-18. I-167.924 J-86.351 F800.
X47.464 Y118.238 I-166.777 J-88.545 F1600.
X43.043 Y119.018 I-2.601 J-1.821
G1 X37.841 Y115.376
G3 X37.061 Y110.954 I1.821 J-2.601
G2 X48.17 Y92.858 I-144.273 J-101.021
X49.32 Y90.666 Z-16.763 I-155.382 J-82.925
X52.128 Y84.971 I-156.532 J-80.733
X53.167 Y82.723 Z-18. I-159.34 J-75.038 F800.
X65.914 Y42.296 I-160.379 J-72.791 F1600.
X66.352 Y39.859 Z-16.763 I-173.126 J-32.363
X67.318 Y33.583 I-173.564 J-29.926
X67.633 Y31.127 Z-18. I-174.53 J-23.65 F800.
X68.913 Y9.933 I-174.845 J-21.195 F1600.
G1 Y7.302
Y3.583 Z-18.13 F800.
G3 X72.088 Y0.408 Z-18.304 I3.175 J0.
G1 X73.404 Z-18.35
X78.438 F1600.
G3 X81.613 Y3.583 I0. J3.175
G1 Y9.933
G3 X80.276 Y32.365 I-188.825 J0.
X79.872 Y35.515 Z-16.763 I-187.488 J-22.433
X78.906 Y41.791 I-187.084 J-25.583
X78.344 Y44.917 Z-18.35 I-186.118 J-31.859 F800.
X64.853 Y87.706 I-185.556 J-34.985 F1600.
X63.52 Y90.589 Z-16.763 I-172.065 J-77.773
X60.712 Y96.284 I-170.732 J-80.656
X59.236 Y99.096 Z-18.35 I-167.924 J-86.351 F800.
X47.464 Y118.238 I-166.448 J-89.163 F1600.
X43.043 Y119.018 I-2.601 J-1.821
G1 X37.841 Y115.376
G3 X37.061 Y110.954 I1.821 J-2.601
G2 X47.839 Y93.475 I-144.273 J-101.021
X49.32 Y90.666 Z-16.763 I-155.051 J-83.543
X52.128 Y84.971 I-156.532 J-80.733
X53.456 Y82.085 Z-18.35 I-159.34 J-75.038 F800.
X65.784 Y42.984 I-160.668 J-72.152 F1600.
X66.352 Y39.859 Z-16.763 I-172.996 J-33.051
X67.318 Y33.583 I-173.564 J-29.926
X67.716 Y30.432 Z-18.35 I-174.53 J-23.65 F800.
X68.913 Y9.933 I-174.928 J-20.499 F1600.
G1 Y3.583
G3 X72.088 Y0.408 I3.175 J0.
G1 X73.404
G2 X74.039 Y-0.227 I0. J-0.635
G1 Y-0.862
G19 G2 Y-1.497 Z-17.715 J0. K0.635
G0 Z16.
G17
M5
G0 Z15
G0 X0 Y0

M9
M30
