(SHOOTER ATTACHEMENT RING 0.125 HOLES )
(T1  D=3.175 CR=0. - ZMIN=-8.35 - FLAT END MILL)
G90 G94 G91.1 G40 G49 G17
G21
G0 Z15

(BORE1 2)
M5
T1 M6
S15000 M3
G54
M8
G0 X14.969 Y191.818
G43 Z15. H1
Z4.5
G1 Z2.818 F800.
G18 G2 X15.286 Z2.5 I0.318 K0.
G1 X15.445
G17 G2 X15.762 Y191.5 I0. J-0.318
X13.938 Z2.456 I-0.912 J0.
X15.762 Z2.413 I0.912 J0.
X13.938 Z2.369 I-0.912 J0.
X15.762 Z2.325 I0.912 J0.
X13.938 Z2.282 I-0.912 J0.
X15.762 Z2.238 I0.912 J0.
X13.938 Z2.195 I-0.912 J0.
X15.762 Z2.151 I0.912 J0.
X13.938 Z2.107 I-0.912 J0.
X15.762 Z2.064 I0.912 J0.
X13.938 Z2.02 I-0.912 J0.
X15.763 Z1.976 I0.912 J0.
X13.938 Z1.933 I-0.912 J0.
X15.763 Z1.889 I0.912 J0.
X13.938 Z1.845 I-0.912 J0.
X15.763 Z1.802 I0.912 J0.
X13.938 Z1.758 I-0.912 J0.
X15.763 Z1.715 I0.912 J0.
X13.938 Z1.671 I-0.912 J0.
X15.763 Z1.627 I0.912 J0.
X13.938 Z1.584 I-0.912 J0.
X15.763 Z1.54 I0.912 J0.
X13.938 Z1.496 I-0.912 J0.
X15.763 Z1.453 I0.912 J0.
X13.938 Z1.409 I-0.912 J0.
X15.763 Z1.365 I0.912 J0.
X13.938 Z1.322 I-0.912 J0.
X15.763 Z1.278 I0.912 J0.
X13.938 Z1.235 I-0.912 J0.
X15.763 Z1.191 I0.912 J0.
X13.938 Z1.147 I-0.912 J0.
X15.763 Z1.104 I0.912 J0.
X13.938 Z1.06 I-0.912 J0.
X15.763 Z1.016 I0.912 J0.
X13.938 Z0.973 I-0.912 J0.
X15.763 Z0.929 I0.912 J0.
X13.938 Z0.885 I-0.913 J0.
X15.763 Z0.842 I0.913 J0.
X13.938 Z0.798 I-0.913 J0.
X15.763 Z0.754 I0.913 J0.
X13.938 Z0.711 I-0.913 J0.
X15.763 Z0.667 I0.913 J0.
X13.938 Z0.624 I-0.913 J0.
X15.763 Z0.58 I0.913 J0.
X13.938 Z0.536 I-0.913 J0.
X15.763 Z0.493 I0.913 J0.
X13.938 Z0.449 I-0.913 J0.
X15.763 Z0.405 I0.913 J0.
X13.938 Z0.362 I-0.913 J0.
X15.763 Z0.318 I0.913 J0.
X13.938 Z0.274 I-0.913 J0.
X15.763 Z0.231 I0.913 J0.
X13.938 Z0.187 I-0.913 J0.
X15.763 Z0.144 I0.913 J0.
X13.938 Z0.1 I-0.913 J0.
X15.763 Z0.056 I0.913 J0.
X13.938 Z0.013 I-0.913 J0.
X15.763 Z-0.031 I0.913 J0.
X13.938 Z-0.075 I-0.913 J0.
X15.763 Z-0.118 I0.913 J0.
X13.937 Z-0.162 I-0.913 J0.
X15.763 Z-0.206 I0.913 J0.
X13.937 Z-0.249 I-0.913 J0.
X15.763 Z-0.293 I0.913 J0.
X13.937 Z-0.336 I-0.913 J0.
X15.763 Z-0.38 I0.913 J0.
X13.937 Z-0.424 I-0.913 J0.
X15.763 Z-0.467 I0.913 J0.
X13.937 Z-0.511 I-0.913 J0.
X15.763 Z-0.555 I0.913 J0.
X13.937 Z-0.598 I-0.913 J0.
X15.763 Z-0.642 I0.913 J0.
X13.937 Z-0.686 I-0.913 J0.
X15.763 Z-0.729 I0.913 J0.
X13.937 Z-0.773 I-0.913 J0.
X15.763 Z-0.816 I0.913 J0.
X13.937 Z-0.86 I-0.913 J0.
X15.763 Z-0.904 I0.913 J0.
X13.937 Z-0.947 I-0.913 J0.
X15.763 Z-0.991 I0.913 J0.
X13.937 Z-1.035 I-0.913 J0.
X15.763 Z-1.078 I0.913 J0.
X13.937 Z-1.122 I-0.913 J0.
X15.763 Z-1.166 I0.913 J0.
X13.937 Z-1.209 I-0.913 J0.
X15.763 Z-1.253 I0.913 J0.
X13.937 Z-1.296 I-0.913 J0.
X15.763 Z-1.34 I0.913 J0.
X13.937 Z-1.384 I-0.913 J0.
X15.763 Z-1.427 I0.913 J0.
X13.937 Z-1.471 I-0.913 J0.
X15.763 Z-1.515 I0.913 J0.
X13.937 Z-1.558 I-0.913 J0.
X15.763 Z-1.602 I0.913 J0.
X13.937 Z-1.646 I-0.913 J0.
X15.763 Z-1.689 I0.913 J0.
X13.937 Z-1.733 I-0.913 J0.
X15.763 Z-1.776 I0.913 J0.
X13.937 Z-1.82 I-0.913 J0.
X15.763 Z-1.864 I0.913 J0.
X13.937 Z-1.907 I-0.913 J0.
X15.763 Z-1.951 I0.913 J0.
X13.937 Z-1.995 I-0.913 J0.
X15.763 Z-2.038 I0.913 J0.
X13.937 Z-2.082 I-0.913 J0.
X15.763 Z-2.126 I0.913 J0.
X13.937 Z-2.169 I-0.913 J0.
X15.763 Z-2.213 I0.913 J0.
X13.937 Z-2.257 I-0.913 J0.
X15.763 Z-2.3 I0.913 J0.
X13.937 Z-2.344 I-0.913 J0.
X15.763 Z-2.387 I0.913 J0.
X13.937 Z-2.431 I-0.913 J0.
X15.763 Z-2.475 I0.913 J0.
X13.937 Z-2.518 I-0.913 J0.
X15.763 Z-2.562 I0.913 J0.
X13.937 Z-2.606 I-0.913 J0.
X15.763 Z-2.649 I0.913 J0.
X13.937 Z-2.693 I-0.913 J0.
X15.763 Z-2.737 I0.913 J0.
X13.937 Z-2.78 I-0.913 J0.
X15.763 Z-2.824 I0.913 J0.
X13.937 Z-2.867 I-0.913 J0.
X15.763 Z-2.911 I0.913 J0.
X13.937 Z-2.955 I-0.913 J0.
X15.763 Z-2.998 I0.913 J0.
X13.937 Z-3.042 I-0.913 J0.
X15.763 Z-3.086 I0.913 J0.
X13.937 Z-3.129 I-0.913 J0.
X15.763 Z-3.173 I0.913 J0.
X13.937 Z-3.217 I-0.913 J0.
X15.763 Z-3.26 I0.913 J0.
X13.937 Z-3.304 I-0.913 J0.
X15.763 Z-3.347 I0.913 J0.
X13.937 Z-3.391 I-0.913 J0.
X15.763 Z-3.435 I0.913 J0.
X13.937 Z-3.478 I-0.913 J0.
X15.763 Z-3.522 I0.913 J0.
X13.937 Z-3.566 I-0.913 J0.
X15.763 Z-3.609 I0.913 J0.
X13.937 Z-3.653 I-0.913 J0.
X15.763 Z-3.697 I0.913 J0.
X13.937 Z-3.74 I-0.913 J0.
X15.763 Z-3.784 I0.913 J0.
X13.937 Z-3.827 I-0.913 J0.
X15.763 Z-3.871 I0.913 J0.
X13.937 Z-3.915 I-0.913 J0.
X15.763 Z-3.958 I0.913 J0.
X13.937 Z-4.002 I-0.913 J0.
X15.763 Z-4.046 I0.913 J0.
X13.937 Z-4.089 I-0.913 J0.
X15.763 Z-4.133 I0.913 J0.
X13.937 Z-4.177 I-0.913 J0.
X15.763 Z-4.22 I0.913 J0.
X13.937 Z-4.264 I-0.913 J0.
X15.763 Z-4.307 I0.913 J0.
X13.937 Z-4.351 I-0.913 J0.
X15.763 Z-4.395 I0.913 J0.
X13.937 Z-4.438 I-0.913 J0.
X15.763 Z-4.482 I0.913 J0.
X13.937 Z-4.526 I-0.913 J0.
X15.763 Z-4.569 I0.913 J0.
X13.937 Z-4.613 I-0.913 J0.
X15.763 Z-4.657 I0.913 J0.
X13.937 Z-4.7 I-0.913 J0.
X15.763 Z-4.744 I0.913 J0.
X13.937 Z-4.787 I-0.913 J0.
X15.763 Z-4.831 I0.913 J0.
X13.937 Z-4.875 I-0.913 J0.
X15.763 Z-4.918 I0.913 J0.
X13.937 Z-4.962 I-0.913 J0.
X15.763 Z-5.006 I0.913 J0.
X13.937 Z-5.049 I-0.913 J0.
X15.763 Z-5.093 I0.913 J0.
X13.937 Z-5.137 I-0.913 J0.
X15.763 Z-5.18 I0.913 J0.
X13.937 Z-5.224 I-0.913 J0.
X15.763 Z-5.268 I0.913 J0.
X13.937 Z-5.311 I-0.913 J0.
X15.763 Z-5.355 I0.913 J0.
X13.937 Z-5.398 I-0.913 J0.
X15.763 Z-5.442 I0.913 J0.
X13.937 Z-5.486 I-0.913 J0.
X15.763 Z-5.529 I0.913 J0.
X13.937 Z-5.573 I-0.913 J0.
X15.763 Z-5.617 I0.913 J0.
X13.937 Z-5.66 I-0.913 J0.
X15.763 Z-5.704 I0.913 J0.
X13.937 Z-5.748 I-0.913 J0.
X15.763 Z-5.791 I0.913 J0.
X13.937 Z-5.835 I-0.913 J0.
X15.763 Z-5.878 I0.913 J0.
X13.937 Z-5.922 I-0.913 J0.
X15.763 Z-5.966 I0.913 J0.
X13.937 Z-6.009 I-0.913 J0.
X15.763 Z-6.053 I0.913 J0.
X13.937 Z-6.097 I-0.913 J0.
X15.763 Z-6.14 I0.913 J0.
X13.937 Z-6.184 I-0.913 J0.
X15.763 Z-6.228 I0.913 J0.
X13.937 Z-6.271 I-0.913 J0.
X15.763 Z-6.315 I0.913 J0.
X13.937 Z-6.358 I-0.913 J0.
X15.763 Z-6.402 I0.913 J0.
X13.937 Z-6.446 I-0.913 J0.
X15.763 Z-6.489 I0.913 J0.
X13.937 Z-6.533 I-0.913 J0.
X15.763 Z-6.577 I0.913 J0.
X13.937 Z-6.62 I-0.913 J0.
X15.763 Z-6.664 I0.913 J0.
X13.937 Z-6.708 I-0.913 J0.
X15.763 Z-6.751 I0.913 J0.
X13.937 Z-6.795 I-0.913 J0.
X15.763 Z-6.838 I0.913 J0.
X13.937 Z-6.882 I-0.913 J0.
X15.763 Z-6.926 I0.913 J0.
X13.937 Z-6.969 I-0.913 J0.
X15.763 Z-7.013 I0.913 J0.
X13.937 Z-7.057 I-0.913 J0.
X15.763 Z-7.1 I0.913 J0.
X13.937 Z-7.144 I-0.913 J0.
X15.763 Z-7.188 I0.913 J0.
X13.937 Z-7.231 I-0.913 J0.
X15.763 Z-7.275 I0.913 J0.
X13.937 Z-7.318 I-0.913 J0.
X15.763 Z-7.362 I0.913 J0.
X13.937 Z-7.406 I-0.913 J0.
X15.763 Z-7.449 I0.913 J0.
X13.937 Z-7.493 I-0.913 J0.
X15.763 Z-7.537 I0.913 J0.
X13.937 Z-7.58 I-0.913 J0.
X15.763 Z-7.624 I0.913 J0.
X13.937 Z-7.668 I-0.913 J0.
X15.763 Z-7.711 I0.913 J0.
X13.937 Z-7.755 I-0.913 J0.
X15.763 Z-7.798 I0.913 J0.
X13.937 Z-7.842 I-0.913 J0.
X15.763 Z-7.886 I0.913 J0.
X13.937 Z-7.929 I-0.913 J0.
X15.763 Z-7.973 I0.913 J0.
X13.937 Z-8.017 I-0.913 J0.
X15.763 Z-8.06 I0.913 J0.
X13.937 Z-8.104 I-0.913 J0.
X15.763 Z-8.148 I0.913 J0.
X13.937 Z-8.191 I-0.913 J0.
X15.763 Z-8.235 I0.913 J0.
X13.937 Z-8.279 I-0.913 J0.
X15.763 Z-8.322 I0.913 J0.
X14.466 Y190.672 Z-8.35 I-0.913 J0.
X15.234 Y192.328 I0.384 J0.828
X14.466 Y190.672 I-0.384 J-0.828
X14.311 Y191.094 I0.134 J0.288
G1 X14.378 Y191.238
X14.408 Y191.302 Z-8.342
X14.436 Y191.363 Z-8.319
X14.462 Y191.418 Z-8.281
X14.483 Y191.463 Z-8.23
X14.499 Y191.498 Z-8.17
X14.509 Y191.519 Z-8.103
X14.512 Y191.526 Z-8.033
G0 Z5.
X133.469 Y310.318
Z4.5
G1 Z2.818 F800.
G18 G2 X133.786 Z2.5 I0.318 K0.
G1 X133.945
G17 G2 X134.262 Y310. I0. J-0.318
X132.438 Z2.456 I-0.912 J0.
X134.262 Z2.413 I0.912 J0.
X132.438 Z2.369 I-0.912 J0.
X134.262 Z2.325 I0.912 J0.
X132.438 Z2.282 I-0.912 J0.
X134.262 Z2.238 I0.912 J0.
X132.438 Z2.195 I-0.912 J0.
X134.262 Z2.151 I0.912 J0.
X132.438 Z2.107 I-0.912 J0.
X134.262 Z2.064 I0.912 J0.
X132.438 Z2.02 I-0.912 J0.
X134.262 Z1.976 I0.912 J0.
X132.438 Z1.933 I-0.912 J0.
X134.262 Z1.889 I0.912 J0.
X132.438 Z1.845 I-0.912 J0.
X134.262 Z1.802 I0.912 J0.
X132.438 Z1.758 I-0.912 J0.
X134.262 Z1.715 I0.912 J0.
X132.438 Z1.671 I-0.912 J0.
X134.262 Z1.627 I0.912 J0.
X132.438 Z1.584 I-0.912 J0.
X134.262 Z1.54 I0.912 J0.
X132.438 Z1.496 I-0.912 J0.
X134.262 Z1.453 I0.912 J0.
X132.438 Z1.409 I-0.912 J0.
X134.262 Z1.365 I0.912 J0.
X132.438 Z1.322 I-0.912 J0.
X134.262 Z1.278 I0.912 J0.
X132.438 Z1.235 I-0.912 J0.
X134.262 Z1.191 I0.912 J0.
X132.438 Z1.147 I-0.912 J0.
X134.262 Z1.104 I0.912 J0.
X132.438 Z1.06 I-0.912 J0.
X134.262 Z1.016 I0.912 J0.
X132.438 Z0.973 I-0.912 J0.
X134.262 Z0.929 I0.912 J0.
X132.438 Z0.885 I-0.912 J0.
X134.262 Z0.842 I0.912 J0.
X132.438 Z0.798 I-0.912 J0.
X134.262 Z0.754 I0.912 J0.
X132.438 Z0.711 I-0.912 J0.
X134.262 Z0.667 I0.912 J0.
X132.438 Z0.624 I-0.912 J0.
X134.262 Z0.58 I0.912 J0.
X132.438 Z0.536 I-0.912 J0.
X134.262 Z0.493 I0.912 J0.
X132.438 Z0.449 I-0.912 J0.
X134.262 Z0.405 I0.912 J0.
X132.438 Z0.362 I-0.912 J0.
X134.262 Z0.318 I0.912 J0.
X132.438 Z0.274 I-0.912 J0.
X134.262 Z0.231 I0.912 J0.
X132.438 Z0.187 I-0.912 J0.
X134.262 Z0.144 I0.912 J0.
X132.438 Z0.1 I-0.912 J0.
X134.262 Z0.056 I0.912 J0.
X132.438 Z0.013 I-0.912 J0.
X134.262 Z-0.031 I0.912 J0.
X132.438 Z-0.075 I-0.912 J0.
X134.262 Z-0.118 I0.912 J0.
X132.438 Z-0.162 I-0.912 J0.
X134.262 Z-0.206 I0.912 J0.
X132.438 Z-0.249 I-0.912 J0.
X134.262 Z-0.293 I0.912 J0.
X132.438 Z-0.336 I-0.912 J0.
X134.262 Z-0.38 I0.912 J0.
X132.438 Z-0.424 I-0.912 J0.
X134.262 Z-0.467 I0.912 J0.
X132.438 Z-0.511 I-0.912 J0.
X134.262 Z-0.555 I0.912 J0.
X132.438 Z-0.598 I-0.912 J0.
X134.262 Z-0.642 I0.912 J0.
X132.438 Z-0.686 I-0.912 J0.
X134.262 Z-0.729 I0.912 J0.
X132.438 Z-0.773 I-0.912 J0.
X134.262 Z-0.816 I0.912 J0.
X132.438 Z-0.86 I-0.912 J0.
X134.262 Z-0.904 I0.912 J0.
X132.438 Z-0.947 I-0.912 J0.
X134.262 Z-0.991 I0.912 J0.
X132.438 Z-1.035 I-0.912 J0.
X134.262 Z-1.078 I0.912 J0.
X132.438 Z-1.122 I-0.912 J0.
X134.262 Z-1.166 I0.912 J0.
X132.438 Z-1.209 I-0.912 J0.
X134.262 Z-1.253 I0.912 J0.
X132.438 Z-1.296 I-0.912 J0.
X134.262 Z-1.34 I0.912 J0.
X132.438 Z-1.384 I-0.912 J0.
X134.262 Z-1.427 I0.912 J0.
X132.438 Z-1.471 I-0.912 J0.
X134.262 Z-1.515 I0.912 J0.
X132.438 Z-1.558 I-0.912 J0.
X134.262 Z-1.602 I0.912 J0.
X132.438 Z-1.646 I-0.912 J0.
X134.262 Z-1.689 I0.912 J0.
X132.438 Z-1.733 I-0.912 J0.
X134.262 Z-1.776 I0.912 J0.
X132.438 Z-1.82 I-0.912 J0.
X134.262 Z-1.864 I0.912 J0.
X132.438 Z-1.907 I-0.912 J0.
X134.262 Z-1.951 I0.912 J0.
X132.438 Z-1.995 I-0.912 J0.
X134.262 Z-2.038 I0.912 J0.
X132.438 Z-2.082 I-0.912 J0.
X134.262 Z-2.126 I0.912 J0.
X132.438 Z-2.169 I-0.912 J0.
X134.262 Z-2.213 I0.912 J0.
X132.438 Z-2.257 I-0.912 J0.
X134.262 Z-2.3 I0.912 J0.
X132.438 Z-2.344 I-0.912 J0.
X134.262 Z-2.387 I0.912 J0.
X132.438 Z-2.431 I-0.912 J0.
X134.262 Z-2.475 I0.912 J0.
X132.438 Z-2.518 I-0.912 J0.
X134.262 Z-2.562 I0.912 J0.
X132.438 Z-2.606 I-0.912 J0.
X134.262 Z-2.649 I0.912 J0.
X132.438 Z-2.693 I-0.912 J0.
X134.262 Z-2.737 I0.912 J0.
X132.438 Z-2.78 I-0.912 J0.
X134.262 Z-2.824 I0.912 J0.
X132.438 Z-2.867 I-0.912 J0.
X134.262 Z-2.911 I0.912 J0.
X132.438 Z-2.955 I-0.912 J0.
X134.262 Z-2.998 I0.912 J0.
X132.438 Z-3.042 I-0.912 J0.
X134.262 Z-3.086 I0.912 J0.
X132.438 Z-3.129 I-0.912 J0.
X134.262 Z-3.173 I0.912 J0.
X132.438 Z-3.217 I-0.912 J0.
X134.262 Z-3.26 I0.912 J0.
X132.438 Z-3.304 I-0.912 J0.
X134.262 Z-3.347 I0.912 J0.
X132.438 Z-3.391 I-0.912 J0.
X134.262 Z-3.435 I0.912 J0.
X132.438 Z-3.478 I-0.912 J0.
X134.262 Z-3.522 I0.912 J0.
X132.438 Z-3.566 I-0.912 J0.
X134.262 Z-3.609 I0.912 J0.
X132.438 Z-3.653 I-0.912 J0.
X134.262 Z-3.697 I0.912 J0.
X132.438 Z-3.74 I-0.912 J0.
X134.262 Z-3.784 I0.912 J0.
X132.438 Z-3.827 I-0.912 J0.
X134.262 Z-3.871 I0.912 J0.
X132.438 Z-3.915 I-0.912 J0.
X134.262 Z-3.958 I0.912 J0.
X132.438 Z-4.002 I-0.912 J0.
X134.262 Z-4.046 I0.912 J0.
X132.438 Z-4.089 I-0.912 J0.
X134.262 Z-4.133 I0.912 J0.
X132.438 Z-4.177 I-0.912 J0.
X134.262 Z-4.22 I0.912 J0.
X132.438 Z-4.264 I-0.912 J0.
X134.262 Z-4.307 I0.912 J0.
X132.438 Z-4.351 I-0.912 J0.
X134.262 Z-4.395 I0.912 J0.
X132.438 Z-4.438 I-0.912 J0.
X134.262 Z-4.482 I0.912 J0.
X132.438 Z-4.526 I-0.912 J0.
X134.262 Z-4.569 I0.912 J0.
X132.438 Z-4.613 I-0.912 J0.
X134.262 Z-4.657 I0.912 J0.
X132.438 Z-4.7 I-0.912 J0.
X134.262 Z-4.744 I0.912 J0.
X132.438 Z-4.787 I-0.912 J0.
X134.262 Z-4.831 I0.912 J0.
X132.438 Z-4.875 I-0.912 J0.
X134.262 Z-4.918 I0.912 J0.
X132.438 Z-4.962 I-0.912 J0.
X134.262 Z-5.006 I0.912 J0.
X132.438 Z-5.049 I-0.912 J0.
X134.262 Z-5.093 I0.912 J0.
X132.438 Z-5.137 I-0.912 J0.
X134.262 Z-5.18 I0.912 J0.
X132.438 Z-5.224 I-0.912 J0.
X134.262 Z-5.268 I0.912 J0.
X132.438 Z-5.311 I-0.912 J0.
X134.262 Z-5.355 I0.912 J0.
X132.438 Z-5.398 I-0.912 J0.
X134.262 Z-5.442 I0.912 J0.
X132.438 Z-5.486 I-0.912 J0.
X134.262 Z-5.529 I0.912 J0.
X132.438 Z-5.573 I-0.912 J0.
X134.262 Z-5.617 I0.912 J0.
X132.438 Z-5.66 I-0.912 J0.
X134.262 Z-5.704 I0.912 J0.
X132.438 Z-5.748 I-0.912 J0.
X134.262 Z-5.791 I0.912 J0.
X132.438 Z-5.835 I-0.912 J0.
X134.262 Z-5.878 I0.912 J0.
X132.438 Z-5.922 I-0.912 J0.
X134.262 Z-5.966 I0.912 J0.
X132.438 Z-6.009 I-0.912 J0.
X134.262 Z-6.053 I0.912 J0.
X132.438 Z-6.097 I-0.912 J0.
X134.262 Z-6.14 I0.912 J0.
X132.438 Z-6.184 I-0.912 J0.
X134.262 Z-6.228 I0.912 J0.
X132.438 Z-6.271 I-0.912 J0.
X134.262 Z-6.315 I0.912 J0.
X132.438 Z-6.358 I-0.912 J0.
X134.262 Z-6.402 I0.912 J0.
X132.438 Z-6.446 I-0.912 J0.
X134.262 Z-6.489 I0.912 J0.
X132.438 Z-6.533 I-0.912 J0.
X134.262 Z-6.577 I0.912 J0.
X132.438 Z-6.62 I-0.912 J0.
X134.262 Z-6.664 I0.912 J0.
X132.438 Z-6.708 I-0.912 J0.
X134.262 Z-6.751 I0.912 J0.
X132.438 Z-6.795 I-0.912 J0.
X134.262 Z-6.838 I0.912 J0.
X132.438 Z-6.882 I-0.912 J0.
X134.262 Z-6.926 I0.912 J0.
X132.438 Z-6.969 I-0.912 J0.
X134.262 Z-7.013 I0.912 J0.
X132.438 Z-7.057 I-0.912 J0.
X134.262 Z-7.1 I0.912 J0.
X132.438 Z-7.144 I-0.912 J0.
X134.262 Z-7.188 I0.912 J0.
X132.438 Z-7.231 I-0.912 J0.
X134.262 Z-7.275 I0.912 J0.
X132.438 Z-7.318 I-0.912 J0.
X134.262 Z-7.362 I0.912 J0.
X132.438 Z-7.406 I-0.912 J0.
X134.262 Z-7.449 I0.912 J0.
X132.438 Z-7.493 I-0.912 J0.
X134.262 Z-7.537 I0.912 J0.
X132.438 Z-7.58 I-0.912 J0.
X134.262 Z-7.624 I0.912 J0.
X132.438 Z-7.668 I-0.912 J0.
X134.262 Z-7.711 I0.912 J0.
X132.438 Z-7.755 I-0.912 J0.
X134.262 Z-7.798 I0.912 J0.
X132.438 Z-7.842 I-0.912 J0.
X134.262 Z-7.886 I0.912 J0.
X132.438 Z-7.929 I-0.912 J0.
X134.262 Z-7.973 I0.912 J0.
X132.438 Z-8.017 I-0.912 J0.
X134.262 Z-8.06 I0.912 J0.
X132.438 Z-8.104 I-0.912 J0.
X134.262 Z-8.148 I0.912 J0.
X132.438 Z-8.191 I-0.912 J0.
X134.262 Z-8.235 I0.912 J0.
X132.438 Z-8.279 I-0.912 J0.
X134.262 Z-8.322 I0.912 J0.
X132.966 Y309.172 Z-8.35 I-0.912 J0.
X133.734 Y310.828 I0.384 J0.828
X132.966 Y309.172 I-0.384 J-0.828
X132.811 Y309.594 I0.134 J0.288
G1 X132.878 Y309.738
X132.908 Y309.802 Z-8.342
X132.936 Y309.863 Z-8.319
X132.962 Y309.918 Z-8.281
X132.983 Y309.963 Z-8.23
X132.999 Y309.998 Z-8.17
X133.009 Y310.019 Z-8.103
X133.012 Y310.026 Z-8.033
G0 Z5.
X251.969 Y191.818
Z4.5
G1 Z2.818 F800.
G18 G2 X252.286 Z2.5 I0.318 K0.
G1 X252.445
G17 G2 X252.762 Y191.5 I0. J-0.318
X250.938 Z2.456 I-0.912 J0.
X252.762 Z2.413 I0.912 J0.
X250.938 Z2.369 I-0.912 J0.
X252.762 Z2.325 I0.912 J0.
X250.938 Z2.282 I-0.912 J0.
X252.762 Z2.238 I0.912 J0.
X250.938 Z2.195 I-0.912 J0.
X252.762 Z2.151 I0.912 J0.
X250.938 Z2.107 I-0.912 J0.
X252.762 Z2.064 I0.912 J0.
X250.938 Z2.02 I-0.912 J0.
X252.762 Z1.976 I0.912 J0.
X250.938 Z1.933 I-0.912 J0.
X252.762 Z1.889 I0.912 J0.
X250.938 Z1.845 I-0.912 J0.
X252.762 Z1.802 I0.912 J0.
X250.938 Z1.758 I-0.912 J0.
X252.762 Z1.715 I0.912 J0.
X250.938 Z1.671 I-0.912 J0.
X252.762 Z1.627 I0.912 J0.
X250.938 Z1.584 I-0.912 J0.
X252.762 Z1.54 I0.912 J0.
X250.938 Z1.496 I-0.912 J0.
X252.762 Z1.453 I0.912 J0.
X250.938 Z1.409 I-0.912 J0.
X252.762 Z1.365 I0.912 J0.
X250.938 Z1.322 I-0.912 J0.
X252.762 Z1.278 I0.912 J0.
X250.938 Z1.235 I-0.912 J0.
X252.762 Z1.191 I0.912 J0.
X250.938 Z1.147 I-0.912 J0.
X252.762 Z1.104 I0.912 J0.
X250.938 Z1.06 I-0.912 J0.
X252.762 Z1.016 I0.912 J0.
X250.938 Z0.973 I-0.912 J0.
X252.762 Z0.929 I0.912 J0.
X250.938 Z0.885 I-0.912 J0.
X252.762 Z0.842 I0.912 J0.
X250.938 Z0.798 I-0.912 J0.
X252.762 Z0.754 I0.912 J0.
X250.938 Z0.711 I-0.912 J0.
X252.762 Z0.667 I0.912 J0.
X250.938 Z0.624 I-0.912 J0.
X252.762 Z0.58 I0.912 J0.
X250.938 Z0.536 I-0.912 J0.
X252.762 Z0.493 I0.912 J0.
X250.938 Z0.449 I-0.912 J0.
X252.762 Z0.405 I0.912 J0.
X250.938 Z0.362 I-0.912 J0.
X252.762 Z0.318 I0.912 J0.
X250.938 Z0.274 I-0.912 J0.
X252.762 Z0.231 I0.912 J0.
X250.938 Z0.187 I-0.912 J0.
X252.763 Z0.144 I0.912 J0.
X250.938 Z0.1 I-0.912 J0.
X252.763 Z0.056 I0.912 J0.
X250.938 Z0.013 I-0.912 J0.
X252.763 Z-0.031 I0.912 J0.
X250.938 Z-0.075 I-0.912 J0.
X252.763 Z-0.118 I0.912 J0.
X250.938 Z-0.162 I-0.912 J0.
X252.763 Z-0.206 I0.912 J0.
X250.938 Z-0.249 I-0.912 J0.
X252.763 Z-0.293 I0.912 J0.
X250.938 Z-0.336 I-0.912 J0.
X252.763 Z-0.38 I0.912 J0.
X250.938 Z-0.424 I-0.912 J0.
X252.763 Z-0.467 I0.912 J0.
X250.938 Z-0.511 I-0.912 J0.
X252.763 Z-0.555 I0.912 J0.
X250.938 Z-0.598 I-0.912 J0.
X252.763 Z-0.642 I0.912 J0.
X250.938 Z-0.686 I-0.912 J0.
X252.763 Z-0.729 I0.912 J0.
X250.938 Z-0.773 I-0.912 J0.
X252.763 Z-0.816 I0.912 J0.
X250.938 Z-0.86 I-0.912 J0.
X252.763 Z-0.904 I0.912 J0.
X250.938 Z-0.947 I-0.912 J0.
X252.763 Z-0.991 I0.912 J0.
X250.938 Z-1.035 I-0.912 J0.
X252.763 Z-1.078 I0.912 J0.
X250.938 Z-1.122 I-0.912 J0.
X252.763 Z-1.166 I0.912 J0.
X250.938 Z-1.209 I-0.912 J0.
X252.763 Z-1.253 I0.912 J0.
X250.938 Z-1.296 I-0.912 J0.
X252.763 Z-1.34 I0.912 J0.
X250.938 Z-1.384 I-0.912 J0.
X252.763 Z-1.427 I0.912 J0.
X250.938 Z-1.471 I-0.912 J0.
X252.763 Z-1.515 I0.912 J0.
X250.938 Z-1.558 I-0.912 J0.
X252.763 Z-1.602 I0.912 J0.
X250.938 Z-1.646 I-0.912 J0.
X252.763 Z-1.689 I0.912 J0.
X250.938 Z-1.733 I-0.912 J0.
X252.763 Z-1.776 I0.912 J0.
X250.938 Z-1.82 I-0.912 J0.
X252.763 Z-1.864 I0.912 J0.
X250.938 Z-1.907 I-0.912 J0.
X252.763 Z-1.951 I0.912 J0.
X250.938 Z-1.995 I-0.912 J0.
X252.763 Z-2.038 I0.912 J0.
X250.938 Z-2.082 I-0.912 J0.
X252.763 Z-2.126 I0.912 J0.
X250.938 Z-2.169 I-0.912 J0.
X252.763 Z-2.213 I0.912 J0.
X250.938 Z-2.257 I-0.912 J0.
X252.763 Z-2.3 I0.912 J0.
X250.938 Z-2.344 I-0.912 J0.
X252.763 Z-2.387 I0.912 J0.
X250.938 Z-2.431 I-0.912 J0.
X252.763 Z-2.475 I0.912 J0.
X250.938 Z-2.518 I-0.912 J0.
X252.763 Z-2.562 I0.912 J0.
X250.938 Z-2.606 I-0.912 J0.
X252.763 Z-2.649 I0.912 J0.
X250.938 Z-2.693 I-0.912 J0.
X252.763 Z-2.737 I0.912 J0.
X250.938 Z-2.78 I-0.912 J0.
X252.763 Z-2.824 I0.912 J0.
X250.938 Z-2.867 I-0.912 J0.
X252.763 Z-2.911 I0.912 J0.
X250.938 Z-2.955 I-0.912 J0.
X252.763 Z-2.998 I0.912 J0.
X250.938 Z-3.042 I-0.912 J0.
X252.763 Z-3.086 I0.912 J0.
X250.938 Z-3.129 I-0.912 J0.
X252.763 Z-3.173 I0.912 J0.
X250.938 Z-3.217 I-0.912 J0.
X252.763 Z-3.26 I0.912 J0.
X250.938 Z-3.304 I-0.912 J0.
X252.763 Z-3.347 I0.912 J0.
X250.938 Z-3.391 I-0.912 J0.
X252.763 Z-3.435 I0.912 J0.
X250.938 Z-3.478 I-0.912 J0.
X252.763 Z-3.522 I0.912 J0.
X250.938 Z-3.566 I-0.912 J0.
X252.763 Z-3.609 I0.912 J0.
X250.938 Z-3.653 I-0.912 J0.
X252.763 Z-3.697 I0.912 J0.
X250.938 Z-3.74 I-0.912 J0.
X252.763 Z-3.784 I0.912 J0.
X250.938 Z-3.827 I-0.912 J0.
X252.763 Z-3.871 I0.912 J0.
X250.938 Z-3.915 I-0.912 J0.
X252.763 Z-3.958 I0.912 J0.
X250.938 Z-4.002 I-0.912 J0.
X252.763 Z-4.046 I0.912 J0.
X250.938 Z-4.089 I-0.912 J0.
X252.763 Z-4.133 I0.912 J0.
X250.938 Z-4.177 I-0.912 J0.
X252.763 Z-4.22 I0.912 J0.
X250.938 Z-4.264 I-0.912 J0.
X252.763 Z-4.307 I0.912 J0.
X250.938 Z-4.351 I-0.912 J0.
X252.763 Z-4.395 I0.913 J0.
X250.938 Z-4.438 I-0.913 J0.
X252.763 Z-4.482 I0.913 J0.
X250.938 Z-4.526 I-0.913 J0.
X252.763 Z-4.569 I0.913 J0.
X250.938 Z-4.613 I-0.913 J0.
X252.763 Z-4.657 I0.913 J0.
X250.938 Z-4.7 I-0.913 J0.
X252.763 Z-4.744 I0.913 J0.
X250.938 Z-4.787 I-0.913 J0.
X252.763 Z-4.831 I0.913 J0.
X250.938 Z-4.875 I-0.913 J0.
X252.763 Z-4.918 I0.913 J0.
X250.938 Z-4.962 I-0.913 J0.
X252.763 Z-5.006 I0.913 J0.
X250.938 Z-5.049 I-0.913 J0.
X252.763 Z-5.093 I0.913 J0.
X250.938 Z-5.137 I-0.913 J0.
X252.763 Z-5.18 I0.913 J0.
X250.938 Z-5.224 I-0.913 J0.
X252.763 Z-5.268 I0.913 J0.
X250.938 Z-5.311 I-0.913 J0.
X252.763 Z-5.355 I0.913 J0.
X250.938 Z-5.398 I-0.913 J0.
X252.763 Z-5.442 I0.913 J0.
X250.938 Z-5.486 I-0.913 J0.
X252.763 Z-5.529 I0.913 J0.
X250.938 Z-5.573 I-0.913 J0.
X252.763 Z-5.617 I0.913 J0.
X250.938 Z-5.66 I-0.913 J0.
X252.763 Z-5.704 I0.913 J0.
X250.938 Z-5.748 I-0.913 J0.
X252.763 Z-5.791 I0.913 J0.
X250.938 Z-5.835 I-0.913 J0.
X252.763 Z-5.878 I0.913 J0.
X250.938 Z-5.922 I-0.913 J0.
X252.763 Z-5.966 I0.913 J0.
X250.938 Z-6.009 I-0.913 J0.
X252.763 Z-6.053 I0.913 J0.
X250.938 Z-6.097 I-0.913 J0.
X252.763 Z-6.14 I0.913 J0.
X250.938 Z-6.184 I-0.913 J0.
X252.763 Z-6.228 I0.913 J0.
X250.938 Z-6.271 I-0.913 J0.
X252.763 Z-6.315 I0.913 J0.
X250.938 Z-6.358 I-0.913 J0.
X252.763 Z-6.402 I0.913 J0.
X250.938 Z-6.446 I-0.913 J0.
X252.763 Z-6.489 I0.913 J0.
X250.938 Z-6.533 I-0.913 J0.
X252.763 Z-6.577 I0.913 J0.
X250.938 Z-6.62 I-0.913 J0.
X252.763 Z-6.664 I0.913 J0.
X250.938 Z-6.708 I-0.913 J0.
X252.763 Z-6.751 I0.913 J0.
X250.938 Z-6.795 I-0.913 J0.
X252.763 Z-6.838 I0.913 J0.
X250.938 Z-6.882 I-0.913 J0.
X252.763 Z-6.926 I0.913 J0.
X250.938 Z-6.969 I-0.913 J0.
X252.763 Z-7.013 I0.913 J0.
X250.938 Z-7.057 I-0.913 J0.
X252.763 Z-7.1 I0.913 J0.
X250.938 Z-7.144 I-0.913 J0.
X252.763 Z-7.188 I0.913 J0.
X250.938 Z-7.231 I-0.913 J0.
X252.763 Z-7.275 I0.913 J0.
X250.938 Z-7.318 I-0.913 J0.
X252.763 Z-7.362 I0.913 J0.
X250.938 Z-7.406 I-0.913 J0.
X252.763 Z-7.449 I0.913 J0.
X250.938 Z-7.493 I-0.913 J0.
X252.763 Z-7.537 I0.913 J0.
X250.938 Z-7.58 I-0.913 J0.
X252.763 Z-7.624 I0.913 J0.
X250.938 Z-7.668 I-0.913 J0.
X252.763 Z-7.711 I0.913 J0.
X250.938 Z-7.755 I-0.913 J0.
X252.763 Z-7.798 I0.913 J0.
X250.938 Z-7.842 I-0.913 J0.
X252.763 Z-7.886 I0.913 J0.
X250.938 Z-7.929 I-0.913 J0.
X252.763 Z-7.973 I0.913 J0.
X250.938 Z-8.017 I-0.913 J0.
X252.763 Z-8.06 I0.913 J0.
X250.938 Z-8.104 I-0.913 J0.
X252.763 Z-8.148 I0.913 J0.
X250.938 Z-8.191 I-0.913 J0.
X252.763 Z-8.235 I0.913 J0.
X250.938 Z-8.279 I-0.913 J0.
X252.763 Z-8.322 I0.913 J0.
X251.466 Y190.672 Z-8.35 I-0.913 J0.
X252.234 Y192.328 I0.384 J0.828
X251.466 Y190.672 I-0.384 J-0.828
X251.311 Y191.094 I0.134 J0.288
G1 X251.378 Y191.238
X251.408 Y191.302 Z-8.342
X251.436 Y191.363 Z-8.319
X251.462 Y191.418 Z-8.281
X251.483 Y191.463 Z-8.23
X251.499 Y191.498 Z-8.17
X251.509 Y191.519 Z-8.103
X251.512 Y191.526 Z-8.033
G0 Z15.
M5
G0 Z15
G0 X0 Y0

M9
M30
