(SHOOTER SIDE PANEL POCKETS )
(T1  D=6.35 CR=0. - ZMIN=-4.675 - FLAT END MILL)
G90 G94 G91.1 G40 G49 G17
G21
G0 Z15

(2D POCKET3)
M5
T1 M6
S15000 M3
G54
M8
G0 X107.531 Y175.87
G43 Z16. H1
Z6.
G1 Z4.135 F1600.
X107.539 Y175.841 Z3.941
X107.56 Y175.755 Z3.765
X107.588 Y175.62 Z3.625
X107.614 Y175.448 Z3.534
X107.631 Y175.255 Z3.5
G2 X101.609 Y174.908 Z3.335 I-3.011 J-0.174
X107.631 Y175.255 Z3.169 I3.011 J0.174
X101.609 Y174.908 Z3.004 I-3.011 J-0.174
X107.631 Y175.255 Z2.838 I3.011 J0.174
X101.609 Y174.908 Z2.673 I-3.011 J-0.174
X107.631 Y175.255 Z2.508 I3.011 J0.174
X101.609 Y174.908 Z2.342 I-3.011 J-0.174
X107.631 Y175.255 Z2.177 I3.011 J0.174
X101.609 Y174.908 Z2.011 I-3.011 J-0.174
X107.631 Y175.255 Z1.846 I3.011 J0.174
X101.609 Y174.908 Z1.681 I-3.011 J-0.174
X107.631 Y175.255 Z1.515 I3.011 J0.174
X101.609 Y174.908 Z1.35 I-3.011 J-0.174
X107.631 Y175.255 Z1.184 I3.011 J0.174
X101.609 Y174.908 Z1.019 I-3.011 J-0.174
X107.631 Y175.255 Z0.854 I3.011 J0.174
X103.617 Y172.237 Z0.75 I-3.011 J-0.174
G3 X102.188 Y172.711 I-13.173 J-37.36 F16000.
G1 X99.987 Y173.394
G2 X99.648 Y173.854 I0.143 J0.46
G1 Y178.997
G2 X99.946 Y179.221 I0.233 J0.
X111.785 Y174.973 I-28.488 J-98.037
X111.852 Y174.629 I-0.083 J-0.195
G1 X108.084 Y170.861
G2 X107.471 Y170.736 I-0.401 J0.401
G1 X105.546 Y171.51
G3 X103.617 Y172.237 I-17.789 J-44.254
X99.406 Y171.088 I-1.275 J-3.617
G2 X95.225 Y169.833 I-3.049 J2.564
X94.899 Y170.269 I0.129 J0.437
G1 Y185.124
G2 X95.201 Y185.365 I0.247 J0.
X101.158 Y183.789 I-21.612 J-93.731
X107.017 Y181.881 I-36.562 J-122.219
X109.244 Y181.067 I-34.602 J-98.135
X114.648 Y178.878 I-47.593 J-125.274
X119.931 Y176.41 I-37.909 J-88.044
X119.989 Y176.051 I-0.101 J-0.201
G1 X109.171 Y165.233
G2 X108.574 Y165.121 I-0.381 J0.381
G3 X105.331 Y166.502 I-57.278 J-130.023
X102.038 Y167.759 I-26.211 J-63.741
X98.656 Y168.857 I-23.747 J-67.348
X95.236 Y169.83 I-41.456 J-139.336
G1 X95.225 Y169.833
G3 X92.692 Y168.847 I-0.63 J-2.129
G2 X90.072 Y169.573 I-1.209 J0.726
G1 Y191.01
G2 X90.378 Y191.268 I0.261 J0.
X127.912 Y177.57 I-19.859 J-112.693
X127.961 Y177.195 I-0.12 J-0.206
G1 X110.189 Y159.423
G2 X109.609 Y159.325 I-0.359 J0.359
G3 X105.075 Y161.394 I-47.108 J-97.222
X100.433 Y163.206 I-29.725 J-69.326
X95.46 Y164.776 I-26.19 J-74.277
X90.405 Y166.056 I-28.392 J-101.495
G2 X90.072 Y166.474 I0.095 J0.418
G1 Y169.573
G3 X87.622 Y173.247 I-3.98 J0.
G2 X85.173 Y176.92 I1.531 J3.674
G1 Y196.682
G2 X85.484 Y196.956 I0.276 J0.
X135.751 Y178.488 I-15.061 J-118.636
X135.791 Y178.098 I-0.138 J-0.211
G1 X111.119 Y153.426
G2 X110.557 Y153.343 I-0.336 J0.336
G3 X104.781 Y156.191 I-43.995 J-81.961
X98.804 Y158.586 I-31.353 J-69.572
X92.224 Y160.589 I-26.307 J-74.61
X85.504 Y162.052 I-22.763 J-88.4
G2 X85.173 Y162.448 I0.071 J0.396
G1 Y176.92
G3 X82.69 Y180.645 I-4.035 J0.
G2 X80.206 Y184.37 I1.552 J3.725
G1 Y202.481
G2 X143.726 Y179.009 I-9.525 J-123.458
G1 X111.697 Y146.98
G3 X80.206 Y157.824 I-41.015 J-67.957
G1 Y184.37
G2 X84.447 Y187.127 Z0.709 I3.016 J0. F1600.
G1 X104.03 Y178.434 Z0.562
G2 X101.912 Y172.796 Z0.5 I-1.224 J-2.757
G1 X99.987 Y173.394 F16000.
G2 X99.648 Y173.854 I0.143 J0.46
G1 Y178.997
G2 X99.946 Y179.221 I0.233 J0.
X111.785 Y174.973 I-28.488 J-98.037
X111.852 Y174.629 I-0.083 J-0.195
G1 X108.084 Y170.861
G2 X107.471 Y170.736 I-0.401 J0.401
G1 X105.546 Y171.51
G3 X103.617 Y172.237 I-17.789 J-44.254
X102.188 Y172.711 I-13.173 J-37.36
G1 X101.912 Y172.796
G3 X98.462 Y171.474 I-0.885 J-2.852
G2 X94.899 Y172.455 I-1.646 J0.981
G1 Y185.124
G2 X95.201 Y185.365 I0.247 J0.
X101.158 Y183.789 I-21.612 J-93.731
X107.017 Y181.881 I-36.562 J-122.219
X109.244 Y181.067 I-34.602 J-98.135
X114.648 Y178.878 I-47.593 J-125.274
X119.931 Y176.41 I-37.909 J-88.044
X119.989 Y176.051 I-0.101 J-0.201
G1 X109.171 Y165.233
G2 X108.574 Y165.121 I-0.381 J0.381
G3 X105.331 Y166.502 I-57.278 J-130.023
X102.038 Y167.759 I-26.211 J-63.741
X98.656 Y168.857 I-23.747 J-67.348
X95.236 Y169.83 I-41.456 J-139.336
G2 X94.899 Y170.269 I0.119 J0.44
G1 Y172.455
G3 X92.485 Y176.076 I-3.923 J0.
G2 X90.072 Y179.697 I1.509 J3.621
G1 Y191.01
G2 X90.378 Y191.268 I0.261 J0.
X127.912 Y177.57 I-19.859 J-112.693
X127.961 Y177.195 I-0.12 J-0.206
G1 X110.189 Y159.423
G2 X109.609 Y159.325 I-0.359 J0.359
G3 X105.075 Y161.394 I-47.108 J-97.222
X100.433 Y163.206 I-29.725 J-69.326
X95.46 Y164.776 I-26.19 J-74.277
X90.405 Y166.056 I-28.392 J-101.495
G2 X90.072 Y166.474 I0.095 J0.418
G1 Y179.697
G3 X87.622 Y183.371 I-3.98 J0.
G2 X85.173 Y187.044 I1.531 J3.674
G1 Y196.682
G2 X85.484 Y196.956 I0.276 J0.
X135.751 Y178.488 I-15.061 J-118.636
X135.791 Y178.098 I-0.138 J-0.211
G1 X111.119 Y153.426
G2 X110.557 Y153.343 I-0.336 J0.336
G3 X104.781 Y156.191 I-43.995 J-81.961
X98.804 Y158.586 I-31.353 J-69.572
X92.224 Y160.589 I-26.307 J-74.61
X85.504 Y162.052 I-22.763 J-88.4
G2 X85.173 Y162.448 I0.071 J0.396
G1 Y187.044
G3 X82.69 Y190.769 I-4.035 J0.
G2 X80.206 Y194.494 I1.552 J3.725
G1 Y202.481
G2 X143.726 Y179.009 I-9.525 J-123.458
G1 X111.697 Y146.98
G3 X80.206 Y157.824 I-41.015 J-67.957
G1 Y194.494
G2 X85.313 Y196.669 Z0.458 I3.016 J0. F1600.
G1 X104.896 Y177.852 Z0.298
G2 X101.912 Y172.796 Z0.25 I-2.09 J-2.175
G1 X99.987 Y173.394 F16000.
G2 X99.648 Y173.854 I0.143 J0.46
G1 Y178.997
G2 X99.946 Y179.221 I0.233 J0.
X111.785 Y174.973 I-28.488 J-98.037
X111.852 Y174.629 I-0.083 J-0.195
G1 X108.084 Y170.861
G2 X107.471 Y170.736 I-0.401 J0.401
G1 X105.546 Y171.51
G3 X103.617 Y172.237 I-17.789 J-44.254
X102.188 Y172.711 I-13.173 J-37.36
G1 X101.912 Y172.796
G3 X98.462 Y171.474 I-0.885 J-2.852
G2 X94.899 Y172.455 I-1.646 J0.981
G1 Y185.124
G2 X95.201 Y185.365 I0.247 J0.
X101.158 Y183.789 I-21.612 J-93.731
X107.017 Y181.881 I-36.562 J-122.219
X109.244 Y181.067 I-34.602 J-98.135
X114.648 Y178.878 I-47.593 J-125.274
X119.931 Y176.41 I-37.909 J-88.044
X119.989 Y176.051 I-0.101 J-0.201
G1 X109.171 Y165.233
G2 X108.574 Y165.121 I-0.381 J0.381
G3 X105.331 Y166.502 I-57.278 J-130.023
X102.038 Y167.759 I-26.211 J-63.741
X98.656 Y168.857 I-23.747 J-67.348
X95.236 Y169.83 I-41.456 J-139.336
G2 X94.899 Y170.269 I0.119 J0.44
G1 Y172.455
G3 X92.485 Y176.076 I-3.923 J0.
G2 X90.072 Y179.697 I1.509 J3.621
G1 Y191.01
G2 X90.378 Y191.268 I0.261 J0.
X127.912 Y177.57 I-19.859 J-112.693
X127.961 Y177.195 I-0.12 J-0.206
G1 X110.189 Y159.423
G2 X109.609 Y159.325 I-0.359 J0.359
G3 X105.075 Y161.394 I-47.108 J-97.222
X100.433 Y163.206 I-29.725 J-69.326
X95.46 Y164.776 I-26.19 J-74.277
X90.405 Y166.056 I-28.392 J-101.495
G2 X90.072 Y166.474 I0.095 J0.418
G1 Y179.697
G3 X87.622 Y183.371 I-3.98 J0.
G2 X85.173 Y187.044 I1.531 J3.674
G1 Y196.682
G2 X85.484 Y196.956 I0.276 J0.
X135.751 Y178.488 I-15.061 J-118.636
X135.791 Y178.098 I-0.138 J-0.211
G1 X111.119 Y153.426
G2 X110.557 Y153.343 I-0.336 J0.336
G3 X104.781 Y156.191 I-43.995 J-81.961
X98.804 Y158.586 I-31.353 J-69.572
X92.224 Y160.589 I-26.307 J-74.61
X85.504 Y162.052 I-22.763 J-88.4
G2 X85.173 Y162.448 I0.071 J0.396
G1 Y187.044
G3 X82.69 Y190.769 I-4.035 J0.
G2 X80.206 Y194.494 I1.552 J3.725
G1 Y202.481
G2 X143.726 Y179.009 I-9.525 J-123.458
G1 X111.697 Y146.98
G3 X80.206 Y157.824 I-41.015 J-67.957
G1 Y194.494
G2 X85.313 Y196.669 Z0.208 I3.016 J0. F1600.
G1 X104.896 Y177.852 Z0.048
G2 X101.912 Y172.796 Z0. I-2.09 J-2.175
G1 X99.987 Y173.394 F16000.
G2 X99.648 Y173.854 I0.143 J0.46
G1 Y178.997
G2 X99.946 Y179.221 I0.233 J0.
X111.785 Y174.973 I-28.488 J-98.037
X111.852 Y174.629 I-0.083 J-0.195
G1 X108.084 Y170.861
G2 X107.471 Y170.736 I-0.401 J0.401
G1 X105.546 Y171.51
G3 X103.617 Y172.237 I-17.789 J-44.254
X102.188 Y172.711 I-13.173 J-37.36
G1 X101.912 Y172.796
G3 X98.462 Y171.474 I-0.885 J-2.852
G2 X94.899 Y172.455 I-1.646 J0.981
G1 Y185.124
G2 X95.201 Y185.365 I0.247 J0.
X101.158 Y183.789 I-21.612 J-93.731
X107.017 Y181.881 I-36.562 J-122.219
X109.244 Y181.067 I-34.602 J-98.135
X114.648 Y178.878 I-47.593 J-125.274
X119.931 Y176.41 I-37.909 J-88.044
X119.989 Y176.051 I-0.101 J-0.201
G1 X109.171 Y165.233
G2 X108.574 Y165.121 I-0.381 J0.381
G3 X105.331 Y166.502 I-57.278 J-130.023
X102.038 Y167.759 I-26.211 J-63.741
X98.656 Y168.857 I-23.747 J-67.348
X95.236 Y169.83 I-41.456 J-139.336
G2 X94.899 Y170.269 I0.119 J0.44
G1 Y172.455
G3 X92.485 Y176.076 I-3.923 J0.
G2 X90.072 Y179.697 I1.509 J3.621
G1 Y191.01
G2 X90.378 Y191.268 I0.261 J0.
X127.912 Y177.57 I-19.859 J-112.693
X127.961 Y177.195 I-0.12 J-0.206
G1 X110.189 Y159.423
G2 X109.609 Y159.325 I-0.359 J0.359
G3 X105.075 Y161.394 I-47.108 J-97.222
X100.433 Y163.206 I-29.725 J-69.326
X95.46 Y164.776 I-26.19 J-74.277
X90.405 Y166.056 I-28.392 J-101.495
G2 X90.072 Y166.474 I0.095 J0.418
G1 Y179.697
G3 X87.622 Y183.371 I-3.98 J0.
G2 X85.173 Y187.044 I1.531 J3.674
G1 Y196.682
G2 X85.484 Y196.956 I0.276 J0.
X135.751 Y178.488 I-15.061 J-118.636
X135.791 Y178.098 I-0.138 J-0.211
G1 X111.119 Y153.426
G2 X110.557 Y153.343 I-0.336 J0.336
G3 X104.781 Y156.191 I-43.995 J-81.961
X98.804 Y158.586 I-31.353 J-69.572
X92.224 Y160.589 I-26.307 J-74.61
X85.504 Y162.052 I-22.763 J-88.4
G2 X85.173 Y162.448 I0.071 J0.396
G1 Y187.044
G3 X82.69 Y190.769 I-4.035 J0.
G2 X80.206 Y194.494 I1.552 J3.725
G1 Y202.481
G2 X143.726 Y179.009 I-9.525 J-123.458
G1 X111.697 Y146.98
G3 X80.206 Y157.824 I-41.015 J-67.957
G1 Y194.494
G2 X85.313 Y196.669 Z-0.042 I3.016 J0. F1600.
G1 X104.896 Y177.852 Z-0.202
G2 X101.912 Y172.796 Z-0.25 I-2.09 J-2.175
G1 X99.987 Y173.394 F16000.
G2 X99.648 Y173.854 I0.143 J0.46
G1 Y178.997
G2 X99.946 Y179.221 I0.233 J0.
X111.785 Y174.973 I-28.488 J-98.037
X111.852 Y174.629 I-0.083 J-0.195
G1 X108.084 Y170.861
G2 X107.471 Y170.736 I-0.401 J0.401
G1 X105.546 Y171.51
G3 X103.617 Y172.237 I-17.789 J-44.254
X102.188 Y172.711 I-13.173 J-37.36
G1 X101.912 Y172.796
G3 X98.462 Y171.474 I-0.885 J-2.852
G2 X94.899 Y172.455 I-1.646 J0.981
G1 Y185.124
G2 X95.201 Y185.365 I0.247 J0.
X101.158 Y183.789 I-21.612 J-93.731
X107.017 Y181.881 I-36.562 J-122.219
X109.244 Y181.067 I-34.602 J-98.135
X114.648 Y178.878 I-47.593 J-125.274
X119.931 Y176.41 I-37.909 J-88.044
X119.989 Y176.051 I-0.101 J-0.201
G1 X109.171 Y165.233
G2 X108.574 Y165.121 I-0.381 J0.381
G3 X105.331 Y166.502 I-57.278 J-130.023
X102.038 Y167.759 I-26.211 J-63.741
X98.656 Y168.857 I-23.747 J-67.348
X95.236 Y169.83 I-41.456 J-139.336
G2 X94.899 Y170.269 I0.119 J0.44
G1 Y172.455
G3 X92.485 Y176.076 I-3.923 J0.
G2 X90.072 Y179.697 I1.509 J3.621
G1 Y191.01
G2 X90.378 Y191.268 I0.261 J0.
X127.912 Y177.57 I-19.859 J-112.693
X127.961 Y177.195 I-0.12 J-0.206
G1 X110.189 Y159.423
G2 X109.609 Y159.325 I-0.359 J0.359
G3 X105.075 Y161.394 I-47.108 J-97.222
X100.433 Y163.206 I-29.725 J-69.326
X95.46 Y164.776 I-26.19 J-74.277
X90.405 Y166.056 I-28.392 J-101.495
G2 X90.072 Y166.474 I0.095 J0.418
G1 Y179.697
G3 X87.622 Y183.371 I-3.98 J0.
G2 X85.173 Y187.044 I1.531 J3.674
G1 Y196.682
G2 X85.484 Y196.956 I0.276 J0.
X135.751 Y178.488 I-15.061 J-118.636
X135.791 Y178.098 I-0.138 J-0.211
G1 X111.119 Y153.426
G2 X110.557 Y153.343 I-0.336 J0.336
G3 X104.781 Y156.191 I-43.995 J-81.961
X98.804 Y158.586 I-31.353 J-69.572
X92.224 Y160.589 I-26.307 J-74.61
X85.504 Y162.052 I-22.763 J-88.4
G2 X85.173 Y162.448 I0.071 J0.396
G1 Y187.044
G3 X82.69 Y190.769 I-4.035 J0.
G2 X80.206 Y194.494 I1.552 J3.725
G1 Y202.481
G2 X143.726 Y179.009 I-9.525 J-123.458
G1 X111.697 Y146.98
G3 X80.206 Y157.824 I-41.015 J-67.957
G1 Y194.494
G2 X85.313 Y196.669 Z-0.292 I3.016 J0. F1600.
G1 X104.896 Y177.852 Z-0.452
G2 X101.912 Y172.796 Z-0.5 I-2.09 J-2.175
G1 X99.987 Y173.394 F16000.
G2 X99.648 Y173.854 I0.143 J0.46
G1 Y178.997
G2 X99.946 Y179.221 I0.233 J0.
X111.785 Y174.973 I-28.488 J-98.037
X111.852 Y174.629 I-0.083 J-0.195
G1 X108.084 Y170.861
G2 X107.471 Y170.736 I-0.401 J0.401
G1 X105.546 Y171.51
G3 X103.617 Y172.237 I-17.789 J-44.254
X102.188 Y172.711 I-13.173 J-37.36
G1 X101.912 Y172.796
G3 X98.462 Y171.474 I-0.885 J-2.852
G2 X94.899 Y172.455 I-1.646 J0.981
G1 Y185.124
G2 X95.201 Y185.365 I0.247 J0.
X101.158 Y183.789 I-21.612 J-93.731
X107.017 Y181.881 I-36.562 J-122.219
X109.244 Y181.067 I-34.602 J-98.135
X114.648 Y178.878 I-47.593 J-125.274
X119.931 Y176.41 I-37.909 J-88.044
X119.989 Y176.051 I-0.101 J-0.201
G1 X109.171 Y165.233
G2 X108.574 Y165.121 I-0.381 J0.381
G3 X105.331 Y166.502 I-57.278 J-130.023
X102.038 Y167.759 I-26.211 J-63.741
X98.656 Y168.857 I-23.747 J-67.348
X95.236 Y169.83 I-41.456 J-139.336
G2 X94.899 Y170.269 I0.119 J0.44
G1 Y172.455
G3 X92.485 Y176.076 I-3.923 J0.
G2 X90.072 Y179.697 I1.509 J3.621
G1 Y191.01
G2 X90.378 Y191.268 I0.261 J0.
X127.912 Y177.57 I-19.859 J-112.693
X127.961 Y177.195 I-0.12 J-0.206
G1 X110.189 Y159.423
G2 X109.609 Y159.325 I-0.359 J0.359
G3 X105.075 Y161.394 I-47.108 J-97.222
X100.433 Y163.206 I-29.725 J-69.326
X95.46 Y164.776 I-26.19 J-74.277
X90.405 Y166.056 I-28.392 J-101.495
G2 X90.072 Y166.474 I0.095 J0.418
G1 Y179.697
G3 X87.622 Y183.371 I-3.98 J0.
G2 X85.173 Y187.044 I1.531 J3.674
G1 Y196.682
G2 X85.484 Y196.956 I0.276 J0.
X135.751 Y178.488 I-15.061 J-118.636
X135.791 Y178.098 I-0.138 J-0.211
G1 X111.119 Y153.426
G2 X110.557 Y153.343 I-0.336 J0.336
G3 X104.781 Y156.191 I-43.995 J-81.961
X98.804 Y158.586 I-31.353 J-69.572
X92.224 Y160.589 I-26.307 J-74.61
X85.504 Y162.052 I-22.763 J-88.4
G2 X85.173 Y162.448 I0.071 J0.396
G1 Y187.044
G3 X82.69 Y190.769 I-4.035 J0.
G2 X80.206 Y194.494 I1.552 J3.725
G1 Y202.481
G2 X143.726 Y179.009 I-9.525 J-123.458
G1 X111.697 Y146.98
G3 X80.206 Y157.824 I-41.015 J-67.957
G1 Y194.494
G2 X85.313 Y196.669 Z-0.542 I3.016 J0. F1600.
G1 X104.896 Y177.852 Z-0.702
G2 X101.912 Y172.796 Z-0.75 I-2.09 J-2.175
G1 X99.987 Y173.394 F16000.
G2 X99.648 Y173.854 I0.143 J0.46
G1 Y178.997
G2 X99.946 Y179.221 I0.233 J0.
X111.785 Y174.973 I-28.488 J-98.037
X111.852 Y174.629 I-0.083 J-0.195
G1 X108.084 Y170.861
G2 X107.471 Y170.736 I-0.401 J0.401
G1 X105.546 Y171.51
G3 X103.617 Y172.237 I-17.789 J-44.254
X102.188 Y172.711 I-13.173 J-37.36
G1 X101.912 Y172.796
G3 X98.462 Y171.474 I-0.885 J-2.852
G2 X94.899 Y172.455 I-1.646 J0.981
G1 Y185.124
G2 X95.201 Y185.365 I0.247 J0.
X101.158 Y183.789 I-21.612 J-93.731
X107.017 Y181.881 I-36.562 J-122.219
X109.244 Y181.067 I-34.602 J-98.135
X114.648 Y178.878 I-47.593 J-125.274
X119.931 Y176.41 I-37.909 J-88.044
X119.989 Y176.051 I-0.101 J-0.201
G1 X109.171 Y165.233
G2 X108.574 Y165.121 I-0.381 J0.381
G3 X105.331 Y166.502 I-57.278 J-130.023
X102.038 Y167.759 I-26.211 J-63.741
X98.656 Y168.857 I-23.747 J-67.348
X95.236 Y169.83 I-41.456 J-139.336
G2 X94.899 Y170.269 I0.119 J0.44
G1 Y172.455
G3 X92.485 Y176.076 I-3.923 J0.
G2 X90.072 Y179.697 I1.509 J3.621
G1 Y191.01
G2 X90.378 Y191.268 I0.261 J0.
X127.912 Y177.57 I-19.859 J-112.693
X127.961 Y177.195 I-0.12 J-0.206
G1 X110.189 Y159.423
G2 X109.609 Y159.325 I-0.359 J0.359
G3 X105.075 Y161.394 I-47.108 J-97.222
X100.433 Y163.206 I-29.725 J-69.326
X95.46 Y164.776 I-26.19 J-74.277
X90.405 Y166.056 I-28.392 J-101.495
G2 X90.072 Y166.474 I0.095 J0.418
G1 Y179.697
G3 X87.622 Y183.371 I-3.98 J0.
G2 X85.173 Y187.044 I1.531 J3.674
G1 Y196.682
G2 X85.484 Y196.956 I0.276 J0.
X135.751 Y178.488 I-15.061 J-118.636
X135.791 Y178.098 I-0.138 J-0.211
G1 X111.119 Y153.426
G2 X110.557 Y153.343 I-0.336 J0.336
G3 X104.781 Y156.191 I-43.995 J-81.961
X98.804 Y158.586 I-31.353 J-69.572
X92.224 Y160.589 I-26.307 J-74.61
X85.504 Y162.052 I-22.763 J-88.4
G2 X85.173 Y162.448 I0.071 J0.396
G1 Y187.044
G3 X82.69 Y190.769 I-4.035 J0.
G2 X80.206 Y194.494 I1.552 J3.725
G1 Y202.481
G2 X143.726 Y179.009 I-9.525 J-123.458
G1 X111.697 Y146.98
G3 X80.206 Y157.824 I-41.015 J-67.957
G1 Y194.494
G2 X85.313 Y196.669 Z-0.792 I3.016 J0. F1600.
G1 X104.896 Y177.852 Z-0.952
G2 X101.912 Y172.796 Z-1. I-2.09 J-2.175
G1 X99.987 Y173.394 F16000.
G2 X99.648 Y173.854 I0.143 J0.46
G1 Y178.997
G2 X99.946 Y179.221 I0.233 J0.
X111.785 Y174.973 I-28.488 J-98.037
X111.852 Y174.629 I-0.083 J-0.195
G1 X108.084 Y170.861
G2 X107.471 Y170.736 I-0.401 J0.401
G1 X105.546 Y171.51
G3 X103.617 Y172.237 I-17.789 J-44.254
X102.188 Y172.711 I-13.173 J-37.36
G1 X101.912 Y172.796
G3 X98.462 Y171.474 I-0.885 J-2.852
G2 X94.899 Y172.455 I-1.646 J0.981
G1 Y185.124
G2 X95.201 Y185.365 I0.247 J0.
X101.158 Y183.789 I-21.612 J-93.731
X107.017 Y181.881 I-36.562 J-122.219
X109.244 Y181.067 I-34.602 J-98.135
X114.648 Y178.878 I-47.593 J-125.274
X119.931 Y176.41 I-37.909 J-88.044
X119.989 Y176.051 I-0.101 J-0.201
G1 X109.171 Y165.233
G2 X108.574 Y165.121 I-0.381 J0.381
G3 X105.331 Y166.502 I-57.278 J-130.023
X102.038 Y167.759 I-26.211 J-63.741
X98.656 Y168.857 I-23.747 J-67.348
X95.236 Y169.83 I-41.456 J-139.336
G2 X94.899 Y170.269 I0.119 J0.44
G1 Y172.455
G3 X92.485 Y176.076 I-3.923 J0.
G2 X90.072 Y179.697 I1.509 J3.621
G1 Y191.01
G2 X90.378 Y191.268 I0.261 J0.
X127.912 Y177.57 I-19.859 J-112.693
X127.961 Y177.195 I-0.12 J-0.206
G1 X110.189 Y159.423
G2 X109.609 Y159.325 I-0.359 J0.359
G3 X105.075 Y161.394 I-47.108 J-97.222
X100.433 Y163.206 I-29.725 J-69.326
X95.46 Y164.776 I-26.19 J-74.277
X90.405 Y166.056 I-28.392 J-101.495
G2 X90.072 Y166.474 I0.095 J0.418
G1 Y179.697
G3 X87.622 Y183.371 I-3.98 J0.
G2 X85.173 Y187.044 I1.531 J3.674
G1 Y196.682
G2 X85.484 Y196.956 I0.276 J0.
X135.751 Y178.488 I-15.061 J-118.636
X135.791 Y178.098 I-0.138 J-0.211
G1 X111.119 Y153.426
G2 X110.557 Y153.343 I-0.336 J0.336
G3 X104.781 Y156.191 I-43.995 J-81.961
X98.804 Y158.586 I-31.353 J-69.572
X92.224 Y160.589 I-26.307 J-74.61
X85.504 Y162.052 I-22.763 J-88.4
G2 X85.173 Y162.448 I0.071 J0.396
G1 Y187.044
G3 X82.69 Y190.769 I-4.035 J0.
G2 X80.206 Y194.494 I1.552 J3.725
G1 Y202.481
G2 X143.726 Y179.009 I-9.525 J-123.458
G1 X111.697 Y146.98
G3 X80.206 Y157.824 I-41.015 J-67.957
G1 Y194.494
G2 X85.313 Y196.669 Z-1.042 I3.016 J0. F1600.
G1 X104.896 Y177.852 Z-1.202
G2 X101.912 Y172.796 Z-1.25 I-2.09 J-2.175
G1 X99.987 Y173.394 F16000.
G2 X99.648 Y173.854 I0.143 J0.46
G1 Y178.997
G2 X99.946 Y179.221 I0.233 J0.
X111.785 Y174.973 I-28.488 J-98.037
X111.852 Y174.629 I-0.083 J-0.195
G1 X108.084 Y170.861
G2 X107.471 Y170.736 I-0.401 J0.401
G1 X105.546 Y171.51
G3 X103.617 Y172.237 I-17.789 J-44.254
X102.188 Y172.711 I-13.173 J-37.36
G1 X101.912 Y172.796
G3 X98.462 Y171.474 I-0.885 J-2.852
G2 X94.899 Y172.455 I-1.646 J0.981
G1 Y185.124
G2 X95.201 Y185.365 I0.247 J0.
X101.158 Y183.789 I-21.612 J-93.731
X107.017 Y181.881 I-36.562 J-122.219
X109.244 Y181.067 I-34.602 J-98.135
X114.648 Y178.878 I-47.593 J-125.274
X119.931 Y176.41 I-37.909 J-88.044
X119.989 Y176.051 I-0.101 J-0.201
G1 X109.171 Y165.233
G2 X108.574 Y165.121 I-0.381 J0.381
G3 X105.331 Y166.502 I-57.278 J-130.023
X102.038 Y167.759 I-26.211 J-63.741
X98.656 Y168.857 I-23.747 J-67.348
X95.236 Y169.83 I-41.456 J-139.336
G2 X94.899 Y170.269 I0.119 J0.44
G1 Y172.455
G3 X92.485 Y176.076 I-3.923 J0.
G2 X90.072 Y179.697 I1.509 J3.621
G1 Y191.01
G2 X90.378 Y191.268 I0.261 J0.
X127.912 Y177.57 I-19.859 J-112.693
X127.961 Y177.195 I-0.12 J-0.206
G1 X110.189 Y159.423
G2 X109.609 Y159.325 I-0.359 J0.359
G3 X105.075 Y161.394 I-47.108 J-97.222
X100.433 Y163.206 I-29.725 J-69.326
X95.46 Y164.776 I-26.19 J-74.277
X90.405 Y166.056 I-28.392 J-101.495
G2 X90.072 Y166.474 I0.095 J0.418
G1 Y179.697
G3 X87.622 Y183.371 I-3.98 J0.
G2 X85.173 Y187.044 I1.531 J3.674
G1 Y196.682
G2 X85.484 Y196.956 I0.276 J0.
X135.751 Y178.488 I-15.061 J-118.636
X135.791 Y178.098 I-0.138 J-0.211
G1 X111.119 Y153.426
G2 X110.557 Y153.343 I-0.336 J0.336
G3 X104.781 Y156.191 I-43.995 J-81.961
X98.804 Y158.586 I-31.353 J-69.572
X92.224 Y160.589 I-26.307 J-74.61
X85.504 Y162.052 I-22.763 J-88.4
G2 X85.173 Y162.448 I0.071 J0.396
G1 Y187.044
G3 X82.69 Y190.769 I-4.035 J0.
G2 X80.206 Y194.494 I1.552 J3.725
G1 Y202.481
G2 X143.726 Y179.009 I-9.525 J-123.458
G1 X111.697 Y146.98
G3 X80.206 Y157.824 I-41.015 J-67.957
G1 Y194.494
G2 X85.313 Y196.669 Z-1.292 I3.016 J0. F1600.
G1 X104.896 Y177.852 Z-1.452
G2 X101.912 Y172.796 Z-1.5 I-2.09 J-2.175
G1 X99.987 Y173.394 F16000.
G2 X99.648 Y173.854 I0.143 J0.46
G1 Y178.997
G2 X99.946 Y179.221 I0.233 J0.
X111.785 Y174.973 I-28.488 J-98.037
X111.852 Y174.629 I-0.083 J-0.195
G1 X108.084 Y170.861
G2 X107.471 Y170.736 I-0.401 J0.401
G1 X105.546 Y171.51
G3 X103.617 Y172.237 I-17.789 J-44.254
X102.188 Y172.711 I-13.173 J-37.36
G1 X101.912 Y172.796
G3 X98.462 Y171.474 I-0.885 J-2.852
G2 X94.899 Y172.455 I-1.646 J0.981
G1 Y185.124
G2 X95.201 Y185.365 I0.247 J0.
X101.158 Y183.789 I-21.612 J-93.731
X107.017 Y181.881 I-36.562 J-122.219
X109.244 Y181.067 I-34.602 J-98.135
X114.648 Y178.878 I-47.593 J-125.274
X119.931 Y176.41 I-37.909 J-88.044
X119.989 Y176.051 I-0.101 J-0.201
G1 X109.171 Y165.233
G2 X108.574 Y165.121 I-0.381 J0.381
G3 X105.331 Y166.502 I-57.278 J-130.023
X102.038 Y167.759 I-26.211 J-63.741
X98.656 Y168.857 I-23.747 J-67.348
X95.236 Y169.83 I-41.456 J-139.336
G2 X94.899 Y170.269 I0.119 J0.44
G1 Y172.455
G3 X92.485 Y176.076 I-3.923 J0.
G2 X90.072 Y179.697 I1.509 J3.621
G1 Y191.01
G2 X90.378 Y191.268 I0.261 J0.
X127.912 Y177.57 I-19.859 J-112.693
X127.961 Y177.195 I-0.12 J-0.206
G1 X110.189 Y159.423
G2 X109.609 Y159.325 I-0.359 J0.359
G3 X105.075 Y161.394 I-47.108 J-97.222
X100.433 Y163.206 I-29.725 J-69.326
X95.46 Y164.776 I-26.19 J-74.277
X90.405 Y166.056 I-28.392 J-101.495
G2 X90.072 Y166.474 I0.095 J0.418
G1 Y179.697
G3 X87.622 Y183.371 I-3.98 J0.
G2 X85.173 Y187.044 I1.531 J3.674
G1 Y196.682
G2 X85.484 Y196.956 I0.276 J0.
X135.751 Y178.488 I-15.061 J-118.636
X135.791 Y178.098 I-0.138 J-0.211
G1 X111.119 Y153.426
G2 X110.557 Y153.343 I-0.336 J0.336
G3 X104.781 Y156.191 I-43.995 J-81.961
X98.804 Y158.586 I-31.353 J-69.572
X92.224 Y160.589 I-26.307 J-74.61
X85.504 Y162.052 I-22.763 J-88.4
G2 X85.173 Y162.448 I0.071 J0.396
G1 Y187.044
G3 X82.69 Y190.769 I-4.035 J0.
G2 X80.206 Y194.494 I1.552 J3.725
G1 Y202.481
G2 X143.726 Y179.009 I-9.525 J-123.458
G1 X111.697 Y146.98
G3 X80.206 Y157.824 I-41.015 J-67.957
G1 Y194.494
G2 X85.313 Y196.669 Z-1.542 I3.016 J0. F1600.
G1 X104.896 Y177.852 Z-1.702
G2 X101.912 Y172.796 Z-1.75 I-2.09 J-2.175
G1 X99.987 Y173.394 F16000.
G2 X99.648 Y173.854 I0.143 J0.46
G1 Y178.997
G2 X99.946 Y179.221 I0.233 J0.
X111.785 Y174.973 I-28.488 J-98.037
X111.852 Y174.629 I-0.083 J-0.195
G1 X108.084 Y170.861
G2 X107.471 Y170.736 I-0.401 J0.401
G1 X105.546 Y171.51
G3 X103.617 Y172.237 I-17.789 J-44.254
X102.188 Y172.711 I-13.173 J-37.36
G1 X101.912 Y172.796
G3 X98.462 Y171.474 I-0.885 J-2.852
G2 X94.899 Y172.455 I-1.646 J0.981
G1 Y185.124
G2 X95.201 Y185.365 I0.247 J0.
X101.158 Y183.789 I-21.612 J-93.731
X107.017 Y181.881 I-36.562 J-122.219
X109.244 Y181.067 I-34.602 J-98.135
X114.648 Y178.878 I-47.593 J-125.274
X119.931 Y176.41 I-37.909 J-88.044
X119.989 Y176.051 I-0.101 J-0.201
G1 X109.171 Y165.233
G2 X108.574 Y165.121 I-0.381 J0.381
G3 X105.331 Y166.502 I-57.278 J-130.023
X102.038 Y167.759 I-26.211 J-63.741
X98.656 Y168.857 I-23.747 J-67.348
X95.236 Y169.83 I-41.456 J-139.336
G2 X94.899 Y170.269 I0.119 J0.44
G1 Y172.455
G3 X92.485 Y176.076 I-3.923 J0.
G2 X90.072 Y179.697 I1.509 J3.621
G1 Y191.01
G2 X90.378 Y191.268 I0.261 J0.
X127.912 Y177.57 I-19.859 J-112.693
X127.961 Y177.195 I-0.12 J-0.206
G1 X110.189 Y159.423
G2 X109.609 Y159.325 I-0.359 J0.359
G3 X105.075 Y161.394 I-47.108 J-97.222
X100.433 Y163.206 I-29.725 J-69.326
X95.46 Y164.776 I-26.19 J-74.277
X90.405 Y166.056 I-28.392 J-101.495
G2 X90.072 Y166.474 I0.095 J0.418
G1 Y179.697
G3 X87.622 Y183.371 I-3.98 J0.
G2 X85.173 Y187.044 I1.531 J3.674
G1 Y196.682
G2 X85.484 Y196.956 I0.276 J0.
X135.751 Y178.488 I-15.061 J-118.636
X135.791 Y178.098 I-0.138 J-0.211
G1 X111.119 Y153.426
G2 X110.557 Y153.343 I-0.336 J0.336
G3 X104.781 Y156.191 I-43.995 J-81.961
X98.804 Y158.586 I-31.353 J-69.572
X92.224 Y160.589 I-26.307 J-74.61
X85.504 Y162.052 I-22.763 J-88.4
G2 X85.173 Y162.448 I0.071 J0.396
G1 Y187.044
G3 X82.69 Y190.769 I-4.035 J0.
G2 X80.206 Y194.494 I1.552 J3.725
G1 Y202.481
G2 X143.726 Y179.009 I-9.525 J-123.458
G1 X111.697 Y146.98
G3 X80.206 Y157.824 I-41.015 J-67.957
G1 Y194.494
G2 X85.313 Y196.669 Z-1.792 I3.016 J0. F1600.
G1 X104.896 Y177.852 Z-1.952
G2 X101.912 Y172.796 Z-2. I-2.09 J-2.175
G1 X99.987 Y173.394 F16000.
G2 X99.648 Y173.854 I0.143 J0.46
G1 Y178.997
G2 X99.946 Y179.221 I0.233 J0.
X111.785 Y174.973 I-28.488 J-98.037
X111.852 Y174.629 I-0.083 J-0.195
G1 X108.084 Y170.861
G2 X107.471 Y170.736 I-0.401 J0.401
G1 X105.546 Y171.51
G3 X103.617 Y172.237 I-17.789 J-44.254
X102.188 Y172.711 I-13.173 J-37.36
G1 X101.912 Y172.796
G3 X98.462 Y171.474 I-0.885 J-2.852
G2 X94.899 Y172.455 I-1.646 J0.981
G1 Y185.124
G2 X95.201 Y185.365 I0.247 J0.
X101.158 Y183.789 I-21.612 J-93.731
X107.017 Y181.881 I-36.562 J-122.219
X109.244 Y181.067 I-34.602 J-98.135
X114.648 Y178.878 I-47.593 J-125.274
X119.931 Y176.41 I-37.909 J-88.044
X119.989 Y176.051 I-0.101 J-0.201
G1 X109.171 Y165.233
G2 X108.574 Y165.121 I-0.381 J0.381
G3 X105.331 Y166.502 I-57.278 J-130.023
X102.038 Y167.759 I-26.211 J-63.741
X98.656 Y168.857 I-23.747 J-67.348
X95.236 Y169.83 I-41.456 J-139.336
G2 X94.899 Y170.269 I0.119 J0.44
G1 Y172.455
G3 X92.485 Y176.076 I-3.923 J0.
G2 X90.072 Y179.697 I1.509 J3.621
G1 Y191.01
G2 X90.378 Y191.268 I0.261 J0.
X127.912 Y177.57 I-19.859 J-112.693
X127.961 Y177.195 I-0.12 J-0.206
G1 X110.189 Y159.423
G2 X109.609 Y159.325 I-0.359 J0.359
G3 X105.075 Y161.394 I-47.108 J-97.222
X100.433 Y163.206 I-29.725 J-69.326
X95.46 Y164.776 I-26.19 J-74.277
X90.405 Y166.056 I-28.392 J-101.495
G2 X90.072 Y166.474 I0.095 J0.418
G1 Y179.697
G3 X87.622 Y183.371 I-3.98 J0.
G2 X85.173 Y187.044 I1.531 J3.674
G1 Y196.682
G2 X85.484 Y196.956 I0.276 J0.
X135.751 Y178.488 I-15.061 J-118.636
X135.791 Y178.098 I-0.138 J-0.211
G1 X111.119 Y153.426
G2 X110.557 Y153.343 I-0.336 J0.336
G3 X104.781 Y156.191 I-43.995 J-81.961
X98.804 Y158.586 I-31.353 J-69.572
X92.224 Y160.589 I-26.307 J-74.61
X85.504 Y162.052 I-22.763 J-88.4
G2 X85.173 Y162.448 I0.071 J0.396
G1 Y187.044
G3 X82.69 Y190.769 I-4.035 J0.
G2 X80.206 Y194.494 I1.552 J3.725
G1 Y202.481
G2 X143.726 Y179.009 I-9.525 J-123.458
G1 X111.697 Y146.98
G3 X80.206 Y157.824 I-41.015 J-67.957
G1 Y194.494
G2 X85.313 Y196.669 Z-2.042 I3.016 J0. F1600.
G1 X104.896 Y177.852 Z-2.202
G2 X101.912 Y172.796 Z-2.25 I-2.09 J-2.175
G1 X99.987 Y173.394 F16000.
G2 X99.648 Y173.854 I0.143 J0.46
G1 Y178.997
G2 X99.946 Y179.221 I0.233 J0.
X111.785 Y174.973 I-28.488 J-98.037
X111.852 Y174.629 I-0.083 J-0.195
G1 X108.084 Y170.861
G2 X107.471 Y170.736 I-0.401 J0.401
G1 X105.546 Y171.51
G3 X103.617 Y172.237 I-17.789 J-44.254
X102.188 Y172.711 I-13.173 J-37.36
G1 X101.912 Y172.796
G3 X98.462 Y171.474 I-0.885 J-2.852
G2 X94.899 Y172.455 I-1.646 J0.981
G1 Y185.124
G2 X95.201 Y185.365 I0.247 J0.
X101.158 Y183.789 I-21.612 J-93.731
X107.017 Y181.881 I-36.562 J-122.219
X109.244 Y181.067 I-34.602 J-98.135
X114.648 Y178.878 I-47.593 J-125.274
X119.931 Y176.41 I-37.909 J-88.044
X119.989 Y176.051 I-0.101 J-0.201
G1 X109.171 Y165.233
G2 X108.574 Y165.121 I-0.381 J0.381
G3 X105.331 Y166.502 I-57.278 J-130.023
X102.038 Y167.759 I-26.211 J-63.741
X98.656 Y168.857 I-23.747 J-67.348
X95.236 Y169.83 I-41.456 J-139.336
G2 X94.899 Y170.269 I0.119 J0.44
G1 Y172.455
G3 X92.485 Y176.076 I-3.923 J0.
G2 X90.072 Y179.697 I1.509 J3.621
G1 Y191.01
G2 X90.378 Y191.268 I0.261 J0.
X127.912 Y177.57 I-19.859 J-112.693
X127.961 Y177.195 I-0.12 J-0.206
G1 X110.189 Y159.423
G2 X109.609 Y159.325 I-0.359 J0.359
G3 X105.075 Y161.394 I-47.108 J-97.222
X100.433 Y163.206 I-29.725 J-69.326
X95.46 Y164.776 I-26.19 J-74.277
X90.405 Y166.056 I-28.392 J-101.495
G2 X90.072 Y166.474 I0.095 J0.418
G1 Y179.697
G3 X87.622 Y183.371 I-3.98 J0.
G2 X85.173 Y187.044 I1.531 J3.674
G1 Y196.682
G2 X85.484 Y196.956 I0.276 J0.
X135.751 Y178.488 I-15.061 J-118.636
X135.791 Y178.098 I-0.138 J-0.211
G1 X111.119 Y153.426
G2 X110.557 Y153.343 I-0.336 J0.336
G3 X104.781 Y156.191 I-43.995 J-81.961
X98.804 Y158.586 I-31.353 J-69.572
X92.224 Y160.589 I-26.307 J-74.61
X85.504 Y162.052 I-22.763 J-88.4
G2 X85.173 Y162.448 I0.071 J0.396
G1 Y187.044
G3 X82.69 Y190.769 I-4.035 J0.
G2 X80.206 Y194.494 I1.552 J3.725
G1 Y202.481
G2 X143.726 Y179.009 I-9.525 J-123.458
G1 X111.697 Y146.98
G3 X80.206 Y157.824 I-41.015 J-67.957
G1 Y194.494
G2 X85.313 Y196.669 Z-2.292 I3.016 J0. F1600.
G1 X104.896 Y177.852 Z-2.452
G2 X101.912 Y172.796 Z-2.5 I-2.09 J-2.175
G1 X99.987 Y173.394 F16000.
G2 X99.648 Y173.854 I0.143 J0.46
G1 Y178.997
G2 X99.946 Y179.221 I0.233 J0.
X111.785 Y174.973 I-28.488 J-98.037
X111.852 Y174.629 I-0.083 J-0.195
G1 X108.084 Y170.861
G2 X107.471 Y170.736 I-0.401 J0.401
G1 X105.546 Y171.51
G3 X103.617 Y172.237 I-17.789 J-44.254
X102.188 Y172.711 I-13.173 J-37.36
G1 X101.912 Y172.796
G3 X98.462 Y171.474 I-0.885 J-2.852
G2 X94.899 Y172.455 I-1.646 J0.981
G1 Y185.124
G2 X95.201 Y185.365 I0.247 J0.
X101.158 Y183.789 I-21.612 J-93.731
X107.017 Y181.881 I-36.562 J-122.219
X109.244 Y181.067 I-34.602 J-98.135
X114.648 Y178.878 I-47.593 J-125.274
X119.931 Y176.41 I-37.909 J-88.044
X119.989 Y176.051 I-0.101 J-0.201
G1 X109.171 Y165.233
G2 X108.574 Y165.121 I-0.381 J0.381
G3 X105.331 Y166.502 I-57.278 J-130.023
X102.038 Y167.759 I-26.211 J-63.741
X98.656 Y168.857 I-23.747 J-67.348
X95.236 Y169.83 I-41.456 J-139.336
G2 X94.899 Y170.269 I0.119 J0.44
G1 Y172.455
G3 X92.485 Y176.076 I-3.923 J0.
G2 X90.072 Y179.697 I1.509 J3.621
G1 Y191.01
G2 X90.378 Y191.268 I0.261 J0.
X127.912 Y177.57 I-19.859 J-112.693
X127.961 Y177.195 I-0.12 J-0.206
G1 X110.189 Y159.423
G2 X109.609 Y159.325 I-0.359 J0.359
G3 X105.075 Y161.394 I-47.108 J-97.222
X100.433 Y163.206 I-29.725 J-69.326
X95.46 Y164.776 I-26.19 J-74.277
X90.405 Y166.056 I-28.392 J-101.495
G2 X90.072 Y166.474 I0.095 J0.418
G1 Y179.697
G3 X87.622 Y183.371 I-3.98 J0.
G2 X85.173 Y187.044 I1.531 J3.674
G1 Y196.682
G2 X85.484 Y196.956 I0.276 J0.
X135.751 Y178.488 I-15.061 J-118.636
X135.791 Y178.098 I-0.138 J-0.211
G1 X111.119 Y153.426
G2 X110.557 Y153.343 I-0.336 J0.336
G3 X104.781 Y156.191 I-43.995 J-81.961
X98.804 Y158.586 I-31.353 J-69.572
X92.224 Y160.589 I-26.307 J-74.61
X85.504 Y162.052 I-22.763 J-88.4
G2 X85.173 Y162.448 I0.071 J0.396
G1 Y187.044
G3 X82.69 Y190.769 I-4.035 J0.
G2 X80.206 Y194.494 I1.552 J3.725
G1 Y202.481
G2 X143.726 Y179.009 I-9.525 J-123.458
G1 X111.697 Y146.98
G3 X80.206 Y157.824 I-41.015 J-67.957
G1 Y194.494
G2 X85.313 Y196.669 Z-2.542 I3.016 J0. F1600.
G1 X104.896 Y177.852 Z-2.702
G2 X101.912 Y172.796 Z-2.75 I-2.09 J-2.175
G1 X99.987 Y173.394 F16000.
G2 X99.648 Y173.854 I0.143 J0.46
G1 Y178.997
G2 X99.946 Y179.221 I0.233 J0.
X111.785 Y174.973 I-28.488 J-98.037
X111.852 Y174.629 I-0.083 J-0.195
G1 X108.084 Y170.861
G2 X107.471 Y170.736 I-0.401 J0.401
G1 X105.546 Y171.51
G3 X103.617 Y172.237 I-17.789 J-44.254
X102.188 Y172.711 I-13.173 J-37.36
G1 X101.912 Y172.796
G3 X98.462 Y171.474 I-0.885 J-2.852
G2 X94.899 Y172.455 I-1.646 J0.981
G1 Y185.124
G2 X95.201 Y185.365 I0.247 J0.
X101.158 Y183.789 I-21.612 J-93.731
X107.017 Y181.881 I-36.562 J-122.219
X109.244 Y181.067 I-34.602 J-98.135
X114.648 Y178.878 I-47.593 J-125.274
X119.931 Y176.41 I-37.909 J-88.044
X119.989 Y176.051 I-0.101 J-0.201
G1 X109.171 Y165.233
G2 X108.574 Y165.121 I-0.381 J0.381
G3 X105.331 Y166.502 I-57.278 J-130.023
X102.038 Y167.759 I-26.211 J-63.741
X98.656 Y168.857 I-23.747 J-67.348
X95.236 Y169.83 I-41.456 J-139.336
G2 X94.899 Y170.269 I0.119 J0.44
G1 Y172.455
G3 X92.485 Y176.076 I-3.923 J0.
G2 X90.072 Y179.697 I1.509 J3.621
G1 Y191.01
G2 X90.378 Y191.268 I0.261 J0.
X127.912 Y177.57 I-19.859 J-112.693
X127.961 Y177.195 I-0.12 J-0.206
G1 X110.189 Y159.423
G2 X109.609 Y159.325 I-0.359 J0.359
G3 X105.075 Y161.394 I-47.108 J-97.222
X100.433 Y163.206 I-29.725 J-69.326
X95.46 Y164.776 I-26.19 J-74.277
X90.405 Y166.056 I-28.392 J-101.495
G2 X90.072 Y166.474 I0.095 J0.418
G1 Y179.697
G3 X87.622 Y183.371 I-3.98 J0.
G2 X85.173 Y187.044 I1.531 J3.674
G1 Y196.682
G2 X85.484 Y196.956 I0.276 J0.
X135.751 Y178.488 I-15.061 J-118.636
X135.791 Y178.098 I-0.138 J-0.211
G1 X111.119 Y153.426
G2 X110.557 Y153.343 I-0.336 J0.336
G3 X104.781 Y156.191 I-43.995 J-81.961
X98.804 Y158.586 I-31.353 J-69.572
X92.224 Y160.589 I-26.307 J-74.61
X85.504 Y162.052 I-22.763 J-88.4
G2 X85.173 Y162.448 I0.071 J0.396
G1 Y187.044
G3 X82.69 Y190.769 I-4.035 J0.
G2 X80.206 Y194.494 I1.552 J3.725
G1 Y202.481
G2 X143.726 Y179.009 I-9.525 J-123.458
G1 X111.697 Y146.98
G3 X80.206 Y157.824 I-41.015 J-67.957
G1 Y194.494
G2 X85.313 Y196.669 Z-2.792 I3.016 J0. F1600.
G1 X104.896 Y177.852 Z-2.952
G2 X101.912 Y172.796 Z-3. I-2.09 J-2.175
G1 X99.987 Y173.394 F16000.
G2 X99.648 Y173.854 I0.143 J0.46
G1 Y178.997
G2 X99.946 Y179.221 I0.233 J0.
X111.785 Y174.973 I-28.488 J-98.037
X111.852 Y174.629 I-0.083 J-0.195
G1 X108.084 Y170.861
G2 X107.471 Y170.736 I-0.401 J0.401
G1 X105.546 Y171.51
G3 X103.617 Y172.237 I-17.789 J-44.254
X102.188 Y172.711 I-13.173 J-37.36
G1 X101.912 Y172.796
G3 X98.462 Y171.474 I-0.885 J-2.852
G2 X94.899 Y172.455 I-1.646 J0.981
G1 Y185.124
G2 X95.201 Y185.365 I0.247 J0.
X101.158 Y183.789 I-21.612 J-93.731
X107.017 Y181.881 I-36.562 J-122.219
X109.244 Y181.067 I-34.602 J-98.135
X114.648 Y178.878 I-47.593 J-125.274
X119.931 Y176.41 I-37.909 J-88.044
X119.989 Y176.051 I-0.101 J-0.201
G1 X109.171 Y165.233
G2 X108.574 Y165.121 I-0.381 J0.381
G3 X105.331 Y166.502 I-57.278 J-130.023
X102.038 Y167.759 I-26.211 J-63.741
X98.656 Y168.857 I-23.747 J-67.348
X95.236 Y169.83 I-41.456 J-139.336
G2 X94.899 Y170.269 I0.119 J0.44
G1 Y172.455
G3 X92.485 Y176.076 I-3.923 J0.
G2 X90.072 Y179.697 I1.509 J3.621
G1 Y191.01
G2 X90.378 Y191.268 I0.261 J0.
X127.912 Y177.57 I-19.859 J-112.693
X127.961 Y177.195 I-0.12 J-0.206
G1 X110.189 Y159.423
G2 X109.609 Y159.325 I-0.359 J0.359
G3 X105.075 Y161.394 I-47.108 J-97.222
X100.433 Y163.206 I-29.725 J-69.326
X95.46 Y164.776 I-26.19 J-74.277
X90.405 Y166.056 I-28.392 J-101.495
G2 X90.072 Y166.474 I0.095 J0.418
G1 Y179.697
G3 X87.622 Y183.371 I-3.98 J0.
G2 X85.173 Y187.044 I1.531 J3.674
G1 Y196.682
G2 X85.484 Y196.956 I0.276 J0.
X135.751 Y178.488 I-15.061 J-118.636
X135.791 Y178.098 I-0.138 J-0.211
G1 X111.119 Y153.426
G2 X110.557 Y153.343 I-0.336 J0.336
G3 X104.781 Y156.191 I-43.995 J-81.961
X98.804 Y158.586 I-31.353 J-69.572
X92.224 Y160.589 I-26.307 J-74.61
X85.504 Y162.052 I-22.763 J-88.4
G2 X85.173 Y162.448 I0.071 J0.396
G1 Y187.044
G3 X82.69 Y190.769 I-4.035 J0.
G2 X80.206 Y194.494 I1.552 J3.725
G1 Y202.481
G2 X143.726 Y179.009 I-9.525 J-123.458
G1 X111.697 Y146.98
G3 X80.206 Y157.824 I-41.015 J-67.957
G1 Y194.494
G2 X85.313 Y196.669 Z-3.042 I3.016 J0. F1600.
G1 X104.896 Y177.852 Z-3.202
G2 X101.912 Y172.796 Z-3.25 I-2.09 J-2.175
G1 X99.987 Y173.394 F16000.
G2 X99.648 Y173.854 I0.143 J0.46
G1 Y178.997
G2 X99.946 Y179.221 I0.233 J0.
X111.785 Y174.973 I-28.488 J-98.037
X111.852 Y174.629 I-0.083 J-0.195
G1 X108.084 Y170.861
G2 X107.471 Y170.736 I-0.401 J0.401
G1 X105.546 Y171.51
G3 X103.617 Y172.237 I-17.789 J-44.254
X102.188 Y172.711 I-13.173 J-37.36
G1 X101.912 Y172.796
G3 X98.462 Y171.474 I-0.885 J-2.852
G2 X94.899 Y172.455 I-1.646 J0.981
G1 Y185.124
G2 X95.201 Y185.365 I0.247 J0.
X101.158 Y183.789 I-21.612 J-93.731
X107.017 Y181.881 I-36.562 J-122.219
X109.244 Y181.067 I-34.602 J-98.135
X114.648 Y178.878 I-47.593 J-125.274
X119.931 Y176.41 I-37.909 J-88.044
X119.989 Y176.051 I-0.101 J-0.201
G1 X109.171 Y165.233
G2 X108.574 Y165.121 I-0.381 J0.381
G3 X105.331 Y166.502 I-57.278 J-130.023
X102.038 Y167.759 I-26.211 J-63.741
X98.656 Y168.857 I-23.747 J-67.348
X95.236 Y169.83 I-41.456 J-139.336
G2 X94.899 Y170.269 I0.119 J0.44
G1 Y172.455
G3 X92.485 Y176.076 I-3.923 J0.
G2 X90.072 Y179.697 I1.509 J3.621
G1 Y191.01
G2 X90.378 Y191.268 I0.261 J0.
X127.912 Y177.57 I-19.859 J-112.693
X127.961 Y177.195 I-0.12 J-0.206
G1 X110.189 Y159.423
G2 X109.609 Y159.325 I-0.359 J0.359
G3 X105.075 Y161.394 I-47.108 J-97.222
X100.433 Y163.206 I-29.725 J-69.326
X95.46 Y164.776 I-26.19 J-74.277
X90.405 Y166.056 I-28.392 J-101.495
G2 X90.072 Y166.474 I0.095 J0.418
G1 Y179.697
G3 X87.622 Y183.371 I-3.98 J0.
G2 X85.173 Y187.044 I1.531 J3.674
G1 Y196.682
G2 X85.484 Y196.956 I0.276 J0.
X135.751 Y178.488 I-15.061 J-118.636
X135.791 Y178.098 I-0.138 J-0.211
G1 X111.119 Y153.426
G2 X110.557 Y153.343 I-0.336 J0.336
G3 X104.781 Y156.191 I-43.995 J-81.961
X98.804 Y158.586 I-31.353 J-69.572
X92.224 Y160.589 I-26.307 J-74.61
X85.504 Y162.052 I-22.763 J-88.4
G2 X85.173 Y162.448 I0.071 J0.396
G1 Y187.044
G3 X82.69 Y190.769 I-4.035 J0.
G2 X80.206 Y194.494 I1.552 J3.725
G1 Y202.481
G2 X143.726 Y179.009 I-9.525 J-123.458
G1 X111.697 Y146.98
G3 X80.206 Y157.824 I-41.015 J-67.957
G1 Y194.494
G2 X85.313 Y196.669 Z-3.292 I3.016 J0. F1600.
G1 X104.896 Y177.852 Z-3.452
G2 X101.912 Y172.796 Z-3.5 I-2.09 J-2.175
G1 X99.987 Y173.394 F16000.
G2 X99.648 Y173.854 I0.143 J0.46
G1 Y178.997
G2 X99.946 Y179.221 I0.233 J0.
X111.785 Y174.973 I-28.488 J-98.037
X111.852 Y174.629 I-0.083 J-0.195
G1 X108.084 Y170.861
G2 X107.471 Y170.736 I-0.401 J0.401
G1 X105.546 Y171.51
G3 X103.617 Y172.237 I-17.789 J-44.254
X102.188 Y172.711 I-13.173 J-37.36
G1 X101.912 Y172.796
G3 X98.462 Y171.474 I-0.885 J-2.852
G2 X94.899 Y172.455 I-1.646 J0.981
G1 Y185.124
G2 X95.201 Y185.365 I0.247 J0.
X101.158 Y183.789 I-21.612 J-93.731
X107.017 Y181.881 I-36.562 J-122.219
X109.244 Y181.067 I-34.602 J-98.135
X114.648 Y178.878 I-47.593 J-125.274
X119.931 Y176.41 I-37.909 J-88.044
X119.989 Y176.051 I-0.101 J-0.201
G1 X109.171 Y165.233
G2 X108.574 Y165.121 I-0.381 J0.381
G3 X105.331 Y166.502 I-57.278 J-130.023
X102.038 Y167.759 I-26.211 J-63.741
X98.656 Y168.857 I-23.747 J-67.348
X95.236 Y169.83 I-41.456 J-139.336
G2 X94.899 Y170.269 I0.119 J0.44
G1 Y172.455
G3 X92.485 Y176.076 I-3.923 J0.
G2 X90.072 Y179.697 I1.509 J3.621
G1 Y191.01
G2 X90.378 Y191.268 I0.261 J0.
X127.912 Y177.57 I-19.859 J-112.693
X127.961 Y177.195 I-0.12 J-0.206
G1 X110.189 Y159.423
G2 X109.609 Y159.325 I-0.359 J0.359
G3 X105.075 Y161.394 I-47.108 J-97.222
X100.433 Y163.206 I-29.725 J-69.326
X95.46 Y164.776 I-26.19 J-74.277
X90.405 Y166.056 I-28.392 J-101.495
G2 X90.072 Y166.474 I0.095 J0.418
G1 Y179.697
G3 X87.622 Y183.371 I-3.98 J0.
G2 X85.173 Y187.044 I1.531 J3.674
G1 Y196.682
G2 X85.484 Y196.956 I0.276 J0.
X135.751 Y178.488 I-15.061 J-118.636
X135.791 Y178.098 I-0.138 J-0.211
G1 X111.119 Y153.426
G2 X110.557 Y153.343 I-0.336 J0.336
G3 X104.781 Y156.191 I-43.995 J-81.961
X98.804 Y158.586 I-31.353 J-69.572
X92.224 Y160.589 I-26.307 J-74.61
X85.504 Y162.052 I-22.763 J-88.4
G2 X85.173 Y162.448 I0.071 J0.396
G1 Y187.044
G3 X82.69 Y190.769 I-4.035 J0.
G2 X80.206 Y194.494 I1.552 J3.725
G1 Y202.481
G2 X143.726 Y179.009 I-9.525 J-123.458
G1 X111.697 Y146.98
G3 X80.206 Y157.824 I-41.015 J-67.957
G1 Y194.494
G2 X85.313 Y196.669 Z-3.542 I3.016 J0. F1600.
G1 X104.896 Y177.852 Z-3.702
G2 X101.912 Y172.796 Z-3.75 I-2.09 J-2.175
G1 X99.987 Y173.394 F16000.
G2 X99.648 Y173.854 I0.143 J0.46
G1 Y178.997
G2 X99.946 Y179.221 I0.233 J0.
X111.785 Y174.973 I-28.488 J-98.037
X111.852 Y174.629 I-0.083 J-0.195
G1 X108.084 Y170.861
G2 X107.471 Y170.736 I-0.401 J0.401
G1 X105.546 Y171.51
G3 X103.617 Y172.237 I-17.789 J-44.254
X102.188 Y172.711 I-13.173 J-37.36
G1 X101.912 Y172.796
G3 X98.462 Y171.474 I-0.885 J-2.852
G2 X94.899 Y172.455 I-1.646 J0.981
G1 Y185.124
G2 X95.201 Y185.365 I0.247 J0.
X101.158 Y183.789 I-21.612 J-93.731
X107.017 Y181.881 I-36.562 J-122.219
X109.244 Y181.067 I-34.602 J-98.135
X114.648 Y178.878 I-47.593 J-125.274
X119.931 Y176.41 I-37.909 J-88.044
X119.989 Y176.051 I-0.101 J-0.201
G1 X109.171 Y165.233
G2 X108.574 Y165.121 I-0.381 J0.381
G3 X105.331 Y166.502 I-57.278 J-130.023
X102.038 Y167.759 I-26.211 J-63.741
X98.656 Y168.857 I-23.747 J-67.348
X95.236 Y169.83 I-41.456 J-139.336
G2 X94.899 Y170.269 I0.119 J0.44
G1 Y172.455
G3 X92.485 Y176.076 I-3.923 J0.
G2 X90.072 Y179.697 I1.509 J3.621
G1 Y191.01
G2 X90.378 Y191.268 I0.261 J0.
X127.912 Y177.57 I-19.859 J-112.693
X127.961 Y177.195 I-0.12 J-0.206
G1 X110.189 Y159.423
G2 X109.609 Y159.325 I-0.359 J0.359
G3 X105.075 Y161.394 I-47.108 J-97.222
X100.433 Y163.206 I-29.725 J-69.326
X95.46 Y164.776 I-26.19 J-74.277
X90.405 Y166.056 I-28.392 J-101.495
G2 X90.072 Y166.474 I0.095 J0.418
G1 Y179.697
G3 X87.622 Y183.371 I-3.98 J0.
G2 X85.173 Y187.044 I1.531 J3.674
G1 Y196.682
G2 X85.484 Y196.956 I0.276 J0.
X135.751 Y178.488 I-15.061 J-118.636
X135.791 Y178.098 I-0.138 J-0.211
G1 X111.119 Y153.426
G2 X110.557 Y153.343 I-0.336 J0.336
G3 X104.781 Y156.191 I-43.995 J-81.961
X98.804 Y158.586 I-31.353 J-69.572
X92.224 Y160.589 I-26.307 J-74.61
X85.504 Y162.052 I-22.763 J-88.4
G2 X85.173 Y162.448 I0.071 J0.396
G1 Y187.044
G3 X82.69 Y190.769 I-4.035 J0.
G2 X80.206 Y194.494 I1.552 J3.725
G1 Y202.481
G2 X143.726 Y179.009 I-9.525 J-123.458
G1 X111.697 Y146.98
G3 X80.206 Y157.824 I-41.015 J-67.957
G1 Y194.494
G2 X85.313 Y196.669 Z-3.792 I3.016 J0. F1600.
G1 X104.896 Y177.852 Z-3.952
G2 X101.912 Y172.796 Z-4. I-2.09 J-2.175
G1 X99.987 Y173.394 F16000.
G2 X99.648 Y173.854 I0.143 J0.46
G1 Y178.997
G2 X99.946 Y179.221 I0.233 J0.
X111.785 Y174.973 I-28.488 J-98.037
X111.852 Y174.629 I-0.083 J-0.195
G1 X108.084 Y170.861
G2 X107.471 Y170.736 I-0.401 J0.401
G1 X105.546 Y171.51
G3 X103.617 Y172.237 I-17.789 J-44.254
X102.188 Y172.711 I-13.173 J-37.36
G1 X101.912 Y172.796
G3 X98.462 Y171.474 I-0.885 J-2.852
G2 X94.899 Y172.455 I-1.646 J0.981
G1 Y185.124
G2 X95.201 Y185.365 I0.247 J0.
X101.158 Y183.789 I-21.612 J-93.731
X107.017 Y181.881 I-36.562 J-122.219
X109.244 Y181.067 I-34.602 J-98.135
X114.648 Y178.878 I-47.593 J-125.274
X119.931 Y176.41 I-37.909 J-88.044
X119.989 Y176.051 I-0.101 J-0.201
G1 X109.171 Y165.233
G2 X108.574 Y165.121 I-0.381 J0.381
G3 X105.331 Y166.502 I-57.278 J-130.023
X102.038 Y167.759 I-26.211 J-63.741
X98.656 Y168.857 I-23.747 J-67.348
X95.236 Y169.83 I-41.456 J-139.336
G2 X94.899 Y170.269 I0.119 J0.44
G1 Y172.455
G3 X92.485 Y176.076 I-3.923 J0.
G2 X90.072 Y179.697 I1.509 J3.621
G1 Y191.01
G2 X90.378 Y191.268 I0.261 J0.
X127.912 Y177.57 I-19.859 J-112.693
X127.961 Y177.195 I-0.12 J-0.206
G1 X110.189 Y159.423
G2 X109.609 Y159.325 I-0.359 J0.359
G3 X105.075 Y161.394 I-47.108 J-97.222
X100.433 Y163.206 I-29.725 J-69.326
X95.46 Y164.776 I-26.19 J-74.277
X90.405 Y166.056 I-28.392 J-101.495
G2 X90.072 Y166.474 I0.095 J0.418
G1 Y179.697
G3 X87.622 Y183.371 I-3.98 J0.
G2 X85.173 Y187.044 I1.531 J3.674
G1 Y196.682
G2 X85.484 Y196.956 I0.276 J0.
X135.751 Y178.488 I-15.061 J-118.636
X135.791 Y178.098 I-0.138 J-0.211
G1 X111.119 Y153.426
G2 X110.557 Y153.343 I-0.336 J0.336
G3 X104.781 Y156.191 I-43.995 J-81.961
X98.804 Y158.586 I-31.353 J-69.572
X92.224 Y160.589 I-26.307 J-74.61
X85.504 Y162.052 I-22.763 J-88.4
G2 X85.173 Y162.448 I0.071 J0.396
G1 Y187.044
G3 X82.69 Y190.769 I-4.035 J0.
G2 X80.206 Y194.494 I1.552 J3.725
G1 Y202.481
G2 X143.726 Y179.009 I-9.525 J-123.458
G1 X111.697 Y146.98
G3 X80.206 Y157.824 I-41.015 J-67.957
G1 Y194.494
G2 X85.313 Y196.669 Z-4.042 I3.016 J0. F1600.
G1 X104.896 Y177.852 Z-4.202
G2 X101.912 Y172.796 Z-4.25 I-2.09 J-2.175
G1 X99.987 Y173.394 F16000.
G2 X99.648 Y173.854 I0.143 J0.46
G1 Y178.997
G2 X99.946 Y179.221 I0.233 J0.
X111.785 Y174.973 I-28.488 J-98.037
X111.852 Y174.629 I-0.083 J-0.195
G1 X108.084 Y170.861
G2 X107.471 Y170.736 I-0.401 J0.401
G1 X105.546 Y171.51
G3 X103.617 Y172.237 I-17.789 J-44.254
X102.188 Y172.711 I-13.173 J-37.36
G1 X101.912 Y172.796
G3 X98.462 Y171.474 I-0.885 J-2.852
G2 X94.899 Y172.455 I-1.646 J0.981
G1 Y185.124
G2 X95.201 Y185.365 I0.247 J0.
X101.158 Y183.789 I-21.612 J-93.731
X107.017 Y181.881 I-36.562 J-122.219
X109.244 Y181.067 I-34.602 J-98.135
X114.648 Y178.878 I-47.593 J-125.274
X119.931 Y176.41 I-37.909 J-88.044
X119.989 Y176.051 I-0.101 J-0.201
G1 X109.171 Y165.233
G2 X108.574 Y165.121 I-0.381 J0.381
G3 X105.331 Y166.502 I-57.278 J-130.023
X102.038 Y167.759 I-26.211 J-63.741
X98.656 Y168.857 I-23.747 J-67.348
X95.236 Y169.83 I-41.456 J-139.336
G2 X94.899 Y170.269 I0.119 J0.44
G1 Y172.455
G3 X92.485 Y176.076 I-3.923 J0.
G2 X90.072 Y179.697 I1.509 J3.621
G1 Y191.01
G2 X90.378 Y191.268 I0.261 J0.
X127.912 Y177.57 I-19.859 J-112.693
X127.961 Y177.195 I-0.12 J-0.206
G1 X110.189 Y159.423
G2 X109.609 Y159.325 I-0.359 J0.359
G3 X105.075 Y161.394 I-47.108 J-97.222
X100.433 Y163.206 I-29.725 J-69.326
X95.46 Y164.776 I-26.19 J-74.277
X90.405 Y166.056 I-28.392 J-101.495
G2 X90.072 Y166.474 I0.095 J0.418
G1 Y179.697
G3 X87.622 Y183.371 I-3.98 J0.
G2 X85.173 Y187.044 I1.531 J3.674
G1 Y196.682
G2 X85.484 Y196.956 I0.276 J0.
X135.751 Y178.488 I-15.061 J-118.636
X135.791 Y178.098 I-0.138 J-0.211
G1 X111.119 Y153.426
G2 X110.557 Y153.343 I-0.336 J0.336
G3 X104.781 Y156.191 I-43.995 J-81.961
X98.804 Y158.586 I-31.353 J-69.572
X92.224 Y160.589 I-26.307 J-74.61
X85.504 Y162.052 I-22.763 J-88.4
G2 X85.173 Y162.448 I0.071 J0.396
G1 Y187.044
G3 X82.69 Y190.769 I-4.035 J0.
G2 X80.206 Y194.494 I1.552 J3.725
G1 Y202.481
G2 X143.726 Y179.009 I-9.525 J-123.458
G1 X111.697 Y146.98
G3 X80.206 Y157.824 I-41.015 J-67.957
G1 Y194.494
G2 X85.313 Y196.669 Z-4.292 I3.016 J0. F1600.
G1 X104.896 Y177.852 Z-4.452
G2 X101.912 Y172.796 Z-4.5 I-2.09 J-2.175
G1 X99.987 Y173.394 F16000.
G2 X99.648 Y173.854 I0.143 J0.46
G1 Y178.997
G2 X99.946 Y179.221 I0.233 J0.
X111.785 Y174.973 I-28.488 J-98.037
X111.852 Y174.629 I-0.083 J-0.195
G1 X108.084 Y170.861
G2 X107.471 Y170.736 I-0.401 J0.401
G1 X105.546 Y171.51
G3 X103.617 Y172.237 I-17.789 J-44.254
X102.188 Y172.711 I-13.173 J-37.36
G1 X101.912 Y172.796
G3 X98.462 Y171.474 I-0.885 J-2.852
G2 X94.899 Y172.455 I-1.646 J0.981
G1 Y185.124
G2 X95.201 Y185.365 I0.247 J0.
X101.158 Y183.789 I-21.612 J-93.731
X107.017 Y181.881 I-36.562 J-122.219
X109.244 Y181.067 I-34.602 J-98.135
X114.648 Y178.878 I-47.593 J-125.274
X119.931 Y176.41 I-37.909 J-88.044
X119.989 Y176.051 I-0.101 J-0.201
G1 X109.171 Y165.233
G2 X108.574 Y165.121 I-0.381 J0.381
G3 X105.331 Y166.502 I-57.278 J-130.023
X102.038 Y167.759 I-26.211 J-63.741
X98.656 Y168.857 I-23.747 J-67.348
X95.236 Y169.83 I-41.456 J-139.336
G2 X94.899 Y170.269 I0.119 J0.44
G1 Y172.455
G3 X92.485 Y176.076 I-3.923 J0.
G2 X90.072 Y179.697 I1.509 J3.621
G1 Y191.01
G2 X90.378 Y191.268 I0.261 J0.
X127.912 Y177.57 I-19.859 J-112.693
X127.961 Y177.195 I-0.12 J-0.206
G1 X110.189 Y159.423
G2 X109.609 Y159.325 I-0.359 J0.359
G3 X105.075 Y161.394 I-47.108 J-97.222
X100.433 Y163.206 I-29.725 J-69.326
X95.46 Y164.776 I-26.19 J-74.277
X90.405 Y166.056 I-28.392 J-101.495
G2 X90.072 Y166.474 I0.095 J0.418
G1 Y179.697
G3 X87.622 Y183.371 I-3.98 J0.
G2 X85.173 Y187.044 I1.531 J3.674
G1 Y196.682
G2 X85.484 Y196.956 I0.276 J0.
X135.751 Y178.488 I-15.061 J-118.636
X135.791 Y178.098 I-0.138 J-0.211
G1 X111.119 Y153.426
G2 X110.557 Y153.343 I-0.336 J0.336
G3 X104.781 Y156.191 I-43.995 J-81.961
X98.804 Y158.586 I-31.353 J-69.572
X92.224 Y160.589 I-26.307 J-74.61
X85.504 Y162.052 I-22.763 J-88.4
G2 X85.173 Y162.448 I0.071 J0.396
G1 Y187.044
G3 X82.69 Y190.769 I-4.035 J0.
G2 X80.206 Y194.494 I1.552 J3.725
G1 Y202.481
G2 X143.726 Y179.009 I-9.525 J-123.458
G1 X111.697 Y146.98
G3 X80.206 Y157.824 I-41.015 J-67.957
G1 Y194.494
G2 X85.313 Y196.669 Z-4.529 I3.016 J0. F1600.
G1 X104.896 Y177.852 Z-4.642
G2 X101.912 Y172.796 Z-4.675 I-2.09 J-2.175
G1 X99.987 Y173.394 F16000.
G2 X99.648 Y173.854 I0.143 J0.46
G1 Y178.997
G2 X99.946 Y179.221 I0.233 J0.
X111.785 Y174.973 I-28.488 J-98.037
X111.852 Y174.629 I-0.083 J-0.195
G1 X108.084 Y170.861
G2 X107.471 Y170.736 I-0.401 J0.401
G1 X105.546 Y171.51
G3 X103.617 Y172.237 I-17.789 J-44.254
X102.188 Y172.711 I-13.173 J-37.36
G1 X101.912 Y172.796
G3 X98.462 Y171.474 I-0.885 J-2.852
G2 X94.899 Y172.455 I-1.646 J0.981
G1 Y185.124
G2 X95.201 Y185.365 I0.247 J0.
X101.158 Y183.789 I-21.612 J-93.731
X107.017 Y181.881 I-36.562 J-122.219
X109.244 Y181.067 I-34.602 J-98.135
X114.648 Y178.878 I-47.593 J-125.274
X119.931 Y176.41 I-37.909 J-88.044
X119.989 Y176.051 I-0.101 J-0.201
G1 X109.171 Y165.233
G2 X108.574 Y165.121 I-0.381 J0.381
G3 X105.331 Y166.502 I-57.278 J-130.023
X102.038 Y167.759 I-26.211 J-63.741
X98.656 Y168.857 I-23.747 J-67.348
X95.236 Y169.83 I-41.456 J-139.336
G2 X94.899 Y170.269 I0.119 J0.44
G1 Y172.455
G3 X92.485 Y176.076 I-3.923 J0.
G2 X90.072 Y179.697 I1.509 J3.621
G1 Y191.01
G2 X90.378 Y191.268 I0.261 J0.
X127.912 Y177.57 I-19.859 J-112.693
X127.961 Y177.195 I-0.12 J-0.206
G1 X110.189 Y159.423
G2 X109.609 Y159.325 I-0.359 J0.359
G3 X105.075 Y161.394 I-47.108 J-97.222
X100.433 Y163.206 I-29.725 J-69.326
X95.46 Y164.776 I-26.19 J-74.277
X90.405 Y166.056 I-28.392 J-101.495
G2 X90.072 Y166.474 I0.095 J0.418
G1 Y179.697
G3 X87.622 Y183.371 I-3.98 J0.
G2 X85.173 Y187.044 I1.531 J3.674
G1 Y196.682
G2 X85.484 Y196.956 I0.276 J0.
X135.751 Y178.488 I-15.061 J-118.636
X135.791 Y178.098 I-0.138 J-0.211
G1 X111.119 Y153.426
G2 X110.557 Y153.343 I-0.336 J0.336
G3 X104.781 Y156.191 I-43.995 J-81.961
X98.804 Y158.586 I-31.353 J-69.572
X92.224 Y160.589 I-26.307 J-74.61
X85.504 Y162.052 I-22.763 J-88.4
G2 X85.173 Y162.448 I0.071 J0.396
G1 Y187.044
G3 X82.69 Y190.769 I-4.035 J0.
G2 X80.206 Y194.494 I1.552 J3.725
G1 Y202.481
G2 X143.726 Y179.009 I-9.525 J-123.458
G1 X111.697 Y146.98
G3 X80.206 Y157.824 I-41.015 J-67.957
G1 Y194.494
X80.214 Y194.592 Z-4.659 F1600.
X80.237 Y194.687 Z-4.644
X80.269 Y194.77 Z-4.599
X80.313 Y194.846 Z-4.554
X80.355 Y194.903 Z-4.483
X80.403 Y194.954 Z-4.413
X80.473 Y195.011 Z-4.236
X80.498 Y195.029 Z-4.04
G0 Z6.
X44.59 Y181.027
G1 Z4.135 F1600.
X44.607 Y181.002 Z3.941
X44.655 Y180.928 Z3.765
X44.726 Y180.81 Z3.625
X44.808 Y180.657 Z3.534
X44.889 Y180.481 Z3.5
G2 X39.324 Y178.15 Z3.335 I-2.782 J-1.165
X44.889 Y180.481 Z3.169 I2.782 J1.165
X39.324 Y178.15 Z3.004 I-2.782 J-1.165
X44.889 Y180.481 Z2.838 I2.782 J1.165
X39.324 Y178.15 Z2.673 I-2.782 J-1.165
X44.889 Y180.481 Z2.508 I2.782 J1.165
X39.324 Y178.15 Z2.342 I-2.782 J-1.165
X44.889 Y180.481 Z2.177 I2.782 J1.165
X39.324 Y178.15 Z2.011 I-2.782 J-1.165
X44.889 Y180.481 Z1.846 I2.782 J1.165
X39.324 Y178.15 Z1.681 I-2.782 J-1.165
X44.889 Y180.481 Z1.515 I2.782 J1.165
X39.324 Y178.15 Z1.35 I-2.782 J-1.165
X44.889 Y180.481 Z1.184 I2.782 J1.165
X39.324 Y178.15 Z1.019 I-2.782 J-1.165
X44.889 Y180.481 Z0.854 I2.782 J1.165
X42.106 Y176.299 Z0.75 I-2.782 J-1.165
G1 X41.277 F16000.
G2 X40.958 Y176.619 I0. J0.319
G1 Y184.627
G2 X41.277 Y184.947 I0.319 J0.
G1 X42.936
G2 X43.255 Y184.627 I0. J-0.319
G1 Y176.619
G2 X42.936 Y176.299 I-0.319 J0.
G1 X42.106
G3 X40.449 Y175.363 I0. J-1.935
G2 X38.615 Y175.873 I-0.846 J0.51
G1 Y186.97
G2 X38.935 Y187.289 I0.319 J0.
G1 X45.278
G2 X45.598 Y186.97 I0. J-0.319
G1 Y174.276
G2 X45.278 Y173.957 I-0.319 J0.
G1 X38.935
G2 X38.615 Y174.276 I0. J0.319
G1 Y175.873
G3 X36.023 Y179.762 I-4.212 J0.
G2 X33.431 Y183.65 I1.62 J3.888
G1 Y192.155
G2 X33.75 Y192.474 I0.319 J0.
G1 X50.463
G2 X50.782 Y192.155 I0. J-0.319
G1 Y169.091
G2 X50.463 Y168.772 I-0.319 J0.
G1 X33.75
G2 X33.431 Y169.091 I0. J0.319
G1 Y183.65
G3 X30.838 Y187.538 I-4.212 J0.
G2 X28.246 Y191.427 I1.62 J3.888
G1 Y197.339
G2 X28.565 Y197.658 I0.319 J0.
G1 X55.648
G2 X55.967 Y197.339 I0. J-0.319
G1 Y163.907
G2 X55.648 Y163.588 I-0.319 J0.
G1 X28.565
G2 X28.246 Y163.907 I0. J0.319
G1 Y191.427
G3 X25.651 Y195.319 I-4.217 J0.
G2 X23.056 Y199.211 I1.622 J3.892
G1 Y202.848
X61.157
Y158.398
X23.056
Y199.211
G2 X28.421 Y201.104 Z0.703 I3.016 J0. F1600.
G1 X44.455 Y181.208 Z0.543
G2 X42.106 Y176.299 Z0.5 I-2.349 J-1.893
G1 X41.277 F16000.
G2 X40.958 Y176.619 I0. J0.319
G1 Y184.627
G2 X41.277 Y184.947 I0.319 J0.
G1 X42.936
G2 X43.255 Y184.627 I0. J-0.319
G1 Y176.619
G2 X42.936 Y176.299 I-0.319 J0.
G1 X42.106
G3 X40.449 Y175.363 I0. J-1.935
G2 X38.615 Y175.873 I-0.846 J0.51
G1 Y186.97
G2 X38.935 Y187.289 I0.319 J0.
G1 X45.278
G2 X45.598 Y186.97 I0. J-0.319
G1 Y174.276
G2 X45.278 Y173.957 I-0.319 J0.
G1 X38.935
G2 X38.615 Y174.276 I0. J0.319
G1 Y175.873
G3 X36.023 Y179.762 I-4.212 J0.
G2 X33.431 Y183.65 I1.62 J3.888
G1 Y192.155
G2 X33.75 Y192.474 I0.319 J0.
G1 X50.463
G2 X50.782 Y192.155 I0. J-0.319
G1 Y169.091
G2 X50.463 Y168.772 I-0.319 J0.
G1 X33.75
G2 X33.431 Y169.091 I0. J0.319
G1 Y183.65
G3 X30.838 Y187.538 I-4.212 J0.
G2 X28.246 Y191.427 I1.62 J3.888
G1 Y197.339
G2 X28.565 Y197.658 I0.319 J0.
G1 X55.648
G2 X55.967 Y197.339 I0. J-0.319
G1 Y163.907
G2 X55.648 Y163.588 I-0.319 J0.
G1 X28.565
G2 X28.246 Y163.907 I0. J0.319
G1 Y191.427
G3 X25.651 Y195.319 I-4.217 J0.
G2 X23.056 Y199.211 I1.622 J3.892
G1 Y202.848
X61.157
Y158.398
X23.056
Y199.211
G2 X28.421 Y201.104 Z0.453 I3.016 J0. F1600.
G1 X44.455 Y181.208 Z0.293
G2 X42.106 Y176.299 Z0.25 I-2.349 J-1.893
G1 X41.277 F16000.
G2 X40.958 Y176.619 I0. J0.319
G1 Y184.627
G2 X41.277 Y184.947 I0.319 J0.
G1 X42.936
G2 X43.255 Y184.627 I0. J-0.319
G1 Y176.619
G2 X42.936 Y176.299 I-0.319 J0.
G1 X42.106
G3 X40.449 Y175.363 I0. J-1.935
G2 X38.615 Y175.873 I-0.846 J0.51
G1 Y186.97
G2 X38.935 Y187.289 I0.319 J0.
G1 X45.278
G2 X45.598 Y186.97 I0. J-0.319
G1 Y174.276
G2 X45.278 Y173.957 I-0.319 J0.
G1 X38.935
G2 X38.615 Y174.276 I0. J0.319
G1 Y175.873
G3 X36.023 Y179.762 I-4.212 J0.
G2 X33.431 Y183.65 I1.62 J3.888
G1 Y192.155
G2 X33.75 Y192.474 I0.319 J0.
G1 X50.463
G2 X50.782 Y192.155 I0. J-0.319
G1 Y169.091
G2 X50.463 Y168.772 I-0.319 J0.
G1 X33.75
G2 X33.431 Y169.091 I0. J0.319
G1 Y183.65
G3 X30.838 Y187.538 I-4.212 J0.
G2 X28.246 Y191.427 I1.62 J3.888
G1 Y197.339
G2 X28.565 Y197.658 I0.319 J0.
G1 X55.648
G2 X55.967 Y197.339 I0. J-0.319
G1 Y163.907
G2 X55.648 Y163.588 I-0.319 J0.
G1 X28.565
G2 X28.246 Y163.907 I0. J0.319
G1 Y191.427
G3 X25.651 Y195.319 I-4.217 J0.
G2 X23.056 Y199.211 I1.622 J3.892
G1 Y202.848
X61.157
Y158.398
X23.056
Y199.211
G2 X28.421 Y201.104 Z0.203 I3.016 J0. F1600.
G1 X44.455 Y181.208 Z0.043
G2 X42.106 Y176.299 Z0. I-2.349 J-1.893
G1 X41.277 F16000.
G2 X40.958 Y176.619 I0. J0.319
G1 Y184.627
G2 X41.277 Y184.947 I0.319 J0.
G1 X42.936
G2 X43.255 Y184.627 I0. J-0.319
G1 Y176.619
G2 X42.936 Y176.299 I-0.319 J0.
G1 X42.106
G3 X40.449 Y175.363 I0. J-1.935
G2 X38.615 Y175.873 I-0.846 J0.51
G1 Y186.97
G2 X38.935 Y187.289 I0.319 J0.
G1 X45.278
G2 X45.598 Y186.97 I0. J-0.319
G1 Y174.276
G2 X45.278 Y173.957 I-0.319 J0.
G1 X38.935
G2 X38.615 Y174.276 I0. J0.319
G1 Y175.873
G3 X36.023 Y179.762 I-4.212 J0.
G2 X33.431 Y183.65 I1.62 J3.888
G1 Y192.155
G2 X33.75 Y192.474 I0.319 J0.
G1 X50.463
G2 X50.782 Y192.155 I0. J-0.319
G1 Y169.091
G2 X50.463 Y168.772 I-0.319 J0.
G1 X33.75
G2 X33.431 Y169.091 I0. J0.319
G1 Y183.65
G3 X30.838 Y187.538 I-4.212 J0.
G2 X28.246 Y191.427 I1.62 J3.888
G1 Y197.339
G2 X28.565 Y197.658 I0.319 J0.
G1 X55.648
G2 X55.967 Y197.339 I0. J-0.319
G1 Y163.907
G2 X55.648 Y163.588 I-0.319 J0.
G1 X28.565
G2 X28.246 Y163.907 I0. J0.319
G1 Y191.427
G3 X25.651 Y195.319 I-4.217 J0.
G2 X23.056 Y199.211 I1.622 J3.892
G1 Y202.848
X61.157
Y158.398
X23.056
Y199.211
G2 X28.421 Y201.104 Z-0.047 I3.016 J0. F1600.
G1 X44.455 Y181.208 Z-0.207
G2 X42.106 Y176.299 Z-0.25 I-2.349 J-1.893
G1 X41.277 F16000.
G2 X40.958 Y176.619 I0. J0.319
G1 Y184.627
G2 X41.277 Y184.947 I0.319 J0.
G1 X42.936
G2 X43.255 Y184.627 I0. J-0.319
G1 Y176.619
G2 X42.936 Y176.299 I-0.319 J0.
G1 X42.106
G3 X40.449 Y175.363 I0. J-1.935
G2 X38.615 Y175.873 I-0.846 J0.51
G1 Y186.97
G2 X38.935 Y187.289 I0.319 J0.
G1 X45.278
G2 X45.598 Y186.97 I0. J-0.319
G1 Y174.276
G2 X45.278 Y173.957 I-0.319 J0.
G1 X38.935
G2 X38.615 Y174.276 I0. J0.319
G1 Y175.873
G3 X36.023 Y179.762 I-4.212 J0.
G2 X33.431 Y183.65 I1.62 J3.888
G1 Y192.155
G2 X33.75 Y192.474 I0.319 J0.
G1 X50.463
G2 X50.782 Y192.155 I0. J-0.319
G1 Y169.091
G2 X50.463 Y168.772 I-0.319 J0.
G1 X33.75
G2 X33.431 Y169.091 I0. J0.319
G1 Y183.65
G3 X30.838 Y187.538 I-4.212 J0.
G2 X28.246 Y191.427 I1.62 J3.888
G1 Y197.339
G2 X28.565 Y197.658 I0.319 J0.
G1 X55.648
G2 X55.967 Y197.339 I0. J-0.319
G1 Y163.907
G2 X55.648 Y163.588 I-0.319 J0.
G1 X28.565
G2 X28.246 Y163.907 I0. J0.319
G1 Y191.427
G3 X25.651 Y195.319 I-4.217 J0.
G2 X23.056 Y199.211 I1.622 J3.892
G1 Y202.848
X61.157
Y158.398
X23.056
Y199.211
G2 X28.421 Y201.104 Z-0.297 I3.016 J0. F1600.
G1 X44.455 Y181.208 Z-0.457
G2 X42.106 Y176.299 Z-0.5 I-2.349 J-1.893
G1 X41.277 F16000.
G2 X40.958 Y176.619 I0. J0.319
G1 Y184.627
G2 X41.277 Y184.947 I0.319 J0.
G1 X42.936
G2 X43.255 Y184.627 I0. J-0.319
G1 Y176.619
G2 X42.936 Y176.299 I-0.319 J0.
G1 X42.106
G3 X40.449 Y175.363 I0. J-1.935
G2 X38.615 Y175.873 I-0.846 J0.51
G1 Y186.97
G2 X38.935 Y187.289 I0.319 J0.
G1 X45.278
G2 X45.598 Y186.97 I0. J-0.319
G1 Y174.276
G2 X45.278 Y173.957 I-0.319 J0.
G1 X38.935
G2 X38.615 Y174.276 I0. J0.319
G1 Y175.873
G3 X36.023 Y179.762 I-4.212 J0.
G2 X33.431 Y183.65 I1.62 J3.888
G1 Y192.155
G2 X33.75 Y192.474 I0.319 J0.
G1 X50.463
G2 X50.782 Y192.155 I0. J-0.319
G1 Y169.091
G2 X50.463 Y168.772 I-0.319 J0.
G1 X33.75
G2 X33.431 Y169.091 I0. J0.319
G1 Y183.65
G3 X30.838 Y187.538 I-4.212 J0.
G2 X28.246 Y191.427 I1.62 J3.888
G1 Y197.339
G2 X28.565 Y197.658 I0.319 J0.
G1 X55.648
G2 X55.967 Y197.339 I0. J-0.319
G1 Y163.907
G2 X55.648 Y163.588 I-0.319 J0.
G1 X28.565
G2 X28.246 Y163.907 I0. J0.319
G1 Y191.427
G3 X25.651 Y195.319 I-4.217 J0.
G2 X23.056 Y199.211 I1.622 J3.892
G1 Y202.848
X61.157
Y158.398
X23.056
Y199.211
G2 X28.421 Y201.104 Z-0.547 I3.016 J0. F1600.
G1 X44.455 Y181.208 Z-0.707
G2 X42.106 Y176.299 Z-0.75 I-2.349 J-1.893
G1 X41.277 F16000.
G2 X40.958 Y176.619 I0. J0.319
G1 Y184.627
G2 X41.277 Y184.947 I0.319 J0.
G1 X42.936
G2 X43.255 Y184.627 I0. J-0.319
G1 Y176.619
G2 X42.936 Y176.299 I-0.319 J0.
G1 X42.106
G3 X40.449 Y175.363 I0. J-1.935
G2 X38.615 Y175.873 I-0.846 J0.51
G1 Y186.97
G2 X38.935 Y187.289 I0.319 J0.
G1 X45.278
G2 X45.598 Y186.97 I0. J-0.319
G1 Y174.276
G2 X45.278 Y173.957 I-0.319 J0.
G1 X38.935
G2 X38.615 Y174.276 I0. J0.319
G1 Y175.873
G3 X36.023 Y179.762 I-4.212 J0.
G2 X33.431 Y183.65 I1.62 J3.888
G1 Y192.155
G2 X33.75 Y192.474 I0.319 J0.
G1 X50.463
G2 X50.782 Y192.155 I0. J-0.319
G1 Y169.091
G2 X50.463 Y168.772 I-0.319 J0.
G1 X33.75
G2 X33.431 Y169.091 I0. J0.319
G1 Y183.65
G3 X30.838 Y187.538 I-4.212 J0.
G2 X28.246 Y191.427 I1.62 J3.888
G1 Y197.339
G2 X28.565 Y197.658 I0.319 J0.
G1 X55.648
G2 X55.967 Y197.339 I0. J-0.319
G1 Y163.907
G2 X55.648 Y163.588 I-0.319 J0.
G1 X28.565
G2 X28.246 Y163.907 I0. J0.319
G1 Y191.427
G3 X25.651 Y195.319 I-4.217 J0.
G2 X23.056 Y199.211 I1.622 J3.892
G1 Y202.848
X61.157
Y158.398
X23.056
Y199.211
G2 X28.421 Y201.104 Z-0.797 I3.016 J0. F1600.
G1 X44.455 Y181.208 Z-0.957
G2 X42.106 Y176.299 Z-1. I-2.349 J-1.893
G1 X41.277 F16000.
G2 X40.958 Y176.619 I0. J0.319
G1 Y184.627
G2 X41.277 Y184.947 I0.319 J0.
G1 X42.936
G2 X43.255 Y184.627 I0. J-0.319
G1 Y176.619
G2 X42.936 Y176.299 I-0.319 J0.
G1 X42.106
G3 X40.449 Y175.363 I0. J-1.935
G2 X38.615 Y175.873 I-0.846 J0.51
G1 Y186.97
G2 X38.935 Y187.289 I0.319 J0.
G1 X45.278
G2 X45.598 Y186.97 I0. J-0.319
G1 Y174.276
G2 X45.278 Y173.957 I-0.319 J0.
G1 X38.935
G2 X38.615 Y174.276 I0. J0.319
G1 Y175.873
G3 X36.023 Y179.762 I-4.212 J0.
G2 X33.431 Y183.65 I1.62 J3.888
G1 Y192.155
G2 X33.75 Y192.474 I0.319 J0.
G1 X50.463
G2 X50.782 Y192.155 I0. J-0.319
G1 Y169.091
G2 X50.463 Y168.772 I-0.319 J0.
G1 X33.75
G2 X33.431 Y169.091 I0. J0.319
G1 Y183.65
G3 X30.838 Y187.538 I-4.212 J0.
G2 X28.246 Y191.427 I1.62 J3.888
G1 Y197.339
G2 X28.565 Y197.658 I0.319 J0.
G1 X55.648
G2 X55.967 Y197.339 I0. J-0.319
G1 Y163.907
G2 X55.648 Y163.588 I-0.319 J0.
G1 X28.565
G2 X28.246 Y163.907 I0. J0.319
G1 Y191.427
G3 X25.651 Y195.319 I-4.217 J0.
G2 X23.056 Y199.211 I1.622 J3.892
G1 Y202.848
X61.157
Y158.398
X23.056
Y199.211
G2 X28.421 Y201.104 Z-1.047 I3.016 J0. F1600.
G1 X44.455 Y181.208 Z-1.207
G2 X42.106 Y176.299 Z-1.25 I-2.349 J-1.893
G1 X41.277 F16000.
G2 X40.958 Y176.619 I0. J0.319
G1 Y184.627
G2 X41.277 Y184.947 I0.319 J0.
G1 X42.936
G2 X43.255 Y184.627 I0. J-0.319
G1 Y176.619
G2 X42.936 Y176.299 I-0.319 J0.
G1 X42.106
G3 X40.449 Y175.363 I0. J-1.935
G2 X38.615 Y175.873 I-0.846 J0.51
G1 Y186.97
G2 X38.935 Y187.289 I0.319 J0.
G1 X45.278
G2 X45.598 Y186.97 I0. J-0.319
G1 Y174.276
G2 X45.278 Y173.957 I-0.319 J0.
G1 X38.935
G2 X38.615 Y174.276 I0. J0.319
G1 Y175.873
G3 X36.023 Y179.762 I-4.212 J0.
G2 X33.431 Y183.65 I1.62 J3.888
G1 Y192.155
G2 X33.75 Y192.474 I0.319 J0.
G1 X50.463
G2 X50.782 Y192.155 I0. J-0.319
G1 Y169.091
G2 X50.463 Y168.772 I-0.319 J0.
G1 X33.75
G2 X33.431 Y169.091 I0. J0.319
G1 Y183.65
G3 X30.838 Y187.538 I-4.212 J0.
G2 X28.246 Y191.427 I1.62 J3.888
G1 Y197.339
G2 X28.565 Y197.658 I0.319 J0.
G1 X55.648
G2 X55.967 Y197.339 I0. J-0.319
G1 Y163.907
G2 X55.648 Y163.588 I-0.319 J0.
G1 X28.565
G2 X28.246 Y163.907 I0. J0.319
G1 Y191.427
G3 X25.651 Y195.319 I-4.217 J0.
G2 X23.056 Y199.211 I1.622 J3.892
G1 Y202.848
X61.157
Y158.398
X23.056
Y199.211
G2 X28.421 Y201.104 Z-1.297 I3.016 J0. F1600.
G1 X44.455 Y181.208 Z-1.457
G2 X42.106 Y176.299 Z-1.5 I-2.349 J-1.893
G1 X41.277 F16000.
G2 X40.958 Y176.619 I0. J0.319
G1 Y184.627
G2 X41.277 Y184.947 I0.319 J0.
G1 X42.936
G2 X43.255 Y184.627 I0. J-0.319
G1 Y176.619
G2 X42.936 Y176.299 I-0.319 J0.
G1 X42.106
G3 X40.449 Y175.363 I0. J-1.935
G2 X38.615 Y175.873 I-0.846 J0.51
G1 Y186.97
G2 X38.935 Y187.289 I0.319 J0.
G1 X45.278
G2 X45.598 Y186.97 I0. J-0.319
G1 Y174.276
G2 X45.278 Y173.957 I-0.319 J0.
G1 X38.935
G2 X38.615 Y174.276 I0. J0.319
G1 Y175.873
G3 X36.023 Y179.762 I-4.212 J0.
G2 X33.431 Y183.65 I1.62 J3.888
G1 Y192.155
G2 X33.75 Y192.474 I0.319 J0.
G1 X50.463
G2 X50.782 Y192.155 I0. J-0.319
G1 Y169.091
G2 X50.463 Y168.772 I-0.319 J0.
G1 X33.75
G2 X33.431 Y169.091 I0. J0.319
G1 Y183.65
G3 X30.838 Y187.538 I-4.212 J0.
G2 X28.246 Y191.427 I1.62 J3.888
G1 Y197.339
G2 X28.565 Y197.658 I0.319 J0.
G1 X55.648
G2 X55.967 Y197.339 I0. J-0.319
G1 Y163.907
G2 X55.648 Y163.588 I-0.319 J0.
G1 X28.565
G2 X28.246 Y163.907 I0. J0.319
G1 Y191.427
G3 X25.651 Y195.319 I-4.217 J0.
G2 X23.056 Y199.211 I1.622 J3.892
G1 Y202.848
X61.157
Y158.398
X23.056
Y199.211
G2 X28.421 Y201.104 Z-1.547 I3.016 J0. F1600.
G1 X44.455 Y181.208 Z-1.707
G2 X42.106 Y176.299 Z-1.75 I-2.349 J-1.893
G1 X41.277 F16000.
G2 X40.958 Y176.619 I0. J0.319
G1 Y184.627
G2 X41.277 Y184.947 I0.319 J0.
G1 X42.936
G2 X43.255 Y184.627 I0. J-0.319
G1 Y176.619
G2 X42.936 Y176.299 I-0.319 J0.
G1 X42.106
G3 X40.449 Y175.363 I0. J-1.935
G2 X38.615 Y175.873 I-0.846 J0.51
G1 Y186.97
G2 X38.935 Y187.289 I0.319 J0.
G1 X45.278
G2 X45.598 Y186.97 I0. J-0.319
G1 Y174.276
G2 X45.278 Y173.957 I-0.319 J0.
G1 X38.935
G2 X38.615 Y174.276 I0. J0.319
G1 Y175.873
G3 X36.023 Y179.762 I-4.212 J0.
G2 X33.431 Y183.65 I1.62 J3.888
G1 Y192.155
G2 X33.75 Y192.474 I0.319 J0.
G1 X50.463
G2 X50.782 Y192.155 I0. J-0.319
G1 Y169.091
G2 X50.463 Y168.772 I-0.319 J0.
G1 X33.75
G2 X33.431 Y169.091 I0. J0.319
G1 Y183.65
G3 X30.838 Y187.538 I-4.212 J0.
G2 X28.246 Y191.427 I1.62 J3.888
G1 Y197.339
G2 X28.565 Y197.658 I0.319 J0.
G1 X55.648
G2 X55.967 Y197.339 I0. J-0.319
G1 Y163.907
G2 X55.648 Y163.588 I-0.319 J0.
G1 X28.565
G2 X28.246 Y163.907 I0. J0.319
G1 Y191.427
G3 X25.651 Y195.319 I-4.217 J0.
G2 X23.056 Y199.211 I1.622 J3.892
G1 Y202.848
X61.157
Y158.398
X23.056
Y199.211
G2 X28.421 Y201.104 Z-1.797 I3.016 J0. F1600.
G1 X44.455 Y181.208 Z-1.957
G2 X42.106 Y176.299 Z-2. I-2.349 J-1.893
G1 X41.277 F16000.
G2 X40.958 Y176.619 I0. J0.319
G1 Y184.627
G2 X41.277 Y184.947 I0.319 J0.
G1 X42.936
G2 X43.255 Y184.627 I0. J-0.319
G1 Y176.619
G2 X42.936 Y176.299 I-0.319 J0.
G1 X42.106
G3 X40.449 Y175.363 I0. J-1.935
G2 X38.615 Y175.873 I-0.846 J0.51
G1 Y186.97
G2 X38.935 Y187.289 I0.319 J0.
G1 X45.278
G2 X45.598 Y186.97 I0. J-0.319
G1 Y174.276
G2 X45.278 Y173.957 I-0.319 J0.
G1 X38.935
G2 X38.615 Y174.276 I0. J0.319
G1 Y175.873
G3 X36.023 Y179.762 I-4.212 J0.
G2 X33.431 Y183.65 I1.62 J3.888
G1 Y192.155
G2 X33.75 Y192.474 I0.319 J0.
G1 X50.463
G2 X50.782 Y192.155 I0. J-0.319
G1 Y169.091
G2 X50.463 Y168.772 I-0.319 J0.
G1 X33.75
G2 X33.431 Y169.091 I0. J0.319
G1 Y183.65
G3 X30.838 Y187.538 I-4.212 J0.
G2 X28.246 Y191.427 I1.62 J3.888
G1 Y197.339
G2 X28.565 Y197.658 I0.319 J0.
G1 X55.648
G2 X55.967 Y197.339 I0. J-0.319
G1 Y163.907
G2 X55.648 Y163.588 I-0.319 J0.
G1 X28.565
G2 X28.246 Y163.907 I0. J0.319
G1 Y191.427
G3 X25.651 Y195.319 I-4.217 J0.
G2 X23.056 Y199.211 I1.622 J3.892
G1 Y202.848
X61.157
Y158.398
X23.056
Y199.211
G2 X28.421 Y201.104 Z-2.047 I3.016 J0. F1600.
G1 X44.455 Y181.208 Z-2.207
G2 X42.106 Y176.299 Z-2.25 I-2.349 J-1.893
G1 X41.277 F16000.
G2 X40.958 Y176.619 I0. J0.319
G1 Y184.627
G2 X41.277 Y184.947 I0.319 J0.
G1 X42.936
G2 X43.255 Y184.627 I0. J-0.319
G1 Y176.619
G2 X42.936 Y176.299 I-0.319 J0.
G1 X42.106
G3 X40.449 Y175.363 I0. J-1.935
G2 X38.615 Y175.873 I-0.846 J0.51
G1 Y186.97
G2 X38.935 Y187.289 I0.319 J0.
G1 X45.278
G2 X45.598 Y186.97 I0. J-0.319
G1 Y174.276
G2 X45.278 Y173.957 I-0.319 J0.
G1 X38.935
G2 X38.615 Y174.276 I0. J0.319
G1 Y175.873
G3 X36.023 Y179.762 I-4.212 J0.
G2 X33.431 Y183.65 I1.62 J3.888
G1 Y192.155
G2 X33.75 Y192.474 I0.319 J0.
G1 X50.463
G2 X50.782 Y192.155 I0. J-0.319
G1 Y169.091
G2 X50.463 Y168.772 I-0.319 J0.
G1 X33.75
G2 X33.431 Y169.091 I0. J0.319
G1 Y183.65
G3 X30.838 Y187.538 I-4.212 J0.
G2 X28.246 Y191.427 I1.62 J3.888
G1 Y197.339
G2 X28.565 Y197.658 I0.319 J0.
G1 X55.648
G2 X55.967 Y197.339 I0. J-0.319
G1 Y163.907
G2 X55.648 Y163.588 I-0.319 J0.
G1 X28.565
G2 X28.246 Y163.907 I0. J0.319
G1 Y191.427
G3 X25.651 Y195.319 I-4.217 J0.
G2 X23.056 Y199.211 I1.622 J3.892
G1 Y202.848
X61.157
Y158.398
X23.056
Y199.211
G2 X28.421 Y201.104 Z-2.297 I3.016 J0. F1600.
G1 X44.455 Y181.208 Z-2.457
G2 X42.106 Y176.299 Z-2.5 I-2.349 J-1.893
G1 X41.277 F16000.
G2 X40.958 Y176.619 I0. J0.319
G1 Y184.627
G2 X41.277 Y184.947 I0.319 J0.
G1 X42.936
G2 X43.255 Y184.627 I0. J-0.319
G1 Y176.619
G2 X42.936 Y176.299 I-0.319 J0.
G1 X42.106
G3 X40.449 Y175.363 I0. J-1.935
G2 X38.615 Y175.873 I-0.846 J0.51
G1 Y186.97
G2 X38.935 Y187.289 I0.319 J0.
G1 X45.278
G2 X45.598 Y186.97 I0. J-0.319
G1 Y174.276
G2 X45.278 Y173.957 I-0.319 J0.
G1 X38.935
G2 X38.615 Y174.276 I0. J0.319
G1 Y175.873
G3 X36.023 Y179.762 I-4.212 J0.
G2 X33.431 Y183.65 I1.62 J3.888
G1 Y192.155
G2 X33.75 Y192.474 I0.319 J0.
G1 X50.463
G2 X50.782 Y192.155 I0. J-0.319
G1 Y169.091
G2 X50.463 Y168.772 I-0.319 J0.
G1 X33.75
G2 X33.431 Y169.091 I0. J0.319
G1 Y183.65
G3 X30.838 Y187.538 I-4.212 J0.
G2 X28.246 Y191.427 I1.62 J3.888
G1 Y197.339
G2 X28.565 Y197.658 I0.319 J0.
G1 X55.648
G2 X55.967 Y197.339 I0. J-0.319
G1 Y163.907
G2 X55.648 Y163.588 I-0.319 J0.
G1 X28.565
G2 X28.246 Y163.907 I0. J0.319
G1 Y191.427
G3 X25.651 Y195.319 I-4.217 J0.
G2 X23.056 Y199.211 I1.622 J3.892
G1 Y202.848
X61.157
Y158.398
X23.056
Y199.211
G2 X28.421 Y201.104 Z-2.547 I3.016 J0. F1600.
G1 X44.455 Y181.208 Z-2.707
G2 X42.106 Y176.299 Z-2.75 I-2.349 J-1.893
G1 X41.277 F16000.
G2 X40.958 Y176.619 I0. J0.319
G1 Y184.627
G2 X41.277 Y184.947 I0.319 J0.
G1 X42.936
G2 X43.255 Y184.627 I0. J-0.319
G1 Y176.619
G2 X42.936 Y176.299 I-0.319 J0.
G1 X42.106
G3 X40.449 Y175.363 I0. J-1.935
G2 X38.615 Y175.873 I-0.846 J0.51
G1 Y186.97
G2 X38.935 Y187.289 I0.319 J0.
G1 X45.278
G2 X45.598 Y186.97 I0. J-0.319
G1 Y174.276
G2 X45.278 Y173.957 I-0.319 J0.
G1 X38.935
G2 X38.615 Y174.276 I0. J0.319
G1 Y175.873
G3 X36.023 Y179.762 I-4.212 J0.
G2 X33.431 Y183.65 I1.62 J3.888
G1 Y192.155
G2 X33.75 Y192.474 I0.319 J0.
G1 X50.463
G2 X50.782 Y192.155 I0. J-0.319
G1 Y169.091
G2 X50.463 Y168.772 I-0.319 J0.
G1 X33.75
G2 X33.431 Y169.091 I0. J0.319
G1 Y183.65
G3 X30.838 Y187.538 I-4.212 J0.
G2 X28.246 Y191.427 I1.62 J3.888
G1 Y197.339
G2 X28.565 Y197.658 I0.319 J0.
G1 X55.648
G2 X55.967 Y197.339 I0. J-0.319
G1 Y163.907
G2 X55.648 Y163.588 I-0.319 J0.
G1 X28.565
G2 X28.246 Y163.907 I0. J0.319
G1 Y191.427
G3 X25.651 Y195.319 I-4.217 J0.
G2 X23.056 Y199.211 I1.622 J3.892
G1 Y202.848
X61.157
Y158.398
X23.056
Y199.211
G2 X28.421 Y201.104 Z-2.797 I3.016 J0. F1600.
G1 X44.455 Y181.208 Z-2.957
G2 X42.106 Y176.299 Z-3. I-2.349 J-1.893
G1 X41.277 F16000.
G2 X40.958 Y176.619 I0. J0.319
G1 Y184.627
G2 X41.277 Y184.947 I0.319 J0.
G1 X42.936
G2 X43.255 Y184.627 I0. J-0.319
G1 Y176.619
G2 X42.936 Y176.299 I-0.319 J0.
G1 X42.106
G3 X40.449 Y175.363 I0. J-1.935
G2 X38.615 Y175.873 I-0.846 J0.51
G1 Y186.97
G2 X38.935 Y187.289 I0.319 J0.
G1 X45.278
G2 X45.598 Y186.97 I0. J-0.319
G1 Y174.276
G2 X45.278 Y173.957 I-0.319 J0.
G1 X38.935
G2 X38.615 Y174.276 I0. J0.319
G1 Y175.873
G3 X36.023 Y179.762 I-4.212 J0.
G2 X33.431 Y183.65 I1.62 J3.888
G1 Y192.155
G2 X33.75 Y192.474 I0.319 J0.
G1 X50.463
G2 X50.782 Y192.155 I0. J-0.319
G1 Y169.091
G2 X50.463 Y168.772 I-0.319 J0.
G1 X33.75
G2 X33.431 Y169.091 I0. J0.319
G1 Y183.65
G3 X30.838 Y187.538 I-4.212 J0.
G2 X28.246 Y191.427 I1.62 J3.888
G1 Y197.339
G2 X28.565 Y197.658 I0.319 J0.
G1 X55.648
G2 X55.967 Y197.339 I0. J-0.319
G1 Y163.907
G2 X55.648 Y163.588 I-0.319 J0.
G1 X28.565
G2 X28.246 Y163.907 I0. J0.319
G1 Y191.427
G3 X25.651 Y195.319 I-4.217 J0.
G2 X23.056 Y199.211 I1.622 J3.892
G1 Y202.848
X61.157
Y158.398
X23.056
Y199.211
G2 X28.421 Y201.104 Z-3.047 I3.016 J0. F1600.
G1 X44.455 Y181.208 Z-3.207
G2 X42.106 Y176.299 Z-3.25 I-2.349 J-1.893
G1 X41.277 F16000.
G2 X40.958 Y176.619 I0. J0.319
G1 Y184.627
G2 X41.277 Y184.947 I0.319 J0.
G1 X42.936
G2 X43.255 Y184.627 I0. J-0.319
G1 Y176.619
G2 X42.936 Y176.299 I-0.319 J0.
G1 X42.106
G3 X40.449 Y175.363 I0. J-1.935
G2 X38.615 Y175.873 I-0.846 J0.51
G1 Y186.97
G2 X38.935 Y187.289 I0.319 J0.
G1 X45.278
G2 X45.598 Y186.97 I0. J-0.319
G1 Y174.276
G2 X45.278 Y173.957 I-0.319 J0.
G1 X38.935
G2 X38.615 Y174.276 I0. J0.319
G1 Y175.873
G3 X36.023 Y179.762 I-4.212 J0.
G2 X33.431 Y183.65 I1.62 J3.888
G1 Y192.155
G2 X33.75 Y192.474 I0.319 J0.
G1 X50.463
G2 X50.782 Y192.155 I0. J-0.319
G1 Y169.091
G2 X50.463 Y168.772 I-0.319 J0.
G1 X33.75
G2 X33.431 Y169.091 I0. J0.319
G1 Y183.65
G3 X30.838 Y187.538 I-4.212 J0.
G2 X28.246 Y191.427 I1.62 J3.888
G1 Y197.339
G2 X28.565 Y197.658 I0.319 J0.
G1 X55.648
G2 X55.967 Y197.339 I0. J-0.319
G1 Y163.907
G2 X55.648 Y163.588 I-0.319 J0.
G1 X28.565
G2 X28.246 Y163.907 I0. J0.319
G1 Y191.427
G3 X25.651 Y195.319 I-4.217 J0.
G2 X23.056 Y199.211 I1.622 J3.892
G1 Y202.848
X61.157
Y158.398
X23.056
Y199.211
G2 X28.421 Y201.104 Z-3.297 I3.016 J0. F1600.
G1 X44.455 Y181.208 Z-3.457
G2 X42.106 Y176.299 Z-3.5 I-2.349 J-1.893
G1 X41.277 F16000.
G2 X40.958 Y176.619 I0. J0.319
G1 Y184.627
G2 X41.277 Y184.947 I0.319 J0.
G1 X42.936
G2 X43.255 Y184.627 I0. J-0.319
G1 Y176.619
G2 X42.936 Y176.299 I-0.319 J0.
G1 X42.106
G3 X40.449 Y175.363 I0. J-1.935
G2 X38.615 Y175.873 I-0.846 J0.51
G1 Y186.97
G2 X38.935 Y187.289 I0.319 J0.
G1 X45.278
G2 X45.598 Y186.97 I0. J-0.319
G1 Y174.276
G2 X45.278 Y173.957 I-0.319 J0.
G1 X38.935
G2 X38.615 Y174.276 I0. J0.319
G1 Y175.873
G3 X36.023 Y179.762 I-4.212 J0.
G2 X33.431 Y183.65 I1.62 J3.888
G1 Y192.155
G2 X33.75 Y192.474 I0.319 J0.
G1 X50.463
G2 X50.782 Y192.155 I0. J-0.319
G1 Y169.091
G2 X50.463 Y168.772 I-0.319 J0.
G1 X33.75
G2 X33.431 Y169.091 I0. J0.319
G1 Y183.65
G3 X30.838 Y187.538 I-4.212 J0.
G2 X28.246 Y191.427 I1.62 J3.888
G1 Y197.339
G2 X28.565 Y197.658 I0.319 J0.
G1 X55.648
G2 X55.967 Y197.339 I0. J-0.319
G1 Y163.907
G2 X55.648 Y163.588 I-0.319 J0.
G1 X28.565
G2 X28.246 Y163.907 I0. J0.319
G1 Y191.427
G3 X25.651 Y195.319 I-4.217 J0.
G2 X23.056 Y199.211 I1.622 J3.892
G1 Y202.848
X61.157
Y158.398
X23.056
Y199.211
G2 X28.421 Y201.104 Z-3.547 I3.016 J0. F1600.
G1 X44.455 Y181.208 Z-3.707
G2 X42.106 Y176.299 Z-3.75 I-2.349 J-1.893
G1 X41.277 F16000.
G2 X40.958 Y176.619 I0. J0.319
G1 Y184.627
G2 X41.277 Y184.947 I0.319 J0.
G1 X42.936
G2 X43.255 Y184.627 I0. J-0.319
G1 Y176.619
G2 X42.936 Y176.299 I-0.319 J0.
G1 X42.106
G3 X40.449 Y175.363 I0. J-1.935
G2 X38.615 Y175.873 I-0.846 J0.51
G1 Y186.97
G2 X38.935 Y187.289 I0.319 J0.
G1 X45.278
G2 X45.598 Y186.97 I0. J-0.319
G1 Y174.276
G2 X45.278 Y173.957 I-0.319 J0.
G1 X38.935
G2 X38.615 Y174.276 I0. J0.319
G1 Y175.873
G3 X36.023 Y179.762 I-4.212 J0.
G2 X33.431 Y183.65 I1.62 J3.888
G1 Y192.155
G2 X33.75 Y192.474 I0.319 J0.
G1 X50.463
G2 X50.782 Y192.155 I0. J-0.319
G1 Y169.091
G2 X50.463 Y168.772 I-0.319 J0.
G1 X33.75
G2 X33.431 Y169.091 I0. J0.319
G1 Y183.65
G3 X30.838 Y187.538 I-4.212 J0.
G2 X28.246 Y191.427 I1.62 J3.888
G1 Y197.339
G2 X28.565 Y197.658 I0.319 J0.
G1 X55.648
G2 X55.967 Y197.339 I0. J-0.319
G1 Y163.907
G2 X55.648 Y163.588 I-0.319 J0.
G1 X28.565
G2 X28.246 Y163.907 I0. J0.319
G1 Y191.427
G3 X25.651 Y195.319 I-4.217 J0.
G2 X23.056 Y199.211 I1.622 J3.892
G1 Y202.848
X61.157
Y158.398
X23.056
Y199.211
G2 X28.421 Y201.104 Z-3.797 I3.016 J0. F1600.
G1 X44.455 Y181.208 Z-3.957
G2 X42.106 Y176.299 Z-4. I-2.349 J-1.893
G1 X41.277 F16000.
G2 X40.958 Y176.619 I0. J0.319
G1 Y184.627
G2 X41.277 Y184.947 I0.319 J0.
G1 X42.936
G2 X43.255 Y184.627 I0. J-0.319
G1 Y176.619
G2 X42.936 Y176.299 I-0.319 J0.
G1 X42.106
G3 X40.449 Y175.363 I0. J-1.935
G2 X38.615 Y175.873 I-0.846 J0.51
G1 Y186.97
G2 X38.935 Y187.289 I0.319 J0.
G1 X45.278
G2 X45.598 Y186.97 I0. J-0.319
G1 Y174.276
G2 X45.278 Y173.957 I-0.319 J0.
G1 X38.935
G2 X38.615 Y174.276 I0. J0.319
G1 Y175.873
G3 X36.023 Y179.762 I-4.212 J0.
G2 X33.431 Y183.65 I1.62 J3.888
G1 Y192.155
G2 X33.75 Y192.474 I0.319 J0.
G1 X50.463
G2 X50.782 Y192.155 I0. J-0.319
G1 Y169.091
G2 X50.463 Y168.772 I-0.319 J0.
G1 X33.75
G2 X33.431 Y169.091 I0. J0.319
G1 Y183.65
G3 X30.838 Y187.538 I-4.212 J0.
G2 X28.246 Y191.427 I1.62 J3.888
G1 Y197.339
G2 X28.565 Y197.658 I0.319 J0.
G1 X55.648
G2 X55.967 Y197.339 I0. J-0.319
G1 Y163.907
G2 X55.648 Y163.588 I-0.319 J0.
G1 X28.565
G2 X28.246 Y163.907 I0. J0.319
G1 Y191.427
G3 X25.651 Y195.319 I-4.217 J0.
G2 X23.056 Y199.211 I1.622 J3.892
G1 Y202.848
X61.157
Y158.398
X23.056
Y199.211
G2 X28.421 Y201.104 Z-4.047 I3.016 J0. F1600.
G1 X44.455 Y181.208 Z-4.207
G2 X42.106 Y176.299 Z-4.25 I-2.349 J-1.893
G1 X41.277 F16000.
G2 X40.958 Y176.619 I0. J0.319
G1 Y184.627
G2 X41.277 Y184.947 I0.319 J0.
G1 X42.936
G2 X43.255 Y184.627 I0. J-0.319
G1 Y176.619
G2 X42.936 Y176.299 I-0.319 J0.
G1 X42.106
G3 X40.449 Y175.363 I0. J-1.935
G2 X38.615 Y175.873 I-0.846 J0.51
G1 Y186.97
G2 X38.935 Y187.289 I0.319 J0.
G1 X45.278
G2 X45.598 Y186.97 I0. J-0.319
G1 Y174.276
G2 X45.278 Y173.957 I-0.319 J0.
G1 X38.935
G2 X38.615 Y174.276 I0. J0.319
G1 Y175.873
G3 X36.023 Y179.762 I-4.212 J0.
G2 X33.431 Y183.65 I1.62 J3.888
G1 Y192.155
G2 X33.75 Y192.474 I0.319 J0.
G1 X50.463
G2 X50.782 Y192.155 I0. J-0.319
G1 Y169.091
G2 X50.463 Y168.772 I-0.319 J0.
G1 X33.75
G2 X33.431 Y169.091 I0. J0.319
G1 Y183.65
G3 X30.838 Y187.538 I-4.212 J0.
G2 X28.246 Y191.427 I1.62 J3.888
G1 Y197.339
G2 X28.565 Y197.658 I0.319 J0.
G1 X55.648
G2 X55.967 Y197.339 I0. J-0.319
G1 Y163.907
G2 X55.648 Y163.588 I-0.319 J0.
G1 X28.565
G2 X28.246 Y163.907 I0. J0.319
G1 Y191.427
G3 X25.651 Y195.319 I-4.217 J0.
G2 X23.056 Y199.211 I1.622 J3.892
G1 Y202.848
X61.157
Y158.398
X23.056
Y199.211
G2 X28.421 Y201.104 Z-4.297 I3.016 J0. F1600.
G1 X44.455 Y181.208 Z-4.457
G2 X42.106 Y176.299 Z-4.5 I-2.349 J-1.893
G1 X41.277 F16000.
G2 X40.958 Y176.619 I0. J0.319
G1 Y184.627
G2 X41.277 Y184.947 I0.319 J0.
G1 X42.936
G2 X43.255 Y184.627 I0. J-0.319
G1 Y176.619
G2 X42.936 Y176.299 I-0.319 J0.
G1 X42.106
G3 X40.449 Y175.363 I0. J-1.935
G2 X38.615 Y175.873 I-0.846 J0.51
G1 Y186.97
G2 X38.935 Y187.289 I0.319 J0.
G1 X45.278
G2 X45.598 Y186.97 I0. J-0.319
G1 Y174.276
G2 X45.278 Y173.957 I-0.319 J0.
G1 X38.935
G2 X38.615 Y174.276 I0. J0.319
G1 Y175.873
G3 X36.023 Y179.762 I-4.212 J0.
G2 X33.431 Y183.65 I1.62 J3.888
G1 Y192.155
G2 X33.75 Y192.474 I0.319 J0.
G1 X50.463
G2 X50.782 Y192.155 I0. J-0.319
G1 Y169.091
G2 X50.463 Y168.772 I-0.319 J0.
G1 X33.75
G2 X33.431 Y169.091 I0. J0.319
G1 Y183.65
G3 X30.838 Y187.538 I-4.212 J0.
G2 X28.246 Y191.427 I1.62 J3.888
G1 Y197.339
G2 X28.565 Y197.658 I0.319 J0.
G1 X55.648
G2 X55.967 Y197.339 I0. J-0.319
G1 Y163.907
G2 X55.648 Y163.588 I-0.319 J0.
G1 X28.565
G2 X28.246 Y163.907 I0. J0.319
G1 Y191.427
G3 X25.651 Y195.319 I-4.217 J0.
G2 X23.056 Y199.211 I1.622 J3.892
G1 Y202.848
X61.157
Y158.398
X23.056
Y199.211
G2 X28.421 Y201.104 Z-4.533 I3.016 J0. F1600.
G1 X44.455 Y181.208 Z-4.645
G2 X42.106 Y176.299 Z-4.675 I-2.349 J-1.893
G1 X41.277 F16000.
G2 X40.958 Y176.619 I0. J0.319
G1 Y184.627
G2 X41.277 Y184.947 I0.319 J0.
G1 X42.936
G2 X43.255 Y184.627 I0. J-0.319
G1 Y176.619
G2 X42.936 Y176.299 I-0.319 J0.
G1 X42.106
G3 X40.449 Y175.363 I0. J-1.935
G2 X38.615 Y175.873 I-0.846 J0.51
G1 Y186.97
G2 X38.935 Y187.289 I0.319 J0.
G1 X45.278
G2 X45.598 Y186.97 I0. J-0.319
G1 Y174.276
G2 X45.278 Y173.957 I-0.319 J0.
G1 X38.935
G2 X38.615 Y174.276 I0. J0.319
G1 Y175.873
G3 X36.023 Y179.762 I-4.212 J0.
G2 X33.431 Y183.65 I1.62 J3.888
G1 Y192.155
G2 X33.75 Y192.474 I0.319 J0.
G1 X50.463
G2 X50.782 Y192.155 I0. J-0.319
G1 Y169.091
G2 X50.463 Y168.772 I-0.319 J0.
G1 X33.75
G2 X33.431 Y169.091 I0. J0.319
G1 Y183.65
G3 X30.838 Y187.538 I-4.212 J0.
G2 X28.246 Y191.427 I1.62 J3.888
G1 Y197.339
G2 X28.565 Y197.658 I0.319 J0.
G1 X55.648
G2 X55.967 Y197.339 I0. J-0.319
G1 Y163.907
G2 X55.648 Y163.588 I-0.319 J0.
G1 X28.565
G2 X28.246 Y163.907 I0. J0.319
G1 Y191.427
G3 X25.651 Y195.319 I-4.217 J0.
G2 X23.056 Y199.211 I1.622 J3.892
G1 Y202.848
X61.157
Y158.398
X23.056
Y199.211
X23.064 Y199.309 Z-4.659 F1600.
X23.087 Y199.404 Z-4.644
X23.119 Y199.487 Z-4.599
X23.163 Y199.563 Z-4.554
X23.205 Y199.62 Z-4.483
X23.253 Y199.671 Z-4.413
X23.323 Y199.728 Z-4.236
X23.348 Y199.746 Z-4.04
G0 Z6.
X36.447 Y233.361
G1 Z4.135 F1600.
X36.43 Y233.386 Z3.941
X36.382 Y233.46 Z3.765
X36.311 Y233.578 Z3.625
X36.229 Y233.732 Z3.534
X36.148 Y233.908 Z3.5
G2 X41.713 Y236.238 Z3.335 I2.782 J1.165
X36.148 Y233.908 Z3.169 I-2.782 J-1.165
X41.713 Y236.238 Z3.004 I2.782 J1.165
X36.148 Y233.908 Z2.838 I-2.782 J-1.165
X41.713 Y236.238 Z2.673 I2.782 J1.165
X36.148 Y233.908 Z2.508 I-2.782 J-1.165
X41.713 Y236.238 Z2.342 I2.782 J1.165
X36.148 Y233.908 Z2.177 I-2.782 J-1.165
X41.713 Y236.238 Z2.011 I2.782 J1.165
X36.148 Y233.908 Z1.846 I-2.782 J-1.165
X41.713 Y236.238 Z1.681 I2.782 J1.165
X36.148 Y233.908 Z1.515 I-2.782 J-1.165
X41.713 Y236.238 Z1.35 I2.782 J1.165
X36.148 Y233.908 Z1.184 I-2.782 J-1.165
X41.713 Y236.238 Z1.019 I2.782 J1.165
X36.148 Y233.908 Z0.854 I-2.782 J-1.165
X38.931 Y238.089 Z0.75 I2.782 J1.165
G1 X45.282 F16000.
G2 X45.598 Y237.774 I0. J-0.315
X45.282 Y237.457 I-0.315 J-0.002
G1 X38.931
G2 X38.615 Y237.772 I0. J0.315
X38.931 Y238.089 I0.315 J0.002
G3 X42.819 Y240.682 I0. J4.212
G2 X46.708 Y243.274 I3.888 J-1.62
G1 X50.463
G2 X50.782 Y242.955 I0. J-0.319
G1 Y232.591
G2 X50.463 Y232.272 I-0.319 J0.
G1 X33.75
G2 X33.431 Y232.591 I0. J0.319
G1 Y242.955
G2 X33.75 Y243.274 I0.319 J0.
G1 X46.708
G3 X50.596 Y245.866 I0. J4.212
G2 X54.484 Y248.458 I3.888 J-1.62
G1 X55.648
G2 X55.967 Y248.139 I0. J-0.319
G1 Y227.407
G2 X55.648 Y227.088 I-0.319 J0.
G1 X28.565
G2 X28.246 Y227.407 I0. J0.319
G1 Y248.139
G2 X28.565 Y248.458 I0.319 J0.
G1 X54.484
G3 X57.513 Y250.582 I0. J3.222
G2 X61.157 Y249.941 I1.765 J-0.641
G1 Y221.898
X23.056
Y253.648
X61.157
Y249.941
G2 X58.566 Y246.955 Z0.718 I-3.016 J0. F1600.
G1 X38.505 Y244.092 Z0.567
G3 X38.931 Y238.089 Z0.5 I0.426 J-2.986
G1 X45.282 F16000.
G2 X45.598 Y237.774 I0. J-0.315
X45.282 Y237.457 I-0.315 J-0.002
G1 X38.931
G2 X38.615 Y237.772 I0. J0.315
X38.931 Y238.089 I0.315 J0.002
G3 X42.819 Y240.682 I0. J4.212
G2 X46.708 Y243.274 I3.888 J-1.62
G1 X50.463
G2 X50.782 Y242.955 I0. J-0.319
G1 Y232.591
G2 X50.463 Y232.272 I-0.319 J0.
G1 X33.75
G2 X33.431 Y232.591 I0. J0.319
G1 Y242.955
G2 X33.75 Y243.274 I0.319 J0.
G1 X46.708
G3 X50.596 Y245.866 I0. J4.212
G2 X54.484 Y248.458 I3.888 J-1.62
G1 X55.648
G2 X55.967 Y248.139 I0. J-0.319
G1 Y227.407
G2 X55.648 Y227.088 I-0.319 J0.
G1 X28.565
G2 X28.246 Y227.407 I0. J0.319
G1 Y248.139
G2 X28.565 Y248.458 I0.319 J0.
G1 X54.484
G3 X57.513 Y250.582 I0. J3.222
G2 X61.157 Y249.941 I1.765 J-0.641
G1 Y221.898
X23.056
Y253.648
X61.157
Y249.941
G2 X58.566 Y246.955 Z0.468 I-3.016 J0. F1600.
G1 X38.505 Y244.092 Z0.317
G3 X38.931 Y238.089 Z0.25 I0.426 J-2.986
G1 X45.282 F16000.
G2 X45.598 Y237.774 I0. J-0.315
X45.282 Y237.457 I-0.315 J-0.002
G1 X38.931
G2 X38.615 Y237.772 I0. J0.315
X38.931 Y238.089 I0.315 J0.002
G3 X42.819 Y240.682 I0. J4.212
G2 X46.708 Y243.274 I3.888 J-1.62
G1 X50.463
G2 X50.782 Y242.955 I0. J-0.319
G1 Y232.591
G2 X50.463 Y232.272 I-0.319 J0.
G1 X33.75
G2 X33.431 Y232.591 I0. J0.319
G1 Y242.955
G2 X33.75 Y243.274 I0.319 J0.
G1 X46.708
G3 X50.596 Y245.866 I0. J4.212
G2 X54.484 Y248.458 I3.888 J-1.62
G1 X55.648
G2 X55.967 Y248.139 I0. J-0.319
G1 Y227.407
G2 X55.648 Y227.088 I-0.319 J0.
G1 X28.565
G2 X28.246 Y227.407 I0. J0.319
G1 Y248.139
G2 X28.565 Y248.458 I0.319 J0.
G1 X54.484
G3 X57.513 Y250.582 I0. J3.222
G2 X61.157 Y249.941 I1.765 J-0.641
G1 Y221.898
X23.056
Y253.648
X61.157
Y249.941
G2 X58.566 Y246.955 Z0.218 I-3.016 J0. F1600.
G1 X38.505 Y244.092 Z0.067
G3 X38.931 Y238.089 Z0. I0.426 J-2.986
G1 X45.282 F16000.
G2 X45.598 Y237.774 I0. J-0.315
X45.282 Y237.457 I-0.315 J-0.002
G1 X38.931
G2 X38.615 Y237.772 I0. J0.315
X38.931 Y238.089 I0.315 J0.002
G3 X42.819 Y240.682 I0. J4.212
G2 X46.708 Y243.274 I3.888 J-1.62
G1 X50.463
G2 X50.782 Y242.955 I0. J-0.319
G1 Y232.591
G2 X50.463 Y232.272 I-0.319 J0.
G1 X33.75
G2 X33.431 Y232.591 I0. J0.319
G1 Y242.955
G2 X33.75 Y243.274 I0.319 J0.
G1 X46.708
G3 X50.596 Y245.866 I0. J4.212
G2 X54.484 Y248.458 I3.888 J-1.62
G1 X55.648
G2 X55.967 Y248.139 I0. J-0.319
G1 Y227.407
G2 X55.648 Y227.088 I-0.319 J0.
G1 X28.565
G2 X28.246 Y227.407 I0. J0.319
G1 Y248.139
G2 X28.565 Y248.458 I0.319 J0.
G1 X54.484
G3 X57.513 Y250.582 I0. J3.222
G2 X61.157 Y249.941 I1.765 J-0.641
G1 Y221.898
X23.056
Y253.648
X61.157
Y249.941
G2 X58.566 Y246.955 Z-0.032 I-3.016 J0. F1600.
G1 X38.505 Y244.092 Z-0.183
G3 X38.931 Y238.089 Z-0.25 I0.426 J-2.986
G1 X45.282 F16000.
G2 X45.598 Y237.774 I0. J-0.315
X45.282 Y237.457 I-0.315 J-0.002
G1 X38.931
G2 X38.615 Y237.772 I0. J0.315
X38.931 Y238.089 I0.315 J0.002
G3 X42.819 Y240.682 I0. J4.212
G2 X46.708 Y243.274 I3.888 J-1.62
G1 X50.463
G2 X50.782 Y242.955 I0. J-0.319
G1 Y232.591
G2 X50.463 Y232.272 I-0.319 J0.
G1 X33.75
G2 X33.431 Y232.591 I0. J0.319
G1 Y242.955
G2 X33.75 Y243.274 I0.319 J0.
G1 X46.708
G3 X50.596 Y245.866 I0. J4.212
G2 X54.484 Y248.458 I3.888 J-1.62
G1 X55.648
G2 X55.967 Y248.139 I0. J-0.319
G1 Y227.407
G2 X55.648 Y227.088 I-0.319 J0.
G1 X28.565
G2 X28.246 Y227.407 I0. J0.319
G1 Y248.139
G2 X28.565 Y248.458 I0.319 J0.
G1 X54.484
G3 X57.513 Y250.582 I0. J3.222
G2 X61.157 Y249.941 I1.765 J-0.641
G1 Y221.898
X23.056
Y253.648
X61.157
Y249.941
G2 X58.566 Y246.955 Z-0.282 I-3.016 J0. F1600.
G1 X38.505 Y244.092 Z-0.433
G3 X38.931 Y238.089 Z-0.5 I0.426 J-2.986
G1 X45.282 F16000.
G2 X45.598 Y237.774 I0. J-0.315
X45.282 Y237.457 I-0.315 J-0.002
G1 X38.931
G2 X38.615 Y237.772 I0. J0.315
X38.931 Y238.089 I0.315 J0.002
G3 X42.819 Y240.682 I0. J4.212
G2 X46.708 Y243.274 I3.888 J-1.62
G1 X50.463
G2 X50.782 Y242.955 I0. J-0.319
G1 Y232.591
G2 X50.463 Y232.272 I-0.319 J0.
G1 X33.75
G2 X33.431 Y232.591 I0. J0.319
G1 Y242.955
G2 X33.75 Y243.274 I0.319 J0.
G1 X46.708
G3 X50.596 Y245.866 I0. J4.212
G2 X54.484 Y248.458 I3.888 J-1.62
G1 X55.648
G2 X55.967 Y248.139 I0. J-0.319
G1 Y227.407
G2 X55.648 Y227.088 I-0.319 J0.
G1 X28.565
G2 X28.246 Y227.407 I0. J0.319
G1 Y248.139
G2 X28.565 Y248.458 I0.319 J0.
G1 X54.484
G3 X57.513 Y250.582 I0. J3.222
G2 X61.157 Y249.941 I1.765 J-0.641
G1 Y221.898
X23.056
Y253.648
X61.157
Y249.941
G2 X58.566 Y246.955 Z-0.532 I-3.016 J0. F1600.
G1 X38.505 Y244.092 Z-0.683
G3 X38.931 Y238.089 Z-0.75 I0.426 J-2.986
G1 X45.282 F16000.
G2 X45.598 Y237.774 I0. J-0.315
X45.282 Y237.457 I-0.315 J-0.002
G1 X38.931
G2 X38.615 Y237.772 I0. J0.315
X38.931 Y238.089 I0.315 J0.002
G3 X42.819 Y240.682 I0. J4.212
G2 X46.708 Y243.274 I3.888 J-1.62
G1 X50.463
G2 X50.782 Y242.955 I0. J-0.319
G1 Y232.591
G2 X50.463 Y232.272 I-0.319 J0.
G1 X33.75
G2 X33.431 Y232.591 I0. J0.319
G1 Y242.955
G2 X33.75 Y243.274 I0.319 J0.
G1 X46.708
G3 X50.596 Y245.866 I0. J4.212
G2 X54.484 Y248.458 I3.888 J-1.62
G1 X55.648
G2 X55.967 Y248.139 I0. J-0.319
G1 Y227.407
G2 X55.648 Y227.088 I-0.319 J0.
G1 X28.565
G2 X28.246 Y227.407 I0. J0.319
G1 Y248.139
G2 X28.565 Y248.458 I0.319 J0.
G1 X54.484
G3 X57.513 Y250.582 I0. J3.222
G2 X61.157 Y249.941 I1.765 J-0.641
G1 Y221.898
X23.056
Y253.648
X61.157
Y249.941
G2 X58.566 Y246.955 Z-0.782 I-3.016 J0. F1600.
G1 X38.505 Y244.092 Z-0.933
G3 X38.931 Y238.089 Z-1. I0.426 J-2.986
G1 X45.282 F16000.
G2 X45.598 Y237.774 I0. J-0.315
X45.282 Y237.457 I-0.315 J-0.002
G1 X38.931
G2 X38.615 Y237.772 I0. J0.315
X38.931 Y238.089 I0.315 J0.002
G3 X42.819 Y240.682 I0. J4.212
G2 X46.708 Y243.274 I3.888 J-1.62
G1 X50.463
G2 X50.782 Y242.955 I0. J-0.319
G1 Y232.591
G2 X50.463 Y232.272 I-0.319 J0.
G1 X33.75
G2 X33.431 Y232.591 I0. J0.319
G1 Y242.955
G2 X33.75 Y243.274 I0.319 J0.
G1 X46.708
G3 X50.596 Y245.866 I0. J4.212
G2 X54.484 Y248.458 I3.888 J-1.62
G1 X55.648
G2 X55.967 Y248.139 I0. J-0.319
G1 Y227.407
G2 X55.648 Y227.088 I-0.319 J0.
G1 X28.565
G2 X28.246 Y227.407 I0. J0.319
G1 Y248.139
G2 X28.565 Y248.458 I0.319 J0.
G1 X54.484
G3 X57.513 Y250.582 I0. J3.222
G2 X61.157 Y249.941 I1.765 J-0.641
G1 Y221.898
X23.056
Y253.648
X61.157
Y249.941
G2 X58.566 Y246.955 Z-1.032 I-3.016 J0. F1600.
G1 X38.505 Y244.092 Z-1.183
G3 X38.931 Y238.089 Z-1.25 I0.426 J-2.986
G1 X45.282 F16000.
G2 X45.598 Y237.774 I0. J-0.315
X45.282 Y237.457 I-0.315 J-0.002
G1 X38.931
G2 X38.615 Y237.772 I0. J0.315
X38.931 Y238.089 I0.315 J0.002
G3 X42.819 Y240.682 I0. J4.212
G2 X46.708 Y243.274 I3.888 J-1.62
G1 X50.463
G2 X50.782 Y242.955 I0. J-0.319
G1 Y232.591
G2 X50.463 Y232.272 I-0.319 J0.
G1 X33.75
G2 X33.431 Y232.591 I0. J0.319
G1 Y242.955
G2 X33.75 Y243.274 I0.319 J0.
G1 X46.708
G3 X50.596 Y245.866 I0. J4.212
G2 X54.484 Y248.458 I3.888 J-1.62
G1 X55.648
G2 X55.967 Y248.139 I0. J-0.319
G1 Y227.407
G2 X55.648 Y227.088 I-0.319 J0.
G1 X28.565
G2 X28.246 Y227.407 I0. J0.319
G1 Y248.139
G2 X28.565 Y248.458 I0.319 J0.
G1 X54.484
G3 X57.513 Y250.582 I0. J3.222
G2 X61.157 Y249.941 I1.765 J-0.641
G1 Y221.898
X23.056
Y253.648
X61.157
Y249.941
G2 X58.566 Y246.955 Z-1.282 I-3.016 J0. F1600.
G1 X38.505 Y244.092 Z-1.433
G3 X38.931 Y238.089 Z-1.5 I0.426 J-2.986
G1 X45.282 F16000.
G2 X45.598 Y237.774 I0. J-0.315
X45.282 Y237.457 I-0.315 J-0.002
G1 X38.931
G2 X38.615 Y237.772 I0. J0.315
X38.931 Y238.089 I0.315 J0.002
G3 X42.819 Y240.682 I0. J4.212
G2 X46.708 Y243.274 I3.888 J-1.62
G1 X50.463
G2 X50.782 Y242.955 I0. J-0.319
G1 Y232.591
G2 X50.463 Y232.272 I-0.319 J0.
G1 X33.75
G2 X33.431 Y232.591 I0. J0.319
G1 Y242.955
G2 X33.75 Y243.274 I0.319 J0.
G1 X46.708
G3 X50.596 Y245.866 I0. J4.212
G2 X54.484 Y248.458 I3.888 J-1.62
G1 X55.648
G2 X55.967 Y248.139 I0. J-0.319
G1 Y227.407
G2 X55.648 Y227.088 I-0.319 J0.
G1 X28.565
G2 X28.246 Y227.407 I0. J0.319
G1 Y248.139
G2 X28.565 Y248.458 I0.319 J0.
G1 X54.484
G3 X57.513 Y250.582 I0. J3.222
G2 X61.157 Y249.941 I1.765 J-0.641
G1 Y221.898
X23.056
Y253.648
X61.157
Y249.941
G2 X58.566 Y246.955 Z-1.532 I-3.016 J0. F1600.
G1 X38.505 Y244.092 Z-1.683
G3 X38.931 Y238.089 Z-1.75 I0.426 J-2.986
G1 X45.282 F16000.
G2 X45.598 Y237.774 I0. J-0.315
X45.282 Y237.457 I-0.315 J-0.002
G1 X38.931
G2 X38.615 Y237.772 I0. J0.315
X38.931 Y238.089 I0.315 J0.002
G3 X42.819 Y240.682 I0. J4.212
G2 X46.708 Y243.274 I3.888 J-1.62
G1 X50.463
G2 X50.782 Y242.955 I0. J-0.319
G1 Y232.591
G2 X50.463 Y232.272 I-0.319 J0.
G1 X33.75
G2 X33.431 Y232.591 I0. J0.319
G1 Y242.955
G2 X33.75 Y243.274 I0.319 J0.
G1 X46.708
G3 X50.596 Y245.866 I0. J4.212
G2 X54.484 Y248.458 I3.888 J-1.62
G1 X55.648
G2 X55.967 Y248.139 I0. J-0.319
G1 Y227.407
G2 X55.648 Y227.088 I-0.319 J0.
G1 X28.565
G2 X28.246 Y227.407 I0. J0.319
G1 Y248.139
G2 X28.565 Y248.458 I0.319 J0.
G1 X54.484
G3 X57.513 Y250.582 I0. J3.222
G2 X61.157 Y249.941 I1.765 J-0.641
G1 Y221.898
X23.056
Y253.648
X61.157
Y249.941
G2 X58.566 Y246.955 Z-1.782 I-3.016 J0. F1600.
G1 X38.505 Y244.092 Z-1.933
G3 X38.931 Y238.089 Z-2. I0.426 J-2.986
G1 X45.282 F16000.
G2 X45.598 Y237.774 I0. J-0.315
X45.282 Y237.457 I-0.315 J-0.002
G1 X38.931
G2 X38.615 Y237.772 I0. J0.315
X38.931 Y238.089 I0.315 J0.002
G3 X42.819 Y240.682 I0. J4.212
G2 X46.708 Y243.274 I3.888 J-1.62
G1 X50.463
G2 X50.782 Y242.955 I0. J-0.319
G1 Y232.591
G2 X50.463 Y232.272 I-0.319 J0.
G1 X33.75
G2 X33.431 Y232.591 I0. J0.319
G1 Y242.955
G2 X33.75 Y243.274 I0.319 J0.
G1 X46.708
G3 X50.596 Y245.866 I0. J4.212
G2 X54.484 Y248.458 I3.888 J-1.62
G1 X55.648
G2 X55.967 Y248.139 I0. J-0.319
G1 Y227.407
G2 X55.648 Y227.088 I-0.319 J0.
G1 X28.565
G2 X28.246 Y227.407 I0. J0.319
G1 Y248.139
G2 X28.565 Y248.458 I0.319 J0.
G1 X54.484
G3 X57.513 Y250.582 I0. J3.222
G2 X61.157 Y249.941 I1.765 J-0.641
G1 Y221.898
X23.056
Y253.648
X61.157
Y249.941
G2 X58.566 Y246.955 Z-2.032 I-3.016 J0. F1600.
G1 X38.505 Y244.092 Z-2.183
G3 X38.931 Y238.089 Z-2.25 I0.426 J-2.986
G1 X45.282 F16000.
G2 X45.598 Y237.774 I0. J-0.315
X45.282 Y237.457 I-0.315 J-0.002
G1 X38.931
G2 X38.615 Y237.772 I0. J0.315
X38.931 Y238.089 I0.315 J0.002
G3 X42.819 Y240.682 I0. J4.212
G2 X46.708 Y243.274 I3.888 J-1.62
G1 X50.463
G2 X50.782 Y242.955 I0. J-0.319
G1 Y232.591
G2 X50.463 Y232.272 I-0.319 J0.
G1 X33.75
G2 X33.431 Y232.591 I0. J0.319
G1 Y242.955
G2 X33.75 Y243.274 I0.319 J0.
G1 X46.708
G3 X50.596 Y245.866 I0. J4.212
G2 X54.484 Y248.458 I3.888 J-1.62
G1 X55.648
G2 X55.967 Y248.139 I0. J-0.319
G1 Y227.407
G2 X55.648 Y227.088 I-0.319 J0.
G1 X28.565
G2 X28.246 Y227.407 I0. J0.319
G1 Y248.139
G2 X28.565 Y248.458 I0.319 J0.
G1 X54.484
G3 X57.513 Y250.582 I0. J3.222
G2 X61.157 Y249.941 I1.765 J-0.641
G1 Y221.898
X23.056
Y253.648
X61.157
Y249.941
G2 X58.566 Y246.955 Z-2.282 I-3.016 J0. F1600.
G1 X38.505 Y244.092 Z-2.433
G3 X38.931 Y238.089 Z-2.5 I0.426 J-2.986
G1 X45.282 F16000.
G2 X45.598 Y237.774 I0. J-0.315
X45.282 Y237.457 I-0.315 J-0.002
G1 X38.931
G2 X38.615 Y237.772 I0. J0.315
X38.931 Y238.089 I0.315 J0.002
G3 X42.819 Y240.682 I0. J4.212
G2 X46.708 Y243.274 I3.888 J-1.62
G1 X50.463
G2 X50.782 Y242.955 I0. J-0.319
G1 Y232.591
G2 X50.463 Y232.272 I-0.319 J0.
G1 X33.75
G2 X33.431 Y232.591 I0. J0.319
G1 Y242.955
G2 X33.75 Y243.274 I0.319 J0.
G1 X46.708
G3 X50.596 Y245.866 I0. J4.212
G2 X54.484 Y248.458 I3.888 J-1.62
G1 X55.648
G2 X55.967 Y248.139 I0. J-0.319
G1 Y227.407
G2 X55.648 Y227.088 I-0.319 J0.
G1 X28.565
G2 X28.246 Y227.407 I0. J0.319
G1 Y248.139
G2 X28.565 Y248.458 I0.319 J0.
G1 X54.484
G3 X57.513 Y250.582 I0. J3.222
G2 X61.157 Y249.941 I1.765 J-0.641
G1 Y221.898
X23.056
Y253.648
X61.157
Y249.941
G2 X58.566 Y246.955 Z-2.532 I-3.016 J0. F1600.
G1 X38.505 Y244.092 Z-2.683
G3 X38.931 Y238.089 Z-2.75 I0.426 J-2.986
G1 X45.282 F16000.
G2 X45.598 Y237.774 I0. J-0.315
X45.282 Y237.457 I-0.315 J-0.002
G1 X38.931
G2 X38.615 Y237.772 I0. J0.315
X38.931 Y238.089 I0.315 J0.002
G3 X42.819 Y240.682 I0. J4.212
G2 X46.708 Y243.274 I3.888 J-1.62
G1 X50.463
G2 X50.782 Y242.955 I0. J-0.319
G1 Y232.591
G2 X50.463 Y232.272 I-0.319 J0.
G1 X33.75
G2 X33.431 Y232.591 I0. J0.319
G1 Y242.955
G2 X33.75 Y243.274 I0.319 J0.
G1 X46.708
G3 X50.596 Y245.866 I0. J4.212
G2 X54.484 Y248.458 I3.888 J-1.62
G1 X55.648
G2 X55.967 Y248.139 I0. J-0.319
G1 Y227.407
G2 X55.648 Y227.088 I-0.319 J0.
G1 X28.565
G2 X28.246 Y227.407 I0. J0.319
G1 Y248.139
G2 X28.565 Y248.458 I0.319 J0.
G1 X54.484
G3 X57.513 Y250.582 I0. J3.222
G2 X61.157 Y249.941 I1.765 J-0.641
G1 Y221.898
X23.056
Y253.648
X61.157
Y249.941
G2 X58.566 Y246.955 Z-2.782 I-3.016 J0. F1600.
G1 X38.505 Y244.092 Z-2.933
G3 X38.931 Y238.089 Z-3. I0.426 J-2.986
G1 X45.282 F16000.
G2 X45.598 Y237.774 I0. J-0.315
X45.282 Y237.457 I-0.315 J-0.002
G1 X38.931
G2 X38.615 Y237.772 I0. J0.315
X38.931 Y238.089 I0.315 J0.002
G3 X42.819 Y240.682 I0. J4.212
G2 X46.708 Y243.274 I3.888 J-1.62
G1 X50.463
G2 X50.782 Y242.955 I0. J-0.319
G1 Y232.591
G2 X50.463 Y232.272 I-0.319 J0.
G1 X33.75
G2 X33.431 Y232.591 I0. J0.319
G1 Y242.955
G2 X33.75 Y243.274 I0.319 J0.
G1 X46.708
G3 X50.596 Y245.866 I0. J4.212
G2 X54.484 Y248.458 I3.888 J-1.62
G1 X55.648
G2 X55.967 Y248.139 I0. J-0.319
G1 Y227.407
G2 X55.648 Y227.088 I-0.319 J0.
G1 X28.565
G2 X28.246 Y227.407 I0. J0.319
G1 Y248.139
G2 X28.565 Y248.458 I0.319 J0.
G1 X54.484
G3 X57.513 Y250.582 I0. J3.222
G2 X61.157 Y249.941 I1.765 J-0.641
G1 Y221.898
X23.056
Y253.648
X61.157
Y249.941
G2 X58.566 Y246.955 Z-3.032 I-3.016 J0. F1600.
G1 X38.505 Y244.092 Z-3.183
G3 X38.931 Y238.089 Z-3.25 I0.426 J-2.986
G1 X45.282 F16000.
G2 X45.598 Y237.774 I0. J-0.315
X45.282 Y237.457 I-0.315 J-0.002
G1 X38.931
G2 X38.615 Y237.772 I0. J0.315
X38.931 Y238.089 I0.315 J0.002
G3 X42.819 Y240.682 I0. J4.212
G2 X46.708 Y243.274 I3.888 J-1.62
G1 X50.463
G2 X50.782 Y242.955 I0. J-0.319
G1 Y232.591
G2 X50.463 Y232.272 I-0.319 J0.
G1 X33.75
G2 X33.431 Y232.591 I0. J0.319
G1 Y242.955
G2 X33.75 Y243.274 I0.319 J0.
G1 X46.708
G3 X50.596 Y245.866 I0. J4.212
G2 X54.484 Y248.458 I3.888 J-1.62
G1 X55.648
G2 X55.967 Y248.139 I0. J-0.319
G1 Y227.407
G2 X55.648 Y227.088 I-0.319 J0.
G1 X28.565
G2 X28.246 Y227.407 I0. J0.319
G1 Y248.139
G2 X28.565 Y248.458 I0.319 J0.
G1 X54.484
G3 X57.513 Y250.582 I0. J3.222
G2 X61.157 Y249.941 I1.765 J-0.641
G1 Y221.898
X23.056
Y253.648
X61.157
Y249.941
G2 X58.566 Y246.955 Z-3.282 I-3.016 J0. F1600.
G1 X38.505 Y244.092 Z-3.433
G3 X38.931 Y238.089 Z-3.5 I0.426 J-2.986
G1 X45.282 F16000.
G2 X45.598 Y237.774 I0. J-0.315
X45.282 Y237.457 I-0.315 J-0.002
G1 X38.931
G2 X38.615 Y237.772 I0. J0.315
X38.931 Y238.089 I0.315 J0.002
G3 X42.819 Y240.682 I0. J4.212
G2 X46.708 Y243.274 I3.888 J-1.62
G1 X50.463
G2 X50.782 Y242.955 I0. J-0.319
G1 Y232.591
G2 X50.463 Y232.272 I-0.319 J0.
G1 X33.75
G2 X33.431 Y232.591 I0. J0.319
G1 Y242.955
G2 X33.75 Y243.274 I0.319 J0.
G1 X46.708
G3 X50.596 Y245.866 I0. J4.212
G2 X54.484 Y248.458 I3.888 J-1.62
G1 X55.648
G2 X55.967 Y248.139 I0. J-0.319
G1 Y227.407
G2 X55.648 Y227.088 I-0.319 J0.
G1 X28.565
G2 X28.246 Y227.407 I0. J0.319
G1 Y248.139
G2 X28.565 Y248.458 I0.319 J0.
G1 X54.484
G3 X57.513 Y250.582 I0. J3.222
G2 X61.157 Y249.941 I1.765 J-0.641
G1 Y221.898
X23.056
Y253.648
X61.157
Y249.941
G2 X58.566 Y246.955 Z-3.532 I-3.016 J0. F1600.
G1 X38.505 Y244.092 Z-3.683
G3 X38.931 Y238.089 Z-3.75 I0.426 J-2.986
G1 X45.282 F16000.
G2 X45.598 Y237.774 I0. J-0.315
X45.282 Y237.457 I-0.315 J-0.002
G1 X38.931
G2 X38.615 Y237.772 I0. J0.315
X38.931 Y238.089 I0.315 J0.002
G3 X42.819 Y240.682 I0. J4.212
G2 X46.708 Y243.274 I3.888 J-1.62
G1 X50.463
G2 X50.782 Y242.955 I0. J-0.319
G1 Y232.591
G2 X50.463 Y232.272 I-0.319 J0.
G1 X33.75
G2 X33.431 Y232.591 I0. J0.319
G1 Y242.955
G2 X33.75 Y243.274 I0.319 J0.
G1 X46.708
G3 X50.596 Y245.866 I0. J4.212
G2 X54.484 Y248.458 I3.888 J-1.62
G1 X55.648
G2 X55.967 Y248.139 I0. J-0.319
G1 Y227.407
G2 X55.648 Y227.088 I-0.319 J0.
G1 X28.565
G2 X28.246 Y227.407 I0. J0.319
G1 Y248.139
G2 X28.565 Y248.458 I0.319 J0.
G1 X54.484
G3 X57.513 Y250.582 I0. J3.222
G2 X61.157 Y249.941 I1.765 J-0.641
G1 Y221.898
X23.056
Y253.648
X61.157
Y249.941
G2 X58.566 Y246.955 Z-3.782 I-3.016 J0. F1600.
G1 X38.505 Y244.092 Z-3.933
G3 X38.931 Y238.089 Z-4. I0.426 J-2.986
G1 X45.282 F16000.
G2 X45.598 Y237.774 I0. J-0.315
X45.282 Y237.457 I-0.315 J-0.002
G1 X38.931
G2 X38.615 Y237.772 I0. J0.315
X38.931 Y238.089 I0.315 J0.002
G3 X42.819 Y240.682 I0. J4.212
G2 X46.708 Y243.274 I3.888 J-1.62
G1 X50.463
G2 X50.782 Y242.955 I0. J-0.319
G1 Y232.591
G2 X50.463 Y232.272 I-0.319 J0.
G1 X33.75
G2 X33.431 Y232.591 I0. J0.319
G1 Y242.955
G2 X33.75 Y243.274 I0.319 J0.
G1 X46.708
G3 X50.596 Y245.866 I0. J4.212
G2 X54.484 Y248.458 I3.888 J-1.62
G1 X55.648
G2 X55.967 Y248.139 I0. J-0.319
G1 Y227.407
G2 X55.648 Y227.088 I-0.319 J0.
G1 X28.565
G2 X28.246 Y227.407 I0. J0.319
G1 Y248.139
G2 X28.565 Y248.458 I0.319 J0.
G1 X54.484
G3 X57.513 Y250.582 I0. J3.222
G2 X61.157 Y249.941 I1.765 J-0.641
G1 Y221.898
X23.056
Y253.648
X61.157
Y249.941
G2 X58.566 Y246.955 Z-4.032 I-3.016 J0. F1600.
G1 X38.505 Y244.092 Z-4.183
G3 X38.931 Y238.089 Z-4.25 I0.426 J-2.986
G1 X45.282 F16000.
G2 X45.598 Y237.774 I0. J-0.315
X45.282 Y237.457 I-0.315 J-0.002
G1 X38.931
G2 X38.615 Y237.772 I0. J0.315
X38.931 Y238.089 I0.315 J0.002
G3 X42.819 Y240.682 I0. J4.212
G2 X46.708 Y243.274 I3.888 J-1.62
G1 X50.463
G2 X50.782 Y242.955 I0. J-0.319
G1 Y232.591
G2 X50.463 Y232.272 I-0.319 J0.
G1 X33.75
G2 X33.431 Y232.591 I0. J0.319
G1 Y242.955
G2 X33.75 Y243.274 I0.319 J0.
G1 X46.708
G3 X50.596 Y245.866 I0. J4.212
G2 X54.484 Y248.458 I3.888 J-1.62
G1 X55.648
G2 X55.967 Y248.139 I0. J-0.319
G1 Y227.407
G2 X55.648 Y227.088 I-0.319 J0.
G1 X28.565
G2 X28.246 Y227.407 I0. J0.319
G1 Y248.139
G2 X28.565 Y248.458 I0.319 J0.
G1 X54.484
G3 X57.513 Y250.582 I0. J3.222
G2 X61.157 Y249.941 I1.765 J-0.641
G1 Y221.898
X23.056
Y253.648
X61.157
Y249.941
G2 X58.566 Y246.955 Z-4.282 I-3.016 J0. F1600.
G1 X38.505 Y244.092 Z-4.433
G3 X38.931 Y238.089 Z-4.5 I0.426 J-2.986
G1 X45.282 F16000.
G2 X45.598 Y237.774 I0. J-0.315
X45.282 Y237.457 I-0.315 J-0.002
G1 X38.931
G2 X38.615 Y237.772 I0. J0.315
X38.931 Y238.089 I0.315 J0.002
G3 X42.819 Y240.682 I0. J4.212
G2 X46.708 Y243.274 I3.888 J-1.62
G1 X50.463
G2 X50.782 Y242.955 I0. J-0.319
G1 Y232.591
G2 X50.463 Y232.272 I-0.319 J0.
G1 X33.75
G2 X33.431 Y232.591 I0. J0.319
G1 Y242.955
G2 X33.75 Y243.274 I0.319 J0.
G1 X46.708
G3 X50.596 Y245.866 I0. J4.212
G2 X54.484 Y248.458 I3.888 J-1.62
G1 X55.648
G2 X55.967 Y248.139 I0. J-0.319
G1 Y227.407
G2 X55.648 Y227.088 I-0.319 J0.
G1 X28.565
G2 X28.246 Y227.407 I0. J0.319
G1 Y248.139
G2 X28.565 Y248.458 I0.319 J0.
G1 X54.484
G3 X57.513 Y250.582 I0. J3.222
G2 X61.157 Y249.941 I1.765 J-0.641
G1 Y221.898
X23.056
Y253.648
X61.157
Y249.941
G2 X58.566 Y246.955 Z-4.522 I-3.016 J0. F1600.
G1 X38.505 Y244.092 Z-4.628
G3 X38.931 Y238.089 Z-4.675 I0.426 J-2.986
G1 X45.282 F16000.
G2 X45.598 Y237.774 I0. J-0.315
X45.282 Y237.457 I-0.315 J-0.002
G1 X38.931
G2 X38.615 Y237.772 I0. J0.315
X38.931 Y238.089 I0.315 J0.002
G3 X42.819 Y240.682 I0. J4.212
G2 X46.708 Y243.274 I3.888 J-1.62
G1 X50.463
G2 X50.782 Y242.955 I0. J-0.319
G1 Y232.591
G2 X50.463 Y232.272 I-0.319 J0.
G1 X33.75
G2 X33.431 Y232.591 I0. J0.319
G1 Y242.955
G2 X33.75 Y243.274 I0.319 J0.
G1 X46.708
G3 X50.596 Y245.866 I0. J4.212
G2 X54.484 Y248.458 I3.888 J-1.62
G1 X55.648
G2 X55.967 Y248.139 I0. J-0.319
G1 Y227.407
G2 X55.648 Y227.088 I-0.319 J0.
G1 X28.565
G2 X28.246 Y227.407 I0. J0.319
G1 Y248.139
G2 X28.565 Y248.458 I0.319 J0.
G1 X54.484
G3 X57.513 Y250.582 I0. J3.222
G2 X61.157 Y249.941 I1.765 J-0.641
G1 Y221.898
X23.056
Y253.648
X61.157
Y249.941
X61.149 Y249.843 Z-4.659 F1600.
X61.126 Y249.748 Z-4.644
X61.094 Y249.666 Z-4.599
X61.05 Y249.589 Z-4.554
X61.008 Y249.533 Z-4.483
X60.96 Y249.481 Z-4.413
X60.89 Y249.424 Z-4.236
X60.865 Y249.407 Z-4.04
G0 Z6.
X104.837 Y273.202
G1 Z4.135 F1600.
X104.867 Y273.197 Z3.941
X104.953 Y273.181 Z3.765
X105.089 Y273.157 Z3.625
X105.26 Y273.127 Z3.534
X105.451 Y273.093 Z3.5
G2 X154.004 Y257.71 Z2.608 I-34.77 J-194.069
X154.964 Y255.074 Z2.554 I-0.838 J-1.798
X152.328 Y254.114 Z2.5 I-1.798 J0.838
G3 X70.681 Y272.214 Z1.028 I-81.646 J-175.091
G2 X68.696 Y274.198 Z0.974 I0. J1.984
X70.681 Y276.183 Z0.919 I1.985 J0.
X80.386 Y275.944 Z0.75 I-0.001 J-197.16
X154.004 Y257.71 I-9.705 J-196.921 F16000.
X154.964 Y255.074 I-0.838 J-1.798
X152.328 Y254.114 I-1.798 J0.838
G3 X70.681 Y272.214 I-81.646 J-175.091
G2 X68.697 Y274.198 I0. J1.984
G1 Y274.199
G2 X70.681 Y276.183 I1.984 J0.
X80.386 Y275.944 I-0.001 J-197.16
X94.653 Y274.72 Z0.5 I-9.705 J-196.921 F1600.
X154.004 Y257.71 I-23.972 J-195.697 F16000.
X154.964 Y255.074 I-0.838 J-1.798
X152.328 Y254.114 I-1.798 J0.838
G3 X70.681 Y272.214 I-81.646 J-175.091
G2 X68.697 Y274.198 I0. J1.984
G1 Y274.199
G2 X70.681 Y276.183 I1.984 J0.
X94.653 Y274.72 I-0.001 J-197.16
X108.793 Y272.464 Z0.25 I-23.972 J-195.697 F1600.
X154.004 Y257.71 I-38.113 J-193.441 F16000.
X154.964 Y255.074 I-0.838 J-1.798
X152.328 Y254.114 I-1.798 J0.838
G3 X70.681 Y272.214 I-81.646 J-175.091
G2 X68.697 Y274.198 I0. J1.984
G1 Y274.199
G2 X70.681 Y276.183 I1.984 J0.
X108.793 Y272.464 I-0.001 J-197.16
X122.733 Y269.188 Z0. I-38.113 J-193.441 F1600.
X154.004 Y257.71 I-52.052 J-190.164 F16000.
X154.964 Y255.074 I-0.838 J-1.798
X152.328 Y254.114 I-1.798 J0.838
G3 X70.681 Y272.214 I-81.646 J-175.091
G2 X68.697 Y274.198 I0. J1.984
G1 Y274.199
G2 X70.681 Y276.183 I1.984 J0.
X122.733 Y269.188 I-0.001 J-197.16
X136.398 Y264.908 Z-0.25 I-52.052 J-190.164 F1600.
X154.004 Y257.71 I-65.717 J-185.885 F16000.
X154.964 Y255.074 I-0.838 J-1.798
X152.328 Y254.114 I-1.798 J0.838
G3 X70.681 Y272.214 I-81.646 J-175.091
G2 X68.697 Y274.198 I0. J1.984
G1 Y274.199
G2 X70.681 Y276.183 I1.984 J0.
X136.398 Y264.908 I-0.001 J-197.16
X149.716 Y259.648 Z-0.5 I-65.717 J-185.885 F1600.
X154.004 Y257.71 I-79.035 J-180.625 F16000.
X154.964 Y255.074 I-0.838 J-1.798
X152.328 Y254.114 I-1.798 J0.838
G3 X70.681 Y272.214 I-81.646 J-175.091
G2 X68.697 Y274.198 I0. J1.984
G1 Y274.199
G2 X70.681 Y276.183 I1.984 J0.
X149.716 Y259.648 I-0.001 J-197.16
X154.004 Y257.71 Z-0.582 I-79.035 J-180.625 F1600.
X154.964 Y255.074 Z-0.637 I-0.838 J-1.798
X152.328 Y254.114 Z-0.691 I-1.798 J0.838
G3 X149.249 Y255.516 Z-0.75 I-81.646 J-175.091
X70.681 Y272.214 I-78.568 J-176.493 F16000.
G2 X68.697 Y274.198 I0. J1.984
G1 Y274.199
