(1001)
(T1  D=3.175 CR=0. - ZMIN=-17.35 - FLAT END MILL)
G90 G94 G91.1 G40 G49 G17
G21
G0 Z15

(2D CONTOUR2)
M5
T1 M6
S15000 M3
G54
M8
G0 X42.613 Y34.539
G43 Z16. H1
Z6.
G1 Z3.818 F1600.
X42.605 Y34.538 Z3.747
X42.581 Y34.535 Z3.68
X42.544 Y34.53 Z3.62
X42.494 Y34.523 Z3.569
X42.434 Y34.515 Z3.531
X42.368 Y34.507 Z3.508
X42.298 Y34.497 Z3.5
X41.983 Y34.455
G2 X41.626 Y34.728 I-0.042 J0.315
G3 X9.414 Y117.328 Z0.374 I-185.588 J-24.795
X7.203 Y117.717 Z0.287 I-1.3 J-0.911
G1 X2.001 Y114.075 Z0.065
G3 X1.363 Y112.427 Z0. I0.911 J-1.3
X1.612 Y111.864 I1.549 J0.348
G2 X33.75 Y9.933 I-145.574 J-101.932
G1 Y3.583
G3 X35.338 Y1.995 I1.588 J0.
G1 X41.688
G3 X43.276 Y3.583 I0. J1.588
G1 Y9.933
G3 X9.414 Y117.328 I-187.237 J0.
X7.203 Y117.717 I-1.3 J-0.911
G1 X2.001 Y114.075
G3 X1.363 Y112.427 I0.911 J-1.3
X1.612 Y111.864 Z-0.022 I1.549 J0.348
G2 X15.81 Y87.745 Z-1. I-145.574 J-101.932
X33.75 Y9.933 I-159.772 J-77.812
G1 Y3.583
G3 X35.338 Y1.995 I1.588 J0.
G1 X41.688
G3 X43.276 Y3.583 I0. J1.588
G1 Y9.933
G3 X9.414 Y117.328 I-187.237 J0.
X7.203 Y117.717 I-1.3 J-0.911
G1 X2.001 Y114.075
G3 X1.612 Y111.864 I0.911 J-1.3
G2 X15.81 Y87.745 I-145.574 J-101.932
X26.224 Y61.103 Z-2. I-159.772 J-77.812
X33.75 Y9.933 I-170.186 J-51.17
G1 Y3.583
G3 X35.338 Y1.995 I1.588 J0.
G1 X41.688
G3 X43.276 Y3.583 I0. J1.588
G1 Y9.933
G3 X9.414 Y117.328 I-187.237 J0.
X7.203 Y117.717 I-1.3 J-0.911
G1 X2.001 Y114.075
G3 X1.612 Y111.864 I0.911 J-1.3
G2 X26.224 Y61.103 I-145.574 J-101.932
X32.229 Y33.135 Z-3. I-170.186 J-51.17
X33.75 Y9.933 I-176.191 J-23.202
G1 Y3.583
G3 X35.338 Y1.995 I1.588 J0.
G1 X41.688
G3 X43.276 Y3.583 I0. J1.588
G1 Y9.933
G3 X9.414 Y117.328 I-187.237 J0.
X7.203 Y117.717 I-1.3 J-0.911
G1 X2.001 Y114.075
G3 X1.612 Y111.864 I0.911 J-1.3
G2 X32.229 Y33.135 I-145.574 J-101.932
X33.75 Y9.933 Z-3.813 I-176.191 J-23.202
G1 Y4.565 Z-4.
Y3.583
G3 X35.338 Y1.995 I1.588 J0.
G1 X41.688
G3 X43.276 Y3.583 I0. J1.588
G1 Y9.933
G3 X9.414 Y117.328 I-187.237 J0.
X7.203 Y117.717 I-1.3 J-0.911
G1 X2.001 Y114.075
G3 X1.612 Y111.864 I0.911 J-1.3
G2 X33.75 Y9.933 I-145.574 J-101.932
G1 Y4.565
Y3.583 Z-4.034
G3 X35.338 Y1.995 Z-4.121 I1.588 J0.
G1 X41.688 Z-4.343
G3 X43.276 Y3.583 Z-4.43 I0. J1.588
G1 Y9.933 Z-4.652
G3 X43.01 Y19.895 Z-5. I-187.237 J0.
X9.414 Y117.328 I-186.972 J-9.962
X7.203 Y117.717 I-1.3 J-0.911
G1 X2.001 Y114.075
G3 X1.612 Y111.864 I0.911 J-1.3
G2 X33.75 Y9.933 I-145.574 J-101.932
G1 Y4.565
Y3.583
G3 X35.338 Y1.995 I1.588 J0.
G1 X41.688
G3 X43.276 Y3.583 I0. J1.588
G1 Y9.933
G3 X43.01 Y19.895 I-187.237 J0.
X39.31 Y48.263 Z-6. I-186.972 J-9.962
X9.414 Y117.328 I-183.272 J-38.33
X7.203 Y117.717 I-1.3 J-0.911
G1 X2.001 Y114.075
G3 X1.612 Y111.864 I0.911 J-1.3
G2 X33.75 Y9.933 I-145.574 J-101.932
G1 Y3.583
G3 X35.338 Y1.995 I1.588 J0.
G1 X41.688
G3 X43.276 Y3.583 I0. J1.588
G1 Y9.933
G3 X39.31 Y48.263 I-187.237 J0.
X31.331 Y75.736 Z-7. I-183.272 J-38.33
X9.414 Y117.328 I-175.293 J-65.804
X7.203 Y117.717 I-1.3 J-0.911
G1 X2.001 Y114.075
G3 X1.612 Y111.864 I0.911 J-1.3
G2 X33.75 Y9.933 I-145.574 J-101.932
G1 Y3.583
G3 X35.338 Y1.995 I1.588 J0.
G1 X41.688
G3 X43.276 Y3.583 I0. J1.588
G1 Y9.933
G3 X31.331 Y75.736 I-187.237 J0.
X19.26 Y101.673 Z-8. I-175.293 J-65.804
X9.414 Y117.328 I-163.222 J-91.741
X7.203 Y117.717 I-1.3 J-0.911
G1 X2.001 Y114.075
G3 X1.612 Y111.864 I0.911 J-1.3
G2 X33.75 Y9.933 I-145.574 J-101.932
G1 Y3.583
G3 X35.338 Y1.995 I1.588 J0.
G1 X41.688
G3 X43.276 Y3.583 I0. J1.588
G1 Y9.933
G3 X19.26 Y101.673 I-187.237 J0.
X9.414 Y117.328 Z-8.646 I-163.222 J-91.741
X7.203 Y117.717 Z-8.733 I-1.3 J-0.911
G1 X2.001 Y114.075 Z-8.955
G3 X1.341 Y113.006 Z-9. I0.911 J-1.3
X1.612 Y111.864 I1.571 J-0.231
G2 X33.75 Y9.933 I-145.574 J-101.932
G1 Y3.583
G3 X35.338 Y1.995 I1.588 J0.
G1 X41.688
G3 X43.276 Y3.583 I0. J1.588
G1 Y9.933
G3 X9.414 Y117.328 I-187.237 J0.
X7.203 Y117.717 I-1.3 J-0.911
G1 X2.001 Y114.075
G3 X1.341 Y113.006 I0.911 J-1.3
X1.612 Y111.864 Z-9.042 I1.571 J-0.231
G2 X15.554 Y88.269 Z-10. I-145.574 J-101.932
X33.75 Y9.933 I-159.516 J-78.336
G1 Y3.583
G3 X35.338 Y1.995 I1.588 J0.
G1 X41.688
G3 X43.276 Y3.583 I0. J1.588
G1 Y9.933
G3 X9.414 Y117.328 I-187.237 J0.
X7.203 Y117.717 I-1.3 J-0.911
G1 X2.001 Y114.075
G3 X1.612 Y111.864 I0.911 J-1.3
G2 X15.554 Y88.269 I-145.574 J-101.932
X26.055 Y61.661 Z-11. I-159.516 J-78.336
X33.75 Y9.933 I-170.017 J-51.728
G1 Y3.583
G3 X35.338 Y1.995 I1.588 J0.
G1 X41.688
G3 X43.276 Y3.583 I0. J1.588
G1 Y9.933
G3 X9.414 Y117.328 I-187.237 J0.
X7.203 Y117.717 I-1.3 J-0.911
G1 X2.001 Y114.075
G3 X1.612 Y111.864 I0.911 J-1.3
G2 X26.055 Y61.661 I-145.574 J-101.932
X32.152 Y33.713 Z-12. I-170.017 J-51.728
X33.75 Y9.933 I-176.114 J-23.78
G1 Y3.583
G3 X35.338 Y1.995 I1.588 J0.
G1 X41.688
G3 X43.276 Y3.583 I0. J1.588
G1 Y9.933
G3 X9.414 Y117.328 I-187.237 J0.
X7.203 Y117.717 I-1.3 J-0.911
G1 X2.001 Y114.075
G3 X1.612 Y111.864 I0.911 J-1.3
G2 X32.152 Y33.713 I-145.574 J-101.932
X33.75 Y9.933 Z-12.833 I-176.114 J-23.78
G1 Y5.148 Z-13.
Y3.583
G3 X35.338 Y1.995 I1.588 J0.
G1 X41.688
G3 X43.276 Y3.583 I0. J1.588
G1 Y9.933
G3 X9.414 Y117.328 I-187.237 J0.
X7.203 Y117.717 I-1.3 J-0.911
G1 X2.001 Y114.075
G3 X1.612 Y111.864 I0.911 J-1.3
G2 X33.75 Y9.933 I-145.574 J-101.932
G1 Y5.148
Y3.583 Z-13.055
G3 X35.338 Y1.995 Z-13.142 I1.588 J0.
G1 X41.688 Z-13.363
G3 X43.276 Y3.583 Z-13.451 I0. J1.588
G1 Y9.933 Z-13.672
G3 X43.04 Y19.312 Z-14. I-187.237 J0.
X9.414 Y117.328 I-187.002 J-9.38
X7.203 Y117.717 I-1.3 J-0.911
G1 X2.001 Y114.075
G3 X1.612 Y111.864 I0.911 J-1.3
G2 X33.75 Y9.933 I-145.574 J-101.932
G1 Y5.148
Y3.583
G3 X35.338 Y1.995 I1.588 J0.
G1 X41.688
G3 X43.276 Y3.583 I0. J1.588
G1 Y9.933
G3 X43.04 Y19.312 I-187.237 J0.
X39.429 Y47.692 Z-15. I-187.002 J-9.38
X9.414 Y117.328 I-183.391 J-37.759
X7.203 Y117.717 I-1.3 J-0.911
G1 X2.001 Y114.075
G3 X1.612 Y111.864 I0.911 J-1.3
G2 X33.75 Y9.933 I-145.574 J-101.932
G1 Y3.583
G3 X35.338 Y1.995 I1.588 J0.
G1 X41.688
G3 X43.276 Y3.583 I0. J1.588
G1 Y9.933
G3 X39.429 Y47.692 I-187.237 J0.
X31.535 Y75.19 Z-16. I-183.391 J-37.759
X9.414 Y117.328 I-175.497 J-65.257
X7.203 Y117.717 I-1.3 J-0.911
G1 X2.001 Y114.075
G3 X1.612 Y111.864 I0.911 J-1.3
G2 X33.75 Y9.933 I-145.574 J-101.932
G1 Y3.583
G3 X35.338 Y1.995 I1.588 J0.
G1 X41.688
G3 X43.276 Y3.583 I0. J1.588
G1 Y9.933
G3 X31.535 Y75.19 I-187.237 J0.
X19.545 Y101.164 Z-17. I-175.497 J-65.257
X18.406 Y103.177 I-163.507 J-91.232
X17.962 Y103.945 Z-16.556 I-162.368 J-93.244
X16.345 Y106.677 I-161.924 J-94.013
X15.885 Y107.436 Z-17. I-160.307 J-96.745
X9.414 Y117.328 I-159.847 J-97.504
X7.203 Y117.717 I-1.3 J-0.911
G1 X2.001 Y114.075
G3 X1.612 Y111.864 I0.911 J-1.3
G2 X7.688 Y102.583 I-145.574 J-101.932
X8.148 Y101.825 Z-16.556 I-151.65 J-92.651
X9.766 Y99.093 I-152.11 J-91.892
X10.209 Y98.324 Z-17. I-153.728 J-89.16
X20.017 Y78.436 I-154.171 J-88.391
X20.357 Y77.616 Z-16.556 I-163.979 J-68.503
X21.54 Y74.67 I-164.319 J-67.683
X21.861 Y73.842 Z-17. I-165.502 J-64.737
X28.529 Y52.693 I-165.823 J-63.909
X28.741 Y51.831 Z-16.556 I-172.491 J-42.761
X29.462 Y48.739 I-172.703 J-41.899
X29.653 Y47.873 Z-17. I-173.424 J-38.807
X33.027 Y25.956 I-173.615 J-37.94
X33.104 Y25.072 Z-16.556 I-176.989 J-16.023
X33.347 Y21.906 I-177.067 J-15.139
X33.404 Y21.02 Z-17. I-177.309 J-11.973
X33.75 Y9.933 I-177.366 J-11.088
G1 Y3.583
G3 X35.338 Y1.995 I1.588 J0.
G1 X41.688
G3 X43.276 Y3.583 I0. J1.588
G1 Y9.933
G3 X42.902 Y21.747 I-187.237 J0.
X42.844 Y22.633 Z-16.556 I-186.864 J-11.814
X42.602 Y25.798 I-186.806 J-12.7
X42.525 Y26.683 Z-17. I-186.564 J-15.866
X38.93 Y50.036 I-186.487 J-16.75
X38.738 Y50.902 Z-16.556 I-182.892 J-40.103
X38.017 Y53.994 I-182.7 J-40.97
X37.806 Y54.857 Z-17. I-181.979 J-44.062
X30.701 Y77.391 I-181.768 J-44.924
X30.379 Y78.219 Z-16.556 I-174.663 J-67.459
X29.196 Y81.165 I-174.341 J-68.286
X28.857 Y81.985 Z-17. I-173.158 J-71.232
X19.545 Y101.164 I-172.819 J-72.052
X18.481 Y103.046 Z-17.075 I-163.507 J-91.232
X17.962 Y103.945 Z-16.556 I-162.443 J-93.113
X16.345 Y106.677 I-161.924 J-94.013
X15.6 Y107.901 Z-17.273 I-160.307 J-96.745
X14.43 Y109.782 Z-17.35 I-159.562 J-97.969
X9.414 Y117.328 I-158.392 J-99.849
X7.203 Y117.717 I-1.3 J-0.911
G1 X2.001 Y114.075
G3 X1.612 Y111.864 I0.911 J-1.3
G2 X7.321 Y103.18 I-145.574 J-101.932
X8.148 Y101.825 Z-16.556 I-151.283 J-93.247
X9.766 Y99.093 I-152.11 J-91.892
X10.556 Y97.716 Z-17.35 I-153.728 J-89.16
X19.746 Y79.081 I-154.518 J-87.783
X20.357 Y77.616 Z-16.556 I-163.708 J-69.148
X21.54 Y74.67 I-164.319 J-67.683
X22.112 Y73.188 Z-17.35 I-165.502 J-64.737
X28.36 Y53.373 I-166.074 J-63.256
X28.741 Y51.831 Z-16.556 I-172.322 J-43.44
X29.462 Y48.739 I-172.703 J-41.899
X29.801 Y47.189 Z-17.35 I-173.424 J-38.807
X32.962 Y26.653 I-173.763 J-37.256
X33.104 Y25.072 Z-16.556 I-176.924 J-16.72
X33.347 Y21.906 I-177.067 J-15.139
X33.447 Y20.321 Z-17.35 I-177.309 J-11.973
X33.75 Y9.933 I-177.409 J-10.389
G1 Y3.583
G3 X35.338 Y1.995 I1.588 J0.
G1 X41.688
G3 X43.276 Y3.583 I0. J1.588
G1 Y9.933
G3 X42.945 Y21.048 I-187.237 J0.
X42.844 Y22.633 Z-16.556 I-186.907 J-11.116
X42.602 Y25.798 I-186.806 J-12.7
X42.461 Y27.38 Z-17.35 I-186.564 J-15.866
X39.079 Y49.352 I-186.423 J-17.447
X38.738 Y50.902 Z-16.556 I-183.041 J-39.419
X38.017 Y53.994 I-182.7 J-40.97
X37.637 Y55.536 Z-17.35 I-181.979 J-44.062
X30.952 Y76.738 I-181.599 J-45.603
X30.379 Y78.219 Z-16.556 I-174.914 J-66.805
X29.196 Y81.165 I-174.341 J-68.286
X28.586 Y82.631 Z-17.35 I-173.158 J-71.232
X18.754 Y102.569 I-172.548 J-72.698
X17.962 Y103.945 Z-16.556 I-162.716 J-92.636
X16.345 Y106.677 I-161.924 J-94.013
X15.519 Y108.033 Z-17.35 I-160.307 J-96.745
X14.43 Y109.782 I-159.481 J-98.101
G2 X14.529 Y110.22 I0.269 J0.169
G1 X14.798 Y110.389
X14.858 Y110.427 Z-17.342
X14.914 Y110.463 Z-17.319
X14.965 Y110.495 Z-17.281
X15.008 Y110.522 Z-17.23
X15.04 Y110.542 Z-17.17
X15.06 Y110.554 Z-17.103
X15.066 Y110.558 Z-17.033
G0 Z6.
X49.845 Y63.63
G1 Z3.818 F1600.
X49.852 Y63.632 Z3.747
X49.875 Y63.639 Z3.68
X49.911 Y63.651 Z3.62
X49.959 Y63.666 Z3.569
X50.016 Y63.684 Z3.531
X50.08 Y63.704 Z3.508
X50.147 Y63.726 Z3.5
X50.45 Y63.822
G2 X50.849 Y63.615 I0.096 J-0.303
X59.151 Y9.933 Z1.596 I-169.411 J-53.682
G1 Y3.583 Z1.374
G3 X60.738 Y1.995 Z1.287 I1.587 J0.
G1 X67.088 Z1.065
G3 X68.675 Y3.583 Z0.978 I0. J1.588
G1 Y9.933 Z0.756
G3 X67.425 Y31.54 Z0. I-187.237 J0.
X34.814 Y117.328 I-185.986 J-21.607
X32.603 Y117.717 I-1.3 J-0.911
G1 X27.401 Y114.075
G3 X27.012 Y111.864 I0.911 J-1.3
G2 X59.151 Y9.933 I-145.574 J-101.932
G1 Y3.583
G3 X60.738 Y1.995 I1.587 J0.
G1 X67.088
G3 X68.675 Y3.583 I0. J1.588
G1 Y9.933
G3 X67.425 Y31.54 I-187.237 J0.
X61.962 Y59.622 Z-1. I-185.986 J-21.607
X34.814 Y117.328 I-180.524 J-49.689
X32.603 Y117.717 I-1.3 J-0.911
G1 X27.401 Y114.075
G3 X27.012 Y111.864 I0.911 J-1.3
G2 X59.151 Y9.933 I-145.574 J-101.932
G1 Y3.583
G3 X60.738 Y1.995 I1.587 J0.
G1 X67.088
G3 X68.675 Y3.583 I0. J1.588
G1 Y9.933
G3 X61.962 Y59.622 I-187.237 J0.
X52.285 Y86.544 Z-2. I-180.524 J-49.689
X34.814 Y117.328 I-170.847 J-76.611
X32.603 Y117.717 I-1.3 J-0.911
G1 X27.401 Y114.075
G3 X27.012 Y111.864 I0.911 J-1.3
G2 X59.151 Y9.933 I-145.574 J-101.932
G1 Y3.583
G3 X60.738 Y1.995 I1.587 J0.
G1 X67.088
G3 X68.675 Y3.583 I0. J1.588
G1 Y9.933
G3 X52.285 Y86.544 I-187.237 J0.
X38.619 Y111.677 Z-3. I-170.847 J-76.611
X34.814 Y117.328 I-157.181 J-101.745
X32.603 Y117.717 I-1.3 J-0.911
G1 X27.401 Y114.075
G3 X27.012 Y111.864 I0.911 J-1.3
G2 X59.151 Y9.933 I-145.574 J-101.932
G1 Y3.583
G3 X60.738 Y1.995 I1.587 J0.
G1 X67.088
G3 X68.675 Y3.583 I0. J1.588
G1 Y9.933
G3 X38.619 Y111.677 I-187.237 J0.
X34.814 Y117.328 Z-3.238 I-157.181 J-101.745
X32.603 Y117.717 Z-3.325 I-1.3 J-0.911
G1 X27.401 Y114.075 Z-3.547
G3 X27.012 Y111.864 Z-3.634 I0.911 J-1.3
G2 X32.77 Y103.102 Z-4. I-145.574 J-101.932
X59.151 Y9.933 I-151.332 J-93.169
G1 Y3.583
G3 X60.738 Y1.995 I1.587 J0.
G1 X67.088
G3 X68.675 Y3.583 I0. J1.588
G1 Y9.933
G3 X34.814 Y117.328 I-187.237 J0.
X32.603 Y117.717 I-1.3 J-0.911
G1 X27.401 Y114.075
G3 X27.012 Y111.864 I0.911 J-1.3
G2 X32.77 Y103.102 I-145.574 J-101.932
X45.757 Y77.615 Z-5. I-151.332 J-93.169
X59.151 Y9.933 I-164.319 J-67.682
G1 Y3.583
G3 X60.738 Y1.995 I1.587 J0.
G1 X67.088
G3 X68.675 Y3.583 I0. J1.588
G1 Y9.933
G3 X34.814 Y117.328 I-187.237 J0.
X32.603 Y117.717 I-1.3 J-0.911
G1 X27.401 Y114.075
G3 X27.012 Y111.864 I0.911 J-1.3
G2 X45.757 Y77.615 I-145.574 J-101.932
X54.488 Y50.374 Z-6. I-164.319 J-67.682
X59.151 Y9.933 I-173.05 J-40.442
G1 Y3.583
G3 X60.738 Y1.995 I1.587 J0.
G1 X67.088
G3 X68.675 Y3.583 I0. J1.588
G1 Y9.933
G3 X34.814 Y117.328 I-187.237 J0.
X32.603 Y117.717 I-1.3 J-0.911
G1 X27.401 Y114.075
G3 X27.012 Y111.864 I0.911 J-1.3
G2 X54.488 Y50.374 I-145.574 J-101.932
X58.734 Y22.086 Z-7. I-173.05 J-40.442
X59.151 Y9.933 I-177.296 J-12.153
G1 Y3.583
G3 X60.738 Y1.995 I1.587 J0.
G1 X67.088
G3 X68.675 Y3.583 I0. J1.588
G1 Y9.933
G3 X34.814 Y117.328 I-187.237 J0.
X32.603 Y117.717 I-1.3 J-0.911
G1 X27.401 Y114.075
G3 X27.012 Y111.864 I0.911 J-1.3
G2 X58.734 Y22.086 I-145.574 J-101.932
X59.151 Y9.933 Z-7.425 I-177.296 J-12.153
G1 Y3.583 Z-7.646
G3 X60.738 Y1.995 Z-7.734 I1.587 J0.
G1 X67.088 Z-7.955
G3 X68.234 Y2.484 Z-8. I0. J1.588
X68.675 Y3.583 I-1.146 J1.099
G1 Y9.933
G3 X34.814 Y117.328 I-187.237 J0.
X32.603 Y117.717 I-1.3 J-0.911
G1 X27.401 Y114.075
G3 X27.012 Y111.864 I0.911 J-1.3
G2 X59.151 Y9.933 I-145.574 J-101.932
G1 Y3.583
G3 X60.738 Y1.995 I1.587 J0.
G1 X67.088
G3 X68.234 Y2.484 I0. J1.588
X68.675 Y3.583 Z-8.042 I-1.146 J1.099
G1 Y9.933 Z-8.264
G3 X67.491 Y30.961 Z-9. I-187.237 J0.
X34.814 Y117.328 I-186.053 J-21.028
X32.603 Y117.717 I-1.3 J-0.911
G1 X27.401 Y114.075
G3 X27.012 Y111.864 I0.911 J-1.3
G2 X59.151 Y9.933 I-145.574 J-101.932
G1 Y3.583
G3 X60.738 Y1.995 I1.587 J0.
G1 X67.088
G3 X68.675 Y3.583 I0. J1.588
G1 Y9.933
G3 X67.491 Y30.961 I-187.237 J0.
X62.116 Y59.06 Z-10. I-186.053 J-21.028
X34.814 Y117.328 I-180.678 J-49.127
X32.603 Y117.717 I-1.3 J-0.911
G1 X27.401 Y114.075
G3 X27.012 Y111.864 I0.911 J-1.3
G2 X59.151 Y9.933 I-145.574 J-101.932
G1 Y3.583
G3 X60.738 Y1.995 I1.587 J0.
G1 X67.088
G3 X68.675 Y3.583 I0. J1.588
G1 Y9.933
G3 X62.116 Y59.06 I-187.237 J0.
X52.522 Y86.012 Z-11. I-180.678 J-49.127
X34.814 Y117.328 I-171.084 J-76.079
X32.603 Y117.717 I-1.3 J-0.911
G1 X27.401 Y114.075
G3 X27.012 Y111.864 I0.911 J-1.3
G2 X59.151 Y9.933 I-145.574 J-101.932
G1 Y3.583
G3 X60.738 Y1.995 I1.587 J0.
G1 X67.088
G3 X68.675 Y3.583 I0. J1.588
G1 Y9.933
G3 X52.522 Y86.012 I-187.237 J0.
X38.935 Y111.187 Z-12. I-171.084 J-76.079
X34.814 Y117.328 I-157.497 J-101.255
X32.603 Y117.717 I-1.3 J-0.911
G1 X27.401 Y114.075
G3 X27.012 Y111.864 I0.911 J-1.3
G2 X59.151 Y9.933 I-145.574 J-101.932
G1 Y3.583
G3 X60.738 Y1.995 I1.587 J0.
G1 X67.088
G3 X68.675 Y3.583 I0. J1.588
G1 Y9.933
G3 X38.935 Y111.187 I-187.237 J0.
X34.814 Y117.328 Z-12.258 I-157.497 J-101.255
X32.603 Y117.717 Z-12.345 I-1.3 J-0.911
G1 X27.401 Y114.075 Z-12.567
G3 X27.012 Y111.864 Z-12.654 I0.911 J-1.3
G2 X32.463 Y103.598 Z-13. I-145.574 J-101.932
X59.151 Y9.933 I-151.025 J-93.665
G1 Y3.583
G3 X60.738 Y1.995 I1.587 J0.
G1 X67.088
G3 X68.675 Y3.583 I0. J1.588
G1 Y9.933
G3 X34.814 Y117.328 I-187.237 J0.
X32.603 Y117.717 I-1.3 J-0.911
G1 X27.401 Y114.075
G3 X27.012 Y111.864 I0.911 J-1.3
G2 X32.463 Y103.598 I-145.574 J-101.932
X45.534 Y78.154 Z-14. I-151.025 J-93.665
X59.151 Y9.933 I-164.096 J-68.221
G1 Y3.583
G3 X60.738 Y1.995 I1.587 J0.
G1 X67.088
G3 X68.675 Y3.583 I0. J1.588
G1 Y9.933
G3 X34.814 Y117.328 I-187.237 J0.
X32.603 Y117.717 I-1.3 J-0.911
G1 X27.401 Y114.075
G3 X27.012 Y111.864 I0.911 J-1.3
G2 X45.534 Y78.154 I-145.574 J-101.932
X54.354 Y50.942 Z-15. I-164.096 J-68.221
X59.151 Y9.933 I-172.916 J-41.009
G1 Y3.583
G3 X60.738 Y1.995 I1.587 J0.
G1 X67.088
G3 X68.675 Y3.583 I0. J1.588
G1 Y9.933
G3 X34.814 Y117.328 I-187.237 J0.
X32.603 Y117.717 I-1.3 J-0.911
G1 X27.401 Y114.075
G3 X27.012 Y111.864 I0.911 J-1.3
G2 X54.354 Y50.942 I-145.574 J-101.932
X58.694 Y22.668 Z-16. I-172.916 J-41.009
X59.151 Y9.933 I-177.256 J-12.735
G1 Y3.583
G3 X60.738 Y1.995 I1.587 J0.
G1 X67.088
G3 X68.675 Y3.583 I0. J1.588
G1 Y9.933
G3 X34.814 Y117.328 I-187.237 J0.
X32.603 Y117.717 I-1.3 J-0.911
G1 X27.401 Y114.075
G3 X27.012 Y111.864 I0.911 J-1.3
G2 X58.694 Y22.668 I-145.574 J-101.932
X59.151 Y9.933 Z-16.445 I-177.256 J-12.735
G1 Y3.583 Z-16.667
G3 X60.738 Y1.995 Z-16.754 I1.587 J0.
G1 X67.088 Z-16.976
G3 X67.763 Y2.146 Z-17. I0. J1.588
X68.675 Y3.583 I-0.675 J1.437
G1 Y9.933
G3 X68.302 Y21.747 I-187.237 J0.
X68.244 Y22.633 Z-16.556 I-186.864 J-11.814
X68.002 Y25.798 I-186.806 J-12.7
X67.925 Y26.683 Z-17. I-186.564 J-15.866
X64.33 Y50.036 I-186.487 J-16.75
X64.138 Y50.902 Z-16.556 I-182.892 J-40.103
X63.417 Y53.994 I-182.7 J-40.97
X63.206 Y54.857 Z-17. I-181.979 J-44.062
X56.101 Y77.391 I-181.768 J-44.924
X55.779 Y78.219 Z-16.556 I-174.663 J-67.459
X54.596 Y81.165 I-174.341 J-68.286
X54.257 Y81.985 Z-17. I-173.158 J-71.232
X43.806 Y103.177 I-172.819 J-72.052
X43.362 Y103.945 Z-16.556 I-162.368 J-93.244
X41.745 Y106.677 I-161.924 J-94.013
X41.285 Y107.436 Z-17. I-160.307 J-96.745
X34.814 Y117.328 I-159.847 J-97.504
X32.603 Y117.717 I-1.3 J-0.911
G1 X27.401 Y114.075
G3 X27.012 Y111.864 I0.911 J-1.3
G2 X33.088 Y102.583 I-145.574 J-101.932
X33.548 Y101.825 Z-16.556 I-151.65 J-92.651
X35.166 Y99.093 I-152.11 J-91.892
X35.609 Y98.324 Z-17. I-153.728 J-89.16
X45.417 Y78.436 I-154.171 J-88.391
X45.757 Y77.616 Z-16.556 I-163.979 J-68.503
X46.94 Y74.67 I-164.319 J-67.683
X47.261 Y73.842 Z-17. I-165.502 J-64.737
X53.929 Y52.693 I-165.823 J-63.909
X54.141 Y51.831 Z-16.556 I-172.491 J-42.761
X54.862 Y48.739 I-172.703 J-41.899
X55.053 Y47.873 Z-17. I-173.424 J-38.807
X58.427 Y25.956 I-173.615 J-37.94
X58.505 Y25.072 Z-16.556 I-176.989 J-16.023
X58.747 Y21.906 I-177.067 J-15.139
X58.804 Y21.02 Z-17. I-177.309 J-11.973
X59.151 Y9.933 I-177.366 J-11.087
G1 Y3.583
G3 X60.738 Y1.995 I1.587 J0.
G1 X67.088
G3 X67.763 Y2.146 I0. J1.588
X68.675 Y3.583 Z-17.063 I-0.675 J1.437
G1 Y9.933 Z-17.284
G3 X68.666 Y11.808 Z-17.35 I-187.237 J0.
X68.345 Y21.048 I-187.228 J-1.876
X68.244 Y22.633 Z-16.556 I-186.907 J-11.116
X68.002 Y25.798 I-186.806 J-12.7
X67.861 Y27.38 Z-17.35 I-186.564 J-15.866
X64.479 Y49.352 I-186.423 J-17.447
X64.138 Y50.902 Z-16.556 I-183.041 J-39.419
X63.417 Y53.994 I-182.7 J-40.97
X63.037 Y55.536 Z-17.35 I-181.979 J-44.062
X56.352 Y76.738 I-181.599 J-45.603
X55.779 Y78.219 Z-16.556 I-174.914 J-66.805
X54.596 Y81.165 I-174.341 J-68.286
X53.986 Y82.631 Z-17.35 I-173.158 J-71.232
X44.154 Y102.569 I-172.548 J-72.698
X43.362 Y103.945 Z-16.556 I-162.716 J-92.636
X41.745 Y106.677 I-161.924 J-94.013
X40.919 Y108.033 Z-17.35 I-160.307 J-96.745
X34.814 Y117.328 I-159.481 J-98.101
X32.603 Y117.717 I-1.3 J-0.911
G1 X27.401 Y114.075
G3 X27.012 Y111.864 I0.911 J-1.3
G2 X32.721 Y103.18 I-145.574 J-101.932
X33.548 Y101.825 Z-16.556 I-151.283 J-93.247
X35.166 Y99.093 I-152.11 J-91.892
X35.956 Y97.716 Z-17.35 I-153.728 J-89.16
X45.146 Y79.081 I-154.518 J-87.783
X45.757 Y77.616 Z-16.556 I-163.708 J-69.148
X46.94 Y74.67 I-164.319 J-67.683
X47.512 Y73.188 Z-17.35 I-165.502 J-64.737
X53.76 Y53.373 I-166.074 J-63.256
X54.141 Y51.831 Z-16.556 I-172.322 J-43.44
X54.862 Y48.739 I-172.703 J-41.899
X55.201 Y47.189 Z-17.35 I-173.424 J-38.807
X58.362 Y26.653 I-173.763 J-37.256
X58.505 Y25.072 Z-16.556 I-176.924 J-16.72
X58.747 Y21.906 I-177.067 J-15.139
X58.847 Y20.321 Z-17.35 I-177.309 J-11.973
X59.151 Y9.933 I-177.409 J-10.389
G1 Y3.583
G3 X60.738 Y1.995 I1.587 J0.
G1 X67.088
G3 X68.675 Y3.583 I0. J1.588
G1 Y9.933
G3 X68.666 Y11.808 I-187.237 J0.
G2 X68.98 Y12.129 I0.317 J0.003
G1 X69.298 Y12.132
X69.369 Y12.133 Z-17.342
X69.436 Y12.134 Z-17.319
X69.496 Z-17.281
X69.546 Y12.135 Z-17.23
X69.584 Z-17.17
X69.607 Z-17.103
X69.615 Z-17.033
G0 Z16.
M5
G0 Z15
G0 X0 Y0

M9
M30
