(1001)
(T1  D=6.35 CR=0. - ZMIN=-4.675 - FLAT END MILL)
G90 G94 G91.1 G40 G49 G17
G21
G0 Z15

(2D POCKET3)
M5
T1 M6
S15000 M3
G54
M8
G0 X146.241 Y151.07
G43 Z16. H1
Z6.
G1 Z4.135 F1600.
X146.235 Y151.041 Z3.941
X146.217 Y150.954 Z3.765
X146.183 Y150.821 Z3.625
X146.133 Y150.654 Z3.534
X146.065 Y150.473 Z3.5
G2 X140.483 Y152.759 Z3.335 I-2.791 J1.143
X146.065 Y150.473 Z3.169 I2.791 J-1.143
X140.483 Y152.759 Z3.004 I-2.791 J1.143
X146.065 Y150.473 Z2.838 I2.791 J-1.143
X140.483 Y152.759 Z2.673 I-2.791 J1.143
X146.065 Y150.473 Z2.508 I2.791 J-1.143
X140.483 Y152.759 Z2.342 I-2.791 J1.143
X146.065 Y150.473 Z2.177 I2.791 J-1.143
X140.483 Y152.759 Z2.011 I-2.791 J1.143
X146.065 Y150.473 Z1.846 I2.791 J-1.143
X140.483 Y152.759 Z1.681 I-2.791 J1.143
X146.065 Y150.473 Z1.515 I2.791 J-1.143
X140.483 Y152.759 Z1.35 I-2.791 J1.143
X146.065 Y150.473 Z1.184 I2.791 J-1.143
X140.483 Y152.759 Z1.019 I-2.791 J1.143
X146.065 Y150.473 Z0.854 I2.791 J-1.143
X141.141 Y149.483 Z0.75 I-2.791 J1.143
X140.568 Y150.866 I1.383 J1.383
X142.524 Y152.82 I1.955 J0.
G1 X142.525
G2 X144.48 Y150.865 I0. J-1.955
X142.524 Y148.911 I-1.955 J0.
X141.141 Y149.483 I0. J1.955
G3 X137.507 Y150.633 I-2.925 J-2.925
G2 X135.054 Y153.551 I-0.378 J2.172
X142.524 Y158.803 I7.469 J-2.685
G1 X142.525
G2 X150.462 Y150.865 I0. J-7.938
X142.524 Y142.928 I-7.938 J0.
G1 X142.523
G2 X134.586 Y150.865 I0. J7.938
G1 Y150.866
G2 X135.054 Y153.551 I7.938 J0.
X138.398 Y155.504 Z0.7 I2.838 J-1.02
G1 X143.779 Y154.59 Z0.635
G2 X142.769 Y148.642 Z0.522 I-0.505 J-2.974
X141.141 Y149.483 Z0.5 I0.505 J2.974
X140.568 Y150.866 I1.383 J1.383
X142.524 Y152.82 I1.955 J0.
G1 X142.525
G2 X144.48 Y150.865 I0. J-1.955
X142.524 Y148.911 I-1.955 J0.
X141.141 Y149.483 I0. J1.955
G3 X137.507 Y150.633 I-2.925 J-2.925
G2 X135.054 Y153.551 I-0.378 J2.172
X142.524 Y158.803 I7.469 J-2.685
G1 X142.525
G2 X150.462 Y150.865 I0. J-7.938
X142.524 Y142.928 I-7.938 J0.
G1 X142.523
G2 X134.586 Y150.865 I0. J7.938
G1 Y150.866
G2 X135.054 Y153.551 I7.938 J0.
X138.398 Y155.504 Z0.45 I2.838 J-1.02
G1 X143.779 Y154.59 Z0.385
G2 X142.769 Y148.642 Z0.272 I-0.505 J-2.974
X141.141 Y149.483 Z0.25 I0.505 J2.974
X140.568 Y150.866 I1.383 J1.383
X142.524 Y152.82 I1.955 J0.
G1 X142.525
G2 X144.48 Y150.865 I0. J-1.955
X142.524 Y148.911 I-1.955 J0.
X141.141 Y149.483 I0. J1.955
G3 X137.507 Y150.633 I-2.925 J-2.925
G2 X135.054 Y153.551 I-0.378 J2.172
X142.524 Y158.803 I7.469 J-2.685
G1 X142.525
G2 X150.462 Y150.865 I0. J-7.938
X142.524 Y142.928 I-7.938 J0.
G1 X142.523
G2 X134.586 Y150.865 I0. J7.938
G1 Y150.866
G2 X135.054 Y153.551 I7.938 J0.
X138.398 Y155.504 Z0.2 I2.838 J-1.02
G1 X143.779 Y154.59 Z0.135
G2 X142.769 Y148.642 Z0.022 I-0.505 J-2.974
X141.141 Y149.483 Z0. I0.505 J2.974
X140.568 Y150.866 I1.383 J1.383
X142.524 Y152.82 I1.955 J0.
G1 X142.525
G2 X144.48 Y150.865 I0. J-1.955
X142.524 Y148.911 I-1.955 J0.
X141.141 Y149.483 I0. J1.955
G3 X137.507 Y150.633 I-2.925 J-2.925
G2 X135.054 Y153.551 I-0.378 J2.172
X142.524 Y158.803 I7.469 J-2.685
G1 X142.525
G2 X150.462 Y150.865 I0. J-7.938
X142.524 Y142.928 I-7.938 J0.
G1 X142.523
G2 X134.586 Y150.865 I0. J7.938
G1 Y150.866
G2 X135.054 Y153.551 I7.938 J0.
X138.398 Y155.504 Z-0.05 I2.838 J-1.02
G1 X143.779 Y154.59 Z-0.115
G2 X142.769 Y148.642 Z-0.228 I-0.505 J-2.974
X141.141 Y149.483 Z-0.25 I0.505 J2.974
X140.568 Y150.866 I1.383 J1.383
X142.524 Y152.82 I1.955 J0.
G1 X142.525
G2 X144.48 Y150.865 I0. J-1.955
X142.524 Y148.911 I-1.955 J0.
X141.141 Y149.483 I0. J1.955
G3 X137.507 Y150.633 I-2.925 J-2.925
G2 X135.054 Y153.551 I-0.378 J2.172
X142.524 Y158.803 I7.469 J-2.685
G1 X142.525
G2 X150.462 Y150.865 I0. J-7.938
X142.524 Y142.928 I-7.938 J0.
G1 X142.523
G2 X134.586 Y150.865 I0. J7.938
G1 Y150.866
G2 X135.054 Y153.551 I7.938 J0.
X138.398 Y155.504 Z-0.3 I2.838 J-1.02
G1 X143.779 Y154.59 Z-0.365
G2 X142.769 Y148.642 Z-0.478 I-0.505 J-2.974
X141.141 Y149.483 Z-0.5 I0.505 J2.974
X140.568 Y150.866 I1.383 J1.383
X142.524 Y152.82 I1.955 J0.
G1 X142.525
G2 X144.48 Y150.865 I0. J-1.955
X142.524 Y148.911 I-1.955 J0.
X141.141 Y149.483 I0. J1.955
G3 X137.507 Y150.633 I-2.925 J-2.925
G2 X135.054 Y153.551 I-0.378 J2.172
X142.524 Y158.803 I7.469 J-2.685
G1 X142.525
G2 X150.462 Y150.865 I0. J-7.938
X142.524 Y142.928 I-7.938 J0.
G1 X142.523
G2 X134.586 Y150.865 I0. J7.938
G1 Y150.866
G2 X135.054 Y153.551 I7.938 J0.
X138.398 Y155.504 Z-0.55 I2.838 J-1.02
G1 X143.779 Y154.59 Z-0.615
G2 X142.769 Y148.642 Z-0.728 I-0.505 J-2.974
X141.141 Y149.483 Z-0.75 I0.505 J2.974
X140.568 Y150.866 I1.383 J1.383
X142.524 Y152.82 I1.955 J0.
G1 X142.525
G2 X144.48 Y150.865 I0. J-1.955
X142.524 Y148.911 I-1.955 J0.
X141.141 Y149.483 I0. J1.955
G3 X137.507 Y150.633 I-2.925 J-2.925
G2 X135.054 Y153.551 I-0.378 J2.172
X142.524 Y158.803 I7.469 J-2.685
G1 X142.525
G2 X150.462 Y150.865 I0. J-7.938
X142.524 Y142.928 I-7.938 J0.
G1 X142.523
G2 X134.586 Y150.865 I0. J7.938
G1 Y150.866
G2 X135.054 Y153.551 I7.938 J0.
X138.398 Y155.504 Z-0.8 I2.838 J-1.02
G1 X143.779 Y154.59 Z-0.865
G2 X142.769 Y148.642 Z-0.978 I-0.505 J-2.974
X141.141 Y149.483 Z-1. I0.505 J2.974
X140.568 Y150.866 I1.383 J1.383
X142.524 Y152.82 I1.955 J0.
G1 X142.525
G2 X144.48 Y150.865 I0. J-1.955
X142.524 Y148.911 I-1.955 J0.
X141.141 Y149.483 I0. J1.955
G3 X137.507 Y150.633 I-2.925 J-2.925
G2 X135.054 Y153.551 I-0.378 J2.172
X142.524 Y158.803 I7.469 J-2.685
G1 X142.525
G2 X150.462 Y150.865 I0. J-7.938
X142.524 Y142.928 I-7.938 J0.
G1 X142.523
G2 X134.586 Y150.865 I0. J7.938
G1 Y150.866
G2 X135.054 Y153.551 I7.938 J0.
X138.398 Y155.504 Z-1.05 I2.838 J-1.02
G1 X143.779 Y154.59 Z-1.115
G2 X142.769 Y148.642 Z-1.228 I-0.505 J-2.974
X141.141 Y149.483 Z-1.25 I0.505 J2.974
X140.568 Y150.866 I1.383 J1.383
X142.524 Y152.82 I1.955 J0.
G1 X142.525
G2 X144.48 Y150.865 I0. J-1.955
X142.524 Y148.911 I-1.955 J0.
X141.141 Y149.483 I0. J1.955
G3 X137.507 Y150.633 I-2.925 J-2.925
G2 X135.054 Y153.551 I-0.378 J2.172
X142.524 Y158.803 I7.469 J-2.685
G1 X142.525
G2 X150.462 Y150.865 I0. J-7.938
X142.524 Y142.928 I-7.938 J0.
G1 X142.523
G2 X134.586 Y150.865 I0. J7.938
G1 Y150.866
G2 X135.054 Y153.551 I7.938 J0.
X138.398 Y155.504 Z-1.3 I2.838 J-1.02
G1 X143.779 Y154.59 Z-1.365
G2 X142.769 Y148.642 Z-1.478 I-0.505 J-2.974
X141.141 Y149.483 Z-1.5 I0.505 J2.974
X140.568 Y150.866 I1.383 J1.383
X142.524 Y152.82 I1.955 J0.
G1 X142.525
G2 X144.48 Y150.865 I0. J-1.955
X142.524 Y148.911 I-1.955 J0.
X141.141 Y149.483 I0. J1.955
G3 X137.507 Y150.633 I-2.925 J-2.925
G2 X135.054 Y153.551 I-0.378 J2.172
X142.524 Y158.803 I7.469 J-2.685
G1 X142.525
G2 X150.462 Y150.865 I0. J-7.938
X142.524 Y142.928 I-7.938 J0.
G1 X142.523
G2 X134.586 Y150.865 I0. J7.938
G1 Y150.866
G2 X135.054 Y153.551 I7.938 J0.
X138.398 Y155.504 Z-1.55 I2.838 J-1.02
G1 X143.779 Y154.59 Z-1.615
G2 X142.769 Y148.642 Z-1.728 I-0.505 J-2.974
X141.141 Y149.483 Z-1.75 I0.505 J2.974
X140.568 Y150.866 I1.383 J1.383
X142.524 Y152.82 I1.955 J0.
G1 X142.525
G2 X144.48 Y150.865 I0. J-1.955
X142.524 Y148.911 I-1.955 J0.
X141.141 Y149.483 I0. J1.955
G3 X137.507 Y150.633 I-2.925 J-2.925
G2 X135.054 Y153.551 I-0.378 J2.172
X142.524 Y158.803 I7.469 J-2.685
G1 X142.525
G2 X150.462 Y150.865 I0. J-7.938
X142.524 Y142.928 I-7.938 J0.
G1 X142.523
G2 X134.586 Y150.865 I0. J7.938
G1 Y150.866
G2 X135.054 Y153.551 I7.938 J0.
X138.398 Y155.504 Z-1.8 I2.838 J-1.02
G1 X143.779 Y154.59 Z-1.865
G2 X142.769 Y148.642 Z-1.978 I-0.505 J-2.974
X141.141 Y149.483 Z-2. I0.505 J2.974
X140.568 Y150.866 I1.383 J1.383
X142.524 Y152.82 I1.955 J0.
G1 X142.525
G2 X144.48 Y150.865 I0. J-1.955
X142.524 Y148.911 I-1.955 J0.
X141.141 Y149.483 I0. J1.955
G3 X137.507 Y150.633 I-2.925 J-2.925
G2 X135.054 Y153.551 I-0.378 J2.172
X142.524 Y158.803 I7.469 J-2.685
G1 X142.525
G2 X150.462 Y150.865 I0. J-7.938
X142.524 Y142.928 I-7.938 J0.
G1 X142.523
G2 X134.586 Y150.865 I0. J7.938
G1 Y150.866
G2 X135.054 Y153.551 I7.938 J0.
X138.398 Y155.504 Z-2.05 I2.838 J-1.02
G1 X143.779 Y154.59 Z-2.115
G2 X142.769 Y148.642 Z-2.228 I-0.505 J-2.974
X141.141 Y149.483 Z-2.25 I0.505 J2.974
X140.568 Y150.866 I1.383 J1.383
X142.524 Y152.82 I1.955 J0.
G1 X142.525
G2 X144.48 Y150.865 I0. J-1.955
X142.524 Y148.911 I-1.955 J0.
X141.141 Y149.483 I0. J1.955
G3 X137.507 Y150.633 I-2.925 J-2.925
G2 X135.054 Y153.551 I-0.378 J2.172
X142.524 Y158.803 I7.469 J-2.685
G1 X142.525
G2 X150.462 Y150.865 I0. J-7.938
X142.524 Y142.928 I-7.938 J0.
G1 X142.523
G2 X134.586 Y150.865 I0. J7.938
G1 Y150.866
G2 X135.054 Y153.551 I7.938 J0.
X138.398 Y155.504 Z-2.3 I2.838 J-1.02
G1 X143.779 Y154.59 Z-2.365
G2 X142.769 Y148.642 Z-2.478 I-0.505 J-2.974
X141.141 Y149.483 Z-2.5 I0.505 J2.974
X140.568 Y150.866 I1.383 J1.383
X142.524 Y152.82 I1.955 J0.
G1 X142.525
G2 X144.48 Y150.865 I0. J-1.955
X142.524 Y148.911 I-1.955 J0.
X141.141 Y149.483 I0. J1.955
G3 X137.507 Y150.633 I-2.925 J-2.925
G2 X135.054 Y153.551 I-0.378 J2.172
X142.524 Y158.803 I7.469 J-2.685
G1 X142.525
G2 X150.462 Y150.865 I0. J-7.938
X142.524 Y142.928 I-7.938 J0.
G1 X142.523
G2 X134.586 Y150.865 I0. J7.938
G1 Y150.866
G2 X135.054 Y153.551 I7.938 J0.
X138.398 Y155.504 Z-2.55 I2.838 J-1.02
G1 X143.779 Y154.59 Z-2.615
G2 X142.769 Y148.642 Z-2.728 I-0.505 J-2.974
X141.141 Y149.483 Z-2.75 I0.505 J2.974
X140.568 Y150.866 I1.383 J1.383
X142.524 Y152.82 I1.955 J0.
G1 X142.525
G2 X144.48 Y150.865 I0. J-1.955
X142.524 Y148.911 I-1.955 J0.
X141.141 Y149.483 I0. J1.955
G3 X137.507 Y150.633 I-2.925 J-2.925
G2 X135.054 Y153.551 I-0.378 J2.172
X142.524 Y158.803 I7.469 J-2.685
G1 X142.525
G2 X150.462 Y150.865 I0. J-7.938
X142.524 Y142.928 I-7.938 J0.
G1 X142.523
G2 X134.586 Y150.865 I0. J7.938
G1 Y150.866
G2 X135.054 Y153.551 I7.938 J0.
X138.398 Y155.504 Z-2.8 I2.838 J-1.02
G1 X143.779 Y154.59 Z-2.865
G2 X142.769 Y148.642 Z-2.978 I-0.505 J-2.974
X141.141 Y149.483 Z-3. I0.505 J2.974
X140.568 Y150.866 I1.383 J1.383
X142.524 Y152.82 I1.955 J0.
G1 X142.525
G2 X144.48 Y150.865 I0. J-1.955
X142.524 Y148.911 I-1.955 J0.
X141.141 Y149.483 I0. J1.955
G3 X137.507 Y150.633 I-2.925 J-2.925
G2 X135.054 Y153.551 I-0.378 J2.172
X142.524 Y158.803 I7.469 J-2.685
G1 X142.525
G2 X150.462 Y150.865 I0. J-7.938
X142.524 Y142.928 I-7.938 J0.
G1 X142.523
G2 X134.586 Y150.865 I0. J7.938
G1 Y150.866
G2 X135.054 Y153.551 I7.938 J0.
X138.398 Y155.504 Z-3.05 I2.838 J-1.02
G1 X143.779 Y154.59 Z-3.115
G2 X142.769 Y148.642 Z-3.228 I-0.505 J-2.974
X141.141 Y149.483 Z-3.25 I0.505 J2.974
X140.568 Y150.866 I1.383 J1.383
X142.524 Y152.82 I1.955 J0.
G1 X142.525
G2 X144.48 Y150.865 I0. J-1.955
X142.524 Y148.911 I-1.955 J0.
X141.141 Y149.483 I0. J1.955
G3 X137.507 Y150.633 I-2.925 J-2.925
G2 X135.054 Y153.551 I-0.378 J2.172
X142.524 Y158.803 I7.469 J-2.685
G1 X142.525
G2 X150.462 Y150.865 I0. J-7.938
X142.524 Y142.928 I-7.938 J0.
G1 X142.523
G2 X134.586 Y150.865 I0. J7.938
G1 Y150.866
G2 X135.054 Y153.551 I7.938 J0.
X138.398 Y155.504 Z-3.3 I2.838 J-1.02
G1 X143.779 Y154.59 Z-3.365
G2 X142.769 Y148.642 Z-3.478 I-0.505 J-2.974
X141.141 Y149.483 Z-3.5 I0.505 J2.974
X140.568 Y150.866 I1.383 J1.383
X142.524 Y152.82 I1.955 J0.
G1 X142.525
G2 X144.48 Y150.865 I0. J-1.955
X142.524 Y148.911 I-1.955 J0.
X141.141 Y149.483 I0. J1.955
G3 X137.507 Y150.633 I-2.925 J-2.925
G2 X135.054 Y153.551 I-0.378 J2.172
X142.524 Y158.803 I7.469 J-2.685
G1 X142.525
G2 X150.462 Y150.865 I0. J-7.938
X142.524 Y142.928 I-7.938 J0.
G1 X142.523
G2 X134.586 Y150.865 I0. J7.938
G1 Y150.866
G2 X135.054 Y153.551 I7.938 J0.
X138.398 Y155.504 Z-3.55 I2.838 J-1.02
G1 X143.779 Y154.59 Z-3.615
G2 X142.769 Y148.642 Z-3.728 I-0.505 J-2.974
X141.141 Y149.483 Z-3.75 I0.505 J2.974
X140.568 Y150.866 I1.383 J1.383
X142.524 Y152.82 I1.955 J0.
G1 X142.525
G2 X144.48 Y150.865 I0. J-1.955
X142.524 Y148.911 I-1.955 J0.
X141.141 Y149.483 I0. J1.955
G3 X137.507 Y150.633 I-2.925 J-2.925
G2 X135.054 Y153.551 I-0.378 J2.172
X142.524 Y158.803 I7.469 J-2.685
G1 X142.525
G2 X150.462 Y150.865 I0. J-7.938
X142.524 Y142.928 I-7.938 J0.
G1 X142.523
G2 X134.586 Y150.865 I0. J7.938
G1 Y150.866
G2 X135.054 Y153.551 I7.938 J0.
X138.398 Y155.504 Z-3.8 I2.838 J-1.02
G1 X143.779 Y154.59 Z-3.865
G2 X142.769 Y148.642 Z-3.978 I-0.505 J-2.974
X141.141 Y149.483 Z-4. I0.505 J2.974
X140.568 Y150.866 I1.383 J1.383
X142.524 Y152.82 I1.955 J0.
G1 X142.525
G2 X144.48 Y150.865 I0. J-1.955
X142.524 Y148.911 I-1.955 J0.
X141.141 Y149.483 I0. J1.955
G3 X137.507 Y150.633 I-2.925 J-2.925
G2 X135.054 Y153.551 I-0.378 J2.172
X142.524 Y158.803 I7.469 J-2.685
G1 X142.525
G2 X150.462 Y150.865 I0. J-7.938
X142.524 Y142.928 I-7.938 J0.
G1 X142.523
G2 X134.586 Y150.865 I0. J7.938
G1 Y150.866
G2 X135.054 Y153.551 I7.938 J0.
X138.398 Y155.504 Z-4.05 I2.838 J-1.02
G1 X143.779 Y154.59 Z-4.115
G2 X142.769 Y148.642 Z-4.228 I-0.505 J-2.974
X141.141 Y149.483 Z-4.25 I0.505 J2.974
X140.568 Y150.866 I1.383 J1.383
X142.524 Y152.82 I1.955 J0.
G1 X142.525
G2 X144.48 Y150.865 I0. J-1.955
X142.524 Y148.911 I-1.955 J0.
X141.141 Y149.483 I0. J1.955
G3 X137.507 Y150.633 I-2.925 J-2.925
G2 X135.054 Y153.551 I-0.378 J2.172
X142.524 Y158.803 I7.469 J-2.685
G1 X142.525
G2 X150.462 Y150.865 I0. J-7.938
X142.524 Y142.928 I-7.938 J0.
G1 X142.523
G2 X134.586 Y150.865 I0. J7.938
G1 Y150.866
G2 X135.054 Y153.551 I7.938 J0.
X138.398 Y155.504 Z-4.3 I2.838 J-1.02
G1 X143.779 Y154.59 Z-4.365
G2 X142.769 Y148.642 Z-4.478 I-0.505 J-2.974
X141.141 Y149.483 Z-4.5 I0.505 J2.974
X140.568 Y150.866 I1.383 J1.383
X142.524 Y152.82 I1.955 J0.
G1 X142.525
G2 X144.48 Y150.865 I0. J-1.955
X142.524 Y148.911 I-1.955 J0.
X141.141 Y149.483 I0. J1.955
G3 X137.507 Y150.633 I-2.925 J-2.925
G2 X135.054 Y153.551 I-0.378 J2.172
X142.524 Y158.803 I7.469 J-2.685
G1 X142.525
G2 X150.462 Y150.865 I0. J-7.938
X142.524 Y142.928 I-7.938 J0.
G1 X142.523
G2 X134.586 Y150.865 I0. J7.938
G1 Y150.866
G2 X135.054 Y153.551 I7.938 J0.
X138.398 Y155.504 Z-4.535 I2.838 J-1.02
G1 X143.779 Y154.59 Z-4.581
G2 X142.769 Y148.642 Z-4.659 I-0.505 J-2.974
X141.141 Y149.483 Z-4.675 I0.505 J2.974
X140.568 Y150.866 I1.383 J1.383
X142.524 Y152.82 I1.955 J0.
G1 X142.525
G2 X144.48 Y150.865 I0. J-1.955
X142.524 Y148.911 I-1.955 J0.
X141.141 Y149.483 I0. J1.955
G3 X137.507 Y150.633 I-2.925 J-2.925
G2 X135.054 Y153.551 I-0.378 J2.172
X142.524 Y158.803 I7.469 J-2.685
G1 X142.525
G2 X150.462 Y150.865 I0. J-7.938
X142.524 Y142.928 I-7.938 J0.
G1 X142.523
G2 X134.586 Y150.865 I0. J7.938
G1 Y150.866
G2 X135.054 Y153.551 I7.938 J0.
G1 X135.094 Y153.64 Z-4.659
X135.148 Y153.723 Z-4.644
X135.206 Y153.789 Z-4.599
X135.274 Y153.846 Z-4.554
X135.332 Y153.885 Z-4.483
X135.395 Y153.917 Z-4.413
X135.479 Y153.947 Z-4.236
X135.51 Y153.955 Z-4.04
G0 Z6.
X76.298 Y76.54
G1 Z4.135 F1600.
X76.273 Y76.522 Z3.941
X76.199 Y76.474 Z3.765
X76.081 Y76.403 Z3.625
X75.928 Y76.321 Z3.534
X75.752 Y76.241 Z3.5
G2 X73.422 Y81.805 Z3.335 I-1.165 J2.782
X75.752 Y76.241 Z3.169 I1.165 J-2.782
X73.422 Y81.805 Z3.004 I-1.165 J2.782
X75.752 Y76.241 Z2.838 I1.165 J-2.782
X73.422 Y81.805 Z2.673 I-1.165 J2.782
X75.752 Y76.241 Z2.508 I1.165 J-2.782
X73.422 Y81.805 Z2.342 I-1.165 J2.782
X75.752 Y76.241 Z2.177 I1.165 J-2.782
X73.422 Y81.805 Z2.011 I-1.165 J2.782
X75.752 Y76.241 Z1.846 I1.165 J-2.782
X73.422 Y81.805 Z1.681 I-1.165 J2.782
X75.752 Y76.241 Z1.515 I1.165 J-2.782
X73.422 Y81.805 Z1.35 I-1.165 J2.782
X75.752 Y76.241 Z1.184 I1.165 J-2.782
X73.422 Y81.805 Z1.019 I-1.165 J2.782
X75.752 Y76.241 Z0.854 I1.165 J-2.782
X71.571 Y79.023 Z0.75 I-1.165 J2.782
X75.825 I2.127 J0.
X65.538 I-5.143 J0.
X81.857 I8.16 J0.
X59.506 I-11.176 J0.
X81.857 I11.176 J0.
X81.427 Y78.727 I-0.317 J0.
G1 X74.376 Y81.424
G2 X74.478 Y82.037 I0.113 J0.297
X74.695 Y76.009 Z0.585 I0.109 J-3.014
X71.571 Y79.023 Z0.5 I-0.109 J3.014
X75.825 I2.127 J0.
X65.538 I-5.143 J0.
X81.857 I8.16 J0.
X59.506 I-11.176 J0.
X81.857 I11.176 J0.
X81.427 Y78.727 I-0.317 J0.
G1 X74.376 Y81.424
G2 X74.478 Y82.037 I0.113 J0.297
X74.695 Y76.009 Z0.335 I0.109 J-3.014
X71.571 Y79.023 Z0.25 I-0.109 J3.014
X75.825 I2.127 J0.
X65.538 I-5.143 J0.
X81.857 I8.16 J0.
X59.506 I-11.176 J0.
X81.857 I11.176 J0.
X81.427 Y78.727 I-0.317 J0.
G1 X74.376 Y81.424
G2 X74.478 Y82.037 I0.113 J0.297
X74.695 Y76.009 Z0.085 I0.109 J-3.014
X71.571 Y79.023 Z0. I-0.109 J3.014
X75.825 I2.127 J0.
X65.538 I-5.143 J0.
X81.857 I8.16 J0.
X59.506 I-11.176 J0.
X81.857 I11.176 J0.
X81.427 Y78.727 I-0.317 J0.
G1 X74.376 Y81.424
G2 X74.478 Y82.037 I0.113 J0.297
X74.695 Y76.009 Z-0.165 I0.109 J-3.014
X71.571 Y79.023 Z-0.25 I-0.109 J3.014
X75.825 I2.127 J0.
X65.538 I-5.143 J0.
X81.857 I8.16 J0.
X59.506 I-11.176 J0.
X81.857 I11.176 J0.
X81.427 Y78.727 I-0.317 J0.
G1 X74.376 Y81.424
G2 X74.478 Y82.037 I0.113 J0.297
X74.695 Y76.009 Z-0.415 I0.109 J-3.014
X71.571 Y79.023 Z-0.5 I-0.109 J3.014
X75.825 I2.127 J0.
X65.538 I-5.143 J0.
X81.857 I8.16 J0.
X59.506 I-11.176 J0.
X81.857 I11.176 J0.
X81.427 Y78.727 I-0.317 J0.
G1 X74.376 Y81.424
G2 X74.478 Y82.037 I0.113 J0.297
X74.695 Y76.009 Z-0.665 I0.109 J-3.014
X71.571 Y79.023 Z-0.75 I-0.109 J3.014
X75.825 I2.127 J0.
X65.538 I-5.143 J0.
X81.857 I8.16 J0.
X59.506 I-11.176 J0.
X81.857 I11.176 J0.
X81.427 Y78.727 I-0.317 J0.
G1 X74.376 Y81.424
G2 X74.478 Y82.037 I0.113 J0.297
X74.695 Y76.009 Z-0.915 I0.109 J-3.014
X71.571 Y79.023 Z-1. I-0.109 J3.014
X75.825 I2.127 J0.
X65.538 I-5.143 J0.
X81.857 I8.16 J0.
X59.506 I-11.176 J0.
X81.857 I11.176 J0.
X81.427 Y78.727 I-0.317 J0.
G1 X74.376 Y81.424
G2 X74.478 Y82.037 I0.113 J0.297
X74.695 Y76.009 Z-1.165 I0.109 J-3.014
X71.571 Y79.023 Z-1.25 I-0.109 J3.014
X75.825 I2.127 J0.
X65.538 I-5.143 J0.
X81.857 I8.16 J0.
X59.506 I-11.176 J0.
X81.857 I11.176 J0.
X81.427 Y78.727 I-0.317 J0.
G1 X74.376 Y81.424
G2 X74.478 Y82.037 I0.113 J0.297
X74.695 Y76.009 Z-1.415 I0.109 J-3.014
X71.571 Y79.023 Z-1.5 I-0.109 J3.014
X75.825 I2.127 J0.
X65.538 I-5.143 J0.
X81.857 I8.16 J0.
X59.506 I-11.176 J0.
X81.857 I11.176 J0.
X81.427 Y78.727 I-0.317 J0.
G1 X74.376 Y81.424
G2 X74.478 Y82.037 I0.113 J0.297
X74.695 Y76.009 Z-1.665 I0.109 J-3.014
X71.571 Y79.023 Z-1.75 I-0.109 J3.014
X75.825 I2.127 J0.
X65.538 I-5.143 J0.
X81.857 I8.16 J0.
X59.506 I-11.176 J0.
X81.857 I11.176 J0.
X81.427 Y78.727 I-0.317 J0.
G1 X74.376 Y81.424
G2 X74.478 Y82.037 I0.113 J0.297
X74.695 Y76.009 Z-1.915 I0.109 J-3.014
X71.571 Y79.023 Z-2. I-0.109 J3.014
X75.825 I2.127 J0.
X65.538 I-5.143 J0.
X81.857 I8.16 J0.
X59.506 I-11.176 J0.
X81.857 I11.176 J0.
X81.427 Y78.727 I-0.317 J0.
G1 X74.376 Y81.424
G2 X74.478 Y82.037 I0.113 J0.297
X74.695 Y76.009 Z-2.165 I0.109 J-3.014
X71.571 Y79.023 Z-2.25 I-0.109 J3.014
X75.825 I2.127 J0.
X65.538 I-5.143 J0.
X81.857 I8.16 J0.
X59.506 I-11.176 J0.
X81.857 I11.176 J0.
X81.427 Y78.727 I-0.317 J0.
G1 X74.376 Y81.424
G2 X74.478 Y82.037 I0.113 J0.297
X74.695 Y76.009 Z-2.415 I0.109 J-3.014
X71.571 Y79.023 Z-2.5 I-0.109 J3.014
X75.825 I2.127 J0.
X65.538 I-5.143 J0.
X81.857 I8.16 J0.
X59.506 I-11.176 J0.
X81.857 I11.176 J0.
X81.427 Y78.727 I-0.317 J0.
G1 X74.376 Y81.424
G2 X74.478 Y82.037 I0.113 J0.297
X74.695 Y76.009 Z-2.665 I0.109 J-3.014
X71.571 Y79.023 Z-2.75 I-0.109 J3.014
X75.825 I2.127 J0.
X65.538 I-5.143 J0.
X81.857 I8.16 J0.
X59.506 I-11.176 J0.
X81.857 I11.176 J0.
X81.427 Y78.727 I-0.317 J0.
G1 X74.376 Y81.424
G2 X74.478 Y82.037 I0.113 J0.297
X74.695 Y76.009 Z-2.915 I0.109 J-3.014
X71.571 Y79.023 Z-3. I-0.109 J3.014
X75.825 I2.127 J0.
X65.538 I-5.143 J0.
X81.857 I8.16 J0.
X59.506 I-11.176 J0.
X81.857 I11.176 J0.
X81.427 Y78.727 I-0.317 J0.
G1 X74.376 Y81.424
G2 X74.478 Y82.037 I0.113 J0.297
X74.695 Y76.009 Z-3.165 I0.109 J-3.014
X71.571 Y79.023 Z-3.25 I-0.109 J3.014
X75.825 I2.127 J0.
X65.538 I-5.143 J0.
X81.857 I8.16 J0.
X59.506 I-11.176 J0.
X81.857 I11.176 J0.
X81.427 Y78.727 I-0.317 J0.
G1 X74.376 Y81.424
G2 X74.478 Y82.037 I0.113 J0.297
X74.695 Y76.009 Z-3.415 I0.109 J-3.014
X71.571 Y79.023 Z-3.5 I-0.109 J3.014
X75.825 I2.127 J0.
X65.538 I-5.143 J0.
X81.857 I8.16 J0.
X59.506 I-11.176 J0.
X81.857 I11.176 J0.
X81.427 Y78.727 I-0.317 J0.
G1 X74.376 Y81.424
G2 X74.478 Y82.037 I0.113 J0.297
X74.695 Y76.009 Z-3.665 I0.109 J-3.014
X71.571 Y79.023 Z-3.75 I-0.109 J3.014
X75.825 I2.127 J0.
X65.538 I-5.143 J0.
X81.857 I8.16 J0.
X59.506 I-11.176 J0.
X81.857 I11.176 J0.
X81.427 Y78.727 I-0.317 J0.
G1 X74.376 Y81.424
G2 X74.478 Y82.037 I0.113 J0.297
X74.695 Y76.009 Z-3.915 I0.109 J-3.014
X71.571 Y79.023 Z-4. I-0.109 J3.014
X75.825 I2.127 J0.
X65.538 I-5.143 J0.
X81.857 I8.16 J0.
X59.506 I-11.176 J0.
X81.857 I11.176 J0.
X81.427 Y78.727 I-0.317 J0.
G1 X74.376 Y81.424
G2 X74.478 Y82.037 I0.113 J0.297
X74.695 Y76.009 Z-4.165 I0.109 J-3.014
X71.571 Y79.023 Z-4.25 I-0.109 J3.014
X75.825 I2.127 J0.
X65.538 I-5.143 J0.
X81.857 I8.16 J0.
X59.506 I-11.176 J0.
X81.857 I11.176 J0.
X81.427 Y78.727 I-0.317 J0.
G1 X74.376 Y81.424
G2 X74.478 Y82.037 I0.113 J0.297
X74.695 Y76.009 Z-4.415 I0.109 J-3.014
X71.571 Y79.023 Z-4.5 I-0.109 J3.014
X75.825 I2.127 J0.
X65.538 I-5.143 J0.
X81.857 I8.16 J0.
X59.506 I-11.176 J0.
X81.857 I11.176 J0.
X81.436 Y78.723 I-0.317 J0.
G1 X77.969 Y79.927
G3 X77.553 Y79.57 I-0.104 J-0.3
G2 X74.861 Y76.019 Z-4.588 I-2.966 J-0.547
X71.571 Y79.023 Z-4.675 I-0.275 J3.004
X75.825 I2.127 J0.
X65.538 I-5.143 J0.
X81.857 I8.16 J0.
X59.506 I-11.176 J0.
X81.857 I11.176 J0.
G1 X81.85 Y78.925 Z-4.659
X81.827 Y78.83 Z-4.644
X81.795 Y78.748 Z-4.599
X81.751 Y78.671 Z-4.554
X81.709 Y78.615 Z-4.483
X81.661 Y78.564 Z-4.413
X81.591 Y78.506 Z-4.236
X81.566 Y78.489 Z-4.04
G0 Z6.
X167.734 Y249.742
G1 Z3.5 F1600.
Z1.385
X167.752 Y249.768 Z1.189
X167.809 Y249.837 Z1.012
X167.86 Y249.885 Z0.942
X167.917 Y249.927 Z0.871
X167.993 Y249.971 Z0.826
X168.076 Y250.004 Z0.781
X168.171 Y250.026 Z0.766
X168.269 Y250.034 Z0.75
X168.27
G2 X170.254 Y248.049 I0. J-1.984
X168.269 Y246.065 I-1.984 J0.
G1 X168.268
G2 X166.284 Y248.049 I0. J1.984
G1 Y248.05
G2 X168.269 Y250.034 I1.984 J0.
X170.254 Y248.05 Z0.696 I0.001 J-1.984
X168.269 Y246.065 Z0.641 I-1.984 J0.
X166.284 Y248.049 Z0.587 I-0.001 J1.984
X168.269 Y250.034 Z0.532 I1.984 J0.
X169.863 Y249.232 Z0.5 I0.001 J-1.984
X168.269 Y246.065 I-1.594 J-1.182
G1 X168.268
G2 X166.284 Y248.049 I0. J1.984
G1 Y248.05
G2 X168.269 Y250.034 I1.984 J0.
G1 X168.27
G2 X169.863 Y249.232 I0. J-1.984
X168.269 Y246.065 Z0.423 I-1.594 J-1.182
X166.284 Y248.049 Z0.369 I-0.001 J1.984
X168.269 Y250.034 Z0.315 I1.984 J0.
X170.168 Y247.473 Z0.25 I0.001 J-1.984
X168.269 Y246.065 I-1.899 J0.577
G1 X168.268
G2 X166.284 Y248.049 I0. J1.984
G1 Y248.05
G2 X168.269 Y250.034 I1.984 J0.
G1 X168.27
G2 X170.168 Y247.473 I0. J-1.984
X168.269 Y246.065 Z0.206 I-1.899 J0.577
X166.284 Y248.049 Z0.151 I-0.001 J1.984
X168.269 Y250.034 Z0.097 I1.984 J0.
X168.937 Y246.181 Z0. I0.001 J-1.984
X168.269 Y246.065 I-0.667 J1.869
G1 X168.268
G2 X166.284 Y248.049 I0. J1.984
G1 Y248.05
G2 X168.269 Y250.034 I1.984 J0.
G1 X168.27
G2 X170.254 Y248.049 I0. J-1.984
X168.937 Y246.181 I-1.984 J0.
X168.269 Y246.065 Z-0.012 I-0.667 J1.869
X166.284 Y248.049 Z-0.066 I-0.001 J1.984
X168.269 Y250.034 Z-0.121 I1.984 J0.
X170.254 Y248.05 Z-0.175 I0.001 J-1.984
X168.269 Y246.065 Z-0.23 I-1.984 J0.
X167.165 Y246.4 Z-0.25 I-0.001 J1.984
X168.269 Y250.034 I1.103 J1.65
G1 X168.27
G2 X170.254 Y248.049 I0. J-1.984
X168.269 Y246.065 I-1.984 J0.
G1 X168.268
G2 X167.165 Y246.4 I0. J1.984
X168.269 Y250.034 Z-0.338 I1.103 J1.65
X170.254 Y248.05 Z-0.393 I0.001 J-1.984
X168.269 Y246.065 Z-0.447 I-1.984 J0.
X166.286 Y247.954 Z-0.5 I-0.001 J1.984
X168.269 Y250.034 I1.982 J0.096
G1 X168.27
G2 X170.254 Y248.049 I0. J-1.984
X168.269 Y246.065 I-1.984 J0.
G1 X168.268
G2 X166.286 Y247.954 I0. J1.984
X168.269 Y250.034 Z-0.556 I1.982 J0.096
X170.254 Y248.05 Z-0.611 I0.001 J-1.984
X168.269 Y246.065 Z-0.665 I-1.984 J0.
X167.011 Y249.585 Z-0.75 I-0.001 J1.984
X168.269 Y250.034 I1.257 J-1.535
G1 X168.27
G2 X170.254 Y248.049 I0. J-1.984
X168.269 Y246.065 I-1.984 J0.
G1 X168.268
G2 X167.011 Y249.585 I0. J1.984
X168.269 Y250.034 Z-0.774 I1.257 J-1.535
X170.254 Y248.05 Z-0.828 I0.001 J-1.984
X168.269 Y246.065 Z-0.883 I-1.984 J0.
X166.284 Y248.049 Z-0.937 I-0.001 J1.984
X168.269 Y250.034 Z-0.991 I1.984 J0.
X168.753 Y249.974 Z-1. I0.001 J-1.984
X168.269 Y246.065 I-0.484 J-1.925
G1 X168.268
G2 X166.284 Y248.049 I0. J1.984
G1 Y248.05
G2 X168.269 Y250.034 I1.984 J0.
G1 X168.27
G2 X168.753 Y249.974 I0. J-1.984
X168.269 Y246.065 Z-1.1 I-0.484 J-1.925
X166.284 Y248.049 Z-1.155 I-0.001 J1.984
X168.269 Y250.034 Z-1.209 I1.984 J0.
X170.104 Y248.807 Z-1.25 I0.001 J-1.984
X168.269 Y246.065 I-1.834 J-0.757
G1 X168.268
G2 X166.284 Y248.049 I0. J1.984
G1 Y248.05
G2 X168.269 Y250.034 I1.984 J0.
G1 X168.27
G2 X170.104 Y248.807 I0. J-1.984
X168.269 Y246.065 Z-1.318 I-1.834 J-0.757
X166.284 Y248.049 Z-1.372 I-0.001 J1.984
X168.269 Y250.034 Z-1.427 I1.984 J0.
X169.97 Y247.027 Z-1.5 I0.001 J-1.984
X168.269 Y246.065 I-1.701 J1.023
G1 X168.268
G2 X166.284 Y248.049 I0. J1.984
G1 Y248.05
G2 X168.269 Y250.034 I1.984 J0.
G1 X168.27
G2 X169.97 Y247.027 I0. J-1.984
X168.269 Y246.065 Z-1.536 I-1.701 J1.023
X166.284 Y248.049 Z-1.59 I-0.001 J1.984
X168.269 Y250.034 Z-1.644 I1.984 J0.
X168.46 Y246.074 Z-1.75 I0.001 J-1.984
G1 X168.365 Y246.067
X168.269 Y246.065
X168.268
G2 X166.284 Y248.049 I0. J1.984
G1 Y248.05
G2 X168.269 Y250.034 I1.984 J0.
G1 X168.27
G2 X170.254 Y248.049 I0. J-1.984
X168.46 Y246.074 I-1.984 J0.
G1 X168.365 Y246.067 Z-1.752
X168.269 Y246.065 Z-1.753
G2 X166.284 Y248.049 Z-1.808 I-0.001 J1.984
X168.269 Y250.034 Z-1.862 I1.984 J0.
X170.254 Y248.05 Z-1.917 I0.001 J-1.984
X168.269 Y246.065 Z-1.971 I-1.984 J0.
X166.796 Y246.719 Z-2. I-0.001 J1.984
X168.269 Y250.034 I1.473 J1.33
G1 X168.27
G2 X170.254 Y248.049 I0. J-1.984
X168.269 Y246.065 I-1.984 J0.
G1 X168.268
G2 X166.796 Y246.719 I0. J1.984
X168.269 Y250.034 Z-2.08 I1.473 J1.33
X170.254 Y248.05 Z-2.134 I0.001 J-1.984
X168.269 Y246.065 Z-2.189 I-1.984 J0.
X166.323 Y248.441 Z-2.25 I-0.001 J1.984
X168.269 Y250.034 I1.946 J-0.391
G1 X168.27
G2 X170.254 Y248.049 I0. J-1.984
X168.269 Y246.065 I-1.984 J0.
G1 X168.268
G2 X166.323 Y248.441 I0. J1.984
X168.269 Y250.034 Z-2.298 I1.946 J-0.391
X170.254 Y248.05 Z-2.352 I0.001 J-1.984
X168.269 Y246.065 Z-2.406 I-1.984 J0.
X167.424 Y249.845 Z-2.5 I-0.001 J1.984
X168.269 Y250.034 I0.844 J-1.796
G1 X168.27
G2 X170.254 Y248.049 I0. J-1.984
X168.269 Y246.065 I-1.984 J0.
G1 X168.268
G2 X166.284 Y248.049 I0. J1.984
G1 Y248.05
G2 X167.424 Y249.845 I1.984 J0.
X168.269 Y250.034 Z-2.515 I0.844 J-1.796
X170.254 Y248.05 Z-2.57 I0.001 J-1.984
X168.269 Y246.065 Z-2.624 I-1.984 J0.
X166.284 Y248.049 Z-2.678 I-0.001 J1.984
X168.269 Y250.034 Z-2.733 I1.984 J0.
X169.209 Y249.798 Z-2.75 I0.001 J-1.984
X168.269 Y246.065 I-0.939 J-1.748
G1 X168.268
G2 X166.284 Y248.049 I0. J1.984
G1 Y248.05
G2 X168.269 Y250.034 I1.984 J0.
G1 X168.27
G2 X169.209 Y249.798 I0. J-1.984
X168.269 Y246.065 Z-2.842 I-0.939 J-1.748
X166.284 Y248.049 Z-2.896 I-0.001 J1.984
X168.269 Y250.034 Z-2.951 I1.984 J0.
X170.233 Y248.336 Z-3. I0.001 J-1.984
X168.269 Y246.065 I-1.964 J-0.286
G1 X168.268
G2 X166.284 Y248.049 I0. J1.984
G1 Y248.05
G2 X168.269 Y250.034 I1.984 J0.
G1 X168.27
G2 X170.233 Y248.336 I0. J-1.984
X168.269 Y246.065 Z-3.059 I-1.964 J-0.286
X166.284 Y248.049 Z-3.114 I-0.001 J1.984
X168.269 Y250.034 Z-3.168 I1.984 J0.
X169.669 Y246.642 Z-3.25 I0.001 J-1.984
X168.269 Y246.065 I-1.399 J1.407
G1 X168.268
G2 X166.284 Y248.049 I0. J1.984
G1 Y248.05
G2 X168.269 Y250.034 I1.984 J0.
G1 X168.27
G2 X169.669 Y246.642 I0. J-1.984
X168.269 Y246.065 Z-3.277 I-1.399 J1.407
X166.284 Y248.049 Z-3.332 I-0.001 J1.984
X168.269 Y250.034 Z-3.386 I1.984 J0.
X170.254 Y248.05 Z-3.44 I0.001 J-1.984
X168.269 Y246.065 Z-3.495 I-1.984 J0.
X167.972 Y246.087 Z-3.5 I-0.001 J1.984
X168.269 Y250.034 I0.296 J1.962
G1 X168.27
G2 X170.254 Y248.049 I0. J-1.984
X168.269 Y246.065 I-1.984 J0.
G1 X168.268
G2 X167.972 Y246.087 I0. J1.984
X168.269 Y250.034 Z-3.604 I0.296 J1.962
X170.254 Y248.05 Z-3.658 I0.001 J-1.984
X168.269 Y246.065 Z-3.712 I-1.984 J0.
X166.516 Y247.119 Z-3.75 I-0.001 J1.984
X168.269 Y250.034 I1.753 J0.93
G1 X168.27
G2 X170.254 Y248.049 I0. J-1.984
X168.269 Y246.065 I-1.984 J0.
G1 X168.268
G2 X166.516 Y247.119 I0. J1.984
X168.269 Y250.034 Z-3.821 I1.753 J0.93
X170.254 Y248.05 Z-3.876 I0.001 J-1.984
X168.269 Y246.065 Z-3.93 I-1.984 J0.
X166.477 Y248.904 Z-4. I-0.001 J1.984
X168.269 Y250.034 I1.791 J-0.854
G1 X168.27
G2 X170.254 Y248.049 I0. J-1.984
X168.269 Y246.065 I-1.984 J0.
G1 X168.268
G2 X166.477 Y248.904 I0. J1.984
X168.269 Y250.034 Z-4.039 I1.791 J-0.854
X170.254 Y248.05 Z-4.093 I0.001 J-1.984
X168.269 Y246.065 Z-4.148 I-1.984 J0.
X167.888 Y249.997 Z-4.25 I-0.001 J1.984
X168.269 Y250.034 I0.38 J-1.948
G1 X168.27
G2 X170.254 Y248.049 I0. J-1.984
X168.269 Y246.065 I-1.984 J0.
G1 X168.268
G2 X166.284 Y248.049 I0. J1.984
G1 Y248.05
G2 X167.888 Y249.997 I1.984 J0.
X168.269 Y250.034 Z-4.257 I0.38 J-1.948
X170.254 Y248.05 Z-4.311 I0.001 J-1.984
X168.269 Y246.065 Z-4.366 I-1.984 J0.
X166.284 Y248.049 Z-4.42 I-0.001 J1.984
X168.269 Y250.034 Z-4.474 I1.984 J0.
X169.607 Y249.515 Z-4.5 I0.001 J-1.984
X168.269 Y246.065 I-1.338 J-1.466
G1 X168.268
G2 X166.284 Y248.049 I0. J1.984
G1 Y248.05
G2 X168.269 Y250.034 I1.984 J0.
G1 X168.27
G2 X169.607 Y249.515 I0. J-1.984
X168.269 Y246.065 Z-4.583 I-1.338 J-1.466
X167.331 Y249.799 Z-4.675 I-0.001 J1.984
X168.269 Y250.034 I0.937 J-1.749
G1 X168.27
G2 X170.254 Y248.049 I0. J-1.984
X168.269 Y246.065 I-1.984 J0.
G1 X168.268
G2 X166.284 Y248.049 I0. J1.984
G1 Y248.05
G2 X167.331 Y249.799 I1.984 J0.
G1 X167.421 Y249.838 Z-4.659
X167.516 Y249.863 Z-4.644
X167.603 Y249.873 Z-4.599
X167.692 Y249.871 Z-4.554
X167.761 Y249.86 Z-4.483
X167.829 Y249.842 Z-4.413
X167.912 Y249.808 Z-4.236
X167.94 Y249.794 Z-4.04
G0 Z6.
X104.837 Y273.202
G1 Z4.135 F1600.
X104.867 Y273.197 Z3.941
X104.953 Y273.181 Z3.765
X105.089 Y273.157 Z3.625
X105.26 Y273.127 Z3.534
X105.451 Y273.093 Z3.5
G2 X154.004 Y257.71 Z2.608 I-34.77 J-194.069
X154.964 Y255.074 Z2.554 I-0.838 J-1.798
X152.328 Y254.114 Z2.5 I-1.798 J0.838
G3 X70.681 Y272.214 Z1.028 I-81.646 J-175.091
G2 X68.696 Y274.198 Z0.974 I0. J1.984
X70.681 Y276.183 Z0.919 I1.985 J0.
X80.386 Y275.944 Z0.75 I-0.001 J-197.16
X154.004 Y257.71 I-9.705 J-196.921
X154.964 Y255.074 I-0.838 J-1.798
X152.328 Y254.114 I-1.798 J0.838
G3 X70.681 Y272.214 I-81.646 J-175.091
G2 X68.697 Y274.198 I0. J1.984
G1 Y274.199
G2 X70.681 Y276.183 I1.984 J0.
X80.386 Y275.944 I-0.001 J-197.16
X94.653 Y274.72 Z0.5 I-9.705 J-196.921
X154.004 Y257.71 I-23.972 J-195.697
X154.964 Y255.074 I-0.838 J-1.798
X152.328 Y254.114 I-1.798 J0.838
G3 X70.681 Y272.214 I-81.646 J-175.091
G2 X68.697 Y274.198 I0. J1.984
G1 Y274.199
G2 X70.681 Y276.183 I1.984 J0.
X94.653 Y274.72 I-0.001 J-197.16
X108.793 Y272.464 Z0.25 I-23.972 J-195.697
X154.004 Y257.71 I-38.113 J-193.441
X154.964 Y255.074 I-0.838 J-1.798
X152.328 Y254.114 I-1.798 J0.838
G3 X70.681 Y272.214 I-81.646 J-175.091
G2 X68.697 Y274.198 I0. J1.984
G1 Y274.199
G2 X70.681 Y276.183 I1.984 J0.
X108.793 Y272.464 I-0.001 J-197.16
X122.733 Y269.188 Z0. I-38.113 J-193.441
X154.004 Y257.71 I-52.052 J-190.164
X154.964 Y255.074 I-0.838 J-1.798
X152.328 Y254.114 I-1.798 J0.838
G3 X70.681 Y272.214 I-81.646 J-175.091
G2 X68.697 Y274.198 I0. J1.984
G1 Y274.199
G2 X70.681 Y276.183 I1.984 J0.
X122.733 Y269.188 I-0.001 J-197.16
X136.398 Y264.908 Z-0.25 I-52.052 J-190.164
X154.004 Y257.71 I-65.717 J-185.885
X154.964 Y255.074 I-0.838 J-1.798
X152.328 Y254.114 I-1.798 J0.838
G3 X70.681 Y272.214 I-81.646 J-175.091
G2 X68.697 Y274.198 I0. J1.984
G1 Y274.199
G2 X70.681 Y276.183 I1.984 J0.
X136.398 Y264.908 I-0.001 J-197.16
X149.716 Y259.648 Z-0.5 I-65.717 J-185.885
X154.004 Y257.71 I-79.035 J-180.625
X154.964 Y255.074 I-0.838 J-1.798
X152.328 Y254.114 I-1.798 J0.838
G3 X70.681 Y272.214 I-81.646 J-175.091
G2 X68.697 Y274.198 I0. J1.984
G1 Y274.199
G2 X70.681 Y276.183 I1.984 J0.
X149.716 Y259.648 I-0.001 J-197.16
X154.004 Y257.71 Z-0.582 I-79.035 J-180.625
X154.964 Y255.074 Z-0.637 I-0.838 J-1.798
X152.328 Y254.114 Z-0.691 I-1.798 J0.838
G3 X149.249 Y255.516 Z-0.75 I-81.646 J-175.091
X70.681 Y272.214 I-78.568 J-176.493
G2 X68.697 Y274.198 I0. J1.984
G1 Y274.199
G2 X70.681 Y276.183 I1.984 J0.
X154.004 Y257.71 I-0.001 J-197.16
X154.964 Y255.074 I-0.838 J-1.798
X152.328 Y254.114 I-1.798 J0.838
G3 X149.249 Y255.516 I-81.646 J-175.091
X135.961 Y260.851 Z-1. I-78.568 J-176.493
X70.681 Y272.214 I-65.279 J-181.828
G2 X68.697 Y274.198 I0. J1.984
G1 Y274.199
G2 X70.681 Y276.183 I1.984 J0.
X154.004 Y257.71 I-0.001 J-197.16
X154.964 Y255.074 I-0.838 J-1.798
X152.328 Y254.114 I-1.798 J0.838
G3 X135.961 Y260.851 I-81.646 J-175.091
X122.314 Y265.187 Z-1.25 I-65.279 J-181.828
X70.681 Y272.214 I-51.632 J-186.164
G2 X68.697 Y274.198 I0. J1.984
G1 Y274.199
G2 X70.681 Y276.183 I1.984 J0.
X154.004 Y257.71 I-0.001 J-197.16
X154.964 Y255.074 I-0.838 J-1.798
X152.328 Y254.114 I-1.798 J0.838
G3 X122.314 Y265.187 I-81.646 J-175.091
X108.383 Y268.5 Z-1.5 I-51.632 J-186.164
X70.681 Y272.214 I-37.701 J-189.477
G2 X68.697 Y274.198 I0. J1.984
G1 Y274.199
G2 X70.681 Y276.183 I1.984 J0.
X154.004 Y257.71 I-0.001 J-197.16
X154.964 Y255.074 I-0.838 J-1.798
X152.328 Y254.114 I-1.798 J0.838
G3 X108.383 Y268.5 I-81.646 J-175.091
X94.245 Y270.772 Z-1.75 I-37.701 J-189.477
X70.681 Y272.214 I-23.564 J-191.749
G2 X68.697 Y274.198 I0. J1.984
G1 Y274.199
G2 X70.681 Y276.183 I1.984 J0.
X154.004 Y257.71 I-0.001 J-197.16
X154.964 Y255.074 I-0.838 J-1.798
X152.328 Y254.114 I-1.798 J0.838
G3 X94.245 Y270.772 I-81.646 J-175.091
X79.978 Y271.99 Z-2. I-23.564 J-191.749
X70.681 Y272.214 I-9.296 J-192.967
G2 X68.697 Y274.198 I0. J1.984
G1 Y274.199
G2 X70.681 Y276.183 I1.984 J0.
X154.004 Y257.71 I-0.001 J-197.16
X154.964 Y255.074 I-0.838 J-1.798
X152.328 Y254.114 I-1.798 J0.838
G3 X79.978 Y271.99 I-81.646 J-175.091
X70.681 Y272.214 Z-2.162 I-9.296 J-192.967
G2 X69.542 Y275.824 Z-2.25 I0. J1.984
X70.681 Y276.183 I1.139 J-1.625
X154.004 Y257.71 I-0.001 J-197.16
X154.964 Y255.074 I-0.838 J-1.798
X152.328 Y254.114 I-1.798 J0.838
G3 X70.681 Y272.214 I-81.646 J-175.091
G2 X68.697 Y274.198 I0. J1.984
G1 Y274.199
G2 X69.542 Y275.824 I1.984 J0.
X70.681 Y276.183 Z-2.271 I1.139 J-1.625
X83.781 Y275.747 Z-2.5 I-0.001 J-197.16
X154.004 Y257.71 I-13.101 J-196.724
X154.964 Y255.074 I-0.838 J-1.798
X152.328 Y254.114 I-1.798 J0.838
G3 X70.681 Y272.214 I-81.646 J-175.091
G2 X68.697 Y274.198 I0. J1.984
G1 Y274.199
G2 X70.681 Y276.183 I1.984 J0.
X83.781 Y275.747 I-0.001 J-197.16
X98.025 Y274.278 Z-2.75 I-13.101 J-196.724
X154.004 Y257.71 I-27.344 J-195.254
X154.964 Y255.074 I-0.838 J-1.798
X152.328 Y254.114 I-1.798 J0.838
G3 X70.681 Y272.214 I-81.646 J-175.091
G2 X68.697 Y274.198 I0. J1.984
G1 Y274.199
G2 X70.681 Y276.183 I1.984 J0.
X98.025 Y274.278 I-0.001 J-197.16
X112.124 Y271.778 Z-3. I-27.344 J-195.254
X154.004 Y257.71 I-41.444 J-192.755
X154.964 Y255.074 I-0.838 J-1.798
X152.328 Y254.114 I-1.798 J0.838
G3 X70.681 Y272.214 I-81.646 J-175.091
G2 X68.697 Y274.198 I0. J1.984
G1 Y274.199
G2 X70.681 Y276.183 I1.984 J0.
X112.124 Y271.778 I-0.001 J-197.16
X126.005 Y268.262 Z-3.25 I-41.444 J-192.755
X154.004 Y257.71 I-55.325 J-189.238
X154.964 Y255.074 I-0.838 J-1.798
X152.328 Y254.114 I-1.798 J0.838
G3 X70.681 Y272.214 I-81.646 J-175.091
G2 X68.697 Y274.198 I0. J1.984
G1 Y274.199
G2 X70.681 Y276.183 I1.984 J0.
X126.005 Y268.262 I-0.001 J-197.16
X139.594 Y263.747 Z-3.5 I-55.325 J-189.238
X154.004 Y257.71 I-68.914 J-184.724
X154.964 Y255.074 I-0.838 J-1.798
X152.328 Y254.114 I-1.798 J0.838
G3 X70.681 Y272.214 I-81.646 J-175.091
G2 X68.697 Y274.198 I0. J1.984
G1 Y274.199
G2 X70.681 Y276.183 I1.984 J0.
X139.594 Y263.747 I-0.001 J-197.16
X152.82 Y258.258 Z-3.75 I-68.914 J-184.724
X154.004 Y257.71 I-82.139 J-179.235
X154.964 Y255.074 I-0.838 J-1.798
X152.328 Y254.114 I-1.798 J0.838
G3 X70.681 Y272.214 I-81.646 J-175.091
G2 X68.697 Y274.198 I0. J1.984
G1 Y274.199
G2 X70.681 Y276.183 I1.984 J0.
X152.82 Y258.258 I-0.001 J-197.16
X154.004 Y257.71 Z-3.773 I-82.139 J-179.235
X154.964 Y255.074 Z-3.827 I-0.838 J-1.798
X152.328 Y254.114 Z-3.882 I-1.798 J0.838
G3 X146.13 Y256.872 Z-4. I-81.646 J-175.091
X70.681 Y272.214 I-75.449 J-177.849
G2 X68.697 Y274.198 I0. J1.984
G1 Y274.199
G2 X70.681 Y276.183 I1.984 J0.
X154.004 Y257.71 I-0.001 J-197.16
X154.964 Y255.074 I-0.838 J-1.798
X152.328 Y254.114 I-1.798 J0.838
G3 X146.13 Y256.872 I-81.646 J-175.091
X132.75 Y261.972 Z-4.25 I-75.449 J-177.849
X70.681 Y272.214 I-62.068 J-182.949
G2 X68.697 Y274.198 I0. J1.984
G1 Y274.199
G2 X70.681 Y276.183 I1.984 J0.
X154.004 Y257.71 I-0.001 J-197.16
X154.964 Y255.074 I-0.838 J-1.798
X152.328 Y254.114 I-1.798 J0.838
G3 X132.75 Y261.972 I-81.646 J-175.091
X119.029 Y266.067 Z-4.5 I-62.068 J-182.949
X70.681 Y272.214 I-48.347 J-187.044
G2 X68.697 Y274.198 I0. J1.984
G1 Y274.199
G2 X70.681 Y276.183 I1.984 J0.
X154.004 Y257.71 I-0.001 J-197.16
X154.964 Y255.074 I-0.838 J-1.798
X152.328 Y254.114 I-1.798 J0.838
G3 X119.029 Y266.067 I-81.646 J-175.091
X109.261 Y268.323 Z-4.675 I-48.347 J-187.044
X70.681 Y272.214 I-38.58 J-189.3
G2 X68.697 Y274.198 I0. J1.984
G1 Y274.199
G2 X70.681 Y276.183 I1.984 J0.
X154.004 Y257.71 I-0.001 J-197.16
X154.964 Y255.074 I-0.838 J-1.798
X152.328 Y254.114 I-1.798 J0.838
G3 X109.261 Y268.323 I-81.646 J-175.091
G1 X109.167 Y268.35 Z-4.659
X109.078 Y268.391 Z-4.644
X109.004 Y268.439 Z-4.599
X108.938 Y268.497 Z-4.554
X108.891 Y268.55 Z-4.483
X108.85 Y268.607 Z-4.413
X108.808 Y268.687 Z-4.236
X108.796 Y268.715 Z-4.04
G0 Z16.
M5
G0 Z15
G0 X0 Y0

M9
M30
