(SHOOTER SUPPORT CUTOUT )
(T1  D=3.175 CR=0. - ZMIN=-17.35 - FLAT END MILL)
G90 G94 G91.1 G40 G49 G17
G21
G0 Z15

(2D CONTOUR2)
M5
T1 M6
S15000 M3
G54
M8
G0 X42.613 Y34.539
G43 Z16. H1
Z6.
G1 Z3.818 F333.
X42.605 Y34.538 Z3.747
X42.581 Y34.535 Z3.68
X42.544 Y34.53 Z3.62
X42.494 Y34.523 Z3.569
X42.434 Y34.515 Z3.531
X42.368 Y34.507 Z3.508
X42.298 Y34.497 Z3.5
X41.983 Y34.455 F1000.
G2 X41.626 Y34.728 I-0.042 J0.315
G3 X9.414 Y117.328 Z0.374 I-185.588 J-24.795 F333.
X7.203 Y117.717 Z0.287 I-1.3 J-0.911
G1 X2.001 Y114.075 Z0.065
G3 X1.363 Y112.427 Z0. I0.911 J-1.3
X1.612 Y111.864 I1.549 J0.348 F1000.
G2 X33.75 Y9.933 I-145.574 J-101.932
G1 Y3.583
G3 X35.338 Y1.995 I1.588 J0.
G1 X41.688
G3 X43.276 Y3.583 I0. J1.588
G1 Y9.933
G3 X9.414 Y117.328 I-187.237 J0.
X7.203 Y117.717 I-1.3 J-0.911
G1 X2.001 Y114.075
G3 X1.363 Y112.427 I0.911 J-1.3
X1.612 Y111.864 Z-0.022 I1.549 J0.348 F333.
G2 X15.81 Y87.745 Z-1. I-145.574 J-101.932
X33.75 Y9.933 I-159.772 J-77.812 F1000.
G1 Y3.583
G3 X35.338 Y1.995 I1.588 J0.
G1 X41.688
G3 X43.276 Y3.583 I0. J1.588
G1 Y9.933
G3 X9.414 Y117.328 I-187.237 J0.
X7.203 Y117.717 I-1.3 J-0.911
G1 X2.001 Y114.075
G3 X1.612 Y111.864 I0.911 J-1.3
G2 X15.81 Y87.745 I-145.574 J-101.932
X26.224 Y61.103 Z-2. I-159.772 J-77.812 F333.
X33.75 Y9.933 I-170.186 J-51.17 F1000.
G1 Y3.583
G3 X35.338 Y1.995 I1.588 J0.
G1 X41.688
G3 X43.276 Y3.583 I0. J1.588
G1 Y9.933
G3 X9.414 Y117.328 I-187.237 J0.
X7.203 Y117.717 I-1.3 J-0.911
G1 X2.001 Y114.075
G3 X1.612 Y111.864 I0.911 J-1.3
G2 X26.224 Y61.103 I-145.574 J-101.932
X32.229 Y33.135 Z-3. I-170.186 J-51.17 F333.
X33.75 Y9.933 I-176.191 J-23.202 F1000.
G1 Y3.583
G3 X35.338 Y1.995 I1.588 J0.
G1 X41.688
G3 X43.276 Y3.583 I0. J1.588
G1 Y9.933
G3 X9.414 Y117.328 I-187.237 J0.
X7.203 Y117.717 I-1.3 J-0.911
G1 X2.001 Y114.075
G3 X1.612 Y111.864 I0.911 J-1.3
G2 X32.229 Y33.135 I-145.574 J-101.932
X33.75 Y9.933 Z-3.813 I-176.191 J-23.202 F333.
G1 Y4.565 Z-4.
Y3.583 F1000.
G3 X35.338 Y1.995 I1.588 J0.
G1 X41.688
G3 X43.276 Y3.583 I0. J1.588
G1 Y9.933
G3 X9.414 Y117.328 I-187.237 J0.
X7.203 Y117.717 I-1.3 J-0.911
G1 X2.001 Y114.075
G3 X1.612 Y111.864 I0.911 J-1.3
G2 X33.75 Y9.933 I-145.574 J-101.932
G1 Y4.565
Y3.583 Z-4.034 F333.
G3 X35.338 Y1.995 Z-4.121 I1.588 J0.
G1 X41.688 Z-4.343
G3 X43.276 Y3.583 Z-4.43 I0. J1.588
G1 Y9.933 Z-4.652
G3 X43.01 Y19.895 Z-5. I-187.237 J0.
X9.414 Y117.328 I-186.972 J-9.962 F1000.
X7.203 Y117.717 I-1.3 J-0.911
G1 X2.001 Y114.075
G3 X1.612 Y111.864 I0.911 J-1.3
G2 X33.75 Y9.933 I-145.574 J-101.932
G1 Y4.565
Y3.583
G3 X35.338 Y1.995 I1.588 J0.
G1 X41.688
G3 X43.276 Y3.583 I0. J1.588
G1 Y9.933
G3 X43.01 Y19.895 I-187.237 J0.
X39.31 Y48.263 Z-6. I-186.972 J-9.962 F333.
X9.414 Y117.328 I-183.272 J-38.33 F1000.
X7.203 Y117.717 I-1.3 J-0.911
G1 X2.001 Y114.075
G3 X1.612 Y111.864 I0.911 J-1.3
G2 X33.75 Y9.933 I-145.574 J-101.932
G1 Y3.583
G3 X35.338 Y1.995 I1.588 J0.
G1 X41.688
G3 X43.276 Y3.583 I0. J1.588
G1 Y9.933
G3 X39.31 Y48.263 I-187.237 J0.
X31.331 Y75.736 Z-7. I-183.272 J-38.33 F333.
X9.414 Y117.328 I-175.293 J-65.804 F1000.
X7.203 Y117.717 I-1.3 J-0.911
G1 X2.001 Y114.075
G3 X1.612 Y111.864 I0.911 J-1.3
G2 X33.75 Y9.933 I-145.574 J-101.932
G1 Y3.583
G3 X35.338 Y1.995 I1.588 J0.
G1 X41.688
G3 X43.276 Y3.583 I0. J1.588
G1 Y9.933
G3 X31.331 Y75.736 I-187.237 J0.
X19.26 Y101.673 Z-8. I-175.293 J-65.804 F333.
X9.414 Y117.328 I-163.222 J-91.741 F1000.
X7.203 Y117.717 I-1.3 J-0.911
G1 X2.001 Y114.075
G3 X1.612 Y111.864 I0.911 J-1.3
G2 X33.75 Y9.933 I-145.574 J-101.932
G1 Y3.583
G3 X35.338 Y1.995 I1.588 J0.
G1 X41.688
G3 X43.276 Y3.583 I0. J1.588
G1 Y9.933
G3 X19.26 Y101.673 I-187.237 J0.
X9.414 Y117.328 Z-8.646 I-163.222 J-91.741 F333.
X7.203 Y117.717 Z-8.733 I-1.3 J-0.911
G1 X2.001 Y114.075 Z-8.955
G3 X1.341 Y113.006 Z-9. I0.911 J-1.3
X1.612 Y111.864 I1.571 J-0.231 F1000.
G2 X33.75 Y9.933 I-145.574 J-101.932
G1 Y3.583
G3 X35.338 Y1.995 I1.588 J0.
G1 X41.688
G3 X43.276 Y3.583 I0. J1.588
G1 Y9.933
G3 X9.414 Y117.328 I-187.237 J0.
X7.203 Y117.717 I-1.3 J-0.911
G1 X2.001 Y114.075
G3 X1.341 Y113.006 I0.911 J-1.3
X1.612 Y111.864 Z-9.042 I1.571 J-0.231 F333.
G2 X15.554 Y88.269 Z-10. I-145.574 J-101.932
X33.75 Y9.933 I-159.516 J-78.336 F1000.
G1 Y3.583
G3 X35.338 Y1.995 I1.588 J0.
G1 X41.688
G3 X43.276 Y3.583 I0. J1.588
G1 Y9.933
G3 X9.414 Y117.328 I-187.237 J0.
X7.203 Y117.717 I-1.3 J-0.911
G1 X2.001 Y114.075
G3 X1.612 Y111.864 I0.911 J-1.3
G2 X15.554 Y88.269 I-145.574 J-101.932
X26.055 Y61.661 Z-11. I-159.516 J-78.336 F333.
X33.75 Y9.933 I-170.017 J-51.728 F1000.
G1 Y3.583
G3 X35.338 Y1.995 I1.588 J0.
G1 X41.688
G3 X43.276 Y3.583 I0. J1.588
G1 Y9.933
G3 X9.414 Y117.328 I-187.237 J0.
X7.203 Y117.717 I-1.3 J-0.911
G1 X2.001 Y114.075
G3 X1.612 Y111.864 I0.911 J-1.3
G2 X26.055 Y61.661 I-145.574 J-101.932
X32.152 Y33.713 Z-12. I-170.017 J-51.728 F333.
X33.75 Y9.933 I-176.114 J-23.78 F1000.
G1 Y3.583
G3 X35.338 Y1.995 I1.588 J0.
G1 X41.688
G3 X43.276 Y3.583 I0. J1.588
G1 Y9.933
G3 X9.414 Y117.328 I-187.237 J0.
X7.203 Y117.717 I-1.3 J-0.911
G1 X2.001 Y114.075
G3 X1.612 Y111.864 I0.911 J-1.3
G2 X32.152 Y33.713 I-145.574 J-101.932
X33.75 Y9.933 Z-12.833 I-176.114 J-23.78 F333.
G1 Y5.148 Z-13.
Y3.583 F1000.
G3 X35.338 Y1.995 I1.588 J0.
G1 X41.688
G3 X43.276 Y3.583 I0. J1.588
G1 Y9.933
G3 X9.414 Y117.328 I-187.237 J0.
X7.203 Y117.717 I-1.3 J-0.911
G1 X2.001 Y114.075
G3 X1.612 Y111.864 I0.911 J-1.3
G2 X33.75 Y9.933 I-145.574 J-101.932
G1 Y5.148
Y3.583 Z-13.055 F333.
G3 X35.338 Y1.995 Z-13.142 I1.588 J0.
G1 X41.688 Z-13.363
G3 X43.276 Y3.583 Z-13.451 I0. J1.588
G1 Y9.933 Z-13.672
G3 X43.04 Y19.312 Z-14. I-187.237 J0.
X9.414 Y117.328 I-187.002 J-9.38 F1000.
X7.203 Y117.717 I-1.3 J-0.911
G1 X2.001 Y114.075
G3 X1.612 Y111.864 I0.911 J-1.3
G2 X33.75 Y9.933 I-145.574 J-101.932
G1 Y5.148
Y3.583
G3 X35.338 Y1.995 I1.588 J0.
G1 X41.688
G3 X43.276 Y3.583 I0. J1.588
G1 Y9.933
G3 X43.04 Y19.312 I-187.237 J0.
X39.429 Y47.692 Z-15. I-187.002 J-9.38 F333.
X9.414 Y117.328 I-183.391 J-37.759 F1000.
X7.203 Y117.717 I-1.3 J-0.911
G1 X2.001 Y114.075
G3 X1.612 Y111.864 I0.911 J-1.3
G2 X33.75 Y9.933 I-145.574 J-101.932
G1 Y3.583
G3 X35.338 Y1.995 I1.588 J0.
G1 X41.688
G3 X43.276 Y3.583 I0. J1.588
G1 Y9.933
G3 X39.429 Y47.692 I-187.237 J0.
X31.535 Y75.19 Z-16. I-183.391 J-37.759 F333.
X9.414 Y117.328 I-175.497 J-65.257 F1000.
X7.203 Y117.717 I-1.3 J-0.911
G1 X2.001 Y114.075
G3 X1.612 Y111.864 I0.911 J-1.3
G2 X33.75 Y9.933 I-145.574 J-101.932
G1 Y3.583
G3 X35.338 Y1.995 I1.588 J0.
G1 X41.688
G3 X43.276 Y3.583 I0. J1.588
G1 Y9.933
G3 X31.535 Y75.19 I-187.237 J0.
X19.545 Y101.164 Z-17. I-175.497 J-65.257 F333.
X9.414 Y117.328 I-163.507 J-91.232 F1000.
X7.203 Y117.717 I-1.3 J-0.911
G1 X2.001 Y114.075
G3 X1.612 Y111.864 I0.911 J-1.3
G2 X33.75 Y9.933 I-145.574 J-101.932
G1 Y3.583
G3 X35.338 Y1.995 I1.588 J0.
G1 X41.688
G3 X43.276 Y3.583 I0. J1.588
G1 Y9.933
G3 X19.545 Y101.164 I-187.237 J0.
X14.43 Y109.782 Z-17.35 I-163.507 J-91.232 F333.
X9.414 Y117.328 I-158.392 J-99.849 F1000.
X7.203 Y117.717 I-1.3 J-0.911
G1 X2.001 Y114.075
G3 X1.612 Y111.864 I0.911 J-1.3
G2 X33.75 Y9.933 I-145.574 J-101.932
G1 Y3.583
G3 X35.338 Y1.995 I1.588 J0.
G1 X41.688
G3 X43.276 Y3.583 I0. J1.588
G1 Y9.933
G3 X14.43 Y109.782 I-187.237 J0.
G2 X14.529 Y110.22 I0.269 J0.169
G1 X14.798 Y110.389
X14.858 Y110.427 Z-17.342
X14.914 Y110.463 Z-17.319
X14.965 Y110.495 Z-17.281
X15.008 Y110.522 Z-17.23
X15.04 Y110.542 Z-17.17
X15.06 Y110.554 Z-17.103
X15.066 Y110.558 Z-17.033
G0 Z6.
X49.845 Y63.63
G1 Z3.818 F333.
X49.852 Y63.632 Z3.747
X49.875 Y63.639 Z3.68
X49.911 Y63.651 Z3.62
X49.959 Y63.666 Z3.569
X50.016 Y63.684 Z3.531
X50.08 Y63.704 Z3.508
X50.147 Y63.726 Z3.5
X50.45 Y63.822 F1000.
G2 X50.849 Y63.615 I0.096 J-0.303
X59.151 Y9.933 Z1.596 I-169.411 J-53.682 F333.
G1 Y3.583 Z1.374
G3 X60.738 Y1.995 Z1.287 I1.587 J0.
G1 X67.088 Z1.065
G3 X68.675 Y3.583 Z0.978 I0. J1.588
G1 Y9.933 Z0.756
G3 X67.425 Y31.54 Z0. I-187.237 J0.
X34.814 Y117.328 I-185.986 J-21.607 F1000.
X32.603 Y117.717 I-1.3 J-0.911
G1 X27.401 Y114.075
G3 X27.012 Y111.864 I0.911 J-1.3
G2 X59.151 Y9.933 I-145.574 J-101.932
G1 Y3.583
G3 X60.738 Y1.995 I1.587 J0.
G1 X67.088
G3 X68.675 Y3.583 I0. J1.588
G1 Y9.933
G3 X67.425 Y31.54 I-187.237 J0.
X61.962 Y59.622 Z-1. I-185.986 J-21.607 F333.
X34.814 Y117.328 I-180.524 J-49.689 F1000.
X32.603 Y117.717 I-1.3 J-0.911
G1 X27.401 Y114.075
G3 X27.012 Y111.864 I0.911 J-1.3
G2 X59.151 Y9.933 I-145.574 J-101.932
G1 Y3.583
G3 X60.738 Y1.995 I1.587 J0.
G1 X67.088
G3 X68.675 Y3.583 I0. J1.588
G1 Y9.933
G3 X61.962 Y59.622 I-187.237 J0.
X52.285 Y86.544 Z-2. I-180.524 J-49.689 F333.
X34.814 Y117.328 I-170.847 J-76.611 F1000.
X32.603 Y117.717 I-1.3 J-0.911
G1 X27.401 Y114.075
G3 X27.012 Y111.864 I0.911 J-1.3
G2 X59.151 Y9.933 I-145.574 J-101.932
G1 Y3.583
G3 X60.738 Y1.995 I1.587 J0.
G1 X67.088
G3 X68.675 Y3.583 I0. J1.588
G1 Y9.933
G3 X52.285 Y86.544 I-187.237 J0.
X38.619 Y111.677 Z-3. I-170.847 J-76.611 F333.
X34.814 Y117.328 I-157.181 J-101.745 F1000.
X32.603 Y117.717 I-1.3 J-0.911
G1 X27.401 Y114.075
G3 X27.012 Y111.864 I0.911 J-1.3
G2 X59.151 Y9.933 I-145.574 J-101.932
G1 Y3.583
G3 X60.738 Y1.995 I1.587 J0.
G1 X67.088
G3 X68.675 Y3.583 I0. J1.588
G1 Y9.933
G3 X38.619 Y111.677 I-187.237 J0.
X34.814 Y117.328 Z-3.238 I-157.181 J-101.745 F333.
X32.603 Y117.717 Z-3.325 I-1.3 J-0.911
G1 X27.401 Y114.075 Z-3.547
G3 X27.012 Y111.864 Z-3.634 I0.911 J-1.3
G2 X32.77 Y103.102 Z-4. I-145.574 J-101.932
X59.151 Y9.933 I-151.332 J-93.169 F1000.
G1 Y3.583
G3 X60.738 Y1.995 I1.587 J0.
G1 X67.088
G3 X68.675 Y3.583 I0. J1.588
G1 Y9.933
G3 X34.814 Y117.328 I-187.237 J0.
X32.603 Y117.717 I-1.3 J-0.911
G1 X27.401 Y114.075
G3 X27.012 Y111.864 I0.911 J-1.3
G2 X32.77 Y103.102 I-145.574 J-101.932
X45.757 Y77.615 Z-5. I-151.332 J-93.169 F333.
X59.151 Y9.933 I-164.319 J-67.682 F1000.
G1 Y3.583
G3 X60.738 Y1.995 I1.587 J0.
G1 X67.088
G3 X68.675 Y3.583 I0. J1.588
G1 Y9.933
G3 X34.814 Y117.328 I-187.237 J0.
X32.603 Y117.717 I-1.3 J-0.911
G1 X27.401 Y114.075
G3 X27.012 Y111.864 I0.911 J-1.3
G2 X45.757 Y77.615 I-145.574 J-101.932
X54.488 Y50.374 Z-6. I-164.319 J-67.682 F333.
X59.151 Y9.933 I-173.05 J-40.442 F1000.
G1 Y3.583
G3 X60.738 Y1.995 I1.587 J0.
G1 X67.088
G3 X68.675 Y3.583 I0. J1.588
G1 Y9.933
G3 X34.814 Y117.328 I-187.237 J0.
X32.603 Y117.717 I-1.3 J-0.911
G1 X27.401 Y114.075
G3 X27.012 Y111.864 I0.911 J-1.3
G2 X54.488 Y50.374 I-145.574 J-101.932
X58.734 Y22.086 Z-7. I-173.05 J-40.442 F333.
X59.151 Y9.933 I-177.296 J-12.153 F1000.
G1 Y3.583
G3 X60.738 Y1.995 I1.587 J0.
G1 X67.088
G3 X68.675 Y3.583 I0. J1.588
G1 Y9.933
G3 X34.814 Y117.328 I-187.237 J0.
X32.603 Y117.717 I-1.3 J-0.911
G1 X27.401 Y114.075
G3 X27.012 Y111.864 I0.911 J-1.3
G2 X58.734 Y22.086 I-145.574 J-101.932
X59.151 Y9.933 Z-7.425 I-177.296 J-12.153 F333.
G1 Y3.583 Z-7.646
G3 X60.738 Y1.995 Z-7.734 I1.587 J0.
G1 X67.088 Z-7.955
G3 X68.234 Y2.484 Z-8. I0. J1.588
X68.675 Y3.583 I-1.146 J1.099 F1000.
G1 Y9.933
G3 X34.814 Y117.328 I-187.237 J0.
X32.603 Y117.717 I-1.3 J-0.911
G1 X27.401 Y114.075
G3 X27.012 Y111.864 I0.911 J-1.3
G2 X59.151 Y9.933 I-145.574 J-101.932
G1 Y3.583
G3 X60.738 Y1.995 I1.587 J0.
G1 X67.088
G3 X68.234 Y2.484 I0. J1.588
X68.675 Y3.583 Z-8.042 I-1.146 J1.099 F333.
G1 Y9.933 Z-8.264
G3 X67.491 Y30.961 Z-9. I-187.237 J0.
X34.814 Y117.328 I-186.053 J-21.028 F1000.
X32.603 Y117.717 I-1.3 J-0.911
G1 X27.401 Y114.075
G3 X27.012 Y111.864 I0.911 J-1.3
G2 X59.151 Y9.933 I-145.574 J-101.932
G1 Y3.583
G3 X60.738 Y1.995 I1.587 J0.
G1 X67.088
G3 X68.675 Y3.583 I0. J1.588
G1 Y9.933
G3 X67.491 Y30.961 I-187.237 J0.
X62.116 Y59.06 Z-10. I-186.053 J-21.028 F333.
X34.814 Y117.328 I-180.678 J-49.127 F1000.
X32.603 Y117.717 I-1.3 J-0.911
G1 X27.401 Y114.075
G3 X27.012 Y111.864 I0.911 J-1.3
G2 X59.151 Y9.933 I-145.574 J-101.932
G1 Y3.583
G3 X60.738 Y1.995 I1.587 J0.
G1 X67.088
G3 X68.675 Y3.583 I0. J1.588
G1 Y9.933
G3 X62.116 Y59.06 I-187.237 J0.
X52.522 Y86.012 Z-11. I-180.678 J-49.127 F333.
X34.814 Y117.328 I-171.084 J-76.079 F1000.
X32.603 Y117.717 I-1.3 J-0.911
G1 X27.401 Y114.075
G3 X27.012 Y111.864 I0.911 J-1.3
G2 X59.151 Y9.933 I-145.574 J-101.932
G1 Y3.583
G3 X60.738 Y1.995 I1.587 J0.
G1 X67.088
G3 X68.675 Y3.583 I0. J1.588
G1 Y9.933
G3 X52.522 Y86.012 I-187.237 J0.
X38.935 Y111.187 Z-12. I-171.084 J-76.079 F333.
X34.814 Y117.328 I-157.497 J-101.255 F1000.
X32.603 Y117.717 I-1.3 J-0.911
G1 X27.401 Y114.075
G3 X27.012 Y111.864 I0.911 J-1.3
G2 X59.151 Y9.933 I-145.574 J-101.932
G1 Y3.583
G3 X60.738 Y1.995 I1.587 J0.
G1 X67.088
G3 X68.675 Y3.583 I0. J1.588
G1 Y9.933
G3 X38.935 Y111.187 I-187.237 J0.
X34.814 Y117.328 Z-12.258 I-157.497 J-101.255 F333.
X32.603 Y117.717 Z-12.345 I-1.3 J-0.911
G1 X27.401 Y114.075 Z-12.567
G3 X27.012 Y111.864 Z-12.654 I0.911 J-1.3
G2 X32.463 Y103.598 Z-13. I-145.574 J-101.932
X59.151 Y9.933 I-151.025 J-93.665 F1000.
G1 Y3.583
G3 X60.738 Y1.995 I1.587 J0.
G1 X67.088
G3 X68.675 Y3.583 I0. J1.588
G1 Y9.933
G3 X34.814 Y117.328 I-187.237 J0.
X32.603 Y117.717 I-1.3 J-0.911
G1 X27.401 Y114.075
G3 X27.012 Y111.864 I0.911 J-1.3
G2 X32.463 Y103.598 I-145.574 J-101.932
X45.534 Y78.154 Z-14. I-151.025 J-93.665 F333.
X59.151 Y9.933 I-164.096 J-68.221 F1000.
G1 Y3.583
G3 X60.738 Y1.995 I1.587 J0.
G1 X67.088
G3 X68.675 Y3.583 I0. J1.588
G1 Y9.933
G3 X34.814 Y117.328 I-187.237 J0.
X32.603 Y117.717 I-1.3 J-0.911
G1 X27.401 Y114.075
G3 X27.012 Y111.864 I0.911 J-1.3
G2 X45.534 Y78.154 I-145.574 J-101.932
X54.354 Y50.942 Z-15. I-164.096 J-68.221 F333.
X59.151 Y9.933 I-172.916 J-41.009 F1000.
G1 Y3.583
G3 X60.738 Y1.995 I1.587 J0.
G1 X67.088
G3 X68.675 Y3.583 I0. J1.588
G1 Y9.933
G3 X34.814 Y117.328 I-187.237 J0.
X32.603 Y117.717 I-1.3 J-0.911
G1 X27.401 Y114.075
G3 X27.012 Y111.864 I0.911 J-1.3
G2 X54.354 Y50.942 I-145.574 J-101.932
X58.694 Y22.668 Z-16. I-172.916 J-41.009 F333.
X59.151 Y9.933 I-177.256 J-12.735 F1000.
G1 Y3.583
G3 X60.738 Y1.995 I1.587 J0.
G1 X67.088
G3 X68.675 Y3.583 I0. J1.588
G1 Y9.933
G3 X34.814 Y117.328 I-187.237 J0.
X32.603 Y117.717 I-1.3 J-0.911
G1 X27.401 Y114.075
G3 X27.012 Y111.864 I0.911 J-1.3
G2 X58.694 Y22.668 I-145.574 J-101.932
X59.151 Y9.933 Z-16.445 I-177.256 J-12.735 F333.
G1 Y3.583 Z-16.667
G3 X60.738 Y1.995 Z-16.754 I1.587 J0.
G1 X67.088 Z-16.976
G3 X67.763 Y2.146 Z-17. I0. J1.588
X68.675 Y3.583 I-0.675 J1.437 F1000.
G1 Y9.933
G3 X34.814 Y117.328 I-187.237 J0.
X32.603 Y117.717 I-1.3 J-0.911
G1 X27.401 Y114.075
G3 X27.012 Y111.864 I0.911 J-1.3
G2 X59.151 Y9.933 I-145.574 J-101.932
G1 Y3.583
G3 X60.738 Y1.995 I1.587 J0.
G1 X67.088
G3 X67.763 Y2.146 I0. J1.588
X68.675 Y3.583 Z-17.063 I-0.675 J1.437 F333.
G1 Y9.933 Z-17.284
G3 X68.666 Y11.808 Z-17.35 I-187.237 J0.
X34.814 Y117.328 I-187.228 J-1.876 F1000.
X32.603 Y117.717 I-1.3 J-0.911
G1 X27.401 Y114.075
G3 X27.012 Y111.864 I0.911 J-1.3
G2 X59.151 Y9.933 I-145.574 J-101.932
G1 Y3.583
G3 X60.738 Y1.995 I1.587 J0.
G1 X67.088
G3 X68.675 Y3.583 I0. J1.588
G1 Y9.933
G3 X68.666 Y11.808 I-187.237 J0.
G2 X68.98 Y12.129 I0.317 J0.003
G1 X69.298 Y12.132
X69.369 Y12.133 Z-17.342
X69.436 Y12.134 Z-17.319
X69.496 Z-17.281
X69.546 Y12.135 Z-17.23
X69.584 Z-17.17
X69.607 Z-17.103
X69.615 Z-17.033
G0 Z16.
M5
G0 Z15
G0 X0 Y0

M9
M30
