(SHOOTER MOTOR MOUNTPLATE CUTOUT AND CENTER HOLE)
(T1  D=6.35 CR=0. - ZMIN=-7.85 - FLAT END MILL)
G90 G94 G91.1 G40 G49 G17
G21
G0 Z15

(2D CONTOUR1)
M5
T1 M6
S15000 M3
G54
M8
G0 X-0.913 Y21.987
G43 Z16. H1
Z6.
G1 Z4.135 F1600.
X-0.906 Y21.986 Z4.036
X-0.883 Y21.982 Z3.939
X-0.845 Y21.976 Z3.847
X-0.794 Y21.968 Z3.762
X-0.73 Y21.957 Z3.686
X-0.655 Y21.945 Z3.621
X-0.571 Y21.931 Z3.569
X-0.48 Y21.917 Z3.531
X-0.385 Y21.901 Z3.508
X-0.287 Y21.885 Z3.5
X0.34 Y21.783
G2 X0.865 Y21.054 I-0.102 J-0.627
G1 X0.601 Y19.438 Z3.443
G3 X12.16 Y1.549 Z2.628 I15.668 J-2.555
X46.488 Y0.05 Z1.418 I20.544 J76.67
X59.562 Y16.864 Z0.603 I-2.757 J15.634
G1 X58.279 Y34.079 Z0.
X54.873 Y79.805
G3 X23.461 Y99.119 I-22.134 J-0.798
X22.827 Y98.73 I1.33 J-2.883
G1 X15.889 Y93.266
G3 X15.362 Y92.741 I1.964 J-2.494
X10.758 Y81.731 I17.377 J-13.733
G1 X0.601 Y19.438
G3 X12.16 Y1.549 I15.668 J-2.555
X46.488 Y0.05 I20.544 J76.67
X59.562 Y16.864 I-2.757 J15.634
G1 X58.279 Y34.079
X56.152 Y62.636 Z-1.
X54.873 Y79.805
G3 X23.461 Y99.119 I-22.134 J-0.798
X22.827 Y98.73 I1.33 J-2.883
G1 X15.889 Y93.266
G3 X15.362 Y92.741 I1.964 J-2.494
X10.758 Y81.731 I17.377 J-13.733
G1 X0.601 Y19.438
G3 X12.16 Y1.549 I15.668 J-2.555
X46.488 Y0.05 I20.544 J76.67
X59.562 Y16.864 I-2.757 J15.634
G1 X56.152 Y62.636
X54.873 Y79.805 Z-1.601
G3 X51.602 Y90.615 Z-2. I-22.134 J-0.798
X23.461 Y99.119 I-18.863 J-11.607
X22.827 Y98.73 I1.33 J-2.883
G1 X15.889 Y93.266
G3 X15.362 Y92.741 I1.964 J-2.494
X10.758 Y81.731 I17.377 J-13.733
G1 X0.601 Y19.438
G3 X12.16 Y1.549 I15.668 J-2.555
X46.488 Y0.05 I20.544 J76.67
X59.562 Y16.864 I-2.757 J15.634
G1 X56.152 Y62.636
X54.873 Y79.805
G3 X51.602 Y90.615 I-22.134 J-0.798
X26.751 Y100.331 Z-3. I-18.863 J-11.607
X23.461 Y99.119 I5.988 J-21.324
X22.827 Y98.73 I1.33 J-2.883
G1 X15.889 Y93.266
G3 X15.362 Y92.741 I1.964 J-2.494
X10.758 Y81.731 I17.377 J-13.733
G1 X0.601 Y19.438
G3 X12.16 Y1.549 I15.668 J-2.555
X46.488 Y0.05 I20.544 J76.67
X59.562 Y16.864 I-2.757 J15.634
G1 X54.873 Y79.805
G3 X26.751 Y100.331 I-22.134 J-0.798
X23.461 Y99.119 Z-3.123 I5.988 J-21.324
X22.827 Y98.73 Z-3.149 I1.33 J-2.883
G1 X15.889 Y93.266 Z-3.457
G3 X15.362 Y92.741 Z-3.483 I1.964 J-2.494
X10.758 Y81.731 Z-3.905 I17.377 J-13.733
G1 X10.32 Y79.045 Z-4.
X0.601 Y19.438
G3 X12.16 Y1.549 I15.668 J-2.555
X46.488 Y0.05 I20.544 J76.67
X59.562 Y16.864 I-2.757 J15.634
G1 X54.873 Y79.805
G3 X23.461 Y99.119 I-22.134 J-0.798
X22.827 Y98.73 I1.33 J-2.883
G1 X15.889 Y93.266
G3 X15.362 Y92.741 I1.964 J-2.494
X10.758 Y81.731 I17.377 J-13.733
G1 X10.32 Y79.045
X5.712 Y50.782 Z-5.
X0.601 Y19.438
G3 X12.16 Y1.549 I15.668 J-2.555
X46.488 Y0.05 I20.544 J76.67
X59.562 Y16.864 I-2.757 J15.634
G1 X54.873 Y79.805
G3 X23.461 Y99.119 I-22.134 J-0.798
X22.827 Y98.73 I1.33 J-2.883
G1 X15.889 Y93.266
G3 X15.362 Y92.741 I1.964 J-2.494
X10.758 Y81.731 I17.377 J-13.733
G1 X5.712 Y50.782
X1.103 Y22.519 Z-6.
X0.601 Y19.438
G3 X12.16 Y1.549 I15.668 J-2.555
X46.488 Y0.05 I20.544 J76.67
X59.562 Y16.864 I-2.757 J15.634
G1 X54.873 Y79.805
G3 X23.461 Y99.119 I-22.134 J-0.798
X22.827 Y98.73 I1.33 J-2.883
G1 X15.889 Y93.266
G3 X15.362 Y92.741 I1.964 J-2.494
X10.758 Y81.731 I17.377 J-13.733
G1 X5.712 Y50.782
X1.103 Y22.519
X0.601 Y19.438 Z-6.109
G3 X12.16 Y1.549 Z-6.924 I15.668 J-2.555
X14.262 Y1.017 Z-7. I20.544 J76.67
X46.488 Y0.05 I18.442 J77.203
X59.562 Y16.864 I-2.757 J15.634
G1 X54.873 Y79.805
G3 X23.461 Y99.119 I-22.134 J-0.798
X22.827 Y98.73 I1.33 J-2.883
G1 X15.889 Y93.266
G3 X15.362 Y92.741 I1.964 J-2.494
X10.758 Y81.731 I17.377 J-13.733
G1 X1.103 Y22.519
X0.601 Y19.438
G3 X12.16 Y1.549 I15.668 J-2.555
X14.262 Y1.017 I20.544 J76.67
X24.131 Y-0.691 Z-7.35 I18.442 J77.203
X46.488 Y0.05 I8.573 J78.911
X59.562 Y16.864 I-2.757 J15.634
G1 X54.873 Y79.805
G3 X23.461 Y99.119 I-22.134 J-0.798
X22.827 Y98.73 I1.33 J-2.883
G1 X15.889 Y93.266
G3 X15.362 Y92.741 I1.964 J-2.494
X10.758 Y81.731 I17.377 J-13.733
G1 X0.601 Y19.438
G3 X12.16 Y1.549 I15.668 J-2.555
X24.131 Y-0.691 I20.544 J76.67
G2 X24.694 Y-1.391 I-0.069 J-0.631
G1 X24.626 Y-2.022
X24.615 Y-2.121 Z-7.342
X24.604 Y-2.218 Z-7.319
X24.594 Y-2.309 Z-7.281
X24.585 Y-2.393 Z-7.229
X24.577 Y-2.469 Z-7.164
X24.57 Y-2.533 Z-7.088
X24.564 Y-2.585 Z-7.003
X24.56 Y-2.623 Z-6.911
X24.558 Y-2.646 Z-6.814
X24.557 Y-2.654 Z-6.715
G0 Z16.

(BORE1)
G0 X26.448 Y53.135
Z15.
Z1.325
G1 Z-0.04 F1600.
X26.454 Y53.139 Z-0.139
X26.475 Y53.151 Z-0.236
X26.508 Y53.17 Z-0.328
X26.553 Y53.196 Z-0.413
X26.609 Y53.228 Z-0.489
X26.674 Y53.266 Z-0.554
X26.748 Y53.308 Z-0.606
X26.828 Y53.354 Z-0.644
X26.912 Y53.403 Z-0.667
X26.998 Y53.452 Z-0.675
X27.273 Y53.611
G3 X27.505 Y54.479 I-0.317 J0.55
X24.755 Y52.891 Z-0.758 I-1.375 J-0.794
X27.505 Y54.479 Z-0.841 I1.375 J0.794
X24.755 Y52.891 Z-0.924 I-1.375 J-0.794
X27.505 Y54.479 Z-1.008 I1.375 J0.794
X24.755 Y52.891 Z-1.091 I-1.375 J-0.794
X27.505 Y54.479 Z-1.174 I1.375 J0.794
X24.755 Y52.891 Z-1.257 I-1.375 J-0.794
X27.505 Y54.479 Z-1.34 I1.375 J0.794
X24.755 Y52.891 Z-1.423 I-1.375 J-0.794
X27.505 Y54.479 Z-1.506 I1.375 J0.794
X24.755 Y52.891 Z-1.589 I-1.375 J-0.794
X27.505 Y54.479 Z-1.673 I1.375 J0.794
X24.755 Y52.891 Z-1.756 I-1.375 J-0.794
X27.505 Y54.479 Z-1.839 I1.375 J0.794
X24.755 Y52.891 Z-1.922 I-1.375 J-0.794
X27.505 Y54.479 Z-2.005 I1.375 J0.794
X24.755 Y52.891 Z-2.088 I-1.375 J-0.794
X27.505 Y54.479 Z-2.171 I1.375 J0.794
X24.755 Y52.891 Z-2.254 I-1.375 J-0.794
X27.505 Y54.479 Z-2.338 I1.375 J0.794
X24.755 Y52.891 Z-2.421 I-1.375 J-0.794
X27.505 Y54.479 Z-2.504 I1.375 J0.794
X24.755 Y52.891 Z-2.587 I-1.375 J-0.794
X27.505 Y54.479 Z-2.67 I1.375 J0.794
X24.755 Y52.891 Z-2.753 I-1.375 J-0.794
X27.505 Y54.479 Z-2.836 I1.375 J0.794
X24.755 Y52.891 Z-2.92 I-1.375 J-0.794
X27.505 Y54.479 Z-3.003 I1.375 J0.794
X24.755 Y52.891 Z-3.086 I-1.375 J-0.794
X27.505 Y54.479 Z-3.169 I1.375 J0.794
X24.755 Y52.891 Z-3.252 I-1.375 J-0.794
X27.505 Y54.479 Z-3.335 I1.375 J0.794
X24.755 Y52.891 Z-3.418 I-1.375 J-0.794
X27.505 Y54.479 Z-3.501 I1.375 J0.794
X24.755 Y52.891 Z-3.585 I-1.375 J-0.794
X27.505 Y54.479 Z-3.668 I1.375 J0.794
X24.755 Y52.891 Z-3.751 I-1.375 J-0.794
X27.505 Y54.479 Z-3.834 I1.375 J0.794
X24.755 Y52.891 Z-3.917 I-1.375 J-0.794
X27.505 Y54.479 Z-4. I1.375 J0.794
X24.755 Y52.891 Z-4.083 I-1.375 J-0.794
X27.505 Y54.479 Z-4.166 I1.375 J0.794
X24.755 Y52.891 Z-4.25 I-1.375 J-0.794
X27.505 Y54.479 Z-4.333 I1.375 J0.794
X24.755 Y52.891 Z-4.416 I-1.375 J-0.794
X27.505 Y54.479 Z-4.499 I1.375 J0.794
X24.755 Y52.891 Z-4.582 I-1.375 J-0.794
X27.505 Y54.479 Z-4.665 I1.375 J0.794
X24.755 Y52.891 Z-4.748 I-1.375 J-0.794
X27.505 Y54.479 Z-4.831 I1.375 J0.794
X24.755 Y52.891 Z-4.915 I-1.375 J-0.794
X27.505 Y54.479 Z-4.998 I1.375 J0.794
X24.755 Y52.891 Z-5.081 I-1.375 J-0.794
X27.505 Y54.479 Z-5.164 I1.375 J0.794
X24.755 Y52.891 Z-5.247 I-1.375 J-0.794
X27.505 Y54.479 Z-5.33 I1.375 J0.794
X24.755 Y52.891 Z-5.413 I-1.375 J-0.794
X27.505 Y54.479 Z-5.497 I1.375 J0.794
X24.755 Y52.891 Z-5.58 I-1.375 J-0.794
X27.505 Y54.479 Z-5.663 I1.375 J0.794
X24.755 Y52.891 Z-5.746 I-1.375 J-0.794
X27.505 Y54.479 Z-5.829 I1.375 J0.794
X24.755 Y52.891 Z-5.912 I-1.375 J-0.794
X27.505 Y54.479 Z-5.995 I1.375 J0.794
X24.755 Y52.891 Z-6.078 I-1.375 J-0.794
X27.505 Y54.479 Z-6.162 I1.375 J0.794
X24.755 Y52.891 Z-6.245 I-1.375 J-0.794
X27.505 Y54.479 Z-6.328 I1.375 J0.794
X24.755 Y52.891 Z-6.411 I-1.375 J-0.794
X27.505 Y54.479 Z-6.494 I1.375 J0.794
X24.755 Y52.891 Z-6.577 I-1.375 J-0.794
X27.505 Y54.479 Z-6.66 I1.375 J0.794
X24.755 Y52.891 Z-6.743 I-1.375 J-0.794
X27.505 Y54.479 Z-6.827 I1.375 J0.794
X24.755 Y52.891 Z-6.91 I-1.375 J-0.794
X27.505 Y54.479 Z-6.993 I1.375 J0.794
X24.755 Y52.891 Z-7.076 I-1.375 J-0.794
X27.505 Y54.479 Z-7.159 I1.375 J0.794
X24.755 Y52.891 Z-7.242 I-1.375 J-0.794
X27.505 Y54.479 Z-7.325 I1.375 J0.794
X24.755 Y52.891 Z-7.409 I-1.375 J-0.794
X27.505 Y54.479 Z-7.492 I1.375 J0.794
X24.755 Y52.891 Z-7.575 I-1.375 J-0.794
X27.505 Y54.479 Z-7.658 I1.375 J0.794
X24.755 Y52.891 Z-7.741 I-1.375 J-0.794
X27.505 Y54.479 Z-7.824 I1.375 J0.794
X26.242 Y55.268 Z-7.85 I-1.375 J-0.794
X26.018 Y52.101 I-0.112 J-1.584
X26.242 Y55.268 I0.112 J1.584
X25.564 Y54.68 I-0.045 J-0.633
G1 X25.542 Y54.363
X25.535 Y54.264 Z-7.842
X25.528 Y54.167 Z-7.819
X25.521 Y54.076 Z-7.781
X25.515 Y53.991 Z-7.729
X25.51 Y53.915 Z-7.664
X25.505 Y53.851 Z-7.588
X25.502 Y53.799 Z-7.503
X25.499 Y53.761 Z-7.411
X25.497 Y53.737 Z-7.314
Y53.73 Z-7.215
G0 Z5.
X29.197 Y54.722
Z1.325
G1 Z-0.04 F1600.
X29.204 Y54.726 Z-0.139
X29.224 Y54.738 Z-0.236
X29.257 Y54.757 Z-0.328
X29.302 Y54.783 Z-0.413
X29.358 Y54.815 Z-0.489
X29.424 Y54.853 Z-0.554
X29.498 Y54.896 Z-0.606
X29.577 Y54.942 Z-0.644
X29.661 Y54.99 Z-0.667
X29.747 Y55.04 Z-0.675
X30.022 Y55.199
G3 X30.255 Y56.066 I-0.318 J0.55
X22.006 Y51.304 Z-0.814 I-4.124 J-2.381
X30.255 Y56.066 Z-0.952 I4.124 J2.381
X22.006 Y51.304 Z-1.091 I-4.124 J-2.381
X30.255 Y56.066 Z-1.229 I4.124 J2.381
X22.006 Y51.304 Z-1.368 I-4.124 J-2.381
X30.255 Y56.066 Z-1.506 I4.124 J2.381
X22.006 Y51.304 Z-1.645 I-4.124 J-2.381
X30.255 Y56.066 Z-1.783 I4.124 J2.381
X22.006 Y51.304 Z-1.922 I-4.124 J-2.381
X30.255 Y56.066 Z-2.06 I4.124 J2.381
X22.006 Y51.304 Z-2.199 I-4.124 J-2.381
X30.255 Y56.066 Z-2.338 I4.124 J2.381
X22.006 Y51.304 Z-2.476 I-4.124 J-2.381
X30.255 Y56.066 Z-2.615 I4.124 J2.381
X22.006 Y51.304 Z-2.753 I-4.124 J-2.381
X30.255 Y56.066 Z-2.892 I4.124 J2.381
X22.006 Y51.304 Z-3.03 I-4.124 J-2.381
X30.255 Y56.066 Z-3.169 I4.124 J2.381
X22.006 Y51.304 Z-3.307 I-4.124 J-2.381
X30.255 Y56.066 Z-3.446 I4.124 J2.381
X22.006 Y51.304 Z-3.585 I-4.124 J-2.381
X30.255 Y56.066 Z-3.723 I4.124 J2.381
X22.006 Y51.304 Z-3.862 I-4.124 J-2.381
X30.255 Y56.066 Z-4. I4.124 J2.381
X22.006 Y51.304 Z-4.139 I-4.124 J-2.381
X30.255 Y56.066 Z-4.277 I4.124 J2.381
X22.006 Y51.304 Z-4.416 I-4.124 J-2.381
X30.255 Y56.066 Z-4.554 I4.124 J2.381
X22.006 Y51.304 Z-4.693 I-4.124 J-2.381
X30.255 Y56.066 Z-4.831 I4.124 J2.381
X22.006 Y51.304 Z-4.97 I-4.124 J-2.381
X30.255 Y56.066 Z-5.109 I4.124 J2.381
X22.006 Y51.304 Z-5.247 I-4.124 J-2.381
X30.255 Y56.066 Z-5.386 I4.124 J2.381
X22.006 Y51.304 Z-5.524 I-4.124 J-2.381
X30.255 Y56.066 Z-5.663 I4.124 J2.381
X22.006 Y51.304 Z-5.801 I-4.124 J-2.381
X30.255 Y56.066 Z-5.94 I4.124 J2.381
X22.006 Y51.304 Z-6.078 I-4.124 J-2.381
X30.255 Y56.066 Z-6.217 I4.124 J2.381
X22.006 Y51.304 Z-6.356 I-4.124 J-2.381
X30.255 Y56.066 Z-6.494 I4.124 J2.381
X22.006 Y51.304 Z-6.633 I-4.124 J-2.381
X30.255 Y56.066 Z-6.771 I4.124 J2.381
X22.006 Y51.304 Z-6.91 I-4.124 J-2.381
X30.255 Y56.066 Z-7.048 I4.124 J2.381
X22.006 Y51.304 Z-7.187 I-4.124 J-2.381
X30.255 Y56.066 Z-7.325 I4.124 J2.381
X22.006 Y51.304 Z-7.464 I-4.124 J-2.381
X30.255 Y56.066 Z-7.602 I4.124 J2.381
X22.006 Y51.304 Z-7.741 I-4.124 J-2.381
X30.841 Y52.987 Z-7.85 I4.124 J2.381
X21.419 Y54.383 I-4.711 J0.698
X30.841 Y52.987 I4.711 J-0.698
X30.306 Y53.708 I-0.628 J0.093
G1 X29.992 Y53.755
X29.894 Y53.769 Z-7.842
X29.798 Y53.783 Z-7.819
X29.707 Y53.797 Z-7.781
X29.623 Y53.809 Z-7.729
X29.548 Y53.82 Z-7.664
X29.484 Y53.83 Z-7.588
X29.432 Y53.838 Z-7.503
X29.395 Y53.843 Z-7.411
X29.372 Y53.847 Z-7.314
X29.364 Y53.848 Z-7.215
G0 Z5.
X31.947 Y56.31
Z1.325
G1 Z-0.04 F1600.
X31.954 Y56.314 Z-0.139
X31.974 Y56.326 Z-0.236
X32.007 Y56.345 Z-0.328
X32.052 Y56.371 Z-0.413
X32.108 Y56.403 Z-0.489
X32.174 Y56.441 Z-0.554
X32.247 Y56.483 Z-0.606
X32.327 Y56.529 Z-0.644
X32.411 Y56.578 Z-0.667
X32.497 Y56.627 Z-0.675
X32.772 Y56.786
G3 X33.004 Y57.654 I-0.317 J0.55
X19.256 Y49.716 Z-0.869 I-6.874 J-3.969
X33.004 Y57.654 Z-1.063 I6.874 J3.969
X19.256 Y49.716 Z-1.257 I-6.874 J-3.969
X33.004 Y57.654 Z-1.451 I6.874 J3.969
X19.256 Y49.716 Z-1.645 I-6.874 J-3.969
X33.004 Y57.654 Z-1.839 I6.874 J3.969
X19.256 Y49.716 Z-2.033 I-6.874 J-3.969
X33.004 Y57.654 Z-2.227 I6.874 J3.969
X19.256 Y49.716 Z-2.421 I-6.874 J-3.969
X33.004 Y57.654 Z-2.615 I6.874 J3.969
X19.256 Y49.716 Z-2.809 I-6.874 J-3.969
X33.004 Y57.654 Z-3.003 I6.874 J3.969
X19.256 Y49.716 Z-3.197 I-6.874 J-3.969
X33.004 Y57.654 Z-3.391 I6.874 J3.969
X19.256 Y49.716 Z-3.585 I-6.874 J-3.969
X33.004 Y57.654 Z-3.779 I6.874 J3.969
X19.256 Y49.716 Z-3.972 I-6.874 J-3.969
X33.004 Y57.654 Z-4.166 I6.874 J3.969
X19.256 Y49.716 Z-4.36 I-6.874 J-3.969
X33.004 Y57.654 Z-4.554 I6.874 J3.969
X19.256 Y49.716 Z-4.748 I-6.874 J-3.969
X33.004 Y57.654 Z-4.942 I6.874 J3.969
X19.256 Y49.716 Z-5.136 I-6.874 J-3.969
X33.004 Y57.654 Z-5.33 I6.874 J3.969
X19.256 Y49.716 Z-5.524 I-6.874 J-3.969
X33.004 Y57.654 Z-5.718 I6.874 J3.969
X19.256 Y49.716 Z-5.912 I-6.874 J-3.969
X33.004 Y57.654 Z-6.106 I6.874 J3.969
X19.256 Y49.716 Z-6.3 I-6.874 J-3.969
X33.004 Y57.654 Z-6.494 I6.874 J3.969
X19.256 Y49.716 Z-6.688 I-6.874 J-3.969
X33.004 Y57.654 Z-6.882 I6.874 J3.969
X19.256 Y49.716 Z-7.076 I-6.874 J-3.969
X33.004 Y57.654 Z-7.27 I6.874 J3.969
X19.256 Y49.716 Z-7.464 I-6.874 J-3.969
X33.004 Y57.654 Z-7.658 I6.874 J3.969
X19.139 Y49.926 Z-7.85 I-6.874 J-3.969
X33.121 Y57.444 I6.991 J3.759
X19.139 Y49.926 I-6.991 J-3.759
X19.999 Y49.667 I0.559 J0.301
G1 X20.279 Y49.818
X20.366 Y49.865 Z-7.842
X20.452 Y49.911 Z-7.819
X20.533 Y49.954 Z-7.781
X20.608 Y49.994 Z-7.729
X20.674 Y50.03 Z-7.664
X20.731 Y50.061 Z-7.588
X20.777 Y50.086 Z-7.503
X20.811 Y50.104 Z-7.411
X20.831 Y50.115 Z-7.314
X20.838 Y50.118 Z-7.215
G0 Z15.
M5
G0 Z15
G0 X0 Y0

M9
M30
