(1001)
(T1  D=3.175 CR=0. - ZMIN=-3.175 - FLAT END MILL)
G90 G94 G91.1 G40 G49 G17
G21
G0 Z15

(2D POCKET1)
M5
T1 M6
S15000 M3
G54
M8
G0 X20.312 Y-14.502
G43 Z15. H1
Z5.
G1 Z2.817 F1600.
X20.335 Y-14.495 Z2.697 F800.
X20.4 Y-14.477 Z2.595
X20.498 Y-14.455 Z2.526
X20.617 Y-14.438 Z2.5
G2 X20.926 Y-17.439 Z2.417 I0.155 J-1.5
X20.617 Y-14.438 Z2.335 I-0.155 J1.5
X20.926 Y-17.439 Z2.252 I0.155 J-1.5
X20.617 Y-14.438 Z2.169 I-0.155 J1.5
X20.926 Y-17.439 Z2.086 I0.155 J-1.5
X20.617 Y-14.438 Z2.004 I-0.155 J1.5
X20.926 Y-17.439 Z1.921 I0.155 J-1.5
X20.617 Y-14.438 Z1.838 I-0.155 J1.5
X20.926 Y-17.439 Z1.756 I0.155 J-1.5
X20.617 Y-14.438 Z1.673 I-0.155 J1.5
X20.926 Y-17.439 Z1.59 I0.155 J-1.5
X20.617 Y-14.438 Z1.508 I-0.155 J1.5
X20.926 Y-17.439 Z1.425 I0.155 J-1.5
X20.617 Y-14.438 Z1.342 I-0.155 J1.5
X20.926 Y-17.439 Z1.259 I0.155 J-1.5
X20.617 Y-14.438 Z1.177 I-0.155 J1.5
X20.926 Y-17.439 Z1.094 I0.155 J-1.5
X20.617 Y-14.438 Z1.011 I-0.155 J1.5
X20.926 Y-17.439 Z0.929 I0.155 J-1.5
X20.617 Y-14.438 Z0.846 I-0.155 J1.5
X20.926 Y-17.439 Z0.763 I0.155 J-1.5
X20.617 Y-14.438 Z0.681 I-0.155 J1.5
X20.926 Y-17.439 Z0.598 I0.155 J-1.5
X20.617 Y-14.438 Z0.515 I-0.155 J1.5
X20.926 Y-17.439 Z0.432 I0.155 J-1.5
X20.617 Y-14.438 Z0.35 I-0.155 J1.5
X20.926 Y-17.439 Z0.267 I0.155 J-1.5
X20.617 Y-14.438 Z0.184 I-0.155 J1.5
X20.926 Y-17.439 Z0.102 I0.155 J-1.5
X20.617 Y-14.438 Z0.019 I-0.155 J1.5
X20.926 Y-17.439 Z-0.064 I0.155 J-1.5
X19.575 Y-15.02 Z-0.125 I-0.155 J1.5
G3 X21.217 Y-12.595 I-19.576 J15.021 F1600.
X22.201 Y-10.766 I-20.667 J12.299
X22.349 Y-10.455 I-20.143 J9.785
G2 X23.666 Y-11.069 I0.658 J-0.307
X22.756 Y-12.835 I-22.981 J10.716
X17.234 Y-19.636 I-22.695 J12.785
X16.817 Y-19.995 I-19.128 J21.84
X15.792 Y-19.926 I-0.477 J0.568
X15.86 Y-18.901 I0.526 J0.48
G3 X19.575 Y-15.02 I-15.86 J18.902
X19.706 Y-12.276 I-1.911 J1.466
G2 X19.559 Y-9.532 I2.402 J1.505
G1 X19.578 Y-9.492
G3 X19.706 Y-9.222 I-17.523 J8.512
G2 X26.309 Y-12.301 I3.301 J-1.539
X20.76 Y-20.31 I-26.163 J12.2
X18.977 Y-21.985 I-20.936 J20.498
X18.668 Y-22.248 I-21.077 J24.454
X13.543 Y-21.761 I-2.323 J2.768
X14.024 Y-16.635 I2.848 J2.318
G3 X14.637 Y-16.098 I-14.304 J16.956
X19.161 Y-10.307 I-14.625 J16.088
X19.559 Y-9.532 I-18.276 J9.854
X19.333 Y-7.271 I-1.947 J0.947
G2 X19.791 Y-5.046 I1.197 J0.913
X28.952 Y-13.533 I3.217 J-5.716
G1 X28.932 Y-13.576
G2 X22.769 Y-22.426 I-28.97 J13.602
X20.8 Y-24.264 I-22.584 J22.229
X20.566 Y-24.463 I-20.822 J24.288
X12.111 Y-14.433 I-4.216 J5.024
G3 X16.205 Y-9.612 I-12.111 J14.434
X16.955 Y-8.217 I-15.657 J9.318
X17.063 Y-7.99 I-14.904 J7.24
G2 X19.791 Y-5.046 I5.944 J-2.772
G3 X20.966 Y-2.968 I-1.131 J2.01
G2 X22.589 Y-1.219 I1.701 J0.049
X31.653 Y-14.76 I0.431 J-9.515
X22.449 Y-26.754 I-31.653 J14.76
X10.204 Y-12.161 I-6.123 J7.297
G3 X14.388 Y-6.709 I-10.204 J12.161
G2 X22.589 Y-1.219 I8.633 J-4.025
X23.85 Y-3.649 Z-0.153 I0.068 J-1.507 F800.
G1 X19.79 Y-8.894 Z-0.208
G3 X20.197 Y-11.105 Z-0.229 I1.193 J-0.923
X22.349 Y-10.455 Z-0.25 I0.785 J1.288
G2 X23.666 Y-11.069 I0.658 J-0.307 F1600.
X22.756 Y-12.835 I-22.981 J10.716
X17.234 Y-19.636 I-22.695 J12.785
X16.817 Y-19.995 I-19.128 J21.84
X15.792 Y-19.926 I-0.477 J0.568
X15.86 Y-18.901 I0.526 J0.48
G3 X21.217 Y-12.595 I-15.86 J18.902
X22.201 Y-10.766 I-20.667 J12.299
X22.349 Y-10.455 I-20.143 J9.785
X22.285 Y-8.651 I-1.796 J0.839
G2 X23.251 Y-7.127 I0.897 J0.5
X26.309 Y-12.301 I-0.243 J-3.634
X20.76 Y-20.31 I-26.163 J12.2
X18.977 Y-21.985 I-20.936 J20.498
X18.668 Y-22.248 I-21.077 J24.454
X13.543 Y-21.761 I-2.323 J2.768
X14.024 Y-16.635 I2.848 J2.318
G3 X14.637 Y-16.098 I-14.304 J16.956
X19.161 Y-10.307 I-14.625 J16.088
X19.578 Y-9.492 I-18.276 J9.854
X19.706 Y-9.222 I-17.523 J8.512
G2 X23.251 Y-7.127 I3.301 J-1.539
G3 X25.221 Y-6.16 I0.147 J2.192
G2 X27.4 Y-5.891 I1.206 J-0.81
X28.952 Y-13.533 I-4.392 J-4.871
G1 X28.932 Y-13.576
G2 X22.769 Y-22.426 I-28.97 J13.602
X20.8 Y-24.264 I-22.584 J22.229
X20.566 Y-24.463 I-20.822 J24.288
X12.111 Y-14.433 I-4.216 J5.024
G3 X16.205 Y-9.612 I-12.111 J14.434
X16.955 Y-8.217 I-15.657 J9.318
X17.063 Y-7.99 I-14.904 J7.24
G2 X27.4 Y-5.891 I5.944 J-2.772
G3 X29.746 Y-6.347 I1.552 J1.721
G2 X31.92 Y-7.34 I0.583 J-1.599
X31.653 Y-14.76 I-8.899 J-3.395
X22.449 Y-26.754 I-31.653 J14.76
X10.204 Y-12.161 I-6.123 J7.297
G3 X14.388 Y-6.709 I-10.204 J12.161
G2 X31.92 Y-7.34 I8.633 J-4.025
X31.156 Y-9.24 Z-0.271 I-1.409 J-0.538 F800.
G1 X24.361 Y-12.455 Z-0.341
G2 X22.349 Y-10.455 Z-0.375 I-0.645 J1.363
X23.666 Y-11.069 I0.658 J-0.307 F1600.
X22.756 Y-12.835 I-22.981 J10.716
X17.234 Y-19.636 I-22.695 J12.785
X16.817 Y-19.995 I-19.128 J21.84
X15.792 Y-19.926 I-0.477 J0.568
X15.86 Y-18.901 I0.526 J0.48
G3 X21.217 Y-12.595 I-15.86 J18.902
X22.201 Y-10.766 I-20.667 J12.299
X22.349 Y-10.455 I-20.143 J9.785
X22.285 Y-8.651 I-1.796 J0.839
G2 X23.251 Y-7.127 I0.897 J0.5
X26.309 Y-12.301 I-0.243 J-3.634
X20.76 Y-20.31 I-26.163 J12.2
X18.977 Y-21.985 I-20.936 J20.498
X18.668 Y-22.248 I-21.077 J24.454
X13.543 Y-21.761 I-2.323 J2.768
X14.024 Y-16.635 I2.848 J2.318
G3 X14.637 Y-16.098 I-14.304 J16.956
X19.161 Y-10.307 I-14.625 J16.088
X19.578 Y-9.492 I-18.276 J9.854
X19.706 Y-9.222 I-17.523 J8.512
G2 X23.251 Y-7.127 I3.301 J-1.539
G3 X25.221 Y-6.16 I0.147 J2.192
G2 X27.4 Y-5.891 I1.206 J-0.81
X28.952 Y-13.533 I-4.392 J-4.871
G1 X28.932 Y-13.576
G2 X22.769 Y-22.426 I-28.97 J13.602
X20.8 Y-24.264 I-22.584 J22.229
X20.566 Y-24.463 I-20.822 J24.288
X12.111 Y-14.433 I-4.216 J5.024
G3 X16.205 Y-9.612 I-12.111 J14.434
X16.955 Y-8.217 I-15.657 J9.318
X17.063 Y-7.99 I-14.904 J7.24
G2 X27.4 Y-5.891 I5.944 J-2.772
G3 X29.746 Y-6.347 I1.552 J1.721
G2 X31.92 Y-7.34 I0.583 J-1.599
X31.653 Y-14.76 I-8.899 J-3.395
X22.449 Y-26.754 I-31.653 J14.76
X10.204 Y-12.161 I-6.123 J7.297
G3 X14.388 Y-6.709 I-10.204 J12.161
G2 X31.92 Y-7.34 I8.633 J-4.025
X31.156 Y-9.24 Z-0.396 I-1.409 J-0.538 F800.
G1 X24.361 Y-12.455 Z-0.466
G2 X22.349 Y-10.455 Z-0.5 I-0.645 J1.363
X23.666 Y-11.069 I0.658 J-0.307 F1600.
X22.756 Y-12.835 I-22.981 J10.716
X17.234 Y-19.636 I-22.695 J12.785
X16.817 Y-19.995 I-19.128 J21.84
X15.792 Y-19.926 I-0.477 J0.568
X15.86 Y-18.901 I0.526 J0.48
G3 X21.217 Y-12.595 I-15.86 J18.902
X22.201 Y-10.766 I-20.667 J12.299
X22.349 Y-10.455 I-20.143 J9.785
X22.285 Y-8.651 I-1.796 J0.839
G2 X23.251 Y-7.127 I0.897 J0.5
X26.309 Y-12.301 I-0.243 J-3.634
X20.76 Y-20.31 I-26.163 J12.2
X18.977 Y-21.985 I-20.936 J20.498
X18.668 Y-22.248 I-21.077 J24.454
X13.543 Y-21.761 I-2.323 J2.768
X14.024 Y-16.635 I2.848 J2.318
G3 X14.637 Y-16.098 I-14.304 J16.956
X19.161 Y-10.307 I-14.625 J16.088
X19.578 Y-9.492 I-18.276 J9.854
X19.706 Y-9.222 I-17.523 J8.512
G2 X23.251 Y-7.127 I3.301 J-1.539
G3 X25.221 Y-6.16 I0.147 J2.192
G2 X27.4 Y-5.891 I1.206 J-0.81
X28.952 Y-13.533 I-4.392 J-4.871
G1 X28.932 Y-13.576
G2 X22.769 Y-22.426 I-28.97 J13.602
X20.8 Y-24.264 I-22.584 J22.229
X20.566 Y-24.463 I-20.822 J24.288
X12.111 Y-14.433 I-4.216 J5.024
G3 X16.205 Y-9.612 I-12.111 J14.434
X16.955 Y-8.217 I-15.657 J9.318
X17.063 Y-7.99 I-14.904 J7.24
G2 X27.4 Y-5.891 I5.944 J-2.772
G3 X29.746 Y-6.347 I1.552 J1.721
G2 X31.92 Y-7.34 I0.583 J-1.599
X31.653 Y-14.76 I-8.899 J-3.395
X22.449 Y-26.754 I-31.653 J14.76
X10.204 Y-12.161 I-6.123 J7.297
G3 X14.388 Y-6.709 I-10.204 J12.161
G2 X31.92 Y-7.34 I8.633 J-4.025
X31.156 Y-9.24 Z-0.521 I-1.409 J-0.538 F800.
G1 X24.361 Y-12.455 Z-0.591
G2 X22.349 Y-10.455 Z-0.625 I-0.645 J1.363
X23.666 Y-11.069 I0.658 J-0.307 F1600.
X22.756 Y-12.835 I-22.981 J10.716
X17.234 Y-19.636 I-22.695 J12.785
X16.817 Y-19.995 I-19.128 J21.84
X15.792 Y-19.926 I-0.477 J0.568
X15.86 Y-18.901 I0.526 J0.48
G3 X21.217 Y-12.595 I-15.86 J18.902
X22.201 Y-10.766 I-20.667 J12.299
X22.349 Y-10.455 I-20.143 J9.785
X22.285 Y-8.651 I-1.796 J0.839
G2 X23.251 Y-7.127 I0.897 J0.5
X26.309 Y-12.301 I-0.243 J-3.634
X20.76 Y-20.31 I-26.163 J12.2
X18.977 Y-21.985 I-20.936 J20.498
X18.668 Y-22.248 I-21.077 J24.454
X13.543 Y-21.761 I-2.323 J2.768
X14.024 Y-16.635 I2.848 J2.318
G3 X14.637 Y-16.098 I-14.304 J16.956
X19.161 Y-10.307 I-14.625 J16.088
X19.578 Y-9.492 I-18.276 J9.854
X19.706 Y-9.222 I-17.523 J8.512
G2 X23.251 Y-7.127 I3.301 J-1.539
G3 X25.221 Y-6.16 I0.147 J2.192
G2 X27.4 Y-5.891 I1.206 J-0.81
X28.952 Y-13.533 I-4.392 J-4.871
G1 X28.932 Y-13.576
G2 X22.769 Y-22.426 I-28.97 J13.602
X20.8 Y-24.264 I-22.584 J22.229
X20.566 Y-24.463 I-20.822 J24.288
X12.111 Y-14.433 I-4.216 J5.024
G3 X16.205 Y-9.612 I-12.111 J14.434
X16.955 Y-8.217 I-15.657 J9.318
X17.063 Y-7.99 I-14.904 J7.24
G2 X27.4 Y-5.891 I5.944 J-2.772
G3 X29.746 Y-6.347 I1.552 J1.721
G2 X31.92 Y-7.34 I0.583 J-1.599
X31.653 Y-14.76 I-8.899 J-3.395
X22.449 Y-26.754 I-31.653 J14.76
X10.204 Y-12.161 I-6.123 J7.297
G3 X14.388 Y-6.709 I-10.204 J12.161
G2 X31.92 Y-7.34 I8.633 J-4.025
X31.156 Y-9.24 Z-0.646 I-1.409 J-0.538 F800.
G1 X24.361 Y-12.455 Z-0.716
G2 X22.349 Y-10.455 Z-0.75 I-0.645 J1.363
X23.666 Y-11.069 I0.658 J-0.307 F1600.
X22.756 Y-12.835 I-22.981 J10.716
X17.234 Y-19.636 I-22.695 J12.785
X16.817 Y-19.995 I-19.128 J21.84
X15.792 Y-19.926 I-0.477 J0.568
X15.86 Y-18.901 I0.526 J0.48
G3 X21.217 Y-12.595 I-15.86 J18.902
X22.201 Y-10.766 I-20.667 J12.299
X22.349 Y-10.455 I-20.143 J9.785
X22.285 Y-8.651 I-1.796 J0.839
G2 X23.251 Y-7.127 I0.897 J0.5
X26.309 Y-12.301 I-0.243 J-3.634
X20.76 Y-20.31 I-26.163 J12.2
X18.977 Y-21.985 I-20.936 J20.498
X18.668 Y-22.248 I-21.077 J24.454
X13.543 Y-21.761 I-2.323 J2.768
X14.024 Y-16.635 I2.848 J2.318
G3 X14.637 Y-16.098 I-14.304 J16.956
X19.161 Y-10.307 I-14.625 J16.088
X19.578 Y-9.492 I-18.276 J9.854
X19.706 Y-9.222 I-17.523 J8.512
G2 X23.251 Y-7.127 I3.301 J-1.539
G3 X25.221 Y-6.16 I0.147 J2.192
G2 X27.4 Y-5.891 I1.206 J-0.81
X28.952 Y-13.533 I-4.392 J-4.871
G1 X28.932 Y-13.576
G2 X22.769 Y-22.426 I-28.97 J13.602
X20.8 Y-24.264 I-22.584 J22.229
X20.566 Y-24.463 I-20.822 J24.288
X12.111 Y-14.433 I-4.216 J5.024
G3 X16.205 Y-9.612 I-12.111 J14.434
X16.955 Y-8.217 I-15.657 J9.318
X17.063 Y-7.99 I-14.904 J7.24
G2 X27.4 Y-5.891 I5.944 J-2.772
G3 X29.746 Y-6.347 I1.552 J1.721
G2 X31.92 Y-7.34 I0.583 J-1.599
X31.653 Y-14.76 I-8.899 J-3.395
X22.449 Y-26.754 I-31.653 J14.76
X10.204 Y-12.161 I-6.123 J7.297
G3 X14.388 Y-6.709 I-10.204 J12.161
G2 X31.92 Y-7.34 I8.633 J-4.025
X31.156 Y-9.24 Z-0.771 I-1.409 J-0.538 F800.
G1 X24.361 Y-12.455 Z-0.841
G2 X22.349 Y-10.455 Z-0.875 I-0.645 J1.363
X23.666 Y-11.069 I0.658 J-0.307 F1600.
X22.756 Y-12.835 I-22.981 J10.716
X17.234 Y-19.636 I-22.695 J12.785
X16.817 Y-19.995 I-19.128 J21.84
X15.792 Y-19.926 I-0.477 J0.568
X15.86 Y-18.901 I0.526 J0.48
G3 X21.217 Y-12.595 I-15.86 J18.902
X22.201 Y-10.766 I-20.667 J12.299
X22.349 Y-10.455 I-20.143 J9.785
X22.285 Y-8.651 I-1.796 J0.839
G2 X23.251 Y-7.127 I0.897 J0.5
X26.309 Y-12.301 I-0.243 J-3.634
X20.76 Y-20.31 I-26.163 J12.2
X18.977 Y-21.985 I-20.936 J20.498
X18.668 Y-22.248 I-21.077 J24.454
X13.543 Y-21.761 I-2.323 J2.768
X14.024 Y-16.635 I2.848 J2.318
G3 X14.637 Y-16.098 I-14.304 J16.956
X19.161 Y-10.307 I-14.625 J16.088
X19.578 Y-9.492 I-18.276 J9.854
X19.706 Y-9.222 I-17.523 J8.512
G2 X23.251 Y-7.127 I3.301 J-1.539
G3 X25.221 Y-6.16 I0.147 J2.192
G2 X27.4 Y-5.891 I1.206 J-0.81
X28.952 Y-13.533 I-4.392 J-4.871
G1 X28.932 Y-13.576
G2 X22.769 Y-22.426 I-28.97 J13.602
X20.8 Y-24.264 I-22.584 J22.229
X20.566 Y-24.463 I-20.822 J24.288
X12.111 Y-14.433 I-4.216 J5.024
G3 X16.205 Y-9.612 I-12.111 J14.434
X16.955 Y-8.217 I-15.657 J9.318
X17.063 Y-7.99 I-14.904 J7.24
G2 X27.4 Y-5.891 I5.944 J-2.772
G3 X29.746 Y-6.347 I1.552 J1.721
G2 X31.92 Y-7.34 I0.583 J-1.599
X31.653 Y-14.76 I-8.899 J-3.395
X22.449 Y-26.754 I-31.653 J14.76
X10.204 Y-12.161 I-6.123 J7.297
G3 X14.388 Y-6.709 I-10.204 J12.161
G2 X31.92 Y-7.34 I8.633 J-4.025
X31.156 Y-9.24 Z-0.896 I-1.409 J-0.538 F800.
G1 X24.361 Y-12.455 Z-0.966
G2 X22.349 Y-10.455 Z-1. I-0.645 J1.363
X23.666 Y-11.069 I0.658 J-0.307 F1600.
X22.756 Y-12.835 I-22.981 J10.716
X17.234 Y-19.636 I-22.695 J12.785
X16.817 Y-19.995 I-19.128 J21.84
X15.792 Y-19.926 I-0.477 J0.568
X15.86 Y-18.901 I0.526 J0.48
G3 X21.217 Y-12.595 I-15.86 J18.902
X22.201 Y-10.766 I-20.667 J12.299
X22.349 Y-10.455 I-20.143 J9.785
X22.285 Y-8.651 I-1.796 J0.839
G2 X23.251 Y-7.127 I0.897 J0.5
X26.309 Y-12.301 I-0.243 J-3.634
X20.76 Y-20.31 I-26.163 J12.2
X18.977 Y-21.985 I-20.936 J20.498
X18.668 Y-22.248 I-21.077 J24.454
X13.543 Y-21.761 I-2.323 J2.768
X14.024 Y-16.635 I2.848 J2.318
G3 X14.637 Y-16.098 I-14.304 J16.956
X19.161 Y-10.307 I-14.625 J16.088
X19.578 Y-9.492 I-18.276 J9.854
X19.706 Y-9.222 I-17.523 J8.512
G2 X23.251 Y-7.127 I3.301 J-1.539
G3 X25.221 Y-6.16 I0.147 J2.192
G2 X27.4 Y-5.891 I1.206 J-0.81
X28.952 Y-13.533 I-4.392 J-4.871
G1 X28.932 Y-13.576
G2 X22.769 Y-22.426 I-28.97 J13.602
X20.8 Y-24.264 I-22.584 J22.229
X20.566 Y-24.463 I-20.822 J24.288
X12.111 Y-14.433 I-4.216 J5.024
G3 X16.205 Y-9.612 I-12.111 J14.434
X16.955 Y-8.217 I-15.657 J9.318
X17.063 Y-7.99 I-14.904 J7.24
G2 X27.4 Y-5.891 I5.944 J-2.772
G3 X29.746 Y-6.347 I1.552 J1.721
G2 X31.92 Y-7.34 I0.583 J-1.599
X31.653 Y-14.76 I-8.899 J-3.395
X22.449 Y-26.754 I-31.653 J14.76
X10.204 Y-12.161 I-6.123 J7.297
G3 X14.388 Y-6.709 I-10.204 J12.161
G2 X31.92 Y-7.34 I8.633 J-4.025
X31.156 Y-9.24 Z-1.021 I-1.409 J-0.538 F800.
G1 X24.361 Y-12.455 Z-1.091
G2 X22.349 Y-10.455 Z-1.125 I-0.645 J1.363
X23.666 Y-11.069 I0.658 J-0.307 F1600.
X22.756 Y-12.835 I-22.981 J10.716
X17.234 Y-19.636 I-22.695 J12.785
X16.817 Y-19.995 I-19.128 J21.84
X15.792 Y-19.926 I-0.477 J0.568
X15.86 Y-18.901 I0.526 J0.48
G3 X21.217 Y-12.595 I-15.86 J18.902
X22.201 Y-10.766 I-20.667 J12.299
X22.349 Y-10.455 I-20.143 J9.785
X22.285 Y-8.651 I-1.796 J0.839
G2 X23.251 Y-7.127 I0.897 J0.5
X26.309 Y-12.301 I-0.243 J-3.634
X20.76 Y-20.31 I-26.163 J12.2
X18.977 Y-21.985 I-20.936 J20.498
X18.668 Y-22.248 I-21.077 J24.454
X13.543 Y-21.761 I-2.323 J2.768
X14.024 Y-16.635 I2.848 J2.318
G3 X14.637 Y-16.098 I-14.304 J16.956
X19.161 Y-10.307 I-14.625 J16.088
X19.578 Y-9.492 I-18.276 J9.854
X19.706 Y-9.222 I-17.523 J8.512
G2 X23.251 Y-7.127 I3.301 J-1.539
G3 X25.221 Y-6.16 I0.147 J2.192
G2 X27.4 Y-5.891 I1.206 J-0.81
X28.952 Y-13.533 I-4.392 J-4.871
G1 X28.932 Y-13.576
G2 X22.769 Y-22.426 I-28.97 J13.602
X20.8 Y-24.264 I-22.584 J22.229
X20.566 Y-24.463 I-20.822 J24.288
X12.111 Y-14.433 I-4.216 J5.024
G3 X16.205 Y-9.612 I-12.111 J14.434
X16.955 Y-8.217 I-15.657 J9.318
X17.063 Y-7.99 I-14.904 J7.24
G2 X27.4 Y-5.891 I5.944 J-2.772
G3 X29.746 Y-6.347 I1.552 J1.721
G2 X31.92 Y-7.34 I0.583 J-1.599
X31.653 Y-14.76 I-8.899 J-3.395
X22.449 Y-26.754 I-31.653 J14.76
X10.204 Y-12.161 I-6.123 J7.297
G3 X14.388 Y-6.709 I-10.204 J12.161
G2 X31.92 Y-7.34 I8.633 J-4.025
X31.156 Y-9.24 Z-1.146 I-1.409 J-0.538 F800.
G1 X24.361 Y-12.455 Z-1.216
G2 X22.349 Y-10.455 Z-1.25 I-0.645 J1.363
X23.666 Y-11.069 I0.658 J-0.307 F1600.
X22.756 Y-12.835 I-22.981 J10.716
X17.234 Y-19.636 I-22.695 J12.785
X16.817 Y-19.995 I-19.128 J21.84
X15.792 Y-19.926 I-0.477 J0.568
X15.86 Y-18.901 I0.526 J0.48
G3 X21.217 Y-12.595 I-15.86 J18.902
X22.201 Y-10.766 I-20.667 J12.299
X22.349 Y-10.455 I-20.143 J9.785
X22.285 Y-8.651 I-1.796 J0.839
G2 X23.251 Y-7.127 I0.897 J0.5
X26.309 Y-12.301 I-0.243 J-3.634
X20.76 Y-20.31 I-26.163 J12.2
X18.977 Y-21.985 I-20.936 J20.498
X18.668 Y-22.248 I-21.077 J24.454
X13.543 Y-21.761 I-2.323 J2.768
X14.024 Y-16.635 I2.848 J2.318
G3 X14.637 Y-16.098 I-14.304 J16.956
X19.161 Y-10.307 I-14.625 J16.088
X19.578 Y-9.492 I-18.276 J9.854
X19.706 Y-9.222 I-17.523 J8.512
G2 X23.251 Y-7.127 I3.301 J-1.539
G3 X25.221 Y-6.16 I0.147 J2.192
G2 X27.4 Y-5.891 I1.206 J-0.81
X28.952 Y-13.533 I-4.392 J-4.871
G1 X28.932 Y-13.576
G2 X22.769 Y-22.426 I-28.97 J13.602
X20.8 Y-24.264 I-22.584 J22.229
X20.566 Y-24.463 I-20.822 J24.288
X12.111 Y-14.433 I-4.216 J5.024
G3 X16.205 Y-9.612 I-12.111 J14.434
X16.955 Y-8.217 I-15.657 J9.318
X17.063 Y-7.99 I-14.904 J7.24
G2 X27.4 Y-5.891 I5.944 J-2.772
G3 X29.746 Y-6.347 I1.552 J1.721
G2 X31.92 Y-7.34 I0.583 J-1.599
X31.653 Y-14.76 I-8.899 J-3.395
X22.449 Y-26.754 I-31.653 J14.76
X10.204 Y-12.161 I-6.123 J7.297
G3 X14.388 Y-6.709 I-10.204 J12.161
G2 X31.92 Y-7.34 I8.633 J-4.025
X31.156 Y-9.24 Z-1.271 I-1.409 J-0.538 F800.
G1 X24.361 Y-12.455 Z-1.341
G2 X22.349 Y-10.455 Z-1.375 I-0.645 J1.363
X23.666 Y-11.069 I0.658 J-0.307 F1600.
X22.756 Y-12.835 I-22.981 J10.716
X17.234 Y-19.636 I-22.695 J12.785
X16.817 Y-19.995 I-19.128 J21.84
X15.792 Y-19.926 I-0.477 J0.568
X15.86 Y-18.901 I0.526 J0.48
G3 X21.217 Y-12.595 I-15.86 J18.902
X22.201 Y-10.766 I-20.667 J12.299
X22.349 Y-10.455 I-20.143 J9.785
X22.285 Y-8.651 I-1.796 J0.839
G2 X23.251 Y-7.127 I0.897 J0.5
X26.309 Y-12.301 I-0.243 J-3.634
X20.76 Y-20.31 I-26.163 J12.2
X18.977 Y-21.985 I-20.936 J20.498
X18.668 Y-22.248 I-21.077 J24.454
X13.543 Y-21.761 I-2.323 J2.768
X14.024 Y-16.635 I2.848 J2.318
G3 X14.637 Y-16.098 I-14.304 J16.956
X19.161 Y-10.307 I-14.625 J16.088
X19.578 Y-9.492 I-18.276 J9.854
X19.706 Y-9.222 I-17.523 J8.512
G2 X23.251 Y-7.127 I3.301 J-1.539
G3 X25.221 Y-6.16 I0.147 J2.192
G2 X27.4 Y-5.891 I1.206 J-0.81
X28.952 Y-13.533 I-4.392 J-4.871
G1 X28.932 Y-13.576
G2 X22.769 Y-22.426 I-28.97 J13.602
X20.8 Y-24.264 I-22.584 J22.229
X20.566 Y-24.463 I-20.822 J24.288
X12.111 Y-14.433 I-4.216 J5.024
G3 X16.205 Y-9.612 I-12.111 J14.434
X16.955 Y-8.217 I-15.657 J9.318
X17.063 Y-7.99 I-14.904 J7.24
G2 X27.4 Y-5.891 I5.944 J-2.772
G3 X29.746 Y-6.347 I1.552 J1.721
G2 X31.92 Y-7.34 I0.583 J-1.599
X31.653 Y-14.76 I-8.899 J-3.395
X22.449 Y-26.754 I-31.653 J14.76
X10.204 Y-12.161 I-6.123 J7.297
G3 X14.388 Y-6.709 I-10.204 J12.161
G2 X31.92 Y-7.34 I8.633 J-4.025
X31.156 Y-9.24 Z-1.396 I-1.409 J-0.538 F800.
G1 X24.361 Y-12.455 Z-1.466
G2 X22.349 Y-10.455 Z-1.5 I-0.645 J1.363
X23.666 Y-11.069 I0.658 J-0.307 F1600.
X22.756 Y-12.835 I-22.981 J10.716
X17.234 Y-19.636 I-22.695 J12.785
X16.817 Y-19.995 I-19.128 J21.84
X15.792 Y-19.926 I-0.477 J0.568
X15.86 Y-18.901 I0.526 J0.48
G3 X21.217 Y-12.595 I-15.86 J18.902
X22.201 Y-10.766 I-20.667 J12.299
X22.349 Y-10.455 I-20.143 J9.785
X22.285 Y-8.651 I-1.796 J0.839
G2 X23.251 Y-7.127 I0.897 J0.5
X26.309 Y-12.301 I-0.243 J-3.634
X20.76 Y-20.31 I-26.163 J12.2
X18.977 Y-21.985 I-20.936 J20.498
X18.668 Y-22.248 I-21.077 J24.454
X13.543 Y-21.761 I-2.323 J2.768
X14.024 Y-16.635 I2.848 J2.318
G3 X14.637 Y-16.098 I-14.304 J16.956
X19.161 Y-10.307 I-14.625 J16.088
X19.578 Y-9.492 I-18.276 J9.854
X19.706 Y-9.222 I-17.523 J8.512
G2 X23.251 Y-7.127 I3.301 J-1.539
G3 X25.221 Y-6.16 I0.147 J2.192
G2 X27.4 Y-5.891 I1.206 J-0.81
X28.952 Y-13.533 I-4.392 J-4.871
G1 X28.932 Y-13.576
G2 X22.769 Y-22.426 I-28.97 J13.602
X20.8 Y-24.264 I-22.584 J22.229
X20.566 Y-24.463 I-20.822 J24.288
X12.111 Y-14.433 I-4.216 J5.024
G3 X16.205 Y-9.612 I-12.111 J14.434
X16.955 Y-8.217 I-15.657 J9.318
X17.063 Y-7.99 I-14.904 J7.24
G2 X27.4 Y-5.891 I5.944 J-2.772
G3 X29.746 Y-6.347 I1.552 J1.721
G2 X31.92 Y-7.34 I0.583 J-1.599
X31.653 Y-14.76 I-8.899 J-3.395
X22.449 Y-26.754 I-31.653 J14.76
X10.204 Y-12.161 I-6.123 J7.297
G3 X14.388 Y-6.709 I-10.204 J12.161
G2 X31.92 Y-7.34 I8.633 J-4.025
X31.156 Y-9.24 Z-1.521 I-1.409 J-0.538 F800.
G1 X24.361 Y-12.455 Z-1.591
G2 X22.349 Y-10.455 Z-1.625 I-0.645 J1.363
X23.666 Y-11.069 I0.658 J-0.307 F1600.
X22.756 Y-12.835 I-22.981 J10.716
X17.234 Y-19.636 I-22.695 J12.785
X16.817 Y-19.995 I-19.128 J21.84
X15.792 Y-19.926 I-0.477 J0.568
X15.86 Y-18.901 I0.526 J0.48
G3 X21.217 Y-12.595 I-15.86 J18.902
X22.201 Y-10.766 I-20.667 J12.299
X22.349 Y-10.455 I-20.143 J9.785
X22.285 Y-8.651 I-1.796 J0.839
G2 X23.251 Y-7.127 I0.897 J0.5
X26.309 Y-12.301 I-0.243 J-3.634
X20.76 Y-20.31 I-26.163 J12.2
X18.977 Y-21.985 I-20.936 J20.498
X18.668 Y-22.248 I-21.077 J24.454
X13.543 Y-21.761 I-2.323 J2.768
X14.024 Y-16.635 I2.848 J2.318
G3 X14.637 Y-16.098 I-14.304 J16.956
X19.161 Y-10.307 I-14.625 J16.088
X19.578 Y-9.492 I-18.276 J9.854
X19.706 Y-9.222 I-17.523 J8.512
G2 X23.251 Y-7.127 I3.301 J-1.539
G3 X25.221 Y-6.16 I0.147 J2.192
G2 X27.4 Y-5.891 I1.206 J-0.81
X28.952 Y-13.533 I-4.392 J-4.871
G1 X28.932 Y-13.576
G2 X22.769 Y-22.426 I-28.97 J13.602
X20.8 Y-24.264 I-22.584 J22.229
X20.566 Y-24.463 I-20.822 J24.288
X12.111 Y-14.433 I-4.216 J5.024
G3 X16.205 Y-9.612 I-12.111 J14.434
X16.955 Y-8.217 I-15.657 J9.318
X17.063 Y-7.99 I-14.904 J7.24
G2 X27.4 Y-5.891 I5.944 J-2.772
G3 X29.746 Y-6.347 I1.552 J1.721
G2 X31.92 Y-7.34 I0.583 J-1.599
X31.653 Y-14.76 I-8.899 J-3.395
X22.449 Y-26.754 I-31.653 J14.76
X10.204 Y-12.161 I-6.123 J7.297
G3 X14.388 Y-6.709 I-10.204 J12.161
G2 X31.92 Y-7.34 I8.633 J-4.025
X31.156 Y-9.24 Z-1.646 I-1.409 J-0.538 F800.
G1 X24.361 Y-12.455 Z-1.716
G2 X22.349 Y-10.455 Z-1.75 I-0.645 J1.363
X23.666 Y-11.069 I0.658 J-0.307 F1600.
X22.756 Y-12.835 I-22.981 J10.716
X17.234 Y-19.636 I-22.695 J12.785
X16.817 Y-19.995 I-19.128 J21.84
X15.792 Y-19.926 I-0.477 J0.568
X15.86 Y-18.901 I0.526 J0.48
G3 X21.217 Y-12.595 I-15.86 J18.902
X22.201 Y-10.766 I-20.667 J12.299
X22.349 Y-10.455 I-20.143 J9.785
X22.285 Y-8.651 I-1.796 J0.839
G2 X23.251 Y-7.127 I0.897 J0.5
X26.309 Y-12.301 I-0.243 J-3.634
X20.76 Y-20.31 I-26.163 J12.2
X18.977 Y-21.985 I-20.936 J20.498
X18.668 Y-22.248 I-21.077 J24.454
X13.543 Y-21.761 I-2.323 J2.768
X14.024 Y-16.635 I2.848 J2.318
G3 X14.637 Y-16.098 I-14.304 J16.956
X19.161 Y-10.307 I-14.625 J16.088
X19.578 Y-9.492 I-18.276 J9.854
X19.706 Y-9.222 I-17.523 J8.512
G2 X23.251 Y-7.127 I3.301 J-1.539
G3 X25.221 Y-6.16 I0.147 J2.192
G2 X27.4 Y-5.891 I1.206 J-0.81
X28.952 Y-13.533 I-4.392 J-4.871
G1 X28.932 Y-13.576
G2 X22.769 Y-22.426 I-28.97 J13.602
X20.8 Y-24.264 I-22.584 J22.229
X20.566 Y-24.463 I-20.822 J24.288
X12.111 Y-14.433 I-4.216 J5.024
G3 X16.205 Y-9.612 I-12.111 J14.434
X16.955 Y-8.217 I-15.657 J9.318
X17.063 Y-7.99 I-14.904 J7.24
G2 X27.4 Y-5.891 I5.944 J-2.772
G3 X29.746 Y-6.347 I1.552 J1.721
G2 X31.92 Y-7.34 I0.583 J-1.599
X31.653 Y-14.76 I-8.899 J-3.395
X22.449 Y-26.754 I-31.653 J14.76
X10.204 Y-12.161 I-6.123 J7.297
G3 X14.388 Y-6.709 I-10.204 J12.161
G2 X31.92 Y-7.34 I8.633 J-4.025
X31.156 Y-9.24 Z-1.771 I-1.409 J-0.538 F800.
G1 X24.361 Y-12.455 Z-1.841
G2 X22.349 Y-10.455 Z-1.875 I-0.645 J1.363
X23.666 Y-11.069 I0.658 J-0.307 F1600.
X22.756 Y-12.835 I-22.981 J10.716
X17.234 Y-19.636 I-22.695 J12.785
X16.817 Y-19.995 I-19.128 J21.84
X15.792 Y-19.926 I-0.477 J0.568
X15.86 Y-18.901 I0.526 J0.48
G3 X21.217 Y-12.595 I-15.86 J18.902
X22.201 Y-10.766 I-20.667 J12.299
X22.349 Y-10.455 I-20.143 J9.785
X22.285 Y-8.651 I-1.796 J0.839
G2 X23.251 Y-7.127 I0.897 J0.5
X26.309 Y-12.301 I-0.243 J-3.634
X20.76 Y-20.31 I-26.163 J12.2
X18.977 Y-21.985 I-20.936 J20.498
X18.668 Y-22.248 I-21.077 J24.454
X13.543 Y-21.761 I-2.323 J2.768
X14.024 Y-16.635 I2.848 J2.318
G3 X14.637 Y-16.098 I-14.304 J16.956
X19.161 Y-10.307 I-14.625 J16.088
X19.578 Y-9.492 I-18.276 J9.854
X19.706 Y-9.222 I-17.523 J8.512
G2 X23.251 Y-7.127 I3.301 J-1.539
G3 X25.221 Y-6.16 I0.147 J2.192
G2 X27.4 Y-5.891 I1.206 J-0.81
X28.952 Y-13.533 I-4.392 J-4.871
G1 X28.932 Y-13.576
G2 X22.769 Y-22.426 I-28.97 J13.602
X20.8 Y-24.264 I-22.584 J22.229
X20.566 Y-24.463 I-20.822 J24.288
X12.111 Y-14.433 I-4.216 J5.024
G3 X16.205 Y-9.612 I-12.111 J14.434
X16.955 Y-8.217 I-15.657 J9.318
X17.063 Y-7.99 I-14.904 J7.24
G2 X27.4 Y-5.891 I5.944 J-2.772
G3 X29.746 Y-6.347 I1.552 J1.721
G2 X31.92 Y-7.34 I0.583 J-1.599
X31.653 Y-14.76 I-8.899 J-3.395
X22.449 Y-26.754 I-31.653 J14.76
X10.204 Y-12.161 I-6.123 J7.297
G3 X14.388 Y-6.709 I-10.204 J12.161
G2 X31.92 Y-7.34 I8.633 J-4.025
X31.156 Y-9.24 Z-1.896 I-1.409 J-0.538 F800.
G1 X24.361 Y-12.455 Z-1.966
G2 X22.349 Y-10.455 Z-2. I-0.645 J1.363
X23.666 Y-11.069 I0.658 J-0.307 F1600.
X22.756 Y-12.835 I-22.981 J10.716
X17.234 Y-19.636 I-22.695 J12.785
X16.817 Y-19.995 I-19.128 J21.84
X15.792 Y-19.926 I-0.477 J0.568
X15.86 Y-18.901 I0.526 J0.48
G3 X21.217 Y-12.595 I-15.86 J18.902
X22.201 Y-10.766 I-20.667 J12.299
X22.349 Y-10.455 I-20.143 J9.785
X22.285 Y-8.651 I-1.796 J0.839
G2 X23.251 Y-7.127 I0.897 J0.5
X26.309 Y-12.301 I-0.243 J-3.634
X20.76 Y-20.31 I-26.163 J12.2
X18.977 Y-21.985 I-20.936 J20.498
X18.668 Y-22.248 I-21.077 J24.454
X13.543 Y-21.761 I-2.323 J2.768
X14.024 Y-16.635 I2.848 J2.318
G3 X14.637 Y-16.098 I-14.304 J16.956
X19.161 Y-10.307 I-14.625 J16.088
X19.578 Y-9.492 I-18.276 J9.854
X19.706 Y-9.222 I-17.523 J8.512
G2 X23.251 Y-7.127 I3.301 J-1.539
G3 X25.221 Y-6.16 I0.147 J2.192
G2 X27.4 Y-5.891 I1.206 J-0.81
X28.952 Y-13.533 I-4.392 J-4.871
G1 X28.932 Y-13.576
G2 X22.769 Y-22.426 I-28.97 J13.602
X20.8 Y-24.264 I-22.584 J22.229
X20.566 Y-24.463 I-20.822 J24.288
X12.111 Y-14.433 I-4.216 J5.024
G3 X16.205 Y-9.612 I-12.111 J14.434
X16.955 Y-8.217 I-15.657 J9.318
X17.063 Y-7.99 I-14.904 J7.24
G2 X27.4 Y-5.891 I5.944 J-2.772
G3 X29.746 Y-6.347 I1.552 J1.721
G2 X31.92 Y-7.34 I0.583 J-1.599
X31.653 Y-14.76 I-8.899 J-3.395
X22.449 Y-26.754 I-31.653 J14.76
X10.204 Y-12.161 I-6.123 J7.297
G3 X14.388 Y-6.709 I-10.204 J12.161
G2 X31.92 Y-7.34 I8.633 J-4.025
X31.156 Y-9.24 Z-2.021 I-1.409 J-0.538 F800.
G1 X24.361 Y-12.455 Z-2.091
G2 X22.349 Y-10.455 Z-2.125 I-0.645 J1.363
X23.666 Y-11.069 I0.658 J-0.307 F1600.
X22.756 Y-12.835 I-22.981 J10.716
X17.234 Y-19.636 I-22.695 J12.785
X16.817 Y-19.995 I-19.128 J21.84
X15.792 Y-19.926 I-0.477 J0.568
X15.86 Y-18.901 I0.526 J0.48
G3 X21.217 Y-12.595 I-15.86 J18.902
X22.201 Y-10.766 I-20.667 J12.299
X22.349 Y-10.455 I-20.143 J9.785
X22.285 Y-8.651 I-1.796 J0.839
G2 X23.251 Y-7.127 I0.897 J0.5
X26.309 Y-12.301 I-0.243 J-3.634
X20.76 Y-20.31 I-26.163 J12.2
X18.977 Y-21.985 I-20.936 J20.498
X18.668 Y-22.248 I-21.077 J24.454
X13.543 Y-21.761 I-2.323 J2.768
X14.024 Y-16.635 I2.848 J2.318
G3 X14.637 Y-16.098 I-14.304 J16.956
X19.161 Y-10.307 I-14.625 J16.088
X19.578 Y-9.492 I-18.276 J9.854
X19.706 Y-9.222 I-17.523 J8.512
G2 X23.251 Y-7.127 I3.301 J-1.539
G3 X25.221 Y-6.16 I0.147 J2.192
G2 X27.4 Y-5.891 I1.206 J-0.81
X28.952 Y-13.533 I-4.392 J-4.871
G1 X28.932 Y-13.576
G2 X22.769 Y-22.426 I-28.97 J13.602
X20.8 Y-24.264 I-22.584 J22.229
X20.566 Y-24.463 I-20.822 J24.288
X12.111 Y-14.433 I-4.216 J5.024
G3 X16.205 Y-9.612 I-12.111 J14.434
X16.955 Y-8.217 I-15.657 J9.318
X17.063 Y-7.99 I-14.904 J7.24
G2 X27.4 Y-5.891 I5.944 J-2.772
G3 X29.746 Y-6.347 I1.552 J1.721
G2 X31.92 Y-7.34 I0.583 J-1.599
X31.653 Y-14.76 I-8.899 J-3.395
X22.449 Y-26.754 I-31.653 J14.76
X10.204 Y-12.161 I-6.123 J7.297
G3 X14.388 Y-6.709 I-10.204 J12.161
G2 X31.92 Y-7.34 I8.633 J-4.025
X31.156 Y-9.24 Z-2.146 I-1.409 J-0.538 F800.
G1 X24.361 Y-12.455 Z-2.216
G2 X22.349 Y-10.455 Z-2.25 I-0.645 J1.363
X23.666 Y-11.069 I0.658 J-0.307 F1600.
X22.756 Y-12.835 I-22.981 J10.716
X17.234 Y-19.636 I-22.695 J12.785
X16.817 Y-19.995 I-19.128 J21.84
X15.792 Y-19.926 I-0.477 J0.568
X15.86 Y-18.901 I0.526 J0.48
G3 X21.217 Y-12.595 I-15.86 J18.902
X22.201 Y-10.766 I-20.667 J12.299
X22.349 Y-10.455 I-20.143 J9.785
X22.285 Y-8.651 I-1.796 J0.839
G2 X23.251 Y-7.127 I0.897 J0.5
X26.309 Y-12.301 I-0.243 J-3.634
X20.76 Y-20.31 I-26.163 J12.2
X18.977 Y-21.985 I-20.936 J20.498
X18.668 Y-22.248 I-21.077 J24.454
X13.543 Y-21.761 I-2.323 J2.768
X14.024 Y-16.635 I2.848 J2.318
G3 X14.637 Y-16.098 I-14.304 J16.956
X19.161 Y-10.307 I-14.625 J16.088
X19.578 Y-9.492 I-18.276 J9.854
X19.706 Y-9.222 I-17.523 J8.512
G2 X23.251 Y-7.127 I3.301 J-1.539
G3 X25.221 Y-6.16 I0.147 J2.192
G2 X27.4 Y-5.891 I1.206 J-0.81
X28.952 Y-13.533 I-4.392 J-4.871
G1 X28.932 Y-13.576
G2 X22.769 Y-22.426 I-28.97 J13.602
X20.8 Y-24.264 I-22.584 J22.229
X20.566 Y-24.463 I-20.822 J24.288
X12.111 Y-14.433 I-4.216 J5.024
G3 X16.205 Y-9.612 I-12.111 J14.434
X16.955 Y-8.217 I-15.657 J9.318
X17.063 Y-7.99 I-14.904 J7.24
G2 X27.4 Y-5.891 I5.944 J-2.772
G3 X29.746 Y-6.347 I1.552 J1.721
G2 X31.92 Y-7.34 I0.583 J-1.599
X31.653 Y-14.76 I-8.899 J-3.395
X22.449 Y-26.754 I-31.653 J14.76
X10.204 Y-12.161 I-6.123 J7.297
G3 X14.388 Y-6.709 I-10.204 J12.161
G2 X31.92 Y-7.34 I8.633 J-4.025
X31.156 Y-9.24 Z-2.271 I-1.409 J-0.538 F800.
G1 X24.361 Y-12.455 Z-2.341
G2 X22.349 Y-10.455 Z-2.375 I-0.645 J1.363
X23.666 Y-11.069 I0.658 J-0.307 F1600.
X22.756 Y-12.835 I-22.981 J10.716
X17.234 Y-19.636 I-22.695 J12.785
X16.817 Y-19.995 I-19.128 J21.84
X15.792 Y-19.926 I-0.477 J0.568
X15.86 Y-18.901 I0.526 J0.48
G3 X21.217 Y-12.595 I-15.86 J18.902
X22.201 Y-10.766 I-20.667 J12.299
X22.349 Y-10.455 I-20.143 J9.785
X22.285 Y-8.651 I-1.796 J0.839
G2 X23.251 Y-7.127 I0.897 J0.5
X26.309 Y-12.301 I-0.243 J-3.634
X20.76 Y-20.31 I-26.163 J12.2
X18.977 Y-21.985 I-20.936 J20.498
X18.668 Y-22.248 I-21.077 J24.454
X13.543 Y-21.761 I-2.323 J2.768
X14.024 Y-16.635 I2.848 J2.318
G3 X14.637 Y-16.098 I-14.304 J16.956
X19.161 Y-10.307 I-14.625 J16.088
X19.578 Y-9.492 I-18.276 J9.854
X19.706 Y-9.222 I-17.523 J8.512
G2 X23.251 Y-7.127 I3.301 J-1.539
G3 X25.221 Y-6.16 I0.147 J2.192
G2 X27.4 Y-5.891 I1.206 J-0.81
X28.952 Y-13.533 I-4.392 J-4.871
G1 X28.932 Y-13.576
G2 X22.769 Y-22.426 I-28.97 J13.602
X20.8 Y-24.264 I-22.584 J22.229
X20.566 Y-24.463 I-20.822 J24.288
X12.111 Y-14.433 I-4.216 J5.024
G3 X16.205 Y-9.612 I-12.111 J14.434
X16.955 Y-8.217 I-15.657 J9.318
X17.063 Y-7.99 I-14.904 J7.24
G2 X27.4 Y-5.891 I5.944 J-2.772
G3 X29.746 Y-6.347 I1.552 J1.721
G2 X31.92 Y-7.34 I0.583 J-1.599
X31.653 Y-14.76 I-8.899 J-3.395
X22.449 Y-26.754 I-31.653 J14.76
X10.204 Y-12.161 I-6.123 J7.297
G3 X14.388 Y-6.709 I-10.204 J12.161
G2 X31.92 Y-7.34 I8.633 J-4.025
X31.156 Y-9.24 Z-2.396 I-1.409 J-0.538 F800.
G1 X24.361 Y-12.455 Z-2.466
G2 X22.349 Y-10.455 Z-2.5 I-0.645 J1.363
X23.666 Y-11.069 I0.658 J-0.307 F1600.
X22.756 Y-12.835 I-22.981 J10.716
X17.234 Y-19.636 I-22.695 J12.785
X16.817 Y-19.995 I-19.128 J21.84
X15.792 Y-19.926 I-0.477 J0.568
X15.86 Y-18.901 I0.526 J0.48
G3 X21.217 Y-12.595 I-15.86 J18.902
X22.201 Y-10.766 I-20.667 J12.299
X22.349 Y-10.455 I-20.143 J9.785
X22.285 Y-8.651 I-1.796 J0.839
G2 X23.251 Y-7.127 I0.897 J0.5
X26.309 Y-12.301 I-0.243 J-3.634
X20.76 Y-20.31 I-26.163 J12.2
X18.977 Y-21.985 I-20.936 J20.498
X18.668 Y-22.248 I-21.077 J24.454
X13.543 Y-21.761 I-2.323 J2.768
X14.024 Y-16.635 I2.848 J2.318
G3 X14.637 Y-16.098 I-14.304 J16.956
X19.161 Y-10.307 I-14.625 J16.088
X19.578 Y-9.492 I-18.276 J9.854
X19.706 Y-9.222 I-17.523 J8.512
G2 X23.251 Y-7.127 I3.301 J-1.539
G3 X25.221 Y-6.16 I0.147 J2.192
G2 X27.4 Y-5.891 I1.206 J-0.81
X28.952 Y-13.533 I-4.392 J-4.871
G1 X28.932 Y-13.576
G2 X22.769 Y-22.426 I-28.97 J13.602
X20.8 Y-24.264 I-22.584 J22.229
X20.566 Y-24.463 I-20.822 J24.288
X12.111 Y-14.433 I-4.216 J5.024
G3 X16.205 Y-9.612 I-12.111 J14.434
X16.955 Y-8.217 I-15.657 J9.318
X17.063 Y-7.99 I-14.904 J7.24
G2 X27.4 Y-5.891 I5.944 J-2.772
G3 X29.746 Y-6.347 I1.552 J1.721
G2 X31.92 Y-7.34 I0.583 J-1.599
X31.653 Y-14.76 I-8.899 J-3.395
X22.449 Y-26.754 I-31.653 J14.76
X10.204 Y-12.161 I-6.123 J7.297
G3 X14.388 Y-6.709 I-10.204 J12.161
G2 X31.92 Y-7.34 I8.633 J-4.025
X31.156 Y-9.24 Z-2.521 I-1.409 J-0.538 F800.
G1 X24.361 Y-12.455 Z-2.591
G2 X22.349 Y-10.455 Z-2.625 I-0.645 J1.363
X23.666 Y-11.069 I0.658 J-0.307 F1600.
X22.756 Y-12.835 I-22.981 J10.716
X17.234 Y-19.636 I-22.695 J12.785
X16.817 Y-19.995 I-19.128 J21.84
X15.792 Y-19.926 I-0.477 J0.568
X15.86 Y-18.901 I0.526 J0.48
G3 X21.217 Y-12.595 I-15.86 J18.902
X22.201 Y-10.766 I-20.667 J12.299
X22.349 Y-10.455 I-20.143 J9.785
X22.285 Y-8.651 I-1.796 J0.839
G2 X23.251 Y-7.127 I0.897 J0.5
X26.309 Y-12.301 I-0.243 J-3.634
X20.76 Y-20.31 I-26.163 J12.2
X18.977 Y-21.985 I-20.936 J20.498
X18.668 Y-22.248 I-21.077 J24.454
X13.543 Y-21.761 I-2.323 J2.768
X14.024 Y-16.635 I2.848 J2.318
G3 X14.637 Y-16.098 I-14.304 J16.956
X19.161 Y-10.307 I-14.625 J16.088
X19.578 Y-9.492 I-18.276 J9.854
X19.706 Y-9.222 I-17.523 J8.512
G2 X23.251 Y-7.127 I3.301 J-1.539
G3 X25.221 Y-6.16 I0.147 J2.192
G2 X27.4 Y-5.891 I1.206 J-0.81
X28.952 Y-13.533 I-4.392 J-4.871
G1 X28.932 Y-13.576
G2 X22.769 Y-22.426 I-28.97 J13.602
X20.8 Y-24.264 I-22.584 J22.229
X20.566 Y-24.463 I-20.822 J24.288
X12.111 Y-14.433 I-4.216 J5.024
G3 X16.205 Y-9.612 I-12.111 J14.434
X16.955 Y-8.217 I-15.657 J9.318
X17.063 Y-7.99 I-14.904 J7.24
G2 X27.4 Y-5.891 I5.944 J-2.772
G3 X29.746 Y-6.347 I1.552 J1.721
G2 X31.92 Y-7.34 I0.583 J-1.599
X31.653 Y-14.76 I-8.899 J-3.395
X22.449 Y-26.754 I-31.653 J14.76
X10.204 Y-12.161 I-6.123 J7.297
G3 X14.388 Y-6.709 I-10.204 J12.161
G2 X31.92 Y-7.34 I8.633 J-4.025
X31.156 Y-9.24 Z-2.646 I-1.409 J-0.538 F800.
G1 X24.361 Y-12.455 Z-2.716
G2 X22.349 Y-10.455 Z-2.75 I-0.645 J1.363
X23.666 Y-11.069 I0.658 J-0.307 F1600.
X22.756 Y-12.835 I-22.981 J10.716
X17.234 Y-19.636 I-22.695 J12.785
X16.817 Y-19.995 I-19.128 J21.84
X15.792 Y-19.926 I-0.477 J0.568
X15.86 Y-18.901 I0.526 J0.48
G3 X21.217 Y-12.595 I-15.86 J18.902
X22.201 Y-10.766 I-20.667 J12.299
X22.349 Y-10.455 I-20.143 J9.785
X22.285 Y-8.651 I-1.796 J0.839
G2 X23.251 Y-7.127 I0.897 J0.5
X26.309 Y-12.301 I-0.243 J-3.634
X20.76 Y-20.31 I-26.163 J12.2
X18.977 Y-21.985 I-20.936 J20.498
X18.668 Y-22.248 I-21.077 J24.454
X13.543 Y-21.761 I-2.323 J2.768
X14.024 Y-16.635 I2.848 J2.318
G3 X14.637 Y-16.098 I-14.304 J16.956
X19.161 Y-10.307 I-14.625 J16.088
X19.578 Y-9.492 I-18.276 J9.854
X19.706 Y-9.222 I-17.523 J8.512
G2 X23.251 Y-7.127 I3.301 J-1.539
G3 X25.221 Y-6.16 I0.147 J2.192
G2 X27.4 Y-5.891 I1.206 J-0.81
X28.952 Y-13.533 I-4.392 J-4.871
G1 X28.932 Y-13.576
G2 X22.769 Y-22.426 I-28.97 J13.602
X20.8 Y-24.264 I-22.584 J22.229
X20.566 Y-24.463 I-20.822 J24.288
X12.111 Y-14.433 I-4.216 J5.024
G3 X16.205 Y-9.612 I-12.111 J14.434
X16.955 Y-8.217 I-15.657 J9.318
X17.063 Y-7.99 I-14.904 J7.24
G2 X27.4 Y-5.891 I5.944 J-2.772
G3 X29.746 Y-6.347 I1.552 J1.721
G2 X31.92 Y-7.34 I0.583 J-1.599
X31.653 Y-14.76 I-8.899 J-3.395
X22.449 Y-26.754 I-31.653 J14.76
X10.204 Y-12.161 I-6.123 J7.297
G3 X14.388 Y-6.709 I-10.204 J12.161
G2 X31.92 Y-7.34 I8.633 J-4.025
X31.156 Y-9.24 Z-2.771 I-1.409 J-0.538 F800.
G1 X24.361 Y-12.455 Z-2.841
G2 X22.349 Y-10.455 Z-2.875 I-0.645 J1.363
X23.666 Y-11.069 I0.658 J-0.307 F1600.
X22.756 Y-12.835 I-22.981 J10.716
X17.234 Y-19.636 I-22.695 J12.785
X16.817 Y-19.995 I-19.128 J21.84
X15.792 Y-19.926 I-0.477 J0.568
X15.86 Y-18.901 I0.526 J0.48
G3 X21.217 Y-12.595 I-15.86 J18.902
X22.201 Y-10.766 I-20.667 J12.299
X22.349 Y-10.455 I-20.143 J9.785
X22.285 Y-8.651 I-1.796 J0.839
G2 X23.251 Y-7.127 I0.897 J0.5
X26.309 Y-12.301 I-0.243 J-3.634
X20.76 Y-20.31 I-26.163 J12.2
X18.977 Y-21.985 I-20.936 J20.498
X18.668 Y-22.248 I-21.077 J24.454
X13.543 Y-21.761 I-2.323 J2.768
X14.024 Y-16.635 I2.848 J2.318
G3 X14.637 Y-16.098 I-14.304 J16.956
X19.161 Y-10.307 I-14.625 J16.088
X19.578 Y-9.492 I-18.276 J9.854
X19.706 Y-9.222 I-17.523 J8.512
G2 X23.251 Y-7.127 I3.301 J-1.539
G3 X25.221 Y-6.16 I0.147 J2.192
G2 X27.4 Y-5.891 I1.206 J-0.81
X28.952 Y-13.533 I-4.392 J-4.871
G1 X28.932 Y-13.576
G2 X22.769 Y-22.426 I-28.97 J13.602
X20.8 Y-24.264 I-22.584 J22.229
X20.566 Y-24.463 I-20.822 J24.288
X12.111 Y-14.433 I-4.216 J5.024
G3 X16.205 Y-9.612 I-12.111 J14.434
X16.955 Y-8.217 I-15.657 J9.318
X17.063 Y-7.99 I-14.904 J7.24
G2 X27.4 Y-5.891 I5.944 J-2.772
G3 X29.746 Y-6.347 I1.552 J1.721
G2 X31.92 Y-7.34 I0.583 J-1.599
X31.653 Y-14.76 I-8.899 J-3.395
X22.449 Y-26.754 I-31.653 J14.76
X10.204 Y-12.161 I-6.123 J7.297
G3 X14.388 Y-6.709 I-10.204 J12.161
G2 X31.92 Y-7.34 I8.633 J-4.025
X31.156 Y-9.24 Z-2.896 I-1.409 J-0.538 F800.
G1 X24.361 Y-12.455 Z-2.966
G2 X22.349 Y-10.455 Z-3. I-0.645 J1.363
X23.666 Y-11.069 I0.658 J-0.307 F1600.
X22.756 Y-12.835 I-22.981 J10.716
X17.234 Y-19.636 I-22.695 J12.785
X16.817 Y-19.995 I-19.128 J21.84
X15.792 Y-19.926 I-0.477 J0.568
X15.86 Y-18.901 I0.526 J0.48
G3 X21.217 Y-12.595 I-15.86 J18.902
X22.201 Y-10.766 I-20.667 J12.299
X22.349 Y-10.455 I-20.143 J9.785
X22.285 Y-8.651 I-1.796 J0.839
G2 X23.251 Y-7.127 I0.897 J0.5
X26.309 Y-12.301 I-0.243 J-3.634
X20.76 Y-20.31 I-26.163 J12.2
X18.977 Y-21.985 I-20.936 J20.498
X18.668 Y-22.248 I-21.077 J24.454
X13.543 Y-21.761 I-2.323 J2.768
X14.024 Y-16.635 I2.848 J2.318
G3 X14.637 Y-16.098 I-14.304 J16.956
X19.161 Y-10.307 I-14.625 J16.088
X19.578 Y-9.492 I-18.276 J9.854
X19.706 Y-9.222 I-17.523 J8.512
G2 X23.251 Y-7.127 I3.301 J-1.539
G3 X25.221 Y-6.16 I0.147 J2.192
G2 X27.4 Y-5.891 I1.206 J-0.81
X28.952 Y-13.533 I-4.392 J-4.871
G1 X28.932 Y-13.576
G2 X22.769 Y-22.426 I-28.97 J13.602
X20.8 Y-24.264 I-22.584 J22.229
X20.566 Y-24.463 I-20.822 J24.288
X12.111 Y-14.433 I-4.216 J5.024
G3 X16.205 Y-9.612 I-12.111 J14.434
X16.955 Y-8.217 I-15.657 J9.318
X17.063 Y-7.99 I-14.904 J7.24
G2 X27.4 Y-5.891 I5.944 J-2.772
G3 X29.746 Y-6.347 I1.552 J1.721
G2 X31.92 Y-7.34 I0.583 J-1.599
X31.653 Y-14.76 I-8.899 J-3.395
X22.449 Y-26.754 I-31.653 J14.76
X10.204 Y-12.161 I-6.123 J7.297
G3 X14.388 Y-6.709 I-10.204 J12.161
G2 X31.92 Y-7.34 I8.633 J-4.025
X31.156 Y-9.24 Z-3.021 I-1.409 J-0.538 F800.
G1 X24.361 Y-12.455 Z-3.091
G2 X22.349 Y-10.455 Z-3.125 I-0.645 J1.363
X23.666 Y-11.069 I0.658 J-0.307 F1600.
X22.756 Y-12.835 I-22.981 J10.716
X17.234 Y-19.636 I-22.695 J12.785
X16.817 Y-19.995 I-19.128 J21.84
X15.792 Y-19.926 I-0.477 J0.568
X15.86 Y-18.901 I0.526 J0.48
G3 X21.217 Y-12.595 I-15.86 J18.902
X22.201 Y-10.766 I-20.667 J12.299
X22.349 Y-10.455 I-20.143 J9.785
X22.285 Y-8.651 I-1.796 J0.839
G2 X23.251 Y-7.127 I0.897 J0.5
X26.309 Y-12.301 I-0.243 J-3.634
X20.76 Y-20.31 I-26.163 J12.2
X18.977 Y-21.985 I-20.936 J20.498
X18.668 Y-22.248 I-21.077 J24.454
X13.543 Y-21.761 I-2.323 J2.768
X14.024 Y-16.635 I2.848 J2.318
G3 X14.637 Y-16.098 I-14.304 J16.956
X19.161 Y-10.307 I-14.625 J16.088
X19.578 Y-9.492 I-18.276 J9.854
X19.706 Y-9.222 I-17.523 J8.512
G2 X23.251 Y-7.127 I3.301 J-1.539
G3 X25.221 Y-6.16 I0.147 J2.192
G2 X27.4 Y-5.891 I1.206 J-0.81
X28.952 Y-13.533 I-4.392 J-4.871
G1 X28.932 Y-13.576
G2 X22.769 Y-22.426 I-28.97 J13.602
X20.8 Y-24.264 I-22.584 J22.229
X20.566 Y-24.463 I-20.822 J24.288
X12.111 Y-14.433 I-4.216 J5.024
G3 X16.205 Y-9.612 I-12.111 J14.434
X16.955 Y-8.217 I-15.657 J9.318
X17.063 Y-7.99 I-14.904 J7.24
G2 X27.4 Y-5.891 I5.944 J-2.772
G3 X29.746 Y-6.347 I1.552 J1.721
G2 X31.92 Y-7.34 I0.583 J-1.599
X31.653 Y-14.76 I-8.899 J-3.395
X22.449 Y-26.754 I-31.653 J14.76
X10.204 Y-12.161 I-6.123 J7.297
G3 X14.388 Y-6.709 I-10.204 J12.161
G2 X31.92 Y-7.34 I8.633 J-4.025
X31.156 Y-9.24 Z-3.133 I-1.409 J-0.538 F800.
G1 X24.361 Y-12.455 Z-3.161
G2 X22.349 Y-10.455 Z-3.175 I-0.645 J1.363
X23.666 Y-11.069 I0.658 J-0.307 F1600.
X22.756 Y-12.835 I-22.981 J10.716
X17.234 Y-19.636 I-22.695 J12.785
X16.817 Y-19.995 I-19.128 J21.84
X15.792 Y-19.926 I-0.477 J0.568
X15.86 Y-18.901 I0.526 J0.48
G3 X21.217 Y-12.595 I-15.86 J18.902
X22.201 Y-10.766 I-20.667 J12.299
X22.349 Y-10.455 I-20.143 J9.785
X22.285 Y-8.651 I-1.796 J0.839
G2 X23.251 Y-7.127 I0.897 J0.5
X26.309 Y-12.301 I-0.243 J-3.634
X20.76 Y-20.31 I-26.163 J12.2
X18.977 Y-21.985 I-20.936 J20.498
X18.668 Y-22.248 I-21.077 J24.454
X13.543 Y-21.761 I-2.323 J2.768
X14.024 Y-16.635 I2.848 J2.318
G3 X14.637 Y-16.098 I-14.304 J16.956
X19.161 Y-10.307 I-14.625 J16.088
X19.578 Y-9.492 I-18.276 J9.854
X19.706 Y-9.222 I-17.523 J8.512
G2 X23.251 Y-7.127 I3.301 J-1.539
G3 X25.221 Y-6.16 I0.147 J2.192
G2 X27.4 Y-5.891 I1.206 J-0.81
X28.952 Y-13.533 I-4.392 J-4.871
G1 X28.932 Y-13.576
G2 X22.769 Y-22.426 I-28.97 J13.602
X20.8 Y-24.264 I-22.584 J22.229
X20.566 Y-24.463 I-20.822 J24.288
X12.111 Y-14.433 I-4.216 J5.024
G3 X16.205 Y-9.612 I-12.111 J14.434
X16.955 Y-8.217 I-15.657 J9.318
X17.063 Y-7.99 I-14.904 J7.24
G2 X27.4 Y-5.891 I5.944 J-2.772
G3 X29.746 Y-6.347 I1.552 J1.721
G2 X31.92 Y-7.34 I0.583 J-1.599
X31.653 Y-14.76 I-8.899 J-3.395
X22.449 Y-26.754 I-31.653 J14.76
X10.204 Y-12.161 I-6.123 J7.297
G3 X14.388 Y-6.709 I-10.204 J12.161
G2 X31.92 Y-7.34 I8.633 J-4.025
G1 X31.936 Y-7.398 Z-3.163
X31.94 Y-7.458 Z-3.151
X31.935 Y-7.51 Z-3.116
X31.922 Y-7.559 Z-3.082
X31.892 Y-7.621 Z-2.979
X31.878 Y-7.641 Z-2.858
G0 Z15.
M5
G0 Z15
G0 X0 Y0

M9
M30
