(CNC BLOCK HOLES)
(T3  D=0.118 CR=0. - ZMIN=-0.27 - FLAT END MILL)
G90 G94 G91.1 G40 G49 G17
G20
G90

(2D POCKET1)
M5
T3 M6
S15000 M3
g4 p5
G54
M8
G0 X1.3492 Y0.7538
G43 Z0.6 H3
Z0.2
G1 Z0.1118 F20.
X1.3485 Y0.7543 Z0.1075
X1.3475 Y0.7548 Z0.1056
X1.3463 Y0.755 Z0.1038
X1.3446 Y0.7548 Z0.1025
X1.343 Y0.754 Z0.1012
X1.3419 Y0.7529 Z0.1008
X1.3412 Y0.7515 Z0.1004
X1.341 Y0.7499 Z0.1
G3 X1.351 Y0.7501 Z0.0995 I0.005 J0.0001
X1.341 Y0.7499 Z0.0989 I-0.005 J-0.0001
X1.351 Y0.7501 Z0.0984 I0.005 J0.0001
X1.341 Y0.7499 Z0.0978 I-0.005 J-0.0001
X1.351 Y0.7501 Z0.0973 I0.005 J0.0001
X1.341 Y0.7499 Z0.0967 I-0.005 J-0.0001
X1.351 Y0.7501 Z0.0962 I0.005 J0.0001
X1.341 Y0.7499 Z0.0956 I-0.005 J-0.0001
X1.351 Y0.7501 Z0.0951 I0.005 J0.0001
X1.341 Y0.7499 Z0.0945 I-0.005 J-0.0001
X1.351 Y0.7501 Z0.094 I0.005 J0.0001
X1.341 Y0.7499 Z0.0934 I-0.005 J-0.0001
X1.351 Y0.7501 Z0.0929 I0.005 J0.0001
X1.341 Y0.7499 Z0.0923 I-0.005 J-0.0001
X1.351 Y0.7501 Z0.0918 I0.005 J0.0001
X1.341 Y0.7499 Z0.0912 I-0.005 J-0.0001
X1.351 Y0.7501 Z0.0907 I0.005 J0.0001
X1.341 Y0.7499 Z0.0901 I-0.005 J-0.0001
X1.351 Y0.7501 Z0.0896 I0.005 J0.0001
X1.341 Y0.7499 Z0.089 I-0.005 J-0.0001
X1.351 Y0.7501 Z0.0885 I0.005 J0.0001
X1.341 Y0.7499 Z0.0879 I-0.005 J-0.0001
X1.351 Y0.7501 Z0.0874 I0.005 J0.0001
X1.341 Y0.7499 Z0.0868 I-0.005 J-0.0001
X1.351 Y0.7501 Z0.0863 I0.005 J0.0001
X1.341 Y0.7499 Z0.0857 I-0.005 J-0.0001
X1.351 Y0.7501 Z0.0852 I0.005 J0.0001
X1.341 Y0.7499 Z0.0846 I-0.005 J-0.0001
X1.351 Y0.7501 Z0.0841 I0.005 J0.0001
X1.341 Y0.7499 Z0.0835 I-0.005 J-0.0001
X1.351 Y0.7501 Z0.083 I0.005 J0.0001
X1.341 Y0.7499 Z0.0824 I-0.005 J-0.0001
X1.351 Y0.7501 Z0.0819 I0.005 J0.0001
X1.341 Y0.7499 Z0.0813 I-0.005 J-0.0001
X1.351 Y0.7501 Z0.0808 I0.005 J0.0001
X1.341 Y0.7499 Z0.0803 I-0.005 J-0.0001
X1.351 Y0.7501 Z0.0797 I0.005 J0.0001
X1.341 Y0.7499 Z0.0792 I-0.005 J-0.0001
X1.351 Y0.7501 Z0.0786 I0.005 J0.0001
X1.341 Y0.7499 Z0.0781 I-0.005 J-0.0001
X1.351 Y0.7501 Z0.0775 I0.005 J0.0001
X1.341 Y0.7499 Z0.077 I-0.005 J-0.0001
X1.351 Y0.7501 Z0.0764 I0.005 J0.0001
X1.341 Y0.7499 Z0.0759 I-0.005 J-0.0001
X1.351 Y0.7501 Z0.0753 I0.005 J0.0001
X1.341 Y0.7499 Z0.0748 I-0.005 J-0.0001
X1.351 Y0.7501 Z0.0742 I0.005 J0.0001
X1.341 Y0.7499 Z0.0737 I-0.005 J-0.0001
X1.351 Y0.7501 Z0.0731 I0.005 J0.0001
X1.341 Y0.7499 Z0.0726 I-0.005 J-0.0001
X1.351 Y0.7501 Z0.072 I0.005 J0.0001
X1.341 Y0.7499 Z0.0715 I-0.005 J-0.0001
X1.351 Y0.7501 Z0.0709 I0.005 J0.0001
X1.341 Y0.7499 Z0.0704 I-0.005 J-0.0001
X1.351 Y0.7501 Z0.0698 I0.005 J0.0001
X1.341 Y0.7499 Z0.0693 I-0.005 J-0.0001
X1.351 Y0.7501 Z0.0687 I0.005 J0.0001
X1.341 Y0.7499 Z0.0682 I-0.005 J-0.0001
X1.351 Y0.7501 Z0.0676 I0.005 J0.0001
X1.341 Y0.7499 Z0.0671 I-0.005 J-0.0001
X1.351 Y0.7501 Z0.0665 I0.005 J0.0001
X1.341 Y0.7499 Z0.066 I-0.005 J-0.0001
X1.351 Y0.7501 Z0.0654 I0.005 J0.0001
X1.341 Y0.7499 Z0.0649 I-0.005 J-0.0001
X1.351 Y0.7501 Z0.0643 I0.005 J0.0001
X1.341 Y0.7499 Z0.0638 I-0.005 J-0.0001
X1.351 Y0.7501 Z0.0632 I0.005 J0.0001
X1.341 Y0.7499 Z0.0627 I-0.005 J-0.0001
X1.351 Y0.7501 Z0.0622 I0.005 J0.0001
X1.341 Y0.7499 Z0.0616 I-0.005 J-0.0001
X1.351 Y0.7501 Z0.0611 I0.005 J0.0001
X1.341 Y0.7499 Z0.0605 I-0.005 J-0.0001
X1.351 Y0.7501 Z0.06 I0.005 J0.0001
X1.341 Y0.7499 Z0.0594 I-0.005 J-0.0001
X1.351 Y0.7501 Z0.0589 I0.005 J0.0001
X1.341 Y0.7499 Z0.0583 I-0.005 J-0.0001
X1.351 Y0.7501 Z0.0578 I0.005 J0.0001
X1.341 Y0.7499 Z0.0572 I-0.005 J-0.0001
X1.351 Y0.7501 Z0.0567 I0.005 J0.0001
X1.341 Y0.7499 Z0.0561 I-0.005 J-0.0001
X1.351 Y0.7501 Z0.0556 I0.005 J0.0001
X1.341 Y0.7499 Z0.055 I-0.005 J-0.0001
X1.351 Y0.7501 Z0.0545 I0.005 J0.0001
X1.341 Y0.7499 Z0.0539 I-0.005 J-0.0001
X1.351 Y0.7501 Z0.0534 I0.005 J0.0001
X1.341 Y0.7499 Z0.0528 I-0.005 J-0.0001
X1.351 Y0.7501 Z0.0523 I0.005 J0.0001
X1.341 Y0.7499 Z0.0517 I-0.005 J-0.0001
X1.351 Y0.7501 Z0.0512 I0.005 J0.0001
X1.341 Y0.7499 Z0.0506 I-0.005 J-0.0001
X1.351 Y0.7501 Z0.0501 I0.005 J0.0001
X1.341 Y0.7499 Z0.0495 I-0.005 J-0.0001
X1.351 Y0.7501 Z0.049 I0.005 J0.0001
X1.341 Y0.7499 Z0.0484 I-0.005 J-0.0001
X1.351 Y0.7501 Z0.0479 I0.005 J0.0001
X1.341 Y0.7499 Z0.0473 I-0.005 J-0.0001
X1.351 Y0.7501 Z0.0468 I0.005 J0.0001
X1.341 Y0.7499 Z0.0462 I-0.005 J-0.0001
X1.351 Y0.7501 Z0.0457 I0.005 J0.0001
X1.341 Y0.7499 Z0.0451 I-0.005 J-0.0001
X1.351 Y0.7501 Z0.0446 I0.005 J0.0001
X1.341 Y0.7499 Z0.044 I-0.005 J-0.0001
X1.351 Y0.7501 Z0.0435 I0.005 J0.0001
X1.341 Y0.7499 Z0.043 I-0.005 J-0.0001
X1.351 Y0.7501 Z0.0424 I0.005 J0.0001
X1.341 Y0.7499 Z0.0419 I-0.005 J-0.0001
X1.351 Y0.7501 Z0.0413 I0.005 J0.0001
X1.341 Y0.7499 Z0.0408 I-0.005 J-0.0001
X1.351 Y0.7501 Z0.0402 I0.005 J0.0001
X1.341 Y0.7499 Z0.0397 I-0.005 J-0.0001
X1.351 Y0.7501 Z0.0391 I0.005 J0.0001
X1.341 Y0.7499 Z0.0386 I-0.005 J-0.0001
X1.351 Y0.7501 Z0.038 I0.005 J0.0001
X1.341 Y0.7499 Z0.0375 I-0.005 J-0.0001
X1.351 Y0.7501 Z0.0369 I0.005 J0.0001
X1.341 Y0.7499 Z0.0364 I-0.005 J-0.0001
X1.351 Y0.7501 Z0.0358 I0.005 J0.0001
X1.341 Y0.7499 Z0.0353 I-0.005 J-0.0001
X1.351 Y0.7501 Z0.0347 I0.005 J0.0001
X1.341 Y0.7499 Z0.0342 I-0.005 J-0.0001
X1.351 Y0.7501 Z0.0336 I0.005 J0.0001
X1.341 Y0.7499 Z0.0331 I-0.005 J-0.0001
X1.351 Y0.7501 Z0.0325 I0.005 J0.0001
X1.341 Y0.7499 Z0.032 I-0.005 J-0.0001
X1.351 Y0.7501 Z0.0314 I0.005 J0.0001
X1.341 Y0.7499 Z0.0309 I-0.005 J-0.0001
X1.351 Y0.7501 Z0.0303 I0.005 J0.0001
X1.341 Y0.7499 Z0.0298 I-0.005 J-0.0001
X1.351 Y0.7501 Z0.0292 I0.005 J0.0001
X1.341 Y0.7499 Z0.0287 I-0.005 J-0.0001
X1.351 Y0.7501 Z0.0281 I0.005 J0.0001
X1.341 Y0.7499 Z0.0276 I-0.005 J-0.0001
X1.351 Y0.7501 Z0.027 I0.005 J0.0001
X1.341 Y0.7499 Z0.0265 I-0.005 J-0.0001
X1.351 Y0.7501 Z0.0259 I0.005 J0.0001
X1.341 Y0.7499 Z0.0254 I-0.005 J-0.0001
X1.351 Y0.7501 Z0.0249 I0.005 J0.0001
X1.341 Y0.7499 Z0.0243 I-0.005 J-0.0001
X1.351 Y0.7501 Z0.0238 I0.005 J0.0001
X1.341 Y0.7499 Z0.0232 I-0.005 J-0.0001
X1.351 Y0.7501 Z0.0227 I0.005 J0.0001
X1.341 Y0.7499 Z0.0221 I-0.005 J-0.0001
X1.351 Y0.7501 Z0.0216 I0.005 J0.0001
X1.341 Y0.7499 Z0.021 I-0.005 J-0.0001
X1.351 Y0.7501 Z0.0205 I0.005 J0.0001
X1.341 Y0.7499 Z0.0199 I-0.005 J-0.0001
X1.351 Y0.7501 Z0.0194 I0.005 J0.0001
X1.341 Y0.7499 Z0.0188 I-0.005 J-0.0001
X1.351 Y0.7501 Z0.0183 I0.005 J0.0001
X1.341 Y0.7499 Z0.0177 I-0.005 J-0.0001
X1.351 Y0.7501 Z0.0172 I0.005 J0.0001
X1.341 Y0.7499 Z0.0166 I-0.005 J-0.0001
X1.351 Y0.7501 Z0.0161 I0.005 J0.0001
X1.341 Y0.7499 Z0.0155 I-0.005 J-0.0001
X1.351 Y0.7501 Z0.015 I0.005 J0.0001
X1.341 Y0.7499 Z0.0144 I-0.005 J-0.0001
X1.351 Y0.7501 Z0.0139 I0.005 J0.0001
X1.341 Y0.7499 Z0.0133 I-0.005 J-0.0001
X1.351 Y0.7501 Z0.0128 I0.005 J0.0001
X1.341 Y0.7499 Z0.0122 I-0.005 J-0.0001
X1.351 Y0.7501 Z0.0117 I0.005 J0.0001
X1.341 Y0.7499 Z0.0111 I-0.005 J-0.0001
X1.351 Y0.7501 Z0.0106 I0.005 J0.0001
X1.341 Y0.7499 Z0.01 I-0.005 J-0.0001
X1.351 Y0.7501 Z0.0095 I0.005 J0.0001
X1.341 Y0.7499 Z0.0089 I-0.005 J-0.0001
X1.351 Y0.7501 Z0.0084 I0.005 J0.0001
X1.341 Y0.7499 Z0.0078 I-0.005 J-0.0001
X1.351 Y0.7501 Z0.0073 I0.005 J0.0001
X1.341 Y0.7499 Z0.0067 I-0.005 J-0.0001
X1.351 Y0.7501 Z0.0062 I0.005 J0.0001
X1.341 Y0.7499 Z0.0057 I-0.005 J-0.0001
X1.351 Y0.7501 Z0.0051 I0.005 J0.0001
X1.341 Y0.7499 Z0.0046 I-0.005 J-0.0001
X1.351 Y0.7501 Z0.004 I0.005 J0.0001
X1.341 Y0.7499 Z0.0035 I-0.005 J-0.0001
X1.351 Y0.7501 Z0.0029 I0.005 J0.0001
X1.341 Y0.7499 Z0.0024 I-0.005 J-0.0001
X1.351 Y0.7501 Z0.0018 I0.005 J0.0001
X1.341 Y0.7499 Z0.0013 I-0.005 J-0.0001
X1.351 Y0.7501 Z0.0007 I0.005 J0.0001
X1.341 Y0.7499 Z0.0002 I-0.005 J-0.0001
X1.351 Y0.7501 Z-0.0004 I0.005 J0.0001
X1.341 Y0.7499 Z-0.0009 I-0.005 J-0.0001
X1.351 Y0.7501 Z-0.0015 I0.005 J0.0001
X1.341 Y0.7499 Z-0.002 I-0.005 J-0.0001
X1.351 Y0.7501 Z-0.0026 I0.005 J0.0001
X1.341 Y0.7499 Z-0.0031 I-0.005 J-0.0001
X1.351 Y0.7501 Z-0.0037 I0.005 J0.0001
X1.341 Y0.7499 Z-0.0042 I-0.005 J-0.0001
X1.351 Y0.7501 Z-0.0048 I0.005 J0.0001
X1.341 Y0.7499 Z-0.0053 I-0.005 J-0.0001
X1.351 Y0.7501 Z-0.0059 I0.005 J0.0001
X1.341 Y0.7499 Z-0.0064 I-0.005 J-0.0001
X1.351 Y0.7501 Z-0.007 I0.005 J0.0001
X1.341 Y0.7499 Z-0.0075 I-0.005 J-0.0001
X1.351 Y0.7501 Z-0.0081 I0.005 J0.0001
X1.341 Y0.7499 Z-0.0086 I-0.005 J-0.0001
X1.351 Y0.7501 Z-0.0092 I0.005 J0.0001
X1.341 Y0.7499 Z-0.0097 I-0.005 J-0.0001
X1.351 Y0.7501 Z-0.0103 I0.005 J0.0001
X1.341 Y0.7499 Z-0.0108 I-0.005 J-0.0001
X1.351 Y0.7501 Z-0.0114 I0.005 J0.0001
X1.341 Y0.7499 Z-0.0119 I-0.005 J-0.0001
X1.351 Y0.7501 Z-0.0124 I0.005 J0.0001
X1.341 Y0.7499 Z-0.013 I-0.005 J-0.0001
X1.351 Y0.7501 Z-0.0135 I0.005 J0.0001
X1.341 Y0.7499 Z-0.0141 I-0.005 J-0.0001
X1.351 Y0.7501 Z-0.0146 I0.005 J0.0001
X1.341 Y0.7499 Z-0.0152 I-0.005 J-0.0001
X1.351 Y0.7501 Z-0.0157 I0.005 J0.0001
X1.341 Y0.7499 Z-0.0163 I-0.005 J-0.0001
X1.351 Y0.7501 Z-0.0168 I0.005 J0.0001
X1.341 Y0.7499 Z-0.0174 I-0.005 J-0.0001
X1.351 Y0.7501 Z-0.0179 I0.005 J0.0001
X1.341 Y0.7499 Z-0.0185 I-0.005 J-0.0001
X1.351 Y0.7501 Z-0.019 I0.005 J0.0001
X1.341 Y0.7499 Z-0.0196 I-0.005 J-0.0001
X1.351 Y0.7501 Z-0.0201 I0.005 J0.0001
X1.341 Y0.7499 Z-0.0207 I-0.005 J-0.0001
X1.351 Y0.7501 Z-0.0212 I0.005 J0.0001
X1.341 Y0.7499 Z-0.0218 I-0.005 J-0.0001
X1.351 Y0.7501 Z-0.0223 I0.005 J0.0001
X1.341 Y0.7499 Z-0.0229 I-0.005 J-0.0001
X1.351 Y0.7501 Z-0.0234 I0.005 J0.0001
X1.341 Y0.7499 Z-0.024 I-0.005 J-0.0001
X1.351 Y0.7501 Z-0.0245 I0.005 J0.0001
X1.341 Y0.7499 Z-0.0251 I-0.005 J-0.0001
X1.351 Y0.7501 Z-0.0256 I0.005 J0.0001
X1.341 Y0.7499 Z-0.0262 I-0.005 J-0.0001
X1.351 Y0.7501 Z-0.0267 I0.005 J0.0001
X1.341 Y0.7499 Z-0.0273 I-0.005 J-0.0001
X1.351 Y0.7501 Z-0.0278 I0.005 J0.0001
X1.341 Y0.7499 Z-0.0284 I-0.005 J-0.0001
X1.351 Y0.7501 Z-0.0289 I0.005 J0.0001
X1.341 Y0.7499 Z-0.0295 I-0.005 J-0.0001
X1.351 Y0.75 Z-0.03 I0.005 J0.0001
X1.289 I-0.031 J0. F40.
X1.351 I0.031 J0.
X1.289 Z-0.0334 I-0.031 J0. F20.
X1.351 Z-0.0368 I0.031 J0.
X1.289 Z-0.0402 I-0.031 J0.
X1.351 Z-0.0436 I0.031 J0.
X1.289 Z-0.047 I-0.031 J0.
X1.351 Z-0.0504 I0.031 J0.
X1.289 Z-0.0538 I-0.031 J0.
X1.351 Z-0.0572 I0.031 J0.
X1.2938 Y0.7665 Z-0.06 I-0.031 J0.
X1.3462 Y0.7335 I0.0262 J-0.0165 F40.
X1.2938 Y0.7665 I-0.0262 J0.0165
X1.3462 Y0.7335 Z-0.0634 I0.0262 J-0.0165 F20.
X1.2938 Y0.7665 Z-0.0668 I-0.0262 J0.0165
X1.3462 Y0.7335 Z-0.0702 I0.0262 J-0.0165
X1.2938 Y0.7665 Z-0.0736 I-0.0262 J0.0165
X1.3462 Y0.7335 Z-0.077 I0.0262 J-0.0165
X1.2938 Y0.7665 Z-0.0804 I-0.0262 J0.0165
X1.3462 Y0.7335 Z-0.0838 I0.0262 J-0.0165
X1.2938 Y0.7665 Z-0.0872 I-0.0262 J0.0165
X1.3334 Y0.722 Z-0.09 I0.0262 J-0.0165
X1.3066 Y0.778 I-0.0134 J0.028 F40.
X1.3334 Y0.722 I0.0134 J-0.028
X1.3066 Y0.778 Z-0.0934 I-0.0134 J0.028 F20.
X1.3334 Y0.722 Z-0.0968 I0.0134 J-0.028
X1.3066 Y0.778 Z-0.1002 I-0.0134 J0.028
X1.3334 Y0.722 Z-0.1036 I0.0134 J-0.028
X1.3066 Y0.778 Z-0.107 I-0.0134 J0.028
X1.3334 Y0.722 Z-0.1104 I0.0134 J-0.028
X1.3066 Y0.778 Z-0.1138 I-0.0134 J0.028
X1.3334 Y0.722 Z-0.1172 I0.0134 J-0.028
X1.3235 Y0.7808 Z-0.12 I-0.0134 J0.028
X1.3165 Y0.7192 I-0.0035 J-0.0308 F40.
X1.3235 Y0.7808 I0.0035 J0.0308
X1.3165 Y0.7192 Z-0.1234 I-0.0035 J-0.0308 F20.
X1.3235 Y0.7808 Z-0.1268 I0.0035 J0.0308
X1.3165 Y0.7192 Z-0.1302 I-0.0035 J-0.0308
X1.3235 Y0.7808 Z-0.1336 I0.0035 J0.0308
X1.3165 Y0.7192 Z-0.137 I-0.0035 J-0.0308
X1.3235 Y0.7808 Z-0.1404 I0.0035 J0.0308
X1.3165 Y0.7192 Z-0.1438 I-0.0035 J-0.0308
X1.3235 Y0.7808 Z-0.1472 I0.0035 J0.0308
X1.3006 Y0.7258 Z-0.15 I-0.0035 J-0.0308
X1.3394 Y0.7742 I0.0194 J0.0242 F40.
X1.3006 Y0.7258 I-0.0194 J-0.0242
X1.3394 Y0.7742 Z-0.1534 I0.0194 J0.0242 F20.
X1.3006 Y0.7258 Z-0.1568 I-0.0194 J-0.0242
X1.3394 Y0.7742 Z-0.1602 I0.0194 J0.0242
X1.3006 Y0.7258 Z-0.1636 I-0.0194 J-0.0242
X1.3394 Y0.7742 Z-0.167 I0.0194 J0.0242
X1.3006 Y0.7258 Z-0.1704 I-0.0194 J-0.0242
X1.3394 Y0.7742 Z-0.1738 I0.0194 J0.0242
X1.3006 Y0.7258 Z-0.1772 I-0.0194 J-0.0242
X1.3493 Y0.7601 Z-0.18 I0.0194 J0.0242
X1.2907 Y0.7399 I-0.0293 J-0.0101 F40.
X1.3493 Y0.7601 I0.0293 J0.0101
X1.2907 Y0.7399 Z-0.1834 I-0.0293 J-0.0101 F20.
X1.3493 Y0.7601 Z-0.1868 I0.0293 J0.0101
X1.2907 Y0.7399 Z-0.1902 I-0.0293 J-0.0101
X1.3493 Y0.7601 Z-0.1936 I0.0293 J0.0101
X1.2907 Y0.7399 Z-0.197 I-0.0293 J-0.0101
X1.3493 Y0.7601 Z-0.2004 I0.0293 J0.0101
X1.2907 Y0.7399 Z-0.2038 I-0.0293 J-0.0101
X1.3493 Y0.7601 Z-0.2072 I0.0293 J0.0101
X1.2898 Y0.757 Z-0.21 I-0.0293 J-0.0101
X1.3502 Y0.743 I0.0302 J-0.007 F40.
X1.2898 Y0.757 I-0.0302 J0.007
X1.3502 Y0.743 Z-0.2134 I0.0302 J-0.007 F20.
X1.2898 Y0.757 Z-0.2168 I-0.0302 J0.007
X1.3502 Y0.743 Z-0.2202 I0.0302 J-0.007
X1.2898 Y0.757 Z-0.2236 I-0.0302 J0.007
X1.3502 Y0.743 Z-0.227 I0.0302 J-0.007
X1.2898 Y0.757 Z-0.2304 I-0.0302 J0.007
X1.3502 Y0.743 Z-0.2338 I0.0302 J-0.007
X1.2898 Y0.757 Z-0.2372 I-0.0302 J0.007
X1.3418 Y0.728 Z-0.24 I0.0302 J-0.007
X1.2982 Y0.772 I-0.0218 J0.022 F40.
X1.3418 Y0.728 I0.0218 J-0.022
X1.2982 Y0.772 Z-0.2434 I-0.0218 J0.022 F20.
X1.3418 Y0.728 Z-0.2468 I0.0218 J-0.022
X1.2982 Y0.772 Z-0.2502 I-0.0218 J0.022
X1.3418 Y0.728 Z-0.2536 I0.0218 J-0.022
X1.2982 Y0.772 Z-0.257 I-0.0218 J0.022
X1.3418 Y0.728 Z-0.2604 I0.0218 J-0.022
X1.2982 Y0.772 Z-0.2638 I-0.0218 J0.022
X1.3418 Y0.728 Z-0.2672 I0.0218 J-0.022
X1.3133 Y0.7803 Z-0.27 I-0.0218 J0.022
X1.3267 Y0.7197 I0.0067 J-0.0303 F40.
X1.3133 Y0.7803 I-0.0067 J0.0303
G1 X1.3112 Y0.7796 Z-0.2696
X1.3092 Y0.7785 Z-0.2691
X1.3077 Y0.7773 Z-0.2678
X1.3064 Y0.7758 Z-0.2665
X1.3051 Y0.7737 Z-0.2627
X1.3048 Y0.7728 Z-0.2582
G0 Z0.2
X0.6638 Y0.7208
G1 Z0.1118 F20.
X0.6643 Y0.7215 Z0.1075
X0.6648 Y0.7225 Z0.1056
X0.665 Y0.7237 Z0.1038
X0.6648 Y0.7254 Z0.1025
X0.664 Y0.727 Z0.1012
X0.6629 Y0.7281 Z0.1008
X0.6615 Y0.7288 Z0.1004
X0.6599 Y0.729 Z0.1
G3 X0.6601 Y0.719 Z0.0995 I0.0001 J-0.005
X0.6599 Y0.729 Z0.0989 I-0.0001 J0.005
X0.6601 Y0.719 Z0.0984 I0.0001 J-0.005
X0.6599 Y0.729 Z0.0978 I-0.0001 J0.005
X0.6601 Y0.719 Z0.0973 I0.0001 J-0.005
X0.6599 Y0.729 Z0.0967 I-0.0001 J0.005
X0.6601 Y0.719 Z0.0962 I0.0001 J-0.005
X0.6599 Y0.729 Z0.0956 I-0.0001 J0.005
X0.6601 Y0.719 Z0.0951 I0.0001 J-0.005
X0.6599 Y0.729 Z0.0945 I-0.0001 J0.005
X0.6601 Y0.719 Z0.094 I0.0001 J-0.005
X0.6599 Y0.729 Z0.0934 I-0.0001 J0.005
X0.6601 Y0.719 Z0.0929 I0.0001 J-0.005
X0.6599 Y0.729 Z0.0923 I-0.0001 J0.005
X0.6601 Y0.719 Z0.0918 I0.0001 J-0.005
X0.6599 Y0.729 Z0.0912 I-0.0001 J0.005
X0.6601 Y0.719 Z0.0907 I0.0001 J-0.005
X0.6599 Y0.729 Z0.0901 I-0.0001 J0.005
X0.6601 Y0.719 Z0.0896 I0.0001 J-0.005
X0.6599 Y0.729 Z0.089 I-0.0001 J0.005
X0.6601 Y0.719 Z0.0885 I0.0001 J-0.005
X0.6599 Y0.729 Z0.0879 I-0.0001 J0.005
X0.6601 Y0.719 Z0.0874 I0.0001 J-0.005
X0.6599 Y0.729 Z0.0868 I-0.0001 J0.005
X0.6601 Y0.719 Z0.0863 I0.0001 J-0.005
X0.6599 Y0.729 Z0.0857 I-0.0001 J0.005
X0.6601 Y0.719 Z0.0852 I0.0001 J-0.005
X0.6599 Y0.729 Z0.0846 I-0.0001 J0.005
X0.6601 Y0.719 Z0.0841 I0.0001 J-0.005
X0.6599 Y0.729 Z0.0835 I-0.0001 J0.005
X0.6601 Y0.719 Z0.083 I0.0001 J-0.005
X0.6599 Y0.729 Z0.0824 I-0.0001 J0.005
X0.6601 Y0.719 Z0.0819 I0.0001 J-0.005
X0.6599 Y0.729 Z0.0813 I-0.0001 J0.005
X0.6601 Y0.719 Z0.0808 I0.0001 J-0.005
X0.6599 Y0.729 Z0.0803 I-0.0001 J0.005
X0.6601 Y0.719 Z0.0797 I0.0001 J-0.005
X0.6599 Y0.729 Z0.0792 I-0.0001 J0.005
X0.6601 Y0.719 Z0.0786 I0.0001 J-0.005
X0.6599 Y0.729 Z0.0781 I-0.0001 J0.005
X0.6601 Y0.719 Z0.0775 I0.0001 J-0.005
X0.6599 Y0.729 Z0.077 I-0.0001 J0.005
X0.6601 Y0.719 Z0.0764 I0.0001 J-0.005
X0.6599 Y0.729 Z0.0759 I-0.0001 J0.005
X0.6601 Y0.719 Z0.0753 I0.0001 J-0.005
X0.6599 Y0.729 Z0.0748 I-0.0001 J0.005
X0.6601 Y0.719 Z0.0742 I0.0001 J-0.005
X0.6599 Y0.729 Z0.0737 I-0.0001 J0.005
X0.6601 Y0.719 Z0.0731 I0.0001 J-0.005
X0.6599 Y0.729 Z0.0726 I-0.0001 J0.005
X0.6601 Y0.719 Z0.072 I0.0001 J-0.005
X0.6599 Y0.729 Z0.0715 I-0.0001 J0.005
X0.6601 Y0.719 Z0.0709 I0.0001 J-0.005
X0.6599 Y0.729 Z0.0704 I-0.0001 J0.005
X0.6601 Y0.719 Z0.0698 I0.0001 J-0.005
X0.6599 Y0.729 Z0.0693 I-0.0001 J0.005
X0.6601 Y0.719 Z0.0687 I0.0001 J-0.005
X0.6599 Y0.729 Z0.0682 I-0.0001 J0.005
X0.6601 Y0.719 Z0.0676 I0.0001 J-0.005
X0.6599 Y0.729 Z0.0671 I-0.0001 J0.005
X0.6601 Y0.719 Z0.0665 I0.0001 J-0.005
X0.6599 Y0.729 Z0.066 I-0.0001 J0.005
X0.6601 Y0.719 Z0.0654 I0.0001 J-0.005
X0.6599 Y0.729 Z0.0649 I-0.0001 J0.005
X0.6601 Y0.719 Z0.0643 I0.0001 J-0.005
X0.6599 Y0.729 Z0.0638 I-0.0001 J0.005
X0.6601 Y0.719 Z0.0632 I0.0001 J-0.005
X0.6599 Y0.729 Z0.0627 I-0.0001 J0.005
X0.6601 Y0.719 Z0.0622 I0.0001 J-0.005
X0.6599 Y0.729 Z0.0616 I-0.0001 J0.005
X0.6601 Y0.719 Z0.0611 I0.0001 J-0.005
X0.6599 Y0.729 Z0.0605 I-0.0001 J0.005
X0.6601 Y0.719 Z0.06 I0.0001 J-0.005
X0.6599 Y0.729 Z0.0594 I-0.0001 J0.005
X0.6601 Y0.719 Z0.0589 I0.0001 J-0.005
X0.6599 Y0.729 Z0.0583 I-0.0001 J0.005
X0.6601 Y0.719 Z0.0578 I0.0001 J-0.005
X0.6599 Y0.729 Z0.0572 I-0.0001 J0.005
X0.6601 Y0.719 Z0.0567 I0.0001 J-0.005
X0.6599 Y0.729 Z0.0561 I-0.0001 J0.005
X0.6601 Y0.719 Z0.0556 I0.0001 J-0.005
X0.6599 Y0.729 Z0.055 I-0.0001 J0.005
X0.6601 Y0.719 Z0.0545 I0.0001 J-0.005
X0.6599 Y0.729 Z0.0539 I-0.0001 J0.005
X0.6601 Y0.719 Z0.0534 I0.0001 J-0.005
X0.6599 Y0.729 Z0.0528 I-0.0001 J0.005
X0.6601 Y0.719 Z0.0523 I0.0001 J-0.005
X0.6599 Y0.729 Z0.0517 I-0.0001 J0.005
X0.6601 Y0.719 Z0.0512 I0.0001 J-0.005
X0.6599 Y0.729 Z0.0506 I-0.0001 J0.005
X0.6601 Y0.719 Z0.0501 I0.0001 J-0.005
X0.6599 Y0.729 Z0.0495 I-0.0001 J0.005
X0.6601 Y0.719 Z0.049 I0.0001 J-0.005
X0.6599 Y0.729 Z0.0484 I-0.0001 J0.005
X0.6601 Y0.719 Z0.0479 I0.0001 J-0.005
X0.6599 Y0.729 Z0.0473 I-0.0001 J0.005
X0.6601 Y0.719 Z0.0468 I0.0001 J-0.005
X0.6599 Y0.729 Z0.0462 I-0.0001 J0.005
X0.6601 Y0.719 Z0.0457 I0.0001 J-0.005
X0.6599 Y0.729 Z0.0451 I-0.0001 J0.005
X0.6601 Y0.719 Z0.0446 I0.0001 J-0.005
X0.6599 Y0.729 Z0.044 I-0.0001 J0.005
X0.6601 Y0.719 Z0.0435 I0.0001 J-0.005
X0.6599 Y0.729 Z0.043 I-0.0001 J0.005
X0.6601 Y0.719 Z0.0424 I0.0001 J-0.005
X0.6599 Y0.729 Z0.0419 I-0.0001 J0.005
X0.6601 Y0.719 Z0.0413 I0.0001 J-0.005
X0.6599 Y0.729 Z0.0408 I-0.0001 J0.005
X0.6601 Y0.719 Z0.0402 I0.0001 J-0.005
X0.6599 Y0.729 Z0.0397 I-0.0001 J0.005
X0.6601 Y0.719 Z0.0391 I0.0001 J-0.005
X0.6599 Y0.729 Z0.0386 I-0.0001 J0.005
X0.6601 Y0.719 Z0.038 I0.0001 J-0.005
X0.6599 Y0.729 Z0.0375 I-0.0001 J0.005
X0.6601 Y0.719 Z0.0369 I0.0001 J-0.005
X0.6599 Y0.729 Z0.0364 I-0.0001 J0.005
X0.6601 Y0.719 Z0.0358 I0.0001 J-0.005
X0.6599 Y0.729 Z0.0353 I-0.0001 J0.005
X0.6601 Y0.719 Z0.0347 I0.0001 J-0.005
X0.6599 Y0.729 Z0.0342 I-0.0001 J0.005
X0.6601 Y0.719 Z0.0336 I0.0001 J-0.005
X0.6599 Y0.729 Z0.0331 I-0.0001 J0.005
X0.6601 Y0.719 Z0.0325 I0.0001 J-0.005
X0.6599 Y0.729 Z0.032 I-0.0001 J0.005
X0.6601 Y0.719 Z0.0314 I0.0001 J-0.005
X0.6599 Y0.729 Z0.0309 I-0.0001 J0.005
X0.6601 Y0.719 Z0.0303 I0.0001 J-0.005
X0.6599 Y0.729 Z0.0298 I-0.0001 J0.005
X0.6601 Y0.719 Z0.0292 I0.0001 J-0.005
X0.6599 Y0.729 Z0.0287 I-0.0001 J0.005
X0.6601 Y0.719 Z0.0281 I0.0001 J-0.005
X0.6599 Y0.729 Z0.0276 I-0.0001 J0.005
X0.6601 Y0.719 Z0.027 I0.0001 J-0.005
X0.6599 Y0.729 Z0.0265 I-0.0001 J0.005
X0.6601 Y0.719 Z0.0259 I0.0001 J-0.005
X0.6599 Y0.729 Z0.0254 I-0.0001 J0.005
X0.6601 Y0.719 Z0.0249 I0.0001 J-0.005
X0.6599 Y0.729 Z0.0243 I-0.0001 J0.005
X0.6601 Y0.719 Z0.0238 I0.0001 J-0.005
X0.6599 Y0.729 Z0.0232 I-0.0001 J0.005
X0.6601 Y0.719 Z0.0227 I0.0001 J-0.005
X0.6599 Y0.729 Z0.0221 I-0.0001 J0.005
X0.6601 Y0.719 Z0.0216 I0.0001 J-0.005
X0.6599 Y0.729 Z0.021 I-0.0001 J0.005
X0.6601 Y0.719 Z0.0205 I0.0001 J-0.005
X0.6599 Y0.729 Z0.0199 I-0.0001 J0.005
X0.6601 Y0.719 Z0.0194 I0.0001 J-0.005
X0.6599 Y0.729 Z0.0188 I-0.0001 J0.005
X0.6601 Y0.719 Z0.0183 I0.0001 J-0.005
X0.6599 Y0.729 Z0.0177 I-0.0001 J0.005
X0.6601 Y0.719 Z0.0172 I0.0001 J-0.005
X0.6599 Y0.729 Z0.0166 I-0.0001 J0.005
X0.6601 Y0.719 Z0.0161 I0.0001 J-0.005
X0.6599 Y0.729 Z0.0155 I-0.0001 J0.005
X0.6601 Y0.719 Z0.015 I0.0001 J-0.005
X0.6599 Y0.729 Z0.0144 I-0.0001 J0.005
X0.6601 Y0.719 Z0.0139 I0.0001 J-0.005
X0.6599 Y0.729 Z0.0133 I-0.0001 J0.005
X0.6601 Y0.719 Z0.0128 I0.0001 J-0.005
X0.6599 Y0.729 Z0.0122 I-0.0001 J0.005
X0.6601 Y0.719 Z0.0117 I0.0001 J-0.005
X0.6599 Y0.729 Z0.0111 I-0.0001 J0.005
X0.6601 Y0.719 Z0.0106 I0.0001 J-0.005
X0.6599 Y0.729 Z0.01 I-0.0001 J0.005
X0.6601 Y0.719 Z0.0095 I0.0001 J-0.005
X0.6599 Y0.729 Z0.0089 I-0.0001 J0.005
X0.6601 Y0.719 Z0.0084 I0.0001 J-0.005
X0.6599 Y0.729 Z0.0078 I-0.0001 J0.005
X0.6601 Y0.719 Z0.0073 I0.0001 J-0.005
X0.6599 Y0.729 Z0.0067 I-0.0001 J0.005
X0.6601 Y0.719 Z0.0062 I0.0001 J-0.005
X0.6599 Y0.729 Z0.0057 I-0.0001 J0.005
X0.6601 Y0.719 Z0.0051 I0.0001 J-0.005
X0.6599 Y0.729 Z0.0046 I-0.0001 J0.005
X0.6601 Y0.719 Z0.004 I0.0001 J-0.005
X0.6599 Y0.729 Z0.0035 I-0.0001 J0.005
X0.6601 Y0.719 Z0.0029 I0.0001 J-0.005
X0.6599 Y0.729 Z0.0024 I-0.0001 J0.005
X0.6601 Y0.719 Z0.0018 I0.0001 J-0.005
X0.6599 Y0.729 Z0.0013 I-0.0001 J0.005
X0.6601 Y0.719 Z0.0007 I0.0001 J-0.005
X0.6599 Y0.729 Z0.0002 I-0.0001 J0.005
X0.6601 Y0.719 Z-0.0004 I0.0001 J-0.005
X0.6599 Y0.729 Z-0.0009 I-0.0001 J0.005
X0.6601 Y0.719 Z-0.0015 I0.0001 J-0.005
X0.6599 Y0.729 Z-0.002 I-0.0001 J0.005
X0.6601 Y0.719 Z-0.0026 I0.0001 J-0.005
X0.6599 Y0.729 Z-0.0031 I-0.0001 J0.005
X0.6601 Y0.719 Z-0.0037 I0.0001 J-0.005
X0.6599 Y0.729 Z-0.0042 I-0.0001 J0.005
X0.6601 Y0.719 Z-0.0048 I0.0001 J-0.005
X0.6599 Y0.729 Z-0.0053 I-0.0001 J0.005
X0.6601 Y0.719 Z-0.0059 I0.0001 J-0.005
X0.6599 Y0.729 Z-0.0064 I-0.0001 J0.005
X0.6601 Y0.719 Z-0.007 I0.0001 J-0.005
X0.6599 Y0.729 Z-0.0075 I-0.0001 J0.005
X0.6601 Y0.719 Z-0.0081 I0.0001 J-0.005
X0.6599 Y0.729 Z-0.0086 I-0.0001 J0.005
X0.6601 Y0.719 Z-0.0092 I0.0001 J-0.005
X0.6599 Y0.729 Z-0.0097 I-0.0001 J0.005
X0.6601 Y0.719 Z-0.0103 I0.0001 J-0.005
X0.6599 Y0.729 Z-0.0108 I-0.0001 J0.005
X0.6601 Y0.719 Z-0.0114 I0.0001 J-0.005
X0.6599 Y0.729 Z-0.0119 I-0.0001 J0.005
X0.6601 Y0.719 Z-0.0124 I0.0001 J-0.005
X0.6599 Y0.729 Z-0.013 I-0.0001 J0.005
X0.6601 Y0.719 Z-0.0135 I0.0001 J-0.005
X0.6599 Y0.729 Z-0.0141 I-0.0001 J0.005
X0.6601 Y0.719 Z-0.0146 I0.0001 J-0.005
X0.6599 Y0.729 Z-0.0152 I-0.0001 J0.005
X0.6601 Y0.719 Z-0.0157 I0.0001 J-0.005
X0.6599 Y0.729 Z-0.0163 I-0.0001 J0.005
X0.6601 Y0.719 Z-0.0168 I0.0001 J-0.005
X0.6599 Y0.729 Z-0.0174 I-0.0001 J0.005
X0.6601 Y0.719 Z-0.0179 I0.0001 J-0.005
X0.6599 Y0.729 Z-0.0185 I-0.0001 J0.005
X0.6601 Y0.719 Z-0.019 I0.0001 J-0.005
X0.6599 Y0.729 Z-0.0196 I-0.0001 J0.005
X0.6601 Y0.719 Z-0.0201 I0.0001 J-0.005
X0.6599 Y0.729 Z-0.0207 I-0.0001 J0.005
X0.6601 Y0.719 Z-0.0212 I0.0001 J-0.005
X0.6599 Y0.729 Z-0.0218 I-0.0001 J0.005
X0.6601 Y0.719 Z-0.0223 I0.0001 J-0.005
X0.6599 Y0.729 Z-0.0229 I-0.0001 J0.005
X0.6601 Y0.719 Z-0.0234 I0.0001 J-0.005
X0.6599 Y0.729 Z-0.024 I-0.0001 J0.005
X0.6601 Y0.719 Z-0.0245 I0.0001 J-0.005
X0.6599 Y0.729 Z-0.0251 I-0.0001 J0.005
X0.6601 Y0.719 Z-0.0256 I0.0001 J-0.005
X0.6599 Y0.729 Z-0.0262 I-0.0001 J0.005
X0.6601 Y0.719 Z-0.0267 I0.0001 J-0.005
X0.6599 Y0.729 Z-0.0273 I-0.0001 J0.005
X0.6601 Y0.719 Z-0.0278 I0.0001 J-0.005
X0.6599 Y0.729 Z-0.0284 I-0.0001 J0.005
X0.6601 Y0.719 Z-0.0289 I0.0001 J-0.005
X0.6599 Y0.729 Z-0.0295 I-0.0001 J0.005
X0.66 Y0.719 Z-0.03 I0.0001 J-0.005
Y0.781 I0. J0.031 F40.
Y0.719 I0. J-0.031
Y0.781 Z-0.0334 I0. J0.031 F20.
Y0.719 Z-0.0368 I0. J-0.031
Y0.781 Z-0.0402 I0. J0.031
Y0.719 Z-0.0436 I0. J-0.031
Y0.781 Z-0.047 I0. J0.031
Y0.719 Z-0.0504 I0. J-0.031
Y0.781 Z-0.0538 I0. J0.031
Y0.719 Z-0.0572 I0. J-0.031
X0.6765 Y0.7762 Z-0.06 I0. J0.031
X0.6435 Y0.7238 I-0.0165 J-0.0262 F40.
X0.6765 Y0.7762 I0.0165 J0.0262
X0.6435 Y0.7238 Z-0.0634 I-0.0165 J-0.0262 F20.
X0.6765 Y0.7762 Z-0.0668 I0.0165 J0.0262
X0.6435 Y0.7238 Z-0.0702 I-0.0165 J-0.0262
X0.6765 Y0.7762 Z-0.0736 I0.0165 J0.0262
X0.6435 Y0.7238 Z-0.077 I-0.0165 J-0.0262
X0.6765 Y0.7762 Z-0.0804 I0.0165 J0.0262
X0.6435 Y0.7238 Z-0.0838 I-0.0165 J-0.0262
X0.6765 Y0.7762 Z-0.0872 I0.0165 J0.0262
X0.632 Y0.7366 Z-0.09 I-0.0165 J-0.0262
X0.688 Y0.7634 I0.028 J0.0134 F40.
X0.632 Y0.7366 I-0.028 J-0.0134
X0.688 Y0.7634 Z-0.0934 I0.028 J0.0134 F20.
X0.632 Y0.7366 Z-0.0968 I-0.028 J-0.0134
X0.688 Y0.7634 Z-0.1002 I0.028 J0.0134
X0.632 Y0.7366 Z-0.1036 I-0.028 J-0.0134
X0.688 Y0.7634 Z-0.107 I0.028 J0.0134
X0.632 Y0.7366 Z-0.1104 I-0.028 J-0.0134
X0.688 Y0.7634 Z-0.1138 I0.028 J0.0134
X0.632 Y0.7366 Z-0.1172 I-0.028 J-0.0134
X0.6908 Y0.7465 Z-0.12 I0.028 J0.0134
X0.6292 Y0.7535 I-0.0308 J0.0035 F40.
X0.6908 Y0.7465 I0.0308 J-0.0035
X0.6292 Y0.7535 Z-0.1234 I-0.0308 J0.0035 F20.
X0.6908 Y0.7465 Z-0.1268 I0.0308 J-0.0035
X0.6292 Y0.7535 Z-0.1302 I-0.0308 J0.0035
X0.6908 Y0.7465 Z-0.1336 I0.0308 J-0.0035
X0.6292 Y0.7535 Z-0.137 I-0.0308 J0.0035
X0.6908 Y0.7465 Z-0.1404 I0.0308 J-0.0035
X0.6292 Y0.7535 Z-0.1438 I-0.0308 J0.0035
X0.6908 Y0.7465 Z-0.1472 I0.0308 J-0.0035
X0.6358 Y0.7694 Z-0.15 I-0.0308 J0.0035
X0.6842 Y0.7306 I0.0242 J-0.0194 F40.
X0.6358 Y0.7694 I-0.0242 J0.0194
X0.6842 Y0.7306 Z-0.1534 I0.0242 J-0.0194 F20.
X0.6358 Y0.7694 Z-0.1568 I-0.0242 J0.0194
X0.6842 Y0.7306 Z-0.1602 I0.0242 J-0.0194
X0.6358 Y0.7694 Z-0.1636 I-0.0242 J0.0194
X0.6842 Y0.7306 Z-0.167 I0.0242 J-0.0194
X0.6358 Y0.7694 Z-0.1704 I-0.0242 J0.0194
X0.6842 Y0.7306 Z-0.1738 I0.0242 J-0.0194
X0.6358 Y0.7694 Z-0.1772 I-0.0242 J0.0194
X0.6701 Y0.7207 Z-0.18 I0.0242 J-0.0194
X0.6499 Y0.7793 I-0.0101 J0.0293 F40.
X0.6701 Y0.7207 I0.0101 J-0.0293
X0.6499 Y0.7793 Z-0.1834 I-0.0101 J0.0293 F20.
X0.6701 Y0.7207 Z-0.1868 I0.0101 J-0.0293
X0.6499 Y0.7793 Z-0.1902 I-0.0101 J0.0293
X0.6701 Y0.7207 Z-0.1936 I0.0101 J-0.0293
X0.6499 Y0.7793 Z-0.197 I-0.0101 J0.0293
X0.6701 Y0.7207 Z-0.2004 I0.0101 J-0.0293
X0.6499 Y0.7793 Z-0.2038 I-0.0101 J0.0293
X0.6701 Y0.7207 Z-0.2072 I0.0101 J-0.0293
X0.667 Y0.7802 Z-0.21 I-0.0101 J0.0293
X0.653 Y0.7198 I-0.007 J-0.0302 F40.
X0.667 Y0.7802 I0.007 J0.0302
X0.653 Y0.7198 Z-0.2134 I-0.007 J-0.0302 F20.
X0.667 Y0.7802 Z-0.2168 I0.007 J0.0302
X0.653 Y0.7198 Z-0.2202 I-0.007 J-0.0302
X0.667 Y0.7802 Z-0.2236 I0.007 J0.0302
X0.653 Y0.7198 Z-0.227 I-0.007 J-0.0302
X0.667 Y0.7802 Z-0.2304 I0.007 J0.0302
X0.653 Y0.7198 Z-0.2338 I-0.007 J-0.0302
X0.667 Y0.7802 Z-0.2372 I0.007 J0.0302
X0.638 Y0.7282 Z-0.24 I-0.007 J-0.0302
X0.682 Y0.7718 I0.022 J0.0218 F40.
X0.638 Y0.7282 I-0.022 J-0.0218
X0.682 Y0.7718 Z-0.2434 I0.022 J0.0218 F20.
X0.638 Y0.7282 Z-0.2468 I-0.022 J-0.0218
X0.682 Y0.7718 Z-0.2502 I0.022 J0.0218
X0.638 Y0.7282 Z-0.2536 I-0.022 J-0.0218
X0.682 Y0.7718 Z-0.257 I0.022 J0.0218
X0.638 Y0.7282 Z-0.2604 I-0.022 J-0.0218
X0.682 Y0.7718 Z-0.2638 I0.022 J0.0218
X0.638 Y0.7282 Z-0.2672 I-0.022 J-0.0218
X0.6903 Y0.7567 Z-0.27 I0.022 J0.0218
X0.6297 Y0.7433 I-0.0303 J-0.0067 F40.
X0.6903 Y0.7567 I0.0303 J0.0067
G1 X0.6896 Y0.7588 Z-0.2696
X0.6885 Y0.7608 Z-0.2691
X0.6873 Y0.7623 Z-0.2678
X0.6858 Y0.7636 Z-0.2665
X0.6837 Y0.7649 Z-0.2627
X0.6828 Y0.7652 Z-0.2582
G0 Z0.6

M9
G90
G90
M30
