(X8 LIMELIGHT MOUNTING PLATE HOLES 1)
(T3  D=0.118 CR=0. - ZMIN=-0.35 - FLAT END MILL)
G90 G94 G91.1 G40 G49 G17
G20

(2D POCKET1)
M5
T3 M6
S15000 M3
g4 p5
G54
M8
G0 X0.2599 Y0.5861
G43 Z0.6 H3
Z0.2
G1 Z0.1194 F40.
Z-0.0682 F20.
X0.2594 Y0.5868 Z-0.0727
X0.2577 Y0.5887 Z-0.0765
X0.2561 Y0.5898 Z-0.0778
X0.2544 Y0.5906 Z-0.0791
X0.2522 Y0.5913 Z-0.0796
X0.25 Y0.5915 Z-0.08
G3 Y0.5135 I0. J-0.039 F40.
Y0.5915 I0. J0.039
G1 X0.2488 Y0.5912
X0.2478 Y0.5905
X0.2473 Y0.5894
X0.2472 Y0.5881
X0.2477 Y0.587
X0.2486 Y0.5862
X0.2562 Y0.5821
X0.2574 Y0.5817
X0.2586 Y0.5819
X0.2596 Y0.5826
X0.2602 Y0.5837
X0.2604 Y0.5849
X0.2599 Y0.5861
Z-0.1482 F20.
X0.2594 Y0.5868 Z-0.1527
X0.2577 Y0.5887 Z-0.1565
X0.2561 Y0.5898 Z-0.1578
X0.2544 Y0.5906 Z-0.1591
X0.2522 Y0.5913 Z-0.1596
X0.25 Y0.5915 Z-0.16
G3 Y0.5135 I0. J-0.039 F40.
Y0.5915 I0. J0.039
G1 X0.2488 Y0.5912
X0.2478 Y0.5905
X0.2473 Y0.5894
X0.2472 Y0.5881
X0.2477 Y0.587
X0.2486 Y0.5862
X0.2562 Y0.5821
X0.2574 Y0.5817
X0.2586 Y0.5819
X0.2596 Y0.5826
X0.2602 Y0.5837
X0.2604 Y0.5849
X0.2599 Y0.5861
Z-0.2282 F20.
X0.2594 Y0.5868 Z-0.2327
X0.2577 Y0.5887 Z-0.2365
X0.2561 Y0.5898 Z-0.2378
X0.2544 Y0.5906 Z-0.2391
X0.2522 Y0.5913 Z-0.2396
X0.25 Y0.5915 Z-0.24
G3 Y0.5135 I0. J-0.039 F40.
Y0.5915 I0. J0.039
G1 X0.2488 Y0.5912
X0.2478 Y0.5905
X0.2473 Y0.5894
X0.2472 Y0.5881
X0.2477 Y0.587
X0.2486 Y0.5862
X0.2562 Y0.5821
X0.2574 Y0.5817
X0.2586 Y0.5819
X0.2596 Y0.5826
X0.2602 Y0.5837
X0.2604 Y0.5849
X0.2599 Y0.5861
Z-0.3082 F20.
X0.2594 Y0.5868 Z-0.3127
X0.2577 Y0.5887 Z-0.3165
X0.2561 Y0.5898 Z-0.3178
X0.2544 Y0.5906 Z-0.3191
X0.2522 Y0.5913 Z-0.3196
X0.25 Y0.5915 Z-0.32
G3 Y0.5135 I0. J-0.039 F40.
Y0.5915 I0. J0.039
G1 X0.2488 Y0.5912
X0.2478 Y0.5905
X0.2473 Y0.5894
X0.2472 Y0.5881
X0.2477 Y0.587
X0.2486 Y0.5862
X0.2562 Y0.5821
X0.2574 Y0.5817
X0.2586 Y0.5819
X0.2596 Y0.5826
X0.2602 Y0.5837
X0.2604 Y0.5849
X0.2599 Y0.5861
Z-0.3382 F20.
X0.2594 Y0.5868 Z-0.3427
X0.2577 Y0.5887 Z-0.3465
X0.2561 Y0.5898 Z-0.3478
X0.2544 Y0.5906 Z-0.3491
X0.2522 Y0.5913 Z-0.3496
X0.25 Y0.5915 Z-0.35
G3 Y0.5135 I0. J-0.039 F40.
Y0.5915 I0. J0.039
G1 X0.2478 Y0.5913 Z-0.3496
X0.2456 Y0.5906 Z-0.3491
X0.2439 Y0.5898 Z-0.3478
X0.2423 Y0.5887 Z-0.3465
X0.2406 Y0.5868 Z-0.3427
X0.2401 Y0.5861 Z-0.3382
G0 Z0.2
X0.2836 Y2.4176
G1 Z0.1194 F20.
Z-0.0682
X0.2843 Y2.4181 Z-0.0727
X0.2862 Y2.4198 Z-0.0765
X0.2873 Y2.4214 Z-0.0778
X0.2881 Y2.4231 Z-0.0791
X0.2888 Y2.4253 Z-0.0796
X0.289 Y2.4275 Z-0.08
G3 X0.211 I-0.039 J0. F40.
X0.289 I0.039 J0.
G1 X0.2887 Y2.4287
X0.288 Y2.4297
X0.2869 Y2.4302
X0.2856 Y2.4303
X0.2845 Y2.4298
X0.2837 Y2.4289
X0.2796 Y2.4213
X0.2792 Y2.4201
X0.2794 Y2.4189
X0.2801 Y2.4179
X0.2812 Y2.4173
X0.2824 Y2.4171
X0.2836 Y2.4176
Z-0.1482 F20.
X0.2843 Y2.4181 Z-0.1527
X0.2862 Y2.4198 Z-0.1565
X0.2873 Y2.4214 Z-0.1578
X0.2881 Y2.4231 Z-0.1591
X0.2888 Y2.4253 Z-0.1596
X0.289 Y2.4275 Z-0.16
G3 X0.211 I-0.039 J0. F40.
X0.289 I0.039 J0.
G1 X0.2887 Y2.4287
X0.288 Y2.4297
X0.2869 Y2.4302
X0.2856 Y2.4303
X0.2845 Y2.4298
X0.2837 Y2.4289
X0.2796 Y2.4213
X0.2792 Y2.4201
X0.2794 Y2.4189
X0.2801 Y2.4179
X0.2812 Y2.4173
X0.2824 Y2.4171
X0.2836 Y2.4176
Z-0.2282 F20.
X0.2843 Y2.4181 Z-0.2327
X0.2862 Y2.4198 Z-0.2365
X0.2873 Y2.4214 Z-0.2378
X0.2881 Y2.4231 Z-0.2391
X0.2888 Y2.4253 Z-0.2396
X0.289 Y2.4275 Z-0.24
G3 X0.211 I-0.039 J0. F40.
X0.289 I0.039 J0.
G1 X0.2887 Y2.4287
X0.288 Y2.4297
X0.2869 Y2.4302
X0.2856 Y2.4303
X0.2845 Y2.4298
X0.2837 Y2.4289
X0.2796 Y2.4213
X0.2792 Y2.4201
X0.2794 Y2.4189
X0.2801 Y2.4179
X0.2812 Y2.4173
X0.2824 Y2.4171
X0.2836 Y2.4176
Z-0.3082 F20.
X0.2843 Y2.4181 Z-0.3127
X0.2862 Y2.4198 Z-0.3165
X0.2873 Y2.4214 Z-0.3178
X0.2881 Y2.4231 Z-0.3191
X0.2888 Y2.4253 Z-0.3196
X0.289 Y2.4275 Z-0.32
G3 X0.211 I-0.039 J0. F40.
X0.289 I0.039 J0.
G1 X0.2887 Y2.4287
X0.288 Y2.4297
X0.2869 Y2.4302
X0.2856 Y2.4303
X0.2845 Y2.4298
X0.2837 Y2.4289
X0.2796 Y2.4213
X0.2792 Y2.4201
X0.2794 Y2.4189
X0.2801 Y2.4179
X0.2812 Y2.4173
X0.2824 Y2.4171
X0.2836 Y2.4176
Z-0.3382 F20.
X0.2843 Y2.4181 Z-0.3427
X0.2862 Y2.4198 Z-0.3465
X0.2873 Y2.4214 Z-0.3478
X0.2881 Y2.4231 Z-0.3491
X0.2888 Y2.4253 Z-0.3496
X0.289 Y2.4275 Z-0.35
G3 X0.211 I-0.039 J0. F40.
X0.289 I0.039 J0.
G1 X0.2888 Y2.4297 Z-0.3496
X0.2881 Y2.4319 Z-0.3491
X0.2873 Y2.4336 Z-0.3478
X0.2862 Y2.4352 Z-0.3465
X0.2843 Y2.4369 Z-0.3427
X0.2836 Y2.4374 Z-0.3382
G0 Z0.2
X3.7836 Y2.4176
G1 Z0.1194 F20.
Z-0.0682
X3.7843 Y2.4181 Z-0.0727
X3.7862 Y2.4198 Z-0.0765
X3.7873 Y2.4214 Z-0.0778
X3.7881 Y2.4231 Z-0.0791
X3.7888 Y2.4253 Z-0.0796
X3.789 Y2.4275 Z-0.08
G3 X3.711 I-0.039 J0. F40.
X3.789 I0.039 J0.
G1 X3.7887 Y2.4287
X3.788 Y2.4297
X3.7869 Y2.4302
X3.7856 Y2.4303
X3.7845 Y2.4298
X3.7837 Y2.4289
X3.7796 Y2.4213
X3.7792 Y2.4201
X3.7794 Y2.4189
X3.7801 Y2.4179
X3.7812 Y2.4173
X3.7824 Y2.4171
X3.7836 Y2.4176
Z-0.1482 F20.
X3.7843 Y2.4181 Z-0.1527
X3.7862 Y2.4198 Z-0.1565
X3.7873 Y2.4214 Z-0.1578
X3.7881 Y2.4231 Z-0.1591
X3.7888 Y2.4253 Z-0.1596
X3.789 Y2.4275 Z-0.16
G3 X3.711 I-0.039 J0. F40.
X3.789 I0.039 J0.
G1 X3.7887 Y2.4287
X3.788 Y2.4297
X3.7869 Y2.4302
X3.7856 Y2.4303
X3.7845 Y2.4298
X3.7837 Y2.4289
X3.7796 Y2.4213
X3.7792 Y2.4201
X3.7794 Y2.4189
X3.7801 Y2.4179
X3.7812 Y2.4173
X3.7824 Y2.4171
X3.7836 Y2.4176
Z-0.2282 F20.
X3.7843 Y2.4181 Z-0.2327
X3.7862 Y2.4198 Z-0.2365
X3.7873 Y2.4214 Z-0.2378
X3.7881 Y2.4231 Z-0.2391
X3.7888 Y2.4253 Z-0.2396
X3.789 Y2.4275 Z-0.24
G3 X3.711 I-0.039 J0. F40.
X3.789 I0.039 J0.
G1 X3.7887 Y2.4287
X3.788 Y2.4297
X3.7869 Y2.4302
X3.7856 Y2.4303
X3.7845 Y2.4298
X3.7837 Y2.4289
X3.7796 Y2.4213
X3.7792 Y2.4201
X3.7794 Y2.4189
X3.7801 Y2.4179
X3.7812 Y2.4173
X3.7824 Y2.4171
X3.7836 Y2.4176
Z-0.3082 F20.
X3.7843 Y2.4181 Z-0.3127
X3.7862 Y2.4198 Z-0.3165
X3.7873 Y2.4214 Z-0.3178
X3.7881 Y2.4231 Z-0.3191
X3.7888 Y2.4253 Z-0.3196
X3.789 Y2.4275 Z-0.32
G3 X3.711 I-0.039 J0. F40.
X3.789 I0.039 J0.
G1 X3.7887 Y2.4287
X3.788 Y2.4297
X3.7869 Y2.4302
X3.7856 Y2.4303
X3.7845 Y2.4298
X3.7837 Y2.4289
X3.7796 Y2.4213
X3.7792 Y2.4201
X3.7794 Y2.4189
X3.7801 Y2.4179
X3.7812 Y2.4173
X3.7824 Y2.4171
X3.7836 Y2.4176
Z-0.3382 F20.
X3.7843 Y2.4181 Z-0.3427
X3.7862 Y2.4198 Z-0.3465
X3.7873 Y2.4214 Z-0.3478
X3.7881 Y2.4231 Z-0.3491
X3.7888 Y2.4253 Z-0.3496
X3.789 Y2.4275 Z-0.35
G3 X3.711 I-0.039 J0. F40.
X3.789 I0.039 J0.
G1 X3.7888 Y2.4297 Z-0.3496
X3.7881 Y2.4319 Z-0.3491
X3.7873 Y2.4336 Z-0.3478
X3.7862 Y2.4352 Z-0.3465
X3.7843 Y2.4369 Z-0.3427
X3.7836 Y2.4374 Z-0.3382
G0 Z0.2
X3.7164 Y0.5624
G1 Z0.1194 F20.
Z-0.0682
X3.7157 Y0.5619 Z-0.0727
X3.7138 Y0.5602 Z-0.0765
X3.7127 Y0.5586 Z-0.0778
X3.7119 Y0.5569 Z-0.0791
X3.7112 Y0.5547 Z-0.0796
X3.711 Y0.5525 Z-0.08
G3 X3.789 I0.039 J0. F40.
X3.711 I-0.039 J0.
G1 X3.7113 Y0.5513
X3.712 Y0.5503
X3.7131 Y0.5498
X3.7144 Y0.5497
X3.7155 Y0.5502
X3.7163 Y0.5511
X3.7204 Y0.5587
X3.7208 Y0.5599
X3.7206 Y0.5611
X3.7199 Y0.5621
X3.7188 Y0.5627
X3.7176 Y0.5629
X3.7164 Y0.5624
Z-0.1482 F20.
X3.7157 Y0.5619 Z-0.1527
X3.7138 Y0.5602 Z-0.1565
X3.7127 Y0.5586 Z-0.1578
X3.7119 Y0.5569 Z-0.1591
X3.7112 Y0.5547 Z-0.1596
X3.711 Y0.5525 Z-0.16
G3 X3.789 I0.039 J0. F40.
X3.711 I-0.039 J0.
G1 X3.7113 Y0.5513
X3.712 Y0.5503
X3.7131 Y0.5498
X3.7144 Y0.5497
X3.7155 Y0.5502
X3.7163 Y0.5511
X3.7204 Y0.5587
X3.7208 Y0.5599
X3.7206 Y0.5611
X3.7199 Y0.5621
X3.7188 Y0.5627
X3.7176 Y0.5629
X3.7164 Y0.5624
Z-0.2282 F20.
X3.7157 Y0.5619 Z-0.2327
X3.7138 Y0.5602 Z-0.2365
X3.7127 Y0.5586 Z-0.2378
X3.7119 Y0.5569 Z-0.2391
X3.7112 Y0.5547 Z-0.2396
X3.711 Y0.5525 Z-0.24
G3 X3.789 I0.039 J0. F40.
X3.711 I-0.039 J0.
G1 X3.7113 Y0.5513
X3.712 Y0.5503
X3.7131 Y0.5498
X3.7144 Y0.5497
X3.7155 Y0.5502
X3.7163 Y0.5511
X3.7204 Y0.5587
X3.7208 Y0.5599
X3.7206 Y0.5611
X3.7199 Y0.5621
X3.7188 Y0.5627
X3.7176 Y0.5629
X3.7164 Y0.5624
Z-0.3082 F20.
X3.7157 Y0.5619 Z-0.3127
X3.7138 Y0.5602 Z-0.3165
X3.7127 Y0.5586 Z-0.3178
X3.7119 Y0.5569 Z-0.3191
X3.7112 Y0.5547 Z-0.3196
X3.711 Y0.5525 Z-0.32
G3 X3.789 I0.039 J0. F40.
X3.711 I-0.039 J0.
G1 X3.7113 Y0.5513
X3.712 Y0.5503
X3.7131 Y0.5498
X3.7144 Y0.5497
X3.7155 Y0.5502
X3.7163 Y0.5511
X3.7204 Y0.5587
X3.7208 Y0.5599
X3.7206 Y0.5611
X3.7199 Y0.5621
X3.7188 Y0.5627
X3.7176 Y0.5629
X3.7164 Y0.5624
Z-0.3382 F20.
X3.7157 Y0.5619 Z-0.3427
X3.7138 Y0.5602 Z-0.3465
X3.7127 Y0.5586 Z-0.3478
X3.7119 Y0.5569 Z-0.3491
X3.7112 Y0.5547 Z-0.3496
X3.711 Y0.5525 Z-0.35
G3 X3.789 I0.039 J0. F40.
X3.711 I-0.039 J0.
G1 X3.7112 Y0.5503 Z-0.3496
X3.7119 Y0.5481 Z-0.3491
X3.7127 Y0.5464 Z-0.3478
X3.7138 Y0.5448 Z-0.3465
X3.7157 Y0.5431 Z-0.3427
X3.7164 Y0.5426 Z-0.3382
G0 Z0.6
g0 x0 y0

M9
M30
