(CAROASEL JOINING PLATE HOLES )
(T1  D=3.175 CR=0. - ZMIN=-4.675 - FLAT END MILL)
G90 G94 G91.1 G40 G49 G17
G21
G0 Z15

(BORE1)
M5
T1 M6
S15000 M3
G54
M8
G0 X80.47 Y34.438
G43 Z16. H1
Z2.
G1 Z0.317 F800.
X80.464 Y34.443 Z0.247
X80.445 Y34.457 Z0.18
X80.414 Y34.479 Z0.12
X80.373 Y34.508 Z0.069
X80.325 Y34.544 Z0.031
X80.27 Y34.583 Z0.008
X80.213 Y34.625 Z0.
X80.085 Y34.718
G2 X80.015 Y35.161 I0.187 J0.257
X83.225 Y32.829 Z-0.031 I1.605 J-1.166
X80.015 Y35.161 Z-0.062 I-1.605 J1.166
X83.225 Y32.829 Z-0.094 I1.605 J-1.166
X80.015 Y35.161 Z-0.125 I-1.605 J1.166
X83.225 Y32.829 Z-0.156 I1.605 J-1.166
X80.015 Y35.161 Z-0.187 I-1.605 J1.166
X83.225 Y32.829 Z-0.218 I1.605 J-1.166
X80.015 Y35.161 Z-0.249 I-1.605 J1.166
X83.225 Y32.829 Z-0.281 I1.605 J-1.166
X80.015 Y35.161 Z-0.312 I-1.605 J1.166
X83.225 Y32.829 Z-0.343 I1.605 J-1.166
X80.015 Y35.161 Z-0.374 I-1.605 J1.166
X83.225 Y32.829 Z-0.405 I1.605 J-1.166
X80.015 Y35.161 Z-0.436 I-1.605 J1.166
X83.225 Y32.829 Z-0.468 I1.605 J-1.166
X80.015 Y35.161 Z-0.499 I-1.605 J1.166
X83.225 Y32.829 Z-0.53 I1.605 J-1.166
X80.015 Y35.161 Z-0.561 I-1.605 J1.166
X83.225 Y32.829 Z-0.592 I1.605 J-1.166
X80.015 Y35.161 Z-0.623 I-1.605 J1.166
X83.225 Y32.829 Z-0.655 I1.605 J-1.166
X80.015 Y35.161 Z-0.686 I-1.605 J1.166
X83.225 Y32.829 Z-0.717 I1.605 J-1.166
X80.015 Y35.161 Z-0.748 I-1.605 J1.166
X83.225 Y32.829 Z-0.779 I1.605 J-1.166
X80.015 Y35.161 Z-0.81 I-1.605 J1.166
X83.225 Y32.829 Z-0.842 I1.605 J-1.166
X80.015 Y35.161 Z-0.873 I-1.605 J1.166
X83.225 Y32.829 Z-0.904 I1.605 J-1.166
X80.015 Y35.161 Z-0.935 I-1.605 J1.166
X83.225 Y32.829 Z-0.966 I1.605 J-1.166
X80.015 Y35.161 Z-0.997 I-1.605 J1.166
X83.225 Y32.829 Z-1.029 I1.605 J-1.166
X80.015 Y35.161 Z-1.06 I-1.605 J1.166
X83.225 Y32.829 Z-1.091 I1.605 J-1.166
X80.015 Y35.161 Z-1.122 I-1.605 J1.166
X83.225 Y32.829 Z-1.153 I1.605 J-1.166
X80.015 Y35.161 Z-1.185 I-1.605 J1.166
X83.225 Y32.829 Z-1.216 I1.605 J-1.166
X80.015 Y35.161 Z-1.247 I-1.605 J1.166
X83.225 Y32.829 Z-1.278 I1.605 J-1.166
X80.015 Y35.161 Z-1.309 I-1.605 J1.166
X83.225 Y32.829 Z-1.34 I1.605 J-1.166
X80.015 Y35.161 Z-1.372 I-1.605 J1.166
X83.225 Y32.829 Z-1.403 I1.605 J-1.166
X80.015 Y35.161 Z-1.434 I-1.605 J1.166
X83.225 Y32.829 Z-1.465 I1.605 J-1.166
X80.015 Y35.161 Z-1.496 I-1.605 J1.166
X83.225 Y32.829 Z-1.527 I1.605 J-1.166
X80.015 Y35.161 Z-1.559 I-1.605 J1.166
X83.225 Y32.829 Z-1.59 I1.605 J-1.166
X80.015 Y35.161 Z-1.621 I-1.605 J1.166
X83.225 Y32.829 Z-1.652 I1.605 J-1.166
X80.015 Y35.161 Z-1.683 I-1.605 J1.166
X83.225 Y32.829 Z-1.714 I1.605 J-1.166
X80.015 Y35.161 Z-1.746 I-1.605 J1.166
X83.225 Y32.829 Z-1.777 I1.605 J-1.166
X80.015 Y35.161 Z-1.808 I-1.605 J1.166
X83.225 Y32.829 Z-1.839 I1.605 J-1.166
X80.015 Y35.161 Z-1.87 I-1.605 J1.166
X83.225 Y32.829 Z-1.901 I1.605 J-1.166
X80.015 Y35.161 Z-1.933 I-1.605 J1.166
X83.225 Y32.829 Z-1.964 I1.605 J-1.166
X80.015 Y35.161 Z-1.995 I-1.605 J1.166
X83.225 Y32.829 Z-2.026 I1.605 J-1.166
X80.015 Y35.161 Z-2.057 I-1.605 J1.166
X83.225 Y32.829 Z-2.088 I1.605 J-1.166
X80.015 Y35.161 Z-2.12 I-1.605 J1.166
X83.225 Y32.829 Z-2.151 I1.605 J-1.166
X80.015 Y35.161 Z-2.182 I-1.605 J1.166
X83.225 Y32.829 Z-2.213 I1.605 J-1.166
X80.015 Y35.161 Z-2.244 I-1.605 J1.166
X83.225 Y32.829 Z-2.276 I1.605 J-1.166
X80.015 Y35.161 Z-2.307 I-1.605 J1.166
X83.225 Y32.829 Z-2.338 I1.605 J-1.166
X80.015 Y35.161 Z-2.369 I-1.605 J1.166
X83.225 Y32.829 Z-2.4 I1.605 J-1.166
X80.015 Y35.161 Z-2.431 I-1.605 J1.166
X83.225 Y32.829 Z-2.463 I1.605 J-1.166
X80.015 Y35.161 Z-2.494 I-1.605 J1.166
X83.225 Y32.829 Z-2.525 I1.605 J-1.166
X80.015 Y35.161 Z-2.556 I-1.605 J1.166
X83.225 Y32.829 Z-2.587 I1.605 J-1.166
X80.015 Y35.161 Z-2.618 I-1.605 J1.166
X83.225 Y32.829 Z-2.65 I1.605 J-1.166
X80.015 Y35.161 Z-2.681 I-1.605 J1.166
X83.225 Y32.829 Z-2.712 I1.605 J-1.166
X80.015 Y35.161 Z-2.743 I-1.605 J1.166
X83.225 Y32.829 Z-2.774 I1.605 J-1.166
X80.015 Y35.161 Z-2.805 I-1.605 J1.166
X83.225 Y32.829 Z-2.837 I1.605 J-1.166
X80.015 Y35.161 Z-2.868 I-1.605 J1.166
X83.225 Y32.829 Z-2.899 I1.605 J-1.166
X80.015 Y35.161 Z-2.93 I-1.605 J1.166
X83.225 Y32.829 Z-2.961 I1.605 J-1.166
X80.015 Y35.161 Z-2.992 I-1.605 J1.166
X83.225 Y32.829 Z-3.024 I1.605 J-1.166
X80.015 Y35.161 Z-3.055 I-1.605 J1.166
X83.225 Y32.829 Z-3.086 I1.605 J-1.166
X80.015 Y35.161 Z-3.117 I-1.605 J1.166
X83.225 Y32.829 Z-3.148 I1.605 J-1.166
X80.015 Y35.161 Z-3.179 I-1.605 J1.166
X83.225 Y32.829 Z-3.211 I1.605 J-1.166
X80.015 Y35.161 Z-3.242 I-1.605 J1.166
X83.225 Y32.829 Z-3.273 I1.605 J-1.166
X80.015 Y35.161 Z-3.304 I-1.605 J1.166
X83.225 Y32.829 Z-3.335 I1.605 J-1.166
X80.015 Y35.161 Z-3.366 I-1.605 J1.166
X83.225 Y32.829 Z-3.398 I1.605 J-1.166
X80.015 Y35.161 Z-3.429 I-1.605 J1.166
X83.225 Y32.829 Z-3.46 I1.605 J-1.166
X80.015 Y35.161 Z-3.491 I-1.605 J1.166
X83.225 Y32.829 Z-3.522 I1.605 J-1.166
X80.015 Y35.161 Z-3.554 I-1.605 J1.166
X83.225 Y32.829 Z-3.585 I1.605 J-1.166
X80.015 Y35.161 Z-3.616 I-1.605 J1.166
X83.225 Y32.829 Z-3.647 I1.605 J-1.166
X80.015 Y35.161 Z-3.678 I-1.605 J1.166
X83.225 Y32.829 Z-3.709 I1.605 J-1.166
X80.015 Y35.161 Z-3.741 I-1.605 J1.166
X83.225 Y32.829 Z-3.772 I1.605 J-1.166
X80.015 Y35.161 Z-3.803 I-1.605 J1.166
X83.225 Y32.829 Z-3.834 I1.605 J-1.166
X80.015 Y35.161 Z-3.865 I-1.605 J1.166
X83.225 Y32.829 Z-3.896 I1.605 J-1.166
X80.015 Y35.161 Z-3.928 I-1.605 J1.166
X83.225 Y32.829 Z-3.959 I1.605 J-1.166
X80.015 Y35.161 Z-3.99 I-1.605 J1.166
X83.225 Y32.829 Z-4.021 I1.605 J-1.166
X80.015 Y35.161 Z-4.052 I-1.605 J1.166
X83.225 Y32.829 Z-4.083 I1.605 J-1.166
X80.015 Y35.161 Z-4.115 I-1.605 J1.166
X83.225 Y32.829 Z-4.146 I1.605 J-1.166
X80.015 Y35.161 Z-4.177 I-1.605 J1.166
X83.225 Y32.829 Z-4.208 I1.605 J-1.166
X80.015 Y35.161 Z-4.239 I-1.605 J1.166
X83.225 Y32.829 Z-4.27 I1.605 J-1.166
X80.015 Y35.161 Z-4.302 I-1.605 J1.166
X83.225 Y32.829 Z-4.333 I1.605 J-1.166
X80.015 Y35.161 Z-4.364 I-1.605 J1.166
X83.225 Y32.829 Z-4.395 I1.605 J-1.166
X80.015 Y35.161 Z-4.426 I-1.605 J1.166
X83.225 Y32.829 Z-4.457 I1.605 J-1.166
X80.015 Y35.161 Z-4.489 I-1.605 J1.166
X83.225 Y32.829 Z-4.52 I1.605 J-1.166
X80.015 Y35.161 Z-4.551 I-1.605 J1.166
X83.225 Y32.829 Z-4.582 I1.605 J-1.166
X80.015 Y35.161 Z-4.613 I-1.605 J1.166
X83.225 Y32.829 Z-4.645 I1.605 J-1.166
X79.937 Y35.047 Z-4.675 I-1.605 J1.166
X83.303 Y32.943 I1.683 J-1.052
X79.937 Y35.047 I-1.683 J1.052
X80.375 Y35.148 I0.269 J-0.168
G1 X80.509 Y35.064
X80.569 Y35.026 Z-4.667
X80.626 Y34.991 Z-4.644
X80.677 Y34.959 Z-4.606
X80.72 Y34.932 Z-4.555
X80.752 Y34.912 Z-4.495
X80.772 Y34.9 Z-4.428
X80.779 Y34.895 Z-4.358
G0 Z6.
X80.47 Y18.563
Z2.
G1 Z0.317 F800.
X80.464 Y18.568 Z0.247
X80.445 Y18.582 Z0.18
X80.414 Y18.604 Z0.12
X80.373 Y18.633 Z0.069
X80.325 Y18.669 Z0.031
X80.27 Y18.708 Z0.008
X80.213 Y18.75 Z0.
X80.085 Y18.843
G2 X80.015 Y19.286 I0.187 J0.257
X83.225 Y16.954 Z-0.031 I1.605 J-1.166
X80.015 Y19.286 Z-0.062 I-1.605 J1.166
X83.225 Y16.954 Z-0.094 I1.605 J-1.166
X80.015 Y19.286 Z-0.125 I-1.605 J1.166
X83.225 Y16.954 Z-0.156 I1.605 J-1.166
X80.015 Y19.286 Z-0.187 I-1.605 J1.166
X83.225 Y16.954 Z-0.218 I1.605 J-1.166
X80.015 Y19.286 Z-0.249 I-1.605 J1.166
X83.225 Y16.954 Z-0.281 I1.605 J-1.166
X80.015 Y19.286 Z-0.312 I-1.605 J1.166
X83.225 Y16.954 Z-0.343 I1.605 J-1.166
X80.015 Y19.286 Z-0.374 I-1.605 J1.166
X83.225 Y16.954 Z-0.405 I1.605 J-1.166
X80.015 Y19.286 Z-0.436 I-1.605 J1.166
X83.225 Y16.954 Z-0.468 I1.605 J-1.166
X80.015 Y19.286 Z-0.499 I-1.605 J1.166
X83.225 Y16.954 Z-0.53 I1.605 J-1.166
X80.015 Y19.286 Z-0.561 I-1.605 J1.166
X83.225 Y16.954 Z-0.592 I1.605 J-1.166
X80.015 Y19.286 Z-0.623 I-1.605 J1.166
X83.225 Y16.954 Z-0.655 I1.605 J-1.166
X80.015 Y19.286 Z-0.686 I-1.605 J1.166
X83.225 Y16.954 Z-0.717 I1.605 J-1.166
X80.015 Y19.286 Z-0.748 I-1.605 J1.166
X83.225 Y16.954 Z-0.779 I1.605 J-1.166
X80.015 Y19.286 Z-0.81 I-1.605 J1.166
X83.225 Y16.954 Z-0.842 I1.605 J-1.166
X80.015 Y19.286 Z-0.873 I-1.605 J1.166
X83.225 Y16.954 Z-0.904 I1.605 J-1.166
X80.015 Y19.286 Z-0.935 I-1.605 J1.166
X83.225 Y16.954 Z-0.966 I1.605 J-1.166
X80.015 Y19.286 Z-0.997 I-1.605 J1.166
X83.225 Y16.954 Z-1.029 I1.605 J-1.166
X80.015 Y19.286 Z-1.06 I-1.605 J1.166
X83.225 Y16.954 Z-1.091 I1.605 J-1.166
X80.015 Y19.286 Z-1.122 I-1.605 J1.166
X83.225 Y16.954 Z-1.153 I1.605 J-1.166
X80.015 Y19.286 Z-1.185 I-1.605 J1.166
X83.225 Y16.954 Z-1.216 I1.605 J-1.166
X80.015 Y19.286 Z-1.247 I-1.605 J1.166
X83.225 Y16.954 Z-1.278 I1.605 J-1.166
X80.015 Y19.286 Z-1.309 I-1.605 J1.166
X83.225 Y16.954 Z-1.34 I1.605 J-1.166
X80.015 Y19.286 Z-1.372 I-1.605 J1.166
X83.225 Y16.954 Z-1.403 I1.605 J-1.166
X80.015 Y19.286 Z-1.434 I-1.605 J1.166
X83.225 Y16.954 Z-1.465 I1.605 J-1.166
X80.015 Y19.286 Z-1.496 I-1.605 J1.166
X83.225 Y16.954 Z-1.527 I1.605 J-1.166
X80.015 Y19.286 Z-1.559 I-1.605 J1.166
X83.225 Y16.954 Z-1.59 I1.605 J-1.166
X80.015 Y19.286 Z-1.621 I-1.605 J1.166
X83.225 Y16.954 Z-1.652 I1.605 J-1.166
X80.015 Y19.286 Z-1.683 I-1.605 J1.166
X83.225 Y16.954 Z-1.714 I1.605 J-1.166
X80.015 Y19.286 Z-1.746 I-1.605 J1.166
X83.225 Y16.954 Z-1.777 I1.605 J-1.166
X80.015 Y19.286 Z-1.808 I-1.605 J1.166
X83.225 Y16.954 Z-1.839 I1.605 J-1.166
X80.015 Y19.286 Z-1.87 I-1.605 J1.166
X83.225 Y16.954 Z-1.901 I1.605 J-1.166
X80.015 Y19.286 Z-1.933 I-1.605 J1.166
X83.225 Y16.954 Z-1.964 I1.605 J-1.166
X80.015 Y19.286 Z-1.995 I-1.605 J1.166
X83.225 Y16.954 Z-2.026 I1.605 J-1.166
X80.015 Y19.286 Z-2.057 I-1.605 J1.166
X83.225 Y16.954 Z-2.088 I1.605 J-1.166
X80.015 Y19.286 Z-2.12 I-1.605 J1.166
X83.225 Y16.954 Z-2.151 I1.605 J-1.166
X80.015 Y19.286 Z-2.182 I-1.605 J1.166
X83.225 Y16.954 Z-2.213 I1.605 J-1.166
X80.015 Y19.286 Z-2.244 I-1.605 J1.166
X83.225 Y16.954 Z-2.276 I1.605 J-1.166
X80.015 Y19.286 Z-2.307 I-1.605 J1.166
X83.225 Y16.954 Z-2.338 I1.605 J-1.166
X80.015 Y19.286 Z-2.369 I-1.605 J1.166
X83.225 Y16.954 Z-2.4 I1.605 J-1.166
X80.015 Y19.286 Z-2.431 I-1.605 J1.166
X83.225 Y16.954 Z-2.463 I1.605 J-1.166
X80.015 Y19.286 Z-2.494 I-1.605 J1.166
X83.225 Y16.954 Z-2.525 I1.605 J-1.166
X80.015 Y19.286 Z-2.556 I-1.605 J1.166
X83.225 Y16.954 Z-2.587 I1.605 J-1.166
X80.015 Y19.286 Z-2.618 I-1.605 J1.166
X83.225 Y16.954 Z-2.65 I1.605 J-1.166
X80.015 Y19.286 Z-2.681 I-1.605 J1.166
X83.225 Y16.954 Z-2.712 I1.605 J-1.166
X80.015 Y19.286 Z-2.743 I-1.605 J1.166
X83.225 Y16.954 Z-2.774 I1.605 J-1.166
X80.015 Y19.286 Z-2.805 I-1.605 J1.166
X83.225 Y16.954 Z-2.837 I1.605 J-1.166
X80.015 Y19.286 Z-2.868 I-1.605 J1.166
X83.225 Y16.954 Z-2.899 I1.605 J-1.166
X80.015 Y19.286 Z-2.93 I-1.605 J1.166
X83.225 Y16.954 Z-2.961 I1.605 J-1.166
X80.015 Y19.286 Z-2.992 I-1.605 J1.166
X83.225 Y16.954 Z-3.024 I1.605 J-1.166
X80.015 Y19.286 Z-3.055 I-1.605 J1.166
X83.225 Y16.954 Z-3.086 I1.605 J-1.166
X80.015 Y19.286 Z-3.117 I-1.605 J1.166
X83.225 Y16.954 Z-3.148 I1.605 J-1.166
X80.015 Y19.286 Z-3.179 I-1.605 J1.166
X83.225 Y16.954 Z-3.211 I1.605 J-1.166
X80.015 Y19.286 Z-3.242 I-1.605 J1.166
X83.225 Y16.954 Z-3.273 I1.605 J-1.166
X80.015 Y19.286 Z-3.304 I-1.605 J1.166
X83.225 Y16.954 Z-3.335 I1.605 J-1.166
X80.015 Y19.286 Z-3.366 I-1.605 J1.166
X83.225 Y16.954 Z-3.398 I1.605 J-1.166
X80.015 Y19.286 Z-3.429 I-1.605 J1.166
X83.225 Y16.954 Z-3.46 I1.605 J-1.166
X80.015 Y19.286 Z-3.491 I-1.605 J1.166
X83.225 Y16.954 Z-3.522 I1.605 J-1.166
X80.015 Y19.286 Z-3.554 I-1.605 J1.166
X83.225 Y16.954 Z-3.585 I1.605 J-1.166
X80.015 Y19.286 Z-3.616 I-1.605 J1.166
X83.225 Y16.954 Z-3.647 I1.605 J-1.166
X80.015 Y19.286 Z-3.678 I-1.605 J1.166
X83.225 Y16.954 Z-3.709 I1.605 J-1.166
X80.015 Y19.286 Z-3.741 I-1.605 J1.166
X83.225 Y16.954 Z-3.772 I1.605 J-1.166
X80.015 Y19.286 Z-3.803 I-1.605 J1.166
X83.225 Y16.954 Z-3.834 I1.605 J-1.166
X80.015 Y19.286 Z-3.865 I-1.605 J1.166
X83.225 Y16.954 Z-3.896 I1.605 J-1.166
X80.015 Y19.286 Z-3.928 I-1.605 J1.166
X83.225 Y16.954 Z-3.959 I1.605 J-1.166
X80.015 Y19.286 Z-3.99 I-1.605 J1.166
X83.225 Y16.954 Z-4.021 I1.605 J-1.166
X80.015 Y19.286 Z-4.052 I-1.605 J1.166
X83.225 Y16.954 Z-4.083 I1.605 J-1.166
X80.015 Y19.286 Z-4.115 I-1.605 J1.166
X83.225 Y16.954 Z-4.146 I1.605 J-1.166
X80.015 Y19.286 Z-4.177 I-1.605 J1.166
X83.225 Y16.954 Z-4.208 I1.605 J-1.166
X80.015 Y19.286 Z-4.239 I-1.605 J1.166
X83.225 Y16.954 Z-4.27 I1.605 J-1.166
X80.015 Y19.286 Z-4.302 I-1.605 J1.166
X83.225 Y16.954 Z-4.333 I1.605 J-1.166
X80.015 Y19.286 Z-4.364 I-1.605 J1.166
X83.225 Y16.954 Z-4.395 I1.605 J-1.166
X80.015 Y19.286 Z-4.426 I-1.605 J1.166
X83.225 Y16.954 Z-4.457 I1.605 J-1.166
X80.015 Y19.286 Z-4.489 I-1.605 J1.166
X83.225 Y16.954 Z-4.52 I1.605 J-1.166
X80.015 Y19.286 Z-4.551 I-1.605 J1.166
X83.225 Y16.954 Z-4.582 I1.605 J-1.166
X80.015 Y19.286 Z-4.613 I-1.605 J1.166
X83.225 Y16.954 Z-4.645 I1.605 J-1.166
X79.937 Y19.172 Z-4.675 I-1.605 J1.166
X83.303 Y17.068 I1.683 J-1.052
X79.937 Y19.172 I-1.683 J1.052
X80.375 Y19.273 I0.269 J-0.168
G1 X80.509 Y19.189
X80.569 Y19.151 Z-4.667
X80.626 Y19.116 Z-4.644
X80.677 Y19.084 Z-4.606
X80.72 Y19.057 Z-4.555
X80.752 Y19.037 Z-4.495
X80.772 Y19.025 Z-4.428
X80.779 Y19.02 Z-4.358
G0 Z6.
X55.07 Y18.563
Z2.
G1 Z0.317 F800.
X55.064 Y18.568 Z0.247
X55.045 Y18.582 Z0.18
X55.014 Y18.604 Z0.12
X54.973 Y18.633 Z0.069
X54.925 Y18.669 Z0.031
X54.871 Y18.708 Z0.008
X54.813 Y18.75 Z0.
X54.685 Y18.843
G2 X54.615 Y19.286 I0.187 J0.257
X57.825 Y16.954 Z-0.031 I1.605 J-1.166
X54.615 Y19.286 Z-0.062 I-1.605 J1.166
X57.825 Y16.954 Z-0.094 I1.605 J-1.166
X54.615 Y19.286 Z-0.125 I-1.605 J1.166
X57.825 Y16.954 Z-0.156 I1.605 J-1.166
X54.615 Y19.286 Z-0.187 I-1.605 J1.166
X57.825 Y16.954 Z-0.218 I1.605 J-1.166
X54.615 Y19.286 Z-0.249 I-1.605 J1.166
X57.825 Y16.954 Z-0.281 I1.605 J-1.166
X54.615 Y19.286 Z-0.312 I-1.605 J1.166
X57.825 Y16.954 Z-0.343 I1.605 J-1.166
X54.615 Y19.286 Z-0.374 I-1.605 J1.166
X57.825 Y16.954 Z-0.405 I1.605 J-1.166
X54.615 Y19.286 Z-0.436 I-1.605 J1.166
X57.825 Y16.954 Z-0.468 I1.605 J-1.166
X54.615 Y19.286 Z-0.499 I-1.605 J1.166
X57.825 Y16.954 Z-0.53 I1.605 J-1.166
X54.615 Y19.286 Z-0.561 I-1.605 J1.166
X57.825 Y16.954 Z-0.592 I1.605 J-1.166
X54.615 Y19.286 Z-0.623 I-1.605 J1.166
X57.825 Y16.954 Z-0.655 I1.605 J-1.166
X54.615 Y19.286 Z-0.686 I-1.605 J1.166
X57.825 Y16.954 Z-0.717 I1.605 J-1.166
X54.615 Y19.286 Z-0.748 I-1.605 J1.166
X57.825 Y16.954 Z-0.779 I1.605 J-1.166
X54.615 Y19.286 Z-0.81 I-1.605 J1.166
X57.825 Y16.954 Z-0.842 I1.605 J-1.166
X54.615 Y19.286 Z-0.873 I-1.605 J1.166
X57.825 Y16.954 Z-0.904 I1.605 J-1.166
X54.615 Y19.286 Z-0.935 I-1.605 J1.166
X57.825 Y16.954 Z-0.966 I1.605 J-1.166
X54.615 Y19.286 Z-0.997 I-1.605 J1.166
X57.825 Y16.954 Z-1.029 I1.605 J-1.166
X54.615 Y19.286 Z-1.06 I-1.605 J1.166
X57.825 Y16.954 Z-1.091 I1.605 J-1.166
X54.615 Y19.286 Z-1.122 I-1.605 J1.166
X57.825 Y16.954 Z-1.153 I1.605 J-1.166
X54.615 Y19.286 Z-1.185 I-1.605 J1.166
X57.825 Y16.954 Z-1.216 I1.605 J-1.166
X54.615 Y19.286 Z-1.247 I-1.605 J1.166
X57.825 Y16.954 Z-1.278 I1.605 J-1.166
X54.615 Y19.286 Z-1.309 I-1.605 J1.166
X57.825 Y16.954 Z-1.34 I1.605 J-1.166
X54.615 Y19.286 Z-1.372 I-1.605 J1.166
X57.825 Y16.954 Z-1.403 I1.605 J-1.166
X54.615 Y19.286 Z-1.434 I-1.605 J1.166
X57.825 Y16.954 Z-1.465 I1.605 J-1.166
X54.615 Y19.286 Z-1.496 I-1.605 J1.166
X57.825 Y16.954 Z-1.527 I1.605 J-1.166
X54.615 Y19.286 Z-1.559 I-1.605 J1.166
X57.825 Y16.954 Z-1.59 I1.605 J-1.166
X54.615 Y19.286 Z-1.621 I-1.605 J1.166
X57.825 Y16.954 Z-1.652 I1.605 J-1.166
X54.615 Y19.286 Z-1.683 I-1.605 J1.166
X57.825 Y16.954 Z-1.714 I1.605 J-1.166
X54.615 Y19.286 Z-1.746 I-1.605 J1.166
X57.825 Y16.954 Z-1.777 I1.605 J-1.166
X54.615 Y19.286 Z-1.808 I-1.605 J1.166
X57.825 Y16.954 Z-1.839 I1.605 J-1.166
X54.615 Y19.286 Z-1.87 I-1.605 J1.166
X57.825 Y16.954 Z-1.901 I1.605 J-1.166
X54.615 Y19.286 Z-1.933 I-1.605 J1.166
X57.825 Y16.954 Z-1.964 I1.605 J-1.166
X54.615 Y19.286 Z-1.995 I-1.605 J1.166
X57.825 Y16.954 Z-2.026 I1.605 J-1.166
X54.615 Y19.286 Z-2.057 I-1.605 J1.166
X57.825 Y16.954 Z-2.088 I1.605 J-1.166
X54.615 Y19.286 Z-2.12 I-1.605 J1.166
X57.825 Y16.954 Z-2.151 I1.605 J-1.166
X54.615 Y19.286 Z-2.182 I-1.605 J1.166
X57.825 Y16.954 Z-2.213 I1.605 J-1.166
X54.615 Y19.286 Z-2.244 I-1.605 J1.166
X57.825 Y16.954 Z-2.276 I1.605 J-1.166
X54.615 Y19.286 Z-2.307 I-1.605 J1.166
X57.825 Y16.954 Z-2.338 I1.605 J-1.166
X54.615 Y19.286 Z-2.369 I-1.605 J1.166
X57.825 Y16.954 Z-2.4 I1.605 J-1.166
X54.615 Y19.286 Z-2.431 I-1.605 J1.166
X57.825 Y16.954 Z-2.463 I1.605 J-1.166
X54.615 Y19.286 Z-2.494 I-1.605 J1.166
X57.825 Y16.954 Z-2.525 I1.605 J-1.166
X54.615 Y19.286 Z-2.556 I-1.605 J1.166
X57.825 Y16.954 Z-2.587 I1.605 J-1.166
X54.615 Y19.286 Z-2.618 I-1.605 J1.166
X57.825 Y16.954 Z-2.65 I1.605 J-1.166
X54.615 Y19.286 Z-2.681 I-1.605 J1.166
X57.825 Y16.954 Z-2.712 I1.605 J-1.166
X54.615 Y19.286 Z-2.743 I-1.605 J1.166
X57.825 Y16.954 Z-2.774 I1.605 J-1.166
X54.615 Y19.286 Z-2.805 I-1.605 J1.166
X57.825 Y16.954 Z-2.837 I1.605 J-1.166
X54.615 Y19.286 Z-2.868 I-1.605 J1.166
X57.825 Y16.954 Z-2.899 I1.605 J-1.166
X54.615 Y19.286 Z-2.93 I-1.605 J1.166
X57.825 Y16.954 Z-2.961 I1.605 J-1.166
X54.615 Y19.286 Z-2.992 I-1.605 J1.166
X57.825 Y16.954 Z-3.024 I1.605 J-1.166
X54.615 Y19.286 Z-3.055 I-1.605 J1.166
X57.825 Y16.954 Z-3.086 I1.605 J-1.166
X54.615 Y19.286 Z-3.117 I-1.605 J1.166
X57.825 Y16.954 Z-3.148 I1.605 J-1.166
X54.615 Y19.286 Z-3.179 I-1.605 J1.166
X57.825 Y16.954 Z-3.211 I1.605 J-1.166
X54.615 Y19.286 Z-3.242 I-1.605 J1.166
X57.825 Y16.954 Z-3.273 I1.605 J-1.166
X54.615 Y19.286 Z-3.304 I-1.605 J1.166
X57.825 Y16.954 Z-3.335 I1.605 J-1.166
X54.615 Y19.286 Z-3.366 I-1.605 J1.166
X57.825 Y16.954 Z-3.398 I1.605 J-1.166
X54.615 Y19.286 Z-3.429 I-1.605 J1.166
X57.825 Y16.954 Z-3.46 I1.605 J-1.166
X54.615 Y19.286 Z-3.491 I-1.605 J1.166
X57.825 Y16.954 Z-3.522 I1.605 J-1.166
X54.615 Y19.286 Z-3.554 I-1.605 J1.166
X57.825 Y16.954 Z-3.585 I1.605 J-1.166
X54.615 Y19.286 Z-3.616 I-1.605 J1.166
X57.825 Y16.954 Z-3.647 I1.605 J-1.166
X54.615 Y19.286 Z-3.678 I-1.605 J1.166
X57.825 Y16.954 Z-3.709 I1.605 J-1.166
X54.615 Y19.286 Z-3.741 I-1.605 J1.166
X57.825 Y16.954 Z-3.772 I1.605 J-1.166
X54.615 Y19.286 Z-3.803 I-1.605 J1.166
X57.825 Y16.954 Z-3.834 I1.605 J-1.166
X54.615 Y19.286 Z-3.865 I-1.605 J1.166
X57.825 Y16.954 Z-3.896 I1.605 J-1.166
X54.615 Y19.286 Z-3.928 I-1.605 J1.166
X57.825 Y16.954 Z-3.959 I1.605 J-1.166
X54.615 Y19.286 Z-3.99 I-1.605 J1.166
X57.825 Y16.954 Z-4.021 I1.605 J-1.166
X54.615 Y19.286 Z-4.052 I-1.605 J1.166
X57.825 Y16.954 Z-4.083 I1.605 J-1.166
X54.615 Y19.286 Z-4.115 I-1.605 J1.166
X57.825 Y16.954 Z-4.146 I1.605 J-1.166
X54.615 Y19.286 Z-4.177 I-1.605 J1.166
X57.825 Y16.954 Z-4.208 I1.605 J-1.166
X54.615 Y19.286 Z-4.239 I-1.605 J1.166
X57.825 Y16.954 Z-4.27 I1.605 J-1.166
X54.615 Y19.286 Z-4.302 I-1.605 J1.166
X57.825 Y16.954 Z-4.333 I1.605 J-1.166
X54.615 Y19.286 Z-4.364 I-1.605 J1.166
X57.825 Y16.954 Z-4.395 I1.605 J-1.166
X54.615 Y19.286 Z-4.426 I-1.605 J1.166
X57.825 Y16.954 Z-4.457 I1.605 J-1.166
X54.615 Y19.286 Z-4.489 I-1.605 J1.166
X57.825 Y16.954 Z-4.52 I1.605 J-1.166
X54.615 Y19.286 Z-4.551 I-1.605 J1.166
X57.825 Y16.954 Z-4.582 I1.605 J-1.166
X54.615 Y19.286 Z-4.613 I-1.605 J1.166
X57.825 Y16.954 Z-4.645 I1.605 J-1.166
X54.537 Y19.172 Z-4.675 I-1.605 J1.166
X57.903 Y17.068 I1.683 J-1.052
X54.537 Y19.172 I-1.683 J1.052
X54.975 Y19.273 I0.269 J-0.168
G1 X55.109 Y19.189
X55.169 Y19.151 Z-4.667
X55.226 Y19.116 Z-4.644
X55.277 Y19.084 Z-4.606
X55.32 Y19.057 Z-4.555
X55.352 Y19.037 Z-4.495
X55.372 Y19.025 Z-4.428
X55.379 Y19.02 Z-4.358
G0 Z6.
X55.07 Y34.438
Z2.
G1 Z0.317 F800.
X55.064 Y34.443 Z0.247
X55.045 Y34.457 Z0.18
X55.014 Y34.479 Z0.12
X54.973 Y34.508 Z0.069
X54.925 Y34.544 Z0.031
X54.871 Y34.583 Z0.008
X54.813 Y34.625 Z0.
X54.685 Y34.718
G2 X54.615 Y35.161 I0.187 J0.257
X57.825 Y32.829 Z-0.031 I1.605 J-1.166
X54.615 Y35.161 Z-0.062 I-1.605 J1.166
X57.825 Y32.829 Z-0.094 I1.605 J-1.166
X54.615 Y35.161 Z-0.125 I-1.605 J1.166
X57.825 Y32.829 Z-0.156 I1.605 J-1.166
X54.615 Y35.161 Z-0.187 I-1.605 J1.166
X57.825 Y32.829 Z-0.218 I1.605 J-1.166
X54.615 Y35.161 Z-0.249 I-1.605 J1.166
X57.825 Y32.829 Z-0.281 I1.605 J-1.166
X54.615 Y35.161 Z-0.312 I-1.605 J1.166
X57.825 Y32.829 Z-0.343 I1.605 J-1.166
X54.615 Y35.161 Z-0.374 I-1.605 J1.166
X57.825 Y32.829 Z-0.405 I1.605 J-1.166
X54.615 Y35.161 Z-0.436 I-1.605 J1.166
X57.825 Y32.829 Z-0.468 I1.605 J-1.166
X54.615 Y35.161 Z-0.499 I-1.605 J1.166
X57.825 Y32.829 Z-0.53 I1.605 J-1.166
X54.615 Y35.161 Z-0.561 I-1.605 J1.166
X57.825 Y32.829 Z-0.592 I1.605 J-1.166
X54.615 Y35.161 Z-0.623 I-1.605 J1.166
X57.825 Y32.829 Z-0.655 I1.605 J-1.166
X54.615 Y35.161 Z-0.686 I-1.605 J1.166
X57.825 Y32.829 Z-0.717 I1.605 J-1.166
X54.615 Y35.161 Z-0.748 I-1.605 J1.166
X57.825 Y32.829 Z-0.779 I1.605 J-1.166
X54.615 Y35.161 Z-0.81 I-1.605 J1.166
X57.825 Y32.829 Z-0.842 I1.605 J-1.166
X54.615 Y35.161 Z-0.873 I-1.605 J1.166
X57.825 Y32.829 Z-0.904 I1.605 J-1.166
X54.615 Y35.161 Z-0.935 I-1.605 J1.166
X57.825 Y32.829 Z-0.966 I1.605 J-1.166
X54.615 Y35.161 Z-0.997 I-1.605 J1.166
X57.825 Y32.829 Z-1.029 I1.605 J-1.166
X54.615 Y35.161 Z-1.06 I-1.605 J1.166
X57.825 Y32.829 Z-1.091 I1.605 J-1.166
X54.615 Y35.161 Z-1.122 I-1.605 J1.166
X57.825 Y32.829 Z-1.153 I1.605 J-1.166
X54.615 Y35.161 Z-1.185 I-1.605 J1.166
X57.825 Y32.829 Z-1.216 I1.605 J-1.166
X54.615 Y35.161 Z-1.247 I-1.605 J1.166
X57.825 Y32.829 Z-1.278 I1.605 J-1.166
X54.615 Y35.161 Z-1.309 I-1.605 J1.166
X57.825 Y32.829 Z-1.34 I1.605 J-1.166
X54.615 Y35.161 Z-1.372 I-1.605 J1.166
X57.825 Y32.829 Z-1.403 I1.605 J-1.166
X54.615 Y35.161 Z-1.434 I-1.605 J1.166
X57.825 Y32.829 Z-1.465 I1.605 J-1.166
X54.615 Y35.161 Z-1.496 I-1.605 J1.166
X57.825 Y32.829 Z-1.527 I1.605 J-1.166
X54.615 Y35.161 Z-1.559 I-1.605 J1.166
X57.825 Y32.829 Z-1.59 I1.605 J-1.166
X54.615 Y35.161 Z-1.621 I-1.605 J1.166
X57.825 Y32.829 Z-1.652 I1.605 J-1.166
X54.615 Y35.161 Z-1.683 I-1.605 J1.166
X57.825 Y32.829 Z-1.714 I1.605 J-1.166
X54.615 Y35.161 Z-1.746 I-1.605 J1.166
X57.825 Y32.829 Z-1.777 I1.605 J-1.166
X54.615 Y35.161 Z-1.808 I-1.605 J1.166
X57.825 Y32.829 Z-1.839 I1.605 J-1.166
X54.615 Y35.161 Z-1.87 I-1.605 J1.166
X57.825 Y32.829 Z-1.901 I1.605 J-1.166
X54.615 Y35.161 Z-1.933 I-1.605 J1.166
X57.825 Y32.829 Z-1.964 I1.605 J-1.166
X54.615 Y35.161 Z-1.995 I-1.605 J1.166
X57.825 Y32.829 Z-2.026 I1.605 J-1.166
X54.615 Y35.161 Z-2.057 I-1.605 J1.166
X57.825 Y32.829 Z-2.088 I1.605 J-1.166
X54.615 Y35.161 Z-2.12 I-1.605 J1.166
X57.825 Y32.829 Z-2.151 I1.605 J-1.166
X54.615 Y35.161 Z-2.182 I-1.605 J1.166
X57.825 Y32.829 Z-2.213 I1.605 J-1.166
X54.615 Y35.161 Z-2.244 I-1.605 J1.166
X57.825 Y32.829 Z-2.276 I1.605 J-1.166
X54.615 Y35.161 Z-2.307 I-1.605 J1.166
X57.825 Y32.829 Z-2.338 I1.605 J-1.166
X54.615 Y35.161 Z-2.369 I-1.605 J1.166
X57.825 Y32.829 Z-2.4 I1.605 J-1.166
X54.615 Y35.161 Z-2.431 I-1.605 J1.166
X57.825 Y32.829 Z-2.463 I1.605 J-1.166
X54.615 Y35.161 Z-2.494 I-1.605 J1.166
X57.825 Y32.829 Z-2.525 I1.605 J-1.166
X54.615 Y35.161 Z-2.556 I-1.605 J1.166
X57.825 Y32.829 Z-2.587 I1.605 J-1.166
X54.615 Y35.161 Z-2.618 I-1.605 J1.166
X57.825 Y32.829 Z-2.65 I1.605 J-1.166
X54.615 Y35.161 Z-2.681 I-1.605 J1.166
X57.825 Y32.829 Z-2.712 I1.605 J-1.166
X54.615 Y35.161 Z-2.743 I-1.605 J1.166
X57.825 Y32.829 Z-2.774 I1.605 J-1.166
X54.615 Y35.161 Z-2.805 I-1.605 J1.166
X57.825 Y32.829 Z-2.837 I1.605 J-1.166
X54.615 Y35.161 Z-2.868 I-1.605 J1.166
X57.825 Y32.829 Z-2.899 I1.605 J-1.166
X54.615 Y35.161 Z-2.93 I-1.605 J1.166
X57.825 Y32.829 Z-2.961 I1.605 J-1.166
X54.615 Y35.161 Z-2.992 I-1.605 J1.166
X57.825 Y32.829 Z-3.024 I1.605 J-1.166
X54.615 Y35.161 Z-3.055 I-1.605 J1.166
X57.825 Y32.829 Z-3.086 I1.605 J-1.166
X54.615 Y35.161 Z-3.117 I-1.605 J1.166
X57.825 Y32.829 Z-3.148 I1.605 J-1.166
X54.615 Y35.161 Z-3.179 I-1.605 J1.166
X57.825 Y32.829 Z-3.211 I1.605 J-1.166
X54.615 Y35.161 Z-3.242 I-1.605 J1.166
X57.825 Y32.829 Z-3.273 I1.605 J-1.166
X54.615 Y35.161 Z-3.304 I-1.605 J1.166
X57.825 Y32.829 Z-3.335 I1.605 J-1.166
X54.615 Y35.161 Z-3.366 I-1.605 J1.166
X57.825 Y32.829 Z-3.398 I1.605 J-1.166
X54.615 Y35.161 Z-3.429 I-1.605 J1.166
X57.825 Y32.829 Z-3.46 I1.605 J-1.166
X54.615 Y35.161 Z-3.491 I-1.605 J1.166
X57.825 Y32.829 Z-3.522 I1.605 J-1.166
X54.615 Y35.161 Z-3.554 I-1.605 J1.166
X57.825 Y32.829 Z-3.585 I1.605 J-1.166
X54.615 Y35.161 Z-3.616 I-1.605 J1.166
X57.825 Y32.829 Z-3.647 I1.605 J-1.166
X54.615 Y35.161 Z-3.678 I-1.605 J1.166
X57.825 Y32.829 Z-3.709 I1.605 J-1.166
X54.615 Y35.161 Z-3.741 I-1.605 J1.166
X57.825 Y32.829 Z-3.772 I1.605 J-1.166
X54.615 Y35.161 Z-3.803 I-1.605 J1.166
X57.825 Y32.829 Z-3.834 I1.605 J-1.166
X54.615 Y35.161 Z-3.865 I-1.605 J1.166
X57.825 Y32.829 Z-3.896 I1.605 J-1.166
X54.615 Y35.161 Z-3.928 I-1.605 J1.166
X57.825 Y32.829 Z-3.959 I1.605 J-1.166
X54.615 Y35.161 Z-3.99 I-1.605 J1.166
X57.825 Y32.829 Z-4.021 I1.605 J-1.166
X54.615 Y35.161 Z-4.052 I-1.605 J1.166
X57.825 Y32.829 Z-4.083 I1.605 J-1.166
X54.615 Y35.161 Z-4.115 I-1.605 J1.166
X57.825 Y32.829 Z-4.146 I1.605 J-1.166
X54.615 Y35.161 Z-4.177 I-1.605 J1.166
X57.825 Y32.829 Z-4.208 I1.605 J-1.166
X54.615 Y35.161 Z-4.239 I-1.605 J1.166
X57.825 Y32.829 Z-4.27 I1.605 J-1.166
X54.615 Y35.161 Z-4.302 I-1.605 J1.166
X57.825 Y32.829 Z-4.333 I1.605 J-1.166
X54.615 Y35.161 Z-4.364 I-1.605 J1.166
X57.825 Y32.829 Z-4.395 I1.605 J-1.166
X54.615 Y35.161 Z-4.426 I-1.605 J1.166
X57.825 Y32.829 Z-4.457 I1.605 J-1.166
X54.615 Y35.161 Z-4.489 I-1.605 J1.166
X57.825 Y32.829 Z-4.52 I1.605 J-1.166
X54.615 Y35.161 Z-4.551 I-1.605 J1.166
X57.825 Y32.829 Z-4.582 I1.605 J-1.166
X54.615 Y35.161 Z-4.613 I-1.605 J1.166
X57.825 Y32.829 Z-4.645 I1.605 J-1.166
X54.537 Y35.047 Z-4.675 I-1.605 J1.166
X57.903 Y32.943 I1.683 J-1.052
X54.537 Y35.047 I-1.683 J1.052
X54.975 Y35.148 I0.269 J-0.168
G1 X55.109 Y35.064
X55.169 Y35.026 Z-4.667
X55.226 Y34.991 Z-4.644
X55.277 Y34.959 Z-4.606
X55.32 Y34.932 Z-4.555
X55.352 Y34.912 Z-4.495
X55.372 Y34.9 Z-4.428
X55.379 Y34.895 Z-4.358
G0 Z6.
X29.67 Y34.438
Z2.
G1 Z0.317 F800.
X29.664 Y34.443 Z0.247
X29.645 Y34.457 Z0.18
X29.614 Y34.479 Z0.12
X29.573 Y34.508 Z0.069
X29.525 Y34.544 Z0.031
X29.471 Y34.583 Z0.008
X29.413 Y34.625 Z0.
X29.285 Y34.718
G2 X29.215 Y35.161 I0.187 J0.257
X32.425 Y32.829 Z-0.031 I1.605 J-1.166
X29.215 Y35.161 Z-0.062 I-1.605 J1.166
X32.425 Y32.829 Z-0.094 I1.605 J-1.166
X29.215 Y35.161 Z-0.125 I-1.605 J1.166
X32.425 Y32.829 Z-0.156 I1.605 J-1.166
X29.215 Y35.161 Z-0.187 I-1.605 J1.166
X32.425 Y32.829 Z-0.218 I1.605 J-1.166
X29.215 Y35.161 Z-0.249 I-1.605 J1.166
X32.425 Y32.829 Z-0.281 I1.605 J-1.166
X29.215 Y35.161 Z-0.312 I-1.605 J1.166
X32.425 Y32.829 Z-0.343 I1.605 J-1.166
X29.215 Y35.161 Z-0.374 I-1.605 J1.166
X32.425 Y32.829 Z-0.405 I1.605 J-1.166
X29.215 Y35.161 Z-0.436 I-1.605 J1.166
X32.425 Y32.829 Z-0.468 I1.605 J-1.166
X29.215 Y35.161 Z-0.499 I-1.605 J1.166
X32.425 Y32.829 Z-0.53 I1.605 J-1.166
X29.215 Y35.161 Z-0.561 I-1.605 J1.166
X32.425 Y32.829 Z-0.592 I1.605 J-1.166
X29.215 Y35.161 Z-0.623 I-1.605 J1.166
X32.425 Y32.829 Z-0.655 I1.605 J-1.166
X29.215 Y35.161 Z-0.686 I-1.605 J1.166
X32.425 Y32.829 Z-0.717 I1.605 J-1.166
X29.215 Y35.161 Z-0.748 I-1.605 J1.166
X32.425 Y32.829 Z-0.779 I1.605 J-1.166
X29.215 Y35.161 Z-0.81 I-1.605 J1.166
X32.425 Y32.829 Z-0.842 I1.605 J-1.166
X29.215 Y35.161 Z-0.873 I-1.605 J1.166
X32.425 Y32.829 Z-0.904 I1.605 J-1.166
X29.215 Y35.161 Z-0.935 I-1.605 J1.166
X32.425 Y32.829 Z-0.966 I1.605 J-1.166
X29.215 Y35.161 Z-0.997 I-1.605 J1.166
X32.425 Y32.829 Z-1.029 I1.605 J-1.166
X29.215 Y35.161 Z-1.06 I-1.605 J1.166
X32.425 Y32.829 Z-1.091 I1.605 J-1.166
X29.215 Y35.161 Z-1.122 I-1.605 J1.166
X32.425 Y32.829 Z-1.153 I1.605 J-1.166
X29.215 Y35.161 Z-1.185 I-1.605 J1.166
X32.425 Y32.829 Z-1.216 I1.605 J-1.166
X29.215 Y35.161 Z-1.247 I-1.605 J1.166
X32.425 Y32.829 Z-1.278 I1.605 J-1.166
X29.215 Y35.161 Z-1.309 I-1.605 J1.166
X32.425 Y32.829 Z-1.34 I1.605 J-1.166
X29.215 Y35.161 Z-1.372 I-1.605 J1.166
X32.425 Y32.829 Z-1.403 I1.605 J-1.166
X29.215 Y35.161 Z-1.434 I-1.605 J1.166
X32.425 Y32.829 Z-1.465 I1.605 J-1.166
X29.215 Y35.161 Z-1.496 I-1.605 J1.166
X32.425 Y32.829 Z-1.527 I1.605 J-1.166
X29.215 Y35.161 Z-1.559 I-1.605 J1.166
X32.425 Y32.829 Z-1.59 I1.605 J-1.166
X29.215 Y35.161 Z-1.621 I-1.605 J1.166
X32.425 Y32.829 Z-1.652 I1.605 J-1.166
X29.215 Y35.161 Z-1.683 I-1.605 J1.166
X32.425 Y32.829 Z-1.714 I1.605 J-1.166
X29.215 Y35.161 Z-1.746 I-1.605 J1.166
X32.425 Y32.829 Z-1.777 I1.605 J-1.166
X29.215 Y35.161 Z-1.808 I-1.605 J1.166
X32.425 Y32.829 Z-1.839 I1.605 J-1.166
X29.215 Y35.161 Z-1.87 I-1.605 J1.166
X32.425 Y32.829 Z-1.901 I1.605 J-1.166
X29.215 Y35.161 Z-1.933 I-1.605 J1.166
X32.425 Y32.829 Z-1.964 I1.605 J-1.166
X29.215 Y35.161 Z-1.995 I-1.605 J1.166
X32.425 Y32.829 Z-2.026 I1.605 J-1.166
X29.215 Y35.161 Z-2.057 I-1.605 J1.166
X32.425 Y32.829 Z-2.088 I1.605 J-1.166
X29.215 Y35.161 Z-2.12 I-1.605 J1.166
X32.425 Y32.829 Z-2.151 I1.605 J-1.166
X29.215 Y35.161 Z-2.182 I-1.605 J1.166
X32.425 Y32.829 Z-2.213 I1.605 J-1.166
X29.215 Y35.161 Z-2.244 I-1.605 J1.166
X32.425 Y32.829 Z-2.276 I1.605 J-1.166
X29.215 Y35.161 Z-2.307 I-1.605 J1.166
X32.425 Y32.829 Z-2.338 I1.605 J-1.166
X29.215 Y35.161 Z-2.369 I-1.605 J1.166
X32.425 Y32.829 Z-2.4 I1.605 J-1.166
X29.215 Y35.161 Z-2.431 I-1.605 J1.166
X32.425 Y32.829 Z-2.463 I1.605 J-1.166
X29.215 Y35.161 Z-2.494 I-1.605 J1.166
X32.425 Y32.829 Z-2.525 I1.605 J-1.166
X29.215 Y35.161 Z-2.556 I-1.605 J1.166
X32.425 Y32.829 Z-2.587 I1.605 J-1.166
X29.215 Y35.161 Z-2.618 I-1.605 J1.166
X32.425 Y32.829 Z-2.65 I1.605 J-1.166
X29.215 Y35.161 Z-2.681 I-1.605 J1.166
X32.425 Y32.829 Z-2.712 I1.605 J-1.166
X29.215 Y35.161 Z-2.743 I-1.605 J1.166
X32.425 Y32.829 Z-2.774 I1.605 J-1.166
X29.215 Y35.161 Z-2.805 I-1.605 J1.166
X32.425 Y32.829 Z-2.837 I1.605 J-1.166
X29.215 Y35.161 Z-2.868 I-1.605 J1.166
X32.425 Y32.829 Z-2.899 I1.605 J-1.166
X29.215 Y35.161 Z-2.93 I-1.605 J1.166
X32.425 Y32.829 Z-2.961 I1.605 J-1.166
X29.215 Y35.161 Z-2.992 I-1.605 J1.166
X32.425 Y32.829 Z-3.024 I1.605 J-1.166
X29.215 Y35.161 Z-3.055 I-1.605 J1.166
X32.425 Y32.829 Z-3.086 I1.605 J-1.166
X29.215 Y35.161 Z-3.117 I-1.605 J1.166
X32.425 Y32.829 Z-3.148 I1.605 J-1.166
X29.215 Y35.161 Z-3.179 I-1.605 J1.166
X32.425 Y32.829 Z-3.211 I1.605 J-1.166
X29.215 Y35.161 Z-3.242 I-1.605 J1.166
X32.425 Y32.829 Z-3.273 I1.605 J-1.166
X29.215 Y35.161 Z-3.304 I-1.605 J1.166
X32.425 Y32.829 Z-3.335 I1.605 J-1.166
X29.215 Y35.161 Z-3.366 I-1.605 J1.166
X32.425 Y32.829 Z-3.398 I1.605 J-1.166
X29.215 Y35.161 Z-3.429 I-1.605 J1.166
X32.425 Y32.829 Z-3.46 I1.605 J-1.166
X29.215 Y35.161 Z-3.491 I-1.605 J1.166
X32.425 Y32.829 Z-3.522 I1.605 J-1.166
X29.215 Y35.161 Z-3.554 I-1.605 J1.166
X32.425 Y32.829 Z-3.585 I1.605 J-1.166
X29.215 Y35.161 Z-3.616 I-1.605 J1.166
X32.425 Y32.829 Z-3.647 I1.605 J-1.166
X29.215 Y35.161 Z-3.678 I-1.605 J1.166
X32.425 Y32.829 Z-3.709 I1.605 J-1.166
X29.215 Y35.161 Z-3.741 I-1.605 J1.166
X32.425 Y32.829 Z-3.772 I1.605 J-1.166
X29.215 Y35.161 Z-3.803 I-1.605 J1.166
X32.425 Y32.829 Z-3.834 I1.605 J-1.166
X29.215 Y35.161 Z-3.865 I-1.605 J1.166
X32.425 Y32.829 Z-3.896 I1.605 J-1.166
X29.215 Y35.161 Z-3.928 I-1.605 J1.166
X32.425 Y32.829 Z-3.959 I1.605 J-1.166
X29.215 Y35.161 Z-3.99 I-1.605 J1.166
X32.425 Y32.829 Z-4.021 I1.605 J-1.166
X29.215 Y35.161 Z-4.052 I-1.605 J1.166
X32.425 Y32.829 Z-4.083 I1.605 J-1.166
X29.215 Y35.161 Z-4.115 I-1.605 J1.166
X32.425 Y32.829 Z-4.146 I1.605 J-1.166
X29.215 Y35.161 Z-4.177 I-1.605 J1.166
X32.425 Y32.829 Z-4.208 I1.605 J-1.166
X29.215 Y35.161 Z-4.239 I-1.605 J1.166
X32.425 Y32.829 Z-4.27 I1.605 J-1.166
X29.215 Y35.161 Z-4.302 I-1.605 J1.166
X32.425 Y32.829 Z-4.333 I1.605 J-1.166
X29.215 Y35.161 Z-4.364 I-1.605 J1.166
X32.425 Y32.829 Z-4.395 I1.605 J-1.166
X29.215 Y35.161 Z-4.426 I-1.605 J1.166
X32.425 Y32.829 Z-4.457 I1.605 J-1.166
X29.215 Y35.161 Z-4.489 I-1.605 J1.166
X32.425 Y32.829 Z-4.52 I1.605 J-1.166
X29.215 Y35.161 Z-4.551 I-1.605 J1.166
X32.425 Y32.829 Z-4.582 I1.605 J-1.166
X29.215 Y35.161 Z-4.613 I-1.605 J1.166
X32.425 Y32.829 Z-4.645 I1.605 J-1.166
X29.137 Y35.047 Z-4.675 I-1.605 J1.166
X32.503 Y32.943 I1.683 J-1.052
X29.137 Y35.047 I-1.683 J1.052
X29.575 Y35.148 I0.269 J-0.168
G1 X29.709 Y35.064
X29.769 Y35.026 Z-4.667
X29.826 Y34.991 Z-4.644
X29.877 Y34.959 Z-4.606
X29.92 Y34.932 Z-4.555
X29.952 Y34.912 Z-4.495
X29.972 Y34.9 Z-4.428
X29.979 Y34.895 Z-4.358
G0 Z6.
X29.67 Y18.563
Z2.
G1 Z0.317 F800.
X29.664 Y18.568 Z0.247
X29.645 Y18.582 Z0.18
X29.614 Y18.604 Z0.12
X29.573 Y18.633 Z0.069
X29.525 Y18.669 Z0.031
X29.471 Y18.708 Z0.008
X29.413 Y18.75 Z0.
X29.285 Y18.843
G2 X29.215 Y19.286 I0.187 J0.257
X32.425 Y16.954 Z-0.031 I1.605 J-1.166
X29.215 Y19.286 Z-0.062 I-1.605 J1.166
X32.425 Y16.954 Z-0.094 I1.605 J-1.166
X29.215 Y19.286 Z-0.125 I-1.605 J1.166
X32.425 Y16.954 Z-0.156 I1.605 J-1.166
X29.215 Y19.286 Z-0.187 I-1.605 J1.166
X32.425 Y16.954 Z-0.218 I1.605 J-1.166
X29.215 Y19.286 Z-0.249 I-1.605 J1.166
X32.425 Y16.954 Z-0.281 I1.605 J-1.166
X29.215 Y19.286 Z-0.312 I-1.605 J1.166
X32.425 Y16.954 Z-0.343 I1.605 J-1.166
X29.215 Y19.286 Z-0.374 I-1.605 J1.166
X32.425 Y16.954 Z-0.405 I1.605 J-1.166
X29.215 Y19.286 Z-0.436 I-1.605 J1.166
X32.425 Y16.954 Z-0.468 I1.605 J-1.166
X29.215 Y19.286 Z-0.499 I-1.605 J1.166
X32.425 Y16.954 Z-0.53 I1.605 J-1.166
X29.215 Y19.286 Z-0.561 I-1.605 J1.166
X32.425 Y16.954 Z-0.592 I1.605 J-1.166
X29.215 Y19.286 Z-0.623 I-1.605 J1.166
X32.425 Y16.954 Z-0.655 I1.605 J-1.166
X29.215 Y19.286 Z-0.686 I-1.605 J1.166
X32.425 Y16.954 Z-0.717 I1.605 J-1.166
X29.215 Y19.286 Z-0.748 I-1.605 J1.166
X32.425 Y16.954 Z-0.779 I1.605 J-1.166
X29.215 Y19.286 Z-0.81 I-1.605 J1.166
X32.425 Y16.954 Z-0.842 I1.605 J-1.166
X29.215 Y19.286 Z-0.873 I-1.605 J1.166
X32.425 Y16.954 Z-0.904 I1.605 J-1.166
X29.215 Y19.286 Z-0.935 I-1.605 J1.166
X32.425 Y16.954 Z-0.966 I1.605 J-1.166
X29.215 Y19.286 Z-0.997 I-1.605 J1.166
X32.425 Y16.954 Z-1.029 I1.605 J-1.166
X29.215 Y19.286 Z-1.06 I-1.605 J1.166
X32.425 Y16.954 Z-1.091 I1.605 J-1.166
X29.215 Y19.286 Z-1.122 I-1.605 J1.166
X32.425 Y16.954 Z-1.153 I1.605 J-1.166
X29.215 Y19.286 Z-1.185 I-1.605 J1.166
X32.425 Y16.954 Z-1.216 I1.605 J-1.166
X29.215 Y19.286 Z-1.247 I-1.605 J1.166
X32.425 Y16.954 Z-1.278 I1.605 J-1.166
X29.215 Y19.286 Z-1.309 I-1.605 J1.166
X32.425 Y16.954 Z-1.34 I1.605 J-1.166
X29.215 Y19.286 Z-1.372 I-1.605 J1.166
X32.425 Y16.954 Z-1.403 I1.605 J-1.166
X29.215 Y19.286 Z-1.434 I-1.605 J1.166
X32.425 Y16.954 Z-1.465 I1.605 J-1.166
X29.215 Y19.286 Z-1.496 I-1.605 J1.166
X32.425 Y16.954 Z-1.527 I1.605 J-1.166
X29.215 Y19.286 Z-1.559 I-1.605 J1.166
X32.425 Y16.954 Z-1.59 I1.605 J-1.166
X29.215 Y19.286 Z-1.621 I-1.605 J1.166
X32.425 Y16.954 Z-1.652 I1.605 J-1.166
X29.215 Y19.286 Z-1.683 I-1.605 J1.166
X32.425 Y16.954 Z-1.714 I1.605 J-1.166
X29.215 Y19.286 Z-1.746 I-1.605 J1.166
X32.425 Y16.954 Z-1.777 I1.605 J-1.166
X29.215 Y19.286 Z-1.808 I-1.605 J1.166
X32.425 Y16.954 Z-1.839 I1.605 J-1.166
X29.215 Y19.286 Z-1.87 I-1.605 J1.166
X32.425 Y16.954 Z-1.901 I1.605 J-1.166
X29.215 Y19.286 Z-1.933 I-1.605 J1.166
X32.425 Y16.954 Z-1.964 I1.605 J-1.166
X29.215 Y19.286 Z-1.995 I-1.605 J1.166
X32.425 Y16.954 Z-2.026 I1.605 J-1.166
X29.215 Y19.286 Z-2.057 I-1.605 J1.166
X32.425 Y16.954 Z-2.088 I1.605 J-1.166
X29.215 Y19.286 Z-2.12 I-1.605 J1.166
X32.425 Y16.954 Z-2.151 I1.605 J-1.166
X29.215 Y19.286 Z-2.182 I-1.605 J1.166
X32.425 Y16.954 Z-2.213 I1.605 J-1.166
X29.215 Y19.286 Z-2.244 I-1.605 J1.166
X32.425 Y16.954 Z-2.276 I1.605 J-1.166
X29.215 Y19.286 Z-2.307 I-1.605 J1.166
X32.425 Y16.954 Z-2.338 I1.605 J-1.166
X29.215 Y19.286 Z-2.369 I-1.605 J1.166
X32.425 Y16.954 Z-2.4 I1.605 J-1.166
X29.215 Y19.286 Z-2.431 I-1.605 J1.166
X32.425 Y16.954 Z-2.463 I1.605 J-1.166
X29.215 Y19.286 Z-2.494 I-1.605 J1.166
X32.425 Y16.954 Z-2.525 I1.605 J-1.166
X29.215 Y19.286 Z-2.556 I-1.605 J1.166
X32.425 Y16.954 Z-2.587 I1.605 J-1.166
X29.215 Y19.286 Z-2.618 I-1.605 J1.166
X32.425 Y16.954 Z-2.65 I1.605 J-1.166
X29.215 Y19.286 Z-2.681 I-1.605 J1.166
X32.425 Y16.954 Z-2.712 I1.605 J-1.166
X29.215 Y19.286 Z-2.743 I-1.605 J1.166
X32.425 Y16.954 Z-2.774 I1.605 J-1.166
X29.215 Y19.286 Z-2.805 I-1.605 J1.166
X32.425 Y16.954 Z-2.837 I1.605 J-1.166
X29.215 Y19.286 Z-2.868 I-1.605 J1.166
X32.425 Y16.954 Z-2.899 I1.605 J-1.166
X29.215 Y19.286 Z-2.93 I-1.605 J1.166
X32.425 Y16.954 Z-2.961 I1.605 J-1.166
X29.215 Y19.286 Z-2.992 I-1.605 J1.166
X32.425 Y16.954 Z-3.024 I1.605 J-1.166
X29.215 Y19.286 Z-3.055 I-1.605 J1.166
X32.425 Y16.954 Z-3.086 I1.605 J-1.166
X29.215 Y19.286 Z-3.117 I-1.605 J1.166
X32.425 Y16.954 Z-3.148 I1.605 J-1.166
X29.215 Y19.286 Z-3.179 I-1.605 J1.166
X32.425 Y16.954 Z-3.211 I1.605 J-1.166
X29.215 Y19.286 Z-3.242 I-1.605 J1.166
X32.425 Y16.954 Z-3.273 I1.605 J-1.166
X29.215 Y19.286 Z-3.304 I-1.605 J1.166
X32.425 Y16.954 Z-3.335 I1.605 J-1.166
X29.215 Y19.286 Z-3.366 I-1.605 J1.166
X32.425 Y16.954 Z-3.398 I1.605 J-1.166
X29.215 Y19.286 Z-3.429 I-1.605 J1.166
X32.425 Y16.954 Z-3.46 I1.605 J-1.166
X29.215 Y19.286 Z-3.491 I-1.605 J1.166
X32.425 Y16.954 Z-3.522 I1.605 J-1.166
X29.215 Y19.286 Z-3.554 I-1.605 J1.166
X32.425 Y16.954 Z-3.585 I1.605 J-1.166
X29.215 Y19.286 Z-3.616 I-1.605 J1.166
X32.425 Y16.954 Z-3.647 I1.605 J-1.166
X29.215 Y19.286 Z-3.678 I-1.605 J1.166
X32.425 Y16.954 Z-3.709 I1.605 J-1.166
X29.215 Y19.286 Z-3.741 I-1.605 J1.166
X32.425 Y16.954 Z-3.772 I1.605 J-1.166
X29.215 Y19.286 Z-3.803 I-1.605 J1.166
X32.425 Y16.954 Z-3.834 I1.605 J-1.166
X29.215 Y19.286 Z-3.865 I-1.605 J1.166
X32.425 Y16.954 Z-3.896 I1.605 J-1.166
X29.215 Y19.286 Z-3.928 I-1.605 J1.166
X32.425 Y16.954 Z-3.959 I1.605 J-1.166
X29.215 Y19.286 Z-3.99 I-1.605 J1.166
X32.425 Y16.954 Z-4.021 I1.605 J-1.166
X29.215 Y19.286 Z-4.052 I-1.605 J1.166
X32.425 Y16.954 Z-4.083 I1.605 J-1.166
X29.215 Y19.286 Z-4.115 I-1.605 J1.166
X32.425 Y16.954 Z-4.146 I1.605 J-1.166
X29.215 Y19.286 Z-4.177 I-1.605 J1.166
X32.425 Y16.954 Z-4.208 I1.605 J-1.166
X29.215 Y19.286 Z-4.239 I-1.605 J1.166
X32.425 Y16.954 Z-4.27 I1.605 J-1.166
X29.215 Y19.286 Z-4.302 I-1.605 J1.166
X32.425 Y16.954 Z-4.333 I1.605 J-1.166
X29.215 Y19.286 Z-4.364 I-1.605 J1.166
X32.425 Y16.954 Z-4.395 I1.605 J-1.166
X29.215 Y19.286 Z-4.426 I-1.605 J1.166
X32.425 Y16.954 Z-4.457 I1.605 J-1.166
X29.215 Y19.286 Z-4.489 I-1.605 J1.166
X32.425 Y16.954 Z-4.52 I1.605 J-1.166
X29.215 Y19.286 Z-4.551 I-1.605 J1.166
X32.425 Y16.954 Z-4.582 I1.605 J-1.166
X29.215 Y19.286 Z-4.613 I-1.605 J1.166
X32.425 Y16.954 Z-4.645 I1.605 J-1.166
X29.137 Y19.172 Z-4.675 I-1.605 J1.166
X32.503 Y17.068 I1.683 J-1.052
X29.137 Y19.172 I-1.683 J1.052
X29.575 Y19.273 I0.269 J-0.168
G1 X29.709 Y19.189
X29.769 Y19.151 Z-4.667
X29.826 Y19.116 Z-4.644
X29.877 Y19.084 Z-4.606
X29.92 Y19.057 Z-4.555
X29.952 Y19.037 Z-4.495
X29.972 Y19.025 Z-4.428
X29.979 Y19.02 Z-4.358
G0 Z6.
X4.27 Y18.563
Z2.
G1 Z0.317 F800.
X4.264 Y18.568 Z0.247
X4.245 Y18.582 Z0.18
X4.214 Y18.604 Z0.12
X4.173 Y18.633 Z0.069
X4.125 Y18.669 Z0.031
X4.071 Y18.708 Z0.008
X4.013 Y18.75 Z0.
X3.885 Y18.843
G2 X3.815 Y19.286 I0.187 J0.257
X7.025 Y16.954 Z-0.031 I1.605 J-1.166
X3.815 Y19.286 Z-0.062 I-1.605 J1.166
X7.025 Y16.954 Z-0.094 I1.605 J-1.166
X3.815 Y19.286 Z-0.125 I-1.605 J1.166
X7.025 Y16.954 Z-0.156 I1.605 J-1.166
X3.815 Y19.286 Z-0.187 I-1.605 J1.166
X7.025 Y16.954 Z-0.218 I1.605 J-1.166
X3.815 Y19.286 Z-0.249 I-1.605 J1.166
X7.025 Y16.954 Z-0.281 I1.605 J-1.166
X3.815 Y19.286 Z-0.312 I-1.605 J1.166
X7.025 Y16.954 Z-0.343 I1.605 J-1.166
X3.815 Y19.286 Z-0.374 I-1.605 J1.166
X7.025 Y16.954 Z-0.405 I1.605 J-1.166
X3.815 Y19.286 Z-0.436 I-1.605 J1.166
X7.025 Y16.954 Z-0.468 I1.605 J-1.166
X3.815 Y19.286 Z-0.499 I-1.605 J1.166
X7.025 Y16.954 Z-0.53 I1.605 J-1.166
X3.815 Y19.286 Z-0.561 I-1.605 J1.166
X7.025 Y16.954 Z-0.592 I1.605 J-1.166
X3.815 Y19.286 Z-0.623 I-1.605 J1.166
X7.025 Y16.954 Z-0.655 I1.605 J-1.166
X3.815 Y19.286 Z-0.686 I-1.605 J1.166
X7.025 Y16.954 Z-0.717 I1.605 J-1.166
X3.815 Y19.286 Z-0.748 I-1.605 J1.166
X7.025 Y16.954 Z-0.779 I1.605 J-1.166
X3.815 Y19.286 Z-0.81 I-1.605 J1.166
X7.025 Y16.954 Z-0.842 I1.605 J-1.166
X3.815 Y19.286 Z-0.873 I-1.605 J1.166
X7.025 Y16.954 Z-0.904 I1.605 J-1.166
X3.815 Y19.286 Z-0.935 I-1.605 J1.166
X7.025 Y16.954 Z-0.966 I1.605 J-1.166
X3.815 Y19.286 Z-0.997 I-1.605 J1.166
X7.025 Y16.954 Z-1.029 I1.605 J-1.166
X3.815 Y19.286 Z-1.06 I-1.605 J1.166
X7.025 Y16.954 Z-1.091 I1.605 J-1.166
X3.815 Y19.286 Z-1.122 I-1.605 J1.166
X7.025 Y16.954 Z-1.153 I1.605 J-1.166
X3.815 Y19.286 Z-1.185 I-1.605 J1.166
X7.025 Y16.954 Z-1.216 I1.605 J-1.166
X3.815 Y19.286 Z-1.247 I-1.605 J1.166
X7.025 Y16.954 Z-1.278 I1.605 J-1.166
X3.815 Y19.286 Z-1.309 I-1.605 J1.166
X7.025 Y16.954 Z-1.34 I1.605 J-1.166
X3.815 Y19.286 Z-1.372 I-1.605 J1.166
X7.025 Y16.954 Z-1.403 I1.605 J-1.166
X3.815 Y19.286 Z-1.434 I-1.605 J1.166
X7.025 Y16.954 Z-1.465 I1.605 J-1.166
X3.815 Y19.286 Z-1.496 I-1.605 J1.166
X7.025 Y16.954 Z-1.527 I1.605 J-1.166
X3.815 Y19.286 Z-1.559 I-1.605 J1.166
X7.025 Y16.954 Z-1.59 I1.605 J-1.166
X3.815 Y19.286 Z-1.621 I-1.605 J1.166
X7.025 Y16.954 Z-1.652 I1.605 J-1.166
X3.815 Y19.286 Z-1.683 I-1.605 J1.166
X7.025 Y16.954 Z-1.714 I1.605 J-1.166
X3.815 Y19.286 Z-1.746 I-1.605 J1.166
X7.025 Y16.954 Z-1.777 I1.605 J-1.166
X3.815 Y19.286 Z-1.808 I-1.605 J1.166
X7.025 Y16.954 Z-1.839 I1.605 J-1.166
X3.815 Y19.286 Z-1.87 I-1.605 J1.166
X7.025 Y16.954 Z-1.901 I1.605 J-1.166
X3.815 Y19.286 Z-1.933 I-1.605 J1.166
X7.025 Y16.954 Z-1.964 I1.605 J-1.166
X3.815 Y19.286 Z-1.995 I-1.605 J1.166
X7.025 Y16.954 Z-2.026 I1.605 J-1.166
X3.815 Y19.286 Z-2.057 I-1.605 J1.166
X7.025 Y16.954 Z-2.088 I1.605 J-1.166
X3.815 Y19.286 Z-2.12 I-1.605 J1.166
X7.025 Y16.954 Z-2.151 I1.605 J-1.166
X3.815 Y19.286 Z-2.182 I-1.605 J1.166
X7.025 Y16.954 Z-2.213 I1.605 J-1.166
X3.815 Y19.286 Z-2.244 I-1.605 J1.166
X7.025 Y16.954 Z-2.276 I1.605 J-1.166
X3.815 Y19.286 Z-2.307 I-1.605 J1.166
X7.025 Y16.954 Z-2.338 I1.605 J-1.166
X3.815 Y19.286 Z-2.369 I-1.605 J1.166
X7.025 Y16.954 Z-2.4 I1.605 J-1.166
X3.815 Y19.286 Z-2.431 I-1.605 J1.166
X7.025 Y16.954 Z-2.463 I1.605 J-1.166
X3.815 Y19.286 Z-2.494 I-1.605 J1.166
X7.025 Y16.954 Z-2.525 I1.605 J-1.166
X3.815 Y19.286 Z-2.556 I-1.605 J1.166
X7.025 Y16.954 Z-2.587 I1.605 J-1.166
X3.815 Y19.286 Z-2.618 I-1.605 J1.166
X7.025 Y16.954 Z-2.65 I1.605 J-1.166
X3.815 Y19.286 Z-2.681 I-1.605 J1.166
X7.025 Y16.954 Z-2.712 I1.605 J-1.166
X3.815 Y19.286 Z-2.743 I-1.605 J1.166
X7.025 Y16.954 Z-2.774 I1.605 J-1.166
X3.815 Y19.286 Z-2.805 I-1.605 J1.166
X7.025 Y16.954 Z-2.837 I1.605 J-1.166
X3.815 Y19.286 Z-2.868 I-1.605 J1.166
X7.025 Y16.954 Z-2.899 I1.605 J-1.166
X3.815 Y19.286 Z-2.93 I-1.605 J1.166
X7.025 Y16.954 Z-2.961 I1.605 J-1.166
X3.815 Y19.286 Z-2.992 I-1.605 J1.166
X7.025 Y16.954 Z-3.024 I1.605 J-1.166
X3.815 Y19.286 Z-3.055 I-1.605 J1.166
X7.025 Y16.954 Z-3.086 I1.605 J-1.166
X3.815 Y19.286 Z-3.117 I-1.605 J1.166
X7.025 Y16.954 Z-3.148 I1.605 J-1.166
X3.815 Y19.286 Z-3.179 I-1.605 J1.166
X7.025 Y16.954 Z-3.211 I1.605 J-1.166
X3.815 Y19.286 Z-3.242 I-1.605 J1.166
X7.025 Y16.954 Z-3.273 I1.605 J-1.166
X3.815 Y19.286 Z-3.304 I-1.605 J1.166
X7.025 Y16.954 Z-3.335 I1.605 J-1.166
X3.815 Y19.286 Z-3.366 I-1.605 J1.166
X7.025 Y16.954 Z-3.398 I1.605 J-1.166
X3.815 Y19.286 Z-3.429 I-1.605 J1.166
X7.025 Y16.954 Z-3.46 I1.605 J-1.166
X3.815 Y19.286 Z-3.491 I-1.605 J1.166
X7.025 Y16.954 Z-3.522 I1.605 J-1.166
X3.815 Y19.286 Z-3.554 I-1.605 J1.166
X7.025 Y16.954 Z-3.585 I1.605 J-1.166
X3.815 Y19.286 Z-3.616 I-1.605 J1.166
X7.025 Y16.954 Z-3.647 I1.605 J-1.166
X3.815 Y19.286 Z-3.678 I-1.605 J1.166
X7.025 Y16.954 Z-3.709 I1.605 J-1.166
X3.815 Y19.286 Z-3.741 I-1.605 J1.166
X7.025 Y16.954 Z-3.772 I1.605 J-1.166
X3.815 Y19.286 Z-3.803 I-1.605 J1.166
X7.025 Y16.954 Z-3.834 I1.605 J-1.166
X3.815 Y19.286 Z-3.865 I-1.605 J1.166
X7.025 Y16.954 Z-3.896 I1.605 J-1.166
X3.815 Y19.286 Z-3.928 I-1.605 J1.166
X7.025 Y16.954 Z-3.959 I1.605 J-1.166
X3.815 Y19.286 Z-3.99 I-1.605 J1.166
X7.025 Y16.954 Z-4.021 I1.605 J-1.166
X3.815 Y19.286 Z-4.052 I-1.605 J1.166
X7.025 Y16.954 Z-4.083 I1.605 J-1.166
X3.815 Y19.286 Z-4.115 I-1.605 J1.166
X7.025 Y16.954 Z-4.146 I1.605 J-1.166
X3.815 Y19.286 Z-4.177 I-1.605 J1.166
X7.025 Y16.954 Z-4.208 I1.605 J-1.166
X3.815 Y19.286 Z-4.239 I-1.605 J1.166
X7.025 Y16.954 Z-4.27 I1.605 J-1.166
X3.815 Y19.286 Z-4.302 I-1.605 J1.166
X7.025 Y16.954 Z-4.333 I1.605 J-1.166
X3.815 Y19.286 Z-4.364 I-1.605 J1.166
X7.025 Y16.954 Z-4.395 I1.605 J-1.166
X3.815 Y19.286 Z-4.426 I-1.605 J1.166
X7.025 Y16.954 Z-4.457 I1.605 J-1.166
X3.815 Y19.286 Z-4.489 I-1.605 J1.166
X7.025 Y16.954 Z-4.52 I1.605 J-1.166
X3.815 Y19.286 Z-4.551 I-1.605 J1.166
X7.025 Y16.954 Z-4.582 I1.605 J-1.166
X3.815 Y19.286 Z-4.613 I-1.605 J1.166
X7.025 Y16.954 Z-4.645 I1.605 J-1.166
X3.737 Y19.172 Z-4.675 I-1.605 J1.166
X7.103 Y17.068 I1.683 J-1.052
X3.737 Y19.172 I-1.683 J1.052
X4.175 Y19.273 I0.269 J-0.168
G1 X4.309 Y19.189
X4.369 Y19.151 Z-4.667
X4.426 Y19.116 Z-4.644
X4.477 Y19.084 Z-4.606
X4.52 Y19.057 Z-4.555
X4.552 Y19.037 Z-4.495
X4.572 Y19.025 Z-4.428
X4.579 Y19.02 Z-4.358
G0 Z6.
X4.27 Y34.438
Z2.
G1 Z0.317 F800.
X4.264 Y34.443 Z0.247
X4.245 Y34.457 Z0.18
X4.214 Y34.479 Z0.12
X4.173 Y34.508 Z0.069
X4.125 Y34.544 Z0.031
X4.071 Y34.583 Z0.008
X4.013 Y34.625 Z0.
X3.885 Y34.718
G2 X3.815 Y35.161 I0.187 J0.257
X7.025 Y32.829 Z-0.031 I1.605 J-1.166
X3.815 Y35.161 Z-0.062 I-1.605 J1.166
X7.025 Y32.829 Z-0.094 I1.605 J-1.166
X3.815 Y35.161 Z-0.125 I-1.605 J1.166
X7.025 Y32.829 Z-0.156 I1.605 J-1.166
X3.815 Y35.161 Z-0.187 I-1.605 J1.166
X7.025 Y32.829 Z-0.218 I1.605 J-1.166
X3.815 Y35.161 Z-0.249 I-1.605 J1.166
X7.025 Y32.829 Z-0.281 I1.605 J-1.166
X3.815 Y35.161 Z-0.312 I-1.605 J1.166
X7.025 Y32.829 Z-0.343 I1.605 J-1.166
X3.815 Y35.161 Z-0.374 I-1.605 J1.166
X7.025 Y32.829 Z-0.405 I1.605 J-1.166
X3.815 Y35.161 Z-0.436 I-1.605 J1.166
X7.025 Y32.829 Z-0.468 I1.605 J-1.166
X3.815 Y35.161 Z-0.499 I-1.605 J1.166
X7.025 Y32.829 Z-0.53 I1.605 J-1.166
X3.815 Y35.161 Z-0.561 I-1.605 J1.166
X7.025 Y32.829 Z-0.592 I1.605 J-1.166
X3.815 Y35.161 Z-0.623 I-1.605 J1.166
X7.025 Y32.829 Z-0.655 I1.605 J-1.166
X3.815 Y35.161 Z-0.686 I-1.605 J1.166
X7.025 Y32.829 Z-0.717 I1.605 J-1.166
X3.815 Y35.161 Z-0.748 I-1.605 J1.166
X7.025 Y32.829 Z-0.779 I1.605 J-1.166
X3.815 Y35.161 Z-0.81 I-1.605 J1.166
X7.025 Y32.829 Z-0.842 I1.605 J-1.166
X3.815 Y35.161 Z-0.873 I-1.605 J1.166
X7.025 Y32.829 Z-0.904 I1.605 J-1.166
X3.815 Y35.161 Z-0.935 I-1.605 J1.166
X7.025 Y32.829 Z-0.966 I1.605 J-1.166
X3.815 Y35.161 Z-0.997 I-1.605 J1.166
X7.025 Y32.829 Z-1.029 I1.605 J-1.166
X3.815 Y35.161 Z-1.06 I-1.605 J1.166
X7.025 Y32.829 Z-1.091 I1.605 J-1.166
X3.815 Y35.161 Z-1.122 I-1.605 J1.166
X7.025 Y32.829 Z-1.153 I1.605 J-1.166
X3.815 Y35.161 Z-1.185 I-1.605 J1.166
X7.025 Y32.829 Z-1.216 I1.605 J-1.166
X3.815 Y35.161 Z-1.247 I-1.605 J1.166
X7.025 Y32.829 Z-1.278 I1.605 J-1.166
X3.815 Y35.161 Z-1.309 I-1.605 J1.166
X7.025 Y32.829 Z-1.34 I1.605 J-1.166
X3.815 Y35.161 Z-1.372 I-1.605 J1.166
X7.025 Y32.829 Z-1.403 I1.605 J-1.166
X3.815 Y35.161 Z-1.434 I-1.605 J1.166
X7.025 Y32.829 Z-1.465 I1.605 J-1.166
X3.815 Y35.161 Z-1.496 I-1.605 J1.166
X7.025 Y32.829 Z-1.527 I1.605 J-1.166
X3.815 Y35.161 Z-1.559 I-1.605 J1.166
X7.025 Y32.829 Z-1.59 I1.605 J-1.166
X3.815 Y35.161 Z-1.621 I-1.605 J1.166
X7.025 Y32.829 Z-1.652 I1.605 J-1.166
X3.815 Y35.161 Z-1.683 I-1.605 J1.166
X7.025 Y32.829 Z-1.714 I1.605 J-1.166
X3.815 Y35.161 Z-1.746 I-1.605 J1.166
X7.025 Y32.829 Z-1.777 I1.605 J-1.166
X3.815 Y35.161 Z-1.808 I-1.605 J1.166
X7.025 Y32.829 Z-1.839 I1.605 J-1.166
X3.815 Y35.161 Z-1.87 I-1.605 J1.166
X7.025 Y32.829 Z-1.901 I1.605 J-1.166
X3.815 Y35.161 Z-1.933 I-1.605 J1.166
X7.025 Y32.829 Z-1.964 I1.605 J-1.166
X3.815 Y35.161 Z-1.995 I-1.605 J1.166
X7.025 Y32.829 Z-2.026 I1.605 J-1.166
X3.815 Y35.161 Z-2.057 I-1.605 J1.166
X7.025 Y32.829 Z-2.088 I1.605 J-1.166
X3.815 Y35.161 Z-2.12 I-1.605 J1.166
X7.025 Y32.829 Z-2.151 I1.605 J-1.166
X3.815 Y35.161 Z-2.182 I-1.605 J1.166
X7.025 Y32.829 Z-2.213 I1.605 J-1.166
X3.815 Y35.161 Z-2.244 I-1.605 J1.166
X7.025 Y32.829 Z-2.276 I1.605 J-1.166
X3.815 Y35.161 Z-2.307 I-1.605 J1.166
X7.025 Y32.829 Z-2.338 I1.605 J-1.166
X3.815 Y35.161 Z-2.369 I-1.605 J1.166
X7.025 Y32.829 Z-2.4 I1.605 J-1.166
X3.815 Y35.161 Z-2.431 I-1.605 J1.166
X7.025 Y32.829 Z-2.463 I1.605 J-1.166
X3.815 Y35.161 Z-2.494 I-1.605 J1.166
X7.025 Y32.829 Z-2.525 I1.605 J-1.166
X3.815 Y35.161 Z-2.556 I-1.605 J1.166
X7.025 Y32.829 Z-2.587 I1.605 J-1.166
X3.815 Y35.161 Z-2.618 I-1.605 J1.166
X7.025 Y32.829 Z-2.65 I1.605 J-1.166
X3.815 Y35.161 Z-2.681 I-1.605 J1.166
X7.025 Y32.829 Z-2.712 I1.605 J-1.166
X3.815 Y35.161 Z-2.743 I-1.605 J1.166
X7.025 Y32.829 Z-2.774 I1.605 J-1.166
X3.815 Y35.161 Z-2.805 I-1.605 J1.166
X7.025 Y32.829 Z-2.837 I1.605 J-1.166
X3.815 Y35.161 Z-2.868 I-1.605 J1.166
X7.025 Y32.829 Z-2.899 I1.605 J-1.166
X3.815 Y35.161 Z-2.93 I-1.605 J1.166
X7.025 Y32.829 Z-2.961 I1.605 J-1.166
X3.815 Y35.161 Z-2.992 I-1.605 J1.166
X7.025 Y32.829 Z-3.024 I1.605 J-1.166
X3.815 Y35.161 Z-3.055 I-1.605 J1.166
X7.025 Y32.829 Z-3.086 I1.605 J-1.166
X3.815 Y35.161 Z-3.117 I-1.605 J1.166
X7.025 Y32.829 Z-3.148 I1.605 J-1.166
X3.815 Y35.161 Z-3.179 I-1.605 J1.166
X7.025 Y32.829 Z-3.211 I1.605 J-1.166
X3.815 Y35.161 Z-3.242 I-1.605 J1.166
X7.025 Y32.829 Z-3.273 I1.605 J-1.166
X3.815 Y35.161 Z-3.304 I-1.605 J1.166
X7.025 Y32.829 Z-3.335 I1.605 J-1.166
X3.815 Y35.161 Z-3.366 I-1.605 J1.166
X7.025 Y32.829 Z-3.398 I1.605 J-1.166
X3.815 Y35.161 Z-3.429 I-1.605 J1.166
X7.025 Y32.829 Z-3.46 I1.605 J-1.166
X3.815 Y35.161 Z-3.491 I-1.605 J1.166
X7.025 Y32.829 Z-3.522 I1.605 J-1.166
X3.815 Y35.161 Z-3.554 I-1.605 J1.166
X7.025 Y32.829 Z-3.585 I1.605 J-1.166
X3.815 Y35.161 Z-3.616 I-1.605 J1.166
X7.025 Y32.829 Z-3.647 I1.605 J-1.166
X3.815 Y35.161 Z-3.678 I-1.605 J1.166
X7.025 Y32.829 Z-3.709 I1.605 J-1.166
X3.815 Y35.161 Z-3.741 I-1.605 J1.166
X7.025 Y32.829 Z-3.772 I1.605 J-1.166
X3.815 Y35.161 Z-3.803 I-1.605 J1.166
X7.025 Y32.829 Z-3.834 I1.605 J-1.166
X3.815 Y35.161 Z-3.865 I-1.605 J1.166
X7.025 Y32.829 Z-3.896 I1.605 J-1.166
X3.815 Y35.161 Z-3.928 I-1.605 J1.166
X7.025 Y32.829 Z-3.959 I1.605 J-1.166
X3.815 Y35.161 Z-3.99 I-1.605 J1.166
X7.025 Y32.829 Z-4.021 I1.605 J-1.166
X3.815 Y35.161 Z-4.052 I-1.605 J1.166
X7.025 Y32.829 Z-4.083 I1.605 J-1.166
X3.815 Y35.161 Z-4.115 I-1.605 J1.166
X7.025 Y32.829 Z-4.146 I1.605 J-1.166
X3.815 Y35.161 Z-4.177 I-1.605 J1.166
X7.025 Y32.829 Z-4.208 I1.605 J-1.166
X3.815 Y35.161 Z-4.239 I-1.605 J1.166
X7.025 Y32.829 Z-4.27 I1.605 J-1.166
X3.815 Y35.161 Z-4.302 I-1.605 J1.166
X7.025 Y32.829 Z-4.333 I1.605 J-1.166
X3.815 Y35.161 Z-4.364 I-1.605 J1.166
X7.025 Y32.829 Z-4.395 I1.605 J-1.166
X3.815 Y35.161 Z-4.426 I-1.605 J1.166
X7.025 Y32.829 Z-4.457 I1.605 J-1.166
X3.815 Y35.161 Z-4.489 I-1.605 J1.166
X7.025 Y32.829 Z-4.52 I1.605 J-1.166
X3.815 Y35.161 Z-4.551 I-1.605 J1.166
X7.025 Y32.829 Z-4.582 I1.605 J-1.166
X3.815 Y35.161 Z-4.613 I-1.605 J1.166
X7.025 Y32.829 Z-4.645 I1.605 J-1.166
X3.737 Y35.047 Z-4.675 I-1.605 J1.166
X7.103 Y32.943 I1.683 J-1.052
X3.737 Y35.047 I-1.683 J1.052
X4.175 Y35.148 I0.269 J-0.168
G1 X4.309 Y35.064
X4.369 Y35.026 Z-4.667
X4.426 Y34.991 Z-4.644
X4.477 Y34.959 Z-4.606
X4.52 Y34.932 Z-4.555
X4.552 Y34.912 Z-4.495
X4.572 Y34.9 Z-4.428
X4.579 Y34.895 Z-4.358
G0 Z6.
X4.27 Y75.713
Z2.
G1 Z0.317 F800.
X4.264 Y75.718 Z0.247
X4.245 Y75.732 Z0.18
X4.214 Y75.754 Z0.12
X4.173 Y75.783 Z0.069
X4.125 Y75.819 Z0.031
X4.071 Y75.858 Z0.008
X4.013 Y75.9 Z0.
X3.885 Y75.993
G2 X3.815 Y76.436 I0.187 J0.257
X7.025 Y74.104 Z-0.031 I1.605 J-1.166
X3.815 Y76.436 Z-0.062 I-1.605 J1.166
X7.025 Y74.104 Z-0.094 I1.605 J-1.166
X3.815 Y76.436 Z-0.125 I-1.605 J1.166
X7.025 Y74.104 Z-0.156 I1.605 J-1.166
X3.815 Y76.436 Z-0.187 I-1.605 J1.166
X7.025 Y74.104 Z-0.218 I1.605 J-1.166
X3.815 Y76.436 Z-0.249 I-1.605 J1.166
X7.025 Y74.104 Z-0.281 I1.605 J-1.166
X3.815 Y76.436 Z-0.312 I-1.605 J1.166
X7.025 Y74.104 Z-0.343 I1.605 J-1.166
X3.815 Y76.436 Z-0.374 I-1.605 J1.166
X7.025 Y74.104 Z-0.405 I1.605 J-1.166
X3.815 Y76.436 Z-0.436 I-1.605 J1.166
X7.025 Y74.104 Z-0.468 I1.605 J-1.166
X3.815 Y76.436 Z-0.499 I-1.605 J1.166
X7.025 Y74.104 Z-0.53 I1.605 J-1.166
X3.815 Y76.436 Z-0.561 I-1.605 J1.166
X7.025 Y74.104 Z-0.592 I1.605 J-1.166
X3.815 Y76.436 Z-0.623 I-1.605 J1.166
X7.025 Y74.104 Z-0.655 I1.605 J-1.166
X3.815 Y76.436 Z-0.686 I-1.605 J1.166
X7.025 Y74.104 Z-0.717 I1.605 J-1.166
X3.815 Y76.436 Z-0.748 I-1.605 J1.166
X7.025 Y74.104 Z-0.779 I1.605 J-1.166
X3.815 Y76.436 Z-0.81 I-1.605 J1.166
X7.025 Y74.104 Z-0.842 I1.605 J-1.166
X3.815 Y76.436 Z-0.873 I-1.605 J1.166
X7.025 Y74.104 Z-0.904 I1.605 J-1.166
X3.815 Y76.436 Z-0.935 I-1.605 J1.166
X7.025 Y74.104 Z-0.966 I1.605 J-1.166
X3.815 Y76.436 Z-0.997 I-1.605 J1.166
X7.025 Y74.104 Z-1.029 I1.605 J-1.166
X3.815 Y76.436 Z-1.06 I-1.605 J1.166
X7.025 Y74.104 Z-1.091 I1.605 J-1.166
X3.815 Y76.436 Z-1.122 I-1.605 J1.166
X7.025 Y74.104 Z-1.153 I1.605 J-1.166
X3.815 Y76.436 Z-1.185 I-1.605 J1.166
X7.025 Y74.104 Z-1.216 I1.605 J-1.166
X3.815 Y76.436 Z-1.247 I-1.605 J1.166
X7.025 Y74.104 Z-1.278 I1.605 J-1.166
X3.815 Y76.436 Z-1.309 I-1.605 J1.166
X7.025 Y74.104 Z-1.34 I1.605 J-1.166
X3.815 Y76.436 Z-1.372 I-1.605 J1.166
X7.025 Y74.104 Z-1.403 I1.605 J-1.166
X3.815 Y76.436 Z-1.434 I-1.605 J1.166
X7.025 Y74.104 Z-1.465 I1.605 J-1.166
X3.815 Y76.436 Z-1.496 I-1.605 J1.166
X7.025 Y74.104 Z-1.527 I1.605 J-1.166
X3.815 Y76.436 Z-1.559 I-1.605 J1.166
X7.025 Y74.104 Z-1.59 I1.605 J-1.166
X3.815 Y76.436 Z-1.621 I-1.605 J1.166
X7.025 Y74.104 Z-1.652 I1.605 J-1.166
X3.815 Y76.436 Z-1.683 I-1.605 J1.166
X7.025 Y74.104 Z-1.714 I1.605 J-1.166
X3.815 Y76.436 Z-1.746 I-1.605 J1.166
X7.025 Y74.104 Z-1.777 I1.605 J-1.166
X3.815 Y76.436 Z-1.808 I-1.605 J1.166
X7.025 Y74.104 Z-1.839 I1.605 J-1.166
X3.815 Y76.436 Z-1.87 I-1.605 J1.166
X7.025 Y74.104 Z-1.901 I1.605 J-1.166
X3.815 Y76.436 Z-1.933 I-1.605 J1.166
X7.025 Y74.104 Z-1.964 I1.605 J-1.166
X3.815 Y76.436 Z-1.995 I-1.605 J1.166
X7.025 Y74.104 Z-2.026 I1.605 J-1.166
X3.815 Y76.436 Z-2.057 I-1.605 J1.166
X7.025 Y74.104 Z-2.088 I1.605 J-1.166
X3.815 Y76.436 Z-2.12 I-1.605 J1.166
X7.025 Y74.104 Z-2.151 I1.605 J-1.166
X3.815 Y76.436 Z-2.182 I-1.605 J1.166
X7.025 Y74.104 Z-2.213 I1.605 J-1.166
X3.815 Y76.436 Z-2.244 I-1.605 J1.166
X7.025 Y74.104 Z-2.276 I1.605 J-1.166
X3.815 Y76.436 Z-2.307 I-1.605 J1.166
X7.025 Y74.104 Z-2.338 I1.605 J-1.166
X3.815 Y76.436 Z-2.369 I-1.605 J1.166
X7.025 Y74.104 Z-2.4 I1.605 J-1.166
X3.815 Y76.436 Z-2.431 I-1.605 J1.166
X7.025 Y74.104 Z-2.463 I1.605 J-1.166
X3.815 Y76.436 Z-2.494 I-1.605 J1.166
X7.025 Y74.104 Z-2.525 I1.605 J-1.166
X3.815 Y76.436 Z-2.556 I-1.605 J1.166
X7.025 Y74.104 Z-2.587 I1.605 J-1.166
X3.815 Y76.436 Z-2.618 I-1.605 J1.166
X7.025 Y74.104 Z-2.65 I1.605 J-1.166
X3.815 Y76.436 Z-2.681 I-1.605 J1.166
X7.025 Y74.104 Z-2.712 I1.605 J-1.166
X3.815 Y76.436 Z-2.743 I-1.605 J1.166
X7.025 Y74.104 Z-2.774 I1.605 J-1.166
X3.815 Y76.436 Z-2.805 I-1.605 J1.166
X7.025 Y74.104 Z-2.837 I1.605 J-1.166
X3.815 Y76.436 Z-2.868 I-1.605 J1.166
X7.025 Y74.104 Z-2.899 I1.605 J-1.166
X3.815 Y76.436 Z-2.93 I-1.605 J1.166
X7.025 Y74.104 Z-2.961 I1.605 J-1.166
X3.815 Y76.436 Z-2.992 I-1.605 J1.166
X7.025 Y74.104 Z-3.024 I1.605 J-1.166
X3.815 Y76.436 Z-3.055 I-1.605 J1.166
X7.025 Y74.104 Z-3.086 I1.605 J-1.166
X3.815 Y76.436 Z-3.117 I-1.605 J1.166
X7.025 Y74.104 Z-3.148 I1.605 J-1.166
X3.815 Y76.436 Z-3.179 I-1.605 J1.166
X7.025 Y74.104 Z-3.211 I1.605 J-1.166
X3.815 Y76.436 Z-3.242 I-1.605 J1.166
X7.025 Y74.104 Z-3.273 I1.605 J-1.166
X3.815 Y76.436 Z-3.304 I-1.605 J1.166
X7.025 Y74.104 Z-3.335 I1.605 J-1.166
X3.815 Y76.436 Z-3.366 I-1.605 J1.166
X7.025 Y74.104 Z-3.398 I1.605 J-1.166
X3.815 Y76.436 Z-3.429 I-1.605 J1.166
X7.025 Y74.104 Z-3.46 I1.605 J-1.166
X3.815 Y76.436 Z-3.491 I-1.605 J1.166
X7.025 Y74.104 Z-3.522 I1.605 J-1.166
X3.815 Y76.436 Z-3.554 I-1.605 J1.166
X7.025 Y74.104 Z-3.585 I1.605 J-1.166
X3.815 Y76.436 Z-3.616 I-1.605 J1.166
X7.025 Y74.104 Z-3.647 I1.605 J-1.166
X3.815 Y76.436 Z-3.678 I-1.605 J1.166
X7.025 Y74.104 Z-3.709 I1.605 J-1.166
X3.815 Y76.436 Z-3.741 I-1.605 J1.166
X7.025 Y74.104 Z-3.772 I1.605 J-1.166
X3.815 Y76.436 Z-3.803 I-1.605 J1.166
X7.025 Y74.104 Z-3.834 I1.605 J-1.166
X3.815 Y76.436 Z-3.865 I-1.605 J1.166
X7.025 Y74.104 Z-3.896 I1.605 J-1.166
X3.815 Y76.436 Z-3.928 I-1.605 J1.166
X7.025 Y74.104 Z-3.959 I1.605 J-1.166
X3.815 Y76.436 Z-3.99 I-1.605 J1.166
X7.025 Y74.104 Z-4.021 I1.605 J-1.166
X3.815 Y76.436 Z-4.052 I-1.605 J1.166
X7.025 Y74.104 Z-4.083 I1.605 J-1.166
X3.815 Y76.436 Z-4.115 I-1.605 J1.166
X7.025 Y74.104 Z-4.146 I1.605 J-1.166
X3.815 Y76.436 Z-4.177 I-1.605 J1.166
X7.025 Y74.104 Z-4.208 I1.605 J-1.166
X3.815 Y76.436 Z-4.239 I-1.605 J1.166
X7.025 Y74.104 Z-4.27 I1.605 J-1.166
X3.815 Y76.436 Z-4.302 I-1.605 J1.166
X7.025 Y74.104 Z-4.333 I1.605 J-1.166
X3.815 Y76.436 Z-4.364 I-1.605 J1.166
X7.025 Y74.104 Z-4.395 I1.605 J-1.166
X3.815 Y76.436 Z-4.426 I-1.605 J1.166
X7.025 Y74.104 Z-4.457 I1.605 J-1.166
X3.815 Y76.436 Z-4.489 I-1.605 J1.166
X7.025 Y74.104 Z-4.52 I1.605 J-1.166
X3.815 Y76.436 Z-4.551 I-1.605 J1.166
X7.025 Y74.104 Z-4.582 I1.605 J-1.166
X3.815 Y76.436 Z-4.613 I-1.605 J1.166
X7.025 Y74.104 Z-4.645 I1.605 J-1.166
X3.737 Y76.322 Z-4.675 I-1.605 J1.166
X7.103 Y74.218 I1.683 J-1.052
X3.737 Y76.322 I-1.683 J1.052
X4.175 Y76.423 I0.269 J-0.168
G1 X4.309 Y76.339
X4.369 Y76.301 Z-4.667
X4.426 Y76.266 Z-4.644
X4.477 Y76.234 Z-4.606
X4.52 Y76.207 Z-4.555
X4.552 Y76.187 Z-4.495
X4.572 Y76.175 Z-4.428
X4.579 Y76.17 Z-4.358
G0 Z6.
X4.27 Y59.838
Z2.
G1 Z0.317 F800.
X4.264 Y59.843 Z0.247
X4.245 Y59.857 Z0.18
X4.214 Y59.879 Z0.12
X4.173 Y59.908 Z0.069
X4.125 Y59.944 Z0.031
X4.071 Y59.983 Z0.008
X4.013 Y60.025 Z0.
X3.885 Y60.118
G2 X3.815 Y60.561 I0.187 J0.257
X7.025 Y58.229 Z-0.031 I1.605 J-1.166
X3.815 Y60.561 Z-0.062 I-1.605 J1.166
X7.025 Y58.229 Z-0.094 I1.605 J-1.166
X3.815 Y60.561 Z-0.125 I-1.605 J1.166
X7.025 Y58.229 Z-0.156 I1.605 J-1.166
X3.815 Y60.561 Z-0.187 I-1.605 J1.166
X7.025 Y58.229 Z-0.218 I1.605 J-1.166
X3.815 Y60.561 Z-0.249 I-1.605 J1.166
X7.025 Y58.229 Z-0.281 I1.605 J-1.166
X3.815 Y60.561 Z-0.312 I-1.605 J1.166
X7.025 Y58.229 Z-0.343 I1.605 J-1.166
X3.815 Y60.561 Z-0.374 I-1.605 J1.166
X7.025 Y58.229 Z-0.405 I1.605 J-1.166
X3.815 Y60.561 Z-0.436 I-1.605 J1.166
X7.025 Y58.229 Z-0.468 I1.605 J-1.166
X3.815 Y60.561 Z-0.499 I-1.605 J1.166
X7.025 Y58.229 Z-0.53 I1.605 J-1.166
X3.815 Y60.561 Z-0.561 I-1.605 J1.166
X7.025 Y58.229 Z-0.592 I1.605 J-1.166
X3.815 Y60.561 Z-0.623 I-1.605 J1.166
X7.025 Y58.229 Z-0.655 I1.605 J-1.166
X3.815 Y60.561 Z-0.686 I-1.605 J1.166
X7.025 Y58.229 Z-0.717 I1.605 J-1.166
X3.815 Y60.561 Z-0.748 I-1.605 J1.166
X7.025 Y58.229 Z-0.779 I1.605 J-1.166
X3.815 Y60.561 Z-0.81 I-1.605 J1.166
X7.025 Y58.229 Z-0.842 I1.605 J-1.166
X3.815 Y60.561 Z-0.873 I-1.605 J1.166
X7.025 Y58.229 Z-0.904 I1.605 J-1.166
X3.815 Y60.561 Z-0.935 I-1.605 J1.166
X7.025 Y58.229 Z-0.966 I1.605 J-1.166
X3.815 Y60.561 Z-0.997 I-1.605 J1.166
X7.025 Y58.229 Z-1.029 I1.605 J-1.166
X3.815 Y60.561 Z-1.06 I-1.605 J1.166
X7.025 Y58.229 Z-1.091 I1.605 J-1.166
X3.815 Y60.561 Z-1.122 I-1.605 J1.166
X7.025 Y58.229 Z-1.153 I1.605 J-1.166
X3.815 Y60.561 Z-1.185 I-1.605 J1.166
X7.025 Y58.229 Z-1.216 I1.605 J-1.166
X3.815 Y60.561 Z-1.247 I-1.605 J1.166
X7.025 Y58.229 Z-1.278 I1.605 J-1.166
X3.815 Y60.561 Z-1.309 I-1.605 J1.166
X7.025 Y58.229 Z-1.34 I1.605 J-1.166
X3.815 Y60.561 Z-1.372 I-1.605 J1.166
X7.025 Y58.229 Z-1.403 I1.605 J-1.166
X3.815 Y60.561 Z-1.434 I-1.605 J1.166
X7.025 Y58.229 Z-1.465 I1.605 J-1.166
X3.815 Y60.561 Z-1.496 I-1.605 J1.166
X7.025 Y58.229 Z-1.527 I1.605 J-1.166
X3.815 Y60.561 Z-1.559 I-1.605 J1.166
X7.025 Y58.229 Z-1.59 I1.605 J-1.166
X3.815 Y60.561 Z-1.621 I-1.605 J1.166
X7.025 Y58.229 Z-1.652 I1.605 J-1.166
X3.815 Y60.561 Z-1.683 I-1.605 J1.166
X7.025 Y58.229 Z-1.714 I1.605 J-1.166
X3.815 Y60.561 Z-1.746 I-1.605 J1.166
X7.025 Y58.229 Z-1.777 I1.605 J-1.166
X3.815 Y60.561 Z-1.808 I-1.605 J1.166
X7.025 Y58.229 Z-1.839 I1.605 J-1.166
X3.815 Y60.561 Z-1.87 I-1.605 J1.166
X7.025 Y58.229 Z-1.901 I1.605 J-1.166
X3.815 Y60.561 Z-1.933 I-1.605 J1.166
X7.025 Y58.229 Z-1.964 I1.605 J-1.166
X3.815 Y60.561 Z-1.995 I-1.605 J1.166
X7.025 Y58.229 Z-2.026 I1.605 J-1.166
X3.815 Y60.561 Z-2.057 I-1.605 J1.166
X7.025 Y58.229 Z-2.088 I1.605 J-1.166
X3.815 Y60.561 Z-2.12 I-1.605 J1.166
X7.025 Y58.229 Z-2.151 I1.605 J-1.166
X3.815 Y60.561 Z-2.182 I-1.605 J1.166
X7.025 Y58.229 Z-2.213 I1.605 J-1.166
X3.815 Y60.561 Z-2.244 I-1.605 J1.166
X7.025 Y58.229 Z-2.276 I1.605 J-1.166
X3.815 Y60.561 Z-2.307 I-1.605 J1.166
X7.025 Y58.229 Z-2.338 I1.605 J-1.166
X3.815 Y60.561 Z-2.369 I-1.605 J1.166
X7.025 Y58.229 Z-2.4 I1.605 J-1.166
X3.815 Y60.561 Z-2.431 I-1.605 J1.166
X7.025 Y58.229 Z-2.463 I1.605 J-1.166
X3.815 Y60.561 Z-2.494 I-1.605 J1.166
X7.025 Y58.229 Z-2.525 I1.605 J-1.166
X3.815 Y60.561 Z-2.556 I-1.605 J1.166
X7.025 Y58.229 Z-2.587 I1.605 J-1.166
X3.815 Y60.561 Z-2.618 I-1.605 J1.166
X7.025 Y58.229 Z-2.65 I1.605 J-1.166
X3.815 Y60.561 Z-2.681 I-1.605 J1.166
X7.025 Y58.229 Z-2.712 I1.605 J-1.166
X3.815 Y60.561 Z-2.743 I-1.605 J1.166
X7.025 Y58.229 Z-2.774 I1.605 J-1.166
X3.815 Y60.561 Z-2.805 I-1.605 J1.166
X7.025 Y58.229 Z-2.837 I1.605 J-1.166
X3.815 Y60.561 Z-2.868 I-1.605 J1.166
X7.025 Y58.229 Z-2.899 I1.605 J-1.166
X3.815 Y60.561 Z-2.93 I-1.605 J1.166
X7.025 Y58.229 Z-2.961 I1.605 J-1.166
X3.815 Y60.561 Z-2.992 I-1.605 J1.166
X7.025 Y58.229 Z-3.024 I1.605 J-1.166
X3.815 Y60.561 Z-3.055 I-1.605 J1.166
X7.025 Y58.229 Z-3.086 I1.605 J-1.166
X3.815 Y60.561 Z-3.117 I-1.605 J1.166
X7.025 Y58.229 Z-3.148 I1.605 J-1.166
X3.815 Y60.561 Z-3.179 I-1.605 J1.166
X7.025 Y58.229 Z-3.211 I1.605 J-1.166
X3.815 Y60.561 Z-3.242 I-1.605 J1.166
X7.025 Y58.229 Z-3.273 I1.605 J-1.166
X3.815 Y60.561 Z-3.304 I-1.605 J1.166
X7.025 Y58.229 Z-3.335 I1.605 J-1.166
X3.815 Y60.561 Z-3.366 I-1.605 J1.166
X7.025 Y58.229 Z-3.398 I1.605 J-1.166
X3.815 Y60.561 Z-3.429 I-1.605 J1.166
X7.025 Y58.229 Z-3.46 I1.605 J-1.166
X3.815 Y60.561 Z-3.491 I-1.605 J1.166
X7.025 Y58.229 Z-3.522 I1.605 J-1.166
X3.815 Y60.561 Z-3.554 I-1.605 J1.166
X7.025 Y58.229 Z-3.585 I1.605 J-1.166
X3.815 Y60.561 Z-3.616 I-1.605 J1.166
X7.025 Y58.229 Z-3.647 I1.605 J-1.166
X3.815 Y60.561 Z-3.678 I-1.605 J1.166
X7.025 Y58.229 Z-3.709 I1.605 J-1.166
X3.815 Y60.561 Z-3.741 I-1.605 J1.166
X7.025 Y58.229 Z-3.772 I1.605 J-1.166
X3.815 Y60.561 Z-3.803 I-1.605 J1.166
X7.025 Y58.229 Z-3.834 I1.605 J-1.166
X3.815 Y60.561 Z-3.865 I-1.605 J1.166
X7.025 Y58.229 Z-3.896 I1.605 J-1.166
X3.815 Y60.561 Z-3.928 I-1.605 J1.166
X7.025 Y58.229 Z-3.959 I1.605 J-1.166
X3.815 Y60.561 Z-3.99 I-1.605 J1.166
X7.025 Y58.229 Z-4.021 I1.605 J-1.166
X3.815 Y60.561 Z-4.052 I-1.605 J1.166
X7.025 Y58.229 Z-4.083 I1.605 J-1.166
X3.815 Y60.561 Z-4.115 I-1.605 J1.166
X7.025 Y58.229 Z-4.146 I1.605 J-1.166
X3.815 Y60.561 Z-4.177 I-1.605 J1.166
X7.025 Y58.229 Z-4.208 I1.605 J-1.166
X3.815 Y60.561 Z-4.239 I-1.605 J1.166
X7.025 Y58.229 Z-4.27 I1.605 J-1.166
X3.815 Y60.561 Z-4.302 I-1.605 J1.166
X7.025 Y58.229 Z-4.333 I1.605 J-1.166
X3.815 Y60.561 Z-4.364 I-1.605 J1.166
X7.025 Y58.229 Z-4.395 I1.605 J-1.166
X3.815 Y60.561 Z-4.426 I-1.605 J1.166
X7.025 Y58.229 Z-4.457 I1.605 J-1.166
X3.815 Y60.561 Z-4.489 I-1.605 J1.166
X7.025 Y58.229 Z-4.52 I1.605 J-1.166
X3.815 Y60.561 Z-4.551 I-1.605 J1.166
X7.025 Y58.229 Z-4.582 I1.605 J-1.166
X3.815 Y60.561 Z-4.613 I-1.605 J1.166
X7.025 Y58.229 Z-4.645 I1.605 J-1.166
X3.737 Y60.447 Z-4.675 I-1.605 J1.166
X7.103 Y58.343 I1.683 J-1.052
X3.737 Y60.447 I-1.683 J1.052
X4.175 Y60.548 I0.269 J-0.168
G1 X4.309 Y60.464
X4.369 Y60.426 Z-4.667
X4.426 Y60.391 Z-4.644
X4.477 Y60.359 Z-4.606
X4.52 Y60.332 Z-4.555
X4.552 Y60.312 Z-4.495
X4.572 Y60.3 Z-4.428
X4.579 Y60.295 Z-4.358
G0 Z6.
X29.67 Y59.838
Z2.
G1 Z0.317 F800.
X29.664 Y59.843 Z0.247
X29.645 Y59.857 Z0.18
X29.614 Y59.879 Z0.12
X29.573 Y59.908 Z0.069
X29.525 Y59.944 Z0.031
X29.471 Y59.983 Z0.008
X29.413 Y60.025 Z0.
X29.285 Y60.118
G2 X29.215 Y60.561 I0.187 J0.257
X32.425 Y58.229 Z-0.031 I1.605 J-1.166
X29.215 Y60.561 Z-0.062 I-1.605 J1.166
X32.425 Y58.229 Z-0.094 I1.605 J-1.166
X29.215 Y60.561 Z-0.125 I-1.605 J1.166
X32.425 Y58.229 Z-0.156 I1.605 J-1.166
X29.215 Y60.561 Z-0.187 I-1.605 J1.166
X32.425 Y58.229 Z-0.218 I1.605 J-1.166
X29.215 Y60.561 Z-0.249 I-1.605 J1.166
X32.425 Y58.229 Z-0.281 I1.605 J-1.166
X29.215 Y60.561 Z-0.312 I-1.605 J1.166
X32.425 Y58.229 Z-0.343 I1.605 J-1.166
X29.215 Y60.561 Z-0.374 I-1.605 J1.166
X32.425 Y58.229 Z-0.405 I1.605 J-1.166
X29.215 Y60.561 Z-0.436 I-1.605 J1.166
X32.425 Y58.229 Z-0.468 I1.605 J-1.166
X29.215 Y60.561 Z-0.499 I-1.605 J1.166
X32.425 Y58.229 Z-0.53 I1.605 J-1.166
X29.215 Y60.561 Z-0.561 I-1.605 J1.166
X32.425 Y58.229 Z-0.592 I1.605 J-1.166
X29.215 Y60.561 Z-0.623 I-1.605 J1.166
X32.425 Y58.229 Z-0.655 I1.605 J-1.166
X29.215 Y60.561 Z-0.686 I-1.605 J1.166
X32.425 Y58.229 Z-0.717 I1.605 J-1.166
X29.215 Y60.561 Z-0.748 I-1.605 J1.166
X32.425 Y58.229 Z-0.779 I1.605 J-1.166
X29.215 Y60.561 Z-0.81 I-1.605 J1.166
X32.425 Y58.229 Z-0.842 I1.605 J-1.166
X29.215 Y60.561 Z-0.873 I-1.605 J1.166
X32.425 Y58.229 Z-0.904 I1.605 J-1.166
X29.215 Y60.561 Z-0.935 I-1.605 J1.166
X32.425 Y58.229 Z-0.966 I1.605 J-1.166
X29.215 Y60.561 Z-0.997 I-1.605 J1.166
X32.425 Y58.229 Z-1.029 I1.605 J-1.166
X29.215 Y60.561 Z-1.06 I-1.605 J1.166
X32.425 Y58.229 Z-1.091 I1.605 J-1.166
X29.215 Y60.561 Z-1.122 I-1.605 J1.166
X32.425 Y58.229 Z-1.153 I1.605 J-1.166
X29.215 Y60.561 Z-1.185 I-1.605 J1.166
X32.425 Y58.229 Z-1.216 I1.605 J-1.166
X29.215 Y60.561 Z-1.247 I-1.605 J1.166
X32.425 Y58.229 Z-1.278 I1.605 J-1.166
X29.215 Y60.561 Z-1.309 I-1.605 J1.166
X32.425 Y58.229 Z-1.34 I1.605 J-1.166
X29.215 Y60.561 Z-1.372 I-1.605 J1.166
X32.425 Y58.229 Z-1.403 I1.605 J-1.166
X29.215 Y60.561 Z-1.434 I-1.605 J1.166
X32.425 Y58.229 Z-1.465 I1.605 J-1.166
X29.215 Y60.561 Z-1.496 I-1.605 J1.166
X32.425 Y58.229 Z-1.527 I1.605 J-1.166
X29.215 Y60.561 Z-1.559 I-1.605 J1.166
X32.425 Y58.229 Z-1.59 I1.605 J-1.166
X29.215 Y60.561 Z-1.621 I-1.605 J1.166
X32.425 Y58.229 Z-1.652 I1.605 J-1.166
X29.215 Y60.561 Z-1.683 I-1.605 J1.166
X32.425 Y58.229 Z-1.714 I1.605 J-1.166
X29.215 Y60.561 Z-1.746 I-1.605 J1.166
X32.425 Y58.229 Z-1.777 I1.605 J-1.166
X29.215 Y60.561 Z-1.808 I-1.605 J1.166
X32.425 Y58.229 Z-1.839 I1.605 J-1.166
X29.215 Y60.561 Z-1.87 I-1.605 J1.166
X32.425 Y58.229 Z-1.901 I1.605 J-1.166
X29.215 Y60.561 Z-1.933 I-1.605 J1.166
X32.425 Y58.229 Z-1.964 I1.605 J-1.166
X29.215 Y60.561 Z-1.995 I-1.605 J1.166
X32.425 Y58.229 Z-2.026 I1.605 J-1.166
X29.215 Y60.561 Z-2.057 I-1.605 J1.166
X32.425 Y58.229 Z-2.088 I1.605 J-1.166
X29.215 Y60.561 Z-2.12 I-1.605 J1.166
X32.425 Y58.229 Z-2.151 I1.605 J-1.166
X29.215 Y60.561 Z-2.182 I-1.605 J1.166
X32.425 Y58.229 Z-2.213 I1.605 J-1.166
X29.215 Y60.561 Z-2.244 I-1.605 J1.166
X32.425 Y58.229 Z-2.276 I1.605 J-1.166
X29.215 Y60.561 Z-2.307 I-1.605 J1.166
X32.425 Y58.229 Z-2.338 I1.605 J-1.166
X29.215 Y60.561 Z-2.369 I-1.605 J1.166
X32.425 Y58.229 Z-2.4 I1.605 J-1.166
X29.215 Y60.561 Z-2.431 I-1.605 J1.166
X32.425 Y58.229 Z-2.463 I1.605 J-1.166
X29.215 Y60.561 Z-2.494 I-1.605 J1.166
X32.425 Y58.229 Z-2.525 I1.605 J-1.166
X29.215 Y60.561 Z-2.556 I-1.605 J1.166
X32.425 Y58.229 Z-2.587 I1.605 J-1.166
X29.215 Y60.561 Z-2.618 I-1.605 J1.166
X32.425 Y58.229 Z-2.65 I1.605 J-1.166
X29.215 Y60.561 Z-2.681 I-1.605 J1.166
X32.425 Y58.229 Z-2.712 I1.605 J-1.166
X29.215 Y60.561 Z-2.743 I-1.605 J1.166
X32.425 Y58.229 Z-2.774 I1.605 J-1.166
X29.215 Y60.561 Z-2.805 I-1.605 J1.166
X32.425 Y58.229 Z-2.837 I1.605 J-1.166
X29.215 Y60.561 Z-2.868 I-1.605 J1.166
X32.425 Y58.229 Z-2.899 I1.605 J-1.166
X29.215 Y60.561 Z-2.93 I-1.605 J1.166
X32.425 Y58.229 Z-2.961 I1.605 J-1.166
X29.215 Y60.561 Z-2.992 I-1.605 J1.166
X32.425 Y58.229 Z-3.024 I1.605 J-1.166
X29.215 Y60.561 Z-3.055 I-1.605 J1.166
X32.425 Y58.229 Z-3.086 I1.605 J-1.166
X29.215 Y60.561 Z-3.117 I-1.605 J1.166
X32.425 Y58.229 Z-3.148 I1.605 J-1.166
X29.215 Y60.561 Z-3.179 I-1.605 J1.166
X32.425 Y58.229 Z-3.211 I1.605 J-1.166
X29.215 Y60.561 Z-3.242 I-1.605 J1.166
X32.425 Y58.229 Z-3.273 I1.605 J-1.166
X29.215 Y60.561 Z-3.304 I-1.605 J1.166
X32.425 Y58.229 Z-3.335 I1.605 J-1.166
X29.215 Y60.561 Z-3.366 I-1.605 J1.166
X32.425 Y58.229 Z-3.398 I1.605 J-1.166
X29.215 Y60.561 Z-3.429 I-1.605 J1.166
X32.425 Y58.229 Z-3.46 I1.605 J-1.166
X29.215 Y60.561 Z-3.491 I-1.605 J1.166
X32.425 Y58.229 Z-3.522 I1.605 J-1.166
X29.215 Y60.561 Z-3.554 I-1.605 J1.166
X32.425 Y58.229 Z-3.585 I1.605 J-1.166
X29.215 Y60.561 Z-3.616 I-1.605 J1.166
X32.425 Y58.229 Z-3.647 I1.605 J-1.166
X29.215 Y60.561 Z-3.678 I-1.605 J1.166
X32.425 Y58.229 Z-3.709 I1.605 J-1.166
X29.215 Y60.561 Z-3.741 I-1.605 J1.166
X32.425 Y58.229 Z-3.772 I1.605 J-1.166
X29.215 Y60.561 Z-3.803 I-1.605 J1.166
X32.425 Y58.229 Z-3.834 I1.605 J-1.166
X29.215 Y60.561 Z-3.865 I-1.605 J1.166
X32.425 Y58.229 Z-3.896 I1.605 J-1.166
X29.215 Y60.561 Z-3.928 I-1.605 J1.166
X32.425 Y58.229 Z-3.959 I1.605 J-1.166
X29.215 Y60.561 Z-3.99 I-1.605 J1.166
X32.425 Y58.229 Z-4.021 I1.605 J-1.166
X29.215 Y60.561 Z-4.052 I-1.605 J1.166
X32.425 Y58.229 Z-4.083 I1.605 J-1.166
X29.215 Y60.561 Z-4.115 I-1.605 J1.166
X32.425 Y58.229 Z-4.146 I1.605 J-1.166
X29.215 Y60.561 Z-4.177 I-1.605 J1.166
X32.425 Y58.229 Z-4.208 I1.605 J-1.166
X29.215 Y60.561 Z-4.239 I-1.605 J1.166
X32.425 Y58.229 Z-4.27 I1.605 J-1.166
X29.215 Y60.561 Z-4.302 I-1.605 J1.166
X32.425 Y58.229 Z-4.333 I1.605 J-1.166
X29.215 Y60.561 Z-4.364 I-1.605 J1.166
X32.425 Y58.229 Z-4.395 I1.605 J-1.166
X29.215 Y60.561 Z-4.426 I-1.605 J1.166
X32.425 Y58.229 Z-4.457 I1.605 J-1.166
X29.215 Y60.561 Z-4.489 I-1.605 J1.166
X32.425 Y58.229 Z-4.52 I1.605 J-1.166
X29.215 Y60.561 Z-4.551 I-1.605 J1.166
X32.425 Y58.229 Z-4.582 I1.605 J-1.166
X29.215 Y60.561 Z-4.613 I-1.605 J1.166
X32.425 Y58.229 Z-4.645 I1.605 J-1.166
X29.137 Y60.447 Z-4.675 I-1.605 J1.166
X32.503 Y58.343 I1.683 J-1.052
X29.137 Y60.447 I-1.683 J1.052
X29.575 Y60.548 I0.269 J-0.168
G1 X29.709 Y60.464
X29.769 Y60.426 Z-4.667
X29.826 Y60.391 Z-4.644
X29.877 Y60.359 Z-4.606
X29.92 Y60.332 Z-4.555
X29.952 Y60.312 Z-4.495
X29.972 Y60.3 Z-4.428
X29.979 Y60.295 Z-4.358
G0 Z6.
X29.67 Y75.713
Z2.
G1 Z0.317 F800.
X29.664 Y75.718 Z0.247
X29.645 Y75.732 Z0.18
X29.614 Y75.754 Z0.12
X29.573 Y75.783 Z0.069
X29.525 Y75.819 Z0.031
X29.471 Y75.858 Z0.008
X29.413 Y75.9 Z0.
X29.285 Y75.993
G2 X29.215 Y76.436 I0.187 J0.257
X32.425 Y74.104 Z-0.031 I1.605 J-1.166
X29.215 Y76.436 Z-0.062 I-1.605 J1.166
X32.425 Y74.104 Z-0.094 I1.605 J-1.166
X29.215 Y76.436 Z-0.125 I-1.605 J1.166
X32.425 Y74.104 Z-0.156 I1.605 J-1.166
X29.215 Y76.436 Z-0.187 I-1.605 J1.166
X32.425 Y74.104 Z-0.218 I1.605 J-1.166
X29.215 Y76.436 Z-0.249 I-1.605 J1.166
X32.425 Y74.104 Z-0.281 I1.605 J-1.166
X29.215 Y76.436 Z-0.312 I-1.605 J1.166
X32.425 Y74.104 Z-0.343 I1.605 J-1.166
X29.215 Y76.436 Z-0.374 I-1.605 J1.166
X32.425 Y74.104 Z-0.405 I1.605 J-1.166
X29.215 Y76.436 Z-0.436 I-1.605 J1.166
X32.425 Y74.104 Z-0.468 I1.605 J-1.166
X29.215 Y76.436 Z-0.499 I-1.605 J1.166
X32.425 Y74.104 Z-0.53 I1.605 J-1.166
X29.215 Y76.436 Z-0.561 I-1.605 J1.166
X32.425 Y74.104 Z-0.592 I1.605 J-1.166
X29.215 Y76.436 Z-0.623 I-1.605 J1.166
X32.425 Y74.104 Z-0.655 I1.605 J-1.166
X29.215 Y76.436 Z-0.686 I-1.605 J1.166
X32.425 Y74.104 Z-0.717 I1.605 J-1.166
X29.215 Y76.436 Z-0.748 I-1.605 J1.166
X32.425 Y74.104 Z-0.779 I1.605 J-1.166
X29.215 Y76.436 Z-0.81 I-1.605 J1.166
X32.425 Y74.104 Z-0.842 I1.605 J-1.166
X29.215 Y76.436 Z-0.873 I-1.605 J1.166
X32.425 Y74.104 Z-0.904 I1.605 J-1.166
X29.215 Y76.436 Z-0.935 I-1.605 J1.166
X32.425 Y74.104 Z-0.966 I1.605 J-1.166
X29.215 Y76.436 Z-0.997 I-1.605 J1.166
X32.425 Y74.104 Z-1.029 I1.605 J-1.166
X29.215 Y76.436 Z-1.06 I-1.605 J1.166
X32.425 Y74.104 Z-1.091 I1.605 J-1.166
X29.215 Y76.436 Z-1.122 I-1.605 J1.166
X32.425 Y74.104 Z-1.153 I1.605 J-1.166
X29.215 Y76.436 Z-1.185 I-1.605 J1.166
X32.425 Y74.104 Z-1.216 I1.605 J-1.166
X29.215 Y76.436 Z-1.247 I-1.605 J1.166
X32.425 Y74.104 Z-1.278 I1.605 J-1.166
X29.215 Y76.436 Z-1.309 I-1.605 J1.166
X32.425 Y74.104 Z-1.34 I1.605 J-1.166
X29.215 Y76.436 Z-1.372 I-1.605 J1.166
X32.425 Y74.104 Z-1.403 I1.605 J-1.166
X29.215 Y76.436 Z-1.434 I-1.605 J1.166
X32.425 Y74.104 Z-1.465 I1.605 J-1.166
X29.215 Y76.436 Z-1.496 I-1.605 J1.166
X32.425 Y74.104 Z-1.527 I1.605 J-1.166
X29.215 Y76.436 Z-1.559 I-1.605 J1.166
X32.425 Y74.104 Z-1.59 I1.605 J-1.166
X29.215 Y76.436 Z-1.621 I-1.605 J1.166
X32.425 Y74.104 Z-1.652 I1.605 J-1.166
X29.215 Y76.436 Z-1.683 I-1.605 J1.166
X32.425 Y74.104 Z-1.714 I1.605 J-1.166
X29.215 Y76.436 Z-1.746 I-1.605 J1.166
X32.425 Y74.104 Z-1.777 I1.605 J-1.166
X29.215 Y76.436 Z-1.808 I-1.605 J1.166
X32.425 Y74.104 Z-1.839 I1.605 J-1.166
X29.215 Y76.436 Z-1.87 I-1.605 J1.166
X32.425 Y74.104 Z-1.901 I1.605 J-1.166
X29.215 Y76.436 Z-1.933 I-1.605 J1.166
X32.425 Y74.104 Z-1.964 I1.605 J-1.166
X29.215 Y76.436 Z-1.995 I-1.605 J1.166
X32.425 Y74.104 Z-2.026 I1.605 J-1.166
X29.215 Y76.436 Z-2.057 I-1.605 J1.166
X32.425 Y74.104 Z-2.088 I1.605 J-1.166
X29.215 Y76.436 Z-2.12 I-1.605 J1.166
X32.425 Y74.104 Z-2.151 I1.605 J-1.166
X29.215 Y76.436 Z-2.182 I-1.605 J1.166
X32.425 Y74.104 Z-2.213 I1.605 J-1.166
X29.215 Y76.436 Z-2.244 I-1.605 J1.166
X32.425 Y74.104 Z-2.276 I1.605 J-1.166
X29.215 Y76.436 Z-2.307 I-1.605 J1.166
X32.425 Y74.104 Z-2.338 I1.605 J-1.166
X29.215 Y76.436 Z-2.369 I-1.605 J1.166
X32.425 Y74.104 Z-2.4 I1.605 J-1.166
X29.215 Y76.436 Z-2.431 I-1.605 J1.166
X32.425 Y74.104 Z-2.463 I1.605 J-1.166
X29.215 Y76.436 Z-2.494 I-1.605 J1.166
X32.425 Y74.104 Z-2.525 I1.605 J-1.166
X29.215 Y76.436 Z-2.556 I-1.605 J1.166
X32.425 Y74.104 Z-2.587 I1.605 J-1.166
X29.215 Y76.436 Z-2.618 I-1.605 J1.166
X32.425 Y74.104 Z-2.65 I1.605 J-1.166
X29.215 Y76.436 Z-2.681 I-1.605 J1.166
X32.425 Y74.104 Z-2.712 I1.605 J-1.166
X29.215 Y76.436 Z-2.743 I-1.605 J1.166
X32.425 Y74.104 Z-2.774 I1.605 J-1.166
X29.215 Y76.436 Z-2.805 I-1.605 J1.166
X32.425 Y74.104 Z-2.837 I1.605 J-1.166
X29.215 Y76.436 Z-2.868 I-1.605 J1.166
X32.425 Y74.104 Z-2.899 I1.605 J-1.166
X29.215 Y76.436 Z-2.93 I-1.605 J1.166
X32.425 Y74.104 Z-2.961 I1.605 J-1.166
X29.215 Y76.436 Z-2.992 I-1.605 J1.166
X32.425 Y74.104 Z-3.024 I1.605 J-1.166
X29.215 Y76.436 Z-3.055 I-1.605 J1.166
X32.425 Y74.104 Z-3.086 I1.605 J-1.166
X29.215 Y76.436 Z-3.117 I-1.605 J1.166
X32.425 Y74.104 Z-3.148 I1.605 J-1.166
X29.215 Y76.436 Z-3.179 I-1.605 J1.166
X32.425 Y74.104 Z-3.211 I1.605 J-1.166
X29.215 Y76.436 Z-3.242 I-1.605 J1.166
X32.425 Y74.104 Z-3.273 I1.605 J-1.166
X29.215 Y76.436 Z-3.304 I-1.605 J1.166
X32.425 Y74.104 Z-3.335 I1.605 J-1.166
X29.215 Y76.436 Z-3.366 I-1.605 J1.166
X32.425 Y74.104 Z-3.398 I1.605 J-1.166
X29.215 Y76.436 Z-3.429 I-1.605 J1.166
X32.425 Y74.104 Z-3.46 I1.605 J-1.166
X29.215 Y76.436 Z-3.491 I-1.605 J1.166
X32.425 Y74.104 Z-3.522 I1.605 J-1.166
X29.215 Y76.436 Z-3.554 I-1.605 J1.166
X32.425 Y74.104 Z-3.585 I1.605 J-1.166
X29.215 Y76.436 Z-3.616 I-1.605 J1.166
X32.425 Y74.104 Z-3.647 I1.605 J-1.166
X29.215 Y76.436 Z-3.678 I-1.605 J1.166
X32.425 Y74.104 Z-3.709 I1.605 J-1.166
X29.215 Y76.436 Z-3.741 I-1.605 J1.166
X32.425 Y74.104 Z-3.772 I1.605 J-1.166
X29.215 Y76.436 Z-3.803 I-1.605 J1.166
X32.425 Y74.104 Z-3.834 I1.605 J-1.166
X29.215 Y76.436 Z-3.865 I-1.605 J1.166
X32.425 Y74.104 Z-3.896 I1.605 J-1.166
X29.215 Y76.436 Z-3.928 I-1.605 J1.166
X32.425 Y74.104 Z-3.959 I1.605 J-1.166
X29.215 Y76.436 Z-3.99 I-1.605 J1.166
X32.425 Y74.104 Z-4.021 I1.605 J-1.166
X29.215 Y76.436 Z-4.052 I-1.605 J1.166
X32.425 Y74.104 Z-4.083 I1.605 J-1.166
X29.215 Y76.436 Z-4.115 I-1.605 J1.166
X32.425 Y74.104 Z-4.146 I1.605 J-1.166
X29.215 Y76.436 Z-4.177 I-1.605 J1.166
X32.425 Y74.104 Z-4.208 I1.605 J-1.166
X29.215 Y76.436 Z-4.239 I-1.605 J1.166
X32.425 Y74.104 Z-4.27 I1.605 J-1.166
X29.215 Y76.436 Z-4.302 I-1.605 J1.166
X32.425 Y74.104 Z-4.333 I1.605 J-1.166
X29.215 Y76.436 Z-4.364 I-1.605 J1.166
X32.425 Y74.104 Z-4.395 I1.605 J-1.166
X29.215 Y76.436 Z-4.426 I-1.605 J1.166
X32.425 Y74.104 Z-4.457 I1.605 J-1.166
X29.215 Y76.436 Z-4.489 I-1.605 J1.166
X32.425 Y74.104 Z-4.52 I1.605 J-1.166
X29.215 Y76.436 Z-4.551 I-1.605 J1.166
X32.425 Y74.104 Z-4.582 I1.605 J-1.166
X29.215 Y76.436 Z-4.613 I-1.605 J1.166
X32.425 Y74.104 Z-4.645 I1.605 J-1.166
X29.137 Y76.322 Z-4.675 I-1.605 J1.166
X32.503 Y74.218 I1.683 J-1.052
X29.137 Y76.322 I-1.683 J1.052
X29.575 Y76.423 I0.269 J-0.168
G1 X29.709 Y76.339
X29.769 Y76.301 Z-4.667
X29.826 Y76.266 Z-4.644
X29.877 Y76.234 Z-4.606
X29.92 Y76.207 Z-4.555
X29.952 Y76.187 Z-4.495
X29.972 Y76.175 Z-4.428
X29.979 Y76.17 Z-4.358
G0 Z6.
X55.07 Y75.713
Z2.
G1 Z0.317 F800.
X55.064 Y75.718 Z0.247
X55.045 Y75.732 Z0.18
X55.014 Y75.754 Z0.12
X54.973 Y75.783 Z0.069
X54.925 Y75.819 Z0.031
X54.871 Y75.858 Z0.008
X54.813 Y75.9 Z0.
X54.685 Y75.993
G2 X54.615 Y76.436 I0.187 J0.257
X57.825 Y74.104 Z-0.031 I1.605 J-1.166
X54.615 Y76.436 Z-0.062 I-1.605 J1.166
X57.825 Y74.104 Z-0.094 I1.605 J-1.166
X54.615 Y76.436 Z-0.125 I-1.605 J1.166
X57.825 Y74.104 Z-0.156 I1.605 J-1.166
X54.615 Y76.436 Z-0.187 I-1.605 J1.166
X57.825 Y74.104 Z-0.218 I1.605 J-1.166
X54.615 Y76.436 Z-0.249 I-1.605 J1.166
X57.825 Y74.104 Z-0.281 I1.605 J-1.166
X54.615 Y76.436 Z-0.312 I-1.605 J1.166
X57.825 Y74.104 Z-0.343 I1.605 J-1.166
X54.615 Y76.436 Z-0.374 I-1.605 J1.166
X57.825 Y74.104 Z-0.405 I1.605 J-1.166
X54.615 Y76.436 Z-0.436 I-1.605 J1.166
X57.825 Y74.104 Z-0.468 I1.605 J-1.166
X54.615 Y76.436 Z-0.499 I-1.605 J1.166
X57.825 Y74.104 Z-0.53 I1.605 J-1.166
X54.615 Y76.436 Z-0.561 I-1.605 J1.166
X57.825 Y74.104 Z-0.592 I1.605 J-1.166
X54.615 Y76.436 Z-0.623 I-1.605 J1.166
X57.825 Y74.104 Z-0.655 I1.605 J-1.166
X54.615 Y76.436 Z-0.686 I-1.605 J1.166
X57.825 Y74.104 Z-0.717 I1.605 J-1.166
X54.615 Y76.436 Z-0.748 I-1.605 J1.166
X57.825 Y74.104 Z-0.779 I1.605 J-1.166
X54.615 Y76.436 Z-0.81 I-1.605 J1.166
X57.825 Y74.104 Z-0.842 I1.605 J-1.166
X54.615 Y76.436 Z-0.873 I-1.605 J1.166
X57.825 Y74.104 Z-0.904 I1.605 J-1.166
X54.615 Y76.436 Z-0.935 I-1.605 J1.166
X57.825 Y74.104 Z-0.966 I1.605 J-1.166
X54.615 Y76.436 Z-0.997 I-1.605 J1.166
X57.825 Y74.104 Z-1.029 I1.605 J-1.166
X54.615 Y76.436 Z-1.06 I-1.605 J1.166
X57.825 Y74.104 Z-1.091 I1.605 J-1.166
X54.615 Y76.436 Z-1.122 I-1.605 J1.166
X57.825 Y74.104 Z-1.153 I1.605 J-1.166
X54.615 Y76.436 Z-1.185 I-1.605 J1.166
X57.825 Y74.104 Z-1.216 I1.605 J-1.166
X54.615 Y76.436 Z-1.247 I-1.605 J1.166
X57.825 Y74.104 Z-1.278 I1.605 J-1.166
X54.615 Y76.436 Z-1.309 I-1.605 J1.166
X57.825 Y74.104 Z-1.34 I1.605 J-1.166
X54.615 Y76.436 Z-1.372 I-1.605 J1.166
X57.825 Y74.104 Z-1.403 I1.605 J-1.166
X54.615 Y76.436 Z-1.434 I-1.605 J1.166
X57.825 Y74.104 Z-1.465 I1.605 J-1.166
X54.615 Y76.436 Z-1.496 I-1.605 J1.166
X57.825 Y74.104 Z-1.527 I1.605 J-1.166
X54.615 Y76.436 Z-1.559 I-1.605 J1.166
X57.825 Y74.104 Z-1.59 I1.605 J-1.166
X54.615 Y76.436 Z-1.621 I-1.605 J1.166
X57.825 Y74.104 Z-1.652 I1.605 J-1.166
X54.615 Y76.436 Z-1.683 I-1.605 J1.166
X57.825 Y74.104 Z-1.714 I1.605 J-1.166
X54.615 Y76.436 Z-1.746 I-1.605 J1.166
X57.825 Y74.104 Z-1.777 I1.605 J-1.166
X54.615 Y76.436 Z-1.808 I-1.605 J1.166
X57.825 Y74.104 Z-1.839 I1.605 J-1.166
X54.615 Y76.436 Z-1.87 I-1.605 J1.166
X57.825 Y74.104 Z-1.901 I1.605 J-1.166
X54.615 Y76.436 Z-1.933 I-1.605 J1.166
X57.825 Y74.104 Z-1.964 I1.605 J-1.166
X54.615 Y76.436 Z-1.995 I-1.605 J1.166
X57.825 Y74.104 Z-2.026 I1.605 J-1.166
X54.615 Y76.436 Z-2.057 I-1.605 J1.166
X57.825 Y74.104 Z-2.088 I1.605 J-1.166
X54.615 Y76.436 Z-2.12 I-1.605 J1.166
X57.825 Y74.104 Z-2.151 I1.605 J-1.166
X54.615 Y76.436 Z-2.182 I-1.605 J1.166
X57.825 Y74.104 Z-2.213 I1.605 J-1.166
X54.615 Y76.436 Z-2.244 I-1.605 J1.166
X57.825 Y74.104 Z-2.276 I1.605 J-1.166
X54.615 Y76.436 Z-2.307 I-1.605 J1.166
X57.825 Y74.104 Z-2.338 I1.605 J-1.166
X54.615 Y76.436 Z-2.369 I-1.605 J1.166
X57.825 Y74.104 Z-2.4 I1.605 J-1.166
X54.615 Y76.436 Z-2.431 I-1.605 J1.166
X57.825 Y74.104 Z-2.463 I1.605 J-1.166
X54.615 Y76.436 Z-2.494 I-1.605 J1.166
X57.825 Y74.104 Z-2.525 I1.605 J-1.166
X54.615 Y76.436 Z-2.556 I-1.605 J1.166
X57.825 Y74.104 Z-2.587 I1.605 J-1.166
X54.615 Y76.436 Z-2.618 I-1.605 J1.166
X57.825 Y74.104 Z-2.65 I1.605 J-1.166
X54.615 Y76.436 Z-2.681 I-1.605 J1.166
X57.825 Y74.104 Z-2.712 I1.605 J-1.166
X54.615 Y76.436 Z-2.743 I-1.605 J1.166
X57.825 Y74.104 Z-2.774 I1.605 J-1.166
X54.615 Y76.436 Z-2.805 I-1.605 J1.166
X57.825 Y74.104 Z-2.837 I1.605 J-1.166
X54.615 Y76.436 Z-2.868 I-1.605 J1.166
X57.825 Y74.104 Z-2.899 I1.605 J-1.166
X54.615 Y76.436 Z-2.93 I-1.605 J1.166
X57.825 Y74.104 Z-2.961 I1.605 J-1.166
X54.615 Y76.436 Z-2.992 I-1.605 J1.166
X57.825 Y74.104 Z-3.024 I1.605 J-1.166
X54.615 Y76.436 Z-3.055 I-1.605 J1.166
X57.825 Y74.104 Z-3.086 I1.605 J-1.166
X54.615 Y76.436 Z-3.117 I-1.605 J1.166
X57.825 Y74.104 Z-3.148 I1.605 J-1.166
X54.615 Y76.436 Z-3.179 I-1.605 J1.166
X57.825 Y74.104 Z-3.211 I1.605 J-1.166
X54.615 Y76.436 Z-3.242 I-1.605 J1.166
X57.825 Y74.104 Z-3.273 I1.605 J-1.166
X54.615 Y76.436 Z-3.304 I-1.605 J1.166
X57.825 Y74.104 Z-3.335 I1.605 J-1.166
X54.615 Y76.436 Z-3.366 I-1.605 J1.166
X57.825 Y74.104 Z-3.398 I1.605 J-1.166
X54.615 Y76.436 Z-3.429 I-1.605 J1.166
X57.825 Y74.104 Z-3.46 I1.605 J-1.166
X54.615 Y76.436 Z-3.491 I-1.605 J1.166
X57.825 Y74.104 Z-3.522 I1.605 J-1.166
X54.615 Y76.436 Z-3.554 I-1.605 J1.166
X57.825 Y74.104 Z-3.585 I1.605 J-1.166
X54.615 Y76.436 Z-3.616 I-1.605 J1.166
X57.825 Y74.104 Z-3.647 I1.605 J-1.166
X54.615 Y76.436 Z-3.678 I-1.605 J1.166
X57.825 Y74.104 Z-3.709 I1.605 J-1.166
X54.615 Y76.436 Z-3.741 I-1.605 J1.166
X57.825 Y74.104 Z-3.772 I1.605 J-1.166
X54.615 Y76.436 Z-3.803 I-1.605 J1.166
X57.825 Y74.104 Z-3.834 I1.605 J-1.166
X54.615 Y76.436 Z-3.865 I-1.605 J1.166
X57.825 Y74.104 Z-3.896 I1.605 J-1.166
X54.615 Y76.436 Z-3.928 I-1.605 J1.166
X57.825 Y74.104 Z-3.959 I1.605 J-1.166
X54.615 Y76.436 Z-3.99 I-1.605 J1.166
X57.825 Y74.104 Z-4.021 I1.605 J-1.166
X54.615 Y76.436 Z-4.052 I-1.605 J1.166
X57.825 Y74.104 Z-4.083 I1.605 J-1.166
X54.615 Y76.436 Z-4.115 I-1.605 J1.166
X57.825 Y74.104 Z-4.146 I1.605 J-1.166
X54.615 Y76.436 Z-4.177 I-1.605 J1.166
X57.825 Y74.104 Z-4.208 I1.605 J-1.166
X54.615 Y76.436 Z-4.239 I-1.605 J1.166
X57.825 Y74.104 Z-4.27 I1.605 J-1.166
X54.615 Y76.436 Z-4.302 I-1.605 J1.166
X57.825 Y74.104 Z-4.333 I1.605 J-1.166
X54.615 Y76.436 Z-4.364 I-1.605 J1.166
X57.825 Y74.104 Z-4.395 I1.605 J-1.166
X54.615 Y76.436 Z-4.426 I-1.605 J1.166
X57.825 Y74.104 Z-4.457 I1.605 J-1.166
X54.615 Y76.436 Z-4.489 I-1.605 J1.166
X57.825 Y74.104 Z-4.52 I1.605 J-1.166
X54.615 Y76.436 Z-4.551 I-1.605 J1.166
X57.825 Y74.104 Z-4.582 I1.605 J-1.166
X54.615 Y76.436 Z-4.613 I-1.605 J1.166
X57.825 Y74.104 Z-4.645 I1.605 J-1.166
X54.537 Y76.322 Z-4.675 I-1.605 J1.166
X57.903 Y74.218 I1.683 J-1.052
X54.537 Y76.322 I-1.683 J1.052
X54.975 Y76.423 I0.269 J-0.168
G1 X55.109 Y76.339
X55.169 Y76.301 Z-4.667
X55.226 Y76.266 Z-4.644
X55.277 Y76.234 Z-4.606
X55.32 Y76.207 Z-4.555
X55.352 Y76.187 Z-4.495
X55.372 Y76.175 Z-4.428
X55.379 Y76.17 Z-4.358
G0 Z6.
X55.07 Y59.838
Z2.
G1 Z0.317 F800.
X55.064 Y59.843 Z0.247
X55.045 Y59.857 Z0.18
X55.014 Y59.879 Z0.12
X54.973 Y59.908 Z0.069
X54.925 Y59.944 Z0.031
X54.871 Y59.983 Z0.008
X54.813 Y60.025 Z0.
X54.685 Y60.118
G2 X54.615 Y60.561 I0.187 J0.257
X57.825 Y58.229 Z-0.031 I1.605 J-1.166
X54.615 Y60.561 Z-0.062 I-1.605 J1.166
X57.825 Y58.229 Z-0.094 I1.605 J-1.166
X54.615 Y60.561 Z-0.125 I-1.605 J1.166
X57.825 Y58.229 Z-0.156 I1.605 J-1.166
X54.615 Y60.561 Z-0.187 I-1.605 J1.166
X57.825 Y58.229 Z-0.218 I1.605 J-1.166
X54.615 Y60.561 Z-0.249 I-1.605 J1.166
X57.825 Y58.229 Z-0.281 I1.605 J-1.166
X54.615 Y60.561 Z-0.312 I-1.605 J1.166
X57.825 Y58.229 Z-0.343 I1.605 J-1.166
X54.615 Y60.561 Z-0.374 I-1.605 J1.166
X57.825 Y58.229 Z-0.405 I1.605 J-1.166
X54.615 Y60.561 Z-0.436 I-1.605 J1.166
X57.825 Y58.229 Z-0.468 I1.605 J-1.166
X54.615 Y60.561 Z-0.499 I-1.605 J1.166
X57.825 Y58.229 Z-0.53 I1.605 J-1.166
X54.615 Y60.561 Z-0.561 I-1.605 J1.166
X57.825 Y58.229 Z-0.592 I1.605 J-1.166
X54.615 Y60.561 Z-0.623 I-1.605 J1.166
X57.825 Y58.229 Z-0.655 I1.605 J-1.166
X54.615 Y60.561 Z-0.686 I-1.605 J1.166
X57.825 Y58.229 Z-0.717 I1.605 J-1.166
X54.615 Y60.561 Z-0.748 I-1.605 J1.166
X57.825 Y58.229 Z-0.779 I1.605 J-1.166
X54.615 Y60.561 Z-0.81 I-1.605 J1.166
X57.825 Y58.229 Z-0.842 I1.605 J-1.166
X54.615 Y60.561 Z-0.873 I-1.605 J1.166
X57.825 Y58.229 Z-0.904 I1.605 J-1.166
X54.615 Y60.561 Z-0.935 I-1.605 J1.166
X57.825 Y58.229 Z-0.966 I1.605 J-1.166
X54.615 Y60.561 Z-0.997 I-1.605 J1.166
X57.825 Y58.229 Z-1.029 I1.605 J-1.166
X54.615 Y60.561 Z-1.06 I-1.605 J1.166
X57.825 Y58.229 Z-1.091 I1.605 J-1.166
X54.615 Y60.561 Z-1.122 I-1.605 J1.166
X57.825 Y58.229 Z-1.153 I1.605 J-1.166
X54.615 Y60.561 Z-1.185 I-1.605 J1.166
X57.825 Y58.229 Z-1.216 I1.605 J-1.166
X54.615 Y60.561 Z-1.247 I-1.605 J1.166
X57.825 Y58.229 Z-1.278 I1.605 J-1.166
X54.615 Y60.561 Z-1.309 I-1.605 J1.166
X57.825 Y58.229 Z-1.34 I1.605 J-1.166
X54.615 Y60.561 Z-1.372 I-1.605 J1.166
X57.825 Y58.229 Z-1.403 I1.605 J-1.166
X54.615 Y60.561 Z-1.434 I-1.605 J1.166
X57.825 Y58.229 Z-1.465 I1.605 J-1.166
X54.615 Y60.561 Z-1.496 I-1.605 J1.166
X57.825 Y58.229 Z-1.527 I1.605 J-1.166
X54.615 Y60.561 Z-1.559 I-1.605 J1.166
X57.825 Y58.229 Z-1.59 I1.605 J-1.166
X54.615 Y60.561 Z-1.621 I-1.605 J1.166
X57.825 Y58.229 Z-1.652 I1.605 J-1.166
X54.615 Y60.561 Z-1.683 I-1.605 J1.166
X57.825 Y58.229 Z-1.714 I1.605 J-1.166
X54.615 Y60.561 Z-1.746 I-1.605 J1.166
X57.825 Y58.229 Z-1.777 I1.605 J-1.166
X54.615 Y60.561 Z-1.808 I-1.605 J1.166
X57.825 Y58.229 Z-1.839 I1.605 J-1.166
X54.615 Y60.561 Z-1.87 I-1.605 J1.166
X57.825 Y58.229 Z-1.901 I1.605 J-1.166
X54.615 Y60.561 Z-1.933 I-1.605 J1.166
X57.825 Y58.229 Z-1.964 I1.605 J-1.166
X54.615 Y60.561 Z-1.995 I-1.605 J1.166
X57.825 Y58.229 Z-2.026 I1.605 J-1.166
X54.615 Y60.561 Z-2.057 I-1.605 J1.166
X57.825 Y58.229 Z-2.088 I1.605 J-1.166
X54.615 Y60.561 Z-2.12 I-1.605 J1.166
X57.825 Y58.229 Z-2.151 I1.605 J-1.166
X54.615 Y60.561 Z-2.182 I-1.605 J1.166
X57.825 Y58.229 Z-2.213 I1.605 J-1.166
X54.615 Y60.561 Z-2.244 I-1.605 J1.166
X57.825 Y58.229 Z-2.276 I1.605 J-1.166
X54.615 Y60.561 Z-2.307 I-1.605 J1.166
X57.825 Y58.229 Z-2.338 I1.605 J-1.166
X54.615 Y60.561 Z-2.369 I-1.605 J1.166
X57.825 Y58.229 Z-2.4 I1.605 J-1.166
X54.615 Y60.561 Z-2.431 I-1.605 J1.166
X57.825 Y58.229 Z-2.463 I1.605 J-1.166
X54.615 Y60.561 Z-2.494 I-1.605 J1.166
X57.825 Y58.229 Z-2.525 I1.605 J-1.166
X54.615 Y60.561 Z-2.556 I-1.605 J1.166
X57.825 Y58.229 Z-2.587 I1.605 J-1.166
X54.615 Y60.561 Z-2.618 I-1.605 J1.166
X57.825 Y58.229 Z-2.65 I1.605 J-1.166
X54.615 Y60.561 Z-2.681 I-1.605 J1.166
X57.825 Y58.229 Z-2.712 I1.605 J-1.166
X54.615 Y60.561 Z-2.743 I-1.605 J1.166
X57.825 Y58.229 Z-2.774 I1.605 J-1.166
X54.615 Y60.561 Z-2.805 I-1.605 J1.166
X57.825 Y58.229 Z-2.837 I1.605 J-1.166
X54.615 Y60.561 Z-2.868 I-1.605 J1.166
X57.825 Y58.229 Z-2.899 I1.605 J-1.166
X54.615 Y60.561 Z-2.93 I-1.605 J1.166
X57.825 Y58.229 Z-2.961 I1.605 J-1.166
X54.615 Y60.561 Z-2.992 I-1.605 J1.166
X57.825 Y58.229 Z-3.024 I1.605 J-1.166
X54.615 Y60.561 Z-3.055 I-1.605 J1.166
X57.825 Y58.229 Z-3.086 I1.605 J-1.166
X54.615 Y60.561 Z-3.117 I-1.605 J1.166
X57.825 Y58.229 Z-3.148 I1.605 J-1.166
X54.615 Y60.561 Z-3.179 I-1.605 J1.166
X57.825 Y58.229 Z-3.211 I1.605 J-1.166
X54.615 Y60.561 Z-3.242 I-1.605 J1.166
X57.825 Y58.229 Z-3.273 I1.605 J-1.166
X54.615 Y60.561 Z-3.304 I-1.605 J1.166
X57.825 Y58.229 Z-3.335 I1.605 J-1.166
X54.615 Y60.561 Z-3.366 I-1.605 J1.166
X57.825 Y58.229 Z-3.398 I1.605 J-1.166
X54.615 Y60.561 Z-3.429 I-1.605 J1.166
X57.825 Y58.229 Z-3.46 I1.605 J-1.166
X54.615 Y60.561 Z-3.491 I-1.605 J1.166
X57.825 Y58.229 Z-3.522 I1.605 J-1.166
X54.615 Y60.561 Z-3.554 I-1.605 J1.166
X57.825 Y58.229 Z-3.585 I1.605 J-1.166
X54.615 Y60.561 Z-3.616 I-1.605 J1.166
X57.825 Y58.229 Z-3.647 I1.605 J-1.166
X54.615 Y60.561 Z-3.678 I-1.605 J1.166
X57.825 Y58.229 Z-3.709 I1.605 J-1.166
X54.615 Y60.561 Z-3.741 I-1.605 J1.166
X57.825 Y58.229 Z-3.772 I1.605 J-1.166
X54.615 Y60.561 Z-3.803 I-1.605 J1.166
X57.825 Y58.229 Z-3.834 I1.605 J-1.166
X54.615 Y60.561 Z-3.865 I-1.605 J1.166
X57.825 Y58.229 Z-3.896 I1.605 J-1.166
X54.615 Y60.561 Z-3.928 I-1.605 J1.166
X57.825 Y58.229 Z-3.959 I1.605 J-1.166
X54.615 Y60.561 Z-3.99 I-1.605 J1.166
X57.825 Y58.229 Z-4.021 I1.605 J-1.166
X54.615 Y60.561 Z-4.052 I-1.605 J1.166
X57.825 Y58.229 Z-4.083 I1.605 J-1.166
X54.615 Y60.561 Z-4.115 I-1.605 J1.166
X57.825 Y58.229 Z-4.146 I1.605 J-1.166
X54.615 Y60.561 Z-4.177 I-1.605 J1.166
X57.825 Y58.229 Z-4.208 I1.605 J-1.166
X54.615 Y60.561 Z-4.239 I-1.605 J1.166
X57.825 Y58.229 Z-4.27 I1.605 J-1.166
X54.615 Y60.561 Z-4.302 I-1.605 J1.166
X57.825 Y58.229 Z-4.333 I1.605 J-1.166
X54.615 Y60.561 Z-4.364 I-1.605 J1.166
X57.825 Y58.229 Z-4.395 I1.605 J-1.166
X54.615 Y60.561 Z-4.426 I-1.605 J1.166
X57.825 Y58.229 Z-4.457 I1.605 J-1.166
X54.615 Y60.561 Z-4.489 I-1.605 J1.166
X57.825 Y58.229 Z-4.52 I1.605 J-1.166
X54.615 Y60.561 Z-4.551 I-1.605 J1.166
X57.825 Y58.229 Z-4.582 I1.605 J-1.166
X54.615 Y60.561 Z-4.613 I-1.605 J1.166
X57.825 Y58.229 Z-4.645 I1.605 J-1.166
X54.537 Y60.447 Z-4.675 I-1.605 J1.166
X57.903 Y58.343 I1.683 J-1.052
X54.537 Y60.447 I-1.683 J1.052
X54.975 Y60.548 I0.269 J-0.168
G1 X55.109 Y60.464
X55.169 Y60.426 Z-4.667
X55.226 Y60.391 Z-4.644
X55.277 Y60.359 Z-4.606
X55.32 Y60.332 Z-4.555
X55.352 Y60.312 Z-4.495
X55.372 Y60.3 Z-4.428
X55.379 Y60.295 Z-4.358
G0 Z6.
X80.47 Y59.838
Z2.
G1 Z0.317 F800.
X80.464 Y59.843 Z0.247
X80.445 Y59.857 Z0.18
X80.414 Y59.879 Z0.12
X80.373 Y59.908 Z0.069
X80.325 Y59.944 Z0.031
X80.27 Y59.983 Z0.008
X80.213 Y60.025 Z0.
X80.085 Y60.118
G2 X80.015 Y60.561 I0.187 J0.257
X83.225 Y58.229 Z-0.031 I1.605 J-1.166
X80.015 Y60.561 Z-0.062 I-1.605 J1.166
X83.225 Y58.229 Z-0.094 I1.605 J-1.166
X80.015 Y60.561 Z-0.125 I-1.605 J1.166
X83.225 Y58.229 Z-0.156 I1.605 J-1.166
X80.015 Y60.561 Z-0.187 I-1.605 J1.166
X83.225 Y58.229 Z-0.218 I1.605 J-1.166
X80.015 Y60.561 Z-0.249 I-1.605 J1.166
X83.225 Y58.229 Z-0.281 I1.605 J-1.166
X80.015 Y60.561 Z-0.312 I-1.605 J1.166
X83.225 Y58.229 Z-0.343 I1.605 J-1.166
X80.015 Y60.561 Z-0.374 I-1.605 J1.166
X83.225 Y58.229 Z-0.405 I1.605 J-1.166
X80.015 Y60.561 Z-0.436 I-1.605 J1.166
X83.225 Y58.229 Z-0.468 I1.605 J-1.166
X80.015 Y60.561 Z-0.499 I-1.605 J1.166
X83.225 Y58.229 Z-0.53 I1.605 J-1.166
X80.015 Y60.561 Z-0.561 I-1.605 J1.166
X83.225 Y58.229 Z-0.592 I1.605 J-1.166
X80.015 Y60.561 Z-0.623 I-1.605 J1.166
X83.225 Y58.229 Z-0.655 I1.605 J-1.166
X80.015 Y60.561 Z-0.686 I-1.605 J1.166
X83.225 Y58.229 Z-0.717 I1.605 J-1.166
X80.015 Y60.561 Z-0.748 I-1.605 J1.166
X83.225 Y58.229 Z-0.779 I1.605 J-1.166
X80.015 Y60.561 Z-0.81 I-1.605 J1.166
X83.225 Y58.229 Z-0.842 I1.605 J-1.166
X80.015 Y60.561 Z-0.873 I-1.605 J1.166
X83.225 Y58.229 Z-0.904 I1.605 J-1.166
X80.015 Y60.561 Z-0.935 I-1.605 J1.166
X83.225 Y58.229 Z-0.966 I1.605 J-1.166
X80.015 Y60.561 Z-0.997 I-1.605 J1.166
X83.225 Y58.229 Z-1.029 I1.605 J-1.166
X80.015 Y60.561 Z-1.06 I-1.605 J1.166
X83.225 Y58.229 Z-1.091 I1.605 J-1.166
X80.015 Y60.561 Z-1.122 I-1.605 J1.166
X83.225 Y58.229 Z-1.153 I1.605 J-1.166
X80.015 Y60.561 Z-1.185 I-1.605 J1.166
X83.225 Y58.229 Z-1.216 I1.605 J-1.166
X80.015 Y60.561 Z-1.247 I-1.605 J1.166
X83.225 Y58.229 Z-1.278 I1.605 J-1.166
X80.015 Y60.561 Z-1.309 I-1.605 J1.166
X83.225 Y58.229 Z-1.34 I1.605 J-1.166
X80.015 Y60.561 Z-1.372 I-1.605 J1.166
X83.225 Y58.229 Z-1.403 I1.605 J-1.166
X80.015 Y60.561 Z-1.434 I-1.605 J1.166
X83.225 Y58.229 Z-1.465 I1.605 J-1.166
X80.015 Y60.561 Z-1.496 I-1.605 J1.166
X83.225 Y58.229 Z-1.527 I1.605 J-1.166
X80.015 Y60.561 Z-1.559 I-1.605 J1.166
X83.225 Y58.229 Z-1.59 I1.605 J-1.166
X80.015 Y60.561 Z-1.621 I-1.605 J1.166
X83.225 Y58.229 Z-1.652 I1.605 J-1.166
X80.015 Y60.561 Z-1.683 I-1.605 J1.166
X83.225 Y58.229 Z-1.714 I1.605 J-1.166
X80.015 Y60.561 Z-1.746 I-1.605 J1.166
X83.225 Y58.229 Z-1.777 I1.605 J-1.166
X80.015 Y60.561 Z-1.808 I-1.605 J1.166
X83.225 Y58.229 Z-1.839 I1.605 J-1.166
X80.015 Y60.561 Z-1.87 I-1.605 J1.166
X83.225 Y58.229 Z-1.901 I1.605 J-1.166
X80.015 Y60.561 Z-1.933 I-1.605 J1.166
X83.225 Y58.229 Z-1.964 I1.605 J-1.166
X80.015 Y60.561 Z-1.995 I-1.605 J1.166
X83.225 Y58.229 Z-2.026 I1.605 J-1.166
X80.015 Y60.561 Z-2.057 I-1.605 J1.166
X83.225 Y58.229 Z-2.088 I1.605 J-1.166
X80.015 Y60.561 Z-2.12 I-1.605 J1.166
X83.225 Y58.229 Z-2.151 I1.605 J-1.166
X80.015 Y60.561 Z-2.182 I-1.605 J1.166
X83.225 Y58.229 Z-2.213 I1.605 J-1.166
X80.015 Y60.561 Z-2.244 I-1.605 J1.166
X83.225 Y58.229 Z-2.276 I1.605 J-1.166
X80.015 Y60.561 Z-2.307 I-1.605 J1.166
X83.225 Y58.229 Z-2.338 I1.605 J-1.166
X80.015 Y60.561 Z-2.369 I-1.605 J1.166
X83.225 Y58.229 Z-2.4 I1.605 J-1.166
X80.015 Y60.561 Z-2.431 I-1.605 J1.166
X83.225 Y58.229 Z-2.463 I1.605 J-1.166
X80.015 Y60.561 Z-2.494 I-1.605 J1.166
X83.225 Y58.229 Z-2.525 I1.605 J-1.166
X80.015 Y60.561 Z-2.556 I-1.605 J1.166
X83.225 Y58.229 Z-2.587 I1.605 J-1.166
X80.015 Y60.561 Z-2.618 I-1.605 J1.166
X83.225 Y58.229 Z-2.65 I1.605 J-1.166
X80.015 Y60.561 Z-2.681 I-1.605 J1.166
X83.225 Y58.229 Z-2.712 I1.605 J-1.166
X80.015 Y60.561 Z-2.743 I-1.605 J1.166
X83.225 Y58.229 Z-2.774 I1.605 J-1.166
X80.015 Y60.561 Z-2.805 I-1.605 J1.166
X83.225 Y58.229 Z-2.837 I1.605 J-1.166
X80.015 Y60.561 Z-2.868 I-1.605 J1.166
X83.225 Y58.229 Z-2.899 I1.605 J-1.166
X80.015 Y60.561 Z-2.93 I-1.605 J1.166
X83.225 Y58.229 Z-2.961 I1.605 J-1.166
X80.015 Y60.561 Z-2.992 I-1.605 J1.166
X83.225 Y58.229 Z-3.024 I1.605 J-1.166
X80.015 Y60.561 Z-3.055 I-1.605 J1.166
X83.225 Y58.229 Z-3.086 I1.605 J-1.166
X80.015 Y60.561 Z-3.117 I-1.605 J1.166
X83.225 Y58.229 Z-3.148 I1.605 J-1.166
X80.015 Y60.561 Z-3.179 I-1.605 J1.166
X83.225 Y58.229 Z-3.211 I1.605 J-1.166
X80.015 Y60.561 Z-3.242 I-1.605 J1.166
X83.225 Y58.229 Z-3.273 I1.605 J-1.166
X80.015 Y60.561 Z-3.304 I-1.605 J1.166
X83.225 Y58.229 Z-3.335 I1.605 J-1.166
X80.015 Y60.561 Z-3.366 I-1.605 J1.166
X83.225 Y58.229 Z-3.398 I1.605 J-1.166
X80.015 Y60.561 Z-3.429 I-1.605 J1.166
X83.225 Y58.229 Z-3.46 I1.605 J-1.166
X80.015 Y60.561 Z-3.491 I-1.605 J1.166
X83.225 Y58.229 Z-3.522 I1.605 J-1.166
X80.015 Y60.561 Z-3.554 I-1.605 J1.166
X83.225 Y58.229 Z-3.585 I1.605 J-1.166
X80.015 Y60.561 Z-3.616 I-1.605 J1.166
X83.225 Y58.229 Z-3.647 I1.605 J-1.166
X80.015 Y60.561 Z-3.678 I-1.605 J1.166
X83.225 Y58.229 Z-3.709 I1.605 J-1.166
X80.015 Y60.561 Z-3.741 I-1.605 J1.166
X83.225 Y58.229 Z-3.772 I1.605 J-1.166
X80.015 Y60.561 Z-3.803 I-1.605 J1.166
X83.225 Y58.229 Z-3.834 I1.605 J-1.166
X80.015 Y60.561 Z-3.865 I-1.605 J1.166
X83.225 Y58.229 Z-3.896 I1.605 J-1.166
X80.015 Y60.561 Z-3.928 I-1.605 J1.166
X83.225 Y58.229 Z-3.959 I1.605 J-1.166
X80.015 Y60.561 Z-3.99 I-1.605 J1.166
X83.225 Y58.229 Z-4.021 I1.605 J-1.166
X80.015 Y60.561 Z-4.052 I-1.605 J1.166
X83.225 Y58.229 Z-4.083 I1.605 J-1.166
X80.015 Y60.561 Z-4.115 I-1.605 J1.166
X83.225 Y58.229 Z-4.146 I1.605 J-1.166
X80.015 Y60.561 Z-4.177 I-1.605 J1.166
X83.225 Y58.229 Z-4.208 I1.605 J-1.166
X80.015 Y60.561 Z-4.239 I-1.605 J1.166
X83.225 Y58.229 Z-4.27 I1.605 J-1.166
X80.015 Y60.561 Z-4.302 I-1.605 J1.166
X83.225 Y58.229 Z-4.333 I1.605 J-1.166
X80.015 Y60.561 Z-4.364 I-1.605 J1.166
X83.225 Y58.229 Z-4.395 I1.605 J-1.166
X80.015 Y60.561 Z-4.426 I-1.605 J1.166
X83.225 Y58.229 Z-4.457 I1.605 J-1.166
X80.015 Y60.561 Z-4.489 I-1.605 J1.166
X83.225 Y58.229 Z-4.52 I1.605 J-1.166
X80.015 Y60.561 Z-4.551 I-1.605 J1.166
X83.225 Y58.229 Z-4.582 I1.605 J-1.166
X80.015 Y60.561 Z-4.613 I-1.605 J1.166
X83.225 Y58.229 Z-4.645 I1.605 J-1.166
X79.937 Y60.447 Z-4.675 I-1.605 J1.166
X83.303 Y58.343 I1.683 J-1.052
X79.937 Y60.447 I-1.683 J1.052
X80.375 Y60.548 I0.269 J-0.168
G1 X80.509 Y60.464
X80.569 Y60.426 Z-4.667
X80.626 Y60.391 Z-4.644
X80.677 Y60.359 Z-4.606
X80.72 Y60.332 Z-4.555
X80.752 Y60.312 Z-4.495
X80.772 Y60.3 Z-4.428
X80.779 Y60.295 Z-4.358
G0 Z6.
X80.47 Y75.713
Z2.
G1 Z0.317 F800.
X80.464 Y75.718 Z0.247
X80.445 Y75.732 Z0.18
X80.414 Y75.754 Z0.12
X80.373 Y75.783 Z0.069
X80.325 Y75.819 Z0.031
X80.27 Y75.858 Z0.008
X80.213 Y75.9 Z0.
X80.085 Y75.993
G2 X80.015 Y76.436 I0.187 J0.257
X83.225 Y74.104 Z-0.031 I1.605 J-1.166
X80.015 Y76.436 Z-0.062 I-1.605 J1.166
X83.225 Y74.104 Z-0.094 I1.605 J-1.166
X80.015 Y76.436 Z-0.125 I-1.605 J1.166
X83.225 Y74.104 Z-0.156 I1.605 J-1.166
X80.015 Y76.436 Z-0.187 I-1.605 J1.166
X83.225 Y74.104 Z-0.218 I1.605 J-1.166
X80.015 Y76.436 Z-0.249 I-1.605 J1.166
X83.225 Y74.104 Z-0.281 I1.605 J-1.166
X80.015 Y76.436 Z-0.312 I-1.605 J1.166
X83.225 Y74.104 Z-0.343 I1.605 J-1.166
X80.015 Y76.436 Z-0.374 I-1.605 J1.166
X83.225 Y74.104 Z-0.405 I1.605 J-1.166
X80.015 Y76.436 Z-0.436 I-1.605 J1.166
X83.225 Y74.104 Z-0.468 I1.605 J-1.166
X80.015 Y76.436 Z-0.499 I-1.605 J1.166
X83.225 Y74.104 Z-0.53 I1.605 J-1.166
X80.015 Y76.436 Z-0.561 I-1.605 J1.166
X83.225 Y74.104 Z-0.592 I1.605 J-1.166
X80.015 Y76.436 Z-0.623 I-1.605 J1.166
X83.225 Y74.104 Z-0.655 I1.605 J-1.166
X80.015 Y76.436 Z-0.686 I-1.605 J1.166
X83.225 Y74.104 Z-0.717 I1.605 J-1.166
X80.015 Y76.436 Z-0.748 I-1.605 J1.166
X83.225 Y74.104 Z-0.779 I1.605 J-1.166
X80.015 Y76.436 Z-0.81 I-1.605 J1.166
X83.225 Y74.104 Z-0.842 I1.605 J-1.166
X80.015 Y76.436 Z-0.873 I-1.605 J1.166
X83.225 Y74.104 Z-0.904 I1.605 J-1.166
X80.015 Y76.436 Z-0.935 I-1.605 J1.166
X83.225 Y74.104 Z-0.966 I1.605 J-1.166
X80.015 Y76.436 Z-0.997 I-1.605 J1.166
X83.225 Y74.104 Z-1.029 I1.605 J-1.166
X80.015 Y76.436 Z-1.06 I-1.605 J1.166
X83.225 Y74.104 Z-1.091 I1.605 J-1.166
X80.015 Y76.436 Z-1.122 I-1.605 J1.166
X83.225 Y74.104 Z-1.153 I1.605 J-1.166
X80.015 Y76.436 Z-1.185 I-1.605 J1.166
X83.225 Y74.104 Z-1.216 I1.605 J-1.166
X80.015 Y76.436 Z-1.247 I-1.605 J1.166
X83.225 Y74.104 Z-1.278 I1.605 J-1.166
X80.015 Y76.436 Z-1.309 I-1.605 J1.166
X83.225 Y74.104 Z-1.34 I1.605 J-1.166
X80.015 Y76.436 Z-1.372 I-1.605 J1.166
X83.225 Y74.104 Z-1.403 I1.605 J-1.166
X80.015 Y76.436 Z-1.434 I-1.605 J1.166
X83.225 Y74.104 Z-1.465 I1.605 J-1.166
X80.015 Y76.436 Z-1.496 I-1.605 J1.166
X83.225 Y74.104 Z-1.527 I1.605 J-1.166
X80.015 Y76.436 Z-1.559 I-1.605 J1.166
X83.225 Y74.104 Z-1.59 I1.605 J-1.166
X80.015 Y76.436 Z-1.621 I-1.605 J1.166
X83.225 Y74.104 Z-1.652 I1.605 J-1.166
X80.015 Y76.436 Z-1.683 I-1.605 J1.166
X83.225 Y74.104 Z-1.714 I1.605 J-1.166
X80.015 Y76.436 Z-1.746 I-1.605 J1.166
X83.225 Y74.104 Z-1.777 I1.605 J-1.166
X80.015 Y76.436 Z-1.808 I-1.605 J1.166
X83.225 Y74.104 Z-1.839 I1.605 J-1.166
X80.015 Y76.436 Z-1.87 I-1.605 J1.166
X83.225 Y74.104 Z-1.901 I1.605 J-1.166
X80.015 Y76.436 Z-1.933 I-1.605 J1.166
X83.225 Y74.104 Z-1.964 I1.605 J-1.166
X80.015 Y76.436 Z-1.995 I-1.605 J1.166
X83.225 Y74.104 Z-2.026 I1.605 J-1.166
X80.015 Y76.436 Z-2.057 I-1.605 J1.166
X83.225 Y74.104 Z-2.088 I1.605 J-1.166
X80.015 Y76.436 Z-2.12 I-1.605 J1.166
X83.225 Y74.104 Z-2.151 I1.605 J-1.166
X80.015 Y76.436 Z-2.182 I-1.605 J1.166
X83.225 Y74.104 Z-2.213 I1.605 J-1.166
X80.015 Y76.436 Z-2.244 I-1.605 J1.166
X83.225 Y74.104 Z-2.276 I1.605 J-1.166
X80.015 Y76.436 Z-2.307 I-1.605 J1.166
X83.225 Y74.104 Z-2.338 I1.605 J-1.166
X80.015 Y76.436 Z-2.369 I-1.605 J1.166
X83.225 Y74.104 Z-2.4 I1.605 J-1.166
X80.015 Y76.436 Z-2.431 I-1.605 J1.166
X83.225 Y74.104 Z-2.463 I1.605 J-1.166
X80.015 Y76.436 Z-2.494 I-1.605 J1.166
X83.225 Y74.104 Z-2.525 I1.605 J-1.166
X80.015 Y76.436 Z-2.556 I-1.605 J1.166
X83.225 Y74.104 Z-2.587 I1.605 J-1.166
X80.015 Y76.436 Z-2.618 I-1.605 J1.166
X83.225 Y74.104 Z-2.65 I1.605 J-1.166
X80.015 Y76.436 Z-2.681 I-1.605 J1.166
X83.225 Y74.104 Z-2.712 I1.605 J-1.166
X80.015 Y76.436 Z-2.743 I-1.605 J1.166
X83.225 Y74.104 Z-2.774 I1.605 J-1.166
X80.015 Y76.436 Z-2.805 I-1.605 J1.166
X83.225 Y74.104 Z-2.837 I1.605 J-1.166
X80.015 Y76.436 Z-2.868 I-1.605 J1.166
X83.225 Y74.104 Z-2.899 I1.605 J-1.166
X80.015 Y76.436 Z-2.93 I-1.605 J1.166
X83.225 Y74.104 Z-2.961 I1.605 J-1.166
X80.015 Y76.436 Z-2.992 I-1.605 J1.166
X83.225 Y74.104 Z-3.024 I1.605 J-1.166
X80.015 Y76.436 Z-3.055 I-1.605 J1.166
X83.225 Y74.104 Z-3.086 I1.605 J-1.166
X80.015 Y76.436 Z-3.117 I-1.605 J1.166
X83.225 Y74.104 Z-3.148 I1.605 J-1.166
X80.015 Y76.436 Z-3.179 I-1.605 J1.166
X83.225 Y74.104 Z-3.211 I1.605 J-1.166
X80.015 Y76.436 Z-3.242 I-1.605 J1.166
X83.225 Y74.104 Z-3.273 I1.605 J-1.166
X80.015 Y76.436 Z-3.304 I-1.605 J1.166
X83.225 Y74.104 Z-3.335 I1.605 J-1.166
X80.015 Y76.436 Z-3.366 I-1.605 J1.166
X83.225 Y74.104 Z-3.398 I1.605 J-1.166
X80.015 Y76.436 Z-3.429 I-1.605 J1.166
X83.225 Y74.104 Z-3.46 I1.605 J-1.166
X80.015 Y76.436 Z-3.491 I-1.605 J1.166
X83.225 Y74.104 Z-3.522 I1.605 J-1.166
X80.015 Y76.436 Z-3.554 I-1.605 J1.166
X83.225 Y74.104 Z-3.585 I1.605 J-1.166
X80.015 Y76.436 Z-3.616 I-1.605 J1.166
X83.225 Y74.104 Z-3.647 I1.605 J-1.166
X80.015 Y76.436 Z-3.678 I-1.605 J1.166
X83.225 Y74.104 Z-3.709 I1.605 J-1.166
X80.015 Y76.436 Z-3.741 I-1.605 J1.166
X83.225 Y74.104 Z-3.772 I1.605 J-1.166
X80.015 Y76.436 Z-3.803 I-1.605 J1.166
X83.225 Y74.104 Z-3.834 I1.605 J-1.166
X80.015 Y76.436 Z-3.865 I-1.605 J1.166
X83.225 Y74.104 Z-3.896 I1.605 J-1.166
