(X4 TOP INTAKE PLATE HOLES)
(T3  D=0.118 CR=0. - ZMIN=-0.14 - FLAT END MILL)
G90 G94 G91.1 G40 G49 G17
G20

(2D POCKET1)
M5
T3 M6
S15000 M3
g4 p5
g0 z.5
G54
M8
G0 X1.8399 Y1.8321
G43 Z0.6 H3
Z0.2
G1 Z0.1118 F30.
X1.8406 Y1.8322 Z0.1075 F20.
X1.8417 Y1.8325 Z0.1057
X1.8427 Y1.8331 Z0.1039
X1.8436 Y1.834 Z0.1029
X1.8443 Y1.835 Z0.102
X1.8446 Y1.8362 Z0.1011
X1.8447 Y1.8378 Z0.1007
X1.8442 Y1.8392 Z0.1004
X1.8434 Y1.8405 Z0.1
G3 X1.836 Y1.8337 Z0.0995 I-0.0037 J-0.0034
X1.8434 Y1.8405 Z0.0989 I0.0037 J0.0034
X1.836 Y1.8337 Z0.0984 I-0.0037 J-0.0034
X1.8434 Y1.8405 Z0.0978 I0.0037 J0.0034
X1.836 Y1.8337 Z0.0973 I-0.0037 J-0.0034
X1.8434 Y1.8405 Z0.0967 I0.0037 J0.0034
X1.836 Y1.8337 Z0.0962 I-0.0037 J-0.0034
X1.8434 Y1.8405 Z0.0956 I0.0037 J0.0034
X1.836 Y1.8337 Z0.0951 I-0.0037 J-0.0034
X1.8434 Y1.8405 Z0.0945 I0.0037 J0.0034
X1.836 Y1.8337 Z0.094 I-0.0037 J-0.0034
X1.8434 Y1.8405 Z0.0934 I0.0037 J0.0034
X1.836 Y1.8337 Z0.0929 I-0.0037 J-0.0034
X1.8434 Y1.8405 Z0.0923 I0.0037 J0.0034
X1.836 Y1.8337 Z0.0918 I-0.0037 J-0.0034
X1.8434 Y1.8405 Z0.0912 I0.0037 J0.0034
X1.836 Y1.8337 Z0.0907 I-0.0037 J-0.0034
X1.8434 Y1.8405 Z0.0901 I0.0037 J0.0034
X1.836 Y1.8337 Z0.0896 I-0.0037 J-0.0034
X1.8434 Y1.8405 Z0.089 I0.0037 J0.0034
X1.836 Y1.8337 Z0.0885 I-0.0037 J-0.0034
X1.8434 Y1.8405 Z0.0879 I0.0037 J0.0034
X1.836 Y1.8337 Z0.0874 I-0.0037 J-0.0034
X1.8434 Y1.8405 Z0.0868 I0.0037 J0.0034
X1.836 Y1.8337 Z0.0863 I-0.0037 J-0.0034
X1.8434 Y1.8405 Z0.0857 I0.0037 J0.0034
X1.836 Y1.8337 Z0.0852 I-0.0037 J-0.0034
X1.8434 Y1.8405 Z0.0846 I0.0037 J0.0034
X1.836 Y1.8337 Z0.0841 I-0.0037 J-0.0034
X1.8434 Y1.8405 Z0.0835 I0.0037 J0.0034
X1.836 Y1.8337 Z0.083 I-0.0037 J-0.0034
X1.8434 Y1.8405 Z0.0824 I0.0037 J0.0034
X1.836 Y1.8337 Z0.0819 I-0.0037 J-0.0034
X1.8434 Y1.8405 Z0.0813 I0.0037 J0.0034
X1.836 Y1.8337 Z0.0808 I-0.0037 J-0.0034
X1.8434 Y1.8405 Z0.0803 I0.0037 J0.0034
X1.836 Y1.8337 Z0.0797 I-0.0037 J-0.0034
X1.8434 Y1.8405 Z0.0792 I0.0037 J0.0034
X1.836 Y1.8337 Z0.0786 I-0.0037 J-0.0034
X1.8434 Y1.8405 Z0.0781 I0.0037 J0.0034
X1.836 Y1.8337 Z0.0775 I-0.0037 J-0.0034
X1.8434 Y1.8405 Z0.077 I0.0037 J0.0034
X1.836 Y1.8337 Z0.0764 I-0.0037 J-0.0034
X1.8434 Y1.8405 Z0.0759 I0.0037 J0.0034
X1.836 Y1.8337 Z0.0753 I-0.0037 J-0.0034
X1.8434 Y1.8405 Z0.0748 I0.0037 J0.0034
X1.836 Y1.8337 Z0.0742 I-0.0037 J-0.0034
X1.8434 Y1.8405 Z0.0737 I0.0037 J0.0034
X1.836 Y1.8337 Z0.0731 I-0.0037 J-0.0034
X1.8434 Y1.8405 Z0.0726 I0.0037 J0.0034
X1.836 Y1.8337 Z0.072 I-0.0037 J-0.0034
X1.8434 Y1.8405 Z0.0715 I0.0037 J0.0034
X1.836 Y1.8337 Z0.0709 I-0.0037 J-0.0034
X1.8434 Y1.8405 Z0.0704 I0.0037 J0.0034
X1.836 Y1.8337 Z0.0698 I-0.0037 J-0.0034
X1.8434 Y1.8405 Z0.0693 I0.0037 J0.0034
X1.836 Y1.8337 Z0.0687 I-0.0037 J-0.0034
X1.8434 Y1.8405 Z0.0682 I0.0037 J0.0034
X1.836 Y1.8337 Z0.0676 I-0.0037 J-0.0034
X1.8434 Y1.8405 Z0.0671 I0.0037 J0.0034
X1.836 Y1.8337 Z0.0665 I-0.0037 J-0.0034
X1.8434 Y1.8405 Z0.066 I0.0037 J0.0034
X1.836 Y1.8337 Z0.0654 I-0.0037 J-0.0034
X1.8434 Y1.8405 Z0.0649 I0.0037 J0.0034
X1.836 Y1.8337 Z0.0643 I-0.0037 J-0.0034
X1.8434 Y1.8405 Z0.0638 I0.0037 J0.0034
X1.836 Y1.8337 Z0.0632 I-0.0037 J-0.0034
X1.8434 Y1.8405 Z0.0627 I0.0037 J0.0034
X1.836 Y1.8337 Z0.0622 I-0.0037 J-0.0034
X1.8434 Y1.8405 Z0.0616 I0.0037 J0.0034
X1.836 Y1.8337 Z0.0611 I-0.0037 J-0.0034
X1.8434 Y1.8405 Z0.0605 I0.0037 J0.0034
X1.836 Y1.8337 Z0.06 I-0.0037 J-0.0034
X1.8434 Y1.8405 Z0.0594 I0.0037 J0.0034
X1.836 Y1.8337 Z0.0589 I-0.0037 J-0.0034
X1.8434 Y1.8405 Z0.0583 I0.0037 J0.0034
X1.836 Y1.8337 Z0.0578 I-0.0037 J-0.0034
X1.8434 Y1.8405 Z0.0572 I0.0037 J0.0034
X1.836 Y1.8337 Z0.0567 I-0.0037 J-0.0034
X1.8434 Y1.8405 Z0.0561 I0.0037 J0.0034
X1.836 Y1.8337 Z0.0556 I-0.0037 J-0.0034
X1.8434 Y1.8405 Z0.055 I0.0037 J0.0034
X1.836 Y1.8337 Z0.0545 I-0.0037 J-0.0034
X1.8434 Y1.8405 Z0.0539 I0.0037 J0.0034
X1.836 Y1.8337 Z0.0534 I-0.0037 J-0.0034
X1.8434 Y1.8405 Z0.0528 I0.0037 J0.0034
X1.836 Y1.8337 Z0.0523 I-0.0037 J-0.0034
X1.8434 Y1.8405 Z0.0517 I0.0037 J0.0034
X1.836 Y1.8337 Z0.0512 I-0.0037 J-0.0034
X1.8434 Y1.8405 Z0.0506 I0.0037 J0.0034
X1.836 Y1.8337 Z0.0501 I-0.0037 J-0.0034
X1.8434 Y1.8405 Z0.0495 I0.0037 J0.0034
X1.836 Y1.8337 Z0.049 I-0.0037 J-0.0034
X1.8434 Y1.8405 Z0.0484 I0.0037 J0.0034
X1.836 Y1.8337 Z0.0479 I-0.0037 J-0.0034
X1.8434 Y1.8405 Z0.0473 I0.0037 J0.0034
X1.836 Y1.8337 Z0.0468 I-0.0037 J-0.0034
X1.8434 Y1.8405 Z0.0462 I0.0037 J0.0034
X1.836 Y1.8337 Z0.0457 I-0.0037 J-0.0034
X1.8434 Y1.8405 Z0.0451 I0.0037 J0.0034
X1.836 Y1.8337 Z0.0446 I-0.0037 J-0.0034
X1.8434 Y1.8405 Z0.044 I0.0037 J0.0034
X1.836 Y1.8337 Z0.0435 I-0.0037 J-0.0034
X1.8434 Y1.8405 Z0.043 I0.0037 J0.0034
X1.836 Y1.8337 Z0.0424 I-0.0037 J-0.0034
X1.8434 Y1.8405 Z0.0419 I0.0037 J0.0034
X1.836 Y1.8337 Z0.0413 I-0.0037 J-0.0034
X1.8434 Y1.8405 Z0.0408 I0.0037 J0.0034
X1.836 Y1.8337 Z0.0402 I-0.0037 J-0.0034
X1.8434 Y1.8405 Z0.0397 I0.0037 J0.0034
X1.836 Y1.8337 Z0.0391 I-0.0037 J-0.0034
X1.8434 Y1.8405 Z0.0386 I0.0037 J0.0034
X1.836 Y1.8337 Z0.038 I-0.0037 J-0.0034
X1.8434 Y1.8405 Z0.0375 I0.0037 J0.0034
X1.836 Y1.8337 Z0.0369 I-0.0037 J-0.0034
X1.8434 Y1.8405 Z0.0364 I0.0037 J0.0034
X1.836 Y1.8337 Z0.0358 I-0.0037 J-0.0034
X1.8434 Y1.8405 Z0.0353 I0.0037 J0.0034
X1.836 Y1.8337 Z0.0347 I-0.0037 J-0.0034
X1.8434 Y1.8405 Z0.0342 I0.0037 J0.0034
X1.836 Y1.8337 Z0.0336 I-0.0037 J-0.0034
X1.8434 Y1.8405 Z0.0331 I0.0037 J0.0034
X1.836 Y1.8337 Z0.0325 I-0.0037 J-0.0034
X1.8434 Y1.8405 Z0.032 I0.0037 J0.0034
X1.836 Y1.8337 Z0.0314 I-0.0037 J-0.0034
X1.8434 Y1.8405 Z0.0309 I0.0037 J0.0034
X1.836 Y1.8337 Z0.0303 I-0.0037 J-0.0034
X1.8434 Y1.8405 Z0.0298 I0.0037 J0.0034
X1.836 Y1.8337 Z0.0292 I-0.0037 J-0.0034
X1.8434 Y1.8405 Z0.0287 I0.0037 J0.0034
X1.836 Y1.8337 Z0.0281 I-0.0037 J-0.0034
X1.8434 Y1.8405 Z0.0276 I0.0037 J0.0034
X1.836 Y1.8337 Z0.027 I-0.0037 J-0.0034
X1.8434 Y1.8405 Z0.0265 I0.0037 J0.0034
X1.836 Y1.8337 Z0.0259 I-0.0037 J-0.0034
X1.8434 Y1.8405 Z0.0254 I0.0037 J0.0034
X1.836 Y1.8337 Z0.0249 I-0.0037 J-0.0034
X1.8434 Y1.8405 Z0.0243 I0.0037 J0.0034
X1.836 Y1.8337 Z0.0238 I-0.0037 J-0.0034
X1.8434 Y1.8405 Z0.0232 I0.0037 J0.0034
X1.836 Y1.8337 Z0.0227 I-0.0037 J-0.0034
X1.8434 Y1.8405 Z0.0221 I0.0037 J0.0034
X1.836 Y1.8337 Z0.0216 I-0.0037 J-0.0034
X1.8434 Y1.8405 Z0.021 I0.0037 J0.0034
X1.836 Y1.8337 Z0.0205 I-0.0037 J-0.0034
X1.8434 Y1.8405 Z0.0199 I0.0037 J0.0034
X1.836 Y1.8337 Z0.0194 I-0.0037 J-0.0034
X1.8434 Y1.8405 Z0.0188 I0.0037 J0.0034
X1.836 Y1.8337 Z0.0183 I-0.0037 J-0.0034
X1.8434 Y1.8405 Z0.0177 I0.0037 J0.0034
X1.836 Y1.8337 Z0.0172 I-0.0037 J-0.0034
X1.8434 Y1.8405 Z0.0166 I0.0037 J0.0034
X1.836 Y1.8337 Z0.0161 I-0.0037 J-0.0034
X1.8434 Y1.8405 Z0.0155 I0.0037 J0.0034
X1.836 Y1.8337 Z0.015 I-0.0037 J-0.0034
X1.8434 Y1.8405 Z0.0144 I0.0037 J0.0034
X1.836 Y1.8337 Z0.0139 I-0.0037 J-0.0034
X1.8434 Y1.8405 Z0.0133 I0.0037 J0.0034
X1.836 Y1.8337 Z0.0128 I-0.0037 J-0.0034
X1.8434 Y1.8405 Z0.0122 I0.0037 J0.0034
X1.836 Y1.8337 Z0.0117 I-0.0037 J-0.0034
X1.8434 Y1.8405 Z0.0111 I0.0037 J0.0034
X1.836 Y1.8337 Z0.0106 I-0.0037 J-0.0034
X1.8434 Y1.8405 Z0.01 I0.0037 J0.0034
X1.836 Y1.8337 Z0.0095 I-0.0037 J-0.0034
X1.8434 Y1.8405 Z0.0089 I0.0037 J0.0034
X1.836 Y1.8337 Z0.0084 I-0.0037 J-0.0034
X1.8434 Y1.8405 Z0.0078 I0.0037 J0.0034
X1.836 Y1.8337 Z0.0073 I-0.0037 J-0.0034
X1.8434 Y1.8405 Z0.0067 I0.0037 J0.0034
X1.836 Y1.8337 Z0.0062 I-0.0037 J-0.0034
X1.8434 Y1.8405 Z0.0057 I0.0037 J0.0034
X1.836 Y1.8337 Z0.0051 I-0.0037 J-0.0034
X1.8434 Y1.8405 Z0.0046 I0.0037 J0.0034
X1.836 Y1.8337 Z0.004 I-0.0037 J-0.0034
X1.8434 Y1.8405 Z0.0035 I0.0037 J0.0034
X1.836 Y1.8337 Z0.0029 I-0.0037 J-0.0034
X1.8434 Y1.8405 Z0.0024 I0.0037 J0.0034
X1.836 Y1.8337 Z0.0018 I-0.0037 J-0.0034
X1.8434 Y1.8405 Z0.0013 I0.0037 J0.0034
X1.836 Y1.8337 Z0.0007 I-0.0037 J-0.0034
X1.8434 Y1.8405 Z0.0002 I0.0037 J0.0034
X1.836 Y1.8337 Z-0.0004 I-0.0037 J-0.0034
X1.8434 Y1.8405 Z-0.0009 I0.0037 J0.0034
X1.836 Y1.8337 Z-0.0015 I-0.0037 J-0.0034
X1.8434 Y1.8405 Z-0.002 I0.0037 J0.0034
X1.836 Y1.8337 Z-0.0026 I-0.0037 J-0.0034
X1.8434 Y1.8405 Z-0.0031 I0.0037 J0.0034
X1.836 Y1.8337 Z-0.0037 I-0.0037 J-0.0034
X1.8434 Y1.8405 Z-0.0042 I0.0037 J0.0034
X1.836 Y1.8337 Z-0.0048 I-0.0037 J-0.0034
X1.8434 Y1.8405 Z-0.0053 I0.0037 J0.0034
X1.836 Y1.8337 Z-0.0059 I-0.0037 J-0.0034
X1.8434 Y1.8405 Z-0.0064 I0.0037 J0.0034
X1.836 Y1.8337 Z-0.007 I-0.0037 J-0.0034
X1.8434 Y1.8405 Z-0.0075 I0.0037 J0.0034
X1.836 Y1.8337 Z-0.0081 I-0.0037 J-0.0034
X1.8434 Y1.8405 Z-0.0086 I0.0037 J0.0034
X1.836 Y1.8337 Z-0.0092 I-0.0037 J-0.0034
X1.8434 Y1.8405 Z-0.0097 I0.0037 J0.0034
X1.836 Y1.8337 Z-0.0103 I-0.0037 J-0.0034
X1.8434 Y1.8405 Z-0.0108 I0.0037 J0.0034
X1.836 Y1.8337 Z-0.0114 I-0.0037 J-0.0034
X1.8434 Y1.8405 Z-0.0119 I0.0037 J0.0034
X1.836 Y1.8337 Z-0.0124 I-0.0037 J-0.0034
X1.8434 Y1.8405 Z-0.013 I0.0037 J0.0034
X1.836 Y1.8337 Z-0.0135 I-0.0037 J-0.0034
X1.8434 Y1.8405 Z-0.0141 I0.0037 J0.0034
X1.836 Y1.8337 Z-0.0146 I-0.0037 J-0.0034
X1.8434 Y1.8405 Z-0.0152 I0.0037 J0.0034
X1.836 Y1.8337 Z-0.0157 I-0.0037 J-0.0034
X1.8434 Y1.8405 Z-0.0163 I0.0037 J0.0034
X1.836 Y1.8337 Z-0.0168 I-0.0037 J-0.0034
X1.8434 Y1.8405 Z-0.0174 I0.0037 J0.0034
X1.836 Y1.8337 Z-0.0179 I-0.0037 J-0.0034
X1.8434 Y1.8405 Z-0.0185 I0.0037 J0.0034
X1.836 Y1.8337 Z-0.019 I-0.0037 J-0.0034
X1.8434 Y1.8405 Z-0.0196 I0.0037 J0.0034
X1.8347 Y1.8371 Z-0.02 I-0.0037 J-0.0034
X1.9362 I0.0508 J0. F30.
X1.7226 I-0.1068 J0.
X2.0483 I0.1629 J0.
X1.6105 I-0.2189 J0.
X2.1604 I0.275 J0.
X1.4984 I-0.331 J0.
X2.1604 I0.331 J0.
G1 X2.1601 Y1.8389
X2.1593 Y1.8405
X2.158 Y1.8418
X2.1564 Y1.8427
X2.1547 Y1.843
X2.1529 Y1.8428
X1.9509 Y1.7843
X1.9495 Y1.7838
X1.948 Y1.7836
X1.9466 Y1.7838
X1.9452 Y1.7843
X1.8427 Y1.8414
X1.8409 Y1.842
X1.8391 Y1.8421
G3 X1.8403 Y1.8321 Z-0.0205 I0.0006 J-0.005 F20.
X1.8391 Y1.8421 Z-0.0211 I-0.0006 J0.005
X1.8403 Y1.8321 Z-0.0216 I0.0006 J-0.005
X1.8391 Y1.8421 Z-0.0222 I-0.0006 J0.005
X1.8403 Y1.8321 Z-0.0227 I0.0006 J-0.005
X1.8391 Y1.8421 Z-0.0233 I-0.0006 J0.005
X1.8403 Y1.8321 Z-0.0238 I0.0006 J-0.005
X1.8391 Y1.8421 Z-0.0244 I-0.0006 J0.005
X1.8403 Y1.8321 Z-0.0249 I0.0006 J-0.005
X1.8391 Y1.8421 Z-0.0255 I-0.0006 J0.005
X1.8403 Y1.8321 Z-0.026 I0.0006 J-0.005
X1.8391 Y1.8421 Z-0.0266 I-0.0006 J0.005
X1.8403 Y1.8321 Z-0.0271 I0.0006 J-0.005
X1.8391 Y1.8421 Z-0.0277 I-0.0006 J0.005
X1.8403 Y1.8321 Z-0.0282 I0.0006 J-0.005
X1.8391 Y1.8421 Z-0.0288 I-0.0006 J0.005
X1.8403 Y1.8321 Z-0.0293 I0.0006 J-0.005
X1.8391 Y1.8421 Z-0.0299 I-0.0006 J0.005
X1.8403 Y1.8321 Z-0.0304 I0.0006 J-0.005
X1.8391 Y1.8421 Z-0.031 I-0.0006 J0.005
X1.8403 Y1.8321 Z-0.0315 I0.0006 J-0.005
X1.8391 Y1.8421 Z-0.0321 I-0.0006 J0.005
X1.8403 Y1.8321 Z-0.0326 I0.0006 J-0.005
X1.8391 Y1.8421 Z-0.0332 I-0.0006 J0.005
X1.8403 Y1.8321 Z-0.0337 I0.0006 J-0.005
X1.8391 Y1.8421 Z-0.0343 I-0.0006 J0.005
X1.8403 Y1.8321 Z-0.0348 I0.0006 J-0.005
X1.8391 Y1.8421 Z-0.0354 I-0.0006 J0.005
X1.8403 Y1.8321 Z-0.0359 I0.0006 J-0.005
X1.8391 Y1.8421 Z-0.0365 I-0.0006 J0.005
X1.8403 Y1.8321 Z-0.037 I0.0006 J-0.005
X1.8391 Y1.8421 Z-0.0376 I-0.0006 J0.005
X1.8403 Y1.8321 Z-0.0381 I0.0006 J-0.005
X1.8391 Y1.8421 Z-0.0387 I-0.0006 J0.005
X1.8403 Y1.8321 Z-0.0392 I0.0006 J-0.005
X1.8391 Y1.8421 Z-0.0397 I-0.0006 J0.005
X1.8347 Y1.8371 Z-0.04 I0.0006 J-0.005
X1.9362 I0.0508 J0. F30.
X1.7226 I-0.1068 J0.
X2.0483 I0.1629 J0.
X1.6105 I-0.2189 J0.
X2.1604 I0.275 J0.
X1.4984 I-0.331 J0.
X2.1604 I0.331 J0.
G1 X2.1601 Y1.8389
X2.1593 Y1.8405
X2.158 Y1.8418
X2.1564 Y1.8427
X2.1547 Y1.843
X2.1529 Y1.8428
X1.9509 Y1.7843
X1.9495 Y1.7838
X1.948 Y1.7836
X1.9466 Y1.7838
X1.9452 Y1.7843
X1.8427 Y1.8414
X1.8409 Y1.842
X1.8391 Y1.8421
G3 X1.8403 Y1.8321 Z-0.0405 I0.0006 J-0.005 F20.
X1.8391 Y1.8421 Z-0.0411 I-0.0006 J0.005
X1.8403 Y1.8321 Z-0.0416 I0.0006 J-0.005
X1.8391 Y1.8421 Z-0.0422 I-0.0006 J0.005
X1.8403 Y1.8321 Z-0.0427 I0.0006 J-0.005
X1.8391 Y1.8421 Z-0.0433 I-0.0006 J0.005
X1.8403 Y1.8321 Z-0.0438 I0.0006 J-0.005
X1.8391 Y1.8421 Z-0.0444 I-0.0006 J0.005
X1.8403 Y1.8321 Z-0.0449 I0.0006 J-0.005
X1.8391 Y1.8421 Z-0.0455 I-0.0006 J0.005
X1.8403 Y1.8321 Z-0.046 I0.0006 J-0.005
X1.8391 Y1.8421 Z-0.0466 I-0.0006 J0.005
X1.8403 Y1.8321 Z-0.0471 I0.0006 J-0.005
X1.8391 Y1.8421 Z-0.0477 I-0.0006 J0.005
X1.8403 Y1.8321 Z-0.0482 I0.0006 J-0.005
X1.8391 Y1.8421 Z-0.0488 I-0.0006 J0.005
X1.8403 Y1.8321 Z-0.0493 I0.0006 J-0.005
X1.8391 Y1.8421 Z-0.0499 I-0.0006 J0.005
X1.8403 Y1.8321 Z-0.0504 I0.0006 J-0.005
X1.8391 Y1.8421 Z-0.051 I-0.0006 J0.005
X1.8403 Y1.8321 Z-0.0515 I0.0006 J-0.005
X1.8391 Y1.8421 Z-0.0521 I-0.0006 J0.005
X1.8403 Y1.8321 Z-0.0526 I0.0006 J-0.005
X1.8391 Y1.8421 Z-0.0532 I-0.0006 J0.005
X1.8403 Y1.8321 Z-0.0537 I0.0006 J-0.005
X1.8391 Y1.8421 Z-0.0543 I-0.0006 J0.005
X1.8403 Y1.8321 Z-0.0548 I0.0006 J-0.005
X1.8391 Y1.8421 Z-0.0554 I-0.0006 J0.005
X1.8403 Y1.8321 Z-0.0559 I0.0006 J-0.005
X1.8391 Y1.8421 Z-0.0565 I-0.0006 J0.005
X1.8403 Y1.8321 Z-0.057 I0.0006 J-0.005
X1.8391 Y1.8421 Z-0.0576 I-0.0006 J0.005
X1.8403 Y1.8321 Z-0.0581 I0.0006 J-0.005
X1.8391 Y1.8421 Z-0.0587 I-0.0006 J0.005
X1.8403 Y1.8321 Z-0.0592 I0.0006 J-0.005
X1.8391 Y1.8421 Z-0.0597 I-0.0006 J0.005
X1.8347 Y1.8371 Z-0.06 I0.0006 J-0.005
X1.9362 I0.0508 J0. F30.
X1.7226 I-0.1068 J0.
X2.0483 I0.1629 J0.
X1.6105 I-0.2189 J0.
X2.1604 I0.275 J0.
X1.4984 I-0.331 J0.
X2.1604 I0.331 J0.
G1 X2.1601 Y1.8389
X2.1593 Y1.8405
X2.158 Y1.8418
X2.1564 Y1.8427
X2.1547 Y1.843
X2.1529 Y1.8428
X1.9509 Y1.7843
X1.9495 Y1.7838
X1.948 Y1.7836
X1.9466 Y1.7838
X1.9452 Y1.7843
X1.8427 Y1.8414
X1.8409 Y1.842
X1.8391 Y1.8421
G3 X1.8403 Y1.8321 Z-0.0605 I0.0006 J-0.005 F20.
X1.8391 Y1.8421 Z-0.0611 I-0.0006 J0.005
X1.8403 Y1.8321 Z-0.0616 I0.0006 J-0.005
X1.8391 Y1.8421 Z-0.0622 I-0.0006 J0.005
X1.8403 Y1.8321 Z-0.0627 I0.0006 J-0.005
X1.8391 Y1.8421 Z-0.0633 I-0.0006 J0.005
X1.8403 Y1.8321 Z-0.0638 I0.0006 J-0.005
X1.8391 Y1.8421 Z-0.0644 I-0.0006 J0.005
X1.8403 Y1.8321 Z-0.0649 I0.0006 J-0.005
X1.8391 Y1.8421 Z-0.0655 I-0.0006 J0.005
X1.8403 Y1.8321 Z-0.066 I0.0006 J-0.005
X1.8391 Y1.8421 Z-0.0666 I-0.0006 J0.005
X1.8403 Y1.8321 Z-0.0671 I0.0006 J-0.005
X1.8391 Y1.8421 Z-0.0677 I-0.0006 J0.005
X1.8403 Y1.8321 Z-0.0682 I0.0006 J-0.005
X1.8391 Y1.8421 Z-0.0688 I-0.0006 J0.005
X1.8403 Y1.8321 Z-0.0693 I0.0006 J-0.005
X1.8391 Y1.8421 Z-0.0699 I-0.0006 J0.005
X1.8403 Y1.8321 Z-0.0704 I0.0006 J-0.005
X1.8391 Y1.8421 Z-0.071 I-0.0006 J0.005
X1.8403 Y1.8321 Z-0.0715 I0.0006 J-0.005
X1.8391 Y1.8421 Z-0.0721 I-0.0006 J0.005
X1.8403 Y1.8321 Z-0.0726 I0.0006 J-0.005
X1.8391 Y1.8421 Z-0.0732 I-0.0006 J0.005
X1.8403 Y1.8321 Z-0.0737 I0.0006 J-0.005
X1.8391 Y1.8421 Z-0.0743 I-0.0006 J0.005
X1.8403 Y1.8321 Z-0.0748 I0.0006 J-0.005
X1.8391 Y1.8421 Z-0.0754 I-0.0006 J0.005
X1.8403 Y1.8321 Z-0.0759 I0.0006 J-0.005
X1.8391 Y1.8421 Z-0.0765 I-0.0006 J0.005
X1.8403 Y1.8321 Z-0.077 I0.0006 J-0.005
X1.8391 Y1.8421 Z-0.0776 I-0.0006 J0.005
X1.8403 Y1.8321 Z-0.0781 I0.0006 J-0.005
X1.8391 Y1.8421 Z-0.0787 I-0.0006 J0.005
X1.8403 Y1.8321 Z-0.0792 I0.0006 J-0.005
X1.8391 Y1.8421 Z-0.0797 I-0.0006 J0.005
X1.8347 Y1.8371 Z-0.08 I0.0006 J-0.005
X1.9362 I0.0508 J0. F30.
X1.7226 I-0.1068 J0.
X2.0483 I0.1629 J0.
X1.6105 I-0.2189 J0.
X2.1604 I0.275 J0.
X1.4984 I-0.331 J0.
X2.1604 I0.331 J0.
G1 X2.1601 Y1.8389
X2.1593 Y1.8405
X2.158 Y1.8418
X2.1564 Y1.8427
X2.1547 Y1.843
X2.1529 Y1.8428
X1.9509 Y1.7843
X1.9495 Y1.7838
X1.948 Y1.7836
X1.9466 Y1.7838
X1.9452 Y1.7843
X1.8427 Y1.8414
X1.8409 Y1.842
X1.8391 Y1.8421
G3 X1.8403 Y1.8321 Z-0.0805 I0.0006 J-0.005 F20.
X1.8391 Y1.8421 Z-0.0811 I-0.0006 J0.005
X1.8403 Y1.8321 Z-0.0816 I0.0006 J-0.005
X1.8391 Y1.8421 Z-0.0822 I-0.0006 J0.005
X1.8403 Y1.8321 Z-0.0827 I0.0006 J-0.005
X1.8391 Y1.8421 Z-0.0833 I-0.0006 J0.005
X1.8403 Y1.8321 Z-0.0838 I0.0006 J-0.005
X1.8391 Y1.8421 Z-0.0844 I-0.0006 J0.005
X1.8403 Y1.8321 Z-0.0849 I0.0006 J-0.005
X1.8391 Y1.8421 Z-0.0855 I-0.0006 J0.005
X1.8403 Y1.8321 Z-0.086 I0.0006 J-0.005
X1.8391 Y1.8421 Z-0.0866 I-0.0006 J0.005
X1.8403 Y1.8321 Z-0.0871 I0.0006 J-0.005
X1.8391 Y1.8421 Z-0.0877 I-0.0006 J0.005
X1.8403 Y1.8321 Z-0.0882 I0.0006 J-0.005
X1.8391 Y1.8421 Z-0.0888 I-0.0006 J0.005
X1.8403 Y1.8321 Z-0.0893 I0.0006 J-0.005
X1.8391 Y1.8421 Z-0.0899 I-0.0006 J0.005
X1.8403 Y1.8321 Z-0.0904 I0.0006 J-0.005
X1.8391 Y1.8421 Z-0.091 I-0.0006 J0.005
X1.8403 Y1.8321 Z-0.0915 I0.0006 J-0.005
X1.8391 Y1.8421 Z-0.0921 I-0.0006 J0.005
X1.8403 Y1.8321 Z-0.0926 I0.0006 J-0.005
X1.8391 Y1.8421 Z-0.0932 I-0.0006 J0.005
X1.8403 Y1.8321 Z-0.0937 I0.0006 J-0.005
X1.8391 Y1.8421 Z-0.0943 I-0.0006 J0.005
X1.8403 Y1.8321 Z-0.0948 I0.0006 J-0.005
X1.8391 Y1.8421 Z-0.0954 I-0.0006 J0.005
X1.8403 Y1.8321 Z-0.0959 I0.0006 J-0.005
X1.8391 Y1.8421 Z-0.0965 I-0.0006 J0.005
X1.8403 Y1.8321 Z-0.097 I0.0006 J-0.005
X1.8391 Y1.8421 Z-0.0976 I-0.0006 J0.005
X1.8403 Y1.8321 Z-0.0981 I0.0006 J-0.005
X1.8391 Y1.8421 Z-0.0987 I-0.0006 J0.005
X1.8403 Y1.8321 Z-0.0992 I0.0006 J-0.005
X1.8391 Y1.8421 Z-0.0997 I-0.0006 J0.005
X1.8347 Y1.8371 Z-0.1 I0.0006 J-0.005
X1.9362 I0.0508 J0. F30.
X1.7226 I-0.1068 J0.
X2.0483 I0.1629 J0.
X1.6105 I-0.2189 J0.
X2.1604 I0.275 J0.
X1.4984 I-0.331 J0.
X2.1604 I0.331 J0.
G1 X2.1601 Y1.8389
X2.1593 Y1.8405
X2.158 Y1.8418
X2.1564 Y1.8427
X2.1547 Y1.843
X2.1529 Y1.8428
X1.9509 Y1.7843
X1.9495 Y1.7838
X1.948 Y1.7836
X1.9466 Y1.7838
X1.9452 Y1.7843
X1.8427 Y1.8414
X1.8409 Y1.842
X1.8391 Y1.8421
G3 X1.8403 Y1.8321 Z-0.1005 I0.0006 J-0.005 F20.
X1.8391 Y1.8421 Z-0.1011 I-0.0006 J0.005
X1.8403 Y1.8321 Z-0.1016 I0.0006 J-0.005
X1.8391 Y1.8421 Z-0.1022 I-0.0006 J0.005
X1.8403 Y1.8321 Z-0.1027 I0.0006 J-0.005
X1.8391 Y1.8421 Z-0.1033 I-0.0006 J0.005
X1.8403 Y1.8321 Z-0.1038 I0.0006 J-0.005
X1.8391 Y1.8421 Z-0.1044 I-0.0006 J0.005
X1.8403 Y1.8321 Z-0.1049 I0.0006 J-0.005
X1.8391 Y1.8421 Z-0.1055 I-0.0006 J0.005
X1.8403 Y1.8321 Z-0.106 I0.0006 J-0.005
X1.8391 Y1.8421 Z-0.1066 I-0.0006 J0.005
X1.8403 Y1.8321 Z-0.1071 I0.0006 J-0.005
X1.8391 Y1.8421 Z-0.1077 I-0.0006 J0.005
X1.8403 Y1.8321 Z-0.1082 I0.0006 J-0.005
X1.8391 Y1.8421 Z-0.1088 I-0.0006 J0.005
X1.8403 Y1.8321 Z-0.1093 I0.0006 J-0.005
X1.8391 Y1.8421 Z-0.1099 I-0.0006 J0.005
X1.8403 Y1.8321 Z-0.1104 I0.0006 J-0.005
X1.8391 Y1.8421 Z-0.111 I-0.0006 J0.005
X1.8403 Y1.8321 Z-0.1115 I0.0006 J-0.005
X1.8391 Y1.8421 Z-0.1121 I-0.0006 J0.005
X1.8403 Y1.8321 Z-0.1126 I0.0006 J-0.005
X1.8391 Y1.8421 Z-0.1132 I-0.0006 J0.005
X1.8403 Y1.8321 Z-0.1137 I0.0006 J-0.005
X1.8391 Y1.8421 Z-0.1143 I-0.0006 J0.005
X1.8403 Y1.8321 Z-0.1148 I0.0006 J-0.005
X1.8391 Y1.8421 Z-0.1154 I-0.0006 J0.005
X1.8403 Y1.8321 Z-0.1159 I0.0006 J-0.005
X1.8391 Y1.8421 Z-0.1165 I-0.0006 J0.005
X1.8403 Y1.8321 Z-0.117 I0.0006 J-0.005
X1.8391 Y1.8421 Z-0.1176 I-0.0006 J0.005
X1.8403 Y1.8321 Z-0.1181 I0.0006 J-0.005
X1.8391 Y1.8421 Z-0.1187 I-0.0006 J0.005
X1.8403 Y1.8321 Z-0.1192 I0.0006 J-0.005
X1.8391 Y1.8421 Z-0.1197 I-0.0006 J0.005
X1.8347 Y1.8371 Z-0.12 I0.0006 J-0.005
X1.9362 I0.0508 J0. F30.
X1.7226 I-0.1068 J0.
X2.0483 I0.1629 J0.
X1.6105 I-0.2189 J0.
X2.1604 I0.275 J0.
X1.4984 I-0.331 J0.
X2.1604 I0.331 J0.
G1 X2.1601 Y1.8389
X2.1593 Y1.8405
X2.158 Y1.8418
X2.1564 Y1.8427
X2.1547 Y1.843
X2.1529 Y1.8428
X1.9509 Y1.7843
X1.9495 Y1.7838
X1.948 Y1.7836
X1.9466 Y1.7838
X1.9452 Y1.7843
X1.8427 Y1.8414
X1.8409 Y1.842
X1.8391 Y1.8421
G3 X1.8403 Y1.8321 Z-0.1205 I0.0006 J-0.005 F20.
X1.8391 Y1.8421 Z-0.1211 I-0.0006 J0.005
X1.8403 Y1.8321 Z-0.1216 I0.0006 J-0.005
X1.8391 Y1.8421 Z-0.1222 I-0.0006 J0.005
X1.8403 Y1.8321 Z-0.1227 I0.0006 J-0.005
X1.8391 Y1.8421 Z-0.1233 I-0.0006 J0.005
X1.8403 Y1.8321 Z-0.1238 I0.0006 J-0.005
X1.8391 Y1.8421 Z-0.1244 I-0.0006 J0.005
X1.8403 Y1.8321 Z-0.1249 I0.0006 J-0.005
X1.8391 Y1.8421 Z-0.1255 I-0.0006 J0.005
X1.8403 Y1.8321 Z-0.126 I0.0006 J-0.005
X1.8391 Y1.8421 Z-0.1266 I-0.0006 J0.005
X1.8403 Y1.8321 Z-0.1271 I0.0006 J-0.005
X1.8391 Y1.8421 Z-0.1277 I-0.0006 J0.005
X1.8403 Y1.8321 Z-0.1282 I0.0006 J-0.005
X1.8391 Y1.8421 Z-0.1288 I-0.0006 J0.005
X1.8403 Y1.8321 Z-0.1293 I0.0006 J-0.005
X1.8391 Y1.8421 Z-0.1299 I-0.0006 J0.005
X1.8403 Y1.8321 Z-0.1304 I0.0006 J-0.005
X1.8391 Y1.8421 Z-0.131 I-0.0006 J0.005
X1.8403 Y1.8321 Z-0.1315 I0.0006 J-0.005
X1.8391 Y1.8421 Z-0.1321 I-0.0006 J0.005
X1.8403 Y1.8321 Z-0.1326 I0.0006 J-0.005
X1.8391 Y1.8421 Z-0.1332 I-0.0006 J0.005
X1.8403 Y1.8321 Z-0.1337 I0.0006 J-0.005
X1.8391 Y1.8421 Z-0.1343 I-0.0006 J0.005
X1.8403 Y1.8321 Z-0.1348 I0.0006 J-0.005
X1.8391 Y1.8421 Z-0.1354 I-0.0006 J0.005
X1.8403 Y1.8321 Z-0.1359 I0.0006 J-0.005
X1.8391 Y1.8421 Z-0.1365 I-0.0006 J0.005
X1.8403 Y1.8321 Z-0.137 I0.0006 J-0.005
X1.8391 Y1.8421 Z-0.1376 I-0.0006 J0.005
X1.8403 Y1.8321 Z-0.1381 I0.0006 J-0.005
X1.8391 Y1.8421 Z-0.1387 I-0.0006 J0.005
X1.8403 Y1.8321 Z-0.1392 I0.0006 J-0.005
X1.8391 Y1.8421 Z-0.1397 I-0.0006 J0.005
X1.8347 Y1.8371 Z-0.14 I0.0006 J-0.005
X1.9362 I0.0508 J0. F30.
X1.7226 I-0.1068 J0.
X2.0483 I0.1629 J0.
X1.6105 I-0.2189 J0.
X2.1604 I0.275 J0.
X1.4984 I-0.331 J0.
X2.1604 I0.331 J0.
G1 X2.1602 Y1.8394 Z-0.1396
X2.1595 Y1.8415 Z-0.1391
X2.1587 Y1.8432 Z-0.1378
X2.1576 Y1.8448 Z-0.1365
X2.1557 Y1.8465 Z-0.1327
X2.155 Y1.847 Z-0.1282
G0 Z0.2
X2.3244 Y1.3108
G1 Z0.1118 F30.
X2.3245 Y1.3101 Z0.1075 F20.
X2.3248 Y1.309 Z0.1057
X2.3254 Y1.308 Z0.1039
X2.3263 Y1.3071 Z0.1029
X2.3273 Y1.3064 Z0.102
X2.3285 Y1.3061 Z0.1011
X2.33 Y1.306 Z0.1007
X2.3315 Y1.3065 Z0.1004
X2.3328 Y1.3073 Z0.1
G3 X2.326 Y1.3147 Z0.0995 I-0.0034 J0.0037
X2.3328 Y1.3073 Z0.0989 I0.0034 J-0.0037
X2.326 Y1.3147 Z0.0984 I-0.0034 J0.0037
X2.3328 Y1.3073 Z0.0978 I0.0034 J-0.0037
X2.326 Y1.3147 Z0.0973 I-0.0034 J0.0037
X2.3328 Y1.3073 Z0.0967 I0.0034 J-0.0037
X2.326 Y1.3147 Z0.0962 I-0.0034 J0.0037
X2.3328 Y1.3073 Z0.0956 I0.0034 J-0.0037
X2.326 Y1.3147 Z0.0951 I-0.0034 J0.0037
X2.3328 Y1.3073 Z0.0945 I0.0034 J-0.0037
X2.326 Y1.3147 Z0.094 I-0.0034 J0.0037
X2.3328 Y1.3073 Z0.0934 I0.0034 J-0.0037
X2.326 Y1.3147 Z0.0929 I-0.0034 J0.0037
X2.3328 Y1.3073 Z0.0923 I0.0034 J-0.0037
X2.326 Y1.3147 Z0.0918 I-0.0034 J0.0037
X2.3328 Y1.3073 Z0.0912 I0.0034 J-0.0037
X2.326 Y1.3147 Z0.0907 I-0.0034 J0.0037
X2.3328 Y1.3073 Z0.0901 I0.0034 J-0.0037
X2.326 Y1.3147 Z0.0896 I-0.0034 J0.0037
X2.3328 Y1.3073 Z0.089 I0.0034 J-0.0037
X2.326 Y1.3147 Z0.0885 I-0.0034 J0.0037
X2.3328 Y1.3073 Z0.0879 I0.0034 J-0.0037
X2.326 Y1.3147 Z0.0874 I-0.0034 J0.0037
X2.3328 Y1.3073 Z0.0868 I0.0034 J-0.0037
X2.326 Y1.3147 Z0.0863 I-0.0034 J0.0037
X2.3328 Y1.3073 Z0.0857 I0.0034 J-0.0037
X2.326 Y1.3147 Z0.0852 I-0.0034 J0.0037
X2.3328 Y1.3073 Z0.0846 I0.0034 J-0.0037
X2.326 Y1.3147 Z0.0841 I-0.0034 J0.0037
X2.3328 Y1.3073 Z0.0835 I0.0034 J-0.0037
X2.326 Y1.3147 Z0.083 I-0.0034 J0.0037
X2.3328 Y1.3073 Z0.0824 I0.0034 J-0.0037
X2.326 Y1.3147 Z0.0819 I-0.0034 J0.0037
X2.3328 Y1.3073 Z0.0813 I0.0034 J-0.0037
X2.326 Y1.3147 Z0.0808 I-0.0034 J0.0037
X2.3328 Y1.3073 Z0.0803 I0.0034 J-0.0037
X2.326 Y1.3147 Z0.0797 I-0.0034 J0.0037
X2.3328 Y1.3073 Z0.0792 I0.0034 J-0.0037
X2.326 Y1.3147 Z0.0786 I-0.0034 J0.0037
X2.3328 Y1.3073 Z0.0781 I0.0034 J-0.0037
X2.326 Y1.3147 Z0.0775 I-0.0034 J0.0037
X2.3328 Y1.3073 Z0.077 I0.0034 J-0.0037
X2.326 Y1.3147 Z0.0764 I-0.0034 J0.0037
X2.3328 Y1.3073 Z0.0759 I0.0034 J-0.0037
X2.326 Y1.3147 Z0.0753 I-0.0034 J0.0037
X2.3328 Y1.3073 Z0.0748 I0.0034 J-0.0037
X2.326 Y1.3147 Z0.0742 I-0.0034 J0.0037
X2.3328 Y1.3073 Z0.0737 I0.0034 J-0.0037
X2.326 Y1.3147 Z0.0731 I-0.0034 J0.0037
X2.3328 Y1.3073 Z0.0726 I0.0034 J-0.0037
X2.326 Y1.3147 Z0.072 I-0.0034 J0.0037
X2.3328 Y1.3073 Z0.0715 I0.0034 J-0.0037
X2.326 Y1.3147 Z0.0709 I-0.0034 J0.0037
X2.3328 Y1.3073 Z0.0704 I0.0034 J-0.0037
X2.326 Y1.3147 Z0.0698 I-0.0034 J0.0037
X2.3328 Y1.3073 Z0.0693 I0.0034 J-0.0037
X2.326 Y1.3147 Z0.0687 I-0.0034 J0.0037
X2.3328 Y1.3073 Z0.0682 I0.0034 J-0.0037
X2.326 Y1.3147 Z0.0676 I-0.0034 J0.0037
X2.3328 Y1.3073 Z0.0671 I0.0034 J-0.0037
X2.326 Y1.3147 Z0.0665 I-0.0034 J0.0037
X2.3328 Y1.3073 Z0.066 I0.0034 J-0.0037
X2.326 Y1.3147 Z0.0654 I-0.0034 J0.0037
X2.3328 Y1.3073 Z0.0649 I0.0034 J-0.0037
X2.326 Y1.3147 Z0.0643 I-0.0034 J0.0037
X2.3328 Y1.3073 Z0.0638 I0.0034 J-0.0037
X2.326 Y1.3147 Z0.0632 I-0.0034 J0.0037
X2.3328 Y1.3073 Z0.0627 I0.0034 J-0.0037
X2.326 Y1.3147 Z0.0622 I-0.0034 J0.0037
X2.3328 Y1.3073 Z0.0616 I0.0034 J-0.0037
X2.326 Y1.3147 Z0.0611 I-0.0034 J0.0037
X2.3328 Y1.3073 Z0.0605 I0.0034 J-0.0037
X2.326 Y1.3147 Z0.06 I-0.0034 J0.0037
X2.3328 Y1.3073 Z0.0594 I0.0034 J-0.0037
X2.326 Y1.3147 Z0.0589 I-0.0034 J0.0037
X2.3328 Y1.3073 Z0.0583 I0.0034 J-0.0037
X2.326 Y1.3147 Z0.0578 I-0.0034 J0.0037
X2.3328 Y1.3073 Z0.0572 I0.0034 J-0.0037
X2.326 Y1.3147 Z0.0567 I-0.0034 J0.0037
X2.3328 Y1.3073 Z0.0561 I0.0034 J-0.0037
X2.326 Y1.3147 Z0.0556 I-0.0034 J0.0037
X2.3328 Y1.3073 Z0.055 I0.0034 J-0.0037
X2.326 Y1.3147 Z0.0545 I-0.0034 J0.0037
X2.3328 Y1.3073 Z0.0539 I0.0034 J-0.0037
X2.326 Y1.3147 Z0.0534 I-0.0034 J0.0037
X2.3328 Y1.3073 Z0.0528 I0.0034 J-0.0037
X2.326 Y1.3147 Z0.0523 I-0.0034 J0.0037
X2.3328 Y1.3073 Z0.0517 I0.0034 J-0.0037
X2.326 Y1.3147 Z0.0512 I-0.0034 J0.0037
X2.3328 Y1.3073 Z0.0506 I0.0034 J-0.0037
X2.326 Y1.3147 Z0.0501 I-0.0034 J0.0037
X2.3328 Y1.3073 Z0.0495 I0.0034 J-0.0037
X2.326 Y1.3147 Z0.049 I-0.0034 J0.0037
X2.3328 Y1.3073 Z0.0484 I0.0034 J-0.0037
X2.326 Y1.3147 Z0.0479 I-0.0034 J0.0037
X2.3328 Y1.3073 Z0.0473 I0.0034 J-0.0037
X2.326 Y1.3147 Z0.0468 I-0.0034 J0.0037
X2.3328 Y1.3073 Z0.0462 I0.0034 J-0.0037
X2.326 Y1.3147 Z0.0457 I-0.0034 J0.0037
X2.3328 Y1.3073 Z0.0451 I0.0034 J-0.0037
X2.326 Y1.3147 Z0.0446 I-0.0034 J0.0037
X2.3328 Y1.3073 Z0.044 I0.0034 J-0.0037
X2.326 Y1.3147 Z0.0435 I-0.0034 J0.0037
X2.3328 Y1.3073 Z0.043 I0.0034 J-0.0037
X2.326 Y1.3147 Z0.0424 I-0.0034 J0.0037
X2.3328 Y1.3073 Z0.0419 I0.0034 J-0.0037
X2.326 Y1.3147 Z0.0413 I-0.0034 J0.0037
X2.3328 Y1.3073 Z0.0408 I0.0034 J-0.0037
X2.326 Y1.3147 Z0.0402 I-0.0034 J0.0037
X2.3328 Y1.3073 Z0.0397 I0.0034 J-0.0037
X2.326 Y1.3147 Z0.0391 I-0.0034 J0.0037
X2.3328 Y1.3073 Z0.0386 I0.0034 J-0.0037
X2.326 Y1.3147 Z0.038 I-0.0034 J0.0037
X2.3328 Y1.3073 Z0.0375 I0.0034 J-0.0037
X2.326 Y1.3147 Z0.0369 I-0.0034 J0.0037
X2.3328 Y1.3073 Z0.0364 I0.0034 J-0.0037
X2.326 Y1.3147 Z0.0358 I-0.0034 J0.0037
X2.3328 Y1.3073 Z0.0353 I0.0034 J-0.0037
X2.326 Y1.3147 Z0.0347 I-0.0034 J0.0037
X2.3328 Y1.3073 Z0.0342 I0.0034 J-0.0037
X2.326 Y1.3147 Z0.0336 I-0.0034 J0.0037
X2.3328 Y1.3073 Z0.0331 I0.0034 J-0.0037
X2.326 Y1.3147 Z0.0325 I-0.0034 J0.0037
X2.3328 Y1.3073 Z0.032 I0.0034 J-0.0037
X2.326 Y1.3147 Z0.0314 I-0.0034 J0.0037
X2.3328 Y1.3073 Z0.0309 I0.0034 J-0.0037
X2.326 Y1.3147 Z0.0303 I-0.0034 J0.0037
X2.3328 Y1.3073 Z0.0298 I0.0034 J-0.0037
X2.326 Y1.3147 Z0.0292 I-0.0034 J0.0037
X2.3328 Y1.3073 Z0.0287 I0.0034 J-0.0037
X2.326 Y1.3147 Z0.0281 I-0.0034 J0.0037
X2.3328 Y1.3073 Z0.0276 I0.0034 J-0.0037
X2.326 Y1.3147 Z0.027 I-0.0034 J0.0037
X2.3328 Y1.3073 Z0.0265 I0.0034 J-0.0037
X2.326 Y1.3147 Z0.0259 I-0.0034 J0.0037
X2.3328 Y1.3073 Z0.0254 I0.0034 J-0.0037
X2.326 Y1.3147 Z0.0249 I-0.0034 J0.0037
X2.3328 Y1.3073 Z0.0243 I0.0034 J-0.0037
X2.326 Y1.3147 Z0.0238 I-0.0034 J0.0037
X2.3328 Y1.3073 Z0.0232 I0.0034 J-0.0037
X2.326 Y1.3147 Z0.0227 I-0.0034 J0.0037
X2.3328 Y1.3073 Z0.0221 I0.0034 J-0.0037
X2.326 Y1.3147 Z0.0216 I-0.0034 J0.0037
X2.3328 Y1.3073 Z0.021 I0.0034 J-0.0037
X2.326 Y1.3147 Z0.0205 I-0.0034 J0.0037
X2.3328 Y1.3073 Z0.0199 I0.0034 J-0.0037
X2.326 Y1.3147 Z0.0194 I-0.0034 J0.0037
X2.3328 Y1.3073 Z0.0188 I0.0034 J-0.0037
X2.326 Y1.3147 Z0.0183 I-0.0034 J0.0037
X2.3328 Y1.3073 Z0.0177 I0.0034 J-0.0037
X2.326 Y1.3147 Z0.0172 I-0.0034 J0.0037
X2.3328 Y1.3073 Z0.0166 I0.0034 J-0.0037
X2.326 Y1.3147 Z0.0161 I-0.0034 J0.0037
X2.3328 Y1.3073 Z0.0155 I0.0034 J-0.0037
X2.326 Y1.3147 Z0.015 I-0.0034 J0.0037
X2.3328 Y1.3073 Z0.0144 I0.0034 J-0.0037
X2.326 Y1.3147 Z0.0139 I-0.0034 J0.0037
X2.3328 Y1.3073 Z0.0133 I0.0034 J-0.0037
X2.326 Y1.3147 Z0.0128 I-0.0034 J0.0037
X2.3328 Y1.3073 Z0.0122 I0.0034 J-0.0037
X2.326 Y1.3147 Z0.0117 I-0.0034 J0.0037
X2.3328 Y1.3073 Z0.0111 I0.0034 J-0.0037
X2.326 Y1.3147 Z0.0106 I-0.0034 J0.0037
X2.3328 Y1.3073 Z0.01 I0.0034 J-0.0037
X2.326 Y1.3147 Z0.0095 I-0.0034 J0.0037
X2.3328 Y1.3073 Z0.0089 I0.0034 J-0.0037
X2.326 Y1.3147 Z0.0084 I-0.0034 J0.0037
X2.3328 Y1.3073 Z0.0078 I0.0034 J-0.0037
X2.326 Y1.3147 Z0.0073 I-0.0034 J0.0037
X2.3328 Y1.3073 Z0.0067 I0.0034 J-0.0037
X2.326 Y1.3147 Z0.0062 I-0.0034 J0.0037
X2.3328 Y1.3073 Z0.0057 I0.0034 J-0.0037
X2.326 Y1.3147 Z0.0051 I-0.0034 J0.0037
X2.3328 Y1.3073 Z0.0046 I0.0034 J-0.0037
X2.326 Y1.3147 Z0.004 I-0.0034 J0.0037
X2.3328 Y1.3073 Z0.0035 I0.0034 J-0.0037
X2.326 Y1.3147 Z0.0029 I-0.0034 J0.0037
X2.3328 Y1.3073 Z0.0024 I0.0034 J-0.0037
X2.326 Y1.3147 Z0.0018 I-0.0034 J0.0037
X2.3328 Y1.3073 Z0.0013 I0.0034 J-0.0037
X2.326 Y1.3147 Z0.0007 I-0.0034 J0.0037
X2.3328 Y1.3073 Z0.0002 I0.0034 J-0.0037
X2.326 Y1.3147 Z-0.0004 I-0.0034 J0.0037
X2.3328 Y1.3073 Z-0.0009 I0.0034 J-0.0037
X2.326 Y1.3147 Z-0.0015 I-0.0034 J0.0037
X2.3328 Y1.3073 Z-0.002 I0.0034 J-0.0037
X2.326 Y1.3147 Z-0.0026 I-0.0034 J0.0037
X2.3328 Y1.3073 Z-0.0031 I0.0034 J-0.0037
X2.326 Y1.3147 Z-0.0037 I-0.0034 J0.0037
X2.3328 Y1.3073 Z-0.0042 I0.0034 J-0.0037
X2.326 Y1.3147 Z-0.0048 I-0.0034 J0.0037
X2.3328 Y1.3073 Z-0.0053 I0.0034 J-0.0037
X2.326 Y1.3147 Z-0.0059 I-0.0034 J0.0037
X2.3328 Y1.3073 Z-0.0064 I0.0034 J-0.0037
X2.326 Y1.3147 Z-0.007 I-0.0034 J0.0037
X2.3328 Y1.3073 Z-0.0075 I0.0034 J-0.0037
X2.326 Y1.3147 Z-0.0081 I-0.0034 J0.0037
X2.3328 Y1.3073 Z-0.0086 I0.0034 J-0.0037
X2.326 Y1.3147 Z-0.0092 I-0.0034 J0.0037
X2.3328 Y1.3073 Z-0.0097 I0.0034 J-0.0037
X2.326 Y1.3147 Z-0.0103 I-0.0034 J0.0037
X2.3328 Y1.3073 Z-0.0108 I0.0034 J-0.0037
X2.326 Y1.3147 Z-0.0114 I-0.0034 J0.0037
X2.3328 Y1.3073 Z-0.0119 I0.0034 J-0.0037
X2.326 Y1.3147 Z-0.0124 I-0.0034 J0.0037
X2.3328 Y1.3073 Z-0.013 I0.0034 J-0.0037
X2.326 Y1.3147 Z-0.0135 I-0.0034 J0.0037
X2.3328 Y1.3073 Z-0.0141 I0.0034 J-0.0037
X2.326 Y1.3147 Z-0.0146 I-0.0034 J0.0037
X2.3328 Y1.3073 Z-0.0152 I0.0034 J-0.0037
X2.326 Y1.3147 Z-0.0157 I-0.0034 J0.0037
X2.3328 Y1.3073 Z-0.0163 I0.0034 J-0.0037
X2.326 Y1.3147 Z-0.0168 I-0.0034 J0.0037
X2.3328 Y1.3073 Z-0.0174 I0.0034 J-0.0037
X2.326 Y1.3147 Z-0.0179 I-0.0034 J0.0037
X2.3328 Y1.3073 Z-0.0185 I0.0034 J-0.0037
X2.326 Y1.3147 Z-0.019 I-0.0034 J0.0037
X2.3328 Y1.3073 Z-0.0196 I0.0034 J-0.0037
X2.3294 Y1.316 Z-0.02 I-0.0034 J0.0037
Y1.264 I0. J-0.026 F30.
Y1.316 I0. J0.026
Y1.264 Z-0.0229 I0. J-0.026 F20.
Y1.316 Z-0.0257 I0. J0.026
Y1.264 Z-0.0286 I0. J-0.026
Y1.316 Z-0.0314 I0. J0.026
Y1.264 Z-0.0343 I0. J-0.026
Y1.316 Z-0.0371 I0. J0.026
X2.3034 Y1.2895 Z-0.0386 I0. J-0.026
X2.3303 Y1.264 Z-0.04 I0.026 J0.0005
X2.3284 Y1.316 I-0.001 J0.026 F30.
X2.3303 Y1.264 I0.001 J-0.026
X2.3284 Y1.316 Z-0.0429 I-0.001 J0.026 F20.
X2.3303 Y1.264 Z-0.0457 I0.001 J-0.026
X2.3284 Y1.316 Z-0.0486 I-0.001 J0.026
X2.3303 Y1.264 Z-0.0514 I0.001 J-0.026
X2.3284 Y1.316 Z-0.0543 I-0.001 J0.026
X2.3303 Y1.264 Z-0.0571 I0.001 J-0.026
X2.3554 Y1.2914 Z-0.0586 I-0.001 J0.026
X2.3275 Y1.3159 Z-0.06 I-0.026 J-0.0014
X2.3313 Y1.2641 I0.0019 J-0.0259 F30.
X2.3275 Y1.3159 I-0.0019 J0.0259
X2.3313 Y1.2641 Z-0.0629 I0.0019 J-0.0259 F20.
X2.3275 Y1.3159 Z-0.0657 I-0.0019 J0.0259
X2.3313 Y1.2641 Z-0.0686 I0.0019 J-0.0259
X2.3275 Y1.3159 Z-0.0714 I-0.0019 J0.0259
X2.3313 Y1.2641 Z-0.0743 I0.0019 J-0.0259
X2.3275 Y1.3159 Z-0.0771 I-0.0019 J0.0259
X2.3035 Y1.2876 Z-0.0786 I0.0019 J-0.0259
X2.3323 Y1.2642 Z-0.08 I0.0259 J0.0024
X2.3265 Y1.3158 I-0.0029 J0.0258 F30.
X2.3323 Y1.2642 I0.0029 J-0.0258
X2.3265 Y1.3158 Z-0.0829 I-0.0029 J0.0258 F20.
X2.3323 Y1.2642 Z-0.0857 I0.0029 J-0.0258
X2.3265 Y1.3158 Z-0.0886 I-0.0029 J0.0258
X2.3323 Y1.2642 Z-0.0914 I0.0029 J-0.0258
X2.3265 Y1.3158 Z-0.0943 I-0.0029 J0.0258
X2.3323 Y1.2642 Z-0.0971 I0.0029 J-0.0258
X2.3552 Y1.2933 Z-0.0986 I-0.0029 J0.0258
X2.3256 Y1.3157 Z-0.1 I-0.0258 J-0.0033
X2.3332 Y1.2643 I0.0038 J-0.0257 F30.
X2.3256 Y1.3157 I-0.0038 J0.0257
X2.3332 Y1.2643 Z-0.1029 I0.0038 J-0.0257 F20.
X2.3256 Y1.3157 Z-0.1057 I-0.0038 J0.0257
X2.3332 Y1.2643 Z-0.1086 I0.0038 J-0.0257
X2.3256 Y1.3157 Z-0.1114 I-0.0038 J0.0257
X2.3332 Y1.2643 Z-0.1143 I0.0038 J-0.0257
X2.3256 Y1.3157 Z-0.1171 I-0.0038 J0.0257
X2.3037 Y1.2857 Z-0.1186 I0.0038 J-0.0257
X2.3341 Y1.2644 Z-0.12 I0.0256 J0.0043
X2.3246 Y1.3156 I-0.0047 J0.0256 F30.
X2.3341 Y1.2644 I0.0047 J-0.0256
X2.3246 Y1.3156 Z-0.1229 I-0.0047 J0.0256 F20.
X2.3341 Y1.2644 Z-0.1257 I0.0047 J-0.0256
X2.3246 Y1.3156 Z-0.1286 I-0.0047 J0.0256
X2.3341 Y1.2644 Z-0.1314 I0.0047 J-0.0256
X2.3246 Y1.3156 Z-0.1343 I-0.0047 J0.0256
X2.3341 Y1.2644 Z-0.1371 I0.0047 J-0.0256
X2.3549 Y1.2952 Z-0.1386 I-0.0047 J0.0256
X2.3237 Y1.3154 Z-0.14 I-0.0255 J-0.0052
X2.3351 Y1.2646 I0.0057 J-0.0254 F30.
X2.3237 Y1.3154 I-0.0057 J0.0254
G1 X2.3216 Y1.3147 Z-0.1396
X2.3196 Y1.3136 Z-0.1391
X2.3181 Y1.3124 Z-0.1378
X2.3168 Y1.3109 Z-0.1365
X2.3155 Y1.3087 Z-0.1327
X2.3152 Y1.3079 Z-0.1282
G0 Z0.2
X1.3502 Y1.295
G1 Z0.1118 F30.
X1.3494 Y1.2949 Z0.1075 F20.
X1.3484 Y1.2946 Z0.1057
X1.3474 Y1.294 Z0.1039
X1.3465 Y1.2931 Z0.1029
X1.3458 Y1.2921 Z0.102
X1.3455 Y1.2909 Z0.1011
X1.3454 Y1.2893 Z0.1007
X1.3459 Y1.2879 Z0.1004
X1.3467 Y1.2866 Z0.1
G3 X1.3541 Y1.2934 Z0.0995 I0.0037 J0.0034
X1.3467 Y1.2866 Z0.0989 I-0.0037 J-0.0034
X1.3541 Y1.2934 Z0.0984 I0.0037 J0.0034
X1.3467 Y1.2866 Z0.0978 I-0.0037 J-0.0034
X1.3541 Y1.2934 Z0.0973 I0.0037 J0.0034
X1.3467 Y1.2866 Z0.0967 I-0.0037 J-0.0034
X1.3541 Y1.2934 Z0.0962 I0.0037 J0.0034
X1.3467 Y1.2866 Z0.0956 I-0.0037 J-0.0034
X1.3541 Y1.2934 Z0.0951 I0.0037 J0.0034
X1.3467 Y1.2866 Z0.0945 I-0.0037 J-0.0034
X1.3541 Y1.2934 Z0.094 I0.0037 J0.0034
X1.3467 Y1.2866 Z0.0934 I-0.0037 J-0.0034
X1.3541 Y1.2934 Z0.0929 I0.0037 J0.0034
X1.3467 Y1.2866 Z0.0923 I-0.0037 J-0.0034
X1.3541 Y1.2934 Z0.0918 I0.0037 J0.0034
X1.3467 Y1.2866 Z0.0912 I-0.0037 J-0.0034
X1.3541 Y1.2934 Z0.0907 I0.0037 J0.0034
X1.3467 Y1.2866 Z0.0901 I-0.0037 J-0.0034
X1.3541 Y1.2934 Z0.0896 I0.0037 J0.0034
X1.3467 Y1.2866 Z0.089 I-0.0037 J-0.0034
X1.3541 Y1.2934 Z0.0885 I0.0037 J0.0034
X1.3467 Y1.2866 Z0.0879 I-0.0037 J-0.0034
X1.3541 Y1.2934 Z0.0874 I0.0037 J0.0034
X1.3467 Y1.2866 Z0.0868 I-0.0037 J-0.0034
X1.3541 Y1.2934 Z0.0863 I0.0037 J0.0034
X1.3467 Y1.2866 Z0.0857 I-0.0037 J-0.0034
X1.3541 Y1.2934 Z0.0852 I0.0037 J0.0034
X1.3467 Y1.2866 Z0.0846 I-0.0037 J-0.0034
X1.3541 Y1.2934 Z0.0841 I0.0037 J0.0034
X1.3467 Y1.2866 Z0.0835 I-0.0037 J-0.0034
X1.3541 Y1.2934 Z0.083 I0.0037 J0.0034
X1.3467 Y1.2866 Z0.0824 I-0.0037 J-0.0034
X1.3541 Y1.2934 Z0.0819 I0.0037 J0.0034
X1.3467 Y1.2866 Z0.0813 I-0.0037 J-0.0034
X1.3541 Y1.2934 Z0.0808 I0.0037 J0.0034
X1.3467 Y1.2866 Z0.0803 I-0.0037 J-0.0034
X1.3541 Y1.2934 Z0.0797 I0.0037 J0.0034
X1.3467 Y1.2866 Z0.0792 I-0.0037 J-0.0034
X1.3541 Y1.2934 Z0.0786 I0.0037 J0.0034
X1.3467 Y1.2866 Z0.0781 I-0.0037 J-0.0034
X1.3541 Y1.2934 Z0.0775 I0.0037 J0.0034
X1.3467 Y1.2866 Z0.077 I-0.0037 J-0.0034
X1.3541 Y1.2934 Z0.0764 I0.0037 J0.0034
X1.3467 Y1.2866 Z0.0759 I-0.0037 J-0.0034
X1.3541 Y1.2934 Z0.0753 I0.0037 J0.0034
X1.3467 Y1.2866 Z0.0748 I-0.0037 J-0.0034
X1.3541 Y1.2934 Z0.0742 I0.0037 J0.0034
X1.3467 Y1.2866 Z0.0737 I-0.0037 J-0.0034
X1.3541 Y1.2934 Z0.0731 I0.0037 J0.0034
X1.3467 Y1.2866 Z0.0726 I-0.0037 J-0.0034
X1.3541 Y1.2934 Z0.072 I0.0037 J0.0034
X1.3467 Y1.2866 Z0.0715 I-0.0037 J-0.0034
X1.3541 Y1.2934 Z0.0709 I0.0037 J0.0034
X1.3467 Y1.2866 Z0.0704 I-0.0037 J-0.0034
X1.3541 Y1.2934 Z0.0698 I0.0037 J0.0034
X1.3467 Y1.2866 Z0.0693 I-0.0037 J-0.0034
X1.3541 Y1.2934 Z0.0687 I0.0037 J0.0034
X1.3467 Y1.2866 Z0.0682 I-0.0037 J-0.0034
X1.3541 Y1.2934 Z0.0676 I0.0037 J0.0034
X1.3467 Y1.2866 Z0.0671 I-0.0037 J-0.0034
X1.3541 Y1.2934 Z0.0665 I0.0037 J0.0034
X1.3467 Y1.2866 Z0.066 I-0.0037 J-0.0034
X1.3541 Y1.2934 Z0.0654 I0.0037 J0.0034
X1.3467 Y1.2866 Z0.0649 I-0.0037 J-0.0034
X1.3541 Y1.2934 Z0.0643 I0.0037 J0.0034
X1.3467 Y1.2866 Z0.0638 I-0.0037 J-0.0034
X1.3541 Y1.2934 Z0.0632 I0.0037 J0.0034
X1.3467 Y1.2866 Z0.0627 I-0.0037 J-0.0034
X1.3541 Y1.2934 Z0.0622 I0.0037 J0.0034
X1.3467 Y1.2866 Z0.0616 I-0.0037 J-0.0034
X1.3541 Y1.2934 Z0.0611 I0.0037 J0.0034
X1.3467 Y1.2866 Z0.0605 I-0.0037 J-0.0034
X1.3541 Y1.2934 Z0.06 I0.0037 J0.0034
X1.3467 Y1.2866 Z0.0594 I-0.0037 J-0.0034
X1.3541 Y1.2934 Z0.0589 I0.0037 J0.0034
X1.3467 Y1.2866 Z0.0583 I-0.0037 J-0.0034
X1.3541 Y1.2934 Z0.0578 I0.0037 J0.0034
X1.3467 Y1.2866 Z0.0572 I-0.0037 J-0.0034
X1.3541 Y1.2934 Z0.0567 I0.0037 J0.0034
X1.3467 Y1.2866 Z0.0561 I-0.0037 J-0.0034
X1.3541 Y1.2934 Z0.0556 I0.0037 J0.0034
X1.3467 Y1.2866 Z0.055 I-0.0037 J-0.0034
X1.3541 Y1.2934 Z0.0545 I0.0037 J0.0034
X1.3467 Y1.2866 Z0.0539 I-0.0037 J-0.0034
X1.3541 Y1.2934 Z0.0534 I0.0037 J0.0034
X1.3467 Y1.2866 Z0.0528 I-0.0037 J-0.0034
X1.3541 Y1.2934 Z0.0523 I0.0037 J0.0034
X1.3467 Y1.2866 Z0.0517 I-0.0037 J-0.0034
X1.3541 Y1.2934 Z0.0512 I0.0037 J0.0034
X1.3467 Y1.2866 Z0.0506 I-0.0037 J-0.0034
X1.3541 Y1.2934 Z0.0501 I0.0037 J0.0034
X1.3467 Y1.2866 Z0.0495 I-0.0037 J-0.0034
X1.3541 Y1.2934 Z0.049 I0.0037 J0.0034
X1.3467 Y1.2866 Z0.0484 I-0.0037 J-0.0034
X1.3541 Y1.2934 Z0.0479 I0.0037 J0.0034
X1.3467 Y1.2866 Z0.0473 I-0.0037 J-0.0034
X1.3541 Y1.2934 Z0.0468 I0.0037 J0.0034
X1.3467 Y1.2866 Z0.0462 I-0.0037 J-0.0034
X1.3541 Y1.2934 Z0.0457 I0.0037 J0.0034
X1.3467 Y1.2866 Z0.0451 I-0.0037 J-0.0034
X1.3541 Y1.2934 Z0.0446 I0.0037 J0.0034
X1.3467 Y1.2866 Z0.044 I-0.0037 J-0.0034
X1.3541 Y1.2934 Z0.0435 I0.0037 J0.0034
X1.3467 Y1.2866 Z0.043 I-0.0037 J-0.0034
X1.3541 Y1.2934 Z0.0424 I0.0037 J0.0034
X1.3467 Y1.2866 Z0.0419 I-0.0037 J-0.0034
X1.3541 Y1.2934 Z0.0413 I0.0037 J0.0034
X1.3467 Y1.2866 Z0.0408 I-0.0037 J-0.0034
X1.3541 Y1.2934 Z0.0402 I0.0037 J0.0034
X1.3467 Y1.2866 Z0.0397 I-0.0037 J-0.0034
X1.3541 Y1.2934 Z0.0391 I0.0037 J0.0034
X1.3467 Y1.2866 Z0.0386 I-0.0037 J-0.0034
X1.3541 Y1.2934 Z0.038 I0.0037 J0.0034
X1.3467 Y1.2866 Z0.0375 I-0.0037 J-0.0034
X1.3541 Y1.2934 Z0.0369 I0.0037 J0.0034
X1.3467 Y1.2866 Z0.0364 I-0.0037 J-0.0034
X1.3541 Y1.2934 Z0.0358 I0.0037 J0.0034
X1.3467 Y1.2866 Z0.0353 I-0.0037 J-0.0034
X1.3541 Y1.2934 Z0.0347 I0.0037 J0.0034
X1.3467 Y1.2866 Z0.0342 I-0.0037 J-0.0034
X1.3541 Y1.2934 Z0.0336 I0.0037 J0.0034
X1.3467 Y1.2866 Z0.0331 I-0.0037 J-0.0034
X1.3541 Y1.2934 Z0.0325 I0.0037 J0.0034
X1.3467 Y1.2866 Z0.032 I-0.0037 J-0.0034
X1.3541 Y1.2934 Z0.0314 I0.0037 J0.0034
X1.3467 Y1.2866 Z0.0309 I-0.0037 J-0.0034
X1.3541 Y1.2934 Z0.0303 I0.0037 J0.0034
X1.3467 Y1.2866 Z0.0298 I-0.0037 J-0.0034
X1.3541 Y1.2934 Z0.0292 I0.0037 J0.0034
X1.3467 Y1.2866 Z0.0287 I-0.0037 J-0.0034
X1.3541 Y1.2934 Z0.0281 I0.0037 J0.0034
X1.3467 Y1.2866 Z0.0276 I-0.0037 J-0.0034
X1.3541 Y1.2934 Z0.027 I0.0037 J0.0034
X1.3467 Y1.2866 Z0.0265 I-0.0037 J-0.0034
X1.3541 Y1.2934 Z0.0259 I0.0037 J0.0034
X1.3467 Y1.2866 Z0.0254 I-0.0037 J-0.0034
X1.3541 Y1.2934 Z0.0249 I0.0037 J0.0034
X1.3467 Y1.2866 Z0.0243 I-0.0037 J-0.0034
X1.3541 Y1.2934 Z0.0238 I0.0037 J0.0034
X1.3467 Y1.2866 Z0.0232 I-0.0037 J-0.0034
X1.3541 Y1.2934 Z0.0227 I0.0037 J0.0034
X1.3467 Y1.2866 Z0.0221 I-0.0037 J-0.0034
X1.3541 Y1.2934 Z0.0216 I0.0037 J0.0034
X1.3467 Y1.2866 Z0.021 I-0.0037 J-0.0034
X1.3541 Y1.2934 Z0.0205 I0.0037 J0.0034
X1.3467 Y1.2866 Z0.0199 I-0.0037 J-0.0034
X1.3541 Y1.2934 Z0.0194 I0.0037 J0.0034
X1.3467 Y1.2866 Z0.0188 I-0.0037 J-0.0034
X1.3541 Y1.2934 Z0.0183 I0.0037 J0.0034
X1.3467 Y1.2866 Z0.0177 I-0.0037 J-0.0034
X1.3541 Y1.2934 Z0.0172 I0.0037 J0.0034
X1.3467 Y1.2866 Z0.0166 I-0.0037 J-0.0034
X1.3541 Y1.2934 Z0.0161 I0.0037 J0.0034
X1.3467 Y1.2866 Z0.0155 I-0.0037 J-0.0034
X1.3541 Y1.2934 Z0.015 I0.0037 J0.0034
X1.3467 Y1.2866 Z0.0144 I-0.0037 J-0.0034
X1.3541 Y1.2934 Z0.0139 I0.0037 J0.0034
X1.3467 Y1.2866 Z0.0133 I-0.0037 J-0.0034
X1.3541 Y1.2934 Z0.0128 I0.0037 J0.0034
X1.3467 Y1.2866 Z0.0122 I-0.0037 J-0.0034
X1.3541 Y1.2934 Z0.0117 I0.0037 J0.0034
X1.3467 Y1.2866 Z0.0111 I-0.0037 J-0.0034
X1.3541 Y1.2934 Z0.0106 I0.0037 J0.0034
X1.3467 Y1.2866 Z0.01 I-0.0037 J-0.0034
X1.3541 Y1.2934 Z0.0095 I0.0037 J0.0034
X1.3467 Y1.2866 Z0.0089 I-0.0037 J-0.0034
X1.3541 Y1.2934 Z0.0084 I0.0037 J0.0034
X1.3467 Y1.2866 Z0.0078 I-0.0037 J-0.0034
X1.3541 Y1.2934 Z0.0073 I0.0037 J0.0034
X1.3467 Y1.2866 Z0.0067 I-0.0037 J-0.0034
X1.3541 Y1.2934 Z0.0062 I0.0037 J0.0034
X1.3467 Y1.2866 Z0.0057 I-0.0037 J-0.0034
X1.3541 Y1.2934 Z0.0051 I0.0037 J0.0034
X1.3467 Y1.2866 Z0.0046 I-0.0037 J-0.0034
X1.3541 Y1.2934 Z0.004 I0.0037 J0.0034
X1.3467 Y1.2866 Z0.0035 I-0.0037 J-0.0034
X1.3541 Y1.2934 Z0.0029 I0.0037 J0.0034
X1.3467 Y1.2866 Z0.0024 I-0.0037 J-0.0034
X1.3541 Y1.2934 Z0.0018 I0.0037 J0.0034
X1.3467 Y1.2866 Z0.0013 I-0.0037 J-0.0034
X1.3541 Y1.2934 Z0.0007 I0.0037 J0.0034
X1.3467 Y1.2866 Z0.0002 I-0.0037 J-0.0034
X1.3541 Y1.2934 Z-0.0004 I0.0037 J0.0034
X1.3467 Y1.2866 Z-0.0009 I-0.0037 J-0.0034
X1.3541 Y1.2934 Z-0.0015 I0.0037 J0.0034
X1.3467 Y1.2866 Z-0.002 I-0.0037 J-0.0034
X1.3541 Y1.2934 Z-0.0026 I0.0037 J0.0034
X1.3467 Y1.2866 Z-0.0031 I-0.0037 J-0.0034
X1.3541 Y1.2934 Z-0.0037 I0.0037 J0.0034
X1.3467 Y1.2866 Z-0.0042 I-0.0037 J-0.0034
X1.3541 Y1.2934 Z-0.0048 I0.0037 J0.0034
X1.3467 Y1.2866 Z-0.0053 I-0.0037 J-0.0034
X1.3541 Y1.2934 Z-0.0059 I0.0037 J0.0034
X1.3467 Y1.2866 Z-0.0064 I-0.0037 J-0.0034
X1.3541 Y1.2934 Z-0.007 I0.0037 J0.0034
X1.3467 Y1.2866 Z-0.0075 I-0.0037 J-0.0034
X1.3541 Y1.2934 Z-0.0081 I0.0037 J0.0034
X1.3467 Y1.2866 Z-0.0086 I-0.0037 J-0.0034
X1.3541 Y1.2934 Z-0.0092 I0.0037 J0.0034
X1.3467 Y1.2866 Z-0.0097 I-0.0037 J-0.0034
X1.3541 Y1.2934 Z-0.0103 I0.0037 J0.0034
X1.3467 Y1.2866 Z-0.0108 I-0.0037 J-0.0034
X1.3541 Y1.2934 Z-0.0114 I0.0037 J0.0034
X1.3467 Y1.2866 Z-0.0119 I-0.0037 J-0.0034
X1.3541 Y1.2934 Z-0.0124 I0.0037 J0.0034
X1.3467 Y1.2866 Z-0.013 I-0.0037 J-0.0034
X1.3541 Y1.2934 Z-0.0135 I0.0037 J0.0034
X1.3467 Y1.2866 Z-0.0141 I-0.0037 J-0.0034
X1.3541 Y1.2934 Z-0.0146 I0.0037 J0.0034
X1.3467 Y1.2866 Z-0.0152 I-0.0037 J-0.0034
X1.3541 Y1.2934 Z-0.0157 I0.0037 J0.0034
X1.3467 Y1.2866 Z-0.0163 I-0.0037 J-0.0034
X1.3541 Y1.2934 Z-0.0168 I0.0037 J0.0034
X1.3467 Y1.2866 Z-0.0174 I-0.0037 J-0.0034
X1.3541 Y1.2934 Z-0.0179 I0.0037 J0.0034
X1.3467 Y1.2866 Z-0.0185 I-0.0037 J-0.0034
X1.3541 Y1.2934 Z-0.019 I0.0037 J0.0034
X1.3467 Y1.2866 Z-0.0196 I-0.0037 J-0.0034
X1.3554 Y1.29 Z-0.02 I0.0037 J0.0034
X1.3034 I-0.026 J0. F30.
X1.3554 I0.026 J0.
X1.3034 Z-0.0229 I-0.026 J0. F20.
X1.3554 Z-0.0257 I0.026 J0.
X1.3034 Z-0.0286 I-0.026 J0.
X1.3554 Z-0.0314 I0.026 J0.
X1.3034 Z-0.0343 I-0.026 J0.
X1.3554 Z-0.0371 I0.026 J0.
X1.3289 Y1.316 Z-0.0386 I-0.026 J0.
X1.3034 Y1.289 Z-0.04 I0.0005 J-0.026
X1.3554 Y1.291 I0.026 J0.001 F30.
X1.3034 Y1.289 I-0.026 J-0.001
X1.3554 Y1.291 Z-0.0429 I0.026 J0.001 F20.
X1.3034 Y1.289 Z-0.0457 I-0.026 J-0.001
X1.3554 Y1.291 Z-0.0486 I0.026 J0.001
X1.3034 Y1.289 Z-0.0514 I-0.026 J-0.001
X1.3554 Y1.291 Z-0.0543 I0.026 J0.001
X1.3034 Y1.289 Z-0.0571 I-0.026 J-0.001
X1.3308 Y1.264 Z-0.0586 I0.026 J0.001
X1.3553 Y1.2919 Z-0.06 I-0.0014 J0.026
X1.3035 Y1.2881 I-0.0259 J-0.0019 F30.
X1.3553 Y1.2919 I0.0259 J0.0019
X1.3035 Y1.2881 Z-0.0629 I-0.0259 J-0.0019 F20.
X1.3553 Y1.2919 Z-0.0657 I0.0259 J0.0019
X1.3035 Y1.2881 Z-0.0686 I-0.0259 J-0.0019
X1.3553 Y1.2919 Z-0.0714 I0.0259 J0.0019
X1.3035 Y1.2881 Z-0.0743 I-0.0259 J-0.0019
X1.3553 Y1.2919 Z-0.0771 I0.0259 J0.0019
X1.327 Y1.3159 Z-0.0786 I-0.0259 J-0.0019
X1.3036 Y1.2871 Z-0.08 I0.0024 J-0.0259
X1.3552 Y1.2929 I0.0258 J0.0029 F30.
X1.3036 Y1.2871 I-0.0258 J-0.0029
X1.3552 Y1.2929 Z-0.0829 I0.0258 J0.0029 F20.
X1.3036 Y1.2871 Z-0.0857 I-0.0258 J-0.0029
X1.3552 Y1.2929 Z-0.0886 I0.0258 J0.0029
X1.3036 Y1.2871 Z-0.0914 I-0.0258 J-0.0029
X1.3552 Y1.2929 Z-0.0943 I0.0258 J0.0029
X1.3036 Y1.2871 Z-0.0971 I-0.0258 J-0.0029
X1.3327 Y1.2642 Z-0.0986 I0.0258 J0.0029
X1.3551 Y1.2938 Z-0.1 I-0.0033 J0.0258
X1.3037 Y1.2862 I-0.0257 J-0.0038 F30.
X1.3551 Y1.2938 I0.0257 J0.0038
X1.3037 Y1.2862 Z-0.1029 I-0.0257 J-0.0038 F20.
X1.3551 Y1.2938 Z-0.1057 I0.0257 J0.0038
X1.3037 Y1.2862 Z-0.1086 I-0.0257 J-0.0038
X1.3551 Y1.2938 Z-0.1114 I0.0257 J0.0038
X1.3037 Y1.2862 Z-0.1143 I-0.0257 J-0.0038
X1.3551 Y1.2938 Z-0.1171 I0.0257 J0.0038
X1.3251 Y1.3156 Z-0.1186 I-0.0257 J-0.0038
X1.3038 Y1.2853 Z-0.12 I0.0043 J-0.0256
X1.355 Y1.2947 I0.0256 J0.0047 F30.
X1.3038 Y1.2853 I-0.0256 J-0.0047
X1.355 Y1.2947 Z-0.1229 I0.0256 J0.0047 F20.
X1.3038 Y1.2853 Z-0.1257 I-0.0256 J-0.0047
X1.355 Y1.2947 Z-0.1286 I0.0256 J0.0047
X1.3038 Y1.2853 Z-0.1314 I-0.0256 J-0.0047
X1.355 Y1.2947 Z-0.1343 I0.0256 J0.0047
X1.3038 Y1.2853 Z-0.1371 I-0.0256 J-0.0047
X1.3346 Y1.2645 Z-0.1386 I0.0256 J0.0047
X1.3548 Y1.2957 Z-0.14 I-0.0052 J0.0255
X1.304 Y1.2843 I-0.0254 J-0.0057 F30.
X1.3548 Y1.2957 I0.0254 J0.0057
G1 X1.3541 Y1.2978 Z-0.1396
X1.353 Y1.2998 Z-0.1391
X1.3518 Y1.3013 Z-0.1378
X1.3503 Y1.3025 Z-0.1365
X1.3481 Y1.3038 Z-0.1327
X1.3473 Y1.3042 Z-0.1282
G0 Z0.2
X1.3502 Y2.3892
G1 Z0.1118 F30.
X1.3494 Y2.3891 Z0.1075 F20.
X1.3484 Y2.3888 Z0.1057
X1.3474 Y2.3882 Z0.1039
X1.3465 Y2.3873 Z0.1029
X1.3458 Y2.3863 Z0.102
X1.3455 Y2.3851 Z0.1011
X1.3454 Y2.3836 Z0.1007
X1.3459 Y2.3821 Z0.1004
X1.3467 Y2.3808 Z0.1
G3 X1.3541 Y2.3876 Z0.0995 I0.0037 J0.0034
X1.3467 Y2.3808 Z0.0989 I-0.0037 J-0.0034
X1.3541 Y2.3876 Z0.0984 I0.0037 J0.0034
X1.3467 Y2.3808 Z0.0978 I-0.0037 J-0.0034
X1.3541 Y2.3876 Z0.0973 I0.0037 J0.0034
X1.3467 Y2.3808 Z0.0967 I-0.0037 J-0.0034
X1.3541 Y2.3876 Z0.0962 I0.0037 J0.0034
X1.3467 Y2.3808 Z0.0956 I-0.0037 J-0.0034
X1.3541 Y2.3876 Z0.0951 I0.0037 J0.0034
X1.3467 Y2.3808 Z0.0945 I-0.0037 J-0.0034
X1.3541 Y2.3876 Z0.094 I0.0037 J0.0034
X1.3467 Y2.3808 Z0.0934 I-0.0037 J-0.0034
X1.3541 Y2.3876 Z0.0929 I0.0037 J0.0034
X1.3467 Y2.3808 Z0.0923 I-0.0037 J-0.0034
X1.3541 Y2.3876 Z0.0918 I0.0037 J0.0034
X1.3467 Y2.3808 Z0.0912 I-0.0037 J-0.0034
X1.3541 Y2.3876 Z0.0907 I0.0037 J0.0034
X1.3467 Y2.3808 Z0.0901 I-0.0037 J-0.0034
X1.3541 Y2.3876 Z0.0896 I0.0037 J0.0034
X1.3467 Y2.3808 Z0.089 I-0.0037 J-0.0034
X1.3541 Y2.3876 Z0.0885 I0.0037 J0.0034
X1.3467 Y2.3808 Z0.0879 I-0.0037 J-0.0034
X1.3541 Y2.3876 Z0.0874 I0.0037 J0.0034
X1.3467 Y2.3808 Z0.0868 I-0.0037 J-0.0034
X1.3541 Y2.3876 Z0.0863 I0.0037 J0.0034
X1.3467 Y2.3808 Z0.0857 I-0.0037 J-0.0034
X1.3541 Y2.3876 Z0.0852 I0.0037 J0.0034
X1.3467 Y2.3808 Z0.0846 I-0.0037 J-0.0034
X1.3541 Y2.3876 Z0.0841 I0.0037 J0.0034
X1.3467 Y2.3808 Z0.0835 I-0.0037 J-0.0034
X1.3541 Y2.3876 Z0.083 I0.0037 J0.0034
X1.3467 Y2.3808 Z0.0824 I-0.0037 J-0.0034
X1.3541 Y2.3876 Z0.0819 I0.0037 J0.0034
X1.3467 Y2.3808 Z0.0813 I-0.0037 J-0.0034
X1.3541 Y2.3876 Z0.0808 I0.0037 J0.0034
X1.3467 Y2.3808 Z0.0803 I-0.0037 J-0.0034
X1.3541 Y2.3876 Z0.0797 I0.0037 J0.0034
X1.3467 Y2.3808 Z0.0792 I-0.0037 J-0.0034
X1.3541 Y2.3876 Z0.0786 I0.0037 J0.0034
X1.3467 Y2.3808 Z0.0781 I-0.0037 J-0.0034
X1.3541 Y2.3876 Z0.0775 I0.0037 J0.0034
X1.3467 Y2.3808 Z0.077 I-0.0037 J-0.0034
X1.3541 Y2.3876 Z0.0764 I0.0037 J0.0034
X1.3467 Y2.3808 Z0.0759 I-0.0037 J-0.0034
X1.3541 Y2.3876 Z0.0753 I0.0037 J0.0034
X1.3467 Y2.3808 Z0.0748 I-0.0037 J-0.0034
X1.3541 Y2.3876 Z0.0742 I0.0037 J0.0034
X1.3467 Y2.3808 Z0.0737 I-0.0037 J-0.0034
X1.3541 Y2.3876 Z0.0731 I0.0037 J0.0034
X1.3467 Y2.3808 Z0.0726 I-0.0037 J-0.0034
X1.3541 Y2.3876 Z0.072 I0.0037 J0.0034
X1.3467 Y2.3808 Z0.0715 I-0.0037 J-0.0034
X1.3541 Y2.3876 Z0.0709 I0.0037 J0.0034
X1.3467 Y2.3808 Z0.0704 I-0.0037 J-0.0034
X1.3541 Y2.3876 Z0.0698 I0.0037 J0.0034
X1.3467 Y2.3808 Z0.0693 I-0.0037 J-0.0034
X1.3541 Y2.3876 Z0.0687 I0.0037 J0.0034
X1.3467 Y2.3808 Z0.0682 I-0.0037 J-0.0034
X1.3541 Y2.3876 Z0.0676 I0.0037 J0.0034
X1.3467 Y2.3808 Z0.0671 I-0.0037 J-0.0034
X1.3541 Y2.3876 Z0.0665 I0.0037 J0.0034
X1.3467 Y2.3808 Z0.066 I-0.0037 J-0.0034
X1.3541 Y2.3876 Z0.0654 I0.0037 J0.0034
X1.3467 Y2.3808 Z0.0649 I-0.0037 J-0.0034
X1.3541 Y2.3876 Z0.0643 I0.0037 J0.0034
X1.3467 Y2.3808 Z0.0638 I-0.0037 J-0.0034
X1.3541 Y2.3876 Z0.0632 I0.0037 J0.0034
X1.3467 Y2.3808 Z0.0627 I-0.0037 J-0.0034
X1.3541 Y2.3876 Z0.0622 I0.0037 J0.0034
X1.3467 Y2.3808 Z0.0616 I-0.0037 J-0.0034
X1.3541 Y2.3876 Z0.0611 I0.0037 J0.0034
X1.3467 Y2.3808 Z0.0605 I-0.0037 J-0.0034
X1.3541 Y2.3876 Z0.06 I0.0037 J0.0034
X1.3467 Y2.3808 Z0.0594 I-0.0037 J-0.0034
X1.3541 Y2.3876 Z0.0589 I0.0037 J0.0034
X1.3467 Y2.3808 Z0.0583 I-0.0037 J-0.0034
X1.3541 Y2.3876 Z0.0578 I0.0037 J0.0034
X1.3467 Y2.3808 Z0.0572 I-0.0037 J-0.0034
X1.3541 Y2.3876 Z0.0567 I0.0037 J0.0034
X1.3467 Y2.3808 Z0.0561 I-0.0037 J-0.0034
X1.3541 Y2.3876 Z0.0556 I0.0037 J0.0034
X1.3467 Y2.3808 Z0.055 I-0.0037 J-0.0034
X1.3541 Y2.3876 Z0.0545 I0.0037 J0.0034
X1.3467 Y2.3808 Z0.0539 I-0.0037 J-0.0034
X1.3541 Y2.3876 Z0.0534 I0.0037 J0.0034
X1.3467 Y2.3808 Z0.0528 I-0.0037 J-0.0034
X1.3541 Y2.3876 Z0.0523 I0.0037 J0.0034
X1.3467 Y2.3808 Z0.0517 I-0.0037 J-0.0034
X1.3541 Y2.3876 Z0.0512 I0.0037 J0.0034
X1.3467 Y2.3808 Z0.0506 I-0.0037 J-0.0034
X1.3541 Y2.3876 Z0.0501 I0.0037 J0.0034
X1.3467 Y2.3808 Z0.0495 I-0.0037 J-0.0034
X1.3541 Y2.3876 Z0.049 I0.0037 J0.0034
X1.3467 Y2.3808 Z0.0484 I-0.0037 J-0.0034
X1.3541 Y2.3876 Z0.0479 I0.0037 J0.0034
X1.3467 Y2.3808 Z0.0473 I-0.0037 J-0.0034
X1.3541 Y2.3876 Z0.0468 I0.0037 J0.0034
X1.3467 Y2.3808 Z0.0462 I-0.0037 J-0.0034
X1.3541 Y2.3876 Z0.0457 I0.0037 J0.0034
X1.3467 Y2.3808 Z0.0451 I-0.0037 J-0.0034
X1.3541 Y2.3876 Z0.0446 I0.0037 J0.0034
X1.3467 Y2.3808 Z0.044 I-0.0037 J-0.0034
X1.3541 Y2.3876 Z0.0435 I0.0037 J0.0034
X1.3467 Y2.3808 Z0.043 I-0.0037 J-0.0034
X1.3541 Y2.3876 Z0.0424 I0.0037 J0.0034
X1.3467 Y2.3808 Z0.0419 I-0.0037 J-0.0034
X1.3541 Y2.3876 Z0.0413 I0.0037 J0.0034
X1.3467 Y2.3808 Z0.0408 I-0.0037 J-0.0034
X1.3541 Y2.3876 Z0.0402 I0.0037 J0.0034
X1.3467 Y2.3808 Z0.0397 I-0.0037 J-0.0034
X1.3541 Y2.3876 Z0.0391 I0.0037 J0.0034
X1.3467 Y2.3808 Z0.0386 I-0.0037 J-0.0034
X1.3541 Y2.3876 Z0.038 I0.0037 J0.0034
X1.3467 Y2.3808 Z0.0375 I-0.0037 J-0.0034
X1.3541 Y2.3876 Z0.0369 I0.0037 J0.0034
X1.3467 Y2.3808 Z0.0364 I-0.0037 J-0.0034
X1.3541 Y2.3876 Z0.0358 I0.0037 J0.0034
X1.3467 Y2.3808 Z0.0353 I-0.0037 J-0.0034
X1.3541 Y2.3876 Z0.0347 I0.0037 J0.0034
X1.3467 Y2.3808 Z0.0342 I-0.0037 J-0.0034
X1.3541 Y2.3876 Z0.0336 I0.0037 J0.0034
X1.3467 Y2.3808 Z0.0331 I-0.0037 J-0.0034
X1.3541 Y2.3876 Z0.0325 I0.0037 J0.0034
X1.3467 Y2.3808 Z0.032 I-0.0037 J-0.0034
X1.3541 Y2.3876 Z0.0314 I0.0037 J0.0034
X1.3467 Y2.3808 Z0.0309 I-0.0037 J-0.0034
X1.3541 Y2.3876 Z0.0303 I0.0037 J0.0034
X1.3467 Y2.3808 Z0.0298 I-0.0037 J-0.0034
X1.3541 Y2.3876 Z0.0292 I0.0037 J0.0034
X1.3467 Y2.3808 Z0.0287 I-0.0037 J-0.0034
X1.3541 Y2.3876 Z0.0281 I0.0037 J0.0034
X1.3467 Y2.3808 Z0.0276 I-0.0037 J-0.0034
X1.3541 Y2.3876 Z0.027 I0.0037 J0.0034
X1.3467 Y2.3808 Z0.0265 I-0.0037 J-0.0034
X1.3541 Y2.3876 Z0.0259 I0.0037 J0.0034
X1.3467 Y2.3808 Z0.0254 I-0.0037 J-0.0034
X1.3541 Y2.3876 Z0.0249 I0.0037 J0.0034
X1.3467 Y2.3808 Z0.0243 I-0.0037 J-0.0034
X1.3541 Y2.3876 Z0.0238 I0.0037 J0.0034
X1.3467 Y2.3808 Z0.0232 I-0.0037 J-0.0034
X1.3541 Y2.3876 Z0.0227 I0.0037 J0.0034
X1.3467 Y2.3808 Z0.0221 I-0.0037 J-0.0034
X1.3541 Y2.3876 Z0.0216 I0.0037 J0.0034
X1.3467 Y2.3808 Z0.021 I-0.0037 J-0.0034
X1.3541 Y2.3876 Z0.0205 I0.0037 J0.0034
X1.3467 Y2.3808 Z0.0199 I-0.0037 J-0.0034
X1.3541 Y2.3876 Z0.0194 I0.0037 J0.0034
X1.3467 Y2.3808 Z0.0188 I-0.0037 J-0.0034
X1.3541 Y2.3876 Z0.0183 I0.0037 J0.0034
X1.3467 Y2.3808 Z0.0177 I-0.0037 J-0.0034
X1.3541 Y2.3876 Z0.0172 I0.0037 J0.0034
X1.3467 Y2.3808 Z0.0166 I-0.0037 J-0.0034
X1.3541 Y2.3876 Z0.0161 I0.0037 J0.0034
X1.3467 Y2.3808 Z0.0155 I-0.0037 J-0.0034
X1.3541 Y2.3876 Z0.015 I0.0037 J0.0034
X1.3467 Y2.3808 Z0.0144 I-0.0037 J-0.0034
X1.3541 Y2.3876 Z0.0139 I0.0037 J0.0034
X1.3467 Y2.3808 Z0.0133 I-0.0037 J-0.0034
X1.3541 Y2.3876 Z0.0128 I0.0037 J0.0034
X1.3467 Y2.3808 Z0.0122 I-0.0037 J-0.0034
X1.3541 Y2.3876 Z0.0117 I0.0037 J0.0034
X1.3467 Y2.3808 Z0.0111 I-0.0037 J-0.0034
X1.3541 Y2.3876 Z0.0106 I0.0037 J0.0034
X1.3467 Y2.3808 Z0.01 I-0.0037 J-0.0034
X1.3541 Y2.3876 Z0.0095 I0.0037 J0.0034
X1.3467 Y2.3808 Z0.0089 I-0.0037 J-0.0034
X1.3541 Y2.3876 Z0.0084 I0.0037 J0.0034
X1.3467 Y2.3808 Z0.0078 I-0.0037 J-0.0034
X1.3541 Y2.3876 Z0.0073 I0.0037 J0.0034
X1.3467 Y2.3808 Z0.0067 I-0.0037 J-0.0034
X1.3541 Y2.3876 Z0.0062 I0.0037 J0.0034
X1.3467 Y2.3808 Z0.0057 I-0.0037 J-0.0034
X1.3541 Y2.3876 Z0.0051 I0.0037 J0.0034
X1.3467 Y2.3808 Z0.0046 I-0.0037 J-0.0034
X1.3541 Y2.3876 Z0.004 I0.0037 J0.0034
X1.3467 Y2.3808 Z0.0035 I-0.0037 J-0.0034
X1.3541 Y2.3876 Z0.0029 I0.0037 J0.0034
X1.3467 Y2.3808 Z0.0024 I-0.0037 J-0.0034
X1.3541 Y2.3876 Z0.0018 I0.0037 J0.0034
X1.3467 Y2.3808 Z0.0013 I-0.0037 J-0.0034
X1.3541 Y2.3876 Z0.0007 I0.0037 J0.0034
X1.3467 Y2.3808 Z0.0002 I-0.0037 J-0.0034
X1.3541 Y2.3876 Z-0.0004 I0.0037 J0.0034
X1.3467 Y2.3808 Z-0.0009 I-0.0037 J-0.0034
X1.3541 Y2.3876 Z-0.0015 I0.0037 J0.0034
X1.3467 Y2.3808 Z-0.002 I-0.0037 J-0.0034
X1.3541 Y2.3876 Z-0.0026 I0.0037 J0.0034
X1.3467 Y2.3808 Z-0.0031 I-0.0037 J-0.0034
X1.3541 Y2.3876 Z-0.0037 I0.0037 J0.0034
X1.3467 Y2.3808 Z-0.0042 I-0.0037 J-0.0034
X1.3541 Y2.3876 Z-0.0048 I0.0037 J0.0034
X1.3467 Y2.3808 Z-0.0053 I-0.0037 J-0.0034
X1.3541 Y2.3876 Z-0.0059 I0.0037 J0.0034
X1.3467 Y2.3808 Z-0.0064 I-0.0037 J-0.0034
X1.3541 Y2.3876 Z-0.007 I0.0037 J0.0034
X1.3467 Y2.3808 Z-0.0075 I-0.0037 J-0.0034
X1.3541 Y2.3876 Z-0.0081 I0.0037 J0.0034
X1.3467 Y2.3808 Z-0.0086 I-0.0037 J-0.0034
X1.3541 Y2.3876 Z-0.0092 I0.0037 J0.0034
X1.3467 Y2.3808 Z-0.0097 I-0.0037 J-0.0034
X1.3541 Y2.3876 Z-0.0103 I0.0037 J0.0034
X1.3467 Y2.3808 Z-0.0108 I-0.0037 J-0.0034
X1.3541 Y2.3876 Z-0.0114 I0.0037 J0.0034
X1.3467 Y2.3808 Z-0.0119 I-0.0037 J-0.0034
X1.3541 Y2.3876 Z-0.0124 I0.0037 J0.0034
X1.3467 Y2.3808 Z-0.013 I-0.0037 J-0.0034
X1.3541 Y2.3876 Z-0.0135 I0.0037 J0.0034
X1.3467 Y2.3808 Z-0.0141 I-0.0037 J-0.0034
X1.3541 Y2.3876 Z-0.0146 I0.0037 J0.0034
X1.3467 Y2.3808 Z-0.0152 I-0.0037 J-0.0034
X1.3541 Y2.3876 Z-0.0157 I0.0037 J0.0034
X1.3467 Y2.3808 Z-0.0163 I-0.0037 J-0.0034
X1.3541 Y2.3876 Z-0.0168 I0.0037 J0.0034
X1.3467 Y2.3808 Z-0.0174 I-0.0037 J-0.0034
X1.3541 Y2.3876 Z-0.0179 I0.0037 J0.0034
X1.3467 Y2.3808 Z-0.0185 I-0.0037 J-0.0034
X1.3541 Y2.3876 Z-0.019 I0.0037 J0.0034
X1.3467 Y2.3808 Z-0.0196 I-0.0037 J-0.0034
X1.3554 Y2.3842 Z-0.02 I0.0037 J0.0034
X1.3034 I-0.026 J0. F30.
X1.3554 I0.026 J0.
X1.3034 Z-0.0229 I-0.026 J0. F20.
X1.3554 Z-0.0257 I0.026 J0.
X1.3034 Z-0.0286 I-0.026 J0.
X1.3554 Z-0.0314 I0.026 J0.
X1.3034 Z-0.0343 I-0.026 J0.
X1.3554 Z-0.0371 I0.026 J0.
X1.3289 Y2.4102 Z-0.0386 I-0.026 J0.
X1.3034 Y2.3833 Z-0.04 I0.0005 J-0.026
X1.3554 Y2.3852 I0.026 J0.001 F30.
X1.3034 Y2.3833 I-0.026 J-0.001
X1.3554 Y2.3852 Z-0.0429 I0.026 J0.001 F20.
X1.3034 Y2.3833 Z-0.0457 I-0.026 J-0.001
X1.3554 Y2.3852 Z-0.0486 I0.026 J0.001
X1.3034 Y2.3833 Z-0.0514 I-0.026 J-0.001
X1.3554 Y2.3852 Z-0.0543 I0.026 J0.001
X1.3034 Y2.3833 Z-0.0571 I-0.026 J-0.001
X1.3308 Y2.3583 Z-0.0586 I0.026 J0.001
X1.3553 Y2.3861 Z-0.06 I-0.0014 J0.026
X1.3035 Y2.3823 I-0.0259 J-0.0019 F30.
X1.3553 Y2.3861 I0.0259 J0.0019
X1.3035 Y2.3823 Z-0.0629 I-0.0259 J-0.0019 F20.
X1.3553 Y2.3861 Z-0.0657 I0.0259 J0.0019
X1.3035 Y2.3823 Z-0.0686 I-0.0259 J-0.0019
X1.3553 Y2.3861 Z-0.0714 I0.0259 J0.0019
X1.3035 Y2.3823 Z-0.0743 I-0.0259 J-0.0019
X1.3553 Y2.3861 Z-0.0771 I0.0259 J0.0019
X1.327 Y2.4101 Z-0.0786 I-0.0259 J-0.0019
X1.3036 Y2.3814 Z-0.08 I0.0024 J-0.0259
X1.3552 Y2.3871 I0.0258 J0.0029 F30.
X1.3036 Y2.3814 I-0.0258 J-0.0029
X1.3552 Y2.3871 Z-0.0829 I0.0258 J0.0029 F20.
X1.3036 Y2.3814 Z-0.0857 I-0.0258 J-0.0029
X1.3552 Y2.3871 Z-0.0886 I0.0258 J0.0029
X1.3036 Y2.3814 Z-0.0914 I-0.0258 J-0.0029
X1.3552 Y2.3871 Z-0.0943 I0.0258 J0.0029
X1.3036 Y2.3814 Z-0.0971 I-0.0258 J-0.0029
X1.3327 Y2.3584 Z-0.0986 I0.0258 J0.0029
X1.3551 Y2.388 Z-0.1 I-0.0033 J0.0258
X1.3037 Y2.3804 I-0.0257 J-0.0038 F30.
X1.3551 Y2.388 I0.0257 J0.0038
X1.3037 Y2.3804 Z-0.1029 I-0.0257 J-0.0038 F20.
X1.3551 Y2.388 Z-0.1057 I0.0257 J0.0038
X1.3037 Y2.3804 Z-0.1086 I-0.0257 J-0.0038
X1.3551 Y2.388 Z-0.1114 I0.0257 J0.0038
X1.3037 Y2.3804 Z-0.1143 I-0.0257 J-0.0038
X1.3551 Y2.388 Z-0.1171 I0.0257 J0.0038
X1.3251 Y2.4099 Z-0.1186 I-0.0257 J-0.0038
X1.3038 Y2.3795 Z-0.12 I0.0043 J-0.0256
X1.355 Y2.389 I0.0256 J0.0047 F30.
X1.3038 Y2.3795 I-0.0256 J-0.0047
X1.355 Y2.389 Z-0.1229 I0.0256 J0.0047 F20.
X1.3038 Y2.3795 Z-0.1257 I-0.0256 J-0.0047
X1.355 Y2.389 Z-0.1286 I0.0256 J0.0047
X1.3038 Y2.3795 Z-0.1314 I-0.0256 J-0.0047
X1.355 Y2.389 Z-0.1343 I0.0256 J0.0047
X1.3038 Y2.3795 Z-0.1371 I-0.0256 J-0.0047
X1.3346 Y2.3587 Z-0.1386 I0.0256 J0.0047
X1.3548 Y2.3899 Z-0.14 I-0.0052 J0.0255
X1.304 Y2.3785 I-0.0254 J-0.0057 F30.
X1.3548 Y2.3899 I0.0254 J0.0057
G1 X1.3541 Y2.392 Z-0.1396
X1.353 Y2.394 Z-0.1391
X1.3518 Y2.3955 Z-0.1378
X1.3503 Y2.3968 Z-0.1365
X1.3481 Y2.3981 Z-0.1327
X1.3473 Y2.3984 Z-0.1282
G0 Z0.2
X2.3244 Y2.4051
G1 Z0.1118 F30.
X2.3245 Y2.4043 Z0.1075 F20.
X2.3248 Y2.4032 Z0.1057
X2.3254 Y2.4022 Z0.1039
X2.3263 Y2.4013 Z0.1029
X2.3273 Y2.4007 Z0.102
X2.3285 Y2.4003 Z0.1011
X2.33 Z0.1007
X2.3315 Y2.4007 Z0.1004
X2.3328 Y2.4015 Z0.1
G3 X2.326 Y2.4089 Z0.0995 I-0.0034 J0.0037
X2.3328 Y2.4015 Z0.0989 I0.0034 J-0.0037
X2.326 Y2.4089 Z0.0984 I-0.0034 J0.0037
X2.3328 Y2.4015 Z0.0978 I0.0034 J-0.0037
X2.326 Y2.4089 Z0.0973 I-0.0034 J0.0037
X2.3328 Y2.4015 Z0.0967 I0.0034 J-0.0037
X2.326 Y2.4089 Z0.0962 I-0.0034 J0.0037
X2.3328 Y2.4015 Z0.0956 I0.0034 J-0.0037
X2.326 Y2.4089 Z0.0951 I-0.0034 J0.0037
X2.3328 Y2.4015 Z0.0945 I0.0034 J-0.0037
X2.326 Y2.4089 Z0.094 I-0.0034 J0.0037
X2.3328 Y2.4015 Z0.0934 I0.0034 J-0.0037
X2.326 Y2.4089 Z0.0929 I-0.0034 J0.0037
X2.3328 Y2.4015 Z0.0923 I0.0034 J-0.0037
X2.326 Y2.4089 Z0.0918 I-0.0034 J0.0037
X2.3328 Y2.4015 Z0.0912 I0.0034 J-0.0037
X2.326 Y2.4089 Z0.0907 I-0.0034 J0.0037
X2.3328 Y2.4015 Z0.0901 I0.0034 J-0.0037
X2.326 Y2.4089 Z0.0896 I-0.0034 J0.0037
X2.3328 Y2.4015 Z0.089 I0.0034 J-0.0037
X2.326 Y2.4089 Z0.0885 I-0.0034 J0.0037
X2.3328 Y2.4015 Z0.0879 I0.0034 J-0.0037
X2.326 Y2.4089 Z0.0874 I-0.0034 J0.0037
X2.3328 Y2.4015 Z0.0868 I0.0034 J-0.0037
X2.326 Y2.4089 Z0.0863 I-0.0034 J0.0037
X2.3328 Y2.4015 Z0.0857 I0.0034 J-0.0037
X2.326 Y2.4089 Z0.0852 I-0.0034 J0.0037
X2.3328 Y2.4015 Z0.0846 I0.0034 J-0.0037
X2.326 Y2.4089 Z0.0841 I-0.0034 J0.0037
X2.3328 Y2.4015 Z0.0835 I0.0034 J-0.0037
X2.326 Y2.4089 Z0.083 I-0.0034 J0.0037
X2.3328 Y2.4015 Z0.0824 I0.0034 J-0.0037
X2.326 Y2.4089 Z0.0819 I-0.0034 J0.0037
X2.3328 Y2.4015 Z0.0813 I0.0034 J-0.0037
X2.326 Y2.4089 Z0.0808 I-0.0034 J0.0037
X2.3328 Y2.4015 Z0.0803 I0.0034 J-0.0037
X2.326 Y2.4089 Z0.0797 I-0.0034 J0.0037
X2.3328 Y2.4015 Z0.0792 I0.0034 J-0.0037
X2.326 Y2.4089 Z0.0786 I-0.0034 J0.0037
X2.3328 Y2.4015 Z0.0781 I0.0034 J-0.0037
X2.326 Y2.4089 Z0.0775 I-0.0034 J0.0037
X2.3328 Y2.4015 Z0.077 I0.0034 J-0.0037
X2.326 Y2.4089 Z0.0764 I-0.0034 J0.0037
X2.3328 Y2.4015 Z0.0759 I0.0034 J-0.0037
X2.326 Y2.4089 Z0.0753 I-0.0034 J0.0037
X2.3328 Y2.4015 Z0.0748 I0.0034 J-0.0037
X2.326 Y2.4089 Z0.0742 I-0.0034 J0.0037
X2.3328 Y2.4015 Z0.0737 I0.0034 J-0.0037
X2.326 Y2.4089 Z0.0731 I-0.0034 J0.0037
X2.3328 Y2.4015 Z0.0726 I0.0034 J-0.0037
X2.326 Y2.4089 Z0.072 I-0.0034 J0.0037
X2.3328 Y2.4015 Z0.0715 I0.0034 J-0.0037
X2.326 Y2.4089 Z0.0709 I-0.0034 J0.0037
X2.3328 Y2.4015 Z0.0704 I0.0034 J-0.0037
X2.326 Y2.4089 Z0.0698 I-0.0034 J0.0037
X2.3328 Y2.4015 Z0.0693 I0.0034 J-0.0037
X2.326 Y2.4089 Z0.0687 I-0.0034 J0.0037
X2.3328 Y2.4015 Z0.0682 I0.0034 J-0.0037
X2.326 Y2.4089 Z0.0676 I-0.0034 J0.0037
X2.3328 Y2.4015 Z0.0671 I0.0034 J-0.0037
X2.326 Y2.4089 Z0.0665 I-0.0034 J0.0037
X2.3328 Y2.4015 Z0.066 I0.0034 J-0.0037
X2.326 Y2.4089 Z0.0654 I-0.0034 J0.0037
X2.3328 Y2.4015 Z0.0649 I0.0034 J-0.0037
X2.326 Y2.4089 Z0.0643 I-0.0034 J0.0037
X2.3328 Y2.4015 Z0.0638 I0.0034 J-0.0037
X2.326 Y2.4089 Z0.0632 I-0.0034 J0.0037
X2.3328 Y2.4015 Z0.0627 I0.0034 J-0.0037
X2.326 Y2.4089 Z0.0622 I-0.0034 J0.0037
X2.3328 Y2.4015 Z0.0616 I0.0034 J-0.0037
X2.326 Y2.4089 Z0.0611 I-0.0034 J0.0037
X2.3328 Y2.4015 Z0.0605 I0.0034 J-0.0037
X2.326 Y2.4089 Z0.06 I-0.0034 J0.0037
X2.3328 Y2.4015 Z0.0594 I0.0034 J-0.0037
X2.326 Y2.4089 Z0.0589 I-0.0034 J0.0037
X2.3328 Y2.4015 Z0.0583 I0.0034 J-0.0037
X2.326 Y2.4089 Z0.0578 I-0.0034 J0.0037
X2.3328 Y2.4015 Z0.0572 I0.0034 J-0.0037
X2.326 Y2.4089 Z0.0567 I-0.0034 J0.0037
X2.3328 Y2.4015 Z0.0561 I0.0034 J-0.0037
X2.326 Y2.4089 Z0.0556 I-0.0034 J0.0037
X2.3328 Y2.4015 Z0.055 I0.0034 J-0.0037
X2.326 Y2.4089 Z0.0545 I-0.0034 J0.0037
X2.3328 Y2.4015 Z0.0539 I0.0034 J-0.0037
X2.326 Y2.4089 Z0.0534 I-0.0034 J0.0037
X2.3328 Y2.4015 Z0.0528 I0.0034 J-0.0037
X2.326 Y2.4089 Z0.0523 I-0.0034 J0.0037
X2.3328 Y2.4015 Z0.0517 I0.0034 J-0.0037
X2.326 Y2.4089 Z0.0512 I-0.0034 J0.0037
X2.3328 Y2.4015 Z0.0506 I0.0034 J-0.0037
X2.326 Y2.4089 Z0.0501 I-0.0034 J0.0037
X2.3328 Y2.4015 Z0.0495 I0.0034 J-0.0037
X2.326 Y2.4089 Z0.049 I-0.0034 J0.0037
X2.3328 Y2.4015 Z0.0484 I0.0034 J-0.0037
X2.326 Y2.4089 Z0.0479 I-0.0034 J0.0037
X2.3328 Y2.4015 Z0.0473 I0.0034 J-0.0037
X2.326 Y2.4089 Z0.0468 I-0.0034 J0.0037
X2.3328 Y2.4015 Z0.0462 I0.0034 J-0.0037
X2.326 Y2.4089 Z0.0457 I-0.0034 J0.0037
X2.3328 Y2.4015 Z0.0451 I0.0034 J-0.0037
X2.326 Y2.4089 Z0.0446 I-0.0034 J0.0037
X2.3328 Y2.4015 Z0.044 I0.0034 J-0.0037
X2.326 Y2.4089 Z0.0435 I-0.0034 J0.0037
X2.3328 Y2.4015 Z0.043 I0.0034 J-0.0037
X2.326 Y2.4089 Z0.0424 I-0.0034 J0.0037
X2.3328 Y2.4015 Z0.0419 I0.0034 J-0.0037
X2.326 Y2.4089 Z0.0413 I-0.0034 J0.0037
X2.3328 Y2.4015 Z0.0408 I0.0034 J-0.0037
X2.326 Y2.4089 Z0.0402 I-0.0034 J0.0037
X2.3328 Y2.4015 Z0.0397 I0.0034 J-0.0037
X2.326 Y2.4089 Z0.0391 I-0.0034 J0.0037
X2.3328 Y2.4015 Z0.0386 I0.0034 J-0.0037
X2.326 Y2.4089 Z0.038 I-0.0034 J0.0037
X2.3328 Y2.4015 Z0.0375 I0.0034 J-0.0037
X2.326 Y2.4089 Z0.0369 I-0.0034 J0.0037
X2.3328 Y2.4015 Z0.0364 I0.0034 J-0.0037
X2.326 Y2.4089 Z0.0358 I-0.0034 J0.0037
X2.3328 Y2.4015 Z0.0353 I0.0034 J-0.0037
X2.326 Y2.4089 Z0.0347 I-0.0034 J0.0037
X2.3328 Y2.4015 Z0.0342 I0.0034 J-0.0037
X2.326 Y2.4089 Z0.0336 I-0.0034 J0.0037
X2.3328 Y2.4015 Z0.0331 I0.0034 J-0.0037
X2.326 Y2.4089 Z0.0325 I-0.0034 J0.0037
X2.3328 Y2.4015 Z0.032 I0.0034 J-0.0037
X2.326 Y2.4089 Z0.0314 I-0.0034 J0.0037
X2.3328 Y2.4015 Z0.0309 I0.0034 J-0.0037
X2.326 Y2.4089 Z0.0303 I-0.0034 J0.0037
X2.3328 Y2.4015 Z0.0298 I0.0034 J-0.0037
X2.326 Y2.4089 Z0.0292 I-0.0034 J0.0037
X2.3328 Y2.4015 Z0.0287 I0.0034 J-0.0037
X2.326 Y2.4089 Z0.0281 I-0.0034 J0.0037
X2.3328 Y2.4015 Z0.0276 I0.0034 J-0.0037
X2.326 Y2.4089 Z0.027 I-0.0034 J0.0037
X2.3328 Y2.4015 Z0.0265 I0.0034 J-0.0037
X2.326 Y2.4089 Z0.0259 I-0.0034 J0.0037
X2.3328 Y2.4015 Z0.0254 I0.0034 J-0.0037
X2.326 Y2.4089 Z0.0249 I-0.0034 J0.0037
X2.3328 Y2.4015 Z0.0243 I0.0034 J-0.0037
X2.326 Y2.4089 Z0.0238 I-0.0034 J0.0037
X2.3328 Y2.4015 Z0.0232 I0.0034 J-0.0037
X2.326 Y2.4089 Z0.0227 I-0.0034 J0.0037
X2.3328 Y2.4015 Z0.0221 I0.0034 J-0.0037
X2.326 Y2.4089 Z0.0216 I-0.0034 J0.0037
X2.3328 Y2.4015 Z0.021 I0.0034 J-0.0037
X2.326 Y2.4089 Z0.0205 I-0.0034 J0.0037
X2.3328 Y2.4015 Z0.0199 I0.0034 J-0.0037
X2.326 Y2.4089 Z0.0194 I-0.0034 J0.0037
X2.3328 Y2.4015 Z0.0188 I0.0034 J-0.0037
X2.326 Y2.4089 Z0.0183 I-0.0034 J0.0037
X2.3328 Y2.4015 Z0.0177 I0.0034 J-0.0037
X2.326 Y2.4089 Z0.0172 I-0.0034 J0.0037
X2.3328 Y2.4015 Z0.0166 I0.0034 J-0.0037
X2.326 Y2.4089 Z0.0161 I-0.0034 J0.0037
X2.3328 Y2.4015 Z0.0155 I0.0034 J-0.0037
X2.326 Y2.4089 Z0.015 I-0.0034 J0.0037
X2.3328 Y2.4015 Z0.0144 I0.0034 J-0.0037
X2.326 Y2.4089 Z0.0139 I-0.0034 J0.0037
X2.3328 Y2.4015 Z0.0133 I0.0034 J-0.0037
X2.326 Y2.4089 Z0.0128 I-0.0034 J0.0037
X2.3328 Y2.4015 Z0.0122 I0.0034 J-0.0037
X2.326 Y2.4089 Z0.0117 I-0.0034 J0.0037
X2.3328 Y2.4015 Z0.0111 I0.0034 J-0.0037
X2.326 Y2.4089 Z0.0106 I-0.0034 J0.0037
X2.3328 Y2.4015 Z0.01 I0.0034 J-0.0037
X2.326 Y2.4089 Z0.0095 I-0.0034 J0.0037
X2.3328 Y2.4015 Z0.0089 I0.0034 J-0.0037
X2.326 Y2.4089 Z0.0084 I-0.0034 J0.0037
X2.3328 Y2.4015 Z0.0078 I0.0034 J-0.0037
X2.326 Y2.4089 Z0.0073 I-0.0034 J0.0037
X2.3328 Y2.4015 Z0.0067 I0.0034 J-0.0037
X2.326 Y2.4089 Z0.0062 I-0.0034 J0.0037
X2.3328 Y2.4015 Z0.0057 I0.0034 J-0.0037
X2.326 Y2.4089 Z0.0051 I-0.0034 J0.0037
X2.3328 Y2.4015 Z0.0046 I0.0034 J-0.0037
X2.326 Y2.4089 Z0.004 I-0.0034 J0.0037
X2.3328 Y2.4015 Z0.0035 I0.0034 J-0.0037
X2.326 Y2.4089 Z0.0029 I-0.0034 J0.0037
X2.3328 Y2.4015 Z0.0024 I0.0034 J-0.0037
X2.326 Y2.4089 Z0.0018 I-0.0034 J0.0037
X2.3328 Y2.4015 Z0.0013 I0.0034 J-0.0037
X2.326 Y2.4089 Z0.0007 I-0.0034 J0.0037
X2.3328 Y2.4015 Z0.0002 I0.0034 J-0.0037
X2.326 Y2.4089 Z-0.0004 I-0.0034 J0.0037
X2.3328 Y2.4015 Z-0.0009 I0.0034 J-0.0037
X2.326 Y2.4089 Z-0.0015 I-0.0034 J0.0037
X2.3328 Y2.4015 Z-0.002 I0.0034 J-0.0037
X2.326 Y2.4089 Z-0.0026 I-0.0034 J0.0037
X2.3328 Y2.4015 Z-0.0031 I0.0034 J-0.0037
X2.326 Y2.4089 Z-0.0037 I-0.0034 J0.0037
X2.3328 Y2.4015 Z-0.0042 I0.0034 J-0.0037
X2.326 Y2.4089 Z-0.0048 I-0.0034 J0.0037
X2.3328 Y2.4015 Z-0.0053 I0.0034 J-0.0037
X2.326 Y2.4089 Z-0.0059 I-0.0034 J0.0037
X2.3328 Y2.4015 Z-0.0064 I0.0034 J-0.0037
X2.326 Y2.4089 Z-0.007 I-0.0034 J0.0037
X2.3328 Y2.4015 Z-0.0075 I0.0034 J-0.0037
X2.326 Y2.4089 Z-0.0081 I-0.0034 J0.0037
X2.3328 Y2.4015 Z-0.0086 I0.0034 J-0.0037
X2.326 Y2.4089 Z-0.0092 I-0.0034 J0.0037
X2.3328 Y2.4015 Z-0.0097 I0.0034 J-0.0037
X2.326 Y2.4089 Z-0.0103 I-0.0034 J0.0037
X2.3328 Y2.4015 Z-0.0108 I0.0034 J-0.0037
X2.326 Y2.4089 Z-0.0114 I-0.0034 J0.0037
X2.3328 Y2.4015 Z-0.0119 I0.0034 J-0.0037
X2.326 Y2.4089 Z-0.0124 I-0.0034 J0.0037
X2.3328 Y2.4015 Z-0.013 I0.0034 J-0.0037
X2.326 Y2.4089 Z-0.0135 I-0.0034 J0.0037
X2.3328 Y2.4015 Z-0.0141 I0.0034 J-0.0037
X2.326 Y2.4089 Z-0.0146 I-0.0034 J0.0037
X2.3328 Y2.4015 Z-0.0152 I0.0034 J-0.0037
X2.326 Y2.4089 Z-0.0157 I-0.0034 J0.0037
X2.3328 Y2.4015 Z-0.0163 I0.0034 J-0.0037
X2.326 Y2.4089 Z-0.0168 I-0.0034 J0.0037
X2.3328 Y2.4015 Z-0.0174 I0.0034 J-0.0037
X2.326 Y2.4089 Z-0.0179 I-0.0034 J0.0037
X2.3328 Y2.4015 Z-0.0185 I0.0034 J-0.0037
X2.326 Y2.4089 Z-0.019 I-0.0034 J0.0037
X2.3328 Y2.4015 Z-0.0196 I0.0034 J-0.0037
X2.3294 Y2.4102 Z-0.02 I-0.0034 J0.0037
Y2.3582 I0. J-0.026 F30.
Y2.4102 I0. J0.026
Y2.3582 Z-0.0229 I0. J-0.026 F20.
Y2.4102 Z-0.0257 I0. J0.026
Y2.3582 Z-0.0286 I0. J-0.026
Y2.4102 Z-0.0314 I0. J0.026
Y2.3582 Z-0.0343 I0. J-0.026
Y2.4102 Z-0.0371 I0. J0.026
X2.3034 Y2.3837 Z-0.0386 I0. J-0.026
X2.3303 Y2.3582 Z-0.04 I0.026 J0.0005
X2.3284 Y2.4102 I-0.001 J0.026 F30.
X2.3303 Y2.3582 I0.001 J-0.026
X2.3284 Y2.4102 Z-0.0429 I-0.001 J0.026 F20.
X2.3303 Y2.3582 Z-0.0457 I0.001 J-0.026
X2.3284 Y2.4102 Z-0.0486 I-0.001 J0.026
X2.3303 Y2.3582 Z-0.0514 I0.001 J-0.026
X2.3284 Y2.4102 Z-0.0543 I-0.001 J0.026
X2.3303 Y2.3582 Z-0.0571 I0.001 J-0.026
X2.3554 Y2.3856 Z-0.0586 I-0.001 J0.026
X2.3275 Y2.4101 Z-0.06 I-0.026 J-0.0014
X2.3313 Y2.3583 I0.0019 J-0.0259 F30.
X2.3275 Y2.4101 I-0.0019 J0.0259
X2.3313 Y2.3583 Z-0.0629 I0.0019 J-0.0259 F20.
X2.3275 Y2.4101 Z-0.0657 I-0.0019 J0.0259
X2.3313 Y2.3583 Z-0.0686 I0.0019 J-0.0259
X2.3275 Y2.4101 Z-0.0714 I-0.0019 J0.0259
X2.3313 Y2.3583 Z-0.0743 I0.0019 J-0.0259
X2.3275 Y2.4101 Z-0.0771 I-0.0019 J0.0259
X2.3035 Y2.3818 Z-0.0786 I0.0019 J-0.0259
X2.3323 Y2.3584 Z-0.08 I0.0259 J0.0024
X2.3265 Y2.4101 I-0.0029 J0.0258 F30.
X2.3323 Y2.3584 I0.0029 J-0.0258
X2.3265 Y2.4101 Z-0.0829 I-0.0029 J0.0258 F20.
X2.3323 Y2.3584 Z-0.0857 I0.0029 J-0.0258
X2.3265 Y2.4101 Z-0.0886 I-0.0029 J0.0258
X2.3323 Y2.3584 Z-0.0914 I0.0029 J-0.0258
X2.3265 Y2.4101 Z-0.0943 I-0.0029 J0.0258
X2.3323 Y2.3584 Z-0.0971 I0.0029 J-0.0258
X2.3552 Y2.3875 Z-0.0986 I-0.0029 J0.0258
X2.3256 Y2.4099 Z-0.1 I-0.0258 J-0.0033
X2.3332 Y2.3585 I0.0038 J-0.0257 F30.
X2.3256 Y2.4099 I-0.0038 J0.0257
X2.3332 Y2.3585 Z-0.1029 I0.0038 J-0.0257 F20.
X2.3256 Y2.4099 Z-0.1057 I-0.0038 J0.0257
X2.3332 Y2.3585 Z-0.1086 I0.0038 J-0.0257
X2.3256 Y2.4099 Z-0.1114 I-0.0038 J0.0257
X2.3332 Y2.3585 Z-0.1143 I0.0038 J-0.0257
X2.3256 Y2.4099 Z-0.1171 I-0.0038 J0.0257
X2.3037 Y2.3799 Z-0.1186 I0.0038 J-0.0257
X2.3341 Y2.3586 Z-0.12 I0.0256 J0.0043
X2.3246 Y2.4098 I-0.0047 J0.0256 F30.
X2.3341 Y2.3586 I0.0047 J-0.0256
X2.3246 Y2.4098 Z-0.1229 I-0.0047 J0.0256 F20.
X2.3341 Y2.3586 Z-0.1257 I0.0047 J-0.0256
X2.3246 Y2.4098 Z-0.1286 I-0.0047 J0.0256
X2.3341 Y2.3586 Z-0.1314 I0.0047 J-0.0256
X2.3246 Y2.4098 Z-0.1343 I-0.0047 J0.0256
X2.3341 Y2.3586 Z-0.1371 I0.0047 J-0.0256
X2.3549 Y2.3894 Z-0.1386 I-0.0047 J0.0256
X2.3237 Y2.4096 Z-0.14 I-0.0255 J-0.0052
X2.3351 Y2.3588 I0.0057 J-0.0254 F30.
X2.3237 Y2.4096 I-0.0057 J0.0254
G1 X2.3216 Y2.4089 Z-0.1396
X2.3196 Y2.4078 Z-0.1391
X2.3181 Y2.4066 Z-0.1378
X2.3168 Y2.4051 Z-0.1365
X2.3155 Y2.403 Z-0.1327
X2.3152 Y2.4021 Z-0.1282
G0 Z0.6

M9
M30
