(SIDE MOUNTING RAILS)
(T1  D=6.35 CR=0. - ZMIN=20.225 - FLAT END MILL)
G90 G94 G91.1 G40 G49 G17
G21
G0 Z45

(BORE1 2)
M5
T1 M6
S15000 M3
G54
M8
G0 X110.948 Y9.644
G43 Z41.4 H1
Z29.265
G1 Z27.9 F1600.
Y9.327
G2 X110.75 Y9.128 I-0.198 J0.
Y9.922 Z27.838 I0. J0.397
Y9.128 Z27.775 I0. J-0.397
Y9.922 Z27.713 I0. J0.397
Y9.128 Z27.651 I0. J-0.397
Y9.922 Z27.588 I0. J0.397
Y9.128 Z27.526 I0. J-0.397
Y9.922 Z27.464 I0. J0.397
Y9.128 Z27.401 I0. J-0.397
Y9.922 Z27.339 I0. J0.397
Y9.128 Z27.277 I0. J-0.397
Y9.922 Z27.214 I0. J0.397
Y9.128 Z27.152 I0. J-0.397
Y9.922 Z27.089 I0. J0.397
Y9.128 Z27.027 I0. J-0.397
Y9.922 Z26.965 I0. J0.397
Y9.128 Z26.902 I0. J-0.397
Y9.922 Z26.84 I0. J0.397
Y9.128 Z26.778 I0. J-0.397
Y9.922 Z26.715 I0. J0.397
Y9.128 Z26.653 I0. J-0.397
Y9.922 Z26.591 I0. J0.397
Y9.128 Z26.528 I0. J-0.397
Y9.922 Z26.466 I0. J0.397
Y9.128 Z26.404 I0. J-0.397
Y9.922 Z26.341 I0. J0.397
Y9.128 Z26.279 I0. J-0.397
Y9.922 Z26.217 I0. J0.397
Y9.128 Z26.154 I0. J-0.397
Y9.922 Z26.092 I0. J0.397
Y9.128 Z26.03 I0. J-0.397
Y9.922 Z25.967 I0. J0.397
Y9.128 Z25.905 I0. J-0.397
Y9.922 Z25.843 I0. J0.397
Y9.128 Z25.78 I0. J-0.397
Y9.922 Z25.718 I0. J0.397
Y9.128 Z25.655 I0. J-0.397
Y9.922 Z25.593 I0. J0.397
Y9.128 Z25.531 I0. J-0.397
Y9.922 Z25.468 I0. J0.397
Y9.128 Z25.406 I0. J-0.397
Y9.922 Z25.344 I0. J0.397
Y9.128 Z25.281 I0. J-0.397
Y9.922 Z25.219 I0. J0.397
Y9.128 Z25.157 I0. J-0.397
Y9.922 Z25.094 I0. J0.397
Y9.128 Z25.032 I0. J-0.397
Y9.922 Z24.97 I0. J0.397
Y9.128 Z24.907 I0. J-0.397
Y9.922 Z24.845 I0. J0.397
Y9.128 Z24.783 I0. J-0.397
Y9.922 Z24.72 I0. J0.397
Y9.128 Z24.658 I0. J-0.397
Y9.922 Z24.596 I0. J0.397
Y9.128 Z24.533 I0. J-0.397
Y9.922 Z24.471 I0. J0.397
Y9.128 Z24.409 I0. J-0.397
Y9.922 Z24.346 I0. J0.397
Y9.128 Z24.284 I0. J-0.397
Y9.922 Z24.222 I0. J0.397
Y9.128 Z24.159 I0. J-0.397
Y9.922 Z24.097 I0. J0.397
Y9.128 Z24.034 I0. J-0.397
Y9.922 Z23.972 I0. J0.397
Y9.128 Z23.91 I0. J-0.397
Y9.922 Z23.847 I0. J0.397
Y9.128 Z23.785 I0. J-0.397
Y9.922 Z23.723 I0. J0.397
Y9.128 Z23.66 I0. J-0.397
Y9.922 Z23.598 I0. J0.397
Y9.128 Z23.536 I0. J-0.397
Y9.922 Z23.473 I0. J0.397
Y9.128 Z23.411 I0. J-0.397
Y9.922 Z23.349 I0. J0.397
Y9.128 Z23.286 I0. J-0.397
Y9.922 Z23.224 I0. J0.397
Y9.128 Z23.162 I0. J-0.397
Y9.922 Z23.099 I0. J0.397
Y9.128 Z23.037 I0. J-0.397
Y9.922 Z22.975 I0. J0.397
Y9.128 Z22.912 I0. J-0.397
Y9.922 Z22.85 I0. J0.397
Y9.128 Z22.788 I0. J-0.397
Y9.922 Z22.725 I0. J0.397
Y9.128 Z22.663 I0. J-0.397
Y9.922 Z22.6 I0. J0.397
Y9.128 Z22.538 I0. J-0.397
Y9.922 Z22.476 I0. J0.397
Y9.128 Z22.413 I0. J-0.397
Y9.922 Z22.351 I0. J0.397
Y9.128 Z22.289 I0. J-0.397
Y9.922 Z22.226 I0. J0.397
Y9.128 Z22.164 I0. J-0.397
Y9.922 Z22.102 I0. J0.397
Y9.128 Z22.039 I0. J-0.397
Y9.922 Z21.977 I0. J0.397
Y9.128 Z21.915 I0. J-0.397
Y9.922 Z21.852 I0. J0.397
Y9.128 Z21.79 I0. J-0.397
Y9.922 Z21.728 I0. J0.397
Y9.128 Z21.665 I0. J-0.397
Y9.922 Z21.603 I0. J0.397
Y9.128 Z21.541 I0. J-0.397
Y9.922 Z21.478 I0. J0.397
Y9.128 Z21.416 I0. J-0.397
Y9.922 Z21.354 I0. J0.397
Y9.128 Z21.291 I0. J-0.397
Y9.922 Z21.229 I0. J0.397
Y9.128 Z21.166 I0. J-0.397
Y9.922 Z21.104 I0. J0.397
Y9.128 Z21.042 I0. J-0.397
Y9.922 Z20.979 I0. J0.397
Y9.128 Z20.917 I0. J-0.397
Y9.922 Z20.855 I0. J0.397
Y9.128 Z20.792 I0. J-0.397
Y9.922 Z20.73 I0. J0.397
Y9.128 Z20.668 I0. J-0.397
Y9.922 Z20.605 I0. J0.397
Y9.128 Z20.543 I0. J-0.397
Y9.922 Z20.481 I0. J0.397
Y9.128 Z20.418 I0. J-0.397
Y9.922 Z20.356 I0. J0.397
Y9.128 Z20.294 I0. J-0.397
Y9.922 Z20.231 I0. J0.397
X110.874 Y9.902 Z20.225 I0. J-0.397
X110.626 Y9.148 I-0.124 J-0.377
X110.874 Y9.902 I0.124 J0.377
X111. Y9.652 I-0.062 J-0.189
G1 X110.902 Y9.35
G0 Z31.4
X136.348 Y9.644
Z29.265
G1 Z27.9 F1600.
Y9.327
G2 X136.15 Y9.128 I-0.198 J0.
Y9.922 Z27.838 I0. J0.397
Y9.128 Z27.775 I0. J-0.397
Y9.922 Z27.713 I0. J0.397
Y9.128 Z27.651 I0. J-0.397
Y9.922 Z27.588 I0. J0.397
Y9.128 Z27.526 I0. J-0.397
Y9.922 Z27.464 I0. J0.397
Y9.128 Z27.401 I0. J-0.397
Y9.922 Z27.339 I0. J0.397
Y9.128 Z27.277 I0. J-0.397
Y9.922 Z27.214 I0. J0.397
Y9.128 Z27.152 I0. J-0.397
Y9.922 Z27.089 I0. J0.397
Y9.128 Z27.027 I0. J-0.397
Y9.922 Z26.965 I0. J0.397
Y9.128 Z26.902 I0. J-0.397
Y9.922 Z26.84 I0. J0.397
Y9.128 Z26.778 I0. J-0.397
Y9.922 Z26.715 I0. J0.397
Y9.128 Z26.653 I0. J-0.397
Y9.922 Z26.591 I0. J0.397
Y9.128 Z26.528 I0. J-0.397
Y9.922 Z26.466 I0. J0.397
Y9.128 Z26.404 I0. J-0.397
Y9.922 Z26.341 I0. J0.397
Y9.128 Z26.279 I0. J-0.397
Y9.922 Z26.217 I0. J0.397
Y9.128 Z26.154 I0. J-0.397
Y9.922 Z26.092 I0. J0.397
Y9.128 Z26.03 I0. J-0.397
Y9.922 Z25.967 I0. J0.397
Y9.128 Z25.905 I0. J-0.397
Y9.922 Z25.843 I0. J0.397
Y9.128 Z25.78 I0. J-0.397
Y9.922 Z25.718 I0. J0.397
Y9.128 Z25.655 I0. J-0.397
Y9.922 Z25.593 I0. J0.397
Y9.128 Z25.531 I0. J-0.397
Y9.922 Z25.468 I0. J0.397
Y9.128 Z25.406 I0. J-0.397
Y9.922 Z25.344 I0. J0.397
Y9.128 Z25.281 I0. J-0.397
Y9.922 Z25.219 I0. J0.397
Y9.128 Z25.157 I0. J-0.397
Y9.922 Z25.094 I0. J0.397
Y9.128 Z25.032 I0. J-0.397
Y9.922 Z24.97 I0. J0.397
Y9.128 Z24.907 I0. J-0.397
Y9.922 Z24.845 I0. J0.397
Y9.128 Z24.783 I0. J-0.397
Y9.922 Z24.72 I0. J0.397
Y9.128 Z24.658 I0. J-0.397
Y9.922 Z24.596 I0. J0.397
Y9.128 Z24.533 I0. J-0.397
Y9.922 Z24.471 I0. J0.397
Y9.128 Z24.409 I0. J-0.397
Y9.922 Z24.346 I0. J0.397
Y9.128 Z24.284 I0. J-0.397
Y9.922 Z24.222 I0. J0.397
Y9.128 Z24.159 I0. J-0.397
Y9.922 Z24.097 I0. J0.397
Y9.128 Z24.034 I0. J-0.397
Y9.922 Z23.972 I0. J0.397
Y9.128 Z23.91 I0. J-0.397
Y9.922 Z23.847 I0. J0.397
Y9.128 Z23.785 I0. J-0.397
Y9.922 Z23.723 I0. J0.397
Y9.128 Z23.66 I0. J-0.397
Y9.922 Z23.598 I0. J0.397
Y9.128 Z23.536 I0. J-0.397
Y9.922 Z23.473 I0. J0.397
Y9.128 Z23.411 I0. J-0.397
Y9.922 Z23.349 I0. J0.397
Y9.128 Z23.286 I0. J-0.397
Y9.922 Z23.224 I0. J0.397
Y9.128 Z23.162 I0. J-0.397
Y9.922 Z23.099 I0. J0.397
Y9.128 Z23.037 I0. J-0.397
Y9.922 Z22.975 I0. J0.397
Y9.128 Z22.912 I0. J-0.397
Y9.922 Z22.85 I0. J0.397
Y9.128 Z22.788 I0. J-0.397
Y9.922 Z22.725 I0. J0.397
Y9.128 Z22.663 I0. J-0.397
Y9.922 Z22.6 I0. J0.397
Y9.128 Z22.538 I0. J-0.397
Y9.922 Z22.476 I0. J0.397
Y9.128 Z22.413 I0. J-0.397
Y9.922 Z22.351 I0. J0.397
Y9.128 Z22.289 I0. J-0.397
Y9.922 Z22.226 I0. J0.397
Y9.128 Z22.164 I0. J-0.397
Y9.922 Z22.102 I0. J0.397
Y9.128 Z22.039 I0. J-0.397
Y9.922 Z21.977 I0. J0.397
Y9.128 Z21.915 I0. J-0.397
Y9.922 Z21.852 I0. J0.397
Y9.128 Z21.79 I0. J-0.397
Y9.922 Z21.728 I0. J0.397
Y9.128 Z21.665 I0. J-0.397
Y9.922 Z21.603 I0. J0.397
Y9.128 Z21.541 I0. J-0.397
Y9.922 Z21.478 I0. J0.397
Y9.128 Z21.416 I0. J-0.397
Y9.922 Z21.354 I0. J0.397
Y9.128 Z21.291 I0. J-0.397
Y9.922 Z21.229 I0. J0.397
Y9.128 Z21.166 I0. J-0.397
Y9.922 Z21.104 I0. J0.397
Y9.128 Z21.042 I0. J-0.397
Y9.922 Z20.979 I0. J0.397
Y9.128 Z20.917 I0. J-0.397
Y9.922 Z20.855 I0. J0.397
Y9.128 Z20.792 I0. J-0.397
Y9.922 Z20.73 I0. J0.397
Y9.128 Z20.668 I0. J-0.397
Y9.922 Z20.605 I0. J0.397
Y9.128 Z20.543 I0. J-0.397
Y9.922 Z20.481 I0. J0.397
Y9.128 Z20.418 I0. J-0.397
Y9.922 Z20.356 I0. J0.397
Y9.128 Z20.294 I0. J-0.397
Y9.922 Z20.231 I0. J0.397
X136.274 Y9.902 Z20.225 I0. J-0.397
X136.026 Y9.148 I-0.124 J-0.377
X136.274 Y9.902 I0.124 J0.377
X136.4 Y9.652 I-0.062 J-0.189
G1 X136.302 Y9.35
G0 Z41.4

G0 Z41.4
M5
G0 Z45
G0 X0 Y0

M9
M30
