(X8 INTAKE CAMERA CONTOUR)
(T3  D=0.118 CR=0. - ZMIN=-0.541 - FLAT END MILL)
G90 G94 G91.1 G40 G49 G17
G20

(2D CONTOUR1)
M5
T3 M6
S15000 M3
G54
M8
G0 X0.5944 Y0.7224
G43 Z0.6 H3
Z0.2
G1 Z0.1118 F20.
G18 G3 X0.5826 Z0.1 I-0.0118 K0. F40.
G1 X0.5708
G17 G3 X0.559 Y0.7106 I0. J-0.0118
G1 Y0. Z0.0752 F20.
G2 X0.5 Y-0.059 Z0.0719 I-0.059 J0.
G1 X0.4452 Z0.07
G2 X0.1454 Y0.1751 Z0.0557 I0. J0.309
G1 X-0.0498 Y0.9558 Z0.0276
G2 X-0.059 Y1.0308 Z0.025 I0.2998 J0.0749
G1 Y1.5 Z0.0086
G2 X0.559 Z-0.0253 I0.309 J0.
G1 Y0. Z-0.0777
G2 X0.5 Y-0.059 Z-0.0809 I-0.059 J0.
G1 X0.4452 Z-0.0828
G2 X0.1454 Y0.1751 Z-0.0971 I0. J0.309
G1 X-0.0498 Y0.9558 Z-0.1252
G2 X-0.059 Y1.0308 Z-0.1279 I0.2998 J0.0749
G1 Y1.5 Z-0.1443
G2 X0.559 Z-0.1782 I0.309 J0.
G1 Y0.875 Z-0.2
Y0. F40.
G2 X0.5 Y-0.059 I-0.059 J0.
G1 X0.4452
G2 X0.1454 Y0.1751 I0. J0.309
G1 X-0.0498 Y0.9558
G2 X-0.059 Y1.0308 I0.2998 J0.0749
G1 Y1.5
G2 X0.559 I0.309 J0.
G1 Y0.875
Y0. Z-0.2306 F20.
G2 X0.5 Y-0.059 Z-0.2338 I-0.059 J0.
G1 X0.4452 Z-0.2357
G2 X0.1454 Y0.1751 Z-0.25 I0. J0.309
G1 X-0.0498 Y0.9558 Z-0.2781
G2 X-0.059 Y1.0308 Z-0.2808 I0.2998 J0.0749
G1 Y1.5 Z-0.2971
G2 X0.559 Z-0.331 I0.309 J0.
G1 Y0. Z-0.3834
G2 X0.5 Y-0.059 Z-0.3867 I-0.059 J0.
G1 X0.4452 Z-0.3886
G2 X0.1758 Y0.0986 Z-0.4 I0. J0.309
X0.1454 Y0.1751 I0.2694 J0.1514 F40.
G1 X-0.0498 Y0.9558
G2 X-0.059 Y1.0308 I0.2998 J0.0749
G1 Y1.5
G2 X0.559 I0.309 J0.
G1 Y0.
G2 X0.5 Y-0.059 I-0.059 J0.
G1 X0.4452
G2 X0.1758 Y0.0986 I0. J0.309
X0.1454 Y0.1751 Z-0.4029 I0.2694 J0.1514 F20.
G1 X-0.0498 Y0.9558 Z-0.431
G2 X-0.059 Y1.0308 Z-0.4336 I0.2998 J0.0749
G1 Y1.5 Z-0.45
G2 X0.559 Z-0.4839 I0.309 J0.
G1 Y0. Z-0.5363
G2 X0.5 Y-0.059 Z-0.5395 I-0.059 J0.
G1 X0.4866 Z-0.54
X0.4452 F40.
G2 X0.1454 Y0.1751 I0. J0.309
G1 X-0.0498 Y0.9558
G2 X-0.059 Y1.0308 I0.2998 J0.0749
G1 Y1.5
G2 X0.559 I0.309 J0.
G1 Y0.
G2 X0.5 Y-0.059 I-0.059 J0.
G1 X0.4866
G3 X0.4748 Y-0.0708 I0. J-0.0118
G1 Y-0.0826
G19 G2 Y-0.0944 Z-0.5282 J0. K0.0118
G0 Z0.6
X0.7763 Y1.0276
Z0.2
G1 Z0.1118 F20.
G18 G2 X0.7881 Z0.1 I0.0118 K0. F40.
G1 X0.7999
G17 G3 X0.8117 Y1.0394 I0. J0.0118
G1 Y1.5 Z0.0839 F20.
G2 X1.4297 Z0.05 I0.309 J0.
G1 Y1.0308 Z0.0336
G2 X1.4204 Y0.9558 Z0.031 I-0.309 J0.
G1 X1.2252 Y0.1751 Z0.0029
G2 X0.9255 Y-0.059 Z-0.0114 I-0.2998 J0.0749
G1 X0.8707 Z-0.0133
G2 X0.8117 Y0. Z-0.0166 I0. J0.059
G1 Y1.5 Z-0.069
G2 X1.4297 Z-0.1029 I0.309 J0.
G1 Y1.0308 Z-0.1192
G2 X1.4204 Y0.9558 Z-0.1219 I-0.309 J0.
G1 X1.2252 Y0.1751 Z-0.15
G2 X0.9255 Y-0.059 Z-0.1643 I-0.2998 J0.0749
G1 X0.8707 Z-0.1662
G2 X0.8117 Y0. Z-0.1694 I0. J0.059
G1 Y0.875 Z-0.2
Y1.5 F40.
G2 X1.4297 I0.309 J0.
G1 Y1.0308
G2 X1.4204 Y0.9558 I-0.309 J0.
G1 X1.2252 Y0.1751
G2 X0.9255 Y-0.059 I-0.2998 J0.0749
G1 X0.8707
G2 X0.8117 Y0. I0. J0.059
G1 Y0.875
Y1.5 Z-0.2218 F20.
G2 X1.4297 Z-0.2557 I0.309 J0.
G1 Y1.0308 Z-0.2721
G2 X1.4204 Y0.9558 Z-0.2748 I-0.309 J0.
G1 X1.2252 Y0.1751 Z-0.3029
G2 X0.9255 Y-0.059 Z-0.3172 I-0.2998 J0.0749
G1 X0.8707 Z-0.3191
G2 X0.8117 Y0. Z-0.3223 I0. J0.059
G1 Y1.5 Z-0.3747
G2 X1.3367 Y1.7209 Z-0.4 I0.309 J0.
X1.4297 Y1.5 I-0.216 J-0.2209 F40.
G1 Y1.0308
G2 X1.4204 Y0.9558 I-0.309 J0.
G1 X1.2252 Y0.1751
G2 X0.9255 Y-0.059 I-0.2998 J0.0749
G1 X0.8707
G2 X0.8117 Y0. I0. J0.059
G1 Y0.875
Y1.5
G2 X1.3367 Y1.7209 I0.309 J0.
X1.4297 Y1.5 Z-0.4086 I-0.216 J-0.2209 F20.
G1 Y1.0308 Z-0.425
G2 X1.4204 Y0.9558 Z-0.4276 I-0.309 J0.
G1 X1.2252 Y0.1751 Z-0.4557
G2 X0.9255 Y-0.059 Z-0.47 I-0.2998 J0.0749
G1 X0.8707 Z-0.4719
G2 X0.8117 Y0. Z-0.4752 I0. J0.059
G1 Y1.5 Z-0.5276
G2 X1.0216 Y1.7927 Z-0.541 I0.309 J0.
X1.4297 Y1.5 I0.099 J-0.2927 F40.
G1 Y1.0308
G2 X1.4204 Y0.9558 I-0.309 J0.
G1 X1.2252 Y0.1751
G2 X0.9255 Y-0.059 I-0.2998 J0.0749
G1 X0.8707
G2 X0.8117 Y0. I0. J0.059
G1 Y1.5
G2 X1.0216 Y1.7927 I0.309 J0.
G3 X1.029 Y1.8077 I-0.0038 J0.0112
G1 X1.0252 Y1.8188
X1.0244 Y1.8213 Z-0.5407
X1.0236 Y1.8237 Z-0.5398
X1.0229 Y1.8258 Z-0.5384
X1.0223 Y1.8276 Z-0.5366
X1.0218 Y1.8289 Z-0.5343
X1.0216 Y1.8297 Z-0.5318
X1.0215 Y1.83 Z-0.5292
G0 Z0.6

M9
M30
