(1001)
(T1  D=6.35 CR=0. - ZMIN=-9.62 - FLAT END MILL)
G90 G94 G91.1 G40 G49 G17
G21
G0 Z15

(BORE1 7)
M5
T1 M6
S15000 M3
G54
M8
G0 X-16.238 Y70.733
G43 Z15. H1
Z4.5
G1 Z3.135 F1600.
G18 G2 X-15.603 Z2.5 I0.635 K0.
G1 X-15.285
G17 G2 X-14.888 Y70.336 I0. J-0.397
X-16.476 Z2.431 I-0.794 J0.
X-14.888 Z2.361 I0.794 J0.
X-16.476 Z2.292 I-0.794 J0.
X-14.888 Z2.223 I0.794 J0.
X-16.476 Z2.154 I-0.794 J0.
X-14.888 Z2.084 I0.794 J0.
X-16.476 Z2.015 I-0.794 J0.
X-14.888 Z1.946 I0.794 J0.
X-16.476 Z1.877 I-0.794 J0.
X-14.888 Z1.807 I0.794 J0.
X-16.476 Z1.738 I-0.794 J0.
X-14.888 Z1.669 I0.794 J0.
X-16.476 Z1.599 I-0.794 J0.
X-14.888 Z1.53 I0.794 J0.
X-16.476 Z1.461 I-0.794 J0.
X-14.888 Z1.392 I0.794 J0.
X-16.476 Z1.322 I-0.794 J0.
X-14.888 Z1.253 I0.794 J0.
X-16.476 Z1.184 I-0.794 J0.
X-14.888 Z1.115 I0.794 J0.
X-16.476 Z1.045 I-0.794 J0.
X-14.888 Z0.976 I0.794 J0.
X-16.476 Z0.907 I-0.794 J0.
X-14.888 Z0.837 I0.794 J0.
X-16.476 Z0.768 I-0.794 J0.
X-14.888 Z0.699 I0.794 J0.
X-16.476 Z0.63 I-0.794 J0.
X-14.888 Z0.56 I0.794 J0.
X-16.476 Z0.491 I-0.794 J0.
X-14.888 Z0.422 I0.794 J0.
X-16.476 Z0.352 I-0.794 J0.
X-14.888 Z0.283 I0.794 J0.
X-16.476 Z0.214 I-0.794 J0.
X-14.888 Z0.145 I0.794 J0.
X-16.476 Z0.075 I-0.794 J0.
X-14.888 Z0.006 I0.794 J0.
X-16.476 Z-0.063 I-0.794 J0.
X-14.888 Z-0.132 I0.794 J0.
X-16.476 Z-0.202 I-0.794 J0.
X-14.888 Z-0.271 I0.794 J0.
X-16.476 Z-0.34 I-0.794 J0.
X-14.888 Z-0.41 I0.794 J0.
X-16.476 Z-0.479 I-0.794 J0.
X-14.888 Z-0.548 I0.794 J0.
X-16.476 Z-0.617 I-0.794 J0.
X-14.888 Z-0.687 I0.794 J0.
X-16.476 Z-0.756 I-0.794 J0.
X-14.888 Z-0.825 I0.794 J0.
X-16.476 Z-0.894 I-0.794 J0.
X-14.888 Z-0.964 I0.794 J0.
X-16.476 Z-1.033 I-0.794 J0.
X-14.888 Z-1.102 I0.794 J0.
X-16.476 Z-1.172 I-0.794 J0.
X-14.888 Z-1.241 I0.794 J0.
X-16.476 Z-1.31 I-0.794 J0.
X-14.888 Z-1.379 I0.794 J0.
X-16.476 Z-1.449 I-0.794 J0.
X-14.888 Z-1.518 I0.794 J0.
X-16.476 Z-1.587 I-0.794 J0.
X-14.888 Z-1.656 I0.794 J0.
X-16.476 Z-1.726 I-0.794 J0.
X-14.888 Z-1.795 I0.794 J0.
X-16.476 Z-1.864 I-0.794 J0.
X-14.888 Z-1.934 I0.794 J0.
X-16.476 Z-2.003 I-0.794 J0.
X-14.888 Z-2.072 I0.794 J0.
X-16.476 Z-2.141 I-0.794 J0.
X-14.888 Z-2.211 I0.794 J0.
X-16.476 Z-2.28 I-0.794 J0.
X-14.888 Z-2.349 I0.794 J0.
X-16.476 Z-2.419 I-0.794 J0.
X-14.888 Z-2.488 I0.794 J0.
X-16.476 Z-2.557 I-0.794 J0.
X-14.888 Z-2.626 I0.794 J0.
X-16.476 Z-2.696 I-0.794 J0.
X-14.888 Z-2.765 I0.794 J0.
X-16.476 Z-2.834 I-0.794 J0.
X-14.888 Z-2.903 I0.794 J0.
X-16.476 Z-2.973 I-0.794 J0.
X-14.888 Z-3.042 I0.794 J0.
X-16.476 Z-3.111 I-0.794 J0.
X-14.888 Z-3.181 I0.794 J0.
X-16.476 Z-3.25 I-0.794 J0.
X-14.888 Z-3.319 I0.794 J0.
X-16.476 Z-3.388 I-0.794 J0.
X-14.888 Z-3.458 I0.794 J0.
X-16.476 Z-3.527 I-0.794 J0.
X-14.888 Z-3.596 I0.794 J0.
X-16.476 Z-3.665 I-0.794 J0.
X-14.888 Z-3.735 I0.794 J0.
X-16.476 Z-3.804 I-0.794 J0.
X-14.888 Z-3.873 I0.794 J0.
X-16.476 Z-3.943 I-0.794 J0.
X-14.888 Z-4.012 I0.794 J0.
X-16.476 Z-4.081 I-0.794 J0.
X-14.888 Z-4.15 I0.794 J0.
X-16.476 Z-4.22 I-0.794 J0.
X-14.888 Z-4.289 I0.794 J0.
X-16.476 Z-4.358 I-0.794 J0.
X-14.888 Z-4.427 I0.794 J0.
X-16.476 Z-4.497 I-0.794 J0.
X-14.888 Z-4.566 I0.794 J0.
X-16.476 Z-4.635 I-0.794 J0.
X-14.888 Z-4.705 I0.794 J0.
X-16.476 Z-4.774 I-0.794 J0.
X-14.888 Z-4.843 I0.794 J0.
X-16.476 Z-4.912 I-0.794 J0.
X-14.888 Z-4.982 I0.794 J0.
X-16.476 Z-5.051 I-0.794 J0.
X-14.888 Z-5.12 I0.794 J0.
X-16.476 Z-5.19 I-0.794 J0.
X-14.888 Z-5.259 I0.794 J0.
X-16.476 Z-5.328 I-0.794 J0.
X-14.888 Z-5.397 I0.794 J0.
X-16.476 Z-5.467 I-0.794 J0.
X-14.888 Z-5.536 I0.794 J0.
X-16.476 Z-5.605 I-0.794 J0.
X-14.888 Z-5.674 I0.794 J0.
X-16.476 Z-5.744 I-0.794 J0.
X-14.888 Z-5.813 I0.794 J0.
X-16.476 Z-5.882 I-0.794 J0.
X-14.888 Z-5.952 I0.794 J0.
X-16.476 Z-6.021 I-0.794 J0.
X-14.888 Z-6.09 I0.794 J0.
X-16.476 Z-6.159 I-0.794 J0.
X-14.888 Z-6.229 I0.794 J0.
X-16.476 Z-6.298 I-0.794 J0.
X-14.888 Z-6.367 I0.794 J0.
X-16.476 Z-6.436 I-0.794 J0.
X-14.888 Z-6.506 I0.794 J0.
X-16.476 Z-6.575 I-0.794 J0.
X-14.888 Z-6.644 I0.794 J0.
X-16.476 Z-6.714 I-0.794 J0.
X-14.888 Z-6.783 I0.794 J0.
X-16.476 Z-6.852 I-0.794 J0.
X-14.888 Z-6.921 I0.794 J0.
X-16.476 Z-6.991 I-0.794 J0.
X-14.888 Z-7.06 I0.794 J0.
X-16.476 Z-7.129 I-0.794 J0.
X-14.888 Z-7.198 I0.794 J0.
X-16.476 Z-7.268 I-0.794 J0.
X-14.888 Z-7.337 I0.794 J0.
X-16.476 Z-7.406 I-0.794 J0.
X-14.888 Z-7.476 I0.794 J0.
X-16.476 Z-7.545 I-0.794 J0.
X-14.888 Z-7.614 I0.794 J0.
X-16.476 Z-7.683 I-0.794 J0.
X-14.888 Z-7.753 I0.794 J0.
X-16.476 Z-7.822 I-0.794 J0.
X-14.888 Z-7.891 I0.794 J0.
X-16.476 Z-7.96 I-0.794 J0.
X-14.888 Z-8.03 I0.794 J0.
X-16.476 Z-8.099 I-0.794 J0.
X-14.888 Z-8.168 I0.794 J0.
X-16.476 Z-8.238 I-0.794 J0.
X-14.888 Z-8.307 I0.794 J0.
X-16.476 Z-8.376 I-0.794 J0.
X-14.888 Z-8.445 I0.794 J0.
X-16.476 Z-8.515 I-0.794 J0.
X-14.888 Z-8.584 I0.794 J0.
X-16.476 Z-8.653 I-0.794 J0.
X-14.888 Z-8.723 I0.794 J0.
X-16.476 Z-8.792 I-0.794 J0.
X-14.888 Z-8.861 I0.794 J0.
X-16.476 Z-8.93 I-0.794 J0.
X-14.888 Z-9. I0.794 J0.
X-16.476 Z-9.069 I-0.794 J0.
X-14.888 Z-9.138 I0.794 J0.
X-16.476 Z-9.207 I-0.794 J0.
X-14.888 Z-9.277 I0.794 J0.
X-16.476 Z-9.346 I-0.794 J0.
X-14.888 Z-9.415 I0.794 J0.
X-16.476 Z-9.485 I-0.794 J0.
X-14.888 Z-9.554 I0.794 J0.
X-16.468 Y70.225 Z-9.62 I-0.794 J0.
X-14.896 Y70.447 I0.786 J0.111
X-16.468 Y70.225 I-0.786 J-0.111
X-16.131 Y70.674 I0.393 J0.055
G1 X-15.816 Y70.718
X-15.718 Y70.732 Z-9.612
X-15.622 Y70.745 Z-9.589
X-15.531 Y70.758 Z-9.551
X-15.447 Y70.77 Z-9.499
X-15.372 Y70.781 Z-9.434
X-15.307 Y70.79 Z-9.358
X-15.256 Y70.797 Z-9.273
X-15.218 Y70.802 Z-9.181
X-15.195 Y70.805 Z-9.084
X-15.187 Y70.807 Z-8.985
G0 Z5.
X15.127 Y93.992
Z4.5
G1 Z3.135 F1600.
G18 G2 X15.762 Z2.5 I0.635 K0.
G1 X16.079
G17 G2 X16.476 Y93.596 I0. J-0.397
X14.888 Z2.431 I-0.794 J0.
X16.476 Z2.361 I0.794 J0.
X14.888 Z2.292 I-0.794 J0.
X16.476 Z2.223 I0.794 J0.
X14.888 Z2.154 I-0.794 J0.
X16.476 Z2.084 I0.794 J0.
X14.888 Z2.015 I-0.794 J0.
X16.476 Z1.946 I0.794 J0.
X14.888 Z1.877 I-0.794 J0.
X16.476 Z1.807 I0.794 J0.
X14.888 Z1.738 I-0.794 J0.
X16.476 Z1.669 I0.794 J0.
X14.888 Z1.599 I-0.794 J0.
X16.476 Z1.53 I0.794 J0.
X14.888 Z1.461 I-0.794 J0.
X16.476 Z1.392 I0.794 J0.
X14.888 Z1.322 I-0.794 J0.
X16.476 Z1.253 I0.794 J0.
X14.888 Z1.184 I-0.794 J0.
X16.476 Z1.115 I0.794 J0.
X14.888 Z1.045 I-0.794 J0.
X16.476 Z0.976 I0.794 J0.
X14.888 Z0.907 I-0.794 J0.
X16.476 Z0.837 I0.794 J0.
X14.888 Z0.768 I-0.794 J0.
X16.476 Z0.699 I0.794 J0.
X14.888 Z0.63 I-0.794 J0.
X16.476 Z0.56 I0.794 J0.
X14.888 Z0.491 I-0.794 J0.
X16.476 Z0.422 I0.794 J0.
X14.888 Z0.352 I-0.794 J0.
X16.476 Z0.283 I0.794 J0.
X14.888 Z0.214 I-0.794 J0.
X16.476 Z0.145 I0.794 J0.
X14.888 Z0.075 I-0.794 J0.
X16.476 Z0.006 I0.794 J0.
X14.888 Z-0.063 I-0.794 J0.
X16.476 Z-0.132 I0.794 J0.
X14.888 Z-0.202 I-0.794 J0.
X16.476 Z-0.271 I0.794 J0.
X14.888 Z-0.34 I-0.794 J0.
X16.476 Z-0.41 I0.794 J0.
X14.888 Z-0.479 I-0.794 J0.
X16.476 Z-0.548 I0.794 J0.
X14.888 Z-0.617 I-0.794 J0.
X16.476 Z-0.687 I0.794 J0.
X14.888 Z-0.756 I-0.794 J0.
X16.476 Z-0.825 I0.794 J0.
X14.888 Z-0.894 I-0.794 J0.
X16.476 Z-0.964 I0.794 J0.
X14.888 Z-1.033 I-0.794 J0.
X16.476 Z-1.102 I0.794 J0.
X14.888 Z-1.172 I-0.794 J0.
X16.476 Z-1.241 I0.794 J0.
X14.888 Z-1.31 I-0.794 J0.
X16.476 Z-1.379 I0.794 J0.
X14.888 Z-1.449 I-0.794 J0.
X16.476 Z-1.518 I0.794 J0.
X14.888 Z-1.587 I-0.794 J0.
X16.476 Z-1.656 I0.794 J0.
X14.888 Z-1.726 I-0.794 J0.
X16.476 Z-1.795 I0.794 J0.
X14.888 Z-1.864 I-0.794 J0.
X16.476 Z-1.934 I0.794 J0.
X14.888 Z-2.003 I-0.794 J0.
X16.476 Z-2.072 I0.794 J0.
X14.888 Z-2.141 I-0.794 J0.
X16.476 Z-2.211 I0.794 J0.
X14.888 Z-2.28 I-0.794 J0.
X16.476 Z-2.349 I0.794 J0.
X14.888 Z-2.419 I-0.794 J0.
X16.476 Z-2.488 I0.794 J0.
X14.888 Z-2.557 I-0.794 J0.
X16.476 Z-2.626 I0.794 J0.
X14.888 Z-2.696 I-0.794 J0.
X16.476 Z-2.765 I0.794 J0.
X14.888 Z-2.834 I-0.794 J0.
X16.476 Z-2.903 I0.794 J0.
X14.888 Z-2.973 I-0.794 J0.
X16.476 Z-3.042 I0.794 J0.
X14.888 Z-3.111 I-0.794 J0.
X16.476 Z-3.181 I0.794 J0.
X14.888 Z-3.25 I-0.794 J0.
X16.476 Z-3.319 I0.794 J0.
X14.888 Z-3.388 I-0.794 J0.
X16.476 Z-3.458 I0.794 J0.
X14.888 Z-3.527 I-0.794 J0.
X16.476 Z-3.596 I0.794 J0.
X14.888 Z-3.665 I-0.794 J0.
X16.476 Z-3.735 I0.794 J0.
X14.888 Z-3.804 I-0.794 J0.
X16.476 Z-3.873 I0.794 J0.
X14.888 Z-3.943 I-0.794 J0.
X16.476 Z-4.012 I0.794 J0.
X14.888 Z-4.081 I-0.794 J0.
X16.476 Z-4.15 I0.794 J0.
X14.888 Z-4.22 I-0.794 J0.
X16.476 Z-4.289 I0.794 J0.
X14.888 Z-4.358 I-0.794 J0.
X16.476 Z-4.427 I0.794 J0.
X14.888 Z-4.497 I-0.794 J0.
X16.476 Z-4.566 I0.794 J0.
X14.888 Z-4.635 I-0.794 J0.
X16.476 Z-4.705 I0.794 J0.
X14.888 Z-4.774 I-0.794 J0.
X16.476 Z-4.843 I0.794 J0.
X14.888 Z-4.912 I-0.794 J0.
X16.476 Z-4.982 I0.794 J0.
X14.888 Z-5.051 I-0.794 J0.
X16.476 Z-5.12 I0.794 J0.
X14.888 Z-5.19 I-0.794 J0.
X16.476 Z-5.259 I0.794 J0.
X14.888 Z-5.328 I-0.794 J0.
X16.476 Z-5.397 I0.794 J0.
X14.888 Z-5.467 I-0.794 J0.
X16.476 Z-5.536 I0.794 J0.
X14.888 Z-5.605 I-0.794 J0.
X16.476 Z-5.674 I0.794 J0.
X14.888 Z-5.744 I-0.794 J0.
X16.476 Z-5.813 I0.794 J0.
X14.888 Z-5.882 I-0.794 J0.
X16.476 Z-5.952 I0.794 J0.
X14.888 Z-6.021 I-0.794 J0.
X16.476 Z-6.09 I0.794 J0.
X14.888 Z-6.159 I-0.794 J0.
X16.476 Z-6.229 I0.794 J0.
X14.888 Z-6.298 I-0.794 J0.
X16.476 Z-6.367 I0.794 J0.
X14.888 Z-6.436 I-0.794 J0.
X16.476 Z-6.506 I0.794 J0.
X14.888 Z-6.575 I-0.794 J0.
X16.476 Z-6.644 I0.794 J0.
X14.888 Z-6.714 I-0.794 J0.
X16.476 Z-6.783 I0.794 J0.
X14.888 Z-6.852 I-0.794 J0.
X16.476 Z-6.921 I0.794 J0.
X14.888 Z-6.991 I-0.794 J0.
X16.476 Z-7.06 I0.794 J0.
X14.888 Z-7.129 I-0.794 J0.
X16.476 Z-7.198 I0.794 J0.
X14.888 Z-7.268 I-0.794 J0.
X16.476 Z-7.337 I0.794 J0.
X14.888 Z-7.406 I-0.794 J0.
X16.476 Z-7.476 I0.794 J0.
X14.888 Z-7.545 I-0.794 J0.
X16.476 Z-7.614 I0.794 J0.
X14.888 Z-7.683 I-0.794 J0.
X16.476 Z-7.753 I0.794 J0.
X14.888 Z-7.822 I-0.794 J0.
X16.476 Z-7.891 I0.794 J0.
X14.888 Z-7.96 I-0.794 J0.
X16.476 Z-8.03 I0.794 J0.
X14.888 Z-8.099 I-0.794 J0.
X16.476 Z-8.168 I0.794 J0.
X14.888 Z-8.238 I-0.794 J0.
X16.476 Z-8.307 I0.794 J0.
X14.888 Z-8.376 I-0.794 J0.
X16.476 Z-8.445 I0.794 J0.
X14.888 Z-8.515 I-0.794 J0.
X16.476 Z-8.584 I0.794 J0.
X14.888 Z-8.653 I-0.794 J0.
X16.476 Z-8.723 I0.794 J0.
X14.888 Z-8.792 I-0.794 J0.
X16.476 Z-8.861 I0.794 J0.
X14.888 Z-8.93 I-0.794 J0.
X16.476 Z-9. I0.794 J0.
X14.888 Z-9.069 I-0.794 J0.
X16.476 Z-9.138 I0.794 J0.
X14.888 Z-9.207 I-0.794 J0.
X16.476 Z-9.277 I0.794 J0.
X14.888 Z-9.346 I-0.794 J0.
X16.476 Z-9.415 I0.794 J0.
X14.888 Z-9.485 I-0.794 J0.
X16.476 Z-9.554 I0.794 J0.
X14.896 Y93.485 Z-9.62 I-0.794 J0.
X16.468 Y93.706 I0.786 J0.111
X14.896 Y93.485 I-0.786 J-0.111
X15.234 Y93.933 I0.393 J0.055
G1 X15.548 Y93.977
X15.647 Y93.991 Z-9.612
X15.743 Y94.005 Z-9.589
X15.834 Y94.018 Z-9.551
X15.918 Y94.03 Z-9.499
X15.993 Y94.04 Z-9.434
X16.057 Y94.049 Z-9.358
X16.108 Y94.056 Z-9.273
X16.146 Y94.062 Z-9.181
X16.169 Y94.065 Z-9.084
X16.177 Y94.066 Z-8.985
G0 Z15.

(2D ADAPTIVE3)
G0 X-15.682 Y70.336
Z15.
Z5.06
Z4.55
G1 Z-6.675 F1600.
X-15.645 Y70.338
X-15.649 Y70.301
X-15.684 Y70.29
X-15.718 Y70.307
X-15.728 Y70.343
X-15.708 Y70.374
X-15.671 Y70.381
X-15.64 Y70.359
X-15.631 Y70.322
X-15.642 Y70.286
X-15.678 Y70.275
X-15.714 Y70.285
X-15.736 Y70.315
X-15.74 Y70.353
X-15.719 Y70.384
X-15.684 Y70.396
X-15.648 Y70.384
X-15.624 Y70.355
X-15.617 Y70.318
X-15.627 Y70.282
X-15.659 Y70.263
X-15.697
X-15.729 Y70.282
X-15.75 Y70.313
X-15.756 Y70.35
X-15.74 Y70.384
X-15.709 Y70.405
X-15.672 Y70.407
X-15.637 Y70.393
X-15.612 Y70.365
X-15.602 Y70.329
X-15.606 Y70.292
X-15.63 Y70.263
X-15.664 Y70.249
X-15.702
X-15.735 Y70.267
X-15.759 Y70.295
X-15.771 Y70.331
X-15.766 Y70.368
X-15.745 Y70.399
X-15.713 Y70.419
X-15.676 Y70.423
X-15.64 Y70.414
X-15.61 Y70.39
X-15.591 Y70.358
X-15.585 Y70.321
X-15.593 Y70.285
X-15.615 Y70.254
X-15.648 Y70.236
X-15.685 Y70.231
X-15.722 Y70.239
X-15.753 Y70.26
X-15.775 Y70.29
X-15.786 Y70.326
X-15.784 Y70.364
X-15.768 Y70.397
X-15.741 Y70.423
X-15.706 Y70.438
X-15.669 Y70.439
X-15.633 Y70.428
X-15.603 Y70.406
X-15.581 Y70.375
X-15.569 Y70.34
X-15.57 Y70.302
X-15.584 Y70.267
X-15.609 Y70.239
X-15.642 Y70.221
X-15.679 Y70.214
X-15.716 Y70.219
X-15.75 Y70.235
X-15.777 Y70.261
X-15.796 Y70.293
X-15.804 Y70.33
X-15.8 Y70.367
X-15.785 Y70.401
X-15.76 Y70.43
X-15.728 Y70.449
X-15.692 Y70.457
X-15.654 Y70.454
X-15.619 Y70.441
X-15.589 Y70.418
X-15.567 Y70.388
X-15.554 Y70.353
X-15.551 Y70.315
X-15.558 Y70.279
X-15.577 Y70.246
X-15.604 Y70.22
X-15.638 Y70.204
X-15.675 Y70.197
X-15.712 Y70.2
X-15.747 Y70.213
X-15.778 Y70.235
X-15.802 Y70.264
X-15.817 Y70.298
X-15.823 Y70.335
X-15.818 Y70.372
X-15.803 Y70.407
X-15.78 Y70.436
X-15.75 Y70.458
X-15.715 Y70.472
X-15.678 Y70.476
X-15.64 Y70.47
X-15.606 Y70.455
X-15.576 Y70.432
X-15.553 Y70.403
X-15.538 Y70.368
X-15.532 Y70.331
X-15.535 Y70.294
X-15.547 Y70.259
X-15.568 Y70.228
X-15.596 Y70.203
X-15.63 Y70.186
X-15.666 Y70.178
X-15.704 Y70.179
X-15.74 Y70.189
X-15.773 Y70.207
X-15.801 Y70.231
X-15.823 Y70.262
X-15.837 Y70.296
X-15.842 Y70.334
X-15.838 Y70.371
X-15.826 Y70.406
X-15.805 Y70.437
X-15.778 Y70.463
X-15.745 Y70.482
X-15.709 Y70.493
X-15.672 Y70.496
X-15.598 Y70.484
X-15.54 Y70.436
X-15.507 Y70.369
X-15.504 Y70.294
X-15.532 Y70.224
X-15.587 Y70.173
X-15.658 Y70.149
X-15.732 Y70.154
X-15.8 Y70.187
X-15.849 Y70.244
X-15.872 Y70.315
X-15.865 Y70.39
X-15.83 Y70.456
X-15.772 Y70.503
X-15.7 Y70.526
X-15.625 Y70.525
X-15.557 Y70.494
X-15.505 Y70.44
X-15.477 Y70.37
X-15.474 Y70.295
X-15.496 Y70.224
X-15.543 Y70.165
X-15.608 Y70.128
X-15.682 Y70.115
X-15.756 Y70.128
X-15.821 Y70.165
X-15.871 Y70.221
X-15.9 Y70.29
X-15.903 Y70.365
X-15.881 Y70.437
X-15.836 Y70.497
X-15.774 Y70.538
X-15.702 Y70.56
X-15.627 Y70.557
X-15.556 Y70.532
X-15.498 Y70.484
X-15.458 Y70.421
X-15.439 Y70.348
X-15.443 Y70.273
X-15.47 Y70.203
X-15.518 Y70.146
X-15.581 Y70.104
X-15.653 Y70.083
X-15.728 Y70.085
X-15.799 Y70.109
X-15.86 Y70.153
X-15.906 Y70.212
X-15.932 Y70.282
X-15.936 Y70.357
X-15.92 Y70.43
X-15.883 Y70.495
X-15.828 Y70.547
X-15.762 Y70.582
X-15.688 Y70.596
X-15.613 Y70.59
X-15.543 Y70.563
X-15.484 Y70.517
X-15.439 Y70.458
X-15.411 Y70.388
X-15.403 Y70.313
X-15.416 Y70.239
X-15.448 Y70.172
X-15.498 Y70.116
X-15.561 Y70.075
X-15.632 Y70.052
X-15.707 Y70.048
X-15.781 Y70.064
X-15.848 Y70.097
X-15.904 Y70.147
X-15.945 Y70.209
X-15.969 Y70.281
X-15.973 Y70.356
X-15.958 Y70.429
X-15.925 Y70.496
X-15.876 Y70.553
X-15.815 Y70.597
X-15.745 Y70.624
X-15.671 Y70.634
X-15.597 Y70.624
X-15.527 Y70.596
X-15.466 Y70.552
X-15.418 Y70.494
X-15.385 Y70.427
X-15.368 Y70.354
X-15.369 Y70.279
X-15.388 Y70.206
X-15.424 Y70.141
X-15.475 Y70.085
X-15.538 Y70.044
X-15.608 Y70.018
X-15.683 Y70.01
X-15.757 Y70.019
X-15.828 Y70.043
X-15.892 Y70.083
X-15.944 Y70.137
X-15.983 Y70.201
X-16.006 Y70.272
X-16.012 Y70.347
X-15.989 Y70.495
X-15.895 Y70.613
X-15.761 Y70.679
X-15.611 Y70.686
X-15.472 Y70.631
X-15.368 Y70.523
X-15.314 Y70.383
X-15.318 Y70.233
X-15.384 Y70.098
X-15.498 Y70.
X-15.64 Y69.953
X-15.79 Y69.965
X-15.923 Y70.034
X-16.022 Y70.147
X-16.069 Y70.289
X-16.068 Y70.439
X-16.006 Y70.576
X-15.897 Y70.679
X-15.758 Y70.735
X-15.608 Y70.743
X-15.466 Y70.696
X-15.35 Y70.601
X-15.274 Y70.471
X-15.248 Y70.324
X-15.275 Y70.176
X-15.353 Y70.048
X-15.468 Y69.952
X-15.608 Y69.898
X-15.758 Y69.896
X-15.9 Y69.945
X-16.018 Y70.037
X-16.097 Y70.165
X-16.134 Y70.31
X-16.12 Y70.459
X-16.062 Y70.598
X-15.96 Y70.708
X-15.829 Y70.78
X-15.682 Y70.81
X-15.533 Y70.791
X-15.398 Y70.727
X-15.29 Y70.623
X-15.219 Y70.49
X-15.189 Y70.343
X-15.205 Y70.194
X-15.267 Y70.058
X-15.366 Y69.945
X-15.494 Y69.867
X-15.639 Y69.83
X-15.789 Y69.839
X-15.929 Y69.892
X-16.049 Y69.983
X-16.137 Y70.104
X-16.189 Y70.245
X-16.197 Y70.394
X-16.163 Y70.541
X-16.089 Y70.671
X-15.979 Y70.773
X-15.846 Y70.842
X-15.699 Y70.87
X-15.549 Y70.859
X-15.408 Y70.807
X-15.287 Y70.718
X-15.196 Y70.599
X-15.139 Y70.461
X-15.122 Y70.312
X-15.147 Y70.164
X-15.21 Y70.028
X-15.307 Y69.913
X-15.43 Y69.827
X-15.571 Y69.775
X-15.72 Y69.763
X-15.867 Y69.792
X-16.002 Y69.858
X-16.115 Y69.956
X-16.2 Y70.079
X-16.25 Y70.221
X-16.263 Y70.37
X-16.239 Y70.518
X-16.179 Y70.656
X-16.085 Y70.773
X-15.965 Y70.863
X-15.826 Y70.919
X-15.677 Y70.94
X-15.528 Y70.924
X-15.388 Y70.872
X-15.265 Y70.786
X-15.166 Y70.673
X-15.095 Y70.541
X-15.059 Y70.395
Y70.245
X-15.096 Y70.1
X-15.167 Y69.968
X-15.267 Y69.855
X-15.39 Y69.77
X-15.53 Y69.716
X-15.679 Y69.697
X-15.828 Y69.712
X-15.97 Y69.761
X-16.096 Y69.841
X-16.201 Y69.949
X-16.277 Y70.078
X-16.322 Y70.221
X-16.334 Y70.37
X-16.311 Y70.519
X-16.255 Y70.658
X-16.17 Y70.781
X-16.059 Y70.882
X-15.929 Y70.957
X-15.785 Y71.
X-15.636 Y71.011
X-15.488 Y70.988
X-15.348 Y70.931
X-15.225 Y70.846
X-15.123 Y70.736
X-15.047 Y70.607
X-15.001 Y70.464
X-14.985 Y70.315
X-15.002 Y70.166
X-15.052 Y70.024
X-15.13 Y69.896
X-15.234 Y69.788
X-15.358 Y69.704
X-15.498 Y69.65
X-15.646 Y69.626
X-15.796 Y69.633
X-15.941 Y69.672
X-16.075 Y69.739
X-16.192 Y69.832
X-16.288 Y69.948
X-16.357 Y70.081
X-16.398 Y70.225
X-16.408 Y70.375
X-16.386 Y70.523
X-16.334 Y70.664
X-16.255 Y70.792
X-16.152 Y70.9
X-16.029 Y70.987
X-15.892 Y71.047
X-15.745 Y71.08
X-15.595 Y71.082
X-15.448 Y71.053
X-15.31 Y70.995
X-15.186 Y70.911
X-15.081 Y70.804
X-14.999 Y70.678
X-14.943 Y70.538
X-14.916 Y70.391
X-14.917 Y70.241
X-14.946 Y70.094
X-15.003 Y69.955
X-15.087 Y69.83
X-15.192 Y69.724
X-15.317 Y69.641
X-15.456 Y69.583
X-15.603 Y69.554
X-15.753 Y69.553
X-15.9 Y69.58
X-16.04 Y69.635
X-16.168 Y69.714
X-16.279 Y69.814
X-16.369 Y69.935
X-16.434 Y70.069
X-16.473 Y70.214
X-16.484 Y70.364
X-16.467 Y70.513
X-16.422 Y70.656
X-16.351 Y70.788
X-16.257 Y70.905
X-16.143 Y71.003
X-16.014 Y71.079
X-15.874 Y71.132
X-15.726 Y71.158
X-15.576 Y71.157
X-15.429 Y71.128
X-15.29 Y71.072
X-15.163 Y70.992
X-15.053 Y70.89
X-14.963 Y70.77
X-14.896 Y70.636
X-14.854 Y70.492
X-14.837 Y70.343
X-14.845 Y70.193
X-14.88 Y70.047
X-14.94 Y69.909
X-15.023 Y69.785
X-15.127 Y69.677
X-15.249 Y69.589
X-15.384 Y69.525
X-15.529 Y69.486
X-15.679 Y69.472
X-15.828 Y69.485
X-15.973 Y69.523
X-16.11 Y69.584
X-16.235 Y69.667
X-16.344 Y69.77
X-16.434 Y69.89
X-16.502 Y70.024
X-16.545 Y70.167
X-16.563 Y70.316
X-16.555 Y70.466
X-16.522 Y70.612
X-16.464 Y70.75
X-16.383 Y70.877
X-16.283 Y70.989
X-16.166 Y71.083
X-16.036 Y71.157
X-15.895 Y71.209
X-15.748 Y71.237
X-15.598 Y71.239
X-15.45 Y71.216
X-15.307 Y71.169
X-15.175 Y71.098
X-15.056 Y71.006
X-14.955 Y70.896
X-14.872 Y70.771
X-14.811 Y70.634
X-14.772 Y70.489
X-14.755 Y70.34
X-14.763 Y70.19
X-14.795 Y70.044
X-14.85 Y69.904
X-14.927 Y69.776
X-15.025 Y69.661
X-15.139 Y69.565
X-15.268 Y69.488
X-15.408 Y69.433
X-15.554 Y69.401
X-15.704 Y69.393
X-15.853 Y69.407
X-15.999 Y69.445
X-16.136 Y69.504
X-16.263 Y69.584
X-16.376 Y69.682
X-16.472 Y69.798
X-16.549 Y69.927
X-16.604 Y70.066
X-16.636 Y70.213
X-16.644 Y70.362
X-16.629 Y70.512
X-16.592 Y70.657
X-16.532 Y70.795
X-16.453 Y70.922
X-16.355 Y71.035
X-16.241 Y71.133
X-16.114 Y71.213
X-15.976 Y71.272
X-15.831 Y71.31
X-15.682 Y71.324
X-15.532 Y71.316
X-15.385 Y71.284
X-15.245 Y71.23
X-15.115 Y71.156
X-14.997 Y71.063
X-14.895 Y70.954
X-14.809 Y70.83
X-14.743 Y70.696
X-14.698 Y70.553
X-14.673 Y70.405
X-14.671 Y70.255
X-14.691 Y70.106
X-14.733 Y69.962
X-14.797 Y69.826
X-14.88 Y69.701
X-14.98 Y69.59
X-15.095 Y69.494
X-15.224 Y69.417
X-15.362 Y69.359
X-15.508 Y69.322
X-15.657 Y69.307
X-15.807 Y69.313
X-15.954 Y69.341
X-16.096 Y69.389
X-16.23 Y69.457
X-16.352 Y69.544
X-16.461 Y69.648
X-16.553 Y69.766
X-16.627 Y69.896
X-16.683 Y70.036
X-16.717 Y70.182
X-16.73 Y70.331
X-16.721 Y70.481
X-16.691 Y70.628
X-16.641 Y70.769
X-16.571 Y70.902
X-16.484 Y71.024
X-16.38 Y71.132
X-16.262 Y71.225
X-16.132 Y71.3
X-15.993 Y71.357
X-15.848 Y71.393
X-15.698 Y71.409
X-15.549 Y71.404
X-15.401 Y71.378
X-15.258 Y71.331
X-15.124 Y71.265
X-15. Y71.181
X-14.889 Y71.08
X-14.792 Y70.965
X-14.713 Y70.838
X-14.651 Y70.701
X-14.609 Y70.557
X-14.587 Y70.408
X-14.584 Y70.258
X-14.602 Y70.11
X-14.64 Y69.964
X-14.698 Y69.826
X-14.774 Y69.697
X-14.867 Y69.579
X-14.975 Y69.475
X-15.097 Y69.387
X-15.229 Y69.317
X-15.37 Y69.264
X-15.516 Y69.232
X-15.666 Y69.219
X-15.815 Y69.226
X-15.963 Y69.253
X-16.106 Y69.298
X-16.242 Y69.362
X-16.368 Y69.444
X-16.481 Y69.541
X-16.581 Y69.653
X-16.665 Y69.777
X-16.732 Y69.912
X-16.781 Y70.054
X-16.809 Y70.201
X-16.818 Y70.351
X-16.808 Y70.5
X-16.777 Y70.647
X-16.728 Y70.789
X-16.662 Y70.923
X-16.579 Y71.048
X-16.48 Y71.161
X-16.367 Y71.26
X-16.243 Y71.344
X-16.108 Y71.41
X-15.967 Y71.459
X-15.82 Y71.489
X-15.67 Y71.5
X-15.52 Y71.491
X-15.373 Y71.463
X-15.23 Y71.416
X-15.095 Y71.351
X-14.969 Y71.269
X-14.855 Y71.173
X-14.753 Y71.062
X-14.667 Y70.94
X-14.596 Y70.807
X-14.543 Y70.667
X-14.509 Y70.521
X-14.492 Y70.372
X-14.495 Y70.222
X-14.516 Y70.073
X-14.557 Y69.929
X-14.615 Y69.791
X-14.69 Y69.661
X-14.781 Y69.541
X-14.885 Y69.434
X-15.003 Y69.341
X-15.131 Y69.263
X-15.268 Y69.202
X-15.412 Y69.158
X-15.56 Y69.133
X-15.709 Y69.126
X-15.859 Y69.138
X-16.006 Y69.168
X-16.148 Y69.216
X-16.283 Y69.28
X-16.41 Y69.361
X-16.525 Y69.457
X-16.628 Y69.566
X-16.717 Y69.687
X-16.791 Y69.818
X-16.847 Y69.957
X-16.887 Y70.101
X-16.907 Y70.25
X-16.91 Y70.4
X-16.894 Y70.549
X-16.861 Y70.695
X-16.81 Y70.836
X-16.742 Y70.97
X-16.659 Y71.095
X-16.562 Y71.209
X-16.451 Y71.311
X-16.33 Y71.399
X-16.199 Y71.471
X-16.06 Y71.528
X-15.915 Y71.568
X-15.767 Y71.589
X-15.617 Y71.593
X-15.467 Y71.578
X-15.321 Y71.546
X-15.179 Y71.496
X-15.045 Y71.43
X-14.919 Y71.348
X-14.803 Y71.252
X-14.7 Y71.144
X-14.61 Y71.024
X-14.535 Y70.894
X-14.475 Y70.756
X-14.431 Y70.613
X-14.405 Y70.465
X-14.396 Y70.315
X-14.405 Y70.166
X-14.432 Y70.018
X-14.476 Y69.875
X-14.536 Y69.737
X-14.611 Y69.608
X-14.702 Y69.488
X-14.806 Y69.38
X-14.921 Y69.284
X-15.047 Y69.202
X-15.181 Y69.136
X-15.322 Y69.085
X-15.468 Y69.05
X-15.617 Y69.033
X-15.767
X-15.916 Y69.05
X-16.062 Y69.084
X-16.204 Y69.135
X-16.338 Y69.201
X-16.464 Y69.283
X-16.58 Y69.378
X-16.684 Y69.485
X-16.776 Y69.604
X-16.854 Y69.733
X-16.916 Y69.869
X-16.963 Y70.012
X-16.993 Y70.159
X-17.006 Y70.308
X-17.003 Y70.458
X-16.982 Y70.606
X-16.944 Y70.752
X-16.891 Y70.892
X-16.822 Y71.025
X-16.739 Y71.15
X-16.642 Y71.265
X-16.533 Y71.368
X-16.414 Y71.458
X-16.285 Y71.535
X-16.148 Y71.597
X-16.006 Y71.644
X-15.859 Y71.675
X-15.71 Y71.689
X-15.56 Y71.686
X-15.411 Y71.667
X-15.265 Y71.631
X-15.125 Y71.579
X-14.991 Y71.511
X-14.865 Y71.43
X-14.749 Y71.334
X-14.644 Y71.227
X-14.551 Y71.109
X-14.472 Y70.982
X-14.407 Y70.847
X-14.356 Y70.706
X-14.321 Y70.56
X-14.302 Y70.411
X-14.3 Y70.261
X-14.314 Y70.112
X-14.344 Y69.965
X-14.391 Y69.822
X-14.452 Y69.685
X-14.528 Y69.556
X-14.618 Y69.436
X-14.72 Y69.326
X-14.834 Y69.228
X-14.957 Y69.143
X-15.089 Y69.071
X-15.227 Y69.013
X-15.371 Y68.971
X-15.519 Y68.944
X-15.668 Y68.933
X-15.818 Y68.938
X-15.967 Y68.959
X-16.112 Y68.996
X-16.253 Y69.048
X-16.387 Y69.115
X-16.513 Y69.196
X-16.63 Y69.29
X-16.736 Y69.395
X-16.831 Y69.512
X-16.913 Y69.637
X-16.981 Y69.771
X-17.035 Y69.911
X-17.074 Y70.056
X-17.098 Y70.204
X-17.106 Y70.354
X-17.098 Y70.503
X-17.074 Y70.652
X-17.035 Y70.796
X-16.981 Y70.936
X-16.912 Y71.07
X-16.83 Y71.195
X-16.735 Y71.311
X-16.628 Y71.417
X-16.512 Y71.511
X-16.386 Y71.593
X-16.252 Y71.661
X-16.113 Y71.716
X-15.968 Y71.756
X-15.82 Y71.78
X-15.67 Y71.79
X-15.521 Y71.783
X-15.372 Y71.761
X-15.227 Y71.724
X-15.086 Y71.671
X-14.952 Y71.605
X-14.825 Y71.525
X-14.707 Y71.432
X-14.599 Y71.328
X-14.503 Y71.213
X-14.418 Y71.089
X-14.346 Y70.957
X-14.288 Y70.819
X-14.244 Y70.676
X-14.214 Y70.529
X-14.2 Y70.379
Y70.229
X-14.217 Y70.08
X-14.248 Y69.934
X-14.294 Y69.791
X-14.355 Y69.654
X-14.429 Y69.523
X-14.516 Y69.401
X-14.615 Y69.289
X-14.725 Y69.186
X-14.844 Y69.096
X-14.972 Y69.017
X-15.107 Y68.952
X-15.248 Y68.9
X-15.393 Y68.862
X-15.541 Y68.839
X-15.691 Y68.831
X-15.841 Y68.837
X-15.989 Y68.859
X-16.135 Y68.896
X-16.276 Y68.947
X-16.411 Y69.012
X-16.539 Y69.09
X-16.659 Y69.18
X-16.769 Y69.282
X-16.869 Y69.394
X-16.957 Y69.515
X-17.033 Y69.645
X-17.096 Y69.781
X-17.146 Y69.922
X-17.181 Y70.068
X-17.202 Y70.217
X-17.208 Y70.366
X-17.2 Y70.516
X-17.177 Y70.664
X-17.139 Y70.809
X-17.087 Y70.95
X-17.021 Y71.085
X-16.943 Y71.213
X-16.852 Y71.332
X-16.75 Y71.443
X-16.639 Y71.543
X-16.518 Y71.632
X-16.389 Y71.709
X-16.254 Y71.773
X-16.113 Y71.824
X-15.967 Y71.862
X-15.819 Y71.885
X-15.669 Y71.893
X-15.519 Y71.887
X-15.371 Y71.866
X-15.225 Y71.831
X-15.083 Y71.782
X-14.947 Y71.719
X-14.817 Y71.644
X-14.696 Y71.556
X-14.583 Y71.457
X-14.48 Y71.348
X-14.387 Y71.23
X-14.306 Y71.104
X-14.238 Y70.971
X-14.181 Y70.831
X-14.139 Y70.688
X-14.11 Y70.54
X-14.095 Y70.391
Y70.241
X-14.109 Y70.092
X-14.138 Y69.944
X-14.18 Y69.801
X-14.236 Y69.661
X-14.305 Y69.528
X-14.386 Y69.402
X-14.479 Y69.284
X-14.582 Y69.175
X-14.695 Y69.077
X-14.817 Y68.989
X-14.946 Y68.912
X-15.081 Y68.848
X-15.222 Y68.797
X-15.368 Y68.76
X-15.516 Y68.736
X-15.665 Y68.726
X-15.815 Y68.73
X-15.964 Y68.748
X-16.111 Y68.78
X-16.254 Y68.826
X-16.392 Y68.885
X-16.523 Y68.956
X-16.648 Y69.039
X-16.765 Y69.134
X-16.872 Y69.238
X-16.97 Y69.352
X-17.056 Y69.475
X-17.132 Y69.605
X-17.194 Y69.741
X-17.245 Y69.882
X-17.282 Y70.028
X-17.305 Y70.176
X-17.314 Y70.325
X-17.31 Y70.475
X-17.291 Y70.624
X-17.259 Y70.771
X-17.214 Y70.914
X-17.156 Y71.052
X-17.085 Y71.184
X-17.003 Y71.31
X-16.91 Y71.427
X-16.806 Y71.536
X-16.694 Y71.635
X-16.572 Y71.723
X-16.444 Y71.801
X-16.309 Y71.866
X-16.168 Y71.919
X-16.024 Y71.959
X-15.876 Y71.985
X-15.727 Y71.998
X-15.577 Y71.997
X-15.427 Y71.983
X-15.28 Y71.955
X-15.136 Y71.914
X-14.996 Y71.859
X-14.861 Y71.793
X-14.733 Y71.715
X-14.613 Y71.626
X-14.501 Y71.526
X-14.398 Y71.417
X-14.305 Y71.3
X-14.222 Y71.174
X-14.152 Y71.042
X-14.093 Y70.904
X-14.047 Y70.761
X-14.013 Y70.615
X-13.993 Y70.466
X-13.987 Y70.316
X-13.993 Y70.167
X-14.014 Y70.018
X-14.047 Y69.872
X-14.093 Y69.729
X-14.152 Y69.591
X-14.222 Y69.458
X-14.304 Y69.333
X-14.397 Y69.215
X-14.499 Y69.105
X-14.611 Y69.005
X-14.731 Y68.915
X-14.858 Y68.836
X-14.992 Y68.769
X-15.132 Y68.713
X-15.275 Y68.67
X-15.422 Y68.64
X-15.571 Y68.622
X-15.721 Y68.618
X-15.871 Y68.627
X-16.019 Y68.649
X-16.165 Y68.684
X-16.307 Y68.731
X-16.445 Y68.791
X-16.577 Y68.862
X-16.702 Y68.944
X-16.82 Y69.037
X-16.929 Y69.14
X-17.029 Y69.252
X-17.119 Y69.372
X-17.199 Y69.499
X-17.267 Y69.633
X-17.323 Y69.772
X-17.367 Y69.915
X-17.398 Y70.062
X-17.417 Y70.211
X-17.422 Y70.361
X-17.415 Y70.511
X-17.395 Y70.659
X-17.362 Y70.806
X-17.317 Y70.949
X-17.26 Y71.087
X-17.191 Y71.221
X-17.111 Y71.347
X-17.02 Y71.467
X-16.92 Y71.579
X-16.81 Y71.681
X-16.693 Y71.774
X-16.568 Y71.857
X-16.436 Y71.928
X-16.298 Y71.989
X-16.156 Y72.037
X-16.011 Y72.073
X-15.863 Y72.096
X-15.713 Y72.107
X-15.563 Y72.106
X-15.414 Y72.091
X-15.266 Y72.064
X-15.121 Y72.024
X-14.981 Y71.973
X-14.845 Y71.909
X-14.715 Y71.835
X-14.591 Y71.749
X-14.475 Y71.654
X-14.368 Y71.55
X-14.269 Y71.436
X-14.181 Y71.315
X-14.103 Y71.187
X-14.035 Y71.053
X-13.98 Y70.914
X-13.935 Y70.771
X-13.903 Y70.624
X-13.884 Y70.475
X-13.877 Y70.326
X-13.882 Y70.176
X-13.9 Y70.027
X-13.93 Y69.88
X-13.973 Y69.736
X-14.027 Y69.596
X-14.093 Y69.461
X-14.169 Y69.332
X-14.257 Y69.21
X-14.354 Y69.096
X-14.46 Y68.99
X-14.574 Y68.893
X-14.696 Y68.806
X-14.825 Y68.729
X-14.959 Y68.662
X-15.099 Y68.607
X-15.243 Y68.564
X-15.389 Y68.532
X-15.538 Y68.513
X-15.688 Y68.506
X-15.838 Y68.512
X-15.987 Y68.53
X-16.134 Y68.56
X-16.278 Y68.602
X-16.418 Y68.655
X-16.553 Y68.72
X-16.682 Y68.796
X-16.805 Y68.882
X-16.921 Y68.978
X-17.028 Y69.082
X-17.127 Y69.195
X-17.216 Y69.316
X-17.295 Y69.443
X-17.364 Y69.577
X-17.421 Y69.715
X-17.467 Y69.858
X-17.502 Y70.004
X-17.524 Y70.152
X-17.534 Y70.302
X-17.532 Y70.452
X-17.518 Y70.601
X-17.492 Y70.749
X-17.454 Y70.894
X-17.404 Y71.036
X-17.343 Y71.173
X-17.271 Y71.305
X-17.189 Y71.43
X-17.098 Y71.549
X-16.997 Y71.66
X-16.888 Y71.763
X-16.771 Y71.857
X-16.646 Y71.941
X-16.516 Y72.014
X-16.38 Y72.078
X-16.239 Y72.13
X-16.095 Y72.17
X-15.947 Y72.199
X-15.798 Y72.216
X-15.648 Y72.221
X-15.499 Y72.214
X-15.35 Y72.195
X-15.203 Y72.164
X-15.059 Y72.122
X-14.919 Y72.069
X-14.784 Y72.004
X-14.654 Y71.929
X-14.53 Y71.844
X-14.413 Y71.75
X-14.304 Y71.647
X-14.204 Y71.536
X-14.113 Y71.417
X-14.031 Y71.291
X-13.959 Y71.159
X-13.898 Y71.022
X-13.848 Y70.881
X-13.81 Y70.736
X-13.782 Y70.588
X-13.767 Y70.439
X-13.763 Y70.289
X-13.772 Y70.139
X-13.791 Y69.99
X-13.823 Y69.844
X-13.866 Y69.7
X-13.919 Y69.56
X-13.984 Y69.425
X-14.059 Y69.295
X-14.144 Y69.171
X-14.238 Y69.054
X-14.341 Y68.945
X-14.452 Y68.844
X-14.57 Y68.752
X-14.696 Y68.67
X-14.827 Y68.598
X-14.964 Y68.536
X-15.105 Y68.485
X-15.249 Y68.445
X-15.397 Y68.416
X-15.546 Y68.399
X-15.695 Y68.393
X-15.845 Y68.398
X-15.994 Y68.416
X-16.142 Y68.444
X-16.286 Y68.484
X-16.427 Y68.535
X-16.564 Y68.597
X-16.696 Y68.669
X-16.821 Y68.751
X-16.94 Y68.842
X-17.052 Y68.942
X-17.156 Y69.051
X-17.251 Y69.167
X-17.337 Y69.29
X-17.413 Y69.419
X-17.479 Y69.553
X-17.535 Y69.693
X-17.58 Y69.836
X-17.614 Y69.982
X-17.636 Y70.13
X-17.648 Y70.28
Y70.43
X-17.637 Y70.579
X-17.614 Y70.727
X-17.58 Y70.874
X-17.535 Y71.017
X-17.479 Y71.156
X-17.413 Y71.29
X-17.337 Y71.42
X-17.251 Y71.543
X-17.156 Y71.659
X-17.053 Y71.768
X-16.942 Y71.869
X-16.823 Y71.961
X-16.699 Y72.044
X-16.568 Y72.117
X-16.432 Y72.181
X-16.291 Y72.234
X-16.148 Y72.276
X-16.001 Y72.307
X-15.852 Y72.328
X-15.703 Y72.337
X-15.553 Y72.334
X-15.403 Y72.321
X-15.255 Y72.296
X-15.11 Y72.26
X-14.967 Y72.213
X-14.828 Y72.156
X-14.694 Y72.089
X-14.566 Y72.011
X-14.443 Y71.925
X-14.327 Y71.829
X-14.219 Y71.726
X-14.119 Y71.614
X-14.027 Y71.496
X-13.944 Y71.371
X-13.87 Y71.24
X-13.806 Y71.104
X-13.753 Y70.964
X-13.71 Y70.821
X-13.678 Y70.674
X-13.657 Y70.525
X-13.647 Y70.376
X-13.648 Y70.226
X-13.661 Y70.076
X-13.684 Y69.928
X-13.718 Y69.782
X-13.763 Y69.639
X-13.818 Y69.5
X-13.884 Y69.365
X-13.959 Y69.235
X-14.043 Y69.111
X-14.136 Y68.993
X-14.238 Y68.883
X-14.347 Y68.78
X-14.464 Y68.685
X-14.587 Y68.6
X-14.716 Y68.523
X-14.85 Y68.457
X-14.989 Y68.4
X-15.132 Y68.354
X-15.277 Y68.318
X-15.425 Y68.293
X-15.575 Y68.278
X-15.725 Y68.275
X-15.874 Y68.283
X-16.023 Y68.301
X-16.17 Y68.331
X-16.315 Y68.371
X-16.456 Y68.421
X-16.594 Y68.481
X-16.726 Y68.551
X-16.854 Y68.63
X-16.975 Y68.719
X-17.089 Y68.816
X-17.197 Y68.92
X-17.296 Y69.033
X-17.387 Y69.152
X-17.469 Y69.278
X-17.542 Y69.409
X-17.605 Y69.545
X-17.658 Y69.685
X-17.7 Y69.829
X-17.733 Y69.976
X-17.755 Y70.124
X-17.766 Y70.274
Y70.424
X-17.756 Y70.573
X-17.735 Y70.722
X-17.703 Y70.868
X-17.661 Y71.012
X-17.609 Y71.153
X-17.547 Y71.29
X-17.475 Y71.421
X-17.394 Y71.548
X-17.304 Y71.668
X-17.206 Y71.781
X-17.1 Y71.888
X-16.987 Y71.986
X-16.867 Y72.076
X-16.741 Y72.157
X-16.61 Y72.229
X-16.473 Y72.292
X-16.333 Y72.345
X-16.189 Y72.388
X-16.043 Y72.42
X-15.894 Y72.442
X-15.745 Y72.454
X-15.595 Y72.455
X-15.445 Y72.445
X-15.296 Y72.425
X-15.15 Y72.394
X-15.005 Y72.353
X-14.864 Y72.301
X-14.727 Y72.24
X-14.595 Y72.17
X-14.468 Y72.09
X-14.347 Y72.002
X-14.232 Y71.905
X-14.125 Y71.8
X-14.025 Y71.688
X-13.933 Y71.57
X-13.849 Y71.445
X-13.775 Y71.315
X-13.709 Y71.18
X-13.653 Y71.041
X-13.608 Y70.898
X-13.572 Y70.753
X-13.546 Y70.605
X-13.531 Y70.455
X-13.526 Y70.306
X-13.532 Y70.156
X-13.549 Y70.007
X-13.576 Y69.859
X-13.613 Y69.714
X-13.66 Y69.571
X-13.717 Y69.432
X-13.783 Y69.298
X-13.859 Y69.168
X-13.943 Y69.044
X-14.036 Y68.926
X-14.136 Y68.815
X-14.244 Y68.711
X-14.359 Y68.615
X-14.48 Y68.526
X-14.608 Y68.447
X-14.74 Y68.376
X-14.877 Y68.314
X-15.017 Y68.263
X-15.161 Y68.221
X-15.308 Y68.189
X-15.456 Y68.167
X-15.606 Y68.156
X-15.756 Y68.155
X-15.906 Y68.165
X-16.054 Y68.184
X-16.201 Y68.214
X-16.346 Y68.254
X-16.488 Y68.304
X-16.625 Y68.363
X-16.759 Y68.431
X-16.888 Y68.508
X-17.011 Y68.594
X-17.127 Y68.688
X-17.238 Y68.79
X-17.341 Y68.899
X-17.436 Y69.015
X-17.523 Y69.137
X-17.602 Y69.265
X-17.671 Y69.398
X-17.732 Y69.535
X-17.782 Y69.676
X-17.823 Y69.82
X-17.855 Y69.967
X-17.876 Y70.116
X-17.887 Y70.265
Y70.415
X-17.878 Y70.565
X-17.859 Y70.714
X-17.829 Y70.861
X-17.79 Y71.006
X-17.741 Y71.147
X-17.683 Y71.286
X-17.616 Y71.42
X-17.539 Y71.549
X-17.454 Y71.672
X-17.361 Y71.79
X-17.261 Y71.901
X-17.153 Y72.005
X-17.038 Y72.102
X-16.917 Y72.19
X-16.79 Y72.27
X-16.658 Y72.342
X-16.521 Y72.404
X-16.381 Y72.457
X-16.238 Y72.501
X-16.091 Y72.535
X-15.943 Y72.559
X-15.794 Y72.573
X-15.644 Y72.577
X-15.494 Y72.571
X-15.345 Y72.556
X-15.197 Y72.53
X-15.052 Y72.494
X-14.909 Y72.449
X-14.769 Y72.394
X-14.633 Y72.33
X-14.502 Y72.257
X-14.376 Y72.176
X-14.256 Y72.086
X-14.142 Y71.989
X-14.035 Y71.884
X-13.935 Y71.772
X-13.842 Y71.654
X-13.758 Y71.53
X-13.682 Y71.401
X-13.614 Y71.267
X-13.556 Y71.129
X-13.506 Y70.987
X-13.466 Y70.842
X-13.436 Y70.695
X-13.416 Y70.547
X-13.405 Y70.397
Y70.247
X-13.414 Y70.097
X-13.433 Y69.949
X-13.462 Y69.802
X-13.501 Y69.657
X-13.55 Y69.515
X-13.607 Y69.376
X-13.674 Y69.242
X-13.749 Y69.112
X-13.833 Y68.987
X-13.924 Y68.869
X-14.023 Y68.756
X-14.129 Y68.65
X-14.242 Y68.551
X-14.361 Y68.46
X-14.486 Y68.376
X-14.616 Y68.301
X-14.75 Y68.235
X-14.889 Y68.177
X-15.031 Y68.129
X-15.175 Y68.09
X-15.323 Y68.061
X-15.471 Y68.041
X-15.621 Y68.032
X-15.771
X-15.921 Y68.042
X-16.069 Y68.062
X-16.217 Y68.091
X-16.361 Y68.13
X-16.504 Y68.178
X-16.642 Y68.235
X-16.777 Y68.3
X-16.907 Y68.375
X-17.033 Y68.457
X-17.152 Y68.548
X-17.266 Y68.646
X-17.373 Y68.751
X-17.473 Y68.863
X-17.565 Y68.981
X-17.65 Y69.105
X-17.726 Y69.234
X-17.794 Y69.367
X-17.853 Y69.505
X-17.903 Y69.647
X-17.944 Y69.791
X-17.975 Y69.938
X-17.997 Y70.086
X-18.009 Y70.236
X-18.012 Y70.386
X-18.005 Y70.536
X-17.988 Y70.685
X-17.963 Y70.832
X-17.927 Y70.978
X-17.883 Y71.121
X-17.83 Y71.262
X-17.767 Y71.398
X-17.696 Y71.53
X-17.617 Y71.658
X-17.53 Y71.78
X-17.435 Y71.896
X-17.333 Y72.006
X-17.224 Y72.109
X-17.108 Y72.205
X-16.987 Y72.293
X-16.861 Y72.373
X-16.729 Y72.445
X-16.593 Y72.509
X-16.453 Y72.564
X-16.311 Y72.609
X-16.165 Y72.646
X-16.018 Y72.674
X-15.869 Y72.692
X-15.719 Y72.701
X-15.569 Y72.7
X-15.42 Y72.69
X-15.271 Y72.671
X-15.124 Y72.642
X-14.979 Y72.603
X-14.836 Y72.556
X-14.697 Y72.5
X-14.562 Y72.435
X-14.431 Y72.361
X-14.306 Y72.279
X-14.185 Y72.19
X-14.071 Y72.093
X-13.963 Y71.989
X-13.861 Y71.878
X-13.767 Y71.762
X-13.68 Y71.64
X-13.601 Y71.512
X-13.53 Y71.38
X-13.467 Y71.244
X-13.413 Y71.104
X-13.368 Y70.961
X-13.331 Y70.815
X-13.304 Y70.668
X-13.287 Y70.519
X-13.278 Y70.369
X-13.28 Y70.219
X-13.29 Y70.069
X-13.31 Y69.921
X-13.34 Y69.774
X-13.378 Y69.629
X-13.426 Y69.486
X-13.482 Y69.347
X-13.547 Y69.212
X-13.621 Y69.081
X-13.702 Y68.955
X-13.79 Y68.834
X-13.886 Y68.719
X-13.989 Y68.61
X-14.099 Y68.507
X-14.214 Y68.412
X-14.336 Y68.323
X-14.462 Y68.243
X-14.593 Y68.17
X-14.729 Y68.106
X-14.868 Y68.05
X-15.011 Y68.003
X-15.156 Y67.965
X-15.303 Y67.936
X-15.452 Y67.917
X-15.601 Y67.906
X-15.751 Y67.905
X-15.901 Y67.913
X-16.05 Y67.931
X-16.198 Y67.957
X-16.343 Y67.993
X-16.487 Y68.037
X-16.627 Y68.09
X-16.764 Y68.152
X-16.897 Y68.222
X-17.025 Y68.299
X-17.148 Y68.384
X-17.266 Y68.477
X-17.378 Y68.577
X-17.484 Y68.683
X-17.583 Y68.796
X-17.675 Y68.915
X-17.759 Y69.039
X-17.835 Y69.168
X-17.903 Y69.302
X-17.963 Y69.439
X-18.015 Y69.58
X-18.057 Y69.724
X-18.091 Y69.87
X-18.116 Y70.018
X-18.132 Y70.167
X-18.139 Y70.317
X-18.136 Y70.467
X-18.125 Y70.617
X-18.105 Y70.765
X-18.075 Y70.912
X-18.037 Y71.057
X-17.991 Y71.2
X-17.935 Y71.339
X-17.871 Y71.475
X-17.8 Y71.607
X-17.72 Y71.734
X-17.632 Y71.856
X-17.538 Y71.972
X-17.436 Y72.082
X-17.328 Y72.186
X-17.214 Y72.283
X-17.094 Y72.374
X-16.969 Y72.456
X-16.839 Y72.531
X-16.704 Y72.598
X-16.567 Y72.657
X-16.425 Y72.708
X-16.281 Y72.75
X-16.135 Y72.783
X-15.987 Y72.808
X-15.838 Y72.823
X-15.688 Y72.83
X-15.538 Y72.827
X-15.388 Y72.816
X-15.24 Y72.795
X-15.093 Y72.766
X-14.948 Y72.728
X-14.805 Y72.681
X-14.666 Y72.625
X-14.53 Y72.562
X-14.398 Y72.49
X-14.271 Y72.41
X-14.149 Y72.323
X-14.032 Y72.229
X-13.921 Y72.128
X-13.817 Y72.021
X-13.719 Y71.907
X-13.627 Y71.788
X-13.543 Y71.664
X-13.466 Y71.535
X-13.397 Y71.402
X-13.336 Y71.265
X-13.284 Y71.125
X-13.24 Y70.981
X-13.204 Y70.835
X-13.177 Y70.688
X-13.159 Y70.539
X-13.15 Y70.389
X-13.151 Y70.239
X-13.16 Y70.09
X-13.178 Y69.941
X-13.204 Y69.793
X-13.24 Y69.647
X-13.284 Y69.504
X-13.337 Y69.363
X-13.397 Y69.226
X-13.466 Y69.093
X-13.542 Y68.964
X-13.626 Y68.839
X-13.717 Y68.72
X-13.814 Y68.606
X-13.919 Y68.498
X-14.029 Y68.397
X-14.145 Y68.302
X-14.267 Y68.214
X-14.393 Y68.133
X-14.524 Y68.06
X-14.659 Y67.995
X-14.798 Y67.938
X-14.94 Y67.89
X-15.085 Y67.85
X-15.231 Y67.818
X-15.38 Y67.795
X-15.529 Y67.781
X-15.679 Y67.776
X-15.829 Y67.78
X-15.978 Y67.792
X-16.127 Y67.813
X-16.274 Y67.842
X-16.419 Y67.88
X-16.562 Y67.926
X-16.701 Y67.981
X-16.838 Y68.043
X-16.97 Y68.114
X-17.098 Y68.192
X-17.222 Y68.277
X-17.34 Y68.369
X-17.453 Y68.469
X-17.559 Y68.574
X-17.659 Y68.686
X-17.753 Y68.803
X-17.839 Y68.926
X-17.918 Y69.053
X-17.99 Y69.185
X-18.054 Y69.321
X-18.109 Y69.46
X-18.157 Y69.602
X-18.196 Y69.747
X-18.227 Y69.894
X-18.25 Y70.042
X-18.264 Y70.191
X-18.269 Y70.341
X-18.266 Y70.491
X-18.254 Y70.641
X-18.233 Y70.789
X-18.204 Y70.936
X-18.166 Y71.082
X-18.12 Y71.224
X-18.066 Y71.364
X-18.004 Y71.501
X-17.934 Y71.634
X-17.857 Y71.762
X-17.772 Y71.886
X-17.68 Y72.004
X-17.581 Y72.117
X-17.477 Y72.225
X-17.366 Y72.326
X-17.249 Y72.42
X-17.128 Y72.508
X-17.001 Y72.589
X-16.87 Y72.662
X-16.735 Y72.728
X-16.597 Y72.786
X-16.456 Y72.835
X-16.312 Y72.877
X-16.165 Y72.911
X-16.017 Y72.936
X-15.868 Y72.952
X-15.719 Y72.96
X-15.569 Y72.959
X-15.419 Y72.95
X-15.27 Y72.932
X-15.122 Y72.906
X-14.976 Y72.871
X-14.833 Y72.828
X-14.692 Y72.777
X-14.554 Y72.718
X-14.42 Y72.651
X-14.289 Y72.576
X-14.163 Y72.495
X-14.042 Y72.406
X-13.927 Y72.311
X-13.816 Y72.209
X-13.712 Y72.101
X-13.614 Y71.988
X-13.523 Y71.869
X-13.438 Y71.745
X-13.361 Y71.616
X-13.291 Y71.484
X-13.228 Y71.347
X-13.174 Y71.208
X-13.127 Y71.065
X-13.089 Y70.92
X-13.059 Y70.773
X-13.037 Y70.625
X-13.024 Y70.475
X-13.019 Y70.325
X-13.023 Y70.175
X-13.035 Y70.026
X-13.055 Y69.877
X-13.084 Y69.73
X-13.121 Y69.585
X-13.166 Y69.442
X-13.22 Y69.301
X-13.281 Y69.164
X-13.349 Y69.031
X-13.425 Y68.902
X-13.687 Y68.569
X-13.998 Y68.281
X-14.35 Y68.046
X-14.735 Y67.87
X-15.143 Y67.756
X-15.564 Y67.709
X-15.987 Y67.729
X-16.268 Y67.764
X-16.38 Y67.79
X-16.735 Y67.93
X-16.826 Y67.965
X-16.937 Y68.013
X-17.049 Y68.084
X-17.449 Y68.376
X-17.495 Y68.416
X-17.652 Y68.599
X-17.837 Y68.822
X-17.895 Y68.897
X-17.94 Y68.972
X-18.163 Y69.443
X-18.183 Y69.491
X-18.236 Y69.714
X-18.279 Y69.937
X-18.317 Y70.16
X-18.309 Y70.383
X-18.296 Y70.606
X-18.276 Y70.83
X-18.209 Y71.053
X-18.101 Y71.387
X-18.051 Y71.499
X-17.912 Y71.722
X-17.771 Y71.945
X-17.717 Y72.018
X-17.566 Y72.168
X-17.329 Y72.391
X-17.272 Y72.443
X-17.049 Y72.58
X-16.714 Y72.764
X-16.658 Y72.789
X-16.603 Y72.808
X-16.495 Y72.837
X-16.38 Y72.866
X-15.811 Y72.999
X-15.664 Y73.025
X-15.515 Y73.041
X-15.365 Y73.042
X-15.215 Y73.031
X-15.066 Y73.009
X-14.92 Y72.978
X-14.775 Y72.937
X-14.634 Y72.888
X-14.495 Y72.83
X-14.36 Y72.765
X-14.229 Y72.692
X-14.102 Y72.612
X-13.98 Y72.525
X-13.863 Y72.431
X-13.752 Y72.331
X-13.645 Y72.225
X-13.545 Y72.113
X-13.451 Y71.996
X-13.364 Y71.874
X-13.283 Y71.748
X-13.209 Y71.617
X-13.143 Y71.483
X-13.083 Y71.345
X-13.032 Y71.204
X-12.987 Y71.061
X-12.951 Y70.916
X-12.922 Y70.768
X-12.902 Y70.62
X-12.889 Y70.47
X-12.885 Y70.32
X-12.889 Y70.17
X-12.9 Y70.021
X-12.92 Y69.872
X-12.948 Y69.725
X-12.983 Y69.579
X-13.027 Y69.435
X-13.078 Y69.294
X-13.137 Y69.157
X-13.206 Y69.023
X-13.28 Y68.893
X-13.362 Y68.767
X-13.628 Y68.463
X-13.936 Y68.202
X-14.28 Y67.99
X-14.651 Y67.832
X-15.043 Y67.731
X-15.445 Y67.691
X-15.848 Y67.711
X-15.987 Y67.729
G2 X-16.519 Y68.393 I0.101 J0.627
G1 X-16.28 Y72.423
G2 X-15.811 Y72.999 I0.634 J-0.038
G1 X-15.711 Y73.022
X-15.473 Y73.06
X-15.33 Y73.079
X-15.181 Y73.09
X-15.031 Y73.086
X-14.882 Y73.066
X-14.736 Y73.034
X-14.592 Y72.991
X-14.452 Y72.939
X-14.315 Y72.877
X-14.182 Y72.808
X-14.053 Y72.731
X-13.929 Y72.647
X-13.81 Y72.556
X-13.695 Y72.458
X-13.587 Y72.355
X-13.484 Y72.246
X-13.387 Y72.131
X-13.296 Y72.012
X-13.212 Y71.888
X-13.134 Y71.76
X-13.062 Y71.628
X-12.998 Y71.492
X-12.941 Y71.354
X-12.891 Y71.212
X-12.849 Y71.068
X-12.813 Y70.923
X-12.786 Y70.775
X-12.766 Y70.626
X-12.753 Y70.477
X-12.749 Y70.327
X-12.751 Y70.177
X-12.762 Y70.027
X-12.781 Y69.879
X-12.807 Y69.731
X-12.84 Y69.585
X-12.882 Y69.441
X-12.932 Y69.299
X-12.989 Y69.16
X-13.053 Y69.025
X-13.283 Y68.685
X-13.562 Y68.385
X-13.883 Y68.131
X-14.239 Y67.928
X-14.622 Y67.782
X-15.023 Y67.697
X-15.432 Y67.673
X-15.488 Y67.674
X-15.711 Y67.694
X-15.848 Y67.711
G2 X-16.377 Y68.418 I0.101 J0.627
G1 X-15.857 Y72.532
G2 X-15.33 Y73.079 I0.63 J-0.08
G1 X-15.042 Y73.116
X-14.893 Y73.128
X-14.743 Y73.116
X-14.596 Y73.088
X-14.451 Y73.048
X-14.31 Y72.996
X-14.174 Y72.934
X-14.041 Y72.864
X-13.913 Y72.786
X-13.79 Y72.7
X-13.672 Y72.608
X-13.559 Y72.509
X-13.451 Y72.404
X-13.35 Y72.294
X-13.254 Y72.179
X-13.164 Y72.059
X-13.08 Y71.934
X-13.003 Y71.806
X-12.932 Y71.673
X-12.868 Y71.538
X-12.811 Y71.399
X-12.761 Y71.258
X-12.718 Y71.114
X-12.682 Y70.969
X-12.653 Y70.821
X-12.631 Y70.673
X-12.617 Y70.524
X-12.61 Y70.374
Y70.224
X-12.618 Y70.074
X-12.634 Y69.925
X-12.657 Y69.777
X-12.687 Y69.63
X-12.725 Y69.485
X-12.771 Y69.342
X-12.827 Y69.203
X-12.89 Y69.066
X-12.96 Y68.934
X-13.192 Y68.615
X-13.469 Y68.333
X-13.784 Y68.096
X-14.131 Y67.907
X-14.502 Y67.771
X-14.889 Y67.692
X-15.283 Y67.671
X-15.432 Y67.673
G2 X-16.029 Y68.377 I0.034 J0.634
G1 X-15.57 Y72.559
G2 X-15.042 Y73.116 I0.631 J-0.069
G1 X-14.819 Y73.145
X-14.67 Y73.156
X-14.52 Y73.144
X-14.373 Y73.113
X-14.23 Y73.068
X-14.091 Y73.011
X-13.957 Y72.945
X-13.827 Y72.87
X-13.702 Y72.787
X-13.582 Y72.697
X-13.468 Y72.6
X-13.359 Y72.497
X-13.255 Y72.388
X-13.158 Y72.274
X-13.066 Y72.155
X-12.981 Y72.032
X-12.901 Y71.905
X-12.828 Y71.774
X-12.762 Y71.639
X-12.702 Y71.502
X-12.648 Y71.362
X-12.602 Y71.219
X-12.562 Y71.075
X-12.529 Y70.928
X-12.503 Y70.78
X-12.485 Y70.632
X-12.473 Y70.482
X-12.469 Y70.332
X-12.471 Y70.182
X-12.481 Y70.032
X-12.498 Y69.883
X-12.522 Y69.735
X-12.555 Y69.589
X-12.595 Y69.444
X-12.642 Y69.302
X-12.699 Y69.163
X-12.764 Y69.028
X-12.836 Y68.896
X-13.11 Y68.537
X-13.442 Y68.229
X-13.821 Y67.982
X-14.236 Y67.803
X-14.676 Y67.697
X-15.128 Y67.668
X-15.283 Y67.671
G2 X-15.878 Y68.384 I0.034 J0.634
G1 X-15.346 Y72.598
G2 X-14.819 Y73.145 I0.63 J-0.08
G1 X-14.596 Y73.174
X-14.447 Y73.185
X-14.298 Y73.168
X-14.152 Y73.131
X-14.011 Y73.081
X-13.874 Y73.02
X-13.742 Y72.948
X-13.615 Y72.869
X-13.493 Y72.781
X-13.377 Y72.686
X-13.266 Y72.585
X-13.161 Y72.478
X-13.061 Y72.366
X-12.968 Y72.249
X-12.88 Y72.127
X-12.798 Y72.001
X-12.723 Y71.872
X-12.654 Y71.739
X-12.591 Y71.602
X-12.535 Y71.463
X-12.485 Y71.322
X-12.442 Y71.178
X-12.406 Y71.033
X-12.376 Y70.886
X-12.353 Y70.737
X-12.337 Y70.588
X-12.328 Y70.438
X-12.326 Y70.288
X-12.331 Y70.138
X-12.343 Y69.989
X-12.362 Y69.84
X-12.388 Y69.693
X-12.422 Y69.546
X-12.464 Y69.402
X-12.513 Y69.261
X-12.572 Y69.123
X-12.793 Y68.76
X-13.069 Y68.437
X-13.394 Y68.162
X-13.758 Y67.942
X-14.152 Y67.784
X-14.567 Y67.691
X-14.991 Y67.665
X-15.128 Y67.668
G2 X-15.722 Y68.39 I0.034 J0.634
G1 X-15.122 Y72.636
G2 X-14.596 Y73.174 I0.629 J-0.089
G1 X-14.411 Y73.197
X-14.261 Y73.209
X-14.112 Y73.192
X-13.967 Y73.154
X-13.826 Y73.102
X-13.691 Y73.038
X-13.56 Y72.965
X-13.435 Y72.882
X-13.315 Y72.792
X-13.201 Y72.695
X-13.092 Y72.591
X-12.989 Y72.482
X-12.892 Y72.368
X-12.8 Y72.249
X-12.715 Y72.126
X-12.636 Y71.998
X-12.563 Y71.867
X-12.496 Y71.733
X-12.435 Y71.596
X-12.381 Y71.456
X-12.333 Y71.314
X-12.292 Y71.17
X-12.257 Y71.024
X-12.229 Y70.877
X-12.207 Y70.728
X-12.192 Y70.579
X-12.184 Y70.429
X-12.182 Y70.279
X-12.188 Y70.129
X-12.2 Y69.98
X-12.219 Y69.831
X-12.246 Y69.683
X-12.28 Y69.537
X-12.323 Y69.394
X-12.376 Y69.253
X-12.435 Y69.115
X-12.503 Y68.982
X-12.727 Y68.655
X-12.998 Y68.365
X-13.309 Y68.118
X-13.654 Y67.921
X-14.024 Y67.777
X-14.411 Y67.69
X-14.806 Y67.662
X-14.991 Y67.665
G2 X-15.585 Y68.394 I0.034 J0.634
G1 X-14.935 Y72.666
G2 X-14.411 Y73.197 I0.628 J-0.095
G1 X-14.22 Y73.222
X-14.071 Y73.234
X-13.922 Y73.213
X-13.778 Y73.173
X-13.638 Y73.118
X-13.504 Y73.051
X-13.375 Y72.974
X-13.252 Y72.889
X-13.134 Y72.796
X-13.021 Y72.697
X-12.915 Y72.591
X-12.814 Y72.48
X-12.719 Y72.364
X-12.631 Y72.243
X-12.548 Y72.118
X-12.471 Y71.989
X-12.4 Y71.857
X-12.335 Y71.722
X-12.277 Y71.584
X-12.225 Y71.443
X-12.179 Y71.3
X-12.139 Y71.155
X-12.106 Y71.009
X-12.079 Y70.862
X-12.059 Y70.713
X-12.045 Y70.564
X-12.038 Y70.414
X-12.037 Y70.264
X-12.044 Y70.114
X-12.057 Y69.964
X-12.077 Y69.816
X-12.105 Y69.669
X-12.141 Y69.523
X-12.184 Y69.379
X-12.236 Y69.239
X-12.447 Y68.855
X-12.717 Y68.51
X-13.041 Y68.215
X-13.408 Y67.977
X-13.81 Y67.802
X-14.235 Y67.696
X-14.671 Y67.661
X-14.806 Y67.662
G2 X-15.41 Y68.393 I0.024 J0.635
G1 X-14.745 Y72.693
G2 X-14.22 Y73.222 I0.628 J-0.097
G1 X-14.036 Y73.246
X-13.886 Y73.258
X-13.738 Y73.234
X-13.595 Y73.191
X-13.456 Y73.133
X-13.323 Y73.064
X-13.196 Y72.985
X-13.074 Y72.897
X-12.958 Y72.802
X-12.847 Y72.701
X-12.743 Y72.593
X-12.644 Y72.48
X-12.551 Y72.362
X-12.464 Y72.24
X-12.383 Y72.114
X-12.308 Y71.984
X-12.24 Y71.851
X-12.177 Y71.714
X-12.12 Y71.576
X-12.069 Y71.434
X-12.025 Y71.291
X-11.987 Y71.146
X-11.955 Y70.999
X-11.929 Y70.852
X-11.91 Y70.703
X-11.898 Y70.553
X-11.891 Y70.404
X-11.892 Y70.254
X-11.899 Y70.104
X-11.913 Y69.954
X-11.934 Y69.806
X-11.963 Y69.659
X-12.001 Y69.514
X-12.048 Y69.371
X-12.101 Y69.231
X-12.163 Y69.094
X-12.385 Y68.742
X-12.658 Y68.429
X-12.977 Y68.161
X-13.333 Y67.946
X-13.718 Y67.789
X-14.123 Y67.693
X-14.538 Y67.661
X-14.671
G2 X-15.274 Y68.399 I0.024 J0.635
G1 X-14.559 Y72.723
G2 X-14.036 Y73.246 I0.626 J-0.104
G1 X-13.835 Y73.272
X-13.685 Y73.284
X-13.538 Y73.252
X-13.397 Y73.203
X-13.26 Y73.141
X-13.129 Y73.067
X-13.004 Y72.985
X-12.885 Y72.894
X-12.771 Y72.796
X-12.663 Y72.692
X-12.561 Y72.582
X-12.465 Y72.467
X-12.374 Y72.347
X-12.29 Y72.223
X-12.212 Y72.095
X-12.139 Y71.964
X-12.072 Y71.83
X-12.012 Y71.692
X-11.957 Y71.553
X-11.909 Y71.411
X-11.867 Y71.267
X-11.831 Y71.121
X-11.801 Y70.974
X-11.777 Y70.826
X-11.759 Y70.677
X-11.748 Y70.528
X-11.744 Y70.378
X-11.746 Y70.228
X-11.755 Y70.078
X-11.771 Y69.929
X-11.795 Y69.781
X-11.826 Y69.634
X-11.864 Y69.489
X-11.912 Y69.347
X-11.968 Y69.208
X-12.031 Y69.071
X-12.254 Y68.724
X-12.529 Y68.416
X-12.847 Y68.153
X-13.201 Y67.941
X-13.584 Y67.787
X-13.986 Y67.693
X-14.398 Y67.661
X-14.538
G2 X-15.14 Y68.408 I0.022 J0.635
G1 X-14.357 Y72.753
X-14.356 Y72.758
G2 X-13.835 Y73.272 I0.625 J-0.113
G1 X-13.667 Y73.293
X-13.518 Y73.305
X-13.371 Y73.273
X-13.23 Y73.223
X-13.094 Y73.159
X-12.964 Y73.085
X-12.84 Y73.001
X-12.721 Y72.909
X-12.609 Y72.81
X-12.502 Y72.704
X-12.401 Y72.593
X-12.306 Y72.477
X-12.217 Y72.357
X-12.133 Y72.232
X-12.056 Y72.103
X-11.985 Y71.972
X-11.919 Y71.837
X-11.859 Y71.699
X-11.806 Y71.559
X-11.758 Y71.417
X-11.716 Y71.273
X-11.681 Y71.127
X-11.652 Y70.98
X-11.628 Y70.832
X-11.612 Y70.682
X-11.601 Y70.533
X-11.597 Y70.383
X-11.6 Y70.233
X-11.609 Y70.083
X-11.625 Y69.934
X-11.649 Y69.786
X-11.68 Y69.639
X-11.719 Y69.494
X-11.766 Y69.352
X-11.822 Y69.213
X-11.884 Y69.076
X-11.955 Y68.944
X-12.183 Y68.626
X-12.455 Y68.345
X-12.765 Y68.106
X-13.106 Y67.914
X-13.472 Y67.775
X-13.854 Y67.69
X-14.244 Y67.661
X-14.398
G2 X-15. Y68.411 I0.022 J0.635
G1 X-14.19 Y72.775
X-14.188 Y72.783
G2 X-13.667 Y73.293 I0.624 J-0.116
G1 X-13.513 Y73.313
X-13.363 Y73.325
X-13.216 Y73.295
X-13.075 Y73.245
X-12.939 Y73.182
X-12.809 Y73.107
X-12.685 Y73.022
X-12.567 Y72.929
X-12.455 Y72.83
X-12.349 Y72.724
X-12.249 Y72.612
X-12.154 Y72.496
X-12.066 Y72.375
X-11.983 Y72.25
X-11.906 Y72.121
X-11.835 Y71.989
X-11.77 Y71.854
X-11.711 Y71.716
X-11.657 Y71.576
X-11.61 Y71.433
X-11.569 Y71.289
X-11.534 Y71.143
X-11.504 Y70.996
X-11.481 Y70.848
X-11.464 Y70.699
X-11.454 Y70.549
X-11.45 Y70.399
X-11.452 Y70.249
X-11.461 Y70.1
X-11.477 Y69.95
X-11.5 Y69.802
X-11.531 Y69.655
X-11.569 Y69.51
X-11.614 Y69.367
X-11.668 Y69.227
X-11.882 Y68.846
X-12.155 Y68.504
X-12.481 Y68.212
X-12.849 Y67.976
X-13.251 Y67.802
X-13.675 Y67.697
X-14.111 Y67.661
X-14.244
G2 X-14.846 Y68.411 I0.022 J0.635
G1 X-14.035 Y72.795
X-14.034 Y72.802
G2 X-13.513 Y73.313 I0.624 J-0.115
G1 X-13.359 Y73.333
X-13.209 Y73.345
X-13.062 Y73.316
X-12.921 Y73.266
X-12.785 Y73.203
X-12.655 Y73.127
X-12.532 Y73.042
X-12.414 Y72.949
X-12.302 Y72.849
X-12.197 Y72.743
X-12.097 Y72.631
X-12.003 Y72.514
X-11.915 Y72.392
X-11.832 Y72.267
X-11.756 Y72.138
X-11.685 Y72.006
X-11.621 Y71.87
X-11.562 Y71.732
X-11.509 Y71.592
X-11.462 Y71.45
X-11.421 Y71.305
X-11.386 Y71.159
X-11.357 Y71.012
X-11.334 Y70.864
X-11.317 Y70.715
X-11.306 Y70.565
X-11.302 Y70.415
X-11.304 Y70.265
X-11.313 Y70.116
X-11.329 Y69.967
X-11.351 Y69.818
X-11.381 Y69.671
X-11.419 Y69.526
X-11.467 Y69.384
X-11.52 Y69.244
X-11.582 Y69.107
X-11.807 Y68.752
X-12.084 Y68.436
X-12.407 Y68.166
X-12.768 Y67.949
X-13.157 Y67.79
X-13.566 Y67.694
X-13.986 Y67.661
X-14.111
G2 X-14.713 Y68.413 I0.022 J0.635
G1 X-13.882 Y72.815
X-13.88 Y72.825
G2 X-13.359 Y73.333 I0.624 J-0.118
G1 X-13.191 Y73.355
X-13.041 Y73.367
X-12.895 Y73.334
X-12.754 Y73.283
X-12.619 Y73.217
X-12.49 Y73.14
X-12.367 Y73.054
X-12.251 Y72.96
X-12.14 Y72.859
X-12.035 Y72.751
X-11.936 Y72.639
X-11.843 Y72.521
X-11.756 Y72.399
X-11.675 Y72.273
X-11.599 Y72.143
X-11.529 Y72.01
X-11.465 Y71.875
X-11.407 Y71.736
X-11.355 Y71.596
X-11.309 Y71.453
X-11.269 Y71.309
X-11.234 Y71.163
X-11.206 Y71.015
X-11.183 Y70.867
X-11.167 Y70.718
X-11.157 Y70.568
X-11.153 Y70.418
X-11.156 Y70.268
X-11.165 Y70.119
X-11.181 Y69.969
X-11.205 Y69.821
X-11.235 Y69.674
X-11.273 Y69.529
X-11.319 Y69.387
X-11.375 Y69.247
X-11.436 Y69.11
X-11.506 Y68.978
X-11.736 Y68.652
X-12.012 Y68.363
X-12.327 Y68.118
X-12.675 Y67.921
X-13.047 Y67.778
X-13.437 Y67.69
X-13.835 Y67.661
X-13.986
G2 X-14.587 Y68.419 I0.022 J0.635
G1 X-13.713 Y72.836
X-13.71 Y72.852
G2 X-13.191 Y73.355 I0.623 J-0.123
G1 X-13.036 Y73.375
X-12.886 Y73.387
X-12.74 Y73.355
X-12.599 Y73.303
X-12.464 Y73.237
X-12.336 Y73.159
X-12.213 Y73.073
X-12.097 Y72.978
X-11.987 Y72.876
X-11.882 Y72.769
X-11.784 Y72.656
X-11.691 Y72.538
X-11.604 Y72.415
X-11.523 Y72.289
X-11.448 Y72.159
X-11.379 Y72.026
X-11.315 Y71.89
X-11.258 Y71.752
X-11.206 Y71.611
X-11.16 Y71.468
X-11.12 Y71.324
X-11.085 Y71.178
X-11.057 Y71.03
X-11.035 Y70.882
X-11.018 Y70.733
X-11.008 Y70.583
X-11.005 Y70.433
X-11.007 Y70.283
X-11.016 Y70.134
X-11.032 Y69.984
X-11.055 Y69.836
X-11.085 Y69.689
X-11.123 Y69.544
X-11.167 Y69.401
X-11.22 Y69.261
X-11.437 Y68.871
X-11.714 Y68.523
X-12.044 Y68.224
X-12.418 Y67.983
X-12.827 Y67.806
X-13.259 Y67.697
X-13.703 Y67.661
X-13.835
G2 X-14.436 Y68.419 I0.022 J0.635
G1 X-13.558 Y72.856
X-13.555 Y72.872
G2 X-13.036 Y73.375 I0.623 J-0.123
G1 X-12.85 Y73.399
X-12.701 Y73.411
X-12.556 Y73.37
X-12.417 Y73.314
X-12.285 Y73.244
X-12.158 Y73.164
X-12.037 Y73.075
X-11.922 Y72.978
X-11.814 Y72.875
X-11.711 Y72.766
X-11.614 Y72.652
X-11.522 Y72.532
X-11.437 Y72.409
X-11.358 Y72.282
X-11.284 Y72.151
X-11.216 Y72.018
X-11.154 Y71.881
X-11.098 Y71.742
X-11.047 Y71.601
X-11.002 Y71.458
X-10.963 Y71.313
X-10.93 Y71.166
X-10.903 Y71.019
X-10.882 Y70.87
X-10.867 Y70.721
X-10.858 Y70.571
X-10.855 Y70.421
X-10.859 Y70.271
X-10.869 Y70.122
X-10.886 Y69.973
X-10.91 Y69.825
X-10.94 Y69.678
X-10.981 Y69.533
X-11.029 Y69.391
X-11.083 Y69.251
X-11.146 Y69.115
X-11.374 Y68.758
X-11.655 Y68.44
X-11.981 Y68.168
X-12.344 Y67.95
X-12.737 Y67.791
X-13.15 Y67.694
X-13.573 Y67.661
X-13.703
G2 X-14.302 Y68.425 I0.022 J0.635
G1 X-13.373 Y72.88
X-13.369 Y72.902
G2 X-12.85 Y73.399 I0.622 J-0.13
G1 X-12.698 Y73.419
X-12.549 Y73.43
X-12.404 Y73.391
X-12.265 Y73.334
X-12.132 Y73.265
X-12.006 Y73.184
X-11.885 Y73.095
X-11.771 Y72.998
X-11.662 Y72.895
X-11.56 Y72.785
X-11.463 Y72.67
X-11.372 Y72.551
X-11.287 Y72.428
X-11.208 Y72.3
X-11.134 Y72.169
X-11.066 Y72.036
X-11.004 Y71.899
X-10.948 Y71.76
X-10.898 Y71.619
X-10.853 Y71.476
X-10.814 Y71.331
X-10.781 Y71.184
X-10.754 Y71.037
X-10.733 Y70.888
X-10.718 Y70.739
X-10.709 Y70.589
X-10.706 Y70.439
X-10.709 Y70.289
X-10.719 Y70.14
X-10.736 Y69.991
X-10.76 Y69.843
X-10.791 Y69.696
X-10.829 Y69.551
X-10.875 Y69.408
X-10.931 Y69.269
X-10.992 Y69.132
X-11.062 Y68.999
X-11.295 Y68.668
X-11.575 Y68.374
X-11.895 Y68.125
X-12.248 Y67.925
X-12.626 Y67.78
X-13.022 Y67.691
X-13.426 Y67.661
X-13.573
G2 X-14.172 Y68.428 I0.022 J0.635
G1 X-13.221 Y72.9
X-13.216 Y72.924
G2 X-12.698 Y73.419 I0.621 J-0.132
G1 X-12.553 Y73.437
X-12.403 Y73.449
X-12.258 Y73.412
X-12.119 Y73.356
X-11.985 Y73.287
X-11.859 Y73.207
X-11.738 Y73.118
X-11.623 Y73.021
X-11.515 Y72.918
X-11.412 Y72.808
X-11.316 Y72.693
X-11.225 Y72.574
X-11.14 Y72.451
X-11.06 Y72.323
X-10.987 Y72.192
X-10.919 Y72.059
X-10.857 Y71.922
X-10.801 Y71.783
X-10.75 Y71.642
X-10.705 Y71.499
X-10.666 Y71.354
X-10.633 Y71.208
X-10.606 Y71.06
X-10.584 Y70.912
X-10.569 Y70.762
X-10.559 Y70.613
X-10.556 Y70.463
X-10.559 Y70.313
X-10.569 Y70.163
X-10.585 Y70.014
X-10.608 Y69.866
X-10.638 Y69.719
X-10.675 Y69.574
X-10.72 Y69.43
X-10.772 Y69.29
X-10.834 Y69.153
X-10.901 Y69.019
X-10.977 Y68.889
X-11.255 Y68.536
X-11.587 Y68.232
X-11.964 Y67.988
X-12.376 Y67.808
X-12.812 Y67.698
X-13.26 Y67.661
X-13.426
G2 X-14.025 Y68.427 I0.022 J0.635
G1 X-13.076 Y72.919
X-13.071 Y72.942
G2 X-12.553 Y73.437 I0.621 J-0.131
G1 X-12.398 Y73.457
X-12.249 Y73.469
X-12.104 Y73.431
X-11.965 Y73.375
X-11.832 Y73.305
X-11.705 Y73.225
X-11.585 Y73.136
X-11.47 Y73.038
X-11.362 Y72.934
X-11.26 Y72.825
X-11.163 Y72.71
X-11.073 Y72.59
X-10.988 Y72.467
X-10.909 Y72.339
X-10.836 Y72.208
X-10.768 Y72.074
X-10.706 Y71.938
X-10.65 Y71.799
X-10.6 Y71.657
X-10.555 Y71.514
X-10.516 Y71.369
X-10.483 Y71.223
X-10.456 Y71.075
X-10.434 Y70.927
X-10.419 Y70.778
X-10.409 Y70.628
X-10.406 Y70.478
X-10.409 Y70.328
X-10.418 Y70.178
X-10.434 Y70.029
X-10.457 Y69.881
X-10.486 Y69.734
X-10.523 Y69.588
X-10.566 Y69.445
X-10.617 Y69.304
X-10.676 Y69.166
X-10.901 Y68.797
X-11.182 Y68.468
X-11.51 Y68.187
X-11.879 Y67.961
X-12.278 Y67.796
X-12.698 Y67.695
X-13.129 Y67.661
X-13.26
G2 X-13.86 Y68.425 I0.022 J0.635
G1 X-12.921 Y72.939
X-12.917 Y72.96
G2 X-12.398 Y73.457 I0.622 J-0.129
G1 X-12.252 Y73.476
X-12.103 Y73.488
X-11.957 Y73.452
X-11.818 Y73.396
X-11.685 Y73.327
X-11.558 Y73.247
X-11.437 Y73.158
X-11.323 Y73.06
X-11.215 Y72.957
X-11.112 Y72.847
X-11.016 Y72.732
X-10.925 Y72.613
X-10.84 Y72.489
X-10.761 Y72.362
X-10.688 Y72.231
X-10.62 Y72.097
X-10.558 Y71.96
X-10.502 Y71.821
X-10.452 Y71.68
X-10.407 Y71.537
X-10.368 Y71.392
X-10.334 Y71.246
X-10.307 Y71.098
X-10.285 Y70.95
X-10.269 Y70.801
X-10.26 Y70.651
X-10.256 Y70.501
X-10.258 Y70.351
X-10.267 Y70.201
X-10.282 Y70.052
X-10.304 Y69.904
X-10.332 Y69.756
X-10.367 Y69.611
X-10.41 Y69.467
X-10.463 Y69.326
X-10.521 Y69.188
X-10.588 Y69.054
X-10.821 Y68.71
X-11.102 Y68.405
X-11.426 Y68.145
X-11.786 Y67.937
X-12.172 Y67.785
X-12.577 Y67.692
X-12.991 Y67.661
X-13.129
G2 X-13.728 Y68.426 I0.022 J0.635
G1 X-12.775 Y72.958
X-12.77 Y72.98
G2 X-12.252 Y73.476 I0.621 J-0.131
G1 X-12.106 Y73.495
X-11.957 Y73.507
X-11.811 Y73.472
X-11.671 Y73.417
X-11.538 Y73.348
X-11.411 Y73.268
X-11.29 Y73.179
X-11.176 Y73.082
X-11.067 Y72.978
X-10.965 Y72.869
X-10.868 Y72.754
X-10.778 Y72.635
X-10.693 Y72.511
X-10.614 Y72.384
X-10.54 Y72.253
X-10.472 Y72.119
X-10.41 Y71.983
X-10.354 Y71.844
X-10.303 Y71.702
X-10.258 Y71.559
X-10.219 Y71.415
X-10.185 Y71.268
X-10.158 Y71.121
X-10.136 Y70.973
X-10.12 Y70.823
X-10.109 Y70.674
X-10.105 Y70.524
X-10.107 Y70.374
X-10.115 Y70.224
X-10.129 Y70.075
X-10.15 Y69.926
X-10.178 Y69.779
X-10.213 Y69.633
X-10.255 Y69.489
X-10.305 Y69.347
X-10.364 Y69.21
X-10.429 Y69.074
X-10.502 Y68.943
X-10.737 Y68.625
X-11.016 Y68.343
X-11.333 Y68.104
X-11.68 Y67.913
X-12.051 Y67.774
X-12.438 Y67.689
X-12.833 Y67.661
X-12.991
G2 X-13.59 Y68.427 I0.022 J0.635
G1 X-12.629 Y72.976
X-12.624 Y73.
G2 X-12.106 Y73.495 I0.621 J-0.131
G1 X-11.965 Y73.513
X-11.816 Y73.525
X-11.669 Y73.492
X-11.529 Y73.439
X-11.396 Y73.371
X-11.268 Y73.292
X-11.147 Y73.203
X-11.032 Y73.107
X-10.923 Y73.003
X-10.821 Y72.894
X-10.724 Y72.779
X-10.633 Y72.66
X-10.548 Y72.537
X-10.468 Y72.41
X-10.394 Y72.279
X-10.326 Y72.145
X-10.264 Y72.009
X-10.207 Y71.87
X-10.156 Y71.729
X-10.111 Y71.586
X-10.071 Y71.441
X-10.037 Y71.295
X-10.009 Y71.148
X-9.986 Y71.
X-9.97 Y70.851
X-9.959 Y70.701
X-9.954 Y70.551
X-9.955 Y70.401
X-9.962 Y70.251
X-9.976 Y70.102
X-9.996 Y69.953
X-10.023 Y69.806
X-10.057 Y69.66
X-10.098 Y69.515
X-10.146 Y69.373
X-10.201 Y69.234
X-10.424 Y68.85
X-10.706 Y68.507
X-11.038 Y68.213
X-11.414 Y67.976
X-11.822 Y67.803
X-12.254 Y67.697
X-12.696 Y67.661
X-12.833
G2 X-13.433 Y68.424 I0.022 J0.635
G1 X-12.488 Y72.995
X-12.484 Y73.015
G2 X-11.965 Y73.513 I0.622 J-0.129
G1 X-11.806 Y73.534
X-11.657 Y73.546
X-11.511 Y73.51
X-11.372 Y73.455
X-11.238 Y73.386
X-11.111 Y73.306
X-10.991 Y73.217
X-10.876 Y73.12
X-10.768 Y73.017
X-10.666 Y72.907
X-10.569 Y72.792
X-10.478 Y72.673
X-10.393 Y72.549
X-10.314 Y72.422
X-10.241 Y72.291
X-10.173 Y72.157
X-10.111 Y72.02
X-10.054 Y71.881
X-10.004 Y71.74
X-9.959 Y71.597
X-9.919 Y71.453
X-9.885 Y71.306
X-9.857 Y71.159
X-9.835 Y71.011
X-9.818 Y70.862
X-9.807 Y70.712
X-9.802 Y70.562
X-9.803 Y70.412
X-9.811 Y70.262
X-9.824 Y70.113
X-9.844 Y69.964
X-9.871 Y69.817
X-9.904 Y69.67
X-9.945 Y69.526
X-9.996 Y69.385
X-10.052 Y69.246
X-10.116 Y69.11
X-10.349 Y68.753
X-10.634 Y68.436
X-10.964 Y68.166
X-11.331 Y67.949
X-11.726 Y67.79
X-12.141 Y67.693
X-12.566 Y67.661
X-12.696
G2 X-13.295 Y68.426 I0.022 J0.635
G1 X-12.329 Y73.015
X-12.325 Y73.038
G2 X-11.806 Y73.534 I0.621 J-0.131
G1 X-11.661 Y73.553
X-11.511 Y73.564
X-11.365 Y73.53
X-11.226 Y73.476
X-11.092 Y73.407
X-10.965 Y73.328
X-10.844 Y73.239
X-10.729 Y73.142
X-10.621 Y73.039
X-10.518 Y72.929
X-10.422 Y72.814
X-10.331 Y72.695
X-10.246 Y72.571
X-10.167 Y72.444
X-10.093 Y72.313
X-10.025 Y72.18
X-9.963 Y72.043
X-9.906 Y71.904
X-9.855 Y71.763
X-9.81 Y71.62
X-9.77 Y71.476
X-9.736 Y71.33
X-9.707 Y71.182
X-9.684 Y71.034
X-9.667 Y70.885
X-9.656 Y70.736
X-9.651 Y70.586
Y70.436
X-9.658 Y70.286
X-9.671 Y70.136
X-9.69 Y69.988
X-9.716 Y69.84
X-9.75 Y69.694
X-9.79 Y69.549
X-9.838 Y69.407
X-9.895 Y69.268
X-9.958 Y69.132
X-10.028 Y69.
X-10.266 Y68.668
X-10.55 Y68.374
X-10.873 Y68.125
X-11.229 Y67.925
X-11.611 Y67.779
X-12.009 Y67.691
X-12.417 Y67.661
X-12.566
G2 X-13.165 Y68.428 I0.022 J0.635
G1 X-12.184 Y73.034
X-12.179 Y73.058
G2 X-11.661 Y73.553 I0.621 J-0.132
G1 X-11.506 Y73.573
X-11.357 Y73.584
X-11.211 Y73.549
X-11.072 Y73.493
X-10.938 Y73.425
X-10.812 Y73.345
X-10.691 Y73.256
X-10.577 Y73.158
X-10.468 Y73.055
X-10.366 Y72.945
X-10.269 Y72.83
X-10.179 Y72.711
X-10.094 Y72.587
X-10.015 Y72.46
X-9.941 Y72.329
X-9.873 Y72.195
X-9.811 Y72.059
X-9.754 Y71.92
X-9.703 Y71.779
X-9.658 Y71.636
X-9.618 Y71.491
X-9.584 Y71.345
X-9.555 Y71.198
X-9.533 Y71.05
X-9.515 Y70.901
X-9.504 Y70.751
X-9.498 Y70.601
X-9.499 Y70.451
X-9.506 Y70.301
X-9.518 Y70.152
X-9.537 Y70.003
X-9.563 Y69.855
X-9.596 Y69.709
X-9.636 Y69.564
X-9.682 Y69.422
X-9.737 Y69.282
X-9.8 Y69.146
X-9.869 Y69.013
X-10.104 Y68.678
X-10.386 Y68.382
X-10.708 Y68.13
X-11.063 Y67.928
X-11.445 Y67.781
X-11.843 Y67.691
X-12.251 Y67.661
X-12.417
G2 X-13.016 Y68.428 I0.022 J0.635
G1 X-12.029 Y73.054
X-12.024 Y73.078
G2 X-11.506 Y73.573 I0.621 J-0.132
G1 X-11.361 Y73.591
X-11.211 Y73.603
X-11.065 Y73.569
X-10.925 Y73.514
X-10.792 Y73.446
X-10.665 Y73.366
X-10.544 Y73.277
X-10.43 Y73.18
X-10.321 Y73.076
X-10.219 Y72.967
X-10.122 Y72.852
X-10.031 Y72.733
X-9.946 Y72.609
X-9.867 Y72.482
X-9.793 Y72.351
X-9.725 Y72.218
X-9.662 Y72.081
X-9.606 Y71.943
X-9.554 Y71.802
X-9.509 Y71.659
X-9.468 Y71.514
X-9.434 Y71.368
X-9.405 Y71.221
X-9.382 Y71.073
X-9.364 Y70.924
X-9.352 Y70.774
X-9.347 Y70.624
Y70.474
X-9.353 Y70.325
X-9.365 Y70.175
X-9.383 Y70.026
X-9.408 Y69.878
X-9.44 Y69.732
X-9.478 Y69.587
X-9.524 Y69.444
X-9.577 Y69.304
X-9.8 Y68.904
X-10.084 Y68.546
X-10.423 Y68.239
X-10.807 Y67.991
X-11.227 Y67.809
X-11.671 Y67.698
X-12.127 Y67.661
X-12.251
G2 X-12.851 Y68.425 I0.022 J0.635
G1 X-11.883 Y73.073
X-11.879 Y73.094
G2 X-11.361 Y73.591 I0.622 J-0.129
G1 X-11.215 Y73.61
X-11.065 Y73.622
X-10.919 Y73.589
X-10.779 Y73.534
X-10.646 Y73.466
X-10.518 Y73.387
X-10.397 Y73.298
X-10.283 Y73.202
X-10.174 Y73.098
X-10.071 Y72.989
X-9.975 Y72.874
X-9.884 Y72.755
X-9.798 Y72.632
X-9.719 Y72.505
X-9.645 Y72.374
X-9.577 Y72.241
X-9.514 Y72.104
X-9.457 Y71.966
X-9.405 Y71.825
X-9.359 Y71.682
X-9.319 Y71.537
X-9.284 Y71.392
X-9.254 Y71.244
X-9.231 Y71.096
X-9.213 Y70.947
X-9.201 Y70.798
X-9.194 Y70.648
Y70.498
X-9.199 Y70.348
X-9.211 Y70.199
X-9.228 Y70.05
X-9.252 Y69.902
X-9.283 Y69.755
X-9.322 Y69.61
X-9.37 Y69.468
X-9.423 Y69.328
X-9.484 Y69.19
X-9.553 Y69.057
X-9.628 Y68.927
X-9.709 Y68.801
X-9.994 Y68.471
X-10.328 Y68.189
X-10.701 Y67.962
X-11.104 Y67.796
X-11.529 Y67.695
X-11.964 Y67.661
X-12.127
G2 X-12.726 Y68.427 I0.022 J0.635
G1 X-11.738 Y73.092
X-11.733 Y73.115
G2 X-11.215 Y73.61 I0.621 J-0.132
G1 X-11.061 Y73.63
X-10.911 Y73.642
X-10.765 Y73.607
X-10.626 Y73.552
X-10.492 Y73.484
X-10.365 Y73.404
X-10.244 Y73.315
X-10.13 Y73.218
X-10.021 Y73.114
X-9.919 Y73.005
X-9.822 Y72.89
X-9.731 Y72.771
X-9.646 Y72.648
X-9.566 Y72.52
X-9.493 Y72.39
X-9.424 Y72.256
X-9.362 Y72.12
X-9.305 Y71.981
X-9.253 Y71.84
X-9.207 Y71.698
X-9.167 Y71.553
X-9.132 Y71.407
X-9.102 Y71.26
X-9.079 Y71.112
X-9.061 Y70.963
X-9.048 Y70.814
X-9.042 Y70.664
X-9.041 Y70.514
X-9.046 Y70.364
X-9.057 Y70.214
X-9.075 Y70.065
X-9.099 Y69.917
X-9.13 Y69.771
X-9.168 Y69.625
X-9.213 Y69.482
X-9.265 Y69.342
X-9.323 Y69.203
X-9.389 Y69.068
X-9.624 Y68.721
X-9.908 Y68.413
X-10.235 Y68.15
X-10.598 Y67.94
X-10.988 Y67.786
X-11.397 Y67.692
X-11.815 Y67.661
X-11.964
G2 X-12.564 Y68.426 I0.022 J0.635
G1 X-11.583 Y73.112
X-11.579 Y73.134
G2 X-11.061 Y73.63 I0.622 J-0.13
G1 X-10.915 Y73.649
X-10.765 Y73.661
X-10.619 Y73.627
X-10.479 Y73.573
X-10.346 Y73.505
X-10.218 Y73.425
X-10.097 Y73.336
X-9.983 Y73.24
X-9.874 Y73.136
X-9.771 Y73.027
X-9.674 Y72.912
X-9.583 Y72.793
X-9.498 Y72.67
X-9.418 Y72.543
X-9.344 Y72.412
X-9.276 Y72.279
X-9.213 Y72.143
X-9.155 Y72.004
X-9.104 Y71.864
X-9.057 Y71.721
X-9.016 Y71.576
X-8.981 Y71.431
X-8.951 Y71.284
X-8.927 Y71.136
X-8.909 Y70.987
X-8.896 Y70.837
X-8.889 Y70.687
X-8.888 Y70.537
X-8.892 Y70.388
X-8.903 Y70.238
X-8.92 Y70.089
X-8.944 Y69.941
X-8.974 Y69.794
X-9.01 Y69.648
X-9.052 Y69.504
X-9.103 Y69.363
X-9.162 Y69.225
X-9.228 Y69.09
X-9.3 Y68.959
X-9.539 Y68.637
X-9.821 Y68.352
X-10.141 Y68.11
X-10.493 Y67.917
X-10.868 Y67.776
X-11.26 Y67.69
X-11.66 Y67.661
X-11.815
G2 X-12.414 Y68.425 I0.022 J0.635
G1 X-11.438 Y73.13
X-11.433 Y73.152
G2 X-10.915 Y73.649 I0.622 J-0.129
G1 X-10.769 Y73.668
X-10.62 Y73.68
X-10.473 Y73.647
X-10.333 Y73.593
X-10.199 Y73.525
X-10.072 Y73.446
X-9.951 Y73.358
X-9.836 Y73.261
X-9.727 Y73.158
X-9.624 Y73.049
X-9.527 Y72.935
X-9.436 Y72.816
X-9.35 Y72.693
X-9.27 Y72.566
X-9.196 Y72.435
X-9.127 Y72.302
X-9.064 Y72.166
X-9.006 Y72.028
X-8.954 Y71.887
X-8.907 Y71.744
X-8.866 Y71.6
X-8.83 Y71.454
X-8.8 Y71.308
X-8.776 Y71.16
X-8.757 Y71.011
X-8.744 Y70.861
X-8.736 Y70.711
X-8.735 Y70.562
X-8.739 Y70.412
X-8.749 Y70.262
X-8.765 Y70.113
X-8.787 Y69.964
X-8.816 Y69.817
X-8.851 Y69.671
X-8.893 Y69.527
X-8.942 Y69.386
X-8.999 Y69.247
X-9.064 Y69.112
X-9.135 Y68.979
X-9.37 Y68.653
X-9.65 Y68.363
X-9.97 Y68.118
X-10.321 Y67.921
X-10.698 Y67.778
X-11.091 Y67.69
X-11.493 Y67.661
X-11.66
G2 X-12.26 Y68.423 I0.022 J0.635
G1 X-11.292 Y73.149
X-11.288 Y73.169
G2 X-10.769 Y73.668 I0.622 J-0.127
G1 X-10.615 Y73.688
X-10.465 Y73.7
X-10.319 Y73.665
X-10.179 Y73.611
X-10.046 Y73.543
X-9.918 Y73.463
X-9.798 Y73.375
X-9.683 Y73.278
X-9.574 Y73.175
X-9.471 Y73.065
X-9.374 Y72.951
X-9.283 Y72.832
X-9.197 Y72.709
X-9.118 Y72.582
X-9.043 Y72.451
X-8.975 Y72.318
X-8.911 Y72.182
X-8.854 Y72.044
X-8.802 Y71.903
X-8.755 Y71.76
X-8.714 Y71.616
X-8.678 Y71.47
X-8.648 Y71.324
X-8.623 Y71.176
X-8.604 Y71.027
X-8.591 Y70.877
X-8.583 Y70.728
X-8.581 Y70.578
X-8.585 Y70.428
X-8.594 Y70.278
X-8.61 Y70.129
X-8.632 Y69.98
X-8.66 Y69.833
X-8.694 Y69.687
X-8.736 Y69.543
X-8.784 Y69.401
X-8.839 Y69.262
X-8.904 Y69.126
X-8.973 Y68.993
X-9.208 Y68.663
X-9.488 Y68.371
X-9.807 Y68.123
X-10.16 Y67.924
X-10.538 Y67.779
X-10.933 Y67.691
X-11.336 Y67.661
X-11.493
G2 X-12.093 Y68.421 I0.022 J0.635
G1 X-11.137 Y73.169
X-11.134 Y73.187
G2 X-10.615 Y73.688 I0.623 J-0.125
G1 X-10.469 Y73.707
X-10.319 Y73.718
X-10.173 Y73.685
X-10.033 Y73.631
X-9.899 Y73.564
X-9.772 Y73.485
X-9.651 Y73.396
X-9.536 Y73.3
X-9.427 Y73.197
X-9.324 Y73.088
X-9.226 Y72.973
X-9.135 Y72.854
X-9.049 Y72.731
X-8.969 Y72.605
X-8.895 Y72.474
X-8.826 Y72.341
X-8.762 Y72.205
X-8.704 Y72.067
X-8.652 Y71.926
X-8.605 Y71.784
X-8.563 Y71.64
X-8.527 Y71.494
X-8.496 Y71.347
X-8.471 Y71.2
X-8.452 Y71.051
X-8.438 Y70.902
X-8.429 Y70.752
X-8.427 Y70.602
X-8.43 Y70.452
X-8.439 Y70.302
X-8.454 Y70.153
X-8.474 Y70.004
X-8.501 Y69.857
X-8.535 Y69.71
X-8.575 Y69.566
X-8.622 Y69.424
X-8.677 Y69.284
X-8.9 Y68.889
X-9.185 Y68.535
X-9.523 Y68.231
X-9.906 Y67.987
X-10.323 Y67.807
X-10.764 Y67.698
X-11.216 Y67.661
X-11.336
G2 X-11.937 Y68.419 I0.022 J0.635
G1 X-10.992 Y73.188
X-10.988 Y73.204
G2 X-10.469 Y73.707 I0.623 J-0.124
G1 X-10.323 Y73.725
X-10.174 Y73.737
X-10.027 Y73.705
X-9.887 Y73.652
X-9.753 Y73.585
X-9.625 Y73.506
X-9.504 Y73.418
X-9.389 Y73.322
X-9.279 Y73.219
X-9.176 Y73.11
X-9.079 Y72.996
X-8.987 Y72.877
X-8.901 Y72.754
X-8.821 Y72.628
X-8.746 Y72.498
X-8.677 Y72.365
X-8.613 Y72.229
X-8.554 Y72.091
X-8.502 Y71.95
X-8.454 Y71.808
X-8.412 Y71.664
X-8.376 Y71.518
X-8.345 Y71.372
X-8.319 Y71.224
X-8.299 Y71.075
X-8.285 Y70.926
X-8.276 Y70.776
X-8.272 Y70.626
X-8.275 Y70.476
X-8.283 Y70.326
X-8.297 Y70.177
X-8.317 Y70.028
X-8.343 Y69.881
X-8.375 Y69.734
X-8.416 Y69.59
X-8.466 Y69.448
X-8.52 Y69.309
X-8.582 Y69.172
X-8.653 Y69.039
X-8.728 Y68.91
X-8.81 Y68.784
X-9.095 Y68.459
X-9.428 Y68.181
X-9.799 Y67.957
X-10.2 Y67.794
X-10.621 Y67.694
X-11.053 Y67.661
X-11.216
G2 X-11.817 Y68.422 I0.022 J0.635
G1 X-10.846 Y73.207
X-10.842 Y73.225
G2 X-10.323 Y73.725 I0.622 J-0.126
G1 X-10.169 Y73.745
X-10.019 Y73.757
X-9.873 Y73.724
X-9.733 Y73.67
X-9.599 Y73.602
X-9.472 Y73.523
X-9.351 Y73.435
X-9.236 Y73.338
X-9.126 Y73.235
X-9.023 Y73.127
X-8.926 Y73.012
X-8.834 Y72.894
X-8.748 Y72.771
X-8.668 Y72.644
X-8.593 Y72.514
X-8.524 Y72.381
X-8.46 Y72.245
X-8.402 Y72.107
X-8.349 Y71.967
X-8.301 Y71.824
X-8.259 Y71.68
X-8.223 Y71.535
X-8.192 Y71.388
X-8.166 Y71.241
X-8.145 Y71.092
X-8.131 Y70.943
X-8.121 Y70.793
X-8.118 Y70.643
X-8.12 Y70.493
X-8.127 Y70.343
X-8.141 Y70.194
X-8.161 Y70.045
X-8.187 Y69.897
X-8.22 Y69.751
X-8.26 Y69.606
X-8.306 Y69.464
X-8.359 Y69.324
X-8.419 Y69.186
X-8.486 Y69.051
X-8.721 Y68.708
X-9.006 Y68.403
X-9.332 Y68.144
X-9.694 Y67.936
X-10.082 Y67.784
X-10.488 Y67.692
X-10.904 Y67.661
X-11.053
G2 X-11.653 Y68.42 I0.022 J0.635
G1 X-10.692 Y73.227
X-10.688 Y73.243
G2 X-10.169 Y73.745 I0.623 J-0.125
G1 X-10.023 Y73.764
X-9.873 Y73.776
X-9.727 Y73.744
X-9.587 Y73.69
X-9.453 Y73.623
X-9.325 Y73.544
X-9.203 Y73.456
X-9.088 Y73.36
X-8.979 Y73.258
X-8.876 Y73.149
X-8.778 Y73.035
X-8.686 Y72.917
X-8.6 Y72.794
X-8.519 Y72.667
X-8.444 Y72.537
X-8.375 Y72.405
X-8.31 Y72.269
X-8.252 Y72.131
X-8.199 Y71.991
X-8.151 Y71.848
X-8.108 Y71.705
X-8.071 Y71.559
X-8.039 Y71.413
X-8.013 Y71.265
X-7.992 Y71.116
X-7.977 Y70.967
X-7.967 Y70.818
X-7.963 Y70.668
X-7.964 Y70.518
X-7.972 Y70.368
X-7.985 Y70.218
X-8.004 Y70.07
X-8.03 Y69.922
X-8.061 Y69.775
X-8.099 Y69.63
X-8.143 Y69.487
X-8.195 Y69.346
X-8.256 Y69.209
X-8.322 Y69.074
X-8.396 Y68.944
X-8.679 Y68.575
X-9.02 Y68.258
X-9.408 Y68.003
X-9.834 Y67.815
X-10.284 Y67.7
X-10.748 Y67.661
X-10.904
G2 X-11.505 Y68.419 I0.022 J0.635
G1 X-10.546 Y73.246
X-10.542 Y73.261
G2 X-10.023 Y73.764 I0.623 J-0.124
G1 X-9.877 Y73.783
X-9.728 Y73.795
X-9.581 Y73.764
X-9.441 Y73.711
X-9.306 Y73.644
X-9.178 Y73.566
X-9.057 Y73.478
X-8.941 Y73.383
X-8.832 Y73.28
X-8.728 Y73.172
X-8.63 Y73.058
X-8.538 Y72.94
X-8.451 Y72.817
X-8.37 Y72.691
X-8.295 Y72.561
X-8.225 Y72.428
X-8.161 Y72.293
X-8.102 Y72.155
X-8.048 Y72.015
X-8. Y71.873
X-7.957 Y71.729
X-7.919 Y71.584
X-7.887 Y71.437
X-7.86 Y71.29
X-7.839 Y71.141
X-7.823 Y70.992
X-7.813 Y70.843
X-7.808 Y70.693
X-7.809 Y70.543
X-7.816 Y70.393
X-7.828 Y70.243
X-7.846 Y70.094
X-7.871 Y69.946
X-7.901 Y69.8
X-7.938 Y69.654
X-7.982 Y69.511
X-8.032 Y69.369
X-8.09 Y69.231
X-8.157 Y69.097
X-8.229 Y68.965
X-8.308 Y68.838
X-8.593 Y68.497
X-8.928 Y68.207
X-9.305 Y67.972
X-9.715 Y67.801
X-10.146 Y67.696
X-10.589 Y67.661
X-10.748
G2 X-11.349 Y68.418 I0.022 J0.635
G1 X-10.4 Y73.264
X-10.397 Y73.279
G2 X-9.877 Y73.783 I0.623 J-0.122
G1 X-9.723 Y73.803
X-9.573 Y73.815
X-9.427 Y73.782
X-9.287 Y73.729
X-9.153 Y73.662
X-9.025 Y73.583
X-8.903 Y73.495
X-8.788 Y73.4
X-8.678 Y73.297
X-8.575 Y73.188
X-8.477 Y73.075
X-8.385 Y72.956
X-8.298 Y72.834
X-8.217 Y72.708
X-8.142 Y72.578
X-8.072 Y72.445
X-8.008 Y72.31
X-7.948 Y72.172
X-7.895 Y72.032
X-7.846 Y71.89
X-7.803 Y71.746
X-7.766 Y71.601
X-7.733 Y71.454
X-7.706 Y71.307
X-7.685 Y71.158
X-7.669 Y71.009
X-7.658 Y70.86
X-7.653 Y70.71
X-7.654 Y70.56
X-7.66 Y70.41
X-7.672 Y70.26
X-7.689 Y70.111
X-7.713 Y69.963
X-7.743 Y69.816
X-7.779 Y69.671
X-7.822 Y69.527
X-7.872 Y69.386
X-7.928 Y69.246
X-7.991 Y69.111
X-8.225 Y68.754
X-8.511 Y68.436
X-8.841 Y68.166
X-9.209 Y67.949
X-9.605 Y67.79
X-10.021 Y67.693
X-10.447 Y67.661
X-10.589
G2 X-11.19 Y68.417 I0.022 J0.635
G1 X-10.246 Y73.284
X-10.243 Y73.297
G2 X-9.723 Y73.803 I0.623 J-0.121
G1 X-9.577 Y73.822
X-9.427 Y73.834
X-9.281 Y73.802
X-9.14 Y73.75
X-9.006 Y73.683
X-8.878 Y73.605
X-8.756 Y73.517
X-8.64 Y73.422
X-8.531 Y73.32
X-8.427 Y73.211
X-8.329 Y73.098
X-8.236 Y72.98
X-8.15 Y72.857
X-8.068 Y72.731
X-7.993 Y72.602
X-7.922 Y72.469
X-7.858 Y72.334
X-7.798 Y72.196
X-7.744 Y72.056
X-7.695 Y71.914
X-7.652 Y71.771
X-7.614 Y71.626
X-7.581 Y71.479
X-7.553 Y71.332
X-7.531 Y71.184
X-7.515 Y71.035
X-7.503 Y70.885
X-7.498 Y70.735
Y70.585
X-7.503 Y70.435
X-7.514 Y70.286
X-7.531 Y70.137
X-7.554 Y69.988
X-7.583 Y69.841
X-7.617 Y69.695
X-7.659 Y69.551
X-7.708 Y69.409
X-7.766 Y69.271
X-7.829 Y69.135
X-7.9 Y69.003
X-8.14 Y68.67
X-8.425 Y68.376
X-8.75 Y68.126
X-9.108 Y67.926
X-9.491 Y67.78
X-9.891 Y67.691
X-10.3 Y67.661
X-10.447
G2 X-11.048 Y68.417 I0.022 J0.635
G1 X-10.1 Y73.303
X-10.097 Y73.316
G2 X-9.577 Y73.822 I0.623 J-0.121
G1 X-9.431 Y73.841
X-9.282 Y73.852
X-9.135 Y73.822
X-8.994 Y73.77
X-8.86 Y73.704
X-8.731 Y73.627
X-8.609 Y73.539
X-8.493 Y73.444
X-8.383 Y73.342
X-8.279 Y73.234
X-8.181 Y73.121
X-8.088 Y73.003
X-8.001 Y72.881
X-7.919 Y72.755
X-7.843 Y72.626
X-7.773 Y72.493
X-7.708 Y72.358
X-7.648 Y72.221
X-7.593 Y72.081
X-7.544 Y71.939
X-7.5 Y71.796
X-7.462 Y71.651
X-7.428 Y71.505
X-7.4 Y71.357
X-7.378 Y71.209
X-7.36 Y71.06
X-7.349 Y70.911
X-7.342 Y70.761
X-7.341 Y70.611
X-7.346 Y70.461
X-7.356 Y70.311
X-7.372 Y70.162
X-7.394 Y70.014
X-7.422 Y69.866
X-7.456 Y69.72
X-7.497 Y69.576
X-7.545 Y69.434
X-7.6 Y69.294
X-7.664 Y69.158
X-7.733 Y69.025
X-7.81 Y68.897
X-8.095 Y68.54
X-8.434 Y68.235
X-8.818 Y67.989
X-9.237 Y67.808
X-9.68 Y67.698
X-10.134 Y67.661
X-10.3
G2 X-10.902 Y68.416 I0.022 J0.635
G1 X-9.954 Y73.322
X-9.952 Y73.335
G2 X-9.431 Y73.841 I0.623 J-0.12
G1 X-9.277 Y73.861
X-9.127 Y73.872
X-8.981 Y73.841
X-8.84 Y73.789
X-8.706 Y73.722
X-8.578 Y73.644
X-8.456 Y73.557
X-8.34 Y73.462
X-8.23 Y73.359
X-8.126 Y73.251
X-8.027 Y73.138
X-7.935 Y73.02
X-7.848 Y72.898
X-7.766 Y72.772
X-7.69 Y72.643
X-7.619 Y72.511
X-7.554 Y72.376
X-7.494 Y72.238
X-7.439 Y72.098
X-7.39 Y71.957
X-7.346 Y71.813
X-7.307 Y71.669
X-7.274 Y71.522
X-7.246 Y71.375
X-7.223 Y71.227
X-7.205 Y71.078
X-7.193 Y70.928
X-7.186 Y70.778
X-7.185 Y70.628
X-7.189 Y70.478
X-7.199 Y70.329
X-7.214 Y70.18
X-7.236 Y70.031
X-7.263 Y69.884
X-7.297 Y69.738
X-7.338 Y69.593
X-7.385 Y69.451
X-7.438 Y69.311
X-7.499 Y69.174
X-7.734 Y68.802
X-8.023 Y68.471
X-8.359 Y68.189
X-8.735 Y67.962
X-9.141 Y67.796
X-9.569 Y67.695
X-10.007 Y67.661
X-10.134
G2 X-10.736 Y68.414 I0.022 J0.635
G1 X-9.8 Y73.342
X-9.798 Y73.353
G2 X-9.277 Y73.861 I0.624 J-0.119
G1 X-9.131 Y73.879
X-8.982 Y73.891
X-8.835 Y73.861
X-8.694 Y73.809
X-8.559 Y73.743
X-8.431 Y73.666
X-8.308 Y73.579
X-8.192 Y73.484
X-8.082 Y73.382
X-7.978 Y73.275
X-7.879 Y73.162
X-7.786 Y73.044
X-7.699 Y72.922
X-7.617 Y72.796
X-7.54 Y72.667
X-7.469 Y72.535
X-7.404 Y72.4
X-7.343 Y72.263
X-7.288 Y72.123
X-7.239 Y71.982
X-7.194 Y71.839
X-7.155 Y71.694
X-7.121 Y71.548
X-7.092 Y71.401
X-7.069 Y71.252
X-7.05 Y71.104
X-7.037 Y70.954
X-7.03 Y70.804
X-7.028 Y70.654
X-7.032 Y70.504
X-7.041 Y70.355
X-7.056 Y70.205
X-7.076 Y70.057
X-7.103 Y69.909
X-7.136 Y69.763
X-7.175 Y69.618
X-7.222 Y69.475
X-7.277 Y69.336
X-7.338 Y69.199
X-7.406 Y69.066
X-7.648 Y68.718
X-7.938 Y68.41
X-8.271 Y68.149
X-8.638 Y67.939
X-9.033 Y67.786
X-9.445 Y67.692
X-9.867 Y67.661
X-10.007
G2 X-10.608 Y68.416 I0.022 J0.635
G1 X-9.654 Y73.361
X-9.651 Y73.373
G2 X-9.131 Y73.879 I0.623 J-0.12
G1 X-8.955 Y73.902
X-8.805 Y73.914
X-8.66 Y73.877
X-8.52 Y73.822
X-8.387 Y73.753
X-8.26 Y73.673
X-8.139 Y73.585
X-8.023 Y73.489
X-7.914 Y73.386
X-7.811 Y73.278
X-7.713 Y73.164
X-7.62 Y73.046
X-7.534 Y72.923
X-7.453 Y72.797
X-7.377 Y72.668
X-7.306 Y72.535
X-7.241 Y72.4
X-7.182 Y72.262
X-7.127 Y72.123
X-7.078 Y71.981
X-7.034 Y71.838
X-6.995 Y71.693
X-6.962 Y71.546
X-6.933 Y71.399
X-6.91 Y71.251
X-6.893 Y71.102
X-6.88 Y70.952
X-6.873 Y70.803
X-6.871 Y70.653
X-6.875 Y70.503
X-6.884 Y70.353
X-6.9 Y70.204
X-6.921 Y70.055
X-6.948 Y69.908
X-6.982 Y69.762
X-7.022 Y69.617
X-7.068 Y69.474
X-7.123 Y69.335
X-7.186 Y69.199
X-7.254 Y69.065
X-7.495 Y68.718
X-7.784 Y68.41
X-8.116 Y68.148
X-8.482 Y67.939
X-8.876 Y67.786
X-9.288 Y67.692
X-9.709 Y67.661
X-9.867
G2 X-10.468 Y68.42 I0.022 J0.635
G1 X-9.477 Y73.384
X-9.474 Y73.4
G2 X-8.955 Y73.902 I0.623 J-0.124
G1 X-8.8 Y73.922
X-8.65 Y73.934
X-8.505 Y73.896
X-8.366 Y73.841
X-8.232 Y73.772
X-8.105 Y73.692
X-7.984 Y73.603
X-7.869 Y73.507
X-7.76 Y73.404
X-7.657 Y73.296
X-7.559 Y73.182
X-7.467 Y73.064
X-7.38 Y72.941
X-7.299 Y72.815
X-7.223 Y72.686
X-7.153 Y72.553
X-7.087 Y72.418
X-7.028 Y72.281
X-6.973 Y72.141
X-6.924 Y71.999
X-6.879 Y71.856
X-6.84 Y71.711
X-6.807 Y71.565
X-6.778 Y71.418
X-6.755 Y71.269
X-6.736 Y71.121
X-6.724 Y70.971
X-6.716 Y70.821
X-6.714 Y70.671
X-6.718 Y70.521
X-6.727 Y70.372
X-6.742 Y70.222
X-6.762 Y70.074
X-6.789 Y69.926
X-6.822 Y69.78
X-6.862 Y69.635
X-6.908 Y69.493
X-6.962 Y69.353
X-7.024 Y69.216
X-7.091 Y69.082
X-7.166 Y68.952
X-7.41 Y68.631
X-7.697 Y68.347
X-8.021 Y68.107
X-8.376 Y67.915
X-8.754 Y67.775
X-9.149 Y67.69
X-9.551 Y67.661
X-9.709
G2 X-10.31 Y68.419 I0.022 J0.635
G1 X-9.322 Y73.404
X-9.319 Y73.419
G2 X-8.8 Y73.922 I0.623 J-0.123
G1 X-8.667 Y73.939
X-8.518 Y73.951
X-8.371 Y73.919
X-8.231 Y73.866
X-8.097 Y73.799
X-7.969 Y73.721
X-7.847 Y73.634
X-7.731 Y73.538
X-7.621 Y73.436
X-7.517 Y73.328
X-7.418 Y73.215
X-7.325 Y73.098
X-7.238 Y72.976
X-7.156 Y72.85
X-7.079 Y72.721
X-7.008 Y72.589
X-6.942 Y72.454
X-6.881 Y72.317
X-6.826 Y72.178
X-6.775 Y72.037
X-6.73 Y71.894
X-6.69 Y71.749
X-6.656 Y71.603
X-6.626 Y71.456
X-6.602 Y71.308
X-6.583 Y71.159
X-6.569 Y71.01
X-6.56 Y70.86
X-6.557 Y70.71
X-6.56 Y70.56
X-6.568 Y70.41
X-6.581 Y70.261
X-6.601 Y70.112
X-6.626 Y69.964
X-6.658 Y69.818
X-6.696 Y69.673
X-6.741 Y69.53
X-6.792 Y69.389
X-6.85 Y69.25
X-6.917 Y69.116
X-6.99 Y68.985
X-7.069 Y68.857
X-7.357 Y68.512
X-7.696 Y68.216
X-8.078 Y67.978
X-8.492 Y67.803
X-8.929 Y67.697
X-9.378 Y67.661
X-9.551
G2 X-10.153 Y68.416 I0.022 J0.635
G1 X-9.19 Y73.421
X-9.187 Y73.433
G2 X-8.667 Y73.939 I0.624 J-0.12
G1 X-8.501 Y73.961
X-8.352 Y73.973
X-8.206 Y73.936
X-8.066 Y73.881
X-7.933 Y73.813
X-7.805 Y73.734
X-7.684 Y73.645
X-7.569 Y73.55
X-7.459 Y73.447
X-7.356 Y73.339
X-7.257 Y73.225
X-7.165 Y73.107
X-7.078 Y72.985
X-6.996 Y72.859
X-6.92 Y72.73
X-6.849 Y72.598
X-6.783 Y72.463
X-6.723 Y72.326
X-6.667 Y72.187
X-6.617 Y72.045
X-6.572 Y71.902
X-6.533 Y71.757
X-6.498 Y71.611
X-6.468 Y71.464
X-6.444 Y71.316
X-6.425 Y71.168
X-6.411 Y71.018
X-6.403 Y70.868
X-6.4 Y70.718
X-6.402 Y70.569
X-6.41 Y70.419
X-6.424 Y70.269
X-6.444 Y70.121
X-6.469 Y69.973
X-6.5 Y69.826
X-6.538 Y69.681
X-6.582 Y69.538
X-6.633 Y69.396
X-6.69 Y69.258
X-6.755 Y69.122
X-6.993 Y68.762
X-7.283 Y68.442
X-7.617 Y68.17
X-7.99 Y67.951
X-8.391 Y67.791
X-8.811 Y67.694
X-9.242 Y67.661
X-9.378
G2 X-9.979 Y68.414 I0.022 J0.635
G1 X-9.024 Y73.442
X-9.022 Y73.453
G2 X-8.501 Y73.961 I0.624 J-0.119
G1 X-8.354 Y73.98
X-8.204 Y73.992
X-8.058 Y73.957
X-7.919 Y73.903
X-7.785 Y73.835
X-7.657 Y73.756
X-7.536 Y73.668
X-7.42 Y73.572
X-7.31 Y73.47
X-7.206 Y73.362
X-7.108 Y73.249
X-7.015 Y73.131
X-6.928 Y73.009
X-6.846 Y72.884
X-6.769 Y72.755
X-6.698 Y72.623
X-6.631 Y72.488
X-6.571 Y72.351
X-6.515 Y72.212
X-6.464 Y72.07
X-6.419 Y71.927
X-6.379 Y71.783
X-6.344 Y71.637
X-6.314 Y71.49
X-6.289 Y71.342
X-6.27 Y71.193
X-6.255 Y71.044
X-6.246 Y70.894
X-6.243 Y70.744
X-6.245 Y70.594
X-6.252 Y70.445
X-6.265 Y70.295
X-6.284 Y70.146
X-6.308 Y69.998
X-6.338 Y69.851
X-6.374 Y69.706
X-6.417 Y69.562
X-6.467 Y69.421
X-6.526 Y69.283
X-6.59 Y69.147
X-6.662 Y69.015
X-6.905 Y68.679
X-7.195 Y68.382
X-7.525 Y68.13
X-7.888 Y67.928
X-8.276 Y67.781
X-8.681 Y67.691
X-9.095 Y67.661
X-9.242
G2 X-9.843 Y68.415 I0.022 J0.635
G1 X-8.876 Y73.461
X-8.874 Y73.473
G2 X-8.354 Y73.98 I0.624 J-0.12
G1 X-8.215 Y73.998
X-8.065 Y74.01
X-7.918 Y73.978
X-7.778 Y73.926
X-7.643 Y73.859
X-7.515 Y73.782
X-7.393 Y73.695
X-7.277 Y73.6
X-7.166 Y73.498
X-7.062 Y73.391
X-6.963 Y73.278
X-6.869 Y73.161
X-6.781 Y73.039
X-6.699 Y72.914
X-6.621 Y72.785
X-6.55 Y72.654
X-6.483 Y72.519
X-6.421 Y72.382
X-6.365 Y72.243
X-6.314 Y72.102
X-6.268 Y71.96
X-6.227 Y71.815
X-6.191 Y71.67
X-6.161 Y71.523
X-6.135 Y71.375
X-6.115 Y71.226
X-6.1 Y71.077
X-6.09 Y70.927
X-6.086 Y70.778
Y70.628
X-6.093 Y70.478
X-6.105 Y70.328
X-6.122 Y70.179
X-6.145 Y70.031
X-6.174 Y69.884
X-6.21 Y69.738
X-6.252 Y69.594
X-6.3 Y69.452
X-6.356 Y69.313
X-6.42 Y69.177
X-6.49 Y69.044
X-6.567 Y68.916
X-6.857 Y68.554
X-7.202 Y68.244
X-7.592 Y67.994
X-8.018 Y67.811
X-8.468 Y67.699
X-8.93 Y67.661
X-9.095
G2 X-9.697 Y68.414 I0.022 J0.635
G1 X-8.737 Y73.479
X-8.735 Y73.489
G2 X-8.215 Y73.998 I0.624 J-0.118
G1 X-8.063 Y74.017
X-7.914 Y74.029
X-7.767 Y73.998
X-7.627 Y73.945
X-7.492 Y73.879
X-7.364 Y73.802
X-7.241 Y73.715
X-7.125 Y73.62
X-7.015 Y73.518
X-6.91 Y73.411
X-6.811 Y73.299
X-6.717 Y73.181
X-6.629 Y73.06
X-6.546 Y72.935
X-6.469 Y72.807
X-6.396 Y72.675
X-6.329 Y72.541
X-6.268 Y72.404
X-6.211 Y72.265
X-6.16 Y72.124
X-6.113 Y71.982
X-6.072 Y71.837
X-6.036 Y71.692
X-6.005 Y71.545
X-5.979 Y71.397
X-5.959 Y71.249
X-5.943 Y71.1
X-5.933 Y70.95
X-5.928 Y70.8
Y70.65
X-5.934 Y70.5
X-5.945 Y70.351
X-5.962 Y70.201
X-5.985 Y70.053
X-6.013 Y69.906
X-6.048 Y69.76
X-6.089 Y69.616
X-6.136 Y69.473
X-6.191 Y69.334
X-6.252 Y69.196
X-6.491 Y68.819
X-6.784 Y68.483
X-7.126 Y68.197
X-7.508 Y67.967
X-7.921 Y67.798
X-8.355 Y67.696
X-8.8 Y67.661
X-8.93
G2 X-9.532 Y68.412 I0.022 J0.635
G1 X-8.586 Y73.499
X-8.584 Y73.507
G2 X-8.063 Y74.017 I0.624 J-0.116
G1 X-7.908 Y74.037
X-7.758 Y74.049
X-7.612 Y74.017
X-7.472 Y73.964
X-7.337 Y73.897
X-7.209 Y73.82
X-7.087 Y73.733
X-6.97 Y73.638
X-6.86 Y73.536
X-6.755 Y73.429
X-6.656 Y73.317
X-6.562 Y73.199
X-6.474 Y73.078
X-6.391 Y72.953
X-6.314 Y72.825
X-6.241 Y72.693
X-6.174 Y72.559
X-6.112 Y72.422
X-6.056 Y72.284
X-6.004 Y72.143
X-5.958 Y72.
X-5.916 Y71.856
X-5.88 Y71.71
X-5.849 Y71.564
X-5.823 Y71.416
X-5.802 Y71.267
X-5.786 Y71.118
X-5.775 Y70.969
X-5.77 Y70.819
Y70.669
X-5.775 Y70.519
X-5.786 Y70.369
X-5.802 Y70.22
X-5.824 Y70.072
X-5.852 Y69.924
X-5.886 Y69.778
X-5.926 Y69.634
X-5.974 Y69.492
X-6.031 Y69.353
X-6.092 Y69.216
X-6.161 Y69.083
X-6.407 Y68.731
X-6.702 Y68.419
X-7.04 Y68.154
X-7.413 Y67.942
X-7.813 Y67.787
X-8.232 Y67.693
X-8.659 Y67.661
X-8.8
G2 X-9.401 Y68.414 I0.022 J0.635
G1 X-8.431 Y73.519
X-8.428 Y73.53
G2 X-7.908 Y74.037 I0.624 J-0.119
G1 X-7.723 Y74.061
X-7.573 Y74.073
X-7.429 Y74.032
X-7.29 Y73.975
X-7.157 Y73.905
X-7.031 Y73.824
X-6.91 Y73.736
X-6.795 Y73.639
X-6.686 Y73.537
X-6.582 Y73.428
X-6.484 Y73.315
X-6.391 Y73.197
X-6.304 Y73.075
X-6.222 Y72.949
X-6.145 Y72.82
X-6.074 Y72.688
X-6.008 Y72.554
X-5.947 Y72.417
X-5.891 Y72.278
X-5.84 Y72.136
X-5.794 Y71.994
X-5.754 Y71.849
X-5.718 Y71.703
X-5.687 Y71.557
X-5.662 Y71.409
X-5.641 Y71.26
X-5.626 Y71.111
X-5.616 Y70.961
X-5.611 Y70.811
Y70.661
X-5.617 Y70.512
X-5.629 Y70.362
X-5.646 Y70.213
X-5.668 Y70.065
X-5.697 Y69.917
X-5.732 Y69.772
X-5.774 Y69.627
X-5.822 Y69.485
X-5.878 Y69.346
X-5.941 Y69.21
X-6.01 Y69.077
X-6.255 Y68.727
X-6.549 Y68.416
X-6.886 Y68.152
X-7.258 Y67.941
X-7.656 Y67.787
X-8.073 Y67.693
X-8.5 Y67.661
X-8.659
G2 X-9.26 Y68.419 I0.022 J0.635
G1 X-8.245 Y73.543
X-8.242 Y73.558
G2 X-7.723 Y74.061 I0.623 J-0.123
G1 X-7.571 Y74.081
X-7.421 Y74.093
X-7.276 Y74.053
X-7.138 Y73.996
X-7.005 Y73.926
X-6.878 Y73.846
X-6.757 Y73.757
X-6.642 Y73.661
X-6.533 Y73.558
X-6.429 Y73.45
X-6.331 Y73.336
X-6.238 Y73.218
X-6.151 Y73.097
X-6.069 Y72.971
X-5.992 Y72.842
X-5.92 Y72.71
X-5.854 Y72.576
X-5.793 Y72.439
X-5.736 Y72.3
X-5.685 Y72.159
X-5.639 Y72.016
X-5.598 Y71.872
X-5.562 Y71.726
X-5.531 Y71.579
X-5.505 Y71.432
X-5.484 Y71.283
X-5.469 Y71.134
X-5.458 Y70.984
X-5.453 Y70.834
Y70.684
X-5.458 Y70.535
X-5.469 Y70.385
X-5.485 Y70.236
X-5.508 Y70.088
X-5.536 Y69.94
X-5.57 Y69.794
X-5.611 Y69.65
X-5.658 Y69.507
X-5.713 Y69.368
X-5.776 Y69.231
X-5.844 Y69.098
X-5.919 Y68.968
X-6.167 Y68.643
X-6.459 Y68.355
X-6.788 Y68.112
X-7.149 Y67.918
X-7.533 Y67.776
X-7.933 Y67.69
X-8.341 Y67.661
X-8.5
G2 X-9.101 Y68.418 I0.022 J0.635
G1 X-8.093 Y73.562
X-8.09 Y73.577
G2 X-7.571 Y74.081 I0.623 J-0.122
G1 X-7.425 Y74.1
X-7.275 Y74.112
X-7.13 Y74.074
X-6.991 Y74.018
X-6.858 Y73.949
X-6.731 Y73.87
X-6.609 Y73.781
X-6.494 Y73.685
X-6.384 Y73.583
X-6.28 Y73.475
X-6.182 Y73.362
X-6.088 Y73.245
X-6.001 Y73.123
X-5.918 Y72.998
X-5.841 Y72.869
X-5.769 Y72.737
X-5.702 Y72.603
X-5.64 Y72.466
X-5.584 Y72.328
X-5.532 Y72.187
X-5.485 Y72.044
X-5.444 Y71.9
X-5.407 Y71.755
X-5.376 Y71.608
X-5.349 Y71.46
X-5.328 Y71.312
X-5.311 Y71.163
X-5.3 Y71.013
X-5.294 Y70.863
Y70.713
X-5.298 Y70.563
X-5.309 Y70.414
X-5.324 Y70.264
X-5.346 Y70.116
X-5.373 Y69.969
X-5.406 Y69.822
X-5.446 Y69.678
X-5.492 Y69.535
X-5.545 Y69.394
X-5.605 Y69.257
X-5.672 Y69.123
X-5.746 Y68.992
X-5.826 Y68.865
X-6.119 Y68.517
X-6.463 Y68.219
X-6.849 Y67.98
X-7.269 Y67.804
X-7.711 Y67.697
X-8.164 Y67.661
X-8.341
G2 X-8.943 Y68.416 I0.022 J0.635
G1 X-7.948 Y73.581
X-7.945 Y73.593
G2 X-7.425 Y74.1 I0.624 J-0.12
G1 X-7.27 Y74.12
X-7.121 Y74.132
X-6.976 Y74.093
X-6.837 Y74.038
X-6.703 Y73.969
X-6.576 Y73.889
X-6.455 Y73.801
X-6.34 Y73.705
X-6.23 Y73.603
X-6.126 Y73.495
X-6.027 Y73.382
X-5.934 Y73.264
X-5.846 Y73.143
X-5.763 Y73.018
X-5.686 Y72.889
X-5.614 Y72.757
X-5.547 Y72.623
X-5.485 Y72.487
X-5.428 Y72.348
X-5.376 Y72.207
X-5.329 Y72.065
X-5.287 Y71.921
X-5.251 Y71.775
X-5.219 Y71.629
X-5.192 Y71.481
X-5.17 Y71.333
X-5.154 Y71.184
X-5.142 Y71.034
X-5.136 Y70.884
X-5.135 Y70.734
X-5.139 Y70.584
X-5.149 Y70.434
X-5.164 Y70.285
X-5.185 Y70.137
X-5.212 Y69.989
X-5.244 Y69.843
X-5.283 Y69.698
X-5.328 Y69.555
X-5.379 Y69.414
X-5.437 Y69.275
X-5.502 Y69.14
X-5.745 Y68.776
X-6.04 Y68.452
X-6.38 Y68.176
X-6.758 Y67.954
X-7.165 Y67.793
X-7.592 Y67.694
X-8.028 Y67.661
X-8.164
G2 X-8.766 Y68.413 I0.022 J0.635
G1 X-7.793 Y73.601
X-7.791 Y73.61
G2 X-7.27 Y74.12 I0.624 J-0.117
G1 X-7.125 Y74.139
X-6.975 Y74.15
X-6.829 Y74.115
X-6.69 Y74.06
X-6.556 Y73.992
X-6.429 Y73.913
X-6.307 Y73.825
X-6.191 Y73.73
X-6.081 Y73.628
X-5.977 Y73.52
X-5.877 Y73.408
X-5.784 Y73.29
X-5.696 Y73.169
X-5.613 Y73.044
X-5.535 Y72.916
X-5.462 Y72.785
X-5.395 Y72.651
X-5.332 Y72.514
X-5.275 Y72.376
X-5.223 Y72.235
X-5.175 Y72.093
X-5.133 Y71.949
X-5.096 Y71.803
X-5.063 Y71.657
X-5.036 Y71.51
X-5.014 Y71.361
X-4.996 Y71.212
X-4.984 Y71.063
X-4.977 Y70.913
X-4.976 Y70.763
X-4.979 Y70.613
X-4.988 Y70.463
X-5.003 Y70.314
X-5.023 Y70.165
X-5.048 Y70.017
X-5.08 Y69.871
X-5.117 Y69.725
X-5.16 Y69.582
X-5.211 Y69.441
X-5.271 Y69.303
X-5.335 Y69.168
X-5.407 Y69.036
X-5.655 Y68.695
X-5.95 Y68.393
X-6.285 Y68.137
X-6.654 Y67.932
X-7.048 Y67.783
X-7.46 Y67.692
X-7.881 Y67.661
X-8.028
G2 X-8.63 Y68.413 I0.022 J0.635
G1 X-7.647 Y73.62
X-7.645 Y73.63
G2 X-7.125 Y74.139 I0.624 J-0.118
G1 X-6.987 Y74.156
X-6.837 Y74.168
X-6.691 Y74.136
X-6.55 Y74.084
X-6.416 Y74.017
X-6.287 Y73.94
X-6.165 Y73.853
X-6.048 Y73.759
X-5.937 Y73.658
X-5.832 Y73.551
X-5.733 Y73.439
X-5.638 Y73.322
X-5.549 Y73.201
X-5.466 Y73.077
X-5.387 Y72.949
X-5.314 Y72.818
X-5.246 Y72.684
X-5.183 Y72.548
X-5.125 Y72.41
X-5.072 Y72.27
X-5.023 Y72.127
X-4.98 Y71.984
X-4.942 Y71.839
X-4.909 Y71.692
X-4.881 Y71.545
X-4.858 Y71.397
X-4.84 Y71.248
X-4.827 Y71.098
X-4.819 Y70.949
X-4.817 Y70.799
X-4.819 Y70.649
X-4.827 Y70.499
X-4.84 Y70.35
X-4.859 Y70.201
X-4.883 Y70.053
X-4.913 Y69.906
X-4.95 Y69.76
X-4.993 Y69.616
X-5.042 Y69.475
X-5.098 Y69.336
X-5.162 Y69.2
X-5.232 Y69.067
X-5.309 Y68.939
X-5.605 Y68.57
X-5.956 Y68.255
X-6.354 Y68.
X-6.787 Y67.813
X-7.245 Y67.699
X-7.716 Y67.661
X-7.881
G2 X-8.483 Y68.412 I0.022 J0.635
G1 X-7.509 Y73.638
X-7.508 Y73.646
G2 X-6.987 Y74.156 I0.624 J-0.116
G1 X-6.839 Y74.176
X-6.689 Y74.187
X-6.542 Y74.156
X-6.402 Y74.105
X-6.267 Y74.039
X-6.138 Y73.962
X-6.015 Y73.876
X-5.899 Y73.782
X-5.787 Y73.681
X-5.682 Y73.574
X-5.582 Y73.463
X-5.487 Y73.346
X-5.398 Y73.226
X-5.314 Y73.102
X-5.235 Y72.974
X-5.161 Y72.843
X-5.093 Y72.71
X-5.029 Y72.574
X-4.971 Y72.436
X-4.917 Y72.296
X-4.869 Y72.154
X-4.825 Y72.01
X-4.787 Y71.865
X-4.753 Y71.719
X-4.725 Y71.572
X-4.701 Y71.424
X-4.682 Y71.275
X-4.669 Y71.125
X-4.66 Y70.976
X-4.657 Y70.826
X-4.659 Y70.676
X-4.666 Y70.526
X-4.679 Y70.376
X-4.697 Y70.228
X-4.72 Y70.079
X-4.75 Y69.932
X-4.785 Y69.787
X-4.827 Y69.642
X-4.875 Y69.5
X-4.929 Y69.361
X-4.991 Y69.224
X-5.061 Y69.091
X-5.136 Y68.961
X-5.217 Y68.835
X-5.513 Y68.495
X-5.857 Y68.205
X-6.242 Y67.971
X-6.659 Y67.8
X-7.097 Y67.696
X-7.546 Y67.661
X-7.716
G2 X-8.319 Y68.41 I0.022 J0.635
G1 X-7.361 Y73.657
X-7.36 Y73.663
G2 X-6.839 Y74.176 I0.625 J-0.114
G1 X-6.679 Y74.196
X-6.529 Y74.208
X-6.383 Y74.175
X-6.242 Y74.122
X-6.108 Y74.056
X-5.979 Y73.979
X-5.857 Y73.892
X-5.74 Y73.798
X-5.629 Y73.697
X-5.524 Y73.59
X-5.424 Y73.479
X-5.329 Y73.362
X-5.24 Y73.242
X-5.156 Y73.117
X-5.077 Y72.99
X-5.003 Y72.859
X-4.935 Y72.726
X-4.871 Y72.59
X-4.813 Y72.452
X-4.759 Y72.312
X-4.711 Y72.17
X-4.667 Y72.026
X-4.628 Y71.881
X-4.595 Y71.735
X-4.566 Y71.588
X-4.542 Y71.44
X-4.523 Y71.291
X-4.509 Y71.141
X-4.501 Y70.992
X-4.497 Y70.842
X-4.499 Y70.692
X-4.506 Y70.542
X-4.518 Y70.392
X-4.536 Y70.244
X-4.559 Y70.095
X-4.588 Y69.948
X-4.623 Y69.802
X-4.663 Y69.658
X-4.711 Y69.516
X-4.764 Y69.375
X-4.824 Y69.238
X-4.891 Y69.104
X-5.135 Y68.747
X-5.43 Y68.431
X-5.768 Y68.162
X-6.143 Y67.947
X-6.545 Y67.789
X-6.967 Y67.693
X-7.398 Y67.661
X-7.546
G2 X-8.149 Y68.408 I0.022 J0.635
G1 X-7.201 Y73.677
X-7.2 Y73.682
G2 X-6.679 Y74.196 I0.625 J-0.112
G1 X-6.533 Y74.215
X-6.384 Y74.227
X-6.237 Y74.196
X-6.096 Y74.145
X-5.961 Y74.079
X-5.832 Y74.003
X-5.709 Y73.917
X-5.592 Y73.823
X-5.48 Y73.723
X-5.375 Y73.616
X-5.274 Y73.505
X-5.179 Y73.389
X-5.089 Y73.269
X-5.005 Y73.145
X-4.926 Y73.017
X-4.852 Y72.887
X-4.783 Y72.754
X-4.719 Y72.618
X-4.66 Y72.48
X-4.606 Y72.34
X-4.557 Y72.198
X-4.512 Y72.055
X-4.473 Y71.91
X-4.439 Y71.764
X-4.409 Y71.617
X-4.385 Y71.469
X-4.366 Y71.32
X-4.351 Y71.171
X-4.342 Y71.021
X-4.337 Y70.871
X-4.338 Y70.721
X-4.344 Y70.572
X-4.356 Y70.422
X-4.373 Y70.273
X-4.395 Y70.125
X-4.423 Y69.977
X-4.456 Y69.831
X-4.496 Y69.686
X-4.541 Y69.543
X-4.594 Y69.403
X-4.655 Y69.266
X-4.722 Y69.132
X-4.795 Y69.001
X-5.044 Y68.668
X-5.338 Y68.373
X-5.67 Y68.124
X-6.035 Y67.925
X-6.424 Y67.779
X-6.831 Y67.691
X-7.245 Y67.661
X-7.398
G2 X-8.001 Y68.407 I0.022 J0.635
G1 X-7.056 Y73.696
X-7.055 Y73.7
G2 X-6.533 Y74.215 I0.625 J-0.112
G1 X-6.379 Y74.235
X-6.229 Y74.247
X-6.082 Y74.216
X-5.942 Y74.164
X-5.807 Y74.099
X-5.678 Y74.022
X-5.555 Y73.936
X-5.437 Y73.843
X-5.326 Y73.742
X-5.22 Y73.636
X-5.119 Y73.525
X-5.024 Y73.409
X-4.934 Y73.289
X-4.85 Y73.165
X-4.77 Y73.038
X-4.696 Y72.908
X-4.627 Y72.774
X-4.563 Y72.639
X-4.503 Y72.501
X-4.449 Y72.361
X-4.4 Y72.22
X-4.355 Y72.076
X-4.316 Y71.932
X-4.281 Y71.786
X-4.251 Y71.639
X-4.227 Y71.491
X-4.207 Y71.342
X-4.192 Y71.193
X-4.182 Y71.043
X-4.177 Y70.893
X-4.178 Y70.743
X-4.183 Y70.593
X-4.194 Y70.444
X-4.21 Y70.294
X-4.232 Y70.146
X-4.259 Y69.999
X-4.292 Y69.852
X-4.331 Y69.707
X-4.376 Y69.564
X-4.428 Y69.424
X-4.487 Y69.286
X-4.554 Y69.151
X-4.626 Y69.02
X-4.705 Y68.893
X-5. Y68.537
X-5.347 Y68.232
X-5.738 Y67.987
X-6.163 Y67.808
X-6.612 Y67.698
X-7.072 Y67.661
X-7.245
G2 X-7.848 Y68.407 I0.022 J0.635
G1 X-6.901 Y73.716
Y73.72
G2 X-6.379 Y74.235 I0.625 J-0.111
G1 X-6.233 Y74.254
X-6.083 Y74.266
X-5.936 Y74.237
X-5.795 Y74.186
X-5.659 Y74.122
X-5.53 Y74.046
X-5.407 Y73.961
X-5.289 Y73.868
X-5.177 Y73.768
X-5.07 Y73.662
X-4.97 Y73.551
X-4.874 Y73.436
X-4.784 Y73.316
X-4.699 Y73.192
X-4.619 Y73.065
X-4.544 Y72.935
X-4.474 Y72.802
X-4.41 Y72.667
X-4.35 Y72.53
X-4.295 Y72.39
X-4.245 Y72.248
X-4.2 Y72.105
X-4.16 Y71.961
X-4.125 Y71.815
X-4.095 Y71.668
X-4.069 Y71.52
X-4.049 Y71.372
X-4.033 Y71.222
X-4.023 Y71.073
X-4.017 Y70.923
Y70.773
X-4.022 Y70.623
X-4.032 Y70.473
X-4.047 Y70.324
X-4.068 Y70.176
X-4.094 Y70.028
X-4.126 Y69.881
X-4.164 Y69.736
X-4.208 Y69.593
X-4.258 Y69.452
X-4.315 Y69.313
X-4.379 Y69.177
X-4.623 Y68.804
X-4.92 Y68.472
X-5.265 Y68.189
X-5.649 Y67.962
X-6.063 Y67.796
X-6.497 Y67.695
X-6.941 Y67.661
X-7.072
G2 X-7.676 Y68.404 I0.022 J0.635
G1 X-6.755 Y73.735
G2 X-6.233 Y74.254 I0.626 J-0.108
G1 X-6.056 Y74.277
X-5.907 Y74.288
X-5.761 Y74.253
X-5.621 Y74.2
X-5.486 Y74.133
X-5.358 Y74.056
X-5.235 Y73.969
X-5.119 Y73.875
X-5.007 Y73.775
X-4.901 Y73.668
X-4.801 Y73.557
X-4.706 Y73.441
X-4.616 Y73.32
X-4.532 Y73.196
X-4.453 Y73.069
X-4.379 Y72.939
X-4.309 Y72.806
X-4.245 Y72.67
X-4.186 Y72.532
X-4.132 Y72.392
X-4.082 Y72.251
X-4.038 Y72.108
X-3.998 Y71.963
X-3.963 Y71.817
X-3.933 Y71.67
X-3.908 Y71.522
X-3.888 Y71.374
X-3.872 Y71.224
X-3.862 Y71.075
X-3.856 Y70.925
Y70.775
X-3.861 Y70.625
X-3.871 Y70.475
X-3.887 Y70.326
X-3.907 Y70.178
X-3.934 Y70.03
X-3.966 Y69.883
X-4.004 Y69.738
X-4.048 Y69.595
X-4.1 Y69.454
X-4.159 Y69.316
X-4.224 Y69.181
X-4.296 Y69.049
X-4.546 Y68.705
X-4.843 Y68.4
X-5.182 Y68.142
X-5.554 Y67.935
X-5.952 Y67.784
X-6.368 Y67.692
X-6.793 Y67.661
X-6.941
G2 X-7.544 Y68.408 I0.022 J0.635
G1 X-6.579 Y73.758
X-6.578 Y73.763
G2 X-6.056 Y74.277 I0.625 J-0.113
G1 X-5.901 Y74.297
X-5.752 Y74.308
X-5.606 Y74.274
X-5.466 Y74.22
X-5.331 Y74.154
X-5.203 Y74.076
X-5.08 Y73.99
X-4.963 Y73.896
X-4.852 Y73.795
X-4.746 Y73.689
X-4.646 Y73.578
X-4.551 Y73.462
X-4.461 Y73.341
X-4.376 Y73.218
X-4.297 Y73.09
X-4.223 Y72.96
X-4.153 Y72.827
X-4.089 Y72.692
X-4.029 Y72.554
X-3.975 Y72.414
X-3.925 Y72.273
X-3.88 Y72.129
X-3.84 Y71.985
X-3.805 Y71.839
X-3.774 Y71.692
X-3.749 Y71.544
X-3.728 Y71.396
X-3.712 Y71.247
X-3.702 Y71.097
X-3.696 Y70.947
X-3.695 Y70.797
X-3.699 Y70.647
X-3.709 Y70.498
X-3.724 Y70.348
X-3.744 Y70.2
X-3.77 Y70.052
X-3.801 Y69.905
X-3.839 Y69.76
X-3.883 Y69.617
X-3.933 Y69.475
X-3.991 Y69.337
X-4.056 Y69.202
X-4.126 Y69.069
X-4.204 Y68.941
X-4.502 Y68.572
X-4.856 Y68.256
X-5.256 Y68.001
X-5.692 Y67.814
X-6.153 Y67.699
X-6.626 Y67.661
X-6.793
G2 X-7.395 Y68.409 I0.022 J0.635
G1 X-6.424 Y73.778
X-6.423 Y73.783
G2 X-5.901 Y74.297 I0.625 J-0.113
G1 X-5.762 Y74.315
X-5.613 Y74.326
X-5.466 Y74.296
X-5.325 Y74.245
X-5.189 Y74.18
X-5.06 Y74.104
X-4.937 Y74.018
X-4.819 Y73.925
X-4.707 Y73.825
X-4.601 Y73.72
X-4.5 Y73.609
X-4.404 Y73.493
X-4.314 Y73.374
X-4.228 Y73.25
X-4.148 Y73.124
X-4.073 Y72.994
X-4.003 Y72.861
X-3.938 Y72.726
X-3.878 Y72.589
X-3.823 Y72.449
X-3.772 Y72.308
X-3.726 Y72.165
X-3.686 Y72.021
X-3.65 Y71.875
X-3.618 Y71.728
X-3.592 Y71.581
X-3.57 Y71.432
X-3.554 Y71.283
X-3.542 Y71.134
X-3.535 Y70.984
X-3.534 Y70.834
X-3.537 Y70.684
X-3.546 Y70.534
X-3.56 Y70.385
X-3.579 Y70.236
X-3.604 Y70.088
X-3.634 Y69.941
X-3.67 Y69.796
X-3.713 Y69.652
X-3.762 Y69.51
X-3.817 Y69.37
X-3.878 Y69.234
X-3.949 Y69.101
X-4.025 Y68.972
X-4.106 Y68.846
X-4.404 Y68.502
X-4.751 Y68.209
X-5.139 Y67.974
X-5.56 Y67.801
X-6.002 Y67.696
X-6.455 Y67.661
X-6.626
G2 X-7.229 Y68.405 I0.022 J0.635
G1 X-6.285 Y73.796
X-6.284 Y73.798
G2 X-5.762 Y74.315 I0.625 J-0.11
G1 X-5.611 Y74.334
X-5.462 Y74.346
X-5.314 Y74.316
X-5.173 Y74.266
X-5.038 Y74.201
X-4.908 Y74.126
X-4.785 Y74.041
X-4.667 Y73.948
X-4.555 Y73.848
X-4.448 Y73.743
X-4.347 Y73.632
X-4.251 Y73.517
X-4.16 Y73.397
X-4.074 Y73.274
X-3.994 Y73.148
X-3.919 Y73.018
X-3.848 Y72.886
X-3.783 Y72.751
X-3.722 Y72.613
X-3.666 Y72.474
X-3.616 Y72.333
X-3.57 Y72.19
X-3.528 Y72.046
X-3.492 Y71.9
X-3.46 Y71.754
X-3.433 Y71.606
X-3.411 Y71.458
X-3.394 Y71.309
X-3.382 Y71.159
X-3.375 Y71.01
X-3.372 Y70.86
X-3.375 Y70.71
X-3.383 Y70.56
X-3.396 Y70.41
X-3.415 Y70.262
X-3.439 Y70.114
X-3.469 Y69.966
X-3.504 Y69.821
X-3.545 Y69.676
X-3.593 Y69.534
X-3.647 Y69.394
X-3.707 Y69.257
X-3.773 Y69.122
X-4.02 Y68.761
X-4.318 Y68.441
X-4.66 Y68.169
X-5.039 Y67.95
X-5.446 Y67.791
X-5.873 Y67.694
X-6.309 Y67.661
X-6.455
G2 X-7.059 Y68.403 I0.022 J0.635
G1 X-6.134 Y73.815
G2 X-5.611 Y74.334 I0.626 J-0.107
G1 X-5.456 Y74.354
X-5.306 Y74.366
X-5.159 Y74.336
X-5.018 Y74.286
X-4.882 Y74.221
X-4.753 Y74.145
X-4.629 Y74.06
X-4.511 Y73.968
X-4.399 Y73.868
X-4.292 Y73.763
X-4.191 Y73.653
X-4.095 Y73.537
X-4.004 Y73.418
X-3.918 Y73.295
X-3.837 Y73.168
X-3.762 Y73.039
X-3.691 Y72.907
X-3.626 Y72.772
X-3.565 Y72.635
X-3.509 Y72.495
X-3.458 Y72.354
X-3.411 Y72.212
X-3.37 Y72.068
X-3.333 Y71.922
X-3.301 Y71.776
X-3.274 Y71.628
X-3.252 Y71.48
X-3.234 Y71.331
X-3.221 Y71.181
X-3.214 Y71.032
X-3.211 Y70.882
X-3.213 Y70.732
X-3.221 Y70.582
X-3.234 Y70.432
X-3.252 Y70.283
X-3.275 Y70.135
X-3.304 Y69.988
X-3.338 Y69.842
X-3.379 Y69.698
X-3.425 Y69.555
X-3.478 Y69.415
X-3.54 Y69.278
X-3.607 Y69.144
X-3.68 Y69.013
X-3.932 Y68.677
X-4.229 Y68.38
X-4.565 Y68.128
X-4.934 Y67.927
X-5.327 Y67.78
X-5.737 Y67.691
X-6.156 Y67.661
X-6.309
G2 X-6.913 Y68.403 I0.022 J0.635
G1 X-5.978 Y73.835
G2 X-5.456 Y74.354 I0.626 J-0.108
G1 X-5.27 Y74.378
X-5.121 Y74.39
X-4.976 Y74.352
X-4.836 Y74.297
X-4.702 Y74.23
X-4.574 Y74.152
X-4.451 Y74.065
X-4.334 Y73.971
X-4.223 Y73.871
X-4.117 Y73.765
X-4.017 Y73.653
X-3.921 Y73.537
X-3.831 Y73.417
X-3.747 Y73.294
X-3.667 Y73.167
X-3.592 Y73.037
X-3.522 Y72.904
X-3.457 Y72.769
X-3.397 Y72.631
X-3.342 Y72.492
X-3.291 Y72.351
X-3.246 Y72.208
X-3.205 Y72.063
X-3.168 Y71.918
X-3.137 Y71.771
X-3.11 Y71.624
X-3.088 Y71.475
X-3.071 Y71.326
X-3.059 Y71.177
X-3.052 Y71.027
X-3.049 Y70.877
X-3.052 Y70.727
X-3.06 Y70.577
X-3.073 Y70.428
X-3.091 Y70.279
X-3.115 Y70.131
X-3.144 Y69.983
X-3.179 Y69.838
X-3.22 Y69.693
X-3.267 Y69.551
X-3.321 Y69.411
X-3.382 Y69.274
X-3.45 Y69.14
X-3.523 Y69.009
X-3.774 Y68.674
X-4.07 Y68.378
X-4.405 Y68.127
X-4.772 Y67.926
X-5.164 Y67.78
X-5.573 Y67.691
X-5.99 Y67.661
X-6.156
G2 X-6.759 Y68.406 I0.022 J0.635
G1 X-5.793 Y73.859
X-5.792 Y73.862
G2 X-5.27 Y74.378 I0.625 J-0.111
G1 X-5.136 Y74.395
X-4.987 Y74.407
X-4.84 Y74.376
X-4.699 Y74.324
X-4.564 Y74.259
X-4.435 Y74.183
X-4.312 Y74.098
X-4.194 Y74.005
X-4.082 Y73.905
X-3.975 Y73.8
X-3.874 Y73.689
X-3.778 Y73.574
X-3.687 Y73.454
X-3.601 Y73.331
X-3.52 Y73.205
X-3.445 Y73.075
X-3.374 Y72.943
X-3.308 Y72.808
X-3.247 Y72.671
X-3.191 Y72.532
X-3.14 Y72.391
X-3.093 Y72.249
X-3.051 Y72.105
X-3.014 Y71.959
X-2.981 Y71.813
X-2.954 Y71.666
X-2.931 Y71.517
X-2.913 Y71.368
X-2.899 Y71.219
X-2.891 Y71.069
X-2.888 Y70.919
X-2.889 Y70.769
X-2.896 Y70.619
X-2.908 Y70.47
X-2.925 Y70.321
X-2.947 Y70.173
X-2.975 Y70.025
X-3.008 Y69.879
X-3.048 Y69.734
X-3.093 Y69.591
X-3.145 Y69.45
X-3.204 Y69.312
X-3.27 Y69.178
X-3.342 Y69.046
X-3.42 Y68.918
X-3.718 Y68.555
X-4.07 Y68.245
X-4.468 Y67.994
X-4.9 Y67.811
X-5.356 Y67.699
X-5.824 Y67.661
X-5.99
G2 X-6.594 Y68.403 I0.022 J0.635
G1 X-5.659 Y73.876
G2 X-5.136 Y74.395 I0.626 J-0.107
G1 X-4.973 Y74.417
X-4.823 Y74.428
X-4.677 Y74.394
X-4.536 Y74.342
X-4.402 Y74.276
X-4.273 Y74.199
X-4.15 Y74.114
X-4.032 Y74.02
X-3.92 Y73.921
X-3.814 Y73.815
X-3.712 Y73.704
X-3.616 Y73.589
X-3.526 Y73.47
X-3.44 Y73.346
X-3.36 Y73.22
X-3.284 Y73.09
X-3.213 Y72.958
X-3.147 Y72.823
X-3.086 Y72.686
X-3.03 Y72.547
X-2.979 Y72.406
X-2.932 Y72.264
X-2.89 Y72.12
X-2.853 Y71.974
X-2.82 Y71.828
X-2.793 Y71.681
X-2.77 Y71.532
X-2.751 Y71.383
X-2.738 Y71.234
X-2.729 Y71.084
X-2.726 Y70.934
X-2.727 Y70.784
X-2.733 Y70.634
X-2.745 Y70.485
X-2.761 Y70.336
X-2.784 Y70.187
X-2.811 Y70.04
X-2.844 Y69.894
X-2.883 Y69.749
X-2.928 Y69.606
X-2.979 Y69.465
X-3.036 Y69.326
X-3.101 Y69.191
X-3.107 Y69.178
X-3.353 Y68.805
X-3.652 Y68.472
X-3.998 Y68.19
X-4.383 Y67.962
X-4.798 Y67.796
X-5.233 Y67.695
X-5.679 Y67.661
X-5.824
G2 X-6.428 Y68.402 I0.022 J0.635
G1 X-5.495 Y73.896
G2 X-4.973 Y74.417 I0.626 J-0.106
G1 X-4.818 Y74.437
X-4.669 Y74.448
X-4.522 Y74.415
X-4.382 Y74.363
X-4.247 Y74.297
X-4.118 Y74.221
X-3.995 Y74.135
X-3.877 Y74.042
X-3.765 Y73.942
X-3.658 Y73.837
X-3.557 Y73.726
X-3.461 Y73.611
X-3.37 Y73.492
X-3.284 Y73.369
X-3.203 Y73.243
X-3.127 Y73.113
X-3.056 Y72.981
X-2.99 Y72.846
X-2.929 Y72.709
X-2.873 Y72.57
X-2.821 Y72.43
X-2.774 Y72.287
X-2.732 Y72.143
X-2.694 Y71.998
X-2.661 Y71.852
X-2.633 Y71.704
X-2.609 Y71.556
X-2.591 Y71.407
X-2.577 Y71.258
X-2.568 Y71.108
X-2.563 Y70.958
X-2.564 Y70.808
X-2.57 Y70.658
X-2.581 Y70.509
X-2.597 Y70.36
X-2.619 Y70.211
X-2.645 Y70.064
X-2.678 Y69.917
X-2.715 Y69.772
X-2.759 Y69.629
X-2.81 Y69.488
X-2.869 Y69.35
X-2.933 Y69.214
X-3.004 Y69.082
X-3.257 Y68.729
X-3.558 Y68.418
X-3.901 Y68.153
X-4.279 Y67.941
X-4.684 Y67.787
X-5.107 Y67.693
X-5.54 Y67.661
X-5.679
G2 X-6.282 Y68.402 I0.022 J0.635
G1 X-5.341 Y73.917
G2 X-4.818 Y74.437 I0.626 J-0.107
G1 X-4.672 Y74.455
X-4.523 Y74.467
X-4.376 Y74.437
X-4.235 Y74.386
X-4.099 Y74.321
X-3.97 Y74.246
X-3.846 Y74.161
X-3.728 Y74.069
X-3.615 Y73.969
X-3.508 Y73.864
X-3.406 Y73.754
X-3.31 Y73.64
X-3.218 Y73.521
X-3.132 Y73.398
X-3.051 Y73.272
X-2.974 Y73.143
X-2.903 Y73.011
X-2.836 Y72.876
X-2.775 Y72.74
X-2.718 Y72.601
X-2.665 Y72.46
X-2.618 Y72.318
X-2.575 Y72.174
X-2.537 Y72.029
X-2.503 Y71.883
X-2.474 Y71.736
X-2.45 Y71.588
X-2.431 Y71.439
X-2.416 Y71.29
X-2.406 Y71.14
X-2.401 Y70.99
Y70.84
X-2.406 Y70.69
X-2.416 Y70.541
X-2.432 Y70.392
X-2.452 Y70.243
X-2.478 Y70.095
X-2.509 Y69.948
X-2.547 Y69.803
X-2.59 Y69.66
X-2.639 Y69.518
X-2.696 Y69.379
X-2.76 Y69.244
X-2.83 Y69.111
X-2.906 Y68.981
X-3.161 Y68.652
X-3.46 Y68.362
X-3.797 Y68.116
X-4.164 Y67.92
X-4.556 Y67.777
X-4.963 Y67.69
X-5.379 Y67.661
X-5.54
G2 X-6.143 Y68.403 I0.022 J0.635
G1 X-5.195 Y73.936
G2 X-4.672 Y74.455 I0.626 J-0.107
G1 X-4.496 Y74.478
X-4.346 Y74.49
X-4.201 Y74.454
X-4.06 Y74.4
X-3.926 Y74.334
X-3.797 Y74.257
X-3.674 Y74.171
X-3.557 Y74.078
X-3.445 Y73.978
X-3.338 Y73.872
X-3.237 Y73.762
X-3.141 Y73.646
X-3.05 Y73.527
X-2.964 Y73.404
X-2.884 Y73.278
X-2.808 Y73.148
X-2.737 Y73.016
X-2.671 Y72.881
X-2.609 Y72.745
X-2.552 Y72.606
X-2.5 Y72.465
X-2.453 Y72.323
X-2.411 Y72.179
X-2.373 Y72.034
X-2.339 Y71.887
X-2.311 Y71.74
X-2.287 Y71.592
X-2.268 Y71.443
X-2.253 Y71.294
X-2.244 Y71.144
X-2.239 Y70.994
Y70.844
X-2.244 Y70.695
X-2.254 Y70.545
X-2.269 Y70.396
X-2.29 Y70.247
X-2.316 Y70.099
X-2.347 Y69.953
X-2.385 Y69.807
X-2.428 Y69.664
X-2.478 Y69.522
X-2.533 Y69.383
X-2.596 Y69.247
X-2.667 Y69.114
X-2.742 Y68.985
X-2.995 Y68.655
X-3.292 Y68.364
X-3.627 Y68.118
X-3.993 Y67.921
X-4.384 Y67.777
X-4.79 Y67.69
X-5.205 Y67.661
X-5.379
G2 X-5.982 Y68.404 I0.022 J0.635
G1 X-5.018 Y73.959
Y73.96
G2 X-4.496 Y74.478 I0.626 J-0.109
G1 X-4.341 Y74.498
X-4.191 Y74.51
X-4.045 Y74.475
X-3.905 Y74.422
X-3.771 Y74.355
X-3.642 Y74.279
X-3.519 Y74.193
X-3.401 Y74.1
X-3.289 Y74.
X-3.182 Y73.894
X-3.081 Y73.784
X-2.985 Y73.669
X-2.894 Y73.55
X-2.808 Y73.427
X-2.727 Y73.301
X-2.651 Y73.171
X-2.579 Y73.039
X-2.513 Y72.905
X-2.451 Y72.768
X-2.394 Y72.629
X-2.342 Y72.489
X-2.294 Y72.346
X-2.251 Y72.203
X-2.213 Y72.058
X-2.179 Y71.912
X-2.15 Y71.764
X-2.126 Y71.616
X-2.106 Y71.468
X-2.092 Y71.318
X-2.081 Y71.169
X-2.076 Y71.019
Y70.869
X-2.08 Y70.719
X-2.09 Y70.569
X-2.105 Y70.42
X-2.125 Y70.271
X-2.15 Y70.123
X-2.181 Y69.977
X-2.217 Y69.831
X-2.26 Y69.687
X-2.308 Y69.545
X-2.363 Y69.406
X-2.424 Y69.269
X-2.493 Y69.136
X-2.568 Y69.005
X-2.649 Y68.879
X-2.948 Y68.527
X-3.298 Y68.226
X-3.692 Y67.983
X-4.118 Y67.806
X-4.568 Y67.697
X-5.028 Y67.661
X-5.205
G2 X-5.809 Y68.402 I0.022 J0.635
G1 X-4.864 Y73.978
G2 X-4.341 Y74.498 I0.626 J-0.106
G1 X-4.202 Y74.516
X-4.052 Y74.528
X-3.905 Y74.498
X-3.764 Y74.447
X-3.628 Y74.383
X-3.499 Y74.307
X-3.375 Y74.223
X-3.257 Y74.13
X-3.144 Y74.031
X-3.037 Y73.927
