(1001)
(T1  D=6.35 CR=0. - ZMIN=-4.175 - FLAT END MILL)
G90 G94 G91.1 G40 G49 G17
G21
G0 Z15

(2D CONTOUR3)
M5
T1 M6
S15000 M3
G54
M8
G0 X80.644 Y107.802
G43 Z17. H1
Z7.
G1 Z4.135 F1600.
G19 G2 Y107.167 Z3.5 J-0.635 K0.
G1 Y106.532
G17 G2 X80.009 Y107.167 I0. J0.635
G1 Y182.896 Z3.462
G3 X78.757 Y185.422 Z3.461 I-3.175 J0.
G1 X58.548 Y200.809 Z3.448
G3 X54.098 Y200.206 Z3.446 I-1.923 J-2.526
G1 X7.939 Y139.577 Z3.408
G3 X-0.009 Y116.017 Z3.395 I30.946 J-23.56
G1 Y65.217 Z3.37
G3 X3.166 Y62.042 Z3.367 I3.175 J0.
G1 X15.866 Z3.361
G2 X38.091 Y39.817 Z3.344 I0. J-22.225
G1 Y1.717 Z3.325
G3 X41.266 Y-1.458 Z3.322 I3.175 J0.
G1 X66.666 Z3.309
G3 X69.841 Y1.717 Z3.307 I0. J3.175
G1 Y62.042 Z3.277
X76.834 Z3.273
G3 X80.009 Y65.217 Z3.271 I0. J3.175
G1 Y182.896 Z3.212
G3 X78.757 Y185.422 Z3.211 I-3.175 J0.
G1 X58.548 Y200.809 Z3.198
G3 X54.098 Y200.206 Z3.196 I-1.923 J-2.526
G1 X7.939 Y139.577 Z3.158
G3 X-0.009 Y116.017 Z3.145 I30.946 J-23.56
G1 Y65.217 Z3.12
G3 X3.166 Y62.042 Z3.117 I3.175 J0.
G1 X15.866 Z3.111
G2 X38.091 Y39.817 Z3.094 I0. J-22.225
G1 Y1.717 Z3.075
G3 X41.266 Y-1.458 Z3.072 I3.175 J0.
G1 X66.666 Z3.059
G3 X69.841 Y1.717 Z3.057 I0. J3.175
G1 Y62.042 Z3.027
X76.834 Z3.023
G3 X80.009 Y65.217 Z3.021 I0. J3.175
G1 Y182.896 Z2.962
G3 X78.757 Y185.422 Z2.961 I-3.175 J0.
G1 X58.548 Y200.809 Z2.948
G3 X54.098 Y200.206 Z2.946 I-1.923 J-2.526
G1 X7.939 Y139.577 Z2.908
G3 X-0.009 Y116.017 Z2.895 I30.946 J-23.56
G1 Y65.217 Z2.87
G3 X3.166 Y62.042 Z2.867 I3.175 J0.
G1 X15.866 Z2.861
G2 X38.091 Y39.817 Z2.844 I0. J-22.225
G1 Y1.717 Z2.825
G3 X41.266 Y-1.458 Z2.822 I3.175 J0.
G1 X66.666 Z2.809
G3 X69.841 Y1.717 Z2.807 I0. J3.175
G1 Y62.042 Z2.777
X76.834 Z2.773
G3 X80.009 Y65.217 Z2.771 I0. J3.175
G1 Y182.896 Z2.712
G3 X78.757 Y185.422 Z2.711 I-3.175 J0.
G1 X58.548 Y200.809 Z2.698
G3 X54.098 Y200.206 Z2.696 I-1.923 J-2.526
G1 X7.939 Y139.577 Z2.658
G3 X-0.009 Y116.017 Z2.645 I30.946 J-23.56
G1 Y65.217 Z2.62
G3 X3.166 Y62.042 Z2.617 I3.175 J0.
G1 X15.866 Z2.611
G2 X38.091 Y39.817 Z2.594 I0. J-22.225
G1 Y1.717 Z2.575
G3 X41.266 Y-1.458 Z2.572 I3.175 J0.
G1 X66.666 Z2.559
G3 X69.841 Y1.717 Z2.557 I0. J3.175
G1 Y62.042 Z2.527
X76.834 Z2.523
G3 X80.009 Y65.217 Z2.521 I0. J3.175
G1 Y182.896 Z2.462
G3 X78.757 Y185.422 Z2.461 I-3.175 J0.
G1 X58.548 Y200.809 Z2.448
G3 X54.098 Y200.206 Z2.446 I-1.923 J-2.526
G1 X7.939 Y139.577 Z2.408
G3 X-0.009 Y116.017 Z2.395 I30.946 J-23.56
G1 Y65.217 Z2.37
G3 X3.166 Y62.042 Z2.367 I3.175 J0.
G1 X15.866 Z2.361
G2 X38.091 Y39.817 Z2.344 I0. J-22.225
G1 Y1.717 Z2.325
G3 X41.266 Y-1.458 Z2.322 I3.175 J0.
G1 X66.666 Z2.309
G3 X69.841 Y1.717 Z2.307 I0. J3.175
G1 Y62.042 Z2.277
X76.834 Z2.273
G3 X80.009 Y65.217 Z2.271 I0. J3.175
G1 Y182.896 Z2.212
G3 X78.757 Y185.422 Z2.211 I-3.175 J0.
G1 X58.548 Y200.809 Z2.198
G3 X54.098 Y200.206 Z2.196 I-1.923 J-2.526
G1 X7.939 Y139.577 Z2.158
G3 X-0.009 Y116.017 Z2.145 I30.946 J-23.56
G1 Y65.217 Z2.12
G3 X3.166 Y62.042 Z2.117 I3.175 J0.
G1 X15.866 Z2.111
G2 X38.091 Y39.817 Z2.094 I0. J-22.225
G1 Y1.717 Z2.075
G3 X41.266 Y-1.458 Z2.072 I3.175 J0.
G1 X66.666 Z2.059
G3 X69.841 Y1.717 Z2.057 I0. J3.175
G1 Y62.042 Z2.027
X76.834 Z2.023
G3 X80.009 Y65.217 Z2.021 I0. J3.175
G1 Y182.896 Z1.962
G3 X78.757 Y185.422 Z1.961 I-3.175 J0.
G1 X58.548 Y200.809 Z1.948
G3 X54.098 Y200.206 Z1.946 I-1.923 J-2.526
G1 X7.939 Y139.577 Z1.908
G3 X-0.009 Y116.017 Z1.895 I30.946 J-23.56
G1 Y65.217 Z1.87
G3 X3.166 Y62.042 Z1.867 I3.175 J0.
G1 X15.866 Z1.861
G2 X38.091 Y39.817 Z1.844 I0. J-22.225
G1 Y1.717 Z1.825
G3 X41.266 Y-1.458 Z1.822 I3.175 J0.
G1 X66.666 Z1.809
G3 X69.841 Y1.717 Z1.807 I0. J3.175
G1 Y62.042 Z1.777
X76.834 Z1.773
G3 X80.009 Y65.217 Z1.771 I0. J3.175
G1 Y182.896 Z1.712
G3 X78.757 Y185.422 Z1.711 I-3.175 J0.
G1 X58.548 Y200.809 Z1.698
G3 X54.098 Y200.206 Z1.696 I-1.923 J-2.526
G1 X7.939 Y139.577 Z1.658
G3 X-0.009 Y116.017 Z1.645 I30.946 J-23.56
G1 Y65.217 Z1.62
G3 X3.166 Y62.042 Z1.617 I3.175 J0.
G1 X15.866 Z1.611
G2 X38.091 Y39.817 Z1.594 I0. J-22.225
G1 Y1.717 Z1.575
G3 X41.266 Y-1.458 Z1.572 I3.175 J0.
G1 X66.666 Z1.559
G3 X69.841 Y1.717 Z1.557 I0. J3.175
G1 Y62.042 Z1.527
X76.834 Z1.523
G3 X80.009 Y65.217 Z1.521 I0. J3.175
G1 Y182.896 Z1.462
G3 X78.757 Y185.422 Z1.461 I-3.175 J0.
G1 X58.548 Y200.809 Z1.448
G3 X54.098 Y200.206 Z1.446 I-1.923 J-2.526
G1 X7.939 Y139.577 Z1.408
G3 X-0.009 Y116.017 Z1.395 I30.946 J-23.56
G1 Y65.217 Z1.37
G3 X3.166 Y62.042 Z1.367 I3.175 J0.
G1 X15.866 Z1.361
G2 X38.091 Y39.817 Z1.344 I0. J-22.225
G1 Y1.717 Z1.325
G3 X41.266 Y-1.458 Z1.322 I3.175 J0.
G1 X66.666 Z1.309
G3 X69.841 Y1.717 Z1.307 I0. J3.175
G1 Y62.042 Z1.277
X76.834 Z1.273
G3 X80.009 Y65.217 Z1.271 I0. J3.175
G1 Y182.896 Z1.212
G3 X78.757 Y185.422 Z1.211 I-3.175 J0.
G1 X58.548 Y200.809 Z1.198
G3 X54.098 Y200.206 Z1.196 I-1.923 J-2.526
G1 X7.939 Y139.577 Z1.158
G3 X-0.009 Y116.017 Z1.145 I30.946 J-23.56
G1 Y65.217 Z1.12
G3 X3.166 Y62.042 Z1.117 I3.175 J0.
G1 X15.866 Z1.111
G2 X38.091 Y39.817 Z1.094 I0. J-22.225
G1 Y1.717 Z1.075
G3 X41.266 Y-1.458 Z1.072 I3.175 J0.
G1 X66.666 Z1.059
G3 X69.841 Y1.717 Z1.057 I0. J3.175
G1 Y62.042 Z1.027
X76.834 Z1.023
G3 X80.009 Y65.217 Z1.021 I0. J3.175
G1 Y182.896 Z0.962
G3 X78.757 Y185.422 Z0.961 I-3.175 J0.
G1 X58.548 Y200.809 Z0.948
G3 X54.098 Y200.206 Z0.946 I-1.923 J-2.526
G1 X7.939 Y139.577 Z0.908
G3 X-0.009 Y116.017 Z0.895 I30.946 J-23.56
G1 Y65.217 Z0.87
G3 X3.166 Y62.042 Z0.867 I3.175 J0.
G1 X15.866 Z0.861
G2 X38.091 Y39.817 Z0.844 I0. J-22.225
G1 Y1.717 Z0.825
G3 X41.266 Y-1.458 Z0.822 I3.175 J0.
G1 X66.666 Z0.809
G3 X69.841 Y1.717 Z0.807 I0. J3.175
G1 Y62.042 Z0.777
X76.834 Z0.773
G3 X80.009 Y65.217 Z0.771 I0. J3.175
G1 Y100. Z0.754
Y182.896
G3 X78.757 Y185.422 I-3.175 J0.
G1 X58.548 Y200.809
G3 X54.098 Y200.206 I-1.923 J-2.526
G1 X7.939 Y139.577
G3 X-0.009 Y116.017 I30.946 J-23.56
G1 Y65.217
G3 X3.166 Y62.042 I3.175 J0.
G1 X15.866
G2 X38.091 Y39.817 I0. J-22.225
G1 Y1.717
G3 X41.266 Y-1.458 I3.175 J0.
G1 X66.666
G3 X69.841 Y1.717 I0. J3.175
G1 Y62.042
X76.834
G3 X80.009 Y65.217 I0. J3.175
G1 Y100.
Y182.896 Z0.712
G3 X78.757 Y185.422 Z0.711 I-3.175 J0.
G1 X58.548 Y200.809 Z0.698
G3 X54.098 Y200.206 Z0.696 I-1.923 J-2.526
G1 X7.939 Y139.577 Z0.658
G3 X-0.009 Y116.017 Z0.645 I30.946 J-23.56
G1 Y65.217 Z0.62
G3 X3.166 Y62.042 Z0.617 I3.175 J0.
G1 X15.866 Z0.611
G2 X38.091 Y39.817 Z0.594 I0. J-22.225
G1 Y1.717 Z0.575
G3 X41.266 Y-1.458 Z0.572 I3.175 J0.
G1 X66.666 Z0.559
G3 X69.841 Y1.717 Z0.557 I0. J3.175
G1 Y62.042 Z0.527
X76.834 Z0.523
G3 X80.009 Y65.217 Z0.521 I0. J3.175
G1 Y92.833 Z0.507
Y182.896
G3 X78.757 Y185.422 I-3.175 J0.
G1 X58.548 Y200.809
G3 X54.098 Y200.206 I-1.923 J-2.526
G1 X7.939 Y139.577
G3 X-0.009 Y116.017 I30.946 J-23.56
G1 Y65.217
G3 X3.166 Y62.042 I3.175 J0.
G1 X15.866
G2 X38.091 Y39.817 I0. J-22.225
G1 Y1.717
G3 X41.266 Y-1.458 I3.175 J0.
G1 X66.666
G3 X69.841 Y1.717 I0. J3.175
G1 Y62.042
X76.834
G3 X80.009 Y65.217 I0. J3.175
G1 Y92.833
Y182.896 Z0.462
G3 X78.757 Y185.422 Z0.461 I-3.175 J0.
G1 X58.548 Y200.809 Z0.448
G3 X54.098 Y200.206 Z0.446 I-1.923 J-2.526
G1 X7.939 Y139.577 Z0.408
G3 X-0.009 Y116.017 Z0.395 I30.946 J-23.56
G1 Y65.217 Z0.37
G3 X3.166 Y62.042 Z0.367 I3.175 J0.
G1 X15.866 Z0.361
G2 X38.091 Y39.817 Z0.344 I0. J-22.225
G1 Y1.717 Z0.325
G3 X41.266 Y-1.458 Z0.322 I3.175 J0.
G1 X66.666 Z0.309
G3 X69.841 Y1.717 Z0.307 I0. J3.175
G1 Y62.042 Z0.277
X76.834 Z0.273
G3 X80.009 Y65.217 Z0.271 I0. J3.175
G1 Y85.667 Z0.261
Y182.896
G3 X78.757 Y185.422 I-3.175 J0.
G1 X58.548 Y200.809
G3 X54.098 Y200.206 I-1.923 J-2.526
G1 X7.939 Y139.577
G3 X-0.009 Y116.017 I30.946 J-23.56
G1 Y65.217
G3 X3.166 Y62.042 I3.175 J0.
G1 X15.866
G2 X38.091 Y39.817 I0. J-22.225
G1 Y1.717
G3 X41.266 Y-1.458 I3.175 J0.
G1 X66.666
G3 X69.841 Y1.717 I0. J3.175
G1 Y62.042
X76.834
G3 X80.009 Y65.217 I0. J3.175
G1 Y85.667
Y182.896 Z0.212
G3 X78.757 Y185.422 Z0.211 I-3.175 J0.
G1 X58.548 Y200.809 Z0.198
G3 X54.098 Y200.206 Z0.196 I-1.923 J-2.526
G1 X7.939 Y139.577 Z0.158
G3 X-0.009 Y116.017 Z0.145 I30.946 J-23.56
G1 Y65.217 Z0.12
G3 X3.166 Y62.042 Z0.117 I3.175 J0.
G1 X15.866 Z0.111
G2 X38.091 Y39.817 Z0.094 I0. J-22.225
G1 Y1.717 Z0.075
G3 X41.266 Y-1.458 Z0.072 I3.175 J0.
G1 X66.666 Z0.059
G3 X69.841 Y1.717 Z0.057 I0. J3.175
G1 Y62.042 Z0.027
X76.834 Z0.023
G3 X80.009 Y65.217 Z0.021 I0. J3.175
G1 Y78.5 Z0.014
Y182.896
G3 X78.757 Y185.422 I-3.175 J0.
G1 X58.548 Y200.809
G3 X54.098 Y200.206 I-1.923 J-2.526
G1 X7.939 Y139.577
G3 X-0.009 Y116.017 I30.946 J-23.56
G1 Y65.217
G3 X3.166 Y62.042 I3.175 J0.
G1 X15.866
G2 X38.091 Y39.817 I0. J-22.225
G1 Y1.717
G3 X41.266 Y-1.458 I3.175 J0.
G1 X66.666
G3 X69.841 Y1.717 I0. J3.175
G1 Y62.042
X76.834
G3 X80.009 Y65.217 I0. J3.175
G1 Y78.5
Y182.896 Z-0.038
G3 X78.757 Y185.422 Z-0.039 I-3.175 J0.
G1 X58.548 Y200.809 Z-0.052
G3 X54.098 Y200.206 Z-0.054 I-1.923 J-2.526
G1 X7.939 Y139.577 Z-0.092
G3 X-0.009 Y116.017 Z-0.105 I30.946 J-23.56
G1 Y65.217 Z-0.13
G3 X3.166 Y62.042 Z-0.133 I3.175 J0.
G1 X15.866 Z-0.139
G2 X38.091 Y39.817 Z-0.156 I0. J-22.225
G1 Y1.717 Z-0.175
G3 X41.266 Y-1.458 Z-0.178 I3.175 J0.
G1 X66.666 Z-0.191
G3 X69.841 Y1.717 Z-0.193 I0. J3.175
G1 Y62.042 Z-0.223
X76.834 Z-0.227
G3 X80.009 Y65.217 Z-0.229 I0. J3.175
G1 Y71.333 Z-0.232
Y182.896
G3 X78.757 Y185.422 I-3.175 J0.
G1 X58.548 Y200.809
G3 X54.098 Y200.206 I-1.923 J-2.526
G1 X7.939 Y139.577
G3 X-0.009 Y116.017 I30.946 J-23.56
G1 Y65.217
G3 X3.166 Y62.042 I3.175 J0.
G1 X15.866
G2 X38.091 Y39.817 I0. J-22.225
G1 Y1.717
G3 X41.266 Y-1.458 I3.175 J0.
G1 X66.666
G3 X69.841 Y1.717 I0. J3.175
G1 Y62.042
X76.834
G3 X80.009 Y65.217 I0. J3.175
G1 Y71.333
Y182.896 Z-0.288
G3 X78.757 Y185.422 Z-0.289 I-3.175 J0.
G1 X58.548 Y200.809 Z-0.302
G3 X54.098 Y200.206 Z-0.304 I-1.923 J-2.526
G1 X7.939 Y139.577 Z-0.342
G3 X-0.009 Y116.017 Z-0.355 I30.946 J-23.56
G1 Y65.217 Z-0.38
G3 X3.166 Y62.042 Z-0.383 I3.175 J0.
G1 X15.866 Z-0.389
G2 X38.091 Y39.817 Z-0.406 I0. J-22.225
G1 Y1.717 Z-0.425
G3 X41.266 Y-1.458 Z-0.428 I3.175 J0.
G1 X66.666 Z-0.441
G3 X69.841 Y1.717 Z-0.443 I0. J3.175
G1 Y62.042 Z-0.473
X76.834 Z-0.477
G3 X79.836 Y64.185 Z-0.479 I0. J3.175
X80.009 Y65.217 I-3.003 J1.032
G1 Y182.896
G3 X78.757 Y185.422 I-3.175 J0.
G1 X58.548 Y200.809
G3 X54.098 Y200.206 I-1.923 J-2.526
G1 X7.939 Y139.577
G3 X-0.009 Y116.017 I30.946 J-23.56
G1 Y65.217
G3 X3.166 Y62.042 I3.175 J0.
G1 X15.866
G2 X38.091 Y39.817 I0. J-22.225
G1 Y1.717
G3 X41.266 Y-1.458 I3.175 J0.
G1 X66.666
G3 X69.841 Y1.717 I0. J3.175
G1 Y62.042
X76.834
G3 X79.836 Y64.185 I0. J3.175
X80.009 Y65.217 I-3.003 J1.032
G1 Y182.896 Z-0.538
G3 X78.757 Y185.422 Z-0.539 I-3.175 J0.
G1 X58.548 Y200.809 Z-0.552
G3 X54.098 Y200.206 Z-0.554 I-1.923 J-2.526
G1 X7.939 Y139.577 Z-0.592
G3 X-0.009 Y116.017 Z-0.605 I30.946 J-23.56
G1 Y65.217 Z-0.63
G3 X3.166 Y62.042 Z-0.633 I3.175 J0.
G1 X15.866 Z-0.639
G2 X38.091 Y39.817 Z-0.656 I0. J-22.225
G1 Y1.717 Z-0.675
G3 X41.266 Y-1.458 Z-0.678 I3.175 J0.
G1 X66.666 Z-0.691
G3 X69.841 Y1.717 Z-0.693 I0. J3.175
G1 Y62.042 Z-0.723
X73.603 Z-0.725
X76.834
G3 X80.009 Y65.217 I0. J3.175
G1 Y182.896
G3 X78.757 Y185.422 I-3.175 J0.
G1 X58.548 Y200.809
G3 X54.098 Y200.206 I-1.923 J-2.526
G1 X7.939 Y139.577
G3 X-0.009 Y116.017 I30.946 J-23.56
G1 Y65.217
G3 X3.166 Y62.042 I3.175 J0.
G1 X15.866
G2 X38.091 Y39.817 I0. J-22.225
G1 Y1.717
G3 X41.266 Y-1.458 I3.175 J0.
G1 X66.666
G3 X69.841 Y1.717 I0. J3.175
G1 Y62.042
X73.603
X76.834 Z-0.727
G3 X80.009 Y65.217 Z-0.729 I0. J3.175
G1 Y182.896 Z-0.788
G3 X78.757 Y185.422 Z-0.789 I-3.175 J0.
G1 X58.548 Y200.809 Z-0.802
G3 X54.098 Y200.206 Z-0.804 I-1.923 J-2.526
G1 X7.939 Y139.577 Z-0.842
G3 X-0.009 Y116.017 Z-0.855 I30.946 J-23.56
G1 Y65.217 Z-0.88
G3 X3.166 Y62.042 Z-0.883 I3.175 J0.
G1 X15.866 Z-0.889
G2 X38.091 Y39.817 Z-0.906 I0. J-22.225
G1 Y1.717 Z-0.925
G3 X41.266 Y-1.458 Z-0.928 I3.175 J0.
G1 X66.666 Z-0.941
G3 X69.841 Y1.717 Z-0.943 I0. J3.175
G1 Y58.638 Z-0.971
Y62.042
X73.603
X76.834
G3 X80.009 Y65.217 I0. J3.175
G1 Y182.896
G3 X78.757 Y185.422 I-3.175 J0.
G1 X58.548 Y200.809
G3 X54.098 Y200.206 I-1.923 J-2.526
G1 X7.939 Y139.577
G3 X-0.009 Y116.017 I30.946 J-23.56
G1 Y65.217
G3 X3.166 Y62.042 I3.175 J0.
G1 X15.866
G2 X38.091 Y39.817 I0. J-22.225
G1 Y1.717
G3 X41.266 Y-1.458 I3.175 J0.
G1 X66.666
G3 X69.841 Y1.717 I0. J3.175
G1 Y58.638
Y62.042 Z-0.973
X76.834 Z-0.977
G3 X80.009 Y65.217 Z-0.979 I0. J3.175
G1 Y182.896 Z-1.038
G3 X78.757 Y185.422 Z-1.039 I-3.175 J0.
G1 X58.548 Y200.809 Z-1.052
G3 X54.098 Y200.206 Z-1.054 I-1.923 J-2.526
G1 X7.939 Y139.577 Z-1.092
G3 X-0.009 Y116.017 Z-1.105 I30.946 J-23.56
G1 Y65.217 Z-1.13
G3 X3.166 Y62.042 Z-1.133 I3.175 J0.
G1 X15.866 Z-1.139
G2 X38.091 Y39.817 Z-1.156 I0. J-22.225
G1 Y1.717 Z-1.175
G3 X41.266 Y-1.458 Z-1.178 I3.175 J0.
G1 X66.666 Z-1.191
G3 X69.841 Y1.717 Z-1.193 I0. J3.175
G1 Y51.471 Z-1.218
Y58.638
Y62.042
X76.834
G3 X80.009 Y65.217 I0. J3.175
G1 Y182.896
G3 X78.757 Y185.422 I-3.175 J0.
G1 X58.548 Y200.809
G3 X54.098 Y200.206 I-1.923 J-2.526
G1 X7.939 Y139.577
G3 X-0.009 Y116.017 I30.946 J-23.56
G1 Y65.217
G3 X3.166 Y62.042 I3.175 J0.
G1 X15.866
G2 X38.091 Y39.817 I0. J-22.225
G1 Y1.717
G3 X41.266 Y-1.458 I3.175 J0.
G1 X66.666
G3 X69.841 Y1.717 I0. J3.175
G1 Y51.471
Y62.042 Z-1.223
X76.834 Z-1.227
G3 X80.009 Y65.217 Z-1.229 I0. J3.175
G1 Y182.896 Z-1.288
G3 X78.757 Y185.422 Z-1.289 I-3.175 J0.
G1 X58.548 Y200.809 Z-1.302
G3 X54.098 Y200.206 Z-1.304 I-1.923 J-2.526
G1 X7.939 Y139.577 Z-1.342
G3 X-0.009 Y116.017 Z-1.355 I30.946 J-23.56
G1 Y65.217 Z-1.38
G3 X3.166 Y62.042 Z-1.383 I3.175 J0.
G1 X15.866 Z-1.389
G2 X38.091 Y39.817 Z-1.406 I0. J-22.225
G1 Y1.717 Z-1.425
G3 X41.266 Y-1.458 Z-1.428 I3.175 J0.
G1 X66.666 Z-1.441
G3 X69.841 Y1.717 Z-1.443 I0. J3.175
G1 Y44.304 Z-1.464
Y62.042
X76.834
G3 X80.009 Y65.217 I0. J3.175
G1 Y182.896
G3 X78.757 Y185.422 I-3.175 J0.
G1 X58.548 Y200.809
G3 X54.098 Y200.206 I-1.923 J-2.526
G1 X7.939 Y139.577
G3 X-0.009 Y116.017 I30.946 J-23.56
G1 Y65.217
G3 X3.166 Y62.042 I3.175 J0.
G1 X15.866
G2 X38.091 Y39.817 I0. J-22.225
G1 Y1.717
G3 X41.266 Y-1.458 I3.175 J0.
G1 X66.666
G3 X69.841 Y1.717 I0. J3.175
G1 Y44.304
Y62.042 Z-1.473
X76.834 Z-1.477
G3 X80.009 Y65.217 Z-1.479 I0. J3.175
G1 Y182.896 Z-1.538
G3 X78.757 Y185.422 Z-1.539 I-3.175 J0.
G1 X58.548 Y200.809 Z-1.552
G3 X54.098 Y200.206 Z-1.554 I-1.923 J-2.526
G1 X7.939 Y139.577 Z-1.592
G3 X-0.009 Y116.017 Z-1.605 I30.946 J-23.56
G1 Y65.217 Z-1.63
G3 X3.166 Y62.042 Z-1.633 I3.175 J0.
G1 X15.866 Z-1.639
G2 X38.091 Y39.817 Z-1.656 I0. J-22.225
G1 Y1.717 Z-1.675
G3 X41.266 Y-1.458 Z-1.678 I3.175 J0.
G1 X66.666 Z-1.691
G3 X69.841 Y1.717 Z-1.693 I0. J3.175
G1 Y37.137 Z-1.711
Y62.042
X76.834
G3 X80.009 Y65.217 I0. J3.175
G1 Y182.896
G3 X78.757 Y185.422 I-3.175 J0.
G1 X58.548 Y200.809
G3 X54.098 Y200.206 I-1.923 J-2.526
G1 X7.939 Y139.577
G3 X-0.009 Y116.017 I30.946 J-23.56
G1 Y65.217
G3 X3.166 Y62.042 I3.175 J0.
G1 X15.866
G2 X38.091 Y39.817 I0. J-22.225
G1 Y1.717
G3 X41.266 Y-1.458 I3.175 J0.
G1 X66.666
G3 X69.841 Y1.717 I0. J3.175
G1 Y37.137
Y62.042 Z-1.723
X76.834 Z-1.727
G3 X80.009 Y65.217 Z-1.729 I0. J3.175
G1 Y182.896 Z-1.788
G3 X78.757 Y185.422 Z-1.789 I-3.175 J0.
G1 X58.548 Y200.809 Z-1.802
G3 X54.098 Y200.206 Z-1.804 I-1.923 J-2.526
G1 X7.939 Y139.577 Z-1.842
G3 X-0.009 Y116.017 Z-1.855 I30.946 J-23.56
G1 Y65.217 Z-1.88
G3 X3.166 Y62.042 Z-1.883 I3.175 J0.
G1 X15.866 Z-1.889
G2 X38.091 Y39.817 Z-1.906 I0. J-22.225
G1 Y1.717 Z-1.925
G3 X41.266 Y-1.458 Z-1.928 I3.175 J0.
G1 X66.666 Z-1.941
G3 X69.841 Y1.717 Z-1.943 I0. J3.175
G1 Y29.971 Z-1.957
Y62.042
X76.834
G3 X80.009 Y65.217 I0. J3.175
G1 Y182.896
G3 X78.757 Y185.422 I-3.175 J0.
G1 X58.548 Y200.809
G3 X54.098 Y200.206 I-1.923 J-2.526
G1 X7.939 Y139.577
G3 X-0.009 Y116.017 I30.946 J-23.56
G1 Y65.217
G3 X3.166 Y62.042 I3.175 J0.
G1 X15.866
G2 X38.091 Y39.817 I0. J-22.225
G1 Y1.717
G3 X41.266 Y-1.458 I3.175 J0.
G1 X66.666
G3 X69.841 Y1.717 I0. J3.175
G1 Y29.971
Y62.042 Z-1.973
X76.834 Z-1.977
G3 X80.009 Y65.217 Z-1.979 I0. J3.175
G1 Y182.896 Z-2.038
G3 X78.757 Y185.422 Z-2.039 I-3.175 J0.
G1 X58.548 Y200.809 Z-2.052
G3 X54.098 Y200.206 Z-2.054 I-1.923 J-2.526
G1 X7.939 Y139.577 Z-2.092
G3 X-0.009 Y116.017 Z-2.105 I30.946 J-23.56
G1 Y65.217 Z-2.13
G3 X3.166 Y62.042 Z-2.133 I3.175 J0.
G1 X15.866 Z-2.139
G2 X38.091 Y39.817 Z-2.156 I0. J-22.225
G1 Y1.717 Z-2.175
G3 X41.266 Y-1.458 Z-2.178 I3.175 J0.
G1 X66.666 Z-2.191
G3 X69.841 Y1.717 Z-2.193 I0. J3.175
G1 Y22.804 Z-2.204
Y62.042
X76.834
G3 X80.009 Y65.217 I0. J3.175
G1 Y182.896
G3 X78.757 Y185.422 I-3.175 J0.
G1 X58.548 Y200.809
G3 X54.098 Y200.206 I-1.923 J-2.526
G1 X7.939 Y139.577
G3 X-0.009 Y116.017 I30.946 J-23.56
G1 Y65.217
G3 X3.166 Y62.042 I3.175 J0.
G1 X15.866
G2 X38.091 Y39.817 I0. J-22.225
G1 Y1.717
G3 X41.266 Y-1.458 I3.175 J0.
G1 X66.666
G3 X69.841 Y1.717 I0. J3.175
G1 Y22.804
Y62.042 Z-2.223
X76.834 Z-2.227
G3 X80.009 Y65.217 Z-2.229 I0. J3.175
G1 Y182.896 Z-2.288
G3 X78.757 Y185.422 Z-2.289 I-3.175 J0.
G1 X58.548 Y200.809 Z-2.302
G3 X54.098 Y200.206 Z-2.304 I-1.923 J-2.526
G1 X7.939 Y139.577 Z-2.342
G3 X-0.009 Y116.017 Z-2.355 I30.946 J-23.56
G1 Y65.217 Z-2.38
G3 X3.166 Y62.042 Z-2.383 I3.175 J0.
G1 X15.866 Z-2.389
G2 X38.091 Y39.817 Z-2.406 I0. J-22.225
G1 Y1.717 Z-2.425
G3 X41.266 Y-1.458 Z-2.428 I3.175 J0.
G1 X66.666 Z-2.441
G3 X69.841 Y1.717 Z-2.443 I0. J3.175
G1 Y15.637 Z-2.45
Y62.042
X76.834
G3 X80.009 Y65.217 I0. J3.175
G1 Y182.896
G3 X78.757 Y185.422 I-3.175 J0.
G1 X58.548 Y200.809
G3 X54.098 Y200.206 I-1.923 J-2.526
G1 X7.939 Y139.577
G3 X-0.009 Y116.017 I30.946 J-23.56
G1 Y65.217
G3 X3.166 Y62.042 I3.175 J0.
G1 X15.866
G2 X38.091 Y39.817 I0. J-22.225
G1 Y1.717
G3 X41.266 Y-1.458 I3.175 J0.
G1 X66.666
G3 X69.841 Y1.717 I0. J3.175
G1 Y15.637
Y62.042 Z-2.473
X76.834 Z-2.477
G3 X80.009 Y65.217 Z-2.479 I0. J3.175
G1 Y182.896 Z-2.538
G3 X78.757 Y185.422 Z-2.539 I-3.175 J0.
G1 X58.548 Y200.809 Z-2.552
G3 X54.098 Y200.206 Z-2.554 I-1.923 J-2.526
G1 X7.939 Y139.577 Z-2.592
G3 X-0.009 Y116.017 Z-2.605 I30.946 J-23.56
G1 Y65.217 Z-2.63
G3 X3.166 Y62.042 Z-2.633 I3.175 J0.
G1 X15.866 Z-2.639
G2 X38.091 Y39.817 Z-2.656 I0. J-22.225
G1 Y1.717 Z-2.675
G3 X41.266 Y-1.458 Z-2.678 I3.175 J0.
G1 X66.666 Z-2.691
G3 X69.841 Y1.717 Z-2.693 I0. J3.175
G1 Y8.47 Z-2.696
Y62.042
X76.834
G3 X80.009 Y65.217 I0. J3.175
G1 Y182.896
G3 X78.757 Y185.422 I-3.175 J0.
G1 X58.548 Y200.809
G3 X54.098 Y200.206 I-1.923 J-2.526
G1 X7.939 Y139.577
G3 X-0.009 Y116.017 I30.946 J-23.56
G1 Y65.217
G3 X3.166 Y62.042 I3.175 J0.
G1 X15.866
G2 X38.091 Y39.817 I0. J-22.225
G1 Y1.717
G3 X41.266 Y-1.458 I3.175 J0.
G1 X66.666
G3 X69.841 Y1.717 I0. J3.175
G1 Y8.47
Y62.042 Z-2.723
X76.834 Z-2.727
G3 X80.009 Y65.217 Z-2.729 I0. J3.175
G1 Y182.896 Z-2.788
G3 X78.757 Y185.422 Z-2.789 I-3.175 J0.
G1 X58.548 Y200.809 Z-2.802
G3 X54.098 Y200.206 Z-2.804 I-1.923 J-2.526
G1 X7.939 Y139.577 Z-2.842
G3 X-0.009 Y116.017 Z-2.855 I30.946 J-23.56
G1 Y65.217 Z-2.88
G3 X3.166 Y62.042 Z-2.883 I3.175 J0.
G1 X15.866 Z-2.889
G2 X38.091 Y39.817 Z-2.906 I0. J-22.225
G1 Y1.717 Z-2.925
G3 X41.266 Y-1.458 Z-2.928 I3.175 J0.
G1 X66.666 Z-2.941
G3 X69.814 Y1.305 Z-2.943 I0. J3.175
X69.841 Y1.717 I-3.148 J0.413
G1 Y62.042
X76.834
G3 X80.009 Y65.217 I0. J3.175
G1 Y182.896
G3 X78.757 Y185.422 I-3.175 J0.
G1 X58.548 Y200.809
G3 X54.098 Y200.206 I-1.923 J-2.526
G1 X7.939 Y139.577
G3 X-0.009 Y116.017 I30.946 J-23.56
G1 Y65.217
G3 X3.166 Y62.042 I3.175 J0.
G1 X15.866
G2 X38.091 Y39.817 I0. J-22.225
G1 Y1.717
G3 X41.266 Y-1.458 I3.175 J0.
G1 X66.666
G3 X69.814 Y1.305 I0. J3.175
X69.841 Y1.717 I-3.148 J0.413
G1 Y62.042 Z-2.973
X76.834 Z-2.977
G3 X80.009 Y65.217 Z-2.979 I0. J3.175
G1 Y182.896 Z-3.038
G3 X78.757 Y185.422 Z-3.039 I-3.175 J0.
G1 X58.548 Y200.809 Z-3.052
G3 X54.098 Y200.206 Z-3.054 I-1.923 J-2.526
G1 X7.939 Y139.577 Z-3.092
G3 X-0.009 Y116.017 Z-3.105 I30.946 J-23.56
G1 Y65.217 Z-3.13
G3 X3.166 Y62.042 Z-3.133 I3.175 J0.
G1 X15.866 Z-3.139
G2 X38.091 Y39.817 Z-3.156 I0. J-22.225
G1 Y1.717 Z-3.175
G3 X41.266 Y-1.458 Z-3.178 I3.175 J0.
G1 X64.073 Z-3.189
X66.666
G3 X69.841 Y1.717 I0. J3.175
G1 Y62.042
X76.834
G3 X80.009 Y65.217 I0. J3.175
G1 Y182.896
G3 X78.757 Y185.422 I-3.175 J0.
G1 X58.548 Y200.809
G3 X54.098 Y200.206 I-1.923 J-2.526
G1 X7.939 Y139.577
G3 X-0.009 Y116.017 I30.946 J-23.56
G1 Y65.217
G3 X3.166 Y62.042 I3.175 J0.
G1 X15.866
G2 X38.091 Y39.817 I0. J-22.225
G1 Y1.717
G3 X41.266 Y-1.458 I3.175 J0.
G1 X64.073
X66.666 Z-3.191
G3 X69.841 Y1.717 Z-3.193 I0. J3.175
G1 Y62.042 Z-3.223
X76.834 Z-3.227
G3 X80.009 Y65.217 Z-3.229 I0. J3.175
G1 Y182.896 Z-3.288
G3 X78.757 Y185.422 Z-3.289 I-3.175 J0.
G1 X58.548 Y200.809 Z-3.302
G3 X54.098 Y200.206 Z-3.304 I-1.923 J-2.526
G1 X7.939 Y139.577 Z-3.342
G3 X-0.009 Y116.017 Z-3.355 I30.946 J-23.56
G1 Y65.217 Z-3.38
G3 X3.166 Y62.042 Z-3.383 I3.175 J0.
G1 X15.866 Z-3.389
G2 X38.091 Y39.817 Z-3.406 I0. J-22.225
G1 Y1.717 Z-3.425
G3 X41.266 Y-1.458 Z-3.428 I3.175 J0.
G1 X56.906 Z-3.436
X64.073
X66.666
G3 X69.841 Y1.717 I0. J3.175
G1 Y62.042
X76.834
G3 X80.009 Y65.217 I0. J3.175
G1 Y182.896
G3 X78.757 Y185.422 I-3.175 J0.
G1 X58.548 Y200.809
G3 X54.098 Y200.206 I-1.923 J-2.526
G1 X7.939 Y139.577
G3 X-0.009 Y116.017 I30.946 J-23.56
G1 Y65.217
G3 X3.166 Y62.042 I3.175 J0.
G1 X15.866
G2 X38.091 Y39.817 I0. J-22.225
G1 Y1.717
G3 X41.266 Y-1.458 I3.175 J0.
G1 X56.906
X66.666 Z-3.441
G3 X69.841 Y1.717 Z-3.443 I0. J3.175
G1 Y62.042 Z-3.473
X76.834 Z-3.477
G3 X80.009 Y65.217 Z-3.479 I0. J3.175
G1 Y182.896 Z-3.538
G3 X78.757 Y185.422 Z-3.539 I-3.175 J0.
G1 X58.548 Y200.809 Z-3.552
G3 X54.098 Y200.206 Z-3.554 I-1.923 J-2.526
G1 X7.939 Y139.577 Z-3.592
G3 X-0.009 Y116.017 Z-3.605 I30.946 J-23.56
G1 Y65.217 Z-3.63
G3 X3.166 Y62.042 Z-3.633 I3.175 J0.
G1 X15.866 Z-3.639
G2 X38.091 Y39.817 Z-3.656 I0. J-22.225
G1 Y1.717 Z-3.675
G3 X41.266 Y-1.458 Z-3.678 I3.175 J0.
G1 X49.739 Z-3.682
X66.666
G3 X69.841 Y1.717 I0. J3.175
G1 Y62.042
X76.834
G3 X80.009 Y65.217 I0. J3.175
G1 Y182.896
G3 X78.757 Y185.422 I-3.175 J0.
G1 X58.548 Y200.809
G3 X54.098 Y200.206 I-1.923 J-2.526
G1 X7.939 Y139.577
G3 X-0.009 Y116.017 I30.946 J-23.56
G1 Y65.217
G3 X3.166 Y62.042 I3.175 J0.
G1 X15.866
G2 X38.091 Y39.817 I0. J-22.225
G1 Y1.717
G3 X41.266 Y-1.458 I3.175 J0.
G1 X49.739
X66.666 Z-3.691
G3 X69.841 Y1.717 Z-3.693 I0. J3.175
G1 Y62.042 Z-3.723
X76.834 Z-3.727
G3 X80.009 Y65.217 Z-3.729 I0. J3.175
G1 Y182.896 Z-3.788
G3 X78.757 Y185.422 Z-3.789 I-3.175 J0.
G1 X58.548 Y200.809 Z-3.802
G3 X54.098 Y200.206 Z-3.804 I-1.923 J-2.526
G1 X7.939 Y139.577 Z-3.842
G3 X-0.009 Y116.017 Z-3.855 I30.946 J-23.56
G1 Y65.217 Z-3.88
G3 X3.166 Y62.042 Z-3.883 I3.175 J0.
G1 X15.866 Z-3.889
G2 X38.091 Y39.817 Z-3.906 I0. J-22.225
G1 Y1.717 Z-3.925
G3 X41.266 Y-1.458 Z-3.928 I3.175 J0.
G1 X42.572 Z-3.929
X66.666
G3 X69.841 Y1.717 I0. J3.175
G1 Y62.042
X76.834
G3 X80.009 Y65.217 I0. J3.175
G1 Y182.896
G3 X78.757 Y185.422 I-3.175 J0.
G1 X58.548 Y200.809
G3 X54.098 Y200.206 I-1.923 J-2.526
G1 X7.939 Y139.577
G3 X-0.009 Y116.017 I30.946 J-23.56
G1 Y65.217
G3 X3.166 Y62.042 I3.175 J0.
G1 X15.866
G2 X38.091 Y39.817 I0. J-22.225
G1 Y1.717
G3 X41.266 Y-1.458 I3.175 J0.
G1 X42.572
X66.666 Z-3.941
G3 X69.841 Y1.717 Z-3.943 I0. J3.175
G1 Y62.042 Z-3.973
X76.834 Z-3.977
G3 X80.009 Y65.217 Z-3.979 I0. J3.175
G1 Y182.896 Z-4.038
G3 X78.757 Y185.422 Z-4.039 I-3.175 J0.
G1 X58.548 Y200.809 Z-4.052
G3 X54.098 Y200.206 Z-4.054 I-1.923 J-2.526
G1 X7.939 Y139.577 Z-4.092
G3 X-0.009 Y116.017 Z-4.105 I30.946 J-23.56
G1 Y65.217 Z-4.13
G3 X3.166 Y62.042 Z-4.133 I3.175 J0.
G1 X15.866 Z-4.139
G2 X38.091 Y39.817 Z-4.156 I0. J-22.225
G1 Y2.591 Z-4.175
Y1.717
G3 X41.266 Y-1.458 I3.175 J0.
G1 X66.666
G3 X69.841 Y1.717 I0. J3.175
G1 Y62.042
X76.834
G3 X80.009 Y65.217 I0. J3.175
G1 Y182.896
G3 X78.757 Y185.422 I-3.175 J0.
G1 X58.548 Y200.809
G3 X54.098 Y200.206 I-1.923 J-2.526
G1 X7.939 Y139.577
G3 X-0.009 Y116.017 I30.946 J-23.56
G1 Y65.217
G3 X3.166 Y62.042 I3.175 J0.
G1 X15.866
G2 X38.091 Y39.817 I0. J-22.225
G1 Y2.591
G2 X37.456 Y1.956 I-0.635 J0.
G1 Y2.591
G19 G3 Y3.226 Z-3.54 J0. K0.635
G0 Z17.
G17
M5
G0 Z15
G0 X0 Y0

M9
M30
