(DRAWER CAP HOLES)
(T3  D=0.118 CR=0. - ZMIN=-0.77 - FLAT END MILL)
G90 G94 G91.1 G40 G49 G17
G20

(2D POCKET1)
M5
T3 M6
S15000 M3
G54
M8
G0 X1.1477 Y6.4494
G43 Z0.6 H3
Z0.2
G1 Z-0.1807 F20.
X1.1468 Y6.4496 Z-0.1852
X1.1443 Y6.4501 Z-0.189
X1.1424 Y6.45 Z-0.1903
X1.1405 Y6.4497 Z-0.1916
X1.1384 Y6.4489 Z-0.1921
X1.1365 Y6.4477 Z-0.1925
G3 X1.1518 Y6.4272 I0.0077 J-0.0103 F40.
X1.1365 Y6.4477 I-0.0077 J0.0103
G2 X1.0957 Y6.4405 I-0.0276 J0.0368
G3 X1.0671 Y6.4105 I-0.0066 J-0.0223
X1.2258 Y6.4375 I0.077 J0.027
X1.0625 I-0.0816 J0.
X1.0671 Y6.4105 I0.0816 J0.
G1 X1.068 Y6.4088
X1.0694 Y6.4075
X1.0711 Y6.4068
X1.073 Y6.4065
X1.0748 Y6.4069
X1.1147 Y6.4225
X1.1482 Y6.4385
G3 X1.1477 Y6.4494 I-0.0026 J0.0053
G1 Z-0.3732 F20.
X1.1468 Y6.4496 Z-0.3777
X1.1443 Y6.4501 Z-0.3815
X1.1424 Y6.45 Z-0.3828
X1.1405 Y6.4497 Z-0.3841
X1.1384 Y6.4489 Z-0.3846
X1.1365 Y6.4477 Z-0.385
G3 X1.1518 Y6.4272 I0.0077 J-0.0103 F40.
X1.1365 Y6.4477 I-0.0077 J0.0103
G2 X1.0957 Y6.4405 I-0.0276 J0.0368
G3 X1.0671 Y6.4105 I-0.0066 J-0.0223
X1.2258 Y6.4375 I0.077 J0.027
X1.0625 I-0.0816 J0.
X1.0671 Y6.4105 I0.0816 J0.
G1 X1.068 Y6.4088
X1.0694 Y6.4075
X1.0711 Y6.4068
X1.073 Y6.4065
X1.0748 Y6.4069
X1.1147 Y6.4225
X1.1482 Y6.4385
G3 X1.1477 Y6.4494 I-0.0026 J0.0053
G1 Z-0.5657 F20.
X1.1468 Y6.4496 Z-0.5702
X1.1443 Y6.4501 Z-0.574
X1.1424 Y6.45 Z-0.5753
X1.1405 Y6.4497 Z-0.5766
X1.1384 Y6.4489 Z-0.5771
X1.1365 Y6.4477 Z-0.5775
G3 X1.1518 Y6.4272 I0.0077 J-0.0103 F40.
X1.1365 Y6.4477 I-0.0077 J0.0103
G2 X1.0957 Y6.4405 I-0.0276 J0.0368
G3 X1.0671 Y6.4105 I-0.0066 J-0.0223
X1.2258 Y6.4375 I0.077 J0.027
X1.0625 I-0.0816 J0.
X1.0671 Y6.4105 I0.0816 J0.
G1 X1.068 Y6.4088
X1.0694 Y6.4075
X1.0711 Y6.4068
X1.073 Y6.4065
X1.0748 Y6.4069
X1.1147 Y6.4225
X1.1482 Y6.4385
G3 X1.1477 Y6.4494 I-0.0026 J0.0053
G1 Z-0.7582 F20.
X1.1468 Y6.4496 Z-0.7627
X1.1443 Y6.4501 Z-0.7665
X1.1424 Y6.45 Z-0.7678
X1.1405 Y6.4497 Z-0.7691
X1.1384 Y6.4489 Z-0.7696
X1.1365 Y6.4477 Z-0.77
G3 X1.1518 Y6.4272 I0.0077 J-0.0103 F40.
X1.1365 Y6.4477 I-0.0077 J0.0103
G2 X1.0957 Y6.4405 I-0.0276 J0.0368
G3 X1.0671 Y6.4105 I-0.0066 J-0.0223
X1.2258 Y6.4375 I0.077 J0.027
X1.0625 I-0.0816 J0.
X1.0671 Y6.4105 I0.0816 J0.
G1 X1.0681 Y6.4084 Z-0.7696
X1.0694 Y6.4066 Z-0.7691
X1.0708 Y6.4053 Z-0.7678
X1.0723 Y6.4042 Z-0.7665
X1.0747 Y6.4032 Z-0.7627
X1.0755 Y6.4029 Z-0.7582
G0 Z0.2
X1.1515 Y2.5526
G1 Z-0.1807 F20.
X1.1523 Y2.5531 Z-0.1852
X1.1541 Y2.5548 Z-0.189
X1.1553 Y2.5564 Z-0.1903
X1.1561 Y2.5581 Z-0.1916
X1.1568 Y2.5603 Z-0.1921
X1.157 Y2.5625 Z-0.1925
G3 X1.1313 I-0.0128 J0. F40.
X1.157 I0.0128 J0.
G2 X1.1756 Y2.5995 I0.046 J0.
G3 X1.1688 Y2.6403 I-0.0138 J0.0187
X1.0625 Y2.5625 I-0.0246 J-0.0778
X1.2258 I0.0816 J0.
X1.1688 Y2.6403 I-0.0816 J0.
G1 X1.1669 Y2.6406
X1.165 Y2.6403
X1.1634 Y2.6394
X1.1621 Y2.638
X1.1613 Y2.6363
X1.1498 Y2.5951
X1.1426 Y2.5586
G3 X1.1515 Y2.5526 I0.0058 J-0.0011
G1 Z-0.3732 F20.
X1.1523 Y2.5531 Z-0.3777
X1.1541 Y2.5548 Z-0.3815
X1.1553 Y2.5564 Z-0.3828
X1.1561 Y2.5581 Z-0.3841
X1.1568 Y2.5603 Z-0.3846
X1.157 Y2.5625 Z-0.385
G3 X1.1313 I-0.0128 J0. F40.
X1.157 I0.0128 J0.
G2 X1.1756 Y2.5995 I0.046 J0.
G3 X1.1688 Y2.6403 I-0.0138 J0.0187
X1.0625 Y2.5625 I-0.0246 J-0.0778
X1.2258 I0.0816 J0.
X1.1688 Y2.6403 I-0.0816 J0.
G1 X1.1669 Y2.6406
X1.165 Y2.6403
X1.1634 Y2.6394
X1.1621 Y2.638
X1.1613 Y2.6363
X1.1498 Y2.5951
X1.1426 Y2.5586
G3 X1.1515 Y2.5526 I0.0058 J-0.0011
G1 Z-0.5657 F20.
X1.1523 Y2.5531 Z-0.5702
X1.1541 Y2.5548 Z-0.574
X1.1553 Y2.5564 Z-0.5753
X1.1561 Y2.5581 Z-0.5766
X1.1568 Y2.5603 Z-0.5771
X1.157 Y2.5625 Z-0.5775
G3 X1.1313 I-0.0128 J0. F40.
X1.157 I0.0128 J0.
G2 X1.1756 Y2.5995 I0.046 J0.
G3 X1.1688 Y2.6403 I-0.0138 J0.0187
X1.0625 Y2.5625 I-0.0246 J-0.0778
X1.2258 I0.0816 J0.
X1.1688 Y2.6403 I-0.0816 J0.
G1 X1.1669 Y2.6406
X1.165 Y2.6403
X1.1634 Y2.6394
X1.1621 Y2.638
X1.1613 Y2.6363
X1.1498 Y2.5951
X1.1426 Y2.5586
G3 X1.1515 Y2.5526 I0.0058 J-0.0011
G1 Z-0.7582 F20.
X1.1523 Y2.5531 Z-0.7627
X1.1541 Y2.5548 Z-0.7665
X1.1553 Y2.5564 Z-0.7678
X1.1561 Y2.5581 Z-0.7691
X1.1568 Y2.5603 Z-0.7696
X1.157 Y2.5625 Z-0.77
G3 X1.1313 I-0.0128 J0. F40.
X1.157 I0.0128 J0.
G2 X1.1756 Y2.5995 I0.046 J0.
G3 X1.1688 Y2.6403 I-0.0138 J0.0187
X1.0625 Y2.5625 I-0.0246 J-0.0778
X1.2258 I0.0816 J0.
X1.1688 Y2.6403 I-0.0816 J0.
G1 X1.1666 Y2.6408 Z-0.7696
X1.1643 Z-0.7691
X1.1624 Y2.6405 Z-0.7678
X1.1606 Y2.6399 Z-0.7665
X1.1584 Y2.6387 Z-0.7627
X1.1577 Y2.6381 Z-0.7582
G0 Z0.2
X4.5108 Y0.6132
G1 Z-0.1807 F20.
G19 G3 Y0.625 Z-0.1925 J0.0118 K0.
G17 G3 X4.4892 I-0.0108 J0. F40.
X4.5816 I0.0462 J0.
X4.4184 I-0.0816 J0.
X4.5816 I0.0816 J0.
X4.5698 Y0.632 I-0.008 J0.
G1 X4.5227 Y0.6062
G2 X4.5108 Y0.6132 I-0.0038 J0.007
G1 Z-0.3732 F20.
G19 G3 Y0.625 Z-0.385 J0.0118 K0.
G17 G3 X4.4892 I-0.0108 J0. F40.
X4.5816 I0.0462 J0.
X4.4184 I-0.0816 J0.
X4.5816 I0.0816 J0.
X4.5698 Y0.632 I-0.008 J0.
G1 X4.5227 Y0.6062
G2 X4.5108 Y0.6132 I-0.0038 J0.007
G1 Z-0.5657 F20.
G19 G3 Y0.625 Z-0.5775 J0.0118 K0.
G17 G3 X4.4892 I-0.0108 J0. F40.
X4.5816 I0.0462 J0.
X4.4184 I-0.0816 J0.
X4.5816 I0.0816 J0.
X4.5698 Y0.632 I-0.008 J0.
G1 X4.5227 Y0.6062
G2 X4.5108 Y0.6132 I-0.0038 J0.007
G1 Z-0.7582 F20.
G19 G3 Y0.625 Z-0.77 J0.0118 K0.
G17 G3 X4.4892 I-0.0108 J0. F40.
X4.5816 I0.0462 J0.
X4.4184 I-0.0816 J0.
X4.5816 I0.0816 J0.
G1 X4.5814 Y0.6272 Z-0.7696
X4.5808 Y0.6294 Z-0.7691
X4.5799 Y0.6311 Z-0.7678
X4.5788 Y0.6327 Z-0.7665
X4.5769 Y0.6344 Z-0.7627
X4.5762 Y0.6349 Z-0.7582
G0 Z0.2
X7.8632 Y2.5526
G1 Z-0.1807 F20.
X7.8639 Y2.5531 Z-0.1852
X7.8658 Y2.5548 Z-0.189
X7.8669 Y2.5564 Z-0.1903
X7.8678 Y2.5581 Z-0.1916
X7.8684 Y2.5603 Z-0.1921
X7.8686 Y2.5625 Z-0.1925
G3 X7.8431 I-0.0128 J0. F40.
X7.8686 I0.0128 J0.
G2 X7.8873 Y2.5995 I0.046 J0.
G3 X7.8804 Y2.6403 I-0.0138 J0.0187
X7.7742 Y2.5625 I-0.0246 J-0.0778
X7.9375 I0.0816 J0.
X7.8804 Y2.6403 I-0.0816 J0.
G1 X7.8785 Y2.6406
X7.8767 Y2.6402
X7.875 Y2.6393
X7.8737 Y2.638
X7.8729 Y2.6362
X7.8614 Y2.5951
X7.8542 Y2.5586
G3 X7.8632 Y2.5526 I0.0058 J-0.0011
G1 Z-0.3732 F20.
X7.8639 Y2.5531 Z-0.3777
X7.8658 Y2.5548 Z-0.3815
X7.8669 Y2.5564 Z-0.3828
X7.8678 Y2.5581 Z-0.3841
X7.8684 Y2.5603 Z-0.3846
X7.8686 Y2.5625 Z-0.385
G3 X7.8431 I-0.0128 J0. F40.
X7.8686 I0.0128 J0.
G2 X7.8873 Y2.5995 I0.046 J0.
G3 X7.8804 Y2.6403 I-0.0138 J0.0187
X7.7742 Y2.5625 I-0.0246 J-0.0778
X7.9375 I0.0816 J0.
X7.8804 Y2.6403 I-0.0816 J0.
G1 X7.8785 Y2.6406
X7.8767 Y2.6402
X7.875 Y2.6393
X7.8737 Y2.638
X7.8729 Y2.6362
X7.8614 Y2.5951
X7.8542 Y2.5586
G3 X7.8632 Y2.5526 I0.0058 J-0.0011
G1 Z-0.5657 F20.
X7.8639 Y2.5531 Z-0.5702
X7.8658 Y2.5548 Z-0.574
X7.8669 Y2.5564 Z-0.5753
X7.8678 Y2.5581 Z-0.5766
X7.8684 Y2.5603 Z-0.5771
X7.8686 Y2.5625 Z-0.5775
G3 X7.8431 I-0.0128 J0. F40.
X7.8686 I0.0128 J0.
G2 X7.8873 Y2.5995 I0.046 J0.
G3 X7.8804 Y2.6403 I-0.0138 J0.0187
X7.7742 Y2.5625 I-0.0246 J-0.0778
X7.9375 I0.0816 J0.
X7.8804 Y2.6403 I-0.0816 J0.
G1 X7.8785 Y2.6406
X7.8767 Y2.6402
X7.875 Y2.6393
X7.8737 Y2.638
X7.8729 Y2.6362
X7.8614 Y2.5951
X7.8542 Y2.5586
G3 X7.8632 Y2.5526 I0.0058 J-0.0011
G1 Z-0.7582 F20.
X7.8639 Y2.5531 Z-0.7627
X7.8658 Y2.5548 Z-0.7665
X7.8669 Y2.5564 Z-0.7678
X7.8678 Y2.5581 Z-0.7691
X7.8684 Y2.5603 Z-0.7696
X7.8686 Y2.5625 Z-0.77
G3 X7.8431 I-0.0128 J0. F40.
X7.8686 I0.0128 J0.
G2 X7.8873 Y2.5995 I0.046 J0.
G3 X7.8804 Y2.6403 I-0.0138 J0.0187
X7.7742 Y2.5625 I-0.0246 J-0.0778
X7.9375 I0.0816 J0.
X7.8804 Y2.6403 I-0.0816 J0.
G1 X7.8782 Y2.6408 Z-0.7696
X7.8759 Z-0.7691
X7.8741 Y2.6405 Z-0.7678
X7.8722 Y2.6399 Z-0.7665
X7.87 Y2.6387 Z-0.7627
X7.8693 Y2.6381 Z-0.7582
G0 Z0.2
X7.8594 Y6.4494
G1 Z-0.1807 F20.
X7.8585 Y6.4497 Z-0.1852
X7.856 Y6.4501 Z-0.189
X7.8541 Z-0.1903
X7.8522 Y6.4497 Z-0.1916
X7.8501 Y6.4489 Z-0.1921
X7.8482 Y6.4478 Z-0.1925
G3 X7.8635 Y6.4273 I0.0077 J-0.0102 F40.
X7.8482 Y6.4478 I-0.0077 J0.0102
G2 X7.8074 Y6.4405 I-0.0276 J0.0368
G3 X7.7788 Y6.4105 I-0.0066 J-0.0223
X7.9375 Y6.4375 I0.077 J0.027
X7.7742 I-0.0816 J0.
X7.7788 Y6.4105 I0.0816 J0.
G1 X7.7797 Y6.4088
X7.7811 Y6.4076
X7.7828 Y6.4068
X7.7847 Y6.4066
X7.7866 Y6.407
X7.8264 Y6.4225
X7.8599 Y6.4385
G3 X7.8594 Y6.4494 I-0.0026 J0.0053
G1 Z-0.3732 F20.
X7.8585 Y6.4497 Z-0.3777
X7.856 Y6.4501 Z-0.3815
X7.8541 Z-0.3828
X7.8522 Y6.4497 Z-0.3841
X7.8501 Y6.4489 Z-0.3846
X7.8482 Y6.4478 Z-0.385
G3 X7.8635 Y6.4273 I0.0077 J-0.0102 F40.
X7.8482 Y6.4478 I-0.0077 J0.0102
G2 X7.8074 Y6.4405 I-0.0276 J0.0368
G3 X7.7788 Y6.4105 I-0.0066 J-0.0223
X7.9375 Y6.4375 I0.077 J0.027
X7.7742 I-0.0816 J0.
X7.7788 Y6.4105 I0.0816 J0.
G1 X7.7797 Y6.4088
X7.7811 Y6.4076
X7.7828 Y6.4068
X7.7847 Y6.4066
X7.7866 Y6.407
X7.8264 Y6.4225
X7.8599 Y6.4385
G3 X7.8594 Y6.4494 I-0.0026 J0.0053
G1 Z-0.5657 F20.
X7.8585 Y6.4497 Z-0.5702
X7.856 Y6.4501 Z-0.574
X7.8541 Z-0.5753
X7.8522 Y6.4497 Z-0.5766
X7.8501 Y6.4489 Z-0.5771
X7.8482 Y6.4478 Z-0.5775
G3 X7.8635 Y6.4273 I0.0077 J-0.0102 F40.
X7.8482 Y6.4478 I-0.0077 J0.0102
G2 X7.8074 Y6.4405 I-0.0276 J0.0368
G3 X7.7788 Y6.4105 I-0.0066 J-0.0223
X7.9375 Y6.4375 I0.077 J0.027
X7.7742 I-0.0816 J0.
X7.7788 Y6.4105 I0.0816 J0.
G1 X7.7797 Y6.4088
X7.7811 Y6.4076
X7.7828 Y6.4068
X7.7847 Y6.4066
X7.7866 Y6.407
X7.8264 Y6.4225
X7.8599 Y6.4385
G3 X7.8594 Y6.4494 I-0.0026 J0.0053
G1 Z-0.7582 F20.
X7.8585 Y6.4497 Z-0.7627
X7.856 Y6.4501 Z-0.7665
X7.8541 Z-0.7678
X7.8522 Y6.4497 Z-0.7691
X7.8501 Y6.4489 Z-0.7696
X7.8482 Y6.4478 Z-0.77
G3 X7.8635 Y6.4273 I0.0077 J-0.0102 F40.
X7.8482 Y6.4478 I-0.0077 J0.0102
G2 X7.8074 Y6.4405 I-0.0276 J0.0368
G3 X7.7788 Y6.4105 I-0.0066 J-0.0223
X7.9375 Y6.4375 I0.077 J0.027
X7.7742 I-0.0816 J0.
X7.7788 Y6.4105 I0.0816 J0.
G1 X7.7798 Y6.4085 Z-0.7696
X7.7811 Y6.4066 Z-0.7691
X7.7825 Y6.4053 Z-0.7678
X7.7841 Y6.4042 Z-0.7665
X7.7864 Y6.4032 Z-0.7627
X7.7873 Y6.4029 Z-0.7582
G0 Z0.2
X4.5108 Y8.3632
G1 Z-0.1807 F20.
G19 G3 Y8.375 Z-0.1925 J0.0118 K0.
G17 G3 X4.4892 I-0.0108 J0. F40.
X4.5816 I0.0462 J0.
X4.4184 I-0.0816 J0.
X4.5816 I0.0816 J0.
X4.5698 Y8.382 I-0.008 J0.
G1 X4.5227 Y8.3562
G2 X4.5108 Y8.3632 I-0.0038 J0.007
G1 Z-0.3732 F20.
G19 G3 Y8.375 Z-0.385 J0.0118 K0.
G17 G3 X4.4892 I-0.0108 J0. F40.
X4.5816 I0.0462 J0.
X4.4184 I-0.0816 J0.
X4.5816 I0.0816 J0.
X4.5698 Y8.382 I-0.008 J0.
G1 X4.5227 Y8.3562
G2 X4.5108 Y8.3632 I-0.0038 J0.007
G1 Z-0.5657 F20.
G19 G3 Y8.375 Z-0.5775 J0.0118 K0.
G17 G3 X4.4892 I-0.0108 J0. F40.
X4.5816 I0.0462 J0.
X4.4184 I-0.0816 J0.
X4.5816 I0.0816 J0.
X4.5698 Y8.382 I-0.008 J0.
G1 X4.5227 Y8.3562
G2 X4.5108 Y8.3632 I-0.0038 J0.007
G1 Z-0.7582 F20.
G19 G3 Y8.375 Z-0.77 J0.0118 K0.
G17 G3 X4.4892 I-0.0108 J0. F40.
X4.5816 I0.0462 J0.
X4.4184 I-0.0816 J0.
X4.5816 I0.0816 J0.
G1 X4.5814 Y8.3772 Z-0.7696
X4.5808 Y8.3794 Z-0.7691
X4.5799 Y8.3811 Z-0.7678
X4.5788 Y8.3827 Z-0.7665
X4.5769 Y8.3844 Z-0.7627
X4.5762 Y8.3849 Z-0.7582
G0 Z0.6

M9
M30
