(TEST CODE FOR 1IN DADO)
(T1  D=0.25 CR=0. - ZMIN=-0.2 - FLAT END MILL)
G90 G94 G91.1 G40 G49 G17
G20

(2D POCKET1)
M5
T1 M6
S15000 M3
G54
M8
G0 X1.3062 Y-0.2595
G43 Z0.6 H1
Z0.2
G1 Z-0.075 F60.
G19 G3 Y-0.2345 Z-0.1 J0.025 K0.
G1 Y-0.121
Y18.1209
G17 G3 X1.2937 Y18.1334 I-0.0125 J0.
G1 X1.2063 Y18.1335
G3 X1.1938 Y18.121 I0. J-0.0125
G1 Y-0.1209
G3 X1.2063 Y-0.1334 I0.0125 J0.
G1 X1.4083 Y-0.1333
G3 X1.4207 Y-0.1208 I0. J0.0125
G1 Y18.1206
G3 X1.4083 Y18.1331 I-0.0125 J0.
G1 X1.0918 Y18.1333
G3 X1.0793 Y18.1208 I0. J-0.0125
G1 Y-0.1206
G3 X1.0918 Y-0.1331 I0.0125 J0.
G1 X1.6125 Y-0.1332
G3 X1.625 Y-0.1207 I0. J0.0125
G1 Y18.
Y18.1206
G3 X1.6125 Y18.1331 I-0.0125 J0.
G1 X0.8875 Y18.1332
G3 X0.875 Y18.1207 I0. J-0.0125
G1 Y0.
Y-0.1206
G3 X0.8859 Y-0.133 I0.0125 J0.
G1 X1.2921 Y-0.1844
G3 X1.3062 Y-0.172 I0.0016 J0.0124
G19 G2 Y-0.147 Z-0.125 J0. K-0.025
G1 Z-0.175
G3 Y-0.122 Z-0.2 J0.025 K0.
G1 Y-0.121
Y18.1209
G17 G3 X1.2937 Y18.1334 I-0.0125 J0.
G1 X1.2063 Y18.1335
G3 X1.1938 Y18.121 I0. J-0.0125
G1 Y-0.1209
G3 X1.2063 Y-0.1334 I0.0125 J0.
G1 X1.4083 Y-0.1333
G3 X1.4207 Y-0.1208 I0. J0.0125
G1 Y18.1206
G3 X1.4083 Y18.1331 I-0.0125 J0.
G1 X1.0918 Y18.1333
G3 X1.0793 Y18.1208 I0. J-0.0125
G1 Y-0.1206
G3 X1.0918 Y-0.1331 I0.0125 J0.
G1 X1.6125 Y-0.1332
G3 X1.625 Y-0.1207 I0. J0.0125
G1 Y18.
Y18.1206
G3 X1.6125 Y18.1331 I-0.0125 J0.
G1 X0.8875 Y18.1332
G3 X0.875 Y18.1207 I0. J-0.0125
G1 Y0.
Y-0.1206
X0.8753 Y-0.1245
X0.8927 Y-0.2344
X0.8933 Y-0.2383 Z-0.1997
X0.8939 Y-0.2421 Z-0.1988
X0.8945 Y-0.2457 Z-0.1973
X0.895 Y-0.249 Z-0.1952
X0.8955 Y-0.2519 Z-0.1927
X0.8959 Y-0.2544 Z-0.1897
X0.8962 Y-0.2564 Z-0.1863
X0.8964 Y-0.2579 Z-0.1827
X0.8966 Y-0.2588 Z-0.1789
Y-0.2591 Z-0.175
G0 Z0.6

M9
M30
