(TEST CODE FOR 1IN DADO)
(T1  D=0.25 CR=0. - ZMIN=-0.2 - FLAT END MILL)
G90 G94 G91.1 G40 G49 G17
G20

(2D POCKET1)
M5
T1 M6
S15000 M3
G54
M8
G0 X1.1957 Y18.1602
G43 Z0.6 H1
Z0.2
G1 Z-0.175 F60.
Y18.1599 Z-0.1789
Y18.1589 Z-0.1827
Y18.1574 Z-0.1863
Y18.1554 Z-0.1897
Y18.1528 Z-0.1927
Y18.1499 Z-0.1952
Y18.1465 Z-0.1973
Y18.1429 Z-0.1988
Y18.1391 Z-0.1997
Y18.1352 Z-0.2
Y18.1207
X1.1966 Y0.
Y-0.1206
Y-0.1216
Y-0.1255 Z-0.1997
Y-0.1293 Z-0.1988
Y-0.1329 Z-0.1973
Y-0.1362 Z-0.1952
Y-0.1392 Z-0.1927
Y-0.1418 Z-0.1897
Y-0.1438 Z-0.1863
Y-0.1453 Z-0.1827
Y-0.1462 Z-0.1789
Y-0.1466 Z-0.175
G0 Z0.2
X1.0801 Y18.16
G1 Z-0.175 F60.
Y18.1597 Z-0.1789
Y18.1588 Z-0.1827
Y18.1573 Z-0.1863
Y18.1553 Z-0.1897
Y18.1527 Z-0.1927
Y18.1497 Z-0.1952
Y18.1464 Z-0.1973
Y18.1428 Z-0.1988
Y18.1389 Z-0.1997
Y18.135 Z-0.2
Y18.1205
X1.0811 Y0.
X1.081 Y-0.1206
Y-0.1216
Y-0.1255 Z-0.1997
Y-0.1293 Z-0.1988
Y-0.1329 Z-0.1973
Y-0.1362 Z-0.1952
Y-0.1392 Z-0.1927
Y-0.1418 Z-0.1897
Y-0.1438 Z-0.1863
Y-0.1453 Z-0.1827
Y-0.1462 Z-0.1789
Y-0.1466 Z-0.175
G0 Z0.2
X0.8809 Y18.1601
G1 Z-0.1775 F60.
Y18.1598 Z-0.181
X0.8807 Y18.159 Z-0.1845
X0.8805 Y18.1577 Z-0.1877
X0.8802 Y18.1559 Z-0.1907
X0.8799 Y18.1536 Z-0.1934
X0.8794 Y18.151 Z-0.1957
X0.879 Y18.148 Z-0.1975
X0.8785 Y18.1448 Z-0.1989
X0.8779 Y18.1414 Z-0.1997
X0.8774 Y18.1379 Z-0.2
X0.8753 Y18.1248
X0.875 Y18.1209
Y0.
Y-0.1206
X0.8753 Y-0.1245
X0.877 Y-0.1351
X0.8776 Y-0.139 Z-0.1997
X0.8782 Y-0.1427 Z-0.1988
X0.8788 Y-0.1463 Z-0.1973
X0.8793 Y-0.1496 Z-0.1952
X0.8798 Y-0.1526 Z-0.1927
X0.8802 Y-0.1551 Z-0.1897
X0.8805 Y-0.1571 Z-0.1863
X0.8807 Y-0.1586 Z-0.1827
X0.8809 Y-0.1595 Z-0.1789
Y-0.1598 Z-0.175
G0 Z0.2
X1.3082 Y-0.1605
G1 Z-0.175 F60.
G19 G3 Y-0.1355 Z-0.2 J0.025 K0.
G1 Y-0.1207
Y18.1208
Y18.1217
G3 Y18.1467 Z-0.175 J0. K0.025
G0 Z0.2
X1.4237 Y-0.1606
G1 Z-0.175 F60.
G3 Y-0.1356 Z-0.2 J0.025 K0.
G1 Y-0.1205
Y18.1209
Y18.1219
G3 Y18.1469 Z-0.175 J0. K0.025
G0 Z0.2
X1.6221 Y-0.1604
G1 Z-0.1775 F60.
Y-0.1601 Z-0.181
X1.6222 Y-0.1593 Z-0.1845
X1.6224 Y-0.158 Z-0.1877
X1.6227 Y-0.1562 Z-0.1907
X1.6231 Y-0.1539 Z-0.1934
X1.6235 Y-0.1513 Z-0.1957
X1.624 Y-0.1483 Z-0.1975
X1.6245 Y-0.1451 Z-0.1989
X1.625 Y-0.1417 Z-0.1997
X1.6256 Y-0.1382 Z-0.2
X1.6277 Y-0.1248
X1.628 Y-0.1209
Y18.
Y18.1206
X1.6277 Y18.1245
X1.626 Y18.1351
X1.6254 Y18.139 Z-0.1997
X1.6248 Y18.1427 Z-0.1988
X1.6242 Y18.1463 Z-0.1973
X1.6237 Y18.1496 Z-0.1952
X1.6232 Y18.1526 Z-0.1927
X1.6228 Y18.1551 Z-0.1897
X1.6225 Y18.1571 Z-0.1863
X1.6223 Y18.1586 Z-0.1827
X1.6221 Y18.1595 Z-0.1789
Y18.1598 Z-0.175
G0 Z0.6
G17

M9
M30
