(TEST CODE FOR 1IN DADO)
(T1  D=0.25 CR=0. - ZMIN=-0.2 - FLAT END MILL)
G90 G94 G91.1 G40 G49 G17
G20

(2D POCKET1)
M5
T1 M6
S15000 M3
G54
M8
G0 X1.3067 Y-0.2595
G43 Z0.6 H1
Z0.2
G1 Z-0.075 F60.
Y-0.2592 Z-0.0789
Y-0.2583 Z-0.0827
Y-0.2568 Z-0.0863
Y-0.2547 Z-0.0897
Y-0.2522 Z-0.0927
Y-0.2492 Z-0.0952
Y-0.2458 Z-0.0973
Y-0.2422 Z-0.0988
Y-0.2384 Z-0.0997
Y-0.2345 Z-0.1
Y-0.1209
X1.3057 Y18.
X1.3058 Y18.1206
G3 X1.2933 Y18.1331 I-0.0125 J0.
G1 X1.207 Y18.1334
G3 X1.1945 Y18.1209 I-0.0001 J-0.0125
G1 Y-0.121
G3 X1.207 Y-0.1335 I0.0125 J0.
G1 X1.4102 Y-0.1334
G3 X1.4227 Y-0.1209 I0. J0.0125
G1 Y18.121
G3 X1.4102 Y18.1335 I-0.0125 J0.
G1 X1.0918 Y18.1334
G3 X1.0793 Y18.1209 I0. J-0.0125
G1 Y-0.121
G3 X1.0918 Y-0.1335 I0.0125 J0.
G1 X1.6145 Y-0.1333
G3 X1.627 Y-0.1208 I0. J0.0125
G1 Y18.
Y18.1206
G3 X1.6145 Y18.1331 I-0.0125 J0.
G1 X0.8875 Y18.1333
G3 X0.875 Y18.1208 I0. J-0.0125
G1 Y0.
Y-0.1206
G3 X0.8859 Y-0.133 I0.0125 J0.
G1 X1.2926 Y-0.1843
G3 X1.3067 Y-0.1719 I0.0016 J0.0124
G1 Y-0.168 Z-0.1003
Y-0.1642 Z-0.1012
Y-0.1606 Z-0.1027
Y-0.1572 Z-0.1048
Y-0.1542 Z-0.1073
Y-0.1517 Z-0.1103
Y-0.1496 Z-0.1137
Y-0.1481 Z-0.1173
Y-0.1472 Z-0.1211
Y-0.1469 Z-0.125
Z-0.175
Y-0.1466 Z-0.1789
Y-0.1457 Z-0.1827
Y-0.1442 Z-0.1863
Y-0.1421 Z-0.1897
Y-0.1396 Z-0.1927
Y-0.1366 Z-0.1952
Y-0.1333 Z-0.1973
Y-0.1296 Z-0.1988
Y-0.1258 Z-0.1997
Y-0.1219 Z-0.2
Y-0.1209
X1.3057 Y18.
X1.3058 Y18.1206
G3 X1.2933 Y18.1331 I-0.0125 J0.
G1 X1.207 Y18.1334
G3 X1.1945 Y18.1209 I-0.0001 J-0.0125
G1 Y-0.121
G3 X1.207 Y-0.1335 I0.0125 J0.
G1 X1.4102 Y-0.1334
G3 X1.4227 Y-0.1209 I0. J0.0125
G1 Y18.121
G3 X1.4102 Y18.1335 I-0.0125 J0.
G1 X1.0918 Y18.1334
G3 X1.0793 Y18.1209 I0. J-0.0125
G1 Y-0.121
G3 X1.0918 Y-0.1335 I0.0125 J0.
G1 X1.6145 Y-0.1333
G3 X1.627 Y-0.1208 I0. J0.0125
G1 Y18.
Y18.1206
G3 X1.6145 Y18.1331 I-0.0125 J0.
G1 X0.8875 Y18.1333
G3 X0.875 Y18.1208 I0. J-0.0125
G1 Y0.
Y-0.1206
X0.8753 Y-0.1245
X0.8927 Y-0.2344
X0.8933 Y-0.2383 Z-0.1997
X0.8939 Y-0.2421 Z-0.1988
X0.8945 Y-0.2457 Z-0.1973
X0.895 Y-0.249 Z-0.1952
X0.8955 Y-0.2519 Z-0.1927
X0.8959 Y-0.2544 Z-0.1897
X0.8962 Y-0.2564 Z-0.1863
X0.8964 Y-0.2579 Z-0.1827
X0.8966 Y-0.2588 Z-0.1789
Y-0.2591 Z-0.175
G0 Z0.6

M9
M30
