(X4 2.25 WIDE POCKET)
(T1  D=0.25 CR=0. - ZMIN=-0.348 - FLAT END MILL)
G90 G94 G91.1 G40 G49 G17
G20

(2D POCKET1)
M5
T1 M6
S15000 M3
g4 p5
G54
M8
G0 X1.2003 Y1.8211
G43 Z0.6 H1
Z0.2
G1 Z-0.175 F40.
Y1.8208 Z-0.1789
Y1.8199 Z-0.1827
Y1.8184 Z-0.1863
Y1.8163 Z-0.1897
Y1.8138 Z-0.1927
X1.2002 Y1.8108 Z-0.1952
Y1.8075 Z-0.1973
Y1.8038 Z-0.1988
Y1.8 Z-0.1997
Y1.7961 Z-0.2
X1.2 Y1.6206
X1.1999 Y1.5
X1.2008 Y-0.121
G2 X1.1883 Y-0.1335 I-0.0125 J0.
G1 X1.0688
G2 X1.0563 Y-0.121 I0. J0.0125
G1 Y1.621
G3 X1.0438 Y1.6335 I-0.0125 J0.
G1 X0.9208
G3 X0.9083 Y1.621 I0. J-0.0125
G1 Y-0.121
G2 X0.8958 Y-0.1335 I-0.0125 J0.
G1 X0.7167 Y-0.1333
G2 X0.7043 Y-0.1208 I0. J0.0125
G1 Y1.6206
G3 X0.6917 Y1.6331 I-0.0125 J0.
G1 X0.5125 Y1.633
G3 X0.5 Y1.6205 I0. J-0.0125
G1 Y-0.1206
G3 X0.5125 Y-0.1331 I0.0125 J0.
G1 X1.3372 Y-0.1335
G3 X1.3497 Y-0.121 I0. J0.0125
G1 Y1.621
G2 X1.3622 Y1.6335 I0.0125 J0.
G1 X1.5413 Y1.6333
G2 X1.5537 Y1.6208 I0. J-0.0125
G1 Y-0.1206
G3 X1.5663 Y-0.1331 I0.0125 J0.
G1 X1.7455 Y-0.133
G3 X1.758 Y-0.1205 I0. J0.0125
G1 Y1.6206
G3 X1.7467 Y1.633 I-0.0125 J0.
G1 X1.2138 Y1.684
G3 X1.2001 Y1.6716 I-0.0012 J-0.0124
G1 Y1.6676 Z-0.2003
Y1.6638 Z-0.2012
Y1.6602 Z-0.2027
Y1.6569 Z-0.2048
Y1.6539 Z-0.2073
Y1.6513 Z-0.2103
Y1.6493 Z-0.2137
Y1.6478 Z-0.2173
Y1.6469 Z-0.2211
Y1.6466 Z-0.225
Z-0.323
Y1.6462 Z-0.3269
Y1.6453 Z-0.3307
Y1.6438 Z-0.3343
Y1.6418 Z-0.3377
Y1.6392 Z-0.3407
X1.2 Y1.6362 Z-0.3432
Y1.6329 Z-0.3453
Y1.6293 Z-0.3468
Y1.6255 Z-0.3477
Y1.6216 Z-0.348
Y1.6206
X1.1999 Y1.5
X1.2008 Y-0.121
G2 X1.1883 Y-0.1335 I-0.0125 J0.
G1 X1.0688
G2 X1.0563 Y-0.121 I0. J0.0125
G1 Y1.621
G3 X1.0438 Y1.6335 I-0.0125 J0.
G1 X0.9208
G3 X0.9083 Y1.621 I0. J-0.0125
G1 Y-0.121
G2 X0.8958 Y-0.1335 I-0.0125 J0.
G1 X0.7167 Y-0.1333
G2 X0.7043 Y-0.1208 I0. J0.0125
G1 Y1.6206
G3 X0.6917 Y1.6331 I-0.0125 J0.
G1 X0.5125 Y1.633
G3 X0.5 Y1.6205 I0. J-0.0125
G1 Y-0.1206
G3 X0.5125 Y-0.1331 I0.0125 J0.
G1 X1.3372 Y-0.1335
G3 X1.3497 Y-0.121 I0. J0.0125
G1 Y1.621
G2 X1.3622 Y1.6335 I0.0125 J0.
G1 X1.5413 Y1.6333
G2 X1.5537 Y1.6208 I0. J-0.0125
G1 Y-0.1206
G3 X1.5663 Y-0.1331 I0.0125 J0.
G1 X1.7455 Y-0.133
G3 X1.758 Y-0.1205 I0. J0.0125
G1 Y1.6206
X1.7577 Y1.6245
X1.7381 Y1.7479
X1.7375 Y1.7518 Z-0.3477
X1.7369 Y1.7556 Z-0.3468
X1.7364 Y1.7592 Z-0.3453
X1.7358 Y1.7625 Z-0.3432
X1.7354 Y1.7654 Z-0.3407
X1.735 Y1.7679 Z-0.3377
X1.7347 Y1.7699 Z-0.3343
X1.7344 Y1.7714 Z-0.3307
X1.7343 Y1.7723 Z-0.3269
X1.7342 Y1.7726 Z-0.323
G0 Z0.6

M9
M30
