(X8 BELLYPAN MOUNTING HOLES 2)
(T3  D=0.118 CR=0. - ZMIN=-0.25 - FLAT END MILL)
G90 G94 G91.1 G40 G49 G17
G20

(2D POCKET3)
M5
T3 M6
S15000 M3
g4 p5
G54
M8
G0 X11.7599 Y11.2134
G43 Z0.6 H3
Z0.2
G1 Z0.1 F40.
Z-0.0282 F20.
X11.7594 Y11.2141 Z-0.0327
X11.7577 Y11.216 Z-0.0365
X11.7561 Y11.2171 Z-0.0378
X11.7544 Y11.2179 Z-0.0391
X11.7522 Y11.2186 Z-0.0396
X11.75 Y11.2188 Z-0.04
G3 Y11.1778 I0. J-0.0205 F40.
Y11.2188 I0. J0.0205
G1 X11.7488 Y11.2185
X11.7478 Y11.2178
X11.7473 Y11.2167
X11.7472 Y11.2154
X11.7477 Y11.2143
X11.7486 Y11.2135
X11.7562 Y11.2094
X11.7574 Y11.209
X11.7586 Y11.2092
X11.7596 Y11.2099
X11.7602 Y11.211
X11.7604 Y11.2122
X11.7599 Y11.2134
Z-0.0682 F20.
X11.7594 Y11.2141 Z-0.0727
X11.7577 Y11.216 Z-0.0765
X11.7561 Y11.2171 Z-0.0778
X11.7544 Y11.2179 Z-0.0791
X11.7522 Y11.2186 Z-0.0796
X11.75 Y11.2188 Z-0.08
G3 Y11.1778 I0. J-0.0205 F40.
Y11.2188 I0. J0.0205
G1 X11.7488 Y11.2185
X11.7478 Y11.2178
X11.7473 Y11.2167
X11.7472 Y11.2154
X11.7477 Y11.2143
X11.7486 Y11.2135
X11.7562 Y11.2094
X11.7574 Y11.209
X11.7586 Y11.2092
X11.7596 Y11.2099
X11.7602 Y11.211
X11.7604 Y11.2122
X11.7599 Y11.2134
Z-0.1082 F20.
X11.7594 Y11.2141 Z-0.1127
X11.7577 Y11.216 Z-0.1165
X11.7561 Y11.2171 Z-0.1178
X11.7544 Y11.2179 Z-0.1191
X11.7522 Y11.2186 Z-0.1196
X11.75 Y11.2188 Z-0.12
G3 Y11.1778 I0. J-0.0205 F40.
Y11.2188 I0. J0.0205
G1 X11.7488 Y11.2185
X11.7478 Y11.2178
X11.7473 Y11.2167
X11.7472 Y11.2154
X11.7477 Y11.2143
X11.7486 Y11.2135
X11.7562 Y11.2094
X11.7574 Y11.209
X11.7586 Y11.2092
X11.7596 Y11.2099
X11.7602 Y11.211
X11.7604 Y11.2122
X11.7599 Y11.2134
Z-0.1482 F20.
X11.7594 Y11.2141 Z-0.1527
X11.7577 Y11.216 Z-0.1565
X11.7561 Y11.2171 Z-0.1578
X11.7544 Y11.2179 Z-0.1591
X11.7522 Y11.2186 Z-0.1596
X11.75 Y11.2188 Z-0.16
G3 Y11.1778 I0. J-0.0205 F40.
Y11.2188 I0. J0.0205
G1 X11.7488 Y11.2185
X11.7478 Y11.2178
X11.7473 Y11.2167
X11.7472 Y11.2154
X11.7477 Y11.2143
X11.7486 Y11.2135
X11.7562 Y11.2094
X11.7574 Y11.209
X11.7586 Y11.2092
X11.7596 Y11.2099
X11.7602 Y11.211
X11.7604 Y11.2122
X11.7599 Y11.2134
Z-0.1882 F20.
X11.7594 Y11.2141 Z-0.1927
X11.7577 Y11.216 Z-0.1965
X11.7561 Y11.2171 Z-0.1978
X11.7544 Y11.2179 Z-0.1991
X11.7522 Y11.2186 Z-0.1996
X11.75 Y11.2188 Z-0.2
G3 Y11.1778 I0. J-0.0205 F40.
Y11.2188 I0. J0.0205
G1 X11.7488 Y11.2185
X11.7478 Y11.2178
X11.7473 Y11.2167
X11.7472 Y11.2154
X11.7477 Y11.2143
X11.7486 Y11.2135
X11.7562 Y11.2094
X11.7574 Y11.209
X11.7586 Y11.2092
X11.7596 Y11.2099
X11.7602 Y11.211
X11.7604 Y11.2122
X11.7599 Y11.2134
Z-0.2132 F20.
X11.7594 Y11.2141 Z-0.2177
X11.7577 Y11.216 Z-0.2215
X11.7561 Y11.2171 Z-0.2228
X11.7544 Y11.2179 Z-0.2241
X11.7522 Y11.2186 Z-0.2246
X11.75 Y11.2188 Z-0.225
G3 Y11.1778 I0. J-0.0205 F40.
Y11.2188 I0. J0.0205
G1 X11.7488 Y11.2185
X11.7478 Y11.2178
X11.7473 Y11.2167
X11.7472 Y11.2154
X11.7477 Y11.2143
X11.7486 Y11.2135
X11.7562 Y11.2094
X11.7574 Y11.209
X11.7586 Y11.2092
X11.7596 Y11.2099
X11.7602 Y11.211
X11.7604 Y11.2122
X11.7599 Y11.2134
Z-0.2382 F20.
X11.7594 Y11.2141 Z-0.2427
X11.7577 Y11.216 Z-0.2465
X11.7561 Y11.2171 Z-0.2478
X11.7544 Y11.2179 Z-0.2491
X11.7522 Y11.2186 Z-0.2496
X11.75 Y11.2188 Z-0.25
G3 Y11.1778 I0. J-0.0205 F40.
Y11.2188 I0. J0.0205
G1 X11.7478 Y11.2186 Z-0.2496
X11.7456 Y11.2179 Z-0.2491
X11.7439 Y11.2171 Z-0.2478
X11.7423 Y11.216 Z-0.2465
X11.7406 Y11.2141 Z-0.2427
X11.7401 Y11.2134 Z-0.2382
G0 Z0.2
X13.416 Y11.9943
G1 Z0.1 F20.
Z-0.0282
X13.4157 Y11.9951 Z-0.0327
X13.4152 Y11.9963 Z-0.0346
X13.4145 Y11.9974 Z-0.0365
X13.4132 Y11.9988 Z-0.0378
X13.4116 Y11.9999 Z-0.0391
X13.4095 Y12.0007 Z-0.0396
X13.4073 Y12.001 Z-0.04
G3 X13.3983 Y11.992 I0. J-0.009 F40.
X13.4163 I0.009 J0.
X13.4073 Y12.001 I-0.009 J0.
G1 X13.4062 Y12.0007
X13.4052 Y12.0001
X13.4047 Y11.9991
X13.4045 Y11.998
X13.4049 Y11.9969
X13.4056 Y11.996
X13.4116 Y11.9914
X13.4126 Y11.9909
X13.4138
X13.4148 Y11.9913
X13.4156 Y11.9921
X13.416 Y11.9931
Y11.9943
Z-0.0682 F20.
X13.4157 Y11.9951 Z-0.0727
X13.4152 Y11.9963 Z-0.0746
X13.4145 Y11.9974 Z-0.0765
X13.4132 Y11.9988 Z-0.0778
X13.4116 Y11.9999 Z-0.0791
X13.4095 Y12.0007 Z-0.0796
X13.4073 Y12.001 Z-0.08
G3 X13.3983 Y11.992 I0. J-0.009 F40.
X13.4163 I0.009 J0.
X13.4073 Y12.001 I-0.009 J0.
G1 X13.4062 Y12.0007
X13.4052 Y12.0001
X13.4047 Y11.9991
X13.4045 Y11.998
X13.4049 Y11.9969
X13.4056 Y11.996
X13.4116 Y11.9914
X13.4126 Y11.9909
X13.4138
X13.4148 Y11.9913
X13.4156 Y11.9921
X13.416 Y11.9931
Y11.9943
Z-0.1082 F20.
X13.4157 Y11.9951 Z-0.1127
X13.4152 Y11.9963 Z-0.1146
X13.4145 Y11.9974 Z-0.1165
X13.4132 Y11.9988 Z-0.1178
X13.4116 Y11.9999 Z-0.1191
X13.4095 Y12.0007 Z-0.1196
X13.4073 Y12.001 Z-0.12
G3 X13.3983 Y11.992 I0. J-0.009 F40.
X13.4163 I0.009 J0.
X13.4073 Y12.001 I-0.009 J0.
G1 X13.4062 Y12.0007
X13.4052 Y12.0001
X13.4047 Y11.9991
X13.4045 Y11.998
X13.4049 Y11.9969
X13.4056 Y11.996
X13.4116 Y11.9914
X13.4126 Y11.9909
X13.4138
X13.4148 Y11.9913
X13.4156 Y11.9921
X13.416 Y11.9931
Y11.9943
Z-0.1482 F20.
X13.4157 Y11.9951 Z-0.1527
X13.4152 Y11.9963 Z-0.1546
X13.4145 Y11.9974 Z-0.1565
X13.4132 Y11.9988 Z-0.1578
X13.4116 Y11.9999 Z-0.1591
X13.4095 Y12.0007 Z-0.1596
X13.4073 Y12.001 Z-0.16
G3 X13.3983 Y11.992 I0. J-0.009 F40.
X13.4163 I0.009 J0.
X13.4073 Y12.001 I-0.009 J0.
G1 X13.4062 Y12.0007
X13.4052 Y12.0001
X13.4047 Y11.9991
X13.4045 Y11.998
X13.4049 Y11.9969
X13.4056 Y11.996
X13.4116 Y11.9914
X13.4126 Y11.9909
X13.4138
X13.4148 Y11.9913
X13.4156 Y11.9921
X13.416 Y11.9931
Y11.9943
Z-0.1882 F20.
X13.4157 Y11.9951 Z-0.1927
X13.4152 Y11.9963 Z-0.1946
X13.4145 Y11.9974 Z-0.1965
X13.4132 Y11.9988 Z-0.1978
X13.4116 Y11.9999 Z-0.1991
X13.4095 Y12.0007 Z-0.1996
X13.4073 Y12.001 Z-0.2
G3 X13.3983 Y11.992 I0. J-0.009 F40.
X13.4163 I0.009 J0.
X13.4073 Y12.001 I-0.009 J0.
G1 X13.4062 Y12.0007
X13.4052 Y12.0001
X13.4047 Y11.9991
X13.4045 Y11.998
X13.4049 Y11.9969
X13.4056 Y11.996
X13.4116 Y11.9914
X13.4126 Y11.9909
X13.4138
X13.4148 Y11.9913
X13.4156 Y11.9921
X13.416 Y11.9931
Y11.9943
Z-0.2132 F20.
X13.4157 Y11.9951 Z-0.2177
X13.4152 Y11.9963 Z-0.2196
X13.4145 Y11.9974 Z-0.2215
X13.4132 Y11.9988 Z-0.2228
X13.4116 Y11.9999 Z-0.2241
X13.4095 Y12.0007 Z-0.2246
X13.4073 Y12.001 Z-0.225
G3 X13.3983 Y11.992 I0. J-0.009 F40.
X13.4163 I0.009 J0.
X13.4073 Y12.001 I-0.009 J0.
G1 X13.4062 Y12.0007
X13.4052 Y12.0001
X13.4047 Y11.9991
X13.4045 Y11.998
X13.4049 Y11.9969
X13.4056 Y11.996
X13.4116 Y11.9914
X13.4126 Y11.9909
X13.4138
X13.4148 Y11.9913
X13.4156 Y11.9921
X13.416 Y11.9931
Y11.9943
Z-0.2382 F20.
X13.4157 Y11.9951 Z-0.2427
X13.4152 Y11.9963 Z-0.2446
X13.4145 Y11.9974 Z-0.2465
X13.4132 Y11.9988 Z-0.2478
X13.4116 Y11.9999 Z-0.2491
X13.4095 Y12.0007 Z-0.2496
X13.4073 Y12.001 Z-0.25
G3 X13.3983 Y11.992 I0. J-0.009 F40.
X13.4163 I0.009 J0.
X13.4073 Y12.001 I-0.009 J0.
G1 X13.405 Y12.0007 Z-0.2496
X13.4029 Y11.9999 Z-0.2491
X13.4014 Y11.9988 Z-0.2478
X13.4001 Y11.9974 Z-0.2465
X13.3994 Y11.9963 Z-0.2446
X13.3988 Y11.9951 Z-0.2427
X13.3986 Y11.9943 Z-0.2382
G0 Z0.2
X14.7445 Y8.5
G1 Z0.1 F20.
Z-0.04
G3 X14.7555 I0.0055 J0. F40.
X14.7445 I-0.0055 J0.
G1 Z-0.08 F20.
G3 X14.7555 I0.0055 J0. F40.
X14.7445 I-0.0055 J0.
G1 Z-0.12 F20.
G3 X14.7555 I0.0055 J0. F40.
X14.7445 I-0.0055 J0.
G1 Z-0.16 F20.
G3 X14.7555 I0.0055 J0. F40.
X14.7445 I-0.0055 J0.
G1 Z-0.2 F20.
G3 X14.7555 I0.0055 J0. F40.
X14.7445 I-0.0055 J0.
G1 Z-0.225 F20.
G3 X14.7555 I0.0055 J0. F40.
X14.7445 I-0.0055 J0.
G1 Z-0.25 F20.
G3 X14.7555 I0.0055 J0. F40.
X14.7445 I-0.0055 J0.
G1 X14.7447 Y8.4985 Z-0.2497
X14.7454 Y8.497 Z-0.2493
X14.7464 Y8.4959 Z-0.249
X14.7475 Y8.4951 Z-0.2481
X14.7487 Y8.4947 Z-0.2472
X14.75 Y8.4945 Z-0.2463
X14.7512 Y8.4946 Z-0.2444
X14.7523 Y8.495 Z-0.2425
X14.753 Y8.4954 Z-0.2382
G0 Z0.2
X7.7401 Y11.1832
G1 Z0.1 F20.
Z-0.0282
X7.7406 Y11.1825 Z-0.0327
X7.7423 Y11.1806 Z-0.0365
X7.7439 Y11.1795 Z-0.0378
X7.7456 Y11.1787 Z-0.0391
X7.7478 Y11.178 Z-0.0396
X7.75 Y11.1778 Z-0.04
G3 Y11.2188 I0. J0.0205 F40.
Y11.1778 I0. J-0.0205
G1 X7.7512 Y11.1781
X7.7522 Y11.1788
X7.7527 Y11.1799
X7.7528 Y11.1812
X7.7523 Y11.1823
X7.7514 Y11.1831
X7.7438 Y11.1873
X7.7426 Y11.1876
X7.7414 Y11.1874
X7.7404 Y11.1867
X7.7398 Y11.1856
X7.7396 Y11.1844
X7.7401 Y11.1832
Z-0.0682 F20.
X7.7406 Y11.1825 Z-0.0727
X7.7423 Y11.1806 Z-0.0765
X7.7439 Y11.1795 Z-0.0778
X7.7456 Y11.1787 Z-0.0791
X7.7478 Y11.178 Z-0.0796
X7.75 Y11.1778 Z-0.08
G3 Y11.2188 I0. J0.0205 F40.
Y11.1778 I0. J-0.0205
G1 X7.7512 Y11.1781
X7.7522 Y11.1788
X7.7527 Y11.1799
X7.7528 Y11.1812
X7.7523 Y11.1823
X7.7514 Y11.1831
X7.7438 Y11.1873
X7.7426 Y11.1876
X7.7414 Y11.1874
X7.7404 Y11.1867
X7.7398 Y11.1856
X7.7396 Y11.1844
X7.7401 Y11.1832
Z-0.1082 F20.
X7.7406 Y11.1825 Z-0.1127
X7.7423 Y11.1806 Z-0.1165
X7.7439 Y11.1795 Z-0.1178
X7.7456 Y11.1787 Z-0.1191
X7.7478 Y11.178 Z-0.1196
X7.75 Y11.1778 Z-0.12
G3 Y11.2188 I0. J0.0205 F40.
Y11.1778 I0. J-0.0205
G1 X7.7512 Y11.1781
X7.7522 Y11.1788
X7.7527 Y11.1799
X7.7528 Y11.1812
X7.7523 Y11.1823
X7.7514 Y11.1831
X7.7438 Y11.1873
X7.7426 Y11.1876
X7.7414 Y11.1874
X7.7404 Y11.1867
X7.7398 Y11.1856
X7.7396 Y11.1844
X7.7401 Y11.1832
Z-0.1482 F20.
X7.7406 Y11.1825 Z-0.1527
X7.7423 Y11.1806 Z-0.1565
X7.7439 Y11.1795 Z-0.1578
X7.7456 Y11.1787 Z-0.1591
X7.7478 Y11.178 Z-0.1596
X7.75 Y11.1778 Z-0.16
G3 Y11.2188 I0. J0.0205 F40.
Y11.1778 I0. J-0.0205
G1 X7.7512 Y11.1781
X7.7522 Y11.1788
X7.7527 Y11.1799
X7.7528 Y11.1812
X7.7523 Y11.1823
X7.7514 Y11.1831
X7.7438 Y11.1873
X7.7426 Y11.1876
X7.7414 Y11.1874
X7.7404 Y11.1867
X7.7398 Y11.1856
X7.7396 Y11.1844
X7.7401 Y11.1832
Z-0.1882 F20.
X7.7406 Y11.1825 Z-0.1927
X7.7423 Y11.1806 Z-0.1965
X7.7439 Y11.1795 Z-0.1978
X7.7456 Y11.1787 Z-0.1991
X7.7478 Y11.178 Z-0.1996
X7.75 Y11.1778 Z-0.2
G3 Y11.2188 I0. J0.0205 F40.
Y11.1778 I0. J-0.0205
G1 X7.7512 Y11.1781
X7.7522 Y11.1788
X7.7527 Y11.1799
X7.7528 Y11.1812
X7.7523 Y11.1823
X7.7514 Y11.1831
X7.7438 Y11.1873
X7.7426 Y11.1876
X7.7414 Y11.1874
X7.7404 Y11.1867
X7.7398 Y11.1856
X7.7396 Y11.1844
X7.7401 Y11.1832
Z-0.2132 F20.
X7.7406 Y11.1825 Z-0.2177
X7.7423 Y11.1806 Z-0.2215
X7.7439 Y11.1795 Z-0.2228
X7.7456 Y11.1787 Z-0.2241
X7.7478 Y11.178 Z-0.2246
X7.75 Y11.1778 Z-0.225
G3 Y11.2188 I0. J0.0205 F40.
Y11.1778 I0. J-0.0205
G1 X7.7512 Y11.1781
X7.7522 Y11.1788
X7.7527 Y11.1799
X7.7528 Y11.1812
X7.7523 Y11.1823
X7.7514 Y11.1831
X7.7438 Y11.1873
X7.7426 Y11.1876
X7.7414 Y11.1874
X7.7404 Y11.1867
X7.7398 Y11.1856
X7.7396 Y11.1844
X7.7401 Y11.1832
Z-0.2382 F20.
X7.7406 Y11.1825 Z-0.2427
X7.7423 Y11.1806 Z-0.2465
X7.7439 Y11.1795 Z-0.2478
X7.7456 Y11.1787 Z-0.2491
X7.7478 Y11.178 Z-0.2496
X7.75 Y11.1778 Z-0.25
G3 Y11.2188 I0. J0.0205 F40.
Y11.1778 I0. J-0.0205
G1 X7.7522 Y11.178 Z-0.2496
X7.7544 Y11.1787 Z-0.2491
X7.7561 Y11.1795 Z-0.2478
X7.7577 Y11.1806 Z-0.2465
X7.7594 Y11.1825 Z-0.2427
X7.7599 Y11.1832 Z-0.2382
G0 Z0.2
X7.4749 Y13.1118
G1 Z0.1 F20.
Z-0.0282
X7.4754 Y13.1111 Z-0.0327
X7.4771 Y13.1092 Z-0.0365
X7.4787 Y13.1081 Z-0.0378
X7.4804 Y13.1073 Z-0.0391
X7.4825 Y13.1066 Z-0.0396
X7.4848 Y13.1064 Z-0.04
G3 X7.5053 Y13.1269 I0. J0.0205 F40.
X7.4643 I-0.0205 J0.
X7.4848 Y13.1064 I0.0205 J0.
G1 X7.486 Y13.1067
X7.487 Y13.1074
X7.4875 Y13.1085
X7.4876 Y13.1098
X7.4871 Y13.1109
X7.4861 Y13.1117
X7.4786 Y13.1158
X7.4774 Y13.1162
X7.4762 Y13.116
X7.4752 Y13.1153
X7.4745 Y13.1142
X7.4744 Y13.113
X7.4749 Y13.1118
Z-0.0682 F20.
X7.4754 Y13.1111 Z-0.0727
X7.4771 Y13.1092 Z-0.0765
X7.4787 Y13.1081 Z-0.0778
X7.4804 Y13.1073 Z-0.0791
X7.4825 Y13.1066 Z-0.0796
X7.4848 Y13.1064 Z-0.08
G3 X7.5053 Y13.1269 I0. J0.0205 F40.
X7.4643 I-0.0205 J0.
X7.4848 Y13.1064 I0.0205 J0.
G1 X7.486 Y13.1067
X7.487 Y13.1074
X7.4875 Y13.1085
X7.4876 Y13.1098
X7.4871 Y13.1109
X7.4861 Y13.1117
X7.4786 Y13.1158
X7.4774 Y13.1162
X7.4762 Y13.116
X7.4752 Y13.1153
X7.4745 Y13.1142
X7.4744 Y13.113
X7.4749 Y13.1118
Z-0.1082 F20.
X7.4754 Y13.1111 Z-0.1127
X7.4771 Y13.1092 Z-0.1165
X7.4787 Y13.1081 Z-0.1178
X7.4804 Y13.1073 Z-0.1191
X7.4825 Y13.1066 Z-0.1196
X7.4848 Y13.1064 Z-0.12
G3 X7.5053 Y13.1269 I0. J0.0205 F40.
X7.4643 I-0.0205 J0.
X7.4848 Y13.1064 I0.0205 J0.
G1 X7.486 Y13.1067
X7.487 Y13.1074
X7.4875 Y13.1085
X7.4876 Y13.1098
X7.4871 Y13.1109
X7.4861 Y13.1117
X7.4786 Y13.1158
X7.4774 Y13.1162
X7.4762 Y13.116
X7.4752 Y13.1153
X7.4745 Y13.1142
X7.4744 Y13.113
X7.4749 Y13.1118
Z-0.1482 F20.
X7.4754 Y13.1111 Z-0.1527
X7.4771 Y13.1092 Z-0.1565
X7.4787 Y13.1081 Z-0.1578
X7.4804 Y13.1073 Z-0.1591
X7.4825 Y13.1066 Z-0.1596
X7.4848 Y13.1064 Z-0.16
G3 X7.5053 Y13.1269 I0. J0.0205 F40.
X7.4643 I-0.0205 J0.
X7.4848 Y13.1064 I0.0205 J0.
G1 X7.486 Y13.1067
X7.487 Y13.1074
X7.4875 Y13.1085
X7.4876 Y13.1098
X7.4871 Y13.1109
X7.4861 Y13.1117
X7.4786 Y13.1158
X7.4774 Y13.1162
X7.4762 Y13.116
X7.4752 Y13.1153
X7.4745 Y13.1142
X7.4744 Y13.113
X7.4749 Y13.1118
Z-0.1882 F20.
X7.4754 Y13.1111 Z-0.1927
X7.4771 Y13.1092 Z-0.1965
X7.4787 Y13.1081 Z-0.1978
X7.4804 Y13.1073 Z-0.1991
X7.4825 Y13.1066 Z-0.1996
X7.4848 Y13.1064 Z-0.2
G3 X7.5053 Y13.1269 I0. J0.0205 F40.
X7.4643 I-0.0205 J0.
X7.4848 Y13.1064 I0.0205 J0.
G1 X7.486 Y13.1067
X7.487 Y13.1074
X7.4875 Y13.1085
X7.4876 Y13.1098
X7.4871 Y13.1109
X7.4861 Y13.1117
X7.4786 Y13.1158
X7.4774 Y13.1162
X7.4762 Y13.116
X7.4752 Y13.1153
X7.4745 Y13.1142
X7.4744 Y13.113
X7.4749 Y13.1118
Z-0.2132 F20.
X7.4754 Y13.1111 Z-0.2177
X7.4771 Y13.1092 Z-0.2215
X7.4787 Y13.1081 Z-0.2228
X7.4804 Y13.1073 Z-0.2241
X7.4825 Y13.1066 Z-0.2246
X7.4848 Y13.1064 Z-0.225
G3 X7.5053 Y13.1269 I0. J0.0205 F40.
X7.4643 I-0.0205 J0.
X7.4848 Y13.1064 I0.0205 J0.
G1 X7.486 Y13.1067
X7.487 Y13.1074
X7.4875 Y13.1085
X7.4876 Y13.1098
X7.4871 Y13.1109
X7.4861 Y13.1117
X7.4786 Y13.1158
X7.4774 Y13.1162
X7.4762 Y13.116
X7.4752 Y13.1153
X7.4745 Y13.1142
X7.4744 Y13.113
X7.4749 Y13.1118
Z-0.2382 F20.
X7.4754 Y13.1111 Z-0.2427
X7.4771 Y13.1092 Z-0.2465
X7.4787 Y13.1081 Z-0.2478
X7.4804 Y13.1073 Z-0.2491
X7.4825 Y13.1066 Z-0.2496
X7.4848 Y13.1064 Z-0.25
G3 X7.5053 Y13.1269 I0. J0.0205 F40.
X7.4643 I-0.0205 J0.
X7.4848 Y13.1064 I0.0205 J0.
G1 X7.487 Y13.1066 Z-0.2496
X7.4892 Y13.1073 Z-0.2491
X7.4909 Y13.1081 Z-0.2478
X7.4925 Y13.1092 Z-0.2465
X7.4942 Y13.1111 Z-0.2427
X7.4947 Y13.1118 Z-0.2382
G0 Z0.2
X5.9949 Y13.1418
G1 Z0.1 F20.
Z-0.0282
X5.9944 Y13.1425 Z-0.0327
X5.9927 Y13.1444 Z-0.0365
X5.9912 Y13.1456 Z-0.0378
X5.9895 Y13.1465 Z-0.0391
X5.9873 Y13.1471 Z-0.0396
X5.9851 Y13.1474 Z-0.04
G3 X5.9643 Y13.1269 I-0.0003 J-0.0205 F40.
X6.0053 I0.0205 J0.
X5.9851 Y13.1474 I-0.0205 J0.
G1 X5.9839 Y13.1471
X5.9829 Y13.1464
X5.9823 Y13.1453
Y13.1441
X5.9827 Y13.1429
X5.9837 Y13.1421
X5.9911 Y13.1378
X5.9923 Y13.1375
X5.9935 Y13.1377
X5.9946 Y13.1383
X5.9952 Y13.1394
X5.9953 Y13.1406
X5.9949 Y13.1418
Z-0.0682 F20.
X5.9944 Y13.1425 Z-0.0727
X5.9927 Y13.1444 Z-0.0765
X5.9912 Y13.1456 Z-0.0778
X5.9895 Y13.1465 Z-0.0791
X5.9873 Y13.1471 Z-0.0796
X5.9851 Y13.1474 Z-0.08
G3 X5.9643 Y13.1269 I-0.0003 J-0.0205 F40.
X6.0053 I0.0205 J0.
X5.9851 Y13.1474 I-0.0205 J0.
G1 X5.9839 Y13.1471
X5.9829 Y13.1464
X5.9823 Y13.1453
Y13.1441
X5.9827 Y13.1429
X5.9837 Y13.1421
X5.9911 Y13.1378
X5.9923 Y13.1375
X5.9935 Y13.1377
X5.9946 Y13.1383
X5.9952 Y13.1394
X5.9953 Y13.1406
X5.9949 Y13.1418
Z-0.1082 F20.
X5.9944 Y13.1425 Z-0.1127
X5.9927 Y13.1444 Z-0.1165
X5.9912 Y13.1456 Z-0.1178
X5.9895 Y13.1465 Z-0.1191
X5.9873 Y13.1471 Z-0.1196
X5.9851 Y13.1474 Z-0.12
G3 X5.9643 Y13.1269 I-0.0003 J-0.0205 F40.
X6.0053 I0.0205 J0.
X5.9851 Y13.1474 I-0.0205 J0.
G1 X5.9839 Y13.1471
X5.9829 Y13.1464
X5.9823 Y13.1453
Y13.1441
X5.9827 Y13.1429
X5.9837 Y13.1421
X5.9911 Y13.1378
X5.9923 Y13.1375
X5.9935 Y13.1377
X5.9946 Y13.1383
X5.9952 Y13.1394
X5.9953 Y13.1406
X5.9949 Y13.1418
Z-0.1482 F20.
X5.9944 Y13.1425 Z-0.1527
X5.9927 Y13.1444 Z-0.1565
X5.9912 Y13.1456 Z-0.1578
X5.9895 Y13.1465 Z-0.1591
X5.9873 Y13.1471 Z-0.1596
X5.9851 Y13.1474 Z-0.16
G3 X5.9643 Y13.1269 I-0.0003 J-0.0205 F40.
X6.0053 I0.0205 J0.
X5.9851 Y13.1474 I-0.0205 J0.
G1 X5.9839 Y13.1471
X5.9829 Y13.1464
X5.9823 Y13.1453
Y13.1441
X5.9827 Y13.1429
X5.9837 Y13.1421
X5.9911 Y13.1378
X5.9923 Y13.1375
X5.9935 Y13.1377
X5.9946 Y13.1383
X5.9952 Y13.1394
X5.9953 Y13.1406
X5.9949 Y13.1418
Z-0.1882 F20.
X5.9944 Y13.1425 Z-0.1927
X5.9927 Y13.1444 Z-0.1965
X5.9912 Y13.1456 Z-0.1978
X5.9895 Y13.1465 Z-0.1991
X5.9873 Y13.1471 Z-0.1996
X5.9851 Y13.1474 Z-0.2
G3 X5.9643 Y13.1269 I-0.0003 J-0.0205 F40.
X6.0053 I0.0205 J0.
X5.9851 Y13.1474 I-0.0205 J0.
G1 X5.9839 Y13.1471
X5.9829 Y13.1464
X5.9823 Y13.1453
Y13.1441
X5.9827 Y13.1429
X5.9837 Y13.1421
X5.9911 Y13.1378
X5.9923 Y13.1375
X5.9935 Y13.1377
X5.9946 Y13.1383
X5.9952 Y13.1394
X5.9953 Y13.1406
X5.9949 Y13.1418
Z-0.2132 F20.
X5.9944 Y13.1425 Z-0.2177
X5.9927 Y13.1444 Z-0.2215
X5.9912 Y13.1456 Z-0.2228
X5.9895 Y13.1465 Z-0.2241
X5.9873 Y13.1471 Z-0.2246
X5.9851 Y13.1474 Z-0.225
G3 X5.9643 Y13.1269 I-0.0003 J-0.0205 F40.
X6.0053 I0.0205 J0.
X5.9851 Y13.1474 I-0.0205 J0.
G1 X5.9839 Y13.1471
X5.9829 Y13.1464
X5.9823 Y13.1453
Y13.1441
X5.9827 Y13.1429
X5.9837 Y13.1421
X5.9911 Y13.1378
X5.9923 Y13.1375
X5.9935 Y13.1377
X5.9946 Y13.1383
X5.9952 Y13.1394
X5.9953 Y13.1406
X5.9949 Y13.1418
Z-0.2382 F20.
X5.9944 Y13.1425 Z-0.2427
X5.9927 Y13.1444 Z-0.2465
X5.9912 Y13.1456 Z-0.2478
X5.9895 Y13.1465 Z-0.2491
X5.9873 Y13.1471 Z-0.2496
X5.9851 Y13.1474 Z-0.25
G3 X5.9643 Y13.1269 I-0.0003 J-0.0205 F40.
X6.0053 I0.0205 J0.
X5.9851 Y13.1474 I-0.0205 J0.
G1 X5.9829 Y13.1472 Z-0.2496
X5.9807 Y13.1466 Z-0.2491
X5.979 Y13.1458 Z-0.2478
X5.9774 Y13.1447 Z-0.2465
X5.9756 Y13.1428 Z-0.2427
X5.9751 Y13.1421 Z-0.2382
G0 Z0.2
X5.9749 Y17.1118
G1 Z0.1 F20.
Z-0.0282
X5.9754 Y17.1111 Z-0.0327
X5.9771 Y17.1092 Z-0.0365
X5.9787 Y17.1081 Z-0.0378
X5.9804 Y17.1073 Z-0.0391
X5.9825 Y17.1066 Z-0.0396
X5.9848 Y17.1064 Z-0.04
G3 X6.0053 Y17.1269 I0. J0.0205 F40.
X5.9643 I-0.0205 J0.
X5.9848 Y17.1064 I0.0205 J0.
G1 X5.986 Y17.1067
X5.987 Y17.1074
X5.9875 Y17.1085
X5.9876 Y17.1098
X5.9871 Y17.1109
X5.9861 Y17.1117
X5.9786 Y17.1158
X5.9774 Y17.1162
X5.9762 Y17.116
X5.9752 Y17.1153
X5.9745 Y17.1142
X5.9744 Y17.113
X5.9749 Y17.1118
Z-0.0682 F20.
X5.9754 Y17.1111 Z-0.0727
X5.9771 Y17.1092 Z-0.0765
X5.9787 Y17.1081 Z-0.0778
X5.9804 Y17.1073 Z-0.0791
X5.9825 Y17.1066 Z-0.0796
X5.9848 Y17.1064 Z-0.08
G3 X6.0053 Y17.1269 I0. J0.0205 F40.
X5.9643 I-0.0205 J0.
X5.9848 Y17.1064 I0.0205 J0.
G1 X5.986 Y17.1067
X5.987 Y17.1074
X5.9875 Y17.1085
X5.9876 Y17.1098
X5.9871 Y17.1109
X5.9861 Y17.1117
X5.9786 Y17.1158
X5.9774 Y17.1162
X5.9762 Y17.116
X5.9752 Y17.1153
X5.9745 Y17.1142
X5.9744 Y17.113
X5.9749 Y17.1118
Z-0.1082 F20.
X5.9754 Y17.1111 Z-0.1127
X5.9771 Y17.1092 Z-0.1165
X5.9787 Y17.1081 Z-0.1178
X5.9804 Y17.1073 Z-0.1191
X5.9825 Y17.1066 Z-0.1196
X5.9848 Y17.1064 Z-0.12
G3 X6.0053 Y17.1269 I0. J0.0205 F40.
X5.9643 I-0.0205 J0.
X5.9848 Y17.1064 I0.0205 J0.
G1 X5.986 Y17.1067
X5.987 Y17.1074
X5.9875 Y17.1085
X5.9876 Y17.1098
X5.9871 Y17.1109
X5.9861 Y17.1117
X5.9786 Y17.1158
X5.9774 Y17.1162
X5.9762 Y17.116
X5.9752 Y17.1153
X5.9745 Y17.1142
X5.9744 Y17.113
X5.9749 Y17.1118
Z-0.1482 F20.
X5.9754 Y17.1111 Z-0.1527
X5.9771 Y17.1092 Z-0.1565
X5.9787 Y17.1081 Z-0.1578
X5.9804 Y17.1073 Z-0.1591
X5.9825 Y17.1066 Z-0.1596
X5.9848 Y17.1064 Z-0.16
G3 X6.0053 Y17.1269 I0. J0.0205 F40.
X5.9643 I-0.0205 J0.
X5.9848 Y17.1064 I0.0205 J0.
G1 X5.986 Y17.1067
X5.987 Y17.1074
X5.9875 Y17.1085
X5.9876 Y17.1098
X5.9871 Y17.1109
X5.9861 Y17.1117
X5.9786 Y17.1158
X5.9774 Y17.1162
X5.9762 Y17.116
X5.9752 Y17.1153
X5.9745 Y17.1142
X5.9744 Y17.113
X5.9749 Y17.1118
Z-0.1882 F20.
X5.9754 Y17.1111 Z-0.1927
X5.9771 Y17.1092 Z-0.1965
X5.9787 Y17.1081 Z-0.1978
X5.9804 Y17.1073 Z-0.1991
X5.9825 Y17.1066 Z-0.1996
X5.9848 Y17.1064 Z-0.2
G3 X6.0053 Y17.1269 I0. J0.0205 F40.
X5.9643 I-0.0205 J0.
X5.9848 Y17.1064 I0.0205 J0.
G1 X5.986 Y17.1067
X5.987 Y17.1074
X5.9875 Y17.1085
X5.9876 Y17.1098
X5.9871 Y17.1109
X5.9861 Y17.1117
X5.9786 Y17.1158
X5.9774 Y17.1162
X5.9762 Y17.116
X5.9752 Y17.1153
X5.9745 Y17.1142
X5.9744 Y17.113
X5.9749 Y17.1118
Z-0.2132 F20.
X5.9754 Y17.1111 Z-0.2177
X5.9771 Y17.1092 Z-0.2215
X5.9787 Y17.1081 Z-0.2228
X5.9804 Y17.1073 Z-0.2241
X5.9825 Y17.1066 Z-0.2246
X5.9848 Y17.1064 Z-0.225
G3 X6.0053 Y17.1269 I0. J0.0205 F40.
X5.9643 I-0.0205 J0.
X5.9848 Y17.1064 I0.0205 J0.
G1 X5.986 Y17.1067
X5.987 Y17.1074
X5.9875 Y17.1085
X5.9876 Y17.1098
X5.9871 Y17.1109
X5.9861 Y17.1117
X5.9786 Y17.1158
X5.9774 Y17.1162
X5.9762 Y17.116
X5.9752 Y17.1153
X5.9745 Y17.1142
X5.9744 Y17.113
X5.9749 Y17.1118
Z-0.2382 F20.
X5.9754 Y17.1111 Z-0.2427
X5.9771 Y17.1092 Z-0.2465
X5.9787 Y17.1081 Z-0.2478
X5.9804 Y17.1073 Z-0.2491
X5.9825 Y17.1066 Z-0.2496
X5.9848 Y17.1064 Z-0.25
G3 X6.0053 Y17.1269 I0. J0.0205 F40.
X5.9643 I-0.0205 J0.
X5.9848 Y17.1064 I0.0205 J0.
G1 X5.987 Y17.1066 Z-0.2496
X5.9892 Y17.1073 Z-0.2491
X5.9909 Y17.1081 Z-0.2478
X5.9925 Y17.1092 Z-0.2465
X5.9942 Y17.1111 Z-0.2427
X5.9947 Y17.1118 Z-0.2382
G0 Z0.2
X7.4949 Y17.1418
G1 Z0.1 F20.
Z-0.0282
X7.4944 Y17.1425 Z-0.0327
X7.4927 Y17.1444 Z-0.0365
X7.4912 Y17.1456 Z-0.0378
X7.4895 Y17.1465 Z-0.0391
X7.4873 Y17.1471 Z-0.0396
X7.4851 Y17.1474 Z-0.04
G3 X7.4643 Y17.1269 I-0.0003 J-0.0205 F40.
X7.5053 I0.0205 J0.
X7.4851 Y17.1474 I-0.0205 J0.
G1 X7.4839 Y17.1471
X7.4829 Y17.1464
X7.4823 Y17.1453
Y17.1441
X7.4827 Y17.1429
X7.4837 Y17.1421
X7.4911 Y17.1378
X7.4923 Y17.1375
X7.4935 Y17.1377
X7.4946 Y17.1383
X7.4952 Y17.1394
X7.4953 Y17.1406
X7.4949 Y17.1418
Z-0.0682 F20.
X7.4944 Y17.1425 Z-0.0727
X7.4927 Y17.1444 Z-0.0765
X7.4912 Y17.1456 Z-0.0778
X7.4895 Y17.1465 Z-0.0791
X7.4873 Y17.1471 Z-0.0796
X7.4851 Y17.1474 Z-0.08
G3 X7.4643 Y17.1269 I-0.0003 J-0.0205 F40.
X7.5053 I0.0205 J0.
X7.4851 Y17.1474 I-0.0205 J0.
G1 X7.4839 Y17.1471
X7.4829 Y17.1464
X7.4823 Y17.1453
Y17.1441
X7.4827 Y17.1429
X7.4837 Y17.1421
X7.4911 Y17.1378
X7.4923 Y17.1375
X7.4935 Y17.1377
X7.4946 Y17.1383
X7.4952 Y17.1394
X7.4953 Y17.1406
X7.4949 Y17.1418
Z-0.1082 F20.
X7.4944 Y17.1425 Z-0.1127
X7.4927 Y17.1444 Z-0.1165
X7.4912 Y17.1456 Z-0.1178
X7.4895 Y17.1465 Z-0.1191
X7.4873 Y17.1471 Z-0.1196
X7.4851 Y17.1474 Z-0.12
G3 X7.4643 Y17.1269 I-0.0003 J-0.0205 F40.
X7.5053 I0.0205 J0.
X7.4851 Y17.1474 I-0.0205 J0.
G1 X7.4839 Y17.1471
X7.4829 Y17.1464
X7.4823 Y17.1453
Y17.1441
X7.4827 Y17.1429
X7.4837 Y17.1421
X7.4911 Y17.1378
X7.4923 Y17.1375
X7.4935 Y17.1377
X7.4946 Y17.1383
X7.4952 Y17.1394
X7.4953 Y17.1406
X7.4949 Y17.1418
Z-0.1482 F20.
X7.4944 Y17.1425 Z-0.1527
X7.4927 Y17.1444 Z-0.1565
X7.4912 Y17.1456 Z-0.1578
X7.4895 Y17.1465 Z-0.1591
X7.4873 Y17.1471 Z-0.1596
X7.4851 Y17.1474 Z-0.16
G3 X7.4643 Y17.1269 I-0.0003 J-0.0205 F40.
X7.5053 I0.0205 J0.
X7.4851 Y17.1474 I-0.0205 J0.
G1 X7.4839 Y17.1471
X7.4829 Y17.1464
X7.4823 Y17.1453
Y17.1441
X7.4827 Y17.1429
X7.4837 Y17.1421
X7.4911 Y17.1378
X7.4923 Y17.1375
X7.4935 Y17.1377
X7.4946 Y17.1383
X7.4952 Y17.1394
X7.4953 Y17.1406
X7.4949 Y17.1418
Z-0.1882 F20.
X7.4944 Y17.1425 Z-0.1927
X7.4927 Y17.1444 Z-0.1965
X7.4912 Y17.1456 Z-0.1978
X7.4895 Y17.1465 Z-0.1991
X7.4873 Y17.1471 Z-0.1996
X7.4851 Y17.1474 Z-0.2
G3 X7.4643 Y17.1269 I-0.0003 J-0.0205 F40.
X7.5053 I0.0205 J0.
X7.4851 Y17.1474 I-0.0205 J0.
G1 X7.4839 Y17.1471
X7.4829 Y17.1464
X7.4823 Y17.1453
Y17.1441
X7.4827 Y17.1429
X7.4837 Y17.1421
X7.4911 Y17.1378
X7.4923 Y17.1375
X7.4935 Y17.1377
X7.4946 Y17.1383
X7.4952 Y17.1394
X7.4953 Y17.1406
X7.4949 Y17.1418
Z-0.2132 F20.
X7.4944 Y17.1425 Z-0.2177
X7.4927 Y17.1444 Z-0.2215
X7.4912 Y17.1456 Z-0.2228
X7.4895 Y17.1465 Z-0.2241
X7.4873 Y17.1471 Z-0.2246
X7.4851 Y17.1474 Z-0.225
G3 X7.4643 Y17.1269 I-0.0003 J-0.0205 F40.
X7.5053 I0.0205 J0.
X7.4851 Y17.1474 I-0.0205 J0.
G1 X7.4839 Y17.1471
X7.4829 Y17.1464
X7.4823 Y17.1453
Y17.1441
X7.4827 Y17.1429
X7.4837 Y17.1421
X7.4911 Y17.1378
X7.4923 Y17.1375
X7.4935 Y17.1377
X7.4946 Y17.1383
X7.4952 Y17.1394
X7.4953 Y17.1406
X7.4949 Y17.1418
Z-0.2382 F20.
X7.4944 Y17.1425 Z-0.2427
X7.4927 Y17.1444 Z-0.2465
X7.4912 Y17.1456 Z-0.2478
X7.4895 Y17.1465 Z-0.2491
X7.4873 Y17.1471 Z-0.2496
X7.4851 Y17.1474 Z-0.25
G3 X7.4643 Y17.1269 I-0.0003 J-0.0205 F40.
X7.5053 I0.0205 J0.
X7.4851 Y17.1474 I-0.0205 J0.
G1 X7.4829 Y17.1472 Z-0.2496
X7.4807 Y17.1466 Z-0.2491
X7.479 Y17.1458 Z-0.2478
X7.4774 Y17.1447 Z-0.2465
X7.4756 Y17.1428 Z-0.2427
X7.4751 Y17.1421 Z-0.2382
G0 Z0.2
X6.9897 Y18.3099
G1 Z0.1 F20.
Z-0.0282
X6.9892 Y18.3107 Z-0.0327
X6.9874 Y18.3125 Z-0.0365
X6.9859 Y18.3137 Z-0.0378
X6.9842 Y18.3146 Z-0.0391
X6.9821 Y18.3152 Z-0.0396
X6.9798 Y18.3155 Z-0.04
G3 X6.959 Y18.295 I-0.0003 J-0.0205 F40.
X7. I0.0205 J0.
X6.9798 Y18.3155 I-0.0205 J0.
G1 X6.9786 Y18.3152
X6.9776 Y18.3145
X6.977 Y18.3134
Y18.3122
X6.9775 Y18.311
X6.9784 Y18.3102
X6.9859 Y18.306
X6.9871 Y18.3056
X6.9883 Y18.3058
X6.9893 Y18.3065
X6.9899 Y18.3075
X6.9901 Y18.3087
X6.9897 Y18.3099
Z-0.0682 F20.
X6.9892 Y18.3107 Z-0.0727
X6.9874 Y18.3125 Z-0.0765
X6.9859 Y18.3137 Z-0.0778
X6.9842 Y18.3146 Z-0.0791
X6.9821 Y18.3152 Z-0.0796
X6.9798 Y18.3155 Z-0.08
G3 X6.959 Y18.295 I-0.0003 J-0.0205 F40.
X7. I0.0205 J0.
X6.9798 Y18.3155 I-0.0205 J0.
G1 X6.9786 Y18.3152
X6.9776 Y18.3145
X6.977 Y18.3134
Y18.3122
X6.9775 Y18.311
X6.9784 Y18.3102
X6.9859 Y18.306
X6.9871 Y18.3056
X6.9883 Y18.3058
X6.9893 Y18.3065
X6.9899 Y18.3075
X6.9901 Y18.3087
X6.9897 Y18.3099
Z-0.1082 F20.
X6.9892 Y18.3107 Z-0.1127
X6.9874 Y18.3125 Z-0.1165
X6.9859 Y18.3137 Z-0.1178
X6.9842 Y18.3146 Z-0.1191
X6.9821 Y18.3152 Z-0.1196
X6.9798 Y18.3155 Z-0.12
G3 X6.959 Y18.295 I-0.0003 J-0.0205 F40.
X7. I0.0205 J0.
X6.9798 Y18.3155 I-0.0205 J0.
G1 X6.9786 Y18.3152
X6.9776 Y18.3145
X6.977 Y18.3134
Y18.3122
X6.9775 Y18.311
X6.9784 Y18.3102
X6.9859 Y18.306
X6.9871 Y18.3056
X6.9883 Y18.3058
X6.9893 Y18.3065
X6.9899 Y18.3075
X6.9901 Y18.3087
X6.9897 Y18.3099
Z-0.1482 F20.
X6.9892 Y18.3107 Z-0.1527
X6.9874 Y18.3125 Z-0.1565
X6.9859 Y18.3137 Z-0.1578
X6.9842 Y18.3146 Z-0.1591
X6.9821 Y18.3152 Z-0.1596
X6.9798 Y18.3155 Z-0.16
G3 X6.959 Y18.295 I-0.0003 J-0.0205 F40.
X7. I0.0205 J0.
X6.9798 Y18.3155 I-0.0205 J0.
G1 X6.9786 Y18.3152
X6.9776 Y18.3145
X6.977 Y18.3134
Y18.3122
X6.9775 Y18.311
X6.9784 Y18.3102
X6.9859 Y18.306
X6.9871 Y18.3056
X6.9883 Y18.3058
X6.9893 Y18.3065
X6.9899 Y18.3075
X6.9901 Y18.3087
X6.9897 Y18.3099
Z-0.1882 F20.
X6.9892 Y18.3107 Z-0.1927
X6.9874 Y18.3125 Z-0.1965
X6.9859 Y18.3137 Z-0.1978
X6.9842 Y18.3146 Z-0.1991
X6.9821 Y18.3152 Z-0.1996
X6.9798 Y18.3155 Z-0.2
G3 X6.959 Y18.295 I-0.0003 J-0.0205 F40.
X7. I0.0205 J0.
X6.9798 Y18.3155 I-0.0205 J0.
G1 X6.9786 Y18.3152
X6.9776 Y18.3145
X6.977 Y18.3134
Y18.3122
X6.9775 Y18.311
X6.9784 Y18.3102
X6.9859 Y18.306
X6.9871 Y18.3056
X6.9883 Y18.3058
X6.9893 Y18.3065
X6.9899 Y18.3075
X6.9901 Y18.3087
X6.9897 Y18.3099
Z-0.2132 F20.
X6.9892 Y18.3107 Z-0.2177
X6.9874 Y18.3125 Z-0.2215
X6.9859 Y18.3137 Z-0.2228
X6.9842 Y18.3146 Z-0.2241
X6.9821 Y18.3152 Z-0.2246
X6.9798 Y18.3155 Z-0.225
G3 X6.959 Y18.295 I-0.0003 J-0.0205 F40.
X7. I0.0205 J0.
X6.9798 Y18.3155 I-0.0205 J0.
G1 X6.9786 Y18.3152
X6.9776 Y18.3145
X6.977 Y18.3134
Y18.3122
X6.9775 Y18.311
X6.9784 Y18.3102
X6.9859 Y18.306
X6.9871 Y18.3056
X6.9883 Y18.3058
X6.9893 Y18.3065
X6.9899 Y18.3075
X6.9901 Y18.3087
X6.9897 Y18.3099
Z-0.2382 F20.
X6.9892 Y18.3107 Z-0.2427
X6.9874 Y18.3125 Z-0.2465
X6.9859 Y18.3137 Z-0.2478
X6.9842 Y18.3146 Z-0.2491
X6.9821 Y18.3152 Z-0.2496
X6.9798 Y18.3155 Z-0.25
G3 X6.959 Y18.295 I-0.0003 J-0.0205 F40.
X7. I0.0205 J0.
X6.9798 Y18.3155 I-0.0205 J0.
G1 X6.9776 Y18.3153 Z-0.2496
X6.9754 Y18.3147 Z-0.2491
X6.9737 Y18.3139 Z-0.2478
X6.9721 Y18.3128 Z-0.2465
X6.9703 Y18.3109 Z-0.2427
X6.9698 Y18.3102 Z-0.2382
G0 Z0.2
X9.916 Y16.9941
G1 Z0.1 F20.
Z-0.0282
X9.9157 Y16.995 Z-0.0327
X9.9152 Y16.9962 Z-0.0346
X9.9145 Y16.9972 Z-0.0365
X9.9133 Y16.9987 Z-0.0378
X9.9117 Y16.9998 Z-0.0391
X9.9096 Y17.0006 Z-0.0396
X9.9074 Y17.001 Z-0.04
G3 X9.8983 Y16.992 I-0.0001 J-0.009 F40.
X9.9163 I0.009 J0.
X9.9074 Y17.001 I-0.009 J0.
G1 X9.9063 Y17.0007
X9.9054 Y17.0001
X9.9048 Y16.9991
X9.9046 Y16.998
X9.9049 Y16.9969
X9.9057 Y16.9961
X9.9116 Y16.9913
X9.9126 Y16.9908
X9.9138
X9.9148 Y16.9912
X9.9156 Y16.9919
X9.916 Y16.993
Y16.9941
Z-0.0682 F20.
X9.9157 Y16.995 Z-0.0727
X9.9152 Y16.9962 Z-0.0746
X9.9145 Y16.9972 Z-0.0765
X9.9133 Y16.9987 Z-0.0778
X9.9117 Y16.9998 Z-0.0791
X9.9096 Y17.0006 Z-0.0796
X9.9074 Y17.001 Z-0.08
G3 X9.8983 Y16.992 I-0.0001 J-0.009 F40.
X9.9163 I0.009 J0.
X9.9074 Y17.001 I-0.009 J0.
G1 X9.9063 Y17.0007
X9.9054 Y17.0001
X9.9048 Y16.9991
X9.9046 Y16.998
X9.9049 Y16.9969
X9.9057 Y16.9961
X9.9116 Y16.9913
X9.9126 Y16.9908
X9.9138
X9.9148 Y16.9912
X9.9156 Y16.9919
X9.916 Y16.993
Y16.9941
Z-0.1082 F20.
X9.9157 Y16.995 Z-0.1127
X9.9152 Y16.9962 Z-0.1146
X9.9145 Y16.9972 Z-0.1165
X9.9133 Y16.9987 Z-0.1178
X9.9117 Y16.9998 Z-0.1191
X9.9096 Y17.0006 Z-0.1196
X9.9074 Y17.001 Z-0.12
G3 X9.8983 Y16.992 I-0.0001 J-0.009 F40.
X9.9163 I0.009 J0.
X9.9074 Y17.001 I-0.009 J0.
G1 X9.9063 Y17.0007
X9.9054 Y17.0001
X9.9048 Y16.9991
X9.9046 Y16.998
X9.9049 Y16.9969
X9.9057 Y16.9961
X9.9116 Y16.9913
X9.9126 Y16.9908
X9.9138
X9.9148 Y16.9912
X9.9156 Y16.9919
X9.916 Y16.993
Y16.9941
Z-0.1482 F20.
X9.9157 Y16.995 Z-0.1527
X9.9152 Y16.9962 Z-0.1546
X9.9145 Y16.9972 Z-0.1565
X9.9133 Y16.9987 Z-0.1578
X9.9117 Y16.9998 Z-0.1591
X9.9096 Y17.0006 Z-0.1596
X9.9074 Y17.001 Z-0.16
G3 X9.8983 Y16.992 I-0.0001 J-0.009 F40.
X9.9163 I0.009 J0.
X9.9074 Y17.001 I-0.009 J0.
G1 X9.9063 Y17.0007
X9.9054 Y17.0001
X9.9048 Y16.9991
X9.9046 Y16.998
X9.9049 Y16.9969
X9.9057 Y16.9961
X9.9116 Y16.9913
X9.9126 Y16.9908
X9.9138
X9.9148 Y16.9912
X9.9156 Y16.9919
X9.916 Y16.993
Y16.9941
Z-0.1882 F20.
X9.9157 Y16.995 Z-0.1927
X9.9152 Y16.9962 Z-0.1946
X9.9145 Y16.9972 Z-0.1965
X9.9133 Y16.9987 Z-0.1978
X9.9117 Y16.9998 Z-0.1991
X9.9096 Y17.0006 Z-0.1996
X9.9074 Y17.001 Z-0.2
G3 X9.8983 Y16.992 I-0.0001 J-0.009 F40.
X9.9163 I0.009 J0.
X9.9074 Y17.001 I-0.009 J0.
G1 X9.9063 Y17.0007
X9.9054 Y17.0001
X9.9048 Y16.9991
X9.9046 Y16.998
X9.9049 Y16.9969
X9.9057 Y16.9961
X9.9116 Y16.9913
X9.9126 Y16.9908
X9.9138
X9.9148 Y16.9912
X9.9156 Y16.9919
X9.916 Y16.993
Y16.9941
Z-0.2132 F20.
X9.9157 Y16.995 Z-0.2177
X9.9152 Y16.9962 Z-0.2196
X9.9145 Y16.9972 Z-0.2215
X9.9133 Y16.9987 Z-0.2228
X9.9117 Y16.9998 Z-0.2241
X9.9096 Y17.0006 Z-0.2246
X9.9074 Y17.001 Z-0.225
G3 X9.8983 Y16.992 I-0.0001 J-0.009 F40.
X9.9163 I0.009 J0.
X9.9074 Y17.001 I-0.009 J0.
G1 X9.9063 Y17.0007
X9.9054 Y17.0001
X9.9048 Y16.9991
X9.9046 Y16.998
X9.9049 Y16.9969
X9.9057 Y16.9961
X9.9116 Y16.9913
X9.9126 Y16.9908
X9.9138
X9.9148 Y16.9912
X9.9156 Y16.9919
X9.916 Y16.993
Y16.9941
Z-0.2382 F20.
X9.9157 Y16.995 Z-0.2427
X9.9152 Y16.9962 Z-0.2446
X9.9145 Y16.9972 Z-0.2465
X9.9133 Y16.9987 Z-0.2478
X9.9117 Y16.9998 Z-0.2491
X9.9096 Y17.0006 Z-0.2496
X9.9074 Y17.001 Z-0.25
G3 X9.8983 Y16.992 I-0.0001 J-0.009 F40.
X9.9163 I0.009 J0.
X9.9074 Y17.001 I-0.009 J0.
G1 X9.9073
X9.9053 Y17.0008 Z-0.2495
X9.9035 Y17.0001 Z-0.2489
X9.9018 Y16.9991 Z-0.2484
X9.9003 Y16.9977 Z-0.2462
X9.8992 Y16.9959 Z-0.2441
X9.8986 Y16.9944 Z-0.2382
G0 Z0.2
X12.4792 Y18.3749
G1 Z0.1 F20.
Z-0.0282
X12.4797 Y18.3742 Z-0.0327
X12.4815 Y18.3723 Z-0.0365
X12.483 Y18.3712 Z-0.0378
X12.4847 Y18.3704 Z-0.0391
X12.4869 Y18.3697 Z-0.0396
X12.4891 Y18.3695 Z-0.04
G3 Y18.4105 I0. J0.0205 F40.
Y18.3695 I0. J-0.0205
G1 X12.4903 Y18.3698
X12.4913 Y18.3705
X12.4919 Y18.3716
Y18.3729
X12.4914 Y18.374
X12.4905 Y18.3748
X12.4829 Y18.3789
X12.4818 Y18.3793
X12.4805 Y18.3791
X12.4795 Y18.3784
X12.4789 Y18.3773
X12.4788 Y18.3761
X12.4792 Y18.3749
Z-0.0682 F20.
X12.4797 Y18.3742 Z-0.0727
X12.4815 Y18.3723 Z-0.0765
X12.483 Y18.3712 Z-0.0778
X12.4847 Y18.3704 Z-0.0791
X12.4869 Y18.3697 Z-0.0796
X12.4891 Y18.3695 Z-0.08
G3 Y18.4105 I0. J0.0205 F40.
Y18.3695 I0. J-0.0205
G1 X12.4903 Y18.3698
X12.4913 Y18.3705
X12.4919 Y18.3716
Y18.3729
X12.4914 Y18.374
X12.4905 Y18.3748
X12.4829 Y18.3789
X12.4818 Y18.3793
X12.4805 Y18.3791
X12.4795 Y18.3784
X12.4789 Y18.3773
X12.4788 Y18.3761
X12.4792 Y18.3749
Z-0.1082 F20.
X12.4797 Y18.3742 Z-0.1127
X12.4815 Y18.3723 Z-0.1165
X12.483 Y18.3712 Z-0.1178
X12.4847 Y18.3704 Z-0.1191
X12.4869 Y18.3697 Z-0.1196
X12.4891 Y18.3695 Z-0.12
G3 Y18.4105 I0. J0.0205 F40.
Y18.3695 I0. J-0.0205
G1 X12.4903 Y18.3698
X12.4913 Y18.3705
X12.4919 Y18.3716
Y18.3729
X12.4914 Y18.374
X12.4905 Y18.3748
X12.4829 Y18.3789
X12.4818 Y18.3793
X12.4805 Y18.3791
X12.4795 Y18.3784
X12.4789 Y18.3773
X12.4788 Y18.3761
X12.4792 Y18.3749
Z-0.1482 F20.
X12.4797 Y18.3742 Z-0.1527
X12.4815 Y18.3723 Z-0.1565
X12.483 Y18.3712 Z-0.1578
X12.4847 Y18.3704 Z-0.1591
X12.4869 Y18.3697 Z-0.1596
X12.4891 Y18.3695 Z-0.16
G3 Y18.4105 I0. J0.0205 F40.
Y18.3695 I0. J-0.0205
G1 X12.4903 Y18.3698
X12.4913 Y18.3705
X12.4919 Y18.3716
Y18.3729
X12.4914 Y18.374
X12.4905 Y18.3748
X12.4829 Y18.3789
X12.4818 Y18.3793
X12.4805 Y18.3791
X12.4795 Y18.3784
X12.4789 Y18.3773
X12.4788 Y18.3761
X12.4792 Y18.3749
Z-0.1882 F20.
X12.4797 Y18.3742 Z-0.1927
X12.4815 Y18.3723 Z-0.1965
X12.483 Y18.3712 Z-0.1978
X12.4847 Y18.3704 Z-0.1991
X12.4869 Y18.3697 Z-0.1996
X12.4891 Y18.3695 Z-0.2
G3 Y18.4105 I0. J0.0205 F40.
Y18.3695 I0. J-0.0205
G1 X12.4903 Y18.3698
X12.4913 Y18.3705
X12.4919 Y18.3716
Y18.3729
X12.4914 Y18.374
X12.4905 Y18.3748
X12.4829 Y18.3789
X12.4818 Y18.3793
X12.4805 Y18.3791
X12.4795 Y18.3784
X12.4789 Y18.3773
X12.4788 Y18.3761
X12.4792 Y18.3749
Z-0.2132 F20.
X12.4797 Y18.3742 Z-0.2177
X12.4815 Y18.3723 Z-0.2215
X12.483 Y18.3712 Z-0.2228
X12.4847 Y18.3704 Z-0.2241
X12.4869 Y18.3697 Z-0.2246
X12.4891 Y18.3695 Z-0.225
G3 Y18.4105 I0. J0.0205 F40.
Y18.3695 I0. J-0.0205
G1 X12.4903 Y18.3698
X12.4913 Y18.3705
X12.4919 Y18.3716
Y18.3729
X12.4914 Y18.374
X12.4905 Y18.3748
X12.4829 Y18.3789
X12.4818 Y18.3793
X12.4805 Y18.3791
X12.4795 Y18.3784
X12.4789 Y18.3773
X12.4788 Y18.3761
X12.4792 Y18.3749
Z-0.2382 F20.
X12.4797 Y18.3742 Z-0.2427
X12.4815 Y18.3723 Z-0.2465
X12.483 Y18.3712 Z-0.2478
X12.4847 Y18.3704 Z-0.2491
X12.4869 Y18.3697 Z-0.2496
X12.4891 Y18.3695 Z-0.25
G3 Y18.4105 I0. J0.0205 F40.
Y18.3695 I0. J-0.0205
G1 X12.4914 Y18.3697 Z-0.2496
X12.4935 Y18.3704 Z-0.2491
X12.4952 Y18.3712 Z-0.2478
X12.4968 Y18.3723 Z-0.2465
X12.4985 Y18.3742 Z-0.2427
X12.4991 Y18.3749 Z-0.2382
G0 Z0.2
X13.416 Y16.9943
G1 Z0.1 F20.
Z-0.0282
X13.4157 Y16.9951 Z-0.0327
X13.4152 Y16.9963 Z-0.0346
X13.4145 Y16.9974 Z-0.0365
X13.4132 Y16.9988 Z-0.0378
X13.4116 Y16.9999 Z-0.0391
X13.4095 Y17.0007 Z-0.0396
X13.4073 Y17.001 Z-0.04
G3 X13.3983 Y16.992 I0. J-0.009 F40.
X13.4163 I0.009 J0.
X13.4073 Y17.001 I-0.009 J0.
G1 X13.4062 Y17.0007
X13.4052 Y17.0001
X13.4047 Y16.9991
X13.4045 Y16.998
X13.4049 Y16.9969
X13.4056 Y16.996
X13.4116 Y16.9914
X13.4126 Y16.9909
X13.4138
X13.4148 Y16.9913
X13.4156 Y16.9921
X13.416 Y16.9931
Y16.9943
Z-0.0682 F20.
X13.4157 Y16.9951 Z-0.0727
X13.4152 Y16.9963 Z-0.0746
X13.4145 Y16.9974 Z-0.0765
X13.4132 Y16.9988 Z-0.0778
X13.4116 Y16.9999 Z-0.0791
X13.4095 Y17.0007 Z-0.0796
X13.4073 Y17.001 Z-0.08
G3 X13.3983 Y16.992 I0. J-0.009 F40.
X13.4163 I0.009 J0.
X13.4073 Y17.001 I-0.009 J0.
G1 X13.4062 Y17.0007
X13.4052 Y17.0001
X13.4047 Y16.9991
X13.4045 Y16.998
X13.4049 Y16.9969
X13.4056 Y16.996
X13.4116 Y16.9914
X13.4126 Y16.9909
X13.4138
X13.4148 Y16.9913
X13.4156 Y16.9921
X13.416 Y16.9931
Y16.9943
Z-0.1082 F20.
X13.4157 Y16.9951 Z-0.1127
X13.4152 Y16.9963 Z-0.1146
X13.4145 Y16.9974 Z-0.1165
X13.4132 Y16.9988 Z-0.1178
X13.4116 Y16.9999 Z-0.1191
X13.4095 Y17.0007 Z-0.1196
X13.4073 Y17.001 Z-0.12
G3 X13.3983 Y16.992 I0. J-0.009 F40.
X13.4163 I0.009 J0.
X13.4073 Y17.001 I-0.009 J0.
G1 X13.4062 Y17.0007
X13.4052 Y17.0001
X13.4047 Y16.9991
X13.4045 Y16.998
X13.4049 Y16.9969
X13.4056 Y16.996
X13.4116 Y16.9914
X13.4126 Y16.9909
X13.4138
X13.4148 Y16.9913
X13.4156 Y16.9921
X13.416 Y16.9931
Y16.9943
Z-0.1482 F20.
X13.4157 Y16.9951 Z-0.1527
X13.4152 Y16.9963 Z-0.1546
X13.4145 Y16.9974 Z-0.1565
X13.4132 Y16.9988 Z-0.1578
X13.4116 Y16.9999 Z-0.1591
X13.4095 Y17.0007 Z-0.1596
X13.4073 Y17.001 Z-0.16
G3 X13.3983 Y16.992 I0. J-0.009 F40.
X13.4163 I0.009 J0.
X13.4073 Y17.001 I-0.009 J0.
G1 X13.4062 Y17.0007
X13.4052 Y17.0001
X13.4047 Y16.9991
X13.4045 Y16.998
X13.4049 Y16.9969
X13.4056 Y16.996
X13.4116 Y16.9914
X13.4126 Y16.9909
X13.4138
X13.4148 Y16.9913
X13.4156 Y16.9921
X13.416 Y16.9931
Y16.9943
Z-0.1882 F20.
X13.4157 Y16.9951 Z-0.1927
X13.4152 Y16.9963 Z-0.1946
X13.4145 Y16.9974 Z-0.1965
X13.4132 Y16.9988 Z-0.1978
X13.4116 Y16.9999 Z-0.1991
X13.4095 Y17.0007 Z-0.1996
X13.4073 Y17.001 Z-0.2
G3 X13.3983 Y16.992 I0. J-0.009 F40.
X13.4163 I0.009 J0.
X13.4073 Y17.001 I-0.009 J0.
G1 X13.4062 Y17.0007
X13.4052 Y17.0001
X13.4047 Y16.9991
X13.4045 Y16.998
X13.4049 Y16.9969
X13.4056 Y16.996
X13.4116 Y16.9914
X13.4126 Y16.9909
X13.4138
X13.4148 Y16.9913
X13.4156 Y16.9921
X13.416 Y16.9931
Y16.9943
Z-0.2132 F20.
X13.4157 Y16.9951 Z-0.2177
X13.4152 Y16.9963 Z-0.2196
X13.4145 Y16.9974 Z-0.2215
X13.4132 Y16.9988 Z-0.2228
X13.4116 Y16.9999 Z-0.2241
X13.4095 Y17.0007 Z-0.2246
X13.4073 Y17.001 Z-0.225
G3 X13.3983 Y16.992 I0. J-0.009 F40.
X13.4163 I0.009 J0.
X13.4073 Y17.001 I-0.009 J0.
G1 X13.4062 Y17.0007
X13.4052 Y17.0001
X13.4047 Y16.9991
X13.4045 Y16.998
X13.4049 Y16.9969
X13.4056 Y16.996
X13.4116 Y16.9914
X13.4126 Y16.9909
X13.4138
X13.4148 Y16.9913
X13.4156 Y16.9921
X13.416 Y16.9931
Y16.9943
Z-0.2382 F20.
X13.4157 Y16.9951 Z-0.2427
X13.4152 Y16.9963 Z-0.2446
X13.4145 Y16.9974 Z-0.2465
X13.4132 Y16.9988 Z-0.2478
X13.4116 Y16.9999 Z-0.2491
X13.4095 Y17.0007 Z-0.2496
X13.4073 Y17.001 Z-0.25
G3 X13.3983 Y16.992 I0. J-0.009 F40.
X13.4163 I0.009 J0.
X13.4073 Y17.001 I-0.009 J0.
G1 X13.405 Y17.0007 Z-0.2496
X13.4029 Y16.9999 Z-0.2491
X13.4014 Y16.9988 Z-0.2478
X13.4001 Y16.9974 Z-0.2465
X13.3994 Y16.9963 Z-0.2446
X13.3988 Y16.9951 Z-0.2427
X13.3986 Y16.9943 Z-0.2382
G0 Z0.2
X5.7555 Y8.5
G1 Z0.1 F20.
Z-0.04
G3 X5.7445 I-0.0055 J0. F40.
X5.7555 I0.0055 J0.
G1 Z-0.08 F20.
G3 X5.7445 I-0.0055 J0. F40.
X5.7555 I0.0055 J0.
G1 Z-0.12 F20.
G3 X5.7445 I-0.0055 J0. F40.
X5.7555 I0.0055 J0.
G1 Z-0.16 F20.
G3 X5.7445 I-0.0055 J0. F40.
X5.7555 I0.0055 J0.
G1 Z-0.2 F20.
G3 X5.7445 I-0.0055 J0. F40.
X5.7555 I0.0055 J0.
G1 Z-0.225 F20.
G3 X5.7445 I-0.0055 J0. F40.
X5.7555 I0.0055 J0.
G1 Z-0.25 F20.
G3 X5.7445 I-0.0055 J0. F40.
X5.7555 I0.0055 J0.
G1 X5.7553 Y8.5015 Z-0.2497
X5.7546 Y8.503 Z-0.2493
X5.7536 Y8.5041 Z-0.249
X5.7525 Y8.5049 Z-0.2481
X5.7513 Y8.5053 Z-0.2472
X5.75 Y8.5055 Z-0.2463
X5.7488 Y8.5054 Z-0.2444
X5.7477 Y8.505 Z-0.2425
X5.747 Y8.5046 Z-0.2382
G0 Z0.6
g0 x0 y0

M9
M30
