(T1  D=6.35 CR=0. - ZMIN=-4.175 - FLAT END MILL)
G90 G94 G91.1 G40 G49 G17
G21
G0 Z15

(2D POCKET4)
M5
T1 M6
S16000 M3
G54
G0 X100.161 Y91.65
G43 Z16. H1
Z6.
G1 Z4.135 F1600.
X100.137 Y91.669 Z3.941
X100.068 Y91.724 Z3.765
X99.964 Y91.815 Z3.625
X99.839 Y91.936 Z3.534
X99.709 Y92.078 Z3.5
G2 X104.285 Y96.008 Z3.335 I2.288 J1.965
X99.709 Y92.078 Z3.169 I-2.288 J-1.965
X104.285 Y96.008 Z3.004 I2.288 J1.965
X99.709 Y92.078 Z2.838 I-2.288 J-1.965
X104.285 Y96.008 Z2.673 I2.288 J1.965
X99.709 Y92.078 Z2.508 I-2.288 J-1.965
X104.285 Y96.008 Z2.342 I2.288 J1.965
X99.709 Y92.078 Z2.177 I-2.288 J-1.965
X104.285 Y96.008 Z2.011 I2.288 J1.965
X99.709 Y92.078 Z1.846 I-2.288 J-1.965
X104.285 Y96.008 Z1.681 I2.288 J1.965
X99.709 Y92.078 Z1.515 I-2.288 J-1.965
X104.285 Y96.008 Z1.35 I2.288 J1.965
X99.709 Y92.078 Z1.184 I-2.288 J-1.965
X104.285 Y96.008 Z1.019 I2.288 J1.965
X99.709 Y92.078 Z0.854 I-2.288 J-1.965
X101.069 Y96.913 Z0.75 I2.288 J1.965
G3 X102.836 Y97.568 I-6.91 J21.358
G2 X103.124 Y97.377 I0.08 J-0.191
G1 Y91.303
G2 X102.88 Y91.218 I-0.137 J0.
G1 X99.031 Y96.067
G2 X99.142 Y96.383 I0.155 J0.123
G3 X101.069 Y96.913 I-4.982 J21.888
X103.383 Y100.027 I-1.03 J3.182
G2 X105.166 Y103.473 I4.395 J-0.09
G3 X106.882 Y104.907 I-11.066 J14.983
G2 X107.138 Y104.796 I0.104 J-0.11
G1 Y79.899
G2 X106.826 Y79.79 I-0.175 J0.
G1 X90.899 Y99.853
G2 X91.035 Y100.083 I0.112 J0.089
G3 X105.166 Y103.473 I3.065 J18.372
X106.354 Y107.206 I-1.985 J2.687
G2 X106.761 Y111.103 I4.537 J1.496
G3 X108.396 Y115.287 I-12.663 J7.359
G1 X111.125
Y75.737
X104.953
X81.926 Y104.745
X84.874 Y107.086
G3 X106.761 Y111.103 I9.224 J11.376
G2 X110.912 Y108.95 Z0.696 I2.024 J-1.176
G1 X103.916 Y93.71 Z0.57
G2 X99.662 Y95.663 Z0.515 I-2.127 J0.976
X101.069 Y96.913 Z0.5 I2.127 J-0.976
G3 X102.836 Y97.568 I-6.91 J21.358
G2 X103.124 Y97.377 I0.08 J-0.191
G1 Y91.303
G2 X102.88 Y91.218 I-0.137 J0.
G1 X99.031 Y96.067
G2 X99.142 Y96.383 I0.155 J0.123
G3 X101.069 Y96.913 I-4.982 J21.888
X103.383 Y100.027 I-1.03 J3.182
G2 X105.166 Y103.473 I4.395 J-0.09
G3 X106.882 Y104.907 I-11.066 J14.983
G2 X107.138 Y104.796 I0.104 J-0.11
G1 Y79.899
G2 X106.826 Y79.79 I-0.175 J0.
G1 X90.899 Y99.853
G2 X91.035 Y100.083 I0.112 J0.089
G3 X105.166 Y103.473 I3.065 J18.372
X106.354 Y107.206 I-1.985 J2.687
G2 X106.761 Y111.103 I4.537 J1.496
G3 X108.396 Y115.287 I-12.663 J7.359
G1 X111.125
Y75.737
X104.953
X81.926 Y104.745
X84.874 Y107.086
G3 X106.761 Y111.103 I9.224 J11.376
G2 X110.912 Y108.95 Z0.446 I2.024 J-1.176
G1 X103.916 Y93.71 Z0.32
G2 X99.662 Y95.663 Z0.265 I-2.127 J0.976
X101.069 Y96.913 Z0.25 I2.127 J-0.976
G3 X102.836 Y97.568 I-6.91 J21.358
G2 X103.124 Y97.377 I0.08 J-0.191
G1 Y91.303
G2 X102.88 Y91.218 I-0.137 J0.
G1 X99.031 Y96.067
G2 X99.142 Y96.383 I0.155 J0.123
G3 X101.069 Y96.913 I-4.982 J21.888
X103.383 Y100.027 I-1.03 J3.182
G2 X105.166 Y103.473 I4.395 J-0.09
G3 X106.882 Y104.907 I-11.066 J14.983
G2 X107.138 Y104.796 I0.104 J-0.11
G1 Y79.899
G2 X106.826 Y79.79 I-0.175 J0.
G1 X90.899 Y99.853
G2 X91.035 Y100.083 I0.112 J0.089
G3 X105.166 Y103.473 I3.065 J18.372
X106.354 Y107.206 I-1.985 J2.687
G2 X106.761 Y111.103 I4.537 J1.496
G3 X108.396 Y115.287 I-12.663 J7.359
G1 X111.125
Y75.737
X104.953
X81.926 Y104.745
X84.874 Y107.086
G3 X106.761 Y111.103 I9.224 J11.376
G2 X110.912 Y108.95 Z0.196 I2.024 J-1.176
G1 X103.916 Y93.71 Z0.07
G2 X99.662 Y95.663 Z0.015 I-2.127 J0.976
X101.069 Y96.913 Z0. I2.127 J-0.976
G3 X102.836 Y97.568 I-6.91 J21.358
G2 X103.124 Y97.377 I0.08 J-0.191
G1 Y91.303
G2 X102.88 Y91.218 I-0.137 J0.
G1 X99.031 Y96.067
G2 X99.142 Y96.383 I0.155 J0.123
G3 X101.069 Y96.913 I-4.982 J21.888
X103.383 Y100.027 I-1.03 J3.182
G2 X105.166 Y103.473 I4.395 J-0.09
G3 X106.882 Y104.907 I-11.066 J14.983
G2 X107.138 Y104.796 I0.104 J-0.11
G1 Y79.899
G2 X106.826 Y79.79 I-0.175 J0.
G1 X90.899 Y99.853
G2 X91.035 Y100.083 I0.112 J0.089
G3 X105.166 Y103.473 I3.065 J18.372
X106.354 Y107.206 I-1.985 J2.687
G2 X106.761 Y111.103 I4.537 J1.496
G3 X108.396 Y115.287 I-12.663 J7.359
G1 X111.125
Y75.737
X104.953
X81.926 Y104.745
X84.874 Y107.086
G3 X106.761 Y111.103 I9.224 J11.376
G2 X110.912 Y108.95 Z-0.054 I2.024 J-1.176
G1 X103.916 Y93.71 Z-0.18
G2 X99.662 Y95.663 Z-0.235 I-2.127 J0.976
X101.069 Y96.913 Z-0.25 I2.127 J-0.976
G3 X102.836 Y97.568 I-6.91 J21.358
G2 X103.124 Y97.377 I0.08 J-0.191
G1 Y91.303
G2 X102.88 Y91.218 I-0.137 J0.
G1 X99.031 Y96.067
G2 X99.142 Y96.383 I0.155 J0.123
G3 X101.069 Y96.913 I-4.982 J21.888
X103.383 Y100.027 I-1.03 J3.182
G2 X105.166 Y103.473 I4.395 J-0.09
G3 X106.882 Y104.907 I-11.066 J14.983
G2 X107.138 Y104.796 I0.104 J-0.11
G1 Y79.899
G2 X106.826 Y79.79 I-0.175 J0.
G1 X90.899 Y99.853
G2 X91.035 Y100.083 I0.112 J0.089
G3 X105.166 Y103.473 I3.065 J18.372
X106.354 Y107.206 I-1.985 J2.687
G2 X106.761 Y111.103 I4.537 J1.496
G3 X108.396 Y115.287 I-12.663 J7.359
G1 X111.125
Y75.737
X104.953
X81.926 Y104.745
X84.874 Y107.086
G3 X106.761 Y111.103 I9.224 J11.376
G2 X110.912 Y108.95 Z-0.304 I2.024 J-1.176
G1 X103.916 Y93.71 Z-0.43
G2 X99.662 Y95.663 Z-0.485 I-2.127 J0.976
X101.069 Y96.913 Z-0.5 I2.127 J-0.976
G3 X102.836 Y97.568 I-6.91 J21.358
G2 X103.124 Y97.377 I0.08 J-0.191
G1 Y91.303
G2 X102.88 Y91.218 I-0.137 J0.
G1 X99.031 Y96.067
G2 X99.142 Y96.383 I0.155 J0.123
G3 X101.069 Y96.913 I-4.982 J21.888
X103.383 Y100.027 I-1.03 J3.182
G2 X105.166 Y103.473 I4.395 J-0.09
G3 X106.882 Y104.907 I-11.066 J14.983
G2 X107.138 Y104.796 I0.104 J-0.11
G1 Y79.899
G2 X106.826 Y79.79 I-0.175 J0.
G1 X90.899 Y99.853
G2 X91.035 Y100.083 I0.112 J0.089
G3 X105.166 Y103.473 I3.065 J18.372
X106.354 Y107.206 I-1.985 J2.687
G2 X106.761 Y111.103 I4.537 J1.496
G3 X108.396 Y115.287 I-12.663 J7.359
G1 X111.125
Y75.737
X104.953
X81.926 Y104.745
X84.874 Y107.086
G3 X106.761 Y111.103 I9.224 J11.376
G2 X110.912 Y108.95 Z-0.554 I2.024 J-1.176
G1 X103.916 Y93.71 Z-0.68
G2 X99.662 Y95.663 Z-0.735 I-2.127 J0.976
X101.069 Y96.913 Z-0.75 I2.127 J-0.976
G3 X102.836 Y97.568 I-6.91 J21.358
G2 X103.124 Y97.377 I0.08 J-0.191
G1 Y91.303
G2 X102.88 Y91.218 I-0.137 J0.
G1 X99.031 Y96.067
G2 X99.142 Y96.383 I0.155 J0.123
G3 X101.069 Y96.913 I-4.982 J21.888
X103.383 Y100.027 I-1.03 J3.182
G2 X105.166 Y103.473 I4.395 J-0.09
G3 X106.882 Y104.907 I-11.066 J14.983
G2 X107.138 Y104.796 I0.104 J-0.11
G1 Y79.899
G2 X106.826 Y79.79 I-0.175 J0.
G1 X90.899 Y99.853
G2 X91.035 Y100.083 I0.112 J0.089
G3 X105.166 Y103.473 I3.065 J18.372
X106.354 Y107.206 I-1.985 J2.687
G2 X106.761 Y111.103 I4.537 J1.496
G3 X108.396 Y115.287 I-12.663 J7.359
G1 X111.125
Y75.737
X104.953
X81.926 Y104.745
X84.874 Y107.086
G3 X106.761 Y111.103 I9.224 J11.376
G2 X110.912 Y108.95 Z-0.804 I2.024 J-1.176
G1 X103.916 Y93.71 Z-0.93
G2 X99.662 Y95.663 Z-0.985 I-2.127 J0.976
X101.069 Y96.913 Z-1. I2.127 J-0.976
G3 X102.836 Y97.568 I-6.91 J21.358
G2 X103.124 Y97.377 I0.08 J-0.191
G1 Y91.303
G2 X102.88 Y91.218 I-0.137 J0.
G1 X99.031 Y96.067
G2 X99.142 Y96.383 I0.155 J0.123
G3 X101.069 Y96.913 I-4.982 J21.888
X103.383 Y100.027 I-1.03 J3.182
G2 X105.166 Y103.473 I4.395 J-0.09
G3 X106.882 Y104.907 I-11.066 J14.983
G2 X107.138 Y104.796 I0.104 J-0.11
G1 Y79.899
G2 X106.826 Y79.79 I-0.175 J0.
G1 X90.899 Y99.853
G2 X91.035 Y100.083 I0.112 J0.089
G3 X105.166 Y103.473 I3.065 J18.372
X106.354 Y107.206 I-1.985 J2.687
G2 X106.761 Y111.103 I4.537 J1.496
G3 X108.396 Y115.287 I-12.663 J7.359
G1 X111.125
Y75.737
X104.953
X81.926 Y104.745
X84.874 Y107.086
G3 X106.761 Y111.103 I9.224 J11.376
G2 X110.912 Y108.95 Z-1.054 I2.024 J-1.176
G1 X103.916 Y93.71 Z-1.18
G2 X99.662 Y95.663 Z-1.235 I-2.127 J0.976
X101.069 Y96.913 Z-1.25 I2.127 J-0.976
G3 X102.836 Y97.568 I-6.91 J21.358
G2 X103.124 Y97.377 I0.08 J-0.191
G1 Y91.303
G2 X102.88 Y91.218 I-0.137 J0.
G1 X99.031 Y96.067
G2 X99.142 Y96.383 I0.155 J0.123
G3 X101.069 Y96.913 I-4.982 J21.888
X103.383 Y100.027 I-1.03 J3.182
G2 X105.166 Y103.473 I4.395 J-0.09
G3 X106.882 Y104.907 I-11.066 J14.983
G2 X107.138 Y104.796 I0.104 J-0.11
G1 Y79.899
G2 X106.826 Y79.79 I-0.175 J0.
G1 X90.899 Y99.853
G2 X91.035 Y100.083 I0.112 J0.089
G3 X105.166 Y103.473 I3.065 J18.372
X106.354 Y107.206 I-1.985 J2.687
G2 X106.761 Y111.103 I4.537 J1.496
G3 X108.396 Y115.287 I-12.663 J7.359
G1 X111.125
Y75.737
X104.953
X81.926 Y104.745
X84.874 Y107.086
G3 X106.761 Y111.103 I9.224 J11.376
G2 X110.912 Y108.95 Z-1.304 I2.024 J-1.176
G1 X103.916 Y93.71 Z-1.43
G2 X99.662 Y95.663 Z-1.485 I-2.127 J0.976
X101.069 Y96.913 Z-1.5 I2.127 J-0.976
G3 X102.836 Y97.568 I-6.91 J21.358
G2 X103.124 Y97.377 I0.08 J-0.191
G1 Y91.303
G2 X102.88 Y91.218 I-0.137 J0.
G1 X99.031 Y96.067
G2 X99.142 Y96.383 I0.155 J0.123
G3 X101.069 Y96.913 I-4.982 J21.888
X103.383 Y100.027 I-1.03 J3.182
G2 X105.166 Y103.473 I4.395 J-0.09
G3 X106.882 Y104.907 I-11.066 J14.983
G2 X107.138 Y104.796 I0.104 J-0.11
G1 Y79.899
G2 X106.826 Y79.79 I-0.175 J0.
G1 X90.899 Y99.853
G2 X91.035 Y100.083 I0.112 J0.089
G3 X105.166 Y103.473 I3.065 J18.372
X106.354 Y107.206 I-1.985 J2.687
G2 X106.761 Y111.103 I4.537 J1.496
G3 X108.396 Y115.287 I-12.663 J7.359
G1 X111.125
Y75.737
X104.953
X81.926 Y104.745
X84.874 Y107.086
G3 X106.761 Y111.103 I9.224 J11.376
G2 X110.912 Y108.95 Z-1.554 I2.024 J-1.176
G1 X103.916 Y93.71 Z-1.68
G2 X99.662 Y95.663 Z-1.735 I-2.127 J0.976
X101.069 Y96.913 Z-1.75 I2.127 J-0.976
G3 X102.836 Y97.568 I-6.91 J21.358
G2 X103.124 Y97.377 I0.08 J-0.191
G1 Y91.303
G2 X102.88 Y91.218 I-0.137 J0.
G1 X99.031 Y96.067
G2 X99.142 Y96.383 I0.155 J0.123
G3 X101.069 Y96.913 I-4.982 J21.888
X103.383 Y100.027 I-1.03 J3.182
G2 X105.166 Y103.473 I4.395 J-0.09
G3 X106.882 Y104.907 I-11.066 J14.983
G2 X107.138 Y104.796 I0.104 J-0.11
G1 Y79.899
G2 X106.826 Y79.79 I-0.175 J0.
G1 X90.899 Y99.853
G2 X91.035 Y100.083 I0.112 J0.089
G3 X105.166 Y103.473 I3.065 J18.372
X106.354 Y107.206 I-1.985 J2.687
G2 X106.761 Y111.103 I4.537 J1.496
G3 X108.396 Y115.287 I-12.663 J7.359
G1 X111.125
Y75.737
X104.953
X81.926 Y104.745
X84.874 Y107.086
G3 X106.761 Y111.103 I9.224 J11.376
G2 X110.912 Y108.95 Z-1.804 I2.024 J-1.176
G1 X103.916 Y93.71 Z-1.93
G2 X99.662 Y95.663 Z-1.985 I-2.127 J0.976
X101.069 Y96.913 Z-2. I2.127 J-0.976
G3 X102.836 Y97.568 I-6.91 J21.358
G2 X103.124 Y97.377 I0.08 J-0.191
G1 Y91.303
G2 X102.88 Y91.218 I-0.137 J0.
G1 X99.031 Y96.067
G2 X99.142 Y96.383 I0.155 J0.123
G3 X101.069 Y96.913 I-4.982 J21.888
X103.383 Y100.027 I-1.03 J3.182
G2 X105.166 Y103.473 I4.395 J-0.09
G3 X106.882 Y104.907 I-11.066 J14.983
G2 X107.138 Y104.796 I0.104 J-0.11
G1 Y79.899
G2 X106.826 Y79.79 I-0.175 J0.
G1 X90.899 Y99.853
G2 X91.035 Y100.083 I0.112 J0.089
G3 X105.166 Y103.473 I3.065 J18.372
X106.354 Y107.206 I-1.985 J2.687
G2 X106.761 Y111.103 I4.537 J1.496
G3 X108.396 Y115.287 I-12.663 J7.359
G1 X111.125
Y75.737
X104.953
X81.926 Y104.745
X84.874 Y107.086
G3 X106.761 Y111.103 I9.224 J11.376
G2 X110.912 Y108.95 Z-2.054 I2.024 J-1.176
G1 X103.916 Y93.71 Z-2.18
G2 X99.662 Y95.663 Z-2.235 I-2.127 J0.976
X101.069 Y96.913 Z-2.25 I2.127 J-0.976
G3 X102.836 Y97.568 I-6.91 J21.358
G2 X103.124 Y97.377 I0.08 J-0.191
G1 Y91.303
G2 X102.88 Y91.218 I-0.137 J0.
G1 X99.031 Y96.067
G2 X99.142 Y96.383 I0.155 J0.123
G3 X101.069 Y96.913 I-4.982 J21.888
X103.383 Y100.027 I-1.03 J3.182
G2 X105.166 Y103.473 I4.395 J-0.09
G3 X106.882 Y104.907 I-11.066 J14.983
G2 X107.138 Y104.796 I0.104 J-0.11
G1 Y79.899
G2 X106.826 Y79.79 I-0.175 J0.
G1 X90.899 Y99.853
G2 X91.035 Y100.083 I0.112 J0.089
G3 X105.166 Y103.473 I3.065 J18.372
X106.354 Y107.206 I-1.985 J2.687
G2 X106.761 Y111.103 I4.537 J1.496
G3 X108.396 Y115.287 I-12.663 J7.359
G1 X111.125
Y75.737
X104.953
X81.926 Y104.745
X84.874 Y107.086
G3 X106.761 Y111.103 I9.224 J11.376
G2 X110.912 Y108.95 Z-2.304 I2.024 J-1.176
G1 X103.916 Y93.71 Z-2.43
G2 X99.662 Y95.663 Z-2.485 I-2.127 J0.976
X101.069 Y96.913 Z-2.5 I2.127 J-0.976
G3 X102.836 Y97.568 I-6.91 J21.358
G2 X103.124 Y97.377 I0.08 J-0.191
G1 Y91.303
G2 X102.88 Y91.218 I-0.137 J0.
G1 X99.031 Y96.067
G2 X99.142 Y96.383 I0.155 J0.123
G3 X101.069 Y96.913 I-4.982 J21.888
X103.383 Y100.027 I-1.03 J3.182
G2 X105.166 Y103.473 I4.395 J-0.09
G3 X106.882 Y104.907 I-11.066 J14.983
G2 X107.138 Y104.796 I0.104 J-0.11
G1 Y79.899
G2 X106.826 Y79.79 I-0.175 J0.
G1 X90.899 Y99.853
G2 X91.035 Y100.083 I0.112 J0.089
G3 X105.166 Y103.473 I3.065 J18.372
X106.354 Y107.206 I-1.985 J2.687
G2 X106.761 Y111.103 I4.537 J1.496
G3 X108.396 Y115.287 I-12.663 J7.359
G1 X111.125
Y75.737
X104.953
X81.926 Y104.745
X84.874 Y107.086
G3 X106.761 Y111.103 I9.224 J11.376
G2 X110.912 Y108.95 Z-2.554 I2.024 J-1.176
G1 X103.916 Y93.71 Z-2.68
G2 X99.662 Y95.663 Z-2.735 I-2.127 J0.976
X101.069 Y96.913 Z-2.75 I2.127 J-0.976
G3 X102.836 Y97.568 I-6.91 J21.358
G2 X103.124 Y97.377 I0.08 J-0.191
G1 Y91.303
G2 X102.88 Y91.218 I-0.137 J0.
G1 X99.031 Y96.067
G2 X99.142 Y96.383 I0.155 J0.123
G3 X101.069 Y96.913 I-4.982 J21.888
X103.383 Y100.027 I-1.03 J3.182
G2 X105.166 Y103.473 I4.395 J-0.09
G3 X106.882 Y104.907 I-11.066 J14.983
G2 X107.138 Y104.796 I0.104 J-0.11
G1 Y79.899
G2 X106.826 Y79.79 I-0.175 J0.
G1 X90.899 Y99.853
G2 X91.035 Y100.083 I0.112 J0.089
G3 X105.166 Y103.473 I3.065 J18.372
X106.354 Y107.206 I-1.985 J2.687
G2 X106.761 Y111.103 I4.537 J1.496
G3 X108.396 Y115.287 I-12.663 J7.359
G1 X111.125
Y75.737
X104.953
X81.926 Y104.745
X84.874 Y107.086
G3 X106.761 Y111.103 I9.224 J11.376
G2 X110.912 Y108.95 Z-2.804 I2.024 J-1.176
G1 X103.916 Y93.71 Z-2.93
G2 X99.662 Y95.663 Z-2.985 I-2.127 J0.976
X101.069 Y96.913 Z-3. I2.127 J-0.976
G3 X102.836 Y97.568 I-6.91 J21.358
G2 X103.124 Y97.377 I0.08 J-0.191
G1 Y91.303
G2 X102.88 Y91.218 I-0.137 J0.
G1 X99.031 Y96.067
G2 X99.142 Y96.383 I0.155 J0.123
G3 X101.069 Y96.913 I-4.982 J21.888
X103.383 Y100.027 I-1.03 J3.182
G2 X105.166 Y103.473 I4.395 J-0.09
G3 X106.882 Y104.907 I-11.066 J14.983
G2 X107.138 Y104.796 I0.104 J-0.11
G1 Y79.899
G2 X106.826 Y79.79 I-0.175 J0.
G1 X90.899 Y99.853
G2 X91.035 Y100.083 I0.112 J0.089
G3 X105.166 Y103.473 I3.065 J18.372
X106.354 Y107.206 I-1.985 J2.687
G2 X106.761 Y111.103 I4.537 J1.496
G3 X108.396 Y115.287 I-12.663 J7.359
G1 X111.125
Y75.737
X104.953
X81.926 Y104.745
X84.874 Y107.086
G3 X106.761 Y111.103 I9.224 J11.376
G2 X110.912 Y108.95 Z-3.054 I2.024 J-1.176
G1 X103.916 Y93.71 Z-3.18
G2 X99.662 Y95.663 Z-3.235 I-2.127 J0.976
X101.069 Y96.913 Z-3.25 I2.127 J-0.976
G3 X102.836 Y97.568 I-6.91 J21.358
G2 X103.124 Y97.377 I0.08 J-0.191
G1 Y91.303
G2 X102.88 Y91.218 I-0.137 J0.
G1 X99.031 Y96.067
G2 X99.142 Y96.383 I0.155 J0.123
G3 X101.069 Y96.913 I-4.982 J21.888
X103.383 Y100.027 I-1.03 J3.182
G2 X105.166 Y103.473 I4.395 J-0.09
G3 X106.882 Y104.907 I-11.066 J14.983
G2 X107.138 Y104.796 I0.104 J-0.11
G1 Y79.899
G2 X106.826 Y79.79 I-0.175 J0.
G1 X90.899 Y99.853
G2 X91.035 Y100.083 I0.112 J0.089
G3 X105.166 Y103.473 I3.065 J18.372
X106.354 Y107.206 I-1.985 J2.687
G2 X106.761 Y111.103 I4.537 J1.496
G3 X108.396 Y115.287 I-12.663 J7.359
G1 X111.125
Y75.737
X104.953
X81.926 Y104.745
X84.874 Y107.086
G3 X106.761 Y111.103 I9.224 J11.376
G2 X110.912 Y108.95 Z-3.304 I2.024 J-1.176
G1 X103.916 Y93.71 Z-3.43
G2 X99.662 Y95.663 Z-3.485 I-2.127 J0.976
X101.069 Y96.913 Z-3.5 I2.127 J-0.976
G3 X102.836 Y97.568 I-6.91 J21.358
G2 X103.124 Y97.377 I0.08 J-0.191
G1 Y91.303
G2 X102.88 Y91.218 I-0.137 J0.
G1 X99.031 Y96.067
G2 X99.142 Y96.383 I0.155 J0.123
G3 X101.069 Y96.913 I-4.982 J21.888
X103.383 Y100.027 I-1.03 J3.182
G2 X105.166 Y103.473 I4.395 J-0.09
G3 X106.882 Y104.907 I-11.066 J14.983
G2 X107.138 Y104.796 I0.104 J-0.11
G1 Y79.899
G2 X106.826 Y79.79 I-0.175 J0.
G1 X90.899 Y99.853
G2 X91.035 Y100.083 I0.112 J0.089
G3 X105.166 Y103.473 I3.065 J18.372
X106.354 Y107.206 I-1.985 J2.687
G2 X106.761 Y111.103 I4.537 J1.496
G3 X108.396 Y115.287 I-12.663 J7.359
G1 X111.125
Y75.737
X104.953
X81.926 Y104.745
X84.874 Y107.086
G3 X106.761 Y111.103 I9.224 J11.376
G2 X110.912 Y108.95 Z-3.554 I2.024 J-1.176
G1 X103.916 Y93.71 Z-3.68
G2 X99.662 Y95.663 Z-3.735 I-2.127 J0.976
X101.069 Y96.913 Z-3.75 I2.127 J-0.976
G3 X102.836 Y97.568 I-6.91 J21.358
G2 X103.124 Y97.377 I0.08 J-0.191
G1 Y91.303
G2 X102.88 Y91.218 I-0.137 J0.
G1 X99.031 Y96.067
G2 X99.142 Y96.383 I0.155 J0.123
G3 X101.069 Y96.913 I-4.982 J21.888
X103.383 Y100.027 I-1.03 J3.182
G2 X105.166 Y103.473 I4.395 J-0.09
G3 X106.882 Y104.907 I-11.066 J14.983
G2 X107.138 Y104.796 I0.104 J-0.11
G1 Y79.899
G2 X106.826 Y79.79 I-0.175 J0.
G1 X90.899 Y99.853
G2 X91.035 Y100.083 I0.112 J0.089
G3 X105.166 Y103.473 I3.065 J18.372
X106.354 Y107.206 I-1.985 J2.687
G2 X106.761 Y111.103 I4.537 J1.496
G3 X108.396 Y115.287 I-12.663 J7.359
G1 X111.125
Y75.737
X104.953
X81.926 Y104.745
X84.874 Y107.086
G3 X106.761 Y111.103 I9.224 J11.376
G2 X110.912 Y108.95 Z-3.804 I2.024 J-1.176
G1 X103.916 Y93.71 Z-3.93
G2 X99.662 Y95.663 Z-3.985 I-2.127 J0.976
X101.069 Y96.913 Z-4. I2.127 J-0.976
G3 X102.836 Y97.568 I-6.91 J21.358
G2 X103.124 Y97.377 I0.08 J-0.191
G1 Y91.303
G2 X102.88 Y91.218 I-0.137 J0.
G1 X99.031 Y96.067
G2 X99.142 Y96.383 I0.155 J0.123
G3 X101.069 Y96.913 I-4.982 J21.888
X103.383 Y100.027 I-1.03 J3.182
G2 X105.166 Y103.473 I4.395 J-0.09
G3 X106.882 Y104.907 I-11.066 J14.983
G2 X107.138 Y104.796 I0.104 J-0.11
G1 Y79.899
G2 X106.826 Y79.79 I-0.175 J0.
G1 X90.899 Y99.853
G2 X91.035 Y100.083 I0.112 J0.089
G3 X105.166 Y103.473 I3.065 J18.372
X106.354 Y107.206 I-1.985 J2.687
G2 X106.761 Y111.103 I4.537 J1.496
G3 X108.396 Y115.287 I-12.663 J7.359
G1 X111.125
Y75.737
X104.953
X81.926 Y104.745
X84.874 Y107.086
G3 X106.761 Y111.103 I9.224 J11.376
G2 X110.912 Y108.95 Z-4.038 I2.024 J-1.176
G1 X103.916 Y93.71 Z-4.126
G2 X99.662 Y95.663 Z-4.165 I-2.127 J0.976
X101.069 Y96.913 Z-4.175 I2.127 J-0.976
G3 X102.836 Y97.568 I-6.91 J21.358
G2 X103.124 Y97.377 I0.08 J-0.191
G1 Y91.303
G2 X102.88 Y91.218 I-0.137 J0.
G1 X99.031 Y96.067
G2 X99.142 Y96.383 I0.155 J0.123
G3 X101.069 Y96.913 I-4.982 J21.888
X103.383 Y100.027 I-1.03 J3.182
G2 X105.166 Y103.473 I4.395 J-0.09
G3 X106.882 Y104.907 I-11.066 J14.983
G2 X107.138 Y104.796 I0.104 J-0.11
G1 Y79.899
G2 X106.826 Y79.79 I-0.175 J0.
G1 X90.899 Y99.853
G2 X91.035 Y100.083 I0.112 J0.089
G3 X105.166 Y103.473 I3.065 J18.372
X106.354 Y107.206 I-1.985 J2.687
G2 X106.761 Y111.103 I4.537 J1.496
G3 X108.396 Y115.287 I-12.663 J7.359
G1 X111.125
Y75.737
X104.953
X81.926 Y104.745
X84.874 Y107.086
G3 X106.761 Y111.103 I9.224 J11.376
G1 X106.817 Y111.184 Z-4.159
X106.884 Y111.255 Z-4.144
X106.953 Y111.309 Z-4.099
X107.03 Y111.354 Z-4.054
X107.095 Y111.381 Z-3.983
X107.162 Y111.401 Z-3.913
X107.251 Y111.416 Z-3.736
X107.282 Y111.418 Z-3.54
G0 Z16.

(2D POCKET4)
G0 X119.708 Y180.756
Z16.
Z6.
G1 Z4.135 F1600.
X119.732 Y180.738 Z3.941
X119.801 Y180.682 Z3.765
X119.905 Y180.592 Z3.625
X120.03 Y180.471 Z3.534
X120.161 Y180.328 Z3.5
G2 X115.584 Y176.399 Z3.335 I-2.288 J-1.965
X120.161 Y180.328 Z3.169 I2.288 J1.965
X115.584 Y176.399 Z3.004 I-2.288 J-1.965
X120.161 Y180.328 Z2.838 I2.288 J1.965
X115.584 Y176.399 Z2.673 I-2.288 J-1.965
X120.161 Y180.328 Z2.508 I2.288 J1.965
X115.584 Y176.399 Z2.342 I-2.288 J-1.965
X120.161 Y180.328 Z2.177 I2.288 J1.965
X115.584 Y176.399 Z2.011 I-2.288 J-1.965
X120.161 Y180.328 Z1.846 I2.288 J1.965
X115.584 Y176.399 Z1.681 I-2.288 J-1.965
X120.161 Y180.328 Z1.515 I2.288 J1.965
X115.584 Y176.399 Z1.35 I-2.288 J-1.965
X120.161 Y180.328 Z1.184 I2.288 J1.965
X115.584 Y176.399 Z1.019 I-2.288 J-1.965
X120.161 Y180.328 Z0.854 I2.288 J1.965
X118.801 Y175.494 Z0.75 I-2.288 J-1.965
G3 X117.033 Y174.839 I6.91 J-21.358
G2 X116.746 Y175.03 I-0.08 J0.191
G1 Y181.104
G2 X116.989 Y181.188 I0.137 J0.
G1 X120.839 Y176.339
G2 X120.728 Y176.024 I-0.155 J-0.123
G3 X118.801 Y175.494 I4.982 J-21.888
X116.486 Y172.38 I1.03 J-3.182
G2 X114.703 Y168.934 I-4.395 J0.09
G3 X112.987 Y167.5 I11.066 J-14.983
G2 X112.731 Y167.61 I-0.104 J0.11
G1 Y192.508
G2 X113.043 Y192.617 I0.175 J0.
G1 X128.97 Y172.554
G2 X128.834 Y172.324 I-0.112 J-0.089
G3 X114.703 Y168.934 I-3.065 J-18.372
X113.515 Y165.201 I1.985 J-2.687
G2 X113.108 Y161.304 I-4.537 J-1.496
G3 X111.473 Y157.12 I12.663 J-7.359
G1 X108.744
Y196.67
X114.916
X137.943 Y167.661
X134.995 Y165.321
G3 X113.108 Y161.304 I-9.224 J-11.376
G2 X108.958 Y163.456 Z0.696 I-2.024 J1.176
G1 X115.953 Y178.697 Z0.57
G2 X120.207 Y176.744 Z0.515 I2.127 J-0.976
X118.801 Y175.494 Z0.5 I-2.127 J0.976
G3 X117.033 Y174.839 I6.91 J-21.358
G2 X116.746 Y175.03 I-0.08 J0.191
G1 Y181.104
G2 X116.989 Y181.188 I0.137 J0.
G1 X120.839 Y176.339
G2 X120.728 Y176.024 I-0.155 J-0.123
G3 X118.801 Y175.494 I4.982 J-21.888
X116.486 Y172.38 I1.03 J-3.182
G2 X114.703 Y168.934 I-4.395 J0.09
G3 X112.987 Y167.5 I11.066 J-14.983
G2 X112.731 Y167.61 I-0.104 J0.11
G1 Y192.508
G2 X113.043 Y192.617 I0.175 J0.
G1 X128.97 Y172.554
G2 X128.834 Y172.324 I-0.112 J-0.089
G3 X114.703 Y168.934 I-3.065 J-18.372
X113.515 Y165.201 I1.985 J-2.687
G2 X113.108 Y161.304 I-4.537 J-1.496
G3 X111.473 Y157.12 I12.663 J-7.359
G1 X108.744
Y196.67
X114.916
X137.943 Y167.661
X134.995 Y165.321
G3 X113.108 Y161.304 I-9.224 J-11.376
G2 X108.958 Y163.456 Z0.446 I-2.024 J1.176
G1 X115.953 Y178.697 Z0.32
G2 X120.207 Y176.744 Z0.265 I2.127 J-0.976
X118.801 Y175.494 Z0.25 I-2.127 J0.976
G3 X117.033 Y174.839 I6.91 J-21.358
G2 X116.746 Y175.03 I-0.08 J0.191
G1 Y181.104
G2 X116.989 Y181.188 I0.137 J0.
G1 X120.839 Y176.339
G2 X120.728 Y176.024 I-0.155 J-0.123
G3 X118.801 Y175.494 I4.982 J-21.888
X116.486 Y172.38 I1.03 J-3.182
G2 X114.703 Y168.934 I-4.395 J0.09
G3 X112.987 Y167.5 I11.066 J-14.983
G2 X112.731 Y167.61 I-0.104 J0.11
G1 Y192.508
G2 X113.043 Y192.617 I0.175 J0.
G1 X128.97 Y172.554
G2 X128.834 Y172.324 I-0.112 J-0.089
G3 X114.703 Y168.934 I-3.065 J-18.372
X113.515 Y165.201 I1.985 J-2.687
G2 X113.108 Y161.304 I-4.537 J-1.496
G3 X111.473 Y157.12 I12.663 J-7.359
G1 X108.744
Y196.67
X114.916
X137.943 Y167.661
X134.995 Y165.321
G3 X113.108 Y161.304 I-9.224 J-11.376
G2 X108.958 Y163.456 Z0.196 I-2.024 J1.176
G1 X115.953 Y178.697 Z0.07
G2 X120.207 Y176.744 Z0.015 I2.127 J-0.976
X118.801 Y175.494 Z0. I-2.127 J0.976
G3 X117.033 Y174.839 I6.91 J-21.358
G2 X116.746 Y175.03 I-0.08 J0.191
G1 Y181.104
G2 X116.989 Y181.188 I0.137 J0.
G1 X120.839 Y176.339
G2 X120.728 Y176.024 I-0.155 J-0.123
G3 X118.801 Y175.494 I4.982 J-21.888
X116.486 Y172.38 I1.03 J-3.182
G2 X114.703 Y168.934 I-4.395 J0.09
G3 X112.987 Y167.5 I11.066 J-14.983
G2 X112.731 Y167.61 I-0.104 J0.11
G1 Y192.508
G2 X113.043 Y192.617 I0.175 J0.
G1 X128.97 Y172.554
G2 X128.834 Y172.324 I-0.112 J-0.089
G3 X114.703 Y168.934 I-3.065 J-18.372
X113.515 Y165.201 I1.985 J-2.687
G2 X113.108 Y161.304 I-4.537 J-1.496
G3 X111.473 Y157.12 I12.663 J-7.359
G1 X108.744
Y196.67
X114.916
X137.943 Y167.661
X134.995 Y165.321
G3 X113.108 Y161.304 I-9.224 J-11.376
G2 X108.958 Y163.456 Z-0.054 I-2.024 J1.176
G1 X115.953 Y178.697 Z-0.18
G2 X120.207 Y176.744 Z-0.235 I2.127 J-0.976
X118.801 Y175.494 Z-0.25 I-2.127 J0.976
G3 X117.033 Y174.839 I6.91 J-21.358
G2 X116.746 Y175.03 I-0.08 J0.191
G1 Y181.104
G2 X116.989 Y181.188 I0.137 J0.
G1 X120.839 Y176.339
G2 X120.728 Y176.024 I-0.155 J-0.123
G3 X118.801 Y175.494 I4.982 J-21.888
X116.486 Y172.38 I1.03 J-3.182
G2 X114.703 Y168.934 I-4.395 J0.09
G3 X112.987 Y167.5 I11.066 J-14.983
G2 X112.731 Y167.61 I-0.104 J0.11
G1 Y192.508
G2 X113.043 Y192.617 I0.175 J0.
G1 X128.97 Y172.554
G2 X128.834 Y172.324 I-0.112 J-0.089
G3 X114.703 Y168.934 I-3.065 J-18.372
X113.515 Y165.201 I1.985 J-2.687
G2 X113.108 Y161.304 I-4.537 J-1.496
G3 X111.473 Y157.12 I12.663 J-7.359
G1 X108.744
Y196.67
X114.916
X137.943 Y167.661
X134.995 Y165.321
G3 X113.108 Y161.304 I-9.224 J-11.376
G2 X108.958 Y163.456 Z-0.304 I-2.024 J1.176
G1 X115.953 Y178.697 Z-0.43
G2 X120.207 Y176.744 Z-0.485 I2.127 J-0.976
X118.801 Y175.494 Z-0.5 I-2.127 J0.976
G3 X117.033 Y174.839 I6.91 J-21.358
G2 X116.746 Y175.03 I-0.08 J0.191
G1 Y181.104
G2 X116.989 Y181.188 I0.137 J0.
G1 X120.839 Y176.339
G2 X120.728 Y176.024 I-0.155 J-0.123
G3 X118.801 Y175.494 I4.982 J-21.888
X116.486 Y172.38 I1.03 J-3.182
G2 X114.703 Y168.934 I-4.395 J0.09
G3 X112.987 Y167.5 I11.066 J-14.983
G2 X112.731 Y167.61 I-0.104 J0.11
G1 Y192.508
G2 X113.043 Y192.617 I0.175 J0.
G1 X128.97 Y172.554
G2 X128.834 Y172.324 I-0.112 J-0.089
G3 X114.703 Y168.934 I-3.065 J-18.372
X113.515 Y165.201 I1.985 J-2.687
G2 X113.108 Y161.304 I-4.537 J-1.496
G3 X111.473 Y157.12 I12.663 J-7.359
G1 X108.744
Y196.67
X114.916
X137.943 Y167.661
X134.995 Y165.321
G3 X113.108 Y161.304 I-9.224 J-11.376
G2 X108.958 Y163.456 Z-0.554 I-2.024 J1.176
G1 X115.953 Y178.697 Z-0.68
G2 X120.207 Y176.744 Z-0.735 I2.127 J-0.976
X118.801 Y175.494 Z-0.75 I-2.127 J0.976
G3 X117.033 Y174.839 I6.91 J-21.358
G2 X116.746 Y175.03 I-0.08 J0.191
G1 Y181.104
G2 X116.989 Y181.188 I0.137 J0.
G1 X120.839 Y176.339
G2 X120.728 Y176.024 I-0.155 J-0.123
G3 X118.801 Y175.494 I4.982 J-21.888
X116.486 Y172.38 I1.03 J-3.182
G2 X114.703 Y168.934 I-4.395 J0.09
G3 X112.987 Y167.5 I11.066 J-14.983
G2 X112.731 Y167.61 I-0.104 J0.11
G1 Y192.508
G2 X113.043 Y192.617 I0.175 J0.
G1 X128.97 Y172.554
G2 X128.834 Y172.324 I-0.112 J-0.089
G3 X114.703 Y168.934 I-3.065 J-18.372
X113.515 Y165.201 I1.985 J-2.687
G2 X113.108 Y161.304 I-4.537 J-1.496
G3 X111.473 Y157.12 I12.663 J-7.359
G1 X108.744
Y196.67
X114.916
X137.943 Y167.661
X134.995 Y165.321
G3 X113.108 Y161.304 I-9.224 J-11.376
G2 X108.958 Y163.456 Z-0.804 I-2.024 J1.176
G1 X115.953 Y178.697 Z-0.93
G2 X120.207 Y176.744 Z-0.985 I2.127 J-0.976
X118.801 Y175.494 Z-1. I-2.127 J0.976
G3 X117.033 Y174.839 I6.91 J-21.358
G2 X116.746 Y175.03 I-0.08 J0.191
G1 Y181.104
G2 X116.989 Y181.188 I0.137 J0.
G1 X120.839 Y176.339
G2 X120.728 Y176.024 I-0.155 J-0.123
G3 X118.801 Y175.494 I4.982 J-21.888
X116.486 Y172.38 I1.03 J-3.182
G2 X114.703 Y168.934 I-4.395 J0.09
G3 X112.987 Y167.5 I11.066 J-14.983
G2 X112.731 Y167.61 I-0.104 J0.11
G1 Y192.508
G2 X113.043 Y192.617 I0.175 J0.
G1 X128.97 Y172.554
G2 X128.834 Y172.324 I-0.112 J-0.089
G3 X114.703 Y168.934 I-3.065 J-18.372
X113.515 Y165.201 I1.985 J-2.687
G2 X113.108 Y161.304 I-4.537 J-1.496
G3 X111.473 Y157.12 I12.663 J-7.359
G1 X108.744
Y196.67
X114.916
X137.943 Y167.661
X134.995 Y165.321
G3 X113.108 Y161.304 I-9.224 J-11.376
G2 X108.958 Y163.456 Z-1.054 I-2.024 J1.176
G1 X115.953 Y178.697 Z-1.18
G2 X120.207 Y176.744 Z-1.235 I2.127 J-0.976
X118.801 Y175.494 Z-1.25 I-2.127 J0.976
G3 X117.033 Y174.839 I6.91 J-21.358
G2 X116.746 Y175.03 I-0.08 J0.191
G1 Y181.104
G2 X116.989 Y181.188 I0.137 J0.
G1 X120.839 Y176.339
G2 X120.728 Y176.024 I-0.155 J-0.123
G3 X118.801 Y175.494 I4.982 J-21.888
X116.486 Y172.38 I1.03 J-3.182
G2 X114.703 Y168.934 I-4.395 J0.09
G3 X112.987 Y167.5 I11.066 J-14.983
G2 X112.731 Y167.61 I-0.104 J0.11
G1 Y192.508
G2 X113.043 Y192.617 I0.175 J0.
G1 X128.97 Y172.554
G2 X128.834 Y172.324 I-0.112 J-0.089
G3 X114.703 Y168.934 I-3.065 J-18.372
X113.515 Y165.201 I1.985 J-2.687
G2 X113.108 Y161.304 I-4.537 J-1.496
G3 X111.473 Y157.12 I12.663 J-7.359
G1 X108.744
Y196.67
X114.916
X137.943 Y167.661
X134.995 Y165.321
G3 X113.108 Y161.304 I-9.224 J-11.376
G2 X108.958 Y163.456 Z-1.304 I-2.024 J1.176
G1 X115.953 Y178.697 Z-1.43
G2 X120.207 Y176.744 Z-1.485 I2.127 J-0.976
X118.801 Y175.494 Z-1.5 I-2.127 J0.976
G3 X117.033 Y174.839 I6.91 J-21.358
G2 X116.746 Y175.03 I-0.08 J0.191
G1 Y181.104
G2 X116.989 Y181.188 I0.137 J0.
G1 X120.839 Y176.339
G2 X120.728 Y176.024 I-0.155 J-0.123
G3 X118.801 Y175.494 I4.982 J-21.888
X116.486 Y172.38 I1.03 J-3.182
G2 X114.703 Y168.934 I-4.395 J0.09
G3 X112.987 Y167.5 I11.066 J-14.983
G2 X112.731 Y167.61 I-0.104 J0.11
G1 Y192.508
G2 X113.043 Y192.617 I0.175 J0.
G1 X128.97 Y172.554
G2 X128.834 Y172.324 I-0.112 J-0.089
G3 X114.703 Y168.934 I-3.065 J-18.372
X113.515 Y165.201 I1.985 J-2.687
G2 X113.108 Y161.304 I-4.537 J-1.496
G3 X111.473 Y157.12 I12.663 J-7.359
G1 X108.744
Y196.67
X114.916
X137.943 Y167.661
X134.995 Y165.321
G3 X113.108 Y161.304 I-9.224 J-11.376
G2 X108.958 Y163.456 Z-1.554 I-2.024 J1.176
G1 X115.953 Y178.697 Z-1.68
G2 X120.207 Y176.744 Z-1.735 I2.127 J-0.976
X118.801 Y175.494 Z-1.75 I-2.127 J0.976
G3 X117.033 Y174.839 I6.91 J-21.358
G2 X116.746 Y175.03 I-0.08 J0.191
G1 Y181.104
G2 X116.989 Y181.188 I0.137 J0.
G1 X120.839 Y176.339
G2 X120.728 Y176.024 I-0.155 J-0.123
G3 X118.801 Y175.494 I4.982 J-21.888
X116.486 Y172.38 I1.03 J-3.182
G2 X114.703 Y168.934 I-4.395 J0.09
G3 X112.987 Y167.5 I11.066 J-14.983
G2 X112.731 Y167.61 I-0.104 J0.11
G1 Y192.508
G2 X113.043 Y192.617 I0.175 J0.
G1 X128.97 Y172.554
G2 X128.834 Y172.324 I-0.112 J-0.089
G3 X114.703 Y168.934 I-3.065 J-18.372
X113.515 Y165.201 I1.985 J-2.687
G2 X113.108 Y161.304 I-4.537 J-1.496
G3 X111.473 Y157.12 I12.663 J-7.359
G1 X108.744
Y196.67
X114.916
X137.943 Y167.661
X134.995 Y165.321
G3 X113.108 Y161.304 I-9.224 J-11.376
G2 X108.958 Y163.456 Z-1.804 I-2.024 J1.176
G1 X115.953 Y178.697 Z-1.93
G2 X120.207 Y176.744 Z-1.985 I2.127 J-0.976
X118.801 Y175.494 Z-2. I-2.127 J0.976
G3 X117.033 Y174.839 I6.91 J-21.358
G2 X116.746 Y175.03 I-0.08 J0.191
G1 Y181.104
G2 X116.989 Y181.188 I0.137 J0.
G1 X120.839 Y176.339
G2 X120.728 Y176.024 I-0.155 J-0.123
G3 X118.801 Y175.494 I4.982 J-21.888
X116.486 Y172.38 I1.03 J-3.182
G2 X114.703 Y168.934 I-4.395 J0.09
G3 X112.987 Y167.5 I11.066 J-14.983
G2 X112.731 Y167.61 I-0.104 J0.11
G1 Y192.508
G2 X113.043 Y192.617 I0.175 J0.
G1 X128.97 Y172.554
G2 X128.834 Y172.324 I-0.112 J-0.089
G3 X114.703 Y168.934 I-3.065 J-18.372
X113.515 Y165.201 I1.985 J-2.687
G2 X113.108 Y161.304 I-4.537 J-1.496
G3 X111.473 Y157.12 I12.663 J-7.359
G1 X108.744
Y196.67
X114.916
X137.943 Y167.661
X134.995 Y165.321
G3 X113.108 Y161.304 I-9.224 J-11.376
G2 X108.958 Y163.456 Z-2.054 I-2.024 J1.176
G1 X115.953 Y178.697 Z-2.18
G2 X120.207 Y176.744 Z-2.235 I2.127 J-0.976
X118.801 Y175.494 Z-2.25 I-2.127 J0.976
G3 X117.033 Y174.839 I6.91 J-21.358
G2 X116.746 Y175.03 I-0.08 J0.191
G1 Y181.104
G2 X116.989 Y181.188 I0.137 J0.
G1 X120.839 Y176.339
G2 X120.728 Y176.024 I-0.155 J-0.123
G3 X118.801 Y175.494 I4.982 J-21.888
X116.486 Y172.38 I1.03 J-3.182
G2 X114.703 Y168.934 I-4.395 J0.09
G3 X112.987 Y167.5 I11.066 J-14.983
G2 X112.731 Y167.61 I-0.104 J0.11
G1 Y192.508
G2 X113.043 Y192.617 I0.175 J0.
G1 X128.97 Y172.554
G2 X128.834 Y172.324 I-0.112 J-0.089
G3 X114.703 Y168.934 I-3.065 J-18.372
X113.515 Y165.201 I1.985 J-2.687
G2 X113.108 Y161.304 I-4.537 J-1.496
G3 X111.473 Y157.12 I12.663 J-7.359
G1 X108.744
Y196.67
X114.916
X137.943 Y167.661
X134.995 Y165.321
G3 X113.108 Y161.304 I-9.224 J-11.376
G2 X108.958 Y163.456 Z-2.304 I-2.024 J1.176
G1 X115.953 Y178.697 Z-2.43
G2 X120.207 Y176.744 Z-2.485 I2.127 J-0.976
X118.801 Y175.494 Z-2.5 I-2.127 J0.976
G3 X117.033 Y174.839 I6.91 J-21.358
G2 X116.746 Y175.03 I-0.08 J0.191
G1 Y181.104
G2 X116.989 Y181.188 I0.137 J0.
G1 X120.839 Y176.339
G2 X120.728 Y176.024 I-0.155 J-0.123
G3 X118.801 Y175.494 I4.982 J-21.888
X116.486 Y172.38 I1.03 J-3.182
G2 X114.703 Y168.934 I-4.395 J0.09
G3 X112.987 Y167.5 I11.066 J-14.983
G2 X112.731 Y167.61 I-0.104 J0.11
G1 Y192.508
G2 X113.043 Y192.617 I0.175 J0.
G1 X128.97 Y172.554
G2 X128.834 Y172.324 I-0.112 J-0.089
G3 X114.703 Y168.934 I-3.065 J-18.372
X113.515 Y165.201 I1.985 J-2.687
G2 X113.108 Y161.304 I-4.537 J-1.496
G3 X111.473 Y157.12 I12.663 J-7.359
G1 X108.744
Y196.67
X114.916
X137.943 Y167.661
X134.995 Y165.321
G3 X113.108 Y161.304 I-9.224 J-11.376
G2 X108.958 Y163.456 Z-2.554 I-2.024 J1.176
G1 X115.953 Y178.697 Z-2.68
G2 X120.207 Y176.744 Z-2.735 I2.127 J-0.976
X118.801 Y175.494 Z-2.75 I-2.127 J0.976
G3 X117.033 Y174.839 I6.91 J-21.358
G2 X116.746 Y175.03 I-0.08 J0.191
G1 Y181.104
G2 X116.989 Y181.188 I0.137 J0.
G1 X120.839 Y176.339
G2 X120.728 Y176.024 I-0.155 J-0.123
G3 X118.801 Y175.494 I4.982 J-21.888
X116.486 Y172.38 I1.03 J-3.182
G2 X114.703 Y168.934 I-4.395 J0.09
G3 X112.987 Y167.5 I11.066 J-14.983
G2 X112.731 Y167.61 I-0.104 J0.11
G1 Y192.508
G2 X113.043 Y192.617 I0.175 J0.
G1 X128.97 Y172.554
G2 X128.834 Y172.324 I-0.112 J-0.089
G3 X114.703 Y168.934 I-3.065 J-18.372
X113.515 Y165.201 I1.985 J-2.687
G2 X113.108 Y161.304 I-4.537 J-1.496
G3 X111.473 Y157.12 I12.663 J-7.359
G1 X108.744
Y196.67
X114.916
X137.943 Y167.661
X134.995 Y165.321
G3 X113.108 Y161.304 I-9.224 J-11.376
G2 X108.958 Y163.456 Z-2.804 I-2.024 J1.176
G1 X115.953 Y178.697 Z-2.93
G2 X120.207 Y176.744 Z-2.985 I2.127 J-0.976
X118.801 Y175.494 Z-3. I-2.127 J0.976
G3 X117.033 Y174.839 I6.91 J-21.358
G2 X116.746 Y175.03 I-0.08 J0.191
G1 Y181.104
G2 X116.989 Y181.188 I0.137 J0.
G1 X120.839 Y176.339
G2 X120.728 Y176.024 I-0.155 J-0.123
G3 X118.801 Y175.494 I4.982 J-21.888
X116.486 Y172.38 I1.03 J-3.182
G2 X114.703 Y168.934 I-4.395 J0.09
G3 X112.987 Y167.5 I11.066 J-14.983
G2 X112.731 Y167.61 I-0.104 J0.11
G1 Y192.508
G2 X113.043 Y192.617 I0.175 J0.
G1 X128.97 Y172.554
G2 X128.834 Y172.324 I-0.112 J-0.089
G3 X114.703 Y168.934 I-3.065 J-18.372
X113.515 Y165.201 I1.985 J-2.687
G2 X113.108 Y161.304 I-4.537 J-1.496
G3 X111.473 Y157.12 I12.663 J-7.359
G1 X108.744
Y196.67
X114.916
X137.943 Y167.661
X134.995 Y165.321
G3 X113.108 Y161.304 I-9.224 J-11.376
G2 X108.958 Y163.456 Z-3.054 I-2.024 J1.176
G1 X115.953 Y178.697 Z-3.18
G2 X120.207 Y176.744 Z-3.235 I2.127 J-0.976
X118.801 Y175.494 Z-3.25 I-2.127 J0.976
G3 X117.033 Y174.839 I6.91 J-21.358
G2 X116.746 Y175.03 I-0.08 J0.191
G1 Y181.104
G2 X116.989 Y181.188 I0.137 J0.
G1 X120.839 Y176.339
G2 X120.728 Y176.024 I-0.155 J-0.123
G3 X118.801 Y175.494 I4.982 J-21.888
X116.486 Y172.38 I1.03 J-3.182
G2 X114.703 Y168.934 I-4.395 J0.09
G3 X112.987 Y167.5 I11.066 J-14.983
G2 X112.731 Y167.61 I-0.104 J0.11
G1 Y192.508
G2 X113.043 Y192.617 I0.175 J0.
G1 X128.97 Y172.554
G2 X128.834 Y172.324 I-0.112 J-0.089
G3 X114.703 Y168.934 I-3.065 J-18.372
X113.515 Y165.201 I1.985 J-2.687
G2 X113.108 Y161.304 I-4.537 J-1.496
G3 X111.473 Y157.12 I12.663 J-7.359
G1 X108.744
Y196.67
X114.916
X137.943 Y167.661
X134.995 Y165.321
G3 X113.108 Y161.304 I-9.224 J-11.376
G2 X108.958 Y163.456 Z-3.304 I-2.024 J1.176
G1 X115.953 Y178.697 Z-3.43
G2 X120.207 Y176.744 Z-3.485 I2.127 J-0.976
X118.801 Y175.494 Z-3.5 I-2.127 J0.976
G3 X117.033 Y174.839 I6.91 J-21.358
G2 X116.746 Y175.03 I-0.08 J0.191
G1 Y181.104
G2 X116.989 Y181.188 I0.137 J0.
G1 X120.839 Y176.339
G2 X120.728 Y176.024 I-0.155 J-0.123
G3 X118.801 Y175.494 I4.982 J-21.888
X116.486 Y172.38 I1.03 J-3.182
G2 X114.703 Y168.934 I-4.395 J0.09
G3 X112.987 Y167.5 I11.066 J-14.983
G2 X112.731 Y167.61 I-0.104 J0.11
G1 Y192.508
G2 X113.043 Y192.617 I0.175 J0.
G1 X128.97 Y172.554
G2 X128.834 Y172.324 I-0.112 J-0.089
G3 X114.703 Y168.934 I-3.065 J-18.372
X113.515 Y165.201 I1.985 J-2.687
G2 X113.108 Y161.304 I-4.537 J-1.496
G3 X111.473 Y157.12 I12.663 J-7.359
G1 X108.744
Y196.67
X114.916
X137.943 Y167.661
X134.995 Y165.321
G3 X113.108 Y161.304 I-9.224 J-11.376
G2 X108.958 Y163.456 Z-3.554 I-2.024 J1.176
G1 X115.953 Y178.697 Z-3.68
G2 X120.207 Y176.744 Z-3.735 I2.127 J-0.976
X118.801 Y175.494 Z-3.75 I-2.127 J0.976
G3 X117.033 Y174.839 I6.91 J-21.358
G2 X116.746 Y175.03 I-0.08 J0.191
G1 Y181.104
G2 X116.989 Y181.188 I0.137 J0.
G1 X120.839 Y176.339
G2 X120.728 Y176.024 I-0.155 J-0.123
G3 X118.801 Y175.494 I4.982 J-21.888
X116.486 Y172.38 I1.03 J-3.182
G2 X114.703 Y168.934 I-4.395 J0.09
G3 X112.987 Y167.5 I11.066 J-14.983
G2 X112.731 Y167.61 I-0.104 J0.11
G1 Y192.508
G2 X113.043 Y192.617 I0.175 J0.
G1 X128.97 Y172.554
G2 X128.834 Y172.324 I-0.112 J-0.089
G3 X114.703 Y168.934 I-3.065 J-18.372
X113.515 Y165.201 I1.985 J-2.687
G2 X113.108 Y161.304 I-4.537 J-1.496
G3 X111.473 Y157.12 I12.663 J-7.359
G1 X108.744
Y196.67
X114.916
X137.943 Y167.661
X134.995 Y165.321
G3 X113.108 Y161.304 I-9.224 J-11.376
G2 X108.958 Y163.456 Z-3.804 I-2.024 J1.176
G1 X115.953 Y178.697 Z-3.93
G2 X120.207 Y176.744 Z-3.985 I2.127 J-0.976
X118.801 Y175.494 Z-4. I-2.127 J0.976
G3 X117.033 Y174.839 I6.91 J-21.358
G2 X116.746 Y175.03 I-0.08 J0.191
G1 Y181.104
G2 X116.989 Y181.188 I0.137 J0.
G1 X120.839 Y176.339
G2 X120.728 Y176.024 I-0.155 J-0.123
G3 X118.801 Y175.494 I4.982 J-21.888
X116.486 Y172.38 I1.03 J-3.182
G2 X114.703 Y168.934 I-4.395 J0.09
G3 X112.987 Y167.5 I11.066 J-14.983
G2 X112.731 Y167.61 I-0.104 J0.11
G1 Y192.508
G2 X113.043 Y192.617 I0.175 J0.
G1 X128.97 Y172.554
G2 X128.834 Y172.324 I-0.112 J-0.089
G3 X114.703 Y168.934 I-3.065 J-18.372
X113.515 Y165.201 I1.985 J-2.687
G2 X113.108 Y161.304 I-4.537 J-1.496
G3 X111.473 Y157.12 I12.663 J-7.359
G1 X108.744
Y196.67
X114.916
X137.943 Y167.661
X134.995 Y165.321
G3 X113.108 Y161.304 I-9.224 J-11.376
G2 X108.958 Y163.456 Z-4.038 I-2.024 J1.176
G1 X115.953 Y178.697 Z-4.126
G2 X120.207 Y176.744 Z-4.165 I2.127 J-0.976
X118.801 Y175.494 Z-4.175 I-2.127 J0.976
G3 X117.033 Y174.839 I6.91 J-21.358
G2 X116.746 Y175.03 I-0.08 J0.191
G1 Y181.104
G2 X116.989 Y181.188 I0.137 J0.
G1 X120.839 Y176.339
G2 X120.728 Y176.024 I-0.155 J-0.123
G3 X118.801 Y175.494 I4.982 J-21.888
X116.486 Y172.38 I1.03 J-3.182
G2 X114.703 Y168.934 I-4.395 J0.09
G3 X112.987 Y167.5 I11.066 J-14.983
G2 X112.731 Y167.61 I-0.104 J0.11
G1 Y192.508
G2 X113.043 Y192.617 I0.175 J0.
G1 X128.97 Y172.554
G2 X128.834 Y172.324 I-0.112 J-0.089
G3 X114.703 Y168.934 I-3.065 J-18.372
X113.515 Y165.201 I1.985 J-2.687
G2 X113.108 Y161.304 I-4.537 J-1.496
G3 X111.473 Y157.12 I12.663 J-7.359
G1 X108.744
Y196.67
X114.916
X137.943 Y167.661
X134.995 Y165.321
G3 X113.108 Y161.304 I-9.224 J-11.376
G1 X113.053 Y161.223 Z-4.159
X112.985 Y161.152 Z-4.144
X112.916 Y161.097 Z-4.099
X112.839 Y161.053 Z-4.054
X112.775 Y161.026 Z-3.983
X112.707 Y161.005 Z-3.913
X112.618 Y160.991 Z-3.736
X112.587 Y160.989 Z-3.54
G0 Z16.

(BORE2)
G0 X38.989 Y95.885
Z15.
Z3.
G1 Z1.635 F1600.
G18 G2 X39.624 Z1. I0.635 K0.
G1 X39.942
G17 G2 X40.576 Y95.25 I0. J-0.635
X35.623 Z0.901 I-2.477 J0.
X40.576 Z0.803 I2.477 J0.
X35.623 Z0.704 I-2.477 J0.
X40.577 Z0.605 I2.477 J0.
X35.623 Z0.507 I-2.477 J0.
X40.577 Z0.408 I2.477 J0.
X35.623 Z0.309 I-2.477 J0.
X40.577 Z0.211 I2.477 J0.
X35.623 Z0.112 I-2.477 J0.
X40.577 Z0.014 I2.477 J0.
X35.623 Z-0.085 I-2.477 J0.
X40.577 Z-0.184 I2.477 J0.
X35.623 Z-0.282 I-2.477 J0.
X40.577 Z-0.381 I2.477 J0.
X35.623 Z-0.48 I-2.477 J0.
X40.577 Z-0.578 I2.477 J0.
X35.623 Z-0.677 I-2.477 J0.
X40.577 Z-0.776 I2.477 J0.
X35.623 Z-0.874 I-2.477 J0.
X40.577 Z-0.973 I2.477 J0.
X35.623 Z-1.072 I-2.477 J0.
X40.577 Z-1.17 I2.477 J0.
X35.623 Z-1.269 I-2.477 J0.
X40.577 Z-1.368 I2.477 J0.
X35.623 Z-1.466 I-2.477 J0.
X40.577 Z-1.565 I2.477 J0.
X35.623 Z-1.663 I-2.477 J0.
X40.577 Z-1.762 I2.477 J0.
X35.623 Z-1.861 I-2.477 J0.
X40.577 Z-1.959 I2.477 J0.
X35.623 Z-2.058 I-2.477 J0.
X40.577 Z-2.157 I2.477 J0.
X35.623 Z-2.255 I-2.477 J0.
X40.577 Z-2.354 I2.477 J0.
X35.623 Z-2.453 I-2.477 J0.
X40.577 Z-2.551 I2.477 J0.
X35.623 Z-2.65 I-2.477 J0.
X40.577 Z-2.749 I2.477 J0.
X35.623 Z-2.847 I-2.477 J0.
X40.577 Z-2.946 I2.477 J0.
X35.623 Z-3.045 I-2.477 J0.
X40.577 Z-3.143 I2.477 J0.
X35.623 Z-3.242 I-2.477 J0.
X40.577 Z-3.34 I2.477 J0.
X35.623 Z-3.439 I-2.477 J0.
X40.577 Z-3.538 I2.477 J0.
X35.623 Z-3.636 I-2.477 J0.
X40.577 Z-3.735 I2.477 J0.
X35.623 Z-3.834 I-2.477 J0.
X40.577 Z-3.932 I2.477 J0.
X35.623 Z-4.031 I-2.477 J0.
X40.577 Z-4.13 I2.477 J0.
X38.413 Y92.793 Z-4.175 I-2.477 J0.
X37.787 Y97.707 I-0.313 J2.457
X38.413 Y92.793 I0.313 J-2.457
X37.703 Y93.343 I-0.08 J0.63
G1 X37.663 Y93.658
X37.65 Y93.756 Z-4.167
X37.638 Y93.853 Z-4.144
X37.626 Y93.944 Z-4.106
X37.616 Y94.028 Z-4.054
X37.606 Y94.103 Z-3.989
X37.598 Y94.168 Z-3.913
X37.591 Y94.219 Z-3.828
X37.587 Y94.257 Z-3.736
X37.584 Y94.28 Z-3.639
X37.583 Y94.288 Z-3.54
G0 Z15.

(2D CONTOUR1)
G0 Z16.
X70.755 Y118.818
Z6.
G1 Z3.5 F800.
X35.642 Y163.051 Z2.514 F1600.
G3 X9.525 Y153.945 Z1.883 I-11.471 J-9.106
G1 Y89.058 Z0.75
Y15.875
G3 X15.875 Y9.525 I6.35 J0.
G1 X34.925
G3 X41.275 Y15.875 I0. J6.35
G1 Y30.827
G2 X79.359 Y52.638 I25.288 J0.
G1 X87.575 Y47.818
G3 X96.265 Y50.081 I3.213 J5.477
G1 X106.41 Y67.374
G3 X105.907 Y74.536 I-5.476 J3.213
G1 X35.642 Y163.051
G3 X9.525 Y153.945 I-11.471 J-9.106
G1 Y89.058
Y74.736 Z0.5
Y15.875
G3 X15.875 Y9.525 I6.35 J0.
G1 X34.925
G3 X41.275 Y15.875 I0. J6.35
G1 Y30.827
G2 X79.359 Y52.638 I25.288 J0.
G1 X87.575 Y47.818
G3 X96.265 Y50.081 I3.213 J5.477
G1 X106.41 Y67.374
G3 X105.907 Y74.536 I-5.476 J3.213
G1 X35.642 Y163.051
G3 X9.525 Y153.945 I-11.471 J-9.106
G1 Y89.058
Y74.736
Y60.413 Z0.25
Y15.875
G3 X15.875 Y9.525 I6.35 J0.
G1 X34.925
G3 X41.275 Y15.875 I0. J6.35
G1 Y30.827
G2 X79.359 Y52.638 I25.288 J0.
G1 X87.575 Y47.818
G3 X96.265 Y50.081 I3.213 J5.477
G1 X106.41 Y67.374
G3 X105.907 Y74.536 I-5.476 J3.213
G1 X35.642 Y163.051
G3 X9.525 Y153.945 I-11.471 J-9.106
G1 Y74.736
Y60.413
Y46.091 Z0.
Y15.875
G3 X15.875 Y9.525 I6.35 J0.
G1 X34.925
G3 X41.275 Y15.875 I0. J6.35
G1 Y30.827
G2 X79.359 Y52.638 I25.288 J0.
G1 X87.575 Y47.818
G3 X96.265 Y50.081 I3.213 J5.477
G1 X106.41 Y67.374
G3 X105.907 Y74.536 I-5.476 J3.213
G1 X35.642 Y163.051
G3 X9.525 Y153.945 I-11.471 J-9.106
G1 Y60.413
Y46.091
Y31.768 Z-0.25
Y15.875
G3 X15.875 Y9.525 I6.35 J0.
G1 X34.925
G3 X41.275 Y15.875 I0. J6.35
G1 Y30.827
G2 X79.359 Y52.638 I25.288 J0.
G1 X87.575 Y47.818
G3 X96.265 Y50.081 I3.213 J5.477
G1 X106.41 Y67.374
G3 X105.907 Y74.536 I-5.476 J3.213
G1 X35.642 Y163.051
G3 X9.525 Y153.945 I-11.471 J-9.106
G1 Y46.091
Y31.768
Y17.446 Z-0.5
Y15.875
G3 X15.875 Y9.525 I6.35 J0.
G1 X34.925
G3 X41.275 Y15.875 I0. J6.35
G1 Y30.827
G2 X79.359 Y52.638 I25.288 J0.
G1 X87.575 Y47.818
G3 X96.265 Y50.081 I3.213 J5.477
G1 X106.41 Y67.374
G3 X105.907 Y74.536 I-5.476 J3.213
G1 X35.642 Y163.051
G3 X9.525 Y153.945 I-11.471 J-9.106
G1 Y31.768
Y17.446
Y15.875 Z-0.527
G3 X15.875 Y9.525 Z-0.702 I6.35 J0.
G1 X18.652 Z-0.75
X34.925
G3 X41.275 Y15.875 I0. J6.35
G1 Y30.827
G2 X79.359 Y52.638 I25.288 J0.
G1 X87.575 Y47.818
G3 X96.265 Y50.081 I3.213 J5.477
G1 X106.41 Y67.374
G3 X105.907 Y74.536 I-5.476 J3.213
G1 X35.642 Y163.051
G3 X9.525 Y153.945 I-11.471 J-9.106
G1 Y17.446
Y15.875
G3 X15.875 Y9.525 I6.35 J0.
G1 X18.652
X32.975 Z-1.
X34.925
G3 X41.275 Y15.875 I0. J6.35
G1 Y30.827
G2 X79.359 Y52.638 I25.288 J0.
G1 X87.575 Y47.818
G3 X96.265 Y50.081 I3.213 J5.477
G1 X106.41 Y67.374
G3 X105.907 Y74.536 I-5.476 J3.213
G1 X35.642 Y163.051
G3 X9.525 Y153.945 I-11.471 J-9.106
G1 Y15.875
G3 X15.875 Y9.525 I6.35 J0.
G1 X32.975
X34.925 Z-1.034
G3 X41.275 Y15.875 Z-1.208 I0. J6.35
G1 Y18.273 Z-1.25
Y30.827
G2 X79.359 Y52.638 I25.288 J0.
G1 X87.575 Y47.818
G3 X96.265 Y50.081 I3.213 J5.477
G1 X106.41 Y67.374
G3 X105.907 Y74.536 I-5.476 J3.213
G1 X35.642 Y163.051
G3 X9.525 Y153.945 I-11.471 J-9.106
G1 Y15.875
G3 X15.875 Y9.525 I6.35 J0.
G1 X32.975
X34.925
G3 X41.275 Y15.875 I0. J6.35
G1 Y18.273
Y30.827 Z-1.469
G2 X41.337 Y32.594 Z-1.5 I25.288 J0.
X79.359 Y52.638 I25.226 J-1.767
G1 X87.575 Y47.818
G3 X96.265 Y50.081 I3.213 J5.477
G1 X106.41 Y67.374
G3 X105.907 Y74.536 I-5.476 J3.213
G1 X35.642 Y163.051
G3 X9.525 Y153.945 I-11.471 J-9.106
G1 Y15.875
G3 X15.875 Y9.525 I6.35 J0.
G1 X34.925
G3 X41.275 Y15.875 I0. J6.35
G1 Y30.827
G2 X41.337 Y32.594 I25.288 J0.
X46.224 Y45.854 Z-1.75 I25.226 J-1.767
X79.359 Y52.638 I20.339 J-15.027
G1 X87.575 Y47.818
G3 X96.265 Y50.081 I3.213 J5.477
G1 X106.41 Y67.374
G3 X105.907 Y74.536 I-5.476 J3.213
G1 X35.642 Y163.051
G3 X9.525 Y153.945 I-11.471 J-9.106
G1 Y15.875
G3 X15.875 Y9.525 I6.35 J0.
G1 X34.925
G3 X41.275 Y15.875 I0. J6.35
G1 Y30.827
G2 X46.224 Y45.854 I25.288 J0.
X57.463 Y54.42 Z-2. I20.339 J-15.027
X79.359 Y52.638 I9.1 J-23.594
G1 X87.575 Y47.818
G3 X96.265 Y50.081 I3.213 J5.477
G1 X106.41 Y67.374
G3 X105.907 Y74.536 I-5.476 J3.213
G1 X35.642 Y163.051
G3 X9.525 Y153.945 I-11.471 J-9.106
G1 Y15.875
G3 X15.875 Y9.525 I6.35 J0.
G1 X34.925
G3 X41.275 Y15.875 I0. J6.35
G1 Y30.827
G2 X57.463 Y54.42 I25.288 J0.
X71.544 Y55.619 Z-2.25 I9.1 J-23.594
X79.359 Y52.638 I-4.981 J-24.792
G1 X87.575 Y47.818
G3 X96.265 Y50.081 I3.213 J5.477
G1 X106.41 Y67.374
G3 X105.907 Y74.536 I-5.476 J3.213
G1 X35.642 Y163.051
G3 X9.525 Y153.945 I-11.471 J-9.106
G1 Y15.875
G3 X15.875 Y9.525 I6.35 J0.
G1 X34.925
G3 X41.275 Y15.875 I0. J6.35
G1 Y30.827
G2 X71.544 Y55.619 I25.288 J0.
X79.359 Y52.638 Z-2.397 I-4.981 J-24.792
G1 X84.465 Y49.642 Z-2.5
X87.575 Y47.818
G3 X96.265 Y50.081 I3.213 J5.477
G1 X106.41 Y67.374
G3 X105.907 Y74.536 I-5.476 J3.213
G1 X35.642 Y163.051
G3 X9.525 Y153.945 I-11.471 J-9.106
G1 Y15.875
G3 X15.875 Y9.525 I6.35 J0.
G1 X34.925
G3 X41.275 Y15.875 I0. J6.35
G1 Y30.827
G2 X79.359 Y52.638 I25.288 J0.
G1 X84.465 Y49.642
X87.575 Y47.818 Z-2.563
G3 X96.265 Y50.081 Z-2.737 I3.213 J5.477
G1 X96.641 Y50.722 Z-2.75
X106.41 Y67.374
G3 X105.907 Y74.536 I-5.476 J3.213
G1 X35.642 Y163.051
G3 X9.525 Y153.945 I-11.471 J-9.106
G1 Y15.875
G3 X15.875 Y9.525 I6.35 J0.
G1 X34.925
G3 X41.275 Y15.875 I0. J6.35
G1 Y30.827
G2 X79.359 Y52.638 I25.288 J0.
G1 X84.465 Y49.642
X87.575 Y47.818
G3 X96.265 Y50.081 I3.213 J5.477
G1 X96.641 Y50.722
X103.888 Y63.075 Z-3.
X106.41 Y67.374
G3 X105.907 Y74.536 I-5.476 J3.213
G1 X35.642 Y163.051
G3 X9.525 Y153.945 I-11.471 J-9.106
G1 Y15.875
G3 X15.875 Y9.525 I6.35 J0.
G1 X34.925
G3 X41.275 Y15.875 I0. J6.35
G1 Y30.827
G2 X79.359 Y52.638 I25.288 J0.
G1 X87.575 Y47.818
G3 X96.265 Y50.081 I3.213 J5.477
G1 X103.888 Y63.075
X106.41 Y67.374 Z-3.087
G3 X105.907 Y74.536 Z-3.22 I-5.476 J3.213
G1 X104.845 Y75.873 Z-3.25
X35.642 Y163.051
G3 X9.525 Y153.945 I-11.471 J-9.106
G1 Y15.875
G3 X15.875 Y9.525 I6.35 J0.
G1 X34.925
G3 X41.275 Y15.875 I0. J6.35
G1 Y30.827
G2 X79.359 Y52.638 I25.288 J0.
G1 X87.575 Y47.818
G3 X96.265 Y50.081 I3.213 J5.477
G1 X103.888 Y63.075
X106.41 Y67.374
G3 X105.907 Y74.536 I-5.476 J3.213
G1 X104.845 Y75.873
X95.94 Y87.091 Z-3.5
X35.642 Y163.051
G3 X9.525 Y153.945 I-11.471 J-9.106
G1 Y15.875
G3 X15.875 Y9.525 I6.35 J0.
G1 X34.925
G3 X41.275 Y15.875 I0. J6.35
G1 Y30.827
G2 X79.359 Y52.638 I25.288 J0.
G1 X87.575 Y47.818
G3 X96.265 Y50.081 I3.213 J5.477
G1 X106.41 Y67.374
G3 X105.907 Y74.536 I-5.476 J3.213
G1 X95.94 Y87.091
X87.035 Y98.309 Z-3.75
X35.642 Y163.051
G3 X9.525 Y153.945 I-11.471 J-9.106
G1 Y15.875
G3 X15.875 Y9.525 I6.35 J0.
G1 X34.925
G3 X41.275 Y15.875 I0. J6.35
G1 Y30.827
G2 X79.359 Y52.638 I25.288 J0.
G1 X87.575 Y47.818
G3 X96.265 Y50.081 I3.213 J5.477
G1 X106.41 Y67.374
G3 X105.907 Y74.536 I-5.476 J3.213
G1 X95.94 Y87.091
X87.035 Y98.309
X78.13 Y109.527 Z-4.
X35.642 Y163.051
G3 X9.525 Y153.945 I-11.471 J-9.106
G1 Y15.875
G3 X15.875 Y9.525 I6.35 J0.
G1 X34.925
G3 X41.275 Y15.875 I0. J6.35
G1 Y30.827
G2 X79.359 Y52.638 I25.288 J0.
G1 X87.575 Y47.818
G3 X96.265 Y50.081 I3.213 J5.477
G1 X106.41 Y67.374
G3 X105.907 Y74.536 I-5.476 J3.213
G1 X87.035 Y98.309
X78.13 Y109.527
X71.897 Y117.379 Z-4.175
X35.642 Y163.051
G3 X9.525 Y153.945 I-11.471 J-9.106
G1 Y15.875
G3 X15.875 Y9.525 I6.35 J0.
G1 X34.925
G3 X41.275 Y15.875 I0. J6.35
G1 Y30.827
G2 X79.359 Y52.638 I25.288 J0.
G1 X87.575 Y47.818
G3 X96.265 Y50.081 I3.213 J5.477
G1 X106.41 Y67.374
G3 X105.907 Y74.536 I-5.476 J3.213
G1 X78.13 Y109.527
X71.897 Y117.379
G0 Z16.

(BORE2)
G0 X79.28 Y176.522
Z15.
Z3.
G1 Z1.635 F1600.
G18 G3 X78.645 Z1. I-0.635 K0.
G1 X78.328
G17 G2 X77.693 Y177.157 I0. J0.635
X82.646 Z0.901 I2.477 J0.
X77.693 Z0.803 I-2.477 J0.
X82.646 Z0.704 I2.477 J0.
X77.693 Z0.605 I-2.477 J0.
X82.646 Z0.507 I2.477 J0.
X77.693 Z0.408 I-2.477 J0.
X82.646 Z0.309 I2.477 J0.
X77.693 Z0.211 I-2.477 J0.
X82.646 Z0.112 I2.477 J0.
X77.693 Z0.014 I-2.477 J0.
X82.646 Z-0.085 I2.477 J0.
X77.693 Z-0.184 I-2.477 J0.
X82.646 Z-0.282 I2.477 J0.
X77.693 Z-0.381 I-2.477 J0.
X82.646 Z-0.48 I2.477 J0.
X77.693 Z-0.578 I-2.477 J0.
X82.646 Z-0.677 I2.477 J0.
X77.693 Z-0.776 I-2.477 J0.
X82.646 Z-0.874 I2.477 J0.
X77.693 Z-0.973 I-2.477 J0.
X82.646 Z-1.072 I2.477 J0.
X77.693 Z-1.17 I-2.477 J0.
X82.646 Z-1.269 I2.477 J0.
X77.693 Z-1.368 I-2.477 J0.
X82.646 Z-1.466 I2.477 J0.
X77.693 Z-1.565 I-2.477 J0.
X82.646 Z-1.663 I2.477 J0.
X77.693 Z-1.762 I-2.477 J0.
X82.646 Z-1.861 I2.477 J0.
X77.693 Z-1.959 I-2.477 J0.
X82.646 Z-2.058 I2.477 J0.
X77.693 Z-2.157 I-2.477 J0.
X82.646 Z-2.255 I2.477 J0.
X77.693 Z-2.354 I-2.477 J0.
X82.646 Z-2.453 I2.477 J0.
X77.693 Z-2.551 I-2.477 J0.
X82.646 Z-2.65 I2.477 J0.
X77.693 Z-2.749 I-2.477 J0.
X82.646 Z-2.847 I2.477 J0.
X77.693 Z-2.946 I-2.477 J0.
X82.646 Z-3.045 I2.477 J0.
X77.693 Z-3.143 I-2.477 J0.
X82.646 Z-3.242 I2.477 J0.
X77.693 Z-3.34 I-2.477 J0.
X82.646 Z-3.439 I2.477 J0.
X77.693 Z-3.538 I-2.477 J0.
X82.646 Z-3.636 I2.477 J0.
X77.693 Z-3.735 I-2.477 J0.
X82.646 Z-3.834 I2.477 J0.
X77.693 Z-3.932 I-2.477 J0.
X82.646 Z-4.031 I2.477 J0.
X77.693 Z-4.13 I-2.477 J0.
X79.856 Y179.613 Z-4.175 I2.477 J0.
X80.483 Y174.7 I0.313 J-2.457
X79.856 Y179.613 I-0.313 J2.457
X80.566 Y179.064 I0.08 J-0.63
G1 X80.606 Y178.749
X80.619 Y178.65 Z-4.167
X80.631 Y178.554 Z-4.144
X80.643 Y178.463 Z-4.106
X80.654 Y178.379 Z-4.054
X80.663 Y178.303 Z-3.989
X80.671 Y178.239 Z-3.913
X80.678 Y178.188 Z-3.828
X80.683 Y178.15 Z-3.736
X80.686 Y178.127 Z-3.639
X80.687 Y178.119 Z-3.54
G0 Z15.

(2D CONTOUR1)
G0 Z16.
X47.514 Y153.589
Z6.
G1 Z3.5 F800.
X82.627 Y109.356 Z2.514 F1600.
G3 X108.744 Y118.462 Z1.883 I11.471 J9.106
G1 Y183.349 Z0.75
Y256.532
G3 X102.394 Y262.882 I-6.35 J0.
G1 X83.344
G3 X76.994 Y256.532 I0. J-6.35
G1 Y241.58
G2 X38.91 Y219.769 I-25.288 J0.
G1 X30.694 Y224.589
G3 X22.004 Y222.325 I-3.213 J-5.477
G1 X11.859 Y205.032
G3 X12.363 Y197.871 I5.476 J-3.213
G1 X82.627 Y109.356
G3 X108.744 Y118.462 I11.471 J9.106
G1 Y183.349
Y197.671 Z0.5
Y256.532
G3 X102.394 Y262.882 I-6.35 J0.
G1 X83.344
G3 X76.994 Y256.532 I0. J-6.35
G1 Y241.58
G2 X38.91 Y219.769 I-25.288 J0.
G1 X30.694 Y224.589
G3 X22.004 Y222.325 I-3.213 J-5.477
G1 X11.859 Y205.032
G3 X12.363 Y197.871 I5.476 J-3.213
G1 X82.627 Y109.356
G3 X108.744 Y118.462 I11.471 J9.106
G1 Y183.349
Y197.671
Y211.994 Z0.25
Y256.532
G3 X102.394 Y262.882 I-6.35 J0.
G1 X83.344
G3 X76.994 Y256.532 I0. J-6.35
G1 Y241.58
G2 X38.91 Y219.769 I-25.288 J0.
G1 X30.694 Y224.589
G3 X22.004 Y222.325 I-3.213 J-5.477
G1 X11.859 Y205.032
G3 X12.363 Y197.871 I5.476 J-3.213
G1 X82.627 Y109.356
G3 X108.744 Y118.462 I11.471 J9.106
G1 Y197.671
Y211.994
Y226.316 Z0.
Y256.532
G3 X102.394 Y262.882 I-6.35 J0.
G1 X83.344
G3 X76.994 Y256.532 I0. J-6.35
G1 Y241.58
G2 X38.91 Y219.769 I-25.288 J0.
G1 X30.694 Y224.589
G3 X22.004 Y222.325 I-3.213 J-5.477
G1 X11.859 Y205.032
G3 X12.363 Y197.871 I5.476 J-3.213
G1 X82.627 Y109.356
G3 X108.744 Y118.462 I11.471 J9.106
G1 Y211.994
Y226.316
Y240.639 Z-0.25
Y256.532
G3 X102.394 Y262.882 I-6.35 J0.
G1 X83.344
G3 X76.994 Y256.532 I0. J-6.35
G1 Y241.58
G2 X38.91 Y219.769 I-25.288 J0.
G1 X30.694 Y224.589
G3 X22.004 Y222.325 I-3.213 J-5.477
G1 X11.859 Y205.032
G3 X12.363 Y197.871 I5.476 J-3.213
G1 X82.627 Y109.356
G3 X108.744 Y118.462 I11.471 J9.106
G1 Y226.316
Y240.639
Y254.961 Z-0.5
Y256.532
G3 X102.394 Y262.882 I-6.35 J0.
G1 X83.344
G3 X76.994 Y256.532 I0. J-6.35
G1 Y241.58
G2 X38.91 Y219.769 I-25.288 J0.
G1 X30.694 Y224.589
G3 X22.004 Y222.325 I-3.213 J-5.477
G1 X11.859 Y205.032
G3 X12.363 Y197.871 I5.476 J-3.213
G1 X82.627 Y109.356
G3 X108.744 Y118.462 I11.471 J9.106
G1 Y240.639
Y254.961
Y256.532 Z-0.527
G3 X102.394 Y262.882 Z-0.702 I-6.35 J0.
G1 X99.617 Z-0.75
X83.344
G3 X76.994 Y256.532 I0. J-6.35
G1 Y241.58
G2 X38.91 Y219.769 I-25.288 J0.
G1 X30.694 Y224.589
G3 X22.004 Y222.325 I-3.213 J-5.477
G1 X11.859 Y205.032
G3 X12.363 Y197.871 I5.476 J-3.213
G1 X82.627 Y109.356
G3 X108.744 Y118.462 I11.471 J9.106
G1 Y254.961
Y256.532
G3 X102.394 Y262.882 I-6.35 J0.
G1 X99.617
X85.294 Z-1.
X83.344
G3 X76.994 Y256.532 I0. J-6.35
G1 Y241.58
G2 X38.91 Y219.769 I-25.288 J0.
G1 X30.694 Y224.589
G3 X22.004 Y222.325 I-3.213 J-5.477
G1 X11.859 Y205.032
G3 X12.363 Y197.871 I5.476 J-3.213
G1 X82.627 Y109.356
G3 X108.744 Y118.462 I11.471 J9.106
G1 Y256.532
G3 X102.394 Y262.882 I-6.35 J0.
G1 X85.294
X83.344 Z-1.034
G3 X76.994 Y256.532 Z-1.208 I0. J-6.35
G1 Y254.134 Z-1.25
Y241.58
G2 X38.91 Y219.769 I-25.288 J0.
G1 X30.694 Y224.589
G3 X22.004 Y222.325 I-3.213 J-5.477
G1 X11.859 Y205.032
G3 X12.363 Y197.871 I5.476 J-3.213
G1 X82.627 Y109.356
G3 X108.744 Y118.462 I11.471 J9.106
G1 Y256.532
G3 X102.394 Y262.882 I-6.35 J0.
G1 X85.294
X83.344
G3 X76.994 Y256.532 I0. J-6.35
G1 Y254.134
Y241.58 Z-1.469
G2 X76.932 Y239.813 Z-1.5 I-25.288 J0.
X38.91 Y219.769 I-25.226 J1.767
G1 X30.694 Y224.589
G3 X22.004 Y222.325 I-3.213 J-5.477
G1 X11.859 Y205.032
G3 X12.363 Y197.871 I5.476 J-3.213
G1 X82.627 Y109.356
G3 X108.744 Y118.462 I11.471 J9.106
G1 Y256.532
G3 X102.394 Y262.882 I-6.35 J0.
G1 X83.344
G3 X76.994 Y256.532 I0. J-6.35
G1 Y241.58
G2 X76.932 Y239.813 I-25.288 J0.
X72.045 Y226.553 Z-1.75 I-25.226 J1.767
X38.91 Y219.769 I-20.339 J15.027
G1 X30.694 Y224.589
G3 X22.004 Y222.325 I-3.213 J-5.477
G1 X11.859 Y205.032
G3 X12.363 Y197.871 I5.476 J-3.213
G1 X82.627 Y109.356
G3 X108.744 Y118.462 I11.471 J9.106
G1 Y256.532
G3 X102.394 Y262.882 I-6.35 J0.
G1 X83.344
G3 X76.994 Y256.532 I0. J-6.35
G1 Y241.58
G2 X72.045 Y226.553 I-25.288 J0.
X60.806 Y217.986 Z-2. I-20.339 J15.027
X38.91 Y219.769 I-9.1 J23.594
G1 X30.694 Y224.589
G3 X22.004 Y222.325 I-3.213 J-5.477
G1 X11.859 Y205.032
G3 X12.363 Y197.871 I5.476 J-3.213
G1 X82.627 Y109.356
G3 X108.744 Y118.462 I11.471 J9.106
G1 Y256.532
G3 X102.394 Y262.882 I-6.35 J0.
G1 X83.344
G3 X76.994 Y256.532 I0. J-6.35
G1 Y241.58
G2 X60.806 Y217.986 I-25.288 J0.
X46.725 Y216.788 Z-2.25 I-9.1 J23.594
X38.91 Y219.769 I4.981 J24.792
G1 X30.694 Y224.589
G3 X22.004 Y222.325 I-3.213 J-5.477
G1 X11.859 Y205.032
G3 X12.363 Y197.871 I5.476 J-3.213
G1 X82.627 Y109.356
G3 X108.744 Y118.462 I11.471 J9.106
G1 Y256.532
G3 X102.394 Y262.882 I-6.35 J0.
G1 X83.344
G3 X76.994 Y256.532 I0. J-6.35
G1 Y241.58
G2 X46.725 Y216.788 I-25.288 J0.
X38.91 Y219.769 Z-2.397 I4.981 J24.792
G1 X33.804 Y222.764 Z-2.5
X30.694 Y224.589
G3 X22.004 Y222.325 I-3.213 J-5.477
G1 X11.859 Y205.032
G3 X12.363 Y197.871 I5.476 J-3.213
G1 X82.627 Y109.356
G3 X108.744 Y118.462 I11.471 J9.106
G1 Y256.532
G3 X102.394 Y262.882 I-6.35 J0.
G1 X83.344
G3 X76.994 Y256.532 I0. J-6.35
G1 Y241.58
G2 X38.91 Y219.769 I-25.288 J0.
G1 X33.804 Y222.764
X30.694 Y224.589 Z-2.563
G3 X22.004 Y222.325 Z-2.737 I-3.213 J-5.477
G1 X21.629 Y221.685 Z-2.75
X11.859 Y205.032
G3 X12.363 Y197.871 I5.476 J-3.213
G1 X82.627 Y109.356
G3 X108.744 Y118.462 I11.471 J9.106
G1 Y256.532
G3 X102.394 Y262.882 I-6.35 J0.
G1 X83.344
G3 X76.994 Y256.532 I0. J-6.35
G1 Y241.58
G2 X38.91 Y219.769 I-25.288 J0.
G1 X33.804 Y222.764
X30.694 Y224.589
G3 X22.004 Y222.325 I-3.213 J-5.477
G1 X21.629 Y221.685
X14.381 Y209.332 Z-3.
X11.859 Y205.032
G3 X12.363 Y197.871 I5.476 J-3.213
G1 X82.627 Y109.356
G3 X108.744 Y118.462 I11.471 J9.106
G1 Y256.532
G3 X102.394 Y262.882 I-6.35 J0.
G1 X83.344
G3 X76.994 Y256.532 I0. J-6.35
G1 Y241.58
G2 X38.91 Y219.769 I-25.288 J0.
G1 X30.694 Y224.589
G3 X22.004 Y222.325 I-3.213 J-5.477
G1 X14.381 Y209.332
X11.859 Y205.032 Z-3.087
G3 X12.363 Y197.871 Z-3.22 I5.476 J-3.213
G1 X13.425 Y196.533 Z-3.25
X82.627 Y109.356
G3 X108.744 Y118.462 I11.471 J9.106
G1 Y256.532
G3 X102.394 Y262.882 I-6.35 J0.
G1 X83.344
G3 X76.994 Y256.532 I0. J-6.35
G1 Y241.58
G2 X38.91 Y219.769 I-25.288 J0.
G1 X30.694 Y224.589
G3 X22.004 Y222.325 I-3.213 J-5.477
G1 X14.381 Y209.332
X11.859 Y205.032
G3 X12.363 Y197.871 I5.476 J-3.213
G1 X13.425 Y196.533
X22.329 Y185.315 Z-3.5
X82.627 Y109.356
G3 X108.744 Y118.462 I11.471 J9.106
G1 Y256.532
G3 X102.394 Y262.882 I-6.35 J0.
G1 X83.344
G3 X76.994 Y256.532 I0. J-6.35
G1 Y241.58
G2 X38.91 Y219.769 I-25.288 J0.
G1 X30.694 Y224.589
G3 X22.004 Y222.325 I-3.213 J-5.477
G1 X11.859 Y205.032
G3 X12.363 Y197.871 I5.476 J-3.213
G1 X22.329 Y185.315
X31.234 Y174.098 Z-3.75
X82.627 Y109.356
G3 X108.744 Y118.462 I11.471 J9.106
G1 Y256.532
G3 X102.394 Y262.882 I-6.35 J0.
G1 X83.344
G3 X76.994 Y256.532 I0. J-6.35
G1 Y241.58
G2 X38.91 Y219.769 I-25.288 J0.
G1 X30.694 Y224.589
G3 X22.004 Y222.325 I-3.213 J-5.477
G1 X11.859 Y205.032
G3 X12.363 Y197.871 I5.476 J-3.213
G1 X22.329 Y185.315
X31.234 Y174.098
X40.139 Y162.88 Z-4.
X82.627 Y109.356
G3 X108.744 Y118.462 I11.471 J9.106
G1 Y256.532
G3 X102.394 Y262.882 I-6.35 J0.
G1 X83.344
G3 X76.994 Y256.532 I0. J-6.35
G1 Y241.58
G2 X38.91 Y219.769 I-25.288 J0.
G1 X30.694 Y224.589
G3 X22.004 Y222.325 I-3.213 J-5.477
G1 X11.859 Y205.032
G3 X12.363 Y197.871 I5.476 J-3.213
G1 X31.234 Y174.098
X40.139 Y162.88
X46.372 Y155.027 Z-4.175
X82.627 Y109.356
G3 X108.744 Y118.462 I11.471 J9.106
G1 Y256.532
G3 X102.394 Y262.882 I-6.35 J0.
G1 X83.344
G3 X76.994 Y256.532 I0. J-6.35
G1 Y241.58
G2 X38.91 Y219.769 I-25.288 J0.
G1 X30.694 Y224.589
G3 X22.004 Y222.325 I-3.213 J-5.477
G1 X11.859 Y205.032
G3 X12.363 Y197.871 I5.476 J-3.213
G1 X40.139 Y162.88
X46.372 Y155.027
G0 Z16.

(BORE2)
G0 X180.88 Y176.522
Z15.
Z3.
G1 Z1.635 F1600.
G18 G3 X180.245 Z1. I-0.635 K0.
G1 X179.928
G17 G2 X179.293 Y177.157 I0. J0.635
X184.246 Z0.901 I2.477 J0.
X179.293 Z0.803 I-2.477 J0.
X184.246 Z0.704 I2.477 J0.
X179.293 Z0.605 I-2.477 J0.
X184.246 Z0.507 I2.477 J0.
X179.293 Z0.408 I-2.477 J0.
X184.246 Z0.309 I2.477 J0.
X179.293 Z0.211 I-2.477 J0.
X184.246 Z0.112 I2.477 J0.
X179.293 Z0.014 I-2.477 J0.
X184.246 Z-0.085 I2.477 J0.
X179.293 Z-0.184 I-2.477 J0.
X184.246 Z-0.282 I2.477 J0.
X179.293 Z-0.381 I-2.477 J0.
X184.246 Z-0.48 I2.477 J0.
X179.293 Z-0.578 I-2.477 J0.
X184.246 Z-0.677 I2.477 J0.
X179.293 Z-0.776 I-2.477 J0.
X184.246 Z-0.874 I2.477 J0.
X179.293 Z-0.973 I-2.477 J0.
X184.246 Z-1.072 I2.477 J0.
X179.293 Z-1.17 I-2.477 J0.
X184.246 Z-1.269 I2.477 J0.
X179.293 Z-1.368 I-2.477 J0.
X184.246 Z-1.466 I2.477 J0.
X179.293 Z-1.565 I-2.477 J0.
X184.246 Z-1.663 I2.477 J0.
X179.293 Z-1.762 I-2.477 J0.
X184.246 Z-1.861 I2.477 J0.
X179.293 Z-1.959 I-2.477 J0.
X184.246 Z-2.058 I2.477 J0.
X179.293 Z-2.157 I-2.477 J0.
X184.246 Z-2.255 I2.477 J0.
X179.293 Z-2.354 I-2.477 J0.
X184.246 Z-2.453 I2.477 J0.
X179.293 Z-2.551 I-2.477 J0.
X184.246 Z-2.65 I2.477 J0.
X179.293 Z-2.749 I-2.477 J0.
X184.246 Z-2.847 I2.477 J0.
X179.293 Z-2.946 I-2.477 J0.
X184.246 Z-3.045 I2.477 J0.
X179.293 Z-3.143 I-2.477 J0.
X184.246 Z-3.242 I2.477 J0.
X179.293 Z-3.34 I-2.477 J0.
X184.246 Z-3.439 I2.477 J0.
X179.293 Z-3.538 I-2.477 J0.
X184.246 Z-3.636 I2.477 J0.
X179.293 Z-3.735 I-2.477 J0.
X184.246 Z-3.834 I2.477 J0.
X179.293 Z-3.932 I-2.477 J0.
X184.246 Z-4.031 I2.477 J0.
X179.293 Z-4.13 I-2.477 J0.
X181.456 Y179.613 Z-4.175 I2.477 J0.
X182.083 Y174.7 I0.313 J-2.457
X181.456 Y179.613 I-0.313 J2.457
X182.166 Y179.064 I0.08 J-0.63
G1 X182.206 Y178.749
X182.219 Y178.65 Z-4.167
X182.231 Y178.554 Z-4.144
X182.243 Y178.463 Z-4.106
X182.254 Y178.379 Z-4.054
X182.263 Y178.303 Z-3.989
X182.271 Y178.239 Z-3.913
X182.278 Y178.188 Z-3.828
X182.283 Y178.15 Z-3.736
X182.286 Y178.127 Z-3.639
X182.287 Y178.119 Z-3.54
G0 Z15.

(2D CONTOUR1)
G0 Z16.
X149.114 Y153.589
Z6.
G1 Z3.5 F800.
X184.227 Y109.356 Z2.514 F1600.
G3 X210.344 Y118.462 Z1.883 I11.471 J9.106
G1 Y183.349 Z0.75
Y256.532
G3 X203.994 Y262.882 I-6.35 J0.
G1 X184.944
G3 X178.594 Y256.532 I0. J-6.35
G1 Y241.58
G2 X140.51 Y219.769 I-25.288 J0.
G1 X132.294 Y224.589
G3 X123.604 Y222.325 I-3.213 J-5.477
G1 X113.459 Y205.032
G3 X113.963 Y197.871 I5.476 J-3.213
G1 X184.227 Y109.356
G3 X210.344 Y118.462 I11.471 J9.106
G1 Y183.349
Y197.671 Z0.5
Y256.532
G3 X203.994 Y262.882 I-6.35 J0.
G1 X184.944
G3 X178.594 Y256.532 I0. J-6.35
G1 Y241.58
G2 X140.51 Y219.769 I-25.288 J0.
G1 X132.294 Y224.589
G3 X123.604 Y222.325 I-3.213 J-5.477
G1 X113.459 Y205.032
G3 X113.963 Y197.871 I5.476 J-3.213
G1 X184.227 Y109.356
G3 X210.344 Y118.462 I11.471 J9.106
G1 Y183.349
Y197.671
Y211.994 Z0.25
Y256.532
G3 X203.994 Y262.882 I-6.35 J0.
G1 X184.944
G3 X178.594 Y256.532 I0. J-6.35
G1 Y241.58
G2 X140.51 Y219.769 I-25.288 J0.
G1 X132.294 Y224.589
G3 X123.604 Y222.325 I-3.213 J-5.477
G1 X113.459 Y205.032
G3 X113.963 Y197.871 I5.476 J-3.213
G1 X184.227 Y109.356
G3 X210.344 Y118.462 I11.471 J9.106
G1 Y197.671
Y211.994
Y226.316 Z0.
Y256.532
G3 X203.994 Y262.882 I-6.35 J0.
G1 X184.944
G3 X178.594 Y256.532 I0. J-6.35
G1 Y241.58
G2 X140.51 Y219.769 I-25.288 J0.
G1 X132.294 Y224.589
G3 X123.604 Y222.325 I-3.213 J-5.477
G1 X113.459 Y205.032
G3 X113.963 Y197.871 I5.476 J-3.213
G1 X184.227 Y109.356
G3 X210.344 Y118.462 I11.471 J9.106
G1 Y211.994
Y226.316
Y240.639 Z-0.25
Y256.532
G3 X203.994 Y262.882 I-6.35 J0.
G1 X184.944
G3 X178.594 Y256.532 I0. J-6.35
G1 Y241.58
G2 X140.51 Y219.769 I-25.288 J0.
G1 X132.294 Y224.589
G3 X123.604 Y222.325 I-3.213 J-5.477
G1 X113.459 Y205.032
G3 X113.963 Y197.871 I5.476 J-3.213
G1 X184.227 Y109.356
G3 X210.344 Y118.462 I11.471 J9.106
G1 Y226.316
Y240.639
Y254.961 Z-0.5
Y256.532
G3 X203.994 Y262.882 I-6.35 J0.
G1 X184.944
G3 X178.594 Y256.532 I0. J-6.35
G1 Y241.58
G2 X140.51 Y219.769 I-25.288 J0.
G1 X132.294 Y224.589
G3 X123.604 Y222.325 I-3.213 J-5.477
G1 X113.459 Y205.032
G3 X113.963 Y197.871 I5.476 J-3.213
G1 X184.227 Y109.356
G3 X210.344 Y118.462 I11.471 J9.106
G1 Y240.639
Y254.961
Y256.532 Z-0.527
G3 X203.994 Y262.882 Z-0.702 I-6.35 J0.
G1 X201.217 Z-0.75
X184.944
G3 X178.594 Y256.532 I0. J-6.35
G1 Y241.58
G2 X140.51 Y219.769 I-25.288 J0.
G1 X132.294 Y224.589
G3 X123.604 Y222.325 I-3.213 J-5.477
G1 X113.459 Y205.032
G3 X113.963 Y197.871 I5.476 J-3.213
G1 X184.227 Y109.356
G3 X210.344 Y118.462 I11.471 J9.106
G1 Y254.961
Y256.532
G3 X203.994 Y262.882 I-6.35 J0.
G1 X201.217
X186.894 Z-1.
X184.944
G3 X178.594 Y256.532 I0. J-6.35
G1 Y241.58
G2 X140.51 Y219.769 I-25.288 J0.
G1 X132.294 Y224.589
G3 X123.604 Y222.325 I-3.213 J-5.477
G1 X113.459 Y205.032
G3 X113.963 Y197.871 I5.476 J-3.213
G1 X184.227 Y109.356
G3 X210.344 Y118.462 I11.471 J9.106
G1 Y256.532
G3 X203.994 Y262.882 I-6.35 J0.
G1 X186.894
X184.944 Z-1.034
G3 X178.594 Y256.532 Z-1.208 I0. J-6.35
G1 Y254.134 Z-1.25
Y241.58
G2 X140.51 Y219.769 I-25.288 J0.
G1 X132.294 Y224.589
G3 X123.604 Y222.325 I-3.213 J-5.477
G1 X113.459 Y205.032
G3 X113.963 Y197.871 I5.476 J-3.213
G1 X184.227 Y109.356
G3 X210.344 Y118.462 I11.471 J9.106
G1 Y256.532
G3 X203.994 Y262.882 I-6.35 J0.
G1 X186.894
X184.944
G3 X178.594 Y256.532 I0. J-6.35
G1 Y254.134
Y241.58 Z-1.469
G2 X178.532 Y239.813 Z-1.5 I-25.288 J0.
X140.51 Y219.769 I-25.226 J1.767
G1 X132.294 Y224.589
G3 X123.604 Y222.325 I-3.213 J-5.477
G1 X113.459 Y205.032
G3 X113.963 Y197.871 I5.476 J-3.213
G1 X184.227 Y109.356
G3 X210.344 Y118.462 I11.471 J9.106
G1 Y256.532
G3 X203.994 Y262.882 I-6.35 J0.
G1 X184.944
G3 X178.594 Y256.532 I0. J-6.35
G1 Y241.58
G2 X178.532 Y239.813 I-25.288 J0.
X173.645 Y226.553 Z-1.75 I-25.226 J1.767
X140.51 Y219.769 I-20.339 J15.027
G1 X132.294 Y224.589
G3 X123.604 Y222.325 I-3.213 J-5.477
G1 X113.459 Y205.032
G3 X113.963 Y197.871 I5.476 J-3.213
G1 X184.227 Y109.356
G3 X210.344 Y118.462 I11.471 J9.106
G1 Y256.532
G3 X203.994 Y262.882 I-6.35 J0.
G1 X184.944
G3 X178.594 Y256.532 I0. J-6.35
G1 Y241.58
G2 X173.645 Y226.553 I-25.288 J0.
X162.406 Y217.986 Z-2. I-20.339 J15.027
X140.51 Y219.769 I-9.1 J23.594
G1 X132.294 Y224.589
G3 X123.604 Y222.325 I-3.213 J-5.477
G1 X113.459 Y205.032
G3 X113.963 Y197.871 I5.476 J-3.213
G1 X184.227 Y109.356
G3 X210.344 Y118.462 I11.471 J9.106
G1 Y256.532
G3 X203.994 Y262.882 I-6.35 J0.
G1 X184.944
G3 X178.594 Y256.532 I0. J-6.35
G1 Y241.58
G2 X162.406 Y217.986 I-25.288 J0.
X148.325 Y216.788 Z-2.25 I-9.1 J23.594
X140.51 Y219.769 I4.981 J24.792
G1 X132.294 Y224.589
G3 X123.604 Y222.325 I-3.213 J-5.477
G1 X113.459 Y205.032
G3 X113.963 Y197.871 I5.476 J-3.213
G1 X184.227 Y109.356
G3 X210.344 Y118.462 I11.471 J9.106
G1 Y256.532
G3 X203.994 Y262.882 I-6.35 J0.
G1 X184.944
G3 X178.594 Y256.532 I0. J-6.35
G1 Y241.58
G2 X148.325 Y216.788 I-25.288 J0.
X140.51 Y219.769 Z-2.397 I4.981 J24.792
G1 X135.404 Y222.764 Z-2.5
X132.294 Y224.589
G3 X123.604 Y222.325 I-3.213 J-5.477
G1 X113.459 Y205.032
G3 X113.963 Y197.871 I5.476 J-3.213
G1 X184.227 Y109.356
G3 X210.344 Y118.462 I11.471 J9.106
G1 Y256.532
G3 X203.994 Y262.882 I-6.35 J0.
G1 X184.944
G3 X178.594 Y256.532 I0. J-6.35
G1 Y241.58
G2 X140.51 Y219.769 I-25.288 J0.
G1 X135.404 Y222.764
X132.294 Y224.589 Z-2.563
G3 X123.604 Y222.325 Z-2.737 I-3.213 J-5.477
G1 X123.229 Y221.685 Z-2.75
X113.459 Y205.032
G3 X113.963 Y197.871 I5.476 J-3.213
G1 X184.227 Y109.356
G3 X210.344 Y118.462 I11.471 J9.106
G1 Y256.532
G3 X203.994 Y262.882 I-6.35 J0.
G1 X184.944
G3 X178.594 Y256.532 I0. J-6.35
G1 Y241.58
G2 X140.51 Y219.769 I-25.288 J0.
G1 X135.404 Y222.764
X132.294 Y224.589
G3 X123.604 Y222.325 I-3.213 J-5.477
G1 X123.229 Y221.685
X115.981 Y209.332 Z-3.
X113.459 Y205.032
G3 X113.963 Y197.871 I5.476 J-3.213
G1 X184.227 Y109.356
G3 X210.344 Y118.462 I11.471 J9.106
G1 Y256.532
G3 X203.994 Y262.882 I-6.35 J0.
G1 X184.944
G3 X178.594 Y256.532 I0. J-6.35
G1 Y241.58
G2 X140.51 Y219.769 I-25.288 J0.
G1 X132.294 Y224.589
G3 X123.604 Y222.325 I-3.213 J-5.477
G1 X115.981 Y209.332
X113.459 Y205.032 Z-3.087
G3 X113.963 Y197.871 Z-3.22 I5.476 J-3.213
G1 X115.025 Y196.533 Z-3.25
X184.227 Y109.356
G3 X210.344 Y118.462 I11.471 J9.106
G1 Y256.532
G3 X203.994 Y262.882 I-6.35 J0.
G1 X184.944
G3 X178.594 Y256.532 I0. J-6.35
G1 Y241.58
G2 X140.51 Y219.769 I-25.288 J0.
G1 X132.294 Y224.589
G3 X123.604 Y222.325 I-3.213 J-5.477
G1 X115.981 Y209.332
X113.459 Y205.032
G3 X113.963 Y197.871 I5.476 J-3.213
G1 X115.025 Y196.533
X123.929 Y185.315 Z-3.5
X184.227 Y109.356
G3 X210.344 Y118.462 I11.471 J9.106
G1 Y256.532
G3 X203.994 Y262.882 I-6.35 J0.
G1 X184.944
G3 X178.594 Y256.532 I0. J-6.35
G1 Y241.58
G2 X140.51 Y219.769 I-25.288 J0.
G1 X132.294 Y224.589
G3 X123.604 Y222.325 I-3.213 J-5.477
G1 X113.459 Y205.032
G3 X113.963 Y197.871 I5.476 J-3.213
G1 X123.929 Y185.315
X132.834 Y174.098 Z-3.75
X184.227 Y109.356
G3 X210.344 Y118.462 I11.471 J9.106
G1 Y256.532
G3 X203.994 Y262.882 I-6.35 J0.
G1 X184.944
G3 X178.594 Y256.532 I0. J-6.35
G1 Y241.58
G2 X140.51 Y219.769 I-25.288 J0.
G1 X132.294 Y224.589
G3 X123.604 Y222.325 I-3.213 J-5.477
G1 X113.459 Y205.032
G3 X113.963 Y197.871 I5.476 J-3.213
G1 X123.929 Y185.315
X132.834 Y174.098
X141.739 Y162.88 Z-4.
X184.227 Y109.356
G3 X210.344 Y118.462 I11.471 J9.106
G1 Y256.532
G3 X203.994 Y262.882 I-6.35 J0.
G1 X184.944
G3 X178.594 Y256.532 I0. J-6.35
G1 Y241.58
G2 X140.51 Y219.769 I-25.288 J0.
G1 X132.294 Y224.589
G3 X123.604 Y222.325 I-3.213 J-5.477
G1 X113.459 Y205.032
G3 X113.963 Y197.871 I5.476 J-3.213
G1 X132.834 Y174.098
X141.739 Y162.88
X147.972 Y155.027 Z-4.175
X184.227 Y109.356
G3 X210.344 Y118.462 I11.471 J9.106
G1 Y256.532
G3 X203.994 Y262.882 I-6.35 J0.
G1 X184.944
G3 X178.594 Y256.532 I0. J-6.35
G1 Y241.58
G2 X140.51 Y219.769 I-25.288 J0.
G1 X132.294 Y224.589
G3 X123.604 Y222.325 I-3.213 J-5.477
G1 X113.459 Y205.032
G3 X113.963 Y197.871 I5.476 J-3.213
G1 X141.739 Y162.88
X147.972 Y155.027
G0 Z16.

(BORE2)
G0 X140.589 Y95.885
Z15.
Z3.
G1 Z1.635 F1600.
G18 G2 X141.224 Z1. I0.635 K0.
G1 X141.542
G17 G2 X142.176 Y95.25 I0. J-0.635
X137.223 Z0.901 I-2.477 J0.
X142.176 Z0.803 I2.477 J0.
X137.223 Z0.704 I-2.477 J0.
X142.176 Z0.605 I2.477 J0.
X137.223 Z0.507 I-2.477 J0.
X142.176 Z0.408 I2.477 J0.
X137.223 Z0.309 I-2.477 J0.
X142.176 Z0.211 I2.477 J0.
X137.223 Z0.112 I-2.477 J0.
X142.176 Z0.014 I2.477 J0.
X137.223 Z-0.085 I-2.477 J0.
X142.176 Z-0.184 I2.477 J0.
X137.223 Z-0.282 I-2.477 J0.
X142.176 Z-0.381 I2.477 J0.
X137.223 Z-0.48 I-2.477 J0.
X142.176 Z-0.578 I2.477 J0.
X137.223 Z-0.677 I-2.477 J0.
X142.176 Z-0.776 I2.477 J0.
X137.223 Z-0.874 I-2.477 J0.
X142.176 Z-0.973 I2.477 J0.
X137.223 Z-1.072 I-2.477 J0.
X142.176 Z-1.17 I2.477 J0.
X137.223 Z-1.269 I-2.477 J0.
X142.176 Z-1.368 I2.477 J0.
X137.223 Z-1.466 I-2.477 J0.
X142.176 Z-1.565 I2.477 J0.
X137.223 Z-1.663 I-2.477 J0.
X142.176 Z-1.762 I2.477 J0.
X137.223 Z-1.861 I-2.477 J0.
X142.176 Z-1.959 I2.477 J0.
X137.223 Z-2.058 I-2.477 J0.
X142.176 Z-2.157 I2.477 J0.
X137.223 Z-2.255 I-2.477 J0.
X142.176 Z-2.354 I2.477 J0.
X137.223 Z-2.453 I-2.477 J0.
X142.176 Z-2.551 I2.477 J0.
X137.223 Z-2.65 I-2.477 J0.
X142.176 Z-2.749 I2.477 J0.
X137.223 Z-2.847 I-2.477 J0.
X142.176 Z-2.946 I2.477 J0.
X137.223 Z-3.045 I-2.477 J0.
X142.176 Z-3.143 I2.477 J0.
X137.223 Z-3.242 I-2.477 J0.
X142.176 Z-3.34 I2.477 J0.
X137.223 Z-3.439 I-2.477 J0.
X142.176 Z-3.538 I2.477 J0.
X137.223 Z-3.636 I-2.477 J0.
X142.176 Z-3.735 I2.477 J0.
X137.223 Z-3.834 I-2.477 J0.
X142.176 Z-3.932 I2.477 J0.
X137.223 Z-4.031 I-2.477 J0.
X142.176 Z-4.13 I2.477 J0.
X140.013 Y92.793 Z-4.175 I-2.477 J0.
X139.387 Y97.707 I-0.313 J2.457
X140.013 Y92.793 I0.313 J-2.457
X139.303 Y93.343 I-0.08 J0.63
G1 X139.263 Y93.658
X139.25 Y93.756 Z-4.167
X139.238 Y93.853 Z-4.144
X139.226 Y93.944 Z-4.106
X139.216 Y94.028 Z-4.054
X139.206 Y94.103 Z-3.989
X139.198 Y94.168 Z-3.913
X139.191 Y94.219 Z-3.828
X139.187 Y94.257 Z-3.736
X139.184 Y94.28 Z-3.639
X139.183 Y94.288 Z-3.54
G0 Z15.

(2D CONTOUR1)
G0 Z16.
X172.355 Y118.818
Z6.
G1 Z3.5 F800.
X137.242 Y163.051 Z2.514 F1600.
G3 X111.125 Y153.945 Z1.883 I-11.471 J-9.106
G1 Y89.058 Z0.75
Y15.875
G3 X117.475 Y9.525 I6.35 J0.
G1 X136.525
G3 X142.875 Y15.875 I0. J6.35
G1 Y30.827
G2 X180.959 Y52.638 I25.288 J0.
G1 X189.175 Y47.818
G3 X197.865 Y50.081 I3.213 J5.477
G1 X208.01 Y67.374
G3 X207.507 Y74.536 I-5.476 J3.213
G1 X137.242 Y163.051
G3 X111.125 Y153.945 I-11.471 J-9.106
G1 Y89.058
Y74.736 Z0.5
Y15.875
G3 X117.475 Y9.525 I6.35 J0.
G1 X136.525
G3 X142.875 Y15.875 I0. J6.35
G1 Y30.827
G2 X180.959 Y52.638 I25.288 J0.
G1 X189.175 Y47.818
G3 X197.865 Y50.081 I3.213 J5.477
G1 X208.01 Y67.374
G3 X207.507 Y74.536 I-5.476 J3.213
G1 X137.242 Y163.051
G3 X111.125 Y153.945 I-11.471 J-9.106
G1 Y89.058
Y74.736
Y60.413 Z0.25
Y15.875
G3 X117.475 Y9.525 I6.35 J0.
G1 X136.525
G3 X142.875 Y15.875 I0. J6.35
G1 Y30.827
G2 X180.959 Y52.638 I25.288 J0.
G1 X189.175 Y47.818
G3 X197.865 Y50.081 I3.213 J5.477
G1 X208.01 Y67.374
G3 X207.507 Y74.536 I-5.476 J3.213
G1 X137.242 Y163.051
G3 X111.125 Y153.945 I-11.471 J-9.106
G1 Y74.736
Y60.413
Y46.091 Z0.
Y15.875
G3 X117.475 Y9.525 I6.35 J0.
G1 X136.525
G3 X142.875 Y15.875 I0. J6.35
G1 Y30.827
G2 X180.959 Y52.638 I25.288 J0.
G1 X189.175 Y47.818
G3 X197.865 Y50.081 I3.213 J5.477
G1 X208.01 Y67.374
G3 X207.507 Y74.536 I-5.476 J3.213
G1 X137.242 Y163.051
G3 X111.125 Y153.945 I-11.471 J-9.106
G1 Y60.413
Y46.091
Y31.768 Z-0.25
Y15.875
G3 X117.475 Y9.525 I6.35 J0.
G1 X136.525
G3 X142.875 Y15.875 I0. J6.35
G1 Y30.827
G2 X180.959 Y52.638 I25.288 J0.
G1 X189.175 Y47.818
G3 X197.865 Y50.081 I3.213 J5.477
G1 X208.01 Y67.374
G3 X207.507 Y74.536 I-5.476 J3.213
G1 X137.242 Y163.051
G3 X111.125 Y153.945 I-11.471 J-9.106
G1 Y46.091
Y31.768
Y17.446 Z-0.5
Y15.875
G3 X117.475 Y9.525 I6.35 J0.
G1 X136.525
G3 X142.875 Y15.875 I0. J6.35
G1 Y30.827
G2 X180.959 Y52.638 I25.288 J0.
G1 X189.175 Y47.818
G3 X197.865 Y50.081 I3.213 J5.477
G1 X208.01 Y67.374
G3 X207.507 Y74.536 I-5.476 J3.213
G1 X137.242 Y163.051
G3 X111.125 Y153.945 I-11.471 J-9.106
G1 Y31.768
Y17.446
Y15.875 Z-0.527
G3 X117.475 Y9.525 Z-0.702 I6.35 J0.
G1 X120.252 Z-0.75
X136.525
G3 X142.875 Y15.875 I0. J6.35
G1 Y30.827
G2 X180.959 Y52.638 I25.288 J0.
G1 X189.175 Y47.818
G3 X197.865 Y50.081 I3.213 J5.477
G1 X208.01 Y67.374
G3 X207.507 Y74.536 I-5.476 J3.213
G1 X137.242 Y163.051
G3 X111.125 Y153.945 I-11.471 J-9.106
G1 Y17.446
Y15.875
G3 X117.475 Y9.525 I6.35 J0.
G1 X120.252
X134.575 Z-1.
X136.525
G3 X142.875 Y15.875 I0. J6.35
G1 Y30.827
G2 X180.959 Y52.638 I25.288 J0.
G1 X189.175 Y47.818
G3 X197.865 Y50.081 I3.213 J5.477
G1 X208.01 Y67.374
G3 X207.507 Y74.536 I-5.476 J3.213
G1 X137.242 Y163.051
G3 X111.125 Y153.945 I-11.471 J-9.106
G1 Y15.875
G3 X117.475 Y9.525 I6.35 J0.
G1 X134.575
X136.525 Z-1.034
G3 X142.875 Y15.875 Z-1.208 I0. J6.35
G1 Y18.273 Z-1.25
Y30.827
G2 X180.959 Y52.638 I25.288 J0.
G1 X189.175 Y47.818
G3 X197.865 Y50.081 I3.213 J5.477
G1 X208.01 Y67.374
G3 X207.507 Y74.536 I-5.476 J3.213
G1 X137.242 Y163.051
G3 X111.125 Y153.945 I-11.471 J-9.106
G1 Y15.875
G3 X117.475 Y9.525 I6.35 J0.
G1 X134.575
X136.525
G3 X142.875 Y15.875 I0. J6.35
G1 Y18.273
Y30.827 Z-1.469
G2 X142.937 Y32.594 Z-1.5 I25.288 J0.
X180.959 Y52.638 I25.226 J-1.767
G1 X189.175 Y47.818
G3 X197.865 Y50.081 I3.213 J5.477
G1 X208.01 Y67.374
G3 X207.507 Y74.536 I-5.476 J3.213
G1 X137.242 Y163.051
G3 X111.125 Y153.945 I-11.471 J-9.106
G1 Y15.875
G3 X117.475 Y9.525 I6.35 J0.
G1 X136.525
G3 X142.875 Y15.875 I0. J6.35
G1 Y30.827
G2 X142.937 Y32.594 I25.288 J0.
X147.824 Y45.854 Z-1.75 I25.226 J-1.767
X180.959 Y52.638 I20.339 J-15.027
G1 X189.175 Y47.818
G3 X197.865 Y50.081 I3.213 J5.477
G1 X208.01 Y67.374
G3 X207.507 Y74.536 I-5.476 J3.213
G1 X137.242 Y163.051
G3 X111.125 Y153.945 I-11.471 J-9.106
G1 Y15.875
G3 X117.475 Y9.525 I6.35 J0.
G1 X136.525
G3 X142.875 Y15.875 I0. J6.35
G1 Y30.827
G2 X147.824 Y45.854 I25.288 J0.
X159.063 Y54.42 Z-2. I20.339 J-15.027
X180.959 Y52.638 I9.1 J-23.594
G1 X189.175 Y47.818
G3 X197.865 Y50.081 I3.213 J5.477
G1 X208.01 Y67.374
G3 X207.507 Y74.536 I-5.476 J3.213
G1 X137.242 Y163.051
G3 X111.125 Y153.945 I-11.471 J-9.106
G1 Y15.875
G3 X117.475 Y9.525 I6.35 J0.
G1 X136.525
G3 X142.875 Y15.875 I0. J6.35
G1 Y30.827
G2 X159.063 Y54.42 I25.288 J0.
X173.144 Y55.619 Z-2.25 I9.1 J-23.594
X180.959 Y52.638 I-4.981 J-24.792
G1 X189.175 Y47.818
G3 X197.865 Y50.081 I3.213 J5.477
G1 X208.01 Y67.374
G3 X207.507 Y74.536 I-5.476 J3.213
G1 X137.242 Y163.051
G3 X111.125 Y153.945 I-11.471 J-9.106
G1 Y15.875
G3 X117.475 Y9.525 I6.35 J0.
G1 X136.525
G3 X142.875 Y15.875 I0. J6.35
G1 Y30.827
G2 X173.144 Y55.619 I25.288 J0.
X180.959 Y52.638 Z-2.397 I-4.981 J-24.792
G1 X186.065 Y49.642 Z-2.5
X189.175 Y47.818
G3 X197.865 Y50.081 I3.213 J5.477
G1 X208.01 Y67.374
G3 X207.507 Y74.536 I-5.476 J3.213
G1 X137.242 Y163.051
G3 X111.125 Y153.945 I-11.471 J-9.106
G1 Y15.875
G3 X117.475 Y9.525 I6.35 J0.
G1 X136.525
G3 X142.875 Y15.875 I0. J6.35
G1 Y30.827
G2 X180.959 Y52.638 I25.288 J0.
G1 X186.065 Y49.642
X189.175 Y47.818 Z-2.563
G3 X197.865 Y50.081 Z-2.737 I3.213 J5.477
G1 X198.241 Y50.722 Z-2.75
X208.01 Y67.374
G3 X207.507 Y74.536 I-5.476 J3.213
G1 X137.242 Y163.051
G3 X111.125 Y153.945 I-11.471 J-9.106
G1 Y15.875
G3 X117.475 Y9.525 I6.35 J0.
G1 X136.525
G3 X142.875 Y15.875 I0. J6.35
G1 Y30.827
G2 X180.959 Y52.638 I25.288 J0.
G1 X186.065 Y49.642
X189.175 Y47.818
G3 X197.865 Y50.081 I3.213 J5.477
G1 X198.241 Y50.722
X205.488 Y63.075 Z-3.
X208.01 Y67.374
G3 X207.507 Y74.536 I-5.476 J3.213
G1 X137.242 Y163.051
G3 X111.125 Y153.945 I-11.471 J-9.106
G1 Y15.875
G3 X117.475 Y9.525 I6.35 J0.
G1 X136.525
G3 X142.875 Y15.875 I0. J6.35
G1 Y30.827
G2 X180.959 Y52.638 I25.288 J0.
G1 X189.175 Y47.818
G3 X197.865 Y50.081 I3.213 J5.477
G1 X205.488 Y63.075
X208.01 Y67.374 Z-3.087
G3 X207.507 Y74.536 Z-3.22 I-5.476 J3.213
G1 X206.445 Y75.873 Z-3.25
X137.242 Y163.051
G3 X111.125 Y153.945 I-11.471 J-9.106
G1 Y15.875
G3 X117.475 Y9.525 I6.35 J0.
G1 X136.525
G3 X142.875 Y15.875 I0. J6.35
G1 Y30.827
G2 X180.959 Y52.638 I25.288 J0.
G1 X189.175 Y47.818
G3 X197.865 Y50.081 I3.213 J5.477
G1 X205.488 Y63.075
X208.01 Y67.374
G3 X207.507 Y74.536 I-5.476 J3.213
G1 X206.445 Y75.873
X197.54 Y87.091 Z-3.5
X137.242 Y163.051
G3 X111.125 Y153.945 I-11.471 J-9.106
G1 Y15.875
G3 X117.475 Y9.525 I6.35 J0.
G1 X136.525
G3 X142.875 Y15.875 I0. J6.35
G1 Y30.827
G2 X180.959 Y52.638 I25.288 J0.
G1 X189.175 Y47.818
G3 X197.865 Y50.081 I3.213 J5.477
G1 X208.01 Y67.374
G3 X207.507 Y74.536 I-5.476 J3.213
G1 X197.54 Y87.091
X188.635 Y98.309 Z-3.75
X137.242 Y163.051
G3 X111.125 Y153.945 I-11.471 J-9.106
G1 Y15.875
G3 X117.475 Y9.525 I6.35 J0.
G1 X136.525
G3 X142.875 Y15.875 I0. J6.35
G1 Y30.827
G2 X180.959 Y52.638 I25.288 J0.
G1 X189.175 Y47.818
G3 X197.865 Y50.081 I3.213 J5.477
G1 X208.01 Y67.374
G3 X207.507 Y74.536 I-5.476 J3.213
G1 X197.54 Y87.091
X188.635 Y98.309
X179.73 Y109.527 Z-4.
X137.242 Y163.051
G3 X111.125 Y153.945 I-11.471 J-9.106
G1 Y15.875
G3 X117.475 Y9.525 I6.35 J0.
G1 X136.525
G3 X142.875 Y15.875 I0. J6.35
G1 Y30.827
G2 X180.959 Y52.638 I25.288 J0.
G1 X189.175 Y47.818
G3 X197.865 Y50.081 I3.213 J5.477
G1 X208.01 Y67.374
G3 X207.507 Y74.536 I-5.476 J3.213
G1 X188.635 Y98.309
X179.73 Y109.527
X173.497 Y117.379 Z-4.175
X137.242 Y163.051
G3 X111.125 Y153.945 I-11.471 J-9.106
G1 Y15.875
G3 X117.475 Y9.525 I6.35 J0.
G1 X136.525
G3 X142.875 Y15.875 I0. J6.35
G1 Y30.827
G2 X180.959 Y52.638 I25.288 J0.
G1 X189.175 Y47.818
G3 X197.865 Y50.081 I3.213 J5.477
G1 X208.01 Y67.374
G3 X207.507 Y74.536 I-5.476 J3.213
G1 X179.73 Y109.527
X173.497 Y117.379
G0 Z16.
M5
G0 Z15
G0 X0 Y0

M30
