(X8 UPPER TURRET BRACE 4OF4 CONTOUR)
(T3  D=0.118 CR=0. - ZMIN=-0.54 - FLAT END MILL)
G90 G94 G91.1 G40 G49 G17
G20

(2D CONTOUR1)
M5
T3 M6
S15000 M3
G54
M8
G0 X1.9877 Y0.344
G43 Z0.6 H3
Z0.2
G1 Z0.1394 F20.
Z0.1118
X1.9876 Y0.3443 Z0.1092 F40.
X1.9874 Y0.3451 Z0.1067
X1.9871 Y0.3465 Z0.1044
X1.9867 Y0.3483 Z0.1026
X1.9862 Y0.3505 Z0.1012
X1.9857 Y0.3529 Z0.1003
X1.9851 Y0.3555 Z0.1
X1.9826 Y0.367
G3 X1.9685 Y0.376 I-0.0115 J-0.0026
G1 X0.0128 Y-0.0576 Z0.03 F20.
G2 X-0.058 Y0.011 Z0.026 I-0.0128 J0.0576
G1 X0.4185 Y2.525 Z-0.0634
G2 X0.479 Y2.5729 Z-0.0663 I0.058 J-0.011
G1 X1.4426 Y2.5309 Z-0.1
X3.3109 Y2.4493 F40.
G2 X3.3673 Y2.3878 I-0.0026 J-0.0589
G3 X3.5082 Y0.7777 I6.1851 J-0.2701
G2 X3.4633 Y0.7074 I-0.0576 J-0.0128
G1 X0.0128 Y-0.0576
G2 X-0.058 Y0.011 I-0.0128 J0.0576
G1 X0.4185 Y2.525
G2 X0.479 Y2.5729 I0.058 J-0.011
G1 X1.4426 Y2.5309
X3.3109 Y2.4493 Z-0.1653 F20.
G2 X3.3673 Y2.3878 Z-0.1685 I-0.0026 J-0.0589
G3 X3.3935 Y1.4881 Z-0.2 I6.1851 J-0.2701
X3.5082 Y0.7777 I6.1589 J0.6296 F40.
G2 X3.4633 Y0.7074 I-0.0576 J-0.0128
G1 X0.0128 Y-0.0576
G2 X-0.058 Y0.011 I-0.0128 J0.0576
G1 X0.4185 Y2.525
G2 X0.479 Y2.5729 I0.058 J-0.011
G1 X3.3109 Y2.4493
G2 X3.3673 Y2.3878 I-0.0026 J-0.0589
G3 X3.3935 Y1.4881 I6.1851 J-0.2701
X3.5082 Y0.7777 Z-0.2251 I6.1589 J0.6296 F20.
G2 X3.4633 Y0.7074 Z-0.2284 I-0.0576 J-0.0128
G1 X1.461 Y0.2635 Z-0.3
X0.0128 Y-0.0576 F40.
G2 X-0.058 Y0.011 I-0.0128 J0.0576
G1 X0.4185 Y2.525
G2 X0.479 Y2.5729 I0.058 J-0.011
G1 X3.3109 Y2.4493
G2 X3.3673 Y2.3878 I-0.0026 J-0.0589
G3 X3.5082 Y0.7777 I6.1851 J-0.2701
G2 X3.4633 Y0.7074 I-0.0576 J-0.0128
G1 X1.461 Y0.2635
X0.0128 Y-0.0576 Z-0.3518 F20.
G2 X-0.058 Y0.011 Z-0.3559 I-0.0128 J0.0576
G1 X0.1773 Y1.2526 Z-0.4
X0.4185 Y2.525 F40.
G2 X0.479 Y2.5729 I0.058 J-0.011
G1 X3.3109 Y2.4493
G2 X3.3673 Y2.3878 I-0.0026 J-0.0589
G3 X3.5082 Y0.7777 I6.1851 J-0.2701
G2 X3.4633 Y0.7074 I-0.0576 J-0.0128
G1 X1.461 Y0.2635
X0.0128 Y-0.0576
G2 X-0.058 Y0.011 I-0.0128 J0.0576
G1 X0.1773 Y1.2526
X0.4185 Y2.525 Z-0.4452 F20.
G2 X0.479 Y2.5729 Z-0.4482 I0.058 J-0.011
G1 X1.962 Y2.5082 Z-0.5
X3.3109 Y2.4493 F40.
G2 X3.3673 Y2.3878 I-0.0026 J-0.0589
G3 X3.5082 Y0.7777 I6.1851 J-0.2701
G2 X3.4633 Y0.7074 I-0.0576 J-0.0128
G1 X0.0128 Y-0.0576
G2 X-0.058 Y0.011 I-0.0128 J0.0576
G1 X0.4185 Y2.525
G2 X0.479 Y2.5729 I0.058 J-0.011
G1 X1.962 Y2.5082
X3.1063 Y2.4582 Z-0.54 F20.
X3.3109 Y2.4493 F40.
G2 X3.3673 Y2.3878 I-0.0026 J-0.0589
G3 X3.5082 Y0.7777 I6.1851 J-0.2701
G2 X3.4633 Y0.7074 I-0.0576 J-0.0128
G1 X0.0128 Y-0.0576
G2 X-0.058 Y0.011 I-0.0128 J0.0576
G1 X0.4185 Y2.525
G2 X0.479 Y2.5729 I0.058 J-0.011
G1 X1.962 Y2.5082
X3.1063 Y2.4582
G3 X3.1186 Y2.4695 I0.0005 J0.0118
G1 X3.1192 Y2.4813
X3.1193 Y2.4839 Z-0.5397
X3.1194 Y2.4864 Z-0.5388
X3.1195 Y2.4886 Z-0.5374
X3.1196 Y2.4905 Z-0.5356
Y2.4919 Z-0.5333
X3.1197 Y2.4928 Z-0.5308
Y2.4931 Z-0.5282
G0 Z0.6

M9
M30
