(T1  D=3.175 CR=0. - ZMIN=-7.35 - FLAT END MILL)
G90 G94 G91.1 G40 G49 G17
G21
G0 Z15

(CIRCULAR1)
M5
T1 M6
S16000 M3
G54
M8
G0 X78.581 Y-0.317
G43 Z15. H1
Z2.
G1 Z0.317 F1600.
G18 G3 X78.264 Z0. I-0.318 K0.
G1 X78.105
G17 G2 X77.787 Y0. I0. J0.317
G3 X-77.787 I-77.787 J0.
X77.787 I77.787 J0.
G2 X78.105 Y0.317 I0.318 J0.
G1 X78.264
G18 G2 X78.581 Z0.317 I0. K0.317
G0 Z5.
Y-0.317
Z1.
G1 Z-0.683 F1600.
G3 X78.264 Z-1. I-0.318 K0.
G1 X78.105
G17 G2 X77.787 Y0. I0. J0.317
G3 X-77.787 I-77.787 J0.
X77.787 I77.787 J0.
G2 X78.105 Y0.317 I0.318 J0.
G1 X78.264
G18 G2 X78.581 Z-0.683 I0. K0.317
G0 Z5.
Y-0.317
Z0.
G1 Z-1.683 F1600.
G3 X78.264 Z-2. I-0.318 K0.
G1 X78.105
G17 G2 X77.787 Y0. I0. J0.317
G3 X-77.787 I-77.787 J0.
X77.787 I77.787 J0.
G2 X78.105 Y0.317 I0.318 J0.
G1 X78.264
G18 G2 X78.581 Z-1.683 I0. K0.317
G0 Z5.
Y-0.317
Z-1.
G1 Z-2.682 F1600.
G3 X78.264 Z-3. I-0.318 K0.
G1 X78.105
G17 G2 X77.787 Y0. I0. J0.317
G3 X-77.787 I-77.787 J0.
X77.787 I77.787 J0.
G2 X78.105 Y0.317 I0.318 J0.
G1 X78.264
G18 G2 X78.581 Z-2.682 I0. K0.318
G0 Z5.
Y-0.317
Z-2.
G1 Z-3.682 F1600.
G3 X78.264 Z-4. I-0.318 K0.
G1 X78.105
G17 G2 X77.787 Y0. I0. J0.317
G3 X-77.787 I-77.787 J0.
X77.787 I77.787 J0.
G2 X78.105 Y0.317 I0.318 J0.
G1 X78.264
G18 G2 X78.581 Z-3.682 I0. K0.318
G0 Z5.
Y-0.317
Z-3.
G1 Z-4.682 F1600.
G3 X78.264 Z-5. I-0.318 K0.
G1 X78.105
G17 G2 X77.787 Y0. I0. J0.317
G3 X-77.787 I-77.787 J0.
X77.787 I77.787 J0.
G2 X78.105 Y0.317 I0.318 J0.
G1 X78.264
G18 G2 X78.581 Z-4.682 I0. K0.318
G0 Z5.
Y-0.317
Z-4.
G1 Z-5.682 F1600.
G3 X78.264 Z-6. I-0.318 K0.
G1 X78.105
G17 G2 X77.787 Y0. I0. J0.317
G3 X-77.787 I-77.787 J0.
X77.787 I77.787 J0.
G2 X78.105 Y0.317 I0.318 J0.
G1 X78.264
G18 G2 X78.581 Z-5.682 I0. K0.318
G0 Z5.
Y-0.317
Z-4.675
G1 Z-6.358 F1600.
G3 X78.264 Z-6.675 I-0.318 K0.
G1 X78.105
G17 G2 X77.787 Y0. I0. J0.317
G3 X-77.787 I-77.787 J0.
X77.787 I77.787 J0.
G2 X78.105 Y0.317 I0.318 J0.
G1 X78.264
G18 G2 X78.581 Z-6.358 I0. K0.318
G0 Z5.
Y-0.317
Z-5.35
G1 Z-7.032 F1600.
G3 X78.264 Z-7.35 I-0.318 K0.
G1 X78.105
G17 G2 X77.787 Y0. I0. J0.317
G3 X-77.787 I-77.787 J0.
X77.787 I77.787 J0.
G2 X78.105 Y0.317 I0.318 J0.
G1 X78.264
G18 G2 X78.581 Z-7.032 I0. K0.318
G0 Z15.
G17
M5
G0 Z15
G0 X0 Y0

M9
M30
