(T1  D=3.175 CR=0. - ZMIN=-7.35 - FLAT END MILL)
G90 G94 G91.1 G40 G49 G17
G21
G0 Z15

(BORE1)
M5
T1 M6
S16000 M3
G54
M8
G0 X-59.201 Y19.94
G43 Z15. H1
Z3.
G1 Z1.317 F1600.
G18 G2 X-58.884 Z1. I0.318 K0.
G1 X-58.725
G17 G2 X-58.408 Y19.623 I0. J-0.317
X-62.376 Z0.938 I-1.984 J0.
X-58.408 Z0.875 I1.984 J0.
X-62.376 Z0.813 I-1.984 J0.
X-58.408 Z0.751 I1.984 J0.
X-62.376 Z0.688 I-1.984 J0.
X-58.408 Z0.626 I1.984 J0.
X-62.376 Z0.564 I-1.984 J0.
X-58.408 Z0.501 I1.984 J0.
X-62.376 Z0.439 I-1.984 J0.
X-58.408 Z0.377 I1.984 J0.
X-62.376 Z0.314 I-1.984 J0.
X-58.408 Z0.252 I1.984 J0.
X-62.376 Z0.189 I-1.984 J0.
X-58.408 Z0.127 I1.984 J0.
X-62.376 Z0.065 I-1.984 J0.
X-58.408 Z0.002 I1.984 J0.
X-62.376 Z-0.06 I-1.984 J0.
X-58.408 Z-0.122 I1.984 J0.
X-62.376 Z-0.185 I-1.984 J0.
X-58.408 Z-0.247 I1.984 J0.
X-62.376 Z-0.309 I-1.984 J0.
X-58.408 Z-0.372 I1.984 J0.
X-62.376 Z-0.434 I-1.984 J0.
X-58.408 Z-0.496 I1.984 J0.
X-62.376 Z-0.559 I-1.984 J0.
X-58.408 Z-0.621 I1.984 J0.
X-62.376 Z-0.683 I-1.984 J0.
X-58.408 Z-0.746 I1.984 J0.
X-62.376 Z-0.808 I-1.984 J0.
X-58.408 Z-0.87 I1.984 J0.
X-62.376 Z-0.933 I-1.984 J0.
X-58.408 Z-0.995 I1.984 J0.
X-62.376 Z-1.057 I-1.984 J0.
X-58.408 Z-1.12 I1.984 J0.
X-62.376 Z-1.182 I-1.984 J0.
X-58.408 Z-1.245 I1.984 J0.
X-62.376 Z-1.307 I-1.984 J0.
X-58.408 Z-1.369 I1.984 J0.
X-62.376 Z-1.432 I-1.984 J0.
X-58.408 Z-1.494 I1.984 J0.
X-62.376 Z-1.556 I-1.984 J0.
X-58.408 Z-1.619 I1.984 J0.
X-62.376 Z-1.681 I-1.984 J0.
X-58.408 Z-1.743 I1.984 J0.
X-62.376 Z-1.806 I-1.984 J0.
X-58.408 Z-1.868 I1.984 J0.
X-62.376 Z-1.93 I-1.984 J0.
X-58.408 Z-1.993 I1.984 J0.
X-62.376 Z-2.055 I-1.984 J0.
X-58.408 Z-2.117 I1.984 J0.
X-62.376 Z-2.18 I-1.984 J0.
X-58.408 Z-2.242 I1.984 J0.
X-62.376 Z-2.304 I-1.984 J0.
X-58.408 Z-2.367 I1.984 J0.
X-62.376 Z-2.429 I-1.984 J0.
X-58.408 Z-2.491 I1.984 J0.
X-62.376 Z-2.554 I-1.984 J0.
X-58.408 Z-2.616 I1.984 J0.
X-62.376 Z-2.678 I-1.984 J0.
X-58.408 Z-2.741 I1.984 J0.
X-62.376 Z-2.803 I-1.984 J0.
X-58.408 Z-2.866 I1.984 J0.
X-62.376 Z-2.928 I-1.984 J0.
X-58.408 Z-2.99 I1.984 J0.
X-62.376 Z-3.053 I-1.984 J0.
X-58.408 Z-3.115 I1.984 J0.
X-62.376 Z-3.177 I-1.984 J0.
X-58.408 Z-3.24 I1.984 J0.
X-62.376 Z-3.302 I-1.984 J0.
X-58.408 Z-3.364 I1.984 J0.
X-62.376 Z-3.427 I-1.984 J0.
X-58.408 Z-3.489 I1.984 J0.
X-62.376 Z-3.551 I-1.984 J0.
X-58.408 Z-3.614 I1.984 J0.
X-62.376 Z-3.676 I-1.984 J0.
X-58.408 Z-3.738 I1.984 J0.
X-62.376 Z-3.801 I-1.984 J0.
X-58.408 Z-3.863 I1.984 J0.
X-62.376 Z-3.925 I-1.984 J0.
X-58.408 Z-3.988 I1.984 J0.
X-62.376 Z-4.05 I-1.984 J0.
X-58.408 Z-4.112 I1.984 J0.
X-62.376 Z-4.175 I-1.984 J0.
X-58.408 Z-4.237 I1.984 J0.
X-62.376 Z-4.3 I-1.984 J0.
X-58.408 Z-4.362 I1.984 J0.
X-62.376 Z-4.424 I-1.984 J0.
X-58.408 Z-4.487 I1.984 J0.
X-62.376 Z-4.549 I-1.984 J0.
X-58.408 Z-4.611 I1.984 J0.
X-62.376 Z-4.674 I-1.984 J0.
X-58.408 Z-4.736 I1.984 J0.
X-62.376 Z-4.798 I-1.984 J0.
X-58.408 Z-4.861 I1.984 J0.
X-62.376 Z-4.923 I-1.984 J0.
X-58.408 Z-4.985 I1.984 J0.
X-62.376 Z-5.048 I-1.984 J0.
X-58.408 Z-5.11 I1.984 J0.
X-62.376 Z-5.172 I-1.984 J0.
X-58.408 Z-5.235 I1.984 J0.
X-62.376 Z-5.297 I-1.984 J0.
X-58.408 Z-5.359 I1.984 J0.
X-62.376 Z-5.422 I-1.984 J0.
X-58.408 Z-5.484 I1.984 J0.
X-62.376 Z-5.546 I-1.984 J0.
X-58.408 Z-5.609 I1.984 J0.
X-62.376 Z-5.671 I-1.984 J0.
X-58.408 Z-5.734 I1.984 J0.
X-62.376 Z-5.796 I-1.984 J0.
X-58.408 Z-5.858 I1.984 J0.
X-62.376 Z-5.921 I-1.984 J0.
X-58.408 Z-5.983 I1.984 J0.
X-62.376 Z-6.045 I-1.984 J0.
X-58.408 Z-6.108 I1.984 J0.
X-62.376 Z-6.17 I-1.984 J0.
X-58.408 Z-6.232 I1.984 J0.
X-62.376 Z-6.295 I-1.984 J0.
X-58.408 Z-6.357 I1.984 J0.
X-62.376 Z-6.419 I-1.984 J0.
X-58.408 Z-6.482 I1.984 J0.
X-62.376 Z-6.544 I-1.984 J0.
X-58.408 Z-6.606 I1.984 J0.
X-62.376 Z-6.669 I-1.984 J0.
X-58.408 Z-6.731 I1.984 J0.
X-62.376 Z-6.793 I-1.984 J0.
X-58.408 Z-6.856 I1.984 J0.
X-62.376 Z-6.918 I-1.984 J0.
X-58.408 Z-6.98 I1.984 J0.
X-62.376 Z-7.043 I-1.984 J0.
X-58.408 Z-7.105 I1.984 J0.
X-62.376 Z-7.167 I-1.984 J0.
X-58.408 Z-7.23 I1.984 J0.
X-62.376 Z-7.292 I-1.984 J0.
X-58.459 Y20.073 Z-7.35 I1.984 J0.
X-62.325 Y19.173 I-1.933 J-0.45
X-58.459 Y20.073 I1.933 J0.45
X-58.697 Y19.691 I-0.309 J-0.072
G1 X-58.851 Y19.655
X-58.92 Y19.639 Z-7.342
X-58.985 Y19.624 Z-7.319
X-59.044 Y19.61 Z-7.281
X-59.093 Y19.599 Z-7.23
X-59.13 Y19.59 Z-7.17
X-59.153 Y19.585 Z-7.103
X-59.16 Y19.583 Z-7.032
G0 Z5.
X-35.045 Y12.091
Z3.
G1 Z1.317 F1600.
G18 G2 X-34.727 Z1. I0.318 K0.
G1 X-34.568
G17 G2 X-34.251 Y11.774 I0. J-0.318
X-38.22 Z0.938 I-1.984 J0.
X-34.251 Z0.875 I1.984 J0.
X-38.22 Z0.813 I-1.984 J0.
X-34.251 Z0.751 I1.984 J0.
X-38.22 Z0.688 I-1.984 J0.
X-34.251 Z0.626 I1.984 J0.
X-38.22 Z0.564 I-1.984 J0.
X-34.251 Z0.501 I1.984 J0.
X-38.22 Z0.439 I-1.984 J0.
X-34.251 Z0.377 I1.984 J0.
X-38.22 Z0.314 I-1.984 J0.
X-34.251 Z0.252 I1.984 J0.
X-38.22 Z0.189 I-1.984 J0.
X-34.251 Z0.127 I1.984 J0.
X-38.22 Z0.065 I-1.984 J0.
X-34.251 Z0.002 I1.984 J0.
X-38.22 Z-0.06 I-1.984 J0.
X-34.251 Z-0.122 I1.984 J0.
X-38.22 Z-0.185 I-1.984 J0.
X-34.251 Z-0.247 I1.984 J0.
X-38.22 Z-0.309 I-1.984 J0.
X-34.251 Z-0.372 I1.984 J0.
X-38.22 Z-0.434 I-1.984 J0.
X-34.251 Z-0.496 I1.984 J0.
X-38.22 Z-0.559 I-1.984 J0.
X-34.251 Z-0.621 I1.984 J0.
X-38.22 Z-0.683 I-1.984 J0.
X-34.251 Z-0.746 I1.984 J0.
X-38.22 Z-0.808 I-1.984 J0.
X-34.251 Z-0.87 I1.984 J0.
X-38.22 Z-0.933 I-1.984 J0.
X-34.251 Z-0.995 I1.984 J0.
X-38.22 Z-1.057 I-1.984 J0.
X-34.251 Z-1.12 I1.984 J0.
X-38.22 Z-1.182 I-1.984 J0.
X-34.251 Z-1.245 I1.984 J0.
X-38.22 Z-1.307 I-1.984 J0.
X-34.251 Z-1.369 I1.984 J0.
X-38.22 Z-1.432 I-1.984 J0.
X-34.251 Z-1.494 I1.984 J0.
X-38.22 Z-1.556 I-1.984 J0.
X-34.251 Z-1.619 I1.984 J0.
X-38.22 Z-1.681 I-1.984 J0.
X-34.251 Z-1.743 I1.984 J0.
X-38.22 Z-1.806 I-1.984 J0.
X-34.251 Z-1.868 I1.984 J0.
X-38.22 Z-1.93 I-1.984 J0.
X-34.251 Z-1.993 I1.984 J0.
X-38.22 Z-2.055 I-1.984 J0.
X-34.251 Z-2.117 I1.984 J0.
X-38.22 Z-2.18 I-1.984 J0.
X-34.251 Z-2.242 I1.984 J0.
X-38.22 Z-2.304 I-1.984 J0.
X-34.251 Z-2.367 I1.984 J0.
X-38.22 Z-2.429 I-1.984 J0.
X-34.251 Z-2.491 I1.984 J0.
X-38.22 Z-2.554 I-1.984 J0.
X-34.251 Z-2.616 I1.984 J0.
X-38.22 Z-2.678 I-1.984 J0.
X-34.251 Z-2.741 I1.984 J0.
X-38.22 Z-2.803 I-1.984 J0.
X-34.251 Z-2.866 I1.984 J0.
X-38.22 Z-2.928 I-1.984 J0.
X-34.251 Z-2.99 I1.984 J0.
X-38.22 Z-3.053 I-1.984 J0.
X-34.251 Z-3.115 I1.984 J0.
X-38.22 Z-3.177 I-1.984 J0.
X-34.251 Z-3.24 I1.984 J0.
X-38.22 Z-3.302 I-1.984 J0.
X-34.251 Z-3.364 I1.984 J0.
X-38.22 Z-3.427 I-1.984 J0.
X-34.251 Z-3.489 I1.984 J0.
X-38.22 Z-3.551 I-1.984 J0.
X-34.251 Z-3.614 I1.984 J0.
X-38.22 Z-3.676 I-1.984 J0.
X-34.251 Z-3.738 I1.984 J0.
X-38.22 Z-3.801 I-1.984 J0.
X-34.251 Z-3.863 I1.984 J0.
X-38.22 Z-3.925 I-1.984 J0.
X-34.251 Z-3.988 I1.984 J0.
X-38.22 Z-4.05 I-1.984 J0.
X-34.251 Z-4.112 I1.984 J0.
X-38.22 Z-4.175 I-1.984 J0.
X-34.251 Z-4.237 I1.984 J0.
X-38.22 Z-4.3 I-1.984 J0.
X-34.251 Z-4.362 I1.984 J0.
X-38.22 Z-4.424 I-1.984 J0.
X-34.251 Z-4.487 I1.984 J0.
X-38.22 Z-4.549 I-1.984 J0.
X-34.251 Z-4.611 I1.984 J0.
X-38.22 Z-4.674 I-1.984 J0.
X-34.251 Z-4.736 I1.984 J0.
X-38.22 Z-4.798 I-1.984 J0.
X-34.251 Z-4.861 I1.984 J0.
X-38.22 Z-4.923 I-1.984 J0.
X-34.251 Z-4.985 I1.984 J0.
X-38.22 Z-5.048 I-1.984 J0.
X-34.251 Z-5.11 I1.984 J0.
X-38.22 Z-5.172 I-1.984 J0.
X-34.251 Z-5.235 I1.984 J0.
X-38.22 Z-5.297 I-1.984 J0.
X-34.251 Z-5.359 I1.984 J0.
X-38.22 Z-5.422 I-1.984 J0.
X-34.251 Z-5.484 I1.984 J0.
X-38.22 Z-5.546 I-1.984 J0.
X-34.251 Z-5.609 I1.984 J0.
X-38.22 Z-5.671 I-1.984 J0.
X-34.251 Z-5.734 I1.984 J0.
X-38.22 Z-5.796 I-1.984 J0.
X-34.251 Z-5.858 I1.984 J0.
X-38.22 Z-5.921 I-1.984 J0.
X-34.251 Z-5.983 I1.984 J0.
X-38.22 Z-6.045 I-1.984 J0.
X-34.251 Z-6.108 I1.984 J0.
X-38.22 Z-6.17 I-1.984 J0.
X-34.251 Z-6.232 I1.984 J0.
X-38.22 Z-6.295 I-1.984 J0.
X-34.251 Z-6.357 I1.984 J0.
X-38.22 Z-6.419 I-1.984 J0.
X-34.251 Z-6.482 I1.984 J0.
X-38.22 Z-6.544 I-1.984 J0.
X-34.251 Z-6.606 I1.984 J0.
X-38.22 Z-6.669 I-1.984 J0.
X-34.251 Z-6.731 I1.984 J0.
X-38.22 Z-6.793 I-1.984 J0.
X-34.251 Z-6.856 I1.984 J0.
X-38.22 Z-6.918 I-1.984 J0.
X-34.251 Z-6.98 I1.984 J0.
X-38.22 Z-7.043 I-1.984 J0.
X-34.251 Z-7.105 I1.984 J0.
X-38.22 Z-7.167 I-1.984 J0.
X-34.251 Z-7.23 I1.984 J0.
X-38.22 Z-7.292 I-1.984 J0.
X-34.303 Y12.224 Z-7.35 I1.984 J0.
X-38.168 Y11.324 I-1.933 J-0.45
X-34.303 Y12.224 I1.933 J0.45
X-34.54 Y11.842 I-0.309 J-0.072
G1 X-34.694 Y11.806
X-34.763 Y11.79 Z-7.342
X-34.829 Y11.775 Z-7.319
X-34.887 Y11.761 Z-7.281
X-34.936 Y11.75 Z-7.23
X-34.973 Y11.741 Z-7.17
X-34.996 Y11.736 Z-7.103
X-35.004 Y11.734 Z-7.032
G0 Z5.
X-20.225 Y12.224
Z3.
G1 Z1.317 F1600.
G18 G2 X-19.908 Z1. I0.318 K0.
G1 X-19.749
G17 G2 X-19.432 Y11.906 I0. J-0.318
X-21.813 Z0.952 I-1.191 J0.
X-19.432 Z0.903 I1.191 J0.
X-21.813 Z0.855 I-1.191 J0.
X-19.432 Z0.806 I1.191 J0.
X-21.813 Z0.758 I-1.191 J0.
X-19.432 Z0.709 I1.191 J0.
X-21.813 Z0.661 I-1.191 J0.
X-19.432 Z0.612 I1.191 J0.
X-21.813 Z0.564 I-1.191 J0.
X-19.432 Z0.515 I1.191 J0.
X-21.813 Z0.467 I-1.191 J0.
X-19.432 Z0.418 I1.191 J0.
X-21.813 Z0.37 I-1.191 J0.
X-19.432 Z0.321 I1.191 J0.
X-21.813 Z0.273 I-1.191 J0.
X-19.432 Z0.224 I1.191 J0.
X-21.813 Z0.176 I-1.191 J0.
X-19.432 Z0.127 I1.191 J0.
X-21.813 Z0.079 I-1.191 J0.
X-19.432 Z0.03 I1.191 J0.
X-21.813 Z-0.018 I-1.191 J0.
X-19.432 Z-0.067 I1.191 J0.
X-21.813 Z-0.115 I-1.191 J0.
X-19.432 Z-0.164 I1.191 J0.
X-21.813 Z-0.212 I-1.191 J0.
X-19.432 Z-0.261 I1.191 J0.
X-21.813 Z-0.309 I-1.191 J0.
X-19.432 Z-0.358 I1.191 J0.
X-21.813 Z-0.406 I-1.191 J0.
X-19.432 Z-0.455 I1.191 J0.
X-21.813 Z-0.503 I-1.191 J0.
X-19.432 Z-0.552 I1.191 J0.
X-21.813 Z-0.6 I-1.191 J0.
X-19.432 Z-0.649 I1.191 J0.
X-21.813 Z-0.697 I-1.191 J0.
X-19.432 Z-0.746 I1.191 J0.
X-21.813 Z-0.794 I-1.191 J0.
X-19.432 Z-0.843 I1.191 J0.
X-21.813 Z-0.891 I-1.191 J0.
X-19.432 Z-0.94 I1.191 J0.
X-21.813 Z-0.988 I-1.191 J0.
X-19.432 Z-1.037 I1.191 J0.
X-21.813 Z-1.085 I-1.191 J0.
X-19.432 Z-1.134 I1.191 J0.
X-21.813 Z-1.182 I-1.191 J0.
X-19.432 Z-1.231 I1.191 J0.
X-21.813 Z-1.279 I-1.191 J0.
X-19.432 Z-1.328 I1.191 J0.
X-21.813 Z-1.376 I-1.191 J0.
X-19.432 Z-1.425 I1.191 J0.
X-21.813 Z-1.473 I-1.191 J0.
X-19.432 Z-1.522 I1.191 J0.
X-21.813 Z-1.57 I-1.191 J0.
X-19.432 Z-1.619 I1.191 J0.
X-21.813 Z-1.667 I-1.191 J0.
X-19.432 Z-1.716 I1.191 J0.
X-21.813 Z-1.764 I-1.191 J0.
X-19.432 Z-1.813 I1.191 J0.
X-21.813 Z-1.861 I-1.191 J0.
X-19.432 Z-1.91 I1.191 J0.
X-21.813 Z-1.958 I-1.191 J0.
X-19.432 Z-2.007 I1.191 J0.
X-21.813 Z-2.055 I-1.191 J0.
X-19.432 Z-2.104 I1.191 J0.
X-21.813 Z-2.152 I-1.191 J0.
X-19.432 Z-2.2 I1.191 J0.
X-21.813 Z-2.249 I-1.191 J0.
X-19.432 Z-2.297 I1.191 J0.
X-21.813 Z-2.346 I-1.191 J0.
X-19.432 Z-2.394 I1.191 J0.
X-21.813 Z-2.443 I-1.191 J0.
X-19.432 Z-2.491 I1.191 J0.
X-21.813 Z-2.54 I-1.191 J0.
X-19.432 Z-2.588 I1.191 J0.
X-21.813 Z-2.637 I-1.191 J0.
X-19.432 Z-2.685 I1.191 J0.
X-21.813 Z-2.734 I-1.191 J0.
X-19.432 Z-2.782 I1.191 J0.
X-21.813 Z-2.831 I-1.191 J0.
X-19.432 Z-2.879 I1.191 J0.
X-21.813 Z-2.928 I-1.191 J0.
X-19.432 Z-2.976 I1.191 J0.
X-21.813 Z-3.025 I-1.191 J0.
X-19.432 Z-3.073 I1.191 J0.
X-21.813 Z-3.122 I-1.191 J0.
X-19.432 Z-3.17 I1.191 J0.
X-21.813 Z-3.219 I-1.191 J0.
X-19.432 Z-3.267 I1.191 J0.
X-21.813 Z-3.316 I-1.191 J0.
X-19.432 Z-3.364 I1.191 J0.
X-21.813 Z-3.413 I-1.191 J0.
X-19.432 Z-3.461 I1.191 J0.
X-21.813 Z-3.51 I-1.191 J0.
X-19.432 Z-3.558 I1.191 J0.
X-21.813 Z-3.607 I-1.191 J0.
X-19.432 Z-3.655 I1.191 J0.
X-21.813 Z-3.704 I-1.191 J0.
X-19.432 Z-3.752 I1.191 J0.
X-21.813 Z-3.801 I-1.191 J0.
X-19.432 Z-3.849 I1.191 J0.
X-21.813 Z-3.898 I-1.191 J0.
X-19.432 Z-3.946 I1.191 J0.
X-21.813 Z-3.995 I-1.191 J0.
X-19.432 Z-4.043 I1.191 J0.
X-21.813 Z-4.092 I-1.191 J0.
X-19.432 Z-4.14 I1.191 J0.
X-21.813 Z-4.189 I-1.191 J0.
X-19.432 Z-4.237 I1.191 J0.
X-21.813 Z-4.286 I-1.191 J0.
X-19.432 Z-4.334 I1.191 J0.
X-21.813 Z-4.383 I-1.191 J0.
X-19.432 Z-4.431 I1.191 J0.
X-21.813 Z-4.48 I-1.191 J0.
X-19.432 Z-4.528 I1.191 J0.
X-21.813 Z-4.577 I-1.191 J0.
X-19.432 Z-4.625 I1.191 J0.
X-21.813 Z-4.674 I-1.191 J0.
X-19.432 Z-4.722 I1.191 J0.
X-21.813 Z-4.771 I-1.191 J0.
X-19.432 Z-4.819 I1.191 J0.
X-21.813 Z-4.868 I-1.191 J0.
X-19.432 Z-4.916 I1.191 J0.
X-21.813 Z-4.965 I-1.191 J0.
X-19.432 Z-5.013 I1.191 J0.
X-21.813 Z-5.062 I-1.191 J0.
X-19.432 Z-5.11 I1.191 J0.
X-21.813 Z-5.159 I-1.191 J0.
X-19.432 Z-5.207 I1.191 J0.
X-21.813 Z-5.256 I-1.191 J0.
X-19.432 Z-5.304 I1.191 J0.
X-21.813 Z-5.352 I-1.191 J0.
X-19.432 Z-5.401 I1.191 J0.
X-21.813 Z-5.449 I-1.191 J0.
X-19.432 Z-5.498 I1.191 J0.
X-21.813 Z-5.546 I-1.191 J0.
X-19.432 Z-5.595 I1.191 J0.
X-21.813 Z-5.643 I-1.191 J0.
X-19.432 Z-5.692 I1.191 J0.
X-21.813 Z-5.74 I-1.191 J0.
X-19.432 Z-5.789 I1.191 J0.
X-21.813 Z-5.837 I-1.191 J0.
X-19.432 Z-5.886 I1.191 J0.
X-21.813 Z-5.934 I-1.191 J0.
X-19.432 Z-5.983 I1.191 J0.
X-21.813 Z-6.031 I-1.191 J0.
X-19.432 Z-6.08 I1.191 J0.
X-21.813 Z-6.128 I-1.191 J0.
X-19.432 Z-6.177 I1.191 J0.
X-21.813 Z-6.225 I-1.191 J0.
X-19.432 Z-6.274 I1.191 J0.
X-21.813 Z-6.322 I-1.191 J0.
X-19.432 Z-6.371 I1.191 J0.
X-21.813 Z-6.419 I-1.191 J0.
X-19.432 Z-6.468 I1.191 J0.
X-21.813 Z-6.516 I-1.191 J0.
X-19.432 Z-6.565 I1.191 J0.
X-21.813 Z-6.613 I-1.191 J0.
X-19.432 Z-6.662 I1.191 J0.
X-21.813 Z-6.71 I-1.191 J0.
X-19.432 Z-6.759 I1.191 J0.
X-21.813 Z-6.807 I-1.191 J0.
X-19.432 Z-6.856 I1.191 J0.
X-21.813 Z-6.904 I-1.191 J0.
X-19.432 Z-6.953 I1.191 J0.
X-21.813 Z-7.001 I-1.191 J0.
X-19.432 Z-7.05 I1.191 J0.
X-21.813 Z-7.098 I-1.191 J0.
X-19.432 Z-7.147 I1.191 J0.
X-21.813 Z-7.195 I-1.191 J0.
X-19.432 Z-7.244 I1.191 J0.
X-21.813 Z-7.292 I-1.191 J0.
X-19.432 Z-7.341 I1.191 J0.
X-19.642 Y11.231 Z-7.35 I-1.191 J0.
X-21.603 Y12.582 I-0.98 J0.676
X-19.642 Y11.231 I0.98 J-0.676
X-20.084 Y11.149 I-0.261 J0.18
G1 X-20.214 Y11.239
X-20.272 Y11.28 Z-7.342
X-20.328 Y11.318 Z-7.319
X-20.377 Y11.352 Z-7.281
X-20.419 Y11.38 Z-7.23
X-20.45 Y11.402 Z-7.17
X-20.469 Y11.415 Z-7.103
X-20.476 Y11.42 Z-7.032
G0 Z5.
X0.397 Y24.13
Z3.
G1 Z1.317 F1600.
G18 G2 X0.714 Z1. I0.318 K0.
G1 X0.873
G17 G2 X1.191 Y23.813 I0. J-0.317
X-1.191 Z0.952 I-1.191 J0.
X1.191 Z0.903 I1.191 J0.
X-1.191 Z0.855 I-1.191 J0.
X1.191 Z0.806 I1.191 J0.
X-1.191 Y23.812 Z0.758 I-1.191 J0.
X1.191 Y23.813 Z0.709 I1.191 J0.
X-1.191 Z0.661 I-1.191 J0.
X1.191 Z0.612 I1.191 J0.
X-1.191 Y23.812 Z0.564 I-1.191 J0.
X1.191 Y23.813 Z0.515 I1.191 J0.
X-1.191 Z0.467 I-1.191 J0.
X1.191 Z0.418 I1.191 J0.
X-1.191 Y23.812 Z0.37 I-1.191 J0.
X1.191 Y23.813 Z0.321 I1.191 J0.
X-1.191 Y23.812 Z0.273 I-1.191 J0.
X1.191 Y23.813 Z0.224 I1.191 J0.
X-1.191 Y23.812 Z0.176 I-1.191 J0.
X1.191 Y23.813 Z0.127 I1.191 J0.
X-1.191 Y23.812 Z0.079 I-1.191 J0.
X1.191 Y23.813 Z0.03 I1.191 J0.
X-1.191 Y23.812 Z-0.018 I-1.191 J0.
X1.191 Y23.813 Z-0.067 I1.191 J0.
X-1.191 Y23.812 Z-0.115 I-1.191 J0.
X1.191 Y23.813 Z-0.164 I1.191 J0.
X-1.191 Y23.812 Z-0.212 I-1.191 J0.
X1.191 Y23.813 Z-0.261 I1.191 J0.
X-1.191 Y23.812 Z-0.309 I-1.191 J0.
X1.191 Y23.813 Z-0.358 I1.191 J0.
X-1.191 Y23.812 Z-0.406 I-1.191 J0.
X1.191 Y23.813 Z-0.455 I1.191 J0.
X-1.191 Y23.812 Z-0.503 I-1.191 J0.
X1.191 Y23.813 Z-0.552 I1.191 J0.
X-1.191 Y23.812 Z-0.6 I-1.191 J0.
X1.191 Y23.813 Z-0.649 I1.191 J0.
X-1.191 Y23.812 Z-0.697 I-1.191 J0.
X1.191 Y23.813 Z-0.746 I1.191 J0.
X-1.191 Y23.812 Z-0.794 I-1.191 J0.
X1.191 Y23.813 Z-0.843 I1.191 J0.
X-1.191 Y23.812 Z-0.891 I-1.191 J0.
X1.191 Y23.813 Z-0.94 I1.191 J0.
X-1.191 Y23.812 Z-0.988 I-1.191 J0.
X1.191 Y23.813 Z-1.037 I1.191 J0.
X-1.191 Y23.812 Z-1.085 I-1.191 J0.
X1.191 Y23.813 Z-1.134 I1.191 J0.
X-1.191 Y23.812 Z-1.182 I-1.191 J0.
X1.191 Y23.813 Z-1.231 I1.191 J0.
X-1.191 Y23.812 Z-1.279 I-1.191 J0.
X1.191 Y23.813 Z-1.328 I1.191 J0.
X-1.191 Y23.812 Z-1.376 I-1.191 J0.
X1.191 Y23.813 Z-1.425 I1.191 J0.
X-1.191 Y23.812 Z-1.473 I-1.191 J0.
X1.191 Y23.813 Z-1.522 I1.191 J0.
X-1.191 Y23.812 Z-1.57 I-1.191 J0.
X1.191 Y23.813 Z-1.619 I1.191 J0.
X-1.191 Y23.812 Z-1.667 I-1.191 J0.
X1.191 Y23.813 Z-1.716 I1.191 J0.
X-1.191 Y23.812 Z-1.764 I-1.191 J0.
X1.191 Y23.813 Z-1.813 I1.191 J0.
X-1.191 Y23.812 Z-1.861 I-1.191 J0.
X1.191 Y23.813 Z-1.91 I1.191 J0.
X-1.191 Y23.812 Z-1.958 I-1.191 J0.
X1.191 Y23.813 Z-2.007 I1.191 J0.
X-1.191 Y23.812 Z-2.055 I-1.191 J0.
X1.191 Y23.813 Z-2.104 I1.191 J0.
X-1.191 Y23.812 Z-2.152 I-1.191 J0.
X1.191 Y23.813 Z-2.2 I1.191 J0.
X-1.191 Y23.812 Z-2.249 I-1.191 J0.
X1.191 Y23.813 Z-2.297 I1.191 J0.
X-1.191 Y23.812 Z-2.346 I-1.191 J0.
X1.191 Y23.813 Z-2.394 I1.191 J0.
X-1.191 Y23.812 Z-2.443 I-1.191 J0.
X1.191 Y23.813 Z-2.491 I1.191 J0.
X-1.191 Y23.812 Z-2.54 I-1.191 J0.
X1.191 Y23.813 Z-2.588 I1.191 J0.
X-1.191 Y23.812 Z-2.637 I-1.191 J0.
X1.191 Y23.813 Z-2.685 I1.191 J0.
X-1.191 Y23.812 Z-2.734 I-1.191 J0.
X1.191 Y23.813 Z-2.782 I1.191 J0.
X-1.191 Y23.812 Z-2.831 I-1.191 J0.
X1.191 Y23.813 Z-2.879 I1.191 J0.
X-1.191 Y23.812 Z-2.928 I-1.191 J0.
X1.191 Y23.813 Z-2.976 I1.191 J0.
X-1.191 Y23.812 Z-3.025 I-1.191 J0.
X1.191 Y23.813 Z-3.073 I1.191 J0.
X-1.191 Y23.812 Z-3.122 I-1.191 J0.
X1.191 Y23.813 Z-3.17 I1.191 J0.
X-1.191 Y23.812 Z-3.219 I-1.191 J0.
X1.191 Y23.813 Z-3.267 I1.191 J0.
X-1.191 Y23.812 Z-3.316 I-1.191 J0.
X1.191 Y23.813 Z-3.364 I1.191 J0.
X-1.191 Y23.812 Z-3.413 I-1.191 J0.
X1.191 Y23.813 Z-3.461 I1.191 J0.
X-1.191 Y23.812 Z-3.51 I-1.191 J0.
X1.191 Y23.813 Z-3.558 I1.191 J0.
X-1.191 Y23.812 Z-3.607 I-1.191 J0.
X1.191 Y23.813 Z-3.655 I1.191 J0.
X-1.191 Y23.812 Z-3.704 I-1.191 J0.
X1.191 Z-3.752 I1.191 J0.
X-1.191 Y23.813 Z-3.801 I-1.191 J0.
X1.191 Y23.812 Z-3.849 I1.191 J0.
X-1.191 Y23.813 Z-3.898 I-1.191 J0.
X1.191 Y23.812 Z-3.946 I1.191 J0.
X-1.191 Y23.813 Z-3.995 I-1.191 J0.
X1.191 Y23.812 Z-4.043 I1.191 J0.
X-1.191 Y23.813 Z-4.092 I-1.191 J0.
X1.191 Y23.812 Z-4.14 I1.191 J0.
X-1.191 Y23.813 Z-4.189 I-1.191 J0.
X1.191 Y23.812 Z-4.237 I1.191 J0.
X-1.191 Y23.813 Z-4.286 I-1.191 J0.
X1.191 Y23.812 Z-4.334 I1.191 J0.
X-1.191 Y23.813 Z-4.383 I-1.191 J0.
X1.191 Y23.812 Z-4.431 I1.191 J0.
X-1.191 Y23.813 Z-4.48 I-1.191 J0.
X1.191 Y23.812 Z-4.528 I1.191 J0.
X-1.191 Y23.813 Z-4.577 I-1.191 J0.
X1.191 Y23.812 Z-4.625 I1.191 J0.
X-1.191 Y23.813 Z-4.674 I-1.191 J0.
X1.191 Y23.812 Z-4.722 I1.191 J0.
X-1.191 Y23.813 Z-4.771 I-1.191 J0.
X1.191 Y23.812 Z-4.819 I1.191 J0.
X-1.191 Y23.813 Z-4.868 I-1.191 J0.
X1.191 Y23.812 Z-4.916 I1.191 J0.
X-1.191 Y23.813 Z-4.965 I-1.191 J0.
X1.191 Y23.812 Z-5.013 I1.191 J0.
X-1.191 Y23.813 Z-5.062 I-1.191 J0.
X1.191 Y23.812 Z-5.11 I1.191 J0.
X-1.191 Y23.813 Z-5.159 I-1.191 J0.
X1.191 Y23.812 Z-5.207 I1.191 J0.
X-1.191 Y23.813 Z-5.256 I-1.191 J0.
X1.191 Y23.812 Z-5.304 I1.191 J0.
X-1.191 Y23.813 Z-5.352 I-1.191 J0.
X1.191 Y23.812 Z-5.401 I1.191 J0.
X-1.191 Y23.813 Z-5.449 I-1.191 J0.
X1.191 Y23.812 Z-5.498 I1.191 J0.
X-1.191 Y23.813 Z-5.546 I-1.191 J0.
X1.191 Y23.812 Z-5.595 I1.191 J0.
X-1.191 Y23.813 Z-5.643 I-1.191 J0.
X1.191 Y23.812 Z-5.692 I1.191 J0.
X-1.191 Y23.813 Z-5.74 I-1.191 J0.
X1.191 Y23.812 Z-5.789 I1.191 J0.
X-1.191 Y23.813 Z-5.837 I-1.191 J0.
X1.191 Y23.812 Z-5.886 I1.191 J0.
X-1.191 Y23.813 Z-5.934 I-1.191 J0.
X1.191 Y23.812 Z-5.983 I1.191 J0.
X-1.191 Y23.813 Z-6.031 I-1.191 J0.
X1.191 Y23.812 Z-6.08 I1.191 J0.
X-1.191 Y23.813 Z-6.128 I-1.191 J0.
X1.191 Y23.812 Z-6.177 I1.191 J0.
X-1.191 Y23.813 Z-6.225 I-1.191 J0.
X1.191 Y23.812 Z-6.274 I1.191 J0.
X-1.191 Y23.813 Z-6.322 I-1.191 J0.
X1.191 Y23.812 Z-6.371 I1.191 J0.
X-1.191 Y23.813 Z-6.419 I-1.191 J0.
X1.191 Y23.812 Z-6.468 I1.191 J0.
X-1.191 Y23.813 Z-6.516 I-1.191 J0.
X1.191 Y23.812 Z-6.565 I1.191 J0.
X-1.191 Y23.813 Z-6.613 I-1.191 J0.
X1.191 Y23.812 Z-6.662 I1.191 J0.
X-1.191 Y23.813 Z-6.71 I-1.191 J0.
X1.191 Y23.812 Z-6.759 I1.191 J0.
X-1.191 Y23.813 Z-6.807 I-1.191 J0.
X1.191 Y23.812 Z-6.856 I1.191 J0.
X-1.191 Y23.813 Z-6.904 I-1.191 J0.
X1.191 Y23.812 Z-6.953 I1.191 J0.
X-1.191 Y23.813 Z-7.001 I-1.191 J0.
X1.191 Y23.812 Z-7.05 I1.191 J0.
X-1.191 Y23.813 Z-7.098 I-1.191 J0.
X1.191 Y23.812 Z-7.147 I1.191 J0.
X-1.191 Y23.813 Z-7.195 I-1.191 J0.
X1.191 Y23.812 Z-7.244 I1.191 J0.
X-1.191 Y23.813 Z-7.292 I-1.191 J0.
X1.191 Y23.812 Z-7.341 I1.191 J0.
X0.98 Y23.137 Z-7.35 I-1.191 J0.
X-0.98 Y24.488 I-0.98 J0.676
X0.98 Y23.137 I0.98 J-0.676
X0.539 Y23.056 I-0.261 J0.18
G1 X0.408 Y23.146
X0.35 Y23.186 Z-7.342
X0.295 Y23.224 Z-7.319
X0.245 Y23.258 Z-7.281
X0.204 Y23.287 Z-7.23
X0.172 Y23.308 Z-7.17
X0.153 Y23.321 Z-7.103
X0.147 Y23.326 Z-7.032
G0 Z5.
X1.191 Y38.417
Z3.
G1 Z1.317 F1600.
G18 G2 X1.508 Z1. I0.317 K0.
G1 X1.667
G17 G2 X1.984 Y38.1 I0. J-0.318
X-1.984 Z0.938 I-1.984 J0.
X1.984 Z0.875 I1.984 J0.
X-1.984 Z0.813 I-1.984 J0.
X1.984 Z0.751 I1.984 J0.
X-1.984 Z0.688 I-1.984 J0.
X1.984 Z0.626 I1.984 J0.
X-1.984 Z0.564 I-1.984 J0.
X1.984 Z0.501 I1.984 J0.
X-1.984 Z0.439 I-1.984 J0.
X1.984 Z0.377 I1.984 J0.
X-1.984 Z0.314 I-1.984 J0.
X1.984 Z0.252 I1.984 J0.
X-1.984 Z0.189 I-1.984 J0.
X1.984 Z0.127 I1.984 J0.
X-1.984 Z0.065 I-1.984 J0.
X1.984 Z0.002 I1.984 J0.
X-1.984 Z-0.06 I-1.984 J0.
X1.984 Z-0.122 I1.984 J0.
X-1.984 Z-0.185 I-1.984 J0.
X1.984 Z-0.247 I1.984 J0.
X-1.984 Z-0.309 I-1.984 J0.
X1.984 Z-0.372 I1.984 J0.
X-1.984 Z-0.434 I-1.984 J0.
X1.984 Z-0.496 I1.984 J0.
X-1.984 Z-0.559 I-1.984 J0.
X1.984 Z-0.621 I1.984 J0.
X-1.984 Z-0.683 I-1.984 J0.
X1.984 Z-0.746 I1.984 J0.
X-1.984 Z-0.808 I-1.984 J0.
X1.984 Z-0.87 I1.984 J0.
X-1.984 Z-0.933 I-1.984 J0.
X1.984 Z-0.995 I1.984 J0.
X-1.984 Z-1.057 I-1.984 J0.
X1.984 Z-1.12 I1.984 J0.
X-1.984 Z-1.182 I-1.984 J0.
X1.984 Z-1.245 I1.984 J0.
X-1.984 Z-1.307 I-1.984 J0.
X1.984 Z-1.369 I1.984 J0.
X-1.984 Z-1.432 I-1.984 J0.
X1.984 Z-1.494 I1.984 J0.
X-1.984 Z-1.556 I-1.984 J0.
X1.984 Z-1.619 I1.984 J0.
X-1.984 Z-1.681 I-1.984 J0.
X1.984 Z-1.743 I1.984 J0.
X-1.984 Z-1.806 I-1.984 J0.
X1.984 Z-1.868 I1.984 J0.
X-1.984 Z-1.93 I-1.984 J0.
X1.984 Z-1.993 I1.984 J0.
X-1.984 Z-2.055 I-1.984 J0.
X1.984 Z-2.117 I1.984 J0.
X-1.984 Z-2.18 I-1.984 J0.
X1.984 Z-2.242 I1.984 J0.
X-1.984 Z-2.304 I-1.984 J0.
X1.984 Z-2.367 I1.984 J0.
X-1.984 Z-2.429 I-1.984 J0.
X1.984 Z-2.491 I1.984 J0.
X-1.984 Z-2.554 I-1.984 J0.
X1.984 Z-2.616 I1.984 J0.
X-1.984 Z-2.678 I-1.984 J0.
X1.984 Z-2.741 I1.984 J0.
X-1.984 Z-2.803 I-1.984 J0.
X1.984 Z-2.866 I1.984 J0.
X-1.984 Z-2.928 I-1.984 J0.
X1.984 Z-2.99 I1.984 J0.
X-1.984 Z-3.053 I-1.984 J0.
X1.984 Z-3.115 I1.984 J0.
X-1.984 Z-3.177 I-1.984 J0.
X1.984 Z-3.24 I1.984 J0.
X-1.984 Z-3.302 I-1.984 J0.
X1.984 Z-3.364 I1.984 J0.
X-1.984 Z-3.427 I-1.984 J0.
X1.984 Z-3.489 I1.984 J0.
X-1.984 Z-3.551 I-1.984 J0.
X1.984 Z-3.614 I1.984 J0.
X-1.984 Z-3.676 I-1.984 J0.
X1.984 Z-3.738 I1.984 J0.
X-1.984 Z-3.801 I-1.984 J0.
X1.984 Z-3.863 I1.984 J0.
X-1.984 Z-3.925 I-1.984 J0.
X1.984 Z-3.988 I1.984 J0.
X-1.984 Z-4.05 I-1.984 J0.
X1.984 Z-4.112 I1.984 J0.
X-1.984 Z-4.175 I-1.984 J0.
X1.984 Z-4.237 I1.984 J0.
X-1.984 Z-4.3 I-1.984 J0.
X1.984 Z-4.362 I1.984 J0.
X-1.984 Z-4.424 I-1.984 J0.
X1.984 Z-4.487 I1.984 J0.
X-1.984 Z-4.549 I-1.984 J0.
X1.984 Z-4.611 I1.984 J0.
X-1.984 Z-4.674 I-1.984 J0.
X1.984 Z-4.736 I1.984 J0.
X-1.984 Z-4.798 I-1.984 J0.
X1.984 Z-4.861 I1.984 J0.
X-1.984 Z-4.923 I-1.984 J0.
X1.984 Z-4.985 I1.984 J0.
X-1.984 Z-5.048 I-1.984 J0.
X1.984 Z-5.11 I1.984 J0.
X-1.984 Z-5.172 I-1.984 J0.
X1.984 Z-5.235 I1.984 J0.
X-1.984 Z-5.297 I-1.984 J0.
X1.984 Z-5.359 I1.984 J0.
X-1.984 Z-5.422 I-1.984 J0.
X1.984 Z-5.484 I1.984 J0.
X-1.984 Z-5.546 I-1.984 J0.
X1.984 Z-5.609 I1.984 J0.
X-1.984 Z-5.671 I-1.984 J0.
X1.984 Z-5.734 I1.984 J0.
X-1.984 Z-5.796 I-1.984 J0.
X1.984 Z-5.858 I1.984 J0.
X-1.984 Z-5.921 I-1.984 J0.
X1.984 Z-5.983 I1.984 J0.
X-1.984 Z-6.045 I-1.984 J0.
X1.984 Z-6.108 I1.984 J0.
X-1.984 Z-6.17 I-1.984 J0.
X1.984 Z-6.232 I1.984 J0.
X-1.984 Z-6.295 I-1.984 J0.
X1.984 Z-6.357 I1.984 J0.
X-1.984 Z-6.419 I-1.984 J0.
X1.984 Z-6.482 I1.984 J0.
X-1.984 Z-6.544 I-1.984 J0.
X1.984 Z-6.606 I1.984 J0.
X-1.984 Z-6.669 I-1.984 J0.
X1.984 Z-6.731 I1.984 J0.
X-1.984 Z-6.793 I-1.984 J0.
X1.984 Z-6.856 I1.984 J0.
X-1.984 Z-6.918 I-1.984 J0.
X1.984 Z-6.98 I1.984 J0.
X-1.984 Z-7.043 I-1.984 J0.
X1.984 Z-7.105 I1.984 J0.
X-1.984 Z-7.167 I-1.984 J0.
X1.984 Z-7.23 I1.984 J0.
X-1.984 Z-7.292 I-1.984 J0.
X1.933 Y38.55 Z-7.35 I1.984 J0.
X-1.933 Y37.65 I-1.933 J-0.45
X1.933 Y38.55 I1.933 J0.45
X1.695 Y38.169 I-0.309 J-0.072
G1 X1.541 Y38.133
X1.472 Y38.117 Z-7.342
X1.407 Y38.102 Z-7.319
X1.348 Y38.088 Z-7.281
X1.299 Y38.076 Z-7.23
X1.262 Y38.068 Z-7.17
X1.239 Y38.063 Z-7.103
X1.232 Y38.061 Z-7.032
G0 Z5.
X1.191 Y63.818
Z3.
G1 Z1.317 F1600.
G18 G2 X1.508 Z1. I0.317 K0.
G1 X1.667
G17 G2 X1.984 Y63.5 I0. J-0.318
X-1.984 Z0.938 I-1.984 J0.
X1.984 Z0.875 I1.984 J0.
X-1.984 Z0.813 I-1.984 J0.
X1.984 Z0.751 I1.984 J0.
X-1.984 Z0.688 I-1.984 J0.
X1.984 Z0.626 I1.984 J0.
X-1.984 Z0.564 I-1.984 J0.
X1.984 Z0.501 I1.984 J0.
X-1.984 Z0.439 I-1.984 J0.
X1.984 Z0.377 I1.984 J0.
X-1.984 Z0.314 I-1.984 J0.
X1.984 Z0.252 I1.984 J0.
X-1.984 Z0.189 I-1.984 J0.
X1.984 Z0.127 I1.984 J0.
X-1.984 Z0.065 I-1.984 J0.
X1.984 Z0.002 I1.984 J0.
X-1.984 Z-0.06 I-1.984 J0.
X1.984 Z-0.122 I1.984 J0.
X-1.984 Z-0.185 I-1.984 J0.
X1.984 Z-0.247 I1.984 J0.
X-1.984 Z-0.309 I-1.984 J0.
X1.984 Z-0.372 I1.984 J0.
X-1.984 Z-0.434 I-1.984 J0.
X1.984 Z-0.496 I1.984 J0.
X-1.984 Z-0.559 I-1.984 J0.
X1.984 Z-0.621 I1.984 J0.
X-1.984 Z-0.683 I-1.984 J0.
X1.984 Z-0.746 I1.984 J0.
X-1.984 Z-0.808 I-1.984 J0.
X1.984 Z-0.87 I1.984 J0.
X-1.984 Z-0.933 I-1.984 J0.
X1.984 Z-0.995 I1.984 J0.
X-1.984 Z-1.057 I-1.984 J0.
X1.984 Z-1.12 I1.984 J0.
X-1.984 Z-1.182 I-1.984 J0.
X1.984 Z-1.245 I1.984 J0.
X-1.984 Z-1.307 I-1.984 J0.
X1.984 Z-1.369 I1.984 J0.
X-1.984 Z-1.432 I-1.984 J0.
X1.984 Z-1.494 I1.984 J0.
X-1.984 Z-1.556 I-1.984 J0.
X1.984 Z-1.619 I1.984 J0.
X-1.984 Z-1.681 I-1.984 J0.
X1.984 Z-1.743 I1.984 J0.
X-1.984 Z-1.806 I-1.984 J0.
X1.984 Z-1.868 I1.984 J0.
X-1.984 Z-1.93 I-1.984 J0.
X1.984 Z-1.993 I1.984 J0.
X-1.984 Z-2.055 I-1.984 J0.
X1.984 Z-2.117 I1.984 J0.
X-1.984 Z-2.18 I-1.984 J0.
X1.984 Z-2.242 I1.984 J0.
X-1.984 Z-2.304 I-1.984 J0.
X1.984 Z-2.367 I1.984 J0.
X-1.984 Z-2.429 I-1.984 J0.
X1.984 Z-2.491 I1.984 J0.
X-1.984 Z-2.554 I-1.984 J0.
X1.984 Z-2.616 I1.984 J0.
X-1.984 Z-2.678 I-1.984 J0.
X1.984 Z-2.741 I1.984 J0.
X-1.984 Z-2.803 I-1.984 J0.
X1.984 Z-2.866 I1.984 J0.
X-1.984 Z-2.928 I-1.984 J0.
X1.984 Z-2.99 I1.984 J0.
X-1.984 Z-3.053 I-1.984 J0.
X1.984 Z-3.115 I1.984 J0.
X-1.984 Z-3.177 I-1.984 J0.
X1.984 Z-3.24 I1.984 J0.
X-1.984 Z-3.302 I-1.984 J0.
X1.984 Z-3.364 I1.984 J0.
X-1.984 Z-3.427 I-1.984 J0.
X1.984 Z-3.489 I1.984 J0.
X-1.984 Z-3.551 I-1.984 J0.
X1.984 Z-3.614 I1.984 J0.
X-1.984 Z-3.676 I-1.984 J0.
X1.984 Z-3.738 I1.984 J0.
X-1.984 Z-3.801 I-1.984 J0.
X1.984 Z-3.863 I1.984 J0.
X-1.984 Z-3.925 I-1.984 J0.
X1.984 Z-3.988 I1.984 J0.
X-1.984 Z-4.05 I-1.984 J0.
X1.984 Z-4.112 I1.984 J0.
X-1.984 Z-4.175 I-1.984 J0.
X1.984 Z-4.237 I1.984 J0.
X-1.984 Z-4.3 I-1.984 J0.
X1.984 Z-4.362 I1.984 J0.
X-1.984 Z-4.424 I-1.984 J0.
X1.984 Z-4.487 I1.984 J0.
X-1.984 Z-4.549 I-1.984 J0.
X1.984 Z-4.611 I1.984 J0.
X-1.984 Z-4.674 I-1.984 J0.
X1.984 Z-4.736 I1.984 J0.
X-1.984 Z-4.798 I-1.984 J0.
X1.984 Z-4.861 I1.984 J0.
X-1.984 Z-4.923 I-1.984 J0.
X1.984 Z-4.985 I1.984 J0.
X-1.984 Z-5.048 I-1.984 J0.
X1.984 Z-5.11 I1.984 J0.
X-1.984 Z-5.172 I-1.984 J0.
X1.984 Z-5.235 I1.984 J0.
X-1.984 Z-5.297 I-1.984 J0.
X1.984 Z-5.359 I1.984 J0.
X-1.984 Z-5.422 I-1.984 J0.
X1.984 Z-5.484 I1.984 J0.
X-1.984 Z-5.546 I-1.984 J0.
X1.984 Z-5.609 I1.984 J0.
X-1.984 Z-5.671 I-1.984 J0.
X1.984 Z-5.734 I1.984 J0.
X-1.984 Z-5.796 I-1.984 J0.
X1.984 Z-5.858 I1.984 J0.
X-1.984 Z-5.921 I-1.984 J0.
X1.984 Z-5.983 I1.984 J0.
X-1.984 Z-6.045 I-1.984 J0.
X1.984 Z-6.108 I1.984 J0.
X-1.984 Z-6.17 I-1.984 J0.
X1.984 Z-6.232 I1.984 J0.
X-1.984 Z-6.295 I-1.984 J0.
X1.984 Z-6.357 I1.984 J0.
X-1.984 Z-6.419 I-1.984 J0.
X1.984 Z-6.482 I1.984 J0.
X-1.984 Z-6.544 I-1.984 J0.
X1.984 Z-6.606 I1.984 J0.
X-1.984 Z-6.669 I-1.984 J0.
X1.984 Z-6.731 I1.984 J0.
X-1.984 Z-6.793 I-1.984 J0.
X1.984 Z-6.856 I1.984 J0.
X-1.984 Z-6.918 I-1.984 J0.
X1.984 Z-6.98 I1.984 J0.
X-1.984 Z-7.043 I-1.984 J0.
X1.984 Z-7.105 I1.984 J0.
X-1.984 Z-7.167 I-1.984 J0.
X1.984 Z-7.23 I1.984 J0.
X-1.984 Z-7.292 I-1.984 J0.
X1.933 Y63.95 Z-7.35 I1.984 J0.
X-1.933 Y63.05 I-1.933 J-0.45
X1.933 Y63.95 I1.933 J0.45
X1.695 Y63.569 I-0.309 J-0.072
G1 X1.541 Y63.533
X1.472 Y63.517 Z-7.342
X1.407 Y63.502 Z-7.319
X1.348 Y63.488 Z-7.281
X1.299 Y63.476 Z-7.23
X1.262 Y63.468 Z-7.17
X1.239 Y63.463 Z-7.103
X1.232 Y63.461 Z-7.032
G0 Z5.
X61.583 Y19.94
Z3.
G1 Z1.317 F1600.
G18 G2 X61.9 Z1. I0.318 K0.
G1 X62.059
G17 G2 X62.376 Y19.623 I0. J-0.317
X58.408 Z0.938 I-1.984 J0.
X62.376 Z0.875 I1.984 J0.
X58.408 Z0.813 I-1.984 J0.
X62.376 Z0.751 I1.984 J0.
X58.408 Z0.688 I-1.984 J0.
X62.376 Z0.626 I1.984 J0.
X58.408 Z0.564 I-1.984 J0.
X62.376 Z0.501 I1.984 J0.
X58.408 Z0.439 I-1.984 J0.
X62.376 Z0.377 I1.984 J0.
X58.408 Z0.314 I-1.984 J0.
X62.376 Z0.252 I1.984 J0.
X58.408 Z0.189 I-1.984 J0.
X62.376 Z0.127 I1.984 J0.
X58.408 Z0.065 I-1.984 J0.
X62.376 Z0.002 I1.984 J0.
X58.408 Z-0.06 I-1.984 J0.
X62.376 Z-0.122 I1.984 J0.
X58.408 Z-0.185 I-1.984 J0.
X62.376 Z-0.247 I1.984 J0.
X58.408 Z-0.309 I-1.984 J0.
X62.376 Z-0.372 I1.984 J0.
X58.408 Z-0.434 I-1.984 J0.
X62.376 Z-0.496 I1.984 J0.
X58.408 Z-0.559 I-1.984 J0.
X62.376 Z-0.621 I1.984 J0.
X58.408 Z-0.683 I-1.984 J0.
X62.376 Z-0.746 I1.984 J0.
X58.408 Z-0.808 I-1.984 J0.
X62.376 Z-0.87 I1.984 J0.
X58.408 Z-0.933 I-1.984 J0.
X62.376 Z-0.995 I1.984 J0.
X58.408 Z-1.057 I-1.984 J0.
X62.376 Z-1.12 I1.984 J0.
X58.408 Z-1.182 I-1.984 J0.
X62.376 Z-1.245 I1.984 J0.
X58.408 Z-1.307 I-1.984 J0.
X62.376 Z-1.369 I1.984 J0.
X58.408 Z-1.432 I-1.984 J0.
X62.376 Z-1.494 I1.984 J0.
X58.408 Z-1.556 I-1.984 J0.
X62.376 Z-1.619 I1.984 J0.
X58.408 Z-1.681 I-1.984 J0.
X62.376 Z-1.743 I1.984 J0.
X58.408 Z-1.806 I-1.984 J0.
X62.376 Z-1.868 I1.984 J0.
X58.408 Z-1.93 I-1.984 J0.
X62.376 Z-1.993 I1.984 J0.
X58.408 Z-2.055 I-1.984 J0.
X62.376 Z-2.117 I1.984 J0.
X58.408 Z-2.18 I-1.984 J0.
X62.376 Z-2.242 I1.984 J0.
X58.408 Z-2.304 I-1.984 J0.
X62.376 Z-2.367 I1.984 J0.
X58.408 Z-2.429 I-1.984 J0.
X62.376 Z-2.491 I1.984 J0.
X58.408 Z-2.554 I-1.984 J0.
X62.376 Z-2.616 I1.984 J0.
X58.408 Z-2.678 I-1.984 J0.
X62.376 Z-2.741 I1.984 J0.
X58.408 Z-2.803 I-1.984 J0.
X62.376 Z-2.866 I1.984 J0.
X58.408 Z-2.928 I-1.984 J0.
X62.376 Z-2.99 I1.984 J0.
X58.408 Z-3.053 I-1.984 J0.
X62.376 Z-3.115 I1.984 J0.
X58.408 Z-3.177 I-1.984 J0.
X62.376 Z-3.24 I1.984 J0.
X58.408 Z-3.302 I-1.984 J0.
X62.376 Z-3.364 I1.984 J0.
X58.408 Z-3.427 I-1.984 J0.
X62.376 Z-3.489 I1.984 J0.
X58.408 Z-3.551 I-1.984 J0.
X62.376 Z-3.614 I1.984 J0.
X58.408 Z-3.676 I-1.984 J0.
X62.376 Z-3.738 I1.984 J0.
X58.408 Z-3.801 I-1.984 J0.
X62.376 Z-3.863 I1.984 J0.
X58.408 Z-3.925 I-1.984 J0.
X62.376 Z-3.988 I1.984 J0.
X58.408 Z-4.05 I-1.984 J0.
X62.376 Z-4.112 I1.984 J0.
X58.408 Z-4.175 I-1.984 J0.
X62.376 Z-4.237 I1.984 J0.
X58.408 Z-4.3 I-1.984 J0.
X62.376 Z-4.362 I1.984 J0.
X58.408 Z-4.424 I-1.984 J0.
X62.376 Z-4.487 I1.984 J0.
X58.408 Z-4.549 I-1.984 J0.
X62.376 Z-4.611 I1.984 J0.
X58.408 Z-4.674 I-1.984 J0.
X62.376 Z-4.736 I1.984 J0.
X58.408 Z-4.798 I-1.984 J0.
X62.376 Z-4.861 I1.984 J0.
X58.408 Z-4.923 I-1.984 J0.
X62.376 Z-4.985 I1.984 J0.
X58.408 Z-5.048 I-1.984 J0.
X62.376 Z-5.11 I1.984 J0.
X58.408 Z-5.172 I-1.984 J0.
X62.376 Z-5.235 I1.984 J0.
X58.408 Z-5.297 I-1.984 J0.
X62.376 Z-5.359 I1.984 J0.
X58.408 Z-5.422 I-1.984 J0.
X62.376 Z-5.484 I1.984 J0.
X58.408 Z-5.546 I-1.984 J0.
X62.376 Z-5.609 I1.984 J0.
X58.408 Z-5.671 I-1.984 J0.
X62.376 Z-5.734 I1.984 J0.
X58.408 Z-5.796 I-1.984 J0.
X62.376 Z-5.858 I1.984 J0.
X58.408 Z-5.921 I-1.984 J0.
X62.376 Z-5.983 I1.984 J0.
X58.408 Z-6.045 I-1.984 J0.
X62.376 Z-6.108 I1.984 J0.
X58.408 Z-6.17 I-1.984 J0.
X62.376 Z-6.232 I1.984 J0.
X58.408 Z-6.295 I-1.984 J0.
X62.376 Z-6.357 I1.984 J0.
X58.408 Z-6.419 I-1.984 J0.
X62.376 Z-6.482 I1.984 J0.
X58.408 Z-6.544 I-1.984 J0.
X62.376 Z-6.606 I1.984 J0.
X58.408 Z-6.669 I-1.984 J0.
X62.376 Z-6.731 I1.984 J0.
X58.408 Z-6.793 I-1.984 J0.
X62.376 Z-6.856 I1.984 J0.
X58.408 Z-6.918 I-1.984 J0.
X62.376 Z-6.98 I1.984 J0.
X58.408 Z-7.043 I-1.984 J0.
X62.376 Z-7.105 I1.984 J0.
X58.408 Z-7.167 I-1.984 J0.
X62.376 Z-7.23 I1.984 J0.
X58.408 Z-7.292 I-1.984 J0.
X62.325 Y20.073 Z-7.35 I1.984 J0.
X58.459 Y19.173 I-1.933 J-0.45
X62.325 Y20.073 I1.933 J0.45
X62.088 Y19.691 I-0.309 J-0.072
G1 X61.933 Y19.655
X61.864 Y19.639 Z-7.342
X61.799 Y19.624 Z-7.319
X61.74 Y19.61 Z-7.281
X61.691 Y19.599 Z-7.23
X61.654 Y19.59 Z-7.17
X61.631 Y19.585 Z-7.103
X61.624 Y19.583 Z-7.032
G0 Z5.
X37.426 Y12.091
Z3.
G1 Z1.317 F1600.
G18 G2 X37.743 Z1. I0.318 K0.
G1 X37.902
G17 G2 X38.22 Y11.774 I0. J-0.318
X34.251 Z0.938 I-1.984 J0.
X38.22 Z0.875 I1.984 J0.
X34.251 Z0.813 I-1.984 J0.
X38.22 Z0.751 I1.984 J0.
X34.251 Z0.688 I-1.984 J0.
X38.22 Z0.626 I1.984 J0.
X34.251 Z0.564 I-1.984 J0.
X38.22 Z0.501 I1.984 J0.
X34.251 Z0.439 I-1.984 J0.
X38.22 Z0.377 I1.984 J0.
X34.251 Z0.314 I-1.984 J0.
X38.22 Z0.252 I1.984 J0.
X34.251 Z0.189 I-1.984 J0.
X38.22 Z0.127 I1.984 J0.
X34.251 Z0.065 I-1.984 J0.
X38.22 Z0.002 I1.984 J0.
X34.251 Z-0.06 I-1.984 J0.
X38.22 Z-0.122 I1.984 J0.
X34.251 Z-0.185 I-1.984 J0.
X38.22 Z-0.247 I1.984 J0.
X34.251 Z-0.309 I-1.984 J0.
X38.22 Z-0.372 I1.984 J0.
X34.251 Z-0.434 I-1.984 J0.
X38.22 Z-0.496 I1.984 J0.
X34.251 Z-0.559 I-1.984 J0.
X38.22 Z-0.621 I1.984 J0.
X34.251 Z-0.683 I-1.984 J0.
X38.22 Z-0.746 I1.984 J0.
X34.251 Z-0.808 I-1.984 J0.
X38.22 Z-0.87 I1.984 J0.
X34.251 Z-0.933 I-1.984 J0.
X38.22 Z-0.995 I1.984 J0.
X34.251 Z-1.057 I-1.984 J0.
X38.22 Z-1.12 I1.984 J0.
X34.251 Z-1.182 I-1.984 J0.
X38.22 Z-1.245 I1.984 J0.
X34.251 Z-1.307 I-1.984 J0.
X38.22 Z-1.369 I1.984 J0.
X34.251 Z-1.432 I-1.984 J0.
X38.22 Z-1.494 I1.984 J0.
X34.251 Z-1.556 I-1.984 J0.
X38.22 Z-1.619 I1.984 J0.
X34.251 Z-1.681 I-1.984 J0.
X38.22 Z-1.743 I1.984 J0.
X34.251 Z-1.806 I-1.984 J0.
X38.22 Z-1.868 I1.984 J0.
X34.251 Z-1.93 I-1.984 J0.
X38.22 Z-1.993 I1.984 J0.
X34.251 Z-2.055 I-1.984 J0.
X38.22 Z-2.117 I1.984 J0.
X34.251 Z-2.18 I-1.984 J0.
X38.22 Z-2.242 I1.984 J0.
X34.251 Z-2.304 I-1.984 J0.
X38.22 Z-2.367 I1.984 J0.
X34.251 Z-2.429 I-1.984 J0.
X38.22 Z-2.491 I1.984 J0.
X34.251 Z-2.554 I-1.984 J0.
X38.22 Z-2.616 I1.984 J0.
X34.251 Z-2.678 I-1.984 J0.
X38.22 Z-2.741 I1.984 J0.
X34.251 Z-2.803 I-1.984 J0.
X38.22 Z-2.866 I1.984 J0.
X34.251 Z-2.928 I-1.984 J0.
X38.22 Z-2.99 I1.984 J0.
X34.251 Z-3.053 I-1.984 J0.
X38.22 Z-3.115 I1.984 J0.
X34.251 Z-3.177 I-1.984 J0.
X38.22 Z-3.24 I1.984 J0.
X34.251 Z-3.302 I-1.984 J0.
X38.22 Z-3.364 I1.984 J0.
X34.251 Z-3.427 I-1.984 J0.
X38.22 Z-3.489 I1.984 J0.
X34.251 Z-3.551 I-1.984 J0.
X38.22 Z-3.614 I1.984 J0.
X34.251 Z-3.676 I-1.984 J0.
X38.22 Z-3.738 I1.984 J0.
X34.251 Z-3.801 I-1.984 J0.
X38.22 Z-3.863 I1.984 J0.
X34.251 Z-3.925 I-1.984 J0.
X38.22 Z-3.988 I1.984 J0.
X34.251 Z-4.05 I-1.984 J0.
X38.22 Z-4.112 I1.984 J0.
X34.251 Z-4.175 I-1.984 J0.
X38.22 Z-4.237 I1.984 J0.
X34.251 Z-4.3 I-1.984 J0.
X38.22 Z-4.362 I1.984 J0.
X34.251 Z-4.424 I-1.984 J0.
X38.22 Z-4.487 I1.984 J0.
X34.251 Z-4.549 I-1.984 J0.
X38.22 Z-4.611 I1.984 J0.
X34.251 Z-4.674 I-1.984 J0.
X38.22 Z-4.736 I1.984 J0.
X34.251 Z-4.798 I-1.984 J0.
X38.22 Z-4.861 I1.984 J0.
X34.251 Z-4.923 I-1.984 J0.
X38.22 Z-4.985 I1.984 J0.
X34.251 Z-5.048 I-1.984 J0.
X38.22 Z-5.11 I1.984 J0.
X34.251 Z-5.172 I-1.984 J0.
X38.22 Z-5.235 I1.984 J0.
X34.251 Z-5.297 I-1.984 J0.
X38.22 Z-5.359 I1.984 J0.
X34.251 Z-5.422 I-1.984 J0.
X38.22 Z-5.484 I1.984 J0.
X34.251 Z-5.546 I-1.984 J0.
X38.22 Z-5.609 I1.984 J0.
X34.251 Z-5.671 I-1.984 J0.
X38.22 Z-5.734 I1.984 J0.
X34.251 Z-5.796 I-1.984 J0.
X38.22 Z-5.858 I1.984 J0.
X34.251 Z-5.921 I-1.984 J0.
X38.22 Z-5.983 I1.984 J0.
X34.251 Z-6.045 I-1.984 J0.
X38.22 Z-6.108 I1.984 J0.
X34.251 Z-6.17 I-1.984 J0.
X38.22 Z-6.232 I1.984 J0.
X34.251 Z-6.295 I-1.984 J0.
X38.22 Z-6.357 I1.984 J0.
X34.251 Z-6.419 I-1.984 J0.
X38.22 Z-6.482 I1.984 J0.
X34.251 Z-6.544 I-1.984 J0.
X38.22 Z-6.606 I1.984 J0.
X34.251 Z-6.669 I-1.984 J0.
X38.22 Z-6.731 I1.984 J0.
X34.251 Z-6.793 I-1.984 J0.
X38.22 Z-6.856 I1.984 J0.
X34.251 Z-6.918 I-1.984 J0.
X38.22 Z-6.98 I1.984 J0.
X34.251 Z-7.043 I-1.984 J0.
X38.22 Z-7.105 I1.984 J0.
X34.251 Z-7.167 I-1.984 J0.
X38.22 Z-7.23 I1.984 J0.
X34.251 Z-7.292 I-1.984 J0.
X38.168 Y12.224 Z-7.35 I1.984 J0.
X34.303 Y11.324 I-1.933 J-0.45
X38.168 Y12.224 I1.933 J0.45
X37.931 Y11.842 I-0.309 J-0.072
G1 X37.776 Y11.806
X37.707 Y11.79 Z-7.342
X37.642 Y11.775 Z-7.319
X37.583 Y11.761 Z-7.281
X37.534 Y11.75 Z-7.23
X37.497 Y11.741 Z-7.17
X37.475 Y11.736 Z-7.103
X37.467 Y11.734 Z-7.032
G0 Z5.
X21.019 Y12.224
Z3.
G1 Z1.317 F1600.
G18 G2 X21.337 Z1. I0.318 K0.
G1 X21.495
G17 G2 X21.813 Y11.906 I0. J-0.318
X19.432 Z0.952 I-1.191 J0.
X21.813 Z0.903 I1.191 J0.
X19.432 Z0.855 I-1.191 J0.
X21.813 Z0.806 I1.191 J0.
X19.432 Z0.758 I-1.191 J0.
X21.813 Z0.709 I1.191 J0.
X19.432 Z0.661 I-1.191 J0.
X21.813 Z0.612 I1.191 J0.
X19.432 Z0.564 I-1.191 J0.
X21.813 Z0.515 I1.191 J0.
X19.432 Z0.467 I-1.191 J0.
X21.813 Z0.418 I1.191 J0.
X19.432 Z0.37 I-1.191 J0.
X21.813 Z0.321 I1.191 J0.
X19.432 Z0.273 I-1.191 J0.
X21.813 Z0.224 I1.191 J0.
X19.432 Z0.176 I-1.191 J0.
X21.813 Z0.127 I1.191 J0.
X19.432 Z0.079 I-1.191 J0.
X21.813 Z0.03 I1.191 J0.
X19.432 Z-0.018 I-1.191 J0.
X21.813 Z-0.067 I1.191 J0.
X19.432 Z-0.115 I-1.191 J0.
X21.813 Z-0.164 I1.191 J0.
X19.432 Z-0.212 I-1.191 J0.
X21.813 Z-0.261 I1.191 J0.
X19.432 Z-0.309 I-1.191 J0.
X21.813 Z-0.358 I1.191 J0.
X19.432 Z-0.406 I-1.191 J0.
X21.813 Z-0.455 I1.191 J0.
X19.432 Z-0.503 I-1.191 J0.
X21.813 Z-0.552 I1.191 J0.
X19.432 Z-0.6 I-1.191 J0.
X21.813 Z-0.649 I1.191 J0.
X19.432 Z-0.697 I-1.191 J0.
X21.813 Z-0.746 I1.191 J0.
X19.432 Z-0.794 I-1.191 J0.
X21.813 Z-0.843 I1.191 J0.
X19.432 Z-0.891 I-1.191 J0.
X21.813 Z-0.94 I1.191 J0.
X19.432 Z-0.988 I-1.191 J0.
X21.813 Z-1.037 I1.191 J0.
X19.432 Z-1.085 I-1.191 J0.
X21.813 Z-1.134 I1.191 J0.
X19.432 Z-1.182 I-1.191 J0.
X21.813 Z-1.231 I1.191 J0.
X19.432 Z-1.279 I-1.191 J0.
X21.813 Z-1.328 I1.191 J0.
X19.432 Z-1.376 I-1.191 J0.
X21.813 Z-1.425 I1.191 J0.
X19.432 Z-1.473 I-1.191 J0.
X21.813 Z-1.522 I1.191 J0.
X19.432 Z-1.57 I-1.191 J0.
X21.813 Z-1.619 I1.191 J0.
X19.432 Z-1.667 I-1.191 J0.
X21.813 Z-1.716 I1.191 J0.
X19.432 Z-1.764 I-1.191 J0.
X21.813 Z-1.813 I1.191 J0.
X19.432 Z-1.861 I-1.191 J0.
X21.813 Z-1.91 I1.191 J0.
X19.432 Z-1.958 I-1.191 J0.
X21.813 Z-2.007 I1.191 J0.
X19.432 Z-2.055 I-1.191 J0.
X21.813 Z-2.104 I1.191 J0.
X19.432 Z-2.152 I-1.191 J0.
X21.813 Z-2.2 I1.191 J0.
X19.432 Z-2.249 I-1.191 J0.
X21.813 Z-2.297 I1.191 J0.
X19.432 Z-2.346 I-1.191 J0.
X21.813 Z-2.394 I1.191 J0.
X19.432 Z-2.443 I-1.191 J0.
X21.813 Z-2.491 I1.191 J0.
X19.432 Z-2.54 I-1.191 J0.
X21.813 Z-2.588 I1.191 J0.
X19.432 Z-2.637 I-1.191 J0.
X21.813 Z-2.685 I1.191 J0.
X19.432 Z-2.734 I-1.191 J0.
X21.813 Z-2.782 I1.191 J0.
X19.432 Z-2.831 I-1.191 J0.
X21.813 Z-2.879 I1.191 J0.
X19.432 Z-2.928 I-1.191 J0.
X21.813 Z-2.976 I1.191 J0.
X19.432 Z-3.025 I-1.191 J0.
X21.813 Z-3.073 I1.191 J0.
X19.432 Z-3.122 I-1.191 J0.
X21.813 Z-3.17 I1.191 J0.
X19.432 Z-3.219 I-1.191 J0.
X21.813 Z-3.267 I1.191 J0.
X19.432 Z-3.316 I-1.191 J0.
X21.813 Z-3.364 I1.191 J0.
X19.432 Z-3.413 I-1.191 J0.
X21.813 Z-3.461 I1.191 J0.
X19.432 Z-3.51 I-1.191 J0.
X21.813 Z-3.558 I1.191 J0.
X19.432 Z-3.607 I-1.191 J0.
X21.813 Z-3.655 I1.191 J0.
X19.432 Z-3.704 I-1.191 J0.
X21.813 Z-3.752 I1.191 J0.
X19.432 Z-3.801 I-1.191 J0.
X21.813 Z-3.849 I1.191 J0.
X19.432 Z-3.898 I-1.191 J0.
X21.813 Z-3.946 I1.191 J0.
X19.432 Z-3.995 I-1.191 J0.
X21.813 Z-4.043 I1.191 J0.
X19.432 Z-4.092 I-1.191 J0.
X21.813 Z-4.14 I1.191 J0.
X19.432 Z-4.189 I-1.191 J0.
X21.813 Z-4.237 I1.191 J0.
X19.432 Z-4.286 I-1.191 J0.
X21.813 Z-4.334 I1.191 J0.
X19.432 Z-4.383 I-1.191 J0.
X21.813 Z-4.431 I1.191 J0.
X19.432 Z-4.48 I-1.191 J0.
X21.813 Z-4.528 I1.191 J0.
X19.432 Z-4.577 I-1.191 J0.
X21.813 Z-4.625 I1.191 J0.
X19.432 Z-4.674 I-1.191 J0.
X21.813 Z-4.722 I1.191 J0.
X19.432 Z-4.771 I-1.191 J0.
X21.813 Z-4.819 I1.191 J0.
X19.432 Z-4.868 I-1.191 J0.
X21.813 Z-4.916 I1.191 J0.
X19.432 Z-4.965 I-1.191 J0.
X21.813 Z-5.013 I1.191 J0.
X19.432 Z-5.062 I-1.191 J0.
X21.813 Z-5.11 I1.191 J0.
X19.432 Z-5.159 I-1.191 J0.
X21.813 Z-5.207 I1.191 J0.
X19.432 Z-5.256 I-1.191 J0.
X21.813 Z-5.304 I1.191 J0.
X19.432 Z-5.352 I-1.191 J0.
X21.813 Z-5.401 I1.191 J0.
X19.432 Z-5.449 I-1.191 J0.
X21.813 Z-5.498 I1.191 J0.
X19.432 Z-5.546 I-1.191 J0.
X21.813 Z-5.595 I1.191 J0.
X19.432 Z-5.643 I-1.191 J0.
X21.813 Z-5.692 I1.191 J0.
X19.432 Z-5.74 I-1.191 J0.
X21.813 Z-5.789 I1.191 J0.
X19.432 Z-5.837 I-1.191 J0.
X21.813 Z-5.886 I1.191 J0.
X19.432 Z-5.934 I-1.191 J0.
X21.813 Z-5.983 I1.191 J0.
X19.432 Z-6.031 I-1.191 J0.
X21.813 Z-6.08 I1.191 J0.
X19.432 Z-6.128 I-1.191 J0.
X21.813 Z-6.177 I1.191 J0.
X19.432 Z-6.225 I-1.191 J0.
X21.813 Z-6.274 I1.191 J0.
X19.432 Z-6.322 I-1.191 J0.
X21.813 Z-6.371 I1.191 J0.
X19.432 Z-6.419 I-1.191 J0.
X21.813 Z-6.468 I1.191 J0.
X19.432 Z-6.516 I-1.191 J0.
X21.813 Z-6.565 I1.191 J0.
X19.432 Z-6.613 I-1.191 J0.
X21.813 Z-6.662 I1.191 J0.
X19.432 Z-6.71 I-1.191 J0.
X21.813 Z-6.759 I1.191 J0.
X19.432 Z-6.807 I-1.191 J0.
X21.813 Z-6.856 I1.191 J0.
X19.432 Z-6.904 I-1.191 J0.
X21.813 Z-6.953 I1.191 J0.
X19.432 Z-7.001 I-1.191 J0.
X21.813 Z-7.05 I1.191 J0.
X19.432 Z-7.098 I-1.191 J0.
X21.813 Z-7.147 I1.191 J0.
X19.432 Z-7.195 I-1.191 J0.
X21.813 Z-7.244 I1.191 J0.
X19.432 Z-7.292 I-1.191 J0.
X21.813 Z-7.341 I1.191 J0.
X21.603 Y11.231 Z-7.35 I-1.191 J0.
X19.642 Y12.582 I-0.98 J0.676
X21.603 Y11.231 I0.98 J-0.676
X21.161 Y11.149 I-0.261 J0.18
G1 X21.03 Y11.239
X20.972 Y11.28 Z-7.342
X20.917 Y11.318 Z-7.319
X20.867 Y11.352 Z-7.281
X20.826 Y11.38 Z-7.23
X20.795 Y11.402 Z-7.17
X20.775 Y11.415 Z-7.103
X20.769 Y11.42 Z-7.032
G0 Z5.
X21.019 Y-11.589
Z3.
G1 Z1.317 F1600.
G18 G2 X21.337 Z1. I0.318 K0.
G1 X21.495
G17 G2 X21.813 Y-11.906 I0. J-0.318
X19.432 Z0.952 I-1.191 J0.
X21.813 Z0.903 I1.191 J0.
X19.432 Z0.855 I-1.191 J0.
X21.813 Z0.806 I1.191 J0.
X19.432 Z0.758 I-1.191 J0.
X21.813 Z0.709 I1.191 J0.
X19.432 Z0.661 I-1.191 J0.
X21.813 Z0.612 I1.191 J0.
X19.432 Z0.564 I-1.191 J0.
X21.813 Z0.515 I1.191 J0.
X19.432 Z0.467 I-1.191 J0.
X21.813 Z0.418 I1.191 J0.
X19.432 Z0.37 I-1.191 J0.
X21.813 Z0.321 I1.191 J0.
X19.432 Z0.273 I-1.191 J0.
X21.813 Z0.224 I1.191 J0.
X19.432 Z0.176 I-1.191 J0.
X21.813 Z0.127 I1.191 J0.
X19.432 Z0.079 I-1.191 J0.
X21.813 Z0.03 I1.191 J0.
X19.432 Z-0.018 I-1.191 J0.
X21.813 Z-0.067 I1.191 J0.
X19.432 Z-0.115 I-1.191 J0.
X21.813 Z-0.164 I1.191 J0.
X19.432 Z-0.212 I-1.191 J0.
X21.813 Z-0.261 I1.191 J0.
X19.432 Z-0.309 I-1.191 J0.
X21.813 Z-0.358 I1.191 J0.
X19.432 Z-0.406 I-1.191 J0.
X21.813 Z-0.455 I1.191 J0.
X19.432 Z-0.503 I-1.191 J0.
X21.813 Z-0.552 I1.191 J0.
X19.432 Z-0.6 I-1.191 J0.
X21.813 Z-0.649 I1.191 J0.
X19.432 Z-0.697 I-1.191 J0.
X21.813 Z-0.746 I1.191 J0.
X19.432 Z-0.794 I-1.191 J0.
X21.813 Z-0.843 I1.191 J0.
X19.432 Z-0.891 I-1.191 J0.
X21.813 Z-0.94 I1.191 J0.
X19.432 Z-0.988 I-1.191 J0.
X21.813 Z-1.037 I1.191 J0.
X19.432 Z-1.085 I-1.191 J0.
X21.813 Z-1.134 I1.191 J0.
X19.432 Z-1.182 I-1.191 J0.
X21.813 Z-1.231 I1.191 J0.
X19.432 Z-1.279 I-1.191 J0.
X21.813 Z-1.328 I1.191 J0.
X19.432 Z-1.376 I-1.191 J0.
X21.813 Z-1.425 I1.191 J0.
X19.432 Z-1.473 I-1.191 J0.
X21.813 Z-1.522 I1.191 J0.
X19.432 Z-1.57 I-1.191 J0.
X21.813 Z-1.619 I1.191 J0.
X19.432 Z-1.667 I-1.191 J0.
X21.813 Z-1.716 I1.191 J0.
X19.432 Z-1.764 I-1.191 J0.
X21.813 Z-1.813 I1.191 J0.
X19.432 Z-1.861 I-1.191 J0.
X21.813 Z-1.91 I1.191 J0.
X19.432 Z-1.958 I-1.191 J0.
X21.813 Z-2.007 I1.191 J0.
X19.432 Z-2.055 I-1.191 J0.
X21.813 Z-2.104 I1.191 J0.
X19.432 Z-2.152 I-1.191 J0.
X21.813 Z-2.2 I1.191 J0.
X19.432 Z-2.249 I-1.191 J0.
X21.813 Z-2.297 I1.191 J0.
X19.432 Z-2.346 I-1.191 J0.
X21.813 Z-2.394 I1.191 J0.
X19.432 Z-2.443 I-1.191 J0.
X21.813 Z-2.491 I1.191 J0.
X19.432 Z-2.54 I-1.191 J0.
X21.813 Z-2.588 I1.191 J0.
X19.432 Z-2.637 I-1.191 J0.
X21.813 Z-2.685 I1.191 J0.
X19.432 Z-2.734 I-1.191 J0.
X21.813 Z-2.782 I1.191 J0.
X19.432 Z-2.831 I-1.191 J0.
X21.813 Z-2.879 I1.191 J0.
X19.432 Z-2.928 I-1.191 J0.
X21.813 Z-2.976 I1.191 J0.
X19.432 Z-3.025 I-1.191 J0.
X21.813 Z-3.073 I1.191 J0.
X19.432 Z-3.122 I-1.191 J0.
X21.813 Z-3.17 I1.191 J0.
X19.432 Z-3.219 I-1.191 J0.
X21.813 Z-3.267 I1.191 J0.
X19.432 Z-3.316 I-1.191 J0.
X21.813 Z-3.364 I1.191 J0.
X19.432 Z-3.413 I-1.191 J0.
X21.813 Z-3.461 I1.191 J0.
X19.432 Z-3.51 I-1.191 J0.
X21.813 Z-3.558 I1.191 J0.
X19.432 Z-3.607 I-1.191 J0.
X21.813 Z-3.655 I1.191 J0.
X19.432 Z-3.704 I-1.191 J0.
X21.813 Z-3.752 I1.191 J0.
X19.432 Z-3.801 I-1.191 J0.
X21.813 Z-3.849 I1.191 J0.
X19.432 Z-3.898 I-1.191 J0.
X21.813 Z-3.946 I1.191 J0.
X19.432 Z-3.995 I-1.191 J0.
X21.813 Z-4.043 I1.191 J0.
X19.432 Z-4.092 I-1.191 J0.
X21.813 Z-4.14 I1.191 J0.
X19.432 Z-4.189 I-1.191 J0.
X21.813 Z-4.237 I1.191 J0.
X19.432 Z-4.286 I-1.191 J0.
X21.813 Z-4.334 I1.191 J0.
X19.432 Z-4.383 I-1.191 J0.
X21.813 Z-4.431 I1.191 J0.
X19.432 Z-4.48 I-1.191 J0.
X21.813 Z-4.528 I1.191 J0.
X19.432 Z-4.577 I-1.191 J0.
X21.813 Z-4.625 I1.191 J0.
X19.432 Z-4.674 I-1.191 J0.
X21.813 Z-4.722 I1.191 J0.
X19.432 Z-4.771 I-1.191 J0.
X21.813 Z-4.819 I1.191 J0.
X19.432 Z-4.868 I-1.191 J0.
X21.813 Z-4.916 I1.191 J0.
X19.432 Z-4.965 I-1.191 J0.
X21.813 Z-5.013 I1.191 J0.
X19.432 Z-5.062 I-1.191 J0.
X21.813 Z-5.11 I1.191 J0.
X19.432 Z-5.159 I-1.191 J0.
X21.813 Z-5.207 I1.191 J0.
X19.432 Z-5.256 I-1.191 J0.
X21.813 Z-5.304 I1.191 J0.
X19.432 Z-5.352 I-1.191 J0.
X21.813 Z-5.401 I1.191 J0.
X19.432 Z-5.449 I-1.191 J0.
X21.813 Z-5.498 I1.191 J0.
X19.432 Z-5.546 I-1.191 J0.
X21.813 Z-5.595 I1.191 J0.
X19.432 Z-5.643 I-1.191 J0.
X21.813 Z-5.692 I1.191 J0.
X19.432 Z-5.74 I-1.191 J0.
X21.813 Z-5.789 I1.191 J0.
X19.432 Z-5.837 I-1.191 J0.
X21.813 Z-5.886 I1.191 J0.
X19.432 Z-5.934 I-1.191 J0.
X21.813 Z-5.983 I1.191 J0.
X19.432 Z-6.031 I-1.191 J0.
X21.813 Z-6.08 I1.191 J0.
X19.432 Z-6.128 I-1.191 J0.
X21.813 Z-6.177 I1.191 J0.
X19.432 Z-6.225 I-1.191 J0.
X21.813 Z-6.274 I1.191 J0.
X19.432 Z-6.322 I-1.191 J0.
X21.813 Z-6.371 I1.191 J0.
X19.432 Z-6.419 I-1.191 J0.
X21.813 Z-6.468 I1.191 J0.
X19.432 Z-6.516 I-1.191 J0.
X21.813 Z-6.565 I1.191 J0.
X19.432 Z-6.613 I-1.191 J0.
X21.813 Z-6.662 I1.191 J0.
X19.432 Z-6.71 I-1.191 J0.
X21.813 Z-6.759 I1.191 J0.
X19.432 Z-6.807 I-1.191 J0.
X21.813 Z-6.856 I1.191 J0.
X19.432 Z-6.904 I-1.191 J0.
X21.813 Z-6.953 I1.191 J0.
X19.432 Z-7.001 I-1.191 J0.
X21.813 Z-7.05 I1.191 J0.
X19.432 Z-7.098 I-1.191 J0.
X21.813 Z-7.147 I1.191 J0.
X19.432 Z-7.195 I-1.191 J0.
X21.813 Z-7.244 I1.191 J0.
X19.432 Z-7.292 I-1.191 J0.
X21.813 Z-7.341 I1.191 J0.
X21.603 Y-12.582 Z-7.35 I-1.191 J0.
X19.642 Y-11.231 I-0.98 J0.676
X21.603 Y-12.582 I0.98 J-0.676
X21.161 Y-12.663 I-0.261 J0.18
G1 X21.03 Y-12.573
X20.972 Y-12.533 Z-7.342
X20.917 Y-12.495 Z-7.319
X20.867 Y-12.461 Z-7.281
X20.826 Y-12.432 Z-7.23
X20.795 Y-12.411 Z-7.17
X20.775 Y-12.397 Z-7.103
X20.769 Y-12.393 Z-7.032
G0 Z5.
X23.585 Y-30.506
Z3.
G1 Z1.317 F1600.
G18 G2 X23.903 Z1. I0.317 K0.
G1 X24.061
G17 G2 X24.379 Y-30.824 I0. J-0.317
X20.41 Z0.938 I-1.984 J0.
X24.379 Z0.875 I1.984 J0.
X20.41 Z0.813 I-1.984 J0.
X24.379 Z0.751 I1.984 J0.
X20.41 Z0.688 I-1.984 J0.
X24.379 Z0.626 I1.984 J0.
X20.41 Z0.564 I-1.984 J0.
X24.379 Z0.501 I1.984 J0.
X20.41 Z0.439 I-1.984 J0.
X24.379 Z0.377 I1.984 J0.
X20.41 Z0.314 I-1.984 J0.
X24.379 Z0.252 I1.984 J0.
X20.41 Z0.189 I-1.984 J0.
X24.379 Z0.127 I1.984 J0.
X20.41 Z0.065 I-1.984 J0.
X24.379 Z0.002 I1.984 J0.
X20.41 Z-0.06 I-1.984 J0.
X24.379 Z-0.122 I1.984 J0.
X20.41 Z-0.185 I-1.984 J0.
X24.379 Z-0.247 I1.984 J0.
X20.41 Z-0.309 I-1.984 J0.
X24.379 Z-0.372 I1.984 J0.
X20.41 Z-0.434 I-1.984 J0.
X24.379 Z-0.496 I1.984 J0.
X20.41 Z-0.559 I-1.984 J0.
X24.379 Z-0.621 I1.984 J0.
X20.41 Z-0.683 I-1.984 J0.
X24.379 Z-0.746 I1.984 J0.
X20.41 Z-0.808 I-1.984 J0.
X24.379 Z-0.87 I1.984 J0.
X20.41 Z-0.933 I-1.984 J0.
X24.379 Z-0.995 I1.984 J0.
X20.41 Z-1.057 I-1.984 J0.
X24.379 Z-1.12 I1.984 J0.
X20.41 Z-1.182 I-1.984 J0.
X24.379 Z-1.245 I1.984 J0.
X20.41 Z-1.307 I-1.984 J0.
X24.379 Z-1.369 I1.984 J0.
X20.41 Z-1.432 I-1.984 J0.
X24.379 Z-1.494 I1.984 J0.
X20.41 Z-1.556 I-1.984 J0.
X24.379 Z-1.619 I1.984 J0.
X20.41 Z-1.681 I-1.984 J0.
X24.379 Z-1.743 I1.984 J0.
X20.41 Z-1.806 I-1.984 J0.
X24.379 Z-1.868 I1.984 J0.
X20.41 Z-1.93 I-1.984 J0.
X24.379 Z-1.993 I1.984 J0.
X20.41 Z-2.055 I-1.984 J0.
X24.379 Z-2.117 I1.984 J0.
X20.41 Z-2.18 I-1.984 J0.
X24.379 Z-2.242 I1.984 J0.
X20.41 Z-2.304 I-1.984 J0.
X24.379 Z-2.367 I1.984 J0.
X20.41 Z-2.429 I-1.984 J0.
X24.379 Z-2.491 I1.984 J0.
X20.41 Z-2.554 I-1.984 J0.
X24.379 Z-2.616 I1.984 J0.
X20.41 Z-2.678 I-1.984 J0.
X24.379 Z-2.741 I1.984 J0.
X20.41 Z-2.803 I-1.984 J0.
X24.379 Z-2.866 I1.984 J0.
X20.41 Z-2.928 I-1.984 J0.
X24.379 Z-2.99 I1.984 J0.
X20.41 Z-3.053 I-1.984 J0.
X24.379 Z-3.115 I1.984 J0.
X20.41 Z-3.177 I-1.984 J0.
X24.379 Z-3.24 I1.984 J0.
X20.41 Z-3.302 I-1.984 J0.
X24.379 Z-3.364 I1.984 J0.
X20.41 Z-3.427 I-1.984 J0.
X24.379 Z-3.489 I1.984 J0.
X20.41 Z-3.551 I-1.984 J0.
X24.379 Z-3.614 I1.984 J0.
X20.41 Z-3.676 I-1.984 J0.
X24.379 Z-3.738 I1.984 J0.
X20.41 Z-3.801 I-1.984 J0.
X24.379 Z-3.863 I1.984 J0.
X20.41 Z-3.925 I-1.984 J0.
X24.379 Z-3.988 I1.984 J0.
X20.41 Z-4.05 I-1.984 J0.
X24.379 Z-4.112 I1.984 J0.
X20.41 Z-4.175 I-1.984 J0.
X24.379 Z-4.237 I1.984 J0.
X20.41 Z-4.3 I-1.984 J0.
X24.379 Z-4.362 I1.984 J0.
X20.41 Z-4.424 I-1.984 J0.
X24.379 Z-4.487 I1.984 J0.
X20.41 Z-4.549 I-1.984 J0.
X24.379 Z-4.611 I1.984 J0.
X20.41 Z-4.674 I-1.984 J0.
X24.379 Z-4.736 I1.984 J0.
X20.41 Z-4.798 I-1.984 J0.
X24.379 Z-4.861 I1.984 J0.
X20.41 Z-4.923 I-1.984 J0.
X24.379 Z-4.985 I1.984 J0.
X20.41 Z-5.048 I-1.984 J0.
X24.379 Z-5.11 I1.984 J0.
X20.41 Z-5.172 I-1.984 J0.
X24.379 Z-5.235 I1.984 J0.
X20.41 Z-5.297 I-1.984 J0.
X24.379 Z-5.359 I1.984 J0.
X20.41 Z-5.422 I-1.984 J0.
X24.379 Z-5.484 I1.984 J0.
X20.41 Z-5.546 I-1.984 J0.
X24.379 Z-5.609 I1.984 J0.
X20.41 Z-5.671 I-1.984 J0.
X24.379 Z-5.734 I1.984 J0.
X20.41 Z-5.796 I-1.984 J0.
X24.379 Z-5.858 I1.984 J0.
X20.41 Z-5.921 I-1.984 J0.
X24.379 Z-5.983 I1.984 J0.
X20.41 Z-6.045 I-1.984 J0.
X24.379 Z-6.108 I1.984 J0.
X20.41 Z-6.17 I-1.984 J0.
X24.379 Z-6.232 I1.984 J0.
X20.41 Z-6.295 I-1.984 J0.
X24.379 Z-6.357 I1.984 J0.
X20.41 Z-6.419 I-1.984 J0.
X24.379 Z-6.482 I1.984 J0.
X20.41 Z-6.544 I-1.984 J0.
X24.379 Z-6.606 I1.984 J0.
X20.41 Z-6.669 I-1.984 J0.
X24.379 Z-6.731 I1.984 J0.
X20.41 Z-6.793 I-1.984 J0.
X24.379 Z-6.856 I1.984 J0.
X20.41 Z-6.918 I-1.984 J0.
X24.379 Z-6.98 I1.984 J0.
X20.41 Z-7.043 I-1.984 J0.
X24.379 Z-7.105 I1.984 J0.
X20.41 Z-7.167 I-1.984 J0.
X24.379 Z-7.23 I1.984 J0.
X20.41 Z-7.292 I-1.984 J0.
X24.327 Y-30.374 Z-7.35 I1.984 J0.
X20.462 Y-31.274 I-1.933 J-0.45
X24.327 Y-30.374 I1.933 J0.45
X24.09 Y-30.755 I-0.309 J-0.072
G1 X23.935 Y-30.791
X23.867 Y-30.807 Z-7.342
X23.801 Y-30.822 Z-7.319
X23.743 Y-30.836 Z-7.281
X23.694 Y-30.847 Z-7.23
X23.657 Y-30.856 Z-7.17
X23.634 Y-30.861 Z-7.103
X23.626 Y-30.863 Z-7.032
G0 Z5.
X0.397 Y-23.495
Z3.
G1 Z1.317 F1600.
G18 G2 X0.714 Z1. I0.318 K0.
G1 X0.873
G17 G2 X1.191 Y-23.813 I0. J-0.317
X-1.191 Z0.952 I-1.191 J0.
X1.191 Z0.903 I1.191 J0.
X-1.191 Z0.855 I-1.191 J0.
X1.191 Y-23.812 Z0.806 I1.191 J0.
X-1.191 Y-23.813 Z0.758 I-1.191 J0.
X1.191 Z0.709 I1.191 J0.
X-1.191 Z0.661 I-1.191 J0.
X1.191 Z0.612 I1.191 J0.
X-1.191 Z0.564 I-1.191 J0.
X1.191 Z0.515 I1.191 J0.
X-1.191 Y-23.812 Z0.467 I-1.191 J0.
X1.191 Y-23.813 Z0.418 I1.191 J0.
X-1.191 Z0.37 I-1.191 J0.
X1.191 Y-23.812 Z0.321 I1.191 J0.
X-1.191 Y-23.813 Z0.273 I-1.191 J0.
X1.191 Y-23.812 Z0.224 I1.191 J0.
X-1.191 Y-23.813 Z0.176 I-1.191 J0.
X1.191 Y-23.812 Z0.127 I1.191 J0.
X-1.191 Y-23.813 Z0.079 I-1.191 J0.
X1.191 Y-23.812 Z0.03 I1.191 J0.
X-1.191 Y-23.813 Z-0.018 I-1.191 J0.
X1.191 Y-23.812 Z-0.067 I1.191 J0.
X-1.191 Y-23.813 Z-0.115 I-1.191 J0.
X1.191 Y-23.812 Z-0.164 I1.191 J0.
X-1.191 Y-23.813 Z-0.212 I-1.191 J0.
X1.191 Y-23.812 Z-0.261 I1.191 J0.
X-1.191 Y-23.813 Z-0.309 I-1.191 J0.
X1.191 Y-23.812 Z-0.358 I1.191 J0.
X-1.191 Y-23.813 Z-0.406 I-1.191 J0.
X1.191 Y-23.812 Z-0.455 I1.191 J0.
X-1.191 Y-23.813 Z-0.503 I-1.191 J0.
X1.191 Y-23.812 Z-0.552 I1.191 J0.
X-1.191 Y-23.813 Z-0.6 I-1.191 J0.
X1.191 Y-23.812 Z-0.649 I1.191 J0.
X-1.191 Y-23.813 Z-0.697 I-1.191 J0.
X1.191 Y-23.812 Z-0.746 I1.191 J0.
X-1.191 Y-23.813 Z-0.794 I-1.191 J0.
X1.191 Y-23.812 Z-0.843 I1.191 J0.
X-1.191 Y-23.813 Z-0.891 I-1.191 J0.
X1.191 Y-23.812 Z-0.94 I1.191 J0.
X-1.191 Y-23.813 Z-0.988 I-1.191 J0.
X1.191 Y-23.812 Z-1.037 I1.191 J0.
X-1.191 Y-23.813 Z-1.085 I-1.191 J0.
X1.191 Y-23.812 Z-1.134 I1.191 J0.
X-1.191 Y-23.813 Z-1.182 I-1.191 J0.
X1.191 Y-23.812 Z-1.231 I1.191 J0.
X-1.191 Y-23.813 Z-1.279 I-1.191 J0.
X1.191 Y-23.812 Z-1.328 I1.191 J0.
X-1.191 Y-23.813 Z-1.376 I-1.191 J0.
X1.191 Y-23.812 Z-1.425 I1.191 J0.
X-1.191 Y-23.813 Z-1.473 I-1.191 J0.
X1.191 Y-23.812 Z-1.522 I1.191 J0.
X-1.191 Y-23.813 Z-1.57 I-1.191 J0.
X1.191 Y-23.812 Z-1.619 I1.191 J0.
X-1.191 Y-23.813 Z-1.667 I-1.191 J0.
X1.191 Y-23.812 Z-1.716 I1.191 J0.
X-1.191 Y-23.813 Z-1.764 I-1.191 J0.
X1.191 Y-23.812 Z-1.813 I1.191 J0.
X-1.191 Y-23.813 Z-1.861 I-1.191 J0.
X1.191 Y-23.812 Z-1.91 I1.191 J0.
X-1.191 Y-23.813 Z-1.958 I-1.191 J0.
X1.191 Y-23.812 Z-2.007 I1.191 J0.
X-1.191 Y-23.813 Z-2.055 I-1.191 J0.
X1.191 Y-23.812 Z-2.104 I1.191 J0.
X-1.191 Y-23.813 Z-2.152 I-1.191 J0.
X1.191 Y-23.812 Z-2.2 I1.191 J0.
X-1.191 Y-23.813 Z-2.249 I-1.191 J0.
X1.191 Y-23.812 Z-2.297 I1.191 J0.
X-1.191 Y-23.813 Z-2.346 I-1.191 J0.
X1.191 Y-23.812 Z-2.394 I1.191 J0.
X-1.191 Y-23.813 Z-2.443 I-1.191 J0.
X1.191 Y-23.812 Z-2.491 I1.191 J0.
X-1.191 Y-23.813 Z-2.54 I-1.191 J0.
X1.191 Y-23.812 Z-2.588 I1.191 J0.
X-1.191 Y-23.813 Z-2.637 I-1.191 J0.
X1.191 Y-23.812 Z-2.685 I1.191 J0.
X-1.191 Y-23.813 Z-2.734 I-1.191 J0.
X1.191 Y-23.812 Z-2.782 I1.191 J0.
X-1.191 Y-23.813 Z-2.831 I-1.191 J0.
X1.191 Y-23.812 Z-2.879 I1.191 J0.
X-1.191 Y-23.813 Z-2.928 I-1.191 J0.
X1.191 Y-23.812 Z-2.976 I1.191 J0.
X-1.191 Y-23.813 Z-3.025 I-1.191 J0.
X1.191 Y-23.812 Z-3.073 I1.191 J0.
X-1.191 Y-23.813 Z-3.122 I-1.191 J0.
X1.191 Y-23.812 Z-3.17 I1.191 J0.
X-1.191 Y-23.813 Z-3.219 I-1.191 J0.
X1.191 Y-23.812 Z-3.267 I1.191 J0.
X-1.191 Y-23.813 Z-3.316 I-1.191 J0.
X1.191 Y-23.812 Z-3.364 I1.191 J0.
X-1.191 Y-23.813 Z-3.413 I-1.191 J0.
X1.191 Y-23.812 Z-3.461 I1.191 J0.
X-1.191 Y-23.813 Z-3.51 I-1.191 J0.
X1.191 Y-23.812 Z-3.558 I1.191 J0.
X-1.191 Y-23.813 Z-3.607 I-1.191 J0.
X1.191 Z-3.655 I1.191 J0.
X-1.191 Y-23.812 Z-3.704 I-1.191 J0.
X1.191 Y-23.813 Z-3.752 I1.191 J0.
X-1.191 Y-23.812 Z-3.801 I-1.191 J0.
X1.191 Y-23.813 Z-3.849 I1.191 J0.
X-1.191 Y-23.812 Z-3.898 I-1.191 J0.
X1.191 Y-23.813 Z-3.946 I1.191 J0.
X-1.191 Y-23.812 Z-3.995 I-1.191 J0.
X1.191 Y-23.813 Z-4.043 I1.191 J0.
X-1.191 Y-23.812 Z-4.092 I-1.191 J0.
X1.191 Y-23.813 Z-4.14 I1.191 J0.
X-1.191 Y-23.812 Z-4.189 I-1.191 J0.
X1.191 Y-23.813 Z-4.237 I1.191 J0.
X-1.191 Y-23.812 Z-4.286 I-1.191 J0.
X1.191 Y-23.813 Z-4.334 I1.191 J0.
X-1.191 Y-23.812 Z-4.383 I-1.191 J0.
X1.191 Y-23.813 Z-4.431 I1.191 J0.
X-1.191 Y-23.812 Z-4.48 I-1.191 J0.
X1.191 Y-23.813 Z-4.528 I1.191 J0.
X-1.191 Y-23.812 Z-4.577 I-1.191 J0.
X1.191 Y-23.813 Z-4.625 I1.191 J0.
X-1.191 Y-23.812 Z-4.674 I-1.191 J0.
X1.191 Y-23.813 Z-4.722 I1.191 J0.
X-1.191 Y-23.812 Z-4.771 I-1.191 J0.
X1.191 Y-23.813 Z-4.819 I1.191 J0.
X-1.191 Y-23.812 Z-4.868 I-1.191 J0.
X1.191 Y-23.813 Z-4.916 I1.191 J0.
X-1.191 Y-23.812 Z-4.965 I-1.191 J0.
X1.191 Y-23.813 Z-5.013 I1.191 J0.
X-1.191 Y-23.812 Z-5.062 I-1.191 J0.
X1.191 Y-23.813 Z-5.11 I1.191 J0.
X-1.191 Y-23.812 Z-5.159 I-1.191 J0.
X1.191 Y-23.813 Z-5.207 I1.191 J0.
X-1.191 Y-23.812 Z-5.256 I-1.191 J0.
X1.191 Y-23.813 Z-5.304 I1.191 J0.
X-1.191 Y-23.812 Z-5.352 I-1.191 J0.
X1.191 Y-23.813 Z-5.401 I1.191 J0.
X-1.191 Y-23.812 Z-5.449 I-1.191 J0.
X1.191 Y-23.813 Z-5.498 I1.191 J0.
X-1.191 Y-23.812 Z-5.546 I-1.191 J0.
X1.191 Y-23.813 Z-5.595 I1.191 J0.
X-1.191 Y-23.812 Z-5.643 I-1.191 J0.
X1.191 Y-23.813 Z-5.692 I1.191 J0.
X-1.191 Y-23.812 Z-5.74 I-1.191 J0.
X1.191 Y-23.813 Z-5.789 I1.191 J0.
X-1.191 Y-23.812 Z-5.837 I-1.191 J0.
X1.191 Y-23.813 Z-5.886 I1.191 J0.
X-1.191 Y-23.812 Z-5.934 I-1.191 J0.
X1.191 Y-23.813 Z-5.983 I1.191 J0.
X-1.191 Y-23.812 Z-6.031 I-1.191 J0.
X1.191 Y-23.813 Z-6.08 I1.191 J0.
X-1.191 Y-23.812 Z-6.128 I-1.191 J0.
X1.191 Y-23.813 Z-6.177 I1.191 J0.
X-1.191 Y-23.812 Z-6.225 I-1.191 J0.
X1.191 Y-23.813 Z-6.274 I1.191 J0.
X-1.191 Y-23.812 Z-6.322 I-1.191 J0.
X1.191 Y-23.813 Z-6.371 I1.191 J0.
X-1.191 Y-23.812 Z-6.419 I-1.191 J0.
X1.191 Y-23.813 Z-6.468 I1.191 J0.
X-1.191 Y-23.812 Z-6.516 I-1.191 J0.
X1.191 Y-23.813 Z-6.565 I1.191 J0.
X-1.191 Y-23.812 Z-6.613 I-1.191 J0.
X1.191 Y-23.813 Z-6.662 I1.191 J0.
X-1.191 Y-23.812 Z-6.71 I-1.191 J0.
X1.191 Y-23.813 Z-6.759 I1.191 J0.
X-1.191 Y-23.812 Z-6.807 I-1.191 J0.
X1.191 Y-23.813 Z-6.856 I1.191 J0.
X-1.191 Y-23.812 Z-6.904 I-1.191 J0.
X1.191 Y-23.813 Z-6.953 I1.191 J0.
X-1.191 Y-23.812 Z-7.001 I-1.191 J0.
X1.191 Y-23.813 Z-7.05 I1.191 J0.
X-1.191 Y-23.812 Z-7.098 I-1.191 J0.
X1.191 Y-23.813 Z-7.147 I1.191 J0.
X-1.191 Y-23.812 Z-7.195 I-1.191 J0.
X1.191 Y-23.813 Z-7.244 I1.191 J0.
X-1.191 Y-23.812 Z-7.292 I-1.191 J0.
X1.191 Y-23.813 Z-7.341 I1.191 J0.
X0.98 Y-24.488 Z-7.35 I-1.191 J0.
X-0.98 Y-23.137 I-0.98 J0.676
X0.98 Y-24.488 I0.98 J-0.676
X0.539 Y-24.569 I-0.261 J0.18
G1 X0.408 Y-24.479
X0.35 Y-24.439 Z-7.342
X0.295 Y-24.401 Z-7.319
X0.245 Y-24.367 Z-7.281
X0.204 Y-24.338 Z-7.23
X0.172 Y-24.317 Z-7.17
X0.153 Y-24.304 Z-7.103
X0.147 Y-24.299 Z-7.032
G0 Z5.
X-21.204 Y-30.506
Z3.
G1 Z1.317 F1600.
G18 G2 X-20.886 Z1. I0.317 K0.
G1 X-20.728
G17 G2 X-20.41 Y-30.824 I0. J-0.317
X-24.379 Z0.938 I-1.984 J0.
X-20.41 Z0.875 I1.984 J0.
X-24.379 Z0.813 I-1.984 J0.
X-20.41 Z0.751 I1.984 J0.
X-24.379 Z0.688 I-1.984 J0.
X-20.41 Z0.626 I1.984 J0.
X-24.379 Z0.564 I-1.984 J0.
X-20.41 Z0.501 I1.984 J0.
X-24.379 Z0.439 I-1.984 J0.
X-20.41 Z0.377 I1.984 J0.
X-24.379 Z0.314 I-1.984 J0.
X-20.41 Z0.252 I1.984 J0.
X-24.379 Z0.189 I-1.984 J0.
X-20.41 Z0.127 I1.984 J0.
X-24.379 Z0.065 I-1.984 J0.
X-20.41 Z0.002 I1.984 J0.
X-24.379 Z-0.06 I-1.984 J0.
X-20.41 Z-0.122 I1.984 J0.
X-24.379 Z-0.185 I-1.984 J0.
X-20.41 Z-0.247 I1.984 J0.
X-24.379 Z-0.309 I-1.984 J0.
X-20.41 Z-0.372 I1.984 J0.
X-24.379 Z-0.434 I-1.984 J0.
X-20.41 Z-0.496 I1.984 J0.
X-24.379 Z-0.559 I-1.984 J0.
X-20.41 Z-0.621 I1.984 J0.
X-24.379 Z-0.683 I-1.984 J0.
X-20.41 Z-0.746 I1.984 J0.
X-24.379 Z-0.808 I-1.984 J0.
X-20.41 Z-0.87 I1.984 J0.
X-24.379 Z-0.933 I-1.984 J0.
X-20.41 Z-0.995 I1.984 J0.
X-24.379 Z-1.057 I-1.984 J0.
X-20.41 Z-1.12 I1.984 J0.
X-24.379 Z-1.182 I-1.984 J0.
X-20.41 Z-1.245 I1.984 J0.
X-24.379 Z-1.307 I-1.984 J0.
X-20.41 Z-1.369 I1.984 J0.
X-24.379 Z-1.432 I-1.984 J0.
X-20.41 Z-1.494 I1.984 J0.
X-24.379 Z-1.556 I-1.984 J0.
X-20.41 Z-1.619 I1.984 J0.
X-24.379 Z-1.681 I-1.984 J0.
X-20.41 Z-1.743 I1.984 J0.
X-24.379 Z-1.806 I-1.984 J0.
X-20.41 Z-1.868 I1.984 J0.
X-24.379 Z-1.93 I-1.984 J0.
X-20.41 Z-1.993 I1.984 J0.
X-24.379 Z-2.055 I-1.984 J0.
X-20.41 Z-2.117 I1.984 J0.
X-24.379 Z-2.18 I-1.984 J0.
X-20.41 Z-2.242 I1.984 J0.
X-24.379 Z-2.304 I-1.984 J0.
X-20.41 Z-2.367 I1.984 J0.
X-24.379 Z-2.429 I-1.984 J0.
X-20.41 Z-2.491 I1.984 J0.
X-24.379 Z-2.554 I-1.984 J0.
X-20.41 Z-2.616 I1.984 J0.
X-24.379 Z-2.678 I-1.984 J0.
X-20.41 Z-2.741 I1.984 J0.
X-24.379 Z-2.803 I-1.984 J0.
X-20.41 Z-2.866 I1.984 J0.
X-24.379 Z-2.928 I-1.984 J0.
X-20.41 Z-2.99 I1.984 J0.
X-24.379 Z-3.053 I-1.984 J0.
X-20.41 Z-3.115 I1.984 J0.
X-24.379 Z-3.177 I-1.984 J0.
X-20.41 Z-3.24 I1.984 J0.
X-24.379 Z-3.302 I-1.984 J0.
X-20.41 Z-3.364 I1.984 J0.
X-24.379 Z-3.427 I-1.984 J0.
X-20.41 Z-3.489 I1.984 J0.
X-24.379 Z-3.551 I-1.984 J0.
X-20.41 Z-3.614 I1.984 J0.
X-24.379 Z-3.676 I-1.984 J0.
X-20.41 Z-3.738 I1.984 J0.
X-24.379 Z-3.801 I-1.984 J0.
X-20.41 Z-3.863 I1.984 J0.
X-24.379 Z-3.925 I-1.984 J0.
X-20.41 Z-3.988 I1.984 J0.
X-24.379 Z-4.05 I-1.984 J0.
X-20.41 Z-4.112 I1.984 J0.
X-24.379 Z-4.175 I-1.984 J0.
X-20.41 Z-4.237 I1.984 J0.
X-24.379 Z-4.3 I-1.984 J0.
X-20.41 Z-4.362 I1.984 J0.
X-24.379 Z-4.424 I-1.984 J0.
X-20.41 Z-4.487 I1.984 J0.
X-24.379 Z-4.549 I-1.984 J0.
X-20.41 Z-4.611 I1.984 J0.
X-24.379 Z-4.674 I-1.984 J0.
X-20.41 Z-4.736 I1.984 J0.
X-24.379 Z-4.798 I-1.984 J0.
X-20.41 Z-4.861 I1.984 J0.
X-24.379 Z-4.923 I-1.984 J0.
X-20.41 Z-4.985 I1.984 J0.
X-24.379 Z-5.048 I-1.984 J0.
X-20.41 Z-5.11 I1.984 J0.
X-24.379 Z-5.172 I-1.984 J0.
X-20.41 Z-5.235 I1.984 J0.
X-24.379 Z-5.297 I-1.984 J0.
X-20.41 Z-5.359 I1.984 J0.
X-24.379 Z-5.422 I-1.984 J0.
X-20.41 Z-5.484 I1.984 J0.
X-24.379 Z-5.546 I-1.984 J0.
X-20.41 Z-5.609 I1.984 J0.
X-24.379 Z-5.671 I-1.984 J0.
X-20.41 Z-5.734 I1.984 J0.
X-24.379 Z-5.796 I-1.984 J0.
X-20.41 Z-5.858 I1.984 J0.
X-24.379 Z-5.921 I-1.984 J0.
X-20.41 Z-5.983 I1.984 J0.
X-24.379 Z-6.045 I-1.984 J0.
X-20.41 Z-6.108 I1.984 J0.
X-24.379 Z-6.17 I-1.984 J0.
X-20.41 Z-6.232 I1.984 J0.
X-24.379 Z-6.295 I-1.984 J0.
X-20.41 Z-6.357 I1.984 J0.
X-24.379 Z-6.419 I-1.984 J0.
X-20.41 Z-6.482 I1.984 J0.
X-24.379 Z-6.544 I-1.984 J0.
X-20.41 Z-6.606 I1.984 J0.
X-24.379 Z-6.669 I-1.984 J0.
X-20.41 Z-6.731 I1.984 J0.
X-24.379 Z-6.793 I-1.984 J0.
X-20.41 Z-6.856 I1.984 J0.
X-24.379 Z-6.918 I-1.984 J0.
X-20.41 Z-6.98 I1.984 J0.
X-24.379 Z-7.043 I-1.984 J0.
X-20.41 Z-7.105 I1.984 J0.
X-24.379 Z-7.167 I-1.984 J0.
X-20.41 Z-7.23 I1.984 J0.
X-24.379 Z-7.292 I-1.984 J0.
X-20.462 Y-30.374 Z-7.35 I1.984 J0.
X-24.327 Y-31.274 I-1.933 J-0.45
X-20.462 Y-30.374 I1.933 J0.45
X-20.699 Y-30.755 I-0.309 J-0.072
G1 X-20.854 Y-30.791
X-20.923 Y-30.807 Z-7.342
X-20.988 Y-30.822 Z-7.319
X-21.047 Y-30.836 Z-7.281
X-21.096 Y-30.847 Z-7.23
X-21.132 Y-30.856 Z-7.17
X-21.155 Y-30.861 Z-7.103
X-21.163 Y-30.863 Z-7.032
G0 Z5.
X-20.225 Y-11.589
Z3.
G1 Z1.317 F1600.
G18 G2 X-19.908 Z1. I0.318 K0.
G1 X-19.749
G17 G2 X-19.432 Y-11.906 I0. J-0.318
X-21.813 Z0.952 I-1.191 J0.
X-19.432 Z0.903 I1.191 J0.
X-21.813 Z0.855 I-1.191 J0.
X-19.432 Z0.806 I1.191 J0.
X-21.813 Z0.758 I-1.191 J0.
X-19.432 Z0.709 I1.191 J0.
X-21.813 Z0.661 I-1.191 J0.
X-19.432 Z0.612 I1.191 J0.
X-21.813 Z0.564 I-1.191 J0.
X-19.432 Z0.515 I1.191 J0.
X-21.813 Z0.467 I-1.191 J0.
X-19.432 Z0.418 I1.191 J0.
X-21.813 Z0.37 I-1.191 J0.
X-19.432 Z0.321 I1.191 J0.
X-21.813 Z0.273 I-1.191 J0.
X-19.432 Z0.224 I1.191 J0.
X-21.813 Z0.176 I-1.191 J0.
X-19.432 Z0.127 I1.191 J0.
X-21.813 Z0.079 I-1.191 J0.
X-19.432 Z0.03 I1.191 J0.
X-21.813 Z-0.018 I-1.191 J0.
X-19.432 Z-0.067 I1.191 J0.
X-21.813 Z-0.115 I-1.191 J0.
X-19.432 Z-0.164 I1.191 J0.
X-21.813 Z-0.212 I-1.191 J0.
X-19.432 Z-0.261 I1.191 J0.
X-21.813 Z-0.309 I-1.191 J0.
X-19.432 Z-0.358 I1.191 J0.
X-21.813 Z-0.406 I-1.191 J0.
X-19.432 Z-0.455 I1.191 J0.
X-21.813 Z-0.503 I-1.191 J0.
X-19.432 Z-0.552 I1.191 J0.
X-21.813 Z-0.6 I-1.191 J0.
X-19.432 Z-0.649 I1.191 J0.
X-21.813 Z-0.697 I-1.191 J0.
X-19.432 Z-0.746 I1.191 J0.
X-21.813 Z-0.794 I-1.191 J0.
X-19.432 Z-0.843 I1.191 J0.
X-21.813 Z-0.891 I-1.191 J0.
X-19.432 Z-0.94 I1.191 J0.
X-21.813 Z-0.988 I-1.191 J0.
X-19.432 Z-1.037 I1.191 J0.
X-21.813 Z-1.085 I-1.191 J0.
X-19.432 Z-1.134 I1.191 J0.
X-21.813 Z-1.182 I-1.191 J0.
X-19.432 Z-1.231 I1.191 J0.
X-21.813 Z-1.279 I-1.191 J0.
X-19.432 Z-1.328 I1.191 J0.
X-21.813 Z-1.376 I-1.191 J0.
X-19.432 Z-1.425 I1.191 J0.
X-21.813 Z-1.473 I-1.191 J0.
X-19.432 Z-1.522 I1.191 J0.
X-21.813 Z-1.57 I-1.191 J0.
X-19.432 Z-1.619 I1.191 J0.
X-21.813 Z-1.667 I-1.191 J0.
X-19.432 Z-1.716 I1.191 J0.
X-21.813 Z-1.764 I-1.191 J0.
X-19.432 Z-1.813 I1.191 J0.
X-21.813 Z-1.861 I-1.191 J0.
X-19.432 Z-1.91 I1.191 J0.
X-21.813 Z-1.958 I-1.191 J0.
X-19.432 Z-2.007 I1.191 J0.
X-21.813 Z-2.055 I-1.191 J0.
X-19.432 Z-2.104 I1.191 J0.
X-21.813 Z-2.152 I-1.191 J0.
X-19.432 Z-2.2 I1.191 J0.
X-21.813 Z-2.249 I-1.191 J0.
X-19.432 Z-2.297 I1.191 J0.
X-21.813 Z-2.346 I-1.191 J0.
X-19.432 Z-2.394 I1.191 J0.
X-21.813 Z-2.443 I-1.191 J0.
X-19.432 Z-2.491 I1.191 J0.
X-21.813 Z-2.54 I-1.191 J0.
X-19.432 Z-2.588 I1.191 J0.
X-21.813 Z-2.637 I-1.191 J0.
X-19.432 Z-2.685 I1.191 J0.
X-21.813 Z-2.734 I-1.191 J0.
X-19.432 Z-2.782 I1.191 J0.
X-21.813 Z-2.831 I-1.191 J0.
X-19.432 Z-2.879 I1.191 J0.
X-21.813 Z-2.928 I-1.191 J0.
X-19.432 Z-2.976 I1.191 J0.
X-21.813 Z-3.025 I-1.191 J0.
X-19.432 Z-3.073 I1.191 J0.
X-21.813 Z-3.122 I-1.191 J0.
X-19.432 Z-3.17 I1.191 J0.
X-21.813 Z-3.219 I-1.191 J0.
X-19.432 Z-3.267 I1.191 J0.
X-21.813 Z-3.316 I-1.191 J0.
X-19.432 Z-3.364 I1.191 J0.
X-21.813 Z-3.413 I-1.191 J0.
X-19.432 Z-3.461 I1.191 J0.
X-21.813 Z-3.51 I-1.191 J0.
X-19.432 Z-3.558 I1.191 J0.
X-21.813 Z-3.607 I-1.191 J0.
X-19.432 Z-3.655 I1.191 J0.
X-21.813 Z-3.704 I-1.191 J0.
X-19.432 Z-3.752 I1.191 J0.
X-21.813 Z-3.801 I-1.191 J0.
X-19.432 Z-3.849 I1.191 J0.
X-21.813 Z-3.898 I-1.191 J0.
X-19.432 Z-3.946 I1.191 J0.
X-21.813 Z-3.995 I-1.191 J0.
X-19.432 Z-4.043 I1.191 J0.
X-21.813 Z-4.092 I-1.191 J0.
X-19.432 Z-4.14 I1.191 J0.
X-21.813 Z-4.189 I-1.191 J0.
X-19.432 Z-4.237 I1.191 J0.
X-21.813 Z-4.286 I-1.191 J0.
X-19.432 Z-4.334 I1.191 J0.
X-21.813 Z-4.383 I-1.191 J0.
X-19.432 Z-4.431 I1.191 J0.
X-21.813 Z-4.48 I-1.191 J0.
X-19.432 Z-4.528 I1.191 J0.
X-21.813 Z-4.577 I-1.191 J0.
X-19.432 Z-4.625 I1.191 J0.
X-21.813 Z-4.674 I-1.191 J0.
X-19.432 Z-4.722 I1.191 J0.
X-21.813 Z-4.771 I-1.191 J0.
X-19.432 Z-4.819 I1.191 J0.
X-21.813 Z-4.868 I-1.191 J0.
X-19.432 Z-4.916 I1.191 J0.
X-21.813 Z-4.965 I-1.191 J0.
X-19.432 Z-5.013 I1.191 J0.
X-21.813 Z-5.062 I-1.191 J0.
X-19.432 Z-5.11 I1.191 J0.
X-21.813 Z-5.159 I-1.191 J0.
X-19.432 Z-5.207 I1.191 J0.
X-21.813 Z-5.256 I-1.191 J0.
X-19.432 Z-5.304 I1.191 J0.
X-21.813 Z-5.352 I-1.191 J0.
X-19.432 Z-5.401 I1.191 J0.
X-21.813 Z-5.449 I-1.191 J0.
X-19.432 Z-5.498 I1.191 J0.
X-21.813 Z-5.546 I-1.191 J0.
X-19.432 Z-5.595 I1.191 J0.
X-21.813 Z-5.643 I-1.191 J0.
X-19.432 Z-5.692 I1.191 J0.
X-21.813 Z-5.74 I-1.191 J0.
X-19.432 Z-5.789 I1.191 J0.
X-21.813 Z-5.837 I-1.191 J0.
X-19.432 Z-5.886 I1.191 J0.
X-21.813 Z-5.934 I-1.191 J0.
X-19.432 Z-5.983 I1.191 J0.
X-21.813 Z-6.031 I-1.191 J0.
X-19.432 Z-6.08 I1.191 J0.
X-21.813 Z-6.128 I-1.191 J0.
X-19.432 Z-6.177 I1.191 J0.
X-21.813 Z-6.225 I-1.191 J0.
X-19.432 Z-6.274 I1.191 J0.
X-21.813 Z-6.322 I-1.191 J0.
X-19.432 Z-6.371 I1.191 J0.
X-21.813 Z-6.419 I-1.191 J0.
X-19.432 Z-6.468 I1.191 J0.
X-21.813 Z-6.516 I-1.191 J0.
X-19.432 Z-6.565 I1.191 J0.
X-21.813 Z-6.613 I-1.191 J0.
X-19.432 Z-6.662 I1.191 J0.
X-21.813 Z-6.71 I-1.191 J0.
X-19.432 Z-6.759 I1.191 J0.
X-21.813 Z-6.807 I-1.191 J0.
X-19.432 Z-6.856 I1.191 J0.
X-21.813 Z-6.904 I-1.191 J0.
X-19.432 Z-6.953 I1.191 J0.
X-21.813 Z-7.001 I-1.191 J0.
X-19.432 Z-7.05 I1.191 J0.
X-21.813 Z-7.098 I-1.191 J0.
X-19.432 Z-7.147 I1.191 J0.
X-21.813 Z-7.195 I-1.191 J0.
X-19.432 Z-7.244 I1.191 J0.
X-21.813 Z-7.292 I-1.191 J0.
X-19.432 Z-7.341 I1.191 J0.
X-19.642 Y-12.582 Z-7.35 I-1.191 J0.
X-21.603 Y-11.231 I-0.98 J0.676
X-19.642 Y-12.582 I0.98 J-0.676
X-20.084 Y-12.663 I-0.261 J0.18
G1 X-20.214 Y-12.573
X-20.272 Y-12.533 Z-7.342
X-20.328 Y-12.495 Z-7.319
X-20.377 Y-12.461 Z-7.281
X-20.419 Y-12.432 Z-7.23
X-20.45 Y-12.411 Z-7.17
X-20.469 Y-12.397 Z-7.103
X-20.476 Y-12.393 Z-7.032
G0 Z5.
X-36.134 Y-51.055
Z3.
G1 Z1.317 F1600.
G18 G2 X-35.816 Z1. I0.318 K0.
G1 X-35.657
G17 G2 X-35.34 Y-51.373 I0. J-0.317
X-39.309 Z0.938 I-1.984 J0.
X-35.34 Z0.875 I1.984 J0.
X-39.309 Z0.813 I-1.984 J0.
X-35.34 Z0.751 I1.984 J0.
X-39.309 Z0.688 I-1.984 J0.
X-35.34 Z0.626 I1.984 J0.
X-39.309 Z0.564 I-1.984 J0.
X-35.34 Z0.501 I1.984 J0.
X-39.309 Z0.439 I-1.984 J0.
X-35.34 Z0.377 I1.984 J0.
X-39.309 Z0.314 I-1.984 J0.
X-35.34 Z0.252 I1.984 J0.
X-39.309 Z0.189 I-1.984 J0.
X-35.34 Z0.127 I1.984 J0.
X-39.309 Z0.065 I-1.984 J0.
X-35.34 Z0.002 I1.984 J0.
X-39.309 Z-0.06 I-1.984 J0.
X-35.34 Z-0.122 I1.984 J0.
X-39.309 Z-0.185 I-1.984 J0.
X-35.34 Z-0.247 I1.984 J0.
X-39.309 Z-0.309 I-1.984 J0.
X-35.34 Z-0.372 I1.984 J0.
X-39.309 Z-0.434 I-1.984 J0.
X-35.34 Z-0.496 I1.984 J0.
X-39.309 Z-0.559 I-1.984 J0.
X-35.34 Z-0.621 I1.984 J0.
X-39.309 Z-0.683 I-1.984 J0.
X-35.34 Z-0.746 I1.984 J0.
X-39.309 Z-0.808 I-1.984 J0.
X-35.34 Z-0.87 I1.984 J0.
X-39.309 Z-0.933 I-1.984 J0.
X-35.34 Z-0.995 I1.984 J0.
X-39.309 Z-1.057 I-1.984 J0.
X-35.34 Z-1.12 I1.984 J0.
X-39.309 Z-1.182 I-1.984 J0.
X-35.34 Z-1.245 I1.984 J0.
X-39.309 Z-1.307 I-1.984 J0.
X-35.34 Z-1.369 I1.984 J0.
X-39.309 Z-1.432 I-1.984 J0.
X-35.34 Z-1.494 I1.984 J0.
X-39.309 Z-1.556 I-1.984 J0.
X-35.34 Z-1.619 I1.984 J0.
X-39.309 Z-1.681 I-1.984 J0.
X-35.34 Z-1.743 I1.984 J0.
X-39.309 Z-1.806 I-1.984 J0.
X-35.34 Z-1.868 I1.984 J0.
X-39.309 Z-1.93 I-1.984 J0.
X-35.34 Z-1.993 I1.984 J0.
X-39.309 Z-2.055 I-1.984 J0.
X-35.34 Z-2.117 I1.984 J0.
X-39.309 Z-2.18 I-1.984 J0.
X-35.34 Z-2.242 I1.984 J0.
X-39.309 Z-2.304 I-1.984 J0.
X-35.34 Z-2.367 I1.984 J0.
X-39.309 Z-2.429 I-1.984 J0.
X-35.34 Z-2.491 I1.984 J0.
X-39.309 Z-2.554 I-1.984 J0.
X-35.34 Z-2.616 I1.984 J0.
X-39.309 Z-2.678 I-1.984 J0.
X-35.34 Z-2.741 I1.984 J0.
X-39.309 Z-2.803 I-1.984 J0.
X-35.34 Z-2.866 I1.984 J0.
X-39.309 Z-2.928 I-1.984 J0.
X-35.34 Z-2.99 I1.984 J0.
X-39.309 Z-3.053 I-1.984 J0.
X-35.34 Z-3.115 I1.984 J0.
X-39.309 Z-3.177 I-1.984 J0.
X-35.34 Z-3.24 I1.984 J0.
X-39.309 Z-3.302 I-1.984 J0.
X-35.34 Z-3.364 I1.984 J0.
X-39.309 Z-3.427 I-1.984 J0.
X-35.34 Z-3.489 I1.984 J0.
X-39.309 Z-3.551 I-1.984 J0.
X-35.34 Z-3.614 I1.984 J0.
X-39.309 Z-3.676 I-1.984 J0.
X-35.34 Z-3.738 I1.984 J0.
X-39.309 Z-3.801 I-1.984 J0.
X-35.34 Z-3.863 I1.984 J0.
X-39.309 Z-3.925 I-1.984 J0.
X-35.34 Z-3.988 I1.984 J0.
X-39.309 Z-4.05 I-1.984 J0.
X-35.34 Z-4.112 I1.984 J0.
X-39.309 Z-4.175 I-1.984 J0.
X-35.34 Z-4.237 I1.984 J0.
X-39.309 Z-4.3 I-1.984 J0.
X-35.34 Z-4.362 I1.984 J0.
X-39.309 Z-4.424 I-1.984 J0.
X-35.34 Z-4.487 I1.984 J0.
X-39.309 Z-4.549 I-1.984 J0.
X-35.34 Z-4.611 I1.984 J0.
X-39.309 Z-4.674 I-1.984 J0.
X-35.34 Z-4.736 I1.984 J0.
X-39.309 Z-4.798 I-1.984 J0.
X-35.34 Z-4.861 I1.984 J0.
X-39.309 Z-4.923 I-1.984 J0.
X-35.34 Z-4.985 I1.984 J0.
X-39.309 Z-5.048 I-1.984 J0.
X-35.34 Z-5.11 I1.984 J0.
X-39.309 Z-5.172 I-1.984 J0.
X-35.34 Z-5.235 I1.984 J0.
X-39.309 Z-5.297 I-1.984 J0.
X-35.34 Z-5.359 I1.984 J0.
X-39.309 Z-5.422 I-1.984 J0.
X-35.34 Z-5.484 I1.984 J0.
X-39.309 Z-5.546 I-1.984 J0.
X-35.34 Z-5.609 I1.984 J0.
X-39.309 Z-5.671 I-1.984 J0.
X-35.34 Z-5.734 I1.984 J0.
X-39.309 Z-5.796 I-1.984 J0.
X-35.34 Z-5.858 I1.984 J0.
X-39.309 Z-5.921 I-1.984 J0.
X-35.34 Z-5.983 I1.984 J0.
X-39.309 Z-6.045 I-1.984 J0.
X-35.34 Z-6.108 I1.984 J0.
X-39.309 Z-6.17 I-1.984 J0.
X-35.34 Z-6.232 I1.984 J0.
X-39.309 Z-6.295 I-1.984 J0.
X-35.34 Z-6.357 I1.984 J0.
X-39.309 Z-6.419 I-1.984 J0.
X-35.34 Z-6.482 I1.984 J0.
X-39.309 Z-6.544 I-1.984 J0.
X-35.34 Z-6.606 I1.984 J0.
X-39.309 Z-6.669 I-1.984 J0.
X-35.34 Z-6.731 I1.984 J0.
X-39.309 Z-6.793 I-1.984 J0.
X-35.34 Z-6.856 I1.984 J0.
X-39.309 Z-6.918 I-1.984 J0.
X-35.34 Z-6.98 I1.984 J0.
X-39.309 Z-7.043 I-1.984 J0.
X-35.34 Z-7.105 I1.984 J0.
X-39.309 Z-7.167 I-1.984 J0.
X-35.34 Z-7.23 I1.984 J0.
X-39.309 Z-7.292 I-1.984 J0.
X-35.392 Y-50.923 Z-7.35 I1.984 J0.
X-39.257 Y-51.823 I-1.933 J-0.45
X-35.392 Y-50.923 I1.933 J0.45
X-35.629 Y-51.304 I-0.309 J-0.072
G1 X-35.784 Y-51.34
X-35.852 Y-51.356 Z-7.342
X-35.918 Y-51.371 Z-7.319
X-35.976 Y-51.385 Z-7.281
X-36.025 Y-51.396 Z-7.23
X-36.062 Y-51.405 Z-7.17
X-36.085 Y-51.41 Z-7.103
X-36.093 Y-51.412 Z-7.032
G0 Z5.
X38.515 Y-51.055
Z3.
G1 Z1.317 F1600.
G18 G2 X38.832 Z1. I0.318 K0.
G1 X38.991
G17 G2 X39.309 Y-51.373 I0. J-0.317
X35.34 Z0.938 I-1.984 J0.
X39.309 Z0.875 I1.984 J0.
X35.34 Z0.813 I-1.984 J0.
X39.309 Z0.751 I1.984 J0.
X35.34 Z0.688 I-1.984 J0.
X39.309 Z0.626 I1.984 J0.
X35.34 Z0.564 I-1.984 J0.
X39.309 Z0.501 I1.984 J0.
X35.34 Z0.439 I-1.984 J0.
X39.309 Z0.377 I1.984 J0.
X35.34 Z0.314 I-1.984 J0.
X39.309 Z0.252 I1.984 J0.
X35.34 Z0.189 I-1.984 J0.
X39.309 Z0.127 I1.984 J0.
X35.34 Z0.065 I-1.984 J0.
X39.309 Z0.002 I1.984 J0.
X35.34 Z-0.06 I-1.984 J0.
X39.309 Z-0.122 I1.984 J0.
X35.34 Z-0.185 I-1.984 J0.
X39.309 Z-0.247 I1.984 J0.
X35.34 Z-0.309 I-1.984 J0.
X39.309 Z-0.372 I1.984 J0.
X35.34 Z-0.434 I-1.984 J0.
X39.309 Z-0.496 I1.984 J0.
X35.34 Z-0.559 I-1.984 J0.
X39.309 Z-0.621 I1.984 J0.
X35.34 Z-0.683 I-1.984 J0.
X39.309 Z-0.746 I1.984 J0.
X35.34 Z-0.808 I-1.984 J0.
X39.309 Z-0.87 I1.984 J0.
X35.34 Z-0.933 I-1.984 J0.
X39.309 Z-0.995 I1.984 J0.
X35.34 Z-1.057 I-1.984 J0.
X39.309 Z-1.12 I1.984 J0.
X35.34 Z-1.182 I-1.984 J0.
X39.309 Z-1.245 I1.984 J0.
X35.34 Z-1.307 I-1.984 J0.
X39.309 Z-1.369 I1.984 J0.
X35.34 Z-1.432 I-1.984 J0.
X39.309 Z-1.494 I1.984 J0.
X35.34 Z-1.556 I-1.984 J0.
X39.309 Z-1.619 I1.984 J0.
X35.34 Z-1.681 I-1.984 J0.
X39.309 Z-1.743 I1.984 J0.
X35.34 Z-1.806 I-1.984 J0.
X39.309 Z-1.868 I1.984 J0.
X35.34 Z-1.93 I-1.984 J0.
X39.309 Z-1.993 I1.984 J0.
X35.34 Z-2.055 I-1.984 J0.
X39.309 Z-2.117 I1.984 J0.
X35.34 Z-2.18 I-1.984 J0.
X39.309 Z-2.242 I1.984 J0.
X35.34 Z-2.304 I-1.984 J0.
X39.309 Z-2.367 I1.984 J0.
X35.34 Z-2.429 I-1.984 J0.
X39.309 Z-2.491 I1.984 J0.
X35.34 Z-2.554 I-1.984 J0.
X39.309 Z-2.616 I1.984 J0.
X35.34 Z-2.678 I-1.984 J0.
X39.309 Z-2.741 I1.984 J0.
X35.34 Z-2.803 I-1.984 J0.
X39.309 Z-2.866 I1.984 J0.
X35.34 Z-2.928 I-1.984 J0.
X39.309 Z-2.99 I1.984 J0.
X35.34 Z-3.053 I-1.984 J0.
X39.309 Z-3.115 I1.984 J0.
X35.34 Z-3.177 I-1.984 J0.
X39.309 Z-3.24 I1.984 J0.
X35.34 Z-3.302 I-1.984 J0.
X39.309 Z-3.364 I1.984 J0.
X35.34 Z-3.427 I-1.984 J0.
X39.309 Z-3.489 I1.984 J0.
X35.34 Z-3.551 I-1.984 J0.
X39.309 Z-3.614 I1.984 J0.
X35.34 Z-3.676 I-1.984 J0.
X39.309 Z-3.738 I1.984 J0.
X35.34 Z-3.801 I-1.984 J0.
X39.309 Z-3.863 I1.984 J0.
X35.34 Z-3.925 I-1.984 J0.
X39.309 Z-3.988 I1.984 J0.
X35.34 Z-4.05 I-1.984 J0.
X39.309 Z-4.112 I1.984 J0.
X35.34 Z-4.175 I-1.984 J0.
X39.309 Z-4.237 I1.984 J0.
X35.34 Z-4.3 I-1.984 J0.
X39.309 Z-4.362 I1.984 J0.
X35.34 Z-4.424 I-1.984 J0.
X39.309 Z-4.487 I1.984 J0.
X35.34 Z-4.549 I-1.984 J0.
X39.309 Z-4.611 I1.984 J0.
X35.34 Z-4.674 I-1.984 J0.
X39.309 Z-4.736 I1.984 J0.
X35.34 Z-4.798 I-1.984 J0.
X39.309 Z-4.861 I1.984 J0.
X35.34 Z-4.923 I-1.984 J0.
X39.309 Z-4.985 I1.984 J0.
X35.34 Z-5.048 I-1.984 J0.
X39.309 Z-5.11 I1.984 J0.
X35.34 Z-5.172 I-1.984 J0.
X39.309 Z-5.235 I1.984 J0.
X35.34 Z-5.297 I-1.984 J0.
X39.309 Z-5.359 I1.984 J0.
X35.34 Z-5.422 I-1.984 J0.
X39.309 Z-5.484 I1.984 J0.
X35.34 Z-5.546 I-1.984 J0.
X39.309 Z-5.609 I1.984 J0.
X35.34 Z-5.671 I-1.984 J0.
X39.309 Z-5.734 I1.984 J0.
X35.34 Z-5.796 I-1.984 J0.
X39.309 Z-5.858 I1.984 J0.
X35.34 Z-5.921 I-1.984 J0.
X39.309 Z-5.983 I1.984 J0.
X35.34 Z-6.045 I-1.984 J0.
X39.309 Z-6.108 I1.984 J0.
X35.34 Z-6.17 I-1.984 J0.
X39.309 Z-6.232 I1.984 J0.
X35.34 Z-6.295 I-1.984 J0.
X39.309 Z-6.357 I1.984 J0.
X35.34 Z-6.419 I-1.984 J0.
X39.309 Z-6.482 I1.984 J0.
X35.34 Z-6.544 I-1.984 J0.
X39.309 Z-6.606 I1.984 J0.
X35.34 Z-6.669 I-1.984 J0.
X39.309 Z-6.731 I1.984 J0.
X35.34 Z-6.793 I-1.984 J0.
X39.309 Z-6.856 I1.984 J0.
X35.34 Z-6.918 I-1.984 J0.
X39.309 Z-6.98 I1.984 J0.
X35.34 Z-7.043 I-1.984 J0.
X39.309 Z-7.105 I1.984 J0.
X35.34 Z-7.167 I-1.984 J0.
X39.309 Z-7.23 I1.984 J0.
X35.34 Z-7.292 I-1.984 J0.
X39.257 Y-50.923 Z-7.35 I1.984 J0.
X35.392 Y-51.823 I-1.933 J-0.45
X39.257 Y-50.923 I1.933 J0.45
X39.02 Y-51.304 I-0.309 J-0.072
G1 X38.865 Y-51.34
X38.796 Y-51.356 Z-7.342
X38.731 Y-51.371 Z-7.319
X38.672 Y-51.385 Z-7.281
X38.623 Y-51.396 Z-7.23
X38.587 Y-51.405 Z-7.17
X38.564 Y-51.41 Z-7.103
X38.556 Y-51.412 Z-7.032
G0 Z15.
M5
G0 Z15
G0 X0 Y0

M9
M30
