(19.05.01.03.03)
(FRAME RAIL GEARBOX MOUNTING)
(T1  D=6.35 CR=0. - ZMIN=21.225 - FLAT END MILL)
G90 G94 G91.1 G40 G49 G17
G21
G0 Z45

(BORE1 3)
M5
T1 M6
S15000 M3
G54
G0 X136.269 Y18.852
G43 Z45. H1
Z27.765
G1 Z26.4 F800.
X135.952
G2 X135.753 Y19.05 I0. J0.198
X136.547 Z26.392 I0.397 J0.
X135.753 Z26.384 I-0.397 J0.
X136.547 Z26.377 I0.397 J0.
X135.753 Z26.369 I-0.397 J0.
X136.547 Z26.361 I0.397 J0.
X135.753 Z26.353 I-0.397 J0.
X136.547 Z26.345 I0.397 J0.
X135.753 Z26.338 I-0.397 J0.
X136.547 Z26.33 I0.397 J0.
X135.753 Z26.322 I-0.397 J0.
X136.547 Z26.314 I0.397 J0.
X135.753 Z26.306 I-0.397 J0.
X136.547 Z26.299 I0.397 J0.
X135.753 Z26.291 I-0.397 J0.
X136.547 Z26.283 I0.397 J0.
X135.753 Z26.275 I-0.397 J0.
X136.547 Z26.268 I0.397 J0.
X135.753 Z26.26 I-0.397 J0.
X136.547 Z26.252 I0.397 J0.
X135.753 Z26.244 I-0.397 J0.
X136.547 Z26.236 I0.397 J0.
X135.753 Z26.229 I-0.397 J0.
X136.547 Z26.221 I0.397 J0.
X135.753 Z26.213 I-0.397 J0.
X136.547 Z26.205 I0.397 J0.
X135.753 Z26.197 I-0.397 J0.
X136.547 Z26.19 I0.397 J0.
X135.753 Z26.182 I-0.397 J0.
X136.547 Z26.174 I0.397 J0.
X135.753 Z26.166 I-0.397 J0.
X136.547 Z26.158 I0.397 J0.
X135.753 Z26.151 I-0.397 J0.
X136.547 Z26.143 I0.397 J0.
X135.753 Z26.135 I-0.397 J0.
X136.547 Z26.127 I0.397 J0.
X135.753 Z26.119 I-0.397 J0.
X136.547 Z26.112 I0.397 J0.
X135.753 Z26.104 I-0.397 J0.
X136.547 Z26.096 I0.397 J0.
X135.753 Z26.088 I-0.397 J0.
X136.547 Z26.081 I0.397 J0.
X135.753 Z26.073 I-0.397 J0.
X136.547 Z26.065 I0.397 J0.
X135.753 Z26.057 I-0.397 J0.
X136.547 Z26.049 I0.397 J0.
X135.753 Z26.042 I-0.397 J0.
X136.547 Z26.034 I0.397 J0.
X135.753 Z26.026 I-0.397 J0.
X136.547 Z26.018 I0.397 J0.
X135.753 Z26.01 I-0.397 J0.
X136.547 Z26.003 I0.397 J0.
X135.753 Z25.995 I-0.397 J0.
X136.547 Z25.987 I0.397 J0.
X135.753 Z25.979 I-0.397 J0.
X136.547 Z25.971 I0.397 J0.
X135.753 Z25.964 I-0.397 J0.
X136.547 Z25.956 I0.397 J0.
X135.753 Z25.948 I-0.397 J0.
X136.547 Z25.94 I0.397 J0.
X135.753 Z25.932 I-0.397 J0.
X136.547 Z25.925 I0.397 J0.
X135.753 Z25.917 I-0.397 J0.
X136.547 Z25.909 I0.397 J0.
X135.753 Z25.901 I-0.397 J0.
X136.547 Z25.893 I0.397 J0.
X135.753 Z25.886 I-0.397 J0.
X136.547 Z25.878 I0.397 J0.
X135.753 Z25.87 I-0.397 J0.
X136.547 Z25.862 I0.397 J0.
X135.753 Z25.855 I-0.397 J0.
X136.547 Z25.847 I0.397 J0.
X135.753 Z25.839 I-0.397 J0.
X136.547 Z25.831 I0.397 J0.
X135.753 Z25.823 I-0.397 J0.
X136.547 Z25.816 I0.397 J0.
X135.753 Z25.808 I-0.397 J0.
X136.547 Z25.8 I0.397 J0.
X135.753 Z25.792 I-0.397 J0.
X136.547 Z25.784 I0.397 J0.
X135.753 Z25.777 I-0.397 J0.
X136.547 Z25.769 I0.397 J0.
X135.753 Z25.761 I-0.397 J0.
X136.547 Z25.753 I0.397 J0.
X135.753 Z25.745 I-0.397 J0.
X136.547 Z25.738 I0.397 J0.
X135.753 Z25.73 I-0.397 J0.
X136.547 Z25.722 I0.397 J0.
X135.753 Z25.714 I-0.397 J0.
X136.547 Z25.706 I0.397 J0.
X135.753 Z25.699 I-0.397 J0.
X136.547 Z25.691 I0.397 J0.
X135.753 Z25.683 I-0.397 J0.
X136.547 Z25.675 I0.397 J0.
X135.753 Z25.667 I-0.397 J0.
X136.547 Z25.66 I0.397 J0.
X135.753 Z25.652 I-0.397 J0.
X136.547 Z25.644 I0.397 J0.
X135.753 Z25.636 I-0.397 J0.
X136.547 Z25.629 I0.397 J0.
X135.753 Z25.621 I-0.397 J0.
X136.547 Z25.613 I0.397 J0.
X135.753 Z25.605 I-0.397 J0.
X136.547 Z25.597 I0.397 J0.
X135.753 Z25.59 I-0.397 J0.
X136.547 Z25.582 I0.397 J0.
X135.753 Z25.574 I-0.397 J0.
X136.547 Z25.566 I0.397 J0.
X135.753 Z25.558 I-0.397 J0.
X136.547 Z25.551 I0.397 J0.
X135.753 Z25.543 I-0.397 J0.
X136.547 Z25.535 I0.397 J0.
X135.753 Z25.527 I-0.397 J0.
X136.547 Z25.519 I0.397 J0.
X135.753 Z25.512 I-0.397 J0.
X136.547 Z25.504 I0.397 J0.
X135.753 Z25.496 I-0.397 J0.
X136.547 Z25.488 I0.397 J0.
X135.753 Z25.48 I-0.397 J0.
X136.547 Z25.473 I0.397 J0.
X135.753 Z25.465 I-0.397 J0.
X136.547 Z25.457 I0.397 J0.
X135.753 Z25.449 I-0.397 J0.
X136.547 Z25.442 I0.397 J0.
X135.753 Z25.434 I-0.397 J0.
X136.547 Z25.426 I0.397 J0.
X135.753 Z25.418 I-0.397 J0.
X136.547 Z25.41 I0.397 J0.
X135.753 Z25.403 I-0.397 J0.
X136.547 Z25.395 I0.397 J0.
X135.753 Z25.387 I-0.397 J0.
X136.547 Z25.379 I0.397 J0.
X135.753 Z25.371 I-0.397 J0.
X136.547 Z25.364 I0.397 J0.
X135.753 Z25.356 I-0.397 J0.
X136.547 Z25.348 I0.397 J0.
X135.753 Z25.34 I-0.397 J0.
X136.547 Z25.332 I0.397 J0.
X135.753 Z25.325 I-0.397 J0.
X136.547 Z25.317 I0.397 J0.
X135.753 Z25.309 I-0.397 J0.
X136.547 Z25.301 I0.397 J0.
X135.753 Z25.293 I-0.397 J0.
X136.547 Z25.286 I0.397 J0.
X135.753 Z25.278 I-0.397 J0.
X136.547 Z25.27 I0.397 J0.
X135.753 Z25.262 I-0.397 J0.
X136.547 Z25.254 I0.397 J0.
X135.753 Z25.247 I-0.397 J0.
X136.547 Z25.239 I0.397 J0.
X135.753 Z25.231 I-0.397 J0.
X136.547 Z25.223 I0.397 J0.
X135.753 Z25.216 I-0.397 J0.
X136.547 Z25.208 I0.397 J0.
X135.753 Z25.2 I-0.397 J0.
X136.547 Z25.192 I0.397 J0.
X135.753 Z25.184 I-0.397 J0.
X136.547 Z25.177 I0.397 J0.
X135.753 Z25.169 I-0.397 J0.
X136.547 Z25.161 I0.397 J0.
X135.753 Z25.153 I-0.397 J0.
X136.547 Z25.145 I0.397 J0.
X135.753 Z25.138 I-0.397 J0.
X136.547 Z25.13 I0.397 J0.
X135.753 Z25.122 I-0.397 J0.
X136.547 Z25.114 I0.397 J0.
X135.753 Z25.106 I-0.397 J0.
X136.547 Z25.099 I0.397 J0.
X135.753 Z25.091 I-0.397 J0.
X136.547 Z25.083 I0.397 J0.
X135.753 Z25.075 I-0.397 J0.
X136.547 Z25.067 I0.397 J0.
X135.753 Z25.06 I-0.397 J0.
X136.547 Z25.052 I0.397 J0.
X135.753 Z25.044 I-0.397 J0.
X136.547 Z25.036 I0.397 J0.
X135.753 Z25.028 I-0.397 J0.
X136.547 Z25.021 I0.397 J0.
X135.753 Z25.013 I-0.397 J0.
X136.547 Z25.005 I0.397 J0.
X135.753 Z24.997 I-0.397 J0.
X136.547 Z24.99 I0.397 J0.
X135.753 Z24.982 I-0.397 J0.
X136.547 Z24.974 I0.397 J0.
X135.753 Z24.966 I-0.397 J0.
X136.547 Z24.958 I0.397 J0.
X135.753 Z24.951 I-0.397 J0.
X136.547 Z24.943 I0.397 J0.
X135.753 Z24.935 I-0.397 J0.
X136.547 Z24.927 I0.397 J0.
X135.753 Z24.919 I-0.397 J0.
X136.547 Z24.912 I0.397 J0.
X135.753 Z24.904 I-0.397 J0.
X136.547 Z24.896 I0.397 J0.
X135.753 Z24.888 I-0.397 J0.
X136.547 Z24.88 I0.397 J0.
X135.753 Z24.873 I-0.397 J0.
X136.547 Z24.865 I0.397 J0.
X135.753 Z24.857 I-0.397 J0.
X136.547 Z24.849 I0.397 J0.
X135.753 Z24.841 I-0.397 J0.
X136.547 Z24.834 I0.397 J0.
X135.753 Z24.826 I-0.397 J0.
X136.547 Z24.818 I0.397 J0.
X135.753 Z24.81 I-0.397 J0.
X136.547 Z24.803 I0.397 J0.
X135.753 Z24.795 I-0.397 J0.
X136.547 Z24.787 I0.397 J0.
X135.753 Z24.779 I-0.397 J0.
X136.547 Z24.771 I0.397 J0.
X135.753 Z24.764 I-0.397 J0.
X136.547 Z24.756 I0.397 J0.
X135.753 Z24.748 I-0.397 J0.
X136.547 Z24.74 I0.397 J0.
X135.753 Z24.732 I-0.397 J0.
X136.547 Z24.725 I0.397 J0.
X135.753 Z24.717 I-0.397 J0.
X136.547 Z24.709 I0.397 J0.
X135.753 Z24.701 I-0.397 J0.
X136.547 Z24.693 I0.397 J0.
X135.753 Z24.686 I-0.397 J0.
X136.547 Z24.678 I0.397 J0.
X135.753 Z24.67 I-0.397 J0.
X136.547 Z24.662 I0.397 J0.
X135.753 Z24.654 I-0.397 J0.
X136.547 Z24.647 I0.397 J0.
X135.753 Z24.639 I-0.397 J0.
X136.547 Z24.631 I0.397 J0.
X135.753 Z24.623 I-0.397 J0.
X136.547 Z24.615 I0.397 J0.
X135.753 Z24.608 I-0.397 J0.
X136.547 Z24.6 I0.397 J0.
X135.753 Z24.592 I-0.397 J0.
X136.547 Z24.584 I0.397 J0.
X135.753 Z24.577 I-0.397 J0.
X136.547 Z24.569 I0.397 J0.
X135.753 Z24.561 I-0.397 J0.
X136.547 Z24.553 I0.397 J0.
X135.753 Z24.545 I-0.397 J0.
X136.547 Z24.538 I0.397 J0.
X135.753 Z24.53 I-0.397 J0.
X136.547 Z24.522 I0.397 J0.
X135.753 Z24.514 I-0.397 J0.
X136.547 Z24.506 I0.397 J0.
X135.753 Z24.499 I-0.397 J0.
X136.547 Z24.491 I0.397 J0.
X135.753 Z24.483 I-0.397 J0.
X136.547 Z24.475 I0.397 J0.
X135.753 Z24.467 I-0.397 J0.
X136.547 Z24.46 I0.397 J0.
X135.753 Z24.452 I-0.397 J0.
X136.547 Z24.444 I0.397 J0.
X135.753 Z24.436 I-0.397 J0.
X136.547 Z24.428 I0.397 J0.
X135.753 Z24.421 I-0.397 J0.
X136.547 Z24.413 I0.397 J0.
X135.753 Z24.405 I-0.397 J0.
X136.547 Z24.397 I0.397 J0.
X135.753 Z24.39 I-0.397 J0.
X136.547 Z24.382 I0.397 J0.
X135.753 Z24.374 I-0.397 J0.
X136.547 Z24.366 I0.397 J0.
X135.753 Z24.358 I-0.397 J0.
X136.547 Z24.351 I0.397 J0.
X135.753 Z24.343 I-0.397 J0.
X136.547 Z24.335 I0.397 J0.
X135.753 Z24.327 I-0.397 J0.
X136.547 Z24.319 I0.397 J0.
X135.753 Z24.312 I-0.397 J0.
X136.547 Z24.304 I0.397 J0.
X135.753 Z24.296 I-0.397 J0.
X136.547 Z24.288 I0.397 J0.
X135.753 Z24.28 I-0.397 J0.
X136.547 Z24.273 I0.397 J0.
X135.753 Z24.265 I-0.397 J0.
X136.547 Z24.257 I0.397 J0.
X135.753 Z24.249 I-0.397 J0.
X136.547 Z24.241 I0.397 J0.
X135.753 Z24.234 I-0.397 J0.
X136.547 Z24.226 I0.397 J0.
X135.753 Z24.218 I-0.397 J0.
X136.547 Z24.21 I0.397 J0.
X135.753 Z24.202 I-0.397 J0.
X136.547 Z24.195 I0.397 J0.
X135.753 Z24.187 I-0.397 J0.
X136.547 Z24.179 I0.397 J0.
X135.753 Z24.171 I-0.397 J0.
X136.547 Z24.164 I0.397 J0.
X135.753 Z24.156 I-0.397 J0.
X136.547 Z24.148 I0.397 J0.
X135.753 Z24.14 I-0.397 J0.
X136.547 Z24.132 I0.397 J0.
X135.753 Z24.125 I-0.397 J0.
X136.547 Z24.117 I0.397 J0.
X135.753 Z24.109 I-0.397 J0.
X136.547 Z24.101 I0.397 J0.
X135.753 Z24.093 I-0.397 J0.
X136.547 Z24.086 I0.397 J0.
X135.753 Z24.078 I-0.397 J0.
X136.547 Z24.07 I0.397 J0.
X135.753 Z24.062 I-0.397 J0.
X136.547 Z24.054 I0.397 J0.
X135.753 Z24.047 I-0.397 J0.
X136.547 Z24.039 I0.397 J0.
X135.753 Z24.031 I-0.397 J0.
X136.547 Z24.023 I0.397 J0.
X135.753 Z24.015 I-0.397 J0.
X136.547 Z24.008 I0.397 J0.
X135.753 Z24. I-0.397 J0.
X136.547 Z23.992 I0.397 J0.
X135.753 Z23.984 I-0.397 J0.
X136.547 Z23.976 I0.397 J0.
X135.753 Z23.969 I-0.397 J0.
X136.547 Z23.961 I0.397 J0.
X135.753 Z23.953 I-0.397 J0.
X136.547 Z23.945 I0.397 J0.
X135.753 Z23.938 I-0.397 J0.
X136.547 Z23.93 I0.397 J0.
X135.753 Z23.922 I-0.397 J0.
X136.547 Z23.914 I0.397 J0.
X135.753 Z23.906 I-0.397 J0.
X136.547 Z23.899 I0.397 J0.
X135.753 Z23.891 I-0.397 J0.
X136.547 Z23.883 I0.397 J0.
X135.753 Z23.875 I-0.397 J0.
X136.547 Z23.867 I0.397 J0.
X135.753 Z23.86 I-0.397 J0.
X136.547 Z23.852 I0.397 J0.
X135.753 Z23.844 I-0.397 J0.
X136.547 Z23.836 I0.397 J0.
X135.753 Z23.828 I-0.397 J0.
X136.547 Z23.821 I0.397 J0.
X135.753 Z23.813 I-0.397 J0.
X136.547 Z23.805 I0.397 J0.
X135.753 Z23.797 I-0.397 J0.
X136.547 Z23.789 I0.397 J0.
X135.753 Z23.782 I-0.397 J0.
X136.547 Z23.774 I0.397 J0.
X135.753 Z23.766 I-0.397 J0.
X136.547 Z23.758 I0.397 J0.
X135.753 Z23.751 I-0.397 J0.
X136.547 Z23.743 I0.397 J0.
X135.753 Z23.735 I-0.397 J0.
X136.547 Z23.727 I0.397 J0.
X135.753 Z23.719 I-0.397 J0.
X136.547 Z23.712 I0.397 J0.
X135.753 Z23.704 I-0.397 J0.
X136.547 Z23.696 I0.397 J0.
X135.753 Z23.688 I-0.397 J0.
X136.547 Z23.68 I0.397 J0.
X135.753 Z23.673 I-0.397 J0.
X136.547 Z23.665 I0.397 J0.
X135.753 Z23.657 I-0.397 J0.
X136.547 Z23.649 I0.397 J0.
X135.753 Z23.641 I-0.397 J0.
X136.547 Z23.634 I0.397 J0.
X135.753 Z23.626 I-0.397 J0.
X136.547 Z23.618 I0.397 J0.
X135.753 Z23.61 I-0.397 J0.
X136.547 Z23.602 I0.397 J0.
X135.753 Z23.595 I-0.397 J0.
X136.547 Z23.587 I0.397 J0.
X135.753 Z23.579 I-0.397 J0.
X136.547 Z23.571 I0.397 J0.
X135.753 Z23.563 I-0.397 J0.
X136.547 Z23.556 I0.397 J0.
X135.753 Z23.548 I-0.397 J0.
X136.547 Z23.54 I0.397 J0.
X135.753 Z23.532 I-0.397 J0.
X136.547 Z23.525 I0.397 J0.
X135.753 Z23.517 I-0.397 J0.
X136.547 Z23.509 I0.397 J0.
X135.753 Z23.501 I-0.397 J0.
X136.547 Z23.493 I0.397 J0.
X135.753 Z23.486 I-0.397 J0.
X136.547 Z23.478 I0.397 J0.
X135.753 Z23.47 I-0.397 J0.
X136.547 Z23.462 I0.397 J0.
X135.753 Z23.454 I-0.397 J0.
X136.547 Z23.447 I0.397 J0.
X135.753 Z23.439 I-0.397 J0.
X136.547 Z23.431 I0.397 J0.
X135.753 Z23.423 I-0.397 J0.
X136.547 Z23.415 I0.397 J0.
X135.753 Z23.408 I-0.397 J0.
X136.547 Z23.4 I0.397 J0.
X135.753 Z23.392 I-0.397 J0.
X136.547 Z23.384 I0.397 J0.
X135.753 Z23.376 I-0.397 J0.
X136.547 Z23.369 I0.397 J0.
X135.753 Z23.361 I-0.397 J0.
X136.547 Z23.353 I0.397 J0.
X135.753 Z23.345 I-0.397 J0.
X136.547 Z23.337 I0.397 J0.
X135.753 Z23.33 I-0.397 J0.
X136.547 Z23.322 I0.397 J0.
X135.753 Z23.314 I-0.397 J0.
X136.547 Z23.306 I0.397 J0.
X135.753 Z23.299 I-0.397 J0.
X136.547 Z23.291 I0.397 J0.
X135.753 Z23.283 I-0.397 J0.
X136.547 Z23.275 I0.397 J0.
X135.753 Z23.267 I-0.397 J0.
X136.547 Z23.26 I0.397 J0.
X135.753 Z23.252 I-0.397 J0.
X136.547 Z23.244 I0.397 J0.
X135.753 Z23.236 I-0.397 J0.
X136.547 Z23.228 I0.397 J0.
X135.753 Z23.221 I-0.397 J0.
X136.547 Z23.213 I0.397 J0.
X135.753 Z23.205 I-0.397 J0.
X136.547 Z23.197 I0.397 J0.
X135.753 Z23.189 I-0.397 J0.
X136.547 Z23.182 I0.397 J0.
X135.753 Z23.174 I-0.397 J0.
X136.547 Z23.166 I0.397 J0.
X135.753 Z23.158 I-0.397 J0.
X136.547 Z23.15 I0.397 J0.
X135.753 Z23.143 I-0.397 J0.
X136.547 Z23.135 I0.397 J0.
X135.753 Z23.127 I-0.397 J0.
X136.547 Z23.119 I0.397 J0.
X135.753 Z23.112 I-0.397 J0.
X136.547 Z23.104 I0.397 J0.
X135.753 Z23.096 I-0.397 J0.
X136.547 Z23.088 I0.397 J0.
X135.753 Z23.08 I-0.397 J0.
X136.547 Z23.073 I0.397 J0.
X135.753 Z23.065 I-0.397 J0.
X136.547 Z23.057 I0.397 J0.
X135.753 Z23.049 I-0.397 J0.
X136.547 Z23.041 I0.397 J0.
X135.753 Z23.034 I-0.397 J0.
X136.547 Z23.026 I0.397 J0.
X135.753 Z23.018 I-0.397 J0.
X136.547 Z23.01 I0.397 J0.
X135.753 Z23.002 I-0.397 J0.
X136.547 Z22.995 I0.397 J0.
X135.753 Z22.987 I-0.397 J0.
X136.547 Z22.979 I0.397 J0.
X135.753 Z22.971 I-0.397 J0.
X136.547 Z22.963 I0.397 J0.
X135.753 Z22.956 I-0.397 J0.
X136.547 Z22.948 I0.397 J0.
X135.753 Z22.94 I-0.397 J0.
X136.547 Z22.932 I0.397 J0.
X135.753 Z22.924 I-0.397 J0.
X136.547 Z22.917 I0.397 J0.
X135.753 Z22.909 I-0.397 J0.
X136.547 Z22.901 I0.397 J0.
X135.753 Z22.893 I-0.397 J0.
X136.547 Z22.886 I0.397 J0.
X135.753 Z22.878 I-0.397 J0.
X136.547 Z22.87 I0.397 J0.
X135.753 Z22.862 I-0.397 J0.
X136.547 Z22.854 I0.397 J0.
X135.753 Z22.847 I-0.397 J0.
X136.547 Z22.839 I0.397 J0.
X135.753 Z22.831 I-0.397 J0.
X136.547 Z22.823 I0.397 J0.
X135.753 Z22.815 I-0.397 J0.
X136.547 Z22.808 I0.397 J0.
X135.753 Z22.8 I-0.397 J0.
X136.547 Z22.792 I0.397 J0.
X135.753 Z22.784 I-0.397 J0.
X136.547 Z22.776 I0.397 J0.
X135.753 Z22.769 I-0.397 J0.
X136.547 Z22.761 I0.397 J0.
X135.753 Z22.753 I-0.397 J0.
X136.547 Z22.745 I0.397 J0.
X135.753 Z22.737 I-0.397 J0.
X136.547 Z22.73 I0.397 J0.
X135.753 Z22.722 I-0.397 J0.
X136.547 Z22.714 I0.397 J0.
X135.753 Z22.706 I-0.397 J0.
X136.547 Z22.698 I0.397 J0.
X135.753 Z22.691 I-0.397 J0.
X136.547 Z22.683 I0.397 J0.
X135.753 Z22.675 I-0.397 J0.
X136.547 Z22.667 I0.397 J0.
X135.753 Z22.66 I-0.397 J0.
X136.547 Z22.652 I0.397 J0.
X135.753 Z22.644 I-0.397 J0.
X136.547 Z22.636 I0.397 J0.
X135.753 Z22.628 I-0.397 J0.
X136.547 Z22.621 I0.397 J0.
X135.753 Z22.613 I-0.397 J0.
X136.547 Z22.605 I0.397 J0.
X135.753 Z22.597 I-0.397 J0.
X136.547 Z22.589 I0.397 J0.
X135.753 Z22.582 I-0.397 J0.
X136.547 Z22.574 I0.397 J0.
X135.753 Z22.566 I-0.397 J0.
X136.547 Z22.558 I0.397 J0.
X135.753 Z22.55 I-0.397 J0.
X136.547 Z22.543 I0.397 J0.
X135.753 Z22.535 I-0.397 J0.
X136.547 Z22.527 I0.397 J0.
X135.753 Z22.519 I-0.397 J0.
X136.547 Z22.511 I0.397 J0.
X135.753 Z22.504 I-0.397 J0.
X136.547 Z22.496 I0.397 J0.
X135.753 Z22.488 I-0.397 J0.
X136.547 Z22.48 I0.397 J0.
X135.753 Z22.473 I-0.397 J0.
X136.547 Z22.465 I0.397 J0.
X135.753 Z22.457 I-0.397 J0.
X136.547 Z22.449 I0.397 J0.
X135.753 Z22.441 I-0.397 J0.
X136.547 Z22.434 I0.397 J0.
X135.753 Z22.426 I-0.397 J0.
X136.547 Z22.418 I0.397 J0.
X135.753 Z22.41 I-0.397 J0.
X136.547 Z22.402 I0.397 J0.
X135.753 Z22.395 I-0.397 J0.
X136.547 Z22.387 I0.397 J0.
X135.753 Z22.379 I-0.397 J0.
X136.547 Z22.371 I0.397 J0.
X135.753 Z22.363 I-0.397 J0.
X136.547 Z22.356 I0.397 J0.
X135.753 Z22.348 I-0.397 J0.
X136.547 Z22.34 I0.397 J0.
X135.753 Z22.332 I-0.397 J0.
X136.547 Z22.324 I0.397 J0.
X135.753 Z22.317 I-0.397 J0.
X136.547 Z22.309 I0.397 J0.
X135.753 Z22.301 I-0.397 J0.
X136.547 Z22.293 I0.397 J0.
X135.753 Z22.285 I-0.397 J0.
X136.547 Z22.278 I0.397 J0.
X135.753 Z22.27 I-0.397 J0.
X136.547 Z22.262 I0.397 J0.
X135.753 Z22.254 I-0.397 J0.
X136.547 Z22.247 I0.397 J0.
X135.753 Z22.239 I-0.397 J0.
X136.547 Z22.231 I0.397 J0.
X135.753 Z22.223 I-0.397 J0.
X136.547 Z22.215 I0.397 J0.
X135.753 Z22.208 I-0.397 J0.
X136.547 Z22.2 I0.397 J0.
X135.753 Z22.192 I-0.397 J0.
X136.547 Z22.184 I0.397 J0.
X135.753 Z22.176 I-0.397 J0.
X136.547 Z22.169 I0.397 J0.
X135.753 Z22.161 I-0.397 J0.
X136.547 Z22.153 I0.397 J0.
X135.753 Z22.145 I-0.397 J0.
X136.547 Z22.137 I0.397 J0.
X135.753 Z22.13 I-0.397 J0.
X136.547 Z22.122 I0.397 J0.
X135.753 Z22.114 I-0.397 J0.
X136.547 Z22.106 I0.397 J0.
X135.753 Z22.098 I-0.397 J0.
X136.547 Z22.091 I0.397 J0.
X135.753 Z22.083 I-0.397 J0.
X136.547 Z22.075 I0.397 J0.
X135.753 Z22.067 I-0.397 J0.
X136.547 Z22.06 I0.397 J0.
X135.753 Z22.052 I-0.397 J0.
X136.547 Z22.044 I0.397 J0.
X135.753 Z22.036 I-0.397 J0.
X136.547 Z22.028 I0.397 J0.
X135.753 Z22.021 I-0.397 J0.
X136.547 Z22.013 I0.397 J0.
X135.753 Z22.005 I-0.397 J0.
X136.547 Z21.997 I0.397 J0.
X135.753 Z21.989 I-0.397 J0.
X136.547 Z21.982 I0.397 J0.
X135.753 Z21.974 I-0.397 J0.
X136.547 Z21.966 I0.397 J0.
X135.753 Z21.958 I-0.397 J0.
X136.547 Z21.95 I0.397 J0.
X135.753 Z21.943 I-0.397 J0.
X136.547 Z21.935 I0.397 J0.
X135.753 Z21.927 I-0.397 J0.
X136.547 Z21.919 I0.397 J0.
X135.753 Z21.911 I-0.397 J0.
X136.547 Z21.904 I0.397 J0.
X135.753 Z21.896 I-0.397 J0.
X136.547 Z21.888 I0.397 J0.
X135.753 Z21.88 I-0.397 J0.
X136.547 Z21.872 I0.397 J0.
X135.753 Z21.865 I-0.397 J0.
X136.547 Z21.857 I0.397 J0.
X135.753 Z21.849 I-0.397 J0.
X136.547 Z21.841 I0.397 J0.
X135.753 Z21.834 I-0.397 J0.
X136.547 Z21.826 I0.397 J0.
X135.753 Z21.818 I-0.397 J0.
X136.547 Z21.81 I0.397 J0.
X135.753 Z21.802 I-0.397 J0.
X136.547 Z21.795 I0.397 J0.
X135.753 Z21.787 I-0.397 J0.
X136.547 Z21.779 I0.397 J0.
X135.753 Z21.771 I-0.397 J0.
X136.547 Z21.763 I0.397 J0.
X135.753 Z21.756 I-0.397 J0.
X136.547 Z21.748 I0.397 J0.
X135.753 Z21.74 I-0.397 J0.
X136.547 Z21.732 I0.397 J0.
X135.753 Z21.724 I-0.397 J0.
X136.547 Z21.717 I0.397 J0.
X135.753 Z21.709 I-0.397 J0.
X136.547 Z21.701 I0.397 J0.
X135.753 Z21.693 I-0.397 J0.
X136.547 Z21.685 I0.397 J0.
X135.753 Z21.678 I-0.397 J0.
X136.547 Z21.67 I0.397 J0.
X135.753 Z21.662 I-0.397 J0.
X136.547 Z21.654 I0.397 J0.
X135.753 Z21.646 I-0.397 J0.
X136.547 Z21.639 I0.397 J0.
X135.753 Z21.631 I-0.397 J0.
X136.547 Z21.623 I0.397 J0.
X135.753 Z21.615 I-0.397 J0.
X136.547 Z21.608 I0.397 J0.
X135.753 Z21.6 I-0.397 J0.
X136.547 Z21.592 I0.397 J0.
X135.753 Z21.584 I-0.397 J0.
X136.547 Z21.576 I0.397 J0.
X135.753 Z21.569 I-0.397 J0.
X136.547 Z21.561 I0.397 J0.
X135.753 Z21.553 I-0.397 J0.
X136.547 Z21.545 I0.397 J0.
X135.753 Z21.537 I-0.397 J0.
X136.547 Z21.53 I0.397 J0.
X135.753 Z21.522 I-0.397 J0.
X136.547 Z21.514 I0.397 J0.
X135.753 Z21.506 I-0.397 J0.
X136.547 Z21.498 I0.397 J0.
X135.753 Z21.491 I-0.397 J0.
X136.547 Z21.483 I0.397 J0.
X135.753 Z21.475 I-0.397 J0.
X136.547 Z21.467 I0.397 J0.
X135.753 Z21.459 I-0.397 J0.
X136.547 Z21.452 I0.397 J0.
X135.753 Z21.444 I-0.397 J0.
X136.547 Z21.436 I0.397 J0.
X135.753 Z21.428 I-0.397 J0.
X136.547 Z21.421 I0.397 J0.
X135.753 Z21.413 I-0.397 J0.
X136.547 Z21.405 I0.397 J0.
X135.753 Z21.397 I-0.397 J0.
X136.547 Z21.389 I0.397 J0.
X135.753 Z21.382 I-0.397 J0.
X136.547 Z21.374 I0.397 J0.
X135.753 Z21.366 I-0.397 J0.
X136.547 Z21.358 I0.397 J0.
X135.753 Z21.35 I-0.397 J0.
X136.547 Z21.343 I0.397 J0.
X135.753 Z21.335 I-0.397 J0.
X136.547 Z21.327 I0.397 J0.
X135.753 Z21.319 I-0.397 J0.
X136.547 Z21.311 I0.397 J0.
X135.753 Z21.304 I-0.397 J0.
X136.547 Z21.296 I0.397 J0.
X135.753 Z21.288 I-0.397 J0.
X136.547 Z21.28 I0.397 J0.
X135.753 Z21.272 I-0.397 J0.
X136.547 Z21.265 I0.397 J0.
X135.753 Z21.257 I-0.397 J0.
X136.547 Z21.249 I0.397 J0.
X135.753 Z21.241 I-0.397 J0.
X136.547 Z21.233 I0.397 J0.
X136.095 Y18.657 Z21.229 I-0.397 J0.
X135.768 Y19.159 Z21.225 I0.055 J0.393
X136.532 Y18.941 I0.382 J-0.109
X135.768 Y19.159 I-0.382 J0.109
X136.014 Y19.295 I0.191 J-0.055
G1 X136.319 Y19.208
G0 Z35.4
X104.519 Y18.852
Z27.765
G1 Z26.4 F800.
X104.202
G2 X104.003 Y19.05 I0. J0.198
X104.797 Z26.392 I0.397 J0.
X104.003 Z26.384 I-0.397 J0.
X104.797 Z26.377 I0.397 J0.
X104.003 Z26.369 I-0.397 J0.
X104.797 Z26.361 I0.397 J0.
X104.003 Z26.353 I-0.397 J0.
X104.797 Z26.345 I0.397 J0.
X104.003 Z26.338 I-0.397 J0.
X104.797 Z26.33 I0.397 J0.
X104.003 Z26.322 I-0.397 J0.
X104.797 Z26.314 I0.397 J0.
X104.003 Z26.306 I-0.397 J0.
X104.797 Z26.299 I0.397 J0.
X104.003 Z26.291 I-0.397 J0.
X104.797 Z26.283 I0.397 J0.
X104.003 Z26.275 I-0.397 J0.
X104.797 Z26.268 I0.397 J0.
X104.003 Z26.26 I-0.397 J0.
X104.797 Z26.252 I0.397 J0.
X104.003 Z26.244 I-0.397 J0.
X104.797 Z26.236 I0.397 J0.
X104.003 Z26.229 I-0.397 J0.
X104.797 Z26.221 I0.397 J0.
X104.003 Z26.213 I-0.397 J0.
X104.797 Z26.205 I0.397 J0.
X104.003 Z26.197 I-0.397 J0.
X104.797 Z26.19 I0.397 J0.
X104.003 Z26.182 I-0.397 J0.
X104.797 Z26.174 I0.397 J0.
X104.003 Z26.166 I-0.397 J0.
X104.797 Z26.158 I0.397 J0.
X104.003 Z26.151 I-0.397 J0.
X104.797 Z26.143 I0.397 J0.
X104.003 Z26.135 I-0.397 J0.
X104.797 Z26.127 I0.397 J0.
X104.003 Z26.119 I-0.397 J0.
X104.797 Z26.112 I0.397 J0.
X104.003 Z26.104 I-0.397 J0.
X104.797 Z26.096 I0.397 J0.
X104.003 Z26.088 I-0.397 J0.
X104.797 Z26.081 I0.397 J0.
X104.003 Z26.073 I-0.397 J0.
X104.797 Z26.065 I0.397 J0.
X104.003 Z26.057 I-0.397 J0.
X104.797 Z26.049 I0.397 J0.
X104.003 Z26.042 I-0.397 J0.
X104.797 Z26.034 I0.397 J0.
X104.003 Z26.026 I-0.397 J0.
X104.797 Z26.018 I0.397 J0.
X104.003 Z26.01 I-0.397 J0.
X104.797 Z26.003 I0.397 J0.
X104.003 Z25.995 I-0.397 J0.
X104.797 Z25.987 I0.397 J0.
X104.003 Z25.979 I-0.397 J0.
X104.797 Z25.971 I0.397 J0.
X104.003 Z25.964 I-0.397 J0.
X104.797 Z25.956 I0.397 J0.
X104.003 Z25.948 I-0.397 J0.
X104.797 Z25.94 I0.397 J0.
X104.003 Z25.932 I-0.397 J0.
X104.797 Z25.925 I0.397 J0.
X104.003 Z25.917 I-0.397 J0.
X104.797 Z25.909 I0.397 J0.
X104.003 Z25.901 I-0.397 J0.
X104.797 Z25.893 I0.397 J0.
X104.003 Z25.886 I-0.397 J0.
X104.797 Z25.878 I0.397 J0.
X104.003 Z25.87 I-0.397 J0.
X104.797 Z25.862 I0.397 J0.
X104.003 Z25.855 I-0.397 J0.
X104.797 Z25.847 I0.397 J0.
X104.003 Z25.839 I-0.397 J0.
X104.797 Z25.831 I0.397 J0.
X104.003 Z25.823 I-0.397 J0.
X104.797 Z25.816 I0.397 J0.
X104.003 Z25.808 I-0.397 J0.
X104.797 Z25.8 I0.397 J0.
X104.003 Z25.792 I-0.397 J0.
X104.797 Z25.784 I0.397 J0.
X104.003 Z25.777 I-0.397 J0.
X104.797 Z25.769 I0.397 J0.
X104.003 Z25.761 I-0.397 J0.
X104.797 Z25.753 I0.397 J0.
X104.003 Z25.745 I-0.397 J0.
X104.797 Z25.738 I0.397 J0.
X104.003 Z25.73 I-0.397 J0.
X104.797 Z25.722 I0.397 J0.
X104.003 Z25.714 I-0.397 J0.
X104.797 Z25.706 I0.397 J0.
X104.003 Z25.699 I-0.397 J0.
X104.797 Z25.691 I0.397 J0.
X104.003 Z25.683 I-0.397 J0.
X104.797 Z25.675 I0.397 J0.
X104.003 Z25.667 I-0.397 J0.
X104.797 Z25.66 I0.397 J0.
X104.003 Z25.652 I-0.397 J0.
X104.797 Z25.644 I0.397 J0.
X104.003 Z25.636 I-0.397 J0.
X104.797 Z25.629 I0.397 J0.
X104.003 Z25.621 I-0.397 J0.
X104.797 Z25.613 I0.397 J0.
X104.003 Z25.605 I-0.397 J0.
X104.797 Z25.597 I0.397 J0.
X104.003 Z25.59 I-0.397 J0.
X104.797 Z25.582 I0.397 J0.
X104.003 Z25.574 I-0.397 J0.
X104.797 Z25.566 I0.397 J0.
X104.003 Z25.558 I-0.397 J0.
X104.797 Z25.551 I0.397 J0.
X104.003 Z25.543 I-0.397 J0.
X104.797 Z25.535 I0.397 J0.
X104.003 Z25.527 I-0.397 J0.
X104.797 Z25.519 I0.397 J0.
X104.003 Z25.512 I-0.397 J0.
X104.797 Z25.504 I0.397 J0.
X104.003 Z25.496 I-0.397 J0.
X104.797 Z25.488 I0.397 J0.
X104.003 Z25.48 I-0.397 J0.
X104.797 Z25.473 I0.397 J0.
X104.003 Z25.465 I-0.397 J0.
X104.797 Z25.457 I0.397 J0.
X104.003 Z25.449 I-0.397 J0.
X104.797 Z25.442 I0.397 J0.
X104.003 Z25.434 I-0.397 J0.
X104.797 Z25.426 I0.397 J0.
X104.003 Z25.418 I-0.397 J0.
X104.797 Z25.41 I0.397 J0.
X104.003 Z25.403 I-0.397 J0.
X104.797 Z25.395 I0.397 J0.
X104.003 Z25.387 I-0.397 J0.
X104.797 Z25.379 I0.397 J0.
X104.003 Z25.371 I-0.397 J0.
X104.797 Z25.364 I0.397 J0.
X104.003 Z25.356 I-0.397 J0.
X104.797 Z25.348 I0.397 J0.
X104.003 Z25.34 I-0.397 J0.
X104.797 Z25.332 I0.397 J0.
X104.003 Z25.325 I-0.397 J0.
X104.797 Z25.317 I0.397 J0.
X104.003 Z25.309 I-0.397 J0.
X104.797 Z25.301 I0.397 J0.
X104.003 Z25.293 I-0.397 J0.
X104.797 Z25.286 I0.397 J0.
X104.003 Z25.278 I-0.397 J0.
X104.797 Z25.27 I0.397 J0.
X104.003 Z25.262 I-0.397 J0.
X104.797 Z25.254 I0.397 J0.
X104.003 Z25.247 I-0.397 J0.
X104.797 Z25.239 I0.397 J0.
X104.003 Z25.231 I-0.397 J0.
X104.797 Z25.223 I0.397 J0.
X104.003 Z25.216 I-0.397 J0.
X104.797 Z25.208 I0.397 J0.
X104.003 Z25.2 I-0.397 J0.
X104.797 Z25.192 I0.397 J0.
X104.003 Z25.184 I-0.397 J0.
X104.797 Z25.177 I0.397 J0.
X104.003 Z25.169 I-0.397 J0.
X104.797 Z25.161 I0.397 J0.
X104.003 Z25.153 I-0.397 J0.
X104.797 Z25.145 I0.397 J0.
X104.003 Z25.138 I-0.397 J0.
X104.797 Z25.13 I0.397 J0.
X104.003 Z25.122 I-0.397 J0.
X104.797 Z25.114 I0.397 J0.
X104.003 Z25.106 I-0.397 J0.
X104.797 Z25.099 I0.397 J0.
X104.003 Z25.091 I-0.397 J0.
X104.797 Z25.083 I0.397 J0.
X104.003 Z25.075 I-0.397 J0.
X104.797 Z25.067 I0.397 J0.
X104.003 Z25.06 I-0.397 J0.
X104.797 Z25.052 I0.397 J0.
X104.003 Z25.044 I-0.397 J0.
X104.797 Z25.036 I0.397 J0.
X104.003 Z25.028 I-0.397 J0.
X104.797 Z25.021 I0.397 J0.
X104.003 Z25.013 I-0.397 J0.
X104.797 Z25.005 I0.397 J0.
X104.003 Z24.997 I-0.397 J0.
X104.797 Z24.99 I0.397 J0.
X104.003 Z24.982 I-0.397 J0.
X104.797 Z24.974 I0.397 J0.
X104.003 Z24.966 I-0.397 J0.
X104.797 Z24.958 I0.397 J0.
X104.003 Z24.951 I-0.397 J0.
X104.797 Z24.943 I0.397 J0.
X104.003 Z24.935 I-0.397 J0.
X104.797 Z24.927 I0.397 J0.
X104.003 Z24.919 I-0.397 J0.
X104.797 Z24.912 I0.397 J0.
X104.003 Z24.904 I-0.397 J0.
X104.797 Z24.896 I0.397 J0.
X104.003 Z24.888 I-0.397 J0.
X104.797 Z24.88 I0.397 J0.
X104.003 Z24.873 I-0.397 J0.
X104.797 Z24.865 I0.397 J0.
X104.003 Z24.857 I-0.397 J0.
X104.797 Z24.849 I0.397 J0.
X104.003 Z24.841 I-0.397 J0.
X104.797 Z24.834 I0.397 J0.
X104.003 Z24.826 I-0.397 J0.
X104.797 Z24.818 I0.397 J0.
X104.003 Z24.81 I-0.397 J0.
X104.797 Z24.803 I0.397 J0.
X104.003 Z24.795 I-0.397 J0.
X104.797 Z24.787 I0.397 J0.
X104.003 Z24.779 I-0.397 J0.
X104.797 Z24.771 I0.397 J0.
X104.003 Z24.764 I-0.397 J0.
X104.797 Z24.756 I0.397 J0.
X104.003 Z24.748 I-0.397 J0.
X104.797 Z24.74 I0.397 J0.
X104.003 Z24.732 I-0.397 J0.
X104.797 Z24.725 I0.397 J0.
X104.003 Z24.717 I-0.397 J0.
X104.797 Z24.709 I0.397 J0.
X104.003 Z24.701 I-0.397 J0.
X104.797 Z24.693 I0.397 J0.
X104.003 Z24.686 I-0.397 J0.
X104.797 Z24.678 I0.397 J0.
X104.003 Z24.67 I-0.397 J0.
X104.797 Z24.662 I0.397 J0.
X104.003 Z24.654 I-0.397 J0.
X104.797 Z24.647 I0.397 J0.
X104.003 Z24.639 I-0.397 J0.
X104.797 Z24.631 I0.397 J0.
X104.003 Z24.623 I-0.397 J0.
X104.797 Z24.615 I0.397 J0.
X104.003 Z24.608 I-0.397 J0.
X104.797 Z24.6 I0.397 J0.
X104.003 Z24.592 I-0.397 J0.
X104.797 Z24.584 I0.397 J0.
X104.003 Z24.577 I-0.397 J0.
X104.797 Z24.569 I0.397 J0.
X104.003 Z24.561 I-0.397 J0.
X104.797 Z24.553 I0.397 J0.
X104.003 Z24.545 I-0.397 J0.
X104.797 Z24.538 I0.397 J0.
X104.003 Z24.53 I-0.397 J0.
X104.797 Z24.522 I0.397 J0.
X104.003 Z24.514 I-0.397 J0.
X104.797 Z24.506 I0.397 J0.
X104.003 Z24.499 I-0.397 J0.
X104.797 Z24.491 I0.397 J0.
X104.003 Z24.483 I-0.397 J0.
X104.797 Z24.475 I0.397 J0.
X104.003 Z24.467 I-0.397 J0.
X104.797 Z24.46 I0.397 J0.
X104.003 Z24.452 I-0.397 J0.
X104.797 Z24.444 I0.397 J0.
X104.003 Z24.436 I-0.397 J0.
X104.797 Z24.428 I0.397 J0.
X104.003 Z24.421 I-0.397 J0.
X104.797 Z24.413 I0.397 J0.
X104.003 Z24.405 I-0.397 J0.
X104.797 Z24.397 I0.397 J0.
X104.003 Z24.39 I-0.397 J0.
X104.797 Z24.382 I0.397 J0.
X104.003 Z24.374 I-0.397 J0.
X104.797 Z24.366 I0.397 J0.
X104.003 Z24.358 I-0.397 J0.
X104.797 Z24.351 I0.397 J0.
X104.003 Z24.343 I-0.397 J0.
X104.797 Z24.335 I0.397 J0.
X104.003 Z24.327 I-0.397 J0.
X104.797 Z24.319 I0.397 J0.
X104.003 Z24.312 I-0.397 J0.
X104.797 Z24.304 I0.397 J0.
X104.003 Z24.296 I-0.397 J0.
X104.797 Z24.288 I0.397 J0.
X104.003 Z24.28 I-0.397 J0.
X104.797 Z24.273 I0.397 J0.
X104.003 Z24.265 I-0.397 J0.
X104.797 Z24.257 I0.397 J0.
X104.003 Z24.249 I-0.397 J0.
X104.797 Z24.241 I0.397 J0.
X104.003 Z24.234 I-0.397 J0.
X104.797 Z24.226 I0.397 J0.
X104.003 Z24.218 I-0.397 J0.
X104.797 Z24.21 I0.397 J0.
X104.003 Z24.202 I-0.397 J0.
X104.797 Z24.195 I0.397 J0.
X104.003 Z24.187 I-0.397 J0.
X104.797 Z24.179 I0.397 J0.
X104.003 Z24.171 I-0.397 J0.
X104.797 Z24.164 I0.397 J0.
X104.003 Z24.156 I-0.397 J0.
X104.797 Z24.148 I0.397 J0.
X104.003 Z24.14 I-0.397 J0.
X104.797 Z24.132 I0.397 J0.
X104.003 Z24.125 I-0.397 J0.
X104.797 Z24.117 I0.397 J0.
X104.003 Z24.109 I-0.397 J0.
X104.797 Z24.101 I0.397 J0.
X104.003 Z24.093 I-0.397 J0.
X104.797 Z24.086 I0.397 J0.
X104.003 Z24.078 I-0.397 J0.
X104.797 Z24.07 I0.397 J0.
X104.003 Z24.062 I-0.397 J0.
X104.797 Z24.054 I0.397 J0.
X104.003 Z24.047 I-0.397 J0.
X104.797 Z24.039 I0.397 J0.
X104.003 Z24.031 I-0.397 J0.
X104.797 Z24.023 I0.397 J0.
X104.003 Z24.015 I-0.397 J0.
X104.797 Z24.008 I0.397 J0.
X104.003 Z24. I-0.397 J0.
X104.797 Z23.992 I0.397 J0.
X104.003 Z23.984 I-0.397 J0.
X104.797 Z23.976 I0.397 J0.
X104.003 Z23.969 I-0.397 J0.
X104.797 Z23.961 I0.397 J0.
X104.003 Z23.953 I-0.397 J0.
X104.797 Z23.945 I0.397 J0.
X104.003 Z23.938 I-0.397 J0.
X104.797 Z23.93 I0.397 J0.
X104.003 Z23.922 I-0.397 J0.
X104.797 Z23.914 I0.397 J0.
X104.003 Z23.906 I-0.397 J0.
X104.797 Z23.899 I0.397 J0.
X104.003 Z23.891 I-0.397 J0.
X104.797 Z23.883 I0.397 J0.
X104.003 Z23.875 I-0.397 J0.
X104.797 Z23.867 I0.397 J0.
X104.003 Z23.86 I-0.397 J0.
X104.797 Z23.852 I0.397 J0.
X104.003 Z23.844 I-0.397 J0.
X104.797 Z23.836 I0.397 J0.
X104.003 Z23.828 I-0.397 J0.
X104.797 Z23.821 I0.397 J0.
X104.003 Z23.813 I-0.397 J0.
X104.797 Z23.805 I0.397 J0.
X104.003 Z23.797 I-0.397 J0.
X104.797 Z23.789 I0.397 J0.
X104.003 Z23.782 I-0.397 J0.
X104.797 Z23.774 I0.397 J0.
X104.003 Z23.766 I-0.397 J0.
X104.797 Z23.758 I0.397 J0.
X104.003 Z23.751 I-0.397 J0.
X104.797 Z23.743 I0.397 J0.
X104.003 Z23.735 I-0.397 J0.
X104.797 Z23.727 I0.397 J0.
X104.003 Z23.719 I-0.397 J0.
X104.797 Z23.712 I0.397 J0.
X104.003 Z23.704 I-0.397 J0.
X104.797 Z23.696 I0.397 J0.
X104.003 Z23.688 I-0.397 J0.
X104.797 Z23.68 I0.397 J0.
X104.003 Z23.673 I-0.397 J0.
X104.797 Z23.665 I0.397 J0.
X104.003 Z23.657 I-0.397 J0.
X104.797 Z23.649 I0.397 J0.
X104.003 Z23.641 I-0.397 J0.
X104.797 Z23.634 I0.397 J0.
X104.003 Z23.626 I-0.397 J0.
X104.797 Z23.618 I0.397 J0.
X104.003 Z23.61 I-0.397 J0.
X104.797 Z23.602 I0.397 J0.
X104.003 Z23.595 I-0.397 J0.
X104.797 Z23.587 I0.397 J0.
X104.003 Z23.579 I-0.397 J0.
X104.797 Z23.571 I0.397 J0.
X104.003 Z23.563 I-0.397 J0.
X104.797 Z23.556 I0.397 J0.
X104.003 Z23.548 I-0.397 J0.
X104.797 Z23.54 I0.397 J0.
X104.003 Z23.532 I-0.397 J0.
X104.797 Z23.525 I0.397 J0.
X104.003 Z23.517 I-0.397 J0.
X104.797 Z23.509 I0.397 J0.
X104.003 Z23.501 I-0.397 J0.
X104.797 Z23.493 I0.397 J0.
X104.003 Z23.486 I-0.397 J0.
X104.797 Z23.478 I0.397 J0.
X104.003 Z23.47 I-0.397 J0.
X104.797 Z23.462 I0.397 J0.
X104.003 Z23.454 I-0.397 J0.
X104.797 Z23.447 I0.397 J0.
X104.003 Z23.439 I-0.397 J0.
X104.797 Z23.431 I0.397 J0.
X104.003 Z23.423 I-0.397 J0.
X104.797 Z23.415 I0.397 J0.
X104.003 Z23.408 I-0.397 J0.
X104.797 Z23.4 I0.397 J0.
X104.003 Z23.392 I-0.397 J0.
X104.797 Z23.384 I0.397 J0.
X104.003 Z23.376 I-0.397 J0.
X104.797 Z23.369 I0.397 J0.
X104.003 Z23.361 I-0.397 J0.
X104.797 Z23.353 I0.397 J0.
X104.003 Z23.345 I-0.397 J0.
X104.797 Z23.337 I0.397 J0.
X104.003 Z23.33 I-0.397 J0.
X104.797 Z23.322 I0.397 J0.
X104.003 Z23.314 I-0.397 J0.
X104.797 Z23.306 I0.397 J0.
X104.003 Z23.299 I-0.397 J0.
X104.797 Z23.291 I0.397 J0.
X104.003 Z23.283 I-0.397 J0.
X104.797 Z23.275 I0.397 J0.
X104.003 Z23.267 I-0.397 J0.
X104.797 Z23.26 I0.397 J0.
X104.003 Z23.252 I-0.397 J0.
X104.797 Z23.244 I0.397 J0.
X104.003 Z23.236 I-0.397 J0.
X104.797 Z23.228 I0.397 J0.
X104.003 Z23.221 I-0.397 J0.
X104.797 Z23.213 I0.397 J0.
X104.003 Z23.205 I-0.397 J0.
X104.797 Z23.197 I0.397 J0.
X104.003 Z23.189 I-0.397 J0.
X104.797 Z23.182 I0.397 J0.
X104.003 Z23.174 I-0.397 J0.
X104.797 Z23.166 I0.397 J0.
X104.003 Z23.158 I-0.397 J0.
X104.797 Z23.15 I0.397 J0.
X104.003 Z23.143 I-0.397 J0.
X104.797 Z23.135 I0.397 J0.
X104.003 Z23.127 I-0.397 J0.
X104.797 Z23.119 I0.397 J0.
X104.003 Z23.112 I-0.397 J0.
X104.797 Z23.104 I0.397 J0.
X104.003 Z23.096 I-0.397 J0.
X104.797 Z23.088 I0.397 J0.
X104.003 Z23.08 I-0.397 J0.
X104.797 Z23.073 I0.397 J0.
X104.003 Z23.065 I-0.397 J0.
X104.797 Z23.057 I0.397 J0.
X104.003 Z23.049 I-0.397 J0.
X104.797 Z23.041 I0.397 J0.
X104.003 Z23.034 I-0.397 J0.
X104.797 Z23.026 I0.397 J0.
X104.003 Z23.018 I-0.397 J0.
X104.797 Z23.01 I0.397 J0.
X104.003 Z23.002 I-0.397 J0.
X104.797 Z22.995 I0.397 J0.
X104.003 Z22.987 I-0.397 J0.
X104.797 Z22.979 I0.397 J0.
X104.003 Z22.971 I-0.397 J0.
X104.797 Z22.963 I0.397 J0.
X104.003 Z22.956 I-0.397 J0.
X104.797 Z22.948 I0.397 J0.
X104.003 Z22.94 I-0.397 J0.
X104.797 Z22.932 I0.397 J0.
X104.003 Z22.924 I-0.397 J0.
X104.797 Z22.917 I0.397 J0.
X104.003 Z22.909 I-0.397 J0.
X104.797 Z22.901 I0.397 J0.
X104.003 Z22.893 I-0.397 J0.
X104.797 Z22.886 I0.397 J0.
X104.003 Z22.878 I-0.397 J0.
X104.797 Z22.87 I0.397 J0.
X104.003 Z22.862 I-0.397 J0.
X104.797 Z22.854 I0.397 J0.
X104.003 Z22.847 I-0.397 J0.
X104.797 Z22.839 I0.397 J0.
X104.003 Z22.831 I-0.397 J0.
X104.797 Z22.823 I0.397 J0.
X104.003 Z22.815 I-0.397 J0.
X104.797 Z22.808 I0.397 J0.
X104.003 Z22.8 I-0.397 J0.
X104.797 Z22.792 I0.397 J0.
X104.003 Z22.784 I-0.397 J0.
X104.797 Z22.776 I0.397 J0.
X104.003 Z22.769 I-0.397 J0.
X104.797 Z22.761 I0.397 J0.
X104.003 Z22.753 I-0.397 J0.
X104.797 Z22.745 I0.397 J0.
X104.003 Z22.737 I-0.397 J0.
X104.797 Z22.73 I0.397 J0.
X104.003 Z22.722 I-0.397 J0.
X104.797 Z22.714 I0.397 J0.
X104.003 Z22.706 I-0.397 J0.
X104.797 Z22.698 I0.397 J0.
X104.003 Z22.691 I-0.397 J0.
X104.797 Z22.683 I0.397 J0.
X104.003 Z22.675 I-0.397 J0.
X104.797 Z22.667 I0.397 J0.
X104.003 Z22.66 I-0.397 J0.
X104.797 Z22.652 I0.397 J0.
X104.003 Z22.644 I-0.397 J0.
X104.797 Z22.636 I0.397 J0.
X104.003 Z22.628 I-0.397 J0.
X104.797 Z22.621 I0.397 J0.
X104.003 Z22.613 I-0.397 J0.
X104.797 Z22.605 I0.397 J0.
X104.003 Z22.597 I-0.397 J0.
X104.797 Z22.589 I0.397 J0.
X104.003 Z22.582 I-0.397 J0.
X104.797 Z22.574 I0.397 J0.
X104.003 Z22.566 I-0.397 J0.
X104.797 Z22.558 I0.397 J0.
X104.003 Z22.55 I-0.397 J0.
X104.797 Z22.543 I0.397 J0.
X104.003 Z22.535 I-0.397 J0.
X104.797 Z22.527 I0.397 J0.
X104.003 Z22.519 I-0.397 J0.
X104.797 Z22.511 I0.397 J0.
X104.003 Z22.504 I-0.397 J0.
X104.797 Z22.496 I0.397 J0.
X104.003 Z22.488 I-0.397 J0.
X104.797 Z22.48 I0.397 J0.
X104.003 Z22.473 I-0.397 J0.
X104.797 Z22.465 I0.397 J0.
X104.003 Z22.457 I-0.397 J0.
X104.797 Z22.449 I0.397 J0.
X104.003 Z22.441 I-0.397 J0.
X104.797 Z22.434 I0.397 J0.
X104.003 Z22.426 I-0.397 J0.
X104.797 Z22.418 I0.397 J0.
X104.003 Z22.41 I-0.397 J0.
X104.797 Z22.402 I0.397 J0.
X104.003 Z22.395 I-0.397 J0.
X104.797 Z22.387 I0.397 J0.
X104.003 Z22.379 I-0.397 J0.
X104.797 Z22.371 I0.397 J0.
X104.003 Z22.363 I-0.397 J0.
X104.797 Z22.356 I0.397 J0.
X104.003 Z22.348 I-0.397 J0.
X104.797 Z22.34 I0.397 J0.
X104.003 Z22.332 I-0.397 J0.
X104.797 Z22.324 I0.397 J0.
X104.003 Z22.317 I-0.397 J0.
X104.797 Z22.309 I0.397 J0.
X104.003 Z22.301 I-0.397 J0.
X104.797 Z22.293 I0.397 J0.
X104.003 Z22.285 I-0.397 J0.
X104.797 Z22.278 I0.397 J0.
X104.003 Z22.27 I-0.397 J0.
X104.797 Z22.262 I0.397 J0.
X104.003 Z22.254 I-0.397 J0.
X104.797 Z22.247 I0.397 J0.
X104.003 Z22.239 I-0.397 J0.
X104.797 Z22.231 I0.397 J0.
X104.003 Z22.223 I-0.397 J0.
X104.797 Z22.215 I0.397 J0.
X104.003 Z22.208 I-0.397 J0.
X104.797 Z22.2 I0.397 J0.
X104.003 Z22.192 I-0.397 J0.
X104.797 Z22.184 I0.397 J0.
X104.003 Z22.176 I-0.397 J0.
X104.797 Z22.169 I0.397 J0.
X104.003 Z22.161 I-0.397 J0.
X104.797 Z22.153 I0.397 J0.
X104.003 Z22.145 I-0.397 J0.
X104.797 Z22.137 I0.397 J0.
X104.003 Z22.13 I-0.397 J0.
X104.797 Z22.122 I0.397 J0.
X104.003 Z22.114 I-0.397 J0.
X104.797 Z22.106 I0.397 J0.
X104.003 Z22.098 I-0.397 J0.
X104.797 Z22.091 I0.397 J0.
X104.003 Z22.083 I-0.397 J0.
X104.797 Z22.075 I0.397 J0.
X104.003 Z22.067 I-0.397 J0.
X104.797 Z22.06 I0.397 J0.
X104.003 Z22.052 I-0.397 J0.
X104.797 Z22.044 I0.397 J0.
X104.003 Z22.036 I-0.397 J0.
X104.797 Z22.028 I0.397 J0.
X104.003 Z22.021 I-0.397 J0.
X104.797 Z22.013 I0.397 J0.
X104.003 Z22.005 I-0.397 J0.
X104.797 Z21.997 I0.397 J0.
X104.003 Z21.989 I-0.397 J0.
X104.797 Z21.982 I0.397 J0.
X104.003 Z21.974 I-0.397 J0.
X104.797 Z21.966 I0.397 J0.
X104.003 Z21.958 I-0.397 J0.
X104.797 Z21.95 I0.397 J0.
X104.003 Z21.943 I-0.397 J0.
X104.797 Z21.935 I0.397 J0.
X104.003 Z21.927 I-0.397 J0.
X104.797 Z21.919 I0.397 J0.
X104.003 Z21.911 I-0.397 J0.
X104.797 Z21.904 I0.397 J0.
X104.003 Z21.896 I-0.397 J0.
X104.797 Z21.888 I0.397 J0.
X104.003 Z21.88 I-0.397 J0.
X104.797 Z21.872 I0.397 J0.
X104.003 Z21.865 I-0.397 J0.
X104.797 Z21.857 I0.397 J0.
X104.003 Z21.849 I-0.397 J0.
X104.797 Z21.841 I0.397 J0.
X104.003 Z21.834 I-0.397 J0.
X104.797 Z21.826 I0.397 J0.
X104.003 Z21.818 I-0.397 J0.
X104.797 Z21.81 I0.397 J0.
X104.003 Z21.802 I-0.397 J0.
X104.797 Z21.795 I0.397 J0.
X104.003 Z21.787 I-0.397 J0.
X104.797 Z21.779 I0.397 J0.
X104.003 Z21.771 I-0.397 J0.
X104.797 Z21.763 I0.397 J0.
X104.003 Z21.756 I-0.397 J0.
X104.797 Z21.748 I0.397 J0.
X104.003 Z21.74 I-0.397 J0.
X104.797 Z21.732 I0.397 J0.
X104.003 Z21.724 I-0.397 J0.
X104.797 Z21.717 I0.397 J0.
X104.003 Z21.709 I-0.397 J0.
X104.797 Z21.701 I0.397 J0.
X104.003 Z21.693 I-0.397 J0.
X104.797 Z21.685 I0.397 J0.
X104.003 Z21.678 I-0.397 J0.
X104.797 Z21.67 I0.397 J0.
X104.003 Z21.662 I-0.397 J0.
X104.797 Z21.654 I0.397 J0.
X104.003 Z21.646 I-0.397 J0.
X104.797 Z21.639 I0.397 J0.
X104.003 Z21.631 I-0.397 J0.
X104.797 Z21.623 I0.397 J0.
X104.003 Z21.615 I-0.397 J0.
X104.797 Z21.608 I0.397 J0.
X104.003 Z21.6 I-0.397 J0.
X104.797 Z21.592 I0.397 J0.
X104.003 Z21.584 I-0.397 J0.
X104.797 Z21.576 I0.397 J0.
X104.003 Z21.569 I-0.397 J0.
X104.797 Z21.561 I0.397 J0.
X104.003 Z21.553 I-0.397 J0.
X104.797 Z21.545 I0.397 J0.
X104.003 Z21.537 I-0.397 J0.
X104.797 Z21.53 I0.397 J0.
X104.003 Z21.522 I-0.397 J0.
X104.797 Z21.514 I0.397 J0.
X104.003 Z21.506 I-0.397 J0.
X104.797 Z21.498 I0.397 J0.
X104.003 Z21.491 I-0.397 J0.
X104.797 Z21.483 I0.397 J0.
X104.003 Z21.475 I-0.397 J0.
X104.797 Z21.467 I0.397 J0.
X104.003 Z21.459 I-0.397 J0.
X104.797 Z21.452 I0.397 J0.
X104.003 Z21.444 I-0.397 J0.
X104.797 Z21.436 I0.397 J0.
X104.003 Z21.428 I-0.397 J0.
X104.797 Z21.421 I0.397 J0.
X104.003 Z21.413 I-0.397 J0.
X104.797 Z21.405 I0.397 J0.
X104.003 Z21.397 I-0.397 J0.
X104.797 Z21.389 I0.397 J0.
X104.003 Z21.382 I-0.397 J0.
X104.797 Z21.374 I0.397 J0.
X104.003 Z21.366 I-0.397 J0.
X104.797 Z21.358 I0.397 J0.
X104.003 Z21.35 I-0.397 J0.
X104.797 Z21.343 I0.397 J0.
X104.003 Z21.335 I-0.397 J0.
X104.797 Z21.327 I0.397 J0.
X104.003 Z21.319 I-0.397 J0.
X104.797 Z21.311 I0.397 J0.
X104.003 Z21.304 I-0.397 J0.
X104.797 Z21.296 I0.397 J0.
X104.003 Z21.288 I-0.397 J0.
X104.797 Z21.28 I0.397 J0.
X104.003 Z21.272 I-0.397 J0.
X104.797 Z21.265 I0.397 J0.
X104.003 Z21.257 I-0.397 J0.
X104.797 Z21.249 I0.397 J0.
X104.003 Z21.241 I-0.397 J0.
X104.797 Z21.233 I0.397 J0.
X104.345 Y18.657 Z21.229 I-0.397 J0.
X104.018 Y19.159 Z21.225 I0.055 J0.393
X104.782 Y18.941 I0.382 J-0.109
X104.018 Y19.159 I-0.382 J0.109
X104.264 Y19.295 I0.191 J-0.055
G1 X104.569 Y19.208
G0 Z35.4
X104.519 Y126.802
Z27.765
G1 Z26.4 F800.
X104.202
G2 X104.003 Y127. I0. J0.198
X104.797 Z26.392 I0.397 J0.
X104.003 Z26.384 I-0.397 J0.
X104.797 Z26.377 I0.397 J0.
X104.003 Z26.369 I-0.397 J0.
X104.797 Z26.361 I0.397 J0.
X104.003 Z26.353 I-0.397 J0.
X104.797 Z26.345 I0.397 J0.
X104.003 Z26.338 I-0.397 J0.
X104.797 Z26.33 I0.397 J0.
X104.003 Z26.322 I-0.397 J0.
X104.797 Z26.314 I0.397 J0.
X104.003 Z26.306 I-0.397 J0.
X104.797 Z26.299 I0.397 J0.
X104.003 Z26.291 I-0.397 J0.
X104.797 Z26.283 I0.397 J0.
X104.003 Z26.275 I-0.397 J0.
X104.797 Z26.268 I0.397 J0.
X104.003 Z26.26 I-0.397 J0.
X104.797 Z26.252 I0.397 J0.
X104.003 Z26.244 I-0.397 J0.
X104.797 Z26.236 I0.397 J0.
X104.003 Z26.229 I-0.397 J0.
X104.797 Z26.221 I0.397 J0.
X104.003 Z26.213 I-0.397 J0.
X104.797 Z26.205 I0.397 J0.
X104.003 Z26.197 I-0.397 J0.
X104.797 Z26.19 I0.397 J0.
X104.003 Z26.182 I-0.397 J0.
X104.797 Z26.174 I0.397 J0.
X104.003 Z26.166 I-0.397 J0.
X104.797 Z26.158 I0.397 J0.
X104.003 Z26.151 I-0.397 J0.
X104.797 Z26.143 I0.397 J0.
X104.003 Z26.135 I-0.397 J0.
X104.797 Z26.127 I0.397 J0.
X104.003 Z26.119 I-0.397 J0.
X104.797 Z26.112 I0.397 J0.
X104.003 Z26.104 I-0.397 J0.
X104.797 Z26.096 I0.397 J0.
X104.003 Z26.088 I-0.397 J0.
X104.797 Z26.081 I0.397 J0.
X104.003 Z26.073 I-0.397 J0.
X104.797 Z26.065 I0.397 J0.
X104.003 Z26.057 I-0.397 J0.
X104.797 Z26.049 I0.397 J0.
X104.003 Z26.042 I-0.397 J0.
X104.797 Z26.034 I0.397 J0.
X104.003 Z26.026 I-0.397 J0.
X104.797 Z26.018 I0.397 J0.
X104.003 Z26.01 I-0.397 J0.
X104.797 Z26.003 I0.397 J0.
X104.003 Z25.995 I-0.397 J0.
X104.797 Z25.987 I0.397 J0.
X104.003 Z25.979 I-0.397 J0.
X104.797 Z25.971 I0.397 J0.
X104.003 Z25.964 I-0.397 J0.
X104.797 Z25.956 I0.397 J0.
X104.003 Z25.948 I-0.397 J0.
X104.797 Z25.94 I0.397 J0.
X104.003 Z25.932 I-0.397 J0.
X104.797 Z25.925 I0.397 J0.
X104.003 Z25.917 I-0.397 J0.
X104.797 Z25.909 I0.397 J0.
X104.003 Z25.901 I-0.397 J0.
X104.797 Z25.893 I0.397 J0.
X104.003 Z25.886 I-0.397 J0.
X104.797 Z25.878 I0.397 J0.
X104.003 Z25.87 I-0.397 J0.
X104.797 Z25.862 I0.397 J0.
X104.003 Z25.855 I-0.397 J0.
X104.797 Z25.847 I0.397 J0.
X104.003 Z25.839 I-0.397 J0.
X104.797 Z25.831 I0.397 J0.
X104.003 Z25.823 I-0.397 J0.
X104.797 Z25.816 I0.397 J0.
X104.003 Z25.808 I-0.397 J0.
X104.797 Z25.8 I0.397 J0.
X104.003 Z25.792 I-0.397 J0.
X104.797 Z25.784 I0.397 J0.
X104.003 Z25.777 I-0.397 J0.
X104.797 Z25.769 I0.397 J0.
X104.003 Z25.761 I-0.397 J0.
X104.797 Z25.753 I0.397 J0.
X104.003 Z25.745 I-0.397 J0.
X104.797 Z25.738 I0.397 J0.
X104.003 Z25.73 I-0.397 J0.
X104.797 Z25.722 I0.397 J0.
X104.003 Z25.714 I-0.397 J0.
X104.797 Z25.706 I0.397 J0.
X104.003 Z25.699 I-0.397 J0.
X104.797 Z25.691 I0.397 J0.
X104.003 Z25.683 I-0.397 J0.
X104.797 Z25.675 I0.397 J0.
X104.003 Z25.667 I-0.397 J0.
X104.797 Z25.66 I0.397 J0.
X104.003 Z25.652 I-0.397 J0.
X104.797 Z25.644 I0.397 J0.
X104.003 Z25.636 I-0.397 J0.
X104.797 Z25.629 I0.397 J0.
X104.003 Z25.621 I-0.397 J0.
X104.797 Z25.613 I0.397 J0.
X104.003 Z25.605 I-0.397 J0.
X104.797 Z25.597 I0.397 J0.
X104.003 Z25.59 I-0.397 J0.
X104.797 Z25.582 I0.397 J0.
X104.003 Z25.574 I-0.397 J0.
X104.797 Z25.566 I0.397 J0.
X104.003 Z25.558 I-0.397 J0.
X104.797 Z25.551 I0.397 J0.
X104.003 Z25.543 I-0.397 J0.
X104.797 Z25.535 I0.397 J0.
X104.003 Z25.527 I-0.397 J0.
X104.797 Z25.519 I0.397 J0.
X104.003 Z25.512 I-0.397 J0.
X104.797 Z25.504 I0.397 J0.
X104.003 Z25.496 I-0.397 J0.
X104.797 Z25.488 I0.397 J0.
X104.003 Z25.48 I-0.397 J0.
X104.797 Z25.473 I0.397 J0.
X104.003 Z25.465 I-0.397 J0.
X104.797 Z25.457 I0.397 J0.
X104.003 Z25.449 I-0.397 J0.
X104.797 Z25.442 I0.397 J0.
X104.003 Z25.434 I-0.397 J0.
X104.797 Z25.426 I0.397 J0.
X104.003 Z25.418 I-0.397 J0.
X104.797 Z25.41 I0.397 J0.
X104.003 Z25.403 I-0.397 J0.
X104.797 Z25.395 I0.397 J0.
X104.003 Z25.387 I-0.397 J0.
X104.797 Z25.379 I0.397 J0.
X104.003 Z25.371 I-0.397 J0.
X104.797 Z25.364 I0.397 J0.
X104.003 Z25.356 I-0.397 J0.
X104.797 Z25.348 I0.397 J0.
X104.003 Z25.34 I-0.397 J0.
X104.797 Z25.332 I0.397 J0.
X104.003 Z25.325 I-0.397 J0.
X104.797 Z25.317 I0.397 J0.
X104.003 Z25.309 I-0.397 J0.
X104.797 Z25.301 I0.397 J0.
X104.003 Z25.293 I-0.397 J0.
X104.797 Z25.286 I0.397 J0.
X104.003 Z25.278 I-0.397 J0.
X104.797 Z25.27 I0.397 J0.
X104.003 Z25.262 I-0.397 J0.
X104.797 Z25.254 I0.397 J0.
X104.003 Z25.247 I-0.397 J0.
X104.797 Z25.239 I0.397 J0.
X104.003 Z25.231 I-0.397 J0.
X104.797 Z25.223 I0.397 J0.
X104.003 Z25.216 I-0.397 J0.
X104.797 Z25.208 I0.397 J0.
X104.003 Z25.2 I-0.397 J0.
X104.797 Z25.192 I0.397 J0.
X104.003 Z25.184 I-0.397 J0.
X104.797 Z25.177 I0.397 J0.
X104.003 Z25.169 I-0.397 J0.
X104.797 Z25.161 I0.397 J0.
X104.003 Z25.153 I-0.397 J0.
X104.797 Z25.145 I0.397 J0.
X104.003 Z25.138 I-0.397 J0.
X104.797 Z25.13 I0.397 J0.
X104.003 Z25.122 I-0.397 J0.
X104.797 Z25.114 I0.397 J0.
X104.003 Z25.106 I-0.397 J0.
X104.797 Z25.099 I0.397 J0.
X104.003 Z25.091 I-0.397 J0.
X104.797 Z25.083 I0.397 J0.
X104.003 Z25.075 I-0.397 J0.
X104.797 Z25.067 I0.397 J0.
X104.003 Z25.06 I-0.397 J0.
X104.797 Z25.052 I0.397 J0.
X104.003 Z25.044 I-0.397 J0.
X104.797 Z25.036 I0.397 J0.
X104.003 Z25.028 I-0.397 J0.
X104.797 Z25.021 I0.397 J0.
X104.003 Z25.013 I-0.397 J0.
X104.797 Z25.005 I0.397 J0.
X104.003 Z24.997 I-0.397 J0.
X104.797 Z24.99 I0.397 J0.
X104.003 Z24.982 I-0.397 J0.
X104.797 Z24.974 I0.397 J0.
X104.003 Z24.966 I-0.397 J0.
X104.797 Z24.958 I0.397 J0.
X104.003 Z24.951 I-0.397 J0.
X104.797 Z24.943 I0.397 J0.
X104.003 Z24.935 I-0.397 J0.
X104.797 Z24.927 I0.397 J0.
X104.003 Z24.919 I-0.397 J0.
X104.797 Z24.912 I0.397 J0.
X104.003 Z24.904 I-0.397 J0.
X104.797 Z24.896 I0.397 J0.
X104.003 Z24.888 I-0.397 J0.
X104.797 Z24.88 I0.397 J0.
X104.003 Z24.873 I-0.397 J0.
X104.797 Z24.865 I0.397 J0.
X104.003 Z24.857 I-0.397 J0.
X104.797 Z24.849 I0.397 J0.
X104.003 Z24.841 I-0.397 J0.
X104.797 Z24.834 I0.397 J0.
X104.003 Z24.826 I-0.397 J0.
X104.797 Z24.818 I0.397 J0.
X104.003 Z24.81 I-0.397 J0.
X104.797 Z24.803 I0.397 J0.
X104.003 Z24.795 I-0.397 J0.
X104.797 Z24.787 I0.397 J0.
X104.003 Z24.779 I-0.397 J0.
X104.797 Z24.771 I0.397 J0.
X104.003 Z24.764 I-0.397 J0.
X104.797 Z24.756 I0.397 J0.
X104.003 Z24.748 I-0.397 J0.
X104.797 Z24.74 I0.397 J0.
X104.003 Z24.732 I-0.397 J0.
X104.797 Z24.725 I0.397 J0.
X104.003 Z24.717 I-0.397 J0.
X104.797 Z24.709 I0.397 J0.
X104.003 Z24.701 I-0.397 J0.
X104.797 Z24.693 I0.397 J0.
X104.003 Z24.686 I-0.397 J0.
X104.797 Z24.678 I0.397 J0.
X104.003 Z24.67 I-0.397 J0.
X104.797 Z24.662 I0.397 J0.
X104.003 Z24.654 I-0.397 J0.
X104.797 Z24.647 I0.397 J0.
X104.003 Z24.639 I-0.397 J0.
X104.797 Z24.631 I0.397 J0.
X104.003 Z24.623 I-0.397 J0.
X104.797 Z24.615 I0.397 J0.
X104.003 Z24.608 I-0.397 J0.
X104.797 Z24.6 I0.397 J0.
X104.003 Z24.592 I-0.397 J0.
X104.797 Z24.584 I0.397 J0.
X104.003 Z24.577 I-0.397 J0.
X104.797 Z24.569 I0.397 J0.
X104.003 Z24.561 I-0.397 J0.
X104.797 Z24.553 I0.397 J0.
X104.003 Z24.545 I-0.397 J0.
X104.797 Z24.538 I0.397 J0.
X104.003 Z24.53 I-0.397 J0.
X104.797 Z24.522 I0.397 J0.
X104.003 Z24.514 I-0.397 J0.
X104.797 Z24.506 I0.397 J0.
X104.003 Z24.499 I-0.397 J0.
X104.797 Z24.491 I0.397 J0.
X104.003 Z24.483 I-0.397 J0.
X104.797 Z24.475 I0.397 J0.
X104.003 Z24.467 I-0.397 J0.
X104.797 Z24.46 I0.397 J0.
X104.003 Z24.452 I-0.397 J0.
X104.797 Z24.444 I0.397 J0.
X104.003 Z24.436 I-0.397 J0.
X104.797 Z24.428 I0.397 J0.
X104.003 Z24.421 I-0.397 J0.
X104.797 Z24.413 I0.397 J0.
X104.003 Z24.405 I-0.397 J0.
X104.797 Z24.397 I0.397 J0.
X104.003 Z24.39 I-0.397 J0.
X104.797 Z24.382 I0.397 J0.
X104.003 Z24.374 I-0.397 J0.
X104.797 Z24.366 I0.397 J0.
X104.003 Z24.358 I-0.397 J0.
X104.797 Z24.351 I0.397 J0.
X104.003 Z24.343 I-0.397 J0.
X104.797 Z24.335 I0.397 J0.
X104.003 Z24.327 I-0.397 J0.
X104.797 Z24.319 I0.397 J0.
X104.003 Z24.312 I-0.397 J0.
X104.797 Z24.304 I0.397 J0.
X104.003 Z24.296 I-0.397 J0.
X104.797 Z24.288 I0.397 J0.
X104.003 Z24.28 I-0.397 J0.
X104.797 Z24.273 I0.397 J0.
X104.003 Z24.265 I-0.397 J0.
X104.797 Z24.257 I0.397 J0.
X104.003 Z24.249 I-0.397 J0.
X104.797 Z24.241 I0.397 J0.
X104.003 Z24.234 I-0.397 J0.
X104.797 Z24.226 I0.397 J0.
X104.003 Z24.218 I-0.397 J0.
X104.797 Z24.21 I0.397 J0.
X104.003 Z24.202 I-0.397 J0.
X104.797 Z24.195 I0.397 J0.
X104.003 Z24.187 I-0.397 J0.
X104.797 Z24.179 I0.397 J0.
X104.003 Z24.171 I-0.397 J0.
X104.797 Z24.164 I0.397 J0.
X104.003 Z24.156 I-0.397 J0.
X104.797 Z24.148 I0.397 J0.
X104.003 Z24.14 I-0.397 J0.
X104.797 Z24.132 I0.397 J0.
X104.003 Z24.125 I-0.397 J0.
X104.797 Z24.117 I0.397 J0.
X104.003 Z24.109 I-0.397 J0.
X104.797 Z24.101 I0.397 J0.
X104.003 Z24.093 I-0.397 J0.
X104.797 Z24.086 I0.397 J0.
X104.003 Z24.078 I-0.397 J0.
X104.797 Z24.07 I0.397 J0.
X104.003 Z24.062 I-0.397 J0.
X104.797 Z24.054 I0.397 J0.
X104.003 Z24.047 I-0.397 J0.
X104.797 Z24.039 I0.397 J0.
X104.003 Z24.031 I-0.397 J0.
X104.797 Z24.023 I0.397 J0.
X104.003 Z24.015 I-0.397 J0.
X104.797 Z24.008 I0.397 J0.
X104.003 Z24. I-0.397 J0.
X104.797 Z23.992 I0.397 J0.
X104.003 Z23.984 I-0.397 J0.
X104.797 Z23.976 I0.397 J0.
X104.003 Z23.969 I-0.397 J0.
X104.797 Z23.961 I0.397 J0.
X104.003 Z23.953 I-0.397 J0.
X104.797 Z23.945 I0.397 J0.
X104.003 Z23.938 I-0.397 J0.
X104.797 Z23.93 I0.397 J0.
X104.003 Z23.922 I-0.397 J0.
X104.797 Z23.914 I0.397 J0.
X104.003 Z23.906 I-0.397 J0.
X104.797 Z23.899 I0.397 J0.
X104.003 Z23.891 I-0.397 J0.
X104.797 Z23.883 I0.397 J0.
X104.003 Z23.875 I-0.397 J0.
X104.797 Z23.867 I0.397 J0.
X104.003 Z23.86 I-0.397 J0.
X104.797 Z23.852 I0.397 J0.
X104.003 Z23.844 I-0.397 J0.
X104.797 Z23.836 I0.397 J0.
X104.003 Z23.828 I-0.397 J0.
X104.797 Z23.821 I0.397 J0.
X104.003 Z23.813 I-0.397 J0.
X104.797 Z23.805 I0.397 J0.
X104.003 Z23.797 I-0.397 J0.
X104.797 Z23.789 I0.397 J0.
X104.003 Z23.782 I-0.397 J0.
X104.797 Z23.774 I0.397 J0.
X104.003 Z23.766 I-0.397 J0.
X104.797 Z23.758 I0.397 J0.
X104.003 Z23.751 I-0.397 J0.
X104.797 Z23.743 I0.397 J0.
X104.003 Z23.735 I-0.397 J0.
X104.797 Z23.727 I0.397 J0.
X104.003 Z23.719 I-0.397 J0.
X104.797 Z23.712 I0.397 J0.
X104.003 Z23.704 I-0.397 J0.
X104.797 Z23.696 I0.397 J0.
X104.003 Z23.688 I-0.397 J0.
X104.797 Z23.68 I0.397 J0.
X104.003 Z23.673 I-0.397 J0.
X104.797 Z23.665 I0.397 J0.
X104.003 Z23.657 I-0.397 J0.
X104.797 Z23.649 I0.397 J0.
X104.003 Z23.641 I-0.397 J0.
X104.797 Z23.634 I0.397 J0.
X104.003 Z23.626 I-0.397 J0.
X104.797 Z23.618 I0.397 J0.
X104.003 Z23.61 I-0.397 J0.
X104.797 Z23.602 I0.397 J0.
X104.003 Z23.595 I-0.397 J0.
X104.797 Z23.587 I0.397 J0.
X104.003 Z23.579 I-0.397 J0.
X104.797 Z23.571 I0.397 J0.
X104.003 Z23.563 I-0.397 J0.
X104.797 Z23.556 I0.397 J0.
X104.003 Z23.548 I-0.397 J0.
X104.797 Z23.54 I0.397 J0.
X104.003 Z23.532 I-0.397 J0.
X104.797 Z23.525 I0.397 J0.
X104.003 Z23.517 I-0.397 J0.
X104.797 Z23.509 I0.397 J0.
X104.003 Z23.501 I-0.397 J0.
X104.797 Z23.493 I0.397 J0.
X104.003 Z23.486 I-0.397 J0.
X104.797 Z23.478 I0.397 J0.
X104.003 Z23.47 I-0.397 J0.
X104.797 Z23.462 I0.397 J0.
X104.003 Z23.454 I-0.397 J0.
X104.797 Z23.447 I0.397 J0.
X104.003 Z23.439 I-0.397 J0.
X104.797 Z23.431 I0.397 J0.
X104.003 Z23.423 I-0.397 J0.
X104.797 Z23.415 I0.397 J0.
X104.003 Z23.408 I-0.397 J0.
X104.797 Z23.4 I0.397 J0.
X104.003 Z23.392 I-0.397 J0.
X104.797 Z23.384 I0.397 J0.
X104.003 Z23.376 I-0.397 J0.
X104.797 Z23.369 I0.397 J0.
X104.003 Z23.361 I-0.397 J0.
X104.797 Z23.353 I0.397 J0.
X104.003 Z23.345 I-0.397 J0.
X104.797 Z23.337 I0.397 J0.
X104.003 Z23.33 I-0.397 J0.
X104.797 Z23.322 I0.397 J0.
X104.003 Z23.314 I-0.397 J0.
X104.797 Z23.306 I0.397 J0.
X104.003 Z23.299 I-0.397 J0.
X104.797 Z23.291 I0.397 J0.
X104.003 Z23.283 I-0.397 J0.
X104.797 Z23.275 I0.397 J0.
X104.003 Z23.267 I-0.397 J0.
X104.797 Z23.26 I0.397 J0.
X104.003 Z23.252 I-0.397 J0.
X104.797 Z23.244 I0.397 J0.
X104.003 Z23.236 I-0.397 J0.
X104.797 Z23.228 I0.397 J0.
X104.003 Z23.221 I-0.397 J0.
X104.797 Z23.213 I0.397 J0.
X104.003 Z23.205 I-0.397 J0.
X104.797 Z23.197 I0.397 J0.
X104.003 Z23.189 I-0.397 J0.
X104.797 Z23.182 I0.397 J0.
X104.003 Z23.174 I-0.397 J0.
X104.797 Z23.166 I0.397 J0.
X104.003 Z23.158 I-0.397 J0.
X104.797 Z23.15 I0.397 J0.
X104.003 Z23.143 I-0.397 J0.
X104.797 Z23.135 I0.397 J0.
X104.003 Z23.127 I-0.397 J0.
X104.797 Z23.119 I0.397 J0.
X104.003 Z23.112 I-0.397 J0.
X104.797 Z23.104 I0.397 J0.
X104.003 Z23.096 I-0.397 J0.
X104.797 Z23.088 I0.397 J0.
X104.003 Z23.08 I-0.397 J0.
X104.797 Z23.073 I0.397 J0.
X104.003 Z23.065 I-0.397 J0.
X104.797 Z23.057 I0.397 J0.
X104.003 Z23.049 I-0.397 J0.
X104.797 Z23.041 I0.397 J0.
X104.003 Z23.034 I-0.397 J0.
X104.797 Z23.026 I0.397 J0.
X104.003 Z23.018 I-0.397 J0.
X104.797 Z23.01 I0.397 J0.
X104.003 Z23.002 I-0.397 J0.
X104.797 Z22.995 I0.397 J0.
X104.003 Z22.987 I-0.397 J0.
X104.797 Z22.979 I0.397 J0.
X104.003 Z22.971 I-0.397 J0.
X104.797 Z22.963 I0.397 J0.
X104.003 Z22.956 I-0.397 J0.
X104.797 Z22.948 I0.397 J0.
X104.003 Z22.94 I-0.397 J0.
X104.797 Z22.932 I0.397 J0.
X104.003 Z22.924 I-0.397 J0.
X104.797 Z22.917 I0.397 J0.
X104.003 Z22.909 I-0.397 J0.
X104.797 Z22.901 I0.397 J0.
X104.003 Z22.893 I-0.397 J0.
X104.797 Z22.886 I0.397 J0.
X104.003 Z22.878 I-0.397 J0.
X104.797 Z22.87 I0.397 J0.
X104.003 Z22.862 I-0.397 J0.
X104.797 Z22.854 I0.397 J0.
X104.003 Z22.847 I-0.397 J0.
X104.797 Z22.839 I0.397 J0.
X104.003 Z22.831 I-0.397 J0.
X104.797 Z22.823 I0.397 J0.
X104.003 Z22.815 I-0.397 J0.
X104.797 Z22.808 I0.397 J0.
X104.003 Z22.8 I-0.397 J0.
X104.797 Z22.792 I0.397 J0.
X104.003 Z22.784 I-0.397 J0.
X104.797 Z22.776 I0.397 J0.
X104.003 Z22.769 I-0.397 J0.
X104.797 Z22.761 I0.397 J0.
X104.003 Z22.753 I-0.397 J0.
X104.797 Z22.745 I0.397 J0.
X104.003 Z22.737 I-0.397 J0.
X104.797 Z22.73 I0.397 J0.
X104.003 Z22.722 I-0.397 J0.
X104.797 Z22.714 I0.397 J0.
X104.003 Z22.706 I-0.397 J0.
X104.797 Z22.698 I0.397 J0.
X104.003 Z22.691 I-0.397 J0.
X104.797 Z22.683 I0.397 J0.
X104.003 Z22.675 I-0.397 J0.
X104.797 Z22.667 I0.397 J0.
X104.003 Z22.66 I-0.397 J0.
X104.797 Z22.652 I0.397 J0.
X104.003 Z22.644 I-0.397 J0.
X104.797 Z22.636 I0.397 J0.
X104.003 Z22.628 I-0.397 J0.
X104.797 Z22.621 I0.397 J0.
X104.003 Z22.613 I-0.397 J0.
X104.797 Z22.605 I0.397 J0.
X104.003 Z22.597 I-0.397 J0.
X104.797 Z22.589 I0.397 J0.
X104.003 Z22.582 I-0.397 J0.
X104.797 Z22.574 I0.397 J0.
X104.003 Z22.566 I-0.397 J0.
X104.797 Z22.558 I0.397 J0.
X104.003 Z22.55 I-0.397 J0.
X104.797 Z22.543 I0.397 J0.
X104.003 Z22.535 I-0.397 J0.
X104.797 Z22.527 I0.397 J0.
X104.003 Z22.519 I-0.397 J0.
X104.797 Z22.511 I0.397 J0.
X104.003 Z22.504 I-0.397 J0.
X104.797 Z22.496 I0.397 J0.
X104.003 Z22.488 I-0.397 J0.
X104.797 Z22.48 I0.397 J0.
X104.003 Z22.473 I-0.397 J0.
X104.797 Z22.465 I0.397 J0.
X104.003 Z22.457 I-0.397 J0.
X104.797 Z22.449 I0.397 J0.
X104.003 Z22.441 I-0.397 J0.
X104.797 Z22.434 I0.397 J0.
X104.003 Z22.426 I-0.397 J0.
X104.797 Z22.418 I0.397 J0.
X104.003 Z22.41 I-0.397 J0.
X104.797 Z22.402 I0.397 J0.
X104.003 Z22.395 I-0.397 J0.
X104.797 Z22.387 I0.397 J0.
X104.003 Z22.379 I-0.397 J0.
X104.797 Z22.371 I0.397 J0.
X104.003 Z22.363 I-0.397 J0.
X104.797 Z22.356 I0.397 J0.
X104.003 Z22.348 I-0.397 J0.
X104.797 Z22.34 I0.397 J0.
X104.003 Z22.332 I-0.397 J0.
X104.797 Z22.324 I0.397 J0.
X104.003 Z22.317 I-0.397 J0.
X104.797 Z22.309 I0.397 J0.
X104.003 Z22.301 I-0.397 J0.
X104.797 Z22.293 I0.397 J0.
X104.003 Z22.285 I-0.397 J0.
X104.797 Z22.278 I0.397 J0.
X104.003 Z22.27 I-0.397 J0.
X104.797 Z22.262 I0.397 J0.
X104.003 Z22.254 I-0.397 J0.
X104.797 Z22.247 I0.397 J0.
X104.003 Z22.239 I-0.397 J0.
X104.797 Z22.231 I0.397 J0.
X104.003 Z22.223 I-0.397 J0.
X104.797 Z22.215 I0.397 J0.
X104.003 Z22.208 I-0.397 J0.
X104.797 Z22.2 I0.397 J0.
X104.003 Z22.192 I-0.397 J0.
X104.797 Z22.184 I0.397 J0.
X104.003 Z22.176 I-0.397 J0.
X104.797 Z22.169 I0.397 J0.
X104.003 Z22.161 I-0.397 J0.
X104.797 Z22.153 I0.397 J0.
X104.003 Z22.145 I-0.397 J0.
X104.797 Z22.137 I0.397 J0.
X104.003 Z22.13 I-0.397 J0.
X104.797 Z22.122 I0.397 J0.
X104.003 Z22.114 I-0.397 J0.
X104.797 Z22.106 I0.397 J0.
X104.003 Z22.098 I-0.397 J0.
X104.797 Z22.091 I0.397 J0.
X104.003 Z22.083 I-0.397 J0.
X104.797 Z22.075 I0.397 J0.
X104.003 Z22.067 I-0.397 J0.
X104.797 Z22.06 I0.397 J0.
X104.003 Z22.052 I-0.397 J0.
X104.797 Z22.044 I0.397 J0.
X104.003 Z22.036 I-0.397 J0.
X104.797 Z22.028 I0.397 J0.
X104.003 Z22.021 I-0.397 J0.
X104.797 Z22.013 I0.397 J0.
X104.003 Z22.005 I-0.397 J0.
X104.797 Z21.997 I0.397 J0.
X104.003 Z21.989 I-0.397 J0.
X104.797 Z21.982 I0.397 J0.
X104.003 Z21.974 I-0.397 J0.
X104.797 Z21.966 I0.397 J0.
X104.003 Z21.958 I-0.397 J0.
X104.797 Z21.95 I0.397 J0.
X104.003 Z21.943 I-0.397 J0.
X104.797 Z21.935 I0.397 J0.
X104.003 Z21.927 I-0.397 J0.
X104.797 Z21.919 I0.397 J0.
X104.003 Z21.911 I-0.397 J0.
X104.797 Z21.904 I0.397 J0.
X104.003 Z21.896 I-0.397 J0.
X104.797 Z21.888 I0.397 J0.
X104.003 Z21.88 I-0.397 J0.
X104.797 Z21.872 I0.397 J0.
X104.003 Z21.865 I-0.397 J0.
X104.797 Z21.857 I0.397 J0.
X104.003 Z21.849 I-0.397 J0.
X104.797 Z21.841 I0.397 J0.
X104.003 Z21.834 I-0.397 J0.
X104.797 Z21.826 I0.397 J0.
X104.003 Z21.818 I-0.397 J0.
X104.797 Z21.81 I0.397 J0.
X104.003 Z21.802 I-0.397 J0.
X104.797 Z21.795 I0.397 J0.
X104.003 Z21.787 I-0.397 J0.
X104.797 Z21.779 I0.397 J0.
X104.003 Z21.771 I-0.397 J0.
X104.797 Z21.763 I0.397 J0.
X104.003 Z21.756 I-0.397 J0.
X104.797 Z21.748 I0.397 J0.
X104.003 Z21.74 I-0.397 J0.
X104.797 Z21.732 I0.397 J0.
X104.003 Z21.724 I-0.397 J0.
X104.797 Z21.717 I0.397 J0.
X104.003 Z21.709 I-0.397 J0.
X104.797 Z21.701 I0.397 J0.
X104.003 Z21.693 I-0.397 J0.
X104.797 Z21.685 I0.397 J0.
X104.003 Z21.678 I-0.397 J0.
X104.797 Z21.67 I0.397 J0.
X104.003 Z21.662 I-0.397 J0.
X104.797 Z21.654 I0.397 J0.
X104.003 Z21.646 I-0.397 J0.
X104.797 Z21.639 I0.397 J0.
X104.003 Z21.631 I-0.397 J0.
X104.797 Z21.623 I0.397 J0.
X104.003 Z21.615 I-0.397 J0.
X104.797 Z21.608 I0.397 J0.
X104.003 Z21.6 I-0.397 J0.
X104.797 Z21.592 I0.397 J0.
X104.003 Z21.584 I-0.397 J0.
X104.797 Z21.576 I0.397 J0.
X104.003 Z21.569 I-0.397 J0.
X104.797 Z21.561 I0.397 J0.
X104.003 Z21.553 I-0.397 J0.
X104.797 Z21.545 I0.397 J0.
X104.003 Z21.537 I-0.397 J0.
X104.797 Z21.53 I0.397 J0.
X104.003 Z21.522 I-0.397 J0.
X104.797 Z21.514 I0.397 J0.
X104.003 Z21.506 I-0.397 J0.
X104.797 Z21.498 I0.397 J0.
X104.003 Z21.491 I-0.397 J0.
X104.797 Z21.483 I0.397 J0.
X104.003 Z21.475 I-0.397 J0.
X104.797 Z21.467 I0.397 J0.
X104.003 Z21.459 I-0.397 J0.
X104.797 Z21.452 I0.397 J0.
X104.003 Z21.444 I-0.397 J0.
X104.797 Z21.436 I0.397 J0.
X104.003 Z21.428 I-0.397 J0.
X104.797 Z21.421 I0.397 J0.
X104.003 Z21.413 I-0.397 J0.
X104.797 Z21.405 I0.397 J0.
X104.003 Z21.397 I-0.397 J0.
X104.797 Z21.389 I0.397 J0.
X104.003 Z21.382 I-0.397 J0.
X104.797 Z21.374 I0.397 J0.
X104.003 Z21.366 I-0.397 J0.
X104.797 Z21.358 I0.397 J0.
X104.003 Z21.35 I-0.397 J0.
X104.797 Z21.343 I0.397 J0.
X104.003 Z21.335 I-0.397 J0.
X104.797 Z21.327 I0.397 J0.
X104.003 Z21.319 I-0.397 J0.
X104.797 Z21.311 I0.397 J0.
X104.003 Z21.304 I-0.397 J0.
X104.797 Z21.296 I0.397 J0.
X104.003 Z21.288 I-0.397 J0.
X104.797 Z21.28 I0.397 J0.
X104.003 Z21.272 I-0.397 J0.
X104.797 Z21.265 I0.397 J0.
X104.003 Z21.257 I-0.397 J0.
X104.797 Z21.249 I0.397 J0.
X104.003 Z21.241 I-0.397 J0.
X104.797 Z21.233 I0.397 J0.
X104.345 Y126.607 Z21.229 I-0.397 J0.
X104.018 Y127.109 Z21.225 I0.055 J0.393
X104.782 Y126.891 I0.382 J-0.109
X104.018 Y127.109 I-0.382 J0.109
X104.264 Y127.245 I0.191 J-0.055
G1 X104.569 Y127.158
G0 Z35.4
X136.269 Y126.802
Z27.765
G1 Z26.4 F800.
X135.952
G2 X135.753 Y127. I0. J0.198
X136.547 Z26.392 I0.397 J0.
X135.753 Z26.384 I-0.397 J0.
X136.547 Z26.377 I0.397 J0.
X135.753 Z26.369 I-0.397 J0.
X136.547 Z26.361 I0.397 J0.
X135.753 Z26.353 I-0.397 J0.
X136.547 Z26.345 I0.397 J0.
X135.753 Z26.338 I-0.397 J0.
X136.547 Z26.33 I0.397 J0.
X135.753 Z26.322 I-0.397 J0.
X136.547 Z26.314 I0.397 J0.
X135.753 Z26.306 I-0.397 J0.
X136.547 Z26.299 I0.397 J0.
X135.753 Z26.291 I-0.397 J0.
X136.547 Z26.283 I0.397 J0.
X135.753 Z26.275 I-0.397 J0.
X136.547 Z26.268 I0.397 J0.
X135.753 Z26.26 I-0.397 J0.
X136.547 Z26.252 I0.397 J0.
X135.753 Z26.244 I-0.397 J0.
X136.547 Z26.236 I0.397 J0.
X135.753 Z26.229 I-0.397 J0.
X136.547 Z26.221 I0.397 J0.
X135.753 Z26.213 I-0.397 J0.
X136.547 Z26.205 I0.397 J0.
X135.753 Z26.197 I-0.397 J0.
X136.547 Z26.19 I0.397 J0.
X135.753 Z26.182 I-0.397 J0.
X136.547 Z26.174 I0.397 J0.
X135.753 Z26.166 I-0.397 J0.
X136.547 Z26.158 I0.397 J0.
X135.753 Z26.151 I-0.397 J0.
X136.547 Z26.143 I0.397 J0.
X135.753 Z26.135 I-0.397 J0.
X136.547 Z26.127 I0.397 J0.
X135.753 Z26.119 I-0.397 J0.
X136.547 Z26.112 I0.397 J0.
X135.753 Z26.104 I-0.397 J0.
X136.547 Z26.096 I0.397 J0.
X135.753 Z26.088 I-0.397 J0.
X136.547 Z26.081 I0.397 J0.
X135.753 Z26.073 I-0.397 J0.
X136.547 Z26.065 I0.397 J0.
X135.753 Z26.057 I-0.397 J0.
X136.547 Z26.049 I0.397 J0.
X135.753 Z26.042 I-0.397 J0.
X136.547 Z26.034 I0.397 J0.
X135.753 Z26.026 I-0.397 J0.
X136.547 Z26.018 I0.397 J0.
X135.753 Z26.01 I-0.397 J0.
X136.547 Z26.003 I0.397 J0.
X135.753 Z25.995 I-0.397 J0.
X136.547 Z25.987 I0.397 J0.
X135.753 Z25.979 I-0.397 J0.
X136.547 Z25.971 I0.397 J0.
X135.753 Z25.964 I-0.397 J0.
X136.547 Z25.956 I0.397 J0.
X135.753 Z25.948 I-0.397 J0.
X136.547 Z25.94 I0.397 J0.
X135.753 Z25.932 I-0.397 J0.
X136.547 Z25.925 I0.397 J0.
X135.753 Z25.917 I-0.397 J0.
X136.547 Z25.909 I0.397 J0.
X135.753 Z25.901 I-0.397 J0.
X136.547 Z25.893 I0.397 J0.
X135.753 Z25.886 I-0.397 J0.
X136.547 Z25.878 I0.397 J0.
X135.753 Z25.87 I-0.397 J0.
X136.547 Z25.862 I0.397 J0.
X135.753 Z25.855 I-0.397 J0.
X136.547 Z25.847 I0.397 J0.
X135.753 Z25.839 I-0.397 J0.
X136.547 Z25.831 I0.397 J0.
X135.753 Z25.823 I-0.397 J0.
X136.547 Z25.816 I0.397 J0.
X135.753 Z25.808 I-0.397 J0.
X136.547 Z25.8 I0.397 J0.
X135.753 Z25.792 I-0.397 J0.
X136.547 Z25.784 I0.397 J0.
X135.753 Z25.777 I-0.397 J0.
X136.547 Z25.769 I0.397 J0.
X135.753 Z25.761 I-0.397 J0.
X136.547 Z25.753 I0.397 J0.
X135.753 Z25.745 I-0.397 J0.
X136.547 Z25.738 I0.397 J0.
X135.753 Z25.73 I-0.397 J0.
X136.547 Z25.722 I0.397 J0.
X135.753 Z25.714 I-0.397 J0.
X136.547 Z25.706 I0.397 J0.
X135.753 Z25.699 I-0.397 J0.
X136.547 Z25.691 I0.397 J0.
X135.753 Z25.683 I-0.397 J0.
X136.547 Z25.675 I0.397 J0.
X135.753 Z25.667 I-0.397 J0.
X136.547 Z25.66 I0.397 J0.
X135.753 Z25.652 I-0.397 J0.
X136.547 Z25.644 I0.397 J0.
X135.753 Z25.636 I-0.397 J0.
X136.547 Z25.629 I0.397 J0.
X135.753 Z25.621 I-0.397 J0.
X136.547 Z25.613 I0.397 J0.
X135.753 Z25.605 I-0.397 J0.
X136.547 Z25.597 I0.397 J0.
X135.753 Z25.59 I-0.397 J0.
X136.547 Z25.582 I0.397 J0.
X135.753 Z25.574 I-0.397 J0.
X136.547 Z25.566 I0.397 J0.
X135.753 Z25.558 I-0.397 J0.
X136.547 Z25.551 I0.397 J0.
X135.753 Z25.543 I-0.397 J0.
X136.547 Z25.535 I0.397 J0.
X135.753 Z25.527 I-0.397 J0.
X136.547 Z25.519 I0.397 J0.
X135.753 Z25.512 I-0.397 J0.
X136.547 Z25.504 I0.397 J0.
X135.753 Z25.496 I-0.397 J0.
X136.547 Z25.488 I0.397 J0.
X135.753 Z25.48 I-0.397 J0.
X136.547 Z25.473 I0.397 J0.
X135.753 Z25.465 I-0.397 J0.
X136.547 Z25.457 I0.397 J0.
X135.753 Z25.449 I-0.397 J0.
X136.547 Z25.442 I0.397 J0.
X135.753 Z25.434 I-0.397 J0.
X136.547 Z25.426 I0.397 J0.
X135.753 Z25.418 I-0.397 J0.
X136.547 Z25.41 I0.397 J0.
X135.753 Z25.403 I-0.397 J0.
X136.547 Z25.395 I0.397 J0.
X135.753 Z25.387 I-0.397 J0.
X136.547 Z25.379 I0.397 J0.
X135.753 Z25.371 I-0.397 J0.
X136.547 Z25.364 I0.397 J0.
X135.753 Z25.356 I-0.397 J0.
X136.547 Z25.348 I0.397 J0.
X135.753 Z25.34 I-0.397 J0.
X136.547 Z25.332 I0.397 J0.
X135.753 Z25.325 I-0.397 J0.
X136.547 Z25.317 I0.397 J0.
X135.753 Z25.309 I-0.397 J0.
X136.547 Z25.301 I0.397 J0.
X135.753 Z25.293 I-0.397 J0.
X136.547 Z25.286 I0.397 J0.
X135.753 Z25.278 I-0.397 J0.
X136.547 Z25.27 I0.397 J0.
X135.753 Z25.262 I-0.397 J0.
X136.547 Z25.254 I0.397 J0.
X135.753 Z25.247 I-0.397 J0.
X136.547 Z25.239 I0.397 J0.
X135.753 Z25.231 I-0.397 J0.
X136.547 Z25.223 I0.397 J0.
X135.753 Z25.216 I-0.397 J0.
X136.547 Z25.208 I0.397 J0.
X135.753 Z25.2 I-0.397 J0.
X136.547 Z25.192 I0.397 J0.
X135.753 Z25.184 I-0.397 J0.
X136.547 Z25.177 I0.397 J0.
X135.753 Z25.169 I-0.397 J0.
X136.547 Z25.161 I0.397 J0.
X135.753 Z25.153 I-0.397 J0.
X136.547 Z25.145 I0.397 J0.
X135.753 Z25.138 I-0.397 J0.
X136.547 Z25.13 I0.397 J0.
X135.753 Z25.122 I-0.397 J0.
X136.547 Z25.114 I0.397 J0.
X135.753 Z25.106 I-0.397 J0.
X136.547 Z25.099 I0.397 J0.
X135.753 Z25.091 I-0.397 J0.
X136.547 Z25.083 I0.397 J0.
X135.753 Z25.075 I-0.397 J0.
X136.547 Z25.067 I0.397 J0.
X135.753 Z25.06 I-0.397 J0.
X136.547 Z25.052 I0.397 J0.
X135.753 Z25.044 I-0.397 J0.
X136.547 Z25.036 I0.397 J0.
X135.753 Z25.028 I-0.397 J0.
X136.547 Z25.021 I0.397 J0.
X135.753 Z25.013 I-0.397 J0.
X136.547 Z25.005 I0.397 J0.
X135.753 Z24.997 I-0.397 J0.
X136.547 Z24.99 I0.397 J0.
X135.753 Z24.982 I-0.397 J0.
X136.547 Z24.974 I0.397 J0.
X135.753 Z24.966 I-0.397 J0.
X136.547 Z24.958 I0.397 J0.
X135.753 Z24.951 I-0.397 J0.
X136.547 Z24.943 I0.397 J0.
X135.753 Z24.935 I-0.397 J0.
X136.547 Z24.927 I0.397 J0.
X135.753 Z24.919 I-0.397 J0.
X136.547 Z24.912 I0.397 J0.
X135.753 Z24.904 I-0.397 J0.
X136.547 Z24.896 I0.397 J0.
X135.753 Z24.888 I-0.397 J0.
X136.547 Z24.88 I0.397 J0.
X135.753 Z24.873 I-0.397 J0.
X136.547 Z24.865 I0.397 J0.
X135.753 Z24.857 I-0.397 J0.
X136.547 Z24.849 I0.397 J0.
X135.753 Z24.841 I-0.397 J0.
X136.547 Z24.834 I0.397 J0.
X135.753 Z24.826 I-0.397 J0.
X136.547 Z24.818 I0.397 J0.
X135.753 Z24.81 I-0.397 J0.
X136.547 Z24.803 I0.397 J0.
X135.753 Z24.795 I-0.397 J0.
X136.547 Z24.787 I0.397 J0.
X135.753 Z24.779 I-0.397 J0.
X136.547 Z24.771 I0.397 J0.
X135.753 Z24.764 I-0.397 J0.
X136.547 Z24.756 I0.397 J0.
X135.753 Z24.748 I-0.397 J0.
X136.547 Z24.74 I0.397 J0.
X135.753 Z24.732 I-0.397 J0.
X136.547 Z24.725 I0.397 J0.
X135.753 Z24.717 I-0.397 J0.
X136.547 Z24.709 I0.397 J0.
X135.753 Z24.701 I-0.397 J0.
X136.547 Z24.693 I0.397 J0.
X135.753 Z24.686 I-0.397 J0.
X136.547 Z24.678 I0.397 J0.
X135.753 Z24.67 I-0.397 J0.
X136.547 Z24.662 I0.397 J0.
X135.753 Z24.654 I-0.397 J0.
X136.547 Z24.647 I0.397 J0.
X135.753 Z24.639 I-0.397 J0.
X136.547 Z24.631 I0.397 J0.
X135.753 Z24.623 I-0.397 J0.
X136.547 Z24.615 I0.397 J0.
X135.753 Z24.608 I-0.397 J0.
X136.547 Z24.6 I0.397 J0.
X135.753 Z24.592 I-0.397 J0.
X136.547 Z24.584 I0.397 J0.
X135.753 Z24.577 I-0.397 J0.
X136.547 Z24.569 I0.397 J0.
X135.753 Z24.561 I-0.397 J0.
X136.547 Z24.553 I0.397 J0.
X135.753 Z24.545 I-0.397 J0.
X136.547 Z24.538 I0.397 J0.
X135.753 Z24.53 I-0.397 J0.
X136.547 Z24.522 I0.397 J0.
X135.753 Z24.514 I-0.397 J0.
X136.547 Z24.506 I0.397 J0.
X135.753 Z24.499 I-0.397 J0.
X136.547 Z24.491 I0.397 J0.
X135.753 Z24.483 I-0.397 J0.
X136.547 Z24.475 I0.397 J0.
X135.753 Z24.467 I-0.397 J0.
X136.547 Z24.46 I0.397 J0.
X135.753 Z24.452 I-0.397 J0.
X136.547 Z24.444 I0.397 J0.
X135.753 Z24.436 I-0.397 J0.
X136.547 Z24.428 I0.397 J0.
X135.753 Z24.421 I-0.397 J0.
X136.547 Z24.413 I0.397 J0.
X135.753 Z24.405 I-0.397 J0.
X136.547 Z24.397 I0.397 J0.
X135.753 Z24.39 I-0.397 J0.
X136.547 Z24.382 I0.397 J0.
X135.753 Z24.374 I-0.397 J0.
X136.547 Z24.366 I0.397 J0.
X135.753 Z24.358 I-0.397 J0.
X136.547 Z24.351 I0.397 J0.
X135.753 Z24.343 I-0.397 J0.
X136.547 Z24.335 I0.397 J0.
X135.753 Z24.327 I-0.397 J0.
X136.547 Z24.319 I0.397 J0.
X135.753 Z24.312 I-0.397 J0.
X136.547 Z24.304 I0.397 J0.
X135.753 Z24.296 I-0.397 J0.
X136.547 Z24.288 I0.397 J0.
X135.753 Z24.28 I-0.397 J0.
X136.547 Z24.273 I0.397 J0.
X135.753 Z24.265 I-0.397 J0.
X136.547 Z24.257 I0.397 J0.
X135.753 Z24.249 I-0.397 J0.
X136.547 Z24.241 I0.397 J0.
X135.753 Z24.234 I-0.397 J0.
X136.547 Z24.226 I0.397 J0.
X135.753 Z24.218 I-0.397 J0.
X136.547 Z24.21 I0.397 J0.
X135.753 Z24.202 I-0.397 J0.
X136.547 Z24.195 I0.397 J0.
X135.753 Z24.187 I-0.397 J0.
X136.547 Z24.179 I0.397 J0.
X135.753 Z24.171 I-0.397 J0.
X136.547 Z24.164 I0.397 J0.
X135.753 Z24.156 I-0.397 J0.
X136.547 Z24.148 I0.397 J0.
X135.753 Z24.14 I-0.397 J0.
X136.547 Z24.132 I0.397 J0.
X135.753 Z24.125 I-0.397 J0.
X136.547 Z24.117 I0.397 J0.
X135.753 Z24.109 I-0.397 J0.
X136.547 Z24.101 I0.397 J0.
X135.753 Z24.093 I-0.397 J0.
X136.547 Z24.086 I0.397 J0.
X135.753 Z24.078 I-0.397 J0.
X136.547 Z24.07 I0.397 J0.
X135.753 Z24.062 I-0.397 J0.
X136.547 Z24.054 I0.397 J0.
X135.753 Z24.047 I-0.397 J0.
X136.547 Z24.039 I0.397 J0.
X135.753 Z24.031 I-0.397 J0.
X136.547 Z24.023 I0.397 J0.
X135.753 Z24.015 I-0.397 J0.
X136.547 Z24.008 I0.397 J0.
X135.753 Z24. I-0.397 J0.
X136.547 Z23.992 I0.397 J0.
X135.753 Z23.984 I-0.397 J0.
X136.547 Z23.976 I0.397 J0.
X135.753 Z23.969 I-0.397 J0.
X136.547 Z23.961 I0.397 J0.
X135.753 Z23.953 I-0.397 J0.
X136.547 Z23.945 I0.397 J0.
X135.753 Z23.938 I-0.397 J0.
X136.547 Z23.93 I0.397 J0.
X135.753 Z23.922 I-0.397 J0.
X136.547 Z23.914 I0.397 J0.
X135.753 Z23.906 I-0.397 J0.
X136.547 Z23.899 I0.397 J0.
X135.753 Z23.891 I-0.397 J0.
X136.547 Z23.883 I0.397 J0.
X135.753 Z23.875 I-0.397 J0.
X136.547 Z23.867 I0.397 J0.
X135.753 Z23.86 I-0.397 J0.
X136.547 Z23.852 I0.397 J0.
X135.753 Z23.844 I-0.397 J0.
X136.547 Z23.836 I0.397 J0.
X135.753 Z23.828 I-0.397 J0.
X136.547 Z23.821 I0.397 J0.
X135.753 Z23.813 I-0.397 J0.
X136.547 Z23.805 I0.397 J0.
X135.753 Z23.797 I-0.397 J0.
X136.547 Z23.789 I0.397 J0.
X135.753 Z23.782 I-0.397 J0.
X136.547 Z23.774 I0.397 J0.
X135.753 Z23.766 I-0.397 J0.
X136.547 Z23.758 I0.397 J0.
X135.753 Z23.751 I-0.397 J0.
X136.547 Z23.743 I0.397 J0.
X135.753 Z23.735 I-0.397 J0.
X136.547 Z23.727 I0.397 J0.
X135.753 Z23.719 I-0.397 J0.
X136.547 Z23.712 I0.397 J0.
X135.753 Z23.704 I-0.397 J0.
X136.547 Z23.696 I0.397 J0.
X135.753 Z23.688 I-0.397 J0.
X136.547 Z23.68 I0.397 J0.
X135.753 Z23.673 I-0.397 J0.
X136.547 Z23.665 I0.397 J0.
X135.753 Z23.657 I-0.397 J0.
X136.547 Z23.649 I0.397 J0.
X135.753 Z23.641 I-0.397 J0.
X136.547 Z23.634 I0.397 J0.
X135.753 Z23.626 I-0.397 J0.
X136.547 Z23.618 I0.397 J0.
X135.753 Z23.61 I-0.397 J0.
X136.547 Z23.602 I0.397 J0.
X135.753 Z23.595 I-0.397 J0.
X136.547 Z23.587 I0.397 J0.
X135.753 Z23.579 I-0.397 J0.
X136.547 Z23.571 I0.397 J0.
X135.753 Z23.563 I-0.397 J0.
X136.547 Z23.556 I0.397 J0.
X135.753 Z23.548 I-0.397 J0.
X136.547 Z23.54 I0.397 J0.
X135.753 Z23.532 I-0.397 J0.
X136.547 Z23.525 I0.397 J0.
X135.753 Z23.517 I-0.397 J0.
X136.547 Z23.509 I0.397 J0.
X135.753 Z23.501 I-0.397 J0.
X136.547 Z23.493 I0.397 J0.
X135.753 Z23.486 I-0.397 J0.
X136.547 Z23.478 I0.397 J0.
X135.753 Z23.47 I-0.397 J0.
X136.547 Z23.462 I0.397 J0.
X135.753 Z23.454 I-0.397 J0.
X136.547 Z23.447 I0.397 J0.
X135.753 Z23.439 I-0.397 J0.
X136.547 Z23.431 I0.397 J0.
X135.753 Z23.423 I-0.397 J0.
X136.547 Z23.415 I0.397 J0.
X135.753 Z23.408 I-0.397 J0.
X136.547 Z23.4 I0.397 J0.
X135.753 Z23.392 I-0.397 J0.
X136.547 Z23.384 I0.397 J0.
X135.753 Z23.376 I-0.397 J0.
X136.547 Z23.369 I0.397 J0.
X135.753 Z23.361 I-0.397 J0.
X136.547 Z23.353 I0.397 J0.
X135.753 Z23.345 I-0.397 J0.
X136.547 Z23.337 I0.397 J0.
X135.753 Z23.33 I-0.397 J0.
X136.547 Z23.322 I0.397 J0.
X135.753 Z23.314 I-0.397 J0.
X136.547 Z23.306 I0.397 J0.
X135.753 Z23.299 I-0.397 J0.
X136.547 Z23.291 I0.397 J0.
X135.753 Z23.283 I-0.397 J0.
X136.547 Z23.275 I0.397 J0.
X135.753 Z23.267 I-0.397 J0.
X136.547 Z23.26 I0.397 J0.
X135.753 Z23.252 I-0.397 J0.
X136.547 Z23.244 I0.397 J0.
X135.753 Z23.236 I-0.397 J0.
X136.547 Z23.228 I0.397 J0.
X135.753 Z23.221 I-0.397 J0.
X136.547 Z23.213 I0.397 J0.
X135.753 Z23.205 I-0.397 J0.
X136.547 Z23.197 I0.397 J0.
X135.753 Z23.189 I-0.397 J0.
X136.547 Z23.182 I0.397 J0.
X135.753 Z23.174 I-0.397 J0.
X136.547 Z23.166 I0.397 J0.
X135.753 Z23.158 I-0.397 J0.
X136.547 Z23.15 I0.397 J0.
X135.753 Z23.143 I-0.397 J0.
X136.547 Z23.135 I0.397 J0.
X135.753 Z23.127 I-0.397 J0.
X136.547 Z23.119 I0.397 J0.
X135.753 Z23.112 I-0.397 J0.
X136.547 Z23.104 I0.397 J0.
X135.753 Z23.096 I-0.397 J0.
X136.547 Z23.088 I0.397 J0.
X135.753 Z23.08 I-0.397 J0.
X136.547 Z23.073 I0.397 J0.
X135.753 Z23.065 I-0.397 J0.
X136.547 Z23.057 I0.397 J0.
X135.753 Z23.049 I-0.397 J0.
X136.547 Z23.041 I0.397 J0.
X135.753 Z23.034 I-0.397 J0.
X136.547 Z23.026 I0.397 J0.
X135.753 Z23.018 I-0.397 J0.
X136.547 Z23.01 I0.397 J0.
X135.753 Z23.002 I-0.397 J0.
X136.547 Z22.995 I0.397 J0.
X135.753 Z22.987 I-0.397 J0.
X136.547 Z22.979 I0.397 J0.
X135.753 Z22.971 I-0.397 J0.
X136.547 Z22.963 I0.397 J0.
X135.753 Z22.956 I-0.397 J0.
X136.547 Z22.948 I0.397 J0.
X135.753 Z22.94 I-0.397 J0.
X136.547 Z22.932 I0.397 J0.
X135.753 Z22.924 I-0.397 J0.
X136.547 Z22.917 I0.397 J0.
X135.753 Z22.909 I-0.397 J0.
X136.547 Z22.901 I0.397 J0.
X135.753 Z22.893 I-0.397 J0.
X136.547 Z22.886 I0.397 J0.
X135.753 Z22.878 I-0.397 J0.
X136.547 Z22.87 I0.397 J0.
X135.753 Z22.862 I-0.397 J0.
X136.547 Z22.854 I0.397 J0.
X135.753 Z22.847 I-0.397 J0.
X136.547 Z22.839 I0.397 J0.
X135.753 Z22.831 I-0.397 J0.
X136.547 Z22.823 I0.397 J0.
X135.753 Z22.815 I-0.397 J0.
X136.547 Z22.808 I0.397 J0.
X135.753 Z22.8 I-0.397 J0.
X136.547 Z22.792 I0.397 J0.
X135.753 Z22.784 I-0.397 J0.
X136.547 Z22.776 I0.397 J0.
X135.753 Z22.769 I-0.397 J0.
X136.547 Z22.761 I0.397 J0.
X135.753 Z22.753 I-0.397 J0.
X136.547 Z22.745 I0.397 J0.
X135.753 Z22.737 I-0.397 J0.
X136.547 Z22.73 I0.397 J0.
X135.753 Z22.722 I-0.397 J0.
X136.547 Z22.714 I0.397 J0.
X135.753 Z22.706 I-0.397 J0.
X136.547 Z22.698 I0.397 J0.
X135.753 Z22.691 I-0.397 J0.
X136.547 Z22.683 I0.397 J0.
X135.753 Z22.675 I-0.397 J0.
X136.547 Z22.667 I0.397 J0.
X135.753 Z22.66 I-0.397 J0.
X136.547 Z22.652 I0.397 J0.
X135.753 Z22.644 I-0.397 J0.
X136.547 Z22.636 I0.397 J0.
X135.753 Z22.628 I-0.397 J0.
X136.547 Z22.621 I0.397 J0.
X135.753 Z22.613 I-0.397 J0.
X136.547 Z22.605 I0.397 J0.
X135.753 Z22.597 I-0.397 J0.
X136.547 Z22.589 I0.397 J0.
X135.753 Z22.582 I-0.397 J0.
X136.547 Z22.574 I0.397 J0.
X135.753 Z22.566 I-0.397 J0.
X136.547 Z22.558 I0.397 J0.
X135.753 Z22.55 I-0.397 J0.
X136.547 Z22.543 I0.397 J0.
X135.753 Z22.535 I-0.397 J0.
X136.547 Z22.527 I0.397 J0.
X135.753 Z22.519 I-0.397 J0.
X136.547 Z22.511 I0.397 J0.
X135.753 Z22.504 I-0.397 J0.
X136.547 Z22.496 I0.397 J0.
X135.753 Z22.488 I-0.397 J0.
X136.547 Z22.48 I0.397 J0.
X135.753 Z22.473 I-0.397 J0.
X136.547 Z22.465 I0.397 J0.
X135.753 Z22.457 I-0.397 J0.
X136.547 Z22.449 I0.397 J0.
X135.753 Z22.441 I-0.397 J0.
X136.547 Z22.434 I0.397 J0.
X135.753 Z22.426 I-0.397 J0.
X136.547 Z22.418 I0.397 J0.
X135.753 Z22.41 I-0.397 J0.
X136.547 Z22.402 I0.397 J0.
X135.753 Z22.395 I-0.397 J0.
X136.547 Z22.387 I0.397 J0.
X135.753 Z22.379 I-0.397 J0.
X136.547 Z22.371 I0.397 J0.
X135.753 Z22.363 I-0.397 J0.
X136.547 Z22.356 I0.397 J0.
X135.753 Z22.348 I-0.397 J0.
X136.547 Z22.34 I0.397 J0.
X135.753 Z22.332 I-0.397 J0.
X136.547 Z22.324 I0.397 J0.
X135.753 Z22.317 I-0.397 J0.
X136.547 Z22.309 I0.397 J0.
X135.753 Z22.301 I-0.397 J0.
X136.547 Z22.293 I0.397 J0.
X135.753 Z22.285 I-0.397 J0.
X136.547 Z22.278 I0.397 J0.
X135.753 Z22.27 I-0.397 J0.
X136.547 Z22.262 I0.397 J0.
X135.753 Z22.254 I-0.397 J0.
X136.547 Z22.247 I0.397 J0.
X135.753 Z22.239 I-0.397 J0.
X136.547 Z22.231 I0.397 J0.
X135.753 Z22.223 I-0.397 J0.
X136.547 Z22.215 I0.397 J0.
X135.753 Z22.208 I-0.397 J0.
X136.547 Z22.2 I0.397 J0.
X135.753 Z22.192 I-0.397 J0.
X136.547 Z22.184 I0.397 J0.
X135.753 Z22.176 I-0.397 J0.
X136.547 Z22.169 I0.397 J0.
X135.753 Z22.161 I-0.397 J0.
X136.547 Z22.153 I0.397 J0.
X135.753 Z22.145 I-0.397 J0.
X136.547 Z22.137 I0.397 J0.
X135.753 Z22.13 I-0.397 J0.
X136.547 Z22.122 I0.397 J0.
X135.753 Z22.114 I-0.397 J0.
X136.547 Z22.106 I0.397 J0.
X135.753 Z22.098 I-0.397 J0.
X136.547 Z22.091 I0.397 J0.
X135.753 Z22.083 I-0.397 J0.
X136.547 Z22.075 I0.397 J0.
X135.753 Z22.067 I-0.397 J0.
X136.547 Z22.06 I0.397 J0.
X135.753 Z22.052 I-0.397 J0.
X136.547 Z22.044 I0.397 J0.
X135.753 Z22.036 I-0.397 J0.
X136.547 Z22.028 I0.397 J0.
X135.753 Z22.021 I-0.397 J0.
X136.547 Z22.013 I0.397 J0.
X135.753 Z22.005 I-0.397 J0.
X136.547 Z21.997 I0.397 J0.
X135.753 Z21.989 I-0.397 J0.
X136.547 Z21.982 I0.397 J0.
X135.753 Z21.974 I-0.397 J0.
X136.547 Z21.966 I0.397 J0.
X135.753 Z21.958 I-0.397 J0.
X136.547 Z21.95 I0.397 J0.
X135.753 Z21.943 I-0.397 J0.
X136.547 Z21.935 I0.397 J0.
X135.753 Z21.927 I-0.397 J0.
X136.547 Z21.919 I0.397 J0.
X135.753 Z21.911 I-0.397 J0.
X136.547 Z21.904 I0.397 J0.
X135.753 Z21.896 I-0.397 J0.
X136.547 Z21.888 I0.397 J0.
X135.753 Z21.88 I-0.397 J0.
X136.547 Z21.872 I0.397 J0.
X135.753 Z21.865 I-0.397 J0.
X136.547 Z21.857 I0.397 J0.
X135.753 Z21.849 I-0.397 J0.
X136.547 Z21.841 I0.397 J0.
X135.753 Z21.834 I-0.397 J0.
X136.547 Z21.826 I0.397 J0.
X135.753 Z21.818 I-0.397 J0.
X136.547 Z21.81 I0.397 J0.
X135.753 Z21.802 I-0.397 J0.
X136.547 Z21.795 I0.397 J0.
X135.753 Z21.787 I-0.397 J0.
X136.547 Z21.779 I0.397 J0.
X135.753 Z21.771 I-0.397 J0.
X136.547 Z21.763 I0.397 J0.
X135.753 Z21.756 I-0.397 J0.
X136.547 Z21.748 I0.397 J0.
X135.753 Z21.74 I-0.397 J0.
X136.547 Z21.732 I0.397 J0.
X135.753 Z21.724 I-0.397 J0.
X136.547 Z21.717 I0.397 J0.
X135.753 Z21.709 I-0.397 J0.
X136.547 Z21.701 I0.397 J0.
X135.753 Z21.693 I-0.397 J0.
X136.547 Z21.685 I0.397 J0.
X135.753 Z21.678 I-0.397 J0.
X136.547 Z21.67 I0.397 J0.
X135.753 Z21.662 I-0.397 J0.
X136.547 Z21.654 I0.397 J0.
X135.753 Z21.646 I-0.397 J0.
X136.547 Z21.639 I0.397 J0.
X135.753 Z21.631 I-0.397 J0.
X136.547 Z21.623 I0.397 J0.
X135.753 Z21.615 I-0.397 J0.
X136.547 Z21.608 I0.397 J0.
X135.753 Z21.6 I-0.397 J0.
X136.547 Z21.592 I0.397 J0.
X135.753 Z21.584 I-0.397 J0.
X136.547 Z21.576 I0.397 J0.
X135.753 Z21.569 I-0.397 J0.
X136.547 Z21.561 I0.397 J0.
X135.753 Z21.553 I-0.397 J0.
X136.547 Z21.545 I0.397 J0.
X135.753 Z21.537 I-0.397 J0.
X136.547 Z21.53 I0.397 J0.
X135.753 Z21.522 I-0.397 J0.
X136.547 Z21.514 I0.397 J0.
X135.753 Z21.506 I-0.397 J0.
X136.547 Z21.498 I0.397 J0.
X135.753 Z21.491 I-0.397 J0.
X136.547 Z21.483 I0.397 J0.
X135.753 Z21.475 I-0.397 J0.
X136.547 Z21.467 I0.397 J0.
X135.753 Z21.459 I-0.397 J0.
X136.547 Z21.452 I0.397 J0.
X135.753 Z21.444 I-0.397 J0.
X136.547 Z21.436 I0.397 J0.
X135.753 Z21.428 I-0.397 J0.
X136.547 Z21.421 I0.397 J0.
X135.753 Z21.413 I-0.397 J0.
X136.547 Z21.405 I0.397 J0.
X135.753 Z21.397 I-0.397 J0.
X136.547 Z21.389 I0.397 J0.
X135.753 Z21.382 I-0.397 J0.
X136.547 Z21.374 I0.397 J0.
X135.753 Z21.366 I-0.397 J0.
X136.547 Z21.358 I0.397 J0.
X135.753 Z21.35 I-0.397 J0.
X136.547 Z21.343 I0.397 J0.
X135.753 Z21.335 I-0.397 J0.
X136.547 Z21.327 I0.397 J0.
X135.753 Z21.319 I-0.397 J0.
X136.547 Z21.311 I0.397 J0.
X135.753 Z21.304 I-0.397 J0.
X136.547 Z21.296 I0.397 J0.
X135.753 Z21.288 I-0.397 J0.
X136.547 Z21.28 I0.397 J0.
X135.753 Z21.272 I-0.397 J0.
X136.547 Z21.265 I0.397 J0.
X135.753 Z21.257 I-0.397 J0.
X136.547 Z21.249 I0.397 J0.
X135.753 Z21.241 I-0.397 J0.
X136.547 Z21.233 I0.397 J0.
X136.095 Y126.607 Z21.229 I-0.397 J0.
X135.768 Y127.109 Z21.225 I0.055 J0.393
X136.532 Y126.891 I0.382 J-0.109
X135.768 Y127.109 I-0.382 J0.109
X136.014 Y127.245 I0.191 J-0.055
G1 X136.319 Y127.158
G0 Z45.

(2D POCKET1 4)
G0 X136.15 Y19.447
Z45.
Z30.4
G1 Z27.9 F800.
Z21.225 F200.
G2 Y18.653 I0. J-0.397 F800.
Y19.447 I0. J0.397
G1 X136.221 Y19.441 Z21.237
X136.29 Y19.421 Z21.25
X136.355 Y19.39 Z21.262
X136.406 Y19.354 Z21.298
X136.451 Y19.309 Z21.334
X136.488 Y19.258 Z21.37
X136.52 Y19.195 Z21.453
X136.539 Y19.127 Z21.536
X136.547 Y19.05 Z21.74
Y19.039 Z21.86
G0 Z30.4
X104.4 Y19.447
G1 Z27.9 F200.
Z21.225
G2 Y18.653 I0. J-0.397 F800.
Y19.447 I0. J0.397
G1 X104.471 Y19.441 Z21.237
X104.54 Y19.421 Z21.25
X104.605 Y19.39 Z21.262
X104.656 Y19.354 Z21.298
X104.701 Y19.309 Z21.334
X104.738 Y19.258 Z21.37
X104.77 Y19.195 Z21.453
X104.789 Y19.127 Z21.536
X104.797 Y19.05 Z21.74
Y19.039 Z21.86
G0 Z30.4
X104.4 Y126.603
G1 Z27.9 F200.
Z21.225
G2 Y127.397 I0. J0.397 F800.
Y126.603 I0. J-0.397
G1 X104.329 Y126.609 Z21.237
X104.26 Y126.629 Z21.25
X104.195 Y126.66 Z21.262
X104.144 Y126.696 Z21.298
X104.099 Y126.741 Z21.334
X104.062 Y126.792 Z21.37
X104.03 Y126.855 Z21.453
X104.011 Y126.923 Z21.536
X104.003 Y127. Z21.74
Y127.011 Z21.86
G0 Z30.4
X136.547 Y127.
G1 Z27.9 F200.
Z21.225
G2 X135.753 I-0.397 J0. F800.
X136.547 I0.397 J0.
G1 X136.541 Y126.929 Z21.237
X136.521 Y126.86 Z21.25
X136.49 Y126.795 Z21.262
X136.454 Y126.744 Z21.298
X136.409 Y126.699 Z21.334
X136.358 Y126.662 Z21.37
X136.295 Y126.63 Z21.453
X136.227 Y126.611 Z21.536
X136.15 Y126.603 Z21.74
X136.139 Z21.86
G0 Z45.
M5
G0 Z45
G0 X0 Y0

M30
