(1001)
(T1  D=6.35 CR=0. - ZMIN=20.225 - FLAT END MILL)
G90 G94 G91.1 G40 G49 G17
G21
(2ND HOLE )
G0 Z45

(BORE5)
M5
T1 M6
S16000 M3
G54
G0 X120.478 Y-3.315
G43 Z46.4 H1
Z28.765
G1 Z27.4 F800.
Y-3.632
G2 X120.275 Y-3.836 I-0.203 J0.
Y-3.023 Z27.337 I0. J0.406
Y-3.836 Z27.275 I0. J-0.406
Y-3.023 Z27.212 I0. J0.406
Y-3.836 Z27.15 I0. J-0.406
Y-3.023 Z27.087 I0. J0.406
Y-3.836 Z27.025 I0. J-0.406
Y-3.023 Z26.962 I0. J0.406
Y-3.836 Z26.9 I0. J-0.406
Y-3.023 Z26.837 I0. J0.406
Y-3.836 Z26.775 I0. J-0.406
Y-3.023 Z26.712 I0. J0.406
Y-3.836 Z26.65 I0. J-0.406
Y-3.023 Z26.587 I0. J0.406
Y-3.836 Z26.525 I0. J-0.406
Y-3.023 Z26.462 I0. J0.406
Y-3.836 Z26.4 I0. J-0.406
Y-3.023 Z26.337 I0. J0.406
Y-3.836 Z26.275 I0. J-0.406
Y-3.023 Z26.212 I0. J0.406
Y-3.836 Z26.15 I0. J-0.406
Y-3.023 Z26.087 I0. J0.406
Y-3.836 Z26.025 I0. J-0.406
Y-3.023 Z25.962 I0. J0.406
Y-3.836 Z25.9 I0. J-0.406
Y-3.023 Z25.837 I0. J0.406
Y-3.836 Z25.775 I0. J-0.406
Y-3.023 Z25.712 I0. J0.406
Y-3.836 Z25.65 I0. J-0.406
Y-3.023 Z25.587 I0. J0.406
Y-3.836 Z25.525 I0. J-0.406
Y-3.023 Z25.462 I0. J0.406
Y-3.836 Z25.4 I0. J-0.406
Y-3.023 Z25.337 I0. J0.406
Y-3.836 Z25.275 I0. J-0.406
Y-3.023 Z25.212 I0. J0.406
Y-3.836 Z25.15 I0. J-0.406
Y-3.023 Z25.087 I0. J0.406
Y-3.836 Z25.024 I0. J-0.406
Y-3.023 Z24.962 I0. J0.406
Y-3.836 Z24.899 I0. J-0.406
Y-3.023 Z24.837 I0. J0.406
Y-3.836 Z24.774 I0. J-0.406
Y-3.023 Z24.712 I0. J0.406
Y-3.836 Z24.649 I0. J-0.406
Y-3.023 Z24.587 I0. J0.406
Y-3.836 Z24.524 I0. J-0.406
Y-3.023 Z24.462 I0. J0.406
Y-3.836 Z24.399 I0. J-0.406
Y-3.023 Z24.337 I0. J0.406
Y-3.836 Z24.274 I0. J-0.406
Y-3.023 Z24.212 I0. J0.406
Y-3.836 Z24.149 I0. J-0.406
Y-3.023 Z24.087 I0. J0.406
Y-3.836 Z24.024 I0. J-0.406
Y-3.023 Z23.962 I0. J0.406
Y-3.836 Z23.899 I0. J-0.406
Y-3.023 Z23.837 I0. J0.406
Y-3.836 Z23.774 I0. J-0.406
Y-3.023 Z23.712 I0. J0.406
Y-3.836 Z23.649 I0. J-0.406
Y-3.023 Z23.587 I0. J0.406
Y-3.836 Z23.524 I0. J-0.406
Y-3.023 Z23.462 I0. J0.406
Y-3.836 Z23.399 I0. J-0.406
Y-3.023 Z23.337 I0. J0.406
Y-3.836 Z23.274 I0. J-0.406
Y-3.023 Z23.212 I0. J0.406
Y-3.836 Z23.149 I0. J-0.406
Y-3.023 Z23.087 I0. J0.406
Y-3.836 Z23.024 I0. J-0.406
Y-3.023 Z22.962 I0. J0.406
Y-3.836 Z22.899 I0. J-0.406
Y-3.023 Z22.837 I0. J0.406
Y-3.836 Z22.774 I0. J-0.406
Y-3.023 Z22.711 I0. J0.406
Y-3.836 Z22.649 I0. J-0.406
Y-3.023 Z22.586 I0. J0.406
Y-3.836 Z22.524 I0. J-0.406
Y-3.023 Z22.461 I0. J0.406
Y-3.836 Z22.399 I0. J-0.406
Y-3.023 Z22.336 I0. J0.406
Y-3.836 Z22.274 I0. J-0.406
Y-3.023 Z22.211 I0. J0.406
Y-3.836 Z22.149 I0. J-0.406
Y-3.023 Z22.086 I0. J0.406
Y-3.836 Z22.024 I0. J-0.406
Y-3.023 Z21.961 I0. J0.406
Y-3.836 Z21.899 I0. J-0.406
Y-3.023 Z21.836 I0. J0.406
Y-3.836 Z21.774 I0. J-0.406
Y-3.023 Z21.711 I0. J0.406
Y-3.836 Z21.649 I0. J-0.406
Y-3.023 Z21.586 I0. J0.406
Y-3.836 Z21.524 I0. J-0.406
Y-3.023 Z21.461 I0. J0.406
Y-3.836 Z21.399 I0. J-0.406
Y-3.023 Z21.336 I0. J0.406
Y-3.836 Z21.274 I0. J-0.406
Y-3.023 Z21.211 I0. J0.406
Y-3.836 Z21.149 I0. J-0.406
Y-3.023 Z21.086 I0. J0.406
Y-3.836 Z21.024 I0. J-0.406
Y-3.023 Z20.961 I0. J0.406
Y-3.836 Z20.899 I0. J-0.406
Y-3.023 Z20.836 I0. J0.406
Y-3.836 Z20.774 I0. J-0.406
Y-3.023 Z20.711 I0. J0.406
Y-3.836 Z20.649 I0. J-0.406
Y-3.023 Z20.586 I0. J0.406
Y-3.836 Z20.524 I0. J-0.406
Y-3.023 Z20.461 I0. J0.406
Y-3.836 Z20.398 I0. J-0.406
Y-3.023 Z20.336 I0. J0.406
Y-3.836 Z20.273 I0. J-0.406
X120.011 Y-3.12 Z20.225 I0. J0.406
X120.539 Y-3.738 I0.264 J-0.309
X120.011 Y-3.12 I-0.264 J0.309
X120.298 Y-3.143 I0.132 J-0.155
G1 X120.504 Y-3.384
G0 Z31.4
X120.478 Y57.798
Z28.765
G1 Z27.4 F800.
Y57.48
G2 X120.275 Y57.277 I-0.203 J0.
Y58.09 Z27.337 I0. J0.406
Y57.277 Z27.275 I0. J-0.406
Y58.09 Z27.212 I0. J0.406
Y57.277 Z27.15 I0. J-0.406
Y58.09 Z27.087 I0. J0.406
Y57.277 Z27.025 I0. J-0.406
Y58.09 Z26.962 I0. J0.406
Y57.277 Z26.9 I0. J-0.406
Y58.09 Z26.837 I0. J0.406
Y57.277 Z26.775 I0. J-0.406
Y58.09 Z26.712 I0. J0.406
Y57.277 Z26.65 I0. J-0.406
Y58.09 Z26.587 I0. J0.406
Y57.277 Z26.525 I0. J-0.406
Y58.09 Z26.462 I0. J0.406
Y57.277 Z26.4 I0. J-0.406
Y58.09 Z26.337 I0. J0.406
Y57.277 Z26.275 I0. J-0.406
Y58.09 Z26.212 I0. J0.406
Y57.277 Z26.15 I0. J-0.406
Y58.09 Z26.087 I0. J0.406
Y57.277 Z26.025 I0. J-0.406
Y58.09 Z25.962 I0. J0.406
Y57.277 Z25.9 I0. J-0.406
Y58.09 Z25.837 I0. J0.406
Y57.277 Z25.775 I0. J-0.406
Y58.09 Z25.712 I0. J0.406
Y57.277 Z25.65 I0. J-0.406
Y58.09 Z25.587 I0. J0.406
Y57.277 Z25.525 I0. J-0.406
Y58.09 Z25.462 I0. J0.406
Y57.277 Z25.4 I0. J-0.406
Y58.09 Z25.337 I0. J0.406
Y57.277 Z25.275 I0. J-0.406
Y58.09 Z25.212 I0. J0.406
Y57.277 Z25.15 I0. J-0.406
Y58.09 Z25.087 I0. J0.406
Y57.277 Z25.024 I0. J-0.406
Y58.09 Z24.962 I0. J0.406
Y57.277 Z24.899 I0. J-0.406
Y58.09 Z24.837 I0. J0.406
Y57.277 Z24.774 I0. J-0.406
Y58.09 Z24.712 I0. J0.406
Y57.277 Z24.649 I0. J-0.406
Y58.09 Z24.587 I0. J0.406
Y57.277 Z24.524 I0. J-0.406
Y58.09 Z24.462 I0. J0.406
Y57.277 Z24.399 I0. J-0.406
Y58.09 Z24.337 I0. J0.406
Y57.277 Z24.274 I0. J-0.406
Y58.09 Z24.212 I0. J0.406
Y57.277 Z24.149 I0. J-0.406
Y58.09 Z24.087 I0. J0.406
Y57.277 Z24.024 I0. J-0.406
Y58.09 Z23.962 I0. J0.406
Y57.277 Z23.899 I0. J-0.406
Y58.09 Z23.837 I0. J0.406
Y57.277 Z23.774 I0. J-0.406
Y58.09 Z23.712 I0. J0.406
Y57.277 Z23.649 I0. J-0.406
Y58.09 Z23.587 I0. J0.406
Y57.277 Z23.524 I0. J-0.406
Y58.09 Z23.462 I0. J0.406
Y57.277 Z23.399 I0. J-0.406
Y58.09 Z23.337 I0. J0.406
Y57.277 Z23.274 I0. J-0.406
Y58.09 Z23.212 I0. J0.406
Y57.277 Z23.149 I0. J-0.406
Y58.09 Z23.087 I0. J0.406
Y57.277 Z23.024 I0. J-0.406
Y58.09 Z22.962 I0. J0.406
Y57.277 Z22.899 I0. J-0.406
Y58.09 Z22.837 I0. J0.406
Y57.277 Z22.774 I0. J-0.406
Y58.09 Z22.711 I0. J0.406
Y57.277 Z22.649 I0. J-0.406
Y58.09 Z22.586 I0. J0.406
Y57.277 Z22.524 I0. J-0.406
Y58.09 Z22.461 I0. J0.406
Y57.277 Z22.399 I0. J-0.406
Y58.09 Z22.336 I0. J0.406
Y57.277 Z22.274 I0. J-0.406
Y58.09 Z22.211 I0. J0.406
Y57.277 Z22.149 I0. J-0.406
Y58.09 Z22.086 I0. J0.406
Y57.277 Z22.024 I0. J-0.406
Y58.09 Z21.961 I0. J0.406
Y57.277 Z21.899 I0. J-0.406
Y58.09 Z21.836 I0. J0.406
Y57.277 Z21.774 I0. J-0.406
Y58.09 Z21.711 I0. J0.406
Y57.277 Z21.649 I0. J-0.406
Y58.09 Z21.586 I0. J0.406
Y57.277 Z21.524 I0. J-0.406
Y58.09 Z21.461 I0. J0.406
Y57.277 Z21.399 I0. J-0.406
Y58.09 Z21.336 I0. J0.406
Y57.277 Z21.274 I0. J-0.406
Y58.09 Z21.211 I0. J0.406
Y57.277 Z21.149 I0. J-0.406
Y58.09 Z21.086 I0. J0.406
Y57.277 Z21.024 I0. J-0.406
Y58.09 Z20.961 I0. J0.406
Y57.277 Z20.899 I0. J-0.406
Y58.09 Z20.836 I0. J0.406
Y57.277 Z20.774 I0. J-0.406
Y58.09 Z20.711 I0. J0.406
Y57.277 Z20.649 I0. J-0.406
Y58.09 Z20.586 I0. J0.406
Y57.277 Z20.524 I0. J-0.406
Y58.09 Z20.461 I0. J0.406
Y57.277 Z20.398 I0. J-0.406
Y58.09 Z20.336 I0. J0.406
Y57.277 Z20.273 I0. J-0.406
X120.011 Y57.992 Z20.225 I0. J0.406
X120.539 Y57.374 I0.264 J-0.309
X120.011 Y57.992 I-0.264 J0.309
X120.298 Y57.97 I0.132 J-0.155
G1 X120.504 Y57.728
G0 Z46.4

(BORE6)
M8
G0 X120.91 Y25.539
Z45.4
Z28.4
G1 Z27.035 F800.
G19 G2 Y24.904 Z26.4 J-0.635 K0.
G1 Y24.587
G17 G2 X120.275 Y23.952 I-0.635 J0.
Y30.302 Z26.289 I0. J3.175
Y23.952 Z26.178 I0. J-3.175
Y30.302 Z26.067 I0. J3.175
Y23.952 Z25.957 I0. J-3.175
Y30.302 Z25.846 I0. J3.175
Y23.952 Z25.735 I0. J-3.175
Y30.302 Z25.624 I0. J3.175
Y23.952 Z25.513 I0. J-3.175
Y30.302 Z25.402 I0. J3.175
Y23.952 Z25.292 I0. J-3.175
Y30.302 Z25.181 I0. J3.175
Y23.952 Z25.07 I0. J-3.175
Y30.302 Z24.959 I0. J3.175
Y23.952 Z24.848 I0. J-3.175
Y30.302 Z24.737 I0. J3.175
Y23.952 Z24.627 I0. J-3.175
Y30.302 Z24.516 I0. J3.175
Y23.952 Z24.405 I0. J-3.175
Y30.302 Z24.294 I0. J3.175
Y23.952 Z24.183 I0. J-3.175
Y30.302 Z24.072 I0. J3.175
Y23.952 Z23.962 I0. J-3.175
Y30.302 Z23.851 I0. J3.175
Y23.952 Z23.74 I0. J-3.175
Y30.302 Z23.629 I0. J3.175
Y23.952 Z23.518 I0. J-3.175
Y30.302 Z23.407 I0. J3.175
Y23.952 Z23.296 I0. J-3.175
Y30.302 Z23.186 I0. J3.175
Y23.952 Z23.075 I0. J-3.175
Y30.302 Z22.964 I0. J3.175
Y23.952 Z22.853 I0. J-3.175
Y30.302 Z22.742 I0. J3.175
Y23.952 Z22.631 I0. J-3.175
Y30.302 Z22.521 I0. J3.175
Y23.952 Z22.41 I0. J-3.175
Y30.302 Z22.299 I0. J3.175
Y23.952 Z22.188 I0. J-3.175
Y30.302 Z22.077 I0. J3.175
Y23.952 Z21.966 I0. J-3.175
Y30.302 Z21.856 I0. J3.175
Y23.952 Z21.745 I0. J-3.175
Y30.302 Z21.634 I0. J3.175
Y23.952 Z21.523 I0. J-3.175
Y30.302 Z21.412 I0. J3.175
Y23.952 Z21.301 I0. J-3.175
Y30.302 Z21.191 I0. J3.175
Y23.952 Z21.08 I0. J-3.175
Y30.302 Z20.969 I0. J3.175
Y23.952 Z20.858 I0. J-3.175
Y30.302 Z20.747 I0. J3.175
Y23.952 Z20.636 I0. J-3.175
Y30.302 Z20.525 I0. J3.175
Y23.952 Z20.415 I0. J-3.175
Y30.302 Z20.304 I0. J3.175
X122.777 Y25.172 Z20.225 I0. J-3.175
X117.773 Y29.082 I-2.502 J1.955
X122.777 Y25.172 I2.502 J-1.955
X121.886 Y25.063 I-0.5 J0.391
G1 X121.635 Y25.258
X121.557 Y25.319 Z20.233
X121.481 Y25.379 Z20.256
X121.408 Y25.436 Z20.294
X121.341 Y25.488 Z20.346
X121.282 Y25.535 Z20.411
X121.231 Y25.575 Z20.487
X121.19 Y25.607 Z20.572
X121.16 Y25.63 Z20.664
X121.141 Y25.644 Z20.761
X121.135 Y25.649 Z20.86
G0 Z30.4
X120.91 Y22.365
Z28.4
G1 Z27.035 F800.
G19 G2 Y21.729 Z26.4 J-0.635 K0.
G1 Y21.412
G17 G2 X120.275 Y20.777 I-0.635 J0.
Y33.477 Z26.234 I0. J6.35
Y20.777 Z26.067 I0. J-6.35
Y33.477 Z25.901 I0. J6.35
Y20.777 Z25.735 I0. J-6.35
Y33.477 Z25.569 I0. J6.35
Y20.777 Z25.402 I0. J-6.35
Y33.477 Z25.236 I0. J6.35
Y20.777 Z25.07 I0. J-6.35
Y33.477 Z24.904 I0. J6.35
Y20.777 Z24.737 I0. J-6.35
Y33.477 Z24.571 I0. J6.35
Y20.777 Z24.405 I0. J-6.35
Y33.477 Z24.239 I0. J6.35
Y20.777 Z24.072 I0. J-6.35
Y33.477 Z23.906 I0. J6.35
Y20.777 Z23.74 I0. J-6.35
Y33.477 Z23.574 I0. J6.35
Y20.777 Z23.407 I0. J-6.35
Y33.477 Z23.241 I0. J6.35
Y20.777 Z23.075 I0. J-6.35
Y33.477 Z22.909 I0. J6.35
Y20.777 Z22.742 I0. J-6.35
Y33.477 Z22.576 I0. J6.35
Y20.777 Z22.41 I0. J-6.35
Y33.477 Z22.244 I0. J6.35
Y20.777 Z22.077 I0. J-6.35
Y33.477 Z21.911 I0. J6.35
Y20.777 Z21.745 I0. J-6.35
Y33.477 Z21.578 I0. J6.35
Y20.777 Z21.412 I0. J-6.35
Y33.477 Z21.246 I0. J6.35
Y20.777 Z21.08 I0. J-6.35
Y33.477 Z20.913 I0. J6.35
Y20.777 Z20.747 I0. J-6.35
Y33.477 Z20.581 I0. J6.35
Y20.777 Z20.415 I0. J-6.35
Y33.477 Z20.248 I0. J6.35
X122.992 Y32.866 Z20.225 I0. J-6.35
X117.558 Y21.388 I-2.717 J-5.739
X122.992 Y32.866 I2.717 J5.739
X123.294 Y32.021 I-0.272 J-0.574
G1 X123.158 Y31.734
X123.116 Y31.644 Z20.233
X123.074 Y31.556 Z20.256
X123.035 Y31.473 Z20.294
X122.999 Y31.396 Z20.346
X122.966 Y31.328 Z20.411
X122.939 Y31.269 Z20.487
X122.916 Y31.222 Z20.572
X122.9 Y31.188 Z20.664
X122.89 Y31.167 Z20.761
X122.887 Y31.16 Z20.86
G0 Z45.4
M5
G0 Z45
G0 X0 Y0

M9
M30
