(OUTSIDE CUT 3)
(T1  D=6.35 CR=0. - ZMIN=20.225 - FLAT END MILL)
G90 G94 G91.1 G40 G49 G17
G21
(7TH HOLE)
G0 Z45

(BORE13)
M5
T1 M6
S16000 M3
G54
G0 X120.478 Y-52.947
G43 Z35.4 H1
Z27.765
G1 Z26.4 F800.
Y-52.63
G3 X120.275 Y-52.427 I-0.203 J0.
Y-53.24 Z26.337 I0. J-0.406
Y-52.427 Z26.275 I0. J0.406
Y-53.24 Z26.212 I0. J-0.406
Y-52.427 Z26.15 I0. J0.406
Y-53.24 Z26.087 I0. J-0.406
Y-52.427 Z26.025 I0. J0.406
Y-53.24 Z25.962 I0. J-0.406
Y-52.427 Z25.9 I0. J0.406
Y-53.24 Z25.837 I0. J-0.406
Y-52.427 Z25.775 I0. J0.406
Y-53.24 Z25.712 I0. J-0.406
Y-52.427 Z25.65 I0. J0.406
Y-53.24 Z25.587 I0. J-0.406
Y-52.427 Z25.525 I0. J0.406
Y-53.24 Z25.462 I0. J-0.406
Y-52.427 Z25.4 I0. J0.406
Y-53.24 Z25.337 I0. J-0.406
Y-52.427 Z25.275 I0. J0.406
Y-53.24 Z25.212 I0. J-0.406
Y-52.427 Z25.15 I0. J0.406
Y-53.24 Z25.087 I0. J-0.406
Y-52.427 Z25.025 I0. J0.406
Y-53.24 Z24.962 I0. J-0.406
Y-52.427 Z24.9 I0. J0.406
Y-53.24 Z24.837 I0. J-0.406
Y-52.427 Z24.775 I0. J0.406
Y-53.24 Z24.712 I0. J-0.406
Y-52.427 Z24.65 I0. J0.406
Y-53.24 Z24.587 I0. J-0.406
Y-52.427 Z24.525 I0. J0.406
Y-53.24 Z24.462 I0. J-0.406
Y-52.427 Z24.4 I0. J0.406
Y-53.24 Z24.337 I0. J-0.406
Y-52.427 Z24.275 I0. J0.406
Y-53.24 Z24.212 I0. J-0.406
Y-52.427 Z24.15 I0. J0.406
Y-53.24 Z24.087 I0. J-0.406
Y-52.427 Z24.024 I0. J0.406
Y-53.24 Z23.962 I0. J-0.406
Y-52.427 Z23.899 I0. J0.406
Y-53.24 Z23.837 I0. J-0.406
Y-52.427 Z23.774 I0. J0.406
Y-53.24 Z23.712 I0. J-0.406
Y-52.427 Z23.649 I0. J0.406
Y-53.24 Z23.587 I0. J-0.406
Y-52.427 Z23.524 I0. J0.406
Y-53.24 Z23.462 I0. J-0.406
Y-52.427 Z23.399 I0. J0.406
Y-53.24 Z23.337 I0. J-0.406
Y-52.427 Z23.274 I0. J0.406
Y-53.24 Z23.212 I0. J-0.406
Y-52.427 Z23.149 I0. J0.406
Y-53.24 Z23.087 I0. J-0.406
Y-52.427 Z23.024 I0. J0.406
Y-53.24 Z22.962 I0. J-0.406
Y-52.427 Z22.899 I0. J0.406
Y-53.24 Z22.837 I0. J-0.406
Y-52.427 Z22.774 I0. J0.406
Y-53.24 Z22.712 I0. J-0.406
Y-52.427 Z22.649 I0. J0.406
Y-53.24 Z22.587 I0. J-0.406
Y-52.427 Z22.524 I0. J0.406
Y-53.24 Z22.462 I0. J-0.406
Y-52.427 Z22.399 I0. J0.406
Y-53.24 Z22.337 I0. J-0.406
Y-52.427 Z22.274 I0. J0.406
Y-53.24 Z22.212 I0. J-0.406
Y-52.427 Z22.149 I0. J0.406
Y-53.24 Z22.087 I0. J-0.406
Y-52.427 Z22.024 I0. J0.406
Y-53.24 Z21.962 I0. J-0.406
Y-52.427 Z21.899 I0. J0.406
Y-53.24 Z21.837 I0. J-0.406
Y-52.427 Z21.774 I0. J0.406
Y-53.24 Z21.711 I0. J-0.406
Y-52.427 Z21.649 I0. J0.406
Y-53.24 Z21.586 I0. J-0.406
Y-52.427 Z21.524 I0. J0.406
Y-53.24 Z21.461 I0. J-0.406
Y-52.427 Z21.399 I0. J0.406
Y-53.24 Z21.336 I0. J-0.406
Y-52.427 Z21.274 I0. J0.406
Y-53.24 Z21.211 I0. J-0.406
Y-52.427 Z21.149 I0. J0.406
Y-53.24 Z21.086 I0. J-0.406
Y-52.427 Z21.024 I0. J0.406
Y-53.24 Z20.961 I0. J-0.406
Y-52.427 Z20.899 I0. J0.406
Y-53.24 Z20.836 I0. J-0.406
Y-52.427 Z20.774 I0. J0.406
Y-53.24 Z20.711 I0. J-0.406
Y-52.427 Z20.649 I0. J0.406
Y-53.24 Z20.586 I0. J-0.406
Y-52.427 Z20.524 I0. J0.406
Y-53.24 Z20.461 I0. J-0.406
Y-52.427 Z20.399 I0. J0.406
Y-53.24 Z20.336 I0. J-0.406
Y-52.427 Z20.274 I0. J0.406
X120.015 Y-53.145 Z20.225 I0. J-0.406
X120.535 Y-52.521 I0.26 J0.312
X120.015 Y-53.145 I-0.26 J-0.312
X120.301 Y-53.119 I0.13 J0.156
G1 X120.504 Y-52.876
G0 Z30.4
X120.478 Y8.165
Z27.765
G1 Z26.4 F800.
Y8.482
G3 X120.275 Y8.686 I-0.203 J0.
Y7.873 Z26.337 I0. J-0.406
Y8.686 Z26.275 I0. J0.406
Y7.873 Z26.212 I0. J-0.406
Y8.686 Z26.15 I0. J0.406
Y7.873 Z26.087 I0. J-0.406
Y8.686 Z26.025 I0. J0.406
Y7.873 Z25.962 I0. J-0.406
Y8.686 Z25.9 I0. J0.406
Y7.873 Z25.837 I0. J-0.406
Y8.686 Z25.775 I0. J0.406
Y7.873 Z25.712 I0. J-0.406
Y8.686 Z25.65 I0. J0.406
Y7.873 Z25.587 I0. J-0.406
Y8.686 Z25.525 I0. J0.406
Y7.873 Z25.462 I0. J-0.406
Y8.686 Z25.4 I0. J0.406
Y7.873 Z25.337 I0. J-0.406
Y8.686 Z25.275 I0. J0.406
Y7.873 Z25.212 I0. J-0.406
Y8.686 Z25.15 I0. J0.406
Y7.873 Z25.087 I0. J-0.406
Y8.686 Z25.025 I0. J0.406
Y7.873 Z24.962 I0. J-0.406
Y8.686 Z24.9 I0. J0.406
Y7.873 Z24.837 I0. J-0.406
Y8.686 Z24.775 I0. J0.406
Y7.873 Z24.712 I0. J-0.406
Y8.686 Z24.65 I0. J0.406
Y7.873 Z24.587 I0. J-0.406
Y8.686 Z24.525 I0. J0.406
Y7.873 Z24.462 I0. J-0.406
Y8.686 Z24.4 I0. J0.406
Y7.873 Z24.337 I0. J-0.406
Y8.686 Z24.275 I0. J0.406
Y7.873 Z24.212 I0. J-0.406
Y8.686 Z24.15 I0. J0.406
Y7.873 Z24.087 I0. J-0.406
Y8.686 Z24.024 I0. J0.406
Y7.873 Z23.962 I0. J-0.406
Y8.686 Z23.899 I0. J0.406
Y7.873 Z23.837 I0. J-0.406
Y8.686 Z23.774 I0. J0.406
Y7.873 Z23.712 I0. J-0.406
Y8.686 Z23.649 I0. J0.406
Y7.873 Z23.587 I0. J-0.406
Y8.686 Z23.524 I0. J0.406
Y7.873 Z23.462 I0. J-0.406
Y8.686 Z23.399 I0. J0.406
Y7.873 Z23.337 I0. J-0.406
Y8.686 Z23.274 I0. J0.406
Y7.873 Z23.212 I0. J-0.406
Y8.686 Z23.149 I0. J0.406
Y7.873 Z23.087 I0. J-0.406
Y8.686 Z23.024 I0. J0.406
Y7.873 Z22.962 I0. J-0.406
Y8.686 Z22.899 I0. J0.406
Y7.873 Z22.837 I0. J-0.406
Y8.686 Z22.774 I0. J0.406
Y7.873 Z22.712 I0. J-0.406
Y8.686 Z22.649 I0. J0.406
Y7.873 Z22.587 I0. J-0.406
Y8.686 Z22.524 I0. J0.406
Y7.873 Z22.462 I0. J-0.406
Y8.686 Z22.399 I0. J0.406
Y7.873 Z22.337 I0. J-0.406
Y8.686 Z22.274 I0. J0.406
Y7.873 Z22.212 I0. J-0.406
Y8.686 Z22.149 I0. J0.406
Y7.873 Z22.087 I0. J-0.406
Y8.686 Z22.024 I0. J0.406
Y7.873 Z21.962 I0. J-0.406
Y8.686 Z21.899 I0. J0.406
Y7.873 Z21.837 I0. J-0.406
Y8.686 Z21.774 I0. J0.406
Y7.873 Z21.711 I0. J-0.406
Y8.686 Z21.649 I0. J0.406
Y7.873 Z21.586 I0. J-0.406
Y8.686 Z21.524 I0. J0.406
Y7.873 Z21.461 I0. J-0.406
Y8.686 Z21.399 I0. J0.406
Y7.873 Z21.336 I0. J-0.406
Y8.686 Z21.274 I0. J0.406
Y7.873 Z21.211 I0. J-0.406
Y8.686 Z21.149 I0. J0.406
Y7.873 Z21.086 I0. J-0.406
Y8.686 Z21.024 I0. J0.406
Y7.873 Z20.961 I0. J-0.406
Y8.686 Z20.899 I0. J0.406
Y7.873 Z20.836 I0. J-0.406
Y8.686 Z20.774 I0. J0.406
Y7.873 Z20.711 I0. J-0.406
Y8.686 Z20.649 I0. J0.406
Y7.873 Z20.586 I0. J-0.406
Y8.686 Z20.524 I0. J0.406
Y7.873 Z20.461 I0. J-0.406
Y8.686 Z20.399 I0. J0.406
Y7.873 Z20.336 I0. J-0.406
Y8.686 Z20.274 I0. J0.406
X120.015 Y7.967 Z20.225 I0. J-0.406
X120.535 Y8.591 I0.26 J0.312
X120.015 Y7.967 I-0.26 J-0.312
X120.301 Y7.993 I0.13 J0.156
G1 X120.504 Y8.237
G0 Z35.4

(BORE14)
G0 Z45.4
X120.91 Y-20.69
Z28.4
G1 Z27.035 F800.
G19 G3 Y-20.055 Z26.4 J0.635 K0.
G1 Y-19.737
G17 G3 X120.275 Y-19.102 I-0.635 J0.
Y-25.452 Z26.289 I0. J-3.175
Y-19.102 Z26.178 I0. J3.175
Y-25.452 Z26.067 I0. J-3.175
Y-19.102 Z25.957 I0. J3.175
Y-25.452 Z25.846 I0. J-3.175
Y-19.102 Z25.735 I0. J3.175
Y-25.452 Z25.624 I0. J-3.175
Y-19.102 Z25.513 I0. J3.175
Y-25.452 Z25.402 I0. J-3.175
Y-19.102 Z25.292 I0. J3.175
Y-25.452 Z25.181 I0. J-3.175
Y-19.102 Z25.07 I0. J3.175
Y-25.452 Z24.959 I0. J-3.175
Y-19.102 Z24.848 I0. J3.175
Y-25.452 Z24.737 I0. J-3.175
Y-19.102 Z24.627 I0. J3.175
Y-25.452 Z24.516 I0. J-3.175
Y-19.102 Z24.405 I0. J3.175
Y-25.452 Z24.294 I0. J-3.175
Y-19.102 Z24.183 I0. J3.175
Y-25.452 Z24.072 I0. J-3.175
Y-19.102 Z23.962 I0. J3.175
Y-25.452 Z23.851 I0. J-3.175
Y-19.102 Z23.74 I0. J3.175
Y-25.452 Z23.629 I0. J-3.175
Y-19.102 Z23.518 I0. J3.175
Y-25.452 Z23.407 I0. J-3.175
Y-19.102 Z23.296 I0. J3.175
Y-25.452 Z23.186 I0. J-3.175
Y-19.102 Z23.075 I0. J3.175
Y-25.452 Z22.964 I0. J-3.175
Y-19.102 Z22.853 I0. J3.175
Y-25.452 Z22.742 I0. J-3.175
Y-19.102 Z22.631 I0. J3.175
Y-25.452 Z22.521 I0. J-3.175
Y-19.102 Z22.41 I0. J3.175
Y-25.452 Z22.299 I0. J-3.175
Y-19.102 Z22.188 I0. J3.175
Y-25.452 Z22.077 I0. J-3.175
Y-19.102 Z21.966 I0. J3.175
Y-25.452 Z21.856 I0. J-3.175
Y-19.102 Z21.745 I0. J3.175
Y-25.452 Z21.634 I0. J-3.175
Y-19.102 Z21.523 I0. J3.175
Y-25.452 Z21.412 I0. J-3.175
Y-19.102 Z21.301 I0. J3.175
Y-25.452 Z21.191 I0. J-3.175
Y-19.102 Z21.08 I0. J3.175
Y-25.452 Z20.969 I0. J-3.175
Y-19.102 Z20.858 I0. J3.175
Y-25.452 Z20.747 I0. J-3.175
Y-19.102 Z20.636 I0. J3.175
Y-25.452 Z20.525 I0. J-3.175
Y-19.102 Z20.415 I0. J3.175
Y-25.452 Z20.304 I0. J-3.175
X122.777 Y-20.322 Z20.225 I0. J3.175
X117.773 Y-24.232 I-2.502 J-1.955
X122.777 Y-20.322 I2.502 J1.955
X121.886 Y-20.213 I-0.5 J-0.391
G1 X121.635 Y-20.408
X121.557 Y-20.469 Z20.233
X121.481 Y-20.529 Z20.256
X121.408 Y-20.586 Z20.294
X121.341 Y-20.638 Z20.346
X121.282 Y-20.685 Z20.411
X121.231 Y-20.725 Z20.487
X121.19 Y-20.757 Z20.572
X121.16 Y-20.78 Z20.664
X121.141 Y-20.794 Z20.761
X121.135 Y-20.799 Z20.86
G0 Z30.4
X120.91 Y-17.514
Z28.4
G1 Z27.035 F800.
G19 G3 Y-16.879 Z26.4 J0.635 K0.
G1 Y-16.562
G17 G3 X120.275 Y-15.927 I-0.635 J0.
Y-28.627 Z26.234 I0. J-6.35
Y-15.927 Z26.067 I0. J6.35
Y-28.627 Z25.901 I0. J-6.35
Y-15.927 Z25.735 I0. J6.35
Y-28.627 Z25.569 I0. J-6.35
Y-15.927 Z25.402 I0. J6.35
Y-28.627 Z25.236 I0. J-6.35
Y-15.927 Z25.07 I0. J6.35
Y-28.627 Z24.904 I0. J-6.35
Y-15.927 Z24.737 I0. J6.35
Y-28.627 Z24.571 I0. J-6.35
Y-15.927 Z24.405 I0. J6.35
Y-28.627 Z24.239 I0. J-6.35
Y-15.927 Z24.072 I0. J6.35
Y-28.627 Z23.906 I0. J-6.35
Y-15.927 Z23.74 I0. J6.35
Y-28.627 Z23.574 I0. J-6.35
Y-15.927 Z23.407 I0. J6.35
Y-28.627 Z23.241 I0. J-6.35
Y-15.927 Z23.075 I0. J6.35
Y-28.627 Z22.909 I0. J-6.35
Y-15.927 Z22.742 I0. J6.35
Y-28.627 Z22.576 I0. J-6.35
Y-15.927 Z22.41 I0. J6.35
Y-28.627 Z22.244 I0. J-6.35
Y-15.927 Z22.077 I0. J6.35
Y-28.627 Z21.911 I0. J-6.35
Y-15.927 Z21.745 I0. J6.35
Y-28.627 Z21.578 I0. J-6.35
Y-15.927 Z21.412 I0. J6.35
Y-28.627 Z21.246 I0. J-6.35
Y-15.927 Z21.08 I0. J6.35
Y-28.627 Z20.913 I0. J-6.35
Y-15.927 Z20.747 I0. J6.35
Y-28.627 Z20.581 I0. J-6.35
Y-15.927 Z20.415 I0. J6.35
Y-28.627 Z20.248 I0. J-6.35
X122.992 Y-28.016 Z20.225 I0. J6.35
X117.558 Y-16.538 I-2.717 J5.739
X122.992 Y-28.016 I2.717 J-5.739
X123.294 Y-27.171 I-0.272 J0.574
G1 X123.158 Y-26.884
X123.116 Y-26.794 Z20.233
X123.074 Y-26.706 Z20.256
X123.035 Y-26.623 Z20.294
X122.999 Y-26.546 Z20.346
X122.966 Y-26.478 Z20.411
X122.939 Y-26.419 Z20.487
X122.916 Y-26.372 Z20.572
X122.9 Y-26.338 Z20.664
X122.89 Y-26.317 Z20.761
X122.887 Y-26.31 Z20.86
G0 Z45.4
M5
G0 Z45
G0 X0 Y0

M30
