(3RD QUAD HOLES )
(T1  D=3.175 CR=0. - ZMIN=-7.425 - FLAT END MILL)
G90 G94 G91.1 G40 G49 G17
G21
G0 Z15

(BORE2)
M5
T1 M6
S15000 M3
G54
G0 X43.051 Y277.466
G43 Z16. H1
Z1.575
G1 Z-0.108 F1600.
X43.058 Y277.47 Z-0.178
X43.078 Y277.482 Z-0.245
X43.111 Y277.501 Z-0.305
X43.155 Y277.526 Z-0.356
X43.207 Y277.556 Z-0.394
X43.265 Y277.59 Z-0.417
X43.326 Y277.625 Z-0.425
X43.464 Y277.704
G2 X43.897 Y277.588 I0.159 J-0.275
X38.398 Y274.413 Z-0.508 I-2.75 J-1.587
X43.897 Y277.588 Z-0.591 I2.75 J1.587
X38.398 Y274.413 Z-0.674 I-2.75 J-1.587
X43.897 Y277.588 Z-0.758 I2.75 J1.587
X38.398 Y274.413 Z-0.841 I-2.75 J-1.587
X43.897 Y277.588 Z-0.924 I2.75 J1.587
X38.398 Y274.413 Z-1.007 I-2.75 J-1.587
X43.897 Y277.588 Z-1.09 I2.75 J1.587
X38.398 Y274.413 Z-1.173 I-2.75 J-1.587
X43.897 Y277.588 Z-1.256 I2.75 J1.587
X38.398 Y274.413 Z-1.339 I-2.75 J-1.587
X43.897 Y277.588 Z-1.423 I2.75 J1.587
X38.398 Y274.413 Z-1.506 I-2.75 J-1.587
X43.897 Y277.588 Z-1.589 I2.75 J1.587
X38.398 Y274.413 Z-1.672 I-2.75 J-1.587
X43.897 Y277.588 Z-1.755 I2.75 J1.587
X38.398 Y274.413 Z-1.838 I-2.75 J-1.587
X43.897 Y277.588 Z-1.921 I2.75 J1.587
X38.398 Y274.413 Z-2.004 I-2.75 J-1.587
X43.897 Y277.588 Z-2.088 I2.75 J1.587
X38.398 Y274.413 Z-2.171 I-2.75 J-1.587
X43.897 Y277.588 Z-2.254 I2.75 J1.587
X38.398 Y274.413 Z-2.337 I-2.75 J-1.587
X43.897 Y277.588 Z-2.42 I2.75 J1.587
X38.398 Y274.413 Z-2.503 I-2.75 J-1.587
X43.897 Y277.588 Z-2.586 I2.75 J1.587
X38.398 Y274.413 Z-2.67 I-2.75 J-1.587
X43.897 Y277.588 Z-2.753 I2.75 J1.587
X38.398 Y274.413 Z-2.836 I-2.75 J-1.587
X43.897 Y277.588 Z-2.919 I2.75 J1.587
X38.398 Y274.413 Z-3.002 I-2.75 J-1.587
X43.897 Y277.588 Z-3.085 I2.75 J1.587
X38.398 Y274.413 Z-3.168 I-2.75 J-1.587
X43.897 Y277.588 Z-3.251 I2.75 J1.587
X38.398 Y274.413 Z-3.335 I-2.75 J-1.587
X43.897 Y277.588 Z-3.418 I2.75 J1.587
X38.398 Y274.413 Z-3.501 I-2.75 J-1.587
X43.897 Y277.588 Z-3.584 I2.75 J1.587
X38.398 Y274.413 Z-3.667 I-2.75 J-1.587
X43.897 Y277.588 Z-3.75 I2.75 J1.587
X38.398 Y274.413 Z-3.833 I-2.75 J-1.587
X43.897 Y277.588 Z-3.916 I2.75 J1.587
X38.398 Y274.413 Z-4. I-2.75 J-1.587
X43.897 Y277.588 Z-4.083 I2.75 J1.587
X38.398 Y274.413 Z-4.166 I-2.75 J-1.587
X43.897 Y277.588 Z-4.249 I2.75 J1.587
X38.398 Y274.413 Z-4.332 I-2.75 J-1.587
X43.897 Y277.588 Z-4.415 I2.75 J1.587
X38.398 Y274.413 Z-4.498 I-2.75 J-1.587
X43.897 Y277.588 Z-4.581 I2.75 J1.587
X38.398 Y274.413 Z-4.665 I-2.75 J-1.587
X43.897 Y277.588 Z-4.748 I2.75 J1.587
X38.398 Y274.413 Z-4.831 I-2.75 J-1.587
X43.897 Y277.588 Z-4.914 I2.75 J1.587
X38.398 Y274.413 Z-4.997 I-2.75 J-1.587
X43.897 Y277.588 Z-5.08 I2.75 J1.587
X38.398 Y274.413 Z-5.163 I-2.75 J-1.587
X43.897 Y277.588 Z-5.247 I2.75 J1.587
X38.398 Y274.413 Z-5.33 I-2.75 J-1.587
X43.897 Y277.588 Z-5.413 I2.75 J1.587
X38.398 Y274.413 Z-5.496 I-2.75 J-1.587
X43.897 Y277.588 Z-5.579 I2.75 J1.587
X38.398 Y274.413 Z-5.662 I-2.75 J-1.587
X43.897 Y277.588 Z-5.745 I2.75 J1.587
X38.398 Y274.413 Z-5.828 I-2.75 J-1.587
X43.897 Y277.588 Z-5.912 I2.75 J1.587
X38.398 Y274.413 Z-5.995 I-2.75 J-1.587
X43.897 Y277.588 Z-6.078 I2.75 J1.587
X38.398 Y274.413 Z-6.161 I-2.75 J-1.587
X43.897 Y277.588 Z-6.244 I2.75 J1.587
X38.398 Y274.413 Z-6.327 I-2.75 J-1.587
X43.897 Y277.588 Z-6.41 I2.75 J1.587
X38.398 Y274.413 Z-6.493 I-2.75 J-1.587
X43.897 Y277.588 Z-6.577 I2.75 J1.587
X38.398 Y274.413 Z-6.66 I-2.75 J-1.587
X43.897 Y277.588 Z-6.743 I2.75 J1.587
X38.398 Y274.413 Z-6.826 I-2.75 J-1.587
X43.897 Y277.588 Z-6.909 I2.75 J1.587
X38.398 Y274.413 Z-6.992 I-2.75 J-1.587
X43.897 Y277.588 Z-7.075 I2.75 J1.587
X38.398 Y274.413 Z-7.159 I-2.75 J-1.587
X43.897 Y277.588 Z-7.242 I2.75 J1.587
X38.398 Y274.413 Z-7.325 I-2.75 J-1.587
X43.897 Y277.588 Z-7.408 I2.75 J1.587
X44.299 Y275.612 Z-7.425 I-2.75 J-1.587
X37.997 Y276.389 I-3.151 J0.389
X44.299 Y275.612 I3.151 J-0.389
X43.945 Y275.336 I-0.315 J0.039
G1 X43.787 Y275.355
X43.717 Y275.364 Z-7.417
X43.651 Y275.372 Z-7.394
X43.591 Y275.379 Z-7.356
X43.541 Y275.386 Z-7.305
X43.503 Y275.39 Z-7.245
X43.48 Y275.393 Z-7.178
X43.472 Y275.394 Z-7.108
G0 Z6.
X122.508 Y261.81
Z1.575
G1 Z-0.108 F1600.
G18 G3 X122.19 Z-0.425 I-0.317 K0.
G1 X122.031
G17 G2 X121.714 Y262.128 I0. J0.317
X124.889 Z-0.48 I1.588 J0.
X121.714 Z-0.536 I-1.588 J0.
X124.889 Z-0.591 I1.588 J0.
X121.714 Z-0.647 I-1.588 J0.
X124.889 Z-0.702 I1.588 J0.
X121.714 Z-0.758 I-1.588 J0.
X124.889 Z-0.813 I1.588 J0.
X121.714 Z-0.868 I-1.588 J0.
X124.889 Z-0.924 I1.588 J0.
X121.714 Z-0.979 I-1.588 J0.
X124.889 Z-1.035 I1.588 J0.
X121.714 Z-1.09 I-1.588 J0.
X124.889 Z-1.145 I1.588 J0.
X121.714 Z-1.201 I-1.588 J0.
X124.889 Z-1.256 I1.588 J0.
X121.714 Z-1.312 I-1.588 J0.
X124.889 Z-1.367 I1.588 J0.
X121.714 Z-1.423 I-1.588 J0.
X124.889 Z-1.478 I1.588 J0.
X121.714 Z-1.533 I-1.588 J0.
X124.889 Z-1.589 I1.588 J0.
X121.714 Z-1.644 I-1.588 J0.
X124.889 Z-1.7 I1.588 J0.
X121.714 Z-1.755 I-1.588 J0.
X124.889 Z-1.81 I1.588 J0.
X121.714 Z-1.866 I-1.588 J0.
X124.889 Z-1.921 I1.588 J0.
X121.714 Z-1.977 I-1.588 J0.
X124.889 Z-2.032 I1.588 J0.
X121.714 Z-2.088 I-1.588 J0.
X124.889 Z-2.143 I1.588 J0.
X121.714 Z-2.198 I-1.588 J0.
X124.889 Z-2.254 I1.588 J0.
X121.714 Z-2.309 I-1.588 J0.
X124.889 Z-2.365 I1.588 J0.
X121.714 Z-2.42 I-1.588 J0.
X124.889 Z-2.476 I1.588 J0.
X121.714 Z-2.531 I-1.588 J0.
X124.889 Z-2.586 I1.588 J0.
X121.714 Z-2.642 I-1.588 J0.
X124.889 Z-2.697 I1.588 J0.
X121.714 Z-2.753 I-1.588 J0.
X124.889 Z-2.808 I1.588 J0.
X121.714 Z-2.863 I-1.588 J0.
X124.889 Z-2.919 I1.588 J0.
X121.714 Z-2.974 I-1.588 J0.
X124.889 Z-3.03 I1.588 J0.
X121.714 Z-3.085 I-1.588 J0.
X124.889 Z-3.141 I1.588 J0.
X121.714 Z-3.196 I-1.588 J0.
X124.889 Z-3.251 I1.588 J0.
X121.714 Z-3.307 I-1.588 J0.
X124.889 Z-3.362 I1.588 J0.
X121.714 Z-3.418 I-1.588 J0.
X124.889 Z-3.473 I1.588 J0.
X121.714 Z-3.529 I-1.588 J0.
X124.889 Z-3.584 I1.588 J0.
X121.714 Z-3.639 I-1.588 J0.
X124.889 Z-3.695 I1.588 J0.
X121.714 Z-3.75 I-1.588 J0.
X124.889 Z-3.806 I1.588 J0.
X121.714 Z-3.861 I-1.588 J0.
X124.889 Z-3.916 I1.588 J0.
X121.714 Z-3.972 I-1.588 J0.
X124.889 Z-4.027 I1.588 J0.
X121.714 Z-4.083 I-1.588 J0.
X124.889 Z-4.138 I1.588 J0.
X121.714 Z-4.194 I-1.588 J0.
X124.889 Z-4.249 I1.588 J0.
X121.714 Z-4.304 I-1.588 J0.
X124.889 Z-4.36 I1.588 J0.
X121.714 Z-4.415 I-1.588 J0.
X124.889 Z-4.471 I1.588 J0.
X121.714 Z-4.526 I-1.588 J0.
X124.889 Z-4.581 I1.588 J0.
X121.714 Z-4.637 I-1.588 J0.
X124.889 Z-4.692 I1.588 J0.
X121.714 Z-4.748 I-1.588 J0.
X124.889 Z-4.803 I1.588 J0.
X121.714 Z-4.859 I-1.588 J0.
X124.889 Z-4.914 I1.588 J0.
X121.714 Z-4.969 I-1.588 J0.
X124.889 Z-5.025 I1.588 J0.
X121.714 Z-5.08 I-1.588 J0.
X124.889 Z-5.136 I1.588 J0.
X121.714 Z-5.191 I-1.588 J0.
X124.889 Z-5.247 I1.588 J0.
X121.714 Z-5.302 I-1.588 J0.
X124.889 Z-5.357 I1.588 J0.
X121.714 Z-5.413 I-1.588 J0.
X124.889 Z-5.468 I1.588 J0.
X121.714 Z-5.524 I-1.588 J0.
X124.889 Z-5.579 I1.588 J0.
X121.714 Z-5.634 I-1.588 J0.
X124.889 Z-5.69 I1.588 J0.
X121.714 Z-5.745 I-1.588 J0.
X124.889 Z-5.801 I1.588 J0.
X121.714 Z-5.856 I-1.588 J0.
X124.889 Z-5.912 I1.588 J0.
X121.714 Z-5.967 I-1.588 J0.
X124.889 Z-6.022 I1.588 J0.
X121.714 Z-6.078 I-1.588 J0.
X124.889 Z-6.133 I1.588 J0.
X121.714 Z-6.189 I-1.588 J0.
X124.889 Z-6.244 I1.588 J0.
X121.714 Z-6.3 I-1.588 J0.
X124.889 Z-6.355 I1.588 J0.
X121.714 Z-6.41 I-1.588 J0.
X124.889 Z-6.466 I1.588 J0.
X121.714 Z-6.521 I-1.588 J0.
X124.889 Z-6.577 I1.588 J0.
X121.714 Z-6.632 I-1.588 J0.
X124.889 Z-6.687 I1.588 J0.
X121.714 Z-6.743 I-1.588 J0.
X124.889 Z-6.798 I1.588 J0.
X121.714 Z-6.854 I-1.588 J0.
X124.889 Z-6.909 I1.588 J0.
X121.714 Z-6.965 I-1.588 J0.
X124.889 Z-7.02 I1.588 J0.
X121.714 Z-7.075 I-1.588 J0.
X124.889 Z-7.131 I1.588 J0.
X121.714 Z-7.186 I-1.588 J0.
X124.889 Z-7.242 I1.588 J0.
X121.714 Z-7.297 I-1.588 J0.
X124.889 Z-7.352 I1.588 J0.
X121.714 Z-7.408 I-1.588 J0.
X122.403 Y263.437 Z-7.425 I1.588 J0.
X124.2 Y260.819 I0.898 J-1.309
X122.403 Y263.437 I-0.898 J1.309
X122.845 Y263.354 I0.18 J-0.262
G1 X122.934 Y263.224
X122.974 Y263.165 Z-7.417
X123.012 Y263.11 Z-7.394
X123.046 Y263.06 Z-7.356
X123.075 Y263.019 Z-7.305
X123.096 Y262.988 Z-7.245
X123.11 Y262.968 Z-7.178
X123.114 Y262.962 Z-7.108
G0 Z6.
X122.508 Y241.81
Z1.575
G1 Z-0.108 F1600.
G18 G3 X122.19 Z-0.425 I-0.317 K0.
G1 X122.031
G17 G2 X121.714 Y242.128 I0. J0.318
X124.889 Z-0.48 I1.588 J0.
X121.714 Z-0.536 I-1.588 J0.
X124.889 Z-0.591 I1.588 J0.
X121.714 Z-0.647 I-1.588 J0.
X124.889 Z-0.702 I1.588 J0.
X121.714 Z-0.758 I-1.588 J0.
X124.889 Z-0.813 I1.588 J0.
X121.714 Z-0.868 I-1.588 J0.
X124.889 Z-0.924 I1.588 J0.
X121.714 Z-0.979 I-1.588 J0.
X124.889 Z-1.035 I1.588 J0.
X121.714 Z-1.09 I-1.588 J0.
X124.889 Z-1.145 I1.588 J0.
X121.714 Z-1.201 I-1.588 J0.
X124.889 Z-1.256 I1.588 J0.
X121.714 Z-1.312 I-1.588 J0.
X124.889 Z-1.367 I1.588 J0.
X121.714 Z-1.423 I-1.588 J0.
X124.889 Z-1.478 I1.588 J0.
X121.714 Z-1.533 I-1.588 J0.
X124.889 Z-1.589 I1.588 J0.
X121.714 Z-1.644 I-1.588 J0.
X124.889 Z-1.7 I1.588 J0.
X121.714 Z-1.755 I-1.588 J0.
X124.889 Z-1.81 I1.588 J0.
X121.714 Z-1.866 I-1.588 J0.
X124.889 Z-1.921 I1.588 J0.
X121.714 Z-1.977 I-1.588 J0.
X124.889 Z-2.032 I1.588 J0.
X121.714 Z-2.088 I-1.588 J0.
X124.889 Z-2.143 I1.588 J0.
X121.714 Z-2.198 I-1.588 J0.
X124.889 Z-2.254 I1.588 J0.
X121.714 Z-2.309 I-1.588 J0.
X124.889 Z-2.365 I1.588 J0.
X121.714 Z-2.42 I-1.588 J0.
X124.889 Z-2.476 I1.588 J0.
X121.714 Z-2.531 I-1.588 J0.
X124.889 Z-2.586 I1.588 J0.
X121.714 Z-2.642 I-1.588 J0.
X124.889 Z-2.697 I1.588 J0.
X121.714 Z-2.753 I-1.588 J0.
X124.889 Z-2.808 I1.588 J0.
X121.714 Z-2.863 I-1.588 J0.
X124.889 Z-2.919 I1.588 J0.
X121.714 Z-2.974 I-1.588 J0.
X124.889 Z-3.03 I1.588 J0.
X121.714 Z-3.085 I-1.588 J0.
X124.889 Z-3.141 I1.588 J0.
X121.714 Z-3.196 I-1.588 J0.
X124.889 Z-3.251 I1.588 J0.
X121.714 Z-3.307 I-1.588 J0.
X124.889 Z-3.362 I1.588 J0.
X121.714 Z-3.418 I-1.588 J0.
X124.889 Z-3.473 I1.588 J0.
X121.714 Z-3.529 I-1.588 J0.
X124.889 Z-3.584 I1.588 J0.
X121.714 Z-3.639 I-1.588 J0.
X124.889 Z-3.695 I1.588 J0.
X121.714 Z-3.75 I-1.588 J0.
X124.889 Z-3.806 I1.588 J0.
X121.714 Z-3.861 I-1.588 J0.
X124.889 Z-3.916 I1.588 J0.
X121.714 Z-3.972 I-1.588 J0.
X124.889 Z-4.027 I1.588 J0.
X121.714 Z-4.083 I-1.588 J0.
X124.889 Z-4.138 I1.588 J0.
X121.714 Z-4.194 I-1.588 J0.
X124.889 Z-4.249 I1.588 J0.
X121.714 Z-4.304 I-1.588 J0.
X124.889 Z-4.36 I1.588 J0.
X121.714 Z-4.415 I-1.588 J0.
X124.889 Z-4.471 I1.588 J0.
X121.714 Z-4.526 I-1.588 J0.
X124.889 Z-4.581 I1.588 J0.
X121.714 Z-4.637 I-1.588 J0.
X124.889 Z-4.692 I1.588 J0.
X121.714 Z-4.748 I-1.588 J0.
X124.889 Z-4.803 I1.588 J0.
X121.714 Z-4.859 I-1.588 J0.
X124.889 Z-4.914 I1.588 J0.
X121.714 Z-4.969 I-1.588 J0.
X124.889 Z-5.025 I1.588 J0.
X121.714 Z-5.08 I-1.588 J0.
X124.889 Z-5.136 I1.588 J0.
X121.714 Z-5.191 I-1.588 J0.
X124.889 Z-5.247 I1.588 J0.
X121.714 Z-5.302 I-1.588 J0.
X124.889 Z-5.357 I1.588 J0.
X121.714 Z-5.413 I-1.588 J0.
X124.889 Z-5.468 I1.588 J0.
X121.714 Z-5.524 I-1.588 J0.
X124.889 Z-5.579 I1.588 J0.
X121.714 Z-5.634 I-1.588 J0.
X124.889 Z-5.69 I1.588 J0.
X121.714 Z-5.745 I-1.588 J0.
X124.889 Z-5.801 I1.588 J0.
X121.714 Z-5.856 I-1.588 J0.
X124.889 Z-5.912 I1.588 J0.
X121.714 Z-5.967 I-1.588 J0.
X124.889 Z-6.022 I1.588 J0.
X121.714 Z-6.078 I-1.588 J0.
X124.889 Z-6.133 I1.588 J0.
X121.714 Z-6.189 I-1.588 J0.
X124.889 Z-6.244 I1.588 J0.
X121.714 Z-6.3 I-1.588 J0.
X124.889 Z-6.355 I1.588 J0.
X121.714 Z-6.41 I-1.588 J0.
X124.889 Z-6.466 I1.588 J0.
X121.714 Z-6.521 I-1.588 J0.
X124.889 Z-6.577 I1.588 J0.
X121.714 Z-6.632 I-1.588 J0.
X124.889 Z-6.687 I1.588 J0.
X121.714 Z-6.743 I-1.588 J0.
X124.889 Z-6.798 I1.588 J0.
X121.714 Z-6.854 I-1.588 J0.
X124.889 Z-6.909 I1.588 J0.
X121.714 Z-6.965 I-1.588 J0.
X124.889 Z-7.02 I1.588 J0.
X121.714 Z-7.075 I-1.588 J0.
X124.889 Z-7.131 I1.588 J0.
X121.714 Z-7.186 I-1.588 J0.
X124.889 Z-7.242 I1.588 J0.
X121.714 Z-7.297 I-1.588 J0.
X124.889 Z-7.352 I1.588 J0.
X121.714 Z-7.408 I-1.588 J0.
X122.403 Y243.437 Z-7.425 I1.588 J0.
X124.2 Y240.819 I0.898 J-1.309
X122.403 Y243.437 I-0.898 J1.309
X122.845 Y243.354 I0.18 J-0.262
G1 X122.934 Y243.224
X122.974 Y243.165 Z-7.417
X123.012 Y243.11 Z-7.394
X123.046 Y243.06 Z-7.356
X123.075 Y243.019 Z-7.305
X123.096 Y242.988 Z-7.245
X123.11 Y242.968 Z-7.178
X123.114 Y242.962 Z-7.108
G0 Z6.
X122.508 Y221.81
Z1.575
G1 Z-0.108 F1600.
G18 G3 X122.19 Z-0.425 I-0.317 K0.
G1 X122.031
G17 G2 X121.714 Y222.128 I0. J0.318
X124.889 Z-0.48 I1.588 J0.
X121.714 Z-0.536 I-1.588 J0.
X124.889 Z-0.591 I1.588 J0.
X121.714 Z-0.647 I-1.588 J0.
X124.889 Z-0.702 I1.588 J0.
X121.714 Z-0.758 I-1.588 J0.
X124.889 Z-0.813 I1.588 J0.
X121.714 Z-0.868 I-1.588 J0.
X124.889 Z-0.924 I1.588 J0.
X121.714 Z-0.979 I-1.588 J0.
X124.889 Z-1.035 I1.588 J0.
X121.714 Z-1.09 I-1.588 J0.
X124.889 Z-1.145 I1.588 J0.
X121.714 Z-1.201 I-1.588 J0.
X124.889 Z-1.256 I1.588 J0.
X121.714 Z-1.312 I-1.588 J0.
X124.889 Z-1.367 I1.588 J0.
X121.714 Z-1.423 I-1.588 J0.
X124.889 Z-1.478 I1.588 J0.
X121.714 Z-1.533 I-1.588 J0.
X124.889 Z-1.589 I1.588 J0.
X121.714 Z-1.644 I-1.588 J0.
X124.889 Z-1.7 I1.588 J0.
X121.714 Z-1.755 I-1.588 J0.
X124.889 Z-1.81 I1.588 J0.
X121.714 Z-1.866 I-1.588 J0.
X124.889 Z-1.921 I1.588 J0.
X121.714 Z-1.977 I-1.588 J0.
X124.889 Z-2.032 I1.588 J0.
X121.714 Z-2.088 I-1.588 J0.
X124.889 Z-2.143 I1.588 J0.
X121.714 Z-2.198 I-1.588 J0.
X124.889 Z-2.254 I1.588 J0.
X121.714 Z-2.309 I-1.588 J0.
X124.889 Z-2.365 I1.588 J0.
X121.714 Z-2.42 I-1.588 J0.
X124.889 Z-2.476 I1.588 J0.
X121.714 Z-2.531 I-1.588 J0.
X124.889 Z-2.586 I1.588 J0.
X121.714 Z-2.642 I-1.588 J0.
X124.889 Z-2.697 I1.588 J0.
X121.714 Z-2.753 I-1.588 J0.
X124.889 Z-2.808 I1.588 J0.
X121.714 Z-2.863 I-1.588 J0.
X124.889 Z-2.919 I1.588 J0.
X121.714 Z-2.974 I-1.588 J0.
X124.889 Z-3.03 I1.588 J0.
X121.714 Z-3.085 I-1.588 J0.
X124.889 Z-3.141 I1.588 J0.
X121.714 Z-3.196 I-1.588 J0.
X124.889 Z-3.251 I1.588 J0.
X121.714 Z-3.307 I-1.588 J0.
X124.889 Z-3.362 I1.588 J0.
X121.714 Z-3.418 I-1.588 J0.
X124.889 Z-3.473 I1.588 J0.
X121.714 Z-3.529 I-1.588 J0.
X124.889 Z-3.584 I1.588 J0.
X121.714 Z-3.639 I-1.588 J0.
X124.889 Z-3.695 I1.588 J0.
X121.714 Z-3.75 I-1.588 J0.
X124.889 Z-3.806 I1.588 J0.
X121.714 Z-3.861 I-1.588 J0.
X124.889 Z-3.916 I1.588 J0.
X121.714 Z-3.972 I-1.588 J0.
X124.889 Z-4.027 I1.588 J0.
X121.714 Z-4.083 I-1.588 J0.
X124.889 Z-4.138 I1.588 J0.
X121.714 Z-4.194 I-1.588 J0.
X124.889 Z-4.249 I1.588 J0.
X121.714 Z-4.304 I-1.588 J0.
X124.889 Z-4.36 I1.588 J0.
X121.714 Z-4.415 I-1.588 J0.
X124.889 Z-4.471 I1.588 J0.
X121.714 Z-4.526 I-1.588 J0.
X124.889 Z-4.581 I1.588 J0.
X121.714 Z-4.637 I-1.588 J0.
X124.889 Z-4.692 I1.588 J0.
X121.714 Z-4.748 I-1.588 J0.
X124.889 Z-4.803 I1.588 J0.
X121.714 Z-4.859 I-1.588 J0.
X124.889 Z-4.914 I1.588 J0.
X121.714 Z-4.969 I-1.588 J0.
X124.889 Z-5.025 I1.588 J0.
X121.714 Z-5.08 I-1.588 J0.
X124.889 Z-5.136 I1.588 J0.
X121.714 Z-5.191 I-1.588 J0.
X124.889 Z-5.247 I1.588 J0.
X121.714 Z-5.302 I-1.588 J0.
X124.889 Z-5.357 I1.588 J0.
X121.714 Z-5.413 I-1.588 J0.
X124.889 Z-5.468 I1.588 J0.
X121.714 Z-5.524 I-1.588 J0.
X124.889 Z-5.579 I1.588 J0.
X121.714 Z-5.634 I-1.588 J0.
X124.889 Z-5.69 I1.588 J0.
X121.714 Z-5.745 I-1.588 J0.
X124.889 Z-5.801 I1.588 J0.
X121.714 Z-5.856 I-1.588 J0.
X124.889 Z-5.912 I1.588 J0.
X121.714 Z-5.967 I-1.588 J0.
X124.889 Z-6.022 I1.588 J0.
X121.714 Z-6.078 I-1.588 J0.
X124.889 Z-6.133 I1.588 J0.
X121.714 Z-6.189 I-1.588 J0.
X124.889 Z-6.244 I1.588 J0.
X121.714 Z-6.3 I-1.588 J0.
X124.889 Z-6.355 I1.588 J0.
X121.714 Z-6.41 I-1.588 J0.
X124.889 Z-6.466 I1.588 J0.
X121.714 Z-6.521 I-1.588 J0.
X124.889 Z-6.577 I1.588 J0.
X121.714 Z-6.632 I-1.588 J0.
X124.889 Z-6.687 I1.588 J0.
X121.714 Z-6.743 I-1.588 J0.
X124.889 Z-6.798 I1.588 J0.
X121.714 Z-6.854 I-1.588 J0.
X124.889 Z-6.909 I1.588 J0.
X121.714 Z-6.965 I-1.588 J0.
X124.889 Z-7.02 I1.588 J0.
X121.714 Z-7.075 I-1.588 J0.
X124.889 Z-7.131 I1.588 J0.
X121.714 Z-7.186 I-1.588 J0.
X124.889 Z-7.242 I1.588 J0.
X121.714 Z-7.297 I-1.588 J0.
X124.889 Z-7.352 I1.588 J0.
X121.714 Z-7.408 I-1.588 J0.
X122.403 Y223.437 Z-7.425 I1.588 J0.
X124.2 Y220.819 I0.898 J-1.309
X122.403 Y223.437 I-0.898 J1.309
X122.845 Y223.354 I0.18 J-0.262
G1 X122.934 Y223.224
X122.974 Y223.165 Z-7.417
X123.012 Y223.11 Z-7.394
X123.046 Y223.06 Z-7.356
X123.075 Y223.019 Z-7.305
X123.096 Y222.988 Z-7.245
X123.11 Y222.968 Z-7.178
X123.114 Y222.962 Z-7.108
G0 Z16.

(BORE4)
G0 X41.557 Y149.001
Z9.575
Z1.575
G1 Z-0.425 F1600.
X42.815 Y149.361
G3 X42.932 Y149.795 I-0.159 J0.275
X40.182 Y148.208 Z-0.48 I-1.375 J-0.794
X42.932 Y149.795 Z-0.536 I1.375 J0.794
X40.182 Y148.208 Z-0.591 I-1.375 J-0.794
X42.932 Y149.795 Z-0.647 I1.375 J0.794
X40.182 Y148.208 Z-0.702 I-1.375 J-0.794
X42.932 Y149.795 Z-0.758 I1.375 J0.794
X40.182 Y148.208 Z-0.813 I-1.375 J-0.794
X42.932 Y149.795 Z-0.868 I1.375 J0.794
X40.182 Y148.208 Z-0.924 I-1.375 J-0.794
X42.932 Y149.795 Z-0.979 I1.375 J0.794
X40.182 Y148.208 Z-1.035 I-1.375 J-0.794
X42.932 Y149.795 Z-1.09 I1.375 J0.794
X40.182 Y148.208 Z-1.145 I-1.375 J-0.794
X42.932 Y149.795 Z-1.201 I1.375 J0.794
X40.182 Y148.208 Z-1.256 I-1.375 J-0.794
X42.932 Y149.795 Z-1.312 I1.375 J0.794
X40.182 Y148.208 Z-1.367 I-1.375 J-0.794
X42.932 Y149.795 Z-1.423 I1.375 J0.794
X40.182 Y148.208 Z-1.478 I-1.375 J-0.794
X42.932 Y149.795 Z-1.533 I1.375 J0.794
X40.182 Y148.208 Z-1.589 I-1.375 J-0.794
X42.932 Y149.795 Z-1.644 I1.375 J0.794
X40.182 Y148.208 Z-1.7 I-1.375 J-0.794
X42.932 Y149.795 Z-1.755 I1.375 J0.794
X40.182 Y148.208 Z-1.81 I-1.375 J-0.794
X42.932 Y149.795 Z-1.866 I1.375 J0.794
X40.182 Y148.208 Z-1.921 I-1.375 J-0.794
X42.932 Y149.795 Z-1.977 I1.375 J0.794
X40.182 Y148.208 Z-2.032 I-1.375 J-0.794
X42.932 Y149.795 Z-2.088 I1.375 J0.794
X40.182 Y148.208 Z-2.143 I-1.375 J-0.794
X42.932 Y149.795 Z-2.198 I1.375 J0.794
X40.182 Y148.208 Z-2.254 I-1.375 J-0.794
X42.932 Y149.795 Z-2.309 I1.375 J0.794
X40.182 Y148.208 Z-2.365 I-1.375 J-0.794
X42.932 Y149.795 Z-2.42 I1.375 J0.794
X40.182 Y148.208 Z-2.476 I-1.375 J-0.794
X42.932 Y149.795 Z-2.531 I1.375 J0.794
X40.182 Y148.208 Z-2.586 I-1.375 J-0.794
X42.932 Y149.795 Z-2.642 I1.375 J0.794
X40.182 Y148.208 Z-2.697 I-1.375 J-0.794
X42.932 Y149.795 Z-2.753 I1.375 J0.794
X40.182 Y148.208 Z-2.808 I-1.375 J-0.794
X42.932 Y149.795 Z-2.863 I1.375 J0.794
X40.182 Y148.208 Z-2.919 I-1.375 J-0.794
X42.932 Y149.795 Z-2.974 I1.375 J0.794
X40.182 Y148.208 Z-3.03 I-1.375 J-0.794
X42.932 Y149.795 Z-3.085 I1.375 J0.794
X40.182 Y148.208 Z-3.141 I-1.375 J-0.794
X42.932 Y149.795 Z-3.196 I1.375 J0.794
X40.182 Y148.208 Z-3.251 I-1.375 J-0.794
X42.932 Y149.795 Z-3.307 I1.375 J0.794
X40.182 Y148.208 Z-3.362 I-1.375 J-0.794
X42.932 Y149.795 Z-3.418 I1.375 J0.794
X40.182 Y148.208 Z-3.473 I-1.375 J-0.794
X42.932 Y149.795 Z-3.529 I1.375 J0.794
X40.182 Y148.208 Z-3.584 I-1.375 J-0.794
X42.932 Y149.795 Z-3.639 I1.375 J0.794
X40.182 Y148.208 Z-3.695 I-1.375 J-0.794
X42.932 Y149.795 Z-3.75 I1.375 J0.794
X40.182 Y148.208 Z-3.806 I-1.375 J-0.794
X42.932 Y149.795 Z-3.861 I1.375 J0.794
X40.182 Y148.208 Z-3.916 I-1.375 J-0.794
X42.932 Y149.795 Z-3.972 I1.375 J0.794
X40.182 Y148.208 Z-4.027 I-1.375 J-0.794
X42.932 Y149.795 Z-4.083 I1.375 J0.794
X40.182 Y148.208 Z-4.138 I-1.375 J-0.794
X42.932 Y149.795 Z-4.194 I1.375 J0.794
X40.182 Y148.208 Z-4.249 I-1.375 J-0.794
X42.932 Y149.795 Z-4.304 I1.375 J0.794
X40.182 Y148.208 Z-4.36 I-1.375 J-0.794
X42.932 Y149.795 Z-4.415 I1.375 J0.794
X40.182 Y148.208 Z-4.471 I-1.375 J-0.794
X42.932 Y149.795 Z-4.526 I1.375 J0.794
X40.182 Y148.208 Z-4.581 I-1.375 J-0.794
X42.932 Y149.795 Z-4.637 I1.375 J0.794
X40.182 Y148.208 Z-4.692 I-1.375 J-0.794
X42.932 Y149.795 Z-4.748 I1.375 J0.794
X40.182 Y148.208 Z-4.803 I-1.375 J-0.794
X42.932 Y149.795 Z-4.859 I1.375 J0.794
X40.182 Y148.208 Z-4.914 I-1.375 J-0.794
X42.932 Y149.795 Z-4.969 I1.375 J0.794
X40.182 Y148.208 Z-5.025 I-1.375 J-0.794
X42.932 Y149.795 Z-5.08 I1.375 J0.794
X40.182 Y148.208 Z-5.136 I-1.375 J-0.794
X42.932 Y149.795 Z-5.191 I1.375 J0.794
X40.182 Y148.208 Z-5.247 I-1.375 J-0.794
X42.932 Y149.795 Z-5.302 I1.375 J0.794
X40.182 Y148.208 Z-5.357 I-1.375 J-0.794
X42.932 Y149.795 Z-5.413 I1.375 J0.794
X40.182 Y148.208 Z-5.468 I-1.375 J-0.794
X42.932 Y149.795 Z-5.524 I1.375 J0.794
X40.182 Y148.208 Z-5.579 I-1.375 J-0.794
X42.932 Y149.795 Z-5.634 I1.375 J0.794
X40.182 Y148.208 Z-5.69 I-1.375 J-0.794
X42.932 Y149.795 Z-5.745 I1.375 J0.794
X40.182 Y148.208 Z-5.801 I-1.375 J-0.794
X42.932 Y149.795 Z-5.856 I1.375 J0.794
X40.182 Y148.208 Z-5.912 I-1.375 J-0.794
X42.932 Y149.795 Z-5.967 I1.375 J0.794
X40.182 Y148.208 Z-6.022 I-1.375 J-0.794
X42.932 Y149.795 Z-6.078 I1.375 J0.794
X40.182 Y148.208 Z-6.133 I-1.375 J-0.794
X42.932 Y149.795 Z-6.189 I1.375 J0.794
X40.182 Y148.208 Z-6.244 I-1.375 J-0.794
X42.932 Y149.795 Z-6.3 I1.375 J0.794
X40.182 Y148.208 Z-6.355 I-1.375 J-0.794
X42.932 Y149.795 Z-6.41 I1.375 J0.794
X40.182 Y148.208 Z-6.466 I-1.375 J-0.794
X42.932 Y149.795 Z-6.521 I1.375 J0.794
X40.182 Y148.208 Z-6.577 I-1.375 J-0.794
X42.932 Y149.795 Z-6.632 I1.375 J0.794
X40.182 Y148.208 Z-6.687 I-1.375 J-0.794
X42.932 Y149.795 Z-6.743 I1.375 J0.794
X40.182 Y148.208 Z-6.798 I-1.375 J-0.794
X42.932 Y149.795 Z-6.854 I1.375 J0.794
X40.182 Y148.208 Z-6.909 I-1.375 J-0.794
X42.932 Y149.795 Z-6.965 I1.375 J0.794
X40.182 Y148.208 Z-7.02 I-1.375 J-0.794
X42.932 Y149.795 Z-7.075 I1.375 J0.794
X40.182 Y148.208 Z-7.131 I-1.375 J-0.794
X42.932 Y149.795 Z-7.186 I1.375 J0.794
X40.182 Y148.208 Z-7.242 I-1.375 J-0.794
X42.932 Y149.795 Z-7.297 I1.375 J0.794
X40.182 Y148.208 Z-7.352 I-1.375 J-0.794
X42.932 Y149.795 Z-7.408 I1.375 J0.794
X41.68 Y150.584 Z-7.425 I-1.375 J-0.794
X41.433 Y147.419 I-0.123 J-1.583
X41.68 Y150.584 I0.123 J1.583
X41.339 Y150.292 I-0.025 J-0.317
G1 X41.557 Y149.001
G0 Z6.
Z1.575
G1 Z-0.425 F1600.
X44.19 Y150.155
G3 X44.306 Y150.589 I-0.159 J0.275
X38.807 Y147.414 Z-0.508 I-2.75 J-1.588
X44.306 Y150.589 Z-0.591 I2.75 J1.588
X38.807 Y147.414 Z-0.674 I-2.75 J-1.588
X44.306 Y150.589 Z-0.758 I2.75 J1.588
X38.807 Y147.414 Z-0.841 I-2.75 J-1.588
X44.306 Y150.589 Z-0.924 I2.75 J1.588
X38.807 Y147.414 Z-1.007 I-2.75 J-1.588
X44.306 Y150.589 Z-1.09 I2.75 J1.588
X38.807 Y147.414 Z-1.173 I-2.75 J-1.588
X44.306 Y150.589 Z-1.256 I2.75 J1.588
X38.807 Y147.414 Z-1.339 I-2.75 J-1.588
X44.306 Y150.589 Z-1.423 I2.75 J1.588
X38.807 Y147.414 Z-1.506 I-2.75 J-1.588
X44.306 Y150.589 Z-1.589 I2.75 J1.588
X38.807 Y147.414 Z-1.672 I-2.75 J-1.588
X44.306 Y150.589 Z-1.755 I2.75 J1.588
X38.807 Y147.414 Z-1.838 I-2.75 J-1.588
X44.306 Y150.589 Z-1.921 I2.75 J1.588
X38.807 Y147.414 Z-2.004 I-2.75 J-1.588
X44.306 Y150.589 Z-2.088 I2.75 J1.588
X38.807 Y147.414 Z-2.171 I-2.75 J-1.588
X44.306 Y150.589 Z-2.254 I2.75 J1.588
X38.807 Y147.414 Z-2.337 I-2.75 J-1.588
X44.306 Y150.589 Z-2.42 I2.75 J1.588
X38.807 Y147.414 Z-2.503 I-2.75 J-1.588
X44.306 Y150.589 Z-2.586 I2.75 J1.588
X38.807 Y147.414 Z-2.67 I-2.75 J-1.588
X44.306 Y150.589 Z-2.753 I2.75 J1.588
X38.807 Y147.414 Z-2.836 I-2.75 J-1.588
X44.306 Y150.589 Z-2.919 I2.75 J1.588
X38.807 Y147.414 Z-3.002 I-2.75 J-1.588
X44.306 Y150.589 Z-3.085 I2.75 J1.588
X38.807 Y147.414 Z-3.168 I-2.75 J-1.588
X44.306 Y150.589 Z-3.251 I2.75 J1.588
X38.807 Y147.414 Z-3.335 I-2.75 J-1.588
X44.306 Y150.589 Z-3.418 I2.75 J1.588
X38.807 Y147.414 Z-3.501 I-2.75 J-1.588
X44.306 Y150.589 Z-3.584 I2.75 J1.588
X38.807 Y147.414 Z-3.667 I-2.75 J-1.588
X44.306 Y150.589 Z-3.75 I2.75 J1.588
X38.807 Y147.414 Z-3.833 I-2.75 J-1.588
X44.306 Y150.589 Z-3.916 I2.75 J1.588
X38.807 Y147.414 Z-4. I-2.75 J-1.588
X44.306 Y150.589 Z-4.083 I2.75 J1.588
X38.807 Y147.414 Z-4.166 I-2.75 J-1.588
X44.306 Y150.589 Z-4.249 I2.75 J1.588
X38.807 Y147.414 Z-4.332 I-2.75 J-1.588
X44.306 Y150.589 Z-4.415 I2.75 J1.588
X38.807 Y147.414 Z-4.498 I-2.75 J-1.588
X44.306 Y150.589 Z-4.581 I2.75 J1.588
X38.807 Y147.414 Z-4.665 I-2.75 J-1.588
X44.306 Y150.589 Z-4.748 I2.75 J1.588
X38.807 Y147.414 Z-4.831 I-2.75 J-1.588
X44.306 Y150.589 Z-4.914 I2.75 J1.588
X38.807 Y147.414 Z-4.997 I-2.75 J-1.588
X44.306 Y150.589 Z-5.08 I2.75 J1.588
X38.807 Y147.414 Z-5.163 I-2.75 J-1.588
X44.306 Y150.589 Z-5.247 I2.75 J1.588
X38.807 Y147.414 Z-5.33 I-2.75 J-1.588
X44.306 Y150.589 Z-5.413 I2.75 J1.588
X38.807 Y147.414 Z-5.496 I-2.75 J-1.588
X44.306 Y150.589 Z-5.579 I2.75 J1.588
X38.807 Y147.414 Z-5.662 I-2.75 J-1.588
X44.306 Y150.589 Z-5.745 I2.75 J1.588
X38.807 Y147.414 Z-5.828 I-2.75 J-1.588
X44.306 Y150.589 Z-5.912 I2.75 J1.588
X38.807 Y147.414 Z-5.995 I-2.75 J-1.588
X44.306 Y150.589 Z-6.078 I2.75 J1.588
X38.807 Y147.414 Z-6.161 I-2.75 J-1.588
X44.306 Y150.589 Z-6.244 I2.75 J1.588
X38.807 Y147.414 Z-6.327 I-2.75 J-1.588
X44.306 Y150.589 Z-6.41 I2.75 J1.588
X38.807 Y147.414 Z-6.493 I-2.75 J-1.588
X44.306 Y150.589 Z-6.577 I2.75 J1.588
X38.807 Y147.414 Z-6.66 I-2.75 J-1.588
X44.306 Y150.589 Z-6.743 I2.75 J1.588
X38.807 Y147.414 Z-6.826 I-2.75 J-1.588
X44.306 Y150.589 Z-6.909 I2.75 J1.588
X38.807 Y147.414 Z-6.992 I-2.75 J-1.588
X44.306 Y150.589 Z-7.075 I2.75 J1.588
X38.807 Y147.414 Z-7.159 I-2.75 J-1.588
X44.306 Y150.589 Z-7.242 I2.75 J1.588
X38.807 Y147.414 Z-7.325 I-2.75 J-1.588
X44.306 Y150.589 Z-7.408 I2.75 J1.588
X42.796 Y151.924 Z-7.425 I-2.75 J-1.588
X40.318 Y146.078 I-1.239 J-2.923
X42.796 Y151.924 I1.239 J2.923
X42.38 Y151.756 I-0.124 J-0.292
G1 X41.557 Y149.001
G0 Z6.
Z1.575
G1 Z-0.425 F1600.
X45.565 Y150.949
G3 X45.681 Y151.383 I-0.159 J0.275
X37.432 Y146.62 Z-0.536 I-4.124 J-2.381
X45.681 Y151.383 Z-0.647 I4.124 J2.381
X37.432 Y146.62 Z-0.758 I-4.124 J-2.381
X45.681 Y151.383 Z-0.868 I4.124 J2.381
X37.432 Y146.62 Z-0.979 I-4.124 J-2.381
X45.681 Y151.383 Z-1.09 I4.124 J2.381
X37.432 Y146.62 Z-1.201 I-4.124 J-2.381
X45.681 Y151.383 Z-1.312 I4.124 J2.381
X37.432 Y146.62 Z-1.423 I-4.124 J-2.381
X45.681 Y151.383 Z-1.533 I4.124 J2.381
X37.432 Y146.62 Z-1.644 I-4.124 J-2.381
X45.681 Y151.383 Z-1.755 I4.124 J2.381
X37.432 Y146.62 Z-1.866 I-4.124 J-2.381
X45.681 Y151.383 Z-1.977 I4.124 J2.381
X37.432 Y146.62 Z-2.088 I-4.124 J-2.381
X45.681 Y151.383 Z-2.198 I4.124 J2.381
X37.432 Y146.62 Z-2.309 I-4.124 J-2.381
X45.681 Y151.383 Z-2.42 I4.124 J2.381
X37.432 Y146.62 Z-2.531 I-4.124 J-2.381
X45.681 Y151.383 Z-2.642 I4.124 J2.381
X37.432 Y146.62 Z-2.753 I-4.124 J-2.381
X45.681 Y151.383 Z-2.863 I4.124 J2.381
X37.432 Y146.62 Z-2.974 I-4.124 J-2.381
X45.681 Y151.383 Z-3.085 I4.124 J2.381
X37.432 Y146.62 Z-3.196 I-4.124 J-2.381
X45.681 Y151.383 Z-3.307 I4.124 J2.381
X37.432 Y146.62 Z-3.418 I-4.124 J-2.381
X45.681 Y151.383 Z-3.529 I4.124 J2.381
X37.432 Y146.62 Z-3.639 I-4.124 J-2.381
X45.681 Y151.383 Z-3.75 I4.124 J2.381
X37.432 Y146.62 Z-3.861 I-4.124 J-2.381
X45.681 Y151.383 Z-3.972 I4.124 J2.381
X37.432 Y146.62 Z-4.083 I-4.124 J-2.381
X45.681 Y151.383 Z-4.194 I4.124 J2.381
X37.432 Y146.62 Z-4.304 I-4.124 J-2.381
X45.681 Y151.383 Z-4.415 I4.124 J2.381
X37.432 Y146.62 Z-4.526 I-4.124 J-2.381
X45.681 Y151.383 Z-4.637 I4.124 J2.381
X37.432 Y146.62 Z-4.748 I-4.124 J-2.381
X45.681 Y151.383 Z-4.859 I4.124 J2.381
X37.432 Y146.62 Z-4.969 I-4.124 J-2.381
X45.681 Y151.383 Z-5.08 I4.124 J2.381
X37.432 Y146.62 Z-5.191 I-4.124 J-2.381
X45.681 Y151.383 Z-5.302 I4.124 J2.381
X37.432 Y146.62 Z-5.413 I-4.124 J-2.381
X45.681 Y151.383 Z-5.524 I4.124 J2.381
X37.432 Y146.62 Z-5.634 I-4.124 J-2.381
X45.681 Y151.383 Z-5.745 I4.124 J2.381
X37.432 Y146.62 Z-5.856 I-4.124 J-2.381
X45.681 Y151.383 Z-5.967 I4.124 J2.381
X37.432 Y146.62 Z-6.078 I-4.124 J-2.381
X45.681 Y151.383 Z-6.189 I4.124 J2.381
X37.432 Y146.62 Z-6.3 I-4.124 J-2.381
X45.681 Y151.383 Z-6.41 I4.124 J2.381
X37.432 Y146.62 Z-6.521 I-4.124 J-2.381
X45.681 Y151.383 Z-6.632 I4.124 J2.381
X37.432 Y146.62 Z-6.743 I-4.124 J-2.381
X45.681 Y151.383 Z-6.854 I4.124 J2.381
X37.432 Y146.62 Z-6.965 I-4.124 J-2.381
X45.681 Y151.383 Z-7.075 I4.124 J2.381
X37.432 Y146.62 Z-7.186 I-4.124 J-2.381
X45.681 Y151.383 Z-7.297 I4.124 J2.381
X37.432 Y146.62 Z-7.408 I-4.124 J-2.381
X39.017 Y144.973 Z-7.425 I4.124 J2.381
X44.097 Y153.03 I2.54 J4.029
X39.017 Y144.973 I-2.54 J-4.029
X39.455 Y145.072 I0.169 J0.269
G1 X41.557 Y149.001
G0 Z6.
Z1.575
G1 Z-0.425 F1600.
X46.94 Y151.743
G3 X47.056 Y152.176 I-0.159 J0.275
X36.058 Y145.826 Z-0.564 I-5.499 J-3.175
X47.056 Y152.176 Z-0.702 I5.499 J3.175
X36.058 Y145.826 Z-0.841 I-5.499 J-3.175
X47.056 Y152.176 Z-0.979 I5.499 J3.175
X36.058 Y145.826 Z-1.118 I-5.499 J-3.175
X47.056 Y152.176 Z-1.256 I5.499 J3.175
X36.058 Y145.826 Z-1.395 I-5.499 J-3.175
X47.056 Y152.176 Z-1.533 I5.499 J3.175
X36.058 Y145.826 Z-1.672 I-5.499 J-3.175
X47.056 Y152.176 Z-1.81 I5.499 J3.175
X36.058 Y145.826 Z-1.949 I-5.499 J-3.175
X47.056 Y152.176 Z-2.088 I5.499 J3.175
X36.058 Y145.826 Z-2.226 I-5.499 J-3.175
X47.056 Y152.176 Z-2.365 I5.499 J3.175
X36.058 Y145.826 Z-2.503 I-5.499 J-3.175
X47.056 Y152.176 Z-2.642 I5.499 J3.175
X36.058 Y145.826 Z-2.78 I-5.499 J-3.175
X47.056 Y152.176 Z-2.919 I5.499 J3.175
X36.058 Y145.826 Z-3.057 I-5.499 J-3.175
X47.056 Y152.176 Z-3.196 I5.499 J3.175
X36.058 Y145.826 Z-3.335 I-5.499 J-3.175
X47.056 Y152.176 Z-3.473 I5.499 J3.175
X36.058 Y145.826 Z-3.612 I-5.499 J-3.175
X47.056 Y152.176 Z-3.75 I5.499 J3.175
X36.058 Y145.826 Z-3.889 I-5.499 J-3.175
X47.056 Y152.176 Z-4.027 I5.499 J3.175
X36.058 Y145.826 Z-4.166 I-5.499 J-3.175
X47.056 Y152.176 Z-4.304 I5.499 J3.175
X36.058 Y145.826 Z-4.443 I-5.499 J-3.175
X47.056 Y152.176 Z-4.581 I5.499 J3.175
X36.058 Y145.826 Z-4.72 I-5.499 J-3.175
X47.056 Y152.176 Z-4.859 I5.499 J3.175
X36.058 Y145.826 Z-4.997 I-5.499 J-3.175
X47.056 Y152.176 Z-5.136 I5.499 J3.175
X36.058 Y145.826 Z-5.274 I-5.499 J-3.175
X47.056 Y152.176 Z-5.413 I5.499 J3.175
X36.058 Y145.826 Z-5.551 I-5.499 J-3.175
X47.056 Y152.176 Z-5.69 I5.499 J3.175
X36.058 Y145.826 Z-5.828 I-5.499 J-3.175
X47.056 Y152.176 Z-5.967 I5.499 J3.175
X36.058 Y145.826 Z-6.106 I-5.499 J-3.175
X47.056 Y152.176 Z-6.244 I5.499 J3.175
X36.058 Y145.826 Z-6.383 I-5.499 J-3.175
X47.056 Y152.176 Z-6.521 I5.499 J3.175
X36.058 Y145.826 Z-6.66 I-5.499 J-3.175
X47.056 Y152.176 Z-6.798 I5.499 J3.175
X36.058 Y145.826 Z-6.937 I-5.499 J-3.175
X47.056 Y152.176 Z-7.075 I5.499 J3.175
X36.058 Y145.826 Z-7.214 I-5.499 J-3.175
X47.056 Y152.176 Z-7.352 I5.499 J3.175
X37.986 Y154.252 Z-7.425 I-5.499 J-3.175
X45.128 Y143.75 I3.571 J-5.251
X37.986 Y154.252 I-3.571 J5.251
X37.902 Y153.811 I0.179 J-0.263
G1 X41.557 Y149.001
G0 Z6.
Z1.575
G1 Z-0.425 F1600.
X48.315 Y152.536
G3 X48.431 Y152.97 I-0.159 J0.275
X34.683 Y145.033 Z-0.591 I-6.874 J-3.969
X48.431 Y152.97 Z-0.758 I6.874 J3.969
X34.683 Y145.033 Z-0.924 I-6.874 J-3.969
X48.431 Y152.97 Z-1.09 I6.874 J3.969
X34.683 Y145.033 Z-1.256 I-6.874 J-3.969
X48.431 Y152.97 Z-1.423 I6.874 J3.969
X34.683 Y145.033 Z-1.589 I-6.874 J-3.969
X48.431 Y152.97 Z-1.755 I6.874 J3.969
X34.683 Y145.033 Z-1.921 I-6.874 J-3.969
X48.431 Y152.97 Z-2.088 I6.874 J3.969
X34.683 Y145.033 Z-2.254 I-6.874 J-3.969
X48.431 Y152.97 Z-2.42 I6.874 J3.969
X34.683 Y145.033 Z-2.586 I-6.874 J-3.969
X48.431 Y152.97 Z-2.753 I6.874 J3.969
X34.683 Y145.033 Z-2.919 I-6.874 J-3.969
X48.431 Y152.97 Z-3.085 I6.874 J3.969
X34.683 Y145.033 Z-3.251 I-6.874 J-3.969
X48.431 Y152.97 Z-3.418 I6.874 J3.969
X34.683 Y145.033 Z-3.584 I-6.874 J-3.969
X48.431 Y152.97 Z-3.75 I6.874 J3.969
X34.683 Y145.033 Z-3.916 I-6.874 J-3.969
X48.431 Y152.97 Z-4.083 I6.874 J3.969
X34.683 Y145.033 Z-4.249 I-6.874 J-3.969
X48.431 Y152.97 Z-4.415 I6.874 J3.969
X34.683 Y145.033 Z-4.581 I-6.874 J-3.969
X48.431 Y152.97 Z-4.748 I6.874 J3.969
X34.683 Y145.033 Z-4.914 I-6.874 J-3.969
X48.431 Y152.97 Z-5.08 I6.874 J3.969
X34.683 Y145.033 Z-5.247 I-6.874 J-3.969
X48.431 Y152.97 Z-5.413 I6.874 J3.969
X34.683 Y145.033 Z-5.579 I-6.874 J-3.969
X48.431 Y152.97 Z-5.745 I6.874 J3.969
X34.683 Y145.033 Z-5.912 I-6.874 J-3.969
X48.431 Y152.97 Z-6.078 I6.874 J3.969
X34.683 Y145.033 Z-6.244 I-6.874 J-3.969
X48.431 Y152.97 Z-6.41 I6.874 J3.969
X34.683 Y145.033 Z-6.577 I-6.874 J-3.969
X48.431 Y152.97 Z-6.743 I6.874 J3.969
X34.683 Y145.033 Z-6.909 I-6.874 J-3.969
X48.431 Y152.97 Z-7.075 I6.874 J3.969
X34.683 Y145.033 Z-7.242 I-6.874 J-3.969
X48.431 Y152.97 Z-7.408 I6.874 J3.969
X46.815 Y154.947 Z-7.425 I-6.874 J-3.969
X36.299 Y143.055 I-5.258 J-5.946
X46.815 Y154.947 I5.258 J5.946
X46.367 Y154.92 I-0.21 J-0.238
G1 X41.557 Y149.001
G0 Z6.
Z1.575
G1 Z-0.425 F1600.
X49.689 Y153.33
G3 X49.806 Y153.764 I-0.159 J0.275
X33.308 Y144.239 Z-0.619 I-8.249 J-4.762
X49.806 Y153.764 Z-0.813 I8.249 J4.762
X33.308 Y144.239 Z-1.007 I-8.249 J-4.762
X49.806 Y153.764 Z-1.201 I8.249 J4.762
X33.308 Y144.239 Z-1.395 I-8.249 J-4.762
X49.806 Y153.764 Z-1.589 I8.249 J4.762
X33.308 Y144.239 Z-1.783 I-8.249 J-4.762
X49.806 Y153.764 Z-1.977 I8.249 J4.762
X33.308 Y144.239 Z-2.171 I-8.249 J-4.762
X49.806 Y153.764 Z-2.365 I8.249 J4.762
X33.308 Y144.239 Z-2.559 I-8.249 J-4.762
X49.806 Y153.764 Z-2.753 I8.249 J4.762
X33.308 Y144.239 Z-2.947 I-8.249 J-4.762
X49.806 Y153.764 Z-3.141 I8.249 J4.762
X33.308 Y144.239 Z-3.335 I-8.249 J-4.762
X49.806 Y153.764 Z-3.529 I8.249 J4.762
X33.308 Y144.239 Z-3.722 I-8.249 J-4.762
X49.806 Y153.764 Z-3.916 I8.249 J4.762
X33.308 Y144.239 Z-4.11 I-8.249 J-4.762
X49.806 Y153.764 Z-4.304 I8.249 J4.762
X33.308 Y144.239 Z-4.498 I-8.249 J-4.762
X49.806 Y153.764 Z-4.692 I8.249 J4.762
X33.308 Y144.239 Z-4.886 I-8.249 J-4.762
X49.806 Y153.764 Z-5.08 I8.249 J4.762
X33.308 Y144.239 Z-5.274 I-8.249 J-4.762
X49.806 Y153.764 Z-5.468 I8.249 J4.762
X33.308 Y144.239 Z-5.662 I-8.249 J-4.762
X49.806 Y153.764 Z-5.856 I8.249 J4.762
X33.308 Y144.239 Z-6.05 I-8.249 J-4.762
X49.806 Y153.764 Z-6.244 I8.249 J4.762
X33.308 Y144.239 Z-6.438 I-8.249 J-4.762
X49.806 Y153.764 Z-6.632 I8.249 J4.762
X33.308 Y144.239 Z-6.826 I-8.249 J-4.762
X49.806 Y153.764 Z-7.02 I8.249 J4.762
X33.308 Y144.239 Z-7.214 I-8.249 J-4.762
X47.412 Y141.489 Z-7.319 I8.249 J4.762
X48.189 Y155.838 Z-7.425 I-5.856 J7.512
X34.925 Y142.165 I-6.632 J-6.837
X48.189 Y155.838 I6.632 J6.837
X47.74 Y155.831 I-0.221 J-0.228
G1 X41.557 Y149.001
G0 Z6.
Z1.575
G1 Z-0.425 F1600.
X51.064 Y154.124
G3 X51.18 Y154.558 I-0.159 J0.275
X31.933 Y143.445 Z-0.647 I-9.624 J-5.556
X51.18 Y154.558 Z-0.868 I9.624 J5.556
X31.933 Y143.445 Z-1.09 I-9.624 J-5.556
X51.18 Y154.558 Z-1.312 I9.624 J5.556
X31.933 Y143.445 Z-1.533 I-9.624 J-5.556
X51.18 Y154.558 Z-1.755 I9.624 J5.556
X31.933 Y143.445 Z-1.977 I-9.624 J-5.556
X51.18 Y154.558 Z-2.198 I9.624 J5.556
X31.933 Y143.445 Z-2.42 I-9.624 J-5.556
X51.18 Y154.558 Z-2.642 I9.624 J5.556
X31.933 Y143.445 Z-2.863 I-9.624 J-5.556
X51.18 Y154.558 Z-3.085 I9.624 J5.556
X31.933 Y143.445 Z-3.307 I-9.624 J-5.556
X51.18 Y154.558 Z-3.529 I9.624 J5.556
X31.933 Y143.445 Z-3.75 I-9.624 J-5.556
X51.18 Y154.558 Z-3.972 I9.624 J5.556
X31.933 Y143.445 Z-4.194 I-9.624 J-5.556
X51.18 Y154.558 Z-4.415 I9.624 J5.556
X31.933 Y143.445 Z-4.637 I-9.624 J-5.556
X51.18 Y154.558 Z-4.859 I9.624 J5.556
X31.933 Y143.445 Z-5.08 I-9.624 J-5.556
X51.18 Y154.558 Z-5.302 I9.624 J5.556
X31.933 Y143.445 Z-5.524 I-9.624 J-5.556
X51.18 Y154.558 Z-5.745 I9.624 J5.556
X31.933 Y143.445 Z-5.967 I-9.624 J-5.556
X51.18 Y154.558 Z-6.189 I9.624 J5.556
X31.933 Y143.445 Z-6.41 I-9.624 J-5.556
X51.18 Y154.558 Z-6.632 I9.624 J5.556
X31.933 Y143.445 Z-6.854 I-9.624 J-5.556
X51.18 Y154.558 Z-7.075 I9.624 J5.556
X31.933 Y143.445 Z-7.297 I-9.624 J-5.556
X49.26 Y140.992 Z-7.425 I9.624 J5.556
X33.853 Y157.01 I-7.703 J8.009
X49.26 Y140.992 I7.703 J-8.009
X49.269 Y141.441 I-0.22 J0.229
G1 X41.557 Y149.001
G0 Z6.
Z1.575
G1 Z-0.425 F1600.
X52.439 Y154.918
G3 X52.555 Y155.351 I-0.159 J0.275
X30.558 Y142.651 Z-0.674 I-10.999 J-6.35
X52.555 Y155.351 Z-0.924 I10.999 J6.35
X30.558 Y142.651 Z-1.173 I-10.999 J-6.35
X52.555 Y155.351 Z-1.423 I10.999 J6.35
X30.558 Y142.651 Z-1.672 I-10.999 J-6.35
X52.555 Y155.351 Z-1.921 I10.999 J6.35
X30.558 Y142.651 Z-2.171 I-10.999 J-6.35
X52.555 Y155.351 Z-2.42 I10.999 J6.35
X30.558 Y142.651 Z-2.67 I-10.999 J-6.35
X52.555 Y155.351 Z-2.919 I10.999 J6.35
X30.558 Y142.651 Z-3.168 I-10.999 J-6.35
X52.555 Y155.351 Z-3.418 I10.999 J6.35
X30.558 Y142.651 Z-3.667 I-10.999 J-6.35
X52.555 Y155.351 Z-3.916 I10.999 J6.35
X30.558 Y142.651 Z-4.166 I-10.999 J-6.35
X52.555 Y155.351 Z-4.415 I10.999 J6.35
X30.558 Y142.651 Z-4.665 I-10.999 J-6.35
X52.555 Y155.351 Z-4.914 I10.999 J6.35
X30.558 Y142.651 Z-5.163 I-10.999 J-6.35
X52.555 Y155.351 Z-5.413 I10.999 J6.35
X30.558 Y142.651 Z-5.662 I-10.999 J-6.35
X52.555 Y155.351 Z-5.912 I10.999 J6.35
X30.558 Y142.651 Z-6.161 I-10.999 J-6.35
X52.555 Y155.351 Z-6.41 I10.999 J6.35
X30.558 Y142.651 Z-6.66 I-10.999 J-6.35
X52.555 Y155.351 Z-6.909 I10.999 J6.35
X30.558 Y142.651 Z-7.159 I-10.999 J-6.35
X49.052 Y138.749 Z-7.292 I10.999 J6.35
X50.944 Y157.556 Z-7.425 I-7.496 J10.252
X32.17 Y140.447 I-9.387 J-8.554
X50.944 Y157.556 I9.387 J8.554
X50.495 Y157.576 I-0.235 J-0.214
G1 X41.557 Y149.001
G0 Z6.
X85.178 Y29.52
Z1.575
G1 Z-0.425 F1600.
X86.436 Y29.88
G3 X86.553 Y30.313 I-0.159 J0.275
X83.803 Y28.726 Z-0.48 I-1.375 J-0.794
X86.553 Y30.313 Z-0.536 I1.375 J0.794
X83.803 Y28.726 Z-0.591 I-1.375 J-0.794
X86.553 Y30.313 Z-0.647 I1.375 J0.794
X83.803 Y28.726 Z-0.702 I-1.375 J-0.794
X86.553 Y30.313 Z-0.758 I1.375 J0.794
X83.803 Y28.726 Z-0.813 I-1.375 J-0.794
X86.553 Y30.313 Z-0.868 I1.375 J0.794
X83.803 Y28.726 Z-0.924 I-1.375 J-0.794
X86.553 Y30.313 Z-0.979 I1.375 J0.794
X83.803 Y28.726 Z-1.035 I-1.375 J-0.794
X86.553 Y30.313 Z-1.09 I1.375 J0.794
X83.803 Y28.726 Z-1.145 I-1.375 J-0.794
X86.553 Y30.313 Z-1.201 I1.375 J0.794
X83.803 Y28.726 Z-1.256 I-1.375 J-0.794
X86.553 Y30.313 Z-1.312 I1.375 J0.794
X83.803 Y28.726 Z-1.367 I-1.375 J-0.794
X86.553 Y30.313 Z-1.423 I1.375 J0.794
X83.803 Y28.726 Z-1.478 I-1.375 J-0.794
X86.553 Y30.313 Z-1.533 I1.375 J0.794
X83.803 Y28.726 Z-1.589 I-1.375 J-0.794
X86.553 Y30.313 Z-1.644 I1.375 J0.794
X83.803 Y28.726 Z-1.7 I-1.375 J-0.794
X86.553 Y30.313 Z-1.755 I1.375 J0.794
X83.803 Y28.726 Z-1.81 I-1.375 J-0.794
X86.553 Y30.313 Z-1.866 I1.375 J0.794
X83.803 Y28.726 Z-1.921 I-1.375 J-0.794
X86.553 Y30.313 Z-1.977 I1.375 J0.794
X83.803 Y28.726 Z-2.032 I-1.375 J-0.794
X86.553 Y30.313 Z-2.088 I1.375 J0.794
X83.803 Y28.726 Z-2.143 I-1.375 J-0.794
X86.553 Y30.313 Z-2.198 I1.375 J0.794
X83.803 Y28.726 Z-2.254 I-1.375 J-0.794
X86.553 Y30.313 Z-2.309 I1.375 J0.794
X83.803 Y28.726 Z-2.365 I-1.375 J-0.794
X86.553 Y30.313 Z-2.42 I1.375 J0.794
X83.803 Y28.726 Z-2.476 I-1.375 J-0.794
X86.553 Y30.313 Z-2.531 I1.375 J0.794
X83.803 Y28.726 Z-2.586 I-1.375 J-0.794
X86.553 Y30.313 Z-2.642 I1.375 J0.794
X83.803 Y28.726 Z-2.697 I-1.375 J-0.794
X86.553 Y30.313 Z-2.753 I1.375 J0.794
X83.803 Y28.726 Z-2.808 I-1.375 J-0.794
X86.553 Y30.313 Z-2.863 I1.375 J0.794
X83.803 Y28.726 Z-2.919 I-1.375 J-0.794
X86.553 Y30.313 Z-2.974 I1.375 J0.794
X83.803 Y28.726 Z-3.03 I-1.375 J-0.794
X86.553 Y30.313 Z-3.085 I1.375 J0.794
X83.803 Y28.726 Z-3.141 I-1.375 J-0.794
X86.553 Y30.313 Z-3.196 I1.375 J0.794
X83.803 Y28.726 Z-3.251 I-1.375 J-0.794
X86.553 Y30.313 Z-3.307 I1.375 J0.794
X83.803 Y28.726 Z-3.362 I-1.375 J-0.794
X86.553 Y30.313 Z-3.418 I1.375 J0.794
X83.803 Y28.726 Z-3.473 I-1.375 J-0.794
X86.553 Y30.313 Z-3.529 I1.375 J0.794
X83.803 Y28.726 Z-3.584 I-1.375 J-0.794
X86.553 Y30.313 Z-3.639 I1.375 J0.794
X83.803 Y28.726 Z-3.695 I-1.375 J-0.794
X86.553 Y30.313 Z-3.75 I1.375 J0.794
X83.803 Y28.726 Z-3.806 I-1.375 J-0.794
X86.553 Y30.313 Z-3.861 I1.375 J0.794
X83.803 Y28.726 Z-3.916 I-1.375 J-0.794
X86.553 Y30.313 Z-3.972 I1.375 J0.794
X83.803 Y28.726 Z-4.027 I-1.375 J-0.794
X86.553 Y30.313 Z-4.083 I1.375 J0.794
X83.803 Y28.726 Z-4.138 I-1.375 J-0.794
X86.553 Y30.313 Z-4.194 I1.375 J0.794
X83.803 Y28.726 Z-4.249 I-1.375 J-0.794
X86.553 Y30.313 Z-4.304 I1.375 J0.794
X83.803 Y28.726 Z-4.36 I-1.375 J-0.794
X86.553 Y30.313 Z-4.415 I1.375 J0.794
X83.803 Y28.726 Z-4.471 I-1.375 J-0.794
X86.553 Y30.313 Z-4.526 I1.375 J0.794
X83.803 Y28.726 Z-4.581 I-1.375 J-0.794
X86.553 Y30.313 Z-4.637 I1.375 J0.794
X83.803 Y28.726 Z-4.692 I-1.375 J-0.794
X86.553 Y30.313 Z-4.748 I1.375 J0.794
X83.803 Y28.726 Z-4.803 I-1.375 J-0.794
X86.553 Y30.313 Z-4.859 I1.375 J0.794
X83.803 Y28.726 Z-4.914 I-1.375 J-0.794
X86.553 Y30.313 Z-4.969 I1.375 J0.794
X83.803 Y28.726 Z-5.025 I-1.375 J-0.794
X86.553 Y30.313 Z-5.08 I1.375 J0.794
X83.803 Y28.726 Z-5.136 I-1.375 J-0.794
X86.553 Y30.313 Z-5.191 I1.375 J0.794
X83.803 Y28.726 Z-5.247 I-1.375 J-0.794
X86.553 Y30.313 Z-5.302 I1.375 J0.794
X83.803 Y28.726 Z-5.357 I-1.375 J-0.794
X86.553 Y30.313 Z-5.413 I1.375 J0.794
X83.803 Y28.726 Z-5.468 I-1.375 J-0.794
X86.553 Y30.313 Z-5.524 I1.375 J0.794
X83.803 Y28.726 Z-5.579 I-1.375 J-0.794
X86.553 Y30.313 Z-5.634 I1.375 J0.794
X83.803 Y28.726 Z-5.69 I-1.375 J-0.794
X86.553 Y30.313 Z-5.745 I1.375 J0.794
X83.803 Y28.726 Z-5.801 I-1.375 J-0.794
X86.553 Y30.313 Z-5.856 I1.375 J0.794
X83.803 Y28.726 Z-5.912 I-1.375 J-0.794
X86.553 Y30.313 Z-5.967 I1.375 J0.794
X83.803 Y28.726 Z-6.022 I-1.375 J-0.794
X86.553 Y30.313 Z-6.078 I1.375 J0.794
X83.803 Y28.726 Z-6.133 I-1.375 J-0.794
X86.553 Y30.313 Z-6.189 I1.375 J0.794
X83.803 Y28.726 Z-6.244 I-1.375 J-0.794
X86.553 Y30.313 Z-6.3 I1.375 J0.794
X83.803 Y28.726 Z-6.355 I-1.375 J-0.794
X86.553 Y30.313 Z-6.41 I1.375 J0.794
X83.803 Y28.726 Z-6.466 I-1.375 J-0.794
X86.553 Y30.313 Z-6.521 I1.375 J0.794
X83.803 Y28.726 Z-6.577 I-1.375 J-0.794
X86.553 Y30.313 Z-6.632 I1.375 J0.794
X83.803 Y28.726 Z-6.687 I-1.375 J-0.794
X86.553 Y30.313 Z-6.743 I1.375 J0.794
X83.803 Y28.726 Z-6.798 I-1.375 J-0.794
X86.553 Y30.313 Z-6.854 I1.375 J0.794
X83.803 Y28.726 Z-6.909 I-1.375 J-0.794
X86.553 Y30.313 Z-6.965 I1.375 J0.794
X83.803 Y28.726 Z-7.02 I-1.375 J-0.794
X86.553 Y30.313 Z-7.075 I1.375 J0.794
X83.803 Y28.726 Z-7.131 I-1.375 J-0.794
X86.553 Y30.313 Z-7.186 I1.375 J0.794
X83.803 Y28.726 Z-7.242 I-1.375 J-0.794
X86.553 Y30.313 Z-7.297 I1.375 J0.794
X83.803 Y28.726 Z-7.352 I-1.375 J-0.794
X86.553 Y30.313 Z-7.408 I1.375 J0.794
X85.301 Y31.102 Z-7.425 I-1.375 J-0.794
X85.054 Y27.937 I-0.123 J-1.583
X85.301 Y31.102 I0.123 J1.583
X84.96 Y30.81 I-0.025 J-0.317
G1 X85.178 Y29.52
G0 Z6.
Z1.575
G1 Z-0.425 F1600.
X87.811 Y30.673
G3 X87.927 Y31.107 I-0.159 J0.275
X82.428 Y27.932 Z-0.508 I-2.75 J-1.587
X87.927 Y31.107 Z-0.591 I2.75 J1.587
X82.428 Y27.932 Z-0.674 I-2.75 J-1.587
X87.927 Y31.107 Z-0.758 I2.75 J1.587
X82.428 Y27.932 Z-0.841 I-2.75 J-1.587
X87.927 Y31.107 Z-0.924 I2.75 J1.587
X82.428 Y27.932 Z-1.007 I-2.75 J-1.587
X87.927 Y31.107 Z-1.09 I2.75 J1.587
X82.428 Y27.932 Z-1.173 I-2.75 J-1.587
X87.927 Y31.107 Z-1.256 I2.75 J1.587
X82.428 Y27.932 Z-1.339 I-2.75 J-1.587
X87.927 Y31.107 Z-1.423 I2.75 J1.587
X82.428 Y27.932 Z-1.506 I-2.75 J-1.587
X87.927 Y31.107 Z-1.589 I2.75 J1.587
X82.428 Y27.932 Z-1.672 I-2.75 J-1.587
X87.927 Y31.107 Z-1.755 I2.75 J1.587
X82.428 Y27.932 Z-1.838 I-2.75 J-1.587
X87.927 Y31.107 Z-1.921 I2.75 J1.587
X82.428 Y27.932 Z-2.004 I-2.75 J-1.587
X87.927 Y31.107 Z-2.088 I2.75 J1.587
X82.428 Y27.932 Z-2.171 I-2.75 J-1.587
X87.927 Y31.107 Z-2.254 I2.75 J1.587
X82.428 Y27.932 Z-2.337 I-2.75 J-1.587
X87.927 Y31.107 Z-2.42 I2.75 J1.587
X82.428 Y27.932 Z-2.503 I-2.75 J-1.587
X87.927 Y31.107 Z-2.586 I2.75 J1.587
X82.428 Y27.932 Z-2.67 I-2.75 J-1.587
X87.927 Y31.107 Z-2.753 I2.75 J1.587
X82.428 Y27.932 Z-2.836 I-2.75 J-1.587
X87.927 Y31.107 Z-2.919 I2.75 J1.587
X82.428 Y27.932 Z-3.002 I-2.75 J-1.587
X87.927 Y31.107 Z-3.085 I2.75 J1.587
X82.428 Y27.932 Z-3.168 I-2.75 J-1.587
X87.927 Y31.107 Z-3.251 I2.75 J1.587
X82.428 Y27.932 Z-3.335 I-2.75 J-1.587
X87.927 Y31.107 Z-3.418 I2.75 J1.587
X82.428 Y27.932 Z-3.501 I-2.75 J-1.587
X87.927 Y31.107 Z-3.584 I2.75 J1.587
X82.428 Y27.932 Z-3.667 I-2.75 J-1.587
X87.927 Y31.107 Z-3.75 I2.75 J1.587
X82.428 Y27.932 Z-3.833 I-2.75 J-1.587
X87.927 Y31.107 Z-3.916 I2.75 J1.587
X82.428 Y27.932 Z-4. I-2.75 J-1.587
X87.927 Y31.107 Z-4.083 I2.75 J1.587
X82.428 Y27.932 Z-4.166 I-2.75 J-1.587
X87.927 Y31.107 Z-4.249 I2.75 J1.587
X82.428 Y27.932 Z-4.332 I-2.75 J-1.587
X87.927 Y31.107 Z-4.415 I2.75 J1.587
X82.428 Y27.932 Z-4.498 I-2.75 J-1.587
X87.927 Y31.107 Z-4.581 I2.75 J1.587
X82.428 Y27.932 Z-4.665 I-2.75 J-1.587
X87.927 Y31.107 Z-4.748 I2.75 J1.587
X82.428 Y27.932 Z-4.831 I-2.75 J-1.587
X87.927 Y31.107 Z-4.914 I2.75 J1.587
X82.428 Y27.932 Z-4.997 I-2.75 J-1.587
X87.927 Y31.107 Z-5.08 I2.75 J1.587
X82.428 Y27.932 Z-5.163 I-2.75 J-1.587
X87.927 Y31.107 Z-5.247 I2.75 J1.587
X82.428 Y27.932 Z-5.33 I-2.75 J-1.587
X87.927 Y31.107 Z-5.413 I2.75 J1.587
X82.428 Y27.932 Z-5.496 I-2.75 J-1.587
X87.927 Y31.107 Z-5.579 I2.75 J1.587
X82.428 Y27.932 Z-5.662 I-2.75 J-1.587
X87.927 Y31.107 Z-5.745 I2.75 J1.587
X82.428 Y27.932 Z-5.828 I-2.75 J-1.587
X87.927 Y31.107 Z-5.912 I2.75 J1.587
X82.428 Y27.932 Z-5.995 I-2.75 J-1.587
X87.927 Y31.107 Z-6.078 I2.75 J1.587
X82.428 Y27.932 Z-6.161 I-2.75 J-1.587
X87.927 Y31.107 Z-6.244 I2.75 J1.587
X82.428 Y27.932 Z-6.327 I-2.75 J-1.587
X87.927 Y31.107 Z-6.41 I2.75 J1.587
X82.428 Y27.932 Z-6.493 I-2.75 J-1.587
X87.927 Y31.107 Z-6.577 I2.75 J1.587
X82.428 Y27.932 Z-6.66 I-2.75 J-1.587
X87.927 Y31.107 Z-6.743 I2.75 J1.587
X82.428 Y27.932 Z-6.826 I-2.75 J-1.587
X87.927 Y31.107 Z-6.909 I2.75 J1.587
X82.428 Y27.932 Z-6.992 I-2.75 J-1.587
X87.927 Y31.107 Z-7.075 I2.75 J1.587
X82.428 Y27.932 Z-7.159 I-2.75 J-1.587
X87.927 Y31.107 Z-7.242 I2.75 J1.587
X82.428 Y27.932 Z-7.325 I-2.75 J-1.587
X87.927 Y31.107 Z-7.408 I2.75 J1.587
X86.417 Y32.443 Z-7.425 I-2.75 J-1.587
X83.939 Y26.596 I-1.239 J-2.923
X86.417 Y32.443 I1.239 J2.923
X86.001 Y32.274 I-0.124 J-0.292
G1 X85.178 Y29.52
G0 Z6.
Z1.575
G1 Z-0.425 F1600.
X89.186 Y31.467
G3 X89.302 Y31.901 I-0.159 J0.275
X81.053 Y27.138 Z-0.536 I-4.124 J-2.381
X89.302 Y31.901 Z-0.647 I4.124 J2.381
X81.053 Y27.138 Z-0.758 I-4.124 J-2.381
X89.302 Y31.901 Z-0.868 I4.124 J2.381
X81.053 Y27.138 Z-0.979 I-4.124 J-2.381
X89.302 Y31.901 Z-1.09 I4.124 J2.381
X81.053 Y27.138 Z-1.201 I-4.124 J-2.381
X89.302 Y31.901 Z-1.312 I4.124 J2.381
X81.053 Y27.138 Z-1.423 I-4.124 J-2.381
X89.302 Y31.901 Z-1.533 I4.124 J2.381
X81.053 Y27.138 Z-1.644 I-4.124 J-2.381
X89.302 Y31.901 Z-1.755 I4.124 J2.381
X81.053 Y27.138 Z-1.866 I-4.124 J-2.381
X89.302 Y31.901 Z-1.977 I4.124 J2.381
X81.053 Y27.138 Z-2.088 I-4.124 J-2.381
X89.302 Y31.901 Z-2.198 I4.124 J2.381
X81.053 Y27.138 Z-2.309 I-4.124 J-2.381
X89.302 Y31.901 Z-2.42 I4.124 J2.381
X81.053 Y27.138 Z-2.531 I-4.124 J-2.381
X89.302 Y31.901 Z-2.642 I4.124 J2.381
X81.053 Y27.138 Z-2.753 I-4.124 J-2.381
X89.302 Y31.901 Z-2.863 I4.124 J2.381
X81.053 Y27.138 Z-2.974 I-4.124 J-2.381
X89.302 Y31.901 Z-3.085 I4.124 J2.381
X81.053 Y27.138 Z-3.196 I-4.124 J-2.381
X89.302 Y31.901 Z-3.307 I4.124 J2.381
X81.053 Y27.138 Z-3.418 I-4.124 J-2.381
X89.302 Y31.901 Z-3.529 I4.124 J2.381
X81.053 Y27.138 Z-3.639 I-4.124 J-2.381
X89.302 Y31.901 Z-3.75 I4.124 J2.381
X81.053 Y27.138 Z-3.861 I-4.124 J-2.381
X89.302 Y31.901 Z-3.972 I4.124 J2.381
X81.053 Y27.138 Z-4.083 I-4.124 J-2.381
X89.302 Y31.901 Z-4.194 I4.124 J2.381
X81.053 Y27.138 Z-4.304 I-4.124 J-2.381
X89.302 Y31.901 Z-4.415 I4.124 J2.381
X81.053 Y27.138 Z-4.526 I-4.124 J-2.381
X89.302 Y31.901 Z-4.637 I4.124 J2.381
X81.053 Y27.138 Z-4.748 I-4.124 J-2.381
X89.302 Y31.901 Z-4.859 I4.124 J2.381
X81.053 Y27.138 Z-4.969 I-4.124 J-2.381
X89.302 Y31.901 Z-5.08 I4.124 J2.381
X81.053 Y27.138 Z-5.191 I-4.124 J-2.381
X89.302 Y31.901 Z-5.302 I4.124 J2.381
X81.053 Y27.138 Z-5.413 I-4.124 J-2.381
X89.302 Y31.901 Z-5.524 I4.124 J2.381
X81.053 Y27.138 Z-5.634 I-4.124 J-2.381
X89.302 Y31.901 Z-5.745 I4.124 J2.381
X81.053 Y27.138 Z-5.856 I-4.124 J-2.381
X89.302 Y31.901 Z-5.967 I4.124 J2.381
X81.053 Y27.138 Z-6.078 I-4.124 J-2.381
X89.302 Y31.901 Z-6.189 I4.124 J2.381
X81.053 Y27.138 Z-6.3 I-4.124 J-2.381
X89.302 Y31.901 Z-6.41 I4.124 J2.381
X81.053 Y27.138 Z-6.521 I-4.124 J-2.381
X89.302 Y31.901 Z-6.632 I4.124 J2.381
X81.053 Y27.138 Z-6.743 I-4.124 J-2.381
X89.302 Y31.901 Z-6.854 I4.124 J2.381
X81.053 Y27.138 Z-6.965 I-4.124 J-2.381
X89.302 Y31.901 Z-7.075 I4.124 J2.381
X81.053 Y27.138 Z-7.186 I-4.124 J-2.381
X89.302 Y31.901 Z-7.297 I4.124 J2.381
X81.053 Y27.138 Z-7.408 I-4.124 J-2.381
X82.638 Y25.491 Z-7.425 I4.124 J2.381
X87.718 Y33.548 I2.54 J4.029
X82.638 Y25.491 I-2.54 J-4.029
X83.076 Y25.59 I0.169 J0.269
G1 X85.178 Y29.52
G0 Z6.
Z1.575
G1 Z-0.425 F1600.
X90.561 Y32.261
G3 X90.677 Y32.695 I-0.159 J0.275
X79.678 Y26.345 Z-0.564 I-5.499 J-3.175
X90.677 Y32.695 Z-0.702 I5.499 J3.175
X79.678 Y26.345 Z-0.841 I-5.499 J-3.175
X90.677 Y32.695 Z-0.979 I5.499 J3.175
X79.678 Y26.345 Z-1.118 I-5.499 J-3.175
X90.677 Y32.695 Z-1.256 I5.499 J3.175
X79.678 Y26.345 Z-1.395 I-5.499 J-3.175
X90.677 Y32.695 Z-1.533 I5.499 J3.175
X79.678 Y26.345 Z-1.672 I-5.499 J-3.175
X90.677 Y32.695 Z-1.81 I5.499 J3.175
X79.678 Y26.345 Z-1.949 I-5.499 J-3.175
X90.677 Y32.695 Z-2.088 I5.499 J3.175
X79.678 Y26.345 Z-2.226 I-5.499 J-3.175
X90.677 Y32.695 Z-2.365 I5.499 J3.175
X79.678 Y26.345 Z-2.503 I-5.499 J-3.175
X90.677 Y32.695 Z-2.642 I5.499 J3.175
X79.678 Y26.345 Z-2.78 I-5.499 J-3.175
X90.677 Y32.695 Z-2.919 I5.499 J3.175
X79.678 Y26.345 Z-3.057 I-5.499 J-3.175
X90.677 Y32.695 Z-3.196 I5.499 J3.175
X79.678 Y26.345 Z-3.335 I-5.499 J-3.175
X90.677 Y32.695 Z-3.473 I5.499 J3.175
X79.678 Y26.345 Z-3.612 I-5.499 J-3.175
X90.677 Y32.695 Z-3.75 I5.499 J3.175
X79.678 Y26.345 Z-3.889 I-5.499 J-3.175
X90.677 Y32.695 Z-4.027 I5.499 J3.175
X79.678 Y26.345 Z-4.166 I-5.499 J-3.175
X90.677 Y32.695 Z-4.304 I5.499 J3.175
X79.678 Y26.345 Z-4.443 I-5.499 J-3.175
X90.677 Y32.695 Z-4.581 I5.499 J3.175
X79.678 Y26.345 Z-4.72 I-5.499 J-3.175
X90.677 Y32.695 Z-4.859 I5.499 J3.175
X79.678 Y26.345 Z-4.997 I-5.499 J-3.175
X90.677 Y32.695 Z-5.136 I5.499 J3.175
X79.678 Y26.345 Z-5.274 I-5.499 J-3.175
X90.677 Y32.695 Z-5.413 I5.499 J3.175
X79.678 Y26.345 Z-5.551 I-5.499 J-3.175
X90.677 Y32.695 Z-5.69 I5.499 J3.175
X79.678 Y26.345 Z-5.828 I-5.499 J-3.175
X90.677 Y32.695 Z-5.967 I5.499 J3.175
X79.678 Y26.345 Z-6.106 I-5.499 J-3.175
X90.677 Y32.695 Z-6.244 I5.499 J3.175
X79.678 Y26.345 Z-6.383 I-5.499 J-3.175
X90.677 Y32.695 Z-6.521 I5.499 J3.175
X79.678 Y26.345 Z-6.66 I-5.499 J-3.175
X90.677 Y32.695 Z-6.798 I5.499 J3.175
X79.678 Y26.345 Z-6.937 I-5.499 J-3.175
X90.677 Y32.695 Z-7.075 I5.499 J3.175
X79.678 Y26.345 Z-7.214 I-5.499 J-3.175
X90.677 Y32.695 Z-7.352 I5.499 J3.175
X81.607 Y34.771 Z-7.425 I-5.499 J-3.175
X88.749 Y24.269 I3.571 J-5.251
X81.607 Y34.771 I-3.571 J5.251
X81.523 Y34.329 I0.179 J-0.263
G1 X85.178 Y29.52
G0 Z6.
Z1.575
G1 Z-0.425 F1600.
X91.936 Y33.055
G3 X92.052 Y33.488 I-0.159 J0.275
X78.304 Y25.551 Z-0.591 I-6.874 J-3.969
X92.052 Y33.488 Z-0.758 I6.874 J3.969
X78.304 Y25.551 Z-0.924 I-6.874 J-3.969
X92.052 Y33.488 Z-1.09 I6.874 J3.969
X78.304 Y25.551 Z-1.256 I-6.874 J-3.969
X92.052 Y33.488 Z-1.423 I6.874 J3.969
X78.304 Y25.551 Z-1.589 I-6.874 J-3.969
X92.052 Y33.488 Z-1.755 I6.874 J3.969
X78.304 Y25.551 Z-1.921 I-6.874 J-3.969
X92.052 Y33.488 Z-2.088 I6.874 J3.969
X78.304 Y25.551 Z-2.254 I-6.874 J-3.969
X92.052 Y33.488 Z-2.42 I6.874 J3.969
X78.304 Y25.551 Z-2.586 I-6.874 J-3.969
X92.052 Y33.488 Z-2.753 I6.874 J3.969
X78.304 Y25.551 Z-2.919 I-6.874 J-3.969
X92.052 Y33.488 Z-3.085 I6.874 J3.969
X78.304 Y25.551 Z-3.251 I-6.874 J-3.969
X92.052 Y33.488 Z-3.418 I6.874 J3.969
X78.304 Y25.551 Z-3.584 I-6.874 J-3.969
X92.052 Y33.488 Z-3.75 I6.874 J3.969
X78.304 Y25.551 Z-3.916 I-6.874 J-3.969
X92.052 Y33.488 Z-4.083 I6.874 J3.969
X78.304 Y25.551 Z-4.249 I-6.874 J-3.969
X92.052 Y33.488 Z-4.415 I6.874 J3.969
X78.304 Y25.551 Z-4.581 I-6.874 J-3.969
X92.052 Y33.488 Z-4.748 I6.874 J3.969
X78.304 Y25.551 Z-4.914 I-6.874 J-3.969
X92.052 Y33.488 Z-5.08 I6.874 J3.969
X78.304 Y25.551 Z-5.247 I-6.874 J-3.969
X92.052 Y33.488 Z-5.413 I6.874 J3.969
X78.304 Y25.551 Z-5.579 I-6.874 J-3.969
X92.052 Y33.488 Z-5.745 I6.874 J3.969
X78.304 Y25.551 Z-5.912 I-6.874 J-3.969
X92.052 Y33.488 Z-6.078 I6.874 J3.969
X78.304 Y25.551 Z-6.244 I-6.874 J-3.969
X92.052 Y33.488 Z-6.41 I6.874 J3.969
X78.304 Y25.551 Z-6.577 I-6.874 J-3.969
X92.052 Y33.488 Z-6.743 I6.874 J3.969
X78.304 Y25.551 Z-6.909 I-6.874 J-3.969
X92.052 Y33.488 Z-7.075 I6.874 J3.969
X78.304 Y25.551 Z-7.242 I-6.874 J-3.969
X92.052 Y33.488 Z-7.408 I6.874 J3.969
X90.436 Y35.466 Z-7.425 I-6.874 J-3.969
X79.92 Y23.573 I-5.258 J-5.946
X90.436 Y35.466 I5.258 J5.946
X89.988 Y35.438 I-0.21 J-0.238
G1 X85.178 Y29.52
G0 Z6.
Z1.575
G1 Z-0.425 F1600.
X93.31 Y33.848
G3 X93.427 Y34.282 I-0.159 J0.275
X76.929 Y24.757 Z-0.619 I-8.249 J-4.762
X93.427 Y34.282 Z-0.813 I8.249 J4.762
X76.929 Y24.757 Z-1.007 I-8.249 J-4.762
X93.427 Y34.282 Z-1.201 I8.249 J4.762
X76.929 Y24.757 Z-1.395 I-8.249 J-4.762
X93.427 Y34.282 Z-1.589 I8.249 J4.762
X76.929 Y24.757 Z-1.783 I-8.249 J-4.762
X93.427 Y34.282 Z-1.977 I8.249 J4.762
X76.929 Y24.757 Z-2.171 I-8.249 J-4.762
X93.427 Y34.282 Z-2.365 I8.249 J4.762
X76.929 Y24.757 Z-2.559 I-8.249 J-4.762
X93.427 Y34.282 Z-2.753 I8.249 J4.762
X76.929 Y24.757 Z-2.947 I-8.249 J-4.762
X93.427 Y34.282 Z-3.141 I8.249 J4.762
X76.929 Y24.757 Z-3.335 I-8.249 J-4.762
X93.427 Y34.282 Z-3.529 I8.249 J4.762
X76.929 Y24.757 Z-3.722 I-8.249 J-4.762
X93.427 Y34.282 Z-3.916 I8.249 J4.762
X76.929 Y24.757 Z-4.11 I-8.249 J-4.762
X93.427 Y34.282 Z-4.304 I8.249 J4.762
X76.929 Y24.757 Z-4.498 I-8.249 J-4.762
X93.427 Y34.282 Z-4.692 I8.249 J4.762
X76.929 Y24.757 Z-4.886 I-8.249 J-4.762
X93.427 Y34.282 Z-5.08 I8.249 J4.762
X76.929 Y24.757 Z-5.274 I-8.249 J-4.762
X93.427 Y34.282 Z-5.468 I8.249 J4.762
X76.929 Y24.757 Z-5.662 I-8.249 J-4.762
X93.427 Y34.282 Z-5.856 I8.249 J4.762
X76.929 Y24.757 Z-6.05 I-8.249 J-4.762
X93.427 Y34.282 Z-6.244 I8.249 J4.762
X76.929 Y24.757 Z-6.438 I-8.249 J-4.762
X93.427 Y34.282 Z-6.632 I8.249 J4.762
X76.929 Y24.757 Z-6.826 I-8.249 J-4.762
X93.427 Y34.282 Z-7.02 I8.249 J4.762
X76.929 Y24.757 Z-7.214 I-8.249 J-4.762
X91.033 Y22.007 Z-7.319 I8.249 J4.762
X91.81 Y36.356 Z-7.425 I-5.856 J7.512
X78.546 Y22.683 I-6.632 J-6.837
X91.81 Y36.356 I6.632 J6.837
X91.361 Y36.349 I-0.221 J-0.228
G1 X85.178 Y29.52
G0 Z6.
Z1.575
G1 Z-0.425 F1600.
X94.685 Y34.642
G3 X94.801 Y35.076 I-0.159 J0.275
X75.554 Y23.963 Z-0.647 I-9.624 J-5.556
X94.801 Y35.076 Z-0.868 I9.624 J5.556
X75.554 Y23.963 Z-1.09 I-9.624 J-5.556
X94.801 Y35.076 Z-1.312 I9.624 J5.556
X75.554 Y23.963 Z-1.533 I-9.624 J-5.556
X94.801 Y35.076 Z-1.755 I9.624 J5.556
X75.554 Y23.963 Z-1.977 I-9.624 J-5.556
X94.801 Y35.076 Z-2.198 I9.624 J5.556
X75.554 Y23.963 Z-2.42 I-9.624 J-5.556
X94.801 Y35.076 Z-2.642 I9.624 J5.556
X75.554 Y23.963 Z-2.863 I-9.624 J-5.556
X94.801 Y35.076 Z-3.085 I9.624 J5.556
X75.554 Y23.963 Z-3.307 I-9.624 J-5.556
X94.801 Y35.076 Z-3.529 I9.624 J5.556
X75.554 Y23.963 Z-3.75 I-9.624 J-5.556
X94.801 Y35.076 Z-3.972 I9.624 J5.556
X75.554 Y23.963 Z-4.194 I-9.624 J-5.556
X94.801 Y35.076 Z-4.415 I9.624 J5.556
X75.554 Y23.963 Z-4.637 I-9.624 J-5.556
X94.801 Y35.076 Z-4.859 I9.624 J5.556
X75.554 Y23.963 Z-5.08 I-9.624 J-5.556
X94.801 Y35.076 Z-5.302 I9.624 J5.556
X75.554 Y23.963 Z-5.524 I-9.624 J-5.556
X94.801 Y35.076 Z-5.745 I9.624 J5.556
X75.554 Y23.963 Z-5.967 I-9.624 J-5.556
X94.801 Y35.076 Z-6.189 I9.624 J5.556
X75.554 Y23.963 Z-6.41 I-9.624 J-5.556
X94.801 Y35.076 Z-6.632 I9.624 J5.556
X75.554 Y23.963 Z-6.854 I-9.624 J-5.556
X94.801 Y35.076 Z-7.075 I9.624 J5.556
X75.554 Y23.963 Z-7.297 I-9.624 J-5.556
X92.881 Y21.511 Z-7.425 I9.624 J5.556
X77.474 Y37.529 I-7.703 J8.009
X92.881 Y21.511 I7.703 J-8.009
X92.89 Y21.96 I-0.22 J0.229
G1 X85.178 Y29.52
G0 Z6.
Z1.575
G1 Z-0.425 F1600.
X96.06 Y35.436
G3 X96.176 Y35.87 I-0.159 J0.275
X74.179 Y23.17 Z-0.674 I-10.999 J-6.35
X96.176 Y35.87 Z-0.924 I10.999 J6.35
X74.179 Y23.17 Z-1.173 I-10.999 J-6.35
X96.176 Y35.87 Z-1.423 I10.999 J6.35
X74.179 Y23.17 Z-1.672 I-10.999 J-6.35
X96.176 Y35.87 Z-1.921 I10.999 J6.35
X74.179 Y23.17 Z-2.171 I-10.999 J-6.35
X96.176 Y35.87 Z-2.42 I10.999 J6.35
X74.179 Y23.17 Z-2.67 I-10.999 J-6.35
X96.176 Y35.87 Z-2.919 I10.999 J6.35
X74.179 Y23.17 Z-3.168 I-10.999 J-6.35
X96.176 Y35.87 Z-3.418 I10.999 J6.35
X74.179 Y23.17 Z-3.667 I-10.999 J-6.35
X96.176 Y35.87 Z-3.916 I10.999 J6.35
X74.179 Y23.17 Z-4.166 I-10.999 J-6.35
X96.176 Y35.87 Z-4.415 I10.999 J6.35
X74.179 Y23.17 Z-4.665 I-10.999 J-6.35
X96.176 Y35.87 Z-4.914 I10.999 J6.35
X74.179 Y23.17 Z-5.163 I-10.999 J-6.35
X96.176 Y35.87 Z-5.413 I10.999 J6.35
X74.179 Y23.17 Z-5.662 I-10.999 J-6.35
X96.176 Y35.87 Z-5.912 I10.999 J6.35
X74.179 Y23.17 Z-6.161 I-10.999 J-6.35
X96.176 Y35.87 Z-6.41 I10.999 J6.35
X74.179 Y23.17 Z-6.66 I-10.999 J-6.35
X96.176 Y35.87 Z-6.909 I10.999 J6.35
X74.179 Y23.17 Z-7.159 I-10.999 J-6.35
X92.673 Y19.268 Z-7.292 I10.999 J6.35
X94.565 Y38.074 Z-7.425 I-7.496 J10.252
X75.791 Y20.965 I-9.387 J-8.554
X94.565 Y38.074 I9.387 J8.554
X94.116 Y38.095 I-0.235 J-0.214
G1 X85.178 Y29.52
G0 Z9.575
M5
G0 Z15
G0 X0 Y0

M30
