(4TH QUAD CUTOUT)
(T1  D=3.175 CR=0. - ZMIN=-7. - FLAT END MILL)
G90 G94 G91.1 G40 G49 G17
G21
G0 Z15

(2D CONTOUR3 4)
M5
T1 M6
S15000 M3
G54
G0 X136.325 Y-90.898
G43 Z16.425 H1
Z6.425
G1 Z4.242 F1600.
X136.329 Y-90.905 Z4.172
X136.34 Y-90.925 Z4.105
X136.359 Y-90.958 Z4.045
X136.384 Y-91.001 Z3.994
X136.414 Y-91.054 Z3.956
X136.447 Y-91.112 Z3.933
X136.483 Y-91.173 Z3.925
X136.64 Y-91.449
G2 X136.207 Y-91.331 I-0.158 J0.275
X114.184 Y-4.887 Z0.771 I144.627 J82.873
X114.692 Y5.02 Z0.425 I166.649 J-3.582
G3 X114.184 Y-4.887 I166.141 J-13.489
X136.478 Y-91.802 I166.65 J-3.571
G1 X146.003 Y-108.299
G2 X143.098 Y-119.143 I-6.874 J-3.969
G1 X118.351 Y-133.43
G2 X107.508 Y-130.525 I-3.969 J6.874
G1 X94.808 Y-108.528
G3 X88.302 Y-106.784 I-4.125 J-2.381
G1 X40.39 Y-134.447
X36.059 Y-136.947
X40.39 Y-134.447 Z0.416
X88.302 Y-106.784 Z0.312
G2 X94.808 Y-108.528 Z0.298 I2.381 J-4.125
G1 X107.508 Y-130.525 Z0.25
G3 X118.351 Y-133.43 Z0.227 I6.874 J3.969
G1 X143.098 Y-119.143 Z0.173
G3 X146.003 Y-108.299 Z0.15 I-3.969 J6.874
G1 X136.478 Y-91.802 Z0.114
G2 X114.184 Y-4.887 Z-0.056 I144.356 J83.344
X114.692 Y5.02 Z-0.075 I166.649 J-3.582
G3 X114.184 Y-4.887 Z-0.094 I166.141 J-13.489
X136.478 Y-91.802 Z-0.264 I166.65 J-3.571
G1 X146.003 Y-108.299 Z-0.3
G2 X143.098 Y-119.143 Z-0.323 I-6.874 J-3.969
G1 X118.351 Y-133.43 Z-0.377
G2 X107.508 Y-130.525 Z-0.4 I-3.969 J6.874
G1 X94.808 Y-108.528 Z-0.448
G3 X88.302 Y-106.784 Z-0.462 I-4.125 J-2.381
G1 X40.39 Y-134.447 Z-0.566
X36.059 Y-136.947 Z-0.575
X40.39 Y-134.447
X88.302 Y-106.784
G2 X94.808 Y-108.528 I2.381 J-4.125
G1 X107.508 Y-130.525
G3 X118.351 Y-133.43 I6.874 J3.969
G1 X143.098 Y-119.143
G3 X146.003 Y-108.299 I-3.969 J6.874
G1 X136.478 Y-91.802
G2 X114.184 Y-4.887 I144.356 J83.344
X114.692 Y5.02 I166.649 J-3.582
G3 X114.184 Y-4.887 Z-0.612 I166.141 J-13.489
X136.478 Y-91.802 Z-0.953 I166.65 J-3.571
G1 X146.003 Y-108.299 Z-1.025
G2 X143.098 Y-119.143 Z-1.071 I-6.874 J-3.969
G1 X118.351 Y-133.43 Z-1.179
G2 X107.508 Y-130.525 Z-1.225 I-3.969 J6.874
G1 X94.808 Y-108.528 Z-1.321
G3 X88.302 Y-106.784 Z-1.349 I-4.125 J-2.381
G1 X40.39 Y-134.447 Z-1.556
X36.059 Y-136.947 Z-1.575
X40.39 Y-134.447
X88.302 Y-106.784
G2 X94.808 Y-108.528 I2.381 J-4.125
G1 X107.508 Y-130.525
G3 X118.351 Y-133.43 I6.874 J3.969
G1 X143.098 Y-119.143
G3 X146.003 Y-108.299 I-3.969 J6.874
G1 X136.478 Y-91.802
G2 X114.184 Y-4.887 I144.356 J83.344
X114.692 Y5.02 I166.649 J-3.582
G3 X114.184 Y-4.887 Z-1.612 I166.141 J-13.489
X136.478 Y-91.802 Z-1.953 I166.65 J-3.571
G1 X146.003 Y-108.299 Z-2.025
G2 X143.098 Y-119.143 Z-2.071 I-6.874 J-3.969
G1 X118.351 Y-133.43 Z-2.179
G2 X107.508 Y-130.525 Z-2.225 I-3.969 J6.874
G1 X94.808 Y-108.528 Z-2.321
G3 X88.302 Y-106.784 Z-2.349 I-4.125 J-2.381
G1 X40.39 Y-134.447 Z-2.556
X36.059 Y-136.947 Z-2.575
X40.39 Y-134.447
X88.302 Y-106.784
G2 X94.808 Y-108.528 I2.381 J-4.125
G1 X107.508 Y-130.525
G3 X118.351 Y-133.43 I6.874 J3.969
G1 X143.098 Y-119.143
G3 X146.003 Y-108.299 I-3.969 J6.874
G1 X136.478 Y-91.802
G2 X114.184 Y-4.887 I144.356 J83.344
X114.692 Y5.02 I166.649 J-3.582
G3 X114.184 Y-4.887 Z-2.612 I166.141 J-13.489
X136.478 Y-91.802 Z-2.953 I166.65 J-3.571
G1 X146.003 Y-108.299 Z-3.025
G2 X143.098 Y-119.143 Z-3.071 I-6.874 J-3.969
G1 X118.351 Y-133.43 Z-3.179
G2 X107.508 Y-130.525 Z-3.225 I-3.969 J6.874
G1 X94.808 Y-108.528 Z-3.321
G3 X88.302 Y-106.784 Z-3.349 I-4.125 J-2.381
G1 X40.39 Y-134.447 Z-3.556
X36.059 Y-136.947 Z-3.575
X40.39 Y-134.447
X88.302 Y-106.784
G2 X94.808 Y-108.528 I2.381 J-4.125
G1 X107.508 Y-130.525
G3 X118.351 Y-133.43 I6.874 J3.969
G1 X143.098 Y-119.143
G3 X146.003 Y-108.299 I-3.969 J6.874
G1 X136.478 Y-91.802
G2 X114.184 Y-4.887 I144.356 J83.344
X114.692 Y5.02 I166.649 J-3.582
G3 X114.184 Y-4.887 Z-3.612 I166.141 J-13.489
X136.478 Y-91.802 Z-3.953 I166.65 J-3.571
G1 X146.003 Y-108.299 Z-4.025
G2 X143.098 Y-119.143 Z-4.071 I-6.874 J-3.969
G1 X118.351 Y-133.43 Z-4.179
G2 X107.508 Y-130.525 Z-4.225 I-3.969 J6.874
G1 X94.808 Y-108.528 Z-4.321
G3 X88.302 Y-106.784 Z-4.349 I-4.125 J-2.381
G1 X40.39 Y-134.447 Z-4.556
X36.059 Y-136.947 Z-4.575
X40.39 Y-134.447
X88.302 Y-106.784
G2 X94.808 Y-108.528 I2.381 J-4.125
G1 X107.508 Y-130.525
G3 X118.351 Y-133.43 I6.874 J3.969
G1 X143.098 Y-119.143
G3 X146.003 Y-108.299 I-3.969 J6.874
G1 X136.478 Y-91.802
G2 X114.184 Y-4.887 I144.356 J83.344
X114.692 Y5.02 I166.649 J-3.582
G3 X114.184 Y-4.887 Z-4.612 I166.141 J-13.489
X136.478 Y-91.802 Z-4.953 I166.65 J-3.571
G1 X146.003 Y-108.299 Z-5.025
G2 X143.098 Y-119.143 Z-5.071 I-6.874 J-3.969
G1 X118.351 Y-133.43 Z-5.179
G2 X107.508 Y-130.525 Z-5.225 I-3.969 J6.874
G1 X94.808 Y-108.528 Z-5.321
G3 X88.302 Y-106.784 Z-5.349 I-4.125 J-2.381
G1 X40.39 Y-134.447 Z-5.556
X36.059 Y-136.947 Z-5.575
X40.39 Y-134.447
X88.302 Y-106.784
G2 X94.808 Y-108.528 I2.381 J-4.125
G1 X107.508 Y-130.525
G3 X118.351 Y-133.43 I6.874 J3.969
G1 X143.098 Y-119.143
G3 X146.003 Y-108.299 I-3.969 J6.874
G1 X136.478 Y-91.802
G2 X114.184 Y-4.887 I144.356 J83.344
X114.692 Y5.02 I166.649 J-3.582
G3 X114.184 Y-4.887 Z-5.612 I166.141 J-13.489
X136.478 Y-91.802 Z-5.953 I166.65 J-3.571
G1 X146.003 Y-108.299 Z-6.025
G2 X143.098 Y-119.143 Z-6.071 I-6.874 J-3.969
G1 X118.351 Y-133.43 Z-6.179
G2 X107.508 Y-130.525 Z-6.225 I-3.969 J6.874
G1 X94.808 Y-108.528 Z-6.321
G3 X88.302 Y-106.784 Z-6.349 I-4.125 J-2.381
G1 X40.39 Y-134.447 Z-6.556
X36.059 Y-136.947 Z-6.575
X40.39 Y-134.447
X88.302 Y-106.784
G2 X94.808 Y-108.528 I2.381 J-4.125
G1 X107.508 Y-130.525
G3 X118.351 Y-133.43 I6.874 J3.969
G1 X143.098 Y-119.143
G3 X146.003 Y-108.299 I-3.969 J6.874
G1 X136.478 Y-91.802
G2 X114.184 Y-4.887 I144.356 J83.344
X114.692 Y5.02 I166.649 J-3.582
G3 X114.184 Y-4.887 Z-6.591 I166.141 J-13.489
X136.478 Y-91.802 Z-6.736 I166.65 J-3.571
G1 X146.003 Y-108.299 Z-6.766
G2 X143.098 Y-119.143 Z-6.786 I-6.874 J-3.969
G1 X118.351 Y-133.43 Z-6.832
G2 X107.508 Y-130.525 Z-6.851 I-3.969 J6.874
G1 X94.808 Y-108.528 Z-6.892
G3 X88.302 Y-106.784 Z-6.904 I-4.125 J-2.381
G1 X40.39 Y-134.447 Z-6.992
X36.059 Y-136.947 Z-7.
X40.39 Y-134.447
X88.302 Y-106.784
G2 X94.808 Y-108.528 I2.381 J-4.125
G1 X107.508 Y-130.525
G3 X118.351 Y-133.43 I6.874 J3.969
G1 X143.098 Y-119.143
G3 X146.003 Y-108.299 I-3.969 J6.874
G1 X136.478 Y-91.802
G2 X114.184 Y-4.887 I144.356 J83.344
X114.692 Y5.02 I166.649 J-3.582
X115.034 Y5.311 I0.316 J-0.026
G1 X115.009 Y4.994
X115.003 Y4.924 Z-6.992
X114.998 Y4.857 Z-6.969
X114.993 Y4.797 Z-6.931
X114.989 Y4.747 Z-6.88
X114.986 Y4.709 Z-6.82
X114.984 Y4.686 Z-6.753
X114.983 Y4.678 Z-6.683
G0 Z16.425
M5
G0 Z15
G0 X0 Y0

M30
