(X4 RIGHT STATIC PLATE HOLES)
(T3  D=0.118 CR=0. - ZMIN=-0.145 - FLAT END MILL)
G90 G94 G91.1 G40 G49 G17
G20

(2D POCKET1)
M5
T3 M6
S15000 M3
g4 p5
g0 z.5
G54
M8
G0 X1.5662 Y1.3435
G43 Z0.6 H3
Z0.2
G1 Z0.1118 F40.
X1.5648 Y1.3438 Z0.106 F20.
X1.5607 Y1.3446 Z0.1017
X1.555 Y1.3452 Z0.1
G3 X1.5497 Y1.2332 Z0.0939 I-0.0027 J-0.056
X1.555 Y1.3452 Z0.0877 I0.0027 J0.056
X1.5497 Y1.2332 Z0.0816 I-0.0027 J-0.056
X1.555 Y1.3452 Z0.0754 I0.0027 J0.056
X1.5497 Y1.2332 Z0.0693 I-0.0027 J-0.056
X1.555 Y1.3452 Z0.0631 I0.0027 J0.056
X1.5497 Y1.2332 Z0.057 I-0.0027 J-0.056
X1.555 Y1.3452 Z0.0508 I0.0027 J0.056
X1.5497 Y1.2332 Z0.0447 I-0.0027 J-0.056
X1.555 Y1.3452 Z0.0385 I0.0027 J0.056
X1.5497 Y1.2332 Z0.0324 I-0.0027 J-0.056
X1.555 Y1.3452 Z0.0262 I0.0027 J0.056
X1.5497 Y1.2332 Z0.0201 I-0.0027 J-0.056
X1.555 Y1.3452 Z0.0139 I0.0027 J0.056
X1.5497 Y1.2332 Z0.0078 I-0.0027 J-0.056
X1.555 Y1.3452 Z0.0016 I0.0027 J0.056
X1.5497 Y1.2332 Z-0.0045 I-0.0027 J-0.056
X1.555 Y1.3452 Z-0.0107 I0.0027 J0.056
X1.5497 Y1.2332 Z-0.0168 I-0.0027 J-0.056
X1.6084 Y1.2892 Z-0.02 I0.0027 J0.056
X1.5826 I-0.0129 J0.
X1.6095 I0.0134 J0. F40.
X1.4705 I-0.0695 J0.
X1.6095 I0.0695 J0.
G1 X1.6093 Y1.2911
X1.6086 Y1.2928
X1.6076 Y1.2944
X1.6062 Y1.2957
X1.6046 Y1.2966
X1.5217 Y1.3308
X1.5199 Y1.3313
X1.518 Y1.3314
X1.5162 Y1.331
X1.5145 Y1.3303
X1.513 Y1.3291
G3 X1.5916 Y1.2492 Z-0.0261 I0.0393 J-0.0399 F20.
X1.513 Y1.3291 Z-0.0323 I-0.0393 J0.0399
X1.5916 Y1.2492 Z-0.0384 I0.0393 J-0.0399
X1.6084 Y1.2892 Z-0.04 I-0.0393 J0.0399
X1.5826 I-0.0129 J0.
X1.6095 I0.0134 J0. F40.
X1.4705 I-0.0695 J0.
X1.6095 I0.0695 J0.
G1 X1.6093 Y1.2911
X1.6086 Y1.2928
X1.6076 Y1.2944
X1.6062 Y1.2957
X1.6046 Y1.2966
X1.5217 Y1.3308
X1.5199 Y1.3313
X1.518 Y1.3314
X1.5162 Y1.331
X1.5145 Y1.3303
X1.513 Y1.3291
G3 X1.5916 Y1.2492 Z-0.0461 I0.0393 J-0.0399 F20.
X1.513 Y1.3291 Z-0.0523 I-0.0393 J0.0399
X1.5916 Y1.2492 Z-0.0584 I0.0393 J-0.0399
X1.6084 Y1.2892 Z-0.06 I-0.0393 J0.0399
X1.5826 I-0.0129 J0.
X1.6095 I0.0134 J0. F40.
X1.4705 I-0.0695 J0.
X1.6095 I0.0695 J0.
G1 X1.6093 Y1.2911
X1.6086 Y1.2928
X1.6076 Y1.2944
X1.6062 Y1.2957
X1.6046 Y1.2966
X1.5217 Y1.3308
X1.5199 Y1.3313
X1.518 Y1.3314
X1.5162 Y1.331
X1.5145 Y1.3303
X1.513 Y1.3291
G3 X1.5916 Y1.2492 Z-0.0661 I0.0393 J-0.0399 F20.
X1.513 Y1.3291 Z-0.0723 I-0.0393 J0.0399
X1.5916 Y1.2492 Z-0.0784 I0.0393 J-0.0399
X1.6084 Y1.2892 Z-0.08 I-0.0393 J0.0399
X1.5826 I-0.0129 J0.
X1.6095 I0.0134 J0. F40.
X1.4705 I-0.0695 J0.
X1.6095 I0.0695 J0.
G1 X1.6093 Y1.2911
X1.6086 Y1.2928
X1.6076 Y1.2944
X1.6062 Y1.2957
X1.6046 Y1.2966
X1.5217 Y1.3308
X1.5199 Y1.3313
X1.518 Y1.3314
X1.5162 Y1.331
X1.5145 Y1.3303
X1.513 Y1.3291
G3 X1.5916 Y1.2492 Z-0.0861 I0.0393 J-0.0399 F20.
X1.513 Y1.3291 Z-0.0923 I-0.0393 J0.0399
X1.5916 Y1.2492 Z-0.0984 I0.0393 J-0.0399
X1.6084 Y1.2892 Z-0.1 I-0.0393 J0.0399
X1.5826 I-0.0129 J0.
X1.6095 I0.0134 J0. F40.
X1.4705 I-0.0695 J0.
X1.6095 I0.0695 J0.
G1 X1.6093 Y1.2911
X1.6086 Y1.2928
X1.6076 Y1.2944
X1.6062 Y1.2957
X1.6046 Y1.2966
X1.5217 Y1.3308
X1.5199 Y1.3313
X1.518 Y1.3314
X1.5162 Y1.331
X1.5145 Y1.3303
X1.513 Y1.3291
G3 X1.5916 Y1.2492 Z-0.1061 I0.0393 J-0.0399 F20.
X1.513 Y1.3291 Z-0.1123 I-0.0393 J0.0399
X1.5916 Y1.2492 Z-0.1184 I0.0393 J-0.0399
X1.6084 Y1.2892 Z-0.12 I-0.0393 J0.0399
X1.5826 I-0.0129 J0.
X1.6095 I0.0134 J0. F40.
X1.4705 I-0.0695 J0.
X1.6095 I0.0695 J0.
G1 X1.6093 Y1.29
X1.6086 Y1.2905
X1.6078 Y1.2906
X1.607 Y1.2903
X1.6066 Y1.2895
X1.6052 Y1.2839
Y1.2831
X1.6056 Y1.2824
X1.6063 Y1.2821
X1.6071 Y1.2822
X1.6078 Y1.2827
X1.6081 Y1.2834
G3 X1.4966 Y1.295 Z-0.1261 I-0.0558 J0.0058 F20.
X1.5494 Y1.2332 Z-0.1293 I0.0558 J-0.0058
X1.6084 Y1.2892 Z-0.1325 I0.0029 J0.056
X1.5826 I-0.0129 J0.
X1.6095 I0.0134 J0. F40.
X1.4705 I-0.0695 J0.
X1.6095 I0.0695 J0.
G1 X1.6093 Y1.29
X1.6086 Y1.2905
X1.6078 Y1.2906
X1.607 Y1.2903
X1.6066 Y1.2895
X1.6052 Y1.2839
Y1.2831
X1.6056 Y1.2824
X1.6063 Y1.2821
X1.6071 Y1.2822
X1.6078 Y1.2827
X1.6081 Y1.2834
G3 X1.4966 Y1.295 Z-0.1386 I-0.0558 J0.0058 F20.
X1.5494 Y1.2332 Z-0.1418 I0.0558 J-0.0058
X1.6084 Y1.2892 Z-0.145 I0.0029 J0.056
X1.5826 I-0.0129 J0.
X1.6095 I0.0134 J0. F40.
X1.4705 I-0.0695 J0.
X1.6095 I0.0695 J0.
G1 X1.6093 Y1.2914 Z-0.1446
X1.6086 Y1.2936 Z-0.1441
X1.6078 Y1.2953 Z-0.1428
X1.6067 Y1.2968 Z-0.1415
X1.6048 Y1.2986 Z-0.1377
X1.6041 Y1.2991 Z-0.1332
G0 Z0.2
X1.5662 Y0.5943
G1 Z0.1118 F40.
X1.5648 Y0.5947 Z0.106 F20.
X1.5607 Y0.5954 Z0.1017
X1.555 Y0.596 Z0.1
G3 X1.5497 Y0.484 Z0.0939 I-0.0027 J-0.056
X1.555 Y0.596 Z0.0877 I0.0027 J0.056
X1.5497 Y0.484 Z0.0816 I-0.0027 J-0.056
X1.555 Y0.596 Z0.0754 I0.0027 J0.056
X1.5497 Y0.484 Z0.0693 I-0.0027 J-0.056
X1.555 Y0.596 Z0.0631 I0.0027 J0.056
X1.5497 Y0.484 Z0.057 I-0.0027 J-0.056
X1.555 Y0.596 Z0.0508 I0.0027 J0.056
X1.5497 Y0.484 Z0.0447 I-0.0027 J-0.056
X1.555 Y0.596 Z0.0385 I0.0027 J0.056
X1.5497 Y0.484 Z0.0324 I-0.0027 J-0.056
X1.555 Y0.596 Z0.0262 I0.0027 J0.056
X1.5497 Y0.484 Z0.0201 I-0.0027 J-0.056
X1.555 Y0.596 Z0.0139 I0.0027 J0.056
X1.5497 Y0.484 Z0.0078 I-0.0027 J-0.056
X1.555 Y0.596 Z0.0016 I0.0027 J0.056
X1.5497 Y0.484 Z-0.0045 I-0.0027 J-0.056
X1.555 Y0.596 Z-0.0107 I0.0027 J0.056
X1.5497 Y0.484 Z-0.0168 I-0.0027 J-0.056
X1.6084 Y0.54 Z-0.02 I0.0027 J0.056
X1.5826 I-0.0129 J0.
X1.6095 I0.0134 J0. F40.
X1.4705 I-0.0695 J0.
X1.6095 I0.0695 J0.
G1 X1.6093 Y0.5419
X1.6086 Y0.5436
X1.6076 Y0.5452
X1.6062 Y0.5465
X1.6046 Y0.5474
X1.5217 Y0.5816
X1.5199 Y0.5821
X1.518 Y0.5822
X1.5162 Y0.5819
X1.5145 Y0.5811
X1.513 Y0.5799
G3 X1.5916 Y0.5001 Z-0.0261 I0.0393 J-0.0399 F20.
X1.513 Y0.5799 Z-0.0323 I-0.0393 J0.0399
X1.5916 Y0.5001 Z-0.0384 I0.0393 J-0.0399
X1.6084 Y0.54 Z-0.04 I-0.0393 J0.0399
X1.5826 I-0.0129 J0.
X1.6095 I0.0134 J0. F40.
X1.4705 I-0.0695 J0.
X1.6095 I0.0695 J0.
G1 X1.6093 Y0.5419
X1.6086 Y0.5436
X1.6076 Y0.5452
X1.6062 Y0.5465
X1.6046 Y0.5474
X1.5217 Y0.5816
X1.5199 Y0.5821
X1.518 Y0.5822
X1.5162 Y0.5819
X1.5145 Y0.5811
X1.513 Y0.5799
G3 X1.5916 Y0.5001 Z-0.0461 I0.0393 J-0.0399 F20.
X1.513 Y0.5799 Z-0.0523 I-0.0393 J0.0399
X1.5916 Y0.5001 Z-0.0584 I0.0393 J-0.0399
X1.6084 Y0.54 Z-0.06 I-0.0393 J0.0399
X1.5826 I-0.0129 J0.
X1.6095 I0.0134 J0. F40.
X1.4705 I-0.0695 J0.
X1.6095 I0.0695 J0.
G1 X1.6093 Y0.5419
X1.6086 Y0.5436
X1.6076 Y0.5452
X1.6062 Y0.5465
X1.6046 Y0.5474
X1.5217 Y0.5816
X1.5199 Y0.5821
X1.518 Y0.5822
X1.5162 Y0.5819
X1.5145 Y0.5811
X1.513 Y0.5799
G3 X1.5916 Y0.5001 Z-0.0661 I0.0393 J-0.0399 F20.
X1.513 Y0.5799 Z-0.0723 I-0.0393 J0.0399
X1.5916 Y0.5001 Z-0.0784 I0.0393 J-0.0399
X1.6084 Y0.54 Z-0.08 I-0.0393 J0.0399
X1.5826 I-0.0129 J0.
X1.6095 I0.0134 J0. F40.
X1.4705 I-0.0695 J0.
X1.6095 I0.0695 J0.
G1 X1.6093 Y0.5419
X1.6086 Y0.5436
X1.6076 Y0.5452
X1.6062 Y0.5465
X1.6046 Y0.5474
X1.5217 Y0.5816
X1.5199 Y0.5821
X1.518 Y0.5822
X1.5162 Y0.5819
X1.5145 Y0.5811
X1.513 Y0.5799
G3 X1.5916 Y0.5001 Z-0.0861 I0.0393 J-0.0399 F20.
X1.513 Y0.5799 Z-0.0923 I-0.0393 J0.0399
X1.5916 Y0.5001 Z-0.0984 I0.0393 J-0.0399
X1.6084 Y0.54 Z-0.1 I-0.0393 J0.0399
X1.5826 I-0.0129 J0.
X1.6095 I0.0134 J0. F40.
X1.4705 I-0.0695 J0.
X1.6095 I0.0695 J0.
G1 X1.6093 Y0.5419
X1.6086 Y0.5436
X1.6076 Y0.5452
X1.6062 Y0.5465
X1.6046 Y0.5474
X1.5217 Y0.5816
X1.5199 Y0.5821
X1.518 Y0.5822
X1.5162 Y0.5819
X1.5145 Y0.5811
X1.513 Y0.5799
G3 X1.5916 Y0.5001 Z-0.1061 I0.0393 J-0.0399 F20.
X1.513 Y0.5799 Z-0.1123 I-0.0393 J0.0399
X1.5916 Y0.5001 Z-0.1184 I0.0393 J-0.0399
X1.6084 Y0.54 Z-0.12 I-0.0393 J0.0399
X1.5826 I-0.0129 J0.
X1.6095 I0.0134 J0. F40.
X1.4705 I-0.0695 J0.
X1.6095 I0.0695 J0.
G1 X1.6093 Y0.5408
X1.6086 Y0.5414
X1.6078 Y0.5415
X1.607 Y0.5411
X1.6066 Y0.5404
X1.6052 Y0.5347
Y0.5339
X1.6056 Y0.5333
X1.6063 Y0.5329
X1.6071 Y0.533
X1.6078 Y0.5335
X1.6081 Y0.5342
G3 X1.4966 Y0.5458 Z-0.1261 I-0.0558 J0.0058 F20.
X1.5494 Y0.484 Z-0.1293 I0.0558 J-0.0058
X1.6084 Y0.54 Z-0.1325 I0.0029 J0.056
X1.5826 I-0.0129 J0.
X1.6095 I0.0134 J0. F40.
X1.4705 I-0.0695 J0.
X1.6095 I0.0695 J0.
G1 X1.6093 Y0.5408
X1.6086 Y0.5414
X1.6078 Y0.5415
X1.607 Y0.5411
X1.6066 Y0.5404
X1.6052 Y0.5347
Y0.5339
X1.6056 Y0.5333
X1.6063 Y0.5329
X1.6071 Y0.533
X1.6078 Y0.5335
X1.6081 Y0.5342
G3 X1.4966 Y0.5458 Z-0.1386 I-0.0558 J0.0058 F20.
X1.5494 Y0.484 Z-0.1418 I0.0558 J-0.0058
X1.6084 Y0.54 Z-0.145 I0.0029 J0.056
X1.5826 I-0.0129 J0.
X1.6095 I0.0134 J0. F40.
X1.4705 I-0.0695 J0.
X1.6095 I0.0695 J0.
G1 X1.6093 Y0.5422 Z-0.1446
X1.6086 Y0.5444 Z-0.1441
X1.6078 Y0.5461 Z-0.1428
X1.6067 Y0.5477 Z-0.1415
X1.6048 Y0.5494 Z-0.1377
X1.6041 Y0.5499 Z-0.1332
G0 Z0.2
X0.5662 Y0.5943
G1 Z0.1118 F40.
X0.5648 Y0.5947 Z0.106 F20.
X0.5607 Y0.5954 Z0.1017
X0.555 Y0.596 Z0.1
G3 X0.5497 Y0.484 Z0.0939 I-0.0027 J-0.056
X0.555 Y0.596 Z0.0877 I0.0027 J0.056
X0.5497 Y0.484 Z0.0816 I-0.0027 J-0.056
X0.555 Y0.596 Z0.0754 I0.0027 J0.056
X0.5497 Y0.484 Z0.0693 I-0.0027 J-0.056
X0.555 Y0.596 Z0.0631 I0.0027 J0.056
X0.5497 Y0.484 Z0.057 I-0.0027 J-0.056
X0.555 Y0.596 Z0.0508 I0.0027 J0.056
X0.5497 Y0.484 Z0.0447 I-0.0027 J-0.056
X0.555 Y0.596 Z0.0385 I0.0027 J0.056
X0.5497 Y0.484 Z0.0324 I-0.0027 J-0.056
X0.555 Y0.596 Z0.0262 I0.0027 J0.056
X0.5497 Y0.484 Z0.0201 I-0.0027 J-0.056
X0.555 Y0.596 Z0.0139 I0.0027 J0.056
X0.5497 Y0.484 Z0.0078 I-0.0027 J-0.056
X0.555 Y0.596 Z0.0016 I0.0027 J0.056
X0.5497 Y0.484 Z-0.0045 I-0.0027 J-0.056
X0.555 Y0.596 Z-0.0107 I0.0027 J0.056
X0.5497 Y0.484 Z-0.0168 I-0.0027 J-0.056
X0.6084 Y0.54 Z-0.02 I0.0027 J0.056
X0.5826 I-0.0129 J0.
X0.6095 I0.0134 J0. F40.
X0.4705 I-0.0695 J0.
X0.6095 I0.0695 J0.
G1 X0.6093 Y0.5419
X0.6086 Y0.5436
X0.6076 Y0.5452
X0.6062 Y0.5465
X0.6046 Y0.5474
X0.5217 Y0.5816
X0.5199 Y0.5821
X0.518 Y0.5822
X0.5162 Y0.5819
X0.5145 Y0.5811
X0.513 Y0.5799
G3 X0.5916 Y0.5001 Z-0.0261 I0.0393 J-0.0399 F20.
X0.513 Y0.5799 Z-0.0323 I-0.0393 J0.0399
X0.5916 Y0.5001 Z-0.0384 I0.0393 J-0.0399
X0.6084 Y0.54 Z-0.04 I-0.0393 J0.0399
X0.5826 I-0.0129 J0.
X0.6095 I0.0134 J0. F40.
X0.4705 I-0.0695 J0.
X0.6095 I0.0695 J0.
G1 X0.6093 Y0.5419
X0.6086 Y0.5436
X0.6076 Y0.5452
X0.6062 Y0.5465
X0.6046 Y0.5474
X0.5217 Y0.5816
X0.5199 Y0.5821
X0.518 Y0.5822
X0.5162 Y0.5819
X0.5145 Y0.5811
X0.513 Y0.5799
G3 X0.5916 Y0.5001 Z-0.0461 I0.0393 J-0.0399 F20.
X0.513 Y0.5799 Z-0.0523 I-0.0393 J0.0399
X0.5916 Y0.5001 Z-0.0584 I0.0393 J-0.0399
X0.6084 Y0.54 Z-0.06 I-0.0393 J0.0399
X0.5826 I-0.0129 J0.
X0.6095 I0.0134 J0. F40.
X0.4705 I-0.0695 J0.
X0.6095 I0.0695 J0.
G1 X0.6093 Y0.5419
X0.6086 Y0.5436
X0.6076 Y0.5452
X0.6062 Y0.5465
X0.6046 Y0.5474
X0.5217 Y0.5816
X0.5199 Y0.5821
X0.518 Y0.5822
X0.5162 Y0.5819
X0.5145 Y0.5811
X0.513 Y0.5799
G3 X0.5916 Y0.5001 Z-0.0661 I0.0393 J-0.0399 F20.
X0.513 Y0.5799 Z-0.0723 I-0.0393 J0.0399
X0.5916 Y0.5001 Z-0.0784 I0.0393 J-0.0399
X0.6084 Y0.54 Z-0.08 I-0.0393 J0.0399
X0.5826 I-0.0129 J0.
X0.6095 I0.0134 J0. F40.
X0.4705 I-0.0695 J0.
X0.6095 I0.0695 J0.
G1 X0.6093 Y0.5419
X0.6086 Y0.5436
X0.6076 Y0.5452
X0.6062 Y0.5465
X0.6046 Y0.5474
X0.5217 Y0.5816
X0.5199 Y0.5821
X0.518 Y0.5822
X0.5162 Y0.5819
X0.5145 Y0.5811
X0.513 Y0.5799
G3 X0.5916 Y0.5001 Z-0.0861 I0.0393 J-0.0399 F20.
X0.513 Y0.5799 Z-0.0923 I-0.0393 J0.0399
X0.5916 Y0.5001 Z-0.0984 I0.0393 J-0.0399
X0.6084 Y0.54 Z-0.1 I-0.0393 J0.0399
X0.5826 I-0.0129 J0.
X0.6095 I0.0134 J0. F40.
X0.4705 I-0.0695 J0.
X0.6095 I0.0695 J0.
G1 X0.6093 Y0.5419
X0.6086 Y0.5436
X0.6076 Y0.5452
X0.6062 Y0.5465
X0.6046 Y0.5474
X0.5217 Y0.5816
X0.5199 Y0.5821
X0.518 Y0.5822
X0.5162 Y0.5819
X0.5145 Y0.5811
X0.513 Y0.5799
G3 X0.5916 Y0.5001 Z-0.1061 I0.0393 J-0.0399 F20.
X0.513 Y0.5799 Z-0.1123 I-0.0393 J0.0399
X0.5916 Y0.5001 Z-0.1184 I0.0393 J-0.0399
X0.6084 Y0.54 Z-0.12 I-0.0393 J0.0399
X0.5826 I-0.0129 J0.
X0.6095 I0.0134 J0. F40.
X0.4705 I-0.0695 J0.
X0.6095 I0.0695 J0.
G1 X0.6093 Y0.5408
X0.6086 Y0.5414
X0.6078 Y0.5415
X0.607 Y0.5411
X0.6066 Y0.5404
X0.6052 Y0.5347
Y0.5339
X0.6056 Y0.5333
X0.6063 Y0.5329
X0.6071 Y0.533
X0.6078 Y0.5335
X0.6081 Y0.5342
G3 X0.4966 Y0.5458 Z-0.1261 I-0.0558 J0.0058 F20.
X0.5494 Y0.484 Z-0.1293 I0.0558 J-0.0058
X0.6084 Y0.54 Z-0.1325 I0.0029 J0.056
X0.5826 I-0.0129 J0.
X0.6095 I0.0134 J0. F40.
X0.4705 I-0.0695 J0.
X0.6095 I0.0695 J0.
G1 X0.6093 Y0.5408
X0.6086 Y0.5414
X0.6078 Y0.5415
X0.607 Y0.5411
X0.6066 Y0.5404
X0.6052 Y0.5347
Y0.5339
X0.6056 Y0.5333
X0.6063 Y0.5329
X0.6071 Y0.533
X0.6078 Y0.5335
X0.6081 Y0.5342
G3 X0.4966 Y0.5458 Z-0.1386 I-0.0558 J0.0058 F20.
X0.5494 Y0.484 Z-0.1418 I0.0558 J-0.0058
X0.6084 Y0.54 Z-0.145 I0.0029 J0.056
X0.5826 I-0.0129 J0.
X0.6095 I0.0134 J0. F40.
X0.4705 I-0.0695 J0.
X0.6095 I0.0695 J0.
G1 X0.6093 Y0.5422 Z-0.1446
X0.6086 Y0.5444 Z-0.1441
X0.6078 Y0.5461 Z-0.1428
X0.6067 Y0.5477 Z-0.1415
X0.6048 Y0.5494 Z-0.1377
X0.6041 Y0.5499 Z-0.1332
G0 Z0.2
X1.5662 Y2.3435
G1 Z0.1118 F40.
X1.5648 Y2.3438 Z0.106 F20.
X1.5607 Y2.3446 Z0.1017
X1.555 Y2.3452 Z0.1
G3 X1.5497 Y2.2332 Z0.0939 I-0.0027 J-0.056
X1.555 Y2.3452 Z0.0877 I0.0027 J0.056
X1.5497 Y2.2332 Z0.0816 I-0.0027 J-0.056
X1.555 Y2.3452 Z0.0754 I0.0027 J0.056
X1.5497 Y2.2332 Z0.0693 I-0.0027 J-0.056
X1.555 Y2.3452 Z0.0631 I0.0027 J0.056
X1.5497 Y2.2332 Z0.057 I-0.0027 J-0.056
X1.555 Y2.3452 Z0.0508 I0.0027 J0.056
X1.5497 Y2.2332 Z0.0447 I-0.0027 J-0.056
X1.555 Y2.3452 Z0.0385 I0.0027 J0.056
X1.5497 Y2.2332 Z0.0324 I-0.0027 J-0.056
X1.555 Y2.3452 Z0.0262 I0.0027 J0.056
X1.5497 Y2.2332 Z0.0201 I-0.0027 J-0.056
X1.555 Y2.3452 Z0.0139 I0.0027 J0.056
X1.5497 Y2.2332 Z0.0078 I-0.0027 J-0.056
X1.555 Y2.3452 Z0.0016 I0.0027 J0.056
X1.5497 Y2.2332 Z-0.0045 I-0.0027 J-0.056
X1.555 Y2.3452 Z-0.0107 I0.0027 J0.056
X1.5497 Y2.2332 Z-0.0168 I-0.0027 J-0.056
X1.6084 Y2.2892 Z-0.02 I0.0027 J0.056
X1.5826 I-0.0129 J0.
X1.6095 I0.0134 J0. F40.
X1.4705 I-0.0695 J0.
X1.6095 I0.0695 J0.
G1 X1.6093 Y2.291
X1.6086 Y2.2928
X1.6076 Y2.2944
X1.6062 Y2.2957
X1.6046 Y2.2966
X1.5217 Y2.3308
X1.5199 Y2.3313
X1.518 Y2.3314
X1.5162 Y2.331
X1.5145 Y2.3303
X1.513 Y2.3291
G3 X1.5916 Y2.2492 Z-0.0261 I0.0393 J-0.0399 F20.
X1.513 Y2.3291 Z-0.0323 I-0.0393 J0.0399
X1.5916 Y2.2492 Z-0.0384 I0.0393 J-0.0399
X1.6084 Y2.2892 Z-0.04 I-0.0393 J0.0399
X1.5826 I-0.0129 J0.
X1.6095 I0.0134 J0. F40.
X1.4705 I-0.0695 J0.
X1.6095 I0.0695 J0.
G1 X1.6093 Y2.291
X1.6086 Y2.2928
X1.6076 Y2.2944
X1.6062 Y2.2957
X1.6046 Y2.2966
X1.5217 Y2.3308
X1.5199 Y2.3313
X1.518 Y2.3314
X1.5162 Y2.331
X1.5145 Y2.3303
X1.513 Y2.3291
G3 X1.5916 Y2.2492 Z-0.0461 I0.0393 J-0.0399 F20.
X1.513 Y2.3291 Z-0.0523 I-0.0393 J0.0399
X1.5916 Y2.2492 Z-0.0584 I0.0393 J-0.0399
X1.6084 Y2.2892 Z-0.06 I-0.0393 J0.0399
X1.5826 I-0.0129 J0.
X1.6095 I0.0134 J0. F40.
X1.4705 I-0.0695 J0.
X1.6095 I0.0695 J0.
G1 X1.6093 Y2.291
X1.6086 Y2.2928
X1.6076 Y2.2944
X1.6062 Y2.2957
X1.6046 Y2.2966
X1.5217 Y2.3308
X1.5199 Y2.3313
X1.518 Y2.3314
X1.5162 Y2.331
X1.5145 Y2.3303
X1.513 Y2.3291
G3 X1.5916 Y2.2492 Z-0.0661 I0.0393 J-0.0399 F20.
X1.513 Y2.3291 Z-0.0723 I-0.0393 J0.0399
X1.5916 Y2.2492 Z-0.0784 I0.0393 J-0.0399
X1.6084 Y2.2892 Z-0.08 I-0.0393 J0.0399
X1.5826 I-0.0129 J0.
X1.6095 I0.0134 J0. F40.
X1.4705 I-0.0695 J0.
X1.6095 I0.0695 J0.
G1 X1.6093 Y2.291
X1.6086 Y2.2928
X1.6076 Y2.2944
X1.6062 Y2.2957
X1.6046 Y2.2966
X1.5217 Y2.3308
X1.5199 Y2.3313
X1.518 Y2.3314
X1.5162 Y2.331
X1.5145 Y2.3303
X1.513 Y2.3291
G3 X1.5916 Y2.2492 Z-0.0861 I0.0393 J-0.0399 F20.
X1.513 Y2.3291 Z-0.0923 I-0.0393 J0.0399
X1.5916 Y2.2492 Z-0.0984 I0.0393 J-0.0399
X1.6084 Y2.2892 Z-0.1 I-0.0393 J0.0399
X1.5826 I-0.0129 J0.
X1.6095 I0.0134 J0. F40.
X1.4705 I-0.0695 J0.
X1.6095 I0.0695 J0.
G1 X1.6093 Y2.291
X1.6086 Y2.2928
X1.6076 Y2.2944
X1.6062 Y2.2957
X1.6046 Y2.2966
X1.5217 Y2.3308
X1.5199 Y2.3313
X1.518 Y2.3314
X1.5162 Y2.331
X1.5145 Y2.3303
X1.513 Y2.3291
G3 X1.5916 Y2.2492 Z-0.1061 I0.0393 J-0.0399 F20.
X1.513 Y2.3291 Z-0.1123 I-0.0393 J0.0399
X1.5916 Y2.2492 Z-0.1184 I0.0393 J-0.0399
X1.6084 Y2.2892 Z-0.12 I-0.0393 J0.0399
X1.5826 I-0.0129 J0.
X1.6095 I0.0134 J0. F40.
X1.4705 I-0.0695 J0.
X1.6095 I0.0695 J0.
G1 X1.6093 Y2.29
X1.6086 Y2.2905
X1.6078 Y2.2906
X1.607 Y2.2903
X1.6066 Y2.2895
X1.6052 Y2.2839
Y2.2831
X1.6056 Y2.2824
X1.6063 Y2.2821
X1.6071 Y2.2822
X1.6078 Y2.2827
X1.6081 Y2.2834
G3 X1.4966 Y2.295 Z-0.1261 I-0.0558 J0.0058 F20.
X1.5494 Y2.2332 Z-0.1293 I0.0558 J-0.0058
X1.6084 Y2.2892 Z-0.1325 I0.0029 J0.056
X1.5826 I-0.0129 J0.
X1.6095 I0.0134 J0. F40.
X1.4705 I-0.0695 J0.
X1.6095 I0.0695 J0.
G1 X1.6093 Y2.29
X1.6086 Y2.2905
X1.6078 Y2.2906
X1.607 Y2.2903
X1.6066 Y2.2895
X1.6052 Y2.2839
Y2.2831
X1.6056 Y2.2824
X1.6063 Y2.2821
X1.6071 Y2.2822
X1.6078 Y2.2827
X1.6081 Y2.2834
G3 X1.4966 Y2.295 Z-0.1386 I-0.0558 J0.0058 F20.
X1.5494 Y2.2332 Z-0.1418 I0.0558 J-0.0058
X1.6084 Y2.2892 Z-0.145 I0.0029 J0.056
X1.5826 I-0.0129 J0.
X1.6095 I0.0134 J0. F40.
X1.4705 I-0.0695 J0.
X1.6095 I0.0695 J0.
G1 X1.6093 Y2.2914 Z-0.1446
X1.6086 Y2.2936 Z-0.1441
X1.6078 Y2.2953 Z-0.1428
X1.6067 Y2.2968 Z-0.1415
X1.6048 Y2.2986 Z-0.1377
X1.6041 Y2.2991 Z-0.1332
G0 Z0.2
X3.0662 Y0.5943
G1 Z0.1118 F40.
X3.0648 Y0.5947 Z0.106 F20.
X3.0607 Y0.5954 Z0.1017
X3.055 Y0.596 Z0.1
G3 X3.0497 Y0.484 Z0.0939 I-0.0027 J-0.056
X3.055 Y0.596 Z0.0877 I0.0027 J0.056
X3.0497 Y0.484 Z0.0816 I-0.0027 J-0.056
X3.055 Y0.596 Z0.0754 I0.0027 J0.056
X3.0497 Y0.484 Z0.0693 I-0.0027 J-0.056
X3.055 Y0.596 Z0.0631 I0.0027 J0.056
X3.0497 Y0.484 Z0.057 I-0.0027 J-0.056
X3.055 Y0.596 Z0.0508 I0.0027 J0.056
X3.0497 Y0.484 Z0.0447 I-0.0027 J-0.056
X3.055 Y0.596 Z0.0385 I0.0027 J0.056
X3.0497 Y0.484 Z0.0324 I-0.0027 J-0.056
X3.055 Y0.596 Z0.0262 I0.0027 J0.056
X3.0497 Y0.484 Z0.0201 I-0.0027 J-0.056
X3.055 Y0.596 Z0.0139 I0.0027 J0.056
X3.0497 Y0.484 Z0.0078 I-0.0027 J-0.056
X3.055 Y0.596 Z0.0016 I0.0027 J0.056
X3.0497 Y0.484 Z-0.0045 I-0.0027 J-0.056
X3.055 Y0.596 Z-0.0107 I0.0027 J0.056
X3.0497 Y0.484 Z-0.0168 I-0.0027 J-0.056
X3.1084 Y0.54 Z-0.02 I0.0027 J0.056
X3.0826 I-0.0129 J0.
X3.1095 I0.0134 J0. F40.
X2.9705 I-0.0695 J0.
X3.1095 I0.0695 J0.
G1 X3.1093 Y0.5419
X3.1086 Y0.5436
X3.1076 Y0.5452
X3.1062 Y0.5465
X3.1046 Y0.5474
X3.0217 Y0.5816
X3.0199 Y0.5821
X3.018 Y0.5822
X3.0162 Y0.5819
X3.0145 Y0.5811
X3.013 Y0.5799
G3 X3.0916 Y0.5001 Z-0.0261 I0.0393 J-0.0399 F20.
X3.013 Y0.5799 Z-0.0323 I-0.0393 J0.0399
X3.0916 Y0.5001 Z-0.0384 I0.0393 J-0.0399
X3.1084 Y0.54 Z-0.04 I-0.0393 J0.0399
X3.0826 I-0.0129 J0.
X3.1095 I0.0134 J0. F40.
X2.9705 I-0.0695 J0.
X3.1095 I0.0695 J0.
G1 X3.1093 Y0.5419
X3.1086 Y0.5436
X3.1076 Y0.5452
X3.1062 Y0.5465
X3.1046 Y0.5474
X3.0217 Y0.5816
X3.0199 Y0.5821
X3.018 Y0.5822
X3.0162 Y0.5819
X3.0145 Y0.5811
X3.013 Y0.5799
G3 X3.0916 Y0.5001 Z-0.0461 I0.0393 J-0.0399 F20.
X3.013 Y0.5799 Z-0.0523 I-0.0393 J0.0399
X3.0916 Y0.5001 Z-0.0584 I0.0393 J-0.0399
X3.1084 Y0.54 Z-0.06 I-0.0393 J0.0399
X3.0826 I-0.0129 J0.
X3.1095 I0.0134 J0. F40.
X2.9705 I-0.0695 J0.
X3.1095 I0.0695 J0.
G1 X3.1093 Y0.5419
X3.1086 Y0.5436
X3.1076 Y0.5452
X3.1062 Y0.5465
X3.1046 Y0.5474
X3.0217 Y0.5816
X3.0199 Y0.5821
X3.018 Y0.5822
X3.0162 Y0.5819
X3.0145 Y0.5811
X3.013 Y0.5799
G3 X3.0916 Y0.5001 Z-0.0661 I0.0393 J-0.0399 F20.
X3.013 Y0.5799 Z-0.0723 I-0.0393 J0.0399
X3.0916 Y0.5001 Z-0.0784 I0.0393 J-0.0399
X3.1084 Y0.54 Z-0.08 I-0.0393 J0.0399
X3.0826 I-0.0129 J0.
X3.1095 I0.0134 J0. F40.
X2.9705 I-0.0695 J0.
X3.1095 I0.0695 J0.
G1 X3.1093 Y0.5419
X3.1086 Y0.5436
X3.1076 Y0.5452
X3.1062 Y0.5465
X3.1046 Y0.5474
X3.0217 Y0.5816
X3.0199 Y0.5821
X3.018 Y0.5822
X3.0162 Y0.5819
X3.0145 Y0.5811
X3.013 Y0.5799
G3 X3.0916 Y0.5001 Z-0.0861 I0.0393 J-0.0399 F20.
X3.013 Y0.5799 Z-0.0923 I-0.0393 J0.0399
X3.0916 Y0.5001 Z-0.0984 I0.0393 J-0.0399
X3.1084 Y0.54 Z-0.1 I-0.0393 J0.0399
X3.0826 I-0.0129 J0.
X3.1095 I0.0134 J0. F40.
X2.9705 I-0.0695 J0.
X3.1095 I0.0695 J0.
G1 X3.1093 Y0.5419
X3.1086 Y0.5436
X3.1076 Y0.5452
X3.1062 Y0.5465
X3.1046 Y0.5474
X3.0217 Y0.5816
X3.0199 Y0.5821
X3.018 Y0.5822
X3.0162 Y0.5819
X3.0145 Y0.5811
X3.013 Y0.5799
G3 X3.0916 Y0.5001 Z-0.1061 I0.0393 J-0.0399 F20.
X3.013 Y0.5799 Z-0.1123 I-0.0393 J0.0399
X3.0916 Y0.5001 Z-0.1184 I0.0393 J-0.0399
X3.1084 Y0.54 Z-0.12 I-0.0393 J0.0399
X3.0826 I-0.0129 J0.
X3.1095 I0.0134 J0. F40.
X2.9705 I-0.0695 J0.
X3.1095 I0.0695 J0.
G1 X3.1093 Y0.5408
X3.1086 Y0.5414
X3.1078 Y0.5415
X3.107 Y0.5411
X3.1066 Y0.5404
X3.1052 Y0.5347
Y0.5339
X3.1056 Y0.5333
X3.1063 Y0.5329
X3.1071 Y0.533
X3.1078 Y0.5335
X3.1081 Y0.5342
G3 X2.9966 Y0.5458 Z-0.1261 I-0.0558 J0.0058 F20.
X3.0494 Y0.484 Z-0.1293 I0.0558 J-0.0058
X3.1084 Y0.54 Z-0.1325 I0.0029 J0.056
X3.0826 I-0.0129 J0.
X3.1095 I0.0134 J0. F40.
X2.9705 I-0.0695 J0.
X3.1095 I0.0695 J0.
G1 X3.1093 Y0.5408
X3.1086 Y0.5414
X3.1078 Y0.5415
X3.107 Y0.5411
X3.1066 Y0.5404
X3.1052 Y0.5347
Y0.5339
X3.1056 Y0.5333
X3.1063 Y0.5329
X3.1071 Y0.533
X3.1078 Y0.5335
X3.1081 Y0.5342
G3 X2.9966 Y0.5458 Z-0.1386 I-0.0558 J0.0058 F20.
X3.0494 Y0.484 Z-0.1418 I0.0558 J-0.0058
X3.1084 Y0.54 Z-0.145 I0.0029 J0.056
X3.0826 I-0.0129 J0.
X3.1095 I0.0134 J0. F40.
X2.9705 I-0.0695 J0.
X3.1095 I0.0695 J0.
G1 X3.1093 Y0.5422 Z-0.1446
X3.1086 Y0.5444 Z-0.1441
X3.1078 Y0.5461 Z-0.1428
X3.1067 Y0.5477 Z-0.1415
X3.1048 Y0.5494 Z-0.1377
X3.1041 Y0.5499 Z-0.1332
G0 Z0.2
X4.0943 Y0.5129
G1 Z0.1118 F40.
X4.0947 Y0.5144 Z0.106 F20.
X4.0954 Y0.5185 Z0.1017
X4.096 Y0.5242 Z0.1
G3 X3.984 Y0.5295 Z0.0939 I-0.056 J0.0027
X4.096 Y0.5242 Z0.0877 I0.056 J-0.0027
X3.984 Y0.5295 Z0.0816 I-0.056 J0.0027
X4.096 Y0.5242 Z0.0754 I0.056 J-0.0027
X3.984 Y0.5295 Z0.0693 I-0.056 J0.0027
X4.096 Y0.5242 Z0.0631 I0.056 J-0.0027
X3.984 Y0.5295 Z0.057 I-0.056 J0.0027
X4.096 Y0.5242 Z0.0508 I0.056 J-0.0027
X3.984 Y0.5295 Z0.0447 I-0.056 J0.0027
X4.096 Y0.5242 Z0.0385 I0.056 J-0.0027
X3.984 Y0.5295 Z0.0324 I-0.056 J0.0027
X4.096 Y0.5242 Z0.0262 I0.056 J-0.0027
X3.984 Y0.5295 Z0.0201 I-0.056 J0.0027
X4.096 Y0.5242 Z0.0139 I0.056 J-0.0027
X3.984 Y0.5295 Z0.0078 I-0.056 J0.0027
X4.096 Y0.5242 Z0.0016 I0.056 J-0.0027
X3.984 Y0.5295 Z-0.0045 I-0.056 J0.0027
X4.096 Y0.5242 Z-0.0107 I0.056 J-0.0027
X3.984 Y0.5295 Z-0.0168 I-0.056 J0.0027
X4.04 Y0.4708 Z-0.02 I0.056 J-0.0027
Y0.5609 I0. J0.0451
X4.0191 Y0.54 I0. J-0.0209 F40.
X4.04 Y0.5191 I0.0209 J0.
X4.0609 Y0.54 I0. J0.0209
X4.04 Y0.5609 I-0.0209 J0.
G2 X4.0117 Y0.5759 I0. J0.0342
G3 X3.9798 Y0.5747 I-0.0156 J-0.0106
X3.9705 Y0.54 I0.0602 J-0.0347
X4.1095 I0.0695 J0.
X3.9798 Y0.5747 I-0.0695 J0.
G1 X3.9791 Y0.573
X3.979 Y0.5712
X3.9794 Y0.5695
X3.9804 Y0.5679
X3.9817 Y0.5668
X3.9834 Y0.566
X4.0321 Y0.5533
X4.0762 Y0.5561
G3 X4.0799 Y0.5662 I-0.0004 J0.0059
X4.0001 Y0.4875 Z-0.0261 I-0.0399 J-0.0393 F20.
X4.0799 Y0.5662 Z-0.0323 I0.0399 J0.0393
X4.0001 Y0.4875 Z-0.0384 I-0.0399 J-0.0393
X4.04 Y0.4708 Z-0.04 I0.0399 J0.0393
Y0.5609 I0. J0.0451
X4.0191 Y0.54 I0. J-0.0209 F40.
X4.04 Y0.5191 I0.0209 J0.
X4.0609 Y0.54 I0. J0.0209
X4.04 Y0.5609 I-0.0209 J0.
G2 X4.0117 Y0.5759 I0. J0.0342
G3 X3.9798 Y0.5747 I-0.0156 J-0.0106
X3.9705 Y0.54 I0.0602 J-0.0347
X4.1095 I0.0695 J0.
X3.9798 Y0.5747 I-0.0695 J0.
G1 X3.9791 Y0.573
X3.979 Y0.5712
X3.9794 Y0.5695
X3.9804 Y0.5679
X3.9817 Y0.5668
X3.9834 Y0.566
X4.0321 Y0.5533
X4.0762 Y0.5561
G3 X4.0799 Y0.5662 I-0.0004 J0.0059
X4.0001 Y0.4875 Z-0.0461 I-0.0399 J-0.0393 F20.
X4.0799 Y0.5662 Z-0.0523 I0.0399 J0.0393
X4.0001 Y0.4875 Z-0.0584 I-0.0399 J-0.0393
X4.04 Y0.4708 Z-0.06 I0.0399 J0.0393
Y0.5609 I0. J0.0451
X4.0191 Y0.54 I0. J-0.0209 F40.
X4.04 Y0.5191 I0.0209 J0.
X4.0609 Y0.54 I0. J0.0209
X4.04 Y0.5609 I-0.0209 J0.
G2 X4.0117 Y0.5759 I0. J0.0342
G3 X3.9798 Y0.5747 I-0.0156 J-0.0106
X3.9705 Y0.54 I0.0602 J-0.0347
X4.1095 I0.0695 J0.
X3.9798 Y0.5747 I-0.0695 J0.
G1 X3.9791 Y0.573
X3.979 Y0.5712
X3.9794 Y0.5695
X3.9804 Y0.5679
X3.9817 Y0.5668
X3.9834 Y0.566
X4.0321 Y0.5533
X4.0762 Y0.5561
G3 X4.0799 Y0.5662 I-0.0004 J0.0059
X4.0001 Y0.4875 Z-0.0661 I-0.0399 J-0.0393 F20.
X4.0799 Y0.5662 Z-0.0723 I0.0399 J0.0393
X4.0001 Y0.4875 Z-0.0784 I-0.0399 J-0.0393
X4.04 Y0.4708 Z-0.08 I0.0399 J0.0393
Y0.5609 I0. J0.0451
X4.0191 Y0.54 I0. J-0.0209 F40.
X4.04 Y0.5191 I0.0209 J0.
X4.0609 Y0.54 I0. J0.0209
X4.04 Y0.5609 I-0.0209 J0.
G2 X4.0117 Y0.5759 I0. J0.0342
G3 X3.9798 Y0.5747 I-0.0156 J-0.0106
X3.9705 Y0.54 I0.0602 J-0.0347
X4.1095 I0.0695 J0.
X3.9798 Y0.5747 I-0.0695 J0.
G1 X3.9791 Y0.573
X3.979 Y0.5712
X3.9794 Y0.5695
X3.9804 Y0.5679
X3.9817 Y0.5668
X3.9834 Y0.566
X4.0321 Y0.5533
X4.0762 Y0.5561
G3 X4.0799 Y0.5662 I-0.0004 J0.0059
X4.0001 Y0.4875 Z-0.0861 I-0.0399 J-0.0393 F20.
X4.0799 Y0.5662 Z-0.0923 I0.0399 J0.0393
X4.0001 Y0.4875 Z-0.0984 I-0.0399 J-0.0393
X4.04 Y0.4708 Z-0.1 I0.0399 J0.0393
Y0.5609 I0. J0.0451
X4.0191 Y0.54 I0. J-0.0209 F40.
X4.04 Y0.5191 I0.0209 J0.
X4.0609 Y0.54 I0. J0.0209
X4.04 Y0.5609 I-0.0209 J0.
G2 X4.0117 Y0.5759 I0. J0.0342
G3 X3.9798 Y0.5747 I-0.0156 J-0.0106
X3.9705 Y0.54 I0.0602 J-0.0347
X4.1095 I0.0695 J0.
X3.9798 Y0.5747 I-0.0695 J0.
G1 X3.9791 Y0.573
X3.979 Y0.5712
X3.9794 Y0.5695
X3.9804 Y0.5679
X3.9817 Y0.5668
X3.9834 Y0.566
X4.0321 Y0.5533
X4.0762 Y0.5561
G3 X4.0799 Y0.5662 I-0.0004 J0.0059
X4.0001 Y0.4875 Z-0.1061 I-0.0399 J-0.0393 F20.
X4.0799 Y0.5662 Z-0.1123 I0.0399 J0.0393
X4.0001 Y0.4875 Z-0.1184 I-0.0399 J-0.0393
X4.04 Y0.4708 Z-0.12 I0.0399 J0.0393
Y0.5609 I0. J0.0451
X4.0191 Y0.54 I0. J-0.0209 F40.
X4.04 Y0.5191 I0.0209 J0.
X4.0609 Y0.54 I0. J0.0209
X4.04 Y0.5609 I-0.0209 J0.
G2 X4.0117 Y0.5759 I0. J0.0342
G3 X3.9798 Y0.5747 I-0.0156 J-0.0106
X3.9705 Y0.54 I0.0602 J-0.0347
X4.1095 I0.0695 J0.
X3.9798 Y0.5747 I-0.0695 J0.
G1 X3.979 Y0.5728
X3.9787 Y0.5708
X3.9789 Y0.5688
X3.9796 Y0.567
X4.028 Y0.4753
X4.0291 Y0.4737
X4.0306 Y0.4724
X4.0323 Y0.4715
X4.0342 Y0.4711
G3 X4.0458 Y0.5826 Z-0.1261 I0.0058 J0.0558 F20.
X3.984 Y0.5297 Z-0.1293 I-0.0058 J-0.0558
X4.04 Y0.4708 Z-0.1325 I0.056 J-0.0029
Y0.5609 I0. J0.0451
X4.0191 Y0.54 I0. J-0.0209 F40.
X4.04 Y0.5191 I0.0209 J0.
X4.0609 Y0.54 I0. J0.0209
X4.04 Y0.5609 I-0.0209 J0.
G2 X4.0117 Y0.5759 I0. J0.0342
G3 X3.9798 Y0.5747 I-0.0156 J-0.0106
X3.9705 Y0.54 I0.0602 J-0.0347
X4.1095 I0.0695 J0.
X3.9798 Y0.5747 I-0.0695 J0.
G1 X3.979 Y0.5728
X3.9787 Y0.5708
X3.9789 Y0.5688
X3.9796 Y0.567
X4.028 Y0.4753
X4.0291 Y0.4737
X4.0306 Y0.4724
X4.0323 Y0.4715
X4.0342 Y0.4711
G3 X4.0458 Y0.5826 Z-0.1386 I0.0058 J0.0558 F20.
X3.984 Y0.5297 Z-0.1418 I-0.0058 J-0.0558
X4.04 Y0.4708 Z-0.145 I0.056 J-0.0029
Y0.5609 I0. J0.0451
X4.0191 Y0.54 I0. J-0.0209 F40.
X4.04 Y0.5191 I0.0209 J0.
X4.0609 Y0.54 I0. J0.0209
X4.04 Y0.5609 I-0.0209 J0.
G2 X4.0117 Y0.5759 I0. J0.0342
G3 X3.9798 Y0.5747 I-0.0156 J-0.0106
X3.9705 Y0.54 I0.0602 J-0.0347
X4.1095 I0.0695 J0.
X3.9798 Y0.5747 I-0.0695 J0.
G1 X3.9788 Y0.5726 Z-0.1446
X3.9783 Y0.5704 Z-0.1441
X3.9782 Y0.5685 Z-0.1428
X3.9784 Y0.5666 Z-0.1415
X3.9791 Y0.5642 Z-0.1377
X3.9795 Y0.5634 Z-0.1332
G0 Z0.6

M9
M30
