(T1  D=6.35 CR=0. - ZMIN=-7.35 - FLAT END MILL)
G90 G94 G91.1 G40 G49 G17
G21
G0 Z15

(2D CONTOUR1 2)
M5
T1 M6
S16000 M3
G54
M8
G0 X13.711 Y8.209
G43 Z16. H1
Z6.
G1 Z4.135 F800.
X13.713 Y8.217 Z4.036
X13.717 Y8.24 Z3.939
X13.725 Y8.277 Z3.847
X13.735 Y8.328 Z3.762
X13.748 Y8.392 Z3.686
X13.763 Y8.466 Z3.621
X13.779 Y8.549 Z3.569
X13.797 Y8.64 Z3.531
X13.816 Y8.735 Z3.508
X13.835 Y8.832 Z3.5
X13.96 Y9.455
G2 X14.706 Y9.954 I0.623 J-0.124
G3 X19.05 Y9.525 Z3.347 I4.344 J21.796
G1 X93.428 Z0.75
X167.806
G3 X190.031 Y31.75 I0. J22.225
G1 Y59.69
G3 X167.806 Y81.915 I-22.225 J0.
G1 X138.439
G2 X127.214 Y86.565 I0. J15.875
G1 X108.311 Y105.468
G3 X58.919 I-24.696 J-24.696
G1 X40.016 Y86.565
G2 X28.791 Y81.915 I-11.225 J11.225
G1 X19.05
G3 X-3.175 Y59.69 I0. J-22.225
G1 Y31.75
G3 X19.05 Y9.525 I22.225 J0.
G1 X93.428
X100.587 Z0.5
X167.806
G3 X190.031 Y31.75 I0. J22.225
G1 Y59.69
G3 X167.806 Y81.915 I-22.225 J0.
G1 X138.439
G2 X127.214 Y86.565 I0. J15.875
G1 X108.311 Y105.468
G3 X58.919 I-24.696 J-24.696
G1 X40.016 Y86.565
G2 X28.791 Y81.915 I-11.225 J11.225
G1 X19.05
G3 X-3.175 Y59.69 I0. J-22.225
G1 Y31.75
G3 X19.05 Y9.525 I22.225 J0.
G1 X93.428
X100.587
X107.746 Z0.25
X167.806
G3 X190.031 Y31.75 I0. J22.225
G1 Y59.69
G3 X167.806 Y81.915 I-22.225 J0.
G1 X138.439
G2 X127.214 Y86.565 I0. J15.875
G1 X108.311 Y105.468
G3 X58.919 I-24.696 J-24.696
G1 X40.016 Y86.565
G2 X28.791 Y81.915 I-11.225 J11.225
G1 X19.05
G3 X-3.175 Y59.69 I0. J-22.225
G1 Y31.75
G3 X19.05 Y9.525 I22.225 J0.
G1 X100.587
X107.746
X114.905 Z0.
X167.806
G3 X190.031 Y31.75 I0. J22.225
G1 Y59.69
G3 X167.806 Y81.915 I-22.225 J0.
G1 X138.439
G2 X127.214 Y86.565 I0. J15.875
G1 X108.311 Y105.468
G3 X58.919 I-24.696 J-24.696
G1 X40.016 Y86.565
G2 X28.791 Y81.915 I-11.225 J11.225
G1 X19.05
G3 X-3.175 Y59.69 I0. J-22.225
G1 Y31.75
G3 X19.05 Y9.525 I22.225 J0.
G1 X107.746
X114.905
X122.064 Z-0.25
X167.806
G3 X190.031 Y31.75 I0. J22.225
G1 Y59.69
G3 X167.806 Y81.915 I-22.225 J0.
G1 X138.439
G2 X127.214 Y86.565 I0. J15.875
G1 X108.311 Y105.468
G3 X58.919 I-24.696 J-24.696
G1 X40.016 Y86.565
G2 X28.791 Y81.915 I-11.225 J11.225
G1 X19.05
G3 X-3.175 Y59.69 I0. J-22.225
G1 Y31.75
G3 X19.05 Y9.525 I22.225 J0.
G1 X114.905
X122.064
X129.223 Z-0.5
X167.806
G3 X190.031 Y31.75 I0. J22.225
G1 Y59.69
G3 X167.806 Y81.915 I-22.225 J0.
G1 X138.439
G2 X127.214 Y86.565 I0. J15.875
G1 X108.311 Y105.468
G3 X58.919 I-24.696 J-24.696
G1 X40.016 Y86.565
G2 X28.791 Y81.915 I-11.225 J11.225
G1 X19.05
G3 X-3.175 Y59.69 I0. J-22.225
G1 Y31.75
G3 X19.05 Y9.525 I22.225 J0.
G1 X122.064
X129.223
X136.382 Z-0.75
X167.806
G3 X190.031 Y31.75 I0. J22.225
G1 Y59.69
G3 X167.806 Y81.915 I-22.225 J0.
G1 X138.439
G2 X127.214 Y86.565 I0. J15.875
G1 X108.311 Y105.468
G3 X58.919 I-24.696 J-24.696
G1 X40.016 Y86.565
G2 X28.791 Y81.915 I-11.225 J11.225
G1 X19.05
G3 X-3.175 Y59.69 I0. J-22.225
G1 Y31.75
G3 X19.05 Y9.525 I22.225 J0.
G1 X129.223
X136.382
X143.541 Z-1.
X167.806
G3 X190.031 Y31.75 I0. J22.225
G1 Y59.69
G3 X167.806 Y81.915 I-22.225 J0.
G1 X138.439
G2 X127.214 Y86.565 I0. J15.875
G1 X108.311 Y105.468
G3 X58.919 I-24.696 J-24.696
G1 X40.016 Y86.565
G2 X28.791 Y81.915 I-11.225 J11.225
G1 X19.05
G3 X-3.175 Y59.69 I0. J-22.225
G1 Y31.75
G3 X19.05 Y9.525 I22.225 J0.
G1 X136.382
X143.541
X150.701 Z-1.25
X167.806
G3 X190.031 Y31.75 I0. J22.225
G1 Y59.69
G3 X167.806 Y81.915 I-22.225 J0.
G1 X138.439
G2 X127.214 Y86.565 I0. J15.875
G1 X108.311 Y105.468
G3 X58.919 I-24.696 J-24.696
G1 X40.016 Y86.565
G2 X28.791 Y81.915 I-11.225 J11.225
G1 X19.05
G3 X-3.175 Y59.69 I0. J-22.225
G1 Y31.75
G3 X19.05 Y9.525 I22.225 J0.
G1 X143.541
X150.701
X157.86 Z-1.5
X167.806
G3 X190.031 Y31.75 I0. J22.225
G1 Y59.69
G3 X167.806 Y81.915 I-22.225 J0.
G1 X138.439
G2 X127.214 Y86.565 I0. J15.875
G1 X108.311 Y105.468
G3 X58.919 I-24.696 J-24.696
G1 X40.016 Y86.565
G2 X28.791 Y81.915 I-11.225 J11.225
G1 X19.05
G3 X-3.175 Y59.69 I0. J-22.225
G1 Y31.75
G3 X19.05 Y9.525 I22.225 J0.
G1 X150.701
X157.86
X165.019 Z-1.75
X167.806
G3 X190.031 Y31.75 I0. J22.225
G1 Y59.69
G3 X167.806 Y81.915 I-22.225 J0.
G1 X138.439
G2 X127.214 Y86.565 I0. J15.875
G1 X108.311 Y105.468
G3 X58.919 I-24.696 J-24.696
G1 X40.016 Y86.565
G2 X28.791 Y81.915 I-11.225 J11.225
G1 X19.05
G3 X-3.175 Y59.69 I0. J-22.225
G1 Y31.75
G3 X19.05 Y9.525 I22.225 J0.
G1 X157.86
X165.019
X167.806 Z-1.847
G3 X172.15 Y9.954 Z-2. I0. J22.225
X190.031 Y31.75 I-4.344 J21.796
G1 Y59.69
G3 X167.806 Y81.915 I-22.225 J0.
G1 X138.439
G2 X127.214 Y86.565 I0. J15.875
G1 X108.311 Y105.468
G3 X58.919 I-24.696 J-24.696
G1 X40.016 Y86.565
G2 X28.791 Y81.915 I-11.225 J11.225
G1 X19.05
G3 X-3.175 Y59.69 I0. J-22.225
G1 Y31.75
G3 X19.05 Y9.525 I22.225 J0.
G1 X165.019
X167.806
G3 X172.15 Y9.954 I0. J22.225
X178.826 Y12.45 Z-2.25 I-4.344 J21.796
X190.031 Y31.75 I-11.02 J19.3
G1 Y59.69
G3 X167.806 Y81.915 I-22.225 J0.
G1 X138.439
G2 X127.214 Y86.565 I0. J15.875
G1 X108.311 Y105.468
G3 X58.919 I-24.696 J-24.696
G1 X40.016 Y86.565
G2 X28.791 Y81.915 I-11.225 J11.225
G1 X19.05
G3 X-3.175 Y59.69 I0. J-22.225
G1 Y31.75
G3 X19.05 Y9.525 I22.225 J0.
G1 X167.806
G3 X178.826 Y12.45 I0. J22.225
X184.37 Y16.931 Z-2.5 I-11.02 J19.3
X190.031 Y31.75 I-16.564 J14.819
G1 Y59.69
G3 X167.806 Y81.915 I-22.225 J0.
G1 X138.439
G2 X127.214 Y86.565 I0. J15.875
G1 X108.311 Y105.468
G3 X58.919 I-24.696 J-24.696
G1 X40.016 Y86.565
G2 X28.791 Y81.915 I-11.225 J11.225
G1 X19.05
G3 X-3.175 Y59.69 I0. J-22.225
G1 Y31.75
G3 X19.05 Y9.525 I22.225 J0.
G1 X167.806
G3 X184.37 Y16.931 I0. J22.225
X188.209 Y22.937 Z-2.75 I-16.564 J14.819
X190.031 Y31.75 I-20.403 J8.813
G1 Y59.69
G3 X167.806 Y81.915 I-22.225 J0.
G1 X138.439
G2 X127.214 Y86.565 I0. J15.875
G1 X108.311 Y105.468
G3 X58.919 I-24.696 J-24.696
G1 X40.016 Y86.565
G2 X28.791 Y81.915 I-11.225 J11.225
G1 X19.05
G3 X-3.175 Y59.69 I0. J-22.225
G1 Y31.75
G3 X19.05 Y9.525 I22.225 J0.
G1 X167.806
G3 X188.209 Y22.937 I0. J22.225
X189.95 Y29.849 Z-3. I-20.403 J8.813
X190.031 Y31.75 I-22.144 J1.901
G1 Y59.69
G3 X167.806 Y81.915 I-22.225 J0.
G1 X138.439
G2 X127.214 Y86.565 I0. J15.875
G1 X108.311 Y105.468
G3 X58.919 I-24.696 J-24.696
G1 X40.016 Y86.565
G2 X28.791 Y81.915 I-11.225 J11.225
G1 X19.05
G3 X-3.175 Y59.69 I0. J-22.225
G1 Y31.75
G3 X19.05 Y9.525 I22.225 J0.
G1 X167.806
G3 X189.95 Y29.849 I0. J22.225
X190.031 Y31.75 Z-3.066 I-22.144 J1.901
G1 Y37.006 Z-3.25
Y59.69
G3 X167.806 Y81.915 I-22.225 J0.
G1 X138.439
G2 X127.214 Y86.565 I0. J15.875
G1 X108.311 Y105.468
G3 X58.919 I-24.696 J-24.696
G1 X40.016 Y86.565
G2 X28.791 Y81.915 I-11.225 J11.225
G1 X19.05
G3 X-3.175 Y59.69 I0. J-22.225
G1 Y31.75
G3 X19.05 Y9.525 I22.225 J0.
G1 X167.806
G3 X190.031 Y31.75 I0. J22.225
G1 Y37.006
Y44.165 Z-3.5
Y59.69
G3 X167.806 Y81.915 I-22.225 J0.
G1 X138.439
G2 X127.214 Y86.565 I0. J15.875
G1 X108.311 Y105.468
G3 X58.919 I-24.696 J-24.696
G1 X40.016 Y86.565
G2 X28.791 Y81.915 I-11.225 J11.225
G1 X19.05
G3 X-3.175 Y59.69 I0. J-22.225
G1 Y31.75
G3 X19.05 Y9.525 I22.225 J0.
G1 X167.806
G3 X190.031 Y31.75 I0. J22.225
G1 Y44.165
Y51.324 Z-3.75
Y59.69
G3 X167.806 Y81.915 I-22.225 J0.
G1 X138.439
G2 X127.214 Y86.565 I0. J15.875
G1 X108.311 Y105.468
G3 X58.919 I-24.696 J-24.696
G1 X40.016 Y86.565
G2 X28.791 Y81.915 I-11.225 J11.225
G1 X19.05
G3 X-3.175 Y59.69 I0. J-22.225
G1 Y31.75
G3 X19.05 Y9.525 I22.225 J0.
G1 X167.806
G3 X190.031 Y31.75 I0. J22.225
G1 Y44.165
Y51.324
Y58.483 Z-4.
Y59.69
G3 X167.806 Y81.915 I-22.225 J0.
G1 X138.439
G2 X127.214 Y86.565 I0. J15.875
G1 X108.311 Y105.468
G3 X58.919 I-24.696 J-24.696
G1 X40.016 Y86.565
G2 X28.791 Y81.915 I-11.225 J11.225
G1 X19.05
G3 X-3.175 Y59.69 I0. J-22.225
G1 Y31.75
G3 X19.05 Y9.525 I22.225 J0.
G1 X167.806
G3 X190.031 Y31.75 I0. J22.225
G1 Y51.324
Y58.483
Y59.69 Z-4.042
G3 X189.239 Y65.571 Z-4.25 I-22.225 J0.
X167.806 Y81.915 I-21.433 J-5.881
G1 X138.439
G2 X127.214 Y86.565 I0. J15.875
G1 X108.311 Y105.468
G3 X58.919 I-24.696 J-24.696
G1 X40.016 Y86.565
G2 X28.791 Y81.915 I-11.225 J11.225
G1 X19.05
G3 X-3.175 Y59.69 I0. J-22.225
G1 Y31.75
G3 X19.05 Y9.525 I22.225 J0.
G1 X167.806
G3 X190.031 Y31.75 I0. J22.225
G1 Y58.483
Y59.69
G3 X189.239 Y65.571 I-22.225 J0.
X186.274 Y72.054 Z-4.5 I-21.433 J-5.881
X167.806 Y81.915 I-18.468 J-12.364
G1 X138.439
G2 X127.214 Y86.565 I0. J15.875
G1 X108.311 Y105.468
G3 X58.919 I-24.696 J-24.696
G1 X40.016 Y86.565
G2 X28.791 Y81.915 I-11.225 J11.225
G1 X19.05
G3 X-3.175 Y59.69 I0. J-22.225
G1 Y31.75
G3 X19.05 Y9.525 I22.225 J0.
G1 X167.806
G3 X190.031 Y31.75 I0. J22.225
G1 Y59.69
G3 X186.274 Y72.054 I-22.225 J0.
X181.41 Y77.265 Z-4.75 I-18.468 J-12.364
X167.806 Y81.915 I-13.604 J-17.575
G1 X138.439
G2 X127.214 Y86.565 I0. J15.875
G1 X108.311 Y105.468
G3 X58.919 I-24.696 J-24.696
G1 X40.016 Y86.565
G2 X28.791 Y81.915 I-11.225 J11.225
G1 X19.05
G3 X-3.175 Y59.69 I0. J-22.225
G1 Y31.75
G3 X19.05 Y9.525 I22.225 J0.
G1 X167.806
G3 X190.031 Y31.75 I0. J22.225
G1 Y59.69
G3 X181.41 Y77.265 I-22.225 J0.
X175.147 Y80.668 Z-5. I-13.604 J-17.575
X167.806 Y81.915 I-7.341 J-20.978
G1 X138.439
G2 X127.214 Y86.565 I0. J15.875
G1 X108.311 Y105.468
G3 X58.919 I-24.696 J-24.696
G1 X40.016 Y86.565
G2 X28.791 Y81.915 I-11.225 J11.225
G1 X19.05
G3 X-3.175 Y59.69 I0. J-22.225
G1 Y31.75
G3 X19.05 Y9.525 I22.225 J0.
G1 X167.806
G3 X190.031 Y31.75 I0. J22.225
G1 Y59.69
G3 X175.147 Y80.668 I-22.225 J0.
X168.128 Y81.913 Z-5.25 I-7.341 J-20.978
X167.806 Y81.915 I-0.322 J-22.223
G1 X138.439
G2 X127.214 Y86.565 I0. J15.875
G1 X108.311 Y105.468
G3 X58.919 I-24.696 J-24.696
G1 X40.016 Y86.565
G2 X28.791 Y81.915 I-11.225 J11.225
G1 X19.05
G3 X-3.175 Y59.69 I0. J-22.225
G1 Y31.75
G3 X19.05 Y9.525 I22.225 J0.
G1 X167.806
G3 X190.031 Y31.75 I0. J22.225
G1 Y59.69
G3 X168.128 Y81.913 I-22.225 J0.
X167.806 Y81.915 Z-5.261 I-0.322 J-22.223
G1 X160.969 Z-5.5
X138.439
G2 X127.214 Y86.565 I0. J15.875
G1 X108.311 Y105.468
G3 X58.919 I-24.696 J-24.696
G1 X40.016 Y86.565
G2 X28.791 Y81.915 I-11.225 J11.225
G1 X19.05
G3 X-3.175 Y59.69 I0. J-22.225
G1 Y31.75
G3 X19.05 Y9.525 I22.225 J0.
G1 X167.806
G3 X190.031 Y31.75 I0. J22.225
G1 Y59.69
G3 X167.806 Y81.915 I-22.225 J0.
G1 X160.969
X153.81 Z-5.75
X138.439
G2 X127.214 Y86.565 I0. J15.875
G1 X108.311 Y105.468
G3 X58.919 I-24.696 J-24.696
G1 X40.016 Y86.565
G2 X28.791 Y81.915 I-11.225 J11.225
G1 X19.05
G3 X-3.175 Y59.69 I0. J-22.225
G1 Y31.75
G3 X19.05 Y9.525 I22.225 J0.
G1 X167.806
G3 X190.031 Y31.75 I0. J22.225
G1 Y59.69
G3 X167.806 Y81.915 I-22.225 J0.
G1 X153.81
X146.651 Z-6.
X138.439
G2 X127.214 Y86.565 I0. J15.875
G1 X108.311 Y105.468
G3 X58.919 I-24.696 J-24.696
G1 X40.016 Y86.565
G2 X28.791 Y81.915 I-11.225 J11.225
G1 X19.05
G3 X-3.175 Y59.69 I0. J-22.225
G1 Y31.75
G3 X19.05 Y9.525 I22.225 J0.
G1 X167.806
G3 X190.031 Y31.75 I0. J22.225
G1 Y59.69
G3 X167.806 Y81.915 I-22.225 J0.
G1 X153.81
X146.651
X139.492 Z-6.25
X138.439
G2 X127.214 Y86.565 I0. J15.875
G1 X108.311 Y105.468
G3 X58.919 I-24.696 J-24.696
G1 X40.016 Y86.565
G2 X28.791 Y81.915 I-11.225 J11.225
G1 X19.05
G3 X-3.175 Y59.69 I0. J-22.225
G1 Y31.75
G3 X19.05 Y9.525 I22.225 J0.
G1 X167.806
G3 X190.031 Y31.75 I0. J22.225
G1 Y59.69
G3 X167.806 Y81.915 I-22.225 J0.
G1 X146.651
X139.492
X138.439 Z-6.287
G2 X132.483 Y83.075 Z-6.5 I0. J15.875
X127.214 Y86.565 I5.957 J14.715
G1 X108.311 Y105.468
G3 X58.919 I-24.696 J-24.696
G1 X40.016 Y86.565
G2 X28.791 Y81.915 I-11.225 J11.225
G1 X19.05
G3 X-3.175 Y59.69 I0. J-22.225
G1 Y31.75
G3 X19.05 Y9.525 I22.225 J0.
G1 X167.806
G3 X190.031 Y31.75 I0. J22.225
G1 Y59.69
G3 X167.806 Y81.915 I-22.225 J0.
G1 X139.492
X138.439
G2 X132.483 Y83.075 I0. J15.875
X127.214 Y86.565 Z-6.722 I5.957 J14.715
G1 X126.65 Y87.128 Z-6.75
X108.311 Y105.468
G3 X58.919 I-24.696 J-24.696
G1 X40.016 Y86.565
G2 X28.791 Y81.915 I-11.225 J11.225
G1 X19.05
G3 X-3.175 Y59.69 I0. J-22.225
G1 Y31.75
G3 X19.05 Y9.525 I22.225 J0.
G1 X167.806
G3 X190.031 Y31.75 I0. J22.225
G1 Y59.69
G3 X167.806 Y81.915 I-22.225 J0.
G1 X138.439
G2 X127.214 Y86.565 I0. J15.875
G1 X126.65 Y87.128
X121.588 Y92.191 Z-7.
X108.311 Y105.468
G3 X58.919 I-24.696 J-24.696
G1 X40.016 Y86.565
G2 X28.791 Y81.915 I-11.225 J11.225
G1 X19.05
G3 X-3.175 Y59.69 I0. J-22.225
G1 Y31.75
G3 X19.05 Y9.525 I22.225 J0.
G1 X167.806
G3 X190.031 Y31.75 I0. J22.225
G1 Y59.69
G3 X167.806 Y81.915 I-22.225 J0.
G1 X138.439
G2 X127.214 Y86.565 I0. J15.875
G1 X121.588 Y92.191
X116.526 Y97.253 Z-7.25
X108.311 Y105.468
G3 X58.919 I-24.696 J-24.696
G1 X40.016 Y86.565
G2 X28.791 Y81.915 I-11.225 J11.225
G1 X19.05
G3 X-3.175 Y59.69 I0. J-22.225
G1 Y31.75
G3 X19.05 Y9.525 I22.225 J0.
G1 X167.806
G3 X190.031 Y31.75 I0. J22.225
G1 Y59.69
G3 X167.806 Y81.915 I-22.225 J0.
G1 X138.439
G2 X127.214 Y86.565 I0. J15.875
G1 X121.588 Y92.191
X116.526 Y97.253
X114.501 Y99.278 Z-7.35
X108.311 Y105.468
G3 X58.919 I-24.696 J-24.696
G1 X40.016 Y86.565
G2 X28.791 Y81.915 I-11.225 J11.225
G1 X19.05
G3 X-3.175 Y59.69 I0. J-22.225
G1 Y31.75
G3 X19.05 Y9.525 I22.225 J0.
G1 X167.806
G3 X190.031 Y31.75 I0. J22.225
G1 Y59.69
G3 X167.806 Y81.915 I-22.225 J0.
G1 X138.439
G2 X127.214 Y86.565 I0. J15.875
G1 X116.526 Y97.253
X114.501 Y99.278
G2 Y100.176 I0.449 J0.449
G1 X114.95 Y100.625
X115.02 Y100.695 Z-7.342
X115.089 Y100.764 Z-7.319
X115.154 Y100.829 Z-7.281
X115.214 Y100.889 Z-7.229
X115.268 Y100.942 Z-7.164
X115.313 Y100.988 Z-7.088
X115.35 Y101.025 Z-7.003
X115.377 Y101.052 Z-6.911
X115.394 Y101.068 Z-6.814
X115.399 Y101.074 Z-6.715
G0 Z16.
M5
G0 Z15
G0 X0 Y0

M9
M30
