(X8 S CLIMBER POCKET RUN 2.0)
(T3  D=0.118 CR=0. - ZMIN=-0.29 - FLAT END MILL)
G90 G94 G91.1 G40 G49 G17
G20

(2D POCKET2)
M5
T3 M6
S15000 M3
g4 p5
G54
M8
G0 X1.859 Y0.809
G43 Z0.6 H3
Z0.2
G1 Z0.1118 F40.
G18 G2 X1.8704 Z0.1 I0.0118 K0. F20.
G1 X1.9037 Z0.0988
X1.9051 Y0.8093
X1.9062 Y0.81 Z0.0987
X1.907 Y0.8112
X1.9072 Y0.8125 Z0.0986
X1.907 Y0.8138
X1.9062 Y0.815 Z0.0985
X1.9051 Y0.8157
X1.9037 Y0.816
X1.8412 Z0.0963
X1.8399 Y0.8157 Z0.0962
X1.8388 Y0.815
X1.838 Y0.8138 Z0.0961
X1.8377 Y0.8125
X1.838 Y0.8112 Z0.096
X1.8388 Y0.81
X1.8399 Y0.8093 Z0.0959
X1.8412 Y0.809
X1.9037 Z0.0937
X1.9051 Y0.8093
X1.9062 Y0.81 Z0.0936
X1.907 Y0.8112
X1.9072 Y0.8125 Z0.0935
X1.907 Y0.8138
X1.9062 Y0.815 Z0.0934
X1.9051 Y0.8157
X1.9037 Y0.816 Z0.0933
X1.8412 Z0.0911
X1.8399 Y0.8157
X1.8388 Y0.815 Z0.091
X1.838 Y0.8138
X1.8377 Y0.8125 Z0.0909
X1.838 Y0.8112
X1.8388 Y0.81 Z0.0908
X1.8399 Y0.8093
X1.8412 Y0.809
X1.9037 Z0.0886
X1.9051 Y0.8093 Z0.0885
X1.9062 Y0.81
X1.907 Y0.8112 Z0.0884
X1.9072 Y0.8125
X1.907 Y0.8138 Z0.0883
X1.9062 Y0.815
X1.9051 Y0.8157 Z0.0882
X1.9037 Y0.816
X1.8412 Z0.086
X1.8399 Y0.8157
X1.8388 Y0.815 Z0.0859
X1.838 Y0.8138
X1.8377 Y0.8125 Z0.0858
X1.838 Y0.8112
X1.8388 Y0.81 Z0.0857
X1.8399 Y0.8093
X1.8412 Y0.809 Z0.0856
X1.9037 Z0.0834
X1.9051 Y0.8093
X1.9062 Y0.81 Z0.0833
X1.907 Y0.8112
X1.9072 Y0.8125 Z0.0832
X1.907 Y0.8138
X1.9062 Y0.815 Z0.0831
X1.9051 Y0.8157
X1.9037 Y0.816
X1.8412 Z0.0809
X1.8399 Y0.8157 Z0.0808
X1.8388 Y0.815
X1.838 Y0.8138 Z0.0807
X1.8377 Y0.8125
X1.838 Y0.8112 Z0.0806
X1.8388 Y0.81
X1.8399 Y0.8093 Z0.0805
X1.8412 Y0.809
X1.9037 Z0.0783
X1.9051 Y0.8093
X1.9062 Y0.81 Z0.0782
X1.907 Y0.8112
X1.9072 Y0.8125 Z0.0781
X1.907 Y0.8138
X1.9062 Y0.815 Z0.078
X1.9051 Y0.8157
X1.9037 Y0.816 Z0.0779
X1.8412 Z0.0757
X1.8399 Y0.8157
X1.8388 Y0.815 Z0.0756
X1.838 Y0.8138
X1.8377 Y0.8125 Z0.0755
X1.838 Y0.8112
X1.8388 Y0.81 Z0.0754
X1.8399 Y0.8093
X1.8412 Y0.809
X1.9037 Z0.0732
X1.9051 Y0.8093 Z0.0731
X1.9062 Y0.81
X1.907 Y0.8112 Z0.073
X1.9072 Y0.8125
X1.907 Y0.8138 Z0.0729
X1.9062 Y0.815
X1.9051 Y0.8157 Z0.0728
X1.9037 Y0.816
X1.8412 Z0.0706
X1.8399 Y0.8157
X1.8388 Y0.815 Z0.0705
X1.838 Y0.8138
X1.8377 Y0.8125 Z0.0704
X1.838 Y0.8112
X1.8388 Y0.81 Z0.0703
X1.8399 Y0.8093
X1.8412 Y0.809 Z0.0702
X1.9037 Z0.068
X1.9051 Y0.8093
X1.9062 Y0.81 Z0.0679
X1.907 Y0.8112
X1.9072 Y0.8125 Z0.0678
X1.907 Y0.8138
X1.9062 Y0.815 Z0.0677
X1.9051 Y0.8157
X1.9037 Y0.816
X1.8412 Z0.0655
X1.8399 Y0.8157 Z0.0654
X1.8388 Y0.815
X1.838 Y0.8138 Z0.0653
X1.8377 Y0.8125
X1.838 Y0.8112 Z0.0652
X1.8388 Y0.81
X1.8399 Y0.8093 Z0.0651
X1.8412 Y0.809
X1.9037 Z0.0629
X1.9051 Y0.8093
X1.9062 Y0.81 Z0.0628
X1.907 Y0.8112
X1.9072 Y0.8125 Z0.0627
X1.907 Y0.8138
X1.9062 Y0.815 Z0.0626
X1.9051 Y0.8157
X1.9037 Y0.816 Z0.0625
X1.8412 Z0.0603
X1.8399 Y0.8157
X1.8388 Y0.815 Z0.0602
X1.838 Y0.8138
X1.8377 Y0.8125 Z0.0601
X1.838 Y0.8112
X1.8388 Y0.81 Z0.06
X1.8399 Y0.8093
X1.8412 Y0.809
X1.9037 Z0.0578
X1.9051 Y0.8093 Z0.0577
X1.9062 Y0.81
X1.907 Y0.8112 Z0.0576
X1.9072 Y0.8125
X1.907 Y0.8138 Z0.0575
X1.9062 Y0.815
X1.9051 Y0.8157 Z0.0574
X1.9037 Y0.816
X1.8412 Z0.0552
X1.8399 Y0.8157
X1.8388 Y0.815 Z0.0551
X1.838 Y0.8138
X1.8377 Y0.8125 Z0.055
X1.838 Y0.8112
X1.8388 Y0.81 Z0.0549
X1.8399 Y0.8093
X1.8412 Y0.809 Z0.0548
X1.9037 Z0.0526
X1.9051 Y0.8093
X1.9062 Y0.81 Z0.0525
X1.907 Y0.8112
X1.9072 Y0.8125 Z0.0524
X1.907 Y0.8138
X1.9062 Y0.815
X1.9051 Y0.8157 Z0.0523
X1.9037 Y0.816
X1.8412 Z0.0501
X1.8399 Y0.8157 Z0.05
X1.8388 Y0.815
X1.838 Y0.8138 Z0.0499
X1.8377 Y0.8125
X1.838 Y0.8112 Z0.0498
X1.8388 Y0.81
X1.8399 Y0.8093 Z0.0497
X1.8412 Y0.809
X1.9037 Z0.0475
X1.9051 Y0.8093
X1.9062 Y0.81 Z0.0474
X1.907 Y0.8112
X1.9072 Y0.8125 Z0.0473
X1.907 Y0.8138
X1.9062 Y0.815 Z0.0472
X1.9051 Y0.8157
X1.9037 Y0.816 Z0.0471
X1.8412 Z0.0449
X1.8399 Y0.8157
X1.8388 Y0.815 Z0.0448
X1.838 Y0.8138
X1.8377 Y0.8125 Z0.0447
X1.838 Y0.8112
X1.8388 Y0.81
X1.8399 Y0.8093 Z0.0446
X1.8412 Y0.809
X1.9037 Z0.0424
X1.9051 Y0.8093 Z0.0423
X1.9062 Y0.81
X1.907 Y0.8112 Z0.0422
X1.9072 Y0.8125
X1.907 Y0.8138 Z0.0421
X1.9062 Y0.815
X1.9051 Y0.8157 Z0.042
X1.9037 Y0.816
X1.8412 Z0.0398
X1.8399 Y0.8157
X1.8388 Y0.815 Z0.0397
X1.838 Y0.8138
X1.8377 Y0.8125 Z0.0396
X1.838 Y0.8112
X1.8388 Y0.81 Z0.0395
X1.8399 Y0.8093
X1.8412 Y0.809 Z0.0394
X1.9037 Z0.0372
X1.9051 Y0.8093
X1.9062 Y0.81 Z0.0371
X1.907 Y0.8112
X1.9072 Y0.8125 Z0.037
X1.907 Y0.8138
X1.9062 Y0.815
X1.9051 Y0.8157 Z0.0369
X1.9037 Y0.816
X1.8412 Z0.0347
X1.8399 Y0.8157 Z0.0346
X1.8388 Y0.815
X1.838 Y0.8138 Z0.0345
X1.8377 Y0.8125
X1.838 Y0.8112 Z0.0344
X1.8388 Y0.81
X1.8399 Y0.8093 Z0.0343
X1.8412 Y0.809
X1.9037 Z0.0321
X1.9051 Y0.8093
X1.9062 Y0.81 Z0.032
X1.907 Y0.8112
X1.9072 Y0.8125 Z0.0319
X1.907 Y0.8138
X1.9062 Y0.815 Z0.0318
X1.9051 Y0.8157
X1.9037 Y0.816 Z0.0317
X1.8412 Z0.0295
X1.8399 Y0.8157
X1.8388 Y0.815 Z0.0294
X1.838 Y0.8138
X1.8377 Y0.8125 Z0.0293
X1.838 Y0.8112
X1.8388 Y0.81
X1.8399 Y0.8093 Z0.0292
X1.8412 Y0.809
X1.9037 Z0.027
X1.9051 Y0.8093 Z0.0269
X1.9062 Y0.81
X1.907 Y0.8112 Z0.0268
X1.9072 Y0.8125
X1.907 Y0.8138 Z0.0267
X1.9062 Y0.815
X1.9051 Y0.8157 Z0.0266
X1.9037 Y0.816
X1.8412 Z0.0244
X1.8399 Y0.8157
X1.8388 Y0.815 Z0.0243
X1.838 Y0.8138
X1.8377 Y0.8125 Z0.0242
X1.838 Y0.8112
X1.8388 Y0.81 Z0.0241
X1.8399 Y0.8093
X1.8412 Y0.809 Z0.024
X1.9037 Z0.0218
X1.9051 Y0.8093
X1.9062 Y0.81 Z0.0217
X1.907 Y0.8112
X1.9072 Y0.8125 Z0.0216
X1.907 Y0.8138
X1.9062 Y0.815
X1.9051 Y0.8157 Z0.0215
X1.9037 Y0.816
X1.8412 Z0.0193
X1.8399 Y0.8157 Z0.0192
X1.8388 Y0.815
X1.838 Y0.8138 Z0.0191
X1.8377 Y0.8125
X1.838 Y0.8112 Z0.019
X1.8388 Y0.81
X1.8399 Y0.8093 Z0.0189
X1.8412 Y0.809
X1.9037 Z0.0167
X1.9051 Y0.8093
X1.9062 Y0.81 Z0.0166
X1.907 Y0.8112
X1.9072 Y0.8125 Z0.0165
X1.907 Y0.8138
X1.9062 Y0.815 Z0.0164
X1.9051 Y0.8157
X1.9037 Y0.816 Z0.0163
X1.8412 Z0.0141
X1.8399 Y0.8157
X1.8388 Y0.815 Z0.014
X1.838 Y0.8138
X1.8377 Y0.8125 Z0.0139
X1.838 Y0.8112
X1.8388 Y0.81
X1.8399 Y0.8093 Z0.0138
X1.8412 Y0.809
X1.9037 Z0.0116
X1.9051 Y0.8093 Z0.0115
X1.9062 Y0.81
X1.907 Y0.8112 Z0.0114
X1.9072 Y0.8125
X1.907 Y0.8138 Z0.0113
X1.9062 Y0.815
X1.9051 Y0.8157 Z0.0112
X1.9037 Y0.816
X1.8412 Z0.009
X1.8399 Y0.8157
X1.8388 Y0.815 Z0.0089
X1.838 Y0.8138
X1.8377 Y0.8125 Z0.0088
X1.838 Y0.8112
X1.8388 Y0.81 Z0.0087
X1.8399 Y0.8093
X1.8412 Y0.809 Z0.0086
X1.9037 Z0.0064
X1.9051 Y0.8093
X1.9062 Y0.81 Z0.0063
X1.907 Y0.8112
X1.9072 Y0.8125 Z0.0062
X1.907 Y0.8138
X1.9062 Y0.815
X1.9051 Y0.8157 Z0.0061
X1.9037 Y0.816
X1.8412 Z0.0039
X1.8399 Y0.8157 Z0.0038
X1.8388 Y0.815
X1.838 Y0.8138 Z0.0037
X1.8377 Y0.8125
X1.838 Y0.8112 Z0.0036
X1.8388 Y0.81
X1.8399 Y0.8093 Z0.0035
X1.8412 Y0.809
X1.9037 Z0.0013
X1.9051 Y0.8093
X1.9062 Y0.81 Z0.0012
X1.907 Y0.8112
X1.9072 Y0.8125 Z0.0011
X1.907 Y0.8138
X1.9062 Y0.815 Z0.001
X1.9051 Y0.8157
X1.9037 Y0.816 Z0.0009
X1.8412 Z-0.0013
X1.8399 Y0.8157
X1.8388 Y0.815 Z-0.0014
X1.838 Y0.8138
X1.8377 Y0.8125 Z-0.0015
X1.838 Y0.8112
X1.8388 Y0.81
X1.8399 Y0.8093 Z-0.0016
X1.8412 Y0.809
X1.9037 Z-0.0038
X1.9051 Y0.8093 Z-0.0039
X1.9062 Y0.81
X1.907 Y0.8112 Z-0.004
X1.9072 Y0.8125
X1.907 Y0.8138 Z-0.0041
X1.9062 Y0.815
X1.9051 Y0.8157 Z-0.0042
X1.9037 Y0.816
X1.8412 Z-0.0064
X1.8399 Y0.8157
X1.8388 Y0.815 Z-0.0065
X1.838 Y0.8138
X1.8377 Y0.8125 Z-0.0066
X1.838 Y0.8112
X1.8388 Y0.81 Z-0.0067
X1.8399 Y0.8093
X1.8412 Y0.809 Z-0.0068
X1.9037 Z-0.009
X1.9051 Y0.8093
X1.9062 Y0.81 Z-0.0091
X1.907 Y0.8112
X1.9072 Y0.8125 Z-0.0092
X1.907 Y0.8138
X1.9062 Y0.815
X1.9051 Y0.8157 Z-0.0093
X1.9037 Y0.816
X1.8412 Z-0.0115
X1.8399 Y0.8157 Z-0.0116
X1.8388 Y0.815
X1.838 Y0.8138 Z-0.0117
X1.8377 Y0.8125
X1.838 Y0.8112 Z-0.0118
X1.8388 Y0.81
X1.8399 Y0.8093 Z-0.0119
X1.8412 Y0.809
X1.9037 Z-0.0141
X1.9051 Y0.8093
X1.9062 Y0.81 Z-0.0142
X1.907 Y0.8112
X1.9072 Y0.8125 Z-0.0143
X1.907 Y0.8138
X1.9062 Y0.815 Z-0.0144
X1.9051 Y0.8157
X1.9037 Y0.816 Z-0.0145
X1.8412 Z-0.0167
X1.8399 Y0.8157
X1.8388 Y0.815 Z-0.0168
X1.838 Y0.8138
X1.8377 Y0.8125 Z-0.0169
X1.838 Y0.8112
X1.8388 Y0.81
X1.8399 Y0.8093 Z-0.017
X1.8412 Y0.809
X1.9037 Z-0.0192
X1.9051 Y0.8093 Z-0.0193
X1.9062 Y0.81
X1.907 Y0.8112 Z-0.0194
X1.9072 Y0.8125
X1.907 Y0.8138 Z-0.0195
X1.9062 Y0.815
X1.9051 Y0.8157 Z-0.0196
X1.9037 Y0.816
X1.8925 Z-0.02
X1.8412 F40.
X1.8399 Y0.8157
X1.8388 Y0.815
X1.838 Y0.8138
X1.8377 Y0.8125
X1.838 Y0.8112
X1.8388 Y0.81
X1.8399 Y0.8093
X1.8412 Y0.809
X1.9037
X1.9051 Y0.8093
X1.9062 Y0.81
X1.907 Y0.8112
X1.9072 Y0.8125
X1.907 Y0.8138
X1.9062 Y0.815
X1.9051 Y0.8157
X1.9037 Y0.816
X1.8925
X1.8412 Z-0.0218 F20.
X1.8399 Y0.8157
X1.8388 Y0.815 Z-0.0219
X1.838 Y0.8138
X1.8377 Y0.8125 Z-0.022
X1.838 Y0.8112
X1.8388 Y0.81 Z-0.0221
X1.8399 Y0.8093
X1.8412 Y0.809 Z-0.0222
X1.9037 Z-0.0244
X1.9051 Y0.8093
X1.9062 Y0.81 Z-0.0245
X1.907 Y0.8112
X1.9072 Y0.8125
X1.907 Y0.8138 Z-0.0246
X1.9062 Y0.815
X1.9051 Y0.8157 Z-0.0247
X1.9037 Y0.816
X1.8412 Z-0.0269
X1.8399 Y0.8157 Z-0.027
X1.8388 Y0.815
X1.838 Y0.8138 Z-0.0271
X1.8377 Y0.8125
X1.838 Y0.8112 Z-0.0272
X1.8388 Y0.81
X1.8399 Y0.8093 Z-0.0273
X1.8412 Y0.809
X1.9037 Z-0.0295
X1.9051 Y0.8093
X1.9062 Y0.81 Z-0.0296
X1.907 Y0.8112
X1.9072 Y0.8125 Z-0.0297
X1.907 Y0.8138
X1.9062 Y0.815 Z-0.0298
X1.9051 Y0.8157
X1.9037 Y0.816 Z-0.0299
X1.8412 Z-0.0321
X1.8399 Y0.8157
X1.8388 Y0.815 Z-0.0322
X1.838 Y0.8138
X1.8377 Y0.8125
X1.838 Y0.8112 Z-0.0323
X1.8388 Y0.81
X1.8399 Y0.8093 Z-0.0324
X1.8412 Y0.809
X1.9037 Z-0.0346
X1.9051 Y0.8093 Z-0.0347
X1.9062 Y0.81
X1.907 Y0.8112 Z-0.0348
X1.9072 Y0.8125
X1.907 Y0.8138 Z-0.0349
X1.9062 Y0.815
X1.9051 Y0.8157 Z-0.035
X1.9037 Y0.816
X1.8412 Z-0.0372
X1.8399 Y0.8157
X1.8388 Y0.815 Z-0.0373
X1.838 Y0.8138
X1.8377 Y0.8125 Z-0.0374
X1.838 Y0.8112
X1.8388 Y0.81 Z-0.0375
X1.8399 Y0.8093
X1.8412 Y0.809 Z-0.0376
X1.9037 Z-0.0398
X1.9051 Y0.8093
X1.9062 Y0.8101 Z-0.0399
X1.907 Y0.8112
X1.9072 Y0.8126 Z-0.04
X1.9069 Y0.8139
X1.9062 Y0.815 F40.
X1.9051 Y0.8157
X1.9037 Y0.816
X1.8412
X1.8399 Y0.8157
X1.8388 Y0.815
X1.838 Y0.8138
X1.8377 Y0.8125
X1.838 Y0.8112
X1.8388 Y0.81
X1.8399 Y0.8093
X1.8412 Y0.809
X1.9037
X1.9051 Y0.8093
X1.9062 Y0.8101
X1.907 Y0.8112
X1.9072 Y0.8126
X1.9069 Y0.8139
X1.9062 Y0.815 F20.
X1.9051 Y0.8157 Z-0.0401
X1.9037 Y0.816
X1.8412 Z-0.0423
X1.8399 Y0.8157 Z-0.0424
X1.8388 Y0.815
X1.838 Y0.8138 Z-0.0425
X1.8377 Y0.8125
X1.838 Y0.8112 Z-0.0426
X1.8388 Y0.81
X1.8399 Y0.8093 Z-0.0427
X1.8412 Y0.809
X1.9037 Z-0.0449
X1.9051 Y0.8093
X1.9062 Y0.81 Z-0.045
X1.907 Y0.8112
X1.9072 Y0.8125 Z-0.0451
X1.907 Y0.8138
X1.9062 Y0.815 Z-0.0452
X1.9051 Y0.8157
X1.9037 Y0.816 Z-0.0453
X1.8412 Z-0.0475
X1.8399 Y0.8157
X1.8388 Y0.815 Z-0.0476
X1.838 Y0.8138
X1.8377 Y0.8125
X1.838 Y0.8112 Z-0.0477
X1.8388 Y0.81
X1.8399 Y0.8093 Z-0.0478
X1.8412 Y0.809
X1.9037 Z-0.05
X1.9051 Y0.8093 Z-0.0501
X1.9062 Y0.81
X1.907 Y0.8112 Z-0.0502
X1.9072 Y0.8125
X1.907 Y0.8138 Z-0.0503
X1.9062 Y0.815
X1.9051 Y0.8157 Z-0.0504
X1.9037 Y0.816
X1.8412 Z-0.0526
X1.8399 Y0.8157
X1.8388 Y0.815 Z-0.0527
X1.838 Y0.8138
X1.8377 Y0.8125 Z-0.0528
X1.838 Y0.8112
X1.8388 Y0.81 Z-0.0529
X1.8399 Y0.8093
X1.8412 Y0.809 Z-0.053
X1.9037 Z-0.0552
X1.9051 Y0.8093
X1.9062 Y0.81 Z-0.0553
X1.907 Y0.8112
X1.9072 Y0.8125
X1.907 Y0.8138 Z-0.0554
X1.9062 Y0.815
X1.9051 Y0.8157 Z-0.0555
X1.9037 Y0.816
X1.8412 Z-0.0577
X1.8399 Y0.8157 Z-0.0578
X1.8388 Y0.815
X1.838 Y0.8138 Z-0.0579
X1.8377 Y0.8125
X1.838 Y0.8112 Z-0.058
X1.8388 Y0.81
X1.8399 Y0.8093 Z-0.0581
X1.8412 Y0.809
X1.8955 Z-0.06
X1.9037 F40.
X1.9051 Y0.8093
X1.9062 Y0.81
X1.907 Y0.8112
X1.9072 Y0.8125
X1.907 Y0.8138
X1.9062 Y0.815
X1.9051 Y0.8157
X1.9037 Y0.816
X1.8412
X1.8399 Y0.8157
X1.8388 Y0.815
X1.838 Y0.8138
X1.8377 Y0.8125
X1.838 Y0.8112
X1.8388 Y0.81
X1.8399 Y0.8093
X1.8412 Y0.809
X1.8955
X1.9037 Z-0.0603 F20.
X1.9051 Y0.8093
X1.9062 Y0.81 Z-0.0604
X1.907 Y0.8112
X1.9072 Y0.8125 Z-0.0605
X1.907 Y0.8138
X1.9062 Y0.815 Z-0.0606
X1.9051 Y0.8157
X1.9037 Y0.816 Z-0.0607
X1.8412 Z-0.0629
X1.8399 Y0.8157
X1.8388 Y0.815 Z-0.063
X1.838 Y0.8138
X1.8377 Y0.8125
X1.838 Y0.8112 Z-0.0631
X1.8388 Y0.81
X1.8399 Y0.8093 Z-0.0632
X1.8412 Y0.809
X1.9037 Z-0.0654
X1.9051 Y0.8093 Z-0.0655
X1.9062 Y0.81
X1.907 Y0.8112 Z-0.0656
X1.9072 Y0.8125
X1.907 Y0.8138 Z-0.0657
X1.9062 Y0.815
X1.9051 Y0.8157 Z-0.0658
X1.9037 Y0.816
X1.8412 Z-0.068
X1.8399 Y0.8157
X1.8388 Y0.815 Z-0.0681
X1.838 Y0.8138
X1.8377 Y0.8125 Z-0.0682
X1.838 Y0.8112
X1.8388 Y0.81 Z-0.0683
X1.8399 Y0.8093
X1.8412 Y0.809 Z-0.0684
X1.9037 Z-0.0706
X1.9051 Y0.8093
X1.9062 Y0.81 Z-0.0707
X1.907 Y0.8112
X1.9072 Y0.8125
X1.907 Y0.8138 Z-0.0708
X1.9062 Y0.815
X1.9051 Y0.8157 Z-0.0709
X1.9037 Y0.816
X1.8412 Z-0.0731
X1.8399 Y0.8157 Z-0.0732
X1.8388 Y0.815
X1.838 Y0.8138 Z-0.0733
X1.8377 Y0.8125
X1.838 Y0.8112 Z-0.0734
X1.8388 Y0.81
X1.8399 Y0.8093 Z-0.0735
X1.8412 Y0.809
X1.9037 Z-0.0757
X1.9051 Y0.8093
X1.9062 Y0.81 Z-0.0758
X1.907 Y0.8112
X1.9072 Y0.8125 Z-0.0759
X1.907 Y0.8138
X1.9062 Y0.815 Z-0.076
X1.9051 Y0.8157
X1.9037 Y0.816 Z-0.0761
X1.8412 Z-0.0783
X1.8399 Y0.8157
X1.8388 Y0.815 Z-0.0784
X1.838 Y0.8138
X1.8377 Y0.8125
X1.838 Y0.8112 Z-0.0785
X1.8388 Y0.81
X1.8399 Y0.8093 Z-0.0786
X1.8412 Y0.809
X1.8802 Z-0.08
X1.8955 F40.
X1.9037
X1.9051 Y0.8093
X1.9062 Y0.81
X1.907 Y0.8112
X1.9072 Y0.8125
X1.907 Y0.8138
X1.9062 Y0.815
X1.9051 Y0.8157
X1.9037 Y0.816
X1.8412
X1.8399 Y0.8157
X1.8388 Y0.815
X1.838 Y0.8138
X1.8377 Y0.8125
X1.838 Y0.8112
X1.8388 Y0.81
X1.8399 Y0.8093
X1.8412 Y0.809
X1.8802
X1.9037 Z-0.0808 F20.
X1.9051 Y0.8093 Z-0.0809
X1.9062 Y0.81
X1.907 Y0.8112 Z-0.081
X1.9072 Y0.8125
X1.907 Y0.8138 Z-0.0811
X1.9062 Y0.815
X1.9051 Y0.8157 Z-0.0812
X1.9037 Y0.816
X1.8412 Z-0.0834
X1.8399 Y0.8157
X1.8388 Y0.815 Z-0.0835
X1.838 Y0.8138
X1.8377 Y0.8125 Z-0.0836
X1.838 Y0.8112
X1.8388 Y0.81 Z-0.0837
X1.8399 Y0.8093
X1.8412 Y0.809 Z-0.0838
X1.9037 Z-0.086
X1.9051 Y0.8093
X1.9062 Y0.81 Z-0.0861
X1.907 Y0.8112
X1.9072 Y0.8125
X1.907 Y0.8138 Z-0.0862
X1.9062 Y0.815
X1.9051 Y0.8157 Z-0.0863
X1.9037 Y0.816
X1.8412 Z-0.0885
X1.8399 Y0.8157 Z-0.0886
X1.8388 Y0.815
X1.838 Y0.8138 Z-0.0887
X1.8377 Y0.8125
X1.838 Y0.8112 Z-0.0888
X1.8388 Y0.81
X1.8399 Y0.8093 Z-0.0889
X1.8412 Y0.809
X1.9037 Z-0.0911
X1.9051 Y0.8093
X1.9062 Y0.81 Z-0.0912
X1.907 Y0.8112
X1.9072 Y0.8125 Z-0.0913
X1.907 Y0.8138
X1.9062 Y0.815 Z-0.0914
X1.9051 Y0.8157
X1.9037 Y0.816 Z-0.0915
X1.8412 Z-0.0937
X1.8399 Y0.8157
X1.8388 Y0.815
X1.838 Y0.8138 Z-0.0938
X1.8377 Y0.8125
X1.838 Y0.8112 Z-0.0939
X1.8388 Y0.81
X1.8399 Y0.8093 Z-0.094
X1.8412 Y0.809
X1.9037 Z-0.0962
X1.9051 Y0.8093 Z-0.0963
X1.9062 Y0.81
X1.907 Y0.8112 Z-0.0964
X1.9072 Y0.8125
X1.907 Y0.8138 Z-0.0965
X1.9062 Y0.815
X1.9051 Y0.8157 Z-0.0966
X1.9037 Y0.816
X1.8412 Z-0.0988
X1.8399 Y0.8157
X1.8388 Y0.815 Z-0.0989
X1.838 Y0.8138
X1.8377 Y0.8125 Z-0.099
X1.838 Y0.8112
X1.8388 Y0.81 Z-0.0991
X1.8399 Y0.8093
X1.8412 Y0.809 Z-0.0992
X1.865 Z-0.1
X1.9037 F40.
X1.9051 Y0.8093
X1.9062 Y0.81
X1.907 Y0.8112
X1.9072 Y0.8125
X1.907 Y0.8138
X1.9062 Y0.815
X1.9051 Y0.8157
X1.9037 Y0.816
X1.8412
X1.8399 Y0.8157
X1.8388 Y0.815
X1.838 Y0.8138
X1.8377 Y0.8125
X1.838 Y0.8112
X1.8388 Y0.81
X1.8399 Y0.8093
X1.8412 Y0.809
X1.865
X1.9037 Z-0.1014 F20.
X1.9051 Y0.8093
X1.9062 Y0.81
X1.907 Y0.8112 Z-0.1015
X1.9072 Y0.8125
X1.907 Y0.8138 Z-0.1016
X1.9062 Y0.815
X1.9051 Y0.8157 Z-0.1017
X1.9037 Y0.816
X1.8412 Z-0.1039
X1.8399 Y0.8157 Z-0.104
X1.8388 Y0.815
X1.838 Y0.8138 Z-0.1041
X1.8377 Y0.8125
X1.838 Y0.8112 Z-0.1042
X1.8388 Y0.81
X1.8399 Y0.8093 Z-0.1043
X1.8412 Y0.809
X1.9037 Z-0.1065
X1.9051 Y0.8093
X1.9062 Y0.81 Z-0.1066
X1.907 Y0.8112
X1.9072 Y0.8125 Z-0.1067
X1.907 Y0.8138
X1.9062 Y0.815 Z-0.1068
X1.9051 Y0.8157
X1.9037 Y0.816 Z-0.1069
X1.8412 Z-0.1091
X1.8399 Y0.8157
X1.8388 Y0.815
X1.838 Y0.8138 Z-0.1092
X1.8377 Y0.8125
X1.838 Y0.8112 Z-0.1093
X1.8388 Y0.81
X1.8399 Y0.8093 Z-0.1094
X1.8412 Y0.809
X1.9037 Z-0.1116
X1.9051 Y0.8093 Z-0.1117
X1.9062 Y0.81
X1.907 Y0.8112 Z-0.1118
X1.9072 Y0.8125
X1.907 Y0.8138 Z-0.1119
X1.9062 Y0.815
X1.9051 Y0.8157 Z-0.112
X1.9037 Y0.816
X1.8412 Z-0.1142
X1.8399 Y0.8157
X1.8388 Y0.815 Z-0.1143
X1.838 Y0.8138
X1.8377 Y0.8125 Z-0.1144
X1.838 Y0.8112
X1.8388 Y0.81 Z-0.1145
X1.8399 Y0.8093
X1.8412 Y0.809 Z-0.1146
X1.9037 Z-0.1168
X1.9051 Y0.8093
X1.9062 Y0.81
X1.907 Y0.8112 Z-0.1169
X1.9072 Y0.8125
X1.907 Y0.8138 Z-0.117
X1.9062 Y0.815
X1.9051 Y0.8157 Z-0.1171
X1.9037 Y0.816
X1.8412 Z-0.1193
X1.8399 Y0.8157 Z-0.1194
X1.8388 Y0.815
X1.838 Y0.8138 Z-0.1195
X1.8377 Y0.8125
X1.838 Y0.8112 Z-0.1196
X1.8388 Y0.81
X1.8399 Y0.8093 Z-0.1197
X1.8412 Y0.809
X1.8498 Z-0.12
X1.9037 F40.
X1.9051 Y0.8093
X1.9062 Y0.81
X1.907 Y0.8112
X1.9072 Y0.8125
X1.907 Y0.8138
X1.9062 Y0.815
X1.9051 Y0.8157
X1.9037 Y0.816
X1.8412
X1.8399 Y0.8157
X1.8388 Y0.815
X1.838 Y0.8138
X1.8377 Y0.8125
X1.838 Y0.8112
X1.8388 Y0.81
X1.8399 Y0.8093
X1.8412 Y0.809
X1.8498
X1.9037 Z-0.1219 F20.
X1.9051 Y0.8093
X1.9062 Y0.81 Z-0.122
X1.907 Y0.8112
X1.9072 Y0.8125 Z-0.1221
X1.907 Y0.8138
X1.9062 Y0.815 Z-0.1222
X1.9051 Y0.8157
X1.9037 Y0.816 Z-0.1223
X1.8412 Z-0.1245
X1.8399 Y0.8157
X1.8388 Y0.815
X1.838 Y0.8138 Z-0.1246
X1.8377 Y0.8125
X1.838 Y0.8112 Z-0.1247
X1.8388 Y0.81
X1.8399 Y0.8093 Z-0.1248
X1.8412 Y0.809
X1.9037 Z-0.127
X1.9051 Y0.8093 Z-0.1271
X1.9062 Y0.81
X1.907 Y0.8112 Z-0.1272
X1.9072 Y0.8125
X1.907 Y0.8138 Z-0.1273
X1.9062 Y0.815
X1.9051 Y0.8157 Z-0.1274
X1.9037 Y0.816
X1.8412 Z-0.1296
X1.8399 Y0.8157
X1.8388 Y0.815 Z-0.1297
X1.838 Y0.8138
X1.8377 Y0.8125 Z-0.1298
X1.838 Y0.8112
X1.8388 Y0.81 Z-0.1299
X1.8399 Y0.8093
X1.8412 Y0.809 Z-0.13
X1.9037 Z-0.1322
X1.9051 Y0.8093
X1.9062 Y0.81
X1.907 Y0.8112 Z-0.1323
X1.9072 Y0.8125
X1.907 Y0.8138 Z-0.1324
X1.9062 Y0.815
X1.9051 Y0.8157 Z-0.1325
X1.9037 Y0.816
X1.8412 Z-0.1347
X1.8399 Y0.8157 Z-0.1348
X1.8388 Y0.815
X1.838 Y0.8138 Z-0.1349
X1.8377 Y0.8125
X1.838 Y0.8112 Z-0.135
X1.8388 Y0.81
X1.8399 Y0.8093 Z-0.1351
X1.8412 Y0.809
X1.9037 Z-0.1373
X1.9051 Y0.8093
X1.9062 Y0.81 Z-0.1374
X1.907 Y0.8112
X1.9072 Y0.8125 Z-0.1375
X1.907 Y0.8138
X1.9062 Y0.815 Z-0.1376
X1.9051 Y0.8157
X1.9037 Y0.816 Z-0.1377
X1.8412 Z-0.1399
X1.8399 Y0.8157
X1.8387 Y0.8149 Z-0.14
X1.838 Y0.8137
X1.8377 Y0.8124 F40.
X1.838 Y0.8111
X1.8388 Y0.81
X1.8399 Y0.8093
X1.8412 Y0.809
X1.9037
X1.9051 Y0.8093
X1.9062 Y0.81
X1.907 Y0.8112
X1.9072 Y0.8125
X1.907 Y0.8138
X1.9062 Y0.815
X1.9051 Y0.8157
X1.9037 Y0.816
X1.8412
X1.8399 Y0.8157
X1.8387 Y0.8149
X1.838 Y0.8137
X1.8377 Y0.8124 F20.
X1.838 Y0.8111 Z-0.1401
X1.8388 Y0.81
X1.8399 Y0.8093 Z-0.1402
X1.8412 Y0.809
X1.9037 Z-0.1424
X1.9051 Y0.8093 Z-0.1425
X1.9062 Y0.81
X1.907 Y0.8112 Z-0.1426
X1.9072 Y0.8125
X1.907 Y0.8138 Z-0.1427
X1.9062 Y0.815
X1.9051 Y0.8157 Z-0.1428
X1.9037 Y0.816
X1.8412 Z-0.145
X1.8399 Y0.8157
X1.8388 Y0.815 Z-0.1451
X1.838 Y0.8138
X1.8377 Y0.8125 Z-0.1452
X1.838 Y0.8112
X1.8388 Y0.81 Z-0.1453
X1.8399 Y0.8093
X1.8412 Y0.809 Z-0.1454
X1.9037 Z-0.1476
X1.9051 Y0.8093
X1.9062 Y0.81
X1.907 Y0.8112 Z-0.1477
X1.9072 Y0.8125
X1.907 Y0.8138 Z-0.1478
X1.9062 Y0.815
X1.9051 Y0.8157 Z-0.1479
X1.9037 Y0.816
X1.8412 Z-0.1501
X1.8399 Y0.8157 Z-0.1502
X1.8388 Y0.815
X1.838 Y0.8138 Z-0.1503
X1.8377 Y0.8125
X1.838 Y0.8112 Z-0.1504
X1.8388 Y0.81
X1.8399 Y0.8093 Z-0.1505
X1.8412 Y0.809
X1.9037 Z-0.1527
X1.9051 Y0.8093
X1.9062 Y0.81 Z-0.1528
X1.907 Y0.8112
X1.9072 Y0.8125 Z-0.1529
X1.907 Y0.8138
X1.9062 Y0.815 Z-0.153
X1.9051 Y0.8157
X1.9037 Y0.816 Z-0.1531
X1.8412 Z-0.1553
X1.8399 Y0.8157
X1.8388 Y0.815
X1.838 Y0.8138 Z-0.1554
X1.8377 Y0.8125
X1.838 Y0.8112 Z-0.1555
X1.8388 Y0.81
X1.8399 Y0.8093 Z-0.1556
X1.8412 Y0.809
X1.9037 Z-0.1578
X1.9051 Y0.8093 Z-0.1579
X1.9062 Y0.81
X1.907 Y0.8112 Z-0.158
X1.9072 Y0.8125
X1.907 Y0.8138 Z-0.1581
X1.9062 Y0.815
X1.9051 Y0.8157 Z-0.1582
X1.9037 Y0.816
X1.8522 Z-0.16
X1.8412 F40.
X1.8399 Y0.8157
X1.8388 Y0.815
X1.838 Y0.8138
X1.8377 Y0.8125
X1.838 Y0.8112
X1.8388 Y0.81
X1.8399 Y0.8093
X1.8412 Y0.809
X1.9037
X1.9051 Y0.8093
X1.9062 Y0.81
X1.907 Y0.8112
X1.9072 Y0.8125
X1.907 Y0.8138
X1.9062 Y0.815
X1.9051 Y0.8157
X1.9037 Y0.816
X1.8522
X1.8412 Z-0.1604 F20.
X1.8399 Y0.8157
X1.8388 Y0.815 Z-0.1605
X1.838 Y0.8138
X1.8377 Y0.8125 Z-0.1606
X1.838 Y0.8112
X1.8388 Y0.81 Z-0.1607
X1.8399 Y0.8093
X1.8412 Y0.809 Z-0.1608
X1.9037 Z-0.1629
X1.9051 Y0.8093 Z-0.163
X1.9062 Y0.81
X1.907 Y0.8112 Z-0.1631
X1.9072 Y0.8125
X1.907 Y0.8138 Z-0.1632
X1.9062 Y0.815
X1.9051 Y0.8157 Z-0.1633
X1.9037 Y0.816
X1.8412 Z-0.1655
X1.8399 Y0.8157 Z-0.1656
X1.8388 Y0.815
X1.838 Y0.8138 Z-0.1657
X1.8377 Y0.8125
X1.838 Y0.8112 Z-0.1658
X1.8388 Y0.81
X1.8399 Y0.8093 Z-0.1659
X1.8412 Y0.809
X1.9037 Z-0.1681
X1.9051 Y0.8093
X1.9062 Y0.81 Z-0.1682
X1.907 Y0.8112
X1.9072 Y0.8125 Z-0.1683
X1.907 Y0.8138
X1.9062 Y0.815 Z-0.1684
X1.9051 Y0.8157
X1.9037 Y0.816 Z-0.1685
X1.8412 Z-0.1706
X1.8399 Y0.8157 Z-0.1707
X1.8388 Y0.815
X1.838 Y0.8138 Z-0.1708
X1.8377 Y0.8125
X1.838 Y0.8112 Z-0.1709
X1.8388 Y0.81
X1.8399 Y0.8093 Z-0.171
X1.8412 Y0.809
X1.9037 Z-0.1732
X1.9051 Y0.8093 Z-0.1733
X1.9062 Y0.81
X1.907 Y0.8112 Z-0.1734
X1.9072 Y0.8125
X1.907 Y0.8138 Z-0.1735
X1.9062 Y0.815
X1.9051 Y0.8157 Z-0.1736
X1.9037 Y0.816
X1.8412 Z-0.1758
X1.8399 Y0.8157
X1.8388 Y0.815 Z-0.1759
X1.838 Y0.8138
X1.8377 Y0.8125 Z-0.176
X1.838 Y0.8112
X1.8388 Y0.81 Z-0.1761
X1.8399 Y0.8093
X1.8412 Y0.809 Z-0.1762
X1.9037 Z-0.1783
X1.9051 Y0.8093 Z-0.1784
X1.9062 Y0.81
X1.907 Y0.8112 Z-0.1785
X1.9072 Y0.8125
X1.907 Y0.8138 Z-0.1786
X1.9062 Y0.815
X1.9051 Y0.8157 Z-0.1787
X1.9037 Y0.816
X1.8675 Z-0.18
X1.8522 F40.
X1.8412
X1.8399 Y0.8157
X1.8388 Y0.815
X1.838 Y0.8138
X1.8377 Y0.8125
X1.838 Y0.8112
X1.8388 Y0.81
X1.8399 Y0.8093
X1.8412 Y0.809
X1.9037
X1.9051 Y0.8093
X1.9062 Y0.81
X1.907 Y0.8112
X1.9072 Y0.8125
X1.907 Y0.8138
X1.9062 Y0.815
X1.9051 Y0.8157
X1.9037 Y0.816
X1.8675
X1.8412 Z-0.1809 F20.
X1.8399 Y0.8157 Z-0.181
X1.8388 Y0.815
X1.838 Y0.8138 Z-0.1811
X1.8377 Y0.8125
X1.838 Y0.8112 Z-0.1812
X1.8388 Y0.81
X1.8399 Y0.8093 Z-0.1813
X1.8412 Y0.809
X1.9037 Z-0.1835
X1.9051 Y0.8093
X1.9062 Y0.81 Z-0.1836
X1.907 Y0.8112
X1.9072 Y0.8125 Z-0.1837
X1.907 Y0.8138
X1.9062 Y0.815 Z-0.1838
X1.9051 Y0.8157
X1.9037 Y0.816 Z-0.1839
X1.8412 Z-0.186
X1.8399 Y0.8157 Z-0.1861
X1.8388 Y0.815
X1.838 Y0.8138 Z-0.1862
X1.8377 Y0.8125
X1.838 Y0.8112 Z-0.1863
X1.8388 Y0.81
X1.8399 Y0.8093 Z-0.1864
X1.8412 Y0.809
X1.9037 Z-0.1886
X1.9051 Y0.8093 Z-0.1887
X1.9062 Y0.81
X1.907 Y0.8112 Z-0.1888
X1.9072 Y0.8125
X1.907 Y0.8138 Z-0.1889
X1.9062 Y0.815
X1.9051 Y0.8157 Z-0.189
X1.9037 Y0.816
X1.8412 Z-0.1912
X1.8399 Y0.8157
X1.8388 Y0.815 Z-0.1913
X1.838 Y0.8138
X1.8377 Y0.8125 Z-0.1914
X1.838 Y0.8112
X1.8388 Y0.81 Z-0.1915
X1.8399 Y0.8093
X1.8412 Y0.809 Z-0.1916
X1.9037 Z-0.1937
X1.9051 Y0.8093 Z-0.1938
X1.9062 Y0.81
X1.907 Y0.8112 Z-0.1939
X1.9072 Y0.8125
X1.907 Y0.8138 Z-0.194
X1.9062 Y0.815
X1.9051 Y0.8157 Z-0.1941
X1.9037 Y0.816
X1.8412 Z-0.1963
X1.8399 Y0.8157 Z-0.1964
X1.8388 Y0.815
X1.838 Y0.8138 Z-0.1965
X1.8377 Y0.8125
X1.838 Y0.8112 Z-0.1966
X1.8388 Y0.81
X1.8399 Y0.8093 Z-0.1967
X1.8412 Y0.809
X1.9037 Z-0.1989
X1.9051 Y0.8093
X1.9062 Y0.81 Z-0.199
X1.907 Y0.8112
X1.9072 Y0.8125 Z-0.1991
X1.907 Y0.8138
X1.9062 Y0.815 Z-0.1992
X1.9051 Y0.8157
X1.9037 Y0.816 Z-0.1993
X1.8827 Z-0.2
X1.8412 F40.
X1.8399 Y0.8157
X1.8388 Y0.815
X1.838 Y0.8138
X1.8377 Y0.8125
X1.838 Y0.8112
X1.8388 Y0.81
X1.8399 Y0.8093
X1.8412 Y0.809
X1.9037
X1.9051 Y0.8093
X1.9062 Y0.81
X1.907 Y0.8112
X1.9072 Y0.8125
X1.907 Y0.8138
X1.9062 Y0.815
X1.9051 Y0.8157
X1.9037 Y0.816
X1.8827
X1.8412 Z-0.2014 F20.
X1.8399 Y0.8157 Z-0.2015
X1.8388 Y0.815
X1.838 Y0.8138 Z-0.2016
X1.8377 Y0.8125
X1.838 Y0.8112 Z-0.2017
X1.8388 Y0.81
X1.8399 Y0.8093 Z-0.2018
X1.8412 Y0.809
X1.9037 Z-0.204
X1.9051 Y0.8093 Z-0.2041
X1.9062 Y0.81
X1.907 Y0.8112 Z-0.2042
X1.9072 Y0.8125
X1.907 Y0.8138 Z-0.2043
X1.9062 Y0.815
X1.9051 Y0.8157 Z-0.2044
X1.9037 Y0.816
X1.8412 Z-0.2066
X1.8399 Y0.8157
X1.8388 Y0.815 Z-0.2067
X1.838 Y0.8138
X1.8377 Y0.8125 Z-0.2068
X1.838 Y0.8112
X1.8388 Y0.81 Z-0.2069
X1.8399 Y0.8093
X1.8412 Y0.809 Z-0.207
X1.9037 Z-0.2091
X1.9051 Y0.8093 Z-0.2092
X1.9062 Y0.81
X1.907 Y0.8112 Z-0.2093
X1.9072 Y0.8125
X1.907 Y0.8138 Z-0.2094
X1.9062 Y0.815
X1.9051 Y0.8157 Z-0.2095
X1.9037 Y0.816
X1.8412 Z-0.2117
X1.8399 Y0.8157 Z-0.2118
X1.8388 Y0.815
X1.838 Y0.8138 Z-0.2119
X1.8377 Y0.8125
X1.838 Y0.8112 Z-0.212
X1.8388 Y0.81
X1.8399 Y0.8093
X1.8412 Y0.809 Z-0.2121
X1.9037 Z-0.2143
X1.9051 Y0.8093
X1.9062 Y0.81 Z-0.2144
X1.907 Y0.8112
X1.9072 Y0.8125 Z-0.2145
X1.907 Y0.8138
X1.9062 Y0.815 Z-0.2146
X1.9051 Y0.8157
X1.9037 Y0.816 Z-0.2147
X1.8412 Z-0.2168
X1.8399 Y0.8157 Z-0.2169
X1.8388 Y0.815
X1.838 Y0.8138 Z-0.217
X1.8377 Y0.8125
X1.838 Y0.8112 Z-0.2171
X1.8388 Y0.81
X1.8399 Y0.8093 Z-0.2172
X1.8412 Y0.809
X1.9037 Z-0.2194
X1.9051 Y0.8093 Z-0.2195
X1.9062 Y0.81
X1.907 Y0.8112 Z-0.2196
X1.9072 Y0.8125
X1.907 Y0.8138 Z-0.2197
X1.9062 Y0.815
X1.9051 Y0.8157
X1.9037 Y0.816 Z-0.2198
X1.8979 Z-0.22
X1.8412 F40.
X1.8399 Y0.8157
X1.8388 Y0.815
X1.838 Y0.8138
X1.8377 Y0.8125
X1.838 Y0.8112
X1.8388 Y0.81
X1.8399 Y0.8093
X1.8412 Y0.809
X1.9037
X1.9051 Y0.8093
X1.9062 Y0.81
X1.907 Y0.8112
X1.9072 Y0.8125
X1.907 Y0.8138
X1.9062 Y0.815
X1.9051 Y0.8157
X1.9037 Y0.816
X1.8979
X1.8412 Z-0.222 F20.
X1.8399 Y0.8157
X1.8388 Y0.815 Z-0.2221
X1.838 Y0.8138
X1.8377 Y0.8125 Z-0.2222
X1.838 Y0.8112
X1.8388 Y0.81 Z-0.2223
X1.8399 Y0.8093
X1.8412 Y0.809 Z-0.2224
X1.9037 Z-0.2245
X1.9051 Y0.8093 Z-0.2246
X1.9062 Y0.81
X1.907 Y0.8112 Z-0.2247
X1.9072 Y0.8125
X1.907 Y0.8138 Z-0.2248
X1.9062 Y0.815
X1.9051 Y0.8157 Z-0.2249
X1.9037 Y0.816
X1.8412 Z-0.2271
X1.8399 Y0.8157 Z-0.2272
X1.8388 Y0.815
X1.838 Y0.8138 Z-0.2273
X1.8377 Y0.8125
X1.838 Y0.8112 Z-0.2274
X1.8388 Y0.81
X1.8399 Y0.8093
X1.8412 Y0.809 Z-0.2275
X1.9037 Z-0.2297
X1.9051 Y0.8093
X1.9062 Y0.81 Z-0.2298
X1.907 Y0.8112
X1.9072 Y0.8125 Z-0.2299
X1.907 Y0.8138
X1.9062 Y0.815 Z-0.23
X1.9051 Y0.8157
X1.9037 Y0.816 Z-0.2301
X1.8412 Z-0.2322
X1.8399 Y0.8157 Z-0.2323
X1.8388 Y0.815
X1.838 Y0.8138 Z-0.2324
X1.8377 Y0.8125
X1.838 Y0.8112 Z-0.2325
X1.8388 Y0.81
X1.8399 Y0.8093 Z-0.2326
X1.8412 Y0.809
X1.9037 Z-0.2348
X1.9051 Y0.8093 Z-0.2349
X1.9062 Y0.81
X1.907 Y0.8112 Z-0.235
X1.9072 Y0.8125
X1.907 Y0.8138 Z-0.2351
X1.9062 Y0.815
X1.9051 Y0.8157
X1.9037 Y0.816 Z-0.2352
X1.8412 Z-0.2374
X1.8399 Y0.8157
X1.8388 Y0.815 Z-0.2375
X1.838 Y0.8138
X1.8377 Y0.8125 Z-0.2376
X1.838 Y0.8112
X1.8388 Y0.81 Z-0.2377
X1.8399 Y0.8093
X1.8412 Y0.809 Z-0.2378
X1.9037 Z-0.2399
X1.9045 Y0.8091 Z-0.24
X1.9053 Y0.8093
X1.9063 Y0.8101 F40.
X1.907 Y0.8113
X1.9072 Y0.8126
X1.907 Y0.8139
X1.9062 Y0.815
X1.9051 Y0.8157
X1.9037 Y0.816
X1.8412
X1.8399 Y0.8157
X1.8388 Y0.815
X1.838 Y0.8138
X1.8377 Y0.8125
X1.838 Y0.8112
X1.8388 Y0.81
X1.8399 Y0.8093
X1.8412 Y0.809
X1.9037
X1.9045 Y0.8091
X1.9053 Y0.8093
X1.9063 Y0.8101 F20.
X1.907 Y0.8113 Z-0.2401
X1.9072 Y0.8126
X1.907 Y0.8139 Z-0.2402
X1.9062 Y0.815
X1.9051 Y0.8157 Z-0.2403
X1.9037 Y0.816
X1.8412 Z-0.2425
X1.8399 Y0.8157 Z-0.2426
X1.8388 Y0.815
X1.838 Y0.8138 Z-0.2427
X1.8377 Y0.8125
X1.838 Y0.8112 Z-0.2428
X1.8388 Y0.81
X1.8399 Y0.8093
X1.8412 Y0.809 Z-0.2429
X1.9037 Z-0.2451
X1.9051 Y0.8093
X1.9062 Y0.81 Z-0.2452
X1.907 Y0.8112
X1.9072 Y0.8125 Z-0.2453
X1.907 Y0.8138
X1.9062 Y0.815 Z-0.2454
X1.9051 Y0.8157
X1.9037 Y0.816 Z-0.2455
X1.8412 Z-0.2476
X1.8399 Y0.8157 Z-0.2477
X1.8388 Y0.815
X1.838 Y0.8138 Z-0.2478
X1.8377 Y0.8125
X1.838 Y0.8112 Z-0.2479
X1.8388 Y0.81
X1.8399 Y0.8093 Z-0.248
X1.8412 Y0.809
X1.9037 Z-0.2502
X1.9051 Y0.8093 Z-0.2503
X1.9062 Y0.81
X1.907 Y0.8112 Z-0.2504
X1.9072 Y0.8125
X1.907 Y0.8138 Z-0.2505
X1.9062 Y0.815
X1.9051 Y0.8157
X1.9037 Y0.816 Z-0.2506
X1.8412 Z-0.2528
X1.8399 Y0.8157
X1.8388 Y0.815 Z-0.2529
X1.838 Y0.8138
X1.8377 Y0.8125 Z-0.253
X1.838 Y0.8112
X1.8388 Y0.81 Z-0.2531
X1.8399 Y0.8093
X1.8412 Y0.809 Z-0.2532
X1.9037 Z-0.2553
X1.9051 Y0.8093 Z-0.2554
X1.9062 Y0.81
X1.907 Y0.8112 Z-0.2555
X1.9072 Y0.8125
X1.907 Y0.8138 Z-0.2556
X1.9062 Y0.815
X1.9051 Y0.8157 Z-0.2557
X1.9037 Y0.816
X1.8412 Z-0.2579
X1.8399 Y0.8157 Z-0.258
X1.8388 Y0.815
X1.838 Y0.8138 Z-0.2581
X1.8377 Y0.8125
X1.838 Y0.8112 Z-0.2582
X1.8388 Y0.81
X1.8399 Y0.8093
X1.8412 Y0.809 Z-0.2583
X1.8901 Z-0.26
X1.9037 F40.
X1.9051 Y0.8093
X1.9062 Y0.81
X1.907 Y0.8112
X1.9072 Y0.8125
X1.907 Y0.8138
X1.9062 Y0.815
X1.9051 Y0.8157
X1.9037 Y0.816
X1.8412
X1.8399 Y0.8157
X1.8388 Y0.815
X1.838 Y0.8138
X1.8377 Y0.8125
X1.838 Y0.8112
X1.8388 Y0.81
X1.8399 Y0.8093
X1.8412 Y0.809
X1.8901
X1.9037 Z-0.2605 F20.
X1.9051 Y0.8093
X1.9062 Y0.81 Z-0.2606
X1.907 Y0.8112
X1.9072 Y0.8125 Z-0.2607
X1.907 Y0.8138
X1.9062 Y0.815 Z-0.2608
X1.9051 Y0.8157
X1.9037 Y0.816 Z-0.2609
X1.8412 Z-0.263
X1.8399 Y0.8157 Z-0.2631
X1.8388 Y0.815
X1.838 Y0.8138 Z-0.2632
X1.8377 Y0.8125
X1.838 Y0.8112 Z-0.2633
X1.8388 Y0.81
X1.8399 Y0.8093 Z-0.2634
X1.8412 Y0.809
X1.9037 Z-0.2656
X1.9051 Y0.8093 Z-0.2657
X1.9062 Y0.81
X1.907 Y0.8112 Z-0.2658
X1.9072 Y0.8125
X1.907 Y0.8138 Z-0.2659
X1.9062 Y0.815
X1.9051 Y0.8157
X1.9037 Y0.816 Z-0.266
X1.8412 Z-0.2682
X1.8399 Y0.8157
X1.8388 Y0.815 Z-0.2683
X1.838 Y0.8138
X1.8377 Y0.8125 Z-0.2684
X1.838 Y0.8112
X1.8388 Y0.81 Z-0.2685
X1.8399 Y0.8093
X1.8412 Y0.809 Z-0.2686
X1.9037 Z-0.2707
X1.9051 Y0.8093 Z-0.2708
X1.9062 Y0.81
X1.907 Y0.8112 Z-0.2709
X1.9072 Y0.8125
X1.907 Y0.8138 Z-0.271
X1.9062 Y0.815
X1.9051 Y0.8157 Z-0.2711
X1.9037 Y0.816
X1.8412 Z-0.2733
X1.8399 Y0.8157 Z-0.2734
X1.8388 Y0.815
X1.838 Y0.8138 Z-0.2735
X1.8377 Y0.8125
X1.838 Y0.8112 Z-0.2736
X1.8388 Y0.81
X1.8399 Y0.8093
X1.8412 Y0.809 Z-0.2737
X1.9037 Z-0.2759
X1.9051 Y0.8093
X1.9062 Y0.81 Z-0.276
X1.907 Y0.8112
X1.9072 Y0.8125 Z-0.2761
X1.907 Y0.8138
X1.9062 Y0.815 Z-0.2762
X1.9051 Y0.8157
X1.9037 Y0.816 Z-0.2763
X1.8412 Z-0.2784
X1.8399 Y0.8157 Z-0.2785
X1.8388 Y0.815
X1.838 Y0.8138 Z-0.2786
X1.8377 Y0.8125
X1.838 Y0.8112 Z-0.2787
X1.8388 Y0.81
X1.8399 Y0.8093 Z-0.2788
X1.8412 Y0.809
X1.8748 Z-0.28
X1.8901 F40.
X1.9037
X1.9051 Y0.8093
X1.9062 Y0.81
X1.907 Y0.8112
X1.9072 Y0.8125
X1.907 Y0.8138
X1.9062 Y0.815
X1.9051 Y0.8157
X1.9037 Y0.816
X1.8412
X1.8399 Y0.8157
X1.8388 Y0.815
X1.838 Y0.8138
X1.8377 Y0.8125
X1.838 Y0.8112
X1.8388 Y0.81
X1.8399 Y0.8093
X1.8412 Y0.809
X1.8748
X1.9037 Z-0.281 F20.
X1.9051 Y0.8093 Z-0.2811
X1.9062 Y0.81
X1.907 Y0.8112 Z-0.2812
X1.9072 Y0.8125
X1.907 Y0.8138
X1.9062 Y0.815 Z-0.2813
X1.9051 Y0.8157
X1.9037 Y0.816 Z-0.2814
X1.8412 Z-0.2836
X1.8399 Y0.8157
X1.8388 Y0.815 Z-0.2837
X1.838 Y0.8138
X1.8377 Y0.8125 Z-0.2838
X1.838 Y0.8112
X1.8388 Y0.81 Z-0.2839
X1.8399 Y0.8093
X1.8412 Y0.809 Z-0.284
X1.9037 Z-0.2861
X1.9051 Y0.8093 Z-0.2862
X1.9062 Y0.81
X1.907 Y0.8112 Z-0.2863
X1.9072 Y0.8125
X1.907 Y0.8138 Z-0.2864
X1.9062 Y0.815
X1.9051 Y0.8157 Z-0.2865
X1.9037 Y0.816
X1.8412 Z-0.2887
X1.8399 Y0.8157 Z-0.2888
X1.8388 Y0.815
X1.838 Y0.8138 Z-0.2889
X1.8377 Y0.8125
X1.838 Y0.8112
X1.8388 Y0.81 Z-0.289
X1.8399 Y0.8093
X1.8412 Y0.809 Z-0.2891
X1.8672 Z-0.29
X1.9037 F40.
X1.9051 Y0.8093
X1.9062 Y0.81
X1.907 Y0.8112
X1.9072 Y0.8125
X1.907 Y0.8138
X1.9062 Y0.815
X1.9051 Y0.8157
X1.9037 Y0.816
X1.8412
X1.8399 Y0.8157
X1.8388 Y0.815
X1.838 Y0.8138
X1.8377 Y0.8125
X1.838 Y0.8112
X1.8388 Y0.81
X1.8399 Y0.8093
X1.8412 Y0.809
X1.8672
G2 X1.879 Z-0.2782 I0. K0.0118
G0 Z0.2
X2.1715 Y0.9141
G1 Z0.1118 F40.
X2.171 Y0.9155 Z0.106 F20.
X2.1701 Y0.9174 Z0.1039
X2.1691 Y0.9193 Z0.1017
X2.1675 Y0.9216 Z0.1009
X2.1656 Y0.9238 Z0.1
G17 G3 X2.1299 Y0.8887 Z0.0973 I-0.0178 J-0.0175
X2.1656 Y0.9238 Z0.0945 I0.0178 J0.0175
X2.1299 Y0.8887 Z0.0918 I-0.0178 J-0.0175
X2.1656 Y0.9238 Z0.089 I0.0178 J0.0175
X2.1299 Y0.8887 Z0.0863 I-0.0178 J-0.0175
X2.1656 Y0.9238 Z0.0835 I0.0178 J0.0175
X2.1299 Y0.8887 Z0.0808 I-0.0178 J-0.0175
X2.1656 Y0.9238 Z0.0781 I0.0178 J0.0175
X2.1299 Y0.8887 Z0.0753 I-0.0178 J-0.0175
X2.1656 Y0.9238 Z0.0726 I0.0178 J0.0175
X2.1299 Y0.8887 Z0.0698 I-0.0178 J-0.0175
X2.1656 Y0.9238 Z0.0671 I0.0178 J0.0175
X2.1299 Y0.8887 Z0.0643 I-0.0178 J-0.0175
X2.1656 Y0.9238 Z0.0616 I0.0178 J0.0175
X2.1299 Y0.8887 Z0.0589 I-0.0178 J-0.0175
X2.1656 Y0.9238 Z0.0561 I0.0178 J0.0175
X2.1299 Y0.8887 Z0.0534 I-0.0178 J-0.0175
X2.1656 Y0.9238 Z0.0506 I0.0178 J0.0175
X2.1299 Y0.8887 Z0.0479 I-0.0178 J-0.0175
X2.1656 Y0.9238 Z0.0451 I0.0178 J0.0175
X2.1299 Y0.8887 Z0.0424 I-0.0178 J-0.0175
X2.1656 Y0.9238 Z0.0397 I0.0178 J0.0175
X2.1299 Y0.8887 Z0.0369 I-0.0178 J-0.0175
X2.1656 Y0.9238 Z0.0342 I0.0178 J0.0175
X2.1299 Y0.8887 Z0.0314 I-0.0178 J-0.0175
X2.1656 Y0.9238 Z0.0287 I0.0178 J0.0175
X2.1299 Y0.8887 Z0.0259 I-0.0178 J-0.0175
X2.1656 Y0.9238 Z0.0232 I0.0178 J0.0175
X2.1299 Y0.8887 Z0.0205 I-0.0178 J-0.0175
X2.1656 Y0.9238 Z0.0177 I0.0178 J0.0175
X2.1299 Y0.8887 Z0.015 I-0.0178 J-0.0175
X2.1656 Y0.9238 Z0.0122 I0.0178 J0.0175
X2.1299 Y0.8887 Z0.0095 I-0.0178 J-0.0175
X2.1656 Y0.9238 Z0.0067 I0.0178 J0.0175
X2.1299 Y0.8887 Z0.004 I-0.0178 J-0.0175
X2.1656 Y0.9238 Z0.0013 I0.0178 J0.0175
X2.1299 Y0.8887 Z-0.0015 I-0.0178 J-0.0175
X2.1656 Y0.9238 Z-0.0042 I0.0178 J0.0175
X2.1299 Y0.8887 Z-0.007 I-0.0178 J-0.0175
X2.1656 Y0.9238 Z-0.0097 I0.0178 J0.0175
X2.1299 Y0.8887 Z-0.0124 I-0.0178 J-0.0175
X2.1656 Y0.9238 Z-0.0152 I0.0178 J0.0175
X2.1299 Y0.8887 Z-0.0179 I-0.0178 J-0.0175
X2.1728 Y0.9062 Z-0.02 I0.0178 J0.0175
G1 Y1.225 F40.
G3 X2.16 Y1.2378 I-0.0128 J0.
G1 X2.1475
G3 X2.1347 Y1.225 I0. J-0.0128
G1 Y0.9
G3 X2.1475 Y0.8872 I0.0128 J0.
G1 X2.16
G3 X2.1728 Y0.9 I0. J0.0128
G1 Y0.9062
G2 X2.1923 Y0.9356 I0.0318 J0.
G3 X2.2119 Y0.965 I-0.0122 J0.0294
G1 Y1.2734
X2.2117 Y1.2748
X2.2109 Y1.2759
X2.2098 Y1.2767
X2.2084 Y1.2769
X2.0991
X2.0977 Y1.2767
X2.0966 Y1.2759
X2.0958 Y1.2748
X2.0956 Y1.2734
Y0.8516
X2.0958 Y0.8502
X2.0966 Y0.8491
X2.0977 Y0.8483
X2.0991 Y0.8481
X2.2084
X2.2098 Y0.8483
X2.2109 Y0.8491
X2.2117 Y0.8502
X2.2119 Y0.8516
Y0.965
G3 X2.2026 Y0.9698 I-0.0059 J0.
G1 X2.1794 Y0.9532
X2.1453 Y0.9247
X2.1444 Y0.9242
X2.1433 Y0.924
X2.1423 Y0.9242
X2.1355 Y0.9266
X2.1345 Y0.9267
X2.1335 Y0.9266
X2.1326 Y0.9261
G3 X2.1629 Y0.8864 Z-0.0227 I0.0152 J-0.0199 F20.
X2.1326 Y0.9261 Z-0.0255 I-0.0152 J0.0199
X2.1629 Y0.8864 Z-0.0282 I0.0152 J-0.0199
X2.1326 Y0.9261 Z-0.031 I-0.0152 J0.0199
X2.1629 Y0.8864 Z-0.0337 I0.0152 J-0.0199
X2.1326 Y0.9261 Z-0.0365 I-0.0152 J0.0199
X2.1629 Y0.8864 Z-0.0392 I0.0152 J-0.0199
X2.1728 Y0.9062 Z-0.04 I-0.0152 J0.0199
G1 Y1.225 F40.
G3 X2.16 Y1.2378 I-0.0128 J0.
G1 X2.1475
G3 X2.1347 Y1.225 I0. J-0.0128
G1 Y0.9
G3 X2.1475 Y0.8872 I0.0128 J0.
G1 X2.16
G3 X2.1728 Y0.9 I0. J0.0128
G1 Y0.9062
G2 X2.1923 Y0.9356 I0.0318 J0.
G3 X2.2119 Y0.965 I-0.0122 J0.0294
G1 Y1.2734
X2.2117 Y1.2748
X2.2109 Y1.2759
X2.2098 Y1.2767
X2.2084 Y1.2769
X2.0991
X2.0977 Y1.2767
X2.0966 Y1.2759
X2.0958 Y1.2748
X2.0956 Y1.2734
Y0.8516
X2.0958 Y0.8502
X2.0966 Y0.8491
X2.0977 Y0.8483
X2.0991 Y0.8481
X2.2084
X2.2098 Y0.8483
X2.2109 Y0.8491
X2.2117 Y0.8502
X2.2119 Y0.8516
Y0.965
G3 X2.2026 Y0.9698 I-0.0059 J0.
G1 X2.1794 Y0.9532
X2.1453 Y0.9247
X2.1444 Y0.9242
X2.1433 Y0.924
X2.1423 Y0.9242
X2.1355 Y0.9266
X2.1345 Y0.9267
X2.1335 Y0.9266
X2.1326 Y0.9261
G3 X2.1629 Y0.8864 Z-0.0427 I0.0152 J-0.0199 F20.
X2.1326 Y0.9261 Z-0.0455 I-0.0152 J0.0199
X2.1629 Y0.8864 Z-0.0482 I0.0152 J-0.0199
X2.1326 Y0.9261 Z-0.051 I-0.0152 J0.0199
X2.1629 Y0.8864 Z-0.0537 I0.0152 J-0.0199
X2.1326 Y0.9261 Z-0.0565 I-0.0152 J0.0199
X2.1629 Y0.8864 Z-0.0592 I0.0152 J-0.0199
X2.1728 Y0.9062 Z-0.06 I-0.0152 J0.0199
G1 Y1.225 F40.
G3 X2.16 Y1.2378 I-0.0128 J0.
G1 X2.1475
G3 X2.1347 Y1.225 I0. J-0.0128
G1 Y0.9
G3 X2.1475 Y0.8872 I0.0128 J0.
G1 X2.16
G3 X2.1728 Y0.9 I0. J0.0128
G1 Y0.9062
G2 X2.1923 Y0.9356 I0.0318 J0.
G3 X2.2119 Y0.965 I-0.0122 J0.0294
G1 Y1.2734
X2.2117 Y1.2748
X2.2109 Y1.2759
X2.2098 Y1.2767
X2.2084 Y1.2769
X2.0991
X2.0977 Y1.2767
X2.0966 Y1.2759
X2.0958 Y1.2748
X2.0956 Y1.2734
Y0.8516
X2.0958 Y0.8502
X2.0966 Y0.8491
X2.0977 Y0.8483
X2.0991 Y0.8481
X2.2084
X2.2098 Y0.8483
X2.2109 Y0.8491
X2.2117 Y0.8502
X2.2119 Y0.8516
Y0.965
G3 X2.2026 Y0.9698 I-0.0059 J0.
G1 X2.1794 Y0.9532
X2.1453 Y0.9247
X2.1444 Y0.9242
X2.1433 Y0.924
X2.1423 Y0.9242
X2.1355 Y0.9266
X2.1345 Y0.9267
X2.1335 Y0.9266
X2.1326 Y0.9261
G3 X2.1629 Y0.8864 Z-0.0627 I0.0152 J-0.0199 F20.
X2.1326 Y0.9261 Z-0.0655 I-0.0152 J0.0199
X2.1629 Y0.8864 Z-0.0682 I0.0152 J-0.0199
X2.1326 Y0.9261 Z-0.071 I-0.0152 J0.0199
X2.1629 Y0.8864 Z-0.0737 I0.0152 J-0.0199
X2.1326 Y0.9261 Z-0.0765 I-0.0152 J0.0199
X2.1629 Y0.8864 Z-0.0792 I0.0152 J-0.0199
X2.1728 Y0.9062 Z-0.08 I-0.0152 J0.0199
G1 Y1.225 F40.
G3 X2.16 Y1.2378 I-0.0128 J0.
G1 X2.1475
G3 X2.1347 Y1.225 I0. J-0.0128
G1 Y0.9
G3 X2.1475 Y0.8872 I0.0128 J0.
G1 X2.16
G3 X2.1728 Y0.9 I0. J0.0128
G1 Y0.9062
G2 X2.1923 Y0.9356 I0.0318 J0.
G3 X2.2119 Y0.965 I-0.0122 J0.0294
G1 Y1.2734
X2.2117 Y1.2748
X2.2109 Y1.2759
X2.2098 Y1.2767
X2.2084 Y1.2769
X2.0991
X2.0977 Y1.2767
X2.0966 Y1.2759
X2.0958 Y1.2748
X2.0956 Y1.2734
Y0.8516
X2.0958 Y0.8502
X2.0966 Y0.8491
X2.0977 Y0.8483
X2.0991 Y0.8481
X2.2084
X2.2098 Y0.8483
X2.2109 Y0.8491
X2.2117 Y0.8502
X2.2119 Y0.8516
Y0.965
G3 X2.2026 Y0.9698 I-0.0059 J0.
G1 X2.1794 Y0.9532
X2.1453 Y0.9247
X2.1444 Y0.9242
X2.1433 Y0.924
X2.1423 Y0.9242
X2.1355 Y0.9266
X2.1345 Y0.9267
X2.1335 Y0.9266
X2.1326 Y0.9261
G3 X2.1629 Y0.8864 Z-0.0827 I0.0152 J-0.0199 F20.
X2.1326 Y0.9261 Z-0.0855 I-0.0152 J0.0199
X2.1629 Y0.8864 Z-0.0882 I0.0152 J-0.0199
X2.1326 Y0.9261 Z-0.091 I-0.0152 J0.0199
X2.1629 Y0.8864 Z-0.0937 I0.0152 J-0.0199
X2.1326 Y0.9261 Z-0.0965 I-0.0152 J0.0199
X2.1629 Y0.8864 Z-0.0992 I0.0152 J-0.0199
X2.1728 Y0.9062 Z-0.1 I-0.0152 J0.0199
G1 Y1.225 F40.
G3 X2.16 Y1.2378 I-0.0128 J0.
G1 X2.1475
G3 X2.1347 Y1.225 I0. J-0.0128
G1 Y0.9
G3 X2.1475 Y0.8872 I0.0128 J0.
G1 X2.16
G3 X2.1728 Y0.9 I0. J0.0128
G1 Y0.9062
G2 X2.1923 Y0.9356 I0.0318 J0.
G3 X2.2119 Y0.965 I-0.0122 J0.0294
G1 Y1.2734
X2.2117 Y1.2748
X2.2109 Y1.2759
X2.2098 Y1.2767
X2.2084 Y1.2769
X2.0991
X2.0977 Y1.2767
X2.0966 Y1.2759
X2.0958 Y1.2748
X2.0956 Y1.2734
Y0.8516
X2.0958 Y0.8502
X2.0966 Y0.8491
X2.0977 Y0.8483
X2.0991 Y0.8481
X2.2084
X2.2098 Y0.8483
X2.2109 Y0.8491
X2.2117 Y0.8502
X2.2119 Y0.8516
Y0.965
G3 X2.2026 Y0.9698 I-0.0059 J0.
G1 X2.1794 Y0.9532
X2.1453 Y0.9247
X2.1444 Y0.9242
X2.1433 Y0.924
X2.1423 Y0.9242
X2.1355 Y0.9266
X2.1345 Y0.9267
X2.1335 Y0.9266
X2.1326 Y0.9261
G3 X2.1629 Y0.8864 Z-0.1027 I0.0152 J-0.0199 F20.
X2.1326 Y0.9261 Z-0.1055 I-0.0152 J0.0199
X2.1629 Y0.8864 Z-0.1082 I0.0152 J-0.0199
X2.1326 Y0.9261 Z-0.111 I-0.0152 J0.0199
X2.1629 Y0.8864 Z-0.1137 I0.0152 J-0.0199
X2.1326 Y0.9261 Z-0.1165 I-0.0152 J0.0199
X2.1629 Y0.8864 Z-0.1192 I0.0152 J-0.0199
X2.1728 Y0.9062 Z-0.12 I-0.0152 J0.0199
G1 Y1.225 F40.
G3 X2.16 Y1.2378 I-0.0128 J0.
G1 X2.1475
G3 X2.1347 Y1.225 I0. J-0.0128
G1 Y0.9
G3 X2.1475 Y0.8872 I0.0128 J0.
G1 X2.16
G3 X2.1728 Y0.9 I0. J0.0128
G1 Y0.9062
G2 X2.1923 Y0.9356 I0.0318 J0.
G3 X2.2119 Y0.965 I-0.0122 J0.0294
G1 Y1.2734
X2.2117 Y1.2748
X2.2109 Y1.2759
X2.2098 Y1.2767
X2.2084 Y1.2769
X2.0991
X2.0977 Y1.2767
X2.0966 Y1.2759
X2.0958 Y1.2748
X2.0956 Y1.2734
Y0.8516
X2.0958 Y0.8502
X2.0966 Y0.8491
X2.0977 Y0.8483
X2.0991 Y0.8481
X2.2084
X2.2098 Y0.8483
X2.2109 Y0.8491
X2.2117 Y0.8502
X2.2119 Y0.8516
Y0.965
G3 X2.2026 Y0.9698 I-0.0059 J0.
G1 X2.1794 Y0.9532
X2.1453 Y0.9247
X2.1444 Y0.9242
X2.1433 Y0.924
X2.1423 Y0.9242
X2.1355 Y0.9266
X2.1345 Y0.9267
X2.1335 Y0.9266
X2.1326 Y0.9261
G3 X2.1629 Y0.8864 Z-0.1227 I0.0152 J-0.0199 F20.
X2.1326 Y0.9261 Z-0.1255 I-0.0152 J0.0199
X2.1629 Y0.8864 Z-0.1282 I0.0152 J-0.0199
X2.1326 Y0.9261 Z-0.131 I-0.0152 J0.0199
X2.1629 Y0.8864 Z-0.1337 I0.0152 J-0.0199
X2.1326 Y0.9261 Z-0.1365 I-0.0152 J0.0199
X2.1629 Y0.8864 Z-0.1392 I0.0152 J-0.0199
X2.1728 Y0.9062 Z-0.14 I-0.0152 J0.0199
G1 Y1.225 F40.
G3 X2.16 Y1.2378 I-0.0128 J0.
G1 X2.1475
G3 X2.1347 Y1.225 I0. J-0.0128
G1 Y0.9
G3 X2.1475 Y0.8872 I0.0128 J0.
G1 X2.16
G3 X2.1728 Y0.9 I0. J0.0128
G1 Y0.9062
G2 X2.1923 Y0.9356 I0.0318 J0.
G3 X2.2119 Y0.965 I-0.0122 J0.0294
G1 Y1.2734
X2.2117 Y1.2748
X2.2109 Y1.2759
X2.2098 Y1.2767
X2.2084 Y1.2769
X2.0991
X2.0977 Y1.2767
X2.0966 Y1.2759
X2.0958 Y1.2748
X2.0956 Y1.2734
Y0.8516
X2.0958 Y0.8502
X2.0966 Y0.8491
X2.0977 Y0.8483
X2.0991 Y0.8481
X2.2084
X2.2098 Y0.8483
X2.2109 Y0.8491
X2.2117 Y0.8502
X2.2119 Y0.8516
Y0.965
G3 X2.2026 Y0.9698 I-0.0059 J0.
G1 X2.1794 Y0.9532
X2.1453 Y0.9247
X2.1444 Y0.9242
X2.1433 Y0.924
X2.1423 Y0.9242
X2.1355 Y0.9266
X2.1345 Y0.9267
X2.1335 Y0.9266
X2.1326 Y0.9261
G3 X2.1629 Y0.8864 Z-0.1427 I0.0152 J-0.0199 F20.
X2.1326 Y0.9261 Z-0.1455 I-0.0152 J0.0199
X2.1629 Y0.8864 Z-0.1482 I0.0152 J-0.0199
X2.1326 Y0.9261 Z-0.151 I-0.0152 J0.0199
X2.1629 Y0.8864 Z-0.1537 I0.0152 J-0.0199
X2.1326 Y0.9261 Z-0.1565 I-0.0152 J0.0199
X2.1629 Y0.8864 Z-0.1592 I0.0152 J-0.0199
X2.1728 Y0.9062 Z-0.16 I-0.0152 J0.0199
G1 Y1.225 F40.
G3 X2.16 Y1.2378 I-0.0128 J0.
G1 X2.1475
G3 X2.1347 Y1.225 I0. J-0.0128
G1 Y0.9
G3 X2.1475 Y0.8872 I0.0128 J0.
G1 X2.16
G3 X2.1728 Y0.9 I0. J0.0128
G1 Y0.9062
G2 X2.1923 Y0.9356 I0.0318 J0.
G3 X2.2119 Y0.965 I-0.0122 J0.0294
G1 Y1.2734
X2.2117 Y1.2748
X2.2109 Y1.2759
X2.2098 Y1.2767
X2.2084 Y1.2769
X2.0991
X2.0977 Y1.2767
X2.0966 Y1.2759
X2.0958 Y1.2748
X2.0956 Y1.2734
Y0.8516
X2.0958 Y0.8502
X2.0966 Y0.8491
X2.0977 Y0.8483
X2.0991 Y0.8481
X2.2084
X2.2098 Y0.8483
X2.2109 Y0.8491
X2.2117 Y0.8502
X2.2119 Y0.8516
Y0.965
G3 X2.2026 Y0.9698 I-0.0059 J0.
G1 X2.1794 Y0.9532
X2.1453 Y0.9247
X2.1444 Y0.9242
X2.1433 Y0.924
X2.1423 Y0.9242
X2.1355 Y0.9266
X2.1345 Y0.9267
X2.1335 Y0.9266
X2.1326 Y0.9261
G3 X2.1629 Y0.8864 Z-0.1627 I0.0152 J-0.0199 F20.
X2.1326 Y0.9261 Z-0.1655 I-0.0152 J0.0199
X2.1629 Y0.8864 Z-0.1682 I0.0152 J-0.0199
X2.1326 Y0.9261 Z-0.171 I-0.0152 J0.0199
X2.1629 Y0.8864 Z-0.1737 I0.0152 J-0.0199
X2.1326 Y0.9261 Z-0.1765 I-0.0152 J0.0199
X2.1629 Y0.8864 Z-0.1792 I0.0152 J-0.0199
X2.1728 Y0.9062 Z-0.18 I-0.0152 J0.0199
G1 Y1.225 F40.
G3 X2.16 Y1.2378 I-0.0128 J0.
G1 X2.1475
G3 X2.1347 Y1.225 I0. J-0.0128
G1 Y0.9
G3 X2.1475 Y0.8872 I0.0128 J0.
G1 X2.16
G3 X2.1728 Y0.9 I0. J0.0128
G1 Y0.9062
G2 X2.1923 Y0.9356 I0.0318 J0.
G3 X2.2119 Y0.965 I-0.0122 J0.0294
G1 Y1.2734
X2.2117 Y1.2748
X2.2109 Y1.2759
X2.2098 Y1.2767
X2.2084 Y1.2769
X2.0991
X2.0977 Y1.2767
X2.0966 Y1.2759
X2.0958 Y1.2748
X2.0956 Y1.2734
Y0.8516
X2.0958 Y0.8502
X2.0966 Y0.8491
X2.0977 Y0.8483
X2.0991 Y0.8481
X2.2084
X2.2098 Y0.8483
X2.2109 Y0.8491
X2.2117 Y0.8502
X2.2119 Y0.8516
Y0.965
G3 X2.2026 Y0.9698 I-0.0059 J0.
G1 X2.1794 Y0.9532
X2.1453 Y0.9247
X2.1444 Y0.9242
X2.1433 Y0.924
X2.1423 Y0.9242
X2.1355 Y0.9266
X2.1345 Y0.9267
X2.1335 Y0.9266
X2.1326 Y0.9261
G3 X2.1629 Y0.8864 Z-0.1827 I0.0152 J-0.0199 F20.
X2.1326 Y0.9261 Z-0.1855 I-0.0152 J0.0199
X2.1629 Y0.8864 Z-0.1882 I0.0152 J-0.0199
X2.1326 Y0.9261 Z-0.191 I-0.0152 J0.0199
X2.1629 Y0.8864 Z-0.1937 I0.0152 J-0.0199
X2.1326 Y0.9261 Z-0.1965 I-0.0152 J0.0199
X2.1629 Y0.8864 Z-0.1992 I0.0152 J-0.0199
X2.1728 Y0.9062 Z-0.2 I-0.0152 J0.0199
G1 Y1.225 F40.
G3 X2.16 Y1.2378 I-0.0128 J0.
G1 X2.1475
G3 X2.1347 Y1.225 I0. J-0.0128
G1 Y0.9
G3 X2.1475 Y0.8872 I0.0128 J0.
G1 X2.16
G3 X2.1728 Y0.9 I0. J0.0128
G1 Y0.9062
G2 X2.1923 Y0.9356 I0.0318 J0.
G3 X2.2119 Y0.965 I-0.0122 J0.0294
G1 Y1.2734
X2.2117 Y1.2748
X2.2109 Y1.2759
X2.2098 Y1.2767
X2.2084 Y1.2769
X2.0991
X2.0977 Y1.2767
X2.0966 Y1.2759
X2.0958 Y1.2748
X2.0956 Y1.2734
Y0.8516
X2.0958 Y0.8502
X2.0966 Y0.8491
X2.0977 Y0.8483
X2.0991 Y0.8481
X2.2084
X2.2098 Y0.8483
X2.2109 Y0.8491
X2.2117 Y0.8502
X2.2119 Y0.8516
Y0.965
G3 X2.2026 Y0.9698 I-0.0059 J0.
G1 X2.1794 Y0.9532
X2.1453 Y0.9247
X2.1444 Y0.9242
X2.1433 Y0.924
X2.1423 Y0.9242
X2.1355 Y0.9266
X2.1345 Y0.9267
X2.1335 Y0.9266
X2.1326 Y0.9261
G3 X2.1629 Y0.8864 Z-0.2027 I0.0152 J-0.0199 F20.
X2.1326 Y0.9261 Z-0.2055 I-0.0152 J0.0199
X2.1629 Y0.8864 Z-0.2082 I0.0152 J-0.0199
X2.1326 Y0.9261 Z-0.211 I-0.0152 J0.0199
X2.1629 Y0.8864 Z-0.2137 I0.0152 J-0.0199
X2.1326 Y0.9261 Z-0.2165 I-0.0152 J0.0199
X2.1629 Y0.8864 Z-0.2192 I0.0152 J-0.0199
X2.1728 Y0.9062 Z-0.22 I-0.0152 J0.0199
G1 Y1.225 F40.
G3 X2.16 Y1.2378 I-0.0128 J0.
G1 X2.1475
G3 X2.1347 Y1.225 I0. J-0.0128
G1 Y0.9
G3 X2.1475 Y0.8872 I0.0128 J0.
G1 X2.16
G3 X2.1728 Y0.9 I0. J0.0128
G1 Y0.9062
G2 X2.1923 Y0.9356 I0.0318 J0.
G3 X2.2119 Y0.965 I-0.0122 J0.0294
G1 Y1.2734
X2.2117 Y1.2748
X2.2109 Y1.2759
X2.2098 Y1.2767
X2.2084 Y1.2769
X2.0991
X2.0977 Y1.2767
X2.0966 Y1.2759
X2.0958 Y1.2748
X2.0956 Y1.2734
Y0.8516
X2.0958 Y0.8502
X2.0966 Y0.8491
X2.0977 Y0.8483
X2.0991 Y0.8481
X2.2084
X2.2098 Y0.8483
X2.2109 Y0.8491
X2.2117 Y0.8502
X2.2119 Y0.8516
Y0.965
G3 X2.2026 Y0.9698 I-0.0059 J0.
G1 X2.1794 Y0.9532
X2.1453 Y0.9247
X2.1444 Y0.9242
X2.1433 Y0.924
X2.1423 Y0.9242
X2.1355 Y0.9266
X2.1345 Y0.9267
X2.1335 Y0.9266
X2.1326 Y0.9261
G3 X2.1629 Y0.8864 Z-0.2227 I0.0152 J-0.0199 F20.
X2.1326 Y0.9261 Z-0.2255 I-0.0152 J0.0199
X2.1629 Y0.8864 Z-0.2282 I0.0152 J-0.0199
X2.1326 Y0.9261 Z-0.231 I-0.0152 J0.0199
X2.1629 Y0.8864 Z-0.2337 I0.0152 J-0.0199
X2.1326 Y0.9261 Z-0.2365 I-0.0152 J0.0199
X2.1629 Y0.8864 Z-0.2392 I0.0152 J-0.0199
X2.1728 Y0.9062 Z-0.24 I-0.0152 J0.0199
G1 Y1.225 F40.
G3 X2.16 Y1.2378 I-0.0128 J0.
G1 X2.1475
G3 X2.1347 Y1.225 I0. J-0.0128
G1 Y0.9
G3 X2.1475 Y0.8872 I0.0128 J0.
G1 X2.16
G3 X2.1728 Y0.9 I0. J0.0128
G1 Y0.9062
G2 X2.1923 Y0.9356 I0.0318 J0.
G3 X2.2119 Y0.965 I-0.0122 J0.0294
G1 Y1.2734
X2.2117 Y1.2748
X2.2109 Y1.2759
X2.2098 Y1.2767
X2.2084 Y1.2769
X2.0991
X2.0977 Y1.2767
X2.0966 Y1.2759
X2.0958 Y1.2748
X2.0956 Y1.2734
Y0.8516
X2.0958 Y0.8502
X2.0966 Y0.8491
X2.0977 Y0.8483
X2.0991 Y0.8481
X2.2084
X2.2098 Y0.8483
X2.2109 Y0.8491
X2.2117 Y0.8502
X2.2119 Y0.8516
Y0.965
G3 X2.2026 Y0.9698 I-0.0059 J0.
G1 X2.1794 Y0.9532
X2.1453 Y0.9247
X2.1444 Y0.9242
X2.1433 Y0.924
X2.1423 Y0.9242
X2.1355 Y0.9266
X2.1345 Y0.9267
X2.1335 Y0.9266
X2.1326 Y0.9261
G3 X2.1629 Y0.8864 Z-0.2427 I0.0152 J-0.0199 F20.
X2.1326 Y0.9261 Z-0.2455 I-0.0152 J0.0199
X2.1629 Y0.8864 Z-0.2482 I0.0152 J-0.0199
X2.1326 Y0.9261 Z-0.251 I-0.0152 J0.0199
X2.1629 Y0.8864 Z-0.2537 I0.0152 J-0.0199
X2.1326 Y0.9261 Z-0.2565 I-0.0152 J0.0199
X2.1629 Y0.8864 Z-0.2592 I0.0152 J-0.0199
X2.1728 Y0.9062 Z-0.26 I-0.0152 J0.0199
G1 Y1.225 F40.
G3 X2.16 Y1.2378 I-0.0128 J0.
G1 X2.1475
G3 X2.1347 Y1.225 I0. J-0.0128
G1 Y0.9
G3 X2.1475 Y0.8872 I0.0128 J0.
G1 X2.16
G3 X2.1728 Y0.9 I0. J0.0128
G1 Y0.9062
G2 X2.1923 Y0.9356 I0.0318 J0.
G3 X2.2119 Y0.965 I-0.0122 J0.0294
G1 Y1.2734
X2.2117 Y1.2748
X2.2109 Y1.2759
X2.2098 Y1.2767
X2.2084 Y1.2769
X2.0991
X2.0977 Y1.2767
X2.0966 Y1.2759
X2.0958 Y1.2748
X2.0956 Y1.2734
Y0.8516
X2.0958 Y0.8502
X2.0966 Y0.8491
X2.0977 Y0.8483
X2.0991 Y0.8481
X2.2084
X2.2098 Y0.8483
X2.2109 Y0.8491
X2.2117 Y0.8502
X2.2119 Y0.8516
Y0.965
G3 X2.2026 Y0.9698 I-0.0059 J0.
G1 X2.1794 Y0.9532
X2.1453 Y0.9247
X2.1444 Y0.9242
X2.1433 Y0.924
X2.1423 Y0.9242
X2.1355 Y0.9266
X2.1345 Y0.9267
X2.1335 Y0.9266
X2.1326 Y0.9261
G3 X2.1629 Y0.8864 Z-0.2627 I0.0152 J-0.0199 F20.
X2.1326 Y0.9261 Z-0.2655 I-0.0152 J0.0199
X2.1629 Y0.8864 Z-0.2682 I0.0152 J-0.0199
X2.1326 Y0.9261 Z-0.271 I-0.0152 J0.0199
X2.1629 Y0.8864 Z-0.2737 I0.0152 J-0.0199
X2.1326 Y0.9261 Z-0.2765 I-0.0152 J0.0199
X2.1629 Y0.8864 Z-0.2792 I0.0152 J-0.0199
X2.1728 Y0.9062 Z-0.28 I-0.0152 J0.0199
G1 Y1.225 F40.
G3 X2.16 Y1.2378 I-0.0128 J0.
G1 X2.1475
G3 X2.1347 Y1.225 I0. J-0.0128
G1 Y0.9
G3 X2.1475 Y0.8872 I0.0128 J0.
G1 X2.16
G3 X2.1728 Y0.9 I0. J0.0128
G1 Y0.9062
G2 X2.1923 Y0.9356 I0.0318 J0.
G3 X2.2119 Y0.965 I-0.0122 J0.0294
G1 Y1.2734
X2.2117 Y1.2748
X2.2109 Y1.2759
X2.2098 Y1.2767
X2.2084 Y1.2769
X2.0991
X2.0977 Y1.2767
X2.0966 Y1.2759
X2.0958 Y1.2748
X2.0956 Y1.2734
Y0.8516
X2.0958 Y0.8502
X2.0966 Y0.8491
X2.0977 Y0.8483
X2.0991 Y0.8481
X2.2084
X2.2098 Y0.8483
X2.2109 Y0.8491
X2.2117 Y0.8502
X2.2119 Y0.8516
Y0.965
G3 X2.2021 Y0.9695 I-0.0059 J0.
G1 X2.1588 Y0.9314
X2.1579 Y0.9305
X2.1573 Y0.9294
X2.1588 Y0.9287
G3 X2.1367 Y0.8838 Z-0.2827 I-0.0111 J-0.0224 F20.
X2.1588 Y0.9287 Z-0.2855 I0.0111 J0.0224
X2.1367 Y0.8838 Z-0.2882 I-0.0111 J-0.0224
X2.1728 Y0.9062 Z-0.29 I0.0111 J0.0224
G1 Y1.225 F40.
G3 X2.16 Y1.2378 I-0.0128 J0.
G1 X2.1475
G3 X2.1347 Y1.225 I0. J-0.0128
G1 Y0.9
G3 X2.1475 Y0.8872 I0.0128 J0.
G1 X2.16
G3 X2.1728 Y0.9 I0. J0.0128
G1 Y0.9062
G2 X2.1923 Y0.9356 I0.0318 J0.
G3 X2.2119 Y0.965 I-0.0122 J0.0294
G1 Y1.2734
X2.2117 Y1.2748
X2.2109 Y1.2759
X2.2098 Y1.2767
X2.2084 Y1.2769
X2.0991
X2.0977 Y1.2767
X2.0966 Y1.2759
X2.0958 Y1.2748
X2.0956 Y1.2734
Y0.8516
X2.0958 Y0.8502
X2.0966 Y0.8491
X2.0977 Y0.8483
X2.0991 Y0.8481
X2.2084
X2.2098 Y0.8483
X2.2109 Y0.8491
X2.2117 Y0.8502
X2.2119 Y0.8516
Y0.965
X2.2117 Y0.9673 Z-0.2896
X2.2111 Y0.9694 Z-0.2891
X2.2102 Y0.9711 Z-0.2878
X2.2091 Y0.9727 Z-0.2865
X2.2072 Y0.9744 Z-0.2827
X2.2065 Y0.975 Z-0.2782
G0 Z0.2
X1.848 Y1.309
G1 Z0.1118 F40.
G18 G2 X1.8594 Z0.1 I0.0118 K0. F20.
G1 X1.9037 Z0.0985
X1.9051 Y1.3093 Z0.0984
X1.9062 Y1.31
X1.907 Y1.3112 Z0.0983
X1.9072 Y1.3125
X1.907 Y1.3138 Z0.0982
X1.9062 Y1.315
X1.9051 Y1.3157 Z0.0981
X1.9037 Y1.316
X1.8412 Z0.0959
X1.8399 Y1.3157 Z0.0958
X1.8388 Y1.315
X1.838 Y1.3138 Z0.0957
X1.8377 Y1.3125
X1.838 Y1.3112 Z0.0956
X1.8388 Y1.31
X1.8399 Y1.3093 Z0.0955
X1.8412 Y1.309
X1.9037 Z0.0933
X1.9051 Y1.3093
X1.9062 Y1.31 Z0.0932
X1.907 Y1.3112
X1.9072 Y1.3125 Z0.0931
X1.907 Y1.3138
X1.9062 Y1.315 Z0.093
X1.9051 Y1.3157
X1.9037 Y1.316 Z0.0929
X1.8412 Z0.0908
X1.8399 Y1.3157 Z0.0907
X1.8388 Y1.315
X1.838 Y1.3138 Z0.0906
X1.8377 Y1.3125
X1.838 Y1.3112 Z0.0905
X1.8388 Y1.31
X1.8399 Y1.3093 Z0.0904
X1.8412 Y1.309
X1.9037 Z0.0882
X1.9051 Y1.3093 Z0.0881
X1.9062 Y1.31
X1.907 Y1.3112 Z0.088
X1.9072 Y1.3125
X1.907 Y1.3138 Z0.0879
X1.9062 Y1.315
X1.9051 Y1.3157 Z0.0878
X1.9037 Y1.316
X1.8412 Z0.0856
X1.8399 Y1.3157
X1.8388 Y1.315 Z0.0855
X1.838 Y1.3138
X1.8377 Y1.3125 Z0.0854
X1.838 Y1.3112
X1.8388 Y1.31 Z0.0853
X1.8399 Y1.3093
X1.8412 Y1.309 Z0.0852
X1.9037 Z0.0831
X1.9051 Y1.3093 Z0.083
X1.9062 Y1.31
X1.907 Y1.3112 Z0.0829
X1.9072 Y1.3125
X1.907 Y1.3138 Z0.0828
X1.9062 Y1.315
X1.9051 Y1.3157 Z0.0827
X1.9037 Y1.316
X1.8412 Z0.0805
X1.8399 Y1.3157 Z0.0804
X1.8388 Y1.315
X1.838 Y1.3138 Z0.0803
X1.8377 Y1.3125
X1.838 Y1.3112 Z0.0802
X1.8388 Y1.31
X1.8399 Y1.3093 Z0.0801
X1.8412 Y1.309
X1.9037 Z0.0779
X1.9051 Y1.3093
X1.9062 Y1.31 Z0.0778
X1.907 Y1.3112
X1.9072 Y1.3125 Z0.0777
X1.907 Y1.3138
X1.9062 Y1.315 Z0.0776
X1.9051 Y1.3157
X1.9037 Y1.316 Z0.0775
X1.8412 Z0.0754
X1.8399 Y1.3157 Z0.0753
X1.8388 Y1.315
X1.838 Y1.3138 Z0.0752
X1.8377 Y1.3125
X1.838 Y1.3112 Z0.0751
X1.8388 Y1.31
X1.8399 Y1.3093 Z0.075
X1.8412 Y1.309
X1.9037 Z0.0728
X1.9051 Y1.3093 Z0.0727
X1.9062 Y1.31
X1.907 Y1.3112 Z0.0726
X1.9072 Y1.3125
X1.907 Y1.3138 Z0.0725
X1.9062 Y1.315
X1.9051 Y1.3157
X1.9037 Y1.316 Z0.0724
X1.8412 Z0.0702
X1.8399 Y1.3157
X1.8388 Y1.315 Z0.0701
X1.838 Y1.3138
X1.8377 Y1.3125 Z0.07
X1.838 Y1.3112
X1.8388 Y1.31 Z0.0699
X1.8399 Y1.3093
X1.8412 Y1.309 Z0.0698
X1.9037 Z0.0677
X1.9051 Y1.3093 Z0.0676
X1.9062 Y1.31
X1.907 Y1.3112 Z0.0675
X1.9072 Y1.3125
X1.907 Y1.3138 Z0.0674
X1.9062 Y1.315
X1.9051 Y1.3157 Z0.0673
X1.9037 Y1.316
X1.8412 Z0.0651
X1.8399 Y1.3157 Z0.065
X1.8388 Y1.315
X1.838 Y1.3138 Z0.0649
X1.8377 Y1.3125
X1.838 Y1.3112 Z0.0648
X1.8388 Y1.31
X1.8399 Y1.3093
X1.8412 Y1.309 Z0.0647
X1.9037 Z0.0625
X1.9051 Y1.3093
X1.9062 Y1.31 Z0.0624
X1.907 Y1.3112
X1.9072 Y1.3125 Z0.0623
X1.907 Y1.3138
X1.9062 Y1.315 Z0.0622
X1.9051 Y1.3157
X1.9037 Y1.316 Z0.0621
X1.8412 Z0.06
X1.8399 Y1.3157 Z0.0599
X1.8388 Y1.315
X1.838 Y1.3138 Z0.0598
X1.8377 Y1.3125
X1.838 Y1.3112 Z0.0597
X1.8388 Y1.31
X1.8399 Y1.3093 Z0.0596
X1.8412 Y1.309
X1.9037 Z0.0574
X1.9051 Y1.3093 Z0.0573
X1.9062 Y1.31
X1.907 Y1.3112 Z0.0572
X1.9072 Y1.3125
X1.907 Y1.3138 Z0.0571
X1.9062 Y1.315
X1.9051 Y1.3157
X1.9037 Y1.316 Z0.057
X1.8412 Z0.0548
X1.8399 Y1.3157
X1.8388 Y1.315 Z0.0547
X1.838 Y1.3138
X1.8377 Y1.3125 Z0.0546
X1.838 Y1.3112
X1.8388 Y1.31 Z0.0545
X1.8399 Y1.3093
X1.8412 Y1.309 Z0.0544
X1.9037 Z0.0523
X1.9051 Y1.3093 Z0.0522
X1.9062 Y1.31
X1.907 Y1.3112 Z0.0521
X1.9072 Y1.3125
X1.907 Y1.3138 Z0.052
X1.9062 Y1.315
X1.9051 Y1.3157 Z0.0519
X1.9037 Y1.316
X1.8412 Z0.0497
X1.8399 Y1.3157 Z0.0496
X1.8388 Y1.315
X1.838 Y1.3138 Z0.0495
X1.8377 Y1.3125
X1.838 Y1.3112 Z0.0494
X1.8388 Y1.31
X1.8399 Y1.3093
X1.8412 Y1.309 Z0.0493
X1.9037 Z0.0471
X1.9051 Y1.3093
X1.9062 Y1.31 Z0.047
X1.907 Y1.3112
X1.9072 Y1.3125 Z0.0469
X1.907 Y1.3138
X1.9062 Y1.315 Z0.0468
X1.9051 Y1.3157
X1.9037 Y1.316 Z0.0467
X1.8412 Z0.0446
X1.8399 Y1.3157 Z0.0445
X1.8388 Y1.315
X1.838 Y1.3138 Z0.0444
X1.8377 Y1.3125
X1.838 Y1.3112 Z0.0443
X1.8388 Y1.31
X1.8399 Y1.3093 Z0.0442
X1.8412 Y1.309
X1.9037 Z0.042
X1.9051 Y1.3093 Z0.0419
X1.9062 Y1.31
X1.907 Y1.3112 Z0.0418
X1.9072 Y1.3125
X1.907 Y1.3138 Z0.0417
X1.9062 Y1.315
X1.9051 Y1.3157
X1.9037 Y1.316 Z0.0416
X1.8412 Z0.0394
X1.8399 Y1.3157
X1.8388 Y1.315 Z0.0393
X1.838 Y1.3138
X1.8377 Y1.3125 Z0.0392
X1.838 Y1.3112
X1.8388 Y1.31 Z0.0391
X1.8399 Y1.3093
X1.8412 Y1.309 Z0.039
X1.9037 Z0.0369
X1.9051 Y1.3093 Z0.0368
X1.9062 Y1.31
X1.907 Y1.3112 Z0.0367
X1.9072 Y1.3125
X1.907 Y1.3138 Z0.0366
X1.9062 Y1.315
X1.9051 Y1.3157 Z0.0365
X1.9037 Y1.316
X1.8412 Z0.0343
X1.8399 Y1.3157 Z0.0342
X1.8388 Y1.315
X1.838 Y1.3138 Z0.0341
X1.8377 Y1.3125
X1.838 Y1.3112 Z0.034
X1.8388 Y1.31
X1.8399 Y1.3093
X1.8412 Y1.309 Z0.0339
X1.9037 Z0.0317
X1.9051 Y1.3093
X1.9062 Y1.31 Z0.0316
X1.907 Y1.3112
X1.9072 Y1.3125 Z0.0315
X1.907 Y1.3138
X1.9062 Y1.315 Z0.0314
X1.9051 Y1.3157
X1.9037 Y1.316 Z0.0313
X1.8412 Z0.0292
X1.8399 Y1.3157 Z0.0291
X1.8388 Y1.315
X1.838 Y1.3138 Z0.029
X1.8377 Y1.3125
X1.838 Y1.3112 Z0.0289
X1.8388 Y1.31
X1.8399 Y1.3093 Z0.0288
X1.8412 Y1.309
X1.9037 Z0.0266
X1.9051 Y1.3093 Z0.0265
X1.9062 Y1.31
X1.907 Y1.3112 Z0.0264
X1.9072 Y1.3125
X1.907 Y1.3138 Z0.0263
X1.9062 Y1.315
X1.9051 Y1.3157
X1.9037 Y1.316 Z0.0262
X1.8412 Z0.024
X1.8399 Y1.3157
X1.8388 Y1.315 Z0.0239
X1.838 Y1.3138
X1.8377 Y1.3125 Z0.0238
X1.838 Y1.3112
X1.8388 Y1.31 Z0.0237
X1.8399 Y1.3093
X1.8412 Y1.309 Z0.0236
X1.9037 Z0.0215
X1.9051 Y1.3093 Z0.0214
X1.9062 Y1.31
X1.907 Y1.3112 Z0.0213
X1.9072 Y1.3125
X1.907 Y1.3138 Z0.0212
X1.9062 Y1.315
X1.9051 Y1.3157 Z0.0211
X1.9037 Y1.316
X1.8412 Z0.0189
X1.8399 Y1.3157 Z0.0188
X1.8388 Y1.315
X1.838 Y1.3138 Z0.0187
X1.8377 Y1.3125
X1.838 Y1.3112 Z0.0186
X1.8388 Y1.31
X1.8399 Y1.3093
X1.8412 Y1.309 Z0.0185
X1.9037 Z0.0163
X1.9051 Y1.3093
X1.9062 Y1.31 Z0.0162
X1.907 Y1.3112
X1.9072 Y1.3125 Z0.0161
X1.907 Y1.3138
X1.9062 Y1.315 Z0.016
X1.9051 Y1.3157
X1.9037 Y1.316 Z0.0159
X1.8412 Z0.0138
X1.8399 Y1.3157 Z0.0137
X1.8388 Y1.315
X1.838 Y1.3138 Z0.0136
X1.8377 Y1.3125
X1.838 Y1.3112 Z0.0135
X1.8388 Y1.31
X1.8399 Y1.3093 Z0.0134
X1.8412 Y1.309
X1.9037 Z0.0112
X1.9051 Y1.3093 Z0.0111
X1.9062 Y1.31
X1.907 Y1.3112 Z0.011
X1.9072 Y1.3125
X1.907 Y1.3138 Z0.0109
X1.9062 Y1.315
X1.9051 Y1.3157
X1.9037 Y1.316 Z0.0108
X1.8412 Z0.0086
X1.8399 Y1.3157
X1.8388 Y1.315 Z0.0085
X1.838 Y1.3138
X1.8377 Y1.3125 Z0.0084
X1.838 Y1.3112
X1.8388 Y1.31 Z0.0083
X1.8399 Y1.3093
X1.8412 Y1.309 Z0.0082
X1.9037 Z0.0061
X1.9051 Y1.3093 Z0.006
X1.9062 Y1.31
X1.907 Y1.3112 Z0.0059
X1.9072 Y1.3125
X1.907 Y1.3138 Z0.0058
X1.9062 Y1.315
X1.9051 Y1.3157 Z0.0057
X1.9037 Y1.316
X1.8412 Z0.0035
X1.8399 Y1.3157 Z0.0034
X1.8388 Y1.315
X1.838 Y1.3138 Z0.0033
X1.8377 Y1.3125
X1.838 Y1.3112
X1.8388 Y1.31 Z0.0032
X1.8399 Y1.3093
X1.8412 Y1.309 Z0.0031
X1.9037 Z0.0009
X1.9051 Y1.3093
X1.9062 Y1.31 Z0.0008
X1.907 Y1.3112
X1.9072 Y1.3125 Z0.0007
X1.907 Y1.3138
X1.9062 Y1.315 Z0.0006
X1.9051 Y1.3157
X1.9037 Y1.316 Z0.0005
X1.8412 Z-0.0016
X1.8399 Y1.3157 Z-0.0017
X1.8388 Y1.315
X1.838 Y1.3138 Z-0.0018
X1.8377 Y1.3125
X1.838 Y1.3112 Z-0.0019
X1.8388 Y1.31
X1.8399 Y1.3093 Z-0.002
X1.8412 Y1.309
X1.9037 Z-0.0042
X1.9051 Y1.3093 Z-0.0043
X1.9062 Y1.31
X1.907 Y1.3112 Z-0.0044
X1.9072 Y1.3125
X1.907 Y1.3138
X1.9062 Y1.315 Z-0.0045
X1.9051 Y1.3157
X1.9037 Y1.316 Z-0.0046
X1.8412 Z-0.0068
X1.8399 Y1.3157
X1.8388 Y1.315 Z-0.0069
X1.838 Y1.3138
X1.8377 Y1.3125 Z-0.007
X1.838 Y1.3112
X1.8388 Y1.31 Z-0.0071
X1.8399 Y1.3093
X1.8412 Y1.309 Z-0.0072
X1.9037 Z-0.0093
X1.9051 Y1.3093 Z-0.0094
X1.9062 Y1.31
X1.907 Y1.3112 Z-0.0095
X1.9072 Y1.3125
X1.907 Y1.3138 Z-0.0096
X1.9062 Y1.315
X1.9051 Y1.3157 Z-0.0097
X1.9037 Y1.316
X1.8412 Z-0.0119
X1.8399 Y1.3157 Z-0.012
X1.8388 Y1.315
X1.838 Y1.3138 Z-0.0121
X1.8377 Y1.3125
X1.838 Y1.3112
X1.8388 Y1.31 Z-0.0122
X1.8399 Y1.3093
X1.8412 Y1.309 Z-0.0123
X1.9037 Z-0.0145
X1.9051 Y1.3093
X1.9062 Y1.31 Z-0.0146
X1.907 Y1.3112
X1.9072 Y1.3125 Z-0.0147
X1.907 Y1.3138
X1.9062 Y1.315 Z-0.0148
X1.9051 Y1.3157
X1.9037 Y1.316 Z-0.0149
X1.8412 Z-0.017
X1.8399 Y1.3157 Z-0.0171
X1.8388 Y1.315
X1.838 Y1.3138 Z-0.0172
X1.8377 Y1.3125
X1.838 Y1.3112 Z-0.0173
X1.8388 Y1.31
X1.8399 Y1.3093 Z-0.0174
X1.8412 Y1.309
X1.9037 Z-0.0196
X1.9051 Y1.3093 Z-0.0197
X1.9062 Y1.31
X1.907 Y1.3112 Z-0.0198
X1.9072 Y1.3125
X1.907 Y1.3138
X1.9062 Y1.315 Z-0.0199
X1.9051 Y1.3157
X1.9037 Y1.316 Z-0.02
X1.9035
X1.8412 F40.
X1.8399 Y1.3157
X1.8388 Y1.315
X1.838 Y1.3138
X1.8377 Y1.3125
X1.838 Y1.3112
X1.8388 Y1.31
X1.8399 Y1.3093
X1.8412 Y1.309
X1.9037
X1.9051 Y1.3093
X1.9062 Y1.31
X1.907 Y1.3112
X1.9072 Y1.3125
X1.907 Y1.3138
X1.9062 Y1.315
X1.9051 Y1.3157
X1.9037 Y1.316
X1.9035
X1.8412 Z-0.0222 F20.
X1.8399 Y1.3157
X1.8388 Y1.315 Z-0.0223
X1.838 Y1.3138
X1.8377 Y1.3125 Z-0.0224
X1.838 Y1.3112
X1.8388 Y1.31 Z-0.0225
X1.8399 Y1.3093
X1.8412 Y1.309 Z-0.0226
X1.9037 Z-0.0247
X1.9051 Y1.3093 Z-0.0248
X1.9062 Y1.31
X1.907 Y1.3112 Z-0.0249
X1.9072 Y1.3125
X1.907 Y1.3138 Z-0.025
X1.9062 Y1.315
X1.9051 Y1.3157 Z-0.0251
X1.9037 Y1.316
X1.8412 Z-0.0273
X1.8399 Y1.3157 Z-0.0274
X1.8388 Y1.315
X1.838 Y1.3138 Z-0.0275
X1.8377 Y1.3125
X1.838 Y1.3112
X1.8388 Y1.31 Z-0.0276
X1.8399 Y1.3093
X1.8412 Y1.309 Z-0.0277
X1.9037 Z-0.0299
X1.9051 Y1.3093
X1.9062 Y1.31 Z-0.03
X1.907 Y1.3112
X1.9072 Y1.3125 Z-0.0301
X1.907 Y1.3138
X1.9062 Y1.315 Z-0.0302
X1.9051 Y1.3157
X1.9037 Y1.316 Z-0.0303
X1.8412 Z-0.0324
X1.8399 Y1.3157 Z-0.0325
X1.8388 Y1.315
X1.838 Y1.3138 Z-0.0326
X1.8377 Y1.3125
X1.838 Y1.3112 Z-0.0327
X1.8388 Y1.31
X1.8399 Y1.3093 Z-0.0328
X1.8412 Y1.309
X1.9037 Z-0.035
X1.9051 Y1.3093 Z-0.0351
X1.9062 Y1.31
X1.907 Y1.3112 Z-0.0352
X1.9072 Y1.3125
X1.907 Y1.3138
X1.9062 Y1.315 Z-0.0353
X1.9051 Y1.3157
X1.9037 Y1.316 Z-0.0354
X1.8412 Z-0.0376
X1.8399 Y1.3157
X1.8388 Y1.315 Z-0.0377
X1.838 Y1.3138
X1.8377 Y1.3125 Z-0.0378
X1.838 Y1.3112
X1.8388 Y1.31 Z-0.0379
X1.8399 Y1.3093
X1.8412 Y1.309 Z-0.038
X1.8997 Z-0.04
X1.9037 F40.
X1.9051 Y1.3093
X1.9062 Y1.31
X1.907 Y1.3112
X1.9072 Y1.3125
X1.907 Y1.3138
X1.9062 Y1.315
X1.9051 Y1.3157
X1.9037 Y1.316
X1.8412
X1.8399 Y1.3157
X1.8388 Y1.315
X1.838 Y1.3138
X1.8377 Y1.3125
X1.838 Y1.3112
X1.8388 Y1.31
X1.8399 Y1.3093
X1.8412 Y1.309
X1.8997
X1.9037 Z-0.0401 F20.
X1.9051 Y1.3093 Z-0.0402
X1.9062 Y1.31
X1.907 Y1.3112 Z-0.0403
X1.9072 Y1.3125
X1.907 Y1.3138 Z-0.0404
X1.9062 Y1.315
X1.9051 Y1.3157 Z-0.0405
X1.9037 Y1.316
X1.8412 Z-0.0427
X1.8399 Y1.3157 Z-0.0428
X1.8388 Y1.315
X1.838 Y1.3138 Z-0.0429
X1.8377 Y1.3125
X1.838 Y1.3112
X1.8388 Y1.31 Z-0.043
X1.8399 Y1.3093
X1.8412 Y1.309 Z-0.0431
X1.9037 Z-0.0453
X1.9051 Y1.3093
X1.9062 Y1.31 Z-0.0454
X1.907 Y1.3112
X1.9072 Y1.3125 Z-0.0455
X1.907 Y1.3138
X1.9062 Y1.315 Z-0.0456
X1.9051 Y1.3157
X1.9037 Y1.316 Z-0.0457
X1.8412 Z-0.0478
X1.8399 Y1.3157 Z-0.0479
X1.8388 Y1.315
X1.838 Y1.3138 Z-0.048
X1.8377 Y1.3125
X1.838 Y1.3112 Z-0.0481
X1.8388 Y1.31
X1.8399 Y1.3093 Z-0.0482
X1.8412 Y1.309
X1.9037 Z-0.0504
X1.9051 Y1.3093 Z-0.0505
X1.9062 Y1.31
X1.907 Y1.3112 Z-0.0506
X1.9072 Y1.3125
X1.907 Y1.3138
X1.9062 Y1.315 Z-0.0507
X1.9051 Y1.3157
X1.9037 Y1.316 Z-0.0508
X1.8412 Z-0.053
X1.8399 Y1.3157
X1.8388 Y1.315 Z-0.0531
X1.838 Y1.3138
X1.8377 Y1.3125 Z-0.0532
X1.838 Y1.3112
X1.8388 Y1.31 Z-0.0533
X1.8399 Y1.3093
X1.8412 Y1.309 Z-0.0534
X1.9037 Z-0.0555
X1.9051 Y1.3093 Z-0.0556
X1.9062 Y1.31
X1.907 Y1.3112 Z-0.0557
X1.9072 Y1.3125
X1.907 Y1.3138 Z-0.0558
X1.9062 Y1.315
X1.9051 Y1.3157 Z-0.0559
X1.9037 Y1.316
X1.8412 Z-0.0581
X1.8399 Y1.3157 Z-0.0582
X1.8388 Y1.315
X1.838 Y1.3138 Z-0.0583
X1.8377 Y1.3125
X1.838 Y1.3112
X1.8388 Y1.31 Z-0.0584
X1.8399 Y1.3093
X1.8412 Y1.309 Z-0.0585
X1.8845 Z-0.06
X1.8997 F40.
X1.9037
X1.9051 Y1.3093
X1.9062 Y1.31
X1.907 Y1.3112
X1.9072 Y1.3125
X1.907 Y1.3138
X1.9062 Y1.315
X1.9051 Y1.3157
X1.9037 Y1.316
X1.8412
X1.8399 Y1.3157
X1.8388 Y1.315
X1.838 Y1.3138
X1.8377 Y1.3125
X1.838 Y1.3112
X1.8388 Y1.31
X1.8399 Y1.3093
X1.8412 Y1.309
X1.8845
X1.9037 Z-0.0607 F20.
X1.9051 Y1.3093
X1.9062 Y1.31 Z-0.0608
X1.907 Y1.3112
X1.9072 Y1.3125 Z-0.0609
X1.907 Y1.3138
X1.9062 Y1.315 Z-0.061
X1.9051 Y1.3157
X1.9037 Y1.316 Z-0.0611
X1.8412 Z-0.0632
X1.8399 Y1.3157 Z-0.0633
X1.8388 Y1.315
X1.838 Y1.3138 Z-0.0634
X1.8377 Y1.3125
X1.838 Y1.3112 Z-0.0635
X1.8388 Y1.31
X1.8399 Y1.3093 Z-0.0636
X1.8412 Y1.309
X1.9037 Z-0.0658
X1.9051 Y1.3093 Z-0.0659
X1.9062 Y1.31
X1.907 Y1.3112
X1.9072 Y1.3125 Z-0.066
X1.907 Y1.3138
X1.9062 Y1.315 Z-0.0661
X1.9051 Y1.3157
X1.9037 Y1.316 Z-0.0662
X1.8412 Z-0.0684
X1.8399 Y1.3157
X1.8388 Y1.315 Z-0.0685
X1.838 Y1.3138
X1.8377 Y1.3125 Z-0.0686
X1.838 Y1.3112
X1.8388 Y1.31 Z-0.0687
X1.8399 Y1.3093
X1.8412 Y1.309 Z-0.0688
X1.9037 Z-0.0709
X1.9051 Y1.3093 Z-0.071
X1.9062 Y1.31
X1.907 Y1.3112 Z-0.0711
X1.9072 Y1.3125
X1.907 Y1.3138 Z-0.0712
X1.9062 Y1.315
X1.9051 Y1.3157 Z-0.0713
X1.9037 Y1.316
X1.8412 Z-0.0735
X1.8399 Y1.3157 Z-0.0736
X1.8388 Y1.315
X1.838 Y1.3138
X1.8377 Y1.3125 Z-0.0737
X1.838 Y1.3112
X1.8388 Y1.31 Z-0.0738
X1.8399 Y1.3093
X1.8412 Y1.309 Z-0.0739
X1.9037 Z-0.0761
X1.9051 Y1.3093
X1.9062 Y1.31 Z-0.0762
X1.907 Y1.3112
X1.9072 Y1.3125 Z-0.0763
X1.907 Y1.3138
X1.9062 Y1.315 Z-0.0764
X1.9051 Y1.3157
X1.9037 Y1.316 Z-0.0765
X1.8412 Z-0.0786
X1.8399 Y1.3157 Z-0.0787
X1.8388 Y1.315
X1.838 Y1.3138 Z-0.0788
X1.8377 Y1.3125
X1.838 Y1.3112 Z-0.0789
X1.8388 Y1.31
X1.8399 Y1.3093 Z-0.079
X1.8412 Y1.309
X1.8692 Z-0.08
X1.9037 F40.
X1.9051 Y1.3093
X1.9062 Y1.31
X1.907 Y1.3112
X1.9072 Y1.3125
X1.907 Y1.3138
X1.9062 Y1.315
X1.9051 Y1.3157
X1.9037 Y1.316
X1.8412
X1.8399 Y1.3157
X1.8388 Y1.315
X1.838 Y1.3138
X1.8377 Y1.3125
X1.838 Y1.3112
X1.8388 Y1.31
X1.8399 Y1.3093
X1.8412 Y1.309
X1.8692
X1.9037 Z-0.0812 F20.
X1.9051 Y1.3093 Z-0.0813
X1.9062 Y1.31
X1.907 Y1.3112
X1.9072 Y1.3125 Z-0.0814
X1.907 Y1.3138
X1.9062 Y1.315 Z-0.0815
X1.9051 Y1.3157
X1.9037 Y1.316 Z-0.0816
X1.8412 Z-0.0838
X1.8399 Y1.3157
X1.8388 Y1.315 Z-0.0839
X1.838 Y1.3138
X1.8377 Y1.3125 Z-0.084
X1.838 Y1.3112
X1.8388 Y1.31 Z-0.0841
X1.8399 Y1.3093
X1.8412 Y1.309 Z-0.0842
X1.9037 Z-0.0863
X1.9051 Y1.3093 Z-0.0864
X1.9062 Y1.31
X1.907 Y1.3112 Z-0.0865
X1.9072 Y1.3125
X1.907 Y1.3138 Z-0.0866
X1.9062 Y1.315
X1.9051 Y1.3157 Z-0.0867
X1.9037 Y1.316
X1.8412 Z-0.0889
X1.8399 Y1.3157 Z-0.089
X1.8388 Y1.315
X1.838 Y1.3138
X1.8377 Y1.3125 Z-0.0891
X1.838 Y1.3112
X1.8388 Y1.31 Z-0.0892
X1.8399 Y1.3093
X1.8412 Y1.309 Z-0.0893
X1.9037 Z-0.0915
X1.9051 Y1.3093
X1.9062 Y1.31 Z-0.0916
X1.907 Y1.3112
X1.9072 Y1.3125 Z-0.0917
X1.907 Y1.3138
X1.9062 Y1.315 Z-0.0918
X1.9051 Y1.3157
X1.9037 Y1.316 Z-0.0919
X1.8412 Z-0.094
X1.8399 Y1.3157 Z-0.0941
X1.8388 Y1.315
X1.838 Y1.3138 Z-0.0942
X1.8377 Y1.3125
X1.838 Y1.3112 Z-0.0943
X1.8388 Y1.31
X1.8399 Y1.3093 Z-0.0944
X1.8412 Y1.309
X1.9037 Z-0.0966
X1.9051 Y1.3093 Z-0.0967
X1.9062 Y1.31
X1.907 Y1.3112
X1.9072 Y1.3125 Z-0.0968
X1.907 Y1.3138
X1.9062 Y1.315 Z-0.0969
X1.9051 Y1.3157
X1.9037 Y1.316 Z-0.097
X1.8412 Z-0.0992
X1.8399 Y1.3157
X1.8388 Y1.315 Z-0.0993
X1.838 Y1.3138
X1.8377 Y1.3125 Z-0.0994
X1.838 Y1.3112
X1.8388 Y1.31 Z-0.0995
X1.8399 Y1.3093
X1.8412 Y1.309 Z-0.0996
X1.854 Z-0.1
X1.9037 F40.
X1.9051 Y1.3093
X1.9062 Y1.31
X1.907 Y1.3112
X1.9072 Y1.3125
X1.907 Y1.3138
X1.9062 Y1.315
X1.9051 Y1.3157
X1.9037 Y1.316
X1.8412
X1.8399 Y1.3157
X1.8388 Y1.315
X1.838 Y1.3138
X1.8377 Y1.3125
X1.838 Y1.3112
X1.8388 Y1.31
X1.8399 Y1.3093
X1.8412 Y1.309
X1.854
X1.9037 Z-0.1017 F20.
X1.9051 Y1.3093 Z-0.1018
X1.9062 Y1.31
X1.907 Y1.3112 Z-0.1019
X1.9072 Y1.3125
X1.907 Y1.3138 Z-0.102
X1.9062 Y1.315
X1.9051 Y1.3157 Z-0.1021
X1.9037 Y1.316
X1.8412 Z-0.1043
X1.8399 Y1.3157 Z-0.1044
X1.8388 Y1.315
X1.838 Y1.3138
X1.8377 Y1.3125 Z-0.1045
X1.838 Y1.3112
X1.8388 Y1.31 Z-0.1046
X1.8399 Y1.3093
X1.8412 Y1.309 Z-0.1047
X1.9037 Z-0.1069
X1.9051 Y1.3093
X1.9062 Y1.31 Z-0.107
X1.907 Y1.3112
X1.9072 Y1.3125 Z-0.1071
X1.907 Y1.3138
X1.9062 Y1.315 Z-0.1072
X1.9051 Y1.3157
X1.9037 Y1.316 Z-0.1073
X1.8412 Z-0.1094
X1.8399 Y1.3157 Z-0.1095
X1.8388 Y1.315
X1.838 Y1.3138 Z-0.1096
X1.8377 Y1.3125
X1.838 Y1.3112 Z-0.1097
X1.8388 Y1.31
X1.8399 Y1.3093 Z-0.1098
X1.8412 Y1.309
X1.9037 Z-0.112
X1.9051 Y1.3093 Z-0.1121
X1.9062 Y1.31
X1.907 Y1.3112
X1.9072 Y1.3125 Z-0.1122
X1.907 Y1.3138
X1.9062 Y1.315 Z-0.1123
X1.9051 Y1.3157
X1.9037 Y1.316 Z-0.1124
X1.8412 Z-0.1146
X1.8399 Y1.3157
X1.8388 Y1.315 Z-0.1147
X1.838 Y1.3138
X1.8377 Y1.3125 Z-0.1148
X1.838 Y1.3112
X1.8388 Y1.31 Z-0.1149
X1.8399 Y1.3093
X1.8412 Y1.309 Z-0.115
X1.9037 Z-0.1171
X1.9051 Y1.3093 Z-0.1172
X1.9062 Y1.31
X1.907 Y1.3112 Z-0.1173
X1.9072 Y1.3125
X1.907 Y1.3138 Z-0.1174
X1.9062 Y1.315
X1.9051 Y1.3157 Z-0.1175
X1.9037 Y1.316
X1.8412 Z-0.1197
X1.8399 Y1.3157 Z-0.1198
X1.8387 Y1.3149
X1.838 Y1.3137 Z-0.1199
X1.8378 Y1.3123
X1.8381 Y1.311 Z-0.12
X1.839 Y1.3098
X1.84 Y1.3092 F40.
X1.8412 Y1.309
X1.9037
X1.9051 Y1.3093
X1.9062 Y1.31
X1.907 Y1.3112
X1.9072 Y1.3125
X1.907 Y1.3138
X1.9062 Y1.315
X1.9051 Y1.3157
X1.9037 Y1.316
X1.8412
X1.8399 Y1.3157
X1.8387 Y1.3149
X1.838 Y1.3137
X1.8378 Y1.3123
X1.8381 Y1.311
X1.839 Y1.3098
X1.84 Y1.3092 F20.
X1.8412 Y1.309 Z-0.1201
X1.9037 Z-0.1223
X1.9051 Y1.3093
X1.9062 Y1.31 Z-0.1224
X1.907 Y1.3112
X1.9072 Y1.3125 Z-0.1225
X1.907 Y1.3138
X1.9062 Y1.315 Z-0.1226
X1.9051 Y1.3157
X1.9037 Y1.316 Z-0.1227
X1.8412 Z-0.1248
X1.8399 Y1.3157 Z-0.1249
X1.8388 Y1.315
X1.838 Y1.3138 Z-0.125
X1.8377 Y1.3125
X1.838 Y1.3112 Z-0.1251
X1.8388 Y1.31
X1.8399 Y1.3093 Z-0.1252
X1.8412 Y1.309
X1.9037 Z-0.1274
X1.9051 Y1.3093 Z-0.1275
X1.9062 Y1.31
X1.907 Y1.3112
X1.9072 Y1.3125 Z-0.1276
X1.907 Y1.3138
X1.9062 Y1.315 Z-0.1277
X1.9051 Y1.3157
X1.9037 Y1.316 Z-0.1278
X1.8412 Z-0.13
X1.8399 Y1.3157
X1.8388 Y1.315 Z-0.1301
X1.838 Y1.3138
X1.8377 Y1.3125 Z-0.1302
X1.838 Y1.3112
X1.8388 Y1.31 Z-0.1303
X1.8399 Y1.3093
X1.8412 Y1.309 Z-0.1304
X1.9037 Z-0.1325
X1.9051 Y1.3093 Z-0.1326
X1.9062 Y1.31
X1.907 Y1.3112 Z-0.1327
X1.9072 Y1.3125
X1.907 Y1.3138 Z-0.1328
X1.9062 Y1.315
X1.9051 Y1.3157 Z-0.1329
X1.9037 Y1.316
X1.8412 Z-0.1351
X1.8399 Y1.3157 Z-0.1352
X1.8388 Y1.315
X1.838 Y1.3138
X1.8377 Y1.3125 Z-0.1353
X1.838 Y1.3112
X1.8388 Y1.31 Z-0.1354
X1.8399 Y1.3093
X1.8412 Y1.309 Z-0.1355
X1.9037 Z-0.1377
X1.9051 Y1.3093
X1.9062 Y1.31 Z-0.1378
X1.907 Y1.3112
X1.9072 Y1.3125 Z-0.1379
X1.907 Y1.3138
X1.9062 Y1.315 Z-0.138
X1.9051 Y1.3157
X1.9037 Y1.316 Z-0.1381
X1.848 Z-0.14
X1.8412 F40.
X1.8399 Y1.3157
X1.8388 Y1.315
X1.838 Y1.3138
X1.8377 Y1.3125
X1.838 Y1.3112
X1.8388 Y1.31
X1.8399 Y1.3093
X1.8412 Y1.309
X1.9037
X1.9051 Y1.3093
X1.9062 Y1.31
X1.907 Y1.3112
X1.9072 Y1.3125
X1.907 Y1.3138
X1.9062 Y1.315
X1.9051 Y1.3157
X1.9037 Y1.316
X1.848
X1.8412 Z-0.1402 F20.
X1.8399 Y1.3157 Z-0.1403
X1.8388 Y1.315
X1.838 Y1.3138 Z-0.1404
X1.8377 Y1.3125
X1.838 Y1.3112 Z-0.1405
X1.8388 Y1.31
X1.8399 Y1.3093 Z-0.1406
X1.8412 Y1.309
X1.9037 Z-0.1428
X1.9051 Y1.3093
X1.9062 Y1.31 Z-0.1429
X1.907 Y1.3112
X1.9072 Y1.3125 Z-0.143
X1.907 Y1.3138
X1.9062 Y1.315 Z-0.1431
X1.9051 Y1.3157
X1.9037 Y1.316 Z-0.1432
X1.8412 Z-0.1454
X1.8399 Y1.3157
X1.8388 Y1.315 Z-0.1455
X1.838 Y1.3138
X1.8377 Y1.3125 Z-0.1456
X1.838 Y1.3112
X1.8388 Y1.31 Z-0.1457
X1.8399 Y1.3093
X1.8412 Y1.309 Z-0.1458
X1.9037 Z-0.1479
X1.9051 Y1.3093 Z-0.148
X1.9062 Y1.31
X1.907 Y1.3112 Z-0.1481
X1.9072 Y1.3125
X1.907 Y1.3138 Z-0.1482
X1.9062 Y1.315
X1.9051 Y1.3157 Z-0.1483
X1.9037 Y1.316
X1.8412 Z-0.1505
X1.8399 Y1.3157
X1.8388 Y1.315 Z-0.1506
X1.838 Y1.3138
X1.8377 Y1.3125 Z-0.1507
X1.838 Y1.3112
X1.8388 Y1.31 Z-0.1508
X1.8399 Y1.3093
X1.8412 Y1.309 Z-0.1509
X1.9037 Z-0.1531
X1.9051 Y1.3093
X1.9062 Y1.31 Z-0.1532
X1.907 Y1.3112
X1.9072 Y1.3125 Z-0.1533
X1.907 Y1.3138
X1.9062 Y1.315 Z-0.1534
X1.9051 Y1.3157
X1.9037 Y1.316 Z-0.1535
X1.8412 Z-0.1556
X1.8399 Y1.3157 Z-0.1557
X1.8388 Y1.315
X1.838 Y1.3138 Z-0.1558
X1.8377 Y1.3125
X1.838 Y1.3112 Z-0.1559
X1.8388 Y1.31
X1.8399 Y1.3093 Z-0.156
X1.8412 Y1.309
X1.9037 Z-0.1582
X1.9051 Y1.3093
X1.9062 Y1.31 Z-0.1583
X1.907 Y1.3112
X1.9072 Y1.3125 Z-0.1584
X1.907 Y1.3138
X1.9062 Y1.315 Z-0.1585
X1.9051 Y1.3157
X1.9037 Y1.316 Z-0.1586
X1.8632 Z-0.16
X1.848 F40.
X1.8412
X1.8399 Y1.3157
X1.8388 Y1.315
X1.838 Y1.3138
X1.8377 Y1.3125
X1.838 Y1.3112
X1.8388 Y1.31
X1.8399 Y1.3093
X1.8412 Y1.309
X1.9037
X1.9051 Y1.3093
X1.9062 Y1.31
X1.907 Y1.3112
X1.9072 Y1.3125
X1.907 Y1.3138
X1.9062 Y1.315
X1.9051 Y1.3157
X1.9037 Y1.316
X1.8632
X1.8412 Z-0.1608 F20.
X1.8399 Y1.3157
X1.8388 Y1.315 Z-0.1609
X1.838 Y1.3138
X1.8377 Y1.3125 Z-0.161
X1.838 Y1.3112
X1.8388 Y1.31 Z-0.1611
X1.8399 Y1.3093
X1.8412 Y1.309 Z-0.1612
X1.9037 Z-0.1633
X1.9051 Y1.3093 Z-0.1634
X1.9062 Y1.31
X1.907 Y1.3112 Z-0.1635
X1.9072 Y1.3125
X1.907 Y1.3138 Z-0.1636
X1.9062 Y1.315
X1.9051 Y1.3157 Z-0.1637
X1.9037 Y1.316
X1.8412 Z-0.1659
X1.8399 Y1.3157
X1.8388 Y1.315 Z-0.166
X1.838 Y1.3138
X1.8377 Y1.3125 Z-0.1661
X1.838 Y1.3112
X1.8388 Y1.31 Z-0.1662
X1.8399 Y1.3093
X1.8412 Y1.309 Z-0.1663
X1.9037 Z-0.1685
X1.9051 Y1.3093
X1.9062 Y1.31 Z-0.1686
X1.907 Y1.3112
X1.9072 Y1.3125 Z-0.1687
X1.907 Y1.3138
X1.9062 Y1.315 Z-0.1688
X1.9051 Y1.3157
X1.9037 Y1.316 Z-0.1689
X1.8412 Z-0.171
X1.8399 Y1.3157 Z-0.1711
X1.8388 Y1.315
X1.838 Y1.3138 Z-0.1712
X1.8377 Y1.3125
X1.838 Y1.3112 Z-0.1713
X1.8388 Y1.31
X1.8399 Y1.3093 Z-0.1714
X1.8412 Y1.309
X1.9037 Z-0.1736
X1.9051 Y1.3093
X1.9062 Y1.31 Z-0.1737
X1.907 Y1.3112
X1.9072 Y1.3125 Z-0.1738
X1.907 Y1.3138
X1.9062 Y1.315 Z-0.1739
X1.9051 Y1.3157
X1.9037 Y1.316 Z-0.174
X1.8412 Z-0.1762
X1.8399 Y1.3157
X1.8388 Y1.315 Z-0.1763
X1.838 Y1.3138
X1.8377 Y1.3125 Z-0.1764
X1.838 Y1.3112
X1.8388 Y1.31 Z-0.1765
X1.8399 Y1.3093
X1.8412 Y1.309 Z-0.1766
X1.9037 Z-0.1787
X1.9051 Y1.3093 Z-0.1788
X1.9062 Y1.31
X1.907 Y1.3112 Z-0.1789
X1.9072 Y1.3125
X1.907 Y1.3138 Z-0.179
X1.9062 Y1.315
X1.9051 Y1.3157 Z-0.1791
X1.9037 Y1.316
X1.8785 Z-0.18
X1.8412 F40.
X1.8399 Y1.3157
X1.8388 Y1.315
X1.838 Y1.3138
X1.8377 Y1.3125
X1.838 Y1.3112
X1.8388 Y1.31
X1.8399 Y1.3093
X1.8412 Y1.309
X1.9037
X1.9051 Y1.3093
X1.9062 Y1.31
X1.907 Y1.3112
X1.9072 Y1.3125
X1.907 Y1.3138
X1.9062 Y1.315
X1.9051 Y1.3157
X1.9037 Y1.316
X1.8785
X1.8412 Z-0.1813 F20.
X1.8399 Y1.3157
X1.8388 Y1.315 Z-0.1814
X1.838 Y1.3138
X1.8377 Y1.3125 Z-0.1815
X1.838 Y1.3112
X1.8388 Y1.31 Z-0.1816
X1.8399 Y1.3093
X1.8412 Y1.309 Z-0.1817
X1.9037 Z-0.1839
X1.9051 Y1.3093
X1.9062 Y1.31 Z-0.184
X1.907 Y1.3112
X1.9072 Y1.3125 Z-0.1841
X1.907 Y1.3138
X1.9062 Y1.315 Z-0.1842
X1.9051 Y1.3157
X1.9037 Y1.316
X1.8412 Z-0.1864
X1.8399 Y1.3157 Z-0.1865
X1.8388 Y1.315
X1.838 Y1.3138 Z-0.1866
X1.8377 Y1.3125
X1.838 Y1.3112 Z-0.1867
X1.8388 Y1.31
X1.8399 Y1.3093 Z-0.1868
X1.8412 Y1.309
X1.9037 Z-0.189
X1.9051 Y1.3093
X1.9062 Y1.31 Z-0.1891
X1.907 Y1.3112
X1.9072 Y1.3125 Z-0.1892
X1.907 Y1.3138
X1.9062 Y1.315 Z-0.1893
X1.9051 Y1.3157
X1.9037 Y1.316 Z-0.1894
X1.8412 Z-0.1916
X1.8399 Y1.3157
X1.8388 Y1.315 Z-0.1917
X1.838 Y1.3138
X1.8377 Y1.3125 Z-0.1918
X1.838 Y1.3112
X1.8388 Y1.31 Z-0.1919
X1.8399 Y1.3093
X1.8412 Y1.309
X1.9037 Z-0.1941
X1.9051 Y1.3093 Z-0.1942
X1.9062 Y1.31
X1.907 Y1.3112 Z-0.1943
X1.9072 Y1.3125
X1.907 Y1.3138 Z-0.1944
X1.9062 Y1.315
X1.9051 Y1.3157 Z-0.1945
X1.9037 Y1.316
X1.8412 Z-0.1967
X1.8399 Y1.3157
X1.8388 Y1.315 Z-0.1968
X1.838 Y1.3138
X1.8377 Y1.3125 Z-0.1969
X1.838 Y1.3112
X1.8388 Y1.31 Z-0.197
X1.8399 Y1.3093
X1.8412 Y1.309 Z-0.1971
X1.9037 Z-0.1993
X1.9051 Y1.3093
X1.9062 Y1.31 Z-0.1994
X1.907 Y1.3112
X1.9072 Y1.3125 Z-0.1995
X1.907 Y1.3138
X1.9062 Y1.315 Z-0.1996
X1.9051 Y1.3157
X1.9037 Y1.316
X1.8937 Z-0.2
X1.8412 F40.
X1.8399 Y1.3157
X1.8388 Y1.315
X1.838 Y1.3138
X1.8377 Y1.3125
X1.838 Y1.3112
X1.8388 Y1.31
X1.8399 Y1.3093
X1.8412 Y1.309
X1.9037
X1.9051 Y1.3093
X1.9062 Y1.31
X1.907 Y1.3112
X1.9072 Y1.3125
X1.907 Y1.3138
X1.9062 Y1.315
X1.9051 Y1.3157
X1.9037 Y1.316
X1.8937
X1.8412 Z-0.2018 F20.
X1.8399 Y1.3157 Z-0.2019
X1.8388 Y1.315
X1.838 Y1.3138 Z-0.202
X1.8377 Y1.3125
X1.838 Y1.3112 Z-0.2021
X1.8388 Y1.31
X1.8399 Y1.3093 Z-0.2022
X1.8412 Y1.309
X1.9037 Z-0.2044
X1.9051 Y1.3093
X1.9062 Y1.31 Z-0.2045
X1.907 Y1.3112
X1.9072 Y1.3125 Z-0.2046
X1.907 Y1.3138
X1.9062 Y1.315 Z-0.2047
X1.9051 Y1.3157
X1.9037 Y1.316 Z-0.2048
X1.8412 Z-0.207
X1.8399 Y1.3157
X1.8388 Y1.315 Z-0.2071
X1.838 Y1.3138
X1.8377 Y1.3125 Z-0.2072
X1.838 Y1.3112
X1.8388 Y1.31 Z-0.2073
X1.8399 Y1.3093
X1.8412 Y1.309
X1.9037 Z-0.2095
X1.9051 Y1.3093 Z-0.2096
X1.9062 Y1.31
X1.907 Y1.3112 Z-0.2097
X1.9072 Y1.3125
X1.907 Y1.3138 Z-0.2098
X1.9062 Y1.315
X1.9051 Y1.3157 Z-0.2099
X1.9037 Y1.316
X1.8412 Z-0.2121
X1.8399 Y1.3157
X1.8388 Y1.315 Z-0.2122
X1.838 Y1.3138
X1.8377 Y1.3125 Z-0.2123
X1.838 Y1.3112
X1.8388 Y1.31 Z-0.2124
X1.8399 Y1.3093
X1.8412 Y1.309 Z-0.2125
X1.9037 Z-0.2147
X1.9051 Y1.3093
X1.9062 Y1.31 Z-0.2148
X1.907 Y1.3112
X1.9072 Y1.3125 Z-0.2149
X1.907 Y1.3138
X1.9062 Y1.315 Z-0.215
X1.9051 Y1.3157
X1.9037 Y1.316
X1.8412 Z-0.2172
X1.8399 Y1.3157 Z-0.2173
X1.8388 Y1.315
X1.838 Y1.3138 Z-0.2174
X1.8377 Y1.3125
X1.838 Y1.3112 Z-0.2175
X1.8388 Y1.31
X1.8399 Y1.3093 Z-0.2176
X1.8412 Y1.309
X1.9037 Z-0.2198
X1.9052 Y1.3093
X1.9063 Y1.3101 Z-0.2199
X1.9071 Y1.3114
X1.9072 Y1.3128 Z-0.22
X1.9069 Y1.314 F40.
X1.9061 Y1.3151
X1.905 Y1.3158
X1.9037 Y1.316
X1.8412
X1.8399 Y1.3157
X1.8388 Y1.315
X1.838 Y1.3138
X1.8377 Y1.3125
X1.838 Y1.3112
X1.8388 Y1.31
X1.8399 Y1.3093
X1.8412 Y1.309
X1.9037
X1.9052 Y1.3093
X1.9063 Y1.3101
X1.9071 Y1.3114
X1.9072 Y1.3128
X1.9069 Y1.314 F20.
X1.9061 Y1.3151 Z-0.2201
X1.905 Y1.3158
X1.9037 Y1.316 Z-0.2202
X1.8412 Z-0.2224
X1.8399 Y1.3157
X1.8388 Y1.315 Z-0.2225
X1.838 Y1.3138
X1.8377 Y1.3125 Z-0.2226
X1.838 Y1.3112
X1.8388 Y1.31 Z-0.2227
X1.8399 Y1.3093
X1.8412 Y1.309
X1.9037 Z-0.2249
X1.9051 Y1.3093 Z-0.225
X1.9062 Y1.31
X1.907 Y1.3112 Z-0.2251
X1.9072 Y1.3125
X1.907 Y1.3138 Z-0.2252
X1.9062 Y1.315
X1.9051 Y1.3157 Z-0.2253
X1.9037 Y1.316
X1.8412 Z-0.2275
X1.8399 Y1.3157
X1.8388 Y1.315 Z-0.2276
X1.838 Y1.3138
X1.8377 Y1.3125 Z-0.2277
X1.838 Y1.3112
X1.8388 Y1.31 Z-0.2278
X1.8399 Y1.3093
X1.8412 Y1.309 Z-0.2279
X1.9037 Z-0.2301
X1.9051 Y1.3093
X1.9062 Y1.31 Z-0.2302
X1.907 Y1.3112
X1.9072 Y1.3125 Z-0.2303
X1.907 Y1.3138
X1.9062 Y1.315 Z-0.2304
X1.9051 Y1.3157
X1.9037 Y1.316
X1.8412 Z-0.2326
X1.8399 Y1.3157 Z-0.2327
X1.8388 Y1.315
X1.838 Y1.3138 Z-0.2328
X1.8377 Y1.3125
X1.838 Y1.3112 Z-0.2329
X1.8388 Y1.31
X1.8399 Y1.3093 Z-0.233
X1.8412 Y1.309
X1.9037 Z-0.2352
X1.9051 Y1.3093
X1.9062 Y1.31 Z-0.2353
X1.907 Y1.3112
X1.9072 Y1.3125 Z-0.2354
X1.907 Y1.3138
X1.9062 Y1.315 Z-0.2355
X1.9051 Y1.3157
X1.9037 Y1.316 Z-0.2356
X1.8412 Z-0.2378
X1.8399 Y1.3157
X1.8388 Y1.315 Z-0.2379
X1.838 Y1.3138
X1.8377 Y1.3125 Z-0.238
X1.838 Y1.3112
X1.8388 Y1.31 Z-0.2381
X1.8399 Y1.3093
X1.8412 Y1.309
X1.8943 Z-0.24
X1.9037 F40.
X1.9051 Y1.3093
X1.9062 Y1.31
X1.907 Y1.3112
X1.9072 Y1.3125
X1.907 Y1.3138
X1.9062 Y1.315
X1.9051 Y1.3157
X1.9037 Y1.316
X1.8412
X1.8399 Y1.3157
X1.8388 Y1.315
X1.838 Y1.3138
X1.8377 Y1.3125
X1.838 Y1.3112
X1.8388 Y1.31
X1.8399 Y1.3093
X1.8412 Y1.309
X1.8943
X1.9037 Z-0.2403 F20.
X1.9051 Y1.3093 Z-0.2404
X1.9062 Y1.31
X1.907 Y1.3112 Z-0.2405
X1.9072 Y1.3125
X1.907 Y1.3138 Z-0.2406
X1.9062 Y1.315
X1.9051 Y1.3157 Z-0.2407
X1.9037 Y1.316
X1.8412 Z-0.2429
X1.8399 Y1.3157
X1.8388 Y1.315 Z-0.243
X1.838 Y1.3138
X1.8377 Y1.3125 Z-0.2431
X1.838 Y1.3112
X1.8388 Y1.31 Z-0.2432
X1.8399 Y1.3093
X1.8412 Y1.309 Z-0.2433
X1.9037 Z-0.2455
X1.9051 Y1.3093
X1.9062 Y1.31 Z-0.2456
X1.907 Y1.3112
X1.9072 Y1.3125 Z-0.2457
X1.907 Y1.3138
X1.9062 Y1.315 Z-0.2458
X1.9051 Y1.3157
X1.9037 Y1.316
X1.8412 Z-0.248
X1.8399 Y1.3157 Z-0.2481
X1.8388 Y1.315
X1.838 Y1.3138 Z-0.2482
X1.8377 Y1.3125
X1.838 Y1.3112 Z-0.2483
X1.8388 Y1.31
X1.8399 Y1.3093 Z-0.2484
X1.8412 Y1.309
X1.9037 Z-0.2506
X1.9051 Y1.3093
X1.9062 Y1.31 Z-0.2507
X1.907 Y1.3112
X1.9072 Y1.3125 Z-0.2508
X1.907 Y1.3138
X1.9062 Y1.315 Z-0.2509
X1.9051 Y1.3157
X1.9037 Y1.316 Z-0.251
X1.8412 Z-0.2532
X1.8399 Y1.3157
X1.8388 Y1.315 Z-0.2533
X1.838 Y1.3138
X1.8377 Y1.3125 Z-0.2534
X1.838 Y1.3112
X1.8388 Y1.31 Z-0.2535
X1.8399 Y1.3093
X1.8412 Y1.309
X1.9037 Z-0.2557
X1.9051 Y1.3093 Z-0.2558
X1.9062 Y1.31
X1.907 Y1.3112 Z-0.2559
X1.9072 Y1.3125
X1.907 Y1.3138 Z-0.256
X1.9062 Y1.315
X1.9051 Y1.3157 Z-0.2561
X1.9037 Y1.316
X1.8412 Z-0.2583
X1.8399 Y1.3157
X1.8388 Y1.315 Z-0.2584
X1.838 Y1.3138
X1.8377 Y1.3125 Z-0.2585
X1.838 Y1.3112
X1.8388 Y1.31 Z-0.2586
X1.8399 Y1.3093
X1.8412 Y1.309 Z-0.2587
X1.8791 Z-0.26
X1.8943 F40.
X1.9037
X1.9051 Y1.3093
X1.9062 Y1.31
X1.907 Y1.3112
X1.9072 Y1.3125
X1.907 Y1.3138
X1.9062 Y1.315
X1.9051 Y1.3157
X1.9037 Y1.316
X1.8412
X1.8399 Y1.3157
X1.8388 Y1.315
X1.838 Y1.3138
X1.8377 Y1.3125
X1.838 Y1.3112
X1.8388 Y1.31
X1.8399 Y1.3093
X1.8412 Y1.309
X1.8791
X1.9037 Z-0.2609 F20.
X1.9051 Y1.3093
X1.9062 Y1.31 Z-0.261
X1.907 Y1.3112
X1.9072 Y1.3125 Z-0.2611
X1.907 Y1.3138
X1.9062 Y1.315
X1.9051 Y1.3157 Z-0.2612
X1.9037 Y1.316
X1.8412 Z-0.2634
X1.8399 Y1.3157 Z-0.2635
X1.8388 Y1.315
X1.838 Y1.3138 Z-0.2636
X1.8377 Y1.3125
X1.838 Y1.3112 Z-0.2637
X1.8388 Y1.31
X1.8399 Y1.3093 Z-0.2638
X1.8412 Y1.309
X1.9037 Z-0.266
X1.9051 Y1.3093
X1.9062 Y1.31 Z-0.2661
X1.907 Y1.3112
X1.9072 Y1.3125 Z-0.2662
X1.907 Y1.3138
X1.9062 Y1.315 Z-0.2663
X1.9051 Y1.3157
X1.9037 Y1.316 Z-0.2664
X1.8412 Z-0.2686
X1.8399 Y1.3157
X1.8388 Y1.315 Z-0.2687
X1.838 Y1.3138
X1.8377 Y1.3125 Z-0.2688
X1.838 Y1.3112
X1.8388 Y1.31
X1.8399 Y1.3093 Z-0.2689
X1.8412 Y1.309
X1.9037 Z-0.2711
X1.9051 Y1.3093 Z-0.2712
X1.9062 Y1.31
X1.907 Y1.3112 Z-0.2713
X1.9072 Y1.3125
X1.907 Y1.3138 Z-0.2714
X1.9062 Y1.315
X1.9051 Y1.3157 Z-0.2715
X1.9037 Y1.316
X1.8412 Z-0.2737
X1.8399 Y1.3157
X1.8388 Y1.315 Z-0.2738
X1.838 Y1.3138
X1.8377 Y1.3125 Z-0.2739
X1.838 Y1.3112
X1.8388 Y1.31 Z-0.274
X1.8399 Y1.3093
X1.8412 Y1.309 Z-0.2741
X1.9037 Z-0.2763
X1.9051 Y1.3093
X1.9062 Y1.31 Z-0.2764
X1.907 Y1.3112
X1.9072 Y1.3125 Z-0.2765
X1.907 Y1.3138
X1.9062 Y1.315
X1.9051 Y1.3157 Z-0.2766
X1.9037 Y1.316
X1.8412 Z-0.2788
X1.8399 Y1.3157 Z-0.2789
X1.8388 Y1.315
X1.838 Y1.3138 Z-0.279
X1.8377 Y1.3125
X1.838 Y1.3112 Z-0.2791
X1.8388 Y1.31
X1.8399 Y1.3093 Z-0.2792
X1.8412 Y1.309
X1.8638 Z-0.28
X1.9037 F40.
X1.9051 Y1.3093
X1.9062 Y1.31
X1.907 Y1.3112
X1.9072 Y1.3125
X1.907 Y1.3138
X1.9062 Y1.315
X1.9051 Y1.3157
X1.9037 Y1.316
X1.8412
X1.8399 Y1.3157
X1.8388 Y1.315
X1.838 Y1.3138
X1.8377 Y1.3125
X1.838 Y1.3112
X1.8388 Y1.31
X1.8399 Y1.3093
X1.8412 Y1.309
X1.8638
X1.9037 Z-0.2814 F20.
X1.9051 Y1.3093
X1.9062 Y1.31 Z-0.2815
X1.907 Y1.3112
X1.9072 Y1.3125 Z-0.2816
X1.907 Y1.3138
X1.9062 Y1.315 Z-0.2817
X1.9051 Y1.3157
X1.9037 Y1.316 Z-0.2818
X1.8412 Z-0.284
X1.8399 Y1.3157
X1.8388 Y1.315 Z-0.2841
X1.838 Y1.3138
X1.8377 Y1.3125 Z-0.2842
X1.838 Y1.3112
X1.8388 Y1.31
X1.8399 Y1.3093 Z-0.2843
X1.8412 Y1.309
X1.9037 Z-0.2865
X1.9051 Y1.3093 Z-0.2866
X1.9062 Y1.31
X1.907 Y1.3112 Z-0.2867
X1.9072 Y1.3125
X1.907 Y1.3138 Z-0.2868
X1.9062 Y1.315
X1.9051 Y1.3157 Z-0.2869
X1.9037 Y1.316
X1.8412 Z-0.2891
X1.8399 Y1.3157
X1.8388 Y1.315 Z-0.2892
X1.838 Y1.3138
X1.8377 Y1.3125 Z-0.2893
X1.838 Y1.3112
X1.8388 Y1.31 Z-0.2894
X1.8399 Y1.3093
X1.8412 Y1.309 Z-0.2895
X1.8562 Z-0.29
X1.9037 F40.
X1.9051 Y1.3093
X1.9062 Y1.31
X1.907 Y1.3112
X1.9072 Y1.3125
X1.907 Y1.3138
X1.9062 Y1.315
X1.9051 Y1.3157
X1.9037 Y1.316
X1.8412
X1.8399 Y1.3157
X1.8388 Y1.315
X1.838 Y1.3138
X1.8377 Y1.3125
X1.838 Y1.3112
X1.8388 Y1.31
X1.8399 Y1.3093
X1.8412 Y1.309
X1.8562
G2 X1.868 Z-0.2782 I0. K0.0118
G0 Z0.2
X1.5735 Y1.2109
G1 Z0.1118 F40.
X1.574 Y1.2095 Z0.106 F20.
X1.5749 Y1.2076 Z0.1039
X1.5759 Y1.2057 Z0.1017
X1.5775 Y1.2034 Z0.1009
X1.5794 Y1.2012 Z0.1
G17 G3 X1.6151 Y1.2363 Z0.0973 I0.0178 J0.0175
X1.5794 Y1.2012 Z0.0945 I-0.0178 J-0.0175
X1.6151 Y1.2363 Z0.0918 I0.0178 J0.0175
X1.5794 Y1.2012 Z0.089 I-0.0178 J-0.0175
X1.6151 Y1.2363 Z0.0863 I0.0178 J0.0175
X1.5794 Y1.2012 Z0.0835 I-0.0178 J-0.0175
X1.6151 Y1.2363 Z0.0808 I0.0178 J0.0175
X1.5794 Y1.2012 Z0.0781 I-0.0178 J-0.0175
X1.6151 Y1.2363 Z0.0753 I0.0178 J0.0175
X1.5794 Y1.2012 Z0.0726 I-0.0178 J-0.0175
X1.6151 Y1.2363 Z0.0698 I0.0178 J0.0175
X1.5794 Y1.2012 Z0.0671 I-0.0178 J-0.0175
X1.6151 Y1.2363 Z0.0643 I0.0178 J0.0175
X1.5794 Y1.2012 Z0.0616 I-0.0178 J-0.0175
X1.6151 Y1.2363 Z0.0589 I0.0178 J0.0175
X1.5794 Y1.2012 Z0.0561 I-0.0178 J-0.0175
X1.6151 Y1.2363 Z0.0534 I0.0178 J0.0175
X1.5794 Y1.2012 Z0.0506 I-0.0178 J-0.0175
X1.6151 Y1.2363 Z0.0479 I0.0178 J0.0175
X1.5794 Y1.2012 Z0.0451 I-0.0178 J-0.0175
X1.6151 Y1.2363 Z0.0424 I0.0178 J0.0175
X1.5794 Y1.2012 Z0.0397 I-0.0178 J-0.0175
X1.6151 Y1.2363 Z0.0369 I0.0178 J0.0175
X1.5794 Y1.2012 Z0.0342 I-0.0178 J-0.0175
X1.6151 Y1.2363 Z0.0314 I0.0178 J0.0175
X1.5794 Y1.2012 Z0.0287 I-0.0178 J-0.0175
X1.6151 Y1.2363 Z0.0259 I0.0178 J0.0175
X1.5794 Y1.2012 Z0.0232 I-0.0178 J-0.0175
X1.6151 Y1.2363 Z0.0205 I0.0178 J0.0175
X1.5794 Y1.2012 Z0.0177 I-0.0178 J-0.0175
X1.6151 Y1.2363 Z0.015 I0.0178 J0.0175
X1.5794 Y1.2012 Z0.0122 I-0.0178 J-0.0175
X1.6151 Y1.2363 Z0.0095 I0.0178 J0.0175
X1.5794 Y1.2012 Z0.0067 I-0.0178 J-0.0175
X1.6151 Y1.2363 Z0.004 I0.0178 J0.0175
X1.5794 Y1.2012 Z0.0013 I-0.0178 J-0.0175
X1.6151 Y1.2363 Z-0.0015 I0.0178 J0.0175
X1.5794 Y1.2012 Z-0.0042 I-0.0178 J-0.0175
X1.6151 Y1.2363 Z-0.007 I0.0178 J0.0175
X1.5794 Y1.2012 Z-0.0097 I-0.0178 J-0.0175
X1.6151 Y1.2363 Z-0.0124 I0.0178 J0.0175
X1.5794 Y1.2012 Z-0.0152 I-0.0178 J-0.0175
X1.6151 Y1.2363 Z-0.0179 I0.0178 J0.0175
X1.5722 Y1.2187 Z-0.02 I-0.0178 J-0.0175
G1 Y0.9 F40.
G3 X1.585 Y0.8872 I0.0128 J0.
G1 X1.5975
G3 X1.6103 Y0.9 I0. J0.0128
G1 Y1.225
G3 X1.5975 Y1.2378 I-0.0128 J0.
G1 X1.585
G3 X1.5722 Y1.225 I0. J-0.0128
G1 Y1.2187
G2 X1.5527 Y1.1894 I-0.0318 J0.
G3 X1.5331 Y1.16 I0.0122 J-0.0294
G1 Y0.8516
X1.5333 Y0.8502
X1.5341 Y0.8491
X1.5352 Y0.8483
X1.5366 Y0.8481
X1.6459
X1.6473 Y0.8483
X1.6484 Y0.8491
X1.6492 Y0.8502
X1.6494 Y0.8516
Y1.2734
X1.6492 Y1.2748
X1.6484 Y1.2759
X1.6473 Y1.2767
X1.6459 Y1.2769
X1.5366
X1.5352 Y1.2767
X1.5341 Y1.2759
X1.5333 Y1.2748
X1.5331 Y1.2734
Y1.16
G3 X1.5424 Y1.1552 I0.0059 J0.
G1 X1.5656 Y1.1718
X1.5997 Y1.2003
X1.6006 Y1.2008
X1.6017 Y1.201
X1.6027 Y1.2008
X1.6095 Y1.1984
X1.6105 Y1.1983
X1.6115 Y1.1984
X1.6124 Y1.1989
G3 X1.5821 Y1.2386 Z-0.0227 I-0.0152 J0.0199 F20.
X1.6124 Y1.1989 Z-0.0255 I0.0152 J-0.0199
X1.5821 Y1.2386 Z-0.0282 I-0.0152 J0.0199
X1.6124 Y1.1989 Z-0.031 I0.0152 J-0.0199
X1.5821 Y1.2386 Z-0.0337 I-0.0152 J0.0199
X1.6124 Y1.1989 Z-0.0365 I0.0152 J-0.0199
X1.5821 Y1.2386 Z-0.0392 I-0.0152 J0.0199
X1.5722 Y1.2187 Z-0.04 I0.0152 J-0.0199
G1 Y0.9 F40.
G3 X1.585 Y0.8872 I0.0128 J0.
G1 X1.5975
G3 X1.6103 Y0.9 I0. J0.0128
G1 Y1.225
G3 X1.5975 Y1.2378 I-0.0128 J0.
G1 X1.585
G3 X1.5722 Y1.225 I0. J-0.0128
G1 Y1.2187
G2 X1.5527 Y1.1894 I-0.0318 J0.
G3 X1.5331 Y1.16 I0.0122 J-0.0294
G1 Y0.8516
X1.5333 Y0.8502
X1.5341 Y0.8491
X1.5352 Y0.8483
X1.5366 Y0.8481
X1.6459
X1.6473 Y0.8483
X1.6484 Y0.8491
X1.6492 Y0.8502
X1.6494 Y0.8516
Y1.2734
X1.6492 Y1.2748
X1.6484 Y1.2759
X1.6473 Y1.2767
X1.6459 Y1.2769
X1.5366
X1.5352 Y1.2767
X1.5341 Y1.2759
X1.5333 Y1.2748
X1.5331 Y1.2734
Y1.16
G3 X1.5424 Y1.1552 I0.0059 J0.
G1 X1.5656 Y1.1718
X1.5997 Y1.2003
X1.6006 Y1.2008
X1.6017 Y1.201
X1.6027 Y1.2008
X1.6095 Y1.1984
X1.6105 Y1.1983
X1.6115 Y1.1984
X1.6124 Y1.1989
G3 X1.5821 Y1.2386 Z-0.0427 I-0.0152 J0.0199 F20.
X1.6124 Y1.1989 Z-0.0455 I0.0152 J-0.0199
X1.5821 Y1.2386 Z-0.0482 I-0.0152 J0.0199
X1.6124 Y1.1989 Z-0.051 I0.0152 J-0.0199
X1.5821 Y1.2386 Z-0.0537 I-0.0152 J0.0199
X1.6124 Y1.1989 Z-0.0565 I0.0152 J-0.0199
X1.5821 Y1.2386 Z-0.0592 I-0.0152 J0.0199
X1.5722 Y1.2187 Z-0.06 I0.0152 J-0.0199
G1 Y0.9 F40.
G3 X1.585 Y0.8872 I0.0128 J0.
G1 X1.5975
G3 X1.6103 Y0.9 I0. J0.0128
G1 Y1.225
G3 X1.5975 Y1.2378 I-0.0128 J0.
G1 X1.585
G3 X1.5722 Y1.225 I0. J-0.0128
G1 Y1.2187
G2 X1.5527 Y1.1894 I-0.0318 J0.
G3 X1.5331 Y1.16 I0.0122 J-0.0294
G1 Y0.8516
X1.5333 Y0.8502
X1.5341 Y0.8491
X1.5352 Y0.8483
X1.5366 Y0.8481
X1.6459
X1.6473 Y0.8483
X1.6484 Y0.8491
X1.6492 Y0.8502
X1.6494 Y0.8516
Y1.2734
X1.6492 Y1.2748
X1.6484 Y1.2759
X1.6473 Y1.2767
X1.6459 Y1.2769
X1.5366
X1.5352 Y1.2767
X1.5341 Y1.2759
X1.5333 Y1.2748
X1.5331 Y1.2734
Y1.16
G3 X1.5424 Y1.1552 I0.0059 J0.
G1 X1.5656 Y1.1718
X1.5997 Y1.2003
X1.6006 Y1.2008
X1.6017 Y1.201
X1.6027 Y1.2008
X1.6095 Y1.1984
X1.6105 Y1.1983
X1.6115 Y1.1984
X1.6124 Y1.1989
G3 X1.5821 Y1.2386 Z-0.0627 I-0.0152 J0.0199 F20.
X1.6124 Y1.1989 Z-0.0655 I0.0152 J-0.0199
X1.5821 Y1.2386 Z-0.0682 I-0.0152 J0.0199
X1.6124 Y1.1989 Z-0.071 I0.0152 J-0.0199
X1.5821 Y1.2386 Z-0.0737 I-0.0152 J0.0199
X1.6124 Y1.1989 Z-0.0765 I0.0152 J-0.0199
X1.5821 Y1.2386 Z-0.0792 I-0.0152 J0.0199
X1.5722 Y1.2187 Z-0.08 I0.0152 J-0.0199
G1 Y0.9 F40.
G3 X1.585 Y0.8872 I0.0128 J0.
G1 X1.5975
G3 X1.6103 Y0.9 I0. J0.0128
G1 Y1.225
G3 X1.5975 Y1.2378 I-0.0128 J0.
G1 X1.585
G3 X1.5722 Y1.225 I0. J-0.0128
G1 Y1.2187
G2 X1.5527 Y1.1894 I-0.0318 J0.
G3 X1.5331 Y1.16 I0.0122 J-0.0294
G1 Y0.8516
X1.5333 Y0.8502
X1.5341 Y0.8491
X1.5352 Y0.8483
X1.5366 Y0.8481
X1.6459
X1.6473 Y0.8483
X1.6484 Y0.8491
X1.6492 Y0.8502
X1.6494 Y0.8516
Y1.2734
X1.6492 Y1.2748
X1.6484 Y1.2759
X1.6473 Y1.2767
X1.6459 Y1.2769
X1.5366
X1.5352 Y1.2767
X1.5341 Y1.2759
X1.5333 Y1.2748
X1.5331 Y1.2734
Y1.16
G3 X1.5424 Y1.1552 I0.0059 J0.
G1 X1.5656 Y1.1718
X1.5997 Y1.2003
X1.6006 Y1.2008
X1.6017 Y1.201
X1.6027 Y1.2008
X1.6095 Y1.1984
X1.6105 Y1.1983
X1.6115 Y1.1984
X1.6124 Y1.1989
G3 X1.5821 Y1.2386 Z-0.0827 I-0.0152 J0.0199 F20.
X1.6124 Y1.1989 Z-0.0855 I0.0152 J-0.0199
X1.5821 Y1.2386 Z-0.0882 I-0.0152 J0.0199
X1.6124 Y1.1989 Z-0.091 I0.0152 J-0.0199
X1.5821 Y1.2386 Z-0.0937 I-0.0152 J0.0199
X1.6124 Y1.1989 Z-0.0965 I0.0152 J-0.0199
X1.5821 Y1.2386 Z-0.0992 I-0.0152 J0.0199
X1.5722 Y1.2187 Z-0.1 I0.0152 J-0.0199
G1 Y0.9 F40.
G3 X1.585 Y0.8872 I0.0128 J0.
G1 X1.5975
G3 X1.6103 Y0.9 I0. J0.0128
G1 Y1.225
G3 X1.5975 Y1.2378 I-0.0128 J0.
G1 X1.585
G3 X1.5722 Y1.225 I0. J-0.0128
G1 Y1.2187
G2 X1.5527 Y1.1894 I-0.0318 J0.
G3 X1.5331 Y1.16 I0.0122 J-0.0294
G1 Y0.8516
X1.5333 Y0.8502
X1.5341 Y0.8491
X1.5352 Y0.8483
X1.5366 Y0.8481
X1.6459
X1.6473 Y0.8483
X1.6484 Y0.8491
X1.6492 Y0.8502
X1.6494 Y0.8516
Y1.2734
X1.6492 Y1.2748
X1.6484 Y1.2759
X1.6473 Y1.2767
X1.6459 Y1.2769
X1.5366
X1.5352 Y1.2767
X1.5341 Y1.2759
X1.5333 Y1.2748
X1.5331 Y1.2734
Y1.16
G3 X1.5424 Y1.1552 I0.0059 J0.
G1 X1.5656 Y1.1718
X1.5997 Y1.2003
X1.6006 Y1.2008
X1.6017 Y1.201
X1.6027 Y1.2008
X1.6095 Y1.1984
X1.6105 Y1.1983
X1.6115 Y1.1984
X1.6124 Y1.1989
G3 X1.5821 Y1.2386 Z-0.1027 I-0.0152 J0.0199 F20.
X1.6124 Y1.1989 Z-0.1055 I0.0152 J-0.0199
X1.5821 Y1.2386 Z-0.1082 I-0.0152 J0.0199
X1.6124 Y1.1989 Z-0.111 I0.0152 J-0.0199
X1.5821 Y1.2386 Z-0.1137 I-0.0152 J0.0199
X1.6124 Y1.1989 Z-0.1165 I0.0152 J-0.0199
X1.5821 Y1.2386 Z-0.1192 I-0.0152 J0.0199
X1.5722 Y1.2187 Z-0.12 I0.0152 J-0.0199
G1 Y0.9 F40.
G3 X1.585 Y0.8872 I0.0128 J0.
G1 X1.5975
G3 X1.6103 Y0.9 I0. J0.0128
G1 Y1.225
G3 X1.5975 Y1.2378 I-0.0128 J0.
G1 X1.585
G3 X1.5722 Y1.225 I0. J-0.0128
G1 Y1.2187
G2 X1.5527 Y1.1894 I-0.0318 J0.
G3 X1.5331 Y1.16 I0.0122 J-0.0294
G1 Y0.8516
X1.5333 Y0.8502
X1.5341 Y0.8491
X1.5352 Y0.8483
X1.5366 Y0.8481
X1.6459
X1.6473 Y0.8483
X1.6484 Y0.8491
X1.6492 Y0.8502
X1.6494 Y0.8516
Y1.2734
X1.6492 Y1.2748
X1.6484 Y1.2759
X1.6473 Y1.2767
X1.6459 Y1.2769
X1.5366
X1.5352 Y1.2767
X1.5341 Y1.2759
X1.5333 Y1.2748
X1.5331 Y1.2734
Y1.16
G3 X1.5424 Y1.1552 I0.0059 J0.
G1 X1.5656 Y1.1718
X1.5997 Y1.2003
X1.6006 Y1.2008
X1.6017 Y1.201
X1.6027 Y1.2008
X1.6095 Y1.1984
X1.6105 Y1.1983
X1.6115 Y1.1984
X1.6124 Y1.1989
G3 X1.5821 Y1.2386 Z-0.1227 I-0.0152 J0.0199 F20.
X1.6124 Y1.1989 Z-0.1255 I0.0152 J-0.0199
X1.5821 Y1.2386 Z-0.1282 I-0.0152 J0.0199
X1.6124 Y1.1989 Z-0.131 I0.0152 J-0.0199
X1.5821 Y1.2386 Z-0.1337 I-0.0152 J0.0199
X1.6124 Y1.1989 Z-0.1365 I0.0152 J-0.0199
X1.5821 Y1.2386 Z-0.1392 I-0.0152 J0.0199
X1.5722 Y1.2187 Z-0.14 I0.0152 J-0.0199
G1 Y0.9 F40.
G3 X1.585 Y0.8872 I0.0128 J0.
G1 X1.5975
G3 X1.6103 Y0.9 I0. J0.0128
G1 Y1.225
G3 X1.5975 Y1.2378 I-0.0128 J0.
G1 X1.585
G3 X1.5722 Y1.225 I0. J-0.0128
G1 Y1.2187
G2 X1.5527 Y1.1894 I-0.0318 J0.
G3 X1.5331 Y1.16 I0.0122 J-0.0294
G1 Y0.8516
X1.5333 Y0.8502
X1.5341 Y0.8491
X1.5352 Y0.8483
X1.5366 Y0.8481
X1.6459
X1.6473 Y0.8483
X1.6484 Y0.8491
X1.6492 Y0.8502
X1.6494 Y0.8516
Y1.2734
X1.6492 Y1.2748
X1.6484 Y1.2759
X1.6473 Y1.2767
X1.6459 Y1.2769
X1.5366
X1.5352 Y1.2767
X1.5341 Y1.2759
X1.5333 Y1.2748
X1.5331 Y1.2734
Y1.16
G3 X1.5424 Y1.1552 I0.0059 J0.
G1 X1.5656 Y1.1718
X1.5997 Y1.2003
X1.6006 Y1.2008
X1.6017 Y1.201
X1.6027 Y1.2008
X1.6095 Y1.1984
X1.6105 Y1.1983
X1.6115 Y1.1984
X1.6124 Y1.1989
G3 X1.5821 Y1.2386 Z-0.1427 I-0.0152 J0.0199 F20.
X1.6124 Y1.1989 Z-0.1455 I0.0152 J-0.0199
X1.5821 Y1.2386 Z-0.1482 I-0.0152 J0.0199
X1.6124 Y1.1989 Z-0.151 I0.0152 J-0.0199
X1.5821 Y1.2386 Z-0.1537 I-0.0152 J0.0199
X1.6124 Y1.1989 Z-0.1565 I0.0152 J-0.0199
X1.5821 Y1.2386 Z-0.1592 I-0.0152 J0.0199
X1.5722 Y1.2187 Z-0.16 I0.0152 J-0.0199
G1 Y0.9 F40.
G3 X1.585 Y0.8872 I0.0128 J0.
G1 X1.5975
G3 X1.6103 Y0.9 I0. J0.0128
G1 Y1.225
G3 X1.5975 Y1.2378 I-0.0128 J0.
G1 X1.585
G3 X1.5722 Y1.225 I0. J-0.0128
G1 Y1.2187
G2 X1.5527 Y1.1894 I-0.0318 J0.
G3 X1.5331 Y1.16 I0.0122 J-0.0294
G1 Y0.8516
X1.5333 Y0.8502
X1.5341 Y0.8491
X1.5352 Y0.8483
X1.5366 Y0.8481
X1.6459
X1.6473 Y0.8483
X1.6484 Y0.8491
X1.6492 Y0.8502
X1.6494 Y0.8516
Y1.2734
X1.6492 Y1.2748
X1.6484 Y1.2759
X1.6473 Y1.2767
X1.6459 Y1.2769
X1.5366
X1.5352 Y1.2767
X1.5341 Y1.2759
X1.5333 Y1.2748
X1.5331 Y1.2734
Y1.16
G3 X1.5424 Y1.1552 I0.0059 J0.
G1 X1.5656 Y1.1718
X1.5997 Y1.2003
X1.6006 Y1.2008
X1.6017 Y1.201
X1.6027 Y1.2008
X1.6095 Y1.1984
X1.6105 Y1.1983
X1.6115 Y1.1984
X1.6124 Y1.1989
G3 X1.5821 Y1.2386 Z-0.1627 I-0.0152 J0.0199 F20.
X1.6124 Y1.1989 Z-0.1655 I0.0152 J-0.0199
X1.5821 Y1.2386 Z-0.1682 I-0.0152 J0.0199
X1.6124 Y1.1989 Z-0.171 I0.0152 J-0.0199
X1.5821 Y1.2386 Z-0.1737 I-0.0152 J0.0199
X1.6124 Y1.1989 Z-0.1765 I0.0152 J-0.0199
X1.5821 Y1.2386 Z-0.1792 I-0.0152 J0.0199
X1.5722 Y1.2187 Z-0.18 I0.0152 J-0.0199
G1 Y0.9 F40.
G3 X1.585 Y0.8872 I0.0128 J0.
G1 X1.5975
G3 X1.6103 Y0.9 I0. J0.0128
G1 Y1.225
G3 X1.5975 Y1.2378 I-0.0128 J0.
G1 X1.585
G3 X1.5722 Y1.225 I0. J-0.0128
G1 Y1.2187
G2 X1.5527 Y1.1894 I-0.0318 J0.
G3 X1.5331 Y1.16 I0.0122 J-0.0294
G1 Y0.8516
X1.5333 Y0.8502
X1.5341 Y0.8491
X1.5352 Y0.8483
X1.5366 Y0.8481
X1.6459
X1.6473 Y0.8483
X1.6484 Y0.8491
X1.6492 Y0.8502
X1.6494 Y0.8516
Y1.2734
X1.6492 Y1.2748
X1.6484 Y1.2759
X1.6473 Y1.2767
X1.6459 Y1.2769
X1.5366
X1.5352 Y1.2767
X1.5341 Y1.2759
X1.5333 Y1.2748
X1.5331 Y1.2734
Y1.16
G3 X1.5424 Y1.1552 I0.0059 J0.
G1 X1.5656 Y1.1718
X1.5997 Y1.2003
X1.6006 Y1.2008
X1.6017 Y1.201
X1.6027 Y1.2008
X1.6095 Y1.1984
X1.6105 Y1.1983
X1.6115 Y1.1984
X1.6124 Y1.1989
G3 X1.5821 Y1.2386 Z-0.1827 I-0.0152 J0.0199 F20.
X1.6124 Y1.1989 Z-0.1855 I0.0152 J-0.0199
X1.5821 Y1.2386 Z-0.1882 I-0.0152 J0.0199
X1.6124 Y1.1989 Z-0.191 I0.0152 J-0.0199
X1.5821 Y1.2386 Z-0.1937 I-0.0152 J0.0199
X1.6124 Y1.1989 Z-0.1965 I0.0152 J-0.0199
X1.5821 Y1.2386 Z-0.1992 I-0.0152 J0.0199
X1.5722 Y1.2187 Z-0.2 I0.0152 J-0.0199
G1 Y0.9 F40.
G3 X1.585 Y0.8872 I0.0128 J0.
G1 X1.5975
G3 X1.6103 Y0.9 I0. J0.0128
G1 Y1.225
G3 X1.5975 Y1.2378 I-0.0128 J0.
G1 X1.585
G3 X1.5722 Y1.225 I0. J-0.0128
G1 Y1.2187
G2 X1.5527 Y1.1894 I-0.0318 J0.
G3 X1.5331 Y1.16 I0.0122 J-0.0294
G1 Y0.8516
X1.5333 Y0.8502
X1.5341 Y0.8491
X1.5352 Y0.8483
X1.5366 Y0.8481
X1.6459
X1.6473 Y0.8483
X1.6484 Y0.8491
X1.6492 Y0.8502
X1.6494 Y0.8516
Y1.2734
X1.6492 Y1.2748
X1.6484 Y1.2759
X1.6473 Y1.2767
X1.6459 Y1.2769
X1.5366
X1.5352 Y1.2767
X1.5341 Y1.2759
X1.5333 Y1.2748
X1.5331 Y1.2734
Y1.16
G3 X1.5424 Y1.1552 I0.0059 J0.
G1 X1.5656 Y1.1718
X1.5997 Y1.2003
X1.6006 Y1.2008
X1.6017 Y1.201
X1.6027 Y1.2008
X1.6095 Y1.1984
X1.6105 Y1.1983
X1.6115 Y1.1984
X1.6124 Y1.1989
G3 X1.5821 Y1.2386 Z-0.2027 I-0.0152 J0.0199 F20.
X1.6124 Y1.1989 Z-0.2055 I0.0152 J-0.0199
X1.5821 Y1.2386 Z-0.2082 I-0.0152 J0.0199
X1.6124 Y1.1989 Z-0.211 I0.0152 J-0.0199
X1.5821 Y1.2386 Z-0.2137 I-0.0152 J0.0199
X1.6124 Y1.1989 Z-0.2165 I0.0152 J-0.0199
X1.5821 Y1.2386 Z-0.2192 I-0.0152 J0.0199
X1.5722 Y1.2187 Z-0.22 I0.0152 J-0.0199
G1 Y0.9 F40.
G3 X1.585 Y0.8872 I0.0128 J0.
G1 X1.5975
G3 X1.6103 Y0.9 I0. J0.0128
G1 Y1.225
G3 X1.5975 Y1.2378 I-0.0128 J0.
G1 X1.585
G3 X1.5722 Y1.225 I0. J-0.0128
G1 Y1.2187
G2 X1.5527 Y1.1894 I-0.0318 J0.
G3 X1.5331 Y1.16 I0.0122 J-0.0294
G1 Y0.8516
X1.5333 Y0.8502
X1.5341 Y0.8491
X1.5352 Y0.8483
X1.5366 Y0.8481
X1.6459
X1.6473 Y0.8483
X1.6484 Y0.8491
X1.6492 Y0.8502
X1.6494 Y0.8516
Y1.2734
X1.6492 Y1.2748
X1.6484 Y1.2759
X1.6473 Y1.2767
X1.6459 Y1.2769
X1.5366
X1.5352 Y1.2767
X1.5341 Y1.2759
X1.5333 Y1.2748
X1.5331 Y1.2734
Y1.16
G3 X1.5424 Y1.1552 I0.0059 J0.
G1 X1.5656 Y1.1718
X1.5997 Y1.2003
X1.6006 Y1.2008
X1.6017 Y1.201
X1.6027 Y1.2008
X1.6095 Y1.1984
X1.6105 Y1.1983
X1.6115 Y1.1984
X1.6124 Y1.1989
G3 X1.5821 Y1.2386 Z-0.2227 I-0.0152 J0.0199 F20.
X1.6124 Y1.1989 Z-0.2255 I0.0152 J-0.0199
X1.5821 Y1.2386 Z-0.2282 I-0.0152 J0.0199
X1.6124 Y1.1989 Z-0.231 I0.0152 J-0.0199
X1.5821 Y1.2386 Z-0.2337 I-0.0152 J0.0199
X1.6124 Y1.1989 Z-0.2365 I0.0152 J-0.0199
X1.5821 Y1.2386 Z-0.2392 I-0.0152 J0.0199
X1.5722 Y1.2187 Z-0.24 I0.0152 J-0.0199
G1 Y0.9 F40.
G3 X1.585 Y0.8872 I0.0128 J0.
G1 X1.5975
G3 X1.6103 Y0.9 I0. J0.0128
G1 Y1.225
G3 X1.5975 Y1.2378 I-0.0128 J0.
G1 X1.585
G3 X1.5722 Y1.225 I0. J-0.0128
G1 Y1.2187
G2 X1.5527 Y1.1894 I-0.0318 J0.
G3 X1.5331 Y1.16 I0.0122 J-0.0294
G1 Y0.8516
X1.5333 Y0.8502
X1.5341 Y0.8491
X1.5352 Y0.8483
X1.5366 Y0.8481
X1.6459
X1.6473 Y0.8483
X1.6484 Y0.8491
X1.6492 Y0.8502
X1.6494 Y0.8516
Y1.2734
X1.6492 Y1.2748
X1.6484 Y1.2759
X1.6473 Y1.2767
X1.6459 Y1.2769
X1.5366
X1.5352 Y1.2767
X1.5341 Y1.2759
X1.5333 Y1.2748
X1.5331 Y1.2734
Y1.16
G3 X1.5424 Y1.1552 I0.0059 J0.
G1 X1.5656 Y1.1718
X1.5997 Y1.2003
X1.6006 Y1.2008
X1.6017 Y1.201
X1.6027 Y1.2008
X1.6095 Y1.1984
X1.6105 Y1.1983
X1.6115 Y1.1984
X1.6124 Y1.1989
G3 X1.5821 Y1.2386 Z-0.2427 I-0.0152 J0.0199 F20.
X1.6124 Y1.1989 Z-0.2455 I0.0152 J-0.0199
X1.5821 Y1.2386 Z-0.2482 I-0.0152 J0.0199
X1.6124 Y1.1989 Z-0.251 I0.0152 J-0.0199
X1.5821 Y1.2386 Z-0.2537 I-0.0152 J0.0199
X1.6124 Y1.1989 Z-0.2565 I0.0152 J-0.0199
X1.5821 Y1.2386 Z-0.2592 I-0.0152 J0.0199
X1.5722 Y1.2187 Z-0.26 I0.0152 J-0.0199
G1 Y0.9 F40.
G3 X1.585 Y0.8872 I0.0128 J0.
G1 X1.5975
G3 X1.6103 Y0.9 I0. J0.0128
G1 Y1.225
G3 X1.5975 Y1.2378 I-0.0128 J0.
G1 X1.585
G3 X1.5722 Y1.225 I0. J-0.0128
G1 Y1.2187
G2 X1.5527 Y1.1894 I-0.0318 J0.
G3 X1.5331 Y1.16 I0.0122 J-0.0294
G1 Y0.8516
X1.5333 Y0.8502
X1.5341 Y0.8491
X1.5352 Y0.8483
X1.5366 Y0.8481
X1.6459
X1.6473 Y0.8483
X1.6484 Y0.8491
X1.6492 Y0.8502
X1.6494 Y0.8516
Y1.2734
X1.6492 Y1.2748
X1.6484 Y1.2759
X1.6473 Y1.2767
X1.6459 Y1.2769
X1.5366
X1.5352 Y1.2767
X1.5341 Y1.2759
X1.5333 Y1.2748
X1.5331 Y1.2734
Y1.16
G3 X1.5424 Y1.1552 I0.0059 J0.
G1 X1.5656 Y1.1718
X1.5997 Y1.2003
X1.6006 Y1.2008
X1.6017 Y1.201
X1.6027 Y1.2008
X1.6095 Y1.1984
X1.6105 Y1.1983
X1.6115 Y1.1984
X1.6124 Y1.1989
G3 X1.5821 Y1.2386 Z-0.2627 I-0.0152 J0.0199 F20.
X1.6124 Y1.1989 Z-0.2655 I0.0152 J-0.0199
X1.5821 Y1.2386 Z-0.2682 I-0.0152 J0.0199
X1.6124 Y1.1989 Z-0.271 I0.0152 J-0.0199
X1.5821 Y1.2386 Z-0.2737 I-0.0152 J0.0199
X1.6124 Y1.1989 Z-0.2765 I0.0152 J-0.0199
X1.5821 Y1.2386 Z-0.2792 I-0.0152 J0.0199
X1.5722 Y1.2187 Z-0.28 I0.0152 J-0.0199
G1 Y0.9 F40.
G3 X1.585 Y0.8872 I0.0128 J0.
G1 X1.5975
G3 X1.6103 Y0.9 I0. J0.0128
G1 Y1.225
G3 X1.5975 Y1.2378 I-0.0128 J0.
G1 X1.585
G3 X1.5722 Y1.225 I0. J-0.0128
G1 Y1.2187
G2 X1.5527 Y1.1894 I-0.0318 J0.
G3 X1.5331 Y1.16 I0.0122 J-0.0294
G1 Y0.8516
X1.5333 Y0.8502
X1.5341 Y0.8491
X1.5352 Y0.8483
X1.5366 Y0.8481
X1.6459
X1.6473 Y0.8483
X1.6484 Y0.8491
X1.6492 Y0.8502
X1.6494 Y0.8516
Y1.2734
X1.6492 Y1.2748
X1.6484 Y1.2759
X1.6473 Y1.2767
X1.6459 Y1.2769
X1.5366
X1.5352 Y1.2767
X1.5341 Y1.2759
X1.5333 Y1.2748
X1.5331 Y1.2734
Y1.16
G3 X1.5429 Y1.1555 I0.0059 J0.
G1 X1.5862 Y1.1936
X1.5871 Y1.1945
X1.5877 Y1.1956
X1.5862 Y1.1963
G3 X1.6083 Y1.2412 Z-0.2827 I0.0111 J0.0224 F20.
X1.5862 Y1.1963 Z-0.2855 I-0.0111 J-0.0224
X1.6083 Y1.2412 Z-0.2882 I0.0111 J0.0224
X1.5722 Y1.2187 Z-0.29 I-0.0111 J-0.0224
G1 Y0.9 F40.
G3 X1.585 Y0.8872 I0.0128 J0.
G1 X1.5975
G3 X1.6103 Y0.9 I0. J0.0128
G1 Y1.225
G3 X1.5975 Y1.2378 I-0.0128 J0.
G1 X1.585
G3 X1.5722 Y1.225 I0. J-0.0128
G1 Y1.2187
G2 X1.5527 Y1.1894 I-0.0318 J0.
G3 X1.5331 Y1.16 I0.0122 J-0.0294
G1 Y0.8516
X1.5333 Y0.8502
X1.5341 Y0.8491
X1.5352 Y0.8483
X1.5366 Y0.8481
X1.6459
X1.6473 Y0.8483
X1.6484 Y0.8491
X1.6492 Y0.8502
X1.6494 Y0.8516
Y1.2734
X1.6492 Y1.2748
X1.6484 Y1.2759
X1.6473 Y1.2767
X1.6459 Y1.2769
X1.5366
X1.5352 Y1.2767
X1.5341 Y1.2759
X1.5333 Y1.2748
X1.5331 Y1.2734
Y1.16
X1.5333 Y1.1577 Z-0.2896
X1.5339 Y1.1556 Z-0.2891
X1.5348 Y1.1539 Z-0.2878
X1.5359 Y1.1523 Z-0.2865
X1.5378 Y1.1506 Z-0.2827
X1.5385 Y1.15 Z-0.2782
G0 Z0.6
g0 x0 y0

M9
M30
