(X4 FEEDER PLATE 1 POCKET1)
(T3  D=0.118 CR=0. - ZMIN=-0.165 - FLAT END MILL)
G90 G94 G91.1 G40 G49 G17
G20

(2D ADAPTIVE2)
M5
T3 M6
S15000 M3
g4 p5
G54
M8
G0 X3.945 Y7.9151
G43 Z0.6 H3
Z0.2
Z0.102
G3 X4.0477 Y7.96 Z0.0989 I0.0514 J0.0224 F15.
X3.945 Y7.9151 Z0.0959 I-0.0514 J-0.0224
X4.0477 Y7.96 Z0.0928 I0.0514 J0.0224
X3.945 Y7.9151 Z0.0897 I-0.0514 J-0.0224
X4.0477 Y7.96 Z0.0866 I0.0514 J0.0224
X3.945 Y7.9151 Z0.0836 I-0.0514 J-0.0224
X4.0477 Y7.96 Z0.0805 I0.0514 J0.0224
X3.945 Y7.9151 Z0.0774 I-0.0514 J-0.0224
X4.0477 Y7.96 Z0.0743 I0.0514 J0.0224
X3.945 Y7.9151 Z0.0713 I-0.0514 J-0.0224
X4.0477 Y7.96 Z0.0682 I0.0514 J0.0224
X3.945 Y7.9151 Z0.0651 I-0.0514 J-0.0224
X4.0477 Y7.96 Z0.062 I0.0514 J0.0224
X3.945 Y7.9151 Z0.059 I-0.0514 J-0.0224
X4.0477 Y7.96 Z0.0559 I0.0514 J0.0224
X3.945 Y7.9151 Z0.0528 I-0.0514 J-0.0224
X4.0477 Y7.96 Z0.0497 I0.0514 J0.0224
X3.945 Y7.9151 Z0.0467 I-0.0514 J-0.0224
X4.0477 Y7.96 Z0.0436 I0.0514 J0.0224
X3.945 Y7.9151 Z0.0405 I-0.0514 J-0.0224
X4.0477 Y7.96 Z0.0375 I0.0514 J0.0224
X3.945 Y7.9151 Z0.0344 I-0.0514 J-0.0224
X4.0477 Y7.96 Z0.0313 I0.0514 J0.0224
X3.945 Y7.9151 Z0.0282 I-0.0514 J-0.0224
X4.0477 Y7.96 Z0.0252 I0.0514 J0.0224
X3.945 Y7.9151 Z0.0221 I-0.0514 J-0.0224
X4.0477 Y7.96 Z0.019 I0.0514 J0.0224
X3.945 Y7.9151 Z0.0159 I-0.0514 J-0.0224
X4.0477 Y7.96 Z0.0129 I0.0514 J0.0224
X3.945 Y7.9151 Z0.0098 I-0.0514 J-0.0224
X4.0477 Y7.96 Z0.0067 I0.0514 J0.0224
X3.945 Y7.9151 Z0.0036 I-0.0514 J-0.0224
X4.0477 Y7.96 Z0.0006 I0.0514 J0.0224
X3.945 Y7.9151 Z-0.0025 I-0.0514 J-0.0224
X4.0477 Y7.96 Z-0.0056 I0.0514 J0.0224
X3.945 Y7.9151 Z-0.0086 I-0.0514 J-0.0224
X4.0477 Y7.96 Z-0.0117 I0.0514 J0.0224
X3.945 Y7.9151 Z-0.0148 I-0.0514 J-0.0224
X4.0477 Y7.96 Z-0.0179 I0.0514 J0.0224
X3.945 Y7.9151 Z-0.0209 I-0.0514 J-0.0224
X4.0477 Y7.96 Z-0.024 I0.0514 J0.0224
X3.945 Y7.9151 Z-0.0271 I-0.0514 J-0.0224
X4.0477 Y7.96 Z-0.0302 I0.0514 J0.0224
X3.945 Y7.9151 Z-0.0332 I-0.0514 J-0.0224
X4.0477 Y7.96 Z-0.0363 I0.0514 J0.0224
X3.945 Y7.9151 Z-0.0394 I-0.0514 J-0.0224
X4.0477 Y7.96 Z-0.0425 I0.0514 J0.0224
X3.945 Y7.9151 Z-0.0455 I-0.0514 J-0.0224
X4.0477 Y7.96 Z-0.0486 I0.0514 J0.0224
X3.945 Y7.9151 Z-0.0517 I-0.0514 J-0.0224
X4.0477 Y7.96 Z-0.0548 I0.0514 J0.0224
X3.945 Y7.9151 Z-0.0578 I-0.0514 J-0.0224
X4.0477 Y7.96 Z-0.0609 I0.0514 J0.0224
X3.945 Y7.9151 Z-0.064 I-0.0514 J-0.0224
X4.0477 Y7.96 Z-0.067 I0.0514 J0.0224
X3.945 Y7.9151 Z-0.0701 I-0.0514 J-0.0224
X4.0477 Y7.96 Z-0.0732 I0.0514 J0.0224
X3.945 Y7.9151 Z-0.0763 I-0.0514 J-0.0224
X4.0477 Y7.96 Z-0.0793 I0.0514 J0.0224
X3.945 Y7.9151 Z-0.0824 I-0.0514 J-0.0224
X4.0477 Y7.96 Z-0.0855 I0.0514 J0.0224
X3.945 Y7.9151 Z-0.0886 I-0.0514 J-0.0224
X4.0477 Y7.96 Z-0.0916 I0.0514 J0.0224
X3.945 Y7.9151 Z-0.0947 I-0.0514 J-0.0224
X4.0477 Y7.96 Z-0.0978 I0.0514 J0.0224
X3.945 Y7.9151 Z-0.1009 I-0.0514 J-0.0224
X4.0477 Y7.96 Z-0.1039 I0.0514 J0.0224
X3.945 Y7.9151 Z-0.107 I-0.0514 J-0.0224
X4.0477 Y7.96 Z-0.1101 I0.0514 J0.0224
X3.945 Y7.9151 Z-0.1132 I-0.0514 J-0.0224
X4.0477 Y7.96 Z-0.1162 I0.0514 J0.0224
X3.945 Y7.9151 Z-0.1193 I-0.0514 J-0.0224
X4.0477 Y7.96 Z-0.1224 I0.0514 J0.0224
X3.945 Y7.9151 Z-0.1254 I-0.0514 J-0.0224
X4.0477 Y7.96 Z-0.1285 I0.0514 J0.0224
X3.945 Y7.9151 Z-0.1316 I-0.0514 J-0.0224
X4.0477 Y7.96 Z-0.1347 I0.0514 J0.0224
X3.945 Y7.9151 Z-0.1377 I-0.0514 J-0.0224
X4.0477 Y7.96 Z-0.1408 I0.0514 J0.0224
X3.945 Y7.9151 Z-0.1439 I-0.0514 J-0.0224
X4.0477 Y7.96 Z-0.147 I0.0514 J0.0224
X3.945 Y7.9151 Z-0.15 I-0.0514 J-0.0224
X4.0477 Y7.96 Z-0.1531 I0.0514 J0.0224
X3.945 Y7.9151 Z-0.1562 I-0.0514 J-0.0224
X4.0477 Y7.96 Z-0.1593 I0.0514 J0.0224
X3.945 Y7.9151 Z-0.1623 I-0.0514 J-0.0224
X4.0524 Y7.9375 Z-0.165 I0.0514 J0.0224
X3.9403 I-0.0561 J0.
X4.0524 I0.0561 J0.
G1 X4.0533 Y7.9566 F30.
Y7.9626
X4.0521 Y7.9685
X4.0499 Y7.974
X4.047 Y7.9793
X4.0435 Y7.9841
X4.0394 Y7.9885
X4.0349 Y7.9925
X4.03 Y7.9959
X4.0247 Y7.9989
X4.0192 Y8.0013
X4.0136 Y8.0032
X4.0077 Y8.0046
X4.0018 Y8.0054
X3.9958 Y8.0057
X3.9898 Y8.0055
X3.9838 Y8.0047
X3.978 Y8.0033
X3.9723 Y8.0015
X3.9668 Y7.9992
X3.9615 Y7.9963
X3.9564 Y7.9931
X3.9517 Y7.9894
X3.9473 Y7.9853
X3.9433 Y7.9808
X3.9397 Y7.976
X3.9366 Y7.9709
X3.9339 Y7.9655
X3.9317 Y7.9599
X3.93 Y7.9542
X3.9288 Y7.9483
X3.9281 Y7.9423
X3.9279 Y7.9364
X3.9283 Y7.9304
X3.9292 Y7.9244
X3.9306 Y7.9186
X3.9325 Y7.9129
X3.9349 Y7.9074
X3.9377 Y7.9021
X3.9411 Y7.8971
X3.9448 Y7.8925
X3.949 Y7.8881
X3.9535 Y7.8842
X3.9583 Y7.8806
X3.9634 Y7.8775
X3.9688 Y7.8748
X3.9744 Y7.8727
X3.9802 Y7.871
X3.9861 Y7.8698
X3.992 Y7.8692
X3.998 Y7.8691
X4.004 Y7.8695
X4.0099 Y7.8704
X4.0158 Y7.8719
X4.0214 Y7.8738
X4.0269 Y7.8763
X4.0322 Y7.8792
X4.0371 Y7.8825
X4.0418 Y7.8863
X4.0461 Y7.8905
X4.05 Y7.895
X4.0535 Y7.8999
X4.0566 Y7.905
X4.0592 Y7.9104
X4.0614 Y7.916
X4.0632 Y7.9218
X4.0647 Y7.9276
X4.066 Y7.9334
X4.067 Y7.9393
X4.0676 Y7.9453
X4.0677 Y7.9513
X4.0673 Y7.9573
X4.0664 Y7.9632
X4.065 Y7.9691
X4.063 Y7.9747
X4.0605 Y7.9802
X4.0575 Y7.9854
X4.0541 Y7.9903
X4.0502 Y7.9949
X4.046 Y7.9991
X4.0414 Y8.003
X4.0365 Y8.0065
X4.0314 Y8.0096
X4.026 Y8.0122
X4.0204 Y8.0144
X4.0146 Y8.0161
X4.0088 Y8.0174
X4.0028 Y8.0182
X3.9968 Y8.0186
X3.9908 Y8.0185
X3.9849 Y8.0179
X3.9789 Y8.0169
X3.9731 Y8.0155
X3.9674 Y8.0136
X3.9619 Y8.0113
X3.9565 Y8.0086
X3.9514 Y8.0055
X3.9465 Y8.002
X3.9419 Y7.9982
X3.9376 Y7.994
X3.9336 Y7.9895
X3.9299 Y7.9848
X3.9266 Y7.9798
X3.9237 Y7.9745
X3.9211 Y7.9691
X3.919 Y7.9635
X3.9173 Y7.9577
X3.916 Y7.9519
X3.9152 Y7.9459
X3.9148 Y7.9399
Y7.9339
X3.9153 Y7.928
X3.9162 Y7.922
X3.9176 Y7.9162
X3.9194 Y7.9105
X3.9215 Y7.9049
X3.9242 Y7.8995
X3.9272 Y7.8943
X3.9305 Y7.8893
X3.9342 Y7.8846
X3.9383 Y7.8802
X3.9427 Y7.8761
X3.9473 Y7.8723
X3.9522 Y7.8689
X3.9574 Y7.8658
X3.9628 Y7.8631
X3.9683 Y7.8609
X3.974 Y7.859
X3.9799 Y7.8576
X3.9858 Y7.8566
X3.9918 Y7.856
X3.9978 Y7.8559
X4.0038 Y7.8562
X4.0097 Y7.857
X4.0156 Y7.8582
X4.0214 Y7.8598
X4.027 Y7.8619
X4.0325 Y7.8643
X4.0378 Y7.8672
X4.0428 Y7.8704
X4.0476 Y7.874
X4.0521 Y7.878
X4.0564 Y7.8822
X4.0603 Y7.8868
X4.0638 Y7.8916
X4.0671 Y7.8967
X4.07 Y7.9019
X4.0726 Y7.9073
X4.0749 Y7.9128
X4.0769 Y7.9185
X4.0786 Y7.9243
X4.0799 Y7.9301
X4.0809 Y7.936
X4.0814 Y7.942
X4.0816 Y7.948
X4.0814 Y7.954
X4.0807 Y7.96
X4.0796 Y7.9659
X4.0781 Y7.9717
X4.0762 Y7.9774
X4.0739 Y7.9829
X4.0712 Y7.9882
X4.0681 Y7.9934
X4.0646 Y7.9983
X4.0608 Y8.0029
X4.0567 Y8.0073
X4.0522 Y8.0113
X4.0475 Y8.015
X4.0426 Y8.0184
X4.0374 Y8.0214
X4.032 Y8.0241
X4.0265 Y8.0264
X4.0208 Y8.0283
X4.015 Y8.0299
X4.0091 Y8.031
X4.0032 Y8.0318
X3.9972 Y8.0321
X3.9912
X3.9852 Y8.0317
X3.9792 Y8.0308
X3.9734 Y8.0297
X3.9676 Y8.0281
X3.9619 Y8.0261
X3.9564 Y8.0238
X3.951 Y8.0212
X3.9458 Y8.0182
X3.9408 Y8.0148
X3.936 Y8.0112
X3.9315 Y8.0073
X3.9272 Y8.0031
X3.9232 Y7.9986
X3.9195 Y7.9939
X3.9161 Y7.989
X3.913 Y7.9838
X3.9102 Y7.9785
X3.9078 Y7.973
X3.9057 Y7.9674
X3.904 Y7.9616
X3.9027 Y7.9558
X3.9018 Y7.9498
X3.9012 Y7.9439
X3.9009 Y7.9379
X3.9011 Y7.9319
X3.9016 Y7.9259
X3.9026 Y7.92
X3.9038 Y7.9141
X3.9055 Y7.9083
X3.9075 Y7.9027
X3.9099 Y7.8972
X3.9126 Y7.8918
X3.9156 Y7.8866
X3.919 Y7.8817
X3.9226 Y7.8769
X3.9266 Y7.8724
X3.9308 Y7.8681
X3.9353 Y7.8642
X3.94 Y7.8605
X3.945 Y7.8571
X3.9501 Y7.854
X3.9555 Y7.8513
X3.961 Y7.8489
X3.9666 Y7.8468
X3.9724 Y7.8451
X3.9782 Y7.8438
X3.9842 Y7.8429
X3.9901 Y7.8423
X3.9961 Y7.8421
X4.0021 Y7.8423
X4.0081 Y7.8428
X4.014 Y7.8437
X4.0199 Y7.845
X4.0257 Y7.8467
X4.0313 Y7.8487
X4.0368 Y7.8511
X4.0422 Y7.8538
X4.0473 Y7.8568
X4.0523 Y7.8602
X4.0571 Y7.8639
X4.0616 Y7.8678
X4.0658 Y7.8721
X4.0698 Y7.8765
X4.0736 Y7.8812
X4.0771 Y7.8861
X4.0803 Y7.8912
X4.0832 Y7.8964
X4.0859 Y7.9018
X4.0882 Y7.9073
X4.0903 Y7.9129
X4.0921 Y7.9187
X4.0935 Y7.9245
X4.0946 Y7.9304
X4.0954 Y7.9363
X4.0958 Y7.9423
X4.0959 Y7.9483
X4.0956 Y7.9543
X4.095 Y7.9603
X4.094 Y7.9662
X4.0926 Y7.972
X4.0909 Y7.9778
X4.0889 Y7.9834
X4.0865 Y7.9889
X4.0838 Y7.9943
X4.0807 Y7.9995
X4.0774 Y8.0044
X4.0737 Y8.0092
X4.0698 Y8.0137
X4.0656 Y8.018
X4.0612 Y8.022
X4.0565 Y8.0258
X4.0516 Y8.0292
X4.0465 Y8.0324
X4.0412 Y8.0353
X4.0358 Y8.0378
X4.0302 Y8.0401
X4.0245 Y8.042
X4.0187 Y8.0435
X4.0128 Y8.0447
X4.0069 Y8.0456
X4.0009 Y8.0461
X3.9949 Y8.0463
X3.9889 Y8.0462
X3.9829 Y8.0457
X3.977 Y8.0449
X3.9711 Y8.0438
X3.9653 Y8.0423
X3.9596 Y8.0405
X3.954 Y8.0383
X3.9485 Y8.0359
X3.9431 Y8.0332
X3.938 Y8.0302
X3.9329 Y8.0269
X3.9281 Y8.0233
X3.9235 Y8.0194
X3.9191 Y8.0153
X3.915 Y8.011
X3.9111 Y8.0065
X3.9074 Y8.0017
X3.904 Y7.9968
X3.9009 Y7.9916
X3.8981 Y7.9863
X3.8955 Y7.9809
X3.8933 Y7.9753
X3.8914 Y7.9696
X3.8898 Y7.9639
X3.8885 Y7.958
X3.8875 Y7.9521
X3.8869 Y7.9461
X3.8866 Y7.9401
Y7.9341
X3.887 Y7.9281
X3.8876 Y7.9222
X3.8886 Y7.9163
X3.8899 Y7.9104
X3.8916 Y7.9046
X3.8935 Y7.899
X3.8958 Y7.8934
X3.8983 Y7.888
X3.9012 Y7.8827
X3.9043 Y7.8776
X3.9077 Y7.8726
X3.9114 Y7.8679
X3.9153 Y7.8634
X3.9195 Y7.859
X3.9239 Y7.855
X3.9285 Y7.8511
X3.9333 Y7.8476
X3.9384 Y7.8443
X3.9435 Y7.8412
X3.9489 Y7.8385
X3.9543 Y7.836
X3.96 Y7.8339
X3.9657 Y7.8321
X3.9715 Y7.8306
X3.9773 Y7.8293
X3.9833 Y7.8285
X3.9893 Y7.8279
X3.9953 Y7.8277
X4.0013 Y7.8278
X4.0072 Y7.8282
X4.0132 Y7.829
X4.0191 Y7.8301
X4.0249 Y7.8315
X4.0307 Y7.8332
X4.0363 Y7.8352
X4.0418 Y7.8376
X4.0472 Y7.8402
X4.0525 Y7.8431
X4.0576 Y7.8463
X4.0624 Y7.8498
X4.0672 Y7.8535
X4.0717 Y7.8575
X4.076 Y7.8616
X4.0801 Y7.866
X4.0839 Y7.8706
X4.0875 Y7.8754
X4.0909 Y7.8804
X4.0941 Y7.8855
X4.097 Y7.8907
X4.0996 Y7.8961
X4.102 Y7.9016
X4.1041 Y7.9073
X4.1059 Y7.913
X4.1074 Y7.9188
X4.1086 Y7.9246
X4.1096 Y7.9306
X4.1102 Y7.9365
X4.1106 Y7.9425
Y7.9485
X4.1103 Y7.9545
X4.1097 Y7.9605
X4.1088 Y7.9664
X4.1076 Y7.9723
X4.1061 Y7.9781
X4.1043 Y7.9838
X4.1022 Y7.9894
X4.0998 Y7.9949
X4.0971 Y8.0003
X4.0941 Y8.0055
X4.0908 Y8.0106
X4.0873 Y8.0154
X4.0836 Y8.0201
X4.0796 Y8.0246
X4.0753 Y8.0288
X4.0709 Y8.0329
X4.0662 Y8.0366
X4.0614 Y8.0402
X4.0564 Y8.0435
X4.0512 Y8.0465
X4.0459 Y8.0493
X4.0404 Y8.0517
X4.0348 Y8.0539
X4.0291 Y8.0558
X4.0234 Y8.0575
X4.0175 Y8.0588
X4.0116 Y8.0598
X4.0056 Y8.0605
X3.9996 Y8.0609
X3.9936 Y8.0611
X3.9876 Y8.0609
X3.9817 Y8.0604
X3.9757 Y8.0596
X3.9698 Y8.0586
X3.964 Y8.0572
X3.9582 Y8.0556
X3.9525 Y8.0536
X3.9469 Y8.0514
X3.9415 Y8.049
X3.9361 Y8.0462
X3.9309 Y8.0432
X3.9259 Y8.04
X3.921 Y8.0365
X3.9163 Y8.0328
X3.9118 Y8.0288
X3.9075 Y8.0247
X3.9034 Y8.0203
X3.8995 Y8.0157
X3.8958 Y8.011
X3.8923 Y8.0061
X3.8892 Y8.001
X3.8862 Y7.9958
X3.8835 Y7.9904
X3.8811 Y7.9849
X3.8789 Y7.9793
X3.8771 Y7.9736
X3.8754 Y7.9678
X3.8741 Y7.962
X3.8731 Y7.9561
X3.8723 Y7.9501
X3.8719 Y7.9441
X3.8717 Y7.9381
X3.8718 Y7.9321
X3.8722 Y7.9261
X3.8729 Y7.9202
X3.8738 Y7.9143
X3.8751 Y7.9084
X3.8766 Y7.9026
X3.8785 Y7.8969
X3.8805 Y7.8913
X3.8829 Y7.8857
X3.8855 Y7.8803
X3.8884 Y7.8751
X3.8915 Y7.87
X3.8949 Y7.865
X3.8985 Y7.8602
X3.9023 Y7.8556
X3.9064 Y7.8512
X3.9106 Y7.8469
X3.9151 Y7.8429
X3.9197 Y7.8391
X3.9246 Y7.8355
X3.9295 Y7.8322
X3.9347 Y7.8291
X3.94 Y7.8263
X3.9454 Y7.8237
X3.9509 Y7.8214
X3.9566 Y7.8193
X3.9623 Y7.8175
X3.9681 Y7.816
X3.974 Y7.8148
X3.9799 Y7.8139
X3.9859 Y7.8132
X3.9919 Y7.8129
X3.9979 Y7.8128
X4.0039 Y7.813
X4.0098 Y7.8135
X4.0158 Y7.8143
X4.0217 Y7.8154
X4.0275 Y7.8168
X4.0333 Y7.8184
X4.039 Y7.8203
X4.0446 Y7.8225
X4.0501 Y7.8249
X4.0554 Y7.8277
X4.0606 Y7.8306
X4.0657 Y7.8338
X4.0706 Y7.8372
X4.0754 Y7.8409
X4.08 Y7.8447
X4.0844 Y7.8488
X4.0886 Y7.8531
X4.0926 Y7.8575
X4.0965 Y7.8621
X4.1001 Y7.8669
X4.1035 Y7.8719
X4.1067 Y7.877
X4.1097 Y7.8822
X4.1124 Y7.8876
X4.1149 Y7.893
X4.1171 Y7.8986
X4.1191 Y7.9043
X4.1208 Y7.91
X4.1223 Y7.9158
X4.1235 Y7.9217
X4.1245 Y7.9276
X4.1252 Y7.9336
X4.1256 Y7.9396
X4.1258 Y7.9456
X4.1256 Y7.9516
X4.1252 Y7.9575
X4.1245 Y7.9635
X4.1236 Y7.9694
X4.1224 Y7.9753
X4.1209 Y7.9811
X4.1192 Y7.9869
X4.1171 Y7.9925
X4.1149 Y7.9981
X4.1123 Y8.0035
X4.1095 Y8.0088
X4.1065 Y8.014
X4.1032 Y8.019
X4.0997 Y8.0239
X4.096 Y8.0286
X4.0921 Y8.0332
X4.088 Y8.0375
X4.0836 Y8.0416
X4.0791 Y8.0456
X4.0744 Y8.0493
X4.0696 Y8.0528
X4.0645 Y8.0561
X4.0594 Y8.0592
X4.0541 Y8.062
X4.0487 Y8.0646
X4.0431 Y8.0669
X4.0375 Y8.069
X4.0318 Y8.0708
X4.026 Y8.0724
X4.0201 Y8.0737
X4.0142 Y8.0747
X4.0083 Y8.0755
X4.0023 Y8.076
X3.9963 Y8.0762
X3.9903
X3.9843 Y8.0759
X3.9783 Y8.0753
X3.9724 Y8.0745
X3.9664 Y8.0734
X3.9605 Y8.072
X3.9547 Y8.0704
X3.949 Y8.0686
X3.9434 Y8.0665
X3.9379 Y8.0641
X3.9325 Y8.0615
X3.9271 Y8.0587
X3.9219 Y8.0556
X3.9168 Y8.0522
X3.9118 Y8.0486
X3.907 Y8.0449
X3.9024 Y8.0409
X3.898 Y8.0368
X3.8938 Y8.0325
X3.8897 Y8.028
X3.8859 Y8.0232
X3.8822 Y8.0183
X3.8788 Y8.0133
X3.8756 Y8.008
X3.8726 Y8.0027
X3.8698 Y7.9972
X3.8673 Y7.9916
X3.8651 Y7.9859
X3.8631 Y7.9802
X3.8613 Y7.9744
X3.8598 Y7.9684
X3.8586 Y7.9624
X3.8576 Y7.9563
X3.8569 Y7.9502
X3.8565 Y7.9441
X3.8564 Y7.9379
X3.8565 Y7.9317
X3.8568 Y7.9256
X3.8575 Y7.9195
X3.8584 Y7.9135
X3.8596 Y7.9075
X3.861 Y7.9015
X3.8627 Y7.8956
X3.8647 Y7.8898
X3.8669 Y7.8841
X3.8694 Y7.8784
X3.8721 Y7.8729
X3.8751 Y7.8675
X3.8783 Y7.8622
X3.8817 Y7.8571
X3.8853 Y7.8522
X3.8892 Y7.8474
X3.8932 Y7.8428
X3.8974 Y7.8384
X3.9019 Y7.8341
X3.9065 Y7.8301
X3.9113 Y7.8262
X3.9163 Y7.8226
X3.9215 Y7.8192
X3.9268 Y7.816
X3.9322 Y7.813
X3.9377 Y7.8103
X3.9433 Y7.8079
X3.949 Y7.8057
X3.9548 Y7.8038
X3.9607 Y7.8021
X3.9667 Y7.8006
X3.9728 Y7.7995
X3.9789 Y7.7986
X3.985 Y7.7979
X3.9912 Y7.7976
X3.9974 Y7.7975
X4.0035 Y7.7976
X4.0096 Y7.7981
X4.0157 Y7.7988
X4.0217 Y7.7998
X4.0278 Y7.801
X4.0338 Y7.8026
X4.0397 Y7.8043
X4.0456 Y7.8064
X4.0515 Y7.8087
X4.0572 Y7.8113
X4.0629 Y7.8142
X4.0684 Y7.8173
X4.0738 Y7.8207
X4.0791 Y7.8243
X4.0842 Y7.8281
X4.0892 Y7.8322
X4.0941 Y7.8366
X4.0987 Y7.8412
X4.1032 Y7.846
X4.1075 Y7.851
X4.1115 Y7.8561
X4.1154 Y7.8615
X4.119 Y7.867
X4.1223 Y7.8727
X4.1254 Y7.8786
X4.1282 Y7.8846
X4.1308 Y7.8907
X4.1331 Y7.8968
X4.1351 Y7.9031
X4.1369 Y7.9094
X4.1383 Y7.9158
X4.1395 Y7.9222
X4.1404 Y7.9287
X4.141 Y7.9351
X4.1413 Y7.9416
Y7.9481
X4.1411 Y7.9546
X4.1405 Y7.961
X4.1397 Y7.9674
X4.1386 Y7.9737
X4.1372 Y7.98
X4.1356 Y7.9862
X4.1337 Y7.9923
X4.1315 Y7.9983
X4.1291 Y8.0042
X4.1264 Y8.0101
X4.1234 Y8.0157
X4.1202 Y8.0212
X4.1168 Y8.0266
X4.1132 Y8.0318
X4.1093 Y8.0369
X4.1052 Y8.0418
X4.1009 Y8.0465
X4.0963 Y8.051
X4.0916 Y8.0553
X4.0867 Y8.0594
X4.0816 Y8.0633
X4.0763 Y8.067
X4.0708 Y8.0705
X4.0652 Y8.0737
X4.0595 Y8.0767
X4.0535 Y8.0794
X4.0475 Y8.0819
X4.0413 Y8.0841
X4.0351 Y8.086
X4.0288 Y8.0877
X4.0224 Y8.0891
X4.0159 Y8.0902
X4.0094 Y8.091
X4.0028 Y8.0916
X3.9962 Y8.0918
X3.9895
X3.9829 Y8.0914
X3.9763 Y8.0908
X3.9697 Y8.0899
X3.9631 Y8.0887
X3.9566 Y8.0872
X3.9502 Y8.0854
X3.9438 Y8.0833
X3.9375 Y8.081
X3.9314 Y8.0784
X3.9253 Y8.0754
X3.9193 Y8.0723
X3.9135 Y8.0689
X3.9079 Y8.0652
X3.9024 Y8.0613
X3.8971 Y8.0571
X3.892 Y8.0527
X3.887 Y8.0481
X3.8823 Y8.0432
X3.8778 Y8.0381
X3.8735 Y8.0329
X3.8694 Y8.0274
X3.8656 Y8.0218
X3.862 Y8.016
X3.8587 Y8.0101
X3.8556 Y8.004
X3.8528 Y7.9978
X3.8503 Y7.9915
X3.8481 Y7.9851
X3.8461 Y7.9786
X3.8445 Y7.9719
X3.8431 Y7.9652
X3.842 Y7.9585
X3.8412 Y7.9517
X3.8408 Y7.9449
X3.8406 Y7.9381
X3.8407 Y7.9313
X3.8411 Y7.9245
X3.8418 Y7.9177
X3.8428 Y7.9109
X3.8442 Y7.9042
X3.8458 Y7.8976
X3.8477 Y7.891
X3.8498 Y7.8845
X3.8523 Y7.8781
X3.8551 Y7.8718
X3.8581 Y7.8657
X3.8613 Y7.8597
X3.8649 Y7.8539
X3.8687 Y7.8482
X3.8727 Y7.8427
X3.877 Y7.8373
X3.8815 Y7.8322
X3.8862 Y7.8272
X3.8912 Y7.8225
X3.8964 Y7.818
X3.9017 Y7.8137
X3.9072 Y7.8097
X3.9129 Y7.8059
X3.9188 Y7.8024
X3.9248 Y7.7991
X3.9309 Y7.7961
X3.9372 Y7.7934
X3.9436 Y7.7909
X3.9501 Y7.7887
X3.9567 Y7.7868
X3.9633 Y7.7852
X3.9701 Y7.7839
X3.9768 Y7.7829
X3.9836 Y7.7822
X3.9905 Y7.7818
X3.9973 Y7.7817
X4.0041 Y7.7819
X4.011 Y7.7824
X4.0178 Y7.7832
X4.0246 Y7.7843
X4.0314 Y7.7857
X4.0381 Y7.7874
X4.0447 Y7.7893
X4.0513 Y7.7916
X4.0578 Y7.7942
X4.0642 Y7.7971
X4.0705 Y7.8003
X4.0766 Y7.8037
X4.0827 Y7.8075
X4.0886 Y7.8115
X4.0943 Y7.8158
X4.0998 Y7.8203
X4.1052 Y7.8251
X4.1103 Y7.8302
X4.1152 Y7.8354
X4.12 Y7.8409
X4.1244 Y7.8466
X4.1286 Y7.8526
X4.1326 Y7.8587
X4.1363 Y7.8649
X4.1397 Y7.8714
X4.1429 Y7.8779
X4.1457 Y7.8846
X4.1482 Y7.8914
X4.1504 Y7.8983
X4.1524 Y7.9053
X4.154 Y7.9124
X4.1553 Y7.9195
X4.1563 Y7.9266
X4.1569 Y7.9338
X4.1573 Y7.9409
Y7.9481
X4.157 Y7.9553
X4.1565 Y7.9624
X4.1556 Y7.9695
X4.1543 Y7.9765
X4.1528 Y7.9835
X4.151 Y7.9904
X4.1489 Y7.9972
X4.1465 Y8.0039
X4.1438 Y8.0104
X4.1408 Y8.0169
X4.1375 Y8.0232
X4.134 Y8.0293
X4.1302 Y8.0353
X4.1261 Y8.0411
X4.1218 Y8.0468
X4.1172 Y8.0522
X4.1124 Y8.0575
X4.1074 Y8.0625
X4.1021 Y8.0673
X4.0967 Y8.0719
X4.091 Y8.0762
X4.0851 Y8.0803
X4.0791 Y8.0842
X4.0728 Y8.0877
X4.0664 Y8.0911
X4.0599 Y8.0941
X4.0532 Y8.0968
X4.0464 Y8.0993
X4.0395 Y8.1014
X4.0325 Y8.1033
X4.0254 Y8.1048
X4.0182 Y8.1061
X4.011 Y8.107
X4.0037 Y8.1076
X3.9964 Y8.1079
X3.9891 Y8.1078
X3.9817 Y8.1074
X3.9744 Y8.1068
X3.9671 Y8.1058
X3.9599 Y8.1044
X3.9527 Y8.1028
X3.9456 Y8.1008
X3.9385 Y8.0985
X3.9316 Y8.0959
X3.9248 Y8.093
X3.9181 Y8.0898
X3.9115 Y8.0864
X3.9051 Y8.0826
X3.8988 Y8.0785
X3.8928 Y8.0742
X3.8869 Y8.0696
X3.8812 Y8.0647
X3.8758 Y8.0596
X3.8705 Y8.0543
X3.8655 Y8.0487
X3.8608 Y8.0429
X3.8563 Y8.0369
X3.8521 Y8.0307
X3.8481 Y8.0243
X3.8445 Y8.0178
X3.8411 Y8.0111
X3.838 Y8.0042
X3.8352 Y7.9972
X3.8328 Y7.9901
X3.8306 Y7.9829
X3.8287 Y7.9756
X3.8272 Y7.9682
X3.826 Y7.9608
X3.8252 Y7.9533
X3.8246 Y7.9458
X3.8244 Y7.9383
X3.8245 Y7.9308
X3.825 Y7.9232
X3.8258 Y7.9157
X3.8269 Y7.9083
X3.8283 Y7.9009
X3.8301 Y7.8935
X3.8322 Y7.8863
X3.8346 Y7.8791
X3.8373 Y7.8721
X3.8403 Y7.8652
X3.8437 Y7.8584
X3.8473 Y7.8518
X3.8512 Y7.8453
X3.8554 Y7.839
X3.8598 Y7.8329
X3.8645 Y7.827
X3.8695 Y7.8213
X3.8747 Y7.8159
X3.8802 Y7.8107
X3.8859 Y7.8057
X3.8918 Y7.801
X3.8979 Y7.7965
X3.9041 Y7.7923
X3.9106 Y7.7884
X3.9172 Y7.7848
X3.924 Y7.7815
X3.9309 Y7.7784
X3.938 Y7.7757
X3.9452 Y7.7733
X3.9524 Y7.7712
X3.9598 Y7.7694
X3.9672 Y7.768
X3.9747 Y7.7669
X3.9822 Y7.7661
X3.9897 Y7.7656
X3.9973 Y7.7655
X4.0049 Y7.7657
X4.0124 Y7.7663
X4.02 Y7.7671
X4.0275 Y7.7683
X4.035 Y7.7699
X4.0424 Y7.7717
X4.0498 Y7.7739
X4.057 Y7.7765
X4.0642 Y7.7793
X4.0713 Y7.7825
X4.0782 Y7.786
X4.085 Y7.7898
X4.0916 Y7.7939
X4.0981 Y7.7983
X4.1044 Y7.803
X4.1105 Y7.808
X4.1164 Y7.8133
X4.122 Y7.8188
X4.1274 Y7.8246
X4.1326 Y7.8306
X4.1375 Y7.8369
X4.1421 Y7.8434
X4.1465 Y7.85
X4.1505 Y7.8569
X4.1543 Y7.8639
X4.1577 Y7.8711
X4.1608 Y7.8784
X4.1636 Y7.8859
X4.1661 Y7.8935
X4.1682 Y7.9011
X4.17 Y7.9089
X4.1714 Y7.9167
X4.1725 Y7.9245
X4.1732 Y7.9324
X4.1736 Y7.9403
X4.1737 Y7.9482
X4.1734 Y7.956
X4.1727 Y7.9639
X4.1717 Y7.9717
X4.1704 Y7.9794
X4.1687 Y7.9871
X4.1667 Y7.9947
X4.1644 Y8.0022
X4.1618 Y8.0095
X4.1588 Y8.0168
X4.1555 Y8.0239
X4.1519 Y8.0308
X4.148 Y8.0376
X4.1438 Y8.0442
X4.1393 Y8.0506
X4.1346 Y8.0569
X4.1296 Y8.0629
X4.1243 Y8.0686
X4.1187 Y8.0742
X4.1129 Y8.0795
X4.1069 Y8.0846
X4.1007 Y8.0894
X4.0942 Y8.0939
X4.0875 Y8.0981
X4.0807 Y8.102
X4.0737 Y8.1057
X4.0665 Y8.109
X4.0591 Y8.112
X4.0516 Y8.1148
X4.044 Y8.1171
X4.0363 Y8.1192
X4.0285 Y8.1209
X4.0206 Y8.1222
X4.0127 Y8.1232
X4.0047 Y8.1239
X3.9967 Y8.1242
X3.9886
X3.9806 Y8.1238
X3.9726 Y8.123
X3.9646 Y8.1219
X3.9566 Y8.1205
X3.9487 Y8.1187
X3.9409 Y8.1165
X3.9332 Y8.114
X3.9256 Y8.1112
X3.9181 Y8.108
X3.9107 Y8.1045
X3.9035 Y8.1007
X3.8965 Y8.0966
X3.8896 Y8.0921
X3.883 Y8.0874
X3.8765 Y8.0823
X3.8703 Y8.077
X3.8643 Y8.0714
X3.8586 Y8.0656
X3.8531 Y8.0595
X3.8479 Y8.0531
X3.843 Y8.0465
X3.8383 Y8.0397
X3.834 Y8.0328
X3.83 Y8.0256
X3.8263 Y8.0182
X3.8229 Y8.0107
X3.8198 Y8.0031
X3.8171 Y7.9953
X3.8147 Y7.9874
X3.8127 Y7.9794
X3.811 Y7.9713
X3.8097 Y7.9632
X3.8088 Y7.955
X3.8082 Y7.9468
X3.8079 Y7.9385
X3.8081 Y7.9302
X3.8086 Y7.922
X3.8094 Y7.9138
X3.8106 Y7.9056
X3.8122 Y7.8975
X3.8141 Y7.8894
X3.8164 Y7.8815
X3.819 Y7.8737
X3.822 Y7.8659
X3.8253 Y7.8584
X3.8289 Y7.8509
X3.8329 Y7.8437
X3.8372 Y7.8366
X3.8418 Y7.8297
X3.8466 Y7.823
X3.8518 Y7.8165
X3.8573 Y7.8103
X3.863 Y7.8043
X3.869 Y7.7986
X3.8752 Y7.7931
X3.8816 Y7.788
X3.8883 Y7.7831
X3.8952 Y7.7785
X3.9023 Y7.7742
X3.9095 Y7.7702
X3.917 Y7.7666
X3.9245 Y7.7632
X3.9323 Y7.7602
X3.9401 Y7.7576
X3.9481 Y7.7553
X3.9561 Y7.7534
X3.9643 Y7.7518
X3.9724 Y7.7505
X3.9807 Y7.7497
X3.989 Y7.7492
X3.9973 Y7.749
X4.0056 Y7.7492
X4.0139 Y7.7498
X4.0222 Y7.7508
X4.0305 Y7.7521
X4.0387 Y7.7538
X4.0468 Y7.7558
X4.0549 Y7.7582
X4.0628 Y7.761
X4.0707 Y7.7641
X4.0784 Y7.7676
X4.086 Y7.7714
X4.0935 Y7.7755
X4.1007 Y7.78
X4.1078 Y7.7849
X4.1147 Y7.79
X4.1213 Y7.7954
X4.1277 Y7.8012
X4.1339 Y7.8072
X4.1398 Y7.8135
X4.1455 Y7.8201
X4.1508 Y7.8269
X4.1559 Y7.8339
X4.1606 Y7.8412
X4.165 Y7.8487
X4.1691 Y7.8563
X4.1729 Y7.8642
X4.1763 Y7.8721
X4.1793 Y7.8803
X4.182 Y7.8885
X4.1843 Y7.8969
X4.1862 Y7.9053
X4.1878 Y7.9138
X4.189 Y7.9224
X4.1898 Y7.931
X4.1903 Y7.9396
Y7.9482
X4.19 Y7.9568
X4.1893 Y7.9654
X4.1882 Y7.9739
X4.1868 Y7.9824
X4.185 Y7.9908
X4.1828 Y7.9991
X4.1802 Y8.0073
X4.1773 Y8.0153
X4.1741 Y8.0232
X4.1705 Y8.031
X4.1666 Y8.0386
X4.1623 Y8.0461
X4.1577 Y8.0533
X4.1528 Y8.0603
X4.1476 Y8.0671
X4.1421 Y8.0737
X4.1364 Y8.08
X4.1303 Y8.0861
X4.124 Y8.0919
X4.1174 Y8.0975
X4.1105 Y8.1027
X4.1035 Y8.1077
X4.0962 Y8.1123
X4.0887 Y8.1166
X4.081 Y8.1206
X4.0732 Y8.1243
X4.0652 Y8.1276
X4.057 Y8.1305
X4.0487 Y8.1331
X4.0403 Y8.1354
X4.0318 Y8.1372
X4.0232 Y8.1387
X4.0145 Y8.1398
X4.0058 Y8.1406
X3.997 Y8.1409
X3.9882
X3.9795 Y8.1404
X3.9707 Y8.1396
X3.962 Y8.1384
X3.9533 Y8.1369
X3.9447 Y8.1349
X3.9362 Y8.1326
X3.9277 Y8.1299
X3.9194 Y8.1268
X3.9113 Y8.1233
X3.9032 Y8.1195
X3.8954 Y8.1154
X3.8877 Y8.1109
X3.8803 Y8.106
X3.873 Y8.1008
X3.866 Y8.0954
X3.8592 Y8.0896
X3.8527 Y8.0835
X3.8464 Y8.0771
X3.8404 Y8.0704
X3.8348 Y8.0635
X3.8294 Y8.0564
X3.8243 Y8.049
X3.8196 Y8.0414
X3.8152 Y8.0336
X3.8112 Y8.0256
X3.8075 Y8.0174
X3.8041 Y8.0091
X3.8012 Y8.0006
X3.7986 Y7.992
X3.7964 Y7.9833
X3.7945 Y7.9745
X3.7931 Y7.9656
X3.7921 Y7.9567
X3.7914 Y7.9477
X3.7911 Y7.9387
X3.7913 Y7.9297
X3.7918 Y7.9208
X3.7927 Y7.9118
X3.794 Y7.9029
X3.7958 Y7.8941
X3.7978 Y7.8853
X3.8003 Y7.8766
X3.8032 Y7.8681
X3.8064 Y7.8597
X3.81 Y7.8514
X3.8139 Y7.8433
X3.8183 Y7.8354
X3.8229 Y7.8277
X3.8279 Y7.8202
X3.8332 Y7.8129
X3.8388 Y7.8059
X3.8447 Y7.7991
X3.851 Y7.7926
X3.8575 Y7.7863
X3.8642 Y7.7804
X3.8713 Y7.7747
X3.8785 Y7.7694
X3.886 Y7.7644
X3.8937 Y7.7597
X3.9016 Y7.7554
X3.9097 Y7.7514
X3.918 Y7.7477
X3.9264 Y7.7445
X3.935 Y7.7416
X3.9436 Y7.7391
X3.9524 Y7.737
X3.9613 Y7.7352
X3.9702 Y7.7339
X3.9792 Y7.7329
X3.9882 Y7.7323
X3.9973 Y7.7322
X4.0063 Y7.7324
X4.0154 Y7.733
X4.0244 Y7.7341
X4.0334 Y7.7355
X4.0424 Y7.7373
X4.0513 Y7.7396
X4.06 Y7.7422
X4.0687 Y7.7452
X4.0773 Y7.7486
X4.0857 Y7.7523
X4.094 Y7.7565
X4.102 Y7.761
X4.1099 Y7.7659
X4.1176 Y7.7711
X4.1251 Y7.7767
X4.1323 Y7.7826
X4.1393 Y7.7888
X4.146 Y7.7953
X4.1524 Y7.8022
X4.1586 Y7.8093
X4.1644 Y7.8166
X4.1698 Y7.8243
X4.175 Y7.8322
X4.1798 Y7.8403
X4.1842 Y7.8486
X4.1883 Y7.857
X4.192 Y7.8657
X4.1953 Y7.8745
X4.1982 Y7.8835
X4.2007 Y7.8925
X4.2028 Y7.9017
X4.2045 Y7.9109
X4.2058 Y7.9202
X4.2067 Y7.9295
X4.2072 Y7.9389
X4.2073 Y7.9482
X4.2069 Y7.9576
X4.2062 Y7.9669
X4.205 Y7.9762
X4.2035 Y7.9854
X4.2015 Y7.9945
X4.1991 Y8.0035
X4.1964 Y8.0124
X4.1932 Y8.0212
X4.1897 Y8.0298
X4.1858 Y8.0383
X4.1815 Y8.0466
X4.1769 Y8.0547
X4.1719 Y8.0625
X4.1666 Y8.0702
X4.161 Y8.0776
X4.155 Y8.0848
X4.1487 Y8.0917
X4.1421 Y8.0983
X4.1352 Y8.1046
X4.1281 Y8.1106
X4.1207 Y8.1163
X4.113 Y8.1217
X4.1051 Y8.1268
X4.0969 Y8.1315
X4.0886 Y8.1358
X4.0801 Y8.1398
X4.0714 Y8.1434
X4.0625 Y8.1466
X4.0535 Y8.1494
X4.0444 Y8.1518
X4.0351 Y8.1539
X4.0258 Y8.1555
X4.0164 Y8.1567
X4.0069 Y8.1575
X3.9974 Y8.1579
X3.9879
X3.9783 Y8.1574
X3.9688 Y8.1566
X3.9594 Y8.1553
X3.95 Y8.1536
X3.9406 Y8.1514
X3.9314 Y8.1489
X3.9222 Y8.146
X3.9132 Y8.1427
X3.9044 Y8.1389
X3.8957 Y8.1348
X3.8872 Y8.1303
X3.8789 Y8.1254
X3.8708 Y8.1202
X3.8629 Y8.1146
X3.8553 Y8.1086
X3.8479 Y8.1024
X3.8409 Y8.0958
X3.8341 Y8.0889
X3.8276 Y8.0817
X3.8214 Y8.0742
X3.8156 Y8.0664
X3.8101 Y8.0584
X3.805 Y8.0502
X3.8002 Y8.0417
X3.7958 Y8.0331
X3.7918 Y8.0242
X3.7882 Y8.0152
X3.785 Y8.006
X3.7822 Y7.9967
X3.7798 Y7.9873
X3.7778 Y7.9778
X3.7762 Y7.9681
X3.7751 Y7.9585
X3.7744 Y7.9488
X3.7741 Y7.939
X3.7742 Y7.9293
X3.7748 Y7.9195
X3.7758 Y7.9098
X3.7772 Y7.9002
X3.779 Y7.8906
X3.7813 Y7.8811
X3.784 Y7.8717
X3.787 Y7.8625
X3.7905 Y7.8534
X3.7944 Y7.8444
X3.7987 Y7.8357
X3.8033 Y7.8271
X3.8084 Y7.8187
X3.8138 Y7.8106
X3.8195 Y7.8027
X3.8256 Y7.795
X3.832 Y7.7877
X3.8387 Y7.7806
X3.8458 Y7.7738
X3.8531 Y7.7674
X3.8607 Y7.7613
X3.8686 Y7.7555
X3.8767 Y7.75
X3.8851 Y7.745
X3.8936 Y7.7403
X3.9024 Y7.7359
X3.9113 Y7.732
X3.9204 Y7.7285
X3.9297 Y7.7253
X3.9391 Y7.7226
X3.9486 Y7.7203
X3.9582 Y7.7184
X3.9679 Y7.7169
X3.9776 Y7.7159
X3.9874 Y7.7153
X3.9972 Y7.7151
X4.007 Y7.7153
X4.0169 Y7.716
X4.0267 Y7.7171
X4.0364 Y7.7187
X4.0461 Y7.7206
X4.0557 Y7.723
X4.0652 Y7.7258
X4.0746 Y7.7291
X4.0839 Y7.7328
X4.093 Y7.7368
X4.1019 Y7.7413
X4.1107 Y7.7462
X4.1192 Y7.7514
X4.1275 Y7.7571
X4.1356 Y7.7631
X4.1434 Y7.7695
X4.151 Y7.7762
X4.1582 Y7.7832
X4.1651 Y7.7906
X4.1718 Y7.7983
X4.178 Y7.8062
X4.184 Y7.8145
X4.1895 Y7.823
X4.1947 Y7.8317
X4.1995 Y7.8407
X4.2039 Y7.8498
X4.2079 Y7.8592
X4.2114 Y7.8687
X4.2146 Y7.8783
X4.2173 Y7.8881
X4.2196 Y7.898
X4.2215 Y7.9079
X4.2229 Y7.918
X4.2239 Y7.9281
X4.2244 Y7.9382
X4.2245 Y7.9483
X4.2241 Y7.9584
X4.2233 Y7.9685
X4.2221 Y7.9785
X4.2204 Y7.9884
X4.2183 Y7.9983
X4.2157 Y8.008
X4.2127 Y8.0177
X4.2093 Y8.0272
X4.2055 Y8.0365
X4.2013 Y8.0456
X4.1967 Y8.0546
X4.1917 Y8.0634
X4.1863 Y8.0719
X4.1806 Y8.0802
X4.1745 Y8.0882
X4.168 Y8.0959
X4.1612 Y8.1034
X4.1541 Y8.1106
X4.1467 Y8.1174
X4.139 Y8.1239
X4.1309 Y8.1301
X4.1226 Y8.1359
X4.1141 Y8.1414
X4.1053 Y8.1465
X4.0963 Y8.1512
X4.0871 Y8.1555
X4.0777 Y8.1594
X4.0681 Y8.1628
X4.0584 Y8.1659
X4.0485 Y8.1685
X4.0385 Y8.1707
X4.0285 Y8.1725
X4.0183 Y8.1738
X4.0081 Y8.1747
X3.9978 Y8.1751
X3.9875
X3.9773 Y8.1746
X3.967 Y8.1737
X3.9568 Y8.1723
X3.9466 Y8.1705
X3.9366 Y8.1682
X3.9266 Y8.1655
X3.9167 Y8.1623
X3.907 Y8.1587
X3.8975 Y8.1547
X3.8881 Y8.1503
X3.8789 Y8.1454
X3.8699 Y8.1402
X3.8612 Y8.1345
X3.8527 Y8.1285
X3.8445 Y8.1221
X3.8365 Y8.1153
X3.8289 Y8.1082
X3.8216 Y8.1008
X3.8146 Y8.093
X3.808 Y8.085
X3.8017 Y8.0766
X3.7957 Y8.068
X3.7902 Y8.0591
X3.7851 Y8.05
X3.7803 Y8.0407
X3.776 Y8.0311
X3.7721 Y8.0214
X3.7686 Y8.0115
X3.7656 Y8.0015
X3.763 Y7.9913
X3.7608 Y7.9811
X3.7591 Y7.9707
X3.7579 Y7.9603
X3.7571 Y7.9498
X3.7568 Y7.9393
X3.7569 Y7.9288
X3.7575 Y7.9183
X3.7586 Y7.9079
X3.7601 Y7.8975
X3.7621 Y7.8872
X3.7645 Y7.8769
X3.7674 Y7.8668
X3.7707 Y7.8568
X3.7745 Y7.847
X3.7786 Y7.8374
X3.7832 Y7.8279
X3.7882 Y7.8186
X3.7937 Y7.8096
X3.7995 Y7.8009
X3.8056 Y7.7923
X3.8122 Y7.7841
X3.8191 Y7.7762
X3.8264 Y7.7685
X3.8339 Y7.7612
X3.8418 Y7.7543
X3.85 Y7.7477
X3.8585 Y7.7414
X3.8672 Y7.7356
X3.8762 Y7.7301
X3.8855 Y7.725
X3.8949 Y7.7203
X3.9045 Y7.7161
X3.9144 Y7.7123
X3.9243 Y7.7089
X3.9345 Y7.7059
X3.9447 Y7.7034
X3.9551 Y7.7014
X3.9655 Y7.6998
X3.976 Y7.6987
X3.9865 Y7.698
X3.9971 Y7.6978
X4.0077 Y7.698
X4.0183 Y7.6988
X4.0289 Y7.6999
X4.0394 Y7.7016
X4.0498 Y7.7037
X4.0602 Y7.7063
X4.0704 Y7.7093
X4.0805 Y7.7128
X4.0905 Y7.7167
X4.1003 Y7.7211
X4.11 Y7.7259
X4.1194 Y7.7312
X4.1286 Y7.7368
X4.1375 Y7.7429
X4.1462 Y7.7493
X4.1546 Y7.7562
X4.1627 Y7.7634
X4.1705 Y7.771
X4.178 Y7.7789
X4.1851 Y7.7871
X4.1918 Y7.7957
X4.1982 Y7.8045
X4.2042 Y7.8136
X4.2098 Y7.823
X4.2149 Y7.8326
X4.2196 Y7.8425
X4.2239 Y7.8525
X4.2278 Y7.8627
X4.2312 Y7.8731
X4.2341 Y7.8836
X4.2366 Y7.8942
X4.2386 Y7.9049
X4.2401 Y7.9157
X4.2412 Y7.9265
X4.2418 Y7.9374
X4.2419 Y7.9483
X4.2415 Y7.9592
X4.2406 Y7.97
X4.2393 Y7.9808
X4.2375 Y7.9915
X4.2352 Y8.0021
X4.2325 Y8.0126
X4.2293 Y8.023
X4.2257 Y8.0332
X4.2216 Y8.0432
X4.217 Y8.0531
X4.2121 Y8.0627
X4.2067 Y8.0721
X4.2009 Y8.0813
X4.1948 Y8.0902
X4.1882 Y8.0989
X4.1812 Y8.1072
X4.1739 Y8.1153
X4.1663 Y8.123
X4.1583 Y8.1303
X4.15 Y8.1374
X4.1414 Y8.144
X4.1324 Y8.1503
X4.1233 Y8.1562
X4.1138 Y8.1616
X4.1041 Y8.1667
X4.0942 Y8.1713
X4.0841 Y8.1755
X4.0738 Y8.1793
X4.0634 Y8.1826
X4.0528 Y8.1854
X4.042 Y8.1878
X4.0312 Y8.1897
X4.0203 Y8.1911
X4.0093 Y8.1921
X3.9983 Y8.1925
X3.9872
X3.9762 Y8.192
X3.9652 Y8.191
X3.9542 Y8.1895
X3.9433 Y8.1876
X3.9325 Y8.1852
X3.9218 Y8.1822
X3.9112 Y8.1789
X3.9007 Y8.175
X3.8905 Y8.1707
X3.8804 Y8.1659
X3.8705 Y8.1607
X3.8609 Y8.1551
X3.8515 Y8.1491
X3.8424 Y8.1426
X3.8336 Y8.1357
X3.825 Y8.1285
X3.8168 Y8.1209
X3.809 Y8.1129
X3.8015 Y8.1046
X3.7943 Y8.0959
X3.7876 Y8.087
X3.7812 Y8.0777
X3.7753 Y8.0682
X3.7697 Y8.0584
X3.7646 Y8.0484
X3.76 Y8.0382
X3.7558 Y8.0277
X3.752 Y8.0171
X3.7488 Y8.0064
X3.746 Y7.9955
X3.7437 Y7.9844
X3.7418 Y7.9733
X3.7405 Y7.9622
X3.7396 Y7.9509
X3.7393 Y7.9397
X3.7394 Y7.9284
X3.7401 Y7.9171
X3.7412 Y7.9059
X3.7428 Y7.8948
X3.7449 Y7.8837
X3.7475 Y7.8727
X3.7506 Y7.8618
X3.7542 Y7.8511
X3.7582 Y7.8406
X3.7627 Y7.8302
X3.7676 Y7.8201
X3.773 Y7.8101
X3.7788 Y7.8005
X3.785 Y7.791
X3.7916 Y7.7819
X3.7986 Y7.7731
X3.806 Y7.7645
X3.8138 Y7.7564
X3.8219 Y7.7485
X3.8304 Y7.741
X3.8392 Y7.7339
X3.8483 Y7.7272
X3.8577 Y7.7209
X3.8673 Y7.715
X3.8772 Y7.7096
X3.8873 Y7.7046
X3.8977 Y7.7
X3.9082 Y7.6959
X3.9189 Y7.6923
X3.9298 Y7.6891
X3.9408 Y7.6864
X3.9519 Y7.6842
X3.9631 Y7.6825
X3.9743 Y7.6812
X3.9857 Y7.6805
X3.997 Y7.6803
X4.0084 Y7.6805
X4.0198 Y7.6813
X4.0311 Y7.6826
X4.0424 Y7.6843
X4.0536 Y7.6866
X4.0647 Y7.6893
X4.0757 Y7.6926
X4.0865 Y7.6963
X4.0972 Y7.7005
X4.1077 Y7.7052
X4.1181 Y7.7104
X4.1282 Y7.716
X4.138 Y7.722
X4.1476 Y7.7285
X4.1569 Y7.7354
X4.1659 Y7.7427
X4.1746 Y7.7504
X4.183 Y7.7585
X4.1909 Y7.767
X4.1986 Y7.7758
X4.2058 Y7.785
X4.2126 Y7.7944
X4.219 Y7.8042
X4.225 Y7.8142
X4.2305 Y7.8245
X4.2356 Y7.835
X4.2402 Y7.8458
X4.2443 Y7.8567
X4.248 Y7.8678
X4.2511 Y7.879
X4.2538 Y7.8904
X4.2559 Y7.9018
X4.2576 Y7.9134
X4.2587 Y7.925
X4.2593 Y7.9366
X4.2594 Y7.9483
X4.2591 Y7.9599
X4.2581 Y7.9715
X4.2567 Y7.9831
X4.2548 Y7.9946
X4.2524 Y8.0059
X4.2495 Y8.0172
X4.2461 Y8.0283
X4.2422 Y8.0392
X4.2378 Y8.05
X4.2329 Y8.0606
X4.2277 Y8.0709
X4.2219 Y8.081
X4.2157 Y8.0908
X4.2091 Y8.1004
X4.2021 Y8.1097
X4.1946 Y8.1186
X4.1868 Y8.1272
X4.1786 Y8.1355
X4.1701 Y8.1434
X4.1612 Y8.1509
X4.1519 Y8.1581
X4.1424 Y8.1648
X4.1326 Y8.1711
X4.1224 Y8.177
X4.1121 Y8.1824
X4.1015 Y8.1874
X4.0907 Y8.1919
X4.0796 Y8.1959
X4.0684 Y8.1994
X4.0571 Y8.2025
X4.0456 Y8.205
X4.034 Y8.2071
X4.0223 Y8.2086
X4.0106 Y8.2097
X3.9988 Y8.2102
X3.987 Y8.2101
X3.9752 Y8.2096
X3.9634 Y8.2086
X3.9516 Y8.207
X3.9399 Y8.2049
X3.9284 Y8.2023
X3.9169 Y8.1992
X3.9056 Y8.1956
X3.8944 Y8.1915
X3.8834 Y8.1869
X3.8726 Y8.1818
X3.8621 Y8.1763
X3.8518 Y8.1702
X3.8417 Y8.1638
X3.832 Y8.1569
X3.8225 Y8.1495
X3.8134 Y8.1418
X3.8047 Y8.1337
X3.7962 Y8.1251
X3.7882 Y8.1163
X3.7806 Y8.107
X3.7733 Y8.0975
X3.7665 Y8.0876
X3.7602 Y8.0774
X3.7542 Y8.0669
X3.7488 Y8.0562
X3.7438 Y8.0453
X3.7393 Y8.0342
X3.7353 Y8.0228
X3.7318 Y8.0113
X3.7288 Y7.9997
X3.7263 Y7.9879
X3.7243 Y7.976
X3.7229 Y7.9641
X3.722 Y7.9521
X3.7216 Y7.94
X3.7217 Y7.928
X3.7224 Y7.9159
X3.7236 Y7.9039
X3.7253 Y7.892
X3.7276 Y7.8802
X3.7304 Y7.8684
X3.7336 Y7.8568
X3.7374 Y7.8454
X3.7417 Y7.8341
X3.7465 Y7.823
X3.7517 Y7.8122
X3.7575 Y7.8016
X3.7637 Y7.7912
X3.7703 Y7.7811
X3.7774 Y7.7714
X3.7849 Y7.7619
X3.7928 Y7.7528
X3.8011 Y7.744
X3.8098 Y7.7356
X3.8188 Y7.7276
X3.8282 Y7.7201
X3.8379 Y7.7129
X3.8479 Y7.7061
X3.8582 Y7.6998
X3.8688 Y7.694
X3.8796 Y7.6886
X3.8907 Y7.6837
X3.9019 Y7.6793
X3.9134 Y7.6754
X3.925 Y7.672
X3.9367 Y7.6691
X3.9486 Y7.6668
X3.9606 Y7.6649
X3.9726 Y7.6636
X3.9848 Y7.6628
X3.9969 Y7.6626
X4.009 Y7.6628
X4.0212 Y7.6636
X4.0333 Y7.665
X4.0454 Y7.6669
X4.0573 Y7.6693
X4.0692 Y7.6722
X4.0809 Y7.6757
X4.0925 Y7.6796
X4.104 Y7.6841
X4.1152 Y7.6891
X4.1262 Y7.6946
X4.137 Y7.7006
X4.1475 Y7.707
X4.1578 Y7.7139
X4.1677 Y7.7213
X4.1773 Y7.7291
X4.1866 Y7.7373
X4.1955 Y7.7459
X4.204 Y7.755
X4.2122 Y7.7644
X4.2199 Y7.7741
X4.2272 Y7.7842
X4.234 Y7.7946
X4.2404 Y7.8053
X4.2463 Y7.8163
X4.2517 Y7.8275
X4.2566 Y7.8389
X4.261 Y7.8506
X4.2649 Y7.8624
X4.2683 Y7.8744
X4.2711 Y7.8865
X4.2735 Y7.8987
X4.2752 Y7.911
X4.2764 Y7.9234
X4.2771 Y7.9358
X4.2773 Y7.9483
X4.2768 Y7.9607
X4.2759 Y7.9731
X4.2744 Y7.9854
X4.2723 Y7.9976
X4.2698 Y8.0098
X4.2666 Y8.0218
X4.263 Y8.0337
X4.2589 Y8.0453
X4.2542 Y8.0568
X4.2491 Y8.0681
X4.2434 Y8.0792
X4.2373 Y8.09
X4.2307 Y8.1005
X4.2236 Y8.1107
X4.2161 Y8.1206
X4.2082 Y8.1301
X4.1999 Y8.1393
X4.1911 Y8.1482
X4.182 Y8.1566
X4.1725 Y8.1647
X4.1626 Y8.1723
X4.1525 Y8.1795
X4.142 Y8.1862
X4.1312 Y8.1925
X4.1201 Y8.1983
X4.1088 Y8.2036
X4.0973 Y8.2084
X4.0855 Y8.2127
X4.0736 Y8.2165
X4.0615 Y8.2198
X4.0493 Y8.2225
X4.0369 Y8.2247
X4.0244 Y8.2263
X4.0119 Y8.2274
X3.9993 Y8.228
X3.9867
X3.9741 Y8.2274
X3.9615 Y8.2263
X3.949 Y8.2247
X3.9366 Y8.2224
X3.9242 Y8.2197
X3.912 Y8.2164
X3.8999 Y8.2125
X3.888 Y8.2082
X3.8763 Y8.2033
X3.8648 Y8.1979
X3.8536 Y8.192
X3.8426 Y8.1856
X3.8319 Y8.1787
X3.8215 Y8.1713
X3.8114 Y8.1635
X3.8017 Y8.1553
X3.7923 Y8.1466
X3.7834 Y8.1376
X3.7748 Y8.1281
X3.7667 Y8.1183
X3.7589 Y8.1081
X3.7517 Y8.0976
X3.7449 Y8.0867
X3.7386 Y8.0756
X3.7328 Y8.0642
X3.7274 Y8.0526
X3.7226 Y8.0407
X3.7184 Y8.0286
X3.7146 Y8.0164
X3.7114 Y8.0039
X3.7088 Y7.9914
X3.7067 Y7.9788
X3.7051 Y7.966
X3.7041 Y7.9532
X3.7037 Y7.9404
X3.7038 Y7.9276
X3.7045 Y7.9148
X3.7058 Y7.902
X3.7076 Y7.8893
X3.71 Y7.8767
X3.713 Y7.8642
X3.7164 Y7.8518
X3.7205 Y7.8396
X3.725 Y7.8276
X3.7301 Y7.8158
X3.7357 Y7.8042
X3.7418 Y7.7929
X3.7484 Y7.7819
X3.7555 Y7.7711
X3.763 Y7.7607
X3.771 Y7.7506
X3.7794 Y7.7409
X3.7882 Y7.7316
X3.7975 Y7.7226
X3.8071 Y7.7141
X3.8171 Y7.706
X3.8274 Y7.6984
X3.8381 Y7.6912
X3.849 Y7.6845
X3.8603 Y7.6782
X3.8718 Y7.6725
X3.8836 Y7.6673
X3.8956 Y7.6626
X3.9078 Y7.6584
X3.9201 Y7.6548
X3.9327 Y7.6517
X3.9453 Y7.6492
X3.9581 Y7.6472
X3.9709 Y7.6458
X3.9838 Y7.6449
X3.9967 Y7.6446
X4.0097 Y7.6449
X4.0226 Y7.6458
X4.0355 Y7.6472
X4.0483 Y7.6492
X4.0611 Y7.6517
X4.0737 Y7.6548
X4.0862 Y7.6585
X4.0986 Y7.6627
X4.1108 Y7.6675
X4.1227 Y7.6728
X4.1345 Y7.6786
X4.1459 Y7.685
X4.1571 Y7.6918
X4.168 Y7.6992
X4.1786 Y7.707
X4.1888 Y7.7153
X4.1987 Y7.724
X4.2082 Y7.7332
X4.2173 Y7.7428
X4.2259 Y7.7527
X4.2341 Y7.7631
X4.2419 Y7.7738
X4.2492 Y7.7849
X4.2559 Y7.7962
X4.2622 Y7.8079
X4.268 Y7.8198
X4.2732 Y7.832
X4.2779 Y7.8443
X4.2821 Y7.8569
X4.2857 Y7.8697
X4.2887 Y7.8825
X4.2912 Y7.8955
X4.2931 Y7.9086
X4.2944 Y7.9218
X4.2951 Y7.935
X4.2952 Y7.9482
X4.2948 Y7.9614
X4.2938 Y7.9746
X4.2922 Y7.9877
X4.2901 Y8.0007
X4.2873 Y8.0137
X4.284 Y8.0264
X4.2802 Y8.0391
X4.2758 Y8.0515
X4.2708 Y8.0637
X4.2653 Y8.0758
X4.2594 Y8.0875
X4.2528 Y8.099
X4.2458 Y8.1102
X4.2383 Y8.121
X4.2304 Y8.1316
X4.2219 Y8.1418
X4.2131 Y8.1516
X4.2038 Y8.161
X4.1941 Y8.17
X4.184 Y8.1785
X4.1735 Y8.1866
X4.1627 Y8.1943
X4.1515 Y8.2015
X4.1401 Y8.2081
X4.1283 Y8.2143
X4.1163 Y8.22
X4.104 Y8.2251
X4.0915 Y8.2297
X4.0789 Y8.2337
X4.066 Y8.2372
X4.053 Y8.2401
X4.0398 Y8.2425
X4.0266 Y8.2442
X4.0133 Y8.2454
X3.9999 Y8.246
X3.9865
X3.9731 Y8.2454
X3.9598 Y8.2443
X3.9465 Y8.2425
X3.9332 Y8.2402
X3.9201 Y8.2372
X3.9071 Y8.2337
X3.8943 Y8.2297
X3.8816 Y8.225
X3.8692 Y8.2198
X3.857 Y8.2141
X3.845 Y8.2079
X3.8333 Y8.2011
X3.822 Y8.1938
X3.8109 Y8.186
X3.8002 Y8.1777
X3.7899 Y8.1689
X3.7799 Y8.1597
X3.7704 Y8.1501
X3.7613 Y8.1401
X3.7526 Y8.1296
X3.7444 Y8.1188
X3.7367 Y8.1077
X3.7295 Y8.0962
X3.7228 Y8.0844
X3.7166 Y8.0723
X3.7109 Y8.0599
X3.7058 Y8.0473
X3.7013 Y8.0345
X3.6973 Y8.0215
X3.6939 Y8.0083
X3.6911 Y7.995
X3.6888 Y7.9816
X3.6872 Y7.968
X3.6861 Y7.9545
X3.6856 Y7.9408
X3.6858 Y7.9272
X3.6865 Y7.9136
X3.6879 Y7.9
X3.6898 Y7.8865
X3.6923 Y7.8731
X3.6954 Y7.8599
X3.6991 Y7.8467
X3.7034 Y7.8338
X3.7082 Y7.821
X3.7136 Y7.8085
X3.7195 Y7.7962
X3.726 Y7.7842
X3.733 Y7.7725
X3.7405 Y7.7611
X3.7484 Y7.75
X3.7569 Y7.7393
X3.7658 Y7.729
X3.7752 Y7.7191
X3.785 Y7.7096
X3.7952 Y7.7005
X3.8058 Y7.6919
X3.8168 Y7.6838
X3.8281 Y7.6761
X3.8398 Y7.669
X3.8517 Y7.6623
X3.8639 Y7.6563
X3.8764 Y7.6507
X3.8891 Y7.6457
X3.9021 Y7.6413
X3.9152 Y7.6374
X3.9285 Y7.6341
X3.9419 Y7.6314
X3.9555 Y7.6293
X3.9691 Y7.6278
X3.9828 Y7.6269
X3.9965 Y7.6266
X4.0103 Y7.6268
X4.024 Y7.6277
X4.0377 Y7.6292
X4.0513 Y7.6313
X4.0648 Y7.634
X4.0783 Y7.6373
X4.0915 Y7.6412
X4.1046 Y7.6457
X4.1175 Y7.6507
X4.1302 Y7.6563
X4.1427 Y7.6625
X4.1549 Y7.6692
X4.1667 Y7.6765
X4.1783 Y7.6843
X4.1895 Y7.6925
X4.2004 Y7.7013
X4.2108 Y7.7106
X4.2209 Y7.7203
X4.2305 Y7.7304
X4.2397 Y7.741
X4.2484 Y7.752
X4.2567 Y7.7633
X4.2644 Y7.775
X4.2716 Y7.7871
X4.2782 Y7.7994
X4.2844 Y7.8121
X4.2899 Y7.8249
X4.2949 Y7.8381
X4.2993 Y7.8514
X4.3032 Y7.8649
X4.3064 Y7.8785
X4.309 Y7.8923
X4.311 Y7.9062
X4.3124 Y7.9201
X4.3132 Y7.9341
X4.3134 Y7.9482
X4.3129 Y7.9622
X4.3119 Y7.9761
X4.3102 Y7.99
X4.3079 Y8.0038
X4.305 Y8.0175
X4.3015 Y8.0311
X4.2975 Y8.0445
X4.2928 Y8.0577
X4.2876 Y8.0707
X4.2818 Y8.0834
X4.2754 Y8.0959
X4.2685 Y8.1081
X4.2611 Y8.1199
X4.2531 Y8.1315
X4.2447 Y8.1426
X4.2358 Y8.1534
X4.2264 Y8.1638
X4.2165 Y8.1738
X4.2063 Y8.1834
X4.1956 Y8.1924
X4.1845 Y8.2011
X4.173 Y8.2092
X4.1612 Y8.2168
X4.149 Y8.2239
X4.1366 Y8.2304
X4.1239 Y8.2364
X4.1109 Y8.2419
X4.0976 Y8.2468
X4.0842 Y8.251
X4.0705 Y8.2547
X4.0568 Y8.2578
X4.0428 Y8.2603
X4.0288 Y8.2622
X4.0147 Y8.2635
X4.0005 Y8.2641
X3.9863
X3.9722 Y8.2635
X3.958 Y8.2623
X3.9439 Y8.2605
X3.9299 Y8.258
X3.916 Y8.2549
X3.9022 Y8.2512
X3.8886 Y8.2469
X3.8752 Y8.242
X3.862 Y8.2365
X3.8491 Y8.2305
X3.8364 Y8.2238
X3.8241 Y8.2167
X3.812 Y8.2089
X3.8003 Y8.2007
X3.789 Y8.1919
X3.778 Y8.1827
X3.7675 Y8.173
X3.7574 Y8.1628
X3.7477 Y8.1521
X3.7386 Y8.1411
X3.7299 Y8.1297
X3.7217 Y8.1179
X3.714 Y8.1057
X3.7069 Y8.0932
X3.7004 Y8.0804
X3.6944 Y8.0673
X3.6889 Y8.054
X3.6841 Y8.0404
X3.6799 Y8.0266
X3.6763 Y8.0127
X3.6733 Y7.9986
X3.6709 Y7.9844
X3.6691 Y7.9701
X3.668 Y7.9557
X3.6675 Y7.9413
X3.6676 Y7.9269
X3.6684 Y7.9125
X3.6698 Y7.8981
X3.6718 Y7.8838
X3.6745 Y7.8696
X3.6778 Y7.8556
X3.6817 Y7.8417
X3.6862 Y7.828
X3.6913 Y7.8145
X3.6969 Y7.8012
X3.7032 Y7.7882
X3.71 Y7.7755
X3.7174 Y7.763
X3.7253 Y7.751
X3.7338 Y7.7392
X3.7427 Y7.7279
X3.7522 Y7.717
X3.7621 Y7.7065
X3.7725 Y7.6964
X3.7833 Y7.6868
X3.7945 Y7.6777
X3.8061 Y7.6691
X3.8181 Y7.661
X3.8304 Y7.6534
X3.843 Y7.6464
X3.856 Y7.6399
X3.8692 Y7.634
X3.8826 Y7.6287
X3.8963 Y7.624
X3.9102 Y7.6199
X3.9243 Y7.6164
X3.9385 Y7.6136
X3.9528 Y7.6113
X3.9673 Y7.6097
X3.9817 Y7.6087
X3.9963 Y7.6084
X4.0108 Y7.6087
X4.0254 Y7.6096
X4.0398 Y7.6112
X4.0543 Y7.6134
X4.0686 Y7.6162
X4.0828 Y7.6197
X4.0968 Y7.6238
X4.1107 Y7.6285
X4.1243 Y7.6338
X4.1378 Y7.6398
X4.1509 Y7.6463
X4.1638 Y7.6534
X4.1764 Y7.661
X4.1886 Y7.6693
X4.2005 Y7.678
X4.212 Y7.6873
X4.223 Y7.6971
X4.2337 Y7.7073
X4.2439 Y7.718
X4.2536 Y7.7292
X4.2628 Y7.7408
X4.2715 Y7.7528
X4.2797 Y7.7651
X4.2873 Y7.7779
X4.2944 Y7.7909
X4.3008 Y7.8042
X4.3067 Y7.8178
X4.312 Y7.8317
X4.3167 Y7.8458
X4.3207 Y7.86
X4.3241 Y7.8745
X4.3269 Y7.889
X4.3291 Y7.9037
X4.3305 Y7.9185
X4.3314 Y7.9333
X4.3316 Y7.9481
X4.3311 Y7.9629
X4.33 Y7.9776
X4.3283 Y7.9923
X4.3259 Y8.0069
X4.3228 Y8.0214
X4.3191 Y8.0358
X4.3148 Y8.0499
X4.3099 Y8.0639
X4.3044 Y8.0776
X4.2983 Y8.0911
X4.2916 Y8.1043
X4.2843 Y8.1172
X4.2765 Y8.1297
X4.2681 Y8.1419
X4.2592 Y8.1537
X4.2497 Y8.1652
X4.2398 Y8.1762
X4.2294 Y8.1867
X4.2185 Y8.1968
X4.2072 Y8.2064
X4.1955 Y8.2155
X4.1834 Y8.2241
X4.1709 Y8.2322
X4.1581 Y8.2397
X4.1449 Y8.2466
X4.1315 Y8.253
X4.1177 Y8.2588
X4.1038 Y8.2639
X4.0896 Y8.2685
X4.0752 Y8.2724
X4.0606 Y8.2757
X4.0459 Y8.2783
X4.0311 Y8.2803
X4.0161 Y8.2817
X4.0012 Y8.2823
X3.9862 Y8.2824
X3.9712 Y8.2817
X3.9563 Y8.2805
X3.9414 Y8.2785
X3.9266 Y8.2759
X3.9119 Y8.2727
X3.8973 Y8.2688
X3.883 Y8.2643
X3.8688 Y8.2591
X3.8549 Y8.2533
X3.8412 Y8.2469
X3.8278 Y8.2399
X3.8148 Y8.2324
X3.802 Y8.2242
X3.7897 Y8.2155
X3.7777 Y8.2063
X3.7661 Y8.1965
X3.755 Y8.1863
X3.7443 Y8.1755
X3.7341 Y8.1643
X3.7244 Y8.1527
X3.7152 Y8.1406
X3.7066 Y8.1281
X3.6985 Y8.1153
X3.691 Y8.1021
X3.684 Y8.0886
X3.6777 Y8.0748
X3.672 Y8.0607
X3.6669 Y8.0464
X3.6624 Y8.0319
X3.6585 Y8.0171
X3.6554 Y8.0023
X3.6528 Y7.9873
X3.651 Y7.9722
X3.6498 Y7.957
X3.6492 Y7.9418
X3.6494 Y7.9266
X3.6502 Y7.9114
X3.6516 Y7.8962
X3.6538 Y7.8811
X3.6565 Y7.8661
X3.66 Y7.8513
X3.6641 Y7.8366
X3.6688 Y7.8221
X3.6742 Y7.8079
X3.6802 Y7.7939
X3.6868 Y7.7801
X3.694 Y7.7667
X3.7018 Y7.7536
X3.7101 Y7.7408
X3.719 Y7.7284
X3.7285 Y7.7165
X3.7384 Y7.7049
X3.7489 Y7.6938
X3.7598 Y7.6832
X3.7712 Y7.6731
X3.7831 Y7.6634
X3.7953 Y7.6543
X3.8079 Y7.6458
X3.8209 Y7.6378
X3.8343 Y7.6303
X3.8479 Y7.6235
X3.8619 Y7.6173
X3.8761 Y7.6117
X3.8905 Y7.6067
X3.9052 Y7.6023
X3.92 Y7.5987
X3.935 Y7.5956
X3.9502 Y7.5932
X3.9654 Y7.5915
X3.9807 Y7.5905
X3.996 Y7.5901
X4.0114 Y7.5904
X4.0267 Y7.5914
X4.042 Y7.593
X4.0572 Y7.5953
X4.0723 Y7.5983
X4.0873 Y7.602
X4.1021 Y7.6063
X4.1167 Y7.6112
X4.1312 Y7.6169
X4.1453 Y7.6231
X4.1592 Y7.63
X4.1728 Y7.6374
X4.1861 Y7.6455
X4.199 Y7.6541
X4.2115 Y7.6634
X4.2236 Y7.6731
X4.2353 Y7.6834
X4.2465 Y7.6942
X4.2573 Y7.7055
X4.2675 Y7.7173
X4.2772 Y7.7295
X4.2864 Y7.7421
X4.295 Y7.7552
X4.3031 Y7.7686
X4.3105 Y7.7823
X4.3174 Y7.7964
X4.3236 Y7.8107
X4.3292 Y7.8253
X4.3341 Y7.8401
X4.3384 Y7.8552
X4.342 Y7.8704
X4.3449 Y7.8857
X4.3472 Y7.9012
X4.3488 Y7.9167
X4.3497 Y7.9323
X4.3499 Y7.9479
X4.3494 Y7.9636
X4.3483 Y7.9791
X4.3464 Y7.9946
X4.3439 Y8.01
X4.3407 Y8.0253
X4.3369 Y8.0404
X4.3323 Y8.0554
X4.3272 Y8.0701
X4.3214 Y8.0846
X4.3149 Y8.0988
X4.3079 Y8.1127
X4.3002 Y8.1263
X4.2919 Y8.1395
X4.2831 Y8.1524
X4.2737 Y8.1649
X4.2638 Y8.1769
X4.2533 Y8.1885
X4.2424 Y8.1997
X4.2309 Y8.2103
X4.219 Y8.2205
X4.2067 Y8.2301
X4.1939 Y8.2392
X4.1807 Y8.2477
X4.1672 Y8.2556
X4.1534 Y8.2629
X4.1392 Y8.2696
X4.1247 Y8.2757
X4.11 Y8.2812
X4.095 Y8.286
X4.0798 Y8.2901
X4.0645 Y8.2936
X4.049 Y8.2964
X4.0333 Y8.2985
X4.0176 Y8.2999
X4.0019 Y8.3007
X3.9861
X3.9703 Y8.3001
X3.9545 Y8.2987
X3.9388 Y8.2967
X3.9232 Y8.294
X3.9078 Y8.2906
X3.8924 Y8.2865
X3.8773 Y8.2817
X3.8624 Y8.2763
X3.8477 Y8.2702
X3.8333 Y8.2635
X3.8192 Y8.2562
X3.8054 Y8.2482
X3.792 Y8.2396
X3.779 Y8.2305
X3.7664 Y8.2207
X3.7542 Y8.2105
X3.7424 Y8.1997
X3.7312 Y8.1884
X3.7204 Y8.1766
X3.7102 Y8.1643
X3.7005 Y8.1516
X3.6914 Y8.1385
X3.6829 Y8.125
X3.6749 Y8.1111
X3.6676 Y8.0969
X3.6609 Y8.0823
X3.6549 Y8.0675
X3.6495 Y8.0524
X3.6448 Y8.0371
X3.6407 Y8.0217
X3.6374 Y8.006
X3.6347 Y7.9902
X3.6327 Y7.9743
X3.6314 Y7.9583
X3.6308 Y7.9423
X3.631 Y7.9263
X3.6318 Y7.9103
X3.6333 Y7.8943
X3.6356 Y7.8784
X3.6385 Y7.8626
X3.6421 Y7.847
X3.6464 Y7.8316
X3.6514 Y7.8163
X3.657 Y7.8013
X3.6633 Y7.7865
X3.6703 Y7.772
X3.6779 Y7.7579
X3.686 Y7.7441
X3.6948 Y7.7306
X3.7042 Y7.7176
X3.7141 Y7.705
X3.7246 Y7.6928
X3.7356 Y7.6811
X3.7471 Y7.6699
X3.7591 Y7.6592
X3.7716 Y7.6491
X3.7844 Y7.6395
X3.7977 Y7.6305
X3.8114 Y7.622
X3.8254 Y7.6142
X3.8398 Y7.607
X3.8545 Y7.6004
X3.8695 Y7.5945
X3.8847 Y7.5893
X3.9001 Y7.5847
X3.9157 Y7.5808
X3.9315 Y7.5776
X3.9474 Y7.575
X3.9635 Y7.5732
X3.9796 Y7.5721
X3.9957 Y7.5717
X4.0119 Y7.572
X4.028 Y7.573
X4.0441 Y7.5747
X4.0601 Y7.5772
X4.076 Y7.5803
X4.0918 Y7.5841
X4.1074 Y7.5887
X4.1228 Y7.5939
X4.138 Y7.5998
X4.1529 Y7.6063
X4.1675 Y7.6135
X4.1818 Y7.6214
X4.1958 Y7.6298
X4.2094 Y7.6389
X4.2225 Y7.6486
X4.2353 Y7.6589
X4.2476 Y7.6697
X4.2594 Y7.6811
X4.2707 Y7.6929
X4.2815 Y7.7053
X4.2917 Y7.7181
X4.3014 Y7.7314
X4.3105 Y7.7451
X4.319 Y7.7592
X4.3268 Y7.7736
X4.334 Y7.7884
X4.3406 Y7.8035
X4.3464 Y7.8188
X4.3516 Y7.8344
X4.3562 Y7.8502
X4.36 Y7.8662
X4.3631 Y7.8824
X4.3655 Y7.8986
X4.3671 Y7.915
X4.3681 Y7.9314
X4.3683 Y7.9478
X4.3679 Y7.9642
X4.3667 Y7.9806
X4.3647 Y7.9969
X4.3621 Y8.0131
X4.3587 Y8.0292
X4.3547 Y8.0451
X4.35 Y8.0608
X4.3445 Y8.0763
X4.3384 Y8.0915
X4.3317 Y8.1065
X4.3242 Y8.1211
X4.3162 Y8.1354
X4.3075 Y8.1494
X4.2982 Y8.1629
X4.2884 Y8.1761
X4.2779 Y8.1888
X4.2669 Y8.201
X4.2554 Y8.2127
X4.2434 Y8.2239
X4.2309 Y8.2346
X4.2179 Y8.2447
X4.2045 Y8.2543
X4.1906 Y8.2632
X4.1764 Y8.2716
X4.1618 Y8.2793
X4.1469 Y8.2864
X4.1317 Y8.2928
X4.1162 Y8.2985
X4.1005 Y8.3036
X4.0845 Y8.308
X4.0684 Y8.3116
X4.0521 Y8.3146
X4.0357 Y8.3168
X4.0192 Y8.3183
X4.0026 Y8.3191
X3.986 Y8.3192
X3.9694 Y8.3185
X3.9528 Y8.3171
X3.9363 Y8.315
X3.9199 Y8.3121
X3.9036 Y8.3086
X3.8875 Y8.3043
X3.8716 Y8.2993
X3.8559 Y8.2936
X3.8405 Y8.2872
X3.8254 Y8.2802
X3.8105 Y8.2725
X3.7961 Y8.2641
X3.782 Y8.2551
X3.7683 Y8.2455
X3.755 Y8.2353
X3.7422 Y8.2245
X3.7298 Y8.2132
X3.718 Y8.2013
X3.7067 Y8.1889
X3.6959 Y8.176
X3.6857 Y8.1627
X3.6762 Y8.1489
X3.6672 Y8.1347
X3.6588 Y8.1201
X3.6511 Y8.1052
X3.6441 Y8.0899
X3.6377 Y8.0744
X3.6321 Y8.0586
X3.6271 Y8.0425
X3.6228 Y8.0262
X3.6193 Y8.0098
X3.6164 Y7.9932
X3.6143 Y7.9765
X3.613 Y7.9597
X3.6124 Y7.9428
X3.6125 Y7.926
X3.6133 Y7.9092
X3.6149 Y7.8924
X3.6173 Y7.8757
X3.6203 Y7.8591
X3.6241 Y7.8427
X3.6286 Y7.8265
X3.6339 Y7.8105
X3.6398 Y7.7947
X3.6464 Y7.7792
X3.6537 Y7.7639
X3.6616 Y7.7491
X3.6702 Y7.7346
X3.6794 Y7.7204
X3.6892 Y7.7067
X3.6997 Y7.6935
X3.7107 Y7.6807
X3.7222 Y7.6684
X3.7343 Y7.6566
X3.7469 Y7.6454
X3.76 Y7.6347
X3.7735 Y7.6246
X3.7874 Y7.6151
X3.8018 Y7.6062
X3.8165 Y7.598
X3.8316 Y7.5904
X3.8471 Y7.5835
X3.8628 Y7.5773
X3.8787 Y7.5717
X3.895 Y7.5669
X3.9114 Y7.5628
X3.9279 Y7.5594
X3.9447 Y7.5567
X3.9615 Y7.5548
X3.9784 Y7.5536
X3.9954 Y7.5532
X4.0124 Y7.5535
X4.0293 Y7.5545
X4.0462 Y7.5563
X4.063 Y7.5589
X4.0798 Y7.5622
X4.0963 Y7.5662
X4.1127 Y7.5709
X4.1289 Y7.5764
X4.1448 Y7.5825
X4.1605 Y7.5894
X4.1758 Y7.597
X4.1909 Y7.6052
X4.2055 Y7.6141
X4.2198 Y7.6236
X4.2336 Y7.6338
X4.247 Y7.6445
X4.2599 Y7.6559
X4.2723 Y7.6678
X4.2842 Y7.6802
X4.2956 Y7.6932
X4.3063 Y7.7067
X4.3165 Y7.7206
X4.326 Y7.735
X4.3349 Y7.7497
X4.3432 Y7.7649
X4.3507 Y7.7804
X4.3576 Y7.7962
X4.3638 Y7.8123
X4.3693 Y7.8287
X4.374 Y7.8452
X4.378 Y7.862
X4.3813 Y7.879
X4.3838 Y7.896
X4.3856 Y7.9132
X4.3866 Y7.9304
X4.3869 Y7.9476
X4.3864 Y7.9649
X4.3851 Y7.9821
X4.3831 Y7.9992
X4.3804 Y8.0162
X4.3769 Y8.0331
X4.3726 Y8.0498
X4.3677 Y8.0663
X4.362 Y8.0825
X4.3556 Y8.0985
X4.3485 Y8.1142
X4.3407 Y8.1296
X4.3323 Y8.1446
X4.3232 Y8.1593
X4.3135 Y8.1735
X4.3031 Y8.1873
X4.2922 Y8.2006
X4.2806 Y8.2135
X4.2686 Y8.2258
X4.2559 Y8.2376
X4.2428 Y8.2488
X4.2292 Y8.2594
X4.2151 Y8.2695
X4.2006 Y8.2789
X4.1857 Y8.2876
X4.1704 Y8.2958
X4.1548 Y8.3032
X4.1388 Y8.3099
X4.1226 Y8.316
X4.106 Y8.3213
X4.0893 Y8.3259
X4.0724 Y8.3298
X4.0553 Y8.3329
X4.0381 Y8.3352
X4.0207 Y8.3368
X4.0033 Y8.3377
X3.9859
X3.9685 Y8.3371
X3.9511 Y8.3356
X3.9338 Y8.3334
X3.9166 Y8.3304
X3.8995 Y8.3267
X3.8826 Y8.3222
X3.8659 Y8.317
X3.8495 Y8.311
X3.8333 Y8.3044
X3.8174 Y8.297
X3.8019 Y8.2889
X3.7867 Y8.2801
X3.7719 Y8.2707
X3.7575 Y8.2607
X3.7436 Y8.25
X3.7301 Y8.2387
X3.7172 Y8.2268
X3.7047 Y8.2143
X3.6929 Y8.2014
X3.6816 Y8.1879
X3.6709 Y8.1739
X3.6608 Y8.1594
X3.6514 Y8.1446
X3.6426 Y8.1293
X3.6346 Y8.1136
X3.6272 Y8.0976
X3.6205 Y8.0813
X3.6145 Y8.0647
X3.6093 Y8.0479
X3.6048 Y8.0308
X3.6011 Y8.0136
X3.5981 Y7.9962
X3.5959 Y7.9787
X3.5944 Y7.9611
X3.5938 Y7.9434
X3.5939 Y7.9258
X3.5948 Y7.9081
X3.5964 Y7.8905
X3.5989 Y7.873
X3.6021 Y7.8557
X3.606 Y7.8384
X3.6107 Y7.8214
X3.6162 Y7.8046
X3.6224 Y7.788
X3.6293 Y7.7718
X3.6369 Y7.7558
X3.6452 Y7.7402
X3.6542 Y7.725
X3.6639 Y7.7102
X3.6742 Y7.6958
X3.6851 Y7.6819
X3.6966 Y7.6685
X3.7087 Y7.6556
X3.7214 Y7.6432
X3.7346 Y7.6314
X3.7483 Y7.6202
X3.7624 Y7.6096
X3.7771 Y7.5996
X3.7921 Y7.5903
X3.8076 Y7.5817
X3.8234 Y7.5737
X3.8396 Y7.5665
X3.856 Y7.5599
X3.8728 Y7.5541
X3.8897 Y7.549
X3.907 Y7.5447
X3.9243 Y7.5411
X3.9419 Y7.5383
X3.9595 Y7.5363
X3.9772 Y7.5351
X3.995 Y7.5346
X4.0128 Y7.5349
X4.0306 Y7.536
X4.0483 Y7.5378
X4.066 Y7.5405
X4.0835 Y7.5439
X4.1008 Y7.5481
X4.118 Y7.5531
X4.135 Y7.5588
X4.1517 Y7.5652
X4.1681 Y7.5724
X4.1842 Y7.5803
X4.1999 Y7.5889
X4.2153 Y7.5982
X4.2302 Y7.6082
X4.2448 Y7.6188
X4.2588 Y7.6301
X4.2723 Y7.642
X4.2853 Y7.6544
X4.2978 Y7.6675
X4.3097 Y7.681
X4.321 Y7.6951
X4.3316 Y7.7097
X4.3416 Y7.7247
X4.3509 Y7.7402
X4.3596 Y7.756
X4.3675 Y7.7723
X4.3748 Y7.7888
X4.3812 Y7.8057
X4.387 Y7.8228
X4.392 Y7.8402
X4.3962 Y7.8578
X4.3996 Y7.8755
X4.4023 Y7.8934
X4.4042 Y7.9113
X4.4053 Y7.9294
X4.4055 Y7.9474
X4.405 Y7.9655
X4.4037 Y7.9835
X4.4016 Y8.0014
X4.3988 Y8.0193
X4.3951 Y8.0369
X4.3907 Y8.0544
X4.3855 Y8.0717
X4.3796 Y8.0888
X4.3729 Y8.1055
X4.3655 Y8.122
X4.3573 Y8.1381
X4.3485 Y8.1539
X4.339 Y8.1692
X4.3288 Y8.1841
X4.318 Y8.1986
X4.3065 Y8.2125
X4.2944 Y8.226
X4.2818 Y8.2389
X4.2686 Y8.2513
X4.2548 Y8.263
X4.2406 Y8.2742
X4.2259 Y8.2847
X4.2107 Y8.2946
X4.1951 Y8.3038
X4.1791 Y8.3123
X4.1627 Y8.3201
X4.146 Y8.3272
X4.129 Y8.3335
X4.1117 Y8.3391
X4.0941 Y8.3439
X4.0764 Y8.348
X4.0585 Y8.3513
X4.0405 Y8.3537
X4.0223 Y8.3554
X4.0041 Y8.3563
X3.9859 Y8.3564
X3.9676 Y8.3557
X3.9494 Y8.3542
X3.9313 Y8.3519
X3.9133 Y8.3488
X3.8954 Y8.3449
X3.8777 Y8.3402
X3.8603 Y8.3348
X3.843 Y8.3286
X3.8261 Y8.3216
X3.8094 Y8.3139
X3.7931 Y8.3054
X3.7772 Y8.2963
X3.7617 Y8.2864
X3.7467 Y8.2759
X3.7321 Y8.2647
X3.718 Y8.2529
X3.7044 Y8.2405
X3.6914 Y8.2275
X3.679 Y8.2139
X3.6672 Y8.1998
X3.656 Y8.1852
X3.6454 Y8.17
X3.6356 Y8.1545
X3.6264 Y8.1385
X3.6179 Y8.1221
X3.6101 Y8.1054
X3.6031 Y8.0883
X3.5969 Y8.071
X3.5914 Y8.0533
X3.5867 Y8.0355
X3.5828 Y8.0174
X3.5796 Y7.9992
X3.5773 Y7.9809
X3.5758 Y7.9625
X3.5751 Y7.944
X3.5752 Y7.9256
X3.5761 Y7.9071
X3.5778 Y7.8887
X3.5804 Y7.8704
X3.5837 Y7.8522
X3.5878 Y7.8342
X3.5927 Y7.8163
X3.5984 Y7.7987
X3.6049 Y7.7814
X3.6121 Y7.7644
X3.6201 Y7.7477
X3.6288 Y7.7313
X3.6382 Y7.7154
X3.6483 Y7.6999
X3.659 Y7.6848
X3.6704 Y7.6703
X3.6825 Y7.6562
X3.6951 Y7.6427
X3.7084 Y7.6298
X3.7222 Y7.6174
X3.7365 Y7.6057
X3.7513 Y7.5946
X3.7666 Y7.5841
X3.7824 Y7.5744
X3.7985 Y7.5653
X3.8151 Y7.557
X3.832 Y7.5494
X3.8492 Y7.5425
X3.8667 Y7.5364
X3.8845 Y7.5311
X3.9025 Y7.5265
X3.9207 Y7.5228
X3.939 Y7.5198
X3.9575 Y7.5177
X3.976 Y7.5164
X3.9946 Y7.5159
X4.0133 Y7.5162
X4.0319 Y7.5173
X4.0504 Y7.5192
X4.0689 Y7.522
X4.0872 Y7.5256
X4.1054 Y7.5299
X4.1233 Y7.5351
X4.1411 Y7.541
X4.1585 Y7.5478
X4.1757 Y7.5553
X4.1926 Y7.5635
X4.209 Y7.5725
X4.2251 Y7.5822
X4.2408 Y7.5927
X4.2559 Y7.6038
X4.2706 Y7.6155
X4.2848 Y7.6279
X4.2984 Y7.641
X4.3114 Y7.6546
X4.3239 Y7.6688
X4.3357 Y7.6835
X4.3468 Y7.6987
X4.3573 Y7.7144
X4.367 Y7.7306
X4.3761 Y7.7471
X4.3844 Y7.7641
X4.392 Y7.7814
X4.3988 Y7.799
X4.4048 Y7.8169
X4.41 Y7.8351
X4.4145 Y7.8535
X4.4181 Y7.872
X4.4209 Y7.8907
X4.4228 Y7.9095
X4.424 Y7.9283
X4.4243 Y7.9472
X4.4238 Y7.9661
X4.4224 Y7.9849
X4.4203 Y8.0037
X4.4173 Y8.0223
X4.4135 Y8.0408
X4.4089 Y8.0591
X4.4035 Y8.0772
X4.3973 Y8.095
X4.3903 Y8.1126
X4.3825 Y8.1298
X4.374 Y8.1466
X4.3648 Y8.1631
X4.3549 Y8.1792
X4.3442 Y8.1948
X4.3329 Y8.2099
X4.321 Y8.2245
X4.3084 Y8.2386
X4.2951 Y8.2521
X4.2813 Y8.265
X4.267 Y8.2774
X4.2521 Y8.289
X4.2367 Y8.3
X4.2208 Y8.3104
X4.2045 Y8.32
X4.1878 Y8.3289
X4.1707 Y8.3371
X4.1532 Y8.3445
X4.1354 Y8.3511
X4.1173 Y8.357
X4.099 Y8.3621
X4.0805 Y8.3663
X4.0618 Y8.3697
X4.0429 Y8.3724
X4.024 Y8.3741
X4.0049 Y8.3751
X3.9859 Y8.3752
X3.9668 Y8.3745
X3.9478 Y8.3729
X3.9288 Y8.3705
X3.91 Y8.3673
X3.8913 Y8.3632
X3.8728 Y8.3584
X3.8546 Y8.3527
X3.8365 Y8.3462
X3.8188 Y8.3389
X3.8014 Y8.3309
X3.7844 Y8.3221
X3.7678 Y8.3125
X3.7516 Y8.3022
X3.7358 Y8.2913
X3.7206 Y8.2796
X3.7058 Y8.2673
X3.6917 Y8.2543
X3.6781 Y8.2407
X3.6651 Y8.2265
X3.6527 Y8.2118
X3.641 Y8.1965
X3.63 Y8.1807
X3.6196 Y8.1645
X3.61 Y8.1478
X3.6011 Y8.1307
X3.593 Y8.1132
X3.5857 Y8.0954
X3.5791 Y8.0773
X3.5734 Y8.0588
X3.5685 Y8.0402
X3.5643 Y8.0214
X3.5611 Y8.0023
X3.5586 Y7.9832
X3.557 Y7.964
X3.5563 Y7.9447
X3.5564 Y7.9254
X3.5573 Y7.9061
X3.5591 Y7.8868
X3.5617 Y7.8677
X3.5652 Y7.8487
X3.5695 Y7.8299
X3.5746 Y7.8112
X3.5806 Y7.7929
X3.5873 Y7.7748
X3.5948 Y7.757
X3.6031 Y7.7395
X3.6122 Y7.7224
X3.622 Y7.7058
X3.6325 Y7.6896
X3.6438 Y7.6738
X3.6557 Y7.6586
X3.6682 Y7.6439
X3.6814 Y7.6298
X3.6953 Y7.6162
X3.7097 Y7.6033
X3.7246 Y7.5911
X3.7401 Y7.5794
X3.7561 Y7.5685
X3.7725 Y7.5583
X3.7894 Y7.5488
X3.8067 Y7.5401
X3.8243 Y7.5322
X3.8423 Y7.525
X3.8606 Y7.5186
X3.8792 Y7.513
X3.898 Y7.5083
X3.917 Y7.5043
X3.9361 Y7.5012
X3.9554 Y7.499
X3.9748 Y7.4976
X3.9942 Y7.497
X4.0137 Y7.4973
X4.0331 Y7.4985
X4.0525 Y7.5005
X4.0717 Y7.5034
X4.0909 Y7.5071
X4.1099 Y7.5116
X4.1286 Y7.517
X4.1472 Y7.5232
X4.1654 Y7.5302
X4.1834 Y7.5381
X4.201 Y7.5467
X4.2182 Y7.556
X4.235 Y7.5662
X4.2513 Y7.577
X4.2672 Y7.5886
X4.2825 Y7.6009
X4.2973 Y7.6138
X4.3115 Y7.6274
X4.3251 Y7.6416
X4.3381 Y7.6564
X4.3504 Y7.6717
X4.3621 Y7.6876
X4.373 Y7.704
X4.3832 Y7.7209
X4.3927 Y7.7382
X4.4014 Y7.7559
X4.4093 Y7.7739
X4.4164 Y7.7923
X4.4227 Y7.811
X4.4282 Y7.8299
X4.4328 Y7.8491
X4.4366 Y7.8685
X4.4375 Y7.8744
X4.4378 Y7.8766
X4.438 Y7.8789
Y7.8811
Y7.9805
X4.4368 Y8.0038
X4.4357 Y8.0156
X4.4338 Y8.0297
X4.4309 Y8.0451
X4.4273 Y8.0612
X4.4227 Y8.0776
X4.4171 Y8.0948
X4.4106 Y8.1124
X4.4031 Y8.13
X4.3947 Y8.1475
X4.3856 Y8.1647
X4.3756 Y8.1816
X4.3649 Y8.198
X4.3534 Y8.214
X4.3413 Y8.2295
X4.3285 Y8.2445
X4.315 Y8.2589
X4.3009 Y8.2727
X4.2862 Y8.2858
X4.2709 Y8.2983
X4.2551 Y8.3102
X4.2387 Y8.3213
X4.2219 Y8.3317
X4.2047 Y8.3413
X4.187 Y8.3502
X4.1689 Y8.3584
X4.1505 Y8.3657
X4.1318 Y8.3722
X4.117 Y8.3766
X4.1127 Y8.3777
X4.1084 Y8.3783
X4.104 Y8.3785
X3.9064
X3.8966 Y8.378
X3.8889 Y8.3773
X3.8804 Y8.3761
X3.8702 Y8.3743
X3.8593 Y8.3717
X3.8463 Y8.3681
X3.8322 Y8.3636
X3.8177 Y8.3582
X3.802 Y8.3515
X3.7856 Y8.3437
X3.7689 Y8.3348
X3.7523 Y8.325
X3.736 Y8.3143
X3.7199 Y8.3028
X3.7043 Y8.2906
X3.6892 Y8.2776
X3.6746 Y8.264
X3.6606 Y8.2497
X3.6473 Y8.2347
X3.6346 Y8.2192
X3.6225 Y8.2032
X3.6112 Y8.1866
X3.6007 Y8.1695
X3.5909 Y8.152
X3.5818 Y8.134
X3.5736 Y8.1157
X3.5662 Y8.097
X3.5596 Y8.078
X3.5538 Y8.0588
X3.5489 Y8.0392
X3.5448 Y8.0195
X3.5416 Y7.9997
X3.5393 Y7.9797
X3.5379 Y7.9596
X3.5374 Y7.9395
X3.5377 Y7.9193
X3.5389 Y7.8992
X3.541 Y7.8792
X3.544 Y7.8593
X3.5479 Y7.8395
X3.5526 Y7.8199
X3.5582 Y7.8006
X3.5646 Y7.7815
X3.5719 Y7.7627
X3.5799 Y7.7442
X3.5888 Y7.7261
X3.5985 Y7.7084
X3.6089 Y7.6912
X3.6201 Y7.6744
X3.632 Y7.6581
X3.6446 Y7.6424
X3.6579 Y7.6272
X3.6719 Y7.6127
X3.6864 Y7.5987
X3.7016 Y7.5854
X3.7173 Y7.5728
X3.7336 Y7.5609
X3.7504 Y7.5497
X3.7677 Y7.5393
X3.7854 Y7.5296
X3.8036 Y7.5208
X3.8221 Y7.5127
X3.8409 Y7.5054
X3.8601 Y7.499
X3.8625 Y7.4983
X3.8666 Y7.4973
X3.8708 Y7.4967
X3.8751 Y7.4965
X4.0919
X4.1038 Y7.4971
X4.1106 Y7.4978
X4.1188 Y7.4989
X4.1276 Y7.5005
X4.1383 Y7.503
X4.1501 Y7.5062
X4.163 Y7.5104
X4.1777 Y7.5159
X4.1935 Y7.5226
X4.2099 Y7.5305
X4.2264 Y7.5392
X4.2427 Y7.5489
X4.2592 Y7.5596
X4.2755 Y7.5713
X4.2914 Y7.5837
X4.3069 Y7.597
X4.3218 Y7.611
X4.3361 Y7.6256
X4.3497 Y7.6409
X4.3627 Y7.6567
X4.375 Y7.6732
X4.3866 Y7.6901
X4.3974 Y7.7076
X4.4074 Y7.7255
X4.4167 Y7.7439
X4.4251 Y7.7626
X4.4327 Y7.7817
X4.4355 Y7.7898
X4.4369 Y7.7946
X4.4377 Y7.7997
X4.438 Y7.8047
Y7.8811
G3 X4.4174 Y7.8886 I-0.0118 J-0.0004
G1 X4.4155 Y7.8865
X4.0863 Y7.5193
X4.0835 Y7.5162
G3 X4.0919 Y7.4965 I0.0088 J-0.0079
G1 X4.1481
X4.1543 Y7.4968
X4.1603 Y7.4974
X4.1663 Y7.4983
X4.1724 Y7.4995
X4.18 Y7.5014
X4.1882 Y7.5037
X4.198 Y7.5071
X4.2082 Y7.5111
X4.2205 Y7.5164
X4.2339 Y7.5231
X4.2474 Y7.5305
X4.2623 Y7.5395
X4.2779 Y7.55
X4.2937 Y7.5616
X4.3095 Y7.5743
X4.325 Y7.588
X4.34 Y7.6025
X4.3545 Y7.6177
X4.3684 Y7.6337
X4.3817 Y7.6503
X4.3942 Y7.6675
X4.406 Y7.6853
X4.417 Y7.7036
X4.4271 Y7.7223
X4.4334 Y7.7352
X4.4359 Y7.7416
X4.4375 Y7.7483
X4.438 Y7.7552
Y7.8047
G3 X4.4176 Y7.8124 I-0.0118 J-0.0004
G1 X4.4155 Y7.8101
X4.1426 Y7.5192
X4.1399 Y7.5164
G3 X4.1481 Y7.4965 I0.0086 J-0.0081
G1 X4.1905
X4.1965 Y7.4968
X4.2025 Y7.4974
X4.2084 Y7.4985
X4.2142 Y7.4998
X4.2208 Y7.5016
X4.2276 Y7.5039
X4.2359 Y7.507
X4.2446 Y7.5107
X4.2552 Y7.5158
X4.2659 Y7.5215
X4.2783 Y7.5289
X4.292 Y7.5379
X4.3066 Y7.5484
X4.3211 Y7.5597
X4.3358 Y7.5725
X4.3508 Y7.5866
X4.3656 Y7.6018
X4.3799 Y7.6179
X4.3937 Y7.6348
X4.4068 Y7.6524
X4.4192 Y7.6707
X4.4308 Y7.6895
X4.4322 Y7.6921
X4.4354 Y7.6992
X4.4374 Y7.7066
X4.438 Y7.7143
G0 Z0.2
X4.1507 Y7.5113
Z-0.1414
G1 Z-0.1532 F30.
X4.1509 Y7.5111 Z-0.1558
X4.1517 Y7.5107 Z-0.1583
X4.1529 Y7.5099 Z-0.1606
X4.1545 Y7.509 Z-0.1624
X4.1564 Y7.5078 Z-0.1638
X4.1586 Y7.5066 Z-0.1647
X4.1608 Y7.5052 Z-0.165
G3 X4.1905 Y7.4965 I0.0318 J0.0536
G1 X4.2267
X4.2327 Y7.4968
X4.2387 Y7.4974
X4.2446 Y7.4985
X4.2504 Y7.5
X4.2563 Y7.5018
X4.2624 Y7.5039
X4.2699 Y7.507
X4.2775 Y7.5104
X4.2868 Y7.5152
X4.2966 Y7.5208
X4.3074 Y7.5275
X4.3197 Y7.536
X4.333 Y7.5461
X4.346 Y7.5569
X4.36 Y7.5696
X4.3745 Y7.5839
X4.389 Y7.5995
X4.4032 Y7.6162
X4.4168 Y7.6339
X4.4276 Y7.6492
X4.4315 Y7.6558
X4.4342 Y7.6629
X4.4357 Y7.6704
G3 X4.4164 Y7.6804 I-0.0118 J0.0009
G1 X4.4139 Y7.6783
X4.2215 Y7.5189
X4.2196 Y7.5174
G3 X4.2267 Y7.4965 I0.0075 J-0.0091
G1 X4.238
X4.2436 Y7.4967
X4.2605 Y7.4984
X4.2717 Y7.4997
X4.2779 Y7.5007
X4.2838 Y7.5019
X4.2895 Y7.5035
X4.2952 Y7.5055
X4.301 Y7.5079
X4.3075 Y7.5108
X4.3149 Y7.5146
X4.3231 Y7.5191
X4.3319 Y7.5246
X4.3424 Y7.5318
X4.3527 Y7.5396
X4.3646 Y7.5494
X4.3777 Y7.5612
X4.3914 Y7.5747
X4.4051 Y7.5895
X4.4136 Y7.5994
X4.417 Y7.6039
X4.4198 Y7.6087
X4.422 Y7.6139
G3 X4.4036 Y7.6268 I-0.0113 J0.0035
G1 X4.4026 Y7.6261
X4.2641 Y7.5212
X4.2637 Y7.5208
G3 X4.2717 Y7.4997 I0.0071 J-0.0094
G1 X4.2886 Y7.5016
X4.2902 Y7.502
X4.3279 Y7.5151
X4.3293 Y7.5157
X4.3307 Y7.5164
X4.3648 Y7.5378
X4.366 Y7.5387
X4.3672 Y7.5398
X4.3918 Y7.5644
X4.3953 Y7.568
X4.3969 Y7.57
X4.4181 Y7.6038
X4.4204 Y7.6094
X4.4322 Y7.6431
X4.4326 Y7.6445
X4.4329 Y7.6459
X4.4364 Y7.6769
X4.4378 Y7.6937
X4.438 Y7.6994
Y7.7552
G0 Z0.2
X3.9462 Y8.3638
Z-0.1414
G1 Z-0.1532 F30.
X3.946 Y8.3639 Z-0.1558
X3.9452 Y8.3644 Z-0.1583
X3.944 Y8.3651 Z-0.1606
X3.9424 Y8.366 Z-0.1624
X3.9405 Y8.3672 Z-0.1638
X3.9384 Y8.3685 Z-0.1647
X3.9361 Y8.3698 Z-0.165
G3 X3.9064 Y8.3785 I-0.0318 J-0.0536
G1 X3.8502
X3.8433 Y8.3782
X3.8373 Y8.3776
X3.8313 Y8.3767
X3.8249 Y8.3754
X3.8173 Y8.3736
X3.8087 Y8.3711
X3.7989 Y8.3678
X3.7882 Y8.3636
X3.7756 Y8.3581
X3.7622 Y8.3515
X3.7484 Y8.3439
X3.7334 Y8.3348
X3.7178 Y8.3243
X3.7022 Y8.3128
X3.6866 Y8.3003
X3.6714 Y8.2869
X3.6566 Y8.2727
X3.6424 Y8.2578
X3.6288 Y8.2421
X3.6158 Y8.2259
X3.6036 Y8.209
X3.592 Y8.1916
X3.5813 Y8.1737
X3.5713 Y8.1554
X3.5621 Y8.1366
X3.5538 Y8.1174
X3.5463 Y8.0978
X3.5397 Y8.078
X3.534 Y8.0578
X3.5291 Y8.0374
X3.5251 Y8.0169
X3.5221 Y7.9961
X3.52 Y7.9753
X3.5187 Y7.9544
X3.5184 Y7.9334
X3.5191 Y7.9124
X3.5206 Y7.8915
X3.5231 Y7.8707
X3.5265 Y7.85
X3.5307 Y7.8295
X3.5359 Y7.8091
X3.542 Y7.789
X3.5489 Y7.7692
X3.5567 Y7.7498
X3.5654 Y7.7307
X3.5749 Y7.7119
X3.5852 Y7.6937
X3.5963 Y7.6758
X3.6081 Y7.6585
X3.6208 Y7.6417
X3.6341 Y7.6255
X3.6482 Y7.6099
X3.6629 Y7.5949
X3.6782 Y7.5806
X3.6942 Y7.567
X3.7108 Y7.5541
X3.7279 Y7.5419
X3.7455 Y7.5305
X3.7637 Y7.5198
X3.7822 Y7.51
X3.8012 Y7.501
X3.8034 Y7.5001
X3.8091 Y7.4981
X3.8151 Y7.4969
X3.8211 Y7.4965
X3.8751
G0 Z0.2
X4.4233 Y7.9407
Z-0.1414
G1 Z-0.1532 F30.
X4.4234 Y7.941 Z-0.1558
X4.4239 Y7.9417 Z-0.1583
X4.4246 Y7.9429 Z-0.1606
X4.4255 Y7.9445 Z-0.1624
X4.4267 Y7.9464 Z-0.1638
X4.428 Y7.9486 Z-0.1647
X4.4293 Y7.9508 Z-0.165
G3 X4.438 Y7.9805 I-0.0536 J0.0318
G1 Y8.0592
X4.4376 Y8.0682
X4.437 Y8.0741
X4.436 Y8.0814
X4.4345 Y8.089
X4.4324 Y8.0984
X4.4296 Y8.1084
X4.4256 Y8.1207
X4.4208 Y8.1334
X4.4148 Y8.1473
X4.4075 Y8.1626
X4.3989 Y8.1786
X4.3893 Y8.1949
X4.3786 Y8.2112
X4.367 Y8.2273
X4.3546 Y8.2431
X4.3414 Y8.2584
X4.3274 Y8.2732
X4.3128 Y8.2874
X4.2975 Y8.3011
X4.2816 Y8.314
X4.2651 Y8.3263
X4.248 Y8.3378
X4.2305 Y8.3486
X4.2125 Y8.3586
X4.1941 Y8.3679
X4.1791 Y8.3746
X4.1731 Y8.3767
X4.1669 Y8.3781
X4.1605 Y8.3785
X4.104
G3 X4.0962 Y8.3582 I0.0004 J-0.0118
G1 X4.0986 Y8.3559
X4.4153 Y8.0537
X4.4181 Y8.0511
G3 X4.438 Y8.0592 I0.0081 J0.0085
G1 Y8.1098
X4.4377 Y8.1158
X4.4371 Y8.1218
X4.4361 Y8.1277
X4.4348 Y8.1341
X4.433 Y8.141
X4.4305 Y8.1491
X4.4273 Y8.158
X4.4229 Y8.1687
X4.418 Y8.1795
X4.4114 Y8.1923
X4.4033 Y8.2064
X4.3942 Y8.2209
X4.384 Y8.2355
X4.3724 Y8.2508
X4.3596 Y8.2661
X4.3458 Y8.2813
X4.3311 Y8.2961
X4.3156 Y8.3104
X4.2994 Y8.324
X4.2825 Y8.337
X4.2651 Y8.3493
X4.247 Y8.3608
X4.2285 Y8.3715
X4.225 Y8.3733
X4.2183 Y8.3762
X4.2112 Y8.3779
X4.2039 Y8.3785
G0 Z0.2
X4.4233 Y8.07
Z-0.1414
G1 Z-0.1532 F30.
X4.4234 Y8.0703 Z-0.1558
X4.4239 Y8.071 Z-0.1583
X4.4246 Y8.0722 Z-0.1606
X4.4255 Y8.0738 Z-0.1624
X4.4267 Y8.0758 Z-0.1638
X4.428 Y8.0779 Z-0.1647
X4.4293 Y8.0802 Z-0.165
G3 X4.438 Y8.1098 I-0.0536 J0.0318
G1 Y8.1492
X4.4377 Y8.1552
X4.4371 Y8.1612
X4.4361 Y8.1671
X4.4347 Y8.1729
X4.4329 Y8.1791
X4.4306 Y8.1859
X4.4276 Y8.1937
X4.4239 Y8.2023
X4.4189 Y8.2124
X4.4134 Y8.2225
X4.4062 Y8.2344
X4.3974 Y8.2477
X4.3875 Y8.2612
X4.3763 Y8.2751
X4.3635 Y8.2897
X4.3494 Y8.3045
X4.3342 Y8.319
X4.318 Y8.3332
X4.301 Y8.3468
X4.2833 Y8.3598
X4.2661 Y8.3712
X4.2653 Y8.3717
X4.2594 Y8.3747
X4.253 Y8.3769
X4.2464 Y8.3781
G3 X4.2365 Y8.3587 I-0.0008 J-0.0118
G1 X4.2387 Y8.3561
X4.4156 Y8.144
X4.4172 Y8.1421
G3 X4.438 Y8.1492 I0.0091 J0.0076
G1 Y8.1829
X4.4375 Y8.1886
X4.4369 Y8.1942
X4.4359 Y8.2001
X4.4347 Y8.206
X4.433 Y8.2118
X4.4311 Y8.2174
X4.4285 Y8.2242
X4.4255 Y8.2311
X4.4213 Y8.2396
X4.4167 Y8.248
X4.4106 Y8.2581
X4.4031 Y8.2693
X4.3948 Y8.2807
X4.3845 Y8.2935
X4.3724 Y8.3073
X4.3588 Y8.3215
X4.3438 Y8.3357
X4.3279 Y8.3496
X4.3111 Y8.363
X4.3095 Y8.3642
X4.3057 Y8.3667
X4.3018 Y8.3688
X4.2976 Y8.3705
G3 X4.2849 Y8.3519 I-0.0035 J-0.0113
G1 X4.2854 Y8.3512
X4.4153 Y8.1866
X4.4159 Y8.186
G3 X4.4369 Y8.1942 I0.0093 J0.0073
G1 X4.4331 Y8.2279
X4.4329 Y8.2293
X4.4326 Y8.2307
X4.429 Y8.2408
X4.4234 Y8.2569
X4.4225 Y8.2595
X4.4221 Y8.2607
X4.4198 Y8.2663
X4.4172 Y8.272
X4.4152 Y8.2757
X4.4139 Y8.2779
G3 X4.3935 Y8.2662 I-0.0098 J-0.0066
G1 X4.4002 Y8.2521
G3 X4.4221 Y8.2607 I0.0107 J0.005
G1 X4.419 Y8.2695
X4.4178 Y8.2717
X4.4066 Y8.2896
X4.4065 Y8.2898
X4.4045 Y8.2929
X4.3964 Y8.3044
X4.3931 Y8.3088
X4.3918 Y8.3103
X4.3905 Y8.3118
X4.3892 Y8.3132
G3 X4.3717 Y8.2975 I-0.008 J-0.0086
G1 X4.3849 Y8.2799
G3 X4.4045 Y8.2929 I0.0095 J0.0071
G1 X4.3994 Y8.301
X4.3957 Y8.3067
X4.3901 Y8.3123
X4.3672 Y8.3352
X4.3658 Y8.3365
X4.3644 Y8.3374
X4.3329 Y8.3573
X4.3304 Y8.3588
X4.3279 Y8.3599
X4.2914 Y8.3727
X4.29 Y8.3731
X4.2886 Y8.3734
X4.2717 Y8.3753
X4.2605 Y8.3766
X4.2436 Y8.3783
X4.238 Y8.3785
X4.1605
G3 X4.1514 Y8.3743 I0. J-0.0118
G2 X4.1425 Y8.3701 I-0.009 J0.0076
G1 X4.1321 Y8.37
X3.886 Y8.3681
X3.8839 Y8.3683
X3.8818 Y8.3689
X3.8799 Y8.3698
G3 X3.8502 Y8.3785 I-0.0318 J-0.0536
G1 X3.8078
X3.8014 Y8.3782
X3.7954 Y8.3776
X3.7895 Y8.3767
X3.7836 Y8.3754
X3.7774 Y8.3737
X3.7703 Y8.3714
X3.7624 Y8.3685
X3.7535 Y8.3648
X3.7431 Y8.36
X3.7325 Y8.3544
X3.72 Y8.3471
X3.7063 Y8.3383
X3.6925 Y8.3286
X3.6783 Y8.3175
X3.6635 Y8.305
X3.6486 Y8.2912
X3.634 Y8.2764
X3.6198 Y8.2607
X3.6062 Y8.2443
X3.5932 Y8.2272
X3.5809 Y8.2094
X3.5694 Y8.1911
X3.5587 Y8.1722
X3.5489 Y8.1529
X3.5398 Y8.1331
X3.5317 Y8.1129
X3.5244 Y8.0924
X3.518 Y8.0716
X3.5126 Y8.0505
X3.5081 Y8.0292
X3.5045 Y8.0077
X3.5019 Y7.9861
X3.5002 Y7.9644
X3.4995 Y7.9426
X3.4997 Y7.9208
X3.5009 Y7.899
X3.5031 Y7.8773
X3.5062 Y7.8557
X3.5102 Y7.8343
X3.5152 Y7.8131
X3.5211 Y7.7921
X3.528 Y7.7713
X3.5357 Y7.7509
X3.5443 Y7.7309
X3.5538 Y7.7113
X3.5642 Y7.6921
X3.5754 Y7.6733
X3.5874 Y7.6551
X3.6002 Y7.6374
X3.6137 Y7.6203
X3.628 Y7.6038
X3.643 Y7.5879
X3.6587 Y7.5728
X3.675 Y7.5583
X3.692 Y7.5445
X3.7096 Y7.5315
X3.7277 Y7.5193
X3.7463 Y7.5079
X3.7566 Y7.5022
X3.7636 Y7.4991
X3.771 Y7.4972
X3.7787 Y7.4965
X3.8211
G0 Z0.2
X3.8476 Y8.3638
Z-0.1414
G1 Z-0.1532 F30.
X3.8474 Y8.3639 Z-0.1558
X3.8466 Y8.3644 Z-0.1583
X3.8454 Y8.3651 Z-0.1606
X3.8438 Y8.366 Z-0.1624
X3.8419 Y8.3672 Z-0.1638
X3.8397 Y8.3685 Z-0.1647
X3.8375 Y8.3698 Z-0.165
G3 X3.8078 Y8.3785 I-0.0318 J-0.0536
G1 X3.7699
X3.7639 Y8.3782
X3.7579 Y8.3776
X3.752 Y8.3765
X3.7462 Y8.375
X3.7405 Y8.3732
X3.7341 Y8.371
X3.7267 Y8.368
X3.7187 Y8.3643
X3.7097 Y8.3597
X3.6993 Y8.3538
X3.6889 Y8.3473
X3.6769 Y8.339
X3.6637 Y8.329
X3.6498 Y8.3174
X3.6361 Y8.305
X3.6221 Y8.2912
X3.6079 Y8.2759
X3.5941 Y8.2595
X3.5806 Y8.2421
X3.5679 Y8.224
X3.5558 Y8.2052
X3.5445 Y8.1859
X3.5341 Y8.1659
X3.5245 Y8.1455
X3.5158 Y8.1247
X3.5081 Y8.1035
X3.5012 Y8.082
X3.4953 Y8.0602
X3.4904 Y8.0381
X3.4865 Y8.0158
X3.4835 Y7.9934
X3.4815 Y7.9708
X3.4806 Y7.9482
Y7.9256
X3.4816 Y7.903
X3.4836 Y7.8804
X3.4866 Y7.858
X3.4905 Y7.8357
X3.4955 Y7.8136
X3.5014 Y7.7917
X3.5082 Y7.7702
X3.516 Y7.7489
X3.5248 Y7.728
X3.5344 Y7.7075
X3.545 Y7.6874
X3.5564 Y7.6679
X3.5686 Y7.6488
X3.5817 Y7.6303
X3.5956 Y7.6124
X3.6102 Y7.5951
X3.6257 Y7.5785
X3.6418 Y7.5625
X3.6586 Y7.5473
X3.676 Y7.5329
X3.6941 Y7.5192
X3.7126 Y7.5064
X3.7173 Y7.5035
X3.7249 Y7.4997
X3.733 Y7.4973
X3.7415 Y7.4965
X3.7787
G0 Z0.2
X3.8097 Y8.3638
Z-0.1414
G1 Z-0.1532 F30.
X3.8094 Y8.3639 Z-0.1558
X3.8087 Y8.3644 Z-0.1583
X3.8075 Y8.3651 Z-0.1606
X3.8059 Y8.366 Z-0.1624
X3.8039 Y8.3672 Z-0.1638
X3.8018 Y8.3685 Z-0.1647
X3.7995 Y8.3698 Z-0.165
G3 X3.7699 Y8.3785 I-0.0318 J-0.0536
G1 X3.7362
X3.7302 Y8.3782
X3.7242 Y8.3775
X3.7183 Y8.3763
X3.7125 Y8.3747
X3.7069 Y8.3728
X3.7007 Y8.3704
X3.6942 Y8.3675
X3.6865 Y8.3637
X3.6785 Y8.3593
X3.6687 Y8.3534
X3.659 Y8.3469
X3.648 Y8.3388
X3.6358 Y8.329
X3.6227 Y8.3175
X3.61 Y8.3053
X3.5965 Y8.2912
X3.5828 Y8.2754
X3.5692 Y8.2584
X3.556 Y8.2403
X3.5434 Y8.2214
X3.5316 Y8.2017
X3.5205 Y8.1813
X3.5103 Y8.1604
X3.501 Y8.139
X3.4926 Y8.1172
X3.4852 Y8.095
X3.4788 Y8.0725
X3.4734 Y8.0497
X3.4689 Y8.0266
X3.4655 Y8.0034
X3.4631 Y7.9801
X3.4617 Y7.9567
X3.4614 Y7.9332
X3.4621 Y7.9098
X3.4638 Y7.8863
X3.4665 Y7.863
X3.4703 Y7.8398
X3.4751 Y7.8169
X3.4808 Y7.7941
X3.4876 Y7.7716
X3.4954 Y7.7494
X3.5041 Y7.7276
X3.5138 Y7.7062
X3.5244 Y7.6853
X3.5359 Y7.6648
X3.5483 Y7.6448
X3.5616 Y7.6254
X3.5757 Y7.6067
X3.5907 Y7.5885
X3.6064 Y7.571
X3.6228 Y7.5542
X3.64 Y7.5382
X3.6579 Y7.5229
X3.6756 Y7.5092
X3.6814 Y7.505
X3.6896 Y7.5004
X3.6986 Y7.4975
X3.7079 Y7.4965
X3.7415
G0 Z0.2
X3.776 Y8.3638
Z-0.1414
G1 Z-0.1532 F30.
X3.7757 Y8.3639 Z-0.1558
X3.775 Y8.3644 Z-0.1583
X3.7738 Y8.3651 Z-0.1606
X3.7721 Y8.366 Z-0.1624
X3.7702 Y8.3672 Z-0.1638
X3.7681 Y8.3685 Z-0.1647
X3.7658 Y8.3698 Z-0.165
G3 X3.7362 Y8.3785 I-0.0318 J-0.0536
G1 X3.7053
X3.6993 Y8.3782
X3.6933 Y8.3775
X3.6875 Y8.3762
X3.6817 Y8.3745
X3.6761 Y8.3725
X3.6702 Y8.3701
X3.6641 Y8.3673
X3.6569 Y8.3635
X3.6495 Y8.3592
X3.6405 Y8.3535
X3.6314 Y8.3472
X3.6213 Y8.3394
X3.6099 Y8.3298
X3.598 Y8.3189
X3.5859 Y8.3068
X3.5729 Y8.2926
X3.5595 Y8.2766
X3.5462 Y8.2591
X3.5332 Y8.2405
X3.5208 Y8.2209
X3.5091 Y8.2005
X3.4981 Y8.1794
X3.4881 Y8.1576
X3.4789 Y8.1353
X3.4708 Y8.1126
X3.4636 Y8.0895
X3.4574 Y8.0661
X3.4523 Y8.0423
X3.4482 Y8.0184
X3.4451 Y7.9943
X3.4432 Y7.9701
X3.4422 Y7.9458
X3.4424 Y7.9215
X3.4436 Y7.8972
X3.4459 Y7.873
X3.4492 Y7.8489
X3.4536 Y7.825
X3.4591 Y7.8013
X3.4656 Y7.7778
X3.4731 Y7.7547
X3.4816 Y7.7319
X3.4911 Y7.7095
X3.5016 Y7.6876
X3.513 Y7.6661
X3.5254 Y7.6451
X3.5387 Y7.6247
X3.5529 Y7.6049
X3.5679 Y7.5858
X3.5838 Y7.5673
X3.6004 Y7.5495
X3.6178 Y7.5325
X3.6356 Y7.5166
X3.6459 Y7.5082
X3.6493 Y7.5056
X3.6577 Y7.5006
X3.667 Y7.4976
X3.6767 Y7.4965
X3.7079
G0 Z0.2
X3.7451 Y8.3638
Z-0.1414
G1 Z-0.1532 F30.
X3.7448 Y8.3639 Z-0.1558
X3.7441 Y8.3644 Z-0.1583
X3.7429 Y8.3651 Z-0.1606
X3.7413 Y8.366 Z-0.1624
X3.7393 Y8.3672 Z-0.1638
X3.7372 Y8.3685 Z-0.1647
X3.7349 Y8.3698 Z-0.165
G3 X3.7053 Y8.3785 I-0.0318 J-0.0536
G1 X3.676
X3.67 Y8.3782
X3.6641 Y8.3774
X3.6583 Y8.3761
X3.6525 Y8.3743
X3.6469 Y8.3722
X3.6412 Y8.3697
X3.6355 Y8.367
X3.6286 Y8.3632
X3.6216 Y8.359
X3.6134 Y8.3535
X3.6046 Y8.3471
X3.5954 Y8.3398
X3.5847 Y8.3305
X3.5732 Y8.3195
X3.5619 Y8.3077
X3.5494 Y8.2935
X3.5364 Y8.2774
X3.5234 Y8.2597
X3.5106 Y8.2406
X3.4984 Y8.2204
X3.4868 Y8.1993
X3.476 Y8.1775
X3.4661 Y8.1549
X3.4571 Y8.1318
X3.4492 Y8.1084
X3.4423 Y8.0846
X3.4364 Y8.0606
X3.4316 Y8.0363
X3.4278 Y8.0119
X3.4251 Y7.9873
X3.4235 Y7.9626
X3.4229 Y7.9378
X3.4234 Y7.9131
X3.4249 Y7.8884
X3.4276 Y7.8638
X3.4313 Y7.8393
X3.436 Y7.815
X3.4418 Y7.791
X3.4487 Y7.7672
X3.4565 Y7.7437
X3.4654 Y7.7206
X3.4752 Y7.6979
X3.4861 Y7.6757
X3.4978 Y7.6539
X3.5105 Y7.6327
X3.5241 Y7.612
X3.5386 Y7.5919
X3.5539 Y7.5725
X3.5701 Y7.5538
X3.587 Y7.5357
X3.6041 Y7.5191
X3.6132 Y7.511
X3.6183 Y7.5068
X3.627 Y7.5012
X3.6368 Y7.4977
X3.6472 Y7.4965
X3.6767
G0 Z0.2
X3.7159 Y8.3638
Z-0.1414
G1 Z-0.1532 F30.
X3.7156 Y8.3639 Z-0.1558
X3.7148 Y8.3644 Z-0.1583
X3.7136 Y8.3651 Z-0.1606
X3.712 Y8.366 Z-0.1624
X3.7101 Y8.3672 Z-0.1638
X3.708 Y8.3685 Z-0.1647
X3.7057 Y8.3698 Z-0.165
G3 X3.676 Y8.3785 I-0.0318 J-0.0536
G1 X3.6479
X3.642 Y8.3782
X3.636 Y8.3773
X3.6302 Y8.3759
X3.6245 Y8.3741
X3.6189 Y8.3719
X3.6134 Y8.3694
X3.6079 Y8.3665
X3.6013 Y8.3628
X3.5945 Y8.3585
X3.5868 Y8.3532
X3.5781 Y8.3467
X3.5696 Y8.3395
X3.5595 Y8.3304
X3.5484 Y8.3194
X3.5376 Y8.3077
X3.5256 Y8.2936
X3.513 Y8.2774
X3.5003 Y8.2594
X3.4878 Y8.2399
X3.4757 Y8.2192
X3.4643 Y8.1974
X3.4538 Y8.175
X3.4442 Y8.1522
X3.4357 Y8.129
X3.4281 Y8.1054
X3.4215 Y8.0816
X3.416 Y8.0575
X3.4114 Y8.0331
X3.4079 Y8.0086
X3.4055 Y7.984
X3.404 Y7.9593
X3.4036 Y7.9346
X3.4043 Y7.9098
X3.4059 Y7.8851
X3.4086 Y7.8605
X3.4123 Y7.8361
X3.4171 Y7.8118
X3.4228 Y7.7877
X3.4296 Y7.7639
X3.4373 Y7.7404
X3.4461 Y7.7172
X3.4557 Y7.6945
X3.4663 Y7.6721
X3.4779 Y7.6502
X3.4903 Y7.6288
X3.5036 Y7.608
X3.5178 Y7.5877
X3.5328 Y7.568
X3.5487 Y7.549
X3.5653 Y7.5306
X3.5784 Y7.5173
X3.5855 Y7.5107
X3.5894 Y7.5074
X3.5983 Y7.5015
X3.6083 Y7.4978
X3.619 Y7.4965
X3.6472
G0 Z0.2
X3.6878 Y8.3638
Z-0.1414
G1 Z-0.1532 F30.
X3.6875 Y8.3639 Z-0.1558
X3.6868 Y8.3644 Z-0.1583
X3.6855 Y8.3651 Z-0.1606
X3.6839 Y8.366 Z-0.1624
X3.682 Y8.3672 Z-0.1638
X3.6799 Y8.3685 Z-0.1647
X3.6776 Y8.3698 Z-0.165
G3 X3.6479 Y8.3785 I-0.0318 J-0.0536
G1 X3.6224
X3.6164 Y8.3782
X3.6104 Y8.3775
X3.6046 Y8.3761
X3.5989 Y8.3743
X3.5933 Y8.3721
X3.5878 Y8.3696
X3.5825 Y8.3668
X3.5763 Y8.3632
X3.57 Y8.3592
X3.5626 Y8.354
X3.5547 Y8.348
X3.5464 Y8.341
X3.5368 Y8.3322
X3.5269 Y8.3223
X3.5164 Y8.3108
X3.5048 Y8.2969
X3.4925 Y8.2809
X3.4801 Y8.263
X3.468 Y8.244
X3.4564 Y8.2237
X3.445 Y8.2018
X3.4347 Y8.1793
X3.4252 Y8.1565
X3.4168 Y8.1332
X3.4093 Y8.1096
X3.4027 Y8.0858
X3.3972 Y8.0616
X3.3926 Y8.0373
X3.3891 Y8.0128
X3.3865 Y7.9882
X3.385 Y7.9635
X3.3844 Y7.9388
X3.3849 Y7.914
X3.3863 Y7.8893
X3.3887 Y7.8647
X3.3922 Y7.8402
X3.3966 Y7.8159
X3.402 Y7.7917
X3.4084 Y7.7678
X3.4157 Y7.7442
X3.424 Y7.7208
X3.4332 Y7.6979
X3.4434 Y7.6753
X3.4544 Y7.6532
X3.4663 Y7.6315
X3.4791 Y7.6103
X3.4927 Y7.5896
X3.5072 Y7.5696
X3.5225 Y7.5501
X3.5382 Y7.5316
X3.5501 Y7.5188
X3.5565 Y7.5125
X3.5612 Y7.5083
X3.5703 Y7.5019
X3.5807 Y7.4979
X3.5918 Y7.4965
X3.619
G0 Z0.2
X3.6622 Y8.3638
Z-0.1414
G1 Z-0.1532 F30.
X3.6619 Y8.3639 Z-0.1558
X3.6612 Y8.3644 Z-0.1583
X3.66 Y8.3651 Z-0.1606
X3.6584 Y8.366 Z-0.1624
X3.6564 Y8.3672 Z-0.1638
X3.6543 Y8.3685 Z-0.1647
X3.652 Y8.3698 Z-0.165
G3 X3.6224 Y8.3785 I-0.0318 J-0.0536
G1 X3.5957
X3.5897 Y8.3782
X3.5837 Y8.3773
X3.5779 Y8.3758
X3.5723 Y8.3739
X3.5667 Y8.3716
X3.5613 Y8.369
X3.5558 Y8.3659
X3.55 Y8.3624
X3.5432 Y8.3579
X3.5365 Y8.353
X3.5287 Y8.3468
X3.5204 Y8.3395
X3.5116 Y8.331
X3.5014 Y8.3204
X3.4907 Y8.3083
X3.4799 Y8.2948
X3.4683 Y8.2789
X3.4564 Y8.261
X3.4444 Y8.2413
X3.4328 Y8.2201
X3.4219 Y8.1979
X3.412 Y8.1752
X3.403 Y8.1521
X3.395 Y8.1287
X3.3879 Y8.105
X3.3817 Y8.0811
X3.3765 Y8.0569
X3.3723 Y8.0325
X3.369 Y8.008
X3.3667 Y7.9833
X3.3654 Y7.9586
X3.3651 Y7.9339
X3.3657 Y7.9091
X3.3673 Y7.8844
X3.3699 Y7.8598
X3.3734 Y7.8353
X3.3779 Y7.811
X3.3834 Y7.7869
X3.3897 Y7.763
X3.397 Y7.7393
X3.4053 Y7.716
X3.4144 Y7.693
X3.4244 Y7.6703
X3.4353 Y7.6481
X3.4471 Y7.6264
X3.4597 Y7.6051
X3.4731 Y7.5843
X3.4873 Y7.564
X3.5024 Y7.5444
X3.5163 Y7.5275
X3.5247 Y7.5183
X3.5312 Y7.5118
X3.5345 Y7.5087
X3.5437 Y7.5021
X3.5543 Y7.4979
X3.5655 Y7.4965
X3.5918
G0 Z0.2
X3.6355 Y8.3638
Z-0.1414
G1 Z-0.1532 F30.
X3.6352 Y8.3639 Z-0.1558
X3.6345 Y8.3644 Z-0.1583
X3.6333 Y8.3651 Z-0.1606
X3.6317 Y8.366 Z-0.1624
X3.6297 Y8.3672 Z-0.1638
X3.6276 Y8.3685 Z-0.1647
X3.6253 Y8.3698 Z-0.165
G3 X3.5957 Y8.3785 I-0.0318 J-0.0536
G1 X3.5704
X3.5644 Y8.3782
X3.5585 Y8.3773
X3.5527 Y8.3757
X3.547 Y8.3737
X3.5415 Y8.3714
X3.5362 Y8.3687
X3.5309 Y8.3657
X3.5252 Y8.3622
X3.5188 Y8.3578
X3.5121 Y8.3528
X3.5042 Y8.3463
X3.4965 Y8.3394
X3.4878 Y8.3308
X3.4779 Y8.3203
X3.4683 Y8.309
X3.4576 Y8.2955
X3.4462 Y8.2795
X3.4344 Y8.2613
X3.4227 Y8.2414
X3.4114 Y8.2201
X3.4008 Y8.1978
X3.3911 Y8.175
X3.3824 Y8.1518
X3.3746 Y8.1284
X3.3677 Y8.1046
X3.3618 Y8.0806
X3.3567 Y8.0563
X3.3527 Y8.0319
X3.3495 Y8.0074
X3.3473 Y7.9827
X3.3461 Y7.958
X3.3458 Y7.9333
X3.3464 Y7.9085
X3.348 Y7.8838
X3.3506 Y7.8592
X3.354 Y7.8347
X3.3584 Y7.8104
X3.3637 Y7.7862
X3.3699 Y7.7622
X3.377 Y7.7385
X3.385 Y7.7151
X3.3939 Y7.692
X3.4037 Y7.6693
X3.4143 Y7.647
X3.4258 Y7.625
X3.4381 Y7.6035
X3.4511 Y7.5825
X3.465 Y7.562
X3.4797 Y7.5421
X3.4918 Y7.527
X3.499 Y7.5187
X3.5051 Y7.5123
X3.5084 Y7.5092
X3.5152 Y7.5038
X3.523 Y7.4998
X3.5313 Y7.4973
X3.54 Y7.4965
X3.5655
G0 Z0.2
X3.6102 Y8.3638
Z-0.1414
G1 Z-0.1532 F30.
X3.61 Y8.3639 Z-0.1558
X3.6092 Y8.3644 Z-0.1583
X3.608 Y8.3651 Z-0.1606
X3.6064 Y8.366 Z-0.1624
X3.6045 Y8.3672 Z-0.1638
X3.6023 Y8.3685 Z-0.1647
X3.6001 Y8.3698 Z-0.165
G3 X3.5704 Y8.3785 I-0.0318 J-0.0536
G1 X3.5468
X3.5408 Y8.3782
X3.5349 Y8.3774
X3.529 Y8.3759
X3.5234 Y8.3739
X3.5179 Y8.3716
X3.5125 Y8.3689
X3.5073 Y8.3659
X3.5017 Y8.3624
X3.4956 Y8.3583
X3.489 Y8.3533
X3.4816 Y8.3471
X3.4743 Y8.3406
X3.4659 Y8.3323
X3.4565 Y8.3222
X3.4474 Y8.3114
X3.437 Y8.298
X3.4258 Y8.2822
X3.4142 Y8.2643
X3.4032 Y8.2454
X3.3923 Y8.2246
X3.3817 Y8.2022
X3.3721 Y8.1794
X3.3635 Y8.1562
X3.3557 Y8.1327
X3.3489 Y8.109
X3.343 Y8.0849
X3.3379 Y8.0607
X3.3338 Y8.0363
X3.3306 Y8.0118
X3.3283 Y7.9871
X3.327 Y7.9624
X3.3265 Y7.9377
X3.327 Y7.9129
X3.3283 Y7.8882
X3.3306 Y7.8636
X3.3338 Y7.8391
X3.3379 Y7.8147
X3.3429 Y7.7904
X3.3488 Y7.7664
X3.3556 Y7.7426
X3.3632 Y7.719
X3.3717 Y7.6958
X3.381 Y7.6729
X3.3912 Y7.6503
X3.4022 Y7.6282
X3.414 Y7.6064
X3.4266 Y7.5851
X3.44 Y7.5643
X3.454 Y7.5442
X3.4655 Y7.529
X3.4729 Y7.5203
X3.479 Y7.5135
X3.4833 Y7.5093
X3.4841 Y7.5085
X3.4933 Y7.502
X3.5038 Y7.4979
X3.5149 Y7.4965
X3.54
G0 Z0.2
X3.5866 Y8.3638
Z-0.1414
G1 Z-0.1532 F30.
X3.5864 Y8.3639 Z-0.1558
X3.5856 Y8.3644 Z-0.1583
X3.5844 Y8.3651 Z-0.1606
X3.5828 Y8.366 Z-0.1624
X3.5809 Y8.3672 Z-0.1638
X3.5787 Y8.3685 Z-0.1647
X3.5765 Y8.3698 Z-0.165
G3 X3.5468 Y8.3785 I-0.0318 J-0.0536
G1 X3.5226
X3.5166 Y8.3782
X3.5107 Y8.3773
X3.5049 Y8.3758
X3.4992 Y8.3738
X3.4937 Y8.3714
X3.4884 Y8.3687
X3.4832 Y8.3657
X3.4779 Y8.3623
X3.4717 Y8.3579
X3.4655 Y8.3532
X3.4585 Y8.3472
X3.451 Y8.3404
X3.4431 Y8.3324
X3.4339 Y8.3223
X3.4247 Y8.3113
X3.4148 Y8.2983
X3.4042 Y8.283
X3.3931 Y8.2655
X3.382 Y8.246
X3.3712 Y8.225
X3.3608 Y8.2025
X3.3515 Y8.1796
X3.343 Y8.1563
X3.3355 Y8.1327
X3.3289 Y8.1089
X3.3231 Y8.0848
X3.3182 Y8.0606
X3.3142 Y8.0361
X3.3111 Y8.0116
X3.3089 Y7.987
X3.3076 Y7.9622
X3.3072 Y7.9375
X3.3076 Y7.9128
X3.309 Y7.888
X3.3112 Y7.8634
X3.3143 Y7.8389
X3.3183 Y7.8144
X3.3232 Y7.7902
X3.3289 Y7.7661
X3.3355 Y7.7422
X3.3429 Y7.7186
X3.3512 Y7.6953
X3.3603 Y7.6723
X3.3702 Y7.6496
X3.3809 Y7.6273
X3.3924 Y7.6054
X3.4047 Y7.5839
X3.4178 Y7.5629
X3.4311 Y7.5431
X3.4414 Y7.5291
X3.4485 Y7.5204
X3.453 Y7.5152
X3.4583 Y7.5098
X3.459 Y7.5091
X3.4683 Y7.5022
X3.479 Y7.498
X3.4905 Y7.4965
X3.5149
G0 Z0.2
X3.5624 Y8.3638
Z-0.1414
G1 Z-0.1532 F30.
X3.5622 Y8.3639 Z-0.1558
X3.5614 Y8.3644 Z-0.1583
X3.5602 Y8.3651 Z-0.1606
X3.5586 Y8.366 Z-0.1624
X3.5567 Y8.3672 Z-0.1638
X3.5545 Y8.3685 Z-0.1647
X3.5523 Y8.3698 Z-0.165
G3 X3.5226 Y8.3785 I-0.0318 J-0.0536
G1 X3.4987
X3.4928 Y8.3782
X3.4868 Y8.3773
X3.481 Y8.3757
X3.4754 Y8.3736
X3.4699 Y8.3712
X3.4646 Y8.3684
X3.4595 Y8.3653
X3.4543 Y8.362
X3.4482 Y8.3576
X3.4421 Y8.3528
X3.4352 Y8.3469
X3.4278 Y8.3399
X3.4201 Y8.332
X3.4113 Y8.3221
X3.4021 Y8.3109
X3.3927 Y8.2983
X3.3823 Y8.283
X3.3715 Y8.2654
X3.3605 Y8.2459
X3.3499 Y8.2247
X3.3398 Y8.2021
X3.3307 Y8.1791
X3.3225 Y8.1558
X3.3151 Y8.1322
X3.3087 Y8.1083
X3.3031 Y8.0842
X3.2984 Y8.0599
X3.2946 Y8.0354
X3.2916 Y8.0109
X3.2895 Y7.9862
X3.2882 Y7.9615
X3.2878 Y7.9367
X3.2883 Y7.912
X3.2897 Y7.8873
X3.2919 Y7.8626
X3.2949 Y7.8381
X3.2988 Y7.8137
X3.3036 Y7.7894
X3.3092 Y7.7653
X3.3156 Y7.7414
X3.3229 Y7.7177
X3.331 Y7.6943
X3.3399 Y7.6712
X3.3495 Y7.6485
X3.36 Y7.626
X3.3712 Y7.604
X3.3832 Y7.5824
X3.396 Y7.5611
X3.4086 Y7.5419
X3.4176 Y7.5293
X3.4241 Y7.5211
X3.4286 Y7.5158
X3.4337 Y7.5104
X3.4346 Y7.5095
X3.4415 Y7.504
X3.4493 Y7.4999
X3.4577 Y7.4974
X3.4665 Y7.4965
X3.4905
G0 Z0.2
X3.5386 Y8.3638
Z-0.1414
G1 Z-0.1532 F30.
X3.5383 Y8.3639 Z-0.1558
X3.5376 Y8.3644 Z-0.1583
X3.5363 Y8.3651 Z-0.1606
X3.5347 Y8.366 Z-0.1624
X3.5328 Y8.3672 Z-0.1638
X3.5307 Y8.3685 Z-0.1647
X3.5284 Y8.3698 Z-0.165
G3 X3.4987 Y8.3785 I-0.0318 J-0.0536
G1 X3.4749
X3.4689 Y8.3782
X3.463 Y8.3772
X3.4572 Y8.3755
X3.4516 Y8.3734
X3.4462 Y8.3708
X3.4409 Y8.368
X3.4357 Y8.3649
X3.4306 Y8.3614
X3.4246 Y8.357
X3.4186 Y8.3521
X3.4118 Y8.3461
X3.4043 Y8.3389
X3.3969 Y8.3311
X3.3883 Y8.3213
X3.3791 Y8.3097
X3.37 Y8.2972
X3.3599 Y8.2819
X3.3493 Y8.2643
X3.3386 Y8.2445
X3.3282 Y8.2232
X3.3183 Y8.2005
X3.3095 Y8.1774
X3.3015 Y8.154
X3.2944 Y8.1303
X3.2882 Y8.1063
X3.2829 Y8.0821
X3.2784 Y8.0578
X3.2747 Y8.0333
X3.2719 Y8.0088
X3.2699 Y7.9841
X3.2688 Y7.9594
X3.2685 Y7.9346
X3.269 Y7.9099
X3.2704 Y7.8852
X3.2726 Y7.8605
X3.2757 Y7.836
X3.2796 Y7.8115
X3.2843 Y7.7872
X3.2898 Y7.7631
X3.2961 Y7.7392
X3.3033 Y7.7155
X3.3112 Y7.6921
X3.3199 Y7.6689
X3.3295 Y7.6461
X3.3397 Y7.6236
X3.3508 Y7.6014
X3.3625 Y7.5796
X3.375 Y7.5583
X3.3863 Y7.5406
X3.3947 Y7.5287
X3.4004 Y7.5213
X3.4056 Y7.5152
X3.4096 Y7.5108
X3.4107 Y7.5097
X3.4176 Y7.5041
X3.4255 Y7.4999
X3.434 Y7.4974
X3.4428 Y7.4965
X3.4665
G0 Z0.2
X3.5147 Y8.3638
Z-0.1414
G1 Z-0.1532 F30.
X3.5144 Y8.3639 Z-0.1558
X3.5137 Y8.3644 Z-0.1583
X3.5125 Y8.3651 Z-0.1606
X3.5109 Y8.366 Z-0.1624
X3.5089 Y8.3672 Z-0.1638
X3.5068 Y8.3685 Z-0.1647
X3.5045 Y8.3698 Z-0.165
G3 X3.4749 Y8.3785 I-0.0318 J-0.0536
G1 X3.4524
X3.4464 Y8.3782
X3.4405 Y8.3772
X3.4347 Y8.3756
X3.4291 Y8.3735
X3.4237 Y8.3709
X3.4184 Y8.3681
X3.4133 Y8.3649
X3.4082 Y8.3615
X3.4023 Y8.3571
X3.3964 Y8.3524
X3.3896 Y8.3463
X3.3826 Y8.3395
X3.3752 Y8.3317
X3.3668 Y8.3219
X3.3583 Y8.3111
X3.3492 Y8.2985
X3.3392 Y8.2833
X3.3287 Y8.2658
X3.3184 Y8.2465
X3.3085 Y8.2261
X3.2988 Y8.2033
X3.29 Y8.1802
X3.2821 Y8.1567
X3.2751 Y8.133
X3.269 Y8.109
X3.2637 Y8.0849
X3.2592 Y8.0605
X3.2555 Y8.0361
X3.2527 Y8.0115
X3.2507 Y7.9868
X3.2495 Y7.9621
X3.2491 Y7.9373
X3.2496 Y7.9126
X3.2508 Y7.8879
X3.2529 Y7.8632
X3.2558 Y7.8387
X3.2595 Y7.8142
X3.264 Y7.7899
X3.2693 Y7.7657
X3.2754 Y7.7417
X3.2822 Y7.7179
X3.2899 Y7.6944
X3.2983 Y7.6711
X3.3075 Y7.6482
X3.3174 Y7.6255
X3.3281 Y7.6032
X3.3395 Y7.5812
X3.3517 Y7.5596
X3.3626 Y7.5419
X3.3708 Y7.5299
X3.3764 Y7.5223
X3.3813 Y7.5163
X3.3853 Y7.5118
X3.3868 Y7.5103
X3.3938 Y7.5045
X3.4017 Y7.5001
X3.4104 Y7.4974
X3.4195 Y7.4965
X3.4428
G0 Z0.2
X3.4922 Y8.3638
Z-0.1414
G1 Z-0.1532 F30.
X3.492 Y8.3639 Z-0.1558
X3.4912 Y8.3644 Z-0.1583
X3.49 Y8.3651 Z-0.1606
X3.4884 Y8.366 Z-0.1624
X3.4865 Y8.3672 Z-0.1638
X3.4843 Y8.3685 Z-0.1647
X3.4821 Y8.3698 Z-0.165
G3 X3.4524 Y8.3785 I-0.0318 J-0.0536
G1 X3.4299
X3.4239 Y8.3782
X3.418 Y8.3773
X3.4122 Y8.3756
X3.4066 Y8.3735
X3.4012 Y8.3709
X3.3959 Y8.3681
X3.3908 Y8.3649
X3.3859 Y8.3615
X3.38 Y8.3571
X3.3743 Y8.3524
X3.3678 Y8.3466
X3.3608 Y8.3397
X3.3536 Y8.3321
X3.3454 Y8.3225
X3.3369 Y8.3116
X3.3281 Y8.2993
X3.3184 Y8.2844
X3.3083 Y8.2673
X3.2981 Y8.2482
X3.2885 Y8.2279
X3.2788 Y8.2051
X3.2702 Y8.1819
X3.2624 Y8.1584
X3.2555 Y8.1346
X3.2495 Y8.1107
X3.2442 Y8.0865
X3.2398 Y8.0621
X3.2362 Y8.0376
X3.2334 Y8.0131
X3.2314 Y7.9884
X3.2301 Y7.9637
X3.2297 Y7.9389
X3.2301 Y7.9142
X3.2313 Y7.8895
X3.2333 Y7.8648
X3.236 Y7.8402
X3.2396 Y7.8157
X3.2439 Y7.7914
X3.249 Y7.7672
X3.2549 Y7.7431
X3.2616 Y7.7193
X3.269 Y7.6957
X3.2772 Y7.6723
X3.2861 Y7.6492
X3.2957 Y7.6265
X3.3061 Y7.604
X3.3172 Y7.5819
X3.329 Y7.5601
X3.3394 Y7.5428
X3.3473 Y7.5308
X3.3528 Y7.5233
X3.3577 Y7.5171
X3.3616 Y7.5126
X3.3633 Y7.5107
X3.3704 Y7.5047
X3.3784 Y7.5002
X3.3873 Y7.4975
X3.3965 Y7.4965
X3.4195
G0 Z0.2
X3.4697 Y8.3638
Z-0.1414
G1 Z-0.1532 F30.
X3.4695 Y8.3639 Z-0.1558
X3.4687 Y8.3644 Z-0.1583
X3.4675 Y8.3651 Z-0.1606
X3.4659 Y8.366 Z-0.1624
X3.464 Y8.3672 Z-0.1638
X3.4619 Y8.3685 Z-0.1647
X3.4596 Y8.3698 Z-0.165
G3 X3.4299 Y8.3785 I-0.0318 J-0.0536
G1 X3.4074
X3.4015 Y8.3782
X3.3955 Y8.3772
X3.3898 Y8.3756
X3.3842 Y8.3734
X3.3788 Y8.3708
X3.3735 Y8.3679
X3.3684 Y8.3647
X3.3635 Y8.3613
X3.3578 Y8.357
X3.352 Y8.3522
X3.3456 Y8.3464
X3.3386 Y8.3394
X3.3317 Y8.3319
X3.3237 Y8.3225
X3.3151 Y8.3114
X3.3066 Y8.2994
X3.2972 Y8.2847
X3.2875 Y8.2679
X3.2774 Y8.2487
X3.2677 Y8.228
X3.2582 Y8.2052
X3.2497 Y8.1819
X3.2422 Y8.1584
X3.2354 Y8.1346
X3.2295 Y8.1105
X3.2244 Y8.0863
X3.2201 Y8.062
X3.2166 Y8.0375
X3.2139 Y8.0129
X3.2119 Y7.9882
X3.2107 Y7.9635
X3.2103 Y7.9387
X3.2107 Y7.914
X3.2119 Y7.8893
X3.2138 Y7.8646
X3.2165 Y7.84
X3.22 Y7.8155
X3.2242 Y7.7911
X3.2292 Y7.7669
X3.235 Y7.7428
X3.2415 Y7.719
X3.2487 Y7.6953
X3.2567 Y7.6719
X3.2654 Y7.6487
X3.2749 Y7.6258
X3.285 Y7.6033
X3.2958 Y7.581
X3.3074 Y7.5592
X3.317 Y7.5428
X3.3246 Y7.5311
X3.3297 Y7.5238
X3.3346 Y7.5176
X3.3385 Y7.513
X3.3403 Y7.511
X3.3474 Y7.5049
X3.3555 Y7.5003
X3.3644 Y7.4975
X3.3737 Y7.4965
X3.3965
G0 Z0.2
X3.4473 Y8.3638
Z-0.1414
G1 Z-0.1532 F30.
X3.447 Y8.3639 Z-0.1558
X3.4463 Y8.3644 Z-0.1583
X3.445 Y8.3651 Z-0.1606
X3.4434 Y8.366 Z-0.1624
X3.4415 Y8.3672 Z-0.1638
X3.4394 Y8.3685 Z-0.1647
X3.4371 Y8.3698 Z-0.165
G3 X3.4074 Y8.3785 I-0.0318 J-0.0536
G1 X3.385
X3.379 Y8.3782
X3.3731 Y8.3772
X3.3673 Y8.3755
X3.3617 Y8.3732
X3.3563 Y8.3706
X3.3511 Y8.3677
X3.3461 Y8.3645
X3.3411 Y8.361
X3.3355 Y8.3567
X3.3298 Y8.3518
X3.3234 Y8.346
X3.3164 Y8.339
X3.3096 Y8.3315
X3.3019 Y8.3221
X3.2933 Y8.3109
X3.2851 Y8.2991
X3.2759 Y8.2846
X3.2663 Y8.2677
X3.2564 Y8.2484
X3.2469 Y8.2276
X3.2375 Y8.2047
X3.2292 Y8.1814
X3.2218 Y8.1578
X3.2152 Y8.134
X3.2095 Y8.1099
X3.2045 Y8.0856
X3.2003 Y8.0613
X3.1969 Y8.0367
X3.1943 Y8.0121
X3.1924 Y7.9875
X3.1913 Y7.9627
X3.1909 Y7.938
X3.1913 Y7.9133
X3.1925 Y7.8885
X3.1944 Y7.8639
X3.197 Y7.8393
X3.2005 Y7.8148
X3.2046 Y7.7904
X3.2095 Y7.7661
X3.2152 Y7.742
X3.2215 Y7.7181
X3.2286 Y7.6944
X3.2365 Y7.6709
X3.245 Y7.6477
X3.2542 Y7.6247
X3.2642 Y7.6021
X3.2748 Y7.5797
X3.2861 Y7.5578
X3.2949 Y7.5426
X3.3022 Y7.5312
X3.3071 Y7.5241
X3.3119 Y7.5179
X3.3157 Y7.5133
X3.3176 Y7.5113
X3.3246 Y7.505
X3.3328 Y7.5004
X3.3418 Y7.4975
X3.3512 Y7.4965
X3.3737
G0 Z0.2
X3.4248 Y8.3638
Z-0.1414
G1 Z-0.1532 F30.
X3.4245 Y8.3639 Z-0.1558
X3.4238 Y8.3644 Z-0.1583
X3.4226 Y8.3651 Z-0.1606
X3.421 Y8.366 Z-0.1624
X3.419 Y8.3672 Z-0.1638
X3.4169 Y8.3685 Z-0.1647
X3.4146 Y8.3698 Z-0.165
G3 X3.385 Y8.3785 I-0.0318 J-0.0536
G1 X3.3625
X3.3565 Y8.3782
X3.3506 Y8.3771
X3.3449 Y8.3753
X3.3393 Y8.373
X3.3339 Y8.3704
X3.3287 Y8.3674
X3.3237 Y8.3641
X3.3188 Y8.3606
X3.3133 Y8.3563
X3.3075 Y8.3513
X3.3012 Y8.3455
X3.2943 Y8.3384
X3.2876 Y8.3308
X3.2799 Y8.3215
X3.2715 Y8.3102
X3.2634 Y8.2983
X3.2544 Y8.2838
X3.2449 Y8.2668
X3.2352 Y8.2475
X3.2257 Y8.2266
X3.2166 Y8.2036
X3.2085 Y8.1802
X3.2012 Y8.1565
X3.1949 Y8.1326
X3.1893 Y8.1085
X3.1845 Y8.0843
X3.1804 Y8.0598
X3.1771 Y8.0353
X3.1746 Y8.0107
X3.1728 Y7.986
X3.1718 Y7.9613
X3.1715 Y7.9366
X3.1719 Y7.9118
X3.1731 Y7.8871
X3.175 Y7.8624
X3.1776 Y7.8378
X3.181 Y7.8133
X3.1851 Y7.7889
X3.19 Y7.7646
X3.1955 Y7.7405
X3.2018 Y7.7166
X3.2088 Y7.6928
X3.2165 Y7.6693
X3.2249 Y7.646
X3.2339 Y7.623
X3.2437 Y7.6003
X3.2541 Y7.5779
X3.2648 Y7.5568
X3.2729 Y7.5424
X3.2799 Y7.5314
X3.2846 Y7.5244
X3.2893 Y7.5182
X3.2931 Y7.5136
X3.295 Y7.5115
X3.3021 Y7.5052
X3.3104 Y7.5004
X3.3194 Y7.4975
X3.3289 Y7.4965
X3.3512
G0 Z0.2
X3.4023 Y8.3638
Z-0.1414
G1 Z-0.1532 F30.
X3.402 Y8.3639 Z-0.1558
X3.4013 Y8.3644 Z-0.1583
X3.4001 Y8.3651 Z-0.1606
X3.3985 Y8.366 Z-0.1624
X3.3966 Y8.3672 Z-0.1638
X3.3944 Y8.3685 Z-0.1647
X3.3922 Y8.3698 Z-0.165
G3 X3.3625 Y8.3785 I-0.0318 J-0.0536
G1 X3.3414
X3.3354 Y8.3782
X3.3295 Y8.3772
X3.3238 Y8.3755
X3.3182 Y8.3733
X3.3128 Y8.3706
X3.3076 Y8.3676
X3.3025 Y8.3644
X3.2976 Y8.3609
X3.2921 Y8.3566
X3.2866 Y8.3519
X3.2804 Y8.346
X3.2738 Y8.3393
X3.2671 Y8.3318
X3.2595 Y8.3226
X3.2516 Y8.312
X3.2435 Y8.3002
X3.2345 Y8.2857
X3.2251 Y8.2689
X3.2158 Y8.2505
X3.2069 Y8.2307
X3.1977 Y8.2077
X3.1896 Y8.1843
X3.1823 Y8.1606
X3.1759 Y8.1367
X3.1703 Y8.1126
X3.1655 Y8.0884
X3.1614 Y8.064
X3.1581 Y8.0394
X3.1555 Y8.0148
X3.1536 Y7.9902
X3.1525 Y7.9654
X3.152 Y7.9407
X3.1523 Y7.9159
X3.1534 Y7.8912
X3.1551 Y7.8665
X3.1576 Y7.8419
X3.1608 Y7.8174
X3.1647 Y7.7929
X3.1693 Y7.7686
X3.1746 Y7.7445
X3.1806 Y7.7205
X3.1873 Y7.6966
X3.1947 Y7.673
X3.2028 Y7.6496
X3.2116 Y7.6265
X3.221 Y7.6036
X3.2311 Y7.581
X3.2413 Y7.5601
X3.2497 Y7.5447
X3.2567 Y7.5332
X3.2616 Y7.5258
X3.2661 Y7.5197
X3.27 Y7.5148
X3.2741 Y7.5101
X3.2811 Y7.5043
X3.289 Y7.5001
X3.2976 Y7.4974
X3.3066 Y7.4965
X3.3289
G0 Z0.2
X3.3812 Y8.3638
Z-0.1414
G1 Z-0.1532 F30.
X3.381 Y8.3639 Z-0.1558
X3.3802 Y8.3644 Z-0.1583
X3.379 Y8.3651 Z-0.1606
X3.3774 Y8.366 Z-0.1624
X3.3755 Y8.3672 Z-0.1638
X3.3733 Y8.3685 Z-0.1647
X3.3711 Y8.3698 Z-0.165
G3 X3.3414 Y8.3785 I-0.0318 J-0.0536
G1 X3.3189
X3.3129 Y8.3782
X3.307 Y8.3771
X3.3013 Y8.3752
X3.2958 Y8.3729
X3.2904 Y8.3702
X3.2853 Y8.3672
X3.2803 Y8.3639
X3.2754 Y8.3603
X3.27 Y8.356
X3.2642 Y8.351
X3.2583 Y8.3453
X3.2516 Y8.3383
X3.2448 Y8.3306
X3.2375 Y8.3215
X3.2293 Y8.3103
X3.2212 Y8.2982
X3.2127 Y8.2842
X3.2037 Y8.2678
X3.1944 Y8.2488
X3.1852 Y8.2279
X3.1763 Y8.2049
X3.1684 Y8.1814
X3.1614 Y8.1577
X3.1552 Y8.1337
X3.1498 Y8.1096
X3.1452 Y8.0853
X3.1412 Y8.0608
X3.1381 Y8.0363
X3.1356 Y8.0117
X3.1339 Y7.987
X3.1329 Y7.9623
X3.1326 Y7.9375
X3.1329 Y7.9128
X3.1341 Y7.888
X3.1359 Y7.8634
X3.1384 Y7.8387
X3.1416 Y7.8142
X3.1455 Y7.7898
X3.1501 Y7.7655
X3.1554 Y7.7413
X3.1613 Y7.7173
X3.168 Y7.6934
X3.1753 Y7.6698
X3.1833 Y7.6464
X3.192 Y7.6232
X3.2013 Y7.6003
X3.2113 Y7.5777
X3.2211 Y7.5576
X3.2287 Y7.5434
X3.2351 Y7.5327
X3.2404 Y7.5248
X3.2441 Y7.5198
X3.2481 Y7.5146
X3.2502 Y7.5122
X3.2574 Y7.5056
X3.2658 Y7.5006
X3.275 Y7.4976
X3.2847 Y7.4965
X3.3066
G0 Z0.2
X3.3587 Y8.3638
Z-0.1414
G1 Z-0.1532 F30.
X3.3585 Y8.3639 Z-0.1558
X3.3577 Y8.3644 Z-0.1583
X3.3565 Y8.3651 Z-0.1606
X3.3549 Y8.366 Z-0.1624
X3.353 Y8.3672 Z-0.1638
X3.3509 Y8.3685 Z-0.1647
X3.3486 Y8.3698 Z-0.165
G3 X3.3189 Y8.3785 I-0.0318 J-0.0536
G1 X3.2978
X3.2918 Y8.3782
X3.286 Y8.3771
X3.2802 Y8.3753
X3.2747 Y8.373
X3.2693 Y8.3704
X3.2641 Y8.3673
X3.2591 Y8.364
X3.2543 Y8.3605
X3.2488 Y8.3561
X3.2434 Y8.3513
X3.2373 Y8.3455
X3.2307 Y8.3386
X3.2241 Y8.3311
X3.2168 Y8.322
X3.2089 Y8.3111
X3.2012 Y8.2997
X3.1927 Y8.2855
X3.1836 Y8.2689
X3.1744 Y8.2501
X3.1658 Y8.2304
X3.1569 Y8.2073
X3.149 Y8.1839
X3.142 Y8.1601
X3.1359 Y8.1362
X3.1305 Y8.112
X3.1259 Y8.0877
X3.122 Y8.0633
X3.1188 Y8.0387
X3.1163 Y8.0141
X3.1145 Y7.9894
X3.1135 Y7.9647
X3.1131 Y7.94
X3.1134 Y7.9152
X3.1144 Y7.8905
X3.1161 Y7.8658
X3.1185 Y7.8412
X3.1216 Y7.8166
X3.1253 Y7.7922
X3.1298 Y7.7678
X3.1349 Y7.7436
X3.1407 Y7.7195
X3.1471 Y7.6957
X3.1542 Y7.6719
X3.162 Y7.6484
X3.1704 Y7.6252
X3.1794 Y7.6022
X3.1892 Y7.5794
X3.1988 Y7.559
X3.2064 Y7.5447
X3.2127 Y7.5338
X3.2174 Y7.5266
X3.2219 Y7.5203
X3.2256 Y7.5155
X3.2295 Y7.511
X3.2299 Y7.5105
X3.2369 Y7.5046
X3.2449 Y7.5002
X3.2537 Y7.4974
X3.2628 Y7.4965
X3.2847
G0 Z0.2
X3.3377 Y8.3638
Z-0.1414
G1 Z-0.1532 F30.
X3.3374 Y8.3639 Z-0.1558
X3.3366 Y8.3644 Z-0.1583
X3.3354 Y8.3651 Z-0.1606
X3.3338 Y8.366 Z-0.1624
X3.3319 Y8.3672 Z-0.1638
X3.3298 Y8.3685 Z-0.1647
X3.3275 Y8.3698 Z-0.165
G3 X3.2978 Y8.3785 I-0.0318 J-0.0536
G1 X3.2771
X3.2711 Y8.3782
X3.2652 Y8.3772
X3.2594 Y8.3755
X3.2538 Y8.3732
X3.2485 Y8.3706
X3.2433 Y8.3675
X3.2383 Y8.3643
X3.2334 Y8.3607
X3.2281 Y8.3564
X3.2227 Y8.3517
X3.2167 Y8.346
X3.2102 Y8.3392
X3.2039 Y8.332
X3.1967 Y8.3231
X3.1889 Y8.3124
X3.1813 Y8.3011
X3.1728 Y8.2871
X3.1641 Y8.2711
X3.155 Y8.2526
X3.1466 Y8.2335
X3.1378 Y8.2107
X3.1299 Y8.1872
X3.1229 Y8.1635
X3.1167 Y8.1395
X3.1114 Y8.1153
X3.1067 Y8.091
X3.1028 Y8.0666
X3.0996 Y8.0421
X3.0971 Y8.0175
X3.0953 Y7.9928
X3.0941 Y7.9681
X3.0937 Y7.9433
X3.0939 Y7.9186
X3.0948 Y7.8938
X3.0963 Y7.8691
X3.0986 Y7.8445
X3.1015 Y7.8199
X3.1051 Y7.7954
X3.1093 Y7.7711
X3.1142 Y7.7468
X3.1198 Y7.7227
X3.126 Y7.6987
X3.1329 Y7.675
X3.1404 Y7.6514
X3.1485 Y7.628
X3.1573 Y7.6049
X3.1668 Y7.582
X3.1763 Y7.5614
X3.1837 Y7.5469
X3.1902 Y7.5355
X3.1955 Y7.527
X3.1991 Y7.5218
X3.2032 Y7.5164
X3.207 Y7.5118
X3.2073 Y7.5115
X3.2138 Y7.5057
X3.2214 Y7.5012
X3.2297 Y7.4983
X3.2384 Y7.497
X3.2433 Y7.4967
X3.249 Y7.4965
X3.2628
G0 Z0.2
X3.3169 Y8.3638
Z-0.1414
G1 Z-0.1532 F30.
X3.3166 Y8.3639 Z-0.1558
X3.3159 Y8.3644 Z-0.1583
X3.3147 Y8.3651 Z-0.1606
X3.3131 Y8.366 Z-0.1624
X3.3111 Y8.3672 Z-0.1638
X3.309 Y8.3685 Z-0.1647
X3.3067 Y8.3698 Z-0.165
G3 X3.2771 Y8.3785 I-0.0318 J-0.0536
G1 X3.2557
X3.2497 Y8.3782
X3.2438 Y8.3772
X3.2381 Y8.3754
X3.2325 Y8.3732
X3.2272 Y8.3705
X3.222 Y8.3674
X3.217 Y8.3641
X3.2121 Y8.3606
X3.2069 Y8.3564
X3.2014 Y8.3515
X3.1956 Y8.3459
X3.1892 Y8.3392
X3.1828 Y8.3318
X3.1758 Y8.323
X3.168 Y8.3123
X3.1604 Y8.3009
X3.1523 Y8.2873
X3.1437 Y8.2716
X3.1348 Y8.2532
X3.1261 Y8.2332
X3.1176 Y8.2109
X3.1098 Y8.1874
X3.1029 Y8.1636
X3.0968 Y8.1396
X3.0915 Y8.1154
X3.087 Y8.0911
X3.0831 Y8.0667
X3.08 Y8.0421
X3.0775 Y8.0175
X3.0757 Y7.9928
X3.0746 Y7.9681
X3.0742 Y7.9434
X3.0744 Y7.9186
X3.0753 Y7.8939
X3.0768 Y7.8692
X3.079 Y7.8445
X3.0818 Y7.82
X3.0854 Y7.7955
X3.0895 Y7.7711
X3.0943 Y7.7468
X3.0998 Y7.7227
X3.1059 Y7.6987
X3.1126 Y7.6749
X3.1199 Y7.6512
X3.1279 Y7.6278
X3.1366 Y7.6046
X3.1459 Y7.5817
X3.155 Y7.5615
X3.1623 Y7.547
X3.1684 Y7.536
X3.1736 Y7.5276
X3.1772 Y7.5224
X3.1812 Y7.517
X3.1821 Y7.5159
X3.1883 Y7.5097
X3.1955 Y7.5048
X3.2035 Y7.5013
X3.2121 Y7.4994
X3.2265 Y7.4977
X3.2321 Y7.4973
X3.2384 Y7.497
G3 X3.2446 Y7.5189 I0.0002 J0.0118
G1 X3.2424 Y7.5203 Z-0.1647
X3.2402 Y7.5216 Z-0.1638
X3.2383 Y7.5227 Z-0.1624
X3.2367 Y7.5237 Z-0.1606
X3.2355 Y7.5244 Z-0.1583
X3.2347 Y7.5248 Z-0.1558
X3.2345 Y7.525 Z-0.1532
G0 Z0.2
X3.2955 Y8.3638
Z-0.1414
G1 Z-0.1532 F30.
X3.2953 Y8.3639 Z-0.1558
X3.2945 Y8.3644 Z-0.1583
X3.2933 Y8.3651 Z-0.1606
X3.2917 Y8.366 Z-0.1624
X3.2898 Y8.3672 Z-0.1638
X3.2876 Y8.3685 Z-0.1647
X3.2854 Y8.3698 Z-0.165
G3 X3.2557 Y8.3785 I-0.0318 J-0.0536
G1 X3.2346
X3.2286 Y8.3782
X3.2227 Y8.3772
X3.217 Y8.3754
X3.2114 Y8.3732
X3.2061 Y8.3705
X3.2009 Y8.3674
X3.1959 Y8.3641
X3.1911 Y8.3605
X3.1859 Y8.3563
X3.1804 Y8.3515
X3.1747 Y8.3459
X3.1683 Y8.3391
X3.1619 Y8.3318
X3.155 Y8.3231
X3.1474 Y8.3126
X3.1399 Y8.3012
X3.1319 Y8.2878
X3.1234 Y8.2719
X3.1146 Y8.2536
X3.106 Y8.2338
X3.0976 Y8.2117
X3.0899 Y8.1882
X3.0831 Y8.1644
X3.0771 Y8.1404
X3.0719 Y8.1162
X3.0674 Y8.0919
X3.0636 Y8.0674
X3.0605 Y8.0429
X3.058 Y8.0182
X3.0562 Y7.9935
X3.0551 Y7.9688
X3.0547 Y7.9441
X3.0549 Y7.9193
X3.0557 Y7.8946
X3.0572 Y7.8699
X3.0593 Y7.8453
X3.0621 Y7.8207
X3.0655 Y7.7962
X3.0696 Y7.7717
X3.0743 Y7.7475
X3.0796 Y7.7233
X3.0855 Y7.6993
X3.0921 Y7.6754
X3.0993 Y7.6517
X3.1071 Y7.6283
X3.1156 Y7.605
X3.1247 Y7.582
X3.1336 Y7.562
X3.1407 Y7.5476
X3.1466 Y7.5367
X3.1507 Y7.53
X3.155 Y7.5237
X3.156 Y7.5223
X3.1619 Y7.5158
X3.1689 Y7.5104
X3.1769 Y7.5066
X3.1879 Y7.5025
X3.1903 Y7.502
X3.2121 Y7.4994
G3 X3.2197 Y7.5209 I0.001 J0.0118
G1 X3.2176 Y7.5224 Z-0.1647
X3.2155 Y7.5238 Z-0.1638
X3.2137 Y7.5251 Z-0.1624
X3.2121 Y7.5262 Z-0.1606
X3.211 Y7.527 Z-0.1583
X3.2103 Y7.5275 Z-0.1558
X3.21 Y7.5276 Z-0.1532
G0 Z0.2
X3.2744 Y8.3638
Z-0.1414
G1 Z-0.1532 F30.
X3.2742 Y8.3639 Z-0.1558
X3.2734 Y8.3644 Z-0.1583
X3.2722 Y8.3651 Z-0.1606
X3.2706 Y8.366 Z-0.1624
X3.2687 Y8.3672 Z-0.1638
X3.2666 Y8.3685 Z-0.1647
X3.2643 Y8.3698 Z-0.165
G3 X3.2346 Y8.3785 I-0.0318 J-0.0536
G1 X3.2135
X3.2076 Y8.3782
X3.2017 Y8.3772
X3.1959 Y8.3754
X3.1904 Y8.3731
X3.185 Y8.3704
X3.1799 Y8.3673
X3.1749 Y8.364
X3.17 Y8.3604
X3.1649 Y8.3562
X3.1594 Y8.3514
X3.1538 Y8.3458
X3.1474 Y8.3391
X3.1411 Y8.3318
X3.1344 Y8.3232
X3.1268 Y8.3126
X3.1193 Y8.3012
X3.1114 Y8.2879
X3.103 Y8.2722
X3.0943 Y8.254
X3.0858 Y8.2341
X3.0776 Y8.2121
X3.0699 Y8.1886
X3.0632 Y8.1648
X3.0573 Y8.1408
X3.0521 Y8.1165
X3.0477 Y8.0922
X3.0439 Y8.0677
X3.0409 Y8.0432
X3.0385 Y8.0186
X3.0367 Y7.9939
X3.0356 Y7.9692
X3.0352 Y7.9444
X3.0354 Y7.9197
X3.0362 Y7.8949
X3.0376 Y7.8702
X3.0397 Y7.8456
X3.0424 Y7.821
X3.0458 Y7.7965
X3.0497 Y7.772
X3.0543 Y7.7477
X3.0595 Y7.7235
X3.0654 Y7.6995
X3.0718 Y7.6756
X3.0788 Y7.6519
X3.0865 Y7.6283
X3.0948 Y7.605
X3.1038 Y7.582
X3.1123 Y7.5624
X3.119 Y7.5486
X3.1237 Y7.5398
X3.1252 Y7.5373
X3.1291 Y7.5319
X3.1337 Y7.527
X3.1389 Y7.5229
X3.146 Y7.5182
X3.1478 Y7.5173
X3.1769 Y7.5066
G3 X3.1894 Y7.5257 I0.0037 J0.0112
G1 X3.1876 Y7.5276 Z-0.1647
X3.186 Y7.5295 Z-0.1638
X3.1845 Y7.5311 Z-0.1624
X3.1832 Y7.5325 Z-0.1606
X3.1823 Y7.5336 Z-0.1583
X3.1817 Y7.5342 Z-0.1558
X3.1815 Y7.5345 Z-0.1532
G0 Z0.2
X3.2534 Y8.3638
Z-0.1414
G1 Z-0.1532 F30.
X3.2531 Y8.3639 Z-0.1558
X3.2524 Y8.3644 Z-0.1583
X3.2511 Y8.3651 Z-0.1606
X3.2495 Y8.366 Z-0.1624
X3.2476 Y8.3672 Z-0.1638
X3.2455 Y8.3685 Z-0.1647
X3.2432 Y8.3698 Z-0.165
G3 X3.2135 Y8.3785 I-0.0318 J-0.0536
G1 X3.1928
X3.1868 Y8.3782
X3.1809 Y8.3772
X3.1751 Y8.3754
X3.1696 Y8.3731
X3.1642 Y8.3704
X3.1591 Y8.3674
X3.1541 Y8.364
X3.1493 Y8.3605
X3.1442 Y8.3563
X3.1388 Y8.3514
X3.1331 Y8.3459
X3.1269 Y8.3392
X3.1206 Y8.332
X3.1139 Y8.3234
X3.1064 Y8.313
X3.0991 Y8.3017
X3.0913 Y8.2885
X3.0829 Y8.2728
X3.0743 Y8.2548
X3.066 Y8.2353
X3.0579 Y8.2134
X3.0502 Y8.1898
X3.0435 Y8.166
X3.0376 Y8.142
X3.0325 Y8.1178
X3.0281 Y8.0934
X3.0244 Y8.069
X3.0214 Y8.0444
X3.019 Y8.0198
X3.0173 Y7.9951
X3.0162 Y7.9704
X3.0157 Y7.9456
X3.0158 Y7.9209
X3.0166 Y7.8961
X3.018 Y7.8714
X3.02 Y7.8468
X3.0226 Y7.8222
X3.0259 Y7.7976
X3.0297 Y7.7732
X3.0342 Y7.7489
X3.0393 Y7.7246
X3.045 Y7.7006
X3.0513 Y7.6766
X3.0581 Y7.6529
X3.0656 Y7.6293
X3.0737 Y7.6059
X3.0825 Y7.5828
X3.0881 Y7.5697
X3.0904 Y7.565
X3.0932 Y7.5607
X3.0965 Y7.5566
X3.1085 Y7.5437
X3.1095 Y7.5427
X3.1106 Y7.5419
X3.1389 Y7.5229
G3 X3.1556 Y7.5385 I0.0062 J0.01
G1 X3.1543 Y7.5408 Z-0.1647
X3.1531 Y7.543 Z-0.1638
X3.1521 Y7.545 Z-0.1624
X3.1512 Y7.5467 Z-0.1606
X3.1505 Y7.5479 Z-0.1583
X3.1501 Y7.5487 Z-0.1558
X3.15 Y7.5489 Z-0.1532
G0 Z0.2
X3.2326 Y8.3638
Z-0.1414
G1 Z-0.1532 F30.
X3.2323 Y8.3639 Z-0.1558
X3.2316 Y8.3644 Z-0.1583
X3.2304 Y8.3651 Z-0.1606
X3.2288 Y8.366 Z-0.1624
X3.2268 Y8.3672 Z-0.1638
X3.2247 Y8.3685 Z-0.1647
X3.2224 Y8.3698 Z-0.165
G3 X3.1928 Y8.3785 I-0.0318 J-0.0536
G1 X3.1714
X3.1654 Y8.3782
X3.1595 Y8.3771
X3.1538 Y8.3753
X3.1483 Y8.3729
X3.143 Y8.3702
X3.1378 Y8.3671
X3.1329 Y8.3637
X3.1281 Y8.3601
X3.1231 Y8.3559
X3.1175 Y8.3509
X3.112 Y8.3455
X3.1058 Y8.3388
X3.0994 Y8.3312
X3.0928 Y8.3228
X3.0855 Y8.3124
X3.0779 Y8.3006
X3.0703 Y8.2875
X3.0621 Y8.272
X3.0537 Y8.254
X3.0453 Y8.2339
X3.0371 Y8.2116
X3.0296 Y8.188
X3.023 Y8.1642
X3.0173 Y8.1401
X3.0123 Y8.1158
X3.0081 Y8.0915
X3.0045 Y8.067
X3.0015 Y8.0424
X2.9992 Y8.0178
X2.9976 Y7.9931
X2.9965 Y7.9684
X2.9961 Y7.9436
X2.9963 Y7.9189
X2.9971 Y7.8941
X2.9985 Y7.8694
X3.0006 Y7.8448
X3.0032 Y7.8202
X3.0064 Y7.7956
X3.0103 Y7.7712
X3.0147 Y7.7469
X3.0197 Y7.7226
X3.0254 Y7.6985
X3.0316 Y7.6746
X3.0344 Y7.6647
X3.0351 Y7.6625
X3.0359 Y7.6604
X3.0368 Y7.6582
X3.0489 Y7.6319
X3.0542 Y7.6206
X3.0571 Y7.615
X3.0758 Y7.5813
X3.0791 Y7.5756
X3.0804 Y7.5742
X3.0965 Y7.5566
G3 X3.1163 Y7.5679 I0.0084 J0.0083
G1 X3.1157 Y7.5705 Z-0.1647
X3.115 Y7.5729 Z-0.1638
X3.1145 Y7.575 Z-0.1624
X3.114 Y7.5769 Z-0.1606
X3.1136 Y7.5782 Z-0.1583
X3.1134 Y7.5791 Z-0.1558
X3.1133 Y7.5793 Z-0.1532
G0 Z0.2
X3.2112 Y8.3638
Z-0.1414
G1 Z-0.1532 F30.
X3.211 Y8.3639 Z-0.1558
X3.2102 Y8.3644 Z-0.1583
X3.209 Y8.3651 Z-0.1606
X3.2074 Y8.366 Z-0.1624
X3.2055 Y8.3672 Z-0.1638
X3.2034 Y8.3685 Z-0.1647
X3.2011 Y8.3698 Z-0.165
G3 X3.1714 Y8.3785 I-0.0318 J-0.0536
G1 X3.1503
X3.1444 Y8.3782
X3.1385 Y8.377
X3.1328 Y8.3752
X3.1273 Y8.3728
X3.1219 Y8.37
X3.1168 Y8.3669
X3.1119 Y8.3635
X3.1071 Y8.3599
X3.1021 Y8.3557
X3.0966 Y8.3507
X3.091 Y8.3451
X3.0848 Y8.3383
X3.0785 Y8.3308
X3.0719 Y8.3222
X3.0646 Y8.3118
X3.0572 Y8.3001
X3.0496 Y8.287
X3.0415 Y8.2713
X3.033 Y8.2531
X3.0247 Y8.2328
X3.0167 Y8.2107
X3.0093 Y8.1871
X3.0028 Y8.1632
X2.9972 Y8.1391
X2.9923 Y8.1149
X2.9882 Y8.0905
X2.9847 Y8.066
X2.9818 Y8.0414
X2.9796 Y8.0168
X2.978 Y7.9921
X2.977 Y7.9674
X2.9766 Y7.9426
X2.9768 Y7.9179
X2.9776 Y7.8931
X2.979 Y7.8684
X2.981 Y7.8438
X2.9837 Y7.8192
X2.9869 Y7.7946
X2.9906 Y7.7702
X2.9936 Y7.7539
X2.9946 Y7.7493
X2.9962 Y7.7448
X2.9982 Y7.7405
X3.0022 Y7.7331
X3.005 Y7.7275
X3.0368 Y7.6582
G3 X3.0591 Y7.6629 I0.0105 J0.0053
G1 X3.0593 Y7.6655 Z-0.1647
X3.0594 Y7.668 Z-0.1638
X3.0595 Y7.6702 Z-0.1624
X3.0596 Y7.6721 Z-0.1606
X3.0597 Y7.6735 Z-0.1583
X3.0598 Y7.6744 Z-0.1558
Y7.6747 Z-0.1532
G0 Z0.2
X3.1902 Y8.3638
Z-0.1414
G1 Z-0.1532 F30.
X3.1899 Y8.3639 Z-0.1558
X3.1892 Y8.3644 Z-0.1583
X3.1879 Y8.3651 Z-0.1606
X3.1863 Y8.366 Z-0.1624
X3.1844 Y8.3672 Z-0.1638
X3.1823 Y8.3685 Z-0.1647
X3.18 Y8.3698 Z-0.165
G3 X3.1503 Y8.3785 I-0.0318 J-0.0536
G1 X3.1293
X3.1233 Y8.3782
X3.1174 Y8.377
X3.1117 Y8.3751
X3.1062 Y8.3727
X3.1009 Y8.3698
X3.0958 Y8.3667
X3.0909 Y8.3633
X3.0861 Y8.3596
X3.0811 Y8.3553
X3.0756 Y8.3503
X3.0701 Y8.3447
X3.0639 Y8.3379
X3.0576 Y8.3303
X3.051 Y8.3217
X3.0438 Y8.3112
X3.0364 Y8.2994
X3.0288 Y8.2862
X3.0207 Y8.2703
X3.0123 Y8.2521
X3.0041 Y8.2318
X2.9962 Y8.2095
X2.9889 Y8.1858
X2.9826 Y8.1619
X2.9771 Y8.1378
X2.9723 Y8.1135
X2.9682 Y8.0891
X2.9648 Y8.0646
X2.962 Y8.04
X2.9599 Y8.0154
X2.9583 Y7.9907
X2.9574 Y7.9659
X2.957 Y7.9412
X2.9573 Y7.9165
X2.9581 Y7.8917
X2.9595 Y7.867
X2.9615 Y7.8424
X2.9641 Y7.8177
X2.9657 Y7.8055
X2.9668 Y7.7997
X2.9687 Y7.7942
X2.9712 Y7.7889
X2.9931 Y7.75
X2.9973 Y7.7422
X2.9982 Y7.7405
G0 Z0.2
X3.1691 Y8.3638
Z-0.1414
G1 Z-0.1532 F30.
X3.1688 Y8.3639 Z-0.1558
X3.1681 Y8.3644 Z-0.1583
X3.1669 Y8.3651 Z-0.1606
X3.1652 Y8.366 Z-0.1624
X3.1633 Y8.3672 Z-0.1638
X3.1612 Y8.3685 Z-0.1647
X3.1589 Y8.3698 Z-0.165
G3 X3.1293 Y8.3785 I-0.0318 J-0.0536
G1 X3.1096
X3.1036 Y8.3782
X3.0977 Y8.3771
X3.092 Y8.3753
X3.0865 Y8.373
X3.0811 Y8.3702
X3.076 Y8.3671
X3.0711 Y8.3638
X3.0663 Y8.3601
X3.0612 Y8.3559
X3.056 Y8.3512
X3.0504 Y8.3456
X3.0443 Y8.3389
X3.0383 Y8.3318
X3.0317 Y8.3231
X3.0244 Y8.3128
X3.0175 Y8.3019
X3.0099 Y8.2886
X3.0017 Y8.2729
X2.9934 Y8.2552
X2.9858 Y8.2366
X2.9778 Y8.2145
X2.9704 Y8.1909
X2.964 Y8.167
X2.9583 Y8.1429
X2.9535 Y8.1186
X2.9493 Y8.0942
X2.9458 Y8.0697
X2.9429 Y8.0451
X2.9407 Y8.0205
X2.939 Y7.9958
X2.938 Y7.9711
X2.9375 Y7.9464
X2.9376 Y7.9216
X2.9383 Y7.8969
X2.9396 Y7.8722
X2.9412 Y7.8511
X2.9422 Y7.8445
X2.9441 Y7.8382
X2.9469 Y7.8321
X2.9712 Y7.7889
G3 X2.9931 Y7.7954 I0.0101 J0.0061
G1 X2.993 Y7.798 Z-0.1647
Y7.8005 Z-0.1638
X2.9929 Y7.8027 Z-0.1624
X2.9928 Y7.8046 Z-0.1606
Y7.806 Z-0.1583
Y7.8069 Z-0.1558
Y7.8072 Z-0.1532
G0 Z0.2
X3.1494 Y8.3638
Z-0.1414
G1 Z-0.1532 F30.
X3.1492 Y8.3639 Z-0.1558
X3.1484 Y8.3644 Z-0.1583
X3.1472 Y8.3651 Z-0.1606
X3.1456 Y8.366 Z-0.1624
X3.1437 Y8.3672 Z-0.1638
X3.1415 Y8.3685 Z-0.1647
X3.1393 Y8.3698 Z-0.165
G3 X3.1096 Y8.3785 I-0.0318 J-0.0536
G1 X3.0885
X3.0825 Y8.3782
X3.0767 Y8.377
X3.071 Y8.3752
X3.0654 Y8.3728
X3.0601 Y8.37
X3.055 Y8.3669
X3.0501 Y8.3634
X3.0453 Y8.3598
X3.0404 Y8.3556
X3.0349 Y8.3505
X3.0295 Y8.3451
X3.0235 Y8.3385
X3.0172 Y8.3309
X3.0109 Y8.3225
X3.0037 Y8.3122
X2.9963 Y8.3004
X2.9889 Y8.2875
X2.9812 Y8.2724
X2.9731 Y8.2547
X2.965 Y8.2346
X2.9571 Y8.2125
X2.9498 Y8.1888
X2.9435 Y8.1649
X2.938 Y8.1408
X2.9333 Y8.1165
X2.9292 Y8.0921
X2.9258 Y8.0675
X2.9231 Y8.043
X2.9209 Y8.0183
X2.9193 Y7.9936
X2.9183 Y7.9689
X2.9179 Y7.9441
X2.9181 Y7.9194
X2.9188 Y7.8947
X2.9192 Y7.8878
X2.9204 Y7.8797
X2.923 Y7.8719
X2.9269 Y7.8647
X2.9322 Y7.8568
X2.9359 Y7.8512
X2.9394 Y7.8456
X2.9469 Y7.8321
G3 X2.9684 Y7.8352 I0.0101 J0.0061
G1 X2.9693 Y7.8385
X3.1164 Y8.3742
X3.1171 Y8.3756
X3.1182 Y8.3766
X3.1196 Y8.3771
X3.1211 Y8.377
X3.1225 Y8.3764
X3.1235 Y8.3753
X3.1241 Y8.3739
Y8.3724
X3.1235 Y8.371
X3.1225 Y8.37
X3.1211 Y8.3694
X3.1196 Y8.3693
X3.1182 Y8.3698
G3 X3.0885 Y8.3785 I-0.0318 J-0.0536
G1 X3.0674
X3.0615 Y8.3782
X3.0556 Y8.3769
X3.0499 Y8.375
X3.0444 Y8.3726
X3.0391 Y8.3697
X3.0341 Y8.3666
X3.0292 Y8.3631
X3.0244 Y8.3594
X3.0195 Y8.3552
X3.014 Y8.3501
X3.0086 Y8.3445
X3.0025 Y8.3377
X2.9962 Y8.3301
X2.9898 Y8.3215
X2.9828 Y8.3112
X2.9754 Y8.2993
X2.9682 Y8.2865
X2.9604 Y8.271
X2.9522 Y8.2529
X2.9441 Y8.2326
X2.9363 Y8.2103
X2.9292 Y8.1866
X2.923 Y8.1626
X2.9177 Y8.1385
X2.9131 Y8.1142
X2.9091 Y8.0897
X2.9059 Y8.0652
X2.9032 Y8.0406
X2.9011 Y8.016
X2.8996 Y7.9913
X2.8987 Y7.9665
X2.8983 Y7.9418
X2.8985 Y7.9204
X2.8995 Y7.9116
X2.9021 Y7.9031
X2.9063 Y7.8953
X2.9269 Y7.8647
G3 X2.9479 Y7.8686 I0.0095 J0.0069
G1 X2.949 Y7.8728
X3.076 Y8.3543
X3.0784 Y8.3637
G3 X3.0674 Y8.3785 I-0.0114 J0.003
G1 X3.0478
X3.0418 Y8.3782
X3.0359 Y8.3771
X3.0302 Y8.3752
X3.0247 Y8.3729
X3.0194 Y8.3701
X3.0143 Y8.3669
X3.0094 Y8.3635
X3.0046 Y8.3598
X2.9996 Y8.3556
X2.9944 Y8.3508
X2.9889 Y8.3452
X2.9828 Y8.3385
X2.9769 Y8.3313
X2.9704 Y8.3228
X2.9633 Y8.3125
X2.9565 Y8.3016
X2.9491 Y8.2886
X2.9412 Y8.273
X2.933 Y8.2551
