(X4 FEEDER PLATE 1 CENTERDRILL3)
(T3  D=0.118 CR=0. - ZMIN=-0.0312 - FLAT END MILL)
G90 G94 G91.1 G40 G49 G17
G20

(DRILL3)
M5
T3 M6
S15000 M3
g4 p5
G54
M8
G0 X1.3095 Y9.25
G43 Z0.6 H3
Z0.2
G98 G81 X1.3095 Y9.25 Z-0.0312 R0.2 F5.
X1.8095
X2.3095
X2.8095
X3.3095
X3.8095
X4.3095
Y8.75
X3.8095
X3.3095
X2.8095
X2.3095
X1.8095
X1.3095
G80
Z0.6

M9
M30
