(X4 FEEDER PLATE 1 POCKET2)
(T3  D=0.118 CR=0. - ZMIN=-0.165 - FLAT END MILL)
G90 G94 G91.1 G40 G49 G17
G20

(2D ADAPTIVE3)
M5
T3 M6
S15000 M3
g4 p5
G54
M8
G0 X1.5081 Y6.9776
G43 Z0.6 H3
Z0.2
Z0.102
G3 X1.6109 Y7.0224 Z0.0989 I0.0514 J0.0224 F15.
X1.5081 Y6.9776 Z0.0959 I-0.0514 J-0.0224
X1.6109 Y7.0224 Z0.0928 I0.0514 J0.0224
X1.5081 Y6.9776 Z0.0897 I-0.0514 J-0.0224
X1.6109 Y7.0224 Z0.0866 I0.0514 J0.0224
X1.5081 Y6.9776 Z0.0836 I-0.0514 J-0.0224
X1.6109 Y7.0224 Z0.0805 I0.0514 J0.0224
X1.5081 Y6.9776 Z0.0774 I-0.0514 J-0.0224
X1.6109 Y7.0224 Z0.0743 I0.0514 J0.0224
X1.5081 Y6.9776 Z0.0713 I-0.0514 J-0.0224
X1.6109 Y7.0224 Z0.0682 I0.0514 J0.0224
X1.5081 Y6.9776 Z0.0651 I-0.0514 J-0.0224
X1.6109 Y7.0224 Z0.062 I0.0514 J0.0224
X1.5081 Y6.9776 Z0.059 I-0.0514 J-0.0224
X1.6109 Y7.0224 Z0.0559 I0.0514 J0.0224
X1.5081 Y6.9776 Z0.0528 I-0.0514 J-0.0224
X1.6109 Y7.0224 Z0.0497 I0.0514 J0.0224
X1.5081 Y6.9776 Z0.0467 I-0.0514 J-0.0224
X1.6109 Y7.0224 Z0.0436 I0.0514 J0.0224
X1.5081 Y6.9776 Z0.0405 I-0.0514 J-0.0224
X1.6109 Y7.0224 Z0.0375 I0.0514 J0.0224
X1.5081 Y6.9776 Z0.0344 I-0.0514 J-0.0224
X1.6109 Y7.0224 Z0.0313 I0.0514 J0.0224
X1.5081 Y6.9776 Z0.0282 I-0.0514 J-0.0224
X1.6109 Y7.0224 Z0.0252 I0.0514 J0.0224
X1.5081 Y6.9776 Z0.0221 I-0.0514 J-0.0224
X1.6109 Y7.0224 Z0.019 I0.0514 J0.0224
X1.5081 Y6.9776 Z0.0159 I-0.0514 J-0.0224
X1.6109 Y7.0224 Z0.0129 I0.0514 J0.0224
X1.5081 Y6.9776 Z0.0098 I-0.0514 J-0.0224
X1.6109 Y7.0224 Z0.0067 I0.0514 J0.0224
X1.5081 Y6.9776 Z0.0036 I-0.0514 J-0.0224
X1.6109 Y7.0224 Z0.0006 I0.0514 J0.0224
X1.5081 Y6.9776 Z-0.0025 I-0.0514 J-0.0224
X1.6109 Y7.0224 Z-0.0056 I0.0514 J0.0224
X1.5081 Y6.9776 Z-0.0086 I-0.0514 J-0.0224
X1.6109 Y7.0224 Z-0.0117 I0.0514 J0.0224
X1.5081 Y6.9776 Z-0.0148 I-0.0514 J-0.0224
X1.6109 Y7.0224 Z-0.0179 I0.0514 J0.0224
X1.5081 Y6.9776 Z-0.0209 I-0.0514 J-0.0224
X1.6109 Y7.0224 Z-0.024 I0.0514 J0.0224
X1.5081 Y6.9776 Z-0.0271 I-0.0514 J-0.0224
X1.6109 Y7.0224 Z-0.0302 I0.0514 J0.0224
X1.5081 Y6.9776 Z-0.0332 I-0.0514 J-0.0224
X1.6109 Y7.0224 Z-0.0363 I0.0514 J0.0224
X1.5081 Y6.9776 Z-0.0394 I-0.0514 J-0.0224
X1.6109 Y7.0224 Z-0.0425 I0.0514 J0.0224
X1.5081 Y6.9776 Z-0.0455 I-0.0514 J-0.0224
X1.6109 Y7.0224 Z-0.0486 I0.0514 J0.0224
X1.5081 Y6.9776 Z-0.0517 I-0.0514 J-0.0224
X1.6109 Y7.0224 Z-0.0548 I0.0514 J0.0224
X1.5081 Y6.9776 Z-0.0578 I-0.0514 J-0.0224
X1.6109 Y7.0224 Z-0.0609 I0.0514 J0.0224
X1.5081 Y6.9776 Z-0.064 I-0.0514 J-0.0224
X1.6109 Y7.0224 Z-0.067 I0.0514 J0.0224
X1.5081 Y6.9776 Z-0.0701 I-0.0514 J-0.0224
X1.6109 Y7.0224 Z-0.0732 I0.0514 J0.0224
X1.5081 Y6.9776 Z-0.0763 I-0.0514 J-0.0224
X1.6109 Y7.0224 Z-0.0793 I0.0514 J0.0224
X1.5081 Y6.9776 Z-0.0824 I-0.0514 J-0.0224
X1.6109 Y7.0224 Z-0.0855 I0.0514 J0.0224
X1.5081 Y6.9776 Z-0.0886 I-0.0514 J-0.0224
X1.6109 Y7.0224 Z-0.0916 I0.0514 J0.0224
X1.5081 Y6.9776 Z-0.0947 I-0.0514 J-0.0224
X1.6109 Y7.0224 Z-0.0978 I0.0514 J0.0224
X1.5081 Y6.9776 Z-0.1009 I-0.0514 J-0.0224
X1.6109 Y7.0224 Z-0.1039 I0.0514 J0.0224
X1.5081 Y6.9776 Z-0.107 I-0.0514 J-0.0224
X1.6109 Y7.0224 Z-0.1101 I0.0514 J0.0224
X1.5081 Y6.9776 Z-0.1132 I-0.0514 J-0.0224
X1.6109 Y7.0224 Z-0.1162 I0.0514 J0.0224
X1.5081 Y6.9776 Z-0.1193 I-0.0514 J-0.0224
X1.6109 Y7.0224 Z-0.1224 I0.0514 J0.0224
X1.5081 Y6.9776 Z-0.1254 I-0.0514 J-0.0224
X1.6109 Y7.0224 Z-0.1285 I0.0514 J0.0224
X1.5081 Y6.9776 Z-0.1316 I-0.0514 J-0.0224
X1.6109 Y7.0224 Z-0.1347 I0.0514 J0.0224
X1.5081 Y6.9776 Z-0.1377 I-0.0514 J-0.0224
X1.6109 Y7.0224 Z-0.1408 I0.0514 J0.0224
X1.5081 Y6.9776 Z-0.1439 I-0.0514 J-0.0224
X1.6109 Y7.0224 Z-0.147 I0.0514 J0.0224
X1.5081 Y6.9776 Z-0.15 I-0.0514 J-0.0224
X1.6109 Y7.0224 Z-0.1531 I0.0514 J0.0224
X1.5081 Y6.9776 Z-0.1562 I-0.0514 J-0.0224
X1.6109 Y7.0224 Z-0.1593 I0.0514 J0.0224
X1.5081 Y6.9776 Z-0.1623 I-0.0514 J-0.0224
X1.6155 Y7. Z-0.165 I0.0514 J0.0224
X1.5034 I-0.0561 J0.
X1.6155 I0.0561 J0.
G1 X1.6167 Y7.0247 F30.
Y7.0278
X1.6161 Y7.0338
X1.6144 Y7.0395
X1.6119 Y7.045
X1.6087 Y7.0501
X1.6049 Y7.0547
X1.6006 Y7.0589
X1.5959 Y7.0626
X1.5909 Y7.0658
X1.5855 Y7.0686
X1.5799 Y7.0708
X1.5742 Y7.0725
X1.5683 Y7.0737
X1.5623 Y7.0744
X1.5563 Y7.0745
X1.5504 Y7.0742
X1.5444 Y7.0733
X1.5386 Y7.072
X1.5329 Y7.0701
X1.5273 Y7.0678
X1.522 Y7.0651
X1.5169 Y7.0619
X1.512 Y7.0584
X1.5075 Y7.0544
X1.5033 Y7.0501
X1.4995 Y7.0455
X1.496 Y7.0406
X1.493 Y7.0355
X1.4904 Y7.0301
X1.4882 Y7.0245
X1.4865 Y7.0187
X1.4852 Y7.0129
X1.4844 Y7.0069
X1.4841 Y7.0009
X1.4842 Y6.9949
X1.4849 Y6.989
X1.486 Y6.9831
X1.4876 Y6.9773
X1.4896 Y6.9716
X1.4921 Y6.9662
X1.495 Y6.9609
X1.4983 Y6.9559
X1.502 Y6.9512
X1.5061 Y6.9468
X1.5105 Y6.9427
X1.5152 Y6.939
X1.5202 Y6.9356
X1.5254 Y6.9327
X1.5309 Y6.9302
X1.5365 Y6.9282
X1.5423 Y6.9266
X1.5482 Y6.9254
X1.5541 Y6.9248
X1.5601 Y6.9246
X1.5661 Y6.9249
X1.5721 Y6.9256
X1.5779 Y6.9269
X1.5837 Y6.9286
X1.5893 Y6.9307
X1.5947 Y6.9333
X1.5999 Y6.9363
X1.6048 Y6.9397
X1.6095 Y6.9435
X1.6138 Y6.9477
X1.6178 Y6.9521
X1.6214 Y6.9569
X1.6247 Y6.962
X1.6275 Y6.9673
X1.63 Y6.9729
X1.6327 Y6.9801
X1.6351 Y6.988
X1.6368 Y6.9946
X1.6379 Y7.0009
X1.6387 Y7.0068
X1.6391 Y7.0128
Y7.0188
X1.6387 Y7.0248
X1.6378 Y7.0307
X1.6364 Y7.0366
X1.6346 Y7.0423
X1.6324 Y7.0478
X1.6297 Y7.0532
X1.6266 Y7.0583
X1.6231 Y7.0632
X1.6192 Y7.0678
X1.615 Y7.0721
X1.6105 Y7.076
X1.6057 Y7.0796
X1.6007 Y7.0829
X1.5954 Y7.0858
X1.5899 Y7.0882
X1.5843 Y7.0903
X1.5785 Y7.092
X1.5727 Y7.0933
X1.5668 Y7.0942
X1.5608 Y7.0947
X1.5548 Y7.0948
X1.5488 Y7.0945
X1.5428 Y7.0938
X1.5369 Y7.0927
X1.5311 Y7.0912
X1.5254 Y7.0893
X1.5198 Y7.0871
X1.5144 Y7.0845
X1.5092 Y7.0816
X1.5041 Y7.0784
X1.4993 Y7.0748
X1.4947 Y7.0709
X1.4904 Y7.0668
X1.4863 Y7.0624
X1.4826 Y7.0577
X1.4791 Y7.0528
X1.4759 Y7.0477
X1.4731 Y7.0424
X1.4706 Y7.037
X1.4684 Y7.0314
X1.4666 Y7.0256
X1.4652 Y7.0198
X1.4642 Y7.0139
X1.4635 Y7.0079
X1.4631 Y7.002
X1.4632 Y6.996
X1.4636 Y6.99
X1.4644 Y6.984
X1.4656 Y6.9781
X1.4671 Y6.9723
X1.469 Y6.9666
X1.4713 Y6.9611
X1.4739 Y6.9557
X1.4768 Y6.9504
X1.48 Y6.9454
X1.4836 Y6.9405
X1.4874 Y6.9359
X1.4915 Y6.9316
X1.4959 Y6.9275
X1.5006 Y6.9237
X1.5054 Y6.9202
X1.5105 Y6.9169
X1.5158 Y6.9141
X1.5212 Y6.9115
X1.5268 Y6.9093
X1.5325 Y6.9074
X1.5383 Y6.9059
X1.5442 Y6.9048
X1.5501 Y6.904
X1.5561 Y6.9036
X1.5621
X1.5681 Y6.9039
X1.574 Y6.9047
X1.5799 Y6.9058
X1.5858 Y6.9072
X1.5915 Y6.909
X1.5971 Y6.9112
X1.6025 Y6.9137
X1.6078 Y6.9165
X1.6129 Y6.9197
X1.6178 Y6.9232
X1.6225 Y6.927
X1.6269 Y6.931
X1.6311 Y6.9353
X1.6351 Y6.94
X1.6391 Y6.9453
X1.6428 Y6.9509
X1.6463 Y6.9568
X1.6496 Y6.9631
X1.6524 Y6.9694
X1.6549 Y6.9759
X1.657 Y6.9824
X1.6586 Y6.9889
X1.6599 Y6.9953
X1.6608 Y7.0016
X1.6612 Y7.0077
X1.6614 Y7.0138
X1.6612 Y7.0199
X1.6606 Y7.0259
X1.6597 Y7.0318
X1.6585 Y7.0377
X1.6569 Y7.0435
X1.655 Y7.0492
X1.6528 Y7.0547
X1.6502 Y7.0602
X1.6473 Y7.0654
X1.6441 Y7.0705
X1.6406 Y7.0754
X1.6368 Y7.08
X1.6328 Y7.0845
X1.6285 Y7.0887
X1.624 Y7.0926
X1.6192 Y7.0963
X1.6143 Y7.0996
X1.6091 Y7.1027
X1.6038 Y7.1056
X1.5982 Y7.1081
X1.5924 Y7.1103
X1.5866 Y7.1122
X1.5807 Y7.1138
X1.5746 Y7.115
X1.5684 Y7.1159
X1.5621 Y7.1164
X1.5558 Y7.1166
X1.5494 Y7.1164
X1.543 Y7.1159
X1.5367 Y7.115
X1.5305 Y7.1137
X1.5242 Y7.1121
X1.518 Y7.1101
X1.5119 Y7.1077
X1.506 Y7.105
X1.5001 Y7.1019
X1.4945 Y7.0986
X1.4891 Y7.0949
X1.4839 Y7.0909
X1.4789 Y7.0866
X1.4741 Y7.082
X1.4696 Y7.0771
X1.4654 Y7.0719
X1.4614 Y7.0665
X1.4578 Y7.0608
X1.4545 Y7.055
X1.4515 Y7.049
X1.4489 Y7.0429
X1.4466 Y7.0366
X1.4447 Y7.0302
X1.4432 Y7.0237
X1.442 Y7.0171
X1.4412 Y7.0104
X1.4408 Y7.0036
Y6.9969
X1.4411 Y6.9901
X1.4419 Y6.9834
X1.443 Y6.9767
X1.4445 Y6.9701
X1.4464 Y6.9637
X1.4486 Y6.9574
X1.4512 Y6.9512
X1.4541 Y6.9451
X1.4574 Y6.9392
X1.4611 Y6.9334
X1.465 Y6.9279
X1.4693 Y6.9227
X1.4738 Y6.9176
X1.4787 Y6.9129
X1.4838 Y6.9084
X1.4891 Y6.9043
X1.4946 Y6.9004
X1.5003 Y6.8969
X1.5063 Y6.8937
X1.5124 Y6.8909
X1.5187 Y6.8884
X1.5252 Y6.8862
X1.5317 Y6.8844
X1.5384 Y6.883
X1.5451 Y6.882
X1.5519 Y6.8814
X1.5586 Y6.8811
X1.5653 Y6.8813
X1.5721 Y6.8818
X1.5787 Y6.8827
X1.5854 Y6.884
X1.5919 Y6.8856
X1.5984 Y6.8877
X1.6048 Y6.8901
X1.611 Y6.8929
X1.617 Y6.896
X1.6229 Y6.8995
X1.6287 Y6.9034
X1.6344 Y6.9077
X1.6399 Y6.9123
X1.6452 Y6.9174
X1.6504 Y6.9229
X1.6553 Y6.9288
X1.66 Y6.935
X1.6643 Y6.9416
X1.6682 Y6.9484
X1.6717 Y6.9554
X1.6749 Y6.9626
X1.6776 Y6.9699
X1.6798 Y6.9773
X1.6816 Y6.9847
X1.683 Y6.9922
X1.684 Y6.9996
X1.6845 Y7.0071
X1.6846 Y7.0145
X1.6842 Y7.0218
X1.6835 Y7.0291
X1.6824 Y7.0362
X1.6808 Y7.0433
X1.6789 Y7.0502
X1.6765 Y7.057
X1.6738 Y7.0637
X1.6708 Y7.0701
X1.6673 Y7.0764
X1.6635 Y7.0825
X1.6594 Y7.0883
X1.6549 Y7.094
X1.6501 Y7.0993
X1.645 Y7.1044
X1.6396 Y7.1093
X1.6339 Y7.1138
X1.6279 Y7.118
X1.6217 Y7.1219
X1.6152 Y7.1254
X1.6086 Y7.1286
X1.6017 Y7.1314
X1.5946 Y7.1338
X1.5874 Y7.1358
X1.58 Y7.1374
X1.5725 Y7.1386
X1.565 Y7.1394
X1.5574 Y7.1397
X1.5497 Y7.1396
X1.5421 Y7.1391
X1.5344 Y7.1381
X1.5268 Y7.1367
X1.5192 Y7.1349
X1.5118 Y7.1326
X1.5045 Y7.1299
X1.4973 Y7.1267
X1.4903 Y7.1232
X1.4835 Y7.1193
X1.4769 Y7.1149
X1.4706 Y7.1102
X1.4645 Y7.1051
X1.4587 Y7.0997
X1.4532 Y7.0939
X1.448 Y7.0878
X1.4432 Y7.0814
X1.4388 Y7.0748
X1.4347 Y7.0679
X1.431 Y7.0608
X1.4278 Y7.0535
X1.4249 Y7.046
X1.4225 Y7.0383
X1.4205 Y7.0305
X1.419 Y7.0225
X1.4179 Y7.0145
X1.4173 Y7.0065
X1.4172 Y6.9984
X1.4175 Y6.9904
X1.4182 Y6.9823
X1.4194 Y6.9743
X1.4211 Y6.9664
X1.4232 Y6.9586
X1.4258 Y6.9509
X1.4288 Y6.9434
X1.4322 Y6.9361
X1.436 Y6.9289
X1.4403 Y6.922
X1.4449 Y6.9153
X1.4499 Y6.909
X1.4552 Y6.9029
X1.4609 Y6.8971
X1.4669 Y6.8917
X1.4732 Y6.8866
X1.4798 Y6.8819
X1.4867 Y6.8775
X1.4938 Y6.8736
X1.5011 Y6.87
X1.5086 Y6.8669
X1.5163 Y6.8642
X1.5241 Y6.862
X1.532 Y6.8602
X1.54 Y6.8588
X1.548 Y6.858
X1.5561 Y6.8575
X1.5642 Y6.8576
X1.5723 Y6.8581
X1.5804 Y6.859
X1.5884 Y6.8605
X1.5963 Y6.8623
X1.6041 Y6.8647
X1.6118 Y6.8674
X1.6194 Y6.8707
X1.6268 Y6.8744
X1.6341 Y6.8785
X1.6412 Y6.8831
X1.6482 Y6.8882
X1.6549 Y6.8937
X1.6613 Y6.8997
X1.6675 Y6.906
X1.6733 Y6.9128
X1.6788 Y6.92
X1.6839 Y6.9274
X1.6885 Y6.9352
X1.6927 Y6.9432
X1.6965 Y6.9514
X1.6997 Y6.9598
X1.7025 Y6.9683
X1.7047 Y6.977
X1.7065 Y6.9857
X1.7077 Y6.9945
X1.7085 Y7.0032
X1.7087 Y7.012
X1.7085 Y7.0207
X1.7077 Y7.0294
X1.7065 Y7.038
X1.7048 Y7.0464
X1.7026 Y7.0548
X1.6999 Y7.0629
X1.6968 Y7.0709
X1.6932 Y7.0788
X1.6892 Y7.0863
X1.6848 Y7.0937
X1.68 Y7.1008
X1.6747 Y7.1076
X1.6691 Y7.1141
X1.6631 Y7.1203
X1.6567 Y7.1262
X1.65 Y7.1317
X1.643 Y7.1368
X1.6357 Y7.1415
X1.628 Y7.1458
X1.6202 Y7.1497
X1.6121 Y7.1532
X1.6037 Y7.1562
X1.5952 Y7.1587
X1.5866 Y7.1607
X1.5778 Y7.1623
X1.5689 Y7.1633
X1.5599 Y7.1638
X1.5509 Y7.1639
X1.5418 Y7.1634
X1.5328 Y7.1624
X1.5238 Y7.1609
X1.5149 Y7.1588
X1.5062 Y7.1563
X1.4975 Y7.1532
X1.489 Y7.1497
X1.4807 Y7.1457
X1.4726 Y7.1411
X1.4648 Y7.1362
X1.4573 Y7.1307
X1.4501 Y7.1249
X1.4432 Y7.1186
X1.4366 Y7.112
X1.4305 Y7.1049
X1.4247 Y7.0976
X1.4194 Y7.0899
X1.4145 Y7.0818
X1.4101 Y7.0736
X1.4061 Y7.065
X1.4026 Y7.0563
X1.3997 Y7.0473
X1.3972 Y7.0382
X1.3953 Y7.029
X1.3939 Y7.0196
X1.393 Y7.0102
X1.3926 Y7.0008
X1.3928 Y6.9913
X1.3936 Y6.9819
X1.3949 Y6.9725
X1.3967 Y6.9632
X1.399 Y6.954
X1.4019 Y6.9449
X1.4053 Y6.9361
X1.4091 Y6.9274
X1.4135 Y6.919
X1.4183 Y6.9108
X1.4236 Y6.9029
X1.4294 Y6.8953
X1.4355 Y6.8881
X1.4421 Y6.8812
X1.449 Y6.8747
X1.4563 Y6.8686
X1.464 Y6.863
X1.4719 Y6.8578
X1.4802 Y6.853
X1.4886 Y6.8487
X1.4974 Y6.8449
X1.5063 Y6.8416
X1.5154 Y6.8389
X1.5246 Y6.8366
X1.534 Y6.8349
X1.5434 Y6.8337
X1.5529 Y6.8331
X1.5624 Y6.833
X1.5719 Y6.8334
X1.5814 Y6.8344
X1.5909 Y6.8359
X1.6002 Y6.838
X1.6095 Y6.8406
X1.6186 Y6.8437
X1.6276 Y6.8474
X1.6365 Y6.8516
X1.6452 Y6.8564
X1.6536 Y6.8616
X1.6618 Y6.8674
X1.6697 Y6.8737
X1.6773 Y6.8805
X1.6845 Y6.8877
X1.6913 Y6.8954
X1.6977 Y6.9035
X1.7036 Y6.9119
X1.7091 Y6.9207
X1.7141 Y6.9298
X1.7185 Y6.9392
X1.7224 Y6.9488
X1.7257 Y6.9585
X1.7285 Y6.9684
X1.7307 Y6.9785
X1.7323 Y6.9886
X1.7333 Y6.9988
X1.7337 Y7.0089
X1.7336 Y7.0191
X1.7329 Y7.0292
X1.7316 Y7.0392
X1.7297 Y7.0491
X1.7273 Y7.0589
X1.7244 Y7.0685
X1.7209 Y7.0779
X1.7169 Y7.0871
X1.7123 Y7.0961
X1.7073 Y7.1047
X1.7017 Y7.1131
X1.6957 Y7.1212
X1.6893 Y7.1289
X1.6824 Y7.1362
X1.675 Y7.1432
X1.6673 Y7.1497
X1.6592 Y7.1558
X1.6508 Y7.1615
X1.642 Y7.1666
X1.6329 Y7.1713
X1.6236 Y7.1755
X1.614 Y7.1791
X1.6041 Y7.1822
X1.5941 Y7.1847
X1.584 Y7.1866
X1.5737 Y7.188
X1.5633 Y7.1888
X1.5529 Y7.189
X1.5424 Y7.1886
X1.532 Y7.1876
X1.5216 Y7.186
X1.5112 Y7.1838
X1.501 Y7.181
X1.491 Y7.1777
X1.4811 Y7.1737
X1.4715 Y7.1692
X1.4621 Y7.1642
X1.453 Y7.1586
X1.4442 Y7.1525
X1.4358 Y7.1459
X1.4277 Y7.1388
X1.4201 Y7.1312
X1.4128 Y7.1232
X1.4061 Y7.1148
X1.3998 Y7.106
X1.394 Y7.0969
X1.3888 Y7.0874
X1.384 Y7.0777
X1.3799 Y7.0676
X1.3763 Y7.0574
X1.3733 Y7.0469
X1.3709 Y7.0363
X1.3691 Y7.0256
X1.3679 Y7.0148
X1.3674 Y7.0039
Y6.993
X1.3681 Y6.9821
X1.3694 Y6.9713
X1.3714 Y6.9605
X1.3739 Y6.9499
X1.377 Y6.9394
X1.3807 Y6.9292
X1.385 Y6.9191
X1.3899 Y6.9093
X1.3953 Y6.8998
X1.4013 Y6.8907
X1.4077 Y6.8818
X1.4147 Y6.8734
X1.4221 Y6.8654
X1.43 Y6.8578
X1.4383 Y6.8506
X1.447 Y6.844
X1.4561 Y6.8378
X1.4655 Y6.8322
X1.4752 Y6.8271
X1.4851 Y6.8226
X1.4954 Y6.8186
X1.5058 Y6.8153
X1.5164 Y6.8125
X1.5271 Y6.8104
X1.538 Y6.8088
X1.5489 Y6.8079
X1.5599 Y6.8076
X1.5709 Y6.8079
X1.5818 Y6.8089
X1.5927 Y6.8105
X1.6036 Y6.8127
X1.6143 Y6.8155
X1.6249 Y6.819
X1.6354 Y6.8231
X1.6456 Y6.8278
X1.6557 Y6.8331
X1.6654 Y6.839
X1.6749 Y6.8454
X1.684 Y6.8525
X1.6928 Y6.8601
X1.7011 Y6.8682
X1.709 Y6.8768
X1.7164 Y6.8858
X1.7233 Y6.8953
X1.7297 Y6.9052
X1.7355 Y6.9154
X1.7407 Y6.926
X1.7453 Y6.9368
X1.7492 Y6.9478
X1.7525 Y6.9591
X1.7552 Y6.9705
X1.7572 Y6.982
X1.7586 Y6.9936
X1.7593 Y7.0052
Y7.0168
X1.7587 Y7.0284
X1.7574 Y7.0399
X1.7554 Y7.0513
X1.7528 Y7.0625
X1.7496 Y7.0736
X1.7458 Y7.0845
X1.7413 Y7.0951
X1.7363 Y7.1054
X1.7307 Y7.1155
X1.7245 Y7.1252
X1.7177 Y7.1345
X1.7105 Y7.1435
X1.7027 Y7.152
X1.6944 Y7.1601
X1.6857 Y7.1678
X1.6765 Y7.1749
X1.667 Y7.1815
X1.657 Y7.1876
X1.6467 Y7.1931
X1.6361 Y7.198
X1.6252 Y7.2023
X1.614 Y7.206
X1.6027 Y7.209
X1.5911 Y7.2114
X1.5794 Y7.2132
X1.5676 Y7.2143
X1.5557 Y7.2147
X1.5438 Y7.2144
X1.5319 Y7.2135
X1.52 Y7.2118
X1.5082 Y7.2095
X1.4966 Y7.2066
X1.4851 Y7.2029
X1.4738 Y7.1986
X1.4628 Y7.1937
X1.452 Y7.1881
X1.4416 Y7.1819
X1.4315 Y7.1751
X1.4218 Y7.1677
X1.4125 Y7.1598
X1.4037 Y7.1514
X1.3953 Y7.1424
X1.3875 Y7.133
X1.3802 Y7.1232
X1.3735 Y7.1129
X1.3673 Y7.1022
X1.3618 Y7.0913
X1.3569 Y7.08
X1.3527 Y7.0684
X1.3491 Y7.0566
X1.3462 Y7.0446
X1.344 Y7.0324
X1.3424 Y7.0202
X1.3416 Y7.0079
X1.3415 Y6.9955
X1.3421 Y6.9831
X1.3433 Y6.9708
X1.3453 Y6.9586
X1.348 Y6.9465
X1.3514 Y6.9345
X1.3554 Y6.9228
X1.3601 Y6.9113
X1.3655 Y6.9001
X1.3714 Y6.8893
X1.378 Y6.8788
X1.3852 Y6.8686
X1.393 Y6.8589
X1.4013 Y6.8497
X1.4101 Y6.8409
X1.4193 Y6.8327
X1.4291 Y6.825
X1.4393 Y6.8178
X1.4498 Y6.8113
X1.4607 Y6.8053
X1.472 Y6.8
X1.4835 Y6.7954
X1.4953 Y6.7914
X1.5073 Y6.788
X1.5194 Y6.7854
X1.5317 Y6.7835
X1.5441 Y6.7822
X1.5565 Y6.7817
X1.569 Y6.7819
X1.5815 Y6.7828
X1.5939 Y6.7844
X1.6063 Y6.7867
X1.6185 Y6.7897
X1.6306 Y6.7935
X1.6426 Y6.7979
X1.6543 Y6.803
X1.6657 Y6.8089
X1.6768 Y6.8153
X1.6876 Y6.8225
X1.698 Y6.8303
X1.708 Y6.8386
X1.7176 Y6.8476
X1.7266 Y6.8571
X1.7351 Y6.8672
X1.743 Y6.8777
X1.7503 Y6.8887
X1.757 Y6.9001
X1.763 Y6.9118
X1.7684 Y6.9239
X1.773 Y6.9362
X1.7769 Y6.9488
X1.7801 Y6.9616
X1.7826 Y6.9745
X1.7843 Y6.9876
X1.7853 Y7.0006
X1.7856 Y7.0138
X1.785 Y7.0268
X1.7838 Y7.0398
X1.7818 Y7.0528
X1.7791 Y7.0655
X1.7756 Y7.0781
X1.7715 Y7.0904
X1.7666 Y7.1025
X1.7611 Y7.1143
X1.7549 Y7.1258
X1.7481 Y7.1369
X1.7406 Y7.1476
X1.7326 Y7.1578
X1.724 Y7.1676
X1.7148 Y7.1769
X1.705 Y7.1857
X1.6948 Y7.1939
X1.6842 Y7.2015
X1.673 Y7.2085
X1.6615 Y7.2149
X1.6496 Y7.2207
X1.6374 Y7.2257
X1.6249 Y7.2301
X1.6121 Y7.2337
X1.5992 Y7.2366
X1.586 Y7.2388
X1.5727 Y7.2402
X1.5594 Y7.2409
X1.546 Y7.2408
X1.5326 Y7.24
X1.5192 Y7.2383
X1.5059 Y7.236
X1.4928 Y7.2328
X1.4798 Y7.2289
X1.467 Y7.2243
X1.4546 Y7.2189
X1.4424 Y7.2129
X1.4305 Y7.2061
X1.4191 Y7.1987
X1.4081 Y7.1906
X1.3975 Y7.1818
X1.3875 Y7.1725
X1.378 Y7.1626
X1.369 Y7.1522
X1.3606 Y7.1413
X1.3529 Y7.1299
X1.3458 Y7.118
X1.3395 Y7.1058
X1.3338 Y7.0932
X1.3288 Y7.0803
X1.3246 Y7.0672
X1.3211 Y7.0538
X1.3184 Y7.0402
X1.3165 Y7.0265
X1.3153 Y7.0126
X1.315 Y6.9988
X1.3154 Y6.9849
X1.3166 Y6.9711
X1.3186 Y6.9573
X1.3214 Y6.9437
X1.325 Y6.9303
X1.3293 Y6.9171
X1.3344 Y6.9041
X1.3402 Y6.8915
X1.3467 Y6.8792
X1.3539 Y6.8672
X1.3618 Y6.8558
X1.3703 Y6.8447
X1.3794 Y6.8342
X1.3891 Y6.8242
X1.3994 Y6.8148
X1.4102 Y6.806
X1.4215 Y6.7978
X1.4332 Y6.7903
X1.4453 Y6.7834
X1.4578 Y6.7773
X1.4707 Y6.7719
X1.4838 Y6.7672
X1.4972 Y6.7632
X1.5108 Y6.7601
X1.5245 Y6.7577
X1.5384 Y6.7561
X1.5524 Y6.7553
X1.5664 Y6.7552
X1.5804 Y6.756
X1.5944 Y6.7576
X1.6083 Y6.76
X1.6221 Y6.7632
X1.6357 Y6.7671
X1.6491 Y6.7719
X1.6623 Y6.7774
X1.6752 Y6.7837
X1.6877 Y6.7908
X1.6999 Y6.7985
X1.7116 Y6.807
X1.7229 Y6.8162
X1.7337 Y6.826
X1.7439 Y6.8365
X1.7535 Y6.8475
X1.7625 Y6.8591
X1.7708 Y6.8712
X1.7785 Y6.8837
X1.7854 Y6.8967
X1.7915 Y6.91
X1.7969 Y6.9237
X1.8015 Y6.9377
X1.8053 Y6.9519
X1.8083 Y6.9662
X1.8105 Y6.9807
X1.8118 Y6.9953
X1.8123 Y7.0099
X1.8119 Y7.0246
X1.8108 Y7.0391
X1.8088 Y7.0536
X1.806 Y7.0679
X1.8023 Y7.082
X1.7979 Y7.0958
X1.7927 Y7.1094
X1.7868 Y7.1227
X1.78 Y7.1356
X1.7726 Y7.1481
X1.7645 Y7.1602
X1.7556 Y7.1718
X1.7462 Y7.1829
X1.7361 Y7.1935
X1.7254 Y7.2034
X1.7141 Y7.2128
X1.7023 Y7.2215
X1.6901 Y7.2295
X1.6773 Y7.2368
X1.6642 Y7.2434
X1.6506 Y7.2492
X1.6368 Y7.2543
X1.6226 Y7.2586
X1.6082 Y7.2621
X1.5936 Y7.2647
X1.5788 Y7.2666
X1.564 Y7.2675
X1.549 Y7.2677
X1.5341 Y7.267
X1.5192 Y7.2654
X1.5044 Y7.263
X1.4897 Y7.2597
X1.4752 Y7.2556
X1.461 Y7.2507
X1.447 Y7.2449
X1.4334 Y7.2384
X1.4201 Y7.2311
X1.4072 Y7.223
X1.3949 Y7.2142
X1.383 Y7.2047
X1.3717 Y7.1946
X1.3609 Y7.1837
X1.3508 Y7.1723
X1.3413 Y7.1603
X1.3325 Y7.1478
X1.3245 Y7.1348
X1.3172 Y7.1213
X1.3106 Y7.1074
X1.3049 Y7.0932
X1.3 Y7.0787
X1.2959 Y7.0639
X1.2926 Y7.0488
X1.2903 Y7.0336
X1.2887 Y7.0183
X1.2881 Y7.0029
X1.2883 Y6.9875
X1.2895 Y6.9721
X1.2915 Y6.9569
X1.2943 Y6.9417
X1.298 Y6.9267
X1.3026 Y6.912
X1.308 Y6.8975
X1.3142 Y6.8834
X1.3212 Y6.8696
X1.329 Y6.8563
X1.3376 Y6.8434
X1.3468 Y6.831
X1.3568 Y6.8192
X1.3674 Y6.8079
X1.3786 Y6.7973
X1.3904 Y6.7873
X1.4028 Y6.7781
X1.4157 Y6.7695
X1.429 Y6.7617
X1.4428 Y6.7546
X1.457 Y6.7484
X1.4714 Y6.743
X1.4862 Y6.7384
X1.5013 Y6.7346
X1.5165 Y6.7317
X1.5319 Y6.7297
X1.5473 Y6.7285
X1.5629 Y6.7283
X1.5785 Y6.7289
X1.594 Y6.7304
X1.6095 Y6.7328
X1.6248 Y6.7361
X1.64 Y6.7403
X1.6549 Y6.7453
X1.6696 Y6.7512
X1.6839 Y6.7579
X1.6979 Y6.7655
X1.7115 Y6.7739
X1.7246 Y6.783
X1.7373 Y6.793
X1.7493 Y6.8036
X1.7608 Y6.815
X1.7716 Y6.827
X1.7817 Y6.8396
X1.7911 Y6.8528
X1.7997 Y6.8665
X1.8076 Y6.8807
X1.8146 Y6.8953
X1.8208 Y6.9103
X1.8261 Y6.9257
X1.8306 Y6.9413
X1.8341 Y6.9571
X1.8367 Y6.9731
X1.8385 Y6.9891
X1.8393 Y7.0053
X1.8391 Y7.0215
X1.8381 Y7.0376
X1.8361 Y7.0536
X1.8333 Y7.0694
X1.8295 Y7.0851
X1.8249 Y7.1005
X1.8194 Y7.1157
X1.813 Y7.1305
X1.8058 Y7.1449
X1.7978 Y7.1588
X1.789 Y7.1723
X1.7794 Y7.1853
X1.7691 Y7.1977
X1.7582 Y7.2096
X1.7465 Y7.2208
X1.7342 Y7.2313
X1.7214 Y7.2411
X1.7079 Y7.2502
X1.694 Y7.2585
X1.6796 Y7.266
X1.6647 Y7.2727
X1.6495 Y7.2786
X1.634 Y7.2835
X1.6181 Y7.2876
X1.6021 Y7.2908
X1.5858 Y7.2931
X1.5694 Y7.2944
X1.553 Y7.2948
X1.5365 Y7.2943
X1.52 Y7.2928
X1.5037 Y7.2904
X1.4874 Y7.2871
X1.4714 Y7.2828
X1.4556 Y7.2776
X1.4401 Y7.2715
X1.425 Y7.2646
X1.4102 Y7.2568
X1.396 Y7.2481
X1.3822 Y7.2386
X1.3689 Y7.2284
X1.3563 Y7.2174
X1.3443 Y7.2056
X1.3329 Y7.1932
X1.3223 Y7.1802
X1.3124 Y7.1666
X1.3033 Y7.1524
X1.295 Y7.1377
X1.2876 Y7.1225
X1.281 Y7.107
X1.2754 Y7.0911
X1.2706 Y7.0748
X1.2668 Y7.0584
X1.2639 Y7.0417
X1.262 Y7.0248
X1.261 Y7.0079
Y6.991
X1.262 Y6.974
X1.2639 Y6.9572
X1.2668 Y6.9405
X1.2706 Y6.9239
X1.2754 Y6.9076
X1.2811 Y6.8916
X1.2877 Y6.876
X1.2951 Y6.8607
X1.3035 Y6.8459
X1.3126 Y6.8316
X1.3226 Y6.8178
X1.3334 Y6.8046
X1.3448 Y6.7921
X1.357 Y6.7802
X1.3698 Y6.769
X1.3833 Y6.7586
X1.3973 Y6.7489
X1.4118 Y6.7401
X1.4269 Y6.7321
X1.4423 Y6.725
X1.4582 Y6.7188
X1.4744 Y6.7134
X1.4908 Y6.7091
X1.5075 Y6.7056
X1.5244 Y6.7031
X1.5415 Y6.7016
X1.5586 Y6.701
X1.5757 Y6.7014
X1.5928 Y6.7028
X1.6098 Y6.7052
X1.6267 Y6.7086
X1.6435 Y6.7129
X1.66 Y6.7181
X1.6762 Y6.7244
X1.6921 Y6.7315
X1.7076 Y6.7396
X1.7226 Y6.7485
X1.7371 Y6.7583
X1.7511 Y6.769
X1.7645 Y6.7805
X1.7773 Y6.7927
X1.7893 Y6.8057
X1.8006 Y6.8193
X1.8111 Y6.8336
X1.8208 Y6.8484
X1.8297 Y6.8639
X1.8376 Y6.8797
X1.8446 Y6.8961
X1.8507 Y6.9128
X1.8559 Y6.9298
X1.86 Y6.947
X1.8632 Y6.9645
X1.8653 Y6.9821
X1.8665 Y6.9998
X1.8666 Y7.0175
X1.8658 Y7.0352
X1.8639 Y7.0528
X1.861 Y7.0702
X1.8572 Y7.0875
X1.8523 Y7.1045
X1.8466 Y7.1212
X1.8398 Y7.1375
X1.8322 Y7.1535
X1.8236 Y7.1689
X1.8142 Y7.1839
X1.804 Y7.1983
X1.7929 Y7.2121
X1.7811 Y7.2253
X1.7685 Y7.2377
X1.7552 Y7.2495
X1.7412 Y7.2605
X1.7267 Y7.2707
X1.7115 Y7.28
X1.6959 Y7.2885
X1.6797 Y7.2961
X1.6632 Y7.3027
X1.6462 Y7.3085
X1.6289 Y7.3132
X1.6114 Y7.317
X1.5937 Y7.3197
X1.5758 Y7.3215
X1.5577 Y7.3222
X1.5397 Y7.3219
X1.5217 Y7.3206
X1.5037 Y7.3182
X1.4859 Y7.3149
X1.4683 Y7.3105
X1.451 Y7.3051
X1.4339 Y7.2987
X1.4173 Y7.2914
X1.401 Y7.2831
X1.3852 Y7.2738
X1.37 Y7.2637
X1.3554 Y7.2527
X1.3413 Y7.2409
X1.328 Y7.2283
X1.3154 Y7.215
X1.3036 Y7.2009
X1.2925 Y7.1862
X1.2824 Y7.1709
X1.2731 Y7.1549
X1.2647 Y7.1385
X1.2573 Y7.1216
X1.2508 Y7.1043
X1.2453 Y7.0867
X1.2409 Y7.0688
X1.2374 Y7.0506
X1.235 Y7.0323
X1.2337 Y7.0138
X1.2334 Y6.9953
X1.2341 Y6.9768
X1.236 Y6.9583
X1.2388 Y6.94
X1.2427 Y6.9219
X1.2476 Y6.904
X1.2536 Y6.8864
X1.2605 Y6.8692
X1.2684 Y6.8524
X1.2773 Y6.8361
X1.287 Y6.8203
X1.2977 Y6.8051
X1.3092 Y6.7905
X1.3215 Y6.7766
X1.3346 Y6.7634
X1.3484 Y6.751
X1.3629 Y6.7394
X1.3781 Y6.7286
X1.3938 Y6.7187
X1.4101 Y6.7097
X1.4268 Y6.7017
X1.444 Y6.6946
X1.4616 Y6.6885
X1.4795 Y6.6835
X1.4977 Y6.6794
X1.5161 Y6.6764
X1.5347 Y6.6744
X1.5534 Y6.6735
X1.5721 Y6.6737
X1.5908 Y6.6749
X1.6094 Y6.6772
X1.6279 Y6.6806
X1.6462 Y6.685
X1.6643 Y6.6904
X1.6821 Y6.6969
X1.6995 Y6.7045
X1.7165 Y6.713
X1.7331 Y6.7225
X1.7491 Y6.7329
X1.7645 Y6.7443
X1.7792 Y6.7565
X1.7933 Y6.7696
X1.8066 Y6.7835
X1.8192 Y6.7982
X1.8309 Y6.8135
X1.8417 Y6.8295
X1.8515 Y6.8461
X1.8604 Y6.8633
X1.8684 Y6.8809
X1.8753 Y6.899
X1.8812 Y6.9174
X1.886 Y6.9361
X1.8897 Y6.9551
X1.8924 Y6.9742
X1.8939 Y6.9934
X1.8944 Y7.0127
X1.8938 Y7.032
X1.892 Y7.0512
X1.8892 Y7.0703
X1.8853 Y7.0891
X1.8803 Y7.1077
X1.8743 Y7.126
X1.8672 Y7.1439
X1.8592 Y7.1614
X1.8501 Y7.1784
X1.8401 Y7.1949
X1.8292 Y7.2107
X1.8174 Y7.226
X1.8047 Y7.2405
X1.7912 Y7.2543
X1.777 Y7.2673
X1.762 Y7.2795
X1.7463 Y7.2909
X1.73 Y7.3013
X1.7131 Y7.3108
X1.6956 Y7.3193
X1.6777 Y7.3269
X1.6594 Y7.3334
X1.6407 Y7.3389
X1.6217 Y7.3433
X1.6024 Y7.3466
X1.583 Y7.3488
X1.5634 Y7.3499
X1.5438
X1.5242 Y7.3487
X1.5046 Y7.3465
X1.4852 Y7.3431
X1.466 Y7.3386
X1.4471 Y7.3331
X1.4284 Y7.3264
X1.4102 Y7.3187
X1.3924 Y7.31
X1.3751 Y7.3003
X1.3584 Y7.2895
X1.3423 Y7.2779
X1.3269 Y7.2653
X1.3122 Y7.2518
X1.2983 Y7.2375
X1.2852 Y7.2225
X1.273 Y7.2067
X1.2617 Y7.1902
X1.2513 Y7.1731
X1.2419 Y7.1554
X1.2336 Y7.1372
X1.2262 Y7.1185
X1.22 Y7.0995
X1.2149 Y7.0801
X1.2108 Y7.0604
X1.2079 Y7.0406
X1.2061 Y7.0205
X1.2055 Y7.0004
X1.206 Y6.9803
X1.2076 Y6.9603
X1.2104 Y6.9404
X1.2144 Y6.9206
X1.2194 Y6.9011
X1.2256 Y6.882
X1.2328 Y6.8632
X1.2411 Y6.8448
X1.2504 Y6.8269
X1.2607 Y6.8096
X1.272 Y6.7929
X1.2843 Y6.7769
X1.2974 Y6.7616
X1.3114 Y6.7471
X1.3262 Y6.7334
X1.3417 Y6.7205
X1.358 Y6.7086
X1.3749 Y6.6976
X1.3924 Y6.6875
X1.4104 Y6.6785
X1.429 Y6.6705
X1.448 Y6.6636
X1.4673 Y6.6578
X1.487 Y6.6531
X1.5069 Y6.6495
X1.527 Y6.6471
X1.5473 Y6.6458
X1.5676 Y6.6456
X1.5879 Y6.6466
X1.6081 Y6.6488
X1.6283 Y6.6521
X1.6482 Y6.6566
X1.6679 Y6.6622
X1.6873 Y6.669
X1.7063 Y6.6768
X1.7249 Y6.6858
X1.7429 Y6.6958
X1.7604 Y6.7068
X1.7773 Y6.7188
X1.7935 Y6.7318
X1.8089 Y6.7457
X1.8236 Y6.7605
X1.8374 Y6.7762
X1.8503 Y6.7926
X1.8622 Y6.8097
X1.8732 Y6.8275
X1.8831 Y6.8459
X1.892 Y6.8648
X1.8998 Y6.8843
X1.9065 Y6.9041
X1.912 Y6.9243
X1.9164 Y6.9447
X1.9196 Y6.9654
X1.9216 Y6.9862
X1.9224 Y7.0071
X1.922 Y7.0279
X1.9205 Y7.0488
X1.9178 Y7.0694
X1.9139 Y7.0899
X1.9088 Y7.1102
X1.9026 Y7.1301
X1.8952 Y7.1496
X1.8868 Y7.1687
X1.8773 Y7.1872
X1.8668 Y7.2052
X1.8552 Y7.2226
X1.8427 Y7.2393
X1.8292 Y7.2553
X1.8148 Y7.2704
X1.7996 Y7.2848
X1.7836 Y7.2983
X1.7668 Y7.3108
X1.7493 Y7.3224
X1.7312 Y7.3329
X1.7124 Y7.3425
X1.6932 Y7.3509
X1.6735 Y7.3583
X1.6533 Y7.3645
X1.6328 Y7.3696
X1.6121 Y7.3735
X1.5911 Y7.3762
X1.57 Y7.3777
X1.5487 Y7.3781
X1.5275 Y7.3772
X1.5064 Y7.3751
X1.4853 Y7.3718
X1.4645 Y7.3673
X1.4439 Y7.3616
X1.4237 Y7.3547
X1.4039 Y7.3467
X1.3845 Y7.3376
X1.3657 Y7.3273
X1.3474 Y7.316
X1.3299 Y7.3037
X1.313 Y7.2904
X1.2969 Y7.2761
X1.2816 Y7.2609
X1.2672 Y7.2449
X1.2538 Y7.228
X1.2413 Y7.2104
X1.2298 Y7.1921
X1.2194 Y7.1732
X1.21 Y7.1537
X1.2018 Y7.1336
X1.1948 Y7.1132
X1.1889 Y7.0923
X1.1842 Y7.0712
X1.1807 Y7.0498
X1.1784 Y7.0282
X1.1774 Y7.0065
X1.1776 Y6.9848
X1.1791 Y6.9631
X1.1817 Y6.9416
X1.1856 Y6.9202
X1.1907 Y6.8991
X1.1971 Y6.8783
X1.2045 Y6.8579
X1.2132 Y6.8379
X1.2229 Y6.8185
X1.2338 Y6.7996
X1.2457 Y6.7814
X1.2586 Y6.7639
X1.2725 Y6.7472
X1.2874 Y6.7312
X1.3031 Y6.7162
X1.3197 Y6.702
X1.337 Y6.6889
X1.3551 Y6.6767
X1.3738 Y6.6656
X1.3932 Y6.6556
X1.413 Y6.6466
X1.4334 Y6.6389
X1.4542 Y6.6322
X1.4754 Y6.6268
X1.4968 Y6.6226
X1.5184 Y6.6196
X1.5403 Y6.6179
X1.5622 Y6.6174
X1.5841 Y6.6181
X1.606 Y6.6201
X1.6277 Y6.6234
X1.6493 Y6.6279
X1.6706 Y6.6336
X1.6916 Y6.6405
X1.7122 Y6.6487
X1.7324 Y6.658
X1.752 Y6.6684
X1.771 Y6.68
X1.7894 Y6.6927
X1.8071 Y6.7064
X1.8239 Y6.7211
X1.8399 Y6.7368
X1.8551 Y6.7534
X1.8692 Y6.7709
X1.8824 Y6.7891
X1.8945 Y6.8081
X1.9055 Y6.8277
X1.9154 Y6.8479
X1.9241 Y6.8687
X1.9316 Y6.8899
X1.9379 Y6.9116
X1.9429 Y6.9335
X1.9467 Y6.9557
X1.9493 Y6.9781
X1.9505 Y7.0005
Y7.023
X1.9491 Y7.0455
X1.9466 Y7.0678
X1.9427 Y7.0899
X1.9376 Y7.1118
X1.9312 Y7.1334
X1.9237 Y7.1545
X1.9149 Y7.1752
X1.905 Y7.1954
X1.8939 Y7.2149
X1.8818 Y7.2338
X1.8685 Y7.252
X1.8543 Y7.2694
X1.8391 Y7.286
X1.8229 Y7.3017
X1.8059 Y7.3165
X1.7881 Y7.3303
X1.7695 Y7.343
X1.7501 Y7.3547
X1.7301 Y7.3653
X1.7095 Y7.3747
X1.6884 Y7.3829
X1.6669 Y7.39
X1.6449 Y7.3958
X1.6227 Y7.4003
X1.6001 Y7.4036
X1.5774 Y7.4056
X1.5546 Y7.4063
X1.5318 Y7.4057
X1.509 Y7.4038
X1.4863 Y7.4006
X1.4639 Y7.3961
X1.4417 Y7.3904
X1.4198 Y7.3833
X1.3984 Y7.3751
X1.3774 Y7.3656
X1.357 Y7.3549
X1.3372 Y7.3431
X1.3181 Y7.3301
X1.2997 Y7.3161
X1.2822 Y7.301
X1.2655 Y7.2849
X1.2498 Y7.2679
X1.2351 Y7.2501
X1.2213 Y7.2314
X1.2087 Y7.2119
X1.1972 Y7.1918
X1.1868 Y7.171
X1.1777 Y7.1496
X1.1697 Y7.1277
X1.1631 Y7.1054
X1.1577 Y7.0828
X1.1536 Y7.0599
X1.1508 Y7.0367
X1.1493 Y7.0135
X1.1492 Y6.9902
X1.1503 Y6.9669
X1.1529 Y6.9437
X1.1567 Y6.9206
X1.1618 Y6.8979
X1.1682 Y6.8754
X1.1759 Y6.8534
X1.1849 Y6.8318
X1.195 Y6.8108
X1.2064 Y6.7903
X1.2188 Y6.7706
X1.2324 Y6.7516
X1.2471 Y6.7333
X1.2628 Y6.716
X1.2794 Y6.6996
X1.2969 Y6.6841
X1.3153 Y6.6697
X1.3345 Y6.6563
X1.3545 Y6.644
X1.3751 Y6.6329
X1.3963 Y6.623
X1.418 Y6.6143
X1.4402 Y6.6069
X1.4628 Y6.6007
X1.4858 Y6.5958
X1.509 Y6.5923
X1.5324 Y6.59
X1.5559 Y6.5891
X1.5794 Y6.5895
X1.6029 Y6.5913
X1.6263 Y6.5944
X1.6495 Y6.5989
X1.6725 Y6.6047
X1.6951 Y6.6117
X1.7174 Y6.6201
X1.7391 Y6.6298
X1.7604 Y6.6406
X1.7809 Y6.6527
X1.8008 Y6.666
X1.82 Y6.6804
X1.8383 Y6.6959
X1.8557 Y6.7124
X1.8722 Y6.73
X1.8877 Y6.7484
X1.9021 Y6.7677
X1.9154 Y6.7878
X1.9275 Y6.8087
X1.9384 Y6.8302
X1.9481 Y6.8523
X1.9565 Y6.8749
X1.9636 Y6.898
X1.9694 Y6.9214
X1.9738 Y6.9451
X1.9769 Y6.969
X1.9786 Y6.9931
X1.9789 Y7.0172
X1.9779 Y7.0413
X1.9755 Y7.0653
X1.9717 Y7.0891
X1.9666 Y7.1126
X1.9602 Y7.1358
X1.9524 Y7.1586
X1.9434 Y7.1809
X1.9331 Y7.2027
X1.9216 Y7.2238
X1.9089 Y7.2443
X1.895 Y7.264
X1.88 Y7.2829
X1.864 Y7.301
X1.847 Y7.3181
X1.829 Y7.3342
X1.8101 Y7.3492
X1.7904 Y7.3632
X1.7698 Y7.376
X1.7486 Y7.3877
X1.7267 Y7.3982
X1.7043 Y7.4073
X1.6813 Y7.4152
X1.6579 Y7.4218
X1.6341 Y7.4271
X1.6101 Y7.431
X1.5858 Y7.4335
X1.5614 Y7.4346
X1.537 Y7.4344
X1.5125 Y7.4327
X1.4882 Y7.4297
X1.4641 Y7.4253
X1.4402 Y7.4195
X1.4167 Y7.4123
X1.3936 Y7.4038
X1.3711 Y7.394
X1.349 Y7.3829
X1.3277 Y7.3706
X1.307 Y7.3571
X1.2872 Y7.3424
X1.2682 Y7.3265
X1.2501 Y7.3097
X1.233 Y7.2918
X1.2169 Y7.2729
X1.202 Y7.2532
X1.1882 Y7.2327
X1.1755 Y7.2114
X1.1642 Y7.1894
X1.154 Y7.1668
X1.1452 Y7.1437
X1.1377 Y7.1201
X1.1315 Y7.0962
X1.1267 Y7.0719
X1.1233 Y7.0474
X1.1213 Y7.0227
X1.1207 Y6.998
X1.1214 Y6.9733
X1.1236 Y6.9486
X1.1272 Y6.9241
X1.1321 Y6.8999
X1.1384 Y6.8759
X1.146 Y6.8524
X1.155 Y6.8293
X1.1652 Y6.8068
X1.1767 Y6.7849
X1.1894 Y6.7637
X1.2033 Y6.7432
X1.2183 Y6.7235
X1.2345 Y6.7047
X1.2516 Y6.6869
X1.2697 Y6.67
X1.2888 Y6.6542
X1.3087 Y6.6395
X1.3293 Y6.626
X1.3508 Y6.6136
X1.3729 Y6.6024
X1.3956 Y6.5925
X1.4188 Y6.584
X1.4424 Y6.5767
X1.4664 Y6.5707
X1.4908 Y6.5662
X1.5153 Y6.563
X1.54 Y6.5611
X1.5647 Y6.5607
X1.5894 Y6.5616
X1.6141 Y6.564
X1.6385 Y6.5677
X1.6628 Y6.5727
X1.6867 Y6.5791
X1.7102 Y6.5869
X1.7332 Y6.5959
X1.7557 Y6.6061
X1.7776 Y6.6176
X1.7989 Y6.6303
X1.8194 Y6.6442
X1.8391 Y6.6591
X1.858 Y6.6752
X1.8759 Y6.6922
X1.8929 Y6.7102
X1.9088 Y6.7291
X1.9237 Y6.7489
X1.9375 Y6.7695
X1.9501 Y6.7907
X1.9616 Y6.8127
X1.9718 Y6.8352
X1.9808 Y6.8583
X1.9885 Y6.8818
X1.9949 Y6.9057
X2.0001 Y6.9299
X2.0038 Y6.9543
X2.0063 Y6.979
X2.0074 Y7.0037
X2.0071 Y7.0284
X2.0055 Y7.0531
X2.0025 Y7.0777
X1.9982 Y7.102
X1.9926 Y7.1261
X1.9856 Y7.1499
X1.9774 Y7.1732
X1.9679 Y7.1961
X1.9571 Y7.2184
X1.9452 Y7.24
X1.9321 Y7.261
X1.9178 Y7.2812
X1.9025 Y7.3007
X1.8861 Y7.3192
X1.8687 Y7.3368
X1.8503 Y7.3534
X1.8311 Y7.369
X1.8111 Y7.3835
X1.7903 Y7.397
X1.7688 Y7.4092
X1.7467 Y7.4203
X1.724 Y7.4302
X1.7008 Y7.4388
X1.6772 Y7.4461
X1.6532 Y7.4522
X1.6289 Y7.4569
X1.6044 Y7.4603
X1.5797 Y7.4624
X1.555 Y7.4632
X1.5303 Y7.4626
X1.5056 Y7.4607
X1.481 Y7.4575
X1.4567 Y7.4529
X1.4327 Y7.447
X1.409 Y7.4398
X1.3858 Y7.4314
X1.363 Y7.4217
X1.3408 Y7.4108
X1.3192 Y7.3987
X1.2982 Y7.3855
X1.278 Y7.3712
X1.2586 Y7.3559
X1.2401 Y7.3395
X1.2224 Y7.3222
X1.2057 Y7.3039
X1.19 Y7.2848
X1.1753 Y7.2649
X1.1617 Y7.2442
X1.1492 Y7.2229
X1.1379 Y7.2008
X1.1278 Y7.1783
X1.1189 Y7.1552
X1.1113 Y7.1316
X1.1049 Y7.1077
X1.0998 Y7.0835
X1.096 Y7.059
X1.0935 Y7.0344
X1.0923 Y7.0097
X1.0924 Y6.985
X1.0938 Y6.9603
X1.0965 Y6.9357
X1.1006 Y6.9112
X1.1058 Y6.8871
X1.1124 Y6.8632
X1.1202 Y6.8397
X1.1293 Y6.8167
X1.1396 Y6.7942
X1.151 Y6.7723
X1.1637 Y6.751
X1.1774 Y6.7304
X1.1922 Y6.7106
X1.208 Y6.6916
X1.2248 Y6.6734
X1.2426 Y6.6562
X1.2612 Y6.6399
X1.2807 Y6.6246
X1.3009 Y6.6103
X1.3219 Y6.5972
X1.3435 Y6.5852
X1.3657 Y6.5743
X1.3885 Y6.5646
X1.4118 Y6.5561
X1.4354 Y6.5489
X1.4595 Y6.543
X1.4838 Y6.5384
X1.5083 Y6.535
X1.5329 Y6.5329
X1.5577 Y6.5322
X1.5824 Y6.5327
X1.6071 Y6.5345
X1.6316 Y6.5377
X1.656 Y6.5421
X1.6801 Y6.5477
X1.7038 Y6.5546
X1.7272 Y6.5627
X1.7501 Y6.5721
X1.7725 Y6.5826
X1.7944 Y6.5942
X1.8156 Y6.607
X1.836 Y6.6209
X1.8558 Y6.6358
X1.8747 Y6.6518
X1.8927 Y6.6687
X1.9099 Y6.6865
X1.9261 Y6.7052
X1.9414 Y6.7247
X1.9556 Y6.745
X1.9687 Y6.7659
X1.9808 Y6.7875
X1.9917 Y6.8097
X2.0015 Y6.8325
X2.0101 Y6.8557
X2.0176 Y6.8793
X2.0238 Y6.9032
X2.0287 Y6.9275
X2.0324 Y6.9519
X2.0348 Y6.9766
X2.0359 Y7.0013
X2.0358 Y7.026
X2.0344 Y7.0507
X2.0317 Y7.0753
X2.0277 Y7.0998
X2.0225 Y7.1239
X2.0161 Y7.1478
X2.0084 Y7.1714
X1.9996 Y7.1945
X1.9896 Y7.2171
X1.9784 Y7.2392
X1.9661 Y7.2607
X1.9527 Y7.2815
X1.9383 Y7.3016
X1.9228 Y7.3209
X1.9064 Y7.3394
X1.889 Y7.357
X1.8707 Y7.3737
X1.8516 Y7.3894
X1.8317 Y7.4041
X1.811 Y7.4177
X1.7897 Y7.4303
X1.7678 Y7.4418
X1.7453 Y7.4522
X1.7224 Y7.4614
X1.699 Y7.4694
X1.6752 Y7.4762
X1.6511 Y7.4818
X1.6267 Y7.4862
X1.6022 Y7.4893
X1.5775 Y7.4912
X1.5528 Y7.4918
X1.528 Y7.4912
X1.5034 Y7.4893
X1.4788 Y7.4861
X1.4545 Y7.4817
X1.4304 Y7.476
X1.4066 Y7.4691
X1.3832 Y7.461
X1.3603 Y7.4517
X1.3378 Y7.4413
X1.3159 Y7.4298
X1.2946 Y7.4172
X1.274 Y7.4035
X1.2541 Y7.3889
X1.2349 Y7.3732
X1.2166 Y7.3566
X1.199 Y7.3391
X1.1824 Y7.3208
X1.1668 Y7.3017
X1.1521 Y7.2817
X1.1385 Y7.2611
X1.1259 Y7.2398
X1.1144 Y7.2178
X1.104 Y7.1954
X1.0948 Y7.1724
X1.0868 Y7.149
X1.0799 Y7.1252
X1.0742 Y7.1012
X1.0697 Y7.0768
X1.0665 Y7.0523
X1.0644 Y7.0276
X1.0636 Y7.0029
X1.064 Y6.9782
X1.0657 Y6.9535
X1.0685 Y6.9289
X1.0726 Y6.9045
X1.078 Y6.8803
X1.0845 Y6.8564
X1.0922 Y6.8329
X1.1011 Y6.8098
X1.1112 Y6.7872
X1.1224 Y6.7652
X1.1346 Y6.7437
X1.148 Y6.7228
X1.1623 Y6.7026
X1.1776 Y6.6832
X1.1939 Y6.6646
X1.2111 Y6.6468
X1.2291 Y6.6298
X1.2479 Y6.6138
X1.2676 Y6.5987
X1.2879 Y6.5846
X1.3089 Y6.5715
X1.3306 Y6.5596
X1.3528 Y6.5487
X1.3755 Y6.5389
X1.3987 Y6.5303
X1.4223 Y6.5229
X1.4463 Y6.5167
X1.4705 Y6.5117
X1.495 Y6.5078
X1.5196 Y6.5052
X1.5443 Y6.5039
X1.569 Y6.5037
X1.5938 Y6.5048
X1.6184 Y6.507
X1.6429 Y6.5105
X1.6672 Y6.5152
X1.6912 Y6.521
X1.715 Y6.528
X1.7383 Y6.5362
X1.7612 Y6.5456
X1.7836 Y6.5561
X1.8055 Y6.5676
X1.8268 Y6.5803
X1.8474 Y6.5939
X1.8674 Y6.6086
X1.8866 Y6.6242
X1.905 Y6.6408
X1.9225 Y6.6582
X1.9392 Y6.6765
X1.955 Y6.6955
X1.9634 Y6.7067
X1.9644 Y6.7081
X1.9838 Y6.7378
X1.9948 Y6.7547
X1.9958 Y6.7564
X2.0015 Y6.7671
X2.0037 Y6.7715
X2.0296 Y6.8304
X2.0307 Y6.8334
X2.0358 Y6.8503
X2.0373 Y6.8559
X2.0501 Y6.9065
X2.0513 Y6.9121
X2.0539 Y6.929
X2.0586 Y6.9852
X2.0592 Y7.0021
Y7.0077
X2.0531 Y7.0808
X2.0519 Y7.0864
X2.0462 Y7.1089
X2.0349 Y7.1539
X2.0333 Y7.1595
X2.0265 Y7.1764
X2.0239 Y7.1824
X2.0015 Y7.2337
X1.9989 Y7.2383
X1.9884 Y7.2551
X1.9664 Y7.2889
X1.9621 Y7.2951
X1.9505 Y7.3114
X1.9453 Y7.3171
X1.9092 Y7.3563
X1.9038 Y7.362
X1.8984 Y7.3676
X1.8947 Y7.3709
X1.8484 Y7.4069
X1.8329 Y7.4185
X1.8273 Y7.422
X1.7767 Y7.4494
X1.7718 Y7.4519
X1.7542 Y7.4602
X1.7486 Y7.4622
X1.6868 Y7.4834
X1.6811 Y7.4849
X1.6778 Y7.4857
X1.6755 Y7.4861
X1.6193 Y7.4955
X1.6025 Y7.4982
X1.5969 Y7.4986
X1.5238
X1.5097 Y7.4969
X1.5069 Y7.4966
X1.5013 Y7.4958
X1.4508 Y7.4873
X1.4451 Y7.4863
X1.4395 Y7.4852
X1.4339 Y7.484
X1.3721 Y7.4628
X1.3665 Y7.4606
X1.3552 Y7.4558
X1.3496 Y7.4533
X1.2934 Y7.4229
X1.2765 Y7.4113
X1.2706 Y7.4069
X1.226 Y7.3722
X1.2204 Y7.3674
X1.2147 Y7.3617
X1.1698 Y7.3128
X1.1685 Y7.3114
X1.1585 Y7.2979
X1.1233 Y7.2439
X1.1198 Y7.2383
X1.1192 Y7.237
X1.1171 Y7.2326
X1.0949 Y7.182
X1.0925 Y7.1764
X1.0855 Y7.1589
X1.0841 Y7.1539
X1.0699 Y7.0977
X1.0671 Y7.0864
X1.0659 Y7.0808
X1.0598 Y7.0077
Y7.0021
X1.0604 Y6.9852
X1.0651 Y6.929
X1.0677 Y6.9121
X1.0686 Y6.9074
X1.0817 Y6.8559
X1.0832 Y6.8503
X1.0883 Y6.8334
X1.0911 Y6.8266
X1.1136 Y6.7754
X1.1192 Y6.7632
X1.1206 Y6.7603
X1.1304 Y6.7451
X1.1585 Y6.7021
X1.161 Y6.6984
X1.1653 Y6.6928
X1.1698 Y6.6872
X1.2164 Y6.6366
X1.2316 Y6.6236
X1.2363 Y6.6197
X1.2822 Y6.5841
X1.2881 Y6.5803
X1.2934 Y6.5771
X1.3498 Y6.5466
X1.3552 Y6.544
X1.3665 Y6.5394
X1.3721 Y6.5372
X1.4266 Y6.5185
X1.4283 Y6.518
X1.4451 Y6.5138
X1.4496 Y6.5129
X1.5013 Y6.5042
X1.5069 Y6.5034
X1.5219 Y6.5016
X1.5238 Y6.5014
X1.5969
X1.6016 Y6.5016
X1.625 Y6.5054
X1.6755 Y6.5139
X1.6811 Y6.5154
X1.6924 Y6.5187
X1.698 Y6.5204
X1.7486 Y6.5378
X1.7542 Y6.5398
X1.7654 Y6.5447
X1.7692 Y6.5466
X1.8273 Y6.578
X1.8313 Y6.5803
X1.8329 Y6.5814
X1.8385 Y6.5853
X1.8971 Y6.6309
X1.9003 Y6.6342
X1.9078 Y6.6422
X1.9453 Y6.6829
X1.958 Y6.6984
X1.9644 Y6.7081
G3 X1.9599 Y6.7246 I-0.0101 J0.0061
G1 X1.9579 Y6.7251 Z-0.1648
X1.956 Y6.7255 Z-0.1643
X1.9543 Y6.726 Z-0.1635
X1.9523 Y6.7255 Z-0.162
X1.9507 Y6.7251 Z-0.1602
X1.9495 Y6.7248 Z-0.158
X1.9488 Y6.7246 Z-0.1557
X1.9485 Y6.7245 Z-0.1532
G0 Z0.2
X3.4055 Y6.1651
Z0.102
G3 X3.5082 Y6.21 Z0.0989 I0.0514 J0.0224 F15.
X3.4055 Y6.1651 Z0.0959 I-0.0514 J-0.0224
X3.5082 Y6.21 Z0.0928 I0.0514 J0.0224
X3.4055 Y6.1651 Z0.0897 I-0.0514 J-0.0224
X3.5082 Y6.21 Z0.0866 I0.0514 J0.0224
X3.4055 Y6.1651 Z0.0836 I-0.0514 J-0.0224
X3.5082 Y6.21 Z0.0805 I0.0514 J0.0224
X3.4055 Y6.1651 Z0.0774 I-0.0514 J-0.0224
X3.5082 Y6.21 Z0.0743 I0.0514 J0.0224
X3.4055 Y6.1651 Z0.0713 I-0.0514 J-0.0224
X3.5082 Y6.21 Z0.0682 I0.0514 J0.0224
X3.4055 Y6.1651 Z0.0651 I-0.0514 J-0.0224
X3.5082 Y6.21 Z0.062 I0.0514 J0.0224
X3.4055 Y6.1651 Z0.059 I-0.0514 J-0.0224
X3.5082 Y6.21 Z0.0559 I0.0514 J0.0224
X3.4055 Y6.1651 Z0.0528 I-0.0514 J-0.0224
X3.5082 Y6.21 Z0.0497 I0.0514 J0.0224
X3.4055 Y6.1651 Z0.0467 I-0.0514 J-0.0224
X3.5082 Y6.21 Z0.0436 I0.0514 J0.0224
X3.4055 Y6.1651 Z0.0405 I-0.0514 J-0.0224
X3.5082 Y6.21 Z0.0375 I0.0514 J0.0224
X3.4055 Y6.1651 Z0.0344 I-0.0514 J-0.0224
X3.5082 Y6.21 Z0.0313 I0.0514 J0.0224
X3.4055 Y6.1651 Z0.0282 I-0.0514 J-0.0224
X3.5082 Y6.21 Z0.0252 I0.0514 J0.0224
X3.4055 Y6.1651 Z0.0221 I-0.0514 J-0.0224
X3.5082 Y6.21 Z0.019 I0.0514 J0.0224
X3.4055 Y6.1651 Z0.0159 I-0.0514 J-0.0224
X3.5082 Y6.21 Z0.0129 I0.0514 J0.0224
X3.4055 Y6.1651 Z0.0098 I-0.0514 J-0.0224
X3.5082 Y6.21 Z0.0067 I0.0514 J0.0224
X3.4055 Y6.1651 Z0.0036 I-0.0514 J-0.0224
X3.5082 Y6.21 Z0.0006 I0.0514 J0.0224
X3.4055 Y6.1651 Z-0.0025 I-0.0514 J-0.0224
X3.5082 Y6.21 Z-0.0056 I0.0514 J0.0224
X3.4055 Y6.1651 Z-0.0086 I-0.0514 J-0.0224
X3.5082 Y6.21 Z-0.0117 I0.0514 J0.0224
X3.4055 Y6.1651 Z-0.0148 I-0.0514 J-0.0224
X3.5082 Y6.21 Z-0.0179 I0.0514 J0.0224
X3.4055 Y6.1651 Z-0.0209 I-0.0514 J-0.0224
X3.5082 Y6.21 Z-0.024 I0.0514 J0.0224
X3.4055 Y6.1651 Z-0.0271 I-0.0514 J-0.0224
X3.5082 Y6.21 Z-0.0302 I0.0514 J0.0224
X3.4055 Y6.1651 Z-0.0332 I-0.0514 J-0.0224
X3.5082 Y6.21 Z-0.0363 I0.0514 J0.0224
X3.4055 Y6.1651 Z-0.0394 I-0.0514 J-0.0224
X3.5082 Y6.21 Z-0.0425 I0.0514 J0.0224
X3.4055 Y6.1651 Z-0.0455 I-0.0514 J-0.0224
X3.5082 Y6.21 Z-0.0486 I0.0514 J0.0224
X3.4055 Y6.1651 Z-0.0517 I-0.0514 J-0.0224
X3.5082 Y6.21 Z-0.0548 I0.0514 J0.0224
X3.4055 Y6.1651 Z-0.0578 I-0.0514 J-0.0224
X3.5082 Y6.21 Z-0.0609 I0.0514 J0.0224
X3.4055 Y6.1651 Z-0.064 I-0.0514 J-0.0224
X3.5082 Y6.21 Z-0.067 I0.0514 J0.0224
X3.4055 Y6.1651 Z-0.0701 I-0.0514 J-0.0224
X3.5082 Y6.21 Z-0.0732 I0.0514 J0.0224
X3.4055 Y6.1651 Z-0.0763 I-0.0514 J-0.0224
X3.5082 Y6.21 Z-0.0793 I0.0514 J0.0224
X3.4055 Y6.1651 Z-0.0824 I-0.0514 J-0.0224
X3.5082 Y6.21 Z-0.0855 I0.0514 J0.0224
X3.4055 Y6.1651 Z-0.0886 I-0.0514 J-0.0224
X3.5082 Y6.21 Z-0.0916 I0.0514 J0.0224
X3.4055 Y6.1651 Z-0.0947 I-0.0514 J-0.0224
X3.5082 Y6.21 Z-0.0978 I0.0514 J0.0224
X3.4055 Y6.1651 Z-0.1009 I-0.0514 J-0.0224
X3.5082 Y6.21 Z-0.1039 I0.0514 J0.0224
X3.4055 Y6.1651 Z-0.107 I-0.0514 J-0.0224
X3.5082 Y6.21 Z-0.1101 I0.0514 J0.0224
X3.4055 Y6.1651 Z-0.1132 I-0.0514 J-0.0224
X3.5082 Y6.21 Z-0.1162 I0.0514 J0.0224
X3.4055 Y6.1651 Z-0.1193 I-0.0514 J-0.0224
X3.5082 Y6.21 Z-0.1224 I0.0514 J0.0224
X3.4055 Y6.1651 Z-0.1254 I-0.0514 J-0.0224
X3.5082 Y6.21 Z-0.1285 I0.0514 J0.0224
X3.4055 Y6.1651 Z-0.1316 I-0.0514 J-0.0224
X3.5082 Y6.21 Z-0.1347 I0.0514 J0.0224
X3.4055 Y6.1651 Z-0.1377 I-0.0514 J-0.0224
X3.5082 Y6.21 Z-0.1408 I0.0514 J0.0224
X3.4055 Y6.1651 Z-0.1439 I-0.0514 J-0.0224
X3.5082 Y6.21 Z-0.147 I0.0514 J0.0224
X3.4055 Y6.1651 Z-0.15 I-0.0514 J-0.0224
X3.5082 Y6.21 Z-0.1531 I0.0514 J0.0224
X3.4055 Y6.1651 Z-0.1562 I-0.0514 J-0.0224
X3.5082 Y6.21 Z-0.1593 I0.0514 J0.0224
X3.4055 Y6.1651 Z-0.1623 I-0.0514 J-0.0224
X3.5129 Y6.1875 Z-0.165 I0.0514 J0.0224
X3.4008 I-0.056 J0.
X3.5129 I0.056 J0.
G1 X3.5141 Y6.2122 F30.
Y6.2153
X3.5135 Y6.2213
X3.5118 Y6.2271
X3.5093 Y6.2325
X3.5061 Y6.2376
X3.5023 Y6.2422
X3.498 Y6.2464
X3.4933 Y6.2501
X3.4883 Y6.2534
X3.4829 Y6.2561
X3.4773 Y6.2583
X3.4716 Y6.26
X3.4657 Y6.2612
X3.4597 Y6.2619
X3.4537 Y6.262
X3.4477 Y6.2617
X3.4418 Y6.2608
X3.436 Y6.2595
X3.4302 Y6.2576
X3.4247 Y6.2554
X3.4194 Y6.2526
X3.4143 Y6.2495
X3.4094 Y6.2459
X3.4049 Y6.242
X3.4007 Y6.2377
X3.3969 Y6.233
X3.3934 Y6.2281
X3.3904 Y6.223
X3.3878 Y6.2176
X3.3856 Y6.212
X3.3839 Y6.2062
X3.3826 Y6.2004
X3.3818 Y6.1944
X3.3815 Y6.1884
X3.3816 Y6.1824
X3.3823 Y6.1765
X3.3834 Y6.1706
X3.385 Y6.1648
X3.387 Y6.1591
X3.3895 Y6.1537
X3.3924 Y6.1484
X3.3957 Y6.1434
X3.3994 Y6.1387
X3.4034 Y6.1343
X3.4078 Y6.1302
X3.4126 Y6.1265
X3.4175 Y6.1231
X3.4228 Y6.1202
X3.4282 Y6.1177
X3.4339 Y6.1157
X3.4397 Y6.1141
X3.4456 Y6.1129
X3.4515 Y6.1123
X3.4575 Y6.1121
X3.4635 Y6.1124
X3.4695 Y6.1131
X3.4753 Y6.1144
X3.4811 Y6.1161
X3.4867 Y6.1182
X3.4921 Y6.1208
X3.4973 Y6.1238
X3.5022 Y6.1272
X3.5069 Y6.131
X3.5112 Y6.1352
X3.5152 Y6.1397
X3.5188 Y6.1444
X3.522 Y6.1495
X3.5249 Y6.1548
X3.5273 Y6.1604
X3.53 Y6.1676
X3.5325 Y6.1755
X3.5341 Y6.1821
X3.5353 Y6.1884
X3.5361 Y6.1943
X3.5365 Y6.2003
Y6.2063
X3.5361 Y6.2123
X3.5352 Y6.2182
X3.5338 Y6.2241
X3.532 Y6.2298
X3.5298 Y6.2354
X3.5271 Y6.2407
X3.524 Y6.2459
X3.5205 Y6.2507
X3.5166 Y6.2553
X3.5124 Y6.2596
X3.5079 Y6.2636
X3.5031 Y6.2672
X3.498 Y6.2704
X3.4928 Y6.2733
X3.4873 Y6.2758
X3.4817 Y6.2779
X3.4759 Y6.2796
X3.4701 Y6.2809
X3.4641 Y6.2817
X3.4582 Y6.2822
X3.4522 Y6.2823
X3.4462 Y6.282
X3.4402 Y6.2813
X3.4343 Y6.2802
X3.4285 Y6.2787
X3.4228 Y6.2768
X3.4172 Y6.2746
X3.4118 Y6.2721
X3.4066 Y6.2691
X3.4015 Y6.2659
X3.3967 Y6.2623
X3.3921 Y6.2584
X3.3878 Y6.2543
X3.3837 Y6.2499
X3.3799 Y6.2452
X3.3765 Y6.2403
X3.3733 Y6.2352
X3.3705 Y6.2299
X3.368 Y6.2245
X3.3658 Y6.2189
X3.364 Y6.2132
X3.3626 Y6.2073
X3.3615 Y6.2014
X3.3609 Y6.1955
X3.3605 Y6.1895
X3.3606 Y6.1835
X3.361 Y6.1775
X3.3618 Y6.1715
X3.363 Y6.1657
X3.3645 Y6.1599
X3.3664 Y6.1542
X3.3687 Y6.1486
X3.3713 Y6.1432
X3.3742 Y6.1379
X3.3774 Y6.1329
X3.381 Y6.1281
X3.3848 Y6.1235
X3.3889 Y6.1191
X3.3933 Y6.115
X3.398 Y6.1112
X3.4028 Y6.1077
X3.4079 Y6.1045
X3.4131 Y6.1016
X3.4186 Y6.099
X3.4241 Y6.0968
X3.4299 Y6.0949
X3.4357 Y6.0934
X3.4416 Y6.0923
X3.4475 Y6.0915
X3.4535 Y6.0911
X3.4595
X3.4655 Y6.0915
X3.4714 Y6.0922
X3.4773 Y6.0933
X3.4832 Y6.0947
X3.4889 Y6.0965
X3.4945 Y6.0987
X3.4999 Y6.1012
X3.5052 Y6.104
X3.5103 Y6.1072
X3.5152 Y6.1107
X3.5199 Y6.1145
X3.5243 Y6.1185
X3.5284 Y6.1228
X3.5325 Y6.1276
X3.5364 Y6.1328
X3.5402 Y6.1384
X3.5437 Y6.1443
X3.547 Y6.1506
X3.5498 Y6.157
X3.5523 Y6.1634
X3.5544 Y6.1699
X3.556 Y6.1764
X3.5573 Y6.1828
X3.5581 Y6.1891
X3.5586 Y6.1952
X3.5588 Y6.2013
X3.5586 Y6.2074
X3.558 Y6.2134
X3.5571 Y6.2193
X3.5559 Y6.2252
X3.5543 Y6.231
X3.5524 Y6.2367
X3.5502 Y6.2423
X3.5476 Y6.2477
X3.5447 Y6.2529
X3.5415 Y6.258
X3.538 Y6.2629
X3.5342 Y6.2676
X3.5302 Y6.272
X3.5259 Y6.2762
X3.5214 Y6.2801
X3.5166 Y6.2838
X3.5116 Y6.2872
X3.5065 Y6.2903
X3.5012 Y6.2931
X3.4956 Y6.2956
X3.4898 Y6.2978
X3.484 Y6.2997
X3.478 Y6.3013
X3.472 Y6.3025
X3.4658 Y6.3034
X3.4595 Y6.3039
X3.4532 Y6.3041
X3.4467 Y6.3039
X3.4404 Y6.3034
X3.4341 Y6.3025
X3.4279 Y6.3012
X3.4216 Y6.2996
X3.4154 Y6.2976
X3.4093 Y6.2952
X3.4033 Y6.2925
X3.3975 Y6.2894
X3.3919 Y6.2861
X3.3865 Y6.2824
X3.3813 Y6.2784
X3.3763 Y6.2741
X3.3715 Y6.2695
X3.367 Y6.2646
X3.3628 Y6.2594
X3.3588 Y6.254
X3.3552 Y6.2484
X3.3519 Y6.2425
X3.3489 Y6.2365
X3.3463 Y6.2304
X3.344 Y6.2241
X3.3421 Y6.2177
X3.3406 Y6.2112
X3.3394 Y6.2046
X3.3386 Y6.1979
X3.3382 Y6.1911
Y6.1844
X3.3385 Y6.1776
X3.3393 Y6.1709
X3.3404 Y6.1642
X3.3419 Y6.1577
X3.3438 Y6.1512
X3.346 Y6.1449
X3.3486 Y6.1387
X3.3515 Y6.1326
X3.3548 Y6.1267
X3.3584 Y6.121
X3.3624 Y6.1154
X3.3667 Y6.1102
X3.3712 Y6.1051
X3.3761 Y6.1004
X3.3812 Y6.0959
X3.3865 Y6.0918
X3.392 Y6.0879
X3.3977 Y6.0844
X3.4037 Y6.0812
X3.4098 Y6.0784
X3.4161 Y6.0759
X3.4225 Y6.0737
X3.4291 Y6.0719
X3.4358 Y6.0705
X3.4425 Y6.0695
X3.4492 Y6.0689
X3.456 Y6.0686
X3.4627 Y6.0688
X3.4695 Y6.0693
X3.4761 Y6.0702
X3.4828 Y6.0715
X3.4893 Y6.0732
X3.4958 Y6.0752
X3.5022 Y6.0776
X3.5084 Y6.0804
X3.5144 Y6.0835
X3.5203 Y6.087
X3.5261 Y6.0909
X3.5318 Y6.0952
X3.5373 Y6.0998
X3.5426 Y6.1049
X3.5478 Y6.1104
X3.5527 Y6.1163
X3.5573 Y6.1226
X3.5616 Y6.1291
X3.5656 Y6.1359
X3.5691 Y6.1429
X3.5723 Y6.1501
X3.575 Y6.1574
X3.5772 Y6.1648
X3.579 Y6.1722
X3.5804 Y6.1797
X3.5814 Y6.1872
X3.5819 Y6.1946
X3.582 Y6.202
X3.5816 Y6.2093
X3.5809 Y6.2166
X3.5797 Y6.2238
X3.5782 Y6.2308
X3.5763 Y6.2377
X3.5739 Y6.2445
X3.5712 Y6.2512
X3.5681 Y6.2576
X3.5647 Y6.2639
X3.5609 Y6.27
X3.5568 Y6.2759
X3.5523 Y6.2815
X3.5475 Y6.2869
X3.5424 Y6.292
X3.537 Y6.2968
X3.5313 Y6.3013
X3.5253 Y6.3055
X3.5191 Y6.3094
X3.5126 Y6.3129
X3.5059 Y6.3161
X3.4991 Y6.3189
X3.492 Y6.3213
X3.4848 Y6.3233
X3.4774 Y6.325
X3.4699 Y6.3261
X3.4624 Y6.3269
X3.4548 Y6.3273
X3.4471 Y6.3272
X3.4395 Y6.3266
X3.4318 Y6.3256
X3.4242 Y6.3242
X3.4166 Y6.3224
X3.4092 Y6.3201
X3.4019 Y6.3174
X3.3947 Y6.3143
X3.3877 Y6.3107
X3.3809 Y6.3068
X3.3743 Y6.3024
X3.3679 Y6.2977
X3.3619 Y6.2926
X3.356 Y6.2872
X3.3506 Y6.2814
X3.3454 Y6.2753
X3.3406 Y6.2689
X3.3361 Y6.2623
X3.3321 Y6.2554
X3.3284 Y6.2483
X3.3252 Y6.241
X3.3223 Y6.2335
X3.3199 Y6.2258
X3.3179 Y6.218
X3.3164 Y6.2101
X3.3153 Y6.2021
X3.3147 Y6.194
X3.3145 Y6.1859
X3.3148 Y6.1779
X3.3156 Y6.1698
X3.3168 Y6.1618
X3.3185 Y6.1539
X3.3206 Y6.1461
X3.3232 Y6.1385
X3.3262 Y6.1309
X3.3296 Y6.1236
X3.3334 Y6.1164
X3.3377 Y6.1095
X3.3423 Y6.1029
X3.3473 Y6.0965
X3.3526 Y6.0904
X3.3583 Y6.0846
X3.3643 Y6.0792
X3.3706 Y6.0741
X3.3772 Y6.0694
X3.3841 Y6.065
X3.3912 Y6.0611
X3.3985 Y6.0575
X3.406 Y6.0544
X3.4136 Y6.0517
X3.4214 Y6.0495
X3.4294 Y6.0477
X3.4374 Y6.0463
X3.4454 Y6.0455
X3.4535 Y6.045
X3.4616 Y6.0451
X3.4697 Y6.0456
X3.4778 Y6.0465
X3.4858 Y6.048
X3.4937 Y6.0498
X3.5015 Y6.0522
X3.5092 Y6.055
X3.5168 Y6.0582
X3.5242 Y6.0619
X3.5315 Y6.066
X3.5386 Y6.0706
X3.5455 Y6.0757
X3.5523 Y6.0812
X3.5587 Y6.0872
X3.5649 Y6.0936
X3.5707 Y6.1003
X3.5762 Y6.1075
X3.5813 Y6.1149
X3.5859 Y6.1227
X3.5901 Y6.1307
X3.5939 Y6.1389
X3.5971 Y6.1473
X3.5999 Y6.1558
X3.6021 Y6.1645
X3.6039 Y6.1732
X3.6051 Y6.182
X3.6059 Y6.1907
X3.6061 Y6.1995
X3.6059 Y6.2082
X3.6051 Y6.2169
X3.6039 Y6.2255
X3.6022 Y6.2339
X3.6 Y6.2423
X3.5973 Y6.2505
X3.5942 Y6.2585
X3.5906 Y6.2663
X3.5866 Y6.2739
X3.5822 Y6.2812
X3.5774 Y6.2883
X3.5721 Y6.2951
X3.5665 Y6.3016
X3.5605 Y6.3078
X3.5541 Y6.3137
X3.5474 Y6.3192
X3.5404 Y6.3243
X3.5331 Y6.329
X3.5254 Y6.3333
X3.5176 Y6.3372
X3.5095 Y6.3407
X3.5011 Y6.3437
X3.4926 Y6.3462
X3.484 Y6.3482
X3.4752 Y6.3498
X3.4663 Y6.3508
X3.4573 Y6.3514
X3.4483
X3.4392 Y6.3509
X3.4302 Y6.3499
X3.4212 Y6.3484
X3.4123 Y6.3463
X3.4035 Y6.3438
X3.3949 Y6.3408
X3.3864 Y6.3372
X3.3781 Y6.3332
X3.37 Y6.3287
X3.3622 Y6.3237
X3.3547 Y6.3183
X3.3474 Y6.3124
X3.3406 Y6.3061
X3.334 Y6.2995
X3.3279 Y6.2925
X3.3221 Y6.2851
X3.3168 Y6.2774
X3.3119 Y6.2694
X3.3074 Y6.2611
X3.3035 Y6.2525
X3.3 Y6.2438
X3.297 Y6.2348
X3.2946 Y6.2257
X3.2927 Y6.2165
X3.2912 Y6.2071
X3.2904 Y6.1977
X3.29 Y6.1883
X3.2902 Y6.1788
X3.291 Y6.1694
X3.2923 Y6.16
X3.2941 Y6.1507
X3.2964 Y6.1415
X3.2993 Y6.1324
X3.3026 Y6.1236
X3.3065 Y6.1149
X3.3109 Y6.1065
X3.3157 Y6.0983
X3.321 Y6.0904
X3.3267 Y6.0828
X3.3329 Y6.0756
X3.3395 Y6.0687
X3.3464 Y6.0622
X3.3537 Y6.0562
X3.3614 Y6.0505
X3.3693 Y6.0453
X3.3775 Y6.0405
X3.386 Y6.0362
X3.3948 Y6.0324
X3.4037 Y6.0292
X3.4128 Y6.0264
X3.422 Y6.0241
X3.4314 Y6.0224
X3.4408 Y6.0212
X3.4503 Y6.0206
X3.4598 Y6.0205
X3.4693 Y6.0209
X3.4788 Y6.0219
X3.4883 Y6.0234
X3.4976 Y6.0255
X3.5069 Y6.0281
X3.516 Y6.0312
X3.525 Y6.0349
X3.5339 Y6.0391
X3.5425 Y6.0439
X3.551 Y6.0492
X3.5592 Y6.055
X3.5671 Y6.0612
X3.5747 Y6.068
X3.5819 Y6.0753
X3.5887 Y6.0829
X3.5951 Y6.091
X3.601 Y6.0995
X3.6065 Y6.1082
X3.6115 Y6.1173
X3.6159 Y6.1267
X3.6198 Y6.1363
X3.6231 Y6.146
X3.6259 Y6.156
X3.628 Y6.166
X3.6296 Y6.1761
X3.6307 Y6.1863
X3.6311 Y6.1964
X3.631 Y6.2066
X3.6303 Y6.2167
X3.629 Y6.2267
X3.6271 Y6.2366
X3.6247 Y6.2464
X3.6218 Y6.256
X3.6183 Y6.2654
X3.6142 Y6.2746
X3.6097 Y6.2836
X3.6047 Y6.2923
X3.5991 Y6.3006
X3.5931 Y6.3087
X3.5867 Y6.3164
X3.5798 Y6.3238
X3.5724 Y6.3307
X3.5647 Y6.3372
X3.5566 Y6.3433
X3.5482 Y6.349
X3.5394 Y6.3542
X3.5303 Y6.3588
X3.521 Y6.363
X3.5113 Y6.3666
X3.5015 Y6.3697
X3.4915 Y6.3722
X3.4814 Y6.3741
X3.4711 Y6.3755
X3.4607 Y6.3763
X3.4502 Y6.3765
X3.4398 Y6.3761
X3.4293 Y6.3751
X3.419 Y6.3735
X3.4086 Y6.3713
X3.3984 Y6.3685
X3.3884 Y6.3652
X3.3785 Y6.3612
X3.3689 Y6.3567
X3.3595 Y6.3517
X3.3504 Y6.3461
X3.3416 Y6.34
X3.3332 Y6.3334
X3.3251 Y6.3263
X3.3175 Y6.3187
X3.3102 Y6.3107
X3.3035 Y6.3023
X3.2972 Y6.2935
X3.2914 Y6.2844
X3.2861 Y6.2749
X3.2814 Y6.2652
X3.2773 Y6.2552
X3.2737 Y6.2449
X3.2707 Y6.2345
X3.2683 Y6.2239
X3.2665 Y6.2131
X3.2653 Y6.2023
X3.2648 Y6.1914
Y6.1805
X3.2655 Y6.1696
X3.2668 Y6.1588
X3.2687 Y6.148
X3.2713 Y6.1374
X3.2744 Y6.127
X3.2781 Y6.1167
X3.2824 Y6.1066
X3.2873 Y6.0968
X3.2927 Y6.0873
X3.2987 Y6.0782
X3.3051 Y6.0693
X3.3121 Y6.0609
X3.3195 Y6.0529
X3.3274 Y6.0453
X3.3357 Y6.0381
X3.3444 Y6.0315
X3.3535 Y6.0253
X3.3629 Y6.0197
X3.3726 Y6.0146
X3.3825 Y6.0101
X3.3928 Y6.0061
X3.4032 Y6.0028
X3.4138 Y6.
X3.4245 Y5.9979
X3.4354 Y5.9963
X3.4463 Y5.9954
X3.4573 Y5.9951
X3.4683 Y5.9955
X3.4792 Y5.9964
X3.4901 Y5.998
X3.501 Y6.0002
X3.5117 Y6.003
X3.5223 Y6.0065
X3.5328 Y6.0106
X3.543 Y6.0153
X3.5531 Y6.0206
X3.5628 Y6.0265
X3.5723 Y6.0329
X3.5814 Y6.04
X3.5902 Y6.0476
X3.5985 Y6.0557
X3.6064 Y6.0643
X3.6138 Y6.0733
X3.6207 Y6.0828
X3.6271 Y6.0927
X3.6329 Y6.1029
X3.6381 Y6.1135
X3.6427 Y6.1243
X3.6466 Y6.1353
X3.6499 Y6.1466
X3.6526 Y6.158
X3.6546 Y6.1695
X3.656 Y6.1811
X3.6567 Y6.1927
Y6.2043
X3.656 Y6.2159
X3.6548 Y6.2274
X3.6528 Y6.2388
X3.6502 Y6.25
X3.647 Y6.2611
X3.6432 Y6.272
X3.6387 Y6.2826
X3.6337 Y6.2929
X3.628 Y6.303
X3.6219 Y6.3127
X3.6151 Y6.3221
X3.6078 Y6.331
X3.6001 Y6.3396
X3.5918 Y6.3477
X3.5831 Y6.3553
X3.5739 Y6.3624
X3.5644 Y6.369
X3.5544 Y6.3751
X3.5441 Y6.3806
X3.5335 Y6.3855
X3.5226 Y6.3898
X3.5114 Y6.3935
X3.5001 Y6.3965
X3.4885 Y6.3989
X3.4768 Y6.4007
X3.465 Y6.4018
X3.4531 Y6.4022
X3.4412 Y6.4019
X3.4293 Y6.401
X3.4174 Y6.3994
X3.4056 Y6.397
X3.394 Y6.3941
X3.3825 Y6.3904
X3.3712 Y6.3861
X3.3602 Y6.3812
X3.3494 Y6.3756
X3.339 Y6.3694
X3.3289 Y6.3626
X3.3192 Y6.3553
X3.3099 Y6.3473
X3.3011 Y6.3389
X3.2927 Y6.33
X3.2849 Y6.3205
X3.2776 Y6.3107
X3.2709 Y6.3004
X3.2647 Y6.2898
X3.2592 Y6.2788
X3.2543 Y6.2675
X3.2501 Y6.2559
X3.2465 Y6.2441
X3.2436 Y6.2321
X3.2414 Y6.22
X3.2398 Y6.2077
X3.239 Y6.1954
X3.2389 Y6.183
X3.2395 Y6.1706
X3.2407 Y6.1583
X3.2427 Y6.1461
X3.2454 Y6.134
X3.2488 Y6.1221
X3.2528 Y6.1103
X3.2575 Y6.0989
X3.2629 Y6.0877
X3.2688 Y6.0768
X3.2754 Y6.0663
X3.2826 Y6.0561
X3.2904 Y6.0464
X3.2986 Y6.0372
X3.3074 Y6.0284
X3.3167 Y6.0202
X3.3265 Y6.0125
X3.3367 Y6.0053
X3.3472 Y5.9988
X3.3581 Y5.9928
X3.3694 Y5.9875
X3.3809 Y5.9829
X3.3927 Y5.9789
X3.4046 Y5.9756
X3.4168 Y5.9729
X3.4291 Y5.971
X3.4415 Y5.9697
X3.4539 Y5.9692
X3.4664 Y5.9694
X3.4789 Y5.9703
X3.4913 Y5.9719
X3.5037 Y5.9742
X3.5159 Y5.9772
X3.528 Y5.981
X3.54 Y5.9854
X3.5517 Y5.9906
X3.5631 Y5.9964
X3.5742 Y6.0029
X3.585 Y6.01
X3.5954 Y6.0178
X3.6054 Y6.0261
X3.615 Y6.0351
X3.624 Y6.0446
X3.6325 Y6.0547
X3.6404 Y6.0652
X3.6477 Y6.0762
X3.6544 Y6.0876
X3.6604 Y6.0993
X3.6657 Y6.1114
X3.6704 Y6.1238
X3.6743 Y6.1363
X3.6775 Y6.1491
X3.68 Y6.162
X3.6817 Y6.1751
X3.6827 Y6.1882
X3.6829 Y6.2013
X3.6824 Y6.2143
X3.6812 Y6.2274
X3.6792 Y6.2403
X3.6765 Y6.253
X3.673 Y6.2656
X3.6689 Y6.278
X3.664 Y6.29
X3.6585 Y6.3018
X3.6523 Y6.3133
X3.6455 Y6.3244
X3.638 Y6.3351
X3.63 Y6.3453
X3.6213 Y6.3551
X3.6122 Y6.3644
X3.6024 Y6.3732
X3.5922 Y6.3814
X3.5815 Y6.389
X3.5704 Y6.3961
X3.5589 Y6.4024
X3.547 Y6.4082
X3.5348 Y6.4132
X3.5223 Y6.4176
X3.5095 Y6.4212
X3.4966 Y6.4241
X3.4834 Y6.4263
X3.4701 Y6.4278
X3.4568 Y6.4284
X3.4434 Y6.4283
X3.4299 Y6.4275
X3.4166 Y6.4259
X3.4033 Y6.4235
X3.3902 Y6.4203
X3.3772 Y6.4164
X3.3644 Y6.4118
X3.352 Y6.4065
X3.3398 Y6.4004
X3.3279 Y6.3936
X3.3165 Y6.3862
X3.3055 Y6.3781
X3.2949 Y6.3694
X3.2849 Y6.36
X3.2753 Y6.3502
X3.2664 Y6.3397
X3.258 Y6.3288
X3.2503 Y6.3174
X3.2432 Y6.3056
X3.2368 Y6.2933
X3.2312 Y6.2807
X3.2262 Y6.2678
X3.222 Y6.2547
X3.2185 Y6.2413
X3.2158 Y6.2277
X3.2139 Y6.214
X3.2127 Y6.2002
X3.2124 Y6.1863
X3.2128 Y6.1724
X3.214 Y6.1586
X3.216 Y6.1448
X3.2188 Y6.1312
X3.2224 Y6.1178
X3.2267 Y6.1046
X3.2318 Y6.0916
X3.2376 Y6.079
X3.2441 Y6.0667
X3.2513 Y6.0548
X3.2592 Y6.0433
X3.2677 Y6.0323
X3.2768 Y6.0217
X3.2865 Y6.0118
X3.2968 Y6.0023
X3.3076 Y5.9935
X3.3189 Y5.9853
X3.3306 Y5.9778
X3.3427 Y5.971
X3.3552 Y5.9648
X3.3681 Y5.9594
X3.3812 Y5.9547
X3.3946 Y5.9508
X3.4082 Y5.9476
X3.4219 Y5.9452
X3.4358 Y5.9436
X3.4498 Y5.9428
X3.4638
X3.4778 Y5.9435
X3.4918 Y5.9451
X3.5057 Y5.9475
X3.5195 Y5.9507
X3.5331 Y5.9547
X3.5465 Y5.9594
X3.5597 Y5.9649
X3.5726 Y5.9712
X3.5851 Y5.9783
X3.5973 Y5.9861
X3.609 Y5.9945
X3.6203 Y6.0037
X3.631 Y6.0135
X3.6413 Y6.024
X3.6509 Y6.035
X3.6599 Y6.0466
X3.6682 Y6.0587
X3.6758 Y6.0712
X3.6828 Y6.0842
X3.6889 Y6.0976
X3.6943 Y6.1112
X3.6989 Y6.1252
X3.7027 Y6.1394
X3.7057 Y6.1537
X3.7079 Y6.1682
X3.7092 Y6.1828
X3.7097 Y6.1975
X3.7093 Y6.2121
X3.7082 Y6.2266
X3.7062 Y6.2411
X3.7033 Y6.2554
X3.6997 Y6.2695
X3.6953 Y6.2834
X3.6901 Y6.297
X3.6841 Y6.3102
X3.6774 Y6.3231
X3.67 Y6.3357
X3.6619 Y6.3477
X3.653 Y6.3593
X3.6436 Y6.3704
X3.6335 Y6.381
X3.6228 Y6.3909
X3.6115 Y6.4003
X3.5997 Y6.409
X3.5874 Y6.417
X3.5747 Y6.4243
X3.5616 Y6.4309
X3.548 Y6.4368
X3.5342 Y6.4418
X3.52 Y6.4461
X3.5056 Y6.4496
X3.491 Y6.4523
X3.4762 Y6.4541
X3.4614 Y6.4551
X3.4464 Y6.4552
X3.4315 Y6.4545
X3.4166 Y6.4529
X3.4018 Y6.4505
X3.3871 Y6.4472
X3.3726 Y6.4431
X3.3584 Y6.4382
X3.3444 Y6.4325
X3.3308 Y6.4259
X3.3175 Y6.4186
X3.3046 Y6.4105
X3.2923 Y6.4017
X3.2804 Y6.3922
X3.269 Y6.3821
X3.2583 Y6.3713
X3.2482 Y6.3598
X3.2387 Y6.3478
X3.2299 Y6.3353
X3.2219 Y6.3223
X3.2146 Y6.3088
X3.208 Y6.295
X3.2023 Y6.2807
X3.1974 Y6.2662
X3.1933 Y6.2514
X3.19 Y6.2363
X3.1877 Y6.2211
X3.1861 Y6.2058
X3.1855 Y6.1904
X3.1857 Y6.175
X3.1869 Y6.1597
X3.1888 Y6.1444
X3.1917 Y6.1292
X3.1954 Y6.1142
X3.2 Y6.0995
X3.2054 Y6.085
X3.2116 Y6.0709
X3.2186 Y6.0571
X3.2264 Y6.0438
X3.2349 Y6.0309
X3.2442 Y6.0185
X3.2542 Y6.0067
X3.2648 Y5.9955
X3.276 Y5.9848
X3.2878 Y5.9749
X3.3002 Y5.9656
X3.3131 Y5.957
X3.3264 Y5.9492
X3.3402 Y5.9422
X3.3543 Y5.9359
X3.3688 Y5.9305
X3.3836 Y5.9259
X3.3986 Y5.9221
X3.4139 Y5.9192
X3.4293 Y5.9172
X3.4447 Y5.916
X3.4603 Y5.9158
X3.4759 Y5.9164
X3.4914 Y5.9179
X3.5069 Y5.9203
X3.5222 Y5.9236
X3.5374 Y5.9278
X3.5523 Y5.9328
X3.567 Y5.9387
X3.5813 Y5.9454
X3.5953 Y5.953
X3.6089 Y5.9614
X3.622 Y5.9706
X3.6346 Y5.9805
X3.6467 Y5.9911
X3.6582 Y6.0025
X3.669 Y6.0145
X3.6791 Y6.0271
X3.6885 Y6.0403
X3.6971 Y6.054
X3.705 Y6.0682
X3.712 Y6.0828
X3.7182 Y6.0978
X3.7235 Y6.1132
X3.728 Y6.1288
X3.7315 Y6.1446
X3.7341 Y6.1606
X3.7359 Y6.1767
X3.7367 Y6.1928
X3.7365 Y6.209
X3.7355 Y6.2251
X3.7335 Y6.2411
X3.7307 Y6.257
X3.7269 Y6.2726
X3.7223 Y6.288
X3.7167 Y6.3032
X3.7104 Y6.318
X3.7032 Y6.3324
X3.6952 Y6.3463
X3.6864 Y6.3598
X3.6768 Y6.3728
X3.6665 Y6.3853
X3.6556 Y6.3971
X3.6439 Y6.4083
X3.6316 Y6.4188
X3.6188 Y6.4286
X3.6053 Y6.4377
X3.5914 Y6.446
X3.577 Y6.4535
X3.5621 Y6.4602
X3.5469 Y6.4661
X3.5314 Y6.471
X3.5155 Y6.4751
X3.4994 Y6.4783
X3.4832 Y6.4806
X3.4668 Y6.4819
X3.4504 Y6.4823
X3.4339 Y6.4818
X3.4174 Y6.4803
X3.4011 Y6.4779
X3.3848 Y6.4746
X3.3688 Y6.4703
X3.353 Y6.4651
X3.3375 Y6.4591
X3.3224 Y6.4521
X3.3076 Y6.4443
X3.2933 Y6.4356
X3.2796 Y6.4261
X3.2663 Y6.4159
X3.2537 Y6.4049
X3.2416 Y6.3932
X3.2303 Y6.3808
X3.2197 Y6.3677
X3.2098 Y6.3541
X3.2007 Y6.3399
X3.1924 Y6.3252
X3.185 Y6.3101
X3.1784 Y6.2945
X3.1728 Y6.2786
X3.168 Y6.2623
X3.1642 Y6.2459
X3.1613 Y6.2292
X3.1594 Y6.2124
X3.1584 Y6.1954
Y6.1785
X3.1594 Y6.1616
X3.1613 Y6.1447
X3.1642 Y6.128
X3.168 Y6.1114
X3.1728 Y6.0951
X3.1785 Y6.0791
X3.1851 Y6.0635
X3.1925 Y6.0482
X3.2009 Y6.0334
X3.21 Y6.0191
X3.22 Y6.0053
X3.2307 Y5.9921
X3.2422 Y5.9796
X3.2544 Y5.9677
X3.2672 Y5.9565
X3.2807 Y5.9461
X3.2947 Y5.9364
X3.3092 Y5.9276
X3.3243 Y5.9196
X3.3397 Y5.9125
X3.3556 Y5.9063
X3.3718 Y5.901
X3.3882 Y5.8966
X3.4049 Y5.8931
X3.4218 Y5.8906
X3.4388 Y5.8891
X3.4559 Y5.8885
X3.4731 Y5.889
X3.4902 Y5.8903
X3.5072 Y5.8927
X3.5241 Y5.8961
X3.5409 Y5.9004
X3.5574 Y5.9056
X3.5736 Y5.9119
X3.5895 Y5.919
X3.6049 Y5.9271
X3.62 Y5.936
X3.6345 Y5.9459
X3.6485 Y5.9565
X3.6619 Y5.968
X3.6746 Y5.9802
X3.6867 Y5.9932
X3.698 Y6.0068
X3.7085 Y6.0211
X3.7182 Y6.036
X3.727 Y6.0514
X3.735 Y6.0673
X3.742 Y6.0836
X3.7481 Y6.1003
X3.7532 Y6.1173
X3.7574 Y6.1345
X3.7606 Y6.152
X3.7627 Y6.1696
X3.7639 Y6.1873
X3.764 Y6.205
X3.7632 Y6.2227
X3.7613 Y6.2403
X3.7584 Y6.2578
X3.7546 Y6.275
X3.7497 Y6.292
X3.7439 Y6.3087
X3.7372 Y6.325
X3.7296 Y6.341
X3.721 Y6.3564
X3.7116 Y6.3714
X3.7013 Y6.3858
X3.6903 Y6.3996
X3.6784 Y6.4128
X3.6659 Y6.4253
X3.6526 Y6.437
X3.6386 Y6.448
X3.6241 Y6.4582
X3.6089 Y6.4675
X3.5933 Y6.476
X3.5771 Y6.4836
X3.5606 Y6.4903
X3.5436 Y6.496
X3.5263 Y6.5007
X3.5088 Y6.5045
X3.491 Y6.5073
X3.4731 Y6.509
X3.4551 Y6.5097
X3.4371 Y6.5094
X3.4191 Y6.5081
X3.4011 Y6.5058
X3.3833 Y6.5024
X3.3657 Y6.498
X3.3484 Y6.4926
X3.3313 Y6.4862
X3.3146 Y6.4789
X3.2984 Y6.4706
X3.2826 Y6.4613
X3.2674 Y6.4512
X3.2527 Y6.4403
X3.2387 Y6.4284
X3.2254 Y6.4158
X3.2128 Y6.4025
X3.201 Y6.3884
X3.1899 Y6.3737
X3.1798 Y6.3584
X3.1705 Y6.3425
X3.1621 Y6.326
X3.1546 Y6.3091
X3.1482 Y6.2919
X3.1427 Y6.2742
X3.1382 Y6.2563
X3.1348 Y6.2381
X3.1324 Y6.2198
X3.1311 Y6.2013
X3.1308 Y6.1828
X3.1315 Y6.1643
X3.1333 Y6.1458
X3.1362 Y6.1275
X3.1401 Y6.1094
X3.145 Y6.0915
X3.151 Y6.0739
X3.1579 Y6.0567
X3.1658 Y6.0399
X3.1747 Y6.0236
X3.1844 Y6.0078
X3.1951 Y5.9926
X3.2066 Y5.978
X3.2189 Y5.9641
X3.232 Y5.9509
X3.2458 Y5.9385
X3.2603 Y5.9269
X3.2754 Y5.9161
X3.2912 Y5.9062
X3.3075 Y5.8973
X3.3242 Y5.8892
X3.3414 Y5.8821
X3.359 Y5.876
X3.3769 Y5.871
X3.3951 Y5.8669
X3.4135 Y5.8639
X3.4321 Y5.8619
X3.4507 Y5.861
X3.4695 Y5.8612
X3.4882 Y5.8624
X3.5068 Y5.8647
X3.5253 Y5.8681
X3.5436 Y5.8725
X3.5617 Y5.878
X3.5795 Y5.8845
X3.5969 Y5.892
X3.6139 Y5.9005
X3.6305 Y5.91
X3.6465 Y5.9204
X3.6619 Y5.9318
X3.6766 Y5.944
X3.6907 Y5.9571
X3.704 Y5.971
X3.7166 Y5.9857
X3.7282 Y6.001
X3.739 Y6.017
X3.7489 Y6.0336
X3.7578 Y6.0508
X3.7658 Y6.0684
X3.7727 Y6.0865
X3.7786 Y6.1049
X3.7834 Y6.1236
X3.7871 Y6.1426
X3.7898 Y6.1617
X3.7913 Y6.1809
X3.7918 Y6.2002
X3.7911 Y6.2195
X3.7894 Y6.2387
X3.7866 Y6.2578
X3.7827 Y6.2766
X3.7777 Y6.2952
X3.7717 Y6.3135
X3.7646 Y6.3314
X3.7566 Y6.3489
X3.7475 Y6.3659
X3.7375 Y6.3824
X3.7266 Y6.3983
X3.7148 Y6.4135
X3.7021 Y6.428
X3.6886 Y6.4418
X3.6744 Y6.4548
X3.6594 Y6.4671
X3.6437 Y6.4784
X3.6274 Y6.4888
X3.6105 Y6.4983
X3.593 Y6.5069
X3.5751 Y6.5144
X3.5568 Y6.5209
X3.5381 Y6.5264
X3.519 Y6.5308
X3.4998 Y6.5341
X3.4803 Y6.5363
X3.4608 Y6.5374
X3.4412
X3.4216 Y6.5362
X3.402 Y6.534
X3.3826 Y6.5306
X3.3634 Y6.5262
X3.3444 Y6.5206
X3.3258 Y6.5139
X3.3076 Y6.5062
X3.2898 Y6.4975
X3.2725 Y6.4878
X3.2558 Y6.477
X3.2397 Y6.4654
X3.2243 Y6.4528
X3.2096 Y6.4393
X3.1957 Y6.425
X3.1826 Y6.41
X3.1704 Y6.3942
X3.1591 Y6.3777
X3.1487 Y6.3606
X3.1393 Y6.3429
X3.131 Y6.3247
X3.1236 Y6.306
X3.1174 Y6.287
X3.1122 Y6.2676
X3.1082 Y6.2479
X3.1053 Y6.2281
X3.1035 Y6.2081
X3.1029 Y6.188
X3.1034 Y6.1679
X3.105 Y6.1478
X3.1078 Y6.1279
X3.1118 Y6.1081
X3.1168 Y6.0887
X3.1229 Y6.0695
X3.1302 Y6.0507
X3.1385 Y6.0323
X3.1478 Y6.0145
X3.1581 Y5.9971
X3.1694 Y5.9805
X3.1817 Y5.9644
X3.1948 Y5.9491
X3.2088 Y5.9346
X3.2235 Y5.9209
X3.2391 Y5.908
X3.2553 Y5.8961
X3.2723 Y5.8851
X3.2898 Y5.875
X3.3078 Y5.866
X3.3264 Y5.8581
X3.3454 Y5.8511
X3.3647 Y5.8453
X3.3844 Y5.8406
X3.4043 Y5.837
X3.4244 Y5.8346
X3.4447 Y5.8333
X3.465 Y5.8331
X3.4853 Y5.8342
X3.5055 Y5.8363
X3.5257 Y5.8397
X3.5456 Y5.8441
X3.5653 Y5.8497
X3.5847 Y5.8565
X3.6037 Y5.8643
X3.6223 Y5.8733
X3.6403 Y5.8833
X3.6578 Y5.8943
X3.6747 Y5.9063
X3.6909 Y5.9193
X3.7063 Y5.9333
X3.721 Y5.9481
X3.7348 Y5.9637
X3.7477 Y5.9801
X3.7596 Y5.9972
X3.7706 Y6.015
X3.7805 Y6.0334
X3.7894 Y6.0524
X3.7972 Y6.0718
X3.8039 Y6.0916
X3.8094 Y6.1118
X3.8138 Y6.1322
X3.817 Y6.1529
X3.819 Y6.1737
X3.8198 Y6.1946
X3.8194 Y6.2154
X3.8179 Y6.2363
X3.8151 Y6.257
X3.8112 Y6.2775
X3.8062 Y6.2977
X3.8 Y6.3176
X3.7926 Y6.3371
X3.7842 Y6.3562
X3.7747 Y6.3748
X3.7641 Y6.3928
X3.7526 Y6.4101
X3.74 Y6.4268
X3.7266 Y6.4428
X3.7122 Y6.458
X3.697 Y6.4723
X3.681 Y6.4858
X3.6642 Y6.4983
X3.6467 Y6.5099
X3.6286 Y6.5204
X3.6098 Y6.53
X3.5906 Y6.5384
X3.5709 Y6.5458
X3.5507 Y6.552
X3.5302 Y6.5571
X3.5095 Y6.561
X3.4885 Y6.5637
X3.4673 Y6.5652
X3.4461 Y6.5656
X3.4249 Y6.5647
X3.4038 Y6.5626
X3.3827 Y6.5593
X3.3619 Y6.5548
X3.3413 Y6.5491
X3.3211 Y6.5422
X3.3013 Y6.5342
X3.2819 Y6.5251
X3.2631 Y6.5148
X3.2448 Y6.5035
X3.2272 Y6.4912
X3.2104 Y6.4779
X3.1943 Y6.4636
X3.179 Y6.4484
X3.1646 Y6.4324
X3.1512 Y6.4155
X3.1387 Y6.3979
X3.1272 Y6.3796
X3.1168 Y6.3607
X3.1074 Y6.3412
X3.0992 Y6.3212
X3.0922 Y6.3007
X3.0863 Y6.2798
X3.0816 Y6.2587
X3.0781 Y6.2373
X3.0758 Y6.2157
X3.0748 Y6.194
X3.075 Y6.1723
X3.0764 Y6.1507
X3.0791 Y6.1291
X3.083 Y6.1077
X3.0881 Y6.0866
X3.0944 Y6.0658
X3.1019 Y6.0454
X3.1106 Y6.0254
X3.1203 Y6.006
X3.1312 Y5.9871
X3.1431 Y5.9689
X3.156 Y5.9514
X3.1699 Y5.9347
X3.1848 Y5.9187
X3.2005 Y5.9037
X3.2171 Y5.8896
X3.2344 Y5.8764
X3.2525 Y5.8642
X3.2712 Y5.8531
X3.2906 Y5.8431
X3.3104 Y5.8341
X3.3308 Y5.8264
X3.3516 Y5.8198
X3.3727 Y5.8143
X3.3942 Y5.8101
X3.4158 Y5.8071
X3.4377 Y5.8054
X3.4596 Y5.8049
X3.4815 Y5.8057
X3.5034 Y5.8076
X3.5251 Y5.8109
X3.5467 Y5.8154
X3.568 Y5.8211
X3.589 Y5.828
X3.6096 Y5.8362
X3.6298 Y5.8455
X3.6494 Y5.856
X3.6684 Y5.8675
X3.6868 Y5.8802
X3.7045 Y5.8939
X3.7213 Y5.9087
X3.7373 Y5.9243
X3.7525 Y5.9409
X3.7666 Y5.9584
X3.7798 Y5.9766
X3.7919 Y5.9956
X3.8029 Y6.0152
X3.8128 Y6.0354
X3.8215 Y6.0562
X3.829 Y6.0774
X3.8353 Y6.0991
X3.8403 Y6.121
X3.8441 Y6.1432
X3.8467 Y6.1656
X3.8479 Y6.188
Y6.2105
X3.8465 Y6.233
X3.8439 Y6.2553
X3.8401 Y6.2774
X3.835 Y6.2993
X3.8286 Y6.3209
X3.8211 Y6.342
X3.8123 Y6.3627
X3.8024 Y6.3829
X3.7913 Y6.4024
X3.7792 Y6.4213
X3.7659 Y6.4395
X3.7517 Y6.4569
X3.7365 Y6.4735
X3.7203 Y6.4892
X3.7033 Y6.504
X3.6855 Y6.5178
X3.6668 Y6.5305
X3.6475 Y6.5422
X3.6275 Y6.5528
X3.6069 Y6.5622
X3.5858 Y6.5705
X3.5643 Y6.5775
X3.5423 Y6.5833
X3.52 Y6.5879
X3.4975 Y6.5911
X3.4748 Y6.5931
X3.452 Y6.5938
X3.4292 Y6.5932
X3.4064 Y6.5913
X3.3837 Y6.5881
X3.3613 Y6.5837
X3.3391 Y6.5779
X3.3172 Y6.5709
X3.2957 Y6.5626
X3.2748 Y6.5531
X3.2544 Y6.5424
X3.2346 Y6.5306
X3.2155 Y6.5176
X3.1971 Y6.5036
X3.1796 Y6.4885
X3.1629 Y6.4725
X3.1472 Y6.4555
X3.1325 Y6.4376
X3.1187 Y6.4189
X3.1061 Y6.3994
X3.0946 Y6.3793
X3.0842 Y6.3585
X3.0751 Y6.3371
X3.0671 Y6.3152
X3.0605 Y6.293
X3.0551 Y6.2703
X3.051 Y6.2474
X3.0482 Y6.2242
X3.0467 Y6.201
X3.0465 Y6.1777
X3.0477 Y6.1544
X3.0502 Y6.1312
X3.0541 Y6.1082
X3.0592 Y6.0854
X3.0656 Y6.0629
X3.0733 Y6.0409
X3.0823 Y6.0193
X3.0924 Y5.9983
X3.1037 Y5.9778
X3.1162 Y5.9581
X3.1298 Y5.9391
X3.1445 Y5.9209
X3.1601 Y5.9035
X3.1768 Y5.8871
X3.1943 Y5.8716
X3.2127 Y5.8572
X3.2319 Y5.8438
X3.2519 Y5.8316
X3.2725 Y5.8204
X3.2937 Y5.8105
X3.3154 Y5.8018
X3.3376 Y5.7944
X3.3602 Y5.7882
X3.3832 Y5.7833
X3.4064 Y5.7798
X3.4298 Y5.7775
X3.4533 Y5.7766
X3.4768 Y5.7771
X3.5003 Y5.7788
X3.5237 Y5.7819
X3.5469 Y5.7864
X3.5699 Y5.7922
X3.5925 Y5.7992
X3.6148 Y5.8076
X3.6365 Y5.8173
X3.6577 Y5.8282
X3.6783 Y5.8403
X3.6982 Y5.8535
X3.7174 Y5.8679
X3.7357 Y5.8834
X3.7531 Y5.9
X3.7696 Y5.9175
X3.7851 Y5.9359
X3.7995 Y5.9552
X3.8127 Y5.9753
X3.8249 Y5.9962
X3.8358 Y6.0177
X3.8455 Y6.0398
X3.8539 Y6.0624
X3.861 Y6.0855
X3.8668 Y6.1089
X3.8712 Y6.1326
X3.8743 Y6.1566
X3.876 Y6.1806
X3.8763 Y6.2047
X3.8753 Y6.2288
X3.8729 Y6.2528
X3.8691 Y6.2766
X3.864 Y6.3001
X3.8576 Y6.3233
X3.8498 Y6.3461
X3.8408 Y6.3684
X3.8305 Y6.3902
X3.819 Y6.4114
X3.8063 Y6.4318
X3.7924 Y6.4515
X3.7774 Y6.4704
X3.7614 Y6.4885
X3.7444 Y6.5056
X3.7264 Y6.5217
X3.7075 Y6.5367
X3.6878 Y6.5507
X3.6672 Y6.5636
X3.646 Y6.5752
X3.6241 Y6.5857
X3.6017 Y6.5949
X3.5787 Y6.6028
X3.5553 Y6.6093
X3.5315 Y6.6146
X3.5075 Y6.6185
X3.4832 Y6.621
X3.4588 Y6.6221
X3.4343 Y6.6219
X3.4099 Y6.6202
X3.3856 Y6.6172
X3.3615 Y6.6128
X3.3376 Y6.607
X3.3141 Y6.5998
X3.291 Y6.5913
X3.2684 Y6.5815
X3.2464 Y6.5704
X3.2251 Y6.5581
X3.2044 Y6.5446
X3.1846 Y6.5299
X3.1655 Y6.5141
X3.1475 Y6.4972
X3.1304 Y6.4793
X3.1143 Y6.4604
X3.0994 Y6.4407
X3.0856 Y6.4202
X3.0729 Y6.3989
X3.0615 Y6.3769
X3.0514 Y6.3544
X3.0426 Y6.3312
X3.0351 Y6.3077
X3.0289 Y6.2837
X3.0241 Y6.2594
X3.0207 Y6.2349
X3.0187 Y6.2102
X3.0181 Y6.1855
X3.0188 Y6.1608
X3.021 Y6.1361
X3.0246 Y6.1116
X3.0295 Y6.0874
X3.0358 Y6.0635
X3.0434 Y6.0399
X3.0524 Y6.0169
X3.0626 Y5.9943
X3.0741 Y5.9724
X3.0868 Y5.9512
X3.1007 Y5.9307
X3.1157 Y5.911
X3.1318 Y5.8923
X3.149 Y5.8744
X3.1671 Y5.8576
X3.1861 Y5.8417
X3.206 Y5.827
X3.2267 Y5.8135
X3.2482 Y5.8011
X3.2703 Y5.7899
X3.2929 Y5.7801
X3.3161 Y5.7715
X3.3398 Y5.7642
X3.3638 Y5.7583
X3.3881 Y5.7537
X3.4127 Y5.7505
X3.4374 Y5.7486
X3.4621 Y5.7482
X3.4868 Y5.7492
X3.5115 Y5.7515
X3.5359 Y5.7552
X3.5602 Y5.7602
X3.5841 Y5.7666
X3.6076 Y5.7744
X3.6306 Y5.7834
X3.6531 Y5.7936
X3.675 Y5.8051
X3.6963 Y5.8178
X3.7168 Y5.8317
X3.7365 Y5.8466
X3.7554 Y5.8627
X3.7733 Y5.8797
X3.7903 Y5.8977
X3.8062 Y5.9167
X3.8211 Y5.9364
X3.8349 Y5.957
X3.8475 Y5.9782
X3.859 Y6.0002
X3.8692 Y6.0227
X3.8782 Y6.0458
X3.8859 Y6.0693
X3.8923 Y6.0932
X3.8974 Y6.1174
X3.9012 Y6.1418
X3.9037 Y6.1665
X3.9047 Y6.1912
X3.9045 Y6.2159
X3.9029 Y6.2406
X3.8999 Y6.2652
X3.8956 Y6.2896
X3.8899 Y6.3137
X3.883 Y6.3374
X3.8748 Y6.3607
X3.8653 Y6.3836
X3.8545 Y6.4059
X3.8426 Y6.4276
X3.8295 Y6.4485
X3.8152 Y6.4688
X3.7999 Y6.4882
X3.7835 Y6.5067
X3.7661 Y6.5243
X3.7477 Y6.5409
X3.7285 Y6.5565
X3.7085 Y6.5711
X3.6877 Y6.5845
X3.6662 Y6.5967
X3.6441 Y6.6078
X3.6214 Y6.6177
X3.5982 Y6.6263
X3.5967 Y6.6268
X3.5929 Y6.6277
X3.589 Y6.6283
X3.5851 Y6.6285
X3.3501
X3.3371 Y6.6279
X3.3269 Y6.6268
X3.3161 Y6.625
X3.3025 Y6.6219
X3.2884 Y6.6179
X3.2713 Y6.612
X3.2524 Y6.6041
X3.2335 Y6.595
X3.2134 Y6.5839
X3.1928 Y6.5709
X3.1727 Y6.5565
X3.1534 Y6.5411
X3.1349 Y6.5246
X3.1174 Y6.5071
X3.1008 Y6.4887
X3.0938 Y6.4801
X3.0913 Y6.4766
X3.0893 Y6.473
X3.0876 Y6.4691
G3 X3.0988 Y6.4536 I0.0112 J-0.0037
G1 X3.1009 Y6.4538
X3.1029 Y6.4544
X3.1049 Y6.4553
X3.1068 Y6.4564
X3.3552 Y6.6063
X3.3558 Y6.6066
G3 X3.3501 Y6.6285 I-0.0061 J0.0101
G1 X3.2883
X3.2827 Y6.6283
X3.2658 Y6.6263
X3.2602 Y6.6256
X3.2499 Y6.6238
X3.2412 Y6.6217
X3.2324 Y6.6191
X3.2212 Y6.6151
X3.2094 Y6.61
X3.1948 Y6.6028
X3.1799 Y6.5943
X3.1631 Y6.5835
X3.1449 Y6.5701
X3.1424 Y6.568
X3.1406 Y6.5662
X3.139 Y6.5644
G3 X3.1536 Y6.5466 I0.0093 J-0.0072
G1 X3.2666 Y6.6033
G3 X3.2602 Y6.6256 I-0.0053 J0.0105
G1 X3.2377 Y6.6228
X3.2321 Y6.622
X3.226 Y6.6197
X3.1886 Y6.6049
X3.1872 Y6.6041
X3.1854 Y6.6028
X3.1506 Y6.5777
X3.1492 Y6.5765
X3.1478 Y6.575
X3.1196 Y6.541
X3.1186 Y6.5396
X3.1179 Y6.5382
X3.1029 Y6.5065
X3.1007 Y6.5016
X3.0958 Y6.4904
X3.0934 Y6.4847
X3.06 Y6.3948
X3.0579 Y6.3892
X3.0523 Y6.3751
X3.0511 Y6.3723
X3.0095 Y6.2823
X3.0055 Y6.2727
X3.0023 Y6.2631
X2.999 Y6.2516
X2.9961 Y6.2383
X2.9935 Y6.2227
X2.9916 Y6.2039
X2.9906 Y6.1836
X2.9908 Y6.162
X2.9924 Y6.1384
X2.9955 Y6.1139
X2.9999 Y6.0895
X3.0057 Y6.0655
X3.0128 Y6.0417
X3.0211 Y6.0184
X3.0306 Y5.9956
X3.0413 Y5.9733
X3.0532 Y5.9516
X3.0662 Y5.9305
X3.0803 Y5.9102
X3.0955 Y5.8906
X3.1117 Y5.8719
X3.1288 Y5.8541
X3.1469 Y5.8372
X3.1659 Y5.8213
X3.1857 Y5.8065
X3.2062 Y5.7927
X3.2275 Y5.78
X3.2493 Y5.7684
X3.2718 Y5.758
X3.2948 Y5.7488
X3.2955 Y5.7486
X3.2996 Y5.7474
X3.3038 Y5.7468
X3.308 Y5.7465
X3.5749
X3.5859 Y5.7471
X3.5952 Y5.7481
X3.6052 Y5.7497
X3.6174 Y5.7525
X3.6309 Y5.7563
X3.6473 Y5.762
X3.6645 Y5.7691
X3.6833 Y5.7782
X3.7035 Y5.7894
X3.7244 Y5.8026
X3.7446 Y5.8169
X3.7639 Y5.8324
X3.7824 Y5.8489
X3.8 Y5.8663
X3.8166 Y5.8845
X3.8323 Y5.9037
X3.847 Y5.9236
X3.8607 Y5.9442
X3.8732 Y5.9656
X3.8846 Y5.9875
X3.8949 Y6.01
X3.904 Y6.033
X3.9119 Y6.0565
X3.9186 Y6.0803
X3.924 Y6.1045
X3.9282 Y6.1288
X3.9312 Y6.1534
X3.9329 Y6.1781
X3.9333 Y6.2028
X3.9325 Y6.2276
X3.9303 Y6.2522
X3.927 Y6.2767
X3.9224 Y6.3011
X3.9165 Y6.3251
X3.9094 Y6.3488
X3.9011 Y6.3721
X3.8916 Y6.3949
X3.8809 Y6.4173
X3.869 Y6.439
X3.8561 Y6.4601
X3.842 Y6.4805
X3.827 Y6.5001
X3.8109 Y6.5189
X3.7939 Y6.5369
X3.776 Y6.554
X3.7573 Y6.5701
X3.7377 Y6.5853
X3.7174 Y6.5994
X3.6964 Y6.6125
X3.6764 Y6.6236
X3.6704 Y6.6263
X3.6641 Y6.628
X3.6575 Y6.6285
X3.5851
G0 Z0.2
X3.0398 Y6.3121
Z-0.1414
G1 Z-0.1532 F30.
X3.0395 Y6.3119 Z-0.1558
X3.0388 Y6.3114 Z-0.1583
X3.0376 Y6.3106 Z-0.1606
X3.0361 Y6.3096 Z-0.1624
X3.0342 Y6.3083 Z-0.1638
X3.0322 Y6.3069 Z-0.1647
X3.03 Y6.3055 Z-0.165
G3 X3.0095 Y6.2823 I0.035 J-0.0516
G1 X3.0015 Y6.2654
X2.9987 Y6.2598
X2.9812 Y6.2286
X2.9785 Y6.2232
X2.9762 Y6.2177
X2.974 Y6.2115
X2.9717 Y6.2036
X2.9698 Y6.1955
X2.968 Y6.1849
X2.9666 Y6.1731
X2.9658 Y6.1584
Y6.1429
X2.967 Y6.1239
X2.9694 Y6.1025
X2.9734 Y6.0794
X2.979 Y6.0554
X2.986 Y6.0317
X2.9943 Y6.0084
X3.0038 Y5.9855
X3.0144 Y5.9631
X3.0261 Y5.9413
X3.0389 Y5.9202
X3.0527 Y5.8996
X3.0675 Y5.8798
X3.0834 Y5.8608
X3.1001 Y5.8426
X3.1177 Y5.8252
X3.1362 Y5.8088
X3.1555 Y5.7932
X3.1755 Y5.7787
X3.1962 Y5.7652
X3.2176 Y5.7527
X3.2211 Y5.7509
X3.2268 Y5.7485
X3.2328 Y5.747
X3.239 Y5.7465
X3.308
G3 X3.3175 Y5.7648 I-0.0004 J0.0118
G1 X3.3142 Y5.7698
X2.998 Y6.2515
X2.9976 Y6.2525
X2.9974 Y6.2536
X2.9977 Y6.2551
X2.9985 Y6.2563
X2.9997 Y6.2572
X3.0011 Y6.2576
X3.0026 Y6.2573
X3.0039 Y6.2566
X3.0048 Y6.2554
X3.0052 Y6.254
X3.0051 Y6.2525
X3.0044 Y6.2512
X3.0033 Y6.2502
G3 X2.9812 Y6.2286 I0.0312 J-0.054
G1 X2.9568 Y6.185
X2.9537 Y6.1789
X2.9513 Y6.1734
X2.9494 Y6.1677
X2.9476 Y6.1611
X2.9461 Y6.1541
X2.9446 Y6.1451
X2.9437 Y6.1354
X2.9432 Y6.1234
X2.9434 Y6.1102
X2.9445 Y6.0937
X2.9467 Y6.0767
X2.9505 Y6.0568
X2.956 Y6.0347
X2.9633 Y6.011
X2.9719 Y5.9878
X2.9817 Y5.9651
X2.9926 Y5.9429
X3.0046 Y5.9213
X3.0176 Y5.9002
X3.0316 Y5.8798
X3.0465 Y5.8601
X3.0624 Y5.8411
X3.0792 Y5.8229
X3.0968 Y5.8055
X3.1152 Y5.789
X3.1344 Y5.7733
X3.1543 Y5.7586
X3.1624 Y5.7531
X3.1692 Y5.7495
X3.1765 Y5.7473
X3.1841 Y5.7465
X3.239
G3 X3.2485 Y5.7647 I-0.0004 J0.0118
G1 X3.2453 Y5.7698
X2.9806 Y6.1794
X2.9768 Y6.1853
G3 X2.9568 Y6.185 I-0.0099 J-0.0064
G1 X2.9482 Y6.1698
X2.9386 Y6.153
X2.9366 Y6.1499
X2.9335 Y6.1447
X2.9308 Y6.1394
X2.9285 Y6.1338
X2.9267 Y6.1281
X2.9253 Y6.1222
X2.9239 Y6.1149
X2.9229 Y6.1074
X2.9222 Y6.0978
X2.922 Y6.0876
X2.9225 Y6.0747
X2.9238 Y6.0613
X2.9264 Y6.0444
X2.9304 Y6.0261
X2.9358 Y6.0061
X2.9435 Y5.9835
X2.9527 Y5.9605
X2.9631 Y5.9381
X2.9746 Y5.9162
X2.9871 Y5.8948
X3.0006 Y5.8741
X3.015 Y5.854
X3.0303 Y5.8345
X3.0465 Y5.8158
X3.0635 Y5.7978
X3.0813 Y5.7806
X3.0999 Y5.7642
X3.1111 Y5.7552
X3.1186 Y5.7504
X3.1269 Y5.7475
X3.1356 Y5.7465
X3.1841
G3 X3.1938 Y5.7645 I-0.0004 J0.0118
G1 X3.1905 Y5.7698
X2.9602 Y6.1427
X2.9562 Y6.1492
G3 X2.9366 Y6.1499 I-0.01 J-0.0062
G1 X2.9141 Y6.1161
X2.911 Y6.111
X2.9085 Y6.1055
X2.9065 Y6.0999
X2.9049 Y6.0941
X2.9036 Y6.088
X2.9025 Y6.0805
X2.9017 Y6.0727
X2.9014 Y6.0628
X2.9015 Y6.0527
X2.9025 Y6.0401
X2.9043 Y6.0264
X2.9074 Y6.0106
X2.9121 Y5.992
X2.9184 Y5.9719
X2.9266 Y5.9501
X2.9367 Y5.9274
X2.9479 Y5.9054
X2.9602 Y5.8839
X2.9734 Y5.863
X2.9876 Y5.8427
X3.0026 Y5.823
X3.0185 Y5.8041
X3.0352 Y5.7858
X3.0526 Y5.7682
X3.0648 Y5.7569
X3.0727 Y5.7512
X3.0817 Y5.7477
X3.0913 Y5.7465
X3.1356
G3 X3.1453 Y5.7644 I-0.0004 J0.0118
G1 X3.142 Y5.7699
X2.9377 Y6.1088
X2.9337 Y6.1154
G3 X2.9141 Y6.1161 I-0.0101 J-0.0061
G1 X2.8949 Y6.0875
X2.8919 Y6.0824
X2.8891 Y6.077
X2.8869 Y6.0714
X2.8852 Y6.0657
X2.8838 Y6.0599
X2.8828 Y6.0536
X2.8819 Y6.046
X2.8815 Y6.038
Y6.0279
X2.8821 Y6.0176
X2.8836 Y6.0047
X2.8861 Y5.9909
X2.8898 Y5.9751
X2.8952 Y5.9565
X2.9026 Y5.9361
X2.9118 Y5.9143
X2.9228 Y5.8921
X2.9349 Y5.8705
X2.9479 Y5.8495
X2.9619 Y5.8291
X2.9768 Y5.8093
X2.9925 Y5.7901
X3.0089 Y5.7716
X3.0215 Y5.7586
X3.0234 Y5.7569
X3.0312 Y5.7512
X3.0402 Y5.7477
X3.0498 Y5.7465
X3.0913
G3 X3.1011 Y5.7642 I-0.0004 J0.0118
G1 X3.0978 Y5.7699
X2.9184 Y6.0801
X2.9147 Y6.0865
G3 X2.8949 Y6.0875 I-0.0102 J-0.0059
G1 X2.8748 Y6.0574
X2.8707 Y6.0495
X2.8683 Y6.0441
X2.8663 Y6.0384
X2.8648 Y6.0326
X2.8637 Y6.0264
X2.8628 Y6.0201
X2.8622 Y6.0122
X2.8621 Y6.004
X2.8625 Y5.9938
X2.8635 Y5.9833
X2.8656 Y5.9699
X2.8685 Y5.9563
X2.873 Y5.9399
X2.8794 Y5.9212
X2.8874 Y5.9012
X2.8978 Y5.8791
X2.9096 Y5.8573
X2.9224 Y5.8362
X2.9362 Y5.8157
X2.9509 Y5.7957
X2.9663 Y5.7764
X2.9778 Y5.7632
X2.9799 Y5.761
X2.9867 Y5.7555
X2.9945 Y5.7516
X3.0031 Y5.7495
G3 X3.0109 Y5.771 I0.001 J0.0118
G1 X3.0087 Y5.7725 Z-0.1647
X3.0066 Y5.7739 Z-0.1638
X3.0048 Y5.7752 Z-0.1624
X3.0033 Y5.7763 Z-0.1606
X3.0021 Y5.7771 Z-0.1583
X3.0014 Y5.7776 Z-0.1558
X3.0012 Y5.7777 Z-0.1532
G0 Z0.2
X2.9092 Y6.0823
Z-0.1414
G1 Z-0.1532 F30.
X2.9089 Y6.0822 Z-0.1558
X2.9081 Y6.0818 Z-0.1583
X2.9069 Y6.0812 Z-0.1606
X2.9052 Y6.0804 Z-0.1624
X2.9032 Y6.0794 Z-0.1638
X2.9009 Y6.0784 Z-0.1647
X2.8985 Y6.0772 Z-0.165
G3 X2.8748 Y6.0574 I0.0269 J-0.0562
G1 X2.8716 Y6.0518
X2.8651 Y6.0405
X2.8612 Y6.0336
X2.8526 Y6.018
X2.85 Y6.0126
X2.8479 Y6.007
X2.8464 Y6.0012
X2.8453 Y5.9953
X2.8444 Y5.9889
X2.844 Y5.9821
X2.8439 Y5.9737
X2.8442 Y5.965
X2.8453 Y5.9541
X2.8471 Y5.9428
X2.8501 Y5.9293
X2.8544 Y5.9139
X2.8599 Y5.8975
X2.8677 Y5.8783
X2.8778 Y5.857
X2.8897 Y5.8353
X2.9027 Y5.8142
X2.9166 Y5.7937
X2.928 Y5.7783
X2.933 Y5.7728
X2.9388 Y5.7684
X2.9454 Y5.7652
G3 X2.9603 Y5.7804 I0.0038 J0.0112
G1 X2.9588 Y5.7844
X2.8753 Y6.0119
X2.8738 Y6.016
G3 X2.8526 Y6.018 I-0.0111 J-0.0041
G1 X2.848 Y6.0096
X2.8474 Y6.0082
X2.847 Y6.0068
X2.8364 Y5.9674
X2.8357 Y5.9646
X2.8355 Y5.9632
X2.8354 Y5.9562
X2.8348 Y5.9224
X2.8349 Y5.9168
X2.8362 Y5.9112
X2.8444 Y5.8757
X2.8454 Y5.8718
X2.8511 Y5.8606
X2.8655 Y5.8325
X2.8661 Y5.8314
X2.8668 Y5.8303
X2.8845 Y5.81
X2.8949 Y5.7979
X2.8963 Y5.7964
X2.8978 Y5.7952
X2.9328 Y5.7706
X2.9343 Y5.7696
X2.9399 Y5.7673
X2.9752 Y5.7537
X2.9772 Y5.753
X2.9792 Y5.7525
X3.0186 Y5.7477
X3.0242 Y5.7471
X3.041 Y5.7465
X3.0498
G0 Z0.2
X3.5351 Y5.7613
Z-0.1414
G1 Z-0.1532 F30.
X3.5353 Y5.7611 Z-0.1558
X3.5361 Y5.7607 Z-0.1583
X3.5373 Y5.7599 Z-0.1606
X3.5389 Y5.759 Z-0.1624
X3.5408 Y5.7578 Z-0.1638
X3.543 Y5.7566 Z-0.1647
X3.5452 Y5.7552 Z-0.165
G3 X3.5749 Y5.7465 I0.0318 J0.0536
G1 X3.6423
X3.6518 Y5.747
X3.658 Y5.7477
X3.6647 Y5.7488
X3.6731 Y5.7506
X3.682 Y5.7532
X3.6927 Y5.7569
X3.7047 Y5.7619
X3.7188 Y5.7687
X3.7336 Y5.7768
X3.7507 Y5.7876
X3.7692 Y5.8008
X3.7884 Y5.8163
X3.8067 Y5.8328
X3.8242 Y5.8503
X3.8408 Y5.8687
X3.8564 Y5.8879
X3.8711 Y5.9079
X3.8847 Y5.9285
X3.8973 Y5.9498
X3.9088 Y5.9717
X3.9192 Y5.9941
X3.9286 Y6.0171
X3.9368 Y6.0404
X3.9439 Y6.0641
X3.9498 Y6.0881
X3.9546 Y6.1124
X3.9582 Y6.1369
X3.9606 Y6.1615
X3.9618 Y6.1863
Y6.211
X3.9606 Y6.2357
X3.9583 Y6.2603
X3.9547 Y6.2848
X3.95 Y6.3091
X3.9441 Y6.3332
X3.937 Y6.3569
X3.9287 Y6.3802
X3.9193 Y6.4031
X3.9088 Y6.4255
X3.8972 Y6.4473
X3.8845 Y6.4686
X3.8709 Y6.4892
X3.8562 Y6.5092
X3.8406 Y6.5284
X3.8241 Y6.5468
X3.8067 Y6.5644
X3.7885 Y6.5812
X3.7695 Y6.597
X3.7498 Y6.6119
X3.7355 Y6.6217
X3.7286 Y6.6254
X3.7212 Y6.6277
X3.7135 Y6.6285
X3.6575
G0 Z0.2
X3.6025 Y5.7613
Z-0.1414
G1 Z-0.1532 F30.
X3.6028 Y5.7611 Z-0.1558
X3.6035 Y5.7607 Z-0.1583
X3.6047 Y5.7599 Z-0.1606
X3.6063 Y5.759 Z-0.1624
X3.6083 Y5.7578 Z-0.1638
X3.6104 Y5.7566 Z-0.1647
X3.6127 Y5.7552 Z-0.165
G3 X3.6423 Y5.7465 I0.0318 J0.0536
G1 X3.6985
X3.7048 Y5.7468
X3.7108 Y5.7475
X3.7167 Y5.7485
X3.7237 Y5.7502
X3.731 Y5.7524
X3.7395 Y5.7555
X3.7495 Y5.7597
X3.7603 Y5.7651
X3.7729 Y5.7723
X3.7873 Y5.7816
X3.802 Y5.7925
X3.8188 Y5.8063
X3.8367 Y5.8229
X3.8539 Y5.8407
X3.8701 Y5.8594
X3.8854 Y5.8789
X3.8997 Y5.8991
X3.913 Y5.9199
X3.9253 Y5.9414
X3.9367 Y5.9634
X3.947 Y5.9859
X3.9562 Y6.0088
X3.9644 Y6.0322
X3.9715 Y6.0559
X3.9774 Y6.0799
X3.9823 Y6.1042
X3.9861 Y6.1286
X3.9887 Y6.1532
X3.9902 Y6.1779
X3.9906 Y6.2027
X3.9899 Y6.2274
X3.988 Y6.2521
X3.985 Y6.2766
X3.9809 Y6.301
X3.9757 Y6.3252
X3.9693 Y6.3491
X3.9619 Y6.3727
X3.9533 Y6.396
X3.9437 Y6.4188
X3.9331 Y6.4411
X3.9214 Y6.4629
X3.9087 Y6.4842
X3.8951 Y6.5048
X3.8805 Y6.5248
X3.865 Y6.5441
X3.8486 Y6.5626
X3.8314 Y6.5804
X3.8134 Y6.5974
X3.7947 Y6.6136
X3.7862 Y6.6202
X3.7789 Y6.6247
X3.7707 Y6.6276
X3.7621 Y6.6285
X3.7135
G0 Z0.2
X3.6587 Y5.7613
Z-0.1414
G1 Z-0.1532 F30.
X3.659 Y5.7611 Z-0.1558
X3.6597 Y5.7607 Z-0.1583
X3.6609 Y5.7599 Z-0.1606
X3.6625 Y5.759 Z-0.1624
X3.6645 Y5.7578 Z-0.1638
X3.6666 Y5.7566 Z-0.1647
X3.6689 Y5.7552 Z-0.165
G3 X3.6985 Y5.7465 I0.0318 J0.0536
G1 X3.7466
X3.7526 Y5.7468
X3.7585 Y5.7475
X3.7644 Y5.7487
X3.7702 Y5.7502
X3.7772 Y5.7525
X3.7847 Y5.7553
X3.7932 Y5.7592
X3.803 Y5.7643
X3.8138 Y5.7708
X3.8259 Y5.779
X3.84 Y5.7898
X3.8542 Y5.8021
X3.8701 Y5.8174
X3.8869 Y5.8356
X3.9027 Y5.8547
X3.9175 Y5.8745
X3.9313 Y5.8951
X3.9441 Y5.9162
X3.956 Y5.9379
X3.9669 Y5.9601
X3.9768 Y5.9828
X3.9858 Y6.0059
X3.9937 Y6.0293
X4.0005 Y6.0531
X4.0063 Y6.0772
X4.0111 Y6.1015
X4.0148 Y6.1259
X4.0174 Y6.1505
X4.019 Y6.1752
X4.0194 Y6.2
X4.0188 Y6.2247
X4.0172 Y6.2494
X4.0144 Y6.274
X4.0106 Y6.2984
X4.0058 Y6.3227
X3.9998 Y6.3467
X3.9929 Y6.3705
X3.9849 Y6.3939
X3.9758 Y6.4169
X3.9658 Y6.4395
X3.9548 Y6.4617
X3.9428 Y6.4834
X3.9299 Y6.5045
X3.9161 Y6.525
X3.9014 Y6.5449
X3.8858 Y6.5641
X3.8694 Y6.5826
X3.8522 Y6.6004
X3.8348 Y6.6169
X3.832 Y6.6193
X3.8244 Y6.6243
X3.8158 Y6.6275
X3.8068 Y6.6285
X3.7621
G0 Z0.2
X3.7068 Y5.7613
Z-0.1414
G1 Z-0.1532 F30.
X3.707 Y5.7611 Z-0.1558
X3.7078 Y5.7607 Z-0.1583
X3.709 Y5.7599 Z-0.1606
X3.7106 Y5.759 Z-0.1624
X3.7125 Y5.7578 Z-0.1638
X3.7146 Y5.7566 Z-0.1647
X3.7169 Y5.7552 Z-0.165
G3 X3.7466 Y5.7465 I0.0318 J0.0536
G1 X3.7884
X3.795 Y5.7468
X3.8009 Y5.7475
X3.8068 Y5.7486
X3.8126 Y5.7502
X3.8192 Y5.7524
X3.8258 Y5.755
X3.8339 Y5.7588
X3.8421 Y5.7631
X3.8522 Y5.7693
X3.8623 Y5.7764
X3.875 Y5.7862
X3.8876 Y5.7974
X3.9019 Y5.8114
X3.9174 Y5.8285
X3.933 Y5.8478
X3.9475 Y5.8679
X3.961 Y5.8886
X3.9735 Y5.9099
X3.9851 Y5.9318
X3.9958 Y5.9541
X4.0055 Y5.9768
X4.0143 Y6.
X4.0221 Y6.0235
X4.0289 Y6.0473
X4.0346 Y6.0713
X4.0394 Y6.0956
X4.0432 Y6.1201
X4.0459 Y6.1447
X4.0476 Y6.1694
X4.0482 Y6.1941
X4.0479 Y6.2188
X4.0465 Y6.2436
X4.0442 Y6.2682
X4.0408 Y6.2927
X4.0364 Y6.317
X4.031 Y6.3412
X4.0246 Y6.3651
X4.0172 Y6.3887
X4.0088 Y6.412
X3.9995 Y6.4349
X3.9892 Y6.4574
X3.978 Y6.4795
X3.9659 Y6.5011
X3.9529 Y6.5221
X3.939 Y6.5426
X3.9243 Y6.5625
X3.9087 Y6.5817
X3.8924 Y6.6003
X3.8784 Y6.6149
X3.875 Y6.6181
X3.8671 Y6.6237
X3.8581 Y6.6273
X3.8484 Y6.6285
X3.8068
G0 Z0.2
X3.7486 Y5.7613
Z-0.1414
G1 Z-0.1532 F30.
X3.7489 Y5.7611 Z-0.1558
X3.7496 Y5.7607 Z-0.1583
X3.7508 Y5.7599 Z-0.1606
X3.7524 Y5.759 Z-0.1624
X3.7544 Y5.7578 Z-0.1638
X3.7565 Y5.7566 Z-0.1647
X3.7588 Y5.7552 Z-0.165
G3 X3.7884 Y5.7465 I0.0318 J0.0536
G1 X3.8309
X3.8368 Y5.7468
X3.8428 Y5.7476
X3.8487 Y5.7489
X3.8544 Y5.7506
X3.8601 Y5.7527
X3.867 Y5.7556
X3.8742 Y5.7592
X3.8825 Y5.7639
X3.8914 Y5.7697
X3.9018 Y5.7773
X3.9125 Y5.7861
X3.9253 Y5.7979
X3.9386 Y5.8117
X3.9528 Y5.8282
X3.9679 Y5.8478
X3.9818 Y5.8683
X3.9948 Y5.8893
X4.0068 Y5.911
X4.0178 Y5.9331
X4.0279 Y5.9557
X4.0372 Y5.9787
X4.0454 Y6.002
X4.0528 Y6.0256
X4.0592 Y6.0495
X4.0646 Y6.0737
X4.0691 Y6.098
X4.0726 Y6.1225
X4.0751 Y6.1471
X4.0766 Y6.1718
X4.0772 Y6.1966
X4.0768 Y6.2213
X4.0754 Y6.246
X4.073 Y6.2706
X4.0697 Y6.2952
X4.0654 Y6.3195
X4.0601 Y6.3437
X4.0539 Y6.3677
X4.0467 Y6.3913
X4.0386 Y6.4147
X4.0296 Y6.4378
X4.0197 Y6.4604
X4.0089 Y6.4827
X3.9972 Y6.5045
X3.9846 Y6.5258
X3.9712 Y6.5467
X3.957 Y6.5669
X3.942 Y6.5866
X3.9262 Y6.6056
X3.9172 Y6.6156
X3.9153 Y6.6174
X3.9073 Y6.6234
X3.898 Y6.6272
X3.888 Y6.6285
X3.8484
G0 Z0.2
X3.791 Y5.7613
Z-0.1414
G1 Z-0.1532 F30.
X3.7913 Y5.7611 Z-0.1558
X3.7921 Y5.7607 Z-0.1583
X3.7933 Y5.7599 Z-0.1606
X3.7949 Y5.759 Z-0.1624
X3.7968 Y5.7578 Z-0.1638
X3.7989 Y5.7566 Z-0.1647
X3.8012 Y5.7552 Z-0.165
G3 X3.8309 Y5.7465 I0.0318 J0.0536
G1 X3.8702
X3.8762 Y5.7468
X3.8821 Y5.7477
X3.888 Y5.7491
X3.8937 Y5.7509
X3.8993 Y5.7531
X3.906 Y5.7561
X3.9129 Y5.7597
X3.921 Y5.7646
X3.9295 Y5.7703
X3.9395 Y5.778
X3.9495 Y5.7866
X3.9616 Y5.7982
X3.9741 Y5.8117
X3.9874 Y5.8279
X4.0021 Y5.8479
X4.0155 Y5.8687
X4.028 Y5.89
X4.0395 Y5.912
X4.05 Y5.9343
X4.0597 Y5.9571
X4.0685 Y5.9803
X4.0763 Y6.0037
X4.0833 Y6.0275
X4.0893 Y6.0515
X4.0944 Y6.0757
X4.0986 Y6.1001
X4.1019 Y6.1246
X4.1043 Y6.1492
X4.1057 Y6.1739
X4.1062 Y6.1987
X4.1057 Y6.2234
X4.1043 Y6.2481
X4.1019 Y6.2728
X4.0987 Y6.2973
X4.0944 Y6.3217
X4.0893 Y6.3459
X4.0833 Y6.3699
X4.0763 Y6.3936
X4.0685 Y6.4171
X4.0598 Y6.4402
X4.0502 Y6.4631
X4.0397 Y6.4855
X4.0285 Y6.5075
X4.0163 Y6.5291
X4.0034 Y6.5502
X3.9897 Y6.5708
X3.9752 Y6.5909
X3.9624 Y6.6072
X3.9545 Y6.6162
X3.9538 Y6.6169
X3.9457 Y6.6232
X3.9362 Y6.6272
X3.926 Y6.6285
X3.888
G0 Z0.2
X3.8304 Y5.7613
Z-0.1414
G1 Z-0.1532 F30.
X3.8306 Y5.7611 Z-0.1558
X3.8314 Y5.7607 Z-0.1583
X3.8326 Y5.7599 Z-0.1606
X3.8342 Y5.759 Z-0.1624
X3.8361 Y5.7578 Z-0.1638
X3.8383 Y5.7566 Z-0.1647
X3.8405 Y5.7552 Z-0.165
G3 X3.8702 Y5.7465 I0.0318 J0.0536
G1 X3.9064
X3.9124 Y5.7468
X3.9184 Y5.7476
X3.9242 Y5.749
X3.93 Y5.7508
X3.9355 Y5.7529
X3.9418 Y5.7558
X3.9485 Y5.7593
X3.9559 Y5.7638
X3.9641 Y5.7693
X3.9731 Y5.7763
X3.9827 Y5.7846
X3.9941 Y5.7956
X4.0051 Y5.8076
X4.0178 Y5.8231
X4.0316 Y5.842
X4.045 Y5.8628
X4.0573 Y5.8843
X4.0687 Y5.9063
X4.0791 Y5.9287
X4.0886 Y5.9516
X4.0972 Y5.9747
X4.105 Y5.9982
X4.1118 Y6.022
X4.1178 Y6.046
X4.123 Y6.0702
X4.1272 Y6.0946
X4.1305 Y6.1191
X4.1329 Y6.1438
X4.1345 Y6.1685
X4.1351 Y6.1932
X4.1349 Y6.2179
X4.1337 Y6.2427
X4.1316 Y6.2673
X4.1287 Y6.2919
X4.1248 Y6.3163
X4.1201 Y6.3406
X4.1145 Y6.3647
X4.108 Y6.3886
X4.1007 Y6.4122
X4.0926 Y6.4356
X4.0835 Y6.4586
X4.0737 Y6.4814
X4.0631 Y6.5037
X4.0516 Y6.5256
X4.0394 Y6.5471
X4.0263 Y6.5682
X4.0126 Y6.5887
X4.0007 Y6.605
X3.9935 Y6.6138
X3.9915 Y6.616
X3.9855 Y6.6213
X3.9785 Y6.6252
X3.9708 Y6.6277
X3.9628 Y6.6285
X3.926
G0 Z0.2
X3.8666 Y5.7613
Z-0.1414
G1 Z-0.1532 F30.
X3.8669 Y5.7611 Z-0.1558
X3.8676 Y5.7607 Z-0.1583
X3.8688 Y5.7599 Z-0.1606
X3.8704 Y5.759 Z-0.1624
X3.8724 Y5.7578 Z-0.1638
X3.8745 Y5.7566 Z-0.1647
X3.8768 Y5.7552 Z-0.165
G3 X3.9064 Y5.7465 I0.0318 J0.0536
G1 X3.9432
X3.9492 Y5.7468
X3.9552 Y5.7477
X3.961 Y5.7492
X3.9667 Y5.7511
X3.9722 Y5.7533
X3.9785 Y5.7563
X3.9849 Y5.7599
X3.9924 Y5.7645
X4. Y5.7699
X4.0089 Y5.7771
X4.0181 Y5.7853
X4.0286 Y5.7959
X4.0403 Y5.8091
X4.0519 Y5.8237
X4.065 Y5.8424
X4.0781 Y5.8634
X4.09 Y5.8851
X4.1009 Y5.9073
X4.1109 Y5.9299
X4.12 Y5.9529
X4.1283 Y5.9763
X4.1357 Y5.9999
X4.1422 Y6.0237
X4.1479 Y6.0478
X4.1528 Y6.0721
X4.1568 Y6.0965
X4.1599 Y6.121
X4.1622 Y6.1457
X4.1636 Y6.1704
X4.1642 Y6.1951
X4.1639 Y6.2199
X4.1627 Y6.2446
X4.1607 Y6.2693
X4.1577 Y6.2938
X4.154 Y6.3183
X4.1494 Y6.3426
X4.1439 Y6.3667
X4.1376 Y6.3907
X4.1305 Y6.4144
X4.1226 Y6.4378
X4.1139 Y6.461
X4.1043 Y6.4838
X4.094 Y6.5063
X4.0829 Y6.5284
X4.0711 Y6.5501
X4.0585 Y6.5715
X4.0452 Y6.5923
X4.0361 Y6.6051
X4.0295 Y6.6135
X4.0277 Y6.6155
X4.0217 Y6.621
X4.0146 Y6.6251
X4.0068 Y6.6277
X3.9986 Y6.6285
X3.9628
G0 Z0.2
X3.9034 Y5.7613
Z-0.1414
G1 Z-0.1532 F30.
X3.9037 Y5.7611 Z-0.1558
X3.9044 Y5.7607 Z-0.1583
X3.9056 Y5.7599 Z-0.1606
X3.9073 Y5.759 Z-0.1624
X3.9092 Y5.7578 Z-0.1638
X3.9113 Y5.7566 Z-0.1647
X3.9136 Y5.7552 Z-0.165
G3 X3.9432 Y5.7465 I0.0318 J0.0536
G1 X3.977
X3.983 Y5.7468
X3.9889 Y5.7476
X3.9948 Y5.7489
X4.0005 Y5.7507
X4.0061 Y5.7529
X4.0121 Y5.7558
X4.0181 Y5.759
X4.0252 Y5.7635
X4.0325 Y5.7686
X4.0411 Y5.7754
X4.0495 Y5.7829
X4.0597 Y5.793
X4.0698 Y5.8043
X4.0812 Y5.8186
X4.0937 Y5.8362
X4.1068 Y5.8571
X4.1187 Y5.8788
X4.1296 Y5.901
X4.1395 Y5.9237
X4.1486 Y5.9467
X4.1567 Y5.9701
X4.1641 Y5.9937
X4.1706 Y6.0176
X4.1763 Y6.0417
X4.1812 Y6.0659
X4.1852 Y6.0903
X4.1885 Y6.1149
X4.1909 Y6.1395
X4.1924 Y6.1642
X4.1932 Y6.1889
X4.1931 Y6.2137
X4.1921 Y6.2384
X4.1904 Y6.2631
X4.1878 Y6.2877
X4.1844 Y6.3122
X4.1801 Y6.3366
X4.1751 Y6.3608
X4.1693 Y6.3849
X4.1626 Y6.4087
X4.1552 Y6.4323
X4.147 Y6.4557
X4.138 Y6.4787
X4.1283 Y6.5015
X4.1178 Y6.5239
X4.1066 Y6.5459
X4.0946 Y6.5676
X4.0819 Y6.5888
X4.0727 Y6.6027
X4.0661 Y6.6116
X4.0635 Y6.6146
X4.0574 Y6.6205
X4.0501 Y6.6249
X4.0421 Y6.6276
X4.0337 Y6.6285
X3.9986
G0 Z0.2
X3.9372 Y5.7613
Z-0.1414
G1 Z-0.1532 F30.
X3.9374 Y5.7611 Z-0.1558
X3.9382 Y5.7607 Z-0.1583
X3.9394 Y5.7599 Z-0.1606
X3.941 Y5.759 Z-0.1624
X3.9429 Y5.7578 Z-0.1638
X3.945 Y5.7566 Z-0.1647
X3.9473 Y5.7552 Z-0.165
G3 X3.977 Y5.7465 I0.0318 J0.0536
G1 X4.0132
X4.0192 Y5.7468
X4.0251 Y5.7478
X4.0309 Y5.7494
X4.0366 Y5.7514
X4.0421 Y5.7537
X4.0477 Y5.7566
X4.0542 Y5.7603
X4.0609 Y5.7647
X4.0686 Y5.7704
X4.0764 Y5.7769
X4.0858 Y5.7856
X4.0949 Y5.7951
X4.1057 Y5.8079
X4.117 Y5.8227
X4.1287 Y5.8401
X4.1413 Y5.8613
X4.1527 Y5.8833
X4.1631 Y5.9058
X4.1725 Y5.9286
X4.1811 Y5.9519
X4.1888 Y5.9754
X4.1957 Y5.9991
X4.2019 Y6.0231
X4.2072 Y6.0473
X4.2117 Y6.0716
X4.2154 Y6.0961
X4.2183 Y6.1206
X4.2204 Y6.1453
X4.2217 Y6.17
X4.2223 Y6.1947
X4.222 Y6.2195
X4.2209 Y6.2442
X4.2191 Y6.2689
X4.2164 Y6.2935
X4.2129 Y6.318
X4.2087 Y6.3424
X4.2037 Y6.3666
X4.1979 Y6.3906
X4.1913 Y6.4145
X4.1839 Y6.4381
X4.1758 Y6.4615
X4.167 Y6.4846
X4.1574 Y6.5074
X4.1471 Y6.53
X4.1361 Y6.5521
X4.1244 Y6.5739
X4.1125 Y6.5943
X4.1054 Y6.605
X4.0998 Y6.6124
X4.0979 Y6.6147
X4.0918 Y6.6205
X4.0845 Y6.6249
X4.0765 Y6.6276
X4.0681 Y6.6285
X4.0337
G0 Z0.2
X3.9734 Y5.7613
Z-0.1414
G1 Z-0.1532 F30.
X3.9737 Y5.7611 Z-0.1558
X3.9744 Y5.7607 Z-0.1583
X3.9756 Y5.7599 Z-0.1606
X3.9772 Y5.759 Z-0.1624
X3.9791 Y5.7578 Z-0.1638
X3.9813 Y5.7566 Z-0.1647
X3.9835 Y5.7552 Z-0.165
G3 X4.0132 Y5.7465 I0.0318 J0.0536
G1 X4.0469
X4.0529 Y5.7468
X4.0588 Y5.7478
X4.0646 Y5.7494
X4.0703 Y5.7514
X4.0758 Y5.7538
X4.0816 Y5.7568
X4.0876 Y5.7603
X4.0946 Y5.765
X4.1017 Y5.7703
X4.1099 Y5.7772
X4.1184 Y5.7853
X4.1277 Y5.7951
X4.1383 Y5.8078
X4.1485 Y5.8215
X4.1601 Y5.839
X4.1725 Y5.8603
X4.1837 Y5.8823
X4.1938 Y5.9049
X4.2031 Y5.9279
X4.2114 Y5.9512
X4.2189 Y5.9748
X4.2256 Y5.9986
X4.2316 Y6.0226
X4.2367 Y6.0468
X4.2411 Y6.0712
X4.2447 Y6.0956
X4.2475 Y6.1202
X4.2496 Y6.1449
X4.2509 Y6.1696
X4.2514 Y6.1943
X4.2512 Y6.2191
X4.2502 Y6.2438
X4.2484 Y6.2685
X4.2458 Y6.2931
X4.2425 Y6.3176
X4.2384 Y6.342
X4.2335 Y6.3663
X4.2279 Y6.3904
X4.2216 Y6.4143
X4.2145 Y6.438
X4.2067 Y6.4615
X4.1982 Y6.4847
X4.189 Y6.5077
X4.179 Y6.5304
X4.1684 Y6.5527
X4.1571 Y6.5747
X4.1464 Y6.5938
X4.1398 Y6.604
X4.1343 Y6.6116
X4.1322 Y6.6142
X4.126 Y6.6202
X4.1187 Y6.6247
X4.1105 Y6.6276
X4.102 Y6.6285
X4.0681
G0 Z0.2
X4.0071 Y5.7613
Z-0.1414
G1 Z-0.1532 F30.
X4.0074 Y5.7611 Z-0.1558
X4.0081 Y5.7607 Z-0.1583
X4.0093 Y5.7599 Z-0.1606
X4.0109 Y5.759 Z-0.1624
X4.0129 Y5.7578 Z-0.1638
X4.015 Y5.7566 Z-0.1647
X4.0173 Y5.7552 Z-0.165
G3 X4.0469 Y5.7465 I0.0318 J0.0536
G1 X4.0806
X4.0866 Y5.7468
X4.0925 Y5.7479
X4.0983 Y5.7495
X4.1039 Y5.7516
X4.1094 Y5.7541
X4.1151 Y5.7571
X4.1212 Y5.7607
X4.1281 Y5.7654
X4.1352 Y5.7709
X4.143 Y5.7776
X4.1516 Y5.7859
X4.1604 Y5.7956
X4.1709 Y5.8083
X4.1809 Y5.8219
X4.1921 Y5.8393
X4.2041 Y5.8605
X4.2151 Y5.8827
X4.225 Y5.9054
X4.234 Y5.9284
X4.2421 Y5.9518
X4.2493 Y5.9755
X4.2558 Y5.9994
X4.2615 Y6.0234
X4.2665 Y6.0477
X4.2707 Y6.0721
X4.2742 Y6.0966
X4.2769 Y6.1212
X4.2789 Y6.1458
X4.2801 Y6.1705
X4.2806 Y6.1953
X4.2804 Y6.22
X4.2793 Y6.2448
X4.2776 Y6.2694
X4.2751 Y6.2941
X4.2718 Y6.3186
X4.2678 Y6.343
X4.2631 Y6.3673
X4.2577 Y6.3914
X4.2515 Y6.4154
X4.2447 Y6.4392
X4.2371 Y6.4627
X4.2288 Y6.4861
X4.2199 Y6.5091
X4.2102 Y6.5319
X4.1999 Y6.5544
X4.1889 Y6.5766
X4.1795 Y6.5938
X4.1733 Y6.6037
X4.1681 Y6.6111
X4.1659 Y6.6138
X4.1597 Y6.62
X4.1523 Y6.6247
X4.1441 Y6.6275
X4.1354 Y6.6285
X4.102
G0 Z0.2
X4.0408 Y5.7613
Z-0.1414
G1 Z-0.1532 F30.
X4.0411 Y5.7611 Z-0.1558
X4.0418 Y5.7607 Z-0.1583
X4.043 Y5.7599 Z-0.1606
X4.0446 Y5.759 Z-0.1624
X4.0466 Y5.7578 Z-0.1638
X4.0487 Y5.7566 Z-0.1647
X4.051 Y5.7552 Z-0.165
G3 X4.0806 Y5.7465 I0.0318 J0.0536
G1 X4.1118
X4.1178 Y5.7468
X4.1238 Y5.7477
X4.1296 Y5.7492
X4.1352 Y5.7511
X4.1407 Y5.7535
X4.1464 Y5.7564
X4.152 Y5.7597
X4.1588 Y5.7642
X4.1654 Y5.7692
X4.1732 Y5.7757
X4.1809 Y5.783
X4.1898 Y5.7925
X4.1992 Y5.8036
X4.2091 Y5.8168
X4.22 Y5.8333
X4.2315 Y5.853
X4.2427 Y5.8751
X4.2528 Y5.8977
X4.2618 Y5.9207
X4.27 Y5.9441
X4.2773 Y5.9677
X4.2839 Y5.9916
X4.2897 Y6.0156
X4.2947 Y6.0399
X4.299 Y6.0642
X4.3026 Y6.0887
X4.3054 Y6.1133
X4.3076 Y6.138
X4.309 Y6.1627
X4.3097 Y6.1874
Y6.2121
X4.3089 Y6.2369
X4.3074 Y6.2616
X4.3052 Y6.2862
X4.3023 Y6.3108
X4.2987 Y6.3353
X4.2944 Y6.3596
X4.2893 Y6.3839
X4.2836 Y6.4079
X4.2772 Y6.4318
X4.2701 Y6.4555
X4.2623 Y6.479
X4.2539 Y6.5023
X4.2448 Y6.5253
X4.235 Y6.548
X4.2246 Y6.5705
X4.2146 Y6.5898
X4.2082 Y6.6006
X4.2026 Y6.609
X4.1986 Y6.6144
X4.1982 Y6.6148
X4.1921 Y6.6206
X4.1849 Y6.6249
X4.1769 Y6.6276
X4.1685 Y6.6285
X4.1354
G0 Z0.2
X4.072 Y5.7613
Z-0.1414
G1 Z-0.1532 F30.
X4.0723 Y5.7611 Z-0.1558
X4.073 Y5.7607 Z-0.1583
X4.0742 Y5.7599 Z-0.1606
X4.0758 Y5.759 Z-0.1624
X4.0778 Y5.7578 Z-0.1638
X4.0799 Y5.7566 Z-0.1647
X4.0822 Y5.7552 Z-0.165
G3 X4.1118 Y5.7465 I0.0318 J0.0536
G1 X4.1455
X4.1515 Y5.7468
X4.1574 Y5.7479
X4.1632 Y5.7495
X4.1688 Y5.7516
X4.1743 Y5.7541
X4.1796 Y5.7569
X4.1858 Y5.7606
X4.1919 Y5.7649
X4.1992 Y5.7705
X4.2063 Y5.7767
X4.2148 Y5.785
X4.223 Y5.794
X4.2326 Y5.8058
X4.2428 Y5.8199
X4.253 Y5.8358
X4.2642 Y5.8558
X4.2751 Y5.878
X4.2848 Y5.9008
X4.2936 Y5.924
X4.3014 Y5.9474
X4.3084 Y5.9711
X4.3147 Y5.9951
X4.3202 Y6.0192
X4.325 Y6.0435
X4.3291 Y6.0679
X4.3324 Y6.0924
X4.3351 Y6.117
X4.3371 Y6.1417
X4.3384 Y6.1664
X4.3389 Y6.1911
X4.3388 Y6.2159
X4.338 Y6.2406
X4.3365 Y6.2653
X4.3342 Y6.29
X4.3313 Y6.3145
X4.3277 Y6.339
X4.3234 Y6.3634
X4.3185 Y6.3876
X4.3128 Y6.4117
X4.3065 Y6.4356
X4.2995 Y6.4594
X4.2919 Y6.4829
X4.2836 Y6.5062
X4.2747 Y6.5293
X4.2651 Y6.5521
X4.2548 Y6.5746
X4.246 Y6.5917
X4.2403 Y6.6014
X4.235 Y6.6094
X4.231 Y6.6147
X4.2249 Y6.6205
X4.2177 Y6.6249
X4.2096 Y6.6276
X4.2012 Y6.6285
X4.1685
G0 Z0.2
X4.1057 Y5.7613
Z-0.1414
G1 Z-0.1532 F30.
X4.106 Y5.7611 Z-0.1558
X4.1067 Y5.7607 Z-0.1583
X4.1079 Y5.7599 Z-0.1606
X4.1096 Y5.759 Z-0.1624
X4.1115 Y5.7578 Z-0.1638
X4.1136 Y5.7566 Z-0.1647
X4.1159 Y5.7552 Z-0.165
G3 X4.1455 Y5.7465 I0.0318 J0.0536
G1 X4.1762
X4.1822 Y5.7468
X4.1881 Y5.7477
X4.1939 Y5.7491
X4.1996 Y5.7511
X4.2051 Y5.7535
X4.2105 Y5.7563
X4.2161 Y5.7597
X4.2224 Y5.7639
X4.229 Y5.7689
X4.2364 Y5.7752
X4.2441 Y5.7826
X4.2524 Y5.7915
X4.2617 Y5.8027
X4.2708 Y5.8149
X4.2811 Y5.8308
X4.292 Y5.8497
X4.3031 Y5.8718
X4.313 Y5.8945
X4.3218 Y5.9176
X4.3297 Y5.9411
X4.3368 Y5.9648
X4.3431 Y5.9887
X4.3487 Y6.0128
X4.3535 Y6.0371
X4.3576 Y6.0615
X4.3611 Y6.086
X4.3639 Y6.1106
X4.3659 Y6.1352
X4.3673 Y6.16
X4.3681 Y6.1847
Y6.2094
X4.3675 Y6.2342
X4.3662 Y6.2589
X4.3642 Y6.2835
X4.3616 Y6.3082
X4.3582 Y6.3327
X4.3543 Y6.3571
X4.3496 Y6.3814
X4.3443 Y6.4056
X4.3384 Y6.4296
X4.3318 Y6.4534
X4.3245 Y6.4771
X4.3167 Y6.5006
X4.3082 Y6.5238
X4.2991 Y6.5468
X4.2892 Y6.5695
X4.2803 Y6.5879
X4.274 Y6.5992
X4.2688 Y6.6074
X4.2648 Y6.6131
X4.264 Y6.614
X4.2578 Y6.6201
X4.2505 Y6.6247
X4.2423 Y6.6276
X4.2336 Y6.6285
X4.2012
G0 Z0.2
X4.1364 Y5.7613
Z-0.1414
G1 Z-0.1532 F30.
X4.1366 Y5.7611 Z-0.1558
X4.1374 Y5.7607 Z-0.1583
X4.1386 Y5.7599 Z-0.1606
X4.1402 Y5.759 Z-0.1624
X4.1421 Y5.7578 Z-0.1638
X4.1442 Y5.7566 Z-0.1647
X4.1465 Y5.7552 Z-0.165
G3 X4.1762 Y5.7465 I0.0318 J0.0536
G1 X4.2087
X4.2147 Y5.7468
X4.2207 Y5.7478
X4.2265 Y5.7494
X4.2321 Y5.7514
X4.2376 Y5.7539
X4.2429 Y5.7567
X4.2489 Y5.7604
X4.2549 Y5.7645
X4.2619 Y5.7699
X4.2687 Y5.7759
X4.2767 Y5.7838
X4.2848 Y5.7926
X4.2938 Y5.8037
X4.3037 Y5.8174
X4.3132 Y5.8324
X4.3239 Y5.8514
X4.3347 Y5.8736
X4.3443 Y5.8964
X4.3529 Y5.9196
X4.3606 Y5.9431
X4.3674 Y5.9669
X4.3735 Y5.9909
X4.3789 Y6.015
X4.3835 Y6.0394
X4.3875 Y6.0638
X4.3908 Y6.0883
X4.3934 Y6.1129
X4.3954 Y6.1376
X4.3967 Y6.1623
X4.3974 Y6.187
Y6.2118
X4.3967 Y6.2365
X4.3954 Y6.2612
X4.3934 Y6.2859
X4.3908 Y6.3105
X4.3875 Y6.335
X4.3836 Y6.3594
X4.379 Y6.3838
X4.3738 Y6.408
X4.368 Y6.432
X4.3615 Y6.4559
X4.3544 Y6.4796
X4.3467 Y6.5031
X4.3384 Y6.5264
X4.3295 Y6.5495
X4.3198 Y6.5723
X4.3116 Y6.5894
X4.306 Y6.5994
X4.3008 Y6.6076
X4.2997 Y6.6092
X4.2943 Y6.6153
X4.2877 Y6.6201
X4.2803 Y6.6235
X4.2724 Y6.6253
X4.2605 Y6.6266
X4.2436 Y6.6283
X4.238 Y6.6285
X4.2336
G0 Z0.2
X4.1689 Y5.7613
Z-0.1414
G1 Z-0.1532 F30.
X4.1692 Y5.7611 Z-0.1558
X4.1699 Y5.7607 Z-0.1583
X4.1712 Y5.7599 Z-0.1606
X4.1728 Y5.759 Z-0.1624
X4.1747 Y5.7578 Z-0.1638
X4.1768 Y5.7566 Z-0.1647
X4.1791 Y5.7552 Z-0.165
G3 X4.2087 Y5.7465 I0.0318 J0.0536
G1 X4.238
X4.2411 Y5.7466
X4.2471 Y5.7471
X4.253 Y5.7481
X4.2587 Y5.7497
X4.2644 Y5.7518
X4.2698 Y5.7544
X4.2751 Y5.7572
X4.281 Y5.7609
X4.287 Y5.7651
X4.294 Y5.7706
X4.3008 Y5.7767
X4.3088 Y5.7847
X4.3167 Y5.7934
X4.3256 Y5.8046
X4.3352 Y5.8181
X4.3447 Y5.8333
X4.3551 Y5.8523
X4.3658 Y5.8746
X4.3752 Y5.8975
X4.3836 Y5.9208
X4.3911 Y5.9444
X4.3978 Y5.9682
X4.4037 Y5.9922
X4.4089 Y6.0164
X4.4134 Y6.0408
X4.4172 Y6.0652
X4.4204 Y6.0898
X4.4229 Y6.1144
X4.4248 Y6.1391
X4.4261 Y6.1638
X4.4267 Y6.1885
X4.4266 Y6.2132
X4.426 Y6.238
X4.4247 Y6.2627
X4.4227 Y6.2874
X4.4201 Y6.312
X4.4169 Y6.3365
X4.413 Y6.361
X4.4086 Y6.3853
X4.4035 Y6.4095
X4.3978 Y6.4336
X4.3915 Y6.4575
X4.3845 Y6.4813
X4.377 Y6.5048
X4.3689 Y6.5282
X4.3602 Y6.5514
X4.3506 Y6.5742
X4.3434 Y6.5892
X4.3402 Y6.5951
X4.3346 Y6.6027
X4.3274 Y6.6088
X4.3189 Y6.613
X4.2914 Y6.6227
X4.29 Y6.6231
X4.2886 Y6.6234
X4.2724 Y6.6253
G3 X4.2648 Y6.6038 I-0.0009 J-0.0118
G1 X4.267 Y6.6023 Z-0.1647
X4.269 Y6.6009 Z-0.1638
X4.2709 Y6.5996 Z-0.1624
X4.2724 Y6.5986 Z-0.1606
X4.2736 Y6.5978 Z-0.1583
X4.2743 Y6.5973 Z-0.1558
X4.2745 Y6.5971 Z-0.1532
G0 Z0.2
X4.2008 Y5.7601
Z-0.1414
G1 Z-0.1532 F30.
X4.2011 Y5.7599 Z-0.1558
X4.2018 Y5.7595 Z-0.1583
X4.2031 Y5.7588 Z-0.1606
X4.2047 Y5.7579 Z-0.1624
X4.2067 Y5.7568 Z-0.1638
X4.2088 Y5.7556 Z-0.1647
X4.2111 Y5.7544 Z-0.165
G3 X4.2411 Y5.7466 I0.0301 J0.0546
G1 X4.2436 Y5.7467
X4.2605 Y5.7484
X4.2804 Y5.7507
X4.2863 Y5.7516
X4.2922 Y5.753
X4.2978 Y5.755
X4.3033 Y5.7575
X4.3086 Y5.7603
X4.3142 Y5.7638
X4.3198 Y5.7676
X4.3264 Y5.7729
X4.3329 Y5.7786
X4.3405 Y5.7861
X4.3479 Y5.7944
X4.3565 Y5.805
X4.3654 Y5.8176
X4.3747 Y5.8324
X4.3848 Y5.8507
X4.3955 Y5.8728
X4.4049 Y5.8957
X4.4133 Y5.919
X4.4207 Y5.9426
X4.4273 Y5.9664
X4.4331 Y5.9905
X4.4372 Y6.0095
X4.4376 Y6.0121
X4.4379 Y6.0148
X4.438 Y6.0175
G3 X4.416 Y6.023 I-0.0118 J-0.0004
G1 X4.4158 Y6.0226
X4.2719 Y5.7729
X4.2693 Y5.7683
G3 X4.2804 Y5.7507 I0.0102 J-0.0059
G1 X4.2886 Y5.7516
X4.29 Y5.7519
X4.2914 Y5.7523
X4.3279 Y5.7651
X4.3307 Y5.7664
X4.356 Y5.7823
X4.3591 Y5.7842
X4.3605 Y5.7851
X4.3654 Y5.7885
X4.368 Y5.7907
X4.3698 Y5.7924
G3 X4.3539 Y5.8097 I-0.0086 J0.008
G1 X4.3473 Y5.8046
G3 X4.3605 Y5.7851 I0.0073 J-0.0093
G1 X4.3643 Y5.7875
X4.3658 Y5.7885
X4.3672 Y5.7898
X4.3761 Y5.7987
X4.3865 Y5.8102
X4.3935 Y5.8189
X4.4008 Y5.829
X4.409 Y5.8421
X4.4173 Y5.8569
X4.4244 Y5.8716
X4.425 Y5.873
X4.4256 Y5.8744
X4.4261 Y5.8757
G3 X4.4049 Y5.8857 I-0.0113 J0.0035
G1 X4.3582 Y5.8138
G3 X4.3761 Y5.7987 I0.0099 J-0.0064
G1 X4.3953 Y5.8179
X4.396 Y5.8188
X4.3966 Y5.8196
X4.4178 Y5.8533
X4.4188 Y5.855
X4.4208 Y5.8606
X4.4306 Y5.8887
X4.4326 Y5.8943
X4.4334 Y5.8999
X4.4372 Y5.9337
X4.4377 Y5.9393
X4.438 Y5.9562
Y6.3442
X4.4368 Y6.3689
X4.435 Y6.3881
X4.4314 Y6.4126
X4.4264 Y6.4368
X4.4205 Y6.4609
X4.4139 Y6.4847
X4.4066 Y6.5084
X4.3987 Y6.5318
X4.39 Y6.555
X4.3878 Y6.5604
X4.3856 Y6.5649
X4.3827 Y6.5692
X4.3794 Y6.573
G3 X4.3599 Y6.5615 I-0.008 J-0.0086
G1 X4.36 Y6.5609
X4.4148 Y6.3417
G3 X4.4262 Y6.3328 I0.0114 J0.0029
X4.438 Y6.3442 I0. J0.0118
G1 Y6.4229
X4.4378 Y6.4285
X4.4371 Y6.4398
X4.4368 Y6.4454
X4.4336 Y6.4735
X4.4329 Y6.4791
X4.4312 Y6.4847
X4.4194 Y6.5185
X4.4187 Y6.5201
X4.4178 Y6.5217
X4.3971 Y6.5546
X4.3963 Y6.5558
X4.3953 Y6.557
X4.3672 Y6.5852
X4.3664 Y6.586
X4.3616 Y6.5892
X4.331 Y6.6085
X4.3294 Y6.6093
X4.3279 Y6.6099
X4.3189 Y6.613
X4.3172 Y6.6134
X4.3154 Y6.6136
G3 X4.3068 Y6.5937 I0. J-0.0118
G1 X4.3086 Y6.5918 Z-0.1647
X4.3103 Y6.59 Z-0.1638
X4.3118 Y6.5883 Z-0.1624
X4.313 Y6.587 Z-0.1606
X4.314 Y6.5859 Z-0.1583
X4.3146 Y6.5853 Z-0.1558
X4.3148 Y6.5851 Z-0.1532
G0 Z0.6

M9
M30
