(X4 FEEDER PLATE 1 CENTERDRILL1)
(T3  D=0.118 CR=0. - ZMIN=-0.0312 - FLAT END MILL)
G90 G94 G91.1 G40 G49 G17
G20

(DRILL1)
M5
T3 M6
S15000 M3
g4 p5
G54
M8
G0 X5.3095 Y9.25
G43 Z0.6 H3
Z0.2
G98 G81 X5.3095 Y9.25 Z-0.0312 R0.2 F5.
Y8.75
Y8.25
Y7.75
Y7.25
Y6.75
Y6.25
Y5.75
Y5.25
Y4.75
Y4.25
Y3.75
Y3.25
Y2.75
Y2.25
Y1.75
Y1.25
Y0.75
Y0.25
G80
Z0.6

M9
M30
