(1001)
(T1  D=3.175 CR=0. - ZMIN=-16.875 - FLAT END MILL)
G90 G94 G91.1 G40 G49 G17
G21
G0 Z15

(2D POCKET1)
M5
T1 M6
S15000 M3
G54
M8
G0 X-77.867 Y84.138
G43 Z15. H1
Z5.
G1 Z2.5 F1600.
Z0.067 F100.
X-77.887 Y84.124 Z-0.054
X-77.937 Y84.077 Z-0.157
X-77.967 Y84.035 Z-0.191
X-77.99 Y83.989 Z-0.226
X-78.007 Y83.931 Z-0.238
X-78.013 Y83.871 Z-0.25
G3 X-77.029 I0.492 J0. F1600.
X-78.013 I-0.492 J0.
X-77.029 Z-0.304 I0.492 J0. F800.
X-78.013 Z-0.358 I-0.492 J0.
X-77.029 Z-0.412 I0.492 J0.
X-78.013 Z-0.466 I-0.492 J0.
X-77.326 Y83.419 Z-0.5 I0.492 J0.
X-77.716 Y84.323 I-0.195 J0.452 F1600.
X-77.326 Y83.419 I0.195 J-0.452
X-77.716 Y84.323 Z-0.554 I-0.195 J0.452 F800.
X-77.326 Y83.419 Z-0.608 I0.195 J-0.452
X-77.716 Y84.323 Z-0.662 I-0.195 J0.452
X-77.326 Y83.419 Z-0.716 I0.195 J-0.452
X-77.183 Y84.229 Z-0.75 I-0.195 J0.452
X-77.858 Y83.512 I-0.337 J-0.358 F1600.
X-77.183 Y84.229 I0.337 J0.358
X-77.858 Y83.512 Z-0.804 I-0.337 J-0.358 F800.
X-77.183 Y84.229 Z-0.858 I0.337 J0.358
X-77.858 Y83.512 Z-0.912 I-0.337 J-0.358
X-77.183 Y84.229 Z-0.966 I0.337 J0.358
X-77.984 Y84.038 Z-1. I-0.337 J-0.358
X-77.058 Y83.703 I0.463 J-0.167 F1600.
X-77.984 Y84.038 I-0.463 J0.167
X-77.058 Y83.703 Z-1.054 I0.463 J-0.167 F800.
X-77.984 Y84.038 Z-1.108 I-0.463 J0.167
X-77.058 Y83.703 Z-1.162 I0.463 J-0.167
X-77.984 Y84.038 Z-1.216 I-0.463 J0.167
X-77.491 Y83.38 Z-1.25 I0.463 J-0.167
X-77.551 Y84.362 I-0.03 J0.491 F1600.
X-77.491 Y83.38 I0.03 J-0.491
X-77.551 Y84.362 Z-1.304 I-0.03 J0.491 F800.
X-77.491 Y83.38 Z-1.358 I0.03 J-0.491
X-77.551 Y84.362 Z-1.412 I-0.03 J0.491
X-77.491 Y83.38 Z-1.466 I0.03 J-0.491
X-77.082 Y84.093 Z-1.5 I-0.03 J0.491
X-77.96 Y83.649 I-0.439 J-0.222 F1600.
X-77.082 Y84.093 I0.439 J0.222
X-77.96 Y83.649 Z-1.554 I-0.439 J-0.222 F800.
X-77.082 Y84.093 Z-1.608 I0.439 J0.222
X-77.96 Y83.649 Z-1.662 I-0.439 J-0.222
X-77.082 Y84.093 Z-1.716 I0.439 J0.222
X-77.899 Y84.186 Z-1.75 I-0.439 J-0.222
X-77.143 Y83.556 I0.378 J-0.315 F1600.
X-77.899 Y84.186 I-0.378 J0.315
X-77.143 Y83.556 Z-1.804 I0.378 J-0.315 F800.
X-77.899 Y84.186 Z-1.858 I-0.378 J0.315
X-77.143 Y83.556 Z-1.912 I0.378 J-0.315
X-77.899 Y84.186 Z-1.966 I-0.378 J0.315
X-77.66 Y83.399 Z-2. I0.378 J-0.315
X-77.382 Y84.343 I0.139 J0.472 F1600.
X-77.66 Y83.399 I-0.139 J-0.472
X-77.382 Y84.343 Z-2.054 I0.139 J0.472 F800.
X-77.66 Y83.399 Z-2.108 I-0.139 J-0.472
X-77.382 Y84.343 Z-2.162 I0.139 J0.472
X-77.66 Y83.399 Z-2.216 I-0.139 J-0.472
X-77.032 Y83.93 Z-2.25 I0.139 J0.472
X-78.009 Y83.811 I-0.489 J-0.06 F1600.
X-77.032 Y83.93 I0.489 J0.06
X-78.009 Y83.811 Z-2.304 I-0.489 J-0.06 F800.
X-77.032 Y83.93 Z-2.358 I0.489 J0.06
X-78.009 Y83.811 Z-2.412 I-0.489 J-0.06
X-77.032 Y83.93 Z-2.466 I0.489 J0.06
X-77.769 Y84.296 Z-2.5 I-0.489 J-0.06
X-77.272 Y83.446 I0.248 J-0.425 F1600.
X-77.769 Y84.296 I-0.248 J0.425
X-77.272 Y83.446 Z-2.554 I0.248 J-0.425 F800.
X-77.769 Y84.296 Z-2.608 I-0.248 J0.425
X-77.272 Y83.446 Z-2.662 I0.248 J-0.425
X-77.769 Y84.296 Z-2.716 I-0.248 J0.425
X-77.812 Y83.474 Z-2.75 I0.248 J-0.425
X-77.229 Y84.267 I0.291 J0.397 F1600.
X-77.812 Y83.474 I-0.291 J-0.397
X-77.229 Y84.267 Z-2.804 I0.291 J0.397 F800.
X-77.812 Y83.474 Z-2.858 I-0.291 J-0.397
X-77.229 Y84.267 Z-2.912 I0.291 J0.397
X-77.812 Y83.474 Z-2.966 I-0.291 J-0.397
X-77.041 Y83.761 Z-3. I0.291 J0.397
X-78. Y83.981 I-0.48 J0.11 F1600.
X-77.041 Y83.761 I0.48 J-0.11
X-78. Y83.981 Z-3.054 I-0.48 J0.11 F800.
X-77.041 Y83.761 Z-3.108 I0.48 J-0.11
X-78. Y83.981 Z-3.162 I-0.48 J0.11
X-77.041 Y83.761 Z-3.216 I0.48 J-0.11
X-77.61 Y84.355 Z-3.25 I-0.48 J0.11
X-77.432 Y83.387 I0.089 J-0.484 F1600.
X-77.61 Y84.355 I-0.089 J0.484
X-77.432 Y83.387 Z-3.304 I0.089 J-0.484 F800.
X-77.61 Y84.355 Z-3.358 I-0.089 J0.484
X-77.432 Y83.387 Z-3.412 I0.089 J-0.484
X-77.61 Y84.355 Z-3.466 I-0.089 J0.484
X-77.93 Y83.597 Z-3.5 I0.089 J-0.484
X-77.112 Y84.145 I0.409 J0.274 F1600.
X-77.93 Y83.597 I-0.409 J-0.274
X-77.112 Y84.145 Z-3.554 I0.409 J0.274 F800.
X-77.93 Y83.597 Z-3.608 I-0.409 J-0.274
X-77.112 Y84.145 Z-3.662 I0.409 J0.274
X-77.93 Y83.597 Z-3.716 I-0.409 J-0.274
X-77.107 Y83.604 Z-3.75 I0.409 J0.274
X-77.934 Y84.138 I-0.414 J0.267 F1600.
X-77.107 Y83.604 I0.414 J-0.267
X-77.934 Y84.138 Z-3.804 I-0.414 J0.267 F800.
X-77.107 Y83.604 Z-3.858 I0.414 J-0.267
X-77.934 Y84.138 Z-3.912 I-0.414 J0.267
X-77.107 Y83.604 Z-3.966 I0.414 J-0.267
X-77.44 Y84.356 Z-4. I-0.414 J0.267
X-77.602 Y83.385 I-0.081 J-0.485 F1600.
X-77.44 Y84.356 I0.081 J0.485
X-77.602 Y83.385 Z-4.054 I-0.081 J-0.485 F800.
X-77.44 Y84.356 Z-4.108 I0.081 J0.485
X-77.602 Y83.385 Z-4.162 I-0.081 J-0.485
X-77.44 Y84.356 Z-4.216 I0.081 J0.485
X-77.999 Y83.753 Z-4.25 I-0.081 J-0.485
X-77.043 Y83.989 I0.478 J0.118 F1600.
X-77.999 Y83.753 I-0.478 J-0.118
X-77.043 Y83.989 Z-4.304 I0.478 J0.118 F800.
X-77.999 Y83.753 Z-4.358 I-0.478 J-0.118
X-77.043 Y83.989 Z-4.412 I0.478 J0.118
X-77.999 Y83.753 Z-4.466 I-0.478 J-0.118
X-77.223 Y83.479 Z-4.5 I0.478 J0.118
X-77.819 Y84.262 I-0.298 J0.392 F1600.
X-77.223 Y83.479 I0.298 J-0.392
X-77.819 Y84.262 Z-4.554 I-0.298 J0.392 F800.
X-77.223 Y83.479 Z-4.608 I0.298 J-0.392
X-77.819 Y84.262 Z-4.662 I-0.298 J0.392
X-77.223 Y83.479 Z-4.716 I0.298 J-0.392
X-77.279 Y84.3 Z-4.75 I-0.298 J0.392
X-77.762 Y83.442 I-0.241 J-0.429 F1600.
X-77.279 Y84.3 I0.241 J0.429
X-77.762 Y83.442 Z-4.804 I-0.241 J-0.429 F800.
X-77.279 Y84.3 Z-4.858 I0.241 J0.429
X-77.762 Y83.442 Z-4.912 I-0.241 J-0.429
X-77.279 Y84.3 Z-4.966 I0.241 J0.429
X-78.01 Y83.922 Z-5. I-0.241 J-0.429
X-77.031 Y83.819 I0.49 J-0.051 F1600.
X-78.01 Y83.922 I-0.49 J0.051
X-77.031 Y83.819 Z-5.054 I0.49 J-0.051 F800.
X-78.01 Y83.922 Z-5.108 I-0.49 J0.051
X-77.031 Y83.819 Z-5.162 I0.49 J-0.051
X-78.01 Y83.922 Z-5.216 I-0.49 J0.051
X-77.374 Y83.401 Z-5.25 I0.49 J-0.051
X-77.668 Y84.341 I-0.147 J0.47 F1600.
X-77.374 Y83.401 I0.147 J-0.47
X-77.668 Y84.341 Z-5.304 I-0.147 J0.47 F800.
X-77.374 Y83.401 Z-5.358 I0.147 J-0.47
X-77.668 Y84.341 Z-5.412 I-0.147 J0.47
X-77.374 Y83.401 Z-5.466 I0.147 J-0.47
X-77.148 Y84.192 Z-5.5 I-0.147 J0.47
X-77.894 Y83.55 I-0.373 J-0.321 F1600.
X-77.148 Y84.192 I0.373 J0.321
X-77.894 Y83.55 Z-5.554 I-0.373 J-0.321 F800.
X-77.148 Y84.192 Z-5.608 I0.373 J0.321
X-77.894 Y83.55 Z-5.662 I-0.373 J-0.321
X-77.148 Y84.192 Z-5.716 I0.373 J0.321
X-77.964 Y84.086 Z-5.75 I-0.373 J-0.321
X-77.078 Y83.656 I0.443 J-0.215 F1600.
X-77.964 Y84.086 I-0.443 J0.215
X-77.078 Y83.656 Z-5.804 I0.443 J-0.215 F800.
X-77.964 Y84.086 Z-5.858 I-0.443 J0.215
X-77.078 Y83.656 Z-5.912 I0.443 J-0.215
X-77.964 Y84.086 Z-5.966 I-0.443 J0.215
X-77.542 Y83.379 Z-6. I0.443 J-0.215
X-77.499 Y84.363 I0.022 J0.492 F1600.
X-77.542 Y83.379 I-0.022 J-0.492
X-77.499 Y84.363 Z-6.054 I0.022 J0.492 F800.
X-77.542 Y83.379 Z-6.108 I-0.022 J-0.492
X-77.499 Y84.363 Z-6.162 I0.022 J0.492
X-77.542 Y83.379 Z-6.216 I-0.022 J-0.492
X-77.061 Y84.046 Z-6.25 I0.022 J0.492
X-77.981 Y83.696 I-0.46 J-0.175 F1600.
X-77.061 Y84.046 I0.46 J0.175
X-77.981 Y83.696 Z-6.304 I-0.46 J-0.175 F800.
X-77.061 Y84.046 Z-6.358 I0.46 J0.175
X-77.981 Y83.696 Z-6.412 I-0.46 J-0.175
X-77.061 Y84.046 Z-6.466 I0.46 J0.175
X-77.864 Y84.224 Z-6.5 I-0.46 J-0.175
X-77.178 Y83.518 I0.343 J-0.353 F1600.
X-77.864 Y84.224 I-0.343 J0.353
X-77.178 Y83.518 Z-6.554 I0.343 J-0.353 F800.
X-77.864 Y84.224 Z-6.608 I-0.343 J0.353
X-77.178 Y83.518 Z-6.662 I0.343 J-0.353
X-77.864 Y84.224 Z-6.716 I-0.343 J0.353
X-77.708 Y83.416 Z-6.75 I0.343 J-0.353
X-77.333 Y84.326 I0.188 J0.455 F1600.
X-77.708 Y83.416 I-0.188 J-0.455
X-77.333 Y84.326 Z-6.804 I0.188 J0.455 F800.
X-77.708 Y83.416 Z-6.858 I-0.188 J-0.455
X-77.333 Y84.326 Z-6.912 I0.188 J0.455
X-77.708 Y83.416 Z-6.966 I-0.188 J-0.455
X-77.029 Y83.879 Z-7. I0.188 J0.455
X-78.013 Y83.863 I-0.492 J-0.008 F1600.
X-77.029 Y83.879 I0.492 J0.008
X-78.013 Y83.863 Z-7.054 I-0.492 J-0.008 F800.
X-77.029 Y83.879 Z-7.108 I0.492 J0.008
X-78.013 Y83.863 Z-7.162 I-0.492 J-0.008
X-77.029 Y83.879 Z-7.216 I0.492 J0.008
X-77.724 Y84.319 Z-7.25 I-0.492 J-0.008
X-77.318 Y83.422 I0.203 J-0.449 F1600.
X-77.724 Y84.319 I-0.203 J0.449
X-77.318 Y83.422 Z-7.304 I0.203 J-0.449 F800.
X-77.724 Y84.319 Z-7.358 I-0.203 J0.449
X-77.318 Y83.422 Z-7.412 I0.203 J-0.449
X-77.724 Y84.319 Z-7.466 I-0.203 J0.449
X-77.852 Y83.507 Z-7.5 I0.203 J-0.449
X-77.19 Y84.235 I0.331 J0.364 F1600.
X-77.852 Y83.507 I-0.331 J-0.364
X-77.19 Y84.235 Z-7.554 I0.331 J0.364 F800.
X-77.852 Y83.507 Z-7.608 I-0.331 J-0.364
X-77.19 Y84.235 Z-7.662 I0.331 J0.364
X-77.852 Y83.507 Z-7.716 I-0.331 J-0.364
X-77.055 Y83.711 Z-7.75 I0.331 J0.364
X-77.986 Y84.031 I-0.466 J0.16 F1600.
X-77.055 Y83.711 I0.466 J-0.16
X-77.986 Y84.031 Z-7.804 I-0.466 J0.16 F800.
X-77.055 Y83.711 Z-7.858 I0.466 J-0.16
X-77.986 Y84.031 Z-7.912 I-0.466 J0.16
X-77.055 Y83.711 Z-7.966 I0.466 J-0.16
X-77.559 Y84.362 Z-8. I-0.466 J0.16
X-77.483 Y83.38 I0.038 J-0.491 F1600.
X-77.559 Y84.362 I-0.038 J0.491
X-77.483 Y83.38 Z-8.054 I0.038 J-0.491 F800.
X-77.559 Y84.362 Z-8.108 I-0.038 J0.491
X-77.483 Y83.38 Z-8.162 I0.038 J-0.491
X-77.559 Y84.362 Z-8.216 I-0.038 J0.491
X-77.956 Y83.641 Z-8.25 I0.038 J-0.491
X-77.085 Y84.1 I0.435 J0.23 F1600.
X-77.956 Y83.641 I-0.435 J-0.23
X-77.085 Y84.1 Z-8.304 I0.435 J0.23 F800.
X-77.956 Y83.641 Z-8.358 I-0.435 J-0.23
X-77.085 Y84.1 Z-8.412 I0.435 J0.23
X-77.956 Y83.641 Z-8.466 I-0.435 J-0.23
X-77.137 Y83.562 Z-8.5 I0.435 J0.23
X-77.904 Y84.179 I-0.383 J0.309 F1600.
X-77.137 Y83.562 I0.383 J-0.309
X-77.904 Y84.179 Z-8.554 I-0.383 J0.309 F800.
X-77.137 Y83.562 Z-8.608 I0.383 J-0.309
X-77.904 Y84.179 Z-8.662 I-0.383 J0.309
X-77.137 Y83.562 Z-8.716 I0.383 J-0.309
X-77.39 Y84.345 Z-8.75 I-0.383 J0.309
X-77.652 Y83.396 I-0.131 J-0.474 F1600.
X-77.39 Y84.345 I0.131 J0.474
X-77.652 Y83.396 Z-8.804 I-0.131 J-0.474 F800.
X-77.39 Y84.345 Z-8.858 I0.131 J0.474
X-77.652 Y83.396 Z-8.912 I-0.131 J-0.474
X-77.39 Y84.345 Z-8.966 I0.131 J0.474
X-78.008 Y83.803 Z-9. I-0.131 J-0.474
X-77.033 Y83.939 I0.488 J0.068 F1600.
X-78.008 Y83.803 I-0.488 J-0.068
X-77.033 Y83.939 Z-9.054 I0.488 J0.068 F800.
X-78.008 Y83.803 Z-9.108 I-0.488 J-0.068
X-77.033 Y83.939 Z-9.162 I0.488 J0.068
X-78.008 Y83.803 Z-9.216 I-0.488 J-0.068
X-77.265 Y83.45 Z-9.25 I0.488 J0.068
X-77.776 Y84.291 I-0.256 J0.421 F1600.
X-77.265 Y83.45 I0.256 J-0.421
X-77.776 Y84.291 Z-9.304 I-0.256 J0.421 F800.
X-77.265 Y83.45 Z-9.358 I0.256 J-0.421
X-77.776 Y84.291 Z-9.412 I-0.256 J0.421
X-77.265 Y83.45 Z-9.466 I0.256 J-0.421
X-77.236 Y84.272 Z-9.5 I-0.256 J0.421
X-77.806 Y83.469 I-0.285 J-0.401 F1600.
X-77.236 Y84.272 I0.285 J0.401
X-77.806 Y83.469 Z-9.554 I-0.285 J-0.401 F800.
X-77.236 Y84.272 Z-9.608 I0.285 J0.401
X-77.806 Y83.469 Z-9.662 I-0.285 J-0.401
X-77.236 Y84.272 Z-9.716 I0.285 J0.401
X-78.002 Y83.973 Z-9.75 I-0.285 J-0.401
X-77.039 Y83.769 I0.481 J-0.102 F1600.
X-78.002 Y83.973 I-0.481 J0.102
X-77.039 Y83.769 Z-9.804 I0.481 J-0.102 F800.
X-78.002 Y83.973 Z-9.858 I-0.481 J0.102
X-77.039 Y83.769 Z-9.912 I0.481 J-0.102
X-78.002 Y83.973 Z-9.966 I-0.481 J0.102
X-77.424 Y83.388 Z-10. I0.481 J-0.102
X-77.618 Y84.353 I-0.097 J0.483 F1600.
X-77.424 Y83.388 I0.097 J-0.483
X-77.618 Y84.353 Z-10.054 I-0.097 J0.483 F800.
X-77.424 Y83.388 Z-10.108 I0.097 J-0.483
X-77.618 Y84.353 Z-10.162 I-0.097 J0.483
X-77.424 Y83.388 Z-10.216 I0.097 J-0.483
X-77.116 Y84.151 Z-10.25 I-0.097 J0.483
X-77.925 Y83.59 I-0.404 J-0.281 F1600.
X-77.116 Y84.151 I0.404 J0.281
X-77.925 Y83.59 Z-10.304 I-0.404 J-0.281 F800.
X-77.116 Y84.151 Z-10.358 I0.404 J0.281
X-77.925 Y83.59 Z-10.412 I-0.404 J-0.281
X-77.116 Y84.151 Z-10.466 I0.404 J0.281
X-77.939 Y84.131 Z-10.5 I-0.404 J-0.281
X-77.103 Y83.611 I0.418 J-0.26 F1600.
X-77.939 Y84.131 I-0.418 J0.26
X-77.103 Y83.611 Z-10.554 I0.418 J-0.26 F800.
X-77.939 Y84.131 Z-10.608 I-0.418 J0.26
X-77.103 Y83.611 Z-10.662 I0.418 J-0.26
X-77.939 Y84.131 Z-10.716 I-0.418 J0.26
X-77.594 Y83.384 Z-10.75 I0.418 J-0.26
X-77.448 Y84.358 I0.073 J0.487 F1600.
X-77.594 Y83.384 I-0.073 J-0.487
X-77.448 Y84.358 Z-10.804 I0.073 J0.487 F800.
X-77.594 Y83.384 Z-10.858 I-0.073 J-0.487
X-77.448 Y84.358 Z-10.912 I0.073 J0.487
X-77.594 Y83.384 Z-10.966 I-0.073 J-0.487
X-77.045 Y83.997 Z-11. I0.073 J0.487
X-77.997 Y83.745 I-0.476 J-0.126 F1600.
X-77.045 Y83.997 I0.476 J0.126
X-77.997 Y83.745 Z-11.054 I-0.476 J-0.126 F800.
X-77.045 Y83.997 Z-11.108 I0.476 J0.126
X-77.997 Y83.745 Z-11.162 I-0.476 J-0.126
X-77.045 Y83.997 Z-11.216 I0.476 J0.126
X-77.825 Y84.257 Z-11.25 I-0.476 J-0.126
X-77.216 Y83.484 I0.305 J-0.387 F1600.
X-77.825 Y84.257 I-0.305 J0.387
X-77.216 Y83.484 Z-11.304 I0.305 J-0.387 F800.
X-77.825 Y84.257 Z-11.358 I-0.305 J0.387
X-77.216 Y83.484 Z-11.412 I0.305 J-0.387
X-77.825 Y84.257 Z-11.466 I-0.305 J0.387
X-77.755 Y83.438 Z-11.5 I0.305 J-0.387
X-77.287 Y84.304 I0.234 J0.433 F1600.
X-77.755 Y83.438 I-0.234 J-0.433
X-77.287 Y84.304 Z-11.554 I0.234 J0.433 F800.
X-77.755 Y83.438 Z-11.608 I-0.234 J-0.433
X-77.287 Y84.304 Z-11.662 I0.234 J0.433
X-77.755 Y83.438 Z-11.716 I-0.234 J-0.433
X-77.031 Y83.828 Z-11.75 I0.234 J0.433
X-78.011 Y83.914 I-0.49 J0.043 F1600.
X-77.031 Y83.828 I0.49 J-0.043
X-78.011 Y83.914 Z-11.804 I-0.49 J0.043 F800.
X-77.03 Y83.828 Z-11.858 I0.49 J-0.043
X-78.011 Y83.914 Z-11.912 I-0.49 J0.043
X-77.03 Y83.828 Z-11.966 I0.49 J-0.043
X-77.676 Y84.338 Z-12. I-0.49 J0.043
X-77.366 Y83.404 I0.155 J-0.467 F1600.
X-77.676 Y84.338 I-0.155 J0.467
X-77.366 Y83.404 Z-12.054 I0.155 J-0.467 F800.
X-77.676 Y84.338 Z-12.108 I-0.155 J0.467
X-77.366 Y83.404 Z-12.162 I0.155 J-0.467
X-77.676 Y84.338 Z-12.216 I-0.155 J0.467
X-77.888 Y83.543 Z-12.25 I0.155 J-0.467
X-77.153 Y84.198 I0.367 J0.327 F1600.
X-77.888 Y83.543 I-0.367 J-0.327
X-77.153 Y84.198 Z-12.304 I0.367 J0.327 F800.
X-77.888 Y83.543 Z-12.358 I-0.367 J-0.327
X-77.153 Y84.198 Z-12.412 I0.367 J0.327
X-77.888 Y83.543 Z-12.466 I-0.367 J-0.327
X-77.074 Y83.663 Z-12.5 I0.367 J0.327
X-77.967 Y84.078 I-0.446 J0.207 F1600.
X-77.074 Y83.663 I0.446 J-0.207
X-77.967 Y84.078 Z-12.554 I-0.446 J0.207 F800.
X-77.074 Y83.663 Z-12.608 I0.446 J-0.207
X-77.967 Y84.078 Z-12.662 I-0.446 J0.207
X-77.074 Y83.663 Z-12.716 I0.446 J-0.207
X-77.507 Y84.363 Z-12.75 I-0.446 J0.207
X-77.534 Y83.379 I-0.013 J-0.492 F1600.
X-77.507 Y84.363 I0.013 J0.492
X-77.534 Y83.379 Z-12.804 I-0.013 J-0.492 F800.
X-77.507 Y84.363 Z-12.858 I0.013 J0.492
X-77.534 Y83.379 Z-12.912 I-0.013 J-0.492
X-77.507 Y84.363 Z-12.966 I0.013 J0.492
X-77.978 Y83.688 Z-13. I-0.013 J-0.492
X-77.064 Y84.054 I0.457 J0.183 F1600.
X-77.978 Y83.688 I-0.457 J-0.183
X-77.064 Y84.054 Z-13.054 I0.457 J0.183 F800.
X-77.978 Y83.688 Z-13.108 I-0.457 J-0.183
X-77.064 Y84.054 Z-13.162 I0.457 J0.183
X-77.978 Y83.688 Z-13.216 I-0.457 J-0.183
X-77.172 Y83.524 Z-13.25 I0.457 J0.183
X-77.87 Y84.218 I-0.349 J0.347 F1600.
X-77.172 Y83.524 I0.349 J-0.347
X-77.87 Y84.218 Z-13.304 I-0.349 J0.347 F800.
X-77.172 Y83.524 Z-13.358 I0.349 J-0.347
X-77.87 Y84.218 Z-13.412 I-0.349 J0.347
X-77.172 Y83.524 Z-13.466 I0.349 J-0.347
X-77.341 Y84.329 Z-13.5 I-0.349 J0.347
X-77.701 Y83.413 I-0.18 J-0.458 F1600.
X-77.341 Y84.329 I0.18 J0.458
X-77.701 Y83.413 Z-13.554 I-0.18 J-0.458 F800.
X-77.341 Y84.329 Z-13.608 I0.18 J0.458
X-77.701 Y83.413 Z-13.662 I-0.18 J-0.458
X-77.341 Y84.329 Z-13.716 I0.18 J0.458
X-78.013 Y83.854 Z-13.75 I-0.18 J-0.458
X-77.029 Y83.887 I0.492 J0.016 F1600.
X-78.013 Y83.854 I-0.492 J-0.016
X-77.029 Y83.887 Z-13.804 I0.492 J0.016 F800.
X-78.013 Y83.854 Z-13.858 I-0.492 J-0.016
X-77.029 Y83.887 Z-13.912 I0.492 J0.016
X-78.013 Y83.854 Z-13.966 I-0.492 J-0.016
X-77.311 Y83.426 Z-14. I0.492 J0.016
X-77.731 Y84.316 I-0.21 J0.445 F1600.
X-77.311 Y83.426 I0.21 J-0.445
X-77.731 Y84.316 Z-14.054 I-0.21 J0.445 F800.
X-77.311 Y83.426 Z-14.108 I0.21 J-0.445
X-77.731 Y84.316 Z-14.162 I-0.21 J0.445
X-77.311 Y83.426 Z-14.216 I0.21 J-0.445
X-77.196 Y84.24 Z-14.25 I-0.21 J0.445
X-77.846 Y83.501 I-0.325 J-0.369 F1600.
X-77.196 Y84.24 I0.325 J0.369
X-77.846 Y83.501 Z-14.304 I-0.325 J-0.369 F800.
X-77.196 Y84.24 Z-14.358 I0.325 J0.369
X-77.846 Y83.501 Z-14.412 I-0.325 J-0.37
X-77.196 Y84.24 Z-14.466 I0.325 J0.37
X-77.989 Y84.023 Z-14.5 I-0.325 J-0.37
X-77.053 Y83.719 I0.468 J-0.152 F1600.
X-77.989 Y84.023 I-0.468 J0.152
X-77.053 Y83.719 Z-14.554 I0.468 J-0.152 F800.
X-77.989 Y84.023 Z-14.608 I-0.468 J0.152
X-77.053 Y83.719 Z-14.662 I0.468 J-0.152
X-77.989 Y84.023 Z-14.716 I-0.468 J0.152
X-77.475 Y83.381 Z-14.75 I0.468 J-0.152
X-77.567 Y84.361 I-0.046 J0.49 F1600.
X-77.475 Y83.381 I0.046 J-0.49
X-77.567 Y84.361 Z-14.804 I-0.046 J0.49 F800.
X-77.475 Y83.381 Z-14.858 I0.046 J-0.49
X-77.567 Y84.361 Z-14.912 I-0.046 J0.49
X-77.475 Y83.381 Z-14.966 I0.046 J-0.49
X-77.089 Y84.108 Z-15. I-0.046 J0.49
X-77.952 Y83.634 I-0.431 J-0.237 F1600.
X-77.089 Y84.108 I0.431 J0.237
X-77.952 Y83.634 Z-15.054 I-0.431 J-0.237 F800.
X-77.089 Y84.108 Z-15.108 I0.431 J0.237
X-77.952 Y83.634 Z-15.162 I-0.431 J-0.237
X-77.089 Y84.108 Z-15.216 I0.431 J0.237
X-77.909 Y84.173 Z-15.25 I-0.431 J-0.237
X-77.132 Y83.569 I0.389 J-0.302 F1600.
X-77.909 Y84.173 I-0.389 J0.302
X-77.132 Y83.569 Z-15.304 I0.389 J-0.302 F800.
X-77.909 Y84.173 Z-15.358 I-0.389 J0.302
X-77.132 Y83.569 Z-15.412 I0.389 J-0.302
X-77.909 Y84.173 Z-15.466 I-0.389 J0.302
X-77.644 Y83.394 Z-15.5 I0.389 J-0.302
X-77.398 Y84.347 I0.123 J0.477 F1600.
X-77.644 Y83.394 I-0.123 J-0.477
X-77.398 Y84.347 Z-15.554 I0.123 J0.477 F800.
X-77.644 Y83.394 Z-15.608 I-0.123 J-0.477
X-77.398 Y84.347 Z-15.662 I0.123 J0.477
X-77.644 Y83.394 Z-15.716 I-0.123 J-0.477
X-77.034 Y83.947 Z-15.75 I0.123 J0.477
X-78.007 Y83.795 I-0.486 J-0.076 F1600.
X-77.034 Y83.947 I0.486 J0.076
X-78.007 Y83.795 Z-15.804 I-0.486 J-0.076 F800.
X-77.034 Y83.947 Z-15.858 I0.486 J0.076
X-78.007 Y83.795 Z-15.912 I-0.486 J-0.076
X-77.034 Y83.947 Z-15.966 I0.486 J0.076
X-77.783 Y84.287 Z-16. I-0.486 J-0.076
X-77.258 Y83.454 I0.263 J-0.416 F1600.
X-77.783 Y84.287 I-0.263 J0.416
X-77.258 Y83.454 Z-16.054 I0.263 J-0.416 F800.
X-77.783 Y84.287 Z-16.108 I-0.263 J0.416
X-77.258 Y83.454 Z-16.162 I0.263 J-0.416
X-77.783 Y84.287 Z-16.216 I-0.263 J0.416
X-77.799 Y83.465 Z-16.25 I0.263 J-0.416
X-77.243 Y84.277 I0.278 J0.406 F1600.
X-77.799 Y83.465 I-0.278 J-0.406
X-77.243 Y84.277 Z-16.304 I0.278 J0.406 F800.
X-77.799 Y83.465 Z-16.358 I-0.278 J-0.406
X-77.243 Y84.277 Z-16.412 I0.278 J0.406
X-77.799 Y83.465 Z-16.466 I-0.278 J-0.406
X-77.038 Y83.777 Z-16.5 I0.278 J0.406
X-78.004 Y83.965 I-0.483 J0.094 F1600.
X-77.038 Y83.777 I0.483 J-0.094
X-78.004 Y83.965 Z-16.554 I-0.483 J0.094 F800.
X-77.038 Y83.777 Z-16.608 I0.483 J-0.094
X-78.004 Y83.965 Z-16.662 I-0.483 J0.094
X-77.038 Y83.777 Z-16.716 I0.483 J-0.094
X-77.626 Y84.352 Z-16.75 I-0.483 J0.094
X-77.416 Y83.39 I0.105 J-0.481 F1600.
X-77.626 Y84.352 I-0.105 J0.481
X-77.416 Y83.39 Z-16.804 I0.105 J-0.481 F800.
X-77.626 Y84.352 Z-16.858 I-0.105 J0.481
X-77.98 Y84.047 Z-16.875 I0.105 J-0.481
X-77.061 Y83.695 I0.46 J-0.176 F1600.
X-77.98 Y84.047 I-0.46 J0.176
G1 X-77.997 Y83.989 Z-16.863
X-78.001 Y83.928 Z-16.851
X-77.996 Y83.877 Z-16.816
X-77.983 Y83.827 Z-16.782
X-77.953 Y83.765 Z-16.679
X-77.94 Y83.745 Z-16.558
G0 Z5.
X-96.195 Y100.425
G1 Z2.817 F1600.
X-96.177 Y100.41 Z2.698 F800.
X-96.124 Y100.371 Z2.597
X-96.041 Y100.316 Z2.527
X-95.939 Y100.258 Z2.5
G3 X-94.561 Y102.942 Z2.335 I0.689 J1.342
X-95.939 Y100.258 Z2.169 I-0.689 J-1.342
X-94.561 Y102.942 Z2.004 I0.689 J1.342
X-95.939 Y100.258 Z1.838 I-0.689 J-1.342
X-94.561 Y102.942 Z1.673 I0.689 J1.342
X-95.939 Y100.258 Z1.507 I-0.689 J-1.342
X-94.561 Y102.942 Z1.342 I0.689 J1.342
X-95.939 Y100.258 Z1.176 I-0.689 J-1.342
X-94.561 Y102.942 Z1.011 I0.689 J1.342
X-95.939 Y100.258 Z0.845 I-0.689 J-1.342
X-94.561 Y102.942 Z0.68 I0.689 J1.342
X-95.939 Y100.258 Z0.515 I-0.689 J-1.342
X-94.561 Y102.942 Z0.349 I0.689 J1.342
X-95.939 Y100.258 Z0.184 I-0.689 J-1.342
X-94.561 Y102.942 Z0.018 I0.689 J1.342
X-95.939 Y100.258 Z-0.147 I-0.689 J-1.342
X-93.748 Y101.459 Z-0.25 I0.689 J1.342
X-94.347 Y102.136 I-0.616 J0.058 F1600.
X-95.25 Y102.148 I-0.903 J-31.548
Y101.051 I0. J-0.549
Y102.148 I0. J0.549
G2 X-96.819 Y102.939 I0. J1.952
G3 X-98.551 Y102.651 I-0.793 J-0.587
X-91.949 Y100.549 I3.301 J-1.051
X-98.551 Y102.651 I-3.301 J1.051
G2 X-100.161 Y101.178 I-2.087 J0.665
G3 X-101.182 Y99.249 I0.313 J-1.4
X-89.318 Y103.951 I5.932 J2.351
X-101.182 Y99.249 I-5.932 J-2.351
G2 X-101.565 Y96.952 I-2.097 J-0.831
G3 X-101.402 Y94.629 I1.262 J-1.079
X-89.098 Y108.571 I6.152 J6.971
X-101.402 Y94.629 I-6.152 J-6.971
G2 X-100.692 Y92.293 I-1.538 J-1.743
G3 X-99.573 Y90.124 I1.762 J-0.465
X-90.927 Y113.076 I4.323 J11.476
X-99.573 Y90.124 I-4.323 J-11.476
G1 X-99.524 Y90.114
X-99.475 Y90.119
X-99.43 Y90.139
X-99.393 Y90.172
X-99.369 Y90.215
X-96.926 Y96.513
X-94.926 Y102.891
X-94.919 Y102.936
X-94.925 Y102.982
X-94.944 Y103.024
X-94.974 Y103.059
X-95.013 Y103.083
X-95.057 Y103.096
G3 X-95.443 Y100.104 Z-0.415 I-0.193 J-1.496 F800.
X-93.748 Y101.459 Z-0.5 I0.193 J1.496
X-94.347 Y102.136 I-0.616 J0.058 F1600.
X-95.25 Y102.148 I-0.903 J-31.548
Y101.051 I0. J-0.549
Y102.148 I0. J0.549
G2 X-96.819 Y102.939 I0. J1.952
G3 X-98.551 Y102.651 I-0.793 J-0.587
X-91.949 Y100.549 I3.301 J-1.051
X-98.551 Y102.651 I-3.301 J1.051
G2 X-100.161 Y101.178 I-2.087 J0.665
G3 X-101.182 Y99.249 I0.313 J-1.4
X-89.318 Y103.951 I5.932 J2.351
X-101.182 Y99.249 I-5.932 J-2.351
G2 X-101.565 Y96.952 I-2.097 J-0.831
G3 X-101.402 Y94.629 I1.262 J-1.079
X-89.098 Y108.571 I6.152 J6.971
X-101.402 Y94.629 I-6.152 J-6.971
G2 X-100.692 Y92.293 I-1.538 J-1.743
G3 X-99.573 Y90.124 I1.762 J-0.465
X-90.927 Y113.076 I4.323 J11.476
X-99.573 Y90.124 I-4.323 J-11.476
G1 X-99.524 Y90.114
X-99.475 Y90.119
X-99.43 Y90.139
X-99.393 Y90.172
X-99.369 Y90.215
X-96.926 Y96.513
X-94.926 Y102.891
X-94.919 Y102.936
X-94.925 Y102.982
X-94.944 Y103.024
X-94.974 Y103.059
X-95.013 Y103.083
X-95.057 Y103.096
G3 X-95.443 Y100.104 Z-0.665 I-0.193 J-1.496 F800.
X-93.748 Y101.459 Z-0.75 I0.193 J1.496
X-94.347 Y102.136 I-0.616 J0.058 F1600.
X-95.25 Y102.148 I-0.903 J-31.548
Y101.051 I0. J-0.549
Y102.148 I0. J0.549
G2 X-96.819 Y102.939 I0. J1.952
G3 X-98.551 Y102.651 I-0.793 J-0.587
X-91.949 Y100.549 I3.301 J-1.051
X-98.551 Y102.651 I-3.301 J1.051
G2 X-100.161 Y101.178 I-2.087 J0.665
G3 X-101.182 Y99.249 I0.313 J-1.4
X-89.318 Y103.951 I5.932 J2.351
X-101.182 Y99.249 I-5.932 J-2.351
G2 X-101.565 Y96.952 I-2.097 J-0.831
G3 X-101.402 Y94.629 I1.262 J-1.079
X-89.098 Y108.571 I6.152 J6.971
X-101.402 Y94.629 I-6.152 J-6.971
G2 X-100.692 Y92.293 I-1.538 J-1.743
G3 X-99.573 Y90.124 I1.762 J-0.465
X-90.927 Y113.076 I4.323 J11.476
X-99.573 Y90.124 I-4.323 J-11.476
G1 X-99.524 Y90.114
X-99.475 Y90.119
X-99.43 Y90.139
X-99.393 Y90.172
X-99.369 Y90.215
X-96.926 Y96.513
X-94.926 Y102.891
X-94.919 Y102.936
X-94.925 Y102.982
X-94.944 Y103.024
X-94.974 Y103.059
X-95.013 Y103.083
X-95.057 Y103.096
G3 X-95.443 Y100.104 Z-0.915 I-0.193 J-1.496 F800.
X-93.748 Y101.459 Z-1. I0.193 J1.496
X-94.347 Y102.136 I-0.616 J0.058 F1600.
X-95.25 Y102.148 I-0.903 J-31.548
Y101.051 I0. J-0.549
Y102.148 I0. J0.549
G2 X-96.819 Y102.939 I0. J1.952
G3 X-98.551 Y102.651 I-0.793 J-0.587
X-91.949 Y100.549 I3.301 J-1.051
X-98.551 Y102.651 I-3.301 J1.051
G2 X-100.161 Y101.178 I-2.087 J0.665
G3 X-101.182 Y99.249 I0.313 J-1.4
X-89.318 Y103.951 I5.932 J2.351
X-101.182 Y99.249 I-5.932 J-2.351
G2 X-101.565 Y96.952 I-2.097 J-0.831
G3 X-101.402 Y94.629 I1.262 J-1.079
X-89.098 Y108.571 I6.152 J6.971
X-101.402 Y94.629 I-6.152 J-6.971
G2 X-100.692 Y92.293 I-1.538 J-1.743
G3 X-99.573 Y90.124 I1.762 J-0.465
X-90.927 Y113.076 I4.323 J11.476
X-99.573 Y90.124 I-4.323 J-11.476
G1 X-99.524 Y90.114
X-99.475 Y90.119
X-99.43 Y90.139
X-99.393 Y90.172
X-99.369 Y90.215
X-96.926 Y96.513
X-94.926 Y102.891
X-94.919 Y102.936
X-94.925 Y102.982
X-94.944 Y103.024
X-94.974 Y103.059
X-95.013 Y103.083
X-95.057 Y103.096
G3 X-95.443 Y100.104 Z-1.165 I-0.193 J-1.496 F800.
X-93.748 Y101.459 Z-1.25 I0.193 J1.496
X-94.347 Y102.136 I-0.616 J0.058 F1600.
X-95.25 Y102.148 I-0.903 J-31.548
Y101.051 I0. J-0.549
Y102.148 I0. J0.549
G2 X-96.819 Y102.939 I0. J1.952
G3 X-98.551 Y102.651 I-0.793 J-0.587
X-91.949 Y100.549 I3.301 J-1.051
X-98.551 Y102.651 I-3.301 J1.051
G2 X-100.161 Y101.178 I-2.087 J0.665
G3 X-101.182 Y99.249 I0.313 J-1.4
X-89.318 Y103.951 I5.932 J2.351
X-101.182 Y99.249 I-5.932 J-2.351
G2 X-101.565 Y96.952 I-2.097 J-0.831
G3 X-101.402 Y94.629 I1.262 J-1.079
X-89.098 Y108.571 I6.152 J6.971
X-101.402 Y94.629 I-6.152 J-6.971
G2 X-100.692 Y92.293 I-1.538 J-1.743
G3 X-99.573 Y90.124 I1.762 J-0.465
X-90.927 Y113.076 I4.323 J11.476
X-99.573 Y90.124 I-4.323 J-11.476
G1 X-99.524 Y90.114
X-99.475 Y90.119
X-99.43 Y90.139
X-99.393 Y90.172
X-99.369 Y90.215
X-96.926 Y96.513
X-94.926 Y102.891
X-94.919 Y102.936
X-94.925 Y102.982
X-94.944 Y103.024
X-94.974 Y103.059
X-95.013 Y103.083
X-95.057 Y103.096
G3 X-95.443 Y100.104 Z-1.415 I-0.193 J-1.496 F800.
X-93.748 Y101.459 Z-1.5 I0.193 J1.496
X-94.347 Y102.136 I-0.616 J0.058 F1600.
X-95.25 Y102.148 I-0.903 J-31.548
Y101.051 I0. J-0.549
Y102.148 I0. J0.549
G2 X-96.819 Y102.939 I0. J1.952
G3 X-98.551 Y102.651 I-0.793 J-0.587
X-91.949 Y100.549 I3.301 J-1.051
X-98.551 Y102.651 I-3.301 J1.051
G2 X-100.161 Y101.178 I-2.087 J0.665
G3 X-101.182 Y99.249 I0.313 J-1.4
X-89.318 Y103.951 I5.932 J2.351
X-101.182 Y99.249 I-5.932 J-2.351
G2 X-101.565 Y96.952 I-2.097 J-0.831
G3 X-101.402 Y94.629 I1.262 J-1.079
X-89.098 Y108.571 I6.152 J6.971
X-101.402 Y94.629 I-6.152 J-6.971
G2 X-100.692 Y92.293 I-1.538 J-1.743
G3 X-99.573 Y90.124 I1.762 J-0.465
X-90.927 Y113.076 I4.323 J11.476
X-99.573 Y90.124 I-4.323 J-11.476
G1 X-99.524 Y90.114
X-99.475 Y90.119
X-99.43 Y90.139
X-99.393 Y90.172
X-99.369 Y90.215
X-96.926 Y96.513
X-94.926 Y102.891
X-94.919 Y102.936
X-94.925 Y102.982
X-94.944 Y103.024
X-94.974 Y103.059
X-95.013 Y103.083
X-95.057 Y103.096
G3 X-95.443 Y100.104 Z-1.665 I-0.193 J-1.496 F800.
X-93.748 Y101.459 Z-1.75 I0.193 J1.496
X-94.347 Y102.136 I-0.616 J0.058 F1600.
X-95.25 Y102.148 I-0.903 J-31.548
Y101.051 I0. J-0.549
Y102.148 I0. J0.549
G2 X-96.819 Y102.939 I0. J1.952
G3 X-98.551 Y102.651 I-0.793 J-0.587
X-91.949 Y100.549 I3.301 J-1.051
X-98.551 Y102.651 I-3.301 J1.051
G2 X-100.161 Y101.178 I-2.087 J0.665
G3 X-101.182 Y99.249 I0.313 J-1.4
X-89.318 Y103.951 I5.932 J2.351
X-101.182 Y99.249 I-5.932 J-2.351
G2 X-101.565 Y96.952 I-2.097 J-0.831
G3 X-101.402 Y94.629 I1.262 J-1.079
X-89.098 Y108.571 I6.152 J6.971
X-101.402 Y94.629 I-6.152 J-6.971
G2 X-100.692 Y92.293 I-1.538 J-1.743
G3 X-99.573 Y90.124 I1.762 J-0.465
X-90.927 Y113.076 I4.323 J11.476
X-99.573 Y90.124 I-4.323 J-11.476
G1 X-99.524 Y90.114
X-99.475 Y90.119
X-99.43 Y90.139
X-99.393 Y90.172
X-99.369 Y90.215
X-96.926 Y96.513
X-94.926 Y102.891
X-94.919 Y102.936
X-94.925 Y102.982
X-94.944 Y103.024
X-94.974 Y103.059
X-95.013 Y103.083
X-95.057 Y103.096
G3 X-95.443 Y100.104 Z-1.915 I-0.193 J-1.496 F800.
X-93.748 Y101.459 Z-2. I0.193 J1.496
X-94.347 Y102.136 I-0.616 J0.058 F1600.
X-95.25 Y102.148 I-0.903 J-31.548
Y101.051 I0. J-0.549
Y102.148 I0. J0.549
G2 X-96.819 Y102.939 I0. J1.952
G3 X-98.551 Y102.651 I-0.793 J-0.587
X-91.949 Y100.549 I3.301 J-1.051
X-98.551 Y102.651 I-3.301 J1.051
G2 X-100.161 Y101.178 I-2.087 J0.665
G3 X-101.182 Y99.249 I0.313 J-1.4
X-89.318 Y103.951 I5.932 J2.351
X-101.182 Y99.249 I-5.932 J-2.351
G2 X-101.565 Y96.952 I-2.097 J-0.831
G3 X-101.402 Y94.629 I1.262 J-1.079
X-89.098 Y108.571 I6.152 J6.971
X-101.402 Y94.629 I-6.152 J-6.971
G2 X-100.692 Y92.293 I-1.538 J-1.743
G3 X-99.573 Y90.124 I1.762 J-0.465
X-90.927 Y113.076 I4.323 J11.476
X-99.573 Y90.124 I-4.323 J-11.476
G1 X-99.524 Y90.114
X-99.475 Y90.119
X-99.43 Y90.139
X-99.393 Y90.172
X-99.369 Y90.215
X-96.926 Y96.513
X-94.926 Y102.891
X-94.919 Y102.936
X-94.925 Y102.982
X-94.944 Y103.024
X-94.974 Y103.059
X-95.013 Y103.083
X-95.057 Y103.096
G3 X-95.443 Y100.104 Z-2.165 I-0.193 J-1.496 F800.
X-93.748 Y101.459 Z-2.25 I0.193 J1.496
X-94.347 Y102.136 I-0.616 J0.058 F1600.
X-95.25 Y102.148 I-0.903 J-31.548
Y101.051 I0. J-0.549
Y102.148 I0. J0.549
G2 X-96.819 Y102.939 I0. J1.952
G3 X-98.551 Y102.651 I-0.793 J-0.587
X-91.949 Y100.549 I3.301 J-1.051
X-98.551 Y102.651 I-3.301 J1.051
G2 X-100.161 Y101.178 I-2.087 J0.665
G3 X-101.182 Y99.249 I0.313 J-1.4
X-89.318 Y103.951 I5.932 J2.351
X-101.182 Y99.249 I-5.932 J-2.351
G2 X-101.565 Y96.952 I-2.097 J-0.831
G3 X-101.402 Y94.629 I1.262 J-1.079
X-89.098 Y108.571 I6.152 J6.971
X-101.402 Y94.629 I-6.152 J-6.971
G2 X-100.692 Y92.293 I-1.538 J-1.743
G3 X-99.573 Y90.124 I1.762 J-0.465
X-90.927 Y113.076 I4.323 J11.476
X-99.573 Y90.124 I-4.323 J-11.476
G1 X-99.524 Y90.114
X-99.475 Y90.119
X-99.43 Y90.139
X-99.393 Y90.172
X-99.369 Y90.215
X-96.926 Y96.513
X-94.926 Y102.891
X-94.919 Y102.936
X-94.925 Y102.982
X-94.944 Y103.024
X-94.974 Y103.059
X-95.013 Y103.083
X-95.057 Y103.096
G3 X-95.443 Y100.104 Z-2.415 I-0.193 J-1.496 F800.
X-93.748 Y101.459 Z-2.5 I0.193 J1.496
X-94.347 Y102.136 I-0.616 J0.058 F1600.
X-95.25 Y102.148 I-0.903 J-31.548
Y101.051 I0. J-0.549
Y102.148 I0. J0.549
G2 X-96.819 Y102.939 I0. J1.952
G3 X-98.551 Y102.651 I-0.793 J-0.587
X-91.949 Y100.549 I3.301 J-1.051
X-98.551 Y102.651 I-3.301 J1.051
G2 X-100.161 Y101.178 I-2.087 J0.665
G3 X-101.182 Y99.249 I0.313 J-1.4
X-89.318 Y103.951 I5.932 J2.351
X-101.182 Y99.249 I-5.932 J-2.351
G2 X-101.565 Y96.952 I-2.097 J-0.831
G3 X-101.402 Y94.629 I1.262 J-1.079
X-89.098 Y108.571 I6.152 J6.971
X-101.402 Y94.629 I-6.152 J-6.971
G2 X-100.692 Y92.293 I-1.538 J-1.743
G3 X-99.573 Y90.124 I1.762 J-0.465
X-90.927 Y113.076 I4.323 J11.476
X-99.573 Y90.124 I-4.323 J-11.476
G1 X-99.524 Y90.114
X-99.475 Y90.119
X-99.43 Y90.139
X-99.393 Y90.172
X-99.369 Y90.215
X-96.926 Y96.513
X-94.926 Y102.891
X-94.919 Y102.936
X-94.925 Y102.982
X-94.944 Y103.024
X-94.974 Y103.059
X-95.013 Y103.083
X-95.057 Y103.096
G3 X-95.443 Y100.104 Z-2.665 I-0.193 J-1.496 F800.
X-93.748 Y101.459 Z-2.75 I0.193 J1.496
X-94.347 Y102.136 I-0.616 J0.058 F1600.
X-95.25 Y102.148 I-0.903 J-31.548
Y101.051 I0. J-0.549
Y102.148 I0. J0.549
G2 X-96.819 Y102.939 I0. J1.952
G3 X-98.551 Y102.651 I-0.793 J-0.587
X-91.949 Y100.549 I3.301 J-1.051
X-98.551 Y102.651 I-3.301 J1.051
G2 X-100.161 Y101.178 I-2.087 J0.665
G3 X-101.182 Y99.249 I0.313 J-1.4
X-89.318 Y103.951 I5.932 J2.351
X-101.182 Y99.249 I-5.932 J-2.351
G2 X-101.565 Y96.952 I-2.097 J-0.831
G3 X-101.402 Y94.629 I1.262 J-1.079
X-89.098 Y108.571 I6.152 J6.971
X-101.402 Y94.629 I-6.152 J-6.971
G2 X-100.692 Y92.293 I-1.538 J-1.743
G3 X-99.573 Y90.124 I1.762 J-0.465
X-90.927 Y113.076 I4.323 J11.476
X-99.573 Y90.124 I-4.323 J-11.476
G1 X-99.524 Y90.114
X-99.475 Y90.119
X-99.43 Y90.139
X-99.393 Y90.172
X-99.369 Y90.215
X-96.926 Y96.513
X-94.926 Y102.891
X-94.919 Y102.936
X-94.925 Y102.982
X-94.944 Y103.024
X-94.974 Y103.059
X-95.013 Y103.083
X-95.057 Y103.096
G3 X-95.443 Y100.104 Z-2.915 I-0.193 J-1.496 F800.
X-93.748 Y101.459 Z-3. I0.193 J1.496
X-94.347 Y102.136 I-0.616 J0.058 F1600.
X-95.25 Y102.148 I-0.903 J-31.548
Y101.051 I0. J-0.549
Y102.148 I0. J0.549
G2 X-96.819 Y102.939 I0. J1.952
G3 X-98.551 Y102.651 I-0.793 J-0.587
X-91.949 Y100.549 I3.301 J-1.051
X-98.551 Y102.651 I-3.301 J1.051
G2 X-100.161 Y101.178 I-2.087 J0.665
G3 X-101.182 Y99.249 I0.313 J-1.4
X-89.318 Y103.951 I5.932 J2.351
X-101.182 Y99.249 I-5.932 J-2.351
G2 X-101.565 Y96.952 I-2.097 J-0.831
G3 X-101.402 Y94.629 I1.262 J-1.079
X-89.098 Y108.571 I6.152 J6.971
X-101.402 Y94.629 I-6.152 J-6.971
G2 X-100.692 Y92.293 I-1.538 J-1.743
G3 X-99.573 Y90.124 I1.762 J-0.465
X-90.927 Y113.076 I4.323 J11.476
X-99.573 Y90.124 I-4.323 J-11.476
G1 X-99.524 Y90.114
X-99.475 Y90.119
X-99.43 Y90.139
X-99.393 Y90.172
X-99.369 Y90.215
X-96.926 Y96.513
X-94.926 Y102.891
X-94.919 Y102.936
X-94.925 Y102.982
X-94.944 Y103.024
X-94.974 Y103.059
X-95.013 Y103.083
X-95.057 Y103.096
G3 X-95.443 Y100.104 Z-3.165 I-0.193 J-1.496 F800.
X-93.748 Y101.459 Z-3.25 I0.193 J1.496
X-94.347 Y102.136 I-0.616 J0.058 F1600.
X-95.25 Y102.148 I-0.903 J-31.548
Y101.051 I0. J-0.549
Y102.148 I0. J0.549
G2 X-96.819 Y102.939 I0. J1.952
G3 X-98.551 Y102.651 I-0.793 J-0.587
X-91.949 Y100.549 I3.301 J-1.051
X-98.551 Y102.651 I-3.301 J1.051
G2 X-100.161 Y101.178 I-2.087 J0.665
G3 X-101.182 Y99.249 I0.313 J-1.4
X-89.318 Y103.951 I5.932 J2.351
X-101.182 Y99.249 I-5.932 J-2.351
G2 X-101.565 Y96.952 I-2.097 J-0.831
G3 X-101.402 Y94.629 I1.262 J-1.079
X-89.098 Y108.571 I6.152 J6.971
X-101.402 Y94.629 I-6.152 J-6.971
G2 X-100.692 Y92.293 I-1.538 J-1.743
G3 X-99.573 Y90.124 I1.762 J-0.465
X-90.927 Y113.076 I4.323 J11.476
X-99.573 Y90.124 I-4.323 J-11.476
G1 X-99.524 Y90.114
X-99.475 Y90.119
X-99.43 Y90.139
X-99.393 Y90.172
X-99.369 Y90.215
X-96.926 Y96.513
X-94.926 Y102.891
X-94.919 Y102.936
X-94.925 Y102.982
X-94.944 Y103.024
X-94.974 Y103.059
X-95.013 Y103.083
X-95.057 Y103.096
G3 X-95.443 Y100.104 Z-3.415 I-0.193 J-1.496 F800.
X-93.748 Y101.459 Z-3.5 I0.193 J1.496
X-94.347 Y102.136 I-0.616 J0.058 F1600.
X-95.25 Y102.148 I-0.903 J-31.548
Y101.051 I0. J-0.549
Y102.148 I0. J0.549
G2 X-96.819 Y102.939 I0. J1.952
G3 X-98.551 Y102.651 I-0.793 J-0.587
X-91.949 Y100.549 I3.301 J-1.051
X-98.551 Y102.651 I-3.301 J1.051
G2 X-100.161 Y101.178 I-2.087 J0.665
G3 X-101.182 Y99.249 I0.313 J-1.4
X-89.318 Y103.951 I5.932 J2.351
X-101.182 Y99.249 I-5.932 J-2.351
G2 X-101.565 Y96.952 I-2.097 J-0.831
G3 X-101.402 Y94.629 I1.262 J-1.079
X-89.098 Y108.571 I6.152 J6.971
X-101.402 Y94.629 I-6.152 J-6.971
G2 X-100.692 Y92.293 I-1.538 J-1.743
G3 X-99.573 Y90.124 I1.762 J-0.465
X-90.927 Y113.076 I4.323 J11.476
X-99.573 Y90.124 I-4.323 J-11.476
G1 X-99.524 Y90.114
X-99.475 Y90.119
X-99.43 Y90.139
X-99.393 Y90.172
X-99.369 Y90.215
X-96.926 Y96.513
X-94.926 Y102.891
X-94.919 Y102.936
X-94.925 Y102.982
X-94.944 Y103.024
X-94.974 Y103.059
X-95.013 Y103.083
X-95.057 Y103.096
G3 X-95.443 Y100.104 Z-3.665 I-0.193 J-1.496 F800.
X-93.748 Y101.459 Z-3.75 I0.193 J1.496
X-94.347 Y102.136 I-0.616 J0.058 F1600.
X-95.25 Y102.148 I-0.903 J-31.548
Y101.051 I0. J-0.549
Y102.148 I0. J0.549
G2 X-96.819 Y102.939 I0. J1.952
G3 X-98.551 Y102.651 I-0.793 J-0.587
X-91.949 Y100.549 I3.301 J-1.051
X-98.551 Y102.651 I-3.301 J1.051
G2 X-100.161 Y101.178 I-2.087 J0.665
G3 X-101.182 Y99.249 I0.313 J-1.4
X-89.318 Y103.951 I5.932 J2.351
X-101.182 Y99.249 I-5.932 J-2.351
G2 X-101.565 Y96.952 I-2.097 J-0.831
G3 X-101.402 Y94.629 I1.262 J-1.079
X-89.098 Y108.571 I6.152 J6.971
X-101.402 Y94.629 I-6.152 J-6.971
G2 X-100.692 Y92.293 I-1.538 J-1.743
G3 X-99.573 Y90.124 I1.762 J-0.465
X-90.927 Y113.076 I4.323 J11.476
X-99.573 Y90.124 I-4.323 J-11.476
G1 X-99.524 Y90.114
X-99.475 Y90.119
X-99.43 Y90.139
X-99.393 Y90.172
X-99.369 Y90.215
X-96.926 Y96.513
X-94.926 Y102.891
X-94.919 Y102.936
X-94.925 Y102.982
X-94.944 Y103.024
X-94.974 Y103.059
X-95.013 Y103.083
X-95.057 Y103.096
G3 X-95.443 Y100.104 Z-3.915 I-0.193 J-1.496 F800.
X-93.748 Y101.459 Z-4. I0.193 J1.496
X-94.347 Y102.136 I-0.616 J0.058 F1600.
X-95.25 Y102.148 I-0.903 J-31.548
Y101.051 I0. J-0.549
Y102.148 I0. J0.549
G2 X-96.819 Y102.939 I0. J1.952
G3 X-98.551 Y102.651 I-0.793 J-0.587
X-91.949 Y100.549 I3.301 J-1.051
X-98.551 Y102.651 I-3.301 J1.051
G2 X-100.161 Y101.178 I-2.087 J0.665
G3 X-101.182 Y99.249 I0.313 J-1.4
X-89.318 Y103.951 I5.932 J2.351
X-101.182 Y99.249 I-5.932 J-2.351
G2 X-101.565 Y96.952 I-2.097 J-0.831
G3 X-101.402 Y94.629 I1.262 J-1.079
X-89.098 Y108.571 I6.152 J6.971
X-101.402 Y94.629 I-6.152 J-6.971
G2 X-100.692 Y92.293 I-1.538 J-1.743
G3 X-99.573 Y90.124 I1.762 J-0.465
X-90.927 Y113.076 I4.323 J11.476
X-99.573 Y90.124 I-4.323 J-11.476
G1 X-99.524 Y90.114
X-99.475 Y90.119
X-99.43 Y90.139
X-99.393 Y90.172
X-99.369 Y90.215
X-96.926 Y96.513
X-94.926 Y102.891
X-94.919 Y102.936
X-94.925 Y102.982
X-94.944 Y103.024
X-94.974 Y103.059
X-95.013 Y103.083
X-95.057 Y103.096
G3 X-95.443 Y100.104 Z-4.165 I-0.193 J-1.496 F800.
X-93.748 Y101.459 Z-4.25 I0.193 J1.496
X-94.347 Y102.136 I-0.616 J0.058 F1600.
X-95.25 Y102.148 I-0.903 J-31.548
Y101.051 I0. J-0.549
Y102.148 I0. J0.549
G2 X-96.819 Y102.939 I0. J1.952
G3 X-98.551 Y102.651 I-0.793 J-0.587
X-91.949 Y100.549 I3.301 J-1.051
X-98.551 Y102.651 I-3.301 J1.051
G2 X-100.161 Y101.178 I-2.087 J0.665
G3 X-101.182 Y99.249 I0.313 J-1.4
X-89.318 Y103.951 I5.932 J2.351
X-101.182 Y99.249 I-5.932 J-2.351
G2 X-101.565 Y96.952 I-2.097 J-0.831
G3 X-101.402 Y94.629 I1.262 J-1.079
X-89.098 Y108.571 I6.152 J6.971
X-101.402 Y94.629 I-6.152 J-6.971
G2 X-100.692 Y92.293 I-1.538 J-1.743
G3 X-99.573 Y90.124 I1.762 J-0.465
X-90.927 Y113.076 I4.323 J11.476
X-99.573 Y90.124 I-4.323 J-11.476
G1 X-99.524 Y90.114
X-99.475 Y90.119
X-99.43 Y90.139
X-99.393 Y90.172
X-99.369 Y90.215
X-96.926 Y96.513
X-94.926 Y102.891
X-94.919 Y102.936
X-94.925 Y102.982
X-94.944 Y103.024
X-94.974 Y103.059
X-95.013 Y103.083
X-95.057 Y103.096
G3 X-95.443 Y100.104 Z-4.415 I-0.193 J-1.496 F800.
X-93.748 Y101.459 Z-4.5 I0.193 J1.496
X-94.347 Y102.136 I-0.616 J0.058 F1600.
X-95.25 Y102.148 I-0.903 J-31.548
Y101.051 I0. J-0.549
Y102.148 I0. J0.549
G2 X-96.819 Y102.939 I0. J1.952
G3 X-98.551 Y102.651 I-0.793 J-0.587
X-91.949 Y100.549 I3.301 J-1.051
X-98.551 Y102.651 I-3.301 J1.051
G2 X-100.161 Y101.178 I-2.087 J0.665
G3 X-101.182 Y99.249 I0.313 J-1.4
X-89.318 Y103.951 I5.932 J2.351
X-101.182 Y99.249 I-5.932 J-2.351
G2 X-101.565 Y96.952 I-2.097 J-0.831
G3 X-101.402 Y94.629 I1.262 J-1.079
X-89.098 Y108.571 I6.152 J6.971
X-101.402 Y94.629 I-6.152 J-6.971
G2 X-100.692 Y92.293 I-1.538 J-1.743
G3 X-99.573 Y90.124 I1.762 J-0.465
X-90.927 Y113.076 I4.323 J11.476
X-99.573 Y90.124 I-4.323 J-11.476
G1 X-99.524 Y90.114
X-99.475 Y90.119
X-99.43 Y90.139
X-99.393 Y90.172
X-99.369 Y90.215
X-96.926 Y96.513
X-94.926 Y102.891
X-94.919 Y102.936
X-94.925 Y102.982
X-94.944 Y103.024
X-94.974 Y103.059
X-95.013 Y103.083
X-95.057 Y103.096
G3 X-95.443 Y100.104 Z-4.665 I-0.193 J-1.496 F800.
X-93.748 Y101.459 Z-4.75 I0.193 J1.496
X-94.347 Y102.136 I-0.616 J0.058 F1600.
X-95.25 Y102.148 I-0.903 J-31.548
Y101.051 I0. J-0.549
Y102.148 I0. J0.549
G2 X-96.819 Y102.939 I0. J1.952
G3 X-98.551 Y102.651 I-0.793 J-0.587
X-91.949 Y100.549 I3.301 J-1.051
X-98.551 Y102.651 I-3.301 J1.051
G2 X-100.161 Y101.178 I-2.087 J0.665
G3 X-101.182 Y99.249 I0.313 J-1.4
X-89.318 Y103.951 I5.932 J2.351
X-101.182 Y99.249 I-5.932 J-2.351
G2 X-101.565 Y96.952 I-2.097 J-0.831
G3 X-101.402 Y94.629 I1.262 J-1.079
X-89.098 Y108.571 I6.152 J6.971
X-101.402 Y94.629 I-6.152 J-6.971
G2 X-100.692 Y92.293 I-1.538 J-1.743
G3 X-99.573 Y90.124 I1.762 J-0.465
X-90.927 Y113.076 I4.323 J11.476
X-99.573 Y90.124 I-4.323 J-11.476
G1 X-99.524 Y90.114
X-99.475 Y90.119
X-99.43 Y90.139
X-99.393 Y90.172
X-99.369 Y90.215
X-96.926 Y96.513
X-94.926 Y102.891
X-94.919 Y102.936
X-94.925 Y102.982
X-94.944 Y103.024
X-94.974 Y103.059
X-95.013 Y103.083
X-95.057 Y103.096
G3 X-95.443 Y100.104 Z-4.915 I-0.193 J-1.496 F800.
X-93.748 Y101.459 Z-5. I0.193 J1.496
X-94.347 Y102.136 I-0.616 J0.058 F1600.
X-95.25 Y102.148 I-0.903 J-31.548
Y101.051 I0. J-0.549
Y102.148 I0. J0.549
G2 X-96.819 Y102.939 I0. J1.952
G3 X-98.551 Y102.651 I-0.793 J-0.587
X-91.949 Y100.549 I3.301 J-1.051
X-98.551 Y102.651 I-3.301 J1.051
G2 X-100.161 Y101.178 I-2.087 J0.665
G3 X-101.182 Y99.249 I0.313 J-1.4
X-89.318 Y103.951 I5.932 J2.351
X-101.182 Y99.249 I-5.932 J-2.351
G2 X-101.565 Y96.952 I-2.097 J-0.831
G3 X-101.402 Y94.629 I1.262 J-1.079
X-89.098 Y108.571 I6.152 J6.971
X-101.402 Y94.629 I-6.152 J-6.971
G2 X-100.692 Y92.293 I-1.538 J-1.743
G3 X-99.573 Y90.124 I1.762 J-0.465
X-90.927 Y113.076 I4.323 J11.476
X-99.573 Y90.124 I-4.323 J-11.476
G1 X-99.524 Y90.114
X-99.475 Y90.119
X-99.43 Y90.139
X-99.393 Y90.172
X-99.369 Y90.215
X-96.926 Y96.513
X-94.926 Y102.891
X-94.919 Y102.936
X-94.925 Y102.982
X-94.944 Y103.024
X-94.974 Y103.059
X-95.013 Y103.083
X-95.057 Y103.096
G3 X-95.443 Y100.104 Z-5.165 I-0.193 J-1.496 F800.
X-93.748 Y101.459 Z-5.25 I0.193 J1.496
X-94.347 Y102.136 I-0.616 J0.058 F1600.
X-95.25 Y102.148 I-0.903 J-31.548
Y101.051 I0. J-0.549
Y102.148 I0. J0.549
G2 X-96.819 Y102.939 I0. J1.952
G3 X-98.551 Y102.651 I-0.793 J-0.587
X-91.949 Y100.549 I3.301 J-1.051
X-98.551 Y102.651 I-3.301 J1.051
G2 X-100.161 Y101.178 I-2.087 J0.665
G3 X-101.182 Y99.249 I0.313 J-1.4
X-89.318 Y103.951 I5.932 J2.351
X-101.182 Y99.249 I-5.932 J-2.351
G2 X-101.565 Y96.952 I-2.097 J-0.831
G3 X-101.402 Y94.629 I1.262 J-1.079
X-89.098 Y108.571 I6.152 J6.971
X-101.402 Y94.629 I-6.152 J-6.971
G2 X-100.692 Y92.293 I-1.538 J-1.743
G3 X-99.573 Y90.124 I1.762 J-0.465
X-90.927 Y113.076 I4.323 J11.476
X-99.573 Y90.124 I-4.323 J-11.476
G1 X-99.524 Y90.114
X-99.475 Y90.119
X-99.43 Y90.139
X-99.393 Y90.172
X-99.369 Y90.215
X-96.926 Y96.513
X-94.926 Y102.891
X-94.919 Y102.936
X-94.925 Y102.982
X-94.944 Y103.024
X-94.974 Y103.059
X-95.013 Y103.083
X-95.057 Y103.096
G3 X-95.443 Y100.104 Z-5.415 I-0.193 J-1.496 F800.
X-93.748 Y101.459 Z-5.5 I0.193 J1.496
X-94.347 Y102.136 I-0.616 J0.058 F1600.
X-95.25 Y102.148 I-0.903 J-31.548
Y101.051 I0. J-0.549
Y102.148 I0. J0.549
G2 X-96.819 Y102.939 I0. J1.952
G3 X-98.551 Y102.651 I-0.793 J-0.587
X-91.949 Y100.549 I3.301 J-1.051
X-98.551 Y102.651 I-3.301 J1.051
G2 X-100.161 Y101.178 I-2.087 J0.665
G3 X-101.182 Y99.249 I0.313 J-1.4
X-89.318 Y103.951 I5.932 J2.351
X-101.182 Y99.249 I-5.932 J-2.351
G2 X-101.565 Y96.952 I-2.097 J-0.831
G3 X-101.402 Y94.629 I1.262 J-1.079
X-89.098 Y108.571 I6.152 J6.971
X-101.402 Y94.629 I-6.152 J-6.971
G2 X-100.692 Y92.293 I-1.538 J-1.743
G3 X-99.573 Y90.124 I1.762 J-0.465
X-90.927 Y113.076 I4.323 J11.476
X-99.573 Y90.124 I-4.323 J-11.476
G1 X-99.524 Y90.114
X-99.475 Y90.119
X-99.43 Y90.139
X-99.393 Y90.172
X-99.369 Y90.215
X-96.926 Y96.513
X-94.926 Y102.891
X-94.919 Y102.936
X-94.925 Y102.982
X-94.944 Y103.024
X-94.974 Y103.059
X-95.013 Y103.083
X-95.057 Y103.096
G3 X-95.443 Y100.104 Z-5.665 I-0.193 J-1.496 F800.
X-93.748 Y101.459 Z-5.75 I0.193 J1.496
X-94.347 Y102.136 I-0.616 J0.058 F1600.
X-95.25 Y102.148 I-0.903 J-31.548
Y101.051 I0. J-0.549
Y102.148 I0. J0.549
G2 X-96.819 Y102.939 I0. J1.952
G3 X-98.551 Y102.651 I-0.793 J-0.587
X-91.949 Y100.549 I3.301 J-1.051
X-98.551 Y102.651 I-3.301 J1.051
G2 X-100.161 Y101.178 I-2.087 J0.665
G3 X-101.182 Y99.249 I0.313 J-1.4
X-89.318 Y103.951 I5.932 J2.351
X-101.182 Y99.249 I-5.932 J-2.351
G2 X-101.565 Y96.952 I-2.097 J-0.831
G3 X-101.402 Y94.629 I1.262 J-1.079
X-89.098 Y108.571 I6.152 J6.971
X-101.402 Y94.629 I-6.152 J-6.971
G2 X-100.692 Y92.293 I-1.538 J-1.743
G3 X-99.573 Y90.124 I1.762 J-0.465
X-90.927 Y113.076 I4.323 J11.476
X-99.573 Y90.124 I-4.323 J-11.476
G1 X-99.524 Y90.114
X-99.475 Y90.119
X-99.43 Y90.139
X-99.393 Y90.172
X-99.369 Y90.215
X-96.926 Y96.513
X-94.926 Y102.891
X-94.919 Y102.936
X-94.925 Y102.982
X-94.944 Y103.024
X-94.974 Y103.059
X-95.013 Y103.083
X-95.057 Y103.096
G3 X-95.443 Y100.104 Z-5.915 I-0.193 J-1.496 F800.
X-93.748 Y101.459 Z-6. I0.193 J1.496
X-94.347 Y102.136 I-0.616 J0.058 F1600.
X-95.25 Y102.148 I-0.903 J-31.548
Y101.051 I0. J-0.549
Y102.148 I0. J0.549
G2 X-96.819 Y102.939 I0. J1.952
G3 X-98.551 Y102.651 I-0.793 J-0.587
X-91.949 Y100.549 I3.301 J-1.051
X-98.551 Y102.651 I-3.301 J1.051
G2 X-100.161 Y101.178 I-2.087 J0.665
G3 X-101.182 Y99.249 I0.313 J-1.4
X-89.318 Y103.951 I5.932 J2.351
X-101.182 Y99.249 I-5.932 J-2.351
G2 X-101.565 Y96.952 I-2.097 J-0.831
G3 X-101.402 Y94.629 I1.262 J-1.079
X-89.098 Y108.571 I6.152 J6.971
X-101.402 Y94.629 I-6.152 J-6.971
G2 X-100.692 Y92.293 I-1.538 J-1.743
G3 X-99.573 Y90.124 I1.762 J-0.465
X-90.927 Y113.076 I4.323 J11.476
X-99.573 Y90.124 I-4.323 J-11.476
G1 X-99.524 Y90.114
X-99.475 Y90.119
X-99.43 Y90.139
X-99.393 Y90.172
X-99.369 Y90.215
X-96.926 Y96.513
X-94.926 Y102.891
X-94.919 Y102.936
X-94.925 Y102.982
X-94.944 Y103.024
X-94.974 Y103.059
X-95.013 Y103.083
X-95.057 Y103.096
G3 X-95.443 Y100.104 Z-6.165 I-0.193 J-1.496 F800.
X-93.748 Y101.459 Z-6.25 I0.193 J1.496
X-94.347 Y102.136 I-0.616 J0.058 F1600.
X-95.25 Y102.148 I-0.903 J-31.548
Y101.051 I0. J-0.549
Y102.148 I0. J0.549
G2 X-96.819 Y102.939 I0. J1.952
G3 X-98.551 Y102.651 I-0.793 J-0.587
X-91.949 Y100.549 I3.301 J-1.051
X-98.551 Y102.651 I-3.301 J1.051
G2 X-100.161 Y101.178 I-2.087 J0.665
G3 X-101.182 Y99.249 I0.313 J-1.4
X-89.318 Y103.951 I5.932 J2.351
X-101.182 Y99.249 I-5.932 J-2.351
G2 X-101.565 Y96.952 I-2.097 J-0.831
G3 X-101.402 Y94.629 I1.262 J-1.079
X-89.098 Y108.571 I6.152 J6.971
X-101.402 Y94.629 I-6.152 J-6.971
G2 X-100.692 Y92.293 I-1.538 J-1.743
G3 X-99.573 Y90.124 I1.762 J-0.465
X-90.927 Y113.076 I4.323 J11.476
X-99.573 Y90.124 I-4.323 J-11.476
G1 X-99.524 Y90.114
X-99.475 Y90.119
X-99.43 Y90.139
X-99.393 Y90.172
X-99.369 Y90.215
X-96.926 Y96.513
X-94.926 Y102.891
X-94.919 Y102.936
X-94.925 Y102.982
X-94.944 Y103.024
X-94.974 Y103.059
X-95.013 Y103.083
X-95.057 Y103.096
G3 X-95.443 Y100.104 Z-6.415 I-0.193 J-1.496 F800.
X-93.748 Y101.459 Z-6.5 I0.193 J1.496
X-94.347 Y102.136 I-0.616 J0.058 F1600.
X-95.25 Y102.148 I-0.903 J-31.548
Y101.051 I0. J-0.549
Y102.148 I0. J0.549
G2 X-96.819 Y102.939 I0. J1.952
G3 X-98.551 Y102.651 I-0.793 J-0.587
X-91.949 Y100.549 I3.301 J-1.051
X-98.551 Y102.651 I-3.301 J1.051
G2 X-100.161 Y101.178 I-2.087 J0.665
G3 X-101.182 Y99.249 I0.313 J-1.4
X-89.318 Y103.951 I5.932 J2.351
X-101.182 Y99.249 I-5.932 J-2.351
G2 X-101.565 Y96.952 I-2.097 J-0.831
G3 X-101.402 Y94.629 I1.262 J-1.079
X-89.098 Y108.571 I6.152 J6.971
X-101.402 Y94.629 I-6.152 J-6.971
G2 X-100.692 Y92.293 I-1.538 J-1.743
G3 X-99.573 Y90.124 I1.762 J-0.465
X-90.927 Y113.076 I4.323 J11.476
X-99.573 Y90.124 I-4.323 J-11.476
G1 X-99.524 Y90.114
X-99.475 Y90.119
X-99.43 Y90.139
X-99.393 Y90.172
X-99.369 Y90.215
X-96.926 Y96.513
X-94.926 Y102.891
X-94.919 Y102.936
X-94.925 Y102.982
X-94.944 Y103.024
X-94.974 Y103.059
X-95.013 Y103.083
X-95.057 Y103.096
G3 X-95.443 Y100.104 Z-6.665 I-0.193 J-1.496 F800.
X-93.748 Y101.459 Z-6.75 I0.193 J1.496
X-94.347 Y102.136 I-0.616 J0.058 F1600.
X-95.25 Y102.148 I-0.903 J-31.548
Y101.051 I0. J-0.549
Y102.148 I0. J0.549
G2 X-96.819 Y102.939 I0. J1.952
G3 X-98.551 Y102.651 I-0.793 J-0.587
X-91.949 Y100.549 I3.301 J-1.051
X-98.551 Y102.651 I-3.301 J1.051
G2 X-100.161 Y101.178 I-2.087 J0.665
G3 X-101.182 Y99.249 I0.313 J-1.4
X-89.318 Y103.951 I5.932 J2.351
X-101.182 Y99.249 I-5.932 J-2.351
G2 X-101.565 Y96.952 I-2.097 J-0.831
G3 X-101.402 Y94.629 I1.262 J-1.079
X-89.098 Y108.571 I6.152 J6.971
X-101.402 Y94.629 I-6.152 J-6.971
G2 X-100.692 Y92.293 I-1.538 J-1.743
G3 X-99.573 Y90.124 I1.762 J-0.465
X-90.927 Y113.076 I4.323 J11.476
X-99.573 Y90.124 I-4.323 J-11.476
G1 X-99.524 Y90.114
X-99.475 Y90.119
X-99.43 Y90.139
X-99.393 Y90.172
X-99.369 Y90.215
X-96.926 Y96.513
X-94.926 Y102.891
X-94.919 Y102.936
X-94.925 Y102.982
X-94.944 Y103.024
X-94.974 Y103.059
X-95.013 Y103.083
X-95.057 Y103.096
G3 X-95.443 Y100.104 Z-6.915 I-0.193 J-1.496 F800.
X-93.748 Y101.459 Z-7. I0.193 J1.496
X-94.347 Y102.136 I-0.616 J0.058 F1600.
X-95.25 Y102.148 I-0.903 J-31.548
Y101.051 I0. J-0.549
Y102.148 I0. J0.549
G2 X-96.819 Y102.939 I0. J1.952
G3 X-98.551 Y102.651 I-0.793 J-0.587
X-91.949 Y100.549 I3.301 J-1.051
X-98.551 Y102.651 I-3.301 J1.051
G2 X-100.161 Y101.178 I-2.087 J0.665
G3 X-101.182 Y99.249 I0.313 J-1.4
X-89.318 Y103.951 I5.932 J2.351
X-101.182 Y99.249 I-5.932 J-2.351
G2 X-101.565 Y96.952 I-2.097 J-0.831
G3 X-101.402 Y94.629 I1.262 J-1.079
X-89.098 Y108.571 I6.152 J6.971
X-101.402 Y94.629 I-6.152 J-6.971
G2 X-100.692 Y92.293 I-1.538 J-1.743
G3 X-99.573 Y90.124 I1.762 J-0.465
X-90.927 Y113.076 I4.323 J11.476
X-99.573 Y90.124 I-4.323 J-11.476
G1 X-99.524 Y90.114
X-99.475 Y90.119
X-99.43 Y90.139
X-99.393 Y90.172
X-99.369 Y90.215
X-96.926 Y96.513
X-94.926 Y102.891
X-94.919 Y102.936
X-94.925 Y102.982
X-94.944 Y103.024
X-94.974 Y103.059
X-95.013 Y103.083
X-95.057 Y103.096
G3 X-95.443 Y100.104 Z-7.165 I-0.193 J-1.496 F800.
X-93.748 Y101.459 Z-7.25 I0.193 J1.496
X-94.347 Y102.136 I-0.616 J0.058 F1600.
X-95.25 Y102.148 I-0.903 J-31.548
Y101.051 I0. J-0.549
Y102.148 I0. J0.549
G2 X-96.819 Y102.939 I0. J1.952
G3 X-98.551 Y102.651 I-0.793 J-0.587
X-91.949 Y100.549 I3.301 J-1.051
X-98.551 Y102.651 I-3.301 J1.051
G2 X-100.161 Y101.178 I-2.087 J0.665
G3 X-101.182 Y99.249 I0.313 J-1.4
X-89.318 Y103.951 I5.932 J2.351
X-101.182 Y99.249 I-5.932 J-2.351
G2 X-101.565 Y96.952 I-2.097 J-0.831
G3 X-101.402 Y94.629 I1.262 J-1.079
X-89.098 Y108.571 I6.152 J6.971
X-101.402 Y94.629 I-6.152 J-6.971
G2 X-100.692 Y92.293 I-1.538 J-1.743
G3 X-99.573 Y90.124 I1.762 J-0.465
X-90.927 Y113.076 I4.323 J11.476
X-99.573 Y90.124 I-4.323 J-11.476
G1 X-99.524 Y90.114
X-99.475 Y90.119
X-99.43 Y90.139
X-99.393 Y90.172
X-99.369 Y90.215
X-96.926 Y96.513
X-94.926 Y102.891
X-94.919 Y102.936
X-94.925 Y102.982
X-94.944 Y103.024
X-94.974 Y103.059
X-95.013 Y103.083
X-95.057 Y103.096
G3 X-95.443 Y100.104 Z-7.415 I-0.193 J-1.496 F800.
X-93.748 Y101.459 Z-7.5 I0.193 J1.496
X-94.347 Y102.136 I-0.616 J0.058 F1600.
X-95.25 Y102.148 I-0.903 J-31.548
Y101.051 I0. J-0.549
Y102.148 I0. J0.549
G2 X-96.819 Y102.939 I0. J1.952
G3 X-98.551 Y102.651 I-0.793 J-0.587
X-91.949 Y100.549 I3.301 J-1.051
X-98.551 Y102.651 I-3.301 J1.051
G2 X-100.161 Y101.178 I-2.087 J0.665
G3 X-101.182 Y99.249 I0.313 J-1.4
X-89.318 Y103.951 I5.932 J2.351
X-101.182 Y99.249 I-5.932 J-2.351
G2 X-101.565 Y96.952 I-2.097 J-0.831
G3 X-101.402 Y94.629 I1.262 J-1.079
X-89.098 Y108.571 I6.152 J6.971
X-101.402 Y94.629 I-6.152 J-6.971
G2 X-100.692 Y92.293 I-1.538 J-1.743
G3 X-99.573 Y90.124 I1.762 J-0.465
X-90.927 Y113.076 I4.323 J11.476
X-99.573 Y90.124 I-4.323 J-11.476
G1 X-99.524 Y90.114
X-99.475 Y90.119
X-99.43 Y90.139
X-99.393 Y90.172
X-99.369 Y90.215
X-96.926 Y96.513
X-94.926 Y102.891
X-94.919 Y102.936
X-94.925 Y102.982
X-94.944 Y103.024
X-94.974 Y103.059
X-95.013 Y103.083
X-95.057 Y103.096
G3 X-95.443 Y100.104 Z-7.665 I-0.193 J-1.496 F800.
X-93.748 Y101.459 Z-7.75 I0.193 J1.496
X-94.347 Y102.136 I-0.616 J0.058 F1600.
X-95.25 Y102.148 I-0.903 J-31.548
Y101.051 I0. J-0.549
Y102.148 I0. J0.549
G2 X-96.819 Y102.939 I0. J1.952
G3 X-98.551 Y102.651 I-0.793 J-0.587
X-91.949 Y100.549 I3.301 J-1.051
X-98.551 Y102.651 I-3.301 J1.051
G2 X-100.161 Y101.178 I-2.087 J0.665
G3 X-101.182 Y99.249 I0.313 J-1.4
X-89.318 Y103.951 I5.932 J2.351
X-101.182 Y99.249 I-5.932 J-2.351
G2 X-101.565 Y96.952 I-2.097 J-0.831
G3 X-101.402 Y94.629 I1.262 J-1.079
X-89.098 Y108.571 I6.152 J6.971
X-101.402 Y94.629 I-6.152 J-6.971
G2 X-100.692 Y92.293 I-1.538 J-1.743
G3 X-99.573 Y90.124 I1.762 J-0.465
X-90.927 Y113.076 I4.323 J11.476
X-99.573 Y90.124 I-4.323 J-11.476
G1 X-99.524 Y90.114
X-99.475 Y90.119
X-99.43 Y90.139
X-99.393 Y90.172
X-99.369 Y90.215
X-96.926 Y96.513
X-94.926 Y102.891
X-94.919 Y102.936
X-94.925 Y102.982
X-94.944 Y103.024
X-94.974 Y103.059
X-95.013 Y103.083
X-95.057 Y103.096
G3 X-95.443 Y100.104 Z-7.915 I-0.193 J-1.496 F800.
X-93.748 Y101.459 Z-8. I0.193 J1.496
X-94.347 Y102.136 I-0.616 J0.058 F1600.
X-95.25 Y102.148 I-0.903 J-31.548
Y101.051 I0. J-0.549
Y102.148 I0. J0.549
G2 X-96.819 Y102.939 I0. J1.952
G3 X-98.551 Y102.651 I-0.793 J-0.587
X-91.949 Y100.549 I3.301 J-1.051
X-98.551 Y102.651 I-3.301 J1.051
G2 X-100.161 Y101.178 I-2.087 J0.665
G3 X-101.182 Y99.249 I0.313 J-1.4
X-89.318 Y103.951 I5.932 J2.351
X-101.182 Y99.249 I-5.932 J-2.351
G2 X-101.565 Y96.952 I-2.097 J-0.831
G3 X-101.402 Y94.629 I1.262 J-1.079
X-89.098 Y108.571 I6.152 J6.971
X-101.402 Y94.629 I-6.152 J-6.971
G2 X-100.692 Y92.293 I-1.538 J-1.743
G3 X-99.573 Y90.124 I1.762 J-0.465
X-90.927 Y113.076 I4.323 J11.476
X-99.573 Y90.124 I-4.323 J-11.476
G1 X-99.524 Y90.114
X-99.475 Y90.119
X-99.43 Y90.139
X-99.393 Y90.172
X-99.369 Y90.215
X-96.926 Y96.513
X-94.926 Y102.891
X-94.919 Y102.936
X-94.925 Y102.982
X-94.944 Y103.024
X-94.974 Y103.059
X-95.013 Y103.083
X-95.057 Y103.096
G3 X-95.443 Y100.104 Z-8.165 I-0.193 J-1.496 F800.
X-93.748 Y101.459 Z-8.25 I0.193 J1.496
X-94.347 Y102.136 I-0.616 J0.058 F1600.
X-95.25 Y102.148 I-0.903 J-31.548
Y101.051 I0. J-0.549
Y102.148 I0. J0.549
G2 X-96.819 Y102.939 I0. J1.952
G3 X-98.551 Y102.651 I-0.793 J-0.587
X-91.949 Y100.549 I3.301 J-1.051
X-98.551 Y102.651 I-3.301 J1.051
G2 X-100.161 Y101.178 I-2.087 J0.665
G3 X-101.182 Y99.249 I0.313 J-1.4
X-89.318 Y103.951 I5.932 J2.351
X-101.182 Y99.249 I-5.932 J-2.351
G2 X-101.565 Y96.952 I-2.097 J-0.831
G3 X-101.402 Y94.629 I1.262 J-1.079
X-89.098 Y108.571 I6.152 J6.971
X-101.402 Y94.629 I-6.152 J-6.971
G2 X-100.692 Y92.293 I-1.538 J-1.743
G3 X-99.573 Y90.124 I1.762 J-0.465
X-90.927 Y113.076 I4.323 J11.476
X-99.573 Y90.124 I-4.323 J-11.476
G1 X-99.524 Y90.114
X-99.475 Y90.119
X-99.43 Y90.139
X-99.393 Y90.172
X-99.369 Y90.215
X-96.926 Y96.513
X-94.926 Y102.891
X-94.919 Y102.936
X-94.925 Y102.982
X-94.944 Y103.024
X-94.974 Y103.059
X-95.013 Y103.083
X-95.057 Y103.096
G3 X-95.443 Y100.104 Z-8.415 I-0.193 J-1.496 F800.
X-93.748 Y101.459 Z-8.5 I0.193 J1.496
X-94.347 Y102.136 I-0.616 J0.058 F1600.
X-95.25 Y102.148 I-0.903 J-31.548
Y101.051 I0. J-0.549
Y102.148 I0. J0.549
G2 X-96.819 Y102.939 I0. J1.952
G3 X-98.551 Y102.651 I-0.793 J-0.587
X-91.949 Y100.549 I3.301 J-1.051
X-98.551 Y102.651 I-3.301 J1.051
G2 X-100.161 Y101.178 I-2.087 J0.665
G3 X-101.182 Y99.249 I0.313 J-1.4
X-89.318 Y103.951 I5.932 J2.351
X-101.182 Y99.249 I-5.932 J-2.351
G2 X-101.565 Y96.952 I-2.097 J-0.831
G3 X-101.402 Y94.629 I1.262 J-1.079
X-89.098 Y108.571 I6.152 J6.971
X-101.402 Y94.629 I-6.152 J-6.971
G2 X-100.692 Y92.293 I-1.538 J-1.743
G3 X-99.573 Y90.124 I1.762 J-0.465
X-90.927 Y113.076 I4.323 J11.476
X-99.573 Y90.124 I-4.323 J-11.476
G1 X-99.524 Y90.114
X-99.475 Y90.119
X-99.43 Y90.139
X-99.393 Y90.172
X-99.369 Y90.215
X-96.926 Y96.513
X-94.926 Y102.891
X-94.919 Y102.936
X-94.925 Y102.982
X-94.944 Y103.024
X-94.974 Y103.059
X-95.013 Y103.083
X-95.057 Y103.096
G3 X-95.443 Y100.104 Z-8.665 I-0.193 J-1.496 F800.
X-93.748 Y101.459 Z-8.75 I0.193 J1.496
X-94.347 Y102.136 I-0.616 J0.058 F1600.
X-95.25 Y102.148 I-0.903 J-31.548
Y101.051 I0. J-0.549
Y102.148 I0. J0.549
G2 X-96.819 Y102.939 I0. J1.952
G3 X-98.551 Y102.651 I-0.793 J-0.587
X-91.949 Y100.549 I3.301 J-1.051
X-98.551 Y102.651 I-3.301 J1.051
G2 X-100.161 Y101.178 I-2.087 J0.665
G3 X-101.182 Y99.249 I0.313 J-1.4
X-89.318 Y103.951 I5.932 J2.351
X-101.182 Y99.249 I-5.932 J-2.351
G2 X-101.565 Y96.952 I-2.097 J-0.831
G3 X-101.402 Y94.629 I1.262 J-1.079
X-89.098 Y108.571 I6.152 J6.971
X-101.402 Y94.629 I-6.152 J-6.971
G2 X-100.692 Y92.293 I-1.538 J-1.743
G3 X-99.573 Y90.124 I1.762 J-0.465
X-90.927 Y113.076 I4.323 J11.476
X-99.573 Y90.124 I-4.323 J-11.476
G1 X-99.524 Y90.114
X-99.475 Y90.119
X-99.43 Y90.139
X-99.393 Y90.172
X-99.369 Y90.215
X-96.926 Y96.513
X-94.926 Y102.891
X-94.919 Y102.936
X-94.925 Y102.982
X-94.944 Y103.024
X-94.974 Y103.059
X-95.013 Y103.083
X-95.057 Y103.096
G3 X-95.443 Y100.104 Z-8.915 I-0.193 J-1.496 F800.
X-93.748 Y101.459 Z-9. I0.193 J1.496
X-94.347 Y102.136 I-0.616 J0.058 F1600.
X-95.25 Y102.148 I-0.903 J-31.548
Y101.051 I0. J-0.549
Y102.148 I0. J0.549
G2 X-96.819 Y102.939 I0. J1.952
G3 X-98.551 Y102.651 I-0.793 J-0.587
X-91.949 Y100.549 I3.301 J-1.051
X-98.551 Y102.651 I-3.301 J1.051
G2 X-100.161 Y101.178 I-2.087 J0.665
G3 X-101.182 Y99.249 I0.313 J-1.4
X-89.318 Y103.951 I5.932 J2.351
X-101.182 Y99.249 I-5.932 J-2.351
G2 X-101.565 Y96.952 I-2.097 J-0.831
G3 X-101.402 Y94.629 I1.262 J-1.079
X-89.098 Y108.571 I6.152 J6.971
X-101.402 Y94.629 I-6.152 J-6.971
G2 X-100.692 Y92.293 I-1.538 J-1.743
G3 X-99.573 Y90.124 I1.762 J-0.465
X-90.927 Y113.076 I4.323 J11.476
X-99.573 Y90.124 I-4.323 J-11.476
G1 X-99.524 Y90.114
X-99.475 Y90.119
X-99.43 Y90.139
X-99.393 Y90.172
X-99.369 Y90.215
X-96.926 Y96.513
X-94.926 Y102.891
X-94.919 Y102.936
X-94.925 Y102.982
X-94.944 Y103.024
X-94.974 Y103.059
X-95.013 Y103.083
X-95.057 Y103.096
G3 X-95.443 Y100.104 Z-9.165 I-0.193 J-1.496 F800.
X-93.748 Y101.459 Z-9.25 I0.193 J1.496
X-94.347 Y102.136 I-0.616 J0.058 F1600.
X-95.25 Y102.148 I-0.903 J-31.548
Y101.051 I0. J-0.549
Y102.148 I0. J0.549
G2 X-96.819 Y102.939 I0. J1.952
G3 X-98.551 Y102.651 I-0.793 J-0.587
X-91.949 Y100.549 I3.301 J-1.051
X-98.551 Y102.651 I-3.301 J1.051
G2 X-100.161 Y101.178 I-2.087 J0.665
G3 X-101.182 Y99.249 I0.313 J-1.4
X-89.318 Y103.951 I5.932 J2.351
X-101.182 Y99.249 I-5.932 J-2.351
G2 X-101.565 Y96.952 I-2.097 J-0.831
G3 X-101.402 Y94.629 I1.262 J-1.079
X-89.098 Y108.571 I6.152 J6.971
X-101.402 Y94.629 I-6.152 J-6.971
G2 X-100.692 Y92.293 I-1.538 J-1.743
G3 X-99.573 Y90.124 I1.762 J-0.465
X-90.927 Y113.076 I4.323 J11.476
X-99.573 Y90.124 I-4.323 J-11.476
G1 X-99.524 Y90.114
X-99.475 Y90.119
X-99.43 Y90.139
X-99.393 Y90.172
X-99.369 Y90.215
X-96.926 Y96.513
X-94.926 Y102.891
X-94.919 Y102.936
X-94.925 Y102.982
X-94.944 Y103.024
X-94.974 Y103.059
X-95.013 Y103.083
X-95.057 Y103.096
G3 X-95.443 Y100.104 Z-9.415 I-0.193 J-1.496 F800.
X-93.748 Y101.459 Z-9.5 I0.193 J1.496
X-94.347 Y102.136 I-0.616 J0.058 F1600.
X-95.25 Y102.148 I-0.903 J-31.548
Y101.051 I0. J-0.549
Y102.148 I0. J0.549
G2 X-96.819 Y102.939 I0. J1.952
G3 X-98.551 Y102.651 I-0.793 J-0.587
X-91.949 Y100.549 I3.301 J-1.051
X-98.551 Y102.651 I-3.301 J1.051
G2 X-100.161 Y101.178 I-2.087 J0.665
G3 X-101.182 Y99.249 I0.313 J-1.4
X-89.318 Y103.951 I5.932 J2.351
X-101.182 Y99.249 I-5.932 J-2.351
G2 X-101.565 Y96.952 I-2.097 J-0.831
G3 X-101.402 Y94.629 I1.262 J-1.079
X-89.098 Y108.571 I6.152 J6.971
X-101.402 Y94.629 I-6.152 J-6.971
G2 X-100.692 Y92.293 I-1.538 J-1.743
G3 X-99.573 Y90.124 I1.762 J-0.465
X-90.927 Y113.076 I4.323 J11.476
X-99.573 Y90.124 I-4.323 J-11.476
G1 X-99.524 Y90.114
X-99.475 Y90.119
X-99.43 Y90.139
X-99.393 Y90.172
X-99.369 Y90.215
X-96.926 Y96.513
X-94.926 Y102.891
X-94.919 Y102.936
X-94.925 Y102.982
X-94.944 Y103.024
X-94.974 Y103.059
X-95.013 Y103.083
X-95.057 Y103.096
G3 X-95.443 Y100.104 Z-9.665 I-0.193 J-1.496 F800.
X-93.748 Y101.459 Z-9.75 I0.193 J1.496
X-94.347 Y102.136 I-0.616 J0.058 F1600.
X-95.25 Y102.148 I-0.903 J-31.548
Y101.051 I0. J-0.549
Y102.148 I0. J0.549
G2 X-96.819 Y102.939 I0. J1.952
G3 X-98.551 Y102.651 I-0.793 J-0.587
X-91.949 Y100.549 I3.301 J-1.051
X-98.551 Y102.651 I-3.301 J1.051
G2 X-100.161 Y101.178 I-2.087 J0.665
G3 X-101.182 Y99.249 I0.313 J-1.4
X-89.318 Y103.951 I5.932 J2.351
X-101.182 Y99.249 I-5.932 J-2.351
G2 X-101.565 Y96.952 I-2.097 J-0.831
G3 X-101.402 Y94.629 I1.262 J-1.079
X-89.098 Y108.571 I6.152 J6.971
X-101.402 Y94.629 I-6.152 J-6.971
G2 X-100.692 Y92.293 I-1.538 J-1.743
G3 X-99.573 Y90.124 I1.762 J-0.465
X-90.927 Y113.076 I4.323 J11.476
X-99.573 Y90.124 I-4.323 J-11.476
G1 X-99.524 Y90.114
X-99.475 Y90.119
X-99.43 Y90.139
X-99.393 Y90.172
X-99.369 Y90.215
X-96.926 Y96.513
X-94.926 Y102.891
X-94.919 Y102.936
X-94.925 Y102.982
X-94.944 Y103.024
X-94.974 Y103.059
X-95.013 Y103.083
X-95.057 Y103.096
G3 X-95.443 Y100.104 Z-9.915 I-0.193 J-1.496 F800.
X-93.748 Y101.459 Z-10. I0.193 J1.496
X-94.347 Y102.136 I-0.616 J0.058 F1600.
X-95.25 Y102.148 I-0.903 J-31.548
Y101.051 I0. J-0.549
Y102.148 I0. J0.549
G2 X-96.819 Y102.939 I0. J1.952
G3 X-98.551 Y102.651 I-0.793 J-0.587
X-91.949 Y100.549 I3.301 J-1.051
X-98.551 Y102.651 I-3.301 J1.051
G2 X-100.161 Y101.178 I-2.087 J0.665
G3 X-101.182 Y99.249 I0.313 J-1.4
X-89.318 Y103.951 I5.932 J2.351
X-101.182 Y99.249 I-5.932 J-2.351
G2 X-101.565 Y96.952 I-2.097 J-0.831
G3 X-101.402 Y94.629 I1.262 J-1.079
X-89.098 Y108.571 I6.152 J6.971
X-101.402 Y94.629 I-6.152 J-6.971
G2 X-100.692 Y92.293 I-1.538 J-1.743
G3 X-99.573 Y90.124 I1.762 J-0.465
X-90.927 Y113.076 I4.323 J11.476
X-99.573 Y90.124 I-4.323 J-11.476
G1 X-99.524 Y90.114
X-99.475 Y90.119
X-99.43 Y90.139
X-99.393 Y90.172
X-99.369 Y90.215
X-96.926 Y96.513
X-94.926 Y102.891
X-94.919 Y102.936
X-94.925 Y102.982
X-94.944 Y103.024
X-94.974 Y103.059
X-95.013 Y103.083
X-95.057 Y103.096
G3 X-95.443 Y100.104 Z-10.165 I-0.193 J-1.496 F800.
X-93.748 Y101.459 Z-10.25 I0.193 J1.496
X-94.347 Y102.136 I-0.616 J0.058 F1600.
X-95.25 Y102.148 I-0.903 J-31.548
Y101.051 I0. J-0.549
Y102.148 I0. J0.549
G2 X-96.819 Y102.939 I0. J1.952
G3 X-98.551 Y102.651 I-0.793 J-0.587
X-91.949 Y100.549 I3.301 J-1.051
X-98.551 Y102.651 I-3.301 J1.051
G2 X-100.161 Y101.178 I-2.087 J0.665
G3 X-101.182 Y99.249 I0.313 J-1.4
X-89.318 Y103.951 I5.932 J2.351
X-101.182 Y99.249 I-5.932 J-2.351
G2 X-101.565 Y96.952 I-2.097 J-0.831
G3 X-101.402 Y94.629 I1.262 J-1.079
X-89.098 Y108.571 I6.152 J6.971
X-101.402 Y94.629 I-6.152 J-6.971
G2 X-100.692 Y92.293 I-1.538 J-1.743
G3 X-99.573 Y90.124 I1.762 J-0.465
X-90.927 Y113.076 I4.323 J11.476
X-99.573 Y90.124 I-4.323 J-11.476
G1 X-99.524 Y90.114
X-99.475 Y90.119
X-99.43 Y90.139
X-99.393 Y90.172
X-99.369 Y90.215
X-96.926 Y96.513
X-94.926 Y102.891
X-94.919 Y102.936
X-94.925 Y102.982
X-94.944 Y103.024
X-94.974 Y103.059
X-95.013 Y103.083
X-95.057 Y103.096
G3 X-95.443 Y100.104 Z-10.415 I-0.193 J-1.496 F800.
X-93.748 Y101.459 Z-10.5 I0.193 J1.496
X-94.347 Y102.136 I-0.616 J0.058 F1600.
X-95.25 Y102.148 I-0.903 J-31.548
Y101.051 I0. J-0.549
Y102.148 I0. J0.549
G2 X-96.819 Y102.939 I0. J1.952
G3 X-98.551 Y102.651 I-0.793 J-0.587
X-91.949 Y100.549 I3.301 J-1.051
X-98.551 Y102.651 I-3.301 J1.051
G2 X-100.161 Y101.178 I-2.087 J0.665
G3 X-101.182 Y99.249 I0.313 J-1.4
X-89.318 Y103.951 I5.932 J2.351
X-101.182 Y99.249 I-5.932 J-2.351
G2 X-101.565 Y96.952 I-2.097 J-0.831
G3 X-101.402 Y94.629 I1.262 J-1.079
X-89.098 Y108.571 I6.152 J6.971
X-101.402 Y94.629 I-6.152 J-6.971
G2 X-100.692 Y92.293 I-1.538 J-1.743
G3 X-99.573 Y90.124 I1.762 J-0.465
X-90.927 Y113.076 I4.323 J11.476
X-99.573 Y90.124 I-4.323 J-11.476
G1 X-99.524 Y90.114
X-99.475 Y90.119
X-99.43 Y90.139
X-99.393 Y90.172
X-99.369 Y90.215
X-96.926 Y96.513
X-94.926 Y102.891
X-94.919 Y102.936
X-94.925 Y102.982
X-94.944 Y103.024
X-94.974 Y103.059
X-95.013 Y103.083
X-95.057 Y103.096
G3 X-95.443 Y100.104 Z-10.665 I-0.193 J-1.496 F800.
X-93.748 Y101.459 Z-10.75 I0.193 J1.496
X-94.347 Y102.136 I-0.616 J0.058 F1600.
X-95.25 Y102.148 I-0.903 J-31.548
Y101.051 I0. J-0.549
Y102.148 I0. J0.549
G2 X-96.819 Y102.939 I0. J1.952
G3 X-98.551 Y102.651 I-0.793 J-0.587
X-91.949 Y100.549 I3.301 J-1.051
X-98.551 Y102.651 I-3.301 J1.051
G2 X-100.161 Y101.178 I-2.087 J0.665
G3 X-101.182 Y99.249 I0.313 J-1.4
X-89.318 Y103.951 I5.932 J2.351
X-101.182 Y99.249 I-5.932 J-2.351
G2 X-101.565 Y96.952 I-2.097 J-0.831
G3 X-101.402 Y94.629 I1.262 J-1.079
X-89.098 Y108.571 I6.152 J6.971
X-101.402 Y94.629 I-6.152 J-6.971
G2 X-100.692 Y92.293 I-1.538 J-1.743
G3 X-99.573 Y90.124 I1.762 J-0.465
X-90.927 Y113.076 I4.323 J11.476
X-99.573 Y90.124 I-4.323 J-11.476
G1 X-99.524 Y90.114
X-99.475 Y90.119
X-99.43 Y90.139
X-99.393 Y90.172
X-99.369 Y90.215
X-96.926 Y96.513
X-94.926 Y102.891
X-94.919 Y102.936
X-94.925 Y102.982
X-94.944 Y103.024
X-94.974 Y103.059
X-95.013 Y103.083
X-95.057 Y103.096
G3 X-95.443 Y100.104 Z-10.915 I-0.193 J-1.496 F800.
X-93.748 Y101.459 Z-11. I0.193 J1.496
X-94.347 Y102.136 I-0.616 J0.058 F1600.
X-95.25 Y102.148 I-0.903 J-31.548
Y101.051 I0. J-0.549
Y102.148 I0. J0.549
G2 X-96.819 Y102.939 I0. J1.952
G3 X-98.551 Y102.651 I-0.793 J-0.587
X-91.949 Y100.549 I3.301 J-1.051
X-98.551 Y102.651 I-3.301 J1.051
G2 X-100.161 Y101.178 I-2.087 J0.665
G3 X-101.182 Y99.249 I0.313 J-1.4
X-89.318 Y103.951 I5.932 J2.351
X-101.182 Y99.249 I-5.932 J-2.351
G2 X-101.565 Y96.952 I-2.097 J-0.831
G3 X-101.402 Y94.629 I1.262 J-1.079
X-89.098 Y108.571 I6.152 J6.971
X-101.402 Y94.629 I-6.152 J-6.971
G2 X-100.692 Y92.293 I-1.538 J-1.743
G3 X-99.573 Y90.124 I1.762 J-0.465
X-90.927 Y113.076 I4.323 J11.476
X-99.573 Y90.124 I-4.323 J-11.476
G1 X-99.524 Y90.114
X-99.475 Y90.119
X-99.43 Y90.139
X-99.393 Y90.172
X-99.369 Y90.215
X-96.926 Y96.513
X-94.926 Y102.891
X-94.919 Y102.936
X-94.925 Y102.982
X-94.944 Y103.024
X-94.974 Y103.059
X-95.013 Y103.083
X-95.057 Y103.096
G3 X-95.443 Y100.104 Z-11.165 I-0.193 J-1.496 F800.
X-93.748 Y101.459 Z-11.25 I0.193 J1.496
X-94.347 Y102.136 I-0.616 J0.058 F1600.
X-95.25 Y102.148 I-0.903 J-31.548
Y101.051 I0. J-0.549
Y102.148 I0. J0.549
G2 X-96.819 Y102.939 I0. J1.952
G3 X-98.551 Y102.651 I-0.793 J-0.587
X-91.949 Y100.549 I3.301 J-1.051
X-98.551 Y102.651 I-3.301 J1.051
G2 X-100.161 Y101.178 I-2.087 J0.665
G3 X-101.182 Y99.249 I0.313 J-1.4
X-89.318 Y103.951 I5.932 J2.351
X-101.182 Y99.249 I-5.932 J-2.351
G2 X-101.565 Y96.952 I-2.097 J-0.831
G3 X-101.402 Y94.629 I1.262 J-1.079
X-89.098 Y108.571 I6.152 J6.971
X-101.402 Y94.629 I-6.152 J-6.971
G2 X-100.692 Y92.293 I-1.538 J-1.743
G3 X-99.573 Y90.124 I1.762 J-0.465
X-90.927 Y113.076 I4.323 J11.476
X-99.573 Y90.124 I-4.323 J-11.476
G1 X-99.524 Y90.114
X-99.475 Y90.119
X-99.43 Y90.139
X-99.393 Y90.172
X-99.369 Y90.215
X-96.926 Y96.513
X-94.926 Y102.891
X-94.919 Y102.936
X-94.925 Y102.982
X-94.944 Y103.024
X-94.974 Y103.059
X-95.013 Y103.083
X-95.057 Y103.096
G3 X-95.443 Y100.104 Z-11.415 I-0.193 J-1.496 F800.
X-93.748 Y101.459 Z-11.5 I0.193 J1.496
X-94.347 Y102.136 I-0.616 J0.058 F1600.
X-95.25 Y102.148 I-0.903 J-31.548
Y101.051 I0. J-0.549
Y102.148 I0. J0.549
G2 X-96.819 Y102.939 I0. J1.952
G3 X-98.551 Y102.651 I-0.793 J-0.587
X-91.949 Y100.549 I3.301 J-1.051
X-98.551 Y102.651 I-3.301 J1.051
G2 X-100.161 Y101.178 I-2.087 J0.665
G3 X-101.182 Y99.249 I0.313 J-1.4
X-89.318 Y103.951 I5.932 J2.351
X-101.182 Y99.249 I-5.932 J-2.351
G2 X-101.565 Y96.952 I-2.097 J-0.831
G3 X-101.402 Y94.629 I1.262 J-1.079
X-89.098 Y108.571 I6.152 J6.971
X-101.402 Y94.629 I-6.152 J-6.971
G2 X-100.692 Y92.293 I-1.538 J-1.743
G3 X-99.573 Y90.124 I1.762 J-0.465
X-90.927 Y113.076 I4.323 J11.476
X-99.573 Y90.124 I-4.323 J-11.476
G1 X-99.524 Y90.114
X-99.475 Y90.119
X-99.43 Y90.139
X-99.393 Y90.172
X-99.369 Y90.215
X-96.926 Y96.513
X-94.926 Y102.891
X-94.919 Y102.936
X-94.925 Y102.982
X-94.944 Y103.024
X-94.974 Y103.059
X-95.013 Y103.083
X-95.057 Y103.096
G3 X-95.443 Y100.104 Z-11.665 I-0.193 J-1.496 F800.
X-93.748 Y101.459 Z-11.75 I0.193 J1.496
X-94.347 Y102.136 I-0.616 J0.058 F1600.
X-95.25 Y102.148 I-0.903 J-31.548
Y101.051 I0. J-0.549
Y102.148 I0. J0.549
G2 X-96.819 Y102.939 I0. J1.952
G3 X-98.551 Y102.651 I-0.793 J-0.587
X-91.949 Y100.549 I3.301 J-1.051
X-98.551 Y102.651 I-3.301 J1.051
G2 X-100.161 Y101.178 I-2.087 J0.665
G3 X-101.182 Y99.249 I0.313 J-1.4
X-89.318 Y103.951 I5.932 J2.351
X-101.182 Y99.249 I-5.932 J-2.351
G2 X-101.565 Y96.952 I-2.097 J-0.831
G3 X-101.402 Y94.629 I1.262 J-1.079
X-89.098 Y108.571 I6.152 J6.971
X-101.402 Y94.629 I-6.152 J-6.971
G2 X-100.692 Y92.293 I-1.538 J-1.743
G3 X-99.573 Y90.124 I1.762 J-0.465
X-90.927 Y113.076 I4.323 J11.476
X-99.573 Y90.124 I-4.323 J-11.476
G1 X-99.524 Y90.114
X-99.475 Y90.119
X-99.43 Y90.139
X-99.393 Y90.172
X-99.369 Y90.215
X-96.926 Y96.513
X-94.926 Y102.891
X-94.919 Y102.936
X-94.925 Y102.982
X-94.944 Y103.024
X-94.974 Y103.059
X-95.013 Y103.083
X-95.057 Y103.096
G3 X-95.443 Y100.104 Z-11.915 I-0.193 J-1.496 F800.
X-93.748 Y101.459 Z-12. I0.193 J1.496
X-94.347 Y102.136 I-0.616 J0.058 F1600.
X-95.25 Y102.148 I-0.903 J-31.548
Y101.051 I0. J-0.549
Y102.148 I0. J0.549
G2 X-96.819 Y102.939 I0. J1.952
G3 X-98.551 Y102.651 I-0.793 J-0.587
X-91.949 Y100.549 I3.301 J-1.051
X-98.551 Y102.651 I-3.301 J1.051
G2 X-100.161 Y101.178 I-2.087 J0.665
G3 X-101.182 Y99.249 I0.313 J-1.4
X-89.318 Y103.951 I5.932 J2.351
X-101.182 Y99.249 I-5.932 J-2.351
G2 X-101.565 Y96.952 I-2.097 J-0.831
G3 X-101.402 Y94.629 I1.262 J-1.079
X-89.098 Y108.571 I6.152 J6.971
X-101.402 Y94.629 I-6.152 J-6.971
G2 X-100.692 Y92.293 I-1.538 J-1.743
G3 X-99.573 Y90.124 I1.762 J-0.465
X-90.927 Y113.076 I4.323 J11.476
X-99.573 Y90.124 I-4.323 J-11.476
G1 X-99.524 Y90.114
X-99.475 Y90.119
X-99.43 Y90.139
X-99.393 Y90.172
X-99.369 Y90.215
X-96.926 Y96.513
X-94.926 Y102.891
X-94.919 Y102.936
X-94.925 Y102.982
X-94.944 Y103.024
X-94.974 Y103.059
X-95.013 Y103.083
X-95.057 Y103.096
G3 X-95.443 Y100.104 Z-12.165 I-0.193 J-1.496 F800.
X-93.748 Y101.459 Z-12.25 I0.193 J1.496
X-94.347 Y102.136 I-0.616 J0.058 F1600.
X-95.25 Y102.148 I-0.903 J-31.548
Y101.051 I0. J-0.549
Y102.148 I0. J0.549
G2 X-96.819 Y102.939 I0. J1.952
G3 X-98.551 Y102.651 I-0.793 J-0.587
X-91.949 Y100.549 I3.301 J-1.051
X-98.551 Y102.651 I-3.301 J1.051
G2 X-100.161 Y101.178 I-2.087 J0.665
G3 X-101.182 Y99.249 I0.313 J-1.4
X-89.318 Y103.951 I5.932 J2.351
X-101.182 Y99.249 I-5.932 J-2.351
G2 X-101.565 Y96.952 I-2.097 J-0.831
G3 X-101.402 Y94.629 I1.262 J-1.079
X-89.098 Y108.571 I6.152 J6.971
X-101.402 Y94.629 I-6.152 J-6.971
G2 X-100.692 Y92.293 I-1.538 J-1.743
G3 X-99.573 Y90.124 I1.762 J-0.465
X-90.927 Y113.076 I4.323 J11.476
X-99.573 Y90.124 I-4.323 J-11.476
G1 X-99.524 Y90.114
X-99.475 Y90.119
X-99.43 Y90.139
X-99.393 Y90.172
X-99.369 Y90.215
X-96.926 Y96.513
X-94.926 Y102.891
X-94.919 Y102.936
X-94.925 Y102.982
X-94.944 Y103.024
X-94.974 Y103.059
X-95.013 Y103.083
X-95.057 Y103.096
G3 X-95.443 Y100.104 Z-12.415 I-0.193 J-1.496 F800.
X-93.748 Y101.459 Z-12.5 I0.193 J1.496
X-94.347 Y102.136 I-0.616 J0.058 F1600.
X-95.25 Y102.148 I-0.903 J-31.548
Y101.051 I0. J-0.549
Y102.148 I0. J0.549
G2 X-96.819 Y102.939 I0. J1.952
G3 X-98.551 Y102.651 I-0.793 J-0.587
X-91.949 Y100.549 I3.301 J-1.051
X-98.551 Y102.651 I-3.301 J1.051
G2 X-100.161 Y101.178 I-2.087 J0.665
G3 X-101.182 Y99.249 I0.313 J-1.4
X-89.318 Y103.951 I5.932 J2.351
X-101.182 Y99.249 I-5.932 J-2.351
G2 X-101.565 Y96.952 I-2.097 J-0.831
G3 X-101.402 Y94.629 I1.262 J-1.079
X-89.098 Y108.571 I6.152 J6.971
X-101.402 Y94.629 I-6.152 J-6.971
G2 X-100.692 Y92.293 I-1.538 J-1.743
G3 X-99.573 Y90.124 I1.762 J-0.465
X-90.927 Y113.076 I4.323 J11.476
X-99.573 Y90.124 I-4.323 J-11.476
G1 X-99.524 Y90.114
X-99.475 Y90.119
X-99.43 Y90.139
X-99.393 Y90.172
X-99.369 Y90.215
X-96.926 Y96.513
X-94.926 Y102.891
X-94.919 Y102.936
X-94.925 Y102.982
X-94.944 Y103.024
X-94.974 Y103.059
X-95.013 Y103.083
X-95.057 Y103.096
G3 X-95.443 Y100.104 Z-12.665 I-0.193 J-1.496 F800.
X-93.748 Y101.459 Z-12.75 I0.193 J1.496
X-94.347 Y102.136 I-0.616 J0.058 F1600.
X-95.25 Y102.148 I-0.903 J-31.548
Y101.051 I0. J-0.549
Y102.148 I0. J0.549
G2 X-96.819 Y102.939 I0. J1.952
G3 X-98.551 Y102.651 I-0.793 J-0.587
X-91.949 Y100.549 I3.301 J-1.051
X-98.551 Y102.651 I-3.301 J1.051
G2 X-100.161 Y101.178 I-2.087 J0.665
G3 X-101.182 Y99.249 I0.313 J-1.4
X-89.318 Y103.951 I5.932 J2.351
X-101.182 Y99.249 I-5.932 J-2.351
G2 X-101.565 Y96.952 I-2.097 J-0.831
G3 X-101.402 Y94.629 I1.262 J-1.079
X-89.098 Y108.571 I6.152 J6.971
X-101.402 Y94.629 I-6.152 J-6.971
G2 X-100.692 Y92.293 I-1.538 J-1.743
G3 X-99.573 Y90.124 I1.762 J-0.465
X-90.927 Y113.076 I4.323 J11.476
X-99.573 Y90.124 I-4.323 J-11.476
G1 X-99.524 Y90.114
X-99.475 Y90.119
X-99.43 Y90.139
X-99.393 Y90.172
X-99.369 Y90.215
X-96.926 Y96.513
X-94.926 Y102.891
X-94.919 Y102.936
X-94.925 Y102.982
X-94.944 Y103.024
X-94.974 Y103.059
X-95.013 Y103.083
X-95.057 Y103.096
G3 X-95.443 Y100.104 Z-12.915 I-0.193 J-1.496 F800.
X-93.748 Y101.459 Z-13. I0.193 J1.496
X-94.347 Y102.136 I-0.616 J0.058 F1600.
X-95.25 Y102.148 I-0.903 J-31.548
Y101.051 I0. J-0.549
Y102.148 I0. J0.549
G2 X-96.819 Y102.939 I0. J1.952
G3 X-98.551 Y102.651 I-0.793 J-0.587
X-91.949 Y100.549 I3.301 J-1.051
X-98.551 Y102.651 I-3.301 J1.051
G2 X-100.161 Y101.178 I-2.087 J0.665
G3 X-101.182 Y99.249 I0.313 J-1.4
X-89.318 Y103.951 I5.932 J2.351
X-101.182 Y99.249 I-5.932 J-2.351
G2 X-101.565 Y96.952 I-2.097 J-0.831
G3 X-101.402 Y94.629 I1.262 J-1.079
X-89.098 Y108.571 I6.152 J6.971
X-101.402 Y94.629 I-6.152 J-6.971
G2 X-100.692 Y92.293 I-1.538 J-1.743
G3 X-99.573 Y90.124 I1.762 J-0.465
X-90.927 Y113.076 I4.323 J11.476
X-99.573 Y90.124 I-4.323 J-11.476
G1 X-99.524 Y90.114
X-99.475 Y90.119
X-99.43 Y90.139
X-99.393 Y90.172
X-99.369 Y90.215
X-96.926 Y96.513
X-94.926 Y102.891
X-94.919 Y102.936
X-94.925 Y102.982
X-94.944 Y103.024
X-94.974 Y103.059
X-95.013 Y103.083
X-95.057 Y103.096
G3 X-95.443 Y100.104 Z-13.165 I-0.193 J-1.496 F800.
X-93.748 Y101.459 Z-13.25 I0.193 J1.496
X-94.347 Y102.136 I-0.616 J0.058 F1600.
X-95.25 Y102.148 I-0.903 J-31.548
Y101.051 I0. J-0.549
Y102.148 I0. J0.549
G2 X-96.819 Y102.939 I0. J1.952
G3 X-98.551 Y102.651 I-0.793 J-0.587
X-91.949 Y100.549 I3.301 J-1.051
X-98.551 Y102.651 I-3.301 J1.051
G2 X-100.161 Y101.178 I-2.087 J0.665
G3 X-101.182 Y99.249 I0.313 J-1.4
X-89.318 Y103.951 I5.932 J2.351
X-101.182 Y99.249 I-5.932 J-2.351
G2 X-101.565 Y96.952 I-2.097 J-0.831
G3 X-101.402 Y94.629 I1.262 J-1.079
X-89.098 Y108.571 I6.152 J6.971
X-101.402 Y94.629 I-6.152 J-6.971
G2 X-100.692 Y92.293 I-1.538 J-1.743
G3 X-99.573 Y90.124 I1.762 J-0.465
X-90.927 Y113.076 I4.323 J11.476
X-99.573 Y90.124 I-4.323 J-11.476
G1 X-99.524 Y90.114
X-99.475 Y90.119
X-99.43 Y90.139
X-99.393 Y90.172
X-99.369 Y90.215
X-96.926 Y96.513
X-94.926 Y102.891
X-94.919 Y102.936
X-94.925 Y102.982
X-94.944 Y103.024
X-94.974 Y103.059
X-95.013 Y103.083
X-95.057 Y103.096
G3 X-95.443 Y100.104 Z-13.415 I-0.193 J-1.496 F800.
X-93.748 Y101.459 Z-13.5 I0.193 J1.496
X-94.347 Y102.136 I-0.616 J0.058 F1600.
X-95.25 Y102.148 I-0.903 J-31.548
Y101.051 I0. J-0.549
Y102.148 I0. J0.549
G2 X-96.819 Y102.939 I0. J1.952
G3 X-98.551 Y102.651 I-0.793 J-0.587
X-91.949 Y100.549 I3.301 J-1.051
X-98.551 Y102.651 I-3.301 J1.051
G2 X-100.161 Y101.178 I-2.087 J0.665
G3 X-101.182 Y99.249 I0.313 J-1.4
X-89.318 Y103.951 I5.932 J2.351
X-101.182 Y99.249 I-5.932 J-2.351
G2 X-101.565 Y96.952 I-2.097 J-0.831
G3 X-101.402 Y94.629 I1.262 J-1.079
X-89.098 Y108.571 I6.152 J6.971
X-101.402 Y94.629 I-6.152 J-6.971
G2 X-100.692 Y92.293 I-1.538 J-1.743
G3 X-99.573 Y90.124 I1.762 J-0.465
X-90.927 Y113.076 I4.323 J11.476
X-99.573 Y90.124 I-4.323 J-11.476
G1 X-99.524 Y90.114
X-99.475 Y90.119
X-99.43 Y90.139
X-99.393 Y90.172
X-99.369 Y90.215
X-96.926 Y96.513
X-94.926 Y102.891
X-94.919 Y102.936
X-94.925 Y102.982
X-94.944 Y103.024
X-94.974 Y103.059
X-95.013 Y103.083
X-95.057 Y103.096
G3 X-95.443 Y100.104 Z-13.665 I-0.193 J-1.496 F800.
X-93.748 Y101.459 Z-13.75 I0.193 J1.496
X-94.347 Y102.136 I-0.616 J0.058 F1600.
X-95.25 Y102.148 I-0.903 J-31.548
Y101.051 I0. J-0.549
Y102.148 I0. J0.549
G2 X-96.819 Y102.939 I0. J1.952
G3 X-98.551 Y102.651 I-0.793 J-0.587
X-91.949 Y100.549 I3.301 J-1.051
X-98.551 Y102.651 I-3.301 J1.051
G2 X-100.161 Y101.178 I-2.087 J0.665
G3 X-101.182 Y99.249 I0.313 J-1.4
X-89.318 Y103.951 I5.932 J2.351
X-101.182 Y99.249 I-5.932 J-2.351
G2 X-101.565 Y96.952 I-2.097 J-0.831
G3 X-101.402 Y94.629 I1.262 J-1.079
X-89.098 Y108.571 I6.152 J6.971
X-101.402 Y94.629 I-6.152 J-6.971
G2 X-100.692 Y92.293 I-1.538 J-1.743
G3 X-99.573 Y90.124 I1.762 J-0.465
X-90.927 Y113.076 I4.323 J11.476
X-99.573 Y90.124 I-4.323 J-11.476
G1 X-99.524 Y90.114
X-99.475 Y90.119
X-99.43 Y90.139
X-99.393 Y90.172
X-99.369 Y90.215
X-96.926 Y96.513
X-94.926 Y102.891
X-94.919 Y102.936
X-94.925 Y102.982
X-94.944 Y103.024
X-94.974 Y103.059
X-95.013 Y103.083
X-95.057 Y103.096
G3 X-95.443 Y100.104 Z-13.915 I-0.193 J-1.496 F800.
X-93.748 Y101.459 Z-14. I0.193 J1.496
X-94.347 Y102.136 I-0.616 J0.058 F1600.
X-95.25 Y102.148 I-0.903 J-31.548
Y101.051 I0. J-0.549
Y102.148 I0. J0.549
G2 X-96.819 Y102.939 I0. J1.952
G3 X-98.551 Y102.651 I-0.793 J-0.587
X-91.949 Y100.549 I3.301 J-1.051
X-98.551 Y102.651 I-3.301 J1.051
G2 X-100.161 Y101.178 I-2.087 J0.665
G3 X-101.182 Y99.249 I0.313 J-1.4
X-89.318 Y103.951 I5.932 J2.351
X-101.182 Y99.249 I-5.932 J-2.351
G2 X-101.565 Y96.952 I-2.097 J-0.831
G3 X-101.402 Y94.629 I1.262 J-1.079
X-89.098 Y108.571 I6.152 J6.971
X-101.402 Y94.629 I-6.152 J-6.971
G2 X-100.692 Y92.293 I-1.538 J-1.743
G3 X-99.573 Y90.124 I1.762 J-0.465
X-90.927 Y113.076 I4.323 J11.476
X-99.573 Y90.124 I-4.323 J-11.476
G1 X-99.524 Y90.114
X-99.475 Y90.119
X-99.43 Y90.139
X-99.393 Y90.172
X-99.369 Y90.215
X-96.926 Y96.513
X-94.926 Y102.891
X-94.919 Y102.936
X-94.925 Y102.982
X-94.944 Y103.024
X-94.974 Y103.059
X-95.013 Y103.083
X-95.057 Y103.096
G3 X-95.443 Y100.104 Z-14.165 I-0.193 J-1.496 F800.
X-93.748 Y101.459 Z-14.25 I0.193 J1.496
X-94.347 Y102.136 I-0.616 J0.058 F1600.
X-95.25 Y102.148 I-0.903 J-31.548
Y101.051 I0. J-0.549
Y102.148 I0. J0.549
G2 X-96.819 Y102.939 I0. J1.952
G3 X-98.551 Y102.651 I-0.793 J-0.587
X-91.949 Y100.549 I3.301 J-1.051
X-98.551 Y102.651 I-3.301 J1.051
G2 X-100.161 Y101.178 I-2.087 J0.665
G3 X-101.182 Y99.249 I0.313 J-1.4
X-89.318 Y103.951 I5.932 J2.351
X-101.182 Y99.249 I-5.932 J-2.351
G2 X-101.565 Y96.952 I-2.097 J-0.831
G3 X-101.402 Y94.629 I1.262 J-1.079
X-89.098 Y108.571 I6.152 J6.971
X-101.402 Y94.629 I-6.152 J-6.971
G2 X-100.692 Y92.293 I-1.538 J-1.743
G3 X-99.573 Y90.124 I1.762 J-0.465
X-90.927 Y113.076 I4.323 J11.476
X-99.573 Y90.124 I-4.323 J-11.476
G1 X-99.524 Y90.114
X-99.475 Y90.119
X-99.43 Y90.139
X-99.393 Y90.172
X-99.369 Y90.215
X-96.926 Y96.513
X-94.926 Y102.891
X-94.919 Y102.936
X-94.925 Y102.982
X-94.944 Y103.024
X-94.974 Y103.059
X-95.013 Y103.083
X-95.057 Y103.096
G3 X-95.443 Y100.104 Z-14.415 I-0.193 J-1.496 F800.
X-93.748 Y101.459 Z-14.5 I0.193 J1.496
X-94.347 Y102.136 I-0.616 J0.058 F1600.
X-95.25 Y102.148 I-0.903 J-31.548
Y101.051 I0. J-0.549
Y102.148 I0. J0.549
G2 X-96.819 Y102.939 I0. J1.952
G3 X-98.551 Y102.651 I-0.793 J-0.587
X-91.949 Y100.549 I3.301 J-1.051
X-98.551 Y102.651 I-3.301 J1.051
G2 X-100.161 Y101.178 I-2.087 J0.665
G3 X-101.182 Y99.249 I0.313 J-1.4
X-89.318 Y103.951 I5.932 J2.351
X-101.182 Y99.249 I-5.932 J-2.351
G2 X-101.565 Y96.952 I-2.097 J-0.831
G3 X-101.402 Y94.629 I1.262 J-1.079
X-89.098 Y108.571 I6.152 J6.971
X-101.402 Y94.629 I-6.152 J-6.971
G2 X-100.692 Y92.293 I-1.538 J-1.743
G3 X-99.573 Y90.124 I1.762 J-0.465
X-90.927 Y113.076 I4.323 J11.476
X-99.573 Y90.124 I-4.323 J-11.476
G1 X-99.524 Y90.114
X-99.475 Y90.119
X-99.43 Y90.139
X-99.393 Y90.172
X-99.369 Y90.215
X-96.926 Y96.513
X-94.926 Y102.891
X-94.919 Y102.936
X-94.925 Y102.982
X-94.944 Y103.024
X-94.974 Y103.059
X-95.013 Y103.083
X-95.057 Y103.096
G3 X-95.443 Y100.104 Z-14.665 I-0.193 J-1.496 F800.
X-93.748 Y101.459 Z-14.75 I0.193 J1.496
X-94.347 Y102.136 I-0.616 J0.058 F1600.
X-95.25 Y102.148 I-0.903 J-31.548
Y101.051 I0. J-0.549
Y102.148 I0. J0.549
G2 X-96.819 Y102.939 I0. J1.952
G3 X-98.551 Y102.651 I-0.793 J-0.587
X-91.949 Y100.549 I3.301 J-1.051
X-98.551 Y102.651 I-3.301 J1.051
G2 X-100.161 Y101.178 I-2.087 J0.665
G3 X-101.182 Y99.249 I0.313 J-1.4
X-89.318 Y103.951 I5.932 J2.351
X-101.182 Y99.249 I-5.932 J-2.351
G2 X-101.565 Y96.952 I-2.097 J-0.831
G3 X-101.402 Y94.629 I1.262 J-1.079
X-89.098 Y108.571 I6.152 J6.971
X-101.402 Y94.629 I-6.152 J-6.971
G2 X-100.692 Y92.293 I-1.538 J-1.743
G3 X-99.573 Y90.124 I1.762 J-0.465
X-90.927 Y113.076 I4.323 J11.476
X-99.573 Y90.124 I-4.323 J-11.476
G1 X-99.524 Y90.114
X-99.475 Y90.119
X-99.43 Y90.139
X-99.393 Y90.172
X-99.369 Y90.215
X-96.926 Y96.513
X-94.926 Y102.891
X-94.919 Y102.936
X-94.925 Y102.982
X-94.944 Y103.024
X-94.974 Y103.059
X-95.013 Y103.083
X-95.057 Y103.096
G3 X-95.443 Y100.104 Z-14.915 I-0.193 J-1.496 F800.
X-93.748 Y101.459 Z-15. I0.193 J1.496
X-94.347 Y102.136 I-0.616 J0.058 F1600.
X-95.25 Y102.148 I-0.903 J-31.548
Y101.051 I0. J-0.549
Y102.148 I0. J0.549
G2 X-96.819 Y102.939 I0. J1.952
G3 X-98.551 Y102.651 I-0.793 J-0.587
X-91.949 Y100.549 I3.301 J-1.051
X-98.551 Y102.651 I-3.301 J1.051
G2 X-100.161 Y101.178 I-2.087 J0.665
G3 X-101.182 Y99.249 I0.313 J-1.4
X-89.318 Y103.951 I5.932 J2.351
X-101.182 Y99.249 I-5.932 J-2.351
G2 X-101.565 Y96.952 I-2.097 J-0.831
G3 X-101.402 Y94.629 I1.262 J-1.079
X-89.098 Y108.571 I6.152 J6.971
X-101.402 Y94.629 I-6.152 J-6.971
G2 X-100.692 Y92.293 I-1.538 J-1.743
G3 X-99.573 Y90.124 I1.762 J-0.465
X-90.927 Y113.076 I4.323 J11.476
X-99.573 Y90.124 I-4.323 J-11.476
G1 X-99.524 Y90.114
X-99.475 Y90.119
X-99.43 Y90.139
X-99.393 Y90.172
X-99.369 Y90.215
X-96.926 Y96.513
X-94.926 Y102.891
X-94.919 Y102.936
X-94.925 Y102.982
X-94.944 Y103.024
X-94.974 Y103.059
X-95.013 Y103.083
X-95.057 Y103.096
G3 X-95.443 Y100.104 Z-15.165 I-0.193 J-1.496 F800.
X-93.748 Y101.459 Z-15.25 I0.193 J1.496
X-94.347 Y102.136 I-0.616 J0.058 F1600.
X-95.25 Y102.148 I-0.903 J-31.548
Y101.051 I0. J-0.549
Y102.148 I0. J0.549
G2 X-96.819 Y102.939 I0. J1.952
G3 X-98.551 Y102.651 I-0.793 J-0.587
X-91.949 Y100.549 I3.301 J-1.051
X-98.551 Y102.651 I-3.301 J1.051
G2 X-100.161 Y101.178 I-2.087 J0.665
G3 X-101.182 Y99.249 I0.313 J-1.4
X-89.318 Y103.951 I5.932 J2.351
X-101.182 Y99.249 I-5.932 J-2.351
G2 X-101.565 Y96.952 I-2.097 J-0.831
G3 X-101.402 Y94.629 I1.262 J-1.079
X-89.098 Y108.571 I6.152 J6.971
X-101.402 Y94.629 I-6.152 J-6.971
G2 X-100.692 Y92.293 I-1.538 J-1.743
G3 X-99.573 Y90.124 I1.762 J-0.465
X-90.927 Y113.076 I4.323 J11.476
X-99.573 Y90.124 I-4.323 J-11.476
G1 X-99.524 Y90.114
X-99.475 Y90.119
X-99.43 Y90.139
X-99.393 Y90.172
X-99.369 Y90.215
X-96.926 Y96.513
X-94.926 Y102.891
X-94.919 Y102.936
X-94.925 Y102.982
X-94.944 Y103.024
X-94.974 Y103.059
X-95.013 Y103.083
X-95.057 Y103.096
G3 X-95.443 Y100.104 Z-15.415 I-0.193 J-1.496 F800.
X-93.748 Y101.459 Z-15.5 I0.193 J1.496
X-94.347 Y102.136 I-0.616 J0.058 F1600.
X-95.25 Y102.148 I-0.903 J-31.548
Y101.051 I0. J-0.549
Y102.148 I0. J0.549
G2 X-96.819 Y102.939 I0. J1.952
G3 X-98.551 Y102.651 I-0.793 J-0.587
X-91.949 Y100.549 I3.301 J-1.051
X-98.551 Y102.651 I-3.301 J1.051
G2 X-100.161 Y101.178 I-2.087 J0.665
G3 X-101.182 Y99.249 I0.313 J-1.4
X-89.318 Y103.951 I5.932 J2.351
X-101.182 Y99.249 I-5.932 J-2.351
G2 X-101.565 Y96.952 I-2.097 J-0.831
G3 X-101.402 Y94.629 I1.262 J-1.079
X-89.098 Y108.571 I6.152 J6.971
X-101.402 Y94.629 I-6.152 J-6.971
G2 X-100.692 Y92.293 I-1.538 J-1.743
G3 X-99.573 Y90.124 I1.762 J-0.465
X-90.927 Y113.076 I4.323 J11.476
X-99.573 Y90.124 I-4.323 J-11.476
G1 X-99.524 Y90.114
X-99.475 Y90.119
X-99.43 Y90.139
X-99.393 Y90.172
X-99.369 Y90.215
X-96.926 Y96.513
X-94.926 Y102.891
X-94.919 Y102.936
X-94.925 Y102.982
X-94.944 Y103.024
X-94.974 Y103.059
X-95.013 Y103.083
X-95.057 Y103.096
G3 X-95.443 Y100.104 Z-15.665 I-0.193 J-1.496 F800.
X-93.748 Y101.459 Z-15.75 I0.193 J1.496
X-94.347 Y102.136 I-0.616 J0.058 F1600.
X-95.25 Y102.148 I-0.903 J-31.548
Y101.051 I0. J-0.549
Y102.148 I0. J0.549
G2 X-96.819 Y102.939 I0. J1.952
G3 X-98.551 Y102.651 I-0.793 J-0.587
X-91.949 Y100.549 I3.301 J-1.051
X-98.551 Y102.651 I-3.301 J1.051
G2 X-100.161 Y101.178 I-2.087 J0.665
G3 X-101.182 Y99.249 I0.313 J-1.4
X-89.318 Y103.951 I5.932 J2.351
X-101.182 Y99.249 I-5.932 J-2.351
G2 X-101.565 Y96.952 I-2.097 J-0.831
G3 X-101.402 Y94.629 I1.262 J-1.079
X-89.098 Y108.571 I6.152 J6.971
X-101.402 Y94.629 I-6.152 J-6.971
G2 X-100.692 Y92.293 I-1.538 J-1.743
G3 X-99.573 Y90.124 I1.762 J-0.465
X-90.927 Y113.076 I4.323 J11.476
X-99.573 Y90.124 I-4.323 J-11.476
G1 X-99.524 Y90.114
X-99.475 Y90.119
X-99.43 Y90.139
X-99.393 Y90.172
X-99.369 Y90.215
X-96.926 Y96.513
X-94.926 Y102.891
X-94.919 Y102.936
X-94.925 Y102.982
X-94.944 Y103.024
X-94.974 Y103.059
X-95.013 Y103.083
X-95.057 Y103.096
G3 X-95.443 Y100.104 Z-15.915 I-0.193 J-1.496 F800.
X-93.748 Y101.459 Z-16. I0.193 J1.496
X-94.347 Y102.136 I-0.616 J0.058 F1600.
X-95.25 Y102.148 I-0.903 J-31.548
Y101.051 I0. J-0.549
Y102.148 I0. J0.549
G2 X-96.819 Y102.939 I0. J1.952
G3 X-98.551 Y102.651 I-0.793 J-0.587
X-91.949 Y100.549 I3.301 J-1.051
X-98.551 Y102.651 I-3.301 J1.051
G2 X-100.161 Y101.178 I-2.087 J0.665
G3 X-101.182 Y99.249 I0.313 J-1.4
X-89.318 Y103.951 I5.932 J2.351
X-101.182 Y99.249 I-5.932 J-2.351
G2 X-101.565 Y96.952 I-2.097 J-0.831
G3 X-101.402 Y94.629 I1.262 J-1.079
X-89.098 Y108.571 I6.152 J6.971
X-101.402 Y94.629 I-6.152 J-6.971
G2 X-100.692 Y92.293 I-1.538 J-1.743
G3 X-99.573 Y90.124 I1.762 J-0.465
X-90.927 Y113.076 I4.323 J11.476
X-99.573 Y90.124 I-4.323 J-11.476
G1 X-99.524 Y90.114
X-99.475 Y90.119
X-99.43 Y90.139
X-99.393 Y90.172
X-99.369 Y90.215
X-96.926 Y96.513
X-94.926 Y102.891
X-94.919 Y102.936
X-94.925 Y102.982
X-94.944 Y103.024
X-94.974 Y103.059
X-95.013 Y103.083
X-95.057 Y103.096
G3 X-95.443 Y100.104 Z-16.165 I-0.193 J-1.496 F800.
X-93.748 Y101.459 Z-16.25 I0.193 J1.496
X-94.347 Y102.136 I-0.616 J0.058 F1600.
X-95.25 Y102.148 I-0.903 J-31.548
Y101.051 I0. J-0.549
Y102.148 I0. J0.549
G2 X-96.819 Y102.939 I0. J1.952
G3 X-98.551 Y102.651 I-0.793 J-0.587
X-91.949 Y100.549 I3.301 J-1.051
X-98.551 Y102.651 I-3.301 J1.051
G2 X-100.161 Y101.178 I-2.087 J0.665
G3 X-101.182 Y99.249 I0.313 J-1.4
X-89.318 Y103.951 I5.932 J2.351
X-101.182 Y99.249 I-5.932 J-2.351
G2 X-101.565 Y96.952 I-2.097 J-0.831
G3 X-101.402 Y94.629 I1.262 J-1.079
X-89.098 Y108.571 I6.152 J6.971
X-101.402 Y94.629 I-6.152 J-6.971
G2 X-100.692 Y92.293 I-1.538 J-1.743
G3 X-99.573 Y90.124 I1.762 J-0.465
X-90.927 Y113.076 I4.323 J11.476
X-99.573 Y90.124 I-4.323 J-11.476
G1 X-99.524 Y90.114
X-99.475 Y90.119
X-99.43 Y90.139
X-99.393 Y90.172
X-99.369 Y90.215
X-96.926 Y96.513
X-94.926 Y102.891
X-94.919 Y102.936
X-94.925 Y102.982
X-94.944 Y103.024
X-94.974 Y103.059
X-95.013 Y103.083
X-95.057 Y103.096
G3 X-95.443 Y100.104 Z-16.415 I-0.193 J-1.496 F800.
X-93.748 Y101.459 Z-16.5 I0.193 J1.496
X-94.347 Y102.136 I-0.616 J0.058 F1600.
X-95.25 Y102.148 I-0.903 J-31.548
Y101.051 I0. J-0.549
Y102.148 I0. J0.549
G2 X-96.819 Y102.939 I0. J1.952
G3 X-98.551 Y102.651 I-0.793 J-0.587
X-91.949 Y100.549 I3.301 J-1.051
X-98.551 Y102.651 I-3.301 J1.051
G2 X-100.161 Y101.178 I-2.087 J0.665
G3 X-101.182 Y99.249 I0.313 J-1.4
X-89.318 Y103.951 I5.932 J2.351
X-101.182 Y99.249 I-5.932 J-2.351
G2 X-101.565 Y96.952 I-2.097 J-0.831
G3 X-101.402 Y94.629 I1.262 J-1.079
X-89.098 Y108.571 I6.152 J6.971
X-101.402 Y94.629 I-6.152 J-6.971
G2 X-100.692 Y92.293 I-1.538 J-1.743
G3 X-99.573 Y90.124 I1.762 J-0.465
X-90.927 Y113.076 I4.323 J11.476
X-99.573 Y90.124 I-4.323 J-11.476
G1 X-99.524 Y90.114
X-99.475 Y90.119
X-99.43 Y90.139
X-99.393 Y90.172
X-99.369 Y90.215
X-96.926 Y96.513
X-94.926 Y102.891
X-94.919 Y102.936
X-94.925 Y102.982
X-94.944 Y103.024
X-94.974 Y103.059
X-95.013 Y103.083
X-95.057 Y103.096
G3 X-95.443 Y100.104 Z-16.665 I-0.193 J-1.496 F800.
X-93.748 Y101.459 Z-16.75 I0.193 J1.496
X-94.347 Y102.136 I-0.616 J0.058 F1600.
X-95.25 Y102.148 I-0.903 J-31.548
Y101.051 I0. J-0.549
Y102.148 I0. J0.549
G2 X-96.819 Y102.939 I0. J1.952
G3 X-98.551 Y102.651 I-0.793 J-0.587
X-91.949 Y100.549 I3.301 J-1.051
X-98.551 Y102.651 I-3.301 J1.051
G2 X-100.161 Y101.178 I-2.087 J0.665
G3 X-101.182 Y99.249 I0.313 J-1.4
X-89.318 Y103.951 I5.932 J2.351
X-101.182 Y99.249 I-5.932 J-2.351
G2 X-101.565 Y96.952 I-2.097 J-0.831
G3 X-101.402 Y94.629 I1.262 J-1.079
X-89.098 Y108.571 I6.152 J6.971
X-101.402 Y94.629 I-6.152 J-6.971
G2 X-100.692 Y92.293 I-1.538 J-1.743
G3 X-99.573 Y90.124 I1.762 J-0.465
X-90.927 Y113.076 I4.323 J11.476
X-99.573 Y90.124 I-4.323 J-11.476
X-99.308 Y90.263 I0.07 J0.187
G1 X-96.778 Y100.581
G2 X-96.428 Y100.658 I0.194 J-0.048
G3 X-93.748 Y101.459 Z-16.875 I1.178 J0.942 F800.
X-94.347 Y102.136 I-0.616 J0.058 F1600.
X-95.25 Y102.148 I-0.903 J-31.548
Y101.051 I0. J-0.549
Y102.148 I0. J0.549
G2 X-96.819 Y102.939 I0. J1.952
G3 X-98.551 Y102.651 I-0.793 J-0.587
X-91.949 Y100.549 I3.301 J-1.051
X-98.551 Y102.651 I-3.301 J1.051
G2 X-100.161 Y101.178 I-2.087 J0.665
G3 X-101.182 Y99.249 I0.313 J-1.4
X-89.318 Y103.951 I5.932 J2.351
X-101.182 Y99.249 I-5.932 J-2.351
G2 X-101.565 Y96.952 I-2.097 J-0.831
G3 X-101.402 Y94.629 I1.262 J-1.079
X-89.098 Y108.571 I6.152 J6.971
X-101.402 Y94.629 I-6.152 J-6.971
G2 X-100.692 Y92.293 I-1.538 J-1.743
G3 X-99.573 Y90.124 I1.762 J-0.465
X-90.927 Y113.076 I4.323 J11.476
X-99.573 Y90.124 I-4.323 J-11.476
G1 X-99.514 Y90.108 Z-16.863
X-99.453 Y90.103 Z-16.851
X-99.402 Y90.109 Z-16.816
X-99.353 Y90.122 Z-16.782
X-99.291 Y90.152 Z-16.679
X-99.271 Y90.166 Z-16.558
G0 Z5.
X-112.712 Y84.216
G1 Z2.5 F1600.
Z0.067 F100.
X-112.726 Y84.236 Z-0.054
X-112.773 Y84.286 Z-0.157
X-112.815 Y84.316 Z-0.191
X-112.861 Y84.339 Z-0.226
X-112.919 Y84.357 Z-0.238
X-112.98 Y84.362 Z-0.25
G3 X-113.471 Y83.871 I0. J-0.492 F1600.
X-112.488 I0.492 J0.001
X-112.98 Y84.362 I-0.492 J0.
X-113.471 Y83.871 Z-0.277 I0. J-0.492 F800.
X-112.488 Z-0.331 I0.492 J0.001
X-113.471 Z-0.385 I-0.492 J0.
X-112.488 Z-0.439 I0.492 J0.001
X-113.471 Z-0.493 I-0.492 J0.
G1 X-113.467 Y83.802 Z-0.495
X-113.452 Y83.734 Z-0.498
X-113.428 Y83.669 Z-0.5
G3 X-112.488 Y83.871 I0.448 J0.202 F1600.
X-113.471 I-0.492 J0.
G1 X-113.467 Y83.802
X-113.452 Y83.734
X-113.428 Y83.669
G3 X-112.488 Y83.871 Z-0.547 I0.448 J0.202 F800.
X-113.471 Z-0.601 I-0.492 J0.
X-112.488 Z-0.655 I0.492 J0.001
X-113.471 Z-0.708 I-0.492 J0.
X-112.611 Y83.545 Z-0.75 I0.492 J0.001
X-112.488 Y83.871 I-0.368 J0.326 F1600.
X-113.471 I-0.492 J0.
X-112.611 Y83.545 I0.492 J0.001
X-112.488 Y83.871 Z-0.762 I-0.368 J0.326 F800.
X-113.471 Z-0.816 I-0.492 J0.
X-112.488 Z-0.87 I0.492 J0.001
X-113.471 Z-0.924 I-0.492 J0.
X-112.488 Z-0.978 I0.492 J0.001
X-112.834 Y84.34 Z-1. I-0.492 J0.
X-113.471 Y83.871 I-0.146 J-0.47 F1600.
X-112.488 I0.492 J0.001
X-112.834 Y84.34 I-0.492 J0.
X-113.471 Y83.871 Z-1.032 I-0.146 J-0.47 F800.
X-112.488 Z-1.086 I0.492 J0.001
X-113.471 Z-1.14 I-0.492 J0.
X-112.488 Z-1.194 I0.492 J0.001
X-113.471 Z-1.248 I-0.492 J0.
G1 X-113.468 Y83.811 Z-1.25
G3 X-112.488 Y83.871 I0.488 J0.06 F1600.
X-113.471 I-0.492 J0.
G1 X-113.468 Y83.811
G3 X-112.488 Y83.871 Z-1.302 I0.488 J0.06 F800.
X-113.471 Z-1.356 I-0.492 J0.
X-112.488 Z-1.41 I0.492 J0.001
X-113.471 Z-1.464 I-0.492 J0.
X-112.724 Y83.451 Z-1.5 I0.492 J0.001
X-112.488 Y83.871 I-0.255 J0.421 F1600.
X-113.471 I-0.492 J0.
X-112.724 Y83.451 I0.492 J0.001
X-112.488 Y83.871 Z-1.518 I-0.255 J0.421 F800.
X-113.471 Z-1.572 I-0.492 J0.
X-112.488 Z-1.625 I0.492 J0.001
X-113.471 Z-1.679 I-0.492 J0.
X-112.488 Z-1.733 I0.492 J0.001
X-112.701 Y84.276 Z-1.75 I-0.492 J0.
X-113.471 Y83.871 I-0.279 J-0.406 F1600.
X-112.488 I0.492 J0.001
X-112.701 Y84.276 I-0.492 J0.
X-113.471 Y83.871 Z-1.787 I-0.279 J-0.406 F800.
X-112.488 Z-1.841 I0.492 J0.001
X-113.471 Z-1.895 I-0.492 J0.
X-112.488 Z-1.949 I0.492 J0.001
X-113.464 Y83.958 Z-2. I-0.492 J0.
G1 X-113.471 Y83.871 F1600.
G3 X-112.488 I0.492 J0.001
X-113.464 Y83.958 I-0.492 J0.
G1 X-113.471 Y83.871 Z-2.003 F800.
G3 X-112.488 Z-2.057 I0.492 J0.001
X-113.471 Z-2.111 I-0.492 J0.
X-112.488 Z-2.165 I0.492 J0.001
X-113.471 Z-2.219 I-0.492 J0.
X-112.861 Y83.394 Z-2.25 I0.492 J0.001
X-112.488 Y83.871 I-0.119 J0.477 F1600.
X-113.471 I-0.492 J0.
X-112.861 Y83.394 I0.492 J0.001
X-112.488 Y83.871 Z-2.273 I-0.119 J0.477 F800.
X-113.471 Z-2.327 I-0.492 J0.
X-112.488 Z-2.381 I0.492 J0.001
X-113.471 Z-2.435 I-0.492 J0.
X-112.488 Z-2.489 I0.492 J0.001
X-112.593 Y84.175 Z-2.5 I-0.492 J0.
X-113.471 Y83.871 I-0.386 J-0.305 F1600.
X-112.488 I0.492 J0.001
X-112.593 Y84.175 I-0.492 J0.
X-113.471 Y83.871 Z-2.542 I-0.386 J-0.305 F800.
X-112.488 Z-2.596 I0.492 J0.001
X-113.471 Z-2.65 I-0.492 J0.
X-112.488 Z-2.704 I0.492 J0.001
X-113.416 Y84.098 Z-2.75 I-0.492 J0.
G1 X-113.446 Y84.026 F1600.
X-113.465 Y83.949
X-113.471 Y83.871
G3 X-112.488 I0.492 J0.001
X-113.416 Y84.098 I-0.492 J0.
G1 X-113.446 Y84.026 Z-2.753 F800.
X-113.465 Y83.949 Z-2.755
X-113.471 Y83.871 Z-2.758
G3 X-112.488 Z-2.812 I0.492 J0.001
X-113.471 Z-2.866 I-0.492 J0.
X-112.488 Z-2.92 I0.492 J0.001
X-113.471 Z-2.974 I-0.492 J0.
X-113.008 Y83.38 Z-3. I0.492 J0.001
X-112.488 Y83.871 I0.028 J0.491 F1600.
X-113.471 I-0.492 J0.
X-113.008 Y83.38 I0.492 J0.001
X-112.488 Y83.871 Z-3.028 I0.028 J0.491 F800.
X-113.471 Z-3.082 I-0.492 J0.
X-112.488 Z-3.136 I0.492 J0.001
X-113.471 Z-3.19 I-0.492 J0.
X-112.488 Z-3.244 I0.492 J0.001
G1 X-112.491 Y83.931 Z-3.246
X-112.502 Y83.99 Z-3.248
X-112.52 Y84.047 Z-3.25
G3 X-113.471 Y83.871 I-0.459 J-0.176 F1600.
X-112.488 I0.492 J0.001
G1 X-112.491 Y83.931
X-112.502 Y83.99
X-112.52 Y84.047
G3 X-113.471 Y83.871 Z-3.298 I-0.459 J-0.176 F800.
X-112.488 Z-3.352 I0.492 J0.001
X-113.471 Z-3.406 I-0.492 J0.
X-112.488 Z-3.459 I0.492 J0.001
X-113.329 Y84.217 Z-3.5 I-0.492 J0.
X-113.471 Y83.871 I0.349 J-0.347 F1600.
X-112.488 I0.492 J0.001
X-113.329 Y84.217 I-0.492 J0.
X-113.471 Y83.871 Z-3.513 I0.349 J-0.347 F800.
X-112.488 Z-3.567 I0.492 J0.001
X-113.471 Z-3.621 I-0.492 J0.
X-112.488 Z-3.675 I0.492 J0.001
X-113.471 Z-3.729 I-0.492 J0.
X-113.152 Y83.411 Z-3.75 I0.492 J0.001
X-112.488 Y83.871 I0.172 J0.461 F1600.
X-113.471 I-0.492 J0.
X-113.152 Y83.411 I0.492 J0.001
X-112.488 Y83.871 Z-3.783 I0.172 J0.461 F800.
X-113.471 Z-3.837 I-0.492 J0.
X-112.488 Z-3.891 I0.492 J0.001
X-113.471 Z-3.945 I-0.492 J0.
X-112.488 Z-3.999 I0.492 J0.001
G1 X-112.489 Y83.903 Z-4.
G3 X-113.471 Y83.871 I-0.491 J-0.032 F1600.
X-112.488 I0.492 J0.001
G1 X-112.489 Y83.903
G3 X-113.471 Y83.871 Z-4.053 I-0.491 J-0.032 F800.
X-112.488 Z-4.107 I0.492 J0.001
X-113.471 Z-4.161 I-0.492 J0.
X-112.488 Z-4.215 I0.492 J0.001
X-113.21 Y84.305 Z-4.25 I-0.492 J0.
X-113.471 Y83.871 I0.231 J-0.435 F1600.
X-112.488 I0.492 J0.001
X-113.21 Y84.305 I-0.492 J0.
X-113.471 Y83.871 Z-4.269 I0.231 J-0.435 F800.
X-112.488 Z-4.323 I0.492 J0.001
X-113.471 Z-4.376 I-0.492 J0.
X-112.488 Z-4.43 I0.492 J0.001
X-113.471 Z-4.484 I-0.492 J0.
X-113.281 Y83.482 Z-4.5 I0.492 J0.001
X-112.488 Y83.871 I0.301 J0.389 F1600.
X-113.471 I-0.492 J0.
X-113.281 Y83.482 I0.492 J0.001
X-112.488 Y83.871 Z-4.538 I0.301 J0.389 F800.
X-113.471 Z-4.592 I-0.492 J0.
X-112.488 Z-4.646 I0.492 J0.001
X-113.471 Z-4.7 I-0.492 J0.
X-112.501 Y83.756 Z-4.75 I0.492 J0.001
G1 X-112.491 Y83.813 F1600.
X-112.488 Y83.871
G3 X-113.471 I-0.492 J0.
X-112.501 Y83.756 I0.492 J0.001
G1 X-112.491 Y83.813 Z-4.752 F800.
X-112.488 Y83.871 Z-4.754
G3 X-113.471 Z-4.808 I-0.492 J0.
X-112.488 Z-4.862 I0.492 J0.001
X-113.471 Z-4.916 I-0.492 J0.
X-112.488 Z-4.97 I0.492 J0.001
X-113.071 Y84.354 Z-5. I-0.492 J0.
X-113.471 Y83.871 I0.091 J-0.483 F1600.
X-112.488 I0.492 J0.001
X-113.071 Y84.354 I-0.492 J0.
X-113.471 Y83.871 Z-5.024 I0.091 J-0.483 F800.
X-112.488 Z-5.078 I0.492 J0.001
X-113.471 Z-5.132 I-0.492 J0.
X-112.488 Z-5.186 I0.492 J0.001
X-113.471 Z-5.24 I-0.492 J0.
X-113.383 Y83.589 Z-5.25 I0.492 J0.001
X-112.488 Y83.871 I0.403 J0.282 F1600.
X-113.471 I-0.492 J0.
X-113.383 Y83.589 I0.492 J0.001
X-112.488 Y83.871 Z-5.293 I0.403 J0.282 F800.
X-113.471 Z-5.347 I-0.492 J0.
X-112.488 Z-5.401 I0.492 J0.001
X-113.471 Z-5.455 I-0.492 J0.
X-112.557 Y83.619 Z-5.5 I0.492 J0.001
X-112.488 Y83.871 I-0.422 J0.252 F1600.
X-113.471 I-0.492 J0.
X-112.557 Y83.619 I0.492 J0.001
X-112.488 Y83.871 Z-5.509 I-0.422 J0.252 F800.
X-113.471 Z-5.563 I-0.492 J0.
X-112.488 Z-5.617 I0.492 J0.001
X-113.471 Z-5.671 I-0.492 J0.
X-112.488 Z-5.725 I0.492 J0.001
X-112.923 Y84.359 Z-5.75 I-0.492 J0.
X-113.471 Y83.871 I-0.056 J-0.489 F1600.
X-112.488 I0.492 J0.001
X-112.923 Y84.359 I-0.492 J0.
X-113.471 Y83.871 Z-5.779 I-0.056 J-0.489 F800.
X-112.488 Z-5.833 I0.492 J0.001
X-113.471 Z-5.887 I-0.492 J0.
X-112.488 Z-5.941 I0.492 J0.001
X-113.471 Z-5.995 I-0.492 J0.
G1 X-113.466 Y83.795 Z-5.997
X-113.448 Y83.721 Z-6.
G3 X-112.488 Y83.871 I0.469 J0.15 F1600.
X-113.471 I-0.492 J0.
G1 X-113.466 Y83.795
X-113.448 Y83.721
G3 X-112.488 Y83.871 Z-6.049 I0.469 J0.15 F800.
X-113.471 Z-6.103 I-0.492 J0.
X-112.488 Z-6.157 I0.492 J0.001
X-113.471 Z-6.21 I-0.492 J0.
X-112.651 Y83.505 Z-6.25 I0.492 J0.001
X-112.488 Y83.871 I-0.329 J0.366 F1600.
X-113.471 I-0.492 J0.
X-112.651 Y83.505 I0.492 J0.001
X-112.488 Y83.871 Z-6.264 I-0.329 J0.366 F800.
X-113.471 Z-6.318 I-0.492 J0.
X-112.488 Z-6.372 I0.492 J0.001
X-113.471 Z-6.426 I-0.492 J0.
X-112.488 Z-6.48 I0.492 J0.001
X-112.781 Y84.32 Z-6.5 I-0.492 J0.
X-113.471 Y83.871 I-0.199 J-0.45 F1600.
X-112.488 I0.492 J0.001
X-112.781 Y84.32 I-0.492 J0.
X-113.471 Y83.871 Z-6.534 I-0.199 J-0.45 F800.
G1 Y83.867
G3 X-112.488 Y83.871 Z-6.588 I0.492 J0.004
X-113.471 Z-6.642 I-0.492 J0.
G1 Y83.867
G3 X-112.488 Y83.871 Z-6.696 I0.492 J0.004
X-113.471 Z-6.75 I-0.492 J0.
G1 Y83.867
G3 X-112.488 Y83.871 I0.492 J0.004 F1600.
X-113.471 I-0.492 J0.
G1 Y83.867
G3 X-112.488 Y83.871 Z-6.804 I0.492 J0.004 F800.
X-113.471 Z-6.858 I-0.492 J0.
G1 Y83.867
G3 X-112.488 Y83.871 Z-6.912 I0.492 J0.004
X-113.471 Z-6.966 I-0.492 J0.
G1 Y83.867
G3 X-112.774 Y83.424 Z-7. I0.492 J0.004
X-112.488 Y83.871 I-0.205 J0.447 F1600.
X-113.471 I-0.492 J0.
X-112.774 Y83.424 I0.492 J0.001
X-112.488 Y83.871 Z-7.02 I-0.205 J0.447 F800.
X-113.471 Z-7.074 I-0.492 J0.
X-112.488 Z-7.127 I0.492 J0.001
X-113.471 Z-7.181 I-0.492 J0.
X-112.488 Z-7.235 I0.492 J0.001
X-112.656 Y84.241 Z-7.25 I-0.492 J0.
X-113.471 Y83.871 I-0.323 J-0.371 F1600.
X-112.488 I0.492 J0.001
X-112.656 Y84.241 I-0.492 J0.
X-113.471 Y83.871 Z-7.289 I-0.323 J-0.371 F800.
X-112.488 Z-7.343 I0.492 J0.001
X-113.471 Z-7.397 I-0.492 J0.
X-112.488 Z-7.451 I0.492 J0.001
X-113.45 Y84.013 Z-7.5 I-0.492 J0.
G1 X-113.466 Y83.943 F1600.
X-113.471 Y83.871
G3 X-112.488 I0.492 J0.001
X-113.45 Y84.013 I-0.492 J0.
G1 X-113.466 Y83.943 Z-7.503 F800.
X-113.471 Y83.871 Z-7.505
G3 X-112.488 Z-7.559 I0.492 J0.001
X-113.471 Z-7.613 I-0.492 J0.
X-112.488 Z-7.667 I0.492 J0.001
X-113.471 Z-7.721 I-0.492 J0.
X-112.916 Y83.383 Z-7.75 I0.492 J0.001
X-112.488 Y83.871 I-0.064 J0.488 F1600.
X-113.471 I-0.492 J0.
X-112.916 Y83.383 I0.492 J0.001
X-112.488 Y83.871 Z-7.775 I-0.064 J0.488 F800.
X-113.471 Z-7.829 I-0.492 J0.
X-112.488 Z-7.883 I0.492 J0.001
X-113.471 Z-7.937 I-0.492 J0.
X-112.488 Z-7.991 I0.492 J0.001
X-112.561 Y84.129 Z-8. I-0.492 J0.
X-113.471 Y83.871 I-0.419 J-0.259 F1600.
X-112.488 I0.492 J0.001
X-112.561 Y84.129 I-0.492 J0.
X-113.471 Y83.871 Z-8.044 I-0.419 J-0.259 F800.
X-112.488 Z-8.098 I0.492 J0.001
X-113.471 Z-8.152 I-0.492 J0.
X-112.488 Z-8.206 I0.492 J0.001
X-113.387 Y84.146 Z-8.25 I-0.492 J0.
X-113.471 Y83.871 I0.407 J-0.276 F1600.
X-112.488 I0.492 J0.001
X-113.387 Y84.146 I-0.492 J0.
X-113.471 Y83.871 Z-8.26 I0.407 J-0.276 F800.
X-112.488 Z-8.314 I0.492 J0.001
X-113.471 Z-8.368 I-0.492 J0.
X-112.488 Z-8.422 I0.492 J0.001
X-113.471 Z-8.476 I-0.492 J0.
X-113.063 Y83.387 Z-8.5 I0.492 J0.001
X-112.488 Y83.871 I0.084 J0.485 F1600.
X-113.471 I-0.492 J0.
X-113.063 Y83.387 I0.492 J0.001
X-112.488 Y83.871 Z-8.53 I0.084 J0.485 F800.
X-113.471 Z-8.584 I-0.492 J0.
X-112.488 Z-8.638 I0.492 J0.001
X-113.471 Z-8.692 I-0.492 J0.
X-112.488 Z-8.746 I0.492 J0.001
G1 X-112.491 Y83.932 Z-8.748
X-112.503 Y83.993 Z-8.75
G3 X-113.471 Y83.871 I-0.476 J-0.123 F1600.
X-112.488 I0.492 J0.001
G1 X-112.491 Y83.932
X-112.503 Y83.993
G3 X-113.471 Y83.871 Z-8.8 I-0.476 J-0.123 F800.
X-112.488 Z-8.854 I0.492 J0.001
X-113.471 Z-8.908 I-0.492 J0.
X-112.488 Z-8.961 I0.492 J0.001
X-113.287 Y84.255 Z-9. I-0.492 J0.
X-113.471 Y83.871 I0.307 J-0.384 F1600.
X-112.488 I0.492 J0.001
X-113.287 Y84.255 I-0.492 J0.
X-113.471 Y83.871 Z-9.015 I0.307 J-0.384 F800.
X-112.488 Z-9.069 I0.492 J0.001
X-113.471 Z-9.123 I-0.492 J0.
X-112.488 Z-9.177 I0.492 J0.001
X-113.471 Z-9.231 I-0.492 J0.
X-113.203 Y83.433 Z-9.25 I0.492 J0.001
X-112.488 Y83.871 I0.224 J0.438 F1600.
X-113.471 I-0.492 J0.
X-113.203 Y83.433 I0.492 J0.001
X-112.488 Y83.871 Z-9.285 I0.224 J0.438 F800.
X-113.471 Z-9.339 I-0.492 J0.
X-112.488 Z-9.393 I0.492 J0.001
X-113.471 Z-9.447 I-0.492 J0.
X-112.488 Y83.846 Z-9.5 I0.492 J0.001
G1 Y83.871 F1600.
G3 X-113.471 I-0.492 J0.
X-112.488 Y83.846 I0.492 J0.001
G1 Y83.871 Z-9.501 F800.
G3 X-113.471 Z-9.555 I-0.492 J0.
X-112.488 Z-9.609 I0.492 J0.001
X-113.471 Z-9.663 I-0.492 J0.
X-112.488 Z-9.717 I0.492 J0.001
X-113.159 Y84.328 Z-9.75 I-0.492 J0.
X-113.471 Y83.871 I0.179 J-0.458 F1600.
X-112.488 I0.492 J0.001
X-113.159 Y84.328 I-0.492 J0.
X-113.471 Y83.871 Z-9.771 I0.179 J-0.458 F800.
X-112.488 Z-9.824 I0.492 J0.001
X-113.471 Z-9.878 I-0.492 J0.
X-112.488 Z-9.932 I0.492 J0.001
X-113.471 Z-9.986 I-0.492 J0.
X-113.323 Y83.519 Z-10. I0.492 J0.001
X-112.488 Y83.871 I0.344 J0.352 F1600.
X-113.471 I-0.492 J0.
X-113.323 Y83.519 I0.492 J0.001
X-112.488 Y83.871 Z-10.04 I0.344 J0.352 F800.
X-113.471 Z-10.094 I-0.492 J0.
X-112.488 Z-10.148 I0.492 J0.001
X-113.471 Z-10.202 I-0.492 J0.
X-112.518 Y83.702 Z-10.25 I0.492 J0.001
G1 X-112.495 Y83.785 F1600.
X-112.488 Y83.871
G3 X-113.471 I-0.492 J0.
X-112.518 Y83.702 I0.492 J0.001
G1 X-112.495 Y83.785 Z-10.253 F800.
X-112.488 Y83.871 Z-10.256
G3 X-113.471 Z-10.31 I-0.492 J0.
X-112.488 Z-10.364 I0.492 J0.001
X-113.471 Z-10.418 I-0.492 J0.
X-112.488 Z-10.472 I0.492 J0.001
X-113.015 Y84.361 Z-10.5 I-0.492 J0.
X-113.471 Y83.871 I0.035 J-0.491 F1600.
X-112.488 I0.492 J0.001
X-113.015 Y84.361 I-0.492 J0.
X-113.471 Y83.871 Z-10.526 I0.035 J-0.491 F800.
X-112.488 Z-10.58 I0.492 J0.001
X-113.471 Z-10.634 I-0.492 J0.
X-112.488 Z-10.688 I0.492 J0.001
X-113.471 Z-10.741 I-0.492 J0.
G1 X-113.465 Y83.79 Z-10.744
X-113.445 Y83.711 Z-10.747
X-113.412 Y83.637 Z-10.75
G3 X-112.488 Y83.871 I0.433 J0.234 F1600.
X-113.471 I-0.492 J0.
G1 X-113.465 Y83.79
X-113.445 Y83.711
X-113.412 Y83.637
G3 X-112.488 Y83.871 Z-10.795 I0.433 J0.234 F800.
X-113.471 Z-10.849 I-0.492 J0.
X-112.488 Z-10.903 I0.492 J0.001
X-113.471 Z-10.957 I-0.492 J0.
X-112.589 Y83.572 Z-11. I0.492 J0.001
X-112.488 Y83.871 I-0.391 J0.299 F1600.
X-113.471 I-0.492 J0.
X-112.589 Y83.572 I0.492 J0.001
X-112.488 Y83.871 Z-11.011 I-0.391 J0.299 F800.
X-113.471 Z-11.065 I-0.492 J0.
X-112.488 Z-11.119 I0.492 J0.001
X-113.471 Z-11.173 I-0.492 J0.
X-112.488 Z-11.227 I0.492 J0.001
X-112.868 Y84.349 Z-11.25 I-0.492 J0.
X-113.471 Y83.871 I-0.112 J-0.479 F1600.
X-112.488 I0.492 J0.001
X-112.868 Y84.349 I-0.492 J0.
X-113.471 Y83.871 Z-11.281 I-0.112 J-0.479 F800.
X-112.488 Z-11.335 I0.492 J0.001
X-113.471 Z-11.389 I-0.492 J0.
X-112.488 Z-11.443 I0.492 J0.001
X-113.471 Z-11.497 I-0.492 J0.
G1 X-113.469 Y83.823 Z-11.498
X-113.462 Y83.776 Z-11.5
