(T1  D=3.175 CR=0. - ZMIN=-13.7 - FLAT END MILL)
G90 G94 G91.1 G40 G49 G17
G21
G0 Z15

(2D CONTOUR3)
M5
T1 M6
S16000 M3
G54
G0 X200.954 Y150.681
G43 Z16. H1
Z6.
G1 Z5.175 F800.
Z3.818
X200.948 Y150.677 Z3.747
X200.928 Y150.664 Z3.68
X200.897 Y150.643 Z3.62
X200.855 Y150.615 Z3.569
X200.804 Y150.582 Z3.531
X200.749 Y150.545 Z3.508
X200.69 Y150.506 Z3.5
X200.425 Y150.331 F1600.
G3 X200.336 Y149.891 I0.175 J-0.265
G2 X230.188 Y50.8 Z-0.166 I-149.536 J-99.091 F800.
G1 Y0. Z-1.94
Y50.8 F1600.
G3 X50.8 Y230.188 I-179.388 J0.
G2 X230.188 Y50.8 Z-4.431 I0. J-179.388 F800.
G1 Y0. Z-4.88
Y50.8 F1600.
G3 X50.8 Y230.188 I-179.388 J0.
G2 X230.188 Y50.8 Z-7.371 I0. J-179.388 F800.
G1 Y0. Z-7.82
Y50.8 F1600.
G3 X50.8 Y230.188 I-179.388 J0.
G2 X230.188 Y50.8 Z-10.311 I0. J-179.388 F800.
G1 Y0. Z-10.76
Y50.8 F1600.
G3 X50.8 Y230.188 I-179.388 J0.
G2 X230.188 Y50.8 Z-13.251 I0. J-179.388 F800.
G1 Y0. Z-13.7
Y50.8 F1600.
G3 X50.8 Y230.188 I-179.388 J0.
G2 X50.482 Y230.505 I0. J0.318
G1 Y230.822
G19 G3 Y231.14 Z-13.383 J0. K0.318
G0 Z16.
G17

(BORE1)
G0 X50.82 Y51.118
Z10.
Z3.
G1 Z1.317 F800.
G18 G2 X51.137 Z1. I0.317 K0.
G1 X51.296
G17 G2 X51.613 Y50.8 I0. J-0.318
X49.986 Z0.916 I-0.813 J0. F1600.
X51.613 Z0.832 I0.813 J0.
X49.986 Z0.748 I-0.813 J0.
X51.613 Z0.665 I0.813 J0.
X49.986 Z0.581 I-0.813 J0.
X51.613 Z0.497 I0.813 J0.
X49.986 Z0.413 I-0.813 J0.
X51.613 Z0.329 I0.813 J0.
X49.986 Z0.245 I-0.813 J0.
X51.613 Z0.162 I0.813 J0.
X49.986 Z0.078 I-0.813 J0.
X51.613 Z-0.006 I0.813 J0.
X49.986 Z-0.09 I-0.813 J0.
X51.613 Z-0.174 I0.813 J0.
X49.986 Z-0.258 I-0.813 J0.
X51.613 Z-0.342 I0.813 J0.
X49.986 Z-0.425 I-0.813 J0.
X51.613 Z-0.509 I0.813 J0.
X49.986 Z-0.593 I-0.813 J0.
X51.613 Z-0.677 I0.813 J0.
X49.986 Z-0.761 I-0.813 J0.
X51.613 Z-0.845 I0.813 J0.
X49.986 Z-0.928 I-0.813 J0.
X51.613 Z-1.012 I0.813 J0.
X49.986 Z-1.096 I-0.813 J0.
X51.613 Z-1.18 I0.813 J0.
X49.986 Z-1.264 I-0.813 J0.
X51.613 Z-1.348 I0.813 J0.
X49.986 Z-1.431 I-0.813 J0.
X51.613 Z-1.515 I0.813 J0.
X49.986 Z-1.599 I-0.813 J0.
X51.613 Z-1.683 I0.813 J0.
X49.986 Z-1.767 I-0.813 J0.
X51.613 Z-1.851 I0.813 J0.
X49.986 Z-1.935 I-0.813 J0.
X51.613 Z-2.018 I0.813 J0.
X49.986 Z-2.102 I-0.813 J0.
X51.613 Z-2.186 I0.813 J0.
X49.986 Z-2.27 I-0.813 J0.
X51.613 Z-2.354 I0.813 J0.
X49.986 Z-2.438 I-0.813 J0.
X51.613 Z-2.521 I0.813 J0.
X49.986 Z-2.605 I-0.813 J0.
X51.613 Z-2.689 I0.813 J0.
X49.986 Z-2.773 I-0.813 J0.
X51.613 Z-2.857 I0.813 J0.
X49.986 Z-2.941 I-0.813 J0.
X51.613 Z-3.025 I0.813 J0.
X49.986 Z-3.108 I-0.813 J0.
X51.613 Z-3.192 I0.813 J0.
X49.986 Z-3.276 I-0.813 J0.
X51.613 Z-3.36 I0.813 J0.
X49.986 Z-3.444 I-0.813 J0.
X51.613 Z-3.528 I0.813 J0.
X49.986 Z-3.611 I-0.813 J0.
X51.613 Z-3.695 I0.813 J0.
X49.986 Z-3.779 I-0.813 J0.
X51.613 Z-3.863 I0.813 J0.
X49.986 Z-3.947 I-0.813 J0.
X51.613 Z-4.031 I0.813 J0.
X49.986 Z-4.115 I-0.813 J0.
X51.613 Z-4.198 I0.813 J0.
X49.986 Z-4.282 I-0.813 J0.
X51.613 Z-4.366 I0.813 J0.
X49.986 Z-4.45 I-0.813 J0.
X51.613 Z-4.534 I0.813 J0.
X49.986 Z-4.618 I-0.813 J0.
X51.613 Z-4.701 I0.813 J0.
X49.986 Z-4.785 I-0.813 J0.
X51.613 Z-4.869 I0.813 J0.
X49.986 Z-4.953 I-0.813 J0.
X51.613 Z-5.037 I0.813 J0.
X49.986 Z-5.121 I-0.813 J0.
X51.613 Z-5.205 I0.813 J0.
X49.986 Z-5.288 I-0.813 J0.
X51.613 Z-5.372 I0.813 J0.
X49.986 Z-5.456 I-0.813 J0.
X51.613 Z-5.54 I0.813 J0.
X49.986 Z-5.624 I-0.813 J0.
X51.613 Z-5.708 I0.813 J0.
X49.986 Z-5.791 I-0.813 J0.
X51.613 Z-5.875 I0.813 J0.
X49.986 Z-5.959 I-0.813 J0.
X51.613 Z-6.043 I0.813 J0.
X49.986 Z-6.127 I-0.813 J0.
X51.613 Z-6.211 I0.813 J0.
X49.986 Z-6.294 I-0.813 J0.
X51.613 Z-6.378 I0.813 J0.
X49.986 Z-6.462 I-0.813 J0.
X51.613 Z-6.546 I0.813 J0.
X49.986 Z-6.63 I-0.813 J0.
X51.613 Z-6.714 I0.813 J0.
X49.986 Z-6.798 I-0.813 J0.
X51.613 Z-6.881 I0.813 J0.
X49.986 Z-6.965 I-0.813 J0.
X51.613 Z-7.049 I0.813 J0.
X49.986 Z-7.133 I-0.813 J0.
X51.613 Z-7.217 I0.813 J0.
X49.986 Z-7.301 I-0.813 J0.
X51.613 Z-7.384 I0.813 J0.
X49.986 Z-7.468 I-0.813 J0.
X51.613 Z-7.552 I0.813 J0.
X49.986 Z-7.636 I-0.813 J0.
X51.613 Z-7.72 I0.813 J0.
X49.986 Z-7.804 I-0.813 J0.
X51.613 Z-7.888 I0.813 J0.
X49.986 Z-7.971 I-0.813 J0.
X51.613 Z-8.055 I0.813 J0.
X49.986 Z-8.139 I-0.814 J0.
X51.613 Z-8.223 I0.814 J0.
X49.986 Z-8.307 I-0.814 J0.
X51.613 Z-8.391 I0.814 J0.
X49.986 Z-8.474 I-0.814 J0.
X51.613 Z-8.558 I0.814 J0.
X49.986 Z-8.642 I-0.814 J0.
X51.613 Z-8.726 I0.814 J0.
X49.986 Z-8.81 I-0.814 J0.
X51.613 Z-8.894 I0.814 J0.
X49.986 Z-8.978 I-0.814 J0.
X51.613 Z-9.061 I0.814 J0.
X49.986 Z-9.145 I-0.814 J0.
X51.613 Z-9.229 I0.814 J0.
X49.986 Z-9.313 I-0.814 J0.
X51.613 Z-9.397 I0.814 J0.
X49.986 Z-9.481 I-0.814 J0.
X51.613 Z-9.564 I0.814 J0.
X49.986 Z-9.648 I-0.814 J0.
X51.613 Z-9.732 I0.814 J0.
X49.986 Z-9.816 I-0.814 J0.
X51.613 Z-9.9 I0.814 J0.
X49.986 Z-9.984 I-0.814 J0.
X51.613 Z-10.068 I0.814 J0.
X49.986 Z-10.151 I-0.814 J0.
X51.613 Z-10.235 I0.814 J0.
X49.986 Z-10.319 I-0.814 J0.
X51.613 Z-10.403 I0.814 J0.
X49.986 Z-10.487 I-0.814 J0.
X51.613 Z-10.571 I0.814 J0.
X49.986 Z-10.654 I-0.814 J0.
X51.613 Z-10.738 I0.814 J0.
X49.986 Z-10.822 I-0.814 J0.
X51.613 Z-10.906 I0.814 J0.
X49.986 Z-10.99 I-0.814 J0.
X51.613 Z-11.074 I0.814 J0.
X49.986 Z-11.157 I-0.814 J0.
X51.613 Z-11.241 I0.814 J0.
X49.986 Z-11.325 I-0.814 J0.
X51.613 Z-11.409 I0.814 J0.
X49.986 Z-11.493 I-0.814 J0.
X51.613 Z-11.577 I0.814 J0.
X49.986 Z-11.661 I-0.814 J0.
X51.613 Z-11.744 I0.814 J0.
X49.986 Z-11.828 I-0.814 J0.
X51.613 Z-11.912 I0.814 J0.
X49.986 Z-11.996 I-0.814 J0.
X51.613 Z-12.08 I0.814 J0.
X49.986 Z-12.164 I-0.814 J0.
X51.613 Z-12.247 I0.814 J0.
X49.986 Z-12.331 I-0.814 J0.
X51.613 Z-12.415 I0.814 J0.
X49.986 Z-12.499 I-0.814 J0.
X51.613 Z-12.583 I0.814 J0.
X49.986 Z-12.667 I-0.814 J0.
X51.613 Z-12.751 I0.814 J0.
X49.986 Z-12.834 I-0.814 J0.
X51.613 Z-12.918 I0.814 J0.
X49.986 Z-13.002 I-0.814 J0.
X51.613 Z-13.086 I0.814 J0.
X49.986 Z-13.17 I-0.814 J0.
X51.613 Z-13.254 I0.814 J0.
X49.986 Z-13.337 I-0.814 J0.
X51.613 Z-13.421 I0.814 J0.
X49.986 Z-13.505 I-0.814 J0.
X51.613 Z-13.589 I0.814 J0.
X49.986 Z-13.673 I-0.814 J0.
X50.373 Y51.492 Z-13.7 I0.814 J0.
X51.227 Y50.108 I0.427 J-0.692
X50.373 Y51.492 I-0.427 J0.692
X50.81 Y51.389 I0.167 J-0.27 F800.
G1 X50.893 Y51.254
X50.93 Y51.194 Z-13.692
X50.965 Y51.137 Z-13.669
X50.997 Y51.085 Z-13.631
X51.023 Y51.042 Z-13.58
X51.043 Y51.01 Z-13.52
X51.056 Y50.99 Z-13.453
X51.06 Y50.984 Z-13.382
G0 Z5.
X53.807 Y51.118
Z3.
G1 Z1.317 F800.
G18 G2 X54.125 Z1. I0.317 K0.
G1 X54.284
G17 G2 X54.601 Y50.8 I0. J-0.318
X46.999 Z0.812 I-3.801 J0. F1600.
X54.601 Z0.624 I3.801 J0.
X46.999 Z0.435 I-3.801 J0.
X54.601 Z0.247 I3.801 J0.
X46.999 Z0.059 I-3.801 J0.
X54.601 Z-0.129 I3.801 J0.
X46.999 Z-0.317 I-3.801 J0.
X54.601 Z-0.505 I3.801 J0.
X46.999 Z-0.694 I-3.801 J0.
X54.601 Z-0.882 I3.801 J0.
X46.999 Z-1.07 I-3.801 J0.
X54.601 Z-1.258 I3.801 J0.
X46.999 Z-1.446 I-3.801 J0.
X54.601 Z-1.634 I3.801 J0.
X46.999 Z-1.823 I-3.801 J0.
X54.601 Z-2.011 I3.801 J0.
X46.999 Z-2.199 I-3.801 J0.
X54.601 Z-2.387 I3.801 J0.
X46.999 Z-2.575 I-3.801 J0.
X54.601 Z-2.763 I3.801 J0.
X46.999 Z-2.952 I-3.801 J0.
X54.601 Z-3.14 I3.801 J0.
X46.999 Z-3.328 I-3.801 J0.
X54.601 Z-3.516 I3.801 J0.
X46.999 Z-3.704 I-3.801 J0.
X54.601 Z-3.892 I3.801 J0.
X46.999 Z-4.081 I-3.801 J0.
X54.601 Z-4.269 I3.801 J0.
X46.999 Z-4.457 I-3.801 J0.
X54.601 Z-4.645 I3.801 J0.
X46.999 Z-4.833 I-3.801 J0.
X54.601 Z-5.021 I3.801 J0.
X46.999 Z-5.21 I-3.801 J0.
X54.601 Z-5.398 I3.801 J0.
X46.999 Z-5.586 I-3.801 J0.
X54.601 Z-5.774 I3.801 J0.
X46.999 Z-5.962 I-3.801 J0.
X54.601 Z-6.15 I3.801 J0.
X46.999 Z-6.339 I-3.801 J0.
X54.601 Z-6.527 I3.801 J0.
X46.999 Z-6.715 I-3.801 J0.
X54.601 Z-6.903 I3.801 J0.
X46.999 Z-7.091 I-3.801 J0.
X54.601 Z-7.28 I3.801 J0.
X46.999 Z-7.468 I-3.801 J0.
X54.601 Z-7.656 I3.801 J0.
X46.999 Z-7.844 I-3.801 J0.
X54.601 Z-8.032 I3.801 J0.
X46.999 Z-8.22 I-3.801 J0.
X54.601 Z-8.409 I3.801 J0.
X46.999 Z-8.597 I-3.801 J0.
X54.601 Z-8.785 I3.801 J0.
X46.999 Z-8.973 I-3.801 J0.
X54.601 Z-9.161 I3.801 J0.
X46.999 Z-9.349 I-3.801 J0.
X54.601 Z-9.538 I3.801 J0.
X46.999 Z-9.726 I-3.801 J0.
X54.601 Z-9.914 I3.801 J0.
X46.999 Z-10.102 I-3.801 J0.
X54.601 Z-10.29 I3.801 J0.
X46.999 Z-10.478 I-3.801 J0.
X54.601 Z-10.667 I3.801 J0.
X46.999 Z-10.855 I-3.801 J0.
X54.601 Z-11.043 I3.801 J0.
X46.999 Z-11.231 I-3.801 J0.
X54.601 Z-11.419 I3.801 J0.
X46.999 Z-11.607 I-3.801 J0.
X54.601 Z-11.796 I3.801 J0.
X46.999 Z-11.984 I-3.801 J0.
X54.601 Z-12.172 I3.801 J0.
X46.999 Z-12.36 I-3.801 J0.
X54.601 Z-12.548 I3.801 J0.
X46.999 Z-12.736 I-3.801 J0.
X54.601 Z-12.925 I3.801 J0.
X46.999 Z-13.113 I-3.801 J0.
X54.601 Z-13.301 I3.801 J0.
X46.999 Z-13.489 I-3.801 J0.
X54.601 Z-13.677 I3.801 J0.
X54.331 Y49.394 Z-13.7 I-3.801 J0.
X47.269 Y52.206 I-3.531 J1.406
X54.331 Y49.394 I3.531 J-1.406
X53.919 Y49.216 I-0.295 J0.117 F800.
G1 X53.771 Y49.275
X53.706 Y49.301 Z-13.692
X53.643 Y49.326 Z-13.669
X53.588 Y49.348 Z-13.631
X53.541 Y49.367 Z-13.58
X53.506 Y49.381 Z-13.52
X53.484 Y49.39 Z-13.453
X53.476 Y49.393 Z-13.382
G0 Z5.
X56.795 Y51.118
Z3.
G1 Z1.317 F800.
G18 G2 X57.112 Z1. I0.318 K0.
G1 X57.271
G17 G2 X57.589 Y50.8 I0. J-0.318
X44.011 Z0.708 I-6.789 J0. F1600.
X57.589 Z0.415 I6.789 J0.
X44.011 Z0.123 I-6.789 J0.
X57.589 Z-0.17 I6.789 J0.
X44.011 Z-0.462 I-6.789 J0.
X57.589 Z-0.755 I6.789 J0.
X44.011 Z-1.047 I-6.789 J0.
X57.589 Z-1.34 I6.789 J0.
X44.011 Z-1.632 I-6.789 J0.
X57.589 Z-1.925 I6.789 J0.
X44.011 Z-2.217 I-6.789 J0.
X57.589 Z-2.51 I6.789 J0.
X44.011 Z-2.802 I-6.789 J0.
X57.588 Z-3.095 I6.789 J0.
X44.011 Z-3.387 I-6.789 J0.
X57.588 Z-3.68 I6.789 J0.
X44.011 Z-3.972 I-6.789 J0.
X57.588 Z-4.265 I6.789 J0.
X44.011 Z-4.557 I-6.789 J0.
X57.588 Z-4.85 I6.789 J0.
X44.011 Z-5.142 I-6.789 J0.
X57.588 Z-5.435 I6.789 J0.
X44.011 Z-5.727 I-6.789 J0.
X57.588 Z-6.02 I6.789 J0.
X44.011 Z-6.312 I-6.788 J0.
X57.588 Z-6.605 I6.788 J0.
X44.011 Z-6.897 I-6.788 J0.
X57.588 Z-7.19 I6.788 J0.
X44.011 Z-7.482 I-6.788 J0.
X57.588 Z-7.775 I6.788 J0.
X44.011 Z-8.067 I-6.788 J0.
X57.588 Z-8.36 I6.788 J0.
X44.011 Z-8.652 I-6.788 J0.
X57.588 Z-8.945 I6.788 J0.
X44.012 Z-9.237 I-6.788 J0.
X57.588 Z-9.53 I6.788 J0.
X44.012 Z-9.822 I-6.788 J0.
X57.588 Z-10.115 I6.788 J0.
X44.012 Z-10.407 I-6.788 J0.
X57.588 Z-10.7 I6.788 J0.
X44.012 Z-10.992 I-6.788 J0.
X57.588 Z-11.285 I6.788 J0.
X44.012 Z-11.577 I-6.788 J0.
X57.588 Z-11.87 I6.788 J0.
X44.012 Z-12.162 I-6.788 J0.
X57.588 Z-12.455 I6.788 J0.
X44.012 Z-12.747 I-6.788 J0.
X57.588 Z-13.04 I6.788 J0.
X44.012 Z-13.332 I-6.788 J0.
X57.588 Z-13.625 I6.788 J0.
X55.493 Y45.895 Z-13.7 I-6.788 J0.
X46.107 Y55.705 I-4.693 J4.905
X55.493 Y45.895 I4.693 J-4.905
X55.044 Y45.905 I-0.219 J0.229 F800.
G1 X54.934 Y46.02
X54.885 Y46.071 Z-13.692
X54.839 Y46.119 Z-13.669
X54.797 Y46.163 Z-13.631
X54.763 Y46.199 Z-13.58
X54.737 Y46.226 Z-13.52
X54.72 Y46.243 Z-13.453
X54.715 Y46.249 Z-13.382
G0 Z5.
X59.782 Y51.118
Z3.
G1 Z1.317 F800.
G18 G2 X60.1 Z1. I0.318 K0.
G1 X60.258
G17 G2 X60.576 Y50.8 I0. J-0.318
X41.024 Z0.603 I-9.776 J0. F1600.
X60.576 Z0.206 I9.776 J0.
X41.024 Z-0.19 I-9.776 J0.
X60.576 Z-0.587 I9.776 J0.
X41.024 Z-0.984 I-9.776 J0.
X60.576 Z-1.381 I9.776 J0.
X41.024 Z-1.778 I-9.776 J0.
X60.576 Z-2.175 I9.776 J0.
X41.024 Z-2.571 I-9.776 J0.
X60.576 Z-2.968 I9.776 J0.
X41.024 Z-3.365 I-9.776 J0.
X60.576 Z-3.762 I9.776 J0.
X41.024 Z-4.159 I-9.776 J0.
X60.576 Z-4.556 I9.776 J0.
X41.024 Z-4.952 I-9.776 J0.
X60.576 Z-5.349 I9.776 J0.
X41.024 Z-5.746 I-9.776 J0.
X60.576 Z-6.143 I9.776 J0.
X41.024 Z-6.54 I-9.776 J0.
X60.576 Z-6.936 I9.776 J0.
X41.024 Z-7.333 I-9.776 J0.
X60.576 Z-7.73 I9.776 J0.
X41.024 Z-8.127 I-9.776 J0.
X60.576 Z-8.524 I9.776 J0.
X41.024 Z-8.921 I-9.776 J0.
X60.576 Z-9.317 I9.776 J0.
X41.024 Z-9.714 I-9.776 J0.
X60.576 Z-10.111 I9.776 J0.
X41.024 Z-10.508 I-9.776 J0.
X60.576 Z-10.905 I9.776 J0.
X41.024 Z-11.301 I-9.776 J0.
X60.576 Z-11.698 I9.776 J0.
X41.024 Z-12.095 I-9.776 J0.
X60.576 Z-12.492 I9.776 J0.
X41.024 Z-12.889 I-9.776 J0.
X60.576 Z-13.286 I9.776 J0.
X50.12 Y41.048 Z-13.493 I-9.776 J0.
X41.119 Y52.156 Z-13.7 I0.68 J9.752
X60.481 Y49.444 I9.681 J-1.356
X41.119 Y52.156 I-9.681 J1.356
X41.477 Y52.427 I0.314 J-0.044 F800.
G1 X41.634 Y52.405
X41.704 Y52.395 Z-13.692
X41.771 Y52.385 Z-13.669
X41.83 Y52.377 Z-13.631
X41.88 Y52.37 Z-13.58
X41.918 Y52.365 Z-13.52
X41.941 Y52.362 Z-13.453
X41.949 Y52.361 Z-13.382
G0 Z5.
X62.77 Y51.118
Z3.
G1 Z1.317 F800.
G18 G2 X63.087 Z1. I0.318 K0.
G1 X63.246
G17 G2 X63.563 Y50.8 I0. J-0.318
X38.036 Z0.499 I-12.764 J0. F1600.
X63.563 Z-0.002 I12.764 J0.
X38.036 Z-0.503 I-12.764 J0.
X63.563 Z-1.005 I12.764 J0.
X38.036 Z-1.506 I-12.764 J0.
X63.563 Z-2.007 I12.764 J0.
X38.036 Z-2.508 I-12.764 J0.
X63.563 Z-3.009 I12.764 J0.
X38.036 Z-3.51 I-12.764 J0.
X63.563 Z-4.011 I12.764 J0.
X38.036 Z-4.513 I-12.764 J0.
X63.563 Z-5.014 I12.764 J0.
X38.036 Z-5.515 I-12.764 J0.
X63.563 Z-6.016 I12.764 J0.
X38.036 Z-6.517 I-12.764 J0.
X63.563 Z-7.018 I12.764 J0.
X38.036 Z-7.52 I-12.764 J0.
X63.563 Z-8.021 I12.764 J0.
X38.036 Z-8.522 I-12.764 J0.
X63.563 Z-9.023 I12.764 J0.
X38.036 Z-9.524 I-12.764 J0.
X63.563 Z-10.025 I12.764 J0.
X38.036 Z-10.526 I-12.764 J0.
X63.563 Z-11.028 I12.764 J0.
X38.036 Z-11.529 I-12.764 J0.
X63.563 Z-12.03 I12.764 J0.
X38.036 Z-12.531 I-12.764 J0.
X63.563 Z-13.032 I12.764 J0.
X38.036 Z-13.533 I-12.764 J0.
X44.395 Y61.84 Z-13.7 I12.764 J0.
X57.205 Y39.76 I6.405 J-11.04
X44.395 Y61.84 I-6.405 J11.04
X44.829 Y61.725 I0.159 J-0.275 F800.
G1 X44.908 Y61.587
X44.944 Y61.526 Z-13.692
X44.977 Y61.468 Z-13.669
X45.008 Y61.416 Z-13.631
X45.033 Y61.373 Z-13.58
X45.052 Y61.34 Z-13.52
X45.064 Y61.32 Z-13.453
X45.068 Y61.313 Z-13.382
G0 Z10.

(BORE2)
G0 Z15.
X143.994 Y127.982
Z3.
G1 Z1.317 F800.
G18 G2 X144.312 Z1. I0.318 K0.
G1 X144.47
G17 G2 X144.788 Y127.665 I0. J-0.318
X140.819 Z0.875 I-1.984 J0.
X144.788 Z0.751 I1.984 J0.
X140.819 Z0.626 I-1.984 J0.
X144.788 Z0.501 I1.984 J0.
X140.819 Z0.376 I-1.984 J0.
X144.788 Z0.252 I1.984 J0.
X140.819 Z0.127 I-1.984 J0.
X144.788 Z0.002 I1.984 J0.
X140.819 Z-0.123 I-1.984 J0.
X144.788 Z-0.247 I1.984 J0.
X140.819 Z-0.372 I-1.984 J0.
X144.788 Z-0.497 I1.984 J0.
X140.819 Z-0.622 I-1.984 J0.
X144.788 Z-0.746 I1.984 J0.
X140.819 Z-0.871 I-1.984 J0.
X144.788 Z-0.996 I1.984 J0.
X140.819 Z-1.12 I-1.984 J0.
X144.788 Z-1.245 I1.984 J0.
X140.819 Z-1.37 I-1.984 J0.
X144.788 Z-1.495 I1.984 J0.
X140.819 Z-1.619 I-1.984 J0.
X144.788 Z-1.744 I1.984 J0.
X140.819 Z-1.869 I-1.984 J0.
X144.788 Z-1.994 I1.984 J0.
X140.819 Z-2.118 I-1.984 J0.
X144.788 Z-2.243 I1.984 J0.
X140.819 Z-2.368 I-1.984 J0.
X144.788 Z-2.493 I1.984 J0.
X140.819 Z-2.617 I-1.984 J0.
X144.788 Z-2.742 I1.984 J0.
X140.819 Z-2.867 I-1.984 J0.
X144.788 Z-2.991 I1.984 J0.
X140.819 Z-3.116 I-1.984 J0.
X144.788 Z-3.241 I1.984 J0.
X140.819 Z-3.366 I-1.984 J0.
X144.788 Z-3.49 I1.984 J0.
X140.819 Z-3.615 I-1.984 J0.
X144.788 Z-3.74 I1.984 J0.
X140.819 Z-3.865 I-1.984 J0.
X144.788 Z-3.989 I1.984 J0.
X140.819 Z-4.114 I-1.984 J0.
X144.788 Z-4.239 I1.984 J0.
X140.819 Z-4.364 I-1.984 J0.
X144.788 Z-4.488 I1.984 J0.
X140.819 Z-4.613 I-1.984 J0.
X144.788 Z-4.738 I1.984 J0.
X140.819 Z-4.862 I-1.984 J0.
X144.788 Z-4.987 I1.984 J0.
X140.819 Z-5.112 I-1.984 J0.
X144.788 Z-5.237 I1.984 J0.
X140.819 Z-5.361 I-1.984 J0.
X144.788 Z-5.486 I1.984 J0.
X140.819 Z-5.611 I-1.984 J0.
X144.788 Z-5.736 I1.984 J0.
X140.819 Z-5.86 I-1.984 J0.
X144.788 Z-5.985 I1.984 J0.
X140.819 Z-6.11 I-1.984 J0.
X144.788 Z-6.234 I1.984 J0.
X140.819 Z-6.359 I-1.984 J0.
X144.788 Z-6.484 I1.984 J0.
X140.819 Z-6.609 I-1.984 J0.
X144.788 Z-6.733 I1.984 J0.
X140.819 Z-6.858 I-1.984 J0.
X144.788 Z-6.983 I1.984 J0.
X140.819 Z-7.108 I-1.984 J0.
X144.788 Z-7.232 I1.984 J0.
X140.819 Z-7.357 I-1.984 J0.
X144.788 Z-7.482 I1.984 J0.
X140.819 Z-7.607 I-1.984 J0.
X144.788 Z-7.731 I1.984 J0.
X140.819 Z-7.856 I-1.984 J0.
X144.788 Z-7.981 I1.984 J0.
X140.819 Z-8.105 I-1.984 J0.
X144.788 Z-8.23 I1.984 J0.
X140.819 Z-8.355 I-1.984 J0.
X144.788 Z-8.48 I1.984 J0.
X140.819 Z-8.604 I-1.984 J0.
X144.788 Z-8.729 I1.984 J0.
X140.819 Z-8.854 I-1.984 J0.
X144.788 Z-8.979 I1.984 J0.
X140.819 Z-9.103 I-1.984 J0.
X144.788 Z-9.228 I1.984 J0.
X140.819 Z-9.353 I-1.984 J0.
X144.788 Z-9.478 I1.984 J0.
X140.819 Z-9.602 I-1.984 J0.
X144.788 Z-9.727 I1.984 J0.
X140.819 Z-9.852 I-1.984 J0.
X144.788 Z-9.976 I1.984 J0.
X140.819 Z-10.101 I-1.984 J0.
X144.788 Z-10.226 I1.984 J0.
X140.819 Z-10.351 I-1.984 J0.
X144.788 Z-10.475 I1.984 J0.
X140.819 Z-10.6 I-1.984 J0.
X144.788 Z-10.725 I1.984 J0.
X140.819 Z-10.85 I-1.984 J0.
X144.788 Z-10.974 I1.984 J0.
X140.819 Z-11.099 I-1.984 J0.
X144.788 Z-11.224 I1.984 J0.
X140.819 Z-11.349 I-1.984 J0.
X144.788 Z-11.473 I1.984 J0.
X140.819 Z-11.598 I-1.984 J0.
X144.788 Z-11.723 I1.984 J0.
X140.819 Z-11.847 I-1.984 J0.
X144.788 Z-11.972 I1.984 J0.
X140.819 Z-12.097 I-1.984 J0.
X144.788 Z-12.222 I1.984 J0.
X140.819 Z-12.346 I-1.984 J0.
X144.788 Z-12.471 I1.984 J0.
X140.819 Z-12.596 I-1.984 J0.
X144.788 Z-12.721 I1.984 J0.
X140.819 Z-12.845 I-1.984 J0.
X144.788 Z-12.97 I1.984 J0.
X140.819 Z-13.095 I-1.984 J0.
X144.788 Z-13.22 I1.984 J0.
X140.819 Z-13.344 I-1.984 J0.
X144.788 Z-13.469 I1.984 J0.
X140.819 Z-13.594 I-1.984 J0.
X144.577 Y128.554 Z-13.7 I1.984 J0.
X141.03 Y126.775 I-1.774 J-0.889
X144.577 Y128.554 I1.774 J0.889
X144.436 Y128.128 I-0.284 J-0.142
G1 X144.294 Y128.057
X144.231 Y128.025 Z-13.692
X144.171 Y127.995 Z-13.669
X144.117 Y127.968 Z-13.631
X144.072 Y127.945 Z-13.58
X144.038 Y127.929 Z-13.52
X144.017 Y127.918 Z-13.453
X144.01 Y127.914 Z-13.382
G0 Z5.
X36.044 Y127.982
Z3.
G1 Z1.317 F800.
G18 G2 X36.362 Z1. I0.318 K0.
G1 X36.52
G17 G2 X36.838 Y127.665 I0. J-0.318
X32.869 Z0.875 I-1.984 J0.
X36.838 Z0.751 I1.984 J0.
X32.869 Z0.626 I-1.984 J0.
X36.838 Z0.501 I1.984 J0.
X32.869 Z0.376 I-1.984 J0.
X36.838 Z0.252 I1.984 J0.
X32.869 Z0.127 I-1.984 J0.
X36.838 Z0.002 I1.984 J0.
X32.869 Z-0.123 I-1.984 J0.
X36.838 Z-0.247 I1.984 J0.
X32.869 Z-0.372 I-1.984 J0.
X36.838 Z-0.497 I1.984 J0.
X32.869 Z-0.622 I-1.984 J0.
X36.838 Z-0.746 I1.984 J0.
X32.869 Z-0.871 I-1.984 J0.
X36.838 Z-0.996 I1.984 J0.
X32.869 Z-1.12 I-1.984 J0.
X36.838 Z-1.245 I1.984 J0.
X32.869 Z-1.37 I-1.984 J0.
X36.838 Z-1.495 I1.984 J0.
X32.869 Z-1.619 I-1.984 J0.
X36.838 Z-1.744 I1.984 J0.
X32.869 Z-1.869 I-1.984 J0.
X36.838 Z-1.994 I1.984 J0.
X32.869 Z-2.118 I-1.984 J0.
X36.838 Z-2.243 I1.984 J0.
X32.869 Z-2.368 I-1.984 J0.
X36.838 Z-2.493 I1.984 J0.
X32.869 Z-2.617 I-1.984 J0.
X36.838 Z-2.742 I1.984 J0.
X32.869 Z-2.867 I-1.984 J0.
X36.838 Z-2.991 I1.984 J0.
X32.869 Z-3.116 I-1.984 J0.
X36.838 Z-3.241 I1.984 J0.
X32.869 Z-3.366 I-1.984 J0.
X36.838 Z-3.49 I1.984 J0.
X32.869 Z-3.615 I-1.984 J0.
X36.838 Z-3.74 I1.984 J0.
X32.869 Z-3.865 I-1.984 J0.
X36.838 Z-3.989 I1.984 J0.
X32.869 Z-4.114 I-1.984 J0.
X36.838 Z-4.239 I1.984 J0.
X32.869 Z-4.364 I-1.984 J0.
X36.838 Z-4.488 I1.984 J0.
X32.869 Z-4.613 I-1.984 J0.
X36.838 Z-4.738 I1.984 J0.
X32.869 Z-4.862 I-1.984 J0.
X36.838 Z-4.987 I1.984 J0.
X32.869 Z-5.112 I-1.984 J0.
X36.838 Z-5.237 I1.984 J0.
X32.869 Z-5.361 I-1.984 J0.
X36.838 Z-5.486 I1.984 J0.
X32.869 Z-5.611 I-1.984 J0.
X36.838 Z-5.736 I1.984 J0.
X32.869 Z-5.86 I-1.984 J0.
X36.838 Z-5.985 I1.984 J0.
X32.869 Z-6.11 I-1.984 J0.
X36.838 Z-6.234 I1.984 J0.
X32.869 Z-6.359 I-1.984 J0.
X36.838 Z-6.484 I1.984 J0.
X32.869 Z-6.609 I-1.984 J0.
X36.838 Z-6.733 I1.984 J0.
X32.869 Z-6.858 I-1.984 J0.
X36.838 Z-6.983 I1.984 J0.
X32.869 Z-7.108 I-1.984 J0.
X36.838 Z-7.232 I1.984 J0.
X32.869 Z-7.357 I-1.984 J0.
X36.838 Z-7.482 I1.984 J0.
X32.869 Z-7.607 I-1.984 J0.
X36.838 Z-7.731 I1.984 J0.
X32.869 Z-7.856 I-1.984 J0.
X36.838 Z-7.981 I1.984 J0.
X32.869 Z-8.105 I-1.984 J0.
X36.838 Z-8.23 I1.984 J0.
X32.869 Z-8.355 I-1.984 J0.
X36.838 Z-8.48 I1.984 J0.
X32.869 Z-8.604 I-1.984 J0.
X36.838 Z-8.729 I1.984 J0.
X32.869 Z-8.854 I-1.984 J0.
X36.838 Z-8.979 I1.984 J0.
X32.869 Z-9.103 I-1.984 J0.
X36.838 Z-9.228 I1.984 J0.
X32.869 Z-9.353 I-1.984 J0.
X36.838 Z-9.478 I1.984 J0.
X32.869 Z-9.602 I-1.984 J0.
X36.838 Z-9.727 I1.984 J0.
X32.869 Z-9.852 I-1.984 J0.
X36.838 Z-9.976 I1.984 J0.
X32.869 Z-10.101 I-1.984 J0.
X36.838 Z-10.226 I1.984 J0.
X32.869 Z-10.351 I-1.984 J0.
X36.838 Z-10.475 I1.984 J0.
X32.869 Z-10.6 I-1.984 J0.
X36.838 Z-10.725 I1.984 J0.
X32.869 Z-10.85 I-1.984 J0.
X36.838 Z-10.974 I1.984 J0.
X32.869 Z-11.099 I-1.984 J0.
X36.838 Z-11.224 I1.984 J0.
X32.869 Z-11.349 I-1.984 J0.
X36.838 Z-11.473 I1.984 J0.
X32.869 Z-11.598 I-1.984 J0.
X36.838 Z-11.723 I1.984 J0.
X32.869 Z-11.847 I-1.984 J0.
X36.838 Z-11.972 I1.984 J0.
X32.869 Z-12.097 I-1.984 J0.
X36.838 Z-12.222 I1.984 J0.
X32.869 Z-12.346 I-1.984 J0.
X36.838 Z-12.471 I1.984 J0.
X32.869 Z-12.596 I-1.984 J0.
X36.838 Z-12.721 I1.984 J0.
X32.869 Z-12.845 I-1.984 J0.
X36.838 Z-12.97 I1.984 J0.
X32.869 Z-13.095 I-1.984 J0.
X36.838 Z-13.22 I1.984 J0.
X32.869 Z-13.344 I-1.984 J0.
X36.838 Z-13.469 I1.984 J0.
X32.869 Z-13.594 I-1.984 J0.
X36.627 Y128.554 Z-13.7 I1.984 J0.
X33.08 Y126.775 I-1.774 J-0.889
X36.627 Y128.554 I1.774 J0.889
X36.486 Y128.128 I-0.284 J-0.142
G1 X36.344 Y128.057
X36.281 Y128.025 Z-13.692
X36.221 Y127.995 Z-13.669
X36.167 Y127.968 Z-13.631
X36.122 Y127.945 Z-13.58
X36.088 Y127.929 Z-13.52
X36.067 Y127.918 Z-13.453
X36.06 Y127.914 Z-13.382
G0 Z5.
X36.044 Y20.032
Z3.
G1 Z1.317 F800.
G18 G2 X36.362 Z1. I0.318 K0.
G1 X36.52
G17 G2 X36.838 Y19.715 I0. J-0.317
X32.869 Z0.875 I-1.984 J0.
X36.838 Z0.751 I1.984 J0.
X32.869 Z0.626 I-1.984 J0.
X36.838 Z0.501 I1.984 J0.
X32.869 Z0.376 I-1.984 J0.
X36.838 Z0.252 I1.984 J0.
X32.869 Z0.127 I-1.984 J0.
X36.838 Z0.002 I1.984 J0.
X32.869 Z-0.123 I-1.984 J0.
X36.838 Z-0.247 I1.984 J0.
X32.869 Z-0.372 I-1.984 J0.
X36.838 Z-0.497 I1.984 J0.
X32.869 Z-0.622 I-1.984 J0.
X36.838 Z-0.746 I1.984 J0.
X32.869 Z-0.871 I-1.984 J0.
X36.838 Z-0.996 I1.984 J0.
X32.869 Z-1.12 I-1.984 J0.
X36.838 Z-1.245 I1.984 J0.
X32.869 Z-1.37 I-1.984 J0.
X36.838 Z-1.495 I1.984 J0.
X32.869 Z-1.619 I-1.984 J0.
X36.838 Z-1.744 I1.984 J0.
X32.869 Z-1.869 I-1.984 J0.
X36.838 Z-1.994 I1.984 J0.
X32.869 Z-2.118 I-1.984 J0.
X36.838 Z-2.243 I1.984 J0.
X32.869 Z-2.368 I-1.984 J0.
X36.838 Z-2.493 I1.984 J0.
X32.869 Z-2.617 I-1.984 J0.
X36.838 Z-2.742 I1.984 J0.
X32.869 Z-2.867 I-1.984 J0.
X36.838 Z-2.991 I1.984 J0.
X32.869 Z-3.116 I-1.984 J0.
X36.838 Z-3.241 I1.984 J0.
X32.869 Z-3.366 I-1.984 J0.
X36.838 Z-3.49 I1.984 J0.
X32.869 Z-3.615 I-1.984 J0.
X36.838 Z-3.74 I1.984 J0.
X32.869 Z-3.865 I-1.984 J0.
X36.838 Z-3.989 I1.984 J0.
X32.869 Z-4.114 I-1.984 J0.
X36.838 Z-4.239 I1.984 J0.
X32.869 Z-4.364 I-1.984 J0.
X36.838 Z-4.488 I1.984 J0.
X32.869 Z-4.613 I-1.984 J0.
X36.838 Z-4.738 I1.984 J0.
X32.869 Z-4.862 I-1.984 J0.
X36.838 Z-4.987 I1.984 J0.
X32.869 Z-5.112 I-1.984 J0.
X36.838 Z-5.237 I1.984 J0.
X32.869 Z-5.361 I-1.984 J0.
X36.838 Z-5.486 I1.984 J0.
X32.869 Z-5.611 I-1.984 J0.
X36.838 Z-5.736 I1.984 J0.
X32.869 Z-5.86 I-1.984 J0.
X36.838 Z-5.985 I1.984 J0.
X32.869 Z-6.11 I-1.984 J0.
X36.838 Z-6.234 I1.984 J0.
X32.869 Z-6.359 I-1.984 J0.
X36.838 Z-6.484 I1.984 J0.
X32.869 Z-6.609 I-1.984 J0.
X36.838 Z-6.733 I1.984 J0.
X32.869 Z-6.858 I-1.984 J0.
X36.838 Z-6.983 I1.984 J0.
X32.869 Z-7.108 I-1.984 J0.
X36.838 Z-7.232 I1.984 J0.
X32.869 Z-7.357 I-1.984 J0.
X36.838 Z-7.482 I1.984 J0.
X32.869 Z-7.607 I-1.984 J0.
X36.838 Z-7.731 I1.984 J0.
X32.869 Z-7.856 I-1.984 J0.
X36.838 Z-7.981 I1.984 J0.
X32.869 Z-8.105 I-1.984 J0.
X36.838 Z-8.23 I1.984 J0.
X32.869 Z-8.355 I-1.984 J0.
X36.838 Z-8.48 I1.984 J0.
X32.869 Z-8.604 I-1.984 J0.
X36.838 Z-8.729 I1.984 J0.
X32.869 Z-8.854 I-1.984 J0.
X36.838 Z-8.979 I1.984 J0.
X32.869 Z-9.103 I-1.984 J0.
X36.838 Z-9.228 I1.984 J0.
X32.869 Z-9.353 I-1.984 J0.
X36.838 Z-9.478 I1.984 J0.
X32.869 Z-9.602 I-1.984 J0.
X36.838 Z-9.727 I1.984 J0.
X32.869 Z-9.852 I-1.984 J0.
X36.838 Z-9.976 I1.984 J0.
X32.869 Z-10.101 I-1.984 J0.
X36.838 Z-10.226 I1.984 J0.
X32.869 Z-10.351 I-1.984 J0.
X36.838 Z-10.475 I1.984 J0.
X32.869 Z-10.6 I-1.984 J0.
X36.838 Z-10.725 I1.984 J0.
X32.869 Z-10.85 I-1.984 J0.
X36.838 Z-10.974 I1.984 J0.
X32.869 Z-11.099 I-1.984 J0.
X36.838 Z-11.224 I1.984 J0.
X32.869 Z-11.349 I-1.984 J0.
X36.838 Z-11.473 I1.984 J0.
X32.869 Z-11.598 I-1.984 J0.
X36.838 Z-11.723 I1.984 J0.
X32.869 Z-11.847 I-1.984 J0.
X36.838 Z-11.972 I1.984 J0.
X32.869 Z-12.097 I-1.984 J0.
X36.838 Z-12.222 I1.984 J0.
X32.869 Z-12.346 I-1.984 J0.
X36.838 Z-12.471 I1.984 J0.
X32.869 Z-12.596 I-1.984 J0.
X36.838 Z-12.721 I1.984 J0.
X32.869 Z-12.845 I-1.984 J0.
X36.838 Z-12.97 I1.984 J0.
X32.869 Z-13.095 I-1.984 J0.
X36.838 Z-13.22 I1.984 J0.
X32.869 Z-13.344 I-1.984 J0.
X36.838 Z-13.469 I1.984 J0.
X32.869 Z-13.594 I-1.984 J0.
X36.627 Y20.604 Z-13.7 I1.984 J0.
X33.08 Y18.825 I-1.774 J-0.889
X36.627 Y20.604 I1.774 J0.889
X36.486 Y20.178 I-0.284 J-0.142
G1 X36.344 Y20.107
X36.281 Y20.075 Z-13.692
X36.221 Y20.045 Z-13.669
X36.167 Y20.018 Z-13.631
X36.122 Y19.995 Z-13.58
X36.088 Y19.979 Z-13.52
X36.067 Y19.968 Z-13.453
X36.06 Y19.964 Z-13.382
G0 Z5.
X143.994 Y20.032
Z3.
G1 Z1.317 F800.
G18 G2 X144.312 Z1. I0.318 K0.
G1 X144.47
G17 G2 X144.788 Y19.715 I0. J-0.317
X140.819 Z0.875 I-1.984 J0.
X144.788 Z0.751 I1.984 J0.
X140.819 Z0.626 I-1.984 J0.
X144.788 Z0.501 I1.984 J0.
X140.819 Z0.376 I-1.984 J0.
X144.788 Z0.252 I1.984 J0.
X140.819 Z0.127 I-1.984 J0.
X144.788 Z0.002 I1.984 J0.
X140.819 Z-0.123 I-1.984 J0.
X144.788 Z-0.247 I1.984 J0.
X140.819 Z-0.372 I-1.984 J0.
X144.788 Z-0.497 I1.984 J0.
X140.819 Z-0.622 I-1.984 J0.
X144.788 Z-0.746 I1.984 J0.
X140.819 Z-0.871 I-1.984 J0.
X144.788 Z-0.996 I1.984 J0.
X140.819 Z-1.12 I-1.984 J0.
X144.788 Z-1.245 I1.984 J0.
X140.819 Z-1.37 I-1.984 J0.
X144.788 Z-1.495 I1.984 J0.
X140.819 Z-1.619 I-1.984 J0.
X144.788 Z-1.744 I1.984 J0.
X140.819 Z-1.869 I-1.984 J0.
X144.788 Z-1.994 I1.984 J0.
X140.819 Z-2.118 I-1.984 J0.
X144.788 Z-2.243 I1.984 J0.
X140.819 Z-2.368 I-1.984 J0.
X144.788 Z-2.493 I1.984 J0.
X140.819 Z-2.617 I-1.984 J0.
X144.788 Z-2.742 I1.984 J0.
X140.819 Z-2.867 I-1.984 J0.
X144.788 Z-2.991 I1.984 J0.
X140.819 Z-3.116 I-1.984 J0.
X144.788 Z-3.241 I1.984 J0.
X140.819 Z-3.366 I-1.984 J0.
X144.788 Z-3.49 I1.984 J0.
X140.819 Z-3.615 I-1.984 J0.
X144.788 Z-3.74 I1.984 J0.
X140.819 Z-3.865 I-1.984 J0.
X144.788 Z-3.989 I1.984 J0.
X140.819 Z-4.114 I-1.984 J0.
X144.788 Z-4.239 I1.984 J0.
X140.819 Z-4.364 I-1.984 J0.
X144.788 Z-4.488 I1.984 J0.
X140.819 Z-4.613 I-1.984 J0.
X144.788 Z-4.738 I1.984 J0.
X140.819 Z-4.862 I-1.984 J0.
X144.788 Z-4.987 I1.984 J0.
X140.819 Z-5.112 I-1.984 J0.
X144.788 Z-5.237 I1.984 J0.
X140.819 Z-5.361 I-1.984 J0.
X144.788 Z-5.486 I1.984 J0.
X140.819 Z-5.611 I-1.984 J0.
X144.788 Z-5.736 I1.984 J0.
X140.819 Z-5.86 I-1.984 J0.
X144.788 Z-5.985 I1.984 J0.
X140.819 Z-6.11 I-1.984 J0.
X144.788 Z-6.234 I1.984 J0.
X140.819 Z-6.359 I-1.984 J0.
X144.788 Z-6.484 I1.984 J0.
X140.819 Z-6.609 I-1.984 J0.
X144.788 Z-6.733 I1.984 J0.
X140.819 Z-6.858 I-1.984 J0.
X144.788 Z-6.983 I1.984 J0.
X140.819 Z-7.108 I-1.984 J0.
X144.788 Z-7.232 I1.984 J0.
X140.819 Z-7.357 I-1.984 J0.
X144.788 Z-7.482 I1.984 J0.
X140.819 Z-7.607 I-1.984 J0.
X144.788 Z-7.731 I1.984 J0.
X140.819 Z-7.856 I-1.984 J0.
X144.788 Z-7.981 I1.984 J0.
X140.819 Z-8.105 I-1.984 J0.
X144.788 Z-8.23 I1.984 J0.
X140.819 Z-8.355 I-1.984 J0.
X144.788 Z-8.48 I1.984 J0.
X140.819 Z-8.604 I-1.984 J0.
X144.788 Z-8.729 I1.984 J0.
X140.819 Z-8.854 I-1.984 J0.
X144.788 Z-8.979 I1.984 J0.
X140.819 Z-9.103 I-1.984 J0.
X144.788 Z-9.228 I1.984 J0.
X140.819 Z-9.353 I-1.984 J0.
X144.788 Z-9.478 I1.984 J0.
X140.819 Z-9.602 I-1.984 J0.
X144.788 Z-9.727 I1.984 J0.
X140.819 Z-9.852 I-1.984 J0.
X144.788 Z-9.976 I1.984 J0.
X140.819 Z-10.101 I-1.984 J0.
X144.788 Z-10.226 I1.984 J0.
X140.819 Z-10.351 I-1.984 J0.
X144.788 Z-10.475 I1.984 J0.
X140.819 Z-10.6 I-1.984 J0.
X144.788 Z-10.725 I1.984 J0.
X140.819 Z-10.85 I-1.984 J0.
X144.788 Z-10.974 I1.984 J0.
X140.819 Z-11.099 I-1.984 J0.
X144.788 Z-11.224 I1.984 J0.
X140.819 Z-11.349 I-1.984 J0.
X144.788 Z-11.473 I1.984 J0.
X140.819 Z-11.598 I-1.984 J0.
X144.788 Z-11.723 I1.984 J0.
X140.819 Z-11.847 I-1.984 J0.
X144.788 Z-11.972 I1.984 J0.
X140.819 Z-12.097 I-1.984 J0.
X144.788 Z-12.222 I1.984 J0.
X140.819 Z-12.346 I-1.984 J0.
X144.788 Z-12.471 I1.984 J0.
X140.819 Z-12.596 I-1.984 J0.
X144.788 Z-12.721 I1.984 J0.
X140.819 Z-12.845 I-1.984 J0.
X144.788 Z-12.97 I1.984 J0.
X140.819 Z-13.095 I-1.984 J0.
X144.788 Z-13.22 I1.984 J0.
X140.819 Z-13.344 I-1.984 J0.
X144.788 Z-13.469 I1.984 J0.
X140.819 Z-13.594 I-1.984 J0.
X144.577 Y20.604 Z-13.7 I1.984 J0.
X141.03 Y18.825 I-1.774 J-0.889
X144.577 Y20.604 I1.774 J0.889
X144.436 Y20.178 I-0.284 J-0.142
G1 X144.294 Y20.107
X144.231 Y20.075 Z-13.692
X144.171 Y20.045 Z-13.669
X144.117 Y20.018 Z-13.631
X144.072 Y19.995 Z-13.58
X144.038 Y19.979 Z-13.52
X144.017 Y19.968 Z-13.453
X144.01 Y19.964 Z-13.382
G0 Z15.
M5
G0 Z15
G0 X0 Y0

M30
