(CENTER ON BOTTOM CENTER OF STOCK)
(T1  D=3.175 CR=0. - ZMIN=-4.675 - FLAT END MILL)
G90 G94 G91.1 G40 G49 G17
G21
G0 Z15

(2D CONTOUR4)
M5
T1 M6
S15000 M3
G54
M8
G0 X-5.914 Y91.111
G43 Z15. H1
Z5.
G1 Z1. F100.
Z-4.358
X-5.92 Y91.116 Z-4.428
X-5.936 Y91.133 Z-4.495
X-5.963 Y91.16 Z-4.555
X-5.999 Y91.195 Z-4.606
X-6.041 Y91.238 Z-4.644
X-6.089 Y91.285 Z-4.667
X-6.139 Y91.335 Z-4.675
X-6.364 Y91.559 F400.
G2 X-6.365 Y92.008 I0.224 J0.225
X71.875 Y124.513 I78.24 J-77.907 F800.
G3 X79.813 Y132.451 I0. J7.938
G1 Y157.851
G3 X71.875 Y165.788 I-7.938 J0.
G1 X-71.875
G3 X-79.813 Y157.851 I0. J-7.938
G1 Y14.101
G3 X-71.875 Y6.164 I7.937 J0.
G1 X-46.475
G3 X-38.537 Y14.101 I0. J7.937
G2 X-6.365 Y92.008 I110.412 J0.
X-5.916 Y92.009 I0.225 J-0.224 F400.
G1 X-5.691 Y91.785
X-5.641 Y91.735 Z-4.667
X-5.593 Y91.688 Z-4.644
X-5.551 Y91.645 Z-4.606
X-5.515 Y91.61 Z-4.555
X-5.488 Y91.583 Z-4.495
X-5.471 Y91.566 Z-4.428
X-5.466 Y91.561 Z-4.358
G0 Z5.
X-49.965 Y148.064
G1 Z1. F100.
Z-4.358
X-49.959 Y148.07 Z-4.428
X-49.942 Y148.087 Z-4.495
X-49.916 Y148.113 Z-4.555
X-49.88 Y148.149 Z-4.606
X-49.837 Y148.192 Z-4.644
X-49.79 Y148.239 Z-4.667
X-49.74 Y148.289 Z-4.675
X-49.516 Y148.514 F400.
G2 X-49.067 I0.225 J-0.225
G1 X-13.146 Y112.593 F800.
X-26.616 Y99.122
X-69.272 Y141.778
X-55.802 Y155.249
X-49.067 Y148.514
G2 Y148.065 I-0.225 J-0.225 F400.
G1 X-49.291 Y147.84
X-49.341 Y147.79 Z-4.667
X-49.388 Y147.743 Z-4.644
X-49.431 Y147.7 Z-4.606
X-49.467 Y147.664 Z-4.555
X-49.493 Y147.638 Z-4.495
X-49.51 Y147.621 Z-4.428
X-49.516 Y147.615 Z-4.358
G0 Z5.
X24.877 Y61.283
G1 Z1. F100.
Z-4.358
X24.882 Y61.277 Z-4.428
X24.899 Y61.261 Z-4.495
X24.926 Y61.234 Z-4.555
X24.961 Y61.198 Z-4.606
X25.004 Y61.156 Z-4.644
X25.051 Y61.108 Z-4.667
X25.101 Y61.058 Z-4.675
X25.326 Y60.834 F400.
G2 Y60.385 I-0.225 J-0.225
G1 X8.848 Y43.907 F800.
G3 Y32.682 I5.613 J-5.613
G1 X33.543 Y7.986
G3 X44.769 I5.613 J5.613
G1 X76.2 Y39.417
G3 Y50.642 I-5.613 J5.613
G1 X51.504 Y75.338
G3 X40.279 I-5.613 J-5.613
G1 X25.326 Y60.385
G2 X24.877 I-0.225 J0.225 F400.
G1 X24.652 Y60.609
X24.602 Y60.659 Z-4.667
X24.555 Y60.707 Z-4.644
X24.512 Y60.749 Z-4.606
X24.477 Y60.785 Z-4.555
X24.45 Y60.812 Z-4.495
X24.433 Y60.828 Z-4.428
X24.428 Y60.834 Z-4.358
G0 Z5.
X42.075 Y29.09
G1 Z1. F100.
Z-4.358
X42.08 Y29.084 Z-4.428
X42.097 Y29.067 Z-4.495
X42.124 Y29.041 Z-4.555
X42.159 Y29.005 Z-4.606
X42.202 Y28.962 Z-4.644
X42.249 Y28.915 Z-4.667
X42.299 Y28.865 Z-4.675
X42.524 Y28.641 F400.
G2 Y28.192 I-0.225 J-0.225
G1 X35.788 Y21.456 F800.
X22.318 Y34.927
X49.259 Y61.867
X62.729 Y48.397
X42.524 Y28.192
G2 X42.075 Y28.191 I-0.225 J0.225 F400.
G1 X41.85 Y28.416
X41.8 Y28.466 Z-4.667
X41.753 Y28.513 Z-4.644
X41.71 Y28.556 Z-4.606
X41.675 Y28.592 Z-4.555
X41.648 Y28.618 Z-4.495
X41.631 Y28.635 Z-4.428
X41.626 Y28.641 Z-4.358
G0 Z15.
M5
G0 Z15
G0 X0 Y0

M9
M30
