(1001)
(FACING END OF MATERIAL)
(T1  D=6.35 CR=0. - ZMIN=0.5 - FLAT END MILL)
G90 G94 G91.1 G40 G49 G17
G21
G0 Z45

(TOP FACE CONTOUR)
M5
T1 M6
S15000 M3
G54
M8
G0 X152.025 Y-6.35
G43 Z40.4 H1
Z30.4
G1 Z27.15 F400.
Z24.65
X145.675 F1600.
X123.45
X120.275
X113.925
Z23.9 F400.
X120.275 F1600.
X145.675
X152.025
Z23.15 F400.
X145.675 F1600.
X123.45
X120.275
X113.925
Z22.688 F400.
X120.275 F1600.
X145.675
X152.025
Z22.225 F400.
X145.675 F1600.
X123.45
X120.275
G0 Z40.4

(LEFT FACE CONTOUR)
G0 X129.8 Y-6.35
Z40.4
Z23.975
G1 Z21.475 F400.
X123.45 F1600.
X120.275
X113.925
Z20.725 F400.
X120.275 F1600.
X123.45
X129.8
Z19.975 F400.
X123.45 F1600.
X120.275
X113.925
Z19.225 F400.
X120.275 F1600.
X123.45
X129.8
Z18.475 F400.
X123.45 F1600.
X120.275
X113.925
Z17.725 F400.
X120.275 F1600.
X123.45
X129.8
Z16.975 F400.
X123.45 F1600.
X120.275
X113.925
Z16.225 F400.
X120.275 F1600.
X123.45
X129.8
Z15.475 F400.
X123.45 F1600.
X120.275
X113.925
Z14.725 F400.
X120.275 F1600.
X123.45
X129.8
Z13.975 F400.
X123.45 F1600.
X120.275
X113.925
Z13.225 F400.
X120.275 F1600.
X123.45
X129.8
Z12.475 F400.
X123.45 F1600.
X120.275
X113.925
Z11.725 F400.
X120.275 F1600.
X123.45
X129.8
Z10.975 F400.
X123.45 F1600.
X120.275
X113.925
Z10.225 F400.
X120.275 F1600.
X123.45
X129.8
Z9.475 F400.
X123.45 F1600.
X120.275
X113.925
Z8.725 F400.
X120.275 F1600.
X123.45
X129.8
Z7.975 F400.
X123.45 F1600.
X120.275
X113.925
Z7.225 F400.
X120.275 F1600.
X123.45
X129.8
Z6.475 F400.
X123.45 F1600.
X120.275
X113.925
Z5.725 F400.
X120.275 F1600.
X123.45
X129.8
Z4.975 F400.
X123.45 F1600.
X120.275
X113.925
Z4.225 F400.
X120.275 F1600.
X123.45
X129.8
Z3.475 F400.
X123.45 F1600.
X120.275
X113.925
Z3.175 F400.
X120.275 F1600.
X123.45
G0 Z40.4

(RIGHT FACE CONTOUR)
G0 X136.15 Y-6.35
Z40.4
Z23.975
G1 Z21.475 F400.
X142.5 F1600.
X145.675
X152.025
Z20.725 F400.
X145.675 F1600.
X142.5
X136.15
Z19.975 F400.
X142.5 F1600.
X145.675
X152.025
Z19.225 F400.
X145.675 F1600.
X142.5
X136.15
Z18.475 F400.
X142.5 F1600.
X145.675
X152.025
Z17.725 F400.
X145.675 F1600.
X142.5
X136.15
Z16.975 F400.
X142.5 F1600.
X145.675
X152.025
Z16.225 F400.
X145.675 F1600.
X142.5
X136.15
Z15.475 F400.
X142.5 F1600.
X145.675
X152.025
Z14.725 F400.
X145.675 F1600.
X142.5
X136.15
Z13.975 F400.
X142.5 F1600.
X145.675
X152.025
Z13.225 F400.
X145.675 F1600.
X142.5
X136.15
Z12.475 F400.
X142.5 F1600.
X145.675
X152.025
Z11.725 F400.
X145.675 F1600.
X142.5
X136.15
Z10.975 F400.
X142.5 F1600.
X145.675
X152.025
Z10.225 F400.
X145.675 F1600.
X142.5
X136.15
Z9.475 F400.
X142.5 F1600.
X145.675
X152.025
Z8.725 F400.
X145.675 F1600.
X142.5
X136.15
Z7.975 F400.
X142.5 F1600.
X145.675
X152.025
Z7.225 F400.
X145.675 F1600.
X142.5
X136.15
Z6.475 F400.
X142.5 F1600.
X145.675
X152.025
Z5.725 F400.
X145.675 F1600.
X142.5
X136.15
Z4.975 F400.
X142.5 F1600.
X145.675
X152.025
Z4.225 F400.
X145.675 F1600.
X142.5
X136.15
Z3.475 F400.
X142.5 F1600.
X145.675
X152.025
Z3.175 F400.
X145.675 F1600.
X142.5
G0 Z40.4

(BOTTOM FACE CONTOUR)
G0 X152.025 Y-6.35
Z40.4
Z4.925
G1 Z2.425 F400.
X145.675 F1600.
X120.275
X113.925
Z1.675 F400.
X120.275 F1600.
X145.675
X152.025
Z0.925 F400.
X145.675 F1600.
X120.275
X113.925
Z0.5 F400.
X120.275 F1600.
X145.675
G0 Z40.4
M5
G0 Z45
G0 X0 Y0

M9
M30
