(1001)
(FACING END OF MATERIAL)
(T1  D=6.35 CR=0. - ZMIN=0.5 - FLAT END MILL)
G90 G94 G91.1 G40 G49 G17
G21
G0 Z45

(TOP FACE CONTOUR)
M5
T1 M6
S15000 M3
G54
M8
G0 X152.025 Y-6.35
G43 Z41.4 H1
Z31.4
G1 Z28.15 F400.
Z25.65
X145.675 F1600.
X98.05
X94.875
X88.525
Z24.9 F400.
X94.875 F1600.
X145.675
X152.025
Z24.15 F400.
X145.675 F1600.
X98.05
X94.875
X88.525
Z23.4 F400.
X94.875 F1600.
X145.675
X152.025
Z22.65 F400.
X145.675 F1600.
X98.05
X94.875
X88.525
Z22.225 F400.
X94.875 F1600.
X145.675
G0 Z41.4

(LEFT FACE CONTOUR)
G0 X88.525 Y-6.35
Z41.4
Z23.975
G1 Z21.475 F400.
X94.875 F1600.
X98.05
X104.4
Z20.725 F400.
X98.05 F1600.
X94.875
X88.525
Z19.975 F400.
X94.875 F1600.
X98.05
X104.4
Z19.225 F400.
X98.05 F1600.
X94.875
X88.525
Z18.475 F400.
X94.875 F1600.
X98.05
X104.4
Z17.725 F400.
X98.05 F1600.
X94.875
X88.525
Z16.975 F400.
X94.875 F1600.
X98.05
X104.4
Z16.225 F400.
X98.05 F1600.
X94.875
X88.525
Z15.475 F400.
X94.875 F1600.
X98.05
X104.4
Z14.725 F400.
X98.05 F1600.
X94.875
X88.525
Z13.975 F400.
X94.875 F1600.
X98.05
X104.4
Z13.225 F400.
X98.05 F1600.
X94.875
X88.525
Z12.475 F400.
X94.875 F1600.
X98.05
X104.4
Z11.725 F400.
X98.05 F1600.
X94.875
X88.525
Z10.975 F400.
X94.875 F1600.
X98.05
X104.4
Z10.225 F400.
X98.05 F1600.
X94.875
X88.525
Z9.475 F400.
X94.875 F1600.
X98.05
X104.4
Z8.725 F400.
X98.05 F1600.
X94.875
X88.525
Z7.975 F400.
X94.875 F1600.
X98.05
X104.4
Z7.225 F400.
X98.05 F1600.
X94.875
X88.525
Z6.475 F400.
X94.875 F1600.
X98.05
X104.4
Z5.725 F400.
X98.05 F1600.
X94.875
X88.525
Z4.975 F400.
X94.875 F1600.
X98.05
X104.4
Z4.225 F400.
X98.05 F1600.
X94.875
X88.525
Z3.475 F400.
X94.875 F1600.
X98.05
X104.4
Z3.175 F400.
X98.05 F1600.
X94.875
G0 Z41.4

(RIGHT FACE CONTOUR)
G0 X152.025 Y-6.35
Z41.4
Z23.975
G1 Z21.475 F400.
X145.675 F1600.
X142.5
X136.15
Z20.725 F400.
X142.5 F1600.
X145.675
X152.025
Z19.975 F400.
X145.675 F1600.
X142.5
X136.15
Z19.225 F400.
X142.5 F1600.
X145.675
X152.025
Z18.475 F400.
X145.675 F1600.
X142.5
X136.15
Z17.725 F400.
X142.5 F1600.
X145.675
X152.025
Z16.975 F400.
X145.675 F1600.
X142.5
X136.15
Z16.225 F400.
X142.5 F1600.
X145.675
X152.025
Z15.475 F400.
X145.675 F1600.
X142.5
X136.15
Z14.725 F400.
X142.5 F1600.
X145.675
X152.025
Z13.975 F400.
X145.675 F1600.
X142.5
X136.15
Z13.225 F400.
X142.5 F1600.
X145.675
X152.025
Z12.475 F400.
X145.675 F1600.
X142.5
X136.15
Z11.725 F400.
X142.5 F1600.
X145.675
X152.025
Z10.975 F400.
X145.675 F1600.
X142.5
X136.15
Z10.225 F400.
X142.5 F1600.
X145.675
X152.025
Z9.475 F400.
X145.675 F1600.
X142.5
X136.15
Z8.725 F400.
X142.5 F1600.
X145.675
X152.025
Z7.975 F400.
X145.675 F1600.
X142.5
X136.15
Z7.225 F400.
X142.5 F1600.
X145.675
X152.025
Z6.475 F400.
X145.675 F1600.
X142.5
X136.15
Z5.725 F400.
X142.5 F1600.
X145.675
X152.025
Z4.975 F400.
X145.675 F1600.
X142.5
X136.15
Z4.225 F400.
X142.5 F1600.
X145.675
X152.025
Z3.475 F400.
X145.675 F1600.
X142.5
X136.15
Z3.175 F400.
X142.5 F1600.
X145.675
G0 Z41.4

(BOTTOM FACE CONTOUR)
G0 X152.025 Y-6.35
Z41.4
Z4.925
G1 Z2.425 F400.
X145.675 F1600.
X94.875
X88.525
Z1.675 F400.
X94.875 F1600.
X145.675
X152.025
Z0.925 F400.
X145.675 F1600.
X94.875
X88.525
Z0.5 F400.
X94.875 F1600.
X145.675
G0 Z41.4
M5
G0 Z45
G0 X0 Y0

M9
M30
