(X4 RIGHT STATIC PLATE CONTOUR)
(T3  D=0.118 CR=0. - ZMIN=-0.145 - FLAT END MILL)
G90 G94 G91.1 G40 G49 G17
G20

(2D CONTOUR1)
M5
T3 M6
S15000 M3
g4 p5
g0 z.5
G54
M8
G0 X2.1324 Y1.6484
G43 Z0.6 H3
Z0.2
G1 Z0.1118 F20.
G18 G3 X2.1206 Z0.1 I-0.0118 K0. F40.
G1 X2.1088
G17 G3 X2.097 Y1.6366 I0. J-0.0118
G1 Y0.779 Z0.085 F20.
X2.0973 Y0.7775
X2.0981 Y0.7761
X2.0993 Y0.7751 Z0.0849
X2.1007 Y0.7746
X2.1023
X2.1038 Y0.7751
X2.1049 Y0.7761 Z0.0848
X2.1057 Y0.7775
X2.106 Y0.779
Y0.915 Z0.0824
G2 X2.29 Y1.099 Z0.0774 I0.184 J0.
G1 X4.415 Z0.0403
G2 X4.599 Y0.915 Z0.0352 I0. J-0.184
G1 Y0.165 Z0.0221
G2 X4.415 Y-0.019 Z0.0171 I-0.184 J0.
G1 X2.29 Z-0.02
X0.165 F40.
G2 X-0.019 Y0.165 I0. J0.184
G1 Y0.915
G2 X0.165 Y1.099 I0.184 J0.
G1 X0.79
G2 X0.974 Y0.915 I0. J-0.184
G1 Y0.779
X0.9743 Y0.7775
X0.9751 Y0.7761
X0.9763 Y0.7751
X0.9777 Y0.7746
X0.9793
X0.9808 Y0.7751
X0.9819 Y0.7761
X0.9827 Y0.7775
X0.983 Y0.779
Y2.6642
G2 X1.167 Y2.8482 I0.184 J0.
G1 X1.913
G2 X2.097 Y2.6642 I0. J-0.184
G1 Y0.779
X2.0973 Y0.7775
X2.0981 Y0.7761
X2.0993 Y0.7751
X2.1007 Y0.7746
X2.1023
X2.1038 Y0.7751
X2.1049 Y0.7761
X2.1057 Y0.7775
X2.106 Y0.779
Y0.915
G2 X2.29 Y1.099 I0.184 J0.
G1 X4.415
G2 X4.599 Y0.915 I0. J-0.184
G1 Y0.165
G2 X4.415 Y-0.019 I-0.184 J0.
G1 X2.29
X1.1442 Z-0.04 F20.
X0.165 F40.
G2 X-0.019 Y0.165 I0. J0.184
G1 Y0.915
G2 X0.165 Y1.099 I0.184 J0.
G1 X0.79
G2 X0.974 Y0.915 I0. J-0.184
G1 Y0.779
X0.9743 Y0.7775
X0.9751 Y0.7761
X0.9763 Y0.7751
X0.9777 Y0.7746
X0.9793
X0.9808 Y0.7751
X0.9819 Y0.7761
X0.9827 Y0.7775
X0.983 Y0.779
Y2.6642
G2 X1.167 Y2.8482 I0.184 J0.
G1 X1.913
G2 X2.097 Y2.6642 I0. J-0.184
G1 Y0.779
X2.0973 Y0.7775
X2.0981 Y0.7761
X2.0993 Y0.7751
X2.1007 Y0.7746
X2.1023
X2.1038 Y0.7751
X2.1049 Y0.7761
X2.1057 Y0.7775
X2.106 Y0.779
Y0.915
G2 X2.29 Y1.099 I0.184 J0.
G1 X4.415
G2 X4.599 Y0.915 I0. J-0.184
G1 Y0.165
G2 X4.415 Y-0.019 I-0.184 J0.
G1 X2.29
X1.1442
X0.165 Z-0.0571 F20.
G2 X0.0202 Y0.0514 Z-0.06 I0. J0.184
X-0.019 Y0.165 I0.1448 J0.1136 F40.
G1 Y0.915
G2 X0.165 Y1.099 I0.184 J0.
G1 X0.79
G2 X0.974 Y0.915 I0. J-0.184
G1 Y0.779
X0.9743 Y0.7775
X0.9751 Y0.7761
X0.9763 Y0.7751
X0.9777 Y0.7746
X0.9793
X0.9808 Y0.7751
X0.9819 Y0.7761
X0.9827 Y0.7775
X0.983 Y0.779
Y2.6642
G2 X1.167 Y2.8482 I0.184 J0.
G1 X1.913
G2 X2.097 Y2.6642 I0. J-0.184
G1 Y0.779
X2.0973 Y0.7775
X2.0981 Y0.7761
X2.0993 Y0.7751
X2.1007 Y0.7746
X2.1023
X2.1038 Y0.7751
X2.1049 Y0.7761
X2.1057 Y0.7775
X2.106 Y0.779
Y0.915
G2 X2.29 Y1.099 I0.184 J0.
G1 X4.415
G2 X4.599 Y0.915 I0. J-0.184
G1 Y0.165
G2 X4.415 Y-0.019 I-0.184 J0.
G1 X1.1442
X0.165
G2 X0.0202 Y0.0514 I0. J0.184
X-0.019 Y0.165 Z-0.0621 I0.1448 J0.1136 F20.
G1 Y0.915 Z-0.0752
G2 X0.1494 Y1.0983 Z-0.08 I0.184 J0.
X0.165 Y1.099 I0.0156 J-0.1833 F40.
G1 X0.79
G2 X0.974 Y0.915 I0. J-0.184
G1 Y0.779
X0.9743 Y0.7775
X0.9751 Y0.7761
X0.9763 Y0.7751
X0.9777 Y0.7746
X0.9793
X0.9808 Y0.7751
X0.9819 Y0.7761
X0.9827 Y0.7775
X0.983 Y0.779
Y2.6642
G2 X1.167 Y2.8482 I0.184 J0.
G1 X1.913
G2 X2.097 Y2.6642 I0. J-0.184
G1 Y0.779
X2.0973 Y0.7775
X2.0981 Y0.7761
X2.0993 Y0.7751
X2.1007 Y0.7746
X2.1023
X2.1038 Y0.7751
X2.1049 Y0.7761
X2.1057 Y0.7775
X2.106 Y0.779
Y0.915
G2 X2.29 Y1.099 I0.184 J0.
G1 X4.415
G2 X4.599 Y0.915 I0. J-0.184
G1 Y0.165
G2 X4.415 Y-0.019 I-0.184 J0.
G1 X0.165
G2 X-0.019 Y0.165 I0. J0.184
G1 Y0.915
G2 X0.1494 Y1.0983 I0.184 J0.
X0.165 Y1.099 Z-0.0803 I0.0156 J-0.1833 F20.
G1 X0.79 Z-0.0912
G2 X0.974 Y0.915 Z-0.0962 I0. J-0.184
G1 Y0.779 Z-0.0986
X0.9743 Y0.7775
X0.9751 Y0.7761 Z-0.0987
X0.9763 Y0.7751
X0.9777 Y0.7746
X0.9793
X0.9808 Y0.7751 Z-0.0988
X0.9819 Y0.7761
X0.9827 Y0.7775
X0.983 Y0.779
Y0.845 Z-0.1
Y2.6642 F40.
G2 X1.167 Y2.8482 I0.184 J0.
G1 X1.913
G2 X2.097 Y2.6642 I0. J-0.184
G1 Y0.779
X2.0973 Y0.7775
X2.0981 Y0.7761
X2.0993 Y0.7751
X2.1007 Y0.7746
X2.1023
X2.1038 Y0.7751
X2.1049 Y0.7761
X2.1057 Y0.7775
X2.106 Y0.779
Y0.915
G2 X2.29 Y1.099 I0.184 J0.
G1 X4.415
G2 X4.599 Y0.915 I0. J-0.184
G1 Y0.165
G2 X4.415 Y-0.019 I-0.184 J0.
G1 X0.165
G2 X-0.019 Y0.165 I0. J0.184
G1 Y0.915
G2 X0.165 Y1.099 I0.184 J0.
G1 X0.79
G2 X0.974 Y0.915 I0. J-0.184
G1 Y0.779
X0.9743 Y0.7775
X0.9751 Y0.7761
X0.9763 Y0.7751
X0.9777 Y0.7746
X0.9793
X0.9808 Y0.7751
X0.9819 Y0.7761
X0.9827 Y0.7775
X0.983 Y0.779
Y0.845
Y1.9908 Z-0.12 F20.
Y2.6642 F40.
G2 X1.167 Y2.8482 I0.184 J0.
G1 X1.913
G2 X2.097 Y2.6642 I0. J-0.184
G1 Y0.779
X2.0973 Y0.7775
X2.0981 Y0.7761
X2.0993 Y0.7751
X2.1007 Y0.7746
X2.1023
X2.1038 Y0.7751
X2.1049 Y0.7761
X2.1057 Y0.7775
X2.106 Y0.779
Y0.915
G2 X2.29 Y1.099 I0.184 J0.
G1 X4.415
G2 X4.599 Y0.915 I0. J-0.184
G1 Y0.165
G2 X4.415 Y-0.019 I-0.184 J0.
G1 X0.165
G2 X-0.019 Y0.165 I0. J0.184
G1 Y0.915
G2 X0.165 Y1.099 I0.184 J0.
G1 X0.79
G2 X0.974 Y0.915 I0. J-0.184
G1 Y0.779
X0.9743 Y0.7775
X0.9751 Y0.7761
X0.9763 Y0.7751
X0.9777 Y0.7746
X0.9793
X0.9808 Y0.7751
X0.9819 Y0.7761
X0.9827 Y0.7775
X0.983 Y0.779
Y1.9908
Y2.6642 Z-0.1318 F20.
G2 X0.9879 Y2.7065 Z-0.1325 I0.184 J0.
X1.167 Y2.8482 I0.1791 J-0.0423 F40.
G1 X1.913
G2 X2.097 Y2.6642 I0. J-0.184
G1 Y0.779
X2.0973 Y0.7775
X2.0981 Y0.7761
X2.0993 Y0.7751
X2.1007 Y0.7746
X2.1023
X2.1038 Y0.7751
X2.1049 Y0.7761
X2.1057 Y0.7775
X2.106 Y0.779
Y0.915
G2 X2.29 Y1.099 I0.184 J0.
G1 X4.415
G2 X4.599 Y0.915 I0. J-0.184
G1 Y0.165
G2 X4.415 Y-0.019 I-0.184 J0.
G1 X0.165
G2 X-0.019 Y0.165 I0. J0.184
G1 Y0.915
G2 X0.165 Y1.099 I0.184 J0.
G1 X0.79
G2 X0.974 Y0.915 I0. J-0.184
G1 Y0.779
X0.9743 Y0.7775
X0.9751 Y0.7761
X0.9763 Y0.7751
X0.9777 Y0.7746
X0.9793
X0.9808 Y0.7751
X0.9819 Y0.7761
X0.9827 Y0.7775
X0.983 Y0.779
Y1.9908
Y2.6642
G2 X0.9879 Y2.7065 I0.184 J0.
X1.167 Y2.8482 Z-0.1368 I0.1791 J-0.0423 F20.
G1 X1.6368 Z-0.145
X1.913 F40.
G2 X2.097 Y2.6642 I0. J-0.184
G1 Y0.779
X2.0973 Y0.7775
X2.0981 Y0.7761
X2.0993 Y0.7751
X2.1007 Y0.7746
X2.1023
X2.1038 Y0.7751
X2.1049 Y0.7761
X2.1057 Y0.7775
X2.106 Y0.779
Y0.915
G2 X2.29 Y1.099 I0.184 J0.
G1 X4.415
G2 X4.599 Y0.915 I0. J-0.184
G1 Y0.165
G2 X4.415 Y-0.019 I-0.184 J0.
G1 X0.165
G2 X-0.019 Y0.165 I0. J0.184
G1 Y0.915
G2 X0.165 Y1.099 I0.184 J0.
G1 X0.79
G2 X0.974 Y0.915 I0. J-0.184
G1 Y0.779
X0.9743 Y0.7775
X0.9751 Y0.7761
X0.9763 Y0.7751
X0.9777 Y0.7746
X0.9793
X0.9808 Y0.7751
X0.9819 Y0.7761
X0.9827 Y0.7775
X0.983 Y0.779
Y2.6642
G2 X1.167 Y2.8482 I0.184 J0.
G1 X1.6368
G3 X1.6486 Y2.86 I0. J0.0118
G1 Y2.8718
G19 G3 Y2.8836 Z-0.1332 J0. K0.0118
G0 Z0.6
G17

M9
M30
