(X4 RIGHT STATIC PLATE COUNTERBORE)
(T3  D=0.118 CR=0. - ZMIN=-0.0625 - FLAT END MILL)
G90 G94 G91.1 G40 G49 G17
G20

(2D POCKET2)
M5
T3 M6
S15000 M3
g4 p5
g0 z.5
G54
M8
G0 X4.0943 Y0.4475
G43 Z0.6 H3
Z0.2
G1 Z0.1118 F40.
X4.0947 Y0.449 Z0.106 F20.
X4.0954 Y0.4531 Z0.1017
X4.096 Y0.4588 Z0.1
G3 X3.984 Y0.4641 Z0.0939 I-0.056 J0.0027
X4.096 Y0.4588 Z0.0877 I0.056 J-0.0027
X3.984 Y0.4641 Z0.0816 I-0.056 J0.0027
X4.096 Y0.4588 Z0.0754 I0.056 J-0.0027
X3.984 Y0.4641 Z0.0693 I-0.056 J0.0027
X4.096 Y0.4588 Z0.0631 I0.056 J-0.0027
X3.984 Y0.4641 Z0.057 I-0.056 J0.0027
X4.096 Y0.4588 Z0.0508 I0.056 J-0.0027
X3.984 Y0.4641 Z0.0447 I-0.056 J0.0027
X4.096 Y0.4588 Z0.0385 I0.056 J-0.0027
X3.984 Y0.4641 Z0.0324 I-0.056 J0.0027
X4.096 Y0.4588 Z0.0262 I0.056 J-0.0027
X3.984 Y0.4641 Z0.0201 I-0.056 J0.0027
X4.096 Y0.4588 Z0.0139 I0.056 J-0.0027
X3.984 Y0.4641 Z0.0078 I-0.056 J0.0027
X4.096 Y0.4588 Z0.0016 I0.056 J-0.0027
X3.984 Y0.4641 Z-0.0045 I-0.056 J0.0027
X4.096 Y0.4588 Z-0.0107 I0.056 J-0.0027
X3.984 Y0.4641 Z-0.0168 I-0.056 J0.0027
X4.04 Y0.4054 Z-0.02 I0.056 J-0.0027
X4.1746 Y0.54 I0. J0.1346 F40.
X3.9054 I-0.1346 J0.
X4.04 Y0.4054 I0.1346 J0.
X4.1746 Y0.54 Z-0.0274 I0. J0.1346 F20.
X3.9193 Y0.5995 Z-0.04 I-0.1346 J0.
X3.9054 Y0.54 I0.1207 J-0.0595 F40.
X4.1746 I0.1346 J0.
X3.9193 Y0.5995 I-0.1346 J0.
X3.9054 Y0.54 Z-0.0422 I0.1207 J-0.0595 F20.
X4.0879 Y0.4142 Z-0.0512 I0.1346 J0.
X4.1746 Y0.54 I-0.0479 J0.1258 F40.
X3.9054 I-0.1346 J0.
X4.0879 Y0.4142 I0.1346 J0.
X4.1746 Y0.54 Z-0.0569 I-0.0479 J0.1258 F20.
X4.0905 Y0.6648 Z-0.0625 I-0.1346 J0.
X3.9054 Y0.54 I-0.0505 J-0.1248 F40.
X4.1746 I0.1346 J0.
X4.0905 Y0.6648 I-0.1346 J0.
X4.0759 Y0.6599 I-0.0044 J-0.0109
G1 X4.047 Y0.6118
X4.0456 Y0.6095 Z-0.0622
X4.0443 Y0.6074 Z-0.0613
X4.0432 Y0.6054 Z-0.0599
X4.0422 Y0.6038 Z-0.0581
X4.0415 Y0.6026 Z-0.0558
X4.041 Y0.6019 Z-0.0533
X4.0409 Y0.6016 Z-0.0507
G0 Z0.6
X3.1325 Y0.5943
Z0.2
G1 Z0.1118 F40.
X3.131 Y0.5947 Z0.106 F20.
X3.1269 Y0.5954 Z0.1017
X3.1212 Y0.596 Z0.1
G3 X3.1159 Y0.484 Z0.0939 I-0.0027 J-0.056
X3.1212 Y0.596 Z0.0877 I0.0027 J0.056
X3.1159 Y0.484 Z0.0816 I-0.0027 J-0.056
X3.1212 Y0.596 Z0.0754 I0.0027 J0.056
X3.1159 Y0.484 Z0.0693 I-0.0027 J-0.056
X3.1212 Y0.596 Z0.0631 I0.0027 J0.056
X3.1159 Y0.484 Z0.057 I-0.0027 J-0.056
X3.1212 Y0.596 Z0.0508 I0.0027 J0.056
X3.1159 Y0.484 Z0.0447 I-0.0027 J-0.056
X3.1212 Y0.596 Z0.0385 I0.0027 J0.056
X3.1159 Y0.484 Z0.0324 I-0.0027 J-0.056
X3.1212 Y0.596 Z0.0262 I0.0027 J0.056
X3.1159 Y0.484 Z0.0201 I-0.0027 J-0.056
X3.1212 Y0.596 Z0.0139 I0.0027 J0.056
X3.1159 Y0.484 Z0.0078 I-0.0027 J-0.056
X3.1212 Y0.596 Z0.0016 I0.0027 J0.056
X3.1159 Y0.484 Z-0.0045 I-0.0027 J-0.056
X3.1212 Y0.596 Z-0.0107 I0.0027 J0.056
X3.1159 Y0.484 Z-0.0168 I-0.0027 J-0.056
X3.1746 Y0.54 Z-0.02 I0.0027 J0.056
X2.9054 I-0.1346 J0. F40.
X3.1746 I0.1346 J0.
X2.9054 Z-0.0348 I-0.1346 J0. F20.
X2.9805 Y0.4193 Z-0.04 I0.1346 J0.
X3.0995 Y0.6607 I0.0595 J0.1207 F40.
X2.9805 Y0.4193 I-0.0595 J-0.1207
X3.1658 Y0.5879 Z-0.0512 I0.0595 J0.1207 F20.
X2.9142 Y0.4921 I-0.1258 J-0.0479 F40.
X3.1658 Y0.5879 I0.1258 J0.0479
X2.9152 Y0.5905 Z-0.0625 I-0.1258 J-0.0479 F20.
X3.1648 Y0.4895 I0.1248 J-0.0505 F40.
X2.9152 Y0.5905 I-0.1248 J0.0505
X2.9201 Y0.576 I0.0109 J-0.0044
G1 X2.9682 Y0.547
X2.9705 Y0.5456 Z-0.0622
X2.9726 Y0.5443 Z-0.0613
X2.9746 Y0.5432 Z-0.0599
X2.9762 Y0.5422 Z-0.0581
X2.9774 Y0.5415 Z-0.0558
X2.9781 Y0.541 Z-0.0533
X2.9784 Y0.5409 Z-0.0507
G0 Z0.6
X1.5279 Y0.4334
Z0.2
G1 Z0.1118 F40.
X1.5291 Y0.4344 Z0.106 F20.
X1.5322 Y0.4372 Z0.1017
X1.536 Y0.4414 Z0.1
G3 X1.4497 Y0.5129 Z0.0939 I-0.0432 J0.0357
X1.536 Y0.4414 Z0.0877 I0.0432 J-0.0357
X1.4497 Y0.5129 Z0.0816 I-0.0432 J0.0357
X1.536 Y0.4414 Z0.0754 I0.0432 J-0.0357
X1.4497 Y0.5129 Z0.0693 I-0.0432 J0.0357
X1.536 Y0.4414 Z0.0631 I0.0432 J-0.0357
X1.4497 Y0.5129 Z0.057 I-0.0432 J0.0357
X1.536 Y0.4414 Z0.0508 I0.0432 J-0.0357
X1.4497 Y0.5129 Z0.0447 I-0.0432 J0.0357
X1.536 Y0.4414 Z0.0385 I0.0432 J-0.0357
X1.4497 Y0.5129 Z0.0324 I-0.0432 J0.0357
X1.536 Y0.4414 Z0.0262 I0.0432 J-0.0357
X1.4497 Y0.5129 Z0.0201 I-0.0432 J0.0357
X1.536 Y0.4414 Z0.0139 I0.0432 J-0.0357
X1.4497 Y0.5129 Z0.0078 I-0.0432 J0.0357
X1.536 Y0.4414 Z0.0016 I0.0432 J-0.0357
X1.4497 Y0.5129 Z-0.0045 I-0.0432 J0.0357
X1.536 Y0.4414 Z-0.0107 I0.0432 J-0.0357
X1.4497 Y0.5129 Z-0.0168 I-0.0432 J0.0357
X1.4592 Y0.4323 Z-0.02 I0.0432 J-0.0357
X1.6208 Y0.6477 I0.0808 J0.1077 F40.
X1.4592 Y0.4323 I-0.0808 J-0.1077
X1.6208 Y0.6477 Z-0.0348 I0.0808 J0.1077 F20.
X1.4791 Y0.6601 Z-0.04 I-0.0808 J-0.1077
X1.6009 Y0.4199 I0.0609 J-0.1201 F40.
X1.4791 Y0.6601 I-0.0609 J0.1201
X1.5029 Y0.4106 Z-0.0512 I0.0609 J-0.1201 F20.
X1.5771 Y0.6694 I0.0371 J0.1294 F40.
X1.5029 Y0.4106 I-0.0371 J-0.1294
X1.6553 Y0.6095 Z-0.0625 I0.0371 J0.1294 F20.
X1.4247 Y0.4705 I-0.1153 J-0.0695 F40.
X1.6553 Y0.6095 I0.1153 J0.0695
X1.6407 Y0.6144 I-0.0101 J-0.0061
G1 X1.5882 Y0.593
X1.5858 Y0.5921 Z-0.0622
X1.5835 Y0.5911 Z-0.0613
X1.5814 Y0.5903 Z-0.0599
X1.5797 Y0.5896 Z-0.0581
X1.5784 Y0.589 Z-0.0558
X1.5775 Y0.5887 Z-0.0533
X1.5773 Y0.5886 Z-0.0507
G0 Z0.6
X0.5943 Y0.4475
Z0.2
G1 Z0.1118 F40.
X0.5947 Y0.449 Z0.106 F20.
X0.5954 Y0.4531 Z0.1017
X0.596 Y0.4588 Z0.1
G3 X0.484 Y0.4641 Z0.0939 I-0.056 J0.0027
X0.596 Y0.4588 Z0.0877 I0.056 J-0.0027
X0.484 Y0.4641 Z0.0816 I-0.056 J0.0027
X0.596 Y0.4588 Z0.0754 I0.056 J-0.0027
X0.484 Y0.4641 Z0.0693 I-0.056 J0.0027
X0.596 Y0.4588 Z0.0631 I0.056 J-0.0027
X0.484 Y0.4641 Z0.057 I-0.056 J0.0027
X0.596 Y0.4588 Z0.0508 I0.056 J-0.0027
X0.484 Y0.4641 Z0.0447 I-0.056 J0.0027
X0.596 Y0.4588 Z0.0385 I0.056 J-0.0027
X0.484 Y0.4641 Z0.0324 I-0.056 J0.0027
X0.596 Y0.4588 Z0.0262 I0.056 J-0.0027
X0.484 Y0.4641 Z0.0201 I-0.056 J0.0027
X0.596 Y0.4588 Z0.0139 I0.056 J-0.0027
X0.484 Y0.4641 Z0.0078 I-0.056 J0.0027
X0.596 Y0.4588 Z0.0016 I0.056 J-0.0027
X0.484 Y0.4641 Z-0.0045 I-0.056 J0.0027
X0.596 Y0.4588 Z-0.0107 I0.056 J-0.0027
X0.484 Y0.4641 Z-0.0168 I-0.056 J0.0027
X0.54 Y0.4054 Z-0.02 I0.056 J-0.0027
X0.6746 Y0.54 I0. J0.1346 F40.
X0.4054 I-0.1346 J0.
X0.54 Y0.4054 I0.1346 J0.
X0.6746 Y0.54 Z-0.0274 I0. J0.1346 F20.
X0.4193 Y0.5995 Z-0.04 I-0.1346 J0.
X0.4054 Y0.54 I0.1207 J-0.0595 F40.
X0.6746 I0.1346 J0.
X0.4193 Y0.5995 I-0.1346 J0.
X0.4054 Y0.54 Z-0.0422 I0.1207 J-0.0595 F20.
X0.5879 Y0.4142 Z-0.0512 I0.1346 J0.
X0.6746 Y0.54 I-0.0479 J0.1258 F40.
X0.4054 I-0.1346 J0.
X0.5879 Y0.4142 I0.1346 J0.
X0.6746 Y0.54 Z-0.0569 I-0.0479 J0.1258 F20.
X0.5905 Y0.6648 Z-0.0625 I-0.1346 J0.
X0.4054 Y0.54 I-0.0505 J-0.1248 F40.
X0.6746 I0.1346 J0.
X0.5905 Y0.6648 I-0.1346 J0.
X0.576 Y0.6599 I-0.0044 J-0.0109
G1 X0.547 Y0.6118
X0.5456 Y0.6095 Z-0.0622
X0.5443 Y0.6074 Z-0.0613
X0.5432 Y0.6054 Z-0.0599
X0.5422 Y0.6038 Z-0.0581
X0.5415 Y0.6026 Z-0.0558
X0.541 Y0.6019 Z-0.0533
X0.5409 Y0.6016 Z-0.0507
G0 Z0.6
X1.6325 Y1.3435
Z0.2
G1 Z0.1118 F40.
X1.631 Y1.3438 Z0.106 F20.
X1.6269 Y1.3446 Z0.1017
X1.6212 Y1.3452 Z0.1
G3 X1.6159 Y1.2332 Z0.0939 I-0.0027 J-0.056
X1.6212 Y1.3452 Z0.0877 I0.0027 J0.056
X1.6159 Y1.2332 Z0.0816 I-0.0027 J-0.056
X1.6212 Y1.3452 Z0.0754 I0.0027 J0.056
X1.6159 Y1.2332 Z0.0693 I-0.0027 J-0.056
X1.6212 Y1.3452 Z0.0631 I0.0027 J0.056
X1.6159 Y1.2332 Z0.057 I-0.0027 J-0.056
X1.6212 Y1.3452 Z0.0508 I0.0027 J0.056
X1.6159 Y1.2332 Z0.0447 I-0.0027 J-0.056
X1.6212 Y1.3452 Z0.0385 I0.0027 J0.056
X1.6159 Y1.2332 Z0.0324 I-0.0027 J-0.056
X1.6212 Y1.3452 Z0.0262 I0.0027 J0.056
X1.6159 Y1.2332 Z0.0201 I-0.0027 J-0.056
X1.6212 Y1.3452 Z0.0139 I0.0027 J0.056
X1.6159 Y1.2332 Z0.0078 I-0.0027 J-0.056
X1.6212 Y1.3452 Z0.0016 I0.0027 J0.056
X1.6159 Y1.2332 Z-0.0045 I-0.0027 J-0.056
X1.6212 Y1.3452 Z-0.0107 I0.0027 J0.056
X1.6159 Y1.2332 Z-0.0168 I-0.0027 J-0.056
X1.6746 Y1.2892 Z-0.02 I0.0027 J0.056
X1.4054 I-0.1346 J0. F40.
X1.6746 I0.1346 J0.
X1.4054 Z-0.0348 I-0.1346 J0. F20.
X1.4805 Y1.1684 Z-0.04 I0.1346 J0.
X1.5995 Y1.4099 I0.0595 J0.1207 F40.
X1.4805 Y1.1684 I-0.0595 J-0.1207
X1.6658 Y1.3371 Z-0.0512 I0.0595 J0.1207 F20.
X1.4142 Y1.2413 I-0.1258 J-0.0479 F40.
X1.6658 Y1.3371 I0.1258 J0.0479
X1.4152 Y1.3397 Z-0.0625 I-0.1258 J-0.0479 F20.
X1.6648 Y1.2387 I0.1248 J-0.0505 F40.
X1.4152 Y1.3397 I-0.1248 J0.0505
X1.4201 Y1.3252 I0.0109 J-0.0044
G1 X1.4682 Y1.2962
X1.4705 Y1.2948 Z-0.0622
X1.4726 Y1.2935 Z-0.0613
X1.4746 Y1.2924 Z-0.0599
X1.4762 Y1.2914 Z-0.0581
X1.4774 Y1.2907 Z-0.0558
X1.4781 Y1.2902 Z-0.0533
X1.4784 Y1.2901 Z-0.0507
G0 Z0.6
X1.6325 Y2.3435
Z0.2
G1 Z0.1118 F40.
X1.631 Y2.3438 Z0.106 F20.
X1.6269 Y2.3446 Z0.1017
X1.6212 Y2.3452 Z0.1
G3 X1.6159 Y2.2332 Z0.0939 I-0.0027 J-0.056
X1.6212 Y2.3452 Z0.0877 I0.0027 J0.056
X1.6159 Y2.2332 Z0.0816 I-0.0027 J-0.056
X1.6212 Y2.3452 Z0.0754 I0.0027 J0.056
X1.6159 Y2.2332 Z0.0693 I-0.0027 J-0.056
X1.6212 Y2.3452 Z0.0631 I0.0027 J0.056
X1.6159 Y2.2332 Z0.057 I-0.0027 J-0.056
X1.6212 Y2.3452 Z0.0508 I0.0027 J0.056
X1.6159 Y2.2332 Z0.0447 I-0.0027 J-0.056
X1.6212 Y2.3452 Z0.0385 I0.0027 J0.056
X1.6159 Y2.2332 Z0.0324 I-0.0027 J-0.056
X1.6212 Y2.3452 Z0.0262 I0.0027 J0.056
X1.6159 Y2.2332 Z0.0201 I-0.0027 J-0.056
X1.6212 Y2.3452 Z0.0139 I0.0027 J0.056
X1.6159 Y2.2332 Z0.0078 I-0.0027 J-0.056
X1.6212 Y2.3452 Z0.0016 I0.0027 J0.056
X1.6159 Y2.2332 Z-0.0045 I-0.0027 J-0.056
X1.6212 Y2.3452 Z-0.0107 I0.0027 J0.056
X1.6159 Y2.2332 Z-0.0168 I-0.0027 J-0.056
X1.6746 Y2.2892 Z-0.02 I0.0027 J0.056
X1.4054 I-0.1346 J0. F40.
X1.6746 I0.1346 J0.
X1.4054 Z-0.0348 I-0.1346 J0. F20.
X1.4805 Y2.1684 Z-0.04 I0.1346 J0.
X1.5995 Y2.4099 I0.0595 J0.1207 F40.
X1.4805 Y2.1684 I-0.0595 J-0.1207
X1.6658 Y2.3371 Z-0.0512 I0.0595 J0.1207 F20.
X1.4142 Y2.2413 I-0.1258 J-0.0479 F40.
X1.6658 Y2.3371 I0.1258 J0.0479
X1.4152 Y2.3397 Z-0.0625 I-0.1258 J-0.0479 F20.
X1.6648 Y2.2387 I0.1248 J-0.0505 F40.
X1.4152 Y2.3397 I-0.1248 J0.0505
X1.4201 Y2.3252 I0.0109 J-0.0044
G1 X1.4682 Y2.2962
X1.4705 Y2.2948 Z-0.0622
X1.4726 Y2.2935 Z-0.0613
X1.4746 Y2.2924 Z-0.0599
X1.4762 Y2.2914 Z-0.0581
X1.4774 Y2.2907 Z-0.0558
X1.4781 Y2.2902 Z-0.0533
X1.4784 Y2.2901 Z-0.0507
G0 Z0.6

M9
M30
