(TURRET STEP 5)
(T1  D=0.25 CR=0. - ZMIN=-0.195 - FLAT END MILL)
G90 G94 G91.1 G40 G49 G17
G20

(2D CONTOUR1)
M5
T1 M6
S15000 M3
g4 p5
G54
M8
G0 X-0.1949 Y8.349
G43 Z0.6 H1
Z0.2
G1 Z0.125 F40.
X-0.1946 Z0.1211 F60.
X-0.1937 Z0.1173
X-0.1922 Y8.3491 Z0.1137
X-0.1901 Y8.3492 Z0.1103
X-0.1876 Y8.3493 Z0.1073
X-0.1846 Y8.3494 Z0.1048
X-0.1812 Y8.3495 Z0.1027
X-0.1776 Y8.3496 Z0.1012
X-0.1738 Y8.3498 Z0.1003
X-0.1699 Y8.3499 Z0.1
X-0.1449 Y8.3508
G3 X-0.1208 Y8.3767 I-0.0009 J0.025
G2 X2.782 Y13.962 Z0.097 I6.3808 J0.2307
G1 X4.1977 Y14.8815 Z0.0962
G2 X4.5382 Y14.9824 Z0.0961 I0.3404 J-0.5242
G1 X5.9028 Z0.0954
G2 X6.6172 Z0.0951 I0.3572 J-6.375
G1 X8.2209 Z0.0944
G2 X8.6002 Y14.8541 Z0.0942 I0. J-0.625
G1 X10.1352 Y13.6819 Z0.0933
G2 X7.8237 Y2.4168 Z0.0868 I-3.8752 J-5.0745
G3 X4.9883 Y0.1146 Z0.085 I1.0622 J-4.2054
G2 X4.4869 Y-0.1085 Z0.0848 I-0.3837 J0.1874
G1 X3.145 Y0.2763 Z0.0841
G2 X2.838 Y0.7312 Z0.0839 I0.1177 J0.4105
G3 X1.6534 Y4.1861 Z0.0821 I-4.3139 J0.4514
G2 X2.782 Y13.962 Z0.077 I4.6066 J4.4213
G1 X4.1977 Y14.8815 Z0.0762
G2 X4.5382 Y14.9824 Z0.0761 I0.3404 J-0.5242
G1 X5.9028 Z0.0754
G2 X6.6172 Z0.0751 I0.3572 J-6.375
G1 X8.2209 Z0.0744
G2 X8.6002 Y14.8541 Z0.0742 I0. J-0.625
G1 X10.1352 Y13.6819 Z0.0733
G2 X7.8237 Y2.4168 Z0.0668 I-3.8752 J-5.0745
G3 X4.9883 Y0.1146 Z0.065 I1.0622 J-4.2054
G2 X4.4869 Y-0.1085 Z0.0648 I-0.3837 J0.1874
G1 X3.145 Y0.2763 Z0.0641
G2 X2.838 Y0.7312 Z0.0639 I0.1177 J0.4105
G3 X1.6534 Y4.1861 Z0.0621 I-4.3139 J0.4514
G2 X2.782 Y13.962 Z0.057 I4.6066 J4.4213
G1 X4.1977 Y14.8815 Z0.0562
G2 X4.5382 Y14.9824 Z0.0561 I0.3404 J-0.5242
G1 X5.9028 Z0.0554
G2 X6.6172 Z0.0551 I0.3572 J-6.375
G1 X8.2209 Z0.0544
G2 X8.6002 Y14.8541 Z0.0542 I0. J-0.625
G1 X10.1352 Y13.6819 Z0.0533
G2 X7.8237 Y2.4168 Z0.0468 I-3.8752 J-5.0745
G3 X4.9883 Y0.1146 Z0.045 I1.0622 J-4.2054
G2 X4.4869 Y-0.1085 Z0.0448 I-0.3837 J0.1874
G1 X3.145 Y0.2763 Z0.0441
G2 X2.838 Y0.7312 Z0.0439 I0.1177 J0.4105
G3 X1.6534 Y4.1861 Z0.0421 I-4.3139 J0.4514
G2 X2.782 Y13.962 Z0.037 I4.6066 J4.4213
G1 X4.1977 Y14.8815 Z0.0362
G2 X4.5382 Y14.9824 Z0.0361 I0.3404 J-0.5242
G1 X5.9028 Z0.0354
G2 X6.6172 Z0.0351 I0.3572 J-6.375
G1 X8.2209 Z0.0344
G2 X8.6002 Y14.8541 Z0.0342 I0. J-0.625
G1 X10.1352 Y13.6819 Z0.0333
G2 X7.8237 Y2.4168 Z0.0268 I-3.8752 J-5.0745
G3 X4.9883 Y0.1146 Z0.025 I1.0622 J-4.2054
G2 X4.4869 Y-0.1085 Z0.0248 I-0.3837 J0.1874
G1 X3.145 Y0.2763 Z0.0241
G2 X2.838 Y0.7312 Z0.0239 I0.1177 J0.4105
G3 X1.6534 Y4.1861 Z0.0221 I-4.3139 J0.4514
G2 X2.782 Y13.962 Z0.017 I4.6066 J4.4213
G1 X4.1977 Y14.8815 Z0.0162
G2 X4.5382 Y14.9824 Z0.0161 I0.3404 J-0.5242
G1 X5.9028 Z0.0154
G2 X6.6172 Z0.0151 I0.3572 J-6.375
G1 X8.2209 Z0.0144
G2 X8.6002 Y14.8541 Z0.0142 I0. J-0.625
G1 X10.1352 Y13.6819 Z0.0133
G2 X7.8237 Y2.4168 Z0.0068 I-3.8752 J-5.0745
G3 X4.9883 Y0.1146 Z0.005 I1.0622 J-4.2054
G2 X4.4869 Y-0.1085 Z0.0048 I-0.3837 J0.1874
G1 X3.145 Y0.2763 Z0.0041
G2 X2.838 Y0.7312 Z0.0039 I0.1177 J0.4105
G3 X1.6534 Y4.1861 Z0.0021 I-4.3139 J0.4514
G2 X2.782 Y13.962 Z-0.003 I4.6066 J4.4213
G1 X4.1977 Y14.8815 Z-0.0038
G2 X4.5382 Y14.9824 Z-0.0039 I0.3404 J-0.5242
G1 X5.9028 Z-0.0046
G2 X6.6172 Z-0.0049 I0.3572 J-6.375
G1 X8.2209 Z-0.0056
G2 X8.6002 Y14.8541 Z-0.0058 I0. J-0.625
G1 X10.1352 Y13.6819 Z-0.0067
G2 X7.8237 Y2.4168 Z-0.0132 I-3.8752 J-5.0745
G3 X4.9883 Y0.1146 Z-0.015 I1.0622 J-4.2054
G2 X4.4869 Y-0.1085 Z-0.0152 I-0.3837 J0.1874
G1 X3.145 Y0.2763 Z-0.0159
G2 X2.838 Y0.7312 Z-0.0161 I0.1177 J0.4105
G3 X1.6534 Y4.1861 Z-0.0179 I-4.3139 J0.4514
G2 X-0.1208 Y8.3767 Z-0.02 I4.6066 J4.4213
X2.782 Y13.962 I6.3808 J0.2307
G1 X4.1977 Y14.8815
G2 X4.5382 Y14.9824 I0.3404 J-0.5242
G1 X5.9028
G2 X6.6172 I0.3572 J-6.375
G1 X8.2209
G2 X8.6002 Y14.8541 I0. J-0.625
G1 X10.1352 Y13.6819
G2 X7.8237 Y2.4168 I-3.8752 J-5.0745
G3 X4.9883 Y0.1146 I1.0622 J-4.2054
G2 X4.4869 Y-0.1085 I-0.3837 J0.1874
G1 X3.145 Y0.2763
G2 X2.838 Y0.7312 I0.1177 J0.4105
G3 X1.6534 Y4.1861 I-4.3139 J0.4514
G2 X-0.1208 Y8.3767 I4.6066 J4.4213
X2.782 Y13.962 Z-0.023 I6.3808 J0.2307
G1 X4.1977 Y14.8815 Z-0.0238
G2 X4.5382 Y14.9824 Z-0.0239 I0.3404 J-0.5242
G1 X5.9028 Z-0.0246
G2 X6.6172 Z-0.0249 I0.3572 J-6.375
G1 X8.2209 Z-0.0256
G2 X8.6002 Y14.8541 Z-0.0258 I0. J-0.625
G1 X10.1352 Y13.6819 Z-0.0267
G2 X7.8237 Y2.4168 Z-0.0332 I-3.8752 J-5.0745
G3 X4.9883 Y0.1146 Z-0.035 I1.0622 J-4.2054
G2 X4.4869 Y-0.1085 Z-0.0352 I-0.3837 J0.1874
G1 X3.145 Y0.2763 Z-0.0359
G2 X2.838 Y0.7312 Z-0.0361 I0.1177 J0.4105
G3 X1.6534 Y4.1861 Z-0.0379 I-4.3139 J0.4514
G2 X-0.1208 Y8.3767 Z-0.04 I4.6066 J4.4213
X2.782 Y13.962 I6.3808 J0.2307
G1 X4.1977 Y14.8815
G2 X4.5382 Y14.9824 I0.3404 J-0.5242
G1 X5.9028
G2 X6.6172 I0.3572 J-6.375
G1 X8.2209
G2 X8.6002 Y14.8541 I0. J-0.625
G1 X10.1352 Y13.6819
G2 X7.8237 Y2.4168 I-3.8752 J-5.0745
G3 X4.9883 Y0.1146 I1.0622 J-4.2054
G2 X4.4869 Y-0.1085 I-0.3837 J0.1874
G1 X3.145 Y0.2763
G2 X2.838 Y0.7312 I0.1177 J0.4105
G3 X1.6534 Y4.1861 I-4.3139 J0.4514
G2 X-0.1208 Y8.3767 I4.6066 J4.4213
X2.782 Y13.962 Z-0.043 I6.3808 J0.2307
G1 X4.1977 Y14.8815 Z-0.0438
G2 X4.5382 Y14.9824 Z-0.0439 I0.3404 J-0.5242
G1 X5.9028 Z-0.0446
G2 X6.6172 Z-0.0449 I0.3572 J-6.375
G1 X8.2209 Z-0.0456
G2 X8.6002 Y14.8541 Z-0.0458 I0. J-0.625
G1 X10.1352 Y13.6819 Z-0.0467
G2 X7.8237 Y2.4168 Z-0.0532 I-3.8752 J-5.0745
G3 X4.9883 Y0.1146 Z-0.055 I1.0622 J-4.2054
G2 X4.4869 Y-0.1085 Z-0.0552 I-0.3837 J0.1874
G1 X3.145 Y0.2763 Z-0.0559
G2 X2.838 Y0.7312 Z-0.0561 I0.1177 J0.4105
G3 X1.6534 Y4.1861 Z-0.0579 I-4.3139 J0.4514
G2 X-0.1208 Y8.3767 Z-0.06 I4.6066 J4.4213
X2.782 Y13.962 I6.3808 J0.2307
G1 X4.1977 Y14.8815
G2 X4.5382 Y14.9824 I0.3404 J-0.5242
G1 X5.9028
G2 X6.6172 I0.3572 J-6.375
G1 X8.2209
G2 X8.6002 Y14.8541 I0. J-0.625
G1 X10.1352 Y13.6819
G2 X7.8237 Y2.4168 I-3.8752 J-5.0745
G3 X4.9883 Y0.1146 I1.0622 J-4.2054
G2 X4.4869 Y-0.1085 I-0.3837 J0.1874
G1 X3.145 Y0.2763
G2 X2.838 Y0.7312 I0.1177 J0.4105
G3 X1.6534 Y4.1861 I-4.3139 J0.4514
G2 X-0.1208 Y8.3767 I4.6066 J4.4213
X2.782 Y13.962 Z-0.063 I6.3808 J0.2307
G1 X4.1977 Y14.8815 Z-0.0638
G2 X4.5382 Y14.9824 Z-0.0639 I0.3404 J-0.5242
G1 X5.9028 Z-0.0646
G2 X6.6172 Z-0.0649 I0.3572 J-6.375
G1 X8.2209 Z-0.0656
G2 X8.6002 Y14.8541 Z-0.0658 I0. J-0.625
G1 X10.1352 Y13.6819 Z-0.0667
G2 X7.8237 Y2.4168 Z-0.0732 I-3.8752 J-5.0745
G3 X4.9883 Y0.1146 Z-0.075 I1.0622 J-4.2054
G2 X4.4869 Y-0.1085 Z-0.0752 I-0.3837 J0.1874
G1 X3.145 Y0.2763 Z-0.0759
G2 X2.838 Y0.7312 Z-0.0761 I0.1177 J0.4105
G3 X1.6534 Y4.1861 Z-0.0779 I-4.3139 J0.4514
G2 X-0.1208 Y8.3767 Z-0.08 I4.6066 J4.4213
X2.782 Y13.962 I6.3808 J0.2307
G1 X4.1977 Y14.8815
G2 X4.5382 Y14.9824 I0.3404 J-0.5242
G1 X5.9028
G2 X6.6172 I0.3572 J-6.375
G1 X8.2209
G2 X8.6002 Y14.8541 I0. J-0.625
G1 X10.1352 Y13.6819
G2 X7.8237 Y2.4168 I-3.8752 J-5.0745
G3 X4.9883 Y0.1146 I1.0622 J-4.2054
G2 X4.4869 Y-0.1085 I-0.3837 J0.1874
G1 X3.145 Y0.2763
G2 X2.838 Y0.7312 I0.1177 J0.4105
G3 X1.6534 Y4.1861 I-4.3139 J0.4514
G2 X-0.1208 Y8.3767 I4.6066 J4.4213
X2.782 Y13.962 Z-0.083 I6.3808 J0.2307
G1 X4.1977 Y14.8815 Z-0.0838
G2 X4.5382 Y14.9824 Z-0.0839 I0.3404 J-0.5242
G1 X5.9028 Z-0.0846
G2 X6.6172 Z-0.0849 I0.3572 J-6.375
G1 X8.2209 Z-0.0856
G2 X8.6002 Y14.8541 Z-0.0858 I0. J-0.625
G1 X10.1352 Y13.6819 Z-0.0867
G2 X7.8237 Y2.4168 Z-0.0932 I-3.8752 J-5.0745
G3 X4.9883 Y0.1146 Z-0.095 I1.0622 J-4.2054
G2 X4.4869 Y-0.1085 Z-0.0952 I-0.3837 J0.1874
G1 X3.145 Y0.2763 Z-0.0959
G2 X2.838 Y0.7312 Z-0.0961 I0.1177 J0.4105
G3 X1.6534 Y4.1861 Z-0.0979 I-4.3139 J0.4514
G2 X-0.1208 Y8.3767 Z-0.1 I4.6066 J4.4213
X2.782 Y13.962 I6.3808 J0.2307
G1 X4.1977 Y14.8815
G2 X4.5382 Y14.9824 I0.3404 J-0.5242
G1 X5.9028
G2 X6.6172 I0.3572 J-6.375
G1 X8.2209
G2 X8.6002 Y14.8541 I0. J-0.625
G1 X10.1352 Y13.6819
G2 X7.8237 Y2.4168 I-3.8752 J-5.0745
G3 X4.9883 Y0.1146 I1.0622 J-4.2054
G2 X4.4869 Y-0.1085 I-0.3837 J0.1874
G1 X3.145 Y0.2763
G2 X2.838 Y0.7312 I0.1177 J0.4105
G3 X1.6534 Y4.1861 I-4.3139 J0.4514
G2 X-0.1208 Y8.3767 I4.6066 J4.4213
X2.782 Y13.962 Z-0.103 I6.3808 J0.2307
G1 X4.1977 Y14.8815 Z-0.1038
G2 X4.5382 Y14.9824 Z-0.1039 I0.3404 J-0.5242
G1 X5.9028 Z-0.1046
G2 X6.6172 Z-0.1049 I0.3572 J-6.375
G1 X8.2209 Z-0.1056
G2 X8.6002 Y14.8541 Z-0.1058 I0. J-0.625
G1 X10.1352 Y13.6819 Z-0.1067
G2 X7.8237 Y2.4168 Z-0.1132 I-3.8752 J-5.0745
G3 X4.9883 Y0.1146 Z-0.115 I1.0622 J-4.2054
G2 X4.4869 Y-0.1085 Z-0.1152 I-0.3837 J0.1874
G1 X3.145 Y0.2763 Z-0.1159
G2 X2.838 Y0.7312 Z-0.1161 I0.1177 J0.4105
G3 X1.6534 Y4.1861 Z-0.1179 I-4.3139 J0.4514
G2 X-0.1208 Y8.3767 Z-0.12 I4.6066 J4.4213
X2.782 Y13.962 I6.3808 J0.2307
G1 X4.1977 Y14.8815
G2 X4.5382 Y14.9824 I0.3404 J-0.5242
G1 X5.9028
G2 X6.6172 I0.3572 J-6.375
G1 X8.2209
G2 X8.6002 Y14.8541 I0. J-0.625
G1 X10.1352 Y13.6819
G2 X7.8237 Y2.4168 I-3.8752 J-5.0745
G3 X4.9883 Y0.1146 I1.0622 J-4.2054
G2 X4.4869 Y-0.1085 I-0.3837 J0.1874
G1 X3.145 Y0.2763
G2 X2.838 Y0.7312 I0.1177 J0.4105
G3 X1.6534 Y4.1861 I-4.3139 J0.4514
G2 X-0.1208 Y8.3767 I4.6066 J4.4213
X2.782 Y13.962 Z-0.123 I6.3808 J0.2307
G1 X4.1977 Y14.8815 Z-0.1238
G2 X4.5382 Y14.9824 Z-0.1239 I0.3404 J-0.5242
G1 X5.9028 Z-0.1246
G2 X6.6172 Z-0.1249 I0.3572 J-6.375
G1 X8.2209 Z-0.1256
G2 X8.6002 Y14.8541 Z-0.1258 I0. J-0.625
G1 X10.1352 Y13.6819 Z-0.1267
G2 X7.8237 Y2.4168 Z-0.1332 I-3.8752 J-5.0745
G3 X4.9883 Y0.1146 Z-0.135 I1.0622 J-4.2054
G2 X4.4869 Y-0.1085 Z-0.1352 I-0.3837 J0.1874
G1 X3.145 Y0.2763 Z-0.1359
G2 X2.838 Y0.7312 Z-0.1361 I0.1177 J0.4105
G3 X1.6534 Y4.1861 Z-0.1379 I-4.3139 J0.4514
G2 X-0.1208 Y8.3767 Z-0.14 I4.6066 J4.4213
X2.782 Y13.962 I6.3808 J0.2307
G1 X4.1977 Y14.8815
G2 X4.5382 Y14.9824 I0.3404 J-0.5242
G1 X5.9028
G2 X6.6172 I0.3572 J-6.375
G1 X8.2209
G2 X8.6002 Y14.8541 I0. J-0.625
G1 X10.1352 Y13.6819
G2 X7.8237 Y2.4168 I-3.8752 J-5.0745
G3 X4.9883 Y0.1146 I1.0622 J-4.2054
G2 X4.4869 Y-0.1085 I-0.3837 J0.1874
G1 X3.145 Y0.2763
G2 X2.838 Y0.7312 I0.1177 J0.4105
G3 X1.6534 Y4.1861 I-4.3139 J0.4514
G2 X-0.1208 Y8.3767 I4.6066 J4.4213
X2.782 Y13.962 Z-0.143 I6.3808 J0.2307
G1 X4.1977 Y14.8815 Z-0.1438
G2 X4.5382 Y14.9824 Z-0.1439 I0.3404 J-0.5242
G1 X5.9028 Z-0.1446
G2 X6.6172 Z-0.1449 I0.3572 J-6.375
G1 X8.2209 Z-0.1456
G2 X8.6002 Y14.8541 Z-0.1458 I0. J-0.625
G1 X10.1352 Y13.6819 Z-0.1467
G2 X7.8237 Y2.4168 Z-0.1532 I-3.8752 J-5.0745
G3 X4.9883 Y0.1146 Z-0.155 I1.0622 J-4.2054
G2 X4.4869 Y-0.1085 Z-0.1552 I-0.3837 J0.1874
G1 X3.145 Y0.2763 Z-0.1559
G2 X2.838 Y0.7312 Z-0.1561 I0.1177 J0.4105
G3 X1.6534 Y4.1861 Z-0.1579 I-4.3139 J0.4514
G2 X-0.1208 Y8.3767 Z-0.16 I4.6066 J4.4213
X2.782 Y13.962 I6.3808 J0.2307
G1 X4.1977 Y14.8815
G2 X4.5382 Y14.9824 I0.3404 J-0.5242
G1 X5.9028
G2 X6.6172 I0.3572 J-6.375
G1 X8.2209
G2 X8.6002 Y14.8541 I0. J-0.625
G1 X10.1352 Y13.6819
G2 X7.8237 Y2.4168 I-3.8752 J-5.0745
G3 X4.9883 Y0.1146 I1.0622 J-4.2054
G2 X4.4869 Y-0.1085 I-0.3837 J0.1874
G1 X3.145 Y0.2763
G2 X2.838 Y0.7312 I0.1177 J0.4105
G3 X1.6534 Y4.1861 I-4.3139 J0.4514
G2 X-0.1208 Y8.3767 I4.6066 J4.4213
X2.782 Y13.962 Z-0.163 I6.3808 J0.2307
G1 X4.1977 Y14.8815 Z-0.1638
G2 X4.5382 Y14.9824 Z-0.1639 I0.3404 J-0.5242
G1 X5.9028 Z-0.1646
G2 X6.6172 Z-0.1649 I0.3572 J-6.375
G1 X8.2209 Z-0.1656
G2 X8.6002 Y14.8541 Z-0.1658 I0. J-0.625
G1 X10.1352 Y13.6819 Z-0.1667
G2 X7.8237 Y2.4168 Z-0.1732 I-3.8752 J-5.0745
G3 X4.9883 Y0.1146 Z-0.175 I1.0622 J-4.2054
G2 X4.4869 Y-0.1085 Z-0.1752 I-0.3837 J0.1874
G1 X3.145 Y0.2763 Z-0.1759
G2 X2.838 Y0.7312 Z-0.1761 I0.1177 J0.4105
G3 X1.6534 Y4.1861 Z-0.1779 I-4.3139 J0.4514
G2 X-0.1208 Y8.3767 Z-0.18 I4.6066 J4.4213
X2.782 Y13.962 I6.3808 J0.2307
G1 X4.1977 Y14.8815
G2 X4.5382 Y14.9824 I0.3404 J-0.5242
G1 X5.9028
G2 X6.6172 I0.3572 J-6.375
G1 X8.2209
G2 X8.6002 Y14.8541 I0. J-0.625
G1 X10.1352 Y13.6819
G2 X7.8237 Y2.4168 I-3.8752 J-5.0745
G3 X4.9883 Y0.1146 I1.0622 J-4.2054
G2 X4.4869 Y-0.1085 I-0.3837 J0.1874
G1 X3.145 Y0.2763
G2 X2.838 Y0.7312 I0.1177 J0.4105
G3 X1.6534 Y4.1861 I-4.3139 J0.4514
G2 X-0.1208 Y8.3767 I4.6066 J4.4213
X2.782 Y13.962 Z-0.183 I6.3808 J0.2307
G1 X4.1977 Y14.8815 Z-0.1838
G2 X4.5382 Y14.9824 Z-0.1839 I0.3404 J-0.5242
G1 X5.9028 Z-0.1846
G2 X6.6172 Z-0.1849 I0.3572 J-6.375
G1 X8.2209 Z-0.1856
G2 X8.6002 Y14.8541 Z-0.1858 I0. J-0.625
G1 X10.1352 Y13.6819 Z-0.1867
G2 X7.8237 Y2.4168 Z-0.1932 I-3.8752 J-5.0745
G3 X4.9883 Y0.1146 Z-0.195 I1.0622 J-4.2054
G2 X4.9504 Y0.0514 I-0.3837 J0.1874
X4.4869 Y-0.1085 I-0.3458 J0.2506
G1 X3.145 Y0.2763
G2 X2.838 Y0.7312 I0.1177 J0.4105
G3 X1.6534 Y4.1861 I-4.3139 J0.4514
G2 X2.782 Y13.962 I4.6066 J4.4213
G1 X4.1977 Y14.8815
G2 X4.5382 Y14.9824 I0.3404 J-0.5242
G1 X5.9028
G2 X6.6172 I0.3572 J-6.375
G1 X8.2209
G2 X8.6002 Y14.8541 I0. J-0.625
G1 X10.1352 Y13.6819
G2 X7.8237 Y2.4168 I-3.8752 J-5.0745
G3 X4.9883 Y0.1146 I1.0622 J-4.2054
G2 X4.9504 Y0.0514 I-0.3837 J0.1874
G3 X4.9559 Y0.0165 I0.0202 J-0.0147
G1 X4.9762 Y0.0019
X4.9794 Y-0.0004 Z-0.1947
X4.9824 Y-0.0027 Z-0.1938
X4.9854 Y-0.0048 Z-0.1923
X4.9881 Y-0.0068 Z-0.1902
X4.9905 Y-0.0085 Z-0.1877
X4.9926 Y-0.01 Z-0.1847
X4.9942 Y-0.0112 Z-0.1813
X4.9954 Y-0.0121 Z-0.1777
X4.9962 Y-0.0126 Z-0.1739
X4.9964 Y-0.0128 Z-0.17
G0 Z0.6

M9
M30
