(TURRET STEP 1)
(T7  D=0.3937 CR=0. TAPER=118DEG - ZMIN=0. - CENTER DRILL)
G90 G94 G91.1 G40 G49 G17
G20

(DRILL3)
M5
T7 M6
S15000 M3
G54
M8
G0 X3.2627 Y0.6868
G43 Z0.6 H7
Z0.2
G98 G81 X3.2627 Y0.6868 Z0.05 R0.05 F3.
X4.6046 Y0.302
X11.895 Y8.6074
X11.1401 Y5.7899
X10.8967 Y4.7837
X10.0837 Y3.9706
X9.0775 Y3.7273
X6.26 Y2.9724
X5.7676 Y2.6051
X4.9894 Y1.6439
X3.6475 Y2.0287
X3.4969 Y3.2562
X3.4425 Y3.7273
X2.4363 Y3.9706
X1.6233 Y4.7837
X1.3799 Y5.7899
X0.625 Y8.6074
X1.3799 Y11.4249
X1.6233 Y12.4311
X2.4363 Y13.2441
X3.4425 Y13.4874
X6.26 Y14.2424
X9.0775 Y13.4874
X10.0837 Y13.2441
X10.8967 Y12.4311
X11.1401 Y11.4249
G80
Z0.6

M9
M30
