(TURRET STEP 5)
(T1  D=0.25 CR=0. - ZMIN=-0.195 - FLAT END MILL)
G90 G94 G91.1 G40 G49 G17
G20

(2D CONTOUR1)
M5
T1 M6
S15000 M3
g4 p5
G54
M8
G0 X0.85 Y5.0769
G43 Z0.6 H1
Z0.2
G1 Z0.125 F40.
X0.8503 Y5.077 Z0.1211 F60.
X0.8511 Y5.0775 Z0.1173
X0.8523 Y5.0783 Z0.1137
X0.854 Y5.0795 Z0.1103
X0.8562 Y5.0808 Z0.1073
X0.8587 Y5.0825 Z0.1048
X0.8615 Y5.0843 Z0.1027
X0.8645 Y5.0862 Z0.1012
X0.8677 Y5.0883 Z0.1003
X0.871 Y5.0904 Z0.1
X0.892 Y5.104
G3 X0.8994 Y5.1386 I-0.0136 J0.021
G2 X-0.1208 Y8.3767 Z-0.02 I5.3606 J3.4688
X2.782 Y13.962 I6.3808 J0.2307
G1 X4.1977 Y14.8815
G2 X4.5382 Y14.9824 I0.3404 J-0.5242
G1 X5.9028
G2 X6.6172 I0.3572 J-6.375
G1 X8.2209
G2 X8.6002 Y14.8541 I0. J-0.625
G1 X10.1352 Y13.6819
G2 X7.8237 Y2.4168 I-3.8752 J-5.0745
G3 X4.9883 Y0.1146 I1.0622 J-4.2054
G2 X4.4869 Y-0.1085 I-0.3837 J0.1874
G1 X3.145 Y0.2763
G2 X2.838 Y0.7312 I0.1177 J0.4105
G3 X1.6534 Y4.1861 I-4.3139 J0.4514
G2 X-0.1208 Y8.3767 I4.6066 J4.4213
X-0.0925 Y9.2505 Z-0.04 I6.3808 J0.2307
X2.782 Y13.962 I6.3525 J-0.6432
G1 X4.1977 Y14.8815
G2 X4.5382 Y14.9824 I0.3404 J-0.5242
G1 X5.9028
G2 X6.6172 I0.3572 J-6.375
G1 X8.2209
G2 X8.6002 Y14.8541 I0. J-0.625
G1 X10.1352 Y13.6819
G2 X7.8237 Y2.4168 I-3.8752 J-5.0745
G3 X4.9883 Y0.1146 I1.0622 J-4.2054
G2 X4.4869 Y-0.1085 I-0.3837 J0.1874
G1 X3.145 Y0.2763
G2 X2.838 Y0.7312 I0.1177 J0.4105
G3 X1.6534 Y4.1861 I-4.3139 J0.4514
G2 X-0.0925 Y9.2505 I4.6066 J4.4213
X0.0549 Y10.1123 Z-0.06 I6.3525 J-0.6432
X2.782 Y13.962 I6.2051 J-1.5049
G1 X4.1977 Y14.8815
G2 X4.5382 Y14.9824 I0.3404 J-0.5242
G1 X5.9028
G2 X6.6172 I0.3572 J-6.375
G1 X8.2209
G2 X8.6002 Y14.8541 I0. J-0.625
G1 X10.1352 Y13.6819
G2 X7.8237 Y2.4168 I-3.8752 J-5.0745
G3 X4.9883 Y0.1146 I1.0622 J-4.2054
G2 X4.4869 Y-0.1085 I-0.3837 J0.1874
G1 X3.145 Y0.2763
G2 X2.838 Y0.7312 I0.1177 J0.4105
G3 X1.6534 Y4.1861 I-4.3139 J0.4514
G2 X0.0549 Y10.1123 I4.6066 J4.4213
X0.3186 Y10.9458 Z-0.08 I6.2051 J-1.5049
X2.782 Y13.962 I5.9414 J-2.3385
G1 X4.1977 Y14.8815
G2 X4.5382 Y14.9824 I0.3404 J-0.5242
G1 X5.9028
G2 X6.6172 I0.3572 J-6.375
G1 X8.2209
G2 X8.6002 Y14.8541 I0. J-0.625
G1 X10.1352 Y13.6819
G2 X7.8237 Y2.4168 I-3.8752 J-5.0745
G3 X4.9883 Y0.1146 I1.0622 J-4.2054
G2 X4.4869 Y-0.1085 I-0.3837 J0.1874
G1 X3.145 Y0.2763
G2 X2.838 Y0.7312 I0.1177 J0.4105
G3 X1.6534 Y4.1861 I-4.3139 J0.4514
G2 X0.3186 Y10.9458 I4.6066 J4.4213
X0.6938 Y11.7355 Z-0.1 I5.9414 J-2.3385
X2.782 Y13.962 I5.5662 J-3.1282
G1 X4.1977 Y14.8815
G2 X4.5382 Y14.9824 I0.3404 J-0.5242
G1 X5.9028
G2 X6.6172 I0.3572 J-6.375
G1 X8.2209
G2 X8.6002 Y14.8541 I0. J-0.625
G1 X10.1352 Y13.6819
G2 X7.8237 Y2.4168 I-3.8752 J-5.0745
G3 X4.9883 Y0.1146 I1.0622 J-4.2054
G2 X4.4869 Y-0.1085 I-0.3837 J0.1874
G1 X3.145 Y0.2763
G2 X2.838 Y0.7312 I0.1177 J0.4105
G3 X1.6534 Y4.1861 I-4.3139 J0.4514
G2 X0.6938 Y11.7355 I4.6066 J4.4213
X1.1733 Y12.4666 Z-0.12 I5.5662 J-3.1282
X2.782 Y13.962 I5.0867 J-3.8592
G1 X4.1977 Y14.8815
G2 X4.5382 Y14.9824 I0.3404 J-0.5242
G1 X5.9028
G2 X6.6172 I0.3572 J-6.375
G1 X8.2209
G2 X8.6002 Y14.8541 I0. J-0.625
G1 X10.1352 Y13.6819
G2 X7.8237 Y2.4168 I-3.8752 J-5.0745
G3 X4.9883 Y0.1146 I1.0622 J-4.2054
G2 X4.4869 Y-0.1085 I-0.3837 J0.1874
G1 X3.145 Y0.2763
G2 X2.838 Y0.7312 I0.1177 J0.4105
G3 X1.6534 Y4.1861 I-4.3139 J0.4514
G2 X1.1733 Y12.4666 I4.6066 J4.4213
X1.7482 Y13.1253 Z-0.14 I5.0867 J-3.8592
X2.782 Y13.962 I4.5118 J-4.5179
G1 X4.1977 Y14.8815
G2 X4.5382 Y14.9824 I0.3404 J-0.5242
G1 X5.9028
G2 X6.6172 I0.3572 J-6.375
G1 X8.2209
G2 X8.6002 Y14.8541 I0. J-0.625
G1 X10.1352 Y13.6819
G2 X7.8237 Y2.4168 I-3.8752 J-5.0745
G3 X4.9883 Y0.1146 I1.0622 J-4.2054
G2 X4.4869 Y-0.1085 I-0.3837 J0.1874
G1 X3.145 Y0.2763
G2 X2.838 Y0.7312 I0.1177 J0.4105
G3 X1.6534 Y4.1861 I-4.3139 J0.4514
G2 X1.7482 Y13.1253 I4.6066 J4.4213
X2.4076 Y13.6993 Z-0.16 I4.5118 J-4.5179
X2.782 Y13.962 I3.8524 J-5.0919
G1 X4.1977 Y14.8815
G2 X4.5382 Y14.9824 I0.3404 J-0.5242
G1 X5.9028
G2 X6.6172 I0.3572 J-6.375
G1 X8.2209
G2 X8.6002 Y14.8541 I0. J-0.625
G1 X10.1352 Y13.6819
G2 X7.8237 Y2.4168 I-3.8752 J-5.0745
G3 X4.9883 Y0.1146 I1.0622 J-4.2054
G2 X4.4869 Y-0.1085 I-0.3837 J0.1874
G1 X3.145 Y0.2763
G2 X2.838 Y0.7312 I0.1177 J0.4105
G3 X1.6534 Y4.1861 I-4.3139 J0.4514
G2 X2.4076 Y13.6993 I4.6066 J4.4213
X2.782 Y13.962 Z-0.1705 I3.8524 J-5.0919
G1 X3.1322 Y14.1894 Z-0.18
X4.1977 Y14.8815
G2 X4.5382 Y14.9824 I0.3404 J-0.5242
G1 X5.9028
G2 X6.6172 I0.3572 J-6.375
G1 X8.2209
G2 X8.6002 Y14.8541 I0. J-0.625
G1 X10.1352 Y13.6819
G2 X7.8237 Y2.4168 I-3.8752 J-5.0745
G3 X4.9883 Y0.1146 I1.0622 J-4.2054
G2 X4.4869 Y-0.1085 I-0.3837 J0.1874
G1 X3.145 Y0.2763
G2 X2.838 Y0.7312 I0.1177 J0.4105
G3 X1.6534 Y4.1861 I-4.3139 J0.4514
G2 X2.782 Y13.962 I4.6066 J4.4213
G1 X3.1322 Y14.1894
X3.6825 Y14.5469 Z-0.195
X4.1977 Y14.8815
G2 X4.5382 Y14.9824 I0.3404 J-0.5242
G1 X5.9028
G2 X6.6172 I0.3572 J-6.375
G1 X8.2209
G2 X8.6002 Y14.8541 I0. J-0.625
G1 X10.1352 Y13.6819
G2 X7.8237 Y2.4168 I-3.8752 J-5.0745
G3 X4.9883 Y0.1146 I1.0622 J-4.2054
G2 X4.4869 Y-0.1085 I-0.3837 J0.1874
G1 X3.145 Y0.2763
G2 X2.838 Y0.7312 I0.1177 J0.4105
G3 X1.6534 Y4.1861 I-4.3139 J0.4514
G2 X2.782 Y13.962 I4.6066 J4.4213
G1 X3.6825 Y14.5469
G3 X3.6898 Y14.5814 I-0.0136 J0.021
G1 X3.6762 Y14.6024
X3.6741 Y14.6057 Z-0.1947
X3.672 Y14.6089 Z-0.1938
X3.67 Y14.6119 Z-0.1923
X3.6682 Y14.6147 Z-0.1902
X3.6666 Y14.6172 Z-0.1877
X3.6652 Y14.6194 Z-0.1847
X3.6641 Y14.6211 Z-0.1813
X3.6633 Y14.6224 Z-0.1777
X3.6628 Y14.6231 Z-0.1739
X3.6626 Y14.6234 Z-0.17
G0 Z0.6

M9
M30
