(X8 UPPER SUPPORT COMPLETE)
(T3  D=0.118 CR=0. - ZMIN=-0.44 - FLAT END MILL)
G90 G94 G91.1 G40 G49 G17
G20

(2D POCKET1)
M5
T3 M6
S15000 M3
g4 p5
G54
M8
G0 X1.8216 Y9.9724
G43 Z0.6 H3
Z0.2
G1 Z0.1118 F40.
X1.8215 Y9.9739 Z0.106 F20.
X1.8211 Y9.978 Z0.1017
X1.8199 Y9.9836 Z0.1
G3 X1.7114 Y9.9555 Z0.0939 I-0.0543 J-0.0141
X1.8199 Y9.9836 Z0.0877 I0.0543 J0.0141
X1.7114 Y9.9555 Z0.0816 I-0.0543 J-0.0141
X1.8199 Y9.9836 Z0.0754 I0.0543 J0.0141
X1.7114 Y9.9555 Z0.0693 I-0.0543 J-0.0141
X1.8199 Y9.9836 Z0.0631 I0.0543 J0.0141
X1.7114 Y9.9555 Z0.057 I-0.0543 J-0.0141
X1.8199 Y9.9836 Z0.0508 I0.0543 J0.0141
X1.7114 Y9.9555 Z0.0447 I-0.0543 J-0.0141
X1.8199 Y9.9836 Z0.0385 I0.0543 J0.0141
X1.7114 Y9.9555 Z0.0324 I-0.0543 J-0.0141
X1.8199 Y9.9836 Z0.0262 I0.0543 J0.0141
X1.7114 Y9.9555 Z0.0201 I-0.0543 J-0.0141
X1.8199 Y9.9836 Z0.0139 I0.0543 J0.0141
X1.7114 Y9.9555 Z0.0078 I-0.0543 J-0.0141
X1.8199 Y9.9836 Z0.0016 I0.0543 J0.0141
X1.7114 Y9.9555 Z-0.0045 I-0.0543 J-0.0141
X1.8199 Y9.9836 Z-0.0107 I0.0543 J0.0141
X1.7114 Y9.9555 Z-0.0168 I-0.0543 J-0.0141
X1.8199 Y9.9836 Z-0.023 I0.0543 J0.0141
X1.7114 Y9.9555 Z-0.0291 I-0.0543 J-0.0141
X1.8199 Y9.9836 Z-0.0353 I0.0543 J0.0141
X1.7114 Y9.9555 Z-0.0414 I-0.0543 J-0.0141
X1.8199 Y9.9836 Z-0.0476 I0.0543 J0.0141
X1.7114 Y9.9555 Z-0.0537 I-0.0543 J-0.0141
X1.8199 Y9.9836 Z-0.0599 I0.0543 J0.0141
X1.7114 Y9.9555 Z-0.066 I-0.0543 J-0.0141
X1.8199 Y9.9836 Z-0.0722 I0.0543 J0.0141
X1.7114 Y9.9555 Z-0.0783 I-0.0543 J-0.0141
X1.8199 Y9.9836 Z-0.0845 I0.0543 J0.0141
X1.7114 Y9.9555 Z-0.0906 I-0.0543 J-0.0141
X1.8199 Y9.9836 Z-0.0968 I0.0543 J0.0141
X1.7114 Y9.9555 Z-0.1029 I-0.0543 J-0.0141
X1.8199 Y9.9836 Z-0.1091 I0.0543 J0.0141
X1.7114 Y9.9555 Z-0.1152 I-0.0543 J-0.0141
X1.8199 Y9.9836 Z-0.1214 I0.0543 J0.0141
X1.7114 Y9.9555 Z-0.1275 I-0.0543 J-0.0141
X1.8199 Y9.9836 Z-0.1337 I0.0543 J0.0141
X1.7114 Y9.9555 Z-0.1398 I-0.0543 J-0.0141
X1.8199 Y9.9836 Z-0.146 I0.0543 J0.0141
X1.7114 Y9.9555 Z-0.1521 I-0.0543 J-0.0141
X1.8199 Y9.9836 Z-0.1583 I0.0543 J0.0141
X1.7114 Y9.9555 Z-0.1644 I-0.0543 J-0.0141
X1.8199 Y9.9836 Z-0.1706 I0.0543 J0.0141
X1.7114 Y9.9555 Z-0.1767 I-0.0543 J-0.0141
X1.8199 Y9.9836 Z-0.1829 I0.0543 J0.0141
X1.7114 Y9.9555 Z-0.189 I-0.0543 J-0.0141
X1.8199 Y9.9836 Z-0.1952 I0.0543 J0.0141
X1.7114 Y9.9555 Z-0.2013 I-0.0543 J-0.0141
X1.8199 Y9.9836 Z-0.2075 I0.0543 J0.0141
X1.7114 Y9.9555 Z-0.2136 I-0.0543 J-0.0141
X1.8199 Y9.9836 Z-0.2198 I0.0543 J0.0141
X1.7114 Y9.9555 Z-0.2259 I-0.0543 J-0.0141
X1.8199 Y9.9836 Z-0.232 I0.0543 J0.0141
X1.7114 Y9.9555 Z-0.2382 I-0.0543 J-0.0141
X1.8199 Y9.9836 Z-0.2443 I0.0543 J0.0141
X1.7096 Y9.9695 Z-0.25 I-0.0543 J-0.0141
X1.7301 Y9.9491 I0.0205 J0. F40.
X1.7505 Y9.9695 I0. J0.0205
X1.7096 I-0.0205 J0.
G2 X1.6955 Y9.9429 I-0.0322 J0.
G3 X1.6963 Y9.9127 I0.01 J-0.0148
X1.7301 Y9.9034 I0.0337 J0.0568
X1.7962 Y9.9695 I0. J0.0661
X1.664 I-0.0661 J0.
X1.6963 Y9.9127 I0.0661 J0.
G2 X1.7344 Y9.8488 I-0.0398 J-0.067
G3 X1.7971 Y9.8088 I0.0453 J0.0018
X1.9043 Y9.9696 I-0.0671 J0.1608
X1.7301 Y10.1438 I-0.1742 J0.
X1.5559 Y9.9695 I0. J-0.1742
X1.7301 Y9.7953 I0.1742 J0.
X1.7971 Y9.8088 I0. J0.1742
G2 X1.8801 Y9.7973 I0.0318 J-0.0761
G3 X1.9629 Y9.8099 I0.0355 J0.0449
X2.0124 Y9.9696 I-0.2328 J0.1596
X1.7301 Y10.2519 I-0.2823 J0.
X1.4478 Y9.9695 I0. J-0.2823
X1.7301 Y9.6872 I0.2823 J0.
X1.9629 Y9.8099 I0. J0.2823
G2 X2.0429 Y9.8458 I0.0694 J-0.0476
G3 X2.1137 Y9.8974 I0.008 J0.0634
X2.1205 Y9.9696 I-0.3837 J0.0721
X1.7301 Y10.36 I-0.3904 J0.
X1.3397 Y9.9695 I0. J-0.3904
X1.7301 Y9.5791 I0.3904 J0.
X2.1137 Y9.8974 I0. J0.3904
G2 X2.1755 Y9.9648 I0.0851 J-0.016
G3 X2.2254 Y10.0415 I-0.0187 J0.0667
X1.7301 Y10.4701 I-0.4953 J-0.0719
Y9.469 I0. J-0.5005
X2.2254 Y10.0415 I0. J0.5005
X2.215 Y10.0479 I-0.0079 J-0.0011
G1 X1.7426 Y9.8959
G3 X1.7375 Y9.8858 I0.0025 J-0.0076
X1.7476 Y9.8807 I0.0076 J0.0025
X1.7126 Y9.9872 Z-0.2561 I-0.0175 J0.0533 F20.
X1.7476 Y9.8807 Z-0.2623 I0.0175 J-0.0533
X1.7126 Y9.9872 Z-0.2684 I-0.0175 J0.0533
X1.7476 Y9.8807 Z-0.2746 I0.0175 J-0.0533
X1.7126 Y9.9872 Z-0.2807 I-0.0175 J0.0533
X1.7476 Y9.8807 Z-0.2869 I0.0175 J-0.0533
X1.7126 Y9.9872 Z-0.293 I-0.0175 J0.0533
X1.7476 Y9.8807 Z-0.2992 I0.0175 J-0.0533
X1.7126 Y9.9872 Z-0.3053 I-0.0175 J0.0533
X1.7476 Y9.8807 Z-0.3115 I0.0175 J-0.0533
X1.7126 Y9.9872 Z-0.3176 I-0.0175 J0.0533
X1.7476 Y9.8807 Z-0.3238 I0.0175 J-0.0533
X1.7126 Y9.9872 Z-0.3299 I-0.0175 J0.0533
X1.7476 Y9.8807 Z-0.3361 I0.0175 J-0.0533
X1.7126 Y9.9872 Z-0.3422 I-0.0175 J0.0533
X1.7476 Y9.8807 Z-0.3484 I0.0175 J-0.0533
X1.7126 Y9.9872 Z-0.3545 I-0.0175 J0.0533
X1.7476 Y9.8807 Z-0.3607 I0.0175 J-0.0533
X1.7126 Y9.9872 Z-0.3668 I-0.0175 J0.0533
X1.7476 Y9.8807 Z-0.373 I0.0175 J-0.0533
X1.7126 Y9.9872 Z-0.3791 I-0.0175 J0.0533
X1.7476 Y9.8807 Z-0.3853 I0.0175 J-0.0533
X1.7126 Y9.9872 Z-0.3914 I-0.0175 J0.0533
X1.7476 Y9.8807 Z-0.3976 I0.0175 J-0.0533
X1.7126 Y9.9872 Z-0.4037 I-0.0175 J0.0533
X1.7476 Y9.8807 Z-0.4099 I0.0175 J-0.0533
X1.7126 Y9.9872 Z-0.416 I-0.0175 J0.0533
X1.7476 Y9.8807 Z-0.4222 I0.0175 J-0.0533
X1.7126 Y9.9872 Z-0.4283 I-0.0175 J0.0533
X1.7476 Y9.8807 Z-0.4345 I0.0175 J-0.0533
X1.7301 Y9.99 Z-0.44 I-0.0175 J0.0533
X1.7096 Y9.9695 I0. J-0.0205 F40.
X1.7301 Y9.9491 I0.0205 J0.
X1.7505 Y9.9695 I0. J0.0205
X1.7301 Y9.99 I-0.0205 J0.
G2 X1.7034 Y10.0042 I0. J0.0322
G3 X1.6732 Y10.0033 I-0.0148 J-0.01
X1.664 Y9.9695 I0.0568 J-0.0337
X1.7301 Y9.9034 I0.0661 J0.
X1.7962 Y9.9695 I0. J0.0661
X1.6732 Y10.0033 I-0.0661 J0.
G2 X1.6093 Y9.9652 I-0.067 J0.0398
G3 X1.5693 Y9.9024 I0.0018 J-0.0453
X1.7301 Y9.7953 I0.1608 J0.0671
X1.9043 Y9.9696 I0. J0.1742
X1.7301 Y10.1438 I-0.1742 J0.
X1.5559 Y9.9695 I0. J-0.1742
X1.5693 Y9.9024 I0.1742 J0.
G2 X1.5579 Y9.8195 I-0.0761 J-0.0318
G3 X1.5705 Y9.7367 I0.0449 J-0.0355
X1.7301 Y9.6872 I0.1596 J0.2329
X2.0124 Y9.9696 I0. J0.2823
X1.7301 Y10.2519 I-0.2823 J0.
X1.4478 Y9.9695 I0. J-0.2823
X1.5705 Y9.7367 I0.2823 J0.
G2 X1.6064 Y9.6567 I-0.0476 J-0.0695
G3 X1.6581 Y9.5858 I0.0635 J-0.008
X1.7301 Y9.5791 I0.072 J0.3837
X2.1205 Y9.9696 I0. J0.3904
X1.7301 Y10.36 I-0.3904 J0.
X1.3397 Y9.9695 I0. J-0.3904
X1.6581 Y9.5858 I0.3904 J0.
G2 X1.7255 Y9.5241 I-0.016 J-0.0851
G3 X1.8021 Y9.4743 I0.0667 J0.0187
X1.7301 Y10.4701 I-0.0721 J0.4953
Y9.469 I0. J-0.5005
X1.8021 Y9.4743 I0. J0.5005
G1 X1.8043 Y9.4748 Z-0.4396
X1.8064 Y9.4757 Z-0.4391
X1.8079 Y9.4768 Z-0.4378
X1.8093 Y9.4782 Z-0.4365
X1.8108 Y9.4803 Z-0.4327
X1.8112 Y9.4811 Z-0.4282
G0 Z0.2
X0.9981 Y0.9317
G1 Z0.1118 F40.
X0.9982 Y0.9302 Z0.106 F20.
X0.9986 Y0.926 Z0.1017
X0.9998 Y0.9204 Z0.1
G3 X1.1083 Y0.9486 Z0.0939 I0.0543 J0.0141
X0.9998 Y0.9204 Z0.0877 I-0.0543 J-0.0141
X1.1083 Y0.9486 Z0.0816 I0.0543 J0.0141
X0.9998 Y0.9204 Z0.0754 I-0.0543 J-0.0141
X1.1083 Y0.9486 Z0.0693 I0.0543 J0.0141
X0.9998 Y0.9204 Z0.0631 I-0.0543 J-0.0141
X1.1083 Y0.9486 Z0.057 I0.0543 J0.0141
X0.9998 Y0.9204 Z0.0508 I-0.0543 J-0.0141
X1.1083 Y0.9486 Z0.0447 I0.0543 J0.0141
X0.9998 Y0.9204 Z0.0385 I-0.0543 J-0.0141
X1.1083 Y0.9486 Z0.0324 I0.0543 J0.0141
X0.9998 Y0.9204 Z0.0262 I-0.0543 J-0.0141
X1.1083 Y0.9486 Z0.0201 I0.0543 J0.0141
X0.9998 Y0.9204 Z0.0139 I-0.0543 J-0.0141
X1.1083 Y0.9486 Z0.0078 I0.0543 J0.0141
X0.9998 Y0.9204 Z0.0016 I-0.0543 J-0.0141
X1.1083 Y0.9486 Z-0.0045 I0.0543 J0.0141
X0.9998 Y0.9204 Z-0.0107 I-0.0543 J-0.0141
X1.1083 Y0.9486 Z-0.0168 I0.0543 J0.0141
X0.9998 Y0.9204 Z-0.023 I-0.0543 J-0.0141
X1.1083 Y0.9486 Z-0.0291 I0.0543 J0.0141
X0.9998 Y0.9204 Z-0.0353 I-0.0543 J-0.0141
X1.1083 Y0.9486 Z-0.0414 I0.0543 J0.0141
X0.9998 Y0.9204 Z-0.0476 I-0.0543 J-0.0141
X1.1083 Y0.9486 Z-0.0537 I0.0543 J0.0141
X0.9998 Y0.9204 Z-0.0599 I-0.0543 J-0.0141
X1.1083 Y0.9486 Z-0.066 I0.0543 J0.0141
X0.9998 Y0.9204 Z-0.0722 I-0.0543 J-0.0141
X1.1083 Y0.9486 Z-0.0783 I0.0543 J0.0141
X0.9998 Y0.9204 Z-0.0845 I-0.0543 J-0.0141
X1.1083 Y0.9486 Z-0.0906 I0.0543 J0.0141
X0.9998 Y0.9204 Z-0.0968 I-0.0543 J-0.0141
X1.1083 Y0.9486 Z-0.1029 I0.0543 J0.0141
X0.9998 Y0.9204 Z-0.1091 I-0.0543 J-0.0141
X1.1083 Y0.9486 Z-0.1152 I0.0543 J0.0141
X0.9998 Y0.9204 Z-0.1214 I-0.0543 J-0.0141
X1.1083 Y0.9486 Z-0.1275 I0.0543 J0.0141
X0.9998 Y0.9204 Z-0.1337 I-0.0543 J-0.0141
X1.1083 Y0.9486 Z-0.1398 I0.0543 J0.0141
X0.9998 Y0.9204 Z-0.146 I-0.0543 J-0.0141
X1.1083 Y0.9486 Z-0.1521 I0.0543 J0.0141
X0.9998 Y0.9204 Z-0.1583 I-0.0543 J-0.0141
X1.1083 Y0.9486 Z-0.1644 I0.0543 J0.0141
X0.9998 Y0.9204 Z-0.1706 I-0.0543 J-0.0141
X1.1083 Y0.9486 Z-0.1767 I0.0543 J0.0141
X0.9998 Y0.9204 Z-0.1829 I-0.0543 J-0.0141
X1.1083 Y0.9486 Z-0.189 I0.0543 J0.0141
X0.9998 Y0.9204 Z-0.1952 I-0.0543 J-0.0141
X1.1083 Y0.9486 Z-0.2013 I0.0543 J0.0141
X0.9998 Y0.9204 Z-0.2075 I-0.0543 J-0.0141
X1.1083 Y0.9486 Z-0.2136 I0.0543 J0.0141
X0.9998 Y0.9204 Z-0.2198 I-0.0543 J-0.0141
X1.1083 Y0.9486 Z-0.2259 I0.0543 J0.0141
X0.9998 Y0.9204 Z-0.232 I-0.0543 J-0.0141
X1.1083 Y0.9486 Z-0.2382 I0.0543 J0.0141
X0.9998 Y0.9204 Z-0.2443 I-0.0543 J-0.0141
X1.1101 Y0.9345 Z-0.25 I0.0543 J0.0141
X1.0059 I-0.0521 J0. F40.
X1.2222 I0.1081 J0.
X0.8938 I-0.1642 J0.
X1.3343 I0.2202 J0.
X0.7817 I-0.2763 J0.
X1.4464 I0.3324 J0.
X0.6696 I-0.3884 J0.
X1.5585 I0.4445 J0.
X0.5575 I-0.5005 J0.
X1.5585 I0.5005 J0.
G1 X1.5582 Y0.9363
X1.5574 Y0.9379
X1.5561 Y0.9392
X1.5545 Y0.9401
X1.5527 Y0.9404
X1.2761 Y0.9478
X1.0059 Y0.9247
X1.0042 Y0.9243
X1.0027 Y0.9234
X1.0015 Y0.9221
X1.0007 Y0.9205
X1.0005 Y0.9188
X1.0008 Y0.917
G3 X1.1073 Y0.952 Z-0.2561 I0.0533 J0.0175 F20.
X1.0008 Y0.917 Z-0.2623 I-0.0533 J-0.0175
X1.1073 Y0.952 Z-0.2684 I0.0533 J0.0175
X1.0008 Y0.917 Z-0.2746 I-0.0533 J-0.0175
X1.1073 Y0.952 Z-0.2807 I0.0533 J0.0175
X1.0008 Y0.917 Z-0.2869 I-0.0533 J-0.0175
X1.1073 Y0.952 Z-0.293 I0.0533 J0.0175
X1.0008 Y0.917 Z-0.2992 I-0.0533 J-0.0175
X1.1073 Y0.952 Z-0.3053 I0.0533 J0.0175
X1.0008 Y0.917 Z-0.3115 I-0.0533 J-0.0175
X1.1073 Y0.952 Z-0.3176 I0.0533 J0.0175
X1.0008 Y0.917 Z-0.3238 I-0.0533 J-0.0175
X1.1073 Y0.952 Z-0.3299 I0.0533 J0.0175
X1.0008 Y0.917 Z-0.3361 I-0.0533 J-0.0175
X1.1073 Y0.952 Z-0.3422 I0.0533 J0.0175
X1.0008 Y0.917 Z-0.3484 I-0.0533 J-0.0175
X1.1073 Y0.952 Z-0.3545 I0.0533 J0.0175
X1.0008 Y0.917 Z-0.3607 I-0.0533 J-0.0175
X1.1073 Y0.952 Z-0.3668 I0.0533 J0.0175
X1.0008 Y0.917 Z-0.373 I-0.0533 J-0.0175
X1.1073 Y0.952 Z-0.3791 I0.0533 J0.0175
X1.0008 Y0.917 Z-0.3853 I-0.0533 J-0.0175
X1.1073 Y0.952 Z-0.3914 I0.0533 J0.0175
X1.0008 Y0.917 Z-0.3976 I-0.0533 J-0.0175
X1.1073 Y0.952 Z-0.4037 I0.0533 J0.0175
X1.0008 Y0.917 Z-0.4099 I-0.0533 J-0.0175
X1.1073 Y0.952 Z-0.416 I0.0533 J0.0175
X1.0008 Y0.917 Z-0.4222 I-0.0533 J-0.0175
X1.1073 Y0.952 Z-0.4283 I0.0533 J0.0175
X1.0008 Y0.917 Z-0.4345 I-0.0533 J-0.0175
X1.1101 Y0.9345 Z-0.44 I0.0533 J0.0175
X1.0059 I-0.0521 J0. F40.
X1.2222 I0.1081 J0.
X0.8938 I-0.1642 J0.
X1.3343 I0.2202 J0.
X0.7817 I-0.2763 J0.
X1.4464 I0.3324 J0.
X0.6696 I-0.3884 J0.
X1.5585 I0.4445 J0.
X0.5575 I-0.5005 J0.
X1.5585 I0.5005 J0.
G1 X1.5583 Y0.9367 Z-0.4396
X1.5576 Y0.9389 Z-0.4391
X1.5568 Y0.9406 Z-0.4378
X1.5557 Y0.9422 Z-0.4365
X1.5538 Y0.9439 Z-0.4327
X1.5531 Y0.9444 Z-0.4282
G0 Z0.6
g0 z.5
m5
g0 y15
M1

(2D CONTOUR1)
G0 X0.0259 Y0.9191
Z0.6
Z0.2
G1 Z-0.2382 F20.
X0.0262 Y0.9192 Z-0.2408 F40.
X0.0271 Z-0.2433
X0.0285 Y0.9194 Z-0.2456
X0.0303 Y0.9195 Z-0.2474
X0.0326 Y0.9197 Z-0.2488
X0.0351 Y0.92 Z-0.2497
X0.0377 Y0.9202 Z-0.25
X0.0494 Y0.9213
G3 X0.0601 Y0.9342 I-0.0011 J0.0117
G2 X0.7662 Y10.2102 I27.5796 J2.5656
X2.694 Y9.7289 I0.9639 J-0.2407
G3 X2.0469 Y1.0299 I24.9456 J-6.2291
G2 X1.1534 Y-0.0544 I-0.9889 J-0.0954
X0.0691 Y0.8391 I-0.0954 J0.9889
X0.0601 Y0.9342 I27.5706 J2.6606
G3 X0.0472 Y0.9448 I-0.0117 J-0.0011
G1 X0.0355 Y0.9437
X0.0329 Y0.9435 Z-0.2497
X0.0304 Y0.9432 Z-0.2488
X0.0282 Y0.943 Z-0.2474
X0.0263 Y0.9429 Z-0.2456
X0.0249 Y0.9427 Z-0.2433
X0.024 Y0.9426 Z-0.2408
X0.0237 Z-0.2382
G0 Z0.2
X0.0259 Y0.9191
G1 Z-0.05 F20.
Z-0.4282
X0.0262 Y0.9192 Z-0.4308 F40.
X0.0271 Z-0.4333
X0.0285 Y0.9194 Z-0.4356
X0.0303 Y0.9195 Z-0.4374
X0.0326 Y0.9197 Z-0.4388
X0.0351 Y0.92 Z-0.4397
X0.0377 Y0.9202 Z-0.44
X0.0494 Y0.9213
G3 X0.0601 Y0.9342 I-0.0011 J0.0117
G2 X0.7662 Y10.2102 I27.5796 J2.5656
X2.694 Y9.7289 I0.9639 J-0.2407
G3 X2.0469 Y1.0299 I24.9456 J-6.2291
G2 X1.1534 Y-0.0544 I-0.9889 J-0.0954
X0.0691 Y0.8391 I-0.0954 J0.9889
X0.0601 Y0.9342 I27.5706 J2.6606
G3 X0.0472 Y0.9448 I-0.0117 J-0.0011
G1 X0.0355 Y0.9437
X0.0329 Y0.9435 Z-0.4397
X0.0304 Y0.9432 Z-0.4388
X0.0282 Y0.943 Z-0.4374
X0.0263 Y0.9429 Z-0.4356
X0.0249 Y0.9427 Z-0.4333
X0.024 Y0.9426 Z-0.4308
X0.0237 Z-0.4282
G0 Z0.6

M9
M30
