(X8 UPPER ARM COMPLETE)
(T3  D=0.118 CR=0. - ZMIN=-0.4 - FLAT END MILL)
G90 G94 G91.1 G40 G49 G17
G20

(2D POCKET1)
M5
T3 M6
S15000 M3
g4 p5
G54
M8
G0 X1.9642 Y10.3627
G43 Z0.64 H3
Z0.24
G1 Z0.1518 F40.
X1.9637 Y10.3613 Z0.146 F20.
X1.9626 Y10.3573 Z0.1417
X1.9616 Y10.3516 Z0.14
G3 X2.0728 Y10.3375 Z0.1339 I0.0556 J-0.0071
X1.9616 Y10.3516 Z0.1277 I-0.0556 J0.0071
X2.0728 Y10.3375 Z0.1216 I0.0556 J-0.0071
X1.9616 Y10.3516 Z0.1154 I-0.0556 J0.0071
X2.0728 Y10.3375 Z0.1093 I0.0556 J-0.0071
X1.9616 Y10.3516 Z0.1031 I-0.0556 J0.0071
X2.0728 Y10.3375 Z0.097 I0.0556 J-0.0071
X1.9616 Y10.3516 Z0.0908 I-0.0556 J0.0071
X2.0728 Y10.3375 Z0.0847 I0.0556 J-0.0071
X1.9616 Y10.3516 Z0.0785 I-0.0556 J0.0071
X2.0728 Y10.3375 Z0.0724 I0.0556 J-0.0071
X1.9616 Y10.3516 Z0.0662 I-0.0556 J0.0071
X2.0728 Y10.3375 Z0.0601 I0.0556 J-0.0071
X1.9616 Y10.3516 Z0.0539 I-0.0556 J0.0071
X2.0728 Y10.3375 Z0.0478 I0.0556 J-0.0071
X1.9616 Y10.3516 Z0.0416 I-0.0556 J0.0071
X2.0728 Y10.3375 Z0.0355 I0.0556 J-0.0071
X1.9616 Y10.3516 Z0.0293 I-0.0556 J0.0071
X2.0728 Y10.3375 Z0.0232 I0.0556 J-0.0071
X1.9616 Y10.3516 Z0.017 I-0.0556 J0.0071
X2.0728 Y10.3375 Z0.0109 I0.0556 J-0.0071
X1.9616 Y10.3516 Z0.0047 I-0.0556 J0.0071
X2.0728 Y10.3375 Z-0.0014 I0.0556 J-0.0071
X1.9616 Y10.3516 Z-0.0076 I-0.0556 J0.0071
X2.0728 Y10.3375 Z-0.0137 I0.0556 J-0.0071
X1.9616 Y10.3516 Z-0.0199 I-0.0556 J0.0071
X2.0728 Y10.3375 Z-0.026 I0.0556 J-0.0071
X1.9616 Y10.3516 Z-0.0322 I-0.0556 J0.0071
X2.0728 Y10.3375 Z-0.0383 I0.0556 J-0.0071
X1.9616 Y10.3516 Z-0.0445 I-0.0556 J0.0071
X2.0728 Y10.3375 Z-0.0506 I0.0556 J-0.0071
X1.9616 Y10.3516 Z-0.0568 I-0.0556 J0.0071
X2.0728 Y10.3375 Z-0.0629 I0.0556 J-0.0071
X1.9616 Y10.3516 Z-0.0691 I-0.0556 J0.0071
X2.0728 Y10.3375 Z-0.0752 I0.0556 J-0.0071
X1.9616 Y10.3516 Z-0.0814 I-0.0556 J0.0071
X2.0728 Y10.3375 Z-0.0875 I0.0556 J-0.0071
X1.9616 Y10.3516 Z-0.0937 I-0.0556 J0.0071
X2.0728 Y10.3375 Z-0.0998 I0.0556 J-0.0071
X1.9616 Y10.3516 Z-0.106 I-0.0556 J0.0071
X2.0728 Y10.3375 Z-0.1121 I0.0556 J-0.0071
X1.9616 Y10.3516 Z-0.1183 I-0.0556 J0.0071
X2.0728 Y10.3375 Z-0.1244 I0.0556 J-0.0071
X1.9616 Y10.3516 Z-0.1306 I-0.0556 J0.0071
X2.0728 Y10.3375 Z-0.1367 I0.0556 J-0.0071
X1.9616 Y10.3516 Z-0.1429 I-0.0556 J0.0071
X2.0728 Y10.3375 Z-0.149 I0.0556 J-0.0071
X1.9616 Y10.3516 Z-0.1552 I-0.0556 J0.0071
X2.0728 Y10.3375 Z-0.1613 I0.0556 J-0.0071
X1.9616 Y10.3516 Z-0.1675 I-0.0556 J0.0071
X2.0728 Y10.3375 Z-0.1736 I0.0556 J-0.0071
X2.0207 Y10.4005 Z-0.1768 I-0.0556 J0.0071
X1.9611 Y10.3445 Z-0.18 I-0.0036 J-0.0559
X1.9816 Y10.3241 I0.0205 J0. F40.
Y10.365 I0. J0.0205
X1.9611 Y10.3445 I0. J-0.0204
G2 X1.947 Y10.3178 I-0.0322 J-0.0001
G3 X1.948 Y10.2876 I0.0101 J-0.0148
X1.9816 Y10.2784 I0.0336 J0.0569
Y10.4107 I0. J0.0661
X1.9155 Y10.3445 I0. J-0.0661
X1.948 Y10.2876 I0.0661 J0.
G2 X1.9862 Y10.2238 I-0.0396 J-0.0671
G3 X2.049 Y10.1839 I0.0453 J0.0019
X1.9816 Y10.5188 I-0.0674 J0.1606
X1.8074 Y10.3445 I0. J-0.1742
X1.9816 Y10.1703 I0.1742 J0.
X2.049 Y10.1839 I0. J0.1742
G2 X2.132 Y10.1726 I0.0319 J-0.0761
G3 X2.2147 Y10.1853 I0.0354 J0.045
X1.9816 Y10.6269 I-0.2331 J0.1592
X1.6993 Y10.3445 I0. J-0.2823
X1.9816 Y10.0622 I0.2823 J0.
X2.2147 Y10.1853 I0. J0.2823
G2 X2.2946 Y10.2214 I0.0695 J-0.0475
G3 X2.3654 Y10.2732 I0.0079 J0.0635
X2.372 Y10.3446 I-0.3838 J0.0714
X1.9816 Y10.735 I-0.3904 J0.
X1.5912 Y10.3445 I0. J-0.3904
G1 X1.5922 Y10.3442
X1.5929 Y10.3434
X1.593 Y10.3424
X1.5925 Y10.3414
X1.5918 Y10.3405
X1.5914 Y10.3395
X1.5912 Y10.3383
G3 X2.3654 Y10.2732 I0.3903 J0.0062
G2 X2.427 Y10.3407 I0.0851 J-0.0158
G3 X2.4767 Y10.4174 I-0.0188 J0.0666
X1.9816 Y10.8451 I-0.4952 J-0.0729
Y9.844 I0. J-0.5005
X2.4767 Y10.4174 I0. J0.5005
X2.4672 Y10.4241 I-0.0079 J-0.0012
G1 X1.9787 Y10.3215
G3 X1.9743 Y10.3085 I0.0016 J-0.0078
X2.0601 Y10.3806 Z-0.1861 I0.0429 J0.036 F20.
X1.9743 Y10.3085 Z-0.1923 I-0.0429 J-0.036
X2.0601 Y10.3806 Z-0.1984 I0.0429 J0.036
X1.9743 Y10.3085 Z-0.2046 I-0.0429 J-0.036
X2.0601 Y10.3806 Z-0.2107 I0.0429 J0.036
X1.9743 Y10.3085 Z-0.2169 I-0.0429 J-0.036
X2.0601 Y10.3806 Z-0.223 I0.0429 J0.036
X1.9743 Y10.3085 Z-0.2292 I-0.0429 J-0.036
X2.0601 Y10.3806 Z-0.2353 I0.0429 J0.036
X1.9743 Y10.3085 Z-0.2415 I-0.0429 J-0.036
X2.0601 Y10.3806 Z-0.2476 I0.0429 J0.036
X1.9743 Y10.3085 Z-0.2538 I-0.0429 J-0.036
X2.0601 Y10.3806 Z-0.2599 I0.0429 J0.036
X1.9743 Y10.3085 Z-0.2661 I-0.0429 J-0.036
X2.0601 Y10.3806 Z-0.2722 I0.0429 J0.036
X1.9743 Y10.3085 Z-0.2784 I-0.0429 J-0.036
X2.0601 Y10.3806 Z-0.2845 I0.0429 J0.036
X1.9743 Y10.3085 Z-0.2907 I-0.0429 J-0.036
X2.0601 Y10.3806 Z-0.2968 I0.0429 J0.036
X1.9743 Y10.3085 Z-0.303 I-0.0429 J-0.036
X2.0601 Y10.3806 Z-0.3091 I0.0429 J0.036
X1.9743 Y10.3085 Z-0.3153 I-0.0429 J-0.036
X2.0601 Y10.3806 Z-0.3214 I0.0429 J0.036
X1.9743 Y10.3085 Z-0.3276 I-0.0429 J-0.036
X2.0601 Y10.3806 Z-0.3337 I0.0429 J0.036
X1.9743 Y10.3085 Z-0.3399 I-0.0429 J-0.036
X2.0601 Y10.3806 Z-0.346 I0.0429 J0.036
X1.9743 Y10.3085 Z-0.3522 I-0.0429 J-0.036
X2.0601 Y10.3806 Z-0.3583 I0.0429 J0.036
X1.9743 Y10.3085 Z-0.3645 I-0.0429 J-0.036
X2.0601 Y10.3806 Z-0.3706 I0.0429 J0.036
X1.9743 Y10.3085 Z-0.3768 I-0.0429 J-0.036
X2.0601 Y10.3806 Z-0.3829 I0.0429 J0.036
X1.9743 Y10.3085 Z-0.3891 I-0.0429 J-0.036
X2.0601 Y10.3806 Z-0.3952 I0.0429 J0.036
X1.9611 Y10.3445 Z-0.4 I-0.0429 J-0.036
X1.9816 Y10.3241 I0.0205 J0. F40.
Y10.365 I0. J0.0205
X1.9611 Y10.3445 I0. J-0.0204
G2 X1.947 Y10.3178 I-0.0322 J-0.0001
G3 X1.948 Y10.2876 I0.0101 J-0.0148
X1.9816 Y10.2784 I0.0336 J0.0569
Y10.4107 I0. J0.0661
X1.9155 Y10.3445 I0. J-0.0661
X1.948 Y10.2876 I0.0661 J0.
G2 X1.9862 Y10.2238 I-0.0396 J-0.0671
G3 X2.049 Y10.1839 I0.0453 J0.0019
X1.9816 Y10.5188 I-0.0674 J0.1606
X1.8074 Y10.3445 I0. J-0.1742
X1.9816 Y10.1703 I0.1742 J0.
X2.049 Y10.1839 I0. J0.1742
G2 X2.132 Y10.1726 I0.0319 J-0.0761
G3 X2.2147 Y10.1853 I0.0354 J0.045
X1.9816 Y10.6269 I-0.2331 J0.1592
X1.6993 Y10.3445 I0. J-0.2823
X1.9816 Y10.0622 I0.2823 J0.
X2.2147 Y10.1853 I0. J0.2823
G2 X2.2946 Y10.2214 I0.0695 J-0.0475
G3 X2.3654 Y10.2732 I0.0079 J0.0635
X2.372 Y10.3446 I-0.3838 J0.0714
X1.9816 Y10.735 I-0.3904 J0.
X1.5912 Y10.3445 I0. J-0.3904
G1 X1.5922 Y10.3442
X1.5929 Y10.3434
X1.593 Y10.3424
X1.5925 Y10.3414
X1.5918 Y10.3405
X1.5914 Y10.3395
X1.5912 Y10.3383
G3 X2.3654 Y10.2732 I0.3903 J0.0062
G2 X2.427 Y10.3407 I0.0851 J-0.0158
G3 X2.4767 Y10.4174 I-0.0188 J0.0666
X1.9816 Y10.8451 I-0.4952 J-0.0729
Y9.844 I0. J-0.5005
X2.4767 Y10.4174 I0. J0.5005
G1 X2.4762 Y10.4196 Z-0.3996
X2.4753 Y10.4217 Z-0.3991
X2.4742 Y10.4232 Z-0.3978
X2.4728 Y10.4246 Z-0.3965
X2.4707 Y10.4261 Z-0.3927
X2.4699 Y10.4265 Z-0.3882
G0 Z0.24
X1.3586 Y1.2913
G1 Z0.1518 F40.
X1.359 Y1.2928 Z0.146 F20.
X1.3601 Y1.2968 Z0.1417
X1.3611 Y1.3024 Z0.14
G3 X1.25 Y1.3166 Z0.1339 I-0.0556 J0.0071
X1.3611 Y1.3024 Z0.1277 I0.0556 J-0.0071
X1.25 Y1.3166 Z0.1216 I-0.0556 J0.0071
X1.3611 Y1.3024 Z0.1154 I0.0556 J-0.0071
X1.25 Y1.3166 Z0.1093 I-0.0556 J0.0071
X1.3611 Y1.3024 Z0.1031 I0.0556 J-0.0071
X1.25 Y1.3166 Z0.097 I-0.0556 J0.0071
X1.3611 Y1.3024 Z0.0908 I0.0556 J-0.0071
X1.25 Y1.3166 Z0.0847 I-0.0556 J0.0071
X1.3611 Y1.3024 Z0.0785 I0.0556 J-0.0071
X1.25 Y1.3166 Z0.0724 I-0.0556 J0.0071
X1.3611 Y1.3024 Z0.0662 I0.0556 J-0.0071
X1.25 Y1.3166 Z0.0601 I-0.0556 J0.0071
X1.3611 Y1.3024 Z0.0539 I0.0556 J-0.0071
X1.25 Y1.3166 Z0.0478 I-0.0556 J0.0071
X1.3611 Y1.3024 Z0.0416 I0.0556 J-0.0071
X1.25 Y1.3166 Z0.0355 I-0.0556 J0.0071
X1.3611 Y1.3024 Z0.0293 I0.0556 J-0.0071
X1.25 Y1.3166 Z0.0232 I-0.0556 J0.0071
X1.3611 Y1.3024 Z0.017 I0.0556 J-0.0071
X1.25 Y1.3166 Z0.0109 I-0.0556 J0.0071
X1.3611 Y1.3024 Z0.0047 I0.0556 J-0.0071
X1.25 Y1.3166 Z-0.0014 I-0.0556 J0.0071
X1.3611 Y1.3024 Z-0.0076 I0.0556 J-0.0071
X1.25 Y1.3166 Z-0.0137 I-0.0556 J0.0071
X1.3611 Y1.3024 Z-0.0199 I0.0556 J-0.0071
X1.25 Y1.3166 Z-0.026 I-0.0556 J0.0071
X1.3611 Y1.3024 Z-0.0322 I0.0556 J-0.0071
X1.25 Y1.3166 Z-0.0383 I-0.0556 J0.0071
X1.3611 Y1.3024 Z-0.0445 I0.0556 J-0.0071
X1.25 Y1.3166 Z-0.0506 I-0.0556 J0.0071
X1.3611 Y1.3024 Z-0.0568 I0.0556 J-0.0071
X1.25 Y1.3166 Z-0.0629 I-0.0556 J0.0071
X1.3611 Y1.3024 Z-0.0691 I0.0556 J-0.0071
X1.25 Y1.3166 Z-0.0752 I-0.0556 J0.0071
X1.3611 Y1.3024 Z-0.0814 I0.0556 J-0.0071
X1.25 Y1.3166 Z-0.0875 I-0.0556 J0.0071
X1.3611 Y1.3024 Z-0.0937 I0.0556 J-0.0071
X1.25 Y1.3166 Z-0.0998 I-0.0556 J0.0071
X1.3611 Y1.3024 Z-0.106 I0.0556 J-0.0071
X1.25 Y1.3166 Z-0.1121 I-0.0556 J0.0071
X1.3611 Y1.3024 Z-0.1183 I0.0556 J-0.0071
X1.25 Y1.3166 Z-0.1244 I-0.0556 J0.0071
X1.3611 Y1.3024 Z-0.1306 I0.0556 J-0.0071
X1.25 Y1.3166 Z-0.1367 I-0.0556 J0.0071
X1.3611 Y1.3024 Z-0.1429 I0.0556 J-0.0071
X1.25 Y1.3166 Z-0.149 I-0.0556 J0.0071
X1.3611 Y1.3024 Z-0.1552 I0.0556 J-0.0071
X1.25 Y1.3166 Z-0.1613 I-0.0556 J0.0071
X1.3611 Y1.3024 Z-0.1675 I0.0556 J-0.0071
X1.25 Y1.3166 Z-0.1736 I-0.0556 J0.0071
X1.302 Y1.2536 Z-0.1768 I0.0556 J-0.0071
X1.3616 Y1.3095 Z-0.18 I0.0036 J0.0559
X1.2574 I-0.0521 J0. F40.
X1.4737 I0.1082 J0.
X1.1453 I-0.1642 J0.
X1.5858 I0.2203 J0.
X1.0332 I-0.2763 J0.
X1.6979 I0.3324 J0.
X0.9211 I-0.3884 J0.
X1.81 I0.4445 J0.
X0.809 I-0.5005 J0.
X1.81 I0.5005 J0.
G1 X1.8098 Y1.3112
X1.8091 Y1.3127
X1.808 Y1.3139
X1.8066 Y1.3149
X1.805 Y1.3153
X1.8033
X1.3921 Y1.2594
X1.3904 Y1.2592
X1.3888 Y1.2595
X1.3874 Y1.2602
X1.3861 Y1.2613
X1.3853 Y1.2627
X1.3485 Y1.3455
G3 X1.2626 Y1.2735 Z-0.1861 I-0.0429 J-0.036 F20.
X1.3485 Y1.3455 Z-0.1923 I0.0429 J0.036
X1.2626 Y1.2735 Z-0.1984 I-0.0429 J-0.036
X1.3485 Y1.3455 Z-0.2046 I0.0429 J0.036
X1.2626 Y1.2735 Z-0.2107 I-0.0429 J-0.036
X1.3485 Y1.3455 Z-0.2169 I0.0429 J0.036
X1.2626 Y1.2735 Z-0.223 I-0.0429 J-0.036
X1.3485 Y1.3455 Z-0.2292 I0.0429 J0.036
X1.2626 Y1.2735 Z-0.2353 I-0.0429 J-0.036
X1.3485 Y1.3455 Z-0.2415 I0.0429 J0.036
X1.2626 Y1.2735 Z-0.2476 I-0.0429 J-0.036
X1.3485 Y1.3455 Z-0.2538 I0.0429 J0.036
X1.2626 Y1.2735 Z-0.2599 I-0.0429 J-0.036
X1.3485 Y1.3455 Z-0.2661 I0.0429 J0.036
X1.2626 Y1.2735 Z-0.2722 I-0.0429 J-0.036
X1.3485 Y1.3455 Z-0.2784 I0.0429 J0.036
X1.2626 Y1.2735 Z-0.2845 I-0.0429 J-0.036
X1.3485 Y1.3455 Z-0.2907 I0.0429 J0.036
X1.2626 Y1.2735 Z-0.2968 I-0.0429 J-0.036
X1.3485 Y1.3455 Z-0.303 I0.0429 J0.036
X1.2626 Y1.2735 Z-0.3091 I-0.0429 J-0.036
X1.3485 Y1.3455 Z-0.3153 I0.0429 J0.036
X1.2626 Y1.2735 Z-0.3214 I-0.0429 J-0.036
X1.3485 Y1.3455 Z-0.3276 I0.0429 J0.036
X1.2626 Y1.2735 Z-0.3337 I-0.0429 J-0.036
X1.3485 Y1.3455 Z-0.3399 I0.0429 J0.036
X1.2626 Y1.2735 Z-0.346 I-0.0429 J-0.036
X1.3485 Y1.3455 Z-0.3522 I0.0429 J0.036
X1.2626 Y1.2735 Z-0.3583 I-0.0429 J-0.036
X1.3485 Y1.3455 Z-0.3645 I0.0429 J0.036
X1.2626 Y1.2735 Z-0.3706 I-0.0429 J-0.036
X1.3485 Y1.3455 Z-0.3768 I0.0429 J0.036
X1.2626 Y1.2735 Z-0.3829 I-0.0429 J-0.036
X1.3485 Y1.3455 Z-0.3891 I0.0429 J0.036
X1.2626 Y1.2735 Z-0.3952 I-0.0429 J-0.036
X1.3616 Y1.3095 Z-0.4 I0.0429 J0.036
X1.2574 I-0.0521 J0. F40.
X1.4737 I0.1082 J0.
X1.1453 I-0.1642 J0.
X1.5858 I0.2203 J0.
X1.0332 I-0.2763 J0.
X1.6979 I0.3324 J0.
X0.9211 I-0.3884 J0.
X1.81 I0.4445 J0.
X0.809 I-0.5005 J0.
X1.81 I0.5005 J0.
G1 X1.8098 Y1.3117 Z-0.3996
X1.8091 Y1.3139 Z-0.3991
X1.8083 Y1.3156 Z-0.3978
X1.8072 Y1.3172 Z-0.3965
X1.8053 Y1.3189 Z-0.3927
X1.8046 Y1.3194 Z-0.3882
G0 Z0.64
g0 z.5
m5
g0 y15

(2D CONTOUR1)
G0 X1.4683 Y-0.0854
Z0.64
Z0.24
G1 Z-0.1682 F20.
Y-0.0851 Z-0.1708 F40.
X1.4682 Y-0.0843 Z-0.1733
X1.4681 Y-0.0829 Z-0.1756
X1.4679 Y-0.081 Z-0.1774
X1.4676 Y-0.0788 Z-0.1788
X1.4674 Y-0.0763 Z-0.1797
X1.4671 Y-0.0737 Z-0.18
X1.4659 Y-0.062
G3 X1.4529 Y-0.0515 I-0.0117 J-0.0012
G2 X0.5388 Y2.4403 I-0.1434 J1.361
G3 X1.052 Y9.3402 I-2.4906 J3.6543
G2 X1.0519 Y11.3487 I0.9296 J1.0043
X3.0544 Y11.1941 I0.9297 J-1.0042
X2.2448 Y0.3105 I-6.3163 J-5.0021
X1.4529 Y-0.0515 I-0.9353 J0.999
G3 X1.4424 Y-0.0644 I0.0012 J-0.0117
G1 X1.4436 Y-0.0762
X1.4439 Y-0.0788 Z-0.1797
X1.4442 Y-0.0813 Z-0.1788
X1.4444 Y-0.0835 Z-0.1774
X1.4446 Y-0.0853 Z-0.1756
X1.4448 Y-0.0867 Z-0.1733
Y-0.0876 Z-0.1708
X1.4449 Y-0.0879 Z-0.1682
G0 Z0.24
X1.4683 Y-0.0854
G1 Z0.02 F20.
Z-0.3882
Y-0.0851 Z-0.3908 F40.
X1.4682 Y-0.0843 Z-0.3933
X1.4681 Y-0.0829 Z-0.3956
X1.4679 Y-0.081 Z-0.3974
X1.4676 Y-0.0788 Z-0.3988
X1.4674 Y-0.0763 Z-0.3997
X1.4671 Y-0.0737 Z-0.4
X1.4659 Y-0.062
G3 X1.4529 Y-0.0515 I-0.0117 J-0.0012
G2 X0.5388 Y2.4403 I-0.1434 J1.361
G3 X1.052 Y9.3402 I-2.4906 J3.6543
G2 X1.0519 Y11.3487 I0.9296 J1.0043
X3.0544 Y11.1941 I0.9297 J-1.0042
X2.2448 Y0.3105 I-6.3163 J-5.0021
X1.4529 Y-0.0515 I-0.9353 J0.999
G3 X1.4424 Y-0.0644 I0.0012 J-0.0117
G1 X1.4436 Y-0.0762
X1.4439 Y-0.0788 Z-0.3997
X1.4442 Y-0.0813 Z-0.3988
X1.4444 Y-0.0835 Z-0.3974
X1.4446 Y-0.0853 Z-0.3956
X1.4448 Y-0.0867 Z-0.3933
Y-0.0876 Z-0.3908
X1.4449 Y-0.0879 Z-0.3882
G0 Z0.64

M9
M30
