(X8 RIGHT INTAKE MOTOR PLATE HOLES 2)
(T3  D=0.118 CR=0. - ZMIN=-0.14 - FLAT END MILL)
G90 G94 G91.1 G40 G49 G17
G20

(2D POCKET2)
M5
T3 M6
S15000 M3
g4 p5
g0 z.4
G54
M8
G0 X1.8527 Y6.2081
G43 Z0.6 H3
Z0.2
G1 Z0.1118 F30.
X1.8519 Y6.208 Z0.1075 F20.
X1.8508 Y6.2076 Z0.1057
X1.8499 Y6.2071 Z0.1039
X1.849 Y6.2062 Z0.1029
X1.8483 Y6.2051 Z0.102
X1.8479 Y6.2039 Z0.1011
Y6.2024 Z0.1007
X1.8483 Y6.201 Z0.1004
X1.8492 Y6.1997 Z0.1
G3 X1.8566 Y6.2064 Z0.0995 I0.0037 J0.0034
X1.8492 Y6.1997 Z0.0989 I-0.0037 J-0.0034
X1.8566 Y6.2064 Z0.0984 I0.0037 J0.0034
X1.8492 Y6.1997 Z0.0978 I-0.0037 J-0.0034
X1.8566 Y6.2064 Z0.0973 I0.0037 J0.0034
X1.8492 Y6.1997 Z0.0967 I-0.0037 J-0.0034
X1.8566 Y6.2064 Z0.0962 I0.0037 J0.0034
X1.8492 Y6.1997 Z0.0956 I-0.0037 J-0.0034
X1.8566 Y6.2064 Z0.0951 I0.0037 J0.0034
X1.8492 Y6.1997 Z0.0945 I-0.0037 J-0.0034
X1.8566 Y6.2064 Z0.094 I0.0037 J0.0034
X1.8492 Y6.1997 Z0.0934 I-0.0037 J-0.0034
X1.8566 Y6.2064 Z0.0929 I0.0037 J0.0034
X1.8492 Y6.1997 Z0.0923 I-0.0037 J-0.0034
X1.8566 Y6.2064 Z0.0918 I0.0037 J0.0034
X1.8492 Y6.1997 Z0.0912 I-0.0037 J-0.0034
X1.8566 Y6.2064 Z0.0907 I0.0037 J0.0034
X1.8492 Y6.1997 Z0.0901 I-0.0037 J-0.0034
X1.8566 Y6.2064 Z0.0896 I0.0037 J0.0034
X1.8492 Y6.1997 Z0.089 I-0.0037 J-0.0034
X1.8566 Y6.2064 Z0.0885 I0.0037 J0.0034
X1.8492 Y6.1997 Z0.0879 I-0.0037 J-0.0034
X1.8566 Y6.2064 Z0.0874 I0.0037 J0.0034
X1.8492 Y6.1997 Z0.0868 I-0.0037 J-0.0034
X1.8566 Y6.2064 Z0.0863 I0.0037 J0.0034
X1.8492 Y6.1997 Z0.0857 I-0.0037 J-0.0034
X1.8566 Y6.2064 Z0.0852 I0.0037 J0.0034
X1.8492 Y6.1997 Z0.0846 I-0.0037 J-0.0034
X1.8566 Y6.2064 Z0.0841 I0.0037 J0.0034
X1.8492 Y6.1997 Z0.0835 I-0.0037 J-0.0034
X1.8566 Y6.2064 Z0.083 I0.0037 J0.0034
X1.8492 Y6.1997 Z0.0824 I-0.0037 J-0.0034
X1.8566 Y6.2064 Z0.0819 I0.0037 J0.0034
X1.8492 Y6.1997 Z0.0813 I-0.0037 J-0.0034
X1.8566 Y6.2064 Z0.0808 I0.0037 J0.0034
X1.8492 Y6.1997 Z0.0803 I-0.0037 J-0.0034
X1.8566 Y6.2064 Z0.0797 I0.0037 J0.0034
X1.8492 Y6.1997 Z0.0792 I-0.0037 J-0.0034
X1.8566 Y6.2064 Z0.0786 I0.0037 J0.0034
X1.8492 Y6.1997 Z0.0781 I-0.0037 J-0.0034
X1.8566 Y6.2064 Z0.0775 I0.0037 J0.0034
X1.8492 Y6.1997 Z0.077 I-0.0037 J-0.0034
X1.8566 Y6.2064 Z0.0764 I0.0037 J0.0034
X1.8492 Y6.1997 Z0.0759 I-0.0037 J-0.0034
X1.8566 Y6.2064 Z0.0753 I0.0037 J0.0034
X1.8492 Y6.1997 Z0.0748 I-0.0037 J-0.0034
X1.8566 Y6.2064 Z0.0742 I0.0037 J0.0034
X1.8492 Y6.1997 Z0.0737 I-0.0037 J-0.0034
X1.8566 Y6.2064 Z0.0731 I0.0037 J0.0034
X1.8492 Y6.1997 Z0.0726 I-0.0037 J-0.0034
X1.8566 Y6.2064 Z0.072 I0.0037 J0.0034
X1.8492 Y6.1997 Z0.0715 I-0.0037 J-0.0034
X1.8566 Y6.2064 Z0.0709 I0.0037 J0.0034
X1.8492 Y6.1997 Z0.0704 I-0.0037 J-0.0034
X1.8566 Y6.2064 Z0.0698 I0.0037 J0.0034
X1.8492 Y6.1997 Z0.0693 I-0.0037 J-0.0034
X1.8566 Y6.2064 Z0.0687 I0.0037 J0.0034
X1.8492 Y6.1997 Z0.0682 I-0.0037 J-0.0034
X1.8566 Y6.2064 Z0.0676 I0.0037 J0.0034
X1.8492 Y6.1997 Z0.0671 I-0.0037 J-0.0034
X1.8566 Y6.2064 Z0.0665 I0.0037 J0.0034
X1.8492 Y6.1997 Z0.066 I-0.0037 J-0.0034
X1.8566 Y6.2064 Z0.0654 I0.0037 J0.0034
X1.8492 Y6.1997 Z0.0649 I-0.0037 J-0.0034
X1.8566 Y6.2064 Z0.0643 I0.0037 J0.0034
X1.8492 Y6.1997 Z0.0638 I-0.0037 J-0.0034
X1.8566 Y6.2064 Z0.0632 I0.0037 J0.0034
X1.8492 Y6.1997 Z0.0627 I-0.0037 J-0.0034
X1.8566 Y6.2064 Z0.0622 I0.0037 J0.0034
X1.8492 Y6.1997 Z0.0616 I-0.0037 J-0.0034
X1.8566 Y6.2064 Z0.0611 I0.0037 J0.0034
X1.8492 Y6.1997 Z0.0605 I-0.0037 J-0.0034
X1.8566 Y6.2064 Z0.06 I0.0037 J0.0034
X1.8492 Y6.1997 Z0.0594 I-0.0037 J-0.0034
X1.8566 Y6.2064 Z0.0589 I0.0037 J0.0034
X1.8492 Y6.1997 Z0.0583 I-0.0037 J-0.0034
X1.8566 Y6.2064 Z0.0578 I0.0037 J0.0034
X1.8492 Y6.1997 Z0.0572 I-0.0037 J-0.0034
X1.8566 Y6.2064 Z0.0567 I0.0037 J0.0034
X1.8492 Y6.1997 Z0.0561 I-0.0037 J-0.0034
X1.8566 Y6.2064 Z0.0556 I0.0037 J0.0034
X1.8492 Y6.1997 Z0.055 I-0.0037 J-0.0034
X1.8566 Y6.2064 Z0.0545 I0.0037 J0.0034
X1.8492 Y6.1997 Z0.0539 I-0.0037 J-0.0034
X1.8566 Y6.2064 Z0.0534 I0.0037 J0.0034
X1.8492 Y6.1997 Z0.0528 I-0.0037 J-0.0034
X1.8566 Y6.2064 Z0.0523 I0.0037 J0.0034
X1.8492 Y6.1997 Z0.0517 I-0.0037 J-0.0034
X1.8566 Y6.2064 Z0.0512 I0.0037 J0.0034
X1.8492 Y6.1997 Z0.0506 I-0.0037 J-0.0034
X1.8566 Y6.2064 Z0.0501 I0.0037 J0.0034
X1.8492 Y6.1997 Z0.0495 I-0.0037 J-0.0034
X1.8566 Y6.2064 Z0.049 I0.0037 J0.0034
X1.8492 Y6.1997 Z0.0484 I-0.0037 J-0.0034
X1.8566 Y6.2064 Z0.0479 I0.0037 J0.0034
X1.8492 Y6.1997 Z0.0473 I-0.0037 J-0.0034
X1.8566 Y6.2064 Z0.0468 I0.0037 J0.0034
X1.8492 Y6.1997 Z0.0462 I-0.0037 J-0.0034
X1.8566 Y6.2064 Z0.0457 I0.0037 J0.0034
X1.8492 Y6.1997 Z0.0451 I-0.0037 J-0.0034
X1.8566 Y6.2064 Z0.0446 I0.0037 J0.0034
X1.8492 Y6.1997 Z0.044 I-0.0037 J-0.0034
X1.8566 Y6.2064 Z0.0435 I0.0037 J0.0034
X1.8492 Y6.1997 Z0.043 I-0.0037 J-0.0034
X1.8566 Y6.2064 Z0.0424 I0.0037 J0.0034
X1.8492 Y6.1997 Z0.0419 I-0.0037 J-0.0034
X1.8566 Y6.2064 Z0.0413 I0.0037 J0.0034
X1.8492 Y6.1997 Z0.0408 I-0.0037 J-0.0034
X1.8566 Y6.2064 Z0.0402 I0.0037 J0.0034
X1.8492 Y6.1997 Z0.0397 I-0.0037 J-0.0034
X1.8566 Y6.2064 Z0.0391 I0.0037 J0.0034
X1.8492 Y6.1997 Z0.0386 I-0.0037 J-0.0034
X1.8566 Y6.2064 Z0.038 I0.0037 J0.0034
X1.8492 Y6.1997 Z0.0375 I-0.0037 J-0.0034
X1.8566 Y6.2064 Z0.0369 I0.0037 J0.0034
X1.8492 Y6.1997 Z0.0364 I-0.0037 J-0.0034
X1.8566 Y6.2064 Z0.0358 I0.0037 J0.0034
X1.8492 Y6.1997 Z0.0353 I-0.0037 J-0.0034
X1.8566 Y6.2064 Z0.0347 I0.0037 J0.0034
X1.8492 Y6.1997 Z0.0342 I-0.0037 J-0.0034
X1.8566 Y6.2064 Z0.0336 I0.0037 J0.0034
X1.8492 Y6.1997 Z0.0331 I-0.0037 J-0.0034
X1.8566 Y6.2064 Z0.0325 I0.0037 J0.0034
X1.8492 Y6.1997 Z0.032 I-0.0037 J-0.0034
X1.8566 Y6.2064 Z0.0314 I0.0037 J0.0034
X1.8492 Y6.1997 Z0.0309 I-0.0037 J-0.0034
X1.8566 Y6.2064 Z0.0303 I0.0037 J0.0034
X1.8492 Y6.1997 Z0.0298 I-0.0037 J-0.0034
X1.8566 Y6.2064 Z0.0292 I0.0037 J0.0034
X1.8492 Y6.1997 Z0.0287 I-0.0037 J-0.0034
X1.8566 Y6.2064 Z0.0281 I0.0037 J0.0034
X1.8492 Y6.1997 Z0.0276 I-0.0037 J-0.0034
X1.8566 Y6.2064 Z0.027 I0.0037 J0.0034
X1.8492 Y6.1997 Z0.0265 I-0.0037 J-0.0034
X1.8566 Y6.2064 Z0.0259 I0.0037 J0.0034
X1.8492 Y6.1997 Z0.0254 I-0.0037 J-0.0034
X1.8566 Y6.2064 Z0.0249 I0.0037 J0.0034
X1.8492 Y6.1997 Z0.0243 I-0.0037 J-0.0034
X1.8566 Y6.2064 Z0.0238 I0.0037 J0.0034
X1.8492 Y6.1997 Z0.0232 I-0.0037 J-0.0034
X1.8566 Y6.2064 Z0.0227 I0.0037 J0.0034
X1.8492 Y6.1997 Z0.0221 I-0.0037 J-0.0034
X1.8566 Y6.2064 Z0.0216 I0.0037 J0.0034
X1.8492 Y6.1997 Z0.021 I-0.0037 J-0.0034
X1.8566 Y6.2064 Z0.0205 I0.0037 J0.0034
X1.8492 Y6.1997 Z0.0199 I-0.0037 J-0.0034
X1.8566 Y6.2064 Z0.0194 I0.0037 J0.0034
X1.8492 Y6.1997 Z0.0188 I-0.0037 J-0.0034
X1.8566 Y6.2064 Z0.0183 I0.0037 J0.0034
X1.8492 Y6.1997 Z0.0177 I-0.0037 J-0.0034
X1.8566 Y6.2064 Z0.0172 I0.0037 J0.0034
X1.8492 Y6.1997 Z0.0166 I-0.0037 J-0.0034
X1.8566 Y6.2064 Z0.0161 I0.0037 J0.0034
X1.8492 Y6.1997 Z0.0155 I-0.0037 J-0.0034
X1.8566 Y6.2064 Z0.015 I0.0037 J0.0034
X1.8492 Y6.1997 Z0.0144 I-0.0037 J-0.0034
X1.8566 Y6.2064 Z0.0139 I0.0037 J0.0034
X1.8492 Y6.1997 Z0.0133 I-0.0037 J-0.0034
X1.8566 Y6.2064 Z0.0128 I0.0037 J0.0034
X1.8492 Y6.1997 Z0.0122 I-0.0037 J-0.0034
X1.8566 Y6.2064 Z0.0117 I0.0037 J0.0034
X1.8492 Y6.1997 Z0.0111 I-0.0037 J-0.0034
X1.8566 Y6.2064 Z0.0106 I0.0037 J0.0034
X1.8492 Y6.1997 Z0.01 I-0.0037 J-0.0034
X1.8566 Y6.2064 Z0.0095 I0.0037 J0.0034
X1.8492 Y6.1997 Z0.0089 I-0.0037 J-0.0034
X1.8566 Y6.2064 Z0.0084 I0.0037 J0.0034
X1.8492 Y6.1997 Z0.0078 I-0.0037 J-0.0034
X1.8566 Y6.2064 Z0.0073 I0.0037 J0.0034
X1.8492 Y6.1997 Z0.0067 I-0.0037 J-0.0034
X1.8566 Y6.2064 Z0.0062 I0.0037 J0.0034
X1.8492 Y6.1997 Z0.0057 I-0.0037 J-0.0034
X1.8566 Y6.2064 Z0.0051 I0.0037 J0.0034
X1.8492 Y6.1997 Z0.0046 I-0.0037 J-0.0034
X1.8566 Y6.2064 Z0.004 I0.0037 J0.0034
X1.8492 Y6.1997 Z0.0035 I-0.0037 J-0.0034
X1.8566 Y6.2064 Z0.0029 I0.0037 J0.0034
X1.8492 Y6.1997 Z0.0024 I-0.0037 J-0.0034
X1.8566 Y6.2064 Z0.0018 I0.0037 J0.0034
X1.8492 Y6.1997 Z0.0013 I-0.0037 J-0.0034
X1.8566 Y6.2064 Z0.0007 I0.0037 J0.0034
X1.8492 Y6.1997 Z0.0002 I-0.0037 J-0.0034
X1.8566 Y6.2064 Z-0.0004 I0.0037 J0.0034
X1.8492 Y6.1997 Z-0.0009 I-0.0037 J-0.0034
X1.8566 Y6.2064 Z-0.0015 I0.0037 J0.0034
X1.8492 Y6.1997 Z-0.002 I-0.0037 J-0.0034
X1.8566 Y6.2064 Z-0.0026 I0.0037 J0.0034
X1.8492 Y6.1997 Z-0.0031 I-0.0037 J-0.0034
X1.8566 Y6.2064 Z-0.0037 I0.0037 J0.0034
X1.8492 Y6.1997 Z-0.0042 I-0.0037 J-0.0034
X1.8566 Y6.2064 Z-0.0048 I0.0037 J0.0034
X1.8492 Y6.1997 Z-0.0053 I-0.0037 J-0.0034
X1.8566 Y6.2064 Z-0.0059 I0.0037 J0.0034
X1.8492 Y6.1997 Z-0.0064 I-0.0037 J-0.0034
X1.8566 Y6.2064 Z-0.007 I0.0037 J0.0034
X1.8492 Y6.1997 Z-0.0075 I-0.0037 J-0.0034
X1.8566 Y6.2064 Z-0.0081 I0.0037 J0.0034
X1.8492 Y6.1997 Z-0.0086 I-0.0037 J-0.0034
X1.8566 Y6.2064 Z-0.0092 I0.0037 J0.0034
X1.8492 Y6.1997 Z-0.0097 I-0.0037 J-0.0034
X1.8566 Y6.2064 Z-0.0103 I0.0037 J0.0034
X1.8492 Y6.1997 Z-0.0108 I-0.0037 J-0.0034
X1.8566 Y6.2064 Z-0.0114 I0.0037 J0.0034
X1.8492 Y6.1997 Z-0.0119 I-0.0037 J-0.0034
X1.8566 Y6.2064 Z-0.0124 I0.0037 J0.0034
X1.8492 Y6.1997 Z-0.013 I-0.0037 J-0.0034
X1.8566 Y6.2064 Z-0.0135 I0.0037 J0.0034
X1.8492 Y6.1997 Z-0.0141 I-0.0037 J-0.0034
X1.8566 Y6.2064 Z-0.0146 I0.0037 J0.0034
X1.8492 Y6.1997 Z-0.0152 I-0.0037 J-0.0034
X1.8566 Y6.2064 Z-0.0157 I0.0037 J0.0034
X1.8492 Y6.1997 Z-0.0163 I-0.0037 J-0.0034
X1.8566 Y6.2064 Z-0.0168 I0.0037 J0.0034
X1.8492 Y6.1997 Z-0.0174 I-0.0037 J-0.0034
X1.8566 Y6.2064 Z-0.0179 I0.0037 J0.0034
X1.8492 Y6.1997 Z-0.0185 I-0.0037 J-0.0034
X1.8566 Y6.2064 Z-0.019 I0.0037 J0.0034
X1.8492 Y6.1997 Z-0.0196 I-0.0037 J-0.0034
X1.8579 Y6.2031 Z-0.02 I0.0037 J0.0034
X1.7547 I-0.0516 J0. F30.
X1.97 I0.1077 J0.
X1.6426 I-0.1637 J0.
X2.0821 I0.2197 J0.
X1.5305 I-0.2758 J0.
X2.1942 I0.3318 J0.
X1.4184 I-0.3879 J0.
X2.3063 I0.4439 J0.
X1.3063 I-0.5 J0.
X2.3063 I0.5 J0.
G1 X2.3061 Y6.2046
X2.3054 Y6.2061
X2.3045 Y6.2073
X2.3032 Y6.2082
X2.3018 Y6.2088
X1.9832 Y6.286
X1.9818 Y6.2866
X1.9802 Y6.2868
X1.9787 Y6.2865
X1.9773 Y6.2859
X1.8497 Y6.209
G3 X1.8535 Y6.1981 I0.003 J-0.0051
X1.8522 Y6.208 Z-0.0205 I-0.0006 J0.005 F20.
X1.8535 Y6.1981 Z-0.0211 I0.0006 J-0.005
X1.8522 Y6.208 Z-0.0216 I-0.0006 J0.005
X1.8535 Y6.1981 Z-0.0222 I0.0006 J-0.005
X1.8522 Y6.208 Z-0.0227 I-0.0006 J0.005
X1.8535 Y6.1981 Z-0.0233 I0.0006 J-0.005
X1.8522 Y6.208 Z-0.0238 I-0.0006 J0.005
X1.8535 Y6.1981 Z-0.0244 I0.0006 J-0.005
X1.8522 Y6.208 Z-0.0249 I-0.0006 J0.005
X1.8535 Y6.1981 Z-0.0255 I0.0006 J-0.005
X1.8522 Y6.208 Z-0.026 I-0.0006 J0.005
X1.8535 Y6.1981 Z-0.0266 I0.0006 J-0.005
X1.8522 Y6.208 Z-0.0271 I-0.0006 J0.005
X1.8535 Y6.1981 Z-0.0277 I0.0006 J-0.005
X1.8522 Y6.208 Z-0.0282 I-0.0006 J0.005
X1.8535 Y6.1981 Z-0.0288 I0.0006 J-0.005
X1.8522 Y6.208 Z-0.0293 I-0.0006 J0.005
X1.8535 Y6.1981 Z-0.0299 I0.0006 J-0.005
X1.8522 Y6.208 Z-0.0304 I-0.0006 J0.005
X1.8535 Y6.1981 Z-0.031 I0.0006 J-0.005
X1.8522 Y6.208 Z-0.0315 I-0.0006 J0.005
X1.8535 Y6.1981 Z-0.0321 I0.0006 J-0.005
X1.8522 Y6.208 Z-0.0326 I-0.0006 J0.005
X1.8535 Y6.1981 Z-0.0332 I0.0006 J-0.005
X1.8522 Y6.208 Z-0.0337 I-0.0006 J0.005
X1.8535 Y6.1981 Z-0.0343 I0.0006 J-0.005
X1.8522 Y6.208 Z-0.0348 I-0.0006 J0.005
X1.8535 Y6.1981 Z-0.0354 I0.0006 J-0.005
X1.8522 Y6.208 Z-0.0359 I-0.0006 J0.005
X1.8535 Y6.1981 Z-0.0365 I0.0006 J-0.005
X1.8522 Y6.208 Z-0.037 I-0.0006 J0.005
X1.8535 Y6.1981 Z-0.0376 I0.0006 J-0.005
X1.8522 Y6.208 Z-0.0381 I-0.0006 J0.005
X1.8535 Y6.1981 Z-0.0387 I0.0006 J-0.005
X1.8522 Y6.208 Z-0.0392 I-0.0006 J0.005
X1.8535 Y6.1981 Z-0.0397 I0.0006 J-0.005
X1.8579 Y6.2031 Z-0.04 I-0.0006 J0.005
X1.7547 I-0.0516 J0. F30.
X1.97 I0.1077 J0.
X1.6426 I-0.1637 J0.
X2.0821 I0.2197 J0.
X1.5305 I-0.2758 J0.
X2.1942 I0.3318 J0.
X1.4184 I-0.3879 J0.
X2.3063 I0.4439 J0.
X1.3063 I-0.5 J0.
X2.3063 I0.5 J0.
G1 X2.3061 Y6.2046
X2.3054 Y6.2061
X2.3045 Y6.2073
X2.3032 Y6.2082
X2.3018 Y6.2088
X1.9832 Y6.286
X1.9818 Y6.2866
X1.9802 Y6.2868
X1.9787 Y6.2865
X1.9773 Y6.2859
X1.8497 Y6.209
G3 X1.8535 Y6.1981 I0.003 J-0.0051
X1.8522 Y6.208 Z-0.0405 I-0.0006 J0.005 F20.
X1.8535 Y6.1981 Z-0.0411 I0.0006 J-0.005
X1.8522 Y6.208 Z-0.0416 I-0.0006 J0.005
X1.8535 Y6.1981 Z-0.0422 I0.0006 J-0.005
X1.8522 Y6.208 Z-0.0427 I-0.0006 J0.005
X1.8535 Y6.1981 Z-0.0433 I0.0006 J-0.005
X1.8522 Y6.208 Z-0.0438 I-0.0006 J0.005
X1.8535 Y6.1981 Z-0.0444 I0.0006 J-0.005
X1.8522 Y6.208 Z-0.0449 I-0.0006 J0.005
X1.8535 Y6.1981 Z-0.0455 I0.0006 J-0.005
X1.8522 Y6.208 Z-0.046 I-0.0006 J0.005
X1.8535 Y6.1981 Z-0.0466 I0.0006 J-0.005
X1.8522 Y6.208 Z-0.0471 I-0.0006 J0.005
X1.8535 Y6.1981 Z-0.0477 I0.0006 J-0.005
X1.8522 Y6.208 Z-0.0482 I-0.0006 J0.005
X1.8535 Y6.1981 Z-0.0488 I0.0006 J-0.005
X1.8522 Y6.208 Z-0.0493 I-0.0006 J0.005
X1.8535 Y6.1981 Z-0.0499 I0.0006 J-0.005
X1.8522 Y6.208 Z-0.0504 I-0.0006 J0.005
X1.8535 Y6.1981 Z-0.051 I0.0006 J-0.005
X1.8522 Y6.208 Z-0.0515 I-0.0006 J0.005
X1.8535 Y6.1981 Z-0.0521 I0.0006 J-0.005
X1.8522 Y6.208 Z-0.0526 I-0.0006 J0.005
X1.8535 Y6.1981 Z-0.0532 I0.0006 J-0.005
X1.8522 Y6.208 Z-0.0537 I-0.0006 J0.005
X1.8535 Y6.1981 Z-0.0543 I0.0006 J-0.005
X1.8522 Y6.208 Z-0.0548 I-0.0006 J0.005
X1.8535 Y6.1981 Z-0.0554 I0.0006 J-0.005
X1.8522 Y6.208 Z-0.0559 I-0.0006 J0.005
X1.8535 Y6.1981 Z-0.0565 I0.0006 J-0.005
X1.8522 Y6.208 Z-0.057 I-0.0006 J0.005
X1.8535 Y6.1981 Z-0.0576 I0.0006 J-0.005
X1.8522 Y6.208 Z-0.0581 I-0.0006 J0.005
X1.8535 Y6.1981 Z-0.0587 I0.0006 J-0.005
X1.8522 Y6.208 Z-0.0592 I-0.0006 J0.005
X1.8535 Y6.1981 Z-0.0597 I0.0006 J-0.005
X1.8579 Y6.2031 Z-0.06 I-0.0006 J0.005
X1.7547 I-0.0516 J0. F30.
X1.97 I0.1077 J0.
X1.6426 I-0.1637 J0.
X2.0821 I0.2197 J0.
X1.5305 I-0.2758 J0.
X2.1942 I0.3318 J0.
X1.4184 I-0.3879 J0.
X2.3063 I0.4439 J0.
X1.3063 I-0.5 J0.
X2.3063 I0.5 J0.
G1 X2.3061 Y6.2046
X2.3054 Y6.2061
X2.3045 Y6.2073
X2.3032 Y6.2082
X2.3018 Y6.2088
X1.9832 Y6.286
X1.9818 Y6.2866
X1.9802 Y6.2868
X1.9787 Y6.2865
X1.9773 Y6.2859
X1.8497 Y6.209
G3 X1.8535 Y6.1981 I0.003 J-0.0051
X1.8522 Y6.208 Z-0.0605 I-0.0006 J0.005 F20.
X1.8535 Y6.1981 Z-0.0611 I0.0006 J-0.005
X1.8522 Y6.208 Z-0.0616 I-0.0006 J0.005
X1.8535 Y6.1981 Z-0.0622 I0.0006 J-0.005
X1.8522 Y6.208 Z-0.0627 I-0.0006 J0.005
X1.8535 Y6.1981 Z-0.0633 I0.0006 J-0.005
X1.8522 Y6.208 Z-0.0638 I-0.0006 J0.005
X1.8535 Y6.1981 Z-0.0644 I0.0006 J-0.005
X1.8522 Y6.208 Z-0.0649 I-0.0006 J0.005
X1.8535 Y6.1981 Z-0.0655 I0.0006 J-0.005
X1.8522 Y6.208 Z-0.066 I-0.0006 J0.005
X1.8535 Y6.1981 Z-0.0666 I0.0006 J-0.005
X1.8522 Y6.208 Z-0.0671 I-0.0006 J0.005
X1.8535 Y6.1981 Z-0.0677 I0.0006 J-0.005
X1.8522 Y6.208 Z-0.0682 I-0.0006 J0.005
X1.8535 Y6.1981 Z-0.0688 I0.0006 J-0.005
X1.8522 Y6.208 Z-0.0693 I-0.0006 J0.005
X1.8535 Y6.1981 Z-0.0699 I0.0006 J-0.005
X1.8522 Y6.208 Z-0.0704 I-0.0006 J0.005
X1.8535 Y6.1981 Z-0.071 I0.0006 J-0.005
X1.8522 Y6.208 Z-0.0715 I-0.0006 J0.005
X1.8535 Y6.1981 Z-0.0721 I0.0006 J-0.005
X1.8522 Y6.208 Z-0.0726 I-0.0006 J0.005
X1.8535 Y6.1981 Z-0.0732 I0.0006 J-0.005
X1.8522 Y6.208 Z-0.0737 I-0.0006 J0.005
X1.8535 Y6.1981 Z-0.0743 I0.0006 J-0.005
X1.8522 Y6.208 Z-0.0748 I-0.0006 J0.005
X1.8535 Y6.1981 Z-0.0754 I0.0006 J-0.005
X1.8522 Y6.208 Z-0.0759 I-0.0006 J0.005
X1.8535 Y6.1981 Z-0.0765 I0.0006 J-0.005
X1.8522 Y6.208 Z-0.077 I-0.0006 J0.005
X1.8535 Y6.1981 Z-0.0776 I0.0006 J-0.005
X1.8522 Y6.208 Z-0.0781 I-0.0006 J0.005
X1.8535 Y6.1981 Z-0.0787 I0.0006 J-0.005
X1.8522 Y6.208 Z-0.0792 I-0.0006 J0.005
X1.8535 Y6.1981 Z-0.0797 I0.0006 J-0.005
X1.8579 Y6.2031 Z-0.08 I-0.0006 J0.005
X1.7547 I-0.0516 J0. F30.
X1.97 I0.1077 J0.
X1.6426 I-0.1637 J0.
X2.0821 I0.2197 J0.
X1.5305 I-0.2758 J0.
X2.1942 I0.3318 J0.
X1.4184 I-0.3879 J0.
X2.3063 I0.4439 J0.
X1.3063 I-0.5 J0.
X2.3063 I0.5 J0.
G1 X2.3061 Y6.2046
X2.3054 Y6.2061
X2.3045 Y6.2073
X2.3032 Y6.2082
X2.3018 Y6.2088
X1.9832 Y6.286
X1.9818 Y6.2866
X1.9802 Y6.2868
X1.9787 Y6.2865
X1.9773 Y6.2859
X1.8497 Y6.209
G3 X1.8535 Y6.1981 I0.003 J-0.0051
X1.8522 Y6.208 Z-0.0805 I-0.0006 J0.005 F20.
X1.8535 Y6.1981 Z-0.0811 I0.0006 J-0.005
X1.8522 Y6.208 Z-0.0816 I-0.0006 J0.005
X1.8535 Y6.1981 Z-0.0822 I0.0006 J-0.005
X1.8522 Y6.208 Z-0.0827 I-0.0006 J0.005
X1.8535 Y6.1981 Z-0.0833 I0.0006 J-0.005
X1.8522 Y6.208 Z-0.0838 I-0.0006 J0.005
X1.8535 Y6.1981 Z-0.0844 I0.0006 J-0.005
X1.8522 Y6.208 Z-0.0849 I-0.0006 J0.005
X1.8535 Y6.1981 Z-0.0855 I0.0006 J-0.005
X1.8522 Y6.208 Z-0.086 I-0.0006 J0.005
X1.8535 Y6.1981 Z-0.0866 I0.0006 J-0.005
X1.8522 Y6.208 Z-0.0871 I-0.0006 J0.005
X1.8535 Y6.1981 Z-0.0877 I0.0006 J-0.005
X1.8522 Y6.208 Z-0.0882 I-0.0006 J0.005
X1.8535 Y6.1981 Z-0.0888 I0.0006 J-0.005
X1.8522 Y6.208 Z-0.0893 I-0.0006 J0.005
X1.8535 Y6.1981 Z-0.0899 I0.0006 J-0.005
X1.8522 Y6.208 Z-0.0904 I-0.0006 J0.005
X1.8535 Y6.1981 Z-0.091 I0.0006 J-0.005
X1.8522 Y6.208 Z-0.0915 I-0.0006 J0.005
X1.8535 Y6.1981 Z-0.0921 I0.0006 J-0.005
X1.8522 Y6.208 Z-0.0926 I-0.0006 J0.005
X1.8535 Y6.1981 Z-0.0932 I0.0006 J-0.005
X1.8522 Y6.208 Z-0.0937 I-0.0006 J0.005
X1.8535 Y6.1981 Z-0.0943 I0.0006 J-0.005
X1.8522 Y6.208 Z-0.0948 I-0.0006 J0.005
X1.8535 Y6.1981 Z-0.0954 I0.0006 J-0.005
X1.8522 Y6.208 Z-0.0959 I-0.0006 J0.005
X1.8535 Y6.1981 Z-0.0965 I0.0006 J-0.005
X1.8522 Y6.208 Z-0.097 I-0.0006 J0.005
X1.8535 Y6.1981 Z-0.0976 I0.0006 J-0.005
X1.8522 Y6.208 Z-0.0981 I-0.0006 J0.005
X1.8535 Y6.1981 Z-0.0987 I0.0006 J-0.005
X1.8522 Y6.208 Z-0.0992 I-0.0006 J0.005
X1.8535 Y6.1981 Z-0.0997 I0.0006 J-0.005
X1.8579 Y6.2031 Z-0.1 I-0.0006 J0.005
X1.7547 I-0.0516 J0. F30.
X1.97 I0.1077 J0.
X1.6426 I-0.1637 J0.
X2.0821 I0.2197 J0.
X1.5305 I-0.2758 J0.
X2.1942 I0.3318 J0.
X1.4184 I-0.3879 J0.
X2.3063 I0.4439 J0.
X1.3063 I-0.5 J0.
X2.3063 I0.5 J0.
G1 X2.3061 Y6.2046
X2.3054 Y6.2061
X2.3045 Y6.2073
X2.3032 Y6.2082
X2.3018 Y6.2088
X1.9832 Y6.286
X1.9818 Y6.2866
X1.9802 Y6.2868
X1.9787 Y6.2865
X1.9773 Y6.2859
X1.8497 Y6.209
G3 X1.8535 Y6.1981 I0.003 J-0.0051
X1.8522 Y6.208 Z-0.1005 I-0.0006 J0.005 F20.
X1.8535 Y6.1981 Z-0.1011 I0.0006 J-0.005
X1.8522 Y6.208 Z-0.1016 I-0.0006 J0.005
X1.8535 Y6.1981 Z-0.1022 I0.0006 J-0.005
X1.8522 Y6.208 Z-0.1027 I-0.0006 J0.005
X1.8535 Y6.1981 Z-0.1033 I0.0006 J-0.005
X1.8522 Y6.208 Z-0.1038 I-0.0006 J0.005
X1.8535 Y6.1981 Z-0.1044 I0.0006 J-0.005
X1.8522 Y6.208 Z-0.1049 I-0.0006 J0.005
X1.8535 Y6.1981 Z-0.1055 I0.0006 J-0.005
X1.8522 Y6.208 Z-0.106 I-0.0006 J0.005
X1.8535 Y6.1981 Z-0.1066 I0.0006 J-0.005
X1.8522 Y6.208 Z-0.1071 I-0.0006 J0.005
X1.8535 Y6.1981 Z-0.1077 I0.0006 J-0.005
X1.8522 Y6.208 Z-0.1082 I-0.0006 J0.005
X1.8535 Y6.1981 Z-0.1088 I0.0006 J-0.005
X1.8522 Y6.208 Z-0.1093 I-0.0006 J0.005
X1.8535 Y6.1981 Z-0.1099 I0.0006 J-0.005
X1.8522 Y6.208 Z-0.1104 I-0.0006 J0.005
X1.8535 Y6.1981 Z-0.111 I0.0006 J-0.005
X1.8522 Y6.208 Z-0.1115 I-0.0006 J0.005
X1.8535 Y6.1981 Z-0.1121 I0.0006 J-0.005
X1.8522 Y6.208 Z-0.1126 I-0.0006 J0.005
X1.8535 Y6.1981 Z-0.1132 I0.0006 J-0.005
X1.8522 Y6.208 Z-0.1137 I-0.0006 J0.005
X1.8535 Y6.1981 Z-0.1143 I0.0006 J-0.005
X1.8522 Y6.208 Z-0.1148 I-0.0006 J0.005
X1.8535 Y6.1981 Z-0.1154 I0.0006 J-0.005
X1.8522 Y6.208 Z-0.1159 I-0.0006 J0.005
X1.8535 Y6.1981 Z-0.1165 I0.0006 J-0.005
X1.8522 Y6.208 Z-0.117 I-0.0006 J0.005
X1.8535 Y6.1981 Z-0.1176 I0.0006 J-0.005
X1.8522 Y6.208 Z-0.1181 I-0.0006 J0.005
X1.8535 Y6.1981 Z-0.1187 I0.0006 J-0.005
X1.8522 Y6.208 Z-0.1192 I-0.0006 J0.005
X1.8535 Y6.1981 Z-0.1197 I0.0006 J-0.005
X1.8579 Y6.2031 Z-0.12 I-0.0006 J0.005
X1.7547 I-0.0516 J0. F30.
X1.97 I0.1077 J0.
X1.6426 I-0.1637 J0.
X2.0821 I0.2197 J0.
X1.5305 I-0.2758 J0.
X2.1942 I0.3318 J0.
X1.4184 I-0.3879 J0.
X2.3063 I0.4439 J0.
X1.3063 I-0.5 J0.
X2.3063 I0.5 J0.
G1 X2.3061 Y6.2046
X2.3054 Y6.2061
X2.3045 Y6.2073
X2.3032 Y6.2082
X2.3018 Y6.2088
X1.9832 Y6.286
X1.9818 Y6.2866
X1.9802 Y6.2868
X1.9787 Y6.2865
X1.9773 Y6.2859
X1.8497 Y6.209
G3 X1.8535 Y6.1981 I0.003 J-0.0051
X1.8522 Y6.208 Z-0.1205 I-0.0006 J0.005 F20.
X1.8535 Y6.1981 Z-0.1211 I0.0006 J-0.005
X1.8522 Y6.208 Z-0.1216 I-0.0006 J0.005
X1.8535 Y6.1981 Z-0.1222 I0.0006 J-0.005
X1.8522 Y6.208 Z-0.1227 I-0.0006 J0.005
X1.8535 Y6.1981 Z-0.1233 I0.0006 J-0.005
X1.8522 Y6.208 Z-0.1238 I-0.0006 J0.005
X1.8535 Y6.1981 Z-0.1244 I0.0006 J-0.005
X1.8522 Y6.208 Z-0.1249 I-0.0006 J0.005
X1.8535 Y6.1981 Z-0.1255 I0.0006 J-0.005
X1.8522 Y6.208 Z-0.126 I-0.0006 J0.005
X1.8535 Y6.1981 Z-0.1266 I0.0006 J-0.005
X1.8522 Y6.208 Z-0.1271 I-0.0006 J0.005
X1.8535 Y6.1981 Z-0.1277 I0.0006 J-0.005
X1.8522 Y6.208 Z-0.1282 I-0.0006 J0.005
X1.8535 Y6.1981 Z-0.1288 I0.0006 J-0.005
X1.8522 Y6.208 Z-0.1293 I-0.0006 J0.005
X1.8535 Y6.1981 Z-0.1299 I0.0006 J-0.005
X1.8522 Y6.208 Z-0.1304 I-0.0006 J0.005
X1.8535 Y6.1981 Z-0.131 I0.0006 J-0.005
X1.8522 Y6.208 Z-0.1315 I-0.0006 J0.005
X1.8535 Y6.1981 Z-0.1321 I0.0006 J-0.005
X1.8522 Y6.208 Z-0.1326 I-0.0006 J0.005
X1.8535 Y6.1981 Z-0.1332 I0.0006 J-0.005
X1.8522 Y6.208 Z-0.1337 I-0.0006 J0.005
X1.8535 Y6.1981 Z-0.1343 I0.0006 J-0.005
X1.8522 Y6.208 Z-0.1348 I-0.0006 J0.005
X1.8535 Y6.1981 Z-0.1354 I0.0006 J-0.005
X1.8522 Y6.208 Z-0.1359 I-0.0006 J0.005
X1.8535 Y6.1981 Z-0.1365 I0.0006 J-0.005
X1.8522 Y6.208 Z-0.137 I-0.0006 J0.005
X1.8535 Y6.1981 Z-0.1376 I0.0006 J-0.005
X1.8522 Y6.208 Z-0.1381 I-0.0006 J0.005
X1.8535 Y6.1981 Z-0.1387 I0.0006 J-0.005
X1.8522 Y6.208 Z-0.1392 I-0.0006 J0.005
X1.8535 Y6.1981 Z-0.1397 I0.0006 J-0.005
X1.8579 Y6.2031 Z-0.14 I-0.0006 J0.005
X1.7547 I-0.0516 J0. F30.
X1.97 I0.1077 J0.
X1.6426 I-0.1637 J0.
X2.0821 I0.2197 J0.
X1.5305 I-0.2758 J0.
X2.1942 I0.3318 J0.
X1.4184 I-0.3879 J0.
X2.3063 I0.4439 J0.
X1.3063 I-0.5 J0.
X2.3063 I0.5 J0.
G1 X2.306 Y6.2053 Z-0.1396
X2.3054 Y6.2075 Z-0.1391
X2.3046 Y6.2092 Z-0.1378
X2.3034 Y6.2107 Z-0.1365
X2.3016 Y6.2125 Z-0.1327
X2.3008 Y6.213 Z-0.1282
G0 Z0.2
X2.5093 Y6.8802
G1 Z0.1118 F30.
X2.5092 Y6.881 Z0.1075 F20.
X2.5088 Y6.8821 Z0.1057
X2.5083 Y6.8831 Z0.1039
X2.5074 Y6.884 Z0.1029
X2.5063 Y6.8846 Z0.102
X2.5051 Y6.885 Z0.1011
X2.5036 Z0.1007
X2.5022 Y6.8846 Z0.1004
X2.5009 Y6.8838 Z0.1
G3 X2.5076 Y6.8764 Z0.0995 I0.0034 J-0.0037
X2.5009 Y6.8838 Z0.0989 I-0.0034 J0.0037
X2.5076 Y6.8764 Z0.0984 I0.0034 J-0.0037
X2.5009 Y6.8838 Z0.0978 I-0.0034 J0.0037
X2.5076 Y6.8764 Z0.0973 I0.0034 J-0.0037
X2.5009 Y6.8838 Z0.0967 I-0.0034 J0.0037
X2.5076 Y6.8764 Z0.0962 I0.0034 J-0.0037
X2.5009 Y6.8838 Z0.0956 I-0.0034 J0.0037
X2.5076 Y6.8764 Z0.0951 I0.0034 J-0.0037
X2.5009 Y6.8838 Z0.0945 I-0.0034 J0.0037
X2.5076 Y6.8764 Z0.094 I0.0034 J-0.0037
X2.5009 Y6.8838 Z0.0934 I-0.0034 J0.0037
X2.5076 Y6.8764 Z0.0929 I0.0034 J-0.0037
X2.5009 Y6.8838 Z0.0923 I-0.0034 J0.0037
X2.5076 Y6.8764 Z0.0918 I0.0034 J-0.0037
X2.5009 Y6.8838 Z0.0912 I-0.0034 J0.0037
X2.5076 Y6.8764 Z0.0907 I0.0034 J-0.0037
X2.5009 Y6.8838 Z0.0901 I-0.0034 J0.0037
X2.5076 Y6.8764 Z0.0896 I0.0034 J-0.0037
X2.5009 Y6.8838 Z0.089 I-0.0034 J0.0037
X2.5076 Y6.8764 Z0.0885 I0.0034 J-0.0037
X2.5009 Y6.8838 Z0.0879 I-0.0034 J0.0037
X2.5076 Y6.8764 Z0.0874 I0.0034 J-0.0037
X2.5009 Y6.8838 Z0.0868 I-0.0034 J0.0037
X2.5076 Y6.8764 Z0.0863 I0.0034 J-0.0037
X2.5009 Y6.8838 Z0.0857 I-0.0034 J0.0037
X2.5076 Y6.8764 Z0.0852 I0.0034 J-0.0037
X2.5009 Y6.8838 Z0.0846 I-0.0034 J0.0037
X2.5076 Y6.8764 Z0.0841 I0.0034 J-0.0037
X2.5009 Y6.8838 Z0.0835 I-0.0034 J0.0037
X2.5076 Y6.8764 Z0.083 I0.0034 J-0.0037
X2.5009 Y6.8838 Z0.0824 I-0.0034 J0.0037
X2.5076 Y6.8764 Z0.0819 I0.0034 J-0.0037
X2.5009 Y6.8838 Z0.0813 I-0.0034 J0.0037
X2.5076 Y6.8764 Z0.0808 I0.0034 J-0.0037
X2.5009 Y6.8838 Z0.0803 I-0.0034 J0.0037
X2.5076 Y6.8764 Z0.0797 I0.0034 J-0.0037
X2.5009 Y6.8838 Z0.0792 I-0.0034 J0.0037
X2.5076 Y6.8764 Z0.0786 I0.0034 J-0.0037
X2.5009 Y6.8838 Z0.0781 I-0.0034 J0.0037
X2.5076 Y6.8764 Z0.0775 I0.0034 J-0.0037
X2.5009 Y6.8838 Z0.077 I-0.0034 J0.0037
X2.5076 Y6.8764 Z0.0764 I0.0034 J-0.0037
X2.5009 Y6.8838 Z0.0759 I-0.0034 J0.0037
X2.5076 Y6.8764 Z0.0753 I0.0034 J-0.0037
X2.5009 Y6.8838 Z0.0748 I-0.0034 J0.0037
X2.5076 Y6.8764 Z0.0742 I0.0034 J-0.0037
X2.5009 Y6.8838 Z0.0737 I-0.0034 J0.0037
X2.5076 Y6.8764 Z0.0731 I0.0034 J-0.0037
X2.5009 Y6.8838 Z0.0726 I-0.0034 J0.0037
X2.5076 Y6.8764 Z0.072 I0.0034 J-0.0037
X2.5009 Y6.8838 Z0.0715 I-0.0034 J0.0037
X2.5076 Y6.8764 Z0.0709 I0.0034 J-0.0037
X2.5009 Y6.8838 Z0.0704 I-0.0034 J0.0037
X2.5076 Y6.8764 Z0.0698 I0.0034 J-0.0037
X2.5009 Y6.8838 Z0.0693 I-0.0034 J0.0037
X2.5076 Y6.8764 Z0.0687 I0.0034 J-0.0037
X2.5009 Y6.8838 Z0.0682 I-0.0034 J0.0037
X2.5076 Y6.8764 Z0.0676 I0.0034 J-0.0037
X2.5009 Y6.8838 Z0.0671 I-0.0034 J0.0037
X2.5076 Y6.8764 Z0.0665 I0.0034 J-0.0037
X2.5009 Y6.8838 Z0.066 I-0.0034 J0.0037
X2.5076 Y6.8764 Z0.0654 I0.0034 J-0.0037
X2.5009 Y6.8838 Z0.0649 I-0.0034 J0.0037
X2.5076 Y6.8764 Z0.0643 I0.0034 J-0.0037
X2.5009 Y6.8838 Z0.0638 I-0.0034 J0.0037
X2.5076 Y6.8764 Z0.0632 I0.0034 J-0.0037
X2.5009 Y6.8838 Z0.0627 I-0.0034 J0.0037
X2.5076 Y6.8764 Z0.0622 I0.0034 J-0.0037
X2.5009 Y6.8838 Z0.0616 I-0.0034 J0.0037
X2.5076 Y6.8764 Z0.0611 I0.0034 J-0.0037
X2.5009 Y6.8838 Z0.0605 I-0.0034 J0.0037
X2.5076 Y6.8764 Z0.06 I0.0034 J-0.0037
X2.5009 Y6.8838 Z0.0594 I-0.0034 J0.0037
X2.5076 Y6.8764 Z0.0589 I0.0034 J-0.0037
X2.5009 Y6.8838 Z0.0583 I-0.0034 J0.0037
X2.5076 Y6.8764 Z0.0578 I0.0034 J-0.0037
X2.5009 Y6.8838 Z0.0572 I-0.0034 J0.0037
X2.5076 Y6.8764 Z0.0567 I0.0034 J-0.0037
X2.5009 Y6.8838 Z0.0561 I-0.0034 J0.0037
X2.5076 Y6.8764 Z0.0556 I0.0034 J-0.0037
X2.5009 Y6.8838 Z0.055 I-0.0034 J0.0037
X2.5076 Y6.8764 Z0.0545 I0.0034 J-0.0037
X2.5009 Y6.8838 Z0.0539 I-0.0034 J0.0037
X2.5076 Y6.8764 Z0.0534 I0.0034 J-0.0037
X2.5009 Y6.8838 Z0.0528 I-0.0034 J0.0037
X2.5076 Y6.8764 Z0.0523 I0.0034 J-0.0037
X2.5009 Y6.8838 Z0.0517 I-0.0034 J0.0037
X2.5076 Y6.8764 Z0.0512 I0.0034 J-0.0037
X2.5009 Y6.8838 Z0.0506 I-0.0034 J0.0037
X2.5076 Y6.8764 Z0.0501 I0.0034 J-0.0037
X2.5009 Y6.8838 Z0.0495 I-0.0034 J0.0037
X2.5076 Y6.8764 Z0.049 I0.0034 J-0.0037
X2.5009 Y6.8838 Z0.0484 I-0.0034 J0.0037
X2.5076 Y6.8764 Z0.0479 I0.0034 J-0.0037
X2.5009 Y6.8838 Z0.0473 I-0.0034 J0.0037
X2.5076 Y6.8764 Z0.0468 I0.0034 J-0.0037
X2.5009 Y6.8838 Z0.0462 I-0.0034 J0.0037
X2.5076 Y6.8764 Z0.0457 I0.0034 J-0.0037
X2.5009 Y6.8838 Z0.0451 I-0.0034 J0.0037
X2.5076 Y6.8764 Z0.0446 I0.0034 J-0.0037
X2.5009 Y6.8838 Z0.044 I-0.0034 J0.0037
X2.5076 Y6.8764 Z0.0435 I0.0034 J-0.0037
X2.5009 Y6.8838 Z0.043 I-0.0034 J0.0037
X2.5076 Y6.8764 Z0.0424 I0.0034 J-0.0037
X2.5009 Y6.8838 Z0.0419 I-0.0034 J0.0037
X2.5076 Y6.8764 Z0.0413 I0.0034 J-0.0037
X2.5009 Y6.8838 Z0.0408 I-0.0034 J0.0037
X2.5076 Y6.8764 Z0.0402 I0.0034 J-0.0037
X2.5009 Y6.8838 Z0.0397 I-0.0034 J0.0037
X2.5076 Y6.8764 Z0.0391 I0.0034 J-0.0037
X2.5009 Y6.8838 Z0.0386 I-0.0034 J0.0037
X2.5076 Y6.8764 Z0.038 I0.0034 J-0.0037
X2.5009 Y6.8838 Z0.0375 I-0.0034 J0.0037
X2.5076 Y6.8764 Z0.0369 I0.0034 J-0.0037
X2.5009 Y6.8838 Z0.0364 I-0.0034 J0.0037
X2.5076 Y6.8764 Z0.0358 I0.0034 J-0.0037
X2.5009 Y6.8838 Z0.0353 I-0.0034 J0.0037
X2.5076 Y6.8764 Z0.0347 I0.0034 J-0.0037
X2.5009 Y6.8838 Z0.0342 I-0.0034 J0.0037
X2.5076 Y6.8764 Z0.0336 I0.0034 J-0.0037
X2.5009 Y6.8838 Z0.0331 I-0.0034 J0.0037
X2.5076 Y6.8764 Z0.0325 I0.0034 J-0.0037
X2.5009 Y6.8838 Z0.032 I-0.0034 J0.0037
X2.5076 Y6.8764 Z0.0314 I0.0034 J-0.0037
X2.5009 Y6.8838 Z0.0309 I-0.0034 J0.0037
X2.5076 Y6.8764 Z0.0303 I0.0034 J-0.0037
X2.5009 Y6.8838 Z0.0298 I-0.0034 J0.0037
X2.5076 Y6.8764 Z0.0292 I0.0034 J-0.0037
X2.5009 Y6.8838 Z0.0287 I-0.0034 J0.0037
X2.5076 Y6.8764 Z0.0281 I0.0034 J-0.0037
X2.5009 Y6.8838 Z0.0276 I-0.0034 J0.0037
X2.5076 Y6.8764 Z0.027 I0.0034 J-0.0037
X2.5009 Y6.8838 Z0.0265 I-0.0034 J0.0037
X2.5076 Y6.8764 Z0.0259 I0.0034 J-0.0037
X2.5009 Y6.8838 Z0.0254 I-0.0034 J0.0037
X2.5076 Y6.8764 Z0.0249 I0.0034 J-0.0037
X2.5009 Y6.8838 Z0.0243 I-0.0034 J0.0037
X2.5076 Y6.8764 Z0.0238 I0.0034 J-0.0037
X2.5009 Y6.8838 Z0.0232 I-0.0034 J0.0037
X2.5076 Y6.8764 Z0.0227 I0.0034 J-0.0037
X2.5009 Y6.8838 Z0.0221 I-0.0034 J0.0037
X2.5076 Y6.8764 Z0.0216 I0.0034 J-0.0037
X2.5009 Y6.8838 Z0.021 I-0.0034 J0.0037
X2.5076 Y6.8764 Z0.0205 I0.0034 J-0.0037
X2.5009 Y6.8838 Z0.0199 I-0.0034 J0.0037
X2.5076 Y6.8764 Z0.0194 I0.0034 J-0.0037
X2.5009 Y6.8838 Z0.0188 I-0.0034 J0.0037
X2.5076 Y6.8764 Z0.0183 I0.0034 J-0.0037
X2.5009 Y6.8838 Z0.0177 I-0.0034 J0.0037
X2.5076 Y6.8764 Z0.0172 I0.0034 J-0.0037
X2.5009 Y6.8838 Z0.0166 I-0.0034 J0.0037
X2.5076 Y6.8764 Z0.0161 I0.0034 J-0.0037
X2.5009 Y6.8838 Z0.0155 I-0.0034 J0.0037
X2.5076 Y6.8764 Z0.015 I0.0034 J-0.0037
X2.5009 Y6.8838 Z0.0144 I-0.0034 J0.0037
X2.5076 Y6.8764 Z0.0139 I0.0034 J-0.0037
X2.5009 Y6.8838 Z0.0133 I-0.0034 J0.0037
X2.5076 Y6.8764 Z0.0128 I0.0034 J-0.0037
X2.5009 Y6.8838 Z0.0122 I-0.0034 J0.0037
X2.5076 Y6.8764 Z0.0117 I0.0034 J-0.0037
X2.5009 Y6.8838 Z0.0111 I-0.0034 J0.0037
X2.5076 Y6.8764 Z0.0106 I0.0034 J-0.0037
X2.5009 Y6.8838 Z0.01 I-0.0034 J0.0037
X2.5076 Y6.8764 Z0.0095 I0.0034 J-0.0037
X2.5009 Y6.8838 Z0.0089 I-0.0034 J0.0037
X2.5076 Y6.8764 Z0.0084 I0.0034 J-0.0037
X2.5009 Y6.8838 Z0.0078 I-0.0034 J0.0037
X2.5076 Y6.8764 Z0.0073 I0.0034 J-0.0037
X2.5009 Y6.8838 Z0.0067 I-0.0034 J0.0037
X2.5076 Y6.8764 Z0.0062 I0.0034 J-0.0037
X2.5009 Y6.8838 Z0.0057 I-0.0034 J0.0037
X2.5076 Y6.8764 Z0.0051 I0.0034 J-0.0037
X2.5009 Y6.8838 Z0.0046 I-0.0034 J0.0037
X2.5076 Y6.8764 Z0.004 I0.0034 J-0.0037
X2.5009 Y6.8838 Z0.0035 I-0.0034 J0.0037
X2.5076 Y6.8764 Z0.0029 I0.0034 J-0.0037
X2.5009 Y6.8838 Z0.0024 I-0.0034 J0.0037
X2.5076 Y6.8764 Z0.0018 I0.0034 J-0.0037
X2.5009 Y6.8838 Z0.0013 I-0.0034 J0.0037
X2.5076 Y6.8764 Z0.0007 I0.0034 J-0.0037
X2.5009 Y6.8838 Z0.0002 I-0.0034 J0.0037
X2.5076 Y6.8764 Z-0.0004 I0.0034 J-0.0037
X2.5009 Y6.8838 Z-0.0009 I-0.0034 J0.0037
X2.5076 Y6.8764 Z-0.0015 I0.0034 J-0.0037
X2.5009 Y6.8838 Z-0.002 I-0.0034 J0.0037
X2.5076 Y6.8764 Z-0.0026 I0.0034 J-0.0037
X2.5009 Y6.8838 Z-0.0031 I-0.0034 J0.0037
X2.5076 Y6.8764 Z-0.0037 I0.0034 J-0.0037
X2.5009 Y6.8838 Z-0.0042 I-0.0034 J0.0037
X2.5076 Y6.8764 Z-0.0048 I0.0034 J-0.0037
X2.5009 Y6.8838 Z-0.0053 I-0.0034 J0.0037
X2.5076 Y6.8764 Z-0.0059 I0.0034 J-0.0037
X2.5009 Y6.8838 Z-0.0064 I-0.0034 J0.0037
X2.5076 Y6.8764 Z-0.007 I0.0034 J-0.0037
X2.5009 Y6.8838 Z-0.0075 I-0.0034 J0.0037
X2.5076 Y6.8764 Z-0.0081 I0.0034 J-0.0037
X2.5009 Y6.8838 Z-0.0086 I-0.0034 J0.0037
X2.5076 Y6.8764 Z-0.0092 I0.0034 J-0.0037
X2.5009 Y6.8838 Z-0.0097 I-0.0034 J0.0037
X2.5076 Y6.8764 Z-0.0103 I0.0034 J-0.0037
X2.5009 Y6.8838 Z-0.0108 I-0.0034 J0.0037
X2.5076 Y6.8764 Z-0.0114 I0.0034 J-0.0037
X2.5009 Y6.8838 Z-0.0119 I-0.0034 J0.0037
X2.5076 Y6.8764 Z-0.0124 I0.0034 J-0.0037
X2.5009 Y6.8838 Z-0.013 I-0.0034 J0.0037
X2.5076 Y6.8764 Z-0.0135 I0.0034 J-0.0037
X2.5009 Y6.8838 Z-0.0141 I-0.0034 J0.0037
X2.5076 Y6.8764 Z-0.0146 I0.0034 J-0.0037
X2.5009 Y6.8838 Z-0.0152 I-0.0034 J0.0037
X2.5076 Y6.8764 Z-0.0157 I0.0034 J-0.0037
X2.5009 Y6.8838 Z-0.0163 I-0.0034 J0.0037
X2.5076 Y6.8764 Z-0.0168 I0.0034 J-0.0037
X2.5009 Y6.8838 Z-0.0174 I-0.0034 J0.0037
X2.5076 Y6.8764 Z-0.0179 I0.0034 J-0.0037
X2.5009 Y6.8838 Z-0.0185 I-0.0034 J0.0037
X2.5076 Y6.8764 Z-0.019 I0.0034 J-0.0037
X2.5009 Y6.8838 Z-0.0196 I-0.0034 J0.0037
X2.5043 Y6.8751 Z-0.02 I0.0034 J-0.0037
Y6.9271 I0. J0.026 F30.
Y6.8751 I0. J-0.026
Y6.9271 Z-0.0229 I0. J0.026 F20.
Y6.8751 Z-0.0257 I0. J-0.026
Y6.9271 Z-0.0286 I0. J0.026
Y6.8751 Z-0.0314 I0. J-0.026
Y6.9271 Z-0.0343 I0. J0.026
Y6.8751 Z-0.0371 I0. J-0.026
X2.5303 Y6.9015 Z-0.0386 I0. J0.026
X2.5033 Y6.927 Z-0.04 I-0.026 J-0.0005
X2.5052 Y6.8751 I0.001 J-0.026 F30.
X2.5033 Y6.927 I-0.001 J0.026
X2.5052 Y6.8751 Z-0.0429 I0.001 J-0.026 F20.
X2.5033 Y6.927 Z-0.0457 I-0.001 J0.026
X2.5052 Y6.8751 Z-0.0486 I0.001 J-0.026
X2.5033 Y6.927 Z-0.0514 I-0.001 J0.026
X2.5052 Y6.8751 Z-0.0543 I0.001 J-0.026
X2.5033 Y6.927 Z-0.0571 I-0.001 J0.026
X2.4783 Y6.8996 Z-0.0586 I0.001 J-0.026
X2.5062 Y6.8751 Z-0.06 I0.026 J0.0014
X2.5024 Y6.927 I-0.0019 J0.0259 F30.
X2.5062 Y6.8751 I0.0019 J-0.0259
X2.5024 Y6.927 Z-0.0629 I-0.0019 J0.0259 F20.
X2.5062 Y6.8751 Z-0.0657 I0.0019 J-0.0259
X2.5024 Y6.927 Z-0.0686 I-0.0019 J0.0259
X2.5062 Y6.8751 Z-0.0714 I0.0019 J-0.0259
X2.5024 Y6.927 Z-0.0743 I-0.0019 J0.0259
X2.5062 Y6.8751 Z-0.0771 I0.0019 J-0.0259
X2.5302 Y6.9034 Z-0.0786 I-0.0019 J0.0259
X2.5014 Y6.9269 Z-0.08 I-0.0259 J-0.0024
X2.5071 Y6.8752 I0.0029 J-0.0258 F30.
X2.5014 Y6.9269 I-0.0029 J0.0258
X2.5071 Y6.8752 Z-0.0829 I0.0029 J-0.0258 F20.
X2.5014 Y6.9269 Z-0.0857 I-0.0029 J0.0258
X2.5071 Y6.8752 Z-0.0886 I0.0029 J-0.0258
X2.5014 Y6.9269 Z-0.0914 I-0.0029 J0.0258
X2.5071 Y6.8752 Z-0.0943 I0.0029 J-0.0258
X2.5014 Y6.9269 Z-0.0971 I-0.0029 J0.0258
X2.4785 Y6.8977 Z-0.0986 I0.0029 J-0.0258
X2.5081 Y6.8753 Z-0.1 I0.0258 J0.0033
X2.5005 Y6.9268 I-0.0038 J0.0257 F30.
X2.5081 Y6.8753 I0.0038 J-0.0257
X2.5005 Y6.9268 Z-0.1029 I-0.0038 J0.0257 F20.
X2.5081 Y6.8753 Z-0.1057 I0.0038 J-0.0257
X2.5005 Y6.9268 Z-0.1086 I-0.0038 J0.0257
X2.5081 Y6.8753 Z-0.1114 I0.0038 J-0.0257
X2.5005 Y6.9268 Z-0.1143 I-0.0038 J0.0257
X2.5081 Y6.8753 Z-0.1171 I0.0038 J-0.0257
X2.5299 Y6.9053 Z-0.1186 I-0.0038 J0.0257
X2.4995 Y6.9266 Z-0.12 I-0.0256 J-0.0043
X2.509 Y6.8755 I0.0047 J-0.0256 F30.
X2.4995 Y6.9266 I-0.0047 J0.0256
X2.509 Y6.8755 Z-0.1229 I0.0047 J-0.0256 F20.
X2.4995 Y6.9266 Z-0.1257 I-0.0047 J0.0256
X2.509 Y6.8755 Z-0.1286 I0.0047 J-0.0256
X2.4995 Y6.9266 Z-0.1314 I-0.0047 J0.0256
X2.509 Y6.8755 Z-0.1343 I0.0047 J-0.0256
X2.4995 Y6.9266 Z-0.1371 I-0.0047 J0.0256
X2.4788 Y6.8958 Z-0.1386 I0.0047 J-0.0256
X2.5099 Y6.8757 Z-0.14 I0.0255 J0.0052
X2.4986 Y6.9264 I-0.0057 J0.0254 F30.
X2.5099 Y6.8757 I0.0057 J-0.0254
G1 X2.5121 Y6.8764 Z-0.1396
X2.5141 Y6.8775 Z-0.1391
X2.5155 Y6.8787 Z-0.1378
X2.5168 Y6.8801 Z-0.1365
X2.5181 Y6.8823 Z-0.1327
X2.5185 Y6.8832 Z-0.1282
G0 Z0.2
X1.8113 Y7.1692
G1 Z0.1118 F30.
X1.8112 Y7.17 Z0.1075 F20.
X1.8108 Y7.1711 Z0.1057
X1.8103 Y7.1721 Z0.1039
X1.8094 Y7.173 Z0.1029
X1.8083 Y7.1736 Z0.102
X1.8071 Y7.174 Z0.1011
X1.8056 Z0.1007
X1.8042 Y7.1736 Z0.1004
X1.8029 Y7.1728 Z0.1
G3 X1.8096 Y7.1654 Z0.0995 I0.0034 J-0.0037
X1.8029 Y7.1728 Z0.0989 I-0.0034 J0.0037
X1.8096 Y7.1654 Z0.0984 I0.0034 J-0.0037
X1.8029 Y7.1728 Z0.0978 I-0.0034 J0.0037
X1.8096 Y7.1654 Z0.0973 I0.0034 J-0.0037
X1.8029 Y7.1728 Z0.0967 I-0.0034 J0.0037
X1.8096 Y7.1654 Z0.0962 I0.0034 J-0.0037
X1.8029 Y7.1728 Z0.0956 I-0.0034 J0.0037
X1.8096 Y7.1654 Z0.0951 I0.0034 J-0.0037
X1.8029 Y7.1728 Z0.0945 I-0.0034 J0.0037
X1.8096 Y7.1654 Z0.094 I0.0034 J-0.0037
X1.8029 Y7.1728 Z0.0934 I-0.0034 J0.0037
X1.8096 Y7.1654 Z0.0929 I0.0034 J-0.0037
X1.8029 Y7.1728 Z0.0923 I-0.0034 J0.0037
X1.8096 Y7.1654 Z0.0918 I0.0034 J-0.0037
X1.8029 Y7.1728 Z0.0912 I-0.0034 J0.0037
X1.8096 Y7.1654 Z0.0907 I0.0034 J-0.0037
X1.8029 Y7.1728 Z0.0901 I-0.0034 J0.0037
X1.8096 Y7.1654 Z0.0896 I0.0034 J-0.0037
X1.8029 Y7.1728 Z0.089 I-0.0034 J0.0037
X1.8096 Y7.1654 Z0.0885 I0.0034 J-0.0037
X1.8029 Y7.1728 Z0.0879 I-0.0034 J0.0037
X1.8096 Y7.1654 Z0.0874 I0.0034 J-0.0037
X1.8029 Y7.1728 Z0.0868 I-0.0034 J0.0037
X1.8096 Y7.1654 Z0.0863 I0.0034 J-0.0037
X1.8029 Y7.1728 Z0.0857 I-0.0034 J0.0037
X1.8096 Y7.1654 Z0.0852 I0.0034 J-0.0037
X1.8029 Y7.1728 Z0.0846 I-0.0034 J0.0037
X1.8096 Y7.1654 Z0.0841 I0.0034 J-0.0037
X1.8029 Y7.1728 Z0.0835 I-0.0034 J0.0037
X1.8096 Y7.1654 Z0.083 I0.0034 J-0.0037
X1.8029 Y7.1728 Z0.0824 I-0.0034 J0.0037
X1.8096 Y7.1654 Z0.0819 I0.0034 J-0.0037
X1.8029 Y7.1728 Z0.0813 I-0.0034 J0.0037
X1.8096 Y7.1654 Z0.0808 I0.0034 J-0.0037
X1.8029 Y7.1728 Z0.0803 I-0.0034 J0.0037
X1.8096 Y7.1654 Z0.0797 I0.0034 J-0.0037
X1.8029 Y7.1728 Z0.0792 I-0.0034 J0.0037
X1.8096 Y7.1654 Z0.0786 I0.0034 J-0.0037
X1.8029 Y7.1728 Z0.0781 I-0.0034 J0.0037
X1.8096 Y7.1654 Z0.0775 I0.0034 J-0.0037
X1.8029 Y7.1728 Z0.077 I-0.0034 J0.0037
X1.8096 Y7.1654 Z0.0764 I0.0034 J-0.0037
X1.8029 Y7.1728 Z0.0759 I-0.0034 J0.0037
X1.8096 Y7.1654 Z0.0753 I0.0034 J-0.0037
X1.8029 Y7.1728 Z0.0748 I-0.0034 J0.0037
X1.8096 Y7.1654 Z0.0742 I0.0034 J-0.0037
X1.8029 Y7.1728 Z0.0737 I-0.0034 J0.0037
X1.8096 Y7.1654 Z0.0731 I0.0034 J-0.0037
X1.8029 Y7.1728 Z0.0726 I-0.0034 J0.0037
X1.8096 Y7.1654 Z0.072 I0.0034 J-0.0037
X1.8029 Y7.1728 Z0.0715 I-0.0034 J0.0037
X1.8096 Y7.1654 Z0.0709 I0.0034 J-0.0037
X1.8029 Y7.1728 Z0.0704 I-0.0034 J0.0037
X1.8096 Y7.1654 Z0.0698 I0.0034 J-0.0037
X1.8029 Y7.1728 Z0.0693 I-0.0034 J0.0037
X1.8096 Y7.1654 Z0.0687 I0.0034 J-0.0037
X1.8029 Y7.1728 Z0.0682 I-0.0034 J0.0037
X1.8096 Y7.1654 Z0.0676 I0.0034 J-0.0037
X1.8029 Y7.1728 Z0.0671 I-0.0034 J0.0037
X1.8096 Y7.1654 Z0.0665 I0.0034 J-0.0037
X1.8029 Y7.1728 Z0.066 I-0.0034 J0.0037
X1.8096 Y7.1654 Z0.0654 I0.0034 J-0.0037
X1.8029 Y7.1728 Z0.0649 I-0.0034 J0.0037
X1.8096 Y7.1654 Z0.0643 I0.0034 J-0.0037
X1.8029 Y7.1728 Z0.0638 I-0.0034 J0.0037
X1.8096 Y7.1654 Z0.0632 I0.0034 J-0.0037
X1.8029 Y7.1728 Z0.0627 I-0.0034 J0.0037
X1.8096 Y7.1654 Z0.0622 I0.0034 J-0.0037
X1.8029 Y7.1728 Z0.0616 I-0.0034 J0.0037
X1.8096 Y7.1654 Z0.0611 I0.0034 J-0.0037
X1.8029 Y7.1728 Z0.0605 I-0.0034 J0.0037
X1.8096 Y7.1654 Z0.06 I0.0034 J-0.0037
X1.8029 Y7.1728 Z0.0594 I-0.0034 J0.0037
X1.8096 Y7.1654 Z0.0589 I0.0034 J-0.0037
X1.8029 Y7.1728 Z0.0583 I-0.0034 J0.0037
X1.8096 Y7.1654 Z0.0578 I0.0034 J-0.0037
X1.8029 Y7.1728 Z0.0572 I-0.0034 J0.0037
X1.8096 Y7.1654 Z0.0567 I0.0034 J-0.0037
X1.8029 Y7.1728 Z0.0561 I-0.0034 J0.0037
X1.8096 Y7.1654 Z0.0556 I0.0034 J-0.0037
X1.8029 Y7.1728 Z0.055 I-0.0034 J0.0037
X1.8096 Y7.1654 Z0.0545 I0.0034 J-0.0037
X1.8029 Y7.1728 Z0.0539 I-0.0034 J0.0037
X1.8096 Y7.1654 Z0.0534 I0.0034 J-0.0037
X1.8029 Y7.1728 Z0.0528 I-0.0034 J0.0037
X1.8096 Y7.1654 Z0.0523 I0.0034 J-0.0037
X1.8029 Y7.1728 Z0.0517 I-0.0034 J0.0037
X1.8096 Y7.1654 Z0.0512 I0.0034 J-0.0037
X1.8029 Y7.1728 Z0.0506 I-0.0034 J0.0037
X1.8096 Y7.1654 Z0.0501 I0.0034 J-0.0037
X1.8029 Y7.1728 Z0.0495 I-0.0034 J0.0037
X1.8096 Y7.1654 Z0.049 I0.0034 J-0.0037
X1.8029 Y7.1728 Z0.0484 I-0.0034 J0.0037
X1.8096 Y7.1654 Z0.0479 I0.0034 J-0.0037
X1.8029 Y7.1728 Z0.0473 I-0.0034 J0.0037
X1.8096 Y7.1654 Z0.0468 I0.0034 J-0.0037
X1.8029 Y7.1728 Z0.0462 I-0.0034 J0.0037
X1.8096 Y7.1654 Z0.0457 I0.0034 J-0.0037
X1.8029 Y7.1728 Z0.0451 I-0.0034 J0.0037
X1.8096 Y7.1654 Z0.0446 I0.0034 J-0.0037
X1.8029 Y7.1728 Z0.044 I-0.0034 J0.0037
X1.8096 Y7.1654 Z0.0435 I0.0034 J-0.0037
X1.8029 Y7.1728 Z0.043 I-0.0034 J0.0037
X1.8096 Y7.1654 Z0.0424 I0.0034 J-0.0037
X1.8029 Y7.1728 Z0.0419 I-0.0034 J0.0037
X1.8096 Y7.1654 Z0.0413 I0.0034 J-0.0037
X1.8029 Y7.1728 Z0.0408 I-0.0034 J0.0037
X1.8096 Y7.1654 Z0.0402 I0.0034 J-0.0037
X1.8029 Y7.1728 Z0.0397 I-0.0034 J0.0037
X1.8096 Y7.1654 Z0.0391 I0.0034 J-0.0037
X1.8029 Y7.1728 Z0.0386 I-0.0034 J0.0037
X1.8096 Y7.1654 Z0.038 I0.0034 J-0.0037
X1.8029 Y7.1728 Z0.0375 I-0.0034 J0.0037
X1.8096 Y7.1654 Z0.0369 I0.0034 J-0.0037
X1.8029 Y7.1728 Z0.0364 I-0.0034 J0.0037
X1.8096 Y7.1654 Z0.0358 I0.0034 J-0.0037
X1.8029 Y7.1728 Z0.0353 I-0.0034 J0.0037
X1.8096 Y7.1654 Z0.0347 I0.0034 J-0.0037
X1.8029 Y7.1728 Z0.0342 I-0.0034 J0.0037
X1.8096 Y7.1654 Z0.0336 I0.0034 J-0.0037
X1.8029 Y7.1728 Z0.0331 I-0.0034 J0.0037
X1.8096 Y7.1654 Z0.0325 I0.0034 J-0.0037
X1.8029 Y7.1728 Z0.032 I-0.0034 J0.0037
X1.8096 Y7.1654 Z0.0314 I0.0034 J-0.0037
X1.8029 Y7.1728 Z0.0309 I-0.0034 J0.0037
X1.8096 Y7.1654 Z0.0303 I0.0034 J-0.0037
X1.8029 Y7.1728 Z0.0298 I-0.0034 J0.0037
X1.8096 Y7.1654 Z0.0292 I0.0034 J-0.0037
X1.8029 Y7.1728 Z0.0287 I-0.0034 J0.0037
X1.8096 Y7.1654 Z0.0281 I0.0034 J-0.0037
X1.8029 Y7.1728 Z0.0276 I-0.0034 J0.0037
X1.8096 Y7.1654 Z0.027 I0.0034 J-0.0037
X1.8029 Y7.1728 Z0.0265 I-0.0034 J0.0037
X1.8096 Y7.1654 Z0.0259 I0.0034 J-0.0037
X1.8029 Y7.1728 Z0.0254 I-0.0034 J0.0037
X1.8096 Y7.1654 Z0.0249 I0.0034 J-0.0037
X1.8029 Y7.1728 Z0.0243 I-0.0034 J0.0037
X1.8096 Y7.1654 Z0.0238 I0.0034 J-0.0037
X1.8029 Y7.1728 Z0.0232 I-0.0034 J0.0037
X1.8096 Y7.1654 Z0.0227 I0.0034 J-0.0037
X1.8029 Y7.1728 Z0.0221 I-0.0034 J0.0037
X1.8096 Y7.1654 Z0.0216 I0.0034 J-0.0037
X1.8029 Y7.1728 Z0.021 I-0.0034 J0.0037
X1.8096 Y7.1654 Z0.0205 I0.0034 J-0.0037
X1.8029 Y7.1728 Z0.0199 I-0.0034 J0.0037
X1.8096 Y7.1654 Z0.0194 I0.0034 J-0.0037
X1.8029 Y7.1728 Z0.0188 I-0.0034 J0.0037
X1.8096 Y7.1654 Z0.0183 I0.0034 J-0.0037
X1.8029 Y7.1728 Z0.0177 I-0.0034 J0.0037
X1.8096 Y7.1654 Z0.0172 I0.0034 J-0.0037
X1.8029 Y7.1728 Z0.0166 I-0.0034 J0.0037
X1.8096 Y7.1654 Z0.0161 I0.0034 J-0.0037
X1.8029 Y7.1728 Z0.0155 I-0.0034 J0.0037
X1.8096 Y7.1654 Z0.015 I0.0034 J-0.0037
X1.8029 Y7.1728 Z0.0144 I-0.0034 J0.0037
X1.8096 Y7.1654 Z0.0139 I0.0034 J-0.0037
X1.8029 Y7.1728 Z0.0133 I-0.0034 J0.0037
X1.8096 Y7.1654 Z0.0128 I0.0034 J-0.0037
X1.8029 Y7.1728 Z0.0122 I-0.0034 J0.0037
X1.8096 Y7.1654 Z0.0117 I0.0034 J-0.0037
X1.8029 Y7.1728 Z0.0111 I-0.0034 J0.0037
X1.8096 Y7.1654 Z0.0106 I0.0034 J-0.0037
X1.8029 Y7.1728 Z0.01 I-0.0034 J0.0037
X1.8096 Y7.1654 Z0.0095 I0.0034 J-0.0037
X1.8029 Y7.1728 Z0.0089 I-0.0034 J0.0037
X1.8096 Y7.1654 Z0.0084 I0.0034 J-0.0037
X1.8029 Y7.1728 Z0.0078 I-0.0034 J0.0037
X1.8096 Y7.1654 Z0.0073 I0.0034 J-0.0037
X1.8029 Y7.1728 Z0.0067 I-0.0034 J0.0037
X1.8096 Y7.1654 Z0.0062 I0.0034 J-0.0037
X1.8029 Y7.1728 Z0.0057 I-0.0034 J0.0037
X1.8096 Y7.1654 Z0.0051 I0.0034 J-0.0037
X1.8029 Y7.1728 Z0.0046 I-0.0034 J0.0037
X1.8096 Y7.1654 Z0.004 I0.0034 J-0.0037
X1.8029 Y7.1728 Z0.0035 I-0.0034 J0.0037
X1.8096 Y7.1654 Z0.0029 I0.0034 J-0.0037
X1.8029 Y7.1728 Z0.0024 I-0.0034 J0.0037
X1.8096 Y7.1654 Z0.0018 I0.0034 J-0.0037
X1.8029 Y7.1728 Z0.0013 I-0.0034 J0.0037
X1.8096 Y7.1654 Z0.0007 I0.0034 J-0.0037
X1.8029 Y7.1728 Z0.0002 I-0.0034 J0.0037
X1.8096 Y7.1654 Z-0.0004 I0.0034 J-0.0037
X1.8029 Y7.1728 Z-0.0009 I-0.0034 J0.0037
X1.8096 Y7.1654 Z-0.0015 I0.0034 J-0.0037
X1.8029 Y7.1728 Z-0.002 I-0.0034 J0.0037
X1.8096 Y7.1654 Z-0.0026 I0.0034 J-0.0037
X1.8029 Y7.1728 Z-0.0031 I-0.0034 J0.0037
X1.8096 Y7.1654 Z-0.0037 I0.0034 J-0.0037
X1.8029 Y7.1728 Z-0.0042 I-0.0034 J0.0037
X1.8096 Y7.1654 Z-0.0048 I0.0034 J-0.0037
X1.8029 Y7.1728 Z-0.0053 I-0.0034 J0.0037
X1.8096 Y7.1654 Z-0.0059 I0.0034 J-0.0037
X1.8029 Y7.1728 Z-0.0064 I-0.0034 J0.0037
X1.8096 Y7.1654 Z-0.007 I0.0034 J-0.0037
X1.8029 Y7.1728 Z-0.0075 I-0.0034 J0.0037
X1.8096 Y7.1654 Z-0.0081 I0.0034 J-0.0037
X1.8029 Y7.1728 Z-0.0086 I-0.0034 J0.0037
X1.8096 Y7.1654 Z-0.0092 I0.0034 J-0.0037
X1.8029 Y7.1728 Z-0.0097 I-0.0034 J0.0037
X1.8096 Y7.1654 Z-0.0103 I0.0034 J-0.0037
X1.8029 Y7.1728 Z-0.0108 I-0.0034 J0.0037
X1.8096 Y7.1654 Z-0.0114 I0.0034 J-0.0037
X1.8029 Y7.1728 Z-0.0119 I-0.0034 J0.0037
X1.8096 Y7.1654 Z-0.0124 I0.0034 J-0.0037
X1.8029 Y7.1728 Z-0.013 I-0.0034 J0.0037
X1.8096 Y7.1654 Z-0.0135 I0.0034 J-0.0037
X1.8029 Y7.1728 Z-0.0141 I-0.0034 J0.0037
X1.8096 Y7.1654 Z-0.0146 I0.0034 J-0.0037
X1.8029 Y7.1728 Z-0.0152 I-0.0034 J0.0037
X1.8096 Y7.1654 Z-0.0157 I0.0034 J-0.0037
X1.8029 Y7.1728 Z-0.0163 I-0.0034 J0.0037
X1.8096 Y7.1654 Z-0.0168 I0.0034 J-0.0037
X1.8029 Y7.1728 Z-0.0174 I-0.0034 J0.0037
X1.8096 Y7.1654 Z-0.0179 I0.0034 J-0.0037
X1.8029 Y7.1728 Z-0.0185 I-0.0034 J0.0037
X1.8096 Y7.1654 Z-0.019 I0.0034 J-0.0037
X1.8029 Y7.1728 Z-0.0196 I-0.0034 J0.0037
X1.8063 Y7.1641 Z-0.02 I0.0034 J-0.0037
Y7.2421 I0. J0.039 F30.
Y7.1641 I0. J-0.039
Y7.2421 Z-0.0243 I0. J0.039 F20.
Y7.1641 Z-0.0286 I0. J-0.039
Y7.2421 Z-0.0328 I0. J0.039
Y7.1641 Z-0.0371 I0. J-0.039
X1.8396 Y7.2234 Z-0.04 I0. J0.039
X1.773 Y7.1827 I-0.0333 J-0.0203 F30.
X1.8396 Y7.2234 I0.0333 J0.0203
X1.773 Y7.1827 Z-0.0443 I-0.0333 J-0.0203 F20.
X1.8396 Y7.2234 Z-0.0486 I0.0333 J0.0203
X1.773 Y7.1827 Z-0.0528 I-0.0333 J-0.0203
X1.8396 Y7.2234 Z-0.0571 I0.0333 J0.0203
X1.7716 Y7.2209 Z-0.06 I-0.0333 J-0.0203
X1.841 Y7.1852 I0.0347 J-0.0178 F30.
X1.7716 Y7.2209 I-0.0347 J0.0178
X1.841 Y7.1852 Z-0.0643 I0.0347 J-0.0178 F20.
X1.7716 Y7.2209 Z-0.0686 I-0.0347 J0.0178
X1.841 Y7.1852 Z-0.0728 I0.0347 J-0.0178
X1.7716 Y7.2209 Z-0.0771 I-0.0347 J0.0178
X1.8091 Y7.1642 Z-0.08 I0.0347 J-0.0178
X1.8034 Y7.242 I-0.0029 J0.0389 F30.
X1.8091 Y7.1642 I0.0029 J-0.0389
X1.8034 Y7.242 Z-0.0843 I-0.0029 J0.0389 F20.
X1.8091 Y7.1642 Z-0.0886 I0.0029 J-0.0389
X1.8034 Y7.242 Z-0.0928 I-0.0029 J0.0389
X1.8091 Y7.1642 Z-0.0971 I0.0029 J-0.0389
X1.838 Y7.2258 Z-0.1 I-0.0029 J0.0389
X1.7746 Y7.1804 I-0.0317 J-0.0227 F30.
X1.838 Y7.2258 I0.0317 J0.0227
X1.7746 Y7.1804 Z-0.1043 I-0.0317 J-0.0227 F20.
X1.838 Y7.2258 Z-0.1086 I0.0317 J0.0227
X1.7746 Y7.1804 Z-0.1128 I-0.0317 J-0.0227
X1.838 Y7.2258 Z-0.1171 I0.0317 J0.0227
X1.7704 Y7.2183 Z-0.12 I-0.0317 J-0.0227
X1.8422 Y7.1878 I0.0359 J-0.0152 F30.
X1.7704 Y7.2183 I-0.0359 J0.0152
X1.8422 Y7.1878 Z-0.1243 I0.0359 J-0.0152 F20.
X1.7704 Y7.2183 Z-0.1286 I-0.0359 J0.0152
X1.8422 Y7.1878 Z-0.1328 I0.0359 J-0.0152
X1.7704 Y7.2183 Z-0.1371 I-0.0359 J0.0152
X1.812 Y7.1645 Z-0.14 I0.0359 J-0.0152
X1.8006 Y7.2417 I-0.0057 J0.0386 F30.
X1.812 Y7.1645 I0.0057 J-0.0386
G1 X1.8142 Y7.165 Z-0.1396
X1.8162 Y7.166 Z-0.1391
X1.8178 Y7.1671 Z-0.1378
X1.8191 Y7.1684 Z-0.1365
X1.8206 Y7.1705 Z-0.1327
X1.821 Y7.1713 Z-0.1282
G0 Z0.2
X1.1291 Y6.9061
G1 Z0.1118 F30.
X1.1283 Y6.906 Z0.1075 F20.
X1.1272 Y6.9056 Z0.1057
X1.1263 Y6.9051 Z0.1039
X1.1254 Y6.9042 Z0.1029
X1.1247 Y6.9031 Z0.102
X1.1243 Y6.9019 Z0.1011
Y6.9004 Z0.1007
X1.1247 Y6.899 Z0.1004
X1.1256 Y6.8977 Z0.1
G3 X1.133 Y6.9044 Z0.0995 I0.0037 J0.0034
X1.1256 Y6.8977 Z0.0989 I-0.0037 J-0.0034
X1.133 Y6.9044 Z0.0984 I0.0037 J0.0034
X1.1256 Y6.8977 Z0.0978 I-0.0037 J-0.0034
X1.133 Y6.9044 Z0.0973 I0.0037 J0.0034
X1.1256 Y6.8977 Z0.0967 I-0.0037 J-0.0034
X1.133 Y6.9044 Z0.0962 I0.0037 J0.0034
X1.1256 Y6.8977 Z0.0956 I-0.0037 J-0.0034
X1.133 Y6.9044 Z0.0951 I0.0037 J0.0034
X1.1256 Y6.8977 Z0.0945 I-0.0037 J-0.0034
X1.133 Y6.9044 Z0.094 I0.0037 J0.0034
X1.1256 Y6.8977 Z0.0934 I-0.0037 J-0.0034
X1.133 Y6.9044 Z0.0929 I0.0037 J0.0034
X1.1256 Y6.8977 Z0.0923 I-0.0037 J-0.0034
X1.133 Y6.9044 Z0.0918 I0.0037 J0.0034
X1.1256 Y6.8977 Z0.0912 I-0.0037 J-0.0034
X1.133 Y6.9044 Z0.0907 I0.0037 J0.0034
X1.1256 Y6.8977 Z0.0901 I-0.0037 J-0.0034
X1.133 Y6.9044 Z0.0896 I0.0037 J0.0034
X1.1256 Y6.8977 Z0.089 I-0.0037 J-0.0034
X1.133 Y6.9044 Z0.0885 I0.0037 J0.0034
X1.1256 Y6.8977 Z0.0879 I-0.0037 J-0.0034
X1.133 Y6.9044 Z0.0874 I0.0037 J0.0034
X1.1256 Y6.8977 Z0.0868 I-0.0037 J-0.0034
X1.133 Y6.9044 Z0.0863 I0.0037 J0.0034
X1.1256 Y6.8977 Z0.0857 I-0.0037 J-0.0034
X1.133 Y6.9044 Z0.0852 I0.0037 J0.0034
X1.1256 Y6.8977 Z0.0846 I-0.0037 J-0.0034
X1.133 Y6.9044 Z0.0841 I0.0037 J0.0034
X1.1256 Y6.8977 Z0.0835 I-0.0037 J-0.0034
X1.133 Y6.9044 Z0.083 I0.0037 J0.0034
X1.1256 Y6.8977 Z0.0824 I-0.0037 J-0.0034
X1.133 Y6.9044 Z0.0819 I0.0037 J0.0034
X1.1256 Y6.8977 Z0.0813 I-0.0037 J-0.0034
X1.133 Y6.9044 Z0.0808 I0.0037 J0.0034
X1.1256 Y6.8977 Z0.0803 I-0.0037 J-0.0034
X1.133 Y6.9044 Z0.0797 I0.0037 J0.0034
X1.1256 Y6.8977 Z0.0792 I-0.0037 J-0.0034
X1.133 Y6.9044 Z0.0786 I0.0037 J0.0034
X1.1256 Y6.8977 Z0.0781 I-0.0037 J-0.0034
X1.133 Y6.9044 Z0.0775 I0.0037 J0.0034
X1.1256 Y6.8977 Z0.077 I-0.0037 J-0.0034
X1.133 Y6.9044 Z0.0764 I0.0037 J0.0034
X1.1256 Y6.8977 Z0.0759 I-0.0037 J-0.0034
X1.133 Y6.9044 Z0.0753 I0.0037 J0.0034
X1.1256 Y6.8977 Z0.0748 I-0.0037 J-0.0034
X1.133 Y6.9044 Z0.0742 I0.0037 J0.0034
X1.1256 Y6.8977 Z0.0737 I-0.0037 J-0.0034
X1.133 Y6.9044 Z0.0731 I0.0037 J0.0034
X1.1256 Y6.8977 Z0.0726 I-0.0037 J-0.0034
X1.133 Y6.9044 Z0.072 I0.0037 J0.0034
X1.1256 Y6.8977 Z0.0715 I-0.0037 J-0.0034
X1.133 Y6.9044 Z0.0709 I0.0037 J0.0034
X1.1256 Y6.8977 Z0.0704 I-0.0037 J-0.0034
X1.133 Y6.9044 Z0.0698 I0.0037 J0.0034
X1.1256 Y6.8977 Z0.0693 I-0.0037 J-0.0034
X1.133 Y6.9044 Z0.0687 I0.0037 J0.0034
X1.1256 Y6.8977 Z0.0682 I-0.0037 J-0.0034
X1.133 Y6.9044 Z0.0676 I0.0037 J0.0034
X1.1256 Y6.8977 Z0.0671 I-0.0037 J-0.0034
X1.133 Y6.9044 Z0.0665 I0.0037 J0.0034
X1.1256 Y6.8977 Z0.066 I-0.0037 J-0.0034
X1.133 Y6.9044 Z0.0654 I0.0037 J0.0034
X1.1256 Y6.8977 Z0.0649 I-0.0037 J-0.0034
X1.133 Y6.9044 Z0.0643 I0.0037 J0.0034
X1.1256 Y6.8977 Z0.0638 I-0.0037 J-0.0034
X1.133 Y6.9044 Z0.0632 I0.0037 J0.0034
X1.1256 Y6.8977 Z0.0627 I-0.0037 J-0.0034
X1.133 Y6.9044 Z0.0622 I0.0037 J0.0034
X1.1256 Y6.8977 Z0.0616 I-0.0037 J-0.0034
X1.133 Y6.9044 Z0.0611 I0.0037 J0.0034
X1.1256 Y6.8977 Z0.0605 I-0.0037 J-0.0034
X1.133 Y6.9044 Z0.06 I0.0037 J0.0034
X1.1256 Y6.8977 Z0.0594 I-0.0037 J-0.0034
X1.133 Y6.9044 Z0.0589 I0.0037 J0.0034
X1.1256 Y6.8977 Z0.0583 I-0.0037 J-0.0034
X1.133 Y6.9044 Z0.0578 I0.0037 J0.0034
X1.1256 Y6.8977 Z0.0572 I-0.0037 J-0.0034
X1.133 Y6.9044 Z0.0567 I0.0037 J0.0034
X1.1256 Y6.8977 Z0.0561 I-0.0037 J-0.0034
X1.133 Y6.9044 Z0.0556 I0.0037 J0.0034
X1.1256 Y6.8977 Z0.055 I-0.0037 J-0.0034
X1.133 Y6.9044 Z0.0545 I0.0037 J0.0034
X1.1256 Y6.8977 Z0.0539 I-0.0037 J-0.0034
X1.133 Y6.9044 Z0.0534 I0.0037 J0.0034
X1.1256 Y6.8977 Z0.0528 I-0.0037 J-0.0034
X1.133 Y6.9044 Z0.0523 I0.0037 J0.0034
X1.1256 Y6.8977 Z0.0517 I-0.0037 J-0.0034
X1.133 Y6.9044 Z0.0512 I0.0037 J0.0034
X1.1256 Y6.8977 Z0.0506 I-0.0037 J-0.0034
X1.133 Y6.9044 Z0.0501 I0.0037 J0.0034
X1.1256 Y6.8977 Z0.0495 I-0.0037 J-0.0034
X1.133 Y6.9044 Z0.049 I0.0037 J0.0034
X1.1256 Y6.8977 Z0.0484 I-0.0037 J-0.0034
X1.133 Y6.9044 Z0.0479 I0.0037 J0.0034
X1.1256 Y6.8977 Z0.0473 I-0.0037 J-0.0034
X1.133 Y6.9044 Z0.0468 I0.0037 J0.0034
X1.1256 Y6.8977 Z0.0462 I-0.0037 J-0.0034
X1.133 Y6.9044 Z0.0457 I0.0037 J0.0034
X1.1256 Y6.8977 Z0.0451 I-0.0037 J-0.0034
X1.133 Y6.9044 Z0.0446 I0.0037 J0.0034
X1.1256 Y6.8977 Z0.044 I-0.0037 J-0.0034
X1.133 Y6.9044 Z0.0435 I0.0037 J0.0034
X1.1256 Y6.8977 Z0.043 I-0.0037 J-0.0034
X1.133 Y6.9044 Z0.0424 I0.0037 J0.0034
X1.1256 Y6.8977 Z0.0419 I-0.0037 J-0.0034
X1.133 Y6.9044 Z0.0413 I0.0037 J0.0034
X1.1256 Y6.8977 Z0.0408 I-0.0037 J-0.0034
X1.133 Y6.9044 Z0.0402 I0.0037 J0.0034
X1.1256 Y6.8977 Z0.0397 I-0.0037 J-0.0034
X1.133 Y6.9044 Z0.0391 I0.0037 J0.0034
X1.1256 Y6.8977 Z0.0386 I-0.0037 J-0.0034
X1.133 Y6.9044 Z0.038 I0.0037 J0.0034
X1.1256 Y6.8977 Z0.0375 I-0.0037 J-0.0034
X1.133 Y6.9044 Z0.0369 I0.0037 J0.0034
X1.1256 Y6.8977 Z0.0364 I-0.0037 J-0.0034
X1.133 Y6.9044 Z0.0358 I0.0037 J0.0034
X1.1256 Y6.8977 Z0.0353 I-0.0037 J-0.0034
X1.133 Y6.9044 Z0.0347 I0.0037 J0.0034
X1.1256 Y6.8977 Z0.0342 I-0.0037 J-0.0034
X1.133 Y6.9044 Z0.0336 I0.0037 J0.0034
X1.1256 Y6.8977 Z0.0331 I-0.0037 J-0.0034
X1.133 Y6.9044 Z0.0325 I0.0037 J0.0034
X1.1256 Y6.8977 Z0.032 I-0.0037 J-0.0034
X1.133 Y6.9044 Z0.0314 I0.0037 J0.0034
X1.1256 Y6.8977 Z0.0309 I-0.0037 J-0.0034
X1.133 Y6.9044 Z0.0303 I0.0037 J0.0034
X1.1256 Y6.8977 Z0.0298 I-0.0037 J-0.0034
X1.133 Y6.9044 Z0.0292 I0.0037 J0.0034
X1.1256 Y6.8977 Z0.0287 I-0.0037 J-0.0034
X1.133 Y6.9044 Z0.0281 I0.0037 J0.0034
X1.1256 Y6.8977 Z0.0276 I-0.0037 J-0.0034
X1.133 Y6.9044 Z0.027 I0.0037 J0.0034
X1.1256 Y6.8977 Z0.0265 I-0.0037 J-0.0034
X1.133 Y6.9044 Z0.0259 I0.0037 J0.0034
X1.1256 Y6.8977 Z0.0254 I-0.0037 J-0.0034
X1.133 Y6.9044 Z0.0249 I0.0037 J0.0034
X1.1256 Y6.8977 Z0.0243 I-0.0037 J-0.0034
X1.133 Y6.9044 Z0.0238 I0.0037 J0.0034
X1.1256 Y6.8977 Z0.0232 I-0.0037 J-0.0034
X1.133 Y6.9044 Z0.0227 I0.0037 J0.0034
X1.1256 Y6.8977 Z0.0221 I-0.0037 J-0.0034
X1.133 Y6.9044 Z0.0216 I0.0037 J0.0034
X1.1256 Y6.8977 Z0.021 I-0.0037 J-0.0034
X1.133 Y6.9044 Z0.0205 I0.0037 J0.0034
X1.1256 Y6.8977 Z0.0199 I-0.0037 J-0.0034
X1.133 Y6.9044 Z0.0194 I0.0037 J0.0034
X1.1256 Y6.8977 Z0.0188 I-0.0037 J-0.0034
X1.133 Y6.9044 Z0.0183 I0.0037 J0.0034
X1.1256 Y6.8977 Z0.0177 I-0.0037 J-0.0034
X1.133 Y6.9044 Z0.0172 I0.0037 J0.0034
X1.1256 Y6.8977 Z0.0166 I-0.0037 J-0.0034
X1.133 Y6.9044 Z0.0161 I0.0037 J0.0034
X1.1256 Y6.8977 Z0.0155 I-0.0037 J-0.0034
X1.133 Y6.9044 Z0.015 I0.0037 J0.0034
X1.1256 Y6.8977 Z0.0144 I-0.0037 J-0.0034
X1.133 Y6.9044 Z0.0139 I0.0037 J0.0034
X1.1256 Y6.8977 Z0.0133 I-0.0037 J-0.0034
X1.133 Y6.9044 Z0.0128 I0.0037 J0.0034
X1.1256 Y6.8977 Z0.0122 I-0.0037 J-0.0034
X1.133 Y6.9044 Z0.0117 I0.0037 J0.0034
X1.1256 Y6.8977 Z0.0111 I-0.0037 J-0.0034
X1.133 Y6.9044 Z0.0106 I0.0037 J0.0034
X1.1256 Y6.8977 Z0.01 I-0.0037 J-0.0034
X1.133 Y6.9044 Z0.0095 I0.0037 J0.0034
X1.1256 Y6.8977 Z0.0089 I-0.0037 J-0.0034
X1.133 Y6.9044 Z0.0084 I0.0037 J0.0034
X1.1256 Y6.8977 Z0.0078 I-0.0037 J-0.0034
X1.133 Y6.9044 Z0.0073 I0.0037 J0.0034
X1.1256 Y6.8977 Z0.0067 I-0.0037 J-0.0034
X1.133 Y6.9044 Z0.0062 I0.0037 J0.0034
X1.1256 Y6.8977 Z0.0057 I-0.0037 J-0.0034
X1.133 Y6.9044 Z0.0051 I0.0037 J0.0034
X1.1256 Y6.8977 Z0.0046 I-0.0037 J-0.0034
X1.133 Y6.9044 Z0.004 I0.0037 J0.0034
X1.1256 Y6.8977 Z0.0035 I-0.0037 J-0.0034
X1.133 Y6.9044 Z0.0029 I0.0037 J0.0034
X1.1256 Y6.8977 Z0.0024 I-0.0037 J-0.0034
X1.133 Y6.9044 Z0.0018 I0.0037 J0.0034
X1.1256 Y6.8977 Z0.0013 I-0.0037 J-0.0034
X1.133 Y6.9044 Z0.0007 I0.0037 J0.0034
X1.1256 Y6.8977 Z0.0002 I-0.0037 J-0.0034
X1.133 Y6.9044 Z-0.0004 I0.0037 J0.0034
X1.1256 Y6.8977 Z-0.0009 I-0.0037 J-0.0034
X1.133 Y6.9044 Z-0.0015 I0.0037 J0.0034
X1.1256 Y6.8977 Z-0.002 I-0.0037 J-0.0034
X1.133 Y6.9044 Z-0.0026 I0.0037 J0.0034
X1.1256 Y6.8977 Z-0.0031 I-0.0037 J-0.0034
X1.133 Y6.9044 Z-0.0037 I0.0037 J0.0034
X1.1256 Y6.8977 Z-0.0042 I-0.0037 J-0.0034
X1.133 Y6.9044 Z-0.0048 I0.0037 J0.0034
X1.1256 Y6.8977 Z-0.0053 I-0.0037 J-0.0034
X1.133 Y6.9044 Z-0.0059 I0.0037 J0.0034
X1.1256 Y6.8977 Z-0.0064 I-0.0037 J-0.0034
X1.133 Y6.9044 Z-0.007 I0.0037 J0.0034
X1.1256 Y6.8977 Z-0.0075 I-0.0037 J-0.0034
X1.133 Y6.9044 Z-0.0081 I0.0037 J0.0034
X1.1256 Y6.8977 Z-0.0086 I-0.0037 J-0.0034
X1.133 Y6.9044 Z-0.0092 I0.0037 J0.0034
X1.1256 Y6.8977 Z-0.0097 I-0.0037 J-0.0034
X1.133 Y6.9044 Z-0.0103 I0.0037 J0.0034
X1.1256 Y6.8977 Z-0.0108 I-0.0037 J-0.0034
X1.133 Y6.9044 Z-0.0114 I0.0037 J0.0034
X1.1256 Y6.8977 Z-0.0119 I-0.0037 J-0.0034
X1.133 Y6.9044 Z-0.0124 I0.0037 J0.0034
X1.1256 Y6.8977 Z-0.013 I-0.0037 J-0.0034
X1.133 Y6.9044 Z-0.0135 I0.0037 J0.0034
X1.1256 Y6.8977 Z-0.0141 I-0.0037 J-0.0034
X1.133 Y6.9044 Z-0.0146 I0.0037 J0.0034
X1.1256 Y6.8977 Z-0.0152 I-0.0037 J-0.0034
X1.133 Y6.9044 Z-0.0157 I0.0037 J0.0034
X1.1256 Y6.8977 Z-0.0163 I-0.0037 J-0.0034
X1.133 Y6.9044 Z-0.0168 I0.0037 J0.0034
X1.1256 Y6.8977 Z-0.0174 I-0.0037 J-0.0034
X1.133 Y6.9044 Z-0.0179 I0.0037 J0.0034
X1.1256 Y6.8977 Z-0.0185 I-0.0037 J-0.0034
X1.133 Y6.9044 Z-0.019 I0.0037 J0.0034
X1.1256 Y6.8977 Z-0.0196 I-0.0037 J-0.0034
X1.1343 Y6.9011 Z-0.02 I0.0037 J0.0034
X1.0823 I-0.026 J0. F30.
X1.1343 I0.026 J0.
X1.0823 Z-0.0229 I-0.026 J0. F20.
X1.1343 Z-0.0257 I0.026 J0.
X1.0823 Z-0.0286 I-0.026 J0.
X1.1343 Z-0.0314 I0.026 J0.
X1.0823 Z-0.0343 I-0.026 J0.
X1.1343 Z-0.0371 I0.026 J0.
X1.1078 Y6.9271 Z-0.0386 I-0.026 J0.
X1.0823 Y6.9001 Z-0.04 I0.0005 J-0.026
X1.1342 Y6.902 I0.026 J0.001 F30.
X1.0823 Y6.9001 I-0.026 J-0.001
X1.1342 Y6.902 Z-0.0429 I0.026 J0.001 F20.
X1.0823 Y6.9001 Z-0.0457 I-0.026 J-0.001
X1.1342 Y6.902 Z-0.0486 I0.026 J0.001
X1.0823 Y6.9001 Z-0.0514 I-0.026 J-0.001
X1.1342 Y6.902 Z-0.0543 I0.026 J0.001
X1.0823 Y6.9001 Z-0.0571 I-0.026 J-0.001
X1.1097 Y6.8751 Z-0.0586 I0.026 J0.001
X1.1342 Y6.903 Z-0.06 I-0.0014 J0.026
X1.0823 Y6.8992 I-0.0259 J-0.0019 F30.
X1.1342 Y6.903 I0.0259 J0.0019
X1.0823 Y6.8992 Z-0.0629 I-0.0259 J-0.0019 F20.
X1.1342 Y6.903 Z-0.0657 I0.0259 J0.0019
X1.0823 Y6.8992 Z-0.0686 I-0.0259 J-0.0019
X1.1342 Y6.903 Z-0.0714 I0.0259 J0.0019
X1.0823 Y6.8992 Z-0.0743 I-0.0259 J-0.0019
X1.1342 Y6.903 Z-0.0771 I0.0259 J0.0019
X1.1059 Y6.927 Z-0.0786 I-0.0259 J-0.0019
X1.0824 Y6.8982 Z-0.08 I0.0024 J-0.0259
X1.1341 Y6.9039 I0.0258 J0.0029 F30.
X1.0824 Y6.8982 I-0.0258 J-0.0029
X1.1341 Y6.9039 Z-0.0829 I0.0258 J0.0029 F20.
X1.0824 Y6.8982 Z-0.0857 I-0.0258 J-0.0029
X1.1341 Y6.9039 Z-0.0886 I0.0258 J0.0029
X1.0824 Y6.8982 Z-0.0914 I-0.0258 J-0.0029
X1.1341 Y6.9039 Z-0.0943 I0.0258 J0.0029
X1.0824 Y6.8982 Z-0.0971 I-0.0258 J-0.0029
X1.1116 Y6.8753 Z-0.0986 I0.0258 J0.0029
X1.134 Y6.9049 Z-0.1 I-0.0033 J0.0258
X1.0825 Y6.8973 I-0.0257 J-0.0038 F30.
X1.134 Y6.9049 I0.0257 J0.0038
X1.0825 Y6.8973 Z-0.1029 I-0.0257 J-0.0038 F20.
X1.134 Y6.9049 Z-0.1057 I0.0257 J0.0038
X1.0825 Y6.8973 Z-0.1086 I-0.0257 J-0.0038
X1.134 Y6.9049 Z-0.1114 I0.0257 J0.0038
X1.0825 Y6.8973 Z-0.1143 I-0.0257 J-0.0038
X1.134 Y6.9049 Z-0.1171 I0.0257 J0.0038
X1.104 Y6.9267 Z-0.1186 I-0.0257 J-0.0038
X1.0827 Y6.8963 Z-0.12 I0.0043 J-0.0256
X1.1338 Y6.9058 I0.0256 J0.0047 F30.
X1.0827 Y6.8963 I-0.0256 J-0.0047
X1.1338 Y6.9058 Z-0.1229 I0.0256 J0.0047 F20.
X1.0827 Y6.8963 Z-0.1257 I-0.0256 J-0.0047
X1.1338 Y6.9058 Z-0.1286 I0.0256 J0.0047
X1.0827 Y6.8963 Z-0.1314 I-0.0256 J-0.0047
X1.1338 Y6.9058 Z-0.1343 I0.0256 J0.0047
X1.0827 Y6.8963 Z-0.1371 I-0.0256 J-0.0047
X1.1135 Y6.8756 Z-0.1386 I0.0256 J0.0047
X1.1336 Y6.9067 Z-0.14 I-0.0052 J0.0255
X1.0829 Y6.8954 I-0.0254 J-0.0057 F30.
X1.1336 Y6.9067 I0.0254 J0.0057
G1 X1.1329 Y6.9089 Z-0.1396
X1.1318 Y6.9109 Z-0.1391
X1.1306 Y6.9123 Z-0.1378
X1.1292 Y6.9136 Z-0.1365
X1.127 Y6.9149 Z-0.1327
X1.1262 Y6.9153 Z-0.1282
G0 Z0.2
X0.5608 Y6.9061
G1 Z0.1118 F30.
X0.5601 Y6.906 Z0.1075 F20.
X0.559 Y6.9056 Z0.1057
X0.558 Y6.9051 Z0.1039
X0.5571 Y6.9042 Z0.1029
X0.5564 Y6.9031 Z0.102
X0.5561 Y6.9019 Z0.1011
X0.556 Y6.9004 Z0.1007
X0.5565 Y6.899 Z0.1004
X0.5573 Y6.8977 Z0.1
G3 X0.5647 Y6.9044 Z0.0995 I0.0037 J0.0034
X0.5573 Y6.8977 Z0.0989 I-0.0037 J-0.0034
X0.5647 Y6.9044 Z0.0984 I0.0037 J0.0034
X0.5573 Y6.8977 Z0.0978 I-0.0037 J-0.0034
X0.5647 Y6.9044 Z0.0973 I0.0037 J0.0034
X0.5573 Y6.8977 Z0.0967 I-0.0037 J-0.0034
X0.5647 Y6.9044 Z0.0962 I0.0037 J0.0034
X0.5573 Y6.8977 Z0.0956 I-0.0037 J-0.0034
X0.5647 Y6.9044 Z0.0951 I0.0037 J0.0034
X0.5573 Y6.8977 Z0.0945 I-0.0037 J-0.0034
X0.5647 Y6.9044 Z0.094 I0.0037 J0.0034
X0.5573 Y6.8977 Z0.0934 I-0.0037 J-0.0034
X0.5647 Y6.9044 Z0.0929 I0.0037 J0.0034
X0.5573 Y6.8977 Z0.0923 I-0.0037 J-0.0034
X0.5647 Y6.9044 Z0.0918 I0.0037 J0.0034
X0.5573 Y6.8977 Z0.0912 I-0.0037 J-0.0034
X0.5647 Y6.9044 Z0.0907 I0.0037 J0.0034
X0.5573 Y6.8977 Z0.0901 I-0.0037 J-0.0034
X0.5647 Y6.9044 Z0.0896 I0.0037 J0.0034
X0.5573 Y6.8977 Z0.089 I-0.0037 J-0.0034
X0.5647 Y6.9044 Z0.0885 I0.0037 J0.0034
X0.5573 Y6.8977 Z0.0879 I-0.0037 J-0.0034
X0.5647 Y6.9044 Z0.0874 I0.0037 J0.0034
X0.5573 Y6.8977 Z0.0868 I-0.0037 J-0.0034
X0.5647 Y6.9044 Z0.0863 I0.0037 J0.0034
X0.5573 Y6.8977 Z0.0857 I-0.0037 J-0.0034
X0.5647 Y6.9044 Z0.0852 I0.0037 J0.0034
X0.5573 Y6.8977 Z0.0846 I-0.0037 J-0.0034
X0.5647 Y6.9044 Z0.0841 I0.0037 J0.0034
X0.5573 Y6.8977 Z0.0835 I-0.0037 J-0.0034
X0.5647 Y6.9044 Z0.083 I0.0037 J0.0034
X0.5573 Y6.8977 Z0.0824 I-0.0037 J-0.0034
X0.5647 Y6.9044 Z0.0819 I0.0037 J0.0034
X0.5573 Y6.8977 Z0.0813 I-0.0037 J-0.0034
X0.5647 Y6.9044 Z0.0808 I0.0037 J0.0034
X0.5573 Y6.8977 Z0.0803 I-0.0037 J-0.0034
X0.5647 Y6.9044 Z0.0797 I0.0037 J0.0034
X0.5573 Y6.8977 Z0.0792 I-0.0037 J-0.0034
X0.5647 Y6.9044 Z0.0786 I0.0037 J0.0034
X0.5573 Y6.8977 Z0.0781 I-0.0037 J-0.0034
X0.5647 Y6.9044 Z0.0775 I0.0037 J0.0034
X0.5573 Y6.8977 Z0.077 I-0.0037 J-0.0034
X0.5647 Y6.9044 Z0.0764 I0.0037 J0.0034
X0.5573 Y6.8977 Z0.0759 I-0.0037 J-0.0034
X0.5647 Y6.9044 Z0.0753 I0.0037 J0.0034
X0.5573 Y6.8977 Z0.0748 I-0.0037 J-0.0034
X0.5647 Y6.9044 Z0.0742 I0.0037 J0.0034
X0.5573 Y6.8977 Z0.0737 I-0.0037 J-0.0034
X0.5647 Y6.9044 Z0.0731 I0.0037 J0.0034
X0.5573 Y6.8977 Z0.0726 I-0.0037 J-0.0034
X0.5647 Y6.9044 Z0.072 I0.0037 J0.0034
X0.5573 Y6.8977 Z0.0715 I-0.0037 J-0.0034
X0.5647 Y6.9044 Z0.0709 I0.0037 J0.0034
X0.5573 Y6.8977 Z0.0704 I-0.0037 J-0.0034
X0.5647 Y6.9044 Z0.0698 I0.0037 J0.0034
X0.5573 Y6.8977 Z0.0693 I-0.0037 J-0.0034
X0.5647 Y6.9044 Z0.0687 I0.0037 J0.0034
X0.5573 Y6.8977 Z0.0682 I-0.0037 J-0.0034
X0.5647 Y6.9044 Z0.0676 I0.0037 J0.0034
X0.5573 Y6.8977 Z0.0671 I-0.0037 J-0.0034
X0.5647 Y6.9044 Z0.0665 I0.0037 J0.0034
X0.5573 Y6.8977 Z0.066 I-0.0037 J-0.0034
X0.5647 Y6.9044 Z0.0654 I0.0037 J0.0034
X0.5573 Y6.8977 Z0.0649 I-0.0037 J-0.0034
X0.5647 Y6.9044 Z0.0643 I0.0037 J0.0034
X0.5573 Y6.8977 Z0.0638 I-0.0037 J-0.0034
X0.5647 Y6.9044 Z0.0632 I0.0037 J0.0034
X0.5573 Y6.8977 Z0.0627 I-0.0037 J-0.0034
X0.5647 Y6.9044 Z0.0622 I0.0037 J0.0034
X0.5573 Y6.8977 Z0.0616 I-0.0037 J-0.0034
X0.5647 Y6.9044 Z0.0611 I0.0037 J0.0034
X0.5573 Y6.8977 Z0.0605 I-0.0037 J-0.0034
X0.5647 Y6.9044 Z0.06 I0.0037 J0.0034
X0.5573 Y6.8977 Z0.0594 I-0.0037 J-0.0034
X0.5647 Y6.9044 Z0.0589 I0.0037 J0.0034
X0.5573 Y6.8977 Z0.0583 I-0.0037 J-0.0034
X0.5647 Y6.9044 Z0.0578 I0.0037 J0.0034
X0.5573 Y6.8977 Z0.0572 I-0.0037 J-0.0034
X0.5647 Y6.9044 Z0.0567 I0.0037 J0.0034
X0.5573 Y6.8977 Z0.0561 I-0.0037 J-0.0034
X0.5647 Y6.9044 Z0.0556 I0.0037 J0.0034
X0.5573 Y6.8977 Z0.055 I-0.0037 J-0.0034
X0.5647 Y6.9044 Z0.0545 I0.0037 J0.0034
X0.5573 Y6.8977 Z0.0539 I-0.0037 J-0.0034
X0.5647 Y6.9044 Z0.0534 I0.0037 J0.0034
X0.5573 Y6.8977 Z0.0528 I-0.0037 J-0.0034
X0.5647 Y6.9044 Z0.0523 I0.0037 J0.0034
X0.5573 Y6.8977 Z0.0517 I-0.0037 J-0.0034
X0.5647 Y6.9044 Z0.0512 I0.0037 J0.0034
X0.5573 Y6.8977 Z0.0506 I-0.0037 J-0.0034
X0.5647 Y6.9044 Z0.0501 I0.0037 J0.0034
X0.5573 Y6.8977 Z0.0495 I-0.0037 J-0.0034
X0.5647 Y6.9044 Z0.049 I0.0037 J0.0034
X0.5573 Y6.8977 Z0.0484 I-0.0037 J-0.0034
X0.5647 Y6.9044 Z0.0479 I0.0037 J0.0034
X0.5573 Y6.8977 Z0.0473 I-0.0037 J-0.0034
X0.5647 Y6.9044 Z0.0468 I0.0037 J0.0034
X0.5573 Y6.8977 Z0.0462 I-0.0037 J-0.0034
X0.5647 Y6.9044 Z0.0457 I0.0037 J0.0034
X0.5573 Y6.8977 Z0.0451 I-0.0037 J-0.0034
X0.5647 Y6.9044 Z0.0446 I0.0037 J0.0034
X0.5573 Y6.8977 Z0.044 I-0.0037 J-0.0034
X0.5647 Y6.9044 Z0.0435 I0.0037 J0.0034
X0.5573 Y6.8977 Z0.043 I-0.0037 J-0.0034
X0.5647 Y6.9044 Z0.0424 I0.0037 J0.0034
X0.5573 Y6.8977 Z0.0419 I-0.0037 J-0.0034
X0.5647 Y6.9044 Z0.0413 I0.0037 J0.0034
X0.5573 Y6.8977 Z0.0408 I-0.0037 J-0.0034
X0.5647 Y6.9044 Z0.0402 I0.0037 J0.0034
X0.5573 Y6.8977 Z0.0397 I-0.0037 J-0.0034
X0.5647 Y6.9044 Z0.0391 I0.0037 J0.0034
X0.5573 Y6.8977 Z0.0386 I-0.0037 J-0.0034
X0.5647 Y6.9044 Z0.038 I0.0037 J0.0034
X0.5573 Y6.8977 Z0.0375 I-0.0037 J-0.0034
X0.5647 Y6.9044 Z0.0369 I0.0037 J0.0034
X0.5573 Y6.8977 Z0.0364 I-0.0037 J-0.0034
X0.5647 Y6.9044 Z0.0358 I0.0037 J0.0034
X0.5573 Y6.8977 Z0.0353 I-0.0037 J-0.0034
X0.5647 Y6.9044 Z0.0347 I0.0037 J0.0034
X0.5573 Y6.8977 Z0.0342 I-0.0037 J-0.0034
X0.5647 Y6.9044 Z0.0336 I0.0037 J0.0034
X0.5573 Y6.8977 Z0.0331 I-0.0037 J-0.0034
X0.5647 Y6.9044 Z0.0325 I0.0037 J0.0034
X0.5573 Y6.8977 Z0.032 I-0.0037 J-0.0034
X0.5647 Y6.9044 Z0.0314 I0.0037 J0.0034
X0.5573 Y6.8977 Z0.0309 I-0.0037 J-0.0034
X0.5647 Y6.9044 Z0.0303 I0.0037 J0.0034
X0.5573 Y6.8977 Z0.0298 I-0.0037 J-0.0034
X0.5647 Y6.9044 Z0.0292 I0.0037 J0.0034
X0.5573 Y6.8977 Z0.0287 I-0.0037 J-0.0034
X0.5647 Y6.9044 Z0.0281 I0.0037 J0.0034
X0.5573 Y6.8977 Z0.0276 I-0.0037 J-0.0034
X0.5647 Y6.9044 Z0.027 I0.0037 J0.0034
X0.5573 Y6.8977 Z0.0265 I-0.0037 J-0.0034
X0.5647 Y6.9044 Z0.0259 I0.0037 J0.0034
X0.5573 Y6.8977 Z0.0254 I-0.0037 J-0.0034
X0.5647 Y6.9044 Z0.0249 I0.0037 J0.0034
X0.5573 Y6.8977 Z0.0243 I-0.0037 J-0.0034
X0.5647 Y6.9044 Z0.0238 I0.0037 J0.0034
X0.5573 Y6.8977 Z0.0232 I-0.0037 J-0.0034
X0.5647 Y6.9044 Z0.0227 I0.0037 J0.0034
X0.5573 Y6.8977 Z0.0221 I-0.0037 J-0.0034
X0.5647 Y6.9044 Z0.0216 I0.0037 J0.0034
X0.5573 Y6.8977 Z0.021 I-0.0037 J-0.0034
X0.5647 Y6.9044 Z0.0205 I0.0037 J0.0034
X0.5573 Y6.8977 Z0.0199 I-0.0037 J-0.0034
X0.5647 Y6.9044 Z0.0194 I0.0037 J0.0034
X0.5573 Y6.8977 Z0.0188 I-0.0037 J-0.0034
X0.5647 Y6.9044 Z0.0183 I0.0037 J0.0034
X0.5573 Y6.8977 Z0.0177 I-0.0037 J-0.0034
X0.5647 Y6.9044 Z0.0172 I0.0037 J0.0034
X0.5573 Y6.8977 Z0.0166 I-0.0037 J-0.0034
X0.5647 Y6.9044 Z0.0161 I0.0037 J0.0034
X0.5573 Y6.8977 Z0.0155 I-0.0037 J-0.0034
X0.5647 Y6.9044 Z0.015 I0.0037 J0.0034
X0.5573 Y6.8977 Z0.0144 I-0.0037 J-0.0034
X0.5647 Y6.9044 Z0.0139 I0.0037 J0.0034
X0.5573 Y6.8977 Z0.0133 I-0.0037 J-0.0034
X0.5647 Y6.9044 Z0.0128 I0.0037 J0.0034
X0.5573 Y6.8977 Z0.0122 I-0.0037 J-0.0034
X0.5647 Y6.9044 Z0.0117 I0.0037 J0.0034
X0.5573 Y6.8977 Z0.0111 I-0.0037 J-0.0034
X0.5647 Y6.9044 Z0.0106 I0.0037 J0.0034
X0.5573 Y6.8977 Z0.01 I-0.0037 J-0.0034
X0.5647 Y6.9044 Z0.0095 I0.0037 J0.0034
X0.5573 Y6.8977 Z0.0089 I-0.0037 J-0.0034
X0.5647 Y6.9044 Z0.0084 I0.0037 J0.0034
X0.5573 Y6.8977 Z0.0078 I-0.0037 J-0.0034
X0.5647 Y6.9044 Z0.0073 I0.0037 J0.0034
X0.5573 Y6.8977 Z0.0067 I-0.0037 J-0.0034
X0.5647 Y6.9044 Z0.0062 I0.0037 J0.0034
X0.5573 Y6.8977 Z0.0057 I-0.0037 J-0.0034
X0.5647 Y6.9044 Z0.0051 I0.0037 J0.0034
X0.5573 Y6.8977 Z0.0046 I-0.0037 J-0.0034
X0.5647 Y6.9044 Z0.004 I0.0037 J0.0034
X0.5573 Y6.8977 Z0.0035 I-0.0037 J-0.0034
X0.5647 Y6.9044 Z0.0029 I0.0037 J0.0034
X0.5573 Y6.8977 Z0.0024 I-0.0037 J-0.0034
X0.5647 Y6.9044 Z0.0018 I0.0037 J0.0034
X0.5573 Y6.8977 Z0.0013 I-0.0037 J-0.0034
X0.5647 Y6.9044 Z0.0007 I0.0037 J0.0034
X0.5573 Y6.8977 Z0.0002 I-0.0037 J-0.0034
X0.5647 Y6.9044 Z-0.0004 I0.0037 J0.0034
X0.5573 Y6.8977 Z-0.0009 I-0.0037 J-0.0034
X0.5647 Y6.9044 Z-0.0015 I0.0037 J0.0034
X0.5573 Y6.8977 Z-0.002 I-0.0037 J-0.0034
X0.5647 Y6.9044 Z-0.0026 I0.0037 J0.0034
X0.5573 Y6.8977 Z-0.0031 I-0.0037 J-0.0034
X0.5647 Y6.9044 Z-0.0037 I0.0037 J0.0034
X0.5573 Y6.8977 Z-0.0042 I-0.0037 J-0.0034
X0.5647 Y6.9044 Z-0.0048 I0.0037 J0.0034
X0.5573 Y6.8977 Z-0.0053 I-0.0037 J-0.0034
X0.5647 Y6.9044 Z-0.0059 I0.0037 J0.0034
X0.5573 Y6.8977 Z-0.0064 I-0.0037 J-0.0034
X0.5647 Y6.9044 Z-0.007 I0.0037 J0.0034
X0.5573 Y6.8977 Z-0.0075 I-0.0037 J-0.0034
X0.5647 Y6.9044 Z-0.0081 I0.0037 J0.0034
X0.5573 Y6.8977 Z-0.0086 I-0.0037 J-0.0034
X0.5647 Y6.9044 Z-0.0092 I0.0037 J0.0034
X0.5573 Y6.8977 Z-0.0097 I-0.0037 J-0.0034
X0.5647 Y6.9044 Z-0.0103 I0.0037 J0.0034
X0.5573 Y6.8977 Z-0.0108 I-0.0037 J-0.0034
X0.5647 Y6.9044 Z-0.0114 I0.0037 J0.0034
X0.5573 Y6.8977 Z-0.0119 I-0.0037 J-0.0034
X0.5647 Y6.9044 Z-0.0124 I0.0037 J0.0034
X0.5573 Y6.8977 Z-0.013 I-0.0037 J-0.0034
X0.5647 Y6.9044 Z-0.0135 I0.0037 J0.0034
X0.5573 Y6.8977 Z-0.0141 I-0.0037 J-0.0034
X0.5647 Y6.9044 Z-0.0146 I0.0037 J0.0034
X0.5573 Y6.8977 Z-0.0152 I-0.0037 J-0.0034
X0.5647 Y6.9044 Z-0.0157 I0.0037 J0.0034
X0.5573 Y6.8977 Z-0.0163 I-0.0037 J-0.0034
X0.5647 Y6.9044 Z-0.0168 I0.0037 J0.0034
X0.5573 Y6.8977 Z-0.0174 I-0.0037 J-0.0034
X0.5647 Y6.9044 Z-0.0179 I0.0037 J0.0034
X0.5573 Y6.8977 Z-0.0185 I-0.0037 J-0.0034
X0.5647 Y6.9044 Z-0.019 I0.0037 J0.0034
X0.5573 Y6.8977 Z-0.0196 I-0.0037 J-0.0034
X0.566 Y6.9011 Z-0.02 I0.0037 J0.0034
X0.514 I-0.026 J0. F30.
X0.566 I0.026 J0.
X0.514 Z-0.0229 I-0.026 J0. F20.
X0.566 Z-0.0257 I0.026 J0.
X0.514 Z-0.0286 I-0.026 J0.
X0.566 Z-0.0314 I0.026 J0.
X0.514 Z-0.0343 I-0.026 J0.
X0.566 Z-0.0371 I0.026 J0.
X0.5395 Y6.9271 Z-0.0386 I-0.026 J0.
X0.514 Y6.9001 Z-0.04 I0.0005 J-0.026
X0.566 Y6.902 I0.026 J0.001 F30.
X0.514 Y6.9001 I-0.026 J-0.001
X0.566 Y6.902 Z-0.0429 I0.026 J0.001 F20.
X0.514 Y6.9001 Z-0.0457 I-0.026 J-0.001
X0.566 Y6.902 Z-0.0486 I0.026 J0.001
X0.514 Y6.9001 Z-0.0514 I-0.026 J-0.001
X0.566 Y6.902 Z-0.0543 I0.026 J0.001
X0.514 Y6.9001 Z-0.0571 I-0.026 J-0.001
X0.5414 Y6.8751 Z-0.0586 I0.026 J0.001
X0.5659 Y6.903 Z-0.06 I-0.0014 J0.026
X0.5141 Y6.8992 I-0.0259 J-0.0019 F30.
X0.5659 Y6.903 I0.0259 J0.0019
X0.5141 Y6.8992 Z-0.0629 I-0.0259 J-0.0019 F20.
X0.5659 Y6.903 Z-0.0657 I0.0259 J0.0019
X0.5141 Y6.8992 Z-0.0686 I-0.0259 J-0.0019
X0.5659 Y6.903 Z-0.0714 I0.0259 J0.0019
X0.5141 Y6.8992 Z-0.0743 I-0.0259 J-0.0019
X0.5659 Y6.903 Z-0.0771 I0.0259 J0.0019
X0.5376 Y6.927 Z-0.0786 I-0.0259 J-0.0019
X0.5142 Y6.8982 Z-0.08 I0.0024 J-0.0259
X0.5658 Y6.9039 I0.0258 J0.0029 F30.
X0.5142 Y6.8982 I-0.0258 J-0.0029
X0.5658 Y6.9039 Z-0.0829 I0.0258 J0.0029 F20.
X0.5142 Y6.8982 Z-0.0857 I-0.0258 J-0.0029
X0.5658 Y6.9039 Z-0.0886 I0.0258 J0.0029
X0.5142 Y6.8982 Z-0.0914 I-0.0258 J-0.0029
X0.5658 Y6.9039 Z-0.0943 I0.0258 J0.0029
X0.5142 Y6.8982 Z-0.0971 I-0.0258 J-0.0029
X0.5433 Y6.8753 Z-0.0986 I0.0258 J0.0029
X0.5657 Y6.9049 Z-0.1 I-0.0033 J0.0258
X0.5143 Y6.8973 I-0.0257 J-0.0038 F30.
X0.5657 Y6.9049 I0.0257 J0.0038
X0.5143 Y6.8973 Z-0.1029 I-0.0257 J-0.0038 F20.
X0.5657 Y6.9049 Z-0.1057 I0.0257 J0.0038
X0.5143 Y6.8973 Z-0.1086 I-0.0257 J-0.0038
X0.5657 Y6.9049 Z-0.1114 I0.0257 J0.0038
X0.5143 Y6.8973 Z-0.1143 I-0.0257 J-0.0038
X0.5657 Y6.9049 Z-0.1171 I0.0257 J0.0038
X0.5357 Y6.9267 Z-0.1186 I-0.0257 J-0.0038
X0.5144 Y6.8963 Z-0.12 I0.0043 J-0.0256
X0.5656 Y6.9058 I0.0256 J0.0047 F30.
X0.5144 Y6.8963 I-0.0256 J-0.0047
X0.5656 Y6.9058 Z-0.1229 I0.0256 J0.0047 F20.
X0.5144 Y6.8963 Z-0.1257 I-0.0256 J-0.0047
X0.5656 Y6.9058 Z-0.1286 I0.0256 J0.0047
X0.5144 Y6.8963 Z-0.1314 I-0.0256 J-0.0047
X0.5656 Y6.9058 Z-0.1343 I0.0256 J0.0047
X0.5144 Y6.8963 Z-0.1371 I-0.0256 J-0.0047
X0.5452 Y6.8756 Z-0.1386 I0.0256 J0.0047
X0.5654 Y6.9067 Z-0.14 I-0.0052 J0.0255
X0.5146 Y6.8954 I-0.0254 J-0.0057 F30.
X0.5654 Y6.9067 I0.0254 J0.0057
G1 X0.5647 Y6.9089 Z-0.1396
X0.5636 Y6.9109 Z-0.1391
X0.5624 Y6.9123 Z-0.1378
X0.5609 Y6.9136 Z-0.1365
X0.5587 Y6.9149 Z-0.1327
X0.5579 Y6.9153 Z-0.1282
G0 Z0.2
X1.1291 Y5.5101
G1 Z0.1118 F30.
X1.1283 Y5.51 Z0.1075 F20.
X1.1272 Y5.5097 Z0.1057
X1.1263 Y5.5091 Z0.1039
X1.1254 Y5.5082 Z0.1029
X1.1247 Y5.5071 Z0.102
X1.1243 Y5.5059 Z0.1011
Y5.5044 Z0.1007
X1.1247 Y5.503 Z0.1004
X1.1256 Y5.5017 Z0.1
G3 X1.133 Y5.5084 Z0.0995 I0.0037 J0.0034
X1.1256 Y5.5017 Z0.0989 I-0.0037 J-0.0034
X1.133 Y5.5084 Z0.0984 I0.0037 J0.0034
X1.1256 Y5.5017 Z0.0978 I-0.0037 J-0.0034
X1.133 Y5.5084 Z0.0973 I0.0037 J0.0034
X1.1256 Y5.5017 Z0.0967 I-0.0037 J-0.0034
X1.133 Y5.5084 Z0.0962 I0.0037 J0.0034
X1.1256 Y5.5017 Z0.0956 I-0.0037 J-0.0034
X1.133 Y5.5084 Z0.0951 I0.0037 J0.0034
X1.1256 Y5.5017 Z0.0945 I-0.0037 J-0.0034
X1.133 Y5.5084 Z0.094 I0.0037 J0.0034
X1.1256 Y5.5017 Z0.0934 I-0.0037 J-0.0034
X1.133 Y5.5084 Z0.0929 I0.0037 J0.0034
X1.1256 Y5.5017 Z0.0923 I-0.0037 J-0.0034
X1.133 Y5.5084 Z0.0918 I0.0037 J0.0034
X1.1256 Y5.5017 Z0.0912 I-0.0037 J-0.0034
X1.133 Y5.5084 Z0.0907 I0.0037 J0.0034
X1.1256 Y5.5017 Z0.0901 I-0.0037 J-0.0034
X1.133 Y5.5084 Z0.0896 I0.0037 J0.0034
X1.1256 Y5.5017 Z0.089 I-0.0037 J-0.0034
X1.133 Y5.5084 Z0.0885 I0.0037 J0.0034
X1.1256 Y5.5017 Z0.0879 I-0.0037 J-0.0034
X1.133 Y5.5084 Z0.0874 I0.0037 J0.0034
X1.1256 Y5.5017 Z0.0868 I-0.0037 J-0.0034
X1.133 Y5.5084 Z0.0863 I0.0037 J0.0034
X1.1256 Y5.5017 Z0.0857 I-0.0037 J-0.0034
X1.133 Y5.5084 Z0.0852 I0.0037 J0.0034
X1.1256 Y5.5017 Z0.0846 I-0.0037 J-0.0034
X1.133 Y5.5084 Z0.0841 I0.0037 J0.0034
X1.1256 Y5.5017 Z0.0835 I-0.0037 J-0.0034
X1.133 Y5.5084 Z0.083 I0.0037 J0.0034
X1.1256 Y5.5017 Z0.0824 I-0.0037 J-0.0034
X1.133 Y5.5084 Z0.0819 I0.0037 J0.0034
X1.1256 Y5.5017 Z0.0813 I-0.0037 J-0.0034
X1.133 Y5.5084 Z0.0808 I0.0037 J0.0034
X1.1256 Y5.5017 Z0.0803 I-0.0037 J-0.0034
X1.133 Y5.5084 Z0.0797 I0.0037 J0.0034
X1.1256 Y5.5017 Z0.0792 I-0.0037 J-0.0034
X1.133 Y5.5084 Z0.0786 I0.0037 J0.0034
X1.1256 Y5.5017 Z0.0781 I-0.0037 J-0.0034
X1.133 Y5.5084 Z0.0775 I0.0037 J0.0034
X1.1256 Y5.5017 Z0.077 I-0.0037 J-0.0034
X1.133 Y5.5084 Z0.0764 I0.0037 J0.0034
X1.1256 Y5.5017 Z0.0759 I-0.0037 J-0.0034
X1.133 Y5.5084 Z0.0753 I0.0037 J0.0034
X1.1256 Y5.5017 Z0.0748 I-0.0037 J-0.0034
X1.133 Y5.5084 Z0.0742 I0.0037 J0.0034
X1.1256 Y5.5017 Z0.0737 I-0.0037 J-0.0034
X1.133 Y5.5084 Z0.0731 I0.0037 J0.0034
X1.1256 Y5.5017 Z0.0726 I-0.0037 J-0.0034
X1.133 Y5.5084 Z0.072 I0.0037 J0.0034
X1.1256 Y5.5017 Z0.0715 I-0.0037 J-0.0034
X1.133 Y5.5084 Z0.0709 I0.0037 J0.0034
X1.1256 Y5.5017 Z0.0704 I-0.0037 J-0.0034
X1.133 Y5.5084 Z0.0698 I0.0037 J0.0034
X1.1256 Y5.5017 Z0.0693 I-0.0037 J-0.0034
X1.133 Y5.5084 Z0.0687 I0.0037 J0.0034
X1.1256 Y5.5017 Z0.0682 I-0.0037 J-0.0034
X1.133 Y5.5084 Z0.0676 I0.0037 J0.0034
X1.1256 Y5.5017 Z0.0671 I-0.0037 J-0.0034
X1.133 Y5.5084 Z0.0665 I0.0037 J0.0034
X1.1256 Y5.5017 Z0.066 I-0.0037 J-0.0034
X1.133 Y5.5084 Z0.0654 I0.0037 J0.0034
X1.1256 Y5.5017 Z0.0649 I-0.0037 J-0.0034
X1.133 Y5.5084 Z0.0643 I0.0037 J0.0034
X1.1256 Y5.5017 Z0.0638 I-0.0037 J-0.0034
X1.133 Y5.5084 Z0.0632 I0.0037 J0.0034
X1.1256 Y5.5017 Z0.0627 I-0.0037 J-0.0034
X1.133 Y5.5084 Z0.0622 I0.0037 J0.0034
X1.1256 Y5.5017 Z0.0616 I-0.0037 J-0.0034
X1.133 Y5.5084 Z0.0611 I0.0037 J0.0034
X1.1256 Y5.5017 Z0.0605 I-0.0037 J-0.0034
X1.133 Y5.5084 Z0.06 I0.0037 J0.0034
X1.1256 Y5.5017 Z0.0594 I-0.0037 J-0.0034
X1.133 Y5.5084 Z0.0589 I0.0037 J0.0034
X1.1256 Y5.5017 Z0.0583 I-0.0037 J-0.0034
X1.133 Y5.5084 Z0.0578 I0.0037 J0.0034
X1.1256 Y5.5017 Z0.0572 I-0.0037 J-0.0034
X1.133 Y5.5084 Z0.0567 I0.0037 J0.0034
X1.1256 Y5.5017 Z0.0561 I-0.0037 J-0.0034
X1.133 Y5.5084 Z0.0556 I0.0037 J0.0034
X1.1256 Y5.5017 Z0.055 I-0.0037 J-0.0034
X1.133 Y5.5084 Z0.0545 I0.0037 J0.0034
X1.1256 Y5.5017 Z0.0539 I-0.0037 J-0.0034
X1.133 Y5.5084 Z0.0534 I0.0037 J0.0034
X1.1256 Y5.5017 Z0.0528 I-0.0037 J-0.0034
X1.133 Y5.5084 Z0.0523 I0.0037 J0.0034
X1.1256 Y5.5017 Z0.0517 I-0.0037 J-0.0034
X1.133 Y5.5084 Z0.0512 I0.0037 J0.0034
X1.1256 Y5.5017 Z0.0506 I-0.0037 J-0.0034
X1.133 Y5.5084 Z0.0501 I0.0037 J0.0034
X1.1256 Y5.5017 Z0.0495 I-0.0037 J-0.0034
X1.133 Y5.5084 Z0.049 I0.0037 J0.0034
X1.1256 Y5.5017 Z0.0484 I-0.0037 J-0.0034
X1.133 Y5.5084 Z0.0479 I0.0037 J0.0034
X1.1256 Y5.5017 Z0.0473 I-0.0037 J-0.0034
X1.133 Y5.5084 Z0.0468 I0.0037 J0.0034
X1.1256 Y5.5017 Z0.0462 I-0.0037 J-0.0034
X1.133 Y5.5084 Z0.0457 I0.0037 J0.0034
X1.1256 Y5.5017 Z0.0451 I-0.0037 J-0.0034
X1.133 Y5.5084 Z0.0446 I0.0037 J0.0034
X1.1256 Y5.5017 Z0.044 I-0.0037 J-0.0034
X1.133 Y5.5084 Z0.0435 I0.0037 J0.0034
X1.1256 Y5.5017 Z0.043 I-0.0037 J-0.0034
X1.133 Y5.5084 Z0.0424 I0.0037 J0.0034
X1.1256 Y5.5017 Z0.0419 I-0.0037 J-0.0034
X1.133 Y5.5084 Z0.0413 I0.0037 J0.0034
X1.1256 Y5.5017 Z0.0408 I-0.0037 J-0.0034
X1.133 Y5.5084 Z0.0402 I0.0037 J0.0034
X1.1256 Y5.5017 Z0.0397 I-0.0037 J-0.0034
X1.133 Y5.5084 Z0.0391 I0.0037 J0.0034
X1.1256 Y5.5017 Z0.0386 I-0.0037 J-0.0034
X1.133 Y5.5084 Z0.038 I0.0037 J0.0034
X1.1256 Y5.5017 Z0.0375 I-0.0037 J-0.0034
X1.133 Y5.5084 Z0.0369 I0.0037 J0.0034
X1.1256 Y5.5017 Z0.0364 I-0.0037 J-0.0034
X1.133 Y5.5084 Z0.0358 I0.0037 J0.0034
X1.1256 Y5.5017 Z0.0353 I-0.0037 J-0.0034
X1.133 Y5.5084 Z0.0347 I0.0037 J0.0034
X1.1256 Y5.5017 Z0.0342 I-0.0037 J-0.0034
X1.133 Y5.5084 Z0.0336 I0.0037 J0.0034
X1.1256 Y5.5017 Z0.0331 I-0.0037 J-0.0034
X1.133 Y5.5084 Z0.0325 I0.0037 J0.0034
X1.1256 Y5.5017 Z0.032 I-0.0037 J-0.0034
X1.133 Y5.5084 Z0.0314 I0.0037 J0.0034
X1.1256 Y5.5017 Z0.0309 I-0.0037 J-0.0034
X1.133 Y5.5084 Z0.0303 I0.0037 J0.0034
X1.1256 Y5.5017 Z0.0298 I-0.0037 J-0.0034
X1.133 Y5.5084 Z0.0292 I0.0037 J0.0034
X1.1256 Y5.5017 Z0.0287 I-0.0037 J-0.0034
X1.133 Y5.5084 Z0.0281 I0.0037 J0.0034
X1.1256 Y5.5017 Z0.0276 I-0.0037 J-0.0034
X1.133 Y5.5084 Z0.027 I0.0037 J0.0034
X1.1256 Y5.5017 Z0.0265 I-0.0037 J-0.0034
X1.133 Y5.5084 Z0.0259 I0.0037 J0.0034
X1.1256 Y5.5017 Z0.0254 I-0.0037 J-0.0034
X1.133 Y5.5084 Z0.0249 I0.0037 J0.0034
X1.1256 Y5.5017 Z0.0243 I-0.0037 J-0.0034
X1.133 Y5.5084 Z0.0238 I0.0037 J0.0034
X1.1256 Y5.5017 Z0.0232 I-0.0037 J-0.0034
X1.133 Y5.5084 Z0.0227 I0.0037 J0.0034
X1.1256 Y5.5017 Z0.0221 I-0.0037 J-0.0034
X1.133 Y5.5084 Z0.0216 I0.0037 J0.0034
X1.1256 Y5.5017 Z0.021 I-0.0037 J-0.0034
X1.133 Y5.5084 Z0.0205 I0.0037 J0.0034
X1.1256 Y5.5017 Z0.0199 I-0.0037 J-0.0034
X1.133 Y5.5084 Z0.0194 I0.0037 J0.0034
X1.1256 Y5.5017 Z0.0188 I-0.0037 J-0.0034
X1.133 Y5.5084 Z0.0183 I0.0037 J0.0034
X1.1256 Y5.5017 Z0.0177 I-0.0037 J-0.0034
X1.133 Y5.5084 Z0.0172 I0.0037 J0.0034
X1.1256 Y5.5017 Z0.0166 I-0.0037 J-0.0034
X1.133 Y5.5084 Z0.0161 I0.0037 J0.0034
X1.1256 Y5.5017 Z0.0155 I-0.0037 J-0.0034
X1.133 Y5.5084 Z0.015 I0.0037 J0.0034
X1.1256 Y5.5017 Z0.0144 I-0.0037 J-0.0034
X1.133 Y5.5084 Z0.0139 I0.0037 J0.0034
X1.1256 Y5.5017 Z0.0133 I-0.0037 J-0.0034
X1.133 Y5.5084 Z0.0128 I0.0037 J0.0034
X1.1256 Y5.5017 Z0.0122 I-0.0037 J-0.0034
X1.133 Y5.5084 Z0.0117 I0.0037 J0.0034
X1.1256 Y5.5017 Z0.0111 I-0.0037 J-0.0034
X1.133 Y5.5084 Z0.0106 I0.0037 J0.0034
X1.1256 Y5.5017 Z0.01 I-0.0037 J-0.0034
X1.133 Y5.5084 Z0.0095 I0.0037 J0.0034
X1.1256 Y5.5017 Z0.0089 I-0.0037 J-0.0034
X1.133 Y5.5084 Z0.0084 I0.0037 J0.0034
X1.1256 Y5.5017 Z0.0078 I-0.0037 J-0.0034
X1.133 Y5.5084 Z0.0073 I0.0037 J0.0034
X1.1256 Y5.5017 Z0.0067 I-0.0037 J-0.0034
X1.133 Y5.5084 Z0.0062 I0.0037 J0.0034
X1.1256 Y5.5017 Z0.0057 I-0.0037 J-0.0034
X1.133 Y5.5084 Z0.0051 I0.0037 J0.0034
X1.1256 Y5.5017 Z0.0046 I-0.0037 J-0.0034
X1.133 Y5.5084 Z0.004 I0.0037 J0.0034
X1.1256 Y5.5017 Z0.0035 I-0.0037 J-0.0034
X1.133 Y5.5084 Z0.0029 I0.0037 J0.0034
X1.1256 Y5.5017 Z0.0024 I-0.0037 J-0.0034
X1.133 Y5.5084 Z0.0018 I0.0037 J0.0034
X1.1256 Y5.5017 Z0.0013 I-0.0037 J-0.0034
X1.133 Y5.5084 Z0.0007 I0.0037 J0.0034
X1.1256 Y5.5017 Z0.0002 I-0.0037 J-0.0034
X1.133 Y5.5084 Z-0.0004 I0.0037 J0.0034
X1.1256 Y5.5017 Z-0.0009 I-0.0037 J-0.0034
X1.133 Y5.5084 Z-0.0015 I0.0037 J0.0034
X1.1256 Y5.5017 Z-0.002 I-0.0037 J-0.0034
X1.133 Y5.5084 Z-0.0026 I0.0037 J0.0034
X1.1256 Y5.5017 Z-0.0031 I-0.0037 J-0.0034
X1.133 Y5.5084 Z-0.0037 I0.0037 J0.0034
X1.1256 Y5.5017 Z-0.0042 I-0.0037 J-0.0034
X1.133 Y5.5084 Z-0.0048 I0.0037 J0.0034
X1.1256 Y5.5017 Z-0.0053 I-0.0037 J-0.0034
X1.133 Y5.5084 Z-0.0059 I0.0037 J0.0034
X1.1256 Y5.5017 Z-0.0064 I-0.0037 J-0.0034
X1.133 Y5.5084 Z-0.007 I0.0037 J0.0034
X1.1256 Y5.5017 Z-0.0075 I-0.0037 J-0.0034
X1.133 Y5.5084 Z-0.0081 I0.0037 J0.0034
X1.1256 Y5.5017 Z-0.0086 I-0.0037 J-0.0034
X1.133 Y5.5084 Z-0.0092 I0.0037 J0.0034
X1.1256 Y5.5017 Z-0.0097 I-0.0037 J-0.0034
X1.133 Y5.5084 Z-0.0103 I0.0037 J0.0034
X1.1256 Y5.5017 Z-0.0108 I-0.0037 J-0.0034
X1.133 Y5.5084 Z-0.0114 I0.0037 J0.0034
X1.1256 Y5.5017 Z-0.0119 I-0.0037 J-0.0034
X1.133 Y5.5084 Z-0.0124 I0.0037 J0.0034
X1.1256 Y5.5017 Z-0.013 I-0.0037 J-0.0034
X1.133 Y5.5084 Z-0.0135 I0.0037 J0.0034
X1.1256 Y5.5017 Z-0.0141 I-0.0037 J-0.0034
X1.133 Y5.5084 Z-0.0146 I0.0037 J0.0034
X1.1256 Y5.5017 Z-0.0152 I-0.0037 J-0.0034
X1.133 Y5.5084 Z-0.0157 I0.0037 J0.0034
X1.1256 Y5.5017 Z-0.0163 I-0.0037 J-0.0034
X1.133 Y5.5084 Z-0.0168 I0.0037 J0.0034
X1.1256 Y5.5017 Z-0.0174 I-0.0037 J-0.0034
X1.133 Y5.5084 Z-0.0179 I0.0037 J0.0034
X1.1256 Y5.5017 Z-0.0185 I-0.0037 J-0.0034
X1.133 Y5.5084 Z-0.019 I0.0037 J0.0034
X1.1256 Y5.5017 Z-0.0196 I-0.0037 J-0.0034
X1.1343 Y5.5051 Z-0.02 I0.0037 J0.0034
X1.0823 I-0.026 J0. F30.
X1.1343 I0.026 J0.
X1.0823 Z-0.0229 I-0.026 J0. F20.
X1.1343 Z-0.0257 I0.026 J0.
X1.0823 Z-0.0286 I-0.026 J0.
X1.1343 Z-0.0314 I0.026 J0.
X1.0823 Z-0.0343 I-0.026 J0.
X1.1343 Z-0.0371 I0.026 J0.
X1.1078 Y5.5311 Z-0.0386 I-0.026 J0.
X1.0823 Y5.5041 Z-0.04 I0.0005 J-0.026
X1.1342 Y5.506 I0.026 J0.001 F30.
X1.0823 Y5.5041 I-0.026 J-0.001
X1.1342 Y5.506 Z-0.0429 I0.026 J0.001 F20.
X1.0823 Y5.5041 Z-0.0457 I-0.026 J-0.001
X1.1342 Y5.506 Z-0.0486 I0.026 J0.001
X1.0823 Y5.5041 Z-0.0514 I-0.026 J-0.001
X1.1342 Y5.506 Z-0.0543 I0.026 J0.001
X1.0823 Y5.5041 Z-0.0571 I-0.026 J-0.001
X1.1097 Y5.4791 Z-0.0586 I0.026 J0.001
X1.1342 Y5.507 Z-0.06 I-0.0014 J0.026
X1.0823 Y5.5032 I-0.0259 J-0.0019 F30.
X1.1342 Y5.507 I0.0259 J0.0019
X1.0823 Y5.5032 Z-0.0629 I-0.0259 J-0.0019 F20.
X1.1342 Y5.507 Z-0.0657 I0.0259 J0.0019
X1.0823 Y5.5032 Z-0.0686 I-0.0259 J-0.0019
X1.1342 Y5.507 Z-0.0714 I0.0259 J0.0019
X1.0823 Y5.5032 Z-0.0743 I-0.0259 J-0.0019
X1.1342 Y5.507 Z-0.0771 I0.0259 J0.0019
X1.1059 Y5.531 Z-0.0786 I-0.0259 J-0.0019
X1.0824 Y5.5022 Z-0.08 I0.0024 J-0.0259
X1.1341 Y5.5079 I0.0258 J0.0029 F30.
X1.0824 Y5.5022 I-0.0258 J-0.0029
X1.1341 Y5.5079 Z-0.0829 I0.0258 J0.0029 F20.
X1.0824 Y5.5022 Z-0.0857 I-0.0258 J-0.0029
X1.1341 Y5.5079 Z-0.0886 I0.0258 J0.0029
X1.0824 Y5.5022 Z-0.0914 I-0.0258 J-0.0029
X1.1341 Y5.5079 Z-0.0943 I0.0258 J0.0029
X1.0824 Y5.5022 Z-0.0971 I-0.0258 J-0.0029
X1.1116 Y5.4793 Z-0.0986 I0.0258 J0.0029
X1.134 Y5.5089 Z-0.1 I-0.0033 J0.0258
X1.0825 Y5.5013 I-0.0257 J-0.0038 F30.
X1.134 Y5.5089 I0.0257 J0.0038
X1.0825 Y5.5013 Z-0.1029 I-0.0257 J-0.0038 F20.
X1.134 Y5.5089 Z-0.1057 I0.0257 J0.0038
X1.0825 Y5.5013 Z-0.1086 I-0.0257 J-0.0038
X1.134 Y5.5089 Z-0.1114 I0.0257 J0.0038
X1.0825 Y5.5013 Z-0.1143 I-0.0257 J-0.0038
X1.134 Y5.5089 Z-0.1171 I0.0257 J0.0038
X1.104 Y5.5307 Z-0.1186 I-0.0257 J-0.0038
X1.0827 Y5.5003 Z-0.12 I0.0043 J-0.0256
X1.1338 Y5.5098 I0.0256 J0.0047 F30.
X1.0827 Y5.5003 I-0.0256 J-0.0047
X1.1338 Y5.5098 Z-0.1229 I0.0256 J0.0047 F20.
X1.0827 Y5.5003 Z-0.1257 I-0.0256 J-0.0047
X1.1338 Y5.5098 Z-0.1286 I0.0256 J0.0047
X1.0827 Y5.5003 Z-0.1314 I-0.0256 J-0.0047
X1.1338 Y5.5098 Z-0.1343 I0.0256 J0.0047
X1.0827 Y5.5003 Z-0.1371 I-0.0256 J-0.0047
X1.1135 Y5.4796 Z-0.1386 I0.0256 J0.0047
X1.1336 Y5.5108 Z-0.14 I-0.0052 J0.0255
X1.0829 Y5.4994 I-0.0254 J-0.0057 F30.
X1.1336 Y5.5108 I0.0254 J0.0057
G1 X1.1329 Y5.5129 Z-0.1396
X1.1318 Y5.5149 Z-0.1391
X1.1306 Y5.5164 Z-0.1378
X1.1292 Y5.5176 Z-0.1365
X1.127 Y5.5189 Z-0.1327
X1.1262 Y5.5193 Z-0.1282
G0 Z0.2
X1.8013 Y5.2369
G1 Z0.1118 F30.
X1.8014 Y5.2361 Z0.1075 F20.
X1.8017 Y5.235 Z0.1057
X1.8023 Y5.2341 Z0.1039
X1.8031 Y5.2332 Z0.1029
X1.8042 Y5.2325 Z0.102
X1.8054 Y5.2321 Z0.1011
X1.8069 Z0.1007
X1.8084 Y5.2325 Z0.1004
X1.8096 Y5.2334 Z0.1
G3 X1.8029 Y5.2408 Z0.0995 I-0.0034 J0.0037
X1.8096 Y5.2334 Z0.0989 I0.0034 J-0.0037
X1.8029 Y5.2408 Z0.0984 I-0.0034 J0.0037
X1.8096 Y5.2334 Z0.0978 I0.0034 J-0.0037
X1.8029 Y5.2408 Z0.0973 I-0.0034 J0.0037
X1.8096 Y5.2334 Z0.0967 I0.0034 J-0.0037
X1.8029 Y5.2408 Z0.0962 I-0.0034 J0.0037
X1.8096 Y5.2334 Z0.0956 I0.0034 J-0.0037
X1.8029 Y5.2408 Z0.0951 I-0.0034 J0.0037
X1.8096 Y5.2334 Z0.0945 I0.0034 J-0.0037
X1.8029 Y5.2408 Z0.094 I-0.0034 J0.0037
X1.8096 Y5.2334 Z0.0934 I0.0034 J-0.0037
X1.8029 Y5.2408 Z0.0929 I-0.0034 J0.0037
X1.8096 Y5.2334 Z0.0923 I0.0034 J-0.0037
X1.8029 Y5.2408 Z0.0918 I-0.0034 J0.0037
X1.8096 Y5.2334 Z0.0912 I0.0034 J-0.0037
X1.8029 Y5.2408 Z0.0907 I-0.0034 J0.0037
X1.8096 Y5.2334 Z0.0901 I0.0034 J-0.0037
X1.8029 Y5.2408 Z0.0896 I-0.0034 J0.0037
X1.8096 Y5.2334 Z0.089 I0.0034 J-0.0037
X1.8029 Y5.2408 Z0.0885 I-0.0034 J0.0037
X1.8096 Y5.2334 Z0.0879 I0.0034 J-0.0037
X1.8029 Y5.2408 Z0.0874 I-0.0034 J0.0037
X1.8096 Y5.2334 Z0.0868 I0.0034 J-0.0037
X1.8029 Y5.2408 Z0.0863 I-0.0034 J0.0037
X1.8096 Y5.2334 Z0.0857 I0.0034 J-0.0037
X1.8029 Y5.2408 Z0.0852 I-0.0034 J0.0037
X1.8096 Y5.2334 Z0.0846 I0.0034 J-0.0037
X1.8029 Y5.2408 Z0.0841 I-0.0034 J0.0037
X1.8096 Y5.2334 Z0.0835 I0.0034 J-0.0037
X1.8029 Y5.2408 Z0.083 I-0.0034 J0.0037
X1.8096 Y5.2334 Z0.0824 I0.0034 J-0.0037
X1.8029 Y5.2408 Z0.0819 I-0.0034 J0.0037
X1.8096 Y5.2334 Z0.0813 I0.0034 J-0.0037
X1.8029 Y5.2408 Z0.0808 I-0.0034 J0.0037
X1.8096 Y5.2334 Z0.0803 I0.0034 J-0.0037
X1.8029 Y5.2408 Z0.0797 I-0.0034 J0.0037
X1.8096 Y5.2334 Z0.0792 I0.0034 J-0.0037
X1.8029 Y5.2408 Z0.0786 I-0.0034 J0.0037
X1.8096 Y5.2334 Z0.0781 I0.0034 J-0.0037
X1.8029 Y5.2408 Z0.0775 I-0.0034 J0.0037
X1.8096 Y5.2334 Z0.077 I0.0034 J-0.0037
X1.8029 Y5.2408 Z0.0764 I-0.0034 J0.0037
X1.8096 Y5.2334 Z0.0759 I0.0034 J-0.0037
X1.8029 Y5.2408 Z0.0753 I-0.0034 J0.0037
X1.8096 Y5.2334 Z0.0748 I0.0034 J-0.0037
X1.8029 Y5.2408 Z0.0742 I-0.0034 J0.0037
X1.8096 Y5.2334 Z0.0737 I0.0034 J-0.0037
X1.8029 Y5.2408 Z0.0731 I-0.0034 J0.0037
X1.8096 Y5.2334 Z0.0726 I0.0034 J-0.0037
X1.8029 Y5.2408 Z0.072 I-0.0034 J0.0037
X1.8096 Y5.2334 Z0.0715 I0.0034 J-0.0037
X1.8029 Y5.2408 Z0.0709 I-0.0034 J0.0037
X1.8096 Y5.2334 Z0.0704 I0.0034 J-0.0037
X1.8029 Y5.2408 Z0.0698 I-0.0034 J0.0037
X1.8096 Y5.2334 Z0.0693 I0.0034 J-0.0037
X1.8029 Y5.2408 Z0.0687 I-0.0034 J0.0037
X1.8096 Y5.2334 Z0.0682 I0.0034 J-0.0037
X1.8029 Y5.2408 Z0.0676 I-0.0034 J0.0037
X1.8096 Y5.2334 Z0.0671 I0.0034 J-0.0037
X1.8029 Y5.2408 Z0.0665 I-0.0034 J0.0037
X1.8096 Y5.2334 Z0.066 I0.0034 J-0.0037
X1.8029 Y5.2408 Z0.0654 I-0.0034 J0.0037
X1.8096 Y5.2334 Z0.0649 I0.0034 J-0.0037
X1.8029 Y5.2408 Z0.0643 I-0.0034 J0.0037
X1.8096 Y5.2334 Z0.0638 I0.0034 J-0.0037
X1.8029 Y5.2408 Z0.0632 I-0.0034 J0.0037
X1.8096 Y5.2334 Z0.0627 I0.0034 J-0.0037
X1.8029 Y5.2408 Z0.0622 I-0.0034 J0.0037
X1.8096 Y5.2334 Z0.0616 I0.0034 J-0.0037
X1.8029 Y5.2408 Z0.0611 I-0.0034 J0.0037
X1.8096 Y5.2334 Z0.0605 I0.0034 J-0.0037
X1.8029 Y5.2408 Z0.06 I-0.0034 J0.0037
X1.8096 Y5.2334 Z0.0594 I0.0034 J-0.0037
X1.8029 Y5.2408 Z0.0589 I-0.0034 J0.0037
X1.8096 Y5.2334 Z0.0583 I0.0034 J-0.0037
X1.8029 Y5.2408 Z0.0578 I-0.0034 J0.0037
X1.8096 Y5.2334 Z0.0572 I0.0034 J-0.0037
X1.8029 Y5.2408 Z0.0567 I-0.0034 J0.0037
X1.8096 Y5.2334 Z0.0561 I0.0034 J-0.0037
X1.8029 Y5.2408 Z0.0556 I-0.0034 J0.0037
X1.8096 Y5.2334 Z0.055 I0.0034 J-0.0037
X1.8029 Y5.2408 Z0.0545 I-0.0034 J0.0037
X1.8096 Y5.2334 Z0.0539 I0.0034 J-0.0037
X1.8029 Y5.2408 Z0.0534 I-0.0034 J0.0037
X1.8096 Y5.2334 Z0.0528 I0.0034 J-0.0037
X1.8029 Y5.2408 Z0.0523 I-0.0034 J0.0037
X1.8096 Y5.2334 Z0.0517 I0.0034 J-0.0037
X1.8029 Y5.2408 Z0.0512 I-0.0034 J0.0037
X1.8096 Y5.2334 Z0.0506 I0.0034 J-0.0037
X1.8029 Y5.2408 Z0.0501 I-0.0034 J0.0037
X1.8096 Y5.2334 Z0.0495 I0.0034 J-0.0037
X1.8029 Y5.2408 Z0.049 I-0.0034 J0.0037
X1.8096 Y5.2334 Z0.0484 I0.0034 J-0.0037
X1.8029 Y5.2408 Z0.0479 I-0.0034 J0.0037
X1.8096 Y5.2334 Z0.0473 I0.0034 J-0.0037
X1.8029 Y5.2408 Z0.0468 I-0.0034 J0.0037
X1.8096 Y5.2334 Z0.0462 I0.0034 J-0.0037
X1.8029 Y5.2408 Z0.0457 I-0.0034 J0.0037
X1.8096 Y5.2334 Z0.0451 I0.0034 J-0.0037
X1.8029 Y5.2408 Z0.0446 I-0.0034 J0.0037
X1.8096 Y5.2334 Z0.044 I0.0034 J-0.0037
X1.8029 Y5.2408 Z0.0435 I-0.0034 J0.0037
X1.8096 Y5.2334 Z0.043 I0.0034 J-0.0037
X1.8029 Y5.2408 Z0.0424 I-0.0034 J0.0037
X1.8096 Y5.2334 Z0.0419 I0.0034 J-0.0037
X1.8029 Y5.2408 Z0.0413 I-0.0034 J0.0037
X1.8096 Y5.2334 Z0.0408 I0.0034 J-0.0037
X1.8029 Y5.2408 Z0.0402 I-0.0034 J0.0037
X1.8096 Y5.2334 Z0.0397 I0.0034 J-0.0037
X1.8029 Y5.2408 Z0.0391 I-0.0034 J0.0037
X1.8096 Y5.2334 Z0.0386 I0.0034 J-0.0037
X1.8029 Y5.2408 Z0.038 I-0.0034 J0.0037
X1.8096 Y5.2334 Z0.0375 I0.0034 J-0.0037
X1.8029 Y5.2408 Z0.0369 I-0.0034 J0.0037
X1.8096 Y5.2334 Z0.0364 I0.0034 J-0.0037
X1.8029 Y5.2408 Z0.0358 I-0.0034 J0.0037
X1.8096 Y5.2334 Z0.0353 I0.0034 J-0.0037
X1.8029 Y5.2408 Z0.0347 I-0.0034 J0.0037
X1.8096 Y5.2334 Z0.0342 I0.0034 J-0.0037
X1.8029 Y5.2408 Z0.0336 I-0.0034 J0.0037
X1.8096 Y5.2334 Z0.0331 I0.0034 J-0.0037
X1.8029 Y5.2408 Z0.0325 I-0.0034 J0.0037
X1.8096 Y5.2334 Z0.032 I0.0034 J-0.0037
X1.8029 Y5.2408 Z0.0314 I-0.0034 J0.0037
X1.8096 Y5.2334 Z0.0309 I0.0034 J-0.0037
X1.8029 Y5.2408 Z0.0303 I-0.0034 J0.0037
X1.8096 Y5.2334 Z0.0298 I0.0034 J-0.0037
X1.8029 Y5.2408 Z0.0292 I-0.0034 J0.0037
X1.8096 Y5.2334 Z0.0287 I0.0034 J-0.0037
X1.8029 Y5.2408 Z0.0281 I-0.0034 J0.0037
X1.8096 Y5.2334 Z0.0276 I0.0034 J-0.0037
X1.8029 Y5.2408 Z0.027 I-0.0034 J0.0037
X1.8096 Y5.2334 Z0.0265 I0.0034 J-0.0037
X1.8029 Y5.2408 Z0.0259 I-0.0034 J0.0037
X1.8096 Y5.2334 Z0.0254 I0.0034 J-0.0037
X1.8029 Y5.2408 Z0.0249 I-0.0034 J0.0037
X1.8096 Y5.2334 Z0.0243 I0.0034 J-0.0037
X1.8029 Y5.2408 Z0.0238 I-0.0034 J0.0037
X1.8096 Y5.2334 Z0.0232 I0.0034 J-0.0037
X1.8029 Y5.2408 Z0.0227 I-0.0034 J0.0037
X1.8096 Y5.2334 Z0.0221 I0.0034 J-0.0037
X1.8029 Y5.2408 Z0.0216 I-0.0034 J0.0037
X1.8096 Y5.2334 Z0.021 I0.0034 J-0.0037
X1.8029 Y5.2408 Z0.0205 I-0.0034 J0.0037
X1.8096 Y5.2334 Z0.0199 I0.0034 J-0.0037
X1.8029 Y5.2408 Z0.0194 I-0.0034 J0.0037
X1.8096 Y5.2334 Z0.0188 I0.0034 J-0.0037
X1.8029 Y5.2408 Z0.0183 I-0.0034 J0.0037
X1.8096 Y5.2334 Z0.0177 I0.0034 J-0.0037
X1.8029 Y5.2408 Z0.0172 I-0.0034 J0.0037
X1.8096 Y5.2334 Z0.0166 I0.0034 J-0.0037
X1.8029 Y5.2408 Z0.0161 I-0.0034 J0.0037
X1.8096 Y5.2334 Z0.0155 I0.0034 J-0.0037
X1.8029 Y5.2408 Z0.015 I-0.0034 J0.0037
X1.8096 Y5.2334 Z0.0144 I0.0034 J-0.0037
X1.8029 Y5.2408 Z0.0139 I-0.0034 J0.0037
X1.8096 Y5.2334 Z0.0133 I0.0034 J-0.0037
X1.8029 Y5.2408 Z0.0128 I-0.0034 J0.0037
X1.8096 Y5.2334 Z0.0122 I0.0034 J-0.0037
X1.8029 Y5.2408 Z0.0117 I-0.0034 J0.0037
X1.8096 Y5.2334 Z0.0111 I0.0034 J-0.0037
X1.8029 Y5.2408 Z0.0106 I-0.0034 J0.0037
X1.8096 Y5.2334 Z0.01 I0.0034 J-0.0037
X1.8029 Y5.2408 Z0.0095 I-0.0034 J0.0037
X1.8096 Y5.2334 Z0.0089 I0.0034 J-0.0037
X1.8029 Y5.2408 Z0.0084 I-0.0034 J0.0037
X1.8096 Y5.2334 Z0.0078 I0.0034 J-0.0037
X1.8029 Y5.2408 Z0.0073 I-0.0034 J0.0037
X1.8096 Y5.2334 Z0.0067 I0.0034 J-0.0037
X1.8029 Y5.2408 Z0.0062 I-0.0034 J0.0037
X1.8096 Y5.2334 Z0.0057 I0.0034 J-0.0037
X1.8029 Y5.2408 Z0.0051 I-0.0034 J0.0037
X1.8096 Y5.2334 Z0.0046 I0.0034 J-0.0037
X1.8029 Y5.2408 Z0.004 I-0.0034 J0.0037
X1.8096 Y5.2334 Z0.0035 I0.0034 J-0.0037
X1.8029 Y5.2408 Z0.0029 I-0.0034 J0.0037
X1.8096 Y5.2334 Z0.0024 I0.0034 J-0.0037
X1.8029 Y5.2408 Z0.0018 I-0.0034 J0.0037
X1.8096 Y5.2334 Z0.0013 I0.0034 J-0.0037
X1.8029 Y5.2408 Z0.0007 I-0.0034 J0.0037
X1.8096 Y5.2334 Z0.0002 I0.0034 J-0.0037
X1.8029 Y5.2408 Z-0.0004 I-0.0034 J0.0037
X1.8096 Y5.2334 Z-0.0009 I0.0034 J-0.0037
X1.8029 Y5.2408 Z-0.0015 I-0.0034 J0.0037
X1.8096 Y5.2334 Z-0.002 I0.0034 J-0.0037
X1.8029 Y5.2408 Z-0.0026 I-0.0034 J0.0037
X1.8096 Y5.2334 Z-0.0031 I0.0034 J-0.0037
X1.8029 Y5.2408 Z-0.0037 I-0.0034 J0.0037
X1.8096 Y5.2334 Z-0.0042 I0.0034 J-0.0037
X1.8029 Y5.2408 Z-0.0048 I-0.0034 J0.0037
X1.8096 Y5.2334 Z-0.0053 I0.0034 J-0.0037
X1.8029 Y5.2408 Z-0.0059 I-0.0034 J0.0037
X1.8096 Y5.2334 Z-0.0064 I0.0034 J-0.0037
X1.8029 Y5.2408 Z-0.007 I-0.0034 J0.0037
X1.8096 Y5.2334 Z-0.0075 I0.0034 J-0.0037
X1.8029 Y5.2408 Z-0.0081 I-0.0034 J0.0037
X1.8096 Y5.2334 Z-0.0086 I0.0034 J-0.0037
X1.8029 Y5.2408 Z-0.0092 I-0.0034 J0.0037
X1.8096 Y5.2334 Z-0.0097 I0.0034 J-0.0037
X1.8029 Y5.2408 Z-0.0103 I-0.0034 J0.0037
X1.8096 Y5.2334 Z-0.0108 I0.0034 J-0.0037
X1.8029 Y5.2408 Z-0.0114 I-0.0034 J0.0037
X1.8096 Y5.2334 Z-0.0119 I0.0034 J-0.0037
X1.8029 Y5.2408 Z-0.0124 I-0.0034 J0.0037
X1.8096 Y5.2334 Z-0.013 I0.0034 J-0.0037
X1.8029 Y5.2408 Z-0.0135 I-0.0034 J0.0037
X1.8096 Y5.2334 Z-0.0141 I0.0034 J-0.0037
X1.8029 Y5.2408 Z-0.0146 I-0.0034 J0.0037
X1.8096 Y5.2334 Z-0.0152 I0.0034 J-0.0037
X1.8029 Y5.2408 Z-0.0157 I-0.0034 J0.0037
X1.8096 Y5.2334 Z-0.0163 I0.0034 J-0.0037
X1.8029 Y5.2408 Z-0.0168 I-0.0034 J0.0037
X1.8096 Y5.2334 Z-0.0174 I0.0034 J-0.0037
X1.8029 Y5.2408 Z-0.0179 I-0.0034 J0.0037
X1.8096 Y5.2334 Z-0.0185 I0.0034 J-0.0037
X1.8029 Y5.2408 Z-0.019 I-0.0034 J0.0037
X1.8096 Y5.2334 Z-0.0196 I0.0034 J-0.0037
X1.8063 Y5.2421 Z-0.02 I-0.0034 J0.0037
Y5.1641 I0. J-0.039 F30.
Y5.2421 I0. J0.039
Y5.1641 Z-0.0243 I0. J-0.039 F20.
Y5.2421 Z-0.0286 I0. J0.039
Y5.1641 Z-0.0328 I0. J-0.039
Y5.2421 Z-0.0371 I0. J0.039
X1.773 Y5.1827 Z-0.04 I0. J-0.039
X1.8396 Y5.2234 I0.0333 J0.0203 F30.
X1.773 Y5.1827 I-0.0333 J-0.0203
X1.8396 Y5.2234 Z-0.0443 I0.0333 J0.0203 F20.
X1.773 Y5.1827 Z-0.0486 I-0.0333 J-0.0203
X1.8396 Y5.2234 Z-0.0528 I0.0333 J0.0203
X1.773 Y5.1827 Z-0.0571 I-0.0333 J-0.0203
X1.841 Y5.1852 Z-0.06 I0.0333 J0.0203
X1.7716 Y5.2209 I-0.0347 J0.0178 F30.
X1.841 Y5.1852 I0.0347 J-0.0178
X1.7716 Y5.2209 Z-0.0643 I-0.0347 J0.0178 F20.
X1.841 Y5.1852 Z-0.0686 I0.0347 J-0.0178
X1.7716 Y5.2209 Z-0.0728 I-0.0347 J0.0178
X1.841 Y5.1852 Z-0.0771 I0.0347 J-0.0178
X1.8034 Y5.242 Z-0.08 I-0.0347 J0.0178
X1.8091 Y5.1642 I0.0029 J-0.0389 F30.
X1.8034 Y5.242 I-0.0029 J0.0389
X1.8091 Y5.1642 Z-0.0843 I0.0029 J-0.0389 F20.
X1.8034 Y5.242 Z-0.0886 I-0.0029 J0.0389
X1.8091 Y5.1642 Z-0.0928 I0.0029 J-0.0389
X1.8034 Y5.242 Z-0.0971 I-0.0029 J0.0389
X1.7746 Y5.1804 Z-0.1 I0.0029 J-0.0389
X1.838 Y5.2258 I0.0317 J0.0227 F30.
X1.7746 Y5.1804 I-0.0317 J-0.0227
X1.838 Y5.2258 Z-0.1043 I0.0317 J0.0227 F20.
X1.7746 Y5.1804 Z-0.1086 I-0.0317 J-0.0227
X1.838 Y5.2258 Z-0.1128 I0.0317 J0.0227
X1.7746 Y5.1804 Z-0.1171 I-0.0317 J-0.0227
X1.8422 Y5.1878 Z-0.12 I0.0317 J0.0227
X1.7704 Y5.2183 I-0.0359 J0.0152 F30.
X1.8422 Y5.1878 I0.0359 J-0.0152
X1.7704 Y5.2183 Z-0.1243 I-0.0359 J0.0152 F20.
X1.8422 Y5.1878 Z-0.1286 I0.0359 J-0.0152
X1.7704 Y5.2183 Z-0.1328 I-0.0359 J0.0152
X1.8422 Y5.1878 Z-0.1371 I0.0359 J-0.0152
X1.8006 Y5.2417 Z-0.14 I-0.0359 J0.0152
X1.812 Y5.1645 I0.0057 J-0.0386 F30.
X1.8006 Y5.2417 I-0.0057 J0.0386
G1 X1.7984 Y5.2411 Z-0.1396
X1.7963 Y5.2402 Z-0.1391
X1.7948 Y5.2391 Z-0.1378
X1.7934 Y5.2377 Z-0.1365
X1.7919 Y5.2356 Z-0.1327
X1.7915 Y5.2348 Z-0.1282
G0 Z0.2
X2.5251 Y5.5101
G1 Z0.1118 F30.
X2.5243 Y5.51 Z0.1075 F20.
X2.5232 Y5.5097 Z0.1057
X2.5223 Y5.5091 Z0.1039
X2.5214 Y5.5082 Z0.1029
X2.5207 Y5.5071 Z0.102
X2.5203 Y5.5059 Z0.1011
Y5.5044 Z0.1007
X2.5207 Y5.503 Z0.1004
X2.5216 Y5.5017 Z0.1
G3 X2.529 Y5.5084 Z0.0995 I0.0037 J0.0034
X2.5216 Y5.5017 Z0.0989 I-0.0037 J-0.0034
X2.529 Y5.5084 Z0.0984 I0.0037 J0.0034
X2.5216 Y5.5017 Z0.0978 I-0.0037 J-0.0034
X2.529 Y5.5084 Z0.0973 I0.0037 J0.0034
X2.5216 Y5.5017 Z0.0967 I-0.0037 J-0.0034
X2.529 Y5.5084 Z0.0962 I0.0037 J0.0034
X2.5216 Y5.5017 Z0.0956 I-0.0037 J-0.0034
X2.529 Y5.5084 Z0.0951 I0.0037 J0.0034
X2.5216 Y5.5017 Z0.0945 I-0.0037 J-0.0034
X2.529 Y5.5084 Z0.094 I0.0037 J0.0034
X2.5216 Y5.5017 Z0.0934 I-0.0037 J-0.0034
X2.529 Y5.5084 Z0.0929 I0.0037 J0.0034
X2.5216 Y5.5017 Z0.0923 I-0.0037 J-0.0034
X2.529 Y5.5084 Z0.0918 I0.0037 J0.0034
X2.5216 Y5.5017 Z0.0912 I-0.0037 J-0.0034
X2.529 Y5.5084 Z0.0907 I0.0037 J0.0034
X2.5216 Y5.5017 Z0.0901 I-0.0037 J-0.0034
X2.529 Y5.5084 Z0.0896 I0.0037 J0.0034
X2.5216 Y5.5017 Z0.089 I-0.0037 J-0.0034
X2.529 Y5.5084 Z0.0885 I0.0037 J0.0034
X2.5216 Y5.5017 Z0.0879 I-0.0037 J-0.0034
X2.529 Y5.5084 Z0.0874 I0.0037 J0.0034
X2.5216 Y5.5017 Z0.0868 I-0.0037 J-0.0034
X2.529 Y5.5084 Z0.0863 I0.0037 J0.0034
X2.5216 Y5.5017 Z0.0857 I-0.0037 J-0.0034
X2.529 Y5.5084 Z0.0852 I0.0037 J0.0034
X2.5216 Y5.5017 Z0.0846 I-0.0037 J-0.0034
X2.529 Y5.5084 Z0.0841 I0.0037 J0.0034
X2.5216 Y5.5017 Z0.0835 I-0.0037 J-0.0034
X2.529 Y5.5084 Z0.083 I0.0037 J0.0034
X2.5216 Y5.5017 Z0.0824 I-0.0037 J-0.0034
X2.529 Y5.5084 Z0.0819 I0.0037 J0.0034
X2.5216 Y5.5017 Z0.0813 I-0.0037 J-0.0034
X2.529 Y5.5084 Z0.0808 I0.0037 J0.0034
X2.5216 Y5.5017 Z0.0803 I-0.0037 J-0.0034
X2.529 Y5.5084 Z0.0797 I0.0037 J0.0034
X2.5216 Y5.5017 Z0.0792 I-0.0037 J-0.0034
X2.529 Y5.5084 Z0.0786 I0.0037 J0.0034
X2.5216 Y5.5017 Z0.0781 I-0.0037 J-0.0034
X2.529 Y5.5084 Z0.0775 I0.0037 J0.0034
X2.5216 Y5.5017 Z0.077 I-0.0037 J-0.0034
X2.529 Y5.5084 Z0.0764 I0.0037 J0.0034
X2.5216 Y5.5017 Z0.0759 I-0.0037 J-0.0034
X2.529 Y5.5084 Z0.0753 I0.0037 J0.0034
X2.5216 Y5.5017 Z0.0748 I-0.0037 J-0.0034
X2.529 Y5.5084 Z0.0742 I0.0037 J0.0034
X2.5216 Y5.5017 Z0.0737 I-0.0037 J-0.0034
X2.529 Y5.5084 Z0.0731 I0.0037 J0.0034
X2.5216 Y5.5017 Z0.0726 I-0.0037 J-0.0034
X2.529 Y5.5084 Z0.072 I0.0037 J0.0034
X2.5216 Y5.5017 Z0.0715 I-0.0037 J-0.0034
X2.529 Y5.5084 Z0.0709 I0.0037 J0.0034
X2.5216 Y5.5017 Z0.0704 I-0.0037 J-0.0034
X2.529 Y5.5084 Z0.0698 I0.0037 J0.0034
X2.5216 Y5.5017 Z0.0693 I-0.0037 J-0.0034
X2.529 Y5.5084 Z0.0687 I0.0037 J0.0034
X2.5216 Y5.5017 Z0.0682 I-0.0037 J-0.0034
X2.529 Y5.5084 Z0.0676 I0.0037 J0.0034
X2.5216 Y5.5017 Z0.0671 I-0.0037 J-0.0034
X2.529 Y5.5084 Z0.0665 I0.0037 J0.0034
X2.5216 Y5.5017 Z0.066 I-0.0037 J-0.0034
X2.529 Y5.5084 Z0.0654 I0.0037 J0.0034
X2.5216 Y5.5017 Z0.0649 I-0.0037 J-0.0034
X2.529 Y5.5084 Z0.0643 I0.0037 J0.0034
X2.5216 Y5.5017 Z0.0638 I-0.0037 J-0.0034
X2.529 Y5.5084 Z0.0632 I0.0037 J0.0034
X2.5216 Y5.5017 Z0.0627 I-0.0037 J-0.0034
X2.529 Y5.5084 Z0.0622 I0.0037 J0.0034
X2.5216 Y5.5017 Z0.0616 I-0.0037 J-0.0034
X2.529 Y5.5084 Z0.0611 I0.0037 J0.0034
X2.5216 Y5.5017 Z0.0605 I-0.0037 J-0.0034
X2.529 Y5.5084 Z0.06 I0.0037 J0.0034
X2.5216 Y5.5017 Z0.0594 I-0.0037 J-0.0034
X2.529 Y5.5084 Z0.0589 I0.0037 J0.0034
X2.5216 Y5.5017 Z0.0583 I-0.0037 J-0.0034
X2.529 Y5.5084 Z0.0578 I0.0037 J0.0034
X2.5216 Y5.5017 Z0.0572 I-0.0037 J-0.0034
X2.529 Y5.5084 Z0.0567 I0.0037 J0.0034
X2.5216 Y5.5017 Z0.0561 I-0.0037 J-0.0034
X2.529 Y5.5084 Z0.0556 I0.0037 J0.0034
X2.5216 Y5.5017 Z0.055 I-0.0037 J-0.0034
X2.529 Y5.5084 Z0.0545 I0.0037 J0.0034
X2.5216 Y5.5017 Z0.0539 I-0.0037 J-0.0034
X2.529 Y5.5084 Z0.0534 I0.0037 J0.0034
X2.5216 Y5.5017 Z0.0528 I-0.0037 J-0.0034
X2.529 Y5.5084 Z0.0523 I0.0037 J0.0034
X2.5216 Y5.5017 Z0.0517 I-0.0037 J-0.0034
X2.529 Y5.5084 Z0.0512 I0.0037 J0.0034
X2.5216 Y5.5017 Z0.0506 I-0.0037 J-0.0034
X2.529 Y5.5084 Z0.0501 I0.0037 J0.0034
X2.5216 Y5.5017 Z0.0495 I-0.0037 J-0.0034
X2.529 Y5.5084 Z0.049 I0.0037 J0.0034
X2.5216 Y5.5017 Z0.0484 I-0.0037 J-0.0034
X2.529 Y5.5084 Z0.0479 I0.0037 J0.0034
X2.5216 Y5.5017 Z0.0473 I-0.0037 J-0.0034
X2.529 Y5.5084 Z0.0468 I0.0037 J0.0034
X2.5216 Y5.5017 Z0.0462 I-0.0037 J-0.0034
X2.529 Y5.5084 Z0.0457 I0.0037 J0.0034
X2.5216 Y5.5017 Z0.0451 I-0.0037 J-0.0034
X2.529 Y5.5084 Z0.0446 I0.0037 J0.0034
X2.5216 Y5.5017 Z0.044 I-0.0037 J-0.0034
X2.529 Y5.5084 Z0.0435 I0.0037 J0.0034
X2.5216 Y5.5017 Z0.043 I-0.0037 J-0.0034
X2.529 Y5.5084 Z0.0424 I0.0037 J0.0034
X2.5216 Y5.5017 Z0.0419 I-0.0037 J-0.0034
X2.529 Y5.5084 Z0.0413 I0.0037 J0.0034
X2.5216 Y5.5017 Z0.0408 I-0.0037 J-0.0034
X2.529 Y5.5084 Z0.0402 I0.0037 J0.0034
X2.5216 Y5.5017 Z0.0397 I-0.0037 J-0.0034
X2.529 Y5.5084 Z0.0391 I0.0037 J0.0034
X2.5216 Y5.5017 Z0.0386 I-0.0037 J-0.0034
X2.529 Y5.5084 Z0.038 I0.0037 J0.0034
X2.5216 Y5.5017 Z0.0375 I-0.0037 J-0.0034
X2.529 Y5.5084 Z0.0369 I0.0037 J0.0034
X2.5216 Y5.5017 Z0.0364 I-0.0037 J-0.0034
X2.529 Y5.5084 Z0.0358 I0.0037 J0.0034
X2.5216 Y5.5017 Z0.0353 I-0.0037 J-0.0034
X2.529 Y5.5084 Z0.0347 I0.0037 J0.0034
X2.5216 Y5.5017 Z0.0342 I-0.0037 J-0.0034
X2.529 Y5.5084 Z0.0336 I0.0037 J0.0034
X2.5216 Y5.5017 Z0.0331 I-0.0037 J-0.0034
X2.529 Y5.5084 Z0.0325 I0.0037 J0.0034
X2.5216 Y5.5017 Z0.032 I-0.0037 J-0.0034
X2.529 Y5.5084 Z0.0314 I0.0037 J0.0034
X2.5216 Y5.5017 Z0.0309 I-0.0037 J-0.0034
X2.529 Y5.5084 Z0.0303 I0.0037 J0.0034
X2.5216 Y5.5017 Z0.0298 I-0.0037 J-0.0034
X2.529 Y5.5084 Z0.0292 I0.0037 J0.0034
X2.5216 Y5.5017 Z0.0287 I-0.0037 J-0.0034
X2.529 Y5.5084 Z0.0281 I0.0037 J0.0034
X2.5216 Y5.5017 Z0.0276 I-0.0037 J-0.0034
X2.529 Y5.5084 Z0.027 I0.0037 J0.0034
X2.5216 Y5.5017 Z0.0265 I-0.0037 J-0.0034
X2.529 Y5.5084 Z0.0259 I0.0037 J0.0034
X2.5216 Y5.5017 Z0.0254 I-0.0037 J-0.0034
X2.529 Y5.5084 Z0.0249 I0.0037 J0.0034
X2.5216 Y5.5017 Z0.0243 I-0.0037 J-0.0034
X2.529 Y5.5084 Z0.0238 I0.0037 J0.0034
X2.5216 Y5.5017 Z0.0232 I-0.0037 J-0.0034
X2.529 Y5.5084 Z0.0227 I0.0037 J0.0034
X2.5216 Y5.5017 Z0.0221 I-0.0037 J-0.0034
X2.529 Y5.5084 Z0.0216 I0.0037 J0.0034
X2.5216 Y5.5017 Z0.021 I-0.0037 J-0.0034
X2.529 Y5.5084 Z0.0205 I0.0037 J0.0034
X2.5216 Y5.5017 Z0.0199 I-0.0037 J-0.0034
X2.529 Y5.5084 Z0.0194 I0.0037 J0.0034
X2.5216 Y5.5017 Z0.0188 I-0.0037 J-0.0034
X2.529 Y5.5084 Z0.0183 I0.0037 J0.0034
X2.5216 Y5.5017 Z0.0177 I-0.0037 J-0.0034
X2.529 Y5.5084 Z0.0172 I0.0037 J0.0034
X2.5216 Y5.5017 Z0.0166 I-0.0037 J-0.0034
X2.529 Y5.5084 Z0.0161 I0.0037 J0.0034
X2.5216 Y5.5017 Z0.0155 I-0.0037 J-0.0034
X2.529 Y5.5084 Z0.015 I0.0037 J0.0034
X2.5216 Y5.5017 Z0.0144 I-0.0037 J-0.0034
X2.529 Y5.5084 Z0.0139 I0.0037 J0.0034
X2.5216 Y5.5017 Z0.0133 I-0.0037 J-0.0034
X2.529 Y5.5084 Z0.0128 I0.0037 J0.0034
X2.5216 Y5.5017 Z0.0122 I-0.0037 J-0.0034
X2.529 Y5.5084 Z0.0117 I0.0037 J0.0034
X2.5216 Y5.5017 Z0.0111 I-0.0037 J-0.0034
X2.529 Y5.5084 Z0.0106 I0.0037 J0.0034
X2.5216 Y5.5017 Z0.01 I-0.0037 J-0.0034
X2.529 Y5.5084 Z0.0095 I0.0037 J0.0034
X2.5216 Y5.5017 Z0.0089 I-0.0037 J-0.0034
X2.529 Y5.5084 Z0.0084 I0.0037 J0.0034
X2.5216 Y5.5017 Z0.0078 I-0.0037 J-0.0034
X2.529 Y5.5084 Z0.0073 I0.0037 J0.0034
X2.5216 Y5.5017 Z0.0067 I-0.0037 J-0.0034
X2.529 Y5.5084 Z0.0062 I0.0037 J0.0034
X2.5216 Y5.5017 Z0.0057 I-0.0037 J-0.0034
X2.529 Y5.5084 Z0.0051 I0.0037 J0.0034
X2.5216 Y5.5017 Z0.0046 I-0.0037 J-0.0034
X2.529 Y5.5084 Z0.004 I0.0037 J0.0034
X2.5216 Y5.5017 Z0.0035 I-0.0037 J-0.0034
X2.529 Y5.5084 Z0.0029 I0.0037 J0.0034
X2.5216 Y5.5017 Z0.0024 I-0.0037 J-0.0034
X2.529 Y5.5084 Z0.0018 I0.0037 J0.0034
X2.5216 Y5.5017 Z0.0013 I-0.0037 J-0.0034
X2.529 Y5.5084 Z0.0007 I0.0037 J0.0034
X2.5216 Y5.5017 Z0.0002 I-0.0037 J-0.0034
X2.529 Y5.5084 Z-0.0004 I0.0037 J0.0034
X2.5216 Y5.5017 Z-0.0009 I-0.0037 J-0.0034
X2.529 Y5.5084 Z-0.0015 I0.0037 J0.0034
X2.5216 Y5.5017 Z-0.002 I-0.0037 J-0.0034
X2.529 Y5.5084 Z-0.0026 I0.0037 J0.0034
X2.5216 Y5.5017 Z-0.0031 I-0.0037 J-0.0034
X2.529 Y5.5084 Z-0.0037 I0.0037 J0.0034
X2.5216 Y5.5017 Z-0.0042 I-0.0037 J-0.0034
X2.529 Y5.5084 Z-0.0048 I0.0037 J0.0034
X2.5216 Y5.5017 Z-0.0053 I-0.0037 J-0.0034
X2.529 Y5.5084 Z-0.0059 I0.0037 J0.0034
X2.5216 Y5.5017 Z-0.0064 I-0.0037 J-0.0034
X2.529 Y5.5084 Z-0.007 I0.0037 J0.0034
X2.5216 Y5.5017 Z-0.0075 I-0.0037 J-0.0034
X2.529 Y5.5084 Z-0.0081 I0.0037 J0.0034
X2.5216 Y5.5017 Z-0.0086 I-0.0037 J-0.0034
X2.529 Y5.5084 Z-0.0092 I0.0037 J0.0034
X2.5216 Y5.5017 Z-0.0097 I-0.0037 J-0.0034
X2.529 Y5.5084 Z-0.0103 I0.0037 J0.0034
X2.5216 Y5.5017 Z-0.0108 I-0.0037 J-0.0034
X2.529 Y5.5084 Z-0.0114 I0.0037 J0.0034
X2.5216 Y5.5017 Z-0.0119 I-0.0037 J-0.0034
X2.529 Y5.5084 Z-0.0124 I0.0037 J0.0034
X2.5216 Y5.5017 Z-0.013 I-0.0037 J-0.0034
X2.529 Y5.5084 Z-0.0135 I0.0037 J0.0034
X2.5216 Y5.5017 Z-0.0141 I-0.0037 J-0.0034
X2.529 Y5.5084 Z-0.0146 I0.0037 J0.0034
X2.5216 Y5.5017 Z-0.0152 I-0.0037 J-0.0034
X2.529 Y5.5084 Z-0.0157 I0.0037 J0.0034
X2.5216 Y5.5017 Z-0.0163 I-0.0037 J-0.0034
X2.529 Y5.5084 Z-0.0168 I0.0037 J0.0034
X2.5216 Y5.5017 Z-0.0174 I-0.0037 J-0.0034
X2.529 Y5.5084 Z-0.0179 I0.0037 J0.0034
X2.5216 Y5.5017 Z-0.0185 I-0.0037 J-0.0034
X2.529 Y5.5084 Z-0.019 I0.0037 J0.0034
X2.5216 Y5.5017 Z-0.0196 I-0.0037 J-0.0034
X2.5303 Y5.5051 Z-0.02 I0.0037 J0.0034
X2.4783 I-0.026 J0. F30.
X2.5303 I0.026 J0.
X2.4783 Z-0.0229 I-0.026 J0. F20.
X2.5303 Z-0.0257 I0.026 J0.
X2.4783 Z-0.0286 I-0.026 J0.
X2.5303 Z-0.0314 I0.026 J0.
X2.4783 Z-0.0343 I-0.026 J0.
X2.5303 Z-0.0371 I0.026 J0.
X2.5038 Y5.5311 Z-0.0386 I-0.026 J0.
X2.4783 Y5.5041 Z-0.04 I0.0005 J-0.026
X2.5302 Y5.506 I0.026 J0.001 F30.
X2.4783 Y5.5041 I-0.026 J-0.001
X2.5302 Y5.506 Z-0.0429 I0.026 J0.001 F20.
X2.4783 Y5.5041 Z-0.0457 I-0.026 J-0.001
X2.5302 Y5.506 Z-0.0486 I0.026 J0.001
X2.4783 Y5.5041 Z-0.0514 I-0.026 J-0.001
X2.5302 Y5.506 Z-0.0543 I0.026 J0.001
X2.4783 Y5.5041 Z-0.0571 I-0.026 J-0.001
