(X8 RIGHT INTAKE MOTOR PLATE CONTOUR)
(T3  D=0.118 CR=0. - ZMIN=-0.145 - FLAT END MILL)
G90 G94 G91.1 G40 G49 G17
G20

(2D CONTOUR1)
M5
T3 M6
S15000 M3
g4 p5
G54
M8
G0 X1.6836 Y2.7264
G43 Z0.6 H3
Z0.2
G1 Z0.1118 F20.
X1.6837 Y2.7267 Z0.1092 F30.
X1.684 Y2.7275 Z0.1067
X1.6845 Y2.7288 Z0.1044
X1.6851 Y2.7306 Z0.1026
X1.6859 Y2.7327 Z0.1012
X1.6867 Y2.735 Z0.1003
X1.6876 Y2.7375 Z0.1
X1.6917 Y2.7486
G3 X1.6846 Y2.7637 I-0.0111 J0.004
G1 X0.3488 Y3.2499 Z0.0504 F20.
G2 X-0.019 Y3.7752 Z0.0265 I0.1912 J0.5253
G1 Y5.1071 Z-0.02
Y9.6742 F30.
G2 X0.54 Y10.2332 I0.559 J0.
G1 X6.5492
G2 X6.7332 Y10.0492 I0. J-0.184
G1 Y9.2992
G2 X6.5492 Y9.1152 I-0.184 J0.
G1 X4.0492
G3 X3.9832 Y9.0492 I0. J-0.066
G1 Y7.9262
G2 X3.7992 Y7.7422 I-0.184 J0.
G1 X2.789
X2.7875 Y7.7419
X2.7861 Y7.7411
X2.7851 Y7.7399
X2.7846 Y7.7385
Y7.7369
X2.7851 Y7.7354
X2.7861 Y7.7342
X2.7875 Y7.7334
X2.789 Y7.7332
X4.29
G2 X4.599 Y7.4242 I0. J-0.309
G1 Y6.7992
G2 X4.29 Y6.4902 I-0.309 J0.
G1 X3.915
G3 X3.099 Y5.6742 I0. J-0.816
G1 Y5.4242
G3 X3.915 Y4.6082 I0.816 J0.
G1 X4.29
G2 X4.599 Y4.2992 I0. J-0.309
G1 Y2.6742
G2 X4.5817 Y2.6325 I-0.059 J0.
G1 X4.349 Y2.3997
Y1.973
G2 X4.1945 Y1.7054 I-0.309 J0.
G3 X4.099 Y1.54 I0.0955 J-0.1654
G1 Y0.165
G2 X3.915 Y-0.019 I-0.184 J0.
G1 X3.165
G2 X2.981 Y0.165 I0. J0.184
G1 Y1.54
G3 X2.8855 Y1.7054 I-0.191 J0.
G2 X2.731 Y1.973 I0.1545 J0.2676
G1 Y2.3829
X0.3488 Y3.2499
G2 X-0.019 Y3.7752 I0.1912 J0.5253
G1 Y5.1071
Y5.8567 Z-0.04 F20.
Y9.6742 F30.
G2 X0.54 Y10.2332 I0.559 J0.
G1 X6.5492
G2 X6.7332 Y10.0492 I0. J-0.184
G1 Y9.2992
G2 X6.5492 Y9.1152 I-0.184 J0.
G1 X4.0492
G3 X3.9832 Y9.0492 I0. J-0.066
G1 Y7.9262
G2 X3.7992 Y7.7422 I-0.184 J0.
G1 X2.789
X2.7875 Y7.7419
X2.7861 Y7.7411
X2.7851 Y7.7399
X2.7846 Y7.7385
Y7.7369
X2.7851 Y7.7354
X2.7861 Y7.7342
X2.7875 Y7.7334
X2.789 Y7.7332
X4.29
G2 X4.599 Y7.4242 I0. J-0.309
G1 Y6.7992
G2 X4.29 Y6.4902 I-0.309 J0.
G1 X3.915
G3 X3.099 Y5.6742 I0. J-0.816
G1 Y5.4242
G3 X3.915 Y4.6082 I0.816 J0.
G1 X4.29
G2 X4.599 Y4.2992 I0. J-0.309
G1 Y2.6742
G2 X4.5817 Y2.6325 I-0.059 J0.
G1 X4.349 Y2.3997
Y1.973
G2 X4.1945 Y1.7054 I-0.309 J0.
G3 X4.099 Y1.54 I0.0955 J-0.1654
G1 Y0.165
G2 X3.915 Y-0.019 I-0.184 J0.
G1 X3.165
G2 X2.981 Y0.165 I0. J0.184
G1 Y1.54
G3 X2.8855 Y1.7054 I-0.191 J0.
G2 X2.731 Y1.973 I0.1545 J0.2676
G1 Y2.3829
X0.3488 Y3.2499
G2 X-0.019 Y3.7752 I0.1912 J0.5253
G1 Y5.1071
Y5.8567
Y6.6063 Z-0.06 F20.
Y9.6742 F30.
G2 X0.54 Y10.2332 I0.559 J0.
G1 X6.5492
G2 X6.7332 Y10.0492 I0. J-0.184
G1 Y9.2992
G2 X6.5492 Y9.1152 I-0.184 J0.
G1 X4.0492
G3 X3.9832 Y9.0492 I0. J-0.066
G1 Y7.9262
G2 X3.7992 Y7.7422 I-0.184 J0.
G1 X2.789
X2.7875 Y7.7419
X2.7861 Y7.7411
X2.7851 Y7.7399
X2.7846 Y7.7385
Y7.7369
X2.7851 Y7.7354
X2.7861 Y7.7342
X2.7875 Y7.7334
X2.789 Y7.7332
X4.29
G2 X4.599 Y7.4242 I0. J-0.309
G1 Y6.7992
G2 X4.29 Y6.4902 I-0.309 J0.
G1 X3.915
G3 X3.099 Y5.6742 I0. J-0.816
G1 Y5.4242
G3 X3.915 Y4.6082 I0.816 J0.
G1 X4.29
G2 X4.599 Y4.2992 I0. J-0.309
G1 Y2.6742
G2 X4.5817 Y2.6325 I-0.059 J0.
G1 X4.349 Y2.3997
Y1.973
G2 X4.1945 Y1.7054 I-0.309 J0.
G3 X4.099 Y1.54 I0.0955 J-0.1654
G1 Y0.165
G2 X3.915 Y-0.019 I-0.184 J0.
G1 X3.165
G2 X2.981 Y0.165 I0. J0.184
G1 Y1.54
G3 X2.8855 Y1.7054 I-0.191 J0.
G2 X2.731 Y1.973 I0.1545 J0.2676
G1 Y2.3829
X0.3488 Y3.2499
G2 X-0.019 Y3.7752 I0.1912 J0.5253
G1 Y5.8567
Y6.6063
Y7.3559 Z-0.08 F20.
Y9.6742 F30.
G2 X0.54 Y10.2332 I0.559 J0.
G1 X6.5492
G2 X6.7332 Y10.0492 I0. J-0.184
G1 Y9.2992
G2 X6.5492 Y9.1152 I-0.184 J0.
G1 X4.0492
G3 X3.9832 Y9.0492 I0. J-0.066
G1 Y7.9262
G2 X3.7992 Y7.7422 I-0.184 J0.
G1 X2.789
X2.7875 Y7.7419
X2.7861 Y7.7411
X2.7851 Y7.7399
X2.7846 Y7.7385
Y7.7369
X2.7851 Y7.7354
X2.7861 Y7.7342
X2.7875 Y7.7334
X2.789 Y7.7332
X4.29
G2 X4.599 Y7.4242 I0. J-0.309
G1 Y6.7992
G2 X4.29 Y6.4902 I-0.309 J0.
G1 X3.915
G3 X3.099 Y5.6742 I0. J-0.816
G1 Y5.4242
G3 X3.915 Y4.6082 I0.816 J0.
G1 X4.29
G2 X4.599 Y4.2992 I0. J-0.309
G1 Y2.6742
G2 X4.5817 Y2.6325 I-0.059 J0.
G1 X4.349 Y2.3997
Y1.973
G2 X4.1945 Y1.7054 I-0.309 J0.
G3 X4.099 Y1.54 I0.0955 J-0.1654
G1 Y0.165
G2 X3.915 Y-0.019 I-0.184 J0.
G1 X3.165
G2 X2.981 Y0.165 I0. J0.184
G1 Y1.54
G3 X2.8855 Y1.7054 I-0.191 J0.
G2 X2.731 Y1.973 I0.1545 J0.2676
G1 Y2.3829
X0.3488 Y3.2499
G2 X-0.019 Y3.7752 I0.1912 J0.5253
G1 Y6.6063
Y7.3559
Y8.1055 Z-0.1 F20.
Y9.6742 F30.
G2 X0.54 Y10.2332 I0.559 J0.
G1 X6.5492
G2 X6.7332 Y10.0492 I0. J-0.184
G1 Y9.2992
G2 X6.5492 Y9.1152 I-0.184 J0.
G1 X4.0492
G3 X3.9832 Y9.0492 I0. J-0.066
G1 Y7.9262
G2 X3.7992 Y7.7422 I-0.184 J0.
G1 X2.789
X2.7875 Y7.7419
X2.7861 Y7.7411
X2.7851 Y7.7399
X2.7846 Y7.7385
Y7.7369
X2.7851 Y7.7354
X2.7861 Y7.7342
X2.7875 Y7.7334
X2.789 Y7.7332
X4.29
G2 X4.599 Y7.4242 I0. J-0.309
G1 Y6.7992
G2 X4.29 Y6.4902 I-0.309 J0.
G1 X3.915
G3 X3.099 Y5.6742 I0. J-0.816
G1 Y5.4242
G3 X3.915 Y4.6082 I0.816 J0.
G1 X4.29
G2 X4.599 Y4.2992 I0. J-0.309
G1 Y2.6742
G2 X4.5817 Y2.6325 I-0.059 J0.
G1 X4.349 Y2.3997
Y1.973
G2 X4.1945 Y1.7054 I-0.309 J0.
G3 X4.099 Y1.54 I0.0955 J-0.1654
G1 Y0.165
G2 X3.915 Y-0.019 I-0.184 J0.
G1 X3.165
G2 X2.981 Y0.165 I0. J0.184
G1 Y1.54
G3 X2.8855 Y1.7054 I-0.191 J0.
G2 X2.731 Y1.973 I0.1545 J0.2676
G1 Y2.3829
X0.3488 Y3.2499
G2 X-0.019 Y3.7752 I0.1912 J0.5253
G1 Y7.3559
Y8.1055
Y8.8551 Z-0.12 F20.
Y9.6742 F30.
G2 X0.54 Y10.2332 I0.559 J0.
G1 X6.5492
G2 X6.7332 Y10.0492 I0. J-0.184
G1 Y9.2992
G2 X6.5492 Y9.1152 I-0.184 J0.
G1 X4.0492
G3 X3.9832 Y9.0492 I0. J-0.066
G1 Y7.9262
G2 X3.7992 Y7.7422 I-0.184 J0.
G1 X2.789
X2.7875 Y7.7419
X2.7861 Y7.7411
X2.7851 Y7.7399
X2.7846 Y7.7385
Y7.7369
X2.7851 Y7.7354
X2.7861 Y7.7342
X2.7875 Y7.7334
X2.789 Y7.7332
X4.29
G2 X4.599 Y7.4242 I0. J-0.309
G1 Y6.7992
G2 X4.29 Y6.4902 I-0.309 J0.
G1 X3.915
G3 X3.099 Y5.6742 I0. J-0.816
G1 Y5.4242
G3 X3.915 Y4.6082 I0.816 J0.
G1 X4.29
G2 X4.599 Y4.2992 I0. J-0.309
G1 Y2.6742
G2 X4.5817 Y2.6325 I-0.059 J0.
G1 X4.349 Y2.3997
Y1.973
G2 X4.1945 Y1.7054 I-0.309 J0.
G3 X4.099 Y1.54 I0.0955 J-0.1654
G1 Y0.165
G2 X3.915 Y-0.019 I-0.184 J0.
G1 X3.165
G2 X2.981 Y0.165 I0. J0.184
G1 Y1.54
G3 X2.8855 Y1.7054 I-0.191 J0.
G2 X2.731 Y1.973 I0.1545 J0.2676
G1 Y2.3829
X0.3488 Y3.2499
G2 X-0.019 Y3.7752 I0.1912 J0.5253
G1 Y8.1055
Y8.8551
Y9.3236 Z-0.1325 F20.
Y9.6742 F30.
G2 X0.54 Y10.2332 I0.559 J0.
G1 X6.5492
G2 X6.7332 Y10.0492 I0. J-0.184
G1 Y9.2992
G2 X6.5492 Y9.1152 I-0.184 J0.
G1 X4.0492
G3 X3.9832 Y9.0492 I0. J-0.066
G1 Y7.9262
G2 X3.7992 Y7.7422 I-0.184 J0.
G1 X2.789
X2.7875 Y7.7419
X2.7861 Y7.7411
X2.7851 Y7.7399
X2.7846 Y7.7385
Y7.7369
X2.7851 Y7.7354
X2.7861 Y7.7342
X2.7875 Y7.7334
X2.789 Y7.7332
X4.29
G2 X4.599 Y7.4242 I0. J-0.309
G1 Y6.7992
G2 X4.29 Y6.4902 I-0.309 J0.
G1 X3.915
G3 X3.099 Y5.6742 I0. J-0.816
G1 Y5.4242
G3 X3.915 Y4.6082 I0.816 J0.
G1 X4.29
G2 X4.599 Y4.2992 I0. J-0.309
G1 Y2.6742
G2 X4.5817 Y2.6325 I-0.059 J0.
G1 X4.349 Y2.3997
Y1.973
G2 X4.1945 Y1.7054 I-0.309 J0.
G3 X4.099 Y1.54 I0.0955 J-0.1654
G1 Y0.165
G2 X3.915 Y-0.019 I-0.184 J0.
G1 X3.165
G2 X2.981 Y0.165 I0. J0.184
G1 Y1.54
G3 X2.8855 Y1.7054 I-0.191 J0.
G2 X2.731 Y1.973 I0.1545 J0.2676
G1 Y2.3829
X0.3488 Y3.2499
G2 X-0.019 Y3.7752 I0.1912 J0.5253
G1 Y8.8551
Y9.3236
Y9.6742 Z-0.1419 F20.
G2 X-0.0066 Y9.7912 Z-0.145 I0.559 J0.
X0.54 Y10.2332 I0.5466 J-0.1171 F30.
G1 X6.5492
G2 X6.7332 Y10.0492 I0. J-0.184
G1 Y9.2992
G2 X6.5492 Y9.1152 I-0.184 J0.
G1 X4.0492
G3 X3.9832 Y9.0492 I0. J-0.066
G1 Y7.9262
G2 X3.7992 Y7.7422 I-0.184 J0.
G1 X2.789
X2.7875 Y7.7419
X2.7861 Y7.7411
X2.7851 Y7.7399
X2.7846 Y7.7385
Y7.7369
X2.7851 Y7.7354
X2.7861 Y7.7342
X2.7875 Y7.7334
X2.789 Y7.7332
X4.29
G2 X4.599 Y7.4242 I0. J-0.309
G1 Y6.7992
G2 X4.29 Y6.4902 I-0.309 J0.
G1 X3.915
G3 X3.099 Y5.6742 I0. J-0.816
G1 Y5.4242
G3 X3.915 Y4.6082 I0.816 J0.
G1 X4.29
G2 X4.599 Y4.2992 I0. J-0.309
G1 Y2.6742
G2 X4.5817 Y2.6325 I-0.059 J0.
G1 X4.349 Y2.3997
Y1.973
G2 X4.1945 Y1.7054 I-0.309 J0.
G3 X4.099 Y1.54 I0.0955 J-0.1654
G1 Y0.165
G2 X3.915 Y-0.019 I-0.184 J0.
G1 X3.165
G2 X2.981 Y0.165 I0. J0.184
G1 Y1.54
G3 X2.8855 Y1.7054 I-0.191 J0.
G2 X2.731 Y1.973 I0.1545 J0.2676
G1 Y2.3829
X0.3488 Y3.2499
G2 X-0.019 Y3.7752 I0.1912 J0.5253
G1 Y9.3236
Y9.6742
G2 X-0.0066 Y9.7912 I0.559 J0.
G3 X-0.0157 Y9.8053 I-0.0115 J0.0025
G1 X-0.0272 Y9.8077
X-0.0298 Y9.8083 Z-0.1447
X-0.0322 Y9.8088 Z-0.1438
X-0.0344 Y9.8093 Z-0.1424
X-0.0362 Y9.8097 Z-0.1406
X-0.0376 Y9.81 Z-0.1383
X-0.0385 Y9.8101 Z-0.1358
X-0.0387 Y9.8102 Z-0.1332
G0 Z0.6

M9
M30
