(X4 L CLIMBER HOLE RUN 2.0)
(T3  D=0.118 CR=0. - ZMIN=-0.29 - FLAT END MILL)
G90 G94 G91.1 G40 G49 G17
G20

(2D POCKET2)
M5
T3 M6
S15000 M3
g4 p5
G54
M8
G0 X1.4925 Y0.2708
G43 Z0.6 H3
Z0.2
G1 Z0.1118 F40.
X1.4926 Y0.2701 Z0.1075 F20.
X1.4929 Y0.269 Z0.1057
X1.4935 Y0.268 Z0.1039
X1.4944 Y0.2671 Z0.1029
X1.4954 Y0.2664 Z0.102
X1.4966 Y0.2661 Z0.1011
X1.4982 Y0.266 Z0.1007
X1.4996 Y0.2665 Z0.1004
X1.5009 Y0.2673 Z0.1
G3 X1.4941 Y0.2747 Z0.0995 I-0.0034 J0.0037
X1.5009 Y0.2673 Z0.0989 I0.0034 J-0.0037
X1.4941 Y0.2747 Z0.0984 I-0.0034 J0.0037
X1.5009 Y0.2673 Z0.0978 I0.0034 J-0.0037
X1.4941 Y0.2747 Z0.0973 I-0.0034 J0.0037
X1.5009 Y0.2673 Z0.0967 I0.0034 J-0.0037
X1.4941 Y0.2747 Z0.0962 I-0.0034 J0.0037
X1.5009 Y0.2673 Z0.0956 I0.0034 J-0.0037
X1.4941 Y0.2747 Z0.0951 I-0.0034 J0.0037
X1.5009 Y0.2673 Z0.0945 I0.0034 J-0.0037
X1.4941 Y0.2747 Z0.094 I-0.0034 J0.0037
X1.5009 Y0.2673 Z0.0934 I0.0034 J-0.0037
X1.4941 Y0.2747 Z0.0929 I-0.0034 J0.0037
X1.5009 Y0.2673 Z0.0923 I0.0034 J-0.0037
X1.4941 Y0.2747 Z0.0918 I-0.0034 J0.0037
X1.5009 Y0.2673 Z0.0912 I0.0034 J-0.0037
X1.4941 Y0.2747 Z0.0907 I-0.0034 J0.0037
X1.5009 Y0.2673 Z0.0901 I0.0034 J-0.0037
X1.4941 Y0.2747 Z0.0896 I-0.0034 J0.0037
X1.5009 Y0.2673 Z0.089 I0.0034 J-0.0037
X1.4941 Y0.2747 Z0.0885 I-0.0034 J0.0037
X1.5009 Y0.2673 Z0.0879 I0.0034 J-0.0037
X1.4941 Y0.2747 Z0.0874 I-0.0034 J0.0037
X1.5009 Y0.2673 Z0.0868 I0.0034 J-0.0037
X1.4941 Y0.2747 Z0.0863 I-0.0034 J0.0037
X1.5009 Y0.2673 Z0.0857 I0.0034 J-0.0037
X1.4941 Y0.2747 Z0.0852 I-0.0034 J0.0037
X1.5009 Y0.2673 Z0.0846 I0.0034 J-0.0037
X1.4941 Y0.2747 Z0.0841 I-0.0034 J0.0037
X1.5009 Y0.2673 Z0.0835 I0.0034 J-0.0037
X1.4941 Y0.2747 Z0.083 I-0.0034 J0.0037
X1.5009 Y0.2673 Z0.0824 I0.0034 J-0.0037
X1.4941 Y0.2747 Z0.0819 I-0.0034 J0.0037
X1.5009 Y0.2673 Z0.0813 I0.0034 J-0.0037
X1.4941 Y0.2747 Z0.0808 I-0.0034 J0.0037
X1.5009 Y0.2673 Z0.0803 I0.0034 J-0.0037
X1.4941 Y0.2747 Z0.0797 I-0.0034 J0.0037
X1.5009 Y0.2673 Z0.0792 I0.0034 J-0.0037
X1.4941 Y0.2747 Z0.0786 I-0.0034 J0.0037
X1.5009 Y0.2673 Z0.0781 I0.0034 J-0.0037
X1.4941 Y0.2747 Z0.0775 I-0.0034 J0.0037
X1.5009 Y0.2673 Z0.077 I0.0034 J-0.0037
X1.4941 Y0.2747 Z0.0764 I-0.0034 J0.0037
X1.5009 Y0.2673 Z0.0759 I0.0034 J-0.0037
X1.4941 Y0.2747 Z0.0753 I-0.0034 J0.0037
X1.5009 Y0.2673 Z0.0748 I0.0034 J-0.0037
X1.4941 Y0.2747 Z0.0742 I-0.0034 J0.0037
X1.5009 Y0.2673 Z0.0737 I0.0034 J-0.0037
X1.4941 Y0.2747 Z0.0731 I-0.0034 J0.0037
X1.5009 Y0.2673 Z0.0726 I0.0034 J-0.0037
X1.4941 Y0.2747 Z0.072 I-0.0034 J0.0037
X1.5009 Y0.2673 Z0.0715 I0.0034 J-0.0037
X1.4941 Y0.2747 Z0.0709 I-0.0034 J0.0037
X1.5009 Y0.2673 Z0.0704 I0.0034 J-0.0037
X1.4941 Y0.2747 Z0.0698 I-0.0034 J0.0037
X1.5009 Y0.2673 Z0.0693 I0.0034 J-0.0037
X1.4941 Y0.2747 Z0.0687 I-0.0034 J0.0037
X1.5009 Y0.2673 Z0.0682 I0.0034 J-0.0037
X1.4941 Y0.2747 Z0.0676 I-0.0034 J0.0037
X1.5009 Y0.2673 Z0.0671 I0.0034 J-0.0037
X1.4941 Y0.2747 Z0.0665 I-0.0034 J0.0037
X1.5009 Y0.2673 Z0.066 I0.0034 J-0.0037
X1.4941 Y0.2747 Z0.0654 I-0.0034 J0.0037
X1.5009 Y0.2673 Z0.0649 I0.0034 J-0.0037
X1.4941 Y0.2747 Z0.0643 I-0.0034 J0.0037
X1.5009 Y0.2673 Z0.0638 I0.0034 J-0.0037
X1.4941 Y0.2747 Z0.0632 I-0.0034 J0.0037
X1.5009 Y0.2673 Z0.0627 I0.0034 J-0.0037
X1.4941 Y0.2747 Z0.0622 I-0.0034 J0.0037
X1.5009 Y0.2673 Z0.0616 I0.0034 J-0.0037
X1.4941 Y0.2747 Z0.0611 I-0.0034 J0.0037
X1.5009 Y0.2673 Z0.0605 I0.0034 J-0.0037
X1.4941 Y0.2747 Z0.06 I-0.0034 J0.0037
X1.5009 Y0.2673 Z0.0594 I0.0034 J-0.0037
X1.4941 Y0.2747 Z0.0589 I-0.0034 J0.0037
X1.5009 Y0.2673 Z0.0583 I0.0034 J-0.0037
X1.4941 Y0.2747 Z0.0578 I-0.0034 J0.0037
X1.5009 Y0.2673 Z0.0572 I0.0034 J-0.0037
X1.4941 Y0.2747 Z0.0567 I-0.0034 J0.0037
X1.5009 Y0.2673 Z0.0561 I0.0034 J-0.0037
X1.4941 Y0.2747 Z0.0556 I-0.0034 J0.0037
X1.5009 Y0.2673 Z0.055 I0.0034 J-0.0037
X1.4941 Y0.2747 Z0.0545 I-0.0034 J0.0037
X1.5009 Y0.2673 Z0.0539 I0.0034 J-0.0037
X1.4941 Y0.2747 Z0.0534 I-0.0034 J0.0037
X1.5009 Y0.2673 Z0.0528 I0.0034 J-0.0037
X1.4941 Y0.2747 Z0.0523 I-0.0034 J0.0037
X1.5009 Y0.2673 Z0.0517 I0.0034 J-0.0037
X1.4941 Y0.2747 Z0.0512 I-0.0034 J0.0037
X1.5009 Y0.2673 Z0.0506 I0.0034 J-0.0037
X1.4941 Y0.2747 Z0.0501 I-0.0034 J0.0037
X1.5009 Y0.2673 Z0.0495 I0.0034 J-0.0037
X1.4941 Y0.2747 Z0.049 I-0.0034 J0.0037
X1.5009 Y0.2673 Z0.0484 I0.0034 J-0.0037
X1.4941 Y0.2747 Z0.0479 I-0.0034 J0.0037
X1.5009 Y0.2673 Z0.0473 I0.0034 J-0.0037
X1.4941 Y0.2747 Z0.0468 I-0.0034 J0.0037
X1.5009 Y0.2673 Z0.0462 I0.0034 J-0.0037
X1.4941 Y0.2747 Z0.0457 I-0.0034 J0.0037
X1.5009 Y0.2673 Z0.0451 I0.0034 J-0.0037
X1.4941 Y0.2747 Z0.0446 I-0.0034 J0.0037
X1.5009 Y0.2673 Z0.044 I0.0034 J-0.0037
X1.4941 Y0.2747 Z0.0435 I-0.0034 J0.0037
X1.5009 Y0.2673 Z0.043 I0.0034 J-0.0037
X1.4941 Y0.2747 Z0.0424 I-0.0034 J0.0037
X1.5009 Y0.2673 Z0.0419 I0.0034 J-0.0037
X1.4941 Y0.2747 Z0.0413 I-0.0034 J0.0037
X1.5009 Y0.2673 Z0.0408 I0.0034 J-0.0037
X1.4941 Y0.2747 Z0.0402 I-0.0034 J0.0037
X1.5009 Y0.2673 Z0.0397 I0.0034 J-0.0037
X1.4941 Y0.2747 Z0.0391 I-0.0034 J0.0037
X1.5009 Y0.2673 Z0.0386 I0.0034 J-0.0037
X1.4941 Y0.2747 Z0.038 I-0.0034 J0.0037
X1.5009 Y0.2673 Z0.0375 I0.0034 J-0.0037
X1.4941 Y0.2747 Z0.0369 I-0.0034 J0.0037
X1.5009 Y0.2673 Z0.0364 I0.0034 J-0.0037
X1.4941 Y0.2747 Z0.0358 I-0.0034 J0.0037
X1.5009 Y0.2673 Z0.0353 I0.0034 J-0.0037
X1.4941 Y0.2747 Z0.0347 I-0.0034 J0.0037
X1.5009 Y0.2673 Z0.0342 I0.0034 J-0.0037
X1.4941 Y0.2747 Z0.0336 I-0.0034 J0.0037
X1.5009 Y0.2673 Z0.0331 I0.0034 J-0.0037
X1.4941 Y0.2747 Z0.0325 I-0.0034 J0.0037
X1.5009 Y0.2673 Z0.032 I0.0034 J-0.0037
X1.4941 Y0.2747 Z0.0314 I-0.0034 J0.0037
X1.5009 Y0.2673 Z0.0309 I0.0034 J-0.0037
X1.4941 Y0.2747 Z0.0303 I-0.0034 J0.0037
X1.5009 Y0.2673 Z0.0298 I0.0034 J-0.0037
X1.4941 Y0.2747 Z0.0292 I-0.0034 J0.0037
X1.5009 Y0.2673 Z0.0287 I0.0034 J-0.0037
X1.4941 Y0.2747 Z0.0281 I-0.0034 J0.0037
X1.5009 Y0.2673 Z0.0276 I0.0034 J-0.0037
X1.4941 Y0.2747 Z0.027 I-0.0034 J0.0037
X1.5009 Y0.2673 Z0.0265 I0.0034 J-0.0037
X1.4941 Y0.2747 Z0.0259 I-0.0034 J0.0037
X1.5009 Y0.2673 Z0.0254 I0.0034 J-0.0037
X1.4941 Y0.2747 Z0.0249 I-0.0034 J0.0037
X1.5009 Y0.2673 Z0.0243 I0.0034 J-0.0037
X1.4941 Y0.2747 Z0.0238 I-0.0034 J0.0037
X1.5009 Y0.2673 Z0.0232 I0.0034 J-0.0037
X1.4941 Y0.2747 Z0.0227 I-0.0034 J0.0037
X1.5009 Y0.2673 Z0.0221 I0.0034 J-0.0037
X1.4941 Y0.2747 Z0.0216 I-0.0034 J0.0037
X1.5009 Y0.2673 Z0.021 I0.0034 J-0.0037
X1.4941 Y0.2747 Z0.0205 I-0.0034 J0.0037
X1.5009 Y0.2673 Z0.0199 I0.0034 J-0.0037
X1.4941 Y0.2747 Z0.0194 I-0.0034 J0.0037
X1.5009 Y0.2673 Z0.0188 I0.0034 J-0.0037
X1.4941 Y0.2747 Z0.0183 I-0.0034 J0.0037
X1.5009 Y0.2673 Z0.0177 I0.0034 J-0.0037
X1.4941 Y0.2747 Z0.0172 I-0.0034 J0.0037
X1.5009 Y0.2673 Z0.0166 I0.0034 J-0.0037
X1.4941 Y0.2747 Z0.0161 I-0.0034 J0.0037
X1.5009 Y0.2673 Z0.0155 I0.0034 J-0.0037
X1.4941 Y0.2747 Z0.015 I-0.0034 J0.0037
X1.5009 Y0.2673 Z0.0144 I0.0034 J-0.0037
X1.4941 Y0.2747 Z0.0139 I-0.0034 J0.0037
X1.5009 Y0.2673 Z0.0133 I0.0034 J-0.0037
X1.4941 Y0.2747 Z0.0128 I-0.0034 J0.0037
X1.5009 Y0.2673 Z0.0122 I0.0034 J-0.0037
X1.4941 Y0.2747 Z0.0117 I-0.0034 J0.0037
X1.5009 Y0.2673 Z0.0111 I0.0034 J-0.0037
X1.4941 Y0.2747 Z0.0106 I-0.0034 J0.0037
X1.5009 Y0.2673 Z0.01 I0.0034 J-0.0037
X1.4941 Y0.2747 Z0.0095 I-0.0034 J0.0037
X1.5009 Y0.2673 Z0.0089 I0.0034 J-0.0037
X1.4941 Y0.2747 Z0.0084 I-0.0034 J0.0037
X1.5009 Y0.2673 Z0.0078 I0.0034 J-0.0037
X1.4941 Y0.2747 Z0.0073 I-0.0034 J0.0037
X1.5009 Y0.2673 Z0.0067 I0.0034 J-0.0037
X1.4941 Y0.2747 Z0.0062 I-0.0034 J0.0037
X1.5009 Y0.2673 Z0.0057 I0.0034 J-0.0037
X1.4941 Y0.2747 Z0.0051 I-0.0034 J0.0037
X1.5009 Y0.2673 Z0.0046 I0.0034 J-0.0037
X1.4941 Y0.2747 Z0.004 I-0.0034 J0.0037
X1.5009 Y0.2673 Z0.0035 I0.0034 J-0.0037
X1.4941 Y0.2747 Z0.0029 I-0.0034 J0.0037
X1.5009 Y0.2673 Z0.0024 I0.0034 J-0.0037
X1.4941 Y0.2747 Z0.0018 I-0.0034 J0.0037
X1.5009 Y0.2673 Z0.0013 I0.0034 J-0.0037
X1.4941 Y0.2747 Z0.0007 I-0.0034 J0.0037
X1.5009 Y0.2673 Z0.0002 I0.0034 J-0.0037
X1.4941 Y0.2747 Z-0.0004 I-0.0034 J0.0037
X1.5009 Y0.2673 Z-0.0009 I0.0034 J-0.0037
X1.4941 Y0.2747 Z-0.0015 I-0.0034 J0.0037
X1.5009 Y0.2673 Z-0.002 I0.0034 J-0.0037
X1.4941 Y0.2747 Z-0.0026 I-0.0034 J0.0037
X1.5009 Y0.2673 Z-0.0031 I0.0034 J-0.0037
X1.4941 Y0.2747 Z-0.0037 I-0.0034 J0.0037
X1.5009 Y0.2673 Z-0.0042 I0.0034 J-0.0037
X1.4941 Y0.2747 Z-0.0048 I-0.0034 J0.0037
X1.5009 Y0.2673 Z-0.0053 I0.0034 J-0.0037
X1.4941 Y0.2747 Z-0.0059 I-0.0034 J0.0037
X1.5009 Y0.2673 Z-0.0064 I0.0034 J-0.0037
X1.4941 Y0.2747 Z-0.007 I-0.0034 J0.0037
X1.5009 Y0.2673 Z-0.0075 I0.0034 J-0.0037
X1.4941 Y0.2747 Z-0.0081 I-0.0034 J0.0037
X1.5009 Y0.2673 Z-0.0086 I0.0034 J-0.0037
X1.4941 Y0.2747 Z-0.0092 I-0.0034 J0.0037
X1.5009 Y0.2673 Z-0.0097 I0.0034 J-0.0037
X1.4941 Y0.2747 Z-0.0103 I-0.0034 J0.0037
X1.5009 Y0.2673 Z-0.0108 I0.0034 J-0.0037
X1.4941 Y0.2747 Z-0.0114 I-0.0034 J0.0037
X1.5009 Y0.2673 Z-0.0119 I0.0034 J-0.0037
X1.4941 Y0.2747 Z-0.0124 I-0.0034 J0.0037
X1.5009 Y0.2673 Z-0.013 I0.0034 J-0.0037
X1.4941 Y0.2747 Z-0.0135 I-0.0034 J0.0037
X1.5009 Y0.2673 Z-0.0141 I0.0034 J-0.0037
X1.4941 Y0.2747 Z-0.0146 I-0.0034 J0.0037
X1.5009 Y0.2673 Z-0.0152 I0.0034 J-0.0037
X1.4941 Y0.2747 Z-0.0157 I-0.0034 J0.0037
X1.5009 Y0.2673 Z-0.0163 I0.0034 J-0.0037
X1.4941 Y0.2747 Z-0.0168 I-0.0034 J0.0037
X1.5009 Y0.2673 Z-0.0174 I0.0034 J-0.0037
X1.4941 Y0.2747 Z-0.0179 I-0.0034 J0.0037
X1.5009 Y0.2673 Z-0.0185 I0.0034 J-0.0037
X1.4941 Y0.2747 Z-0.019 I-0.0034 J0.0037
X1.5009 Y0.2673 Z-0.0196 I0.0034 J-0.0037
X1.4975 Y0.276 Z-0.02 I-0.0034 J0.0037
Y0.224 I0. J-0.026 F40.
Y0.276 I0. J0.026
Y0.224 Z-0.0229 I0. J-0.026 F20.
Y0.276 Z-0.0257 I0. J0.026
Y0.224 Z-0.0286 I0. J-0.026
Y0.276 Z-0.0314 I0. J0.026
Y0.224 Z-0.0343 I0. J-0.026
Y0.276 Z-0.0371 I0. J0.026
X1.4715 Y0.2495 Z-0.0386 I0. J-0.026
X1.4985 Y0.224 Z-0.04 I0.026 J0.0005
X1.4965 Y0.276 I-0.001 J0.026 F40.
X1.4985 Y0.224 I0.001 J-0.026
X1.4965 Y0.276 Z-0.0429 I-0.001 J0.026 F20.
X1.4985 Y0.224 Z-0.0457 I0.001 J-0.026
X1.4965 Y0.276 Z-0.0486 I-0.001 J0.026
X1.4985 Y0.224 Z-0.0514 I0.001 J-0.026
X1.4965 Y0.276 Z-0.0543 I-0.001 J0.026
X1.4985 Y0.224 Z-0.0571 I0.001 J-0.026
X1.5235 Y0.2514 Z-0.0586 I-0.001 J0.026
X1.4956 Y0.2759 Z-0.06 I-0.026 J-0.0014
X1.4994 Y0.2241 I0.0019 J-0.0259 F40.
X1.4956 Y0.2759 I-0.0019 J0.0259
X1.4994 Y0.2241 Z-0.0629 I0.0019 J-0.0259 F20.
X1.4956 Y0.2759 Z-0.0657 I-0.0019 J0.0259
X1.4994 Y0.2241 Z-0.0686 I0.0019 J-0.0259
X1.4956 Y0.2759 Z-0.0714 I-0.0019 J0.0259
X1.4994 Y0.2241 Z-0.0743 I0.0019 J-0.0259
X1.4956 Y0.2759 Z-0.0771 I-0.0019 J0.0259
X1.4716 Y0.2476 Z-0.0786 I0.0019 J-0.0259
X1.5004 Y0.2242 Z-0.08 I0.0259 J0.0024
X1.4946 Y0.2758 I-0.0029 J0.0258 F40.
X1.5004 Y0.2242 I0.0029 J-0.0258
X1.4946 Y0.2758 Z-0.0829 I-0.0029 J0.0258 F20.
X1.5004 Y0.2242 Z-0.0857 I0.0029 J-0.0258
X1.4946 Y0.2758 Z-0.0886 I-0.0029 J0.0258
X1.5004 Y0.2242 Z-0.0914 I0.0029 J-0.0258
X1.4946 Y0.2758 Z-0.0943 I-0.0029 J0.0258
X1.5004 Y0.2242 Z-0.0971 I0.0029 J-0.0258
X1.5233 Y0.2533 Z-0.0986 I-0.0029 J0.0258
X1.4937 Y0.2757 Z-0.1 I-0.0258 J-0.0033
X1.5013 Y0.2243 I0.0038 J-0.0257 F40.
X1.4937 Y0.2757 I-0.0038 J0.0257
X1.5013 Y0.2243 Z-0.1029 I0.0038 J-0.0257 F20.
X1.4937 Y0.2757 Z-0.1057 I-0.0038 J0.0257
X1.5013 Y0.2243 Z-0.1086 I0.0038 J-0.0257
X1.4937 Y0.2757 Z-0.1114 I-0.0038 J0.0257
X1.5013 Y0.2243 Z-0.1143 I0.0038 J-0.0257
X1.4937 Y0.2757 Z-0.1171 I-0.0038 J0.0257
X1.4719 Y0.2457 Z-0.1186 I0.0038 J-0.0257
X1.5022 Y0.2244 Z-0.12 I0.0256 J0.0043
X1.4928 Y0.2756 I-0.0047 J0.0256 F40.
X1.5022 Y0.2244 I0.0047 J-0.0256
X1.4928 Y0.2756 Z-0.1229 I-0.0047 J0.0256 F20.
X1.5022 Y0.2244 Z-0.1257 I0.0047 J-0.0256
X1.4928 Y0.2756 Z-0.1286 I-0.0047 J0.0256
X1.5022 Y0.2244 Z-0.1314 I0.0047 J-0.0256
X1.4928 Y0.2756 Z-0.1343 I-0.0047 J0.0256
X1.5022 Y0.2244 Z-0.1371 I0.0047 J-0.0256
X1.523 Y0.2552 Z-0.1386 I-0.0047 J0.0256
X1.4918 Y0.2754 Z-0.14 I-0.0255 J-0.0052
X1.5032 Y0.2246 I0.0057 J-0.0254 F40.
X1.4918 Y0.2754 I-0.0057 J0.0254
X1.5032 Y0.2246 Z-0.1429 I0.0057 J-0.0254 F20.
X1.4918 Y0.2754 Z-0.1457 I-0.0057 J0.0254
X1.5032 Y0.2246 Z-0.1486 I0.0057 J-0.0254
X1.4918 Y0.2754 Z-0.1514 I-0.0057 J0.0254
X1.5032 Y0.2246 Z-0.1543 I0.0057 J-0.0254
X1.4918 Y0.2754 Z-0.1571 I-0.0057 J0.0254
X1.4722 Y0.2439 Z-0.1586 I0.0057 J-0.0254
X1.5041 Y0.2249 Z-0.16 I0.0253 J0.0061
X1.4909 Y0.2751 I-0.0066 J0.0251 F40.
X1.5041 Y0.2249 I0.0066 J-0.0251
X1.4909 Y0.2751 Z-0.1629 I-0.0066 J0.0251 F20.
X1.5041 Y0.2249 Z-0.1657 I0.0066 J-0.0251
X1.4909 Y0.2751 Z-0.1686 I-0.0066 J0.0251
X1.5041 Y0.2249 Z-0.1714 I0.0066 J-0.0251
X1.4909 Y0.2751 Z-0.1743 I-0.0066 J0.0251
X1.5041 Y0.2249 Z-0.1771 I0.0066 J-0.0251
X1.5225 Y0.2571 Z-0.1786 I-0.0066 J0.0251
X1.49 Y0.2749 Z-0.18 I-0.025 J-0.0071
X1.505 Y0.2251 I0.0075 J-0.0249 F40.
X1.49 Y0.2749 I-0.0075 J0.0249
X1.505 Y0.2251 Z-0.1829 I0.0075 J-0.0249 F20.
X1.49 Y0.2749 Z-0.1857 I-0.0075 J0.0249
X1.505 Y0.2251 Z-0.1886 I0.0075 J-0.0249
X1.49 Y0.2749 Z-0.1914 I-0.0075 J0.0249
X1.505 Y0.2251 Z-0.1943 I0.0075 J-0.0249
X1.49 Y0.2749 Z-0.1971 I-0.0075 J0.0249
X1.4728 Y0.242 Z-0.1986 I0.0075 J-0.0249
X1.5059 Y0.2254 Z-0.2 I0.0247 J0.008
X1.4891 Y0.2746 I-0.0084 J0.0246 F40.
X1.5059 Y0.2254 I0.0084 J-0.0246
X1.4891 Y0.2746 Z-0.2029 I-0.0084 J0.0246 F20.
X1.5059 Y0.2254 Z-0.2057 I0.0084 J-0.0246
X1.4891 Y0.2746 Z-0.2086 I-0.0084 J0.0246
X1.5059 Y0.2254 Z-0.2114 I0.0084 J-0.0246
X1.4891 Y0.2746 Z-0.2143 I-0.0084 J0.0246
X1.5059 Y0.2254 Z-0.2171 I0.0084 J-0.0246
X1.5219 Y0.2589 Z-0.2186 I-0.0084 J0.0246
X1.4882 Y0.2743 Z-0.22 I-0.0244 J-0.0089
X1.5068 Y0.2257 I0.0093 J-0.0243 F40.
X1.4882 Y0.2743 I-0.0093 J0.0243
X1.5068 Y0.2257 Z-0.2229 I0.0093 J-0.0243 F20.
X1.4882 Y0.2743 Z-0.2257 I-0.0093 J0.0243
X1.5068 Y0.2257 Z-0.2286 I0.0093 J-0.0243
X1.4882 Y0.2743 Z-0.2314 I-0.0093 J0.0243
X1.5068 Y0.2257 Z-0.2343 I0.0093 J-0.0243
X1.4882 Y0.2743 Z-0.2371 I-0.0093 J0.0243
X1.4734 Y0.2402 Z-0.2386 I0.0093 J-0.0243
X1.5077 Y0.2261 Z-0.24 I0.0241 J0.0098
X1.4873 Y0.2739 I-0.0102 J0.0239 F40.
X1.5077 Y0.2261 I0.0102 J-0.0239
X1.4873 Y0.2739 Z-0.2429 I-0.0102 J0.0239 F20.
X1.5077 Y0.2261 Z-0.2457 I0.0102 J-0.0239
X1.4873 Y0.2739 Z-0.2486 I-0.0102 J0.0239
X1.5077 Y0.2261 Z-0.2514 I0.0102 J-0.0239
X1.4873 Y0.2739 Z-0.2543 I-0.0102 J0.0239
X1.5077 Y0.2261 Z-0.2571 I0.0102 J-0.0239
X1.5212 Y0.2607 Z-0.2586 I-0.0102 J0.0239
X1.4864 Y0.2735 Z-0.26 I-0.0237 J-0.0107
X1.5086 Y0.2265 I0.0111 J-0.0235 F40.
X1.4864 Y0.2735 I-0.0111 J0.0235
X1.5086 Y0.2265 Z-0.2629 I0.0111 J-0.0235 F20.
X1.4864 Y0.2735 Z-0.2657 I-0.0111 J0.0235
X1.5086 Y0.2265 Z-0.2686 I0.0111 J-0.0235
X1.4864 Y0.2735 Z-0.2714 I-0.0111 J0.0235
X1.5086 Y0.2265 Z-0.2743 I0.0111 J-0.0235
X1.4864 Y0.2735 Z-0.2771 I-0.0111 J0.0235
X1.4742 Y0.2385 Z-0.2786 I0.0111 J-0.0235
X1.5095 Y0.2269 Z-0.28 I0.0233 J0.0115
X1.4855 Y0.2731 I-0.012 J0.0231 F40.
X1.5095 Y0.2269 I0.012 J-0.0231
X1.4855 Y0.2731 Z-0.2829 I-0.012 J0.0231 F20.
X1.5095 Y0.2269 Z-0.2857 I0.012 J-0.0231
X1.4855 Y0.2731 Z-0.2886 I-0.012 J0.0231
X1.4746 Y0.2376 Z-0.29 I0.012 J-0.0231
X1.5204 Y0.2624 I0.0229 J0.0124 F40.
X1.4746 Y0.2376 I-0.0229 J-0.0124
G1 X1.4759 Y0.2358 Z-0.2896
X1.4775 Y0.2342 Z-0.2891
X1.479 Y0.2331 Z-0.2878
X1.4808 Y0.2322 Z-0.2865
X1.4832 Y0.2316 Z-0.2827
X1.4841 Y0.2315 Z-0.2782
G0 Z0.2
X2.7267 Y0.245
G1 Z0.1118 F40.
X2.7274 Y0.2451 Z0.1075 F20.
X2.7285 Y0.2454 Z0.1057
X2.7295 Y0.246 Z0.1039
X2.7304 Y0.2469 Z0.1029
X2.7311 Y0.2479 Z0.102
X2.7314 Y0.2491 Z0.1011
X2.7315 Y0.2507 Z0.1007
X2.731 Y0.2521 Z0.1004
X2.7302 Y0.2534 Z0.1
G3 X2.7228 Y0.2466 Z0.0995 I-0.0037 J-0.0034
X2.7302 Y0.2534 Z0.0989 I0.0037 J0.0034
X2.7228 Y0.2466 Z0.0984 I-0.0037 J-0.0034
X2.7302 Y0.2534 Z0.0978 I0.0037 J0.0034
X2.7228 Y0.2466 Z0.0973 I-0.0037 J-0.0034
X2.7302 Y0.2534 Z0.0967 I0.0037 J0.0034
X2.7228 Y0.2466 Z0.0962 I-0.0037 J-0.0034
X2.7302 Y0.2534 Z0.0956 I0.0037 J0.0034
X2.7228 Y0.2466 Z0.0951 I-0.0037 J-0.0034
X2.7302 Y0.2534 Z0.0945 I0.0037 J0.0034
X2.7228 Y0.2466 Z0.094 I-0.0037 J-0.0034
X2.7302 Y0.2534 Z0.0934 I0.0037 J0.0034
X2.7228 Y0.2466 Z0.0929 I-0.0037 J-0.0034
X2.7302 Y0.2534 Z0.0923 I0.0037 J0.0034
X2.7228 Y0.2466 Z0.0918 I-0.0037 J-0.0034
X2.7302 Y0.2534 Z0.0912 I0.0037 J0.0034
X2.7228 Y0.2466 Z0.0907 I-0.0037 J-0.0034
X2.7302 Y0.2534 Z0.0901 I0.0037 J0.0034
X2.7228 Y0.2466 Z0.0896 I-0.0037 J-0.0034
X2.7302 Y0.2534 Z0.089 I0.0037 J0.0034
X2.7228 Y0.2466 Z0.0885 I-0.0037 J-0.0034
X2.7302 Y0.2534 Z0.0879 I0.0037 J0.0034
X2.7228 Y0.2466 Z0.0874 I-0.0037 J-0.0034
X2.7302 Y0.2534 Z0.0868 I0.0037 J0.0034
X2.7228 Y0.2466 Z0.0863 I-0.0037 J-0.0034
X2.7302 Y0.2534 Z0.0857 I0.0037 J0.0034
X2.7228 Y0.2466 Z0.0852 I-0.0037 J-0.0034
X2.7302 Y0.2534 Z0.0846 I0.0037 J0.0034
X2.7228 Y0.2466 Z0.0841 I-0.0037 J-0.0034
X2.7302 Y0.2534 Z0.0835 I0.0037 J0.0034
X2.7228 Y0.2466 Z0.083 I-0.0037 J-0.0034
X2.7302 Y0.2534 Z0.0824 I0.0037 J0.0034
X2.7228 Y0.2466 Z0.0819 I-0.0037 J-0.0034
X2.7302 Y0.2534 Z0.0813 I0.0037 J0.0034
X2.7228 Y0.2466 Z0.0808 I-0.0037 J-0.0034
X2.7302 Y0.2534 Z0.0803 I0.0037 J0.0034
X2.7228 Y0.2466 Z0.0797 I-0.0037 J-0.0034
X2.7302 Y0.2534 Z0.0792 I0.0037 J0.0034
X2.7228 Y0.2466 Z0.0786 I-0.0037 J-0.0034
X2.7302 Y0.2534 Z0.0781 I0.0037 J0.0034
X2.7228 Y0.2466 Z0.0775 I-0.0037 J-0.0034
X2.7302 Y0.2534 Z0.077 I0.0037 J0.0034
X2.7228 Y0.2466 Z0.0764 I-0.0037 J-0.0034
X2.7302 Y0.2534 Z0.0759 I0.0037 J0.0034
X2.7228 Y0.2466 Z0.0753 I-0.0037 J-0.0034
X2.7302 Y0.2534 Z0.0748 I0.0037 J0.0034
X2.7228 Y0.2466 Z0.0742 I-0.0037 J-0.0034
X2.7302 Y0.2534 Z0.0737 I0.0037 J0.0034
X2.7228 Y0.2466 Z0.0731 I-0.0037 J-0.0034
X2.7302 Y0.2534 Z0.0726 I0.0037 J0.0034
X2.7228 Y0.2466 Z0.072 I-0.0037 J-0.0034
X2.7302 Y0.2534 Z0.0715 I0.0037 J0.0034
X2.7228 Y0.2466 Z0.0709 I-0.0037 J-0.0034
X2.7302 Y0.2534 Z0.0704 I0.0037 J0.0034
X2.7228 Y0.2466 Z0.0698 I-0.0037 J-0.0034
X2.7302 Y0.2534 Z0.0693 I0.0037 J0.0034
X2.7228 Y0.2466 Z0.0687 I-0.0037 J-0.0034
X2.7302 Y0.2534 Z0.0682 I0.0037 J0.0034
X2.7228 Y0.2466 Z0.0676 I-0.0037 J-0.0034
X2.7302 Y0.2534 Z0.0671 I0.0037 J0.0034
X2.7228 Y0.2466 Z0.0665 I-0.0037 J-0.0034
X2.7302 Y0.2534 Z0.066 I0.0037 J0.0034
X2.7228 Y0.2466 Z0.0654 I-0.0037 J-0.0034
X2.7302 Y0.2534 Z0.0649 I0.0037 J0.0034
X2.7228 Y0.2466 Z0.0643 I-0.0037 J-0.0034
X2.7302 Y0.2534 Z0.0638 I0.0037 J0.0034
X2.7228 Y0.2466 Z0.0632 I-0.0037 J-0.0034
X2.7302 Y0.2534 Z0.0627 I0.0037 J0.0034
X2.7228 Y0.2466 Z0.0622 I-0.0037 J-0.0034
X2.7302 Y0.2534 Z0.0616 I0.0037 J0.0034
X2.7228 Y0.2466 Z0.0611 I-0.0037 J-0.0034
X2.7302 Y0.2534 Z0.0605 I0.0037 J0.0034
X2.7228 Y0.2466 Z0.06 I-0.0037 J-0.0034
X2.7302 Y0.2534 Z0.0594 I0.0037 J0.0034
X2.7228 Y0.2466 Z0.0589 I-0.0037 J-0.0034
X2.7302 Y0.2534 Z0.0583 I0.0037 J0.0034
X2.7228 Y0.2466 Z0.0578 I-0.0037 J-0.0034
X2.7302 Y0.2534 Z0.0572 I0.0037 J0.0034
X2.7228 Y0.2466 Z0.0567 I-0.0037 J-0.0034
X2.7302 Y0.2534 Z0.0561 I0.0037 J0.0034
X2.7228 Y0.2466 Z0.0556 I-0.0037 J-0.0034
X2.7302 Y0.2534 Z0.055 I0.0037 J0.0034
X2.7228 Y0.2466 Z0.0545 I-0.0037 J-0.0034
X2.7302 Y0.2534 Z0.0539 I0.0037 J0.0034
X2.7228 Y0.2466 Z0.0534 I-0.0037 J-0.0034
X2.7302 Y0.2534 Z0.0528 I0.0037 J0.0034
X2.7228 Y0.2466 Z0.0523 I-0.0037 J-0.0034
X2.7302 Y0.2534 Z0.0517 I0.0037 J0.0034
X2.7228 Y0.2466 Z0.0512 I-0.0037 J-0.0034
X2.7302 Y0.2534 Z0.0506 I0.0037 J0.0034
X2.7228 Y0.2466 Z0.0501 I-0.0037 J-0.0034
X2.7302 Y0.2534 Z0.0495 I0.0037 J0.0034
X2.7228 Y0.2466 Z0.049 I-0.0037 J-0.0034
X2.7302 Y0.2534 Z0.0484 I0.0037 J0.0034
X2.7228 Y0.2466 Z0.0479 I-0.0037 J-0.0034
X2.7302 Y0.2534 Z0.0473 I0.0037 J0.0034
X2.7228 Y0.2466 Z0.0468 I-0.0037 J-0.0034
X2.7302 Y0.2534 Z0.0462 I0.0037 J0.0034
X2.7228 Y0.2466 Z0.0457 I-0.0037 J-0.0034
X2.7302 Y0.2534 Z0.0451 I0.0037 J0.0034
X2.7228 Y0.2466 Z0.0446 I-0.0037 J-0.0034
X2.7302 Y0.2534 Z0.044 I0.0037 J0.0034
X2.7228 Y0.2466 Z0.0435 I-0.0037 J-0.0034
X2.7302 Y0.2534 Z0.043 I0.0037 J0.0034
X2.7228 Y0.2466 Z0.0424 I-0.0037 J-0.0034
X2.7302 Y0.2534 Z0.0419 I0.0037 J0.0034
X2.7228 Y0.2466 Z0.0413 I-0.0037 J-0.0034
X2.7302 Y0.2534 Z0.0408 I0.0037 J0.0034
X2.7228 Y0.2466 Z0.0402 I-0.0037 J-0.0034
X2.7302 Y0.2534 Z0.0397 I0.0037 J0.0034
X2.7228 Y0.2466 Z0.0391 I-0.0037 J-0.0034
X2.7302 Y0.2534 Z0.0386 I0.0037 J0.0034
X2.7228 Y0.2466 Z0.038 I-0.0037 J-0.0034
X2.7302 Y0.2534 Z0.0375 I0.0037 J0.0034
X2.7228 Y0.2466 Z0.0369 I-0.0037 J-0.0034
X2.7302 Y0.2534 Z0.0364 I0.0037 J0.0034
X2.7228 Y0.2466 Z0.0358 I-0.0037 J-0.0034
X2.7302 Y0.2534 Z0.0353 I0.0037 J0.0034
X2.7228 Y0.2466 Z0.0347 I-0.0037 J-0.0034
X2.7302 Y0.2534 Z0.0342 I0.0037 J0.0034
X2.7228 Y0.2466 Z0.0336 I-0.0037 J-0.0034
X2.7302 Y0.2534 Z0.0331 I0.0037 J0.0034
X2.7228 Y0.2466 Z0.0325 I-0.0037 J-0.0034
X2.7302 Y0.2534 Z0.032 I0.0037 J0.0034
X2.7228 Y0.2466 Z0.0314 I-0.0037 J-0.0034
X2.7302 Y0.2534 Z0.0309 I0.0037 J0.0034
X2.7228 Y0.2466 Z0.0303 I-0.0037 J-0.0034
X2.7302 Y0.2534 Z0.0298 I0.0037 J0.0034
X2.7228 Y0.2466 Z0.0292 I-0.0037 J-0.0034
X2.7302 Y0.2534 Z0.0287 I0.0037 J0.0034
X2.7228 Y0.2466 Z0.0281 I-0.0037 J-0.0034
X2.7302 Y0.2534 Z0.0276 I0.0037 J0.0034
X2.7228 Y0.2466 Z0.027 I-0.0037 J-0.0034
X2.7302 Y0.2534 Z0.0265 I0.0037 J0.0034
X2.7228 Y0.2466 Z0.0259 I-0.0037 J-0.0034
X2.7302 Y0.2534 Z0.0254 I0.0037 J0.0034
X2.7228 Y0.2466 Z0.0249 I-0.0037 J-0.0034
X2.7302 Y0.2534 Z0.0243 I0.0037 J0.0034
X2.7228 Y0.2466 Z0.0238 I-0.0037 J-0.0034
X2.7302 Y0.2534 Z0.0232 I0.0037 J0.0034
X2.7228 Y0.2466 Z0.0227 I-0.0037 J-0.0034
X2.7302 Y0.2534 Z0.0221 I0.0037 J0.0034
X2.7228 Y0.2466 Z0.0216 I-0.0037 J-0.0034
X2.7302 Y0.2534 Z0.021 I0.0037 J0.0034
X2.7228 Y0.2466 Z0.0205 I-0.0037 J-0.0034
X2.7302 Y0.2534 Z0.0199 I0.0037 J0.0034
X2.7228 Y0.2466 Z0.0194 I-0.0037 J-0.0034
X2.7302 Y0.2534 Z0.0188 I0.0037 J0.0034
X2.7228 Y0.2466 Z0.0183 I-0.0037 J-0.0034
X2.7302 Y0.2534 Z0.0177 I0.0037 J0.0034
X2.7228 Y0.2466 Z0.0172 I-0.0037 J-0.0034
X2.7302 Y0.2534 Z0.0166 I0.0037 J0.0034
X2.7228 Y0.2466 Z0.0161 I-0.0037 J-0.0034
X2.7302 Y0.2534 Z0.0155 I0.0037 J0.0034
X2.7228 Y0.2466 Z0.015 I-0.0037 J-0.0034
X2.7302 Y0.2534 Z0.0144 I0.0037 J0.0034
X2.7228 Y0.2466 Z0.0139 I-0.0037 J-0.0034
X2.7302 Y0.2534 Z0.0133 I0.0037 J0.0034
X2.7228 Y0.2466 Z0.0128 I-0.0037 J-0.0034
X2.7302 Y0.2534 Z0.0122 I0.0037 J0.0034
X2.7228 Y0.2466 Z0.0117 I-0.0037 J-0.0034
X2.7302 Y0.2534 Z0.0111 I0.0037 J0.0034
X2.7228 Y0.2466 Z0.0106 I-0.0037 J-0.0034
X2.7302 Y0.2534 Z0.01 I0.0037 J0.0034
X2.7228 Y0.2466 Z0.0095 I-0.0037 J-0.0034
X2.7302 Y0.2534 Z0.0089 I0.0037 J0.0034
X2.7228 Y0.2466 Z0.0084 I-0.0037 J-0.0034
X2.7302 Y0.2534 Z0.0078 I0.0037 J0.0034
X2.7228 Y0.2466 Z0.0073 I-0.0037 J-0.0034
X2.7302 Y0.2534 Z0.0067 I0.0037 J0.0034
X2.7228 Y0.2466 Z0.0062 I-0.0037 J-0.0034
X2.7302 Y0.2534 Z0.0057 I0.0037 J0.0034
X2.7228 Y0.2466 Z0.0051 I-0.0037 J-0.0034
X2.7302 Y0.2534 Z0.0046 I0.0037 J0.0034
X2.7228 Y0.2466 Z0.004 I-0.0037 J-0.0034
X2.7302 Y0.2534 Z0.0035 I0.0037 J0.0034
X2.7228 Y0.2466 Z0.0029 I-0.0037 J-0.0034
X2.7302 Y0.2534 Z0.0024 I0.0037 J0.0034
X2.7228 Y0.2466 Z0.0018 I-0.0037 J-0.0034
X2.7302 Y0.2534 Z0.0013 I0.0037 J0.0034
X2.7228 Y0.2466 Z0.0007 I-0.0037 J-0.0034
X2.7302 Y0.2534 Z0.0002 I0.0037 J0.0034
X2.7228 Y0.2466 Z-0.0004 I-0.0037 J-0.0034
X2.7302 Y0.2534 Z-0.0009 I0.0037 J0.0034
X2.7228 Y0.2466 Z-0.0015 I-0.0037 J-0.0034
X2.7302 Y0.2534 Z-0.002 I0.0037 J0.0034
X2.7228 Y0.2466 Z-0.0026 I-0.0037 J-0.0034
X2.7302 Y0.2534 Z-0.0031 I0.0037 J0.0034
X2.7228 Y0.2466 Z-0.0037 I-0.0037 J-0.0034
X2.7302 Y0.2534 Z-0.0042 I0.0037 J0.0034
X2.7228 Y0.2466 Z-0.0048 I-0.0037 J-0.0034
X2.7302 Y0.2534 Z-0.0053 I0.0037 J0.0034
X2.7228 Y0.2466 Z-0.0059 I-0.0037 J-0.0034
X2.7302 Y0.2534 Z-0.0064 I0.0037 J0.0034
X2.7228 Y0.2466 Z-0.007 I-0.0037 J-0.0034
X2.7302 Y0.2534 Z-0.0075 I0.0037 J0.0034
X2.7228 Y0.2466 Z-0.0081 I-0.0037 J-0.0034
X2.7302 Y0.2534 Z-0.0086 I0.0037 J0.0034
X2.7228 Y0.2466 Z-0.0092 I-0.0037 J-0.0034
X2.7302 Y0.2534 Z-0.0097 I0.0037 J0.0034
X2.7228 Y0.2466 Z-0.0103 I-0.0037 J-0.0034
X2.7302 Y0.2534 Z-0.0108 I0.0037 J0.0034
X2.7228 Y0.2466 Z-0.0114 I-0.0037 J-0.0034
X2.7302 Y0.2534 Z-0.0119 I0.0037 J0.0034
X2.7228 Y0.2466 Z-0.0124 I-0.0037 J-0.0034
X2.7302 Y0.2534 Z-0.013 I0.0037 J0.0034
X2.7228 Y0.2466 Z-0.0135 I-0.0037 J-0.0034
X2.7302 Y0.2534 Z-0.0141 I0.0037 J0.0034
X2.7228 Y0.2466 Z-0.0146 I-0.0037 J-0.0034
X2.7302 Y0.2534 Z-0.0152 I0.0037 J0.0034
X2.7228 Y0.2466 Z-0.0157 I-0.0037 J-0.0034
X2.7302 Y0.2534 Z-0.0163 I0.0037 J0.0034
X2.7228 Y0.2466 Z-0.0168 I-0.0037 J-0.0034
X2.7302 Y0.2534 Z-0.0174 I0.0037 J0.0034
X2.7228 Y0.2466 Z-0.0179 I-0.0037 J-0.0034
X2.7302 Y0.2534 Z-0.0185 I0.0037 J0.0034
X2.7228 Y0.2466 Z-0.019 I-0.0037 J-0.0034
X2.7302 Y0.2534 Z-0.0196 I0.0037 J0.0034
X2.7215 Y0.25 Z-0.02 I-0.0037 J-0.0034
X2.7735 I0.026 J0. F40.
X2.7215 I-0.026 J0.
X2.7735 Z-0.0229 I0.026 J0. F20.
X2.7215 Z-0.0257 I-0.026 J0.
X2.7735 Z-0.0286 I0.026 J0.
X2.7215 Z-0.0314 I-0.026 J0.
X2.7735 Z-0.0343 I0.026 J0.
X2.7215 Z-0.0371 I-0.026 J0.
X2.748 Y0.224 Z-0.0386 I0.026 J0.
X2.7735 Y0.251 Z-0.04 I-0.0005 J0.026
X2.7215 Y0.249 I-0.026 J-0.001 F40.
X2.7735 Y0.251 I0.026 J0.001
X2.7215 Y0.249 Z-0.0429 I-0.026 J-0.001 F20.
X2.7735 Y0.251 Z-0.0457 I0.026 J0.001
X2.7215 Y0.249 Z-0.0486 I-0.026 J-0.001
X2.7735 Y0.251 Z-0.0514 I0.026 J0.001
X2.7215 Y0.249 Z-0.0543 I-0.026 J-0.001
X2.7735 Y0.251 Z-0.0571 I0.026 J0.001
X2.7461 Y0.276 Z-0.0586 I-0.026 J-0.001
X2.7216 Y0.2481 Z-0.06 I0.0014 J-0.026
X2.7734 Y0.2519 I0.0259 J0.0019 F40.
X2.7216 Y0.2481 I-0.0259 J-0.0019
X2.7734 Y0.2519 Z-0.0629 I0.0259 J0.0019 F20.
X2.7216 Y0.2481 Z-0.0657 I-0.0259 J-0.0019
X2.7734 Y0.2519 Z-0.0686 I0.0259 J0.0019
X2.7216 Y0.2481 Z-0.0714 I-0.0259 J-0.0019
X2.7734 Y0.2519 Z-0.0743 I0.0259 J0.0019
X2.7216 Y0.2481 Z-0.0771 I-0.0259 J-0.0019
X2.7499 Y0.2241 Z-0.0786 I0.0259 J0.0019
X2.7733 Y0.2529 Z-0.08 I-0.0024 J0.0259
X2.7217 Y0.2471 I-0.0258 J-0.0029 F40.
X2.7733 Y0.2529 I0.0258 J0.0029
X2.7217 Y0.2471 Z-0.0829 I-0.0258 J-0.0029 F20.
X2.7733 Y0.2529 Z-0.0857 I0.0258 J0.0029
X2.7217 Y0.2471 Z-0.0886 I-0.0258 J-0.0029
X2.7733 Y0.2529 Z-0.0914 I0.0258 J0.0029
X2.7217 Y0.2471 Z-0.0943 I-0.0258 J-0.0029
X2.7733 Y0.2529 Z-0.0971 I0.0258 J0.0029
X2.7442 Y0.2758 Z-0.0986 I-0.0258 J-0.0029
X2.7218 Y0.2462 Z-0.1 I0.0033 J-0.0258
X2.7732 Y0.2538 I0.0257 J0.0038 F40.
X2.7218 Y0.2462 I-0.0257 J-0.0038
X2.7732 Y0.2538 Z-0.1029 I0.0257 J0.0038 F20.
X2.7218 Y0.2462 Z-0.1057 I-0.0257 J-0.0038
X2.7732 Y0.2538 Z-0.1086 I0.0257 J0.0038
X2.7218 Y0.2462 Z-0.1114 I-0.0257 J-0.0038
X2.7732 Y0.2538 Z-0.1143 I0.0257 J0.0038
X2.7218 Y0.2462 Z-0.1171 I-0.0257 J-0.0038
X2.7518 Y0.2244 Z-0.1186 I0.0257 J0.0038
X2.7731 Y0.2547 Z-0.12 I-0.0043 J0.0256
X2.7219 Y0.2453 I-0.0256 J-0.0047 F40.
X2.7731 Y0.2547 I0.0256 J0.0047
X2.7219 Y0.2453 Z-0.1229 I-0.0256 J-0.0047 F20.
X2.7731 Y0.2547 Z-0.1257 I0.0256 J0.0047
X2.7219 Y0.2453 Z-0.1286 I-0.0256 J-0.0047
X2.7731 Y0.2547 Z-0.1314 I0.0256 J0.0047
X2.7219 Y0.2453 Z-0.1343 I-0.0256 J-0.0047
X2.7731 Y0.2547 Z-0.1371 I0.0256 J0.0047
X2.7423 Y0.2755 Z-0.1386 I-0.0256 J-0.0047
X2.7221 Y0.2443 Z-0.14 I0.0052 J-0.0255
X2.7729 Y0.2557 I0.0254 J0.0057 F40.
X2.7221 Y0.2443 I-0.0254 J-0.0057
X2.7729 Y0.2557 Z-0.1429 I0.0254 J0.0057 F20.
X2.7221 Y0.2443 Z-0.1457 I-0.0254 J-0.0057
X2.7729 Y0.2557 Z-0.1486 I0.0254 J0.0057
X2.7221 Y0.2443 Z-0.1514 I-0.0254 J-0.0057
X2.7729 Y0.2557 Z-0.1543 I0.0254 J0.0057
X2.7221 Y0.2443 Z-0.1571 I-0.0254 J-0.0057
X2.7536 Y0.2247 Z-0.1586 I0.0254 J0.0057
X2.7726 Y0.2566 Z-0.16 I-0.0061 J0.0253
X2.7224 Y0.2434 I-0.0251 J-0.0066 F40.
X2.7726 Y0.2566 I0.0251 J0.0066
X2.7224 Y0.2434 Z-0.1629 I-0.0251 J-0.0066 F20.
X2.7726 Y0.2566 Z-0.1657 I0.0251 J0.0066
X2.7224 Y0.2434 Z-0.1686 I-0.0251 J-0.0066
X2.7726 Y0.2566 Z-0.1714 I0.0251 J0.0066
X2.7224 Y0.2434 Z-0.1743 I-0.0251 J-0.0066
X2.7726 Y0.2566 Z-0.1771 I0.0251 J0.0066
X2.7404 Y0.275 Z-0.1786 I-0.0251 J-0.0066
X2.7226 Y0.2425 Z-0.18 I0.0071 J-0.025
X2.7724 Y0.2575 I0.0249 J0.0075 F40.
X2.7226 Y0.2425 I-0.0249 J-0.0075
X2.7724 Y0.2575 Z-0.1829 I0.0249 J0.0075 F20.
X2.7226 Y0.2425 Z-0.1857 I-0.0249 J-0.0075
X2.7724 Y0.2575 Z-0.1886 I0.0249 J0.0075
X2.7226 Y0.2425 Z-0.1914 I-0.0249 J-0.0075
X2.7724 Y0.2575 Z-0.1943 I0.0249 J0.0075
X2.7226 Y0.2425 Z-0.1971 I-0.0249 J-0.0075
X2.7555 Y0.2253 Z-0.1986 I0.0249 J0.0075
X2.7721 Y0.2584 Z-0.2 I-0.008 J0.0247
X2.7229 Y0.2416 I-0.0246 J-0.0084 F40.
X2.7721 Y0.2584 I0.0246 J0.0084
X2.7229 Y0.2416 Z-0.2029 I-0.0246 J-0.0084 F20.
X2.7721 Y0.2584 Z-0.2057 I0.0246 J0.0084
X2.7229 Y0.2416 Z-0.2086 I-0.0246 J-0.0084
X2.7721 Y0.2584 Z-0.2114 I0.0246 J0.0084
X2.7229 Y0.2416 Z-0.2143 I-0.0246 J-0.0084
X2.7721 Y0.2584 Z-0.2171 I0.0246 J0.0084
X2.7386 Y0.2744 Z-0.2186 I-0.0246 J-0.0084
X2.7232 Y0.2407 Z-0.22 I0.0089 J-0.0244
X2.7718 Y0.2593 I0.0243 J0.0093 F40.
X2.7232 Y0.2407 I-0.0243 J-0.0093
X2.7718 Y0.2593 Z-0.2229 I0.0243 J0.0093 F20.
X2.7232 Y0.2407 Z-0.2257 I-0.0243 J-0.0093
X2.7718 Y0.2593 Z-0.2286 I0.0243 J0.0093
X2.7232 Y0.2407 Z-0.2314 I-0.0243 J-0.0093
X2.7718 Y0.2593 Z-0.2343 I0.0243 J0.0093
X2.7232 Y0.2407 Z-0.2371 I-0.0243 J-0.0093
X2.7573 Y0.2259 Z-0.2386 I0.0243 J0.0093
X2.7714 Y0.2602 Z-0.24 I-0.0098 J0.0241
X2.7236 Y0.2398 I-0.0239 J-0.0102 F40.
X2.7714 Y0.2602 I0.0239 J0.0102
X2.7236 Y0.2398 Z-0.2429 I-0.0239 J-0.0102 F20.
X2.7714 Y0.2602 Z-0.2457 I0.0239 J0.0102
X2.7236 Y0.2398 Z-0.2486 I-0.0239 J-0.0102
X2.7714 Y0.2602 Z-0.2514 I0.0239 J0.0102
X2.7236 Y0.2398 Z-0.2543 I-0.0239 J-0.0102
X2.7714 Y0.2602 Z-0.2571 I0.0239 J0.0102
X2.7368 Y0.2737 Z-0.2586 I-0.0239 J-0.0102
X2.724 Y0.2389 Z-0.26 I0.0107 J-0.0237
X2.771 Y0.2611 I0.0235 J0.0111 F40.
X2.724 Y0.2389 I-0.0235 J-0.0111
X2.771 Y0.2611 Z-0.2629 I0.0235 J0.0111 F20.
X2.724 Y0.2389 Z-0.2657 I-0.0235 J-0.0111
X2.771 Y0.2611 Z-0.2686 I0.0235 J0.0111
X2.724 Y0.2389 Z-0.2714 I-0.0235 J-0.0111
X2.771 Y0.2611 Z-0.2743 I0.0235 J0.0111
X2.724 Y0.2389 Z-0.2771 I-0.0235 J-0.0111
X2.759 Y0.2267 Z-0.2786 I0.0235 J0.0111
X2.7706 Y0.262 Z-0.28 I-0.0115 J0.0233
X2.7244 Y0.238 I-0.0231 J-0.012 F40.
X2.7706 Y0.262 I0.0231 J0.012
X2.7244 Y0.238 Z-0.2829 I-0.0231 J-0.012 F20.
X2.7706 Y0.262 Z-0.2857 I0.0231 J0.012
X2.7244 Y0.238 Z-0.2886 I-0.0231 J-0.012
X2.7599 Y0.2271 Z-0.29 I0.0231 J0.012
X2.7351 Y0.2729 I-0.0124 J0.0229 F40.
X2.7599 Y0.2271 I0.0124 J-0.0229
G1 X2.7617 Y0.2284 Z-0.2896
X2.7633 Y0.23 Z-0.2891
X2.7644 Y0.2315 Z-0.2878
X2.7653 Y0.2333 Z-0.2865
X2.7659 Y0.2357 Z-0.2827
X2.766 Y0.2366 Z-0.2782
G0 Z0.6
g0 x0 y0

M9
M30
