(X8 CENTER PLATE V3 CONTOUR)
(T3  D=0.118 CR=0. - ZMIN=-0.3 - FLAT END MILL)
G90 G94 G91.1 G40 G49 G17
G20

(2D CONTOUR2)
M5
T3 M6
S15000 M3
G54
M8
G0 X1.2314 Y0.4391
G43 Z0.6 H3
Z0.2
G1 Z0.1394 F20.
Z-0.0882
X1.2317 Y0.4393 Z-0.0908 F40.
X1.2325 Y0.4397 Z-0.0933
X1.2337 Y0.4403 Z-0.0956
X1.2353 Y0.4412 Z-0.0974
X1.2373 Y0.4423 Z-0.0988
X1.2395 Y0.4434 Z-0.0997
X1.2418 Y0.4447 Z-0.1
X1.2522 Y0.4502
G3 X1.2571 Y0.4662 I-0.0056 J0.0104
G2 X0.9438 Y10.3418 I9.8321 J5.2547
X1.3302 Y10.778 I0.9041 J-0.4118
X2.2597 Y10.8341 I0.5176 J-0.848
X2.7521 Y9.5182 I-0.4118 J-0.9041
G3 X3.0095 Y1.4028 I8.3371 J-3.7973
G2 X2.6016 Y0.0583 I-0.8762 J-0.4683
X1.2571 Y0.4662 I-0.4683 J0.8762
G3 X1.2411 Y0.4711 I-0.0104 J-0.0056
G1 X1.2307 Y0.4655
X1.2284 Y0.4643 Z-0.0997
X1.2262 Y0.4631 Z-0.0988
X1.2242 Y0.462 Z-0.0974
X1.2226 Y0.4611 Z-0.0956
X1.2213 Y0.4605 Z-0.0933
X1.2206 Y0.4601 Z-0.0908
X1.2203 Y0.4599 Z-0.0882
G0 Z0.2
X1.2314 Y0.4391
G1 Z0.0394 F20.
Z-0.1882
X1.2317 Y0.4393 Z-0.1908 F40.
X1.2325 Y0.4397 Z-0.1933
X1.2337 Y0.4403 Z-0.1956
X1.2353 Y0.4412 Z-0.1974
X1.2373 Y0.4423 Z-0.1988
X1.2395 Y0.4434 Z-0.1997
X1.2418 Y0.4447 Z-0.2
X1.2522 Y0.4502
G3 X1.2571 Y0.4662 I-0.0056 J0.0104
G2 X0.9438 Y10.3418 I9.8321 J5.2547
X1.3302 Y10.778 I0.9041 J-0.4118
X2.2597 Y10.8341 I0.5176 J-0.848
X2.7521 Y9.5182 I-0.4118 J-0.9041
G3 X3.0095 Y1.4028 I8.3371 J-3.7973
G2 X2.6016 Y0.0583 I-0.8762 J-0.4683
X1.2571 Y0.4662 I-0.4683 J0.8762
G3 X1.2411 Y0.4711 I-0.0104 J-0.0056
G1 X1.2307 Y0.4655
X1.2284 Y0.4643 Z-0.1997
X1.2262 Y0.4631 Z-0.1988
X1.2242 Y0.462 Z-0.1974
X1.2226 Y0.4611 Z-0.1956
X1.2213 Y0.4605 Z-0.1933
X1.2206 Y0.4601 Z-0.1908
X1.2203 Y0.4599 Z-0.1882
G0 Z0.2
X1.2314 Y0.4391
G1 Z-0.0606 F20.
Z-0.2882
X1.2317 Y0.4393 Z-0.2908 F40.
X1.2325 Y0.4397 Z-0.2933
X1.2337 Y0.4403 Z-0.2956
X1.2353 Y0.4412 Z-0.2974
X1.2373 Y0.4423 Z-0.2988
X1.2395 Y0.4434 Z-0.2997
X1.2418 Y0.4447 Z-0.3
X1.2522 Y0.4502
G3 X1.2571 Y0.4662 I-0.0056 J0.0104
G2 X0.9438 Y10.3418 I9.8321 J5.2547
X1.3302 Y10.778 I0.9041 J-0.4118
X2.2597 Y10.8341 I0.5176 J-0.848
X2.7521 Y9.5182 I-0.4118 J-0.9041
G3 X3.0095 Y1.4028 I8.3371 J-3.7973
G2 X2.6016 Y0.0583 I-0.8762 J-0.4683
X1.2571 Y0.4662 I-0.4683 J0.8762
G3 X1.2411 Y0.4711 I-0.0104 J-0.0056
G1 X1.2307 Y0.4655
X1.2284 Y0.4643 Z-0.2997
X1.2262 Y0.4631 Z-0.2988
X1.2242 Y0.462 Z-0.2974
X1.2226 Y0.4611 Z-0.2956
X1.2213 Y0.4605 Z-0.2933
X1.2206 Y0.4601 Z-0.2908
X1.2203 Y0.4599 Z-0.2882
G0 Z0.6

M9
M30
