(X4 FEEDER PLATE 2 CONTOUR)
(T3  D=0.118 CR=0. - ZMIN=-0.16 - FLAT END MILL)
G90 G94 G91.1 G40 G49 G17
G20

(2D CONTOUR1)
M5
T3 M6
S15000 M3
g4 p5
G54
M8
G0 X2.9397 Y7.5114
G43 Z0.6 H3
Z0.2
G1 Z0.1118 F20.
G19 G2 Y7.4996 Z0.1 J-0.0118 K0. F30.
G1 Y7.4878
G17 G3 X2.9515 Y7.476 I0.0118 J0.
G1 X5.3095 Z0.0588 F20.
G2 X5.6185 Y7.167 Z0.0504 I0. J-0.309
G1 Y3.7085 Z-0.01
Y1.167 F30.
G2 X5.3095 Y0.858 I-0.309 J0.
G1 X4.9299
G3 X4.2146 Y0.7697 I0. J-2.941
G1 X0.9465 Y-0.0497
G2 X0.5716 Y0.1748 I-0.0752 J0.2997
G1 X0.0644 Y2.1977
G2 X0.289 Y2.5726 I0.2997 J0.0752
G1 X1.259 Y2.8158
G3 X1.3978 Y3.0475 I-0.0465 J0.1853
G1 X1.3608 Y3.1952
G3 X1.216 Y3.3354 I-0.1853 J-0.0464
G2 X0.8887 Y6.39 I0.3435 J1.5816
G3 X1.0005 Y6.5638 I-0.0792 J0.1738
G1 Y7.167
G2 X1.3095 Y7.476 I0.309 J0.
G1 X5.3095
G2 X5.6185 Y7.167 I0. J-0.309
G1 Y3.7085
Y3.1356 Z-0.02 F20.
Y1.167 F30.
G2 X5.3095 Y0.858 I-0.309 J0.
G1 X4.9299
G3 X4.2146 Y0.7697 I0. J-2.941
G1 X0.9465 Y-0.0497
G2 X0.5716 Y0.1748 I-0.0752 J0.2997
G1 X0.0644 Y2.1977
G2 X0.289 Y2.5726 I0.2997 J0.0752
G1 X1.259 Y2.8158
G3 X1.3978 Y3.0475 I-0.0465 J0.1853
G1 X1.3608 Y3.1952
G3 X1.216 Y3.3354 I-0.1853 J-0.0464
G2 X0.8887 Y6.39 I0.3435 J1.5816
G3 X1.0005 Y6.5638 I-0.0792 J0.1738
G1 Y7.167
G2 X1.3095 Y7.476 I0.309 J0.
G1 X5.3095
G2 X5.6185 Y7.167 I0. J-0.309
G1 Y3.7085
Y3.1356
Y2.5627 Z-0.03 F20.
Y1.167 F30.
G2 X5.3095 Y0.858 I-0.309 J0.
G1 X4.9299
G3 X4.2146 Y0.7697 I0. J-2.941
G1 X0.9465 Y-0.0497
G2 X0.5716 Y0.1748 I-0.0752 J0.2997
G1 X0.0644 Y2.1977
G2 X0.289 Y2.5726 I0.2997 J0.0752
G1 X1.259 Y2.8158
G3 X1.3978 Y3.0475 I-0.0465 J0.1853
G1 X1.3608 Y3.1952
G3 X1.216 Y3.3354 I-0.1853 J-0.0464
G2 X0.8887 Y6.39 I0.3435 J1.5816
G3 X1.0005 Y6.5638 I-0.0792 J0.1738
G1 Y7.167
G2 X1.3095 Y7.476 I0.309 J0.
G1 X5.3095
G2 X5.6185 Y7.167 I0. J-0.309
G1 Y3.1356
Y2.5627
Y1.9898 Z-0.04 F20.
Y1.167 F30.
G2 X5.3095 Y0.858 I-0.309 J0.
G1 X4.9299
G3 X4.2146 Y0.7697 I0. J-2.941
G1 X0.9465 Y-0.0497
G2 X0.5716 Y0.1748 I-0.0752 J0.2997
G1 X0.0644 Y2.1977
G2 X0.289 Y2.5726 I0.2997 J0.0752
G1 X1.259 Y2.8158
G3 X1.3978 Y3.0475 I-0.0465 J0.1853
G1 X1.3608 Y3.1952
G3 X1.216 Y3.3354 I-0.1853 J-0.0464
G2 X0.8887 Y6.39 I0.3435 J1.5816
G3 X1.0005 Y6.5638 I-0.0792 J0.1738
G1 Y7.167
G2 X1.3095 Y7.476 I0.309 J0.
G1 X5.3095
G2 X5.6185 Y7.167 I0. J-0.309
G1 Y2.5627
Y1.9898
Y1.4169 Z-0.05 F20.
Y1.167 F30.
G2 X5.3095 Y0.858 I-0.309 J0.
G1 X4.9299
G3 X4.2146 Y0.7697 I0. J-2.941
G1 X0.9465 Y-0.0497
G2 X0.5716 Y0.1748 I-0.0752 J0.2997
G1 X0.0644 Y2.1977
G2 X0.289 Y2.5726 I0.2997 J0.0752
G1 X1.259 Y2.8158
G3 X1.3978 Y3.0475 I-0.0465 J0.1853
G1 X1.3608 Y3.1952
G3 X1.216 Y3.3354 I-0.1853 J-0.0464
G2 X0.8887 Y6.39 I0.3435 J1.5816
G3 X1.0005 Y6.5638 I-0.0792 J0.1738
G1 Y7.167
G2 X1.3095 Y7.476 I0.309 J0.
G1 X5.3095
G2 X5.6185 Y7.167 I0. J-0.309
G1 Y1.9898
Y1.4169
Y1.167 Z-0.0544 F20.
G2 X5.4645 Y0.8997 Z-0.06 I-0.309 J0.
X5.3095 Y0.858 I-0.155 J0.2673 F30.
G1 X4.9299
G3 X4.2146 Y0.7697 I0. J-2.941
G1 X0.9465 Y-0.0497
G2 X0.5716 Y0.1748 I-0.0752 J0.2997
G1 X0.0644 Y2.1977
G2 X0.289 Y2.5726 I0.2997 J0.0752
G1 X1.259 Y2.8158
G3 X1.3978 Y3.0475 I-0.0465 J0.1853
G1 X1.3608 Y3.1952
G3 X1.216 Y3.3354 I-0.1853 J-0.0464
G2 X0.8887 Y6.39 I0.3435 J1.5816
G3 X1.0005 Y6.5638 I-0.0792 J0.1738
G1 Y7.167
G2 X1.3095 Y7.476 I0.309 J0.
G1 X5.3095
G2 X5.6185 Y7.167 I0. J-0.309
G1 Y1.4169
Y1.167
G2 X5.4645 Y0.8997 I-0.309 J0.
X5.3095 Y0.858 Z-0.0628 I-0.155 J0.2673 F20.
G1 X4.9299 Z-0.0695
G3 X4.899 Y0.8579 Z-0.07 I0. J-2.941
X4.2146 Y0.7697 I0.0309 J-2.9408 F30.
G1 X0.9465 Y-0.0497
G2 X0.5716 Y0.1748 I-0.0752 J0.2997
G1 X0.0644 Y2.1977
G2 X0.289 Y2.5726 I0.2997 J0.0752
G1 X1.259 Y2.8158
G3 X1.3978 Y3.0475 I-0.0465 J0.1853
G1 X1.3608 Y3.1952
G3 X1.216 Y3.3354 I-0.1853 J-0.0464
G2 X0.8887 Y6.39 I0.3435 J1.5816
G3 X1.0005 Y6.5638 I-0.0792 J0.1738
G1 Y7.167
G2 X1.3095 Y7.476 I0.309 J0.
G1 X5.3095
G2 X5.6185 Y7.167 I0. J-0.309
G1 Y1.167
G2 X5.3095 Y0.858 I-0.309 J0.
G1 X4.9299
G3 X4.899 Y0.8579 I0. J-2.941
X4.3303 Y0.7962 Z-0.08 I0.0309 J-2.9408 F20.
X4.2146 Y0.7697 I0.5996 J-2.8792 F30.
G1 X0.9465 Y-0.0497
G2 X0.5716 Y0.1748 I-0.0752 J0.2997
G1 X0.0644 Y2.1977
G2 X0.289 Y2.5726 I0.2997 J0.0752
G1 X1.259 Y2.8158
G3 X1.3978 Y3.0475 I-0.0465 J0.1853
G1 X1.3608 Y3.1952
G3 X1.216 Y3.3354 I-0.1853 J-0.0464
G2 X0.8887 Y6.39 I0.3435 J1.5816
G3 X1.0005 Y6.5638 I-0.0792 J0.1738
G1 Y7.167
G2 X1.3095 Y7.476 I0.309 J0.
G1 X5.3095
G2 X5.6185 Y7.167 I0. J-0.309
G1 Y1.167
G2 X5.3095 Y0.858 I-0.309 J0.
G1 X4.9299
G3 X4.3303 Y0.7962 I0. J-2.941
X4.2146 Y0.7697 Z-0.0821 I0.5996 J-2.8792 F20.
G1 X3.774 Y0.6592 Z-0.09
X0.9465 Y-0.0497 F30.
G2 X0.5716 Y0.1748 I-0.0752 J0.2997
G1 X0.0644 Y2.1977
G2 X0.289 Y2.5726 I0.2997 J0.0752
G1 X1.259 Y2.8158
G3 X1.3978 Y3.0475 I-0.0465 J0.1853
G1 X1.3608 Y3.1952
G3 X1.216 Y3.3354 I-0.1853 J-0.0464
G2 X0.8887 Y6.39 I0.3435 J1.5816
G3 X1.0005 Y6.5638 I-0.0792 J0.1738
G1 Y7.167
G2 X1.3095 Y7.476 I0.309 J0.
G1 X5.3095
G2 X5.6185 Y7.167 I0. J-0.309
G1 Y1.167
G2 X5.3095 Y0.858 I-0.309 J0.
G1 X4.9299
G3 X4.2146 Y0.7697 I0. J-2.941
G1 X3.774 Y0.6592
X3.2183 Y0.5199 Z-0.1 F20.
X0.9465 Y-0.0497 F30.
G2 X0.5716 Y0.1748 I-0.0752 J0.2997
G1 X0.0644 Y2.1977
G2 X0.289 Y2.5726 I0.2997 J0.0752
G1 X1.259 Y2.8158
G3 X1.3978 Y3.0475 I-0.0465 J0.1853
G1 X1.3608 Y3.1952
G3 X1.216 Y3.3354 I-0.1853 J-0.0464
G2 X0.8887 Y6.39 I0.3435 J1.5816
G3 X1.0005 Y6.5638 I-0.0792 J0.1738
G1 Y7.167
G2 X1.3095 Y7.476 I0.309 J0.
G1 X5.3095
G2 X5.6185 Y7.167 I0. J-0.309
G1 Y1.167
G2 X5.3095 Y0.858 I-0.309 J0.
G1 X4.9299
G3 X4.2146 Y0.7697 I0. J-2.941
G1 X3.2183 Y0.5199
X2.6626 Y0.3806 Z-0.11 F20.
X0.9465 Y-0.0497 F30.
G2 X0.5716 Y0.1748 I-0.0752 J0.2997
G1 X0.0644 Y2.1977
G2 X0.289 Y2.5726 I0.2997 J0.0752
G1 X1.259 Y2.8158
G3 X1.3978 Y3.0475 I-0.0465 J0.1853
G1 X1.3608 Y3.1952
G3 X1.216 Y3.3354 I-0.1853 J-0.0464
G2 X0.8887 Y6.39 I0.3435 J1.5816
G3 X1.0005 Y6.5638 I-0.0792 J0.1738
G1 Y7.167
G2 X1.3095 Y7.476 I0.309 J0.
G1 X5.3095
G2 X5.6185 Y7.167 I0. J-0.309
G1 Y1.167
G2 X5.3095 Y0.858 I-0.309 J0.
G1 X4.9299
G3 X4.2146 Y0.7697 I0. J-2.941
G1 X3.2183 Y0.5199
X2.6626 Y0.3806
X2.1069 Y0.2412 Z-0.12 F20.
X0.9465 Y-0.0497 F30.
G2 X0.5716 Y0.1748 I-0.0752 J0.2997
G1 X0.0644 Y2.1977
G2 X0.289 Y2.5726 I0.2997 J0.0752
G1 X1.259 Y2.8158
G3 X1.3978 Y3.0475 I-0.0465 J0.1853
G1 X1.3608 Y3.1952
G3 X1.216 Y3.3354 I-0.1853 J-0.0464
G2 X0.8887 Y6.39 I0.3435 J1.5816
G3 X1.0005 Y6.5638 I-0.0792 J0.1738
G1 Y7.167
G2 X1.3095 Y7.476 I0.309 J0.
G1 X5.3095
G2 X5.6185 Y7.167 I0. J-0.309
G1 Y1.167
G2 X5.3095 Y0.858 I-0.309 J0.
G1 X4.9299
G3 X4.2146 Y0.7697 I0. J-2.941
G1 X2.6626 Y0.3806
X2.1069 Y0.2412
X1.5512 Y0.1019 Z-0.13 F20.
X0.9465 Y-0.0497 F30.
G2 X0.5716 Y0.1748 I-0.0752 J0.2997
G1 X0.0644 Y2.1977
G2 X0.289 Y2.5726 I0.2997 J0.0752
G1 X1.259 Y2.8158
G3 X1.3978 Y3.0475 I-0.0465 J0.1853
G1 X1.3608 Y3.1952
G3 X1.216 Y3.3354 I-0.1853 J-0.0464
G2 X0.8887 Y6.39 I0.3435 J1.5816
G3 X1.0005 Y6.5638 I-0.0792 J0.1738
G1 Y7.167
G2 X1.3095 Y7.476 I0.309 J0.
G1 X5.3095
G2 X5.6185 Y7.167 I0. J-0.309
G1 Y1.167
G2 X5.3095 Y0.858 I-0.309 J0.
G1 X4.9299
G3 X4.2146 Y0.7697 I0. J-2.941
G1 X2.1069 Y0.2412
X1.5512 Y0.1019
X0.9955 Y-0.0374 Z-0.14 F20.
X0.9465 Y-0.0497 F30.
G2 X0.5716 Y0.1748 I-0.0752 J0.2997
G1 X0.0644 Y2.1977
G2 X0.289 Y2.5726 I0.2997 J0.0752
G1 X1.259 Y2.8158
G3 X1.3978 Y3.0475 I-0.0465 J0.1853
G1 X1.3608 Y3.1952
G3 X1.216 Y3.3354 I-0.1853 J-0.0464
G2 X0.8887 Y6.39 I0.3435 J1.5816
G3 X1.0005 Y6.5638 I-0.0792 J0.1738
G1 Y7.167
G2 X1.3095 Y7.476 I0.309 J0.
G1 X5.3095
G2 X5.6185 Y7.167 I0. J-0.309
G1 Y1.167
G2 X5.3095 Y0.858 I-0.309 J0.
G1 X4.9299
G3 X4.2146 Y0.7697 I0. J-2.941
G1 X1.5512 Y0.1019
X0.9955 Y-0.0374
X0.9465 Y-0.0497 Z-0.1409 F20.
G2 X0.5716 Y0.1748 Z-0.1494 I-0.0752 J0.2997
G1 X0.5626 Y0.2107 Z-0.15
X0.0644 Y2.1977 F30.
G2 X0.289 Y2.5726 I0.2997 J0.0752
G1 X1.259 Y2.8158
G3 X1.3978 Y3.0475 I-0.0465 J0.1853
G1 X1.3608 Y3.1952
G3 X1.216 Y3.3354 I-0.1853 J-0.0464
G2 X0.8887 Y6.39 I0.3435 J1.5816
G3 X1.0005 Y6.5638 I-0.0792 J0.1738
G1 Y7.167
G2 X1.3095 Y7.476 I0.309 J0.
G1 X5.3095
G2 X5.6185 Y7.167 I0. J-0.309
G1 Y1.167
G2 X5.3095 Y0.858 I-0.309 J0.
G1 X4.9299
G3 X4.2146 Y0.7697 I0. J-2.941
G1 X0.9955 Y-0.0374
X0.9465 Y-0.0497
G2 X0.5716 Y0.1748 I-0.0752 J0.2997
G1 X0.5626 Y0.2107
X0.4233 Y0.7664 Z-0.16 F20.
X0.0644 Y2.1977 F30.
G2 X0.289 Y2.5726 I0.2997 J0.0752
G1 X1.259 Y2.8158
G3 X1.3978 Y3.0475 I-0.0465 J0.1853
G1 X1.3608 Y3.1952
G3 X1.216 Y3.3354 I-0.1853 J-0.0464
G2 X0.8887 Y6.39 I0.3435 J1.5816
G3 X1.0005 Y6.5638 I-0.0792 J0.1738
G1 Y7.167
G2 X1.3095 Y7.476 I0.309 J0.
G1 X5.3095
G2 X5.6185 Y7.167 I0. J-0.309
G1 Y1.167
G2 X5.3095 Y0.858 I-0.309 J0.
G1 X4.9299
G3 X4.2146 Y0.7697 I0. J-2.941
G1 X0.9465 Y-0.0497
G2 X0.5716 Y0.1748 I-0.0752 J0.2997
G1 X0.4233 Y0.7664
G3 X0.409 Y0.775 I-0.0114 J-0.0029
G1 X0.3976 Y0.7721
X0.395 Y0.7715 Z-0.1597
X0.3926 Y0.7709 Z-0.1588
X0.3904 Y0.7703 Z-0.1574
X0.3886 Y0.7699 Z-0.1556
X0.3872 Y0.7695 Z-0.1533
X0.3864 Y0.7693 Z-0.1508
X0.3861 Y0.7692 Z-0.1482
G0 Z0.6

M9
M30
