(X4 FEEDER PLATE 2 HOLES)
(T3  D=0.118 CR=0. - ZMIN=-0.165 - FLAT END MILL)
G90 G94 G91.1 G40 G49 G17
G20

(2D POCKET3)
M5
T3 M6
S15000 M3
g4 p5
G54
M8
G0 X2.0829 Y1.6729
G43 Z0.6 H3
Z0.2
G1 Z0.1118 F30.
X2.0821 Y1.6716 Z0.106 F20.
X2.0813 Y1.6696 Z0.1038
X2.081 Y1.6675 Z0.1016
X2.0811 Y1.6656 Z0.1011
X2.0816 Y1.6637 Z0.1005
X2.0824 Y1.662 Z0.1
G3 X2.0996 Y1.6721 Z0.0995 I0.0086 J0.005
X2.0824 Y1.662 Z0.0989 I-0.0086 J-0.005
X2.0996 Y1.6721 Z0.0984 I0.0086 J0.005
X2.0824 Y1.662 Z0.0978 I-0.0086 J-0.005
X2.0996 Y1.6721 Z0.0973 I0.0086 J0.005
X2.0824 Y1.662 Z0.0967 I-0.0086 J-0.005
X2.0996 Y1.6721 Z0.0962 I0.0086 J0.005
X2.0824 Y1.662 Z0.0956 I-0.0086 J-0.005
X2.0996 Y1.6721 Z0.0951 I0.0086 J0.005
X2.0824 Y1.662 Z0.0945 I-0.0086 J-0.005
X2.0996 Y1.6721 Z0.094 I0.0086 J0.005
X2.0824 Y1.662 Z0.0934 I-0.0086 J-0.005
X2.0996 Y1.6721 Z0.0929 I0.0086 J0.005
X2.0824 Y1.662 Z0.0923 I-0.0086 J-0.005
X2.0996 Y1.6721 Z0.0918 I0.0086 J0.005
X2.0824 Y1.662 Z0.0912 I-0.0086 J-0.005
X2.0996 Y1.6721 Z0.0907 I0.0086 J0.005
X2.0824 Y1.662 Z0.0901 I-0.0086 J-0.005
X2.0996 Y1.6721 Z0.0896 I0.0086 J0.005
X2.0824 Y1.662 Z0.089 I-0.0086 J-0.005
X2.0996 Y1.6721 Z0.0885 I0.0086 J0.005
X2.0824 Y1.662 Z0.0879 I-0.0086 J-0.005
X2.0996 Y1.6721 Z0.0874 I0.0086 J0.005
X2.0824 Y1.662 Z0.0868 I-0.0086 J-0.005
X2.0996 Y1.6721 Z0.0863 I0.0086 J0.005
X2.0824 Y1.662 Z0.0857 I-0.0086 J-0.005
X2.0996 Y1.6721 Z0.0852 I0.0086 J0.005
X2.0824 Y1.662 Z0.0846 I-0.0086 J-0.005
X2.0996 Y1.6721 Z0.0841 I0.0086 J0.005
X2.0824 Y1.662 Z0.0835 I-0.0086 J-0.005
X2.0996 Y1.6721 Z0.083 I0.0086 J0.005
X2.0824 Y1.662 Z0.0825 I-0.0086 J-0.005
X2.0996 Y1.6721 Z0.0819 I0.0086 J0.005
X2.0824 Y1.662 Z0.0814 I-0.0086 J-0.005
X2.0996 Y1.6721 Z0.0808 I0.0086 J0.005
X2.0824 Y1.662 Z0.0803 I-0.0086 J-0.005
X2.0996 Y1.6721 Z0.0797 I0.0086 J0.005
X2.0824 Y1.662 Z0.0792 I-0.0086 J-0.005
X2.0996 Y1.6721 Z0.0786 I0.0086 J0.005
X2.0824 Y1.662 Z0.0781 I-0.0086 J-0.005
X2.0996 Y1.6721 Z0.0775 I0.0086 J0.005
X2.0824 Y1.662 Z0.077 I-0.0086 J-0.005
X2.0996 Y1.6721 Z0.0764 I0.0086 J0.005
X2.0824 Y1.662 Z0.0759 I-0.0086 J-0.005
X2.0996 Y1.6721 Z0.0753 I0.0086 J0.005
X2.0824 Y1.662 Z0.0748 I-0.0086 J-0.005
X2.0996 Y1.6721 Z0.0742 I0.0086 J0.005
X2.0824 Y1.662 Z0.0737 I-0.0086 J-0.005
X2.0996 Y1.6721 Z0.0731 I0.0086 J0.005
X2.0824 Y1.662 Z0.0726 I-0.0086 J-0.005
X2.0996 Y1.6721 Z0.072 I0.0086 J0.005
X2.0824 Y1.662 Z0.0715 I-0.0086 J-0.005
X2.0996 Y1.6721 Z0.0709 I0.0086 J0.005
X2.0824 Y1.662 Z0.0704 I-0.0086 J-0.005
X2.0996 Y1.6721 Z0.0698 I0.0086 J0.005
X2.0824 Y1.662 Z0.0693 I-0.0086 J-0.005
X2.0996 Y1.6721 Z0.0687 I0.0086 J0.005
X2.0824 Y1.662 Z0.0682 I-0.0086 J-0.005
X2.0996 Y1.6721 Z0.0676 I0.0086 J0.005
X2.0824 Y1.662 Z0.0671 I-0.0086 J-0.005
X2.0996 Y1.6721 Z0.0665 I0.0086 J0.005
X2.0824 Y1.662 Z0.066 I-0.0086 J-0.005
X2.0996 Y1.6721 Z0.0655 I0.0086 J0.005
X2.0824 Y1.662 Z0.0649 I-0.0086 J-0.005
X2.0996 Y1.6721 Z0.0644 I0.0086 J0.005
X2.0824 Y1.662 Z0.0638 I-0.0086 J-0.005
X2.0996 Y1.6721 Z0.0633 I0.0086 J0.005
X2.0824 Y1.662 Z0.0627 I-0.0086 J-0.005
X2.0996 Y1.6721 Z0.0622 I0.0086 J0.005
X2.0824 Y1.662 Z0.0616 I-0.0086 J-0.005
X2.0996 Y1.6721 Z0.0611 I0.0086 J0.005
X2.0824 Y1.662 Z0.0605 I-0.0086 J-0.005
X2.0996 Y1.6721 Z0.06 I0.0086 J0.005
X2.0824 Y1.662 Z0.0594 I-0.0086 J-0.005
X2.0996 Y1.6721 Z0.0589 I0.0086 J0.005
X2.0824 Y1.662 Z0.0583 I-0.0086 J-0.005
X2.0996 Y1.6721 Z0.0578 I0.0086 J0.005
X2.0824 Y1.662 Z0.0572 I-0.0086 J-0.005
X2.0996 Y1.6721 Z0.0567 I0.0086 J0.005
X2.0824 Y1.662 Z0.0561 I-0.0086 J-0.005
X2.0996 Y1.6721 Z0.0556 I0.0086 J0.005
X2.0824 Y1.662 Z0.055 I-0.0086 J-0.005
X2.0996 Y1.6721 Z0.0545 I0.0086 J0.005
X2.0824 Y1.662 Z0.0539 I-0.0086 J-0.005
X2.0996 Y1.6721 Z0.0534 I0.0086 J0.005
X2.0824 Y1.662 Z0.0528 I-0.0086 J-0.005
X2.0996 Y1.6721 Z0.0523 I0.0086 J0.005
X2.0824 Y1.662 Z0.0517 I-0.0086 J-0.005
X2.0996 Y1.6721 Z0.0512 I0.0086 J0.005
X2.0824 Y1.662 Z0.0506 I-0.0086 J-0.005
X2.0996 Y1.6721 Z0.0501 I0.0086 J0.005
X2.0824 Y1.662 Z0.0496 I-0.0086 J-0.005
X2.0996 Y1.6721 Z0.049 I0.0086 J0.005
X2.0824 Y1.662 Z0.0485 I-0.0086 J-0.005
X2.0996 Y1.6721 Z0.0479 I0.0086 J0.005
X2.0824 Y1.662 Z0.0474 I-0.0086 J-0.005
X2.0996 Y1.6721 Z0.0468 I0.0086 J0.005
X2.0824 Y1.662 Z0.0463 I-0.0086 J-0.005
X2.0996 Y1.6721 Z0.0457 I0.0086 J0.005
X2.0824 Y1.662 Z0.0452 I-0.0086 J-0.005
X2.0996 Y1.6721 Z0.0446 I0.0086 J0.005
X2.0824 Y1.662 Z0.0441 I-0.0086 J-0.005
X2.0996 Y1.6721 Z0.0435 I0.0086 J0.005
X2.0824 Y1.662 Z0.043 I-0.0086 J-0.005
X2.0996 Y1.6721 Z0.0424 I0.0086 J0.005
X2.0824 Y1.662 Z0.0419 I-0.0086 J-0.005
X2.0996 Y1.6721 Z0.0413 I0.0086 J0.005
X2.0824 Y1.662 Z0.0408 I-0.0086 J-0.005
X2.0996 Y1.6721 Z0.0402 I0.0086 J0.005
X2.0824 Y1.662 Z0.0397 I-0.0086 J-0.005
X2.0996 Y1.6721 Z0.0391 I0.0086 J0.005
X2.0824 Y1.662 Z0.0386 I-0.0086 J-0.005
X2.0996 Y1.6721 Z0.038 I0.0086 J0.005
X2.0824 Y1.662 Z0.0375 I-0.0086 J-0.005
X2.0996 Y1.6721 Z0.0369 I0.0086 J0.005
X2.0824 Y1.662 Z0.0364 I-0.0086 J-0.005
X2.0996 Y1.6721 Z0.0358 I0.0086 J0.005
X2.0824 Y1.662 Z0.0353 I-0.0086 J-0.005
X2.0996 Y1.6721 Z0.0347 I0.0086 J0.005
X2.0824 Y1.662 Z0.0342 I-0.0086 J-0.005
X2.0996 Y1.6721 Z0.0336 I0.0086 J0.005
X2.0824 Y1.662 Z0.0331 I-0.0086 J-0.005
X2.0996 Y1.6721 Z0.0326 I0.0086 J0.005
X2.0824 Y1.662 Z0.032 I-0.0086 J-0.005
X2.0996 Y1.6721 Z0.0315 I0.0086 J0.005
X2.0824 Y1.662 Z0.0309 I-0.0086 J-0.005
X2.0996 Y1.6721 Z0.0304 I0.0086 J0.005
X2.0824 Y1.662 Z0.0298 I-0.0086 J-0.005
X2.0996 Y1.6721 Z0.0293 I0.0086 J0.005
X2.0824 Y1.662 Z0.0287 I-0.0086 J-0.005
X2.0996 Y1.6721 Z0.0282 I0.0086 J0.005
X2.0824 Y1.662 Z0.0276 I-0.0086 J-0.005
X2.0996 Y1.6721 Z0.0271 I0.0086 J0.005
X2.0824 Y1.662 Z0.0265 I-0.0086 J-0.005
X2.0996 Y1.6721 Z0.026 I0.0086 J0.005
X2.0824 Y1.662 Z0.0254 I-0.0086 J-0.005
X2.0996 Y1.6721 Z0.0249 I0.0086 J0.005
X2.0824 Y1.662 Z0.0243 I-0.0086 J-0.005
X2.0996 Y1.6721 Z0.0238 I0.0086 J0.005
X2.0824 Y1.662 Z0.0232 I-0.0086 J-0.005
X2.0996 Y1.6721 Z0.0227 I0.0086 J0.005
X2.0824 Y1.662 Z0.0221 I-0.0086 J-0.005
X2.0996 Y1.6721 Z0.0216 I0.0086 J0.005
X2.0824 Y1.662 Z0.021 I-0.0086 J-0.005
X2.0996 Y1.6721 Z0.0205 I0.0086 J0.005
X2.0824 Y1.662 Z0.0199 I-0.0086 J-0.005
X2.0996 Y1.6721 Z0.0194 I0.0086 J0.005
X2.0824 Y1.662 Z0.0188 I-0.0086 J-0.005
X2.0996 Y1.6721 Z0.0183 I0.0086 J0.005
X2.0824 Y1.662 Z0.0177 I-0.0086 J-0.005
X2.0996 Y1.6721 Z0.0172 I0.0086 J0.005
X2.0824 Y1.662 Z0.0166 I-0.0086 J-0.005
X2.0996 Y1.6721 Z0.0161 I0.0086 J0.005
X2.0824 Y1.662 Z0.0156 I-0.0086 J-0.005
X2.0996 Y1.6721 Z0.015 I0.0086 J0.005
X2.0824 Y1.662 Z0.0145 I-0.0086 J-0.005
X2.0996 Y1.6721 Z0.0139 I0.0086 J0.005
X2.0824 Y1.662 Z0.0134 I-0.0086 J-0.005
X2.0996 Y1.6721 Z0.0128 I0.0086 J0.005
X2.0824 Y1.662 Z0.0123 I-0.0086 J-0.005
X2.0996 Y1.6721 Z0.0117 I0.0086 J0.005
X2.0824 Y1.662 Z0.0112 I-0.0086 J-0.005
X2.0996 Y1.6721 Z0.0106 I0.0086 J0.005
X2.0824 Y1.662 Z0.0101 I-0.0086 J-0.005
X2.0996 Y1.6721 Z0.0095 I0.0086 J0.005
X2.0824 Y1.662 Z0.009 I-0.0086 J-0.005
X2.0996 Y1.6721 Z0.0084 I0.0086 J0.005
X2.0824 Y1.662 Z0.0079 I-0.0086 J-0.005
X2.0996 Y1.6721 Z0.0073 I0.0086 J0.005
X2.0824 Y1.662 Z0.0068 I-0.0086 J-0.005
X2.0996 Y1.6721 Z0.0062 I0.0086 J0.005
X2.0824 Y1.662 Z0.0057 I-0.0086 J-0.005
X2.0996 Y1.6721 Z0.0051 I0.0086 J0.005
X2.0824 Y1.662 Z0.0046 I-0.0086 J-0.005
X2.0996 Y1.6721 Z0.004 I0.0086 J0.005
X2.0824 Y1.662 Z0.0035 I-0.0086 J-0.005
X2.0996 Y1.6721 Z0.0029 I0.0086 J0.005
X2.0824 Y1.662 Z0.0024 I-0.0086 J-0.005
X2.0996 Y1.6721 Z0.0018 I0.0086 J0.005
X2.0824 Y1.662 Z0.0013 I-0.0086 J-0.005
X2.0996 Y1.6721 Z0.0007 I0.0086 J0.005
X2.0824 Y1.662 Z0.0002 I-0.0086 J-0.005
X2.0996 Y1.6721 Z-0.0004 I0.0086 J0.005
X2.0824 Y1.662 Z-0.0009 I-0.0086 J-0.005
X2.0996 Y1.6721 Z-0.0014 I0.0086 J0.005
X2.0824 Y1.662 Z-0.002 I-0.0086 J-0.005
X2.0996 Y1.6721 Z-0.0025 I0.0086 J0.005
X2.0824 Y1.662 Z-0.0031 I-0.0086 J-0.005
X2.0996 Y1.6721 Z-0.0036 I0.0086 J0.005
X2.0824 Y1.662 Z-0.0042 I-0.0086 J-0.005
X2.0996 Y1.6721 Z-0.0047 I0.0086 J0.005
X2.0824 Y1.662 Z-0.0053 I-0.0086 J-0.005
X2.0996 Y1.6721 Z-0.0058 I0.0086 J0.005
X2.0824 Y1.662 Z-0.0064 I-0.0086 J-0.005
X2.0996 Y1.6721 Z-0.0069 I0.0086 J0.005
X2.0824 Y1.662 Z-0.0075 I-0.0086 J-0.005
X2.0996 Y1.6721 Z-0.008 I0.0086 J0.005
X2.0824 Y1.662 Z-0.0086 I-0.0086 J-0.005
X2.0996 Y1.6721 Z-0.0091 I0.0086 J0.005
X2.0824 Y1.662 Z-0.0097 I-0.0086 J-0.005
X2.0996 Y1.6721 Z-0.0102 I0.0086 J0.005
X2.0824 Y1.662 Z-0.0108 I-0.0086 J-0.005
X2.0996 Y1.6721 Z-0.0113 I0.0086 J0.005
X2.0824 Y1.662 Z-0.0119 I-0.0086 J-0.005
X2.0996 Y1.6721 Z-0.0124 I0.0086 J0.005
X2.0824 Y1.662 Z-0.013 I-0.0086 J-0.005
X2.0996 Y1.6721 Z-0.0135 I0.0086 J0.005
X2.0824 Y1.662 Z-0.0141 I-0.0086 J-0.005
X2.0996 Y1.6721 Z-0.0146 I0.0086 J0.005
X2.0824 Y1.662 Z-0.0152 I-0.0086 J-0.005
X2.0996 Y1.6721 Z-0.0157 I0.0086 J0.005
X2.0824 Y1.662 Z-0.0163 I-0.0086 J-0.005
X2.0996 Y1.6721 Z-0.0168 I0.0086 J0.005
X2.0824 Y1.662 Z-0.0174 I-0.0086 J-0.005
X2.0996 Y1.6721 Z-0.0179 I0.0086 J0.005
X2.0824 Y1.662 Z-0.0184 I-0.0086 J-0.005
X2.0996 Y1.6721 Z-0.019 I0.0086 J0.005
X2.0824 Y1.662 Z-0.0195 I-0.0086 J-0.005
X2.101 Y1.667 Z-0.02 I0.0086 J0.005
X2.018 I-0.0415 J0. F30.
X2.101 I0.0415 J0.
X2.018 Z-0.0223 I-0.0415 J0. F20.
X2.101 Z-0.0246 I0.0415 J0.
X2.018 Z-0.0268 I-0.0415 J0.
X2.101 Z-0.0291 I0.0415 J0.
X2.018 Z-0.0314 I-0.0415 J0.
X2.101 Z-0.0337 I0.0415 J0.
X2.018 Z-0.0359 I-0.0415 J0.
X2.101 Z-0.0382 I0.0415 J0.
X2.0268 Y1.6926 Z-0.04 I-0.0415 J0.
X2.0922 Y1.6414 I0.0327 J-0.0256 F30.
X2.0268 Y1.6926 I-0.0327 J0.0256
X2.0922 Y1.6414 Z-0.0423 I0.0327 J-0.0256 F20.
X2.0268 Y1.6926 Z-0.0446 I-0.0327 J0.0256
X2.0922 Y1.6414 Z-0.0468 I0.0327 J-0.0256
X2.0268 Y1.6926 Z-0.0491 I-0.0327 J0.0256
X2.0922 Y1.6414 Z-0.0514 I0.0327 J-0.0256
X2.0268 Y1.6926 Z-0.0537 I-0.0327 J0.0256
X2.0922 Y1.6414 Z-0.0559 I0.0327 J-0.0256
X2.0268 Y1.6926 Z-0.0582 I-0.0327 J0.0256
X2.0694 Y1.6267 Z-0.06 I0.0327 J-0.0256
X2.0496 Y1.7073 I-0.0099 J0.0403 F30.
X2.0694 Y1.6267 I0.0099 J-0.0403
X2.0496 Y1.7073 Z-0.0623 I-0.0099 J0.0403 F20.
X2.0694 Y1.6267 Z-0.0646 I0.0099 J-0.0403
X2.0496 Y1.7073 Z-0.0668 I-0.0099 J0.0403
X2.0694 Y1.6267 Z-0.0691 I0.0099 J-0.0403
X2.0496 Y1.7073 Z-0.0714 I-0.0099 J0.0403
X2.0694 Y1.6267 Z-0.0737 I0.0099 J-0.0403
X2.0496 Y1.7073 Z-0.0759 I-0.0099 J0.0403
X2.0694 Y1.6267 Z-0.0782 I0.0099 J-0.0403
X2.0765 Y1.7049 Z-0.08 I-0.0099 J0.0403
X2.0425 Y1.6292 I-0.017 J-0.0378 F30.
X2.0765 Y1.7049 I0.017 J0.0378
X2.0425 Y1.6292 Z-0.0823 I-0.017 J-0.0378 F20.
X2.0765 Y1.7049 Z-0.0846 I0.017 J0.0378
X2.0425 Y1.6292 Z-0.0868 I-0.017 J-0.0378
X2.0765 Y1.7049 Z-0.0891 I0.017 J0.0378
X2.0425 Y1.6292 Z-0.0914 I-0.017 J-0.0378
X2.0765 Y1.7049 Z-0.0937 I0.017 J0.0378
X2.0425 Y1.6292 Z-0.0959 I-0.017 J-0.0378
X2.0765 Y1.7049 Z-0.0982 I0.017 J0.0378
X2.0227 Y1.6478 Z-0.1 I-0.017 J-0.0378
X2.0963 Y1.6863 I0.0368 J0.0193 F30.
X2.0227 Y1.6478 I-0.0368 J-0.0193
X2.0963 Y1.6863 Z-0.1023 I0.0368 J0.0193 F20.
X2.0227 Y1.6478 Z-0.1046 I-0.0368 J-0.0193
X2.0963 Y1.6863 Z-0.1068 I0.0368 J0.0193
X2.0227 Y1.6478 Z-0.1091 I-0.0368 J-0.0193
X2.0963 Y1.6863 Z-0.1114 I0.0368 J0.0193
X2.0227 Y1.6478 Z-0.1137 I-0.0368 J-0.0193
X2.0963 Y1.6863 Z-0.1159 I0.0368 J0.0193
X2.0227 Y1.6478 Z-0.1182 I-0.0368 J-0.0193
X2.1003 Y1.6595 Z-0.12 I0.0368 J0.0193
X2.0187 Y1.6745 I-0.0408 J0.0075 F30.
X2.1003 Y1.6595 I0.0408 J-0.0075
X2.0187 Y1.6745 Z-0.1223 I-0.0408 J0.0075 F20.
X2.1003 Y1.6595 Z-0.1246 I0.0408 J-0.0075
X2.0187 Y1.6745 Z-0.1268 I-0.0408 J0.0075
X2.1003 Y1.6595 Z-0.1291 I0.0408 J-0.0075
X2.0187 Y1.6745 Z-0.1314 I-0.0408 J0.0075
X2.1003 Y1.6595 Z-0.1337 I0.0408 J-0.0075
X2.0187 Y1.6745 Z-0.1359 I-0.0408 J0.0075
X2.1003 Y1.6595 Z-0.1382 I0.0408 J-0.0075
X2.032 Y1.6981 Z-0.14 I-0.0408 J0.0075
X2.087 Y1.6359 I0.0275 J-0.0311 F30.
X2.032 Y1.6981 I-0.0275 J0.0311
X2.087 Y1.6359 Z-0.1423 I0.0275 J-0.0311 F20.
X2.032 Y1.6981 Z-0.1446 I-0.0275 J0.0311
X2.087 Y1.6359 Z-0.1468 I0.0275 J-0.0311
X2.032 Y1.6981 Z-0.1491 I-0.0275 J0.0311
X2.087 Y1.6359 Z-0.1514 I0.0275 J-0.0311
X2.0912 Y1.6938 Z-0.1525 I-0.0275 J0.0311
X2.0278 Y1.6402 I-0.0317 J-0.0268 F30.
X2.0912 Y1.6938 I0.0317 J0.0268
X2.0278 Y1.6402 Z-0.1548 I-0.0317 J-0.0268 F20.
X2.0912 Y1.6938 Z-0.1571 I0.0317 J0.0268
X2.0278 Y1.6402 Z-0.1593 I-0.0317 J-0.0268
X2.0912 Y1.6938 Z-0.1616 I0.0317 J0.0268
X2.0278 Y1.6402 Z-0.1639 I-0.0317 J-0.0268
X2.0856 Y1.6347 Z-0.165 I0.0317 J0.0268
X2.0334 Y1.6993 I-0.0261 J0.0323 F30.
X2.0856 Y1.6347 I0.0261 J-0.0323
G1 X2.0872 Y1.6363 Z-0.1646
X2.0884 Y1.6381 Z-0.1641
X2.0892 Y1.6399 Z-0.1628
X2.0897 Y1.6417 Z-0.1615
X2.0899 Y1.6443 Z-0.1577
Y1.6452 Z-0.1532
G0 Z0.2
X3.204 Y1.1769
G1 Z0.1118 F30.
X3.2048 Y1.1782 Z0.106 F20.
X3.2055 Y1.1801 Z0.1038
X3.2059 Y1.1822 Z0.1016
X3.2058 Y1.1842 Z0.1011
X3.2053 Y1.186 Z0.1005
X3.2045 Y1.1878 Z0.1
G3 X3.1873 Y1.1777 Z0.0995 I-0.0086 J-0.005
X3.2045 Y1.1878 Z0.0989 I0.0086 J0.005
X3.1873 Y1.1777 Z0.0984 I-0.0086 J-0.005
X3.2045 Y1.1878 Z0.0978 I0.0086 J0.005
X3.1873 Y1.1777 Z0.0973 I-0.0086 J-0.005
X3.2045 Y1.1878 Z0.0967 I0.0086 J0.005
X3.1873 Y1.1777 Z0.0962 I-0.0086 J-0.005
X3.2045 Y1.1878 Z0.0956 I0.0086 J0.005
X3.1873 Y1.1777 Z0.0951 I-0.0086 J-0.005
X3.2045 Y1.1878 Z0.0945 I0.0086 J0.005
X3.1873 Y1.1777 Z0.094 I-0.0086 J-0.005
X3.2045 Y1.1878 Z0.0934 I0.0086 J0.005
X3.1873 Y1.1777 Z0.0929 I-0.0086 J-0.005
X3.2045 Y1.1878 Z0.0923 I0.0086 J0.005
X3.1873 Y1.1777 Z0.0918 I-0.0086 J-0.005
X3.2045 Y1.1878 Z0.0912 I0.0086 J0.005
X3.1873 Y1.1777 Z0.0907 I-0.0086 J-0.005
X3.2045 Y1.1878 Z0.0901 I0.0086 J0.005
X3.1873 Y1.1777 Z0.0896 I-0.0086 J-0.005
X3.2045 Y1.1878 Z0.089 I0.0086 J0.005
X3.1873 Y1.1777 Z0.0885 I-0.0086 J-0.005
X3.2045 Y1.1878 Z0.0879 I0.0086 J0.005
X3.1873 Y1.1777 Z0.0874 I-0.0086 J-0.005
X3.2045 Y1.1878 Z0.0868 I0.0086 J0.005
X3.1873 Y1.1777 Z0.0863 I-0.0086 J-0.005
X3.2045 Y1.1878 Z0.0857 I0.0086 J0.005
X3.1873 Y1.1777 Z0.0852 I-0.0086 J-0.005
X3.2045 Y1.1878 Z0.0846 I0.0086 J0.005
X3.1873 Y1.1777 Z0.0841 I-0.0086 J-0.005
X3.2045 Y1.1878 Z0.0835 I0.0086 J0.005
X3.1873 Y1.1777 Z0.083 I-0.0086 J-0.005
X3.2045 Y1.1878 Z0.0825 I0.0086 J0.005
X3.1873 Y1.1777 Z0.0819 I-0.0086 J-0.005
X3.2045 Y1.1878 Z0.0814 I0.0086 J0.005
X3.1873 Y1.1777 Z0.0808 I-0.0086 J-0.005
X3.2045 Y1.1878 Z0.0803 I0.0086 J0.005
X3.1873 Y1.1777 Z0.0797 I-0.0086 J-0.005
X3.2045 Y1.1878 Z0.0792 I0.0086 J0.005
X3.1873 Y1.1777 Z0.0786 I-0.0086 J-0.005
X3.2045 Y1.1878 Z0.0781 I0.0086 J0.005
X3.1873 Y1.1777 Z0.0775 I-0.0086 J-0.005
X3.2045 Y1.1878 Z0.077 I0.0086 J0.005
X3.1873 Y1.1777 Z0.0764 I-0.0086 J-0.005
X3.2045 Y1.1878 Z0.0759 I0.0086 J0.005
X3.1873 Y1.1777 Z0.0753 I-0.0086 J-0.005
X3.2045 Y1.1878 Z0.0748 I0.0086 J0.005
X3.1873 Y1.1777 Z0.0742 I-0.0086 J-0.005
X3.2045 Y1.1878 Z0.0737 I0.0086 J0.005
X3.1873 Y1.1777 Z0.0731 I-0.0086 J-0.005
X3.2045 Y1.1878 Z0.0726 I0.0086 J0.005
X3.1873 Y1.1777 Z0.072 I-0.0086 J-0.005
X3.2045 Y1.1878 Z0.0715 I0.0086 J0.005
X3.1873 Y1.1777 Z0.0709 I-0.0086 J-0.005
X3.2045 Y1.1878 Z0.0704 I0.0086 J0.005
X3.1873 Y1.1777 Z0.0698 I-0.0086 J-0.005
X3.2045 Y1.1878 Z0.0693 I0.0086 J0.005
X3.1873 Y1.1777 Z0.0687 I-0.0086 J-0.005
X3.2045 Y1.1878 Z0.0682 I0.0086 J0.005
X3.1873 Y1.1777 Z0.0676 I-0.0086 J-0.005
X3.2045 Y1.1878 Z0.0671 I0.0086 J0.005
X3.1873 Y1.1777 Z0.0665 I-0.0086 J-0.005
X3.2045 Y1.1878 Z0.066 I0.0086 J0.005
X3.1873 Y1.1777 Z0.0655 I-0.0086 J-0.005
X3.2045 Y1.1878 Z0.0649 I0.0086 J0.005
X3.1873 Y1.1777 Z0.0644 I-0.0086 J-0.005
X3.2045 Y1.1878 Z0.0638 I0.0086 J0.005
X3.1873 Y1.1777 Z0.0633 I-0.0086 J-0.005
X3.2045 Y1.1878 Z0.0627 I0.0086 J0.005
X3.1873 Y1.1777 Z0.0622 I-0.0086 J-0.005
X3.2045 Y1.1878 Z0.0616 I0.0086 J0.005
X3.1873 Y1.1777 Z0.0611 I-0.0086 J-0.005
X3.2045 Y1.1878 Z0.0605 I0.0086 J0.005
X3.1873 Y1.1777 Z0.06 I-0.0086 J-0.005
X3.2045 Y1.1878 Z0.0594 I0.0086 J0.005
X3.1873 Y1.1777 Z0.0589 I-0.0086 J-0.005
X3.2045 Y1.1878 Z0.0583 I0.0086 J0.005
X3.1873 Y1.1777 Z0.0578 I-0.0086 J-0.005
X3.2045 Y1.1878 Z0.0572 I0.0086 J0.005
X3.1873 Y1.1777 Z0.0567 I-0.0086 J-0.005
X3.2045 Y1.1878 Z0.0561 I0.0086 J0.005
X3.1873 Y1.1777 Z0.0556 I-0.0086 J-0.005
X3.2045 Y1.1878 Z0.055 I0.0086 J0.005
X3.1873 Y1.1777 Z0.0545 I-0.0086 J-0.005
X3.2045 Y1.1878 Z0.0539 I0.0086 J0.005
X3.1873 Y1.1777 Z0.0534 I-0.0086 J-0.005
X3.2045 Y1.1878 Z0.0528 I0.0086 J0.005
X3.1873 Y1.1777 Z0.0523 I-0.0086 J-0.005
X3.2045 Y1.1878 Z0.0517 I0.0086 J0.005
X3.1873 Y1.1777 Z0.0512 I-0.0086 J-0.005
X3.2045 Y1.1878 Z0.0506 I0.0086 J0.005
X3.1873 Y1.1777 Z0.0501 I-0.0086 J-0.005
X3.2045 Y1.1878 Z0.0496 I0.0086 J0.005
X3.1873 Y1.1777 Z0.049 I-0.0086 J-0.005
X3.2045 Y1.1878 Z0.0485 I0.0086 J0.005
X3.1873 Y1.1777 Z0.0479 I-0.0086 J-0.005
X3.2045 Y1.1878 Z0.0474 I0.0086 J0.005
X3.1873 Y1.1777 Z0.0468 I-0.0086 J-0.005
X3.2045 Y1.1878 Z0.0463 I0.0086 J0.005
X3.1873 Y1.1777 Z0.0457 I-0.0086 J-0.005
X3.2045 Y1.1878 Z0.0452 I0.0086 J0.005
X3.1873 Y1.1777 Z0.0446 I-0.0086 J-0.005
X3.2045 Y1.1878 Z0.0441 I0.0086 J0.005
X3.1873 Y1.1777 Z0.0435 I-0.0086 J-0.005
X3.2045 Y1.1878 Z0.043 I0.0086 J0.005
X3.1873 Y1.1777 Z0.0424 I-0.0086 J-0.005
X3.2045 Y1.1878 Z0.0419 I0.0086 J0.005
X3.1873 Y1.1777 Z0.0413 I-0.0086 J-0.005
X3.2045 Y1.1878 Z0.0408 I0.0086 J0.005
X3.1873 Y1.1777 Z0.0402 I-0.0086 J-0.005
X3.2045 Y1.1878 Z0.0397 I0.0086 J0.005
X3.1873 Y1.1777 Z0.0391 I-0.0086 J-0.005
X3.2045 Y1.1878 Z0.0386 I0.0086 J0.005
X3.1873 Y1.1777 Z0.038 I-0.0086 J-0.005
X3.2045 Y1.1878 Z0.0375 I0.0086 J0.005
X3.1873 Y1.1777 Z0.0369 I-0.0086 J-0.005
X3.2045 Y1.1878 Z0.0364 I0.0086 J0.005
X3.1873 Y1.1777 Z0.0358 I-0.0086 J-0.005
X3.2045 Y1.1878 Z0.0353 I0.0086 J0.005
X3.1873 Y1.1777 Z0.0347 I-0.0086 J-0.005
X3.2045 Y1.1878 Z0.0342 I0.0086 J0.005
X3.1873 Y1.1777 Z0.0336 I-0.0086 J-0.005
X3.2045 Y1.1878 Z0.0331 I0.0086 J0.005
X3.1873 Y1.1777 Z0.0326 I-0.0086 J-0.005
X3.2045 Y1.1878 Z0.032 I0.0086 J0.005
X3.1873 Y1.1777 Z0.0315 I-0.0086 J-0.005
X3.2045 Y1.1878 Z0.0309 I0.0086 J0.005
X3.1873 Y1.1777 Z0.0304 I-0.0086 J-0.005
X3.2045 Y1.1878 Z0.0298 I0.0086 J0.005
X3.1873 Y1.1777 Z0.0293 I-0.0086 J-0.005
X3.2045 Y1.1878 Z0.0287 I0.0086 J0.005
X3.1873 Y1.1777 Z0.0282 I-0.0086 J-0.005
X3.2045 Y1.1878 Z0.0276 I0.0086 J0.005
X3.1873 Y1.1777 Z0.0271 I-0.0086 J-0.005
X3.2045 Y1.1878 Z0.0265 I0.0086 J0.005
X3.1873 Y1.1777 Z0.026 I-0.0086 J-0.005
X3.2045 Y1.1878 Z0.0254 I0.0086 J0.005
X3.1873 Y1.1777 Z0.0249 I-0.0086 J-0.005
X3.2045 Y1.1878 Z0.0243 I0.0086 J0.005
X3.1873 Y1.1777 Z0.0238 I-0.0086 J-0.005
X3.2045 Y1.1878 Z0.0232 I0.0086 J0.005
X3.1873 Y1.1777 Z0.0227 I-0.0086 J-0.005
X3.2045 Y1.1878 Z0.0221 I0.0086 J0.005
X3.1873 Y1.1777 Z0.0216 I-0.0086 J-0.005
X3.2045 Y1.1878 Z0.021 I0.0086 J0.005
X3.1873 Y1.1777 Z0.0205 I-0.0086 J-0.005
X3.2045 Y1.1878 Z0.0199 I0.0086 J0.005
X3.1873 Y1.1777 Z0.0194 I-0.0086 J-0.005
X3.2045 Y1.1878 Z0.0188 I0.0086 J0.005
X3.1873 Y1.1777 Z0.0183 I-0.0086 J-0.005
X3.2045 Y1.1878 Z0.0177 I0.0086 J0.005
X3.1873 Y1.1777 Z0.0172 I-0.0086 J-0.005
X3.2045 Y1.1878 Z0.0166 I0.0086 J0.005
X3.1873 Y1.1777 Z0.0161 I-0.0086 J-0.005
X3.2045 Y1.1878 Z0.0156 I0.0086 J0.005
X3.1873 Y1.1777 Z0.015 I-0.0086 J-0.005
X3.2045 Y1.1878 Z0.0145 I0.0086 J0.005
X3.1873 Y1.1777 Z0.0139 I-0.0086 J-0.005
X3.2045 Y1.1878 Z0.0134 I0.0086 J0.005
X3.1873 Y1.1777 Z0.0128 I-0.0086 J-0.005
X3.2045 Y1.1878 Z0.0123 I0.0086 J0.005
X3.1873 Y1.1777 Z0.0117 I-0.0086 J-0.005
X3.2045 Y1.1878 Z0.0112 I0.0086 J0.005
X3.1873 Y1.1777 Z0.0106 I-0.0086 J-0.005
X3.2045 Y1.1878 Z0.0101 I0.0086 J0.005
X3.1873 Y1.1777 Z0.0095 I-0.0086 J-0.005
X3.2045 Y1.1878 Z0.009 I0.0086 J0.005
X3.1873 Y1.1777 Z0.0084 I-0.0086 J-0.005
X3.2045 Y1.1878 Z0.0079 I0.0086 J0.005
X3.1873 Y1.1777 Z0.0073 I-0.0086 J-0.005
X3.2045 Y1.1878 Z0.0068 I0.0086 J0.005
X3.1873 Y1.1777 Z0.0062 I-0.0086 J-0.005
X3.2045 Y1.1878 Z0.0057 I0.0086 J0.005
X3.1873 Y1.1777 Z0.0051 I-0.0086 J-0.005
X3.2045 Y1.1878 Z0.0046 I0.0086 J0.005
X3.1873 Y1.1777 Z0.004 I-0.0086 J-0.005
X3.2045 Y1.1878 Z0.0035 I0.0086 J0.005
X3.1873 Y1.1777 Z0.0029 I-0.0086 J-0.005
X3.2045 Y1.1878 Z0.0024 I0.0086 J0.005
X3.1873 Y1.1777 Z0.0018 I-0.0086 J-0.005
X3.2045 Y1.1878 Z0.0013 I0.0086 J0.005
X3.1873 Y1.1777 Z0.0007 I-0.0086 J-0.005
X3.2045 Y1.1878 Z0.0002 I0.0086 J0.005
X3.1873 Y1.1777 Z-0.0004 I-0.0086 J-0.005
X3.2045 Y1.1878 Z-0.0009 I0.0086 J0.005
X3.1873 Y1.1777 Z-0.0014 I-0.0086 J-0.005
X3.2045 Y1.1878 Z-0.002 I0.0086 J0.005
X3.1873 Y1.1777 Z-0.0025 I-0.0086 J-0.005
X3.2045 Y1.1878 Z-0.0031 I0.0086 J0.005
X3.1873 Y1.1777 Z-0.0036 I-0.0086 J-0.005
X3.2045 Y1.1878 Z-0.0042 I0.0086 J0.005
X3.1873 Y1.1777 Z-0.0047 I-0.0086 J-0.005
X3.2045 Y1.1878 Z-0.0053 I0.0086 J0.005
X3.1873 Y1.1777 Z-0.0058 I-0.0086 J-0.005
X3.2045 Y1.1878 Z-0.0064 I0.0086 J0.005
X3.1873 Y1.1777 Z-0.0069 I-0.0086 J-0.005
X3.2045 Y1.1878 Z-0.0075 I0.0086 J0.005
X3.1873 Y1.1777 Z-0.008 I-0.0086 J-0.005
X3.2045 Y1.1878 Z-0.0086 I0.0086 J0.005
X3.1873 Y1.1777 Z-0.0091 I-0.0086 J-0.005
X3.2045 Y1.1878 Z-0.0097 I0.0086 J0.005
X3.1873 Y1.1777 Z-0.0102 I-0.0086 J-0.005
X3.2045 Y1.1878 Z-0.0108 I0.0086 J0.005
X3.1873 Y1.1777 Z-0.0113 I-0.0086 J-0.005
X3.2045 Y1.1878 Z-0.0119 I0.0086 J0.005
X3.1873 Y1.1777 Z-0.0124 I-0.0086 J-0.005
X3.2045 Y1.1878 Z-0.013 I0.0086 J0.005
X3.1873 Y1.1777 Z-0.0135 I-0.0086 J-0.005
X3.2045 Y1.1878 Z-0.0141 I0.0086 J0.005
X3.1873 Y1.1777 Z-0.0146 I-0.0086 J-0.005
X3.2045 Y1.1878 Z-0.0152 I0.0086 J0.005
X3.1873 Y1.1777 Z-0.0157 I-0.0086 J-0.005
X3.2045 Y1.1878 Z-0.0163 I0.0086 J0.005
X3.1873 Y1.1777 Z-0.0168 I-0.0086 J-0.005
X3.2045 Y1.1878 Z-0.0174 I0.0086 J0.005
X3.1873 Y1.1777 Z-0.0179 I-0.0086 J-0.005
X3.2045 Y1.1878 Z-0.0184 I0.0086 J0.005
X3.1873 Y1.1777 Z-0.019 I-0.0086 J-0.005
X3.2045 Y1.1878 Z-0.0195 I0.0086 J0.005
X3.1859 Y1.1827 Z-0.02 I-0.0086 J-0.005
X3.2379 I0.026 J0. F30.
X3.1859 I-0.026 J0.
X3.2379 Z-0.0214 I0.026 J0. F20.
X3.1859 Z-0.0229 I-0.026 J0.
X3.2379 Z-0.0243 I0.026 J0.
X3.1859 Z-0.0257 I-0.026 J0.
X3.2379 Z-0.0271 I0.026 J0.
X3.1859 Z-0.0286 I-0.026 J0.
X3.2379 Z-0.03 I0.026 J0.
X3.1859 Z-0.0314 I-0.026 J0.
X3.2379 Z-0.0328 I0.026 J0.
X3.1859 Z-0.0343 I-0.026 J0.
X3.2379 Z-0.0357 I0.026 J0.
X3.1859 Z-0.0371 I-0.026 J0.
X3.2379 Z-0.0385 I0.026 J0.
X3.2108 Y1.2087 Z-0.0393 I-0.026 J0.
X3.186 Y1.1805 Z-0.04 I0.0011 J-0.026
X3.2378 Y1.185 I0.0259 J0.0023 F30.
X3.186 Y1.1805 I-0.0259 J-0.0023
X3.2378 Y1.185 Z-0.0414 I0.0259 J0.0023 F20.
X3.186 Y1.1805 Z-0.0429 I-0.0259 J-0.0023
X3.2378 Y1.185 Z-0.0443 I0.0259 J0.0023
X3.186 Y1.1805 Z-0.0457 I-0.0259 J-0.0023
X3.2378 Y1.185 Z-0.0471 I0.0259 J0.0023
X3.186 Y1.1805 Z-0.0486 I-0.0259 J-0.0023
X3.2378 Y1.185 Z-0.05 I0.0259 J0.0023
X3.186 Y1.1805 Z-0.0514 I-0.0259 J-0.0023
X3.2378 Y1.185 Z-0.0528 I0.0259 J0.0023
X3.186 Y1.1805 Z-0.0543 I-0.0259 J-0.0023
X3.2378 Y1.185 Z-0.0557 I0.0259 J0.0023
X3.186 Y1.1805 Z-0.0571 I-0.0259 J-0.0023
X3.2378 Y1.185 Z-0.0585 I0.0259 J0.0023
X3.2085 Y1.2085 Z-0.0593 I-0.0259 J-0.0023
X3.1863 Y1.1782 Z-0.06 I0.0034 J-0.0258
X3.2375 Y1.1872 I0.0256 J0.0045 F30.
X3.1863 Y1.1782 I-0.0256 J-0.0045
X3.2375 Y1.1872 Z-0.0614 I0.0256 J0.0045 F20.
X3.1863 Y1.1782 Z-0.0629 I-0.0256 J-0.0045
X3.2375 Y1.1872 Z-0.0643 I0.0256 J0.0045
X3.1863 Y1.1782 Z-0.0657 I-0.0256 J-0.0045
X3.2375 Y1.1872 Z-0.0671 I0.0256 J0.0045
X3.1863 Y1.1782 Z-0.0686 I-0.0256 J-0.0045
X3.2375 Y1.1872 Z-0.07 I0.0256 J0.0045
X3.1863 Y1.1782 Z-0.0714 I-0.0256 J-0.0045
X3.2375 Y1.1872 Z-0.0728 I0.0256 J0.0045
X3.1863 Y1.1782 Z-0.0743 I-0.0256 J-0.0045
X3.2375 Y1.1872 Z-0.0757 I0.0256 J0.0045
X3.1863 Y1.1782 Z-0.0771 I-0.0256 J-0.0045
X3.2375 Y1.1872 Z-0.0785 I0.0256 J0.0045
X3.2063 Y1.2081 Z-0.0793 I-0.0256 J-0.0045
X3.1868 Y1.176 Z-0.08 I0.0056 J-0.0254
X3.237 Y1.1894 I0.0251 J0.0067 F30.
X3.1868 Y1.176 I-0.0251 J-0.0067
X3.237 Y1.1894 Z-0.0814 I0.0251 J0.0067 F20.
X3.1868 Y1.176 Z-0.0829 I-0.0251 J-0.0067
X3.237 Y1.1894 Z-0.0843 I0.0251 J0.0067
X3.1868 Y1.176 Z-0.0857 I-0.0251 J-0.0067
X3.237 Y1.1894 Z-0.0871 I0.0251 J0.0067
X3.1868 Y1.176 Z-0.0886 I-0.0251 J-0.0067
X3.237 Y1.1894 Z-0.09 I0.0251 J0.0067
X3.1868 Y1.176 Z-0.0914 I-0.0251 J-0.0067
X3.237 Y1.1894 Z-0.0928 I0.0251 J0.0067
X3.1868 Y1.176 Z-0.0943 I-0.0251 J-0.0067
X3.237 Y1.1894 Z-0.0957 I0.0251 J0.0067
X3.1868 Y1.176 Z-0.0971 I-0.0251 J-0.0067
X3.237 Y1.1894 Z-0.0985 I0.0251 J0.0067
X3.2041 Y1.2076 Z-0.0993 I-0.0251 J-0.0067
X3.1874 Y1.1739 Z-0.1 I0.0078 J-0.0248
X3.2363 Y1.1916 I0.0244 J0.0089 F30.
X3.1874 Y1.1739 I-0.0244 J-0.0089
X3.2363 Y1.1916 Z-0.1014 I0.0244 J0.0089 F20.
X3.1874 Y1.1739 Z-0.1029 I-0.0244 J-0.0089
X3.2363 Y1.1916 Z-0.1043 I0.0244 J0.0089
X3.1874 Y1.1739 Z-0.1057 I-0.0244 J-0.0089
X3.2363 Y1.1916 Z-0.1071 I0.0244 J0.0089
X3.1874 Y1.1739 Z-0.1086 I-0.0244 J-0.0089
X3.2363 Y1.1916 Z-0.11 I0.0244 J0.0089
X3.1874 Y1.1739 Z-0.1114 I-0.0244 J-0.0089
X3.2363 Y1.1916 Z-0.1128 I0.0244 J0.0089
X3.1874 Y1.1739 Z-0.1143 I-0.0244 J-0.0089
X3.2363 Y1.1916 Z-0.1157 I0.0244 J0.0089
X3.1874 Y1.1739 Z-0.1171 I-0.0244 J-0.0089
X3.2363 Y1.1916 Z-0.1185 I0.0244 J0.0089
X3.202 Y1.2068 Z-0.1193 I-0.0244 J-0.0089
X3.1883 Y1.1718 Z-0.12 I0.0099 J-0.024
X3.2355 Y1.1937 I0.0236 J0.0109 F30.
X3.1883 Y1.1718 I-0.0236 J-0.0109
X3.2355 Y1.1937 Z-0.1214 I0.0236 J0.0109 F20.
X3.1883 Y1.1718 Z-0.1229 I-0.0236 J-0.0109
X3.2355 Y1.1937 Z-0.1243 I0.0236 J0.0109
X3.1883 Y1.1718 Z-0.1257 I-0.0236 J-0.0109
X3.2355 Y1.1937 Z-0.1271 I0.0236 J0.0109
X3.1883 Y1.1718 Z-0.1286 I-0.0236 J-0.0109
X3.2355 Y1.1937 Z-0.13 I0.0236 J0.0109
X3.1883 Y1.1718 Z-0.1314 I-0.0236 J-0.0109
X3.2355 Y1.1937 Z-0.1328 I0.0236 J0.0109
X3.1883 Y1.1718 Z-0.1343 I-0.0236 J-0.0109
X3.2355 Y1.1937 Z-0.1357 I0.0236 J0.0109
X3.1883 Y1.1718 Z-0.1371 I-0.0236 J-0.0109
X3.2355 Y1.1937 Z-0.1385 I0.0236 J0.0109
X3.1999 Y1.2058 Z-0.1393 I-0.0236 J-0.0109
X3.1893 Y1.1698 Z-0.14 I0.012 J-0.0231
X3.2344 Y1.1957 I0.0225 J0.013 F30.
X3.1893 Y1.1698 I-0.0225 J-0.013
X3.2344 Y1.1957 Z-0.1414 I0.0225 J0.013 F20.
X3.1893 Y1.1698 Z-0.1429 I-0.0225 J-0.013
X3.2344 Y1.1957 Z-0.1443 I0.0225 J0.013
X3.1893 Y1.1698 Z-0.1457 I-0.0225 J-0.013
X3.2344 Y1.1957 Z-0.1471 I0.0225 J0.013
X3.1893 Y1.1698 Z-0.1486 I-0.0225 J-0.013
X3.2344 Y1.1957 Z-0.15 I0.0225 J0.013
X3.1893 Y1.1698 Z-0.1514 I-0.0225 J-0.013
X3.2373 Y1.1773 Z-0.1525 I0.0225 J0.013
X3.1865 Y1.1882 I-0.0254 J0.0054 F30.
X3.2373 Y1.1773 I0.0254 J-0.0054
X3.1865 Y1.1882 Z-0.1539 I-0.0254 J0.0054 F20.
X3.2373 Y1.1773 Z-0.1554 I0.0254 J-0.0054
X3.1865 Y1.1882 Z-0.1568 I-0.0254 J0.0054
X3.2373 Y1.1773 Z-0.1582 I0.0254 J-0.0054
X3.1865 Y1.1882 Z-0.1596 I-0.0254 J0.0054
X3.2373 Y1.1773 Z-0.1611 I0.0254 J-0.0054
X3.1865 Y1.1882 Z-0.1625 I-0.0254 J0.0054
X3.2373 Y1.1773 Z-0.1639 I0.0254 J-0.0054
X3.1966 Y1.2038 Z-0.165 I-0.0254 J0.0054
X3.2272 Y1.1617 I0.0153 J-0.021 F30.
X3.1966 Y1.2038 I-0.0153 J0.021
G1 X3.1949 Y1.2023 Z-0.1646
X3.1935 Y1.2005 Z-0.1641
X3.1926 Y1.1988 Z-0.1628
X3.192 Y1.1969 Z-0.1615
X3.1917 Y1.1944 Z-0.1577
Y1.1935 Z-0.1532
G0 Z0.2
X2.8391 Y2.6318
G1 Z0.1118 F30.
X2.84 Y2.6331 Z0.106 F20.
X2.8407 Y2.6351 Z0.1038
X2.8411 Y2.6372 Z0.1016
X2.841 Y2.6391 Z0.1011
X2.8405 Y2.641 Z0.1005
X2.8397 Y2.6428 Z0.1
G3 X2.8224 Y2.6327 Z0.0995 I-0.0086 J-0.005
X2.8397 Y2.6428 Z0.0989 I0.0086 J0.005
X2.8224 Y2.6327 Z0.0984 I-0.0086 J-0.005
X2.8397 Y2.6428 Z0.0978 I0.0086 J0.005
X2.8224 Y2.6327 Z0.0973 I-0.0086 J-0.005
X2.8397 Y2.6428 Z0.0967 I0.0086 J0.005
X2.8224 Y2.6327 Z0.0962 I-0.0086 J-0.005
X2.8397 Y2.6428 Z0.0956 I0.0086 J0.005
X2.8224 Y2.6327 Z0.0951 I-0.0086 J-0.005
X2.8397 Y2.6428 Z0.0945 I0.0086 J0.005
X2.8224 Y2.6327 Z0.094 I-0.0086 J-0.005
X2.8397 Y2.6428 Z0.0934 I0.0086 J0.005
X2.8224 Y2.6327 Z0.0929 I-0.0086 J-0.005
X2.8397 Y2.6428 Z0.0923 I0.0086 J0.005
X2.8224 Y2.6327 Z0.0918 I-0.0086 J-0.005
X2.8397 Y2.6428 Z0.0912 I0.0086 J0.005
X2.8224 Y2.6327 Z0.0907 I-0.0086 J-0.005
X2.8397 Y2.6428 Z0.0901 I0.0086 J0.005
X2.8224 Y2.6327 Z0.0896 I-0.0086 J-0.005
X2.8397 Y2.6428 Z0.089 I0.0086 J0.005
X2.8224 Y2.6327 Z0.0885 I-0.0086 J-0.005
X2.8397 Y2.6428 Z0.0879 I0.0086 J0.005
X2.8224 Y2.6327 Z0.0874 I-0.0086 J-0.005
X2.8397 Y2.6428 Z0.0868 I0.0086 J0.005
X2.8224 Y2.6327 Z0.0863 I-0.0086 J-0.005
X2.8397 Y2.6428 Z0.0857 I0.0086 J0.005
X2.8224 Y2.6327 Z0.0852 I-0.0086 J-0.005
X2.8397 Y2.6428 Z0.0846 I0.0086 J0.005
X2.8224 Y2.6327 Z0.0841 I-0.0086 J-0.005
X2.8397 Y2.6428 Z0.0835 I0.0086 J0.005
X2.8224 Y2.6327 Z0.083 I-0.0086 J-0.005
X2.8397 Y2.6428 Z0.0825 I0.0086 J0.005
X2.8224 Y2.6327 Z0.0819 I-0.0086 J-0.005
X2.8397 Y2.6428 Z0.0814 I0.0086 J0.005
X2.8224 Y2.6327 Z0.0808 I-0.0086 J-0.005
X2.8397 Y2.6428 Z0.0803 I0.0086 J0.005
X2.8224 Y2.6327 Z0.0797 I-0.0086 J-0.005
X2.8397 Y2.6428 Z0.0792 I0.0086 J0.005
X2.8224 Y2.6327 Z0.0786 I-0.0086 J-0.005
X2.8397 Y2.6428 Z0.0781 I0.0086 J0.005
X2.8224 Y2.6327 Z0.0775 I-0.0086 J-0.005
X2.8397 Y2.6428 Z0.077 I0.0086 J0.005
X2.8224 Y2.6327 Z0.0764 I-0.0086 J-0.005
X2.8397 Y2.6428 Z0.0759 I0.0086 J0.005
X2.8224 Y2.6327 Z0.0753 I-0.0086 J-0.005
X2.8397 Y2.6428 Z0.0748 I0.0086 J0.005
X2.8224 Y2.6327 Z0.0742 I-0.0086 J-0.005
X2.8397 Y2.6428 Z0.0737 I0.0086 J0.005
X2.8224 Y2.6327 Z0.0731 I-0.0086 J-0.005
X2.8397 Y2.6428 Z0.0726 I0.0086 J0.005
X2.8224 Y2.6327 Z0.072 I-0.0086 J-0.005
X2.8397 Y2.6428 Z0.0715 I0.0086 J0.005
X2.8224 Y2.6327 Z0.0709 I-0.0086 J-0.005
X2.8397 Y2.6428 Z0.0704 I0.0086 J0.005
X2.8224 Y2.6327 Z0.0698 I-0.0086 J-0.005
X2.8397 Y2.6428 Z0.0693 I0.0086 J0.005
X2.8224 Y2.6327 Z0.0687 I-0.0086 J-0.005
X2.8397 Y2.6428 Z0.0682 I0.0086 J0.005
X2.8224 Y2.6327 Z0.0676 I-0.0086 J-0.005
X2.8397 Y2.6428 Z0.0671 I0.0086 J0.005
X2.8224 Y2.6327 Z0.0665 I-0.0086 J-0.005
X2.8397 Y2.6428 Z0.066 I0.0086 J0.005
X2.8224 Y2.6327 Z0.0655 I-0.0086 J-0.005
X2.8397 Y2.6428 Z0.0649 I0.0086 J0.005
X2.8224 Y2.6327 Z0.0644 I-0.0086 J-0.005
X2.8397 Y2.6428 Z0.0638 I0.0086 J0.005
X2.8224 Y2.6327 Z0.0633 I-0.0086 J-0.005
X2.8397 Y2.6428 Z0.0627 I0.0086 J0.005
X2.8224 Y2.6327 Z0.0622 I-0.0086 J-0.005
X2.8397 Y2.6428 Z0.0616 I0.0086 J0.005
X2.8224 Y2.6327 Z0.0611 I-0.0086 J-0.005
X2.8397 Y2.6428 Z0.0605 I0.0086 J0.005
X2.8224 Y2.6327 Z0.06 I-0.0086 J-0.005
X2.8397 Y2.6428 Z0.0594 I0.0086 J0.005
X2.8224 Y2.6327 Z0.0589 I-0.0086 J-0.005
X2.8397 Y2.6428 Z0.0583 I0.0086 J0.005
X2.8224 Y2.6327 Z0.0578 I-0.0086 J-0.005
X2.8397 Y2.6428 Z0.0572 I0.0086 J0.005
X2.8224 Y2.6327 Z0.0567 I-0.0086 J-0.005
X2.8397 Y2.6428 Z0.0561 I0.0086 J0.005
X2.8224 Y2.6327 Z0.0556 I-0.0086 J-0.005
X2.8397 Y2.6428 Z0.055 I0.0086 J0.005
X2.8224 Y2.6327 Z0.0545 I-0.0086 J-0.005
X2.8397 Y2.6428 Z0.0539 I0.0086 J0.005
X2.8224 Y2.6327 Z0.0534 I-0.0086 J-0.005
X2.8397 Y2.6428 Z0.0528 I0.0086 J0.005
X2.8224 Y2.6327 Z0.0523 I-0.0086 J-0.005
X2.8397 Y2.6428 Z0.0517 I0.0086 J0.005
X2.8224 Y2.6327 Z0.0512 I-0.0086 J-0.005
X2.8397 Y2.6428 Z0.0506 I0.0086 J0.005
X2.8224 Y2.6327 Z0.0501 I-0.0086 J-0.005
X2.8397 Y2.6428 Z0.0496 I0.0086 J0.005
X2.8224 Y2.6327 Z0.049 I-0.0086 J-0.005
X2.8397 Y2.6428 Z0.0485 I0.0086 J0.005
X2.8224 Y2.6327 Z0.0479 I-0.0086 J-0.005
X2.8397 Y2.6428 Z0.0474 I0.0086 J0.005
X2.8224 Y2.6327 Z0.0468 I-0.0086 J-0.005
X2.8397 Y2.6428 Z0.0463 I0.0086 J0.005
X2.8224 Y2.6327 Z0.0457 I-0.0086 J-0.005
X2.8397 Y2.6428 Z0.0452 I0.0086 J0.005
X2.8224 Y2.6327 Z0.0446 I-0.0086 J-0.005
X2.8397 Y2.6428 Z0.0441 I0.0086 J0.005
X2.8224 Y2.6327 Z0.0435 I-0.0086 J-0.005
X2.8397 Y2.6428 Z0.043 I0.0086 J0.005
X2.8224 Y2.6327 Z0.0424 I-0.0086 J-0.005
X2.8397 Y2.6428 Z0.0419 I0.0086 J0.005
X2.8224 Y2.6327 Z0.0413 I-0.0086 J-0.005
X2.8397 Y2.6428 Z0.0408 I0.0086 J0.005
X2.8224 Y2.6327 Z0.0402 I-0.0086 J-0.005
X2.8397 Y2.6428 Z0.0397 I0.0086 J0.005
X2.8224 Y2.6327 Z0.0391 I-0.0086 J-0.005
X2.8397 Y2.6428 Z0.0386 I0.0086 J0.005
X2.8224 Y2.6327 Z0.038 I-0.0086 J-0.005
X2.8397 Y2.6428 Z0.0375 I0.0086 J0.005
X2.8224 Y2.6327 Z0.0369 I-0.0086 J-0.005
X2.8397 Y2.6428 Z0.0364 I0.0086 J0.005
X2.8224 Y2.6327 Z0.0358 I-0.0086 J-0.005
X2.8397 Y2.6428 Z0.0353 I0.0086 J0.005
X2.8224 Y2.6327 Z0.0347 I-0.0086 J-0.005
X2.8397 Y2.6428 Z0.0342 I0.0086 J0.005
X2.8224 Y2.6327 Z0.0336 I-0.0086 J-0.005
X2.8397 Y2.6428 Z0.0331 I0.0086 J0.005
X2.8224 Y2.6327 Z0.0326 I-0.0086 J-0.005
X2.8397 Y2.6428 Z0.032 I0.0086 J0.005
X2.8224 Y2.6327 Z0.0315 I-0.0086 J-0.005
X2.8397 Y2.6428 Z0.0309 I0.0086 J0.005
X2.8224 Y2.6327 Z0.0304 I-0.0086 J-0.005
X2.8397 Y2.6428 Z0.0298 I0.0086 J0.005
X2.8224 Y2.6327 Z0.0293 I-0.0086 J-0.005
X2.8397 Y2.6428 Z0.0287 I0.0086 J0.005
X2.8224 Y2.6327 Z0.0282 I-0.0086 J-0.005
X2.8397 Y2.6428 Z0.0276 I0.0086 J0.005
X2.8224 Y2.6327 Z0.0271 I-0.0086 J-0.005
X2.8397 Y2.6428 Z0.0265 I0.0086 J0.005
X2.8224 Y2.6327 Z0.026 I-0.0086 J-0.005
X2.8397 Y2.6428 Z0.0254 I0.0086 J0.005
X2.8224 Y2.6327 Z0.0249 I-0.0086 J-0.005
X2.8397 Y2.6428 Z0.0243 I0.0086 J0.005
X2.8224 Y2.6327 Z0.0238 I-0.0086 J-0.005
X2.8397 Y2.6428 Z0.0232 I0.0086 J0.005
X2.8224 Y2.6327 Z0.0227 I-0.0086 J-0.005
X2.8397 Y2.6428 Z0.0221 I0.0086 J0.005
X2.8224 Y2.6327 Z0.0216 I-0.0086 J-0.005
X2.8397 Y2.6428 Z0.021 I0.0086 J0.005
X2.8224 Y2.6327 Z0.0205 I-0.0086 J-0.005
X2.8397 Y2.6428 Z0.0199 I0.0086 J0.005
X2.8224 Y2.6327 Z0.0194 I-0.0086 J-0.005
X2.8397 Y2.6428 Z0.0188 I0.0086 J0.005
X2.8224 Y2.6327 Z0.0183 I-0.0086 J-0.005
X2.8397 Y2.6428 Z0.0177 I0.0086 J0.005
X2.8224 Y2.6327 Z0.0172 I-0.0086 J-0.005
X2.8397 Y2.6428 Z0.0166 I0.0086 J0.005
X2.8224 Y2.6327 Z0.0161 I-0.0086 J-0.005
X2.8397 Y2.6428 Z0.0156 I0.0086 J0.005
X2.8224 Y2.6327 Z0.015 I-0.0086 J-0.005
X2.8397 Y2.6428 Z0.0145 I0.0086 J0.005
X2.8224 Y2.6327 Z0.0139 I-0.0086 J-0.005
X2.8397 Y2.6428 Z0.0134 I0.0086 J0.005
X2.8224 Y2.6327 Z0.0128 I-0.0086 J-0.005
X2.8397 Y2.6428 Z0.0123 I0.0086 J0.005
X2.8224 Y2.6327 Z0.0117 I-0.0086 J-0.005
X2.8397 Y2.6428 Z0.0112 I0.0086 J0.005
X2.8224 Y2.6327 Z0.0106 I-0.0086 J-0.005
X2.8397 Y2.6428 Z0.0101 I0.0086 J0.005
X2.8224 Y2.6327 Z0.0095 I-0.0086 J-0.005
X2.8397 Y2.6428 Z0.009 I0.0086 J0.005
X2.8224 Y2.6327 Z0.0084 I-0.0086 J-0.005
X2.8397 Y2.6428 Z0.0079 I0.0086 J0.005
X2.8224 Y2.6327 Z0.0073 I-0.0086 J-0.005
X2.8397 Y2.6428 Z0.0068 I0.0086 J0.005
X2.8224 Y2.6327 Z0.0062 I-0.0086 J-0.005
X2.8397 Y2.6428 Z0.0057 I0.0086 J0.005
X2.8224 Y2.6327 Z0.0051 I-0.0086 J-0.005
X2.8397 Y2.6428 Z0.0046 I0.0086 J0.005
X2.8224 Y2.6327 Z0.004 I-0.0086 J-0.005
X2.8397 Y2.6428 Z0.0035 I0.0086 J0.005
X2.8224 Y2.6327 Z0.0029 I-0.0086 J-0.005
X2.8397 Y2.6428 Z0.0024 I0.0086 J0.005
X2.8224 Y2.6327 Z0.0018 I-0.0086 J-0.005
X2.8397 Y2.6428 Z0.0013 I0.0086 J0.005
X2.8224 Y2.6327 Z0.0007 I-0.0086 J-0.005
X2.8397 Y2.6428 Z0.0002 I0.0086 J0.005
X2.8224 Y2.6327 Z-0.0004 I-0.0086 J-0.005
X2.8397 Y2.6428 Z-0.0009 I0.0086 J0.005
X2.8224 Y2.6327 Z-0.0014 I-0.0086 J-0.005
X2.8397 Y2.6428 Z-0.002 I0.0086 J0.005
X2.8224 Y2.6327 Z-0.0025 I-0.0086 J-0.005
X2.8397 Y2.6428 Z-0.0031 I0.0086 J0.005
X2.8224 Y2.6327 Z-0.0036 I-0.0086 J-0.005
X2.8397 Y2.6428 Z-0.0042 I0.0086 J0.005
X2.8224 Y2.6327 Z-0.0047 I-0.0086 J-0.005
X2.8397 Y2.6428 Z-0.0053 I0.0086 J0.005
X2.8224 Y2.6327 Z-0.0058 I-0.0086 J-0.005
X2.8397 Y2.6428 Z-0.0064 I0.0086 J0.005
X2.8224 Y2.6327 Z-0.0069 I-0.0086 J-0.005
X2.8397 Y2.6428 Z-0.0075 I0.0086 J0.005
X2.8224 Y2.6327 Z-0.008 I-0.0086 J-0.005
X2.8397 Y2.6428 Z-0.0086 I0.0086 J0.005
X2.8224 Y2.6327 Z-0.0091 I-0.0086 J-0.005
X2.8397 Y2.6428 Z-0.0097 I0.0086 J0.005
X2.8224 Y2.6327 Z-0.0102 I-0.0086 J-0.005
X2.8397 Y2.6428 Z-0.0108 I0.0086 J0.005
X2.8224 Y2.6327 Z-0.0113 I-0.0086 J-0.005
X2.8397 Y2.6428 Z-0.0119 I0.0086 J0.005
X2.8224 Y2.6327 Z-0.0124 I-0.0086 J-0.005
X2.8397 Y2.6428 Z-0.013 I0.0086 J0.005
X2.8224 Y2.6327 Z-0.0135 I-0.0086 J-0.005
X2.8397 Y2.6428 Z-0.0141 I0.0086 J0.005
X2.8224 Y2.6327 Z-0.0146 I-0.0086 J-0.005
X2.8397 Y2.6428 Z-0.0152 I0.0086 J0.005
X2.8224 Y2.6327 Z-0.0157 I-0.0086 J-0.005
X2.8397 Y2.6428 Z-0.0163 I0.0086 J0.005
X2.8224 Y2.6327 Z-0.0168 I-0.0086 J-0.005
X2.8397 Y2.6428 Z-0.0174 I0.0086 J0.005
X2.8224 Y2.6327 Z-0.0179 I-0.0086 J-0.005
X2.8397 Y2.6428 Z-0.0184 I0.0086 J0.005
X2.8224 Y2.6327 Z-0.019 I-0.0086 J-0.005
X2.8397 Y2.6428 Z-0.0195 I0.0086 J0.005
X2.8211 Y2.6377 Z-0.02 I-0.0086 J-0.005
X2.8731 I0.026 J0. F30.
X2.8211 I-0.026 J0.
X2.8731 Z-0.0214 I0.026 J0. F20.
X2.8211 Z-0.0229 I-0.026 J0.
X2.8731 Z-0.0243 I0.026 J0.
X2.8211 Z-0.0257 I-0.026 J0.
X2.8731 Z-0.0271 I0.026 J0.
X2.8211 Z-0.0286 I-0.026 J0.
X2.8731 Z-0.03 I0.026 J0.
X2.8211 Z-0.0314 I-0.026 J0.
X2.8731 Z-0.0328 I0.026 J0.
X2.8211 Z-0.0343 I-0.026 J0.
X2.8731 Z-0.0357 I0.026 J0.
X2.8211 Z-0.0371 I-0.026 J0.
X2.8731 Z-0.0385 I0.026 J0.
X2.8459 Y2.6637 Z-0.0393 I-0.026 J0.
X2.8212 Y2.6354 Z-0.04 I0.0011 J-0.026
X2.873 Y2.64 I0.0259 J0.0023 F30.
X2.8212 Y2.6354 I-0.0259 J-0.0023
X2.873 Y2.64 Z-0.0414 I0.0259 J0.0023 F20.
X2.8212 Y2.6354 Z-0.0429 I-0.0259 J-0.0023
X2.873 Y2.64 Z-0.0443 I0.0259 J0.0023
X2.8212 Y2.6354 Z-0.0457 I-0.0259 J-0.0023
X2.873 Y2.64 Z-0.0471 I0.0259 J0.0023
X2.8212 Y2.6354 Z-0.0486 I-0.0259 J-0.0023
X2.873 Y2.64 Z-0.05 I0.0259 J0.0023
X2.8212 Y2.6354 Z-0.0514 I-0.0259 J-0.0023
X2.873 Y2.64 Z-0.0528 I0.0259 J0.0023
X2.8212 Y2.6354 Z-0.0543 I-0.0259 J-0.0023
X2.873 Y2.64 Z-0.0557 I0.0259 J0.0023
X2.8212 Y2.6354 Z-0.0571 I-0.0259 J-0.0023
X2.873 Y2.64 Z-0.0585 I0.0259 J0.0023
X2.8437 Y2.6635 Z-0.0593 I-0.0259 J-0.0023
X2.8215 Y2.6332 Z-0.06 I0.0034 J-0.0258
X2.8727 Y2.6422 I0.0256 J0.0045 F30.
X2.8215 Y2.6332 I-0.0256 J-0.0045
X2.8727 Y2.6422 Z-0.0614 I0.0256 J0.0045 F20.
X2.8215 Y2.6332 Z-0.0629 I-0.0256 J-0.0045
X2.8727 Y2.6422 Z-0.0643 I0.0256 J0.0045
X2.8215 Y2.6332 Z-0.0657 I-0.0256 J-0.0045
X2.8727 Y2.6422 Z-0.0671 I0.0256 J0.0045
X2.8215 Y2.6332 Z-0.0686 I-0.0256 J-0.0045
X2.8727 Y2.6422 Z-0.07 I0.0256 J0.0045
X2.8215 Y2.6332 Z-0.0714 I-0.0256 J-0.0045
X2.8727 Y2.6422 Z-0.0728 I0.0256 J0.0045
X2.8215 Y2.6332 Z-0.0743 I-0.0256 J-0.0045
X2.8727 Y2.6422 Z-0.0757 I0.0256 J0.0045
X2.8215 Y2.6332 Z-0.0771 I-0.0256 J-0.0045
X2.8727 Y2.6422 Z-0.0785 I0.0256 J0.0045
X2.8415 Y2.6631 Z-0.0793 I-0.0256 J-0.0045
X2.8219 Y2.631 Z-0.08 I0.0056 J-0.0254
X2.8722 Y2.6444 I0.0251 J0.0067 F30.
X2.8219 Y2.631 I-0.0251 J-0.0067
X2.8722 Y2.6444 Z-0.0814 I0.0251 J0.0067 F20.
X2.8219 Y2.631 Z-0.0829 I-0.0251 J-0.0067
X2.8722 Y2.6444 Z-0.0843 I0.0251 J0.0067
X2.8219 Y2.631 Z-0.0857 I-0.0251 J-0.0067
X2.8722 Y2.6444 Z-0.0871 I0.0251 J0.0067
X2.8219 Y2.631 Z-0.0886 I-0.0251 J-0.0067
X2.8722 Y2.6444 Z-0.09 I0.0251 J0.0067
X2.8219 Y2.631 Z-0.0914 I-0.0251 J-0.0067
X2.8722 Y2.6444 Z-0.0928 I0.0251 J0.0067
X2.8219 Y2.631 Z-0.0943 I-0.0251 J-0.0067
X2.8722 Y2.6444 Z-0.0957 I0.0251 J0.0067
X2.8219 Y2.631 Z-0.0971 I-0.0251 J-0.0067
X2.8722 Y2.6444 Z-0.0985 I0.0251 J0.0067
X2.8393 Y2.6625 Z-0.0993 I-0.0251 J-0.0067
X2.8226 Y2.6288 Z-0.1 I0.0078 J-0.0248
X2.8715 Y2.6466 I0.0244 J0.0089 F30.
X2.8226 Y2.6288 I-0.0244 J-0.0089
X2.8715 Y2.6466 Z-0.1014 I0.0244 J0.0089 F20.
X2.8226 Y2.6288 Z-0.1029 I-0.0244 J-0.0089
X2.8715 Y2.6466 Z-0.1043 I0.0244 J0.0089
X2.8226 Y2.6288 Z-0.1057 I-0.0244 J-0.0089
X2.8715 Y2.6466 Z-0.1071 I0.0244 J0.0089
X2.8226 Y2.6288 Z-0.1086 I-0.0244 J-0.0089
X2.8715 Y2.6466 Z-0.11 I0.0244 J0.0089
X2.8226 Y2.6288 Z-0.1114 I-0.0244 J-0.0089
X2.8715 Y2.6466 Z-0.1128 I0.0244 J0.0089
X2.8226 Y2.6288 Z-0.1143 I-0.0244 J-0.0089
X2.8715 Y2.6466 Z-0.1157 I0.0244 J0.0089
X2.8226 Y2.6288 Z-0.1171 I-0.0244 J-0.0089
X2.8715 Y2.6466 Z-0.1185 I0.0244 J0.0089
X2.8372 Y2.6617 Z-0.1193 I-0.0244 J-0.0089
X2.8235 Y2.6268 Z-0.12 I0.0099 J-0.024
X2.8707 Y2.6487 I0.0236 J0.0109 F30.
X2.8235 Y2.6268 I-0.0236 J-0.0109
X2.8707 Y2.6487 Z-0.1214 I0.0236 J0.0109 F20.
X2.8235 Y2.6268 Z-0.1229 I-0.0236 J-0.0109
X2.8707 Y2.6487 Z-0.1243 I0.0236 J0.0109
X2.8235 Y2.6268 Z-0.1257 I-0.0236 J-0.0109
X2.8707 Y2.6487 Z-0.1271 I0.0236 J0.0109
X2.8235 Y2.6268 Z-0.1286 I-0.0236 J-0.0109
X2.8707 Y2.6487 Z-0.13 I0.0236 J0.0109
X2.8235 Y2.6268 Z-0.1314 I-0.0236 J-0.0109
X2.8707 Y2.6487 Z-0.1328 I0.0236 J0.0109
X2.8235 Y2.6268 Z-0.1343 I-0.0236 J-0.0109
X2.8707 Y2.6487 Z-0.1357 I0.0236 J0.0109
X2.8235 Y2.6268 Z-0.1371 I-0.0236 J-0.0109
X2.8707 Y2.6487 Z-0.1385 I0.0236 J0.0109
X2.8351 Y2.6608 Z-0.1393 I-0.0236 J-0.0109
X2.8245 Y2.6248 Z-0.14 I0.012 J-0.0231
X2.8696 Y2.6507 I0.0225 J0.013 F30.
X2.8245 Y2.6248 I-0.0225 J-0.013
X2.8696 Y2.6507 Z-0.1414 I0.0225 J0.013 F20.
X2.8245 Y2.6248 Z-0.1429 I-0.0225 J-0.013
X2.8696 Y2.6507 Z-0.1443 I0.0225 J0.013
X2.8245 Y2.6248 Z-0.1457 I-0.0225 J-0.013
X2.8696 Y2.6507 Z-0.1471 I0.0225 J0.013
X2.8245 Y2.6248 Z-0.1486 I-0.0225 J-0.013
X2.8696 Y2.6507 Z-0.15 I0.0225 J0.013
X2.8245 Y2.6248 Z-0.1514 I-0.0225 J-0.013
X2.8725 Y2.6323 Z-0.1525 I0.0225 J0.013
X2.8216 Y2.6431 I-0.0254 J0.0054 F30.
X2.8725 Y2.6323 I0.0254 J-0.0054
X2.8216 Y2.6431 Z-0.1539 I-0.0254 J0.0054 F20.
X2.8725 Y2.6323 Z-0.1554 I0.0254 J-0.0054
X2.8216 Y2.6431 Z-0.1568 I-0.0254 J0.0054
X2.8725 Y2.6323 Z-0.1582 I0.0254 J-0.0054
X2.8216 Y2.6431 Z-0.1596 I-0.0254 J0.0054
X2.8725 Y2.6323 Z-0.1611 I0.0254 J-0.0054
X2.8216 Y2.6431 Z-0.1625 I-0.0254 J0.0054
X2.8725 Y2.6323 Z-0.1639 I0.0254 J-0.0054
X2.8317 Y2.6587 Z-0.165 I-0.0254 J0.0054
X2.8624 Y2.6167 I0.0153 J-0.021 F30.
X2.8317 Y2.6587 I-0.0153 J0.021
G1 X2.8301 Y2.6572 Z-0.1646
X2.8287 Y2.6554 Z-0.1641
X2.8278 Y2.6537 Z-0.1628
X2.8272 Y2.6519 Z-0.1615
X2.8269 Y2.6494 Z-0.1577
Y2.6485 Z-0.1532
G0 Z0.2
X0.915 Y2.1572
G1 Z0.1118 F30.
X0.9142 Y2.1559 Z0.106 F20.
X0.9135 Y2.1539 Z0.1038
X0.9131 Y2.1518 Z0.1016
X0.9132 Y2.1499 Z0.1011
X0.9137 Y2.148 Z0.1005
X0.9145 Y2.1462 Z0.1
G3 X0.9318 Y2.1563 Z0.0995 I0.0086 J0.005
X0.9145 Y2.1462 Z0.0989 I-0.0086 J-0.005
X0.9318 Y2.1563 Z0.0984 I0.0086 J0.005
X0.9145 Y2.1462 Z0.0978 I-0.0086 J-0.005
X0.9318 Y2.1563 Z0.0973 I0.0086 J0.005
X0.9145 Y2.1462 Z0.0967 I-0.0086 J-0.005
X0.9318 Y2.1563 Z0.0962 I0.0086 J0.005
X0.9145 Y2.1462 Z0.0956 I-0.0086 J-0.005
X0.9318 Y2.1563 Z0.0951 I0.0086 J0.005
X0.9145 Y2.1462 Z0.0945 I-0.0086 J-0.005
X0.9318 Y2.1563 Z0.094 I0.0086 J0.005
X0.9145 Y2.1462 Z0.0934 I-0.0086 J-0.005
X0.9318 Y2.1563 Z0.0929 I0.0086 J0.005
X0.9145 Y2.1462 Z0.0923 I-0.0086 J-0.005
X0.9318 Y2.1563 Z0.0918 I0.0086 J0.005
X0.9145 Y2.1462 Z0.0912 I-0.0086 J-0.005
X0.9318 Y2.1563 Z0.0907 I0.0086 J0.005
X0.9145 Y2.1462 Z0.0901 I-0.0086 J-0.005
X0.9318 Y2.1563 Z0.0896 I0.0086 J0.005
X0.9145 Y2.1462 Z0.089 I-0.0086 J-0.005
X0.9318 Y2.1563 Z0.0885 I0.0086 J0.005
X0.9145 Y2.1462 Z0.0879 I-0.0086 J-0.005
X0.9318 Y2.1563 Z0.0874 I0.0086 J0.005
X0.9145 Y2.1462 Z0.0868 I-0.0086 J-0.005
X0.9318 Y2.1563 Z0.0863 I0.0086 J0.005
X0.9145 Y2.1462 Z0.0857 I-0.0086 J-0.005
X0.9318 Y2.1563 Z0.0852 I0.0086 J0.005
X0.9145 Y2.1462 Z0.0846 I-0.0086 J-0.005
X0.9318 Y2.1563 Z0.0841 I0.0086 J0.005
X0.9145 Y2.1462 Z0.0835 I-0.0086 J-0.005
X0.9318 Y2.1563 Z0.083 I0.0086 J0.005
X0.9145 Y2.1462 Z0.0825 I-0.0086 J-0.005
X0.9318 Y2.1563 Z0.0819 I0.0086 J0.005
X0.9145 Y2.1462 Z0.0814 I-0.0086 J-0.005
X0.9318 Y2.1563 Z0.0808 I0.0086 J0.005
X0.9145 Y2.1462 Z0.0803 I-0.0086 J-0.005
X0.9318 Y2.1563 Z0.0797 I0.0086 J0.005
X0.9145 Y2.1462 Z0.0792 I-0.0086 J-0.005
X0.9318 Y2.1563 Z0.0786 I0.0086 J0.005
X0.9145 Y2.1462 Z0.0781 I-0.0086 J-0.005
X0.9318 Y2.1563 Z0.0775 I0.0086 J0.005
X0.9145 Y2.1462 Z0.077 I-0.0086 J-0.005
X0.9318 Y2.1563 Z0.0764 I0.0086 J0.005
X0.9145 Y2.1462 Z0.0759 I-0.0086 J-0.005
X0.9318 Y2.1563 Z0.0753 I0.0086 J0.005
X0.9145 Y2.1462 Z0.0748 I-0.0086 J-0.005
X0.9318 Y2.1563 Z0.0742 I0.0086 J0.005
X0.9145 Y2.1462 Z0.0737 I-0.0086 J-0.005
X0.9318 Y2.1563 Z0.0731 I0.0086 J0.005
X0.9145 Y2.1462 Z0.0726 I-0.0086 J-0.005
X0.9318 Y2.1563 Z0.072 I0.0086 J0.005
X0.9145 Y2.1462 Z0.0715 I-0.0086 J-0.005
X0.9318 Y2.1563 Z0.0709 I0.0086 J0.005
X0.9145 Y2.1462 Z0.0704 I-0.0086 J-0.005
X0.9318 Y2.1563 Z0.0698 I0.0086 J0.005
X0.9145 Y2.1462 Z0.0693 I-0.0086 J-0.005
X0.9318 Y2.1563 Z0.0687 I0.0086 J0.005
X0.9145 Y2.1462 Z0.0682 I-0.0086 J-0.005
X0.9318 Y2.1563 Z0.0676 I0.0086 J0.005
X0.9145 Y2.1462 Z0.0671 I-0.0086 J-0.005
X0.9318 Y2.1563 Z0.0665 I0.0086 J0.005
X0.9145 Y2.1462 Z0.066 I-0.0086 J-0.005
X0.9318 Y2.1563 Z0.0655 I0.0086 J0.005
X0.9145 Y2.1462 Z0.0649 I-0.0086 J-0.005
X0.9318 Y2.1563 Z0.0644 I0.0086 J0.005
X0.9145 Y2.1462 Z0.0638 I-0.0086 J-0.005
X0.9318 Y2.1563 Z0.0633 I0.0086 J0.005
X0.9145 Y2.1462 Z0.0627 I-0.0086 J-0.005
X0.9318 Y2.1563 Z0.0622 I0.0086 J0.005
X0.9145 Y2.1462 Z0.0616 I-0.0086 J-0.005
X0.9318 Y2.1563 Z0.0611 I0.0086 J0.005
X0.9145 Y2.1462 Z0.0605 I-0.0086 J-0.005
X0.9318 Y2.1563 Z0.06 I0.0086 J0.005
X0.9145 Y2.1462 Z0.0594 I-0.0086 J-0.005
X0.9318 Y2.1563 Z0.0589 I0.0086 J0.005
X0.9145 Y2.1462 Z0.0583 I-0.0086 J-0.005
X0.9318 Y2.1563 Z0.0578 I0.0086 J0.005
X0.9145 Y2.1462 Z0.0572 I-0.0086 J-0.005
X0.9318 Y2.1563 Z0.0567 I0.0086 J0.005
X0.9145 Y2.1462 Z0.0561 I-0.0086 J-0.005
X0.9318 Y2.1563 Z0.0556 I0.0086 J0.005
X0.9145 Y2.1462 Z0.055 I-0.0086 J-0.005
X0.9318 Y2.1563 Z0.0545 I0.0086 J0.005
X0.9145 Y2.1462 Z0.0539 I-0.0086 J-0.005
X0.9318 Y2.1563 Z0.0534 I0.0086 J0.005
X0.9145 Y2.1462 Z0.0528 I-0.0086 J-0.005
X0.9318 Y2.1563 Z0.0523 I0.0086 J0.005
X0.9145 Y2.1462 Z0.0517 I-0.0086 J-0.005
X0.9317 Y2.1563 Z0.0512 I0.0086 J0.005
X0.9145 Y2.1462 Z0.0506 I-0.0086 J-0.005
X0.9317 Y2.1563 Z0.0501 I0.0086 J0.005
X0.9145 Y2.1462 Z0.0496 I-0.0086 J-0.005
X0.9317 Y2.1563 Z0.049 I0.0086 J0.005
X0.9145 Y2.1462 Z0.0485 I-0.0086 J-0.005
X0.9317 Y2.1563 Z0.0479 I0.0086 J0.005
X0.9145 Y2.1462 Z0.0474 I-0.0086 J-0.005
X0.9317 Y2.1563 Z0.0468 I0.0086 J0.005
X0.9145 Y2.1462 Z0.0463 I-0.0086 J-0.005
X0.9317 Y2.1563 Z0.0457 I0.0086 J0.005
X0.9145 Y2.1462 Z0.0452 I-0.0086 J-0.005
X0.9317 Y2.1563 Z0.0446 I0.0086 J0.005
X0.9145 Y2.1462 Z0.0441 I-0.0086 J-0.005
X0.9317 Y2.1563 Z0.0435 I0.0086 J0.005
X0.9145 Y2.1462 Z0.043 I-0.0086 J-0.005
X0.9317 Y2.1563 Z0.0424 I0.0086 J0.005
X0.9145 Y2.1462 Z0.0419 I-0.0086 J-0.005
X0.9317 Y2.1563 Z0.0413 I0.0086 J0.005
X0.9145 Y2.1462 Z0.0408 I-0.0086 J-0.005
X0.9317 Y2.1563 Z0.0402 I0.0086 J0.005
X0.9145 Y2.1462 Z0.0397 I-0.0086 J-0.005
X0.9317 Y2.1563 Z0.0391 I0.0086 J0.005
X0.9145 Y2.1462 Z0.0386 I-0.0086 J-0.005
X0.9317 Y2.1563 Z0.038 I0.0086 J0.005
X0.9145 Y2.1462 Z0.0375 I-0.0086 J-0.005
X0.9317 Y2.1563 Z0.0369 I0.0086 J0.005
X0.9145 Y2.1462 Z0.0364 I-0.0086 J-0.005
X0.9317 Y2.1563 Z0.0358 I0.0086 J0.005
X0.9145 Y2.1462 Z0.0353 I-0.0086 J-0.005
X0.9317 Y2.1563 Z0.0347 I0.0086 J0.005
X0.9145 Y2.1462 Z0.0342 I-0.0086 J-0.005
X0.9317 Y2.1563 Z0.0336 I0.0086 J0.005
X0.9145 Y2.1462 Z0.0331 I-0.0086 J-0.005
X0.9317 Y2.1563 Z0.0326 I0.0086 J0.005
X0.9145 Y2.1462 Z0.032 I-0.0086 J-0.005
X0.9317 Y2.1563 Z0.0315 I0.0086 J0.005
X0.9145 Y2.1462 Z0.0309 I-0.0086 J-0.005
X0.9317 Y2.1563 Z0.0304 I0.0086 J0.005
X0.9145 Y2.1462 Z0.0298 I-0.0086 J-0.005
X0.9317 Y2.1563 Z0.0293 I0.0086 J0.005
X0.9145 Y2.1462 Z0.0287 I-0.0086 J-0.005
X0.9317 Y2.1563 Z0.0282 I0.0086 J0.005
X0.9145 Y2.1462 Z0.0276 I-0.0086 J-0.005
X0.9317 Y2.1563 Z0.0271 I0.0086 J0.005
X0.9145 Y2.1462 Z0.0265 I-0.0086 J-0.005
X0.9317 Y2.1563 Z0.026 I0.0086 J0.005
X0.9145 Y2.1462 Z0.0254 I-0.0086 J-0.005
X0.9317 Y2.1563 Z0.0249 I0.0086 J0.005
X0.9145 Y2.1462 Z0.0243 I-0.0086 J-0.005
X0.9317 Y2.1563 Z0.0238 I0.0086 J0.005
X0.9145 Y2.1462 Z0.0232 I-0.0086 J-0.005
X0.9317 Y2.1563 Z0.0227 I0.0086 J0.005
X0.9145 Y2.1462 Z0.0221 I-0.0086 J-0.005
X0.9317 Y2.1563 Z0.0216 I0.0086 J0.005
X0.9145 Y2.1462 Z0.021 I-0.0086 J-0.005
X0.9317 Y2.1563 Z0.0205 I0.0086 J0.005
X0.9145 Y2.1462 Z0.0199 I-0.0086 J-0.005
X0.9317 Y2.1563 Z0.0194 I0.0086 J0.005
X0.9145 Y2.1462 Z0.0188 I-0.0086 J-0.005
X0.9317 Y2.1563 Z0.0183 I0.0086 J0.005
X0.9145 Y2.1462 Z0.0177 I-0.0086 J-0.005
X0.9317 Y2.1563 Z0.0172 I0.0086 J0.005
X0.9145 Y2.1462 Z0.0166 I-0.0086 J-0.005
X0.9317 Y2.1563 Z0.0161 I0.0086 J0.005
X0.9145 Y2.1462 Z0.0156 I-0.0086 J-0.005
X0.9317 Y2.1563 Z0.015 I0.0086 J0.005
X0.9145 Y2.1462 Z0.0145 I-0.0086 J-0.005
X0.9317 Y2.1563 Z0.0139 I0.0086 J0.005
X0.9145 Y2.1462 Z0.0134 I-0.0086 J-0.005
X0.9317 Y2.1563 Z0.0128 I0.0086 J0.005
X0.9145 Y2.1462 Z0.0123 I-0.0086 J-0.005
X0.9317 Y2.1563 Z0.0117 I0.0086 J0.005
X0.9145 Y2.1462 Z0.0112 I-0.0086 J-0.005
X0.9317 Y2.1563 Z0.0106 I0.0086 J0.005
X0.9145 Y2.1462 Z0.0101 I-0.0086 J-0.005
X0.9317 Y2.1563 Z0.0095 I0.0086 J0.005
X0.9145 Y2.1462 Z0.009 I-0.0086 J-0.005
X0.9317 Y2.1563 Z0.0084 I0.0086 J0.005
X0.9145 Y2.1462 Z0.0079 I-0.0086 J-0.005
X0.9317 Y2.1563 Z0.0073 I0.0086 J0.005
X0.9145 Y2.1462 Z0.0068 I-0.0086 J-0.005
X0.9317 Y2.1563 Z0.0062 I0.0086 J0.005
X0.9145 Y2.1462 Z0.0057 I-0.0086 J-0.005
X0.9317 Y2.1563 Z0.0051 I0.0086 J0.005
X0.9145 Y2.1462 Z0.0046 I-0.0086 J-0.005
X0.9317 Y2.1563 Z0.004 I0.0086 J0.005
X0.9145 Y2.1462 Z0.0035 I-0.0086 J-0.005
X0.9317 Y2.1563 Z0.0029 I0.0086 J0.005
X0.9145 Y2.1462 Z0.0024 I-0.0086 J-0.005
X0.9317 Y2.1563 Z0.0018 I0.0086 J0.005
X0.9145 Y2.1462 Z0.0013 I-0.0086 J-0.005
X0.9317 Y2.1563 Z0.0007 I0.0086 J0.005
X0.9145 Y2.1462 Z0.0002 I-0.0086 J-0.005
X0.9317 Y2.1563 Z-0.0004 I0.0086 J0.005
X0.9145 Y2.1462 Z-0.0009 I-0.0086 J-0.005
X0.9317 Y2.1563 Z-0.0014 I0.0086 J0.005
X0.9145 Y2.1462 Z-0.002 I-0.0086 J-0.005
X0.9317 Y2.1563 Z-0.0025 I0.0086 J0.005
X0.9145 Y2.1462 Z-0.0031 I-0.0086 J-0.005
X0.9317 Y2.1563 Z-0.0036 I0.0086 J0.005
X0.9145 Y2.1462 Z-0.0042 I-0.0086 J-0.005
X0.9317 Y2.1563 Z-0.0047 I0.0086 J0.005
X0.9145 Y2.1462 Z-0.0053 I-0.0086 J-0.005
X0.9317 Y2.1563 Z-0.0058 I0.0086 J0.005
X0.9145 Y2.1462 Z-0.0064 I-0.0086 J-0.005
X0.9317 Y2.1563 Z-0.0069 I0.0086 J0.005
X0.9145 Y2.1462 Z-0.0075 I-0.0086 J-0.005
X0.9317 Y2.1563 Z-0.008 I0.0086 J0.005
X0.9145 Y2.1462 Z-0.0086 I-0.0086 J-0.005
X0.9317 Y2.1563 Z-0.0091 I0.0086 J0.005
X0.9145 Y2.1462 Z-0.0097 I-0.0086 J-0.005
X0.9317 Y2.1563 Z-0.0102 I0.0086 J0.005
X0.9145 Y2.1462 Z-0.0108 I-0.0086 J-0.005
X0.9317 Y2.1563 Z-0.0113 I0.0086 J0.005
X0.9145 Y2.1462 Z-0.0119 I-0.0086 J-0.005
X0.9317 Y2.1563 Z-0.0124 I0.0086 J0.005
X0.9145 Y2.1462 Z-0.013 I-0.0086 J-0.005
X0.9317 Y2.1563 Z-0.0135 I0.0086 J0.005
X0.9145 Y2.1462 Z-0.0141 I-0.0086 J-0.005
X0.9317 Y2.1563 Z-0.0146 I0.0086 J0.005
X0.9145 Y2.1462 Z-0.0152 I-0.0086 J-0.005
X0.9317 Y2.1563 Z-0.0157 I0.0086 J0.005
X0.9145 Y2.1462 Z-0.0163 I-0.0086 J-0.005
X0.9317 Y2.1563 Z-0.0168 I0.0086 J0.005
X0.9145 Y2.1462 Z-0.0174 I-0.0086 J-0.005
X0.9317 Y2.1563 Z-0.0179 I0.0086 J0.005
X0.9145 Y2.1462 Z-0.0184 I-0.0086 J-0.005
X0.9317 Y2.1563 Z-0.019 I0.0086 J0.005
X0.9145 Y2.1462 Z-0.0195 I-0.0086 J-0.005
X0.9331 Y2.1513 Z-0.02 I0.0086 J0.005
X0.8811 I-0.026 J0. F30.
X0.9331 I0.026 J0.
X0.8811 Z-0.0214 I-0.026 J0. F20.
X0.9331 Z-0.0229 I0.026 J0.
X0.8811 Z-0.0243 I-0.026 J0.
X0.9331 Z-0.0257 I0.026 J0.
X0.8811 Z-0.0271 I-0.026 J0.
X0.9331 Z-0.0286 I0.026 J0.
X0.8811 Z-0.03 I-0.026 J0.
X0.9331 Z-0.0314 I0.026 J0.
X0.8811 Z-0.0328 I-0.026 J0.
X0.9331 Z-0.0343 I0.026 J0.
X0.8811 Z-0.0357 I-0.026 J0.
X0.9331 Z-0.0371 I0.026 J0.
X0.8811 Z-0.0385 I-0.026 J0.
X0.9082 Y2.1253 Z-0.0393 I0.026 J0.
X0.933 Y2.1535 Z-0.04 I-0.0011 J0.026
X0.8812 Y2.149 I-0.0259 J-0.0023 F30.
X0.933 Y2.1535 I0.0259 J0.0023
X0.8812 Y2.149 Z-0.0414 I-0.0259 J-0.0023 F20.
X0.933 Y2.1535 Z-0.0429 I0.0259 J0.0023
X0.8812 Y2.149 Z-0.0443 I-0.0259 J-0.0023
X0.933 Y2.1535 Z-0.0457 I0.0259 J0.0023
X0.8812 Y2.149 Z-0.0471 I-0.0259 J-0.0023
X0.933 Y2.1535 Z-0.0486 I0.0259 J0.0023
X0.8812 Y2.149 Z-0.05 I-0.0259 J-0.0023
X0.933 Y2.1535 Z-0.0514 I0.0259 J0.0023
X0.8812 Y2.149 Z-0.0528 I-0.0259 J-0.0023
X0.933 Y2.1535 Z-0.0543 I0.0259 J0.0023
X0.8812 Y2.149 Z-0.0557 I-0.0259 J-0.0023
X0.933 Y2.1535 Z-0.0571 I0.0259 J0.0023
X0.8812 Y2.149 Z-0.0585 I-0.0259 J-0.0023
X0.9105 Y2.1255 Z-0.0593 I0.0259 J0.0023
X0.9327 Y2.1558 Z-0.06 I-0.0034 J0.0258
X0.8815 Y2.1468 I-0.0256 J-0.0045 F30.
X0.9327 Y2.1558 I0.0256 J0.0045
X0.8815 Y2.1468 Z-0.0614 I-0.0256 J-0.0045 F20.
X0.9327 Y2.1558 Z-0.0629 I0.0256 J0.0045
X0.8815 Y2.1468 Z-0.0643 I-0.0256 J-0.0045
X0.9327 Y2.1558 Z-0.0657 I0.0256 J0.0045
X0.8815 Y2.1468 Z-0.0671 I-0.0256 J-0.0045
X0.9327 Y2.1558 Z-0.0686 I0.0256 J0.0045
X0.8815 Y2.1468 Z-0.07 I-0.0256 J-0.0045
X0.9327 Y2.1558 Z-0.0714 I0.0256 J0.0045
X0.8815 Y2.1468 Z-0.0728 I-0.0256 J-0.0045
X0.9327 Y2.1558 Z-0.0743 I0.0256 J0.0045
X0.8815 Y2.1468 Z-0.0757 I-0.0256 J-0.0045
X0.9327 Y2.1558 Z-0.0771 I0.0256 J0.0045
X0.8815 Y2.1468 Z-0.0785 I-0.0256 J-0.0045
X0.9127 Y2.1259 Z-0.0793 I0.0256 J0.0045
X0.9322 Y2.158 Z-0.08 I-0.0056 J0.0254
X0.882 Y2.1446 I-0.0251 J-0.0067 F30.
X0.9322 Y2.158 I0.0251 J0.0067
X0.882 Y2.1446 Z-0.0814 I-0.0251 J-0.0067 F20.
X0.9322 Y2.158 Z-0.0829 I0.0251 J0.0067
X0.882 Y2.1446 Z-0.0843 I-0.0251 J-0.0067
X0.9322 Y2.158 Z-0.0857 I0.0251 J0.0067
X0.882 Y2.1446 Z-0.0871 I-0.0251 J-0.0067
X0.9322 Y2.158 Z-0.0886 I0.0251 J0.0067
X0.882 Y2.1446 Z-0.09 I-0.0251 J-0.0067
X0.9322 Y2.158 Z-0.0914 I0.0251 J0.0067
X0.882 Y2.1446 Z-0.0928 I-0.0251 J-0.0067
X0.9322 Y2.158 Z-0.0943 I0.0251 J0.0067
X0.882 Y2.1446 Z-0.0957 I-0.0251 J-0.0067
X0.9322 Y2.158 Z-0.0971 I0.0251 J0.0067
X0.882 Y2.1446 Z-0.0985 I-0.0251 J-0.0067
X0.9149 Y2.1265 Z-0.0993 I0.0251 J0.0067
X0.9316 Y2.1601 Z-0.1 I-0.0078 J0.0248
X0.8827 Y2.1424 I-0.0244 J-0.0089 F30.
X0.9316 Y2.1601 I0.0244 J0.0089
X0.8827 Y2.1424 Z-0.1014 I-0.0244 J-0.0089 F20.
X0.9316 Y2.1601 Z-0.1029 I0.0244 J0.0089
X0.8827 Y2.1424 Z-0.1043 I-0.0244 J-0.0089
X0.9316 Y2.1601 Z-0.1057 I0.0244 J0.0089
X0.8827 Y2.1424 Z-0.1071 I-0.0244 J-0.0089
X0.9316 Y2.1601 Z-0.1086 I0.0244 J0.0089
X0.8827 Y2.1424 Z-0.11 I-0.0244 J-0.0089
X0.9316 Y2.1601 Z-0.1114 I0.0244 J0.0089
X0.8827 Y2.1424 Z-0.1128 I-0.0244 J-0.0089
X0.9316 Y2.1601 Z-0.1143 I0.0244 J0.0089
X0.8827 Y2.1424 Z-0.1157 I-0.0244 J-0.0089
X0.9316 Y2.1601 Z-0.1171 I0.0244 J0.0089
X0.8827 Y2.1424 Z-0.1185 I-0.0244 J-0.0089
X0.917 Y2.1273 Z-0.1193 I0.0244 J0.0089
X0.9307 Y2.1622 Z-0.12 I-0.0099 J0.024
X0.8835 Y2.1403 I-0.0236 J-0.0109 F30.
X0.9307 Y2.1622 I0.0236 J0.0109
X0.8835 Y2.1403 Z-0.1214 I-0.0236 J-0.0109 F20.
X0.9307 Y2.1622 Z-0.1229 I0.0236 J0.0109
X0.8835 Y2.1403 Z-0.1243 I-0.0236 J-0.0109
X0.9307 Y2.1622 Z-0.1257 I0.0236 J0.0109
X0.8835 Y2.1403 Z-0.1271 I-0.0236 J-0.0109
X0.9307 Y2.1622 Z-0.1286 I0.0236 J0.0109
X0.8835 Y2.1403 Z-0.13 I-0.0236 J-0.0109
X0.9307 Y2.1622 Z-0.1314 I0.0236 J0.0109
X0.8835 Y2.1403 Z-0.1328 I-0.0236 J-0.0109
X0.9307 Y2.1622 Z-0.1343 I0.0236 J0.0109
X0.8835 Y2.1403 Z-0.1357 I-0.0236 J-0.0109
X0.9307 Y2.1622 Z-0.1371 I0.0236 J0.0109
X0.8835 Y2.1403 Z-0.1385 I-0.0236 J-0.0109
X0.9191 Y2.1282 Z-0.1393 I0.0236 J0.0109
X0.9297 Y2.1642 Z-0.14 I-0.012 J0.0231
X0.8846 Y2.1383 I-0.0225 J-0.013 F30.
X0.9297 Y2.1642 I0.0225 J0.013
X0.8846 Y2.1383 Z-0.1414 I-0.0225 J-0.013 F20.
X0.9297 Y2.1642 Z-0.1429 I0.0225 J0.013
X0.8846 Y2.1383 Z-0.1443 I-0.0225 J-0.013
X0.9297 Y2.1642 Z-0.1457 I0.0225 J0.013
X0.8846 Y2.1383 Z-0.1471 I-0.0225 J-0.013
X0.9297 Y2.1642 Z-0.1486 I0.0225 J0.013
X0.8846 Y2.1383 Z-0.15 I-0.0225 J-0.013
X0.9297 Y2.1642 Z-0.1514 I0.0225 J0.013
X0.8817 Y2.1567 Z-0.1525 I-0.0225 J-0.013
X0.9325 Y2.1459 I0.0254 J-0.0054 F30.
X0.8817 Y2.1567 I-0.0254 J0.0054
X0.9325 Y2.1459 Z-0.1539 I0.0254 J-0.0054 F20.
X0.8817 Y2.1567 Z-0.1554 I-0.0254 J0.0054
X0.9325 Y2.1459 Z-0.1568 I0.0254 J-0.0054
X0.8817 Y2.1567 Z-0.1582 I-0.0254 J0.0054
X0.9325 Y2.1459 Z-0.1596 I0.0254 J-0.0054
X0.8817 Y2.1567 Z-0.1611 I-0.0254 J0.0054
X0.9325 Y2.1459 Z-0.1625 I0.0254 J-0.0054
X0.8817 Y2.1567 Z-0.1639 I-0.0254 J0.0054
X0.9224 Y2.1303 Z-0.165 I0.0254 J-0.0054
X0.8918 Y2.1723 I-0.0153 J0.021 F30.
X0.9224 Y2.1303 I0.0153 J-0.021
G1 X0.9241 Y2.1318 Z-0.1646
X0.9255 Y2.1336 Z-0.1641
X0.9264 Y2.1353 Z-0.1628
X0.927 Y2.1371 Z-0.1615
X0.9273 Y2.1396 Z-0.1577
Y2.1405 Z-0.1532
G0 Z0.2
X1.2799 Y0.7022
G1 Z0.1118 F30.
X1.279 Y0.7009 Z0.106 F20.
X1.2783 Y0.6989 Z0.1038
X1.2779 Y0.6968 Z0.1016
X1.278 Y0.6949 Z0.1011
X1.2785 Y0.693 Z0.1005
X1.2793 Y0.6913 Z0.1
G3 X1.2966 Y0.7014 Z0.0995 I0.0086 J0.005
X1.2793 Y0.6913 Z0.0989 I-0.0086 J-0.005
X1.2966 Y0.7014 Z0.0984 I0.0086 J0.005
X1.2793 Y0.6913 Z0.0978 I-0.0086 J-0.005
X1.2966 Y0.7014 Z0.0973 I0.0086 J0.005
X1.2793 Y0.6913 Z0.0967 I-0.0086 J-0.005
X1.2966 Y0.7014 Z0.0962 I0.0086 J0.005
X1.2793 Y0.6913 Z0.0956 I-0.0086 J-0.005
X1.2966 Y0.7014 Z0.0951 I0.0086 J0.005
X1.2793 Y0.6913 Z0.0945 I-0.0086 J-0.005
X1.2966 Y0.7014 Z0.094 I0.0086 J0.005
X1.2793 Y0.6913 Z0.0934 I-0.0086 J-0.005
X1.2966 Y0.7014 Z0.0929 I0.0086 J0.005
X1.2793 Y0.6913 Z0.0923 I-0.0086 J-0.005
X1.2966 Y0.7014 Z0.0918 I0.0086 J0.005
X1.2793 Y0.6913 Z0.0912 I-0.0086 J-0.005
X1.2966 Y0.7014 Z0.0907 I0.0086 J0.005
X1.2793 Y0.6913 Z0.0901 I-0.0086 J-0.005
X1.2966 Y0.7014 Z0.0896 I0.0086 J0.005
X1.2793 Y0.6913 Z0.089 I-0.0086 J-0.005
X1.2966 Y0.7014 Z0.0885 I0.0086 J0.005
X1.2793 Y0.6913 Z0.0879 I-0.0086 J-0.005
X1.2966 Y0.7014 Z0.0874 I0.0086 J0.005
X1.2793 Y0.6913 Z0.0868 I-0.0086 J-0.005
X1.2966 Y0.7014 Z0.0863 I0.0086 J0.005
X1.2793 Y0.6913 Z0.0857 I-0.0086 J-0.005
X1.2966 Y0.7014 Z0.0852 I0.0086 J0.005
X1.2793 Y0.6913 Z0.0846 I-0.0086 J-0.005
X1.2966 Y0.7014 Z0.0841 I0.0086 J0.005
X1.2793 Y0.6913 Z0.0835 I-0.0086 J-0.005
X1.2966 Y0.7014 Z0.083 I0.0086 J0.005
X1.2793 Y0.6913 Z0.0825 I-0.0086 J-0.005
X1.2966 Y0.7014 Z0.0819 I0.0086 J0.005
X1.2793 Y0.6913 Z0.0814 I-0.0086 J-0.005
X1.2966 Y0.7014 Z0.0808 I0.0086 J0.005
X1.2793 Y0.6913 Z0.0803 I-0.0086 J-0.005
X1.2966 Y0.7014 Z0.0797 I0.0086 J0.005
X1.2793 Y0.6913 Z0.0792 I-0.0086 J-0.005
X1.2966 Y0.7014 Z0.0786 I0.0086 J0.005
X1.2793 Y0.6913 Z0.0781 I-0.0086 J-0.005
X1.2966 Y0.7014 Z0.0775 I0.0086 J0.005
X1.2793 Y0.6913 Z0.077 I-0.0086 J-0.005
X1.2966 Y0.7014 Z0.0764 I0.0086 J0.005
X1.2793 Y0.6913 Z0.0759 I-0.0086 J-0.005
X1.2966 Y0.7014 Z0.0753 I0.0086 J0.005
X1.2793 Y0.6913 Z0.0748 I-0.0086 J-0.005
X1.2966 Y0.7014 Z0.0742 I0.0086 J0.005
X1.2793 Y0.6913 Z0.0737 I-0.0086 J-0.005
X1.2966 Y0.7014 Z0.0731 I0.0086 J0.005
X1.2793 Y0.6913 Z0.0726 I-0.0086 J-0.005
X1.2966 Y0.7014 Z0.072 I0.0086 J0.005
X1.2793 Y0.6913 Z0.0715 I-0.0086 J-0.005
X1.2966 Y0.7014 Z0.0709 I0.0086 J0.005
X1.2793 Y0.6913 Z0.0704 I-0.0086 J-0.005
X1.2966 Y0.7014 Z0.0698 I0.0086 J0.005
X1.2793 Y0.6913 Z0.0693 I-0.0086 J-0.005
X1.2966 Y0.7014 Z0.0687 I0.0086 J0.005
X1.2793 Y0.6913 Z0.0682 I-0.0086 J-0.005
X1.2966 Y0.7014 Z0.0676 I0.0086 J0.005
X1.2793 Y0.6913 Z0.0671 I-0.0086 J-0.005
X1.2966 Y0.7014 Z0.0665 I0.0086 J0.005
X1.2793 Y0.6913 Z0.066 I-0.0086 J-0.005
X1.2966 Y0.7014 Z0.0655 I0.0086 J0.005
X1.2793 Y0.6913 Z0.0649 I-0.0086 J-0.005
X1.2966 Y0.7014 Z0.0644 I0.0086 J0.005
X1.2793 Y0.6913 Z0.0638 I-0.0086 J-0.005
X1.2966 Y0.7014 Z0.0633 I0.0086 J0.005
X1.2793 Y0.6913 Z0.0627 I-0.0086 J-0.005
X1.2966 Y0.7014 Z0.0622 I0.0086 J0.005
X1.2793 Y0.6913 Z0.0616 I-0.0086 J-0.005
X1.2966 Y0.7014 Z0.0611 I0.0086 J0.005
X1.2793 Y0.6913 Z0.0605 I-0.0086 J-0.005
X1.2966 Y0.7014 Z0.06 I0.0086 J0.005
X1.2793 Y0.6913 Z0.0594 I-0.0086 J-0.005
X1.2966 Y0.7014 Z0.0589 I0.0086 J0.005
X1.2793 Y0.6913 Z0.0583 I-0.0086 J-0.005
X1.2966 Y0.7014 Z0.0578 I0.0086 J0.005
X1.2793 Y0.6913 Z0.0572 I-0.0086 J-0.005
X1.2966 Y0.7014 Z0.0567 I0.0086 J0.005
X1.2793 Y0.6913 Z0.0561 I-0.0086 J-0.005
X1.2966 Y0.7014 Z0.0556 I0.0086 J0.005
X1.2793 Y0.6913 Z0.055 I-0.0086 J-0.005
X1.2966 Y0.7014 Z0.0545 I0.0086 J0.005
X1.2793 Y0.6913 Z0.0539 I-0.0086 J-0.005
X1.2966 Y0.7014 Z0.0534 I0.0086 J0.005
X1.2793 Y0.6913 Z0.0528 I-0.0086 J-0.005
X1.2966 Y0.7014 Z0.0523 I0.0086 J0.005
X1.2793 Y0.6913 Z0.0517 I-0.0086 J-0.005
X1.2966 Y0.7014 Z0.0512 I0.0086 J0.005
X1.2793 Y0.6913 Z0.0506 I-0.0086 J-0.005
X1.2966 Y0.7014 Z0.0501 I0.0086 J0.005
X1.2793 Y0.6913 Z0.0496 I-0.0086 J-0.005
X1.2966 Y0.7014 Z0.049 I0.0086 J0.005
X1.2793 Y0.6913 Z0.0485 I-0.0086 J-0.005
X1.2966 Y0.7014 Z0.0479 I0.0086 J0.005
X1.2793 Y0.6913 Z0.0474 I-0.0086 J-0.005
X1.2966 Y0.7014 Z0.0468 I0.0086 J0.005
X1.2793 Y0.6913 Z0.0463 I-0.0086 J-0.005
X1.2966 Y0.7014 Z0.0457 I0.0086 J0.005
X1.2793 Y0.6913 Z0.0452 I-0.0086 J-0.005
X1.2966 Y0.7014 Z0.0446 I0.0086 J0.005
X1.2793 Y0.6913 Z0.0441 I-0.0086 J-0.005
X1.2966 Y0.7014 Z0.0435 I0.0086 J0.005
X1.2793 Y0.6913 Z0.043 I-0.0086 J-0.005
X1.2966 Y0.7014 Z0.0424 I0.0086 J0.005
X1.2793 Y0.6913 Z0.0419 I-0.0086 J-0.005
X1.2966 Y0.7014 Z0.0413 I0.0086 J0.005
X1.2793 Y0.6913 Z0.0408 I-0.0086 J-0.005
X1.2966 Y0.7014 Z0.0402 I0.0086 J0.005
X1.2793 Y0.6913 Z0.0397 I-0.0086 J-0.005
X1.2966 Y0.7014 Z0.0391 I0.0086 J0.005
X1.2793 Y0.6913 Z0.0386 I-0.0086 J-0.005
X1.2966 Y0.7014 Z0.038 I0.0086 J0.005
X1.2793 Y0.6913 Z0.0375 I-0.0086 J-0.005
X1.2966 Y0.7014 Z0.0369 I0.0086 J0.005
X1.2793 Y0.6913 Z0.0364 I-0.0086 J-0.005
X1.2966 Y0.7014 Z0.0358 I0.0086 J0.005
X1.2793 Y0.6913 Z0.0353 I-0.0086 J-0.005
X1.2966 Y0.7014 Z0.0347 I0.0086 J0.005
X1.2793 Y0.6913 Z0.0342 I-0.0086 J-0.005
X1.2966 Y0.7014 Z0.0336 I0.0086 J0.005
X1.2793 Y0.6913 Z0.0331 I-0.0086 J-0.005
X1.2966 Y0.7014 Z0.0326 I0.0086 J0.005
X1.2793 Y0.6913 Z0.032 I-0.0086 J-0.005
X1.2966 Y0.7014 Z0.0315 I0.0086 J0.005
X1.2793 Y0.6913 Z0.0309 I-0.0086 J-0.005
X1.2966 Y0.7014 Z0.0304 I0.0086 J0.005
X1.2793 Y0.6913 Z0.0298 I-0.0086 J-0.005
X1.2966 Y0.7014 Z0.0293 I0.0086 J0.005
X1.2793 Y0.6913 Z0.0287 I-0.0086 J-0.005
X1.2966 Y0.7014 Z0.0282 I0.0086 J0.005
X1.2793 Y0.6913 Z0.0276 I-0.0086 J-0.005
X1.2966 Y0.7014 Z0.0271 I0.0086 J0.005
X1.2793 Y0.6913 Z0.0265 I-0.0086 J-0.005
X1.2966 Y0.7014 Z0.026 I0.0086 J0.005
X1.2793 Y0.6913 Z0.0254 I-0.0086 J-0.005
X1.2966 Y0.7014 Z0.0249 I0.0086 J0.005
X1.2793 Y0.6913 Z0.0243 I-0.0086 J-0.005
X1.2966 Y0.7014 Z0.0238 I0.0086 J0.005
X1.2793 Y0.6913 Z0.0232 I-0.0086 J-0.005
X1.2966 Y0.7014 Z0.0227 I0.0086 J0.005
X1.2793 Y0.6913 Z0.0221 I-0.0086 J-0.005
X1.2966 Y0.7014 Z0.0216 I0.0086 J0.005
X1.2793 Y0.6913 Z0.021 I-0.0086 J-0.005
X1.2966 Y0.7014 Z0.0205 I0.0086 J0.005
X1.2793 Y0.6913 Z0.0199 I-0.0086 J-0.005
X1.2966 Y0.7014 Z0.0194 I0.0086 J0.005
X1.2793 Y0.6913 Z0.0188 I-0.0086 J-0.005
X1.2966 Y0.7014 Z0.0183 I0.0086 J0.005
X1.2793 Y0.6913 Z0.0177 I-0.0086 J-0.005
X1.2966 Y0.7014 Z0.0172 I0.0086 J0.005
X1.2793 Y0.6913 Z0.0166 I-0.0086 J-0.005
X1.2966 Y0.7014 Z0.0161 I0.0086 J0.005
X1.2793 Y0.6913 Z0.0156 I-0.0086 J-0.005
X1.2966 Y0.7014 Z0.015 I0.0086 J0.005
X1.2793 Y0.6913 Z0.0145 I-0.0086 J-0.005
X1.2966 Y0.7014 Z0.0139 I0.0086 J0.005
X1.2793 Y0.6913 Z0.0134 I-0.0086 J-0.005
X1.2966 Y0.7014 Z0.0128 I0.0086 J0.005
X1.2793 Y0.6913 Z0.0123 I-0.0086 J-0.005
X1.2966 Y0.7014 Z0.0117 I0.0086 J0.005
X1.2793 Y0.6913 Z0.0112 I-0.0086 J-0.005
X1.2966 Y0.7014 Z0.0106 I0.0086 J0.005
X1.2793 Y0.6913 Z0.0101 I-0.0086 J-0.005
X1.2966 Y0.7014 Z0.0095 I0.0086 J0.005
X1.2793 Y0.6913 Z0.009 I-0.0086 J-0.005
X1.2966 Y0.7014 Z0.0084 I0.0086 J0.005
X1.2793 Y0.6913 Z0.0079 I-0.0086 J-0.005
X1.2966 Y0.7014 Z0.0073 I0.0086 J0.005
X1.2793 Y0.6913 Z0.0068 I-0.0086 J-0.005
X1.2966 Y0.7014 Z0.0062 I0.0086 J0.005
X1.2793 Y0.6913 Z0.0057 I-0.0086 J-0.005
X1.2966 Y0.7014 Z0.0051 I0.0086 J0.005
X1.2793 Y0.6913 Z0.0046 I-0.0086 J-0.005
X1.2966 Y0.7014 Z0.004 I0.0086 J0.005
X1.2793 Y0.6913 Z0.0035 I-0.0086 J-0.005
X1.2966 Y0.7014 Z0.0029 I0.0086 J0.005
X1.2793 Y0.6913 Z0.0024 I-0.0086 J-0.005
X1.2966 Y0.7014 Z0.0018 I0.0086 J0.005
X1.2793 Y0.6913 Z0.0013 I-0.0086 J-0.005
X1.2966 Y0.7014 Z0.0007 I0.0086 J0.005
X1.2793 Y0.6913 Z0.0002 I-0.0086 J-0.005
X1.2966 Y0.7014 Z-0.0004 I0.0086 J0.005
X1.2793 Y0.6913 Z-0.0009 I-0.0086 J-0.005
X1.2966 Y0.7014 Z-0.0014 I0.0086 J0.005
X1.2793 Y0.6913 Z-0.002 I-0.0086 J-0.005
X1.2966 Y0.7014 Z-0.0025 I0.0086 J0.005
X1.2793 Y0.6913 Z-0.0031 I-0.0086 J-0.005
X1.2966 Y0.7014 Z-0.0036 I0.0086 J0.005
X1.2793 Y0.6913 Z-0.0042 I-0.0086 J-0.005
X1.2966 Y0.7014 Z-0.0047 I0.0086 J0.005
X1.2793 Y0.6913 Z-0.0053 I-0.0086 J-0.005
X1.2966 Y0.7014 Z-0.0058 I0.0086 J0.005
X1.2793 Y0.6913 Z-0.0064 I-0.0086 J-0.005
X1.2966 Y0.7014 Z-0.0069 I0.0086 J0.005
X1.2793 Y0.6913 Z-0.0075 I-0.0086 J-0.005
X1.2966 Y0.7014 Z-0.008 I0.0086 J0.005
X1.2793 Y0.6913 Z-0.0086 I-0.0086 J-0.005
X1.2966 Y0.7014 Z-0.0091 I0.0086 J0.005
X1.2793 Y0.6913 Z-0.0097 I-0.0086 J-0.005
X1.2966 Y0.7014 Z-0.0102 I0.0086 J0.005
X1.2793 Y0.6913 Z-0.0108 I-0.0086 J-0.005
X1.2966 Y0.7014 Z-0.0113 I0.0086 J0.005
X1.2793 Y0.6913 Z-0.0119 I-0.0086 J-0.005
X1.2966 Y0.7014 Z-0.0124 I0.0086 J0.005
X1.2793 Y0.6913 Z-0.013 I-0.0086 J-0.005
X1.2966 Y0.7014 Z-0.0135 I0.0086 J0.005
X1.2793 Y0.6913 Z-0.0141 I-0.0086 J-0.005
X1.2966 Y0.7014 Z-0.0146 I0.0086 J0.005
X1.2793 Y0.6913 Z-0.0152 I-0.0086 J-0.005
X1.2966 Y0.7014 Z-0.0157 I0.0086 J0.005
X1.2793 Y0.6913 Z-0.0163 I-0.0086 J-0.005
X1.2966 Y0.7014 Z-0.0168 I0.0086 J0.005
X1.2793 Y0.6913 Z-0.0174 I-0.0086 J-0.005
X1.2966 Y0.7014 Z-0.0179 I0.0086 J0.005
X1.2793 Y0.6913 Z-0.0184 I-0.0086 J-0.005
X1.2966 Y0.7014 Z-0.019 I0.0086 J0.005
X1.2793 Y0.6913 Z-0.0195 I-0.0086 J-0.005
X1.2979 Y0.6963 Z-0.02 I0.0086 J0.005
X1.2459 I-0.026 J0. F30.
X1.2979 I0.026 J0.
X1.2459 Z-0.0214 I-0.026 J0. F20.
X1.2979 Z-0.0229 I0.026 J0.
X1.2459 Z-0.0243 I-0.026 J0.
X1.2979 Z-0.0257 I0.026 J0.
X1.2459 Z-0.0271 I-0.026 J0.
X1.2979 Z-0.0286 I0.026 J0.
X1.2459 Z-0.03 I-0.026 J0.
X1.2979 Z-0.0314 I0.026 J0.
X1.2459 Z-0.0328 I-0.026 J0.
X1.2979 Z-0.0343 I0.026 J0.
X1.2459 Z-0.0357 I-0.026 J0.
X1.2979 Z-0.0371 I0.026 J0.
X1.2459 Z-0.0385 I-0.026 J0.
X1.2731 Y0.6704 Z-0.0393 I0.026 J0.
X1.2978 Y0.6986 Z-0.04 I-0.0011 J0.026
X1.246 Y0.6941 I-0.0259 J-0.0023 F30.
X1.2978 Y0.6986 I0.0259 J0.0023
X1.246 Y0.6941 Z-0.0414 I-0.0259 J-0.0023 F20.
X1.2978 Y0.6986 Z-0.0429 I0.0259 J0.0023
X1.246 Y0.6941 Z-0.0443 I-0.0259 J-0.0023
X1.2978 Y0.6986 Z-0.0457 I0.0259 J0.0023
X1.246 Y0.6941 Z-0.0471 I-0.0259 J-0.0023
X1.2978 Y0.6986 Z-0.0486 I0.0259 J0.0023
X1.246 Y0.6941 Z-0.05 I-0.0259 J-0.0023
X1.2978 Y0.6986 Z-0.0514 I0.0259 J0.0023
X1.246 Y0.6941 Z-0.0528 I-0.0259 J-0.0023
X1.2978 Y0.6986 Z-0.0543 I0.0259 J0.0023
X1.246 Y0.6941 Z-0.0557 I-0.0259 J-0.0023
X1.2978 Y0.6986 Z-0.0571 I0.0259 J0.0023
X1.246 Y0.6941 Z-0.0585 I-0.0259 J-0.0023
X1.2753 Y0.6705 Z-0.0593 I0.0259 J0.0023
X1.2975 Y0.7008 Z-0.06 I-0.0034 J0.0258
X1.2463 Y0.6918 I-0.0256 J-0.0045 F30.
X1.2975 Y0.7008 I0.0256 J0.0045
X1.2463 Y0.6918 Z-0.0614 I-0.0256 J-0.0045 F20.
X1.2975 Y0.7008 Z-0.0629 I0.0256 J0.0045
X1.2463 Y0.6918 Z-0.0643 I-0.0256 J-0.0045
X1.2975 Y0.7008 Z-0.0657 I0.0256 J0.0045
X1.2463 Y0.6918 Z-0.0671 I-0.0256 J-0.0045
X1.2975 Y0.7008 Z-0.0686 I0.0256 J0.0045
X1.2463 Y0.6918 Z-0.07 I-0.0256 J-0.0045
X1.2975 Y0.7008 Z-0.0714 I0.0256 J0.0045
X1.2463 Y0.6918 Z-0.0728 I-0.0256 J-0.0045
X1.2975 Y0.7008 Z-0.0743 I0.0256 J0.0045
X1.2463 Y0.6918 Z-0.0757 I-0.0256 J-0.0045
X1.2975 Y0.7008 Z-0.0771 I0.0256 J0.0045
X1.2463 Y0.6918 Z-0.0785 I-0.0256 J-0.0045
X1.2775 Y0.6709 Z-0.0793 I0.0256 J0.0045
X1.2971 Y0.703 Z-0.08 I-0.0056 J0.0254
X1.2468 Y0.6896 I-0.0251 J-0.0067 F30.
X1.2971 Y0.703 I0.0251 J0.0067
X1.2468 Y0.6896 Z-0.0814 I-0.0251 J-0.0067 F20.
X1.2971 Y0.703 Z-0.0829 I0.0251 J0.0067
X1.2468 Y0.6896 Z-0.0843 I-0.0251 J-0.0067
X1.2971 Y0.703 Z-0.0857 I0.0251 J0.0067
X1.2468 Y0.6896 Z-0.0871 I-0.0251 J-0.0067
X1.2971 Y0.703 Z-0.0886 I0.0251 J0.0067
X1.2468 Y0.6896 Z-0.09 I-0.0251 J-0.0067
X1.2971 Y0.703 Z-0.0914 I0.0251 J0.0067
X1.2468 Y0.6896 Z-0.0928 I-0.0251 J-0.0067
X1.2971 Y0.703 Z-0.0943 I0.0251 J0.0067
X1.2468 Y0.6896 Z-0.0957 I-0.0251 J-0.0067
X1.2971 Y0.703 Z-0.0971 I0.0251 J0.0067
X1.2468 Y0.6896 Z-0.0985 I-0.0251 J-0.0067
X1.2797 Y0.6715 Z-0.0993 I0.0251 J0.0067
X1.2964 Y0.7052 Z-0.1 I-0.0078 J0.0248
X1.2475 Y0.6875 I-0.0244 J-0.0089 F30.
X1.2964 Y0.7052 I0.0244 J0.0089
X1.2475 Y0.6875 Z-0.1014 I-0.0244 J-0.0089 F20.
X1.2964 Y0.7052 Z-0.1029 I0.0244 J0.0089
X1.2475 Y0.6875 Z-0.1043 I-0.0244 J-0.0089
X1.2964 Y0.7052 Z-0.1057 I0.0244 J0.0089
X1.2475 Y0.6875 Z-0.1071 I-0.0244 J-0.0089
X1.2964 Y0.7052 Z-0.1086 I0.0244 J0.0089
X1.2475 Y0.6875 Z-0.11 I-0.0244 J-0.0089
X1.2964 Y0.7052 Z-0.1114 I0.0244 J0.0089
X1.2475 Y0.6875 Z-0.1128 I-0.0244 J-0.0089
X1.2964 Y0.7052 Z-0.1143 I0.0244 J0.0089
X1.2475 Y0.6875 Z-0.1157 I-0.0244 J-0.0089
X1.2964 Y0.7052 Z-0.1171 I0.0244 J0.0089
X1.2475 Y0.6875 Z-0.1185 I-0.0244 J-0.0089
X1.2818 Y0.6723 Z-0.1193 I0.0244 J0.0089
X1.2955 Y0.7073 Z-0.12 I-0.0099 J0.024
X1.2483 Y0.6854 I-0.0236 J-0.0109 F30.
X1.2955 Y0.7073 I0.0236 J0.0109
X1.2483 Y0.6854 Z-0.1214 I-0.0236 J-0.0109 F20.
X1.2955 Y0.7073 Z-0.1229 I0.0236 J0.0109
X1.2483 Y0.6854 Z-0.1243 I-0.0236 J-0.0109
X1.2955 Y0.7073 Z-0.1257 I0.0236 J0.0109
X1.2483 Y0.6854 Z-0.1271 I-0.0236 J-0.0109
X1.2955 Y0.7073 Z-0.1286 I0.0236 J0.0109
X1.2483 Y0.6854 Z-0.13 I-0.0236 J-0.0109
X1.2955 Y0.7073 Z-0.1314 I0.0236 J0.0109
X1.2483 Y0.6854 Z-0.1328 I-0.0236 J-0.0109
X1.2955 Y0.7073 Z-0.1343 I0.0236 J0.0109
X1.2483 Y0.6854 Z-0.1357 I-0.0236 J-0.0109
X1.2955 Y0.7073 Z-0.1371 I0.0236 J0.0109
X1.2483 Y0.6854 Z-0.1385 I-0.0236 J-0.0109
X1.2839 Y0.6732 Z-0.1393 I0.0236 J0.0109
X1.2945 Y0.7093 Z-0.14 I-0.012 J0.0231
X1.2494 Y0.6834 I-0.0225 J-0.013 F30.
X1.2945 Y0.7093 I0.0225 J0.013
X1.2494 Y0.6834 Z-0.1414 I-0.0225 J-0.013 F20.
X1.2945 Y0.7093 Z-0.1429 I0.0225 J0.013
X1.2494 Y0.6834 Z-0.1443 I-0.0225 J-0.013
X1.2945 Y0.7093 Z-0.1457 I0.0225 J0.013
X1.2494 Y0.6834 Z-0.1471 I-0.0225 J-0.013
X1.2945 Y0.7093 Z-0.1486 I0.0225 J0.013
X1.2494 Y0.6834 Z-0.15 I-0.0225 J-0.013
X1.2945 Y0.7093 Z-0.1514 I0.0225 J0.013
X1.2465 Y0.7017 Z-0.1525 I-0.0225 J-0.013
X1.2974 Y0.6909 I0.0254 J-0.0054 F30.
X1.2465 Y0.7017 I-0.0254 J0.0054
X1.2974 Y0.6909 Z-0.1539 I0.0254 J-0.0054 F20.
X1.2465 Y0.7017 Z-0.1554 I-0.0254 J0.0054
X1.2974 Y0.6909 Z-0.1568 I0.0254 J-0.0054
X1.2465 Y0.7017 Z-0.1582 I-0.0254 J0.0054
X1.2974 Y0.6909 Z-0.1596 I0.0254 J-0.0054
X1.2465 Y0.7017 Z-0.1611 I-0.0254 J0.0054
X1.2974 Y0.6909 Z-0.1625 I0.0254 J-0.0054
X1.2465 Y0.7017 Z-0.1639 I-0.0254 J0.0054
X1.2873 Y0.6753 Z-0.165 I0.0254 J-0.0054
X1.2566 Y0.7173 I-0.0153 J0.021 F30.
X1.2873 Y0.6753 I0.0153 J-0.021
G1 X1.2889 Y0.6768 Z-0.1646
X1.2903 Y0.6786 Z-0.1641
X1.2912 Y0.6803 Z-0.1628
X1.2918 Y0.6821 Z-0.1615
X1.2921 Y0.6847 Z-0.1577
Y0.6856 Z-0.1532
G0 Z0.6

M9
M30
