(1001)
(T1  D=0.25 CR=0. - ZMIN=-0.225 - FLAT END MILL)
G90 G94 G91.1 G40 G49 G17
G20
g0 z.5

(BORE4)
M5
T1 M6
S15000 M3
G54
M8
G0 X0.5 Y0.5
G43 Z0.44 H1
Z0.105
G1 Z0.05 F10.
X0.504 Y0.504
X0.5037 Y0.5055
X0.5028 Y0.5068
X0.5015 Y0.5077
X0.5 Y0.508
G3 Y0.492 Z0.0477 I0. J-0.008 F20.
Y0.508 Z0.0454 I0. J0.008
Y0.492 Z0.043 I0. J-0.008
Y0.508 Z0.0407 I0. J0.008
Y0.492 Z0.0384 I0. J-0.008
Y0.508 Z0.0361 I0. J0.008
Y0.492 Z0.0337 I0. J-0.008
Y0.508 Z0.0314 I0. J0.008
Y0.492 Z0.0291 I0. J-0.008
Y0.508 Z0.0268 I0. J0.008
Y0.492 Z0.0245 I0. J-0.008
Y0.508 Z0.0221 I0. J0.008
Y0.492 Z0.0198 I0. J-0.008
Y0.508 Z0.0175 I0. J0.008
Y0.492 Z0.0152 I0. J-0.008
Y0.508 Z0.0129 I0. J0.008
Y0.492 Z0.0105 I0. J-0.008
Y0.508 Z0.0082 I0. J0.008
Y0.492 Z0.0059 I0. J-0.008
Y0.508 Z0.0036 I0. J0.008
Y0.492 Z0.0012 I0. J-0.008
Y0.508 Z-0.0011 I0. J0.008
Y0.492 Z-0.0034 I0. J-0.008
Y0.508 Z-0.0057 I0. J0.008
Y0.492 Z-0.008 I0. J-0.008
Y0.508 Z-0.0104 I0. J0.008
Y0.492 Z-0.0127 I0. J-0.008
Y0.508 Z-0.015 I0. J0.008
Y0.492 Z-0.0173 I0. J-0.008
Y0.508 Z-0.0196 I0. J0.008
Y0.492 Z-0.022 I0. J-0.008
Y0.508 Z-0.0243 I0. J0.008
Y0.492 Z-0.0266 I0. J-0.008
Y0.508 Z-0.0289 I0. J0.008
Y0.492 Z-0.0313 I0. J-0.008
Y0.508 Z-0.0336 I0. J0.008
Y0.492 Z-0.0359 I0. J-0.008
Y0.508 Z-0.0382 I0. J0.008
Y0.492 Z-0.0405 I0. J-0.008
Y0.508 Z-0.0429 I0. J0.008
Y0.492 Z-0.0452 I0. J-0.008
Y0.508 Z-0.0475 I0. J0.008
Y0.492 Z-0.0498 I0. J-0.008
Y0.508 Z-0.0521 I0. J0.008
Y0.492 Z-0.0545 I0. J-0.008
Y0.508 Z-0.0568 I0. J0.008
Y0.492 Z-0.0591 I0. J-0.008
Y0.508 Z-0.0614 I0. J0.008
Y0.492 Z-0.0638 I0. J-0.008
Y0.508 Z-0.0661 I0. J0.008
Y0.492 Z-0.0684 I0. J-0.008
Y0.508 Z-0.0707 I0. J0.008
Y0.492 Z-0.073 I0. J-0.008
Y0.508 Z-0.0754 I0. J0.008
Y0.492 Z-0.0777 I0. J-0.008
Y0.508 Z-0.08 I0. J0.008
Y0.492 Z-0.0823 I0. J-0.008
Y0.508 Z-0.0846 I0. J0.008
Y0.492 Z-0.087 I0. J-0.008
Y0.508 Z-0.0893 I0. J0.008
Y0.492 Z-0.0916 I0. J-0.008
Y0.508 Z-0.0939 I0. J0.008
Y0.492 Z-0.0963 I0. J-0.008
Y0.508 Z-0.0986 I0. J0.008
Y0.492 Z-0.1009 I0. J-0.008
Y0.508 Z-0.1032 I0. J0.008
Y0.492 Z-0.1055 I0. J-0.008
Y0.508 Z-0.1079 I0. J0.008
Y0.492 Z-0.1102 I0. J-0.008
Y0.508 Z-0.1125 I0. J0.008
Y0.492 Z-0.1148 I0. J-0.008
Y0.508 Z-0.1171 I0. J0.008
Y0.492 Z-0.1195 I0. J-0.008
Y0.508 Z-0.1218 I0. J0.008
Y0.492 Z-0.1241 I0. J-0.008
Y0.508 Z-0.1264 I0. J0.008
Y0.492 Z-0.1288 I0. J-0.008
Y0.508 Z-0.1311 I0. J0.008
Y0.492 Z-0.1334 I0. J-0.008
Y0.508 Z-0.1357 I0. J0.008
Y0.492 Z-0.138 I0. J-0.008
Y0.508 Z-0.1404 I0. J0.008
Y0.492 Z-0.1427 I0. J-0.008
Y0.508 Z-0.145 I0. J0.008
Y0.492 Z-0.1473 I0. J-0.008
Y0.508 Z-0.1497 I0. J0.008
Y0.492 Z-0.152 I0. J-0.008
Y0.508 Z-0.1543 I0. J0.008
Y0.492 Z-0.1566 I0. J-0.008
Y0.508 Z-0.1589 I0. J0.008
Y0.492 Z-0.1613 I0. J-0.008
Y0.508 Z-0.1636 I0. J0.008
Y0.492 Z-0.1659 I0. J-0.008
Y0.508 Z-0.1682 I0. J0.008
Y0.492 Z-0.1705 I0. J-0.008
Y0.508 Z-0.1729 I0. J0.008
Y0.492 Z-0.1752 I0. J-0.008
Y0.508 Z-0.1775 I0. J0.008
Y0.492 Z-0.1798 I0. J-0.008
Y0.508 Z-0.1822 I0. J0.008
Y0.492 Z-0.1845 I0. J-0.008
Y0.508 Z-0.1868 I0. J0.008
Y0.492 Z-0.1891 I0. J-0.008
Y0.508 Z-0.1914 I0. J0.008
Y0.492 Z-0.1938 I0. J-0.008
Y0.508 Z-0.1961 I0. J0.008
Y0.492 Z-0.1984 I0. J-0.008
Y0.508 Z-0.2007 I0. J0.008
Y0.492 Z-0.203 I0. J-0.008
Y0.508 Z-0.2054 I0. J0.008
Y0.492 Z-0.2077 I0. J-0.008
Y0.508 Z-0.21 I0. J0.008
Y0.492 Z-0.2123 I0. J-0.008
Y0.508 Z-0.2147 I0. J0.008
Y0.492 Z-0.217 I0. J-0.008
Y0.508 Z-0.2193 I0. J0.008
Y0.492 Z-0.2216 I0. J-0.008
Y0.508 Z-0.2239 I0. J0.008
X0.4921 Y0.5011 Z-0.225 I0. J-0.008
X0.5079 Y0.4989 I0.0079 J-0.0011
X0.4921 Y0.5011 I-0.0079 J0.0011
G1 X0.4922 Y0.4995 F10.
X0.4929 Y0.4981
X0.494 Y0.4971
X0.4955 Y0.4966
X0.5 Y0.5
G0 Z0.24
Y1.7414
Z0.105
G1 Z0.05 F10.
X0.504 Y1.7454
X0.5037 Y1.7469
X0.5028 Y1.7482
X0.5015 Y1.7491
X0.5 Y1.7494
G3 Y1.7334 Z0.0477 I0. J-0.008 F20.
Y1.7494 Z0.0454 I0. J0.008
Y1.7334 Z0.043 I0. J-0.008
Y1.7494 Z0.0407 I0. J0.008
Y1.7334 Z0.0384 I0. J-0.008
Y1.7494 Z0.0361 I0. J0.008
Y1.7334 Z0.0337 I0. J-0.008
Y1.7494 Z0.0314 I0. J0.008
Y1.7334 Z0.0291 I0. J-0.008
Y1.7494 Z0.0268 I0. J0.008
Y1.7334 Z0.0245 I0. J-0.008
Y1.7494 Z0.0221 I0. J0.008
Y1.7334 Z0.0198 I0. J-0.008
Y1.7494 Z0.0175 I0. J0.008
Y1.7334 Z0.0152 I0. J-0.008
Y1.7494 Z0.0129 I0. J0.008
Y1.7334 Z0.0105 I0. J-0.008
Y1.7494 Z0.0082 I0. J0.008
Y1.7334 Z0.0059 I0. J-0.008
Y1.7494 Z0.0036 I0. J0.008
Y1.7334 Z0.0012 I0. J-0.008
Y1.7494 Z-0.0011 I0. J0.008
Y1.7334 Z-0.0034 I0. J-0.008
Y1.7494 Z-0.0057 I0. J0.008
Y1.7334 Z-0.008 I0. J-0.008
Y1.7494 Z-0.0104 I0. J0.008
Y1.7334 Z-0.0127 I0. J-0.008
Y1.7494 Z-0.015 I0. J0.008
Y1.7334 Z-0.0173 I0. J-0.008
Y1.7494 Z-0.0196 I0. J0.008
Y1.7334 Z-0.022 I0. J-0.008
Y1.7494 Z-0.0243 I0. J0.008
Y1.7334 Z-0.0266 I0. J-0.008
Y1.7494 Z-0.0289 I0. J0.008
Y1.7334 Z-0.0313 I0. J-0.008
Y1.7494 Z-0.0336 I0. J0.008
Y1.7334 Z-0.0359 I0. J-0.008
Y1.7494 Z-0.0382 I0. J0.008
Y1.7334 Z-0.0405 I0. J-0.008
Y1.7494 Z-0.0429 I0. J0.008
Y1.7334 Z-0.0452 I0. J-0.008
Y1.7494 Z-0.0475 I0. J0.008
Y1.7334 Z-0.0498 I0. J-0.008
Y1.7494 Z-0.0521 I0. J0.008
Y1.7334 Z-0.0545 I0. J-0.008
Y1.7494 Z-0.0568 I0. J0.008
Y1.7334 Z-0.0591 I0. J-0.008
Y1.7494 Z-0.0614 I0. J0.008
Y1.7334 Z-0.0638 I0. J-0.008
Y1.7494 Z-0.0661 I0. J0.008
Y1.7334 Z-0.0684 I0. J-0.008
Y1.7494 Z-0.0707 I0. J0.008
Y1.7334 Z-0.073 I0. J-0.008
Y1.7494 Z-0.0754 I0. J0.008
Y1.7334 Z-0.0777 I0. J-0.008
Y1.7494 Z-0.08 I0. J0.008
Y1.7334 Z-0.0823 I0. J-0.008
Y1.7494 Z-0.0846 I0. J0.008
Y1.7334 Z-0.087 I0. J-0.008
Y1.7494 Z-0.0893 I0. J0.008
Y1.7334 Z-0.0916 I0. J-0.008
Y1.7494 Z-0.0939 I0. J0.008
Y1.7334 Z-0.0963 I0. J-0.008
Y1.7494 Z-0.0986 I0. J0.008
Y1.7334 Z-0.1009 I0. J-0.008
Y1.7494 Z-0.1032 I0. J0.008
Y1.7334 Z-0.1055 I0. J-0.008
Y1.7494 Z-0.1079 I0. J0.008
Y1.7334 Z-0.1102 I0. J-0.008
Y1.7494 Z-0.1125 I0. J0.008
Y1.7334 Z-0.1148 I0. J-0.008
Y1.7494 Z-0.1171 I0. J0.008
Y1.7334 Z-0.1195 I0. J-0.008
Y1.7494 Z-0.1218 I0. J0.008
Y1.7334 Z-0.1241 I0. J-0.008
Y1.7494 Z-0.1264 I0. J0.008
Y1.7334 Z-0.1288 I0. J-0.008
Y1.7494 Z-0.1311 I0. J0.008
Y1.7334 Z-0.1334 I0. J-0.008
Y1.7494 Z-0.1357 I0. J0.008
Y1.7334 Z-0.138 I0. J-0.008
Y1.7494 Z-0.1404 I0. J0.008
Y1.7334 Z-0.1427 I0. J-0.008
Y1.7494 Z-0.145 I0. J0.008
Y1.7334 Z-0.1473 I0. J-0.008
Y1.7494 Z-0.1497 I0. J0.008
Y1.7334 Z-0.152 I0. J-0.008
Y1.7494 Z-0.1543 I0. J0.008
Y1.7334 Z-0.1566 I0. J-0.008
Y1.7494 Z-0.1589 I0. J0.008
Y1.7334 Z-0.1613 I0. J-0.008
Y1.7494 Z-0.1636 I0. J0.008
Y1.7334 Z-0.1659 I0. J-0.008
Y1.7494 Z-0.1682 I0. J0.008
Y1.7334 Z-0.1705 I0. J-0.008
Y1.7494 Z-0.1729 I0. J0.008
Y1.7334 Z-0.1752 I0. J-0.008
Y1.7494 Z-0.1775 I0. J0.008
Y1.7334 Z-0.1798 I0. J-0.008
Y1.7494 Z-0.1822 I0. J0.008
Y1.7334 Z-0.1845 I0. J-0.008
Y1.7494 Z-0.1868 I0. J0.008
Y1.7334 Z-0.1891 I0. J-0.008
Y1.7494 Z-0.1914 I0. J0.008
Y1.7334 Z-0.1938 I0. J-0.008
Y1.7494 Z-0.1961 I0. J0.008
Y1.7334 Z-0.1984 I0. J-0.008
Y1.7494 Z-0.2007 I0. J0.008
Y1.7334 Z-0.203 I0. J-0.008
Y1.7494 Z-0.2054 I0. J0.008
Y1.7334 Z-0.2077 I0. J-0.008
Y1.7494 Z-0.21 I0. J0.008
Y1.7334 Z-0.2123 I0. J-0.008
Y1.7494 Z-0.2147 I0. J0.008
Y1.7334 Z-0.217 I0. J-0.008
Y1.7494 Z-0.2193 I0. J0.008
Y1.7334 Z-0.2216 I0. J-0.008
Y1.7494 Z-0.2239 I0. J0.008
X0.4921 Y1.7425 Z-0.225 I0. J-0.008
X0.5079 Y1.7403 I0.0079 J-0.0011
X0.4921 Y1.7425 I-0.0079 J0.0011
G1 X0.4922 Y1.7409 F10.
X0.4929 Y1.7395
X0.494 Y1.7385
X0.4955 Y1.738
X0.5 Y1.7414
G0 Z0.24
Y2.9828
Z0.105
G1 Z0.05 F10.
X0.504 Y2.9868
X0.5037 Y2.9884
X0.5028 Y2.9897
X0.5015 Y2.9905
X0.5 Y2.9908
G3 Y2.9748 Z0.0477 I0. J-0.008 F20.
Y2.9908 Z0.0454 I0. J0.008
Y2.9748 Z0.043 I0. J-0.008
Y2.9908 Z0.0407 I0. J0.008
Y2.9748 Z0.0384 I0. J-0.008
Y2.9908 Z0.0361 I0. J0.008
Y2.9748 Z0.0337 I0. J-0.008
Y2.9908 Z0.0314 I0. J0.008
Y2.9748 Z0.0291 I0. J-0.008
Y2.9908 Z0.0268 I0. J0.008
Y2.9748 Z0.0245 I0. J-0.008
Y2.9908 Z0.0221 I0. J0.008
Y2.9748 Z0.0198 I0. J-0.008
Y2.9908 Z0.0175 I0. J0.008
Y2.9748 Z0.0152 I0. J-0.008
Y2.9908 Z0.0129 I0. J0.008
Y2.9748 Z0.0105 I0. J-0.008
Y2.9908 Z0.0082 I0. J0.008
Y2.9748 Z0.0059 I0. J-0.008
Y2.9908 Z0.0036 I0. J0.008
Y2.9748 Z0.0012 I0. J-0.008
Y2.9908 Z-0.0011 I0. J0.008
Y2.9748 Z-0.0034 I0. J-0.008
Y2.9908 Z-0.0057 I0. J0.008
Y2.9748 Z-0.008 I0. J-0.008
Y2.9908 Z-0.0104 I0. J0.008
Y2.9748 Z-0.0127 I0. J-0.008
Y2.9908 Z-0.015 I0. J0.008
Y2.9748 Z-0.0173 I0. J-0.008
Y2.9908 Z-0.0196 I0. J0.008
Y2.9748 Z-0.022 I0. J-0.008
Y2.9908 Z-0.0243 I0. J0.008
Y2.9748 Z-0.0266 I0. J-0.008
Y2.9908 Z-0.0289 I0. J0.008
Y2.9748 Z-0.0313 I0. J-0.008
Y2.9908 Z-0.0336 I0. J0.008
Y2.9748 Z-0.0359 I0. J-0.008
Y2.9908 Z-0.0382 I0. J0.008
Y2.9748 Z-0.0405 I0. J-0.008
Y2.9908 Z-0.0429 I0. J0.008
Y2.9748 Z-0.0452 I0. J-0.008
Y2.9908 Z-0.0475 I0. J0.008
Y2.9748 Z-0.0498 I0. J-0.008
Y2.9908 Z-0.0521 I0. J0.008
Y2.9748 Z-0.0545 I0. J-0.008
Y2.9908 Z-0.0568 I0. J0.008
Y2.9748 Z-0.0591 I0. J-0.008
Y2.9908 Z-0.0614 I0. J0.008
Y2.9748 Z-0.0638 I0. J-0.008
Y2.9908 Z-0.0661 I0. J0.008
Y2.9748 Z-0.0684 I0. J-0.008
Y2.9908 Z-0.0707 I0. J0.008
Y2.9748 Z-0.073 I0. J-0.008
Y2.9908 Z-0.0754 I0. J0.008
Y2.9748 Z-0.0777 I0. J-0.008
Y2.9908 Z-0.08 I0. J0.008
Y2.9748 Z-0.0823 I0. J-0.008
Y2.9908 Z-0.0846 I0. J0.008
Y2.9748 Z-0.087 I0. J-0.008
Y2.9908 Z-0.0893 I0. J0.008
Y2.9748 Z-0.0916 I0. J-0.008
Y2.9908 Z-0.0939 I0. J0.008
Y2.9748 Z-0.0963 I0. J-0.008
Y2.9908 Z-0.0986 I0. J0.008
Y2.9748 Z-0.1009 I0. J-0.008
Y2.9908 Z-0.1032 I0. J0.008
Y2.9748 Z-0.1055 I0. J-0.008
Y2.9908 Z-0.1079 I0. J0.008
Y2.9748 Z-0.1102 I0. J-0.008
Y2.9908 Z-0.1125 I0. J0.008
Y2.9748 Z-0.1148 I0. J-0.008
Y2.9908 Z-0.1171 I0. J0.008
Y2.9748 Z-0.1195 I0. J-0.008
Y2.9908 Z-0.1218 I0. J0.008
Y2.9748 Z-0.1241 I0. J-0.008
Y2.9908 Z-0.1264 I0. J0.008
Y2.9748 Z-0.1288 I0. J-0.008
Y2.9908 Z-0.1311 I0. J0.008
Y2.9748 Z-0.1334 I0. J-0.008
Y2.9908 Z-0.1357 I0. J0.008
Y2.9748 Z-0.138 I0. J-0.008
Y2.9908 Z-0.1404 I0. J0.008
Y2.9748 Z-0.1427 I0. J-0.008
Y2.9908 Z-0.145 I0. J0.008
Y2.9748 Z-0.1473 I0. J-0.008
Y2.9908 Z-0.1497 I0. J0.008
Y2.9748 Z-0.152 I0. J-0.008
Y2.9908 Z-0.1543 I0. J0.008
Y2.9748 Z-0.1566 I0. J-0.008
Y2.9908 Z-0.1589 I0. J0.008
Y2.9748 Z-0.1613 I0. J-0.008
Y2.9908 Z-0.1636 I0. J0.008
Y2.9748 Z-0.1659 I0. J-0.008
Y2.9908 Z-0.1682 I0. J0.008
Y2.9748 Z-0.1705 I0. J-0.008
Y2.9908 Z-0.1729 I0. J0.008
Y2.9748 Z-0.1752 I0. J-0.008
Y2.9908 Z-0.1775 I0. J0.008
Y2.9748 Z-0.1798 I0. J-0.008
Y2.9908 Z-0.1822 I0. J0.008
Y2.9748 Z-0.1845 I0. J-0.008
Y2.9908 Z-0.1868 I0. J0.008
Y2.9748 Z-0.1891 I0. J-0.008
Y2.9908 Z-0.1914 I0. J0.008
Y2.9748 Z-0.1938 I0. J-0.008
Y2.9908 Z-0.1961 I0. J0.008
Y2.9748 Z-0.1984 I0. J-0.008
Y2.9908 Z-0.2007 I0. J0.008
Y2.9748 Z-0.203 I0. J-0.008
Y2.9908 Z-0.2054 I0. J0.008
Y2.9748 Z-0.2077 I0. J-0.008
Y2.9908 Z-0.21 I0. J0.008
Y2.9748 Z-0.2123 I0. J-0.008
Y2.9908 Z-0.2147 I0. J0.008
Y2.9748 Z-0.217 I0. J-0.008
Y2.9908 Z-0.2193 I0. J0.008
Y2.9748 Z-0.2216 I0. J-0.008
Y2.9908 Z-0.2239 I0. J0.008
X0.4921 Y2.9839 Z-0.225 I0. J-0.008
X0.5079 Y2.9818 I0.0079 J-0.0011
X0.4921 Y2.9839 I-0.0079 J0.0011
G1 X0.4922 Y2.9824 F10.
X0.4929 Y2.981
X0.494 Y2.9799
X0.4955 Y2.9794
X0.5 Y2.9828
G0 Z0.24
X1.8942 Y2.292
Z0.105
G1 Z0.05 F10.
X1.8982 Y2.296
X1.8979 Y2.2975
X1.8971 Y2.2988
X1.8958 Y2.2997
X1.8942 Y2.3
G3 Y2.284 Z0.0477 I0. J-0.008 F20.
Y2.3 Z0.0454 I0. J0.008
Y2.284 Z0.043 I0. J-0.008
Y2.3 Z0.0407 I0. J0.008
Y2.284 Z0.0384 I0. J-0.008
Y2.3 Z0.0361 I0. J0.008
Y2.284 Z0.0337 I0. J-0.008
Y2.3 Z0.0314 I0. J0.008
Y2.284 Z0.0291 I0. J-0.008
Y2.3 Z0.0268 I0. J0.008
Y2.284 Z0.0245 I0. J-0.008
Y2.3 Z0.0221 I0. J0.008
Y2.284 Z0.0198 I0. J-0.008
Y2.3 Z0.0175 I0. J0.008
Y2.284 Z0.0152 I0. J-0.008
Y2.3 Z0.0129 I0. J0.008
Y2.284 Z0.0105 I0. J-0.008
Y2.3 Z0.0082 I0. J0.008
Y2.284 Z0.0059 I0. J-0.008
Y2.3 Z0.0036 I0. J0.008
Y2.284 Z0.0012 I0. J-0.008
Y2.3 Z-0.0011 I0. J0.008
Y2.284 Z-0.0034 I0. J-0.008
Y2.3 Z-0.0057 I0. J0.008
Y2.284 Z-0.008 I0. J-0.008
Y2.3 Z-0.0104 I0. J0.008
Y2.284 Z-0.0127 I0. J-0.008
Y2.3 Z-0.015 I0. J0.008
Y2.284 Z-0.0173 I0. J-0.008
Y2.3 Z-0.0196 I0. J0.008
Y2.284 Z-0.022 I0. J-0.008
Y2.3 Z-0.0243 I0. J0.008
Y2.284 Z-0.0266 I0. J-0.008
Y2.3 Z-0.0289 I0. J0.008
Y2.284 Z-0.0313 I0. J-0.008
Y2.3 Z-0.0336 I0. J0.008
Y2.284 Z-0.0359 I0. J-0.008
Y2.3 Z-0.0382 I0. J0.008
Y2.284 Z-0.0405 I0. J-0.008
Y2.3 Z-0.0429 I0. J0.008
Y2.284 Z-0.0452 I0. J-0.008
Y2.3 Z-0.0475 I0. J0.008
Y2.284 Z-0.0498 I0. J-0.008
Y2.3 Z-0.0521 I0. J0.008
Y2.284 Z-0.0545 I0. J-0.008
Y2.3 Z-0.0568 I0. J0.008
Y2.284 Z-0.0591 I0. J-0.008
Y2.3 Z-0.0614 I0. J0.008
Y2.284 Z-0.0638 I0. J-0.008
Y2.3 Z-0.0661 I0. J0.008
Y2.284 Z-0.0684 I0. J-0.008
Y2.3 Z-0.0707 I0. J0.008
Y2.284 Z-0.073 I0. J-0.008
Y2.3 Z-0.0754 I0. J0.008
Y2.284 Z-0.0777 I0. J-0.008
Y2.3 Z-0.08 I0. J0.008
Y2.284 Z-0.0823 I0. J-0.008
Y2.3 Z-0.0846 I0. J0.008
Y2.284 Z-0.087 I0. J-0.008
Y2.3 Z-0.0893 I0. J0.008
Y2.284 Z-0.0916 I0. J-0.008
Y2.3 Z-0.0939 I0. J0.008
Y2.284 Z-0.0963 I0. J-0.008
Y2.3 Z-0.0986 I0. J0.008
Y2.284 Z-0.1009 I0. J-0.008
Y2.3 Z-0.1032 I0. J0.008
Y2.284 Z-0.1055 I0. J-0.008
Y2.3 Z-0.1079 I0. J0.008
Y2.284 Z-0.1102 I0. J-0.008
Y2.3 Z-0.1125 I0. J0.008
Y2.284 Z-0.1148 I0. J-0.008
Y2.3 Z-0.1171 I0. J0.008
Y2.284 Z-0.1195 I0. J-0.008
Y2.3 Z-0.1218 I0. J0.008
Y2.284 Z-0.1241 I0. J-0.008
Y2.3 Z-0.1264 I0. J0.008
Y2.284 Z-0.1288 I0. J-0.008
Y2.3 Z-0.1311 I0. J0.008
Y2.284 Z-0.1334 I0. J-0.008
Y2.3 Z-0.1357 I0. J0.008
Y2.284 Z-0.138 I0. J-0.008
Y2.3 Z-0.1404 I0. J0.008
Y2.284 Z-0.1427 I0. J-0.008
Y2.3 Z-0.145 I0. J0.008
Y2.284 Z-0.1473 I0. J-0.008
Y2.3 Z-0.1497 I0. J0.008
Y2.284 Z-0.152 I0. J-0.008
Y2.3 Z-0.1543 I0. J0.008
Y2.284 Z-0.1566 I0. J-0.008
Y2.3 Z-0.1589 I0. J0.008
Y2.284 Z-0.1613 I0. J-0.008
Y2.3 Z-0.1636 I0. J0.008
Y2.284 Z-0.1659 I0. J-0.008
Y2.3 Z-0.1682 I0. J0.008
Y2.284 Z-0.1705 I0. J-0.008
Y2.3 Z-0.1729 I0. J0.008
Y2.284 Z-0.1752 I0. J-0.008
Y2.3 Z-0.1775 I0. J0.008
Y2.284 Z-0.1798 I0. J-0.008
Y2.3 Z-0.1822 I0. J0.008
Y2.284 Z-0.1845 I0. J-0.008
Y2.3 Z-0.1868 I0. J0.008
Y2.284 Z-0.1891 I0. J-0.008
Y2.3 Z-0.1914 I0. J0.008
Y2.284 Z-0.1938 I0. J-0.008
Y2.3 Z-0.1961 I0. J0.008
Y2.284 Z-0.1984 I0. J-0.008
Y2.3 Z-0.2007 I0. J0.008
Y2.284 Z-0.203 I0. J-0.008
Y2.3 Z-0.2054 I0. J0.008
Y2.284 Z-0.2077 I0. J-0.008
Y2.3 Z-0.21 I0. J0.008
Y2.284 Z-0.2123 I0. J-0.008
Y2.3 Z-0.2147 I0. J0.008
Y2.284 Z-0.217 I0. J-0.008
Y2.3 Z-0.2193 I0. J0.008
Y2.284 Z-0.2216 I0. J-0.008
Y2.3 Z-0.2239 I0. J0.008
X1.8863 Y2.2931 Z-0.225 I0. J-0.008
X1.9022 Y2.2909 I0.0079 J-0.0011
X1.8863 Y2.2931 I-0.0079 J0.0011
G1 X1.8864 Y2.2915 F10.
X1.8871 Y2.2901
X1.8883 Y2.2891
X1.8897 Y2.2886
X1.8942 Y2.292
G0 Z0.24
X2.525 Y1.5019
Z0.13
G1 Z0.075 F10.
G19 G3 Y1.5269 Z0.05 J0.025 K0.
G1 Y1.5394
G17 G3 X2.5 Y1.5644 I-0.025 J0.
Y1.4284 Z0.0466 I0. J-0.068 F20.
Y1.5644 Z0.0433 I0. J0.068
Y1.4284 Z0.0399 I0. J-0.068
Y1.5644 Z0.0365 I0. J0.068
Y1.4284 Z0.0332 I0. J-0.068
Y1.5644 Z0.0298 I0. J0.068
Y1.4284 Z0.0264 I0. J-0.068
Y1.5644 Z0.023 I0. J0.068
Y1.4284 Z0.0197 I0. J-0.068
Y1.5644 Z0.0163 I0. J0.068
Y1.4284 Z0.0129 I0. J-0.068
Y1.5644 Z0.0096 I0. J0.068
Y1.4284 Z0.0062 I0. J-0.068
Y1.5644 Z0.0028 I0. J0.068
Y1.4284 Z-0.0005 I0. J-0.068
Y1.5644 Z-0.0039 I0. J0.068
Y1.4284 Z-0.0073 I0. J-0.068
Y1.5644 Z-0.0106 I0. J0.068
Y1.4284 Z-0.014 I0. J-0.068
Y1.5644 Z-0.0174 I0. J0.068
Y1.4284 Z-0.0207 I0. J-0.068
Y1.5644 Z-0.0241 I0. J0.068
Y1.4284 Z-0.0275 I0. J-0.068
Y1.5644 Z-0.0309 I0. J0.068
Y1.4284 Z-0.0342 I0. J-0.068
Y1.5644 Z-0.0376 I0. J0.068
Y1.4284 Z-0.041 I0. J-0.068
Y1.5644 Z-0.0443 I0. J0.068
Y1.4284 Z-0.0477 I0. J-0.068
Y1.5644 Z-0.0511 I0. J0.068
Y1.4284 Z-0.0544 I0. J-0.068
Y1.5644 Z-0.0578 I0. J0.068
Y1.4284 Z-0.0612 I0. J-0.068
Y1.5644 Z-0.0645 I0. J0.068
Y1.4284 Z-0.0679 I0. J-0.068
Y1.5644 Z-0.0713 I0. J0.068
Y1.4284 Z-0.0746 I0. J-0.068
Y1.5644 Z-0.078 I0. J0.068
Y1.4284 Z-0.0814 I0. J-0.068
Y1.5644 Z-0.0848 I0. J0.068
Y1.4284 Z-0.0881 I0. J-0.068
Y1.5644 Z-0.0915 I0. J0.068
Y1.4284 Z-0.0949 I0. J-0.068
Y1.5644 Z-0.0982 I0. J0.068
Y1.4284 Z-0.1016 I0. J-0.068
Y1.5644 Z-0.105 I0. J0.068
Y1.4284 Z-0.1083 I0. J-0.068
Y1.5644 Z-0.1117 I0. J0.068
Y1.4284 Z-0.1151 I0. J-0.068
Y1.5644 Z-0.1184 I0. J0.068
Y1.4284 Z-0.1218 I0. J-0.068
Y1.5644 Z-0.1252 I0. J0.068
Y1.4284 Z-0.1285 I0. J-0.068
Y1.5644 Z-0.1319 I0. J0.068
Y1.4284 Z-0.1353 I0. J-0.068
Y1.5644 Z-0.1387 I0. J0.068
Y1.4284 Z-0.142 I0. J-0.068
Y1.5644 Z-0.1454 I0. J0.068
Y1.4284 Z-0.1488 I0. J-0.068
Y1.5644 Z-0.1521 I0. J0.068
Y1.4284 Z-0.1555 I0. J-0.068
Y1.5644 Z-0.1589 I0. J0.068
Y1.4284 Z-0.1622 I0. J-0.068
Y1.5644 Z-0.1656 I0. J0.068
Y1.4284 Z-0.169 I0. J-0.068
Y1.5644 Z-0.1723 I0. J0.068
Y1.4284 Z-0.1757 I0. J-0.068
Y1.5644 Z-0.1791 I0. J0.068
Y1.4284 Z-0.1824 I0. J-0.068
Y1.5644 Z-0.1858 I0. J0.068
Y1.4284 Z-0.1892 I0. J-0.068
Y1.5644 Z-0.1926 I0. J0.068
Y1.4284 Z-0.1959 I0. J-0.068
Y1.5644 Z-0.1993 I0. J0.068
Y1.4284 Z-0.2027 I0. J-0.068
Y1.5644 Z-0.206 I0. J0.068
Y1.4284 Z-0.2094 I0. J-0.068
Y1.5644 Z-0.2128 I0. J0.068
Y1.4284 Z-0.2161 I0. J-0.068
Y1.5644 Z-0.2195 I0. J0.068
Y1.4284 Z-0.2229 I0. J-0.068
X2.5623 Y1.5235 Z-0.225 I0. J0.068
X2.4377 Y1.4692 I-0.0623 J-0.0272
X2.5623 Y1.5235 I0.0623 J0.0272
X2.5294 Y1.5364 I-0.0229 J-0.01 F10.
G1 X2.518 Y1.5315
X2.5144 Y1.5299 Z-0.2247
X2.5109 Y1.5284 Z-0.2238
X2.5076 Y1.5269 Z-0.2223
X2.5045 Y1.5256 Z-0.2202
X2.5018 Y1.5244 Z-0.2177
X2.4994 Y1.5234 Z-0.2147
X2.4976 Y1.5226 Z-0.2113
X2.4962 Y1.522 Z-0.2077
X2.4953 Y1.5216 Z-0.2039
X2.4951 Y1.5215 Z-0.2
G0 Z0.24
X3.1058 Y0.7007
Z0.105
G1 Z0.05 F10.
X3.1098 Y0.7047
X3.1095 Y0.7062
X3.1086 Y0.7075
X3.1073 Y0.7084
X3.1058 Y0.7087
G3 Y0.6927 Z0.0477 I0. J-0.008 F20.
Y0.7087 Z0.0454 I0. J0.008
Y0.6927 Z0.043 I0. J-0.008
Y0.7087 Z0.0407 I0. J0.008
Y0.6927 Z0.0384 I0. J-0.008
Y0.7087 Z0.0361 I0. J0.008
Y0.6927 Z0.0337 I0. J-0.008
Y0.7087 Z0.0314 I0. J0.008
Y0.6927 Z0.0291 I0. J-0.008
Y0.7087 Z0.0268 I0. J0.008
Y0.6927 Z0.0245 I0. J-0.008
Y0.7087 Z0.0221 I0. J0.008
Y0.6927 Z0.0198 I0. J-0.008
Y0.7087 Z0.0175 I0. J0.008
Y0.6927 Z0.0152 I0. J-0.008
Y0.7087 Z0.0129 I0. J0.008
Y0.6927 Z0.0105 I0. J-0.008
Y0.7087 Z0.0082 I0. J0.008
Y0.6927 Z0.0059 I0. J-0.008
Y0.7087 Z0.0036 I0. J0.008
Y0.6927 Z0.0012 I0. J-0.008
Y0.7087 Z-0.0011 I0. J0.008
Y0.6927 Z-0.0034 I0. J-0.008
Y0.7087 Z-0.0057 I0. J0.008
Y0.6927 Z-0.008 I0. J-0.008
Y0.7087 Z-0.0104 I0. J0.008
Y0.6927 Z-0.0127 I0. J-0.008
Y0.7087 Z-0.015 I0. J0.008
Y0.6927 Z-0.0173 I0. J-0.008
Y0.7087 Z-0.0196 I0. J0.008
Y0.6927 Z-0.022 I0. J-0.008
Y0.7087 Z-0.0243 I0. J0.008
Y0.6927 Z-0.0266 I0. J-0.008
Y0.7087 Z-0.0289 I0. J0.008
Y0.6927 Z-0.0313 I0. J-0.008
Y0.7087 Z-0.0336 I0. J0.008
Y0.6927 Z-0.0359 I0. J-0.008
Y0.7087 Z-0.0382 I0. J0.008
Y0.6927 Z-0.0405 I0. J-0.008
Y0.7087 Z-0.0429 I0. J0.008
Y0.6927 Z-0.0452 I0. J-0.008
Y0.7087 Z-0.0475 I0. J0.008
Y0.6927 Z-0.0498 I0. J-0.008
Y0.7087 Z-0.0521 I0. J0.008
Y0.6927 Z-0.0545 I0. J-0.008
Y0.7087 Z-0.0568 I0. J0.008
Y0.6927 Z-0.0591 I0. J-0.008
Y0.7087 Z-0.0614 I0. J0.008
Y0.6927 Z-0.0638 I0. J-0.008
Y0.7087 Z-0.0661 I0. J0.008
Y0.6927 Z-0.0684 I0. J-0.008
Y0.7087 Z-0.0707 I0. J0.008
Y0.6927 Z-0.073 I0. J-0.008
Y0.7087 Z-0.0754 I0. J0.008
Y0.6927 Z-0.0777 I0. J-0.008
Y0.7087 Z-0.08 I0. J0.008
Y0.6927 Z-0.0823 I0. J-0.008
Y0.7087 Z-0.0846 I0. J0.008
Y0.6927 Z-0.087 I0. J-0.008
Y0.7087 Z-0.0893 I0. J0.008
Y0.6927 Z-0.0916 I0. J-0.008
Y0.7087 Z-0.0939 I0. J0.008
Y0.6927 Z-0.0963 I0. J-0.008
Y0.7087 Z-0.0986 I0. J0.008
Y0.6927 Z-0.1009 I0. J-0.008
Y0.7087 Z-0.1032 I0. J0.008
Y0.6927 Z-0.1055 I0. J-0.008
Y0.7087 Z-0.1079 I0. J0.008
Y0.6927 Z-0.1102 I0. J-0.008
Y0.7087 Z-0.1125 I0. J0.008
Y0.6927 Z-0.1148 I0. J-0.008
Y0.7087 Z-0.1171 I0. J0.008
Y0.6927 Z-0.1195 I0. J-0.008
Y0.7087 Z-0.1218 I0. J0.008
Y0.6927 Z-0.1241 I0. J-0.008
Y0.7087 Z-0.1264 I0. J0.008
Y0.6927 Z-0.1288 I0. J-0.008
Y0.7087 Z-0.1311 I0. J0.008
Y0.6927 Z-0.1334 I0. J-0.008
Y0.7087 Z-0.1357 I0. J0.008
Y0.6927 Z-0.138 I0. J-0.008
Y0.7087 Z-0.1404 I0. J0.008
Y0.6927 Z-0.1427 I0. J-0.008
Y0.7087 Z-0.145 I0. J0.008
Y0.6927 Z-0.1473 I0. J-0.008
Y0.7087 Z-0.1497 I0. J0.008
Y0.6927 Z-0.152 I0. J-0.008
Y0.7087 Z-0.1543 I0. J0.008
Y0.6927 Z-0.1566 I0. J-0.008
Y0.7087 Z-0.1589 I0. J0.008
Y0.6927 Z-0.1613 I0. J-0.008
Y0.7087 Z-0.1636 I0. J0.008
Y0.6927 Z-0.1659 I0. J-0.008
Y0.7087 Z-0.1682 I0. J0.008
Y0.6927 Z-0.1705 I0. J-0.008
Y0.7087 Z-0.1729 I0. J0.008
Y0.6927 Z-0.1752 I0. J-0.008
Y0.7087 Z-0.1775 I0. J0.008
Y0.6927 Z-0.1798 I0. J-0.008
Y0.7087 Z-0.1822 I0. J0.008
Y0.6927 Z-0.1845 I0. J-0.008
Y0.7087 Z-0.1868 I0. J0.008
Y0.6927 Z-0.1891 I0. J-0.008
Y0.7087 Z-0.1914 I0. J0.008
Y0.6927 Z-0.1938 I0. J-0.008
Y0.7087 Z-0.1961 I0. J0.008
Y0.6927 Z-0.1984 I0. J-0.008
Y0.7087 Z-0.2007 I0. J0.008
Y0.6927 Z-0.203 I0. J-0.008
Y0.7087 Z-0.2054 I0. J0.008
Y0.6927 Z-0.2077 I0. J-0.008
Y0.7087 Z-0.21 I0. J0.008
Y0.6927 Z-0.2123 I0. J-0.008
Y0.7087 Z-0.2147 I0. J0.008
Y0.6927 Z-0.217 I0. J-0.008
Y0.7087 Z-0.2193 I0. J0.008
Y0.6927 Z-0.2216 I0. J-0.008
Y0.7087 Z-0.2239 I0. J0.008
X3.0978 Y0.7018 Z-0.225 I0. J-0.008
X3.1137 Y0.6996 I0.0079 J-0.0011
X3.0978 Y0.7018 I-0.0079 J0.0011
G1 X3.0979 Y0.7002 F10.
X3.0986 Y0.6988
X3.0998 Y0.6978
X3.1013 Y0.6973
X3.1058 Y0.7007
G0 Z0.44

M9
M30
