(1001)
(T1  D=6.35 CR=0. - ZMIN=-19.05 - FLAT END MILL)
G90 G94 G91.1 G40 G49 G17
G21
G0 Z15

(BORE1)
M5
T1 M6
S15000 M3
G54
M8
G0 X0.064 Y0.635
G43 Z15. H1
Z4.5
G1 Z3.135 F1600.
G18 G2 X0.698 Z2.5 I0.635 K0.
G1 X1.016
G17 G2 X1.651 Y0. I0. J-0.635
X-1.651 Z2.331 I-1.651 J0.
X1.651 Z2.163 I1.651 J0.
X-1.651 Z1.994 I-1.651 J0.
X1.651 Z1.826 I1.651 J0.
X-1.651 Z1.657 I-1.651 J0.
X1.651 Z1.489 I1.651 J0.
X-1.651 Z1.32 I-1.651 J0.
X1.651 Z1.152 I1.651 J0.
X-1.651 Z0.983 I-1.651 J0.
X1.651 Z0.815 I1.651 J0.
X-1.651 Z0.646 I-1.651 J0.
X1.651 Z0.478 I1.651 J0.
X-1.651 Z0.309 I-1.651 J0.
X1.651 Z0.141 I1.651 J0.
X-1.651 Z-0.028 I-1.651 J0.
X1.651 Z-0.196 I1.651 J0.
X-1.651 Z-0.365 I-1.651 J0.
X1.651 Z-0.533 I1.651 J0.
X-1.651 Z-0.702 I-1.651 J0.
X1.651 Z-0.871 I1.651 J0.
X-1.651 Z-1.039 I-1.651 J0.
X1.651 Z-1.208 I1.651 J0.
X-1.651 Z-1.376 I-1.651 J0.
X1.651 Z-1.545 I1.651 J0.
X-1.651 Z-1.713 I-1.651 J0.
X1.651 Z-1.882 I1.651 J0.
X-1.651 Z-2.05 I-1.651 J0.
X1.651 Z-2.219 I1.651 J0.
X-1.651 Z-2.387 I-1.651 J0.
X1.651 Z-2.556 I1.651 J0.
X-1.651 Z-2.724 I-1.651 J0.
X1.651 Z-2.893 I1.651 J0.
X-1.651 Z-3.061 I-1.651 J0.
X1.651 Z-3.23 I1.651 J0.
X-1.651 Z-3.398 I-1.651 J0.
X1.651 Z-3.567 I1.651 J0.
X-1.651 Z-3.736 I-1.651 J0.
X1.651 Z-3.904 I1.651 J0.
X-1.651 Z-4.073 I-1.651 J0.
X1.651 Z-4.241 I1.651 J0.
X-1.651 Z-4.41 I-1.651 J0.
X1.651 Z-4.578 I1.651 J0.
X-1.651 Z-4.747 I-1.651 J0.
X1.651 Z-4.915 I1.651 J0.
X-1.651 Z-5.084 I-1.651 J0.
X1.651 Z-5.252 I1.651 J0.
X-1.651 Z-5.421 I-1.651 J0.
X1.651 Z-5.589 I1.651 J0.
X-1.651 Z-5.758 I-1.651 J0.
X1.651 Z-5.926 I1.651 J0.
X-1.651 Z-6.095 I-1.651 J0.
X1.651 Z-6.263 I1.651 J0.
X-0.071 Y-1.649 Z-6.35 I-1.651 J0.
X0.071 Y1.649 I0.071 J1.649
X-0.071 Y-1.649 I-0.071 J-1.649
X-0.678 Y-0.988 I0.027 J0.634
G1 X-0.664 Y-0.671
X-0.66 Y-0.571 Z-6.342
X-0.656 Y-0.475 Z-6.319
X-0.652 Y-0.383 Z-6.281
X-0.648 Y-0.298 Z-6.229
X-0.645 Y-0.222 Z-6.164
X-0.642 Y-0.157 Z-6.088
X-0.64 Y-0.105 Z-6.003
X-0.638 Y-0.067 Z-5.911
X-0.637 Y-0.044 Z-5.814
Y-0.036 Z-5.715
G0 Z5.
X3.239 Y0.635
Z4.5
G1 Z3.135 F1600.
G18 G2 X3.874 Z2.5 I0.635 K0.
G1 X4.191
G17 G2 X4.826 Y0. I0. J-0.635
X-4.826 Z2.221 I-4.826 J0.
X4.826 Z1.941 I4.826 J0.
X-4.826 Z1.662 I-4.826 J0.
X4.826 Z1.382 I4.826 J0.
X-4.826 Z1.103 I-4.826 J0.
X4.826 Z0.824 I4.826 J0.
X-4.826 Z0.544 I-4.826 J0.
X4.826 Z0.265 I4.826 J0.
X-4.826 Z-0.015 I-4.826 J0.
X4.826 Z-0.294 I4.826 J0.
X-4.826 Z-0.573 I-4.826 J0.
X4.826 Z-0.853 I4.826 J0.
X-4.826 Z-1.132 I-4.826 J0.
X4.826 Z-1.412 I4.826 J0.
X-4.826 Z-1.691 I-4.826 J0.
X4.826 Z-1.97 I4.826 J0.
X-4.826 Z-2.25 I-4.826 J0.
X4.826 Z-2.529 I4.826 J0.
X-4.826 Z-2.809 I-4.826 J0.
X4.826 Z-3.088 I4.826 J0.
X-4.826 Z-3.367 I-4.826 J0.
X4.826 Z-3.647 I4.826 J0.
X-4.826 Z-3.926 I-4.826 J0.
X4.826 Z-4.206 I4.826 J0.
X-4.826 Z-4.485 I-4.826 J0.
X4.826 Z-4.764 I4.826 J0.
X-4.826 Z-5.044 I-4.826 J0.
X4.826 Z-5.323 I4.826 J0.
X-4.826 Z-5.603 I-4.826 J0.
X4.826 Z-5.882 I4.826 J0.
X-4.826 Z-6.161 I-4.826 J0.
X2.52 Y4.116 Z-6.35 I4.826 J0.
X-2.52 Y-4.116 I-2.52 J-4.116
X2.52 Y4.116 I2.52 J4.116
X2.73 Y3.243 I-0.332 J-0.542
G1 X2.564 Y2.972
X2.512 Y2.887 Z-6.342
X2.462 Y2.804 Z-6.319
X2.414 Y2.726 Z-6.281
X2.369 Y2.653 Z-6.229
X2.33 Y2.589 Z-6.164
X2.296 Y2.534 Z-6.088
X2.269 Y2.489 Z-6.003
X2.249 Y2.457 Z-5.911
X2.237 Y2.437 Z-5.814
X2.233 Y2.43 Z-5.715
G0 Z5.
X6.413 Y0.635
Z4.5
G1 Z3.135 F1600.
G18 G2 X7.049 Z2.5 I0.635 K0.
G1 X7.366
G17 G2 X8.001 Y0. I0. J-0.635
X-8.001 Z2.11 I-8.001 J0.
X8.001 Z1.719 I8.001 J0.
X-8.001 Z1.329 I-8.001 J0.
X8.001 Z0.939 I8.001 J0.
X-8.001 Z0.549 I-8.001 J0.
X8.001 Z0.158 I8.001 J0.
X-8.001 Z-0.232 I-8.001 J0.
X8.001 Z-0.622 I8.001 J0.
X-8.001 Z-1.012 I-8.001 J0.
X8.001 Z-1.403 I8.001 J0.
X-8.001 Z-1.793 I-8.001 J0.
X8.001 Z-2.183 I8.001 J0.
X-8.001 Z-2.574 I-8.001 J0.
X8.001 Z-2.964 I8.001 J0.
X-8.001 Z-3.354 I-8.001 J0.
X8.001 Z-3.744 I8.001 J0.
X-8.001 Z-4.135 I-8.001 J0.
X8.001 Z-4.525 I8.001 J0.
X-8.001 Z-4.915 I-8.001 J0.
X8.001 Z-5.305 I8.001 J0.
X-8.001 Z-5.696 I-8.001 J0.
X8.001 Z-6.086 I8.001 J0.
X-4.209 Y-6.804 Z-6.35 I-8.001 J0.
X4.209 Y6.804 I4.209 J6.804
X-4.209 Y-6.804 I-4.209 J-6.804
X-4.415 Y-5.93 I0.334 J0.54
G1 X-4.248 Y-5.66
X-4.196 Y-5.576 Z-6.342
X-4.145 Y-5.493 Z-6.319
X-4.097 Y-5.415 Z-6.281
X-4.052 Y-5.343 Z-6.229
X-4.012 Y-5.278 Z-6.164
X-3.978 Y-5.223 Z-6.088
X-3.951 Y-5.179 Z-6.003
X-3.931 Y-5.147 Z-5.911
X-3.918 Y-5.127 Z-5.814
X-3.914 Y-5.12 Z-5.715
G0 Z5.
X9.589 Y0.635
Z4.5
G1 Z3.135 F1600.
G18 G2 X10.224 Z2.5 I0.635 K0.
G1 X10.541
G17 G2 X11.176 Y0. I0. J-0.635
X-11.176 Z1.999 I-11.176 J0.
X11.176 Z1.498 I11.176 J0.
X-11.176 Z0.997 I-11.176 J0.
X11.176 Z0.495 I11.176 J0.
X-11.176 Z-0.006 I-11.176 J0.
X11.176 Z-0.507 I11.176 J0.
X-11.176 Z-1.008 I-11.176 J0.
X11.176 Z-1.509 I11.176 J0.
X-11.176 Z-2.01 I-11.176 J0.
X11.176 Z-2.511 I11.176 J0.
X-11.176 Z-3.013 I-11.176 J0.
X11.176 Z-3.514 I11.176 J0.
X-11.176 Z-4.015 I-11.176 J0.
X11.176 Z-4.516 I11.176 J0.
X-11.176 Z-5.017 I-11.176 J0.
X11.176 Z-5.518 I11.176 J0.
X-11.176 Z-6.02 I-11.176 J0.
X5.367 Y9.803 Z-6.35 I11.176 J0.
X-5.367 Y-9.803 I-5.367 J-9.803
X5.367 Y9.803 I5.367 J9.803
X5.619 Y8.941 I-0.305 J-0.557
G1 X5.467 Y8.662
X5.419 Y8.575 Z-6.342
X5.373 Y8.49 Z-6.319
X5.328 Y8.41 Z-6.281
X5.288 Y8.335 Z-6.229
X5.251 Y8.269 Z-6.164
X5.22 Y8.212 Z-6.088
X5.195 Y8.166 Z-6.003
X5.177 Y8.133 Z-5.911
X5.166 Y8.112 Z-5.814
X5.162 Y8.105 Z-5.715
G0 Z15.

(BORE3)
G0 X0. Y0.635
Z15.
Z-4.35
G1 Z-5.715 F1600.
G18 G2 X0.635 Z-6.35 I0.635 K0.
G1 X0.952
G17 G2 X1.587 Y0. I0. J-0.635
X-1.587 Z-6.516 I-1.587 J0.
X1.587 Z-6.683 I1.587 J0.
X-1.587 Z-6.849 I-1.587 J0.
X1.587 Z-7.015 I1.587 J0.
X-1.587 Z-7.182 I-1.587 J0.
X1.587 Z-7.348 I1.587 J0.
X-1.587 Z-7.514 I-1.587 J0.
X1.587 Z-7.68 I1.587 J0.
X-1.587 Z-7.847 I-1.587 J0.
X1.587 Z-8.013 I1.587 J0.
X-1.587 Z-8.179 I-1.587 J0.
X1.587 Z-8.346 I1.587 J0.
X-1.587 Z-8.512 I-1.587 J0.
X1.587 Z-8.678 I1.587 J0.
X-1.587 Z-8.845 I-1.587 J0.
X1.587 Z-9.011 I1.587 J0.
X-1.587 Z-9.177 I-1.587 J0.
X1.587 Z-9.344 I1.587 J0.
X-1.587 Z-9.51 I-1.587 J0.
X1.587 Z-9.676 I1.587 J0.
X-1.587 Z-9.843 I-1.587 J0.
X1.587 Z-10.009 I1.587 J0.
X-1.587 Z-10.175 I-1.587 J0.
X1.587 Z-10.341 I1.587 J0.
X-1.587 Z-10.508 I-1.587 J0.
X1.587 Z-10.674 I1.587 J0.
X-1.587 Z-10.84 I-1.587 J0.
X1.588 Z-11.007 I1.587 J0.
X-1.588 Z-11.173 I-1.588 J0.
X1.588 Z-11.339 I1.588 J0.
X-1.588 Z-11.506 I-1.588 J0.
X1.588 Z-11.672 I1.588 J0.
X-1.588 Z-11.838 I-1.588 J0.
X1.588 Z-12.005 I1.588 J0.
X-1.588 Z-12.171 I-1.588 J0.
X1.588 Z-12.337 I1.588 J0.
X-1.588 Z-12.503 I-1.588 J0.
X1.588 Z-12.67 I1.588 J0.
X-1.588 Z-12.836 I-1.588 J0.
X1.588 Z-13.002 I1.588 J0.
X-1.588 Z-13.169 I-1.588 J0.
X1.588 Z-13.335 I1.588 J0.
X-1.588 Z-13.501 I-1.588 J0.
X1.588 Z-13.668 I1.588 J0.
X-1.588 Z-13.834 I-1.588 J0.
X1.588 Z-14. I1.588 J0.
X-1.588 Z-14.167 I-1.588 J0.
X1.588 Z-14.333 I1.588 J0.
X-1.588 Z-14.499 I-1.588 J0.
X1.588 Z-14.666 I1.588 J0.
X-1.588 Z-14.832 I-1.588 J0.
X1.588 Z-14.998 I1.588 J0.
X-1.588 Z-15.164 I-1.588 J0.
X1.588 Z-15.331 I1.588 J0.
X-1.588 Z-15.497 I-1.588 J0.
X1.588 Z-15.663 I1.588 J0.
X-1.588 Z-15.83 I-1.588 J0.
X1.588 Z-15.996 I1.588 J0.
X-1.588 Z-16.162 I-1.588 J0.
X1.588 Z-16.329 I1.588 J0.
X-1.588 Z-16.495 I-1.588 J0.
X1.588 Z-16.661 I1.588 J0.
X-1.588 Z-16.828 I-1.588 J0.
X1.588 Z-16.994 I1.588 J0.
X-1.588 Z-17.16 I-1.588 J0.
X1.588 Z-17.326 I1.588 J0.
X-1.588 Z-17.493 I-1.588 J0.
X1.588 Z-17.659 I1.588 J0.
X-1.588 Z-17.825 I-1.588 J0.
X1.588 Z-17.992 I1.588 J0.
X-1.588 Z-18.158 I-1.588 J0.
X1.588 Z-18.324 I1.588 J0.
X-1.588 Z-18.491 I-1.588 J0.
X1.588 Z-18.657 I1.588 J0.
X-1.588 Z-18.823 I-1.588 J0.
X1.588 Z-18.99 I1.588 J0.
X0.661 Y-1.443 Z-19.05 I-1.588 J0.
X-0.661 Y1.443 I-0.661 J1.443
X0.661 Y-1.443 I0.661 J-1.443
X-0.181 Y-1.13 I-0.264 J0.577
G1 X-0.313 Y-0.842
X-0.354 Y-0.751 Z-19.042
X-0.395 Y-0.663 Z-19.019
X-0.433 Y-0.58 Z-18.981
X-0.468 Y-0.502 Z-18.929
X-0.5 Y-0.433 Z-18.864
X-0.527 Y-0.375 Z-18.788
X-0.549 Y-0.327 Z-18.703
X-0.564 Y-0.293 Z-18.611
X-0.574 Y-0.271 Z-18.514
X-0.577 Y-0.264 Z-18.415
G0 Z5.
X3.175 Y0.635
Z-4.35
G1 Z-5.715 F1600.
G18 G2 X3.81 Z-6.35 I0.635 K0.
G1 X4.128
G17 G2 X4.762 Y0. I0. J-0.635
X-4.762 Z-6.627 I-4.762 J0.
X4.762 Z-6.904 I4.762 J0.
X-4.762 Z-7.182 I-4.762 J0.
X4.762 Z-7.459 I4.762 J0.
X-4.762 Z-7.736 I-4.762 J0.
X4.762 Z-8.013 I4.762 J0.
X-4.762 Z-8.29 I-4.762 J0.
X4.762 Z-8.567 I4.762 J0.
X-4.762 Z-8.845 I-4.762 J0.
X4.762 Z-9.122 I4.762 J0.
X-4.762 Z-9.399 I-4.762 J0.
X4.762 Z-9.676 I4.762 J0.
X-4.762 Z-9.953 I-4.762 J0.
X4.762 Z-10.231 I4.762 J0.
X-4.762 Z-10.508 I-4.762 J0.
X4.762 Z-10.785 I4.762 J0.
X-4.762 Z-11.062 I-4.762 J0.
X4.762 Z-11.339 I4.762 J0.
X-4.762 Z-11.616 I-4.762 J0.
X4.762 Z-11.894 I4.762 J0.
X-4.762 Z-12.171 I-4.762 J0.
X4.762 Z-12.448 I4.762 J0.
X-4.762 Z-12.725 I-4.762 J0.
X4.762 Z-13.002 I4.762 J0.
X-4.762 Z-13.28 I-4.762 J0.
X4.762 Z-13.557 I4.762 J0.
X-4.762 Z-13.834 I-4.762 J0.
X4.762 Z-14.111 I4.762 J0.
X-4.762 Z-14.388 I-4.762 J0.
X4.762 Z-14.666 I4.762 J0.
X-4.762 Z-14.943 I-4.762 J0.
X4.762 Z-15.22 I4.762 J0.
X-4.763 Z-15.497 I-4.762 J0.
X4.763 Z-15.774 I4.763 J0.
X-4.763 Z-16.051 I-4.763 J0.
X4.763 Z-16.329 I4.763 J0.
X-4.763 Z-16.606 I-4.763 J0.
X4.763 Z-16.883 I4.763 J0.
X-4.763 Z-17.16 I-4.763 J0.
X4.763 Z-17.437 I4.763 J0.
X-4.763 Z-17.715 I-4.763 J0.
X4.763 Z-17.992 I4.763 J0.
X-4.763 Z-18.269 I-4.763 J0.
X4.763 Z-18.546 I4.763 J0.
X-4.763 Z-18.823 I-4.763 J0.
X4.005 Y2.577 Z-19.05 I4.763 J0.
X-4.005 Y-2.577 I-4.005 J-2.577
X4.005 Y2.577 I4.005 J2.577
X3.815 Y1.699 I-0.534 J-0.344
G1 X3.548 Y1.528
X3.464 Y1.474 Z-19.042
X3.383 Y1.421 Z-19.019
X3.305 Y1.372 Z-18.981
X3.234 Y1.326 Z-18.929
X3.17 Y1.285 Z-18.864
X3.116 Y1.25 Z-18.788
X3.072 Y1.221 Z-18.703
X3.04 Y1.201 Z-18.611
X3.02 Y1.188 Z-18.514
X3.014 Y1.184 Z-18.415
G0 Z5.
X6.35 Y0.635
Z-4.35
G1 Z-5.715 F1600.
G18 G2 X6.985 Z-6.35 I0.635 K0.
G1 X7.302
G17 G2 X7.938 Y0. I0. J-0.635
X-7.937 Z-6.738 I-7.938 J0.
X7.937 Z-7.126 I7.937 J0.
X-7.937 Z-7.514 I-7.937 J0.
X7.937 Z-7.902 I7.937 J0.
X-7.937 Z-8.29 I-7.937 J0.
X7.937 Z-8.678 I7.937 J0.
X-7.937 Z-9.066 I-7.937 J0.
X7.937 Z-9.454 I7.937 J0.
X-7.937 Z-9.843 I-7.937 J0.
X7.937 Z-10.231 I7.937 J0.
X-7.937 Z-10.619 I-7.937 J0.
X7.937 Z-11.007 I7.937 J0.
X-7.937 Z-11.395 I-7.937 J0.
X7.937 Z-11.783 I7.937 J0.
X-7.937 Z-12.171 I-7.937 J0.
X7.937 Z-12.559 I7.937 J0.
X-7.937 Z-12.947 I-7.937 J0.
X7.937 Z-13.335 I7.937 J0.
X-7.937 Z-13.723 I-7.937 J0.
X7.937 Z-14.111 I7.937 J0.
X-7.937 Z-14.499 I-7.937 J0.
X7.937 Z-14.887 I7.937 J0.
X-7.937 Z-15.275 I-7.937 J0.
X7.937 Z-15.663 I7.937 J0.
X-7.937 Z-16.051 I-7.937 J0.
X7.937 Z-16.439 I7.937 J0.
X-7.937 Z-16.828 I-7.937 J0.
X7.937 Z-17.216 I7.937 J0.
X-7.937 Z-17.604 I-7.937 J0.
X7.937 Z-17.992 I7.937 J0.
X-7.937 Z-18.38 I-7.937 J0.
X7.937 Z-18.768 I7.937 J0.
X-5.196 Y-6.001 Z-19.05 I-7.937 J0.
X5.196 Y6.001 I5.196 J6.001
X-5.196 Y-6.001 I-5.196 J-6.001
X-5.26 Y-5.105 I0.416 J0.48
G1 X-5.052 Y-4.865
X-4.987 Y-4.79 Z-19.042
X-4.924 Y-4.717 Z-19.019
X-4.863 Y-4.647 Z-18.981
X-4.808 Y-4.583 Z-18.929
X-4.758 Y-4.526 Z-18.864
X-4.716 Y-4.477 Z-18.788
X-4.682 Y-4.437 Z-18.703
X-4.657 Y-4.409 Z-18.611
X-4.642 Y-4.391 Z-18.514
X-4.637 Y-4.385 Z-18.415
G0 Z15.
M5
G0 Z15
G0 X0 Y0

M9
M30
