(20.01.03.04.05)
(T1  D=6.35 CR=0. - ZMIN=-19.05 - FLAT END MILL)
G90 G94 G91.1 G40 G49 G17
G21
G0 Z15

(BORE1)
M5
T1 M6
S15000 M3
G54
M8
G0 X0.064 Y0.635
G43 Z15. H1
Z4.5
G1 Z3.135 F1600.
G18 G2 X0.698 Z2.5 I0.635 K0.
G1 X1.016
G17 G2 X1.651 Y0. I0. J-0.635
X-1.651 Z2.416 I-1.651 J0.
X1.651 Z2.332 I1.651 J0.
X-1.651 Z2.247 I-1.651 J0.
X1.651 Z2.163 I1.651 J0.
X-1.651 Z2.079 I-1.651 J0.
X1.651 Z1.995 I1.651 J0.
X-1.651 Z1.91 I-1.651 J0.
X1.651 Z1.826 I1.651 J0.
X-1.651 Z1.742 I-1.651 J0.
X1.651 Z1.658 I1.651 J0.
X-1.651 Z1.573 I-1.651 J0.
X1.651 Z1.489 I1.651 J0.
X-1.651 Z1.405 I-1.651 J0.
X1.651 Z1.321 I1.651 J0.
X-1.651 Z1.236 I-1.651 J0.
X1.651 Z1.152 I1.651 J0.
X-1.651 Z1.068 I-1.651 J0.
X1.651 Z0.984 I1.651 J0.
X-1.651 Z0.899 I-1.651 J0.
X1.651 Z0.815 I1.651 J0.
X-1.651 Z0.731 I-1.651 J0.
X1.651 Z0.647 I1.651 J0.
X-1.651 Z0.563 I-1.651 J0.
X1.651 Z0.478 I1.651 J0.
X-1.651 Z0.394 I-1.651 J0.
X1.651 Z0.31 I1.651 J0.
X-1.651 Z0.226 I-1.651 J0.
X1.651 Z0.141 I1.651 J0.
X-1.651 Z0.057 I-1.651 J0.
X1.651 Z-0.027 I1.651 J0.
X-1.651 Z-0.111 I-1.651 J0.
X1.651 Z-0.196 I1.651 J0.
X-1.651 Z-0.28 I-1.651 J0.
X1.651 Z-0.364 I1.651 J0.
X-1.651 Z-0.448 I-1.651 J0.
X1.651 Z-0.533 I1.651 J0.
X-1.651 Z-0.617 I-1.651 J0.
X1.651 Z-0.701 I1.651 J0.
X-1.651 Z-0.785 I-1.651 J0.
X1.651 Z-0.87 I1.651 J0.
X-1.651 Z-0.954 I-1.651 J0.
X1.651 Z-1.038 I1.651 J0.
X-1.651 Z-1.122 I-1.651 J0.
X1.651 Z-1.206 I1.651 J0.
X-1.651 Z-1.291 I-1.651 J0.
X1.651 Z-1.375 I1.651 J0.
X-1.651 Z-1.459 I-1.651 J0.
X1.651 Z-1.543 I1.651 J0.
X-1.651 Z-1.628 I-1.651 J0.
X1.651 Z-1.712 I1.651 J0.
X-1.651 Z-1.796 I-1.651 J0.
X1.651 Z-1.88 I1.651 J0.
X-1.651 Z-1.965 I-1.651 J0.
X1.651 Z-2.049 I1.651 J0.
X-1.651 Z-2.133 I-1.651 J0.
X1.651 Z-2.217 I1.651 J0.
X-1.651 Z-2.302 I-1.651 J0.
X1.651 Z-2.386 I1.651 J0.
X-1.651 Z-2.47 I-1.651 J0.
X1.651 Z-2.554 I1.651 J0.
X-1.651 Z-2.639 I-1.651 J0.
X1.651 Z-2.723 I1.651 J0.
X-1.651 Z-2.807 I-1.651 J0.
X1.651 Z-2.891 I1.651 J0.
X-1.651 Z-2.975 I-1.651 J0.
X1.651 Z-3.06 I1.651 J0.
X-1.651 Z-3.144 I-1.651 J0.
X1.651 Z-3.228 I1.651 J0.
X-1.651 Z-3.312 I-1.651 J0.
X1.651 Z-3.397 I1.651 J0.
X-1.651 Z-3.481 I-1.651 J0.
X1.651 Z-3.565 I1.651 J0.
X-1.651 Z-3.649 I-1.651 J0.
X1.651 Z-3.734 I1.651 J0.
X-1.651 Z-3.818 I-1.651 J0.
X1.651 Z-3.902 I1.651 J0.
X-1.651 Z-3.986 I-1.651 J0.
X1.651 Z-4.071 I1.651 J0.
X-1.651 Z-4.155 I-1.651 J0.
X1.651 Z-4.239 I1.651 J0.
X-1.651 Z-4.323 I-1.651 J0.
X1.651 Z-4.408 I1.651 J0.
X-1.651 Z-4.492 I-1.651 J0.
X1.651 Z-4.576 I1.651 J0.
X-1.651 Z-4.66 I-1.651 J0.
X1.651 Z-4.744 I1.651 J0.
X-1.651 Z-4.829 I-1.651 J0.
X1.651 Z-4.913 I1.651 J0.
X-1.651 Z-4.997 I-1.651 J0.
X1.651 Z-5.081 I1.651 J0.
X-1.651 Z-5.166 I-1.651 J0.
X1.651 Z-5.25 I1.651 J0.
X-1.651 Z-5.334 I-1.651 J0.
X1.651 Z-5.418 I1.651 J0.
X-1.651 Z-5.503 I-1.651 J0.
X1.651 Z-5.587 I1.651 J0.
X-1.651 Z-5.671 I-1.651 J0.
X1.651 Z-5.755 I1.651 J0.
X-1.651 Z-5.84 I-1.651 J0.
X1.651 Z-5.924 I1.651 J0.
X-1.651 Z-6.008 I-1.651 J0.
X1.651 Z-6.092 I1.651 J0.
X-1.651 Z-6.177 I-1.651 J0.
X1.651 Z-6.261 I1.651 J0.
X-0.154 Y-1.644 Z-6.305 I-1.651 J0.
X-1.622 Y0.306 Z-6.35 I0.154 J1.644
X1.622 Y-0.306 I1.622 J-0.306
X-1.622 Y0.306 I-1.622 J0.306
X-0.881 Y0.812 I0.624 J-0.118
G1 X-0.569 Y0.753
X-0.471 Y0.735 Z-6.342
X-0.376 Y0.717 Z-6.319
X-0.286 Y0.7 Z-6.281
X-0.202 Y0.684 Z-6.229
X-0.128 Y0.67 Z-6.164
X-0.064 Y0.658 Z-6.088
X-0.013 Y0.649 Z-6.003
X0.025 Y0.642 Z-5.911
X0.048 Y0.637 Z-5.814
X0.055 Y0.636 Z-5.715
G0 Z5.
X3.239 Y0.635
Z4.5
G1 Z3.135 F1600.
G18 G2 X3.874 Z2.5 I0.635 K0.
G1 X4.191
G17 G2 X4.826 Y0. I0. J-0.635
X-4.826 Z2.36 I-4.826 J0.
X4.826 Z2.221 I4.826 J0.
X-4.826 Z2.081 I-4.826 J0.
X4.826 Z1.941 I4.826 J0.
X-4.826 Z1.802 I-4.826 J0.
X4.826 Z1.662 I4.826 J0.
X-4.826 Z1.522 I-4.826 J0.
X4.826 Z1.383 I4.826 J0.
X-4.826 Z1.243 I-4.826 J0.
X4.826 Z1.103 I4.826 J0.
X-4.826 Z0.964 I-4.826 J0.
X4.826 Z0.824 I4.826 J0.
X-4.826 Z0.684 I-4.826 J0.
X4.826 Z0.545 I4.826 J0.
X-4.826 Z0.405 I-4.826 J0.
X4.826 Z0.265 I4.826 J0.
X-4.826 Z0.126 I-4.826 J0.
X4.826 Z-0.014 I4.826 J0.
X-4.826 Z-0.154 I-4.826 J0.
X4.826 Z-0.293 I4.826 J0.
X-4.826 Z-0.433 I-4.826 J0.
X4.826 Z-0.572 I4.826 J0.
X-4.826 Z-0.712 I-4.826 J0.
X4.826 Z-0.852 I4.826 J0.
X-4.826 Z-0.991 I-4.826 J0.
X4.826 Z-1.131 I4.826 J0.
X-4.826 Z-1.271 I-4.826 J0.
X4.826 Z-1.41 I4.826 J0.
X-4.826 Z-1.55 I-4.826 J0.
X4.826 Z-1.69 I4.826 J0.
X-4.826 Z-1.829 I-4.826 J0.
X4.826 Z-1.969 I4.826 J0.
X-4.826 Z-2.109 I-4.826 J0.
X4.826 Z-2.248 I4.826 J0.
X-4.826 Z-2.388 I-4.826 J0.
X4.826 Z-2.528 I4.826 J0.
X-4.826 Z-2.667 I-4.826 J0.
X4.826 Z-2.807 I4.826 J0.
X-4.826 Z-2.947 I-4.826 J0.
X4.826 Z-3.086 I4.826 J0.
X-4.826 Z-3.226 I-4.826 J0.
X4.826 Z-3.366 I4.826 J0.
X-4.826 Z-3.505 I-4.826 J0.
X4.826 Z-3.645 I4.826 J0.
X-4.826 Z-3.785 I-4.826 J0.
X4.826 Z-3.924 I4.826 J0.
X-4.826 Z-4.064 I-4.826 J0.
X4.826 Z-4.204 I4.826 J0.
X-4.826 Z-4.343 I-4.826 J0.
X4.826 Z-4.483 I4.826 J0.
X-4.826 Z-4.623 I-4.826 J0.
X4.826 Z-4.762 I4.826 J0.
X-4.826 Z-4.902 I-4.826 J0.
X4.826 Z-5.042 I4.826 J0.
X-4.826 Z-5.181 I-4.826 J0.
X4.826 Z-5.321 I4.826 J0.
X-4.826 Z-5.461 I-4.826 J0.
X4.826 Z-5.6 I4.826 J0.
X-4.826 Z-5.74 I-4.826 J0.
X4.826 Z-5.879 I4.826 J0.
X-4.826 Z-6.019 I-4.826 J0.
X4.826 Z-6.159 I4.826 J0.
X-4.826 Z-6.298 I-4.826 J0.
X-1.929 Y4.424 Z-6.35 I4.826 J0.
X1.929 Y-4.424 I1.929 J-4.424
X-1.929 Y4.424 I-1.929 J4.424
X-1.093 Y4.095 I0.254 J-0.582
G1 X-0.966 Y3.804
X-0.927 Y3.713 Z-6.342
X-0.888 Y3.625 Z-6.319
X-0.851 Y3.54 Z-6.281
X-0.817 Y3.462 Z-6.229
X-0.787 Y3.393 Z-6.164
X-0.761 Y3.333 Z-6.088
X-0.74 Y3.286 Z-6.003
X-0.725 Y3.251 Z-5.911
X-0.716 Y3.229 Z-5.814
X-0.713 Y3.222 Z-5.715
G0 Z5.
X6.413 Y0.635
Z4.5
G1 Z3.135 F1600.
G18 G2 X7.049 Z2.5 I0.635 K0.
G1 X7.366
G17 G2 X8.001 Y0. I0. J-0.635
X-8.001 Z2.305 I-8.001 J0.
X8.001 Z2.11 I8.001 J0.
X-8.001 Z1.915 I-8.001 J0.
X8.001 Z1.72 I8.001 J0.
X-8.001 Z1.525 I-8.001 J0.
X8.001 Z1.33 I8.001 J0.
X-8.001 Z1.134 I-8.001 J0.
X8.001 Z0.939 I8.001 J0.
X-8.001 Z0.744 I-8.001 J0.
X8.001 Z0.549 I8.001 J0.
X-8.001 Z0.354 I-8.001 J0.
X8.001 Z0.159 I8.001 J0.
X-8.001 Z-0.036 I-8.001 J0.
X8.001 Z-0.231 I8.001 J0.
X-8.001 Z-0.426 I-8.001 J0.
X8.001 Z-0.621 I8.001 J0.
X-8.001 Z-0.816 I-8.001 J0.
X8.001 Z-1.011 I8.001 J0.
X-8.001 Z-1.206 I-8.001 J0.
X8.001 Z-1.402 I8.001 J0.
X-8.001 Z-1.597 I-8.001 J0.
X8.001 Z-1.792 I8.001 J0.
X-8.001 Z-1.987 I-8.001 J0.
X8.001 Z-2.182 I8.001 J0.
X-8.001 Z-2.377 I-8.001 J0.
X8.001 Z-2.572 I8.001 J0.
X-8.001 Z-2.767 I-8.001 J0.
X8.001 Z-2.962 I8.001 J0.
X-8.001 Z-3.157 I-8.001 J0.
X8.001 Z-3.352 I8.001 J0.
X-8.001 Z-3.547 I-8.001 J0.
X8.001 Z-3.742 I8.001 J0.
X-8.001 Z-3.938 I-8.001 J0.
X8.001 Z-4.133 I8.001 J0.
X-8.001 Z-4.328 I-8.001 J0.
X8.001 Z-4.523 I8.001 J0.
X-8.001 Z-4.718 I-8.001 J0.
X8.001 Z-4.913 I8.001 J0.
X-8.001 Z-5.108 I-8.001 J0.
X8.001 Z-5.303 I8.001 J0.
X-8.001 Z-5.498 I-8.001 J0.
X8.001 Z-5.693 I8.001 J0.
X-8.001 Z-5.888 I-8.001 J0.
X8.001 Z-6.083 I8.001 J0.
X-8.001 Z-6.279 I-8.001 J0.
X-3.258 Y7.308 Z-6.35 I8.001 J0.
X3.258 Y-7.308 I3.258 J-7.308
X-3.258 Y7.308 I-3.258 J7.308
X-2.419 Y6.986 I0.259 J-0.58
G1 X-2.29 Y6.696
X-2.25 Y6.606 Z-6.342
X-2.21 Y6.517 Z-6.319
X-2.173 Y6.433 Z-6.281
X-2.138 Y6.355 Z-6.229
X-2.107 Y6.286 Z-6.164
X-2.081 Y6.227 Z-6.088
X-2.06 Y6.18 Z-6.003
X-2.044 Y6.145 Z-5.911
X-2.035 Y6.123 Z-5.814
X-2.031 Y6.116 Z-5.715
G0 Z5.
X9.589 Y0.635
Z4.5
G1 Z3.135 F1600.
G18 G2 X10.224 Z2.5 I0.635 K0.
G1 X10.541
G17 G2 X11.176 Y0. I0. J-0.635
X-11.176 Z2.25 I-11.176 J0.
X11.176 Z1.999 I11.176 J0.
X-11.176 Z1.749 I-11.176 J0.
X11.176 Z1.498 I11.176 J0.
X-11.176 Z1.248 I-11.176 J0.
X11.176 Z0.997 I11.176 J0.
X-11.176 Z0.747 I-11.176 J0.
X11.176 Z0.496 I11.176 J0.
X-11.176 Z0.246 I-11.176 J0.
X11.176 Z-0.005 I11.176 J0.
X-11.176 Z-0.255 I-11.176 J0.
X11.176 Z-0.506 I11.176 J0.
X-11.176 Z-0.756 I-11.176 J0.
X11.176 Z-1.007 I11.176 J0.
X-11.176 Z-1.257 I-11.176 J0.
X11.176 Z-1.508 I11.176 J0.
X-11.176 Z-1.758 I-11.176 J0.
X11.176 Z-2.009 I11.176 J0.
X-11.176 Z-2.259 I-11.176 J0.
X11.176 Z-2.51 I11.176 J0.
X-11.176 Z-2.76 I-11.176 J0.
X11.176 Z-3.011 I11.176 J0.
X-11.176 Z-3.261 I-11.176 J0.
X11.176 Z-3.512 I11.176 J0.
X-11.176 Z-3.762 I-11.176 J0.
X11.176 Z-4.013 I11.176 J0.
X-11.176 Z-4.263 I-11.176 J0.
X11.176 Z-4.514 I11.176 J0.
X-11.176 Z-4.764 I-11.176 J0.
X11.176 Z-5.015 I11.176 J0.
X-11.176 Z-5.265 I-11.176 J0.
X11.176 Z-5.516 I11.176 J0.
X-11.176 Z-5.766 I-11.176 J0.
X11.176 Z-6.017 I11.176 J0.
X-11.176 Z-6.267 I-11.176 J0.
X-5.699 Y9.614 Z-6.35 I11.176 J0.
X5.699 Y-9.614 I5.699 J-9.614
X-5.699 Y9.614 I-5.699 J9.614
X-4.829 Y9.391 I0.324 J-0.546
G1 X-4.667 Y9.118
X-4.616 Y9.033 Z-6.342
X-4.567 Y8.949 Z-6.319
X-4.52 Y8.87 Z-6.281
X-4.477 Y8.797 Z-6.229
X-4.438 Y8.732 Z-6.164
X-4.405 Y8.676 Z-6.088
X-4.378 Y8.632 Z-6.003
X-4.359 Y8.599 Z-5.911
X-4.347 Y8.579 Z-5.814
X-4.343 Y8.572 Z-5.715
G0 Z15.

(BORE3)
G0 X0. Y0.635
Z15.
Z-4.35
G1 Z-5.715 F1600.
G18 G2 X0.635 Z-6.35 I0.635 K0.
G1 X0.952
G17 G2 X1.587 Y0. I0. J-0.635
X-1.587 Z-6.433 I-1.587 J0.
X1.587 Z-6.516 I1.587 J0.
X-1.587 Z-6.599 I-1.587 J0.
X1.587 Z-6.683 I1.587 J0.
X-1.587 Z-6.766 I-1.587 J0.
X1.587 Z-6.849 I1.587 J0.
X-1.587 Z-6.932 I-1.587 J0.
X1.587 Z-7.015 I1.587 J0.
X-1.587 Z-7.098 I-1.587 J0.
X1.587 Z-7.181 I1.587 J0.
X-1.587 Z-7.264 I-1.587 J0.
X1.587 Z-7.348 I1.587 J0.
X-1.587 Z-7.431 I-1.587 J0.
X1.587 Z-7.514 I1.587 J0.
X-1.587 Z-7.597 I-1.587 J0.
X1.587 Z-7.68 I1.587 J0.
X-1.587 Z-7.763 I-1.587 J0.
X1.587 Z-7.846 I1.587 J0.
X-1.587 Z-7.929 I-1.587 J0.
X1.587 Z-8.013 I1.587 J0.
X-1.587 Z-8.096 I-1.587 J0.
X1.587 Z-8.179 I1.587 J0.
X-1.587 Z-8.262 I-1.587 J0.
X1.587 Z-8.345 I1.587 J0.
X-1.587 Z-8.428 I-1.587 J0.
X1.587 Z-8.511 I1.587 J0.
X-1.587 Z-8.595 I-1.587 J0.
X1.587 Z-8.678 I1.587 J0.
X-1.587 Z-8.761 I-1.587 J0.
X1.587 Z-8.844 I1.587 J0.
X-1.587 Z-8.927 I-1.587 J0.
X1.587 Z-9.01 I1.587 J0.
X-1.587 Z-9.093 I-1.587 J0.
X1.587 Z-9.176 I1.587 J0.
X-1.587 Z-9.26 I-1.587 J0.
X1.587 Z-9.343 I1.587 J0.
X-1.587 Z-9.426 I-1.587 J0.
X1.587 Z-9.509 I1.587 J0.
X-1.587 Z-9.592 I-1.587 J0.
X1.587 Z-9.675 I1.587 J0.
X-1.587 Z-9.758 I-1.587 J0.
X1.587 Z-9.841 I1.587 J0.
X-1.587 Z-9.925 I-1.587 J0.
X1.587 Z-10.008 I1.587 J0.
X-1.587 Z-10.091 I-1.587 J0.
X1.587 Z-10.174 I1.587 J0.
X-1.587 Z-10.257 I-1.587 J0.
X1.587 Z-10.34 I1.587 J0.
X-1.587 Z-10.423 I-1.587 J0.
X1.587 Z-10.506 I1.587 J0.
X-1.587 Z-10.59 I-1.587 J0.
X1.587 Z-10.673 I1.587 J0.
X-1.587 Z-10.756 I-1.587 J0.
X1.587 Z-10.839 I1.587 J0.
X-1.587 Z-10.922 I-1.587 J0.
X1.587 Z-11.005 I1.587 J0.
X-1.587 Z-11.088 I-1.587 J0.
X1.587 Z-11.172 I1.587 J0.
X-1.587 Z-11.255 I-1.587 J0.
X1.587 Z-11.338 I1.587 J0.
X-1.587 Z-11.421 I-1.587 J0.
X1.587 Z-11.504 I1.587 J0.
X-1.587 Z-11.587 I-1.587 J0.
X1.587 Z-11.67 I1.587 J0.
X-1.587 Z-11.753 I-1.587 J0.
X1.587 Z-11.837 I1.587 J0.
X-1.587 Z-11.92 I-1.587 J0.
X1.587 Z-12.003 I1.587 J0.
X-1.587 Z-12.086 I-1.587 J0.
X1.587 Z-12.169 I1.587 J0.
X-1.587 Z-12.252 I-1.587 J0.
X1.587 Z-12.335 I1.587 J0.
X-1.587 Z-12.418 I-1.587 J0.
X1.587 Z-12.502 I1.587 J0.
X-1.587 Z-12.585 I-1.587 J0.
X1.587 Z-12.668 I1.587 J0.
X-1.587 Z-12.751 I-1.587 J0.
X1.587 Z-12.834 I1.587 J0.
X-1.587 Z-12.917 I-1.587 J0.
X1.587 Z-13. I1.587 J0.
X-1.587 Z-13.084 I-1.587 J0.
X1.587 Z-13.167 I1.587 J0.
X-1.587 Z-13.25 I-1.587 J0.
X1.587 Z-13.333 I1.587 J0.
X-1.587 Z-13.416 I-1.587 J0.
X1.587 Z-13.499 I1.587 J0.
X-1.587 Z-13.582 I-1.587 J0.
X1.587 Z-13.665 I1.587 J0.
X-1.587 Z-13.749 I-1.587 J0.
X1.587 Z-13.832 I1.587 J0.
X-1.587 Z-13.915 I-1.587 J0.
X1.587 Z-13.998 I1.587 J0.
X-1.587 Z-14.081 I-1.587 J0.
X1.587 Z-14.164 I1.587 J0.
X-1.587 Z-14.247 I-1.587 J0.
X1.587 Z-14.33 I1.587 J0.
X-1.587 Z-14.414 I-1.587 J0.
X1.587 Z-14.497 I1.587 J0.
X-1.587 Z-14.58 I-1.587 J0.
X1.587 Z-14.663 I1.587 J0.
X-1.587 Z-14.746 I-1.587 J0.
X1.587 Z-14.829 I1.587 J0.
X-1.587 Z-14.912 I-1.587 J0.
X1.587 Z-14.995 I1.587 J0.
X-1.587 Z-15.079 I-1.587 J0.
X1.587 Z-15.162 I1.587 J0.
X-1.587 Z-15.245 I-1.587 J0.
X1.587 Z-15.328 I1.587 J0.
X-1.587 Z-15.411 I-1.587 J0.
X1.587 Z-15.494 I1.587 J0.
X-1.587 Z-15.577 I-1.587 J0.
X1.587 Z-15.661 I1.587 J0.
X-1.587 Z-15.744 I-1.587 J0.
X1.587 Z-15.827 I1.587 J0.
X-1.587 Z-15.91 I-1.587 J0.
X1.587 Z-15.993 I1.587 J0.
X-1.587 Z-16.076 I-1.587 J0.
X1.587 Z-16.159 I1.587 J0.
X-1.587 Z-16.242 I-1.587 J0.
X1.587 Z-16.326 I1.587 J0.
X-1.587 Z-16.409 I-1.587 J0.
X1.587 Z-16.492 I1.587 J0.
X-1.587 Z-16.575 I-1.587 J0.
X1.587 Z-16.658 I1.587 J0.
X-1.587 Z-16.741 I-1.587 J0.
X1.587 Z-16.824 I1.587 J0.
X-1.587 Z-16.907 I-1.587 J0.
X1.587 Z-16.991 I1.587 J0.
X-1.587 Z-17.074 I-1.587 J0.
X1.587 Z-17.157 I1.587 J0.
X-1.587 Z-17.24 I-1.587 J0.
X1.587 Z-17.323 I1.587 J0.
X-1.587 Z-17.406 I-1.587 J0.
X1.587 Z-17.489 I1.587 J0.
X-1.587 Z-17.573 I-1.587 J0.
X1.587 Z-17.656 I1.587 J0.
X-1.587 Z-17.739 I-1.587 J0.
X1.587 Z-17.822 I1.587 J0.
X-1.587 Z-17.905 I-1.587 J0.
X1.587 Z-17.988 I1.587 J0.
X-1.587 Z-18.071 I-1.587 J0.
X1.587 Z-18.154 I1.587 J0.
X-1.587 Z-18.238 I-1.587 J0.
X1.587 Z-18.321 I1.587 J0.
X-1.587 Z-18.404 I-1.587 J0.
X1.587 Z-18.487 I1.587 J0.
X-1.587 Z-18.57 I-1.587 J0.
X1.587 Z-18.653 I1.587 J0.
X-1.587 Z-18.736 I-1.587 J0.
X1.587 Z-18.819 I1.587 J0.
X-1.587 Z-18.903 I-1.587 J0.
X1.587 Z-18.986 I1.587 J0.
X-1.201 Y-1.038 Z-19.05 I-1.587 J0.
X1.201 Y1.038 I1.201 J1.038
X-1.201 Y-1.038 I-1.201 J-1.038
X-1.136 Y-0.142 I0.481 J0.415
G1 X-0.896 Y0.065
X-0.82 Y0.13 Z-19.042
X-0.747 Y0.194 Z-19.019
X-0.677 Y0.254 Z-18.981
X-0.613 Y0.309 Z-18.929
X-0.556 Y0.359 Z-18.864
X-0.507 Y0.401 Z-18.788
X-0.467 Y0.435 Z-18.703
X-0.439 Y0.46 Z-18.611
X-0.421 Y0.475 Z-18.514
X-0.415 Y0.481 Z-18.415
G0 Z5.
X3.175 Y0.635
Z-4.35
G1 Z-5.715 F1600.
G18 G2 X3.81 Z-6.35 I0.635 K0.
G1 X4.128
G17 G2 X4.762 Y0. I0. J-0.635
X-4.762 Z-6.489 I-4.762 J0.
X4.762 Z-6.627 I4.762 J0.
X-4.762 Z-6.766 I-4.762 J0.
X4.762 Z-6.904 I4.762 J0.
X-4.762 Z-7.043 I-4.762 J0.
X4.762 Z-7.181 I4.762 J0.
X-4.762 Z-7.32 I-4.762 J0.
X4.762 Z-7.458 I4.762 J0.
X-4.762 Z-7.597 I-4.762 J0.
X4.762 Z-7.735 I4.762 J0.
X-4.762 Z-7.874 I-4.762 J0.
X4.762 Z-8.013 I4.762 J0.
X-4.762 Z-8.151 I-4.762 J0.
X4.762 Z-8.29 I4.762 J0.
X-4.762 Z-8.428 I-4.762 J0.
X4.762 Z-8.567 I4.762 J0.
X-4.762 Z-8.705 I-4.762 J0.
X4.762 Z-8.844 I4.762 J0.
X-4.762 Z-8.982 I-4.762 J0.
X4.762 Z-9.121 I4.762 J0.
X-4.762 Z-9.26 I-4.762 J0.
X4.762 Z-9.398 I4.762 J0.
X-4.762 Z-9.537 I-4.762 J0.
X4.762 Z-9.675 I4.762 J0.
X-4.762 Z-9.814 I-4.762 J0.
X4.762 Z-9.952 I4.762 J0.
X-4.762 Z-10.091 I-4.762 J0.
X4.762 Z-10.229 I4.762 J0.
X-4.762 Z-10.368 I-4.762 J0.
X4.762 Z-10.506 I4.762 J0.
X-4.762 Z-10.645 I-4.762 J0.
X4.762 Z-10.784 I4.762 J0.
X-4.762 Z-10.922 I-4.762 J0.
X4.762 Z-11.061 I4.762 J0.
X-4.762 Z-11.199 I-4.762 J0.
X4.762 Z-11.338 I4.762 J0.
X-4.762 Z-11.476 I-4.762 J0.
X4.762 Z-11.615 I4.762 J0.
X-4.762 Z-11.753 I-4.762 J0.
X4.762 Z-11.892 I4.762 J0.
X-4.762 Z-12.031 I-4.762 J0.
X4.762 Z-12.169 I4.762 J0.
X-4.762 Z-12.308 I-4.762 J0.
X4.762 Z-12.446 I4.762 J0.
X-4.762 Z-12.585 I-4.762 J0.
X4.762 Z-12.723 I4.762 J0.
X-4.762 Z-12.862 I-4.762 J0.
X4.762 Z-13. I4.762 J0.
X-4.762 Z-13.139 I-4.762 J0.
X4.762 Z-13.277 I4.762 J0.
X-4.762 Z-13.416 I-4.762 J0.
X4.762 Z-13.555 I4.762 J0.
X-4.762 Z-13.693 I-4.762 J0.
X4.762 Z-13.832 I4.762 J0.
X-4.762 Z-13.97 I-4.762 J0.
X4.762 Z-14.109 I4.762 J0.
X-4.762 Z-14.247 I-4.762 J0.
X4.762 Z-14.386 I4.762 J0.
X-4.762 Z-14.524 I-4.762 J0.
X4.762 Z-14.663 I4.762 J0.
X-4.762 Z-14.802 I-4.762 J0.
X4.762 Z-14.94 I4.762 J0.
X-4.762 Z-15.079 I-4.762 J0.
X4.762 Z-15.217 I4.762 J0.
X-4.762 Z-15.356 I-4.762 J0.
X4.762 Z-15.494 I4.762 J0.
X-4.762 Z-15.633 I-4.762 J0.
X4.762 Z-15.771 I4.762 J0.
X-4.762 Z-15.91 I-4.762 J0.
X4.762 Z-16.048 I4.762 J0.
X-4.762 Z-16.187 I-4.762 J0.
X4.762 Z-16.326 I4.762 J0.
X-4.762 Z-16.464 I-4.762 J0.
X4.762 Z-16.603 I4.762 J0.
X-4.762 Z-16.741 I-4.762 J0.
X4.762 Z-16.88 I4.762 J0.
X-4.762 Z-17.018 I-4.762 J0.
X4.762 Z-17.157 I4.762 J0.
X-4.762 Z-17.295 I-4.762 J0.
X4.762 Z-17.434 I4.762 J0.
X-4.762 Z-17.573 I-4.762 J0.
X4.762 Z-17.711 I4.762 J0.
X-4.762 Z-17.85 I-4.762 J0.
X4.762 Z-17.988 I4.762 J0.
X-4.762 Z-18.127 I-4.762 J0.
X4.762 Z-18.265 I4.762 J0.
X-4.762 Z-18.404 I-4.762 J0.
X4.762 Z-18.542 I4.762 J0.
X-4.762 Z-18.681 I-4.762 J0.
X4.762 Z-18.819 I4.762 J0.
X-4.762 Z-18.958 I-4.762 J0.
X2.346 Y4.145 Z-19.05 I4.762 J0.
X-2.346 Y-4.145 I-2.346 J-4.145
X2.346 Y4.145 I2.346 J4.145
X2.586 Y3.279 I-0.313 J-0.553
G1 X2.429 Y3.003
X2.38 Y2.917 Z-19.042
X2.333 Y2.832 Z-19.019
X2.287 Y2.752 Z-18.981
X2.245 Y2.678 Z-18.929
X2.208 Y2.612 Z-18.864
X2.176 Y2.556 Z-18.788
X2.151 Y2.511 Z-18.703
X2.132 Y2.477 Z-18.611
X2.12 Y2.457 Z-18.514
X2.117 Y2.45 Z-18.415
G0 Z5.
X6.35 Y0.635
Z-4.35
G1 Z-5.715 F1600.
G18 G2 X6.985 Z-6.35 I0.635 K0.
G1 X7.302
G17 G2 X7.938 Y0. I0. J-0.635
X-7.938 Z-6.544 I-7.938 J0.
X7.938 Z-6.738 I7.938 J0.
X-7.938 Z-6.932 I-7.938 J0.
X7.938 Z-7.126 I7.938 J0.
X-7.938 Z-7.32 I-7.938 J0.
X7.938 Z-7.514 I7.938 J0.
X-7.938 Z-7.708 I-7.938 J0.
X7.938 Z-7.902 I7.938 J0.
X-7.938 Z-8.096 I-7.938 J0.
X7.938 Z-8.29 I7.938 J0.
X-7.938 Z-8.484 I-7.938 J0.
X7.938 Z-8.678 I7.938 J0.
X-7.938 Z-8.872 I-7.938 J0.
X7.938 Z-9.066 I7.938 J0.
X-7.938 Z-9.26 I-7.938 J0.
X7.938 Z-9.454 I7.938 J0.
X-7.938 Z-9.647 I-7.938 J0.
X7.938 Z-9.841 I7.938 J0.
X-7.938 Z-10.035 I-7.938 J0.
X7.938 Z-10.229 I7.938 J0.
X-7.938 Z-10.423 I-7.938 J0.
X7.938 Z-10.617 I7.938 J0.
X-7.938 Z-10.811 I-7.938 J0.
X7.938 Z-11.005 I7.938 J0.
X-7.938 Z-11.199 I-7.938 J0.
X7.938 Z-11.393 I7.938 J0.
X-7.938 Z-11.587 I-7.938 J0.
X7.938 Z-11.781 I7.938 J0.
X-7.938 Z-11.975 I-7.938 J0.
X7.938 Z-12.169 I7.938 J0.
X-7.938 Z-12.363 I-7.938 J0.
X7.938 Z-12.557 I7.938 J0.
X-7.938 Z-12.751 I-7.938 J0.
X7.938 Z-12.945 I7.938 J0.
X-7.938 Z-13.139 I-7.938 J0.
X7.938 Z-13.333 I7.938 J0.
X-7.938 Z-13.527 I-7.938 J0.
X7.938 Z-13.721 I7.938 J0.
X-7.938 Z-13.915 I-7.938 J0.
X7.938 Z-14.109 I7.938 J0.
X-7.938 Z-14.303 I-7.938 J0.
X7.938 Z-14.497 I7.938 J0.
X-7.938 Z-14.691 I-7.938 J0.
X7.938 Z-14.885 I7.938 J0.
X-7.938 Z-15.079 I-7.938 J0.
X7.938 Z-15.273 I7.938 J0.
X-7.938 Z-15.467 I-7.938 J0.
X7.938 Z-15.661 I7.938 J0.
X-7.938 Z-15.855 I-7.938 J0.
X7.938 Z-16.048 I7.938 J0.
X-7.938 Z-16.242 I-7.938 J0.
X7.938 Z-16.436 I7.938 J0.
X-7.938 Z-16.63 I-7.938 J0.
X7.938 Z-16.824 I7.938 J0.
X-7.938 Z-17.018 I-7.938 J0.
X7.938 Z-17.212 I7.938 J0.
X-7.938 Z-17.406 I-7.938 J0.
X7.938 Z-17.6 I7.938 J0.
X-7.938 Z-17.794 I-7.938 J0.
X7.938 Z-17.988 I7.938 J0.
X-7.938 Z-18.182 I-7.938 J0.
X7.938 Z-18.376 I7.938 J0.
X-7.938 Z-18.57 I-7.938 J0.
X7.938 Z-18.764 I7.938 J0.
X-7.938 Z-18.958 I-7.938 J0.
X-0.642 Y7.912 Z-19.05 I7.938 J0.
X0.642 Y-7.912 I0.642 J-7.912
X-0.642 Y7.912 I-0.642 J7.912
X0.043 Y7.33 I0.051 J-0.633
G1 X0.068 Y7.013
X0.076 Y6.914 Z-19.042
X0.084 Y6.818 Z-19.019
X0.092 Y6.726 Z-18.981
X0.098 Y6.641 Z-18.929
X0.105 Y6.566 Z-18.864
X0.11 Y6.501 Z-18.788
X0.114 Y6.45 Z-18.703
X0.117 Y6.412 Z-18.611
X0.119 Y6.388 Z-18.514
X0.12 Y6.381 Z-18.415
G0 Z15.
M5
G0 Z15
G0 X0 Y0

M9
M30
