(1001)
(T1  D=6.35 CR=0. - ZMIN=-4.675 - FLAT END MILL)
G90 G94 G91.1 G40 G49 G17
G21
G0 Z15

(2D CONTOUR1)
M5
T1 M6
S15000 M3
G54
M8
G0 X34.133 Y243.205
G43 Z16. H1
Z5.
G1 Z3.135 F1600.
G19 G2 Y242.57 Z2.5 J-0.635 K0.
G1 Y241.935
G17 G2 X33.498 Y241.3 I-0.635 J0.
G1 X0. Z1.915
G3 X-3.175 Y238.125 Z1.828 I0. J-3.175
G1 Y119.063 Z-0.25
Y0.
G3 X0. Y-3.175 I3.175 J0.
G1 X42.324
G3 X45.499 Y0. I0. J3.175
G1 Y115.062
X50.529
G3 X53.704 Y118.237 I0. J3.175
G1 Y119.81
X81. Y134.366
X87.271
G3 X90.446 Y137.541 I0. J3.175
G1 Y238.125
G3 X87.271 Y241.3 I-3.175 J0.
G1 X0.
G3 X-3.175 Y238.125 I0. J-3.175
G1 Y119.063
Y104.74 Z-0.5
Y0.
G3 X0. Y-3.175 I3.175 J0.
G1 X42.324
G3 X45.499 Y0. I0. J3.175
G1 Y115.062
X50.529
G3 X53.704 Y118.237 I0. J3.175
G1 Y119.81
X81. Y134.366
X87.271
G3 X90.446 Y137.541 I0. J3.175
G1 Y238.125
G3 X87.271 Y241.3 I-3.175 J0.
G1 X0.
G3 X-3.175 Y238.125 I0. J-3.175
G1 Y119.063
Y104.74
Y90.418 Z-0.75
Y0.
G3 X0. Y-3.175 I3.175 J0.
G1 X42.324
G3 X45.499 Y0. I0. J3.175
G1 Y115.062
X50.529
G3 X53.704 Y118.237 I0. J3.175
G1 Y119.81
X81. Y134.366
X87.271
G3 X90.446 Y137.541 I0. J3.175
G1 Y238.125
G3 X87.271 Y241.3 I-3.175 J0.
G1 X0.
G3 X-3.175 Y238.125 I0. J-3.175
G1 Y104.74
Y90.418
Y76.095 Z-1.
Y0.
G3 X0. Y-3.175 I3.175 J0.
G1 X42.324
G3 X45.499 Y0. I0. J3.175
G1 Y115.062
X50.529
G3 X53.704 Y118.237 I0. J3.175
G1 Y119.81
X81. Y134.366
X87.271
G3 X90.446 Y137.541 I0. J3.175
G1 Y238.125
G3 X87.271 Y241.3 I-3.175 J0.
G1 X0.
G3 X-3.175 Y238.125 I0. J-3.175
G1 Y90.418
Y76.095
Y61.773 Z-1.25
Y0.
G3 X0. Y-3.175 I3.175 J0.
G1 X42.324
G3 X45.499 Y0. I0. J3.175
G1 Y115.062
X50.529
G3 X53.704 Y118.237 I0. J3.175
G1 Y119.81
X81. Y134.366
X87.271
G3 X90.446 Y137.541 I0. J3.175
G1 Y238.125
G3 X87.271 Y241.3 I-3.175 J0.
G1 X0.
G3 X-3.175 Y238.125 I0. J-3.175
G1 Y76.095
Y61.773
Y47.45 Z-1.5
Y0.
G3 X0. Y-3.175 I3.175 J0.
G1 X42.324
G3 X45.499 Y0. I0. J3.175
G1 Y115.062
X50.529
G3 X53.704 Y118.237 I0. J3.175
G1 Y119.81
X81. Y134.366
X87.271
G3 X90.446 Y137.541 I0. J3.175
G1 Y238.125
G3 X87.271 Y241.3 I-3.175 J0.
G1 X0.
G3 X-3.175 Y238.125 I0. J-3.175
G1 Y61.773
Y47.45
Y33.128 Z-1.75
Y0.
G3 X0. Y-3.175 I3.175 J0.
G1 X42.324
G3 X45.499 Y0. I0. J3.175
G1 Y115.062
X50.529
G3 X53.704 Y118.237 I0. J3.175
G1 Y119.81
X81. Y134.366
X87.271
G3 X90.446 Y137.541 I0. J3.175
G1 Y238.125
G3 X87.271 Y241.3 I-3.175 J0.
G1 X0.
G3 X-3.175 Y238.125 I0. J-3.175
G1 Y47.45
Y33.128
Y18.805 Z-2.
Y0.
G3 X0. Y-3.175 I3.175 J0.
G1 X42.324
G3 X45.499 Y0. I0. J3.175
G1 Y115.062
X50.529
G3 X53.704 Y118.237 I0. J3.175
G1 Y119.81
X81. Y134.366
X87.271
G3 X90.446 Y137.541 I0. J3.175
G1 Y238.125
G3 X87.271 Y241.3 I-3.175 J0.
G1 X0.
G3 X-3.175 Y238.125 I0. J-3.175
G1 Y33.128
Y18.805
Y4.483 Z-2.25
Y0.
G3 X0. Y-3.175 I3.175 J0.
G1 X42.324
G3 X45.499 Y0. I0. J3.175
G1 Y115.062
X50.529
G3 X53.704 Y118.237 I0. J3.175
G1 Y119.81
X81. Y134.366
X87.271
G3 X90.446 Y137.541 I0. J3.175
G1 Y238.125
G3 X87.271 Y241.3 I-3.175 J0.
G1 X0.
G3 X-3.175 Y238.125 I0. J-3.175
G1 Y18.805
Y4.483
Y0. Z-2.328
G3 X0. Y-3.175 Z-2.415 I3.175 J0.
G1 X4.853 Z-2.5
X42.324
G3 X45.499 Y0. I0. J3.175
G1 Y115.062
X50.529
G3 X53.704 Y118.237 I0. J3.175
G1 Y119.81
X81. Y134.366
X87.271
G3 X90.446 Y137.541 I0. J3.175
G1 Y238.125
G3 X87.271 Y241.3 I-3.175 J0.
G1 X0.
G3 X-3.175 Y238.125 I0. J-3.175
G1 Y4.483
Y0.
G3 X0. Y-3.175 I3.175 J0.
G1 X4.853
X19.175 Z-2.75
X42.324
G3 X45.499 Y0. I0. J3.175
G1 Y115.062
X50.529
G3 X53.704 Y118.237 I0. J3.175
G1 Y119.81
X81. Y134.366
X87.271
G3 X90.446 Y137.541 I0. J3.175
G1 Y238.125
G3 X87.271 Y241.3 I-3.175 J0.
G1 X0.
G3 X-3.175 Y238.125 I0. J-3.175
G1 Y0.
G3 X0. Y-3.175 I3.175 J0.
G1 X19.175
X33.498 Z-3.
X42.324
G3 X45.499 Y0. I0. J3.175
G1 Y115.062
X50.529
G3 X53.704 Y118.237 I0. J3.175
G1 Y119.81
X81. Y134.366
X87.271
G3 X90.446 Y137.541 I0. J3.175
G1 Y238.125
G3 X87.271 Y241.3 I-3.175 J0.
G1 X0.
G3 X-3.175 Y238.125 I0. J-3.175
G1 Y0.
G3 X0. Y-3.175 I3.175 J0.
G1 X19.175
X33.498
X42.324 Z-3.154
G3 X45.499 Y0. Z-3.241 I0. J3.175
G1 Y0.509 Z-3.25
Y115.062
X50.529
G3 X53.704 Y118.237 I0. J3.175
G1 Y119.81
X81. Y134.366
X87.271
G3 X90.446 Y137.541 I0. J3.175
G1 Y238.125
G3 X87.271 Y241.3 I-3.175 J0.
G1 X0.
G3 X-3.175 Y238.125 I0. J-3.175
G1 Y0.
G3 X0. Y-3.175 I3.175 J0.
G1 X33.498
X42.324
G3 X45.499 Y0. I0. J3.175
G1 Y0.509
Y14.831 Z-3.5
Y115.062
X50.529
G3 X53.704 Y118.237 I0. J3.175
G1 Y119.81
X81. Y134.366
X87.271
G3 X90.446 Y137.541 I0. J3.175
G1 Y238.125
G3 X87.271 Y241.3 I-3.175 J0.
G1 X0.
G3 X-3.175 Y238.125 I0. J-3.175
G1 Y0.
G3 X0. Y-3.175 I3.175 J0.
G1 X42.324
G3 X45.499 Y0. I0. J3.175
G1 Y14.831
Y29.154 Z-3.75
Y115.062
X50.529
G3 X53.704 Y118.237 I0. J3.175
G1 Y119.81
X81. Y134.366
X87.271
G3 X90.446 Y137.541 I0. J3.175
G1 Y238.125
G3 X87.271 Y241.3 I-3.175 J0.
G1 X0.
G3 X-3.175 Y238.125 I0. J-3.175
G1 Y0.
G3 X0. Y-3.175 I3.175 J0.
G1 X42.324
G3 X45.499 Y0. I0. J3.175
G1 Y14.831
Y29.154
Y43.476 Z-4.
Y115.062
X50.529
G3 X53.704 Y118.237 I0. J3.175
G1 Y119.81
X81. Y134.366
X87.271
G3 X90.446 Y137.541 I0. J3.175
G1 Y238.125
G3 X87.271 Y241.3 I-3.175 J0.
G1 X0.
G3 X-3.175 Y238.125 I0. J-3.175
G1 Y0.
G3 X0. Y-3.175 I3.175 J0.
G1 X42.324
G3 X45.499 Y0. I0. J3.175
G1 Y29.154
Y43.476
Y57.798 Z-4.25
Y115.062
X50.529
G3 X53.704 Y118.237 I0. J3.175
G1 Y119.81
X81. Y134.366
X87.271
G3 X90.446 Y137.541 I0. J3.175
G1 Y238.125
G3 X87.271 Y241.3 I-3.175 J0.
G1 X0.
G3 X-3.175 Y238.125 I0. J-3.175
G1 Y0.
G3 X0. Y-3.175 I3.175 J0.
G1 X42.324
G3 X45.499 Y0. I0. J3.175
G1 Y43.476
Y57.798
Y72.121 Z-4.5
Y115.062
X50.529
G3 X53.704 Y118.237 I0. J3.175
G1 Y119.81
X81. Y134.366
X87.271
G3 X90.446 Y137.541 I0. J3.175
G1 Y238.125
G3 X87.271 Y241.3 I-3.175 J0.
G1 X0.
G3 X-3.175 Y238.125 I0. J-3.175
G1 Y0.
G3 X0. Y-3.175 I3.175 J0.
G1 X42.324
G3 X45.499 Y0. I0. J3.175
G1 Y57.798
Y72.121
Y82.147 Z-4.675
Y115.062
X50.529
G3 X53.704 Y118.237 I0. J3.175
G1 Y119.81
X81. Y134.366
X87.271
G3 X90.446 Y137.541 I0. J3.175
G1 Y238.125
G3 X87.271 Y241.3 I-3.175 J0.
G1 X0.
G3 X-3.175 Y238.125 I0. J-3.175
G1 Y0.
G3 X0. Y-3.175 I3.175 J0.
G1 X42.324
G3 X45.499 Y0. I0. J3.175
G1 Y72.121
Y82.147
G2 X46.134 Y82.782 I0.635 J0.
G1 X46.769
G18 G2 X47.404 Z-4.04 I0. K0.635
G0 Z16.
G17
M5
G0 Z15
G0 X0 Y0

M9
M30
