(1001)
(T1  D=6.35 CR=0. - ZMIN=-5. - FLAT END MILL)
G90 G94 G91.1 G40 G49 G17
G21
g0 z15

(2D CONTOUR1)
M5
T1 M6
S15000 M3
G54
M8
G0 X55.91 Y87.902
G43 Z17.016 H1
Z7.016
G1 Z5.151 F1000.
X55.915 Y87.907 Z5.052
X55.933 Y87.922 Z4.955
X55.961 Y87.948 Z4.863
X56. Y87.983 Z4.778
X56.048 Y88.026 Z4.702
X56.104 Y88.077 Z4.637
X56.167 Y88.134 Z4.585
X56.235 Y88.196 Z4.547
X56.307 Y88.26 Z4.524
X56.381 Y88.327 Z4.516
X56.852 Y88.753 F1600.
G2 X57.749 Y88.707 I0.426 J-0.471
X40.592 Y73.218 Z3.882 I-8.579 J-7.744 F1000.
X57.749 Y88.707 Z3.249 I8.579 J7.744
X40.592 Y73.218 Z2.615 I-8.579 J-7.744
X57.749 Y88.707 Z1.981 I8.579 J7.744
X49.171 Y69.406 Z1.516 I-8.579 J-7.744
Y92.52 I0. J11.557 F1600.
Y69.406 I0. J-11.557
X42.057 Y90.071 Z1.016 I0. J11.557 F1000.
X56.284 Y71.854 I7.113 J-9.109 F1600.
X42.057 Y90.071 I-7.113 J9.109
X60.383 Y78.162 Z0.516 I7.113 J-9.109 F1000.
X37.958 Y83.763 I-11.213 J2.801 F1600.
X60.383 Y78.162 I11.213 J-2.801
X38.61 Y76.269 Z0.016 I-11.213 J2.801 F1000.
X59.732 Y85.656 I10.561 J4.694 F1600.
X38.61 Y76.269 I-10.561 J-4.694
X54.605 Y91.162 Z-0.484 I10.561 J4.694 F1000.
X43.736 Y70.763 I-5.434 J-10.2 F1600.
X54.605 Y91.162 I5.434 J10.2
X51.165 Y69.579 Z-0.984 I-5.434 J-10.2 F1000.
X47.176 Y92.346 I-1.995 J11.384 F1600.
X51.165 Y69.579 I1.995 J-11.384
X40.592 Y88.707 Z-1.484 I-1.995 J11.384 F1000.
X57.749 Y73.218 I8.579 J-7.744 F1600.
X40.592 Y88.707 I-8.579 J7.744
X60.698 Y80.139 Z-1.984 I8.579 J-7.744 F1000.
X37.643 Y81.786 I-11.528 J0.824 F1600.
X60.698 Y80.139 I11.528 J-0.824
X39.578 Y74.516 Z-2.484 I-11.528 J0.824 F1000.
X58.763 Y87.409 I9.592 J6.446 F1600.
X39.578 Y74.516 I-9.592 J-6.446
X52.763 Y91.947 Z-2.984 I9.592 J6.446 F1000.
X45.578 Y69.978 I-3.593 J-10.984 F1600.
X52.763 Y91.947 I3.593 J10.984
X53.1 Y70.094 Z-3.484 I-3.593 J-10.984 F1000.
X45.241 Y91.831 I-3.929 J10.869 F1600.
X53.1 Y70.094 I3.929 J-10.869
X39.384 Y87.11 Z-3.984 I-3.929 J10.869 F1000.
X58.957 Y74.815 I9.786 J-6.147 F1600.
X39.384 Y87.11 I-9.786 J6.147
X60.667 Y82.141 Z-4.484 I9.786 J-6.147 F1000.
X37.674 Y79.784 I-11.497 J-1.178 F1600.
X60.667 Y82.141 I11.497 J1.178
X53.607 Y70.291 Z-4.742 I-11.497 J-1.178 F1000.
X44.734 Y91.634 I-4.436 J10.672 F1600.
X53.607 Y70.291 I4.436 J-10.672
X40.227 Y73.643 Z-5. I-4.436 J10.672 F1000.
X58.115 Y88.282 I8.944 J7.319 F1600.
X40.227 Y73.643 I-8.944 J-7.319
X40.316 Y74.537 I0.491 J0.402
G1 X40.808 Y74.939
X40.884 Y75.002 Z-4.992
X40.959 Y75.063 Z-4.969
X41.031 Y75.122 Z-4.931
X41.096 Y75.175 Z-4.879
X41.155 Y75.223 Z-4.814
X41.205 Y75.264 Z-4.738
X41.245 Y75.297 Z-4.653
X41.275 Y75.321 Z-4.561
X41.293 Y75.336 Z-4.464
X41.299 Y75.341 Z-4.365
G0 Z7.016
X21.03 Y12.303
G1 Z5.151 F1000.
G18 G3 X20.406 Z4.516 I-0.635 K0.
G1 X12.7 Z4.381
G17 G2 Y13.097 Z4.36 I0. J0.397
G1 X29.624 Z4.064
G2 Y12.303 Z4.043 I0. J-0.397
G1 X12.7 Z3.747
G2 Y13.097 Z3.725 I0. J0.397
G1 X29.624 Z3.43
G2 Y12.303 Z3.408 I0. J-0.397
G1 X12.7 Z3.113
G2 Y13.097 Z3.091 I0. J0.397
G1 X29.624 Z2.796
G2 Y12.303 Z2.774 I0. J-0.397
G1 X12.7 Z2.478
G2 Y13.097 Z2.457 I0. J0.397
G1 X29.624 Z2.161
G2 Y12.303 Z2.139 I0. J-0.397
G1 X12.7 Z1.844
G2 Y13.097 Z1.822 I0. J0.397
G1 X29.624 Z1.527
G2 X30.021 Y12.7 Z1.516 I0. J-0.397
X29.624 Y12.303 I-0.397 J0. F1600.
G1 X12.7
G2 Y13.097 I0. J0.397
G1 X29.624
G2 X30.021 Y12.7 I0. J-0.397
X29.624 Y12.303 Z1.505 I-0.397 J0. F1000.
G1 X12.7 Z1.21
G2 Y13.097 Z1.188 I0. J0.397
G1 X22.55 Z1.016
X29.624 F1600.
G2 Y12.303 I0. J-0.397
G1 X12.7
G2 Y13.097 I0. J0.397
G1 X22.55
X29.624 Z0.893 F1000.
G2 Y12.303 Z0.871 I0. J-0.397
G1 X12.7 Z0.575
G2 Y13.097 Z0.554 I0. J0.397
G1 X14.853 Z0.516
X22.55 F1600.
X29.624
G2 Y12.303 I0. J-0.397
G1 X12.7
G2 Y13.097 I0. J0.397
G1 X14.853
X29.624 Z0.258 F1000.
G2 Y12.303 Z0.236 I0. J-0.397
G1 X16.997 Z0.016
X12.7 F1600.
G2 Y13.097 I0. J0.397
G1 X29.624
G2 Y12.303 I0. J-0.397
G1 X16.997
X12.7 Z-0.059 F1000.
G2 Y13.097 Z-0.081 I0. J0.397
G1 X29.624 Z-0.376
G2 Y12.303 Z-0.398 I0. J-0.397
G1 X24.695 Z-0.484
X16.997 F1600.
X12.7
G2 Y13.097 I0. J0.397
G1 X29.624
G2 Y12.303 I0. J-0.397
G1 X24.695
X12.7 Z-0.693 F1000.
G2 Y13.097 Z-0.715 I0. J0.397
G1 X28.104 Z-0.984
X29.624 F1600.
G2 Y12.303 I0. J-0.397
G1 X12.7
G2 Y13.097 I0. J0.397
G1 X28.104
X29.624 Z-1.011 F1000.
G2 Y12.303 Z-1.032 I0. J-0.397
G1 X12.7 Z-1.328
G2 Y13.097 Z-1.349 I0. J0.397
G1 X20.406 Z-1.484
X28.104 F1600.
X29.624
G2 Y12.303 I0. J-0.397
G1 X12.7
G2 Y13.097 I0. J0.397
G1 X20.406
X29.624 Z-1.645 F1000.
G2 Y12.303 Z-1.667 I0. J-0.397
G1 X12.7 Z-1.962
G2 Y13.097 Z-1.984 I0. J0.397
G1 X12.709
X29.624 F1600.
G2 Y12.303 I0. J-0.397
G1 X12.7
G2 Y13.097 I0. J0.397
G1 X12.709
X29.624 Z-2.279 F1000.
G2 Y12.303 Z-2.301 I0. J-0.397
G1 X19.141 Z-2.484
X12.7 F1600.
G2 Y13.097 I0. J0.397
G1 X29.624
G2 Y12.303 I0. J-0.397
G1 X19.141
X12.7 Z-2.596 F1000.
G2 Y13.097 Z-2.618 I0. J0.397
G1 X29.624 Z-2.914
G2 Y12.303 Z-2.935 I0. J-0.397
G1 X26.839 Z-2.984
X19.141 F1600.
X12.7
G2 Y13.097 I0. J0.397
G1 X29.624
G2 Y12.303 I0. J-0.397
G1 X26.839
X12.7 Z-3.231 F1000.
G2 Y13.097 Z-3.253 I0. J0.397
G1 X25.96 Z-3.484
X29.624 F1600.
G2 Y12.303 I0. J-0.397
G1 X12.7
G2 Y13.097 I0. J0.397
G1 X25.96
X29.624 Z-3.548 F1000.
G2 Y12.303 Z-3.57 I0. J-0.397
G1 X12.7 Z-3.865
G2 Y13.097 Z-3.887 I0. J0.397
G1 X18.262 Z-3.984
X25.96 F1600.
X29.624
G2 Y12.303 I0. J-0.397
G1 X12.7
G2 Y13.097 I0. J0.397
G1 X18.262
X29.624 Z-4.182 F1000.
G2 Y12.303 Z-4.204 I0. J-0.397
G1 X13.588 Z-4.484
X12.7 F1600.
G2 Y13.097 I0. J0.397
G1 X29.624
G2 Y12.303 I0. J-0.397
G1 X13.588
X12.7 Z-4.5 F1000.
G2 Y13.097 Z-4.521 I0. J0.397
G1 X25.346 Z-4.742
X29.624 F1600.
G2 Y12.303 I0. J-0.397
G1 X13.588
X12.7
G2 Y13.097 I0. J0.397
G1 X25.346
X29.624 Z-4.817 F1000.
G2 Y12.303 Z-4.838 I0. J-0.397
G1 X20.369 Z-5.
X12.7 F1600.
G2 Y13.097 I0. J0.397
G1 X25.346
X29.624
G2 Y12.303 I0. J-0.397
G1 X20.369
X20.348 Y12.304 Z-4.999
X20.327 Y12.308 Z-4.995
X20.308 Y12.313 Z-4.989
X20.289 Y12.321 Z-4.981
X20.273 Y12.329 Z-4.971
X20.259 Y12.339 Z-4.959
X20.246 Y12.348 Z-4.945
X20.236 Y12.358 Z-4.929
X20.228 Y12.367 Z-4.912
X20.221 Y12.375 Z-4.893
X20.216 Y12.381 Z-4.874
X20.213 Y12.386 Z-4.853
X20.211 Y12.389 Z-4.833
X20.21 Y12.39 Z-4.811
G0 Z7.016
X66.24 Y13.097
G1 Z5.151 F1000.
G18 G2 X66.864 Z4.516 I0.635 K0.
G1 X74.571 Z4.381
G17 G2 Y12.303 Z4.36 I0. J-0.397
G1 X57.646 Z4.064
G2 Y13.097 Z4.043 I0. J0.397
G1 X74.571 Z3.747
G2 Y12.303 Z3.725 I0. J-0.397
G1 X57.646 Z3.43
G2 Y13.097 Z3.408 I0. J0.397
G1 X74.571 Z3.113
G2 Y12.303 Z3.091 I0. J-0.397
G1 X57.646 Z2.796
G2 Y13.097 Z2.774 I0. J0.397
G1 X74.571 Z2.478
G2 Y12.303 Z2.457 I0. J-0.397
G1 X57.646 Z2.161
G2 Y13.097 Z2.139 I0. J0.397
G1 X74.571 Z1.844
G2 Y12.303 Z1.822 I0. J-0.397
G1 X57.646 Z1.527
G2 X57.25 Y12.7 Z1.516 I0. J0.397
X57.646 Y13.097 I0.397 J0. F1600.
G1 X74.571
G2 Y12.303 I0. J-0.397
G1 X57.646
G2 X57.25 Y12.7 I0. J0.397
X57.646 Y13.097 Z1.505 I0.397 J0. F1000.
G1 X74.571 Z1.21
G2 Y12.303 Z1.188 I0. J-0.397
G1 X64.72 Z1.016
X57.646 F1600.
G2 Y13.097 I0. J0.397
G1 X74.571
G2 Y12.303 I0. J-0.397
G1 X64.72
X57.646 Z0.893 F1000.
G2 Y13.097 Z0.871 I0. J0.397
G1 X74.571 Z0.575
G2 Y12.303 Z0.554 I0. J-0.397
G1 X72.418 Z0.516
X64.72 F1600.
X57.646
G2 Y13.097 I0. J0.397
G1 X74.571
G2 Y12.303 I0. J-0.397
G1 X72.418
X57.646 Z0.258 F1000.
G2 Y13.097 Z0.236 I0. J0.397
G1 X70.273 Z0.016
X74.571 F1600.
G2 Y12.303 I0. J-0.397
G1 X57.646
G2 Y13.097 I0. J0.397
G1 X70.273
X74.571 Z-0.059 F1000.
G2 Y12.303 Z-0.081 I0. J-0.397
G1 X57.646 Z-0.376
G2 Y13.097 Z-0.398 I0. J0.397
G1 X62.576 Z-0.484
X70.273 F1600.
X74.571
G2 Y12.303 I0. J-0.397
G1 X57.646
G2 Y13.097 I0. J0.397
G1 X62.576
X74.571 Z-0.693 F1000.
G2 Y12.303 Z-0.715 I0. J-0.397
G1 X59.167 Z-0.984
X57.646 F1600.
G2 Y13.097 I0. J0.397
G1 X74.571
G2 Y12.303 I0. J-0.397
G1 X59.167
X57.646 Z-1.011 F1000.
G2 Y13.097 Z-1.032 I0. J0.397
G1 X74.571 Z-1.328
G2 Y12.303 Z-1.349 I0. J-0.397
G1 X66.864 Z-1.484
X59.167 F1600.
X57.646
G2 Y13.097 I0. J0.397
G1 X74.571
G2 Y12.303 I0. J-0.397
G1 X66.864
X57.646 Z-1.645 F1000.
G2 Y13.097 Z-1.667 I0. J0.397
G1 X74.571 Z-1.962
G2 Y12.303 Z-1.984 I0. J-0.397
G1 X74.562
X57.646 F1600.
G2 Y13.097 I0. J0.397
G1 X74.571
G2 Y12.303 I0. J-0.397
G1 X74.562
X57.646 Z-2.279 F1000.
G2 Y13.097 Z-2.301 I0. J0.397
G1 X68.129 Z-2.484
X74.571 F1600.
G2 Y12.303 I0. J-0.397
G1 X57.646
G2 Y13.097 I0. J0.397
G1 X68.129
X74.571 Z-2.596 F1000.
G2 Y12.303 Z-2.618 I0. J-0.397
G1 X57.646 Z-2.914
G2 Y13.097 Z-2.935 I0. J0.397
G1 X60.432 Z-2.984
X68.129 F1600.
X74.571
G2 Y12.303 I0. J-0.397
G1 X57.646
G2 Y13.097 I0. J0.397
G1 X60.432
X74.571 Z-3.231 F1000.
G2 Y12.303 Z-3.253 I0. J-0.397
G1 X61.311 Z-3.484
X57.646 F1600.
G2 Y13.097 I0. J0.397
G1 X74.571
G2 Y12.303 I0. J-0.397
G1 X61.311
X57.646 Z-3.548 F1000.
G2 Y13.097 Z-3.57 I0. J0.397
G1 X74.571 Z-3.865
G2 Y12.303 Z-3.887 I0. J-0.397
G1 X69.008 Z-3.984
X61.311 F1600.
X57.646
G2 Y13.097 I0. J0.397
G1 X74.571
G2 Y12.303 I0. J-0.397
G1 X69.008
X57.646 Z-4.182 F1000.
G2 Y13.097 Z-4.204 I0. J0.397
G1 X73.683 Z-4.484
X74.571 F1600.
G2 Y12.303 I0. J-0.397
G1 X57.646
G2 Y13.097 I0. J0.397
G1 X73.683
X74.571 Z-4.5 F1000.
G2 Y12.303 Z-4.521 I0. J-0.397
G1 X61.925 Z-4.742
X57.646 F1600.
G2 Y13.097 I0. J0.397
G1 X73.683
X74.571
G2 Y12.303 I0. J-0.397
G1 X61.925
X57.646 Z-4.817 F1000.
G2 Y13.097 Z-4.838 I0. J0.397
G1 X66.902 Z-5.
X74.571 F1600.
G2 Y12.303 I0. J-0.397
G1 X61.925
X57.646
G2 Y13.097 I0. J0.397
G1 X66.902
X66.923 Y13.096 Z-4.999
X66.944 Y13.092 Z-4.995
X66.963 Y13.087 Z-4.989
X66.981 Y13.079 Z-4.981
X66.998 Y13.071 Z-4.971
X67.012 Y13.061 Z-4.959
X67.024 Y13.052 Z-4.945
X67.035 Y13.042 Z-4.929
X67.043 Y13.033 Z-4.912
X67.05 Y13.025 Z-4.893
X67.055 Y13.019 Z-4.874
X67.058 Y13.014 Z-4.853
X67.06 Y13.011 Z-4.833
X67.061 Y13.01 Z-4.811
G0 Z7.016
X65.349 Y225.028
G1 Z5.151 F1000.
G18 G3 X64.725 Z4.516 I-0.635 K0.
G1 X57.646 Z4.392
G17 G2 Y225.822 Z4.371 I0. J0.397
G1 X74.571 Z4.075
G2 Y225.028 Z4.053 I0. J-0.397
G1 X57.646 Z3.758
G2 Y225.822 Z3.736 I0. J0.397
G1 X74.571 Z3.441
G2 Y225.028 Z3.419 I0. J-0.397
G1 X57.646 Z3.124
G2 Y225.822 Z3.102 I0. J0.397
G1 X74.571 Z2.807
G2 Y225.028 Z2.785 I0. J-0.397
G1 X57.646 Z2.489
G2 Y225.822 Z2.468 I0. J0.397
G1 X74.571 Z2.172
G2 Y225.028 Z2.15 I0. J-0.397
G1 X57.646 Z1.855
G2 Y225.822 Z1.833 I0. J0.397
G1 X74.571 Z1.538
G2 Y225.028 Z1.516 I0. J-0.397
G1 X57.646 F1600.
G2 Y225.822 I0. J0.397
G1 X74.571
G2 Y225.028 I0. J-0.397
G1 X57.646 Z1.221 F1000.
G2 Y225.822 Z1.199 I0. J0.397
G1 X68.12 Z1.016
X74.571 F1600.
G2 Y225.028 I0. J-0.397
G1 X57.646
G2 Y225.822 I0. J0.397
G1 X68.12
X74.571 Z0.903 F1000.
G2 Y225.028 Z0.882 I0. J-0.397
G1 X57.646 Z0.586
G2 Y225.822 Z0.564 I0. J0.397
G1 X60.422 Z0.516
X68.12 F1600.
X74.571
G2 Y225.028 I0. J-0.397
G1 X57.646
G2 Y225.822 I0. J0.397
G1 X60.422
X74.571 Z0.269 F1000.
G2 Y225.028 Z0.247 I0. J-0.397
G1 X61.322 Z0.016
X57.646 F1600.
G2 Y225.822 I0. J0.397
G1 X74.571
G2 Y225.028 I0. J-0.397
G1 X61.322
X57.646 Z-0.048 F1000.
G2 Y225.822 Z-0.07 I0. J0.397
G1 X74.571 Z-0.365
G2 Y225.028 Z-0.387 I0. J-0.397
G1 X69.02 Z-0.484
X61.322 F1600.
X57.646
G2 Y225.822 I0. J0.397
G1 X74.571
G2 Y225.028 I0. J-0.397
G1 X69.02
X57.646 Z-0.683 F1000.
G2 Y225.822 Z-0.704 I0. J0.397
G1 X73.671 Z-0.984
X74.571 F1600.
G2 Y225.028 I0. J-0.397
G1 X57.646
G2 Y225.822 I0. J0.397
G1 X73.671
X74.571 Z-1. F1000.
G2 Y225.028 Z-1.021 I0. J-0.397
G1 X57.646 Z-1.317
G2 Y225.822 Z-1.339 I0. J0.397
G1 X65.973 Z-1.484
X73.671 F1600.
X74.571
G2 Y225.028 I0. J-0.397
G1 X57.646
G2 Y225.822 I0. J0.397
G1 X65.973
X74.571 Z-1.634 F1000.
G2 Y225.028 Z-1.656 I0. J-0.397
G1 X57.646 Z-1.951
G2 Y225.822 Z-1.973 I0. J0.397
G1 X58.275 Z-1.984
X74.571 F1600.
G2 Y225.028 I0. J-0.397
G1 X57.646
G2 Y225.822 I0. J0.397
G1 X58.275
X74.571 Z-2.268 F1000.
G2 Y225.028 Z-2.29 I0. J-0.397
G1 X63.469 Z-2.484
X57.646 F1600.
G2 Y225.822 I0. J0.397
G1 X74.571
G2 Y225.028 I0. J-0.397
G1 X63.469
X57.646 Z-2.586 F1000.
G2 Y225.822 Z-2.607 I0. J0.397
G1 X74.571 Z-2.903
G2 Y225.028 Z-2.925 I0. J-0.397
G1 X71.167 Z-2.984
X63.469 F1600.
X57.646
G2 Y225.822 I0. J0.397
G1 X74.571
G2 Y225.028 I0. J-0.397
G1 X71.167
X57.646 Z-3.22 F1000.
G2 Y225.822 Z-3.242 I0. J0.397
G1 X71.524 Z-3.484
X74.571 F1600.
G2 Y225.028 I0. J-0.397
G1 X57.646
G2 Y225.822 I0. J0.397
G1 X71.524
X74.571 Z-3.537 F1000.
G2 Y225.028 Z-3.559 I0. J-0.397
G1 X57.646 Z-3.854
G2 Y225.822 Z-3.876 I0. J0.397
G1 X63.825 Z-3.984
X71.524 F1600.
X74.571
G2 Y225.028 I0. J-0.397
G1 X57.646
G2 Y225.822 I0. J0.397
G1 X63.825
X74.571 Z-4.172 F1000.
G2 Y225.028 Z-4.193 I0. J-0.397
G1 X57.918 Z-4.484
X57.646 F1600.
G2 Y225.822 I0. J0.397
G1 X74.571
G2 Y225.028 I0. J-0.397
G1 X57.918
X57.646 Z-4.489 F1000.
G2 Y225.822 Z-4.511 I0. J0.397
G1 X70.908 Z-4.742
X74.571 F1600.
G2 Y225.028 I0. J-0.397
G1 X57.918
X57.646
G2 Y225.822 I0. J0.397
G1 X70.908
X74.571 Z-4.806 F1000.
G2 Y225.028 Z-4.828 I0. J-0.397
G1 X64.7 Z-5.
X57.646 F1600.
G2 Y225.822 I0. J0.397
G1 X70.908
X74.571
G2 Y225.028 I0. J-0.397
G1 X64.7
X64.678 Y225.029 Z-4.999
X64.658 Y225.033 Z-4.995
X64.638 Y225.038 Z-4.989
X64.62 Y225.045 Z-4.981
X64.604 Y225.054 Z-4.971
X64.589 Y225.063 Z-4.959
X64.577 Y225.073 Z-4.945
X64.567 Y225.083 Z-4.929
X64.558 Y225.092 Z-4.912
X64.552 Y225.1 Z-4.893
X64.547 Y225.106 Z-4.874
X64.543 Y225.111 Z-4.853
X64.542 Y225.114 Z-4.833
X64.541 Y225.115 Z-4.811
G0 Z17.016

M9
M30
