(1001)
(T1  D=6.35 CR=0. - ZMIN=-4.675 - FLAT END MILL)
G90 G94 G91.1 G40 G49 G17
G21
G0 Z15

(2D CONTOUR1)
M5
T1 M6
S15000 M3
G54
M8
G0 X34.133 Y-5.08
G43 Z16. H1
Z5.
G1 Z3.135 F1600.
G19 G3 Y-4.445 Z2.5 J0.635 K0.
G1 Y-3.81
G17 G3 X33.498 Y-3.175 I-0.635 J0.
G1 X0. Z1.915
G2 X-3.175 Y0. Z1.828 I0. J3.175
G1 Y119.063 Z-0.25
Y238.125
G2 X0. Y241.3 I3.175 J0.
G1 X87.271
G2 X90.446 Y238.125 I0. J-3.175
G1 Y137.541
G2 X87.271 Y134.366 I-3.175 J0.
G1 X81.
X53.704 Y119.81
Y118.237
G2 X50.529 Y115.062 I-3.175 J0.
G1 X45.499
Y0.
G2 X42.324 Y-3.175 I-3.175 J0.
G1 X0.
G2 X-3.175 Y0. I0. J3.175
G1 Y119.063
Y133.385 Z-0.5
Y238.125
G2 X0. Y241.3 I3.175 J0.
G1 X87.271
G2 X90.446 Y238.125 I0. J-3.175
G1 Y137.541
G2 X87.271 Y134.366 I-3.175 J0.
G1 X81.
X53.704 Y119.81
Y118.237
G2 X50.529 Y115.062 I-3.175 J0.
G1 X45.499
Y0.
G2 X42.324 Y-3.175 I-3.175 J0.
G1 X0.
G2 X-3.175 Y0. I0. J3.175
G1 Y119.063
Y133.385
Y147.707 Z-0.75
Y238.125
G2 X0. Y241.3 I3.175 J0.
G1 X87.271
G2 X90.446 Y238.125 I0. J-3.175
G1 Y137.541
G2 X87.271 Y134.366 I-3.175 J0.
G1 X81.
X53.704 Y119.81
Y118.237
G2 X50.529 Y115.062 I-3.175 J0.
G1 X45.499
Y0.
G2 X42.324 Y-3.175 I-3.175 J0.
G1 X0.
G2 X-3.175 Y0. I0. J3.175
G1 Y133.385
Y147.707
Y162.03 Z-1.
Y238.125
G2 X0. Y241.3 I3.175 J0.
G1 X87.271
G2 X90.446 Y238.125 I0. J-3.175
G1 Y137.541
G2 X87.271 Y134.366 I-3.175 J0.
G1 X81.
X53.704 Y119.81
Y118.237
G2 X50.529 Y115.062 I-3.175 J0.
G1 X45.499
Y0.
G2 X42.324 Y-3.175 I-3.175 J0.
G1 X0.
G2 X-3.175 Y0. I0. J3.175
G1 Y147.707
Y162.03
Y176.352 Z-1.25
Y238.125
G2 X0. Y241.3 I3.175 J0.
G1 X87.271
G2 X90.446 Y238.125 I0. J-3.175
G1 Y137.541
G2 X87.271 Y134.366 I-3.175 J0.
G1 X81.
X53.704 Y119.81
Y118.237
G2 X50.529 Y115.062 I-3.175 J0.
G1 X45.499
Y0.
G2 X42.324 Y-3.175 I-3.175 J0.
G1 X0.
G2 X-3.175 Y0. I0. J3.175
G1 Y162.03
Y176.352
Y190.675 Z-1.5
Y238.125
G2 X0. Y241.3 I3.175 J0.
G1 X87.271
G2 X90.446 Y238.125 I0. J-3.175
G1 Y137.541
G2 X87.271 Y134.366 I-3.175 J0.
G1 X81.
X53.704 Y119.81
Y118.237
G2 X50.529 Y115.062 I-3.175 J0.
G1 X45.499
Y0.
G2 X42.324 Y-3.175 I-3.175 J0.
G1 X0.
G2 X-3.175 Y0. I0. J3.175
G1 Y176.352
Y190.675
Y204.997 Z-1.75
Y238.125
G2 X0. Y241.3 I3.175 J0.
G1 X87.271
G2 X90.446 Y238.125 I0. J-3.175
G1 Y137.541
G2 X87.271 Y134.366 I-3.175 J0.
G1 X81.
X53.704 Y119.81
Y118.237
G2 X50.529 Y115.062 I-3.175 J0.
G1 X45.499
Y0.
G2 X42.324 Y-3.175 I-3.175 J0.
G1 X0.
G2 X-3.175 Y0. I0. J3.175
G1 Y190.675
Y204.997
Y219.32 Z-2.
Y238.125
G2 X0. Y241.3 I3.175 J0.
G1 X87.271
G2 X90.446 Y238.125 I0. J-3.175
G1 Y137.541
G2 X87.271 Y134.366 I-3.175 J0.
G1 X81.
X53.704 Y119.81
Y118.237
G2 X50.529 Y115.062 I-3.175 J0.
G1 X45.499
Y0.
G2 X42.324 Y-3.175 I-3.175 J0.
G1 X0.
G2 X-3.175 Y0. I0. J3.175
G1 Y204.997
Y219.32
Y233.642 Z-2.25
Y238.125
G2 X0. Y241.3 I3.175 J0.
G1 X87.271
G2 X90.446 Y238.125 I0. J-3.175
G1 Y137.541
G2 X87.271 Y134.366 I-3.175 J0.
G1 X81.
X53.704 Y119.81
Y118.237
G2 X50.529 Y115.062 I-3.175 J0.
G1 X45.499
Y0.
G2 X42.324 Y-3.175 I-3.175 J0.
G1 X0.
G2 X-3.175 Y0. I0. J3.175
G1 Y219.32
Y233.642
Y238.125 Z-2.328
G2 X0. Y241.3 Z-2.415 I3.175 J0.
G1 X4.853 Z-2.5
X87.271
G2 X90.446 Y238.125 I0. J-3.175
G1 Y137.541
G2 X87.271 Y134.366 I-3.175 J0.
G1 X81.
X53.704 Y119.81
Y118.237
G2 X50.529 Y115.062 I-3.175 J0.
G1 X45.499
Y0.
G2 X42.324 Y-3.175 I-3.175 J0.
G1 X0.
G2 X-3.175 Y0. I0. J3.175
G1 Y233.642
Y238.125
G2 X0. Y241.3 I3.175 J0.
G1 X4.853
X19.175 Z-2.75
X87.271
G2 X90.446 Y238.125 I0. J-3.175
G1 Y137.541
G2 X87.271 Y134.366 I-3.175 J0.
G1 X81.
X53.704 Y119.81
Y118.237
G2 X50.529 Y115.062 I-3.175 J0.
G1 X45.499
Y0.
G2 X42.324 Y-3.175 I-3.175 J0.
G1 X0.
G2 X-3.175 Y0. I0. J3.175
G1 Y238.125
G2 X0. Y241.3 I3.175 J0.
G1 X19.175
X33.498 Z-3.
X87.271
G2 X90.446 Y238.125 I0. J-3.175
G1 Y137.541
G2 X87.271 Y134.366 I-3.175 J0.
G1 X81.
X53.704 Y119.81
Y118.237
G2 X50.529 Y115.062 I-3.175 J0.
G1 X45.499
Y0.
G2 X42.324 Y-3.175 I-3.175 J0.
G1 X0.
G2 X-3.175 Y0. I0. J3.175
G1 Y238.125
G2 X0. Y241.3 I3.175 J0.
G1 X19.175
X33.498
X47.82 Z-3.25
X87.271
G2 X90.446 Y238.125 I0. J-3.175
G1 Y137.541
G2 X87.271 Y134.366 I-3.175 J0.
G1 X81.
X53.704 Y119.81
Y118.237
G2 X50.529 Y115.062 I-3.175 J0.
G1 X45.499
Y0.
G2 X42.324 Y-3.175 I-3.175 J0.
G1 X0.
G2 X-3.175 Y0. I0. J3.175
G1 Y238.125
G2 X0. Y241.3 I3.175 J0.
G1 X33.498
X47.82
X62.143 Z-3.5
X87.271
G2 X90.446 Y238.125 I0. J-3.175
G1 Y137.541
G2 X87.271 Y134.366 I-3.175 J0.
G1 X81.
X53.704 Y119.81
Y118.237
G2 X50.529 Y115.062 I-3.175 J0.
G1 X45.499
Y0.
G2 X42.324 Y-3.175 I-3.175 J0.
G1 X0.
G2 X-3.175 Y0. I0. J3.175
G1 Y238.125
G2 X0. Y241.3 I3.175 J0.
G1 X47.82
X62.143
X76.465 Z-3.75
X87.271
G2 X90.446 Y238.125 I0. J-3.175
G1 Y137.541
G2 X87.271 Y134.366 I-3.175 J0.
G1 X81.
X53.704 Y119.81
Y118.237
G2 X50.529 Y115.062 I-3.175 J0.
G1 X45.499
Y0.
G2 X42.324 Y-3.175 I-3.175 J0.
G1 X0.
G2 X-3.175 Y0. I0. J3.175
G1 Y238.125
G2 X0. Y241.3 I3.175 J0.
G1 X62.143
X76.465
X87.271 Z-3.939
G2 X90.111 Y239.543 Z-4. I0. J-3.175
X90.446 Y238.125 I-2.841 J-1.418
G1 Y137.541
G2 X87.271 Y134.366 I-3.175 J0.
G1 X81.
X53.704 Y119.81
Y118.237
G2 X50.529 Y115.062 I-3.175 J0.
G1 X45.499
Y0.
G2 X42.324 Y-3.175 I-3.175 J0.
G1 X0.
G2 X-3.175 Y0. I0. J3.175
G1 Y238.125
G2 X0. Y241.3 I3.175 J0.
G1 X76.465
X87.271
G2 X90.111 Y239.543 I0. J-3.175
X90.446 Y238.125 Z-4.026 I-2.841 J-1.418
G1 Y225.273 Z-4.25
Y137.541
G2 X87.271 Y134.366 I-3.175 J0.
G1 X81.
X53.704 Y119.81
Y118.237
G2 X50.529 Y115.062 I-3.175 J0.
G1 X45.499
Y0.
G2 X42.324 Y-3.175 I-3.175 J0.
G1 X0.
G2 X-3.175 Y0. I0. J3.175
G1 Y238.125
G2 X0. Y241.3 I3.175 J0.
G1 X87.271
G2 X90.446 Y238.125 I0. J-3.175
G1 Y225.273
Y210.95 Z-4.5
Y137.541
G2 X87.271 Y134.366 I-3.175 J0.
G1 X81.
X53.704 Y119.81
Y118.237
G2 X50.529 Y115.062 I-3.175 J0.
G1 X45.499
Y0.
G2 X42.324 Y-3.175 I-3.175 J0.
G1 X0.
G2 X-3.175 Y0. I0. J3.175
G1 Y238.125
G2 X0. Y241.3 I3.175 J0.
G1 X87.271
G2 X90.446 Y238.125 I0. J-3.175
G1 Y210.95
Y200.925 Z-4.675
Y137.541
G2 X87.271 Y134.366 I-3.175 J0.
G1 X81.
X53.704 Y119.81
Y118.237
G2 X50.529 Y115.062 I-3.175 J0.
G1 X45.499
Y0.
G2 X42.324 Y-3.175 I-3.175 J0.
G1 X0.
G2 X-3.175 Y0. I0. J3.175
G1 Y238.125
G2 X0. Y241.3 I3.175 J0.
G1 X87.271
G2 X90.446 Y238.125 I0. J-3.175
G1 Y210.95
Y200.925
G3 X91.081 Y200.29 I0.635 J0.
G1 X91.716
G18 G2 X92.351 Z-4.04 I0. K0.635
G0 Z16.
G17
M5
G0 Z15
G0 X0 Y0

M9
M30
