(1001)
(T1  D=6.35 CR=0. - ZMIN=-1. - FLAT END MILL)
G90 G94 G91.1 G40 G49 G17
G21
g0 z15

(2D CONTOUR1)
M5
T1 M6
S15000 M3
G54
M8
G0 X55.91 Y87.902
G43 Z17.016 H1
Z7.016
G1 Z5.151 F16000.
X55.915 Y87.907 Z5.052
X55.933 Y87.922 Z4.955
X55.961 Y87.948 Z4.863
X56. Y87.983 Z4.778
X56.048 Y88.026 Z4.702
X56.104 Y88.077 Z4.637
X56.167 Y88.134 Z4.585
X56.235 Y88.196 Z4.547
X56.307 Y88.26 Z4.524
X56.381 Y88.327 Z4.516
X56.852 Y88.753 F1600.
G2 X57.749 Y88.707 I0.426 J-0.471
X40.592 Y73.218 Z3.882 I-8.579 J-7.744 F16000.
X57.749 Y88.707 Z3.249 I8.579 J7.744
X40.592 Y73.218 Z2.615 I-8.579 J-7.744
X57.749 Y88.707 Z1.981 I8.579 J7.744
X49.171 Y69.406 Z1.516 I-8.579 J-7.744
Y92.52 I0. J11.557 F1600.
Y69.406 I0. J-11.557
X42.057 Y90.071 Z1.016 I0. J11.557 F16000.
X56.284 Y71.854 I7.113 J-9.109 F1600.
X42.057 Y90.071 I-7.113 J9.109
X60.383 Y78.162 Z0.516 I7.113 J-9.109 F16000.
X37.958 Y83.763 I-11.213 J2.801 F1600.
X60.383 Y78.162 I11.213 J-2.801
X38.61 Y76.269 Z0.016 I-11.213 J2.801 F16000.
X59.732 Y85.656 I10.561 J4.694 F1600.
X38.61 Y76.269 I-10.561 J-4.694
X54.605 Y91.162 Z-0.484 I10.561 J4.694 F16000.
X43.736 Y70.763 I-5.434 J-10.2 F1600.
X54.605 Y91.162 I5.434 J10.2
X60.503 Y78.692 Z-0.742 I-5.434 J-10.2 F16000.
X37.839 Y83.233 I-11.332 J2.27 F1600.
X60.503 Y78.692 I11.332 J-2.27
X50.257 Y69.457 Z-1. I-11.332 J2.27 F16000.
X48.084 Y92.468 I-1.086 J11.506 F1600.
X50.257 Y69.457 I1.086 J-11.506
X49.565 Y70.029 I-0.06 J0.632
G1 X49.506 Y70.661
X49.496 Y70.76 Z-0.992
X49.487 Y70.857 Z-0.969
X49.478 Y70.948 Z-0.931
X49.47 Y71.033 Z-0.879
X49.463 Y71.108 Z-0.814
X49.457 Y71.173 Z-0.738
X49.452 Y71.225 Z-0.653
X49.449 Y71.263 Z-0.561
X49.447 Y71.286 Z-0.464
X49.446 Y71.294 Z-0.365
G0 Z7.016
X66.24 Y13.097
G1 Z5.151 F16000.
G18 G2 X66.864 Z4.516 I0.635 K0.
G1 X74.571 Z4.381
G17 G2 Y12.303 Z4.36 I0. J-0.397
G1 X57.646 Z4.064
G2 Y13.097 Z4.043 I0. J0.397
G1 X74.571 Z3.747
G2 Y12.303 Z3.725 I0. J-0.397
G1 X57.646 Z3.43
G2 Y13.097 Z3.408 I0. J0.397
G1 X74.571 Z3.113
G2 Y12.303 Z3.091 I0. J-0.397
G1 X57.646 Z2.796
G2 Y13.097 Z2.774 I0. J0.397
G1 X74.571 Z2.478
G2 Y12.303 Z2.457 I0. J-0.397
G1 X57.646 Z2.161
G2 Y13.097 Z2.139 I0. J0.397
G1 X74.571 Z1.844
G2 Y12.303 Z1.822 I0. J-0.397
G1 X57.646 Z1.527
G2 X57.25 Y12.7 Z1.516 I0. J0.397
X57.646 Y13.097 I0.397 J0. F1600.
G1 X74.571
G2 Y12.303 I0. J-0.397
G1 X57.646
G2 X57.25 Y12.7 I0. J0.397
X57.646 Y13.097 Z1.505 I0.397 J0. F16000.
G1 X74.571 Z1.21
G2 Y12.303 Z1.188 I0. J-0.397
G1 X64.72 Z1.016
X57.646 F1600.
G2 Y13.097 I0. J0.397
G1 X74.571
G2 Y12.303 I0. J-0.397
G1 X64.72
X57.646 Z0.893 F16000.
G2 Y13.097 Z0.871 I0. J0.397
G1 X74.571 Z0.575
G2 Y12.303 Z0.554 I0. J-0.397
G1 X72.418 Z0.516
X64.72 F1600.
X57.646
G2 Y13.097 I0. J0.397
G1 X74.571
G2 Y12.303 I0. J-0.397
G1 X72.418
X57.646 Z0.258 F16000.
G2 Y13.097 Z0.236 I0. J0.397
G1 X70.273 Z0.016
X74.571 F1600.
G2 Y12.303 I0. J-0.397
G1 X57.646
G2 Y13.097 I0. J0.397
G1 X70.273
X74.571 Z-0.059 F16000.
G2 Y12.303 Z-0.081 I0. J-0.397
G1 X57.646 Z-0.376
G2 Y13.097 Z-0.398 I0. J0.397
G1 X62.576 Z-0.484
X70.273 F1600.
X74.571
G2 Y12.303 I0. J-0.397
G1 X57.646
G2 Y13.097 I0. J0.397
G1 X62.576
X74.571 Z-0.693 F16000.
G2 Y12.303 Z-0.715 I0. J-0.397
G1 X73.031 Z-0.742
X57.646 F1600.
G2 Y13.097 I0. J0.397
G1 X74.571
G2 Y12.303 I0. J-0.397
G1 X73.031
X58.25 Z-1. F16000.
X57.646 F1600.
G2 Y13.097 I0. J0.397
G1 X74.571
G2 Y12.303 I0. J-0.397
G1 X58.25
X58.229 Y12.304 Z-0.999
X58.209 Y12.308 Z-0.995
X58.189 Y12.313 Z-0.989
X58.171 Y12.321 Z-0.981
X58.155 Y12.329 Z-0.971
X58.14 Y12.339 Z-0.959
X58.128 Y12.348 Z-0.945
X58.118 Y12.358 Z-0.929
X58.109 Y12.367 Z-0.912
X58.103 Y12.375 Z-0.893
X58.098 Y12.381 Z-0.874
X58.094 Y12.386 Z-0.853
X58.092 Y12.389 Z-0.833
Y12.39 Z-0.811
G0 Z7.016
X21.03 Y12.303
G1 Z5.151 F16000.
G18 G3 X20.406 Z4.516 I-0.635 K0.
G1 X12.7 Z4.381
G17 G2 Y13.097 Z4.36 I0. J0.397
G1 X29.624 Z4.064
G2 Y12.303 Z4.043 I0. J-0.397
G1 X12.7 Z3.747
G2 Y13.097 Z3.725 I0. J0.397
G1 X29.624 Z3.43
G2 Y12.303 Z3.408 I0. J-0.397
G1 X12.7 Z3.113
G2 Y13.097 Z3.091 I0. J0.397
G1 X29.624 Z2.796
G2 Y12.303 Z2.774 I0. J-0.397
G1 X12.7 Z2.478
G2 Y13.097 Z2.457 I0. J0.397
G1 X29.624 Z2.161
G2 Y12.303 Z2.139 I0. J-0.397
G1 X12.7 Z1.844
G2 Y13.097 Z1.822 I0. J0.397
G1 X29.624 Z1.527
G2 X30.021 Y12.7 Z1.516 I0. J-0.397
X29.624 Y12.303 I-0.397 J0. F1600.
G1 X12.7
G2 Y13.097 I0. J0.397
G1 X29.624
G2 X30.021 Y12.7 I0. J-0.397
X29.624 Y12.303 Z1.505 I-0.397 J0. F16000.
G1 X12.7 Z1.21
G2 Y13.097 Z1.188 I0. J0.397
G1 X22.55 Z1.016
X29.624 F1600.
G2 Y12.303 I0. J-0.397
G1 X12.7
G2 Y13.097 I0. J0.397
G1 X22.55
X29.624 Z0.893 F16000.
G2 Y12.303 Z0.871 I0. J-0.397
G1 X12.7 Z0.575
G2 Y13.097 Z0.554 I0. J0.397
G1 X14.853 Z0.516
X22.55 F1600.
X29.624
G2 Y12.303 I0. J-0.397
G1 X12.7
G2 Y13.097 I0. J0.397
G1 X14.853
X29.624 Z0.258 F16000.
G2 Y12.303 Z0.236 I0. J-0.397
G1 X16.997 Z0.016
X12.7 F1600.
G2 Y13.097 I0. J0.397
G1 X29.624
G2 Y12.303 I0. J-0.397
G1 X16.997
X12.7 Z-0.059 F16000.
G2 Y13.097 Z-0.081 I0. J0.397
G1 X29.624 Z-0.376
G2 Y12.303 Z-0.398 I0. J-0.397
G1 X24.695 Z-0.484
X16.997 F1600.
X12.7
G2 Y13.097 I0. J0.397
G1 X29.624
G2 Y12.303 I0. J-0.397
G1 X24.695
X12.7 Z-0.693 F16000.
G2 Y13.097 Z-0.715 I0. J0.397
G1 X14.239 Z-0.742
X29.624 F1600.
G2 Y12.303 I0. J-0.397
G1 X12.7
G2 Y13.097 I0. J0.397
G1 X14.239
X29.02 Z-1. F16000.
X29.624 F1600.
G2 Y12.303 I0. J-0.397
G1 X12.7
G2 Y13.097 I0. J0.397
G1 X29.02
X29.041 Y13.096 Z-0.999
X29.062 Y13.092 Z-0.995
X29.081 Y13.087 Z-0.989
X29.1 Y13.079 Z-0.981
X29.116 Y13.071 Z-0.971
X29.13 Y13.061 Z-0.959
X29.143 Y13.052 Z-0.945
X29.153 Y13.042 Z-0.929
X29.162 Y13.033 Z-0.912
X29.168 Y13.025 Z-0.893
X29.173 Y13.019 Z-0.874
X29.176 Y13.014 Z-0.853
X29.178 Y13.011 Z-0.833
X29.179 Y13.01 Z-0.811
G0 Z7.016
X65.349 Y225.028
G1 Z5.151 F16000.
G18 G3 X64.725 Z4.516 I-0.635 K0.
G1 X57.646 Z4.392
G17 G2 Y225.822 Z4.371 I0. J0.397
G1 X74.571 Z4.075
G2 Y225.028 Z4.053 I0. J-0.397
G1 X57.646 Z3.758
G2 Y225.822 Z3.736 I0. J0.397
G1 X74.571 Z3.441
G2 Y225.028 Z3.419 I0. J-0.397
G1 X57.646 Z3.124
G2 Y225.822 Z3.102 I0. J0.397
G1 X74.571 Z2.807
G2 Y225.028 Z2.785 I0. J-0.397
G1 X57.646 Z2.489
G2 Y225.822 Z2.468 I0. J0.397
G1 X74.571 Z2.172
G2 Y225.028 Z2.15 I0. J-0.397
G1 X57.646 Z1.855
G2 Y225.822 Z1.833 I0. J0.397
G1 X74.571 Z1.538
G2 Y225.028 Z1.516 I0. J-0.397
G1 X57.646 F1600.
G2 Y225.822 I0. J0.397
G1 X74.571
G2 Y225.028 I0. J-0.397
G1 X57.646 Z1.221 F16000.
G2 Y225.822 Z1.199 I0. J0.397
G1 X68.12 Z1.016
X74.571 F1600.
G2 Y225.028 I0. J-0.397
G1 X57.646
G2 Y225.822 I0. J0.397
G1 X68.12
X74.571 Z0.903 F16000.
G2 Y225.028 Z0.882 I0. J-0.397
G1 X57.646 Z0.586
G2 Y225.822 Z0.564 I0. J0.397
G1 X60.422 Z0.516
X68.12 F1600.
X74.571
G2 Y225.028 I0. J-0.397
G1 X57.646
G2 Y225.822 I0. J0.397
G1 X60.422
X74.571 Z0.269 F16000.
G2 Y225.028 Z0.247 I0. J-0.397
G1 X61.322 Z0.016
X57.646 F1600.
G2 Y225.822 I0. J0.397
G1 X74.571
G2 Y225.028 I0. J-0.397
G1 X61.322
X57.646 Z-0.048 F16000.
G2 Y225.822 Z-0.07 I0. J0.397
G1 X74.571 Z-0.365
G2 Y225.028 Z-0.387 I0. J-0.397
G1 X69.02 Z-0.484
X61.322 F1600.
X57.646
G2 Y225.822 I0. J0.397
G1 X74.571
G2 Y225.028 I0. J-0.397
G1 X69.02
X57.646 Z-0.683 F16000.
G2 Y225.822 Z-0.704 I0. J0.397
G1 X59.807 Z-0.742
X74.571 F1600.
G2 Y225.028 I0. J-0.397
G1 X57.646
G2 Y225.822 I0. J0.397
G1 X59.807
X74.571 Z-1. F16000.
X74.587
G2 X74.571 Y225.028 I-0.017 J-0.397 F1600.
G1 X57.646
G2 Y225.822 I0. J0.397
G1 X74.571
X74.587
X74.608 Y225.82 Z-0.999
X74.629 Y225.815 Z-0.995
X74.648 Y225.809 Z-0.989
X74.666 Y225.801 Z-0.981
X74.682 Y225.792 Z-0.971
X74.696 Y225.782 Z-0.959
X74.708 Y225.771 Z-0.945
X74.718 Y225.761 Z-0.929
X74.726 Y225.752 Z-0.912
X74.732 Y225.744 Z-0.893
X74.737 Y225.737 Z-0.874
X74.74 Y225.732 Z-0.853
X74.742 Y225.729 Z-0.833
Y225.728 Z-0.811
G0 Z17.016

M9
M30
