(1001)
(T1  D=6.35 CR=0. - ZMIN=-5. - FLAT END MILL)
G90 G94 G91.1 G40 G49 G17
G21
g0 z15

(2D CONTOUR2)
M5
T1 M6
S15000 M3
G54
M8
G0 X39.866 Y236.981
G43 Z17.016 H1
Z7.016
G1 Z5.151 F1000.
G18 G2 X40.501 Z4.516 I0.635 K0.
G1 X41.136 F1600.
G17 G3 X41.771 Y237.616 I0. J0.635
G1 Y238.125 Z4.507 F1000.
G2 X44.946 Y241.3 Z4.42 I3.175 J0.
G1 X87.271 Z3.681
G2 X90.446 Y238.125 Z3.594 I0. J-3.175
G1 Y119.063 Z1.516
Y0. F1600.
G2 X87.271 Y-3.175 I-3.175 J0.
G1 X0.
G2 X-3.175 Y0. I0. J3.175
G1 Y100.584
G2 X0. Y103.759 I3.175 J0.
G1 X6.271
X33.566 Y118.315
Y119.888
G2 X36.741 Y123.063 I3.175 J0.
G1 X41.771
Y238.125
G2 X44.946 Y241.3 I3.175 J0.
G1 X87.271
G2 X90.446 Y238.125 I0. J-3.175
G1 Y119.063
Y90.418 Z1.016 F1000.
Y0. F1600.
G2 X87.271 Y-3.175 I-3.175 J0.
G1 X0.
G2 X-3.175 Y0. I0. J3.175
G1 Y100.584
G2 X0. Y103.759 I3.175 J0.
G1 X6.271
X33.566 Y118.315
Y119.888
G2 X36.741 Y123.063 I3.175 J0.
G1 X41.771
Y238.125
G2 X44.946 Y241.3 I3.175 J0.
G1 X87.271
G2 X90.446 Y238.125 I0. J-3.175
G1 Y119.063
Y90.418
Y61.773 Z0.516 F1000.
Y0. F1600.
G2 X87.271 Y-3.175 I-3.175 J0.
G1 X0.
G2 X-3.175 Y0. I0. J3.175
G1 Y100.584
G2 X0. Y103.759 I3.175 J0.
G1 X6.271
X33.566 Y118.315
Y119.888
G2 X36.741 Y123.063 I3.175 J0.
G1 X41.771
Y238.125
G2 X44.946 Y241.3 I3.175 J0.
G1 X87.271
G2 X90.446 Y238.125 I0. J-3.175
G1 Y90.418
Y61.773
Y33.128 Z0.016 F1000.
Y0. F1600.
G2 X87.271 Y-3.175 I-3.175 J0.
G1 X0.
G2 X-3.175 Y0. I0. J3.175
G1 Y100.584
G2 X0. Y103.759 I3.175 J0.
G1 X6.271
X33.566 Y118.315
Y119.888
G2 X36.741 Y123.063 I3.175 J0.
G1 X41.771
Y238.125
G2 X44.946 Y241.3 I3.175 J0.
G1 X87.271
G2 X90.446 Y238.125 I0. J-3.175
G1 Y61.773
Y33.128
Y4.483 Z-0.484 F1000.
Y0. F1600.
G2 X87.271 Y-3.175 I-3.175 J0.
G1 X0.
G2 X-3.175 Y0. I0. J3.175
G1 Y100.584
G2 X0. Y103.759 I3.175 J0.
G1 X6.271
X33.566 Y118.315
Y119.888
G2 X36.741 Y123.063 I3.175 J0.
G1 X41.771
Y238.125
G2 X44.946 Y241.3 I3.175 J0.
G1 X87.271
G2 X90.446 Y238.125 I0. J-3.175
G1 Y33.128
Y4.483
Y0. Z-0.562 F1000.
G2 X87.271 Y-3.175 Z-0.649 I-3.175 J0.
G1 X68.096 Z-0.984
X0. F1600.
G2 X-3.175 Y0. I0. J3.175
G1 Y100.584
G2 X0. Y103.759 I3.175 J0.
G1 X6.271
X33.566 Y118.315
Y119.888
G2 X36.741 Y123.063 I3.175 J0.
G1 X41.771
Y238.125
G2 X44.946 Y241.3 I3.175 J0.
G1 X87.271
G2 X90.446 Y238.125 I0. J-3.175
G1 Y4.483
Y0.
G2 X87.271 Y-3.175 I-3.175 J0.
G1 X68.096
X39.451 Z-1.484 F1000.
X0. F1600.
G2 X-3.175 Y0. I0. J3.175
G1 Y100.584
G2 X0. Y103.759 I3.175 J0.
G1 X6.271
X33.566 Y118.315
Y119.888
G2 X36.741 Y123.063 I3.175 J0.
G1 X41.771
Y238.125
G2 X44.946 Y241.3 I3.175 J0.
G1 X87.271
G2 X90.446 Y238.125 I0. J-3.175
G1 Y0.
G2 X87.271 Y-3.175 I-3.175 J0.
G1 X39.451
X10.806 Z-1.984 F1000.
X0. F1600.
G2 X-3.175 Y0. I0. J3.175
G1 Y100.584
G2 X0. Y103.759 I3.175 J0.
G1 X6.271
X33.566 Y118.315
Y119.888
G2 X36.741 Y123.063 I3.175 J0.
G1 X41.771
Y238.125
G2 X44.946 Y241.3 I3.175 J0.
G1 X87.271
G2 X90.446 Y238.125 I0. J-3.175
G1 Y0.
G2 X87.271 Y-3.175 I-3.175 J0.
G1 X39.451
X10.806
X0. Z-2.173 F1000.
G2 X-3.175 Y0. Z-2.26 I0. J3.175
G1 Y12.852 Z-2.484
Y100.584 F1600.
G2 X0. Y103.759 I3.175 J0.
G1 X6.271
X33.566 Y118.315
Y119.888
G2 X36.741 Y123.063 I3.175 J0.
G1 X41.771
Y238.125
G2 X44.946 Y241.3 I3.175 J0.
G1 X87.271
G2 X90.446 Y238.125 I0. J-3.175
G1 Y0.
G2 X87.271 Y-3.175 I-3.175 J0.
G1 X10.806
X0.
G2 X-3.175 Y0. I0. J3.175
G1 Y12.852
Y41.497 Z-2.984 F1000.
Y100.584 F1600.
G2 X0. Y103.759 I3.175 J0.
G1 X6.271
X33.566 Y118.315
Y119.888
G2 X36.741 Y123.063 I3.175 J0.
G1 X41.771
Y238.125
G2 X44.946 Y241.3 I3.175 J0.
G1 X87.271
G2 X90.446 Y238.125 I0. J-3.175
G1 Y0.
G2 X87.271 Y-3.175 I-3.175 J0.
G1 X0.
G2 X-3.175 Y0. I0. J3.175
G1 Y41.497
Y70.142 Z-3.484 F1000.
Y100.584 F1600.
G2 X0. Y103.759 I3.175 J0.
G1 X6.271
X33.566 Y118.315
Y119.888
G2 X36.741 Y123.063 I3.175 J0.
G1 X41.771
Y238.125
G2 X44.946 Y241.3 I3.175 J0.
G1 X87.271
G2 X90.446 Y238.125 I0. J-3.175
G1 Y0.
G2 X87.271 Y-3.175 I-3.175 J0.
G1 X0.
G2 X-3.175 Y0. I0. J3.175
G1 Y41.497
Y70.142
Y98.787 Z-3.984 F1000.
Y100.584 F1600.
G2 X0. Y103.759 I3.175 J0.
G1 X6.271
X33.566 Y118.315
Y119.888
G2 X36.741 Y123.063 I3.175 J0.
G1 X41.771
Y238.125
G2 X44.946 Y241.3 I3.175 J0.
G1 X87.271
G2 X90.446 Y238.125 I0. J-3.175
G1 Y0.
G2 X87.271 Y-3.175 I-3.175 J0.
G1 X0.
G2 X-3.175 Y0. I0. J3.175
G1 Y70.142
Y98.787
Y100.584 Z-4.015 F1000.
G2 X0. Y103.759 Z-4.102 I3.175 J0.
G1 X6.271 Z-4.212
X20.027 Y111.095 Z-4.484
X33.566 Y118.315 F1600.
Y119.888
G2 X36.741 Y123.063 I3.175 J0.
G1 X41.771
Y238.125
G2 X44.946 Y241.3 I3.175 J0.
G1 X87.271
G2 X90.446 Y238.125 I0. J-3.175
G1 Y0.
G2 X87.271 Y-3.175 I-3.175 J0.
G1 X0.
G2 X-3.175 Y0. I0. J3.175
G1 Y98.787
Y100.584
G2 X0. Y103.759 I3.175 J0.
G1 X6.271
X20.027 Y111.095
X33.069 Y118.05 Z-4.742 F1000.
X33.566 Y118.315 F1600.
Y119.888
G2 X36.741 Y123.063 I3.175 J0.
G1 X41.771
Y238.125
G2 X44.946 Y241.3 I3.175 J0.
G1 X87.271
G2 X90.446 Y238.125 I0. J-3.175
G1 Y0.
G2 X87.271 Y-3.175 I-3.175 J0.
G1 X0.
G2 X-3.175 Y0. I0. J3.175
G1 Y100.584
G2 X0. Y103.759 I3.175 J0.
G1 X6.271
X20.027 Y111.095
X33.069 Y118.05
X33.566 Y118.315 Z-4.752 F1000.
Y119.888 Z-4.779
G2 X36.741 Y123.063 Z-4.866 I3.175 J0.
G1 X41.771 Z-4.954
Y125.69 Z-5.
Y238.125 F1600.
G2 X44.946 Y241.3 I3.175 J0.
G1 X87.271
G2 X90.446 Y238.125 I0. J-3.175
G1 Y0.
G2 X87.271 Y-3.175 I-3.175 J0.
G1 X0.
G2 X-3.175 Y0. I0. J3.175
G1 Y100.584
G2 X0. Y103.759 I3.175 J0.
G1 X6.271
X33.069 Y118.05
X33.566 Y118.315
Y119.888
G2 X36.741 Y123.063 I3.175 J0.
G1 X41.771
Y125.69
G3 X41.136 Y126.325 I-0.635 J0.
G1 X40.501
G18 G3 X39.866 Z-4.365 I0. K0.635
G0 Z17.016
G17

M9
M30
