(CYLINDER MOUNTING BLOCK HOLE)
(T3  D=0.118 CR=0. - ZMIN=-0.5 - FLAT END MILL)
G90 G94 G91.1 G40 G49 G17
G20

(2D POCKET1)
M5
T3 M6
S15000 M3
G54
M8
G0 X0.2518 Y0.4955
G43 Z2. H3
Z1.
G1 Z0.1118 F40.
X0.2531 Y0.4951 Z0.1064 F20.
X0.2543 Y0.495 Z0.105
X0.2555 Y0.4952 Z0.1036
X0.2566 Y0.4957 Z0.1022
X0.2579 Y0.4968 Z0.1015
X0.2587 Y0.4983 Z0.1008
X0.259 Y0.5 Z0.1001
X0.2588 Y0.5013 Z0.1
G3 X0.2492 Y0.4987 Z0.0995 I-0.0048 J-0.0013
X0.2588 Y0.5013 Z0.0989 I0.0048 J0.0013
X0.2492 Y0.4987 Z0.0984 I-0.0048 J-0.0013
X0.2588 Y0.5013 Z0.0978 I0.0048 J0.0013
X0.2492 Y0.4987 Z0.0973 I-0.0048 J-0.0013
X0.2588 Y0.5013 Z0.0967 I0.0048 J0.0013
X0.2492 Y0.4987 Z0.0962 I-0.0048 J-0.0013
X0.2588 Y0.5013 Z0.0956 I0.0048 J0.0013
X0.2492 Y0.4987 Z0.0951 I-0.0048 J-0.0013
X0.2588 Y0.5013 Z0.0945 I0.0048 J0.0013
X0.2492 Y0.4987 Z0.094 I-0.0048 J-0.0013
X0.2588 Y0.5013 Z0.0934 I0.0048 J0.0013
X0.2492 Y0.4987 Z0.0929 I-0.0048 J-0.0013
X0.2588 Y0.5013 Z0.0923 I0.0048 J0.0013
X0.2492 Y0.4987 Z0.0918 I-0.0048 J-0.0013
X0.2588 Y0.5013 Z0.0912 I0.0048 J0.0013
X0.2492 Y0.4987 Z0.0907 I-0.0048 J-0.0013
X0.2588 Y0.5013 Z0.0901 I0.0048 J0.0013
X0.2492 Y0.4987 Z0.0896 I-0.0048 J-0.0013
X0.2588 Y0.5013 Z0.089 I0.0048 J0.0013
X0.2492 Y0.4987 Z0.0885 I-0.0048 J-0.0013
X0.2588 Y0.5013 Z0.0879 I0.0048 J0.0013
X0.2492 Y0.4987 Z0.0874 I-0.0048 J-0.0013
X0.2588 Y0.5013 Z0.0868 I0.0048 J0.0013
X0.2492 Y0.4987 Z0.0863 I-0.0048 J-0.0013
X0.2588 Y0.5013 Z0.0857 I0.0048 J0.0013
X0.2492 Y0.4987 Z0.0852 I-0.0048 J-0.0013
X0.2588 Y0.5013 Z0.0846 I0.0048 J0.0013
X0.2492 Y0.4987 Z0.0841 I-0.0048 J-0.0013
X0.2588 Y0.5013 Z0.0835 I0.0048 J0.0013
X0.2492 Y0.4987 Z0.083 I-0.0048 J-0.0013
X0.2588 Y0.5013 Z0.0824 I0.0048 J0.0013
X0.2492 Y0.4987 Z0.0819 I-0.0048 J-0.0013
X0.2588 Y0.5013 Z0.0813 I0.0048 J0.0013
X0.2492 Y0.4987 Z0.0808 I-0.0048 J-0.0013
X0.2588 Y0.5013 Z0.0803 I0.0048 J0.0013
X0.2492 Y0.4987 Z0.0797 I-0.0048 J-0.0013
X0.2588 Y0.5013 Z0.0792 I0.0048 J0.0013
X0.2492 Y0.4987 Z0.0786 I-0.0048 J-0.0013
X0.2588 Y0.5013 Z0.0781 I0.0048 J0.0013
X0.2492 Y0.4987 Z0.0775 I-0.0048 J-0.0013
X0.2588 Y0.5013 Z0.077 I0.0048 J0.0013
X0.2492 Y0.4987 Z0.0764 I-0.0048 J-0.0013
X0.2588 Y0.5013 Z0.0759 I0.0048 J0.0013
X0.2492 Y0.4987 Z0.0753 I-0.0048 J-0.0013
X0.2588 Y0.5013 Z0.0748 I0.0048 J0.0013
X0.2492 Y0.4987 Z0.0742 I-0.0048 J-0.0013
X0.2588 Y0.5013 Z0.0737 I0.0048 J0.0013
X0.2492 Y0.4987 Z0.0731 I-0.0048 J-0.0013
X0.2588 Y0.5013 Z0.0726 I0.0048 J0.0013
X0.2492 Y0.4987 Z0.072 I-0.0048 J-0.0013
X0.2588 Y0.5013 Z0.0715 I0.0048 J0.0013
X0.2492 Y0.4987 Z0.0709 I-0.0048 J-0.0013
X0.2588 Y0.5013 Z0.0704 I0.0048 J0.0013
X0.2492 Y0.4987 Z0.0698 I-0.0048 J-0.0013
X0.2588 Y0.5013 Z0.0693 I0.0048 J0.0013
X0.2492 Y0.4987 Z0.0687 I-0.0048 J-0.0013
X0.2588 Y0.5013 Z0.0682 I0.0048 J0.0013
X0.2492 Y0.4987 Z0.0676 I-0.0048 J-0.0013
X0.2588 Y0.5013 Z0.0671 I0.0048 J0.0013
X0.2492 Y0.4987 Z0.0665 I-0.0048 J-0.0013
X0.2588 Y0.5013 Z0.066 I0.0048 J0.0013
X0.2492 Y0.4987 Z0.0654 I-0.0048 J-0.0013
X0.2588 Y0.5013 Z0.0649 I0.0048 J0.0013
X0.2492 Y0.4987 Z0.0643 I-0.0048 J-0.0013
X0.2588 Y0.5013 Z0.0638 I0.0048 J0.0013
X0.2492 Y0.4987 Z0.0632 I-0.0048 J-0.0013
X0.2588 Y0.5013 Z0.0627 I0.0048 J0.0013
X0.2492 Y0.4987 Z0.0622 I-0.0048 J-0.0013
X0.2588 Y0.5013 Z0.0616 I0.0048 J0.0013
X0.2492 Y0.4987 Z0.0611 I-0.0048 J-0.0013
X0.2588 Y0.5013 Z0.0605 I0.0048 J0.0013
X0.2492 Y0.4987 Z0.06 I-0.0048 J-0.0013
X0.2588 Y0.5013 Z0.0594 I0.0048 J0.0013
X0.2492 Y0.4987 Z0.0589 I-0.0048 J-0.0013
X0.2588 Y0.5013 Z0.0583 I0.0048 J0.0013
X0.2492 Y0.4987 Z0.0578 I-0.0048 J-0.0013
X0.2588 Y0.5013 Z0.0572 I0.0048 J0.0013
X0.2492 Y0.4987 Z0.0567 I-0.0048 J-0.0013
X0.2588 Y0.5013 Z0.0561 I0.0048 J0.0013
X0.2492 Y0.4987 Z0.0556 I-0.0048 J-0.0013
X0.2588 Y0.5013 Z0.055 I0.0048 J0.0013
X0.2492 Y0.4987 Z0.0545 I-0.0048 J-0.0013
X0.2588 Y0.5013 Z0.0539 I0.0048 J0.0013
X0.2492 Y0.4987 Z0.0534 I-0.0048 J-0.0013
X0.2588 Y0.5013 Z0.0528 I0.0048 J0.0013
X0.2492 Y0.4987 Z0.0523 I-0.0048 J-0.0013
X0.2588 Y0.5013 Z0.0517 I0.0048 J0.0013
X0.2492 Y0.4987 Z0.0512 I-0.0048 J-0.0013
X0.2588 Y0.5013 Z0.0506 I0.0048 J0.0013
X0.2492 Y0.4987 Z0.0501 I-0.0048 J-0.0013
X0.2588 Y0.5013 Z0.0495 I0.0048 J0.0013
X0.2492 Y0.4987 Z0.049 I-0.0048 J-0.0013
X0.2588 Y0.5013 Z0.0484 I0.0048 J0.0013
X0.2492 Y0.4987 Z0.0479 I-0.0048 J-0.0013
X0.2588 Y0.5013 Z0.0473 I0.0048 J0.0013
X0.2492 Y0.4987 Z0.0468 I-0.0048 J-0.0013
X0.2588 Y0.5013 Z0.0462 I0.0048 J0.0013
X0.2492 Y0.4987 Z0.0457 I-0.0048 J-0.0013
X0.2588 Y0.5013 Z0.0451 I0.0048 J0.0013
X0.2492 Y0.4987 Z0.0446 I-0.0048 J-0.0013
X0.2588 Y0.5013 Z0.044 I0.0048 J0.0013
X0.2492 Y0.4987 Z0.0435 I-0.0048 J-0.0013
X0.2588 Y0.5013 Z0.043 I0.0048 J0.0013
X0.2492 Y0.4987 Z0.0424 I-0.0048 J-0.0013
X0.2588 Y0.5013 Z0.0419 I0.0048 J0.0013
X0.2492 Y0.4987 Z0.0413 I-0.0048 J-0.0013
X0.2588 Y0.5013 Z0.0408 I0.0048 J0.0013
X0.2492 Y0.4987 Z0.0402 I-0.0048 J-0.0013
X0.2588 Y0.5013 Z0.0397 I0.0048 J0.0013
X0.2492 Y0.4987 Z0.0391 I-0.0048 J-0.0013
X0.2588 Y0.5013 Z0.0386 I0.0048 J0.0013
X0.2492 Y0.4987 Z0.038 I-0.0048 J-0.0013
X0.2588 Y0.5013 Z0.0375 I0.0048 J0.0013
X0.2492 Y0.4987 Z0.0369 I-0.0048 J-0.0013
X0.2588 Y0.5013 Z0.0364 I0.0048 J0.0013
X0.2492 Y0.4987 Z0.0358 I-0.0048 J-0.0013
X0.2588 Y0.5013 Z0.0353 I0.0048 J0.0013
X0.2492 Y0.4987 Z0.0347 I-0.0048 J-0.0013
X0.2588 Y0.5013 Z0.0342 I0.0048 J0.0013
X0.2492 Y0.4987 Z0.0336 I-0.0048 J-0.0013
X0.2588 Y0.5013 Z0.0331 I0.0048 J0.0013
X0.2492 Y0.4987 Z0.0325 I-0.0048 J-0.0013
X0.2588 Y0.5013 Z0.032 I0.0048 J0.0013
X0.2492 Y0.4987 Z0.0314 I-0.0048 J-0.0013
X0.2588 Y0.5013 Z0.0309 I0.0048 J0.0013
X0.2492 Y0.4987 Z0.0303 I-0.0048 J-0.0013
X0.2588 Y0.5013 Z0.0298 I0.0048 J0.0013
X0.2492 Y0.4987 Z0.0292 I-0.0048 J-0.0013
X0.2588 Y0.5013 Z0.0287 I0.0048 J0.0013
X0.2492 Y0.4987 Z0.0281 I-0.0048 J-0.0013
X0.2588 Y0.5013 Z0.0276 I0.0048 J0.0013
X0.2492 Y0.4987 Z0.027 I-0.0048 J-0.0013
X0.2588 Y0.5013 Z0.0265 I0.0048 J0.0013
X0.2492 Y0.4987 Z0.0259 I-0.0048 J-0.0013
X0.2588 Y0.5013 Z0.0254 I0.0048 J0.0013
X0.2492 Y0.4987 Z0.0249 I-0.0048 J-0.0013
X0.2588 Y0.5013 Z0.0243 I0.0048 J0.0013
X0.2492 Y0.4987 Z0.0238 I-0.0048 J-0.0013
X0.2588 Y0.5013 Z0.0232 I0.0048 J0.0013
X0.2492 Y0.4987 Z0.0227 I-0.0048 J-0.0013
X0.2588 Y0.5013 Z0.0221 I0.0048 J0.0013
X0.2492 Y0.4987 Z0.0216 I-0.0048 J-0.0013
X0.2588 Y0.5013 Z0.021 I0.0048 J0.0013
X0.2492 Y0.4987 Z0.0205 I-0.0048 J-0.0013
X0.2588 Y0.5013 Z0.0199 I0.0048 J0.0013
X0.2492 Y0.4987 Z0.0194 I-0.0048 J-0.0013
X0.2588 Y0.5013 Z0.0188 I0.0048 J0.0013
X0.2492 Y0.4987 Z0.0183 I-0.0048 J-0.0013
X0.2588 Y0.5013 Z0.0177 I0.0048 J0.0013
X0.2492 Y0.4987 Z0.0172 I-0.0048 J-0.0013
X0.2588 Y0.5013 Z0.0166 I0.0048 J0.0013
X0.2492 Y0.4987 Z0.0161 I-0.0048 J-0.0013
X0.2588 Y0.5013 Z0.0155 I0.0048 J0.0013
X0.2492 Y0.4987 Z0.015 I-0.0048 J-0.0013
X0.2588 Y0.5013 Z0.0144 I0.0048 J0.0013
X0.2492 Y0.4987 Z0.0139 I-0.0048 J-0.0013
X0.2588 Y0.5013 Z0.0133 I0.0048 J0.0013
X0.2492 Y0.4987 Z0.0128 I-0.0048 J-0.0013
X0.2588 Y0.5013 Z0.0122 I0.0048 J0.0013
X0.2492 Y0.4987 Z0.0117 I-0.0048 J-0.0013
X0.2588 Y0.5013 Z0.0111 I0.0048 J0.0013
X0.2492 Y0.4987 Z0.0106 I-0.0048 J-0.0013
X0.2588 Y0.5013 Z0.01 I0.0048 J0.0013
X0.2492 Y0.4987 Z0.0095 I-0.0048 J-0.0013
X0.2588 Y0.5013 Z0.0089 I0.0048 J0.0013
X0.2492 Y0.4987 Z0.0084 I-0.0048 J-0.0013
X0.2588 Y0.5013 Z0.0078 I0.0048 J0.0013
X0.2492 Y0.4987 Z0.0073 I-0.0048 J-0.0013
X0.2588 Y0.5013 Z0.0067 I0.0048 J0.0013
X0.2492 Y0.4987 Z0.0062 I-0.0048 J-0.0013
X0.2588 Y0.5013 Z0.0057 I0.0048 J0.0013
X0.2492 Y0.4987 Z0.0051 I-0.0048 J-0.0013
X0.2588 Y0.5013 Z0.0046 I0.0048 J0.0013
X0.2492 Y0.4987 Z0.004 I-0.0048 J-0.0013
X0.2588 Y0.5013 Z0.0035 I0.0048 J0.0013
X0.2492 Y0.4987 Z0.0029 I-0.0048 J-0.0013
X0.2588 Y0.5013 Z0.0024 I0.0048 J0.0013
X0.2492 Y0.4987 Z0.0018 I-0.0048 J-0.0013
X0.2588 Y0.5013 Z0.0013 I0.0048 J0.0013
X0.2492 Y0.4987 Z0.0007 I-0.0048 J-0.0013
X0.2588 Y0.5013 Z0.0002 I0.0048 J0.0013
X0.2492 Y0.4987 Z-0.0004 I-0.0048 J-0.0013
X0.2588 Y0.5013 Z-0.0009 I0.0048 J0.0013
X0.2492 Y0.4987 Z-0.0015 I-0.0048 J-0.0013
X0.2588 Y0.5013 Z-0.002 I0.0048 J0.0013
X0.2492 Y0.4987 Z-0.0026 I-0.0048 J-0.0013
X0.2588 Y0.5013 Z-0.0031 I0.0048 J0.0013
X0.2492 Y0.4987 Z-0.0037 I-0.0048 J-0.0013
X0.2588 Y0.5013 Z-0.0042 I0.0048 J0.0013
X0.2492 Y0.4987 Z-0.0048 I-0.0048 J-0.0013
X0.2588 Y0.5013 Z-0.0053 I0.0048 J0.0013
X0.2492 Y0.4987 Z-0.0059 I-0.0048 J-0.0013
X0.2588 Y0.5013 Z-0.0064 I0.0048 J0.0013
X0.2492 Y0.4987 Z-0.007 I-0.0048 J-0.0013
X0.2588 Y0.5013 Z-0.0075 I0.0048 J0.0013
X0.2492 Y0.4987 Z-0.0081 I-0.0048 J-0.0013
X0.2588 Y0.5013 Z-0.0086 I0.0048 J0.0013
X0.2492 Y0.4987 Z-0.0092 I-0.0048 J-0.0013
X0.2588 Y0.5013 Z-0.0097 I0.0048 J0.0013
X0.2492 Y0.4987 Z-0.0103 I-0.0048 J-0.0013
X0.2588 Y0.5013 Z-0.0108 I0.0048 J0.0013
X0.2492 Y0.4987 Z-0.0114 I-0.0048 J-0.0013
X0.2588 Y0.5013 Z-0.0119 I0.0048 J0.0013
X0.2492 Y0.4987 Z-0.0124 I-0.0048 J-0.0013
X0.2588 Y0.5013 Z-0.013 I0.0048 J0.0013
X0.2492 Y0.4987 Z-0.0135 I-0.0048 J-0.0013
X0.2588 Y0.5013 Z-0.0141 I0.0048 J0.0013
X0.2492 Y0.4987 Z-0.0146 I-0.0048 J-0.0013
X0.2588 Y0.5013 Z-0.0152 I0.0048 J0.0013
X0.2492 Y0.4987 Z-0.0157 I-0.0048 J-0.0013
X0.2588 Y0.5013 Z-0.0163 I0.0048 J0.0013
X0.2492 Y0.4987 Z-0.0168 I-0.0048 J-0.0013
X0.2588 Y0.5013 Z-0.0174 I0.0048 J0.0013
X0.2492 Y0.4987 Z-0.0179 I-0.0048 J-0.0013
X0.2588 Y0.5013 Z-0.0185 I0.0048 J0.0013
X0.2492 Y0.4987 Z-0.019 I-0.0048 J-0.0013
X0.2588 Y0.5013 Z-0.0196 I0.0048 J0.0013
X0.2492 Y0.4987 Z-0.0201 I-0.0048 J-0.0013
X0.2588 Y0.5013 Z-0.0207 I0.0048 J0.0013
X0.2492 Y0.4987 Z-0.0212 I-0.0048 J-0.0013
X0.2588 Y0.5013 Z-0.0218 I0.0048 J0.0013
X0.2492 Y0.4987 Z-0.0223 I-0.0048 J-0.0013
X0.2588 Y0.5013 Z-0.0229 I0.0048 J0.0013
X0.2492 Y0.4987 Z-0.0234 I-0.0048 J-0.0013
X0.2588 Y0.5013 Z-0.024 I0.0048 J0.0013
X0.2492 Y0.4987 Z-0.0245 I-0.0048 J-0.0013
X0.2588 Y0.5013 Z-0.0251 I0.0048 J0.0013
X0.2492 Y0.4987 Z-0.0256 I-0.0048 J-0.0013
X0.2588 Y0.5013 Z-0.0262 I0.0048 J0.0013
X0.2492 Y0.4987 Z-0.0267 I-0.0048 J-0.0013
X0.2588 Y0.5013 Z-0.0273 I0.0048 J0.0013
X0.2492 Y0.4987 Z-0.0278 I-0.0048 J-0.0013
X0.2588 Y0.5013 Z-0.0284 I0.0048 J0.0013
X0.2492 Y0.4987 Z-0.0289 I-0.0048 J-0.0013
X0.2588 Y0.5013 Z-0.0295 I0.0048 J0.0013
X0.2492 Y0.4987 Z-0.03 I-0.0048 J-0.0013
X0.2588 Y0.5013 Z-0.0306 I0.0048 J0.0013
X0.2492 Y0.4987 Z-0.0311 I-0.0048 J-0.0013
X0.2588 Y0.5013 Z-0.0316 I0.0048 J0.0013
X0.2492 Y0.4987 Z-0.0322 I-0.0048 J-0.0013
X0.2588 Y0.5013 Z-0.0327 I0.0048 J0.0013
X0.2492 Y0.4987 Z-0.0333 I-0.0048 J-0.0013
X0.2588 Y0.5013 Z-0.0338 I0.0048 J0.0013
X0.2492 Y0.4987 Z-0.0344 I-0.0048 J-0.0013
X0.2588 Y0.5013 Z-0.0349 I0.0048 J0.0013
X0.2492 Y0.4987 Z-0.0355 I-0.0048 J-0.0013
X0.2588 Y0.5013 Z-0.036 I0.0048 J0.0013
X0.2492 Y0.4987 Z-0.0366 I-0.0048 J-0.0013
X0.2588 Y0.5013 Z-0.0371 I0.0048 J0.0013
X0.2492 Y0.4987 Z-0.0377 I-0.0048 J-0.0013
X0.2588 Y0.5013 Z-0.0382 I0.0048 J0.0013
X0.2492 Y0.4987 Z-0.0388 I-0.0048 J-0.0013
X0.2588 Y0.5013 Z-0.0393 I0.0048 J0.0013
X0.2492 Y0.4987 Z-0.0399 I-0.0048 J-0.0013
X0.2588 Y0.5013 Z-0.0404 I0.0048 J0.0013
X0.2492 Y0.4987 Z-0.041 I-0.0048 J-0.0013
X0.2588 Y0.5013 Z-0.0415 I0.0048 J0.0013
X0.2492 Y0.4987 Z-0.0421 I-0.0048 J-0.0013
X0.2588 Y0.5013 Z-0.0426 I0.0048 J0.0013
X0.2492 Y0.4987 Z-0.0432 I-0.0048 J-0.0013
X0.2588 Y0.5013 Z-0.0437 I0.0048 J0.0013
X0.2492 Y0.4987 Z-0.0443 I-0.0048 J-0.0013
X0.2588 Y0.5013 Z-0.0448 I0.0048 J0.0013
X0.2492 Y0.4987 Z-0.0454 I-0.0048 J-0.0013
X0.2588 Y0.5013 Z-0.0459 I0.0048 J0.0013
X0.2492 Y0.4987 Z-0.0465 I-0.0048 J-0.0013
X0.2588 Y0.5013 Z-0.047 I0.0048 J0.0013
X0.2492 Y0.4987 Z-0.0476 I-0.0048 J-0.0013
X0.2588 Y0.5013 Z-0.0481 I0.0048 J0.0013
X0.2492 Y0.4987 Z-0.0487 I-0.0048 J-0.0013
X0.2588 Y0.5013 Z-0.0492 I0.0048 J0.0013
X0.2492 Y0.4987 Z-0.0497 I-0.0048 J-0.0013
X0.2588 Y0.5013 Z-0.0503 I0.0048 J0.0013
X0.2492 Y0.4987 Z-0.0508 I-0.0048 J-0.0013
X0.2588 Y0.5013 Z-0.0514 I0.0048 J0.0013
X0.2492 Y0.4987 Z-0.0519 I-0.0048 J-0.0013
X0.2588 Y0.5013 Z-0.0525 I0.0048 J0.0013
X0.2492 Y0.4987 Z-0.053 I-0.0048 J-0.0013
X0.2588 Y0.5013 Z-0.0536 I0.0048 J0.0013
X0.2492 Y0.4987 Z-0.0541 I-0.0048 J-0.0013
X0.2588 Y0.5013 Z-0.0547 I0.0048 J0.0013
X0.2492 Y0.4987 Z-0.0552 I-0.0048 J-0.0013
X0.2588 Y0.5013 Z-0.0558 I0.0048 J0.0013
X0.2492 Y0.4987 Z-0.0563 I-0.0048 J-0.0013
X0.2588 Y0.5013 Z-0.0569 I0.0048 J0.0013
X0.2492 Y0.4987 Z-0.0574 I-0.0048 J-0.0013
X0.2588 Y0.5013 Z-0.058 I0.0048 J0.0013
X0.2492 Y0.4987 Z-0.0585 I-0.0048 J-0.0013
X0.2588 Y0.5013 Z-0.0591 I0.0048 J0.0013
X0.2492 Y0.4987 Z-0.0596 I-0.0048 J-0.0013
X0.2588 Y0.5013 Z-0.0602 I0.0048 J0.0013
X0.2492 Y0.4987 Z-0.0607 I-0.0048 J-0.0013
X0.2588 Y0.5013 Z-0.0613 I0.0048 J0.0013
X0.2492 Y0.4987 Z-0.0618 I-0.0048 J-0.0013
X0.2588 Y0.5013 Z-0.0624 I0.0048 J0.0013
X0.2492 Y0.4987 Z-0.0629 I-0.0048 J-0.0013
X0.2588 Y0.5013 Z-0.0635 I0.0048 J0.0013
X0.2492 Y0.4987 Z-0.064 I-0.0048 J-0.0013
X0.2588 Y0.5013 Z-0.0646 I0.0048 J0.0013
X0.2492 Y0.4987 Z-0.0651 I-0.0048 J-0.0013
X0.2588 Y0.5013 Z-0.0657 I0.0048 J0.0013
X0.2492 Y0.4987 Z-0.0662 I-0.0048 J-0.0013
X0.2588 Y0.5013 Z-0.0668 I0.0048 J0.0013
X0.2492 Y0.4987 Z-0.0673 I-0.0048 J-0.0013
X0.2588 Y0.5013 Z-0.0679 I0.0048 J0.0013
X0.2492 Y0.4987 Z-0.0684 I-0.0048 J-0.0013
X0.2588 Y0.5013 Z-0.0689 I0.0048 J0.0013
X0.2492 Y0.4987 Z-0.0695 I-0.0048 J-0.0013
X0.259 Y0.5 Z-0.07 I0.0048 J0.0013
X0.241 I-0.009 J0. F40.
X0.259 I0.009 J0.
X0.241 Z-0.071 I-0.009 J0. F20.
X0.259 Z-0.072 I0.009 J0.
X0.241 Z-0.073 I-0.009 J0.
X0.259 Z-0.0739 I0.009 J0.
X0.241 Z-0.0749 I-0.009 J0.
X0.259 Z-0.0759 I0.009 J0.
X0.241 Z-0.0769 I-0.009 J0.
X0.259 Z-0.0779 I0.009 J0.
X0.241 Z-0.0789 I-0.009 J0.
X0.259 Z-0.0799 I0.009 J0.
X0.241 Z-0.0809 I-0.009 J0.
X0.259 Z-0.0818 I0.009 J0.
X0.241 Z-0.0828 I-0.009 J0.
X0.259 Z-0.0838 I0.009 J0.
X0.241 Z-0.0848 I-0.009 J0.
X0.259 Z-0.0858 I0.009 J0.
X0.241 Z-0.0868 I-0.009 J0.
X0.259 Z-0.0878 I0.009 J0.
X0.241 Z-0.0888 I-0.009 J0.
X0.259 Z-0.0897 I0.009 J0.
X0.241 Z-0.0907 I-0.009 J0.
X0.259 Z-0.0917 I0.009 J0.
X0.241 Z-0.0927 I-0.009 J0.
X0.259 Z-0.0937 I0.009 J0.
X0.241 Z-0.0947 I-0.009 J0.
X0.259 Z-0.0957 I0.009 J0.
X0.241 Z-0.0967 I-0.009 J0.
X0.259 Z-0.0976 I0.009 J0.
X0.241 Z-0.0986 I-0.009 J0.
X0.259 Z-0.0996 I0.009 J0.
X0.241 Z-0.1006 I-0.009 J0.
X0.259 Z-0.1016 I0.009 J0.
X0.241 Z-0.1026 I-0.009 J0.
X0.259 Z-0.1036 I0.009 J0.
X0.241 Z-0.1046 I-0.009 J0.
X0.259 Z-0.1055 I0.009 J0.
X0.241 Z-0.1065 I-0.009 J0.
X0.259 Z-0.1075 I0.009 J0.
X0.241 Z-0.1085 I-0.009 J0.
X0.259 Z-0.1095 I0.009 J0.
X0.241 Z-0.1105 I-0.009 J0.
X0.259 Z-0.1115 I0.009 J0.
X0.241 Z-0.1125 I-0.009 J0.
X0.259 Z-0.1134 I0.009 J0.
X0.241 Z-0.1144 I-0.009 J0.
X0.259 Z-0.1154 I0.009 J0.
X0.241 Z-0.1164 I-0.009 J0.
X0.259 Z-0.1174 I0.009 J0.
X0.241 Z-0.1184 I-0.009 J0.
X0.259 Z-0.1194 I0.009 J0.
X0.241 Z-0.1204 I-0.009 J0.
X0.259 Z-0.1213 I0.009 J0.
X0.241 Z-0.1223 I-0.009 J0.
X0.259 Z-0.1233 I0.009 J0.
X0.241 Z-0.1243 I-0.009 J0.
X0.259 Z-0.1253 I0.009 J0.
X0.241 Z-0.1263 I-0.009 J0.
X0.259 Z-0.1273 I0.009 J0.
X0.241 Z-0.1283 I-0.009 J0.
X0.259 Z-0.1292 I0.009 J0.
X0.241 Z-0.1302 I-0.009 J0.
X0.259 Z-0.1312 I0.009 J0.
X0.241 Z-0.1322 I-0.009 J0.
X0.259 Z-0.1332 I0.009 J0.
X0.241 Z-0.1342 I-0.009 J0.
X0.259 Z-0.1352 I0.009 J0.
X0.241 Z-0.1362 I-0.009 J0.
X0.259 Z-0.1371 I0.009 J0.
X0.241 Z-0.1381 I-0.009 J0.
X0.259 Z-0.1391 I0.009 J0.
X0.2415 Y0.5029 Z-0.14 I-0.009 J0.
X0.2585 Y0.4971 I0.0085 J-0.0029 F40.
X0.2415 Y0.5029 I-0.0085 J0.0029
X0.2585 Y0.4971 Z-0.141 I0.0085 J-0.0029 F20.
X0.2415 Y0.5029 Z-0.142 I-0.0085 J0.0029
X0.2585 Y0.4971 Z-0.143 I0.0085 J-0.0029
X0.2415 Y0.5029 Z-0.1439 I-0.0085 J0.0029
X0.2585 Y0.4971 Z-0.1449 I0.0085 J-0.0029
X0.2415 Y0.5029 Z-0.1459 I-0.0085 J0.0029
X0.2585 Y0.4971 Z-0.1469 I0.0085 J-0.0029
X0.2415 Y0.5029 Z-0.1479 I-0.0085 J0.0029
X0.2585 Y0.4971 Z-0.1489 I0.0085 J-0.0029
X0.2415 Y0.5029 Z-0.1499 I-0.0085 J0.0029
X0.2585 Y0.4971 Z-0.1509 I0.0085 J-0.0029
X0.2415 Y0.5029 Z-0.1518 I-0.0085 J0.0029
X0.2585 Y0.4971 Z-0.1528 I0.0085 J-0.0029
X0.2415 Y0.5029 Z-0.1538 I-0.0085 J0.0029
X0.2585 Y0.4971 Z-0.1548 I0.0085 J-0.0029
X0.2415 Y0.5029 Z-0.1558 I-0.0085 J0.0029
X0.2585 Y0.4971 Z-0.1568 I0.0085 J-0.0029
X0.2415 Y0.5029 Z-0.1578 I-0.0085 J0.0029
X0.2585 Y0.4971 Z-0.1588 I0.0085 J-0.0029
X0.2415 Y0.5029 Z-0.1597 I-0.0085 J0.0029
X0.2585 Y0.4971 Z-0.1607 I0.0085 J-0.0029
X0.2415 Y0.5029 Z-0.1617 I-0.0085 J0.0029
X0.2585 Y0.4971 Z-0.1627 I0.0085 J-0.0029
X0.2415 Y0.5029 Z-0.1637 I-0.0085 J0.0029
X0.2585 Y0.4971 Z-0.1647 I0.0085 J-0.0029
X0.2415 Y0.5029 Z-0.1657 I-0.0085 J0.0029
X0.2585 Y0.4971 Z-0.1667 I0.0085 J-0.0029
X0.2415 Y0.5029 Z-0.1676 I-0.0085 J0.0029
X0.2585 Y0.4971 Z-0.1686 I0.0085 J-0.0029
X0.2415 Y0.5029 Z-0.1696 I-0.0085 J0.0029
X0.2585 Y0.4971 Z-0.1706 I0.0085 J-0.0029
X0.2415 Y0.5029 Z-0.1716 I-0.0085 J0.0029
X0.2585 Y0.4971 Z-0.1726 I0.0085 J-0.0029
X0.2415 Y0.5029 Z-0.1736 I-0.0085 J0.0029
X0.2585 Y0.4971 Z-0.1746 I0.0085 J-0.0029
X0.2415 Y0.5029 Z-0.1755 I-0.0085 J0.0029
X0.2585 Y0.4971 Z-0.1765 I0.0085 J-0.0029
X0.2415 Y0.5029 Z-0.1775 I-0.0085 J0.0029
X0.2585 Y0.4971 Z-0.1785 I0.0085 J-0.0029
X0.2415 Y0.5029 Z-0.1795 I-0.0085 J0.0029
X0.2585 Y0.4971 Z-0.1805 I0.0085 J-0.0029
X0.2415 Y0.5029 Z-0.1815 I-0.0085 J0.0029
X0.2585 Y0.4971 Z-0.1825 I0.0085 J-0.0029
X0.2415 Y0.5029 Z-0.1834 I-0.0085 J0.0029
X0.2585 Y0.4971 Z-0.1844 I0.0085 J-0.0029
X0.2415 Y0.5029 Z-0.1854 I-0.0085 J0.0029
X0.2585 Y0.4971 Z-0.1864 I0.0085 J-0.0029
X0.2415 Y0.5029 Z-0.1874 I-0.0085 J0.0029
X0.2585 Y0.4971 Z-0.1884 I0.0085 J-0.0029
X0.2415 Y0.5029 Z-0.1894 I-0.0085 J0.0029
X0.2585 Y0.4971 Z-0.1904 I0.0085 J-0.0029
X0.2415 Y0.5029 Z-0.1913 I-0.0085 J0.0029
X0.2585 Y0.4971 Z-0.1923 I0.0085 J-0.0029
X0.2415 Y0.5029 Z-0.1933 I-0.0085 J0.0029
X0.2585 Y0.4971 Z-0.1943 I0.0085 J-0.0029
X0.2415 Y0.5029 Z-0.1953 I-0.0085 J0.0029
X0.2585 Y0.4971 Z-0.1963 I0.0085 J-0.0029
X0.2415 Y0.5029 Z-0.1973 I-0.0085 J0.0029
X0.2585 Y0.4971 Z-0.1983 I0.0085 J-0.0029
X0.2415 Y0.5029 Z-0.1992 I-0.0085 J0.0029
X0.2585 Y0.4971 Z-0.2002 I0.0085 J-0.0029
X0.2415 Y0.5029 Z-0.2012 I-0.0085 J0.0029
X0.2585 Y0.4971 Z-0.2022 I0.0085 J-0.0029
X0.2415 Y0.5029 Z-0.2032 I-0.0085 J0.0029
X0.2585 Y0.4971 Z-0.2042 I0.0085 J-0.0029
X0.2415 Y0.5029 Z-0.2052 I-0.0085 J0.0029
X0.2585 Y0.4971 Z-0.2062 I0.0085 J-0.0029
X0.2415 Y0.5029 Z-0.2071 I-0.0085 J0.0029
X0.2585 Y0.4971 Z-0.2081 I0.0085 J-0.0029
X0.2415 Y0.5029 Z-0.2091 I-0.0085 J0.0029
X0.2571 Y0.4945 Z-0.21 I0.0085 J-0.0029
X0.2429 Y0.5055 I-0.0071 J0.0055 F40.
X0.2571 Y0.4945 I0.0071 J-0.0055
X0.2429 Y0.5055 Z-0.211 I-0.0071 J0.0055 F20.
X0.2571 Y0.4945 Z-0.212 I0.0071 J-0.0055
X0.2429 Y0.5055 Z-0.213 I-0.0071 J0.0055
X0.2571 Y0.4945 Z-0.2139 I0.0071 J-0.0055
X0.2429 Y0.5055 Z-0.2149 I-0.0071 J0.0055
X0.2571 Y0.4945 Z-0.2159 I0.0071 J-0.0055
X0.2429 Y0.5055 Z-0.2169 I-0.0071 J0.0055
X0.2571 Y0.4945 Z-0.2179 I0.0071 J-0.0055
X0.2429 Y0.5055 Z-0.2189 I-0.0071 J0.0055
X0.2571 Y0.4945 Z-0.2199 I0.0071 J-0.0055
X0.2429 Y0.5055 Z-0.2209 I-0.0071 J0.0055
X0.2571 Y0.4945 Z-0.2218 I0.0071 J-0.0055
X0.2429 Y0.5055 Z-0.2228 I-0.0071 J0.0055
X0.2571 Y0.4945 Z-0.2238 I0.0071 J-0.0055
X0.2429 Y0.5055 Z-0.2248 I-0.0071 J0.0055
X0.2571 Y0.4945 Z-0.2258 I0.0071 J-0.0055
X0.2429 Y0.5055 Z-0.2268 I-0.0071 J0.0055
X0.2571 Y0.4945 Z-0.2278 I0.0071 J-0.0055
X0.2429 Y0.5055 Z-0.2288 I-0.0071 J0.0055
X0.2571 Y0.4945 Z-0.2297 I0.0071 J-0.0055
X0.2429 Y0.5055 Z-0.2307 I-0.0071 J0.0055
X0.2571 Y0.4945 Z-0.2317 I0.0071 J-0.0055
X0.2429 Y0.5055 Z-0.2327 I-0.0071 J0.0055
X0.2571 Y0.4945 Z-0.2337 I0.0071 J-0.0055
X0.2429 Y0.5055 Z-0.2347 I-0.0071 J0.0055
X0.2571 Y0.4945 Z-0.2357 I0.0071 J-0.0055
X0.2429 Y0.5055 Z-0.2367 I-0.0071 J0.0055
X0.2571 Y0.4945 Z-0.2376 I0.0071 J-0.0055
X0.2429 Y0.5055 Z-0.2386 I-0.0071 J0.0055
X0.2571 Y0.4945 Z-0.2396 I0.0071 J-0.0055
X0.2429 Y0.5055 Z-0.2406 I-0.0071 J0.0055
X0.2571 Y0.4945 Z-0.2416 I0.0071 J-0.0055
X0.2429 Y0.5055 Z-0.2426 I-0.0071 J0.0055
X0.2571 Y0.4945 Z-0.2436 I0.0071 J-0.0055
X0.2429 Y0.5055 Z-0.2446 I-0.0071 J0.0055
X0.2571 Y0.4945 Z-0.2455 I0.0071 J-0.0055
X0.2429 Y0.5055 Z-0.2465 I-0.0071 J0.0055
X0.2571 Y0.4945 Z-0.2475 I0.0071 J-0.0055
X0.2429 Y0.5055 Z-0.2485 I-0.0071 J0.0055
X0.2571 Y0.4945 Z-0.2495 I0.0071 J-0.0055
X0.2429 Y0.5055 Z-0.2505 I-0.0071 J0.0055
X0.2571 Y0.4945 Z-0.2515 I0.0071 J-0.0055
X0.2429 Y0.5055 Z-0.2525 I-0.0071 J0.0055
X0.2571 Y0.4945 Z-0.2534 I0.0071 J-0.0055
X0.2429 Y0.5055 Z-0.2544 I-0.0071 J0.0055
X0.2571 Y0.4945 Z-0.2554 I0.0071 J-0.0055
X0.2429 Y0.5055 Z-0.2564 I-0.0071 J0.0055
X0.2571 Y0.4945 Z-0.2574 I0.0071 J-0.0055
X0.2429 Y0.5055 Z-0.2584 I-0.0071 J0.0055
X0.2571 Y0.4945 Z-0.2594 I0.0071 J-0.0055
X0.2429 Y0.5055 Z-0.2604 I-0.0071 J0.0055
X0.2571 Y0.4945 Z-0.2613 I0.0071 J-0.0055
X0.2429 Y0.5055 Z-0.2623 I-0.0071 J0.0055
X0.2571 Y0.4945 Z-0.2633 I0.0071 J-0.0055
X0.2429 Y0.5055 Z-0.2643 I-0.0071 J0.0055
X0.2571 Y0.4945 Z-0.2653 I0.0071 J-0.0055
X0.2429 Y0.5055 Z-0.2663 I-0.0071 J0.0055
X0.2571 Y0.4945 Z-0.2673 I0.0071 J-0.0055
X0.2429 Y0.5055 Z-0.2683 I-0.0071 J0.0055
X0.2571 Y0.4945 Z-0.2692 I0.0071 J-0.0055
X0.2429 Y0.5055 Z-0.2702 I-0.0071 J0.0055
X0.2571 Y0.4945 Z-0.2712 I0.0071 J-0.0055
X0.2429 Y0.5055 Z-0.2722 I-0.0071 J0.0055
X0.2571 Y0.4945 Z-0.2732 I0.0071 J-0.0055
X0.2429 Y0.5055 Z-0.2742 I-0.0071 J0.0055
X0.2571 Y0.4945 Z-0.2752 I0.0071 J-0.0055
X0.2429 Y0.5055 Z-0.2762 I-0.0071 J0.0055
X0.2571 Y0.4945 Z-0.2771 I0.0071 J-0.0055
X0.2429 Y0.5055 Z-0.2781 I-0.0071 J0.0055
X0.2571 Y0.4945 Z-0.2791 I0.0071 J-0.0055
X0.245 Y0.5075 Z-0.28 I-0.0071 J0.0055
X0.255 Y0.4925 I0.005 J-0.0075 F40.
X0.245 Y0.5075 I-0.005 J0.0075
X0.255 Y0.4925 Z-0.281 I0.005 J-0.0075 F20.
X0.245 Y0.5075 Z-0.282 I-0.005 J0.0075
X0.255 Y0.4925 Z-0.283 I0.005 J-0.0075
X0.245 Y0.5075 Z-0.2839 I-0.005 J0.0075
X0.255 Y0.4925 Z-0.2849 I0.005 J-0.0075
X0.245 Y0.5075 Z-0.2859 I-0.005 J0.0075
X0.255 Y0.4925 Z-0.2869 I0.005 J-0.0075
X0.245 Y0.5075 Z-0.2879 I-0.005 J0.0075
X0.255 Y0.4925 Z-0.2889 I0.005 J-0.0075
X0.245 Y0.5075 Z-0.2899 I-0.005 J0.0075
X0.255 Y0.4925 Z-0.2909 I0.005 J-0.0075
X0.245 Y0.5075 Z-0.2918 I-0.005 J0.0075
X0.255 Y0.4925 Z-0.2928 I0.005 J-0.0075
X0.245 Y0.5075 Z-0.2938 I-0.005 J0.0075
X0.255 Y0.4925 Z-0.2948 I0.005 J-0.0075
X0.245 Y0.5075 Z-0.2958 I-0.005 J0.0075
X0.255 Y0.4925 Z-0.2968 I0.005 J-0.0075
X0.245 Y0.5075 Z-0.2978 I-0.005 J0.0075
X0.255 Y0.4925 Z-0.2988 I0.005 J-0.0075
X0.245 Y0.5075 Z-0.2997 I-0.005 J0.0075
X0.255 Y0.4925 Z-0.3007 I0.005 J-0.0075
X0.245 Y0.5075 Z-0.3017 I-0.005 J0.0075
X0.255 Y0.4925 Z-0.3027 I0.005 J-0.0075
X0.245 Y0.5075 Z-0.3037 I-0.005 J0.0075
X0.255 Y0.4925 Z-0.3047 I0.005 J-0.0075
X0.245 Y0.5075 Z-0.3057 I-0.005 J0.0075
X0.255 Y0.4925 Z-0.3067 I0.005 J-0.0075
X0.245 Y0.5075 Z-0.3076 I-0.005 J0.0075
X0.255 Y0.4925 Z-0.3086 I0.005 J-0.0075
X0.245 Y0.5075 Z-0.3096 I-0.005 J0.0075
X0.255 Y0.4925 Z-0.3106 I0.005 J-0.0075
X0.245 Y0.5075 Z-0.3116 I-0.005 J0.0075
X0.255 Y0.4925 Z-0.3126 I0.005 J-0.0075
X0.245 Y0.5075 Z-0.3136 I-0.005 J0.0075
X0.255 Y0.4925 Z-0.3146 I0.005 J-0.0075
X0.245 Y0.5075 Z-0.3155 I-0.005 J0.0075
X0.255 Y0.4925 Z-0.3165 I0.005 J-0.0075
X0.245 Y0.5075 Z-0.3175 I-0.005 J0.0075
X0.255 Y0.4925 Z-0.3185 I0.005 J-0.0075
X0.245 Y0.5075 Z-0.3195 I-0.005 J0.0075
X0.255 Y0.4925 Z-0.3205 I0.005 J-0.0075
X0.245 Y0.5075 Z-0.3215 I-0.005 J0.0075
X0.255 Y0.4925 Z-0.3225 I0.005 J-0.0075
X0.245 Y0.5075 Z-0.3234 I-0.005 J0.0075
X0.255 Y0.4925 Z-0.3244 I0.005 J-0.0075
X0.245 Y0.5075 Z-0.3254 I-0.005 J0.0075
X0.255 Y0.4925 Z-0.3264 I0.005 J-0.0075
X0.245 Y0.5075 Z-0.3274 I-0.005 J0.0075
X0.255 Y0.4925 Z-0.3284 I0.005 J-0.0075
X0.245 Y0.5075 Z-0.3294 I-0.005 J0.0075
X0.255 Y0.4925 Z-0.3304 I0.005 J-0.0075
X0.245 Y0.5075 Z-0.3313 I-0.005 J0.0075
X0.255 Y0.4925 Z-0.3323 I0.005 J-0.0075
X0.245 Y0.5075 Z-0.3333 I-0.005 J0.0075
X0.255 Y0.4925 Z-0.3343 I0.005 J-0.0075
X0.245 Y0.5075 Z-0.3353 I-0.005 J0.0075
X0.255 Y0.4925 Z-0.3363 I0.005 J-0.0075
X0.245 Y0.5075 Z-0.3373 I-0.005 J0.0075
X0.255 Y0.4925 Z-0.3383 I0.005 J-0.0075
X0.245 Y0.5075 Z-0.3392 I-0.005 J0.0075
X0.255 Y0.4925 Z-0.3402 I0.005 J-0.0075
X0.245 Y0.5075 Z-0.3412 I-0.005 J0.0075
X0.255 Y0.4925 Z-0.3422 I0.005 J-0.0075
X0.245 Y0.5075 Z-0.3432 I-0.005 J0.0075
X0.255 Y0.4925 Z-0.3442 I0.005 J-0.0075
X0.245 Y0.5075 Z-0.3452 I-0.005 J0.0075
X0.255 Y0.4925 Z-0.3462 I0.005 J-0.0075
X0.245 Y0.5075 Z-0.3471 I-0.005 J0.0075
X0.255 Y0.4925 Z-0.3481 I0.005 J-0.0075
X0.245 Y0.5075 Z-0.3491 I-0.005 J0.0075
X0.2523 Y0.4913 Z-0.35 I0.005 J-0.0075
X0.2477 Y0.5087 I-0.0023 J0.0087 F40.
X0.2523 Y0.4913 I0.0023 J-0.0087
X0.2477 Y0.5087 Z-0.351 I-0.0023 J0.0087 F20.
X0.2523 Y0.4913 Z-0.352 I0.0023 J-0.0087
X0.2477 Y0.5087 Z-0.353 I-0.0023 J0.0087
X0.2523 Y0.4913 Z-0.3539 I0.0023 J-0.0087
X0.2477 Y0.5087 Z-0.3549 I-0.0023 J0.0087
X0.2523 Y0.4913 Z-0.3559 I0.0023 J-0.0087
X0.2477 Y0.5087 Z-0.3569 I-0.0023 J0.0087
X0.2523 Y0.4913 Z-0.3579 I0.0023 J-0.0087
X0.2477 Y0.5087 Z-0.3589 I-0.0023 J0.0087
X0.2523 Y0.4913 Z-0.3599 I0.0023 J-0.0087
X0.2477 Y0.5087 Z-0.3609 I-0.0023 J0.0087
X0.2523 Y0.4913 Z-0.3618 I0.0023 J-0.0087
X0.2477 Y0.5087 Z-0.3628 I-0.0023 J0.0087
X0.2523 Y0.4913 Z-0.3638 I0.0023 J-0.0087
X0.2477 Y0.5087 Z-0.3648 I-0.0023 J0.0087
X0.2523 Y0.4913 Z-0.3658 I0.0023 J-0.0087
X0.2477 Y0.5087 Z-0.3668 I-0.0023 J0.0087
X0.2523 Y0.4913 Z-0.3678 I0.0023 J-0.0087
X0.2477 Y0.5087 Z-0.3688 I-0.0023 J0.0087
X0.2523 Y0.4913 Z-0.3697 I0.0023 J-0.0087
X0.2477 Y0.5087 Z-0.3707 I-0.0023 J0.0087
X0.2523 Y0.4913 Z-0.3717 I0.0023 J-0.0087
X0.2477 Y0.5087 Z-0.3727 I-0.0023 J0.0087
X0.2523 Y0.4913 Z-0.3737 I0.0023 J-0.0087
X0.2477 Y0.5087 Z-0.3747 I-0.0023 J0.0087
X0.2523 Y0.4913 Z-0.3757 I0.0023 J-0.0087
X0.2477 Y0.5087 Z-0.3767 I-0.0023 J0.0087
X0.2523 Y0.4913 Z-0.3776 I0.0023 J-0.0087
X0.2477 Y0.5087 Z-0.3786 I-0.0023 J0.0087
X0.2523 Y0.4913 Z-0.3796 I0.0023 J-0.0087
X0.2477 Y0.5087 Z-0.3806 I-0.0023 J0.0087
X0.2523 Y0.4913 Z-0.3816 I0.0023 J-0.0087
X0.2477 Y0.5087 Z-0.3826 I-0.0023 J0.0087
X0.2523 Y0.4913 Z-0.3836 I0.0023 J-0.0087
X0.2477 Y0.5087 Z-0.3846 I-0.0023 J0.0087
X0.2523 Y0.4913 Z-0.3855 I0.0023 J-0.0087
X0.2477 Y0.5087 Z-0.3865 I-0.0023 J0.0087
X0.2523 Y0.4913 Z-0.3875 I0.0023 J-0.0087
X0.2477 Y0.5087 Z-0.3885 I-0.0023 J0.0087
X0.2523 Y0.4913 Z-0.3895 I0.0023 J-0.0087
X0.2477 Y0.5087 Z-0.3905 I-0.0023 J0.0087
X0.2523 Y0.4913 Z-0.3915 I0.0023 J-0.0087
X0.2477 Y0.5087 Z-0.3925 I-0.0023 J0.0087
X0.2523 Y0.4913 Z-0.3934 I0.0023 J-0.0087
X0.2477 Y0.5087 Z-0.3944 I-0.0023 J0.0087
X0.2523 Y0.4913 Z-0.3954 I0.0023 J-0.0087
X0.2477 Y0.5087 Z-0.3964 I-0.0023 J0.0087
X0.2523 Y0.4913 Z-0.3974 I0.0023 J-0.0087
X0.2477 Y0.5087 Z-0.3984 I-0.0023 J0.0087
X0.2523 Y0.4913 Z-0.3994 I0.0023 J-0.0087
X0.2477 Y0.5087 Z-0.4004 I-0.0023 J0.0087
X0.2523 Y0.4913 Z-0.4013 I0.0023 J-0.0087
X0.2477 Y0.5087 Z-0.4023 I-0.0023 J0.0087
X0.2523 Y0.4913 Z-0.4033 I0.0023 J-0.0087
X0.2477 Y0.5087 Z-0.4043 I-0.0023 J0.0087
X0.2523 Y0.4913 Z-0.4053 I0.0023 J-0.0087
X0.2477 Y0.5087 Z-0.4063 I-0.0023 J0.0087
X0.2523 Y0.4913 Z-0.4073 I0.0023 J-0.0087
X0.2477 Y0.5087 Z-0.4083 I-0.0023 J0.0087
X0.2523 Y0.4913 Z-0.4092 I0.0023 J-0.0087
X0.2477 Y0.5087 Z-0.4102 I-0.0023 J0.0087
X0.2523 Y0.4913 Z-0.4112 I0.0023 J-0.0087
X0.2477 Y0.5087 Z-0.4122 I-0.0023 J0.0087
X0.2523 Y0.4913 Z-0.4132 I0.0023 J-0.0087
X0.2477 Y0.5087 Z-0.4142 I-0.0023 J0.0087
X0.2523 Y0.4913 Z-0.4152 I0.0023 J-0.0087
X0.2477 Y0.5087 Z-0.4162 I-0.0023 J0.0087
X0.2523 Y0.4913 Z-0.4171 I0.0023 J-0.0087
X0.2477 Y0.5087 Z-0.4181 I-0.0023 J0.0087
X0.2523 Y0.4913 Z-0.4191 I0.0023 J-0.0087
X0.2506 Y0.509 Z-0.42 I-0.0023 J0.0087
X0.2494 Y0.491 I-0.0006 J-0.009 F40.
X0.2506 Y0.509 I0.0006 J0.009
X0.2494 Y0.491 Z-0.421 I-0.0006 J-0.009 F20.
X0.2506 Y0.509 Z-0.422 I0.0006 J0.009
X0.2494 Y0.491 Z-0.423 I-0.0006 J-0.009
X0.2506 Y0.509 Z-0.4239 I0.0006 J0.009
X0.2494 Y0.491 Z-0.4249 I-0.0006 J-0.009
X0.2506 Y0.509 Z-0.4259 I0.0006 J0.009
X0.2494 Y0.491 Z-0.4269 I-0.0006 J-0.009
X0.2506 Y0.509 Z-0.4279 I0.0006 J0.009
X0.2494 Y0.491 Z-0.4289 I-0.0006 J-0.009
X0.2506 Y0.509 Z-0.4299 I0.0006 J0.009
X0.2494 Y0.491 Z-0.4309 I-0.0006 J-0.009
X0.2506 Y0.509 Z-0.4318 I0.0006 J0.009
X0.2494 Y0.491 Z-0.4328 I-0.0006 J-0.009
X0.2506 Y0.509 Z-0.4338 I0.0006 J0.009
X0.2494 Y0.491 Z-0.4348 I-0.0006 J-0.009
X0.2506 Y0.509 Z-0.4358 I0.0006 J0.009
X0.2494 Y0.491 Z-0.4368 I-0.0006 J-0.009
X0.2506 Y0.509 Z-0.4378 I0.0006 J0.009
X0.2494 Y0.491 Z-0.4388 I-0.0006 J-0.009
X0.2506 Y0.509 Z-0.4397 I0.0006 J0.009
X0.2494 Y0.491 Z-0.4407 I-0.0006 J-0.009
X0.2506 Y0.509 Z-0.4417 I0.0006 J0.009
X0.2494 Y0.491 Z-0.4427 I-0.0006 J-0.009
X0.2506 Y0.509 Z-0.4437 I0.0006 J0.009
X0.2494 Y0.491 Z-0.4447 I-0.0006 J-0.009
X0.2506 Y0.509 Z-0.4457 I0.0006 J0.009
X0.2494 Y0.491 Z-0.4467 I-0.0006 J-0.009
X0.2506 Y0.509 Z-0.4476 I0.0006 J0.009
X0.2494 Y0.491 Z-0.4486 I-0.0006 J-0.009
X0.2506 Y0.509 Z-0.4496 I0.0006 J0.009
X0.2494 Y0.491 Z-0.4506 I-0.0006 J-0.009
X0.2506 Y0.509 Z-0.4516 I0.0006 J0.009
X0.2494 Y0.491 Z-0.4526 I-0.0006 J-0.009
X0.2506 Y0.509 Z-0.4536 I0.0006 J0.009
X0.2494 Y0.491 Z-0.4546 I-0.0006 J-0.009
X0.2506 Y0.509 Z-0.4555 I0.0006 J0.009
X0.2494 Y0.491 Z-0.4565 I-0.0006 J-0.009
X0.2506 Y0.509 Z-0.4575 I0.0006 J0.009
X0.2494 Y0.491 Z-0.4585 I-0.0006 J-0.009
X0.2506 Y0.509 Z-0.4595 I0.0006 J0.009
X0.241 Y0.5002 Z-0.46 I-0.0006 J-0.009
X0.259 Y0.4998 I0.009 J-0.0002 F40.
X0.241 Y0.5002 I-0.009 J0.0002
X0.259 Y0.4998 Z-0.461 I0.009 J-0.0002 F20.
X0.241 Y0.5002 Z-0.462 I-0.009 J0.0002
X0.259 Y0.4998 Z-0.463 I0.009 J-0.0002
X0.241 Y0.5002 Z-0.4639 I-0.009 J0.0002
X0.259 Y0.4998 Z-0.4649 I0.009 J-0.0002
X0.241 Y0.5002 Z-0.4659 I-0.009 J0.0002
X0.259 Y0.4998 Z-0.4669 I0.009 J-0.0002
X0.241 Y0.5002 Z-0.4679 I-0.009 J0.0002
X0.259 Y0.4998 Z-0.4689 I0.009 J-0.0002
X0.241 Y0.5002 Z-0.4699 I-0.009 J0.0002
X0.259 Y0.4998 Z-0.4709 I0.009 J-0.0002
X0.241 Y0.5002 Z-0.4718 I-0.009 J0.0002
X0.259 Y0.4998 Z-0.4728 I0.009 J-0.0002
X0.241 Y0.5002 Z-0.4738 I-0.009 J0.0002
X0.259 Y0.4998 Z-0.4748 I0.009 J-0.0002
X0.241 Y0.5002 Z-0.4758 I-0.009 J0.0002
X0.259 Y0.4998 Z-0.4768 I0.009 J-0.0002
X0.241 Y0.5002 Z-0.4778 I-0.009 J0.0002
X0.259 Y0.4998 Z-0.4788 I0.009 J-0.0002
X0.241 Y0.5002 Z-0.4797 I-0.009 J0.0002
X0.259 Y0.4998 Z-0.4807 I0.009 J-0.0002
X0.241 Y0.5002 Z-0.4817 I-0.009 J0.0002
X0.259 Y0.4998 Z-0.4827 I0.009 J-0.0002
X0.241 Y0.5002 Z-0.4837 I-0.009 J0.0002
X0.259 Y0.4998 Z-0.4847 I0.009 J-0.0002
X0.241 Y0.5002 Z-0.4857 I-0.009 J0.0002
X0.259 Y0.4998 Z-0.4867 I0.009 J-0.0002
X0.241 Y0.5002 Z-0.4876 I-0.009 J0.0002
X0.259 Y0.4998 Z-0.4886 I0.009 J-0.0002
X0.241 Y0.5002 Z-0.4896 I-0.009 J0.0002
X0.259 Y0.4998 Z-0.4906 I0.009 J-0.0002
X0.241 Y0.5002 Z-0.4916 I-0.009 J0.0002
X0.259 Y0.4998 Z-0.4926 I0.009 J-0.0002
X0.241 Y0.5002 Z-0.4936 I-0.009 J0.0002
X0.259 Y0.4998 Z-0.4946 I0.009 J-0.0002
X0.241 Y0.5002 Z-0.4955 I-0.009 J0.0002
X0.259 Y0.4998 Z-0.4965 I0.009 J-0.0002
X0.241 Y0.5002 Z-0.4975 I-0.009 J0.0002
X0.259 Y0.4998 Z-0.4985 I0.009 J-0.0002
X0.241 Y0.5002 Z-0.4995 I-0.009 J0.0002
X0.2501 Y0.491 Z-0.5 I0.009 J-0.0002
X0.2499 Y0.509 I-0.0001 J0.009 F40.
X0.2501 Y0.491 I0.0001 J-0.009
G1 X0.2523 Y0.4913 Z-0.4996
X0.2544 Y0.4922 Z-0.4991
X0.256 Y0.4933 Z-0.4978
X0.2573 Y0.4947 Z-0.4965
X0.2579 Y0.4958 Z-0.4946
X0.2585 Y0.4969 Z-0.4927
X0.2587 Y0.4978 Z-0.4882
G0 Z2.

M9
M30
