(CYLINDER MOUNTING BLOCK ADAPTIVE CLEAR)
(T3  D=0.118 CR=0. - ZMIN=-0.7496 - FLAT END MILL)
G90 G94 G91.1 G40 G49 G17
G20

(ADAPTIVE2)
M5
T3 M6
S15000 M3
g4 p5
G54
M8
G0 X0.3113 Y-0.0923
G43 Z0.2 H3
Z-0.3701
G1 Z-0.3819 F40.
X0.3111 Y-0.0921 Z-0.3845
X0.3104 Y-0.0915 Z-0.387
X0.3093 Y-0.0906 Z-0.3893
X0.3078 Y-0.0895 Z-0.3911
X0.3061 Y-0.0881 Z-0.3925
X0.3041 Y-0.0865 Z-0.3934
X0.3021 Y-0.0849 Z-0.3937
G3 X0.2428 Y-0.0584 I-0.0814 J-0.1024
G1 X0.2403 Y-0.0581
X0.2347 Y-0.0568
X0.2331 Y-0.0563
X0.2291 Y-0.0551
X0.2217 Y-0.0518
X0.2199 Y-0.0507
X0.2179 Y-0.0493
X0.2122 Y-0.0451
X0.2076 Y-0.0413
X0.2024 Y-0.0378
X0.1958 Y-0.0341
X0.1872 Y-0.0302
X0.1759 Y-0.026
X0.1603 Y-0.0218
X0.137 Y-0.0173
X0.1124 Y-0.0147
X0.0877 Y-0.0132
X0.0629 Y-0.0124
X0.0506 Y-0.0121
X0.039 Y-0.0077
X0.0293 Y-0.0001
X0.0132 Y0.0188
X0.0033 Y0.0414
X-0.0027 Y0.0654
X-0.0062 Y0.0899
X-0.0083 Y0.1146
X-0.0095 Y0.1393
X-0.0102 Y0.164
X-0.0106 Y0.1888
X-0.0108 Y0.2135
X-0.0109 Y0.2383
X-0.0111 Y0.2877
Y0.3298
X-0.0116 Y0.335
X-0.013 Y0.3399
X-0.0153 Y0.3445
X-0.0213 Y0.3539
X-0.0234 Y0.3574
X-0.028 Y0.3651
X-0.0303 Y0.3707
X-0.0324 Y0.3764
X-0.0442 Y0.4101
X-0.05 Y0.4269
X-0.0509 Y0.4298
X-0.0514 Y0.4326
X-0.053 Y0.4438
X-0.0537 Y0.4494
X-0.0575 Y0.4831
X-0.058 Y0.4888
G3 X-0.0805 Y0.4919 I-0.0117 J-0.0015
G1 X-0.0816 Y0.4895 Z-0.3934
X-0.0825 Y0.4872 Z-0.3925
X-0.0834 Y0.4851 Z-0.3911
X-0.0841 Y0.4834 Z-0.3893
X-0.0847 Y0.4821 Z-0.387
X-0.085 Y0.4813 Z-0.3845
X-0.0851 Y0.481 Z-0.3819
G0 Z0.2
X0.2314 Y-0.083
Z-0.3701
G1 Z-0.3819 F40.
X0.2313 Y-0.0827 Z-0.3845
X0.231 Y-0.0819 Z-0.387
X0.2306 Y-0.0805 Z-0.3893
X0.2301 Y-0.0787 Z-0.3911
X0.2295 Y-0.0766 Z-0.3925
X0.2288 Y-0.0742 Z-0.3934
X0.228 Y-0.0717 Z-0.3937
G3 X0.2122 Y-0.0451 I-0.0598 J-0.0176
G1 X0.2067 Y-0.04
X0.2062 Y-0.0395
X0.2019 Y-0.0339
X0.1983 Y-0.0282
X0.1957 Y-0.0226
X0.193 Y-0.0173
X0.1895 Y-0.0124
X0.1855 Y-0.0079
X0.1809 Y-0.0037
X0.1757 Y0.0005
X0.1688 Y0.0051
X0.1603 Y0.0098
X0.1499 Y0.0145
X0.1362 Y0.0194
X0.1123 Y0.0259
X0.1006 Y0.0299
X0.09 Y0.0363
X0.0714 Y0.0526
X0.0585 Y0.0737
X0.0501 Y0.097
X0.0447 Y0.1211
X0.0414 Y0.1457
X0.0393 Y0.1703
X0.038 Y0.195
X0.0372 Y0.2198
X0.0368 Y0.2445
X0.0365 Y0.2676
X0.0355 Y0.2747
X0.0328 Y0.2812
X0.0284 Y0.2868
X0.0159 Y0.2994
X0.0121 Y0.3033
X0.0072 Y0.3089
X0.0035 Y0.3146
X-0.0071 Y0.3314
X-0.0153 Y0.3445
G3 X-0.0369 Y0.337 I-0.0098 J-0.0066
G1 X-0.0367 Y0.3343 Z-0.3934
X-0.0365 Y0.3319 Z-0.3925
X-0.0363 Y0.3296 Z-0.3911
X-0.0362 Y0.3278 Z-0.3893
X-0.0361 Y0.3264 Z-0.387
X-0.036 Y0.3255 Z-0.3845
Y0.3252 Z-0.3819
G0 Z0.2
X0.1981 Y-0.065
Z-0.3701
G1 Z-0.3819 F40.
X0.1982 Y-0.0647 Z-0.3845
X0.1983 Y-0.0639 Z-0.387
X0.1984 Y-0.0625 Z-0.3893
X0.1987 Y-0.0606 Z-0.3911
X0.199 Y-0.0584 Z-0.3925
X0.1993 Y-0.0559 Z-0.3934
X0.1996 Y-0.0533 Z-0.3937
G3 X0.1957 Y-0.0226 I-0.0618 J0.0077
G1 X0.1954 Y-0.022
X0.1937 Y-0.017
X0.1922 Y-0.0114
X0.1914 Y-0.0058
X0.1912 Y-0.0027
X0.1906 Y0.0033
X0.1891 Y0.0091
X0.1868 Y0.0146
X0.1838 Y0.0198
X0.1803 Y0.0247
X0.1763 Y0.0293
X0.1711 Y0.0346
X0.1522 Y0.0506
X0.1328 Y0.0659
X0.1173 Y0.0852
X0.106 Y0.1072
X0.0982 Y0.1307
X0.0929 Y0.1549
X0.0894 Y0.1794
X0.0872 Y0.204
X0.0859 Y0.2264
X0.084 Y0.2348
X0.0797 Y0.2423
X0.0733 Y0.248
G3 X0.057 Y0.2321 I-0.006 J-0.0101
G1 X0.0582 Y0.2298 Z-0.3934
X0.0595 Y0.2276 Z-0.3925
X0.0606 Y0.2256 Z-0.3911
X0.0615 Y0.224 Z-0.3893
X0.0622 Y0.2228 Z-0.387
X0.0626 Y0.222 Z-0.3845
X0.0627 Y0.2218 Z-0.3819
G0 Z0.2
X0.1785 Y-0.0432
Z-0.3701
G1 Z-0.3819 F40.
X0.1786 Y-0.0429 Z-0.3845
X0.1791 Y-0.0421 Z-0.387
X0.1797 Y-0.0409 Z-0.3893
X0.1806 Y-0.0392 Z-0.3911
X0.1816 Y-0.0373 Z-0.3925
X0.1828 Y-0.0351 Z-0.3934
X0.184 Y-0.0327 Z-0.3937
G3 X0.1912 Y-0.0027 I-0.0551 J0.0291
G1 X0.1911 Y-0.0001
X0.191 Y0.0167
Y0.0279
X0.1907 Y0.0339
X0.1898 Y0.0399
X0.1883 Y0.0457
X0.1854 Y0.0536
X0.1752 Y0.0761
X0.164 Y0.0982
X0.1546 Y0.1211
X0.1474 Y0.1447
X0.142 Y0.1689
X0.1383 Y0.1934
X0.1373 Y0.1988
X0.1354 Y0.2055
X0.1318 Y0.2114
X0.1268 Y0.2162
X0.1208 Y0.2197
G3 X0.1055 Y0.2048 I-0.0042 J-0.011
G1 X0.1069 Y0.2008
X0.1681 Y0.0245
G3 X0.191 Y0.0279 I0.0111 J0.0039
G1 Y0.1122
X0.1898 Y0.137
X0.1881 Y0.1616
X0.1861 Y0.1772
X0.1849 Y0.183
X0.1825 Y0.1897
X0.1786 Y0.1955
X0.1733 Y0.2002
X0.167 Y0.2033
G3 X0.1519 Y0.1898 I-0.0035 J-0.0113
G1 X0.1532 Y0.1834
X0.1676 Y0.1104
G3 X0.191 Y0.1122 I0.0116 J0.0023
G1 Y0.1853
X0.1909 Y0.1881
X0.1907 Y0.1895
X0.1903 Y0.1909
X0.1898 Y0.192
X0.1892 Y0.1931
X0.1884 Y0.1943
X0.1871 Y0.1956
X0.1859 Y0.1965
X0.1842 Y0.1976
X0.1828 Y0.1983
X0.1814 Y0.1987
X0.1786 Y0.1994
X0.173 Y0.2012
X0.1281 Y0.217
X0.1224 Y0.219
X0.1169 Y0.2213
X0.1113 Y0.2242
X0.1104 Y0.2246
X0.0746 Y0.2471
X0.072 Y0.2488
X0.0577 Y0.2584
X0.0551 Y0.2604
X0.0495 Y0.2657
X0.0284 Y0.2868
G3 X0.0114 Y0.2858 I-0.008 J-0.0086
G1 X0.0105 Y0.2839 Z-0.3935
X0.0096 Y0.2821 Z-0.3929
X0.0088 Y0.2804 Z-0.392
X0.0087 Y0.2792 Z-0.3912
X0.0086 Y0.2782 Z-0.3903
X0.0088 Y0.2767 Z-0.3885
X0.009 Y0.2756 Z-0.3865
X0.0091 Y0.2749 Z-0.3842
Y0.2747 Z-0.3819
G0 Z0.2
X0.3113 Y-0.0923
Z-0.726
G1 Z-0.7378 F40.
X0.3111 Y-0.0921 Z-0.7404
X0.3104 Y-0.0915 Z-0.7429
X0.3093 Y-0.0906 Z-0.7452
X0.3078 Y-0.0895 Z-0.747
X0.3061 Y-0.0881 Z-0.7484
X0.3041 Y-0.0865 Z-0.7493
X0.3021 Y-0.0849 Z-0.7496
G3 X0.2428 Y-0.0584 I-0.0814 J-0.1024
G1 X0.2403 Y-0.0581
X0.2347 Y-0.0568
X0.2331 Y-0.0563
X0.2291 Y-0.0551
X0.2217 Y-0.0518
X0.2199 Y-0.0507
X0.2179 Y-0.0493
X0.2122 Y-0.0451
X0.2076 Y-0.0413
X0.2024 Y-0.0378
X0.1958 Y-0.0341
X0.1872 Y-0.0302
X0.1759 Y-0.026
X0.1603 Y-0.0218
X0.137 Y-0.0173
X0.1124 Y-0.0147
X0.0877 Y-0.0132
X0.0629 Y-0.0124
X0.0506 Y-0.0121
X0.039 Y-0.0077
X0.0293 Y-0.0001
X0.0132 Y0.0188
X0.0033 Y0.0414
X-0.0027 Y0.0654
X-0.0062 Y0.0899
X-0.0083 Y0.1146
X-0.0095 Y0.1393
X-0.0102 Y0.164
X-0.0106 Y0.1888
X-0.0108 Y0.2135
X-0.0109 Y0.2383
X-0.0111 Y0.2877
Y0.3298
X-0.0116 Y0.335
X-0.013 Y0.3399
X-0.0153 Y0.3445
X-0.0213 Y0.3539
X-0.0234 Y0.3574
X-0.028 Y0.3651
X-0.0303 Y0.3707
X-0.0324 Y0.3764
X-0.0442 Y0.4101
X-0.05 Y0.4269
X-0.0509 Y0.4298
X-0.0514 Y0.4326
X-0.053 Y0.4438
X-0.0537 Y0.4494
X-0.0575 Y0.4831
X-0.058 Y0.4888
G3 X-0.0805 Y0.4919 I-0.0117 J-0.0015
G1 X-0.0816 Y0.4895 Z-0.7493
X-0.0825 Y0.4872 Z-0.7484
X-0.0834 Y0.4851 Z-0.747
X-0.0841 Y0.4834 Z-0.7452
X-0.0847 Y0.4821 Z-0.7429
X-0.085 Y0.4813 Z-0.7404
X-0.0851 Y0.481 Z-0.7378
G0 Z0.2
X0.2314 Y-0.083
Z-0.726
G1 Z-0.7378 F40.
X0.2313 Y-0.0827 Z-0.7404
X0.231 Y-0.0819 Z-0.7429
X0.2306 Y-0.0805 Z-0.7452
X0.2301 Y-0.0787 Z-0.747
X0.2295 Y-0.0766 Z-0.7484
X0.2288 Y-0.0742 Z-0.7493
X0.228 Y-0.0717 Z-0.7496
G3 X0.2122 Y-0.0451 I-0.0598 J-0.0176
G1 X0.2067 Y-0.04
X0.2062 Y-0.0395
X0.2019 Y-0.0339
X0.1983 Y-0.0282
X0.1957 Y-0.0226
X0.193 Y-0.0173
X0.1895 Y-0.0124
X0.1855 Y-0.0079
X0.1809 Y-0.0037
X0.1757 Y0.0005
X0.1688 Y0.0051
X0.1603 Y0.0098
X0.1499 Y0.0145
X0.1362 Y0.0194
X0.1123 Y0.0259
X0.1006 Y0.0299
X0.09 Y0.0363
X0.0714 Y0.0526
X0.0585 Y0.0737
X0.0501 Y0.097
X0.0447 Y0.1211
X0.0414 Y0.1457
X0.0393 Y0.1703
X0.038 Y0.195
X0.0372 Y0.2198
X0.0368 Y0.2445
X0.0365 Y0.2676
X0.0355 Y0.2747
X0.0328 Y0.2812
X0.0284 Y0.2868
X0.0159 Y0.2994
X0.0121 Y0.3033
X0.0072 Y0.3089
X0.0035 Y0.3146
X-0.0071 Y0.3314
X-0.0153 Y0.3445
G3 X-0.0369 Y0.337 I-0.0098 J-0.0066
G1 X-0.0367 Y0.3343 Z-0.7493
X-0.0365 Y0.3319 Z-0.7484
X-0.0363 Y0.3296 Z-0.747
X-0.0362 Y0.3278 Z-0.7452
X-0.0361 Y0.3264 Z-0.7429
X-0.036 Y0.3255 Z-0.7404
Y0.3252 Z-0.7378
G0 Z0.2
X0.1981 Y-0.065
Z-0.726
G1 Z-0.7378 F40.
X0.1982 Y-0.0647 Z-0.7404
X0.1983 Y-0.0639 Z-0.7429
X0.1984 Y-0.0625 Z-0.7452
X0.1987 Y-0.0606 Z-0.747
X0.199 Y-0.0584 Z-0.7484
X0.1993 Y-0.0559 Z-0.7493
X0.1996 Y-0.0533 Z-0.7496
G3 X0.1957 Y-0.0226 I-0.0618 J0.0077
G1 X0.1954 Y-0.022
X0.1937 Y-0.017
X0.1922 Y-0.0114
X0.1914 Y-0.0058
X0.1912 Y-0.0027
X0.1906 Y0.0033
X0.1891 Y0.0091
X0.1868 Y0.0146
X0.1838 Y0.0198
X0.1803 Y0.0247
X0.1763 Y0.0293
X0.1711 Y0.0346
X0.1522 Y0.0506
X0.1328 Y0.0659
X0.1173 Y0.0852
X0.106 Y0.1072
X0.0982 Y0.1307
X0.0929 Y0.1549
X0.0894 Y0.1794
X0.0872 Y0.204
X0.0859 Y0.2264
X0.084 Y0.2348
X0.0797 Y0.2423
X0.0733 Y0.248
G3 X0.057 Y0.2321 I-0.006 J-0.0101
G1 X0.0582 Y0.2298 Z-0.7493
X0.0595 Y0.2276 Z-0.7484
X0.0606 Y0.2256 Z-0.747
X0.0615 Y0.224 Z-0.7452
X0.0622 Y0.2228 Z-0.7429
X0.0626 Y0.222 Z-0.7404
X0.0627 Y0.2218 Z-0.7378
G0 Z0.2
X0.1785 Y-0.0432
Z-0.726
G1 Z-0.7378 F40.
X0.1786 Y-0.0429 Z-0.7404
X0.1791 Y-0.0421 Z-0.7429
X0.1797 Y-0.0409 Z-0.7452
X0.1806 Y-0.0392 Z-0.747
X0.1816 Y-0.0373 Z-0.7484
X0.1828 Y-0.0351 Z-0.7493
X0.184 Y-0.0327 Z-0.7496
G3 X0.1912 Y-0.0027 I-0.0551 J0.0291
G1 X0.1911 Y-0.0001
X0.191 Y0.0167
Y0.0279
X0.1907 Y0.0339
X0.1898 Y0.0399
X0.1883 Y0.0457
X0.1854 Y0.0536
X0.1752 Y0.0761
X0.164 Y0.0982
X0.1546 Y0.1211
X0.1474 Y0.1447
X0.142 Y0.1689
X0.1383 Y0.1934
X0.1373 Y0.1988
X0.1354 Y0.2055
X0.1318 Y0.2114
X0.1268 Y0.2162
X0.1208 Y0.2197
G3 X0.1055 Y0.2048 I-0.0042 J-0.011
G1 X0.1069 Y0.2008
X0.1681 Y0.0245
G3 X0.191 Y0.0279 I0.0111 J0.0039
G1 Y0.1122
X0.1898 Y0.137
X0.1881 Y0.1616
X0.1861 Y0.1772
X0.1849 Y0.183
X0.1825 Y0.1897
X0.1786 Y0.1955
X0.1733 Y0.2002
X0.167 Y0.2033
G3 X0.1519 Y0.1898 I-0.0035 J-0.0113
G1 X0.1532 Y0.1834
X0.1676 Y0.1104
G3 X0.191 Y0.1122 I0.0116 J0.0023
G1 Y0.1853
X0.1909 Y0.1881
X0.1907 Y0.1895
X0.1903 Y0.1909
X0.1898 Y0.192
X0.1892 Y0.1931
X0.1884 Y0.1943
X0.1871 Y0.1956
X0.1859 Y0.1965
X0.1842 Y0.1976
X0.1828 Y0.1983
X0.1814 Y0.1987
X0.1786 Y0.1994
X0.173 Y0.2012
X0.1281 Y0.217
X0.1224 Y0.219
X0.1169 Y0.2213
X0.1113 Y0.2242
X0.1104 Y0.2246
X0.0746 Y0.2471
X0.072 Y0.2488
X0.0577 Y0.2584
X0.0551 Y0.2604
X0.0495 Y0.2657
X0.0284 Y0.2868
G3 X0.0091 Y0.2747 I-0.008 J-0.0086
G1 X0.0099 Y0.2722 Z-0.7493
X0.0106 Y0.2698 Z-0.7484
X0.0113 Y0.2677 Z-0.747
X0.0118 Y0.2659 Z-0.7452
X0.0123 Y0.2645 Z-0.7429
X0.0125 Y0.2637 Z-0.7404
X0.0126 Y0.2634 Z-0.7378
G0 Z0.2

M9
M30
