(X4 SUPPORT BLOCK CONTOUR)
(T3  D=0.118 CR=0. - ZMIN=-0.6 - FLAT END MILL)
G90 G94 G91.1 G40 G49 G17
G20

(2D CONTOUR1)
M5
T3 M6
S15000 M3
g4 p5
G54
M8
G0 X1.9788 Y0.3794
G43 Z0.6 H3
Z0.2
G1 Z0.1194 F20.
Z-0.0682
X1.9785 Z-0.0708 F40.
X1.9777 Y0.3793 Z-0.0733
X1.9763 Y0.3791 Z-0.0756
X1.9744 Y0.3788 Z-0.0774
X1.9722 Y0.3786 Z-0.0788
X1.9697 Y0.3782 Z-0.0797
X1.9671 Y0.3779 Z-0.08
X1.9554 Y0.3763
G3 X1.9453 Y0.3631 I0.0015 J-0.0117
G1 X1.9838 Y0.0708
G2 X1.933 Y0.0046 I-0.0585 J-0.0077
X-0.0077 I-0.9703 J7.3704
X-0.0585 Y0.0708 I0.0077 J0.0585
G1 X0.0883 Y1.1862
G2 X0.1545 Y1.237 I0.0585 J-0.0077
G3 X1.7707 I0.8081 J6.138
G2 X1.8369 Y1.1862 I0.0077 J-0.0585
G1 X1.9453 Y0.3631
G3 X1.9585 Y0.3529 I0.0117 J0.0015
G1 X1.9702 Y0.3545
X1.9728 Y0.3548 Z-0.0797
X1.9753 Y0.3552 Z-0.0788
X1.9775 Y0.3554 Z-0.0774
X1.9794 Y0.3557 Z-0.0756
X1.9808 Y0.3559 Z-0.0733
X1.9816 Y0.356 Z-0.0708
X1.9819 Z-0.0682
X1.9788 Y0.3794
Z-0.1482 F20.
X1.9785 Z-0.1508 F40.
X1.9777 Y0.3793 Z-0.1533
X1.9763 Y0.3791 Z-0.1556
X1.9744 Y0.3788 Z-0.1574
X1.9722 Y0.3786 Z-0.1588
X1.9697 Y0.3782 Z-0.1597
X1.9671 Y0.3779 Z-0.16
X1.9554 Y0.3763
G3 X1.9453 Y0.3631 I0.0015 J-0.0117
G1 X1.9838 Y0.0708
G2 X1.933 Y0.0046 I-0.0585 J-0.0077
X-0.0077 I-0.9703 J7.3704
X-0.0585 Y0.0708 I0.0077 J0.0585
G1 X0.0883 Y1.1862
G2 X0.1545 Y1.237 I0.0585 J-0.0077
G3 X1.7707 I0.8081 J6.138
G2 X1.8369 Y1.1862 I0.0077 J-0.0585
G1 X1.9453 Y0.3631
G3 X1.9585 Y0.3529 I0.0117 J0.0015
G1 X1.9702 Y0.3545
X1.9728 Y0.3548 Z-0.1597
X1.9753 Y0.3552 Z-0.1588
X1.9775 Y0.3554 Z-0.1574
X1.9794 Y0.3557 Z-0.1556
X1.9808 Y0.3559 Z-0.1533
X1.9816 Y0.356 Z-0.1508
X1.9819 Z-0.1482
X1.9788 Y0.3794
Z-0.2282 F20.
X1.9785 Z-0.2308 F40.
X1.9777 Y0.3793 Z-0.2333
X1.9763 Y0.3791 Z-0.2356
X1.9744 Y0.3788 Z-0.2374
X1.9722 Y0.3786 Z-0.2388
X1.9697 Y0.3782 Z-0.2397
X1.9671 Y0.3779 Z-0.24
X1.9554 Y0.3763
G3 X1.9453 Y0.3631 I0.0015 J-0.0117
G1 X1.9838 Y0.0708
G2 X1.933 Y0.0046 I-0.0585 J-0.0077
X-0.0077 I-0.9703 J7.3704
X-0.0585 Y0.0708 I0.0077 J0.0585
G1 X0.0883 Y1.1862
G2 X0.1545 Y1.237 I0.0585 J-0.0077
G3 X1.7707 I0.8081 J6.138
G2 X1.8369 Y1.1862 I0.0077 J-0.0585
G1 X1.9453 Y0.3631
G3 X1.9585 Y0.3529 I0.0117 J0.0015
G1 X1.9702 Y0.3545
X1.9728 Y0.3548 Z-0.2397
X1.9753 Y0.3552 Z-0.2388
X1.9775 Y0.3554 Z-0.2374
X1.9794 Y0.3557 Z-0.2356
X1.9808 Y0.3559 Z-0.2333
X1.9816 Y0.356 Z-0.2308
X1.9819 Z-0.2282
X1.9788 Y0.3794
Z-0.3082 F20.
X1.9785 Z-0.3108 F40.
X1.9777 Y0.3793 Z-0.3133
X1.9763 Y0.3791 Z-0.3156
X1.9744 Y0.3788 Z-0.3174
X1.9722 Y0.3786 Z-0.3188
X1.9697 Y0.3782 Z-0.3197
X1.9671 Y0.3779 Z-0.32
X1.9554 Y0.3763
G3 X1.9453 Y0.3631 I0.0015 J-0.0117
G1 X1.9838 Y0.0708
G2 X1.933 Y0.0046 I-0.0585 J-0.0077
X-0.0077 I-0.9703 J7.3704
X-0.0585 Y0.0708 I0.0077 J0.0585
G1 X0.0883 Y1.1862
G2 X0.1545 Y1.237 I0.0585 J-0.0077
G3 X1.7707 I0.8081 J6.138
G2 X1.8369 Y1.1862 I0.0077 J-0.0585
G1 X1.9453 Y0.3631
G3 X1.9585 Y0.3529 I0.0117 J0.0015
G1 X1.9702 Y0.3545
X1.9728 Y0.3548 Z-0.3197
X1.9753 Y0.3552 Z-0.3188
X1.9775 Y0.3554 Z-0.3174
X1.9794 Y0.3557 Z-0.3156
X1.9808 Y0.3559 Z-0.3133
X1.9816 Y0.356 Z-0.3108
X1.9819 Z-0.3082
X1.9788 Y0.3794
Z-0.3882 F20.
X1.9785 Z-0.3908 F40.
X1.9777 Y0.3793 Z-0.3933
X1.9763 Y0.3791 Z-0.3956
X1.9744 Y0.3788 Z-0.3974
X1.9722 Y0.3786 Z-0.3988
X1.9697 Y0.3782 Z-0.3997
X1.9671 Y0.3779 Z-0.4
X1.9554 Y0.3763
G3 X1.9453 Y0.3631 I0.0015 J-0.0117
G1 X1.9838 Y0.0708
G2 X1.933 Y0.0046 I-0.0585 J-0.0077
X-0.0077 I-0.9703 J7.3704
X-0.0585 Y0.0708 I0.0077 J0.0585
G1 X0.0883 Y1.1862
G2 X0.1545 Y1.237 I0.0585 J-0.0077
G3 X1.7707 I0.8081 J6.138
G2 X1.8369 Y1.1862 I0.0077 J-0.0585
G1 X1.9453 Y0.3631
G3 X1.9585 Y0.3529 I0.0117 J0.0015
G1 X1.9702 Y0.3545
X1.9728 Y0.3548 Z-0.3997
X1.9753 Y0.3552 Z-0.3988
X1.9775 Y0.3554 Z-0.3974
X1.9794 Y0.3557 Z-0.3956
X1.9808 Y0.3559 Z-0.3933
X1.9816 Y0.356 Z-0.3908
X1.9819 Z-0.3882
X1.9788 Y0.3794
Z-0.4682 F20.
X1.9785 Z-0.4708 F40.
X1.9777 Y0.3793 Z-0.4733
X1.9763 Y0.3791 Z-0.4756
X1.9744 Y0.3788 Z-0.4774
X1.9722 Y0.3786 Z-0.4788
X1.9697 Y0.3782 Z-0.4797
X1.9671 Y0.3779 Z-0.48
X1.9554 Y0.3763
G3 X1.9453 Y0.3631 I0.0015 J-0.0117
G1 X1.9838 Y0.0708
G2 X1.933 Y0.0046 I-0.0585 J-0.0077
X-0.0077 I-0.9703 J7.3704
X-0.0585 Y0.0708 I0.0077 J0.0585
G1 X0.0883 Y1.1862
G2 X0.1545 Y1.237 I0.0585 J-0.0077
G3 X1.7707 I0.8081 J6.138
G2 X1.8369 Y1.1862 I0.0077 J-0.0585
G1 X1.9453 Y0.3631
G3 X1.9585 Y0.3529 I0.0117 J0.0015
G1 X1.9702 Y0.3545
X1.9728 Y0.3548 Z-0.4797
X1.9753 Y0.3552 Z-0.4788
X1.9775 Y0.3554 Z-0.4774
X1.9794 Y0.3557 Z-0.4756
X1.9808 Y0.3559 Z-0.4733
X1.9816 Y0.356 Z-0.4708
X1.9819 Z-0.4682
X1.9788 Y0.3794
Z-0.5482 F20.
X1.9785 Z-0.5508 F40.
X1.9777 Y0.3793 Z-0.5533
X1.9763 Y0.3791 Z-0.5556
X1.9744 Y0.3788 Z-0.5574
X1.9722 Y0.3786 Z-0.5588
X1.9697 Y0.3782 Z-0.5597
X1.9671 Y0.3779 Z-0.56
X1.9554 Y0.3763
G3 X1.9453 Y0.3631 I0.0015 J-0.0117
G1 X1.9838 Y0.0708
G2 X1.933 Y0.0046 I-0.0585 J-0.0077
X-0.0077 I-0.9703 J7.3704
X-0.0585 Y0.0708 I0.0077 J0.0585
G1 X0.0883 Y1.1862
G2 X0.1545 Y1.237 I0.0585 J-0.0077
G3 X1.7707 I0.8081 J6.138
G2 X1.8369 Y1.1862 I0.0077 J-0.0585
G1 X1.9453 Y0.3631
G3 X1.9585 Y0.3529 I0.0117 J0.0015
G1 X1.9702 Y0.3545
X1.9728 Y0.3548 Z-0.5597
X1.9753 Y0.3552 Z-0.5588
X1.9775 Y0.3554 Z-0.5574
X1.9794 Y0.3557 Z-0.5556
X1.9808 Y0.3559 Z-0.5533
X1.9816 Y0.356 Z-0.5508
X1.9819 Z-0.5482
X1.9788 Y0.3794
Z-0.5882 F20.
X1.9785 Z-0.5908 F40.
X1.9777 Y0.3793 Z-0.5933
X1.9763 Y0.3791 Z-0.5956
X1.9744 Y0.3788 Z-0.5974
X1.9722 Y0.3786 Z-0.5988
X1.9697 Y0.3782 Z-0.5997
X1.9671 Y0.3779 Z-0.6
X1.9554 Y0.3763
G3 X1.9453 Y0.3631 I0.0015 J-0.0117
G1 X1.9838 Y0.0708
G2 X1.933 Y0.0046 I-0.0585 J-0.0077
X-0.0077 I-0.9703 J7.3704
X-0.0585 Y0.0708 I0.0077 J0.0585
G1 X0.0883 Y1.1862
G2 X0.1545 Y1.237 I0.0585 J-0.0077
G3 X1.7707 I0.8081 J6.138
G2 X1.8369 Y1.1862 I0.0077 J-0.0585
G1 X1.9453 Y0.3631
G3 X1.9585 Y0.3529 I0.0117 J0.0015
G1 X1.9702 Y0.3545
X1.9728 Y0.3548 Z-0.5997
X1.9753 Y0.3552 Z-0.5988
X1.9775 Y0.3554 Z-0.5974
X1.9794 Y0.3557 Z-0.5956
X1.9808 Y0.3559 Z-0.5933
X1.9816 Y0.356 Z-0.5908
X1.9819 Z-0.5882
G0 Z0.6

M9
M30
