(X8 LEFT STATIC BRACE CHAMFER)
(T6  D=0.25 CR=0. TAPER=41DEG - ZMIN=0.0937 - CHAMFER MILL)
G90 G94 G91.1 G40 G49 G17
G20

(2D CONTOUR2)
M5
T6 M6
S15000 M3
G54
G0 X0.4546 Y0.523
G43 Z0.725 H6
Z0.325
G1 Z0.1644 F13.3
Z0.1187
G18 G3 X0.4296 Z0.0937 I-0.025 K0. F15.
G1 X0.4046
G17 G3 X0.3796 Y0.498 I0. J-0.025
G1 Y-0.498
G0 Z0.725

M30
