(X8 LEFT STATIC BRACE COMPLETE)
(T3  D=0.118 CR=0. - ZMIN=-0.175 - FLAT END MILL)
G90 G94 G91.1 G40 G49 G17
G20

(2D POCKET1)
M5
T3 M6
S15000 M3
G4 p5
G54
M8
G0 X1.5262 Y1.5543
G43 Z0.6 H3
Z0.2
G1 Z0.1118 F40.
X1.5248 Y1.5547 Z0.106 F20.
X1.5207 Y1.5554 Z0.1017
X1.515 Y1.556 Z0.1
G3 X1.5097 Y1.444 Z0.0939 I-0.0027 J-0.056
X1.515 Y1.556 Z0.0877 I0.0027 J0.056
X1.5097 Y1.444 Z0.0816 I-0.0027 J-0.056
X1.515 Y1.556 Z0.0754 I0.0027 J0.056
X1.5097 Y1.444 Z0.0693 I-0.0027 J-0.056
X1.515 Y1.556 Z0.0631 I0.0027 J0.056
X1.5097 Y1.444 Z0.057 I-0.0027 J-0.056
X1.515 Y1.556 Z0.0508 I0.0027 J0.056
X1.5097 Y1.444 Z0.0447 I-0.0027 J-0.056
X1.515 Y1.556 Z0.0385 I0.0027 J0.056
X1.5097 Y1.444 Z0.0324 I-0.0027 J-0.056
X1.515 Y1.556 Z0.0262 I0.0027 J0.056
X1.5097 Y1.444 Z0.0201 I-0.0027 J-0.056
X1.515 Y1.556 Z0.0139 I0.0027 J0.056
X1.5097 Y1.444 Z0.0078 I-0.0027 J-0.056
X1.515 Y1.556 Z0.0016 I0.0027 J0.056
X1.5097 Y1.444 Z-0.0045 I-0.0027 J-0.056
X1.515 Y1.556 Z-0.0107 I0.0027 J0.056
X1.5097 Y1.444 Z-0.0168 I-0.0027 J-0.056
X1.5684 Y1.5 Z-0.02 I0.0027 J0.056
X1.5426 I-0.0129 J0.
X1.5695 I0.0134 J0. F40.
X1.4305 I-0.0695 J0.
X1.5695 I0.0695 J0.
G1 X1.5693 Y1.5019
X1.5686 Y1.5036
X1.5676 Y1.5052
X1.5662 Y1.5065
X1.5646 Y1.5074
X1.4817 Y1.5416
X1.4799 Y1.5421
X1.478 Y1.5422
X1.4762 Y1.5419
X1.4745 Y1.5411
X1.473 Y1.5399
G3 X1.5516 Y1.4601 Z-0.0261 I0.0393 J-0.0399 F20.
X1.473 Y1.5399 Z-0.0323 I-0.0393 J0.0399
X1.5516 Y1.4601 Z-0.0384 I0.0393 J-0.0399
X1.5684 Y1.5 Z-0.04 I-0.0393 J0.0399
X1.5426 I-0.0129 J0.
X1.5695 I0.0134 J0. F40.
X1.4305 I-0.0695 J0.
X1.5695 I0.0695 J0.
G1 X1.5693 Y1.5019
X1.5686 Y1.5036
X1.5676 Y1.5052
X1.5662 Y1.5065
X1.5646 Y1.5074
X1.4817 Y1.5416
X1.4799 Y1.5421
X1.478 Y1.5422
X1.4762 Y1.5419
X1.4745 Y1.5411
X1.473 Y1.5399
G3 X1.5516 Y1.4601 Z-0.0461 I0.0393 J-0.0399 F20.
X1.473 Y1.5399 Z-0.0523 I-0.0393 J0.0399
X1.5516 Y1.4601 Z-0.0584 I0.0393 J-0.0399
X1.5684 Y1.5 Z-0.06 I-0.0393 J0.0399
X1.5426 I-0.0129 J0.
X1.5695 I0.0134 J0. F40.
X1.4305 I-0.0695 J0.
X1.5695 I0.0695 J0.
G1 X1.5693 Y1.5019
X1.5686 Y1.5036
X1.5676 Y1.5052
X1.5662 Y1.5065
X1.5646 Y1.5074
X1.4817 Y1.5416
X1.4799 Y1.5421
X1.478 Y1.5422
X1.4762 Y1.5419
X1.4745 Y1.5411
X1.473 Y1.5399
G3 X1.5516 Y1.4601 Z-0.0661 I0.0393 J-0.0399 F20.
X1.473 Y1.5399 Z-0.0723 I-0.0393 J0.0399
X1.5516 Y1.4601 Z-0.0784 I0.0393 J-0.0399
X1.5684 Y1.5 Z-0.08 I-0.0393 J0.0399
X1.5426 I-0.0129 J0.
X1.5695 I0.0134 J0. F40.
X1.4305 I-0.0695 J0.
X1.5695 I0.0695 J0.
G1 X1.5693 Y1.5019
X1.5686 Y1.5036
X1.5676 Y1.5052
X1.5662 Y1.5065
X1.5646 Y1.5074
X1.4817 Y1.5416
X1.4799 Y1.5421
X1.478 Y1.5422
X1.4762 Y1.5419
X1.4745 Y1.5411
X1.473 Y1.5399
G3 X1.5516 Y1.4601 Z-0.0861 I0.0393 J-0.0399 F20.
X1.473 Y1.5399 Z-0.0923 I-0.0393 J0.0399
X1.5516 Y1.4601 Z-0.0984 I0.0393 J-0.0399
X1.5684 Y1.5 Z-0.1 I-0.0393 J0.0399
X1.5426 I-0.0129 J0.
X1.5695 I0.0134 J0. F40.
X1.4305 I-0.0695 J0.
X1.5695 I0.0695 J0.
G1 X1.5693 Y1.5019
X1.5686 Y1.5036
X1.5676 Y1.5052
X1.5662 Y1.5065
X1.5646 Y1.5074
X1.4817 Y1.5416
X1.4799 Y1.5421
X1.478 Y1.5422
X1.4762 Y1.5419
X1.4745 Y1.5411
X1.473 Y1.5399
G3 X1.5516 Y1.4601 Z-0.1061 I0.0393 J-0.0399 F20.
X1.473 Y1.5399 Z-0.1123 I-0.0393 J0.0399
X1.5516 Y1.4601 Z-0.1184 I0.0393 J-0.0399
X1.5684 Y1.5 Z-0.12 I-0.0393 J0.0399
X1.5426 I-0.0129 J0.
X1.5695 I0.0134 J0. F40.
X1.4305 I-0.0695 J0.
X1.5695 I0.0695 J0.
G1 X1.5693 Y1.5019
X1.5686 Y1.5036
X1.5676 Y1.5052
X1.5662 Y1.5065
X1.5646 Y1.5074
X1.4817 Y1.5416
X1.4799 Y1.5421
X1.478 Y1.5422
X1.4762 Y1.5419
X1.4745 Y1.5411
X1.473 Y1.5399
G3 X1.5516 Y1.4601 Z-0.1261 I0.0393 J-0.0399 F20.
X1.473 Y1.5399 Z-0.1323 I-0.0393 J0.0399
X1.5516 Y1.4601 Z-0.1384 I0.0393 J-0.0399
X1.5684 Y1.5 Z-0.14 I-0.0393 J0.0399
X1.5426 I-0.0129 J0.
X1.5695 I0.0134 J0. F40.
X1.4305 I-0.0695 J0.
X1.5695 I0.0695 J0.
G1 X1.5693 Y1.5019
X1.5686 Y1.5036
X1.5676 Y1.5052
X1.5662 Y1.5065
X1.5646 Y1.5074
X1.4817 Y1.5416
X1.4799 Y1.5421
X1.478 Y1.5422
X1.4762 Y1.5419
X1.4745 Y1.5411
X1.473 Y1.5399
G3 X1.5516 Y1.4601 Z-0.1461 I0.0393 J-0.0399 F20.
X1.473 Y1.5399 Z-0.1523 I-0.0393 J0.0399
X1.5516 Y1.4601 Z-0.1584 I0.0393 J-0.0399
X1.5684 Y1.5 Z-0.16 I-0.0393 J0.0399
X1.5426 I-0.0129 J0.
X1.5695 I0.0134 J0. F40.
X1.4305 I-0.0695 J0.
X1.5695 I0.0695 J0.
X1.5599 Y1.5046 I-0.0059 J0.
G1 X1.5331 Y1.4833
X1.5167 Y1.4536
G3 X1.5229 Y1.445 I0.0052 J-0.0028
X1.5017 Y1.555 Z-0.1661 I-0.0106 J0.055 F20.
X1.5229 Y1.445 Z-0.1723 I0.0106 J-0.055
X1.5684 Y1.5 Z-0.175 I-0.0106 J0.055
X1.5426 I-0.0129 J0.
X1.5695 I0.0134 J0. F40.
X1.4305 I-0.0695 J0.
X1.5695 I0.0695 J0.
G1 X1.5693 Y1.5022 Z-0.1746
X1.5686 Y1.5044 Z-0.1741
X1.5678 Y1.5061 Z-0.1728
X1.5667 Y1.5077 Z-0.1715
X1.5648 Y1.5094 Z-0.1677
X1.5641 Y1.5099 Z-0.1632
G0 Z0.2
X1.5262 Y2.3035
G1 Z0.1118 F40.
X1.5248 Y2.3038 Z0.106 F20.
X1.5207 Y2.3046 Z0.1017
X1.515 Y2.3052 Z0.1
G3 X1.5097 Y2.1932 Z0.0939 I-0.0027 J-0.056
X1.515 Y2.3052 Z0.0877 I0.0027 J0.056
X1.5097 Y2.1932 Z0.0816 I-0.0027 J-0.056
X1.515 Y2.3052 Z0.0754 I0.0027 J0.056
X1.5097 Y2.1932 Z0.0693 I-0.0027 J-0.056
X1.515 Y2.3052 Z0.0631 I0.0027 J0.056
X1.5097 Y2.1932 Z0.057 I-0.0027 J-0.056
X1.515 Y2.3052 Z0.0508 I0.0027 J0.056
X1.5097 Y2.1932 Z0.0447 I-0.0027 J-0.056
X1.515 Y2.3052 Z0.0385 I0.0027 J0.056
X1.5097 Y2.1932 Z0.0324 I-0.0027 J-0.056
X1.515 Y2.3052 Z0.0262 I0.0027 J0.056
X1.5097 Y2.1932 Z0.0201 I-0.0027 J-0.056
X1.515 Y2.3052 Z0.0139 I0.0027 J0.056
X1.5097 Y2.1932 Z0.0078 I-0.0027 J-0.056
X1.515 Y2.3052 Z0.0016 I0.0027 J0.056
X1.5097 Y2.1932 Z-0.0045 I-0.0027 J-0.056
X1.515 Y2.3052 Z-0.0107 I0.0027 J0.056
X1.5097 Y2.1932 Z-0.0168 I-0.0027 J-0.056
X1.5684 Y2.2492 Z-0.02 I0.0027 J0.056
X1.5426 I-0.0129 J0.
X1.5695 I0.0134 J0. F40.
X1.4305 I-0.0695 J0.
X1.5695 I0.0695 J0.
G1 X1.5693 Y2.251
X1.5686 Y2.2528
X1.5676 Y2.2544
X1.5662 Y2.2557
X1.5646 Y2.2566
X1.4817 Y2.2908
X1.4799 Y2.2913
X1.478 Y2.2914
X1.4762 Y2.291
X1.4745 Y2.2903
X1.473 Y2.2891
G3 X1.5516 Y2.2092 Z-0.0261 I0.0393 J-0.0399 F20.
X1.473 Y2.2891 Z-0.0323 I-0.0393 J0.0399
X1.5516 Y2.2092 Z-0.0384 I0.0393 J-0.0399
X1.5684 Y2.2492 Z-0.04 I-0.0393 J0.0399
X1.5426 I-0.0129 J0.
X1.5695 I0.0134 J0. F40.
X1.4305 I-0.0695 J0.
X1.5695 I0.0695 J0.
G1 X1.5693 Y2.251
X1.5686 Y2.2528
X1.5676 Y2.2544
X1.5662 Y2.2557
X1.5646 Y2.2566
X1.4817 Y2.2908
X1.4799 Y2.2913
X1.478 Y2.2914
X1.4762 Y2.291
X1.4745 Y2.2903
X1.473 Y2.2891
G3 X1.5516 Y2.2092 Z-0.0461 I0.0393 J-0.0399 F20.
X1.473 Y2.2891 Z-0.0523 I-0.0393 J0.0399
X1.5516 Y2.2092 Z-0.0584 I0.0393 J-0.0399
X1.5684 Y2.2492 Z-0.06 I-0.0393 J0.0399
X1.5426 I-0.0129 J0.
X1.5695 I0.0134 J0. F40.
X1.4305 I-0.0695 J0.
X1.5695 I0.0695 J0.
G1 X1.5693 Y2.251
X1.5686 Y2.2528
X1.5676 Y2.2544
X1.5662 Y2.2557
X1.5646 Y2.2566
X1.4817 Y2.2908
X1.4799 Y2.2913
X1.478 Y2.2914
X1.4762 Y2.291
X1.4745 Y2.2903
X1.473 Y2.2891
G3 X1.5516 Y2.2092 Z-0.0661 I0.0393 J-0.0399 F20.
X1.473 Y2.2891 Z-0.0723 I-0.0393 J0.0399
X1.5516 Y2.2092 Z-0.0784 I0.0393 J-0.0399
X1.5684 Y2.2492 Z-0.08 I-0.0393 J0.0399
X1.5426 I-0.0129 J0.
X1.5695 I0.0134 J0. F40.
X1.4305 I-0.0695 J0.
X1.5695 I0.0695 J0.
G1 X1.5693 Y2.251
X1.5686 Y2.2528
X1.5676 Y2.2544
X1.5662 Y2.2557
X1.5646 Y2.2566
X1.4817 Y2.2908
X1.4799 Y2.2913
X1.478 Y2.2914
X1.4762 Y2.291
X1.4745 Y2.2903
X1.473 Y2.2891
G3 X1.5516 Y2.2092 Z-0.0861 I0.0393 J-0.0399 F20.
X1.473 Y2.2891 Z-0.0923 I-0.0393 J0.0399
X1.5516 Y2.2092 Z-0.0984 I0.0393 J-0.0399
X1.5684 Y2.2492 Z-0.1 I-0.0393 J0.0399
X1.5426 I-0.0129 J0.
X1.5695 I0.0134 J0. F40.
X1.4305 I-0.0695 J0.
X1.5695 I0.0695 J0.
G1 X1.5693 Y2.251
X1.5686 Y2.2528
X1.5676 Y2.2544
X1.5662 Y2.2557
X1.5646 Y2.2566
X1.4817 Y2.2908
X1.4799 Y2.2913
X1.478 Y2.2914
X1.4762 Y2.291
X1.4745 Y2.2903
X1.473 Y2.2891
G3 X1.5516 Y2.2092 Z-0.1061 I0.0393 J-0.0399 F20.
X1.473 Y2.2891 Z-0.1123 I-0.0393 J0.0399
X1.5516 Y2.2092 Z-0.1184 I0.0393 J-0.0399
X1.5684 Y2.2492 Z-0.12 I-0.0393 J0.0399
X1.5426 I-0.0129 J0.
X1.5695 I0.0134 J0. F40.
X1.4305 I-0.0695 J0.
X1.5695 I0.0695 J0.
G1 X1.5693 Y2.251
X1.5686 Y2.2528
X1.5676 Y2.2544
X1.5662 Y2.2557
X1.5646 Y2.2566
X1.4817 Y2.2908
X1.4799 Y2.2913
X1.478 Y2.2914
X1.4762 Y2.291
X1.4745 Y2.2903
X1.473 Y2.2891
G3 X1.5516 Y2.2092 Z-0.1261 I0.0393 J-0.0399 F20.
X1.473 Y2.2891 Z-0.1323 I-0.0393 J0.0399
X1.5516 Y2.2092 Z-0.1384 I0.0393 J-0.0399
X1.5684 Y2.2492 Z-0.14 I-0.0393 J0.0399
X1.5426 I-0.0129 J0.
X1.5695 I0.0134 J0. F40.
X1.4305 I-0.0695 J0.
X1.5695 I0.0695 J0.
G1 X1.5693 Y2.251
X1.5686 Y2.2528
X1.5676 Y2.2544
X1.5662 Y2.2557
X1.5646 Y2.2566
X1.4817 Y2.2908
X1.4799 Y2.2913
X1.478 Y2.2914
X1.4762 Y2.291
X1.4745 Y2.2903
X1.473 Y2.2891
G3 X1.5516 Y2.2092 Z-0.1461 I0.0393 J-0.0399 F20.
X1.473 Y2.2891 Z-0.1523 I-0.0393 J0.0399
X1.5516 Y2.2092 Z-0.1584 I0.0393 J-0.0399
X1.5684 Y2.2492 Z-0.16 I-0.0393 J0.0399
X1.5426 I-0.0129 J0.
X1.5695 I0.0134 J0. F40.
X1.4305 I-0.0695 J0.
X1.5695 I0.0695 J0.
X1.5599 Y2.2538 I-0.0059 J0.
G1 X1.5331 Y2.2325
X1.5167 Y2.2028
G3 X1.5229 Y2.1941 I0.0052 J-0.0028
X1.5017 Y2.3042 Z-0.1661 I-0.0106 J0.055 F20.
X1.5229 Y2.1941 Z-0.1723 I0.0106 J-0.055
X1.5684 Y2.2492 Z-0.175 I-0.0106 J0.055
X1.5426 I-0.0129 J0.
X1.5695 I0.0134 J0. F40.
X1.4305 I-0.0695 J0.
X1.5695 I0.0695 J0.
G1 X1.5693 Y2.2514 Z-0.1746
X1.5686 Y2.2536 Z-0.1741
X1.5678 Y2.2553 Z-0.1728
X1.5667 Y2.2568 Z-0.1715
X1.5648 Y2.2586 Z-0.1677
X1.5641 Y2.2591 Z-0.1632
G0 Z0.2
X0.5262 Y2.3035
G1 Z0.1118 F40.
X0.5248 Y2.3038 Z0.106 F20.
X0.5207 Y2.3046 Z0.1017
X0.515 Y2.3052 Z0.1
G3 X0.5097 Y2.1932 Z0.0939 I-0.0027 J-0.056
X0.515 Y2.3052 Z0.0877 I0.0027 J0.056
X0.5097 Y2.1932 Z0.0816 I-0.0027 J-0.056
X0.515 Y2.3052 Z0.0754 I0.0027 J0.056
X0.5097 Y2.1932 Z0.0693 I-0.0027 J-0.056
X0.515 Y2.3052 Z0.0631 I0.0027 J0.056
X0.5097 Y2.1932 Z0.057 I-0.0027 J-0.056
X0.515 Y2.3052 Z0.0508 I0.0027 J0.056
X0.5097 Y2.1932 Z0.0447 I-0.0027 J-0.056
X0.515 Y2.3052 Z0.0385 I0.0027 J0.056
X0.5097 Y2.1932 Z0.0324 I-0.0027 J-0.056
X0.515 Y2.3052 Z0.0262 I0.0027 J0.056
X0.5097 Y2.1932 Z0.0201 I-0.0027 J-0.056
X0.515 Y2.3052 Z0.0139 I0.0027 J0.056
X0.5097 Y2.1932 Z0.0078 I-0.0027 J-0.056
X0.515 Y2.3052 Z0.0016 I0.0027 J0.056
X0.5097 Y2.1932 Z-0.0045 I-0.0027 J-0.056
X0.515 Y2.3052 Z-0.0107 I0.0027 J0.056
X0.5097 Y2.1932 Z-0.0168 I-0.0027 J-0.056
X0.5684 Y2.2492 Z-0.02 I0.0027 J0.056
X0.5426 I-0.0129 J0.
X0.5695 I0.0134 J0. F40.
X0.4305 I-0.0695 J0.
X0.5695 I0.0695 J0.
G1 X0.5693 Y2.251
X0.5686 Y2.2528
X0.5676 Y2.2544
X0.5662 Y2.2557
X0.5646 Y2.2566
X0.4817 Y2.2908
X0.4799 Y2.2913
X0.478 Y2.2914
X0.4762 Y2.291
X0.4745 Y2.2903
X0.473 Y2.2891
G3 X0.5516 Y2.2092 Z-0.0261 I0.0393 J-0.0399 F20.
X0.473 Y2.2891 Z-0.0323 I-0.0393 J0.0399
X0.5516 Y2.2092 Z-0.0384 I0.0393 J-0.0399
X0.5684 Y2.2492 Z-0.04 I-0.0393 J0.0399
X0.5426 I-0.0129 J0.
X0.5695 I0.0134 J0. F40.
X0.4305 I-0.0695 J0.
X0.5695 I0.0695 J0.
G1 X0.5693 Y2.251
X0.5686 Y2.2528
X0.5676 Y2.2544
X0.5662 Y2.2557
X0.5646 Y2.2566
X0.4817 Y2.2908
X0.4799 Y2.2913
X0.478 Y2.2914
X0.4762 Y2.291
X0.4745 Y2.2903
X0.473 Y2.2891
G3 X0.5516 Y2.2092 Z-0.0461 I0.0393 J-0.0399 F20.
X0.473 Y2.2891 Z-0.0523 I-0.0393 J0.0399
X0.5516 Y2.2092 Z-0.0584 I0.0393 J-0.0399
X0.5684 Y2.2492 Z-0.06 I-0.0393 J0.0399
X0.5426 I-0.0129 J0.
X0.5695 I0.0134 J0. F40.
X0.4305 I-0.0695 J0.
X0.5695 I0.0695 J0.
G1 X0.5693 Y2.251
X0.5686 Y2.2528
X0.5676 Y2.2544
X0.5662 Y2.2557
X0.5646 Y2.2566
X0.4817 Y2.2908
X0.4799 Y2.2913
X0.478 Y2.2914
X0.4762 Y2.291
X0.4745 Y2.2903
X0.473 Y2.2891
G3 X0.5516 Y2.2092 Z-0.0661 I0.0393 J-0.0399 F20.
X0.473 Y2.2891 Z-0.0723 I-0.0393 J0.0399
X0.5516 Y2.2092 Z-0.0784 I0.0393 J-0.0399
X0.5684 Y2.2492 Z-0.08 I-0.0393 J0.0399
X0.5426 I-0.0129 J0.
X0.5695 I0.0134 J0. F40.
X0.4305 I-0.0695 J0.
X0.5695 I0.0695 J0.
G1 X0.5693 Y2.251
X0.5686 Y2.2528
X0.5676 Y2.2544
X0.5662 Y2.2557
X0.5646 Y2.2566
X0.4817 Y2.2908
X0.4799 Y2.2913
X0.478 Y2.2914
X0.4762 Y2.291
X0.4745 Y2.2903
X0.473 Y2.2891
G3 X0.5516 Y2.2092 Z-0.0861 I0.0393 J-0.0399 F20.
X0.473 Y2.2891 Z-0.0923 I-0.0393 J0.0399
X0.5516 Y2.2092 Z-0.0984 I0.0393 J-0.0399
X0.5684 Y2.2492 Z-0.1 I-0.0393 J0.0399
X0.5426 I-0.0129 J0.
X0.5695 I0.0134 J0. F40.
X0.4305 I-0.0695 J0.
X0.5695 I0.0695 J0.
G1 X0.5693 Y2.251
X0.5686 Y2.2528
X0.5676 Y2.2544
X0.5662 Y2.2557
X0.5646 Y2.2566
X0.4817 Y2.2908
X0.4799 Y2.2913
X0.478 Y2.2914
X0.4762 Y2.291
X0.4745 Y2.2903
X0.473 Y2.2891
G3 X0.5516 Y2.2092 Z-0.1061 I0.0393 J-0.0399 F20.
X0.473 Y2.2891 Z-0.1123 I-0.0393 J0.0399
X0.5516 Y2.2092 Z-0.1184 I0.0393 J-0.0399
X0.5684 Y2.2492 Z-0.12 I-0.0393 J0.0399
X0.5426 I-0.0129 J0.
X0.5695 I0.0134 J0. F40.
X0.4305 I-0.0695 J0.
X0.5695 I0.0695 J0.
G1 X0.5693 Y2.251
X0.5686 Y2.2528
X0.5676 Y2.2544
X0.5662 Y2.2557
X0.5646 Y2.2566
X0.4817 Y2.2908
X0.4799 Y2.2913
X0.478 Y2.2914
X0.4762 Y2.291
X0.4745 Y2.2903
X0.473 Y2.2891
G3 X0.5516 Y2.2092 Z-0.1261 I0.0393 J-0.0399 F20.
X0.473 Y2.2891 Z-0.1323 I-0.0393 J0.0399
X0.5516 Y2.2092 Z-0.1384 I0.0393 J-0.0399
X0.5684 Y2.2492 Z-0.14 I-0.0393 J0.0399
X0.5426 I-0.0129 J0.
X0.5695 I0.0134 J0. F40.
X0.4305 I-0.0695 J0.
X0.5695 I0.0695 J0.
G1 X0.5693 Y2.251
X0.5686 Y2.2528
X0.5676 Y2.2544
X0.5662 Y2.2557
X0.5646 Y2.2566
X0.4817 Y2.2908
X0.4799 Y2.2913
X0.478 Y2.2914
X0.4762 Y2.291
X0.4745 Y2.2903
X0.473 Y2.2891
G3 X0.5516 Y2.2092 Z-0.1461 I0.0393 J-0.0399 F20.
X0.473 Y2.2891 Z-0.1523 I-0.0393 J0.0399
X0.5516 Y2.2092 Z-0.1584 I0.0393 J-0.0399
X0.5684 Y2.2492 Z-0.16 I-0.0393 J0.0399
X0.5426 I-0.0129 J0.
X0.5695 I0.0134 J0. F40.
X0.4305 I-0.0695 J0.
X0.5695 I0.0695 J0.
X0.5599 Y2.2538 I-0.0059 J0.
G1 X0.5331 Y2.2325
X0.5167 Y2.2028
G3 X0.5229 Y2.1941 I0.0052 J-0.0028
X0.5017 Y2.3042 Z-0.1661 I-0.0106 J0.055 F20.
X0.5229 Y2.1941 Z-0.1723 I0.0106 J-0.055
X0.5684 Y2.2492 Z-0.175 I-0.0106 J0.055
X0.5426 I-0.0129 J0.
X0.5695 I0.0134 J0. F40.
X0.4305 I-0.0695 J0.
X0.5695 I0.0695 J0.
G1 X0.5693 Y2.2514 Z-0.1746
X0.5686 Y2.2536 Z-0.1741
X0.5678 Y2.2553 Z-0.1728
X0.5667 Y2.2568 Z-0.1715
X0.5648 Y2.2586 Z-0.1677
X0.5641 Y2.2591 Z-0.1632
G0 Z0.2
X1.5262 Y0.5543
G1 Z0.1118 F40.
X1.5248 Y0.5547 Z0.106 F20.
X1.5207 Y0.5554 Z0.1017
X1.515 Y0.556 Z0.1
G3 X1.5097 Y0.444 Z0.0939 I-0.0027 J-0.056
X1.515 Y0.556 Z0.0877 I0.0027 J0.056
X1.5097 Y0.444 Z0.0816 I-0.0027 J-0.056
X1.515 Y0.556 Z0.0754 I0.0027 J0.056
X1.5097 Y0.444 Z0.0693 I-0.0027 J-0.056
X1.515 Y0.556 Z0.0631 I0.0027 J0.056
X1.5097 Y0.444 Z0.057 I-0.0027 J-0.056
X1.515 Y0.556 Z0.0508 I0.0027 J0.056
X1.5097 Y0.444 Z0.0447 I-0.0027 J-0.056
X1.515 Y0.556 Z0.0385 I0.0027 J0.056
X1.5097 Y0.444 Z0.0324 I-0.0027 J-0.056
X1.515 Y0.556 Z0.0262 I0.0027 J0.056
X1.5097 Y0.444 Z0.0201 I-0.0027 J-0.056
X1.515 Y0.556 Z0.0139 I0.0027 J0.056
X1.5097 Y0.444 Z0.0078 I-0.0027 J-0.056
X1.515 Y0.556 Z0.0016 I0.0027 J0.056
X1.5097 Y0.444 Z-0.0045 I-0.0027 J-0.056
X1.515 Y0.556 Z-0.0107 I0.0027 J0.056
X1.5097 Y0.444 Z-0.0168 I-0.0027 J-0.056
X1.5684 Y0.5 Z-0.02 I0.0027 J0.056
X1.5426 I-0.0129 J0.
X1.5695 I0.0134 J0. F40.
X1.4305 I-0.0695 J0.
X1.5695 I0.0695 J0.
G1 X1.5693 Y0.5019
X1.5686 Y0.5036
X1.5676 Y0.5052
X1.5662 Y0.5065
X1.5646 Y0.5074
X1.4817 Y0.5416
X1.4799 Y0.5421
X1.478 Y0.5422
X1.4762 Y0.5419
X1.4745 Y0.5411
X1.473 Y0.5399
G3 X1.5516 Y0.4601 Z-0.0261 I0.0393 J-0.0399 F20.
X1.473 Y0.5399 Z-0.0323 I-0.0393 J0.0399
X1.5516 Y0.4601 Z-0.0384 I0.0393 J-0.0399
X1.5684 Y0.5 Z-0.04 I-0.0393 J0.0399
X1.5426 I-0.0129 J0.
X1.5695 I0.0134 J0. F40.
X1.4305 I-0.0695 J0.
X1.5695 I0.0695 J0.
G1 X1.5693 Y0.5019
X1.5686 Y0.5036
X1.5676 Y0.5052
X1.5662 Y0.5065
X1.5646 Y0.5074
X1.4817 Y0.5416
X1.4799 Y0.5421
X1.478 Y0.5422
X1.4762 Y0.5419
X1.4745 Y0.5411
X1.473 Y0.5399
G3 X1.5516 Y0.4601 Z-0.0461 I0.0393 J-0.0399 F20.
X1.473 Y0.5399 Z-0.0523 I-0.0393 J0.0399
X1.5516 Y0.4601 Z-0.0584 I0.0393 J-0.0399
X1.5684 Y0.5 Z-0.06 I-0.0393 J0.0399
X1.5426 I-0.0129 J0.
X1.5695 I0.0134 J0. F40.
X1.4305 I-0.0695 J0.
X1.5695 I0.0695 J0.
G1 X1.5693 Y0.5019
X1.5686 Y0.5036
X1.5676 Y0.5052
X1.5662 Y0.5065
X1.5646 Y0.5074
X1.4817 Y0.5416
X1.4799 Y0.5421
X1.478 Y0.5422
X1.4762 Y0.5419
X1.4745 Y0.5411
X1.473 Y0.5399
G3 X1.5516 Y0.4601 Z-0.0661 I0.0393 J-0.0399 F20.
X1.473 Y0.5399 Z-0.0723 I-0.0393 J0.0399
X1.5516 Y0.4601 Z-0.0784 I0.0393 J-0.0399
X1.5684 Y0.5 Z-0.08 I-0.0393 J0.0399
X1.5426 I-0.0129 J0.
X1.5695 I0.0134 J0. F40.
X1.4305 I-0.0695 J0.
X1.5695 I0.0695 J0.
G1 X1.5693 Y0.5019
X1.5686 Y0.5036
X1.5676 Y0.5052
X1.5662 Y0.5065
X1.5646 Y0.5074
X1.4817 Y0.5416
X1.4799 Y0.5421
X1.478 Y0.5422
X1.4762 Y0.5419
X1.4745 Y0.5411
X1.473 Y0.5399
G3 X1.5516 Y0.4601 Z-0.0861 I0.0393 J-0.0399 F20.
X1.473 Y0.5399 Z-0.0923 I-0.0393 J0.0399
X1.5516 Y0.4601 Z-0.0984 I0.0393 J-0.0399
X1.5684 Y0.5 Z-0.1 I-0.0393 J0.0399
X1.5426 I-0.0129 J0.
X1.5695 I0.0134 J0. F40.
X1.4305 I-0.0695 J0.
X1.5695 I0.0695 J0.
G1 X1.5693 Y0.5019
X1.5686 Y0.5036
X1.5676 Y0.5052
X1.5662 Y0.5065
X1.5646 Y0.5074
X1.4817 Y0.5416
X1.4799 Y0.5421
X1.478 Y0.5422
X1.4762 Y0.5419
X1.4745 Y0.5411
X1.473 Y0.5399
G3 X1.5516 Y0.4601 Z-0.1061 I0.0393 J-0.0399 F20.
X1.473 Y0.5399 Z-0.1123 I-0.0393 J0.0399
X1.5516 Y0.4601 Z-0.1184 I0.0393 J-0.0399
X1.5684 Y0.5 Z-0.12 I-0.0393 J0.0399
X1.5426 I-0.0129 J0.
X1.5695 I0.0134 J0. F40.
X1.4305 I-0.0695 J0.
X1.5695 I0.0695 J0.
G1 X1.5693 Y0.5019
X1.5686 Y0.5036
X1.5676 Y0.5052
X1.5662 Y0.5065
X1.5646 Y0.5074
X1.4817 Y0.5416
X1.4799 Y0.5421
X1.478 Y0.5422
X1.4762 Y0.5419
X1.4745 Y0.5411
X1.473 Y0.5399
G3 X1.5516 Y0.4601 Z-0.1261 I0.0393 J-0.0399 F20.
X1.473 Y0.5399 Z-0.1323 I-0.0393 J0.0399
X1.5516 Y0.4601 Z-0.1384 I0.0393 J-0.0399
X1.5684 Y0.5 Z-0.14 I-0.0393 J0.0399
X1.5426 I-0.0129 J0.
X1.5695 I0.0134 J0. F40.
X1.4305 I-0.0695 J0.
X1.5695 I0.0695 J0.
G1 X1.5693 Y0.5019
X1.5686 Y0.5036
X1.5676 Y0.5052
X1.5662 Y0.5065
X1.5646 Y0.5074
X1.4817 Y0.5416
X1.4799 Y0.5421
X1.478 Y0.5422
X1.4762 Y0.5419
X1.4745 Y0.5411
X1.473 Y0.5399
G3 X1.5516 Y0.4601 Z-0.1461 I0.0393 J-0.0399 F20.
X1.473 Y0.5399 Z-0.1523 I-0.0393 J0.0399
X1.5516 Y0.4601 Z-0.1584 I0.0393 J-0.0399
X1.5684 Y0.5 Z-0.16 I-0.0393 J0.0399
X1.5426 I-0.0129 J0.
X1.5695 I0.0134 J0. F40.
X1.4305 I-0.0695 J0.
X1.5695 I0.0695 J0.
X1.5599 Y0.5046 I-0.0059 J0.
G1 X1.5331 Y0.4833
X1.5167 Y0.4536
G3 X1.5229 Y0.445 I0.0052 J-0.0028
X1.5017 Y0.555 Z-0.1661 I-0.0106 J0.055 F20.
X1.5229 Y0.445 Z-0.1723 I0.0106 J-0.055
X1.5684 Y0.5 Z-0.175 I-0.0106 J0.055
X1.5426 I-0.0129 J0.
X1.5695 I0.0134 J0. F40.
X1.4305 I-0.0695 J0.
X1.5695 I0.0695 J0.
G1 X1.5693 Y0.5022 Z-0.1746
X1.5686 Y0.5044 Z-0.1741
X1.5678 Y0.5061 Z-0.1728
X1.5667 Y0.5077 Z-0.1715
X1.5648 Y0.5094 Z-0.1677
X1.5641 Y0.5099 Z-0.1632
G0 Z0.2
X3.0262 Y2.3035
G1 Z0.1118 F40.
X3.0248 Y2.3038 Z0.106 F20.
X3.0207 Y2.3046 Z0.1017
X3.015 Y2.3052 Z0.1
G3 X3.0097 Y2.1932 Z0.0939 I-0.0027 J-0.056
X3.015 Y2.3052 Z0.0877 I0.0027 J0.056
X3.0097 Y2.1932 Z0.0816 I-0.0027 J-0.056
X3.015 Y2.3052 Z0.0754 I0.0027 J0.056
X3.0097 Y2.1932 Z0.0693 I-0.0027 J-0.056
X3.015 Y2.3052 Z0.0631 I0.0027 J0.056
X3.0097 Y2.1932 Z0.057 I-0.0027 J-0.056
X3.015 Y2.3052 Z0.0508 I0.0027 J0.056
X3.0097 Y2.1932 Z0.0447 I-0.0027 J-0.056
X3.015 Y2.3052 Z0.0385 I0.0027 J0.056
X3.0097 Y2.1932 Z0.0324 I-0.0027 J-0.056
X3.015 Y2.3052 Z0.0262 I0.0027 J0.056
X3.0097 Y2.1932 Z0.0201 I-0.0027 J-0.056
X3.015 Y2.3052 Z0.0139 I0.0027 J0.056
X3.0097 Y2.1932 Z0.0078 I-0.0027 J-0.056
X3.015 Y2.3052 Z0.0016 I0.0027 J0.056
X3.0097 Y2.1932 Z-0.0045 I-0.0027 J-0.056
X3.015 Y2.3052 Z-0.0107 I0.0027 J0.056
X3.0097 Y2.1932 Z-0.0168 I-0.0027 J-0.056
X3.0684 Y2.2492 Z-0.02 I0.0027 J0.056
X3.0426 I-0.0129 J0.
X3.0695 I0.0134 J0. F40.
X2.9305 I-0.0695 J0.
X3.0695 I0.0695 J0.
G1 X3.0693 Y2.2511
X3.0686 Y2.2528
X3.0676 Y2.2544
X3.0662 Y2.2557
X3.0646 Y2.2566
X2.9817 Y2.2908
X2.9799 Y2.2913
X2.978 Y2.2914
X2.9762 Y2.291
X2.9745 Y2.2903
X2.973 Y2.2891
G3 X3.0516 Y2.2092 Z-0.0261 I0.0393 J-0.0399 F20.
X2.973 Y2.2891 Z-0.0323 I-0.0393 J0.0399
X3.0516 Y2.2092 Z-0.0384 I0.0393 J-0.0399
X3.0684 Y2.2492 Z-0.04 I-0.0393 J0.0399
X3.0426 I-0.0129 J0.
X3.0695 I0.0134 J0. F40.
X2.9305 I-0.0695 J0.
X3.0695 I0.0695 J0.
G1 X3.0693 Y2.2511
X3.0686 Y2.2528
X3.0676 Y2.2544
X3.0662 Y2.2557
X3.0646 Y2.2566
X2.9817 Y2.2908
X2.9799 Y2.2913
X2.978 Y2.2914
X2.9762 Y2.291
X2.9745 Y2.2903
X2.973 Y2.2891
G3 X3.0516 Y2.2092 Z-0.0461 I0.0393 J-0.0399 F20.
X2.973 Y2.2891 Z-0.0523 I-0.0393 J0.0399
X3.0516 Y2.2092 Z-0.0584 I0.0393 J-0.0399
X3.0684 Y2.2492 Z-0.06 I-0.0393 J0.0399
X3.0426 I-0.0129 J0.
X3.0695 I0.0134 J0. F40.
X2.9305 I-0.0695 J0.
X3.0695 I0.0695 J0.
G1 X3.0693 Y2.2511
X3.0686 Y2.2528
X3.0676 Y2.2544
X3.0662 Y2.2557
X3.0646 Y2.2566
X2.9817 Y2.2908
X2.9799 Y2.2913
X2.978 Y2.2914
X2.9762 Y2.291
X2.9745 Y2.2903
X2.973 Y2.2891
G3 X3.0516 Y2.2092 Z-0.0661 I0.0393 J-0.0399 F20.
X2.973 Y2.2891 Z-0.0723 I-0.0393 J0.0399
X3.0516 Y2.2092 Z-0.0784 I0.0393 J-0.0399
X3.0684 Y2.2492 Z-0.08 I-0.0393 J0.0399
X3.0426 I-0.0129 J0.
X3.0695 I0.0134 J0. F40.
X2.9305 I-0.0695 J0.
X3.0695 I0.0695 J0.
G1 X3.0693 Y2.2511
X3.0686 Y2.2528
X3.0676 Y2.2544
X3.0662 Y2.2557
X3.0646 Y2.2566
X2.9817 Y2.2908
X2.9799 Y2.2913
X2.978 Y2.2914
X2.9762 Y2.291
X2.9745 Y2.2903
X2.973 Y2.2891
G3 X3.0516 Y2.2092 Z-0.0861 I0.0393 J-0.0399 F20.
X2.973 Y2.2891 Z-0.0923 I-0.0393 J0.0399
X3.0516 Y2.2092 Z-0.0984 I0.0393 J-0.0399
X3.0684 Y2.2492 Z-0.1 I-0.0393 J0.0399
X3.0426 I-0.0129 J0.
X3.0695 I0.0134 J0. F40.
X2.9305 I-0.0695 J0.
X3.0695 I0.0695 J0.
G1 X3.0693 Y2.2511
X3.0686 Y2.2528
X3.0676 Y2.2544
X3.0662 Y2.2557
X3.0646 Y2.2566
X2.9817 Y2.2908
X2.9799 Y2.2913
X2.978 Y2.2914
X2.9762 Y2.291
X2.9745 Y2.2903
X2.973 Y2.2891
G3 X3.0516 Y2.2092 Z-0.1061 I0.0393 J-0.0399 F20.
X2.973 Y2.2891 Z-0.1123 I-0.0393 J0.0399
X3.0516 Y2.2092 Z-0.1184 I0.0393 J-0.0399
X3.0684 Y2.2492 Z-0.12 I-0.0393 J0.0399
X3.0426 I-0.0129 J0.
X3.0695 I0.0134 J0. F40.
X2.9305 I-0.0695 J0.
X3.0695 I0.0695 J0.
G1 X3.0693 Y2.2511
X3.0686 Y2.2528
X3.0676 Y2.2544
X3.0662 Y2.2557
X3.0646 Y2.2566
X2.9817 Y2.2908
X2.9799 Y2.2913
X2.978 Y2.2914
X2.9762 Y2.291
X2.9745 Y2.2903
X2.973 Y2.2891
G3 X3.0516 Y2.2092 Z-0.1261 I0.0393 J-0.0399 F20.
X2.973 Y2.2891 Z-0.1323 I-0.0393 J0.0399
X3.0516 Y2.2092 Z-0.1384 I0.0393 J-0.0399
X3.0684 Y2.2492 Z-0.14 I-0.0393 J0.0399
X3.0426 I-0.0129 J0.
X3.0695 I0.0134 J0. F40.
X2.9305 I-0.0695 J0.
X3.0695 I0.0695 J0.
G1 X3.0693 Y2.2511
X3.0686 Y2.2528
X3.0676 Y2.2544
X3.0662 Y2.2557
X3.0646 Y2.2566
X2.9817 Y2.2908
X2.9799 Y2.2913
X2.978 Y2.2914
X2.9762 Y2.291
X2.9745 Y2.2903
X2.973 Y2.2891
G3 X3.0516 Y2.2092 Z-0.1461 I0.0393 J-0.0399 F20.
X2.973 Y2.2891 Z-0.1523 I-0.0393 J0.0399
X3.0516 Y2.2092 Z-0.1584 I0.0393 J-0.0399
X3.0684 Y2.2492 Z-0.16 I-0.0393 J0.0399
X3.0426 I-0.0129 J0.
X3.0695 I0.0134 J0. F40.
X2.9305 I-0.0695 J0.
X3.0695 I0.0695 J0.
X3.0599 Y2.2538 I-0.0059 J0.
G1 X3.0331 Y2.2325
X3.0167 Y2.2028
G3 X3.0229 Y2.1941 I0.0052 J-0.0028
X3.0017 Y2.3042 Z-0.1661 I-0.0106 J0.055 F20.
X3.0229 Y2.1941 Z-0.1723 I0.0106 J-0.055
X3.0684 Y2.2492 Z-0.175 I-0.0106 J0.055
X3.0426 I-0.0129 J0.
X3.0695 I0.0134 J0. F40.
X2.9305 I-0.0695 J0.
X3.0695 I0.0695 J0.
G1 X3.0693 Y2.2514 Z-0.1746
X3.0686 Y2.2536 Z-0.1741
X3.0678 Y2.2553 Z-0.1728
X3.0667 Y2.2568 Z-0.1715
X3.0648 Y2.2586 Z-0.1677
X3.0641 Y2.2591 Z-0.1632
G0 Z0.2
X4.0543 Y2.2221
G1 Z0.1118 F40.
X4.0547 Y2.2236 Z0.106 F20.
X4.0554 Y2.2277 Z0.1017
X4.056 Y2.2333 Z0.1
G3 X3.944 Y2.2387 Z0.0939 I-0.056 J0.0027
X4.056 Y2.2333 Z0.0877 I0.056 J-0.0027
X3.944 Y2.2387 Z0.0816 I-0.056 J0.0027
X4.056 Y2.2333 Z0.0754 I0.056 J-0.0027
X3.944 Y2.2387 Z0.0693 I-0.056 J0.0027
X4.056 Y2.2333 Z0.0631 I0.056 J-0.0027
X3.944 Y2.2387 Z0.057 I-0.056 J0.0027
X4.056 Y2.2333 Z0.0508 I0.056 J-0.0027
X3.944 Y2.2387 Z0.0447 I-0.056 J0.0027
X4.056 Y2.2333 Z0.0385 I0.056 J-0.0027
X3.944 Y2.2387 Z0.0324 I-0.056 J0.0027
X4.056 Y2.2333 Z0.0262 I0.056 J-0.0027
X3.944 Y2.2387 Z0.0201 I-0.056 J0.0027
X4.056 Y2.2333 Z0.0139 I0.056 J-0.0027
X3.944 Y2.2387 Z0.0078 I-0.056 J0.0027
X4.056 Y2.2333 Z0.0016 I0.056 J-0.0027
X3.944 Y2.2387 Z-0.0045 I-0.056 J0.0027
X4.056 Y2.2333 Z-0.0107 I0.056 J-0.0027
X3.944 Y2.2387 Z-0.0168 I-0.056 J0.0027
X4. Y2.18 Z-0.02 I0.056 J-0.0027
Y2.2701 I0. J0.0451
Y2.2282 I0. J-0.0209 F40.
X4.0209 Y2.2492 I0. J0.0209
X4. Y2.2701 I-0.0209 J0.
G2 X3.9717 Y2.2851 I0. J0.0342
G3 X3.9398 Y2.2839 I-0.0156 J-0.0106
X3.9305 Y2.2492 I0.0602 J-0.0347
X4.0695 I0.0695 J0.
X3.9398 Y2.2839 I-0.0695 J0.
G1 X3.9391 Y2.2822
X3.939 Y2.2804
X3.9394 Y2.2786
X3.9404 Y2.2771
X3.9417 Y2.2759
X3.9434 Y2.2752
X3.9921 Y2.2625
X4.0362 Y2.2653
G3 X4.0399 Y2.2753 I-0.0004 J0.0059
X3.9601 Y2.1967 Z-0.0261 I-0.0399 J-0.0393 F20.
X4.0399 Y2.2753 Z-0.0323 I0.0399 J0.0393
X3.9601 Y2.1967 Z-0.0384 I-0.0399 J-0.0393
X4. Y2.18 Z-0.04 I0.0399 J0.0393
Y2.2701 I0. J0.0451
Y2.2282 I0. J-0.0209 F40.
X4.0209 Y2.2492 I0. J0.0209
X4. Y2.2701 I-0.0209 J0.
G2 X3.9717 Y2.2851 I0. J0.0342
G3 X3.9398 Y2.2839 I-0.0156 J-0.0106
X3.9305 Y2.2492 I0.0602 J-0.0347
X4.0695 I0.0695 J0.
X3.9398 Y2.2839 I-0.0695 J0.
G1 X3.9391 Y2.2822
X3.939 Y2.2804
X3.9394 Y2.2786
X3.9404 Y2.2771
X3.9417 Y2.2759
X3.9434 Y2.2752
X3.9921 Y2.2625
X4.0362 Y2.2653
G3 X4.0399 Y2.2753 I-0.0004 J0.0059
X3.9601 Y2.1967 Z-0.0461 I-0.0399 J-0.0393 F20.
X4.0399 Y2.2753 Z-0.0523 I0.0399 J0.0393
X3.9601 Y2.1967 Z-0.0584 I-0.0399 J-0.0393
X4. Y2.18 Z-0.06 I0.0399 J0.0393
Y2.2701 I0. J0.0451
Y2.2282 I0. J-0.0209 F40.
X4.0209 Y2.2492 I0. J0.0209
X4. Y2.2701 I-0.0209 J0.
G2 X3.9717 Y2.2851 I0. J0.0342
G3 X3.9398 Y2.2839 I-0.0156 J-0.0106
X3.9305 Y2.2492 I0.0602 J-0.0347
X4.0695 I0.0695 J0.
X3.9398 Y2.2839 I-0.0695 J0.
G1 X3.9391 Y2.2822
X3.939 Y2.2804
X3.9394 Y2.2786
X3.9404 Y2.2771
X3.9417 Y2.2759
X3.9434 Y2.2752
X3.9921 Y2.2625
X4.0362 Y2.2653
G3 X4.0399 Y2.2753 I-0.0004 J0.0059
X3.9601 Y2.1967 Z-0.0661 I-0.0399 J-0.0393 F20.
X4.0399 Y2.2753 Z-0.0723 I0.0399 J0.0393
X3.9601 Y2.1967 Z-0.0784 I-0.0399 J-0.0393
X4. Y2.18 Z-0.08 I0.0399 J0.0393
Y2.2701 I0. J0.0451
Y2.2282 I0. J-0.0209 F40.
X4.0209 Y2.2492 I0. J0.0209
X4. Y2.2701 I-0.0209 J0.
G2 X3.9717 Y2.2851 I0. J0.0342
G3 X3.9398 Y2.2839 I-0.0156 J-0.0106
X3.9305 Y2.2492 I0.0602 J-0.0347
X4.0695 I0.0695 J0.
X3.9398 Y2.2839 I-0.0695 J0.
G1 X3.9391 Y2.2822
X3.939 Y2.2804
X3.9394 Y2.2786
X3.9404 Y2.2771
X3.9417 Y2.2759
X3.9434 Y2.2752
X3.9921 Y2.2625
X4.0362 Y2.2653
G3 X4.0399 Y2.2753 I-0.0004 J0.0059
X3.9601 Y2.1967 Z-0.0861 I-0.0399 J-0.0393 F20.
X4.0399 Y2.2753 Z-0.0923 I0.0399 J0.0393
X3.9601 Y2.1967 Z-0.0984 I-0.0399 J-0.0393
X4. Y2.18 Z-0.1 I0.0399 J0.0393
Y2.2701 I0. J0.0451
Y2.2282 I0. J-0.0209 F40.
X4.0209 Y2.2492 I0. J0.0209
X4. Y2.2701 I-0.0209 J0.
G2 X3.9717 Y2.2851 I0. J0.0342
G3 X3.9398 Y2.2839 I-0.0156 J-0.0106
X3.9305 Y2.2492 I0.0602 J-0.0347
X4.0695 I0.0695 J0.
X3.9398 Y2.2839 I-0.0695 J0.
G1 X3.9391 Y2.2822
X3.939 Y2.2804
X3.9394 Y2.2786
X3.9404 Y2.2771
X3.9417 Y2.2759
X3.9434 Y2.2752
X3.9921 Y2.2625
X4.0362 Y2.2653
G3 X4.0399 Y2.2753 I-0.0004 J0.0059
X3.9601 Y2.1967 Z-0.1061 I-0.0399 J-0.0393 F20.
X4.0399 Y2.2753 Z-0.1123 I0.0399 J0.0393
X3.9601 Y2.1967 Z-0.1184 I-0.0399 J-0.0393
X4. Y2.18 Z-0.12 I0.0399 J0.0393
Y2.2701 I0. J0.0451
Y2.2282 I0. J-0.0209 F40.
X4.0209 Y2.2492 I0. J0.0209
X4. Y2.2701 I-0.0209 J0.
G2 X3.9717 Y2.2851 I0. J0.0342
G3 X3.9398 Y2.2839 I-0.0156 J-0.0106
X3.9305 Y2.2492 I0.0602 J-0.0347
X4.0695 I0.0695 J0.
X3.9398 Y2.2839 I-0.0695 J0.
G1 X3.9391 Y2.2822
X3.939 Y2.2804
X3.9394 Y2.2786
X3.9404 Y2.2771
X3.9417 Y2.2759
X3.9434 Y2.2752
X3.9921 Y2.2625
X4.0362 Y2.2653
G3 X4.0399 Y2.2753 I-0.0004 J0.0059
X3.9601 Y2.1967 Z-0.1261 I-0.0399 J-0.0393 F20.
X4.0399 Y2.2753 Z-0.1323 I0.0399 J0.0393
X3.9601 Y2.1967 Z-0.1384 I-0.0399 J-0.0393
X4. Y2.18 Z-0.14 I0.0399 J0.0393
Y2.2701 I0. J0.0451
Y2.2282 I0. J-0.0209 F40.
X4.0209 Y2.2492 I0. J0.0209
X4. Y2.2701 I-0.0209 J0.
G2 X3.9717 Y2.2851 I0. J0.0342
G3 X3.9398 Y2.2839 I-0.0156 J-0.0106
X3.9305 Y2.2492 I0.0602 J-0.0347
X4.0695 I0.0695 J0.
X3.9398 Y2.2839 I-0.0695 J0.
G1 X3.9391 Y2.2822
X3.939 Y2.2804
X3.9394 Y2.2786
X3.9404 Y2.2771
X3.9417 Y2.2759
X3.9434 Y2.2752
X3.9921 Y2.2625
X4.0362 Y2.2653
G3 X4.0399 Y2.2753 I-0.0004 J0.0059
X3.9601 Y2.1967 Z-0.1461 I-0.0399 J-0.0393 F20.
X4.0399 Y2.2753 Z-0.1523 I0.0399 J0.0393
X3.9601 Y2.1967 Z-0.1584 I-0.0399 J-0.0393
X4. Y2.18 Z-0.16 I0.0399 J0.0393
Y2.2701 I0. J0.0451
Y2.2282 I0. J-0.0209 F40.
X4.0209 Y2.2492 I0. J0.0209
X4. Y2.2701 I-0.0209 J0.
G2 X3.9717 Y2.2851 I0. J0.0342
G3 X3.9398 Y2.2839 I-0.0156 J-0.0106
X3.9305 Y2.2492 I0.0602 J-0.0347
X4.0695 I0.0695 J0.
X3.9398 Y2.2839 I-0.0695 J0.
G1 X3.9391 Y2.2823
X3.9387 Y2.2807
X3.9388 Y2.279
X3.945 Y2.2254
G3 X4.055 Y2.2466 Z-0.1661 I0.055 J0.0106 F20.
X3.945 Y2.2254 Z-0.1723 I-0.055 J-0.0106
X4. Y2.18 Z-0.175 I0.055 J0.0106
Y2.2701 I0. J0.0451
Y2.2282 I0. J-0.0209 F40.
X4.0209 Y2.2492 I0. J0.0209
X4. Y2.2701 I-0.0209 J0.
G2 X3.9717 Y2.2851 I0. J0.0342
G3 X3.9398 Y2.2839 I-0.0156 J-0.0106
X3.9305 Y2.2492 I0.0602 J-0.0347
X4.0695 I0.0695 J0.
X3.9398 Y2.2839 I-0.0695 J0.
G1 X3.9388 Y2.2818 Z-0.1746
X3.9383 Y2.2796 Z-0.1741
X3.9382 Y2.2777 Z-0.1728
X3.9384 Y2.2758 Z-0.1715
X3.9391 Y2.2734 Z-0.1677
X3.9395 Y2.2726 Z-0.1632
G0 Z0.6
g0 z.6
m5
g0 y8
M1

(2D CONTOUR1)
G0 X1.6086 Y-0.0944
Z0.6
Z0.2
G1 Z0.1118 F20.
G19 G3 Y-0.0826 Z0.1 J0.0118 K0. F30.
G1 Y-0.0708
G17 G3 X1.5968 Y-0.059 I-0.0118 J0.
G1 X1.127 Z0.0918 F20.
G2 X0.943 Y0.125 Z0.0868 I0. J0.184
G1 Y2.0102 Z0.0538
X0.9427 Y2.0117
X0.9419 Y2.0131
X0.9408 Y2.0141
X0.9393 Y2.0146 Z0.0537
X0.9377
X0.9363 Y2.0141
X0.9351 Y2.0131
X0.9343 Y2.0117 Z0.0536
X0.934 Y2.0102
Y1.8742 Z0.0512
G2 X0.75 Y1.6902 Z0.0462 I-0.184 J0.
G1 X0.125 Z0.0353
G2 X-0.059 Y1.8742 Z0.0302 I0. J0.184
G1 Y2.6242 Z0.0171
G2 X0.125 Y2.8082 Z0.0121 I0.184 J0.
G1 X2.25 Z-0.025
X4.375 F30.
G2 X4.559 Y2.6242 I0. J-0.184
G1 Y1.8742
G2 X4.375 Y1.6902 I-0.184 J0.
G1 X2.25
G2 X2.066 Y1.8742 I0. J0.184
G1 Y2.0102
X2.0657 Y2.0117
X2.0649 Y2.0131
X2.0637 Y2.0141
X2.0623 Y2.0146
X2.0607
X2.0592 Y2.0141
X2.0581 Y2.0131
X2.0573 Y2.0117
X2.057 Y2.0102
Y0.125
G2 X1.873 Y-0.059 I-0.184 J0.
G1 X1.127
G2 X0.943 Y0.125 I0. J0.184
G1 Y2.0102
X0.9427 Y2.0117
X0.9419 Y2.0131
X0.9408 Y2.0141
X0.9393 Y2.0146
X0.9377
X0.9363 Y2.0141
X0.9351 Y2.0131
X0.9343 Y2.0117
X0.934 Y2.0102
Y1.8742
G2 X0.75 Y1.6902 I-0.184 J0.
G1 X0.125
G2 X-0.059 Y1.8742 I0. J0.184
G1 Y2.6242
G2 X0.125 Y2.8082 I0.184 J0.
G1 X2.25
X3.6822 Z-0.05 F20.
X4.375 F30.
G2 X4.559 Y2.6242 I0. J-0.184
G1 Y1.8742
G2 X4.375 Y1.6902 I-0.184 J0.
G1 X2.25
G2 X2.066 Y1.8742 I0. J0.184
G1 Y2.0102
X2.0657 Y2.0117
X2.0649 Y2.0131
X2.0637 Y2.0141
X2.0623 Y2.0146
X2.0607
X2.0592 Y2.0141
X2.0581 Y2.0131
X2.0573 Y2.0117
X2.057 Y2.0102
Y0.125
G2 X1.873 Y-0.059 I-0.184 J0.
G1 X1.127
G2 X0.943 Y0.125 I0. J0.184
G1 Y2.0102
X0.9427 Y2.0117
X0.9419 Y2.0131
X0.9408 Y2.0141
X0.9393 Y2.0146
X0.9377
X0.9363 Y2.0141
X0.9351 Y2.0131
X0.9343 Y2.0117
X0.934 Y2.0102
Y1.8742
G2 X0.75 Y1.6902 I-0.184 J0.
G1 X0.125
G2 X-0.059 Y1.8742 I0. J0.184
G1 Y2.6242
G2 X0.125 Y2.8082 I0.184 J0.
G1 X2.25
X3.6822
X4.375 Z-0.0621 F20.
G2 X4.559 Y2.6242 Z-0.0671 I0. J-0.184
G1 Y2.1737 Z-0.075
Y1.8742 F30.
G2 X4.375 Y1.6902 I-0.184 J0.
G1 X2.25
G2 X2.066 Y1.8742 I0. J0.184
G1 Y2.0102
X2.0657 Y2.0117
X2.0649 Y2.0131
X2.0637 Y2.0141
X2.0623 Y2.0146
X2.0607
X2.0592 Y2.0141
X2.0581 Y2.0131
X2.0573 Y2.0117
X2.057 Y2.0102
Y0.125
G2 X1.873 Y-0.059 I-0.184 J0.
G1 X1.127
G2 X0.943 Y0.125 I0. J0.184
G1 Y2.0102
X0.9427 Y2.0117
X0.9419 Y2.0131
X0.9408 Y2.0141
X0.9393 Y2.0146
X0.9377
X0.9363 Y2.0141
X0.9351 Y2.0131
X0.9343 Y2.0117
X0.934 Y2.0102
Y1.8742
G2 X0.75 Y1.6902 I-0.184 J0.
G1 X0.125
G2 X-0.059 Y1.8742 I0. J0.184
G1 Y2.6242
G2 X0.125 Y2.8082 I0.184 J0.
G1 X3.6822
X4.375
G2 X4.559 Y2.6242 I0. J-0.184
G1 Y2.1737
Y1.8742 Z-0.0802 F20.
G2 X4.375 Y1.6902 Z-0.0853 I-0.184 J0.
G1 X3.5313 Z-0.1
X2.25 F30.
G2 X2.066 Y1.8742 I0. J0.184
G1 Y2.0102
X2.0657 Y2.0117
X2.0649 Y2.0131
X2.0637 Y2.0141
X2.0623 Y2.0146
X2.0607
X2.0592 Y2.0141
X2.0581 Y2.0131
X2.0573 Y2.0117
X2.057 Y2.0102
Y0.125
G2 X1.873 Y-0.059 I-0.184 J0.
G1 X1.127
G2 X0.943 Y0.125 I0. J0.184
G1 Y2.0102
X0.9427 Y2.0117
X0.9419 Y2.0131
X0.9408 Y2.0141
X0.9393 Y2.0146
X0.9377
X0.9363 Y2.0141
X0.9351 Y2.0131
X0.9343 Y2.0117
X0.934 Y2.0102
Y1.8742
G2 X0.75 Y1.6902 I-0.184 J0.
G1 X0.125
G2 X-0.059 Y1.8742 I0. J0.184
G1 Y2.6242
G2 X0.125 Y2.8082 I0.184 J0.
G1 X4.375
G2 X4.559 Y2.6242 I0. J-0.184
G1 Y2.1737
Y1.8742
G2 X4.375 Y1.6902 I-0.184 J0.
G1 X3.5313
X2.25 Z-0.1224 F20.
G2 X2.1154 Y1.7487 Z-0.125 I0. J0.184
X2.066 Y1.8742 I0.1346 J0.1255 F30.
G1 Y2.0102
X2.0657 Y2.0117
X2.0649 Y2.0131
X2.0637 Y2.0141
X2.0623 Y2.0146
X2.0607
X2.0592 Y2.0141
X2.0581 Y2.0131
X2.0573 Y2.0117
X2.057 Y2.0102
Y0.125
G2 X1.873 Y-0.059 I-0.184 J0.
G1 X1.127
G2 X0.943 Y0.125 I0. J0.184
G1 Y2.0102
X0.9427 Y2.0117
X0.9419 Y2.0131
X0.9408 Y2.0141
X0.9393 Y2.0146
X0.9377
X0.9363 Y2.0141
X0.9351 Y2.0131
X0.9343 Y2.0117
X0.934 Y2.0102
Y1.8742
G2 X0.75 Y1.6902 I-0.184 J0.
G1 X0.125
G2 X-0.059 Y1.8742 I0. J0.184
G1 Y2.6242
G2 X0.125 Y2.8082 I0.184 J0.
G1 X4.375
G2 X4.559 Y2.6242 I0. J-0.184
G1 Y1.8742
G2 X4.375 Y1.6902 I-0.184 J0.
G1 X2.25
G2 X2.1154 Y1.7487 I0. J0.184
X2.066 Y1.8742 Z-0.1274 I0.1346 J0.1255 F20.
G1 Y2.0102 Z-0.1298
X2.0657 Y2.0117
X2.0649 Y2.0131
X2.0637 Y2.0141 Z-0.1299
X2.0623 Y2.0146
X2.0607
X2.0592 Y2.0141
X2.0581 Y2.0131 Z-0.13
X2.0573 Y2.0117
X2.057 Y2.0102
Y0.8662 Z-0.15
Y0.125 F30.
G2 X1.873 Y-0.059 I-0.184 J0.
G1 X1.127
G2 X0.943 Y0.125 I0. J0.184
G1 Y2.0102
X0.9427 Y2.0117
X0.9419 Y2.0131
X0.9408 Y2.0141
X0.9393 Y2.0146
X0.9377
X0.9363 Y2.0141
X0.9351 Y2.0131
X0.9343 Y2.0117
X0.934 Y2.0102
Y1.8742
G2 X0.75 Y1.6902 I-0.184 J0.
G1 X0.125
G2 X-0.059 Y1.8742 I0. J0.184
G1 Y2.6242
G2 X0.125 Y2.8082 I0.184 J0.
G1 X4.375
G2 X4.559 Y2.6242 I0. J-0.184
G1 Y1.8742
G2 X4.375 Y1.6902 I-0.184 J0.
G1 X2.25
G2 X2.066 Y1.8742 I0. J0.184
G1 Y2.0102
X2.0657 Y2.0117
X2.0649 Y2.0131
X2.0637 Y2.0141
X2.0623 Y2.0146
X2.0607
X2.0592 Y2.0141
X2.0581 Y2.0131
X2.0573 Y2.0117
X2.057 Y2.0102
Y0.8662
Y0.125 Z-0.1629 F20.
G2 X1.873 Y-0.059 Z-0.168 I-0.184 J0.
G1 X1.4709 Z-0.175
X1.127 F30.
G2 X0.943 Y0.125 I0. J0.184
G1 Y2.0102
X0.9427 Y2.0117
X0.9419 Y2.0131
X0.9408 Y2.0141
X0.9393 Y2.0146
X0.9377
X0.9363 Y2.0141
X0.9351 Y2.0131
X0.9343 Y2.0117
X0.934 Y2.0102
Y1.8742
G2 X0.75 Y1.6902 I-0.184 J0.
G1 X0.125
G2 X-0.059 Y1.8742 I0. J0.184
G1 Y2.6242
G2 X0.125 Y2.8082 I0.184 J0.
G1 X4.375
G2 X4.559 Y2.6242 I0. J-0.184
G1 Y1.8742
G2 X4.375 Y1.6902 I-0.184 J0.
G1 X2.25
G2 X2.066 Y1.8742 I0. J0.184
G1 Y2.0102
X2.0657 Y2.0117
X2.0649 Y2.0131
X2.0637 Y2.0141
X2.0623 Y2.0146
X2.0607
X2.0592 Y2.0141
X2.0581 Y2.0131
X2.0573 Y2.0117
X2.057 Y2.0102
Y0.125
G2 X1.873 Y-0.059 I-0.184 J0.
G1 X1.4709
G3 X1.4591 Y-0.0708 I0. J-0.0118
G1 Y-0.0826
G19 G2 Y-0.0944 Z-0.1632 J0. K0.0118
G0 Z0.6
G17

M9
M30
