(X8 LEFT STATIC BRACE CHAMFER)
(T6  D=0.25 CR=0. TAPER=41DEG - ZMIN=0.097 - CHAMFER MILL)
G90 G94 G91.1 G40 G49 G17
G20

(2D CONTOUR2)
M5
T6 M6
S15000 M3
G54
G0 X0.3703 Y0.523
G43 Z0.725 H6
Z0.325
G1 Z0.1644 F13.3
Z0.122
G18 G3 X0.3453 Z0.097 I-0.025 K0. F3.
G1 X0.3203
G17 G3 X0.2953 Y0.498 I0. J-0.025
G1 Y-0.498
G3 X0.3203 Y-0.523 I0.025 J0.
G1 X0.3453
G18 G2 X0.3703 Z0.122 I0. K0.025
G0 Z0.725
G17

M30
