(1001)
(T1  D=0.25 CR=0. - ZMIN=-0.333 - FLAT END MILL)
G90 G94 G91.1 G40 G49 G17
G20

(2D POCKET2-BEARINGHOLES)
G0 X0. Y0. Z0.64
M5
T1 M6
S15000 M3
G4 P5.
G54
M7
G0 X0.5041 Y0.5664
G43 Z0.64 H1
Z0.24
G1 Z0.165 F13.3
X0.5032 Y0.5673 Z0.1573 F40.
X0.5017 Y0.5682 Z0.1538
X0.5 Y0.5685 Z0.1504
X0.4984 Y0.5682 Z0.1487
X0.497 Y0.5675 Z0.147
X0.4958 Y0.5663 Z0.1453
X0.4952 Y0.5649 Z0.1444
X0.495 Y0.5634 Z0.1435
X0.4953 Y0.5619 Z0.1426
X0.496 Y0.5605 Z0.1417
X0.4972 Y0.5594 Z0.1414
X0.4987 Y0.5587 Z0.141
X0.5004 Y0.5585 Z0.1407
X0.502 Y0.5589 Z0.1403
X0.5034 Y0.5598 Z0.14
G3 X0.4966 Y0.5672 Z0.1395 I-0.0034 J0.0037
X0.5034 Y0.5598 Z0.1389 I0.0034 J-0.0037
X0.4966 Y0.5672 Z0.1384 I-0.0034 J0.0037
X0.5034 Y0.5598 Z0.1378 I0.0034 J-0.0037
X0.4966 Y0.5672 Z0.1373 I-0.0034 J0.0037
X0.5034 Y0.5598 Z0.1367 I0.0034 J-0.0037
X0.4966 Y0.5672 Z0.1362 I-0.0034 J0.0037
X0.5034 Y0.5598 Z0.1356 I0.0034 J-0.0037
X0.4966 Y0.5672 Z0.1351 I-0.0034 J0.0037
X0.5034 Y0.5598 Z0.1345 I0.0034 J-0.0037
X0.4966 Y0.5672 Z0.134 I-0.0034 J0.0037
X0.5034 Y0.5598 Z0.1334 I0.0034 J-0.0037
X0.4966 Y0.5672 Z0.1329 I-0.0034 J0.0037
X0.5034 Y0.5598 Z0.1323 I0.0034 J-0.0037
X0.4966 Y0.5672 Z0.1318 I-0.0034 J0.0037
X0.5034 Y0.5598 Z0.1312 I0.0034 J-0.0037
X0.4966 Y0.5672 Z0.1307 I-0.0034 J0.0037
X0.5034 Y0.5598 Z0.1301 I0.0034 J-0.0037
X0.4966 Y0.5672 Z0.1296 I-0.0034 J0.0037
X0.5034 Y0.5598 Z0.129 I0.0034 J-0.0037
X0.4966 Y0.5672 Z0.1285 I-0.0034 J0.0037
X0.5034 Y0.5598 Z0.1279 I0.0034 J-0.0037
X0.4966 Y0.5672 Z0.1274 I-0.0034 J0.0037
X0.5034 Y0.5598 Z0.1268 I0.0034 J-0.0037
X0.4966 Y0.5672 Z0.1263 I-0.0034 J0.0037
X0.5034 Y0.5598 Z0.1257 I0.0034 J-0.0037
X0.4966 Y0.5672 Z0.1252 I-0.0034 J0.0037
X0.5034 Y0.5598 Z0.1246 I0.0034 J-0.0037
X0.4966 Y0.5672 Z0.1241 I-0.0034 J0.0037
X0.5034 Y0.5598 Z0.1235 I0.0034 J-0.0037
X0.4966 Y0.5672 Z0.123 I-0.0034 J0.0037
X0.5034 Y0.5598 Z0.1224 I0.0034 J-0.0037
X0.4966 Y0.5672 Z0.1219 I-0.0034 J0.0037
X0.5034 Y0.5598 Z0.1213 I0.0034 J-0.0037
X0.4966 Y0.5672 Z0.1208 I-0.0034 J0.0037
X0.5034 Y0.5598 Z0.1203 I0.0034 J-0.0037
X0.4966 Y0.5672 Z0.1197 I-0.0034 J0.0037
X0.5034 Y0.5598 Z0.1192 I0.0034 J-0.0037
X0.4966 Y0.5672 Z0.1186 I-0.0034 J0.0037
X0.5034 Y0.5598 Z0.1181 I0.0034 J-0.0037
X0.4966 Y0.5672 Z0.1175 I-0.0034 J0.0037
X0.5034 Y0.5598 Z0.117 I0.0034 J-0.0037
X0.4966 Y0.5672 Z0.1164 I-0.0034 J0.0037
X0.5034 Y0.5598 Z0.1159 I0.0034 J-0.0037
X0.4966 Y0.5672 Z0.1153 I-0.0034 J0.0037
X0.5034 Y0.5598 Z0.1148 I0.0034 J-0.0037
X0.4966 Y0.5672 Z0.1142 I-0.0034 J0.0037
X0.5034 Y0.5598 Z0.1137 I0.0034 J-0.0037
X0.4966 Y0.5672 Z0.1131 I-0.0034 J0.0037
X0.5034 Y0.5598 Z0.1126 I0.0034 J-0.0037
X0.4966 Y0.5672 Z0.112 I-0.0034 J0.0037
X0.5034 Y0.5598 Z0.1115 I0.0034 J-0.0037
X0.4966 Y0.5672 Z0.1109 I-0.0034 J0.0037
X0.5034 Y0.5598 Z0.1104 I0.0034 J-0.0037
X0.4966 Y0.5672 Z0.1098 I-0.0034 J0.0037
X0.5034 Y0.5598 Z0.1093 I0.0034 J-0.0037
X0.4966 Y0.5672 Z0.1087 I-0.0034 J0.0037
X0.5034 Y0.5598 Z0.1082 I0.0034 J-0.0037
X0.4966 Y0.5672 Z0.1076 I-0.0034 J0.0037
X0.5034 Y0.5598 Z0.1071 I0.0034 J-0.0037
X0.4966 Y0.5672 Z0.1065 I-0.0034 J0.0037
X0.5034 Y0.5598 Z0.106 I0.0034 J-0.0037
X0.4966 Y0.5672 Z0.1054 I-0.0034 J0.0037
X0.5034 Y0.5598 Z0.1049 I0.0034 J-0.0037
X0.4966 Y0.5672 Z0.1043 I-0.0034 J0.0037
X0.5034 Y0.5598 Z0.1038 I0.0034 J-0.0037
X0.4966 Y0.5672 Z0.1032 I-0.0034 J0.0037
X0.5034 Y0.5598 Z0.1027 I0.0034 J-0.0037
X0.4966 Y0.5672 Z0.1022 I-0.0034 J0.0037
X0.5034 Y0.5598 Z0.1016 I0.0034 J-0.0037
X0.4966 Y0.5672 Z0.1011 I-0.0034 J0.0037
X0.5034 Y0.5598 Z0.1005 I0.0034 J-0.0037
X0.4966 Y0.5672 Z0.1 I-0.0034 J0.0037
X0.5034 Y0.5598 Z0.0994 I0.0034 J-0.0037
X0.4966 Y0.5672 Z0.0989 I-0.0034 J0.0037
X0.5034 Y0.5598 Z0.0983 I0.0034 J-0.0037
X0.4966 Y0.5672 Z0.0978 I-0.0034 J0.0037
X0.5034 Y0.5598 Z0.0972 I0.0034 J-0.0037
X0.4966 Y0.5672 Z0.0967 I-0.0034 J0.0037
X0.5034 Y0.5598 Z0.0961 I0.0034 J-0.0037
X0.4966 Y0.5672 Z0.0956 I-0.0034 J0.0037
X0.5034 Y0.5598 Z0.095 I0.0034 J-0.0037
X0.4966 Y0.5672 Z0.0945 I-0.0034 J0.0037
X0.5034 Y0.5598 Z0.0939 I0.0034 J-0.0037
X0.4966 Y0.5672 Z0.0934 I-0.0034 J0.0037
X0.5034 Y0.5598 Z0.0928 I0.0034 J-0.0037
X0.4966 Y0.5672 Z0.0923 I-0.0034 J0.0037
X0.5034 Y0.5598 Z0.0917 I0.0034 J-0.0037
X0.4966 Y0.5672 Z0.0912 I-0.0034 J0.0037
X0.5034 Y0.5598 Z0.0906 I0.0034 J-0.0037
X0.4966 Y0.5672 Z0.0901 I-0.0034 J0.0037
X0.5034 Y0.5598 Z0.0895 I0.0034 J-0.0037
X0.4966 Y0.5672 Z0.089 I-0.0034 J0.0037
X0.5034 Y0.5598 Z0.0884 I0.0034 J-0.0037
X0.4966 Y0.5672 Z0.0879 I-0.0034 J0.0037
X0.5034 Y0.5598 Z0.0873 I0.0034 J-0.0037
X0.4966 Y0.5672 Z0.0868 I-0.0034 J0.0037
X0.5034 Y0.5598 Z0.0862 I0.0034 J-0.0037
X0.4966 Y0.5672 Z0.0857 I-0.0034 J0.0037
X0.5034 Y0.5598 Z0.0851 I0.0034 J-0.0037
X0.4966 Y0.5672 Z0.0846 I-0.0034 J0.0037
X0.5034 Y0.5598 Z0.084 I0.0034 J-0.0037
X0.4966 Y0.5672 Z0.0835 I-0.0034 J0.0037
X0.5034 Y0.5598 Z0.083 I0.0034 J-0.0037
X0.4966 Y0.5672 Z0.0824 I-0.0034 J0.0037
X0.5034 Y0.5598 Z0.0819 I0.0034 J-0.0037
X0.4966 Y0.5672 Z0.0813 I-0.0034 J0.0037
X0.5034 Y0.5598 Z0.0808 I0.0034 J-0.0037
X0.4966 Y0.5672 Z0.0802 I-0.0034 J0.0037
X0.5034 Y0.5598 Z0.0797 I0.0034 J-0.0037
X0.4966 Y0.5672 Z0.0791 I-0.0034 J0.0037
X0.5034 Y0.5598 Z0.0786 I0.0034 J-0.0037
X0.4966 Y0.5672 Z0.078 I-0.0034 J0.0037
X0.5034 Y0.5598 Z0.0775 I0.0034 J-0.0037
X0.4966 Y0.5672 Z0.0769 I-0.0034 J0.0037
X0.5034 Y0.5598 Z0.0764 I0.0034 J-0.0037
X0.4966 Y0.5672 Z0.0758 I-0.0034 J0.0037
X0.5034 Y0.5598 Z0.0753 I0.0034 J-0.0037
X0.4966 Y0.5672 Z0.0747 I-0.0034 J0.0037
X0.5034 Y0.5598 Z0.0742 I0.0034 J-0.0037
X0.4966 Y0.5672 Z0.0736 I-0.0034 J0.0037
X0.5034 Y0.5598 Z0.0731 I0.0034 J-0.0037
X0.4966 Y0.5672 Z0.0725 I-0.0034 J0.0037
X0.5034 Y0.5598 Z0.072 I0.0034 J-0.0037
X0.4966 Y0.5672 Z0.0714 I-0.0034 J0.0037
X0.5034 Y0.5598 Z0.0709 I0.0034 J-0.0037
X0.4966 Y0.5672 Z0.0703 I-0.0034 J0.0037
X0.5034 Y0.5598 Z0.0698 I0.0034 J-0.0037
X0.4966 Y0.5672 Z0.0692 I-0.0034 J0.0037
X0.5034 Y0.5598 Z0.0687 I0.0034 J-0.0037
X0.4966 Y0.5672 Z0.0681 I-0.0034 J0.0037
X0.5034 Y0.5598 Z0.0676 I0.0034 J-0.0037
X0.4966 Y0.5672 Z0.067 I-0.0034 J0.0037
X0.5034 Y0.5598 Z0.0665 I0.0034 J-0.0037
X0.4966 Y0.5672 Z0.0659 I-0.0034 J0.0037
X0.5034 Y0.5598 Z0.0654 I0.0034 J-0.0037
X0.4966 Y0.5672 Z0.0649 I-0.0034 J0.0037
X0.5034 Y0.5598 Z0.0643 I0.0034 J-0.0037
X0.4966 Y0.5672 Z0.0638 I-0.0034 J0.0037
X0.5034 Y0.5598 Z0.0632 I0.0034 J-0.0037
X0.4966 Y0.5672 Z0.0627 I-0.0034 J0.0037
X0.5034 Y0.5598 Z0.0621 I0.0034 J-0.0037
X0.4966 Y0.5672 Z0.0616 I-0.0034 J0.0037
X0.5034 Y0.5598 Z0.061 I0.0034 J-0.0037
X0.4966 Y0.5672 Z0.0605 I-0.0034 J0.0037
X0.5034 Y0.5598 Z0.0599 I0.0034 J-0.0037
X0.4966 Y0.5672 Z0.0594 I-0.0034 J0.0037
X0.5034 Y0.5598 Z0.0588 I0.0034 J-0.0037
X0.4966 Y0.5672 Z0.0583 I-0.0034 J0.0037
X0.5034 Y0.5598 Z0.0577 I0.0034 J-0.0037
X0.4966 Y0.5672 Z0.0572 I-0.0034 J0.0037
X0.5034 Y0.5598 Z0.0566 I0.0034 J-0.0037
X0.4966 Y0.5672 Z0.0561 I-0.0034 J0.0037
X0.5034 Y0.5598 Z0.0555 I0.0034 J-0.0037
X0.4966 Y0.5672 Z0.055 I-0.0034 J0.0037
X0.5034 Y0.5598 Z0.0544 I0.0034 J-0.0037
X0.4966 Y0.5672 Z0.0539 I-0.0034 J0.0037
X0.5034 Y0.5598 Z0.0533 I0.0034 J-0.0037
X0.4966 Y0.5672 Z0.0528 I-0.0034 J0.0037
X0.5034 Y0.5598 Z0.0522 I0.0034 J-0.0037
X0.4966 Y0.5672 Z0.0517 I-0.0034 J0.0037
X0.5034 Y0.5598 Z0.0511 I0.0034 J-0.0037
X0.4966 Y0.5672 Z0.0506 I-0.0034 J0.0037
X0.5034 Y0.5598 Z0.05 I0.0034 J-0.0037
X0.4966 Y0.5672 Z0.0495 I-0.0034 J0.0037
X0.5034 Y0.5598 Z0.0489 I0.0034 J-0.0037
X0.4966 Y0.5672 Z0.0484 I-0.0034 J0.0037
X0.5034 Y0.5598 Z0.0478 I0.0034 J-0.0037
X0.4966 Y0.5672 Z0.0473 I-0.0034 J0.0037
X0.5034 Y0.5598 Z0.0467 I0.0034 J-0.0037
X0.4966 Y0.5672 Z0.0462 I-0.0034 J0.0037
X0.5034 Y0.5598 Z0.0457 I0.0034 J-0.0037
X0.4966 Y0.5672 Z0.0451 I-0.0034 J0.0037
X0.5034 Y0.5598 Z0.0446 I0.0034 J-0.0037
X0.4966 Y0.5672 Z0.044 I-0.0034 J0.0037
X0.5034 Y0.5598 Z0.0435 I0.0034 J-0.0037
X0.4966 Y0.5672 Z0.0429 I-0.0034 J0.0037
X0.5034 Y0.5598 Z0.0424 I0.0034 J-0.0037
X0.4966 Y0.5672 Z0.0418 I-0.0034 J0.0037
X0.5034 Y0.5598 Z0.0413 I0.0034 J-0.0037
X0.4966 Y0.5672 Z0.0407 I-0.0034 J0.0037
X0.5034 Y0.5598 Z0.0402 I0.0034 J-0.0037
X0.4966 Y0.5672 Z0.0396 I-0.0034 J0.0037
X0.5034 Y0.5598 Z0.0391 I0.0034 J-0.0037
X0.4966 Y0.5672 Z0.0385 I-0.0034 J0.0037
X0.5034 Y0.5598 Z0.038 I0.0034 J-0.0037
X0.4966 Y0.5672 Z0.0374 I-0.0034 J0.0037
X0.5034 Y0.5598 Z0.0369 I0.0034 J-0.0037
X0.4966 Y0.5672 Z0.0363 I-0.0034 J0.0037
X0.5034 Y0.5598 Z0.0358 I0.0034 J-0.0037
X0.4966 Y0.5672 Z0.0352 I-0.0034 J0.0037
X0.5034 Y0.5598 Z0.0347 I0.0034 J-0.0037
X0.4966 Y0.5672 Z0.0341 I-0.0034 J0.0037
X0.5034 Y0.5598 Z0.0336 I0.0034 J-0.0037
X0.4966 Y0.5672 Z0.033 I-0.0034 J0.0037
X0.5034 Y0.5598 Z0.0325 I0.0034 J-0.0037
X0.4966 Y0.5672 Z0.0319 I-0.0034 J0.0037
X0.5034 Y0.5598 Z0.0314 I0.0034 J-0.0037
X0.4966 Y0.5672 Z0.0308 I-0.0034 J0.0037
X0.5034 Y0.5598 Z0.0303 I0.0034 J-0.0037
X0.4966 Y0.5672 Z0.0297 I-0.0034 J0.0037
X0.5034 Y0.5598 Z0.0292 I0.0034 J-0.0037
X0.4966 Y0.5672 Z0.0286 I-0.0034 J0.0037
X0.5034 Y0.5598 Z0.0281 I0.0034 J-0.0037
X0.4966 Y0.5672 Z0.0276 I-0.0034 J0.0037
X0.5034 Y0.5598 Z0.027 I0.0034 J-0.0037
X0.4966 Y0.5672 Z0.0265 I-0.0034 J0.0037
X0.5034 Y0.5598 Z0.0259 I0.0034 J-0.0037
X0.4966 Y0.5672 Z0.0254 I-0.0034 J0.0037
X0.5034 Y0.5598 Z0.0248 I0.0034 J-0.0037
X0.4966 Y0.5672 Z0.0243 I-0.0034 J0.0037
X0.5034 Y0.5598 Z0.0237 I0.0034 J-0.0037
X0.4966 Y0.5672 Z0.0232 I-0.0034 J0.0037
X0.5034 Y0.5598 Z0.0226 I0.0034 J-0.0037
X0.4966 Y0.5672 Z0.0221 I-0.0034 J0.0037
X0.5034 Y0.5598 Z0.0215 I0.0034 J-0.0037
X0.4966 Y0.5672 Z0.021 I-0.0034 J0.0037
X0.5034 Y0.5598 Z0.0204 I0.0034 J-0.0037
X0.5 Y0.5685 Z0.02 I-0.0034 J0.0037
Y0.4315 I0. J-0.0685
Y0.5685 I0. J0.0685
Y0.4315 Z0.0125 I0. J-0.0685
Y0.5685 Z0.005 I0. J0.0685
X0.4401 Y0.4667 Z0. I0. J-0.0685
X0.5599 Y0.5333 I0.0599 J0.0333
X0.4401 Y0.4667 I-0.0599 J-0.0333
X0.5599 Y0.5333 Z-0.0075 I0.0599 J0.0333
X0.4401 Y0.4667 Z-0.015 I-0.0599 J-0.0333
X0.5582 Y0.4638 Z-0.02 I0.0599 J0.0333
X0.4418 Y0.5362 I-0.0582 J0.0362
X0.5582 Y0.4638 I0.0582 J-0.0362
X0.4418 Y0.5362 Z-0.0275 I-0.0582 J0.0362
X0.5582 Y0.4638 Z-0.035 I0.0582 J-0.0362
X0.5034 Y0.5684 Z-0.04 I-0.0582 J0.0362
X0.4966 Y0.4316 I-0.0034 J-0.0684
X0.5034 Y0.5684 I0.0034 J0.0684
X0.4966 Y0.4316 Z-0.0475 I-0.0034 J-0.0684
X0.5034 Y0.5684 Z-0.055 I0.0034 J0.0684
X0.4385 Y0.4698 Z-0.06 I-0.0034 J-0.0684
X0.5615 Y0.5302 I0.0615 J0.0302
X0.4385 Y0.4698 I-0.0615 J-0.0302
X0.5615 Y0.5302 Z-0.0675 I0.0615 J0.0302
X0.4385 Y0.4698 Z-0.075 I-0.0615 J-0.0302
X0.5563 Y0.4609 Z-0.08 I0.0615 J0.0302
X0.4437 Y0.5391 I-0.0563 J0.0391
X0.5563 Y0.4609 I0.0563 J-0.0391
X0.4437 Y0.5391 Z-0.0875 I-0.0563 J0.0391
X0.5563 Y0.4609 Z-0.095 I0.0563 J-0.0391
X0.5068 Y0.5682 Z-0.1 I-0.0563 J0.0391
X0.4932 Y0.4318 I-0.0068 J-0.0682
X0.5068 Y0.5682 I0.0068 J0.0682
X0.4932 Y0.4318 Z-0.1075 I-0.0068 J-0.0682
X0.5068 Y0.5682 Z-0.115 I0.0068 J0.0682
X0.4371 Y0.4729 Z-0.12 I-0.0068 J-0.0682
X0.5629 Y0.5271 I0.0629 J0.0271
X0.4371 Y0.4729 I-0.0629 J-0.0271
X0.5629 Y0.5271 Z-0.1275 I0.0629 J0.0271
X0.4371 Y0.4729 Z-0.135 I-0.0629 J-0.0271
X0.5543 Y0.4582 Z-0.14 I0.0629 J0.0271
X0.4457 Y0.5418 I-0.0543 J0.0418
X0.5543 Y0.4582 I0.0543 J-0.0418
X0.4457 Y0.5418 Z-0.1475 I-0.0543 J0.0418
X0.5543 Y0.4582 Z-0.155 I0.0543 J-0.0418
X0.5102 Y0.5677 Z-0.16 I-0.0543 J0.0418
X0.4898 Y0.4323 I-0.0102 J-0.0677
X0.5102 Y0.5677 I0.0102 J0.0677
X0.4898 Y0.4323 Z-0.1675 I-0.0102 J-0.0677
X0.5102 Y0.5677 Z-0.175 I0.0102 J0.0677
X0.4358 Y0.476 Z-0.18 I-0.0102 J-0.0677
X0.5642 Y0.524 I0.0642 J0.024
X0.4358 Y0.476 I-0.0642 J-0.024
X0.5642 Y0.524 Z-0.1875 I0.0642 J0.024
X0.4358 Y0.476 Z-0.195 I-0.0642 J-0.024
X0.5521 Y0.4555 Z-0.2 I0.0642 J0.024
X0.4479 Y0.5445 I-0.0521 J0.0445
X0.5521 Y0.4555 I0.0521 J-0.0445
X0.4479 Y0.5445 Z-0.2075 I-0.0521 J0.0445
X0.5521 Y0.4555 Z-0.215 I0.0521 J-0.0445
X0.5136 Y0.5671 Z-0.22 I-0.0521 J0.0445
X0.4864 Y0.4329 I-0.0136 J-0.0671
X0.5136 Y0.5671 I0.0136 J0.0671
X0.4864 Y0.4329 Z-0.2275 I-0.0136 J-0.0671
X0.5136 Y0.5671 Z-0.235 I0.0136 J0.0671
X0.4347 Y0.4793 Z-0.24 I-0.0136 J-0.0671
X0.5653 Y0.5207 I0.0653 J0.0207
X0.4347 Y0.4793 I-0.0653 J-0.0207
X0.5653 Y0.5207 Z-0.2475 I0.0653 J0.0207
X0.4347 Y0.4793 Z-0.255 I-0.0653 J-0.0207
X0.5498 Y0.453 Z-0.26 I0.0653 J0.0207
X0.4502 Y0.547 I-0.0498 J0.047
X0.5498 Y0.453 I0.0498 J-0.047
X0.4502 Y0.547 Z-0.2675 I-0.0498 J0.047
X0.5498 Y0.453 Z-0.275 I0.0498 J-0.047
X0.5169 Y0.5664 Z-0.28 I-0.0498 J0.047
X0.4831 Y0.4336 I-0.0169 J-0.0664
X0.5169 Y0.5664 I0.0169 J0.0664
X0.4831 Y0.4336 Z-0.2875 I-0.0169 J-0.0664
X0.5169 Y0.5664 Z-0.295 I0.0169 J0.0664
X0.4338 Y0.4826 Z-0.3 I-0.0169 J-0.0664
X0.5662 Y0.5174 I0.0662 J0.0174
X0.4338 Y0.4826 I-0.0662 J-0.0174
X0.5662 Y0.5174 Z-0.3075 I0.0662 J0.0174
X0.4338 Y0.4826 Z-0.315 I-0.0662 J-0.0174
X0.5474 Y0.4506 Z-0.32 I0.0662 J0.0174
X0.4526 Y0.5494 I-0.0474 J0.0494
X0.5474 Y0.4506 I0.0474 J-0.0494
X0.4526 Y0.5494 Z-0.3275 I-0.0474 J0.0494
X0.4942 Y0.4317 Z-0.333 I0.0474 J-0.0494
X0.5058 Y0.5683 I0.0058 J0.0683
X0.4942 Y0.4317 I-0.0058 J-0.0683
G1 X0.4981 Z-0.3324
X0.5019 Y0.4323 Z-0.3318
X0.5053 Y0.4333 Z-0.33
X0.5084 Y0.4348 Z-0.3282
X0.5108 Y0.4362 Z-0.3255
X0.5129 Y0.4379 Z-0.3227
X0.5154 Y0.4405 Z-0.3157
X0.5162 Y0.4414 Z-0.308
G0 Z0.24
X5.8041 Y0.5664
G1 Z0.165 F13.3
X5.8032 Y0.5673 Z0.1573 F40.
X5.8017 Y0.5682 Z0.1538
X5.8 Y0.5685 Z0.1504
X5.7984 Y0.5682 Z0.1487
X5.797 Y0.5675 Z0.147
X5.7958 Y0.5663 Z0.1453
X5.7952 Y0.5649 Z0.1444
X5.795 Y0.5634 Z0.1435
X5.7953 Y0.5619 Z0.1426
X5.796 Y0.5605 Z0.1417
X5.7972 Y0.5594 Z0.1414
X5.7987 Y0.5587 Z0.141
X5.8004 Y0.5585 Z0.1407
X5.802 Y0.5589 Z0.1403
X5.8034 Y0.5598 Z0.14
G3 X5.7966 Y0.5672 Z0.1395 I-0.0034 J0.0037
X5.8034 Y0.5598 Z0.1389 I0.0034 J-0.0037
X5.7966 Y0.5672 Z0.1384 I-0.0034 J0.0037
X5.8034 Y0.5598 Z0.1378 I0.0034 J-0.0037
X5.7966 Y0.5672 Z0.1373 I-0.0034 J0.0037
X5.8034 Y0.5598 Z0.1367 I0.0034 J-0.0037
X5.7966 Y0.5672 Z0.1362 I-0.0034 J0.0037
X5.8034 Y0.5598 Z0.1356 I0.0034 J-0.0037
X5.7966 Y0.5672 Z0.1351 I-0.0034 J0.0037
X5.8034 Y0.5598 Z0.1345 I0.0034 J-0.0037
X5.7966 Y0.5672 Z0.134 I-0.0034 J0.0037
X5.8034 Y0.5598 Z0.1334 I0.0034 J-0.0037
X5.7966 Y0.5672 Z0.1329 I-0.0034 J0.0037
X5.8034 Y0.5598 Z0.1323 I0.0034 J-0.0037
X5.7966 Y0.5672 Z0.1318 I-0.0034 J0.0037
X5.8034 Y0.5598 Z0.1312 I0.0034 J-0.0037
X5.7966 Y0.5672 Z0.1307 I-0.0034 J0.0037
X5.8034 Y0.5598 Z0.1301 I0.0034 J-0.0037
X5.7966 Y0.5672 Z0.1296 I-0.0034 J0.0037
X5.8034 Y0.5598 Z0.129 I0.0034 J-0.0037
X5.7966 Y0.5672 Z0.1285 I-0.0034 J0.0037
X5.8034 Y0.5598 Z0.1279 I0.0034 J-0.0037
X5.7966 Y0.5672 Z0.1274 I-0.0034 J0.0037
X5.8034 Y0.5598 Z0.1268 I0.0034 J-0.0037
X5.7966 Y0.5672 Z0.1263 I-0.0034 J0.0037
X5.8034 Y0.5598 Z0.1257 I0.0034 J-0.0037
X5.7966 Y0.5672 Z0.1252 I-0.0034 J0.0037
X5.8034 Y0.5598 Z0.1246 I0.0034 J-0.0037
X5.7966 Y0.5672 Z0.1241 I-0.0034 J0.0037
X5.8034 Y0.5598 Z0.1235 I0.0034 J-0.0037
X5.7966 Y0.5672 Z0.123 I-0.0034 J0.0037
X5.8034 Y0.5598 Z0.1224 I0.0034 J-0.0037
X5.7966 Y0.5672 Z0.1219 I-0.0034 J0.0037
X5.8034 Y0.5598 Z0.1213 I0.0034 J-0.0037
X5.7966 Y0.5672 Z0.1208 I-0.0034 J0.0037
X5.8034 Y0.5598 Z0.1203 I0.0034 J-0.0037
X5.7966 Y0.5672 Z0.1197 I-0.0034 J0.0037
X5.8034 Y0.5598 Z0.1192 I0.0034 J-0.0037
X5.7966 Y0.5672 Z0.1186 I-0.0034 J0.0037
X5.8034 Y0.5598 Z0.1181 I0.0034 J-0.0037
X5.7966 Y0.5672 Z0.1175 I-0.0034 J0.0037
X5.8034 Y0.5598 Z0.117 I0.0034 J-0.0037
X5.7966 Y0.5672 Z0.1164 I-0.0034 J0.0037
X5.8034 Y0.5598 Z0.1159 I0.0034 J-0.0037
X5.7966 Y0.5672 Z0.1153 I-0.0034 J0.0037
X5.8034 Y0.5598 Z0.1148 I0.0034 J-0.0037
X5.7966 Y0.5672 Z0.1142 I-0.0034 J0.0037
X5.8034 Y0.5598 Z0.1137 I0.0034 J-0.0037
X5.7966 Y0.5672 Z0.1131 I-0.0034 J0.0037
X5.8034 Y0.5598 Z0.1126 I0.0034 J-0.0037
X5.7966 Y0.5672 Z0.112 I-0.0034 J0.0037
X5.8034 Y0.5598 Z0.1115 I0.0034 J-0.0037
X5.7966 Y0.5672 Z0.1109 I-0.0034 J0.0037
X5.8034 Y0.5598 Z0.1104 I0.0034 J-0.0037
X5.7966 Y0.5672 Z0.1098 I-0.0034 J0.0037
X5.8034 Y0.5598 Z0.1093 I0.0034 J-0.0037
X5.7966 Y0.5672 Z0.1087 I-0.0034 J0.0037
X5.8034 Y0.5598 Z0.1082 I0.0034 J-0.0037
X5.7966 Y0.5672 Z0.1076 I-0.0034 J0.0037
X5.8034 Y0.5598 Z0.1071 I0.0034 J-0.0037
X5.7966 Y0.5672 Z0.1065 I-0.0034 J0.0037
X5.8034 Y0.5598 Z0.106 I0.0034 J-0.0037
X5.7966 Y0.5672 Z0.1054 I-0.0034 J0.0037
X5.8034 Y0.5598 Z0.1049 I0.0034 J-0.0037
X5.7966 Y0.5672 Z0.1043 I-0.0034 J0.0037
X5.8034 Y0.5598 Z0.1038 I0.0034 J-0.0037
X5.7966 Y0.5672 Z0.1032 I-0.0034 J0.0037
X5.8034 Y0.5598 Z0.1027 I0.0034 J-0.0037
X5.7966 Y0.5672 Z0.1022 I-0.0034 J0.0037
X5.8034 Y0.5598 Z0.1016 I0.0034 J-0.0037
X5.7966 Y0.5672 Z0.1011 I-0.0034 J0.0037
X5.8034 Y0.5598 Z0.1005 I0.0034 J-0.0037
X5.7966 Y0.5672 Z0.1 I-0.0034 J0.0037
X5.8034 Y0.5598 Z0.0994 I0.0034 J-0.0037
X5.7966 Y0.5672 Z0.0989 I-0.0034 J0.0037
X5.8034 Y0.5598 Z0.0983 I0.0034 J-0.0037
X5.7966 Y0.5672 Z0.0978 I-0.0034 J0.0037
X5.8034 Y0.5598 Z0.0972 I0.0034 J-0.0037
X5.7966 Y0.5672 Z0.0967 I-0.0034 J0.0037
X5.8034 Y0.5598 Z0.0961 I0.0034 J-0.0037
X5.7966 Y0.5672 Z0.0956 I-0.0034 J0.0037
X5.8034 Y0.5598 Z0.095 I0.0034 J-0.0037
X5.7966 Y0.5672 Z0.0945 I-0.0034 J0.0037
X5.8034 Y0.5598 Z0.0939 I0.0034 J-0.0037
X5.7966 Y0.5672 Z0.0934 I-0.0034 J0.0037
X5.8034 Y0.5598 Z0.0928 I0.0034 J-0.0037
X5.7966 Y0.5672 Z0.0923 I-0.0034 J0.0037
X5.8034 Y0.5598 Z0.0917 I0.0034 J-0.0037
X5.7966 Y0.5672 Z0.0912 I-0.0034 J0.0037
X5.8034 Y0.5598 Z0.0906 I0.0034 J-0.0037
X5.7966 Y0.5672 Z0.0901 I-0.0034 J0.0037
X5.8034 Y0.5598 Z0.0895 I0.0034 J-0.0037
X5.7966 Y0.5672 Z0.089 I-0.0034 J0.0037
X5.8034 Y0.5598 Z0.0884 I0.0034 J-0.0037
X5.7966 Y0.5672 Z0.0879 I-0.0034 J0.0037
X5.8034 Y0.5598 Z0.0873 I0.0034 J-0.0037
X5.7966 Y0.5672 Z0.0868 I-0.0034 J0.0037
X5.8034 Y0.5598 Z0.0862 I0.0034 J-0.0037
X5.7966 Y0.5672 Z0.0857 I-0.0034 J0.0037
X5.8034 Y0.5598 Z0.0851 I0.0034 J-0.0037
X5.7966 Y0.5672 Z0.0846 I-0.0034 J0.0037
X5.8034 Y0.5598 Z0.084 I0.0034 J-0.0037
X5.7966 Y0.5672 Z0.0835 I-0.0034 J0.0037
X5.8034 Y0.5598 Z0.083 I0.0034 J-0.0037
X5.7966 Y0.5672 Z0.0824 I-0.0034 J0.0037
X5.8034 Y0.5598 Z0.0819 I0.0034 J-0.0037
X5.7966 Y0.5672 Z0.0813 I-0.0034 J0.0037
X5.8034 Y0.5598 Z0.0808 I0.0034 J-0.0037
X5.7966 Y0.5672 Z0.0802 I-0.0034 J0.0037
X5.8034 Y0.5598 Z0.0797 I0.0034 J-0.0037
X5.7966 Y0.5672 Z0.0791 I-0.0034 J0.0037
X5.8034 Y0.5598 Z0.0786 I0.0034 J-0.0037
X5.7966 Y0.5672 Z0.078 I-0.0034 J0.0037
X5.8034 Y0.5598 Z0.0775 I0.0034 J-0.0037
X5.7966 Y0.5672 Z0.0769 I-0.0034 J0.0037
X5.8034 Y0.5598 Z0.0764 I0.0034 J-0.0037
X5.7966 Y0.5672 Z0.0758 I-0.0034 J0.0037
X5.8034 Y0.5598 Z0.0753 I0.0034 J-0.0037
X5.7966 Y0.5672 Z0.0747 I-0.0034 J0.0037
X5.8034 Y0.5598 Z0.0742 I0.0034 J-0.0037
X5.7966 Y0.5672 Z0.0736 I-0.0034 J0.0037
X5.8034 Y0.5598 Z0.0731 I0.0034 J-0.0037
X5.7966 Y0.5672 Z0.0725 I-0.0034 J0.0037
X5.8034 Y0.5598 Z0.072 I0.0034 J-0.0037
X5.7966 Y0.5672 Z0.0714 I-0.0034 J0.0037
X5.8034 Y0.5598 Z0.0709 I0.0034 J-0.0037
X5.7966 Y0.5672 Z0.0703 I-0.0034 J0.0037
X5.8034 Y0.5598 Z0.0698 I0.0034 J-0.0037
X5.7966 Y0.5672 Z0.0692 I-0.0034 J0.0037
X5.8034 Y0.5598 Z0.0687 I0.0034 J-0.0037
X5.7966 Y0.5672 Z0.0681 I-0.0034 J0.0037
X5.8034 Y0.5598 Z0.0676 I0.0034 J-0.0037
X5.7966 Y0.5672 Z0.067 I-0.0034 J0.0037
X5.8034 Y0.5598 Z0.0665 I0.0034 J-0.0037
X5.7966 Y0.5672 Z0.0659 I-0.0034 J0.0037
X5.8034 Y0.5598 Z0.0654 I0.0034 J-0.0037
X5.7966 Y0.5672 Z0.0649 I-0.0034 J0.0037
X5.8034 Y0.5598 Z0.0643 I0.0034 J-0.0037
X5.7966 Y0.5672 Z0.0638 I-0.0034 J0.0037
X5.8034 Y0.5598 Z0.0632 I0.0034 J-0.0037
X5.7966 Y0.5672 Z0.0627 I-0.0034 J0.0037
X5.8034 Y0.5598 Z0.0621 I0.0034 J-0.0037
X5.7966 Y0.5672 Z0.0616 I-0.0034 J0.0037
X5.8034 Y0.5598 Z0.061 I0.0034 J-0.0037
X5.7966 Y0.5672 Z0.0605 I-0.0034 J0.0037
X5.8034 Y0.5598 Z0.0599 I0.0034 J-0.0037
X5.7966 Y0.5672 Z0.0594 I-0.0034 J0.0037
X5.8034 Y0.5598 Z0.0588 I0.0034 J-0.0037
X5.7966 Y0.5672 Z0.0583 I-0.0034 J0.0037
X5.8034 Y0.5598 Z0.0577 I0.0034 J-0.0037
X5.7966 Y0.5672 Z0.0572 I-0.0034 J0.0037
X5.8034 Y0.5598 Z0.0566 I0.0034 J-0.0037
X5.7966 Y0.5672 Z0.0561 I-0.0034 J0.0037
X5.8034 Y0.5598 Z0.0555 I0.0034 J-0.0037
X5.7966 Y0.5672 Z0.055 I-0.0034 J0.0037
X5.8034 Y0.5598 Z0.0544 I0.0034 J-0.0037
X5.7966 Y0.5672 Z0.0539 I-0.0034 J0.0037
X5.8034 Y0.5598 Z0.0533 I0.0034 J-0.0037
X5.7966 Y0.5672 Z0.0528 I-0.0034 J0.0037
X5.8034 Y0.5598 Z0.0522 I0.0034 J-0.0037
X5.7966 Y0.5672 Z0.0517 I-0.0034 J0.0037
X5.8034 Y0.5598 Z0.0511 I0.0034 J-0.0037
X5.7966 Y0.5672 Z0.0506 I-0.0034 J0.0037
X5.8034 Y0.5598 Z0.05 I0.0034 J-0.0037
X5.7966 Y0.5672 Z0.0495 I-0.0034 J0.0037
X5.8034 Y0.5598 Z0.0489 I0.0034 J-0.0037
X5.7966 Y0.5672 Z0.0484 I-0.0034 J0.0037
X5.8034 Y0.5598 Z0.0478 I0.0034 J-0.0037
X5.7966 Y0.5672 Z0.0473 I-0.0034 J0.0037
X5.8034 Y0.5598 Z0.0467 I0.0034 J-0.0037
X5.7966 Y0.5672 Z0.0462 I-0.0034 J0.0037
X5.8034 Y0.5598 Z0.0457 I0.0034 J-0.0037
X5.7966 Y0.5672 Z0.0451 I-0.0034 J0.0037
X5.8034 Y0.5598 Z0.0446 I0.0034 J-0.0037
X5.7966 Y0.5672 Z0.044 I-0.0034 J0.0037
X5.8034 Y0.5598 Z0.0435 I0.0034 J-0.0037
X5.7966 Y0.5672 Z0.0429 I-0.0034 J0.0037
X5.8034 Y0.5598 Z0.0424 I0.0034 J-0.0037
X5.7966 Y0.5672 Z0.0418 I-0.0034 J0.0037
X5.8034 Y0.5598 Z0.0413 I0.0034 J-0.0037
X5.7966 Y0.5672 Z0.0407 I-0.0034 J0.0037
X5.8034 Y0.5598 Z0.0402 I0.0034 J-0.0037
X5.7966 Y0.5672 Z0.0396 I-0.0034 J0.0037
X5.8034 Y0.5598 Z0.0391 I0.0034 J-0.0037
X5.7966 Y0.5672 Z0.0385 I-0.0034 J0.0037
X5.8034 Y0.5598 Z0.038 I0.0034 J-0.0037
X5.7966 Y0.5672 Z0.0374 I-0.0034 J0.0037
X5.8034 Y0.5598 Z0.0369 I0.0034 J-0.0037
X5.7966 Y0.5672 Z0.0363 I-0.0034 J0.0037
X5.8034 Y0.5598 Z0.0358 I0.0034 J-0.0037
X5.7966 Y0.5672 Z0.0352 I-0.0034 J0.0037
X5.8034 Y0.5598 Z0.0347 I0.0034 J-0.0037
X5.7966 Y0.5672 Z0.0341 I-0.0034 J0.0037
X5.8034 Y0.5598 Z0.0336 I0.0034 J-0.0037
X5.7966 Y0.5672 Z0.033 I-0.0034 J0.0037
X5.8034 Y0.5598 Z0.0325 I0.0034 J-0.0037
X5.7966 Y0.5672 Z0.0319 I-0.0034 J0.0037
X5.8034 Y0.5598 Z0.0314 I0.0034 J-0.0037
X5.7966 Y0.5672 Z0.0308 I-0.0034 J0.0037
X5.8034 Y0.5598 Z0.0303 I0.0034 J-0.0037
X5.7966 Y0.5672 Z0.0297 I-0.0034 J0.0037
X5.8034 Y0.5598 Z0.0292 I0.0034 J-0.0037
X5.7966 Y0.5672 Z0.0286 I-0.0034 J0.0037
X5.8034 Y0.5598 Z0.0281 I0.0034 J-0.0037
X5.7966 Y0.5672 Z0.0276 I-0.0034 J0.0037
X5.8034 Y0.5598 Z0.027 I0.0034 J-0.0037
X5.7966 Y0.5672 Z0.0265 I-0.0034 J0.0037
X5.8034 Y0.5598 Z0.0259 I0.0034 J-0.0037
X5.7966 Y0.5672 Z0.0254 I-0.0034 J0.0037
X5.8034 Y0.5598 Z0.0248 I0.0034 J-0.0037
X5.7966 Y0.5672 Z0.0243 I-0.0034 J0.0037
X5.8034 Y0.5598 Z0.0237 I0.0034 J-0.0037
X5.7966 Y0.5672 Z0.0232 I-0.0034 J0.0037
X5.8034 Y0.5598 Z0.0226 I0.0034 J-0.0037
X5.7966 Y0.5672 Z0.0221 I-0.0034 J0.0037
X5.8034 Y0.5598 Z0.0215 I0.0034 J-0.0037
X5.7966 Y0.5672 Z0.021 I-0.0034 J0.0037
X5.8034 Y0.5598 Z0.0204 I0.0034 J-0.0037
X5.8 Y0.5685 Z0.02 I-0.0034 J0.0037
Y0.4315 I0. J-0.0685
Y0.5685 I0. J0.0685
Y0.4315 Z0.0125 I0. J-0.0685
Y0.5685 Z0.005 I0. J0.0685
X5.7401 Y0.4667 Z0. I0. J-0.0685
X5.8599 Y0.5333 I0.0599 J0.0333
X5.7401 Y0.4667 I-0.0599 J-0.0333
X5.8599 Y0.5333 Z-0.0075 I0.0599 J0.0333
X5.7401 Y0.4667 Z-0.015 I-0.0599 J-0.0333
X5.8582 Y0.4638 Z-0.02 I0.0599 J0.0333
X5.7418 Y0.5362 I-0.0582 J0.0362
X5.8582 Y0.4638 I0.0582 J-0.0362
X5.7418 Y0.5362 Z-0.0275 I-0.0582 J0.0362
X5.8582 Y0.4638 Z-0.035 I0.0582 J-0.0362
X5.8034 Y0.5684 Z-0.04 I-0.0582 J0.0362
X5.7966 Y0.4316 I-0.0034 J-0.0684
X5.8034 Y0.5684 I0.0034 J0.0684
G1 X5.8 Y0.5685 Z-0.0401
G3 Y0.4315 Z-0.0476 I0. J-0.0685
Y0.5685 Z-0.0551 I0. J0.0685
X5.7385 Y0.4698 Z-0.06 I0. J-0.0685
X5.8615 Y0.5302 I0.0615 J0.0302
X5.7385 Y0.4698 I-0.0615 J-0.0302
X5.8615 Y0.5302 Z-0.0675 I0.0615 J0.0302
X5.7385 Y0.4698 Z-0.075 I-0.0615 J-0.0302
X5.8563 Y0.4609 Z-0.08 I0.0615 J0.0302
X5.7437 Y0.5391 I-0.0563 J0.0391
X5.8563 Y0.4609 I0.0563 J-0.0391
X5.7437 Y0.5391 Z-0.0875 I-0.0563 J0.0391
X5.8563 Y0.4609 Z-0.095 I0.0563 J-0.0391
X5.8068 Y0.5682 Z-0.1 I-0.0563 J0.0391
X5.7932 Y0.4318 I-0.0068 J-0.0682
X5.8068 Y0.5682 I0.0068 J0.0682
X5.7932 Y0.4318 Z-0.1075 I-0.0068 J-0.0682
X5.8068 Y0.5682 Z-0.115 I0.0068 J0.0682
X5.7371 Y0.4729 Z-0.12 I-0.0068 J-0.0682
X5.8629 Y0.5271 I0.0629 J0.0271
X5.7371 Y0.4729 I-0.0629 J-0.0271
X5.8629 Y0.5271 Z-0.1275 I0.0629 J0.0271
X5.7371 Y0.4729 Z-0.135 I-0.0629 J-0.0271
X5.8543 Y0.4582 Z-0.14 I0.0629 J0.0271
X5.7457 Y0.5418 I-0.0543 J0.0418
X5.8543 Y0.4582 I0.0543 J-0.0418
X5.7457 Y0.5418 Z-0.1475 I-0.0543 J0.0418
X5.8543 Y0.4582 Z-0.155 I0.0543 J-0.0418
X5.8102 Y0.5677 Z-0.16 I-0.0543 J0.0418
X5.7898 Y0.4323 I-0.0102 J-0.0677
X5.8102 Y0.5677 I0.0102 J0.0677
X5.7898 Y0.4323 Z-0.1675 I-0.0102 J-0.0677
X5.8102 Y0.5677 Z-0.175 I0.0102 J0.0677
X5.7358 Y0.476 Z-0.18 I-0.0102 J-0.0677
X5.8642 Y0.524 I0.0642 J0.024
X5.7358 Y0.476 I-0.0642 J-0.024
X5.8642 Y0.524 Z-0.1875 I0.0642 J0.024
X5.7358 Y0.476 Z-0.195 I-0.0642 J-0.024
X5.8521 Y0.4555 Z-0.2 I0.0642 J0.024
X5.7479 Y0.5445 I-0.0521 J0.0445
X5.8521 Y0.4555 I0.0521 J-0.0445
X5.7479 Y0.5445 Z-0.2075 I-0.0521 J0.0445
X5.8521 Y0.4555 Z-0.215 I0.0521 J-0.0445
X5.8136 Y0.5671 Z-0.22 I-0.0521 J0.0445
X5.7864 Y0.4329 I-0.0136 J-0.0671
X5.8136 Y0.5671 I0.0136 J0.0671
X5.7864 Y0.4329 Z-0.2275 I-0.0136 J-0.0671
X5.8136 Y0.5671 Z-0.235 I0.0136 J0.0671
X5.7347 Y0.4793 Z-0.24 I-0.0136 J-0.0671
X5.8653 Y0.5207 I0.0653 J0.0207
X5.7347 Y0.4793 I-0.0653 J-0.0207
X5.8653 Y0.5207 Z-0.2475 I0.0653 J0.0207
X5.7347 Y0.4793 Z-0.255 I-0.0653 J-0.0207
X5.8498 Y0.453 Z-0.26 I0.0653 J0.0207
X5.7502 Y0.547 I-0.0498 J0.047
X5.8498 Y0.453 I0.0498 J-0.047
X5.7502 Y0.547 Z-0.2675 I-0.0498 J0.047
X5.8498 Y0.453 Z-0.275 I0.0498 J-0.047
X5.8169 Y0.5664 Z-0.28 I-0.0498 J0.047
X5.7831 Y0.4336 I-0.0169 J-0.0664
X5.8169 Y0.5664 I0.0169 J0.0664
X5.7831 Y0.4336 Z-0.2875 I-0.0169 J-0.0664
X5.8169 Y0.5664 Z-0.295 I0.0169 J0.0664
X5.7338 Y0.4826 Z-0.3 I-0.0169 J-0.0664
X5.8662 Y0.5174 I0.0662 J0.0174
X5.7338 Y0.4826 I-0.0662 J-0.0174
X5.8662 Y0.5174 Z-0.3075 I0.0662 J0.0174
X5.7338 Y0.4826 Z-0.315 I-0.0662 J-0.0174
X5.8474 Y0.4506 Z-0.32 I0.0662 J0.0174
X5.7526 Y0.5494 I-0.0474 J0.0494
X5.8474 Y0.4506 I0.0474 J-0.0494
X5.7526 Y0.5494 Z-0.3275 I-0.0474 J0.0494
X5.7942 Y0.4317 Z-0.333 I0.0474 J-0.0494
X5.8058 Y0.5683 I0.0058 J0.0683
X5.7942 Y0.4317 I-0.0058 J-0.0683
G1 X5.7981 Z-0.3324
X5.8019 Y0.4323 Z-0.3318
X5.8053 Y0.4333 Z-0.33
X5.8084 Y0.4348 Z-0.3282
X5.8108 Y0.4362 Z-0.3255
X5.8129 Y0.4379 Z-0.3227
X5.8154 Y0.4405 Z-0.3157
X5.8162 Y0.4414 Z-0.308
G0 Z0.64

M9
M30
