(1001)
(T1  D=0.25 CR=0. - ZMIN=-0.333 - FLAT END MILL)
G90 G94 G91.1 G40 G49 G17
G20

(2D CONTOUR1 2)
G0 X0. Y0. Z0.64
M5
T1 M6
S15000 M3
G4 P5.
G54
M7
G0 X2.4999 Y1.2
G43 Z0.64 H1
Z0.24
G1 Z0.165 F13.3
G19 G2 Y1.175 Z0.14 J-0.025 K0. F40.
G1 Y1.15
G17 G2 X2.4749 Y1.125 I-0.025 J0.
G1 X0.5 Z0.1055
G3 Y-0.125 Z0.0713 I0. J-0.625
G1 X3.15 Z0.025
X5.8
G3 Y1.125 I0. J0.625
G1 X0.5
G3 Y-0.125 I0. J-0.625
G1 X3.15
X4.0093 Z0.01
X5.8
G3 Y1.125 I0. J0.625
G1 X0.5
G3 Y-0.125 I0. J-0.625
G1 X3.15
X4.0093
X4.8687 Z-0.005
X5.8
G3 Y1.125 I0. J0.625
G1 X0.5
G3 Y-0.125 I0. J-0.625
G1 X4.0093
X4.8687
X5.728 Z-0.02
X5.8
G3 Y1.125 I0. J0.625
G1 X0.5
G3 Y-0.125 I0. J-0.625
G1 X4.8687
X5.728
X5.8 Z-0.0213
G3 X6.395 Y0.3088 Z-0.035 I0. J0.625
X5.8 Y1.125 I-0.595 J0.1912
G1 X0.5
G3 Y-0.125 I0. J-0.625
G1 X5.728
X5.8
G3 X6.395 Y0.3088 I0. J0.625
X6.1034 Y1.0464 Z-0.05 I-0.595 J0.1912
X5.8 Y1.125 I-0.3034 J-0.5464
G1 X0.5
G3 Y-0.125 I0. J-0.625
G1 X5.8
G3 X6.1034 Y1.0464 I0. J0.625
X5.8 Y1.125 Z-0.0555 I-0.3034 J-0.5464
G1 X5.2574 Z-0.065
X0.5
G3 Y-0.125 I0. J-0.625
G1 X5.8
G3 Y1.125 I0. J0.625
G1 X5.2574
X4.398 Z-0.08
X0.5
G3 Y-0.125 I0. J-0.625
G1 X5.8
G3 Y1.125 I0. J0.625
G1 X4.398
X3.5387 Z-0.095
X0.5
G3 Y-0.125 I0. J-0.625
G1 X5.8
G3 Y1.125 I0. J0.625
G1 X4.398
X3.5387
X2.6794 Z-0.11
X0.5
G3 Y-0.125 I0. J-0.625
G1 X5.8
G3 Y1.125 I0. J0.625
G1 X3.5387
X2.6794
X1.82 Z-0.125
X0.5
G3 Y-0.125 I0. J-0.625
G1 X5.8
G3 Y1.125 I0. J0.625
G1 X2.6794
X1.82
X0.9607 Z-0.14
X0.5
G3 Y-0.125 I0. J-0.625
G1 X5.8
G3 Y1.125 I0. J0.625
G1 X1.82
X0.9607
X0.5 Z-0.148
G3 X0.1278 Y1.0021 Z-0.155 I0. J-0.625
X0.5 Y-0.125 I0.3722 J-0.5021
G1 X5.8
G3 Y1.125 I0. J0.625
G1 X0.9607
X0.5
G3 X0.1278 Y1.0021 I0. J-0.625
X-0.0649 Y0.2326 Z-0.17 I0.3722 J-0.5021
X0.5 Y-0.125 I0.5649 J0.2674
G1 X5.8
G3 Y1.125 I0. J0.625
G1 X0.5
G3 X-0.0649 Y0.2326 I0. J-0.625
X0.5 Y-0.125 Z-0.1823 I0.5649 J0.2674
G1 X0.6539 Z-0.185
X5.8
G3 Y1.125 I0. J0.625
G1 X0.5
G3 Y-0.125 I0. J-0.625
G1 X0.6539
X1.5133 Z-0.2
X5.8
G3 Y1.125 I0. J0.625
G1 X0.5
G3 Y-0.125 I0. J-0.625
G1 X1.5133
X2.3726 Z-0.215
X5.8
G3 Y1.125 I0. J0.625
G1 X0.5
G3 Y-0.125 I0. J-0.625
G1 X1.5133
X2.3726
X3.2319 Z-0.23
X5.8
G3 Y1.125 I0. J0.625
G1 X0.5
G3 Y-0.125 I0. J-0.625
G1 X2.3726
X3.2319
X4.0913 Z-0.245
X5.8
G3 Y1.125 I0. J0.625
G1 X0.5
G3 Y-0.125 I0. J-0.625
G1 X3.2319
X4.0913
X4.9506 Z-0.26
X5.8
G3 Y1.125 I0. J0.625
G1 X0.5
G3 Y-0.125 I0. J-0.625
G1 X4.0913
X4.9506
X5.8 Z-0.2748
G3 X5.81 Y-0.1249 Z-0.275 I0. J0.625
X5.8 Y1.125 I-0.01 J0.6249
G1 X0.5
G3 Y-0.125 I0. J-0.625
G1 X4.9506
X5.8
G3 X5.81 Y-0.1249 I0. J0.625
X6.4149 Y0.3882 Z-0.29 I-0.01 J0.6249
X5.8 Y1.125 I-0.6149 J0.1118
G1 X0.5
G3 Y-0.125 I0. J-0.625
G1 X5.8
G3 X6.4149 Y0.3882 I0. J0.625
X6.0293 Y1.0814 Z-0.305 I-0.6149 J0.1118
X5.8 Y1.125 I-0.2293 J-0.5814
G1 X0.5
G3 Y-0.125 I0. J-0.625
G1 X5.8
G3 X6.0293 Y1.0814 I0. J0.625
X5.8 Y1.125 Z-0.3091 I-0.2293 J-0.5814
G1 X5.1754 Z-0.32
X0.5
G3 Y-0.125 I0. J-0.625
G1 X5.8
G3 Y1.125 I0. J0.625
G1 X5.1754
X4.4307 Z-0.333
X0.5
G3 Y-0.125 I0. J-0.625
G1 X5.8
G3 Y1.125 I0. J0.625
G1 X4.4307
G2 X4.4057 Y1.15 I0. J0.025
G1 Y1.175
G19 G3 Y1.2 Z-0.308 J0. K0.025
G0 Z0.64
G17

M9
M30
