(X8 KICKER WHEEL MOTOR MOUNT HEX HOLE)
(T3  D=0.118 CR=0. - ZMIN=-0.54 - FLAT END MILL)
G90 G94 G91.1 G40 G49 G17
G20

(2D POCKET1)
M5
T3 M6
S15000 M3
g4 p5
g0 z.5
G54
M8
G0 X4.0184 Y0.6803
G43 Z0.6 H3
Z0.2
G1 Z0.1118 F40.
X4.0193 Z0.1072 F20.
X4.0219 Y0.6804 Z0.1034
X4.0258 Y0.6807 Z0.1008
X4.0297 Y0.6813 Z0.1
G3 X4.0085 Y0.7914 Z0.0939 I-0.0106 J0.055
X4.0297 Y0.6813 Z0.0877 I0.0106 J-0.055
X4.0085 Y0.7914 Z0.0816 I-0.0106 J0.055
X4.0297 Y0.6813 Z0.0754 I0.0106 J-0.055
X4.0085 Y0.7914 Z0.0693 I-0.0106 J0.055
X4.0297 Y0.6813 Z0.0631 I0.0106 J-0.055
X4.0085 Y0.7914 Z0.057 I-0.0106 J0.055
X4.0297 Y0.6813 Z0.0508 I0.0106 J-0.055
X4.0085 Y0.7914 Z0.0447 I-0.0106 J0.055
X4.0297 Y0.6813 Z0.0385 I0.0106 J-0.055
X4.0085 Y0.7914 Z0.0324 I-0.0106 J0.055
X4.0297 Y0.6813 Z0.0262 I0.0106 J-0.055
X4.0085 Y0.7914 Z0.0201 I-0.0106 J0.055
X4.0297 Y0.6813 Z0.0139 I0.0106 J-0.055
X4.0085 Y0.7914 Z0.0078 I-0.0106 J0.055
X4.0297 Y0.6813 Z0.0016 I0.0106 J-0.055
X4.0085 Y0.7914 Z-0.0045 I-0.0106 J0.055
X4.0297 Y0.6813 Z-0.0107 I0.0106 J-0.055
X4.0085 Y0.7914 Z-0.0168 I-0.0106 J0.055
X4.0297 Y0.6813 Z-0.023 I0.0106 J-0.055
X4.0085 Y0.7914 Z-0.0291 I-0.0106 J0.055
X4.0297 Y0.6813 Z-0.0353 I0.0106 J-0.055
X4.0085 Y0.7914 Z-0.0414 I-0.0106 J0.055
X4.0297 Y0.6813 Z-0.0476 I0.0106 J-0.055
X4.0085 Y0.7914 Z-0.0537 I-0.0106 J0.055
X4.0297 Y0.6813 Z-0.0599 I0.0106 J-0.055
X4.0085 Y0.7914 Z-0.066 I-0.0106 J0.055
X4.0297 Y0.6813 Z-0.0722 I0.0106 J-0.055
X4.0085 Y0.7914 Z-0.0783 I-0.0106 J0.055
X3.9706 Y0.7644 Z-0.08 I0.0106 J-0.055
G1 X3.9704 Y0.7641 F40.
G3 Y0.7359 I0.0244 J-0.0141
G1 X3.9708 Y0.7354
G3 X3.9951 Y0.7213 I0.0244 J0.0141
G1 X3.9958
G3 X4.0202 Y0.7354 I0. J0.0282
G1 X4.0205 Y0.7359
G3 Y0.7641 I-0.0244 J0.0141
G1 X4.0202 Y0.7646
G3 X3.9958 Y0.7787 I-0.0244 J-0.0141
G1 X3.9951
G3 X3.9708 Y0.7646 I0. J-0.0282
G1 X3.9706 Y0.7644
G2 X3.9361 Y0.7471 I-0.0304 J0.0175
G3 X3.9148 Y0.7148 I-0.0026 J-0.0214
G1 X3.9368 Y0.6766
G3 X3.9612 Y0.6625 I0.0244 J0.0141
G1 X4.0297
G3 X4.0541 Y0.6766 I0. J0.0282
G1 X4.0883 Y0.7359
G3 Y0.7641 I-0.0244 J0.0141
G1 X4.0541 Y0.8234
G3 X4.0297 Y0.8375 I-0.0244 J-0.0141
G1 X3.9612
G3 X3.9368 Y0.8234 I0. J-0.0282
G1 X3.9026 Y0.7641
G3 Y0.7359 I0.0244 J-0.0141
G1 X3.9148 Y0.7148
G2 X3.9035 Y0.6343 I-0.0572 J-0.033
G3 X3.934 Y0.559 I0.0305 J-0.0315
G1 X4.0773
G2 X4.1068 Y0.5511 I0. J-0.059
G1 X4.1082 Y0.5507
X4.1096 Y0.5508
X4.1109 Y0.5515
X4.1118 Y0.5527
X4.1121 Y0.5541
G2 X4.12 Y0.5836 I0.059 J0.
G1 X4.2018 Y0.7254
G2 X4.2234 Y0.747 I0.0511 J-0.0295
G1 X4.2245 Y0.7479
X4.2251 Y0.7493
Y0.7507
X4.2245 Y0.7521
X4.2234 Y0.753
G2 X4.2018 Y0.7746 I0.0295 J0.0511
G1 X4.12 Y0.9164
G2 X4.1121 Y0.9459 I0.0511 J0.0295
G1 X4.1118 Y0.9473
X4.1109 Y0.9485
X4.1096 Y0.9492
X4.1082 Y0.9493
X4.1068 Y0.9489
G2 X4.0773 Y0.941 I-0.0295 J0.0511
G1 X3.9136
G2 X3.8841 Y0.9489 I0. J0.059
G1 X3.8827 Y0.9494
X3.8813 Y0.9492
X3.88 Y0.9485
X3.8792 Y0.9473
X3.8789 Y0.9459
G2 X3.871 Y0.9164 I-0.059 J0.
G1 X3.7891 Y0.7746
G2 X3.7675 Y0.753 I-0.0511 J0.0295
G1 X3.7665 Y0.7521
X3.7659 Y0.7507
Y0.7493
X3.7665 Y0.7479
X3.7675 Y0.747
G2 X3.7891 Y0.7254 I-0.0295 J-0.0511
G1 X3.871 Y0.5836
G2 X3.8789 Y0.5541 I-0.0511 J-0.0295
G1 X3.8792 Y0.5527
X3.88 Y0.5515
X3.8813 Y0.5508
X3.8827 Y0.5506
X3.8841 Y0.5511
G2 X3.9136 Y0.559 I0.0295 J-0.0511
G1 X3.934
X3.9357 Y0.5592
X3.9373 Y0.5597
X3.9388 Y0.5606
X3.94 Y0.5617
X4.0668 Y0.7068
G3 X3.9715 Y0.7659 Z-0.0861 I-0.0476 J0.0296 F20.
X4.0668 Y0.7068 Z-0.0923 I0.0476 J-0.0296
X3.9715 Y0.7659 Z-0.0984 I-0.0476 J0.0296
X4.0668 Y0.7068 Z-0.1046 I0.0476 J-0.0296
X3.9715 Y0.7659 Z-0.1107 I-0.0476 J0.0296
X4.0668 Y0.7068 Z-0.1169 I0.0476 J-0.0296
X3.9715 Y0.7659 Z-0.123 I-0.0476 J0.0296
X4.0668 Y0.7068 Z-0.1292 I0.0476 J-0.0296
X3.9715 Y0.7659 Z-0.1353 I-0.0476 J0.0296
X4.0668 Y0.7068 Z-0.1415 I0.0476 J-0.0296
X3.9715 Y0.7659 Z-0.1476 I-0.0476 J0.0296
X4.0668 Y0.7068 Z-0.1538 I0.0476 J-0.0296
X4.0479 Y0.7844 Z-0.1569 I-0.0476 J0.0296
X3.9706 Y0.7644 Z-0.16 I-0.0288 J-0.0481
G1 X3.9704 Y0.7641 F40.
G3 Y0.7359 I0.0244 J-0.0141
G1 X3.9708 Y0.7354
G3 X3.9951 Y0.7213 I0.0244 J0.0141
G1 X3.9958
G3 X4.0202 Y0.7354 I0. J0.0282
G1 X4.0205 Y0.7359
G3 Y0.7641 I-0.0244 J0.0141
G1 X4.0202 Y0.7646
G3 X3.9958 Y0.7787 I-0.0244 J-0.0141
G1 X3.9951
G3 X3.9708 Y0.7646 I0. J-0.0282
G1 X3.9706 Y0.7644
G2 X3.9361 Y0.7471 I-0.0304 J0.0175
G3 X3.9148 Y0.7148 I-0.0026 J-0.0214
G1 X3.9368 Y0.6766
G3 X3.9612 Y0.6625 I0.0244 J0.0141
G1 X4.0297
G3 X4.0541 Y0.6766 I0. J0.0282
G1 X4.0883 Y0.7359
G3 Y0.7641 I-0.0244 J0.0141
G1 X4.0541 Y0.8234
G3 X4.0297 Y0.8375 I-0.0244 J-0.0141
G1 X3.9612
G3 X3.9368 Y0.8234 I0. J-0.0282
G1 X3.9026 Y0.7641
G3 Y0.7359 I0.0244 J-0.0141
G1 X3.9148 Y0.7148
G2 X3.9035 Y0.6343 I-0.0572 J-0.033
G3 X3.934 Y0.559 I0.0305 J-0.0315
G1 X4.0773
G2 X4.1068 Y0.5511 I0. J-0.059
G1 X4.1082 Y0.5507
X4.1096 Y0.5508
X4.1109 Y0.5515
X4.1118 Y0.5527
X4.1121 Y0.5541
G2 X4.12 Y0.5836 I0.059 J0.
G1 X4.2018 Y0.7254
G2 X4.2234 Y0.747 I0.0511 J-0.0295
G1 X4.2245 Y0.7479
X4.2251 Y0.7493
Y0.7507
X4.2245 Y0.7521
X4.2234 Y0.753
G2 X4.2018 Y0.7746 I0.0295 J0.0511
G1 X4.12 Y0.9164
G2 X4.1121 Y0.9459 I0.0511 J0.0295
G1 X4.1118 Y0.9473
X4.1109 Y0.9485
X4.1096 Y0.9492
X4.1082 Y0.9493
X4.1068 Y0.9489
G2 X4.0773 Y0.941 I-0.0295 J0.0511
G1 X3.9136
G2 X3.8841 Y0.9489 I0. J0.059
G1 X3.8827 Y0.9494
X3.8813 Y0.9492
X3.88 Y0.9485
X3.8792 Y0.9473
X3.8789 Y0.9459
G2 X3.871 Y0.9164 I-0.059 J0.
G1 X3.7891 Y0.7746
G2 X3.7675 Y0.753 I-0.0511 J0.0295
G1 X3.7665 Y0.7521
X3.7659 Y0.7507
Y0.7493
X3.7665 Y0.7479
X3.7675 Y0.747
G2 X3.7891 Y0.7254 I-0.0295 J-0.0511
G1 X3.871 Y0.5836
G2 X3.8789 Y0.5541 I-0.0511 J-0.0295
G1 X3.8792 Y0.5527
X3.88 Y0.5515
X3.8813 Y0.5508
X3.8827 Y0.5506
X3.8841 Y0.5511
G2 X3.9136 Y0.559 I0.0295 J-0.0511
G1 X3.934
X3.9357 Y0.5592
X3.9373 Y0.5597
X3.9388 Y0.5606
X3.94 Y0.5617
X4.0668 Y0.7068
G3 X3.9715 Y0.7659 Z-0.1661 I-0.0476 J0.0296 F20.
X4.0668 Y0.7068 Z-0.1723 I0.0476 J-0.0296
X3.9715 Y0.7659 Z-0.1784 I-0.0476 J0.0296
X4.0668 Y0.7068 Z-0.1846 I0.0476 J-0.0296
X3.9715 Y0.7659 Z-0.1907 I-0.0476 J0.0296
X4.0668 Y0.7068 Z-0.1969 I0.0476 J-0.0296
X3.9715 Y0.7659 Z-0.203 I-0.0476 J0.0296
X4.0668 Y0.7068 Z-0.2092 I0.0476 J-0.0296
X3.9715 Y0.7659 Z-0.2153 I-0.0476 J0.0296
X4.0668 Y0.7068 Z-0.2215 I0.0476 J-0.0296
X3.9715 Y0.7659 Z-0.2276 I-0.0476 J0.0296
X4.0668 Y0.7068 Z-0.2338 I0.0476 J-0.0296
X4.0479 Y0.7844 Z-0.2369 I-0.0476 J0.0296
X3.9706 Y0.7644 Z-0.24 I-0.0288 J-0.0481
G1 X3.9704 Y0.7641 F40.
G3 Y0.7359 I0.0244 J-0.0141
G1 X3.9708 Y0.7354
G3 X3.9951 Y0.7213 I0.0244 J0.0141
G1 X3.9958
G3 X4.0202 Y0.7354 I0. J0.0282
G1 X4.0205 Y0.7359
G3 Y0.7641 I-0.0244 J0.0141
G1 X4.0202 Y0.7646
G3 X3.9958 Y0.7787 I-0.0244 J-0.0141
G1 X3.9951
G3 X3.9708 Y0.7646 I0. J-0.0282
G1 X3.9706 Y0.7644
G2 X3.9361 Y0.7471 I-0.0304 J0.0175
G3 X3.9148 Y0.7148 I-0.0026 J-0.0214
G1 X3.9368 Y0.6766
G3 X3.9612 Y0.6625 I0.0244 J0.0141
G1 X4.0297
G3 X4.0541 Y0.6766 I0. J0.0282
G1 X4.0883 Y0.7359
G3 Y0.7641 I-0.0244 J0.0141
G1 X4.0541 Y0.8234
G3 X4.0297 Y0.8375 I-0.0244 J-0.0141
G1 X3.9612
G3 X3.9368 Y0.8234 I0. J-0.0282
G1 X3.9026 Y0.7641
G3 Y0.7359 I0.0244 J-0.0141
G1 X3.9148 Y0.7148
G2 X3.9035 Y0.6343 I-0.0572 J-0.033
G3 X3.934 Y0.559 I0.0305 J-0.0315
G1 X4.0773
G2 X4.1068 Y0.5511 I0. J-0.059
G1 X4.1082 Y0.5507
X4.1096 Y0.5508
X4.1109 Y0.5515
X4.1118 Y0.5527
X4.1121 Y0.5541
G2 X4.12 Y0.5836 I0.059 J0.
G1 X4.2018 Y0.7254
G2 X4.2234 Y0.747 I0.0511 J-0.0295
G1 X4.2245 Y0.7479
X4.2251 Y0.7493
Y0.7507
X4.2245 Y0.7521
X4.2234 Y0.753
G2 X4.2018 Y0.7746 I0.0295 J0.0511
G1 X4.12 Y0.9164
G2 X4.1121 Y0.9459 I0.0511 J0.0295
G1 X4.1118 Y0.9473
X4.1109 Y0.9485
X4.1096 Y0.9492
X4.1082 Y0.9493
X4.1068 Y0.9489
G2 X4.0773 Y0.941 I-0.0295 J0.0511
G1 X3.9136
G2 X3.8841 Y0.9489 I0. J0.059
G1 X3.8827 Y0.9494
X3.8813 Y0.9492
X3.88 Y0.9485
X3.8792 Y0.9473
X3.8789 Y0.9459
G2 X3.871 Y0.9164 I-0.059 J0.
G1 X3.7891 Y0.7746
G2 X3.7675 Y0.753 I-0.0511 J0.0295
G1 X3.7665 Y0.7521
X3.7659 Y0.7507
Y0.7493
X3.7665 Y0.7479
X3.7675 Y0.747
G2 X3.7891 Y0.7254 I-0.0295 J-0.0511
G1 X3.871 Y0.5836
G2 X3.8789 Y0.5541 I-0.0511 J-0.0295
G1 X3.8792 Y0.5527
X3.88 Y0.5515
X3.8813 Y0.5508
X3.8827 Y0.5506
X3.8841 Y0.5511
G2 X3.9136 Y0.559 I0.0295 J-0.0511
G1 X3.934
X3.9357 Y0.5592
X3.9373 Y0.5597
X3.9388 Y0.5606
X3.94 Y0.5617
X4.0668 Y0.7068
G3 X3.9715 Y0.7659 Z-0.2461 I-0.0476 J0.0296 F20.
X4.0668 Y0.7068 Z-0.2523 I0.0476 J-0.0296
X3.9715 Y0.7659 Z-0.2584 I-0.0476 J0.0296
X4.0668 Y0.7068 Z-0.2646 I0.0476 J-0.0296
X3.9715 Y0.7659 Z-0.2707 I-0.0476 J0.0296
X4.0668 Y0.7068 Z-0.2769 I0.0476 J-0.0296
X3.9715 Y0.7659 Z-0.283 I-0.0476 J0.0296
X4.0668 Y0.7068 Z-0.2892 I0.0476 J-0.0296
X3.9715 Y0.7659 Z-0.2953 I-0.0476 J0.0296
X4.0668 Y0.7068 Z-0.3015 I0.0476 J-0.0296
X3.9715 Y0.7659 Z-0.3076 I-0.0476 J0.0296
X4.0668 Y0.7068 Z-0.3138 I0.0476 J-0.0296
X4.0479 Y0.7844 Z-0.3169 I-0.0476 J0.0296
X3.9706 Y0.7644 Z-0.32 I-0.0288 J-0.0481
G1 X3.9704 Y0.7641 F40.
G3 Y0.7359 I0.0244 J-0.0141
G1 X3.9708 Y0.7354
G3 X3.9951 Y0.7213 I0.0244 J0.0141
G1 X3.9958
G3 X4.0202 Y0.7354 I0. J0.0282
G1 X4.0205 Y0.7359
G3 Y0.7641 I-0.0244 J0.0141
G1 X4.0202 Y0.7646
G3 X3.9958 Y0.7787 I-0.0244 J-0.0141
G1 X3.9951
G3 X3.9708 Y0.7646 I0. J-0.0282
G1 X3.9706 Y0.7644
G2 X3.9361 Y0.7471 I-0.0304 J0.0175
G3 X3.9148 Y0.7148 I-0.0026 J-0.0214
G1 X3.9368 Y0.6766
G3 X3.9612 Y0.6625 I0.0244 J0.0141
G1 X4.0297
G3 X4.0541 Y0.6766 I0. J0.0282
G1 X4.0883 Y0.7359
G3 Y0.7641 I-0.0244 J0.0141
G1 X4.0541 Y0.8234
G3 X4.0297 Y0.8375 I-0.0244 J-0.0141
G1 X3.9612
G3 X3.9368 Y0.8234 I0. J-0.0282
G1 X3.9026 Y0.7641
G3 Y0.7359 I0.0244 J-0.0141
G1 X3.9148 Y0.7148
G2 X3.9035 Y0.6343 I-0.0572 J-0.033
G3 X3.934 Y0.559 I0.0305 J-0.0315
G1 X4.0773
G2 X4.1068 Y0.5511 I0. J-0.059
G1 X4.1082 Y0.5507
X4.1096 Y0.5508
X4.1109 Y0.5515
X4.1118 Y0.5527
X4.1121 Y0.5541
G2 X4.12 Y0.5836 I0.059 J0.
G1 X4.2018 Y0.7254
G2 X4.2234 Y0.747 I0.0511 J-0.0295
G1 X4.2245 Y0.7479
X4.2251 Y0.7493
Y0.7507
X4.2245 Y0.7521
X4.2234 Y0.753
G2 X4.2018 Y0.7746 I0.0295 J0.0511
G1 X4.12 Y0.9164
G2 X4.1121 Y0.9459 I0.0511 J0.0295
G1 X4.1118 Y0.9473
X4.1109 Y0.9485
X4.1096 Y0.9492
X4.1082 Y0.9493
X4.1068 Y0.9489
G2 X4.0773 Y0.941 I-0.0295 J0.0511
G1 X3.9136
G2 X3.8841 Y0.9489 I0. J0.059
G1 X3.8827 Y0.9494
X3.8813 Y0.9492
X3.88 Y0.9485
X3.8792 Y0.9473
X3.8789 Y0.9459
G2 X3.871 Y0.9164 I-0.059 J0.
G1 X3.7891 Y0.7746
G2 X3.7675 Y0.753 I-0.0511 J0.0295
G1 X3.7665 Y0.7521
X3.7659 Y0.7507
Y0.7493
X3.7665 Y0.7479
X3.7675 Y0.747
G2 X3.7891 Y0.7254 I-0.0295 J-0.0511
G1 X3.871 Y0.5836
G2 X3.8789 Y0.5541 I-0.0511 J-0.0295
G1 X3.8792 Y0.5527
X3.88 Y0.5515
X3.8813 Y0.5508
X3.8827 Y0.5506
X3.8841 Y0.5511
G2 X3.9136 Y0.559 I0.0295 J-0.0511
G1 X3.934
X3.9357 Y0.5592
X3.9373 Y0.5597
X3.9388 Y0.5606
X3.94 Y0.5617
X4.0668 Y0.7068
G3 X3.9715 Y0.7659 Z-0.3261 I-0.0476 J0.0296 F20.
X4.0668 Y0.7068 Z-0.3323 I0.0476 J-0.0296
X3.9715 Y0.7659 Z-0.3384 I-0.0476 J0.0296
X4.0668 Y0.7068 Z-0.3446 I0.0476 J-0.0296
X3.9715 Y0.7659 Z-0.3507 I-0.0476 J0.0296
X4.0668 Y0.7068 Z-0.3569 I0.0476 J-0.0296
X3.9715 Y0.7659 Z-0.363 I-0.0476 J0.0296
X4.0668 Y0.7068 Z-0.3692 I0.0476 J-0.0296
X3.9715 Y0.7659 Z-0.3753 I-0.0476 J0.0296
X4.0668 Y0.7068 Z-0.3815 I0.0476 J-0.0296
X3.9715 Y0.7659 Z-0.3876 I-0.0476 J0.0296
X4.0668 Y0.7068 Z-0.3938 I0.0476 J-0.0296
X4.0479 Y0.7844 Z-0.3969 I-0.0476 J0.0296
X3.9706 Y0.7644 Z-0.4 I-0.0288 J-0.0481
G1 X3.9704 Y0.7641 F40.
G3 Y0.7359 I0.0244 J-0.0141
G1 X3.9708 Y0.7354
G3 X3.9951 Y0.7213 I0.0244 J0.0141
G1 X3.9958
G3 X4.0202 Y0.7354 I0. J0.0282
G1 X4.0205 Y0.7359
G3 Y0.7641 I-0.0244 J0.0141
G1 X4.0202 Y0.7646
G3 X3.9958 Y0.7787 I-0.0244 J-0.0141
G1 X3.9951
G3 X3.9708 Y0.7646 I0. J-0.0282
G1 X3.9706 Y0.7644
G2 X3.9361 Y0.7471 I-0.0304 J0.0175
G3 X3.9148 Y0.7148 I-0.0026 J-0.0214
G1 X3.9368 Y0.6766
G3 X3.9612 Y0.6625 I0.0244 J0.0141
G1 X4.0297
G3 X4.0541 Y0.6766 I0. J0.0282
G1 X4.0883 Y0.7359
G3 Y0.7641 I-0.0244 J0.0141
G1 X4.0541 Y0.8234
G3 X4.0297 Y0.8375 I-0.0244 J-0.0141
G1 X3.9612
G3 X3.9368 Y0.8234 I0. J-0.0282
G1 X3.9026 Y0.7641
G3 Y0.7359 I0.0244 J-0.0141
G1 X3.9148 Y0.7148
G2 X3.9035 Y0.6343 I-0.0572 J-0.033
G3 X3.934 Y0.559 I0.0305 J-0.0315
G1 X4.0773
G2 X4.1068 Y0.5511 I0. J-0.059
G1 X4.1082 Y0.5507
X4.1096 Y0.5508
X4.1109 Y0.5515
X4.1118 Y0.5527
X4.1121 Y0.5541
G2 X4.12 Y0.5836 I0.059 J0.
G1 X4.2018 Y0.7254
G2 X4.2234 Y0.747 I0.0511 J-0.0295
G1 X4.2245 Y0.7479
X4.2251 Y0.7493
Y0.7507
X4.2245 Y0.7521
X4.2234 Y0.753
G2 X4.2018 Y0.7746 I0.0295 J0.0511
G1 X4.12 Y0.9164
G2 X4.1121 Y0.9459 I0.0511 J0.0295
G1 X4.1118 Y0.9473
X4.1109 Y0.9485
X4.1096 Y0.9492
X4.1082 Y0.9493
X4.1068 Y0.9489
G2 X4.0773 Y0.941 I-0.0295 J0.0511
G1 X3.9136
G2 X3.8841 Y0.9489 I0. J0.059
G1 X3.8827 Y0.9494
X3.8813 Y0.9492
X3.88 Y0.9485
X3.8792 Y0.9473
X3.8789 Y0.9459
G2 X3.871 Y0.9164 I-0.059 J0.
G1 X3.7891 Y0.7746
G2 X3.7675 Y0.753 I-0.0511 J0.0295
G1 X3.7665 Y0.7521
X3.7659 Y0.7507
Y0.7493
X3.7665 Y0.7479
X3.7675 Y0.747
G2 X3.7891 Y0.7254 I-0.0295 J-0.0511
G1 X3.871 Y0.5836
G2 X3.8789 Y0.5541 I-0.0511 J-0.0295
G1 X3.8792 Y0.5527
X3.88 Y0.5515
X3.8813 Y0.5508
X3.8827 Y0.5506
X3.8841 Y0.5511
G2 X3.9136 Y0.559 I0.0295 J-0.0511
G1 X3.934
X3.9357 Y0.5592
X3.9373 Y0.5597
X3.9388 Y0.5606
X3.94 Y0.5617
X4.0668 Y0.7068
G3 X3.9715 Y0.7659 Z-0.4061 I-0.0476 J0.0296 F20.
X4.0668 Y0.7068 Z-0.4123 I0.0476 J-0.0296
X3.9715 Y0.7659 Z-0.4184 I-0.0476 J0.0296
X4.0668 Y0.7068 Z-0.4246 I0.0476 J-0.0296
X3.9715 Y0.7659 Z-0.4307 I-0.0476 J0.0296
X4.0668 Y0.7068 Z-0.4369 I0.0476 J-0.0296
X3.9715 Y0.7659 Z-0.443 I-0.0476 J0.0296
X4.0668 Y0.7068 Z-0.4492 I0.0476 J-0.0296
X3.9715 Y0.7659 Z-0.4553 I-0.0476 J0.0296
X4.0668 Y0.7068 Z-0.4615 I0.0476 J-0.0296
X3.9715 Y0.7659 Z-0.4676 I-0.0476 J0.0296
X4.0668 Y0.7068 Z-0.4738 I0.0476 J-0.0296
X4.0479 Y0.7844 Z-0.4769 I-0.0476 J0.0296
X3.9706 Y0.7644 Z-0.48 I-0.0288 J-0.0481
G1 X3.9704 Y0.7641 F40.
G3 Y0.7359 I0.0244 J-0.0141
G1 X3.9708 Y0.7354
G3 X3.9951 Y0.7213 I0.0244 J0.0141
G1 X3.9958
G3 X4.0202 Y0.7354 I0. J0.0282
G1 X4.0205 Y0.7359
G3 Y0.7641 I-0.0244 J0.0141
G1 X4.0202 Y0.7646
G3 X3.9958 Y0.7787 I-0.0244 J-0.0141
G1 X3.9951
G3 X3.9708 Y0.7646 I0. J-0.0282
G1 X3.9706 Y0.7644
G2 X3.9361 Y0.7471 I-0.0304 J0.0175
G3 X3.9148 Y0.7148 I-0.0026 J-0.0214
G1 X3.9368 Y0.6766
G3 X3.9612 Y0.6625 I0.0244 J0.0141
G1 X4.0297
G3 X4.0541 Y0.6766 I0. J0.0282
G1 X4.0883 Y0.7359
G3 Y0.7641 I-0.0244 J0.0141
G1 X4.0541 Y0.8234
G3 X4.0297 Y0.8375 I-0.0244 J-0.0141
G1 X3.9612
G3 X3.9368 Y0.8234 I0. J-0.0282
G1 X3.9026 Y0.7641
G3 Y0.7359 I0.0244 J-0.0141
G1 X3.9148 Y0.7148
G2 X3.9035 Y0.6343 I-0.0572 J-0.033
G3 X3.934 Y0.559 I0.0305 J-0.0315
G1 X4.0773
G2 X4.1068 Y0.5511 I0. J-0.059
G1 X4.1082 Y0.5507
X4.1096 Y0.5508
X4.1109 Y0.5515
X4.1118 Y0.5527
X4.1121 Y0.5541
G2 X4.12 Y0.5836 I0.059 J0.
G1 X4.2018 Y0.7254
G2 X4.2234 Y0.747 I0.0511 J-0.0295
G1 X4.2245 Y0.7479
X4.2251 Y0.7493
Y0.7507
X4.2245 Y0.7521
X4.2234 Y0.753
G2 X4.2018 Y0.7746 I0.0295 J0.0511
G1 X4.12 Y0.9164
G2 X4.1121 Y0.9459 I0.0511 J0.0295
G1 X4.1118 Y0.9473
X4.1109 Y0.9485
X4.1096 Y0.9492
X4.1082 Y0.9493
X4.1068 Y0.9489
G2 X4.0773 Y0.941 I-0.0295 J0.0511
G1 X3.9136
G2 X3.8841 Y0.9489 I0. J0.059
G1 X3.8827 Y0.9494
X3.8813 Y0.9492
X3.88 Y0.9485
X3.8792 Y0.9473
X3.8789 Y0.9459
G2 X3.871 Y0.9164 I-0.059 J0.
G1 X3.7891 Y0.7746
G2 X3.7675 Y0.753 I-0.0511 J0.0295
G1 X3.7665 Y0.7521
X3.7659 Y0.7507
Y0.7493
X3.7665 Y0.7479
X3.7675 Y0.747
G2 X3.7891 Y0.7254 I-0.0295 J-0.0511
G1 X3.871 Y0.5836
G2 X3.8789 Y0.5541 I-0.0511 J-0.0295
G1 X3.8792 Y0.5527
X3.88 Y0.5515
X3.8813 Y0.5508
X3.8827 Y0.5506
X3.8841 Y0.5511
G2 X3.9136 Y0.559 I0.0295 J-0.0511
G1 X3.934
G3 X3.942 Y0.5666 I0. J0.008
G1 X3.9489 Y0.7216
G2 X3.9647 Y0.7231 I0.008 J-0.0004
G3 X4.0736 Y0.7496 Z-0.4861 I0.0545 J0.0132 F20.
X3.9647 Y0.7231 Z-0.4923 I-0.0545 J-0.0132
X4.0736 Y0.7496 Z-0.4984 I0.0545 J0.0132
X3.9647 Y0.7231 Z-0.5046 I-0.0545 J-0.0132
X4.0736 Y0.7496 Z-0.5107 I0.0545 J0.0132
X3.9647 Y0.7231 Z-0.5169 I-0.0545 J-0.0132
X4.0736 Y0.7496 Z-0.523 I0.0545 J0.0132
X3.9647 Y0.7231 Z-0.5292 I-0.0545 J-0.0132
X4.0736 Y0.7496 Z-0.5353 I0.0545 J0.0132
X3.9706 Y0.7644 Z-0.54 I-0.0545 J-0.0132
G1 X3.9704 Y0.7641 F40.
G3 Y0.7359 I0.0244 J-0.0141
G1 X3.9708 Y0.7354
G3 X3.9951 Y0.7213 I0.0244 J0.0141
G1 X3.9958
G3 X4.0202 Y0.7354 I0. J0.0282
G1 X4.0205 Y0.7359
G3 Y0.7641 I-0.0244 J0.0141
G1 X4.0202 Y0.7646
G3 X3.9958 Y0.7787 I-0.0244 J-0.0141
G1 X3.9951
G3 X3.9708 Y0.7646 I0. J-0.0282
G1 X3.9706 Y0.7644
G2 X3.9361 Y0.7471 I-0.0304 J0.0175
G3 X3.9148 Y0.7148 I-0.0026 J-0.0214
G1 X3.9368 Y0.6766
G3 X3.9612 Y0.6625 I0.0244 J0.0141
G1 X4.0297
G3 X4.0541 Y0.6766 I0. J0.0282
G1 X4.0883 Y0.7359
G3 Y0.7641 I-0.0244 J0.0141
G1 X4.0541 Y0.8234
G3 X4.0297 Y0.8375 I-0.0244 J-0.0141
G1 X3.9612
G3 X3.9368 Y0.8234 I0. J-0.0282
G1 X3.9026 Y0.7641
G3 Y0.7359 I0.0244 J-0.0141
G1 X3.9148 Y0.7148
G2 X3.9035 Y0.6343 I-0.0572 J-0.033
G3 X3.934 Y0.559 I0.0305 J-0.0315
G1 X4.0773
G2 X4.1068 Y0.5511 I0. J-0.059
G1 X4.1082 Y0.5507
X4.1096 Y0.5508
X4.1109 Y0.5515
X4.1118 Y0.5527
X4.1121 Y0.5541
G2 X4.12 Y0.5836 I0.059 J0.
G1 X4.2018 Y0.7254
G2 X4.2234 Y0.747 I0.0511 J-0.0295
G1 X4.2245 Y0.7479
X4.2251 Y0.7493
Y0.7507
X4.2245 Y0.7521
X4.2234 Y0.753
G2 X4.2018 Y0.7746 I0.0295 J0.0511
G1 X4.12 Y0.9164
G2 X4.1121 Y0.9459 I0.0511 J0.0295
G1 X4.1118 Y0.9473
X4.1109 Y0.9485
X4.1096 Y0.9492
X4.1082 Y0.9493
X4.1068 Y0.9489
G2 X4.0773 Y0.941 I-0.0295 J0.0511
G1 X3.9136
G2 X3.8841 Y0.9489 I0. J0.059
G1 X3.8827 Y0.9494
X3.8813 Y0.9492
X3.88 Y0.9485
X3.8792 Y0.9473
X3.8789 Y0.9459
G2 X3.871 Y0.9164 I-0.059 J0.
G1 X3.7891 Y0.7746
G2 X3.7675 Y0.753 I-0.0511 J0.0295
G1 X3.7665 Y0.7521
X3.7659 Y0.7507
Y0.7493
X3.7665 Y0.7479
X3.7675 Y0.747
G2 X3.7891 Y0.7254 I-0.0295 J-0.0511
G1 X3.871 Y0.5836
G2 X3.8789 Y0.5541 I-0.0511 J-0.0295
G1 X3.8792 Y0.5527
X3.88 Y0.5515
X3.8813 Y0.5508
X3.8827 Y0.5506
X3.8841 Y0.5511
G2 X3.9136 Y0.559 I0.0295 J-0.0511
G1 X3.934
X3.9363 Y0.5592 Z-0.5396
X3.9384 Y0.5599 Z-0.5391
X3.9401 Y0.5607 Z-0.5378
X3.9417 Y0.5618 Z-0.5365
X3.9434 Y0.5637 Z-0.5327
X3.9439 Y0.5644 Z-0.5282
G0 Z0.6
g0 x0 Y0

M9
M30
