(T1  D=3.175 CR=0. - ZMIN=-5.175 - FLAT END MILL)
G90 G94 G91.1 G40 G49 G17
G21
(2ND HOLE)
G0 Z15

(BORE6 2)
M5
T1 M6
S16000 M3
G54
M8
G0 X136.547 Y114.693
G43 Z20. H1
Z3.
G1 Z1.317 F400.
G18 G2 X136.864 Z1. I0.318 K0.
G1 X137.023
G17 G2 X137.341 Y114.376 I0. J-0.317
X133.372 Z0.938 I-1.984 J0.
X137.341 Z0.875 I1.984 J0.
X133.372 Z0.813 I-1.984 J0.
X137.341 Z0.751 I1.984 J0.
X133.372 Z0.688 I-1.984 J0.
X137.341 Z0.626 I1.984 J0.
X133.372 Z0.564 I-1.984 J0.
X137.341 Z0.501 I1.984 J0.
X133.372 Z0.439 I-1.984 J0.
X137.341 Z0.377 I1.984 J0.
X133.372 Z0.314 I-1.984 J0.
X137.341 Z0.252 I1.984 J0.
X133.372 Z0.189 I-1.984 J0.
X137.341 Z0.127 I1.984 J0.
X133.372 Z0.065 I-1.984 J0.
X137.341 Z0.002 I1.984 J0.
X133.372 Z-0.06 I-1.984 J0.
X137.341 Z-0.122 I1.984 J0.
X133.372 Z-0.185 I-1.984 J0.
X137.341 Z-0.247 I1.984 J0.
X133.372 Z-0.309 I-1.984 J0.
X137.341 Z-0.372 I1.984 J0.
X133.372 Z-0.434 I-1.984 J0.
X137.341 Z-0.496 I1.984 J0.
X133.372 Z-0.559 I-1.984 J0.
X137.341 Z-0.621 I1.984 J0.
X133.372 Z-0.683 I-1.984 J0.
X137.341 Z-0.746 I1.984 J0.
X133.372 Z-0.808 I-1.984 J0.
X137.341 Z-0.87 I1.984 J0.
X133.372 Z-0.933 I-1.984 J0.
X137.341 Z-0.995 I1.984 J0.
X133.372 Z-1.057 I-1.984 J0.
X137.341 Z-1.12 I1.984 J0.
X133.372 Z-1.182 I-1.984 J0.
X137.341 Z-1.245 I1.984 J0.
X133.372 Z-1.307 I-1.984 J0.
X137.341 Z-1.369 I1.984 J0.
X133.372 Z-1.432 I-1.984 J0.
X137.341 Z-1.494 I1.984 J0.
X133.372 Z-1.556 I-1.984 J0.
X137.341 Z-1.619 I1.984 J0.
X133.372 Z-1.681 I-1.984 J0.
X137.341 Z-1.743 I1.984 J0.
X133.372 Z-1.806 I-1.984 J0.
X137.341 Z-1.868 I1.984 J0.
X133.372 Z-1.93 I-1.984 J0.
X137.341 Z-1.993 I1.984 J0.
X133.372 Z-2.055 I-1.984 J0.
X137.341 Z-2.117 I1.984 J0.
X133.372 Z-2.18 I-1.984 J0.
X137.341 Z-2.242 I1.984 J0.
X133.372 Z-2.304 I-1.984 J0.
X137.341 Z-2.367 I1.984 J0.
X133.372 Z-2.429 I-1.984 J0.
X137.341 Z-2.491 I1.984 J0.
X133.372 Z-2.554 I-1.984 J0.
X137.341 Z-2.616 I1.984 J0.
X133.372 Z-2.678 I-1.984 J0.
X137.341 Z-2.741 I1.984 J0.
X133.372 Z-2.803 I-1.984 J0.
X137.341 Z-2.866 I1.984 J0.
X133.372 Z-2.928 I-1.984 J0.
X137.341 Z-2.99 I1.984 J0.
X133.372 Z-3.053 I-1.984 J0.
X137.341 Z-3.115 I1.984 J0.
X133.372 Z-3.177 I-1.984 J0.
X137.341 Z-3.24 I1.984 J0.
X133.372 Z-3.302 I-1.984 J0.
X137.341 Z-3.364 I1.984 J0.
X133.372 Z-3.427 I-1.984 J0.
X137.341 Z-3.489 I1.984 J0.
X133.372 Z-3.551 I-1.984 J0.
X137.341 Z-3.614 I1.984 J0.
X133.372 Z-3.676 I-1.984 J0.
X137.341 Z-3.738 I1.984 J0.
X133.372 Z-3.801 I-1.984 J0.
X137.341 Z-3.863 I1.984 J0.
X133.372 Z-3.925 I-1.984 J0.
X137.341 Z-3.988 I1.984 J0.
X133.372 Z-4.05 I-1.984 J0.
X137.341 Z-4.112 I1.984 J0.
X133.372 Z-4.175 I-1.984 J0.
X137.341 Z-4.237 I1.984 J0.
X133.372 Z-4.3 I-1.984 J0.
X137.341 Z-4.362 I1.984 J0.
X133.372 Z-4.424 I-1.984 J0.
X137.341 Z-4.487 I1.984 J0.
X133.372 Z-4.549 I-1.984 J0.
X137.341 Z-4.611 I1.984 J0.
X133.372 Z-4.674 I-1.984 J0.
X137.341 Z-4.736 I1.984 J0.
X133.372 Z-4.798 I-1.984 J0.
X137.341 Z-4.861 I1.984 J0.
X133.372 Z-4.923 I-1.984 J0.
X137.341 Z-4.985 I1.984 J0.
X133.372 Z-5.048 I-1.984 J0.
X137.341 Z-5.11 I1.984 J0.
X135.226 Y112.396 Z-5.143 I-1.984 J0.
X133.389 Y114.637 Z-5.175 I0.131 J1.98
X137.323 Y114.115 I1.967 J-0.261
X133.389 Y114.637 I-1.967 J0.261
X133.746 Y114.91 I0.315 J-0.042
G1 X133.903 Y114.889
X133.973 Y114.88 Z-5.167
X134.04 Y114.871 Z-5.144
X134.099 Y114.863 Z-5.106
X134.149 Y114.856 Z-5.055
X134.187 Y114.851 Z-4.995
X134.21 Y114.848 Z-4.928
X134.218 Y114.847 Z-4.858
G0 Z5.
X136.547 Y165.493
Z3.
G1 Z1.317 F400.
G18 G2 X136.864 Z1. I0.318 K0.
G1 X137.023
G17 G2 X137.341 Y165.176 I0. J-0.318
X133.372 Z0.938 I-1.984 J0.
X137.341 Z0.875 I1.984 J0.
X133.372 Z0.813 I-1.984 J0.
X137.341 Z0.751 I1.984 J0.
X133.372 Z0.688 I-1.984 J0.
X137.341 Z0.626 I1.984 J0.
X133.372 Z0.564 I-1.984 J0.
X137.341 Z0.501 I1.984 J0.
X133.372 Z0.439 I-1.984 J0.
X137.341 Z0.377 I1.984 J0.
X133.372 Z0.314 I-1.984 J0.
X137.341 Z0.252 I1.984 J0.
X133.372 Z0.189 I-1.984 J0.
X137.341 Z0.127 I1.984 J0.
X133.372 Z0.065 I-1.984 J0.
X137.341 Z0.002 I1.984 J0.
X133.372 Z-0.06 I-1.984 J0.
X137.341 Z-0.122 I1.984 J0.
X133.372 Z-0.185 I-1.984 J0.
X137.341 Z-0.247 I1.984 J0.
X133.372 Z-0.309 I-1.984 J0.
X137.341 Z-0.372 I1.984 J0.
X133.372 Z-0.434 I-1.984 J0.
X137.341 Z-0.496 I1.984 J0.
X133.372 Z-0.559 I-1.984 J0.
X137.341 Z-0.621 I1.984 J0.
X133.372 Z-0.683 I-1.984 J0.
X137.341 Z-0.746 I1.984 J0.
X133.372 Z-0.808 I-1.984 J0.
X137.341 Z-0.87 I1.984 J0.
X133.372 Z-0.933 I-1.984 J0.
X137.341 Z-0.995 I1.984 J0.
X133.372 Z-1.057 I-1.984 J0.
X137.341 Z-1.12 I1.984 J0.
X133.372 Z-1.182 I-1.984 J0.
X137.341 Z-1.245 I1.984 J0.
X133.372 Z-1.307 I-1.984 J0.
X137.341 Z-1.369 I1.984 J0.
X133.372 Z-1.432 I-1.984 J0.
X137.341 Z-1.494 I1.984 J0.
X133.372 Z-1.556 I-1.984 J0.
X137.341 Z-1.619 I1.984 J0.
X133.372 Z-1.681 I-1.984 J0.
X137.341 Z-1.743 I1.984 J0.
X133.372 Z-1.806 I-1.984 J0.
X137.341 Z-1.868 I1.984 J0.
X133.372 Z-1.93 I-1.984 J0.
X137.341 Z-1.993 I1.984 J0.
X133.372 Z-2.055 I-1.984 J0.
X137.341 Z-2.117 I1.984 J0.
X133.372 Z-2.18 I-1.984 J0.
X137.341 Z-2.242 I1.984 J0.
X133.372 Z-2.304 I-1.984 J0.
X137.341 Z-2.367 I1.984 J0.
X133.372 Z-2.429 I-1.984 J0.
X137.341 Z-2.491 I1.984 J0.
X133.372 Z-2.554 I-1.984 J0.
X137.341 Z-2.616 I1.984 J0.
X133.372 Z-2.678 I-1.984 J0.
X137.341 Z-2.741 I1.984 J0.
X133.372 Z-2.803 I-1.984 J0.
X137.341 Z-2.866 I1.984 J0.
X133.372 Z-2.928 I-1.984 J0.
X137.341 Z-2.99 I1.984 J0.
X133.372 Z-3.053 I-1.984 J0.
X137.341 Z-3.115 I1.984 J0.
X133.372 Z-3.177 I-1.984 J0.
X137.341 Z-3.24 I1.984 J0.
X133.372 Z-3.302 I-1.984 J0.
X137.341 Z-3.364 I1.984 J0.
X133.372 Z-3.427 I-1.984 J0.
X137.341 Z-3.489 I1.984 J0.
X133.372 Z-3.551 I-1.984 J0.
X137.341 Z-3.614 I1.984 J0.
X133.372 Z-3.676 I-1.984 J0.
X137.341 Z-3.738 I1.984 J0.
X133.372 Z-3.801 I-1.984 J0.
X137.341 Z-3.863 I1.984 J0.
X133.372 Z-3.925 I-1.984 J0.
X137.341 Z-3.988 I1.984 J0.
X133.372 Z-4.05 I-1.984 J0.
X137.341 Z-4.112 I1.984 J0.
X133.372 Z-4.175 I-1.984 J0.
X137.341 Z-4.237 I1.984 J0.
X133.372 Z-4.3 I-1.984 J0.
X137.341 Z-4.362 I1.984 J0.
X133.372 Z-4.424 I-1.984 J0.
X137.341 Z-4.487 I1.984 J0.
X133.372 Z-4.549 I-1.984 J0.
X137.341 Z-4.611 I1.984 J0.
X133.372 Z-4.674 I-1.984 J0.
X137.341 Z-4.736 I1.984 J0.
X133.372 Z-4.798 I-1.984 J0.
X137.341 Z-4.861 I1.984 J0.
X133.372 Z-4.923 I-1.984 J0.
X137.341 Z-4.985 I1.984 J0.
X133.372 Z-5.048 I-1.984 J0.
X137.341 Z-5.11 I1.984 J0.
X135.226 Y163.196 Z-5.143 I-1.984 J0.
X133.389 Y165.437 Z-5.175 I0.131 J1.98
X137.323 Y164.915 I1.967 J-0.261
X133.389 Y165.437 I-1.967 J0.261
X133.746 Y165.71 I0.315 J-0.042
G1 X133.903 Y165.689
X133.973 Y165.68 Z-5.167
X134.04 Y165.671 Z-5.144
X134.099 Y165.663 Z-5.106
X134.149 Y165.656 Z-5.055
X134.187 Y165.651 Z-4.995
X134.21 Y165.648 Z-4.928
X134.218 Y165.647 Z-4.858
G0 Z20.

(2D POCKET1)
G0 X134.889 Y144.496
Z16.
Z5.5
G1 Z3.317 F800.
G19 G3 Y144.803 Z3. J0.318 K0. F400.
G1 Y151.036 Z2.782
G17 G2 X135.208 Y151.355 Z2.765 I0.319 J0.
G1 X135.504 Z2.755
G2 X135.823 Y151.036 Z2.737 I0. J-0.319
G1 Y128.516 Z1.951
G2 X135.504 Y128.197 Z1.933 I-0.319 J0.
G1 X135.208 Z1.923
G2 X134.889 Y128.516 Z1.905 I0. J0.319
G1 Y151.036 Z1.119
G2 X135.208 Y151.355 Z1.101 I0.319 J0.
G1 X135.504 Z1.091
G2 X135.823 Y151.036 Z1.074 I0. J-0.319
G1 Y128.516 Z0.287
G2 X135.504 Y128.197 Z0.27 I-0.319 J0.
G1 X135.208 Z0.259
X135.157 Y128.201 Z0.258
X135.107 Y128.213 Z0.256
X135.06 Y128.233 Z0.254
G2 X134.889 Y128.516 I0.148 J0.283 F800.
G1 Y151.036
G2 X135.208 Y151.355 I0.319 J0.
G1 X135.504
G2 X135.823 Y151.036 I0. J-0.319
G1 Y128.516
G2 X135.504 Y128.197 I-0.319 J0.
G1 X135.208
X135.157 Y128.201
X135.107 Y128.213
X135.06 Y128.233
G3 X133.625 Y128.135 I-0.638 J-1.218
G2 X132.347 Y128.795 I-0.469 J0.659
G1 Y153.578
G2 X132.666 Y153.897 I0.319 J0.
G1 X138.046
G2 X138.365 Y153.578 I0. J-0.319
G1 Y125.974
G2 X138.046 Y125.655 I-0.319 J0.
G1 X132.666
G2 X132.347 Y125.974 I0. J0.319
G1 Y128.795
G3 X131.073 Y130.705 I-2.07 J0.
G2 X129.799 Y132.616 I0.796 J1.91
G1 Y156.445
X140.913
Y123.107
X129.799
Y132.616
X129.805 Y132.656
X129.82 Y132.694
X129.845 Y132.727
X129.877 Y132.752
X129.914 Y132.768
X132.76 Y133.588
X132.787 Y133.599
X132.811 Y133.614
X135.604 Y134.759
G2 X135.823 Y134.612 I0.06 J-0.147
G1 Y128.516 Z0.041 F400.
G2 X135.504 Y128.197 Z0.024 I-0.319 J0.
G1 X135.208 Z0.013
X135.157 Y128.201 Z0.011
X135.107 Y128.213 Z0.01
X135.06 Y128.233 Z0.008
G2 X134.889 Y128.516 I0.148 J0.283 F800.
G1 Y151.036
G2 X135.208 Y151.355 I0.319 J0.
G1 X135.504
G2 X135.823 Y151.036 I0. J-0.319
G1 Y128.516
G2 X135.504 Y128.197 I-0.319 J0.
G1 X135.208
X135.157 Y128.201
X135.107 Y128.213
X135.06 Y128.233
G3 X133.625 Y128.135 I-0.638 J-1.218
G2 X132.347 Y128.795 I-0.469 J0.659
G1 Y153.578
G2 X132.666 Y153.897 I0.319 J0.
G1 X138.046
G2 X138.365 Y153.578 I0. J-0.319
G1 Y125.974
G2 X138.046 Y125.655 I-0.319 J0.
G1 X132.666
G2 X132.347 Y125.974 I0. J0.319
G1 Y128.795
G3 X131.073 Y130.705 I-2.07 J0.
G2 X129.799 Y132.616 I0.796 J1.91
G1 Y156.445
X140.913
Y123.107
X129.799
Y132.616
X129.805 Y132.656
X129.82 Y132.694
X129.845 Y132.727
X129.877 Y132.752
X129.914 Y132.768
X132.76 Y133.588
X132.787 Y133.599
X132.811 Y133.614
X135.604 Y134.759
G2 X135.823 Y134.612 I0.06 J-0.147
G1 Y128.516 Z-0.205 F400.
G2 X135.504 Y128.197 Z-0.222 I-0.319 J0.
G1 X135.208 Z-0.233
X135.157 Y128.201 Z-0.235
X135.107 Y128.213 Z-0.236
X135.06 Y128.233 Z-0.238
G2 X134.889 Y128.516 I0.148 J0.283 F800.
G1 Y151.036
G2 X135.208 Y151.355 I0.319 J0.
G1 X135.504
G2 X135.823 Y151.036 I0. J-0.319
G1 Y128.516
G2 X135.504 Y128.197 I-0.319 J0.
G1 X135.208
X135.157 Y128.201
X135.107 Y128.213
X135.06 Y128.233
G3 X133.625 Y128.135 I-0.638 J-1.218
G2 X132.347 Y128.795 I-0.469 J0.659
G1 Y153.578
G2 X132.666 Y153.897 I0.319 J0.
G1 X138.046
G2 X138.365 Y153.578 I0. J-0.319
G1 Y125.974
G2 X138.046 Y125.655 I-0.319 J0.
G1 X132.666
G2 X132.347 Y125.974 I0. J0.319
G1 Y128.795
G3 X131.073 Y130.705 I-2.07 J0.
G2 X129.799 Y132.616 I0.796 J1.91
G1 Y156.445
X140.913
Y123.107
X129.799
Y132.616
X129.805 Y132.656
X129.82 Y132.694
X129.845 Y132.727
X129.877 Y132.752
X129.914 Y132.768
X132.76 Y133.588
X132.787 Y133.599
X132.811 Y133.614
X135.604 Y134.759
G2 X135.823 Y134.612 I0.06 J-0.147
G1 Y128.516 Z-0.451 F400.
G2 X135.504 Y128.197 Z-0.469 I-0.319 J0.
G1 X135.208 Z-0.479
X135.157 Y128.201 Z-0.481
X135.107 Y128.213 Z-0.482
X135.06 Y128.233 Z-0.484
G2 X134.889 Y128.516 I0.148 J0.283 F800.
G1 Y151.036
G2 X135.208 Y151.355 I0.319 J0.
G1 X135.504
G2 X135.823 Y151.036 I0. J-0.319
G1 Y128.516
G2 X135.504 Y128.197 I-0.319 J0.
G1 X135.208
X135.157 Y128.201
X135.107 Y128.213
X135.06 Y128.233
G3 X133.625 Y128.135 I-0.638 J-1.218
G2 X132.347 Y128.795 I-0.469 J0.659
G1 Y153.578
G2 X132.666 Y153.897 I0.319 J0.
G1 X138.046
G2 X138.365 Y153.578 I0. J-0.319
G1 Y125.974
G2 X138.046 Y125.655 I-0.319 J0.
G1 X132.666
G2 X132.347 Y125.974 I0. J0.319
G1 Y128.795
G3 X131.073 Y130.705 I-2.07 J0.
G2 X129.799 Y132.616 I0.796 J1.91
G1 Y156.445
X140.913
Y123.107
X129.799
Y132.616
X129.805 Y132.656
X129.82 Y132.694
X129.845 Y132.727
X129.877 Y132.752
X129.914 Y132.768
X132.76 Y133.588
X132.787 Y133.599
X132.811 Y133.614
X135.604 Y134.759
G2 X135.823 Y134.612 I0.06 J-0.147
G1 Y128.516 Z-0.697 F400.
G2 X135.504 Y128.197 Z-0.715 I-0.319 J0.
G1 X135.208 Z-0.725
X135.157 Y128.201 Z-0.727
X135.107 Y128.213 Z-0.728
X135.06 Y128.233 Z-0.73
G2 X134.889 Y128.516 I0.148 J0.283 F800.
G1 Y151.036
G2 X135.208 Y151.355 I0.319 J0.
G1 X135.504
G2 X135.823 Y151.036 I0. J-0.319
G1 Y128.516
G2 X135.504 Y128.197 I-0.319 J0.
G1 X135.208
X135.157 Y128.201
X135.107 Y128.213
X135.06 Y128.233
G3 X133.625 Y128.135 I-0.638 J-1.218
G2 X132.347 Y128.795 I-0.469 J0.659
G1 Y153.578
G2 X132.666 Y153.897 I0.319 J0.
G1 X138.046
G2 X138.365 Y153.578 I0. J-0.319
G1 Y125.974
G2 X138.046 Y125.655 I-0.319 J0.
G1 X132.666
G2 X132.347 Y125.974 I0. J0.319
G1 Y128.795
G3 X131.073 Y130.705 I-2.07 J0.
G2 X129.799 Y132.616 I0.796 J1.91
G1 Y156.445
X140.913
Y123.107
X129.799
Y132.616
X129.805 Y132.656
X129.82 Y132.694
X129.845 Y132.727
X129.877 Y132.752
X129.914 Y132.768
X132.76 Y133.588
X132.787 Y133.599
X132.811 Y133.614
X135.604 Y134.759
G2 X135.823 Y134.612 I0.06 J-0.147
G1 Y128.516 Z-0.943 F400.
G2 X135.504 Y128.197 Z-0.961 I-0.319 J0.
G1 X135.208 Z-0.971
X135.157 Y128.201 Z-0.973
X135.107 Y128.213 Z-0.975
X135.06 Y128.233 Z-0.976
G2 X134.889 Y128.516 I0.148 J0.283 F800.
G1 Y151.036
G2 X135.208 Y151.355 I0.319 J0.
G1 X135.504
G2 X135.823 Y151.036 I0. J-0.319
G1 Y128.516
G2 X135.504 Y128.197 I-0.319 J0.
G1 X135.208
X135.157 Y128.201
X135.107 Y128.213
X135.06 Y128.233
G3 X133.625 Y128.135 I-0.638 J-1.218
G2 X132.347 Y128.795 I-0.469 J0.659
G1 Y153.578
G2 X132.666 Y153.897 I0.319 J0.
G1 X138.046
G2 X138.365 Y153.578 I0. J-0.319
G1 Y125.974
G2 X138.046 Y125.655 I-0.319 J0.
G1 X132.666
G2 X132.347 Y125.974 I0. J0.319
G1 Y128.795
G3 X131.073 Y130.705 I-2.07 J0.
G2 X129.799 Y132.616 I0.796 J1.91
G1 Y156.445
X140.913
Y123.107
X129.799
Y132.616
X129.805 Y132.656
X129.82 Y132.694
X129.845 Y132.727
X129.877 Y132.752
X129.914 Y132.768
X132.76 Y133.588
X132.787 Y133.599
X132.811 Y133.614
X135.604 Y134.759
G2 X135.823 Y134.612 I0.06 J-0.147
G1 Y128.516 Z-1.189 F400.
G2 X135.504 Y128.197 Z-1.207 I-0.319 J0.
G1 X135.208 Z-1.217
X135.157 Y128.201 Z-1.219
X135.107 Y128.213 Z-1.221
X135.06 Y128.233 Z-1.222
G2 X134.889 Y128.516 I0.148 J0.283 F800.
G1 Y151.036
G2 X135.208 Y151.355 I0.319 J0.
G1 X135.504
G2 X135.823 Y151.036 I0. J-0.319
G1 Y128.516
G2 X135.504 Y128.197 I-0.319 J0.
G1 X135.208
X135.157 Y128.201
X135.107 Y128.213
X135.06 Y128.233
G3 X133.625 Y128.135 I-0.638 J-1.218
G2 X132.347 Y128.795 I-0.469 J0.659
G1 Y153.578
G2 X132.666 Y153.897 I0.319 J0.
G1 X138.046
G2 X138.365 Y153.578 I0. J-0.319
G1 Y125.974
G2 X138.046 Y125.655 I-0.319 J0.
G1 X132.666
G2 X132.347 Y125.974 I0. J0.319
G1 Y128.795
G3 X131.073 Y130.705 I-2.07 J0.
G2 X129.799 Y132.616 I0.796 J1.91
G1 Y156.445
X140.913
Y123.107
X129.799
Y132.616
X129.805 Y132.656
X129.82 Y132.694
X129.845 Y132.727
X129.877 Y132.752
X129.914 Y132.768
X132.76 Y133.588
X132.787 Y133.599
X132.811 Y133.614
X135.604 Y134.759
G2 X135.823 Y134.612 I0.06 J-0.147
G1 Y128.516 Z-1.435 F400.
G2 X135.504 Y128.197 Z-1.453 I-0.319 J0.
G1 X135.208 Z-1.463
X135.157 Y128.201 Z-1.465
X135.107 Y128.213 Z-1.467
X135.06 Y128.233 Z-1.468
G2 X134.889 Y128.516 I0.148 J0.283 F800.
G1 Y151.036
G2 X135.208 Y151.355 I0.319 J0.
G1 X135.504
G2 X135.823 Y151.036 I0. J-0.319
G1 Y128.516
G2 X135.504 Y128.197 I-0.319 J0.
G1 X135.208
X135.157 Y128.201
X135.107 Y128.213
X135.06 Y128.233
G3 X133.625 Y128.135 I-0.638 J-1.218
G2 X132.347 Y128.795 I-0.469 J0.659
G1 Y153.578
G2 X132.666 Y153.897 I0.319 J0.
G1 X138.046
G2 X138.365 Y153.578 I0. J-0.319
G1 Y125.974
G2 X138.046 Y125.655 I-0.319 J0.
G1 X132.666
G2 X132.347 Y125.974 I0. J0.319
G1 Y128.795
G3 X131.073 Y130.705 I-2.07 J0.
G2 X129.799 Y132.616 I0.796 J1.91
G1 Y156.445
X140.913
Y123.107
X129.799
Y132.616
X129.805 Y132.656
X129.82 Y132.694
X129.845 Y132.727
X129.877 Y132.752
X129.914 Y132.768
X132.76 Y133.588
X132.787 Y133.599
X132.811 Y133.614
X135.604 Y134.759
G2 X135.823 Y134.612 I0.06 J-0.147
G1 Y128.516 Z-1.681 F400.
G2 X135.504 Y128.197 Z-1.699 I-0.319 J0.
G1 X135.208 Z-1.709
X135.157 Y128.201 Z-1.711
X135.107 Y128.213 Z-1.713
X135.06 Y128.233 Z-1.714
G2 X134.889 Y128.516 I0.148 J0.283 F800.
G1 Y151.036
G2 X135.208 Y151.355 I0.319 J0.
G1 X135.504
G2 X135.823 Y151.036 I0. J-0.319
G1 Y128.516
G2 X135.504 Y128.197 I-0.319 J0.
G1 X135.208
X135.157 Y128.201
X135.107 Y128.213
X135.06 Y128.233
G3 X133.625 Y128.135 I-0.638 J-1.218
G2 X132.347 Y128.795 I-0.469 J0.659
G1 Y153.578
G2 X132.666 Y153.897 I0.319 J0.
G1 X138.046
G2 X138.365 Y153.578 I0. J-0.319
G1 Y125.974
G2 X138.046 Y125.655 I-0.319 J0.
G1 X132.666
G2 X132.347 Y125.974 I0. J0.319
G1 Y128.795
G3 X131.073 Y130.705 I-2.07 J0.
G2 X129.799 Y132.616 I0.796 J1.91
G1 Y156.445
X140.913
Y123.107
X129.799
Y132.616
X129.805 Y132.656
X129.82 Y132.694
X129.845 Y132.727
X129.877 Y132.752
X129.914 Y132.768
X132.76 Y133.588
X132.787 Y133.599
X132.811 Y133.614
X135.604 Y134.759
G2 X135.823 Y134.612 I0.06 J-0.147
G1 Y128.516 Z-1.927 F400.
G2 X135.504 Y128.197 Z-1.945 I-0.319 J0.
G1 X135.208 Z-1.955
X135.157 Y128.201 Z-1.957
X135.107 Y128.213 Z-1.959
X135.06 Y128.233 Z-1.961
G2 X134.889 Y128.516 I0.148 J0.283 F800.
G1 Y151.036
G2 X135.208 Y151.355 I0.319 J0.
G1 X135.504
G2 X135.823 Y151.036 I0. J-0.319
G1 Y128.516
G2 X135.504 Y128.197 I-0.319 J0.
G1 X135.208
X135.157 Y128.201
X135.107 Y128.213
X135.06 Y128.233
G3 X133.625 Y128.135 I-0.638 J-1.218
G2 X132.347 Y128.795 I-0.469 J0.659
G1 Y153.578
G2 X132.666 Y153.897 I0.319 J0.
G1 X138.046
G2 X138.365 Y153.578 I0. J-0.319
G1 Y125.974
G2 X138.046 Y125.655 I-0.319 J0.
G1 X132.666
G2 X132.347 Y125.974 I0. J0.319
G1 Y128.795
G3 X131.073 Y130.705 I-2.07 J0.
G2 X129.799 Y132.616 I0.796 J1.91
G1 Y156.445
X140.913
Y123.107
X129.799
Y132.616
X129.805 Y132.656
X129.82 Y132.694
X129.845 Y132.727
X129.877 Y132.752
X129.914 Y132.768
X132.76 Y133.588
X132.787 Y133.599
X132.811 Y133.614
X135.604 Y134.759
G2 X135.823 Y134.612 I0.06 J-0.147
G1 Y128.516 Z-2.173 F400.
G2 X135.504 Y128.197 Z-2.191 I-0.319 J0.
G1 X135.208 Z-2.201
X135.157 Y128.201 Z-2.203
X135.107 Y128.213 Z-2.205
X135.06 Y128.233 Z-2.207
G2 X134.889 Y128.516 I0.148 J0.283 F800.
G1 Y151.036
G2 X135.208 Y151.355 I0.319 J0.
G1 X135.504
G2 X135.823 Y151.036 I0. J-0.319
G1 Y128.516
G2 X135.504 Y128.197 I-0.319 J0.
G1 X135.208
X135.157 Y128.201
X135.107 Y128.213
X135.06 Y128.233
G3 X133.625 Y128.135 I-0.638 J-1.218
G2 X132.347 Y128.795 I-0.469 J0.659
G1 Y153.578
G2 X132.666 Y153.897 I0.319 J0.
G1 X138.046
G2 X138.365 Y153.578 I0. J-0.319
G1 Y125.974
G2 X138.046 Y125.655 I-0.319 J0.
G1 X132.666
G2 X132.347 Y125.974 I0. J0.319
G1 Y128.795
G3 X131.073 Y130.705 I-2.07 J0.
G2 X129.799 Y132.616 I0.796 J1.91
G1 Y156.445
X140.913
Y123.107
X129.799
Y132.616
X129.805 Y132.656
X129.82 Y132.694
X129.845 Y132.727
X129.877 Y132.752
X129.914 Y132.768
X132.76 Y133.588
X132.787 Y133.599
X132.811 Y133.614
X135.604 Y134.759
G2 X135.823 Y134.612 I0.06 J-0.147
G1 Y128.516 Z-2.419 F400.
G2 X135.504 Y128.197 Z-2.437 I-0.319 J0.
G1 X135.208 Z-2.447
X135.157 Y128.201 Z-2.449
X135.107 Y128.213 Z-2.451
X135.06 Y128.233 Z-2.453
G2 X134.889 Y128.516 I0.148 J0.283 F800.
G1 Y151.036
G2 X135.208 Y151.355 I0.319 J0.
G1 X135.504
G2 X135.823 Y151.036 I0. J-0.319
G1 Y128.516
G2 X135.504 Y128.197 I-0.319 J0.
G1 X135.208
X135.157 Y128.201
X135.107 Y128.213
X135.06 Y128.233
G3 X133.625 Y128.135 I-0.638 J-1.218
G2 X132.347 Y128.795 I-0.469 J0.659
G1 Y153.578
G2 X132.666 Y153.897 I0.319 J0.
G1 X138.046
G2 X138.365 Y153.578 I0. J-0.319
G1 Y125.974
G2 X138.046 Y125.655 I-0.319 J0.
G1 X132.666
G2 X132.347 Y125.974 I0. J0.319
G1 Y128.795
G3 X131.073 Y130.705 I-2.07 J0.
G2 X129.799 Y132.616 I0.796 J1.91
G1 Y156.445
X140.913
Y123.107
X129.799
Y132.616
X129.805 Y132.656
X129.82 Y132.694
X129.845 Y132.727
X129.877 Y132.752
X129.914 Y132.768
X132.76 Y133.588
X132.787 Y133.599
X132.811 Y133.614
X135.604 Y134.759
G2 X135.823 Y134.612 I0.06 J-0.147
G1 Y128.516 Z-2.665 F400.
G2 X135.504 Y128.197 Z-2.683 I-0.319 J0.
G1 X135.208 Z-2.693
X135.157 Y128.201 Z-2.695
X135.107 Y128.213 Z-2.697
X135.06 Y128.233 Z-2.699
G2 X134.889 Y128.516 I0.148 J0.283 F800.
G1 Y151.036
G2 X135.208 Y151.355 I0.319 J0.
G1 X135.504
G2 X135.823 Y151.036 I0. J-0.319
G1 Y128.516
G2 X135.504 Y128.197 I-0.319 J0.
G1 X135.208
X135.157 Y128.201
X135.107 Y128.213
X135.06 Y128.233
G3 X133.625 Y128.135 I-0.638 J-1.218
G2 X132.347 Y128.795 I-0.469 J0.659
G1 Y153.578
G2 X132.666 Y153.897 I0.319 J0.
G1 X138.046
G2 X138.365 Y153.578 I0. J-0.319
G1 Y125.974
G2 X138.046 Y125.655 I-0.319 J0.
G1 X132.666
G2 X132.347 Y125.974 I0. J0.319
G1 Y128.795
G3 X131.073 Y130.705 I-2.07 J0.
G2 X129.799 Y132.616 I0.796 J1.91
G1 Y156.445
X140.913
Y123.107
X129.799
Y132.616
X129.805 Y132.656
X129.82 Y132.694
X129.845 Y132.727
X129.877 Y132.752
X129.914 Y132.768
X132.76 Y133.588
X132.787 Y133.599
X132.811 Y133.614
X135.604 Y134.759
G2 X135.823 Y134.612 I0.06 J-0.147
G1 Y128.516 Z-2.912 F400.
G2 X135.504 Y128.197 Z-2.929 I-0.319 J0.
G1 X135.208 Z-2.939
X135.157 Y128.201 Z-2.941
X135.107 Y128.213 Z-2.943
X135.06 Y128.233 Z-2.945
G2 X134.889 Y128.516 I0.148 J0.283 F800.
G1 Y151.036
G2 X135.208 Y151.355 I0.319 J0.
G1 X135.504
G2 X135.823 Y151.036 I0. J-0.319
G1 Y128.516
G2 X135.504 Y128.197 I-0.319 J0.
G1 X135.208
X135.157 Y128.201
X135.107 Y128.213
X135.06 Y128.233
G3 X133.625 Y128.135 I-0.638 J-1.218
G2 X132.347 Y128.795 I-0.469 J0.659
G1 Y153.578
G2 X132.666 Y153.897 I0.319 J0.
G1 X138.046
G2 X138.365 Y153.578 I0. J-0.319
G1 Y125.974
G2 X138.046 Y125.655 I-0.319 J0.
G1 X132.666
G2 X132.347 Y125.974 I0. J0.319
G1 Y128.795
G3 X131.073 Y130.705 I-2.07 J0.
G2 X129.799 Y132.616 I0.796 J1.91
G1 Y156.445
X140.913
Y123.107
X129.799
Y132.616
X129.805 Y132.656
X129.82 Y132.694
X129.845 Y132.727
X129.877 Y132.752
X129.914 Y132.768
X132.76 Y133.588
X132.787 Y133.599
X132.811 Y133.614
X135.604 Y134.759
G2 X135.823 Y134.612 I0.06 J-0.147
G1 Y128.516 Z-3.158 F400.
G2 X135.504 Y128.197 Z-3.175 I-0.319 J0.
G1 X135.208 Z-3.185
X135.157 Y128.201 Z-3.187
X135.107 Y128.213 Z-3.189
X135.06 Y128.233 Z-3.191
G2 X134.889 Y128.516 I0.148 J0.283 F800.
G1 Y151.036
G2 X135.208 Y151.355 I0.319 J0.
G1 X135.504
G2 X135.823 Y151.036 I0. J-0.319
G1 Y128.516
G2 X135.504 Y128.197 I-0.319 J0.
G1 X135.208
X135.157 Y128.201
X135.107 Y128.213
X135.06 Y128.233
G3 X133.625 Y128.135 I-0.638 J-1.218
G2 X132.347 Y128.795 I-0.469 J0.659
G1 Y153.578
G2 X132.666 Y153.897 I0.319 J0.
G1 X138.046
G2 X138.365 Y153.578 I0. J-0.319
G1 Y125.974
G2 X138.046 Y125.655 I-0.319 J0.
G1 X132.666
G2 X132.347 Y125.974 I0. J0.319
G1 Y128.795
G3 X131.073 Y130.705 I-2.07 J0.
G2 X129.799 Y132.616 I0.796 J1.91
G1 Y156.445
X140.913
Y123.107
X129.799
Y132.616
X129.805 Y132.656
X129.82 Y132.694
X129.845 Y132.727
X129.877 Y132.752
X129.914 Y132.768
X132.76 Y133.588
X132.787 Y133.599
X132.811 Y133.614
X135.604 Y134.759
G2 X135.823 Y134.612 I0.06 J-0.147
G1 Y128.516 Z-3.404 F400.
G2 X135.504 Y128.197 Z-3.421 I-0.319 J0.
G1 X135.208 Z-3.431
X135.157 Y128.201 Z-3.433
X135.107 Y128.213 Z-3.435
X135.06 Y128.233 Z-3.437
G2 X134.889 Y128.516 I0.148 J0.283 F800.
G1 Y151.036
G2 X135.208 Y151.355 I0.319 J0.
G1 X135.504
G2 X135.823 Y151.036 I0. J-0.319
G1 Y128.516
G2 X135.504 Y128.197 I-0.319 J0.
G1 X135.208
X135.157 Y128.201
X135.107 Y128.213
X135.06 Y128.233
G3 X133.625 Y128.135 I-0.638 J-1.218
G2 X132.347 Y128.795 I-0.469 J0.659
G1 Y153.578
G2 X132.666 Y153.897 I0.319 J0.
G1 X138.046
G2 X138.365 Y153.578 I0. J-0.319
G1 Y125.974
G2 X138.046 Y125.655 I-0.319 J0.
G1 X132.666
G2 X132.347 Y125.974 I0. J0.319
G1 Y128.795
G3 X131.073 Y130.705 I-2.07 J0.
G2 X129.799 Y132.616 I0.796 J1.91
G1 Y156.445
X140.913
Y123.107
X129.799
Y132.616
X129.805 Y132.656
X129.82 Y132.694
X129.845 Y132.727
X129.877 Y132.752
X129.914 Y132.768
X132.76 Y133.588
X132.787 Y133.599
X132.811 Y133.614
X135.604 Y134.759
G2 X135.823 Y134.612 I0.06 J-0.147
G1 Y128.516 Z-3.65 F400.
G2 X135.504 Y128.197 Z-3.667 I-0.319 J0.
G1 X135.208 Z-3.678
X135.157 Y128.201 Z-3.679
X135.107 Y128.213 Z-3.681
X135.06 Y128.233 Z-3.683
G2 X134.889 Y128.516 I0.148 J0.283 F800.
G1 Y151.036
G2 X135.208 Y151.355 I0.319 J0.
G1 X135.504
G2 X135.823 Y151.036 I0. J-0.319
G1 Y128.516
G2 X135.504 Y128.197 I-0.319 J0.
G1 X135.208
X135.157 Y128.201
X135.107 Y128.213
X135.06 Y128.233
G3 X133.625 Y128.135 I-0.638 J-1.218
G2 X132.347 Y128.795 I-0.469 J0.659
G1 Y153.578
G2 X132.666 Y153.897 I0.319 J0.
G1 X138.046
G2 X138.365 Y153.578 I0. J-0.319
G1 Y125.974
G2 X138.046 Y125.655 I-0.319 J0.
G1 X132.666
G2 X132.347 Y125.974 I0. J0.319
G1 Y128.795
G3 X131.073 Y130.705 I-2.07 J0.
G2 X129.799 Y132.616 I0.796 J1.91
G1 Y156.445
X140.913
Y123.107
X129.799
Y132.616
X129.805 Y132.656
X129.82 Y132.694
X129.845 Y132.727
X129.877 Y132.752
X129.914 Y132.768
X132.76 Y133.588
X132.787 Y133.599
X132.811 Y133.614
X135.604 Y134.759
G2 X135.823 Y134.612 I0.06 J-0.147
G1 Y128.516 Z-3.896 F400.
G2 X135.504 Y128.197 Z-3.913 I-0.319 J0.
G1 X135.208 Z-3.924
X135.157 Y128.201 Z-3.925
X135.107 Y128.213 Z-3.927
X135.06 Y128.233 Z-3.929
G2 X134.889 Y128.516 I0.148 J0.283 F800.
G1 Y151.036
G2 X135.208 Y151.355 I0.319 J0.
G1 X135.504
G2 X135.823 Y151.036 I0. J-0.319
G1 Y128.516
G2 X135.504 Y128.197 I-0.319 J0.
G1 X135.208
X135.157 Y128.201
X135.107 Y128.213
X135.06 Y128.233
G3 X133.625 Y128.135 I-0.638 J-1.218
G2 X132.347 Y128.795 I-0.469 J0.659
G1 Y153.578
G2 X132.666 Y153.897 I0.319 J0.
G1 X138.046
G2 X138.365 Y153.578 I0. J-0.319
G1 Y125.974
G2 X138.046 Y125.655 I-0.319 J0.
G1 X132.666
G2 X132.347 Y125.974 I0. J0.319
G1 Y128.795
G3 X131.073 Y130.705 I-2.07 J0.
G2 X129.799 Y132.616 I0.796 J1.91
G1 Y156.445
X140.913
Y123.107
X129.799
Y132.616
X129.805 Y132.656
X129.82 Y132.694
X129.845 Y132.727
X129.877 Y132.752
X129.914 Y132.768
X132.76 Y133.588
X132.787 Y133.599
X132.811 Y133.614
X135.604 Y134.759
G2 X135.823 Y134.612 I0.06 J-0.147
G1 Y128.516 Z-4.142 F400.
G2 X135.504 Y128.197 Z-4.159 I-0.319 J0.
G1 X135.208 Z-4.17
X135.157 Y128.201 Z-4.171
X135.107 Y128.213 Z-4.173
X135.06 Y128.233 Z-4.175
G2 X134.889 Y128.516 I0.148 J0.283 F800.
G1 Y151.036
G2 X135.208 Y151.355 I0.319 J0.
G1 X135.504
G2 X135.823 Y151.036 I0. J-0.319
G1 Y128.516
G2 X135.504 Y128.197 I-0.319 J0.
G1 X135.208
X135.157 Y128.201
X135.107 Y128.213
X135.06 Y128.233
G3 X133.625 Y128.135 I-0.638 J-1.218
G2 X132.347 Y128.795 I-0.469 J0.659
G1 Y153.578
G2 X132.666 Y153.897 I0.319 J0.
G1 X138.046
G2 X138.365 Y153.578 I0. J-0.319
G1 Y125.974
G2 X138.046 Y125.655 I-0.319 J0.
G1 X132.666
G2 X132.347 Y125.974 I0. J0.319
G1 Y128.795
G3 X131.073 Y130.705 I-2.07 J0.
G2 X129.799 Y132.616 I0.796 J1.91
G1 Y156.445
X140.913
Y123.107
X129.799
Y132.616
X129.805 Y132.676 Z-4.163
X129.822 Y132.734 Z-4.151
X129.845 Y132.78 Z-4.116
X129.876 Y132.822 Z-4.082
X129.926 Y132.869 Z-3.979
X129.945 Y132.883 Z-3.858
G0 Z16.
M5
G0 Z15
G0 X0 Y0

M9
M30
