(T1  D=3.175 CR=0. - ZMIN=-5.175 - FLAT END MILL)
G90 G94 G91.1 G40 G49 G17
G21
(2ND HOLE)
G0 Z15

(BORE6 2)
M5
T1 M6
S16000 M3
G54
M8
G0 X136.547 Y114.693
G43 Z20. H1
Z3.
G1 Z1.317 F400.
G18 G2 X136.864 Z1. I0.318 K0.
G1 X137.023
G17 G2 X137.341 Y114.376 I0. J-0.317
X133.372 Z0.938 I-1.984 J0.
X137.341 Z0.875 I1.984 J0.
X133.372 Z0.813 I-1.984 J0.
X137.341 Z0.751 I1.984 J0.
X133.372 Z0.688 I-1.984 J0.
X137.341 Z0.626 I1.984 J0.
X133.372 Z0.564 I-1.984 J0.
X137.341 Z0.501 I1.984 J0.
X133.372 Z0.439 I-1.984 J0.
X137.341 Z0.377 I1.984 J0.
X133.372 Z0.314 I-1.984 J0.
X137.341 Z0.252 I1.984 J0.
X133.372 Z0.189 I-1.984 J0.
X137.341 Z0.127 I1.984 J0.
X133.372 Z0.065 I-1.984 J0.
X137.341 Z0.002 I1.984 J0.
X133.372 Z-0.06 I-1.984 J0.
X137.341 Z-0.122 I1.984 J0.
X133.372 Z-0.185 I-1.984 J0.
X137.341 Z-0.247 I1.984 J0.
X133.372 Z-0.309 I-1.984 J0.
X137.341 Z-0.372 I1.984 J0.
X133.372 Z-0.434 I-1.984 J0.
X137.341 Z-0.496 I1.984 J0.
X133.372 Z-0.559 I-1.984 J0.
X137.341 Z-0.621 I1.984 J0.
X133.372 Z-0.683 I-1.984 J0.
X137.341 Z-0.746 I1.984 J0.
X133.372 Z-0.808 I-1.984 J0.
X137.341 Z-0.87 I1.984 J0.
X133.372 Z-0.933 I-1.984 J0.
X137.341 Z-0.995 I1.984 J0.
X133.372 Z-1.057 I-1.984 J0.
X137.341 Z-1.12 I1.984 J0.
X133.372 Z-1.182 I-1.984 J0.
X137.341 Z-1.245 I1.984 J0.
X133.372 Z-1.307 I-1.984 J0.
X137.341 Z-1.369 I1.984 J0.
X133.372 Z-1.432 I-1.984 J0.
X137.341 Z-1.494 I1.984 J0.
X133.372 Z-1.556 I-1.984 J0.
X137.341 Z-1.619 I1.984 J0.
X133.372 Z-1.681 I-1.984 J0.
X137.341 Z-1.743 I1.984 J0.
X133.372 Z-1.806 I-1.984 J0.
X137.341 Z-1.868 I1.984 J0.
X133.372 Z-1.93 I-1.984 J0.
X137.341 Z-1.993 I1.984 J0.
X133.372 Z-2.055 I-1.984 J0.
X137.341 Z-2.117 I1.984 J0.
X133.372 Z-2.18 I-1.984 J0.
X137.341 Z-2.242 I1.984 J0.
X133.372 Z-2.304 I-1.984 J0.
X137.341 Z-2.367 I1.984 J0.
X133.372 Z-2.429 I-1.984 J0.
X137.341 Z-2.491 I1.984 J0.
X133.372 Z-2.554 I-1.984 J0.
X137.341 Z-2.616 I1.984 J0.
X133.372 Z-2.678 I-1.984 J0.
X137.341 Z-2.741 I1.984 J0.
X133.372 Z-2.803 I-1.984 J0.
X137.341 Z-2.866 I1.984 J0.
X133.372 Z-2.928 I-1.984 J0.
X137.341 Z-2.99 I1.984 J0.
X133.372 Z-3.053 I-1.984 J0.
X137.341 Z-3.115 I1.984 J0.
X133.372 Z-3.177 I-1.984 J0.
X137.341 Z-3.24 I1.984 J0.
X133.372 Z-3.302 I-1.984 J0.
X137.341 Z-3.364 I1.984 J0.
X133.372 Z-3.427 I-1.984 J0.
X137.341 Z-3.489 I1.984 J0.
X133.372 Z-3.551 I-1.984 J0.
X137.341 Z-3.614 I1.984 J0.
X133.372 Z-3.676 I-1.984 J0.
X137.341 Z-3.738 I1.984 J0.
X133.372 Z-3.801 I-1.984 J0.
X137.341 Z-3.863 I1.984 J0.
X133.372 Z-3.925 I-1.984 J0.
X137.341 Z-3.988 I1.984 J0.
X133.372 Z-4.05 I-1.984 J0.
X137.341 Z-4.112 I1.984 J0.
X133.372 Z-4.175 I-1.984 J0.
X137.341 Z-4.237 I1.984 J0.
X133.372 Z-4.3 I-1.984 J0.
X137.341 Z-4.362 I1.984 J0.
X133.372 Z-4.424 I-1.984 J0.
X137.341 Z-4.487 I1.984 J0.
X133.372 Z-4.549 I-1.984 J0.
X137.341 Z-4.611 I1.984 J0.
X133.372 Z-4.674 I-1.984 J0.
X137.341 Z-4.736 I1.984 J0.
X133.372 Z-4.798 I-1.984 J0.
X137.341 Z-4.861 I1.984 J0.
X133.372 Z-4.923 I-1.984 J0.
X137.341 Z-4.985 I1.984 J0.
X133.372 Z-5.048 I-1.984 J0.
X137.341 Z-5.11 I1.984 J0.
X135.226 Y112.396 Z-5.143 I-1.984 J0.
X133.389 Y114.637 Z-5.175 I0.131 J1.98
X137.323 Y114.115 I1.967 J-0.261
X133.389 Y114.637 I-1.967 J0.261
X133.746 Y114.91 I0.315 J-0.042
G1 X133.903 Y114.889
X133.973 Y114.88 Z-5.167
X134.04 Y114.871 Z-5.144
X134.099 Y114.863 Z-5.106
X134.149 Y114.856 Z-5.055
X134.187 Y114.851 Z-4.995
X134.21 Y114.848 Z-4.928
X134.218 Y114.847 Z-4.858
G0 Z5.
X136.547 Y165.493
Z3.
G1 Z1.317 F400.
G18 G2 X136.864 Z1. I0.318 K0.
G1 X137.023
G17 G2 X137.341 Y165.176 I0. J-0.318
X133.372 Z0.938 I-1.984 J0.
X137.341 Z0.875 I1.984 J0.
X133.372 Z0.813 I-1.984 J0.
X137.341 Z0.751 I1.984 J0.
X133.372 Z0.688 I-1.984 J0.
X137.341 Z0.626 I1.984 J0.
X133.372 Z0.564 I-1.984 J0.
X137.341 Z0.501 I1.984 J0.
X133.372 Z0.439 I-1.984 J0.
X137.341 Z0.377 I1.984 J0.
X133.372 Z0.314 I-1.984 J0.
X137.341 Z0.252 I1.984 J0.
X133.372 Z0.189 I-1.984 J0.
X137.341 Z0.127 I1.984 J0.
X133.372 Z0.065 I-1.984 J0.
X137.341 Z0.002 I1.984 J0.
X133.372 Z-0.06 I-1.984 J0.
X137.341 Z-0.122 I1.984 J0.
X133.372 Z-0.185 I-1.984 J0.
X137.341 Z-0.247 I1.984 J0.
X133.372 Z-0.309 I-1.984 J0.
X137.341 Z-0.372 I1.984 J0.
X133.372 Z-0.434 I-1.984 J0.
X137.341 Z-0.496 I1.984 J0.
X133.372 Z-0.559 I-1.984 J0.
X137.341 Z-0.621 I1.984 J0.
X133.372 Z-0.683 I-1.984 J0.
X137.341 Z-0.746 I1.984 J0.
X133.372 Z-0.808 I-1.984 J0.
X137.341 Z-0.87 I1.984 J0.
X133.372 Z-0.933 I-1.984 J0.
X137.341 Z-0.995 I1.984 J0.
X133.372 Z-1.057 I-1.984 J0.
X137.341 Z-1.12 I1.984 J0.
X133.372 Z-1.182 I-1.984 J0.
X137.341 Z-1.245 I1.984 J0.
X133.372 Z-1.307 I-1.984 J0.
X137.341 Z-1.369 I1.984 J0.
X133.372 Z-1.432 I-1.984 J0.
X137.341 Z-1.494 I1.984 J0.
X133.372 Z-1.556 I-1.984 J0.
X137.341 Z-1.619 I1.984 J0.
X133.372 Z-1.681 I-1.984 J0.
X137.341 Z-1.743 I1.984 J0.
X133.372 Z-1.806 I-1.984 J0.
X137.341 Z-1.868 I1.984 J0.
X133.372 Z-1.93 I-1.984 J0.
X137.341 Z-1.993 I1.984 J0.
X133.372 Z-2.055 I-1.984 J0.
X137.341 Z-2.117 I1.984 J0.
X133.372 Z-2.18 I-1.984 J0.
X137.341 Z-2.242 I1.984 J0.
X133.372 Z-2.304 I-1.984 J0.
X137.341 Z-2.367 I1.984 J0.
X133.372 Z-2.429 I-1.984 J0.
X137.341 Z-2.491 I1.984 J0.
X133.372 Z-2.554 I-1.984 J0.
X137.341 Z-2.616 I1.984 J0.
X133.372 Z-2.678 I-1.984 J0.
X137.341 Z-2.741 I1.984 J0.
X133.372 Z-2.803 I-1.984 J0.
X137.341 Z-2.866 I1.984 J0.
X133.372 Z-2.928 I-1.984 J0.
X137.341 Z-2.99 I1.984 J0.
X133.372 Z-3.053 I-1.984 J0.
X137.341 Z-3.115 I1.984 J0.
X133.372 Z-3.177 I-1.984 J0.
X137.341 Z-3.24 I1.984 J0.
X133.372 Z-3.302 I-1.984 J0.
X137.341 Z-3.364 I1.984 J0.
X133.372 Z-3.427 I-1.984 J0.
X137.341 Z-3.489 I1.984 J0.
X133.372 Z-3.551 I-1.984 J0.
X137.341 Z-3.614 I1.984 J0.
X133.372 Z-3.676 I-1.984 J0.
X137.341 Z-3.738 I1.984 J0.
X133.372 Z-3.801 I-1.984 J0.
X137.341 Z-3.863 I1.984 J0.
X133.372 Z-3.925 I-1.984 J0.
X137.341 Z-3.988 I1.984 J0.
X133.372 Z-4.05 I-1.984 J0.
X137.341 Z-4.112 I1.984 J0.
X133.372 Z-4.175 I-1.984 J0.
X137.341 Z-4.237 I1.984 J0.
X133.372 Z-4.3 I-1.984 J0.
X137.341 Z-4.362 I1.984 J0.
X133.372 Z-4.424 I-1.984 J0.
X137.341 Z-4.487 I1.984 J0.
X133.372 Z-4.549 I-1.984 J0.
X137.341 Z-4.611 I1.984 J0.
X133.372 Z-4.674 I-1.984 J0.
X137.341 Z-4.736 I1.984 J0.
X133.372 Z-4.798 I-1.984 J0.
X137.341 Z-4.861 I1.984 J0.
X133.372 Z-4.923 I-1.984 J0.
X137.341 Z-4.985 I1.984 J0.
X133.372 Z-5.048 I-1.984 J0.
X137.341 Z-5.11 I1.984 J0.
X135.226 Y163.196 Z-5.143 I-1.984 J0.
X133.389 Y165.437 Z-5.175 I0.131 J1.98
X137.323 Y164.915 I1.967 J-0.261
X133.389 Y165.437 I-1.967 J0.261
X133.746 Y165.71 I0.315 J-0.042
G1 X133.903 Y165.689
X133.973 Y165.68 Z-5.167
X134.04 Y165.671 Z-5.144
X134.099 Y165.663 Z-5.106
X134.149 Y165.656 Z-5.055
X134.187 Y165.651 Z-4.995
X134.21 Y165.648 Z-4.928
X134.218 Y165.647 Z-4.858
G0 Z20.

(2D CONTOUR1)
G0 Z21.
X138.541 Y152.952
Z6.
G1 Z4.135 F800.
G19 G3 Y153.587 Z3.5 J0.635 K0.
G1 Y154.222
G17 G3 X137.906 Y154.857 I-0.635 J0.
G1 X131.387 Z3.272
Y124.695 Z2.219
X139.325 Z1.942
Y154.857 Z0.889
X135.356 Z0.75
X131.387
Y124.695
X139.325
Y154.857
X135.356
X131.387 Z0.611
Y151.667 Z0.5
Y124.695
X139.325
Y154.857
X131.387
Y151.667
Y144.508 Z0.25
Y124.695
X139.325
Y154.857
X131.387
Y144.508
Y137.349 Z0.
Y124.695
X139.325
Y154.857
X131.387
Y144.508
Y137.349
Y130.19 Z-0.25
Y124.695
X139.325
Y154.857
X131.387
Y137.349
Y130.19
Y124.695 Z-0.442
X133.051 Z-0.5
X139.325
Y154.857
X131.387
Y130.19
Y124.695
X133.051
X139.325 Z-0.719
Y125.58 Z-0.75
Y154.857
X131.387
Y124.695
X139.325
Y125.58
Y132.739 Z-1.
Y154.857
X131.387
Y124.695
X139.325
Y132.739
Y139.899 Z-1.25
Y154.857
X131.387
Y124.695
X139.325
Y132.739
Y139.899
Y147.058 Z-1.5
Y154.857
X131.387
Y124.695
X139.325
Y139.899
Y147.058
Y154.217 Z-1.75
Y154.857
X131.387
Y124.695
X139.325
Y147.058
Y154.217
Y154.857 Z-1.772
X132.806 Z-2.
X131.387
Y124.695
X139.325
Y154.217
Y154.857
X132.806
X131.387 Z-2.05
Y149.117 Z-2.25
Y124.695
X139.325
Y154.857
X132.806
X131.387
Y149.117
Y141.958 Z-2.5
Y124.695
X139.325
Y154.857
X131.387
Y141.958
Y134.799 Z-2.75
Y124.695
X139.325
Y154.857
X131.387
Y141.958
Y134.799
Y127.64 Z-3.
Y124.695
X139.325
Y154.857
X131.387
Y134.799
Y127.64
Y124.695 Z-3.103
X135.601 Z-3.25
X139.325
Y154.857
X131.387
Y127.64
Y124.695
X135.601
X139.325 Z-3.38
Y128.13 Z-3.5
Y154.857
X131.387
Y124.695
X135.601
X139.325
Y128.13
Y135.289 Z-3.75
Y154.857
X131.387
Y124.695
X139.325
Y135.289
Y142.448 Z-4.
Y154.857
X131.387
Y124.695
X139.325
Y135.289
Y142.448
Y149.607 Z-4.25
Y154.857
X131.387
Y124.695
X139.325
Y142.448
Y149.607
Y154.857 Z-4.433
X137.416 Z-4.5
X131.387
Y124.695
X139.325
Y149.607
Y154.857
X137.416
X131.387 Z-4.711
Y153.727 Z-4.75
Y124.695
X139.325
Y154.857
X131.387
Y153.727
Y146.568 Z-5.
Y124.695
X139.325
Y154.857
X131.387
Y146.568
Y141.556 Z-5.175
Y124.695
X139.325
Y154.857
X131.387
Y146.568
Y141.556
G3 X132.022 Y140.921 I0.635 J0.
G1 X132.657
G18 G2 X133.292 Z-4.54 I0. K0.635
G0 Z21.
G17
M5
G0 Z15
G0 X0 Y0

M9
M30
