(T1  D=3.175 CR=0. - ZMIN=-5.175 - FLAT END MILL)
G90 G94 G91.1 G40 G49 G17
G21
(2ND HOLE)
G0 Z15

(BORE6 2)
M5
T1 M6
S16000 M3
G54
M8
G0 X104.003 Y114.059
G43 Z20. H1
Z3.
G1 Z1.317 F400.
G18 G3 X103.686 Z1. I-0.318 K0.
G1 X103.527
G17 G2 X103.209 Y114.376 I0. J0.317
X107.178 Z0.938 I1.984 J0.
X103.209 Z0.875 I-1.984 J0.
X107.178 Z0.813 I1.984 J0.
X103.209 Z0.751 I-1.984 J0.
X107.178 Z0.688 I1.984 J0.
X103.209 Z0.626 I-1.984 J0.
X107.178 Z0.564 I1.984 J0.
X103.209 Z0.501 I-1.984 J0.
X107.178 Z0.439 I1.984 J0.
X103.209 Z0.377 I-1.984 J0.
X107.178 Z0.314 I1.984 J0.
X103.209 Z0.252 I-1.984 J0.
X107.178 Z0.189 I1.984 J0.
X103.209 Z0.127 I-1.984 J0.
X107.178 Z0.065 I1.984 J0.
X103.209 Z0.002 I-1.984 J0.
X107.178 Z-0.06 I1.984 J0.
X103.209 Z-0.122 I-1.984 J0.
X107.178 Z-0.185 I1.984 J0.
X103.209 Z-0.247 I-1.984 J0.
X107.178 Z-0.309 I1.984 J0.
X103.209 Z-0.372 I-1.984 J0.
X107.178 Z-0.434 I1.984 J0.
X103.209 Z-0.496 I-1.984 J0.
X107.178 Z-0.559 I1.984 J0.
X103.209 Z-0.621 I-1.984 J0.
X107.178 Z-0.683 I1.984 J0.
X103.209 Z-0.746 I-1.984 J0.
X107.178 Z-0.808 I1.984 J0.
X103.209 Z-0.87 I-1.984 J0.
X107.178 Z-0.933 I1.984 J0.
X103.209 Z-0.995 I-1.984 J0.
X107.178 Z-1.057 I1.984 J0.
X103.209 Z-1.12 I-1.984 J0.
X107.178 Z-1.182 I1.984 J0.
X103.209 Z-1.245 I-1.984 J0.
X107.178 Z-1.307 I1.984 J0.
X103.209 Z-1.369 I-1.984 J0.
X107.178 Z-1.432 I1.984 J0.
X103.209 Z-1.494 I-1.984 J0.
X107.178 Z-1.556 I1.984 J0.
X103.209 Z-1.619 I-1.984 J0.
X107.178 Z-1.681 I1.984 J0.
X103.209 Z-1.743 I-1.984 J0.
X107.178 Z-1.806 I1.984 J0.
X103.209 Z-1.868 I-1.984 J0.
X107.178 Z-1.93 I1.984 J0.
X103.209 Z-1.993 I-1.984 J0.
X107.178 Z-2.055 I1.984 J0.
X103.209 Z-2.117 I-1.984 J0.
X107.178 Z-2.18 I1.984 J0.
X103.209 Z-2.242 I-1.984 J0.
X107.178 Z-2.304 I1.984 J0.
X103.209 Z-2.367 I-1.984 J0.
X107.178 Z-2.429 I1.984 J0.
X103.209 Z-2.491 I-1.984 J0.
X107.178 Z-2.554 I1.984 J0.
X103.209 Z-2.616 I-1.984 J0.
X107.178 Z-2.678 I1.984 J0.
X103.209 Z-2.741 I-1.984 J0.
X107.178 Z-2.803 I1.984 J0.
X103.209 Z-2.866 I-1.984 J0.
X107.178 Z-2.928 I1.984 J0.
X103.209 Z-2.99 I-1.984 J0.
X107.178 Z-3.053 I1.984 J0.
X103.209 Z-3.115 I-1.984 J0.
X107.178 Z-3.177 I1.984 J0.
X103.209 Z-3.24 I-1.984 J0.
X107.178 Z-3.302 I1.984 J0.
X103.209 Z-3.364 I-1.984 J0.
X107.178 Z-3.427 I1.984 J0.
X103.209 Z-3.489 I-1.984 J0.
X107.178 Z-3.551 I1.984 J0.
X103.209 Z-3.614 I-1.984 J0.
X107.178 Z-3.676 I1.984 J0.
X103.209 Z-3.738 I-1.984 J0.
X107.178 Z-3.801 I1.984 J0.
X103.209 Z-3.863 I-1.984 J0.
X107.178 Z-3.925 I1.984 J0.
X103.209 Z-3.988 I-1.984 J0.
X107.178 Z-4.05 I1.984 J0.
X103.209 Z-4.112 I-1.984 J0.
X107.178 Z-4.175 I1.984 J0.
X103.209 Z-4.237 I-1.984 J0.
X107.178 Z-4.3 I1.984 J0.
X103.209 Z-4.362 I-1.984 J0.
X107.178 Z-4.424 I1.984 J0.
X103.209 Z-4.487 I-1.984 J0.
X107.178 Z-4.549 I1.984 J0.
X103.209 Z-4.611 I-1.984 J0.
X107.178 Z-4.674 I1.984 J0.
X103.209 Z-4.736 I-1.984 J0.
X107.178 Z-4.798 I1.984 J0.
X103.209 Z-4.861 I-1.984 J0.
X107.178 Z-4.923 I1.984 J0.
X103.209 Z-4.985 I-1.984 J0.
X107.178 Z-5.048 I1.984 J0.
X103.209 Z-5.11 I-1.984 J0.
X105.324 Y116.356 Z-5.143 I1.984 J0.
X107.161 Y114.115 Z-5.175 I-0.131 J-1.98
X103.227 Y114.637 I-1.967 J0.261
X107.161 Y114.115 I1.967 J-0.261
X106.804 Y113.842 I-0.315 J0.042
G1 X106.647 Y113.863
X106.577 Y113.872 Z-5.167
X106.51 Y113.881 Z-5.144
X106.451 Y113.889 Z-5.106
X106.401 Y113.896 Z-5.055
X106.363 Y113.901 Z-4.995
X106.34 Y113.904 Z-4.928
X106.332 Y113.905 Z-4.858
G0 Z5.
X104.003 Y164.859
Z3.
G1 Z1.317 F400.
G18 G3 X103.686 Z1. I-0.318 K0.
G1 X103.527
G17 G2 X103.209 Y165.176 I0. J0.317
X107.178 Z0.938 I1.984 J0.
X103.209 Z0.875 I-1.984 J0.
X107.178 Z0.813 I1.984 J0.
X103.209 Z0.751 I-1.984 J0.
X107.178 Z0.688 I1.984 J0.
X103.209 Z0.626 I-1.984 J0.
X107.178 Z0.564 I1.984 J0.
X103.209 Z0.501 I-1.984 J0.
X107.178 Z0.439 I1.984 J0.
X103.209 Z0.377 I-1.984 J0.
X107.178 Z0.314 I1.984 J0.
X103.209 Z0.252 I-1.984 J0.
X107.178 Z0.189 I1.984 J0.
X103.209 Z0.127 I-1.984 J0.
X107.178 Z0.065 I1.984 J0.
X103.209 Z0.002 I-1.984 J0.
X107.178 Z-0.06 I1.984 J0.
X103.209 Z-0.122 I-1.984 J0.
X107.178 Z-0.185 I1.984 J0.
X103.209 Z-0.247 I-1.984 J0.
X107.178 Z-0.309 I1.984 J0.
X103.209 Z-0.372 I-1.984 J0.
X107.178 Z-0.434 I1.984 J0.
X103.209 Z-0.496 I-1.984 J0.
X107.178 Z-0.559 I1.984 J0.
X103.209 Z-0.621 I-1.984 J0.
X107.178 Z-0.683 I1.984 J0.
X103.209 Z-0.746 I-1.984 J0.
X107.178 Z-0.808 I1.984 J0.
X103.209 Z-0.87 I-1.984 J0.
X107.178 Z-0.933 I1.984 J0.
X103.209 Z-0.995 I-1.984 J0.
X107.178 Z-1.057 I1.984 J0.
X103.209 Z-1.12 I-1.984 J0.
X107.178 Z-1.182 I1.984 J0.
X103.209 Z-1.245 I-1.984 J0.
X107.178 Z-1.307 I1.984 J0.
X103.209 Z-1.369 I-1.984 J0.
X107.178 Z-1.432 I1.984 J0.
X103.209 Z-1.494 I-1.984 J0.
X107.178 Z-1.556 I1.984 J0.
X103.209 Z-1.619 I-1.984 J0.
X107.178 Z-1.681 I1.984 J0.
X103.209 Z-1.743 I-1.984 J0.
X107.178 Z-1.806 I1.984 J0.
X103.209 Z-1.868 I-1.984 J0.
X107.178 Z-1.93 I1.984 J0.
X103.209 Z-1.993 I-1.984 J0.
X107.178 Z-2.055 I1.984 J0.
X103.209 Z-2.117 I-1.984 J0.
X107.178 Z-2.18 I1.984 J0.
X103.209 Z-2.242 I-1.984 J0.
X107.178 Z-2.304 I1.984 J0.
X103.209 Z-2.367 I-1.984 J0.
X107.178 Z-2.429 I1.984 J0.
X103.209 Z-2.491 I-1.984 J0.
X107.178 Z-2.554 I1.984 J0.
X103.209 Z-2.616 I-1.984 J0.
X107.178 Z-2.678 I1.984 J0.
X103.209 Z-2.741 I-1.984 J0.
X107.178 Z-2.803 I1.984 J0.
X103.209 Z-2.866 I-1.984 J0.
X107.178 Z-2.928 I1.984 J0.
X103.209 Z-2.99 I-1.984 J0.
X107.178 Z-3.053 I1.984 J0.
X103.209 Z-3.115 I-1.984 J0.
X107.178 Z-3.177 I1.984 J0.
X103.209 Z-3.24 I-1.984 J0.
X107.178 Z-3.302 I1.984 J0.
X103.209 Z-3.364 I-1.984 J0.
X107.178 Z-3.427 I1.984 J0.
X103.209 Z-3.489 I-1.984 J0.
X107.178 Z-3.551 I1.984 J0.
X103.209 Z-3.614 I-1.984 J0.
X107.178 Z-3.676 I1.984 J0.
X103.209 Z-3.738 I-1.984 J0.
X107.178 Z-3.801 I1.984 J0.
X103.209 Z-3.863 I-1.984 J0.
X107.178 Z-3.925 I1.984 J0.
X103.209 Z-3.988 I-1.984 J0.
X107.178 Z-4.05 I1.984 J0.
X103.209 Z-4.112 I-1.984 J0.
X107.178 Z-4.175 I1.984 J0.
X103.209 Z-4.237 I-1.984 J0.
X107.178 Z-4.3 I1.984 J0.
X103.209 Z-4.362 I-1.984 J0.
X107.178 Z-4.424 I1.984 J0.
X103.209 Z-4.487 I-1.984 J0.
X107.178 Z-4.549 I1.984 J0.
X103.209 Z-4.611 I-1.984 J0.
X107.178 Z-4.674 I1.984 J0.
X103.209 Z-4.736 I-1.984 J0.
X107.178 Z-4.798 I1.984 J0.
X103.209 Z-4.861 I-1.984 J0.
X107.178 Z-4.923 I1.984 J0.
X103.209 Z-4.985 I-1.984 J0.
X107.178 Z-5.048 I1.984 J0.
X103.209 Z-5.11 I-1.984 J0.
X105.324 Y167.156 Z-5.143 I1.984 J0.
X107.161 Y164.915 Z-5.175 I-0.131 J-1.98
X103.227 Y165.437 I-1.967 J0.261
X107.161 Y164.915 I1.967 J-0.261
X106.804 Y164.642 I-0.315 J0.042
G1 X106.647 Y164.663
X106.577 Y164.672 Z-5.167
X106.51 Y164.681 Z-5.144
X106.451 Y164.689 Z-5.106
X106.401 Y164.696 Z-5.055
X106.363 Y164.701 Z-4.995
X106.34 Y164.704 Z-4.928
X106.332 Y164.705 Z-4.858
G0 Z20.

(2D POCKET1)
G0 X105.66 Y135.855
Z16.
Z5.5
G1 Z3.317 F800.
G19 G2 Y135.549 Z3. J-0.318 K0. F400.
G1 Y128.516 Z2.754
G17 G2 X105.341 Y128.197 Z2.737 I-0.319 J0.
G1 X105.046 Z2.727
G2 X104.727 Y128.516 Z2.709 I0. J0.319
G1 Y151.036 Z1.923
G2 X105.046 Y151.355 Z1.905 I0.319 J0.
G1 X105.341 Z1.895
G2 X105.66 Y151.036 Z1.877 I0. J-0.319
G1 Y128.516 Z1.091
G2 X105.341 Y128.197 Z1.074 I-0.319 J0.
G1 X105.046 Z1.063
G2 X104.727 Y128.516 Z1.046 I0. J0.319
G1 Y151.036 Z0.259
X104.731 Y151.087 Z0.258
X104.744 Y151.137 Z0.256
X104.764 Y151.184 Z0.254
G2 X105.046 Y151.355 I0.283 J-0.149 F800.
G1 X105.341
G2 X105.66 Y151.036 I0. J-0.319
G1 Y128.516
G2 X105.341 Y128.197 I-0.319 J0.
G1 X105.046
G2 X104.727 Y128.516 I0. J0.319
G1 Y151.036
X104.731 Y151.087
X104.744 Y151.137
X104.764 Y151.184
G3 X104.671 Y152.62 I-1.222 J0.642
G2 X105.334 Y153.897 I0.663 J0.466
G1 X107.883
G2 X108.202 Y153.578 I0. J-0.319
G1 Y125.974
G2 X107.883 Y125.655 I-0.319 J0.
G1 X102.504
G2 X102.185 Y125.974 I0. J0.319
G1 Y153.578
G2 X102.504 Y153.897 I0.319 J0.
G1 X105.334
G3 X107.245 Y155.171 I0. J2.07
G2 X109.155 Y156.445 I1.91 J-0.796
G1 X110.749
Y123.107
X99.637
Y156.445
X109.155
G2 X109.307 Y156.24 I0. J-0.159
G1 X108.848 Y154.705
X105.079 Y144.391
X104.887 Y144.096
X104.861 Y144.07
X104.826 Y144.057
X104.789 Y144.06
X104.757 Y144.078
X104.735 Y144.108
X104.727 Y144.144
Y151.036 Z0.013 F400.
X104.731 Y151.087 Z0.011
X104.744 Y151.137 Z0.01
X104.764 Y151.184 Z0.008
G2 X105.046 Y151.355 I0.283 J-0.149 F800.
G1 X105.341
G2 X105.66 Y151.036 I0. J-0.319
G1 Y128.516
G2 X105.341 Y128.197 I-0.319 J0.
G1 X105.046
G2 X104.727 Y128.516 I0. J0.319
G1 Y151.036
X104.731 Y151.087
X104.744 Y151.137
X104.764 Y151.184
G3 X104.671 Y152.62 I-1.222 J0.642
G2 X105.334 Y153.897 I0.663 J0.466
G1 X107.883
G2 X108.202 Y153.578 I0. J-0.319
G1 Y125.974
G2 X107.883 Y125.655 I-0.319 J0.
G1 X102.504
G2 X102.185 Y125.974 I0. J0.319
G1 Y153.578
G2 X102.504 Y153.897 I0.319 J0.
G1 X105.334
G3 X107.245 Y155.171 I0. J2.07
G2 X109.155 Y156.445 I1.91 J-0.796
G1 X110.749
Y123.107
X99.637
Y156.445
X109.155
G2 X109.307 Y156.24 I0. J-0.159
G1 X108.848 Y154.705
X105.079 Y144.391
X104.887 Y144.096
X104.861 Y144.07
X104.826 Y144.057
X104.789 Y144.06
X104.757 Y144.078
X104.735 Y144.108
X104.727 Y144.144
Y151.036 Z-0.233 F400.
X104.731 Y151.087 Z-0.235
X104.744 Y151.137 Z-0.236
X104.764 Y151.184 Z-0.238
G2 X105.046 Y151.355 I0.283 J-0.149 F800.
G1 X105.341
G2 X105.66 Y151.036 I0. J-0.319
G1 Y128.516
G2 X105.341 Y128.197 I-0.319 J0.
G1 X105.046
G2 X104.727 Y128.516 I0. J0.319
G1 Y151.036
X104.731 Y151.087
X104.744 Y151.137
X104.764 Y151.184
G3 X104.671 Y152.62 I-1.222 J0.642
G2 X105.334 Y153.897 I0.663 J0.466
G1 X107.883
G2 X108.202 Y153.578 I0. J-0.319
G1 Y125.974
G2 X107.883 Y125.655 I-0.319 J0.
G1 X102.504
G2 X102.185 Y125.974 I0. J0.319
G1 Y153.578
G2 X102.504 Y153.897 I0.319 J0.
G1 X105.334
G3 X107.245 Y155.171 I0. J2.07
G2 X109.155 Y156.445 I1.91 J-0.796
G1 X110.749
Y123.107
X99.637
Y156.445
X109.155
G2 X109.307 Y156.24 I0. J-0.159
G1 X108.848 Y154.705
X105.079 Y144.391
X104.887 Y144.096
X104.861 Y144.07
X104.826 Y144.057
X104.789 Y144.06
X104.757 Y144.078
X104.735 Y144.108
X104.727 Y144.144
Y151.036 Z-0.479 F400.
X104.731 Y151.087 Z-0.481
X104.744 Y151.137 Z-0.482
X104.764 Y151.184 Z-0.484
G2 X105.046 Y151.355 I0.283 J-0.149 F800.
G1 X105.341
G2 X105.66 Y151.036 I0. J-0.319
G1 Y128.516
G2 X105.341 Y128.197 I-0.319 J0.
G1 X105.046
G2 X104.727 Y128.516 I0. J0.319
G1 Y151.036
X104.731 Y151.087
X104.744 Y151.137
X104.764 Y151.184
G3 X104.671 Y152.62 I-1.222 J0.642
G2 X105.334 Y153.897 I0.663 J0.466
G1 X107.883
G2 X108.202 Y153.578 I0. J-0.319
G1 Y125.974
G2 X107.883 Y125.655 I-0.319 J0.
G1 X102.504
G2 X102.185 Y125.974 I0. J0.319
G1 Y153.578
G2 X102.504 Y153.897 I0.319 J0.
G1 X105.334
G3 X107.245 Y155.171 I0. J2.07
G2 X109.155 Y156.445 I1.91 J-0.796
G1 X110.749
Y123.107
X99.637
Y156.445
X109.155
G2 X109.307 Y156.24 I0. J-0.159
G1 X108.848 Y154.705
X105.079 Y144.391
X104.887 Y144.096
X104.861 Y144.07
X104.826 Y144.057
X104.789 Y144.06
X104.757 Y144.078
X104.735 Y144.108
X104.727 Y144.144
Y151.036 Z-0.725 F400.
X104.731 Y151.087 Z-0.727
X104.744 Y151.137 Z-0.728
X104.764 Y151.184 Z-0.73
G2 X105.046 Y151.355 I0.283 J-0.149 F800.
G1 X105.341
G2 X105.66 Y151.036 I0. J-0.319
G1 Y128.516
G2 X105.341 Y128.197 I-0.319 J0.
G1 X105.046
G2 X104.727 Y128.516 I0. J0.319
G1 Y151.036
X104.731 Y151.087
X104.744 Y151.137
X104.764 Y151.184
G3 X104.671 Y152.62 I-1.222 J0.642
G2 X105.334 Y153.897 I0.663 J0.466
G1 X107.883
G2 X108.202 Y153.578 I0. J-0.319
G1 Y125.974
G2 X107.883 Y125.655 I-0.319 J0.
G1 X102.504
G2 X102.185 Y125.974 I0. J0.319
G1 Y153.578
G2 X102.504 Y153.897 I0.319 J0.
G1 X105.334
G3 X107.245 Y155.171 I0. J2.07
G2 X109.155 Y156.445 I1.91 J-0.796
G1 X110.749
Y123.107
X99.637
Y156.445
X109.155
G2 X109.307 Y156.24 I0. J-0.159
G1 X108.848 Y154.705
X105.079 Y144.391
X104.887 Y144.096
X104.861 Y144.07
X104.826 Y144.057
X104.789 Y144.06
X104.757 Y144.078
X104.735 Y144.108
X104.727 Y144.144
Y151.036 Z-0.971 F400.
X104.731 Y151.087 Z-0.973
X104.744 Y151.137 Z-0.975
X104.764 Y151.184 Z-0.976
G2 X105.046 Y151.355 I0.283 J-0.149 F800.
G1 X105.341
G2 X105.66 Y151.036 I0. J-0.319
G1 Y128.516
G2 X105.341 Y128.197 I-0.319 J0.
G1 X105.046
G2 X104.727 Y128.516 I0. J0.319
G1 Y151.036
X104.731 Y151.087
X104.744 Y151.137
X104.764 Y151.184
G3 X104.671 Y152.62 I-1.222 J0.642
G2 X105.334 Y153.897 I0.663 J0.466
G1 X107.883
G2 X108.202 Y153.578 I0. J-0.319
G1 Y125.974
G2 X107.883 Y125.655 I-0.319 J0.
G1 X102.504
G2 X102.185 Y125.974 I0. J0.319
G1 Y153.578
G2 X102.504 Y153.897 I0.319 J0.
G1 X105.334
G3 X107.245 Y155.171 I0. J2.07
G2 X109.155 Y156.445 I1.91 J-0.796
G1 X110.749
Y123.107
X99.637
Y156.445
X109.155
G2 X109.307 Y156.24 I0. J-0.159
G1 X108.848 Y154.705
X105.079 Y144.391
X104.887 Y144.096
X104.861 Y144.07
X104.826 Y144.057
X104.789 Y144.06
X104.757 Y144.078
X104.735 Y144.108
X104.727 Y144.144
Y151.036 Z-1.217 F400.
X104.731 Y151.087 Z-1.219
X104.744 Y151.137 Z-1.221
X104.764 Y151.184 Z-1.222
G2 X105.046 Y151.355 I0.283 J-0.149 F800.
G1 X105.341
G2 X105.66 Y151.036 I0. J-0.319
G1 Y128.516
G2 X105.341 Y128.197 I-0.319 J0.
G1 X105.046
G2 X104.727 Y128.516 I0. J0.319
G1 Y151.036
X104.731 Y151.087
X104.744 Y151.137
X104.764 Y151.184
G3 X104.671 Y152.62 I-1.222 J0.642
G2 X105.334 Y153.897 I0.663 J0.466
G1 X107.883
G2 X108.202 Y153.578 I0. J-0.319
G1 Y125.974
G2 X107.883 Y125.655 I-0.319 J0.
G1 X102.504
G2 X102.185 Y125.974 I0. J0.319
G1 Y153.578
G2 X102.504 Y153.897 I0.319 J0.
G1 X105.334
G3 X107.245 Y155.171 I0. J2.07
G2 X109.155 Y156.445 I1.91 J-0.796
G1 X110.749
Y123.107
X99.637
Y156.445
X109.155
G2 X109.307 Y156.24 I0. J-0.159
G1 X108.848 Y154.705
X105.079 Y144.391
X104.887 Y144.096
X104.861 Y144.07
X104.826 Y144.057
X104.789 Y144.06
X104.757 Y144.078
X104.735 Y144.108
X104.727 Y144.144
Y151.036 Z-1.463 F400.
X104.731 Y151.087 Z-1.465
X104.744 Y151.137 Z-1.467
X104.764 Y151.184 Z-1.468
G2 X105.046 Y151.355 I0.283 J-0.149 F800.
G1 X105.341
G2 X105.66 Y151.036 I0. J-0.319
G1 Y128.516
G2 X105.341 Y128.197 I-0.319 J0.
G1 X105.046
G2 X104.727 Y128.516 I0. J0.319
G1 Y151.036
X104.731 Y151.087
X104.744 Y151.137
X104.764 Y151.184
G3 X104.671 Y152.62 I-1.222 J0.642
G2 X105.334 Y153.897 I0.663 J0.466
G1 X107.883
G2 X108.202 Y153.578 I0. J-0.319
G1 Y125.974
G2 X107.883 Y125.655 I-0.319 J0.
G1 X102.504
G2 X102.185 Y125.974 I0. J0.319
G1 Y153.578
G2 X102.504 Y153.897 I0.319 J0.
G1 X105.334
G3 X107.245 Y155.171 I0. J2.07
G2 X109.155 Y156.445 I1.91 J-0.796
G1 X110.749
Y123.107
X99.637
Y156.445
X109.155
G2 X109.307 Y156.24 I0. J-0.159
G1 X108.848 Y154.705
X105.079 Y144.391
X104.887 Y144.096
X104.861 Y144.07
X104.826 Y144.057
X104.789 Y144.06
X104.757 Y144.078
X104.735 Y144.108
X104.727 Y144.144
Y151.036 Z-1.709 F400.
X104.731 Y151.087 Z-1.711
X104.744 Y151.137 Z-1.713
X104.764 Y151.184 Z-1.714
G2 X105.046 Y151.355 I0.283 J-0.149 F800.
G1 X105.341
G2 X105.66 Y151.036 I0. J-0.319
G1 Y128.516
G2 X105.341 Y128.197 I-0.319 J0.
G1 X105.046
G2 X104.727 Y128.516 I0. J0.319
G1 Y151.036
X104.731 Y151.087
X104.744 Y151.137
X104.764 Y151.184
G3 X104.671 Y152.62 I-1.222 J0.642
G2 X105.334 Y153.897 I0.663 J0.466
G1 X107.883
G2 X108.202 Y153.578 I0. J-0.319
G1 Y125.974
G2 X107.883 Y125.655 I-0.319 J0.
G1 X102.504
G2 X102.185 Y125.974 I0. J0.319
G1 Y153.578
G2 X102.504 Y153.897 I0.319 J0.
G1 X105.334
G3 X107.245 Y155.171 I0. J2.07
G2 X109.155 Y156.445 I1.91 J-0.796
G1 X110.749
Y123.107
X99.637
Y156.445
X109.155
G2 X109.307 Y156.24 I0. J-0.159
G1 X108.848 Y154.705
X105.079 Y144.391
X104.887 Y144.096
X104.861 Y144.07
X104.826 Y144.057
X104.789 Y144.06
X104.757 Y144.078
X104.735 Y144.108
X104.727 Y144.144
Y151.036 Z-1.955 F400.
X104.731 Y151.087 Z-1.957
X104.744 Y151.137 Z-1.959
X104.764 Y151.184 Z-1.961
G2 X105.046 Y151.355 I0.283 J-0.149 F800.
G1 X105.341
G2 X105.66 Y151.036 I0. J-0.319
G1 Y128.516
G2 X105.341 Y128.197 I-0.319 J0.
G1 X105.046
G2 X104.727 Y128.516 I0. J0.319
G1 Y151.036
X104.731 Y151.087
X104.744 Y151.137
X104.764 Y151.184
G3 X104.671 Y152.62 I-1.222 J0.642
G2 X105.334 Y153.897 I0.663 J0.466
G1 X107.883
G2 X108.202 Y153.578 I0. J-0.319
G1 Y125.974
G2 X107.883 Y125.655 I-0.319 J0.
G1 X102.504
G2 X102.185 Y125.974 I0. J0.319
G1 Y153.578
G2 X102.504 Y153.897 I0.319 J0.
G1 X105.334
G3 X107.245 Y155.171 I0. J2.07
G2 X109.155 Y156.445 I1.91 J-0.796
G1 X110.749
Y123.107
X99.637
Y156.445
X109.155
G2 X109.307 Y156.24 I0. J-0.159
G1 X108.848 Y154.705
X105.079 Y144.391
X104.887 Y144.096
X104.861 Y144.07
X104.826 Y144.057
X104.789 Y144.06
X104.757 Y144.078
X104.735 Y144.108
X104.727 Y144.144
Y151.036 Z-2.201 F400.
X104.731 Y151.087 Z-2.203
X104.744 Y151.137 Z-2.205
X104.764 Y151.184 Z-2.207
G2 X105.046 Y151.355 I0.283 J-0.149 F800.
G1 X105.341
G2 X105.66 Y151.036 I0. J-0.319
G1 Y128.516
G2 X105.341 Y128.197 I-0.319 J0.
G1 X105.046
G2 X104.727 Y128.516 I0. J0.319
G1 Y151.036
X104.731 Y151.087
X104.744 Y151.137
X104.764 Y151.184
G3 X104.671 Y152.62 I-1.222 J0.642
G2 X105.334 Y153.897 I0.663 J0.466
G1 X107.883
G2 X108.202 Y153.578 I0. J-0.319
G1 Y125.974
G2 X107.883 Y125.655 I-0.319 J0.
G1 X102.504
G2 X102.185 Y125.974 I0. J0.319
G1 Y153.578
G2 X102.504 Y153.897 I0.319 J0.
G1 X105.334
G3 X107.245 Y155.171 I0. J2.07
G2 X109.155 Y156.445 I1.91 J-0.796
G1 X110.749
Y123.107
X99.637
Y156.445
X109.155
G2 X109.307 Y156.24 I0. J-0.159
G1 X108.848 Y154.705
X105.079 Y144.391
X104.887 Y144.096
X104.861 Y144.07
X104.826 Y144.057
X104.789 Y144.06
X104.757 Y144.078
X104.735 Y144.108
X104.727 Y144.144
Y151.036 Z-2.447 F400.
X104.731 Y151.087 Z-2.449
X104.744 Y151.137 Z-2.451
X104.764 Y151.184 Z-2.453
G2 X105.046 Y151.355 I0.283 J-0.149 F800.
G1 X105.341
G2 X105.66 Y151.036 I0. J-0.319
G1 Y128.516
G2 X105.341 Y128.197 I-0.319 J0.
G1 X105.046
G2 X104.727 Y128.516 I0. J0.319
G1 Y151.036
X104.731 Y151.087
X104.744 Y151.137
X104.764 Y151.184
G3 X104.671 Y152.62 I-1.222 J0.642
G2 X105.334 Y153.897 I0.663 J0.466
G1 X107.883
G2 X108.202 Y153.578 I0. J-0.319
G1 Y125.974
G2 X107.883 Y125.655 I-0.319 J0.
G1 X102.504
G2 X102.185 Y125.974 I0. J0.319
G1 Y153.578
G2 X102.504 Y153.897 I0.319 J0.
G1 X105.334
G3 X107.245 Y155.171 I0. J2.07
G2 X109.155 Y156.445 I1.91 J-0.796
G1 X110.749
Y123.107
X99.637
Y156.445
X109.155
G2 X109.307 Y156.24 I0. J-0.159
G1 X108.848 Y154.705
X105.079 Y144.391
X104.887 Y144.096
X104.861 Y144.07
X104.826 Y144.057
X104.789 Y144.06
X104.757 Y144.078
X104.735 Y144.108
X104.727 Y144.144
Y151.036 Z-2.693 F400.
X104.731 Y151.087 Z-2.695
X104.744 Y151.137 Z-2.697
X104.764 Y151.184 Z-2.699
G2 X105.046 Y151.355 I0.283 J-0.149 F800.
G1 X105.341
G2 X105.66 Y151.036 I0. J-0.319
G1 Y128.516
G2 X105.341 Y128.197 I-0.319 J0.
G1 X105.046
G2 X104.727 Y128.516 I0. J0.319
G1 Y151.036
X104.731 Y151.087
X104.744 Y151.137
X104.764 Y151.184
G3 X104.671 Y152.62 I-1.222 J0.642
G2 X105.334 Y153.897 I0.663 J0.466
G1 X107.883
G2 X108.202 Y153.578 I0. J-0.319
G1 Y125.974
G2 X107.883 Y125.655 I-0.319 J0.
G1 X102.504
G2 X102.185 Y125.974 I0. J0.319
G1 Y153.578
G2 X102.504 Y153.897 I0.319 J0.
G1 X105.334
G3 X107.245 Y155.171 I0. J2.07
G2 X109.155 Y156.445 I1.91 J-0.796
G1 X110.749
Y123.107
X99.637
Y156.445
X109.155
G2 X109.307 Y156.24 I0. J-0.159
G1 X108.848 Y154.705
X105.079 Y144.391
X104.887 Y144.096
X104.861 Y144.07
X104.826 Y144.057
X104.789 Y144.06
X104.757 Y144.078
X104.735 Y144.108
X104.727 Y144.144
Y151.036 Z-2.939 F400.
X104.731 Y151.087 Z-2.941
X104.744 Y151.137 Z-2.943
X104.764 Y151.184 Z-2.945
G2 X105.046 Y151.355 I0.283 J-0.149 F800.
G1 X105.341
G2 X105.66 Y151.036 I0. J-0.319
G1 Y128.516
G2 X105.341 Y128.197 I-0.319 J0.
G1 X105.046
G2 X104.727 Y128.516 I0. J0.319
G1 Y151.036
X104.731 Y151.087
X104.744 Y151.137
X104.764 Y151.184
G3 X104.671 Y152.62 I-1.222 J0.642
G2 X105.334 Y153.897 I0.663 J0.466
G1 X107.883
G2 X108.202 Y153.578 I0. J-0.319
G1 Y125.974
G2 X107.883 Y125.655 I-0.319 J0.
G1 X102.504
G2 X102.185 Y125.974 I0. J0.319
G1 Y153.578
G2 X102.504 Y153.897 I0.319 J0.
G1 X105.334
G3 X107.245 Y155.171 I0. J2.07
G2 X109.155 Y156.445 I1.91 J-0.796
G1 X110.749
Y123.107
X99.637
Y156.445
X109.155
G2 X109.307 Y156.24 I0. J-0.159
G1 X108.848 Y154.705
X105.079 Y144.391
X104.887 Y144.096
X104.861 Y144.07
X104.826 Y144.057
X104.789 Y144.06
X104.757 Y144.078
X104.735 Y144.108
X104.727 Y144.144
Y151.036 Z-3.185 F400.
X104.731 Y151.087 Z-3.187
X104.744 Y151.137 Z-3.189
X104.764 Y151.184 Z-3.191
G2 X105.046 Y151.355 I0.283 J-0.149 F800.
G1 X105.341
G2 X105.66 Y151.036 I0. J-0.319
G1 Y128.516
G2 X105.341 Y128.197 I-0.319 J0.
G1 X105.046
G2 X104.727 Y128.516 I0. J0.319
G1 Y151.036
X104.731 Y151.087
X104.744 Y151.137
X104.764 Y151.184
G3 X104.671 Y152.62 I-1.222 J0.642
G2 X105.334 Y153.897 I0.663 J0.466
G1 X107.883
G2 X108.202 Y153.578 I0. J-0.319
G1 Y125.974
G2 X107.883 Y125.655 I-0.319 J0.
G1 X102.504
G2 X102.185 Y125.974 I0. J0.319
G1 Y153.578
G2 X102.504 Y153.897 I0.319 J0.
G1 X105.334
G3 X107.245 Y155.171 I0. J2.07
G2 X109.155 Y156.445 I1.91 J-0.796
G1 X110.749
Y123.107
X99.637
Y156.445
X109.155
G2 X109.307 Y156.24 I0. J-0.159
G1 X108.848 Y154.705
X105.079 Y144.391
X104.887 Y144.096
X104.861 Y144.07
X104.826 Y144.057
X104.789 Y144.06
X104.757 Y144.078
X104.735 Y144.108
X104.727 Y144.144
Y151.036 Z-3.431 F400.
X104.731 Y151.087 Z-3.433
X104.744 Y151.137 Z-3.435
X104.764 Y151.184 Z-3.437
G2 X105.046 Y151.355 I0.283 J-0.149 F800.
G1 X105.341
G2 X105.66 Y151.036 I0. J-0.319
G1 Y128.516
G2 X105.341 Y128.197 I-0.319 J0.
G1 X105.046
G2 X104.727 Y128.516 I0. J0.319
G1 Y151.036
X104.731 Y151.087
X104.744 Y151.137
X104.764 Y151.184
G3 X104.671 Y152.62 I-1.222 J0.642
G2 X105.334 Y153.897 I0.663 J0.466
G1 X107.883
G2 X108.202 Y153.578 I0. J-0.319
G1 Y125.974
G2 X107.883 Y125.655 I-0.319 J0.
G1 X102.504
G2 X102.185 Y125.974 I0. J0.319
G1 Y153.578
G2 X102.504 Y153.897 I0.319 J0.
G1 X105.334
G3 X107.245 Y155.171 I0. J2.07
G2 X109.155 Y156.445 I1.91 J-0.796
G1 X110.749
Y123.107
X99.637
Y156.445
X109.155
G2 X109.307 Y156.24 I0. J-0.159
G1 X108.848 Y154.705
X105.079 Y144.391
X104.887 Y144.096
X104.861 Y144.07
X104.826 Y144.057
X104.789 Y144.06
X104.757 Y144.078
X104.735 Y144.108
X104.727 Y144.144
Y151.036 Z-3.677 F400.
X104.731 Y151.087 Z-3.679
X104.744 Y151.137 Z-3.681
X104.764 Y151.184 Z-3.683
G2 X105.046 Y151.355 I0.283 J-0.149 F800.
G1 X105.341
G2 X105.66 Y151.036 I0. J-0.319
G1 Y128.516
G2 X105.341 Y128.197 I-0.319 J0.
G1 X105.046
G2 X104.727 Y128.516 I0. J0.319
G1 Y151.036
X104.731 Y151.087
X104.744 Y151.137
X104.764 Y151.184
G3 X104.671 Y152.62 I-1.222 J0.642
G2 X105.334 Y153.897 I0.663 J0.466
G1 X107.883
G2 X108.202 Y153.578 I0. J-0.319
G1 Y125.974
G2 X107.883 Y125.655 I-0.319 J0.
G1 X102.504
G2 X102.185 Y125.974 I0. J0.319
G1 Y153.578
G2 X102.504 Y153.897 I0.319 J0.
G1 X105.334
G3 X107.245 Y155.171 I0. J2.07
G2 X109.155 Y156.445 I1.91 J-0.796
G1 X110.749
Y123.107
X99.637
Y156.445
X109.155
G2 X109.307 Y156.24 I0. J-0.159
G1 X108.848 Y154.705
X105.079 Y144.391
X104.887 Y144.096
X104.861 Y144.07
X104.826 Y144.057
X104.789 Y144.06
X104.757 Y144.078
X104.735 Y144.108
X104.727 Y144.144
Y151.036 Z-3.924 F400.
X104.731 Y151.087 Z-3.925
X104.744 Y151.137 Z-3.927
X104.764 Y151.184 Z-3.929
G2 X105.046 Y151.355 I0.283 J-0.149 F800.
G1 X105.341
G2 X105.66 Y151.036 I0. J-0.319
G1 Y128.516
G2 X105.341 Y128.197 I-0.319 J0.
G1 X105.046
G2 X104.727 Y128.516 I0. J0.319
G1 Y151.036
X104.731 Y151.087
X104.744 Y151.137
X104.764 Y151.184
G3 X104.671 Y152.62 I-1.222 J0.642
G2 X105.334 Y153.897 I0.663 J0.466
G1 X107.883
G2 X108.202 Y153.578 I0. J-0.319
G1 Y125.974
G2 X107.883 Y125.655 I-0.319 J0.
G1 X102.504
G2 X102.185 Y125.974 I0. J0.319
G1 Y153.578
G2 X102.504 Y153.897 I0.319 J0.
G1 X105.334
G3 X107.245 Y155.171 I0. J2.07
G2 X109.155 Y156.445 I1.91 J-0.796
G1 X110.749
Y123.107
X99.637
Y156.445
X109.155
G2 X109.307 Y156.24 I0. J-0.159
G1 X108.848 Y154.705
X105.079 Y144.391
X104.887 Y144.096
X104.861 Y144.07
X104.826 Y144.057
X104.789 Y144.06
X104.757 Y144.078
X104.735 Y144.108
X104.727 Y144.144
Y151.036 Z-4.17 F400.
X104.731 Y151.087 Z-4.171
X104.744 Y151.137 Z-4.173
X104.764 Y151.184 Z-4.175
G2 X105.046 Y151.355 I0.283 J-0.149 F800.
G1 X105.341
G2 X105.66 Y151.036 I0. J-0.319
G1 Y128.516
G2 X105.341 Y128.197 I-0.319 J0.
G1 X105.046
G2 X104.727 Y128.516 I0. J0.319
G1 Y151.036
X104.731 Y151.087
X104.744 Y151.137
X104.764 Y151.184
G3 X104.671 Y152.62 I-1.222 J0.642
G2 X105.334 Y153.897 I0.663 J0.466
G1 X107.883
G2 X108.202 Y153.578 I0. J-0.319
G1 Y125.974
G2 X107.883 Y125.655 I-0.319 J0.
G1 X102.504
G2 X102.185 Y125.974 I0. J0.319
G1 Y153.578
G2 X102.504 Y153.897 I0.319 J0.
G1 X105.334
G3 X107.245 Y155.171 I0. J2.07
G2 X109.155 Y156.445 I1.91 J-0.796
G1 X110.749
Y123.107
X99.637
Y156.445
X109.155
X109.216 Y156.439 Z-4.163
X109.274 Y156.422 Z-4.151
X109.32 Y156.399 Z-4.116
X109.361 Y156.368 Z-4.082
X109.409 Y156.318 Z-3.979
X109.422 Y156.299 Z-3.858
G0 Z16.
M5
G0 Z15
G0 X0 Y0

M9
M30
