(T1  D=6.35 CR=0. - ZMIN=-5.175 - FLAT END MILL)
G90 G94 G91.1 G40 G49 G17
G21
(2ND HOLE)
G0 Z15

(BORE6)
M5
T1 M6
S16000 M3
G54
M8
G0 X107.456 Y-64.877
G43 Z20. H1
Z2.365
G1 Z1. F800.
X107.773
G2 X107.972 Y-65.075 I0. J-0.198
X107.178 Z0.938 I-0.397 J0.
X107.972 Z0.875 I0.397 J0.
X107.178 Z0.813 I-0.397 J0.
X107.972 Z0.751 I0.397 J0.
X107.178 Z0.688 I-0.397 J0.
X107.972 Z0.626 I0.397 J0.
X107.178 Z0.564 I-0.397 J0.
X107.972 Z0.501 I0.397 J0.
X107.178 Z0.439 I-0.397 J0.
X107.972 Z0.377 I0.397 J0.
X107.178 Z0.314 I-0.397 J0.
X107.972 Z0.252 I0.397 J0.
X107.178 Z0.189 I-0.397 J0.
X107.972 Z0.127 I0.397 J0.
X107.178 Z0.065 I-0.397 J0.
X107.972 Z0.002 I0.397 J0.
X107.178 Z-0.06 I-0.397 J0.
X107.972 Z-0.122 I0.397 J0.
X107.178 Z-0.185 I-0.397 J0.
X107.972 Z-0.247 I0.397 J0.
X107.178 Z-0.309 I-0.397 J0.
X107.972 Z-0.372 I0.397 J0.
X107.178 Z-0.434 I-0.397 J0.
X107.972 Z-0.496 I0.397 J0.
X107.178 Z-0.559 I-0.397 J0.
X107.972 Z-0.621 I0.397 J0.
X107.178 Z-0.683 I-0.397 J0.
X107.972 Z-0.746 I0.397 J0.
X107.178 Z-0.808 I-0.397 J0.
X107.972 Z-0.87 I0.397 J0.
X107.178 Z-0.933 I-0.397 J0.
X107.972 Z-0.995 I0.397 J0.
X107.178 Z-1.057 I-0.397 J0.
X107.972 Z-1.12 I0.397 J0.
X107.178 Z-1.182 I-0.397 J0.
X107.972 Z-1.245 I0.397 J0.
X107.178 Z-1.307 I-0.397 J0.
X107.972 Z-1.369 I0.397 J0.
X107.178 Z-1.432 I-0.397 J0.
X107.972 Z-1.494 I0.397 J0.
X107.178 Z-1.556 I-0.397 J0.
X107.972 Z-1.619 I0.397 J0.
X107.178 Z-1.681 I-0.397 J0.
X107.972 Z-1.743 I0.397 J0.
X107.178 Z-1.806 I-0.397 J0.
X107.972 Z-1.868 I0.397 J0.
X107.178 Z-1.93 I-0.397 J0.
X107.972 Z-1.993 I0.397 J0.
X107.178 Z-2.055 I-0.397 J0.
X107.972 Z-2.117 I0.397 J0.
X107.178 Z-2.18 I-0.397 J0.
X107.972 Z-2.242 I0.397 J0.
X107.178 Z-2.304 I-0.397 J0.
X107.972 Z-2.367 I0.397 J0.
X107.178 Z-2.429 I-0.397 J0.
X107.972 Z-2.491 I0.397 J0.
X107.178 Z-2.554 I-0.397 J0.
X107.972 Z-2.616 I0.397 J0.
X107.178 Z-2.678 I-0.397 J0.
X107.972 Z-2.741 I0.397 J0.
X107.178 Z-2.803 I-0.397 J0.
X107.972 Z-2.866 I0.397 J0.
X107.178 Z-2.928 I-0.397 J0.
X107.972 Z-2.99 I0.397 J0.
X107.178 Z-3.053 I-0.397 J0.
X107.972 Z-3.115 I0.397 J0.
X107.178 Z-3.177 I-0.397 J0.
X107.972 Z-3.24 I0.397 J0.
X107.178 Z-3.302 I-0.397 J0.
X107.972 Z-3.364 I0.397 J0.
X107.178 Z-3.427 I-0.397 J0.
X107.972 Z-3.489 I0.397 J0.
X107.178 Z-3.551 I-0.397 J0.
X107.972 Z-3.614 I0.397 J0.
X107.178 Z-3.676 I-0.397 J0.
X107.972 Z-3.738 I0.397 J0.
X107.178 Z-3.801 I-0.397 J0.
X107.972 Z-3.863 I0.397 J0.
X107.178 Z-3.925 I-0.397 J0.
X107.972 Z-3.988 I0.397 J0.
X107.178 Z-4.05 I-0.397 J0.
X107.972 Z-4.112 I0.397 J0.
X107.178 Z-4.175 I-0.397 J0.
X107.972 Z-4.237 I0.397 J0.
X107.178 Z-4.3 I-0.397 J0.
X107.972 Z-4.362 I0.397 J0.
X107.178 Z-4.424 I-0.397 J0.
X107.972 Z-4.487 I0.397 J0.
X107.178 Z-4.549 I-0.397 J0.
X107.972 Z-4.611 I0.397 J0.
X107.178 Z-4.674 I-0.397 J0.
X107.972 Z-4.736 I0.397 J0.
X107.178 Z-4.798 I-0.397 J0.
X107.972 Z-4.861 I0.397 J0.
X107.178 Z-4.923 I-0.397 J0.
X107.972 Z-4.985 I0.397 J0.
X107.178 Z-5.048 I-0.397 J0.
X107.972 Z-5.11 I0.397 J0.
X107.549 Y-65.471 Z-5.143 I-0.397 J0.
X107.182 Y-65.023 Z-5.175 I0.026 J0.396
X107.968 Y-65.127 I0.393 J-0.052
X107.182 Y-65.023 I-0.393 J0.052
X107.404 Y-64.852 I0.197 J-0.026
G1 X107.719 Y-64.894
G0 Z5.
X107.456 Y-87.102
Z2.365
G1 Z1. F800.
X107.773
G2 X107.972 Y-87.3 I0. J-0.198
X107.178 Z0.938 I-0.397 J0.
X107.972 Z0.875 I0.397 J0.
X107.178 Z0.813 I-0.397 J0.
X107.972 Z0.751 I0.397 J0.
X107.178 Z0.688 I-0.397 J0.
X107.972 Z0.626 I0.397 J0.
X107.178 Z0.564 I-0.397 J0.
X107.972 Z0.501 I0.397 J0.
X107.178 Z0.439 I-0.397 J0.
X107.972 Z0.377 I0.397 J0.
X107.178 Z0.314 I-0.397 J0.
X107.972 Z0.252 I0.397 J0.
X107.178 Z0.189 I-0.397 J0.
X107.972 Z0.127 I0.397 J0.
X107.178 Z0.065 I-0.397 J0.
X107.972 Z0.002 I0.397 J0.
X107.178 Z-0.06 I-0.397 J0.
X107.972 Z-0.122 I0.397 J0.
X107.178 Z-0.185 I-0.397 J0.
X107.972 Z-0.247 I0.397 J0.
X107.178 Z-0.309 I-0.397 J0.
X107.972 Z-0.372 I0.397 J0.
X107.178 Z-0.434 I-0.397 J0.
X107.972 Z-0.496 I0.397 J0.
X107.178 Z-0.559 I-0.397 J0.
X107.972 Z-0.621 I0.397 J0.
X107.178 Z-0.683 I-0.397 J0.
X107.972 Z-0.746 I0.397 J0.
X107.178 Z-0.808 I-0.397 J0.
X107.972 Z-0.87 I0.397 J0.
X107.178 Z-0.933 I-0.397 J0.
X107.972 Z-0.995 I0.397 J0.
X107.178 Z-1.057 I-0.397 J0.
X107.972 Z-1.12 I0.397 J0.
X107.178 Z-1.182 I-0.397 J0.
X107.972 Z-1.245 I0.397 J0.
X107.178 Z-1.307 I-0.397 J0.
X107.972 Z-1.369 I0.397 J0.
X107.178 Z-1.432 I-0.397 J0.
X107.972 Z-1.494 I0.397 J0.
X107.178 Z-1.556 I-0.397 J0.
X107.972 Z-1.619 I0.397 J0.
X107.178 Z-1.681 I-0.397 J0.
X107.972 Z-1.743 I0.397 J0.
X107.178 Z-1.806 I-0.397 J0.
X107.972 Z-1.868 I0.397 J0.
X107.178 Z-1.93 I-0.397 J0.
X107.972 Z-1.993 I0.397 J0.
X107.178 Z-2.055 I-0.397 J0.
X107.972 Z-2.117 I0.397 J0.
X107.178 Z-2.18 I-0.397 J0.
X107.972 Z-2.242 I0.397 J0.
X107.178 Z-2.304 I-0.397 J0.
X107.972 Z-2.367 I0.397 J0.
X107.178 Z-2.429 I-0.397 J0.
X107.972 Z-2.491 I0.397 J0.
X107.178 Z-2.554 I-0.397 J0.
X107.972 Z-2.616 I0.397 J0.
X107.178 Z-2.678 I-0.397 J0.
X107.972 Z-2.741 I0.397 J0.
X107.178 Z-2.803 I-0.397 J0.
X107.972 Z-2.866 I0.397 J0.
X107.178 Z-2.928 I-0.397 J0.
X107.972 Z-2.99 I0.397 J0.
X107.178 Z-3.053 I-0.397 J0.
X107.972 Z-3.115 I0.397 J0.
X107.178 Z-3.177 I-0.397 J0.
X107.972 Z-3.24 I0.397 J0.
X107.178 Z-3.302 I-0.397 J0.
X107.972 Z-3.364 I0.397 J0.
X107.178 Z-3.427 I-0.397 J0.
X107.972 Z-3.489 I0.397 J0.
X107.178 Z-3.551 I-0.397 J0.
X107.972 Z-3.614 I0.397 J0.
X107.178 Z-3.676 I-0.397 J0.
X107.972 Z-3.738 I0.397 J0.
X107.178 Z-3.801 I-0.397 J0.
X107.972 Z-3.863 I0.397 J0.
X107.178 Z-3.925 I-0.397 J0.
X107.972 Z-3.988 I0.397 J0.
X107.178 Z-4.05 I-0.397 J0.
X107.972 Z-4.112 I0.397 J0.
X107.178 Z-4.175 I-0.397 J0.
X107.972 Z-4.237 I0.397 J0.
X107.178 Z-4.3 I-0.397 J0.
X107.972 Z-4.362 I0.397 J0.
X107.178 Z-4.424 I-0.397 J0.
X107.972 Z-4.487 I0.397 J0.
X107.178 Z-4.549 I-0.397 J0.
X107.972 Z-4.611 I0.397 J0.
X107.178 Z-4.674 I-0.397 J0.
X107.972 Z-4.736 I0.397 J0.
X107.178 Z-4.798 I-0.397 J0.
X107.972 Z-4.861 I0.397 J0.
X107.178 Z-4.923 I-0.397 J0.
X107.972 Z-4.985 I0.397 J0.
X107.178 Z-5.048 I-0.397 J0.
X107.972 Z-5.11 I0.397 J0.
X107.549 Y-87.696 Z-5.143 I-0.397 J0.
X107.182 Y-87.248 Z-5.175 I0.026 J0.396
X107.968 Y-87.352 I0.393 J-0.052
X107.182 Y-87.248 I-0.393 J0.052
X107.404 Y-87.077 I0.197 J-0.026
G1 X107.719 Y-87.119
G0 Z20.
M5
G0 Z15
G0 X0 Y0

M9
M30
