(T1  D=3.175 CR=0. - ZMIN=-5.175 - FLAT END MILL)
G90 G94 G91.1 G40 G49 G17
G21
(2ND HOLE)
G0 Z15

(BORE6 2)
M5
T1 M6
S16000 M3
G54
M8
G0 X129.403 Y114.059
G43 Z20. H1
Z3.
G1 Z1.317 F400.
G18 G3 X129.086 Z1. I-0.317 K0.
G1 X128.927
G17 G2 X128.609 Y114.376 I0. J0.317
X132.578 Z0.938 I1.984 J0.
X128.609 Z0.875 I-1.984 J0.
X132.578 Z0.813 I1.984 J0.
X128.609 Z0.751 I-1.984 J0.
X132.578 Z0.688 I1.984 J0.
X128.609 Z0.626 I-1.984 J0.
X132.578 Z0.564 I1.984 J0.
X128.609 Z0.501 I-1.984 J0.
X132.578 Z0.439 I1.984 J0.
X128.609 Z0.377 I-1.984 J0.
X132.578 Z0.314 I1.984 J0.
X128.609 Z0.252 I-1.984 J0.
X132.578 Z0.189 I1.984 J0.
X128.609 Z0.127 I-1.984 J0.
X132.578 Z0.065 I1.984 J0.
X128.609 Z0.002 I-1.984 J0.
X132.578 Z-0.06 I1.984 J0.
X128.609 Z-0.122 I-1.984 J0.
X132.578 Z-0.185 I1.984 J0.
X128.609 Z-0.247 I-1.984 J0.
X132.578 Z-0.309 I1.984 J0.
X128.609 Z-0.372 I-1.984 J0.
X132.578 Z-0.434 I1.984 J0.
X128.609 Z-0.496 I-1.984 J0.
X132.578 Z-0.559 I1.984 J0.
X128.609 Z-0.621 I-1.984 J0.
X132.578 Z-0.683 I1.984 J0.
X128.609 Z-0.746 I-1.984 J0.
X132.578 Z-0.808 I1.984 J0.
X128.609 Z-0.87 I-1.984 J0.
X132.578 Z-0.933 I1.984 J0.
X128.609 Z-0.995 I-1.984 J0.
X132.578 Z-1.057 I1.984 J0.
X128.609 Z-1.12 I-1.984 J0.
X132.578 Z-1.182 I1.984 J0.
X128.609 Z-1.245 I-1.984 J0.
X132.578 Z-1.307 I1.984 J0.
X128.609 Z-1.369 I-1.984 J0.
X132.578 Z-1.432 I1.984 J0.
X128.609 Z-1.494 I-1.984 J0.
X132.578 Z-1.556 I1.984 J0.
X128.609 Z-1.619 I-1.984 J0.
X132.578 Z-1.681 I1.984 J0.
X128.609 Z-1.743 I-1.984 J0.
X132.578 Z-1.806 I1.984 J0.
X128.609 Z-1.868 I-1.984 J0.
X132.578 Z-1.93 I1.984 J0.
X128.609 Z-1.993 I-1.984 J0.
X132.578 Z-2.055 I1.984 J0.
X128.609 Z-2.117 I-1.984 J0.
X132.578 Z-2.18 I1.984 J0.
X128.609 Z-2.242 I-1.984 J0.
X132.578 Z-2.304 I1.984 J0.
X128.609 Z-2.367 I-1.984 J0.
X132.578 Z-2.429 I1.984 J0.
X128.609 Z-2.491 I-1.984 J0.
X132.578 Z-2.554 I1.984 J0.
X128.609 Z-2.616 I-1.984 J0.
X132.578 Z-2.678 I1.984 J0.
X128.609 Z-2.741 I-1.984 J0.
X132.578 Z-2.803 I1.984 J0.
X128.609 Z-2.866 I-1.984 J0.
X132.578 Z-2.928 I1.984 J0.
X128.609 Z-2.99 I-1.984 J0.
X132.578 Z-3.053 I1.984 J0.
X128.609 Z-3.115 I-1.984 J0.
X132.578 Z-3.177 I1.984 J0.
X128.609 Z-3.24 I-1.984 J0.
X132.578 Z-3.302 I1.984 J0.
X128.609 Z-3.364 I-1.984 J0.
X132.578 Z-3.427 I1.984 J0.
X128.609 Z-3.489 I-1.984 J0.
X132.578 Z-3.551 I1.984 J0.
X128.609 Z-3.614 I-1.984 J0.
X132.578 Z-3.676 I1.984 J0.
X128.609 Z-3.738 I-1.984 J0.
X132.578 Z-3.801 I1.984 J0.
X128.609 Z-3.863 I-1.984 J0.
X132.578 Z-3.925 I1.984 J0.
X128.609 Z-3.988 I-1.984 J0.
X132.578 Z-4.05 I1.984 J0.
X128.609 Z-4.112 I-1.984 J0.
X132.578 Z-4.175 I1.984 J0.
X128.609 Z-4.237 I-1.984 J0.
X132.578 Z-4.3 I1.984 J0.
X128.609 Z-4.362 I-1.984 J0.
X132.578 Z-4.424 I1.984 J0.
X128.609 Z-4.487 I-1.984 J0.
X132.578 Z-4.549 I1.984 J0.
X128.609 Z-4.611 I-1.984 J0.
X132.578 Z-4.674 I1.984 J0.
X128.609 Z-4.736 I-1.984 J0.
X132.578 Z-4.798 I1.984 J0.
X128.609 Z-4.861 I-1.984 J0.
X132.578 Z-4.923 I1.984 J0.
X128.609 Z-4.985 I-1.984 J0.
X132.578 Z-5.048 I1.984 J0.
X128.609 Z-5.11 I-1.984 J0.
X130.724 Y116.356 Z-5.143 I1.984 J0.
X132.561 Y114.115 Z-5.175 I-0.131 J-1.98
X128.627 Y114.637 I-1.967 J0.261
X132.561 Y114.115 I1.967 J-0.261
X132.204 Y113.842 I-0.315 J0.042
G1 X132.047 Y113.863
X131.977 Y113.872 Z-5.167
X131.91 Y113.881 Z-5.144
X131.851 Y113.889 Z-5.106
X131.801 Y113.896 Z-5.055
X131.763 Y113.901 Z-4.995
X131.74 Y113.904 Z-4.928
X131.732 Y113.905 Z-4.858
G0 Z5.
X129.403 Y164.859
Z3.
G1 Z1.317 F400.
G18 G3 X129.086 Z1. I-0.317 K0.
G1 X128.927
G17 G2 X128.609 Y165.176 I0. J0.317
X132.578 Z0.938 I1.984 J0.
X128.609 Z0.875 I-1.984 J0.
X132.578 Z0.813 I1.984 J0.
X128.609 Z0.751 I-1.984 J0.
X132.578 Z0.688 I1.984 J0.
X128.609 Z0.626 I-1.984 J0.
X132.578 Z0.564 I1.984 J0.
X128.609 Z0.501 I-1.984 J0.
X132.578 Z0.439 I1.984 J0.
X128.609 Z0.377 I-1.984 J0.
X132.578 Z0.314 I1.984 J0.
X128.609 Z0.252 I-1.984 J0.
X132.578 Z0.189 I1.984 J0.
X128.609 Z0.127 I-1.984 J0.
X132.578 Z0.065 I1.984 J0.
X128.609 Z0.002 I-1.984 J0.
X132.578 Z-0.06 I1.984 J0.
X128.609 Z-0.122 I-1.984 J0.
X132.578 Z-0.185 I1.984 J0.
X128.609 Z-0.247 I-1.984 J0.
X132.578 Z-0.309 I1.984 J0.
X128.609 Z-0.372 I-1.984 J0.
X132.578 Z-0.434 I1.984 J0.
X128.609 Z-0.496 I-1.984 J0.
X132.578 Z-0.559 I1.984 J0.
X128.609 Z-0.621 I-1.984 J0.
X132.578 Z-0.683 I1.984 J0.
X128.609 Z-0.746 I-1.984 J0.
X132.578 Z-0.808 I1.984 J0.
X128.609 Z-0.87 I-1.984 J0.
X132.578 Z-0.933 I1.984 J0.
X128.609 Z-0.995 I-1.984 J0.
X132.578 Z-1.057 I1.984 J0.
X128.609 Z-1.12 I-1.984 J0.
X132.578 Z-1.182 I1.984 J0.
X128.609 Z-1.245 I-1.984 J0.
X132.578 Z-1.307 I1.984 J0.
X128.609 Z-1.369 I-1.984 J0.
X132.578 Z-1.432 I1.984 J0.
X128.609 Z-1.494 I-1.984 J0.
X132.578 Z-1.556 I1.984 J0.
X128.609 Z-1.619 I-1.984 J0.
X132.578 Z-1.681 I1.984 J0.
X128.609 Z-1.743 I-1.984 J0.
X132.578 Z-1.806 I1.984 J0.
X128.609 Z-1.868 I-1.984 J0.
X132.578 Z-1.93 I1.984 J0.
X128.609 Z-1.993 I-1.984 J0.
X132.578 Z-2.055 I1.984 J0.
X128.609 Z-2.117 I-1.984 J0.
X132.578 Z-2.18 I1.984 J0.
X128.609 Z-2.242 I-1.984 J0.
X132.578 Z-2.304 I1.984 J0.
X128.609 Z-2.367 I-1.984 J0.
X132.578 Z-2.429 I1.984 J0.
X128.609 Z-2.491 I-1.984 J0.
X132.578 Z-2.554 I1.984 J0.
X128.609 Z-2.616 I-1.984 J0.
X132.578 Z-2.678 I1.984 J0.
X128.609 Z-2.741 I-1.984 J0.
X132.578 Z-2.803 I1.984 J0.
X128.609 Z-2.866 I-1.984 J0.
X132.578 Z-2.928 I1.984 J0.
X128.609 Z-2.99 I-1.984 J0.
X132.578 Z-3.053 I1.984 J0.
X128.609 Z-3.115 I-1.984 J0.
X132.578 Z-3.177 I1.984 J0.
X128.609 Z-3.24 I-1.984 J0.
X132.578 Z-3.302 I1.984 J0.
X128.609 Z-3.364 I-1.984 J0.
X132.578 Z-3.427 I1.984 J0.
X128.609 Z-3.489 I-1.984 J0.
X132.578 Z-3.551 I1.984 J0.
X128.609 Z-3.614 I-1.984 J0.
X132.578 Z-3.676 I1.984 J0.
X128.609 Z-3.738 I-1.984 J0.
X132.578 Z-3.801 I1.984 J0.
X128.609 Z-3.863 I-1.984 J0.
X132.578 Z-3.925 I1.984 J0.
X128.609 Z-3.988 I-1.984 J0.
X132.578 Z-4.05 I1.984 J0.
X128.609 Z-4.112 I-1.984 J0.
X132.578 Z-4.175 I1.984 J0.
X128.609 Z-4.237 I-1.984 J0.
X132.578 Z-4.3 I1.984 J0.
X128.609 Z-4.362 I-1.984 J0.
X132.578 Z-4.424 I1.984 J0.
X128.609 Z-4.487 I-1.984 J0.
X132.578 Z-4.549 I1.984 J0.
X128.609 Z-4.611 I-1.984 J0.
X132.578 Z-4.674 I1.984 J0.
X128.609 Z-4.736 I-1.984 J0.
X132.578 Z-4.798 I1.984 J0.
X128.609 Z-4.861 I-1.984 J0.
X132.578 Z-4.923 I1.984 J0.
X128.609 Z-4.985 I-1.984 J0.
X132.578 Z-5.048 I1.984 J0.
X128.609 Z-5.11 I-1.984 J0.
X130.724 Y167.156 Z-5.143 I1.984 J0.
X132.561 Y164.915 Z-5.175 I-0.131 J-1.98
X128.627 Y165.437 I-1.967 J0.261
X132.561 Y164.915 I1.967 J-0.261
X132.204 Y164.642 I-0.315 J0.042
G1 X132.047 Y164.663
X131.977 Y164.672 Z-5.167
X131.91 Y164.681 Z-5.144
X131.851 Y164.689 Z-5.106
X131.801 Y164.696 Z-5.055
X131.763 Y164.701 Z-4.995
X131.74 Y164.704 Z-4.928
X131.732 Y164.705 Z-4.858
G0 Z20.

(2D POCKET1)
G0 X131.06 Y134.263
Z16.
Z5.5
G1 Z3.317 F800.
G19 G2 Y133.957 Z3. J-0.318 K0. F400.
G1 Y128.516 Z2.81
G17 G2 X130.741 Y128.197 Z2.792 I-0.319 J0.
G1 X130.446 Z2.782
G2 X130.127 Y128.516 Z2.765 I0. J0.319
G1 Y151.036 Z1.978
G2 X130.446 Y151.355 Z1.961 I0.319 J0.
G1 X130.741 Z1.951
G2 X131.06 Y151.036 Z1.933 I0. J-0.319
G1 Y128.516 Z1.147
G2 X130.741 Y128.197 Z1.129 I-0.319 J0.
G1 X130.446 Z1.119
G2 X130.127 Y128.516 Z1.101 I0. J0.319
G1 Y151.036 Z0.315
G2 X130.446 Y151.355 Z0.297 I0.319 J0.
G1 X130.741 Z0.287
G2 X131.06 Y151.036 Z0.27 I0. J-0.319
G1 Y150.587 Z0.254
Y128.516 F800.
G2 X130.741 Y128.197 I-0.319 J0.
G1 X130.446
G2 X130.127 Y128.516 I0. J0.319
G1 Y151.036
G2 X130.446 Y151.355 I0.319 J0.
G1 X130.741
G2 X131.06 Y151.036 I0. J-0.319
G1 Y150.587
G3 X132.331 Y148.68 I2.066 J0.
G2 X133.602 Y146.773 I-0.794 J-1.907
G1 Y125.974
G2 X133.283 Y125.655 I-0.319 J0.
G1 X127.904
G2 X127.585 Y125.974 I0. J0.319
G1 Y153.578
G2 X127.904 Y153.897 I0.319 J0.
G1 X133.283
G2 X133.602 Y153.578 I0. J-0.319
G1 Y146.773
G3 X134.876 Y144.863 I2.07 J0.
G2 X136.15 Y142.953 I-0.796 J-1.91
G1 Y123.107
X125.037
Y156.445
X136.15
Y142.953
G2 X135.915 Y142.813 I-0.159 J0.
G1 X133.183 Y144.308
X133.159 Y144.324
X133.138 Y144.344
X133.111 Y144.369
X133.079 Y144.388
X130.224 Y145.589
X130.185 Y145.613
X130.154 Y145.648
X130.134 Y145.69
X130.127 Y145.736
Y151.036 Z0.069 F400.
G2 X130.446 Y151.355 Z0.051 I0.319 J0.
G1 X130.741 Z0.041
G2 X131.06 Y151.036 Z0.024 I0. J-0.319
G1 Y150.587 Z0.008
Y128.516 F800.
G2 X130.741 Y128.197 I-0.319 J0.
G1 X130.446
G2 X130.127 Y128.516 I0. J0.319
G1 Y151.036
G2 X130.446 Y151.355 I0.319 J0.
G1 X130.741
G2 X131.06 Y151.036 I0. J-0.319
G1 Y150.587
G3 X132.331 Y148.68 I2.066 J0.
G2 X133.602 Y146.773 I-0.794 J-1.907
G1 Y125.974
G2 X133.283 Y125.655 I-0.319 J0.
G1 X127.904
G2 X127.585 Y125.974 I0. J0.319
G1 Y153.578
G2 X127.904 Y153.897 I0.319 J0.
G1 X133.283
G2 X133.602 Y153.578 I0. J-0.319
G1 Y146.773
G3 X134.876 Y144.863 I2.07 J0.
G2 X136.15 Y142.953 I-0.796 J-1.91
G1 Y123.107
X125.037
Y156.445
X136.15
Y142.953
G2 X135.915 Y142.813 I-0.159 J0.
G1 X133.183 Y144.308
X133.159 Y144.324
X133.138 Y144.344
X133.111 Y144.369
X133.079 Y144.388
X130.224 Y145.589
X130.185 Y145.613
X130.154 Y145.648
X130.134 Y145.69
X130.127 Y145.736
Y151.036 Z-0.177 F400.
G2 X130.446 Y151.355 Z-0.195 I0.319 J0.
G1 X130.741 Z-0.205
G2 X131.06 Y151.036 Z-0.222 I0. J-0.319
G1 Y150.587 Z-0.238
Y128.516 F800.
G2 X130.741 Y128.197 I-0.319 J0.
G1 X130.446
G2 X130.127 Y128.516 I0. J0.319
G1 Y151.036
G2 X130.446 Y151.355 I0.319 J0.
G1 X130.741
G2 X131.06 Y151.036 I0. J-0.319
G1 Y150.587
G3 X132.331 Y148.68 I2.066 J0.
G2 X133.602 Y146.773 I-0.794 J-1.907
G1 Y125.974
G2 X133.283 Y125.655 I-0.319 J0.
G1 X127.904
G2 X127.585 Y125.974 I0. J0.319
G1 Y153.578
G2 X127.904 Y153.897 I0.319 J0.
G1 X133.283
G2 X133.602 Y153.578 I0. J-0.319
G1 Y146.773
G3 X134.876 Y144.863 I2.07 J0.
G2 X136.15 Y142.953 I-0.796 J-1.91
G1 Y123.107
X125.037
Y156.445
X136.15
Y142.953
G2 X135.915 Y142.813 I-0.159 J0.
G1 X133.183 Y144.308
X133.159 Y144.324
X133.138 Y144.344
X133.111 Y144.369
X133.079 Y144.388
X130.224 Y145.589
X130.185 Y145.613
X130.154 Y145.648
X130.134 Y145.69
X130.127 Y145.736
Y151.036 Z-0.423 F400.
G2 X130.446 Y151.355 Z-0.441 I0.319 J0.
G1 X130.741 Z-0.451
G2 X131.06 Y151.036 Z-0.469 I0. J-0.319
G1 Y150.587 Z-0.484
Y128.516 F800.
G2 X130.741 Y128.197 I-0.319 J0.
G1 X130.446
G2 X130.127 Y128.516 I0. J0.319
G1 Y151.036
G2 X130.446 Y151.355 I0.319 J0.
G1 X130.741
G2 X131.06 Y151.036 I0. J-0.319
G1 Y150.587
G3 X132.331 Y148.68 I2.066 J0.
G2 X133.602 Y146.773 I-0.794 J-1.907
G1 Y125.974
G2 X133.283 Y125.655 I-0.319 J0.
G1 X127.904
G2 X127.585 Y125.974 I0. J0.319
G1 Y153.578
G2 X127.904 Y153.897 I0.319 J0.
G1 X133.283
G2 X133.602 Y153.578 I0. J-0.319
G1 Y146.773
G3 X134.876 Y144.863 I2.07 J0.
G2 X136.15 Y142.953 I-0.796 J-1.91
G1 Y123.107
X125.037
Y156.445
X136.15
Y142.953
G2 X135.915 Y142.813 I-0.159 J0.
G1 X133.183 Y144.308
X133.159 Y144.324
X133.138 Y144.344
X133.111 Y144.369
X133.079 Y144.388
X130.224 Y145.589
X130.185 Y145.613
X130.154 Y145.648
X130.134 Y145.69
X130.127 Y145.736
Y151.036 Z-0.669 F400.
G2 X130.446 Y151.355 Z-0.687 I0.319 J0.
G1 X130.741 Z-0.697
G2 X131.06 Y151.036 Z-0.715 I0. J-0.319
G1 Y150.587 Z-0.73
Y128.516 F800.
G2 X130.741 Y128.197 I-0.319 J0.
G1 X130.446
G2 X130.127 Y128.516 I0. J0.319
G1 Y151.036
G2 X130.446 Y151.355 I0.319 J0.
G1 X130.741
G2 X131.06 Y151.036 I0. J-0.319
G1 Y150.587
G3 X132.331 Y148.68 I2.066 J0.
G2 X133.602 Y146.773 I-0.794 J-1.907
G1 Y125.974
G2 X133.283 Y125.655 I-0.319 J0.
G1 X127.904
G2 X127.585 Y125.974 I0. J0.319
G1 Y153.578
G2 X127.904 Y153.897 I0.319 J0.
G1 X133.283
G2 X133.602 Y153.578 I0. J-0.319
G1 Y146.773
G3 X134.876 Y144.863 I2.07 J0.
G2 X136.15 Y142.953 I-0.796 J-1.91
G1 Y123.107
X125.037
Y156.445
X136.15
Y142.953
G2 X135.915 Y142.813 I-0.159 J0.
G1 X133.183 Y144.308
X133.159 Y144.324
X133.138 Y144.344
X133.111 Y144.369
X133.079 Y144.388
X130.224 Y145.589
X130.185 Y145.613
X130.154 Y145.648
X130.134 Y145.69
X130.127 Y145.736
Y151.036 Z-0.915 F400.
G2 X130.446 Y151.355 Z-0.933 I0.319 J0.
G1 X130.741 Z-0.943
G2 X131.06 Y151.036 Z-0.961 I0. J-0.319
G1 Y150.587 Z-0.976
Y128.516 F800.
G2 X130.741 Y128.197 I-0.319 J0.
G1 X130.446
G2 X130.127 Y128.516 I0. J0.319
G1 Y151.036
G2 X130.446 Y151.355 I0.319 J0.
G1 X130.741
G2 X131.06 Y151.036 I0. J-0.319
G1 Y150.587
G3 X132.331 Y148.68 I2.066 J0.
G2 X133.602 Y146.773 I-0.794 J-1.907
G1 Y125.974
G2 X133.283 Y125.655 I-0.319 J0.
G1 X127.904
G2 X127.585 Y125.974 I0. J0.319
G1 Y153.578
G2 X127.904 Y153.897 I0.319 J0.
G1 X133.283
G2 X133.602 Y153.578 I0. J-0.319
G1 Y146.773
G3 X134.876 Y144.863 I2.07 J0.
G2 X136.15 Y142.953 I-0.796 J-1.91
G1 Y123.107
X125.037
Y156.445
X136.15
Y142.953
G2 X135.915 Y142.813 I-0.159 J0.
G1 X133.183 Y144.308
X133.159 Y144.324
X133.138 Y144.344
X133.111 Y144.369
X133.079 Y144.388
X130.224 Y145.589
X130.185 Y145.613
X130.154 Y145.648
X130.134 Y145.69
X130.127 Y145.736
Y151.036 Z-1.161 F400.
G2 X130.446 Y151.355 Z-1.179 I0.319 J0.
G1 X130.741 Z-1.189
G2 X131.06 Y151.036 Z-1.207 I0. J-0.319
G1 Y150.587 Z-1.222
Y128.516 F800.
G2 X130.741 Y128.197 I-0.319 J0.
G1 X130.446
G2 X130.127 Y128.516 I0. J0.319
G1 Y151.036
G2 X130.446 Y151.355 I0.319 J0.
G1 X130.741
G2 X131.06 Y151.036 I0. J-0.319
G1 Y150.587
G3 X132.331 Y148.68 I2.066 J0.
G2 X133.602 Y146.773 I-0.794 J-1.907
G1 Y125.974
G2 X133.283 Y125.655 I-0.319 J0.
G1 X127.904
G2 X127.585 Y125.974 I0. J0.319
G1 Y153.578
G2 X127.904 Y153.897 I0.319 J0.
G1 X133.283
G2 X133.602 Y153.578 I0. J-0.319
G1 Y146.773
G3 X134.876 Y144.863 I2.07 J0.
G2 X136.15 Y142.953 I-0.796 J-1.91
G1 Y123.107
X125.037
Y156.445
X136.15
Y142.953
G2 X135.915 Y142.813 I-0.159 J0.
G1 X133.183 Y144.308
X133.159 Y144.324
X133.138 Y144.344
X133.111 Y144.369
X133.079 Y144.388
X130.224 Y145.589
X130.185 Y145.613
X130.154 Y145.648
X130.134 Y145.69
X130.127 Y145.736
Y151.036 Z-1.407 F400.
G2 X130.446 Y151.355 Z-1.425 I0.319 J0.
G1 X130.741 Z-1.435
G2 X131.06 Y151.036 Z-1.453 I0. J-0.319
G1 Y150.587 Z-1.468
Y128.516 F800.
G2 X130.741 Y128.197 I-0.319 J0.
G1 X130.446
G2 X130.127 Y128.516 I0. J0.319
G1 Y151.036
G2 X130.446 Y151.355 I0.319 J0.
G1 X130.741
G2 X131.06 Y151.036 I0. J-0.319
G1 Y150.587
G3 X132.331 Y148.68 I2.066 J0.
G2 X133.602 Y146.773 I-0.794 J-1.907
G1 Y125.974
G2 X133.283 Y125.655 I-0.319 J0.
G1 X127.904
G2 X127.585 Y125.974 I0. J0.319
G1 Y153.578
G2 X127.904 Y153.897 I0.319 J0.
G1 X133.283
G2 X133.602 Y153.578 I0. J-0.319
G1 Y146.773
G3 X134.876 Y144.863 I2.07 J0.
G2 X136.15 Y142.953 I-0.796 J-1.91
G1 Y123.107
X125.037
Y156.445
X136.15
Y142.953
G2 X135.915 Y142.813 I-0.159 J0.
G1 X133.183 Y144.308
X133.159 Y144.324
X133.138 Y144.344
X133.111 Y144.369
X133.079 Y144.388
X130.224 Y145.589
X130.185 Y145.613
X130.154 Y145.648
X130.134 Y145.69
X130.127 Y145.736
Y151.036 Z-1.653 F400.
G2 X130.446 Y151.355 Z-1.671 I0.319 J0.
G1 X130.741 Z-1.681
G2 X131.06 Y151.036 Z-1.699 I0. J-0.319
G1 Y150.587 Z-1.714
Y128.516 F800.
G2 X130.741 Y128.197 I-0.319 J0.
G1 X130.446
G2 X130.127 Y128.516 I0. J0.319
G1 Y151.036
G2 X130.446 Y151.355 I0.319 J0.
G1 X130.741
G2 X131.06 Y151.036 I0. J-0.319
G1 Y150.587
G3 X132.331 Y148.68 I2.066 J0.
G2 X133.602 Y146.773 I-0.794 J-1.907
G1 Y125.974
G2 X133.283 Y125.655 I-0.319 J0.
G1 X127.904
G2 X127.585 Y125.974 I0. J0.319
G1 Y153.578
G2 X127.904 Y153.897 I0.319 J0.
G1 X133.283
G2 X133.602 Y153.578 I0. J-0.319
G1 Y146.773
G3 X134.876 Y144.863 I2.07 J0.
G2 X136.15 Y142.953 I-0.796 J-1.91
G1 Y123.107
X125.037
Y156.445
X136.15
Y142.953
G2 X135.915 Y142.813 I-0.159 J0.
G1 X133.183 Y144.308
X133.159 Y144.324
X133.138 Y144.344
X133.111 Y144.369
X133.079 Y144.388
X130.224 Y145.589
X130.185 Y145.613
X130.154 Y145.648
X130.134 Y145.69
X130.127 Y145.736
Y151.036 Z-1.9 F400.
G2 X130.446 Y151.355 Z-1.917 I0.319 J0.
G1 X130.741 Z-1.927
G2 X131.06 Y151.036 Z-1.945 I0. J-0.319
G1 Y150.587 Z-1.961
Y128.516 F800.
G2 X130.741 Y128.197 I-0.319 J0.
G1 X130.446
G2 X130.127 Y128.516 I0. J0.319
G1 Y151.036
G2 X130.446 Y151.355 I0.319 J0.
G1 X130.741
G2 X131.06 Y151.036 I0. J-0.319
G1 Y150.587
G3 X132.331 Y148.68 I2.066 J0.
G2 X133.602 Y146.773 I-0.794 J-1.907
G1 Y125.974
G2 X133.283 Y125.655 I-0.319 J0.
G1 X127.904
G2 X127.585 Y125.974 I0. J0.319
G1 Y153.578
G2 X127.904 Y153.897 I0.319 J0.
G1 X133.283
G2 X133.602 Y153.578 I0. J-0.319
G1 Y146.773
G3 X134.876 Y144.863 I2.07 J0.
G2 X136.15 Y142.953 I-0.796 J-1.91
G1 Y123.107
X125.037
Y156.445
X136.15
Y142.953
G2 X135.915 Y142.813 I-0.159 J0.
G1 X133.183 Y144.308
X133.159 Y144.324
X133.138 Y144.344
X133.111 Y144.369
X133.079 Y144.388
X130.224 Y145.589
X130.185 Y145.613
X130.154 Y145.648
X130.134 Y145.69
X130.127 Y145.736
Y151.036 Z-2.146 F400.
G2 X130.446 Y151.355 Z-2.163 I0.319 J0.
G1 X130.741 Z-2.173
G2 X131.06 Y151.036 Z-2.191 I0. J-0.319
G1 Y150.587 Z-2.207
Y128.516 F800.
G2 X130.741 Y128.197 I-0.319 J0.
G1 X130.446
G2 X130.127 Y128.516 I0. J0.319
G1 Y151.036
G2 X130.446 Y151.355 I0.319 J0.
G1 X130.741
G2 X131.06 Y151.036 I0. J-0.319
G1 Y150.587
G3 X132.331 Y148.68 I2.066 J0.
G2 X133.602 Y146.773 I-0.794 J-1.907
G1 Y125.974
G2 X133.283 Y125.655 I-0.319 J0.
G1 X127.904
G2 X127.585 Y125.974 I0. J0.319
G1 Y153.578
G2 X127.904 Y153.897 I0.319 J0.
G1 X133.283
G2 X133.602 Y153.578 I0. J-0.319
G1 Y146.773
G3 X134.876 Y144.863 I2.07 J0.
G2 X136.15 Y142.953 I-0.796 J-1.91
G1 Y123.107
X125.037
Y156.445
X136.15
Y142.953
G2 X135.915 Y142.813 I-0.159 J0.
G1 X133.183 Y144.308
X133.159 Y144.324
X133.138 Y144.344
X133.111 Y144.369
X133.079 Y144.388
X130.224 Y145.589
X130.185 Y145.613
X130.154 Y145.648
X130.134 Y145.69
X130.127 Y145.736
Y151.036 Z-2.392 F400.
G2 X130.446 Y151.355 Z-2.409 I0.319 J0.
G1 X130.741 Z-2.419
G2 X131.06 Y151.036 Z-2.437 I0. J-0.319
G1 Y150.587 Z-2.453
Y128.516 F800.
G2 X130.741 Y128.197 I-0.319 J0.
G1 X130.446
G2 X130.127 Y128.516 I0. J0.319
G1 Y151.036
G2 X130.446 Y151.355 I0.319 J0.
G1 X130.741
G2 X131.06 Y151.036 I0. J-0.319
G1 Y150.587
G3 X132.331 Y148.68 I2.066 J0.
G2 X133.602 Y146.773 I-0.794 J-1.907
G1 Y125.974
G2 X133.283 Y125.655 I-0.319 J0.
G1 X127.904
G2 X127.585 Y125.974 I0. J0.319
G1 Y153.578
G2 X127.904 Y153.897 I0.319 J0.
G1 X133.283
G2 X133.602 Y153.578 I0. J-0.319
G1 Y146.773
G3 X134.876 Y144.863 I2.07 J0.
G2 X136.15 Y142.953 I-0.796 J-1.91
G1 Y123.107
X125.037
Y156.445
X136.15
Y142.953
G2 X135.915 Y142.813 I-0.159 J0.
G1 X133.183 Y144.308
X133.159 Y144.324
X133.138 Y144.344
X133.111 Y144.369
X133.079 Y144.388
X130.224 Y145.589
X130.185 Y145.613
X130.154 Y145.648
X130.134 Y145.69
X130.127 Y145.736
Y151.036 Z-2.638 F400.
G2 X130.446 Y151.355 Z-2.655 I0.319 J0.
G1 X130.741 Z-2.665
G2 X131.06 Y151.036 Z-2.683 I0. J-0.319
G1 Y150.587 Z-2.699
Y128.516 F800.
G2 X130.741 Y128.197 I-0.319 J0.
G1 X130.446
G2 X130.127 Y128.516 I0. J0.319
G1 Y151.036
G2 X130.446 Y151.355 I0.319 J0.
G1 X130.741
G2 X131.06 Y151.036 I0. J-0.319
G1 Y150.587
G3 X132.331 Y148.68 I2.066 J0.
G2 X133.602 Y146.773 I-0.794 J-1.907
G1 Y125.974
G2 X133.283 Y125.655 I-0.319 J0.
G1 X127.904
G2 X127.585 Y125.974 I0. J0.319
G1 Y153.578
G2 X127.904 Y153.897 I0.319 J0.
G1 X133.283
G2 X133.602 Y153.578 I0. J-0.319
G1 Y146.773
G3 X134.876 Y144.863 I2.07 J0.
G2 X136.15 Y142.953 I-0.796 J-1.91
G1 Y123.107
X125.037
Y156.445
X136.15
Y142.953
G2 X135.915 Y142.813 I-0.159 J0.
G1 X133.183 Y144.308
X133.159 Y144.324
X133.138 Y144.344
X133.111 Y144.369
X133.079 Y144.388
X130.224 Y145.589
X130.185 Y145.613
X130.154 Y145.648
X130.134 Y145.69
X130.127 Y145.736
Y151.036 Z-2.884 F400.
G2 X130.446 Y151.355 Z-2.901 I0.319 J0.
G1 X130.741 Z-2.912
G2 X131.06 Y151.036 Z-2.929 I0. J-0.319
G1 Y150.587 Z-2.945
Y128.516 F800.
G2 X130.741 Y128.197 I-0.319 J0.
G1 X130.446
G2 X130.127 Y128.516 I0. J0.319
G1 Y151.036
G2 X130.446 Y151.355 I0.319 J0.
G1 X130.741
G2 X131.06 Y151.036 I0. J-0.319
G1 Y150.587
G3 X132.331 Y148.68 I2.066 J0.
G2 X133.602 Y146.773 I-0.794 J-1.907
G1 Y125.974
G2 X133.283 Y125.655 I-0.319 J0.
G1 X127.904
G2 X127.585 Y125.974 I0. J0.319
G1 Y153.578
G2 X127.904 Y153.897 I0.319 J0.
G1 X133.283
G2 X133.602 Y153.578 I0. J-0.319
G1 Y146.773
G3 X134.876 Y144.863 I2.07 J0.
G2 X136.15 Y142.953 I-0.796 J-1.91
G1 Y123.107
X125.037
Y156.445
X136.15
Y142.953
G2 X135.915 Y142.813 I-0.159 J0.
G1 X133.183 Y144.308
X133.159 Y144.324
X133.138 Y144.344
X133.111 Y144.369
X133.079 Y144.388
X130.224 Y145.589
X130.185 Y145.613
X130.154 Y145.648
X130.134 Y145.69
X130.127 Y145.736
Y151.036 Z-3.13 F400.
G2 X130.446 Y151.355 Z-3.147 I0.319 J0.
G1 X130.741 Z-3.158
G2 X131.06 Y151.036 Z-3.175 I0. J-0.319
G1 Y150.587 Z-3.191
Y128.516 F800.
G2 X130.741 Y128.197 I-0.319 J0.
G1 X130.446
G2 X130.127 Y128.516 I0. J0.319
G1 Y151.036
G2 X130.446 Y151.355 I0.319 J0.
G1 X130.741
G2 X131.06 Y151.036 I0. J-0.319
G1 Y150.587
G3 X132.331 Y148.68 I2.066 J0.
G2 X133.602 Y146.773 I-0.794 J-1.907
G1 Y125.974
G2 X133.283 Y125.655 I-0.319 J0.
G1 X127.904
G2 X127.585 Y125.974 I0. J0.319
G1 Y153.578
G2 X127.904 Y153.897 I0.319 J0.
G1 X133.283
G2 X133.602 Y153.578 I0. J-0.319
G1 Y146.773
G3 X134.876 Y144.863 I2.07 J0.
G2 X136.15 Y142.953 I-0.796 J-1.91
G1 Y123.107
X125.037
Y156.445
X136.15
Y142.953
G2 X135.915 Y142.813 I-0.159 J0.
G1 X133.183 Y144.308
X133.159 Y144.324
X133.138 Y144.344
X133.111 Y144.369
X133.079 Y144.388
X130.224 Y145.589
X130.185 Y145.613
X130.154 Y145.648
X130.134 Y145.69
X130.127 Y145.736
Y151.036 Z-3.376 F400.
G2 X130.446 Y151.355 Z-3.393 I0.319 J0.
G1 X130.741 Z-3.404
G2 X131.06 Y151.036 Z-3.421 I0. J-0.319
G1 Y150.587 Z-3.437
Y128.516 F800.
G2 X130.741 Y128.197 I-0.319 J0.
G1 X130.446
G2 X130.127 Y128.516 I0. J0.319
G1 Y151.036
G2 X130.446 Y151.355 I0.319 J0.
G1 X130.741
G2 X131.06 Y151.036 I0. J-0.319
G1 Y150.587
G3 X132.331 Y148.68 I2.066 J0.
G2 X133.602 Y146.773 I-0.794 J-1.907
G1 Y125.974
G2 X133.283 Y125.655 I-0.319 J0.
G1 X127.904
G2 X127.585 Y125.974 I0. J0.319
G1 Y153.578
G2 X127.904 Y153.897 I0.319 J0.
G1 X133.283
G2 X133.602 Y153.578 I0. J-0.319
G1 Y146.773
G3 X134.876 Y144.863 I2.07 J0.
G2 X136.15 Y142.953 I-0.796 J-1.91
G1 Y123.107
X125.037
Y156.445
X136.15
Y142.953
G2 X135.915 Y142.813 I-0.159 J0.
G1 X133.183 Y144.308
X133.159 Y144.324
X133.138 Y144.344
X133.111 Y144.369
X133.079 Y144.388
X130.224 Y145.589
X130.185 Y145.613
X130.154 Y145.648
X130.134 Y145.69
X130.127 Y145.736
Y151.036 Z-3.622 F400.
G2 X130.446 Y151.355 Z-3.639 I0.319 J0.
G1 X130.741 Z-3.65
G2 X131.06 Y151.036 Z-3.667 I0. J-0.319
G1 Y150.587 Z-3.683
Y128.516 F800.
G2 X130.741 Y128.197 I-0.319 J0.
G1 X130.446
G2 X130.127 Y128.516 I0. J0.319
G1 Y151.036
G2 X130.446 Y151.355 I0.319 J0.
G1 X130.741
G2 X131.06 Y151.036 I0. J-0.319
G1 Y150.587
G3 X132.331 Y148.68 I2.066 J0.
G2 X133.602 Y146.773 I-0.794 J-1.907
G1 Y125.974
G2 X133.283 Y125.655 I-0.319 J0.
G1 X127.904
G2 X127.585 Y125.974 I0. J0.319
G1 Y153.578
G2 X127.904 Y153.897 I0.319 J0.
G1 X133.283
G2 X133.602 Y153.578 I0. J-0.319
G1 Y146.773
G3 X134.876 Y144.863 I2.07 J0.
G2 X136.15 Y142.953 I-0.796 J-1.91
G1 Y123.107
X125.037
Y156.445
X136.15
Y142.953
G2 X135.915 Y142.813 I-0.159 J0.
G1 X133.183 Y144.308
X133.159 Y144.324
X133.138 Y144.344
X133.111 Y144.369
X133.079 Y144.388
X130.224 Y145.589
X130.185 Y145.613
X130.154 Y145.648
X130.134 Y145.69
X130.127 Y145.736
Y151.036 Z-3.868 F400.
G2 X130.446 Y151.355 Z-3.885 I0.319 J0.
G1 X130.741 Z-3.896
G2 X131.06 Y151.036 Z-3.913 I0. J-0.319
G1 Y150.587 Z-3.929
Y128.516 F800.
G2 X130.741 Y128.197 I-0.319 J0.
G1 X130.446
G2 X130.127 Y128.516 I0. J0.319
G1 Y151.036
G2 X130.446 Y151.355 I0.319 J0.
G1 X130.741
G2 X131.06 Y151.036 I0. J-0.319
G1 Y150.587
G3 X132.331 Y148.68 I2.066 J0.
G2 X133.602 Y146.773 I-0.794 J-1.907
G1 Y125.974
G2 X133.283 Y125.655 I-0.319 J0.
G1 X127.904
G2 X127.585 Y125.974 I0. J0.319
G1 Y153.578
G2 X127.904 Y153.897 I0.319 J0.
G1 X133.283
G2 X133.602 Y153.578 I0. J-0.319
G1 Y146.773
G3 X134.876 Y144.863 I2.07 J0.
G2 X136.15 Y142.953 I-0.796 J-1.91
G1 Y123.107
X125.037
Y156.445
X136.15
Y142.953
G2 X135.915 Y142.813 I-0.159 J0.
G1 X133.183 Y144.308
X133.159 Y144.324
X133.138 Y144.344
X133.111 Y144.369
X133.079 Y144.388
X130.224 Y145.589
X130.185 Y145.613
X130.154 Y145.648
X130.134 Y145.69
X130.127 Y145.736
Y151.036 Z-4.114 F400.
G2 X130.446 Y151.355 Z-4.132 I0.319 J0.
G1 X130.741 Z-4.142
G2 X131.06 Y151.036 Z-4.159 I0. J-0.319
G1 Y150.587 Z-4.175
Y128.516 F800.
G2 X130.741 Y128.197 I-0.319 J0.
G1 X130.446
G2 X130.127 Y128.516 I0. J0.319
G1 Y151.036
G2 X130.446 Y151.355 I0.319 J0.
G1 X130.741
G2 X131.06 Y151.036 I0. J-0.319
G1 Y150.587
G3 X132.331 Y148.68 I2.066 J0.
G2 X133.602 Y146.773 I-0.794 J-1.907
G1 Y125.974
G2 X133.283 Y125.655 I-0.319 J0.
G1 X127.904
G2 X127.585 Y125.974 I0. J0.319
G1 Y153.578
G2 X127.904 Y153.897 I0.319 J0.
G1 X133.283
G2 X133.602 Y153.578 I0. J-0.319
G1 Y146.773
G3 X134.876 Y144.863 I2.07 J0.
G2 X136.15 Y142.953 I-0.796 J-1.91
G1 Y123.107
X125.037
Y156.445
X136.15
Y142.953
X136.144 Y142.892 Z-4.163
X136.127 Y142.834 Z-4.151
X136.104 Y142.788 Z-4.116
X136.073 Y142.746 Z-4.082
X136.023 Y142.699 Z-3.979
X136.004 Y142.685 Z-3.858
G0 Z16.
M5
G0 Z15
G0 X0 Y0

M9
M30
