(T1  D=3.175 CR=0. - ZMIN=-5.175 - FLAT END MILL)
G90 G94 G91.1 G40 G49 G17
G21
(2ND HOLE)
G0 Z15

(BORE6 2)
M5
T1 M6
S16000 M3
G54
M8
G0 X104.003 Y114.059
G43 Z20. H1
Z3.
G1 Z1.317 F400.
G18 G3 X103.686 Z1. I-0.318 K0.
G1 X103.527
G17 G2 X103.209 Y114.376 I0. J0.317
X107.178 Z0.938 I1.984 J0.
X103.209 Z0.875 I-1.984 J0.
X107.178 Z0.813 I1.984 J0.
X103.209 Z0.751 I-1.984 J0.
X107.178 Z0.688 I1.984 J0.
X103.209 Z0.626 I-1.984 J0.
X107.178 Z0.564 I1.984 J0.
X103.209 Z0.501 I-1.984 J0.
X107.178 Z0.439 I1.984 J0.
X103.209 Z0.377 I-1.984 J0.
X107.178 Z0.314 I1.984 J0.
X103.209 Z0.252 I-1.984 J0.
X107.178 Z0.189 I1.984 J0.
X103.209 Z0.127 I-1.984 J0.
X107.178 Z0.065 I1.984 J0.
X103.209 Z0.002 I-1.984 J0.
X107.178 Z-0.06 I1.984 J0.
X103.209 Z-0.122 I-1.984 J0.
X107.178 Z-0.185 I1.984 J0.
X103.209 Z-0.247 I-1.984 J0.
X107.178 Z-0.309 I1.984 J0.
X103.209 Z-0.372 I-1.984 J0.
X107.178 Z-0.434 I1.984 J0.
X103.209 Z-0.496 I-1.984 J0.
X107.178 Z-0.559 I1.984 J0.
X103.209 Z-0.621 I-1.984 J0.
X107.178 Z-0.683 I1.984 J0.
X103.209 Z-0.746 I-1.984 J0.
X107.178 Z-0.808 I1.984 J0.
X103.209 Z-0.87 I-1.984 J0.
X107.178 Z-0.933 I1.984 J0.
X103.209 Z-0.995 I-1.984 J0.
X107.178 Z-1.057 I1.984 J0.
X103.209 Z-1.12 I-1.984 J0.
X107.178 Z-1.182 I1.984 J0.
X103.209 Z-1.245 I-1.984 J0.
X107.178 Z-1.307 I1.984 J0.
X103.209 Z-1.369 I-1.984 J0.
X107.178 Z-1.432 I1.984 J0.
X103.209 Z-1.494 I-1.984 J0.
X107.178 Z-1.556 I1.984 J0.
X103.209 Z-1.619 I-1.984 J0.
X107.178 Z-1.681 I1.984 J0.
X103.209 Z-1.743 I-1.984 J0.
X107.178 Z-1.806 I1.984 J0.
X103.209 Z-1.868 I-1.984 J0.
X107.178 Z-1.93 I1.984 J0.
X103.209 Z-1.993 I-1.984 J0.
X107.178 Z-2.055 I1.984 J0.
X103.209 Z-2.117 I-1.984 J0.
X107.178 Z-2.18 I1.984 J0.
X103.209 Z-2.242 I-1.984 J0.
X107.178 Z-2.304 I1.984 J0.
X103.209 Z-2.367 I-1.984 J0.
X107.178 Z-2.429 I1.984 J0.
X103.209 Z-2.491 I-1.984 J0.
X107.178 Z-2.554 I1.984 J0.
X103.209 Z-2.616 I-1.984 J0.
X107.178 Z-2.678 I1.984 J0.
X103.209 Z-2.741 I-1.984 J0.
X107.178 Z-2.803 I1.984 J0.
X103.209 Z-2.866 I-1.984 J0.
X107.178 Z-2.928 I1.984 J0.
X103.209 Z-2.99 I-1.984 J0.
X107.178 Z-3.053 I1.984 J0.
X103.209 Z-3.115 I-1.984 J0.
X107.178 Z-3.177 I1.984 J0.
X103.209 Z-3.24 I-1.984 J0.
X107.178 Z-3.302 I1.984 J0.
X103.209 Z-3.364 I-1.984 J0.
X107.178 Z-3.427 I1.984 J0.
X103.209 Z-3.489 I-1.984 J0.
X107.178 Z-3.551 I1.984 J0.
X103.209 Z-3.614 I-1.984 J0.
X107.178 Z-3.676 I1.984 J0.
X103.209 Z-3.738 I-1.984 J0.
X107.178 Z-3.801 I1.984 J0.
X103.209 Z-3.863 I-1.984 J0.
X107.178 Z-3.925 I1.984 J0.
X103.209 Z-3.988 I-1.984 J0.
X107.178 Z-4.05 I1.984 J0.
X103.209 Z-4.112 I-1.984 J0.
X107.178 Z-4.175 I1.984 J0.
X103.209 Z-4.237 I-1.984 J0.
X107.178 Z-4.3 I1.984 J0.
X103.209 Z-4.362 I-1.984 J0.
X107.178 Z-4.424 I1.984 J0.
X103.209 Z-4.487 I-1.984 J0.
X107.178 Z-4.549 I1.984 J0.
X103.209 Z-4.611 I-1.984 J0.
X107.178 Z-4.674 I1.984 J0.
X103.209 Z-4.736 I-1.984 J0.
X107.178 Z-4.798 I1.984 J0.
X103.209 Z-4.861 I-1.984 J0.
X107.178 Z-4.923 I1.984 J0.
X103.209 Z-4.985 I-1.984 J0.
X107.178 Z-5.048 I1.984 J0.
X103.209 Z-5.11 I-1.984 J0.
X105.324 Y116.356 Z-5.143 I1.984 J0.
X107.161 Y114.115 Z-5.175 I-0.131 J-1.98
X103.227 Y114.637 I-1.967 J0.261
X107.161 Y114.115 I1.967 J-0.261
X106.804 Y113.842 I-0.315 J0.042
G1 X106.647 Y113.863
X106.577 Y113.872 Z-5.167
X106.51 Y113.881 Z-5.144
X106.451 Y113.889 Z-5.106
X106.401 Y113.896 Z-5.055
X106.363 Y113.901 Z-4.995
X106.34 Y113.904 Z-4.928
X106.332 Y113.905 Z-4.858
G0 Z5.
X104.003 Y164.859
Z3.
G1 Z1.317 F400.
G18 G3 X103.686 Z1. I-0.318 K0.
G1 X103.527
G17 G2 X103.209 Y165.176 I0. J0.317
X107.178 Z0.938 I1.984 J0.
X103.209 Z0.875 I-1.984 J0.
X107.178 Z0.813 I1.984 J0.
X103.209 Z0.751 I-1.984 J0.
X107.178 Z0.688 I1.984 J0.
X103.209 Z0.626 I-1.984 J0.
X107.178 Z0.564 I1.984 J0.
X103.209 Z0.501 I-1.984 J0.
X107.178 Z0.439 I1.984 J0.
X103.209 Z0.377 I-1.984 J0.
X107.178 Z0.314 I1.984 J0.
X103.209 Z0.252 I-1.984 J0.
X107.178 Z0.189 I1.984 J0.
X103.209 Z0.127 I-1.984 J0.
X107.178 Z0.065 I1.984 J0.
X103.209 Z0.002 I-1.984 J0.
X107.178 Z-0.06 I1.984 J0.
X103.209 Z-0.122 I-1.984 J0.
X107.178 Z-0.185 I1.984 J0.
X103.209 Z-0.247 I-1.984 J0.
X107.178 Z-0.309 I1.984 J0.
X103.209 Z-0.372 I-1.984 J0.
X107.178 Z-0.434 I1.984 J0.
X103.209 Z-0.496 I-1.984 J0.
X107.178 Z-0.559 I1.984 J0.
X103.209 Z-0.621 I-1.984 J0.
X107.178 Z-0.683 I1.984 J0.
X103.209 Z-0.746 I-1.984 J0.
X107.178 Z-0.808 I1.984 J0.
X103.209 Z-0.87 I-1.984 J0.
X107.178 Z-0.933 I1.984 J0.
X103.209 Z-0.995 I-1.984 J0.
X107.178 Z-1.057 I1.984 J0.
X103.209 Z-1.12 I-1.984 J0.
X107.178 Z-1.182 I1.984 J0.
X103.209 Z-1.245 I-1.984 J0.
X107.178 Z-1.307 I1.984 J0.
X103.209 Z-1.369 I-1.984 J0.
X107.178 Z-1.432 I1.984 J0.
X103.209 Z-1.494 I-1.984 J0.
X107.178 Z-1.556 I1.984 J0.
X103.209 Z-1.619 I-1.984 J0.
X107.178 Z-1.681 I1.984 J0.
X103.209 Z-1.743 I-1.984 J0.
X107.178 Z-1.806 I1.984 J0.
X103.209 Z-1.868 I-1.984 J0.
X107.178 Z-1.93 I1.984 J0.
X103.209 Z-1.993 I-1.984 J0.
X107.178 Z-2.055 I1.984 J0.
X103.209 Z-2.117 I-1.984 J0.
X107.178 Z-2.18 I1.984 J0.
X103.209 Z-2.242 I-1.984 J0.
X107.178 Z-2.304 I1.984 J0.
X103.209 Z-2.367 I-1.984 J0.
X107.178 Z-2.429 I1.984 J0.
X103.209 Z-2.491 I-1.984 J0.
X107.178 Z-2.554 I1.984 J0.
X103.209 Z-2.616 I-1.984 J0.
X107.178 Z-2.678 I1.984 J0.
X103.209 Z-2.741 I-1.984 J0.
X107.178 Z-2.803 I1.984 J0.
X103.209 Z-2.866 I-1.984 J0.
X107.178 Z-2.928 I1.984 J0.
X103.209 Z-2.99 I-1.984 J0.
X107.178 Z-3.053 I1.984 J0.
X103.209 Z-3.115 I-1.984 J0.
X107.178 Z-3.177 I1.984 J0.
X103.209 Z-3.24 I-1.984 J0.
X107.178 Z-3.302 I1.984 J0.
X103.209 Z-3.364 I-1.984 J0.
X107.178 Z-3.427 I1.984 J0.
X103.209 Z-3.489 I-1.984 J0.
X107.178 Z-3.551 I1.984 J0.
X103.209 Z-3.614 I-1.984 J0.
X107.178 Z-3.676 I1.984 J0.
X103.209 Z-3.738 I-1.984 J0.
X107.178 Z-3.801 I1.984 J0.
X103.209 Z-3.863 I-1.984 J0.
X107.178 Z-3.925 I1.984 J0.
X103.209 Z-3.988 I-1.984 J0.
X107.178 Z-4.05 I1.984 J0.
X103.209 Z-4.112 I-1.984 J0.
X107.178 Z-4.175 I1.984 J0.
X103.209 Z-4.237 I-1.984 J0.
X107.178 Z-4.3 I1.984 J0.
X103.209 Z-4.362 I-1.984 J0.
X107.178 Z-4.424 I1.984 J0.
X103.209 Z-4.487 I-1.984 J0.
X107.178 Z-4.549 I1.984 J0.
X103.209 Z-4.611 I-1.984 J0.
X107.178 Z-4.674 I1.984 J0.
X103.209 Z-4.736 I-1.984 J0.
X107.178 Z-4.798 I1.984 J0.
X103.209 Z-4.861 I-1.984 J0.
X107.178 Z-4.923 I1.984 J0.
X103.209 Z-4.985 I-1.984 J0.
X107.178 Z-5.048 I1.984 J0.
X103.209 Z-5.11 I-1.984 J0.
X105.324 Y167.156 Z-5.143 I1.984 J0.
X107.161 Y164.915 Z-5.175 I-0.131 J-1.98
X103.227 Y165.437 I-1.967 J0.261
X107.161 Y164.915 I1.967 J-0.261
X106.804 Y164.642 I-0.315 J0.042
G1 X106.647 Y164.663
X106.577 Y164.672 Z-5.167
X106.51 Y164.681 Z-5.144
X106.451 Y164.689 Z-5.106
X106.401 Y164.696 Z-5.055
X106.363 Y164.701 Z-4.995
X106.34 Y164.704 Z-4.928
X106.332 Y164.705 Z-4.858
G0 Z20.

(2D CONTOUR1)
G0 Z21.
X103.13 Y154.075
Z6.
G1 Z4.135 F800.
G18 G3 X102.495 Z3.5 I-0.635 K0.
G1 X101.86
G17 G3 X101.225 Y153.44 I0. J-0.635
G1 Y124.695 Z2.496
X109.162 Z2.219
Y154.857 Z1.166
X101.225 Z0.889
Y150.889 Z0.75
Y124.695
X109.162
Y154.857
X101.225
Y150.889
Y143.729 Z0.5
Y124.695
X109.162
Y154.857
X101.225
Y143.729
Y136.57 Z0.25
Y124.695
X109.162
Y154.857
X101.225
Y143.729
Y136.57
Y129.411 Z0.
Y124.695
X109.162
Y154.857
X101.225
Y136.57
Y129.411
Y124.695 Z-0.165
X103.668 Z-0.25
X109.162
Y154.857
X101.225
Y129.411
Y124.695
X103.668
X109.162 Z-0.442
Y126.36 Z-0.5
Y154.857
X101.225
Y124.695
X109.162
Y126.36
Y133.519 Z-0.75
Y154.857
X101.225
Y124.695
X109.162
Y133.519
Y140.678 Z-1.
Y154.857
X101.225
Y124.695
X109.162
Y133.519
Y140.678
Y147.837 Z-1.25
Y154.857
X101.225
Y124.695
X109.162
Y140.678
Y147.837
Y154.857 Z-1.495
X109.023 Z-1.5
X101.225
Y124.695
X109.162
Y147.837
Y154.857
X109.023
X101.864 Z-1.75
X101.225
Y124.695
X109.162
Y154.857
X101.864
X101.225 Z-1.772
Y148.337 Z-2.
Y124.695
X109.162
Y154.857
X101.864
X101.225
Y148.337
Y141.178 Z-2.25
Y124.695
X109.162
Y154.857
X101.225
Y141.178
Y134.019 Z-2.5
Y124.695
X109.162
Y154.857
X101.225
Y141.178
Y134.019
Y126.86 Z-2.75
Y124.695
X109.162
Y154.857
X101.225
Y134.019
Y126.86
Y124.695 Z-2.826
X106.219 Z-3.
X109.162
Y154.857
X101.225
Y126.86
Y124.695
X106.219
X109.162 Z-3.103
Y128.912 Z-3.25
Y154.857
X101.225
Y124.695
X106.219
X109.162
Y128.912
Y136.071 Z-3.5
Y154.857
X101.225
Y124.695
X109.162
Y136.071
Y143.23 Z-3.75
Y154.857
X101.225
Y124.695
X109.162
Y136.071
Y143.23
Y150.389 Z-4.
Y154.857
X101.225
Y124.695
X109.162
Y143.23
Y150.389
Y154.857 Z-4.156
X106.471 Z-4.25
X101.225
Y124.695
X109.162
Y150.389
Y154.857
X106.471
X101.225 Z-4.433
Y152.944 Z-4.5
Y124.695
X109.162
Y154.857
X101.225
Y152.944
Y145.785 Z-4.75
Y124.695
X109.162
Y154.857
X101.225
Y145.785
Y138.626 Z-5.
Y124.695
X109.162
Y154.857
X101.225
Y145.785
Y138.626
Y133.615 Z-5.175
Y124.695
X109.162
Y154.857
X101.225
Y138.626
Y133.615
G3 X101.86 Y132.98 I0.635 J0.
G1 X102.495
G18 G2 X103.13 Z-4.54 I0. K0.635
G0 Z21.
G17
M5
G0 Z15
G0 X0 Y0

M9
M30
