(T1  D=6.35 CR=0. - ZMIN=-4.675 - FLAT END MILL)
G90 G94 G91.1 G40 G49 G17
G21
(7TH HOLE)
G0 Z15

(BORE13)
M5
T1 M6
S16000 M3
G54
G0 X120.478 Y-52.947
G43 Z10. H1
Z2.365
G1 Z1. F800.
Y-52.63
G3 X120.275 Y-52.427 I-0.203 J0.
Y-53.24 Z0.937 I0. J-0.406
Y-52.427 Z0.875 I0. J0.406
Y-53.24 Z0.812 I0. J-0.406
Y-52.427 Z0.75 I0. J0.406
Y-53.24 Z0.687 I0. J-0.406
Y-52.427 Z0.625 I0. J0.406
Y-53.24 Z0.562 I0. J-0.406
Y-52.427 Z0.5 I0. J0.406
Y-53.24 Z0.437 I0. J-0.406
Y-52.427 Z0.375 I0. J0.406
Y-53.24 Z0.312 I0. J-0.406
Y-52.427 Z0.25 I0. J0.406
Y-53.24 Z0.187 I0. J-0.406
Y-52.427 Z0.125 I0. J0.406
Y-53.24 Z0.062 I0. J-0.406
Y-52.427 Z0. I0. J0.406
Y-53.24 Z-0.063 I0. J-0.406
Y-52.427 Z-0.125 I0. J0.406
Y-53.24 Z-0.188 I0. J-0.406
Y-52.427 Z-0.25 I0. J0.406
Y-53.24 Z-0.313 I0. J-0.406
Y-52.427 Z-0.375 I0. J0.406
Y-53.24 Z-0.438 I0. J-0.406
Y-52.427 Z-0.5 I0. J0.406
Y-53.24 Z-0.563 I0. J-0.406
Y-52.427 Z-0.625 I0. J0.406
Y-53.24 Z-0.688 I0. J-0.406
Y-52.427 Z-0.75 I0. J0.406
Y-53.24 Z-0.813 I0. J-0.406
Y-52.427 Z-0.875 I0. J0.406
Y-53.24 Z-0.938 I0. J-0.406
Y-52.427 Z-1. I0. J0.406
Y-53.24 Z-1.063 I0. J-0.406
Y-52.427 Z-1.125 I0. J0.406
Y-53.24 Z-1.188 I0. J-0.406
Y-52.427 Z-1.25 I0. J0.406
Y-53.24 Z-1.313 I0. J-0.406
Y-52.427 Z-1.376 I0. J0.406
Y-53.24 Z-1.438 I0. J-0.406
Y-52.427 Z-1.501 I0. J0.406
Y-53.24 Z-1.563 I0. J-0.406
Y-52.427 Z-1.626 I0. J0.406
Y-53.24 Z-1.688 I0. J-0.406
Y-52.427 Z-1.751 I0. J0.406
Y-53.24 Z-1.813 I0. J-0.406
Y-52.427 Z-1.876 I0. J0.406
Y-53.24 Z-1.938 I0. J-0.406
Y-52.427 Z-2.001 I0. J0.406
Y-53.24 Z-2.063 I0. J-0.406
Y-52.427 Z-2.126 I0. J0.406
Y-53.24 Z-2.188 I0. J-0.406
Y-52.427 Z-2.251 I0. J0.406
Y-53.24 Z-2.313 I0. J-0.406
Y-52.427 Z-2.376 I0. J0.406
Y-53.24 Z-2.438 I0. J-0.406
Y-52.427 Z-2.501 I0. J0.406
Y-53.24 Z-2.563 I0. J-0.406
Y-52.427 Z-2.626 I0. J0.406
Y-53.24 Z-2.688 I0. J-0.406
Y-52.427 Z-2.751 I0. J0.406
Y-53.24 Z-2.813 I0. J-0.406
Y-52.427 Z-2.876 I0. J0.406
Y-53.24 Z-2.938 I0. J-0.406
Y-52.427 Z-3.001 I0. J0.406
Y-53.24 Z-3.063 I0. J-0.406
Y-52.427 Z-3.126 I0. J0.406
Y-53.24 Z-3.188 I0. J-0.406
Y-52.427 Z-3.251 I0. J0.406
Y-53.24 Z-3.313 I0. J-0.406
Y-52.427 Z-3.376 I0. J0.406
Y-53.24 Z-3.438 I0. J-0.406
Y-52.427 Z-3.501 I0. J0.406
Y-53.24 Z-3.563 I0. J-0.406
Y-52.427 Z-3.626 I0. J0.406
Y-53.24 Z-3.689 I0. J-0.406
Y-52.427 Z-3.751 I0. J0.406
Y-53.24 Z-3.814 I0. J-0.406
Y-52.427 Z-3.876 I0. J0.406
Y-53.24 Z-3.939 I0. J-0.406
Y-52.427 Z-4.001 I0. J0.406
Y-53.24 Z-4.064 I0. J-0.406
Y-52.427 Z-4.126 I0. J0.406
Y-53.24 Z-4.189 I0. J-0.406
Y-52.427 Z-4.251 I0. J0.406
Y-53.24 Z-4.314 I0. J-0.406
Y-52.427 Z-4.376 I0. J0.406
Y-53.24 Z-4.439 I0. J-0.406
Y-52.427 Z-4.501 I0. J0.406
Y-53.24 Z-4.564 I0. J-0.406
Y-52.427 Z-4.626 I0. J0.406
X120.016 Y-53.147 Z-4.675 I0. J-0.406
X120.534 Y-52.52 I0.259 J0.313
X120.016 Y-53.147 I-0.259 J-0.313
X120.302 Y-53.119 I0.129 J0.157
G1 X120.504 Y-52.874
G0 Z5.
X120.478 Y8.165
Z2.365
G1 Z1. F800.
Y8.482
G3 X120.275 Y8.686 I-0.203 J0.
Y7.873 Z0.937 I0. J-0.406
Y8.686 Z0.875 I0. J0.406
Y7.873 Z0.812 I0. J-0.406
Y8.686 Z0.75 I0. J0.406
Y7.873 Z0.687 I0. J-0.406
Y8.686 Z0.625 I0. J0.406
Y7.873 Z0.562 I0. J-0.406
Y8.686 Z0.5 I0. J0.406
Y7.873 Z0.437 I0. J-0.406
Y8.686 Z0.375 I0. J0.406
Y7.873 Z0.312 I0. J-0.406
Y8.686 Z0.25 I0. J0.406
Y7.873 Z0.187 I0. J-0.406
Y8.686 Z0.125 I0. J0.406
Y7.873 Z0.062 I0. J-0.406
Y8.686 Z0. I0. J0.406
Y7.873 Z-0.063 I0. J-0.406
Y8.686 Z-0.125 I0. J0.406
Y7.873 Z-0.188 I0. J-0.406
Y8.686 Z-0.25 I0. J0.406
Y7.873 Z-0.313 I0. J-0.406
Y8.686 Z-0.375 I0. J0.406
Y7.873 Z-0.438 I0. J-0.406
Y8.686 Z-0.5 I0. J0.406
Y7.873 Z-0.563 I0. J-0.406
Y8.686 Z-0.625 I0. J0.406
Y7.873 Z-0.688 I0. J-0.406
Y8.686 Z-0.75 I0. J0.406
Y7.873 Z-0.813 I0. J-0.406
Y8.686 Z-0.875 I0. J0.406
Y7.873 Z-0.938 I0. J-0.406
Y8.686 Z-1. I0. J0.406
Y7.873 Z-1.063 I0. J-0.406
Y8.686 Z-1.125 I0. J0.406
Y7.873 Z-1.188 I0. J-0.406
Y8.686 Z-1.25 I0. J0.406
Y7.873 Z-1.313 I0. J-0.406
Y8.686 Z-1.376 I0. J0.406
Y7.873 Z-1.438 I0. J-0.406
Y8.686 Z-1.501 I0. J0.406
Y7.873 Z-1.563 I0. J-0.406
Y8.686 Z-1.626 I0. J0.406
Y7.873 Z-1.688 I0. J-0.406
Y8.686 Z-1.751 I0. J0.406
Y7.873 Z-1.813 I0. J-0.406
Y8.686 Z-1.876 I0. J0.406
Y7.873 Z-1.938 I0. J-0.406
Y8.686 Z-2.001 I0. J0.406
Y7.873 Z-2.063 I0. J-0.406
Y8.686 Z-2.126 I0. J0.406
Y7.873 Z-2.188 I0. J-0.406
Y8.686 Z-2.251 I0. J0.406
Y7.873 Z-2.313 I0. J-0.406
Y8.686 Z-2.376 I0. J0.406
Y7.873 Z-2.438 I0. J-0.406
Y8.686 Z-2.501 I0. J0.406
Y7.873 Z-2.563 I0. J-0.406
Y8.686 Z-2.626 I0. J0.406
Y7.873 Z-2.688 I0. J-0.406
Y8.686 Z-2.751 I0. J0.406
Y7.873 Z-2.813 I0. J-0.406
Y8.686 Z-2.876 I0. J0.406
Y7.873 Z-2.938 I0. J-0.406
Y8.686 Z-3.001 I0. J0.406
Y7.873 Z-3.063 I0. J-0.406
Y8.686 Z-3.126 I0. J0.406
Y7.873 Z-3.188 I0. J-0.406
Y8.686 Z-3.251 I0. J0.406
Y7.873 Z-3.313 I0. J-0.406
Y8.686 Z-3.376 I0. J0.406
Y7.873 Z-3.438 I0. J-0.406
Y8.686 Z-3.501 I0. J0.406
Y7.873 Z-3.563 I0. J-0.406
Y8.686 Z-3.626 I0. J0.406
Y7.873 Z-3.689 I0. J-0.406
Y8.686 Z-3.751 I0. J0.406
Y7.873 Z-3.814 I0. J-0.406
Y8.686 Z-3.876 I0. J0.406
Y7.873 Z-3.939 I0. J-0.406
Y8.686 Z-4.001 I0. J0.406
Y7.873 Z-4.064 I0. J-0.406
Y8.686 Z-4.126 I0. J0.406
Y7.873 Z-4.189 I0. J-0.406
Y8.686 Z-4.251 I0. J0.406
Y7.873 Z-4.314 I0. J-0.406
Y8.686 Z-4.376 I0. J0.406
Y7.873 Z-4.439 I0. J-0.406
Y8.686 Z-4.501 I0. J0.406
Y7.873 Z-4.564 I0. J-0.406
Y8.686 Z-4.626 I0. J0.406
X120.016 Y7.966 Z-4.675 I0. J-0.406
X120.534 Y8.593 I0.259 J0.313
X120.016 Y7.966 I-0.259 J-0.313
X120.302 Y7.993 I0.129 J0.157
G1 X120.504 Y8.238
G0 Z10.

(BORE14)
G0 Z20.
X120.91 Y-20.69
Z3.
G1 Z1.635 F800.
G19 G3 Y-20.055 Z1. J0.635 K0.
G1 Y-19.737
G17 G3 X120.275 Y-19.102 I-0.635 J0.
Y-25.452 Z0.889 I0. J-3.175
Y-19.102 Z0.778 I0. J3.175
Y-25.452 Z0.667 I0. J-3.175
Y-19.102 Z0.557 I0. J3.175
Y-25.452 Z0.446 I0. J-3.175
Y-19.102 Z0.335 I0. J3.175
Y-25.452 Z0.224 I0. J-3.175
Y-19.102 Z0.113 I0. J3.175
Y-25.452 Z0.002 I0. J-3.175
Y-19.102 Z-0.108 I0. J3.175
Y-25.452 Z-0.219 I0. J-3.175
Y-19.102 Z-0.33 I0. J3.175
Y-25.452 Z-0.441 I0. J-3.175
Y-19.102 Z-0.552 I0. J3.175
Y-25.452 Z-0.663 I0. J-3.175
Y-19.102 Z-0.773 I0. J3.175
Y-25.452 Z-0.884 I0. J-3.175
Y-19.102 Z-0.995 I0. J3.175
Y-25.452 Z-1.106 I0. J-3.175
Y-19.102 Z-1.217 I0. J3.175
Y-25.452 Z-1.328 I0. J-3.175
Y-19.102 Z-1.438 I0. J3.175
Y-25.452 Z-1.549 I0. J-3.175
Y-19.102 Z-1.66 I0. J3.175
Y-25.452 Z-1.771 I0. J-3.175
Y-19.102 Z-1.882 I0. J3.175
Y-25.452 Z-1.993 I0. J-3.175
Y-19.102 Z-2.104 I0. J3.175
Y-25.452 Z-2.214 I0. J-3.175
Y-19.102 Z-2.325 I0. J3.175
Y-25.452 Z-2.436 I0. J-3.175
Y-19.102 Z-2.547 I0. J3.175
Y-25.452 Z-2.658 I0. J-3.175
Y-19.102 Z-2.769 I0. J3.175
Y-25.452 Z-2.879 I0. J-3.175
Y-19.102 Z-2.99 I0. J3.175
Y-25.452 Z-3.101 I0. J-3.175
Y-19.102 Z-3.212 I0. J3.175
Y-25.452 Z-3.323 I0. J-3.175
Y-19.102 Z-3.434 I0. J3.175
Y-25.452 Z-3.544 I0. J-3.175
Y-19.102 Z-3.655 I0. J3.175
Y-25.452 Z-3.766 I0. J-3.175
Y-19.102 Z-3.877 I0. J3.175
Y-25.452 Z-3.988 I0. J-3.175
Y-19.102 Z-4.099 I0. J3.175
Y-25.452 Z-4.209 I0. J-3.175
Y-19.102 Z-4.32 I0. J3.175
Y-25.452 Z-4.431 I0. J-3.175
Y-19.102 Z-4.542 I0. J3.175
Y-25.452 Z-4.653 I0. J-3.175
X122.142 Y-24.845 Z-4.675 I0. J3.175
X118.408 Y-19.709 I-1.867 J2.568
X122.142 Y-24.845 I1.867 J-2.568
X122.282 Y-23.958 I-0.373 J0.514
G1 X122.095 Y-23.701
X122.037 Y-23.621 Z-4.667
X121.98 Y-23.543 Z-4.644
X121.926 Y-23.468 Z-4.606
X121.876 Y-23.399 Z-4.554
X121.831 Y-23.338 Z-4.489
X121.793 Y-23.286 Z-4.413
X121.763 Y-23.244 Z-4.328
X121.74 Y-23.213 Z-4.236
X121.727 Y-23.194 Z-4.139
X121.722 Y-23.188 Z-4.04
G0 Z5.
X120.91 Y-17.514
Z3.
G1 Z1.635 F800.
G19 G3 Y-16.879 Z1. J0.635 K0.
G1 Y-16.562
G17 G3 X120.275 Y-15.927 I-0.635 J0.
Y-28.627 Z0.834 I0. J-6.35
Y-15.927 Z0.667 I0. J6.35
Y-28.627 Z0.501 I0. J-6.35
Y-15.927 Z0.335 I0. J6.35
Y-28.627 Z0.169 I0. J-6.35
Y-15.927 Z0.002 I0. J6.35
Y-28.627 Z-0.164 I0. J-6.35
Y-15.927 Z-0.33 I0. J6.35
Y-28.627 Z-0.496 I0. J-6.35
Y-15.927 Z-0.663 I0. J6.35
Y-28.627 Z-0.829 I0. J-6.35
Y-15.927 Z-0.995 I0. J6.35
Y-28.627 Z-1.161 I0. J-6.35
Y-15.927 Z-1.328 I0. J6.35
Y-28.627 Z-1.494 I0. J-6.35
Y-15.927 Z-1.66 I0. J6.35
Y-28.627 Z-1.826 I0. J-6.35
Y-15.927 Z-1.993 I0. J6.35
Y-28.627 Z-2.159 I0. J-6.35
Y-15.927 Z-2.325 I0. J6.35
Y-28.627 Z-2.491 I0. J-6.35
Y-15.927 Z-2.658 I0. J6.35
Y-28.627 Z-2.824 I0. J-6.35
Y-15.927 Z-2.99 I0. J6.35
Y-28.627 Z-3.156 I0. J-6.35
Y-15.927 Z-3.323 I0. J6.35
Y-28.627 Z-3.489 I0. J-6.35
Y-15.927 Z-3.655 I0. J6.35
Y-28.627 Z-3.822 I0. J-6.35
Y-15.927 Z-3.988 I0. J6.35
Y-28.627 Z-4.154 I0. J-6.35
Y-15.927 Z-4.32 I0. J6.35
Y-28.627 Z-4.487 I0. J-6.35
Y-15.927 Z-4.653 I0. J6.35
X117.691 Y-16.476 Z-4.675 I0. J-6.35
X122.859 Y-28.078 I2.584 J-5.801
X117.691 Y-16.476 I-2.584 J5.801
X117.37 Y-17.315 I0.258 J-0.58
G1 X117.499 Y-17.605
X117.539 Y-17.696 Z-4.667
X117.579 Y-17.784 Z-4.644
X117.616 Y-17.868 Z-4.606
X117.651 Y-17.946 Z-4.554
X117.681 Y-18.015 Z-4.489
X117.708 Y-18.074 Z-4.413
X117.729 Y-18.122 Z-4.328
X117.744 Y-18.157 Z-4.236
X117.754 Y-18.178 Z-4.139
X117.757 Y-18.185 Z-4.04
G0 Z20.
M5
G0 Z15
G0 X0 Y0

M30
