(T1  D=6.35 CR=0. - ZMIN=-5.175 - FLAT END MILL)
G90 G94 G91.1 G40 G49 G17
G21
(5TH HOLE )
G0 Z15

(BORE8)
M5
T1 M6
S16000 M3
G54
M8
G0 X120.473 Y-90.983
G43 Z20. H1
Z2.365
G1 Z1. F800.
Y-91.301
G2 X120.275 Y-91.499 I-0.198 J0.
Y-90.705 Z0.938 I0. J0.397
Y-91.499 Z0.875 I0. J-0.397
Y-90.705 Z0.813 I0. J0.397
Y-91.499 Z0.751 I0. J-0.397
Y-90.705 Z0.688 I0. J0.397
Y-91.499 Z0.626 I0. J-0.397
Y-90.705 Z0.564 I0. J0.397
Y-91.499 Z0.501 I0. J-0.397
Y-90.705 Z0.439 I0. J0.397
Y-91.499 Z0.377 I0. J-0.397
Y-90.705 Z0.314 I0. J0.397
Y-91.499 Z0.252 I0. J-0.397
Y-90.705 Z0.189 I0. J0.397
Y-91.499 Z0.127 I0. J-0.397
Y-90.705 Z0.065 I0. J0.397
Y-91.499 Z0.002 I0. J-0.397
Y-90.705 Z-0.06 I0. J0.397
Y-91.499 Z-0.122 I0. J-0.397
Y-90.705 Z-0.185 I0. J0.397
Y-91.499 Z-0.247 I0. J-0.397
Y-90.705 Z-0.309 I0. J0.397
Y-91.499 Z-0.372 I0. J-0.397
Y-90.705 Z-0.434 I0. J0.397
Y-91.499 Z-0.496 I0. J-0.397
Y-90.705 Z-0.559 I0. J0.397
Y-91.499 Z-0.621 I0. J-0.397
Y-90.705 Z-0.683 I0. J0.397
Y-91.499 Z-0.746 I0. J-0.397
Y-90.705 Z-0.808 I0. J0.397
Y-91.499 Z-0.87 I0. J-0.397
Y-90.705 Z-0.933 I0. J0.397
Y-91.499 Z-0.995 I0. J-0.397
Y-90.705 Z-1.057 I0. J0.397
Y-91.499 Z-1.12 I0. J-0.397
Y-90.705 Z-1.182 I0. J0.397
Y-91.499 Z-1.245 I0. J-0.397
Y-90.705 Z-1.307 I0. J0.397
Y-91.499 Z-1.369 I0. J-0.397
Y-90.705 Z-1.432 I0. J0.397
Y-91.499 Z-1.494 I0. J-0.397
Y-90.705 Z-1.556 I0. J0.397
Y-91.499 Z-1.619 I0. J-0.397
Y-90.705 Z-1.681 I0. J0.397
Y-91.499 Z-1.743 I0. J-0.397
Y-90.705 Z-1.806 I0. J0.397
Y-91.499 Z-1.868 I0. J-0.397
Y-90.705 Z-1.93 I0. J0.397
Y-91.499 Z-1.993 I0. J-0.397
Y-90.705 Z-2.055 I0. J0.397
Y-91.499 Z-2.117 I0. J-0.397
Y-90.705 Z-2.18 I0. J0.397
Y-91.499 Z-2.242 I0. J-0.397
Y-90.705 Z-2.304 I0. J0.397
Y-91.499 Z-2.367 I0. J-0.397
Y-90.705 Z-2.429 I0. J0.397
Y-91.499 Z-2.491 I0. J-0.397
Y-90.705 Z-2.554 I0. J0.397
Y-91.499 Z-2.616 I0. J-0.397
Y-90.705 Z-2.678 I0. J0.397
Y-91.499 Z-2.741 I0. J-0.397
Y-90.705 Z-2.803 I0. J0.397
Y-91.499 Z-2.866 I0. J-0.397
Y-90.705 Z-2.928 I0. J0.397
Y-91.499 Z-2.99 I0. J-0.397
Y-90.705 Z-3.053 I0. J0.397
Y-91.499 Z-3.115 I0. J-0.397
Y-90.705 Z-3.177 I0. J0.397
Y-91.499 Z-3.24 I0. J-0.397
Y-90.705 Z-3.302 I0. J0.397
Y-91.499 Z-3.364 I0. J-0.397
Y-90.705 Z-3.427 I0. J0.397
Y-91.499 Z-3.489 I0. J-0.397
Y-90.705 Z-3.551 I0. J0.397
Y-91.499 Z-3.614 I0. J-0.397
Y-90.705 Z-3.676 I0. J0.397
Y-91.499 Z-3.738 I0. J-0.397
Y-90.705 Z-3.801 I0. J0.397
Y-91.499 Z-3.863 I0. J-0.397
Y-90.705 Z-3.925 I0. J0.397
Y-91.499 Z-3.988 I0. J-0.397
Y-90.705 Z-4.05 I0. J0.397
Y-91.499 Z-4.112 I0. J-0.397
Y-90.705 Z-4.175 I0. J0.397
Y-91.499 Z-4.237 I0. J-0.397
Y-90.705 Z-4.3 I0. J0.397
Y-91.499 Z-4.362 I0. J-0.397
Y-90.705 Z-4.424 I0. J0.397
Y-91.499 Z-4.487 I0. J-0.397
Y-90.705 Z-4.549 I0. J0.397
Y-91.499 Z-4.611 I0. J-0.397
Y-90.705 Z-4.674 I0. J0.397
Y-91.499 Z-4.736 I0. J-0.397
Y-90.705 Z-4.798 I0. J0.397
Y-91.499 Z-4.861 I0. J-0.397
Y-90.705 Z-4.923 I0. J0.397
Y-91.499 Z-4.985 I0. J-0.397
Y-90.705 Z-5.048 I0. J0.397
Y-91.499 Z-5.11 I0. J-0.397
X119.879 Y-91.076 Z-5.143 I0. J0.397
X120.327 Y-90.709 Z-5.175 I0.396 J-0.026
X120.223 Y-91.496 I-0.052 J-0.393
X120.327 Y-90.709 I0.052 J0.393
X120.498 Y-90.932 I-0.026 J-0.197
G1 X120.456 Y-91.246
G0 Z5.
X120.91 Y-79.719
Z3.
G1 Z1.635 F800.
G19 G2 Y-80.354 Z1. J-0.635 K0.
G1 Y-80.671
G17 G2 X120.275 Y-81.306 I-0.635 J0.
Y-74.956 Z0.889 I0. J3.175
Y-81.306 Z0.778 I0. J-3.175
Y-74.956 Z0.667 I0. J3.175
Y-81.306 Z0.557 I0. J-3.175
Y-74.956 Z0.446 I0. J3.175
Y-81.306 Z0.335 I0. J-3.175
Y-74.956 Z0.224 I0. J3.175
Y-81.306 Z0.113 I0. J-3.175
Y-74.956 Z0.002 I0. J3.175
Y-81.306 Z-0.108 I0. J-3.175
Y-74.956 Z-0.219 I0. J3.175
Y-81.306 Z-0.33 I0. J-3.175
Y-74.956 Z-0.441 I0. J3.175
Y-81.306 Z-0.552 I0. J-3.175
Y-74.956 Z-0.663 I0. J3.175
Y-81.306 Z-0.773 I0. J-3.175
Y-74.956 Z-0.884 I0. J3.175
Y-81.306 Z-0.995 I0. J-3.175
Y-74.956 Z-1.106 I0. J3.175
Y-81.306 Z-1.217 I0. J-3.175
Y-74.956 Z-1.328 I0. J3.175
Y-81.306 Z-1.438 I0. J-3.175
Y-74.956 Z-1.549 I0. J3.175
Y-81.306 Z-1.66 I0. J-3.175
Y-74.956 Z-1.771 I0. J3.175
Y-81.306 Z-1.882 I0. J-3.175
Y-74.956 Z-1.993 I0. J3.175
Y-81.306 Z-2.104 I0. J-3.175
Y-74.956 Z-2.214 I0. J3.175
Y-81.306 Z-2.325 I0. J-3.175
Y-74.956 Z-2.436 I0. J3.175
Y-81.306 Z-2.547 I0. J-3.175
Y-74.956 Z-2.658 I0. J3.175
Y-81.306 Z-2.769 I0. J-3.175
Y-74.956 Z-2.879 I0. J3.175
Y-81.306 Z-2.99 I0. J-3.175
Y-74.956 Z-3.101 I0. J3.175
Y-81.306 Z-3.212 I0. J-3.175
Y-74.956 Z-3.323 I0. J3.175
Y-81.306 Z-3.434 I0. J-3.175
Y-74.956 Z-3.544 I0. J3.175
Y-81.306 Z-3.655 I0. J-3.175
Y-74.956 Z-3.766 I0. J3.175
Y-81.306 Z-3.877 I0. J-3.175
Y-74.956 Z-3.988 I0. J3.175
Y-81.306 Z-4.099 I0. J-3.175
Y-74.956 Z-4.209 I0. J3.175
Y-81.306 Z-4.32 I0. J-3.175
Y-74.956 Z-4.431 I0. J3.175
Y-81.306 Z-4.542 I0. J-3.175
Y-74.956 Z-4.653 I0. J3.175
Y-81.306 Z-4.764 I0. J-3.175
Y-74.956 Z-4.875 I0. J3.175
Y-81.306 Z-4.985 I0. J-3.175
Y-74.956 Z-5.096 I0. J3.175
X122.777 Y-80.086 Z-5.175 I0. J-3.175
X117.773 Y-76.177 I-2.502 J1.955
X122.777 Y-80.086 I2.502 J-1.955
X121.886 Y-80.195 I-0.5 J0.391
G1 X121.635 Y-80.
X121.557 Y-79.939 Z-5.167
X121.481 Y-79.879 Z-5.144
X121.408 Y-79.822 Z-5.106
X121.341 Y-79.77 Z-5.054
X121.282 Y-79.723 Z-4.989
X121.231 Y-79.684 Z-4.913
X121.19 Y-79.652 Z-4.828
X121.16 Y-79.628 Z-4.736
X121.141 Y-79.614 Z-4.639
X121.135 Y-79.609 Z-4.54
G0 Z5.
X120.91 Y-18.606
Z3.
G1 Z1.635 F800.
G19 G2 Y-19.241 Z1. J-0.635 K0.
G1 Y-19.559
G17 G2 X120.275 Y-20.194 I-0.635 J0.
Y-13.844 Z0.889 I0. J3.175
Y-20.194 Z0.778 I0. J-3.175
Y-13.844 Z0.667 I0. J3.175
Y-20.194 Z0.557 I0. J-3.175
Y-13.844 Z0.446 I0. J3.175
Y-20.194 Z0.335 I0. J-3.175
Y-13.844 Z0.224 I0. J3.175
Y-20.194 Z0.113 I0. J-3.175
Y-13.844 Z0.002 I0. J3.175
Y-20.194 Z-0.108 I0. J-3.175
Y-13.844 Z-0.219 I0. J3.175
Y-20.194 Z-0.33 I0. J-3.175
Y-13.844 Z-0.441 I0. J3.175
Y-20.194 Z-0.552 I0. J-3.175
Y-13.844 Z-0.663 I0. J3.175
Y-20.194 Z-0.773 I0. J-3.175
Y-13.844 Z-0.884 I0. J3.175
Y-20.194 Z-0.995 I0. J-3.175
Y-13.844 Z-1.106 I0. J3.175
Y-20.194 Z-1.217 I0. J-3.175
Y-13.844 Z-1.328 I0. J3.175
Y-20.194 Z-1.438 I0. J-3.175
Y-13.844 Z-1.549 I0. J3.175
Y-20.194 Z-1.66 I0. J-3.175
Y-13.844 Z-1.771 I0. J3.175
Y-20.194 Z-1.882 I0. J-3.175
Y-13.844 Z-1.993 I0. J3.175
Y-20.194 Z-2.104 I0. J-3.175
Y-13.844 Z-2.214 I0. J3.175
Y-20.194 Z-2.325 I0. J-3.175
Y-13.844 Z-2.436 I0. J3.175
Y-20.194 Z-2.547 I0. J-3.175
Y-13.844 Z-2.658 I0. J3.175
Y-20.194 Z-2.769 I0. J-3.175
Y-13.844 Z-2.879 I0. J3.175
Y-20.194 Z-2.99 I0. J-3.175
Y-13.844 Z-3.101 I0. J3.175
Y-20.194 Z-3.212 I0. J-3.175
Y-13.844 Z-3.323 I0. J3.175
Y-20.194 Z-3.434 I0. J-3.175
Y-13.844 Z-3.544 I0. J3.175
Y-20.194 Z-3.655 I0. J-3.175
Y-13.844 Z-3.766 I0. J3.175
Y-20.194 Z-3.877 I0. J-3.175
Y-13.844 Z-3.988 I0. J3.175
Y-20.194 Z-4.099 I0. J-3.175
Y-13.844 Z-4.209 I0. J3.175
Y-20.194 Z-4.32 I0. J-3.175
Y-13.844 Z-4.431 I0. J3.175
Y-20.194 Z-4.542 I0. J-3.175
Y-13.844 Z-4.653 I0. J3.175
Y-20.194 Z-4.764 I0. J-3.175
Y-13.844 Z-4.875 I0. J3.175
Y-20.194 Z-4.985 I0. J-3.175
Y-13.844 Z-5.096 I0. J3.175
X122.777 Y-18.973 Z-5.175 I0. J-3.175
X117.773 Y-15.064 I-2.502 J1.955
X122.777 Y-18.973 I2.502 J-1.955
X121.886 Y-19.083 I-0.5 J0.391
G1 X121.635 Y-18.887
X121.557 Y-18.826 Z-5.167
X121.481 Y-18.767 Z-5.144
X121.408 Y-18.71 Z-5.106
X121.341 Y-18.658 Z-5.054
X121.282 Y-18.611 Z-4.989
X121.231 Y-18.571 Z-4.913
X121.19 Y-18.539 Z-4.828
X121.16 Y-18.516 Z-4.736
X121.141 Y-18.501 Z-4.639
X121.135 Y-18.497 Z-4.54
G0 Z20.
M9

(BORE9)
G0 X120.91 Y-49.162
Z20.
Z3.
G1 Z1.635 F800.
G19 G2 Y-49.798 Z1. J-0.635 K0.
G1 Y-50.115
G17 G2 X120.275 Y-50.75 I-0.635 J0.
Y-44.4 Z0.889 I0. J3.175
Y-50.75 Z0.778 I0. J-3.175
Y-44.4 Z0.667 I0. J3.175
Y-50.75 Z0.557 I0. J-3.175
Y-44.4 Z0.446 I0. J3.175
Y-50.75 Z0.335 I0. J-3.175
Y-44.4 Z0.224 I0. J3.175
Y-50.75 Z0.113 I0. J-3.175
Y-44.4 Z0.002 I0. J3.175
Y-50.75 Z-0.108 I0. J-3.175
Y-44.4 Z-0.219 I0. J3.175
Y-50.75 Z-0.33 I0. J-3.175
Y-44.4 Z-0.441 I0. J3.175
Y-50.75 Z-0.552 I0. J-3.175
Y-44.4 Z-0.663 I0. J3.175
Y-50.75 Z-0.773 I0. J-3.175
Y-44.4 Z-0.884 I0. J3.175
Y-50.75 Z-0.995 I0. J-3.175
Y-44.4 Z-1.106 I0. J3.175
Y-50.75 Z-1.217 I0. J-3.175
Y-44.4 Z-1.328 I0. J3.175
Y-50.75 Z-1.438 I0. J-3.175
Y-44.4 Z-1.549 I0. J3.175
Y-50.75 Z-1.66 I0. J-3.175
Y-44.4 Z-1.771 I0. J3.175
Y-50.75 Z-1.882 I0. J-3.175
Y-44.4 Z-1.993 I0. J3.175
Y-50.75 Z-2.104 I0. J-3.175
Y-44.4 Z-2.214 I0. J3.175
Y-50.75 Z-2.325 I0. J-3.175
Y-44.4 Z-2.436 I0. J3.175
Y-50.75 Z-2.547 I0. J-3.175
Y-44.4 Z-2.658 I0. J3.175
Y-50.75 Z-2.769 I0. J-3.175
Y-44.4 Z-2.879 I0. J3.175
Y-50.75 Z-2.99 I0. J-3.175
Y-44.4 Z-3.101 I0. J3.175
Y-50.75 Z-3.212 I0. J-3.175
Y-44.4 Z-3.323 I0. J3.175
Y-50.75 Z-3.434 I0. J-3.175
Y-44.4 Z-3.544 I0. J3.175
Y-50.75 Z-3.655 I0. J-3.175
Y-44.4 Z-3.766 I0. J3.175
Y-50.75 Z-3.877 I0. J-3.175
Y-44.4 Z-3.988 I0. J3.175
Y-50.75 Z-4.099 I0. J-3.175
Y-44.4 Z-4.209 I0. J3.175
Y-50.75 Z-4.32 I0. J-3.175
Y-44.4 Z-4.431 I0. J3.175
Y-50.75 Z-4.542 I0. J-3.175
Y-44.4 Z-4.653 I0. J3.175
Y-50.75 Z-4.764 I0. J-3.175
Y-44.4 Z-4.875 I0. J3.175
Y-50.75 Z-4.985 I0. J-3.175
Y-44.4 Z-5.096 I0. J3.175
X122.777 Y-49.53 Z-5.175 I0. J-3.175
X117.773 Y-45.62 I-2.502 J1.955
X122.777 Y-49.53 I2.502 J-1.955
X121.886 Y-49.639 I-0.5 J0.391
G1 X121.635 Y-49.444
X121.557 Y-49.383 Z-5.167
X121.481 Y-49.323 Z-5.144
X121.408 Y-49.266 Z-5.106
X121.341 Y-49.214 Z-5.054
X121.282 Y-49.167 Z-4.989
X121.231 Y-49.127 Z-4.913
X121.19 Y-49.095 Z-4.828
X121.16 Y-49.072 Z-4.736
X121.141 Y-49.058 Z-4.639
X121.135 Y-49.053 Z-4.54
G0 Z5.
X120.91 Y-52.338
Z3.
G1 Z1.635 F800.
G19 G2 Y-52.972 Z1. J-0.635 K0.
G1 Y-53.29
G17 G2 X120.275 Y-53.925 I-0.635 J0.
Y-41.225 Z0.834 I0. J6.35
Y-53.925 Z0.667 I0. J-6.35
Y-41.225 Z0.501 I0. J6.35
Y-53.925 Z0.335 I0. J-6.35
Y-41.225 Z0.169 I0. J6.35
Y-53.925 Z0.002 I0. J-6.35
Y-41.225 Z-0.164 I0. J6.35
Y-53.925 Z-0.33 I0. J-6.35
Y-41.225 Z-0.496 I0. J6.35
Y-53.925 Z-0.663 I0. J-6.35
Y-41.225 Z-0.829 I0. J6.35
Y-53.925 Z-0.995 I0. J-6.35
Y-41.225 Z-1.161 I0. J6.35
Y-53.925 Z-1.328 I0. J-6.35
Y-41.225 Z-1.494 I0. J6.35
Y-53.925 Z-1.66 I0. J-6.35
Y-41.225 Z-1.826 I0. J6.35
Y-53.925 Z-1.993 I0. J-6.35
Y-41.225 Z-2.159 I0. J6.35
Y-53.925 Z-2.325 I0. J-6.35
Y-41.225 Z-2.491 I0. J6.35
Y-53.925 Z-2.658 I0. J-6.35
Y-41.225 Z-2.824 I0. J6.35
Y-53.925 Z-2.99 I0. J-6.35
Y-41.225 Z-3.156 I0. J6.35
Y-53.925 Z-3.323 I0. J-6.35
Y-41.225 Z-3.489 I0. J6.35
Y-53.925 Z-3.655 I0. J-6.35
Y-41.225 Z-3.822 I0. J6.35
Y-53.925 Z-3.988 I0. J-6.35
Y-41.225 Z-4.154 I0. J6.35
Y-53.925 Z-4.32 I0. J-6.35
Y-41.225 Z-4.487 I0. J6.35
Y-53.925 Z-4.653 I0. J-6.35
Y-41.225 Z-4.819 I0. J6.35
Y-53.925 Z-4.985 I0. J-6.35
Y-41.225 Z-5.152 I0. J6.35
X122.992 Y-41.836 Z-5.175 I0. J-6.35
X117.558 Y-53.314 I-2.717 J-5.739
X122.992 Y-41.836 I2.717 J5.739
X123.294 Y-42.681 I-0.272 J-0.574
G1 X123.158 Y-42.968
X123.116 Y-43.058 Z-5.167
X123.074 Y-43.146 Z-5.144
X123.035 Y-43.229 Z-5.106
X122.999 Y-43.306 Z-5.054
X122.966 Y-43.374 Z-4.989
X122.939 Y-43.433 Z-4.913
X122.916 Y-43.48 Z-4.828
X122.9 Y-43.514 Z-4.736
X122.89 Y-43.535 Z-4.639
X122.887 Y-43.542 Z-4.54
G0 Z20.

(BORE11)
G0 X120.91 Y0.05
Z20.
Z3.
G1 Z1.635 F800.
G19 G2 Y-0.585 Z1. J-0.635 K0.
G1 Y-0.902
G17 G2 X120.275 Y-1.538 I-0.635 J0.
Y7.987 Z0.861 I0. J4.762
Y-1.538 Z0.723 I0. J-4.762
Y7.987 Z0.584 I0. J4.763
Y-1.538 Z0.446 I0. J-4.763
Y7.988 Z0.307 I0. J4.763
Y-1.538 Z0.169 I0. J-4.763
Y7.988 Z0.03 I0. J4.763
Y-1.538 Z-0.108 I0. J-4.763
Y7.988 Z-0.247 I0. J4.763
Y-1.538 Z-0.385 I0. J-4.763
Y7.988 Z-0.524 I0. J4.763
Y-1.538 Z-0.663 I0. J-4.763
Y7.988 Z-0.801 I0. J4.763
Y-1.538 Z-0.94 I0. J-4.763
Y7.988 Z-1.078 I0. J4.763
Y-1.538 Z-1.217 I0. J-4.763
Y7.988 Z-1.355 I0. J4.763
Y-1.538 Z-1.494 I0. J-4.763
Y7.988 Z-1.632 I0. J4.763
Y-1.538 Z-1.771 I0. J-4.763
Y7.988 Z-1.91 I0. J4.763
Y-1.538 Z-2.048 I0. J-4.763
Y7.988 Z-2.187 I0. J4.763
Y-1.538 Z-2.325 I0. J-4.763
Y7.988 Z-2.464 I0. J4.763
Y-1.538 Z-2.602 I0. J-4.763
Y7.988 Z-2.741 I0. J4.763
Y-1.538 Z-2.879 I0. J-4.763
Y7.988 Z-3.018 I0. J4.763
Y-1.538 Z-3.156 I0. J-4.763
Y7.988 Z-3.295 I0. J4.763
Y-1.538 Z-3.434 I0. J-4.763
Y7.988 Z-3.572 I0. J4.763
Y-1.538 Z-3.711 I0. J-4.763
Y7.988 Z-3.849 I0. J4.763
Y-1.538 Z-3.988 I0. J-4.763
Y7.988 Z-4.126 I0. J4.763
Y-1.538 Z-4.265 I0. J-4.763
Y7.988 Z-4.403 I0. J4.763
Y-1.538 Z-4.542 I0. J-4.763
Y7.988 Z-4.681 I0. J4.763
Y-1.538 Z-4.819 I0. J-4.763
Y7.988 Z-4.958 I0. J4.763
Y-1.538 Z-5.096 I0. J-4.763
X115.624 Y4.248 Z-5.175 I0. J4.763
X124.926 Y2.202 I4.651 J-1.023
X115.624 Y4.248 I-4.651 J1.023
X116.38 Y4.731 I0.62 J-0.136
G1 X116.69 Y4.663
X116.787 Y4.642 Z-5.167
X116.882 Y4.621 Z-5.144
X116.972 Y4.601 Z-5.106
X117.055 Y4.583 Z-5.054
X117.129 Y4.567 Z-4.989
X117.192 Y4.553 Z-4.913
X117.243 Y4.542 Z-4.828
X117.28 Y4.534 Z-4.736
X117.303 Y4.529 Z-4.639
X117.31 Y4.527 Z-4.54
G0 Z5.
X120.91 Y-3.125
Z3.
G1 Z1.635 F800.
G19 G2 Y-3.76 Z1. J-0.635 K0.
G1 Y-4.077
G17 G2 X120.275 Y-4.713 I-0.635 J0.
Y11.162 Z0.806 I0. J7.938
Y-4.712 Z0.612 I0. J-7.937
Y11.162 Z0.418 I0. J7.937
Y-4.712 Z0.224 I0. J-7.937
Y11.162 Z0.03 I0. J7.937
Y-4.712 Z-0.164 I0. J-7.937
Y11.162 Z-0.358 I0. J7.937
Y-4.712 Z-0.552 I0. J-7.937
Y11.162 Z-0.746 I0. J7.937
Y-4.712 Z-0.94 I0. J-7.937
Y11.162 Z-1.134 I0. J7.937
Y-4.712 Z-1.328 I0. J-7.937
Y11.162 Z-1.522 I0. J7.937
Y-4.712 Z-1.716 I0. J-7.937
Y11.162 Z-1.91 I0. J7.937
Y-4.712 Z-2.104 I0. J-7.937
Y11.162 Z-2.297 I0. J7.937
Y-4.712 Z-2.491 I0. J-7.937
Y11.162 Z-2.685 I0. J7.937
Y-4.712 Z-2.879 I0. J-7.937
Y11.162 Z-3.073 I0. J7.937
Y-4.712 Z-3.267 I0. J-7.937
Y11.162 Z-3.461 I0. J7.937
Y-4.712 Z-3.655 I0. J-7.937
Y11.162 Z-3.849 I0. J7.937
Y-4.712 Z-4.043 I0. J-7.937
Y11.162 Z-4.237 I0. J7.937
Y-4.712 Z-4.431 I0. J-7.937
Y11.162 Z-4.625 I0. J7.937
Y-4.712 Z-4.819 I0. J-7.937
Y11.162 Z-5.013 I0. J7.937
X124.21 Y-3.669 Z-5.175 I0. J-7.937
X116.34 Y10.119 I-3.935 J6.894
X124.21 Y-3.669 I3.935 J-6.894
X123.343 Y-3.432 I-0.315 J0.551
G1 X123.186 Y-3.156
X123.137 Y-3.07 Z-5.167
X123.089 Y-2.986 Z-5.144
X123.043 Y-2.906 Z-5.106
X123.001 Y-2.832 Z-5.054
X122.963 Y-2.766 Z-4.989
X122.931 Y-2.71 Z-4.913
X122.905 Y-2.665 Z-4.828
X122.887 Y-2.632 Z-4.736
X122.875 Y-2.612 Z-4.639
X122.871 Y-2.605 Z-4.54
G0 Z20.

(BORE12)
G0 X120.91 Y-4.319
Z20.
Z3.
G1 Z1.635 F800.
G19 G2 Y-4.954 Z1. J-0.635 K0.
G1 Y-5.271
G17 G2 X120.275 Y-5.906 I-0.635 J0.
Y12.356 Z0.785 I0. J9.131
Y-5.906 Z0.57 I0. J-9.131
Y12.356 Z0.356 I0. J9.131
Y-5.906 Z0.141 I0. J-9.131
Y12.356 Z-0.074 I0. J9.131
Y-5.906 Z-0.289 I0. J-9.131
Y12.356 Z-0.504 I0. J9.131
Y-5.906 Z-0.718 I0. J-9.131
Y12.356 Z-0.933 I0. J9.131
Y-5.906 Z-1.148 I0. J-9.131
Y12.356 Z-1.363 I0. J9.131
X129.383 Y2.57 Z-1.475 I0. J-9.131
X118.969 Y-5.812 Z-1.587 I-9.108 J0.655
X121.581 Y12.262 I1.306 J9.037
X118.969 Y-5.812 I-1.306 J-9.037
X118.431 Y-5.093 I0.091 J0.628
G1 X118.477 Y-4.779
X118.491 Y-4.681 Z-1.58
X118.505 Y-4.585 Z-1.556
X118.518 Y-4.494 Z-1.518
X118.53 Y-4.409 Z-1.466
X118.541 Y-4.335 Z-1.402
X118.55 Y-4.27 Z-1.326
X118.558 Y-4.219 Z-1.241
X118.563 Y-4.181 Z-1.149
X118.566 Y-4.158 Z-1.052
X118.568 Y-4.15 Z-0.952
G0 Z20.

(BORE13)
G0 X104.791 Y76.823
Z20.
Z2.365
G1 Z1. F800.
Y76.505
G2 X104.593 Y76.307 I-0.198 J0.
Y77.101 Z0.938 I0. J0.397
Y76.307 Z0.875 I0. J-0.397
Y77.101 Z0.813 I0. J0.397
Y76.307 Z0.751 I0. J-0.397
Y77.101 Z0.688 I0. J0.397
Y76.307 Z0.626 I0. J-0.397
Y77.101 Z0.564 I0. J0.397
Y76.307 Z0.501 I0. J-0.397
Y77.101 Z0.439 I0. J0.397
Y76.307 Z0.377 I0. J-0.397
Y77.101 Z0.314 I0. J0.397
Y76.307 Z0.252 I0. J-0.397
Y77.101 Z0.189 I0. J0.397
Y76.307 Z0.127 I0. J-0.397
Y77.101 Z0.065 I0. J0.397
Y76.307 Z0.002 I0. J-0.397
Y77.101 Z-0.06 I0. J0.397
Y76.307 Z-0.122 I0. J-0.397
Y77.101 Z-0.185 I0. J0.397
Y76.307 Z-0.247 I0. J-0.397
Y77.101 Z-0.309 I0. J0.397
Y76.307 Z-0.372 I0. J-0.397
Y77.101 Z-0.434 I0. J0.397
Y76.307 Z-0.496 I0. J-0.397
Y77.101 Z-0.559 I0. J0.397
Y76.307 Z-0.621 I0. J-0.397
Y77.101 Z-0.683 I0. J0.397
Y76.307 Z-0.746 I0. J-0.397
Y77.101 Z-0.808 I0. J0.397
Y76.307 Z-0.87 I0. J-0.397
Y77.101 Z-0.933 I0. J0.397
Y76.307 Z-0.995 I0. J-0.397
Y77.101 Z-1.057 I0. J0.397
Y76.307 Z-1.12 I0. J-0.397
Y77.101 Z-1.182 I0. J0.397
Y76.307 Z-1.245 I0. J-0.397
Y77.101 Z-1.307 I0. J0.397
Y76.307 Z-1.369 I0. J-0.397
Y77.101 Z-1.432 I0. J0.397
Y76.307 Z-1.494 I0. J-0.397
Y77.101 Z-1.556 I0. J0.397
Y76.307 Z-1.619 I0. J-0.397
Y77.101 Z-1.681 I0. J0.397
Y76.307 Z-1.743 I0. J-0.397
Y77.101 Z-1.806 I0. J0.397
Y76.307 Z-1.868 I0. J-0.397
Y77.101 Z-1.93 I0. J0.397
Y76.307 Z-1.993 I0. J-0.397
Y77.101 Z-2.055 I0. J0.397
Y76.307 Z-2.117 I0. J-0.397
Y77.101 Z-2.18 I0. J0.397
Y76.307 Z-2.242 I0. J-0.397
Y77.101 Z-2.304 I0. J0.397
Y76.307 Z-2.367 I0. J-0.397
Y77.101 Z-2.429 I0. J0.397
Y76.307 Z-2.491 I0. J-0.397
Y77.101 Z-2.554 I0. J0.397
Y76.307 Z-2.616 I0. J-0.397
Y77.101 Z-2.678 I0. J0.397
Y76.307 Z-2.741 I0. J-0.397
Y77.101 Z-2.803 I0. J0.397
Y76.307 Z-2.866 I0. J-0.397
Y77.101 Z-2.928 I0. J0.397
Y76.307 Z-2.99 I0. J-0.397
Y77.101 Z-3.053 I0. J0.397
Y76.307 Z-3.115 I0. J-0.397
Y77.101 Z-3.177 I0. J0.397
Y76.307 Z-3.24 I0. J-0.397
Y77.101 Z-3.302 I0. J0.397
Y76.307 Z-3.364 I0. J-0.397
Y77.101 Z-3.427 I0. J0.397
Y76.307 Z-3.489 I0. J-0.397
Y77.101 Z-3.551 I0. J0.397
Y76.307 Z-3.614 I0. J-0.397
Y77.101 Z-3.676 I0. J0.397
Y76.307 Z-3.738 I0. J-0.397
Y77.101 Z-3.801 I0. J0.397
Y76.307 Z-3.863 I0. J-0.397
Y77.101 Z-3.925 I0. J0.397
Y76.307 Z-3.988 I0. J-0.397
Y77.101 Z-4.05 I0. J0.397
Y76.307 Z-4.112 I0. J-0.397
Y77.101 Z-4.175 I0. J0.397
Y76.307 Z-4.237 I0. J-0.397
Y77.101 Z-4.3 I0. J0.397
Y76.307 Z-4.362 I0. J-0.397
Y77.101 Z-4.424 I0. J0.397
Y76.307 Z-4.487 I0. J-0.397
Y77.101 Z-4.549 I0. J0.397
Y76.307 Z-4.611 I0. J-0.397
Y77.101 Z-4.674 I0. J0.397
Y76.307 Z-4.736 I0. J-0.397
Y77.101 Z-4.798 I0. J0.397
Y76.307 Z-4.861 I0. J-0.397
Y77.101 Z-4.923 I0. J0.397
Y76.307 Z-4.985 I0. J-0.397
Y77.101 Z-5.048 I0. J0.397
Y76.307 Z-5.11 I0. J-0.397
X104.197 Y76.73 Z-5.143 I0. J0.397
X104.645 Y77.097 Z-5.175 I0.396 J-0.026
X104.541 Y76.31 I-0.052 J-0.393
X104.645 Y77.097 I0.052 J0.393
X104.816 Y76.874 I-0.026 J-0.197
G1 X104.774 Y76.56
G0 Z5.
X136.156 Y76.823
Z2.365
G1 Z1. F800.
Y76.505
G2 X135.957 Y76.307 I-0.198 J0.
Y77.101 Z0.938 I0. J0.397
Y76.307 Z0.875 I0. J-0.397
Y77.101 Z0.813 I0. J0.397
Y76.307 Z0.751 I0. J-0.397
Y77.101 Z0.688 I0. J0.397
Y76.307 Z0.626 I0. J-0.397
Y77.101 Z0.564 I0. J0.397
Y76.307 Z0.501 I0. J-0.397
Y77.101 Z0.439 I0. J0.397
Y76.307 Z0.377 I0. J-0.397
Y77.101 Z0.314 I0. J0.397
Y76.307 Z0.252 I0. J-0.397
Y77.101 Z0.189 I0. J0.397
Y76.307 Z0.127 I0. J-0.397
Y77.101 Z0.065 I0. J0.397
Y76.307 Z0.002 I0. J-0.397
Y77.101 Z-0.06 I0. J0.397
Y76.307 Z-0.122 I0. J-0.397
Y77.101 Z-0.185 I0. J0.397
Y76.307 Z-0.247 I0. J-0.397
Y77.101 Z-0.309 I0. J0.397
Y76.307 Z-0.372 I0. J-0.397
Y77.101 Z-0.434 I0. J0.397
Y76.307 Z-0.496 I0. J-0.397
Y77.101 Z-0.559 I0. J0.397
Y76.307 Z-0.621 I0. J-0.397
Y77.101 Z-0.683 I0. J0.397
Y76.307 Z-0.746 I0. J-0.397
Y77.101 Z-0.808 I0. J0.397
Y76.307 Z-0.87 I0. J-0.397
Y77.101 Z-0.933 I0. J0.397
Y76.307 Z-0.995 I0. J-0.397
Y77.101 Z-1.057 I0. J0.397
Y76.307 Z-1.12 I0. J-0.397
Y77.101 Z-1.182 I0. J0.397
Y76.307 Z-1.245 I0. J-0.397
Y77.101 Z-1.307 I0. J0.397
Y76.307 Z-1.369 I0. J-0.397
Y77.101 Z-1.432 I0. J0.397
Y76.307 Z-1.494 I0. J-0.397
Y77.101 Z-1.556 I0. J0.397
Y76.307 Z-1.619 I0. J-0.397
Y77.101 Z-1.681 I0. J0.397
Y76.307 Z-1.743 I0. J-0.397
Y77.101 Z-1.806 I0. J0.397
Y76.307 Z-1.868 I0. J-0.397
Y77.101 Z-1.93 I0. J0.397
Y76.307 Z-1.993 I0. J-0.397
Y77.101 Z-2.055 I0. J0.397
Y76.307 Z-2.117 I0. J-0.397
Y77.101 Z-2.18 I0. J0.397
Y76.307 Z-2.242 I0. J-0.397
Y77.101 Z-2.304 I0. J0.397
Y76.307 Z-2.367 I0. J-0.397
Y77.101 Z-2.429 I0. J0.397
Y76.307 Z-2.491 I0. J-0.397
Y77.101 Z-2.554 I0. J0.397
Y76.307 Z-2.616 I0. J-0.397
Y77.101 Z-2.678 I0. J0.397
Y76.307 Z-2.741 I0. J-0.397
Y77.101 Z-2.803 I0. J0.397
Y76.307 Z-2.866 I0. J-0.397
Y77.101 Z-2.928 I0. J0.397
Y76.307 Z-2.99 I0. J-0.397
Y77.101 Z-3.053 I0. J0.397
Y76.307 Z-3.115 I0. J-0.397
Y77.101 Z-3.177 I0. J0.397
Y76.307 Z-3.24 I0. J-0.397
Y77.101 Z-3.302 I0. J0.397
Y76.307 Z-3.364 I0. J-0.397
Y77.101 Z-3.427 I0. J0.397
Y76.307 Z-3.489 I0. J-0.397
Y77.101 Z-3.551 I0. J0.397
Y76.307 Z-3.614 I0. J-0.397
Y77.101 Z-3.676 I0. J0.397
Y76.307 Z-3.738 I0. J-0.397
Y77.101 Z-3.801 I0. J0.397
Y76.307 Z-3.863 I0. J-0.397
Y77.101 Z-3.925 I0. J0.397
Y76.307 Z-3.988 I0. J-0.397
Y77.101 Z-4.05 I0. J0.397
Y76.307 Z-4.112 I0. J-0.397
Y77.101 Z-4.175 I0. J0.397
Y76.307 Z-4.237 I0. J-0.397
Y77.101 Z-4.3 I0. J0.397
Y76.307 Z-4.362 I0. J-0.397
Y77.101 Z-4.424 I0. J0.397
Y76.307 Z-4.487 I0. J-0.397
Y77.101 Z-4.549 I0. J0.397
Y76.307 Z-4.611 I0. J-0.397
Y77.101 Z-4.674 I0. J0.397
Y76.307 Z-4.736 I0. J-0.397
Y77.101 Z-4.798 I0. J0.397
Y76.307 Z-4.861 I0. J-0.397
Y77.101 Z-4.923 I0. J0.397
Y76.307 Z-4.985 I0. J-0.397
Y77.101 Z-5.048 I0. J0.397
Y76.307 Z-5.11 I0. J-0.397
X135.561 Y76.73 Z-5.143 I0. J0.397
X136.009 Y77.097 Z-5.175 I0.396 J-0.026
X135.905 Y76.31 I-0.052 J-0.393
X136.009 Y77.097 I0.052 J0.393
X136.18 Y76.874 I-0.026 J-0.197
G1 X136.138 Y76.56
G0 Z20.
M5
G0 Z15
G0 X0 Y0

M30
