(T1  D=6.35 CR=0. - ZMIN=-5.175 - FLAT END MILL)
G90 G94 G91.1 G40 G49 G17
G21
(2ND HOLE)
G0 Z15

(BORE7)
M5
T1 M6
S16000 M3
G54
G0 X120.072 Y57.569
G43 Z20. H1
Z2.365
G1 Z1. F800.
Y57.886
G2 X120.275 Y58.09 I0.203 J0.
Y57.277 Z0.937 I0. J-0.406
Y58.09 Z0.875 I0. J0.406
Y57.277 Z0.812 I0. J-0.406
Y58.09 Z0.75 I0. J0.406
Y57.277 Z0.687 I0. J-0.406
Y58.09 Z0.625 I0. J0.406
Y57.277 Z0.562 I0. J-0.406
Y58.09 Z0.5 I0. J0.406
Y57.277 Z0.437 I0. J-0.406
Y58.09 Z0.375 I0. J0.406
Y57.277 Z0.312 I0. J-0.406
Y58.09 Z0.25 I0. J0.406
Y57.277 Z0.187 I0. J-0.406
Y58.09 Z0.125 I0. J0.406
Y57.277 Z0.062 I0. J-0.406
Y58.09 Z0. I0. J0.406
Y57.277 Z-0.063 I0. J-0.406
Y58.09 Z-0.125 I0. J0.406
Y57.277 Z-0.188 I0. J-0.406
Y58.09 Z-0.25 I0. J0.406
Y57.277 Z-0.313 I0. J-0.406
Y58.09 Z-0.375 I0. J0.406
Y57.277 Z-0.438 I0. J-0.406
Y58.09 Z-0.5 I0. J0.406
Y57.277 Z-0.563 I0. J-0.406
Y58.09 Z-0.625 I0. J0.406
Y57.277 Z-0.688 I0. J-0.406
Y58.09 Z-0.75 I0. J0.406
Y57.277 Z-0.813 I0. J-0.406
Y58.09 Z-0.875 I0. J0.406
Y57.277 Z-0.938 I0. J-0.406
Y58.09 Z-1. I0. J0.406
Y57.277 Z-1.063 I0. J-0.406
Y58.09 Z-1.125 I0. J0.406
Y57.277 Z-1.188 I0. J-0.406
Y58.09 Z-1.25 I0. J0.406
Y57.277 Z-1.313 I0. J-0.406
Y58.09 Z-1.376 I0. J0.406
Y57.277 Z-1.438 I0. J-0.406
Y58.09 Z-1.501 I0. J0.406
Y57.277 Z-1.563 I0. J-0.406
Y58.09 Z-1.626 I0. J0.406
Y57.277 Z-1.688 I0. J-0.406
Y58.09 Z-1.751 I0. J0.406
Y57.277 Z-1.813 I0. J-0.406
Y58.09 Z-1.876 I0. J0.406
Y57.277 Z-1.938 I0. J-0.406
Y58.09 Z-2.001 I0. J0.406
Y57.277 Z-2.063 I0. J-0.406
Y58.09 Z-2.126 I0. J0.406
Y57.277 Z-2.188 I0. J-0.406
Y58.09 Z-2.251 I0. J0.406
Y57.277 Z-2.313 I0. J-0.406
Y58.09 Z-2.376 I0. J0.406
Y57.277 Z-2.438 I0. J-0.406
Y58.09 Z-2.501 I0. J0.406
Y57.277 Z-2.563 I0. J-0.406
Y58.09 Z-2.626 I0. J0.406
Y57.277 Z-2.688 I0. J-0.406
Y58.09 Z-2.751 I0. J0.406
Y57.277 Z-2.813 I0. J-0.406
Y58.09 Z-2.876 I0. J0.406
Y57.277 Z-2.938 I0. J-0.406
Y58.09 Z-3.001 I0. J0.406
Y57.277 Z-3.063 I0. J-0.406
Y58.09 Z-3.126 I0. J0.406
Y57.277 Z-3.188 I0. J-0.406
Y58.09 Z-3.251 I0. J0.406
Y57.277 Z-3.313 I0. J-0.406
Y58.09 Z-3.376 I0. J0.406
Y57.277 Z-3.438 I0. J-0.406
Y58.09 Z-3.501 I0. J0.406
Y57.277 Z-3.563 I0. J-0.406
Y58.09 Z-3.626 I0. J0.406
Y57.277 Z-3.689 I0. J-0.406
Y58.09 Z-3.751 I0. J0.406
Y57.277 Z-3.814 I0. J-0.406
Y58.09 Z-3.876 I0. J0.406
Y57.277 Z-3.939 I0. J-0.406
Y58.09 Z-4.001 I0. J0.406
Y57.277 Z-4.064 I0. J-0.406
Y58.09 Z-4.126 I0. J0.406
Y57.277 Z-4.189 I0. J-0.406
Y58.09 Z-4.251 I0. J0.406
Y57.277 Z-4.314 I0. J-0.406
Y58.09 Z-4.376 I0. J0.406
Y57.277 Z-4.439 I0. J-0.406
Y58.09 Z-4.501 I0. J0.406
Y57.277 Z-4.564 I0. J-0.406
Y58.09 Z-4.626 I0. J0.406
Y57.277 Z-4.689 I0. J-0.406
Y58.09 Z-4.751 I0. J0.406
Y57.277 Z-4.814 I0. J-0.406
Y58.09 Z-4.876 I0. J0.406
Y57.277 Z-4.939 I0. J-0.406
Y58.09 Z-5.001 I0. J0.406
Y57.277 Z-5.064 I0. J-0.406
Y58.09 Z-5.126 I0. J0.406
X120.535 Y57.371 Z-5.175 I0. J-0.406
X120.015 Y57.995 I-0.26 J0.312
X120.535 Y57.371 I0.26 J-0.312
X120.249 Y57.397 I-0.13 J0.156
G1 X120.046 Y57.641
G0 Z5.
X120.072 Y-3.543
Z2.365
G1 Z1. F800.
Y-3.226
G2 X120.275 Y-3.023 I0.203 J0.
Y-3.836 Z0.937 I0. J-0.406
Y-3.023 Z0.875 I0. J0.406
Y-3.836 Z0.812 I0. J-0.406
Y-3.023 Z0.75 I0. J0.406
Y-3.836 Z0.687 I0. J-0.406
Y-3.023 Z0.625 I0. J0.406
Y-3.836 Z0.562 I0. J-0.406
Y-3.023 Z0.5 I0. J0.406
Y-3.836 Z0.437 I0. J-0.406
Y-3.023 Z0.375 I0. J0.406
Y-3.836 Z0.312 I0. J-0.406
Y-3.023 Z0.25 I0. J0.406
Y-3.836 Z0.187 I0. J-0.406
Y-3.023 Z0.125 I0. J0.406
Y-3.836 Z0.062 I0. J-0.406
Y-3.023 Z0. I0. J0.406
Y-3.836 Z-0.063 I0. J-0.406
Y-3.023 Z-0.125 I0. J0.406
Y-3.836 Z-0.188 I0. J-0.406
Y-3.023 Z-0.25 I0. J0.406
Y-3.836 Z-0.313 I0. J-0.406
Y-3.023 Z-0.375 I0. J0.406
Y-3.836 Z-0.438 I0. J-0.406
Y-3.023 Z-0.5 I0. J0.406
Y-3.836 Z-0.563 I0. J-0.406
Y-3.023 Z-0.625 I0. J0.406
Y-3.836 Z-0.688 I0. J-0.406
Y-3.023 Z-0.75 I0. J0.406
Y-3.836 Z-0.813 I0. J-0.406
Y-3.023 Z-0.875 I0. J0.406
Y-3.836 Z-0.938 I0. J-0.406
Y-3.023 Z-1. I0. J0.406
Y-3.836 Z-1.063 I0. J-0.406
Y-3.023 Z-1.125 I0. J0.406
Y-3.836 Z-1.188 I0. J-0.406
Y-3.023 Z-1.25 I0. J0.406
Y-3.836 Z-1.313 I0. J-0.406
Y-3.023 Z-1.376 I0. J0.406
Y-3.836 Z-1.438 I0. J-0.406
Y-3.023 Z-1.501 I0. J0.406
Y-3.836 Z-1.563 I0. J-0.406
Y-3.023 Z-1.626 I0. J0.406
Y-3.836 Z-1.688 I0. J-0.406
Y-3.023 Z-1.751 I0. J0.406
Y-3.836 Z-1.813 I0. J-0.406
Y-3.023 Z-1.876 I0. J0.406
Y-3.836 Z-1.938 I0. J-0.406
Y-3.023 Z-2.001 I0. J0.406
Y-3.836 Z-2.063 I0. J-0.406
Y-3.023 Z-2.126 I0. J0.406
Y-3.836 Z-2.188 I0. J-0.406
Y-3.023 Z-2.251 I0. J0.406
Y-3.836 Z-2.313 I0. J-0.406
Y-3.023 Z-2.376 I0. J0.406
Y-3.836 Z-2.438 I0. J-0.406
Y-3.023 Z-2.501 I0. J0.406
Y-3.836 Z-2.563 I0. J-0.406
Y-3.023 Z-2.626 I0. J0.406
Y-3.836 Z-2.688 I0. J-0.406
Y-3.023 Z-2.751 I0. J0.406
Y-3.836 Z-2.813 I0. J-0.406
Y-3.023 Z-2.876 I0. J0.406
Y-3.836 Z-2.938 I0. J-0.406
Y-3.023 Z-3.001 I0. J0.406
Y-3.836 Z-3.063 I0. J-0.406
Y-3.023 Z-3.126 I0. J0.406
Y-3.836 Z-3.188 I0. J-0.406
Y-3.023 Z-3.251 I0. J0.406
Y-3.836 Z-3.313 I0. J-0.406
Y-3.023 Z-3.376 I0. J0.406
Y-3.836 Z-3.438 I0. J-0.406
Y-3.023 Z-3.501 I0. J0.406
Y-3.836 Z-3.563 I0. J-0.406
Y-3.023 Z-3.626 I0. J0.406
Y-3.836 Z-3.689 I0. J-0.406
Y-3.023 Z-3.751 I0. J0.406
Y-3.836 Z-3.814 I0. J-0.406
Y-3.023 Z-3.876 I0. J0.406
Y-3.836 Z-3.939 I0. J-0.406
Y-3.023 Z-4.001 I0. J0.406
Y-3.836 Z-4.064 I0. J-0.406
Y-3.023 Z-4.126 I0. J0.406
Y-3.836 Z-4.189 I0. J-0.406
Y-3.023 Z-4.251 I0. J0.406
Y-3.836 Z-4.314 I0. J-0.406
Y-3.023 Z-4.376 I0. J0.406
Y-3.836 Z-4.439 I0. J-0.406
Y-3.023 Z-4.501 I0. J0.406
Y-3.836 Z-4.564 I0. J-0.406
Y-3.023 Z-4.626 I0. J0.406
Y-3.836 Z-4.689 I0. J-0.406
Y-3.023 Z-4.751 I0. J0.406
Y-3.836 Z-4.814 I0. J-0.406
Y-3.023 Z-4.876 I0. J0.406
Y-3.836 Z-4.939 I0. J-0.406
Y-3.023 Z-5.001 I0. J0.406
Y-3.836 Z-5.064 I0. J-0.406
Y-3.023 Z-5.126 I0. J0.406
X120.535 Y-3.741 Z-5.175 I0. J-0.406
X120.015 Y-3.117 I-0.26 J0.312
X120.535 Y-3.741 I0.26 J-0.312
X120.249 Y-3.715 I-0.13 J0.156
G1 X120.046 Y-3.472
G0 Z20.

(BORE8)
M8
G0 X103.958 Y129.734
Z20.
Z3.
G1 Z1.635 F800.
G19 G3 Y130.369 Z1. J0.635 K0.
G1 Y130.686
G17 G2 X104.593 Y131.321 I0.635 J0.
Y124.971 Z0.889 I0. J-3.175
Y131.321 Z0.778 I0. J3.175
Y124.971 Z0.667 I0. J-3.175
Y131.321 Z0.557 I0. J3.175
Y124.971 Z0.446 I0. J-3.175
Y131.321 Z0.335 I0. J3.175
Y124.971 Z0.224 I0. J-3.175
Y131.321 Z0.113 I0. J3.175
Y124.971 Z0.002 I0. J-3.175
Y131.321 Z-0.108 I0. J3.175
Y124.971 Z-0.219 I0. J-3.175
Y131.321 Z-0.33 I0. J3.175
Y124.971 Z-0.441 I0. J-3.175
Y131.321 Z-0.552 I0. J3.175
Y124.971 Z-0.663 I0. J-3.175
Y131.321 Z-0.773 I0. J3.175
Y124.971 Z-0.884 I0. J-3.175
Y131.321 Z-0.995 I0. J3.175
Y124.971 Z-1.106 I0. J-3.175
Y131.321 Z-1.217 I0. J3.175
Y124.971 Z-1.328 I0. J-3.175
Y131.321 Z-1.438 I0. J3.175
Y124.971 Z-1.549 I0. J-3.175
Y131.321 Z-1.66 I0. J3.175
Y124.971 Z-1.771 I0. J-3.175
Y131.321 Z-1.882 I0. J3.175
Y124.971 Z-1.993 I0. J-3.175
Y131.321 Z-2.104 I0. J3.175
Y124.971 Z-2.214 I0. J-3.175
Y131.321 Z-2.325 I0. J3.175
Y124.971 Z-2.436 I0. J-3.175
Y131.321 Z-2.547 I0. J3.175
Y124.971 Z-2.658 I0. J-3.175
Y131.321 Z-2.769 I0. J3.175
Y124.971 Z-2.879 I0. J-3.175
Y131.321 Z-2.99 I0. J3.175
Y124.971 Z-3.101 I0. J-3.175
Y131.321 Z-3.212 I0. J3.175
Y124.971 Z-3.323 I0. J-3.175
Y131.321 Z-3.434 I0. J3.175
Y124.971 Z-3.544 I0. J-3.175
Y131.321 Z-3.655 I0. J3.175
Y124.971 Z-3.766 I0. J-3.175
Y131.321 Z-3.877 I0. J3.175
Y124.971 Z-3.988 I0. J-3.175
Y131.321 Z-4.099 I0. J3.175
Y124.971 Z-4.209 I0. J-3.175
Y131.321 Z-4.32 I0. J3.175
Y124.971 Z-4.431 I0. J-3.175
Y131.321 Z-4.542 I0. J3.175
Y124.971 Z-4.653 I0. J-3.175
Y131.321 Z-4.764 I0. J3.175
Y124.971 Z-4.875 I0. J-3.175
Y131.321 Z-4.985 I0. J3.175
Y124.971 Z-5.096 I0. J-3.175
X102.091 Y130.101 Z-5.175 I0. J3.175
X107.095 Y126.192 I2.502 J-1.955
X102.091 Y130.101 I-2.502 J1.955
X102.982 Y130.21 I0.5 J-0.391
G1 X103.232 Y130.015
X103.311 Y129.954 Z-5.167
X103.387 Y129.894 Z-5.144
X103.46 Y129.837 Z-5.106
X103.526 Y129.785 Z-5.054
X103.586 Y129.738 Z-4.989
X103.637 Y129.699 Z-4.913
X103.678 Y129.667 Z-4.828
X103.708 Y129.643 Z-4.736
X103.727 Y129.629 Z-4.639
X103.733 Y129.624 Z-4.54
G0 Z5.
X135.322 Y129.734
Z3.
G1 Z1.635 F800.
G19 G3 Y130.369 Z1. J0.635 K0.
G1 Y130.686
G17 G2 X135.957 Y131.321 I0.635 J0.
Y124.971 Z0.889 I0. J-3.175
Y131.321 Z0.778 I0. J3.175
Y124.971 Z0.667 I0. J-3.175
Y131.321 Z0.557 I0. J3.175
Y124.971 Z0.446 I0. J-3.175
Y131.321 Z0.335 I0. J3.175
Y124.971 Z0.224 I0. J-3.175
Y131.321 Z0.113 I0. J3.175
Y124.971 Z0.002 I0. J-3.175
Y131.321 Z-0.108 I0. J3.175
Y124.971 Z-0.219 I0. J-3.175
Y131.321 Z-0.33 I0. J3.175
Y124.971 Z-0.441 I0. J-3.175
Y131.321 Z-0.552 I0. J3.175
Y124.971 Z-0.663 I0. J-3.175
Y131.321 Z-0.773 I0. J3.175
Y124.971 Z-0.884 I0. J-3.175
Y131.321 Z-0.995 I0. J3.175
Y124.971 Z-1.106 I0. J-3.175
Y131.321 Z-1.217 I0. J3.175
Y124.971 Z-1.328 I0. J-3.175
Y131.321 Z-1.438 I0. J3.175
Y124.971 Z-1.549 I0. J-3.175
Y131.321 Z-1.66 I0. J3.175
Y124.971 Z-1.771 I0. J-3.175
Y131.321 Z-1.882 I0. J3.175
Y124.971 Z-1.993 I0. J-3.175
Y131.321 Z-2.104 I0. J3.175
Y124.971 Z-2.214 I0. J-3.175
Y131.321 Z-2.325 I0. J3.175
Y124.971 Z-2.436 I0. J-3.175
Y131.321 Z-2.547 I0. J3.175
Y124.971 Z-2.658 I0. J-3.175
Y131.321 Z-2.769 I0. J3.175
Y124.971 Z-2.879 I0. J-3.175
Y131.321 Z-2.99 I0. J3.175
Y124.971 Z-3.101 I0. J-3.175
Y131.321 Z-3.212 I0. J3.175
Y124.971 Z-3.323 I0. J-3.175
Y131.321 Z-3.434 I0. J3.175
Y124.971 Z-3.544 I0. J-3.175
Y131.321 Z-3.655 I0. J3.175
Y124.971 Z-3.766 I0. J-3.175
Y131.321 Z-3.877 I0. J3.175
Y124.971 Z-3.988 I0. J-3.175
Y131.321 Z-4.099 I0. J3.175
Y124.971 Z-4.209 I0. J-3.175
Y131.321 Z-4.32 I0. J3.175
Y124.971 Z-4.431 I0. J-3.175
Y131.321 Z-4.542 I0. J3.175
Y124.971 Z-4.653 I0. J-3.175
Y131.321 Z-4.764 I0. J3.175
Y124.971 Z-4.875 I0. J-3.175
Y131.321 Z-4.985 I0. J3.175
Y124.971 Z-5.096 I0. J-3.175
X133.455 Y130.101 Z-5.175 I0. J3.175
X138.459 Y126.192 I2.502 J-1.955
X133.455 Y130.101 I-2.502 J1.955
X134.347 Y130.21 I0.5 J-0.391
G1 X134.597 Y130.015
X134.675 Y129.954 Z-5.167
X134.751 Y129.894 Z-5.144
X134.824 Y129.837 Z-5.106
X134.891 Y129.785 Z-5.054
X134.951 Y129.738 Z-4.989
X135.002 Y129.699 Z-4.913
X135.043 Y129.667 Z-4.828
X135.073 Y129.643 Z-4.736
X135.091 Y129.629 Z-4.639
X135.097 Y129.624 Z-4.54
G0 Z20.
M9

(BORE9)
G0 X119.64 Y28.715
Z15.
Z3.
G1 Z1.635 F800.
G19 G3 Y29.35 Z1. J0.635 K0.
G1 Y29.667
G17 G2 X120.275 Y30.302 I0.635 J0.
Y23.952 Z0.889 I0. J-3.175
Y30.302 Z0.778 I0. J3.175
Y23.952 Z0.667 I0. J-3.175
Y30.302 Z0.557 I0. J3.175
Y23.952 Z0.446 I0. J-3.175
Y30.302 Z0.335 I0. J3.175
Y23.952 Z0.224 I0. J-3.175
Y30.302 Z0.113 I0. J3.175
Y23.952 Z0.002 I0. J-3.175
Y30.302 Z-0.108 I0. J3.175
Y23.952 Z-0.219 I0. J-3.175
Y30.302 Z-0.33 I0. J3.175
Y23.952 Z-0.441 I0. J-3.175
Y30.302 Z-0.552 I0. J3.175
Y23.952 Z-0.663 I0. J-3.175
Y30.302 Z-0.773 I0. J3.175
Y23.952 Z-0.884 I0. J-3.175
Y30.302 Z-0.995 I0. J3.175
Y23.952 Z-1.106 I0. J-3.175
Y30.302 Z-1.217 I0. J3.175
Y23.952 Z-1.328 I0. J-3.175
Y30.302 Z-1.438 I0. J3.175
Y23.952 Z-1.549 I0. J-3.175
Y30.302 Z-1.66 I0. J3.175
Y23.952 Z-1.771 I0. J-3.175
Y30.302 Z-1.882 I0. J3.175
Y23.952 Z-1.993 I0. J-3.175
Y30.302 Z-2.104 I0. J3.175
Y23.952 Z-2.214 I0. J-3.175
Y30.302 Z-2.325 I0. J3.175
Y23.952 Z-2.436 I0. J-3.175
Y30.302 Z-2.547 I0. J3.175
Y23.952 Z-2.658 I0. J-3.175
Y30.302 Z-2.769 I0. J3.175
Y23.952 Z-2.879 I0. J-3.175
Y30.302 Z-2.99 I0. J3.175
Y23.952 Z-3.101 I0. J-3.175
Y30.302 Z-3.212 I0. J3.175
Y23.952 Z-3.323 I0. J-3.175
Y30.302 Z-3.434 I0. J3.175
Y23.952 Z-3.544 I0. J-3.175
Y30.302 Z-3.655 I0. J3.175
Y23.952 Z-3.766 I0. J-3.175
Y30.302 Z-3.877 I0. J3.175
Y23.952 Z-3.988 I0. J-3.175
Y30.302 Z-4.099 I0. J3.175
Y23.952 Z-4.209 I0. J-3.175
Y30.302 Z-4.32 I0. J3.175
Y23.952 Z-4.431 I0. J-3.175
Y30.302 Z-4.542 I0. J3.175
Y23.952 Z-4.653 I0. J-3.175
Y30.302 Z-4.764 I0. J3.175
Y23.952 Z-4.875 I0. J-3.175
Y30.302 Z-4.985 I0. J3.175
Y23.952 Z-5.096 I0. J-3.175
X117.773 Y29.082 Z-5.175 I0. J3.175
X122.777 Y25.172 I2.502 J-1.955
X117.773 Y29.082 I-2.502 J1.955
X118.664 Y29.191 I0.5 J-0.391
G1 X118.915 Y28.996
X118.993 Y28.935 Z-5.167
X119.069 Y28.875 Z-5.144
X119.142 Y28.818 Z-5.106
X119.209 Y28.766 Z-5.054
X119.268 Y28.719 Z-4.989
X119.319 Y28.679 Z-4.913
X119.36 Y28.647 Z-4.828
X119.39 Y28.624 Z-4.736
X119.409 Y28.61 Z-4.639
X119.415 Y28.605 Z-4.54
G0 Z5.
X119.64 Y31.889
Z3.
G1 Z1.635 F800.
G19 G3 Y32.525 Z1. J0.635 K0.
G1 Y32.842
G17 G2 X120.275 Y33.477 I0.635 J0.
Y20.777 Z0.834 I0. J-6.35
Y33.477 Z0.667 I0. J6.35
Y20.777 Z0.501 I0. J-6.35
Y33.477 Z0.335 I0. J6.35
Y20.777 Z0.169 I0. J-6.35
Y33.477 Z0.002 I0. J6.35
Y20.777 Z-0.164 I0. J-6.35
Y33.477 Z-0.33 I0. J6.35
Y20.777 Z-0.496 I0. J-6.35
Y33.477 Z-0.663 I0. J6.35
Y20.777 Z-0.829 I0. J-6.35
Y33.477 Z-0.995 I0. J6.35
Y20.777 Z-1.161 I0. J-6.35
Y33.477 Z-1.328 I0. J6.35
Y20.777 Z-1.494 I0. J-6.35
Y33.477 Z-1.66 I0. J6.35
Y20.777 Z-1.826 I0. J-6.35
Y33.477 Z-1.993 I0. J6.35
Y20.777 Z-2.159 I0. J-6.35
Y33.477 Z-2.325 I0. J6.35
Y20.777 Z-2.491 I0. J-6.35
Y33.477 Z-2.658 I0. J6.35
Y20.777 Z-2.824 I0. J-6.35
Y33.477 Z-2.99 I0. J6.35
Y20.777 Z-3.156 I0. J-6.35
Y33.477 Z-3.323 I0. J6.35
Y20.777 Z-3.489 I0. J-6.35
Y33.477 Z-3.655 I0. J6.35
Y20.777 Z-3.822 I0. J-6.35
Y33.477 Z-3.988 I0. J6.35
Y20.777 Z-4.154 I0. J-6.35
Y33.477 Z-4.32 I0. J6.35
Y20.777 Z-4.487 I0. J-6.35
Y33.477 Z-4.653 I0. J6.35
Y20.777 Z-4.819 I0. J-6.35
Y33.477 Z-4.985 I0. J6.35
Y20.777 Z-5.152 I0. J-6.35
X117.558 Y21.388 Z-5.175 I0. J6.35
X122.992 Y32.866 I2.717 J5.739
X117.558 Y21.388 I-2.717 J-5.739
X117.256 Y22.233 I0.272 J0.574
G1 X117.392 Y22.52
X117.434 Y22.61 Z-5.167
X117.476 Y22.698 Z-5.144
X117.515 Y22.781 Z-5.106
X117.551 Y22.858 Z-5.054
X117.584 Y22.926 Z-4.989
X117.611 Y22.985 Z-4.913
X117.634 Y23.032 Z-4.828
X117.65 Y23.066 Z-4.736
X117.66 Y23.087 Z-4.639
X117.663 Y23.094 Z-4.54
G0 Z15.
M5
G0 Z15
G0 X0 Y0

M30
