(T1  D=6.35 CR=0. - ZMIN=-26.9 - FLAT END MILL)
G90 G94 G91.1 G40 G49 G17
G21
(7TH HOLE)
G0 Z15

(BORE14)
M5
T1 M6
S16000 M3
G54
M8
G0 X120.478 Y-52.719
G43 Z21. H1
Z2.365
G1 Z1. F800.
Y-53.036
G2 X120.275 Y-53.24 I-0.203 J0.
Y-52.427 Z0.937 I0. J0.406
Y-53.24 Z0.875 I0. J-0.406
Y-52.427 Z0.812 I0. J0.406
Y-53.24 Z0.75 I0. J-0.406
Y-52.427 Z0.687 I0. J0.406
Y-53.24 Z0.625 I0. J-0.406
Y-52.427 Z0.562 I0. J0.406
Y-53.24 Z0.5 I0. J-0.406
Y-52.427 Z0.437 I0. J0.406
Y-53.24 Z0.375 I0. J-0.406
Y-52.427 Z0.312 I0. J0.406
Y-53.24 Z0.25 I0. J-0.406
Y-52.427 Z0.187 I0. J0.406
Y-53.24 Z0.125 I0. J-0.406
Y-52.427 Z0.062 I0. J0.406
Y-53.24 Z0. I0. J-0.406
Y-52.427 Z-0.063 I0. J0.406
Y-53.24 Z-0.125 I0. J-0.406
Y-52.427 Z-0.188 I0. J0.406
Y-53.24 Z-0.25 I0. J-0.406
Y-52.427 Z-0.313 I0. J0.406
Y-53.24 Z-0.375 I0. J-0.406
Y-52.427 Z-0.438 I0. J0.406
Y-53.24 Z-0.5 I0. J-0.406
Y-52.427 Z-0.563 I0. J0.406
Y-53.24 Z-0.625 I0. J-0.406
Y-52.427 Z-0.688 I0. J0.406
Y-53.24 Z-0.75 I0. J-0.406
Y-52.427 Z-0.813 I0. J0.406
Y-53.24 Z-0.875 I0. J-0.406
Y-52.427 Z-0.938 I0. J0.406
Y-53.24 Z-1. I0. J-0.406
Y-52.427 Z-1.063 I0. J0.406
Y-53.24 Z-1.125 I0. J-0.406
Y-52.427 Z-1.188 I0. J0.406
Y-53.24 Z-1.25 I0. J-0.406
Y-52.427 Z-1.313 I0. J0.406
Y-53.24 Z-1.376 I0. J-0.406
Y-52.427 Z-1.438 I0. J0.406
Y-53.24 Z-1.501 I0. J-0.406
Y-52.427 Z-1.563 I0. J0.406
Y-53.24 Z-1.626 I0. J-0.406
Y-52.427 Z-1.688 I0. J0.406
Y-53.24 Z-1.751 I0. J-0.406
Y-52.427 Z-1.813 I0. J0.406
Y-53.24 Z-1.876 I0. J-0.406
Y-52.427 Z-1.938 I0. J0.406
Y-53.24 Z-2.001 I0. J-0.406
Y-52.427 Z-2.063 I0. J0.406
Y-53.24 Z-2.126 I0. J-0.406
Y-52.427 Z-2.188 I0. J0.406
Y-53.24 Z-2.251 I0. J-0.406
Y-52.427 Z-2.313 I0. J0.406
Y-53.24 Z-2.376 I0. J-0.406
Y-52.427 Z-2.438 I0. J0.406
Y-53.24 Z-2.501 I0. J-0.406
Y-52.427 Z-2.563 I0. J0.406
Y-53.24 Z-2.626 I0. J-0.406
Y-52.427 Z-2.688 I0. J0.406
Y-53.24 Z-2.751 I0. J-0.406
Y-52.427 Z-2.813 I0. J0.406
Y-53.24 Z-2.876 I0. J-0.406
Y-52.427 Z-2.938 I0. J0.406
Y-53.24 Z-3.001 I0. J-0.406
Y-52.427 Z-3.063 I0. J0.406
Y-53.24 Z-3.126 I0. J-0.406
Y-52.427 Z-3.188 I0. J0.406
Y-53.24 Z-3.251 I0. J-0.406
Y-52.427 Z-3.313 I0. J0.406
Y-53.24 Z-3.376 I0. J-0.406
Y-52.427 Z-3.438 I0. J0.406
Y-53.24 Z-3.501 I0. J-0.406
Y-52.427 Z-3.563 I0. J0.406
Y-53.24 Z-3.626 I0. J-0.406
Y-52.427 Z-3.689 I0. J0.406
Y-53.24 Z-3.751 I0. J-0.406
Y-52.427 Z-3.814 I0. J0.406
Y-53.24 Z-3.876 I0. J-0.406
Y-52.427 Z-3.939 I0. J0.406
Y-53.24 Z-4.001 I0. J-0.406
Y-52.427 Z-4.064 I0. J0.406
Y-53.24 Z-4.126 I0. J-0.406
Y-52.427 Z-4.189 I0. J0.406
Y-53.24 Z-4.251 I0. J-0.406
Y-52.427 Z-4.314 I0. J0.406
Y-53.24 Z-4.376 I0. J-0.406
Y-52.427 Z-4.439 I0. J0.406
Y-53.24 Z-4.501 I0. J-0.406
Y-52.427 Z-4.564 I0. J0.406
Y-53.24 Z-4.626 I0. J-0.406
Y-52.427 Z-4.689 I0. J0.406
Y-53.24 Z-4.751 I0. J-0.406
Y-52.427 Z-4.814 I0. J0.406
Y-53.24 Z-4.876 I0. J-0.406
Y-52.427 Z-4.939 I0. J0.406
Y-53.24 Z-5.001 I0. J-0.406
Y-52.427 Z-5.064 I0. J0.406
Y-53.24 Z-5.126 I0. J-0.406
X120.015 Y-52.521 Z-5.175 I0. J0.406
X120.535 Y-53.145 I0.26 J-0.312
X120.015 Y-52.521 I-0.26 J0.312
X120.301 Y-52.547 I0.13 J-0.156
G1 X120.504 Y-52.791
G0 Z6.
X120.478 Y8.394
Z2.365
G1 Z1. F800.
Y8.076
G2 X120.275 Y7.873 I-0.203 J0.
Y8.686 Z0.937 I0. J0.406
Y7.873 Z0.875 I0. J-0.406
Y8.686 Z0.812 I0. J0.406
Y7.873 Z0.75 I0. J-0.406
Y8.686 Z0.687 I0. J0.406
Y7.873 Z0.625 I0. J-0.406
Y8.686 Z0.562 I0. J0.406
Y7.873 Z0.5 I0. J-0.406
Y8.686 Z0.437 I0. J0.406
Y7.873 Z0.375 I0. J-0.406
Y8.686 Z0.312 I0. J0.406
Y7.873 Z0.25 I0. J-0.406
Y8.686 Z0.187 I0. J0.406
Y7.873 Z0.125 I0. J-0.406
Y8.686 Z0.062 I0. J0.406
Y7.873 Z0. I0. J-0.406
Y8.686 Z-0.063 I0. J0.406
Y7.873 Z-0.125 I0. J-0.406
Y8.686 Z-0.188 I0. J0.406
Y7.873 Z-0.25 I0. J-0.406
Y8.686 Z-0.313 I0. J0.406
Y7.873 Z-0.375 I0. J-0.406
Y8.686 Z-0.438 I0. J0.406
Y7.873 Z-0.5 I0. J-0.406
Y8.686 Z-0.563 I0. J0.406
Y7.873 Z-0.625 I0. J-0.406
Y8.686 Z-0.688 I0. J0.406
Y7.873 Z-0.75 I0. J-0.406
Y8.686 Z-0.813 I0. J0.406
Y7.873 Z-0.875 I0. J-0.406
Y8.686 Z-0.938 I0. J0.406
Y7.873 Z-1. I0. J-0.406
Y8.686 Z-1.063 I0. J0.406
Y7.873 Z-1.125 I0. J-0.406
Y8.686 Z-1.188 I0. J0.406
Y7.873 Z-1.25 I0. J-0.406
Y8.686 Z-1.313 I0. J0.406
Y7.873 Z-1.376 I0. J-0.406
Y8.686 Z-1.438 I0. J0.406
Y7.873 Z-1.501 I0. J-0.406
Y8.686 Z-1.563 I0. J0.406
Y7.873 Z-1.626 I0. J-0.406
Y8.686 Z-1.688 I0. J0.406
Y7.873 Z-1.751 I0. J-0.406
Y8.686 Z-1.813 I0. J0.406
Y7.873 Z-1.876 I0. J-0.406
Y8.686 Z-1.938 I0. J0.406
Y7.873 Z-2.001 I0. J-0.406
Y8.686 Z-2.063 I0. J0.406
Y7.873 Z-2.126 I0. J-0.406
Y8.686 Z-2.188 I0. J0.406
Y7.873 Z-2.251 I0. J-0.406
Y8.686 Z-2.313 I0. J0.406
Y7.873 Z-2.376 I0. J-0.406
Y8.686 Z-2.438 I0. J0.406
Y7.873 Z-2.501 I0. J-0.406
Y8.686 Z-2.563 I0. J0.406
Y7.873 Z-2.626 I0. J-0.406
Y8.686 Z-2.688 I0. J0.406
Y7.873 Z-2.751 I0. J-0.406
Y8.686 Z-2.813 I0. J0.406
Y7.873 Z-2.876 I0. J-0.406
Y8.686 Z-2.938 I0. J0.406
Y7.873 Z-3.001 I0. J-0.406
Y8.686 Z-3.063 I0. J0.406
Y7.873 Z-3.126 I0. J-0.406
Y8.686 Z-3.188 I0. J0.406
Y7.873 Z-3.251 I0. J-0.406
Y8.686 Z-3.313 I0. J0.406
Y7.873 Z-3.376 I0. J-0.406
Y8.686 Z-3.438 I0. J0.406
Y7.873 Z-3.501 I0. J-0.406
Y8.686 Z-3.563 I0. J0.406
Y7.873 Z-3.626 I0. J-0.406
Y8.686 Z-3.689 I0. J0.406
Y7.873 Z-3.751 I0. J-0.406
Y8.686 Z-3.814 I0. J0.406
Y7.873 Z-3.876 I0. J-0.406
Y8.686 Z-3.939 I0. J0.406
Y7.873 Z-4.001 I0. J-0.406
Y8.686 Z-4.064 I0. J0.406
Y7.873 Z-4.126 I0. J-0.406
Y8.686 Z-4.189 I0. J0.406
Y7.873 Z-4.251 I0. J-0.406
Y8.686 Z-4.314 I0. J0.406
Y7.873 Z-4.376 I0. J-0.406
Y8.686 Z-4.439 I0. J0.406
Y7.873 Z-4.501 I0. J-0.406
Y8.686 Z-4.564 I0. J0.406
Y7.873 Z-4.626 I0. J-0.406
Y8.686 Z-4.689 I0. J0.406
Y7.873 Z-4.751 I0. J-0.406
Y8.686 Z-4.814 I0. J0.406
Y7.873 Z-4.876 I0. J-0.406
Y8.686 Z-4.939 I0. J0.406
Y7.873 Z-5.001 I0. J-0.406
Y8.686 Z-5.064 I0. J0.406
Y7.873 Z-5.126 I0. J-0.406
X120.015 Y8.591 Z-5.175 I0. J0.406
X120.535 Y7.967 I0.26 J-0.312
X120.015 Y8.591 I-0.26 J0.312
X120.301 Y8.565 I0.13 J-0.156
G1 X120.504 Y8.322
G0 Z21.
M9

(BORE15)
G0 X120.91 Y-23.865
Z21.
Z3.
G1 Z1.635 F800.
G19 G2 Y-24.5 Z1. J-0.635 K0.
G1 Y-24.817
G17 G2 X120.275 Y-25.452 I-0.635 J0.
Y-19.102 Z0.889 I0. J3.175
Y-25.452 Z0.778 I0. J-3.175
Y-19.102 Z0.667 I0. J3.175
Y-25.452 Z0.557 I0. J-3.175
Y-19.102 Z0.446 I0. J3.175
Y-25.452 Z0.335 I0. J-3.175
Y-19.102 Z0.224 I0. J3.175
Y-25.452 Z0.113 I0. J-3.175
Y-19.102 Z0.002 I0. J3.175
Y-25.452 Z-0.108 I0. J-3.175
Y-19.102 Z-0.219 I0. J3.175
Y-25.452 Z-0.33 I0. J-3.175
Y-19.102 Z-0.441 I0. J3.175
Y-25.452 Z-0.552 I0. J-3.175
Y-19.102 Z-0.663 I0. J3.175
Y-25.452 Z-0.773 I0. J-3.175
Y-19.102 Z-0.884 I0. J3.175
Y-25.452 Z-0.995 I0. J-3.175
Y-19.102 Z-1.106 I0. J3.175
Y-25.452 Z-1.217 I0. J-3.175
Y-19.102 Z-1.328 I0. J3.175
Y-25.452 Z-1.438 I0. J-3.175
Y-19.102 Z-1.549 I0. J3.175
Y-25.452 Z-1.66 I0. J-3.175
Y-19.102 Z-1.771 I0. J3.175
Y-25.452 Z-1.882 I0. J-3.175
Y-19.102 Z-1.993 I0. J3.175
Y-25.452 Z-2.104 I0. J-3.175
Y-19.102 Z-2.214 I0. J3.175
Y-25.452 Z-2.325 I0. J-3.175
Y-19.102 Z-2.436 I0. J3.175
Y-25.452 Z-2.547 I0. J-3.175
Y-19.102 Z-2.658 I0. J3.175
Y-25.452 Z-2.769 I0. J-3.175
Y-19.102 Z-2.879 I0. J3.175
Y-25.452 Z-2.99 I0. J-3.175
Y-19.102 Z-3.101 I0. J3.175
Y-25.452 Z-3.212 I0. J-3.175
Y-19.102 Z-3.323 I0. J3.175
Y-25.452 Z-3.434 I0. J-3.175
Y-19.102 Z-3.544 I0. J3.175
Y-25.452 Z-3.655 I0. J-3.175
Y-19.102 Z-3.766 I0. J3.175
Y-25.452 Z-3.877 I0. J-3.175
Y-19.102 Z-3.988 I0. J3.175
Y-25.452 Z-4.099 I0. J-3.175
Y-19.102 Z-4.209 I0. J3.175
Y-25.452 Z-4.32 I0. J-3.175
Y-19.102 Z-4.431 I0. J3.175
Y-25.452 Z-4.542 I0. J-3.175
Y-19.102 Z-4.653 I0. J3.175
X122.142 Y-19.709 Z-4.675 I0. J-3.175
X118.408 Y-24.845 I-1.867 J-2.568
X122.142 Y-19.709 I1.867 J2.568
X122.282 Y-20.596 I-0.373 J-0.514
G1 X122.095 Y-20.853
X122.037 Y-20.933 Z-4.667
X121.98 Y-21.011 Z-4.644
X121.926 Y-21.086 Z-4.606
X121.876 Y-21.155 Z-4.554
X121.831 Y-21.216 Z-4.489
X121.793 Y-21.268 Z-4.413
X121.763 Y-21.31 Z-4.328
X121.74 Y-21.341 Z-4.236
X121.727 Y-21.36 Z-4.139
X121.722 Y-21.366 Z-4.04
G0 Z6.
X120.91 Y-27.039
Z3.
G1 Z1.635 F800.
G19 G2 Y-27.674 Z1. J-0.635 K0.
G1 Y-27.992
G17 G2 X120.275 Y-28.627 I-0.635 J0.
Y-15.927 Z0.834 I0. J6.35
Y-28.627 Z0.667 I0. J-6.35
Y-15.927 Z0.501 I0. J6.35
Y-28.627 Z0.335 I0. J-6.35
Y-15.927 Z0.169 I0. J6.35
Y-28.627 Z0.002 I0. J-6.35
Y-15.927 Z-0.164 I0. J6.35
Y-28.627 Z-0.33 I0. J-6.35
Y-15.927 Z-0.496 I0. J6.35
Y-28.627 Z-0.663 I0. J-6.35
Y-15.927 Z-0.829 I0. J6.35
Y-28.627 Z-0.995 I0. J-6.35
Y-15.927 Z-1.161 I0. J6.35
Y-28.627 Z-1.328 I0. J-6.35
Y-15.927 Z-1.494 I0. J6.35
Y-28.627 Z-1.66 I0. J-6.35
Y-15.927 Z-1.826 I0. J6.35
Y-28.627 Z-1.993 I0. J-6.35
Y-15.927 Z-2.159 I0. J6.35
Y-28.627 Z-2.325 I0. J-6.35
Y-15.927 Z-2.491 I0. J6.35
Y-28.627 Z-2.658 I0. J-6.35
Y-15.927 Z-2.824 I0. J6.35
Y-28.627 Z-2.99 I0. J-6.35
Y-15.927 Z-3.156 I0. J6.35
Y-28.627 Z-3.323 I0. J-6.35
Y-15.927 Z-3.489 I0. J6.35
Y-28.627 Z-3.655 I0. J-6.35
Y-15.927 Z-3.822 I0. J6.35
Y-28.627 Z-3.988 I0. J-6.35
Y-15.927 Z-4.154 I0. J6.35
Y-28.627 Z-4.32 I0. J-6.35
Y-15.927 Z-4.487 I0. J6.35
Y-28.627 Z-4.653 I0. J-6.35
X117.691 Y-28.078 Z-4.675 I0. J6.35
X122.859 Y-16.476 I2.584 J5.801
X117.691 Y-28.078 I-2.584 J-5.801
X117.37 Y-27.239 I0.258 J0.58
G1 X117.499 Y-26.949
X117.539 Y-26.858 Z-4.667
X117.579 Y-26.77 Z-4.644
X117.616 Y-26.686 Z-4.606
X117.651 Y-26.608 Z-4.554
X117.681 Y-26.539 Z-4.489
X117.708 Y-26.48 Z-4.413
X117.729 Y-26.432 Z-4.328
X117.744 Y-26.397 Z-4.236
X117.754 Y-26.376 Z-4.139
X117.757 Y-26.369 Z-4.04
G0 Z21.

(2D CONTOUR4)
G0 X123.46 Y113.105
Z21.
Z6.
G1 Z4.135 F800.
G19 G2 Y112.47 Z3.5 J-0.635 K0.
G1 Y111.835 F1600.
G17 G2 X122.825 Y111.2 I-0.635 J0.
G1 X94.875 Z2.524 F800.
X145.675 Z0.75
X94.875 F1600.
X145.675 Z0.5 F800.
X94.875 F1600.
X145.675 Z0.25 F800.
X94.875 F1600.
X145.675 Z0. F800.
X94.875 F1600.
X145.675 Z-0.25 F800.
X94.875 F1600.
X145.675 Z-0.5 F800.
X94.875 F1600.
X145.675 Z-0.75 F800.
X94.875 F1600.
X145.675 Z-1. F800.
X94.875 F1600.
X145.675 Z-1.25 F800.
X94.875 F1600.
X145.675 Z-1.5 F800.
X94.875 F1600.
X145.675 Z-1.75 F800.
X94.875 F1600.
X145.675 Z-2. F800.
X94.875 F1600.
X145.675 Z-2.25 F800.
X94.875 F1600.
X145.675 Z-2.5 F800.
X94.875 F1600.
X145.675 Z-2.75 F800.
X94.875 F1600.
X145.675 Z-3. F800.
X94.875 F1600.
X145.675 Z-3.25 F800.
X94.875 F1600.
X145.675 Z-3.5 F800.
X94.875 F1600.
X145.675 Z-3.75 F800.
X94.875 F1600.
X145.675 Z-4. F800.
X94.875 F1600.
X145.675 Z-4.25 F800.
X94.875 F1600.
X145.675 Z-4.5 F800.
X94.875 F1600.
X145.675 Z-4.75 F800.
X94.875 F1600.
X145.675 Z-5. F800.
X94.875 F1600.
X145.675 Z-5.25 F800.
X94.875 F1600.
X145.675 Z-5.5 F800.
X94.875 F1600.
X145.675 Z-5.75 F800.
X94.875 F1600.
X145.675 Z-6. F800.
X94.875 F1600.
X145.675 Z-6.25 F800.
X94.875 F1600.
X145.675 Z-6.5 F800.
X94.875 F1600.
X145.675 Z-6.75 F800.
X94.875 F1600.
X145.675 Z-7. F800.
X94.875 F1600.
X145.675 Z-7.25 F800.
X94.875 F1600.
X145.675 Z-7.5 F800.
X94.875 F1600.
X145.675 Z-7.75 F800.
X94.875 F1600.
X145.675 Z-8. F800.
X94.875 F1600.
X145.675 Z-8.25 F800.
X94.875 F1600.
X145.675 Z-8.5 F800.
X94.875 F1600.
X145.675 Z-8.75 F800.
X94.875 F1600.
X145.675 Z-9. F800.
X94.875 F1600.
X145.675 Z-9.25 F800.
X94.875 F1600.
X145.675 Z-9.5 F800.
X94.875 F1600.
X145.675 Z-9.75 F800.
X94.875 F1600.
X145.675 Z-10. F800.
X94.875 F1600.
X145.675 Z-10.25 F800.
X94.875 F1600.
X145.675 Z-10.5 F800.
X94.875 F1600.
X145.675 Z-10.75 F800.
X94.875 F1600.
X145.675 Z-11. F800.
X94.875 F1600.
X145.675 Z-11.25 F800.
X94.875 F1600.
X145.675 Z-11.5 F800.
X94.875 F1600.
X145.675 Z-11.75 F800.
X94.875 F1600.
X145.675 Z-12. F800.
X94.875 F1600.
X145.675 Z-12.25 F800.
X94.875 F1600.
X145.675 Z-12.5 F800.
X94.875 F1600.
X145.675 Z-12.75 F800.
X94.875 F1600.
X145.675 Z-13. F800.
X94.875 F1600.
X145.675 Z-13.25 F800.
X94.875 F1600.
X145.675 Z-13.5 F800.
X94.875 F1600.
X145.675 Z-13.75 F800.
X94.875 F1600.
X145.675 Z-14. F800.
X94.875 F1600.
X145.675 Z-14.25 F800.
X94.875 F1600.
X145.675 Z-14.5 F800.
X94.875 F1600.
X145.675 Z-14.75 F800.
X94.875 F1600.
X145.675 Z-15. F800.
X94.875 F1600.
X145.675 Z-15.25 F800.
X94.875 F1600.
X145.675 Z-15.5 F800.
X94.875 F1600.
X145.675 Z-15.75 F800.
X94.875 F1600.
X145.675 Z-16. F800.
X94.875 F1600.
X145.675 Z-16.25 F800.
X94.875 F1600.
X145.675 Z-16.5 F800.
X94.875 F1600.
X145.675 Z-16.75 F800.
X94.875 F1600.
X145.675 Z-17. F800.
X94.875 F1600.
X145.675 Z-17.25 F800.
X94.875 F1600.
X145.675 Z-17.5 F800.
X94.875 F1600.
X145.675 Z-17.75 F800.
X94.875 F1600.
X145.675 Z-18. F800.
X94.875 F1600.
X145.675 Z-18.25 F800.
X94.875 F1600.
X145.675 Z-18.5 F800.
X94.875 F1600.
X145.675 Z-18.75 F800.
X94.875 F1600.
X145.675 Z-19. F800.
X94.875 F1600.
X145.675 Z-19.25 F800.
X94.875 F1600.
X145.675 Z-19.5 F800.
X94.875 F1600.
X145.675 Z-19.75 F800.
X94.875 F1600.
X145.675 Z-20. F800.
X94.875 F1600.
X145.675 Z-20.25 F800.
X94.875 F1600.
X145.675 Z-20.5 F800.
X94.875 F1600.
X145.675 Z-20.75 F800.
X94.875 F1600.
X145.675 Z-21. F800.
X94.875 F1600.
X145.675 Z-21.25 F800.
X94.875 F1600.
X145.675 Z-21.5 F800.
X94.875 F1600.
X145.675 Z-21.75 F800.
X94.875 F1600.
X145.675 Z-22. F800.
X94.875 F1600.
X145.675 Z-22.25 F800.
X94.875 F1600.
X145.675 Z-22.5 F800.
X94.875 F1600.
X145.675 Z-22.75 F800.
X94.875 F1600.
X145.675 Z-23. F800.
X94.875 F1600.
X145.675 Z-23.25 F800.
X94.875 F1600.
X145.675 Z-23.5 F800.
X94.875 F1600.
X145.675 Z-23.75 F800.
X94.875 F1600.
X145.675 Z-24. F800.
X94.875 F1600.
X145.675 Z-24.25 F800.
X94.875 F1600.
X145.675 Z-24.5 F800.
X94.875 F1600.
X145.675 Z-24.75 F800.
X94.875 F1600.
X145.675 Z-25. F800.
X94.875 F1600.
X145.675 Z-25.25 F800.
X94.875 F1600.
X145.675 Z-25.5 F800.
X94.875 F1600.
X145.675 Z-25.75 F800.
X94.875 F1600.
X145.675 Z-26. F800.
X94.875 F1600.
X145.675 Z-26.25 F800.
X94.875 F1600.
X145.675 Z-26.5 F800.
X94.875 F1600.
X145.675 Z-26.75 F800.
X94.875 F1600.
X145.675 Z-26.9 F800.
X94.875 F1600.
G2 X94.24 Y111.835 I0. J0.635
G1 Y112.47
G19 G3 Y113.105 Z-26.265 J0. K0.635
G0 Z21.
G17
M5
G0 Z15
G0 X0 Y0

M30
