(BOTTOM FRONT HOLES )
(T1  D=3.175 CR=0. - ZMIN=-5.175 - FLAT END MILL)
G90 G94 G91.1 G40 G49 G17
G21
(2ND HOLE)
G0 Z15

(BORE6 5)
M5
T1 M6
S16000 M3
G54
M8
G0 X13.891 Y16.192
G43 Z20. H1
Z3.
G1 Z1.317 F400.
G18 G2 X14.208 Z1. I0.318 K0.
G1 X14.367
G17 G2 X14.684 Y15.875 I0. J-0.317
X10.716 Z0.938 I-1.984 J0.
X14.684 Z0.875 I1.984 J0.
X10.716 Z0.813 I-1.984 J0.
X14.684 Z0.751 I1.984 J0.
X10.716 Z0.688 I-1.984 J0.
X14.684 Z0.626 I1.984 J0.
X10.716 Z0.564 I-1.984 J0.
X14.684 Z0.501 I1.984 J0.
X10.716 Z0.439 I-1.984 J0.
X14.684 Z0.377 I1.984 J0.
X10.716 Z0.314 I-1.984 J0.
X14.684 Z0.252 I1.984 J0.
X10.716 Z0.189 I-1.984 J0.
X14.684 Z0.127 I1.984 J0.
X10.716 Z0.065 I-1.984 J0.
X14.684 Z0.002 I1.984 J0.
X10.716 Z-0.06 I-1.984 J0.
X14.684 Z-0.122 I1.984 J0.
X10.716 Z-0.185 I-1.984 J0.
X14.684 Z-0.247 I1.984 J0.
X10.716 Z-0.309 I-1.984 J0.
X14.684 Z-0.372 I1.984 J0.
X10.716 Z-0.434 I-1.984 J0.
X14.684 Z-0.496 I1.984 J0.
X10.716 Z-0.559 I-1.984 J0.
X14.684 Z-0.621 I1.984 J0.
X10.716 Z-0.683 I-1.984 J0.
X14.684 Z-0.746 I1.984 J0.
X10.716 Z-0.808 I-1.984 J0.
X14.684 Z-0.87 I1.984 J0.
X10.716 Z-0.933 I-1.984 J0.
X14.684 Z-0.995 I1.984 J0.
X10.716 Z-1.057 I-1.984 J0.
X14.684 Z-1.12 I1.984 J0.
X10.716 Z-1.182 I-1.984 J0.
X14.684 Z-1.245 I1.984 J0.
X10.716 Z-1.307 I-1.984 J0.
X14.684 Z-1.369 I1.984 J0.
X10.716 Z-1.432 I-1.984 J0.
X14.684 Z-1.494 I1.984 J0.
X10.716 Z-1.556 I-1.984 J0.
X14.684 Z-1.619 I1.984 J0.
X10.716 Z-1.681 I-1.984 J0.
X14.684 Z-1.743 I1.984 J0.
X10.716 Z-1.806 I-1.984 J0.
X14.684 Z-1.868 I1.984 J0.
X10.716 Z-1.93 I-1.984 J0.
X14.684 Z-1.993 I1.984 J0.
X10.716 Z-2.055 I-1.984 J0.
X14.684 Z-2.117 I1.984 J0.
X10.716 Z-2.18 I-1.984 J0.
X14.684 Z-2.242 I1.984 J0.
X10.716 Z-2.304 I-1.984 J0.
X14.684 Z-2.367 I1.984 J0.
X10.716 Z-2.429 I-1.984 J0.
X14.684 Z-2.491 I1.984 J0.
X10.716 Z-2.554 I-1.984 J0.
X14.684 Z-2.616 I1.984 J0.
X10.716 Z-2.678 I-1.984 J0.
X14.684 Z-2.741 I1.984 J0.
X10.716 Z-2.803 I-1.984 J0.
X14.684 Z-2.866 I1.984 J0.
X10.716 Z-2.928 I-1.984 J0.
X14.684 Z-2.99 I1.984 J0.
X10.716 Z-3.053 I-1.984 J0.
X14.684 Z-3.115 I1.984 J0.
X10.716 Z-3.177 I-1.984 J0.
X14.684 Z-3.24 I1.984 J0.
X10.716 Z-3.302 I-1.984 J0.
X14.684 Z-3.364 I1.984 J0.
X10.716 Z-3.427 I-1.984 J0.
X14.684 Z-3.489 I1.984 J0.
X10.716 Z-3.551 I-1.984 J0.
X14.684 Z-3.614 I1.984 J0.
X10.716 Z-3.676 I-1.984 J0.
X14.684 Z-3.738 I1.984 J0.
X10.716 Z-3.801 I-1.984 J0.
X14.684 Z-3.863 I1.984 J0.
X10.716 Z-3.925 I-1.984 J0.
X14.684 Z-3.988 I1.984 J0.
X10.716 Z-4.05 I-1.984 J0.
X14.684 Z-4.112 I1.984 J0.
X10.716 Z-4.175 I-1.984 J0.
X14.684 Z-4.237 I1.984 J0.
X10.716 Z-4.3 I-1.984 J0.
X14.684 Z-4.362 I1.984 J0.
X10.716 Z-4.424 I-1.984 J0.
X14.684 Z-4.487 I1.984 J0.
X10.716 Z-4.549 I-1.984 J0.
X14.684 Z-4.611 I1.984 J0.
X10.716 Z-4.674 I-1.984 J0.
X14.684 Z-4.736 I1.984 J0.
X10.716 Z-4.798 I-1.984 J0.
X14.684 Z-4.861 I1.984 J0.
X10.716 Z-4.923 I-1.984 J0.
X14.684 Z-4.985 I1.984 J0.
X10.716 Z-5.048 I-1.984 J0.
X14.684 Z-5.11 I1.984 J0.
X12.569 Y13.895 Z-5.143 I-1.984 J0.
X10.733 Y16.136 Z-5.175 I0.131 J1.98
X14.667 Y15.614 I1.967 J-0.261
X10.733 Y16.136 I-1.967 J0.261
X11.089 Y16.409 I0.315 J-0.042
G1 X11.247 Y16.388
X11.317 Y16.379 Z-5.167
X11.383 Y16.37 Z-5.144
X11.443 Y16.362 Z-5.106
X11.493 Y16.355 Z-5.055
X11.53 Y16.35 Z-4.995
X11.554 Y16.347 Z-4.928
X11.561 Y16.346 Z-4.858
G0 Z5.
X13.891 Y38.417
Z3.
G1 Z1.317 F400.
G18 G2 X14.208 Z1. I0.318 K0.
G1 X14.367
G17 G2 X14.684 Y38.1 I0. J-0.318
X10.716 Z0.938 I-1.984 J0.
X14.684 Z0.875 I1.984 J0.
X10.716 Z0.813 I-1.984 J0.
X14.684 Z0.751 I1.984 J0.
X10.716 Z0.688 I-1.984 J0.
X14.684 Z0.626 I1.984 J0.
X10.716 Z0.564 I-1.984 J0.
X14.684 Z0.501 I1.984 J0.
X10.716 Z0.439 I-1.984 J0.
X14.684 Z0.377 I1.984 J0.
X10.716 Z0.314 I-1.984 J0.
X14.684 Z0.252 I1.984 J0.
X10.716 Z0.189 I-1.984 J0.
X14.684 Z0.127 I1.984 J0.
X10.716 Z0.065 I-1.984 J0.
X14.684 Z0.002 I1.984 J0.
X10.716 Z-0.06 I-1.984 J0.
X14.684 Z-0.122 I1.984 J0.
X10.716 Z-0.185 I-1.984 J0.
X14.684 Z-0.247 I1.984 J0.
X10.716 Z-0.309 I-1.984 J0.
X14.684 Z-0.372 I1.984 J0.
X10.716 Z-0.434 I-1.984 J0.
X14.684 Z-0.496 I1.984 J0.
X10.716 Z-0.559 I-1.984 J0.
X14.684 Z-0.621 I1.984 J0.
X10.716 Z-0.683 I-1.984 J0.
X14.684 Z-0.746 I1.984 J0.
X10.716 Z-0.808 I-1.984 J0.
X14.684 Z-0.87 I1.984 J0.
X10.716 Z-0.933 I-1.984 J0.
X14.684 Z-0.995 I1.984 J0.
X10.716 Z-1.057 I-1.984 J0.
X14.684 Z-1.12 I1.984 J0.
X10.716 Z-1.182 I-1.984 J0.
X14.684 Z-1.245 I1.984 J0.
X10.716 Z-1.307 I-1.984 J0.
X14.684 Z-1.369 I1.984 J0.
X10.716 Z-1.432 I-1.984 J0.
X14.684 Z-1.494 I1.984 J0.
X10.716 Z-1.556 I-1.984 J0.
X14.684 Z-1.619 I1.984 J0.
X10.716 Z-1.681 I-1.984 J0.
X14.684 Z-1.743 I1.984 J0.
X10.716 Z-1.806 I-1.984 J0.
X14.684 Z-1.868 I1.984 J0.
X10.716 Z-1.93 I-1.984 J0.
X14.684 Z-1.993 I1.984 J0.
X10.716 Z-2.055 I-1.984 J0.
X14.684 Z-2.117 I1.984 J0.
X10.716 Z-2.18 I-1.984 J0.
X14.684 Z-2.242 I1.984 J0.
X10.716 Z-2.304 I-1.984 J0.
X14.684 Z-2.367 I1.984 J0.
X10.716 Z-2.429 I-1.984 J0.
X14.684 Z-2.491 I1.984 J0.
X10.716 Z-2.554 I-1.984 J0.
X14.684 Z-2.616 I1.984 J0.
X10.716 Z-2.678 I-1.984 J0.
X14.684 Z-2.741 I1.984 J0.
X10.716 Z-2.803 I-1.984 J0.
X14.684 Z-2.866 I1.984 J0.
X10.716 Z-2.928 I-1.984 J0.
X14.684 Z-2.99 I1.984 J0.
X10.716 Z-3.053 I-1.984 J0.
X14.684 Z-3.115 I1.984 J0.
X10.716 Z-3.177 I-1.984 J0.
X14.684 Z-3.24 I1.984 J0.
X10.716 Z-3.302 I-1.984 J0.
X14.684 Z-3.364 I1.984 J0.
X10.716 Z-3.427 I-1.984 J0.
X14.684 Z-3.489 I1.984 J0.
X10.716 Z-3.551 I-1.984 J0.
X14.684 Z-3.614 I1.984 J0.
X10.716 Z-3.676 I-1.984 J0.
X14.684 Z-3.738 I1.984 J0.
X10.716 Z-3.801 I-1.984 J0.
X14.684 Z-3.863 I1.984 J0.
X10.716 Z-3.925 I-1.984 J0.
X14.684 Z-3.988 I1.984 J0.
X10.716 Z-4.05 I-1.984 J0.
X14.684 Z-4.112 I1.984 J0.
X10.716 Z-4.175 I-1.984 J0.
X14.684 Z-4.237 I1.984 J0.
X10.716 Z-4.3 I-1.984 J0.
X14.684 Z-4.362 I1.984 J0.
X10.716 Z-4.424 I-1.984 J0.
X14.684 Z-4.487 I1.984 J0.
X10.716 Z-4.549 I-1.984 J0.
X14.684 Z-4.611 I1.984 J0.
X10.716 Z-4.674 I-1.984 J0.
X14.684 Z-4.736 I1.984 J0.
X10.716 Z-4.798 I-1.984 J0.
X14.684 Z-4.861 I1.984 J0.
X10.716 Z-4.923 I-1.984 J0.
X14.684 Z-4.985 I1.984 J0.
X10.716 Z-5.048 I-1.984 J0.
X14.684 Z-5.11 I1.984 J0.
X12.569 Y36.12 Z-5.143 I-1.984 J0.
X10.733 Y38.361 Z-5.175 I0.131 J1.98
X14.667 Y37.839 I1.967 J-0.261
X10.733 Y38.361 I-1.967 J0.261
X11.089 Y38.634 I0.315 J-0.042
G1 X11.247 Y38.613
X11.317 Y38.604 Z-5.167
X11.383 Y38.595 Z-5.144
X11.443 Y38.587 Z-5.106
X11.493 Y38.58 Z-5.055
X11.53 Y38.575 Z-4.995
X11.554 Y38.572 Z-4.928
X11.561 Y38.571 Z-4.858
G0 Z20.
M5
G0 Z15
G0 X0 Y0

M9
M30
