(1001)
(T1  D=6.35 CR=0. - ZMIN=-5.175 - FLAT END MILL)
G90 G94 G91.1 G40 G49 G17
G21
G0 Z15

(BORE1)
M5
T1 M6
S15000 M3
G54
M8
G0 X24.765 Y326.631
G43 Z15. H1
Z4.5
G1 Z3.135 F1600.
G19 G3 Y327.266 Z2.5 J0.635 K0.
G1 Y327.584
G17 G2 X25.4 Y328.219 I0.635 J0.
Y321.869 Z2.389 I0. J-3.175
Y328.219 Z2.278 I0. J3.175
Y321.869 Z2.167 I0. J-3.175
Y328.219 Z2.057 I0. J3.175
Y321.869 Z1.946 I0. J-3.175
Y328.219 Z1.835 I0. J3.175
Y321.869 Z1.724 I0. J-3.175
Y328.219 Z1.613 I0. J3.175
Y321.869 Z1.502 I0. J-3.175
Y328.219 Z1.392 I0. J3.175
Y321.869 Z1.281 I0. J-3.175
Y328.219 Z1.17 I0. J3.175
Y321.869 Z1.059 I0. J-3.175
Y328.219 Z0.948 I0. J3.175
Y321.869 Z0.837 I0. J-3.175
Y328.219 Z0.727 I0. J3.175
Y321.869 Z0.616 I0. J-3.175
Y328.219 Z0.505 I0. J3.175
Y321.869 Z0.394 I0. J-3.175
Y328.219 Z0.283 I0. J3.175
Y321.869 Z0.172 I0. J-3.175
Y328.219 Z0.062 I0. J3.175
Y321.869 Z-0.049 I0. J-3.175
Y328.219 Z-0.16 I0. J3.175
Y321.869 Z-0.271 I0. J-3.175
Y328.219 Z-0.382 I0. J3.175
Y321.869 Z-0.493 I0. J-3.175
Y328.219 Z-0.604 I0. J3.175
Y321.869 Z-0.714 I0. J-3.175
Y328.219 Z-0.825 I0. J3.175
Y321.869 Z-0.936 I0. J-3.175
Y328.219 Z-1.047 I0. J3.175
Y321.869 Z-1.158 I0. J-3.175
Y328.219 Z-1.269 I0. J3.175
Y321.869 Z-1.379 I0. J-3.175
Y328.219 Z-1.49 I0. J3.175
Y321.869 Z-1.601 I0. J-3.175
Y328.219 Z-1.712 I0. J3.175
Y321.869 Z-1.823 I0. J-3.175
Y328.219 Z-1.934 I0. J3.175
Y321.869 Z-2.044 I0. J-3.175
Y328.219 Z-2.155 I0. J3.175
Y321.869 Z-2.266 I0. J-3.175
Y328.219 Z-2.377 I0. J3.175
Y321.869 Z-2.488 I0. J-3.175
Y328.219 Z-2.599 I0. J3.175
Y321.869 Z-2.709 I0. J-3.175
Y328.219 Z-2.82 I0. J3.175
Y321.869 Z-2.931 I0. J-3.175
Y328.219 Z-3.042 I0. J3.175
Y321.869 Z-3.153 I0. J-3.175
Y328.219 Z-3.264 I0. J3.175
Y321.869 Z-3.375 I0. J-3.175
Y328.219 Z-3.485 I0. J3.175
Y321.869 Z-3.596 I0. J-3.175
Y328.219 Z-3.707 I0. J3.175
Y321.869 Z-3.818 I0. J-3.175
Y328.219 Z-3.929 I0. J3.175
Y321.869 Z-4.04 I0. J-3.175
Y328.219 Z-4.15 I0. J3.175
Y321.869 Z-4.261 I0. J-3.175
Y328.219 Z-4.372 I0. J3.175
Y321.869 Z-4.483 I0. J-3.175
Y328.219 Z-4.594 I0. J3.175
Y321.869 Z-4.705 I0. J-3.175
Y328.219 Z-4.815 I0. J3.175
Y321.869 Z-4.926 I0. J-3.175
Y328.219 Z-5.037 I0. J3.175
Y321.869 Z-5.148 I0. J-3.175
X23.196 Y322.758 Z-5.175 I0. J3.175
X27.604 Y327.33 I2.204 J2.286
X23.196 Y322.758 I-2.204 J-2.286
X23.18 Y323.656 I0.441 J0.457
G1 X23.4 Y323.884
X23.469 Y323.956 Z-5.167
X23.537 Y324.026 Z-5.144
X23.6 Y324.092 Z-5.106
X23.659 Y324.153 Z-5.054
X23.712 Y324.208 Z-4.989
X23.757 Y324.254 Z-4.913
X23.793 Y324.292 Z-4.828
X23.819 Y324.319 Z-4.736
X23.836 Y324.336 Z-4.639
X23.841 Y324.342 Z-4.54
G0 Z5.
X40.884 Y231.202
Z3.865
G1 Z2.5 F1600.
Y231.52
G2 X41.082 Y231.718 I0.198 J0.
Y230.924 Z2.438 I0. J-0.397
Y231.718 Z2.375 I0. J0.397
Y230.924 Z2.313 I0. J-0.397
Y231.718 Z2.251 I0. J0.397
Y230.924 Z2.188 I0. J-0.397
Y231.718 Z2.126 I0. J0.397
Y230.924 Z2.064 I0. J-0.397
Y231.718 Z2.001 I0. J0.397
Y230.924 Z1.939 I0. J-0.397
Y231.718 Z1.877 I0. J0.397
Y230.924 Z1.814 I0. J-0.397
Y231.718 Z1.752 I0. J0.397
Y230.924 Z1.689 I0. J-0.397
Y231.718 Z1.627 I0. J0.397
Y230.924 Z1.565 I0. J-0.397
Y231.718 Z1.502 I0. J0.397
Y230.924 Z1.44 I0. J-0.397
Y231.718 Z1.378 I0. J0.397
Y230.924 Z1.315 I0. J-0.397
Y231.718 Z1.253 I0. J0.397
Y230.924 Z1.191 I0. J-0.397
Y231.718 Z1.128 I0. J0.397
Y230.924 Z1.066 I0. J-0.397
Y231.718 Z1.004 I0. J0.397
Y230.924 Z0.941 I0. J-0.397
Y231.718 Z0.879 I0. J0.397
Y230.924 Z0.817 I0. J-0.397
Y231.718 Z0.754 I0. J0.397
Y230.924 Z0.692 I0. J-0.397
Y231.718 Z0.63 I0. J0.397
Y230.924 Z0.567 I0. J-0.397
Y231.718 Z0.505 I0. J0.397
Y230.924 Z0.443 I0. J-0.397
Y231.718 Z0.38 I0. J0.397
Y230.924 Z0.318 I0. J-0.397
Y231.718 Z0.255 I0. J0.397
Y230.924 Z0.193 I0. J-0.397
Y231.718 Z0.131 I0. J0.397
Y230.924 Z0.068 I0. J-0.397
Y231.718 Z0.006 I0. J0.397
Y230.924 Z-0.056 I0. J-0.397
Y231.718 Z-0.119 I0. J0.397
Y230.924 Z-0.181 I0. J-0.397
Y231.718 Z-0.243 I0. J0.397
Y230.924 Z-0.306 I0. J-0.397
Y231.718 Z-0.368 I0. J0.397
Y230.924 Z-0.43 I0. J-0.397
Y231.718 Z-0.493 I0. J0.397
Y230.924 Z-0.555 I0. J-0.397
Y231.718 Z-0.617 I0. J0.397
Y230.924 Z-0.68 I0. J-0.397
Y231.718 Z-0.742 I0. J0.397
Y230.924 Z-0.804 I0. J-0.397
Y231.718 Z-0.867 I0. J0.397
Y230.924 Z-0.929 I0. J-0.397
Y231.718 Z-0.991 I0. J0.397
Y230.924 Z-1.054 I0. J-0.397
Y231.718 Z-1.116 I0. J0.397
Y230.924 Z-1.178 I0. J-0.397
Y231.718 Z-1.241 I0. J0.397
Y230.924 Z-1.303 I0. J-0.397
Y231.718 Z-1.366 I0. J0.397
Y230.924 Z-1.428 I0. J-0.397
Y231.718 Z-1.49 I0. J0.397
Y230.924 Z-1.553 I0. J-0.397
Y231.718 Z-1.615 I0. J0.397
Y230.924 Z-1.677 I0. J-0.397
Y231.718 Z-1.74 I0. J0.397
Y230.924 Z-1.802 I0. J-0.397
Y231.718 Z-1.864 I0. J0.397
Y230.924 Z-1.927 I0. J-0.397
Y231.718 Z-1.989 I0. J0.397
Y230.924 Z-2.051 I0. J-0.397
Y231.718 Z-2.114 I0. J0.397
Y230.924 Z-2.176 I0. J-0.397
Y231.718 Z-2.238 I0. J0.397
Y230.924 Z-2.301 I0. J-0.397
Y231.718 Z-2.363 I0. J0.397
Y230.924 Z-2.425 I0. J-0.397
Y231.718 Z-2.488 I0. J0.397
Y230.924 Z-2.55 I0. J-0.397
Y231.718 Z-2.612 I0. J0.397
Y230.924 Z-2.675 I0. J-0.397
Y231.718 Z-2.737 I0. J0.397
Y230.924 Z-2.8 I0. J-0.397
Y231.718 Z-2.862 I0. J0.397
Y230.924 Z-2.924 I0. J-0.397
Y231.718 Z-2.987 I0. J0.397
Y230.924 Z-3.049 I0. J-0.397
Y231.718 Z-3.111 I0. J0.397
Y230.924 Z-3.174 I0. J-0.397
Y231.718 Z-3.236 I0. J0.397
Y230.924 Z-3.298 I0. J-0.397
Y231.718 Z-3.361 I0. J0.397
Y230.924 Z-3.423 I0. J-0.397
Y231.718 Z-3.485 I0. J0.397
Y230.924 Z-3.548 I0. J-0.397
Y231.718 Z-3.61 I0. J0.397
Y230.924 Z-3.672 I0. J-0.397
Y231.718 Z-3.735 I0. J0.397
Y230.924 Z-3.797 I0. J-0.397
Y231.718 Z-3.859 I0. J0.397
Y230.924 Z-3.922 I0. J-0.397
Y231.718 Z-3.984 I0. J0.397
Y230.924 Z-4.046 I0. J-0.397
Y231.718 Z-4.109 I0. J0.397
Y230.924 Z-4.171 I0. J-0.397
Y231.718 Z-4.234 I0. J0.397
Y230.924 Z-4.296 I0. J-0.397
Y231.718 Z-4.358 I0. J0.397
Y230.924 Z-4.421 I0. J-0.397
Y231.718 Z-4.483 I0. J0.397
Y230.924 Z-4.545 I0. J-0.397
Y231.718 Z-4.608 I0. J0.397
Y230.924 Z-4.67 I0. J-0.397
Y231.718 Z-4.732 I0. J0.397
Y230.924 Z-4.795 I0. J-0.397
Y231.718 Z-4.857 I0. J0.397
Y230.924 Z-4.919 I0. J-0.397
Y231.718 Z-4.982 I0. J0.397
Y230.924 Z-5.044 I0. J-0.397
Y231.718 Z-5.106 I0. J0.397
Y230.924 Z-5.169 I0. J-0.397
X40.959 Y230.944 Z-5.175 I0. J0.397
X41.206 Y231.698 I0.124 J0.377
X40.959 Y230.944 I-0.124 J-0.377
X40.832 Y231.194 I0.062 J0.189
G1 X40.931 Y231.496
G0 Z5.
X9.519 Y231.202
Z3.865
G1 Z2.5 F1600.
Y231.52
G2 X9.718 Y231.718 I0.198 J0.
Y230.924 Z2.438 I0. J-0.397
Y231.718 Z2.375 I0. J0.397
Y230.924 Z2.313 I0. J-0.397
Y231.718 Z2.251 I0. J0.397
Y230.924 Z2.188 I0. J-0.397
Y231.718 Z2.126 I0. J0.397
Y230.924 Z2.064 I0. J-0.397
Y231.718 Z2.001 I0. J0.397
Y230.924 Z1.939 I0. J-0.397
Y231.718 Z1.877 I0. J0.397
Y230.924 Z1.814 I0. J-0.397
Y231.718 Z1.752 I0. J0.397
Y230.924 Z1.689 I0. J-0.397
Y231.718 Z1.627 I0. J0.397
Y230.924 Z1.565 I0. J-0.397
Y231.718 Z1.502 I0. J0.397
Y230.924 Z1.44 I0. J-0.397
Y231.718 Z1.378 I0. J0.397
Y230.924 Z1.315 I0. J-0.397
Y231.718 Z1.253 I0. J0.397
Y230.924 Z1.191 I0. J-0.397
Y231.718 Z1.128 I0. J0.397
Y230.924 Z1.066 I0. J-0.397
Y231.718 Z1.004 I0. J0.397
Y230.924 Z0.941 I0. J-0.397
Y231.718 Z0.879 I0. J0.397
Y230.924 Z0.817 I0. J-0.397
Y231.718 Z0.754 I0. J0.397
Y230.924 Z0.692 I0. J-0.397
Y231.718 Z0.63 I0. J0.397
Y230.924 Z0.567 I0. J-0.397
Y231.718 Z0.505 I0. J0.397
Y230.924 Z0.443 I0. J-0.397
Y231.718 Z0.38 I0. J0.397
Y230.924 Z0.318 I0. J-0.397
Y231.718 Z0.255 I0. J0.397
Y230.924 Z0.193 I0. J-0.397
Y231.718 Z0.131 I0. J0.397
Y230.924 Z0.068 I0. J-0.397
Y231.718 Z0.006 I0. J0.397
Y230.924 Z-0.056 I0. J-0.397
Y231.718 Z-0.119 I0. J0.397
Y230.924 Z-0.181 I0. J-0.397
Y231.718 Z-0.243 I0. J0.397
Y230.924 Z-0.306 I0. J-0.397
Y231.718 Z-0.368 I0. J0.397
Y230.924 Z-0.43 I0. J-0.397
Y231.718 Z-0.493 I0. J0.397
Y230.924 Z-0.555 I0. J-0.397
Y231.718 Z-0.617 I0. J0.397
Y230.924 Z-0.68 I0. J-0.397
Y231.718 Z-0.742 I0. J0.397
Y230.924 Z-0.804 I0. J-0.397
Y231.718 Z-0.867 I0. J0.397
Y230.924 Z-0.929 I0. J-0.397
Y231.718 Z-0.991 I0. J0.397
Y230.924 Z-1.054 I0. J-0.397
Y231.718 Z-1.116 I0. J0.397
Y230.924 Z-1.178 I0. J-0.397
Y231.718 Z-1.241 I0. J0.397
Y230.924 Z-1.303 I0. J-0.397
Y231.718 Z-1.366 I0. J0.397
Y230.924 Z-1.428 I0. J-0.397
Y231.718 Z-1.49 I0. J0.397
Y230.924 Z-1.553 I0. J-0.397
Y231.718 Z-1.615 I0. J0.397
Y230.924 Z-1.677 I0. J-0.397
Y231.718 Z-1.74 I0. J0.397
Y230.924 Z-1.802 I0. J-0.397
Y231.718 Z-1.864 I0. J0.397
Y230.924 Z-1.927 I0. J-0.397
Y231.718 Z-1.989 I0. J0.397
Y230.924 Z-2.051 I0. J-0.397
Y231.718 Z-2.114 I0. J0.397
Y230.924 Z-2.176 I0. J-0.397
Y231.718 Z-2.238 I0. J0.397
Y230.924 Z-2.301 I0. J-0.397
Y231.718 Z-2.363 I0. J0.397
Y230.924 Z-2.425 I0. J-0.397
Y231.718 Z-2.488 I0. J0.397
Y230.924 Z-2.55 I0. J-0.397
Y231.718 Z-2.612 I0. J0.397
Y230.924 Z-2.675 I0. J-0.397
Y231.718 Z-2.737 I0. J0.397
Y230.924 Z-2.8 I0. J-0.397
Y231.718 Z-2.862 I0. J0.397
Y230.924 Z-2.924 I0. J-0.397
Y231.718 Z-2.987 I0. J0.397
Y230.924 Z-3.049 I0. J-0.397
Y231.718 Z-3.111 I0. J0.397
Y230.924 Z-3.174 I0. J-0.397
Y231.718 Z-3.236 I0. J0.397
Y230.924 Z-3.298 I0. J-0.397
Y231.718 Z-3.361 I0. J0.397
Y230.924 Z-3.423 I0. J-0.397
Y231.718 Z-3.485 I0. J0.397
Y230.924 Z-3.548 I0. J-0.397
Y231.718 Z-3.61 I0. J0.397
Y230.924 Z-3.672 I0. J-0.397
Y231.718 Z-3.735 I0. J0.397
Y230.924 Z-3.797 I0. J-0.397
Y231.718 Z-3.859 I0. J0.397
Y230.924 Z-3.922 I0. J-0.397
Y231.718 Z-3.984 I0. J0.397
Y230.924 Z-4.046 I0. J-0.397
Y231.718 Z-4.109 I0. J0.397
Y230.924 Z-4.171 I0. J-0.397
Y231.718 Z-4.234 I0. J0.397
Y230.924 Z-4.296 I0. J-0.397
Y231.718 Z-4.358 I0. J0.397
Y230.924 Z-4.421 I0. J-0.397
Y231.718 Z-4.483 I0. J0.397
Y230.924 Z-4.545 I0. J-0.397
Y231.718 Z-4.608 I0. J0.397
Y230.924 Z-4.67 I0. J-0.397
Y231.718 Z-4.732 I0. J0.397
Y230.924 Z-4.795 I0. J-0.397
Y231.718 Z-4.857 I0. J0.397
Y230.924 Z-4.919 I0. J-0.397
Y231.718 Z-4.982 I0. J0.397
Y230.924 Z-5.044 I0. J-0.397
Y231.718 Z-5.106 I0. J0.397
Y230.924 Z-5.169 I0. J-0.397
X9.594 Y230.944 Z-5.175 I0. J0.397
X9.841 Y231.698 I0.124 J0.377
X9.594 Y230.944 I-0.124 J-0.377
X9.467 Y231.194 I0.062 J0.189
G1 X9.566 Y231.496
G0 Z5.
X25.197 Y160.744
Z3.865
G1 Z2.5 F1600.
Y161.061
G2 X25.4 Y161.265 I0.203 J0.
Y160.452 Z2.437 I0. J-0.406
Y161.265 Z2.375 I0. J0.406
Y160.452 Z2.312 I0. J-0.406
Y161.265 Z2.25 I0. J0.406
Y160.452 Z2.187 I0. J-0.406
Y161.265 Z2.125 I0. J0.406
Y160.452 Z2.062 I0. J-0.406
Y161.265 Z2. I0. J0.406
Y160.452 Z1.937 I0. J-0.406
Y161.265 Z1.875 I0. J0.406
Y160.452 Z1.812 I0. J-0.406
Y161.265 Z1.75 I0. J0.406
Y160.452 Z1.687 I0. J-0.406
Y161.265 Z1.625 I0. J0.406
Y160.452 Z1.562 I0. J-0.406
Y161.265 Z1.5 I0. J0.406
Y160.452 Z1.437 I0. J-0.406
Y161.265 Z1.375 I0. J0.406
Y160.452 Z1.312 I0. J-0.406
Y161.265 Z1.25 I0. J0.406
Y160.452 Z1.187 I0. J-0.406
Y161.265 Z1.125 I0. J0.406
Y160.452 Z1.062 I0. J-0.406
Y161.265 Z1. I0. J0.406
Y160.452 Z0.937 I0. J-0.406
Y161.265 Z0.875 I0. J0.406
Y160.452 Z0.812 I0. J-0.406
Y161.265 Z0.75 I0. J0.406
Y160.452 Z0.687 I0. J-0.406
Y161.265 Z0.625 I0. J0.406
Y160.452 Z0.562 I0. J-0.406
Y161.265 Z0.5 I0. J0.406
Y160.452 Z0.437 I0. J-0.406
Y161.265 Z0.375 I0. J0.406
Y160.452 Z0.312 I0. J-0.406
Y161.265 Z0.25 I0. J0.406
Y160.452 Z0.187 I0. J-0.406
Y161.265 Z0.124 I0. J0.406
Y160.452 Z0.062 I0. J-0.406
Y161.265 Z-0.001 I0. J0.406
Y160.452 Z-0.063 I0. J-0.406
Y161.265 Z-0.126 I0. J0.406
Y160.452 Z-0.188 I0. J-0.406
Y161.265 Z-0.251 I0. J0.406
Y160.452 Z-0.313 I0. J-0.406
Y161.265 Z-0.376 I0. J0.406
Y160.452 Z-0.438 I0. J-0.406
Y161.265 Z-0.501 I0. J0.406
Y160.452 Z-0.563 I0. J-0.406
Y161.265 Z-0.626 I0. J0.406
Y160.452 Z-0.688 I0. J-0.406
Y161.265 Z-0.751 I0. J0.406
Y160.452 Z-0.813 I0. J-0.406
Y161.265 Z-0.876 I0. J0.406
Y160.452 Z-0.938 I0. J-0.406
Y161.265 Z-1.001 I0. J0.406
Y160.452 Z-1.063 I0. J-0.406
Y161.265 Z-1.126 I0. J0.406
Y160.452 Z-1.188 I0. J-0.406
Y161.265 Z-1.251 I0. J0.406
Y160.452 Z-1.313 I0. J-0.406
Y161.265 Z-1.376 I0. J0.406
Y160.452 Z-1.438 I0. J-0.406
Y161.265 Z-1.501 I0. J0.406
Y160.452 Z-1.563 I0. J-0.406
Y161.265 Z-1.626 I0. J0.406
Y160.452 Z-1.688 I0. J-0.406
Y161.265 Z-1.751 I0. J0.406
Y160.452 Z-1.813 I0. J-0.406
Y161.265 Z-1.876 I0. J0.406
Y160.452 Z-1.938 I0. J-0.406
Y161.265 Z-2.001 I0. J0.406
Y160.452 Z-2.063 I0. J-0.406
Y161.265 Z-2.126 I0. J0.406
Y160.452 Z-2.189 I0. J-0.406
Y161.265 Z-2.251 I0. J0.406
Y160.452 Z-2.314 I0. J-0.406
Y161.265 Z-2.376 I0. J0.406
Y160.452 Z-2.439 I0. J-0.406
Y161.265 Z-2.501 I0. J0.406
Y160.452 Z-2.564 I0. J-0.406
Y161.265 Z-2.626 I0. J0.406
Y160.452 Z-2.689 I0. J-0.406
Y161.265 Z-2.751 I0. J0.406
Y160.452 Z-2.814 I0. J-0.406
Y161.265 Z-2.876 I0. J0.406
Y160.452 Z-2.939 I0. J-0.406
Y161.265 Z-3.001 I0. J0.406
Y160.452 Z-3.064 I0. J-0.406
Y161.265 Z-3.126 I0. J0.406
Y160.452 Z-3.189 I0. J-0.406
Y161.265 Z-3.251 I0. J0.406
Y160.452 Z-3.314 I0. J-0.406
Y161.265 Z-3.376 I0. J0.406
Y160.452 Z-3.439 I0. J-0.406
Y161.265 Z-3.501 I0. J0.406
Y160.452 Z-3.564 I0. J-0.406
Y161.265 Z-3.626 I0. J0.406
Y160.452 Z-3.689 I0. J-0.406
Y161.265 Z-3.751 I0. J0.406
Y160.452 Z-3.814 I0. J-0.406
Y161.265 Z-3.876 I0. J0.406
Y160.452 Z-3.939 I0. J-0.406
Y161.265 Z-4.001 I0. J0.406
Y160.452 Z-4.064 I0. J-0.406
Y161.265 Z-4.126 I0. J0.406
Y160.452 Z-4.189 I0. J-0.406
Y161.265 Z-4.251 I0. J0.406
Y160.452 Z-4.314 I0. J-0.406
Y161.265 Z-4.376 I0. J0.406
Y160.452 Z-4.439 I0. J-0.406
Y161.265 Z-4.502 I0. J0.406
Y160.452 Z-4.564 I0. J-0.406
Y161.265 Z-4.627 I0. J0.406
Y160.452 Z-4.689 I0. J-0.406
Y161.265 Z-4.752 I0. J0.406
Y160.452 Z-4.814 I0. J-0.406
Y161.265 Z-4.877 I0. J0.406
Y160.452 Z-4.939 I0. J-0.406
Y161.265 Z-5.002 I0. J0.406
Y160.452 Z-5.064 I0. J-0.406
Y161.265 Z-5.127 I0. J0.406
X25.666 Y160.551 Z-5.175 I0. J-0.406
X25.134 Y161.166 I-0.266 J0.308
X25.666 Y160.551 I0.266 J-0.308
X25.379 Y160.572 I-0.133 J0.154
G1 X25.171 Y160.812
G0 Z5.
X25.197 Y99.632
Z3.865
G1 Z2.5 F1600.
Y99.949
G2 X25.4 Y100.152 I0.203 J0.
Y99.339 Z2.437 I0. J-0.406
Y100.152 Z2.375 I0. J0.406
Y99.339 Z2.312 I0. J-0.406
Y100.152 Z2.25 I0. J0.406
Y99.339 Z2.187 I0. J-0.406
Y100.152 Z2.125 I0. J0.406
Y99.339 Z2.062 I0. J-0.406
Y100.152 Z2. I0. J0.406
Y99.339 Z1.937 I0. J-0.406
Y100.152 Z1.875 I0. J0.406
Y99.339 Z1.812 I0. J-0.406
Y100.152 Z1.75 I0. J0.406
Y99.339 Z1.687 I0. J-0.406
Y100.152 Z1.625 I0. J0.406
Y99.339 Z1.562 I0. J-0.406
Y100.152 Z1.5 I0. J0.406
Y99.339 Z1.437 I0. J-0.406
Y100.152 Z1.375 I0. J0.406
Y99.339 Z1.312 I0. J-0.406
Y100.152 Z1.25 I0. J0.406
Y99.339 Z1.187 I0. J-0.406
Y100.152 Z1.125 I0. J0.406
Y99.339 Z1.062 I0. J-0.406
Y100.152 Z1. I0. J0.406
Y99.339 Z0.937 I0. J-0.406
Y100.152 Z0.875 I0. J0.406
Y99.339 Z0.812 I0. J-0.406
Y100.152 Z0.75 I0. J0.406
Y99.339 Z0.687 I0. J-0.406
Y100.152 Z0.625 I0. J0.406
Y99.339 Z0.562 I0. J-0.406
Y100.152 Z0.5 I0. J0.406
Y99.339 Z0.437 I0. J-0.406
Y100.152 Z0.375 I0. J0.406
Y99.339 Z0.312 I0. J-0.406
Y100.152 Z0.25 I0. J0.406
Y99.339 Z0.187 I0. J-0.406
Y100.152 Z0.124 I0. J0.406
Y99.339 Z0.062 I0. J-0.406
Y100.152 Z-0.001 I0. J0.406
Y99.339 Z-0.063 I0. J-0.406
Y100.152 Z-0.126 I0. J0.406
Y99.339 Z-0.188 I0. J-0.406
Y100.152 Z-0.251 I0. J0.406
Y99.339 Z-0.313 I0. J-0.406
Y100.152 Z-0.376 I0. J0.406
Y99.339 Z-0.438 I0. J-0.406
Y100.152 Z-0.501 I0. J0.406
Y99.339 Z-0.563 I0. J-0.406
Y100.152 Z-0.626 I0. J0.406
Y99.339 Z-0.688 I0. J-0.406
Y100.152 Z-0.751 I0. J0.406
Y99.339 Z-0.813 I0. J-0.406
Y100.152 Z-0.876 I0. J0.406
Y99.339 Z-0.938 I0. J-0.406
Y100.152 Z-1.001 I0. J0.406
Y99.339 Z-1.063 I0. J-0.406
Y100.152 Z-1.126 I0. J0.406
Y99.339 Z-1.188 I0. J-0.406
Y100.152 Z-1.251 I0. J0.406
Y99.339 Z-1.313 I0. J-0.406
Y100.152 Z-1.376 I0. J0.406
Y99.339 Z-1.438 I0. J-0.406
Y100.152 Z-1.501 I0. J0.406
Y99.339 Z-1.563 I0. J-0.406
Y100.152 Z-1.626 I0. J0.406
Y99.339 Z-1.688 I0. J-0.406
Y100.152 Z-1.751 I0. J0.406
Y99.339 Z-1.813 I0. J-0.406
Y100.152 Z-1.876 I0. J0.406
Y99.339 Z-1.938 I0. J-0.406
Y100.152 Z-2.001 I0. J0.406
Y99.339 Z-2.063 I0. J-0.406
Y100.152 Z-2.126 I0. J0.406
Y99.339 Z-2.189 I0. J-0.406
Y100.152 Z-2.251 I0. J0.406
Y99.339 Z-2.314 I0. J-0.406
Y100.152 Z-2.376 I0. J0.406
Y99.339 Z-2.439 I0. J-0.406
Y100.152 Z-2.501 I0. J0.406
Y99.339 Z-2.564 I0. J-0.406
Y100.152 Z-2.626 I0. J0.406
Y99.339 Z-2.689 I0. J-0.406
Y100.152 Z-2.751 I0. J0.406
Y99.339 Z-2.814 I0. J-0.406
Y100.152 Z-2.876 I0. J0.406
Y99.339 Z-2.939 I0. J-0.406
Y100.152 Z-3.001 I0. J0.406
Y99.339 Z-3.064 I0. J-0.406
Y100.152 Z-3.126 I0. J0.406
Y99.339 Z-3.189 I0. J-0.406
Y100.152 Z-3.251 I0. J0.406
Y99.339 Z-3.314 I0. J-0.406
Y100.152 Z-3.376 I0. J0.406
Y99.339 Z-3.439 I0. J-0.406
Y100.152 Z-3.501 I0. J0.406
Y99.339 Z-3.564 I0. J-0.406
Y100.152 Z-3.626 I0. J0.406
Y99.339 Z-3.689 I0. J-0.406
Y100.152 Z-3.751 I0. J0.406
Y99.339 Z-3.814 I0. J-0.406
Y100.152 Z-3.876 I0. J0.406
Y99.339 Z-3.939 I0. J-0.406
Y100.152 Z-4.001 I0. J0.406
Y99.339 Z-4.064 I0. J-0.406
Y100.152 Z-4.126 I0. J0.406
Y99.339 Z-4.189 I0. J-0.406
Y100.152 Z-4.251 I0. J0.406
Y99.339 Z-4.314 I0. J-0.406
Y100.152 Z-4.376 I0. J0.406
Y99.339 Z-4.439 I0. J-0.406
Y100.152 Z-4.502 I0. J0.406
Y99.339 Z-4.564 I0. J-0.406
Y100.152 Z-4.627 I0. J0.406
Y99.339 Z-4.689 I0. J-0.406
Y100.152 Z-4.752 I0. J0.406
Y99.339 Z-4.814 I0. J-0.406
Y100.152 Z-4.877 I0. J0.406
Y99.339 Z-4.939 I0. J-0.406
Y100.152 Z-5.002 I0. J0.406
Y99.339 Z-5.064 I0. J-0.406
Y100.152 Z-5.127 I0. J0.406
X25.666 Y99.438 Z-5.175 I0. J-0.406
X25.134 Y100.053 I-0.266 J0.308
X25.666 Y99.438 I0.266 J-0.308
X25.379 Y99.459 I-0.133 J0.154
G1 X25.171 Y99.7
G0 Z15.

(BORE2)
G0 X24.765 Y131.889
Z15.
Z4.5
G1 Z3.135 F1600.
G19 G3 Y132.525 Z2.5 J0.635 K0.
G1 Y132.842
G17 G2 X25.4 Y133.477 I0.635 J0.
Y127.127 Z2.389 I0. J-3.175
Y133.477 Z2.278 I0. J3.175
Y127.127 Z2.167 I0. J-3.175
Y133.477 Z2.057 I0. J3.175
Y127.127 Z1.946 I0. J-3.175
Y133.477 Z1.835 I0. J3.175
Y127.127 Z1.724 I0. J-3.175
Y133.477 Z1.613 I0. J3.175
Y127.127 Z1.502 I0. J-3.175
Y133.477 Z1.392 I0. J3.175
Y127.127 Z1.281 I0. J-3.175
Y133.477 Z1.17 I0. J3.175
Y127.127 Z1.059 I0. J-3.175
Y133.477 Z0.948 I0. J3.175
Y127.127 Z0.837 I0. J-3.175
Y133.477 Z0.727 I0. J3.175
Y127.127 Z0.616 I0. J-3.175
Y133.477 Z0.505 I0. J3.175
Y127.127 Z0.394 I0. J-3.175
Y133.477 Z0.283 I0. J3.175
Y127.127 Z0.172 I0. J-3.175
Y133.477 Z0.062 I0. J3.175
Y127.127 Z-0.049 I0. J-3.175
Y133.477 Z-0.16 I0. J3.175
Y127.127 Z-0.271 I0. J-3.175
Y133.477 Z-0.382 I0. J3.175
Y127.127 Z-0.493 I0. J-3.175
Y133.477 Z-0.604 I0. J3.175
Y127.127 Z-0.714 I0. J-3.175
Y133.477 Z-0.825 I0. J3.175
Y127.127 Z-0.936 I0. J-3.175
Y133.477 Z-1.047 I0. J3.175
Y127.127 Z-1.158 I0. J-3.175
Y133.477 Z-1.269 I0. J3.175
Y127.127 Z-1.379 I0. J-3.175
Y133.477 Z-1.49 I0. J3.175
Y127.127 Z-1.601 I0. J-3.175
Y133.477 Z-1.712 I0. J3.175
Y127.127 Z-1.823 I0. J-3.175
Y133.477 Z-1.934 I0. J3.175
Y127.127 Z-2.044 I0. J-3.175
Y133.477 Z-2.155 I0. J3.175
Y127.127 Z-2.266 I0. J-3.175
Y133.477 Z-2.377 I0. J3.175
Y127.127 Z-2.488 I0. J-3.175
Y133.477 Z-2.599 I0. J3.175
Y127.127 Z-2.709 I0. J-3.175
Y133.477 Z-2.82 I0. J3.175
Y127.127 Z-2.931 I0. J-3.175
Y133.477 Z-3.042 I0. J3.175
Y127.127 Z-3.153 I0. J-3.175
Y133.477 Z-3.264 I0. J3.175
Y127.127 Z-3.375 I0. J-3.175
Y133.477 Z-3.485 I0. J3.175
Y127.127 Z-3.596 I0. J-3.175
Y133.477 Z-3.707 I0. J3.175
Y127.127 Z-3.818 I0. J-3.175
Y133.477 Z-3.929 I0. J3.175
Y127.127 Z-4.04 I0. J-3.175
Y133.477 Z-4.15 I0. J3.175
Y127.127 Z-4.261 I0. J-3.175
Y133.477 Z-4.372 I0. J3.175
Y127.127 Z-4.483 I0. J-3.175
Y133.477 Z-4.594 I0. J3.175
Y127.127 Z-4.705 I0. J-3.175
Y133.477 Z-4.815 I0. J3.175
Y127.127 Z-4.926 I0. J-3.175
Y133.477 Z-5.037 I0. J3.175
Y127.127 Z-5.148 I0. J-3.175
X23.196 Y128.016 Z-5.175 I0. J3.175
X27.604 Y132.588 I2.204 J2.286
X23.196 Y128.016 I-2.204 J-2.286
X23.18 Y128.914 I0.441 J0.457
G1 X23.4 Y129.143
X23.469 Y129.214 Z-5.167
X23.537 Y129.284 Z-5.144
X23.6 Y129.35 Z-5.106
X23.659 Y129.411 Z-5.054
X23.712 Y129.466 Z-4.989
X23.757 Y129.512 Z-4.913
X23.793 Y129.55 Z-4.828
X23.819 Y129.577 Z-4.736
X23.836 Y129.594 Z-4.639
X23.841 Y129.6 Z-4.54
G0 Z5.
X24.765 Y135.064
Z4.5
G1 Z3.135 F1600.
G19 G3 Y135.699 Z2.5 J0.635 K0.
G1 Y136.017
G17 G2 X25.4 Y136.652 I0.635 J0.
Y123.952 Z2.334 I0. J-6.35
Y136.652 Z2.167 I0. J6.35
Y123.952 Z2.001 I0. J-6.35
Y136.652 Z1.835 I0. J6.35
Y123.952 Z1.669 I0. J-6.35
Y136.652 Z1.502 I0. J6.35
Y123.952 Z1.336 I0. J-6.35
Y136.652 Z1.17 I0. J6.35
Y123.952 Z1.004 I0. J-6.35
Y136.652 Z0.837 I0. J6.35
Y123.952 Z0.671 I0. J-6.35
Y136.652 Z0.505 I0. J6.35
Y123.952 Z0.339 I0. J-6.35
Y136.652 Z0.172 I0. J6.35
Y123.952 Z0.006 I0. J-6.35
Y136.652 Z-0.16 I0. J6.35
Y123.952 Z-0.326 I0. J-6.35
Y136.652 Z-0.493 I0. J6.35
Y123.952 Z-0.659 I0. J-6.35
Y136.652 Z-0.825 I0. J6.35
Y123.952 Z-0.991 I0. J-6.35
Y136.652 Z-1.158 I0. J6.35
Y123.952 Z-1.324 I0. J-6.35
Y136.652 Z-1.49 I0. J6.35
Y123.952 Z-1.656 I0. J-6.35
Y136.652 Z-1.823 I0. J6.35
Y123.952 Z-1.989 I0. J-6.35
Y136.652 Z-2.155 I0. J6.35
Y123.952 Z-2.322 I0. J-6.35
Y136.652 Z-2.488 I0. J6.35
Y123.952 Z-2.654 I0. J-6.35
Y136.652 Z-2.82 I0. J6.35
Y123.952 Z-2.987 I0. J-6.35
Y136.652 Z-3.153 I0. J6.35
Y123.952 Z-3.319 I0. J-6.35
Y136.652 Z-3.485 I0. J6.35
Y123.952 Z-3.652 I0. J-6.35
Y136.652 Z-3.818 I0. J6.35
Y123.952 Z-3.984 I0. J-6.35
Y136.652 Z-4.15 I0. J6.35
Y123.952 Z-4.317 I0. J-6.35
Y136.652 Z-4.483 I0. J6.35
Y123.952 Z-4.649 I0. J-6.35
Y136.652 Z-4.815 I0. J6.35
Y123.952 Z-4.982 I0. J-6.35
Y136.652 Z-5.148 I0. J6.35
X28.508 Y135.84 Z-5.175 I0. J-6.35
X22.292 Y124.764 I-3.108 J-5.538
X28.508 Y135.84 I3.108 J5.538
X28.751 Y134.975 I-0.311 J-0.554
G1 X28.595 Y134.698
X28.547 Y134.612 Z-5.167
X28.499 Y134.527 Z-5.144
X28.454 Y134.447 Z-5.106
X28.413 Y134.373 Z-5.054
X28.375 Y134.307 Z-4.989
X28.344 Y134.25 Z-4.913
X28.318 Y134.205 Z-4.828
X28.3 Y134.172 Z-4.736
X28.288 Y134.151 Z-4.639
X28.284 Y134.144 Z-4.54
G0 Z15.

(BORE2 2)
G0 X24.765 Y265.913
Z15.
Z4.5
G1 Z3.135 F1600.
G19 G3 Y266.548 Z2.5 J0.635 K0.
G1 Y266.865
G17 G2 X25.4 Y267.5 I0.635 J0.
Y261.15 Z2.389 I0. J-3.175
Y267.5 Z2.278 I0. J3.175
Y261.15 Z2.167 I0. J-3.175
Y267.5 Z2.057 I0. J3.175
Y261.15 Z1.946 I0. J-3.175
Y267.5 Z1.835 I0. J3.175
Y261.15 Z1.724 I0. J-3.175
Y267.5 Z1.613 I0. J3.175
Y261.15 Z1.502 I0. J-3.175
Y267.5 Z1.392 I0. J3.175
Y261.15 Z1.281 I0. J-3.175
Y267.5 Z1.17 I0. J3.175
Y261.15 Z1.059 I0. J-3.175
Y267.5 Z0.948 I0. J3.175
Y261.15 Z0.837 I0. J-3.175
Y267.5 Z0.727 I0. J3.175
Y261.15 Z0.616 I0. J-3.175
Y267.5 Z0.505 I0. J3.175
Y261.15 Z0.394 I0. J-3.175
Y267.5 Z0.283 I0. J3.175
Y261.15 Z0.172 I0. J-3.175
Y267.5 Z0.062 I0. J3.175
Y261.15 Z-0.049 I0. J-3.175
Y267.5 Z-0.16 I0. J3.175
Y261.15 Z-0.271 I0. J-3.175
Y267.5 Z-0.382 I0. J3.175
Y261.15 Z-0.493 I0. J-3.175
Y267.5 Z-0.604 I0. J3.175
Y261.15 Z-0.714 I0. J-3.175
Y267.5 Z-0.825 I0. J3.175
Y261.15 Z-0.936 I0. J-3.175
Y267.5 Z-1.047 I0. J3.175
Y261.15 Z-1.158 I0. J-3.175
Y267.5 Z-1.269 I0. J3.175
Y261.15 Z-1.379 I0. J-3.175
Y267.5 Z-1.49 I0. J3.175
Y261.15 Z-1.601 I0. J-3.175
Y267.5 Z-1.712 I0. J3.175
Y261.15 Z-1.823 I0. J-3.175
Y267.5 Z-1.934 I0. J3.175
Y261.15 Z-2.044 I0. J-3.175
Y267.5 Z-2.155 I0. J3.175
Y261.15 Z-2.266 I0. J-3.175
Y267.5 Z-2.377 I0. J3.175
Y261.15 Z-2.488 I0. J-3.175
Y267.5 Z-2.599 I0. J3.175
Y261.15 Z-2.709 I0. J-3.175
Y267.5 Z-2.82 I0. J3.175
Y261.15 Z-2.931 I0. J-3.175
Y267.5 Z-3.042 I0. J3.175
Y261.15 Z-3.153 I0. J-3.175
Y267.5 Z-3.264 I0. J3.175
Y261.15 Z-3.375 I0. J-3.175
Y267.5 Z-3.485 I0. J3.175
Y261.15 Z-3.596 I0. J-3.175
Y267.5 Z-3.707 I0. J3.175
Y261.15 Z-3.818 I0. J-3.175
Y267.5 Z-3.929 I0. J3.175
Y261.15 Z-4.04 I0. J-3.175
Y267.5 Z-4.15 I0. J3.175
Y261.15 Z-4.261 I0. J-3.175
Y267.5 Z-4.372 I0. J3.175
Y261.15 Z-4.483 I0. J-3.175
Y267.5 Z-4.594 I0. J3.175
Y261.15 Z-4.705 I0. J-3.175
Y267.5 Z-4.815 I0. J3.175
Y261.15 Z-4.926 I0. J-3.175
Y267.5 Z-5.037 I0. J3.175
Y261.15 Z-5.148 I0. J-3.175
X23.196 Y262.039 Z-5.175 I0. J3.175
X27.604 Y266.611 I2.204 J2.286
X23.196 Y262.039 I-2.204 J-2.286
X23.18 Y262.937 I0.441 J0.457
G1 X23.4 Y263.166
X23.469 Y263.237 Z-5.167
X23.537 Y263.307 Z-5.144
X23.6 Y263.373 Z-5.106
X23.659 Y263.434 Z-5.054
X23.712 Y263.489 Z-4.989
X23.757 Y263.536 Z-4.913
X23.793 Y263.573 Z-4.828
X23.819 Y263.601 Z-4.736
X23.836 Y263.617 Z-4.639
X23.841 Y263.623 Z-4.54
G0 Z5.
X24.765 Y269.088
Z4.5
G1 Z3.135 F1600.
G19 G3 Y269.723 Z2.5 J0.635 K0.
G1 Y270.04
G17 G2 X25.4 Y270.675 I0.635 J0.
Y257.975 Z2.334 I0. J-6.35
Y270.675 Z2.167 I0. J6.35
Y257.975 Z2.001 I0. J-6.35
Y270.675 Z1.835 I0. J6.35
Y257.975 Z1.669 I0. J-6.35
Y270.675 Z1.502 I0. J6.35
Y257.975 Z1.336 I0. J-6.35
Y270.675 Z1.17 I0. J6.35
Y257.975 Z1.004 I0. J-6.35
Y270.675 Z0.837 I0. J6.35
Y257.975 Z0.671 I0. J-6.35
Y270.675 Z0.505 I0. J6.35
Y257.975 Z0.339 I0. J-6.35
Y270.675 Z0.172 I0. J6.35
Y257.975 Z0.006 I0. J-6.35
Y270.675 Z-0.16 I0. J6.35
Y257.975 Z-0.326 I0. J-6.35
Y270.675 Z-0.493 I0. J6.35
Y257.975 Z-0.659 I0. J-6.35
Y270.675 Z-0.825 I0. J6.35
Y257.975 Z-0.991 I0. J-6.35
Y270.675 Z-1.158 I0. J6.35
Y257.975 Z-1.324 I0. J-6.35
Y270.675 Z-1.49 I0. J6.35
Y257.975 Z-1.656 I0. J-6.35
Y270.675 Z-1.823 I0. J6.35
Y257.975 Z-1.989 I0. J-6.35
Y270.675 Z-2.155 I0. J6.35
Y257.975 Z-2.322 I0. J-6.35
Y270.675 Z-2.488 I0. J6.35
Y257.975 Z-2.654 I0. J-6.35
Y270.675 Z-2.82 I0. J6.35
Y257.975 Z-2.987 I0. J-6.35
Y270.675 Z-3.153 I0. J6.35
Y257.975 Z-3.319 I0. J-6.35
Y270.675 Z-3.485 I0. J6.35
Y257.975 Z-3.652 I0. J-6.35
Y270.675 Z-3.818 I0. J6.35
Y257.975 Z-3.984 I0. J-6.35
Y270.675 Z-4.15 I0. J6.35
Y257.975 Z-4.317 I0. J-6.35
Y270.675 Z-4.483 I0. J6.35
Y257.975 Z-4.649 I0. J-6.35
Y270.675 Z-4.815 I0. J6.35
Y257.975 Z-4.982 I0. J-6.35
Y270.675 Z-5.148 I0. J6.35
X28.508 Y269.863 Z-5.175 I0. J-6.35
X22.292 Y258.787 I-3.108 J-5.538
X28.508 Y269.863 I3.108 J5.538
X28.751 Y268.998 I-0.311 J-0.554
G1 X28.595 Y268.721
X28.547 Y268.635 Z-5.167
X28.499 Y268.55 Z-5.144
X28.454 Y268.47 Z-5.106
X28.413 Y268.396 Z-5.054
X28.375 Y268.33 Z-4.989
X28.344 Y268.273 Z-4.913
X28.318 Y268.228 Z-4.828
X28.3 Y268.195 Z-4.736
X28.288 Y268.174 Z-4.639
X28.284 Y268.168 Z-4.54
G0 Z5.
X24.765 Y272.263
Z4.5
G1 Z3.135 F1600.
G19 G3 Y272.898 Z2.5 J0.635 K0.
G1 Y273.215
G17 G2 X25.4 Y273.85 I0.635 J0.
Y254.8 Z2.278 I0. J-9.525
Y273.85 Z2.057 I0. J9.525
Y254.8 Z1.835 I0. J-9.525
Y273.85 Z1.613 I0. J9.525
Y254.8 Z1.392 I0. J-9.525
Y273.85 Z1.17 I0. J9.525
Y254.8 Z0.948 I0. J-9.525
Y273.85 Z0.727 I0. J9.525
Y254.8 Z0.505 I0. J-9.525
Y273.85 Z0.283 I0. J9.525
Y254.8 Z0.062 I0. J-9.525
Y273.85 Z-0.16 I0. J9.525
Y254.8 Z-0.382 I0. J-9.525
Y273.85 Z-0.604 I0. J9.525
Y254.8 Z-0.825 I0. J-9.525
Y273.85 Z-1.047 I0. J9.525
Y254.8 Z-1.269 I0. J-9.525
Y273.85 Z-1.49 I0. J9.525
Y254.8 Z-1.712 I0. J-9.525
Y273.85 Z-1.934 I0. J9.525
Y254.8 Z-2.155 I0. J-9.525
Y273.85 Z-2.377 I0. J9.525
Y254.8 Z-2.599 I0. J-9.525
Y273.85 Z-2.82 I0. J9.525
Y254.8 Z-3.042 I0. J-9.525
Y273.85 Z-3.264 I0. J9.525
Y254.8 Z-3.485 I0. J-9.525
Y273.85 Z-3.707 I0. J9.525
Y254.8 Z-3.929 I0. J-9.525
Y273.85 Z-4.15 I0. J9.525
Y254.8 Z-4.372 I0. J-9.525
Y273.85 Z-4.594 I0. J9.525
Y254.8 Z-4.815 I0. J-9.525
Y273.85 Z-5.037 I0. J9.525
X34.233 Y260.761 Z-5.175 I0. J-9.525
X16.567 Y267.889 I-8.833 J3.564
X34.233 Y260.761 I8.833 J-3.564
X33.407 Y260.41 I-0.589 J0.238
G1 X33.112 Y260.528
X33.02 Y260.566 Z-5.167
X32.93 Y260.602 Z-5.144
X32.845 Y260.636 Z-5.106
X32.766 Y260.668 Z-5.054
X32.696 Y260.696 Z-4.989
X32.636 Y260.721 Z-4.913
X32.587 Y260.74 Z-4.828
X32.552 Y260.754 Z-4.736
X32.53 Y260.763 Z-4.639
X32.523 Y260.766 Z-4.54
G0 Z5.
X24.765 Y304.8
Z2.912
G1 Z1.548 F1600.
G19 G3 Y305.435 Z0.913 J0.635 K0.
G1 Y305.753
G17 G2 X25.4 Y306.388 I0.635 J0.
Y303.212 Z0.829 I0. J-1.588
Y306.388 Z0.746 I0. J1.588
Y303.212 Z0.663 I0. J-1.588
Y306.388 Z0.58 I0. J1.588
Y303.212 Z0.497 I0. J-1.588
Y306.388 Z0.414 I0. J1.588
Y303.212 Z0.331 I0. J-1.588
Y306.388 Z0.247 I0. J1.588
Y303.212 Z0.164 I0. J-1.588
Y306.388 Z0.081 I0. J1.588
Y303.212 Z-0.002 I0. J-1.588
Y306.388 Z-0.085 I0. J1.588
Y303.212 Z-0.168 I0. J-1.588
Y306.388 Z-0.251 I0. J1.588
Y303.212 Z-0.334 I0. J-1.588
Y306.388 Z-0.418 I0. J1.588
Y303.212 Z-0.501 I0. J-1.588
Y306.388 Z-0.584 I0. J1.588
Y303.212 Z-0.667 I0. J-1.588
Y306.388 Z-0.75 I0. J1.588
Y303.212 Z-0.833 I0. J-1.588
Y306.387 Z-0.916 I0. J1.588
Y303.212 Z-0.999 I0. J-1.588
Y306.387 Z-1.083 I0. J1.588
Y303.212 Z-1.166 I0. J-1.588
Y306.387 Z-1.249 I0. J1.588
Y303.212 Z-1.332 I0. J-1.588
Y306.387 Z-1.415 I0. J1.588
Y303.212 Z-1.498 I0. J-1.588
Y306.387 Z-1.581 I0. J1.588
Y303.212 Z-1.665 I0. J-1.588
Y306.387 Z-1.748 I0. J1.588
Y303.212 Z-1.831 I0. J-1.588
Y306.387 Z-1.914 I0. J1.588
Y303.212 Z-1.997 I0. J-1.588
Y306.387 Z-2.08 I0. J1.588
Y303.212 Z-2.163 I0. J-1.588
Y306.387 Z-2.246 I0. J1.588
Y303.212 Z-2.33 I0. J-1.588
Y306.387 Z-2.413 I0. J1.588
Y303.212 Z-2.496 I0. J-1.588
Y306.387 Z-2.579 I0. J1.588
Y303.212 Z-2.662 I0. J-1.588
Y306.387 Z-2.745 I0. J1.588
Y303.212 Z-2.828 I0. J-1.587
Y306.387 Z-2.911 I0. J1.587
Y303.212 Z-2.995 I0. J-1.587
Y306.387 Z-3.078 I0. J1.587
Y303.212 Z-3.161 I0. J-1.587
Y306.387 Z-3.244 I0. J1.587
Y303.212 Z-3.327 I0. J-1.587
Y306.387 Z-3.41 I0. J1.587
Y303.212 Z-3.493 I0. J-1.587
Y306.387 Z-3.577 I0. J1.587
Y303.212 Z-3.66 I0. J-1.587
Y306.387 Z-3.743 I0. J1.587
Y303.212 Z-3.826 I0. J-1.587
Y306.387 Z-3.909 I0. J1.587
Y303.212 Z-3.992 I0. J-1.587
Y306.387 Z-4.075 I0. J1.587
Y303.212 Z-4.158 I0. J-1.587
Y306.387 Z-4.242 I0. J1.587
Y303.212 Z-4.325 I0. J-1.587
Y306.387 Z-4.408 I0. J1.587
Y303.212 Z-4.491 I0. J-1.587
Y306.387 Z-4.574 I0. J1.587
Y303.213 Z-4.657 I0. J-1.587
Y306.387 Z-4.74 I0. J1.587
Y303.213 Z-4.823 I0. J-1.587
Y306.387 Z-4.907 I0. J1.587
Y303.213 Z-4.99 I0. J-1.587
Y306.387 Z-5.073 I0. J1.587
Y303.213 Z-5.156 I0. J-1.587
X24.354 Y303.606 Z-5.175 I0. J1.587
X26.446 Y305.994 I1.046 J1.194
X24.354 Y303.606 I-1.046 J-1.194
X24.295 Y304.502 I0.418 J0.478
G1 X24.504 Y304.741
X24.569 Y304.815 Z-5.167
X24.633 Y304.888 Z-5.144
X24.694 Y304.957 Z-5.106
X24.75 Y305.021 Z-5.054
X24.8 Y305.078 Z-4.989
X24.842 Y305.127 Z-4.913
X24.877 Y305.166 Z-4.828
X24.902 Y305.195 Z-4.736
X24.917 Y305.212 Z-4.639
X24.922 Y305.218 Z-4.54
G0 Z5.
X24.765 Y307.975
Z2.912
G1 Z1.548 F1600.
G19 G3 Y308.61 Z0.913 J0.635 K0.
G1 Y308.927
G17 G2 X25.4 Y309.563 I0.635 J0.
Y300.037 Z0.774 I0. J-4.763
Y309.562 Z0.635 I0. J4.763
Y300.037 Z0.497 I0. J-4.763
Y309.562 Z0.358 I0. J4.763
Y300.037 Z0.22 I0. J-4.763
Y309.562 Z0.081 I0. J4.763
Y300.037 Z-0.057 I0. J-4.763
Y309.562 Z-0.196 I0. J4.763
Y300.037 Z-0.334 I0. J-4.763
Y309.562 Z-0.473 I0. J4.763
Y300.037 Z-0.612 I0. J-4.763
Y309.562 Z-0.75 I0. J4.763
Y300.037 Z-0.889 I0. J-4.763
Y309.562 Z-1.027 I0. J4.763
Y300.037 Z-1.166 I0. J-4.763
Y309.562 Z-1.304 I0. J4.763
Y300.037 Z-1.443 I0. J-4.763
Y309.562 Z-1.581 I0. J4.763
Y300.037 Z-1.72 I0. J-4.763
Y309.562 Z-1.858 I0. J4.763
Y300.037 Z-1.997 I0. J-4.763
Y309.562 Z-2.136 I0. J4.763
Y300.037 Z-2.274 I0. J-4.763
Y309.562 Z-2.413 I0. J4.763
Y300.037 Z-2.551 I0. J-4.763
Y309.562 Z-2.69 I0. J4.763
Y300.037 Z-2.828 I0. J-4.763
Y309.562 Z-2.967 I0. J4.763
Y300.037 Z-3.105 I0. J-4.763
Y309.562 Z-3.244 I0. J4.763
Y300.037 Z-3.383 I0. J-4.763
Y309.562 Z-3.521 I0. J4.763
Y300.037 Z-3.66 I0. J-4.763
Y309.562 Z-3.798 I0. J4.763
Y300.037 Z-3.937 I0. J-4.763
Y309.562 Z-4.075 I0. J4.763
Y300.037 Z-4.214 I0. J-4.763
Y309.562 Z-4.352 I0. J4.763
Y300.037 Z-4.491 I0. J-4.763
Y309.562 Z-4.629 I0. J4.763
Y300.037 Z-4.768 I0. J-4.763
Y309.562 Z-4.907 I0. J4.763
Y300.037 Z-5.045 I0. J-4.763
X24.469 Y309.471 Z-5.175 I0. J4.763
X26.331 Y300.129 I0.931 J-4.671
X24.469 Y309.471 I-0.931 J4.671
X25.215 Y308.972 I0.124 J-0.623
G1 X25.278 Y308.661
X25.297 Y308.563 Z-5.167
X25.316 Y308.468 Z-5.144
X25.334 Y308.378 Z-5.106
X25.351 Y308.295 Z-5.054
X25.365 Y308.22 Z-4.989
X25.378 Y308.157 Z-4.913
X25.388 Y308.106 Z-4.828
X25.396 Y308.068 Z-4.736
X25.4 Y308.046 Z-4.639
X25.402 Y308.038 Z-4.54
G0 Z5.
X24.765 Y311.15
Z2.912
G1 Z1.548 F1600.
G19 G3 Y311.785 Z0.913 J0.635 K0.
G1 Y312.103
G17 G2 X25.4 Y312.737 I0.635 J0.
Y296.862 Z0.719 I0. J-7.938
Y312.737 Z0.525 I0. J7.937
Y296.862 Z0.331 I0. J-7.937
Y312.737 Z0.137 I0. J7.937
Y296.862 Z-0.057 I0. J-7.937
Y312.737 Z-0.251 I0. J7.937
Y296.862 Z-0.445 I0. J-7.937
Y312.737 Z-0.639 I0. J7.937
Y296.862 Z-0.833 I0. J-7.937
Y312.737 Z-1.027 I0. J7.937
Y296.862 Z-1.221 I0. J-7.937
Y312.737 Z-1.415 I0. J7.937
Y296.862 Z-1.609 I0. J-7.937
Y312.737 Z-1.803 I0. J7.937
Y296.862 Z-1.997 I0. J-7.937
Y312.737 Z-2.191 I0. J7.937
Y296.862 Z-2.385 I0. J-7.937
Y312.737 Z-2.579 I0. J7.937
Y296.862 Z-2.773 I0. J-7.937
Y312.737 Z-2.967 I0. J7.937
Y296.862 Z-3.161 I0. J-7.937
Y312.737 Z-3.355 I0. J7.937
Y296.862 Z-3.549 I0. J-7.937
Y312.737 Z-3.743 I0. J7.937
Y296.862 Z-3.937 I0. J-7.937
Y312.737 Z-4.131 I0. J7.937
Y296.862 Z-4.325 I0. J-7.937
Y312.737 Z-4.519 I0. J7.937
Y296.862 Z-4.713 I0. J-7.937
Y312.737 Z-4.907 I0. J7.937
Y296.862 Z-5.101 I0. J-7.937
X17.985 Y301.967 Z-5.175 I0. J7.937
X32.815 Y307.633 I7.415 J2.833
X17.985 Y301.967 I-7.415 J-2.833
X18.352 Y302.786 I0.593 J0.227
G1 X18.648 Y302.9
X18.741 Y302.935 Z-5.167
X18.832 Y302.97 Z-5.144
X18.918 Y303.003 Z-5.106
X18.997 Y303.033 Z-5.054
X19.068 Y303.06 Z-4.989
X19.128 Y303.083 Z-4.913
X19.177 Y303.102 Z-4.828
X19.213 Y303.115 Z-4.736
X19.234 Y303.124 Z-4.639
X19.242 Y303.126 Z-4.54
G0 Z15.

(BORE1 4)
G0 X24.765 Y313.044
Z15.
Z4.5
G1 Z3.135 F1600.
G19 G3 Y313.679 Z2.5 J0.635 K0.
G1 Y313.996
G17 G2 X25.4 Y314.631 I0.635 J0.
Y294.969 Z2.273 I0. J-9.831
Y314.631 Z2.046 I0. J9.831
Y294.969 Z1.819 I0. J-9.831
Y314.631 Z1.592 I0. J9.831
Y294.969 Z1.365 I0. J-9.831
Y314.631 Z1.138 I0. J9.831
Y294.969 Z0.911 I0. J-9.831
Y314.631 Z0.684 I0. J9.831
Y294.969 Z0.457 I0. J-9.831
Y314.631 Z0.23 I0. J9.831
Y294.969 Z0.003 I0. J-9.831
Y314.631 Z-0.224 I0. J9.831
Y294.969 Z-0.451 I0. J-9.831
Y314.631 Z-0.678 I0. J9.831
Y294.969 Z-0.905 I0. J-9.831
Y314.631 Z-1.132 I0. J9.831
Y294.969 Z-1.359 I0. J-9.831
X15.569 Y304.87 Z-1.473 I0. J9.831
X25.541 Y314.63 Z-1.587 I9.831 J-0.07
X25.259 Y294.97 I-0.141 J-9.83
X25.541 Y314.63 I0.141 J9.83
X26.167 Y313.986 I-0.009 J-0.635
G1 X26.162 Y313.669
X26.161 Y313.569 Z-1.58
X26.159 Y313.473 Z-1.556
X26.158 Y313.381 Z-1.518
X26.157 Y313.296 Z-1.466
X26.156 Y313.22 Z-1.402
X26.155 Y313.155 Z-1.326
X26.154 Y313.103 Z-1.241
X26.153 Y313.065 Z-1.149
Y313.042 Z-1.052
Y313.034 Z-0.952
G0 Z15.
M5
G0 Z15
G0 X0 Y0

M9
M30
