(1001)
(T1  D=0.25 CR=0. - ZMIN=-0.1866 - FLAT END MILL)
G90 G94 G91.1 G40 G49 G17
G20
G0 Z15

(2D CONTOUR4)
M5
T1 M6
S15000 M3
G54
M8
G0 X3.975 Y7.5505
G43 Z0.6693 H1
Z0.2756
G1 Z0.2022 F63.
X3.9748 Y7.5507 Z0.1983
X3.9742 Y7.5514 Z0.1944
X3.9731 Y7.5525 Z0.1908
X3.9717 Y7.5539 Z0.1875
X3.9699 Y7.5557 Z0.1845
X3.9677 Y7.5578 Z0.1819
X3.9654 Y7.5602 Z0.1799
X3.9628 Y7.5627 Z0.1784
X3.9601 Y7.5654 Z0.1775
X3.9574 Y7.5682 Z0.1772
X3.9397 Y7.5859
G3 X3.9043 I-0.0177 J-0.0177
G1 X3.8354 Y7.517 Z0.1755
G2 X3.747 Y7.4804 Z0.1738 I-0.0884 J0.0884
G1 X1.747 Z0.1388
G2 X1.6586 Y7.517 Z0.1371 I0. J0.125
G1 X0.9086 Y8.267 Z0.1186
G2 X0.872 Y8.3554 Z0.1169 I0.0884 J0.0884
G1 Y11.1054 Z0.0689
Y14.6054
G2 X0.997 Y14.7304 I0.125 J0.
G1 X4.497
G2 X4.622 Y14.6054 I0. J-0.125
G1 Y8.3554
G2 X4.5854 Y8.267 I-0.125 J0.
G1 X3.8354 Y7.517
G2 X3.747 Y7.4804 I-0.0884 J0.0884
G1 X1.747
G2 X1.6586 Y7.517 I0. J0.125
G1 X0.9086 Y8.267
G2 X0.872 Y8.3554 I0.0884 J0.0884
G1 Y11.1054
Y11.6692 Z0.0591
Y14.6054
G2 X0.997 Y14.7304 I0.125 J0.
G1 X4.497
G2 X4.622 Y14.6054 I0. J-0.125
G1 Y8.3554
G2 X4.5854 Y8.267 I-0.125 J0.
G1 X3.8354 Y7.517
G2 X3.747 Y7.4804 I-0.0884 J0.0884
G1 X1.747
G2 X1.6586 Y7.517 I0. J0.125
G1 X0.9086 Y8.267
G2 X0.872 Y8.3554 I0.0884 J0.0884
G1 Y11.1054
Y11.6692
Y12.2331 Z0.0492
Y14.6054
G2 X0.997 Y14.7304 I0.125 J0.
G1 X4.497
G2 X4.622 Y14.6054 I0. J-0.125
G1 Y8.3554
G2 X4.5854 Y8.267 I-0.125 J0.
G1 X3.8354 Y7.517
G2 X3.747 Y7.4804 I-0.0884 J0.0884
G1 X1.747
G2 X1.6586 Y7.517 I0. J0.125
G1 X0.9086 Y8.267
G2 X0.872 Y8.3554 I0.0884 J0.0884
G1 Y11.6692
Y12.2331
Y12.797 Z0.0394
Y14.6054
G2 X0.997 Y14.7304 I0.125 J0.
G1 X4.497
G2 X4.622 Y14.6054 I0. J-0.125
G1 Y8.3554
G2 X4.5854 Y8.267 I-0.125 J0.
G1 X3.8354 Y7.517
G2 X3.747 Y7.4804 I-0.0884 J0.0884
G1 X1.747
G2 X1.6586 Y7.517 I0. J0.125
G1 X0.9086 Y8.267
G2 X0.872 Y8.3554 I0.0884 J0.0884
G1 Y12.2331
Y12.797
Y13.3609 Z0.0295
Y14.6054
G2 X0.997 Y14.7304 I0.125 J0.
G1 X4.497
G2 X4.622 Y14.6054 I0. J-0.125
G1 Y8.3554
G2 X4.5854 Y8.267 I-0.125 J0.
G1 X3.8354 Y7.517
G2 X3.747 Y7.4804 I-0.0884 J0.0884
G1 X1.747
G2 X1.6586 Y7.517 I0. J0.125
G1 X0.9086 Y8.267
G2 X0.872 Y8.3554 I0.0884 J0.0884
G1 Y12.797
Y13.3609
Y13.9247 Z0.0197
Y14.6054
G2 X0.997 Y14.7304 I0.125 J0.
G1 X4.497
G2 X4.622 Y14.6054 I0. J-0.125
G1 Y8.3554
G2 X4.5854 Y8.267 I-0.125 J0.
G1 X3.8354 Y7.517
G2 X3.747 Y7.4804 I-0.0884 J0.0884
G1 X1.747
G2 X1.6586 Y7.517 I0. J0.125
G1 X0.9086 Y8.267
G2 X0.872 Y8.3554 I0.0884 J0.0884
G1 Y13.3609
Y13.9247
Y14.4886 Z0.0098
Y14.6054
G2 X0.997 Y14.7304 I0.125 J0.
G1 X4.497
G2 X4.622 Y14.6054 I0. J-0.125
G1 Y8.3554
G2 X4.5854 Y8.267 I-0.125 J0.
G1 X3.8354 Y7.517
G2 X3.747 Y7.4804 I-0.0884 J0.0884
G1 X1.747
G2 X1.6586 Y7.517 I0. J0.125
G1 X0.9086 Y8.267
G2 X0.872 Y8.3554 I0.0884 J0.0884
G1 Y13.9247
Y14.4886
Y14.6054 Z0.0078
G2 X0.997 Y14.7304 Z0.0044 I0.125 J0.
G1 X1.2478 Z0.
X4.497
G2 X4.622 Y14.6054 I0. J-0.125
G1 Y8.3554
G2 X4.5854 Y8.267 I-0.125 J0.
G1 X3.8354 Y7.517
G2 X3.747 Y7.4804 I-0.0884 J0.0884
G1 X1.747
G2 X1.6586 Y7.517 I0. J0.125
G1 X0.9086 Y8.267
G2 X0.872 Y8.3554 I0.0884 J0.0884
G1 Y14.4886
Y14.6054
G2 X0.997 Y14.7304 I0.125 J0.
G1 X1.2478
X1.8117 Z-0.0098
X4.497
G2 X4.622 Y14.6054 I0. J-0.125
G1 Y8.3554
G2 X4.5854 Y8.267 I-0.125 J0.
G1 X3.8354 Y7.517
G2 X3.747 Y7.4804 I-0.0884 J0.0884
G1 X1.747
G2 X1.6586 Y7.517 I0. J0.125
G1 X0.9086 Y8.267
G2 X0.872 Y8.3554 I0.0884 J0.0884
G1 Y14.6054
G2 X0.997 Y14.7304 I0.125 J0.
G1 X1.8117
X2.3756 Z-0.0197
X4.497
G2 X4.622 Y14.6054 I0. J-0.125
G1 Y8.3554
G2 X4.5854 Y8.267 I-0.125 J0.
G1 X3.8354 Y7.517
G2 X3.747 Y7.4804 I-0.0884 J0.0884
G1 X1.747
G2 X1.6586 Y7.517 I0. J0.125
G1 X0.9086 Y8.267
G2 X0.872 Y8.3554 I0.0884 J0.0884
G1 Y14.6054
G2 X0.997 Y14.7304 I0.125 J0.
G1 X1.8117
X2.3756
X2.9394 Z-0.0295
X4.497
G2 X4.622 Y14.6054 I0. J-0.125
G1 Y8.3554
G2 X4.5854 Y8.267 I-0.125 J0.
G1 X3.8354 Y7.517
G2 X3.747 Y7.4804 I-0.0884 J0.0884
G1 X1.747
G2 X1.6586 Y7.517 I0. J0.125
G1 X0.9086 Y8.267
G2 X0.872 Y8.3554 I0.0884 J0.0884
G1 Y14.6054
G2 X0.997 Y14.7304 I0.125 J0.
G1 X2.3756
X2.9394
X3.5033 Z-0.0394
X4.497
G2 X4.622 Y14.6054 I0. J-0.125
G1 Y8.3554
G2 X4.5854 Y8.267 I-0.125 J0.
G1 X3.8354 Y7.517
G2 X3.747 Y7.4804 I-0.0884 J0.0884
G1 X1.747
G2 X1.6586 Y7.517 I0. J0.125
G1 X0.9086 Y8.267
G2 X0.872 Y8.3554 I0.0884 J0.0884
G1 Y14.6054
G2 X0.997 Y14.7304 I0.125 J0.
G1 X2.9394
X3.5033
X4.0672 Z-0.0492
X4.497
G2 X4.622 Y14.6054 I0. J-0.125
G1 Y8.3554
G2 X4.5854 Y8.267 I-0.125 J0.
G1 X3.8354 Y7.517
G2 X3.747 Y7.4804 I-0.0884 J0.0884
G1 X1.747
G2 X1.6586 Y7.517 I0. J0.125
G1 X0.9086 Y8.267
G2 X0.872 Y8.3554 I0.0884 J0.0884
G1 Y14.6054
G2 X0.997 Y14.7304 I0.125 J0.
G1 X3.5033
X4.0672
X4.497 Z-0.0567
G2 X4.6068 Y14.6651 Z-0.0591 I0. J-0.125
X4.622 Y14.6054 I-0.1098 J-0.0597
G1 Y8.3554
G2 X4.5854 Y8.267 I-0.125 J0.
G1 X3.8354 Y7.517
G2 X3.747 Y7.4804 I-0.0884 J0.0884
G1 X1.747
G2 X1.6586 Y7.517 I0. J0.125
G1 X0.9086 Y8.267
G2 X0.872 Y8.3554 I0.0884 J0.0884
G1 Y14.6054
G2 X0.997 Y14.7304 I0.125 J0.
G1 X4.0672
X4.497
G2 X4.6068 Y14.6651 I0. J-0.125
X4.622 Y14.6054 Z-0.0601 I-0.1098 J-0.0597
G1 Y14.1038 Z-0.0689
Y8.3554
G2 X4.5854 Y8.267 I-0.125 J0.
G1 X3.8354 Y7.517
G2 X3.747 Y7.4804 I-0.0884 J0.0884
G1 X1.747
G2 X1.6586 Y7.517 I0. J0.125
G1 X0.9086 Y8.267
G2 X0.872 Y8.3554 I0.0884 J0.0884
G1 Y14.6054
G2 X0.997 Y14.7304 I0.125 J0.
G1 X4.497
G2 X4.622 Y14.6054 I0. J-0.125
G1 Y14.1038
Y13.5399 Z-0.0787
Y8.3554
G2 X4.5854 Y8.267 I-0.125 J0.
G1 X3.8354 Y7.517
G2 X3.747 Y7.4804 I-0.0884 J0.0884
G1 X1.747
G2 X1.6586 Y7.517 I0. J0.125
G1 X0.9086 Y8.267
G2 X0.872 Y8.3554 I0.0884 J0.0884
G1 Y14.6054
G2 X0.997 Y14.7304 I0.125 J0.
G1 X4.497
G2 X4.622 Y14.6054 I0. J-0.125
G1 Y13.5399
Y12.976 Z-0.0886
Y8.3554
G2 X4.5854 Y8.267 I-0.125 J0.
G1 X3.8354 Y7.517
G2 X3.747 Y7.4804 I-0.0884 J0.0884
G1 X1.747
G2 X1.6586 Y7.517 I0. J0.125
G1 X0.9086 Y8.267
G2 X0.872 Y8.3554 I0.0884 J0.0884
G1 Y14.6054
G2 X0.997 Y14.7304 I0.125 J0.
G1 X4.497
G2 X4.622 Y14.6054 I0. J-0.125
G1 Y13.5399
Y12.976
Y12.4121 Z-0.0984
Y8.3554
G2 X4.5854 Y8.267 I-0.125 J0.
G1 X3.8354 Y7.517
G2 X3.747 Y7.4804 I-0.0884 J0.0884
G1 X1.747
G2 X1.6586 Y7.517 I0. J0.125
G1 X0.9086 Y8.267
G2 X0.872 Y8.3554 I0.0884 J0.0884
G1 Y14.6054
G2 X0.997 Y14.7304 I0.125 J0.
G1 X4.497
G2 X4.622 Y14.6054 I0. J-0.125
G1 Y12.976
Y12.4121
Y11.8483 Z-0.1083
Y8.3554
G2 X4.5854 Y8.267 I-0.125 J0.
G1 X3.8354 Y7.517
G2 X3.747 Y7.4804 I-0.0884 J0.0884
G1 X1.747
G2 X1.6586 Y7.517 I0. J0.125
G1 X0.9086 Y8.267
G2 X0.872 Y8.3554 I0.0884 J0.0884
G1 Y14.6054
G2 X0.997 Y14.7304 I0.125 J0.
G1 X4.497
G2 X4.622 Y14.6054 I0. J-0.125
G1 Y12.4121
Y11.8483
Y11.2844 Z-0.1181
Y8.3554
G2 X4.5854 Y8.267 I-0.125 J0.
G1 X3.8354 Y7.517
G2 X3.747 Y7.4804 I-0.0884 J0.0884
G1 X1.747
G2 X1.6586 Y7.517 I0. J0.125
G1 X0.9086 Y8.267
G2 X0.872 Y8.3554 I0.0884 J0.0884
G1 Y14.6054
G2 X0.997 Y14.7304 I0.125 J0.
G1 X4.497
G2 X4.622 Y14.6054 I0. J-0.125
G1 Y11.8483
Y11.2844
Y10.7205 Z-0.128
Y8.3554
G2 X4.5854 Y8.267 I-0.125 J0.
G1 X3.8354 Y7.517
G2 X3.747 Y7.4804 I-0.0884 J0.0884
G1 X1.747
G2 X1.6586 Y7.517 I0. J0.125
G1 X0.9086 Y8.267
G2 X0.872 Y8.3554 I0.0884 J0.0884
G1 Y14.6054
G2 X0.997 Y14.7304 I0.125 J0.
G1 X4.497
G2 X4.622 Y14.6054 I0. J-0.125
G1 Y11.2844
Y10.7205
Y10.1566 Z-0.1378
Y8.3554
G2 X4.5854 Y8.267 I-0.125 J0.
G1 X3.8354 Y7.517
G2 X3.747 Y7.4804 I-0.0884 J0.0884
G1 X1.747
G2 X1.6586 Y7.517 I0. J0.125
G1 X0.9086 Y8.267
G2 X0.872 Y8.3554 I0.0884 J0.0884
G1 Y14.6054
G2 X0.997 Y14.7304 I0.125 J0.
G1 X4.497
G2 X4.622 Y14.6054 I0. J-0.125
G1 Y10.7205
Y10.1566
Y9.5927 Z-0.1476
Y8.3554
G2 X4.5854 Y8.267 I-0.125 J0.
G1 X3.8354 Y7.517
G2 X3.747 Y7.4804 I-0.0884 J0.0884
G1 X1.747
G2 X1.6586 Y7.517 I0. J0.125
G1 X0.9086 Y8.267
G2 X0.872 Y8.3554 I0.0884 J0.0884
G1 Y14.6054
G2 X0.997 Y14.7304 I0.125 J0.
G1 X4.497
G2 X4.622 Y14.6054 I0. J-0.125
G1 Y10.1566
Y9.5927
Y9.0289 Z-0.1575
Y8.3554
G2 X4.5854 Y8.267 I-0.125 J0.
G1 X3.8354 Y7.517
G2 X3.747 Y7.4804 I-0.0884 J0.0884
G1 X1.747
G2 X1.6586 Y7.517 I0. J0.125
G1 X0.9086 Y8.267
G2 X0.872 Y8.3554 I0.0884 J0.0884
G1 Y14.6054
G2 X0.997 Y14.7304 I0.125 J0.
G1 X4.497
G2 X4.622 Y14.6054 I0. J-0.125
G1 Y9.5927
Y9.0289
Y8.465 Z-0.1673
Y8.3554
G2 X4.5854 Y8.267 I-0.125 J0.
G1 X3.8354 Y7.517
G2 X3.747 Y7.4804 I-0.0884 J0.0884
G1 X1.747
G2 X1.6586 Y7.517 I0. J0.125
G1 X0.9086 Y8.267
G2 X0.872 Y8.3554 I0.0884 J0.0884
G1 Y14.6054
G2 X0.997 Y14.7304 I0.125 J0.
G1 X4.497
G2 X4.622 Y14.6054 I0. J-0.125
G1 Y9.0289
Y8.465
Y8.3554 Z-0.1692
G2 X4.5854 Y8.267 Z-0.171 I-0.125 J0.
G1 X4.3336 Y8.0152 Z-0.1772
X3.8354 Y7.517
G2 X3.747 Y7.4804 I-0.0884 J0.0884
G1 X1.747
G2 X1.6586 Y7.517 I0. J0.125
G1 X0.9086 Y8.267
G2 X0.872 Y8.3554 I0.0884 J0.0884
G1 Y14.6054
G2 X0.997 Y14.7304 I0.125 J0.
G1 X4.497
G2 X4.622 Y14.6054 I0. J-0.125
G1 Y8.465
Y8.3554
G2 X4.5854 Y8.267 I-0.125 J0.
G1 X4.3336 Y8.0152
X4.0545 Y7.7361 Z-0.1841
X3.8354 Y7.517
G2 X3.747 Y7.4804 I-0.0884 J0.0884
G1 X1.747
G2 X1.6586 Y7.517 I0. J0.125
G1 X0.9086 Y8.267
G2 X0.872 Y8.3554 I0.0884 J0.0884
G1 Y14.6054
G2 X0.997 Y14.7304 I0.125 J0.
G1 X4.497
G2 X4.622 Y14.6054 I0. J-0.125
G1 Y8.3554
G2 X4.5854 Y8.267 I-0.125 J0.
G1 X4.0545 Y7.7361
G3 Y7.7007 I0.0177 J-0.0177
G1 X4.0722 Y7.683
X4.075 Y7.6803 Z-0.1837
X4.0777 Y7.6776 Z-0.1828
X4.0802 Y7.675 Z-0.1813
X4.0826 Y7.6727 Z-0.1793
X4.0847 Y7.6705 Z-0.1767
X4.0865 Y7.6687 Z-0.1737
X4.0879 Y7.6673 Z-0.1704
X4.089 Y7.6662 Z-0.1668
X4.0897 Y7.6656 Z-0.163
X4.0899 Y7.6654 Z-0.1591
G0 Z0.6693
X3.5313 Y-0.2
Z0.2756
G1 Z0.2022 F63.
G19 G3 Y-0.175 Z0.1772 J0.025 K0.
G1 Y-0.15
G17 G3 X3.5063 Y-0.125 I-0.025 J0.
G1 X1. Z0.1334
G2 X0.875 Y0. Z0.13 I0. J0.125
G1 Y3.5 Z0.0689
Y6.25
G2 X0.9116 Y6.3384 I0.125 J0.
G1 X1.6616 Y7.0884
G2 X1.75 Y7.125 I0.0884 J-0.0884
G1 X3.75
G2 X3.8384 Y7.0884 I0. J-0.125
G1 X4.5883 Y6.3384
G2 X4.625 Y6.25 I-0.0884 J-0.0884
G1 Y0.
G2 X4.5 Y-0.125 I-0.125 J0.
G1 X1.
G2 X0.875 Y0. I0. J0.125
G1 Y3.5
Y4.0639 Z0.0591
Y6.25
G2 X0.9116 Y6.3384 I0.125 J0.
G1 X1.6616 Y7.0884
G2 X1.75 Y7.125 I0.0884 J-0.0884
G1 X3.75
G2 X3.8384 Y7.0884 I0. J-0.125
G1 X4.5883 Y6.3384
G2 X4.625 Y6.25 I-0.0884 J-0.0884
G1 Y0.
G2 X4.5 Y-0.125 I-0.125 J0.
G1 X1.
G2 X0.875 Y0. I0. J0.125
G1 Y3.5
Y4.0639
Y4.6277 Z0.0492
Y6.25
G2 X0.9116 Y6.3384 I0.125 J0.
G1 X1.6616 Y7.0884
G2 X1.75 Y7.125 I0.0884 J-0.0884
G1 X3.75
G2 X3.8384 Y7.0884 I0. J-0.125
G1 X4.5883 Y6.3384
G2 X4.625 Y6.25 I-0.0884 J-0.0884
G1 Y0.
G2 X4.5 Y-0.125 I-0.125 J0.
G1 X1.
G2 X0.875 Y0. I0. J0.125
G1 Y4.0639
Y4.6277
Y5.1916 Z0.0394
Y6.25
G2 X0.9116 Y6.3384 I0.125 J0.
G1 X1.6616 Y7.0884
G2 X1.75 Y7.125 I0.0884 J-0.0884
G1 X3.75
G2 X3.8384 Y7.0884 I0. J-0.125
G1 X4.5883 Y6.3384
G2 X4.625 Y6.25 I-0.0884 J-0.0884
G1 Y0.
G2 X4.5 Y-0.125 I-0.125 J0.
G1 X1.
G2 X0.875 Y0. I0. J0.125
G1 Y4.6277
Y5.1916
Y5.7555 Z0.0295
Y6.25
G2 X0.9116 Y6.3384 I0.125 J0.
G1 X1.6616 Y7.0884
G2 X1.75 Y7.125 I0.0884 J-0.0884
G1 X3.75
G2 X3.8384 Y7.0884 I0. J-0.125
G1 X4.5883 Y6.3384
G2 X4.625 Y6.25 I-0.0884 J-0.0884
G1 Y0.
G2 X4.5 Y-0.125 I-0.125 J0.
G1 X1.
G2 X0.875 Y0. I0. J0.125
G1 Y5.1916
Y5.7555
Y6.25 Z0.0209
G2 X0.8937 Y6.3159 Z0.0197 I0.125 J0.
X0.9116 Y6.3384 I0.1062 J-0.0659
G1 X1.6616 Y7.0884
G2 X1.75 Y7.125 I0.0884 J-0.0884
G1 X3.75
G2 X3.8384 Y7.0884 I0. J-0.125
G1 X4.5883 Y6.3384
G2 X4.625 Y6.25 I-0.0884 J-0.0884
G1 Y0.
G2 X4.5 Y-0.125 I-0.125 J0.
G1 X1.
G2 X0.875 Y0. I0. J0.125
G1 Y5.7555
Y6.25
G2 X0.8937 Y6.3159 I0.125 J0.
X0.9116 Y6.3384 Z0.0192 I0.1062 J-0.0659
G1 X1.2899 Y6.7168 Z0.0098
X1.6616 Y7.0884
G2 X1.75 Y7.125 I0.0884 J-0.0884
G1 X3.75
G2 X3.8384 Y7.0884 I0. J-0.125
G1 X4.5883 Y6.3384
G2 X4.625 Y6.25 I-0.0884 J-0.0884
G1 Y0.
G2 X4.5 Y-0.125 I-0.125 J0.
G1 X1.
G2 X0.875 Y0. I0. J0.125
G1 Y6.25
G2 X0.9116 Y6.3384 I0.125 J0.
G1 X1.2899 Y6.7168
X1.6616 Y7.0884 Z0.0007
G2 X1.6924 Y7.1109 Z0. I0.0884 J-0.0884
X1.75 Y7.125 I0.0576 J-0.1109
G1 X3.75
G2 X3.8384 Y7.0884 I0. J-0.125
G1 X4.5883 Y6.3384
G2 X4.625 Y6.25 I-0.0884 J-0.0884
G1 Y0.
G2 X4.5 Y-0.125 I-0.125 J0.
G1 X1.
G2 X0.875 Y0. I0. J0.125
G1 Y6.25
G2 X0.9116 Y6.3384 I0.125 J0.
G1 X1.2899 Y6.7168
X1.6616 Y7.0884
G2 X1.6924 Y7.1109 I0.0884 J-0.0884
X1.75 Y7.125 Z-0.001 I0.0576 J-0.1109
G1 X2.254 Z-0.0098
X3.75
G2 X3.8384 Y7.0884 I0. J-0.125
G1 X4.5883 Y6.3384
G2 X4.625 Y6.25 I-0.0884 J-0.0884
G1 Y0.
G2 X4.5 Y-0.125 I-0.125 J0.
G1 X1.
G2 X0.875 Y0. I0. J0.125
G1 Y6.25
G2 X0.9116 Y6.3384 I0.125 J0.
G1 X1.6616 Y7.0884
G2 X1.75 Y7.125 I0.0884 J-0.0884
G1 X2.254
X2.8179 Z-0.0197
X3.75
G2 X3.8384 Y7.0884 I0. J-0.125
G1 X4.5883 Y6.3384
G2 X4.625 Y6.25 I-0.0884 J-0.0884
G1 Y0.
G2 X4.5 Y-0.125 I-0.125 J0.
G1 X1.
G2 X0.875 Y0. I0. J0.125
G1 Y6.25
G2 X0.9116 Y6.3384 I0.125 J0.
G1 X1.6616 Y7.0884
G2 X1.75 Y7.125 I0.0884 J-0.0884
G1 X2.8179
X3.3817 Z-0.0295
X3.75
G2 X3.8384 Y7.0884 I0. J-0.125
G1 X4.5883 Y6.3384
G2 X4.625 Y6.25 I-0.0884 J-0.0884
G1 Y0.
G2 X4.5 Y-0.125 I-0.125 J0.
G1 X1.
G2 X0.875 Y0. I0. J0.125
G1 Y6.25
G2 X0.9116 Y6.3384 I0.125 J0.
G1 X1.6616 Y7.0884
G2 X1.75 Y7.125 I0.0884 J-0.0884
G1 X2.8179
X3.3817
X3.75 Z-0.036
G2 X3.8384 Y7.0884 Z-0.0377 I0. J-0.125
G1 X3.9073 Y7.0195 Z-0.0394
X4.5883 Y6.3384
G2 X4.625 Y6.25 I-0.0884 J-0.0884
G1 Y0.
G2 X4.5 Y-0.125 I-0.125 J0.
G1 X1.
G2 X0.875 Y0. I0. J0.125
G1 Y6.25
G2 X0.9116 Y6.3384 I0.125 J0.
G1 X1.6616 Y7.0884
G2 X1.75 Y7.125 I0.0884 J-0.0884
G1 X3.3817
X3.75
G2 X3.8384 Y7.0884 I0. J-0.125
G1 X3.9073 Y7.0195
X4.306 Y6.6207 Z-0.0492
X4.5883 Y6.3384
G2 X4.625 Y6.25 I-0.0884 J-0.0884
G1 Y0.
G2 X4.5 Y-0.125 I-0.125 J0.
G1 X1.
G2 X0.875 Y0. I0. J0.125
G1 Y6.25
G2 X0.9116 Y6.3384 I0.125 J0.
G1 X1.6616 Y7.0884
G2 X1.75 Y7.125 I0.0884 J-0.0884
G1 X3.75
G2 X3.8384 Y7.0884 I0. J-0.125
G1 X4.306 Y6.6207
X4.5883 Y6.3384 Z-0.0562
G2 X4.625 Y6.25 Z-0.0579 I-0.0884 J-0.0884
G1 Y6.1836 Z-0.0591
Y0.
G2 X4.5 Y-0.125 I-0.125 J0.
G1 X1.
G2 X0.875 Y0. I0. J0.125
G1 Y6.25
G2 X0.9116 Y6.3384 I0.125 J0.
G1 X1.6616 Y7.0884
G2 X1.75 Y7.125 I0.0884 J-0.0884
G1 X3.75
G2 X3.8384 Y7.0884 I0. J-0.125
G1 X4.306 Y6.6207
X4.5883 Y6.3384
G2 X4.625 Y6.25 I-0.0884 J-0.0884
G1 Y6.1836
Y5.6197 Z-0.0689
Y0.
G2 X4.5 Y-0.125 I-0.125 J0.
G1 X1.
G2 X0.875 Y0. I0. J0.125
G1 Y6.25
G2 X0.9116 Y6.3384 I0.125 J0.
G1 X1.6616 Y7.0884
G2 X1.75 Y7.125 I0.0884 J-0.0884
G1 X3.75
G2 X3.8384 Y7.0884 I0. J-0.125
G1 X4.5883 Y6.3384
G2 X4.625 Y6.25 I-0.0884 J-0.0884
G1 Y5.6197
Y5.0559 Z-0.0787
Y0.
G2 X4.5 Y-0.125 I-0.125 J0.
G1 X1.
G2 X0.875 Y0. I0. J0.125
G1 Y6.25
G2 X0.9116 Y6.3384 I0.125 J0.
G1 X1.6616 Y7.0884
G2 X1.75 Y7.125 I0.0884 J-0.0884
G1 X3.75
G2 X3.8384 Y7.0884 I0. J-0.125
G1 X4.5883 Y6.3384
G2 X4.625 Y6.25 I-0.0884 J-0.0884
G1 Y5.6197
Y5.0559
Y4.492 Z-0.0886
Y0.
G2 X4.5 Y-0.125 I-0.125 J0.
G1 X1.
G2 X0.875 Y0. I0. J0.125
G1 Y6.25
G2 X0.9116 Y6.3384 I0.125 J0.
G1 X1.6616 Y7.0884
G2 X1.75 Y7.125 I0.0884 J-0.0884
G1 X3.75
G2 X3.8384 Y7.0884 I0. J-0.125
G1 X4.5883 Y6.3384
G2 X4.625 Y6.25 I-0.0884 J-0.0884
G1 Y5.0559
Y4.492
Y3.9281 Z-0.0984
Y0.
G2 X4.5 Y-0.125 I-0.125 J0.
G1 X1.
G2 X0.875 Y0. I0. J0.125
G1 Y6.25
G2 X0.9116 Y6.3384 I0.125 J0.
G1 X1.6616 Y7.0884
G2 X1.75 Y7.125 I0.0884 J-0.0884
G1 X3.75
G2 X3.8384 Y7.0884 I0. J-0.125
G1 X4.5883 Y6.3384
G2 X4.625 Y6.25 I-0.0884 J-0.0884
G1 Y4.492
Y3.9281
Y3.3642 Z-0.1083
Y0.
G2 X4.5 Y-0.125 I-0.125 J0.
G1 X1.
G2 X0.875 Y0. I0. J0.125
G1 Y6.25
G2 X0.9116 Y6.3384 I0.125 J0.
G1 X1.6616 Y7.0884
G2 X1.75 Y7.125 I0.0884 J-0.0884
G1 X3.75
G2 X3.8384 Y7.0884 I0. J-0.125
G1 X4.5883 Y6.3384
G2 X4.625 Y6.25 I-0.0884 J-0.0884
G1 Y3.9281
Y3.3642
Y2.8003 Z-0.1181
Y0.
G2 X4.5 Y-0.125 I-0.125 J0.
G1 X1.
G2 X0.875 Y0. I0. J0.125
G1 Y6.25
G2 X0.9116 Y6.3384 I0.125 J0.
G1 X1.6616 Y7.0884
G2 X1.75 Y7.125 I0.0884 J-0.0884
G1 X3.75
G2 X3.8384 Y7.0884 I0. J-0.125
G1 X4.5883 Y6.3384
G2 X4.625 Y6.25 I-0.0884 J-0.0884
G1 Y3.3642
Y2.8003
Y2.2365 Z-0.128
Y0.
G2 X4.5 Y-0.125 I-0.125 J0.
G1 X1.
G2 X0.875 Y0. I0. J0.125
G1 Y6.25
G2 X0.9116 Y6.3384 I0.125 J0.
G1 X1.6616 Y7.0884
G2 X1.75 Y7.125 I0.0884 J-0.0884
G1 X3.75
G2 X3.8384 Y7.0884 I0. J-0.125
G1 X4.5883 Y6.3384
G2 X4.625 Y6.25 I-0.0884 J-0.0884
G1 Y2.8003
Y2.2365
Y1.6726 Z-0.1378
Y0.
G2 X4.5 Y-0.125 I-0.125 J0.
G1 X1.
G2 X0.875 Y0. I0. J0.125
G1 Y6.25
G2 X0.9116 Y6.3384 I0.125 J0.
G1 X1.6616 Y7.0884
G2 X1.75 Y7.125 I0.0884 J-0.0884
G1 X3.75
G2 X3.8384 Y7.0884 I0. J-0.125
G1 X4.5883 Y6.3384
G2 X4.625 Y6.25 I-0.0884 J-0.0884
G1 Y2.2365
Y1.6726
Y1.1087 Z-0.1476
Y0.
G2 X4.5 Y-0.125 I-0.125 J0.
G1 X1.
G2 X0.875 Y0. I0. J0.125
G1 Y6.25
G2 X0.9116 Y6.3384 I0.125 J0.
G1 X1.6616 Y7.0884
G2 X1.75 Y7.125 I0.0884 J-0.0884
G1 X3.75
G2 X3.8384 Y7.0884 I0. J-0.125
G1 X4.5883 Y6.3384
G2 X4.625 Y6.25 I-0.0884 J-0.0884
G1 Y1.6726
Y1.1087
Y0.5448 Z-0.1575
Y0.
G2 X4.5 Y-0.125 I-0.125 J0.
G1 X1.
G2 X0.875 Y0. I0. J0.125
G1 Y6.25
G2 X0.9116 Y6.3384 I0.125 J0.
G1 X1.6616 Y7.0884
G2 X1.75 Y7.125 I0.0884 J-0.0884
G1 X3.75
G2 X3.8384 Y7.0884 I0. J-0.125
G1 X4.5883 Y6.3384
G2 X4.625 Y6.25 I-0.0884 J-0.0884
G1 Y1.1087
Y0.5448
Y0. Z-0.167
G2 X4.6235 Y-0.019 Z-0.1673 I-0.125 J0.
X4.5 Y-0.125 I-0.1236 J0.019
G1 X1.
G2 X0.875 Y0. I0. J0.125
G1 Y6.25
G2 X0.9116 Y6.3384 I0.125 J0.
G1 X1.6616 Y7.0884
G2 X1.75 Y7.125 I0.0884 J-0.0884
G1 X3.75
G2 X3.8384 Y7.0884 I0. J-0.125
G1 X4.5883 Y6.3384
G2 X4.625 Y6.25 I-0.0884 J-0.0884
G1 Y0.5448
Y0.
G2 X4.6235 Y-0.019 I-0.125 J0.
X4.5 Y-0.125 Z-0.1704 I-0.1236 J0.019
G1 X4.1134 Z-0.1772
X1.
G2 X0.875 Y0. I0. J0.125
G1 Y6.25
G2 X0.9116 Y6.3384 I0.125 J0.
G1 X1.6616 Y7.0884
G2 X1.75 Y7.125 I0.0884 J-0.0884
G1 X3.75
G2 X3.8384 Y7.0884 I0. J-0.125
G1 X4.5883 Y6.3384
G2 X4.625 Y6.25 I-0.0884 J-0.0884
G1 Y0.
G2 X4.5 Y-0.125 I-0.125 J0.
G1 X4.1134
X3.5755 Z-0.1866
X1.
G2 X0.875 Y0. I0. J0.125
G1 Y6.25
G2 X0.9116 Y6.3384 I0.125 J0.
G1 X1.6616 Y7.0884
G2 X1.75 Y7.125 I0.0884 J-0.0884
G1 X3.75
G2 X3.8384 Y7.0884 I0. J-0.125
G1 X4.5883 Y6.3384
G2 X4.625 Y6.25 I-0.0884 J-0.0884
G1 Y0.
G2 X4.5 Y-0.125 I-0.125 J0.
G1 X3.5755
G3 X3.5505 Y-0.15 I0. J-0.025
G1 Y-0.175
G19 G2 Y-0.2 Z-0.1616 J0. K0.025
G0 Z0.6693
G17
M5
G0 Z15
G0 X0 Y0

M9
M30
