(1001)
(T1  D=0.125 CR=0. - ZMIN=-0.1866 - FLAT END MILL)
G90 G94 G91.1 G40 G49 G17
G20
G0 Z15

(BORE1)
M5
T1 M6
S5000 M3
G54
M8
G0 X4. Y0.5125
G43 Z0.6299 H1
Z0.1156
G1 Z0.0494 F39.4
G18 G2 X4.0125 Z0.0369 I0.0125 K0.
G1 X4.0187
G17 G2 X4.0312 Y0.5 I0. J-0.0125
X3.875 Z0.0344 I-0.0781 J0.
X4.0312 Z0.032 I0.0781 J0.
X3.875 Z0.0295 I-0.0781 J0.
X4.0312 Z0.0271 I0.0781 J0.
X3.875 Z0.0246 I-0.0781 J0.
X4.0312 Z0.0221 I0.0781 J0.
X3.875 Z0.0197 I-0.0781 J0.
X4.0312 Z0.0172 I0.0781 J0.
X3.875 Z0.0148 I-0.0781 J0.
X4.0312 Z0.0123 I0.0781 J0.
X3.875 Z0.0099 I-0.0781 J0.
X4.0312 Z0.0074 I0.0781 J0.
X3.875 Z0.005 I-0.0781 J0.
X4.0312 Z0.0025 I0.0781 J0.
X3.875 Z0.0001 I-0.0781 J0.
X4.0312 Z-0.0024 I0.0781 J0.
X3.875 Z-0.0049 I-0.0781 J0.
X4.0312 Z-0.0073 I0.0781 J0.
X3.875 Z-0.0098 I-0.0781 J0.
X4.0312 Z-0.0122 I0.0781 J0.
X3.875 Z-0.0147 I-0.0781 J0.
X4.0312 Z-0.0171 I0.0781 J0.
X3.875 Z-0.0196 I-0.0781 J0.
X4.0312 Z-0.022 I0.0781 J0.
X3.875 Z-0.0245 I-0.0781 J0.
X4.0312 Z-0.0269 I0.0781 J0.
X3.875 Z-0.0294 I-0.0781 J0.
X4.0312 Z-0.0319 I0.0781 J0.
X3.875 Z-0.0343 I-0.0781 J0.
X4.0312 Z-0.0368 I0.0781 J0.
X3.875 Z-0.0392 I-0.0781 J0.
X4.0312 Z-0.0417 I0.0781 J0.
X3.875 Z-0.0441 I-0.0781 J0.
X4.0312 Z-0.0466 I0.0781 J0.
X3.875 Z-0.049 I-0.0781 J0.
X4.0312 Z-0.0515 I0.0781 J0.
X3.875 Z-0.0539 I-0.0781 J0.
X4.0312 Z-0.0564 I0.0781 J0.
X3.875 Z-0.0589 I-0.0781 J0.
X4.0312 Z-0.0613 I0.0781 J0.
X3.875 Z-0.0638 I-0.0781 J0.
X4.0312 Z-0.0662 I0.0781 J0.
X3.875 Z-0.0687 I-0.0781 J0.
X4.0312 Z-0.0711 I0.0781 J0.
X3.875 Z-0.0736 I-0.0781 J0.
X4.0312 Z-0.076 I0.0781 J0.
X3.875 Z-0.0785 I-0.0781 J0.
X4.0312 Z-0.081 I0.0781 J0.
X3.875 Z-0.0834 I-0.0781 J0.
X4.0312 Z-0.0859 I0.0781 J0.
X3.875 Z-0.0883 I-0.0781 J0.
X4.0312 Z-0.0908 I0.0781 J0.
X3.875 Z-0.0932 I-0.0781 J0.
X4.0312 Z-0.0957 I0.0781 J0.
X3.875 Z-0.0981 I-0.0781 J0.
X4.0312 Z-0.1006 I0.0781 J0.
X3.875 Z-0.103 I-0.0781 J0.
X4.0312 Z-0.1055 I0.0781 J0.
X3.875 Z-0.108 I-0.0781 J0.
X4.0312 Z-0.1104 I0.0781 J0.
X3.875 Z-0.1129 I-0.0781 J0.
X4.0312 Z-0.1153 I0.0781 J0.
X3.875 Z-0.1178 I-0.0781 J0.
X4.0312 Z-0.1202 I0.0781 J0.
X3.875 Z-0.1227 I-0.0781 J0.
X4.0312 Z-0.1251 I0.0781 J0.
X3.875 Z-0.1276 I-0.0781 J0.
X4.0312 Z-0.13 I0.0781 J0.
X3.875 Z-0.1325 I-0.0781 J0.
X4.0312 Z-0.135 I0.0781 J0.
X3.875 Z-0.1374 I-0.0781 J0.
X4.0312 Z-0.1399 I0.0781 J0.
X3.875 Z-0.1423 I-0.0781 J0.
X4.0312 Z-0.1448 I0.0781 J0.
X3.875 Z-0.1472 I-0.0781 J0.
X4.0312 Z-0.1497 I0.0781 J0.
X3.875 Z-0.1521 I-0.0781 J0.
X4.0312 Z-0.1546 I0.0781 J0.
X3.875 Z-0.157 I-0.0781 J0.
X4.0312 Z-0.1595 I0.0781 J0.
X3.875 Z-0.162 I-0.0781 J0.
X4.0312 Z-0.1644 I0.0781 J0.
X3.875 Z-0.1669 I-0.0781 J0.
X4.0312 Z-0.1693 I0.0781 J0.
X3.875 Z-0.1718 I-0.0781 J0.
X4.0312 Z-0.1742 I0.0781 J0.
X3.875 Z-0.1767 I-0.0781 J0.
X4.0312 Z-0.1791 I0.0781 J0.
X3.875 Z-0.1816 I-0.0781 J0.
X4.0312 Z-0.184 I0.0781 J0.
X3.9503 Y0.4219 Z-0.1853 I-0.0781 J0.
X3.8752 Y0.5055 Z-0.1866 I0.0027 J0.0781
X4.031 Y0.4945 I0.0779 J-0.0055
X3.8752 Y0.5055 I-0.0779 J0.0055
X3.8885 Y0.5171 I0.0125 J-0.0009
G1 X3.8947 Y0.5166
X3.8975 Y0.5164 Z-0.1862
X3.9002 Y0.5162 Z-0.1853
X3.9025 Y0.5161 Z-0.1838
X3.9045 Y0.5159 Z-0.1818
X3.906 Y0.5158 Z-0.1795
X3.9069 Z-0.1768
X3.9072 Y0.5157 Z-0.1741
G0 Z0.2362
X1.5937 Y0.5125
Z0.1156
G1 Z0.0494 F39.4
G18 G2 X1.6062 Z0.0369 I0.0125 K0.
G1 X1.6125
G17 G2 X1.625 Y0.5 I0. J-0.0125
X1.4687 Z0.0344 I-0.0781 J0.
X1.625 Z0.032 I0.0781 J0.
X1.4687 Z0.0295 I-0.0781 J0.
X1.625 Z0.0271 I0.0781 J0.
X1.4687 Z0.0246 I-0.0781 J0.
X1.625 Z0.0221 I0.0781 J0.
X1.4687 Z0.0197 I-0.0781 J0.
X1.625 Z0.0172 I0.0781 J0.
X1.4687 Z0.0148 I-0.0781 J0.
X1.625 Z0.0123 I0.0781 J0.
X1.4687 Z0.0099 I-0.0781 J0.
X1.625 Z0.0074 I0.0781 J0.
X1.4687 Z0.005 I-0.0781 J0.
X1.625 Z0.0025 I0.0781 J0.
X1.4687 Z0.0001 I-0.0781 J0.
X1.625 Z-0.0024 I0.0781 J0.
X1.4687 Z-0.0049 I-0.0781 J0.
X1.625 Z-0.0073 I0.0781 J0.
X1.4687 Z-0.0098 I-0.0781 J0.
X1.625 Z-0.0122 I0.0781 J0.
X1.4687 Z-0.0147 I-0.0781 J0.
X1.625 Z-0.0171 I0.0781 J0.
X1.4687 Z-0.0196 I-0.0781 J0.
X1.625 Z-0.022 I0.0781 J0.
X1.4687 Z-0.0245 I-0.0781 J0.
X1.625 Z-0.0269 I0.0781 J0.
X1.4687 Z-0.0294 I-0.0781 J0.
X1.625 Z-0.0319 I0.0781 J0.
X1.4687 Z-0.0343 I-0.0781 J0.
X1.625 Z-0.0368 I0.0781 J0.
X1.4687 Z-0.0392 I-0.0781 J0.
X1.625 Z-0.0417 I0.0781 J0.
X1.4687 Z-0.0441 I-0.0781 J0.
X1.625 Z-0.0466 I0.0781 J0.
X1.4687 Z-0.049 I-0.0781 J0.
X1.625 Z-0.0515 I0.0781 J0.
X1.4687 Z-0.0539 I-0.0781 J0.
X1.625 Z-0.0564 I0.0781 J0.
X1.4687 Z-0.0589 I-0.0781 J0.
X1.625 Z-0.0613 I0.0781 J0.
X1.4687 Z-0.0638 I-0.0781 J0.
X1.625 Z-0.0662 I0.0781 J0.
X1.4687 Z-0.0687 I-0.0781 J0.
X1.625 Z-0.0711 I0.0781 J0.
X1.4687 Z-0.0736 I-0.0781 J0.
X1.625 Z-0.076 I0.0781 J0.
X1.4687 Z-0.0785 I-0.0781 J0.
X1.625 Z-0.081 I0.0781 J0.
X1.4687 Z-0.0834 I-0.0781 J0.
X1.625 Z-0.0859 I0.0781 J0.
X1.4687 Z-0.0883 I-0.0781 J0.
X1.625 Z-0.0908 I0.0781 J0.
X1.4687 Z-0.0932 I-0.0781 J0.
X1.625 Z-0.0957 I0.0781 J0.
X1.4687 Z-0.0981 I-0.0781 J0.
X1.625 Z-0.1006 I0.0781 J0.
X1.4687 Z-0.103 I-0.0781 J0.
X1.625 Z-0.1055 I0.0781 J0.
X1.4687 Z-0.108 I-0.0781 J0.
X1.625 Z-0.1104 I0.0781 J0.
X1.4687 Z-0.1129 I-0.0781 J0.
X1.625 Z-0.1153 I0.0781 J0.
X1.4687 Z-0.1178 I-0.0781 J0.
X1.625 Z-0.1202 I0.0781 J0.
X1.4687 Z-0.1227 I-0.0781 J0.
X1.625 Z-0.1251 I0.0781 J0.
X1.4687 Z-0.1276 I-0.0781 J0.
X1.625 Z-0.13 I0.0781 J0.
X1.4687 Z-0.1325 I-0.0781 J0.
X1.625 Z-0.135 I0.0781 J0.
X1.4687 Z-0.1374 I-0.0781 J0.
X1.625 Z-0.1399 I0.0781 J0.
X1.4687 Z-0.1423 I-0.0781 J0.
X1.625 Z-0.1448 I0.0781 J0.
X1.4687 Z-0.1472 I-0.0781 J0.
X1.625 Z-0.1497 I0.0781 J0.
X1.4687 Z-0.1521 I-0.0781 J0.
X1.625 Z-0.1546 I0.0781 J0.
X1.4687 Z-0.157 I-0.0781 J0.
X1.625 Z-0.1595 I0.0781 J0.
X1.4687 Z-0.162 I-0.0781 J0.
X1.625 Z-0.1644 I0.0781 J0.
X1.4687 Z-0.1669 I-0.0781 J0.
X1.625 Z-0.1693 I0.0781 J0.
X1.4687 Z-0.1718 I-0.0781 J0.
X1.625 Z-0.1742 I0.0781 J0.
X1.4687 Z-0.1767 I-0.0781 J0.
X1.625 Z-0.1791 I0.0781 J0.
X1.4687 Z-0.1816 I-0.0781 J0.
X1.625 Z-0.184 I0.0781 J0.
X1.5441 Y0.4219 Z-0.1853 I-0.0781 J0.
X1.4689 Y0.5055 Z-0.1866 I0.0027 J0.0781
X1.6248 Y0.4945 I0.0779 J-0.0055
X1.4689 Y0.5055 I-0.0779 J0.0055
X1.4823 Y0.5171 I0.0125 J-0.0009
G1 X1.4885 Y0.5166
X1.4913 Y0.5164 Z-0.1862
X1.4939 Y0.5162 Z-0.1853
X1.4963 Y0.5161 Z-0.1838
X1.4982 Y0.5159 Z-0.1818
X1.4997 Y0.5158 Z-0.1795
X1.5006 Z-0.1768
X1.501 Y0.5157 Z-0.1741
G0 Z0.2362
X2.2968 Y3.5125
Z0.1156
G1 Z0.0494 F39.4
G18 G2 X2.3093 Z0.0369 I0.0125 K0.
G1 X2.3156
G17 G2 X2.3281 Y3.5 I0. J-0.0125
X2.1718 Z0.0344 I-0.0781 J0.
X2.3281 Z0.032 I0.0781 J0.
X2.1718 Z0.0295 I-0.0781 J0.
X2.3281 Z0.0271 I0.0781 J0.
X2.1718 Z0.0246 I-0.0781 J0.
X2.3281 Z0.0221 I0.0781 J0.
X2.1718 Z0.0197 I-0.0781 J0.
X2.3281 Z0.0172 I0.0781 J0.
X2.1718 Z0.0148 I-0.0781 J0.
X2.3281 Z0.0123 I0.0781 J0.
X2.1718 Z0.0099 I-0.0781 J0.
X2.3281 Z0.0074 I0.0781 J0.
X2.1718 Z0.005 I-0.0781 J0.
X2.3281 Z0.0025 I0.0781 J0.
X2.1718 Z0.0001 I-0.0781 J0.
X2.3281 Z-0.0024 I0.0781 J0.
X2.1718 Z-0.0049 I-0.0781 J0.
X2.3281 Z-0.0073 I0.0781 J0.
X2.1718 Z-0.0098 I-0.0781 J0.
X2.3281 Z-0.0122 I0.0781 J0.
X2.1718 Z-0.0147 I-0.0781 J0.
X2.3281 Z-0.0171 I0.0781 J0.
X2.1718 Z-0.0196 I-0.0781 J0.
X2.3281 Z-0.022 I0.0781 J0.
X2.1718 Z-0.0245 I-0.0781 J0.
X2.3281 Z-0.0269 I0.0781 J0.
X2.1718 Z-0.0294 I-0.0781 J0.
X2.3281 Z-0.0319 I0.0781 J0.
X2.1718 Z-0.0343 I-0.0781 J0.
X2.3281 Z-0.0368 I0.0781 J0.
X2.1718 Z-0.0392 I-0.0781 J0.
X2.3281 Z-0.0417 I0.0781 J0.
X2.1718 Z-0.0441 I-0.0781 J0.
X2.3281 Z-0.0466 I0.0781 J0.
X2.1718 Z-0.049 I-0.0781 J0.
X2.3281 Z-0.0515 I0.0781 J0.
X2.1718 Z-0.0539 I-0.0781 J0.
X2.3281 Z-0.0564 I0.0781 J0.
X2.1718 Z-0.0589 I-0.0781 J0.
X2.3281 Z-0.0613 I0.0781 J0.
X2.1718 Z-0.0638 I-0.0781 J0.
X2.3281 Z-0.0662 I0.0781 J0.
X2.1718 Z-0.0687 I-0.0781 J0.
X2.3281 Z-0.0711 I0.0781 J0.
X2.1718 Z-0.0736 I-0.0781 J0.
X2.3281 Z-0.076 I0.0781 J0.
X2.1718 Z-0.0785 I-0.0781 J0.
X2.3281 Z-0.081 I0.0781 J0.
X2.1718 Z-0.0834 I-0.0781 J0.
X2.3281 Z-0.0859 I0.0781 J0.
X2.1718 Z-0.0883 I-0.0781 J0.
X2.3281 Z-0.0908 I0.0781 J0.
X2.1718 Z-0.0932 I-0.0781 J0.
X2.3281 Z-0.0957 I0.0781 J0.
X2.1718 Z-0.0981 I-0.0781 J0.
X2.3281 Z-0.1006 I0.0781 J0.
X2.1718 Z-0.103 I-0.0781 J0.
X2.3281 Z-0.1055 I0.0781 J0.
X2.1718 Z-0.108 I-0.0781 J0.
X2.3281 Z-0.1104 I0.0781 J0.
X2.1718 Z-0.1129 I-0.0781 J0.
X2.3281 Z-0.1153 I0.0781 J0.
X2.1718 Z-0.1178 I-0.0781 J0.
X2.3281 Z-0.1202 I0.0781 J0.
X2.1718 Z-0.1227 I-0.0781 J0.
X2.3281 Z-0.1251 I0.0781 J0.
X2.1718 Z-0.1276 I-0.0781 J0.
X2.3281 Z-0.13 I0.0781 J0.
X2.1718 Z-0.1325 I-0.0781 J0.
X2.3281 Z-0.135 I0.0781 J0.
X2.1718 Z-0.1374 I-0.0781 J0.
X2.3281 Z-0.1399 I0.0781 J0.
X2.1718 Z-0.1423 I-0.0781 J0.
X2.3281 Z-0.1448 I0.0781 J0.
X2.1718 Z-0.1472 I-0.0781 J0.
X2.3281 Z-0.1497 I0.0781 J0.
X2.1718 Z-0.1521 I-0.0781 J0.
X2.3281 Z-0.1546 I0.0781 J0.
X2.1718 Z-0.157 I-0.0781 J0.
X2.3281 Z-0.1595 I0.0781 J0.
X2.1718 Z-0.162 I-0.0781 J0.
X2.3281 Z-0.1644 I0.0781 J0.
X2.1718 Z-0.1669 I-0.0781 J0.
X2.3281 Z-0.1693 I0.0781 J0.
X2.1718 Z-0.1718 I-0.0781 J0.
X2.3281 Z-0.1742 I0.0781 J0.
X2.1718 Z-0.1767 I-0.0781 J0.
X2.3281 Z-0.1791 I0.0781 J0.
X2.1718 Z-0.1816 I-0.0781 J0.
X2.3281 Z-0.184 I0.0781 J0.
X2.2472 Y3.4219 Z-0.1853 I-0.0781 J0.
X2.172 Y3.5055 Z-0.1866 I0.0027 J0.0781
X2.3279 Y3.4945 I0.0779 J-0.0055
X2.172 Y3.5055 I-0.0779 J0.0055
X2.1854 Y3.5171 I0.0125 J-0.0009
G1 X2.1916 Y3.5166
X2.1944 Y3.5164 Z-0.1862
X2.197 Y3.5162 Z-0.1853
X2.1994 Y3.5161 Z-0.1838
X2.2014 Y3.5159 Z-0.1818
X2.2029 Y3.5158 Z-0.1795
X2.2038 Z-0.1768
X2.2041 Y3.5157 Z-0.1741
G0 Z0.2362
X3.2968 Y3.5125
Z0.1156
G1 Z0.0494 F39.4
G18 G2 X3.3093 Z0.0369 I0.0125 K0.
G1 X3.3156
G17 G2 X3.3281 Y3.5 I0. J-0.0125
X3.1718 Z0.0344 I-0.0781 J0.
X3.3281 Z0.032 I0.0781 J0.
X3.1718 Z0.0295 I-0.0781 J0.
X3.3281 Z0.0271 I0.0781 J0.
X3.1718 Z0.0246 I-0.0781 J0.
X3.3281 Z0.0221 I0.0781 J0.
X3.1718 Z0.0197 I-0.0781 J0.
X3.3281 Z0.0172 I0.0781 J0.
X3.1718 Z0.0148 I-0.0781 J0.
X3.3281 Z0.0123 I0.0781 J0.
X3.1718 Z0.0099 I-0.0781 J0.
X3.3281 Z0.0074 I0.0781 J0.
X3.1718 Z0.005 I-0.0781 J0.
X3.3281 Z0.0025 I0.0781 J0.
X3.1718 Z0.0001 I-0.0781 J0.
X3.3281 Z-0.0024 I0.0781 J0.
X3.1718 Z-0.0049 I-0.0781 J0.
X3.3281 Z-0.0073 I0.0781 J0.
X3.1718 Z-0.0098 I-0.0781 J0.
X3.3281 Z-0.0122 I0.0781 J0.
X3.1718 Z-0.0147 I-0.0781 J0.
X3.3281 Z-0.0171 I0.0781 J0.
X3.1718 Z-0.0196 I-0.0781 J0.
X3.3281 Z-0.022 I0.0781 J0.
X3.1718 Z-0.0245 I-0.0781 J0.
X3.3281 Z-0.0269 I0.0781 J0.
X3.1718 Z-0.0294 I-0.0781 J0.
X3.3281 Z-0.0319 I0.0781 J0.
X3.1718 Z-0.0343 I-0.0781 J0.
X3.3281 Z-0.0368 I0.0781 J0.
X3.1718 Z-0.0392 I-0.0781 J0.
X3.3281 Z-0.0417 I0.0781 J0.
X3.1718 Z-0.0441 I-0.0781 J0.
X3.3281 Z-0.0466 I0.0781 J0.
X3.1718 Z-0.049 I-0.0781 J0.
X3.3281 Z-0.0515 I0.0781 J0.
X3.1718 Z-0.0539 I-0.0781 J0.
X3.3281 Z-0.0564 I0.0781 J0.
X3.1718 Z-0.0589 I-0.0781 J0.
X3.3281 Z-0.0613 I0.0781 J0.
X3.1718 Z-0.0638 I-0.0781 J0.
X3.3281 Z-0.0662 I0.0781 J0.
X3.1718 Z-0.0687 I-0.0781 J0.
X3.3281 Z-0.0711 I0.0781 J0.
X3.1718 Z-0.0736 I-0.0781 J0.
X3.3281 Z-0.076 I0.0781 J0.
X3.1718 Z-0.0785 I-0.0781 J0.
X3.3281 Z-0.081 I0.0781 J0.
X3.1718 Z-0.0834 I-0.0781 J0.
X3.3281 Z-0.0859 I0.0781 J0.
X3.1718 Z-0.0883 I-0.0781 J0.
X3.3281 Z-0.0908 I0.0781 J0.
X3.1718 Z-0.0932 I-0.0781 J0.
X3.3281 Z-0.0957 I0.0781 J0.
X3.1718 Z-0.0981 I-0.0781 J0.
X3.3281 Z-0.1006 I0.0781 J0.
X3.1718 Z-0.103 I-0.0781 J0.
X3.3281 Z-0.1055 I0.0781 J0.
X3.1718 Z-0.108 I-0.0781 J0.
X3.3281 Z-0.1104 I0.0781 J0.
X3.1718 Z-0.1129 I-0.0781 J0.
X3.3281 Z-0.1153 I0.0781 J0.
X3.1718 Z-0.1178 I-0.0781 J0.
X3.3281 Z-0.1202 I0.0781 J0.
X3.1718 Z-0.1227 I-0.0781 J0.
X3.3281 Z-0.1251 I0.0781 J0.
X3.1718 Z-0.1276 I-0.0781 J0.
X3.3281 Z-0.13 I0.0781 J0.
X3.1718 Z-0.1325 I-0.0781 J0.
X3.3281 Z-0.135 I0.0781 J0.
X3.1718 Z-0.1374 I-0.0781 J0.
X3.3281 Z-0.1399 I0.0781 J0.
X3.1718 Z-0.1423 I-0.0781 J0.
X3.3281 Z-0.1448 I0.0781 J0.
X3.1718 Z-0.1472 I-0.0781 J0.
X3.3281 Z-0.1497 I0.0781 J0.
X3.1718 Z-0.1521 I-0.0781 J0.
X3.3281 Z-0.1546 I0.0781 J0.
X3.1718 Z-0.157 I-0.0781 J0.
X3.3281 Z-0.1595 I0.0781 J0.
X3.1718 Z-0.162 I-0.0781 J0.
X3.3281 Z-0.1644 I0.0781 J0.
X3.1718 Z-0.1669 I-0.0781 J0.
X3.3281 Z-0.1693 I0.0781 J0.
X3.1718 Z-0.1718 I-0.0781 J0.
X3.3281 Z-0.1742 I0.0781 J0.
X3.1718 Z-0.1767 I-0.0781 J0.
X3.3281 Z-0.1791 I0.0781 J0.
X3.1718 Z-0.1816 I-0.0781 J0.
X3.3281 Z-0.184 I0.0781 J0.
X3.2472 Y3.4219 Z-0.1853 I-0.0781 J0.
X3.172 Y3.5055 Z-0.1866 I0.0027 J0.0781
X3.3279 Y3.4945 I0.0779 J-0.0055
X3.172 Y3.5055 I-0.0779 J0.0055
X3.1854 Y3.5171 I0.0125 J-0.0009
G1 X3.1916 Y3.5166
X3.1944 Y3.5164 Z-0.1862
X3.197 Y3.5162 Z-0.1853
X3.1994 Y3.5161 Z-0.1838
X3.2014 Y3.5159 Z-0.1818
X3.2029 Y3.5158 Z-0.1795
X3.2038 Z-0.1768
X3.2041 Y3.5157 Z-0.1741
G0 Z0.2362
X3.2968 Y4.5125
Z0.1156
G1 Z0.0494 F39.4
G18 G2 X3.3093 Z0.0369 I0.0125 K0.
G1 X3.3156
G17 G2 X3.3281 Y4.5 I0. J-0.0125
X3.1718 Z0.0344 I-0.0781 J0.
X3.3281 Z0.032 I0.0781 J0.
X3.1718 Z0.0295 I-0.0781 J0.
X3.3281 Z0.0271 I0.0781 J0.
X3.1718 Z0.0246 I-0.0781 J0.
X3.3281 Z0.0221 I0.0781 J0.
X3.1718 Z0.0197 I-0.0781 J0.
X3.3281 Z0.0172 I0.0781 J0.
X3.1718 Z0.0148 I-0.0781 J0.
X3.3281 Z0.0123 I0.0781 J0.
X3.1718 Z0.0099 I-0.0781 J0.
X3.3281 Z0.0074 I0.0781 J0.
X3.1718 Z0.005 I-0.0781 J0.
X3.3281 Z0.0025 I0.0781 J0.
X3.1718 Z0.0001 I-0.0781 J0.
X3.3281 Z-0.0024 I0.0781 J0.
X3.1718 Z-0.0049 I-0.0781 J0.
X3.3281 Z-0.0073 I0.0781 J0.
X3.1718 Z-0.0098 I-0.0781 J0.
X3.3281 Z-0.0122 I0.0781 J0.
X3.1718 Z-0.0147 I-0.0781 J0.
X3.3281 Z-0.0171 I0.0781 J0.
X3.1718 Z-0.0196 I-0.0781 J0.
X3.3281 Z-0.022 I0.0781 J0.
X3.1718 Z-0.0245 I-0.0781 J0.
X3.3281 Z-0.0269 I0.0781 J0.
X3.1718 Z-0.0294 I-0.0781 J0.
X3.3281 Z-0.0319 I0.0781 J0.
X3.1718 Z-0.0343 I-0.0781 J0.
X3.3281 Z-0.0368 I0.0781 J0.
X3.1718 Z-0.0392 I-0.0781 J0.
X3.3281 Z-0.0417 I0.0781 J0.
X3.1718 Z-0.0441 I-0.0781 J0.
X3.3281 Z-0.0466 I0.0781 J0.
X3.1718 Z-0.049 I-0.0781 J0.
X3.3281 Z-0.0515 I0.0781 J0.
X3.1718 Z-0.0539 I-0.0781 J0.
X3.3281 Z-0.0564 I0.0781 J0.
X3.1718 Z-0.0589 I-0.0781 J0.
X3.3281 Z-0.0613 I0.0781 J0.
X3.1718 Z-0.0638 I-0.0781 J0.
X3.3281 Z-0.0662 I0.0781 J0.
X3.1718 Z-0.0687 I-0.0781 J0.
X3.3281 Z-0.0711 I0.0781 J0.
X3.1718 Z-0.0736 I-0.0781 J0.
X3.3281 Z-0.076 I0.0781 J0.
X3.1718 Z-0.0785 I-0.0781 J0.
X3.3281 Z-0.081 I0.0781 J0.
X3.1718 Z-0.0834 I-0.0781 J0.
X3.3281 Z-0.0859 I0.0781 J0.
X3.1718 Z-0.0883 I-0.0781 J0.
X3.3281 Z-0.0908 I0.0781 J0.
X3.1718 Z-0.0932 I-0.0781 J0.
X3.3281 Z-0.0957 I0.0781 J0.
X3.1718 Z-0.0981 I-0.0781 J0.
X3.3281 Z-0.1006 I0.0781 J0.
X3.1718 Z-0.103 I-0.0781 J0.
X3.3281 Z-0.1055 I0.0781 J0.
X3.1718 Z-0.108 I-0.0781 J0.
X3.3281 Z-0.1104 I0.0781 J0.
X3.1718 Z-0.1129 I-0.0781 J0.
X3.3281 Z-0.1153 I0.0781 J0.
X3.1718 Z-0.1178 I-0.0781 J0.
X3.3281 Z-0.1202 I0.0781 J0.
X3.1718 Z-0.1227 I-0.0781 J0.
X3.3281 Z-0.1251 I0.0781 J0.
X3.1718 Z-0.1276 I-0.0781 J0.
X3.3281 Z-0.13 I0.0781 J0.
X3.1718 Z-0.1325 I-0.0781 J0.
X3.3281 Z-0.135 I0.0781 J0.
X3.1718 Z-0.1374 I-0.0781 J0.
X3.3281 Z-0.1399 I0.0781 J0.
X3.1718 Z-0.1423 I-0.0781 J0.
X3.3281 Z-0.1448 I0.0781 J0.
X3.1718 Z-0.1472 I-0.0781 J0.
X3.3281 Z-0.1497 I0.0781 J0.
X3.1718 Z-0.1521 I-0.0781 J0.
X3.3281 Z-0.1546 I0.0781 J0.
X3.1718 Z-0.157 I-0.0781 J0.
X3.3281 Z-0.1595 I0.0781 J0.
X3.1718 Z-0.162 I-0.0781 J0.
X3.3281 Z-0.1644 I0.0781 J0.
X3.1718 Z-0.1669 I-0.0781 J0.
X3.3281 Z-0.1693 I0.0781 J0.
X3.1718 Z-0.1718 I-0.0781 J0.
X3.3281 Z-0.1742 I0.0781 J0.
X3.1718 Z-0.1767 I-0.0781 J0.
X3.3281 Z-0.1791 I0.0781 J0.
X3.1718 Z-0.1816 I-0.0781 J0.
X3.3281 Z-0.184 I0.0781 J0.
X3.2472 Y4.4219 Z-0.1853 I-0.0781 J0.
X3.172 Y4.5055 Z-0.1866 I0.0027 J0.0781
X3.3279 Y4.4945 I0.0779 J-0.0055
X3.172 Y4.5055 I-0.0779 J0.0055
X3.1854 Y4.5171 I0.0125 J-0.0009
G1 X3.1916 Y4.5166
X3.1944 Y4.5164 Z-0.1862
X3.197 Y4.5162 Z-0.1853
X3.1994 Y4.5161 Z-0.1838
X3.2014 Y4.5159 Z-0.1818
X3.2029 Y4.5158 Z-0.1795
X3.2038 Z-0.1768
X3.2041 Y4.5157 Z-0.1741
G0 Z0.2362
X2.2968 Y4.5125
Z0.1156
G1 Z0.0494 F39.4
G18 G2 X2.3093 Z0.0369 I0.0125 K0.
G1 X2.3156
G17 G2 X2.3281 Y4.5 I0. J-0.0125
X2.1718 Z0.0344 I-0.0781 J0.
X2.3281 Z0.032 I0.0781 J0.
X2.1718 Z0.0295 I-0.0781 J0.
X2.3281 Z0.0271 I0.0781 J0.
X2.1718 Z0.0246 I-0.0781 J0.
X2.3281 Z0.0221 I0.0781 J0.
X2.1718 Z0.0197 I-0.0781 J0.
X2.3281 Z0.0172 I0.0781 J0.
X2.1718 Z0.0148 I-0.0781 J0.
X2.3281 Z0.0123 I0.0781 J0.
X2.1718 Z0.0099 I-0.0781 J0.
X2.3281 Z0.0074 I0.0781 J0.
X2.1718 Z0.005 I-0.0781 J0.
X2.3281 Z0.0025 I0.0781 J0.
X2.1718 Z0.0001 I-0.0781 J0.
X2.3281 Z-0.0024 I0.0781 J0.
X2.1718 Z-0.0049 I-0.0781 J0.
X2.3281 Z-0.0073 I0.0781 J0.
X2.1718 Z-0.0098 I-0.0781 J0.
X2.3281 Z-0.0122 I0.0781 J0.
X2.1718 Z-0.0147 I-0.0781 J0.
X2.3281 Z-0.0171 I0.0781 J0.
X2.1718 Z-0.0196 I-0.0781 J0.
X2.3281 Z-0.022 I0.0781 J0.
X2.1718 Z-0.0245 I-0.0781 J0.
X2.3281 Z-0.0269 I0.0781 J0.
X2.1718 Z-0.0294 I-0.0781 J0.
X2.3281 Z-0.0319 I0.0781 J0.
X2.1718 Z-0.0343 I-0.0781 J0.
X2.3281 Z-0.0368 I0.0781 J0.
X2.1718 Z-0.0392 I-0.0781 J0.
X2.3281 Z-0.0417 I0.0781 J0.
X2.1718 Z-0.0441 I-0.0781 J0.
X2.3281 Z-0.0466 I0.0781 J0.
X2.1718 Z-0.049 I-0.0781 J0.
X2.3281 Z-0.0515 I0.0781 J0.
X2.1718 Z-0.0539 I-0.0781 J0.
X2.3281 Z-0.0564 I0.0781 J0.
X2.1718 Z-0.0589 I-0.0781 J0.
X2.3281 Z-0.0613 I0.0781 J0.
X2.1718 Z-0.0638 I-0.0781 J0.
X2.3281 Z-0.0662 I0.0781 J0.
X2.1718 Z-0.0687 I-0.0781 J0.
X2.3281 Z-0.0711 I0.0781 J0.
X2.1718 Z-0.0736 I-0.0781 J0.
X2.3281 Z-0.076 I0.0781 J0.
X2.1718 Z-0.0785 I-0.0781 J0.
X2.3281 Z-0.081 I0.0781 J0.
X2.1718 Z-0.0834 I-0.0781 J0.
X2.3281 Z-0.0859 I0.0781 J0.
X2.1718 Z-0.0883 I-0.0781 J0.
X2.3281 Z-0.0908 I0.0781 J0.
X2.1718 Z-0.0932 I-0.0781 J0.
X2.3281 Z-0.0957 I0.0781 J0.
X2.1718 Z-0.0981 I-0.0781 J0.
X2.3281 Z-0.1006 I0.0781 J0.
X2.1718 Z-0.103 I-0.0781 J0.
X2.3281 Z-0.1055 I0.0781 J0.
X2.1718 Z-0.108 I-0.0781 J0.
X2.3281 Z-0.1104 I0.0781 J0.
X2.1718 Z-0.1129 I-0.0781 J0.
X2.3281 Z-0.1153 I0.0781 J0.
X2.1718 Z-0.1178 I-0.0781 J0.
X2.3281 Z-0.1202 I0.0781 J0.
X2.1718 Z-0.1227 I-0.0781 J0.
X2.3281 Z-0.1251 I0.0781 J0.
X2.1718 Z-0.1276 I-0.0781 J0.
X2.3281 Z-0.13 I0.0781 J0.
X2.1718 Z-0.1325 I-0.0781 J0.
X2.3281 Z-0.135 I0.0781 J0.
X2.1718 Z-0.1374 I-0.0781 J0.
X2.3281 Z-0.1399 I0.0781 J0.
X2.1718 Z-0.1423 I-0.0781 J0.
X2.3281 Z-0.1448 I0.0781 J0.
X2.1718 Z-0.1472 I-0.0781 J0.
X2.3281 Z-0.1497 I0.0781 J0.
X2.1718 Z-0.1521 I-0.0781 J0.
X2.3281 Z-0.1546 I0.0781 J0.
X2.1718 Z-0.157 I-0.0781 J0.
X2.3281 Z-0.1595 I0.0781 J0.
X2.1718 Z-0.162 I-0.0781 J0.
X2.3281 Z-0.1644 I0.0781 J0.
X2.1718 Z-0.1669 I-0.0781 J0.
X2.3281 Z-0.1693 I0.0781 J0.
X2.1718 Z-0.1718 I-0.0781 J0.
X2.3281 Z-0.1742 I0.0781 J0.
X2.1718 Z-0.1767 I-0.0781 J0.
X2.3281 Z-0.1791 I0.0781 J0.
X2.1718 Z-0.1816 I-0.0781 J0.
X2.3281 Z-0.184 I0.0781 J0.
X2.2472 Y4.4219 Z-0.1853 I-0.0781 J0.
X2.172 Y4.5055 Z-0.1866 I0.0027 J0.0781
X2.3279 Y4.4945 I0.0779 J-0.0055
X2.172 Y4.5055 I-0.0779 J0.0055
X2.1854 Y4.5171 I0.0125 J-0.0009
G1 X2.1916 Y4.5166
X2.1944 Y4.5164 Z-0.1862
X2.197 Y4.5162 Z-0.1853
X2.1994 Y4.5161 Z-0.1838
X2.2014 Y4.5159 Z-0.1818
X2.2029 Y4.5158 Z-0.1795
X2.2038 Z-0.1768
X2.2041 Y4.5157 Z-0.1741
G0 Z0.2362
X2.2968 Y5.5125
Z0.1156
G1 Z0.0494 F39.4
G18 G2 X2.3093 Z0.0369 I0.0125 K0.
G1 X2.3156
G17 G2 X2.3281 Y5.5 I0. J-0.0125
X2.1718 Z0.0344 I-0.0781 J0.
X2.3281 Z0.032 I0.0781 J0.
X2.1718 Z0.0295 I-0.0781 J0.
X2.3281 Z0.0271 I0.0781 J0.
X2.1718 Z0.0246 I-0.0781 J0.
X2.3281 Z0.0221 I0.0781 J0.
X2.1718 Z0.0197 I-0.0781 J0.
X2.3281 Z0.0172 I0.0781 J0.
X2.1718 Z0.0148 I-0.0781 J0.
X2.3281 Z0.0123 I0.0781 J0.
X2.1718 Z0.0099 I-0.0781 J0.
X2.3281 Z0.0074 I0.0781 J0.
X2.1718 Z0.005 I-0.0781 J0.
X2.3281 Z0.0025 I0.0781 J0.
X2.1718 Z0.0001 I-0.0781 J0.
X2.3281 Z-0.0024 I0.0781 J0.
X2.1718 Z-0.0049 I-0.0781 J0.
X2.3281 Z-0.0073 I0.0781 J0.
X2.1718 Z-0.0098 I-0.0781 J0.
X2.3281 Z-0.0122 I0.0781 J0.
X2.1718 Z-0.0147 I-0.0781 J0.
X2.3281 Z-0.0171 I0.0781 J0.
X2.1718 Z-0.0196 I-0.0781 J0.
X2.3281 Z-0.022 I0.0781 J0.
X2.1718 Z-0.0245 I-0.0781 J0.
X2.3281 Z-0.0269 I0.0781 J0.
X2.1718 Z-0.0294 I-0.0781 J0.
X2.3281 Z-0.0319 I0.0781 J0.
X2.1718 Z-0.0343 I-0.0781 J0.
X2.3281 Z-0.0368 I0.0781 J0.
X2.1718 Z-0.0392 I-0.0781 J0.
X2.3281 Z-0.0417 I0.0781 J0.
X2.1718 Z-0.0441 I-0.0781 J0.
X2.3281 Z-0.0466 I0.0781 J0.
X2.1718 Z-0.049 I-0.0781 J0.
X2.3281 Z-0.0515 I0.0781 J0.
X2.1718 Z-0.0539 I-0.0781 J0.
X2.3281 Z-0.0564 I0.0781 J0.
X2.1718 Z-0.0589 I-0.0781 J0.
X2.3281 Z-0.0613 I0.0781 J0.
X2.1718 Z-0.0638 I-0.0781 J0.
X2.3281 Z-0.0662 I0.0781 J0.
X2.1718 Z-0.0687 I-0.0781 J0.
X2.3281 Z-0.0711 I0.0781 J0.
X2.1718 Z-0.0736 I-0.0781 J0.
X2.3281 Z-0.076 I0.0781 J0.
X2.1718 Z-0.0785 I-0.0781 J0.
X2.3281 Z-0.081 I0.0781 J0.
X2.1718 Z-0.0834 I-0.0781 J0.
X2.3281 Z-0.0859 I0.0781 J0.
X2.1718 Z-0.0883 I-0.0781 J0.
X2.3281 Z-0.0908 I0.0781 J0.
X2.1718 Z-0.0932 I-0.0781 J0.
X2.3281 Z-0.0957 I0.0781 J0.
X2.1718 Z-0.0981 I-0.0781 J0.
X2.3281 Z-0.1006 I0.0781 J0.
X2.1718 Z-0.103 I-0.0781 J0.
X2.3281 Z-0.1055 I0.0781 J0.
X2.1718 Z-0.108 I-0.0781 J0.
X2.3281 Z-0.1104 I0.0781 J0.
X2.1718 Z-0.1129 I-0.0781 J0.
X2.3281 Z-0.1153 I0.0781 J0.
X2.1718 Z-0.1178 I-0.0781 J0.
X2.3281 Z-0.1202 I0.0781 J0.
X2.1718 Z-0.1227 I-0.0781 J0.
X2.3281 Z-0.1251 I0.0781 J0.
X2.1718 Z-0.1276 I-0.0781 J0.
X2.3281 Z-0.13 I0.0781 J0.
X2.1718 Z-0.1325 I-0.0781 J0.
X2.3281 Z-0.135 I0.0781 J0.
X2.1718 Z-0.1374 I-0.0781 J0.
X2.3281 Z-0.1399 I0.0781 J0.
X2.1718 Z-0.1423 I-0.0781 J0.
X2.3281 Z-0.1448 I0.0781 J0.
X2.1718 Z-0.1472 I-0.0781 J0.
X2.3281 Z-0.1497 I0.0781 J0.
X2.1718 Z-0.1521 I-0.0781 J0.
X2.3281 Z-0.1546 I0.0781 J0.
X2.1718 Z-0.157 I-0.0781 J0.
X2.3281 Z-0.1595 I0.0781 J0.
X2.1718 Z-0.162 I-0.0781 J0.
X2.3281 Z-0.1644 I0.0781 J0.
X2.1718 Z-0.1669 I-0.0781 J0.
X2.3281 Z-0.1693 I0.0781 J0.
X2.1718 Z-0.1718 I-0.0781 J0.
X2.3281 Z-0.1742 I0.0781 J0.
X2.1718 Z-0.1767 I-0.0781 J0.
X2.3281 Z-0.1791 I0.0781 J0.
X2.1718 Z-0.1816 I-0.0781 J0.
X2.3281 Z-0.184 I0.0781 J0.
X2.2472 Y5.4219 Z-0.1853 I-0.0781 J0.
X2.172 Y5.5055 Z-0.1866 I0.0027 J0.0781
X2.3279 Y5.4945 I0.0779 J-0.0055
X2.172 Y5.5055 I-0.0779 J0.0055
X2.1854 Y5.5171 I0.0125 J-0.0009
G1 X2.1916 Y5.5166
X2.1944 Y5.5164 Z-0.1862
X2.197 Y5.5162 Z-0.1853
X2.1994 Y5.5161 Z-0.1838
X2.2014 Y5.5159 Z-0.1818
X2.2029 Y5.5158 Z-0.1795
X2.2038 Z-0.1768
X2.2041 Y5.5157 Z-0.1741
G0 Z0.2362
X3.2968 Y5.5125
Z0.1156
G1 Z0.0494 F39.4
G18 G2 X3.3093 Z0.0369 I0.0125 K0.
G1 X3.3156
G17 G2 X3.3281 Y5.5 I0. J-0.0125
X3.1718 Z0.0344 I-0.0781 J0.
X3.3281 Z0.032 I0.0781 J0.
X3.1718 Z0.0295 I-0.0781 J0.
X3.3281 Z0.0271 I0.0781 J0.
X3.1718 Z0.0246 I-0.0781 J0.
X3.3281 Z0.0221 I0.0781 J0.
X3.1718 Z0.0197 I-0.0781 J0.
X3.3281 Z0.0172 I0.0781 J0.
X3.1718 Z0.0148 I-0.0781 J0.
X3.3281 Z0.0123 I0.0781 J0.
X3.1718 Z0.0099 I-0.0781 J0.
X3.3281 Z0.0074 I0.0781 J0.
X3.1718 Z0.005 I-0.0781 J0.
X3.3281 Z0.0025 I0.0781 J0.
X3.1718 Z0.0001 I-0.0781 J0.
X3.3281 Z-0.0024 I0.0781 J0.
X3.1718 Z-0.0049 I-0.0781 J0.
X3.3281 Z-0.0073 I0.0781 J0.
X3.1718 Z-0.0098 I-0.0781 J0.
X3.3281 Z-0.0122 I0.0781 J0.
X3.1718 Z-0.0147 I-0.0781 J0.
X3.3281 Z-0.0171 I0.0781 J0.
X3.1718 Z-0.0196 I-0.0781 J0.
X3.3281 Z-0.022 I0.0781 J0.
X3.1718 Z-0.0245 I-0.0781 J0.
X3.3281 Z-0.0269 I0.0781 J0.
X3.1718 Z-0.0294 I-0.0781 J0.
X3.3281 Z-0.0319 I0.0781 J0.
X3.1718 Z-0.0343 I-0.0781 J0.
X3.3281 Z-0.0368 I0.0781 J0.
X3.1718 Z-0.0392 I-0.0781 J0.
X3.3281 Z-0.0417 I0.0781 J0.
X3.1718 Z-0.0441 I-0.0781 J0.
X3.3281 Z-0.0466 I0.0781 J0.
X3.1718 Z-0.049 I-0.0781 J0.
X3.3281 Z-0.0515 I0.0781 J0.
X3.1718 Z-0.0539 I-0.0781 J0.
X3.3281 Z-0.0564 I0.0781 J0.
X3.1718 Z-0.0589 I-0.0781 J0.
X3.3281 Z-0.0613 I0.0781 J0.
X3.1718 Z-0.0638 I-0.0781 J0.
X3.3281 Z-0.0662 I0.0781 J0.
X3.1718 Z-0.0687 I-0.0781 J0.
X3.3281 Z-0.0711 I0.0781 J0.
X3.1718 Z-0.0736 I-0.0781 J0.
X3.3281 Z-0.076 I0.0781 J0.
X3.1718 Z-0.0785 I-0.0781 J0.
X3.3281 Z-0.081 I0.0781 J0.
X3.1718 Z-0.0834 I-0.0781 J0.
X3.3281 Z-0.0859 I0.0781 J0.
X3.1718 Z-0.0883 I-0.0781 J0.
X3.3281 Z-0.0908 I0.0781 J0.
X3.1718 Z-0.0932 I-0.0781 J0.
X3.3281 Z-0.0957 I0.0781 J0.
X3.1718 Z-0.0981 I-0.0781 J0.
X3.3281 Z-0.1006 I0.0781 J0.
X3.1718 Z-0.103 I-0.0781 J0.
X3.3281 Z-0.1055 I0.0781 J0.
X3.1718 Z-0.108 I-0.0781 J0.
X3.3281 Z-0.1104 I0.0781 J0.
X3.1718 Z-0.1129 I-0.0781 J0.
X3.3281 Z-0.1153 I0.0781 J0.
X3.1718 Z-0.1178 I-0.0781 J0.
X3.3281 Z-0.1202 I0.0781 J0.
X3.1718 Z-0.1227 I-0.0781 J0.
X3.3281 Z-0.1251 I0.0781 J0.
X3.1718 Z-0.1276 I-0.0781 J0.
X3.3281 Z-0.13 I0.0781 J0.
X3.1718 Z-0.1325 I-0.0781 J0.
X3.3281 Z-0.135 I0.0781 J0.
X3.1718 Z-0.1374 I-0.0781 J0.
X3.3281 Z-0.1399 I0.0781 J0.
X3.1718 Z-0.1423 I-0.0781 J0.
X3.3281 Z-0.1448 I0.0781 J0.
X3.1718 Z-0.1472 I-0.0781 J0.
X3.3281 Z-0.1497 I0.0781 J0.
X3.1718 Z-0.1521 I-0.0781 J0.
X3.3281 Z-0.1546 I0.0781 J0.
X3.1718 Z-0.157 I-0.0781 J0.
X3.3281 Z-0.1595 I0.0781 J0.
X3.1718 Z-0.162 I-0.0781 J0.
X3.3281 Z-0.1644 I0.0781 J0.
X3.1718 Z-0.1669 I-0.0781 J0.
X3.3281 Z-0.1693 I0.0781 J0.
X3.1718 Z-0.1718 I-0.0781 J0.
X3.3281 Z-0.1742 I0.0781 J0.
X3.1718 Z-0.1767 I-0.0781 J0.
X3.3281 Z-0.1791 I0.0781 J0.
X3.1718 Z-0.1816 I-0.0781 J0.
X3.3281 Z-0.184 I0.0781 J0.
X3.2472 Y5.4219 Z-0.1853 I-0.0781 J0.
X3.172 Y5.5055 Z-0.1866 I0.0027 J0.0781
X3.3279 Y5.4945 I0.0779 J-0.0055
X3.172 Y5.5055 I-0.0779 J0.0055
X3.1854 Y5.5171 I0.0125 J-0.0009
G1 X3.1916 Y5.5166
X3.1944 Y5.5164 Z-0.1862
X3.197 Y5.5162 Z-0.1853
X3.1994 Y5.5161 Z-0.1838
X3.2014 Y5.5159 Z-0.1818
X3.2029 Y5.5158 Z-0.1795
X3.2038 Z-0.1768
X3.2041 Y5.5157 Z-0.1741
G0 Z0.2362
X3.2968 Y6.5125
Z0.1156
G1 Z0.0494 F39.4
G18 G2 X3.3093 Z0.0369 I0.0125 K0.
G1 X3.3156
G17 G2 X3.3281 Y6.5 I0. J-0.0125
X3.1718 Z0.0344 I-0.0781 J0.
X3.3281 Z0.032 I0.0781 J0.
X3.1718 Z0.0295 I-0.0781 J0.
X3.3281 Z0.0271 I0.0781 J0.
X3.1718 Z0.0246 I-0.0781 J0.
X3.3281 Z0.0221 I0.0781 J0.
X3.1718 Z0.0197 I-0.0781 J0.
X3.3281 Z0.0172 I0.0781 J0.
X3.1718 Z0.0148 I-0.0781 J0.
X3.3281 Z0.0123 I0.0781 J0.
X3.1718 Z0.0099 I-0.0781 J0.
X3.3281 Z0.0074 I0.0781 J0.
X3.1718 Z0.005 I-0.0781 J0.
X3.3281 Z0.0025 I0.0781 J0.
X3.1718 Z0.0001 I-0.0781 J0.
X3.3281 Z-0.0024 I0.0781 J0.
X3.1718 Z-0.0049 I-0.0781 J0.
X3.3281 Z-0.0073 I0.0781 J0.
X3.1718 Z-0.0098 I-0.0781 J0.
X3.3281 Z-0.0122 I0.0781 J0.
X3.1718 Z-0.0147 I-0.0781 J0.
X3.3281 Z-0.0171 I0.0781 J0.
X3.1718 Z-0.0196 I-0.0781 J0.
X3.3281 Z-0.022 I0.0781 J0.
X3.1718 Z-0.0245 I-0.0781 J0.
X3.3281 Z-0.0269 I0.0781 J0.
X3.1718 Z-0.0294 I-0.0781 J0.
X3.3281 Z-0.0319 I0.0781 J0.
X3.1718 Z-0.0343 I-0.0781 J0.
X3.3281 Z-0.0368 I0.0781 J0.
X3.1718 Z-0.0392 I-0.0781 J0.
X3.3281 Z-0.0417 I0.0781 J0.
X3.1718 Z-0.0441 I-0.0781 J0.
X3.3281 Z-0.0466 I0.0781 J0.
X3.1718 Z-0.049 I-0.0781 J0.
X3.3281 Z-0.0515 I0.0781 J0.
X3.1718 Z-0.0539 I-0.0781 J0.
X3.3281 Z-0.0564 I0.0781 J0.
X3.1718 Z-0.0589 I-0.0781 J0.
X3.3281 Z-0.0613 I0.0781 J0.
X3.1718 Z-0.0638 I-0.0781 J0.
X3.3281 Z-0.0662 I0.0781 J0.
X3.1718 Z-0.0687 I-0.0781 J0.
X3.3281 Z-0.0711 I0.0781 J0.
X3.1718 Z-0.0736 I-0.0781 J0.
X3.3281 Z-0.076 I0.0781 J0.
X3.1718 Z-0.0785 I-0.0781 J0.
X3.3281 Z-0.081 I0.0781 J0.
X3.1718 Z-0.0834 I-0.0781 J0.
X3.3281 Z-0.0859 I0.0781 J0.
X3.1718 Z-0.0883 I-0.0781 J0.
X3.3281 Z-0.0908 I0.0781 J0.
X3.1718 Z-0.0932 I-0.0781 J0.
X3.3281 Z-0.0957 I0.0781 J0.
X3.1718 Z-0.0981 I-0.0781 J0.
X3.3281 Z-0.1006 I0.0781 J0.
X3.1718 Z-0.103 I-0.0781 J0.
X3.3281 Z-0.1055 I0.0781 J0.
X3.1718 Z-0.108 I-0.0781 J0.
X3.3281 Z-0.1104 I0.0781 J0.
X3.1718 Z-0.1129 I-0.0781 J0.
X3.3281 Z-0.1153 I0.0781 J0.
X3.1718 Z-0.1178 I-0.0781 J0.
X3.3281 Z-0.1202 I0.0781 J0.
X3.1718 Z-0.1227 I-0.0781 J0.
X3.3281 Z-0.1251 I0.0781 J0.
X3.1718 Z-0.1276 I-0.0781 J0.
X3.3281 Z-0.13 I0.0781 J0.
X3.1718 Z-0.1325 I-0.0781 J0.
X3.3281 Z-0.135 I0.0781 J0.
X3.1718 Z-0.1374 I-0.0781 J0.
X3.3281 Z-0.1399 I0.0781 J0.
X3.1718 Z-0.1423 I-0.0781 J0.
X3.3281 Z-0.1448 I0.0781 J0.
X3.1718 Z-0.1472 I-0.0781 J0.
X3.3281 Z-0.1497 I0.0781 J0.
X3.1718 Z-0.1521 I-0.0781 J0.
X3.3281 Z-0.1546 I0.0781 J0.
X3.1718 Z-0.157 I-0.0781 J0.
X3.3281 Z-0.1595 I0.0781 J0.
X3.1718 Z-0.162 I-0.0781 J0.
X3.3281 Z-0.1644 I0.0781 J0.
X3.1718 Z-0.1669 I-0.0781 J0.
X3.3281 Z-0.1693 I0.0781 J0.
X3.1718 Z-0.1718 I-0.0781 J0.
X3.3281 Z-0.1742 I0.0781 J0.
X3.1718 Z-0.1767 I-0.0781 J0.
X3.3281 Z-0.1791 I0.0781 J0.
X3.1718 Z-0.1816 I-0.0781 J0.
X3.3281 Z-0.184 I0.0781 J0.
X3.2472 Y6.4219 Z-0.1853 I-0.0781 J0.
X3.172 Y6.5055 Z-0.1866 I0.0027 J0.0781
X3.3279 Y6.4945 I0.0779 J-0.0055
X3.172 Y6.5055 I-0.0779 J0.0055
X3.1854 Y6.5171 I0.0125 J-0.0009
G1 X3.1916 Y6.5166
X3.1944 Y6.5164 Z-0.1862
X3.197 Y6.5162 Z-0.1853
X3.1994 Y6.5161 Z-0.1838
X3.2014 Y6.5159 Z-0.1818
X3.2029 Y6.5158 Z-0.1795
X3.2038 Z-0.1768
X3.2041 Y6.5157 Z-0.1741
G0 Z0.2362
X2.2968 Y6.5125
Z0.1156
G1 Z0.0494 F39.4
G18 G2 X2.3093 Z0.0369 I0.0125 K0.
G1 X2.3156
G17 G2 X2.3281 Y6.5 I0. J-0.0125
X2.1718 Z0.0344 I-0.0781 J0.
X2.3281 Z0.032 I0.0781 J0.
X2.1718 Z0.0295 I-0.0781 J0.
X2.3281 Z0.0271 I0.0781 J0.
X2.1718 Z0.0246 I-0.0781 J0.
X2.3281 Z0.0221 I0.0781 J0.
X2.1718 Z0.0197 I-0.0781 J0.
X2.3281 Z0.0172 I0.0781 J0.
X2.1718 Z0.0148 I-0.0781 J0.
X2.3281 Z0.0123 I0.0781 J0.
X2.1718 Z0.0099 I-0.0781 J0.
X2.3281 Z0.0074 I0.0781 J0.
X2.1718 Z0.005 I-0.0781 J0.
X2.3281 Z0.0025 I0.0781 J0.
X2.1718 Z0.0001 I-0.0781 J0.
X2.3281 Z-0.0024 I0.0781 J0.
X2.1718 Z-0.0049 I-0.0781 J0.
X2.3281 Z-0.0073 I0.0781 J0.
X2.1718 Z-0.0098 I-0.0781 J0.
X2.3281 Z-0.0122 I0.0781 J0.
X2.1718 Z-0.0147 I-0.0781 J0.
X2.3281 Z-0.0171 I0.0781 J0.
X2.1718 Z-0.0196 I-0.0781 J0.
X2.3281 Z-0.022 I0.0781 J0.
X2.1718 Z-0.0245 I-0.0781 J0.
X2.3281 Z-0.0269 I0.0781 J0.
X2.1718 Z-0.0294 I-0.0781 J0.
X2.3281 Z-0.0319 I0.0781 J0.
X2.1718 Z-0.0343 I-0.0781 J0.
X2.3281 Z-0.0368 I0.0781 J0.
X2.1718 Z-0.0392 I-0.0781 J0.
X2.3281 Z-0.0417 I0.0781 J0.
X2.1718 Z-0.0441 I-0.0781 J0.
X2.3281 Z-0.0466 I0.0781 J0.
X2.1718 Z-0.049 I-0.0781 J0.
X2.3281 Z-0.0515 I0.0781 J0.
X2.1718 Z-0.0539 I-0.0781 J0.
X2.3281 Z-0.0564 I0.0781 J0.
X2.1718 Z-0.0589 I-0.0781 J0.
X2.3281 Z-0.0613 I0.0781 J0.
X2.1718 Z-0.0638 I-0.0781 J0.
X2.3281 Z-0.0662 I0.0781 J0.
X2.1718 Z-0.0687 I-0.0781 J0.
X2.3281 Z-0.0711 I0.0781 J0.
X2.1718 Z-0.0736 I-0.0781 J0.
X2.3281 Z-0.076 I0.0781 J0.
X2.1718 Z-0.0785 I-0.0781 J0.
X2.3281 Z-0.081 I0.0781 J0.
X2.1718 Z-0.0834 I-0.0781 J0.
X2.3281 Z-0.0859 I0.0781 J0.
X2.1718 Z-0.0883 I-0.0781 J0.
X2.3281 Z-0.0908 I0.0781 J0.
X2.1718 Z-0.0932 I-0.0781 J0.
X2.3281 Z-0.0957 I0.0781 J0.
X2.1718 Z-0.0981 I-0.0781 J0.
X2.3281 Z-0.1006 I0.0781 J0.
X2.1718 Z-0.103 I-0.0781 J0.
X2.3281 Z-0.1055 I0.0781 J0.
X2.1718 Z-0.108 I-0.0781 J0.
X2.3281 Z-0.1104 I0.0781 J0.
X2.1718 Z-0.1129 I-0.0781 J0.
X2.3281 Z-0.1153 I0.0781 J0.
X2.1718 Z-0.1178 I-0.0781 J0.
X2.3281 Z-0.1202 I0.0781 J0.
X2.1718 Z-0.1227 I-0.0781 J0.
X2.3281 Z-0.1251 I0.0781 J0.
X2.1718 Z-0.1276 I-0.0781 J0.
X2.3281 Z-0.13 I0.0781 J0.
X2.1718 Z-0.1325 I-0.0781 J0.
X2.3281 Z-0.135 I0.0781 J0.
X2.1718 Z-0.1374 I-0.0781 J0.
X2.3281 Z-0.1399 I0.0781 J0.
X2.1718 Z-0.1423 I-0.0781 J0.
X2.3281 Z-0.1448 I0.0781 J0.
X2.1718 Z-0.1472 I-0.0781 J0.
X2.3281 Z-0.1497 I0.0781 J0.
X2.1718 Z-0.1521 I-0.0781 J0.
X2.3281 Z-0.1546 I0.0781 J0.
X2.1718 Z-0.157 I-0.0781 J0.
X2.3281 Z-0.1595 I0.0781 J0.
X2.1718 Z-0.162 I-0.0781 J0.
X2.3281 Z-0.1644 I0.0781 J0.
X2.1718 Z-0.1669 I-0.0781 J0.
X2.3281 Z-0.1693 I0.0781 J0.
X2.1718 Z-0.1718 I-0.0781 J0.
X2.3281 Z-0.1742 I0.0781 J0.
X2.1718 Z-0.1767 I-0.0781 J0.
X2.3281 Z-0.1791 I0.0781 J0.
X2.1718 Z-0.1816 I-0.0781 J0.
X2.3281 Z-0.184 I0.0781 J0.
X2.2472 Y6.4219 Z-0.1853 I-0.0781 J0.
X2.172 Y6.5055 Z-0.1866 I0.0027 J0.0781
X2.3279 Y6.4945 I0.0779 J-0.0055
X2.172 Y6.5055 I-0.0779 J0.0055
X2.1854 Y6.5171 I0.0125 J-0.0009
G1 X2.1916 Y6.5166
X2.1944 Y6.5164 Z-0.1862
X2.197 Y6.5162 Z-0.1853
X2.1994 Y6.5161 Z-0.1838
X2.2014 Y6.5159 Z-0.1818
X2.2029 Y6.5158 Z-0.1795
X2.2038 Z-0.1768
X2.2041 Y6.5157 Z-0.1741
G0 Z0.2362
X2.2001 Y8.0928
Z0.1181
G1 Z0.0519 F39.4
G18 G3 X2.1876 Z0.0394 I-0.0125 K0.
G1 X2.1814
G17 G2 X2.1689 Y8.1053 I0. J0.0125
X2.3251 Z0.0369 I0.0781 J0.
X2.1689 Z0.0345 I-0.0781 J0.
X2.3251 Z0.032 I0.0781 J0.
X2.1689 Z0.0296 I-0.0781 J0.
X2.3251 Z0.0271 I0.0781 J0.
X2.1689 Z0.0246 I-0.0781 J0.
X2.3251 Z0.0222 I0.0781 J0.
X2.1689 Z0.0197 I-0.0781 J0.
X2.3251 Z0.0173 I0.0781 J0.
X2.1689 Z0.0148 I-0.0781 J0.
X2.3251 Z0.0124 I0.0781 J0.
X2.1689 Z0.0099 I-0.0781 J0.
X2.3251 Z0.0075 I0.0781 J0.
X2.1689 Z0.005 I-0.0781 J0.
X2.3251 Z0.0026 I0.0781 J0.
X2.1689 Z0.0001 I-0.0781 J0.
X2.3251 Z-0.0024 I0.0781 J0.
X2.1689 Z-0.0048 I-0.0781 J0.
X2.3251 Z-0.0073 I0.0781 J0.
X2.1689 Z-0.0097 I-0.0781 J0.
X2.3251 Z-0.0122 I0.0781 J0.
X2.1689 Z-0.0146 I-0.0781 J0.
X2.3251 Z-0.0171 I0.0781 J0.
X2.1689 Z-0.0195 I-0.0781 J0.
X2.3251 Z-0.022 I0.0781 J0.
X2.1689 Z-0.0245 I-0.0781 J0.
X2.3251 Z-0.0269 I0.0781 J0.
X2.1689 Z-0.0294 I-0.0781 J0.
X2.3251 Z-0.0318 I0.0781 J0.
X2.1689 Z-0.0343 I-0.0781 J0.
X2.3251 Z-0.0367 I0.0781 J0.
X2.1689 Z-0.0392 I-0.0781 J0.
X2.3251 Z-0.0416 I0.0781 J0.
X2.1689 Z-0.0441 I-0.0781 J0.
X2.3251 Z-0.0465 I0.0781 J0.
X2.1689 Z-0.049 I-0.0781 J0.
X2.3251 Z-0.0515 I0.0781 J0.
X2.1689 Z-0.0539 I-0.0781 J0.
X2.3251 Z-0.0564 I0.0781 J0.
X2.1689 Z-0.0588 I-0.0781 J0.
X2.3251 Z-0.0613 I0.0781 J0.
X2.1689 Z-0.0637 I-0.0781 J0.
X2.3251 Z-0.0662 I0.0781 J0.
X2.1689 Z-0.0686 I-0.0781 J0.
X2.3251 Z-0.0711 I0.0781 J0.
X2.1689 Z-0.0735 I-0.0781 J0.
X2.3251 Z-0.076 I0.0781 J0.
X2.1689 Z-0.0785 I-0.0781 J0.
X2.3251 Z-0.0809 I0.0781 J0.
X2.1689 Z-0.0834 I-0.0781 J0.
X2.3251 Z-0.0858 I0.0781 J0.
X2.1689 Z-0.0883 I-0.0781 J0.
X2.3251 Z-0.0907 I0.0781 J0.
X2.1689 Z-0.0932 I-0.0781 J0.
X2.3251 Z-0.0956 I0.0781 J0.
X2.1689 Z-0.0981 I-0.0781 J0.
X2.3251 Z-0.1005 I0.0781 J0.
X2.1689 Z-0.103 I-0.0781 J0.
X2.3251 Z-0.1055 I0.0781 J0.
X2.1689 Z-0.1079 I-0.0781 J0.
X2.3251 Z-0.1104 I0.0781 J0.
X2.1689 Z-0.1128 I-0.0781 J0.
X2.3251 Z-0.1153 I0.0781 J0.
X2.1689 Z-0.1177 I-0.0781 J0.
X2.3251 Z-0.1202 I0.0781 J0.
X2.1689 Z-0.1226 I-0.0781 J0.
X2.3251 Z-0.1251 I0.0781 J0.
X2.1689 Z-0.1275 I-0.0781 J0.
X2.3251 Z-0.13 I0.0781 J0.
X2.1689 Z-0.1325 I-0.0781 J0.
X2.3251 Z-0.1349 I0.0781 J0.
X2.1689 Z-0.1374 I-0.0781 J0.
X2.3251 Z-0.1398 I0.0781 J0.
X2.1689 Z-0.1423 I-0.0781 J0.
X2.3251 Z-0.1447 I0.0781 J0.
X2.1689 Z-0.1472 I-0.0781 J0.
X2.3251 Z-0.1496 I0.0781 J0.
X2.1689 Z-0.1521 I-0.0781 J0.
X2.3251 Z-0.1545 I0.0781 J0.
X2.1689 Z-0.157 I-0.0781 J0.
X2.3251 Z-0.1595 I0.0781 J0.
X2.1689 Z-0.1619 I-0.0781 J0.
X2.3251 Z-0.1644 I0.0781 J0.
X2.1689 Z-0.1668 I-0.0781 J0.
X2.3251 Z-0.1693 I0.0781 J0.
X2.1689 Z-0.1717 I-0.0781 J0.
X2.3251 Z-0.1742 I0.0781 J0.
X2.1689 Z-0.1766 I-0.0781 J0.
X2.3251 Z-0.1791 I0.0781 J0.
X2.1689 Z-0.1815 I-0.0781 J0.
X2.2498 Y8.1834 Z-0.1828 I0.0781 J0.
X2.3249 Y8.0999 Z-0.1841 I-0.0027 J-0.0781
X2.1691 Y8.1108 I-0.0779 J0.0055
X2.3249 Y8.0999 I0.0779 J-0.0055
X2.3116 Y8.0883 I-0.0125 J0.0009
G1 X2.3054 Y8.0887
X2.3026 Y8.0889 Z-0.1837
X2.3 Y8.0891 Z-0.1828
X2.2976 Y8.0893 Z-0.1813
X2.2956 Y8.0894 Z-0.1793
X2.2941 Y8.0895 Z-0.177
X2.2932 Y8.0896 Z-0.1743
X2.2929 Z-0.1716
G0 Z0.2362
X3.2001 Y8.0928
Z0.1181
G1 Z0.0519 F39.4
G18 G3 X3.1876 Z0.0394 I-0.0125 K0.
G1 X3.1814
G17 G2 X3.1689 Y8.1053 I0. J0.0125
X3.3251 Z0.0369 I0.0781 J0.
X3.1689 Z0.0345 I-0.0781 J0.
X3.3251 Z0.032 I0.0781 J0.
X3.1689 Z0.0296 I-0.0781 J0.
X3.3251 Z0.0271 I0.0781 J0.
X3.1689 Z0.0246 I-0.0781 J0.
X3.3251 Z0.0222 I0.0781 J0.
X3.1689 Z0.0197 I-0.0781 J0.
X3.3251 Z0.0173 I0.0781 J0.
X3.1689 Z0.0148 I-0.0781 J0.
X3.3251 Z0.0124 I0.0781 J0.
X3.1689 Z0.0099 I-0.0781 J0.
X3.3251 Z0.0075 I0.0781 J0.
X3.1689 Z0.005 I-0.0781 J0.
X3.3251 Z0.0026 I0.0781 J0.
X3.1689 Z0.0001 I-0.0781 J0.
X3.3251 Z-0.0024 I0.0781 J0.
X3.1689 Z-0.0048 I-0.0781 J0.
X3.3251 Z-0.0073 I0.0781 J0.
X3.1689 Z-0.0097 I-0.0781 J0.
X3.3251 Z-0.0122 I0.0781 J0.
X3.1689 Z-0.0146 I-0.0781 J0.
X3.3251 Z-0.0171 I0.0781 J0.
X3.1689 Z-0.0195 I-0.0781 J0.
X3.3251 Z-0.022 I0.0781 J0.
X3.1689 Z-0.0245 I-0.0781 J0.
X3.3251 Z-0.0269 I0.0781 J0.
X3.1689 Z-0.0294 I-0.0781 J0.
X3.3251 Z-0.0318 I0.0781 J0.
X3.1689 Z-0.0343 I-0.0781 J0.
X3.3251 Z-0.0367 I0.0781 J0.
X3.1689 Z-0.0392 I-0.0781 J0.
X3.3251 Z-0.0416 I0.0781 J0.
X3.1689 Z-0.0441 I-0.0781 J0.
X3.3251 Z-0.0465 I0.0781 J0.
X3.1689 Z-0.049 I-0.0781 J0.
X3.3251 Z-0.0515 I0.0781 J0.
X3.1689 Z-0.0539 I-0.0781 J0.
X3.3251 Z-0.0564 I0.0781 J0.
X3.1689 Z-0.0588 I-0.0781 J0.
X3.3251 Z-0.0613 I0.0781 J0.
X3.1689 Z-0.0637 I-0.0781 J0.
X3.3251 Z-0.0662 I0.0781 J0.
X3.1689 Z-0.0686 I-0.0781 J0.
X3.3251 Z-0.0711 I0.0781 J0.
X3.1689 Z-0.0735 I-0.0781 J0.
X3.3251 Z-0.076 I0.0781 J0.
X3.1689 Z-0.0785 I-0.0781 J0.
X3.3251 Z-0.0809 I0.0781 J0.
X3.1689 Z-0.0834 I-0.0781 J0.
X3.3251 Z-0.0858 I0.0781 J0.
X3.1689 Z-0.0883 I-0.0781 J0.
X3.3251 Z-0.0907 I0.0781 J0.
X3.1689 Z-0.0932 I-0.0781 J0.
X3.3251 Z-0.0956 I0.0781 J0.
X3.1689 Z-0.0981 I-0.0781 J0.
X3.3251 Z-0.1005 I0.0781 J0.
X3.1689 Z-0.103 I-0.0781 J0.
X3.3251 Z-0.1055 I0.0781 J0.
X3.1689 Z-0.1079 I-0.0781 J0.
X3.3251 Z-0.1104 I0.0781 J0.
X3.1689 Z-0.1128 I-0.0781 J0.
X3.3251 Z-0.1153 I0.0781 J0.
X3.1689 Z-0.1177 I-0.0781 J0.
X3.3251 Z-0.1202 I0.0781 J0.
X3.1689 Z-0.1226 I-0.0781 J0.
X3.3251 Z-0.1251 I0.0781 J0.
X3.1689 Z-0.1275 I-0.0781 J0.
X3.3251 Z-0.13 I0.0781 J0.
X3.1689 Z-0.1325 I-0.0781 J0.
X3.3251 Z-0.1349 I0.0781 J0.
X3.1689 Z-0.1374 I-0.0781 J0.
X3.3251 Z-0.1398 I0.0781 J0.
X3.1689 Z-0.1423 I-0.0781 J0.
X3.3251 Z-0.1447 I0.0781 J0.
X3.1689 Z-0.1472 I-0.0781 J0.
X3.3251 Z-0.1496 I0.0781 J0.
X3.1689 Z-0.1521 I-0.0781 J0.
X3.3251 Z-0.1545 I0.0781 J0.
X3.1689 Z-0.157 I-0.0781 J0.
X3.3251 Z-0.1595 I0.0781 J0.
X3.1689 Z-0.1619 I-0.0781 J0.
X3.3251 Z-0.1644 I0.0781 J0.
X3.1689 Z-0.1668 I-0.0781 J0.
X3.3251 Z-0.1693 I0.0781 J0.
X3.1689 Z-0.1717 I-0.0781 J0.
X3.3251 Z-0.1742 I0.0781 J0.
X3.1689 Z-0.1766 I-0.0781 J0.
X3.3251 Z-0.1791 I0.0781 J0.
X3.1689 Z-0.1815 I-0.0781 J0.
X3.2498 Y8.1834 Z-0.1828 I0.0781 J0.
X3.3249 Y8.0999 Z-0.1841 I-0.0027 J-0.0781
X3.1691 Y8.1108 I-0.0779 J0.0055
X3.3249 Y8.0999 I0.0779 J-0.0055
X3.3116 Y8.0883 I-0.0125 J0.0009
G1 X3.3054 Y8.0887
X3.3026 Y8.0889 Z-0.1837
X3.3 Y8.0891 Z-0.1828
X3.2976 Y8.0893 Z-0.1813
X3.2956 Y8.0894 Z-0.1793
X3.2941 Y8.0895 Z-0.177
X3.2932 Y8.0896 Z-0.1743
X3.2929 Z-0.1716
G0 Z0.2362
X3.2001 Y9.0928
Z0.1181
G1 Z0.0519 F39.4
G18 G3 X3.1876 Z0.0394 I-0.0125 K0.
G1 X3.1814
G17 G2 X3.1689 Y9.1053 I0. J0.0125
X3.3251 Z0.0369 I0.0781 J0.
X3.1689 Z0.0345 I-0.0781 J0.
X3.3251 Z0.032 I0.0781 J0.
X3.1689 Z0.0296 I-0.0781 J0.
X3.3251 Z0.0271 I0.0781 J0.
X3.1689 Z0.0246 I-0.0781 J0.
X3.3251 Z0.0222 I0.0781 J0.
X3.1689 Z0.0197 I-0.0781 J0.
X3.3251 Z0.0173 I0.0781 J0.
X3.1689 Z0.0148 I-0.0781 J0.
X3.3251 Z0.0124 I0.0781 J0.
X3.1689 Z0.0099 I-0.0781 J0.
X3.3251 Z0.0075 I0.0781 J0.
X3.1689 Z0.005 I-0.0781 J0.
X3.3251 Z0.0026 I0.0781 J0.
X3.1689 Z0.0001 I-0.0781 J0.
X3.3251 Z-0.0024 I0.0781 J0.
X3.1689 Z-0.0048 I-0.0781 J0.
X3.3251 Z-0.0073 I0.0781 J0.
X3.1689 Z-0.0097 I-0.0781 J0.
X3.3251 Z-0.0122 I0.0781 J0.
X3.1689 Z-0.0146 I-0.0781 J0.
X3.3251 Z-0.0171 I0.0781 J0.
X3.1689 Z-0.0195 I-0.0781 J0.
X3.3251 Z-0.022 I0.0781 J0.
X3.1689 Z-0.0245 I-0.0781 J0.
X3.3251 Z-0.0269 I0.0781 J0.
X3.1689 Z-0.0294 I-0.0781 J0.
X3.3251 Z-0.0318 I0.0781 J0.
X3.1689 Z-0.0343 I-0.0781 J0.
X3.3251 Z-0.0367 I0.0781 J0.
X3.1689 Z-0.0392 I-0.0781 J0.
X3.3251 Z-0.0416 I0.0781 J0.
X3.1689 Z-0.0441 I-0.0781 J0.
X3.3251 Z-0.0465 I0.0781 J0.
X3.1689 Z-0.049 I-0.0781 J0.
X3.3251 Z-0.0515 I0.0781 J0.
X3.1689 Z-0.0539 I-0.0781 J0.
X3.3251 Z-0.0564 I0.0781 J0.
X3.1689 Z-0.0588 I-0.0781 J0.
X3.3251 Z-0.0613 I0.0781 J0.
X3.1689 Z-0.0637 I-0.0781 J0.
X3.3251 Z-0.0662 I0.0781 J0.
X3.1689 Z-0.0686 I-0.0781 J0.
X3.3251 Z-0.0711 I0.0781 J0.
X3.1689 Z-0.0735 I-0.0781 J0.
X3.3251 Z-0.076 I0.0781 J0.
X3.1689 Z-0.0785 I-0.0781 J0.
X3.3251 Z-0.0809 I0.0781 J0.
X3.1689 Z-0.0834 I-0.0781 J0.
X3.3251 Z-0.0858 I0.0781 J0.
X3.1689 Z-0.0883 I-0.0781 J0.
X3.3251 Z-0.0907 I0.0781 J0.
X3.1689 Z-0.0932 I-0.0781 J0.
X3.3251 Z-0.0956 I0.0781 J0.
X3.1689 Z-0.0981 I-0.0781 J0.
X3.3251 Z-0.1005 I0.0781 J0.
X3.1689 Z-0.103 I-0.0781 J0.
X3.3251 Z-0.1055 I0.0781 J0.
X3.1689 Z-0.1079 I-0.0781 J0.
X3.3251 Z-0.1104 I0.0781 J0.
X3.1689 Z-0.1128 I-0.0781 J0.
X3.3251 Z-0.1153 I0.0781 J0.
X3.1689 Z-0.1177 I-0.0781 J0.
X3.3251 Z-0.1202 I0.0781 J0.
X3.1689 Z-0.1226 I-0.0781 J0.
X3.3251 Z-0.1251 I0.0781 J0.
X3.1689 Z-0.1275 I-0.0781 J0.
X3.3251 Z-0.13 I0.0781 J0.
X3.1689 Z-0.1325 I-0.0781 J0.
X3.3251 Z-0.1349 I0.0781 J0.
X3.1689 Z-0.1374 I-0.0781 J0.
X3.3251 Z-0.1398 I0.0781 J0.
X3.1689 Z-0.1423 I-0.0781 J0.
X3.3251 Z-0.1447 I0.0781 J0.
X3.1689 Z-0.1472 I-0.0781 J0.
X3.3251 Z-0.1496 I0.0781 J0.
X3.1689 Z-0.1521 I-0.0781 J0.
X3.3251 Z-0.1545 I0.0781 J0.
X3.1689 Z-0.157 I-0.0781 J0.
X3.3251 Z-0.1595 I0.0781 J0.
X3.1689 Z-0.1619 I-0.0781 J0.
X3.3251 Z-0.1644 I0.0781 J0.
X3.1689 Z-0.1668 I-0.0781 J0.
X3.3251 Z-0.1693 I0.0781 J0.
X3.1689 Z-0.1717 I-0.0781 J0.
X3.3251 Z-0.1742 I0.0781 J0.
X3.1689 Z-0.1766 I-0.0781 J0.
X3.3251 Z-0.1791 I0.0781 J0.
X3.1689 Z-0.1815 I-0.0781 J0.
X3.2498 Y9.1834 Z-0.1828 I0.0781 J0.
X3.3249 Y9.0999 Z-0.1841 I-0.0027 J-0.0781
X3.1691 Y9.1108 I-0.0779 J0.0055
X3.3249 Y9.0999 I0.0779 J-0.0055
X3.3116 Y9.0883 I-0.0125 J0.0009
G1 X3.3054 Y9.0887
X3.3026 Y9.0889 Z-0.1837
X3.3 Y9.0891 Z-0.1828
X3.2976 Y9.0893 Z-0.1813
X3.2956 Y9.0894 Z-0.1793
X3.2941 Y9.0895 Z-0.177
X3.2932 Y9.0896 Z-0.1743
X3.2929 Z-0.1716
G0 Z0.2362
X2.2001 Y9.0928
Z0.1181
G1 Z0.0519 F39.4
G18 G3 X2.1876 Z0.0394 I-0.0125 K0.
G1 X2.1814
G17 G2 X2.1689 Y9.1053 I0. J0.0125
X2.3251 Z0.0369 I0.0781 J0.
X2.1689 Z0.0345 I-0.0781 J0.
X2.3251 Z0.032 I0.0781 J0.
X2.1689 Z0.0296 I-0.0781 J0.
X2.3251 Z0.0271 I0.0781 J0.
X2.1689 Z0.0246 I-0.0781 J0.
X2.3251 Z0.0222 I0.0781 J0.
X2.1689 Z0.0197 I-0.0781 J0.
X2.3251 Z0.0173 I0.0781 J0.
X2.1689 Z0.0148 I-0.0781 J0.
X2.3251 Z0.0124 I0.0781 J0.
X2.1689 Z0.0099 I-0.0781 J0.
X2.3251 Z0.0075 I0.0781 J0.
X2.1689 Z0.005 I-0.0781 J0.
X2.3251 Z0.0026 I0.0781 J0.
X2.1689 Z0.0001 I-0.0781 J0.
X2.3251 Z-0.0024 I0.0781 J0.
X2.1689 Z-0.0048 I-0.0781 J0.
X2.3251 Z-0.0073 I0.0781 J0.
X2.1689 Z-0.0097 I-0.0781 J0.
X2.3251 Z-0.0122 I0.0781 J0.
X2.1689 Z-0.0146 I-0.0781 J0.
X2.3251 Z-0.0171 I0.0781 J0.
X2.1689 Z-0.0195 I-0.0781 J0.
X2.3251 Z-0.022 I0.0781 J0.
X2.1689 Z-0.0245 I-0.0781 J0.
X2.3251 Z-0.0269 I0.0781 J0.
X2.1689 Z-0.0294 I-0.0781 J0.
X2.3251 Z-0.0318 I0.0781 J0.
X2.1689 Z-0.0343 I-0.0781 J0.
X2.3251 Z-0.0367 I0.0781 J0.
X2.1689 Z-0.0392 I-0.0781 J0.
X2.3251 Z-0.0416 I0.0781 J0.
X2.1689 Z-0.0441 I-0.0781 J0.
X2.3251 Z-0.0465 I0.0781 J0.
X2.1689 Z-0.049 I-0.0781 J0.
X2.3251 Z-0.0515 I0.0781 J0.
X2.1689 Z-0.0539 I-0.0781 J0.
X2.3251 Z-0.0564 I0.0781 J0.
X2.1689 Z-0.0588 I-0.0781 J0.
X2.3251 Z-0.0613 I0.0781 J0.
X2.1689 Z-0.0637 I-0.0781 J0.
X2.3251 Z-0.0662 I0.0781 J0.
X2.1689 Z-0.0686 I-0.0781 J0.
X2.3251 Z-0.0711 I0.0781 J0.
X2.1689 Z-0.0735 I-0.0781 J0.
X2.3251 Z-0.076 I0.0781 J0.
X2.1689 Z-0.0785 I-0.0781 J0.
X2.3251 Z-0.0809 I0.0781 J0.
X2.1689 Z-0.0834 I-0.0781 J0.
X2.3251 Z-0.0858 I0.0781 J0.
X2.1689 Z-0.0883 I-0.0781 J0.
X2.3251 Z-0.0907 I0.0781 J0.
X2.1689 Z-0.0932 I-0.0781 J0.
X2.3251 Z-0.0956 I0.0781 J0.
X2.1689 Z-0.0981 I-0.0781 J0.
X2.3251 Z-0.1005 I0.0781 J0.
X2.1689 Z-0.103 I-0.0781 J0.
X2.3251 Z-0.1055 I0.0781 J0.
X2.1689 Z-0.1079 I-0.0781 J0.
X2.3251 Z-0.1104 I0.0781 J0.
X2.1689 Z-0.1128 I-0.0781 J0.
X2.3251 Z-0.1153 I0.0781 J0.
X2.1689 Z-0.1177 I-0.0781 J0.
X2.3251 Z-0.1202 I0.0781 J0.
X2.1689 Z-0.1226 I-0.0781 J0.
X2.3251 Z-0.1251 I0.0781 J0.
X2.1689 Z-0.1275 I-0.0781 J0.
X2.3251 Z-0.13 I0.0781 J0.
X2.1689 Z-0.1325 I-0.0781 J0.
X2.3251 Z-0.1349 I0.0781 J0.
X2.1689 Z-0.1374 I-0.0781 J0.
X2.3251 Z-0.1398 I0.0781 J0.
X2.1689 Z-0.1423 I-0.0781 J0.
X2.3251 Z-0.1447 I0.0781 J0.
X2.1689 Z-0.1472 I-0.0781 J0.
X2.3251 Z-0.1496 I0.0781 J0.
X2.1689 Z-0.1521 I-0.0781 J0.
X2.3251 Z-0.1545 I0.0781 J0.
X2.1689 Z-0.157 I-0.0781 J0.
X2.3251 Z-0.1595 I0.0781 J0.
X2.1689 Z-0.1619 I-0.0781 J0.
X2.3251 Z-0.1644 I0.0781 J0.
X2.1689 Z-0.1668 I-0.0781 J0.
X2.3251 Z-0.1693 I0.0781 J0.
X2.1689 Z-0.1717 I-0.0781 J0.
X2.3251 Z-0.1742 I0.0781 J0.
X2.1689 Z-0.1766 I-0.0781 J0.
X2.3251 Z-0.1791 I0.0781 J0.
X2.1689 Z-0.1815 I-0.0781 J0.
X2.2498 Y9.1834 Z-0.1828 I0.0781 J0.
X2.3249 Y9.0999 Z-0.1841 I-0.0027 J-0.0781
X2.1691 Y9.1108 I-0.0779 J0.0055
X2.3249 Y9.0999 I0.0779 J-0.0055
X2.3116 Y9.0883 I-0.0125 J0.0009
G1 X2.3054 Y9.0887
X2.3026 Y9.0889 Z-0.1837
X2.3 Y9.0891 Z-0.1828
X2.2976 Y9.0893 Z-0.1813
X2.2956 Y9.0894 Z-0.1793
X2.2941 Y9.0895 Z-0.177
X2.2932 Y9.0896 Z-0.1743
X2.2929 Z-0.1716
G0 Z0.2362
X2.2001 Y10.0928
Z0.1181
G1 Z0.0519 F39.4
G18 G3 X2.1876 Z0.0394 I-0.0125 K0.
G1 X2.1814
G17 G2 X2.1689 Y10.1053 I0. J0.0125
X2.3251 Z0.0369 I0.0781 J0.
X2.1689 Z0.0345 I-0.0781 J0.
X2.3251 Z0.032 I0.0781 J0.
X2.1689 Z0.0296 I-0.0781 J0.
X2.3251 Z0.0271 I0.0781 J0.
X2.1689 Z0.0246 I-0.0781 J0.
X2.3251 Z0.0222 I0.0781 J0.
X2.1689 Z0.0197 I-0.0781 J0.
X2.3251 Z0.0173 I0.0781 J0.
X2.1689 Z0.0148 I-0.0781 J0.
X2.3251 Z0.0124 I0.0781 J0.
X2.1689 Z0.0099 I-0.0781 J0.
X2.3251 Z0.0075 I0.0781 J0.
X2.1689 Z0.005 I-0.0781 J0.
X2.3251 Z0.0026 I0.0781 J0.
X2.1689 Z0.0001 I-0.0781 J0.
X2.3251 Z-0.0024 I0.0781 J0.
X2.1689 Z-0.0048 I-0.0781 J0.
X2.3251 Z-0.0073 I0.0781 J0.
X2.1689 Z-0.0097 I-0.0781 J0.
X2.3251 Z-0.0122 I0.0781 J0.
X2.1689 Z-0.0146 I-0.0781 J0.
X2.3251 Z-0.0171 I0.0781 J0.
X2.1689 Z-0.0195 I-0.0781 J0.
X2.3251 Z-0.022 I0.0781 J0.
X2.1689 Z-0.0245 I-0.0781 J0.
X2.3251 Z-0.0269 I0.0781 J0.
X2.1689 Z-0.0294 I-0.0781 J0.
X2.3251 Z-0.0318 I0.0781 J0.
X2.1689 Z-0.0343 I-0.0781 J0.
X2.3251 Z-0.0367 I0.0781 J0.
X2.1689 Z-0.0392 I-0.0781 J0.
X2.3251 Z-0.0416 I0.0781 J0.
X2.1689 Z-0.0441 I-0.0781 J0.
X2.3251 Z-0.0465 I0.0781 J0.
X2.1689 Z-0.049 I-0.0781 J0.
X2.3251 Z-0.0515 I0.0781 J0.
X2.1689 Z-0.0539 I-0.0781 J0.
X2.3251 Z-0.0564 I0.0781 J0.
X2.1689 Z-0.0588 I-0.0781 J0.
X2.3251 Z-0.0613 I0.0781 J0.
X2.1689 Z-0.0637 I-0.0781 J0.
X2.3251 Z-0.0662 I0.0781 J0.
X2.1689 Z-0.0686 I-0.0781 J0.
X2.3251 Z-0.0711 I0.0781 J0.
X2.1689 Z-0.0735 I-0.0781 J0.
X2.3251 Z-0.076 I0.0781 J0.
X2.1689 Z-0.0785 I-0.0781 J0.
X2.3251 Z-0.0809 I0.0781 J0.
X2.1689 Z-0.0834 I-0.0781 J0.
X2.3251 Z-0.0858 I0.0781 J0.
X2.1689 Z-0.0883 I-0.0781 J0.
X2.3251 Z-0.0907 I0.0781 J0.
X2.1689 Z-0.0932 I-0.0781 J0.
X2.3251 Z-0.0956 I0.0781 J0.
X2.1689 Z-0.0981 I-0.0781 J0.
X2.3251 Z-0.1005 I0.0781 J0.
X2.1689 Z-0.103 I-0.0781 J0.
X2.3251 Z-0.1055 I0.0781 J0.
X2.1689 Z-0.1079 I-0.0781 J0.
X2.3251 Z-0.1104 I0.0781 J0.
X2.1689 Z-0.1128 I-0.0781 J0.
X2.3251 Z-0.1153 I0.0781 J0.
X2.1689 Z-0.1177 I-0.0781 J0.
X2.3251 Z-0.1202 I0.0781 J0.
X2.1689 Z-0.1226 I-0.0781 J0.
X2.3251 Z-0.1251 I0.0781 J0.
X2.1689 Z-0.1275 I-0.0781 J0.
X2.3251 Z-0.13 I0.0781 J0.
X2.1689 Z-0.1325 I-0.0781 J0.
X2.3251 Z-0.1349 I0.0781 J0.
X2.1689 Z-0.1374 I-0.0781 J0.
X2.3251 Z-0.1398 I0.0781 J0.
X2.1689 Z-0.1423 I-0.0781 J0.
X2.3251 Z-0.1447 I0.0781 J0.
X2.1689 Z-0.1472 I-0.0781 J0.
X2.3251 Z-0.1496 I0.0781 J0.
X2.1689 Z-0.1521 I-0.0781 J0.
X2.3251 Z-0.1545 I0.0781 J0.
X2.1689 Z-0.157 I-0.0781 J0.
X2.3251 Z-0.1595 I0.0781 J0.
X2.1689 Z-0.1619 I-0.0781 J0.
X2.3251 Z-0.1644 I0.0781 J0.
X2.1689 Z-0.1668 I-0.0781 J0.
X2.3251 Z-0.1693 I0.0781 J0.
X2.1689 Z-0.1717 I-0.0781 J0.
X2.3251 Z-0.1742 I0.0781 J0.
X2.1689 Z-0.1766 I-0.0781 J0.
X2.3251 Z-0.1791 I0.0781 J0.
X2.1689 Z-0.1815 I-0.0781 J0.
X2.2498 Y10.1834 Z-0.1828 I0.0781 J0.
X2.3249 Y10.0999 Z-0.1841 I-0.0027 J-0.0781
X2.1691 Y10.1108 I-0.0779 J0.0055
X2.3249 Y10.0999 I0.0779 J-0.0055
X2.3116 Y10.0883 I-0.0125 J0.0009
G1 X2.3054 Y10.0887
X2.3026 Y10.0889 Z-0.1837
X2.3 Y10.0891 Z-0.1828
X2.2976 Y10.0893 Z-0.1813
X2.2956 Y10.0894 Z-0.1793
X2.2941 Y10.0895 Z-0.177
X2.2932 Y10.0896 Z-0.1743
X2.2929 Z-0.1716
G0 Z0.2362
X3.2001 Y10.0928
Z0.1181
G1 Z0.0519 F39.4
G18 G3 X3.1876 Z0.0394 I-0.0125 K0.
G1 X3.1814
G17 G2 X3.1689 Y10.1053 I0. J0.0125
X3.3251 Z0.0369 I0.0781 J0.
X3.1689 Z0.0345 I-0.0781 J0.
X3.3251 Z0.032 I0.0781 J0.
X3.1689 Z0.0296 I-0.0781 J0.
X3.3251 Z0.0271 I0.0781 J0.
X3.1689 Z0.0246 I-0.0781 J0.
X3.3251 Z0.0222 I0.0781 J0.
X3.1689 Z0.0197 I-0.0781 J0.
X3.3251 Z0.0173 I0.0781 J0.
X3.1689 Z0.0148 I-0.0781 J0.
X3.3251 Z0.0124 I0.0781 J0.
X3.1689 Z0.0099 I-0.0781 J0.
X3.3251 Z0.0075 I0.0781 J0.
X3.1689 Z0.005 I-0.0781 J0.
X3.3251 Z0.0026 I0.0781 J0.
X3.1689 Z0.0001 I-0.0781 J0.
X3.3251 Z-0.0024 I0.0781 J0.
X3.1689 Z-0.0048 I-0.0781 J0.
X3.3251 Z-0.0073 I0.0781 J0.
X3.1689 Z-0.0097 I-0.0781 J0.
X3.3251 Z-0.0122 I0.0781 J0.
X3.1689 Z-0.0146 I-0.0781 J0.
X3.3251 Z-0.0171 I0.0781 J0.
X3.1689 Z-0.0195 I-0.0781 J0.
X3.3251 Z-0.022 I0.0781 J0.
X3.1689 Z-0.0245 I-0.0781 J0.
X3.3251 Z-0.0269 I0.0781 J0.
X3.1689 Z-0.0294 I-0.0781 J0.
X3.3251 Z-0.0318 I0.0781 J0.
X3.1689 Z-0.0343 I-0.0781 J0.
X3.3251 Z-0.0367 I0.0781 J0.
X3.1689 Z-0.0392 I-0.0781 J0.
X3.3251 Z-0.0416 I0.0781 J0.
X3.1689 Z-0.0441 I-0.0781 J0.
X3.3251 Z-0.0465 I0.0781 J0.
X3.1689 Z-0.049 I-0.0781 J0.
X3.3251 Z-0.0515 I0.0781 J0.
X3.1689 Z-0.0539 I-0.0781 J0.
X3.3251 Z-0.0564 I0.0781 J0.
X3.1689 Z-0.0588 I-0.0781 J0.
X3.3251 Z-0.0613 I0.0781 J0.
X3.1689 Z-0.0637 I-0.0781 J0.
X3.3251 Z-0.0662 I0.0781 J0.
X3.1689 Z-0.0686 I-0.0781 J0.
X3.3251 Z-0.0711 I0.0781 J0.
X3.1689 Z-0.0735 I-0.0781 J0.
X3.3251 Z-0.076 I0.0781 J0.
X3.1689 Z-0.0785 I-0.0781 J0.
X3.3251 Z-0.0809 I0.0781 J0.
X3.1689 Z-0.0834 I-0.0781 J0.
X3.3251 Z-0.0858 I0.0781 J0.
X3.1689 Z-0.0883 I-0.0781 J0.
X3.3251 Z-0.0907 I0.0781 J0.
X3.1689 Z-0.0932 I-0.0781 J0.
X3.3251 Z-0.0956 I0.0781 J0.
X3.1689 Z-0.0981 I-0.0781 J0.
X3.3251 Z-0.1005 I0.0781 J0.
X3.1689 Z-0.103 I-0.0781 J0.
X3.3251 Z-0.1055 I0.0781 J0.
X3.1689 Z-0.1079 I-0.0781 J0.
X3.3251 Z-0.1104 I0.0781 J0.
X3.1689 Z-0.1128 I-0.0781 J0.
X3.3251 Z-0.1153 I0.0781 J0.
X3.1689 Z-0.1177 I-0.0781 J0.
X3.3251 Z-0.1202 I0.0781 J0.
X3.1689 Z-0.1226 I-0.0781 J0.
X3.3251 Z-0.1251 I0.0781 J0.
X3.1689 Z-0.1275 I-0.0781 J0.
X3.3251 Z-0.13 I0.0781 J0.
X3.1689 Z-0.1325 I-0.0781 J0.
X3.3251 Z-0.1349 I0.0781 J0.
X3.1689 Z-0.1374 I-0.0781 J0.
X3.3251 Z-0.1398 I0.0781 J0.
X3.1689 Z-0.1423 I-0.0781 J0.
X3.3251 Z-0.1447 I0.0781 J0.
X3.1689 Z-0.1472 I-0.0781 J0.
X3.3251 Z-0.1496 I0.0781 J0.
X3.1689 Z-0.1521 I-0.0781 J0.
X3.3251 Z-0.1545 I0.0781 J0.
X3.1689 Z-0.157 I-0.0781 J0.
X3.3251 Z-0.1595 I0.0781 J0.
X3.1689 Z-0.1619 I-0.0781 J0.
X3.3251 Z-0.1644 I0.0781 J0.
X3.1689 Z-0.1668 I-0.0781 J0.
X3.3251 Z-0.1693 I0.0781 J0.
X3.1689 Z-0.1717 I-0.0781 J0.
X3.3251 Z-0.1742 I0.0781 J0.
X3.1689 Z-0.1766 I-0.0781 J0.
X3.3251 Z-0.1791 I0.0781 J0.
X3.1689 Z-0.1815 I-0.0781 J0.
X3.2498 Y10.1834 Z-0.1828 I0.0781 J0.
X3.3249 Y10.0999 Z-0.1841 I-0.0027 J-0.0781
X3.1691 Y10.1108 I-0.0779 J0.0055
X3.3249 Y10.0999 I0.0779 J-0.0055
X3.3116 Y10.0883 I-0.0125 J0.0009
G1 X3.3054 Y10.0887
X3.3026 Y10.0889 Z-0.1837
X3.3 Y10.0891 Z-0.1828
X3.2976 Y10.0893 Z-0.1813
X3.2956 Y10.0894 Z-0.1793
X3.2941 Y10.0895 Z-0.177
X3.2932 Y10.0896 Z-0.1743
X3.2929 Z-0.1716
G0 Z0.2362
X3.2001 Y11.0928
Z0.1181
G1 Z0.0519 F39.4
G18 G3 X3.1876 Z0.0394 I-0.0125 K0.
G1 X3.1814
G17 G2 X3.1689 Y11.1053 I0. J0.0125
X3.3251 Z0.0369 I0.0781 J0.
X3.1689 Z0.0345 I-0.0781 J0.
X3.3251 Z0.032 I0.0781 J0.
X3.1689 Z0.0296 I-0.0781 J0.
X3.3251 Z0.0271 I0.0781 J0.
X3.1689 Z0.0246 I-0.0781 J0.
X3.3251 Z0.0222 I0.0781 J0.
X3.1689 Z0.0197 I-0.0781 J0.
X3.3251 Z0.0173 I0.0781 J0.
X3.1689 Z0.0148 I-0.0781 J0.
X3.3251 Z0.0124 I0.0781 J0.
X3.1689 Z0.0099 I-0.0781 J0.
X3.3251 Z0.0075 I0.0781 J0.
X3.1689 Z0.005 I-0.0781 J0.
X3.3251 Z0.0026 I0.0781 J0.
X3.1689 Z0.0001 I-0.0781 J0.
X3.3251 Z-0.0024 I0.0781 J0.
X3.1689 Z-0.0048 I-0.0781 J0.
X3.3251 Z-0.0073 I0.0781 J0.
X3.1689 Z-0.0097 I-0.0781 J0.
X3.3251 Z-0.0122 I0.0781 J0.
X3.1689 Z-0.0146 I-0.0781 J0.
X3.3251 Z-0.0171 I0.0781 J0.
X3.1689 Z-0.0195 I-0.0781 J0.
X3.3251 Z-0.022 I0.0781 J0.
X3.1689 Z-0.0245 I-0.0781 J0.
X3.3251 Z-0.0269 I0.0781 J0.
X3.1689 Z-0.0294 I-0.0781 J0.
X3.3251 Z-0.0318 I0.0781 J0.
X3.1689 Z-0.0343 I-0.0781 J0.
X3.3251 Z-0.0367 I0.0781 J0.
X3.1689 Z-0.0392 I-0.0781 J0.
X3.3251 Z-0.0416 I0.0781 J0.
X3.1689 Z-0.0441 I-0.0781 J0.
X3.3251 Z-0.0465 I0.0781 J0.
X3.1689 Z-0.049 I-0.0781 J0.
X3.3251 Z-0.0515 I0.0781 J0.
X3.1689 Z-0.0539 I-0.0781 J0.
X3.3251 Z-0.0564 I0.0781 J0.
X3.1689 Z-0.0588 I-0.0781 J0.
X3.3251 Z-0.0613 I0.0781 J0.
X3.1689 Z-0.0637 I-0.0781 J0.
X3.3251 Z-0.0662 I0.0781 J0.
X3.1689 Z-0.0686 I-0.0781 J0.
X3.3251 Z-0.0711 I0.0781 J0.
X3.1689 Z-0.0735 I-0.0781 J0.
X3.3251 Z-0.076 I0.0781 J0.
X3.1689 Z-0.0785 I-0.0781 J0.
X3.3251 Z-0.0809 I0.0781 J0.
X3.1689 Z-0.0834 I-0.0781 J0.
X3.3251 Z-0.0858 I0.0781 J0.
X3.1689 Z-0.0883 I-0.0781 J0.
X3.3251 Z-0.0907 I0.0781 J0.
X3.1689 Z-0.0932 I-0.0781 J0.
X3.3251 Z-0.0956 I0.0781 J0.
X3.1689 Z-0.0981 I-0.0781 J0.
X3.3251 Z-0.1005 I0.0781 J0.
X3.1689 Z-0.103 I-0.0781 J0.
X3.3251 Z-0.1055 I0.0781 J0.
X3.1689 Z-0.1079 I-0.0781 J0.
X3.3251 Z-0.1104 I0.0781 J0.
X3.1689 Z-0.1128 I-0.0781 J0.
X3.3251 Z-0.1153 I0.0781 J0.
X3.1689 Z-0.1177 I-0.0781 J0.
X3.3251 Z-0.1202 I0.0781 J0.
X3.1689 Z-0.1226 I-0.0781 J0.
X3.3251 Z-0.1251 I0.0781 J0.
X3.1689 Z-0.1275 I-0.0781 J0.
X3.3251 Z-0.13 I0.0781 J0.
X3.1689 Z-0.1325 I-0.0781 J0.
X3.3251 Z-0.1349 I0.0781 J0.
X3.1689 Z-0.1374 I-0.0781 J0.
X3.3251 Z-0.1398 I0.0781 J0.
X3.1689 Z-0.1423 I-0.0781 J0.
X3.3251 Z-0.1447 I0.0781 J0.
X3.1689 Z-0.1472 I-0.0781 J0.
X3.3251 Z-0.1496 I0.0781 J0.
X3.1689 Z-0.1521 I-0.0781 J0.
X3.3251 Z-0.1545 I0.0781 J0.
X3.1689 Z-0.157 I-0.0781 J0.
X3.3251 Z-0.1595 I0.0781 J0.
X3.1689 Z-0.1619 I-0.0781 J0.
X3.3251 Z-0.1644 I0.0781 J0.
X3.1689 Z-0.1668 I-0.0781 J0.
X3.3251 Z-0.1693 I0.0781 J0.
X3.1689 Z-0.1717 I-0.0781 J0.
X3.3251 Z-0.1742 I0.0781 J0.
X3.1689 Z-0.1766 I-0.0781 J0.
X3.3251 Z-0.1791 I0.0781 J0.
X3.1689 Z-0.1815 I-0.0781 J0.
X3.2498 Y11.1834 Z-0.1828 I0.0781 J0.
X3.3249 Y11.0999 Z-0.1841 I-0.0027 J-0.0781
X3.1691 Y11.1108 I-0.0779 J0.0055
X3.3249 Y11.0999 I0.0779 J-0.0055
X3.3116 Y11.0883 I-0.0125 J0.0009
G1 X3.3054 Y11.0887
X3.3026 Y11.0889 Z-0.1837
X3.3 Y11.0891 Z-0.1828
X3.2976 Y11.0893 Z-0.1813
X3.2956 Y11.0894 Z-0.1793
X3.2941 Y11.0895 Z-0.177
X3.2932 Y11.0896 Z-0.1743
X3.2929 Z-0.1716
G0 Z0.2362
X2.2001 Y11.0928
Z0.1181
G1 Z0.0519 F39.4
G18 G3 X2.1876 Z0.0394 I-0.0125 K0.
G1 X2.1814
G17 G2 X2.1689 Y11.1053 I0. J0.0125
X2.3251 Z0.0369 I0.0781 J0.
X2.1689 Z0.0345 I-0.0781 J0.
X2.3251 Z0.032 I0.0781 J0.
X2.1689 Z0.0296 I-0.0781 J0.
X2.3251 Z0.0271 I0.0781 J0.
X2.1689 Z0.0246 I-0.0781 J0.
X2.3251 Z0.0222 I0.0781 J0.
X2.1689 Z0.0197 I-0.0781 J0.
X2.3251 Z0.0173 I0.0781 J0.
X2.1689 Z0.0148 I-0.0781 J0.
X2.3251 Z0.0124 I0.0781 J0.
X2.1689 Z0.0099 I-0.0781 J0.
X2.3251 Z0.0075 I0.0781 J0.
X2.1689 Z0.005 I-0.0781 J0.
X2.3251 Z0.0026 I0.0781 J0.
X2.1689 Z0.0001 I-0.0781 J0.
X2.3251 Z-0.0024 I0.0781 J0.
X2.1689 Z-0.0048 I-0.0781 J0.
X2.3251 Z-0.0073 I0.0781 J0.
X2.1689 Z-0.0097 I-0.0781 J0.
X2.3251 Z-0.0122 I0.0781 J0.
X2.1689 Z-0.0146 I-0.0781 J0.
X2.3251 Z-0.0171 I0.0781 J0.
X2.1689 Z-0.0195 I-0.0781 J0.
X2.3251 Z-0.022 I0.0781 J0.
X2.1689 Z-0.0245 I-0.0781 J0.
X2.3251 Z-0.0269 I0.0781 J0.
X2.1689 Z-0.0294 I-0.0781 J0.
X2.3251 Z-0.0318 I0.0781 J0.
X2.1689 Z-0.0343 I-0.0781 J0.
X2.3251 Z-0.0367 I0.0781 J0.
X2.1689 Z-0.0392 I-0.0781 J0.
X2.3251 Z-0.0416 I0.0781 J0.
X2.1689 Z-0.0441 I-0.0781 J0.
X2.3251 Z-0.0465 I0.0781 J0.
X2.1689 Z-0.049 I-0.0781 J0.
X2.3251 Z-0.0515 I0.0781 J0.
X2.1689 Z-0.0539 I-0.0781 J0.
X2.3251 Z-0.0564 I0.0781 J0.
X2.1689 Z-0.0588 I-0.0781 J0.
X2.3251 Z-0.0613 I0.0781 J0.
X2.1689 Z-0.0637 I-0.0781 J0.
X2.3251 Z-0.0662 I0.0781 J0.
X2.1689 Z-0.0686 I-0.0781 J0.
X2.3251 Z-0.0711 I0.0781 J0.
X2.1689 Z-0.0735 I-0.0781 J0.
X2.3251 Z-0.076 I0.0781 J0.
X2.1689 Z-0.0785 I-0.0781 J0.
X2.3251 Z-0.0809 I0.0781 J0.
X2.1689 Z-0.0834 I-0.0781 J0.
X2.3251 Z-0.0858 I0.0781 J0.
X2.1689 Z-0.0883 I-0.0781 J0.
X2.3251 Z-0.0907 I0.0781 J0.
X2.1689 Z-0.0932 I-0.0781 J0.
X2.3251 Z-0.0956 I0.0781 J0.
X2.1689 Z-0.0981 I-0.0781 J0.
X2.3251 Z-0.1005 I0.0781 J0.
X2.1689 Z-0.103 I-0.0781 J0.
X2.3251 Z-0.1055 I0.0781 J0.
X2.1689 Z-0.1079 I-0.0781 J0.
X2.3251 Z-0.1104 I0.0781 J0.
X2.1689 Z-0.1128 I-0.0781 J0.
X2.3251 Z-0.1153 I0.0781 J0.
X2.1689 Z-0.1177 I-0.0781 J0.
X2.3251 Z-0.1202 I0.0781 J0.
X2.1689 Z-0.1226 I-0.0781 J0.
X2.3251 Z-0.1251 I0.0781 J0.
X2.1689 Z-0.1275 I-0.0781 J0.
X2.3251 Z-0.13 I0.0781 J0.
X2.1689 Z-0.1325 I-0.0781 J0.
X2.3251 Z-0.1349 I0.0781 J0.
X2.1689 Z-0.1374 I-0.0781 J0.
X2.3251 Z-0.1398 I0.0781 J0.
X2.1689 Z-0.1423 I-0.0781 J0.
X2.3251 Z-0.1447 I0.0781 J0.
X2.1689 Z-0.1472 I-0.0781 J0.
X2.3251 Z-0.1496 I0.0781 J0.
X2.1689 Z-0.1521 I-0.0781 J0.
X2.3251 Z-0.1545 I0.0781 J0.
X2.1689 Z-0.157 I-0.0781 J0.
X2.3251 Z-0.1595 I0.0781 J0.
X2.1689 Z-0.1619 I-0.0781 J0.
X2.3251 Z-0.1644 I0.0781 J0.
X2.1689 Z-0.1668 I-0.0781 J0.
X2.3251 Z-0.1693 I0.0781 J0.
X2.1689 Z-0.1717 I-0.0781 J0.
X2.3251 Z-0.1742 I0.0781 J0.
X2.1689 Z-0.1766 I-0.0781 J0.
X2.3251 Z-0.1791 I0.0781 J0.
X2.1689 Z-0.1815 I-0.0781 J0.
X2.2498 Y11.1834 Z-0.1828 I0.0781 J0.
X2.3249 Y11.0999 Z-0.1841 I-0.0027 J-0.0781
X2.1691 Y11.1108 I-0.0779 J0.0055
X2.3249 Y11.0999 I0.0779 J-0.0055
X2.3116 Y11.0883 I-0.0125 J0.0009
G1 X2.3054 Y11.0887
X2.3026 Y11.0889 Z-0.1837
X2.3 Y11.0891 Z-0.1828
X2.2976 Y11.0893 Z-0.1813
X2.2956 Y11.0894 Z-0.1793
X2.2941 Y11.0895 Z-0.177
X2.2932 Y11.0896 Z-0.1743
X2.2929 Z-0.1716
G0 Z0.2362
X1.497 Y14.0928
Z0.1181
G1 Z0.0519 F39.4
G18 G3 X1.4845 Z0.0394 I-0.0125 K0.
G1 X1.4783
G17 G2 X1.4658 Y14.1053 I0. J0.0125
X1.622 Z0.0369 I0.0781 J0.
X1.4658 Z0.0345 I-0.0781 J0.
X1.622 Z0.032 I0.0781 J0.
X1.4658 Z0.0296 I-0.0781 J0.
X1.622 Z0.0271 I0.0781 J0.
X1.4658 Z0.0246 I-0.0781 J0.
X1.622 Z0.0222 I0.0781 J0.
X1.4658 Z0.0197 I-0.0781 J0.
X1.622 Z0.0173 I0.0781 J0.
X1.4658 Z0.0148 I-0.0781 J0.
X1.622 Z0.0124 I0.0781 J0.
X1.4658 Z0.0099 I-0.0781 J0.
X1.622 Z0.0075 I0.0781 J0.
X1.4658 Z0.005 I-0.0781 J0.
X1.622 Z0.0026 I0.0781 J0.
X1.4658 Z0.0001 I-0.0781 J0.
X1.622 Z-0.0024 I0.0781 J0.
X1.4658 Z-0.0048 I-0.0781 J0.
X1.622 Z-0.0073 I0.0781 J0.
X1.4658 Z-0.0097 I-0.0781 J0.
X1.622 Z-0.0122 I0.0781 J0.
X1.4658 Z-0.0146 I-0.0781 J0.
X1.622 Z-0.0171 I0.0781 J0.
X1.4658 Z-0.0195 I-0.0781 J0.
X1.622 Z-0.022 I0.0781 J0.
X1.4658 Z-0.0245 I-0.0781 J0.
X1.622 Z-0.0269 I0.0781 J0.
X1.4658 Z-0.0294 I-0.0781 J0.
X1.622 Z-0.0318 I0.0781 J0.
X1.4658 Z-0.0343 I-0.0781 J0.
X1.622 Z-0.0367 I0.0781 J0.
X1.4658 Z-0.0392 I-0.0781 J0.
X1.622 Z-0.0416 I0.0781 J0.
X1.4658 Z-0.0441 I-0.0781 J0.
X1.622 Z-0.0465 I0.0781 J0.
X1.4658 Z-0.049 I-0.0781 J0.
X1.622 Z-0.0515 I0.0781 J0.
X1.4658 Z-0.0539 I-0.0781 J0.
X1.622 Z-0.0564 I0.0781 J0.
X1.4658 Z-0.0588 I-0.0781 J0.
X1.622 Z-0.0613 I0.0781 J0.
X1.4658 Z-0.0637 I-0.0781 J0.
X1.622 Z-0.0662 I0.0781 J0.
X1.4658 Z-0.0686 I-0.0781 J0.
X1.622 Z-0.0711 I0.0781 J0.
X1.4658 Z-0.0735 I-0.0781 J0.
X1.622 Z-0.076 I0.0781 J0.
X1.4658 Z-0.0785 I-0.0781 J0.
X1.622 Z-0.0809 I0.0781 J0.
X1.4658 Z-0.0834 I-0.0781 J0.
X1.622 Z-0.0858 I0.0781 J0.
X1.4658 Z-0.0883 I-0.0781 J0.
X1.622 Z-0.0907 I0.0781 J0.
X1.4658 Z-0.0932 I-0.0781 J0.
X1.622 Z-0.0956 I0.0781 J0.
X1.4658 Z-0.0981 I-0.0781 J0.
X1.622 Z-0.1005 I0.0781 J0.
X1.4658 Z-0.103 I-0.0781 J0.
X1.622 Z-0.1055 I0.0781 J0.
X1.4658 Z-0.1079 I-0.0781 J0.
X1.622 Z-0.1104 I0.0781 J0.
X1.4658 Z-0.1128 I-0.0781 J0.
X1.622 Z-0.1153 I0.0781 J0.
X1.4658 Z-0.1177 I-0.0781 J0.
X1.622 Z-0.1202 I0.0781 J0.
X1.4658 Z-0.1226 I-0.0781 J0.
X1.622 Z-0.1251 I0.0781 J0.
X1.4658 Z-0.1275 I-0.0781 J0.
X1.622 Z-0.13 I0.0781 J0.
X1.4658 Z-0.1325 I-0.0781 J0.
X1.622 Z-0.1349 I0.0781 J0.
X1.4658 Z-0.1374 I-0.0781 J0.
X1.622 Z-0.1398 I0.0781 J0.
X1.4658 Z-0.1423 I-0.0781 J0.
X1.622 Z-0.1447 I0.0781 J0.
X1.4658 Z-0.1472 I-0.0781 J0.
X1.622 Z-0.1496 I0.0781 J0.
X1.4658 Z-0.1521 I-0.0781 J0.
X1.622 Z-0.1545 I0.0781 J0.
X1.4658 Z-0.157 I-0.0781 J0.
X1.622 Z-0.1595 I0.0781 J0.
X1.4658 Z-0.1619 I-0.0781 J0.
X1.622 Z-0.1644 I0.0781 J0.
X1.4658 Z-0.1668 I-0.0781 J0.
X1.622 Z-0.1693 I0.0781 J0.
X1.4658 Z-0.1717 I-0.0781 J0.
X1.622 Z-0.1742 I0.0781 J0.
X1.4658 Z-0.1766 I-0.0781 J0.
X1.622 Z-0.1791 I0.0781 J0.
X1.4658 Z-0.1815 I-0.0781 J0.
X1.5466 Y14.1834 Z-0.1828 I0.0781 J0.
X1.6218 Y14.0999 Z-0.1841 I-0.0027 J-0.0781
X1.466 Y14.1108 I-0.0779 J0.0055
X1.6218 Y14.0999 I0.0779 J-0.0055
X1.6085 Y14.0883 I-0.0125 J0.0009
G1 X1.6022 Y14.0887
X1.5995 Y14.0889 Z-0.1837
X1.5968 Y14.0891 Z-0.1828
X1.5945 Y14.0893 Z-0.1813
X1.5925 Y14.0894 Z-0.1793
X1.591 Y14.0895 Z-0.177
X1.5901 Y14.0896 Z-0.1743
X1.5898 Z-0.1716
G0 Z0.2362
X3.9033 Y14.0928
Z0.1181
G1 Z0.0519 F39.4
G18 G3 X3.8908 Z0.0394 I-0.0125 K0.
G1 X3.8845
G17 G2 X3.872 Y14.1053 I0. J0.0125
X4.0283 Z0.0369 I0.0781 J0.
X3.872 Z0.0345 I-0.0781 J0.
X4.0283 Z0.032 I0.0781 J0.
X3.872 Z0.0296 I-0.0781 J0.
X4.0283 Z0.0271 I0.0781 J0.
X3.872 Z0.0246 I-0.0781 J0.
X4.0283 Z0.0222 I0.0781 J0.
X3.872 Z0.0197 I-0.0781 J0.
X4.0283 Z0.0173 I0.0781 J0.
X3.872 Z0.0148 I-0.0781 J0.
X4.0283 Z0.0124 I0.0781 J0.
X3.872 Z0.0099 I-0.0781 J0.
X4.0283 Z0.0075 I0.0781 J0.
X3.872 Z0.005 I-0.0781 J0.
X4.0283 Z0.0026 I0.0781 J0.
X3.872 Z0.0001 I-0.0781 J0.
X4.0283 Z-0.0024 I0.0781 J0.
X3.872 Z-0.0048 I-0.0781 J0.
X4.0283 Z-0.0073 I0.0781 J0.
X3.872 Z-0.0097 I-0.0781 J0.
X4.0283 Z-0.0122 I0.0781 J0.
X3.872 Z-0.0146 I-0.0781 J0.
X4.0283 Z-0.0171 I0.0781 J0.
X3.872 Z-0.0195 I-0.0781 J0.
X4.0283 Z-0.022 I0.0781 J0.
X3.872 Z-0.0245 I-0.0781 J0.
X4.0283 Z-0.0269 I0.0781 J0.
X3.872 Z-0.0294 I-0.0781 J0.
X4.0283 Z-0.0318 I0.0781 J0.
X3.872 Z-0.0343 I-0.0781 J0.
X4.0283 Z-0.0367 I0.0781 J0.
X3.872 Z-0.0392 I-0.0781 J0.
X4.0283 Z-0.0416 I0.0781 J0.
X3.872 Z-0.0441 I-0.0781 J0.
X4.0283 Z-0.0465 I0.0781 J0.
X3.872 Z-0.049 I-0.0781 J0.
X4.0283 Z-0.0515 I0.0781 J0.
X3.872 Z-0.0539 I-0.0781 J0.
X4.0283 Z-0.0564 I0.0781 J0.
X3.872 Z-0.0588 I-0.0781 J0.
X4.0283 Z-0.0613 I0.0781 J0.
X3.872 Z-0.0637 I-0.0781 J0.
X4.0283 Z-0.0662 I0.0781 J0.
X3.872 Z-0.0686 I-0.0781 J0.
X4.0283 Z-0.0711 I0.0781 J0.
X3.872 Z-0.0735 I-0.0781 J0.
X4.0283 Z-0.076 I0.0781 J0.
X3.872 Z-0.0785 I-0.0781 J0.
X4.0283 Z-0.0809 I0.0781 J0.
X3.872 Z-0.0834 I-0.0781 J0.
X4.0283 Z-0.0858 I0.0781 J0.
X3.872 Z-0.0883 I-0.0781 J0.
X4.0283 Z-0.0907 I0.0781 J0.
X3.872 Z-0.0932 I-0.0781 J0.
X4.0283 Z-0.0956 I0.0781 J0.
X3.872 Z-0.0981 I-0.0781 J0.
X4.0283 Z-0.1005 I0.0781 J0.
X3.872 Z-0.103 I-0.0781 J0.
X4.0283 Z-0.1055 I0.0781 J0.
X3.872 Z-0.1079 I-0.0781 J0.
X4.0283 Z-0.1104 I0.0781 J0.
X3.872 Z-0.1128 I-0.0781 J0.
X4.0283 Z-0.1153 I0.0781 J0.
X3.872 Z-0.1177 I-0.0781 J0.
X4.0283 Z-0.1202 I0.0781 J0.
X3.872 Z-0.1226 I-0.0781 J0.
X4.0283 Z-0.1251 I0.0781 J0.
X3.872 Z-0.1275 I-0.0781 J0.
X4.0283 Z-0.13 I0.0781 J0.
X3.872 Z-0.1325 I-0.0781 J0.
X4.0283 Z-0.1349 I0.0781 J0.
X3.872 Z-0.1374 I-0.0781 J0.
X4.0283 Z-0.1398 I0.0781 J0.
X3.872 Z-0.1423 I-0.0781 J0.
X4.0283 Z-0.1447 I0.0781 J0.
X3.872 Z-0.1472 I-0.0781 J0.
X4.0283 Z-0.1496 I0.0781 J0.
X3.872 Z-0.1521 I-0.0781 J0.
X4.0283 Z-0.1545 I0.0781 J0.
X3.872 Z-0.157 I-0.0781 J0.
X4.0283 Z-0.1595 I0.0781 J0.
X3.872 Z-0.1619 I-0.0781 J0.
X4.0283 Z-0.1644 I0.0781 J0.
X3.872 Z-0.1668 I-0.0781 J0.
X4.0283 Z-0.1693 I0.0781 J0.
X3.872 Z-0.1717 I-0.0781 J0.
X4.0283 Z-0.1742 I0.0781 J0.
X3.872 Z-0.1766 I-0.0781 J0.
X4.0283 Z-0.1791 I0.0781 J0.
X3.872 Z-0.1815 I-0.0781 J0.
X3.9529 Y14.1834 Z-0.1828 I0.0781 J0.
X4.0281 Y14.0999 Z-0.1841 I-0.0027 J-0.0781
X3.8722 Y14.1108 I-0.0779 J0.0055
X4.0281 Y14.0999 I0.0779 J-0.0055
X4.0147 Y14.0883 I-0.0125 J0.0009
G1 X4.0085 Y14.0887
X4.0057 Y14.0889 Z-0.1837
X4.0031 Y14.0891 Z-0.1828
X4.0007 Y14.0893 Z-0.1813
X3.9987 Y14.0894 Z-0.1793
X3.9973 Y14.0895 Z-0.177
X3.9963 Y14.0896 Z-0.1743
X3.996 Z-0.1716
G0 Z0.6299
M5
G0 Z15
G0 X0 Y0

M9
M30
