(MOUNTING RAIL GUSSET HOLES )
(T1  D=0.125 CR=0. - ZMIN=-0.1841 - FLAT END MILL)
G90 G94 G91.1 G40 G49 G17
G20
G0 Z15

(BORE1)
M5
T1 M6
S5000 M3
G54
M8
G0 X3.5 Y0.5125
G43 Z0.6324 H1
Z0.1181
G1 Z0.0519 F39.4
G18 G2 X3.5125 Z0.0394 I0.0125 K0.
G1 X3.5188
G17 G2 X3.5312 Y0.5 I0. J-0.0125
X3.375 Z0.0369 I-0.0781 J0.
X3.5312 Z0.0345 I0.0781 J0.
X3.375 Z0.032 I-0.0781 J0.
X3.5312 Z0.0296 I0.0781 J0.
X3.375 Z0.0271 I-0.0781 J0.
X3.5312 Z0.0246 I0.0781 J0.
X3.375 Z0.0222 I-0.0781 J0.
X3.5312 Z0.0197 I0.0781 J0.
X3.375 Z0.0173 I-0.0781 J0.
X3.5312 Z0.0148 I0.0781 J0.
X3.375 Z0.0124 I-0.0781 J0.
X3.5312 Z0.0099 I0.0781 J0.
X3.375 Z0.0075 I-0.0781 J0.
X3.5312 Z0.005 I0.0781 J0.
X3.375 Z0.0026 I-0.0781 J0.
X3.5312 Z0.0001 I0.0781 J0.
X3.375 Z-0.0024 I-0.0781 J0.
X3.5312 Z-0.0048 I0.0781 J0.
X3.375 Z-0.0073 I-0.0781 J0.
X3.5312 Z-0.0097 I0.0781 J0.
X3.375 Z-0.0122 I-0.0781 J0.
X3.5312 Z-0.0146 I0.0781 J0.
X3.375 Z-0.0171 I-0.0781 J0.
X3.5312 Z-0.0195 I0.0781 J0.
X3.375 Z-0.022 I-0.0781 J0.
X3.5312 Z-0.0245 I0.0781 J0.
X3.375 Z-0.0269 I-0.0781 J0.
X3.5312 Z-0.0294 I0.0781 J0.
X3.375 Z-0.0318 I-0.0781 J0.
X3.5312 Z-0.0343 I0.0781 J0.
X3.375 Z-0.0367 I-0.0781 J0.
X3.5312 Z-0.0392 I0.0781 J0.
X3.375 Z-0.0416 I-0.0781 J0.
X3.5312 Z-0.0441 I0.0781 J0.
X3.375 Z-0.0465 I-0.0781 J0.
X3.5312 Z-0.049 I0.0781 J0.
X3.375 Z-0.0515 I-0.0781 J0.
X3.5312 Z-0.0539 I0.0781 J0.
X3.375 Z-0.0564 I-0.0781 J0.
X3.5312 Z-0.0588 I0.0781 J0.
X3.375 Z-0.0613 I-0.0781 J0.
X3.5312 Z-0.0637 I0.0781 J0.
X3.375 Z-0.0662 I-0.0781 J0.
X3.5312 Z-0.0686 I0.0781 J0.
X3.375 Z-0.0711 I-0.0781 J0.
X3.5312 Z-0.0735 I0.0781 J0.
X3.375 Z-0.076 I-0.0781 J0.
X3.5312 Z-0.0785 I0.0781 J0.
X3.375 Z-0.0809 I-0.0781 J0.
X3.5312 Z-0.0834 I0.0781 J0.
X3.375 Z-0.0858 I-0.0781 J0.
X3.5312 Z-0.0883 I0.0781 J0.
X3.375 Z-0.0907 I-0.0781 J0.
X3.5312 Z-0.0932 I0.0781 J0.
X3.375 Z-0.0956 I-0.0781 J0.
X3.5312 Z-0.0981 I0.0781 J0.
X3.375 Z-0.1005 I-0.0781 J0.
X3.5312 Z-0.103 I0.0781 J0.
X3.375 Z-0.1055 I-0.0781 J0.
X3.5312 Z-0.1079 I0.0781 J0.
X3.375 Z-0.1104 I-0.0781 J0.
X3.5312 Z-0.1128 I0.0781 J0.
X3.375 Z-0.1153 I-0.0781 J0.
X3.5312 Z-0.1177 I0.0781 J0.
X3.375 Z-0.1202 I-0.0781 J0.
X3.5312 Z-0.1226 I0.0781 J0.
X3.375 Z-0.1251 I-0.0781 J0.
X3.5312 Z-0.1275 I0.0781 J0.
X3.375 Z-0.13 I-0.0781 J0.
X3.5312 Z-0.1325 I0.0781 J0.
X3.375 Z-0.1349 I-0.0781 J0.
X3.5312 Z-0.1374 I0.0781 J0.
X3.375 Z-0.1398 I-0.0781 J0.
X3.5312 Z-0.1423 I0.0781 J0.
X3.375 Z-0.1447 I-0.0781 J0.
X3.5312 Z-0.1472 I0.0781 J0.
X3.375 Z-0.1496 I-0.0781 J0.
X3.5312 Z-0.1521 I0.0781 J0.
X3.375 Z-0.1545 I-0.0781 J0.
X3.5312 Z-0.157 I0.0781 J0.
X3.375 Z-0.1595 I-0.0781 J0.
X3.5312 Z-0.1619 I0.0781 J0.
X3.375 Z-0.1644 I-0.0781 J0.
X3.5312 Z-0.1668 I0.0781 J0.
X3.375 Z-0.1693 I-0.0781 J0.
X3.5312 Z-0.1717 I0.0781 J0.
X3.375 Z-0.1742 I-0.0781 J0.
X3.5312 Z-0.1766 I0.0781 J0.
X3.375 Z-0.1791 I-0.0781 J0.
X3.5312 Z-0.1815 I0.0781 J0.
X3.4504 Y0.4219 Z-0.1828 I-0.0781 J0.
X3.3752 Y0.5055 Z-0.1841 I0.0027 J0.0781
X3.5311 Y0.4945 I0.0779 J-0.0055
X3.3752 Y0.5055 I-0.0779 J0.0055
X3.3885 Y0.5171 I0.0125 J-0.0009
G1 X3.3948 Y0.5166
X3.3975 Y0.5164 Z-0.1837
X3.4002 Y0.5163 Z-0.1828
X3.4025 Y0.5161 Z-0.1813
X3.4045 Y0.516 Z-0.1793
X3.406 Y0.5158 Z-0.177
X3.4069 Z-0.1743
X3.4072 Z-0.1716
G0 Z0.2387
X1.0938 Y0.5125
Z0.1181
G1 Z0.0519 F39.4
G18 G2 X1.1062 Z0.0394 I0.0125 K0.
G1 X1.1125
G17 G2 X1.125 Y0.5 I0. J-0.0125
X0.9688 Z0.0369 I-0.0781 J0.
X1.125 Z0.0345 I0.0781 J0.
X0.9688 Z0.032 I-0.0781 J0.
X1.125 Z0.0296 I0.0781 J0.
X0.9688 Z0.0271 I-0.0781 J0.
X1.125 Z0.0246 I0.0781 J0.
X0.9688 Z0.0222 I-0.0781 J0.
X1.125 Z0.0197 I0.0781 J0.
X0.9688 Z0.0173 I-0.0781 J0.
X1.125 Z0.0148 I0.0781 J0.
X0.9688 Z0.0124 I-0.0781 J0.
X1.125 Z0.0099 I0.0781 J0.
X0.9688 Z0.0075 I-0.0781 J0.
X1.125 Z0.005 I0.0781 J0.
X0.9688 Z0.0026 I-0.0781 J0.
X1.125 Z0.0001 I0.0781 J0.
X0.9688 Z-0.0024 I-0.0781 J0.
X1.125 Z-0.0048 I0.0781 J0.
X0.9688 Z-0.0073 I-0.0781 J0.
X1.125 Z-0.0097 I0.0781 J0.
X0.9688 Z-0.0122 I-0.0781 J0.
X1.125 Z-0.0146 I0.0781 J0.
X0.9688 Z-0.0171 I-0.0781 J0.
X1.125 Z-0.0195 I0.0781 J0.
X0.9688 Z-0.022 I-0.0781 J0.
X1.125 Z-0.0245 I0.0781 J0.
X0.9688 Z-0.0269 I-0.0781 J0.
X1.125 Z-0.0294 I0.0781 J0.
X0.9688 Z-0.0318 I-0.0781 J0.
X1.125 Z-0.0343 I0.0781 J0.
X0.9688 Z-0.0367 I-0.0781 J0.
X1.125 Z-0.0392 I0.0781 J0.
X0.9688 Z-0.0416 I-0.0781 J0.
X1.125 Z-0.0441 I0.0781 J0.
X0.9688 Z-0.0465 I-0.0781 J0.
X1.125 Z-0.049 I0.0781 J0.
X0.9688 Z-0.0515 I-0.0781 J0.
X1.125 Z-0.0539 I0.0781 J0.
X0.9688 Z-0.0564 I-0.0781 J0.
X1.125 Z-0.0588 I0.0781 J0.
X0.9688 Z-0.0613 I-0.0781 J0.
X1.125 Z-0.0637 I0.0781 J0.
X0.9688 Z-0.0662 I-0.0781 J0.
X1.125 Z-0.0686 I0.0781 J0.
X0.9688 Z-0.0711 I-0.0781 J0.
X1.125 Z-0.0735 I0.0781 J0.
X0.9688 Z-0.076 I-0.0781 J0.
X1.125 Z-0.0785 I0.0781 J0.
X0.9688 Z-0.0809 I-0.0781 J0.
X1.125 Z-0.0834 I0.0781 J0.
X0.9688 Z-0.0858 I-0.0781 J0.
X1.125 Z-0.0883 I0.0781 J0.
X0.9688 Z-0.0907 I-0.0781 J0.
X1.125 Z-0.0932 I0.0781 J0.
X0.9688 Z-0.0956 I-0.0781 J0.
X1.125 Z-0.0981 I0.0781 J0.
X0.9688 Z-0.1005 I-0.0781 J0.
X1.125 Z-0.103 I0.0781 J0.
X0.9688 Z-0.1055 I-0.0781 J0.
X1.125 Z-0.1079 I0.0781 J0.
X0.9688 Z-0.1104 I-0.0781 J0.
X1.125 Z-0.1128 I0.0781 J0.
X0.9688 Z-0.1153 I-0.0781 J0.
X1.125 Z-0.1177 I0.0781 J0.
X0.9688 Z-0.1202 I-0.0781 J0.
X1.125 Z-0.1226 I0.0781 J0.
X0.9688 Z-0.1251 I-0.0781 J0.
X1.125 Z-0.1275 I0.0781 J0.
X0.9688 Z-0.13 I-0.0781 J0.
X1.125 Z-0.1325 I0.0781 J0.
X0.9688 Z-0.1349 I-0.0781 J0.
X1.125 Z-0.1374 I0.0781 J0.
X0.9688 Z-0.1398 I-0.0781 J0.
X1.125 Z-0.1423 I0.0781 J0.
X0.9688 Z-0.1447 I-0.0781 J0.
X1.125 Z-0.1472 I0.0781 J0.
X0.9688 Z-0.1496 I-0.0781 J0.
X1.125 Z-0.1521 I0.0781 J0.
X0.9688 Z-0.1545 I-0.0781 J0.
X1.125 Z-0.157 I0.0781 J0.
X0.9688 Z-0.1595 I-0.0781 J0.
X1.125 Z-0.1619 I0.0781 J0.
X0.9688 Z-0.1644 I-0.0781 J0.
X1.125 Z-0.1668 I0.0781 J0.
X0.9688 Z-0.1693 I-0.0781 J0.
X1.125 Z-0.1717 I0.0781 J0.
X0.9687 Z-0.1742 I-0.0781 J0.
X1.125 Z-0.1766 I0.0781 J0.
X0.9687 Z-0.1791 I-0.0781 J0.
X1.125 Z-0.1815 I0.0781 J0.
X1.0441 Y0.4219 Z-0.1828 I-0.0781 J0.
X0.9689 Y0.5055 Z-0.1841 I0.0027 J0.0781
X1.1248 Y0.4945 I0.0779 J-0.0055
X0.9689 Y0.5055 I-0.0779 J0.0055
X0.9823 Y0.5171 I0.0125 J-0.0009
G1 X0.9885 Y0.5166
X0.9913 Y0.5164 Z-0.1837
X0.9939 Y0.5163 Z-0.1828
X0.9963 Y0.5161 Z-0.1813
X0.9983 Y0.516 Z-0.1793
X0.9998 Y0.5158 Z-0.177
X1.0007 Z-0.1743
X1.001 Z-0.1716
G0 Z0.2387
X1.7969 Y3.5125
Z0.1181
G1 Z0.0519 F39.4
G18 G2 X1.8094 Z0.0394 I0.0125 K0.
G1 X1.8156
G17 G2 X1.8281 Y3.5 I0. J-0.0125
X1.6719 Z0.0369 I-0.0781 J0.
X1.8281 Z0.0345 I0.0781 J0.
X1.6719 Z0.032 I-0.0781 J0.
X1.8281 Z0.0296 I0.0781 J0.
X1.6719 Z0.0271 I-0.0781 J0.
X1.8281 Z0.0246 I0.0781 J0.
X1.6719 Z0.0222 I-0.0781 J0.
X1.8281 Z0.0197 I0.0781 J0.
X1.6719 Z0.0173 I-0.0781 J0.
X1.8281 Z0.0148 I0.0781 J0.
X1.6719 Z0.0124 I-0.0781 J0.
X1.8281 Z0.0099 I0.0781 J0.
X1.6719 Z0.0075 I-0.0781 J0.
X1.8281 Z0.005 I0.0781 J0.
X1.6719 Z0.0026 I-0.0781 J0.
X1.8281 Z0.0001 I0.0781 J0.
X1.6719 Z-0.0024 I-0.0781 J0.
X1.8281 Z-0.0048 I0.0781 J0.
X1.6719 Z-0.0073 I-0.0781 J0.
X1.8281 Z-0.0097 I0.0781 J0.
X1.6719 Z-0.0122 I-0.0781 J0.
X1.8281 Z-0.0146 I0.0781 J0.
X1.6719 Z-0.0171 I-0.0781 J0.
X1.8281 Z-0.0195 I0.0781 J0.
X1.6719 Z-0.022 I-0.0781 J0.
X1.8281 Z-0.0245 I0.0781 J0.
X1.6719 Z-0.0269 I-0.0781 J0.
X1.8281 Z-0.0294 I0.0781 J0.
X1.6719 Z-0.0318 I-0.0781 J0.
X1.8281 Z-0.0343 I0.0781 J0.
X1.6719 Z-0.0367 I-0.0781 J0.
X1.8281 Z-0.0392 I0.0781 J0.
X1.6719 Z-0.0416 I-0.0781 J0.
X1.8281 Z-0.0441 I0.0781 J0.
X1.6719 Z-0.0465 I-0.0781 J0.
X1.8281 Z-0.049 I0.0781 J0.
X1.6719 Z-0.0515 I-0.0781 J0.
X1.8281 Z-0.0539 I0.0781 J0.
X1.6719 Z-0.0564 I-0.0781 J0.
X1.8281 Z-0.0588 I0.0781 J0.
X1.6719 Z-0.0613 I-0.0781 J0.
X1.8281 Z-0.0637 I0.0781 J0.
X1.6719 Z-0.0662 I-0.0781 J0.
X1.8281 Z-0.0686 I0.0781 J0.
X1.6719 Z-0.0711 I-0.0781 J0.
X1.8281 Z-0.0735 I0.0781 J0.
X1.6719 Z-0.076 I-0.0781 J0.
X1.8281 Z-0.0785 I0.0781 J0.
X1.6719 Z-0.0809 I-0.0781 J0.
X1.8281 Z-0.0834 I0.0781 J0.
X1.6719 Z-0.0858 I-0.0781 J0.
X1.8281 Z-0.0883 I0.0781 J0.
X1.6719 Z-0.0907 I-0.0781 J0.
X1.8281 Z-0.0932 I0.0781 J0.
X1.6719 Z-0.0956 I-0.0781 J0.
X1.8281 Z-0.0981 I0.0781 J0.
X1.6719 Z-0.1005 I-0.0781 J0.
X1.8281 Z-0.103 I0.0781 J0.
X1.6719 Z-0.1055 I-0.0781 J0.
X1.8281 Z-0.1079 I0.0781 J0.
X1.6719 Z-0.1104 I-0.0781 J0.
X1.8281 Z-0.1128 I0.0781 J0.
X1.6719 Z-0.1153 I-0.0781 J0.
X1.8281 Z-0.1177 I0.0781 J0.
X1.6719 Z-0.1202 I-0.0781 J0.
X1.8281 Z-0.1226 I0.0781 J0.
X1.6719 Z-0.1251 I-0.0781 J0.
X1.8281 Z-0.1275 I0.0781 J0.
X1.6719 Z-0.13 I-0.0781 J0.
X1.8281 Z-0.1325 I0.0781 J0.
X1.6719 Z-0.1349 I-0.0781 J0.
X1.8281 Z-0.1374 I0.0781 J0.
X1.6719 Z-0.1398 I-0.0781 J0.
X1.8281 Z-0.1423 I0.0781 J0.
X1.6719 Z-0.1447 I-0.0781 J0.
X1.8281 Z-0.1472 I0.0781 J0.
X1.6719 Z-0.1496 I-0.0781 J0.
X1.8281 Z-0.1521 I0.0781 J0.
X1.6719 Z-0.1545 I-0.0781 J0.
X1.8281 Z-0.157 I0.0781 J0.
X1.6719 Z-0.1595 I-0.0781 J0.
X1.8281 Z-0.1619 I0.0781 J0.
X1.6719 Z-0.1644 I-0.0781 J0.
X1.8281 Z-0.1668 I0.0781 J0.
X1.6719 Z-0.1693 I-0.0781 J0.
X1.8281 Z-0.1717 I0.0781 J0.
X1.6719 Z-0.1742 I-0.0781 J0.
X1.8281 Z-0.1766 I0.0781 J0.
X1.6719 Z-0.1791 I-0.0781 J0.
X1.8281 Z-0.1815 I0.0781 J0.
X1.7473 Y3.4219 Z-0.1828 I-0.0781 J0.
X1.6721 Y3.5055 Z-0.1841 I0.0027 J0.0781
X1.8279 Y3.4945 I0.0779 J-0.0055
X1.6721 Y3.5055 I-0.0779 J0.0055
X1.6854 Y3.5171 I0.0125 J-0.0009
G1 X1.6916 Y3.5166
X1.6944 Y3.5164 Z-0.1837
X1.6971 Y3.5163 Z-0.1828
X1.6994 Y3.5161 Z-0.1813
X1.7014 Y3.516 Z-0.1793
X1.7029 Y3.5158 Z-0.177
X1.7038 Z-0.1743
X1.7041 Z-0.1716
G0 Z0.2387
X2.7969 Y3.5125
Z0.1181
G1 Z0.0519 F39.4
G18 G2 X2.8094 Z0.0394 I0.0125 K0.
G1 X2.8156
G17 G2 X2.8281 Y3.5 I0. J-0.0125
X2.6719 Z0.0369 I-0.0781 J0.
X2.8281 Z0.0345 I0.0781 J0.
X2.6719 Z0.032 I-0.0781 J0.
X2.8281 Z0.0296 I0.0781 J0.
X2.6719 Z0.0271 I-0.0781 J0.
X2.8281 Z0.0246 I0.0781 J0.
X2.6719 Z0.0222 I-0.0781 J0.
X2.8281 Z0.0197 I0.0781 J0.
X2.6719 Z0.0173 I-0.0781 J0.
X2.8281 Z0.0148 I0.0781 J0.
X2.6719 Z0.0124 I-0.0781 J0.
X2.8281 Z0.0099 I0.0781 J0.
X2.6719 Z0.0075 I-0.0781 J0.
X2.8281 Z0.005 I0.0781 J0.
X2.6719 Z0.0026 I-0.0781 J0.
X2.8281 Z0.0001 I0.0781 J0.
X2.6719 Z-0.0024 I-0.0781 J0.
X2.8281 Z-0.0048 I0.0781 J0.
X2.6719 Z-0.0073 I-0.0781 J0.
X2.8281 Z-0.0097 I0.0781 J0.
X2.6719 Z-0.0122 I-0.0781 J0.
X2.8281 Z-0.0146 I0.0781 J0.
X2.6719 Z-0.0171 I-0.0781 J0.
X2.8281 Z-0.0195 I0.0781 J0.
X2.6719 Z-0.022 I-0.0781 J0.
X2.8281 Z-0.0245 I0.0781 J0.
X2.6719 Z-0.0269 I-0.0781 J0.
X2.8281 Z-0.0294 I0.0781 J0.
X2.6719 Z-0.0318 I-0.0781 J0.
X2.8281 Z-0.0343 I0.0781 J0.
X2.6719 Z-0.0367 I-0.0781 J0.
X2.8281 Z-0.0392 I0.0781 J0.
X2.6719 Z-0.0416 I-0.0781 J0.
X2.8281 Z-0.0441 I0.0781 J0.
X2.6719 Z-0.0465 I-0.0781 J0.
X2.8281 Z-0.049 I0.0781 J0.
X2.6719 Z-0.0515 I-0.0781 J0.
X2.8281 Z-0.0539 I0.0781 J0.
X2.6719 Z-0.0564 I-0.0781 J0.
X2.8281 Z-0.0588 I0.0781 J0.
X2.6719 Z-0.0613 I-0.0781 J0.
X2.8281 Z-0.0637 I0.0781 J0.
X2.6719 Z-0.0662 I-0.0781 J0.
X2.8281 Z-0.0686 I0.0781 J0.
X2.6719 Z-0.0711 I-0.0781 J0.
X2.8281 Z-0.0735 I0.0781 J0.
X2.6719 Z-0.076 I-0.0781 J0.
X2.8281 Z-0.0785 I0.0781 J0.
X2.6719 Z-0.0809 I-0.0781 J0.
X2.8281 Z-0.0834 I0.0781 J0.
X2.6719 Z-0.0858 I-0.0781 J0.
X2.8281 Z-0.0883 I0.0781 J0.
X2.6719 Z-0.0907 I-0.0781 J0.
X2.8281 Z-0.0932 I0.0781 J0.
X2.6719 Z-0.0956 I-0.0781 J0.
X2.8281 Z-0.0981 I0.0781 J0.
X2.6719 Z-0.1005 I-0.0781 J0.
X2.8281 Z-0.103 I0.0781 J0.
X2.6719 Z-0.1055 I-0.0781 J0.
X2.8281 Z-0.1079 I0.0781 J0.
X2.6719 Z-0.1104 I-0.0781 J0.
X2.8281 Z-0.1128 I0.0781 J0.
X2.6719 Z-0.1153 I-0.0781 J0.
X2.8281 Z-0.1177 I0.0781 J0.
X2.6719 Z-0.1202 I-0.0781 J0.
X2.8281 Z-0.1226 I0.0781 J0.
X2.6719 Z-0.1251 I-0.0781 J0.
X2.8281 Z-0.1275 I0.0781 J0.
X2.6719 Z-0.13 I-0.0781 J0.
X2.8281 Z-0.1325 I0.0781 J0.
X2.6719 Z-0.1349 I-0.0781 J0.
X2.8281 Z-0.1374 I0.0781 J0.
X2.6719 Z-0.1398 I-0.0781 J0.
X2.8281 Z-0.1423 I0.0781 J0.
X2.6719 Z-0.1447 I-0.0781 J0.
X2.8281 Z-0.1472 I0.0781 J0.
X2.6719 Z-0.1496 I-0.0781 J0.
X2.8281 Z-0.1521 I0.0781 J0.
X2.6719 Z-0.1545 I-0.0781 J0.
X2.8281 Z-0.157 I0.0781 J0.
X2.6719 Z-0.1595 I-0.0781 J0.
X2.8281 Z-0.1619 I0.0781 J0.
X2.6719 Z-0.1644 I-0.0781 J0.
X2.8281 Z-0.1668 I0.0781 J0.
X2.6719 Z-0.1693 I-0.0781 J0.
X2.8281 Z-0.1717 I0.0781 J0.
X2.6719 Z-0.1742 I-0.0781 J0.
X2.8281 Z-0.1766 I0.0781 J0.
X2.6719 Z-0.1791 I-0.0781 J0.
X2.8281 Z-0.1815 I0.0781 J0.
X2.7473 Y3.4219 Z-0.1828 I-0.0781 J0.
X2.6721 Y3.5055 Z-0.1841 I0.0027 J0.0781
X2.8279 Y3.4945 I0.0779 J-0.0055
X2.6721 Y3.5055 I-0.0779 J0.0055
X2.6854 Y3.5171 I0.0125 J-0.0009
G1 X2.6916 Y3.5166
X2.6944 Y3.5164 Z-0.1837
X2.6971 Y3.5163 Z-0.1828
X2.6994 Y3.5161 Z-0.1813
X2.7014 Y3.516 Z-0.1793
X2.7029 Y3.5158 Z-0.177
X2.7038 Z-0.1743
X2.7041 Z-0.1716
G0 Z0.2387
X2.7969 Y4.5125
Z0.1181
G1 Z0.0519 F39.4
G18 G2 X2.8094 Z0.0394 I0.0125 K0.
G1 X2.8156
G17 G2 X2.8281 Y4.5 I0. J-0.0125
X2.6719 Z0.0369 I-0.0781 J0.
X2.8281 Z0.0345 I0.0781 J0.
X2.6719 Z0.032 I-0.0781 J0.
X2.8281 Z0.0296 I0.0781 J0.
X2.6719 Z0.0271 I-0.0781 J0.
X2.8281 Z0.0246 I0.0781 J0.
X2.6719 Z0.0222 I-0.0781 J0.
X2.8281 Z0.0197 I0.0781 J0.
X2.6719 Z0.0173 I-0.0781 J0.
X2.8281 Z0.0148 I0.0781 J0.
X2.6719 Z0.0124 I-0.0781 J0.
X2.8281 Z0.0099 I0.0781 J0.
X2.6719 Z0.0075 I-0.0781 J0.
X2.8281 Z0.005 I0.0781 J0.
X2.6719 Z0.0026 I-0.0781 J0.
X2.8281 Z0.0001 I0.0781 J0.
X2.6719 Z-0.0024 I-0.0781 J0.
X2.8281 Z-0.0048 I0.0781 J0.
X2.6719 Z-0.0073 I-0.0781 J0.
X2.8281 Z-0.0097 I0.0781 J0.
X2.6719 Z-0.0122 I-0.0781 J0.
X2.8281 Z-0.0146 I0.0781 J0.
X2.6719 Z-0.0171 I-0.0781 J0.
X2.8281 Z-0.0195 I0.0781 J0.
X2.6719 Z-0.022 I-0.0781 J0.
X2.8281 Z-0.0245 I0.0781 J0.
X2.6719 Z-0.0269 I-0.0781 J0.
X2.8281 Z-0.0294 I0.0781 J0.
X2.6719 Z-0.0318 I-0.0781 J0.
X2.8281 Z-0.0343 I0.0781 J0.
X2.6719 Z-0.0367 I-0.0781 J0.
X2.8281 Z-0.0392 I0.0781 J0.
X2.6719 Z-0.0416 I-0.0781 J0.
X2.8281 Z-0.0441 I0.0781 J0.
X2.6719 Z-0.0465 I-0.0781 J0.
X2.8281 Z-0.049 I0.0781 J0.
X2.6719 Z-0.0515 I-0.0781 J0.
X2.8281 Z-0.0539 I0.0781 J0.
X2.6719 Z-0.0564 I-0.0781 J0.
X2.8281 Z-0.0588 I0.0781 J0.
X2.6719 Z-0.0613 I-0.0781 J0.
X2.8281 Z-0.0637 I0.0781 J0.
X2.6719 Z-0.0662 I-0.0781 J0.
X2.8281 Z-0.0686 I0.0781 J0.
X2.6719 Z-0.0711 I-0.0781 J0.
X2.8281 Z-0.0735 I0.0781 J0.
X2.6719 Z-0.076 I-0.0781 J0.
X2.8281 Z-0.0785 I0.0781 J0.
X2.6719 Z-0.0809 I-0.0781 J0.
X2.8281 Z-0.0834 I0.0781 J0.
X2.6719 Z-0.0858 I-0.0781 J0.
X2.8281 Z-0.0883 I0.0781 J0.
X2.6719 Z-0.0907 I-0.0781 J0.
X2.8281 Z-0.0932 I0.0781 J0.
X2.6719 Z-0.0956 I-0.0781 J0.
X2.8281 Z-0.0981 I0.0781 J0.
X2.6719 Z-0.1005 I-0.0781 J0.
X2.8281 Z-0.103 I0.0781 J0.
X2.6719 Z-0.1055 I-0.0781 J0.
X2.8281 Z-0.1079 I0.0781 J0.
X2.6719 Z-0.1104 I-0.0781 J0.
X2.8281 Z-0.1128 I0.0781 J0.
X2.6719 Z-0.1153 I-0.0781 J0.
X2.8281 Z-0.1177 I0.0781 J0.
X2.6719 Z-0.1202 I-0.0781 J0.
X2.8281 Z-0.1226 I0.0781 J0.
X2.6719 Z-0.1251 I-0.0781 J0.
X2.8281 Z-0.1275 I0.0781 J0.
X2.6719 Z-0.13 I-0.0781 J0.
X2.8281 Z-0.1325 I0.0781 J0.
X2.6719 Z-0.1349 I-0.0781 J0.
X2.8281 Z-0.1374 I0.0781 J0.
X2.6719 Z-0.1398 I-0.0781 J0.
X2.8281 Z-0.1423 I0.0781 J0.
X2.6719 Z-0.1447 I-0.0781 J0.
X2.8281 Z-0.1472 I0.0781 J0.
X2.6719 Z-0.1496 I-0.0781 J0.
X2.8281 Z-0.1521 I0.0781 J0.
X2.6719 Z-0.1545 I-0.0781 J0.
X2.8281 Z-0.157 I0.0781 J0.
X2.6719 Z-0.1595 I-0.0781 J0.
X2.8281 Z-0.1619 I0.0781 J0.
X2.6719 Z-0.1644 I-0.0781 J0.
X2.8281 Z-0.1668 I0.0781 J0.
X2.6719 Z-0.1693 I-0.0781 J0.
X2.8281 Z-0.1717 I0.0781 J0.
X2.6719 Z-0.1742 I-0.0781 J0.
X2.8281 Z-0.1766 I0.0781 J0.
X2.6719 Z-0.1791 I-0.0781 J0.
X2.8281 Z-0.1815 I0.0781 J0.
X2.7473 Y4.4219 Z-0.1828 I-0.0781 J0.
X2.6721 Y4.5055 Z-0.1841 I0.0027 J0.0781
X2.8279 Y4.4945 I0.0779 J-0.0055
X2.6721 Y4.5055 I-0.0779 J0.0055
X2.6854 Y4.5171 I0.0125 J-0.0009
G1 X2.6916 Y4.5166
X2.6944 Y4.5164 Z-0.1837
X2.6971 Y4.5163 Z-0.1828
X2.6994 Y4.5161 Z-0.1813
X2.7014 Y4.516 Z-0.1793
X2.7029 Y4.5158 Z-0.177
X2.7038 Z-0.1743
X2.7041 Z-0.1716
G0 Z0.2387
X1.7969 Y4.5125
Z0.1181
G1 Z0.0519 F39.4
G18 G2 X1.8094 Z0.0394 I0.0125 K0.
G1 X1.8156
G17 G2 X1.8281 Y4.5 I0. J-0.0125
X1.6719 Z0.0369 I-0.0781 J0.
X1.8281 Z0.0345 I0.0781 J0.
X1.6719 Z0.032 I-0.0781 J0.
X1.8281 Z0.0296 I0.0781 J0.
X1.6719 Z0.0271 I-0.0781 J0.
X1.8281 Z0.0246 I0.0781 J0.
X1.6719 Z0.0222 I-0.0781 J0.
X1.8281 Z0.0197 I0.0781 J0.
X1.6719 Z0.0173 I-0.0781 J0.
X1.8281 Z0.0148 I0.0781 J0.
X1.6719 Z0.0124 I-0.0781 J0.
X1.8281 Z0.0099 I0.0781 J0.
X1.6719 Z0.0075 I-0.0781 J0.
X1.8281 Z0.005 I0.0781 J0.
X1.6719 Z0.0026 I-0.0781 J0.
X1.8281 Z0.0001 I0.0781 J0.
X1.6719 Z-0.0024 I-0.0781 J0.
X1.8281 Z-0.0048 I0.0781 J0.
X1.6719 Z-0.0073 I-0.0781 J0.
X1.8281 Z-0.0097 I0.0781 J0.
X1.6719 Z-0.0122 I-0.0781 J0.
X1.8281 Z-0.0146 I0.0781 J0.
X1.6719 Z-0.0171 I-0.0781 J0.
X1.8281 Z-0.0195 I0.0781 J0.
X1.6719 Z-0.022 I-0.0781 J0.
X1.8281 Z-0.0245 I0.0781 J0.
X1.6719 Z-0.0269 I-0.0781 J0.
X1.8281 Z-0.0294 I0.0781 J0.
X1.6719 Z-0.0318 I-0.0781 J0.
X1.8281 Z-0.0343 I0.0781 J0.
X1.6719 Z-0.0367 I-0.0781 J0.
X1.8281 Z-0.0392 I0.0781 J0.
X1.6719 Z-0.0416 I-0.0781 J0.
X1.8281 Z-0.0441 I0.0781 J0.
X1.6719 Z-0.0465 I-0.0781 J0.
X1.8281 Z-0.049 I0.0781 J0.
X1.6719 Z-0.0515 I-0.0781 J0.
X1.8281 Z-0.0539 I0.0781 J0.
X1.6719 Z-0.0564 I-0.0781 J0.
X1.8281 Z-0.0588 I0.0781 J0.
X1.6719 Z-0.0613 I-0.0781 J0.
X1.8281 Z-0.0637 I0.0781 J0.
X1.6719 Z-0.0662 I-0.0781 J0.
X1.8281 Z-0.0686 I0.0781 J0.
X1.6719 Z-0.0711 I-0.0781 J0.
X1.8281 Z-0.0735 I0.0781 J0.
X1.6719 Z-0.076 I-0.0781 J0.
X1.8281 Z-0.0785 I0.0781 J0.
X1.6719 Z-0.0809 I-0.0781 J0.
X1.8281 Z-0.0834 I0.0781 J0.
X1.6719 Z-0.0858 I-0.0781 J0.
X1.8281 Z-0.0883 I0.0781 J0.
X1.6719 Z-0.0907 I-0.0781 J0.
X1.8281 Z-0.0932 I0.0781 J0.
X1.6719 Z-0.0956 I-0.0781 J0.
X1.8281 Z-0.0981 I0.0781 J0.
X1.6719 Z-0.1005 I-0.0781 J0.
X1.8281 Z-0.103 I0.0781 J0.
X1.6719 Z-0.1055 I-0.0781 J0.
X1.8281 Z-0.1079 I0.0781 J0.
X1.6719 Z-0.1104 I-0.0781 J0.
X1.8281 Z-0.1128 I0.0781 J0.
X1.6719 Z-0.1153 I-0.0781 J0.
X1.8281 Z-0.1177 I0.0781 J0.
X1.6719 Z-0.1202 I-0.0781 J0.
X1.8281 Z-0.1226 I0.0781 J0.
X1.6719 Z-0.1251 I-0.0781 J0.
X1.8281 Z-0.1275 I0.0781 J0.
X1.6719 Z-0.13 I-0.0781 J0.
X1.8281 Z-0.1325 I0.0781 J0.
X1.6719 Z-0.1349 I-0.0781 J0.
X1.8281 Z-0.1374 I0.0781 J0.
X1.6719 Z-0.1398 I-0.0781 J0.
X1.8281 Z-0.1423 I0.0781 J0.
X1.6719 Z-0.1447 I-0.0781 J0.
X1.8281 Z-0.1472 I0.0781 J0.
X1.6719 Z-0.1496 I-0.0781 J0.
X1.8281 Z-0.1521 I0.0781 J0.
X1.6719 Z-0.1545 I-0.0781 J0.
X1.8281 Z-0.157 I0.0781 J0.
X1.6719 Z-0.1595 I-0.0781 J0.
X1.8281 Z-0.1619 I0.0781 J0.
X1.6719 Z-0.1644 I-0.0781 J0.
X1.8281 Z-0.1668 I0.0781 J0.
X1.6719 Z-0.1693 I-0.0781 J0.
X1.8281 Z-0.1717 I0.0781 J0.
X1.6719 Z-0.1742 I-0.0781 J0.
X1.8281 Z-0.1766 I0.0781 J0.
X1.6719 Z-0.1791 I-0.0781 J0.
X1.8281 Z-0.1815 I0.0781 J0.
X1.7473 Y4.4219 Z-0.1828 I-0.0781 J0.
X1.6721 Y4.5055 Z-0.1841 I0.0027 J0.0781
X1.8279 Y4.4945 I0.0779 J-0.0055
X1.6721 Y4.5055 I-0.0779 J0.0055
X1.6854 Y4.5171 I0.0125 J-0.0009
G1 X1.6916 Y4.5166
X1.6944 Y4.5164 Z-0.1837
X1.6971 Y4.5163 Z-0.1828
X1.6994 Y4.5161 Z-0.1813
X1.7014 Y4.516 Z-0.1793
X1.7029 Y4.5158 Z-0.177
X1.7038 Z-0.1743
X1.7041 Z-0.1716
G0 Z0.2387
X1.7969 Y5.5125
Z0.1181
G1 Z0.0519 F39.4
G18 G2 X1.8094 Z0.0394 I0.0125 K0.
G1 X1.8156
G17 G2 X1.8281 Y5.5 I0. J-0.0125
X1.6719 Z0.0369 I-0.0781 J0.
X1.8281 Z0.0345 I0.0781 J0.
X1.6719 Z0.032 I-0.0781 J0.
X1.8281 Z0.0296 I0.0781 J0.
X1.6719 Z0.0271 I-0.0781 J0.
X1.8281 Z0.0246 I0.0781 J0.
X1.6719 Z0.0222 I-0.0781 J0.
X1.8281 Z0.0197 I0.0781 J0.
X1.6719 Z0.0173 I-0.0781 J0.
X1.8281 Z0.0148 I0.0781 J0.
X1.6719 Z0.0124 I-0.0781 J0.
X1.8281 Z0.0099 I0.0781 J0.
X1.6719 Z0.0075 I-0.0781 J0.
X1.8281 Z0.005 I0.0781 J0.
X1.6719 Z0.0026 I-0.0781 J0.
X1.8281 Z0.0001 I0.0781 J0.
X1.6719 Z-0.0024 I-0.0781 J0.
X1.8281 Z-0.0048 I0.0781 J0.
X1.6719 Z-0.0073 I-0.0781 J0.
X1.8281 Z-0.0097 I0.0781 J0.
X1.6719 Z-0.0122 I-0.0781 J0.
X1.8281 Z-0.0146 I0.0781 J0.
X1.6719 Z-0.0171 I-0.0781 J0.
X1.8281 Z-0.0195 I0.0781 J0.
X1.6719 Z-0.022 I-0.0781 J0.
X1.8281 Z-0.0245 I0.0781 J0.
X1.6719 Z-0.0269 I-0.0781 J0.
X1.8281 Z-0.0294 I0.0781 J0.
X1.6719 Z-0.0318 I-0.0781 J0.
X1.8281 Z-0.0343 I0.0781 J0.
X1.6719 Z-0.0367 I-0.0781 J0.
X1.8281 Z-0.0392 I0.0781 J0.
X1.6719 Z-0.0416 I-0.0781 J0.
X1.8281 Z-0.0441 I0.0781 J0.
X1.6719 Z-0.0465 I-0.0781 J0.
X1.8281 Z-0.049 I0.0781 J0.
X1.6719 Z-0.0515 I-0.0781 J0.
X1.8281 Z-0.0539 I0.0781 J0.
X1.6719 Z-0.0564 I-0.0781 J0.
X1.8281 Z-0.0588 I0.0781 J0.
X1.6719 Z-0.0613 I-0.0781 J0.
X1.8281 Z-0.0637 I0.0781 J0.
X1.6719 Z-0.0662 I-0.0781 J0.
X1.8281 Z-0.0686 I0.0781 J0.
X1.6719 Z-0.0711 I-0.0781 J0.
X1.8281 Z-0.0735 I0.0781 J0.
X1.6719 Z-0.076 I-0.0781 J0.
X1.8281 Z-0.0785 I0.0781 J0.
X1.6719 Z-0.0809 I-0.0781 J0.
X1.8281 Z-0.0834 I0.0781 J0.
X1.6719 Z-0.0858 I-0.0781 J0.
X1.8281 Z-0.0883 I0.0781 J0.
X1.6719 Z-0.0907 I-0.0781 J0.
X1.8281 Z-0.0932 I0.0781 J0.
X1.6719 Z-0.0956 I-0.0781 J0.
X1.8281 Z-0.0981 I0.0781 J0.
X1.6719 Z-0.1005 I-0.0781 J0.
X1.8281 Z-0.103 I0.0781 J0.
X1.6719 Z-0.1055 I-0.0781 J0.
X1.8281 Z-0.1079 I0.0781 J0.
X1.6719 Z-0.1104 I-0.0781 J0.
X1.8281 Z-0.1128 I0.0781 J0.
X1.6719 Z-0.1153 I-0.0781 J0.
X1.8281 Z-0.1177 I0.0781 J0.
X1.6719 Z-0.1202 I-0.0781 J0.
X1.8281 Z-0.1226 I0.0781 J0.
X1.6719 Z-0.1251 I-0.0781 J0.
X1.8281 Z-0.1275 I0.0781 J0.
X1.6719 Z-0.13 I-0.0781 J0.
X1.8281 Z-0.1325 I0.0781 J0.
X1.6719 Z-0.1349 I-0.0781 J0.
X1.8281 Z-0.1374 I0.0781 J0.
X1.6719 Z-0.1398 I-0.0781 J0.
X1.8281 Z-0.1423 I0.0781 J0.
X1.6719 Z-0.1447 I-0.0781 J0.
X1.8281 Z-0.1472 I0.0781 J0.
X1.6719 Z-0.1496 I-0.0781 J0.
X1.8281 Z-0.1521 I0.0781 J0.
X1.6719 Z-0.1545 I-0.0781 J0.
X1.8281 Z-0.157 I0.0781 J0.
X1.6719 Z-0.1595 I-0.0781 J0.
X1.8281 Z-0.1619 I0.0781 J0.
X1.6719 Z-0.1644 I-0.0781 J0.
X1.8281 Z-0.1668 I0.0781 J0.
X1.6719 Z-0.1693 I-0.0781 J0.
X1.8281 Z-0.1717 I0.0781 J0.
X1.6719 Z-0.1742 I-0.0781 J0.
X1.8281 Z-0.1766 I0.0781 J0.
X1.6719 Z-0.1791 I-0.0781 J0.
X1.8281 Z-0.1815 I0.0781 J0.
X1.7473 Y5.4219 Z-0.1828 I-0.0781 J0.
X1.6721 Y5.5055 Z-0.1841 I0.0027 J0.0781
X1.8279 Y5.4945 I0.0779 J-0.0055
X1.6721 Y5.5055 I-0.0779 J0.0055
X1.6854 Y5.5171 I0.0125 J-0.0009
G1 X1.6916 Y5.5166
X1.6944 Y5.5164 Z-0.1837
X1.6971 Y5.5163 Z-0.1828
X1.6994 Y5.5161 Z-0.1813
X1.7014 Y5.516 Z-0.1793
X1.7029 Y5.5158 Z-0.177
X1.7038 Z-0.1743
X1.7041 Z-0.1716
G0 Z0.2387
X2.7969 Y5.5125
Z0.1181
G1 Z0.0519 F39.4
G18 G2 X2.8094 Z0.0394 I0.0125 K0.
G1 X2.8156
G17 G2 X2.8281 Y5.5 I0. J-0.0125
X2.6719 Z0.0369 I-0.0781 J0.
X2.8281 Z0.0345 I0.0781 J0.
X2.6719 Z0.032 I-0.0781 J0.
X2.8281 Z0.0296 I0.0781 J0.
X2.6719 Z0.0271 I-0.0781 J0.
X2.8281 Z0.0246 I0.0781 J0.
X2.6719 Z0.0222 I-0.0781 J0.
X2.8281 Z0.0197 I0.0781 J0.
X2.6719 Z0.0173 I-0.0781 J0.
X2.8281 Z0.0148 I0.0781 J0.
X2.6719 Z0.0124 I-0.0781 J0.
X2.8281 Z0.0099 I0.0781 J0.
X2.6719 Z0.0075 I-0.0781 J0.
X2.8281 Z0.005 I0.0781 J0.
X2.6719 Z0.0026 I-0.0781 J0.
X2.8281 Z0.0001 I0.0781 J0.
X2.6719 Z-0.0024 I-0.0781 J0.
X2.8281 Z-0.0048 I0.0781 J0.
X2.6719 Z-0.0073 I-0.0781 J0.
X2.8281 Z-0.0097 I0.0781 J0.
X2.6719 Z-0.0122 I-0.0781 J0.
X2.8281 Z-0.0146 I0.0781 J0.
X2.6719 Z-0.0171 I-0.0781 J0.
X2.8281 Z-0.0195 I0.0781 J0.
X2.6719 Z-0.022 I-0.0781 J0.
X2.8281 Z-0.0245 I0.0781 J0.
X2.6719 Z-0.0269 I-0.0781 J0.
X2.8281 Z-0.0294 I0.0781 J0.
X2.6719 Z-0.0318 I-0.0781 J0.
X2.8281 Z-0.0343 I0.0781 J0.
X2.6719 Z-0.0367 I-0.0781 J0.
X2.8281 Z-0.0392 I0.0781 J0.
X2.6719 Z-0.0416 I-0.0781 J0.
X2.8281 Z-0.0441 I0.0781 J0.
X2.6719 Z-0.0465 I-0.0781 J0.
X2.8281 Z-0.049 I0.0781 J0.
X2.6719 Z-0.0515 I-0.0781 J0.
X2.8281 Z-0.0539 I0.0781 J0.
X2.6719 Z-0.0564 I-0.0781 J0.
X2.8281 Z-0.0588 I0.0781 J0.
X2.6719 Z-0.0613 I-0.0781 J0.
X2.8281 Z-0.0637 I0.0781 J0.
X2.6719 Z-0.0662 I-0.0781 J0.
X2.8281 Z-0.0686 I0.0781 J0.
X2.6719 Z-0.0711 I-0.0781 J0.
X2.8281 Z-0.0735 I0.0781 J0.
X2.6719 Z-0.076 I-0.0781 J0.
X2.8281 Z-0.0785 I0.0781 J0.
X2.6719 Z-0.0809 I-0.0781 J0.
X2.8281 Z-0.0834 I0.0781 J0.
X2.6719 Z-0.0858 I-0.0781 J0.
X2.8281 Z-0.0883 I0.0781 J0.
X2.6719 Z-0.0907 I-0.0781 J0.
X2.8281 Z-0.0932 I0.0781 J0.
X2.6719 Z-0.0956 I-0.0781 J0.
X2.8281 Z-0.0981 I0.0781 J0.
X2.6719 Z-0.1005 I-0.0781 J0.
X2.8281 Z-0.103 I0.0781 J0.
X2.6719 Z-0.1055 I-0.0781 J0.
X2.8281 Z-0.1079 I0.0781 J0.
X2.6719 Z-0.1104 I-0.0781 J0.
X2.8281 Z-0.1128 I0.0781 J0.
X2.6719 Z-0.1153 I-0.0781 J0.
X2.8281 Z-0.1177 I0.0781 J0.
X2.6719 Z-0.1202 I-0.0781 J0.
X2.8281 Z-0.1226 I0.0781 J0.
X2.6719 Z-0.1251 I-0.0781 J0.
X2.8281 Z-0.1275 I0.0781 J0.
X2.6719 Z-0.13 I-0.0781 J0.
X2.8281 Z-0.1325 I0.0781 J0.
X2.6719 Z-0.1349 I-0.0781 J0.
X2.8281 Z-0.1374 I0.0781 J0.
X2.6719 Z-0.1398 I-0.0781 J0.
X2.8281 Z-0.1423 I0.0781 J0.
X2.6719 Z-0.1447 I-0.0781 J0.
X2.8281 Z-0.1472 I0.0781 J0.
X2.6719 Z-0.1496 I-0.0781 J0.
X2.8281 Z-0.1521 I0.0781 J0.
X2.6719 Z-0.1545 I-0.0781 J0.
X2.8281 Z-0.157 I0.0781 J0.
X2.6719 Z-0.1595 I-0.0781 J0.
X2.8281 Z-0.1619 I0.0781 J0.
X2.6719 Z-0.1644 I-0.0781 J0.
X2.8281 Z-0.1668 I0.0781 J0.
X2.6719 Z-0.1693 I-0.0781 J0.
X2.8281 Z-0.1717 I0.0781 J0.
X2.6719 Z-0.1742 I-0.0781 J0.
X2.8281 Z-0.1766 I0.0781 J0.
X2.6719 Z-0.1791 I-0.0781 J0.
X2.8281 Z-0.1815 I0.0781 J0.
X2.7473 Y5.4219 Z-0.1828 I-0.0781 J0.
X2.6721 Y5.5055 Z-0.1841 I0.0027 J0.0781
X2.8279 Y5.4945 I0.0779 J-0.0055
X2.6721 Y5.5055 I-0.0779 J0.0055
X2.6854 Y5.5171 I0.0125 J-0.0009
G1 X2.6916 Y5.5166
X2.6944 Y5.5164 Z-0.1837
X2.6971 Y5.5163 Z-0.1828
X2.6994 Y5.5161 Z-0.1813
X2.7014 Y5.516 Z-0.1793
X2.7029 Y5.5158 Z-0.177
X2.7038 Z-0.1743
X2.7041 Z-0.1716
G0 Z0.2387
X2.7969 Y6.5125
Z0.1181
G1 Z0.0519 F39.4
G18 G2 X2.8094 Z0.0394 I0.0125 K0.
G1 X2.8156
G17 G2 X2.8281 Y6.5 I0. J-0.0125
X2.6719 Z0.0369 I-0.0781 J0.
X2.8281 Z0.0345 I0.0781 J0.
X2.6719 Z0.032 I-0.0781 J0.
X2.8281 Z0.0296 I0.0781 J0.
X2.6719 Z0.0271 I-0.0781 J0.
X2.8281 Z0.0246 I0.0781 J0.
X2.6719 Z0.0222 I-0.0781 J0.
X2.8281 Z0.0197 I0.0781 J0.
X2.6719 Z0.0173 I-0.0781 J0.
X2.8281 Z0.0148 I0.0781 J0.
X2.6719 Z0.0124 I-0.0781 J0.
X2.8281 Z0.0099 I0.0781 J0.
X2.6719 Z0.0075 I-0.0781 J0.
X2.8281 Z0.005 I0.0781 J0.
X2.6719 Z0.0026 I-0.0781 J0.
X2.8281 Z0.0001 I0.0781 J0.
X2.6719 Z-0.0024 I-0.0781 J0.
X2.8281 Z-0.0048 I0.0781 J0.
X2.6719 Z-0.0073 I-0.0781 J0.
X2.8281 Z-0.0097 I0.0781 J0.
X2.6719 Z-0.0122 I-0.0781 J0.
X2.8281 Z-0.0146 I0.0781 J0.
X2.6719 Z-0.0171 I-0.0781 J0.
X2.8281 Z-0.0195 I0.0781 J0.
X2.6719 Z-0.022 I-0.0781 J0.
X2.8281 Z-0.0245 I0.0781 J0.
X2.6719 Z-0.0269 I-0.0781 J0.
X2.8281 Z-0.0294 I0.0781 J0.
X2.6719 Z-0.0318 I-0.0781 J0.
X2.8281 Z-0.0343 I0.0781 J0.
X2.6719 Z-0.0367 I-0.0781 J0.
X2.8281 Z-0.0392 I0.0781 J0.
X2.6719 Z-0.0416 I-0.0781 J0.
X2.8281 Z-0.0441 I0.0781 J0.
X2.6719 Z-0.0465 I-0.0781 J0.
X2.8281 Z-0.049 I0.0781 J0.
X2.6719 Z-0.0515 I-0.0781 J0.
X2.8281 Z-0.0539 I0.0781 J0.
X2.6719 Z-0.0564 I-0.0781 J0.
X2.8281 Z-0.0588 I0.0781 J0.
X2.6719 Z-0.0613 I-0.0781 J0.
X2.8281 Z-0.0637 I0.0781 J0.
X2.6719 Z-0.0662 I-0.0781 J0.
X2.8281 Z-0.0686 I0.0781 J0.
X2.6719 Z-0.0711 I-0.0781 J0.
X2.8281 Z-0.0735 I0.0781 J0.
X2.6719 Z-0.076 I-0.0781 J0.
X2.8281 Z-0.0785 I0.0781 J0.
X2.6719 Z-0.0809 I-0.0781 J0.
X2.8281 Z-0.0834 I0.0781 J0.
X2.6719 Z-0.0858 I-0.0781 J0.
X2.8281 Z-0.0883 I0.0781 J0.
X2.6719 Z-0.0907 I-0.0781 J0.
X2.8281 Z-0.0932 I0.0781 J0.
X2.6719 Z-0.0956 I-0.0781 J0.
X2.8281 Z-0.0981 I0.0781 J0.
X2.6719 Z-0.1005 I-0.0781 J0.
X2.8281 Z-0.103 I0.0781 J0.
X2.6719 Z-0.1055 I-0.0781 J0.
X2.8281 Z-0.1079 I0.0781 J0.
X2.6719 Z-0.1104 I-0.0781 J0.
X2.8281 Z-0.1128 I0.0781 J0.
X2.6719 Z-0.1153 I-0.0781 J0.
X2.8281 Z-0.1177 I0.0781 J0.
X2.6719 Z-0.1202 I-0.0781 J0.
X2.8281 Z-0.1226 I0.0781 J0.
X2.6719 Z-0.1251 I-0.0781 J0.
X2.8281 Z-0.1275 I0.0781 J0.
X2.6719 Z-0.13 I-0.0781 J0.
X2.8281 Z-0.1325 I0.0781 J0.
X2.6719 Z-0.1349 I-0.0781 J0.
X2.8281 Z-0.1374 I0.0781 J0.
X2.6719 Z-0.1398 I-0.0781 J0.
X2.8281 Z-0.1423 I0.0781 J0.
X2.6719 Z-0.1447 I-0.0781 J0.
X2.8281 Z-0.1472 I0.0781 J0.
X2.6719 Z-0.1496 I-0.0781 J0.
X2.8281 Z-0.1521 I0.0781 J0.
X2.6719 Z-0.1545 I-0.0781 J0.
X2.8281 Z-0.157 I0.0781 J0.
X2.6719 Z-0.1595 I-0.0781 J0.
X2.8281 Z-0.1619 I0.0781 J0.
X2.6719 Z-0.1644 I-0.0781 J0.
X2.8281 Z-0.1668 I0.0781 J0.
X2.6719 Z-0.1693 I-0.0781 J0.
X2.8281 Z-0.1717 I0.0781 J0.
X2.6719 Z-0.1742 I-0.0781 J0.
X2.8281 Z-0.1766 I0.0781 J0.
X2.6719 Z-0.1791 I-0.0781 J0.
X2.8281 Z-0.1815 I0.0781 J0.
X2.7473 Y6.4219 Z-0.1828 I-0.0781 J0.
X2.6721 Y6.5055 Z-0.1841 I0.0027 J0.0781
X2.8279 Y6.4945 I0.0779 J-0.0055
X2.6721 Y6.5055 I-0.0779 J0.0055
X2.6854 Y6.5171 I0.0125 J-0.0009
G1 X2.6916 Y6.5166
X2.6944 Y6.5164 Z-0.1837
X2.6971 Y6.5163 Z-0.1828
X2.6994 Y6.5161 Z-0.1813
X2.7014 Y6.516 Z-0.1793
X2.7029 Y6.5158 Z-0.177
X2.7038 Z-0.1743
X2.7041 Z-0.1716
G0 Z0.2387
X1.7969 Y6.5125
Z0.1181
G1 Z0.0519 F39.4
G18 G2 X1.8094 Z0.0394 I0.0125 K0.
G1 X1.8156
G17 G2 X1.8281 Y6.5 I0. J-0.0125
X1.6719 Z0.0369 I-0.0781 J0.
X1.8281 Z0.0345 I0.0781 J0.
X1.6719 Z0.032 I-0.0781 J0.
X1.8281 Z0.0296 I0.0781 J0.
X1.6719 Z0.0271 I-0.0781 J0.
X1.8281 Z0.0246 I0.0781 J0.
X1.6719 Z0.0222 I-0.0781 J0.
X1.8281 Z0.0197 I0.0781 J0.
X1.6719 Z0.0173 I-0.0781 J0.
X1.8281 Z0.0148 I0.0781 J0.
X1.6719 Z0.0124 I-0.0781 J0.
X1.8281 Z0.0099 I0.0781 J0.
X1.6719 Z0.0075 I-0.0781 J0.
X1.8281 Z0.005 I0.0781 J0.
X1.6719 Z0.0026 I-0.0781 J0.
X1.8281 Z0.0001 I0.0781 J0.
X1.6719 Z-0.0024 I-0.0781 J0.
X1.8281 Z-0.0048 I0.0781 J0.
X1.6719 Z-0.0073 I-0.0781 J0.
X1.8281 Z-0.0097 I0.0781 J0.
X1.6719 Z-0.0122 I-0.0781 J0.
X1.8281 Z-0.0146 I0.0781 J0.
X1.6719 Z-0.0171 I-0.0781 J0.
X1.8281 Z-0.0195 I0.0781 J0.
X1.6719 Z-0.022 I-0.0781 J0.
X1.8281 Z-0.0245 I0.0781 J0.
X1.6719 Z-0.0269 I-0.0781 J0.
X1.8281 Z-0.0294 I0.0781 J0.
X1.6719 Z-0.0318 I-0.0781 J0.
X1.8281 Z-0.0343 I0.0781 J0.
X1.6719 Z-0.0367 I-0.0781 J0.
X1.8281 Z-0.0392 I0.0781 J0.
X1.6719 Z-0.0416 I-0.0781 J0.
X1.8281 Z-0.0441 I0.0781 J0.
X1.6719 Z-0.0465 I-0.0781 J0.
X1.8281 Z-0.049 I0.0781 J0.
X1.6719 Z-0.0515 I-0.0781 J0.
X1.8281 Z-0.0539 I0.0781 J0.
X1.6719 Z-0.0564 I-0.0781 J0.
X1.8281 Z-0.0588 I0.0781 J0.
X1.6719 Z-0.0613 I-0.0781 J0.
X1.8281 Z-0.0637 I0.0781 J0.
X1.6719 Z-0.0662 I-0.0781 J0.
X1.8281 Z-0.0686 I0.0781 J0.
X1.6719 Z-0.0711 I-0.0781 J0.
X1.8281 Z-0.0735 I0.0781 J0.
X1.6719 Z-0.076 I-0.0781 J0.
X1.8281 Z-0.0785 I0.0781 J0.
X1.6719 Z-0.0809 I-0.0781 J0.
X1.8281 Z-0.0834 I0.0781 J0.
X1.6719 Z-0.0858 I-0.0781 J0.
X1.8281 Z-0.0883 I0.0781 J0.
X1.6719 Z-0.0907 I-0.0781 J0.
X1.8281 Z-0.0932 I0.0781 J0.
X1.6719 Z-0.0956 I-0.0781 J0.
X1.8281 Z-0.0981 I0.0781 J0.
X1.6719 Z-0.1005 I-0.0781 J0.
X1.8281 Z-0.103 I0.0781 J0.
X1.6719 Z-0.1055 I-0.0781 J0.
X1.8281 Z-0.1079 I0.0781 J0.
X1.6719 Z-0.1104 I-0.0781 J0.
X1.8281 Z-0.1128 I0.0781 J0.
X1.6719 Z-0.1153 I-0.0781 J0.
X1.8281 Z-0.1177 I0.0781 J0.
X1.6719 Z-0.1202 I-0.0781 J0.
X1.8281 Z-0.1226 I0.0781 J0.
X1.6719 Z-0.1251 I-0.0781 J0.
X1.8281 Z-0.1275 I0.0781 J0.
X1.6719 Z-0.13 I-0.0781 J0.
X1.8281 Z-0.1325 I0.0781 J0.
X1.6719 Z-0.1349 I-0.0781 J0.
X1.8281 Z-0.1374 I0.0781 J0.
X1.6719 Z-0.1398 I-0.0781 J0.
X1.8281 Z-0.1423 I0.0781 J0.
X1.6719 Z-0.1447 I-0.0781 J0.
X1.8281 Z-0.1472 I0.0781 J0.
X1.6719 Z-0.1496 I-0.0781 J0.
X1.8281 Z-0.1521 I0.0781 J0.
X1.6719 Z-0.1545 I-0.0781 J0.
X1.8281 Z-0.157 I0.0781 J0.
X1.6719 Z-0.1595 I-0.0781 J0.
X1.8281 Z-0.1619 I0.0781 J0.
X1.6719 Z-0.1644 I-0.0781 J0.
X1.8281 Z-0.1668 I0.0781 J0.
X1.6719 Z-0.1693 I-0.0781 J0.
X1.8281 Z-0.1717 I0.0781 J0.
X1.6719 Z-0.1742 I-0.0781 J0.
X1.8281 Z-0.1766 I0.0781 J0.
X1.6719 Z-0.1791 I-0.0781 J0.
X1.8281 Z-0.1815 I0.0781 J0.
X1.7473 Y6.4219 Z-0.1828 I-0.0781 J0.
X1.6721 Y6.5055 Z-0.1841 I0.0027 J0.0781
X1.8279 Y6.4945 I0.0779 J-0.0055
X1.6721 Y6.5055 I-0.0779 J0.0055
X1.6854 Y6.5171 I0.0125 J-0.0009
G1 X1.6916 Y6.5166
X1.6944 Y6.5164 Z-0.1837
X1.6971 Y6.5163 Z-0.1828
X1.6994 Y6.5161 Z-0.1813
X1.7014 Y6.516 Z-0.1793
X1.7029 Y6.5158 Z-0.177
X1.7038 Z-0.1743
X1.7041 Z-0.1716
G0 Z0.2387
X1.7002 Y8.0929
Z0.1206
G1 Z0.0544 F39.4
G18 G3 X1.6877 Z0.0419 I-0.0125 K0.
G1 X1.6814
G17 G2 X1.6689 Y8.1054 I0. J0.0125
X1.8252 Z0.0394 I0.0781 J0.
X1.6689 Z0.037 I-0.0781 J0.
X1.8252 Z0.0345 I0.0781 J0.
X1.6689 Z0.0321 I-0.0781 J0.
X1.8252 Z0.0296 I0.0781 J0.
X1.6689 Z0.0271 I-0.0781 J0.
X1.8252 Z0.0247 I0.0781 J0.
X1.6689 Z0.0222 I-0.0781 J0.
X1.8252 Z0.0198 I0.0781 J0.
X1.6689 Z0.0173 I-0.0781 J0.
X1.8252 Z0.0149 I0.0781 J0.
X1.6689 Z0.0124 I-0.0781 J0.
X1.8252 Z0.01 I0.0781 J0.
X1.6689 Z0.0075 I-0.0781 J0.
X1.8252 Z0.005 I0.0781 J0.
X1.6689 Z0.0026 I-0.0781 J0.
X1.8252 Z0.0001 I0.0781 J0.
X1.6689 Z-0.0023 I-0.0781 J0.
X1.8252 Z-0.0048 I0.0781 J0.
X1.6689 Z-0.0072 I-0.0781 J0.
X1.8252 Z-0.0097 I0.0781 J0.
X1.6689 Z-0.0121 I-0.0781 J0.
X1.8252 Z-0.0146 I0.0781 J0.
X1.6689 Z-0.017 I-0.0781 J0.
X1.8252 Z-0.0195 I0.0781 J0.
X1.6689 Z-0.022 I-0.0781 J0.
X1.8252 Z-0.0244 I0.0781 J0.
X1.6689 Z-0.0269 I-0.0781 J0.
X1.8252 Z-0.0293 I0.0781 J0.
X1.6689 Z-0.0318 I-0.0781 J0.
X1.8252 Z-0.0342 I0.0781 J0.
X1.6689 Z-0.0367 I-0.0781 J0.
X1.8252 Z-0.0391 I0.0781 J0.
X1.6689 Z-0.0416 I-0.0781 J0.
X1.8252 Z-0.044 I0.0781 J0.
X1.6689 Z-0.0465 I-0.0781 J0.
X1.8252 Z-0.049 I0.0781 J0.
X1.6689 Z-0.0514 I-0.0781 J0.
X1.8252 Z-0.0539 I0.0781 J0.
X1.6689 Z-0.0563 I-0.0781 J0.
X1.8252 Z-0.0588 I0.0781 J0.
X1.6689 Z-0.0612 I-0.0781 J0.
X1.8252 Z-0.0637 I0.0781 J0.
X1.6689 Z-0.0661 I-0.0781 J0.
X1.8252 Z-0.0686 I0.0781 J0.
X1.6689 Z-0.071 I-0.0781 J0.
X1.8252 Z-0.0735 I0.0781 J0.
X1.6689 Z-0.076 I-0.0781 J0.
X1.8252 Z-0.0784 I0.0781 J0.
X1.6689 Z-0.0809 I-0.0781 J0.
X1.8252 Z-0.0833 I0.0781 J0.
X1.6689 Z-0.0858 I-0.0781 J0.
X1.8252 Z-0.0882 I0.0781 J0.
X1.6689 Z-0.0907 I-0.0781 J0.
X1.8252 Z-0.0931 I0.0781 J0.
X1.6689 Z-0.0956 I-0.0781 J0.
X1.8252 Z-0.098 I0.0781 J0.
X1.6689 Z-0.1005 I-0.0781 J0.
X1.8252 Z-0.103 I0.0781 J0.
X1.6689 Z-0.1054 I-0.0781 J0.
X1.8252 Z-0.1079 I0.0781 J0.
X1.6689 Z-0.1103 I-0.0781 J0.
X1.8252 Z-0.1128 I0.0781 J0.
X1.6689 Z-0.1152 I-0.0781 J0.
X1.8252 Z-0.1177 I0.0781 J0.
X1.6689 Z-0.1201 I-0.0781 J0.
X1.8252 Z-0.1226 I0.0781 J0.
X1.6689 Z-0.125 I-0.0781 J0.
X1.8252 Z-0.1275 I0.0781 J0.
X1.6689 Z-0.13 I-0.0781 J0.
X1.8252 Z-0.1324 I0.0781 J0.
X1.6689 Z-0.1349 I-0.0781 J0.
X1.8252 Z-0.1373 I0.0781 J0.
X1.6689 Z-0.1398 I-0.0781 J0.
X1.8252 Z-0.1422 I0.0781 J0.
X1.6689 Z-0.1447 I-0.0781 J0.
X1.8252 Z-0.1471 I0.0781 J0.
X1.6689 Z-0.1496 I-0.0781 J0.
X1.8252 Z-0.152 I0.0781 J0.
X1.6689 Z-0.1545 I-0.0781 J0.
X1.8252 Z-0.157 I0.0781 J0.
X1.6689 Z-0.1594 I-0.0781 J0.
X1.8252 Z-0.1619 I0.0781 J0.
X1.6689 Z-0.1643 I-0.0781 J0.
X1.8252 Z-0.1668 I0.0781 J0.
X1.6689 Z-0.1692 I-0.0781 J0.
X1.8252 Z-0.1717 I0.0781 J0.
X1.6689 Z-0.1741 I-0.0781 J0.
X1.8252 Z-0.1766 I0.0781 J0.
X1.6689 Z-0.179 I-0.0781 J0.
X1.7498 Y8.1834 Z-0.1803 I0.0781 J0.
X1.825 Y8.0999 Z-0.1816 I-0.0027 J-0.0781
X1.6691 Y8.1108 I-0.0779 J0.0055
X1.825 Y8.0999 I0.0779 J-0.0055
X1.8116 Y8.0883 I-0.0125 J0.0009
G1 X1.8054 Y8.0887
X1.8026 Y8.0889 Z-0.1812
X1.8 Y8.0891 Z-0.1803
X1.7976 Y8.0893 Z-0.1788
X1.7956 Y8.0894 Z-0.1769
X1.7942 Y8.0895 Z-0.1745
X1.7932 Y8.0896 Z-0.1718
X1.7929 Z-0.1691
G0 Z0.2387
X2.7002 Y8.0929
Z0.1206
G1 Z0.0544 F39.4
G18 G3 X2.6877 Z0.0419 I-0.0125 K0.
G1 X2.6814
G17 G2 X2.6689 Y8.1054 I0. J0.0125
X2.8252 Z0.0394 I0.0781 J0.
X2.6689 Z0.037 I-0.0781 J0.
X2.8252 Z0.0345 I0.0781 J0.
X2.6689 Z0.0321 I-0.0781 J0.
X2.8252 Z0.0296 I0.0781 J0.
X2.6689 Z0.0271 I-0.0781 J0.
X2.8252 Z0.0247 I0.0781 J0.
X2.6689 Z0.0222 I-0.0781 J0.
X2.8252 Z0.0198 I0.0781 J0.
X2.6689 Z0.0173 I-0.0781 J0.
X2.8252 Z0.0149 I0.0781 J0.
X2.6689 Z0.0124 I-0.0781 J0.
X2.8252 Z0.01 I0.0781 J0.
X2.6689 Z0.0075 I-0.0781 J0.
X2.8252 Z0.005 I0.0781 J0.
X2.6689 Z0.0026 I-0.0781 J0.
X2.8252 Z0.0001 I0.0781 J0.
X2.6689 Z-0.0023 I-0.0781 J0.
X2.8252 Z-0.0048 I0.0781 J0.
X2.6689 Z-0.0072 I-0.0781 J0.
X2.8252 Z-0.0097 I0.0781 J0.
X2.6689 Z-0.0121 I-0.0781 J0.
X2.8252 Z-0.0146 I0.0781 J0.
X2.6689 Z-0.017 I-0.0781 J0.
X2.8252 Z-0.0195 I0.0781 J0.
X2.6689 Z-0.022 I-0.0781 J0.
X2.8252 Z-0.0244 I0.0781 J0.
X2.6689 Z-0.0269 I-0.0781 J0.
X2.8252 Z-0.0293 I0.0781 J0.
X2.6689 Z-0.0318 I-0.0781 J0.
X2.8252 Z-0.0342 I0.0781 J0.
X2.6689 Z-0.0367 I-0.0781 J0.
X2.8252 Z-0.0391 I0.0781 J0.
X2.6689 Z-0.0416 I-0.0781 J0.
X2.8252 Z-0.044 I0.0781 J0.
X2.6689 Z-0.0465 I-0.0781 J0.
X2.8252 Z-0.049 I0.0781 J0.
X2.6689 Z-0.0514 I-0.0781 J0.
X2.8252 Z-0.0539 I0.0781 J0.
X2.6689 Z-0.0563 I-0.0781 J0.
X2.8252 Z-0.0588 I0.0781 J0.
X2.6689 Z-0.0612 I-0.0781 J0.
X2.8252 Z-0.0637 I0.0781 J0.
X2.6689 Z-0.0661 I-0.0781 J0.
X2.8252 Z-0.0686 I0.0781 J0.
X2.6689 Z-0.071 I-0.0781 J0.
X2.8252 Z-0.0735 I0.0781 J0.
X2.6689 Z-0.076 I-0.0781 J0.
X2.8252 Z-0.0784 I0.0781 J0.
X2.6689 Z-0.0809 I-0.0781 J0.
X2.8252 Z-0.0833 I0.0781 J0.
X2.6689 Z-0.0858 I-0.0781 J0.
X2.8252 Z-0.0882 I0.0781 J0.
X2.6689 Z-0.0907 I-0.0781 J0.
X2.8252 Z-0.0931 I0.0781 J0.
X2.6689 Z-0.0956 I-0.0781 J0.
X2.8252 Z-0.098 I0.0781 J0.
X2.6689 Z-0.1005 I-0.0781 J0.
X2.8252 Z-0.103 I0.0781 J0.
X2.6689 Z-0.1054 I-0.0781 J0.
X2.8252 Z-0.1079 I0.0781 J0.
X2.6689 Z-0.1103 I-0.0781 J0.
X2.8252 Z-0.1128 I0.0781 J0.
X2.6689 Z-0.1152 I-0.0781 J0.
X2.8252 Z-0.1177 I0.0781 J0.
X2.6689 Z-0.1201 I-0.0781 J0.
X2.8252 Z-0.1226 I0.0781 J0.
X2.6689 Z-0.125 I-0.0781 J0.
X2.8252 Z-0.1275 I0.0781 J0.
X2.6689 Z-0.13 I-0.0781 J0.
X2.8252 Z-0.1324 I0.0781 J0.
X2.6689 Z-0.1349 I-0.0781 J0.
X2.8252 Z-0.1373 I0.0781 J0.
X2.6689 Z-0.1398 I-0.0781 J0.
X2.8252 Z-0.1422 I0.0781 J0.
X2.6689 Z-0.1447 I-0.0781 J0.
X2.8252 Z-0.1471 I0.0781 J0.
X2.6689 Z-0.1496 I-0.0781 J0.
X2.8252 Z-0.152 I0.0781 J0.
X2.6689 Z-0.1545 I-0.0781 J0.
X2.8252 Z-0.157 I0.0781 J0.
X2.6689 Z-0.1594 I-0.0781 J0.
X2.8252 Z-0.1619 I0.0781 J0.
X2.6689 Z-0.1643 I-0.0781 J0.
X2.8252 Z-0.1668 I0.0781 J0.
X2.6689 Z-0.1692 I-0.0781 J0.
X2.8252 Z-0.1717 I0.0781 J0.
X2.6689 Z-0.1741 I-0.0781 J0.
X2.8252 Z-0.1766 I0.0781 J0.
X2.6689 Z-0.179 I-0.0781 J0.
X2.7498 Y8.1834 Z-0.1803 I0.0781 J0.
X2.825 Y8.0999 Z-0.1816 I-0.0027 J-0.0781
X2.6691 Y8.1108 I-0.0779 J0.0055
X2.825 Y8.0999 I0.0779 J-0.0055
X2.8116 Y8.0883 I-0.0125 J0.0009
G1 X2.8054 Y8.0887
X2.8026 Y8.0889 Z-0.1812
X2.8 Y8.0891 Z-0.1803
X2.7976 Y8.0893 Z-0.1788
X2.7956 Y8.0894 Z-0.1769
X2.7942 Y8.0895 Z-0.1745
X2.7932 Y8.0896 Z-0.1718
X2.7929 Z-0.1691
G0 Z0.2387
X2.7002 Y9.0929
Z0.1206
G1 Z0.0544 F39.4
G18 G3 X2.6877 Z0.0419 I-0.0125 K0.
G1 X2.6814
G17 G2 X2.6689 Y9.1054 I0. J0.0125
X2.8252 Z0.0394 I0.0781 J0.
X2.6689 Z0.037 I-0.0781 J0.
X2.8252 Z0.0345 I0.0781 J0.
X2.6689 Z0.0321 I-0.0781 J0.
X2.8252 Z0.0296 I0.0781 J0.
X2.6689 Z0.0271 I-0.0781 J0.
X2.8252 Z0.0247 I0.0781 J0.
X2.6689 Z0.0222 I-0.0781 J0.
X2.8252 Z0.0198 I0.0781 J0.
X2.6689 Z0.0173 I-0.0781 J0.
X2.8252 Z0.0149 I0.0781 J0.
X2.6689 Z0.0124 I-0.0781 J0.
X2.8252 Z0.01 I0.0781 J0.
X2.6689 Z0.0075 I-0.0781 J0.
X2.8252 Z0.005 I0.0781 J0.
X2.6689 Z0.0026 I-0.0781 J0.
X2.8252 Z0.0001 I0.0781 J0.
X2.6689 Z-0.0023 I-0.0781 J0.
X2.8252 Z-0.0048 I0.0781 J0.
X2.6689 Z-0.0072 I-0.0781 J0.
X2.8252 Z-0.0097 I0.0781 J0.
X2.6689 Z-0.0121 I-0.0781 J0.
X2.8252 Z-0.0146 I0.0781 J0.
X2.6689 Z-0.017 I-0.0781 J0.
X2.8252 Z-0.0195 I0.0781 J0.
X2.6689 Z-0.022 I-0.0781 J0.
X2.8252 Z-0.0244 I0.0781 J0.
X2.6689 Z-0.0269 I-0.0781 J0.
X2.8252 Z-0.0293 I0.0781 J0.
X2.6689 Z-0.0318 I-0.0781 J0.
X2.8252 Z-0.0342 I0.0781 J0.
X2.6689 Z-0.0367 I-0.0781 J0.
X2.8252 Z-0.0391 I0.0781 J0.
X2.6689 Z-0.0416 I-0.0781 J0.
X2.8252 Z-0.044 I0.0781 J0.
X2.6689 Z-0.0465 I-0.0781 J0.
X2.8252 Z-0.049 I0.0781 J0.
X2.6689 Z-0.0514 I-0.0781 J0.
X2.8252 Z-0.0539 I0.0781 J0.
X2.6689 Z-0.0563 I-0.0781 J0.
X2.8252 Z-0.0588 I0.0781 J0.
X2.6689 Z-0.0612 I-0.0781 J0.
X2.8252 Z-0.0637 I0.0781 J0.
X2.6689 Z-0.0661 I-0.0781 J0.
X2.8252 Z-0.0686 I0.0781 J0.
X2.6689 Z-0.071 I-0.0781 J0.
X2.8252 Z-0.0735 I0.0781 J0.
X2.6689 Z-0.076 I-0.0781 J0.
X2.8252 Z-0.0784 I0.0781 J0.
X2.6689 Z-0.0809 I-0.0781 J0.
X2.8252 Z-0.0833 I0.0781 J0.
X2.6689 Z-0.0858 I-0.0781 J0.
X2.8252 Z-0.0882 I0.0781 J0.
X2.6689 Z-0.0907 I-0.0781 J0.
X2.8252 Z-0.0931 I0.0781 J0.
X2.6689 Z-0.0956 I-0.0781 J0.
X2.8252 Z-0.098 I0.0781 J0.
X2.6689 Z-0.1005 I-0.0781 J0.
X2.8252 Z-0.103 I0.0781 J0.
X2.6689 Z-0.1054 I-0.0781 J0.
X2.8252 Z-0.1079 I0.0781 J0.
X2.6689 Z-0.1103 I-0.0781 J0.
X2.8252 Z-0.1128 I0.0781 J0.
X2.6689 Z-0.1152 I-0.0781 J0.
X2.8252 Z-0.1177 I0.0781 J0.
X2.6689 Z-0.1201 I-0.0781 J0.
X2.8252 Z-0.1226 I0.0781 J0.
X2.6689 Z-0.125 I-0.0781 J0.
X2.8252 Z-0.1275 I0.0781 J0.
X2.6689 Z-0.13 I-0.0781 J0.
X2.8252 Z-0.1324 I0.0781 J0.
X2.6689 Z-0.1349 I-0.0781 J0.
X2.8252 Z-0.1373 I0.0781 J0.
X2.6689 Z-0.1398 I-0.0781 J0.
X2.8252 Z-0.1422 I0.0781 J0.
X2.6689 Z-0.1447 I-0.0781 J0.
X2.8252 Z-0.1471 I0.0781 J0.
X2.6689 Z-0.1496 I-0.0781 J0.
X2.8252 Z-0.152 I0.0781 J0.
X2.6689 Z-0.1545 I-0.0781 J0.
X2.8252 Z-0.157 I0.0781 J0.
X2.6689 Z-0.1594 I-0.0781 J0.
X2.8252 Z-0.1619 I0.0781 J0.
X2.6689 Z-0.1643 I-0.0781 J0.
X2.8252 Z-0.1668 I0.0781 J0.
X2.6689 Z-0.1692 I-0.0781 J0.
X2.8252 Z-0.1717 I0.0781 J0.
X2.6689 Z-0.1741 I-0.0781 J0.
X2.8252 Z-0.1766 I0.0781 J0.
X2.6689 Z-0.179 I-0.0781 J0.
X2.7498 Y9.1834 Z-0.1803 I0.0781 J0.
X2.825 Y9.0999 Z-0.1816 I-0.0027 J-0.0781
X2.6691 Y9.1108 I-0.0779 J0.0055
X2.825 Y9.0999 I0.0779 J-0.0055
X2.8116 Y9.0883 I-0.0125 J0.0009
G1 X2.8054 Y9.0887
X2.8026 Y9.0889 Z-0.1812
X2.8 Y9.0891 Z-0.1803
X2.7976 Y9.0893 Z-0.1788
X2.7956 Y9.0894 Z-0.1769
X2.7942 Y9.0895 Z-0.1745
X2.7932 Y9.0896 Z-0.1718
X2.7929 Z-0.1691
G0 Z0.2387
X1.7002 Y9.0929
Z0.1206
G1 Z0.0544 F39.4
G18 G3 X1.6877 Z0.0419 I-0.0125 K0.
G1 X1.6814
G17 G2 X1.6689 Y9.1054 I0. J0.0125
X1.8252 Z0.0394 I0.0781 J0.
X1.6689 Z0.037 I-0.0781 J0.
X1.8252 Z0.0345 I0.0781 J0.
X1.6689 Z0.0321 I-0.0781 J0.
X1.8252 Z0.0296 I0.0781 J0.
X1.6689 Z0.0271 I-0.0781 J0.
X1.8252 Z0.0247 I0.0781 J0.
X1.6689 Z0.0222 I-0.0781 J0.
X1.8252 Z0.0198 I0.0781 J0.
X1.6689 Z0.0173 I-0.0781 J0.
X1.8252 Z0.0149 I0.0781 J0.
X1.6689 Z0.0124 I-0.0781 J0.
X1.8252 Z0.01 I0.0781 J0.
X1.6689 Z0.0075 I-0.0781 J0.
X1.8252 Z0.005 I0.0781 J0.
X1.6689 Z0.0026 I-0.0781 J0.
X1.8252 Z0.0001 I0.0781 J0.
X1.6689 Z-0.0023 I-0.0781 J0.
X1.8252 Z-0.0048 I0.0781 J0.
X1.6689 Z-0.0072 I-0.0781 J0.
X1.8252 Z-0.0097 I0.0781 J0.
X1.6689 Z-0.0121 I-0.0781 J0.
X1.8252 Z-0.0146 I0.0781 J0.
X1.6689 Z-0.017 I-0.0781 J0.
X1.8252 Z-0.0195 I0.0781 J0.
X1.6689 Z-0.022 I-0.0781 J0.
X1.8252 Z-0.0244 I0.0781 J0.
X1.6689 Z-0.0269 I-0.0781 J0.
X1.8252 Z-0.0293 I0.0781 J0.
X1.6689 Z-0.0318 I-0.0781 J0.
X1.8252 Z-0.0342 I0.0781 J0.
X1.6689 Z-0.0367 I-0.0781 J0.
X1.8252 Z-0.0391 I0.0781 J0.
X1.6689 Z-0.0416 I-0.0781 J0.
X1.8252 Z-0.044 I0.0781 J0.
X1.6689 Z-0.0465 I-0.0781 J0.
X1.8252 Z-0.049 I0.0781 J0.
X1.6689 Z-0.0514 I-0.0781 J0.
X1.8252 Z-0.0539 I0.0781 J0.
X1.6689 Z-0.0563 I-0.0781 J0.
X1.8252 Z-0.0588 I0.0781 J0.
X1.6689 Z-0.0612 I-0.0781 J0.
X1.8252 Z-0.0637 I0.0781 J0.
X1.6689 Z-0.0661 I-0.0781 J0.
X1.8252 Z-0.0686 I0.0781 J0.
X1.6689 Z-0.071 I-0.0781 J0.
X1.8252 Z-0.0735 I0.0781 J0.
X1.6689 Z-0.076 I-0.0781 J0.
X1.8252 Z-0.0784 I0.0781 J0.
X1.6689 Z-0.0809 I-0.0781 J0.
X1.8252 Z-0.0833 I0.0781 J0.
X1.6689 Z-0.0858 I-0.0781 J0.
X1.8252 Z-0.0882 I0.0781 J0.
X1.6689 Z-0.0907 I-0.0781 J0.
X1.8252 Z-0.0931 I0.0781 J0.
X1.6689 Z-0.0956 I-0.0781 J0.
X1.8252 Z-0.098 I0.0781 J0.
X1.6689 Z-0.1005 I-0.0781 J0.
X1.8252 Z-0.103 I0.0781 J0.
X1.6689 Z-0.1054 I-0.0781 J0.
X1.8252 Z-0.1079 I0.0781 J0.
X1.6689 Z-0.1103 I-0.0781 J0.
X1.8252 Z-0.1128 I0.0781 J0.
X1.6689 Z-0.1152 I-0.0781 J0.
X1.8252 Z-0.1177 I0.0781 J0.
X1.6689 Z-0.1201 I-0.0781 J0.
X1.8252 Z-0.1226 I0.0781 J0.
X1.6689 Z-0.125 I-0.0781 J0.
X1.8252 Z-0.1275 I0.0781 J0.
X1.6689 Z-0.13 I-0.0781 J0.
X1.8252 Z-0.1324 I0.0781 J0.
X1.6689 Z-0.1349 I-0.0781 J0.
X1.8252 Z-0.1373 I0.0781 J0.
X1.6689 Z-0.1398 I-0.0781 J0.
X1.8252 Z-0.1422 I0.0781 J0.
X1.6689 Z-0.1447 I-0.0781 J0.
X1.8252 Z-0.1471 I0.0781 J0.
X1.6689 Z-0.1496 I-0.0781 J0.
X1.8252 Z-0.152 I0.0781 J0.
X1.6689 Z-0.1545 I-0.0781 J0.
X1.8252 Z-0.157 I0.0781 J0.
X1.6689 Z-0.1594 I-0.0781 J0.
X1.8252 Z-0.1619 I0.0781 J0.
X1.6689 Z-0.1643 I-0.0781 J0.
X1.8252 Z-0.1668 I0.0781 J0.
X1.6689 Z-0.1692 I-0.0781 J0.
X1.8252 Z-0.1717 I0.0781 J0.
X1.6689 Z-0.1741 I-0.0781 J0.
X1.8252 Z-0.1766 I0.0781 J0.
X1.6689 Z-0.179 I-0.0781 J0.
X1.7498 Y9.1834 Z-0.1803 I0.0781 J0.
X1.825 Y9.0999 Z-0.1816 I-0.0027 J-0.0781
X1.6691 Y9.1108 I-0.0779 J0.0055
X1.825 Y9.0999 I0.0779 J-0.0055
X1.8116 Y9.0883 I-0.0125 J0.0009
G1 X1.8054 Y9.0887
X1.8026 Y9.0889 Z-0.1812
X1.8 Y9.0891 Z-0.1803
X1.7976 Y9.0893 Z-0.1788
X1.7956 Y9.0894 Z-0.1769
X1.7942 Y9.0895 Z-0.1745
X1.7932 Y9.0896 Z-0.1718
X1.7929 Z-0.1691
G0 Z0.2387
X1.7002 Y10.0929
Z0.1206
G1 Z0.0544 F39.4
G18 G3 X1.6877 Z0.0419 I-0.0125 K0.
G1 X1.6814
G17 G2 X1.6689 Y10.1054 I0. J0.0125
X1.8252 Z0.0394 I0.0781 J0.
X1.6689 Z0.037 I-0.0781 J0.
X1.8252 Z0.0345 I0.0781 J0.
X1.6689 Z0.0321 I-0.0781 J0.
X1.8252 Z0.0296 I0.0781 J0.
X1.6689 Z0.0271 I-0.0781 J0.
X1.8252 Z0.0247 I0.0781 J0.
X1.6689 Z0.0222 I-0.0781 J0.
X1.8252 Z0.0198 I0.0781 J0.
X1.6689 Z0.0173 I-0.0781 J0.
X1.8252 Z0.0149 I0.0781 J0.
X1.6689 Z0.0124 I-0.0781 J0.
X1.8252 Z0.01 I0.0781 J0.
X1.6689 Z0.0075 I-0.0781 J0.
X1.8252 Z0.005 I0.0781 J0.
X1.6689 Z0.0026 I-0.0781 J0.
X1.8252 Z0.0001 I0.0781 J0.
X1.6689 Z-0.0023 I-0.0781 J0.
X1.8252 Z-0.0048 I0.0781 J0.
X1.6689 Z-0.0072 I-0.0781 J0.
X1.8252 Z-0.0097 I0.0781 J0.
X1.6689 Z-0.0121 I-0.0781 J0.
X1.8252 Z-0.0146 I0.0781 J0.
X1.6689 Z-0.017 I-0.0781 J0.
X1.8252 Z-0.0195 I0.0781 J0.
X1.6689 Z-0.022 I-0.0781 J0.
X1.8252 Z-0.0244 I0.0781 J0.
X1.6689 Z-0.0269 I-0.0781 J0.
X1.8252 Z-0.0293 I0.0781 J0.
X1.6689 Z-0.0318 I-0.0781 J0.
X1.8252 Z-0.0342 I0.0781 J0.
X1.6689 Z-0.0367 I-0.0781 J0.
X1.8252 Z-0.0391 I0.0781 J0.
X1.6689 Z-0.0416 I-0.0781 J0.
X1.8252 Z-0.044 I0.0781 J0.
X1.6689 Z-0.0465 I-0.0781 J0.
X1.8252 Z-0.049 I0.0781 J0.
X1.6689 Z-0.0514 I-0.0781 J0.
X1.8252 Z-0.0539 I0.0781 J0.
X1.6689 Z-0.0563 I-0.0781 J0.
X1.8252 Z-0.0588 I0.0781 J0.
X1.6689 Z-0.0612 I-0.0781 J0.
X1.8252 Z-0.0637 I0.0781 J0.
X1.6689 Z-0.0661 I-0.0781 J0.
X1.8252 Z-0.0686 I0.0781 J0.
X1.6689 Z-0.071 I-0.0781 J0.
X1.8252 Z-0.0735 I0.0781 J0.
X1.6689 Z-0.076 I-0.0781 J0.
X1.8252 Z-0.0784 I0.0781 J0.
X1.6689 Z-0.0809 I-0.0781 J0.
X1.8252 Z-0.0833 I0.0781 J0.
X1.6689 Z-0.0858 I-0.0781 J0.
X1.8252 Z-0.0882 I0.0781 J0.
X1.6689 Z-0.0907 I-0.0781 J0.
X1.8252 Z-0.0931 I0.0781 J0.
X1.6689 Z-0.0956 I-0.0781 J0.
X1.8252 Z-0.098 I0.0781 J0.
X1.6689 Z-0.1005 I-0.0781 J0.
X1.8252 Z-0.103 I0.0781 J0.
X1.6689 Z-0.1054 I-0.0781 J0.
X1.8252 Z-0.1079 I0.0781 J0.
X1.6689 Z-0.1103 I-0.0781 J0.
X1.8252 Z-0.1128 I0.0781 J0.
X1.6689 Z-0.1152 I-0.0781 J0.
X1.8252 Z-0.1177 I0.0781 J0.
X1.6689 Z-0.1201 I-0.0781 J0.
X1.8252 Z-0.1226 I0.0781 J0.
X1.6689 Z-0.125 I-0.0781 J0.
X1.8252 Z-0.1275 I0.0781 J0.
X1.6689 Z-0.13 I-0.0781 J0.
X1.8252 Z-0.1324 I0.0781 J0.
X1.6689 Z-0.1349 I-0.0781 J0.
X1.8252 Z-0.1373 I0.0781 J0.
X1.6689 Z-0.1398 I-0.0781 J0.
X1.8252 Z-0.1422 I0.0781 J0.
X1.6689 Z-0.1447 I-0.0781 J0.
X1.8252 Z-0.1471 I0.0781 J0.
X1.6689 Z-0.1496 I-0.0781 J0.
X1.8252 Z-0.152 I0.0781 J0.
X1.6689 Z-0.1545 I-0.0781 J0.
X1.8252 Z-0.157 I0.0781 J0.
X1.6689 Z-0.1594 I-0.0781 J0.
X1.8252 Z-0.1619 I0.0781 J0.
X1.6689 Z-0.1643 I-0.0781 J0.
X1.8252 Z-0.1668 I0.0781 J0.
X1.6689 Z-0.1692 I-0.0781 J0.
X1.8252 Z-0.1717 I0.0781 J0.
X1.6689 Z-0.1741 I-0.0781 J0.
X1.8252 Z-0.1766 I0.0781 J0.
X1.6689 Z-0.179 I-0.0781 J0.
X1.7498 Y10.1834 Z-0.1803 I0.0781 J0.
X1.825 Y10.0999 Z-0.1816 I-0.0027 J-0.0781
X1.6691 Y10.1108 I-0.0779 J0.0055
X1.825 Y10.0999 I0.0779 J-0.0055
X1.8116 Y10.0883 I-0.0125 J0.0009
G1 X1.8054 Y10.0887
X1.8026 Y10.0889 Z-0.1812
X1.8 Y10.0891 Z-0.1803
X1.7976 Y10.0893 Z-0.1788
X1.7956 Y10.0894 Z-0.1769
X1.7942 Y10.0895 Z-0.1745
X1.7932 Y10.0896 Z-0.1718
X1.7929 Z-0.1691
G0 Z0.2387
X2.7002 Y10.0929
Z0.1206
G1 Z0.0544 F39.4
G18 G3 X2.6877 Z0.0419 I-0.0125 K0.
G1 X2.6814
G17 G2 X2.6689 Y10.1054 I0. J0.0125
X2.8252 Z0.0394 I0.0781 J0.
X2.6689 Z0.037 I-0.0781 J0.
X2.8252 Z0.0345 I0.0781 J0.
X2.6689 Z0.0321 I-0.0781 J0.
X2.8252 Z0.0296 I0.0781 J0.
X2.6689 Z0.0271 I-0.0781 J0.
X2.8252 Z0.0247 I0.0781 J0.
X2.6689 Z0.0222 I-0.0781 J0.
X2.8252 Z0.0198 I0.0781 J0.
X2.6689 Z0.0173 I-0.0781 J0.
X2.8252 Z0.0149 I0.0781 J0.
X2.6689 Z0.0124 I-0.0781 J0.
X2.8252 Z0.01 I0.0781 J0.
X2.6689 Z0.0075 I-0.0781 J0.
X2.8252 Z0.005 I0.0781 J0.
X2.6689 Z0.0026 I-0.0781 J0.
X2.8252 Z0.0001 I0.0781 J0.
X2.6689 Z-0.0023 I-0.0781 J0.
X2.8252 Z-0.0048 I0.0781 J0.
X2.6689 Z-0.0072 I-0.0781 J0.
X2.8252 Z-0.0097 I0.0781 J0.
X2.6689 Z-0.0121 I-0.0781 J0.
X2.8252 Z-0.0146 I0.0781 J0.
X2.6689 Z-0.017 I-0.0781 J0.
X2.8252 Z-0.0195 I0.0781 J0.
X2.6689 Z-0.022 I-0.0781 J0.
X2.8252 Z-0.0244 I0.0781 J0.
X2.6689 Z-0.0269 I-0.0781 J0.
X2.8252 Z-0.0293 I0.0781 J0.
X2.6689 Z-0.0318 I-0.0781 J0.
X2.8252 Z-0.0342 I0.0781 J0.
X2.6689 Z-0.0367 I-0.0781 J0.
X2.8252 Z-0.0391 I0.0781 J0.
X2.6689 Z-0.0416 I-0.0781 J0.
X2.8252 Z-0.044 I0.0781 J0.
X2.6689 Z-0.0465 I-0.0781 J0.
X2.8252 Z-0.049 I0.0781 J0.
X2.6689 Z-0.0514 I-0.0781 J0.
X2.8252 Z-0.0539 I0.0781 J0.
X2.6689 Z-0.0563 I-0.0781 J0.
X2.8252 Z-0.0588 I0.0781 J0.
X2.6689 Z-0.0612 I-0.0781 J0.
X2.8252 Z-0.0637 I0.0781 J0.
X2.6689 Z-0.0661 I-0.0781 J0.
X2.8252 Z-0.0686 I0.0781 J0.
X2.6689 Z-0.071 I-0.0781 J0.
X2.8252 Z-0.0735 I0.0781 J0.
X2.6689 Z-0.076 I-0.0781 J0.
X2.8252 Z-0.0784 I0.0781 J0.
X2.6689 Z-0.0809 I-0.0781 J0.
X2.8252 Z-0.0833 I0.0781 J0.
X2.6689 Z-0.0858 I-0.0781 J0.
X2.8252 Z-0.0882 I0.0781 J0.
X2.6689 Z-0.0907 I-0.0781 J0.
X2.8252 Z-0.0931 I0.0781 J0.
X2.6689 Z-0.0956 I-0.0781 J0.
X2.8252 Z-0.098 I0.0781 J0.
X2.6689 Z-0.1005 I-0.0781 J0.
X2.8252 Z-0.103 I0.0781 J0.
X2.6689 Z-0.1054 I-0.0781 J0.
X2.8252 Z-0.1079 I0.0781 J0.
X2.6689 Z-0.1103 I-0.0781 J0.
X2.8252 Z-0.1128 I0.0781 J0.
X2.6689 Z-0.1152 I-0.0781 J0.
X2.8252 Z-0.1177 I0.0781 J0.
X2.6689 Z-0.1201 I-0.0781 J0.
X2.8252 Z-0.1226 I0.0781 J0.
X2.6689 Z-0.125 I-0.0781 J0.
X2.8252 Z-0.1275 I0.0781 J0.
X2.6689 Z-0.13 I-0.0781 J0.
X2.8252 Z-0.1324 I0.0781 J0.
X2.6689 Z-0.1349 I-0.0781 J0.
X2.8252 Z-0.1373 I0.0781 J0.
X2.6689 Z-0.1398 I-0.0781 J0.
X2.8252 Z-0.1422 I0.0781 J0.
X2.6689 Z-0.1447 I-0.0781 J0.
X2.8252 Z-0.1471 I0.0781 J0.
X2.6689 Z-0.1496 I-0.0781 J0.
X2.8252 Z-0.152 I0.0781 J0.
X2.6689 Z-0.1545 I-0.0781 J0.
X2.8252 Z-0.157 I0.0781 J0.
X2.6689 Z-0.1594 I-0.0781 J0.
X2.8252 Z-0.1619 I0.0781 J0.
X2.6689 Z-0.1643 I-0.0781 J0.
X2.8252 Z-0.1668 I0.0781 J0.
X2.6689 Z-0.1692 I-0.0781 J0.
X2.8252 Z-0.1717 I0.0781 J0.
X2.6689 Z-0.1741 I-0.0781 J0.
X2.8252 Z-0.1766 I0.0781 J0.
X2.6689 Z-0.179 I-0.0781 J0.
X2.7498 Y10.1834 Z-0.1803 I0.0781 J0.
X2.825 Y10.0999 Z-0.1816 I-0.0027 J-0.0781
X2.6691 Y10.1108 I-0.0779 J0.0055
X2.825 Y10.0999 I0.0779 J-0.0055
X2.8116 Y10.0883 I-0.0125 J0.0009
G1 X2.8054 Y10.0887
X2.8026 Y10.0889 Z-0.1812
X2.8 Y10.0891 Z-0.1803
X2.7976 Y10.0893 Z-0.1788
X2.7956 Y10.0894 Z-0.1769
X2.7942 Y10.0895 Z-0.1745
X2.7932 Y10.0896 Z-0.1718
X2.7929 Z-0.1691
G0 Z0.2387
X2.7002 Y11.0929
Z0.1206
G1 Z0.0544 F39.4
G18 G3 X2.6877 Z0.0419 I-0.0125 K0.
G1 X2.6814
G17 G2 X2.6689 Y11.1054 I0. J0.0125
X2.8252 Z0.0394 I0.0781 J0.
X2.6689 Z0.037 I-0.0781 J0.
X2.8252 Z0.0345 I0.0781 J0.
X2.6689 Z0.0321 I-0.0781 J0.
X2.8252 Z0.0296 I0.0781 J0.
X2.6689 Z0.0271 I-0.0781 J0.
X2.8252 Z0.0247 I0.0781 J0.
X2.6689 Z0.0222 I-0.0781 J0.
X2.8252 Z0.0198 I0.0781 J0.
X2.6689 Z0.0173 I-0.0781 J0.
X2.8252 Z0.0149 I0.0781 J0.
X2.6689 Z0.0124 I-0.0781 J0.
X2.8252 Z0.01 I0.0781 J0.
X2.6689 Z0.0075 I-0.0781 J0.
X2.8252 Z0.005 I0.0781 J0.
X2.6689 Z0.0026 I-0.0781 J0.
X2.8252 Z0.0001 I0.0781 J0.
X2.6689 Z-0.0023 I-0.0781 J0.
X2.8252 Z-0.0048 I0.0781 J0.
X2.6689 Z-0.0072 I-0.0781 J0.
X2.8252 Z-0.0097 I0.0781 J0.
X2.6689 Z-0.0121 I-0.0781 J0.
X2.8252 Z-0.0146 I0.0781 J0.
X2.6689 Z-0.017 I-0.0781 J0.
X2.8252 Z-0.0195 I0.0781 J0.
X2.6689 Z-0.022 I-0.0781 J0.
X2.8252 Z-0.0244 I0.0781 J0.
X2.6689 Z-0.0269 I-0.0781 J0.
X2.8252 Z-0.0293 I0.0781 J0.
X2.6689 Z-0.0318 I-0.0781 J0.
X2.8252 Z-0.0342 I0.0781 J0.
X2.6689 Z-0.0367 I-0.0781 J0.
X2.8252 Z-0.0391 I0.0781 J0.
X2.6689 Z-0.0416 I-0.0781 J0.
X2.8252 Z-0.044 I0.0781 J0.
X2.6689 Z-0.0465 I-0.0781 J0.
X2.8252 Z-0.049 I0.0781 J0.
X2.6689 Z-0.0514 I-0.0781 J0.
X2.8252 Z-0.0539 I0.0781 J0.
X2.6689 Z-0.0563 I-0.0781 J0.
X2.8252 Z-0.0588 I0.0781 J0.
X2.6689 Z-0.0612 I-0.0781 J0.
X2.8252 Z-0.0637 I0.0781 J0.
X2.6689 Z-0.0661 I-0.0781 J0.
X2.8252 Z-0.0686 I0.0781 J0.
X2.6689 Z-0.071 I-0.0781 J0.
X2.8252 Z-0.0735 I0.0781 J0.
X2.6689 Z-0.076 I-0.0781 J0.
X2.8252 Z-0.0784 I0.0781 J0.
X2.6689 Z-0.0809 I-0.0781 J0.
X2.8252 Z-0.0833 I0.0781 J0.
X2.6689 Z-0.0858 I-0.0781 J0.
X2.8252 Z-0.0882 I0.0781 J0.
X2.6689 Z-0.0907 I-0.0781 J0.
X2.8252 Z-0.0931 I0.0781 J0.
X2.6689 Z-0.0956 I-0.0781 J0.
X2.8252 Z-0.098 I0.0781 J0.
X2.6689 Z-0.1005 I-0.0781 J0.
X2.8252 Z-0.103 I0.0781 J0.
X2.6689 Z-0.1054 I-0.0781 J0.
X2.8252 Z-0.1079 I0.0781 J0.
X2.6689 Z-0.1103 I-0.0781 J0.
X2.8252 Z-0.1128 I0.0781 J0.
X2.6689 Z-0.1152 I-0.0781 J0.
X2.8252 Z-0.1177 I0.0781 J0.
X2.6689 Z-0.1201 I-0.0781 J0.
X2.8252 Z-0.1226 I0.0781 J0.
X2.6689 Z-0.125 I-0.0781 J0.
X2.8252 Z-0.1275 I0.0781 J0.
X2.6689 Z-0.13 I-0.0781 J0.
X2.8252 Z-0.1324 I0.0781 J0.
X2.6689 Z-0.1349 I-0.0781 J0.
X2.8252 Z-0.1373 I0.0781 J0.
X2.6689 Z-0.1398 I-0.0781 J0.
X2.8252 Z-0.1422 I0.0781 J0.
X2.6689 Z-0.1447 I-0.0781 J0.
X2.8252 Z-0.1471 I0.0781 J0.
X2.6689 Z-0.1496 I-0.0781 J0.
X2.8252 Z-0.152 I0.0781 J0.
X2.6689 Z-0.1545 I-0.0781 J0.
X2.8252 Z-0.157 I0.0781 J0.
X2.6689 Z-0.1594 I-0.0781 J0.
X2.8252 Z-0.1619 I0.0781 J0.
X2.6689 Z-0.1643 I-0.0781 J0.
X2.8252 Z-0.1668 I0.0781 J0.
X2.6689 Z-0.1692 I-0.0781 J0.
X2.8252 Z-0.1717 I0.0781 J0.
X2.6689 Z-0.1741 I-0.0781 J0.
X2.8252 Z-0.1766 I0.0781 J0.
X2.6689 Z-0.179 I-0.0781 J0.
X2.7498 Y11.1834 Z-0.1803 I0.0781 J0.
X2.825 Y11.0999 Z-0.1816 I-0.0027 J-0.0781
X2.6691 Y11.1108 I-0.0779 J0.0055
X2.825 Y11.0999 I0.0779 J-0.0055
X2.8116 Y11.0883 I-0.0125 J0.0009
G1 X2.8054 Y11.0887
X2.8026 Y11.0889 Z-0.1812
X2.8 Y11.0891 Z-0.1803
X2.7976 Y11.0893 Z-0.1788
X2.7956 Y11.0894 Z-0.1769
X2.7942 Y11.0895 Z-0.1745
X2.7932 Y11.0896 Z-0.1718
X2.7929 Z-0.1691
G0 Z0.2387
X1.7002 Y11.0929
Z0.1206
G1 Z0.0544 F39.4
G18 G3 X1.6877 Z0.0419 I-0.0125 K0.
G1 X1.6814
G17 G2 X1.6689 Y11.1054 I0. J0.0125
X1.8252 Z0.0394 I0.0781 J0.
X1.6689 Z0.037 I-0.0781 J0.
X1.8252 Z0.0345 I0.0781 J0.
X1.6689 Z0.0321 I-0.0781 J0.
X1.8252 Z0.0296 I0.0781 J0.
X1.6689 Z0.0271 I-0.0781 J0.
X1.8252 Z0.0247 I0.0781 J0.
X1.6689 Z0.0222 I-0.0781 J0.
X1.8252 Z0.0198 I0.0781 J0.
X1.6689 Z0.0173 I-0.0781 J0.
X1.8252 Z0.0149 I0.0781 J0.
X1.6689 Z0.0124 I-0.0781 J0.
X1.8252 Z0.01 I0.0781 J0.
X1.6689 Z0.0075 I-0.0781 J0.
X1.8252 Z0.005 I0.0781 J0.
X1.6689 Z0.0026 I-0.0781 J0.
X1.8252 Z0.0001 I0.0781 J0.
X1.6689 Z-0.0023 I-0.0781 J0.
X1.8252 Z-0.0048 I0.0781 J0.
X1.6689 Z-0.0072 I-0.0781 J0.
X1.8252 Z-0.0097 I0.0781 J0.
X1.6689 Z-0.0121 I-0.0781 J0.
X1.8252 Z-0.0146 I0.0781 J0.
X1.6689 Z-0.017 I-0.0781 J0.
X1.8252 Z-0.0195 I0.0781 J0.
X1.6689 Z-0.022 I-0.0781 J0.
X1.8252 Z-0.0244 I0.0781 J0.
X1.6689 Z-0.0269 I-0.0781 J0.
X1.8252 Z-0.0293 I0.0781 J0.
X1.6689 Z-0.0318 I-0.0781 J0.
X1.8252 Z-0.0342 I0.0781 J0.
X1.6689 Z-0.0367 I-0.0781 J0.
X1.8252 Z-0.0391 I0.0781 J0.
X1.6689 Z-0.0416 I-0.0781 J0.
X1.8252 Z-0.044 I0.0781 J0.
X1.6689 Z-0.0465 I-0.0781 J0.
X1.8252 Z-0.049 I0.0781 J0.
X1.6689 Z-0.0514 I-0.0781 J0.
X1.8252 Z-0.0539 I0.0781 J0.
X1.6689 Z-0.0563 I-0.0781 J0.
X1.8252 Z-0.0588 I0.0781 J0.
X1.6689 Z-0.0612 I-0.0781 J0.
X1.8252 Z-0.0637 I0.0781 J0.
X1.6689 Z-0.0661 I-0.0781 J0.
X1.8252 Z-0.0686 I0.0781 J0.
X1.6689 Z-0.071 I-0.0781 J0.
X1.8252 Z-0.0735 I0.0781 J0.
X1.6689 Z-0.076 I-0.0781 J0.
X1.8252 Z-0.0784 I0.0781 J0.
X1.6689 Z-0.0809 I-0.0781 J0.
X1.8252 Z-0.0833 I0.0781 J0.
X1.6689 Z-0.0858 I-0.0781 J0.
X1.8252 Z-0.0882 I0.0781 J0.
X1.6689 Z-0.0907 I-0.0781 J0.
X1.8252 Z-0.0931 I0.0781 J0.
X1.6689 Z-0.0956 I-0.0781 J0.
X1.8252 Z-0.098 I0.0781 J0.
X1.6689 Z-0.1005 I-0.0781 J0.
X1.8252 Z-0.103 I0.0781 J0.
X1.6689 Z-0.1054 I-0.0781 J0.
X1.8252 Z-0.1079 I0.0781 J0.
X1.6689 Z-0.1103 I-0.0781 J0.
X1.8252 Z-0.1128 I0.0781 J0.
X1.6689 Z-0.1152 I-0.0781 J0.
X1.8252 Z-0.1177 I0.0781 J0.
X1.6689 Z-0.1201 I-0.0781 J0.
X1.8252 Z-0.1226 I0.0781 J0.
X1.6689 Z-0.125 I-0.0781 J0.
X1.8252 Z-0.1275 I0.0781 J0.
X1.6689 Z-0.13 I-0.0781 J0.
X1.8252 Z-0.1324 I0.0781 J0.
X1.6689 Z-0.1349 I-0.0781 J0.
X1.8252 Z-0.1373 I0.0781 J0.
X1.6689 Z-0.1398 I-0.0781 J0.
X1.8252 Z-0.1422 I0.0781 J0.
X1.6689 Z-0.1447 I-0.0781 J0.
X1.8252 Z-0.1471 I0.0781 J0.
X1.6689 Z-0.1496 I-0.0781 J0.
X1.8252 Z-0.152 I0.0781 J0.
X1.6689 Z-0.1545 I-0.0781 J0.
X1.8252 Z-0.157 I0.0781 J0.
X1.6689 Z-0.1594 I-0.0781 J0.
X1.8252 Z-0.1619 I0.0781 J0.
X1.6689 Z-0.1643 I-0.0781 J0.
X1.8252 Z-0.1668 I0.0781 J0.
X1.6689 Z-0.1692 I-0.0781 J0.
X1.8252 Z-0.1717 I0.0781 J0.
X1.6689 Z-0.1741 I-0.0781 J0.
X1.8252 Z-0.1766 I0.0781 J0.
X1.6689 Z-0.179 I-0.0781 J0.
X1.7498 Y11.1834 Z-0.1803 I0.0781 J0.
X1.825 Y11.0999 Z-0.1816 I-0.0027 J-0.0781
X1.6691 Y11.1108 I-0.0779 J0.0055
X1.825 Y11.0999 I0.0779 J-0.0055
X1.8116 Y11.0883 I-0.0125 J0.0009
G1 X1.8054 Y11.0887
X1.8026 Y11.0889 Z-0.1812
X1.8 Y11.0891 Z-0.1803
X1.7976 Y11.0893 Z-0.1788
X1.7956 Y11.0894 Z-0.1769
X1.7942 Y11.0895 Z-0.1745
X1.7932 Y11.0896 Z-0.1718
X1.7929 Z-0.1691
G0 Z0.2387
X0.997 Y14.0929
Z0.1206
G1 Z0.0544 F39.4
G18 G3 X0.9845 Z0.0419 I-0.0125 K0.
G1 X0.9783
G17 G2 X0.9658 Y14.1054 I0. J0.0125
X1.122 Z0.0394 I0.0781 J0.
X0.9658 Z0.037 I-0.0781 J0.
X1.122 Z0.0345 I0.0781 J0.
X0.9658 Z0.0321 I-0.0781 J0.
X1.122 Z0.0296 I0.0781 J0.
X0.9658 Z0.0271 I-0.0781 J0.
X1.122 Z0.0247 I0.0781 J0.
X0.9658 Z0.0222 I-0.0781 J0.
X1.122 Z0.0198 I0.0781 J0.
X0.9658 Z0.0173 I-0.0781 J0.
X1.122 Z0.0149 I0.0781 J0.
X0.9658 Z0.0124 I-0.0781 J0.
X1.122 Z0.01 I0.0781 J0.
X0.9658 Z0.0075 I-0.0781 J0.
X1.122 Z0.005 I0.0781 J0.
X0.9658 Z0.0026 I-0.0781 J0.
X1.122 Z0.0001 I0.0781 J0.
X0.9658 Z-0.0023 I-0.0781 J0.
X1.122 Z-0.0048 I0.0781 J0.
X0.9658 Z-0.0072 I-0.0781 J0.
X1.122 Z-0.0097 I0.0781 J0.
X0.9658 Z-0.0121 I-0.0781 J0.
X1.122 Z-0.0146 I0.0781 J0.
X0.9658 Z-0.017 I-0.0781 J0.
X1.122 Z-0.0195 I0.0781 J0.
X0.9658 Z-0.022 I-0.0781 J0.
X1.122 Z-0.0244 I0.0781 J0.
X0.9658 Z-0.0269 I-0.0781 J0.
X1.122 Z-0.0293 I0.0781 J0.
X0.9658 Z-0.0318 I-0.0781 J0.
X1.122 Z-0.0342 I0.0781 J0.
X0.9658 Z-0.0367 I-0.0781 J0.
X1.122 Z-0.0391 I0.0781 J0.
X0.9658 Z-0.0416 I-0.0781 J0.
X1.122 Z-0.044 I0.0781 J0.
X0.9658 Z-0.0465 I-0.0781 J0.
X1.122 Z-0.049 I0.0781 J0.
X0.9658 Z-0.0514 I-0.0781 J0.
X1.122 Z-0.0539 I0.0781 J0.
X0.9658 Z-0.0563 I-0.0781 J0.
X1.122 Z-0.0588 I0.0781 J0.
X0.9658 Z-0.0612 I-0.0781 J0.
X1.122 Z-0.0637 I0.0781 J0.
X0.9658 Z-0.0661 I-0.0781 J0.
X1.122 Z-0.0686 I0.0781 J0.
X0.9658 Z-0.071 I-0.0781 J0.
X1.122 Z-0.0735 I0.0781 J0.
X0.9658 Z-0.076 I-0.0781 J0.
X1.122 Z-0.0784 I0.0781 J0.
X0.9658 Z-0.0809 I-0.0781 J0.
X1.122 Z-0.0833 I0.0781 J0.
X0.9658 Z-0.0858 I-0.0781 J0.
X1.122 Z-0.0882 I0.0781 J0.
X0.9658 Z-0.0907 I-0.0781 J0.
X1.122 Z-0.0931 I0.0781 J0.
X0.9658 Z-0.0956 I-0.0781 J0.
X1.122 Z-0.098 I0.0781 J0.
X0.9658 Z-0.1005 I-0.0781 J0.
X1.122 Z-0.103 I0.0781 J0.
X0.9658 Z-0.1054 I-0.0781 J0.
X1.122 Z-0.1079 I0.0781 J0.
X0.9658 Z-0.1103 I-0.0781 J0.
X1.122 Z-0.1128 I0.0781 J0.
X0.9658 Z-0.1152 I-0.0781 J0.
X1.122 Z-0.1177 I0.0781 J0.
X0.9658 Z-0.1201 I-0.0781 J0.
X1.122 Z-0.1226 I0.0781 J0.
X0.9658 Z-0.125 I-0.0781 J0.
X1.122 Z-0.1275 I0.0781 J0.
X0.9658 Z-0.13 I-0.0781 J0.
X1.122 Z-0.1324 I0.0781 J0.
X0.9658 Z-0.1349 I-0.0781 J0.
X1.122 Z-0.1373 I0.0781 J0.
X0.9658 Z-0.1398 I-0.0781 J0.
X1.122 Z-0.1422 I0.0781 J0.
X0.9658 Z-0.1447 I-0.0781 J0.
X1.122 Z-0.1471 I0.0781 J0.
X0.9658 Z-0.1496 I-0.0781 J0.
X1.122 Z-0.152 I0.0781 J0.
X0.9658 Z-0.1545 I-0.0781 J0.
X1.122 Z-0.157 I0.0781 J0.
X0.9658 Z-0.1594 I-0.0781 J0.
X1.122 Z-0.1619 I0.0781 J0.
X0.9658 Z-0.1643 I-0.0781 J0.
X1.122 Z-0.1668 I0.0781 J0.
X0.9658 Z-0.1692 I-0.0781 J0.
X1.122 Z-0.1717 I0.0781 J0.
X0.9658 Z-0.1741 I-0.0781 J0.
X1.122 Z-0.1766 I0.0781 J0.
X0.9658 Z-0.179 I-0.0781 J0.
X1.0467 Y14.1834 Z-0.1803 I0.0781 J0.
X1.1219 Y14.0999 Z-0.1816 I-0.0027 J-0.0781
X0.966 Y14.1108 I-0.0779 J0.0055
X1.1219 Y14.0999 I0.0779 J-0.0055
X1.1085 Y14.0883 I-0.0125 J0.0009
G1 X1.1023 Y14.0887
X1.0995 Y14.0889 Z-0.1812
X1.0969 Y14.0891 Z-0.1803
X1.0945 Y14.0893 Z-0.1788
X1.0925 Y14.0894 Z-0.1769
X1.091 Y14.0895 Z-0.1745
X1.0901 Y14.0896 Z-0.1718
X1.0898 Z-0.1691
G0 Z0.2387
X3.4033 Y14.0929
Z0.1206
G1 Z0.0544 F39.4
G18 G3 X3.3908 Z0.0419 I-0.0125 K0.
G1 X3.3845
G17 G2 X3.372 Y14.1054 I0. J0.0125
X3.5283 Z0.0394 I0.0781 J0.
X3.372 Z0.037 I-0.0781 J0.
X3.5283 Z0.0345 I0.0781 J0.
X3.372 Z0.0321 I-0.0781 J0.
X3.5283 Z0.0296 I0.0781 J0.
X3.372 Z0.0271 I-0.0781 J0.
X3.5283 Z0.0247 I0.0781 J0.
X3.372 Z0.0222 I-0.0781 J0.
X3.5283 Z0.0198 I0.0781 J0.
X3.372 Z0.0173 I-0.0781 J0.
X3.5283 Z0.0149 I0.0781 J0.
X3.372 Z0.0124 I-0.0781 J0.
X3.5283 Z0.01 I0.0781 J0.
X3.372 Z0.0075 I-0.0781 J0.
X3.5283 Z0.005 I0.0781 J0.
X3.372 Z0.0026 I-0.0781 J0.
X3.5283 Z0.0001 I0.0781 J0.
X3.372 Z-0.0023 I-0.0781 J0.
X3.5283 Z-0.0048 I0.0781 J0.
X3.372 Z-0.0072 I-0.0781 J0.
X3.5283 Z-0.0097 I0.0781 J0.
X3.372 Z-0.0121 I-0.0781 J0.
X3.5283 Z-0.0146 I0.0781 J0.
X3.372 Z-0.017 I-0.0781 J0.
X3.5283 Z-0.0195 I0.0781 J0.
X3.372 Z-0.022 I-0.0781 J0.
X3.5283 Z-0.0244 I0.0781 J0.
X3.372 Z-0.0269 I-0.0781 J0.
X3.5283 Z-0.0293 I0.0781 J0.
X3.372 Z-0.0318 I-0.0781 J0.
X3.5283 Z-0.0342 I0.0781 J0.
X3.372 Z-0.0367 I-0.0781 J0.
X3.5283 Z-0.0391 I0.0781 J0.
X3.372 Z-0.0416 I-0.0781 J0.
X3.5283 Z-0.044 I0.0781 J0.
X3.372 Z-0.0465 I-0.0781 J0.
X3.5283 Z-0.049 I0.0781 J0.
X3.372 Z-0.0514 I-0.0781 J0.
X3.5283 Z-0.0539 I0.0781 J0.
X3.372 Z-0.0563 I-0.0781 J0.
X3.5283 Z-0.0588 I0.0781 J0.
X3.372 Z-0.0612 I-0.0781 J0.
X3.5283 Z-0.0637 I0.0781 J0.
X3.372 Z-0.0661 I-0.0781 J0.
X3.5283 Z-0.0686 I0.0781 J0.
X3.372 Z-0.071 I-0.0781 J0.
X3.5283 Z-0.0735 I0.0781 J0.
X3.372 Z-0.076 I-0.0781 J0.
X3.5283 Z-0.0784 I0.0781 J0.
X3.372 Z-0.0809 I-0.0781 J0.
X3.5283 Z-0.0833 I0.0781 J0.
X3.372 Z-0.0858 I-0.0781 J0.
X3.5283 Z-0.0882 I0.0781 J0.
X3.372 Z-0.0907 I-0.0781 J0.
X3.5283 Z-0.0931 I0.0781 J0.
X3.372 Z-0.0956 I-0.0781 J0.
X3.5283 Z-0.098 I0.0781 J0.
X3.372 Z-0.1005 I-0.0781 J0.
X3.5283 Z-0.103 I0.0781 J0.
X3.372 Z-0.1054 I-0.0781 J0.
X3.5283 Z-0.1079 I0.0781 J0.
X3.372 Z-0.1103 I-0.0781 J0.
X3.5283 Z-0.1128 I0.0781 J0.
X3.372 Z-0.1152 I-0.0781 J0.
X3.5283 Z-0.1177 I0.0781 J0.
X3.372 Z-0.1201 I-0.0781 J0.
X3.5283 Z-0.1226 I0.0781 J0.
X3.372 Z-0.125 I-0.0781 J0.
X3.5283 Z-0.1275 I0.0781 J0.
X3.372 Z-0.13 I-0.0781 J0.
X3.5283 Z-0.1324 I0.0781 J0.
X3.372 Z-0.1349 I-0.0781 J0.
X3.5283 Z-0.1373 I0.0781 J0.
X3.372 Z-0.1398 I-0.0781 J0.
X3.5283 Z-0.1422 I0.0781 J0.
X3.372 Z-0.1447 I-0.0781 J0.
X3.5283 Z-0.1471 I0.0781 J0.
X3.372 Z-0.1496 I-0.0781 J0.
X3.5283 Z-0.152 I0.0781 J0.
X3.372 Z-0.1545 I-0.0781 J0.
X3.5283 Z-0.157 I0.0781 J0.
X3.372 Z-0.1594 I-0.0781 J0.
X3.5283 Z-0.1619 I0.0781 J0.
X3.372 Z-0.1643 I-0.0781 J0.
X3.5283 Z-0.1668 I0.0781 J0.
X3.372 Z-0.1692 I-0.0781 J0.
X3.5283 Z-0.1717 I0.0781 J0.
X3.372 Z-0.1741 I-0.0781 J0.
X3.5283 Z-0.1766 I0.0781 J0.
X3.372 Z-0.179 I-0.0781 J0.
X3.4529 Y14.1834 Z-0.1803 I0.0781 J0.
X3.5281 Y14.0999 Z-0.1816 I-0.0027 J-0.0781
X3.3722 Y14.1108 I-0.0779 J0.0055
X3.5281 Y14.0999 I0.0779 J-0.0055
X3.5148 Y14.0883 I-0.0125 J0.0009
G1 X3.5085 Y14.0887
X3.5057 Y14.0889 Z-0.1812
X3.5031 Y14.0891 Z-0.1803
X3.5007 Y14.0893 Z-0.1788
X3.4988 Y14.0894 Z-0.1769
X3.4973 Y14.0895 Z-0.1745
X3.4964 Y14.0896 Z-0.1718
X3.4961 Z-0.1691
G0 Z0.6324
M5
G0 Z15
G0 X0 Y0

M9
M30
