(1001)
(T1  D=3.175 CR=0. - ZMIN=-6.176 - FLAT END MILL)
G90 G94 G91.1 G40 G49 G17
G21
G0 Z15

(BORE1)
M5
T1 M6
S15000 M3
G54
M8
G0 X46.244 Y14.177
G43 Z15. H1
Z0.499
G1 Z-1.183 F800.
G18 G2 X46.561 Z-1.501 I0.317 K0.
G1 X46.72
G17 G2 X47.037 Y13.859 I0. J-0.318
X43.863 Z-1.529 I-1.587 J0.
X47.037 Z-1.556 I1.587 J0.
X43.863 Z-1.584 I-1.587 J0.
X47.037 Z-1.612 I1.587 J0.
X43.863 Z-1.639 I-1.587 J0.
X47.037 Z-1.667 I1.587 J0.
X43.863 Z-1.695 I-1.587 J0.
X47.037 Z-1.723 I1.587 J0.
X43.863 Z-1.75 I-1.587 J0.
X47.037 Z-1.778 I1.587 J0.
X43.863 Z-1.806 I-1.587 J0.
X47.037 Z-1.833 I1.587 J0.
X43.863 Z-1.861 I-1.587 J0.
X47.037 Z-1.889 I1.587 J0.
X43.863 Z-1.917 I-1.587 J0.
X47.037 Z-1.944 I1.587 J0.
X43.863 Z-1.972 I-1.587 J0.
X47.037 Z-2. I1.587 J0.
X43.863 Z-2.027 I-1.587 J0.
X47.037 Z-2.055 I1.587 J0.
X43.863 Z-2.083 I-1.587 J0.
X47.037 Z-2.11 I1.587 J0.
X43.863 Z-2.138 I-1.587 J0.
X47.037 Z-2.166 I1.587 J0.
X43.863 Z-2.194 I-1.587 J0.
X47.037 Z-2.221 I1.587 J0.
X43.863 Z-2.249 I-1.587 J0.
X47.037 Z-2.277 I1.587 J0.
X43.863 Z-2.304 I-1.587 J0.
X47.037 Z-2.332 I1.587 J0.
X43.863 Z-2.36 I-1.587 J0.
X47.037 Z-2.388 I1.587 J0.
X43.863 Z-2.415 I-1.587 J0.
X47.037 Z-2.443 I1.587 J0.
X43.863 Z-2.471 I-1.587 J0.
X47.037 Z-2.498 I1.587 J0.
X43.863 Z-2.526 I-1.587 J0.
X47.037 Z-2.554 I1.587 J0.
X43.863 Z-2.582 I-1.587 J0.
X47.037 Z-2.609 I1.587 J0.
X43.863 Z-2.637 I-1.587 J0.
X47.037 Z-2.665 I1.587 J0.
X43.863 Z-2.692 I-1.587 J0.
X47.037 Z-2.72 I1.587 J0.
X43.863 Z-2.748 I-1.587 J0.
X47.037 Z-2.775 I1.587 J0.
X43.863 Z-2.803 I-1.587 J0.
X47.037 Z-2.831 I1.587 J0.
X43.863 Z-2.859 I-1.587 J0.
X47.037 Z-2.886 I1.587 J0.
X43.863 Z-2.914 I-1.587 J0.
X47.037 Z-2.942 I1.587 J0.
X43.863 Z-2.969 I-1.587 J0.
X47.037 Z-2.997 I1.587 J0.
X43.863 Z-3.025 I-1.587 J0.
X47.037 Z-3.053 I1.587 J0.
X43.863 Z-3.08 I-1.587 J0.
X47.037 Z-3.108 I1.587 J0.
X43.863 Z-3.136 I-1.587 J0.
X47.037 Z-3.163 I1.587 J0.
X43.863 Z-3.191 I-1.587 J0.
X47.037 Z-3.219 I1.587 J0.
X43.863 Z-3.247 I-1.587 J0.
X47.037 Z-3.274 I1.587 J0.
X43.863 Z-3.302 I-1.587 J0.
X47.037 Z-3.33 I1.587 J0.
X43.863 Z-3.357 I-1.587 J0.
X47.037 Z-3.385 I1.587 J0.
X43.863 Z-3.413 I-1.587 J0.
X47.037 Z-3.44 I1.587 J0.
X43.863 Z-3.468 I-1.587 J0.
X47.037 Z-3.496 I1.587 J0.
X43.863 Z-3.524 I-1.587 J0.
X47.037 Z-3.551 I1.587 J0.
X43.863 Z-3.579 I-1.587 J0.
X47.037 Z-3.607 I1.587 J0.
X43.863 Z-3.634 I-1.587 J0.
X47.037 Z-3.662 I1.587 J0.
X43.863 Z-3.69 I-1.587 J0.
X47.037 Z-3.718 I1.587 J0.
X43.863 Z-3.745 I-1.587 J0.
X47.037 Z-3.773 I1.587 J0.
X43.863 Z-3.801 I-1.587 J0.
X47.037 Z-3.828 I1.587 J0.
X43.863 Z-3.856 I-1.587 J0.
X47.037 Z-3.884 I1.587 J0.
X43.863 Z-3.911 I-1.587 J0.
X47.037 Z-3.939 I1.587 J0.
X43.863 Z-3.967 I-1.587 J0.
X47.037 Z-3.995 I1.587 J0.
X43.863 Z-4.022 I-1.587 J0.
X47.037 Z-4.05 I1.587 J0.
X43.863 Z-4.078 I-1.587 J0.
X47.037 Z-4.105 I1.587 J0.
X43.863 Z-4.133 I-1.587 J0.
X47.037 Z-4.161 I1.587 J0.
X43.863 Z-4.189 I-1.587 J0.
X47.037 Z-4.216 I1.587 J0.
X43.863 Z-4.244 I-1.587 J0.
X47.037 Z-4.272 I1.587 J0.
X43.863 Z-4.299 I-1.587 J0.
X47.037 Z-4.327 I1.587 J0.
X43.863 Z-4.355 I-1.587 J0.
X47.037 Z-4.383 I1.587 J0.
X43.863 Z-4.41 I-1.587 J0.
X47.037 Z-4.438 I1.587 J0.
X43.863 Z-4.466 I-1.587 J0.
X47.037 Z-4.493 I1.587 J0.
X43.863 Z-4.521 I-1.587 J0.
X47.037 Z-4.549 I1.587 J0.
X43.863 Z-4.576 I-1.587 J0.
X47.037 Z-4.604 I1.587 J0.
X43.863 Z-4.632 I-1.587 J0.
X47.037 Z-4.66 I1.587 J0.
X43.863 Z-4.687 I-1.587 J0.
X47.037 Z-4.715 I1.587 J0.
X43.863 Z-4.743 I-1.587 J0.
X47.037 Z-4.77 I1.587 J0.
X43.863 Z-4.798 I-1.587 J0.
X47.037 Z-4.826 I1.587 J0.
X43.863 Z-4.854 I-1.587 J0.
X47.037 Z-4.881 I1.587 J0.
X43.863 Z-4.909 I-1.587 J0.
X47.037 Z-4.937 I1.587 J0.
X43.863 Z-4.964 I-1.587 J0.
X47.037 Z-4.992 I1.587 J0.
X43.863 Z-5.02 I-1.587 J0.
X47.037 Z-5.048 I1.587 J0.
X43.863 Z-5.075 I-1.587 J0.
X47.037 Z-5.103 I1.587 J0.
X43.863 Z-5.131 I-1.587 J0.
X47.037 Z-5.158 I1.587 J0.
X43.863 Z-5.186 I-1.587 J0.
X47.037 Z-5.214 I1.587 J0.
X43.863 Z-5.241 I-1.587 J0.
X47.037 Z-5.269 I1.587 J0.
X43.863 Z-5.297 I-1.587 J0.
X47.037 Z-5.325 I1.587 J0.
X43.863 Z-5.352 I-1.587 J0.
X47.037 Z-5.38 I1.587 J0.
X43.863 Z-5.408 I-1.587 J0.
X47.037 Z-5.435 I1.587 J0.
X43.863 Z-5.463 I-1.587 J0.
X47.037 Z-5.491 I1.587 J0.
X43.863 Z-5.519 I-1.587 J0.
X47.037 Z-5.546 I1.587 J0.
X43.863 Z-5.574 I-1.587 J0.
X47.037 Z-5.602 I1.587 J0.
X43.863 Z-5.629 I-1.587 J0.
X47.037 Z-5.657 I1.587 J0.
X43.863 Z-5.685 I-1.587 J0.
X47.037 Z-5.713 I1.587 J0.
X43.863 Z-5.74 I-1.587 J0.
X47.037 Z-5.768 I1.587 J0.
X43.863 Z-5.796 I-1.587 J0.
X47.038 Z-5.823 I1.587 J0.
X43.863 Z-5.851 I-1.587 J0.
X47.038 Z-5.879 I1.587 J0.
X43.863 Z-5.906 I-1.587 J0.
X47.038 Z-5.934 I1.587 J0.
X43.863 Z-5.962 I-1.587 J0.
X47.038 Z-5.99 I1.587 J0.
X43.863 Z-6.017 I-1.587 J0.
X47.038 Z-6.045 I1.587 J0.
X43.863 Z-6.073 I-1.587 J0.
X47.038 Z-6.1 I1.587 J0.
X43.863 Z-6.128 I-1.587 J0.
X47.038 Z-6.156 I1.587 J0.
X44.419 Y12.652 Z-6.176 I-1.587 J0.
X46.481 Y15.067 I1.031 J1.207
X44.419 Y12.652 I-1.031 J-1.207
X44.384 Y13.1 I0.206 J0.241
G1 X44.487 Y13.221
X44.533 Y13.274 Z-6.168
X44.576 Y13.325 Z-6.144
X44.615 Y13.371 Z-6.107
X44.648 Y13.409 Z-6.056
X44.673 Y13.438 Z-5.996
X44.688 Y13.456 Z-5.929
X44.693 Y13.462 Z-5.858
G0 Z5.
X47.831 Y14.177
Z0.499
G1 Z-1.183 F800.
G18 G2 X48.149 Z-1.501 I0.318 K0.
G1 X48.307
G17 G2 X48.625 Y13.859 I0. J-0.318
X42.275 Z-1.542 I-3.175 J0.
X48.625 Z-1.584 I3.175 J0.
X42.275 Z-1.626 I-3.175 J0.
X48.625 Z-1.667 I3.175 J0.
X42.275 Z-1.709 I-3.175 J0.
X48.625 Z-1.75 I3.175 J0.
X42.275 Z-1.792 I-3.175 J0.
X48.625 Z-1.833 I3.175 J0.
X42.275 Z-1.875 I-3.175 J0.
X48.625 Z-1.917 I3.175 J0.
X42.275 Z-1.958 I-3.175 J0.
X48.625 Z-2. I3.175 J0.
X42.275 Z-2.041 I-3.175 J0.
X48.625 Z-2.083 I3.175 J0.
X42.275 Z-2.124 I-3.175 J0.
X48.625 Z-2.166 I3.175 J0.
X42.275 Z-2.207 I-3.175 J0.
X48.625 Z-2.249 I3.175 J0.
X42.275 Z-2.291 I-3.175 J0.
X48.625 Z-2.332 I3.175 J0.
X42.275 Z-2.374 I-3.175 J0.
X48.625 Z-2.415 I3.175 J0.
X42.275 Z-2.457 I-3.175 J0.
X48.625 Z-2.498 I3.175 J0.
X42.275 Z-2.54 I-3.175 J0.
X48.625 Z-2.582 I3.175 J0.
X42.275 Z-2.623 I-3.175 J0.
X48.625 Z-2.665 I3.175 J0.
X42.275 Z-2.706 I-3.175 J0.
X48.625 Z-2.748 I3.175 J0.
X42.275 Z-2.789 I-3.175 J0.
X48.625 Z-2.831 I3.175 J0.
X42.275 Z-2.872 I-3.175 J0.
X48.625 Z-2.914 I3.175 J0.
X42.275 Z-2.956 I-3.175 J0.
X48.625 Z-2.997 I3.175 J0.
X42.275 Z-3.039 I-3.175 J0.
X48.625 Z-3.08 I3.175 J0.
X42.275 Z-3.122 I-3.175 J0.
X48.625 Z-3.163 I3.175 J0.
X42.275 Z-3.205 I-3.175 J0.
X48.625 Z-3.247 I3.175 J0.
X42.275 Z-3.288 I-3.175 J0.
X48.625 Z-3.33 I3.175 J0.
X42.275 Z-3.371 I-3.175 J0.
X48.625 Z-3.413 I3.175 J0.
X42.275 Z-3.454 I-3.175 J0.
X48.625 Z-3.496 I3.175 J0.
X42.275 Z-3.537 I-3.175 J0.
X48.625 Z-3.579 I3.175 J0.
X42.275 Z-3.621 I-3.175 J0.
X48.625 Z-3.662 I3.175 J0.
X42.275 Z-3.704 I-3.175 J0.
X48.625 Z-3.745 I3.175 J0.
X42.275 Z-3.787 I-3.175 J0.
X48.625 Z-3.828 I3.175 J0.
X42.275 Z-3.87 I-3.175 J0.
X48.625 Z-3.911 I3.175 J0.
X42.275 Z-3.953 I-3.175 J0.
X48.625 Z-3.995 I3.175 J0.
X42.275 Z-4.036 I-3.175 J0.
X48.625 Z-4.078 I3.175 J0.
X42.275 Z-4.119 I-3.175 J0.
X48.625 Z-4.161 I3.175 J0.
X42.275 Z-4.202 I-3.175 J0.
X48.625 Z-4.244 I3.175 J0.
X42.275 Z-4.286 I-3.175 J0.
X48.625 Z-4.327 I3.175 J0.
X42.275 Z-4.369 I-3.175 J0.
X48.625 Z-4.41 I3.175 J0.
X42.275 Z-4.452 I-3.175 J0.
X48.625 Z-4.493 I3.175 J0.
X42.275 Z-4.535 I-3.175 J0.
X48.625 Z-4.576 I3.175 J0.
X42.275 Z-4.618 I-3.175 J0.
X48.625 Z-4.66 I3.175 J0.
X42.275 Z-4.701 I-3.175 J0.
X48.625 Z-4.743 I3.175 J0.
X42.275 Z-4.784 I-3.175 J0.
X48.625 Z-4.826 I3.175 J0.
X42.275 Z-4.867 I-3.175 J0.
X48.625 Z-4.909 I3.175 J0.
X42.275 Z-4.951 I-3.175 J0.
X48.625 Z-4.992 I3.175 J0.
X42.275 Z-5.034 I-3.175 J0.
X48.625 Z-5.075 I3.175 J0.
X42.275 Z-5.117 I-3.175 J0.
X48.625 Z-5.158 I3.175 J0.
X42.275 Z-5.2 I-3.175 J0.
X48.625 Z-5.241 I3.175 J0.
X42.275 Z-5.283 I-3.175 J0.
X48.625 Z-5.325 I3.175 J0.
X42.275 Z-5.366 I-3.175 J0.
X48.625 Z-5.408 I3.175 J0.
X42.275 Z-5.449 I-3.175 J0.
X48.625 Z-5.491 I3.175 J0.
X42.275 Z-5.532 I-3.175 J0.
X48.625 Z-5.574 I3.175 J0.
X42.275 Z-5.616 I-3.175 J0.
X48.625 Z-5.657 I3.175 J0.
X42.275 Z-5.699 I-3.175 J0.
X48.625 Z-5.74 I3.175 J0.
X42.275 Z-5.782 I-3.175 J0.
X48.625 Z-5.823 I3.175 J0.
X42.275 Z-5.865 I-3.175 J0.
X48.625 Z-5.906 I3.175 J0.
X42.275 Z-5.948 I-3.175 J0.
X48.625 Z-5.99 I3.175 J0.
X42.275 Z-6.031 I-3.175 J0.
X48.625 Z-6.073 I3.175 J0.
X42.275 Z-6.114 I-3.175 J0.
X48.625 Z-6.156 I3.175 J0.
X45.616 Y10.689 Z-6.176 I-3.175 J0.
X45.284 Y17.03 I-0.166 J3.171
X45.616 Y10.689 I0.166 J-3.171
X45.282 Y10.989 I-0.017 J0.317
G1 X45.274 Y11.148
X45.27 Y11.218 Z-6.168
X45.267 Y11.285 Z-6.144
X45.264 Y11.345 Z-6.107
X45.261 Y11.396 Z-6.056
X45.259 Y11.433 Z-5.996
X45.258 Y11.457 Z-5.929
X45.257 Y11.465 Z-5.858
G0 Z5.
X49.419 Y14.177
Z0.499
G1 Z-1.183 F800.
G18 G2 X49.736 Z-1.501 I0.318 K0.
G1 X49.895
G17 G2 X50.213 Y13.859 I0. J-0.318
X40.688 Z-1.556 I-4.763 J0.
X50.213 Z-1.612 I4.763 J0.
X40.688 Z-1.667 I-4.763 J0.
X50.213 Z-1.723 I4.763 J0.
X40.688 Z-1.778 I-4.763 J0.
X50.213 Z-1.833 I4.763 J0.
X40.688 Z-1.889 I-4.763 J0.
X50.213 Z-1.944 I4.763 J0.
X40.688 Z-2. I-4.763 J0.
X50.213 Z-2.055 I4.763 J0.
X40.688 Z-2.11 I-4.763 J0.
X50.213 Z-2.166 I4.763 J0.
X40.688 Z-2.221 I-4.763 J0.
X50.213 Z-2.277 I4.763 J0.
X40.688 Z-2.332 I-4.763 J0.
X50.213 Z-2.388 I4.763 J0.
X40.688 Z-2.443 I-4.763 J0.
X50.213 Z-2.498 I4.763 J0.
X40.688 Z-2.554 I-4.763 J0.
X50.213 Z-2.609 I4.763 J0.
X40.688 Z-2.665 I-4.763 J0.
X50.213 Z-2.72 I4.763 J0.
X40.688 Z-2.775 I-4.763 J0.
X50.213 Z-2.831 I4.763 J0.
X40.688 Z-2.886 I-4.763 J0.
X50.213 Z-2.942 I4.763 J0.
X40.688 Z-2.997 I-4.763 J0.
X50.213 Z-3.053 I4.763 J0.
X40.688 Z-3.108 I-4.763 J0.
X50.213 Z-3.163 I4.763 J0.
X40.688 Z-3.219 I-4.763 J0.
X50.213 Z-3.274 I4.763 J0.
X40.688 Z-3.33 I-4.763 J0.
X50.213 Z-3.385 I4.763 J0.
X40.688 Z-3.44 I-4.763 J0.
X50.213 Z-3.496 I4.763 J0.
X40.688 Z-3.551 I-4.763 J0.
X50.213 Z-3.607 I4.763 J0.
X40.688 Z-3.662 I-4.763 J0.
X50.213 Z-3.718 I4.763 J0.
X40.688 Z-3.773 I-4.763 J0.
X50.213 Z-3.828 I4.763 J0.
X40.688 Z-3.884 I-4.763 J0.
X50.213 Z-3.939 I4.763 J0.
X40.688 Z-3.995 I-4.763 J0.
X50.213 Z-4.05 I4.763 J0.
X40.688 Z-4.105 I-4.763 J0.
X50.213 Z-4.161 I4.763 J0.
X40.688 Z-4.216 I-4.763 J0.
X50.213 Z-4.272 I4.763 J0.
X40.688 Z-4.327 I-4.763 J0.
X50.213 Z-4.383 I4.763 J0.
X40.688 Z-4.438 I-4.763 J0.
X50.213 Z-4.493 I4.763 J0.
X40.688 Z-4.549 I-4.763 J0.
X50.213 Z-4.604 I4.762 J0.
X40.688 Z-4.66 I-4.762 J0.
X50.213 Z-4.715 I4.762 J0.
X40.688 Z-4.77 I-4.762 J0.
X50.213 Z-4.826 I4.762 J0.
X40.688 Z-4.881 I-4.762 J0.
X50.213 Z-4.937 I4.762 J0.
X40.688 Z-4.992 I-4.762 J0.
X50.213 Z-5.048 I4.762 J0.
X40.688 Z-5.103 I-4.762 J0.
X50.213 Z-5.158 I4.762 J0.
X40.688 Z-5.214 I-4.762 J0.
X50.213 Z-5.269 I4.762 J0.
X40.688 Z-5.325 I-4.762 J0.
X50.213 Z-5.38 I4.762 J0.
X40.688 Z-5.435 I-4.762 J0.
X50.213 Z-5.491 I4.762 J0.
X40.688 Z-5.546 I-4.762 J0.
X50.213 Z-5.602 I4.762 J0.
X40.688 Z-5.657 I-4.762 J0.
X50.213 Z-5.713 I4.762 J0.
X40.688 Z-5.768 I-4.762 J0.
X50.213 Z-5.823 I4.762 J0.
X40.688 Z-5.879 I-4.762 J0.
X50.213 Z-5.934 I4.762 J0.
X40.688 Z-5.99 I-4.762 J0.
X50.213 Z-6.045 I4.762 J0.
X40.688 Z-6.1 I-4.762 J0.
X50.213 Z-6.156 I4.762 J0.
X47.444 Y9.534 Z-6.176 I-4.762 J0.
X43.456 Y18.185 I-1.994 J4.325
X47.444 Y9.534 I1.994 J-4.325
X47.022 Y9.69 I-0.133 J0.288
G1 X46.956 Y9.834
X46.926 Y9.898 Z-6.168
X46.898 Y9.959 Z-6.144
X46.873 Y10.014 Z-6.107
X46.852 Y10.059 Z-6.056
X46.836 Y10.094 Z-5.996
X46.826 Y10.115 Z-5.929
X46.823 Y10.122 Z-5.858
G0 Z5.
X51.006 Y14.177
Z0.499
G1 Z-1.183 F800.
G18 G2 X51.324 Z-1.501 I0.318 K0.
G1 X51.482
G17 G2 X51.8 Y13.859 I0. J-0.318
X39.1 Z-1.57 I-6.35 J0.
X51.8 Z-1.639 I6.35 J0.
X39.1 Z-1.709 I-6.35 J0.
X51.8 Z-1.778 I6.35 J0.
X39.1 Z-1.847 I-6.35 J0.
X51.8 Z-1.917 I6.35 J0.
X39.1 Z-1.986 I-6.35 J0.
X51.8 Z-2.055 I6.35 J0.
X39.1 Z-2.124 I-6.35 J0.
X51.8 Z-2.194 I6.35 J0.
X39.1 Z-2.263 I-6.35 J0.
X51.8 Z-2.332 I6.35 J0.
X39.1 Z-2.401 I-6.35 J0.
X51.8 Z-2.471 I6.35 J0.
X39.1 Z-2.54 I-6.35 J0.
X51.8 Z-2.609 I6.35 J0.
X39.1 Z-2.678 I-6.35 J0.
X51.8 Z-2.748 I6.35 J0.
X39.1 Z-2.817 I-6.35 J0.
X51.8 Z-2.886 I6.35 J0.
X39.1 Z-2.956 I-6.35 J0.
X51.8 Z-3.025 I6.35 J0.
X39.1 Z-3.094 I-6.35 J0.
X51.8 Z-3.163 I6.35 J0.
X39.1 Z-3.233 I-6.35 J0.
X51.8 Z-3.302 I6.35 J0.
X39.1 Z-3.371 I-6.35 J0.
X51.8 Z-3.44 I6.35 J0.
X39.1 Z-3.51 I-6.35 J0.
X51.8 Z-3.579 I6.35 J0.
X39.1 Z-3.648 I-6.35 J0.
X51.8 Z-3.718 I6.35 J0.
X39.1 Z-3.787 I-6.35 J0.
X51.8 Z-3.856 I6.35 J0.
X39.1 Z-3.925 I-6.35 J0.
X51.8 Z-3.995 I6.35 J0.
X39.1 Z-4.064 I-6.35 J0.
X51.8 Z-4.133 I6.35 J0.
X39.1 Z-4.202 I-6.35 J0.
X51.8 Z-4.272 I6.35 J0.
X39.1 Z-4.341 I-6.35 J0.
X51.8 Z-4.41 I6.35 J0.
X39.1 Z-4.48 I-6.35 J0.
X51.8 Z-4.549 I6.35 J0.
X39.1 Z-4.618 I-6.35 J0.
X51.8 Z-4.687 I6.35 J0.
X39.1 Z-4.757 I-6.35 J0.
X51.8 Z-4.826 I6.35 J0.
X39.1 Z-4.895 I-6.35 J0.
X51.8 Z-4.964 I6.35 J0.
X39.1 Z-5.034 I-6.35 J0.
X51.8 Z-5.103 I6.35 J0.
X39.1 Z-5.172 I-6.35 J0.
X51.8 Z-5.241 I6.35 J0.
X39.1 Z-5.311 I-6.35 J0.
X51.8 Z-5.38 I6.35 J0.
X39.1 Z-5.449 I-6.35 J0.
X51.8 Z-5.519 I6.35 J0.
X39.1 Z-5.588 I-6.35 J0.
X51.8 Z-5.657 I6.35 J0.
X39.1 Z-5.726 I-6.35 J0.
X51.8 Z-5.796 I6.35 J0.
X39.1 Z-5.865 I-6.35 J0.
X51.8 Z-5.934 I6.35 J0.
X39.1 Z-6.003 I-6.35 J0.
X51.8 Z-6.073 I6.35 J0.
X39.1 Z-6.142 I-6.35 J0.
X45.251 Y20.206 Z-6.176 I6.35 J0.
X45.649 Y7.513 I0.199 J-6.347
X45.251 Y20.206 I-0.199 J6.347
X45.578 Y19.899 I0.01 J-0.317
G1 X45.583 Y19.74
X45.585 Y19.67 Z-6.168
X45.587 Y19.603 Z-6.144
X45.589 Y19.542 Z-6.107
X45.591 Y19.492 Z-6.056
X45.592 Y19.454 Z-5.996
X45.593 Y19.431 Z-5.929
Y19.423 Z-5.858
G0 Z5.
X52.594 Y14.177
Z0.499
G1 Z-1.183 F800.
G18 G2 X52.911 Z-1.501 I0.318 K0.
G1 X53.07
G17 G2 X53.388 Y13.859 I0. J-0.318
X37.513 Z-1.584 I-7.938 J0.
X53.388 Z-1.667 I7.937 J0.
X37.513 Z-1.75 I-7.937 J0.
X53.388 Z-1.833 I7.937 J0.
X37.513 Z-1.917 I-7.937 J0.
X53.388 Z-2. I7.937 J0.
X37.513 Z-2.083 I-7.937 J0.
X53.388 Z-2.166 I7.937 J0.
X37.513 Z-2.249 I-7.937 J0.
X53.388 Z-2.332 I7.937 J0.
X37.513 Z-2.415 I-7.937 J0.
X53.388 Z-2.498 I7.937 J0.
X37.513 Z-2.582 I-7.937 J0.
X53.388 Z-2.665 I7.937 J0.
X37.513 Z-2.748 I-7.937 J0.
X53.388 Z-2.831 I7.937 J0.
X37.513 Z-2.914 I-7.937 J0.
X53.388 Z-2.997 I7.937 J0.
X37.513 Z-3.08 I-7.937 J0.
X53.388 Z-3.163 I7.937 J0.
X37.513 Z-3.247 I-7.937 J0.
X53.388 Z-3.33 I7.937 J0.
X37.513 Z-3.413 I-7.937 J0.
X53.388 Z-3.496 I7.937 J0.
X37.513 Z-3.579 I-7.937 J0.
X53.388 Z-3.662 I7.937 J0.
X37.513 Z-3.745 I-7.937 J0.
X53.388 Z-3.828 I7.937 J0.
X37.513 Z-3.911 I-7.937 J0.
X53.388 Z-3.995 I7.937 J0.
X37.513 Z-4.078 I-7.937 J0.
X53.388 Z-4.161 I7.937 J0.
X37.513 Z-4.244 I-7.937 J0.
X53.388 Z-4.327 I7.937 J0.
X37.513 Z-4.41 I-7.937 J0.
X53.388 Z-4.493 I7.937 J0.
X37.513 Z-4.576 I-7.937 J0.
X53.388 Z-4.66 I7.937 J0.
X37.513 Z-4.743 I-7.937 J0.
X53.388 Z-4.826 I7.937 J0.
X37.513 Z-4.909 I-7.937 J0.
X53.388 Z-4.992 I7.937 J0.
X37.513 Z-5.075 I-7.937 J0.
X53.388 Z-5.158 I7.937 J0.
X37.513 Z-5.241 I-7.937 J0.
X53.387 Z-5.325 I7.937 J0.
X37.513 Z-5.408 I-7.937 J0.
X53.387 Z-5.491 I7.937 J0.
X37.513 Z-5.574 I-7.937 J0.
X53.387 Z-5.657 I7.937 J0.
X37.513 Z-5.74 I-7.937 J0.
X53.387 Z-5.823 I7.937 J0.
X37.513 Z-5.906 I-7.937 J0.
X53.387 Z-5.99 I7.937 J0.
X37.513 Z-6.073 I-7.937 J0.
X53.387 Z-6.156 I7.937 J0.
X51.208 Y8.395 Z-6.176 I-7.937 J0.
X39.692 Y19.323 I-5.758 J5.464
X51.208 Y8.395 I5.758 J-5.464
X50.759 Y8.384 I-0.23 J0.219
G1 X50.644 Y8.493
X50.592 Y8.542 Z-6.168
X50.544 Y8.588 Z-6.144
X50.5 Y8.629 Z-6.107
X50.463 Y8.664 Z-6.056
X50.436 Y8.69 Z-5.996
X50.419 Y8.706 Z-5.929
X50.413 Y8.712 Z-5.858
G0 Z5.
X157.486 Y14.017
Z1.
G1 Z-0.683 F800.
G18 G2 X157.803 Z-1. I0.317 K0.
G1 X157.962
G17 G2 X158.279 Y13.7 I0. J-0.318
X155.104 Z-1.028 I-1.587 J0.
X158.279 Z-1.055 I1.587 J0.
X155.104 Z-1.083 I-1.587 J0.
X158.279 Z-1.111 I1.587 J0.
X155.104 Z-1.139 I-1.587 J0.
X158.279 Z-1.166 I1.587 J0.
X155.104 Z-1.194 I-1.587 J0.
X158.279 Z-1.222 I1.587 J0.
X155.104 Z-1.249 I-1.587 J0.
X158.279 Z-1.277 I1.587 J0.
X155.104 Z-1.305 I-1.587 J0.
X158.279 Z-1.332 I1.587 J0.
X155.104 Z-1.36 I-1.587 J0.
X158.279 Z-1.388 I1.587 J0.
X155.104 Z-1.416 I-1.587 J0.
X158.279 Z-1.443 I1.587 J0.
X155.104 Z-1.471 I-1.587 J0.
X158.279 Z-1.499 I1.587 J0.
X155.104 Z-1.526 I-1.587 J0.
X158.279 Z-1.554 I1.587 J0.
X155.104 Z-1.582 I-1.587 J0.
X158.279 Z-1.61 I1.587 J0.
X155.104 Z-1.637 I-1.587 J0.
X158.279 Z-1.665 I1.587 J0.
X155.104 Z-1.693 I-1.587 J0.
X158.279 Z-1.72 I1.587 J0.
X155.104 Z-1.748 I-1.587 J0.
X158.279 Z-1.776 I1.587 J0.
X155.104 Z-1.804 I-1.587 J0.
X158.279 Z-1.831 I1.587 J0.
X155.104 Z-1.859 I-1.587 J0.
X158.279 Z-1.887 I1.587 J0.
X155.104 Z-1.914 I-1.587 J0.
X158.279 Z-1.942 I1.587 J0.
X155.104 Z-1.97 I-1.587 J0.
X158.279 Z-1.997 I1.587 J0.
X155.104 Z-2.025 I-1.587 J0.
X158.279 Z-2.053 I1.587 J0.
X155.104 Z-2.081 I-1.587 J0.
X158.279 Z-2.108 I1.587 J0.
X155.104 Z-2.136 I-1.587 J0.
X158.279 Z-2.164 I1.587 J0.
X155.104 Z-2.191 I-1.587 J0.
X158.279 Z-2.219 I1.587 J0.
X155.104 Z-2.247 I-1.587 J0.
X158.279 Z-2.275 I1.587 J0.
X155.104 Z-2.302 I-1.587 J0.
X158.279 Z-2.33 I1.587 J0.
X155.104 Z-2.358 I-1.587 J0.
X158.279 Z-2.385 I1.587 J0.
X155.104 Z-2.413 I-1.587 J0.
X158.279 Z-2.441 I1.587 J0.
X155.104 Z-2.469 I-1.587 J0.
X158.279 Z-2.496 I1.587 J0.
X155.104 Z-2.524 I-1.587 J0.
X158.279 Z-2.552 I1.587 J0.
X155.104 Z-2.579 I-1.587 J0.
X158.279 Z-2.607 I1.587 J0.
X155.104 Z-2.635 I-1.587 J0.
X158.279 Z-2.662 I1.587 J0.
X155.104 Z-2.69 I-1.587 J0.
X158.279 Z-2.718 I1.587 J0.
X155.104 Z-2.746 I-1.587 J0.
X158.279 Z-2.773 I1.587 J0.
X155.104 Z-2.801 I-1.587 J0.
X158.279 Z-2.829 I1.587 J0.
X155.104 Z-2.856 I-1.587 J0.
X158.279 Z-2.884 I1.587 J0.
X155.104 Z-2.912 I-1.587 J0.
X158.279 Z-2.94 I1.587 J0.
X155.104 Z-2.967 I-1.587 J0.
X158.279 Z-2.995 I1.587 J0.
X155.104 Z-3.023 I-1.587 J0.
X158.279 Z-3.05 I1.587 J0.
X155.104 Z-3.078 I-1.587 J0.
X158.279 Z-3.106 I1.587 J0.
X155.104 Z-3.134 I-1.587 J0.
X158.279 Z-3.161 I1.587 J0.
X155.104 Z-3.189 I-1.587 J0.
X158.279 Z-3.217 I1.587 J0.
X155.104 Z-3.244 I-1.587 J0.
X158.279 Z-3.272 I1.587 J0.
X155.104 Z-3.3 I-1.587 J0.
X158.279 Z-3.327 I1.587 J0.
X155.104 Z-3.355 I-1.587 J0.
X158.279 Z-3.383 I1.587 J0.
X155.104 Z-3.411 I-1.587 J0.
X158.279 Z-3.438 I1.587 J0.
X155.104 Z-3.466 I-1.587 J0.
X158.279 Z-3.494 I1.587 J0.
X155.104 Z-3.521 I-1.587 J0.
X158.279 Z-3.549 I1.587 J0.
X155.104 Z-3.577 I-1.587 J0.
X158.279 Z-3.605 I1.587 J0.
X155.104 Z-3.632 I-1.587 J0.
X158.279 Z-3.66 I1.587 J0.
X155.104 Z-3.688 I-1.587 J0.
X158.279 Z-3.715 I1.587 J0.
X155.104 Z-3.743 I-1.587 J0.
X158.279 Z-3.771 I1.588 J0.
X155.104 Z-3.798 I-1.588 J0.
X158.279 Z-3.826 I1.588 J0.
X155.104 Z-3.854 I-1.588 J0.
X158.279 Z-3.882 I1.588 J0.
X155.104 Z-3.909 I-1.588 J0.
X158.279 Z-3.937 I1.588 J0.
X155.104 Z-3.965 I-1.588 J0.
X158.279 Z-3.992 I1.588 J0.
X155.104 Z-4.02 I-1.588 J0.
X158.279 Z-4.048 I1.588 J0.
X155.104 Z-4.076 I-1.588 J0.
X158.279 Z-4.103 I1.588 J0.
X155.104 Z-4.131 I-1.588 J0.
X158.279 Z-4.159 I1.588 J0.
X155.104 Z-4.186 I-1.588 J0.
X158.279 Z-4.214 I1.588 J0.
X155.104 Z-4.242 I-1.588 J0.
X158.279 Z-4.27 I1.588 J0.
X155.104 Z-4.297 I-1.588 J0.
X158.279 Z-4.325 I1.588 J0.
X155.104 Z-4.353 I-1.588 J0.
X158.279 Z-4.38 I1.588 J0.
X155.104 Z-4.408 I-1.588 J0.
X158.279 Z-4.436 I1.588 J0.
X155.104 Z-4.463 I-1.588 J0.
X158.279 Z-4.491 I1.588 J0.
X155.104 Z-4.519 I-1.588 J0.
X158.279 Z-4.547 I1.588 J0.
X155.104 Z-4.574 I-1.588 J0.
X158.279 Z-4.602 I1.588 J0.
X155.104 Z-4.63 I-1.588 J0.
X158.279 Z-4.657 I1.588 J0.
X155.104 Z-4.685 I-1.588 J0.
X158.279 Z-4.713 I1.588 J0.
X155.104 Z-4.741 I-1.588 J0.
X158.279 Z-4.768 I1.588 J0.
X155.104 Z-4.796 I-1.588 J0.
X158.279 Z-4.824 I1.588 J0.
X155.104 Z-4.851 I-1.588 J0.
X158.279 Z-4.879 I1.588 J0.
X155.104 Z-4.907 I-1.588 J0.
X158.279 Z-4.935 I1.588 J0.
X155.104 Z-4.962 I-1.588 J0.
X158.279 Z-4.99 I1.588 J0.
X155.104 Z-5.018 I-1.588 J0.
X158.279 Z-5.045 I1.588 J0.
X155.104 Z-5.073 I-1.588 J0.
X158.279 Z-5.101 I1.588 J0.
X155.104 Z-5.128 I-1.588 J0.
X158.279 Z-5.156 I1.588 J0.
X155.104 Z-5.184 I-1.588 J0.
X158.279 Z-5.212 I1.588 J0.
X155.104 Z-5.239 I-1.588 J0.
X158.279 Z-5.267 I1.588 J0.
X155.104 Z-5.295 I-1.588 J0.
X158.279 Z-5.322 I1.588 J0.
X155.104 Z-5.35 I-1.588 J0.
X158.279 Z-5.378 I1.588 J0.
X155.104 Z-5.406 I-1.588 J0.
X158.279 Z-5.433 I1.588 J0.
X155.104 Z-5.461 I-1.588 J0.
X158.279 Z-5.489 I1.588 J0.
X155.104 Z-5.516 I-1.588 J0.
X158.279 Z-5.544 I1.588 J0.
X155.104 Z-5.572 I-1.588 J0.
X158.279 Z-5.599 I1.588 J0.
X155.104 Z-5.627 I-1.588 J0.
X158.279 Z-5.655 I1.588 J0.
X155.661 Y12.493 Z-5.675 I-1.588 J0.
X157.723 Y14.907 I1.031 J1.207
X155.661 Y12.493 I-1.031 J-1.207
X155.626 Y12.941 I0.206 J0.241
G1 X155.729 Y13.061
X155.775 Y13.115 Z-5.667
X155.818 Y13.166 Z-5.644
X155.857 Y13.212 Z-5.606
X155.89 Y13.25 Z-5.555
X155.914 Y13.279 Z-5.495
X155.93 Y13.297 Z-5.428
X155.935 Y13.303 Z-5.358
G0 Z5.
X159.073 Y14.017
Z1.
G1 Z-0.683 F800.
G18 G2 X159.391 Z-1. I0.318 K0.
G1 X159.549
G17 G2 X159.867 Y13.7 I0. J-0.318
X153.517 Z-1.042 I-3.175 J0.
X159.867 Z-1.083 I3.175 J0.
X153.517 Z-1.125 I-3.175 J0.
X159.867 Z-1.166 I3.175 J0.
X153.517 Z-1.208 I-3.175 J0.
X159.867 Z-1.249 I3.175 J0.
X153.517 Z-1.291 I-3.175 J0.
X159.867 Z-1.332 I3.175 J0.
X153.517 Z-1.374 I-3.175 J0.
X159.867 Z-1.416 I3.175 J0.
X153.517 Z-1.457 I-3.175 J0.
X159.867 Z-1.499 I3.175 J0.
X153.517 Z-1.54 I-3.175 J0.
X159.867 Z-1.582 I3.175 J0.
X153.517 Z-1.623 I-3.175 J0.
X159.867 Z-1.665 I3.175 J0.
X153.517 Z-1.707 I-3.175 J0.
X159.867 Z-1.748 I3.175 J0.
X153.517 Z-1.79 I-3.175 J0.
X159.867 Z-1.831 I3.175 J0.
X153.517 Z-1.873 I-3.175 J0.
X159.867 Z-1.914 I3.175 J0.
X153.517 Z-1.956 I-3.175 J0.
X159.867 Z-1.997 I3.175 J0.
X153.517 Z-2.039 I-3.175 J0.
X159.867 Z-2.081 I3.175 J0.
X153.517 Z-2.122 I-3.175 J0.
X159.867 Z-2.164 I3.175 J0.
X153.517 Z-2.205 I-3.175 J0.
X159.867 Z-2.247 I3.175 J0.
X153.517 Z-2.288 I-3.175 J0.
X159.867 Z-2.33 I3.175 J0.
X153.517 Z-2.372 I-3.175 J0.
X159.867 Z-2.413 I3.175 J0.
X153.517 Z-2.455 I-3.175 J0.
X159.867 Z-2.496 I3.175 J0.
X153.517 Z-2.538 I-3.175 J0.
X159.867 Z-2.579 I3.175 J0.
X153.517 Z-2.621 I-3.175 J0.
X159.867 Z-2.662 I3.175 J0.
X153.517 Z-2.704 I-3.175 J0.
X159.867 Z-2.746 I3.175 J0.
X153.517 Z-2.787 I-3.175 J0.
X159.867 Z-2.829 I3.175 J0.
X153.517 Z-2.87 I-3.175 J0.
X159.867 Z-2.912 I3.175 J0.
X153.517 Z-2.953 I-3.175 J0.
X159.867 Z-2.995 I3.175 J0.
X153.517 Z-3.037 I-3.175 J0.
X159.867 Z-3.078 I3.175 J0.
X153.517 Z-3.12 I-3.175 J0.
X159.867 Z-3.161 I3.175 J0.
X153.517 Z-3.203 I-3.175 J0.
X159.867 Z-3.244 I3.175 J0.
X153.517 Z-3.286 I-3.175 J0.
X159.867 Z-3.327 I3.175 J0.
X153.517 Z-3.369 I-3.175 J0.
X159.867 Z-3.411 I3.175 J0.
X153.517 Z-3.452 I-3.175 J0.
X159.867 Z-3.494 I3.175 J0.
X153.517 Z-3.535 I-3.175 J0.
X159.867 Z-3.577 I3.175 J0.
X153.517 Z-3.618 I-3.175 J0.
X159.867 Z-3.66 I3.175 J0.
X153.517 Z-3.702 I-3.175 J0.
X159.867 Z-3.743 I3.175 J0.
X153.517 Z-3.785 I-3.175 J0.
X159.867 Z-3.826 I3.175 J0.
X153.517 Z-3.868 I-3.175 J0.
X159.867 Z-3.909 I3.175 J0.
X153.517 Z-3.951 I-3.175 J0.
X159.867 Z-3.992 I3.175 J0.
X153.517 Z-4.034 I-3.175 J0.
X159.867 Z-4.076 I3.175 J0.
X153.517 Z-4.117 I-3.175 J0.
X159.867 Z-4.159 I3.175 J0.
X153.517 Z-4.2 I-3.175 J0.
X159.867 Z-4.242 I3.175 J0.
X153.517 Z-4.283 I-3.175 J0.
X159.867 Z-4.325 I3.175 J0.
X153.517 Z-4.366 I-3.175 J0.
X159.867 Z-4.408 I3.175 J0.
X153.517 Z-4.45 I-3.175 J0.
X159.867 Z-4.491 I3.175 J0.
X153.517 Z-4.533 I-3.175 J0.
X159.867 Z-4.574 I3.175 J0.
X153.517 Z-4.616 I-3.175 J0.
X159.867 Z-4.657 I3.175 J0.
X153.517 Z-4.699 I-3.175 J0.
X159.867 Z-4.741 I3.175 J0.
X153.517 Z-4.782 I-3.175 J0.
X159.867 Z-4.824 I3.175 J0.
X153.517 Z-4.865 I-3.175 J0.
X159.867 Z-4.907 I3.175 J0.
X153.517 Z-4.948 I-3.175 J0.
X159.867 Z-4.99 I3.175 J0.
X153.517 Z-5.031 I-3.175 J0.
X159.867 Z-5.073 I3.175 J0.
X153.517 Z-5.115 I-3.175 J0.
X159.867 Z-5.156 I3.175 J0.
X153.517 Z-5.198 I-3.175 J0.
X159.867 Z-5.239 I3.175 J0.
X153.517 Z-5.281 I-3.175 J0.
X159.867 Z-5.322 I3.175 J0.
X153.517 Z-5.364 I-3.175 J0.
X159.867 Z-5.406 I3.175 J0.
X153.517 Z-5.447 I-3.175 J0.
X159.867 Z-5.489 I3.175 J0.
X153.517 Z-5.53 I-3.175 J0.
X159.867 Z-5.572 I3.175 J0.
X153.517 Z-5.613 I-3.175 J0.
X159.867 Z-5.655 I3.175 J0.
X156.858 Y10.529 Z-5.675 I-3.175 J0.
X156.526 Y16.871 I-0.166 J3.171
X156.858 Y10.529 I0.166 J-3.171
X156.524 Y10.83 I-0.017 J0.317
G1 X156.516 Y10.988
X156.512 Y11.059 Z-5.667
X156.509 Y11.126 Z-5.644
X156.506 Y11.186 Z-5.606
X156.503 Y11.236 Z-5.555
X156.501 Y11.274 Z-5.495
X156.5 Y11.297 Z-5.428
X156.499 Y11.305 Z-5.358
G0 Z5.
X160.661 Y14.017
Z1.
G1 Z-0.683 F800.
G18 G2 X160.978 Z-1. I0.317 K0.
G1 X161.137
G17 G2 X161.454 Y13.7 I0. J-0.318
X151.929 Z-1.055 I-4.762 J0.
X161.454 Z-1.111 I4.762 J0.
X151.929 Z-1.166 I-4.762 J0.
X161.454 Z-1.222 I4.762 J0.
X151.929 Z-1.277 I-4.762 J0.
X161.454 Z-1.332 I4.762 J0.
X151.929 Z-1.388 I-4.762 J0.
X161.454 Z-1.443 I4.762 J0.
X151.929 Z-1.499 I-4.762 J0.
X161.454 Z-1.554 I4.762 J0.
X151.929 Z-1.61 I-4.762 J0.
X161.454 Z-1.665 I4.762 J0.
X151.929 Z-1.72 I-4.762 J0.
X161.454 Z-1.776 I4.762 J0.
X151.929 Z-1.831 I-4.762 J0.
X161.454 Z-1.887 I4.762 J0.
X151.929 Z-1.942 I-4.762 J0.
X161.454 Z-1.997 I4.762 J0.
X151.929 Z-2.053 I-4.762 J0.
X161.454 Z-2.108 I4.762 J0.
X151.929 Z-2.164 I-4.762 J0.
X161.454 Z-2.219 I4.762 J0.
X151.929 Z-2.275 I-4.762 J0.
X161.454 Z-2.33 I4.762 J0.
X151.929 Z-2.385 I-4.762 J0.
X161.454 Z-2.441 I4.762 J0.
X151.929 Z-2.496 I-4.762 J0.
X161.454 Z-2.552 I4.762 J0.
X151.929 Z-2.607 I-4.762 J0.
X161.454 Z-2.662 I4.762 J0.
X151.929 Z-2.718 I-4.762 J0.
X161.454 Z-2.773 I4.762 J0.
X151.929 Z-2.829 I-4.762 J0.
X161.454 Z-2.884 I4.762 J0.
X151.929 Z-2.94 I-4.762 J0.
X161.454 Z-2.995 I4.762 J0.
X151.929 Z-3.05 I-4.762 J0.
X161.454 Z-3.106 I4.762 J0.
X151.929 Z-3.161 I-4.762 J0.
X161.454 Z-3.217 I4.762 J0.
X151.929 Z-3.272 I-4.762 J0.
X161.454 Z-3.327 I4.762 J0.
X151.929 Z-3.383 I-4.762 J0.
X161.454 Z-3.438 I4.762 J0.
X151.929 Z-3.494 I-4.762 J0.
X161.454 Z-3.549 I4.762 J0.
X151.929 Z-3.605 I-4.762 J0.
X161.454 Z-3.66 I4.762 J0.
X151.929 Z-3.715 I-4.762 J0.
X161.454 Z-3.771 I4.762 J0.
X151.929 Z-3.826 I-4.762 J0.
X161.454 Z-3.882 I4.762 J0.
X151.929 Z-3.937 I-4.762 J0.
X161.454 Z-3.992 I4.762 J0.
X151.929 Z-4.048 I-4.762 J0.
X161.454 Z-4.103 I4.762 J0.
X151.929 Z-4.159 I-4.762 J0.
X161.454 Z-4.214 I4.762 J0.
X151.929 Z-4.27 I-4.762 J0.
X161.454 Z-4.325 I4.762 J0.
X151.929 Z-4.38 I-4.762 J0.
X161.454 Z-4.436 I4.762 J0.
X151.929 Z-4.491 I-4.762 J0.
X161.454 Z-4.547 I4.762 J0.
X151.929 Z-4.602 I-4.762 J0.
X161.454 Z-4.657 I4.762 J0.
X151.929 Z-4.713 I-4.762 J0.
X161.454 Z-4.768 I4.762 J0.
X151.929 Z-4.824 I-4.762 J0.
X161.454 Z-4.879 I4.762 J0.
X151.929 Z-4.935 I-4.762 J0.
X161.454 Z-4.99 I4.762 J0.
X151.929 Z-5.045 I-4.762 J0.
X161.454 Z-5.101 I4.762 J0.
X151.929 Z-5.156 I-4.762 J0.
X161.454 Z-5.212 I4.762 J0.
X151.929 Z-5.267 I-4.762 J0.
X161.454 Z-5.322 I4.762 J0.
X151.929 Z-5.378 I-4.762 J0.
X161.454 Z-5.433 I4.762 J0.
X151.929 Z-5.489 I-4.762 J0.
X161.454 Z-5.544 I4.762 J0.
X151.929 Z-5.599 I-4.762 J0.
X161.454 Z-5.655 I4.762 J0.
X158.686 Y9.375 Z-5.675 I-4.762 J0.
X154.698 Y18.025 I-1.994 J4.325
X158.686 Y9.375 I1.994 J-4.325
X158.264 Y9.53 I-0.133 J0.288
G1 X158.198 Y9.674
X158.168 Y9.739 Z-5.667
X158.14 Y9.8 Z-5.644
X158.115 Y9.854 Z-5.606
X158.094 Y9.9 Z-5.555
X158.078 Y9.934 Z-5.495
X158.068 Y9.956 Z-5.428
X158.065 Y9.963 Z-5.358
G0 Z5.
X162.248 Y14.017
Z1.
G1 Z-0.683 F800.
G18 G2 X162.566 Z-1. I0.318 K0.
G1 X162.724
G17 G2 X163.042 Y13.7 I0. J-0.318
X150.342 Z-1.069 I-6.35 J0.
X163.042 Z-1.139 I6.35 J0.
X150.342 Z-1.208 I-6.35 J0.
X163.042 Z-1.277 I6.35 J0.
X150.342 Z-1.346 I-6.35 J0.
X163.042 Z-1.416 I6.35 J0.
X150.342 Z-1.485 I-6.35 J0.
X163.042 Z-1.554 I6.35 J0.
X150.342 Z-1.623 I-6.35 J0.
X163.042 Z-1.693 I6.35 J0.
X150.342 Z-1.762 I-6.35 J0.
X163.042 Z-1.831 I6.35 J0.
X150.342 Z-1.901 I-6.35 J0.
X163.042 Z-1.97 I6.35 J0.
X150.342 Z-2.039 I-6.35 J0.
X163.042 Z-2.108 I6.35 J0.
X150.342 Z-2.178 I-6.35 J0.
X163.042 Z-2.247 I6.35 J0.
X150.342 Z-2.316 I-6.35 J0.
X163.042 Z-2.385 I6.35 J0.
X150.342 Z-2.455 I-6.35 J0.
X163.042 Z-2.524 I6.35 J0.
X150.342 Z-2.593 I-6.35 J0.
X163.042 Z-2.662 I6.35 J0.
X150.342 Z-2.732 I-6.35 J0.
X163.042 Z-2.801 I6.35 J0.
X150.342 Z-2.87 I-6.35 J0.
X163.042 Z-2.94 I6.35 J0.
X150.342 Z-3.009 I-6.35 J0.
X163.042 Z-3.078 I6.35 J0.
X150.342 Z-3.147 I-6.35 J0.
X163.042 Z-3.217 I6.35 J0.
X150.342 Z-3.286 I-6.35 J0.
X163.042 Z-3.355 I6.35 J0.
X150.342 Z-3.424 I-6.35 J0.
X163.042 Z-3.494 I6.35 J0.
X150.342 Z-3.563 I-6.35 J0.
X163.042 Z-3.632 I6.35 J0.
X150.342 Z-3.702 I-6.35 J0.
X163.042 Z-3.771 I6.35 J0.
X150.342 Z-3.84 I-6.35 J0.
X163.042 Z-3.909 I6.35 J0.
X150.342 Z-3.979 I-6.35 J0.
X163.042 Z-4.048 I6.35 J0.
X150.342 Z-4.117 I-6.35 J0.
X163.042 Z-4.186 I6.35 J0.
X150.342 Z-4.256 I-6.35 J0.
X163.042 Z-4.325 I6.35 J0.
X150.342 Z-4.394 I-6.35 J0.
X163.042 Z-4.463 I6.35 J0.
X150.342 Z-4.533 I-6.35 J0.
X163.042 Z-4.602 I6.35 J0.
X150.342 Z-4.671 I-6.35 J0.
X163.042 Z-4.741 I6.35 J0.
X150.342 Z-4.81 I-6.35 J0.
X163.042 Z-4.879 I6.35 J0.
X150.342 Z-4.948 I-6.35 J0.
X163.042 Z-5.018 I6.35 J0.
X150.342 Z-5.087 I-6.35 J0.
X163.042 Z-5.156 I6.35 J0.
X150.342 Z-5.225 I-6.35 J0.
X163.042 Z-5.295 I6.35 J0.
X150.342 Z-5.364 I-6.35 J0.
X163.042 Z-5.433 I6.35 J0.
X150.342 Z-5.503 I-6.35 J0.
X163.042 Z-5.572 I6.35 J0.
X150.342 Z-5.641 I-6.35 J0.
X156.493 Y20.047 Z-5.675 I6.35 J0.
X156.891 Y7.353 I0.199 J-6.347
X156.493 Y20.047 I-0.199 J6.347
X156.82 Y19.739 I0.01 J-0.317
G1 X156.825 Y19.581
X156.827 Y19.51 Z-5.667
X156.829 Y19.443 Z-5.644
X156.831 Y19.383 Z-5.606
X156.833 Y19.333 Z-5.555
X156.834 Y19.295 Z-5.495
X156.835 Y19.271 Z-5.428
Y19.263 Z-5.358
G0 Z5.
X163.836 Y14.017
Z1.
G1 Z-0.683 F800.
G18 G2 X164.153 Z-1. I0.318 K0.
G1 X164.312
G17 G2 X164.629 Y13.7 I0. J-0.318
X148.754 Z-1.083 I-7.938 J0.
X164.629 Z-1.166 I7.937 J0.
X148.754 Z-1.249 I-7.937 J0.
X164.629 Z-1.332 I7.937 J0.
X148.754 Z-1.416 I-7.937 J0.
X164.629 Z-1.499 I7.937 J0.
X148.754 Z-1.582 I-7.937 J0.
X164.629 Z-1.665 I7.937 J0.
X148.754 Z-1.748 I-7.937 J0.
X164.629 Z-1.831 I7.937 J0.
X148.754 Z-1.914 I-7.937 J0.
X164.629 Z-1.997 I7.937 J0.
X148.754 Z-2.081 I-7.937 J0.
X164.629 Z-2.164 I7.937 J0.
X148.754 Z-2.247 I-7.937 J0.
X164.629 Z-2.33 I7.937 J0.
X148.754 Z-2.413 I-7.937 J0.
X164.629 Z-2.496 I7.937 J0.
X148.754 Z-2.579 I-7.937 J0.
X164.629 Z-2.662 I7.937 J0.
X148.754 Z-2.746 I-7.937 J0.
X164.629 Z-2.829 I7.937 J0.
X148.754 Z-2.912 I-7.937 J0.
X164.629 Z-2.995 I7.937 J0.
X148.754 Z-3.078 I-7.937 J0.
X164.629 Z-3.161 I7.937 J0.
X148.754 Z-3.244 I-7.937 J0.
X164.629 Z-3.327 I7.937 J0.
X148.754 Z-3.411 I-7.937 J0.
X164.629 Z-3.494 I7.937 J0.
X148.754 Z-3.577 I-7.937 J0.
X164.629 Z-3.66 I7.937 J0.
X148.754 Z-3.743 I-7.937 J0.
X164.629 Z-3.826 I7.937 J0.
X148.754 Z-3.909 I-7.937 J0.
X164.629 Z-3.992 I7.937 J0.
X148.754 Z-4.076 I-7.937 J0.
X164.629 Z-4.159 I7.937 J0.
X148.754 Z-4.242 I-7.937 J0.
X164.629 Z-4.325 I7.937 J0.
X148.754 Z-4.408 I-7.937 J0.
X164.629 Z-4.491 I7.937 J0.
X148.754 Z-4.574 I-7.937 J0.
X164.629 Z-4.657 I7.937 J0.
X148.754 Z-4.741 I-7.937 J0.
X164.629 Z-4.824 I7.937 J0.
X148.754 Z-4.907 I-7.937 J0.
X164.629 Z-4.99 I7.937 J0.
X148.754 Z-5.073 I-7.937 J0.
X164.629 Z-5.156 I7.937 J0.
X148.754 Z-5.239 I-7.937 J0.
X164.629 Z-5.322 I7.937 J0.
X148.754 Z-5.406 I-7.937 J0.
X164.629 Z-5.489 I7.937 J0.
X148.754 Z-5.572 I-7.937 J0.
X164.629 Z-5.655 I7.937 J0.
X162.449 Y8.236 Z-5.675 I-7.937 J0.
X150.934 Y19.164 I-5.758 J5.464
X162.449 Y8.236 I5.758 J-5.464
X162. Y8.224 I-0.23 J0.219
G1 X161.885 Y8.334
X161.834 Y8.382 Z-5.667
X161.785 Y8.428 Z-5.644
X161.742 Y8.47 Z-5.606
X161.705 Y8.504 Z-5.555
X161.678 Y8.531 Z-5.495
X161.661 Y8.547 Z-5.428
X161.655 Y8.552 Z-5.358
G0 Z15.

(BORE2)
G0 X145.182 Y178.482
Z15.
Z1.
G1 Z-0.683 F800.
G18 G2 X145.5 Z-1. I0.318 K0.
G1 X145.659
G17 G3 X145.976 Y178.8 I0. J0.318
X142.007 Z-1.031 I-1.984 J0.
X145.976 Z-1.062 I1.984 J0.
X142.007 Z-1.094 I-1.984 J0.
X145.976 Z-1.125 I1.984 J0.
X142.007 Z-1.156 I-1.984 J0.
X145.976 Z-1.187 I1.984 J0.
X142.007 Z-1.218 I-1.984 J0.
X145.976 Z-1.249 I1.984 J0.
X142.007 Z-1.281 I-1.984 J0.
X145.976 Z-1.312 I1.984 J0.
X142.007 Z-1.343 I-1.984 J0.
X145.976 Z-1.374 I1.984 J0.
X142.007 Z-1.405 I-1.984 J0.
X145.976 Z-1.436 I1.984 J0.
X142.007 Z-1.468 I-1.984 J0.
X145.976 Z-1.499 I1.984 J0.
X142.007 Z-1.53 I-1.984 J0.
X145.976 Z-1.561 I1.984 J0.
X142.007 Z-1.592 I-1.984 J0.
X145.976 Z-1.623 I1.984 J0.
X142.007 Z-1.655 I-1.984 J0.
X145.976 Z-1.686 I1.984 J0.
X142.007 Z-1.717 I-1.984 J0.
X145.976 Z-1.748 I1.984 J0.
X142.007 Z-1.779 I-1.984 J0.
X145.976 Z-1.81 I1.984 J0.
X142.007 Z-1.842 I-1.984 J0.
X145.976 Z-1.873 I1.984 J0.
X142.007 Z-1.904 I-1.984 J0.
X145.976 Z-1.935 I1.984 J0.
X142.007 Z-1.966 I-1.984 J0.
X145.976 Z-1.997 I1.984 J0.
X142.007 Z-2.029 I-1.984 J0.
X145.976 Z-2.06 I1.984 J0.
X142.007 Z-2.091 I-1.984 J0.
X145.976 Z-2.122 I1.984 J0.
X142.007 Z-2.153 I-1.984 J0.
X145.976 Z-2.185 I1.984 J0.
X142.007 Z-2.216 I-1.984 J0.
X145.976 Z-2.247 I1.984 J0.
X142.007 Z-2.278 I-1.984 J0.
X145.976 Z-2.309 I1.984 J0.
X142.007 Z-2.34 I-1.984 J0.
X145.976 Z-2.372 I1.984 J0.
X142.007 Z-2.403 I-1.984 J0.
X145.976 Z-2.434 I1.984 J0.
X142.007 Z-2.465 I-1.984 J0.
X145.976 Z-2.496 I1.984 J0.
X142.007 Z-2.527 I-1.984 J0.
X145.976 Z-2.559 I1.984 J0.
X142.007 Z-2.59 I-1.984 J0.
X145.976 Z-2.621 I1.984 J0.
X142.007 Z-2.652 I-1.984 J0.
X145.976 Z-2.683 I1.984 J0.
X142.007 Z-2.714 I-1.984 J0.
X145.976 Z-2.746 I1.984 J0.
X142.007 Z-2.777 I-1.984 J0.
X145.976 Z-2.808 I1.984 J0.
X142.007 Z-2.839 I-1.984 J0.
X145.976 Z-2.87 I1.984 J0.
X142.007 Z-2.901 I-1.984 J0.
X145.976 Z-2.933 I1.984 J0.
X142.007 Z-2.964 I-1.984 J0.
X145.976 Z-2.995 I1.984 J0.
X142.007 Z-3.026 I-1.984 J0.
X145.976 Z-3.057 I1.984 J0.
X142.007 Z-3.088 I-1.984 J0.
X145.976 Z-3.12 I1.984 J0.
X142.007 Z-3.151 I-1.984 J0.
X145.976 Z-3.182 I1.984 J0.
X142.007 Z-3.213 I-1.984 J0.
X145.976 Z-3.244 I1.984 J0.
X142.007 Z-3.276 I-1.984 J0.
X145.976 Z-3.307 I1.984 J0.
X142.007 Z-3.338 I-1.984 J0.
X145.976 Z-3.369 I1.984 J0.
X142.007 Z-3.4 I-1.984 J0.
X145.976 Z-3.431 I1.984 J0.
X142.007 Z-3.463 I-1.984 J0.
X145.976 Z-3.494 I1.984 J0.
X142.007 Z-3.525 I-1.984 J0.
X145.976 Z-3.556 I1.984 J0.
X142.007 Z-3.587 I-1.984 J0.
X145.976 Z-3.618 I1.984 J0.
X142.007 Z-3.65 I-1.984 J0.
X145.976 Z-3.681 I1.984 J0.
X142.007 Z-3.712 I-1.984 J0.
X145.976 Z-3.743 I1.984 J0.
X142.007 Z-3.774 I-1.984 J0.
X145.976 Z-3.805 I1.984 J0.
X142.007 Z-3.837 I-1.984 J0.
X145.976 Z-3.868 I1.984 J0.
X142.007 Z-3.899 I-1.984 J0.
X145.976 Z-3.93 I1.984 J0.
X142.007 Z-3.961 I-1.984 J0.
X145.976 Z-3.992 I1.984 J0.
X142.007 Z-4.024 I-1.984 J0.
X145.976 Z-4.055 I1.984 J0.
X142.007 Z-4.086 I-1.984 J0.
X145.976 Z-4.117 I1.984 J0.
X142.007 Z-4.148 I-1.984 J0.
X145.976 Z-4.179 I1.984 J0.
X142.007 Z-4.211 I-1.984 J0.
X145.976 Z-4.242 I1.984 J0.
X142.007 Z-4.273 I-1.984 J0.
X145.976 Z-4.304 I1.984 J0.
X142.007 Z-4.335 I-1.984 J0.
X145.976 Z-4.366 I1.984 J0.
X142.007 Z-4.398 I-1.984 J0.
X145.976 Z-4.429 I1.984 J0.
X142.007 Z-4.46 I-1.984 J0.
X145.976 Z-4.491 I1.984 J0.
X142.007 Z-4.522 I-1.984 J0.
X145.976 Z-4.554 I1.984 J0.
X142.007 Z-4.585 I-1.984 J0.
X145.976 Z-4.616 I1.984 J0.
X142.007 Z-4.647 I-1.984 J0.
X145.976 Z-4.678 I1.984 J0.
X142.007 Z-4.709 I-1.984 J0.
X145.976 Z-4.741 I1.984 J0.
X142.007 Z-4.772 I-1.984 J0.
X145.976 Z-4.803 I1.984 J0.
X142.007 Z-4.834 I-1.984 J0.
X145.976 Z-4.865 I1.984 J0.
X142.007 Z-4.896 I-1.984 J0.
X145.976 Z-4.928 I1.984 J0.
X142.007 Z-4.959 I-1.984 J0.
X145.976 Z-4.99 I1.984 J0.
X142.007 Z-5.021 I-1.984 J0.
X145.976 Z-5.052 I1.984 J0.
X142.007 Z-5.083 I-1.984 J0.
X145.976 Z-5.115 I1.984 J0.
X142.007 Z-5.146 I-1.984 J0.
X145.976 Z-5.177 I1.984 J0.
X142.007 Z-5.208 I-1.984 J0.
X145.976 Z-5.239 I1.984 J0.
X142.007 Z-5.27 I-1.984 J0.
X145.976 Z-5.302 I1.984 J0.
X142.007 Z-5.333 I-1.984 J0.
X145.976 Z-5.364 I1.984 J0.
X142.007 Z-5.395 I-1.984 J0.
X145.976 Z-5.426 I1.984 J0.
X142.007 Z-5.457 I-1.984 J0.
X145.976 Z-5.489 I1.984 J0.
X142.007 Z-5.52 I-1.984 J0.
X145.976 Z-5.551 I1.984 J0.
X142.007 Z-5.582 I-1.984 J0.
X145.976 Z-5.613 I1.984 J0.
X142.007 Z-5.645 I-1.984 J0.
X145.971 Y178.662 Z-5.675 I1.984 J0.
X142.012 Y178.938 I-1.98 J0.138
X145.971 Y178.662 I1.98 J-0.138
X145.677 Y179.001 I-0.317 J0.022
G1 X145.518 Y179.012
X145.448 Y179.017 Z-5.667
X145.381 Y179.021 Z-5.644
X145.321 Y179.025 Z-5.606
X145.271 Y179.029 Z-5.555
X145.233 Y179.032 Z-5.495
X145.21 Y179.033 Z-5.428
X145.202 Y179.034 Z-5.358
G0 Z5.
X170.582 Y178.482
Z1.
G1 Z-0.683 F800.
G18 G2 X170.9 Z-1. I0.317 K0.
G1 X171.059
G17 G3 X171.376 Y178.8 I0. J0.318
X167.407 Z-1.031 I-1.984 J0.
X171.376 Z-1.062 I1.984 J0.
X167.407 Z-1.094 I-1.984 J0.
X171.376 Z-1.125 I1.984 J0.
X167.407 Z-1.156 I-1.984 J0.
X171.376 Z-1.187 I1.984 J0.
X167.407 Z-1.218 I-1.984 J0.
X171.376 Z-1.249 I1.984 J0.
X167.407 Z-1.281 I-1.984 J0.
X171.376 Z-1.312 I1.984 J0.
X167.407 Z-1.343 I-1.984 J0.
X171.376 Z-1.374 I1.984 J0.
X167.407 Z-1.405 I-1.984 J0.
X171.376 Z-1.436 I1.984 J0.
X167.407 Z-1.468 I-1.984 J0.
X171.376 Z-1.499 I1.984 J0.
X167.407 Z-1.53 I-1.984 J0.
X171.376 Z-1.561 I1.984 J0.
X167.407 Z-1.592 I-1.984 J0.
X171.376 Z-1.623 I1.984 J0.
X167.407 Z-1.655 I-1.984 J0.
X171.376 Z-1.686 I1.984 J0.
X167.407 Z-1.717 I-1.984 J0.
X171.376 Z-1.748 I1.984 J0.
X167.407 Z-1.779 I-1.984 J0.
X171.376 Z-1.81 I1.984 J0.
X167.407 Z-1.842 I-1.984 J0.
X171.376 Z-1.873 I1.984 J0.
X167.407 Z-1.904 I-1.984 J0.
X171.376 Z-1.935 I1.984 J0.
X167.407 Z-1.966 I-1.984 J0.
X171.376 Z-1.997 I1.984 J0.
X167.407 Z-2.029 I-1.984 J0.
X171.376 Z-2.06 I1.984 J0.
X167.407 Z-2.091 I-1.984 J0.
X171.376 Z-2.122 I1.984 J0.
X167.407 Z-2.153 I-1.984 J0.
X171.376 Z-2.185 I1.984 J0.
X167.407 Z-2.216 I-1.984 J0.
X171.376 Z-2.247 I1.984 J0.
X167.407 Z-2.278 I-1.984 J0.
X171.376 Z-2.309 I1.984 J0.
X167.407 Z-2.34 I-1.984 J0.
X171.376 Z-2.372 I1.984 J0.
X167.407 Z-2.403 I-1.984 J0.
X171.376 Z-2.434 I1.984 J0.
X167.407 Z-2.465 I-1.984 J0.
X171.376 Z-2.496 I1.984 J0.
X167.407 Z-2.527 I-1.984 J0.
X171.376 Z-2.559 I1.984 J0.
X167.407 Z-2.59 I-1.984 J0.
X171.376 Z-2.621 I1.984 J0.
X167.407 Z-2.652 I-1.984 J0.
X171.376 Z-2.683 I1.984 J0.
X167.407 Z-2.714 I-1.984 J0.
X171.376 Z-2.746 I1.984 J0.
X167.407 Z-2.777 I-1.984 J0.
X171.376 Z-2.808 I1.984 J0.
X167.407 Z-2.839 I-1.984 J0.
X171.376 Z-2.87 I1.984 J0.
X167.407 Z-2.901 I-1.984 J0.
X171.376 Z-2.933 I1.984 J0.
X167.407 Z-2.964 I-1.984 J0.
X171.376 Z-2.995 I1.984 J0.
X167.407 Z-3.026 I-1.984 J0.
X171.376 Z-3.057 I1.984 J0.
X167.407 Z-3.088 I-1.984 J0.
X171.376 Z-3.12 I1.984 J0.
X167.407 Z-3.151 I-1.984 J0.
X171.376 Z-3.182 I1.984 J0.
X167.407 Z-3.213 I-1.984 J0.
X171.376 Z-3.244 I1.984 J0.
X167.407 Z-3.276 I-1.984 J0.
X171.376 Z-3.307 I1.984 J0.
X167.407 Z-3.338 I-1.984 J0.
X171.376 Z-3.369 I1.984 J0.
X167.407 Z-3.4 I-1.984 J0.
X171.376 Z-3.431 I1.984 J0.
X167.407 Z-3.463 I-1.984 J0.
X171.376 Z-3.494 I1.984 J0.
X167.407 Z-3.525 I-1.984 J0.
X171.376 Z-3.556 I1.984 J0.
X167.407 Z-3.587 I-1.984 J0.
X171.376 Z-3.618 I1.984 J0.
X167.407 Z-3.65 I-1.984 J0.
X171.376 Z-3.681 I1.984 J0.
X167.407 Z-3.712 I-1.984 J0.
X171.376 Z-3.743 I1.984 J0.
X167.407 Z-3.774 I-1.984 J0.
X171.376 Z-3.805 I1.984 J0.
X167.407 Z-3.837 I-1.984 J0.
X171.376 Z-3.868 I1.984 J0.
X167.407 Z-3.899 I-1.984 J0.
X171.376 Z-3.93 I1.984 J0.
X167.407 Z-3.961 I-1.984 J0.
X171.376 Z-3.992 I1.984 J0.
X167.407 Z-4.024 I-1.984 J0.
X171.376 Z-4.055 I1.984 J0.
X167.407 Z-4.086 I-1.984 J0.
X171.376 Z-4.117 I1.984 J0.
X167.407 Z-4.148 I-1.984 J0.
X171.376 Z-4.179 I1.984 J0.
X167.407 Z-4.211 I-1.984 J0.
X171.376 Z-4.242 I1.984 J0.
X167.407 Z-4.273 I-1.984 J0.
X171.376 Z-4.304 I1.984 J0.
X167.407 Z-4.335 I-1.984 J0.
X171.376 Z-4.366 I1.984 J0.
X167.407 Z-4.398 I-1.984 J0.
X171.376 Z-4.429 I1.984 J0.
X167.407 Z-4.46 I-1.984 J0.
X171.376 Z-4.491 I1.984 J0.
X167.407 Z-4.522 I-1.984 J0.
X171.376 Z-4.554 I1.984 J0.
X167.407 Z-4.585 I-1.984 J0.
X171.376 Z-4.616 I1.984 J0.
X167.407 Z-4.647 I-1.984 J0.
X171.376 Z-4.678 I1.984 J0.
X167.407 Z-4.709 I-1.984 J0.
X171.376 Z-4.741 I1.984 J0.
X167.407 Z-4.772 I-1.984 J0.
X171.376 Z-4.803 I1.984 J0.
X167.407 Z-4.834 I-1.984 J0.
X171.376 Z-4.865 I1.984 J0.
X167.407 Z-4.896 I-1.984 J0.
X171.376 Z-4.928 I1.984 J0.
X167.407 Z-4.959 I-1.984 J0.
X171.376 Z-4.99 I1.984 J0.
X167.407 Z-5.021 I-1.984 J0.
X171.376 Z-5.052 I1.984 J0.
X167.407 Z-5.083 I-1.984 J0.
X171.376 Z-5.115 I1.984 J0.
X167.407 Z-5.146 I-1.984 J0.
X171.376 Z-5.177 I1.984 J0.
X167.407 Z-5.208 I-1.984 J0.
X171.376 Z-5.239 I1.984 J0.
X167.407 Z-5.27 I-1.984 J0.
X171.376 Z-5.302 I1.984 J0.
X167.407 Z-5.333 I-1.984 J0.
X171.376 Z-5.364 I1.984 J0.
X167.407 Z-5.395 I-1.984 J0.
X171.376 Z-5.426 I1.984 J0.
X167.407 Z-5.457 I-1.984 J0.
X171.376 Z-5.489 I1.984 J0.
X167.407 Z-5.52 I-1.984 J0.
X171.376 Z-5.551 I1.984 J0.
X167.407 Z-5.582 I-1.984 J0.
X171.376 Z-5.613 I1.984 J0.
X167.407 Z-5.645 I-1.984 J0.
X171.371 Y178.662 Z-5.675 I1.984 J0.
X167.412 Y178.938 I-1.98 J0.138
X171.371 Y178.662 I1.98 J-0.138
X171.077 Y179.001 I-0.317 J0.022
G1 X170.918 Y179.012
X170.848 Y179.017 Z-5.667
X170.781 Y179.021 Z-5.644
X170.721 Y179.025 Z-5.606
X170.671 Y179.029 Z-5.555
X170.633 Y179.032 Z-5.495
X170.61 Y179.033 Z-5.428
X170.602 Y179.034 Z-5.358
G0 Z5.
X170.582 Y153.083
Z1.
G1 Z-0.683 F800.
G18 G2 X170.9 Z-1. I0.317 K0.
G1 X171.059
G17 G3 X171.376 Y153.4 I0. J0.317
X167.407 Z-1.031 I-1.984 J0.
X171.376 Z-1.062 I1.984 J0.
X167.407 Z-1.094 I-1.984 J0.
X171.376 Z-1.125 I1.984 J0.
X167.407 Z-1.156 I-1.984 J0.
X171.376 Z-1.187 I1.984 J0.
X167.407 Z-1.218 I-1.984 J0.
X171.376 Z-1.249 I1.984 J0.
X167.407 Z-1.281 I-1.984 J0.
X171.376 Z-1.312 I1.984 J0.
X167.407 Z-1.343 I-1.984 J0.
X171.376 Z-1.374 I1.984 J0.
X167.407 Z-1.405 I-1.984 J0.
X171.376 Z-1.436 I1.984 J0.
X167.407 Z-1.468 I-1.984 J0.
X171.376 Z-1.499 I1.984 J0.
X167.407 Z-1.53 I-1.984 J0.
X171.376 Z-1.561 I1.984 J0.
X167.407 Z-1.592 I-1.984 J0.
X171.376 Z-1.623 I1.984 J0.
X167.407 Z-1.655 I-1.984 J0.
X171.376 Z-1.686 I1.984 J0.
X167.407 Z-1.717 I-1.984 J0.
X171.376 Z-1.748 I1.984 J0.
X167.407 Z-1.779 I-1.984 J0.
X171.376 Z-1.81 I1.984 J0.
X167.407 Z-1.842 I-1.984 J0.
X171.376 Z-1.873 I1.984 J0.
X167.407 Z-1.904 I-1.984 J0.
X171.376 Z-1.935 I1.984 J0.
X167.407 Z-1.966 I-1.984 J0.
X171.376 Z-1.997 I1.984 J0.
X167.407 Z-2.029 I-1.984 J0.
X171.376 Z-2.06 I1.984 J0.
X167.407 Z-2.091 I-1.984 J0.
X171.376 Z-2.122 I1.984 J0.
X167.407 Z-2.153 I-1.984 J0.
X171.376 Z-2.185 I1.984 J0.
X167.407 Z-2.216 I-1.984 J0.
X171.376 Z-2.247 I1.984 J0.
X167.407 Z-2.278 I-1.984 J0.
X171.376 Z-2.309 I1.984 J0.
X167.407 Z-2.34 I-1.984 J0.
X171.376 Z-2.372 I1.984 J0.
X167.407 Z-2.403 I-1.984 J0.
X171.376 Z-2.434 I1.984 J0.
X167.407 Z-2.465 I-1.984 J0.
X171.376 Z-2.496 I1.984 J0.
X167.407 Z-2.527 I-1.984 J0.
X171.376 Z-2.559 I1.984 J0.
X167.407 Z-2.59 I-1.984 J0.
X171.376 Z-2.621 I1.984 J0.
X167.407 Z-2.652 I-1.984 J0.
X171.376 Z-2.683 I1.984 J0.
X167.407 Z-2.714 I-1.984 J0.
X171.376 Z-2.746 I1.984 J0.
X167.407 Z-2.777 I-1.984 J0.
X171.376 Z-2.808 I1.984 J0.
X167.407 Z-2.839 I-1.984 J0.
X171.376 Z-2.87 I1.984 J0.
X167.407 Z-2.901 I-1.984 J0.
X171.376 Z-2.933 I1.984 J0.
X167.407 Z-2.964 I-1.984 J0.
X171.376 Z-2.995 I1.984 J0.
X167.407 Z-3.026 I-1.984 J0.
X171.376 Z-3.057 I1.984 J0.
X167.407 Z-3.088 I-1.984 J0.
X171.376 Z-3.12 I1.984 J0.
X167.407 Z-3.151 I-1.984 J0.
X171.376 Z-3.182 I1.984 J0.
X167.407 Z-3.213 I-1.984 J0.
X171.376 Z-3.244 I1.984 J0.
X167.407 Z-3.276 I-1.984 J0.
X171.376 Z-3.307 I1.984 J0.
X167.407 Z-3.338 I-1.984 J0.
X171.376 Z-3.369 I1.984 J0.
X167.407 Z-3.4 I-1.984 J0.
X171.376 Z-3.431 I1.984 J0.
X167.407 Z-3.463 I-1.984 J0.
X171.376 Z-3.494 I1.984 J0.
X167.407 Z-3.525 I-1.984 J0.
X171.376 Z-3.556 I1.984 J0.
X167.407 Z-3.587 I-1.984 J0.
X171.376 Z-3.618 I1.984 J0.
X167.407 Z-3.65 I-1.984 J0.
X171.376 Z-3.681 I1.984 J0.
X167.407 Z-3.712 I-1.984 J0.
X171.376 Z-3.743 I1.984 J0.
X167.407 Z-3.774 I-1.984 J0.
X171.376 Z-3.805 I1.984 J0.
X167.407 Z-3.837 I-1.984 J0.
X171.376 Z-3.868 I1.984 J0.
X167.407 Z-3.899 I-1.984 J0.
X171.376 Z-3.93 I1.984 J0.
X167.407 Z-3.961 I-1.984 J0.
X171.376 Z-3.992 I1.984 J0.
X167.407 Z-4.024 I-1.984 J0.
X171.376 Z-4.055 I1.984 J0.
X167.407 Z-4.086 I-1.984 J0.
X171.376 Z-4.117 I1.984 J0.
X167.407 Z-4.148 I-1.984 J0.
X171.376 Z-4.179 I1.984 J0.
X167.407 Z-4.211 I-1.984 J0.
X171.376 Z-4.242 I1.984 J0.
X167.407 Z-4.273 I-1.984 J0.
X171.376 Z-4.304 I1.984 J0.
X167.407 Z-4.335 I-1.984 J0.
X171.376 Z-4.366 I1.984 J0.
X167.407 Z-4.398 I-1.984 J0.
X171.376 Z-4.429 I1.984 J0.
X167.407 Z-4.46 I-1.984 J0.
X171.376 Z-4.491 I1.984 J0.
X167.407 Z-4.522 I-1.984 J0.
X171.376 Z-4.554 I1.984 J0.
X167.407 Z-4.585 I-1.984 J0.
X171.376 Z-4.616 I1.984 J0.
X167.407 Z-4.647 I-1.984 J0.
X171.376 Z-4.678 I1.984 J0.
X167.407 Z-4.709 I-1.984 J0.
X171.376 Z-4.741 I1.984 J0.
X167.407 Z-4.772 I-1.984 J0.
X171.376 Z-4.803 I1.984 J0.
X167.407 Z-4.834 I-1.984 J0.
X171.376 Z-4.865 I1.984 J0.
X167.407 Z-4.896 I-1.984 J0.
X171.376 Z-4.928 I1.984 J0.
X167.407 Z-4.959 I-1.984 J0.
X171.376 Z-4.99 I1.984 J0.
X167.407 Z-5.021 I-1.984 J0.
X171.376 Z-5.052 I1.984 J0.
X167.407 Z-5.083 I-1.984 J0.
X171.376 Z-5.115 I1.984 J0.
X167.407 Z-5.146 I-1.984 J0.
X171.376 Z-5.177 I1.984 J0.
X167.407 Z-5.208 I-1.984 J0.
X171.376 Z-5.239 I1.984 J0.
X167.407 Z-5.27 I-1.984 J0.
X171.376 Z-5.302 I1.984 J0.
X167.407 Z-5.333 I-1.984 J0.
X171.376 Z-5.364 I1.984 J0.
X167.407 Z-5.395 I-1.984 J0.
X171.376 Z-5.426 I1.984 J0.
X167.407 Z-5.457 I-1.984 J0.
X171.376 Z-5.489 I1.984 J0.
X167.407 Z-5.52 I-1.984 J0.
X171.376 Z-5.551 I1.984 J0.
X167.407 Z-5.582 I-1.984 J0.
X171.376 Z-5.613 I1.984 J0.
X167.407 Z-5.645 I-1.984 J0.
X171.371 Y153.262 Z-5.675 I1.984 J0.
X167.412 Y153.538 I-1.98 J0.138
X171.371 Y153.262 I1.98 J-0.138
X171.077 Y153.601 I-0.317 J0.022
G1 X170.918 Y153.612
X170.848 Y153.617 Z-5.667
X170.781 Y153.621 Z-5.644
X170.721 Y153.625 Z-5.606
X170.671 Y153.629 Z-5.555
X170.633 Y153.632 Z-5.495
X170.61 Y153.633 Z-5.428
X170.602 Y153.634 Z-5.358
G0 Z5.
X145.182 Y153.083
Z1.
G1 Z-0.683 F800.
G18 G2 X145.5 Z-1. I0.318 K0.
G1 X145.659
G17 G3 X145.976 Y153.4 I0. J0.317
X142.007 Z-1.031 I-1.984 J0.
X145.976 Z-1.062 I1.984 J0.
X142.007 Z-1.094 I-1.984 J0.
X145.976 Z-1.125 I1.984 J0.
X142.007 Z-1.156 I-1.984 J0.
X145.976 Z-1.187 I1.984 J0.
X142.007 Z-1.218 I-1.984 J0.
X145.976 Z-1.249 I1.984 J0.
X142.007 Z-1.281 I-1.984 J0.
X145.976 Z-1.312 I1.984 J0.
X142.007 Z-1.343 I-1.984 J0.
X145.976 Z-1.374 I1.984 J0.
X142.007 Z-1.405 I-1.984 J0.
X145.976 Z-1.436 I1.984 J0.
X142.007 Z-1.468 I-1.984 J0.
X145.976 Z-1.499 I1.984 J0.
X142.007 Z-1.53 I-1.984 J0.
X145.976 Z-1.561 I1.984 J0.
X142.007 Z-1.592 I-1.984 J0.
X145.976 Z-1.623 I1.984 J0.
X142.007 Z-1.655 I-1.984 J0.
X145.976 Z-1.686 I1.984 J0.
X142.007 Z-1.717 I-1.984 J0.
X145.976 Z-1.748 I1.984 J0.
X142.007 Z-1.779 I-1.984 J0.
X145.976 Z-1.81 I1.984 J0.
X142.007 Z-1.842 I-1.984 J0.
X145.976 Z-1.873 I1.984 J0.
X142.007 Z-1.904 I-1.984 J0.
X145.976 Z-1.935 I1.984 J0.
X142.007 Z-1.966 I-1.984 J0.
X145.976 Z-1.997 I1.984 J0.
X142.007 Z-2.029 I-1.984 J0.
X145.976 Z-2.06 I1.984 J0.
X142.007 Z-2.091 I-1.984 J0.
X145.976 Z-2.122 I1.984 J0.
X142.007 Z-2.153 I-1.984 J0.
X145.976 Z-2.185 I1.984 J0.
X142.007 Z-2.216 I-1.984 J0.
X145.976 Z-2.247 I1.984 J0.
X142.007 Z-2.278 I-1.984 J0.
X145.976 Z-2.309 I1.984 J0.
X142.007 Z-2.34 I-1.984 J0.
X145.976 Z-2.372 I1.984 J0.
X142.007 Z-2.403 I-1.984 J0.
X145.976 Z-2.434 I1.984 J0.
X142.007 Z-2.465 I-1.984 J0.
X145.976 Z-2.496 I1.984 J0.
X142.007 Z-2.527 I-1.984 J0.
X145.976 Z-2.559 I1.984 J0.
X142.007 Z-2.59 I-1.984 J0.
X145.976 Z-2.621 I1.984 J0.
X142.007 Z-2.652 I-1.984 J0.
X145.976 Z-2.683 I1.984 J0.
X142.007 Z-2.714 I-1.984 J0.
X145.976 Z-2.746 I1.984 J0.
X142.007 Z-2.777 I-1.984 J0.
X145.976 Z-2.808 I1.984 J0.
X142.007 Z-2.839 I-1.984 J0.
X145.976 Z-2.87 I1.984 J0.
X142.007 Z-2.901 I-1.984 J0.
X145.976 Z-2.933 I1.984 J0.
X142.007 Z-2.964 I-1.984 J0.
X145.976 Z-2.995 I1.984 J0.
X142.007 Z-3.026 I-1.984 J0.
X145.976 Z-3.057 I1.984 J0.
X142.007 Z-3.088 I-1.984 J0.
X145.976 Z-3.12 I1.984 J0.
X142.007 Z-3.151 I-1.984 J0.
X145.976 Z-3.182 I1.984 J0.
X142.007 Z-3.213 I-1.984 J0.
X145.976 Z-3.244 I1.984 J0.
X142.007 Z-3.276 I-1.984 J0.
X145.976 Z-3.307 I1.984 J0.
X142.007 Z-3.338 I-1.984 J0.
X145.976 Z-3.369 I1.984 J0.
X142.007 Z-3.4 I-1.984 J0.
X145.976 Z-3.431 I1.984 J0.
X142.007 Z-3.463 I-1.984 J0.
X145.976 Z-3.494 I1.984 J0.
X142.007 Z-3.525 I-1.984 J0.
X145.976 Z-3.556 I1.984 J0.
X142.007 Z-3.587 I-1.984 J0.
X145.976 Z-3.618 I1.984 J0.
X142.007 Z-3.65 I-1.984 J0.
X145.976 Z-3.681 I1.984 J0.
X142.007 Z-3.712 I-1.984 J0.
X145.976 Z-3.743 I1.984 J0.
X142.007 Z-3.774 I-1.984 J0.
X145.976 Z-3.805 I1.984 J0.
X142.007 Z-3.837 I-1.984 J0.
X145.976 Z-3.868 I1.984 J0.
X142.007 Z-3.899 I-1.984 J0.
X145.976 Z-3.93 I1.984 J0.
X142.007 Z-3.961 I-1.984 J0.
X145.976 Z-3.992 I1.984 J0.
X142.007 Z-4.024 I-1.984 J0.
X145.976 Z-4.055 I1.984 J0.
X142.007 Z-4.086 I-1.984 J0.
X145.976 Z-4.117 I1.984 J0.
X142.007 Z-4.148 I-1.984 J0.
X145.976 Z-4.179 I1.984 J0.
X142.007 Z-4.211 I-1.984 J0.
X145.976 Z-4.242 I1.984 J0.
X142.007 Z-4.273 I-1.984 J0.
X145.976 Z-4.304 I1.984 J0.
X142.007 Z-4.335 I-1.984 J0.
X145.976 Z-4.366 I1.984 J0.
X142.007 Z-4.398 I-1.984 J0.
X145.976 Z-4.429 I1.984 J0.
X142.007 Z-4.46 I-1.984 J0.
X145.976 Z-4.491 I1.984 J0.
X142.007 Z-4.522 I-1.984 J0.
X145.976 Z-4.554 I1.984 J0.
X142.007 Z-4.585 I-1.984 J0.
X145.976 Z-4.616 I1.984 J0.
X142.007 Z-4.647 I-1.984 J0.
X145.976 Z-4.678 I1.984 J0.
X142.007 Z-4.709 I-1.984 J0.
X145.976 Z-4.741 I1.984 J0.
X142.007 Z-4.772 I-1.984 J0.
X145.976 Z-4.803 I1.984 J0.
X142.007 Z-4.834 I-1.984 J0.
X145.976 Z-4.865 I1.984 J0.
X142.007 Z-4.896 I-1.984 J0.
X145.976 Z-4.928 I1.984 J0.
X142.007 Z-4.959 I-1.984 J0.
X145.976 Z-4.99 I1.984 J0.
X142.007 Z-5.021 I-1.984 J0.
X145.976 Z-5.052 I1.984 J0.
X142.007 Z-5.083 I-1.984 J0.
X145.976 Z-5.115 I1.984 J0.
X142.007 Z-5.146 I-1.984 J0.
X145.976 Z-5.177 I1.984 J0.
X142.007 Z-5.208 I-1.984 J0.
X145.976 Z-5.239 I1.984 J0.
X142.007 Z-5.27 I-1.984 J0.
X145.976 Z-5.302 I1.984 J0.
X142.007 Z-5.333 I-1.984 J0.
X145.976 Z-5.364 I1.984 J0.
X142.007 Z-5.395 I-1.984 J0.
X145.976 Z-5.426 I1.984 J0.
X142.007 Z-5.457 I-1.984 J0.
X145.976 Z-5.489 I1.984 J0.
X142.007 Z-5.52 I-1.984 J0.
X145.976 Z-5.551 I1.984 J0.
X142.007 Z-5.582 I-1.984 J0.
X145.976 Z-5.613 I1.984 J0.
X142.007 Z-5.645 I-1.984 J0.
X145.971 Y153.262 Z-5.675 I1.984 J0.
X142.012 Y153.538 I-1.98 J0.138
X145.971 Y153.262 I1.98 J-0.138
X145.677 Y153.601 I-0.317 J0.022
G1 X145.518 Y153.612
X145.448 Y153.617 Z-5.667
X145.381 Y153.621 Z-5.644
X145.321 Y153.625 Z-5.606
X145.271 Y153.629 Z-5.555
X145.233 Y153.632 Z-5.495
X145.21 Y153.633 Z-5.428
X145.202 Y153.634 Z-5.358
G0 Z5.
X145.182 Y127.683
Z1.
G1 Z-0.683 F800.
G18 G2 X145.5 Z-1. I0.318 K0.
G1 X145.659
G17 G3 X145.976 Y128. I0. J0.317
X142.007 Z-1.031 I-1.984 J0.
X145.976 Z-1.062 I1.984 J0.
X142.007 Z-1.094 I-1.984 J0.
X145.976 Z-1.125 I1.984 J0.
X142.007 Z-1.156 I-1.984 J0.
X145.976 Z-1.187 I1.984 J0.
X142.007 Z-1.218 I-1.984 J0.
X145.976 Z-1.249 I1.984 J0.
X142.007 Z-1.281 I-1.984 J0.
X145.976 Z-1.312 I1.984 J0.
X142.007 Z-1.343 I-1.984 J0.
X145.976 Z-1.374 I1.984 J0.
X142.007 Z-1.405 I-1.984 J0.
X145.976 Z-1.436 I1.984 J0.
X142.007 Z-1.468 I-1.984 J0.
X145.976 Z-1.499 I1.984 J0.
X142.007 Z-1.53 I-1.984 J0.
X145.976 Z-1.561 I1.984 J0.
X142.007 Z-1.592 I-1.984 J0.
X145.976 Z-1.623 I1.984 J0.
X142.007 Z-1.655 I-1.984 J0.
X145.976 Z-1.686 I1.984 J0.
X142.007 Z-1.717 I-1.984 J0.
X145.976 Z-1.748 I1.984 J0.
X142.007 Z-1.779 I-1.984 J0.
X145.976 Z-1.81 I1.984 J0.
X142.007 Z-1.842 I-1.984 J0.
X145.976 Z-1.873 I1.984 J0.
X142.007 Z-1.904 I-1.984 J0.
X145.976 Z-1.935 I1.984 J0.
X142.007 Z-1.966 I-1.984 J0.
X145.976 Z-1.997 I1.984 J0.
X142.007 Z-2.029 I-1.984 J0.
X145.976 Z-2.06 I1.984 J0.
X142.007 Z-2.091 I-1.984 J0.
X145.976 Z-2.122 I1.984 J0.
X142.007 Z-2.153 I-1.984 J0.
X145.976 Z-2.185 I1.984 J0.
X142.007 Z-2.216 I-1.984 J0.
X145.976 Z-2.247 I1.984 J0.
X142.007 Z-2.278 I-1.984 J0.
X145.976 Z-2.309 I1.984 J0.
X142.007 Z-2.34 I-1.984 J0.
X145.976 Z-2.372 I1.984 J0.
X142.007 Z-2.403 I-1.984 J0.
X145.976 Z-2.434 I1.984 J0.
X142.007 Z-2.465 I-1.984 J0.
X145.976 Z-2.496 I1.984 J0.
X142.007 Z-2.527 I-1.984 J0.
X145.976 Z-2.559 I1.984 J0.
X142.007 Z-2.59 I-1.984 J0.
X145.976 Z-2.621 I1.984 J0.
X142.007 Z-2.652 I-1.984 J0.
X145.976 Z-2.683 I1.984 J0.
X142.007 Z-2.714 I-1.984 J0.
X145.976 Z-2.746 I1.984 J0.
X142.007 Z-2.777 I-1.984 J0.
X145.976 Z-2.808 I1.984 J0.
X142.007 Z-2.839 I-1.984 J0.
X145.976 Z-2.87 I1.984 J0.
X142.007 Z-2.901 I-1.984 J0.
X145.976 Z-2.933 I1.984 J0.
X142.007 Z-2.964 I-1.984 J0.
X145.976 Z-2.995 I1.984 J0.
X142.007 Z-3.026 I-1.984 J0.
X145.976 Z-3.057 I1.984 J0.
X142.007 Z-3.088 I-1.984 J0.
X145.976 Z-3.12 I1.984 J0.
X142.007 Z-3.151 I-1.984 J0.
X145.976 Z-3.182 I1.984 J0.
X142.007 Z-3.213 I-1.984 J0.
X145.976 Z-3.244 I1.984 J0.
X142.007 Z-3.276 I-1.984 J0.
X145.976 Z-3.307 I1.984 J0.
X142.007 Z-3.338 I-1.984 J0.
X145.976 Z-3.369 I1.984 J0.
X142.007 Z-3.4 I-1.984 J0.
X145.976 Z-3.431 I1.984 J0.
X142.007 Z-3.463 I-1.984 J0.
X145.976 Z-3.494 I1.984 J0.
X142.007 Z-3.525 I-1.984 J0.
X145.976 Z-3.556 I1.984 J0.
X142.007 Z-3.587 I-1.984 J0.
X145.976 Z-3.618 I1.984 J0.
X142.007 Z-3.65 I-1.984 J0.
X145.976 Z-3.681 I1.984 J0.
X142.007 Z-3.712 I-1.984 J0.
X145.976 Z-3.743 I1.984 J0.
X142.007 Z-3.774 I-1.984 J0.
X145.976 Z-3.805 I1.984 J0.
X142.007 Z-3.837 I-1.984 J0.
X145.976 Z-3.868 I1.984 J0.
X142.007 Z-3.899 I-1.984 J0.
X145.976 Z-3.93 I1.984 J0.
X142.007 Z-3.961 I-1.984 J0.
X145.976 Z-3.992 I1.984 J0.
X142.007 Z-4.024 I-1.984 J0.
X145.976 Z-4.055 I1.984 J0.
X142.007 Z-4.086 I-1.984 J0.
X145.976 Z-4.117 I1.984 J0.
X142.007 Z-4.148 I-1.984 J0.
X145.976 Z-4.179 I1.984 J0.
X142.007 Z-4.211 I-1.984 J0.
X145.976 Z-4.242 I1.984 J0.
X142.007 Z-4.273 I-1.984 J0.
X145.976 Z-4.304 I1.984 J0.
X142.007 Z-4.335 I-1.984 J0.
X145.976 Z-4.366 I1.984 J0.
X142.007 Z-4.398 I-1.984 J0.
X145.976 Z-4.429 I1.984 J0.
X142.007 Z-4.46 I-1.984 J0.
X145.976 Z-4.491 I1.984 J0.
X142.007 Z-4.522 I-1.984 J0.
X145.976 Z-4.554 I1.984 J0.
X142.007 Z-4.585 I-1.984 J0.
X145.976 Z-4.616 I1.984 J0.
X142.007 Z-4.647 I-1.984 J0.
X145.976 Z-4.678 I1.984 J0.
X142.007 Z-4.709 I-1.984 J0.
X145.976 Z-4.741 I1.984 J0.
X142.007 Z-4.772 I-1.984 J0.
X145.976 Z-4.803 I1.984 J0.
X142.007 Z-4.834 I-1.984 J0.
X145.976 Z-4.865 I1.984 J0.
X142.007 Z-4.896 I-1.984 J0.
X145.976 Z-4.928 I1.984 J0.
X142.007 Z-4.959 I-1.984 J0.
X145.976 Z-4.99 I1.984 J0.
X142.007 Z-5.021 I-1.984 J0.
X145.976 Z-5.052 I1.984 J0.
X142.007 Z-5.083 I-1.984 J0.
X145.976 Z-5.115 I1.984 J0.
X142.007 Z-5.146 I-1.984 J0.
X145.976 Z-5.177 I1.984 J0.
X142.007 Z-5.208 I-1.984 J0.
X145.976 Z-5.239 I1.984 J0.
X142.007 Z-5.27 I-1.984 J0.
X145.976 Z-5.302 I1.984 J0.
X142.007 Z-5.333 I-1.984 J0.
X145.976 Z-5.364 I1.984 J0.
X142.007 Z-5.395 I-1.984 J0.
X145.976 Z-5.426 I1.984 J0.
X142.007 Z-5.457 I-1.984 J0.
X145.976 Z-5.489 I1.984 J0.
X142.007 Z-5.52 I-1.984 J0.
X145.976 Z-5.551 I1.984 J0.
X142.007 Z-5.582 I-1.984 J0.
X145.976 Z-5.613 I1.984 J0.
X142.007 Z-5.645 I-1.984 J0.
X145.971 Y127.862 Z-5.675 I1.984 J0.
X142.012 Y128.138 I-1.98 J0.138
X145.971 Y127.862 I1.98 J-0.138
X145.677 Y128.201 I-0.317 J0.022
G1 X145.518 Y128.212
X145.448 Y128.217 Z-5.667
X145.381 Y128.221 Z-5.644
X145.321 Y128.225 Z-5.606
X145.271 Y128.229 Z-5.555
X145.233 Y128.232 Z-5.495
X145.21 Y128.233 Z-5.428
X145.202 Y128.234 Z-5.358
G0 Z5.
X170.582 Y127.683
Z1.
G1 Z-0.683 F800.
G18 G2 X170.9 Z-1. I0.317 K0.
G1 X171.059
G17 G3 X171.376 Y128. I0. J0.317
X167.407 Z-1.031 I-1.984 J0.
X171.376 Z-1.062 I1.984 J0.
X167.407 Z-1.094 I-1.984 J0.
X171.376 Z-1.125 I1.984 J0.
X167.407 Z-1.156 I-1.984 J0.
X171.376 Z-1.187 I1.984 J0.
X167.407 Z-1.218 I-1.984 J0.
X171.376 Z-1.249 I1.984 J0.
X167.407 Z-1.281 I-1.984 J0.
X171.376 Z-1.312 I1.984 J0.
X167.407 Z-1.343 I-1.984 J0.
X171.376 Z-1.374 I1.984 J0.
X167.407 Z-1.405 I-1.984 J0.
X171.376 Z-1.436 I1.984 J0.
X167.407 Z-1.468 I-1.984 J0.
X171.376 Z-1.499 I1.984 J0.
X167.407 Z-1.53 I-1.984 J0.
X171.376 Z-1.561 I1.984 J0.
X167.407 Z-1.592 I-1.984 J0.
X171.376 Z-1.623 I1.984 J0.
X167.407 Z-1.655 I-1.984 J0.
X171.376 Z-1.686 I1.984 J0.
X167.407 Z-1.717 I-1.984 J0.
X171.376 Z-1.748 I1.984 J0.
X167.407 Z-1.779 I-1.984 J0.
X171.376 Z-1.81 I1.984 J0.
X167.407 Z-1.842 I-1.984 J0.
X171.376 Z-1.873 I1.984 J0.
X167.407 Z-1.904 I-1.984 J0.
X171.376 Z-1.935 I1.984 J0.
X167.407 Z-1.966 I-1.984 J0.
X171.376 Z-1.997 I1.984 J0.
X167.407 Z-2.029 I-1.984 J0.
X171.376 Z-2.06 I1.984 J0.
X167.407 Z-2.091 I-1.984 J0.
X171.376 Z-2.122 I1.984 J0.
X167.407 Z-2.153 I-1.984 J0.
X171.376 Z-2.185 I1.984 J0.
X167.407 Z-2.216 I-1.984 J0.
X171.376 Z-2.247 I1.984 J0.
X167.407 Z-2.278 I-1.984 J0.
X171.376 Z-2.309 I1.984 J0.
X167.407 Z-2.34 I-1.984 J0.
X171.376 Z-2.372 I1.984 J0.
X167.407 Z-2.403 I-1.984 J0.
X171.376 Z-2.434 I1.984 J0.
X167.407 Z-2.465 I-1.984 J0.
X171.376 Z-2.496 I1.984 J0.
X167.407 Z-2.527 I-1.984 J0.
X171.376 Z-2.559 I1.984 J0.
X167.407 Z-2.59 I-1.984 J0.
X171.376 Z-2.621 I1.984 J0.
X167.407 Z-2.652 I-1.984 J0.
X171.376 Z-2.683 I1.984 J0.
X167.407 Z-2.714 I-1.984 J0.
X171.376 Z-2.746 I1.984 J0.
X167.407 Z-2.777 I-1.984 J0.
X171.376 Z-2.808 I1.984 J0.
X167.407 Z-2.839 I-1.984 J0.
X171.376 Z-2.87 I1.984 J0.
X167.407 Z-2.901 I-1.984 J0.
X171.376 Z-2.933 I1.984 J0.
X167.407 Z-2.964 I-1.984 J0.
X171.376 Z-2.995 I1.984 J0.
X167.407 Z-3.026 I-1.984 J0.
X171.376 Z-3.057 I1.984 J0.
X167.407 Z-3.088 I-1.984 J0.
X171.376 Z-3.12 I1.984 J0.
X167.407 Z-3.151 I-1.984 J0.
X171.376 Z-3.182 I1.984 J0.
X167.407 Z-3.213 I-1.984 J0.
X171.376 Z-3.244 I1.984 J0.
X167.407 Z-3.276 I-1.984 J0.
X171.376 Z-3.307 I1.984 J0.
X167.407 Z-3.338 I-1.984 J0.
X171.376 Z-3.369 I1.984 J0.
X167.407 Z-3.4 I-1.984 J0.
X171.376 Z-3.431 I1.984 J0.
X167.407 Z-3.463 I-1.984 J0.
X171.376 Z-3.494 I1.984 J0.
X167.407 Z-3.525 I-1.984 J0.
X171.376 Z-3.556 I1.984 J0.
X167.407 Z-3.587 I-1.984 J0.
X171.376 Z-3.618 I1.984 J0.
X167.407 Z-3.65 I-1.984 J0.
X171.376 Z-3.681 I1.984 J0.
X167.407 Z-3.712 I-1.984 J0.
X171.376 Z-3.743 I1.984 J0.
X167.407 Z-3.774 I-1.984 J0.
X171.376 Z-3.805 I1.984 J0.
X167.407 Z-3.837 I-1.984 J0.
X171.376 Z-3.868 I1.984 J0.
X167.407 Z-3.899 I-1.984 J0.
X171.376 Z-3.93 I1.984 J0.
X167.407 Z-3.961 I-1.984 J0.
X171.376 Z-3.992 I1.984 J0.
X167.407 Z-4.024 I-1.984 J0.
X171.376 Z-4.055 I1.984 J0.
X167.407 Z-4.086 I-1.984 J0.
X171.376 Z-4.117 I1.984 J0.
X167.407 Z-4.148 I-1.984 J0.
X171.376 Z-4.179 I1.984 J0.
X167.407 Z-4.211 I-1.984 J0.
X171.376 Z-4.242 I1.984 J0.
X167.407 Z-4.273 I-1.984 J0.
X171.376 Z-4.304 I1.984 J0.
X167.407 Z-4.335 I-1.984 J0.
X171.376 Z-4.366 I1.984 J0.
X167.407 Z-4.398 I-1.984 J0.
X171.376 Z-4.429 I1.984 J0.
X167.407 Z-4.46 I-1.984 J0.
X171.376 Z-4.491 I1.984 J0.
X167.407 Z-4.522 I-1.984 J0.
X171.376 Z-4.554 I1.984 J0.
X167.407 Z-4.585 I-1.984 J0.
X171.376 Z-4.616 I1.984 J0.
X167.407 Z-4.647 I-1.984 J0.
X171.376 Z-4.678 I1.984 J0.
X167.407 Z-4.709 I-1.984 J0.
X171.376 Z-4.741 I1.984 J0.
X167.407 Z-4.772 I-1.984 J0.
X171.376 Z-4.803 I1.984 J0.
X167.407 Z-4.834 I-1.984 J0.
X171.376 Z-4.865 I1.984 J0.
X167.407 Z-4.896 I-1.984 J0.
X171.376 Z-4.928 I1.984 J0.
X167.407 Z-4.959 I-1.984 J0.
X171.376 Z-4.99 I1.984 J0.
X167.407 Z-5.021 I-1.984 J0.
X171.376 Z-5.052 I1.984 J0.
X167.407 Z-5.083 I-1.984 J0.
X171.376 Z-5.115 I1.984 J0.
X167.407 Z-5.146 I-1.984 J0.
X171.376 Z-5.177 I1.984 J0.
X167.407 Z-5.208 I-1.984 J0.
X171.376 Z-5.239 I1.984 J0.
X167.407 Z-5.27 I-1.984 J0.
X171.376 Z-5.302 I1.984 J0.
X167.407 Z-5.333 I-1.984 J0.
X171.376 Z-5.364 I1.984 J0.
X167.407 Z-5.395 I-1.984 J0.
X171.376 Z-5.426 I1.984 J0.
X167.407 Z-5.457 I-1.984 J0.
X171.376 Z-5.489 I1.984 J0.
X167.407 Z-5.52 I-1.984 J0.
X171.376 Z-5.551 I1.984 J0.
X167.407 Z-5.582 I-1.984 J0.
X171.376 Z-5.613 I1.984 J0.
X167.407 Z-5.645 I-1.984 J0.
X171.371 Y127.862 Z-5.675 I1.984 J0.
X167.412 Y128.138 I-1.98 J0.138
X171.371 Y127.862 I1.98 J-0.138
X171.077 Y128.201 I-0.317 J0.022
G1 X170.918 Y128.212
X170.848 Y128.217 Z-5.667
X170.781 Y128.221 Z-5.644
X170.721 Y128.225 Z-5.606
X170.671 Y128.229 Z-5.555
X170.633 Y128.232 Z-5.495
X170.61 Y128.233 Z-5.428
X170.602 Y128.234 Z-5.358
G0 Z5.
X170.582 Y102.283
Z1.
G1 Z-0.683 F800.
G18 G2 X170.9 Z-1. I0.317 K0.
G1 X171.059
G17 G3 X171.376 Y102.6 I0. J0.317
X167.407 Z-1.031 I-1.984 J0.
X171.376 Z-1.062 I1.984 J0.
X167.407 Z-1.094 I-1.984 J0.
X171.376 Z-1.125 I1.984 J0.
X167.407 Z-1.156 I-1.984 J0.
X171.376 Z-1.187 I1.984 J0.
X167.407 Z-1.218 I-1.984 J0.
X171.376 Z-1.249 I1.984 J0.
X167.407 Z-1.281 I-1.984 J0.
X171.376 Z-1.312 I1.984 J0.
X167.407 Z-1.343 I-1.984 J0.
X171.376 Z-1.374 I1.984 J0.
X167.407 Z-1.405 I-1.984 J0.
X171.376 Z-1.436 I1.984 J0.
X167.407 Z-1.468 I-1.984 J0.
X171.376 Z-1.499 I1.984 J0.
X167.407 Z-1.53 I-1.984 J0.
X171.376 Z-1.561 I1.984 J0.
X167.407 Z-1.592 I-1.984 J0.
X171.376 Z-1.623 I1.984 J0.
X167.407 Z-1.655 I-1.984 J0.
X171.376 Z-1.686 I1.984 J0.
X167.407 Z-1.717 I-1.984 J0.
X171.376 Z-1.748 I1.984 J0.
X167.407 Z-1.779 I-1.984 J0.
X171.376 Z-1.81 I1.984 J0.
X167.407 Z-1.842 I-1.984 J0.
X171.376 Z-1.873 I1.984 J0.
X167.407 Z-1.904 I-1.984 J0.
X171.376 Z-1.935 I1.984 J0.
X167.407 Z-1.966 I-1.984 J0.
X171.376 Z-1.997 I1.984 J0.
X167.407 Z-2.029 I-1.984 J0.
X171.376 Z-2.06 I1.984 J0.
X167.407 Z-2.091 I-1.984 J0.
X171.376 Z-2.122 I1.984 J0.
X167.407 Z-2.153 I-1.984 J0.
X171.376 Z-2.185 I1.984 J0.
X167.407 Z-2.216 I-1.984 J0.
X171.376 Z-2.247 I1.984 J0.
X167.407 Z-2.278 I-1.984 J0.
X171.376 Z-2.309 I1.984 J0.
X167.407 Z-2.34 I-1.984 J0.
X171.376 Z-2.372 I1.984 J0.
X167.407 Z-2.403 I-1.984 J0.
X171.376 Z-2.434 I1.984 J0.
X167.407 Z-2.465 I-1.984 J0.
X171.376 Z-2.496 I1.984 J0.
X167.407 Z-2.527 I-1.984 J0.
X171.376 Z-2.559 I1.984 J0.
X167.407 Z-2.59 I-1.984 J0.
X171.376 Z-2.621 I1.984 J0.
X167.407 Z-2.652 I-1.984 J0.
X171.376 Z-2.683 I1.984 J0.
X167.407 Z-2.714 I-1.984 J0.
X171.376 Z-2.746 I1.984 J0.
X167.407 Z-2.777 I-1.984 J0.
X171.376 Z-2.808 I1.984 J0.
X167.407 Z-2.839 I-1.984 J0.
X171.376 Z-2.87 I1.984 J0.
X167.407 Z-2.901 I-1.984 J0.
X171.376 Z-2.933 I1.984 J0.
X167.407 Z-2.964 I-1.984 J0.
X171.376 Z-2.995 I1.984 J0.
X167.407 Z-3.026 I-1.984 J0.
X171.376 Z-3.057 I1.984 J0.
X167.407 Z-3.088 I-1.984 J0.
X171.376 Z-3.12 I1.984 J0.
X167.407 Z-3.151 I-1.984 J0.
X171.376 Z-3.182 I1.984 J0.
X167.407 Z-3.213 I-1.984 J0.
X171.376 Z-3.244 I1.984 J0.
X167.407 Z-3.276 I-1.984 J0.
X171.376 Z-3.307 I1.984 J0.
X167.407 Z-3.338 I-1.984 J0.
X171.376 Z-3.369 I1.984 J0.
X167.407 Z-3.4 I-1.984 J0.
X171.376 Z-3.431 I1.984 J0.
X167.407 Z-3.463 I-1.984 J0.
X171.376 Z-3.494 I1.984 J0.
X167.407 Z-3.525 I-1.984 J0.
X171.376 Z-3.556 I1.984 J0.
X167.407 Z-3.587 I-1.984 J0.
X171.376 Z-3.618 I1.984 J0.
X167.407 Z-3.65 I-1.984 J0.
X171.376 Z-3.681 I1.984 J0.
X167.407 Z-3.712 I-1.984 J0.
X171.376 Z-3.743 I1.984 J0.
X167.407 Z-3.774 I-1.984 J0.
X171.376 Z-3.805 I1.984 J0.
X167.407 Z-3.837 I-1.984 J0.
X171.376 Z-3.868 I1.984 J0.
X167.407 Z-3.899 I-1.984 J0.
X171.376 Z-3.93 I1.984 J0.
X167.407 Z-3.961 I-1.984 J0.
X171.376 Z-3.992 I1.984 J0.
X167.407 Z-4.024 I-1.984 J0.
X171.376 Z-4.055 I1.984 J0.
X167.407 Z-4.086 I-1.984 J0.
X171.376 Z-4.117 I1.984 J0.
X167.407 Z-4.148 I-1.984 J0.
X171.376 Z-4.179 I1.984 J0.
X167.407 Z-4.211 I-1.984 J0.
X171.376 Z-4.242 I1.984 J0.
X167.407 Z-4.273 I-1.984 J0.
X171.376 Z-4.304 I1.984 J0.
X167.407 Z-4.335 I-1.984 J0.
X171.376 Z-4.366 I1.984 J0.
X167.407 Z-4.398 I-1.984 J0.
X171.376 Z-4.429 I1.984 J0.
X167.407 Z-4.46 I-1.984 J0.
X171.376 Z-4.491 I1.984 J0.
X167.407 Z-4.522 I-1.984 J0.
X171.376 Z-4.554 I1.984 J0.
X167.407 Z-4.585 I-1.984 J0.
X171.376 Z-4.616 I1.984 J0.
X167.407 Z-4.647 I-1.984 J0.
X171.376 Z-4.678 I1.984 J0.
X167.407 Z-4.709 I-1.984 J0.
X171.376 Z-4.741 I1.984 J0.
X167.407 Z-4.772 I-1.984 J0.
X171.376 Z-4.803 I1.984 J0.
X167.407 Z-4.834 I-1.984 J0.
X171.376 Z-4.865 I1.984 J0.
X167.407 Z-4.896 I-1.984 J0.
X171.376 Z-4.928 I1.984 J0.
X167.407 Z-4.959 I-1.984 J0.
X171.376 Z-4.99 I1.984 J0.
X167.407 Z-5.021 I-1.984 J0.
X171.376 Z-5.052 I1.984 J0.
X167.407 Z-5.083 I-1.984 J0.
X171.376 Z-5.115 I1.984 J0.
X167.407 Z-5.146 I-1.984 J0.
X171.376 Z-5.177 I1.984 J0.
X167.407 Z-5.208 I-1.984 J0.
X171.376 Z-5.239 I1.984 J0.
X167.407 Z-5.27 I-1.984 J0.
X171.376 Z-5.302 I1.984 J0.
X167.407 Z-5.333 I-1.984 J0.
X171.376 Z-5.364 I1.984 J0.
X167.407 Z-5.395 I-1.984 J0.
X171.376 Z-5.426 I1.984 J0.
X167.407 Z-5.457 I-1.984 J0.
X171.376 Z-5.489 I1.984 J0.
X167.407 Z-5.52 I-1.984 J0.
X171.376 Z-5.551 I1.984 J0.
X167.407 Z-5.582 I-1.984 J0.
X171.376 Z-5.613 I1.984 J0.
X167.407 Z-5.645 I-1.984 J0.
X171.371 Y102.462 Z-5.675 I1.984 J0.
X167.412 Y102.738 I-1.98 J0.138
X171.371 Y102.462 I1.98 J-0.138
X171.077 Y102.801 I-0.317 J0.022
G1 X170.918 Y102.812
X170.848 Y102.817 Z-5.667
X170.781 Y102.821 Z-5.644
X170.721 Y102.825 Z-5.606
X170.671 Y102.829 Z-5.555
X170.633 Y102.832 Z-5.495
X170.61 Y102.833 Z-5.428
X170.602 Y102.834 Z-5.358
G0 Z5.
X145.182 Y102.283
Z1.
G1 Z-0.683 F800.
G18 G2 X145.5 Z-1. I0.318 K0.
G1 X145.659
G17 G3 X145.976 Y102.6 I0. J0.317
X142.007 Z-1.031 I-1.984 J0.
X145.976 Z-1.062 I1.984 J0.
X142.007 Z-1.094 I-1.984 J0.
X145.976 Z-1.125 I1.984 J0.
X142.007 Z-1.156 I-1.984 J0.
X145.976 Z-1.187 I1.984 J0.
X142.007 Z-1.218 I-1.984 J0.
X145.976 Z-1.249 I1.984 J0.
X142.007 Z-1.281 I-1.984 J0.
X145.976 Z-1.312 I1.984 J0.
X142.007 Z-1.343 I-1.984 J0.
X145.976 Z-1.374 I1.984 J0.
X142.007 Z-1.405 I-1.984 J0.
X145.976 Z-1.436 I1.984 J0.
X142.007 Z-1.468 I-1.984 J0.
X145.976 Z-1.499 I1.984 J0.
X142.007 Z-1.53 I-1.984 J0.
X145.976 Z-1.561 I1.984 J0.
X142.007 Z-1.592 I-1.984 J0.
X145.976 Z-1.623 I1.984 J0.
X142.007 Z-1.655 I-1.984 J0.
X145.976 Z-1.686 I1.984 J0.
X142.007 Z-1.717 I-1.984 J0.
X145.976 Z-1.748 I1.984 J0.
X142.007 Z-1.779 I-1.984 J0.
X145.976 Z-1.81 I1.984 J0.
X142.007 Z-1.842 I-1.984 J0.
X145.976 Z-1.873 I1.984 J0.
X142.007 Z-1.904 I-1.984 J0.
X145.976 Z-1.935 I1.984 J0.
X142.007 Z-1.966 I-1.984 J0.
X145.976 Z-1.997 I1.984 J0.
X142.007 Z-2.029 I-1.984 J0.
X145.976 Z-2.06 I1.984 J0.
X142.007 Z-2.091 I-1.984 J0.
X145.976 Z-2.122 I1.984 J0.
X142.007 Z-2.153 I-1.984 J0.
X145.976 Z-2.185 I1.984 J0.
X142.007 Z-2.216 I-1.984 J0.
X145.976 Z-2.247 I1.984 J0.
X142.007 Z-2.278 I-1.984 J0.
X145.976 Z-2.309 I1.984 J0.
X142.007 Z-2.34 I-1.984 J0.
X145.976 Z-2.372 I1.984 J0.
X142.007 Z-2.403 I-1.984 J0.
X145.976 Z-2.434 I1.984 J0.
X142.007 Z-2.465 I-1.984 J0.
X145.976 Z-2.496 I1.984 J0.
X142.007 Z-2.527 I-1.984 J0.
X145.976 Z-2.559 I1.984 J0.
X142.007 Z-2.59 I-1.984 J0.
X145.976 Z-2.621 I1.984 J0.
X142.007 Z-2.652 I-1.984 J0.
X145.976 Z-2.683 I1.984 J0.
X142.007 Z-2.714 I-1.984 J0.
X145.976 Z-2.746 I1.984 J0.
X142.007 Z-2.777 I-1.984 J0.
X145.976 Z-2.808 I1.984 J0.
X142.007 Z-2.839 I-1.984 J0.
X145.976 Z-2.87 I1.984 J0.
X142.007 Z-2.901 I-1.984 J0.
X145.976 Z-2.933 I1.984 J0.
X142.007 Z-2.964 I-1.984 J0.
X145.976 Z-2.995 I1.984 J0.
X142.007 Z-3.026 I-1.984 J0.
X145.976 Z-3.057 I1.984 J0.
X142.007 Z-3.088 I-1.984 J0.
X145.976 Z-3.12 I1.984 J0.
X142.007 Z-3.151 I-1.984 J0.
X145.976 Z-3.182 I1.984 J0.
X142.007 Z-3.213 I-1.984 J0.
X145.976 Z-3.244 I1.984 J0.
X142.007 Z-3.276 I-1.984 J0.
X145.976 Z-3.307 I1.984 J0.
X142.007 Z-3.338 I-1.984 J0.
X145.976 Z-3.369 I1.984 J0.
X142.007 Z-3.4 I-1.984 J0.
X145.976 Z-3.431 I1.984 J0.
X142.007 Z-3.463 I-1.984 J0.
X145.976 Z-3.494 I1.984 J0.
X142.007 Z-3.525 I-1.984 J0.
X145.976 Z-3.556 I1.984 J0.
X142.007 Z-3.587 I-1.984 J0.
X145.976 Z-3.618 I1.984 J0.
X142.007 Z-3.65 I-1.984 J0.
X145.976 Z-3.681 I1.984 J0.
X142.007 Z-3.712 I-1.984 J0.
X145.976 Z-3.743 I1.984 J0.
X142.007 Z-3.774 I-1.984 J0.
X145.976 Z-3.805 I1.984 J0.
X142.007 Z-3.837 I-1.984 J0.
X145.976 Z-3.868 I1.984 J0.
X142.007 Z-3.899 I-1.984 J0.
X145.976 Z-3.93 I1.984 J0.
X142.007 Z-3.961 I-1.984 J0.
X145.976 Z-3.992 I1.984 J0.
X142.007 Z-4.024 I-1.984 J0.
X145.976 Z-4.055 I1.984 J0.
X142.007 Z-4.086 I-1.984 J0.
X145.976 Z-4.117 I1.984 J0.
X142.007 Z-4.148 I-1.984 J0.
X145.976 Z-4.179 I1.984 J0.
X142.007 Z-4.211 I-1.984 J0.
X145.976 Z-4.242 I1.984 J0.
X142.007 Z-4.273 I-1.984 J0.
X145.976 Z-4.304 I1.984 J0.
X142.007 Z-4.335 I-1.984 J0.
X145.976 Z-4.366 I1.984 J0.
X142.007 Z-4.398 I-1.984 J0.
X145.976 Z-4.429 I1.984 J0.
X142.007 Z-4.46 I-1.984 J0.
X145.976 Z-4.491 I1.984 J0.
X142.007 Z-4.522 I-1.984 J0.
X145.976 Z-4.554 I1.984 J0.
X142.007 Z-4.585 I-1.984 J0.
X145.976 Z-4.616 I1.984 J0.
X142.007 Z-4.647 I-1.984 J0.
X145.976 Z-4.678 I1.984 J0.
X142.007 Z-4.709 I-1.984 J0.
X145.976 Z-4.741 I1.984 J0.
X142.007 Z-4.772 I-1.984 J0.
X145.976 Z-4.803 I1.984 J0.
X142.007 Z-4.834 I-1.984 J0.
X145.976 Z-4.865 I1.984 J0.
X142.007 Z-4.896 I-1.984 J0.
X145.976 Z-4.928 I1.984 J0.
X142.007 Z-4.959 I-1.984 J0.
X145.976 Z-4.99 I1.984 J0.
X142.007 Z-5.021 I-1.984 J0.
X145.976 Z-5.052 I1.984 J0.
X142.007 Z-5.083 I-1.984 J0.
X145.976 Z-5.115 I1.984 J0.
X142.007 Z-5.146 I-1.984 J0.
X145.976 Z-5.177 I1.984 J0.
X142.007 Z-5.208 I-1.984 J0.
X145.976 Z-5.239 I1.984 J0.
X142.007 Z-5.27 I-1.984 J0.
X145.976 Z-5.302 I1.984 J0.
X142.007 Z-5.333 I-1.984 J0.
X145.976 Z-5.364 I1.984 J0.
X142.007 Z-5.395 I-1.984 J0.
X145.976 Z-5.426 I1.984 J0.
X142.007 Z-5.457 I-1.984 J0.
X145.976 Z-5.489 I1.984 J0.
X142.007 Z-5.52 I-1.984 J0.
X145.976 Z-5.551 I1.984 J0.
X142.007 Z-5.582 I-1.984 J0.
X145.976 Z-5.613 I1.984 J0.
X142.007 Z-5.645 I-1.984 J0.
X145.971 Y102.462 Z-5.675 I1.984 J0.
X142.012 Y102.738 I-1.98 J0.138
X145.971 Y102.462 I1.98 J-0.138
X145.677 Y102.801 I-0.317 J0.022
G1 X145.518 Y102.812
X145.448 Y102.817 Z-5.667
X145.381 Y102.821 Z-5.644
X145.321 Y102.825 Z-5.606
X145.271 Y102.829 Z-5.555
X145.233 Y102.832 Z-5.495
X145.21 Y102.833 Z-5.428
X145.202 Y102.834 Z-5.358
G0 Z5.
X59.341 Y102.442
Z0.499
G1 Z-1.183 F800.
G18 G2 X59.658 Z-1.501 I0.318 K0.
G1 X59.817
G17 G3 X60.134 Y102.759 I0. J0.318
X56.166 Z-1.532 I-1.984 J0.
X60.134 Z-1.563 I1.984 J0.
X56.166 Z-1.594 I-1.984 J0.
X60.134 Z-1.626 I1.984 J0.
X56.166 Z-1.657 I-1.984 J0.
X60.134 Z-1.688 I1.984 J0.
X56.166 Z-1.719 I-1.984 J0.
X60.134 Z-1.75 I1.984 J0.
X56.166 Z-1.781 I-1.984 J0.
X60.134 Z-1.813 I1.984 J0.
X56.166 Z-1.844 I-1.984 J0.
X60.134 Z-1.875 I1.984 J0.
X56.166 Z-1.906 I-1.984 J0.
X60.134 Z-1.937 I1.984 J0.
X56.166 Z-1.968 I-1.984 J0.
X60.134 Z-2. I1.984 J0.
X56.166 Z-2.031 I-1.984 J0.
X60.134 Z-2.062 I1.984 J0.
X56.166 Z-2.093 I-1.984 J0.
X60.134 Z-2.124 I1.984 J0.
X56.166 Z-2.156 I-1.984 J0.
X60.134 Z-2.187 I1.984 J0.
X56.166 Z-2.218 I-1.984 J0.
X60.134 Z-2.249 I1.984 J0.
X56.166 Z-2.28 I-1.984 J0.
X60.134 Z-2.311 I1.984 J0.
X56.166 Z-2.343 I-1.984 J0.
X60.134 Z-2.374 I1.984 J0.
X56.166 Z-2.405 I-1.984 J0.
X60.134 Z-2.436 I1.984 J0.
X56.166 Z-2.467 I-1.984 J0.
X60.134 Z-2.498 I1.984 J0.
X56.166 Z-2.53 I-1.984 J0.
X60.134 Z-2.561 I1.984 J0.
X56.166 Z-2.592 I-1.984 J0.
X60.134 Z-2.623 I1.984 J0.
X56.166 Z-2.654 I-1.984 J0.
X60.134 Z-2.685 I1.984 J0.
X56.166 Z-2.717 I-1.984 J0.
X60.134 Z-2.748 I1.984 J0.
X56.166 Z-2.779 I-1.984 J0.
X60.134 Z-2.81 I1.984 J0.
X56.166 Z-2.841 I-1.984 J0.
X60.134 Z-2.872 I1.984 J0.
X56.166 Z-2.904 I-1.984 J0.
X60.134 Z-2.935 I1.984 J0.
X56.166 Z-2.966 I-1.984 J0.
X60.134 Z-2.997 I1.984 J0.
X56.166 Z-3.028 I-1.984 J0.
X60.134 Z-3.059 I1.984 J0.
X56.166 Z-3.091 I-1.984 J0.
X60.134 Z-3.122 I1.984 J0.
X56.166 Z-3.153 I-1.984 J0.
X60.134 Z-3.184 I1.984 J0.
X56.166 Z-3.215 I-1.984 J0.
X60.134 Z-3.247 I1.984 J0.
X56.166 Z-3.278 I-1.984 J0.
X60.134 Z-3.309 I1.984 J0.
X56.166 Z-3.34 I-1.984 J0.
X60.134 Z-3.371 I1.984 J0.
X56.166 Z-3.402 I-1.984 J0.
X60.134 Z-3.434 I1.984 J0.
X56.166 Z-3.465 I-1.984 J0.
X60.134 Z-3.496 I1.984 J0.
X56.166 Z-3.527 I-1.984 J0.
X60.134 Z-3.558 I1.984 J0.
X56.166 Z-3.589 I-1.984 J0.
X60.134 Z-3.621 I1.984 J0.
X56.166 Z-3.652 I-1.984 J0.
X60.134 Z-3.683 I1.984 J0.
X56.166 Z-3.714 I-1.984 J0.
X60.134 Z-3.745 I1.984 J0.
X56.166 Z-3.776 I-1.984 J0.
X60.134 Z-3.808 I1.984 J0.
X56.166 Z-3.839 I-1.984 J0.
X60.134 Z-3.87 I1.984 J0.
X56.166 Z-3.901 I-1.984 J0.
X60.134 Z-3.932 I1.984 J0.
X56.166 Z-3.963 I-1.984 J0.
X60.134 Z-3.995 I1.984 J0.
X56.166 Z-4.026 I-1.984 J0.
X60.134 Z-4.057 I1.984 J0.
X56.166 Z-4.088 I-1.984 J0.
X60.134 Z-4.119 I1.984 J0.
X56.166 Z-4.15 I-1.984 J0.
X60.134 Z-4.182 I1.984 J0.
X56.166 Z-4.213 I-1.984 J0.
X60.134 Z-4.244 I1.984 J0.
X56.166 Z-4.275 I-1.984 J0.
X60.134 Z-4.306 I1.984 J0.
X56.166 Z-4.338 I-1.984 J0.
X60.134 Z-4.369 I1.984 J0.
X56.166 Z-4.4 I-1.984 J0.
X60.134 Z-4.431 I1.984 J0.
X56.166 Z-4.462 I-1.984 J0.
X60.134 Z-4.493 I1.984 J0.
X56.166 Z-4.525 I-1.984 J0.
X60.134 Z-4.556 I1.984 J0.
X56.166 Z-4.587 I-1.984 J0.
X60.134 Z-4.618 I1.984 J0.
X56.166 Z-4.649 I-1.984 J0.
X60.134 Z-4.68 I1.984 J0.
X56.166 Z-4.712 I-1.984 J0.
X60.134 Z-4.743 I1.984 J0.
X56.166 Z-4.774 I-1.984 J0.
X60.134 Z-4.805 I1.984 J0.
X56.166 Z-4.836 I-1.984 J0.
X60.134 Z-4.867 I1.984 J0.
X56.166 Z-4.899 I-1.984 J0.
X60.134 Z-4.93 I1.984 J0.
X56.166 Z-4.961 I-1.984 J0.
X60.134 Z-4.992 I1.984 J0.
X56.166 Z-5.023 I-1.984 J0.
X60.134 Z-5.054 I1.984 J0.
X56.166 Z-5.086 I-1.984 J0.
X60.134 Z-5.117 I1.984 J0.
X56.166 Z-5.148 I-1.984 J0.
X60.134 Z-5.179 I1.984 J0.
X56.166 Z-5.21 I-1.984 J0.
X60.134 Z-5.241 I1.984 J0.
X56.166 Z-5.273 I-1.984 J0.
X60.134 Z-5.304 I1.984 J0.
X56.166 Z-5.335 I-1.984 J0.
X60.134 Z-5.366 I1.984 J0.
X56.166 Z-5.397 I-1.984 J0.
X60.134 Z-5.428 I1.984 J0.
X56.166 Z-5.46 I-1.984 J0.
X60.134 Z-5.491 I1.984 J0.
X56.166 Z-5.522 I-1.984 J0.
X60.134 Z-5.553 I1.984 J0.
X56.166 Z-5.584 I-1.984 J0.
X60.134 Z-5.616 I1.984 J0.
X56.166 Z-5.647 I-1.984 J0.
X60.134 Z-5.678 I1.984 J0.
X56.166 Z-5.709 I-1.984 J0.
X60.134 Z-5.74 I1.984 J0.
X56.166 Z-5.771 I-1.984 J0.
X60.134 Z-5.803 I1.984 J0.
X56.166 Z-5.834 I-1.984 J0.
X60.134 Z-5.865 I1.984 J0.
X56.166 Z-5.896 I-1.984 J0.
X60.134 Z-5.927 I1.984 J0.
X56.166 Z-5.958 I-1.984 J0.
X60.134 Z-5.99 I1.984 J0.
X56.166 Z-6.021 I-1.984 J0.
X60.134 Z-6.052 I1.984 J0.
X56.166 Z-6.083 I-1.984 J0.
X60.134 Z-6.114 I1.984 J0.
X56.166 Z-6.145 I-1.984 J0.
X60.13 Y102.621 Z-6.176 I1.984 J0.
X56.17 Y102.898 I-1.98 J0.138
X60.13 Y102.621 I1.98 J-0.138
X59.835 Y102.96 I-0.317 J0.022
G1 X59.677 Y102.971
X59.606 Y102.976 Z-6.168
X59.539 Y102.981 Z-6.144
X59.479 Y102.985 Z-6.107
X59.429 Y102.988 Z-6.056
X59.391 Y102.991 Z-5.996
X59.368 Y102.993 Z-5.929
X59.36 Z-5.858
G0 Z5.
X33.941 Y102.442
Z0.499
G1 Z-1.183 F800.
G18 G2 X34.258 Z-1.501 I0.318 K0.
G1 X34.417
G17 G3 X34.734 Y102.759 I0. J0.318
X30.766 Z-1.532 I-1.984 J0.
X34.734 Z-1.563 I1.984 J0.
X30.766 Z-1.594 I-1.984 J0.
X34.734 Z-1.626 I1.984 J0.
X30.766 Z-1.657 I-1.984 J0.
X34.734 Z-1.688 I1.984 J0.
X30.766 Z-1.719 I-1.984 J0.
X34.734 Z-1.75 I1.984 J0.
X30.766 Z-1.781 I-1.984 J0.
X34.734 Z-1.813 I1.984 J0.
X30.766 Z-1.844 I-1.984 J0.
X34.734 Z-1.875 I1.984 J0.
X30.766 Z-1.906 I-1.984 J0.
X34.734 Z-1.937 I1.984 J0.
X30.766 Z-1.968 I-1.984 J0.
X34.734 Z-2. I1.984 J0.
X30.766 Z-2.031 I-1.984 J0.
X34.734 Z-2.062 I1.984 J0.
X30.766 Z-2.093 I-1.984 J0.
X34.734 Z-2.124 I1.984 J0.
X30.766 Z-2.156 I-1.984 J0.
X34.734 Z-2.187 I1.984 J0.
X30.766 Z-2.218 I-1.984 J0.
X34.734 Z-2.249 I1.984 J0.
X30.766 Z-2.28 I-1.984 J0.
X34.734 Z-2.311 I1.984 J0.
X30.766 Z-2.343 I-1.984 J0.
X34.734 Z-2.374 I1.984 J0.
X30.766 Z-2.405 I-1.984 J0.
X34.734 Z-2.436 I1.984 J0.
X30.766 Z-2.467 I-1.984 J0.
X34.734 Z-2.498 I1.984 J0.
X30.766 Z-2.53 I-1.984 J0.
X34.734 Z-2.561 I1.984 J0.
X30.766 Z-2.592 I-1.984 J0.
X34.734 Z-2.623 I1.984 J0.
X30.766 Z-2.654 I-1.984 J0.
X34.734 Z-2.685 I1.984 J0.
X30.766 Z-2.717 I-1.984 J0.
X34.734 Z-2.748 I1.984 J0.
X30.766 Z-2.779 I-1.984 J0.
X34.734 Z-2.81 I1.984 J0.
X30.766 Z-2.841 I-1.984 J0.
X34.734 Z-2.872 I1.984 J0.
X30.766 Z-2.904 I-1.984 J0.
X34.734 Z-2.935 I1.984 J0.
X30.766 Z-2.966 I-1.984 J0.
X34.734 Z-2.997 I1.984 J0.
X30.766 Z-3.028 I-1.984 J0.
X34.734 Z-3.059 I1.984 J0.
X30.766 Z-3.091 I-1.984 J0.
X34.734 Z-3.122 I1.984 J0.
X30.766 Z-3.153 I-1.984 J0.
X34.734 Z-3.184 I1.984 J0.
X30.766 Z-3.215 I-1.984 J0.
X34.734 Z-3.247 I1.984 J0.
X30.766 Z-3.278 I-1.984 J0.
X34.734 Z-3.309 I1.984 J0.
X30.766 Z-3.34 I-1.984 J0.
X34.734 Z-3.371 I1.984 J0.
X30.766 Z-3.402 I-1.984 J0.
X34.734 Z-3.434 I1.984 J0.
X30.766 Z-3.465 I-1.984 J0.
X34.734 Z-3.496 I1.984 J0.
X30.766 Z-3.527 I-1.984 J0.
X34.734 Z-3.558 I1.984 J0.
X30.766 Z-3.589 I-1.984 J0.
X34.734 Z-3.621 I1.984 J0.
X30.766 Z-3.652 I-1.984 J0.
X34.734 Z-3.683 I1.984 J0.
X30.766 Z-3.714 I-1.984 J0.
X34.734 Z-3.745 I1.984 J0.
X30.766 Z-3.776 I-1.984 J0.
X34.734 Z-3.808 I1.984 J0.
X30.766 Z-3.839 I-1.984 J0.
X34.734 Z-3.87 I1.984 J0.
X30.766 Z-3.901 I-1.984 J0.
X34.734 Z-3.932 I1.984 J0.
X30.766 Z-3.963 I-1.984 J0.
X34.734 Z-3.995 I1.984 J0.
X30.766 Z-4.026 I-1.984 J0.
X34.734 Z-4.057 I1.984 J0.
X30.766 Z-4.088 I-1.984 J0.
X34.734 Z-4.119 I1.984 J0.
X30.766 Z-4.15 I-1.984 J0.
X34.734 Z-4.182 I1.984 J0.
X30.766 Z-4.213 I-1.984 J0.
X34.734 Z-4.244 I1.984 J0.
X30.766 Z-4.275 I-1.984 J0.
X34.734 Z-4.306 I1.984 J0.
X30.766 Z-4.338 I-1.984 J0.
X34.734 Z-4.369 I1.984 J0.
X30.766 Z-4.4 I-1.984 J0.
X34.734 Z-4.431 I1.984 J0.
X30.766 Z-4.462 I-1.984 J0.
X34.734 Z-4.493 I1.984 J0.
X30.766 Z-4.525 I-1.984 J0.
X34.734 Z-4.556 I1.984 J0.
X30.766 Z-4.587 I-1.984 J0.
X34.734 Z-4.618 I1.984 J0.
X30.766 Z-4.649 I-1.984 J0.
X34.734 Z-4.68 I1.984 J0.
X30.766 Z-4.712 I-1.984 J0.
X34.734 Z-4.743 I1.984 J0.
X30.766 Z-4.774 I-1.984 J0.
X34.734 Z-4.805 I1.984 J0.
X30.766 Z-4.836 I-1.984 J0.
X34.734 Z-4.867 I1.984 J0.
X30.766 Z-4.899 I-1.984 J0.
X34.734 Z-4.93 I1.984 J0.
X30.766 Z-4.961 I-1.984 J0.
X34.734 Z-4.992 I1.984 J0.
X30.766 Z-5.023 I-1.984 J0.
X34.734 Z-5.054 I1.984 J0.
X30.766 Z-5.086 I-1.984 J0.
X34.734 Z-5.117 I1.984 J0.
X30.766 Z-5.148 I-1.984 J0.
X34.734 Z-5.179 I1.984 J0.
X30.766 Z-5.21 I-1.984 J0.
X34.734 Z-5.241 I1.984 J0.
X30.766 Z-5.273 I-1.984 J0.
X34.734 Z-5.304 I1.984 J0.
X30.766 Z-5.335 I-1.984 J0.
X34.734 Z-5.366 I1.984 J0.
X30.766 Z-5.397 I-1.984 J0.
X34.734 Z-5.428 I1.984 J0.
X30.766 Z-5.46 I-1.984 J0.
X34.734 Z-5.491 I1.984 J0.
X30.766 Z-5.522 I-1.984 J0.
X34.734 Z-5.553 I1.984 J0.
X30.766 Z-5.584 I-1.984 J0.
X34.734 Z-5.616 I1.984 J0.
X30.766 Z-5.647 I-1.984 J0.
X34.734 Z-5.678 I1.984 J0.
X30.766 Z-5.709 I-1.984 J0.
X34.734 Z-5.74 I1.984 J0.
X30.766 Z-5.771 I-1.984 J0.
X34.734 Z-5.803 I1.984 J0.
X30.766 Z-5.834 I-1.984 J0.
X34.734 Z-5.865 I1.984 J0.
X30.766 Z-5.896 I-1.984 J0.
X34.734 Z-5.927 I1.984 J0.
X30.766 Z-5.958 I-1.984 J0.
X34.734 Z-5.99 I1.984 J0.
X30.766 Z-6.021 I-1.984 J0.
X34.734 Z-6.052 I1.984 J0.
X30.766 Z-6.083 I-1.984 J0.
X34.734 Z-6.114 I1.984 J0.
X30.766 Z-6.145 I-1.984 J0.
X34.73 Y102.621 Z-6.176 I1.984 J0.
X30.77 Y102.898 I-1.98 J0.138
X34.73 Y102.621 I1.98 J-0.138
X34.435 Y102.96 I-0.317 J0.022
G1 X34.277 Y102.971
X34.206 Y102.976 Z-6.168
X34.139 Y102.981 Z-6.144
X34.079 Y102.985 Z-6.107
X34.029 Y102.988 Z-6.056
X33.991 Y102.991 Z-5.996
X33.968 Y102.993 Z-5.929
X33.96 Z-5.858
G0 Z5.
X33.941 Y127.842
Z0.499
G1 Z-1.183 F800.
G18 G2 X34.258 Z-1.501 I0.318 K0.
G1 X34.417
G17 G3 X34.734 Y128.159 I0. J0.318
X30.766 Z-1.532 I-1.984 J0.
X34.734 Z-1.563 I1.984 J0.
X30.766 Z-1.594 I-1.984 J0.
X34.734 Z-1.626 I1.984 J0.
X30.766 Z-1.657 I-1.984 J0.
X34.734 Z-1.688 I1.984 J0.
X30.766 Z-1.719 I-1.984 J0.
X34.734 Z-1.75 I1.984 J0.
X30.766 Z-1.781 I-1.984 J0.
X34.734 Z-1.813 I1.984 J0.
X30.766 Z-1.844 I-1.984 J0.
X34.734 Z-1.875 I1.984 J0.
X30.766 Z-1.906 I-1.984 J0.
X34.734 Z-1.937 I1.984 J0.
X30.766 Z-1.968 I-1.984 J0.
X34.734 Z-2. I1.984 J0.
X30.766 Z-2.031 I-1.984 J0.
X34.734 Z-2.062 I1.984 J0.
X30.766 Z-2.093 I-1.984 J0.
X34.734 Z-2.124 I1.984 J0.
X30.766 Z-2.156 I-1.984 J0.
X34.734 Z-2.187 I1.984 J0.
X30.766 Z-2.218 I-1.984 J0.
X34.734 Z-2.249 I1.984 J0.
X30.766 Z-2.28 I-1.984 J0.
X34.734 Z-2.311 I1.984 J0.
X30.766 Z-2.343 I-1.984 J0.
X34.734 Z-2.374 I1.984 J0.
X30.766 Z-2.405 I-1.984 J0.
X34.734 Z-2.436 I1.984 J0.
X30.766 Z-2.467 I-1.984 J0.
X34.734 Z-2.498 I1.984 J0.
X30.766 Z-2.53 I-1.984 J0.
X34.734 Z-2.561 I1.984 J0.
X30.766 Z-2.592 I-1.984 J0.
X34.734 Z-2.623 I1.984 J0.
X30.766 Z-2.654 I-1.984 J0.
X34.734 Z-2.685 I1.984 J0.
X30.766 Z-2.717 I-1.984 J0.
X34.734 Z-2.748 I1.984 J0.
X30.766 Z-2.779 I-1.984 J0.
X34.734 Z-2.81 I1.984 J0.
X30.766 Z-2.841 I-1.984 J0.
X34.734 Z-2.872 I1.984 J0.
X30.766 Z-2.904 I-1.984 J0.
X34.734 Z-2.935 I1.984 J0.
X30.766 Z-2.966 I-1.984 J0.
X34.734 Z-2.997 I1.984 J0.
X30.766 Z-3.028 I-1.984 J0.
X34.734 Z-3.059 I1.984 J0.
X30.766 Z-3.091 I-1.984 J0.
X34.734 Z-3.122 I1.984 J0.
X30.766 Z-3.153 I-1.984 J0.
X34.734 Z-3.184 I1.984 J0.
X30.766 Z-3.215 I-1.984 J0.
X34.734 Z-3.247 I1.984 J0.
X30.766 Z-3.278 I-1.984 J0.
X34.734 Z-3.309 I1.984 J0.
X30.766 Z-3.34 I-1.984 J0.
X34.734 Z-3.371 I1.984 J0.
X30.766 Z-3.402 I-1.984 J0.
X34.734 Z-3.434 I1.984 J0.
X30.766 Z-3.465 I-1.984 J0.
X34.734 Z-3.496 I1.984 J0.
X30.766 Z-3.527 I-1.984 J0.
X34.734 Z-3.558 I1.984 J0.
X30.766 Z-3.589 I-1.984 J0.
X34.734 Z-3.621 I1.984 J0.
X30.766 Z-3.652 I-1.984 J0.
X34.734 Z-3.683 I1.984 J0.
X30.766 Z-3.714 I-1.984 J0.
X34.734 Z-3.745 I1.984 J0.
X30.766 Z-3.776 I-1.984 J0.
X34.734 Z-3.808 I1.984 J0.
X30.766 Z-3.839 I-1.984 J0.
X34.734 Z-3.87 I1.984 J0.
X30.766 Z-3.901 I-1.984 J0.
X34.734 Z-3.932 I1.984 J0.
X30.766 Z-3.963 I-1.984 J0.
X34.734 Z-3.995 I1.984 J0.
X30.766 Z-4.026 I-1.984 J0.
X34.734 Z-4.057 I1.984 J0.
X30.766 Z-4.088 I-1.984 J0.
X34.734 Z-4.119 I1.984 J0.
X30.766 Z-4.15 I-1.984 J0.
X34.734 Z-4.182 I1.984 J0.
X30.766 Z-4.213 I-1.984 J0.
X34.734 Z-4.244 I1.984 J0.
X30.766 Z-4.275 I-1.984 J0.
X34.734 Z-4.306 I1.984 J0.
X30.766 Z-4.338 I-1.984 J0.
X34.734 Z-4.369 I1.984 J0.
X30.766 Z-4.4 I-1.984 J0.
X34.734 Z-4.431 I1.984 J0.
X30.766 Z-4.462 I-1.984 J0.
X34.734 Z-4.493 I1.984 J0.
X30.766 Z-4.525 I-1.984 J0.
X34.734 Z-4.556 I1.984 J0.
X30.766 Z-4.587 I-1.984 J0.
X34.734 Z-4.618 I1.984 J0.
X30.766 Z-4.649 I-1.984 J0.
X34.734 Z-4.68 I1.984 J0.
X30.766 Z-4.712 I-1.984 J0.
X34.734 Z-4.743 I1.984 J0.
X30.766 Z-4.774 I-1.984 J0.
X34.734 Z-4.805 I1.984 J0.
X30.766 Z-4.836 I-1.984 J0.
X34.734 Z-4.867 I1.984 J0.
X30.766 Z-4.899 I-1.984 J0.
X34.734 Z-4.93 I1.984 J0.
X30.766 Z-4.961 I-1.984 J0.
X34.734 Z-4.992 I1.984 J0.
X30.766 Z-5.023 I-1.984 J0.
X34.734 Z-5.054 I1.984 J0.
X30.766 Z-5.086 I-1.984 J0.
X34.734 Z-5.117 I1.984 J0.
X30.766 Z-5.148 I-1.984 J0.
X34.734 Z-5.179 I1.984 J0.
X30.766 Z-5.21 I-1.984 J0.
X34.734 Z-5.241 I1.984 J0.
X30.766 Z-5.273 I-1.984 J0.
X34.734 Z-5.304 I1.984 J0.
X30.766 Z-5.335 I-1.984 J0.
X34.734 Z-5.366 I1.984 J0.
X30.766 Z-5.397 I-1.984 J0.
X34.734 Z-5.428 I1.984 J0.
X30.766 Z-5.46 I-1.984 J0.
X34.734 Z-5.491 I1.984 J0.
X30.766 Z-5.522 I-1.984 J0.
X34.734 Z-5.553 I1.984 J0.
X30.766 Z-5.584 I-1.984 J0.
X34.734 Z-5.616 I1.984 J0.
X30.766 Z-5.647 I-1.984 J0.
X34.734 Z-5.678 I1.984 J0.
X30.766 Z-5.709 I-1.984 J0.
X34.734 Z-5.74 I1.984 J0.
X30.766 Z-5.771 I-1.984 J0.
X34.734 Z-5.803 I1.984 J0.
X30.766 Z-5.834 I-1.984 J0.
X34.734 Z-5.865 I1.984 J0.
X30.766 Z-5.896 I-1.984 J0.
X34.734 Z-5.927 I1.984 J0.
X30.766 Z-5.958 I-1.984 J0.
X34.734 Z-5.99 I1.984 J0.
X30.766 Z-6.021 I-1.984 J0.
X34.734 Z-6.052 I1.984 J0.
X30.766 Z-6.083 I-1.984 J0.
X34.734 Z-6.114 I1.984 J0.
X30.766 Z-6.145 I-1.984 J0.
X34.73 Y128.021 Z-6.176 I1.984 J0.
X30.77 Y128.298 I-1.98 J0.138
X34.73 Y128.021 I1.98 J-0.138
X34.435 Y128.36 I-0.317 J0.022
G1 X34.277 Y128.371
X34.206 Y128.376 Z-6.168
X34.139 Y128.381 Z-6.144
X34.079 Y128.385 Z-6.107
X34.029 Y128.388 Z-6.056
X33.991 Y128.391 Z-5.996
X33.968 Y128.393 Z-5.929
X33.96 Z-5.858
G0 Z5.
X59.341 Y127.842
Z0.499
G1 Z-1.183 F800.
G18 G2 X59.658 Z-1.501 I0.318 K0.
G1 X59.817
G17 G3 X60.134 Y128.159 I0. J0.318
X56.166 Z-1.532 I-1.984 J0.
X60.134 Z-1.563 I1.984 J0.
X56.166 Z-1.594 I-1.984 J0.
X60.134 Z-1.626 I1.984 J0.
X56.166 Z-1.657 I-1.984 J0.
X60.134 Z-1.688 I1.984 J0.
X56.166 Z-1.719 I-1.984 J0.
X60.134 Z-1.75 I1.984 J0.
X56.166 Z-1.781 I-1.984 J0.
X60.134 Z-1.813 I1.984 J0.
X56.166 Z-1.844 I-1.984 J0.
X60.134 Z-1.875 I1.984 J0.
X56.166 Z-1.906 I-1.984 J0.
X60.134 Z-1.937 I1.984 J0.
X56.166 Z-1.968 I-1.984 J0.
X60.134 Z-2. I1.984 J0.
X56.166 Z-2.031 I-1.984 J0.
X60.134 Z-2.062 I1.984 J0.
X56.166 Z-2.093 I-1.984 J0.
X60.134 Z-2.124 I1.984 J0.
X56.166 Z-2.156 I-1.984 J0.
X60.134 Z-2.187 I1.984 J0.
X56.166 Z-2.218 I-1.984 J0.
X60.134 Z-2.249 I1.984 J0.
X56.166 Z-2.28 I-1.984 J0.
X60.134 Z-2.311 I1.984 J0.
X56.166 Z-2.343 I-1.984 J0.
X60.134 Z-2.374 I1.984 J0.
X56.166 Z-2.405 I-1.984 J0.
X60.134 Z-2.436 I1.984 J0.
X56.166 Z-2.467 I-1.984 J0.
X60.134 Z-2.498 I1.984 J0.
X56.166 Z-2.53 I-1.984 J0.
X60.134 Z-2.561 I1.984 J0.
X56.166 Z-2.592 I-1.984 J0.
X60.134 Z-2.623 I1.984 J0.
X56.166 Z-2.654 I-1.984 J0.
X60.134 Z-2.685 I1.984 J0.
X56.166 Z-2.717 I-1.984 J0.
X60.134 Z-2.748 I1.984 J0.
X56.166 Z-2.779 I-1.984 J0.
X60.134 Z-2.81 I1.984 J0.
X56.166 Z-2.841 I-1.984 J0.
X60.134 Z-2.872 I1.984 J0.
X56.166 Z-2.904 I-1.984 J0.
X60.134 Z-2.935 I1.984 J0.
X56.166 Z-2.966 I-1.984 J0.
X60.134 Z-2.997 I1.984 J0.
X56.166 Z-3.028 I-1.984 J0.
X60.134 Z-3.059 I1.984 J0.
X56.166 Z-3.091 I-1.984 J0.
X60.134 Z-3.122 I1.984 J0.
X56.166 Z-3.153 I-1.984 J0.
X60.134 Z-3.184 I1.984 J0.
X56.166 Z-3.215 I-1.984 J0.
X60.134 Z-3.247 I1.984 J0.
X56.166 Z-3.278 I-1.984 J0.
X60.134 Z-3.309 I1.984 J0.
X56.166 Z-3.34 I-1.984 J0.
X60.134 Z-3.371 I1.984 J0.
X56.166 Z-3.402 I-1.984 J0.
X60.134 Z-3.434 I1.984 J0.
X56.166 Z-3.465 I-1.984 J0.
X60.134 Z-3.496 I1.984 J0.
X56.166 Z-3.527 I-1.984 J0.
X60.134 Z-3.558 I1.984 J0.
X56.166 Z-3.589 I-1.984 J0.
X60.134 Z-3.621 I1.984 J0.
X56.166 Z-3.652 I-1.984 J0.
X60.134 Z-3.683 I1.984 J0.
X56.166 Z-3.714 I-1.984 J0.
X60.134 Z-3.745 I1.984 J0.
X56.166 Z-3.776 I-1.984 J0.
X60.134 Z-3.808 I1.984 J0.
X56.166 Z-3.839 I-1.984 J0.
X60.134 Z-3.87 I1.984 J0.
X56.166 Z-3.901 I-1.984 J0.
X60.134 Z-3.932 I1.984 J0.
X56.166 Z-3.963 I-1.984 J0.
X60.134 Z-3.995 I1.984 J0.
X56.166 Z-4.026 I-1.984 J0.
X60.134 Z-4.057 I1.984 J0.
X56.166 Z-4.088 I-1.984 J0.
X60.134 Z-4.119 I1.984 J0.
X56.166 Z-4.15 I-1.984 J0.
X60.134 Z-4.182 I1.984 J0.
X56.166 Z-4.213 I-1.984 J0.
X60.134 Z-4.244 I1.984 J0.
X56.166 Z-4.275 I-1.984 J0.
X60.134 Z-4.306 I1.984 J0.
X56.166 Z-4.338 I-1.984 J0.
X60.134 Z-4.369 I1.984 J0.
X56.166 Z-4.4 I-1.984 J0.
X60.134 Z-4.431 I1.984 J0.
X56.166 Z-4.462 I-1.984 J0.
X60.134 Z-4.493 I1.984 J0.
X56.166 Z-4.525 I-1.984 J0.
X60.134 Z-4.556 I1.984 J0.
X56.166 Z-4.587 I-1.984 J0.
X60.134 Z-4.618 I1.984 J0.
X56.166 Z-4.649 I-1.984 J0.
X60.134 Z-4.68 I1.984 J0.
X56.166 Z-4.712 I-1.984 J0.
X60.134 Z-4.743 I1.984 J0.
X56.166 Z-4.774 I-1.984 J0.
X60.134 Z-4.805 I1.984 J0.
X56.166 Z-4.836 I-1.984 J0.
X60.134 Z-4.867 I1.984 J0.
X56.166 Z-4.899 I-1.984 J0.
X60.134 Z-4.93 I1.984 J0.
X56.166 Z-4.961 I-1.984 J0.
X60.134 Z-4.992 I1.984 J0.
X56.166 Z-5.023 I-1.984 J0.
X60.134 Z-5.054 I1.984 J0.
X56.166 Z-5.086 I-1.984 J0.
X60.134 Z-5.117 I1.984 J0.
X56.166 Z-5.148 I-1.984 J0.
X60.134 Z-5.179 I1.984 J0.
X56.166 Z-5.21 I-1.984 J0.
X60.134 Z-5.241 I1.984 J0.
X56.166 Z-5.273 I-1.984 J0.
X60.134 Z-5.304 I1.984 J0.
X56.166 Z-5.335 I-1.984 J0.
X60.134 Z-5.366 I1.984 J0.
X56.166 Z-5.397 I-1.984 J0.
X60.134 Z-5.428 I1.984 J0.
X56.166 Z-5.46 I-1.984 J0.
X60.134 Z-5.491 I1.984 J0.
X56.166 Z-5.522 I-1.984 J0.
X60.134 Z-5.553 I1.984 J0.
X56.166 Z-5.584 I-1.984 J0.
X60.134 Z-5.616 I1.984 J0.
X56.166 Z-5.647 I-1.984 J0.
X60.134 Z-5.678 I1.984 J0.
X56.166 Z-5.709 I-1.984 J0.
X60.134 Z-5.74 I1.984 J0.
X56.166 Z-5.771 I-1.984 J0.
X60.134 Z-5.803 I1.984 J0.
X56.166 Z-5.834 I-1.984 J0.
X60.134 Z-5.865 I1.984 J0.
X56.166 Z-5.896 I-1.984 J0.
X60.134 Z-5.927 I1.984 J0.
X56.166 Z-5.958 I-1.984 J0.
X60.134 Z-5.99 I1.984 J0.
X56.166 Z-6.021 I-1.984 J0.
X60.134 Z-6.052 I1.984 J0.
X56.166 Z-6.083 I-1.984 J0.
X60.134 Z-6.114 I1.984 J0.
X56.166 Z-6.145 I-1.984 J0.
X60.13 Y128.021 Z-6.176 I1.984 J0.
X56.17 Y128.298 I-1.98 J0.138
X60.13 Y128.021 I1.98 J-0.138
X59.835 Y128.36 I-0.317 J0.022
G1 X59.677 Y128.371
X59.606 Y128.376 Z-6.168
X59.539 Y128.381 Z-6.144
X59.479 Y128.385 Z-6.107
X59.429 Y128.388 Z-6.056
X59.391 Y128.391 Z-5.996
X59.368 Y128.393 Z-5.929
X59.36 Z-5.858
G0 Z5.
X59.341 Y153.242
Z0.499
G1 Z-1.183 F800.
G18 G2 X59.658 Z-1.501 I0.318 K0.
G1 X59.817
G17 G3 X60.134 Y153.559 I0. J0.318
X56.166 Z-1.532 I-1.984 J0.
X60.134 Z-1.563 I1.984 J0.
X56.166 Z-1.594 I-1.984 J0.
X60.134 Z-1.626 I1.984 J0.
X56.166 Z-1.657 I-1.984 J0.
X60.134 Z-1.688 I1.984 J0.
X56.166 Z-1.719 I-1.984 J0.
X60.134 Z-1.75 I1.984 J0.
X56.166 Z-1.781 I-1.984 J0.
X60.134 Z-1.813 I1.984 J0.
X56.166 Z-1.844 I-1.984 J0.
X60.134 Z-1.875 I1.984 J0.
X56.166 Z-1.906 I-1.984 J0.
X60.134 Z-1.937 I1.984 J0.
X56.166 Z-1.968 I-1.984 J0.
X60.134 Z-2. I1.984 J0.
X56.166 Z-2.031 I-1.984 J0.
X60.134 Z-2.062 I1.984 J0.
X56.166 Z-2.093 I-1.984 J0.
X60.134 Z-2.124 I1.984 J0.
X56.166 Z-2.156 I-1.984 J0.
X60.134 Z-2.187 I1.984 J0.
X56.166 Z-2.218 I-1.984 J0.
X60.134 Z-2.249 I1.984 J0.
X56.166 Z-2.28 I-1.984 J0.
X60.134 Z-2.311 I1.984 J0.
X56.166 Z-2.343 I-1.984 J0.
X60.134 Z-2.374 I1.984 J0.
X56.166 Z-2.405 I-1.984 J0.
X60.134 Z-2.436 I1.984 J0.
X56.166 Z-2.467 I-1.984 J0.
X60.134 Z-2.498 I1.984 J0.
X56.166 Z-2.53 I-1.984 J0.
X60.134 Z-2.561 I1.984 J0.
X56.166 Z-2.592 I-1.984 J0.
X60.134 Z-2.623 I1.984 J0.
X56.166 Z-2.654 I-1.984 J0.
X60.134 Z-2.685 I1.984 J0.
X56.166 Z-2.717 I-1.984 J0.
X60.134 Z-2.748 I1.984 J0.
X56.166 Z-2.779 I-1.984 J0.
X60.134 Z-2.81 I1.984 J0.
X56.166 Z-2.841 I-1.984 J0.
X60.134 Z-2.872 I1.984 J0.
X56.166 Z-2.904 I-1.984 J0.
X60.134 Z-2.935 I1.984 J0.
X56.166 Z-2.966 I-1.984 J0.
X60.134 Z-2.997 I1.984 J0.
X56.166 Z-3.028 I-1.984 J0.
X60.134 Z-3.059 I1.984 J0.
X56.166 Z-3.091 I-1.984 J0.
X60.134 Z-3.122 I1.984 J0.
X56.166 Z-3.153 I-1.984 J0.
X60.134 Z-3.184 I1.984 J0.
X56.166 Z-3.215 I-1.984 J0.
X60.134 Z-3.247 I1.984 J0.
X56.166 Z-3.278 I-1.984 J0.
X60.134 Z-3.309 I1.984 J0.
X56.166 Z-3.34 I-1.984 J0.
X60.134 Z-3.371 I1.984 J0.
X56.166 Z-3.402 I-1.984 J0.
X60.134 Z-3.434 I1.984 J0.
X56.166 Z-3.465 I-1.984 J0.
X60.134 Z-3.496 I1.984 J0.
X56.166 Z-3.527 I-1.984 J0.
X60.134 Z-3.558 I1.984 J0.
X56.166 Z-3.589 I-1.984 J0.
X60.134 Z-3.621 I1.984 J0.
X56.166 Z-3.652 I-1.984 J0.
X60.134 Z-3.683 I1.984 J0.
X56.166 Z-3.714 I-1.984 J0.
X60.134 Z-3.745 I1.984 J0.
X56.166 Z-3.776 I-1.984 J0.
X60.134 Z-3.808 I1.984 J0.
X56.166 Z-3.839 I-1.984 J0.
X60.134 Z-3.87 I1.984 J0.
X56.166 Z-3.901 I-1.984 J0.
X60.134 Z-3.932 I1.984 J0.
X56.166 Z-3.963 I-1.984 J0.
X60.134 Z-3.995 I1.984 J0.
X56.166 Z-4.026 I-1.984 J0.
X60.134 Z-4.057 I1.984 J0.
X56.166 Z-4.088 I-1.984 J0.
X60.134 Z-4.119 I1.984 J0.
X56.166 Z-4.15 I-1.984 J0.
X60.134 Z-4.182 I1.984 J0.
X56.166 Z-4.213 I-1.984 J0.
X60.134 Z-4.244 I1.984 J0.
X56.166 Z-4.275 I-1.984 J0.
X60.134 Z-4.306 I1.984 J0.
X56.166 Z-4.338 I-1.984 J0.
X60.134 Z-4.369 I1.984 J0.
X56.166 Z-4.4 I-1.984 J0.
X60.134 Z-4.431 I1.984 J0.
X56.166 Z-4.462 I-1.984 J0.
X60.134 Z-4.493 I1.984 J0.
X56.166 Z-4.525 I-1.984 J0.
X60.134 Z-4.556 I1.984 J0.
X56.166 Z-4.587 I-1.984 J0.
X60.134 Z-4.618 I1.984 J0.
X56.166 Z-4.649 I-1.984 J0.
X60.134 Z-4.68 I1.984 J0.
X56.166 Z-4.712 I-1.984 J0.
X60.134 Z-4.743 I1.984 J0.
X56.166 Z-4.774 I-1.984 J0.
X60.134 Z-4.805 I1.984 J0.
X56.166 Z-4.836 I-1.984 J0.
X60.134 Z-4.867 I1.984 J0.
X56.166 Z-4.899 I-1.984 J0.
X60.134 Z-4.93 I1.984 J0.
X56.166 Z-4.961 I-1.984 J0.
X60.134 Z-4.992 I1.984 J0.
X56.166 Z-5.023 I-1.984 J0.
X60.134 Z-5.054 I1.984 J0.
X56.166 Z-5.086 I-1.984 J0.
X60.134 Z-5.117 I1.984 J0.
X56.166 Z-5.148 I-1.984 J0.
X60.134 Z-5.179 I1.984 J0.
X56.166 Z-5.21 I-1.984 J0.
X60.134 Z-5.241 I1.984 J0.
X56.166 Z-5.273 I-1.984 J0.
X60.134 Z-5.304 I1.984 J0.
X56.166 Z-5.335 I-1.984 J0.
X60.134 Z-5.366 I1.984 J0.
X56.166 Z-5.397 I-1.984 J0.
X60.134 Z-5.428 I1.984 J0.
X56.166 Z-5.46 I-1.984 J0.
X60.134 Z-5.491 I1.984 J0.
X56.166 Z-5.522 I-1.984 J0.
X60.134 Z-5.553 I1.984 J0.
X56.166 Z-5.584 I-1.984 J0.
X60.134 Z-5.616 I1.984 J0.
X56.166 Z-5.647 I-1.984 J0.
X60.134 Z-5.678 I1.984 J0.
X56.166 Z-5.709 I-1.984 J0.
X60.134 Z-5.74 I1.984 J0.
X56.166 Z-5.771 I-1.984 J0.
X60.134 Z-5.803 I1.984 J0.
X56.166 Z-5.834 I-1.984 J0.
X60.134 Z-5.865 I1.984 J0.
X56.166 Z-5.896 I-1.984 J0.
X60.134 Z-5.927 I1.984 J0.
X56.166 Z-5.958 I-1.984 J0.
X60.134 Z-5.99 I1.984 J0.
X56.166 Z-6.021 I-1.984 J0.
X60.134 Z-6.052 I1.984 J0.
X56.166 Z-6.083 I-1.984 J0.
X60.134 Z-6.114 I1.984 J0.
X56.166 Z-6.145 I-1.984 J0.
X60.13 Y153.421 Z-6.176 I1.984 J0.
X56.17 Y153.698 I-1.98 J0.138
X60.13 Y153.421 I1.98 J-0.138
X59.835 Y153.76 I-0.317 J0.022
G1 X59.677 Y153.771
X59.606 Y153.776 Z-6.168
X59.539 Y153.781 Z-6.144
X59.479 Y153.785 Z-6.107
X59.429 Y153.788 Z-6.056
X59.391 Y153.791 Z-5.996
X59.368 Y153.793 Z-5.929
X59.36 Z-5.858
G0 Z5.
X33.941 Y153.242
Z0.499
G1 Z-1.183 F800.
G18 G2 X34.258 Z-1.501 I0.318 K0.
G1 X34.417
G17 G3 X34.734 Y153.559 I0. J0.318
X30.766 Z-1.532 I-1.984 J0.
X34.734 Z-1.563 I1.984 J0.
X30.766 Z-1.594 I-1.984 J0.
X34.734 Z-1.626 I1.984 J0.
X30.766 Z-1.657 I-1.984 J0.
X34.734 Z-1.688 I1.984 J0.
X30.766 Z-1.719 I-1.984 J0.
X34.734 Z-1.75 I1.984 J0.
X30.766 Z-1.781 I-1.984 J0.
X34.734 Z-1.813 I1.984 J0.
X30.766 Z-1.844 I-1.984 J0.
X34.734 Z-1.875 I1.984 J0.
X30.766 Z-1.906 I-1.984 J0.
X34.734 Z-1.937 I1.984 J0.
X30.766 Z-1.968 I-1.984 J0.
X34.734 Z-2. I1.984 J0.
X30.766 Z-2.031 I-1.984 J0.
X34.734 Z-2.062 I1.984 J0.
X30.766 Z-2.093 I-1.984 J0.
X34.734 Z-2.124 I1.984 J0.
X30.766 Z-2.156 I-1.984 J0.
X34.734 Z-2.187 I1.984 J0.
X30.766 Z-2.218 I-1.984 J0.
X34.734 Z-2.249 I1.984 J0.
X30.766 Z-2.28 I-1.984 J0.
X34.734 Z-2.311 I1.984 J0.
X30.766 Z-2.343 I-1.984 J0.
X34.734 Z-2.374 I1.984 J0.
X30.766 Z-2.405 I-1.984 J0.
X34.734 Z-2.436 I1.984 J0.
X30.766 Z-2.467 I-1.984 J0.
X34.734 Z-2.498 I1.984 J0.
X30.766 Z-2.53 I-1.984 J0.
X34.734 Z-2.561 I1.984 J0.
X30.766 Z-2.592 I-1.984 J0.
X34.734 Z-2.623 I1.984 J0.
X30.766 Z-2.654 I-1.984 J0.
X34.734 Z-2.685 I1.984 J0.
X30.766 Z-2.717 I-1.984 J0.
X34.734 Z-2.748 I1.984 J0.
X30.766 Z-2.779 I-1.984 J0.
X34.734 Z-2.81 I1.984 J0.
X30.766 Z-2.841 I-1.984 J0.
X34.734 Z-2.872 I1.984 J0.
X30.766 Z-2.904 I-1.984 J0.
X34.734 Z-2.935 I1.984 J0.
X30.766 Z-2.966 I-1.984 J0.
X34.734 Z-2.997 I1.984 J0.
X30.766 Z-3.028 I-1.984 J0.
X34.734 Z-3.059 I1.984 J0.
X30.766 Z-3.091 I-1.984 J0.
X34.734 Z-3.122 I1.984 J0.
X30.766 Z-3.153 I-1.984 J0.
X34.734 Z-3.184 I1.984 J0.
X30.766 Z-3.215 I-1.984 J0.
X34.734 Z-3.247 I1.984 J0.
X30.766 Z-3.278 I-1.984 J0.
X34.734 Z-3.309 I1.984 J0.
X30.766 Z-3.34 I-1.984 J0.
X34.734 Z-3.371 I1.984 J0.
X30.766 Z-3.402 I-1.984 J0.
X34.734 Z-3.434 I1.984 J0.
X30.766 Z-3.465 I-1.984 J0.
X34.734 Z-3.496 I1.984 J0.
X30.766 Z-3.527 I-1.984 J0.
X34.734 Z-3.558 I1.984 J0.
X30.766 Z-3.589 I-1.984 J0.
X34.734 Z-3.621 I1.984 J0.
X30.766 Z-3.652 I-1.984 J0.
X34.734 Z-3.683 I1.984 J0.
X30.766 Z-3.714 I-1.984 J0.
X34.734 Z-3.745 I1.984 J0.
X30.766 Z-3.776 I-1.984 J0.
X34.734 Z-3.808 I1.984 J0.
X30.766 Z-3.839 I-1.984 J0.
X34.734 Z-3.87 I1.984 J0.
X30.766 Z-3.901 I-1.984 J0.
X34.734 Z-3.932 I1.984 J0.
X30.766 Z-3.963 I-1.984 J0.
X34.734 Z-3.995 I1.984 J0.
X30.766 Z-4.026 I-1.984 J0.
X34.734 Z-4.057 I1.984 J0.
X30.766 Z-4.088 I-1.984 J0.
X34.734 Z-4.119 I1.984 J0.
X30.766 Z-4.15 I-1.984 J0.
X34.734 Z-4.182 I1.984 J0.
X30.766 Z-4.213 I-1.984 J0.
X34.734 Z-4.244 I1.984 J0.
X30.766 Z-4.275 I-1.984 J0.
X34.734 Z-4.306 I1.984 J0.
X30.766 Z-4.338 I-1.984 J0.
X34.734 Z-4.369 I1.984 J0.
X30.766 Z-4.4 I-1.984 J0.
X34.734 Z-4.431 I1.984 J0.
X30.766 Z-4.462 I-1.984 J0.
X34.734 Z-4.493 I1.984 J0.
X30.766 Z-4.525 I-1.984 J0.
X34.734 Z-4.556 I1.984 J0.
X30.766 Z-4.587 I-1.984 J0.
X34.734 Z-4.618 I1.984 J0.
X30.766 Z-4.649 I-1.984 J0.
X34.734 Z-4.68 I1.984 J0.
X30.766 Z-4.712 I-1.984 J0.
X34.734 Z-4.743 I1.984 J0.
X30.766 Z-4.774 I-1.984 J0.
X34.734 Z-4.805 I1.984 J0.
X30.766 Z-4.836 I-1.984 J0.
X34.734 Z-4.867 I1.984 J0.
X30.766 Z-4.899 I-1.984 J0.
X34.734 Z-4.93 I1.984 J0.
X30.766 Z-4.961 I-1.984 J0.
X34.734 Z-4.992 I1.984 J0.
X30.766 Z-5.023 I-1.984 J0.
X34.734 Z-5.054 I1.984 J0.
X30.766 Z-5.086 I-1.984 J0.
X34.734 Z-5.117 I1.984 J0.
X30.766 Z-5.148 I-1.984 J0.
X34.734 Z-5.179 I1.984 J0.
X30.766 Z-5.21 I-1.984 J0.
X34.734 Z-5.241 I1.984 J0.
X30.766 Z-5.273 I-1.984 J0.
X34.734 Z-5.304 I1.984 J0.
X30.766 Z-5.335 I-1.984 J0.
X34.734 Z-5.366 I1.984 J0.
X30.766 Z-5.397 I-1.984 J0.
X34.734 Z-5.428 I1.984 J0.
X30.766 Z-5.46 I-1.984 J0.
X34.734 Z-5.491 I1.984 J0.
X30.766 Z-5.522 I-1.984 J0.
X34.734 Z-5.553 I1.984 J0.
X30.766 Z-5.584 I-1.984 J0.
X34.734 Z-5.616 I1.984 J0.
X30.766 Z-5.647 I-1.984 J0.
X34.734 Z-5.678 I1.984 J0.
X30.766 Z-5.709 I-1.984 J0.
X34.734 Z-5.74 I1.984 J0.
X30.766 Z-5.771 I-1.984 J0.
X34.734 Z-5.803 I1.984 J0.
X30.766 Z-5.834 I-1.984 J0.
X34.734 Z-5.865 I1.984 J0.
X30.766 Z-5.896 I-1.984 J0.
X34.734 Z-5.927 I1.984 J0.
X30.766 Z-5.958 I-1.984 J0.
X34.734 Z-5.99 I1.984 J0.
X30.766 Z-6.021 I-1.984 J0.
X34.734 Z-6.052 I1.984 J0.
X30.766 Z-6.083 I-1.984 J0.
X34.734 Z-6.114 I1.984 J0.
X30.766 Z-6.145 I-1.984 J0.
X34.73 Y153.421 Z-6.176 I1.984 J0.
X30.77 Y153.698 I-1.98 J0.138
X34.73 Y153.421 I1.98 J-0.138
X34.435 Y153.76 I-0.317 J0.022
G1 X34.277 Y153.771
X34.206 Y153.776 Z-6.168
X34.139 Y153.781 Z-6.144
X34.079 Y153.785 Z-6.107
X34.029 Y153.788 Z-6.056
X33.991 Y153.791 Z-5.996
X33.968 Y153.793 Z-5.929
X33.96 Z-5.858
G0 Z5.
X33.941 Y178.642
Z0.499
G1 Z-1.183 F800.
G18 G2 X34.258 Z-1.501 I0.318 K0.
G1 X34.417
G17 G3 X34.734 Y178.959 I0. J0.317
X30.766 Z-1.532 I-1.984 J0.
X34.734 Z-1.563 I1.984 J0.
X30.766 Z-1.594 I-1.984 J0.
X34.734 Z-1.626 I1.984 J0.
X30.766 Z-1.657 I-1.984 J0.
X34.734 Z-1.688 I1.984 J0.
X30.766 Z-1.719 I-1.984 J0.
X34.734 Z-1.75 I1.984 J0.
X30.766 Z-1.781 I-1.984 J0.
X34.734 Z-1.813 I1.984 J0.
X30.766 Z-1.844 I-1.984 J0.
X34.734 Z-1.875 I1.984 J0.
X30.766 Z-1.906 I-1.984 J0.
X34.734 Z-1.937 I1.984 J0.
X30.766 Z-1.968 I-1.984 J0.
X34.734 Z-2. I1.984 J0.
X30.766 Z-2.031 I-1.984 J0.
X34.734 Z-2.062 I1.984 J0.
X30.766 Z-2.093 I-1.984 J0.
X34.734 Z-2.124 I1.984 J0.
X30.766 Z-2.156 I-1.984 J0.
X34.734 Z-2.187 I1.984 J0.
X30.766 Z-2.218 I-1.984 J0.
X34.734 Z-2.249 I1.984 J0.
X30.766 Z-2.28 I-1.984 J0.
X34.734 Z-2.311 I1.984 J0.
X30.766 Z-2.343 I-1.984 J0.
X34.734 Z-2.374 I1.984 J0.
X30.766 Z-2.405 I-1.984 J0.
X34.734 Z-2.436 I1.984 J0.
X30.766 Z-2.467 I-1.984 J0.
X34.734 Z-2.498 I1.984 J0.
X30.766 Z-2.53 I-1.984 J0.
X34.734 Z-2.561 I1.984 J0.
X30.766 Z-2.592 I-1.984 J0.
X34.734 Z-2.623 I1.984 J0.
X30.766 Z-2.654 I-1.984 J0.
X34.734 Z-2.685 I1.984 J0.
X30.766 Z-2.717 I-1.984 J0.
X34.734 Z-2.748 I1.984 J0.
X30.766 Z-2.779 I-1.984 J0.
X34.734 Z-2.81 I1.984 J0.
X30.766 Z-2.841 I-1.984 J0.
X34.734 Z-2.872 I1.984 J0.
X30.766 Z-2.904 I-1.984 J0.
X34.734 Z-2.935 I1.984 J0.
X30.766 Z-2.966 I-1.984 J0.
X34.734 Z-2.997 I1.984 J0.
X30.766 Z-3.028 I-1.984 J0.
X34.734 Z-3.059 I1.984 J0.
X30.766 Z-3.091 I-1.984 J0.
X34.734 Z-3.122 I1.984 J0.
X30.766 Z-3.153 I-1.984 J0.
X34.734 Z-3.184 I1.984 J0.
X30.766 Z-3.215 I-1.984 J0.
X34.734 Z-3.247 I1.984 J0.
X30.766 Z-3.278 I-1.984 J0.
X34.734 Z-3.309 I1.984 J0.
X30.766 Z-3.34 I-1.984 J0.
X34.734 Z-3.371 I1.984 J0.
X30.766 Z-3.402 I-1.984 J0.
X34.734 Z-3.434 I1.984 J0.
X30.766 Z-3.465 I-1.984 J0.
X34.734 Z-3.496 I1.984 J0.
X30.766 Z-3.527 I-1.984 J0.
X34.734 Z-3.558 I1.984 J0.
X30.766 Z-3.589 I-1.984 J0.
X34.734 Z-3.621 I1.984 J0.
X30.766 Z-3.652 I-1.984 J0.
X34.734 Z-3.683 I1.984 J0.
X30.766 Z-3.714 I-1.984 J0.
X34.734 Z-3.745 I1.984 J0.
X30.766 Z-3.776 I-1.984 J0.
X34.734 Z-3.808 I1.984 J0.
X30.766 Z-3.839 I-1.984 J0.
X34.734 Z-3.87 I1.984 J0.
X30.766 Z-3.901 I-1.984 J0.
X34.734 Z-3.932 I1.984 J0.
X30.766 Z-3.963 I-1.984 J0.
X34.734 Z-3.995 I1.984 J0.
X30.766 Z-4.026 I-1.984 J0.
X34.734 Z-4.057 I1.984 J0.
X30.766 Z-4.088 I-1.984 J0.
X34.734 Z-4.119 I1.984 J0.
X30.766 Z-4.15 I-1.984 J0.
X34.734 Z-4.182 I1.984 J0.
X30.766 Z-4.213 I-1.984 J0.
X34.734 Z-4.244 I1.984 J0.
X30.766 Z-4.275 I-1.984 J0.
X34.734 Z-4.306 I1.984 J0.
X30.766 Z-4.338 I-1.984 J0.
X34.734 Z-4.369 I1.984 J0.
X30.766 Z-4.4 I-1.984 J0.
X34.734 Z-4.431 I1.984 J0.
X30.766 Z-4.462 I-1.984 J0.
X34.734 Z-4.493 I1.984 J0.
X30.766 Z-4.525 I-1.984 J0.
X34.734 Z-4.556 I1.984 J0.
X30.766 Z-4.587 I-1.984 J0.
X34.734 Z-4.618 I1.984 J0.
X30.766 Z-4.649 I-1.984 J0.
X34.734 Z-4.68 I1.984 J0.
X30.766 Z-4.712 I-1.984 J0.
X34.734 Z-4.743 I1.984 J0.
X30.766 Z-4.774 I-1.984 J0.
X34.734 Z-4.805 I1.984 J0.
X30.766 Z-4.836 I-1.984 J0.
X34.734 Z-4.867 I1.984 J0.
X30.766 Z-4.899 I-1.984 J0.
X34.734 Z-4.93 I1.984 J0.
X30.766 Z-4.961 I-1.984 J0.
X34.734 Z-4.992 I1.984 J0.
X30.766 Z-5.023 I-1.984 J0.
X34.734 Z-5.054 I1.984 J0.
X30.766 Z-5.086 I-1.984 J0.
X34.734 Z-5.117 I1.984 J0.
X30.766 Z-5.148 I-1.984 J0.
X34.734 Z-5.179 I1.984 J0.
X30.766 Z-5.21 I-1.984 J0.
X34.734 Z-5.241 I1.984 J0.
X30.766 Z-5.273 I-1.984 J0.
X34.734 Z-5.304 I1.984 J0.
X30.766 Z-5.335 I-1.984 J0.
X34.734 Z-5.366 I1.984 J0.
X30.766 Z-5.397 I-1.984 J0.
X34.734 Z-5.428 I1.984 J0.
X30.766 Z-5.46 I-1.984 J0.
X34.734 Z-5.491 I1.984 J0.
X30.766 Z-5.522 I-1.984 J0.
X34.734 Z-5.553 I1.984 J0.
X30.766 Z-5.584 I-1.984 J0.
X34.734 Z-5.616 I1.984 J0.
X30.766 Z-5.647 I-1.984 J0.
X34.734 Z-5.678 I1.984 J0.
X30.766 Z-5.709 I-1.984 J0.
X34.734 Z-5.74 I1.984 J0.
X30.766 Z-5.771 I-1.984 J0.
X34.734 Z-5.803 I1.984 J0.
X30.766 Z-5.834 I-1.984 J0.
