(1001)
(T1  D=6.35 CR=0. - ZMIN=-4.738 - FLAT END MILL)
G90 G94 G91.1 G40 G49 G17
G21
G0 Z15

(2D CONTOUR4)
M5
T1 M6
S15000 M3
G54
M8
G0 X100.966 Y191.784
G43 Z17. H1
Z7.
G1 Z5.135 F1600.
X100.96 Y191.789 Z5.036
X100.944 Y191.805 Z4.939
X100.917 Y191.832 Z4.847
X100.88 Y191.869 Z4.762
X100.834 Y191.915 Z4.686
X100.781 Y191.969 Z4.621
X100.721 Y192.029 Z4.569
X100.656 Y192.094 Z4.531
X100.587 Y192.162 Z4.508
X100.517 Y192.233 Z4.5
X100.068 Y192.682
G3 X99.17 I-0.449 J-0.449
G1 X97.419 Y190.931 Z4.457
G2 X95.174 Y190.001 Z4.413 I-2.245 J2.245
G1 X44.374 Z3.527
G2 X42.129 Y190.931 Z3.483 I0. J3.175
G1 X23.079 Y209.981 Z3.013
G2 X22.149 Y212.226 Z2.969 I2.245 J2.245
G1 Y282.076 Z1.75
Y370.976
G2 X25.324 Y374.151 I3.175 J0.
G1 X114.224
G2 X117.399 Y370.976 I0. J-3.175
G1 Y212.226
G2 X116.469 Y209.981 I-3.175 J0.
G1 X97.419 Y190.931
G2 X95.174 Y190.001 I-2.245 J2.245
G1 X44.374
G2 X42.129 Y190.931 I0. J3.175
G1 X23.079 Y209.981
G2 X22.149 Y212.226 I2.245 J2.245
G1 Y282.076
Y296.398 Z1.5
Y370.976
G2 X25.324 Y374.151 I3.175 J0.
G1 X114.224
G2 X117.399 Y370.976 I0. J-3.175
G1 Y212.226
G2 X116.469 Y209.981 I-3.175 J0.
G1 X97.419 Y190.931
G2 X95.174 Y190.001 I-2.245 J2.245
G1 X44.374
G2 X42.129 Y190.931 I0. J3.175
G1 X23.079 Y209.981
G2 X22.149 Y212.226 I2.245 J2.245
G1 Y282.076
Y296.398
Y310.721 Z1.25
Y370.976
G2 X25.324 Y374.151 I3.175 J0.
G1 X114.224
G2 X117.399 Y370.976 I0. J-3.175
G1 Y212.226
G2 X116.469 Y209.981 I-3.175 J0.
G1 X97.419 Y190.931
G2 X95.174 Y190.001 I-2.245 J2.245
G1 X44.374
G2 X42.129 Y190.931 I0. J3.175
G1 X23.079 Y209.981
G2 X22.149 Y212.226 I2.245 J2.245
G1 Y296.398
Y310.721
Y325.043 Z1.
Y370.976
G2 X25.324 Y374.151 I3.175 J0.
G1 X114.224
G2 X117.399 Y370.976 I0. J-3.175
G1 Y212.226
G2 X116.469 Y209.981 I-3.175 J0.
G1 X97.419 Y190.931
G2 X95.174 Y190.001 I-2.245 J2.245
G1 X44.374
G2 X42.129 Y190.931 I0. J3.175
G1 X23.079 Y209.981
G2 X22.149 Y212.226 I2.245 J2.245
G1 Y310.721
Y325.043
Y339.366 Z0.75
Y370.976
G2 X25.324 Y374.151 I3.175 J0.
G1 X114.224
G2 X117.399 Y370.976 I0. J-3.175
G1 Y212.226
G2 X116.469 Y209.981 I-3.175 J0.
G1 X97.419 Y190.931
G2 X95.174 Y190.001 I-2.245 J2.245
G1 X44.374
G2 X42.129 Y190.931 I0. J3.175
G1 X23.079 Y209.981
G2 X22.149 Y212.226 I2.245 J2.245
G1 Y325.043
Y339.366
Y353.688 Z0.5
Y370.976
G2 X25.324 Y374.151 I3.175 J0.
G1 X114.224
G2 X117.399 Y370.976 I0. J-3.175
G1 Y212.226
G2 X116.469 Y209.981 I-3.175 J0.
G1 X97.419 Y190.931
G2 X95.174 Y190.001 I-2.245 J2.245
G1 X44.374
G2 X42.129 Y190.931 I0. J3.175
G1 X23.079 Y209.981
G2 X22.149 Y212.226 I2.245 J2.245
G1 Y339.366
Y353.688
Y368.011 Z0.25
Y370.976
G2 X25.324 Y374.151 I3.175 J0.
G1 X114.224
G2 X117.399 Y370.976 I0. J-3.175
G1 Y212.226
G2 X116.469 Y209.981 I-3.175 J0.
G1 X97.419 Y190.931
G2 X95.174 Y190.001 I-2.245 J2.245
G1 X44.374
G2 X42.129 Y190.931 I0. J3.175
G1 X23.079 Y209.981
G2 X22.149 Y212.226 I2.245 J2.245
G1 Y353.688
Y368.011
Y370.976 Z0.198
G2 X25.324 Y374.151 Z0.111 I3.175 J0.
G1 X31.694 Z0.
X114.224
G2 X117.399 Y370.976 I0. J-3.175
G1 Y212.226
G2 X116.469 Y209.981 I-3.175 J0.
G1 X97.419 Y190.931
G2 X95.174 Y190.001 I-2.245 J2.245
G1 X44.374
G2 X42.129 Y190.931 I0. J3.175
G1 X23.079 Y209.981
G2 X22.149 Y212.226 I2.245 J2.245
G1 Y368.011
Y370.976
G2 X25.324 Y374.151 I3.175 J0.
G1 X31.694
X46.017 Z-0.25
X114.224
G2 X117.399 Y370.976 I0. J-3.175
G1 Y212.226
G2 X116.469 Y209.981 I-3.175 J0.
G1 X97.419 Y190.931
G2 X95.174 Y190.001 I-2.245 J2.245
G1 X44.374
G2 X42.129 Y190.931 I0. J3.175
G1 X23.079 Y209.981
G2 X22.149 Y212.226 I2.245 J2.245
G1 Y370.976
G2 X25.324 Y374.151 I3.175 J0.
G1 X46.017
X60.339 Z-0.5
X114.224
G2 X117.399 Y370.976 I0. J-3.175
G1 Y212.226
G2 X116.469 Y209.981 I-3.175 J0.
G1 X97.419 Y190.931
G2 X95.174 Y190.001 I-2.245 J2.245
G1 X44.374
G2 X42.129 Y190.931 I0. J3.175
G1 X23.079 Y209.981
G2 X22.149 Y212.226 I2.245 J2.245
G1 Y370.976
G2 X25.324 Y374.151 I3.175 J0.
G1 X46.017
X60.339
X74.662 Z-0.75
X114.224
G2 X117.399 Y370.976 I0. J-3.175
G1 Y212.226
G2 X116.469 Y209.981 I-3.175 J0.
G1 X97.419 Y190.931
G2 X95.174 Y190.001 I-2.245 J2.245
G1 X44.374
G2 X42.129 Y190.931 I0. J3.175
G1 X23.079 Y209.981
G2 X22.149 Y212.226 I2.245 J2.245
G1 Y370.976
G2 X25.324 Y374.151 I3.175 J0.
G1 X60.339
X74.662
X88.984 Z-1.
X114.224
G2 X117.399 Y370.976 I0. J-3.175
G1 Y212.226
G2 X116.469 Y209.981 I-3.175 J0.
G1 X97.419 Y190.931
G2 X95.174 Y190.001 I-2.245 J2.245
G1 X44.374
G2 X42.129 Y190.931 I0. J3.175
G1 X23.079 Y209.981
G2 X22.149 Y212.226 I2.245 J2.245
G1 Y370.976
G2 X25.324 Y374.151 I3.175 J0.
G1 X74.662
X88.984
X103.307 Z-1.25
X114.224
G2 X117.399 Y370.976 I0. J-3.175
G1 Y212.226
G2 X116.469 Y209.981 I-3.175 J0.
G1 X97.419 Y190.931
G2 X95.174 Y190.001 I-2.245 J2.245
G1 X44.374
G2 X42.129 Y190.931 I0. J3.175
G1 X23.079 Y209.981
G2 X22.149 Y212.226 I2.245 J2.245
G1 Y370.976
G2 X25.324 Y374.151 I3.175 J0.
G1 X88.984
X103.307
X114.224 Z-1.441
G2 X117.013 Y372.493 Z-1.5 I0. J-3.175
X117.399 Y370.976 I-2.789 J-1.517
G1 Y212.226
G2 X116.469 Y209.981 I-3.175 J0.
G1 X97.419 Y190.931
G2 X95.174 Y190.001 I-2.245 J2.245
G1 X44.374
G2 X42.129 Y190.931 I0. J3.175
G1 X23.079 Y209.981
G2 X22.149 Y212.226 I2.245 J2.245
G1 Y370.976
G2 X25.324 Y374.151 I3.175 J0.
G1 X103.307
X114.224
G2 X117.013 Y372.493 I0. J-3.175
X117.399 Y370.976 Z-1.528 I-2.789 J-1.517
G1 Y358.236 Z-1.75
Y212.226
G2 X116.469 Y209.981 I-3.175 J0.
G1 X97.419 Y190.931
G2 X95.174 Y190.001 I-2.245 J2.245
G1 X44.374
G2 X42.129 Y190.931 I0. J3.175
G1 X23.079 Y209.981
G2 X22.149 Y212.226 I2.245 J2.245
G1 Y370.976
G2 X25.324 Y374.151 I3.175 J0.
G1 X114.224
G2 X117.399 Y370.976 I0. J-3.175
G1 Y358.236
Y343.913 Z-2.
Y212.226
G2 X116.469 Y209.981 I-3.175 J0.
G1 X97.419 Y190.931
G2 X95.174 Y190.001 I-2.245 J2.245
G1 X44.374
G2 X42.129 Y190.931 I0. J3.175
G1 X23.079 Y209.981
G2 X22.149 Y212.226 I2.245 J2.245
G1 Y370.976
G2 X25.324 Y374.151 I3.175 J0.
G1 X114.224
G2 X117.399 Y370.976 I0. J-3.175
G1 Y343.913
Y329.591 Z-2.25
Y212.226
G2 X116.469 Y209.981 I-3.175 J0.
G1 X97.419 Y190.931
G2 X95.174 Y190.001 I-2.245 J2.245
G1 X44.374
G2 X42.129 Y190.931 I0. J3.175
G1 X23.079 Y209.981
G2 X22.149 Y212.226 I2.245 J2.245
G1 Y370.976
G2 X25.324 Y374.151 I3.175 J0.
G1 X114.224
G2 X117.399 Y370.976 I0. J-3.175
G1 Y343.913
Y329.591
Y315.268 Z-2.5
Y212.226
G2 X116.469 Y209.981 I-3.175 J0.
G1 X97.419 Y190.931
G2 X95.174 Y190.001 I-2.245 J2.245
G1 X44.374
G2 X42.129 Y190.931 I0. J3.175
G1 X23.079 Y209.981
G2 X22.149 Y212.226 I2.245 J2.245
G1 Y370.976
G2 X25.324 Y374.151 I3.175 J0.
G1 X114.224
G2 X117.399 Y370.976 I0. J-3.175
G1 Y329.591
Y315.268
Y300.946 Z-2.75
Y212.226
G2 X116.469 Y209.981 I-3.175 J0.
G1 X97.419 Y190.931
G2 X95.174 Y190.001 I-2.245 J2.245
G1 X44.374
G2 X42.129 Y190.931 I0. J3.175
G1 X23.079 Y209.981
G2 X22.149 Y212.226 I2.245 J2.245
G1 Y370.976
G2 X25.324 Y374.151 I3.175 J0.
G1 X114.224
G2 X117.399 Y370.976 I0. J-3.175
G1 Y315.268
Y300.946
Y286.623 Z-3.
Y212.226
G2 X116.469 Y209.981 I-3.175 J0.
G1 X97.419 Y190.931
G2 X95.174 Y190.001 I-2.245 J2.245
G1 X44.374
G2 X42.129 Y190.931 I0. J3.175
G1 X23.079 Y209.981
G2 X22.149 Y212.226 I2.245 J2.245
G1 Y370.976
G2 X25.324 Y374.151 I3.175 J0.
G1 X114.224
G2 X117.399 Y370.976 I0. J-3.175
G1 Y300.946
Y286.623
Y272.301 Z-3.25
Y212.226
G2 X116.469 Y209.981 I-3.175 J0.
G1 X97.419 Y190.931
G2 X95.174 Y190.001 I-2.245 J2.245
G1 X44.374
G2 X42.129 Y190.931 I0. J3.175
G1 X23.079 Y209.981
G2 X22.149 Y212.226 I2.245 J2.245
G1 Y370.976
G2 X25.324 Y374.151 I3.175 J0.
G1 X114.224
G2 X117.399 Y370.976 I0. J-3.175
G1 Y286.623
Y272.301
Y257.978 Z-3.5
Y212.226
G2 X116.469 Y209.981 I-3.175 J0.
G1 X97.419 Y190.931
G2 X95.174 Y190.001 I-2.245 J2.245
G1 X44.374
G2 X42.129 Y190.931 I0. J3.175
G1 X23.079 Y209.981
G2 X22.149 Y212.226 I2.245 J2.245
G1 Y370.976
G2 X25.324 Y374.151 I3.175 J0.
G1 X114.224
G2 X117.399 Y370.976 I0. J-3.175
G1 Y272.301
Y257.978
Y243.656 Z-3.75
Y212.226
G2 X116.469 Y209.981 I-3.175 J0.
G1 X97.419 Y190.931
G2 X95.174 Y190.001 I-2.245 J2.245
G1 X44.374
G2 X42.129 Y190.931 I0. J3.175
G1 X23.079 Y209.981
G2 X22.149 Y212.226 I2.245 J2.245
G1 Y370.976
G2 X25.324 Y374.151 I3.175 J0.
G1 X114.224
G2 X117.399 Y370.976 I0. J-3.175
G1 Y257.978
Y243.656
Y229.333 Z-4.
Y212.226
G2 X116.469 Y209.981 I-3.175 J0.
G1 X97.419 Y190.931
G2 X95.174 Y190.001 I-2.245 J2.245
G1 X44.374
G2 X42.129 Y190.931 I0. J3.175
G1 X23.079 Y209.981
G2 X22.149 Y212.226 I2.245 J2.245
G1 Y370.976
G2 X25.324 Y374.151 I3.175 J0.
G1 X114.224
G2 X117.399 Y370.976 I0. J-3.175
G1 Y243.656
Y229.333
Y215.011 Z-4.25
Y212.226
G2 X116.469 Y209.981 I-3.175 J0.
G1 X97.419 Y190.931
G2 X95.174 Y190.001 I-2.245 J2.245
G1 X44.374
G2 X42.129 Y190.931 I0. J3.175
G1 X23.079 Y209.981
G2 X22.149 Y212.226 I2.245 J2.245
G1 Y370.976
G2 X25.324 Y374.151 I3.175 J0.
G1 X114.224
G2 X117.399 Y370.976 I0. J-3.175
G1 Y229.333
Y215.011
Y212.226 Z-4.299
G2 X116.469 Y209.981 Z-4.342 I-3.175 J0.
G1 X110.074 Y203.586 Z-4.5
X97.419 Y190.931
G2 X95.174 Y190.001 I-2.245 J2.245
G1 X44.374
G2 X42.129 Y190.931 I0. J3.175
G1 X23.079 Y209.981
G2 X22.149 Y212.226 I2.245 J2.245
G1 Y370.976
G2 X25.324 Y374.151 I3.175 J0.
G1 X114.224
G2 X117.399 Y370.976 I0. J-3.175
G1 Y215.011
Y212.226
G2 X116.469 Y209.981 I-3.175 J0.
G1 X110.074 Y203.586
X102.985 Y196.496 Z-4.675
X97.419 Y190.931
G2 X95.174 Y190.001 I-2.245 J2.245
G1 X44.374
G2 X42.129 Y190.931 I0. J3.175
G1 X23.079 Y209.981
G2 X22.149 Y212.226 I2.245 J2.245
G1 Y370.976
G2 X25.324 Y374.151 I3.175 J0.
G1 X114.224
G2 X117.399 Y370.976 I0. J-3.175
G1 Y212.226
G2 X116.469 Y209.981 I-3.175 J0.
G1 X102.985 Y196.496
G3 Y195.598 I0.449 J-0.449
G1 X103.434 Y195.149
X103.504 Y195.079 Z-4.667
X103.572 Y195.011 Z-4.644
X103.638 Y194.946 Z-4.606
X103.698 Y194.885 Z-4.554
X103.751 Y194.832 Z-4.489
X103.797 Y194.786 Z-4.413
X103.834 Y194.749 Z-4.328
X103.861 Y194.722 Z-4.236
X103.877 Y194.706 Z-4.139
X103.883 Y194.7 Z-4.04
G0 Z17.
X89.694 Y-5.08
Z7.
G1 Z5.135 F1600.
G19 G3 Y-4.445 Z4.5 J0.635 K0.
G1 Y-3.81
G17 G3 X89.059 Y-3.175 I-0.635 J0.
G1 X25.399 Z3.389
G2 X22.224 Y0. Z3.302 I0. J3.175
G1 Y88.9 Z1.75
Y158.75
G2 X23.154 Y160.995 I3.175 J0.
G1 X42.204 Y180.045
G2 X44.449 Y180.975 I2.245 J-2.245
G1 X95.249
G2 X97.494 Y180.045 I0. J-3.175
G1 X116.544 Y160.995
G2 X117.474 Y158.75 I-2.245 J-2.245
G1 Y0.
G2 X114.299 Y-3.175 I-3.175 J0.
G1 X25.399
G2 X22.224 Y0. I0. J3.175
G1 Y88.9
Y103.222 Z1.5
Y158.75
G2 X23.154 Y160.995 I3.175 J0.
G1 X42.204 Y180.045
G2 X44.449 Y180.975 I2.245 J-2.245
G1 X95.249
G2 X97.494 Y180.045 I0. J-3.175
G1 X116.544 Y160.995
G2 X117.474 Y158.75 I-2.245 J-2.245
G1 Y0.
G2 X114.299 Y-3.175 I-3.175 J0.
G1 X25.399
G2 X22.224 Y0. I0. J3.175
G1 Y88.9
Y103.222
Y117.545 Z1.25
Y158.75
G2 X23.154 Y160.995 I3.175 J0.
G1 X42.204 Y180.045
G2 X44.449 Y180.975 I2.245 J-2.245
G1 X95.249
G2 X97.494 Y180.045 I0. J-3.175
G1 X116.544 Y160.995
G2 X117.474 Y158.75 I-2.245 J-2.245
G1 Y0.
G2 X114.299 Y-3.175 I-3.175 J0.
G1 X25.399
G2 X22.224 Y0. I0. J3.175
G1 Y103.222
Y117.545
Y131.867 Z1.
Y158.75
G2 X23.154 Y160.995 I3.175 J0.
G1 X42.204 Y180.045
G2 X44.449 Y180.975 I2.245 J-2.245
G1 X95.249
G2 X97.494 Y180.045 I0. J-3.175
G1 X116.544 Y160.995
G2 X117.474 Y158.75 I-2.245 J-2.245
G1 Y0.
G2 X114.299 Y-3.175 I-3.175 J0.
G1 X25.399
G2 X22.224 Y0. I0. J3.175
G1 Y117.545
Y131.867
Y146.19 Z0.75
Y158.75
G2 X23.154 Y160.995 I3.175 J0.
G1 X42.204 Y180.045
G2 X44.449 Y180.975 I2.245 J-2.245
G1 X95.249
G2 X97.494 Y180.045 I0. J-3.175
G1 X116.544 Y160.995
G2 X117.474 Y158.75 I-2.245 J-2.245
G1 Y0.
G2 X114.299 Y-3.175 I-3.175 J0.
G1 X25.399
G2 X22.224 Y0. I0. J3.175
G1 Y131.867
Y146.19
Y158.75 Z0.531
G2 X22.701 Y160.423 Z0.5 I3.175 J0.
X23.154 Y160.995 I2.698 J-1.673
G1 X42.204 Y180.045
G2 X44.449 Y180.975 I2.245 J-2.245
G1 X95.249
G2 X97.494 Y180.045 I0. J-3.175
G1 X116.544 Y160.995
G2 X117.474 Y158.75 I-2.245 J-2.245
G1 Y0.
G2 X114.299 Y-3.175 I-3.175 J0.
G1 X25.399
G2 X22.224 Y0. I0. J3.175
G1 Y146.19
Y158.75
G2 X22.701 Y160.423 I3.175 J0.
X23.154 Y160.995 Z0.487 I2.698 J-1.673
G1 X32.765 Y170.605 Z0.25
X42.204 Y180.045
G2 X44.449 Y180.975 I2.245 J-2.245
G1 X95.249
G2 X97.494 Y180.045 I0. J-3.175
G1 X116.544 Y160.995
G2 X117.474 Y158.75 I-2.245 J-2.245
G1 Y0.
G2 X114.299 Y-3.175 I-3.175 J0.
G1 X25.399
G2 X22.224 Y0. I0. J3.175
G1 Y158.75
G2 X23.154 Y160.995 I3.175 J0.
G1 X32.765 Y170.605
X42.204 Y180.045 Z0.017
G2 X42.986 Y180.618 Z0. I2.245 J-2.245
X44.449 Y180.975 I1.463 J-2.818
G1 X95.249
G2 X97.494 Y180.045 I0. J-3.175
G1 X116.544 Y160.995
G2 X117.474 Y158.75 I-2.245 J-2.245
G1 Y0.
G2 X114.299 Y-3.175 I-3.175 J0.
G1 X25.399
G2 X22.224 Y0. I0. J3.175
G1 Y158.75
G2 X23.154 Y160.995 I3.175 J0.
G1 X32.765 Y170.605
X42.204 Y180.045
G2 X42.986 Y180.618 I2.245 J-2.245
X44.449 Y180.975 Z-0.027 I1.463 J-2.818
G1 X57.251 Z-0.25
X95.249
G2 X97.494 Y180.045 I0. J-3.175
G1 X116.544 Y160.995
G2 X117.474 Y158.75 I-2.245 J-2.245
G1 Y0.
G2 X114.299 Y-3.175 I-3.175 J0.
G1 X25.399
G2 X22.224 Y0. I0. J3.175
G1 Y158.75
G2 X23.154 Y160.995 I3.175 J0.
G1 X42.204 Y180.045
G2 X44.449 Y180.975 I2.245 J-2.245
G1 X57.251
X71.573 Z-0.5
X95.249
G2 X97.494 Y180.045 I0. J-3.175
G1 X116.544 Y160.995
G2 X117.474 Y158.75 I-2.245 J-2.245
G1 Y0.
G2 X114.299 Y-3.175 I-3.175 J0.
G1 X25.399
G2 X22.224 Y0. I0. J3.175
G1 Y158.75
G2 X23.154 Y160.995 I3.175 J0.
G1 X42.204 Y180.045
G2 X44.449 Y180.975 I2.245 J-2.245
G1 X71.573
X85.896 Z-0.75
X95.249
G2 X97.494 Y180.045 I0. J-3.175
G1 X116.544 Y160.995
G2 X117.474 Y158.75 I-2.245 J-2.245
G1 Y0.
G2 X114.299 Y-3.175 I-3.175 J0.
G1 X25.399
G2 X22.224 Y0. I0. J3.175
G1 Y158.75
G2 X23.154 Y160.995 I3.175 J0.
G1 X42.204 Y180.045
G2 X44.449 Y180.975 I2.245 J-2.245
G1 X71.573
X85.896
X95.249 Z-0.913
G2 X97.494 Y180.045 Z-0.957 I0. J-3.175
G1 X99.245 Y178.295 Z-1.
X116.544 Y160.995
G2 X117.474 Y158.75 I-2.245 J-2.245
G1 Y0.
G2 X114.299 Y-3.175 I-3.175 J0.
G1 X25.399
G2 X22.224 Y0. I0. J3.175
G1 Y158.75
G2 X23.154 Y160.995 I3.175 J0.
G1 X42.204 Y180.045
G2 X44.449 Y180.975 I2.245 J-2.245
G1 X85.896
X95.249
G2 X97.494 Y180.045 I0. J-3.175
G1 X99.245 Y178.295
X109.372 Y168.167 Z-1.25
X116.544 Y160.995
G2 X117.474 Y158.75 I-2.245 J-2.245
G1 Y0.
G2 X114.299 Y-3.175 I-3.175 J0.
G1 X25.399
G2 X22.224 Y0. I0. J3.175
G1 Y158.75
G2 X23.154 Y160.995 I3.175 J0.
G1 X42.204 Y180.045
G2 X44.449 Y180.975 I2.245 J-2.245
G1 X95.249
G2 X97.494 Y180.045 I0. J-3.175
G1 X109.372 Y168.167
X116.544 Y160.995 Z-1.427
G2 X117.474 Y158.75 Z-1.471 I-2.245 J-2.245
G1 Y157.064 Z-1.5
Y0.
G2 X114.299 Y-3.175 I-3.175 J0.
G1 X25.399
G2 X22.224 Y0. I0. J3.175
G1 Y158.75
G2 X23.154 Y160.995 I3.175 J0.
G1 X42.204 Y180.045
G2 X44.449 Y180.975 I2.245 J-2.245
G1 X95.249
G2 X97.494 Y180.045 I0. J-3.175
G1 X109.372 Y168.167
X116.544 Y160.995
G2 X117.474 Y158.75 I-2.245 J-2.245
G1 Y157.064
Y142.741 Z-1.75
Y0.
G2 X114.299 Y-3.175 I-3.175 J0.
G1 X25.399
G2 X22.224 Y0. I0. J3.175
G1 Y158.75
G2 X23.154 Y160.995 I3.175 J0.
G1 X42.204 Y180.045
G2 X44.449 Y180.975 I2.245 J-2.245
G1 X95.249
G2 X97.494 Y180.045 I0. J-3.175
G1 X116.544 Y160.995
G2 X117.474 Y158.75 I-2.245 J-2.245
G1 Y142.741
Y128.419 Z-2.
Y0.
G2 X114.299 Y-3.175 I-3.175 J0.
G1 X25.399
G2 X22.224 Y0. I0. J3.175
G1 Y158.75
G2 X23.154 Y160.995 I3.175 J0.
G1 X42.204 Y180.045
G2 X44.449 Y180.975 I2.245 J-2.245
G1 X95.249
G2 X97.494 Y180.045 I0. J-3.175
G1 X116.544 Y160.995
G2 X117.474 Y158.75 I-2.245 J-2.245
G1 Y142.741
Y128.419
Y114.096 Z-2.25
Y0.
G2 X114.299 Y-3.175 I-3.175 J0.
G1 X25.399
G2 X22.224 Y0. I0. J3.175
G1 Y158.75
G2 X23.154 Y160.995 I3.175 J0.
G1 X42.204 Y180.045
G2 X44.449 Y180.975 I2.245 J-2.245
G1 X95.249
G2 X97.494 Y180.045 I0. J-3.175
G1 X116.544 Y160.995
G2 X117.474 Y158.75 I-2.245 J-2.245
G1 Y128.419
Y114.096
Y99.774 Z-2.5
Y0.
G2 X114.299 Y-3.175 I-3.175 J0.
G1 X25.399
G2 X22.224 Y0. I0. J3.175
G1 Y158.75
G2 X23.154 Y160.995 I3.175 J0.
G1 X42.204 Y180.045
G2 X44.449 Y180.975 I2.245 J-2.245
G1 X95.249
G2 X97.494 Y180.045 I0. J-3.175
G1 X116.544 Y160.995
G2 X117.474 Y158.75 I-2.245 J-2.245
G1 Y114.096
Y99.774
Y85.451 Z-2.75
Y0.
G2 X114.299 Y-3.175 I-3.175 J0.
G1 X25.399
G2 X22.224 Y0. I0. J3.175
G1 Y158.75
G2 X23.154 Y160.995 I3.175 J0.
G1 X42.204 Y180.045
G2 X44.449 Y180.975 I2.245 J-2.245
G1 X95.249
G2 X97.494 Y180.045 I0. J-3.175
G1 X116.544 Y160.995
G2 X117.474 Y158.75 I-2.245 J-2.245
G1 Y99.774
Y85.451
Y71.129 Z-3.
Y0.
G2 X114.299 Y-3.175 I-3.175 J0.
G1 X25.399
G2 X22.224 Y0. I0. J3.175
G1 Y158.75
G2 X23.154 Y160.995 I3.175 J0.
G1 X42.204 Y180.045
G2 X44.449 Y180.975 I2.245 J-2.245
G1 X95.249
G2 X97.494 Y180.045 I0. J-3.175
G1 X116.544 Y160.995
G2 X117.474 Y158.75 I-2.245 J-2.245
G1 Y85.451
Y71.129
Y56.806 Z-3.25
Y0.
G2 X114.299 Y-3.175 I-3.175 J0.
G1 X25.399
G2 X22.224 Y0. I0. J3.175
G1 Y158.75
G2 X23.154 Y160.995 I3.175 J0.
G1 X42.204 Y180.045
G2 X44.449 Y180.975 I2.245 J-2.245
G1 X95.249
G2 X97.494 Y180.045 I0. J-3.175
G1 X116.544 Y160.995
G2 X117.474 Y158.75 I-2.245 J-2.245
G1 Y71.129
Y56.806
Y42.484 Z-3.5
Y0.
G2 X114.299 Y-3.175 I-3.175 J0.
G1 X25.399
G2 X22.224 Y0. I0. J3.175
G1 Y158.75
G2 X23.154 Y160.995 I3.175 J0.
G1 X42.204 Y180.045
G2 X44.449 Y180.975 I2.245 J-2.245
G1 X95.249
G2 X97.494 Y180.045 I0. J-3.175
G1 X116.544 Y160.995
G2 X117.474 Y158.75 I-2.245 J-2.245
G1 Y56.806
Y42.484
Y28.161 Z-3.75
Y0.
G2 X114.299 Y-3.175 I-3.175 J0.
G1 X25.399
G2 X22.224 Y0. I0. J3.175
G1 Y158.75
G2 X23.154 Y160.995 I3.175 J0.
G1 X42.204 Y180.045
G2 X44.449 Y180.975 I2.245 J-2.245
G1 X95.249
G2 X97.494 Y180.045 I0. J-3.175
G1 X116.544 Y160.995
G2 X117.474 Y158.75 I-2.245 J-2.245
G1 Y42.484
Y28.161
Y13.839 Z-4.
Y0.
G2 X114.299 Y-3.175 I-3.175 J0.
G1 X25.399
G2 X22.224 Y0. I0. J3.175
G1 Y158.75
G2 X23.154 Y160.995 I3.175 J0.
G1 X42.204 Y180.045
G2 X44.449 Y180.975 I2.245 J-2.245
G1 X95.249
G2 X97.494 Y180.045 I0. J-3.175
G1 X116.544 Y160.995
G2 X117.474 Y158.75 I-2.245 J-2.245
G1 Y28.161
Y13.839
Y0. Z-4.242
G2 X117.437 Y-0.482 Z-4.25 I-3.175 J0.
X114.299 Y-3.175 I-3.138 J0.482
G1 X25.399
G2 X22.224 Y0. I0. J3.175
G1 Y158.75
G2 X23.154 Y160.995 I3.175 J0.
G1 X42.204 Y180.045
G2 X44.449 Y180.975 I2.245 J-2.245
G1 X95.249
G2 X97.494 Y180.045 I0. J-3.175
G1 X116.544 Y160.995
G2 X117.474 Y158.75 I-2.245 J-2.245
G1 Y13.839
Y0.
G2 X117.437 Y-0.482 I-3.175 J0.
X114.299 Y-3.175 Z-4.329 I-3.138 J0.482
G1 X104.48 Z-4.5
X25.399
G2 X22.224 Y0. I0. J3.175
G1 Y158.75
G2 X23.154 Y160.995 I3.175 J0.
G1 X42.204 Y180.045
G2 X44.449 Y180.975 I2.245 J-2.245
G1 X95.249
G2 X97.494 Y180.045 I0. J-3.175
G1 X116.544 Y160.995
G2 X117.474 Y158.75 I-2.245 J-2.245
G1 Y0.
G2 X114.299 Y-3.175 I-3.175 J0.
G1 X104.48
X90.818 Z-4.738
X25.399
G2 X22.224 Y0. I0. J3.175
G1 Y158.75
G2 X23.154 Y160.995 I3.175 J0.
G1 X42.204 Y180.045
G2 X44.449 Y180.975 I2.245 J-2.245
G1 X95.249
G2 X97.494 Y180.045 I0. J-3.175
G1 X116.544 Y160.995
G2 X117.474 Y158.75 I-2.245 J-2.245
G1 Y0.
G2 X114.299 Y-3.175 I-3.175 J0.
G1 X90.818
G3 X90.183 Y-3.81 I0. J-0.635
G1 Y-4.445
G19 G2 Y-5.08 Z-4.103 J0. K0.635
G0 Z17.
G17
M5
G0 Z15
G0 X0 Y0

M9
M30
