(MOUNTING RAIL GUSSET CUTOUT )
(T1  D=0.25 CR=0. - ZMIN=-0.1841 - FLAT END MILL)
G90 G94 G91.1 G40 G49 G17
G20
G0 Z15

(2D CONTOUR4)
M5
T1 M6
S15000 M3
G54
M8
G0 X1.4657 Y14.8054
G43 Z0.6718 H1
Z0.2781
G1 Z0.2047 F63.
G19 G2 Y14.7804 Z0.1797 J-0.025 K0.
G1 Y14.7554
G17 G3 X1.4907 Y14.7304 I0.025 J0.
G1 X3.997 Z0.1359
G2 X4.122 Y14.6054 Z0.1325 I0. J-0.125
G1 Y11.1054 Z0.0714
Y8.3554
G2 X4.0854 Y8.267 I-0.125 J0.
G1 X3.3354 Y7.517
G2 X3.247 Y7.4804 I-0.0884 J0.0884
G1 X1.247
G2 X1.1587 Y7.517 I0. J0.125
G1 X0.4087 Y8.267
G2 X0.372 Y8.3554 I0.0884 J0.0884
G1 Y14.6054
G2 X0.497 Y14.7304 I0.125 J0.
G1 X3.997
G2 X4.122 Y14.6054 I0. J-0.125
G1 Y11.1054
Y10.5415 Z0.0616
Y8.3554
G2 X4.0854 Y8.267 I-0.125 J0.
G1 X3.3354 Y7.517
G2 X3.247 Y7.4804 I-0.0884 J0.0884
G1 X1.247
G2 X1.1587 Y7.517 I0. J0.125
G1 X0.4087 Y8.267
G2 X0.372 Y8.3554 I0.0884 J0.0884
G1 Y14.6054
G2 X0.497 Y14.7304 I0.125 J0.
G1 X3.997
G2 X4.122 Y14.6054 I0. J-0.125
G1 Y11.1054
Y10.5415
Y9.9776 Z0.0517
Y8.3554
G2 X4.0854 Y8.267 I-0.125 J0.
G1 X3.3354 Y7.517
G2 X3.247 Y7.4804 I-0.0884 J0.0884
G1 X1.247
G2 X1.1587 Y7.517 I0. J0.125
G1 X0.4087 Y8.267
G2 X0.372 Y8.3554 I0.0884 J0.0884
G1 Y14.6054
G2 X0.497 Y14.7304 I0.125 J0.
G1 X3.997
G2 X4.122 Y14.6054 I0. J-0.125
G1 Y10.5415
Y9.9776
Y9.4137 Z0.0419
Y8.3554
G2 X4.0854 Y8.267 I-0.125 J0.
G1 X3.3354 Y7.517
G2 X3.247 Y7.4804 I-0.0884 J0.0884
G1 X1.247
G2 X1.1587 Y7.517 I0. J0.125
G1 X0.4087 Y8.267
G2 X0.372 Y8.3554 I0.0884 J0.0884
G1 Y14.6054
G2 X0.497 Y14.7304 I0.125 J0.
G1 X3.997
G2 X4.122 Y14.6054 I0. J-0.125
G1 Y9.9776
Y9.4137
Y8.8498 Z0.032
Y8.3554
G2 X4.0854 Y8.267 I-0.125 J0.
G1 X3.3354 Y7.517
G2 X3.247 Y7.4804 I-0.0884 J0.0884
G1 X1.247
G2 X1.1587 Y7.517 I0. J0.125
G1 X0.4087 Y8.267
G2 X0.372 Y8.3554 I0.0884 J0.0884
G1 Y14.6054
G2 X0.497 Y14.7304 I0.125 J0.
G1 X3.997
G2 X4.122 Y14.6054 I0. J-0.125
G1 Y9.4137
Y8.8498
Y8.3554 Z0.0234
G2 X4.1033 Y8.2895 Z0.0222 I-0.125 J0.
X4.0854 Y8.267 I-0.1062 J0.0659
G1 X3.3354 Y7.517
G2 X3.247 Y7.4804 I-0.0884 J0.0884
G1 X1.247
G2 X1.1587 Y7.517 I0. J0.125
G1 X0.4087 Y8.267
G2 X0.372 Y8.3554 I0.0884 J0.0884
G1 Y14.6054
G2 X0.497 Y14.7304 I0.125 J0.
G1 X3.997
G2 X4.122 Y14.6054 I0. J-0.125
G1 Y8.8498
Y8.3554
G2 X4.1033 Y8.2895 I-0.125 J0.
X4.0854 Y8.267 Z0.0217 I-0.1062 J0.0659
G1 X3.7071 Y7.8886 Z0.0123
X3.3354 Y7.517
G2 X3.247 Y7.4804 I-0.0884 J0.0884
G1 X1.247
G2 X1.1587 Y7.517 I0. J0.125
G1 X0.4087 Y8.267
G2 X0.372 Y8.3554 I0.0884 J0.0884
G1 Y14.6054
G2 X0.497 Y14.7304 I0.125 J0.
G1 X3.997
G2 X4.122 Y14.6054 I0. J-0.125
G1 Y8.3554
G2 X4.0854 Y8.267 I-0.125 J0.
G1 X3.7071 Y7.8886
X3.3354 Y7.517 Z0.0032
G2 X3.3047 Y7.4944 Z0.0025 I-0.0884 J0.0884
X3.247 Y7.4804 I-0.0576 J0.1109
G1 X1.247
G2 X1.1587 Y7.517 I0. J0.125
G1 X0.4087 Y8.267
G2 X0.372 Y8.3554 I0.0884 J0.0884
G1 Y14.6054
G2 X0.497 Y14.7304 I0.125 J0.
G1 X3.997
G2 X4.122 Y14.6054 I0. J-0.125
G1 Y8.3554
G2 X4.0854 Y8.267 I-0.125 J0.
G1 X3.7071 Y7.8886
X3.3354 Y7.517
G2 X3.3047 Y7.4944 I-0.0884 J0.0884
X3.247 Y7.4804 Z0.0015 I-0.0576 J0.1109
G1 X2.743 Z-0.0073
X1.247
G2 X1.1587 Y7.517 I0. J0.125
G1 X0.4087 Y8.267
G2 X0.372 Y8.3554 I0.0884 J0.0884
G1 Y14.6054
G2 X0.497 Y14.7304 I0.125 J0.
G1 X3.997
G2 X4.122 Y14.6054 I0. J-0.125
G1 Y8.3554
G2 X4.0854 Y8.267 I-0.125 J0.
G1 X3.3354 Y7.517
G2 X3.247 Y7.4804 I-0.0884 J0.0884
G1 X2.743
X2.1792 Z-0.0172
X1.247
G2 X1.1587 Y7.517 I0. J0.125
G1 X0.4087 Y8.267
G2 X0.372 Y8.3554 I0.0884 J0.0884
G1 Y14.6054
G2 X0.497 Y14.7304 I0.125 J0.
G1 X3.997
G2 X4.122 Y14.6054 I0. J-0.125
G1 Y8.3554
G2 X4.0854 Y8.267 I-0.125 J0.
G1 X3.3354 Y7.517
G2 X3.247 Y7.4804 I-0.0884 J0.0884
G1 X2.1792
X1.6153 Z-0.027
X1.247
G2 X1.1587 Y7.517 I0. J0.125
G1 X0.4087 Y8.267
G2 X0.372 Y8.3554 I0.0884 J0.0884
G1 Y14.6054
G2 X0.497 Y14.7304 I0.125 J0.
G1 X3.997
G2 X4.122 Y14.6054 I0. J-0.125
G1 Y8.3554
G2 X4.0854 Y8.267 I-0.125 J0.
G1 X3.3354 Y7.517
G2 X3.247 Y7.4804 I-0.0884 J0.0884
G1 X2.1792
X1.6153
X1.247 Z-0.0335
G2 X1.1587 Y7.517 Z-0.0352 I0. J0.125
G1 X1.0897 Y7.5859 Z-0.0369
X0.4087 Y8.267
G2 X0.372 Y8.3554 I0.0884 J0.0884
G1 Y14.6054
G2 X0.497 Y14.7304 I0.125 J0.
G1 X3.997
G2 X4.122 Y14.6054 I0. J-0.125
G1 Y8.3554
G2 X4.0854 Y8.267 I-0.125 J0.
G1 X3.3354 Y7.517
G2 X3.247 Y7.4804 I-0.0884 J0.0884
G1 X1.6153
X1.247
G2 X1.1587 Y7.517 I0. J0.125
G1 X1.0897 Y7.5859
X0.691 Y7.9846 Z-0.0467
X0.4087 Y8.267
G2 X0.372 Y8.3554 I0.0884 J0.0884
G1 Y14.6054
G2 X0.497 Y14.7304 I0.125 J0.
G1 X3.997
G2 X4.122 Y14.6054 I0. J-0.125
G1 Y8.3554
G2 X4.0854 Y8.267 I-0.125 J0.
G1 X3.3354 Y7.517
G2 X3.247 Y7.4804 I-0.0884 J0.0884
G1 X1.247
G2 X1.1587 Y7.517 I0. J0.125
G1 X0.691 Y7.9846
X0.4087 Y8.267 Z-0.0537
G2 X0.372 Y8.3554 Z-0.0554 I0.0884 J0.0884
G1 Y8.4217 Z-0.0566
Y14.6054
G2 X0.497 Y14.7304 I0.125 J0.
G1 X3.997
G2 X4.122 Y14.6054 I0. J-0.125
G1 Y8.3554
G2 X4.0854 Y8.267 I-0.125 J0.
G1 X3.3354 Y7.517
G2 X3.247 Y7.4804 I-0.0884 J0.0884
G1 X1.247
G2 X1.1587 Y7.517 I0. J0.125
G1 X0.691 Y7.9846
X0.4087 Y8.267
G2 X0.372 Y8.3554 I0.0884 J0.0884
G1 Y8.4217
Y8.9856 Z-0.0664
Y14.6054
G2 X0.497 Y14.7304 I0.125 J0.
G1 X3.997
G2 X4.122 Y14.6054 I0. J-0.125
G1 Y8.3554
G2 X4.0854 Y8.267 I-0.125 J0.
G1 X3.3354 Y7.517
G2 X3.247 Y7.4804 I-0.0884 J0.0884
G1 X1.247
G2 X1.1587 Y7.517 I0. J0.125
G1 X0.4087 Y8.267
G2 X0.372 Y8.3554 I0.0884 J0.0884
G1 Y8.9856
Y9.5495 Z-0.0762
Y14.6054
G2 X0.497 Y14.7304 I0.125 J0.
G1 X3.997
G2 X4.122 Y14.6054 I0. J-0.125
G1 Y8.3554
G2 X4.0854 Y8.267 I-0.125 J0.
G1 X3.3354 Y7.517
G2 X3.247 Y7.4804 I-0.0884 J0.0884
G1 X1.247
G2 X1.1587 Y7.517 I0. J0.125
G1 X0.4087 Y8.267
G2 X0.372 Y8.3554 I0.0884 J0.0884
G1 Y8.9856
Y9.5495
Y10.1134 Z-0.0861
Y14.6054
G2 X0.497 Y14.7304 I0.125 J0.
G1 X3.997
G2 X4.122 Y14.6054 I0. J-0.125
G1 Y8.3554
G2 X4.0854 Y8.267 I-0.125 J0.
G1 X3.3354 Y7.517
G2 X3.247 Y7.4804 I-0.0884 J0.0884
G1 X1.247
G2 X1.1587 Y7.517 I0. J0.125
G1 X0.4087 Y8.267
G2 X0.372 Y8.3554 I0.0884 J0.0884
G1 Y9.5495
Y10.1134
Y10.6773 Z-0.0959
Y14.6054
G2 X0.497 Y14.7304 I0.125 J0.
G1 X3.997
G2 X4.122 Y14.6054 I0. J-0.125
G1 Y8.3554
G2 X4.0854 Y8.267 I-0.125 J0.
G1 X3.3354 Y7.517
G2 X3.247 Y7.4804 I-0.0884 J0.0884
G1 X1.247
G2 X1.1587 Y7.517 I0. J0.125
G1 X0.4087 Y8.267
G2 X0.372 Y8.3554 I0.0884 J0.0884
G1 Y10.1134
Y10.6773
Y11.2411 Z-0.1058
Y14.6054
G2 X0.497 Y14.7304 I0.125 J0.
G1 X3.997
G2 X4.122 Y14.6054 I0. J-0.125
G1 Y8.3554
G2 X4.0854 Y8.267 I-0.125 J0.
G1 X3.3354 Y7.517
G2 X3.247 Y7.4804 I-0.0884 J0.0884
G1 X1.247
G2 X1.1587 Y7.517 I0. J0.125
G1 X0.4087 Y8.267
G2 X0.372 Y8.3554 I0.0884 J0.0884
G1 Y10.6773
Y11.2411
Y11.805 Z-0.1156
Y14.6054
G2 X0.497 Y14.7304 I0.125 J0.
G1 X3.997
G2 X4.122 Y14.6054 I0. J-0.125
G1 Y8.3554
G2 X4.0854 Y8.267 I-0.125 J0.
G1 X3.3354 Y7.517
G2 X3.247 Y7.4804 I-0.0884 J0.0884
G1 X1.247
G2 X1.1587 Y7.517 I0. J0.125
G1 X0.4087 Y8.267
G2 X0.372 Y8.3554 I0.0884 J0.0884
G1 Y11.2411
Y11.805
Y12.3689 Z-0.1255
Y14.6054
G2 X0.497 Y14.7304 I0.125 J0.
G1 X3.997
G2 X4.122 Y14.6054 I0. J-0.125
G1 Y8.3554
G2 X4.0854 Y8.267 I-0.125 J0.
G1 X3.3354 Y7.517
G2 X3.247 Y7.4804 I-0.0884 J0.0884
G1 X1.247
G2 X1.1587 Y7.517 I0. J0.125
G1 X0.4087 Y8.267
G2 X0.372 Y8.3554 I0.0884 J0.0884
G1 Y11.805
Y12.3689
Y12.9328 Z-0.1353
Y14.6054
G2 X0.497 Y14.7304 I0.125 J0.
G1 X3.997
G2 X4.122 Y14.6054 I0. J-0.125
G1 Y8.3554
G2 X4.0854 Y8.267 I-0.125 J0.
G1 X3.3354 Y7.517
G2 X3.247 Y7.4804 I-0.0884 J0.0884
G1 X1.247
G2 X1.1587 Y7.517 I0. J0.125
G1 X0.4087 Y8.267
G2 X0.372 Y8.3554 I0.0884 J0.0884
G1 Y12.3689
Y12.9328
Y13.4966 Z-0.1451
Y14.6054
G2 X0.497 Y14.7304 I0.125 J0.
G1 X3.997
G2 X4.122 Y14.6054 I0. J-0.125
G1 Y8.3554
G2 X4.0854 Y8.267 I-0.125 J0.
G1 X3.3354 Y7.517
G2 X3.247 Y7.4804 I-0.0884 J0.0884
G1 X1.247
G2 X1.1587 Y7.517 I0. J0.125
G1 X0.4087 Y8.267
G2 X0.372 Y8.3554 I0.0884 J0.0884
G1 Y12.9328
Y13.4966
Y14.0605 Z-0.155
Y14.6054
G2 X0.497 Y14.7304 I0.125 J0.
G1 X3.997
G2 X4.122 Y14.6054 I0. J-0.125
G1 Y8.3554
G2 X4.0854 Y8.267 I-0.125 J0.
G1 X3.3354 Y7.517
G2 X3.247 Y7.4804 I-0.0884 J0.0884
G1 X1.247
G2 X1.1587 Y7.517 I0. J0.125
G1 X0.4087 Y8.267
G2 X0.372 Y8.3554 I0.0884 J0.0884
G1 Y13.4966
Y14.0605
Y14.6054 Z-0.1645
G2 X0.3735 Y14.6243 Z-0.1648 I0.125 J0.
X0.497 Y14.7304 I0.1236 J-0.019
G1 X3.997
G2 X4.122 Y14.6054 I0. J-0.125
G1 Y8.3554
G2 X4.0854 Y8.267 I-0.125 J0.
G1 X3.3354 Y7.517
G2 X3.247 Y7.4804 I-0.0884 J0.0884
G1 X1.247
G2 X1.1587 Y7.517 I0. J0.125
G1 X0.4087 Y8.267
G2 X0.372 Y8.3554 I0.0884 J0.0884
G1 Y14.0605
Y14.6054
G2 X0.3735 Y14.6243 I0.125 J0.
X0.497 Y14.7304 Z-0.1679 I0.1236 J-0.019
G1 X0.8836 Z-0.1747
X3.997
G2 X4.122 Y14.6054 I0. J-0.125
G1 Y8.3554
G2 X4.0854 Y8.267 I-0.125 J0.
G1 X3.3354 Y7.517
G2 X3.247 Y7.4804 I-0.0884 J0.0884
G1 X1.247
G2 X1.1587 Y7.517 I0. J0.125
G1 X0.4087 Y8.267
G2 X0.372 Y8.3554 I0.0884 J0.0884
G1 Y14.6054
G2 X0.497 Y14.7304 I0.125 J0.
G1 X0.8836
X1.2783 Z-0.1816
X3.997
G2 X4.122 Y14.6054 I0. J-0.125
G1 Y8.3554
G2 X4.0854 Y8.267 I-0.125 J0.
G1 X3.3354 Y7.517
G2 X3.247 Y7.4804 I-0.0884 J0.0884
G1 X1.247
G2 X1.1587 Y7.517 I0. J0.125
G1 X0.4087 Y8.267
G2 X0.372 Y8.3554 I0.0884 J0.0884
G1 Y14.6054
G2 X0.497 Y14.7304 I0.125 J0.
G1 X1.2783
G3 X1.3033 Y14.7554 I0. J0.025
G1 Y14.7804
G19 G3 Y14.8054 Z-0.1566 J0. K0.025
G0 Z0.6718
X1.022 Y7.0548
Z0.2781
G1 Z0.2047 F63.
X1.0222 Y7.0546 Z0.2008
X1.0228 Y7.054 Z0.1969
X1.0239 Y7.0529 Z0.1933
X1.0254 Y7.0514 Z0.19
X1.0272 Y7.0496 Z0.187
X1.0293 Y7.0475 Z0.1844
X1.0316 Y7.0452 Z0.1824
X1.0342 Y7.0426 Z0.1809
X1.0369 Y7.0399 Z0.18
X1.0397 Y7.0371 Z0.1797
X1.0573 Y7.0195
G17 G3 X1.0927 I0.0177 J0.0177
G1 X1.1616 Y7.0884 Z0.178
G2 X1.25 Y7.125 Z0.1762 I0.0884 J-0.0884
G1 X3.25 Z0.1413
G2 X3.3384 Y7.0884 Z0.1396 I0. J-0.125
G1 X4.0884 Y6.3384 Z0.1211
G2 X4.125 Y6.25 Z0.1194 I-0.0884 J-0.0884
G1 Y3.5 Z0.0714
Y0.
G2 X4. Y-0.125 I-0.125 J0.
G1 X0.5
G2 X0.375 Y0. I0. J0.125
G1 Y6.25
G2 X0.4116 Y6.3384 I0.125 J0.
G1 X1.1616 Y7.0884
G2 X1.25 Y7.125 I0.0884 J-0.0884
G1 X3.25
G2 X3.3384 Y7.0884 I0. J-0.125
G1 X4.0884 Y6.3384
G2 X4.125 Y6.25 I-0.0884 J-0.0884
G1 Y3.5
Y2.9361 Z0.0616
Y0.
G2 X4. Y-0.125 I-0.125 J0.
G1 X0.5
G2 X0.375 Y0. I0. J0.125
G1 Y6.25
G2 X0.4116 Y6.3384 I0.125 J0.
G1 X1.1616 Y7.0884
G2 X1.25 Y7.125 I0.0884 J-0.0884
G1 X3.25
G2 X3.3384 Y7.0884 I0. J-0.125
G1 X4.0884 Y6.3384
G2 X4.125 Y6.25 I-0.0884 J-0.0884
G1 Y3.5
Y2.9361
Y2.3722 Z0.0517
Y0.
G2 X4. Y-0.125 I-0.125 J0.
G1 X0.5
G2 X0.375 Y0. I0. J0.125
G1 Y6.25
G2 X0.4116 Y6.3384 I0.125 J0.
G1 X1.1616 Y7.0884
G2 X1.25 Y7.125 I0.0884 J-0.0884
G1 X3.25
G2 X3.3384 Y7.0884 I0. J-0.125
G1 X4.0884 Y6.3384
G2 X4.125 Y6.25 I-0.0884 J-0.0884
G1 Y2.9361
Y2.3722
Y1.8084 Z0.0419
Y0.
G2 X4. Y-0.125 I-0.125 J0.
G1 X0.5
G2 X0.375 Y0. I0. J0.125
G1 Y6.25
G2 X0.4116 Y6.3384 I0.125 J0.
G1 X1.1616 Y7.0884
G2 X1.25 Y7.125 I0.0884 J-0.0884
G1 X3.25
G2 X3.3384 Y7.0884 I0. J-0.125
G1 X4.0884 Y6.3384
G2 X4.125 Y6.25 I-0.0884 J-0.0884
G1 Y2.3722
Y1.8084
Y1.2445 Z0.032
Y0.
G2 X4. Y-0.125 I-0.125 J0.
G1 X0.5
G2 X0.375 Y0. I0. J0.125
G1 Y6.25
G2 X0.4116 Y6.3384 I0.125 J0.
G1 X1.1616 Y7.0884
G2 X1.25 Y7.125 I0.0884 J-0.0884
G1 X3.25
G2 X3.3384 Y7.0884 I0. J-0.125
G1 X4.0884 Y6.3384
G2 X4.125 Y6.25 I-0.0884 J-0.0884
G1 Y1.8084
Y1.2445
Y0.6806 Z0.0222
Y0.
G2 X4. Y-0.125 I-0.125 J0.
G1 X0.5
G2 X0.375 Y0. I0. J0.125
G1 Y6.25
G2 X0.4116 Y6.3384 I0.125 J0.
G1 X1.1616 Y7.0884
G2 X1.25 Y7.125 I0.0884 J-0.0884
G1 X3.25
G2 X3.3384 Y7.0884 I0. J-0.125
G1 X4.0884 Y6.3384
G2 X4.125 Y6.25 I-0.0884 J-0.0884
G1 Y1.2445
Y0.6806
Y0.1167 Z0.0123
Y0.
G2 X4. Y-0.125 I-0.125 J0.
G1 X0.5
G2 X0.375 Y0. I0. J0.125
G1 Y6.25
G2 X0.4116 Y6.3384 I0.125 J0.
G1 X1.1616 Y7.0884
G2 X1.25 Y7.125 I0.0884 J-0.0884
G1 X3.25
G2 X3.3384 Y7.0884 I0. J-0.125
G1 X4.0884 Y6.3384
G2 X4.125 Y6.25 I-0.0884 J-0.0884
G1 Y0.6806
Y0.1167
Y0. Z0.0103
G2 X4. Y-0.125 Z0.0069 I-0.125 J0.
G1 X3.7492 Z0.0025
X0.5
G2 X0.375 Y0. I0. J0.125
G1 Y6.25
G2 X0.4116 Y6.3384 I0.125 J0.
G1 X1.1616 Y7.0884
G2 X1.25 Y7.125 I0.0884 J-0.0884
G1 X3.25
G2 X3.3384 Y7.0884 I0. J-0.125
G1 X4.0884 Y6.3384
G2 X4.125 Y6.25 I-0.0884 J-0.0884
G1 Y0.1167
Y0.
G2 X4. Y-0.125 I-0.125 J0.
G1 X3.7492
X3.1853 Z-0.0073
X0.5
G2 X0.375 Y0. I0. J0.125
G1 Y6.25
G2 X0.4116 Y6.3384 I0.125 J0.
G1 X1.1616 Y7.0884
G2 X1.25 Y7.125 I0.0884 J-0.0884
G1 X3.25
G2 X3.3384 Y7.0884 I0. J-0.125
G1 X4.0884 Y6.3384
G2 X4.125 Y6.25 I-0.0884 J-0.0884
G1 Y0.
G2 X4. Y-0.125 I-0.125 J0.
G1 X3.1853
X2.6215 Z-0.0172
X0.5
G2 X0.375 Y0. I0. J0.125
G1 Y6.25
G2 X0.4116 Y6.3384 I0.125 J0.
G1 X1.1616 Y7.0884
G2 X1.25 Y7.125 I0.0884 J-0.0884
G1 X3.25
G2 X3.3384 Y7.0884 I0. J-0.125
G1 X4.0884 Y6.3384
G2 X4.125 Y6.25 I-0.0884 J-0.0884
G1 Y0.
G2 X4. Y-0.125 I-0.125 J0.
G1 X3.1853
X2.6215
X2.0576 Z-0.027
X0.5
G2 X0.375 Y0. I0. J0.125
G1 Y6.25
G2 X0.4116 Y6.3384 I0.125 J0.
G1 X1.1616 Y7.0884
G2 X1.25 Y7.125 I0.0884 J-0.0884
G1 X3.25
G2 X3.3384 Y7.0884 I0. J-0.125
G1 X4.0884 Y6.3384
G2 X4.125 Y6.25 I-0.0884 J-0.0884
G1 Y0.
G2 X4. Y-0.125 I-0.125 J0.
G1 X2.6215
X2.0576
X1.4937 Z-0.0369
X0.5
G2 X0.375 Y0. I0. J0.125
G1 Y6.25
G2 X0.4116 Y6.3384 I0.125 J0.
G1 X1.1616 Y7.0884
G2 X1.25 Y7.125 I0.0884 J-0.0884
G1 X3.25
G2 X3.3384 Y7.0884 I0. J-0.125
G1 X4.0884 Y6.3384
G2 X4.125 Y6.25 I-0.0884 J-0.0884
G1 Y0.
G2 X4. Y-0.125 I-0.125 J0.
G1 X2.0576
X1.4937
X0.9298 Z-0.0467
X0.5
G2 X0.375 Y0. I0. J0.125
G1 Y6.25
G2 X0.4116 Y6.3384 I0.125 J0.
G1 X1.1616 Y7.0884
G2 X1.25 Y7.125 I0.0884 J-0.0884
G1 X3.25
G2 X3.3384 Y7.0884 I0. J-0.125
G1 X4.0884 Y6.3384
G2 X4.125 Y6.25 I-0.0884 J-0.0884
G1 Y0.
G2 X4. Y-0.125 I-0.125 J0.
G1 X1.4937
X0.9298
X0.5 Z-0.0542
G2 X0.3902 Y-0.0597 Z-0.0566 I0. J0.125
X0.375 Y0. I0.1098 J0.0597
G1 Y6.25
G2 X0.4116 Y6.3384 I0.125 J0.
G1 X1.1616 Y7.0884
G2 X1.25 Y7.125 I0.0884 J-0.0884
G1 X3.25
G2 X3.3384 Y7.0884 I0. J-0.125
G1 X4.0884 Y6.3384
G2 X4.125 Y6.25 I-0.0884 J-0.0884
G1 Y0.
G2 X4. Y-0.125 I-0.125 J0.
G1 X0.9298
X0.5
G2 X0.3902 Y-0.0597 I0. J0.125
X0.375 Y0. Z-0.0576 I0.1098 J0.0597
G1 Y0.5016 Z-0.0664
Y6.25
G2 X0.4116 Y6.3384 I0.125 J0.
G1 X1.1616 Y7.0884
G2 X1.25 Y7.125 I0.0884 J-0.0884
G1 X3.25
G2 X3.3384 Y7.0884 I0. J-0.125
G1 X4.0884 Y6.3384
G2 X4.125 Y6.25 I-0.0884 J-0.0884
G1 Y0.
G2 X4. Y-0.125 I-0.125 J0.
G1 X0.5
G2 X0.375 Y0. I0. J0.125
G1 Y0.5016
Y1.0655 Z-0.0762
Y6.25
G2 X0.4116 Y6.3384 I0.125 J0.
G1 X1.1616 Y7.0884
G2 X1.25 Y7.125 I0.0884 J-0.0884
G1 X3.25
G2 X3.3384 Y7.0884 I0. J-0.125
G1 X4.0884 Y6.3384
G2 X4.125 Y6.25 I-0.0884 J-0.0884
G1 Y0.
G2 X4. Y-0.125 I-0.125 J0.
G1 X0.5
G2 X0.375 Y0. I0. J0.125
G1 Y1.0655
Y1.6293 Z-0.0861
Y6.25
G2 X0.4116 Y6.3384 I0.125 J0.
G1 X1.1616 Y7.0884
G2 X1.25 Y7.125 I0.0884 J-0.0884
G1 X3.25
G2 X3.3384 Y7.0884 I0. J-0.125
G1 X4.0884 Y6.3384
G2 X4.125 Y6.25 I-0.0884 J-0.0884
G1 Y0.
G2 X4. Y-0.125 I-0.125 J0.
G1 X0.5
G2 X0.375 Y0. I0. J0.125
G1 Y1.0655
Y1.6293
Y2.1932 Z-0.0959
Y6.25
G2 X0.4116 Y6.3384 I0.125 J0.
G1 X1.1616 Y7.0884
G2 X1.25 Y7.125 I0.0884 J-0.0884
G1 X3.25
G2 X3.3384 Y7.0884 I0. J-0.125
G1 X4.0884 Y6.3384
G2 X4.125 Y6.25 I-0.0884 J-0.0884
G1 Y0.
G2 X4. Y-0.125 I-0.125 J0.
G1 X0.5
G2 X0.375 Y0. I0. J0.125
G1 Y1.6293
Y2.1932
Y2.7571 Z-0.1058
Y6.25
G2 X0.4116 Y6.3384 I0.125 J0.
G1 X1.1616 Y7.0884
G2 X1.25 Y7.125 I0.0884 J-0.0884
G1 X3.25
G2 X3.3384 Y7.0884 I0. J-0.125
G1 X4.0884 Y6.3384
G2 X4.125 Y6.25 I-0.0884 J-0.0884
G1 Y0.
G2 X4. Y-0.125 I-0.125 J0.
G1 X0.5
G2 X0.375 Y0. I0. J0.125
G1 Y2.1932
Y2.7571
Y3.321 Z-0.1156
Y6.25
G2 X0.4116 Y6.3384 I0.125 J0.
G1 X1.1616 Y7.0884
G2 X1.25 Y7.125 I0.0884 J-0.0884
G1 X3.25
G2 X3.3384 Y7.0884 I0. J-0.125
G1 X4.0884 Y6.3384
G2 X4.125 Y6.25 I-0.0884 J-0.0884
G1 Y0.
G2 X4. Y-0.125 I-0.125 J0.
G1 X0.5
G2 X0.375 Y0. I0. J0.125
G1 Y2.7571
Y3.321
Y3.8849 Z-0.1255
Y6.25
G2 X0.4116 Y6.3384 I0.125 J0.
G1 X1.1616 Y7.0884
G2 X1.25 Y7.125 I0.0884 J-0.0884
G1 X3.25
G2 X3.3384 Y7.0884 I0. J-0.125
G1 X4.0884 Y6.3384
G2 X4.125 Y6.25 I-0.0884 J-0.0884
G1 Y0.
G2 X4. Y-0.125 I-0.125 J0.
G1 X0.5
G2 X0.375 Y0. I0. J0.125
G1 Y3.321
Y3.8849
Y4.4487 Z-0.1353
Y6.25
G2 X0.4116 Y6.3384 I0.125 J0.
G1 X1.1616 Y7.0884
G2 X1.25 Y7.125 I0.0884 J-0.0884
G1 X3.25
G2 X3.3384 Y7.0884 I0. J-0.125
G1 X4.0884 Y6.3384
G2 X4.125 Y6.25 I-0.0884 J-0.0884
G1 Y0.
G2 X4. Y-0.125 I-0.125 J0.
G1 X0.5
G2 X0.375 Y0. I0. J0.125
G1 Y3.8849
Y4.4487
Y5.0126 Z-0.1451
Y6.25
G2 X0.4116 Y6.3384 I0.125 J0.
G1 X1.1616 Y7.0884
G2 X1.25 Y7.125 I0.0884 J-0.0884
G1 X3.25
G2 X3.3384 Y7.0884 I0. J-0.125
G1 X4.0884 Y6.3384
G2 X4.125 Y6.25 I-0.0884 J-0.0884
G1 Y0.
G2 X4. Y-0.125 I-0.125 J0.
G1 X0.5
G2 X0.375 Y0. I0. J0.125
G1 Y4.4487
Y5.0126
Y5.5765 Z-0.155
Y6.25
G2 X0.4116 Y6.3384 I0.125 J0.
G1 X1.1616 Y7.0884
G2 X1.25 Y7.125 I0.0884 J-0.0884
G1 X3.25
G2 X3.3384 Y7.0884 I0. J-0.125
G1 X4.0884 Y6.3384
G2 X4.125 Y6.25 I-0.0884 J-0.0884
G1 Y0.
G2 X4. Y-0.125 I-0.125 J0.
G1 X0.5
G2 X0.375 Y0. I0. J0.125
G1 Y5.0126
Y5.5765
Y6.1404 Z-0.1648
Y6.25
G2 X0.4116 Y6.3384 I0.125 J0.
G1 X1.1616 Y7.0884
G2 X1.25 Y7.125 I0.0884 J-0.0884
G1 X3.25
G2 X3.3384 Y7.0884 I0. J-0.125
G1 X4.0884 Y6.3384
G2 X4.125 Y6.25 I-0.0884 J-0.0884
G1 Y0.
G2 X4. Y-0.125 I-0.125 J0.
G1 X0.5
G2 X0.375 Y0. I0. J0.125
G1 Y5.5765
Y6.1404
Y6.25 Z-0.1667
G2 X0.4116 Y6.3384 Z-0.1685 I0.125 J0.
G1 X0.6634 Y6.5902 Z-0.1747
X1.1616 Y7.0884
G2 X1.25 Y7.125 I0.0884 J-0.0884
G1 X3.25
G2 X3.3384 Y7.0884 I0. J-0.125
G1 X4.0884 Y6.3384
G2 X4.125 Y6.25 I-0.0884 J-0.0884
G1 Y0.
G2 X4. Y-0.125 I-0.125 J0.
G1 X0.5
G2 X0.375 Y0. I0. J0.125
G1 Y6.1404
Y6.25
G2 X0.4116 Y6.3384 I0.125 J0.
G1 X0.6634 Y6.5902
X1.0437 Y6.9705 Z-0.1841
X1.1616 Y7.0884
G2 X1.25 Y7.125 I0.0884 J-0.0884
G1 X3.25
G2 X3.3384 Y7.0884 I0. J-0.125
G1 X4.0884 Y6.3384
G2 X4.125 Y6.25 I-0.0884 J-0.0884
G1 Y0.
G2 X4. Y-0.125 I-0.125 J0.
G1 X0.5
G2 X0.375 Y0. I0. J0.125
G1 Y6.25
G2 X0.4116 Y6.3384 I0.125 J0.
G1 X1.0437 Y6.9705
G3 Y7.0059 I-0.0177 J0.0177
G1 X1.026 Y7.0235
X1.0233 Y7.0263 Z-0.1837
X1.0206 Y7.029 Z-0.1828
X1.018 Y7.0316 Z-0.1813
X1.0157 Y7.0339 Z-0.1793
X1.0135 Y7.036 Z-0.1767
X1.0117 Y7.0378 Z-0.1737
X1.0103 Y7.0393 Z-0.1704
X1.0092 Y7.0403 Z-0.1668
X1.0086 Y7.041 Z-0.163
X1.0084 Y7.0412 Z-0.1591
G0 Z0.6718
M5
G0 Z15
G0 X0 Y0

M9
M30
