(1001)
(T1  D=3.175 CR=0. - ZMIN=-4.738 - FLAT END MILL)
G90 G94 G91.1 G40 G49 G17
G21
G0 Z15

(BORE1)
M5
T1 M6
S15000 M3
G54
M8
G0 X101.599 Y13.017
G43 Z16. H1
Z2.937
G1 Z1.254 F1600.
G18 G2 X101.917 Z0.937 I0.317 K0.
G1 X102.075
G17 G2 X102.393 Y12.7 I0. J-0.318
X98.424 Z0.905 I-1.984 J0.
X102.393 Z0.874 I1.984 J0.
X98.424 Z0.843 I-1.984 J0.
X102.393 Z0.812 I1.984 J0.
X98.424 Z0.781 I-1.984 J0.
X102.393 Z0.75 I1.984 J0.
X98.424 Z0.718 I-1.984 J0.
X102.393 Z0.687 I1.984 J0.
X98.424 Z0.656 I-1.984 J0.
X102.393 Z0.625 I1.984 J0.
X98.424 Z0.594 I-1.984 J0.
X102.393 Z0.562 I1.984 J0.
X98.424 Z0.531 I-1.984 J0.
X102.393 Z0.5 I1.984 J0.
X98.424 Z0.469 I-1.984 J0.
X102.393 Z0.438 I1.984 J0.
X98.424 Z0.407 I-1.984 J0.
X102.393 Z0.375 I1.984 J0.
X98.424 Z0.344 I-1.984 J0.
X102.393 Z0.313 I1.984 J0.
X98.424 Z0.282 I-1.984 J0.
X102.393 Z0.251 I1.984 J0.
X98.424 Z0.22 I-1.984 J0.
X102.393 Z0.188 I1.984 J0.
X98.424 Z0.157 I-1.984 J0.
X102.393 Z0.126 I1.984 J0.
X98.424 Z0.095 I-1.984 J0.
X102.393 Z0.064 I1.984 J0.
X98.424 Z0.033 I-1.984 J0.
X102.393 Z0.001 I1.984 J0.
X98.424 Z-0.03 I-1.984 J0.
X102.393 Z-0.061 I1.984 J0.
X98.424 Z-0.092 I-1.984 J0.
X102.393 Z-0.123 I1.984 J0.
X98.424 Z-0.154 I-1.984 J0.
X102.393 Z-0.186 I1.984 J0.
X98.424 Z-0.217 I-1.984 J0.
X102.393 Z-0.248 I1.984 J0.
X98.424 Z-0.279 I-1.984 J0.
X102.393 Z-0.31 I1.984 J0.
X98.424 Z-0.341 I-1.984 J0.
X102.393 Z-0.373 I1.984 J0.
X98.424 Z-0.404 I-1.984 J0.
X102.393 Z-0.435 I1.984 J0.
X98.424 Z-0.466 I-1.984 J0.
X102.393 Z-0.497 I1.984 J0.
X98.424 Z-0.529 I-1.984 J0.
X102.393 Z-0.56 I1.984 J0.
X98.424 Z-0.591 I-1.984 J0.
X102.393 Z-0.622 I1.984 J0.
X98.424 Z-0.653 I-1.984 J0.
X102.393 Z-0.684 I1.984 J0.
X98.424 Z-0.716 I-1.984 J0.
X102.393 Z-0.747 I1.984 J0.
X98.424 Z-0.778 I-1.984 J0.
X102.393 Z-0.809 I1.984 J0.
X98.424 Z-0.84 I-1.984 J0.
X102.393 Z-0.871 I1.984 J0.
X98.424 Z-0.903 I-1.984 J0.
X102.393 Z-0.934 I1.984 J0.
X98.424 Z-0.965 I-1.984 J0.
X102.393 Z-0.996 I1.984 J0.
X98.424 Z-1.027 I-1.984 J0.
X102.393 Z-1.058 I1.984 J0.
X98.424 Z-1.09 I-1.984 J0.
X102.393 Z-1.121 I1.984 J0.
X98.424 Z-1.152 I-1.984 J0.
X102.393 Z-1.183 I1.984 J0.
X98.424 Z-1.214 I-1.984 J0.
X102.393 Z-1.245 I1.984 J0.
X98.424 Z-1.277 I-1.984 J0.
X102.393 Z-1.308 I1.984 J0.
X98.424 Z-1.339 I-1.984 J0.
X102.393 Z-1.37 I1.984 J0.
X98.424 Z-1.401 I-1.984 J0.
X102.393 Z-1.432 I1.984 J0.
X98.424 Z-1.464 I-1.984 J0.
X102.393 Z-1.495 I1.984 J0.
X98.424 Z-1.526 I-1.984 J0.
X102.393 Z-1.557 I1.984 J0.
X98.424 Z-1.588 I-1.984 J0.
X102.393 Z-1.62 I1.984 J0.
X98.424 Z-1.651 I-1.984 J0.
X102.393 Z-1.682 I1.984 J0.
X98.424 Z-1.713 I-1.984 J0.
X102.393 Z-1.744 I1.984 J0.
X98.424 Z-1.775 I-1.984 J0.
X102.393 Z-1.807 I1.984 J0.
X98.424 Z-1.838 I-1.984 J0.
X102.393 Z-1.869 I1.984 J0.
X98.424 Z-1.9 I-1.984 J0.
X102.393 Z-1.931 I1.984 J0.
X98.424 Z-1.962 I-1.984 J0.
X102.393 Z-1.994 I1.984 J0.
X98.424 Z-2.025 I-1.984 J0.
X102.393 Z-2.056 I1.984 J0.
X98.424 Z-2.087 I-1.984 J0.
X102.393 Z-2.118 I1.984 J0.
X98.424 Z-2.149 I-1.984 J0.
X102.393 Z-2.181 I1.984 J0.
X98.424 Z-2.212 I-1.984 J0.
X102.393 Z-2.243 I1.984 J0.
X98.424 Z-2.274 I-1.984 J0.
X102.393 Z-2.305 I1.984 J0.
X98.424 Z-2.336 I-1.984 J0.
X102.393 Z-2.368 I1.984 J0.
X98.424 Z-2.399 I-1.984 J0.
X102.393 Z-2.43 I1.984 J0.
X98.424 Z-2.461 I-1.984 J0.
X102.393 Z-2.492 I1.984 J0.
X98.424 Z-2.523 I-1.984 J0.
X102.393 Z-2.555 I1.984 J0.
X98.424 Z-2.586 I-1.984 J0.
X102.393 Z-2.617 I1.984 J0.
X98.424 Z-2.648 I-1.984 J0.
X102.393 Z-2.679 I1.984 J0.
X98.424 Z-2.711 I-1.984 J0.
X102.393 Z-2.742 I1.984 J0.
X98.424 Z-2.773 I-1.984 J0.
X102.393 Z-2.804 I1.984 J0.
X98.424 Z-2.835 I-1.984 J0.
X102.393 Z-2.866 I1.984 J0.
X98.424 Z-2.898 I-1.984 J0.
X102.393 Z-2.929 I1.984 J0.
X98.424 Z-2.96 I-1.984 J0.
X102.393 Z-2.991 I1.984 J0.
X98.424 Z-3.022 I-1.984 J0.
X102.393 Z-3.053 I1.984 J0.
X98.424 Z-3.085 I-1.984 J0.
X102.393 Z-3.116 I1.984 J0.
X98.424 Z-3.147 I-1.984 J0.
X102.393 Z-3.178 I1.984 J0.
X98.424 Z-3.209 I-1.984 J0.
X102.393 Z-3.24 I1.984 J0.
X98.424 Z-3.272 I-1.984 J0.
X102.393 Z-3.303 I1.984 J0.
X98.424 Z-3.334 I-1.984 J0.
X102.393 Z-3.365 I1.984 J0.
X98.424 Z-3.396 I-1.984 J0.
X102.393 Z-3.427 I1.984 J0.
X98.424 Z-3.459 I-1.984 J0.
X102.393 Z-3.49 I1.984 J0.
X98.424 Z-3.521 I-1.984 J0.
X102.393 Z-3.552 I1.984 J0.
X98.424 Z-3.583 I-1.984 J0.
X102.393 Z-3.614 I1.984 J0.
X98.424 Z-3.646 I-1.984 J0.
X102.393 Z-3.677 I1.984 J0.
X98.424 Z-3.708 I-1.984 J0.
X102.393 Z-3.739 I1.984 J0.
X98.424 Z-3.77 I-1.984 J0.
X102.393 Z-3.802 I1.984 J0.
X98.424 Z-3.833 I-1.984 J0.
X102.393 Z-3.864 I1.984 J0.
X98.424 Z-3.895 I-1.984 J0.
X102.393 Z-3.926 I1.984 J0.
X98.424 Z-3.957 I-1.984 J0.
X102.393 Z-3.989 I1.984 J0.
X98.424 Z-4.02 I-1.984 J0.
X102.393 Z-4.051 I1.984 J0.
X98.424 Z-4.082 I-1.984 J0.
X102.393 Z-4.113 I1.984 J0.
X98.424 Z-4.144 I-1.984 J0.
X102.393 Z-4.176 I1.984 J0.
X98.424 Z-4.207 I-1.984 J0.
X102.393 Z-4.238 I1.984 J0.
X98.424 Z-4.269 I-1.984 J0.
X102.393 Z-4.3 I1.984 J0.
X98.424 Z-4.331 I-1.984 J0.
X102.393 Z-4.363 I1.984 J0.
X98.424 Z-4.394 I-1.984 J0.
X102.393 Z-4.425 I1.984 J0.
X98.424 Z-4.456 I-1.984 J0.
X102.393 Z-4.487 I1.984 J0.
X98.424 Z-4.518 I-1.984 J0.
X102.393 Z-4.55 I1.984 J0.
X98.424 Z-4.581 I-1.984 J0.
X102.393 Z-4.612 I1.984 J0.
X98.424 Z-4.643 I-1.984 J0.
X102.393 Z-4.674 I1.984 J0.
X98.424 Z-4.705 I-1.984 J0.
X100.591 Y14.676 Z-4.722 I1.984 J0.
X102.359 Y12.336 Z-4.738 I-0.182 J-1.976
X98.458 Y13.063 I-1.951 J0.363
X102.359 Y12.336 I1.951 J-0.363
X101.989 Y12.082 I-0.312 J0.058
G1 X101.833 Y12.111
X101.764 Y12.124 Z-4.731
X101.698 Y12.137 Z-4.707
X101.638 Y12.148 Z-4.669
X101.589 Y12.157 Z-4.619
X101.552 Y12.164 Z-4.559
X101.529 Y12.168 Z-4.492
X101.521 Y12.17 Z-4.421
G0 Z6.
X40.48 Y13.017
Z2.937
G1 Z1.254 F1600.
G18 G2 X40.798 Z0.937 I0.317 K0.
G1 X40.957
G17 G2 X41.274 Y12.7 I0. J-0.318
X37.305 Z0.905 I-1.984 J0.
X41.274 Z0.874 I1.984 J0.
X37.305 Z0.843 I-1.984 J0.
X41.274 Z0.812 I1.984 J0.
X37.305 Z0.781 I-1.984 J0.
X41.274 Z0.75 I1.984 J0.
X37.305 Z0.718 I-1.984 J0.
X41.274 Z0.687 I1.984 J0.
X37.305 Z0.656 I-1.984 J0.
X41.274 Z0.625 I1.984 J0.
X37.305 Z0.594 I-1.984 J0.
X41.274 Z0.562 I1.984 J0.
X37.305 Z0.531 I-1.984 J0.
X41.274 Z0.5 I1.984 J0.
X37.305 Z0.469 I-1.984 J0.
X41.274 Z0.438 I1.984 J0.
X37.305 Z0.407 I-1.984 J0.
X41.274 Z0.375 I1.984 J0.
X37.305 Z0.344 I-1.984 J0.
X41.274 Z0.313 I1.984 J0.
X37.305 Z0.282 I-1.984 J0.
X41.274 Z0.251 I1.984 J0.
X37.305 Z0.22 I-1.984 J0.
X41.274 Z0.188 I1.984 J0.
X37.305 Z0.157 I-1.984 J0.
X41.274 Z0.126 I1.984 J0.
X37.305 Z0.095 I-1.984 J0.
X41.274 Z0.064 I1.984 J0.
X37.305 Z0.033 I-1.984 J0.
X41.274 Z0.001 I1.984 J0.
X37.305 Z-0.03 I-1.984 J0.
X41.274 Z-0.061 I1.984 J0.
X37.305 Z-0.092 I-1.984 J0.
X41.274 Z-0.123 I1.984 J0.
X37.305 Z-0.154 I-1.984 J0.
X41.274 Z-0.186 I1.984 J0.
X37.305 Z-0.217 I-1.984 J0.
X41.274 Z-0.248 I1.984 J0.
X37.305 Z-0.279 I-1.984 J0.
X41.274 Z-0.31 I1.984 J0.
X37.305 Z-0.341 I-1.984 J0.
X41.274 Z-0.373 I1.984 J0.
X37.305 Z-0.404 I-1.984 J0.
X41.274 Z-0.435 I1.984 J0.
X37.305 Z-0.466 I-1.984 J0.
X41.274 Z-0.497 I1.984 J0.
X37.305 Z-0.529 I-1.984 J0.
X41.274 Z-0.56 I1.984 J0.
X37.305 Z-0.591 I-1.984 J0.
X41.274 Z-0.622 I1.984 J0.
X37.305 Z-0.653 I-1.984 J0.
X41.274 Z-0.684 I1.984 J0.
X37.305 Z-0.716 I-1.984 J0.
X41.274 Z-0.747 I1.984 J0.
X37.305 Z-0.778 I-1.984 J0.
X41.274 Z-0.809 I1.984 J0.
X37.305 Z-0.84 I-1.984 J0.
X41.274 Z-0.871 I1.984 J0.
X37.305 Z-0.903 I-1.984 J0.
X41.274 Z-0.934 I1.984 J0.
X37.305 Z-0.965 I-1.984 J0.
X41.274 Z-0.996 I1.984 J0.
X37.305 Z-1.027 I-1.984 J0.
X41.274 Z-1.058 I1.984 J0.
X37.305 Z-1.09 I-1.984 J0.
X41.274 Z-1.121 I1.984 J0.
X37.305 Z-1.152 I-1.984 J0.
X41.274 Z-1.183 I1.984 J0.
X37.305 Z-1.214 I-1.984 J0.
X41.274 Z-1.245 I1.984 J0.
X37.305 Z-1.277 I-1.984 J0.
X41.274 Z-1.308 I1.984 J0.
X37.305 Z-1.339 I-1.984 J0.
X41.274 Z-1.37 I1.984 J0.
X37.305 Z-1.401 I-1.984 J0.
X41.274 Z-1.432 I1.984 J0.
X37.305 Z-1.464 I-1.984 J0.
X41.274 Z-1.495 I1.984 J0.
X37.305 Z-1.526 I-1.984 J0.
X41.274 Z-1.557 I1.984 J0.
X37.305 Z-1.588 I-1.984 J0.
X41.274 Z-1.62 I1.984 J0.
X37.305 Z-1.651 I-1.984 J0.
X41.274 Z-1.682 I1.984 J0.
X37.305 Z-1.713 I-1.984 J0.
X41.274 Z-1.744 I1.984 J0.
X37.305 Z-1.775 I-1.984 J0.
X41.274 Z-1.807 I1.984 J0.
X37.305 Z-1.838 I-1.984 J0.
X41.274 Z-1.869 I1.984 J0.
X37.305 Z-1.9 I-1.984 J0.
X41.274 Z-1.931 I1.984 J0.
X37.305 Z-1.962 I-1.984 J0.
X41.274 Z-1.994 I1.984 J0.
X37.305 Z-2.025 I-1.984 J0.
X41.274 Z-2.056 I1.984 J0.
X37.305 Z-2.087 I-1.984 J0.
X41.274 Z-2.118 I1.984 J0.
X37.305 Z-2.149 I-1.984 J0.
X41.274 Z-2.181 I1.984 J0.
X37.305 Z-2.212 I-1.984 J0.
X41.274 Z-2.243 I1.984 J0.
X37.305 Z-2.274 I-1.984 J0.
X41.274 Z-2.305 I1.984 J0.
X37.305 Z-2.336 I-1.984 J0.
X41.274 Z-2.368 I1.984 J0.
X37.305 Z-2.399 I-1.984 J0.
X41.274 Z-2.43 I1.984 J0.
X37.305 Z-2.461 I-1.984 J0.
X41.274 Z-2.492 I1.984 J0.
X37.305 Z-2.523 I-1.984 J0.
X41.274 Z-2.555 I1.984 J0.
X37.305 Z-2.586 I-1.984 J0.
X41.274 Z-2.617 I1.984 J0.
X37.305 Z-2.648 I-1.984 J0.
X41.274 Z-2.679 I1.984 J0.
X37.305 Z-2.711 I-1.984 J0.
X41.274 Z-2.742 I1.984 J0.
X37.305 Z-2.773 I-1.984 J0.
X41.274 Z-2.804 I1.984 J0.
X37.305 Z-2.835 I-1.984 J0.
X41.274 Z-2.866 I1.984 J0.
X37.305 Z-2.898 I-1.984 J0.
X41.274 Z-2.929 I1.984 J0.
X37.305 Z-2.96 I-1.984 J0.
X41.274 Z-2.991 I1.984 J0.
X37.305 Z-3.022 I-1.984 J0.
X41.274 Z-3.053 I1.984 J0.
X37.305 Z-3.085 I-1.984 J0.
X41.274 Z-3.116 I1.984 J0.
X37.305 Z-3.147 I-1.984 J0.
X41.274 Z-3.178 I1.984 J0.
X37.305 Z-3.209 I-1.984 J0.
X41.274 Z-3.24 I1.984 J0.
X37.305 Z-3.272 I-1.984 J0.
X41.274 Z-3.303 I1.984 J0.
X37.305 Z-3.334 I-1.984 J0.
X41.274 Z-3.365 I1.984 J0.
X37.305 Z-3.396 I-1.984 J0.
X41.274 Z-3.427 I1.984 J0.
X37.305 Z-3.459 I-1.984 J0.
X41.274 Z-3.49 I1.984 J0.
X37.305 Z-3.521 I-1.984 J0.
X41.274 Z-3.552 I1.984 J0.
X37.305 Z-3.583 I-1.984 J0.
X41.274 Z-3.614 I1.984 J0.
X37.305 Z-3.646 I-1.984 J0.
X41.274 Z-3.677 I1.984 J0.
X37.305 Z-3.708 I-1.984 J0.
X41.274 Z-3.739 I1.984 J0.
X37.305 Z-3.77 I-1.984 J0.
X41.274 Z-3.802 I1.984 J0.
X37.305 Z-3.833 I-1.984 J0.
X41.274 Z-3.864 I1.984 J0.
X37.305 Z-3.895 I-1.984 J0.
X41.274 Z-3.926 I1.984 J0.
X37.305 Z-3.957 I-1.984 J0.
X41.274 Z-3.989 I1.984 J0.
X37.305 Z-4.02 I-1.984 J0.
X41.274 Z-4.051 I1.984 J0.
X37.305 Z-4.082 I-1.984 J0.
X41.274 Z-4.113 I1.984 J0.
X37.305 Z-4.144 I-1.984 J0.
X41.274 Z-4.176 I1.984 J0.
X37.305 Z-4.207 I-1.984 J0.
X41.274 Z-4.238 I1.984 J0.
X37.305 Z-4.269 I-1.984 J0.
X41.274 Z-4.3 I1.984 J0.
X37.305 Z-4.331 I-1.984 J0.
X41.274 Z-4.363 I1.984 J0.
X37.305 Z-4.394 I-1.984 J0.
X41.274 Z-4.425 I1.984 J0.
X37.305 Z-4.456 I-1.984 J0.
X41.274 Z-4.487 I1.984 J0.
X37.305 Z-4.518 I-1.984 J0.
X41.274 Z-4.55 I1.984 J0.
X37.305 Z-4.581 I-1.984 J0.
X41.274 Z-4.612 I1.984 J0.
X37.305 Z-4.643 I-1.984 J0.
X41.274 Z-4.674 I1.984 J0.
X37.305 Z-4.705 I-1.984 J0.
X39.472 Y14.676 Z-4.722 I1.984 J0.
X41.241 Y12.336 Z-4.738 I-0.182 J-1.976
X37.339 Y13.063 I-1.951 J0.363
X41.241 Y12.336 I1.951 J-0.363
X40.87 Y12.082 I-0.312 J0.058
G1 X40.714 Y12.111
X40.645 Y12.124 Z-4.731
X40.579 Y12.137 Z-4.707
X40.52 Y12.148 Z-4.669
X40.47 Y12.157 Z-4.619
X40.433 Y12.164 Z-4.559
X40.41 Y12.168 Z-4.492
X40.402 Y12.17 Z-4.421
G0 Z6.
X58.34 Y89.217
Z2.937
G1 Z1.254 F1600.
G18 G2 X58.657 Z0.937 I0.317 K0.
G1 X58.816
G17 G2 X59.134 Y88.9 I0. J-0.318
X55.165 Z0.905 I-1.984 J0.
X59.134 Z0.874 I1.984 J0.
X55.165 Z0.843 I-1.984 J0.
X59.134 Z0.812 I1.984 J0.
X55.165 Z0.781 I-1.984 J0.
X59.134 Z0.75 I1.984 J0.
X55.165 Z0.718 I-1.984 J0.
X59.134 Z0.687 I1.984 J0.
X55.165 Z0.656 I-1.984 J0.
X59.134 Z0.625 I1.984 J0.
X55.165 Z0.594 I-1.984 J0.
X59.134 Z0.562 I1.984 J0.
X55.165 Z0.531 I-1.984 J0.
X59.134 Z0.5 I1.984 J0.
X55.165 Z0.469 I-1.984 J0.
X59.134 Z0.438 I1.984 J0.
X55.165 Z0.407 I-1.984 J0.
X59.134 Z0.375 I1.984 J0.
X55.165 Z0.344 I-1.984 J0.
X59.134 Z0.313 I1.984 J0.
X55.165 Z0.282 I-1.984 J0.
X59.134 Z0.251 I1.984 J0.
X55.165 Z0.22 I-1.984 J0.
X59.134 Z0.188 I1.984 J0.
X55.165 Z0.157 I-1.984 J0.
X59.134 Z0.126 I1.984 J0.
X55.165 Z0.095 I-1.984 J0.
X59.134 Z0.064 I1.984 J0.
X55.165 Z0.033 I-1.984 J0.
X59.134 Z0.001 I1.984 J0.
X55.165 Z-0.03 I-1.984 J0.
X59.134 Z-0.061 I1.984 J0.
X55.165 Z-0.092 I-1.984 J0.
X59.134 Z-0.123 I1.984 J0.
X55.165 Z-0.154 I-1.984 J0.
X59.134 Z-0.186 I1.984 J0.
X55.165 Z-0.217 I-1.984 J0.
X59.134 Z-0.248 I1.984 J0.
X55.165 Z-0.279 I-1.984 J0.
X59.134 Z-0.31 I1.984 J0.
X55.165 Z-0.341 I-1.984 J0.
X59.134 Z-0.373 I1.984 J0.
X55.165 Z-0.404 I-1.984 J0.
X59.134 Z-0.435 I1.984 J0.
X55.165 Z-0.466 I-1.984 J0.
X59.134 Z-0.497 I1.984 J0.
X55.165 Z-0.529 I-1.984 J0.
X59.134 Z-0.56 I1.984 J0.
X55.165 Z-0.591 I-1.984 J0.
X59.134 Z-0.622 I1.984 J0.
X55.165 Z-0.653 I-1.984 J0.
X59.134 Z-0.684 I1.984 J0.
X55.165 Z-0.716 I-1.984 J0.
X59.134 Z-0.747 I1.984 J0.
X55.165 Z-0.778 I-1.984 J0.
X59.134 Z-0.809 I1.984 J0.
X55.165 Z-0.84 I-1.984 J0.
X59.134 Z-0.871 I1.984 J0.
X55.165 Z-0.903 I-1.984 J0.
X59.134 Z-0.934 I1.984 J0.
X55.165 Z-0.965 I-1.984 J0.
X59.134 Z-0.996 I1.984 J0.
X55.165 Z-1.027 I-1.984 J0.
X59.134 Z-1.058 I1.984 J0.
X55.165 Z-1.09 I-1.984 J0.
X59.134 Z-1.121 I1.984 J0.
X55.165 Z-1.152 I-1.984 J0.
X59.134 Z-1.183 I1.984 J0.
X55.165 Z-1.214 I-1.984 J0.
X59.134 Z-1.245 I1.984 J0.
X55.165 Z-1.277 I-1.984 J0.
X59.134 Z-1.308 I1.984 J0.
X55.165 Z-1.339 I-1.984 J0.
X59.134 Z-1.37 I1.984 J0.
X55.165 Z-1.401 I-1.984 J0.
X59.134 Z-1.432 I1.984 J0.
X55.165 Z-1.464 I-1.984 J0.
X59.134 Z-1.495 I1.984 J0.
X55.165 Z-1.526 I-1.984 J0.
X59.134 Z-1.557 I1.984 J0.
X55.165 Z-1.588 I-1.984 J0.
X59.134 Z-1.62 I1.984 J0.
X55.165 Z-1.651 I-1.984 J0.
X59.134 Z-1.682 I1.984 J0.
X55.165 Z-1.713 I-1.984 J0.
X59.134 Z-1.744 I1.984 J0.
X55.165 Z-1.775 I-1.984 J0.
X59.134 Z-1.807 I1.984 J0.
X55.165 Z-1.838 I-1.984 J0.
X59.134 Z-1.869 I1.984 J0.
X55.165 Z-1.9 I-1.984 J0.
X59.134 Z-1.931 I1.984 J0.
X55.165 Z-1.962 I-1.984 J0.
X59.134 Z-1.994 I1.984 J0.
X55.165 Z-2.025 I-1.984 J0.
X59.134 Z-2.056 I1.984 J0.
X55.165 Z-2.087 I-1.984 J0.
X59.134 Z-2.118 I1.984 J0.
X55.165 Z-2.149 I-1.984 J0.
X59.134 Z-2.181 I1.984 J0.
X55.165 Z-2.212 I-1.984 J0.
X59.134 Z-2.243 I1.984 J0.
X55.165 Z-2.274 I-1.984 J0.
X59.134 Z-2.305 I1.984 J0.
X55.165 Z-2.336 I-1.984 J0.
X59.134 Z-2.368 I1.984 J0.
X55.165 Z-2.399 I-1.984 J0.
X59.134 Z-2.43 I1.984 J0.
X55.165 Z-2.461 I-1.984 J0.
X59.134 Z-2.492 I1.984 J0.
X55.165 Z-2.523 I-1.984 J0.
X59.134 Z-2.555 I1.984 J0.
X55.165 Z-2.586 I-1.984 J0.
X59.134 Z-2.617 I1.984 J0.
X55.165 Z-2.648 I-1.984 J0.
X59.134 Z-2.679 I1.984 J0.
X55.165 Z-2.711 I-1.984 J0.
X59.134 Z-2.742 I1.984 J0.
X55.165 Z-2.773 I-1.984 J0.
X59.134 Z-2.804 I1.984 J0.
X55.165 Z-2.835 I-1.984 J0.
X59.134 Z-2.866 I1.984 J0.
X55.165 Z-2.898 I-1.984 J0.
X59.134 Z-2.929 I1.984 J0.
X55.165 Z-2.96 I-1.984 J0.
X59.134 Z-2.991 I1.984 J0.
X55.165 Z-3.022 I-1.984 J0.
X59.134 Z-3.053 I1.984 J0.
X55.165 Z-3.085 I-1.984 J0.
X59.134 Z-3.116 I1.984 J0.
X55.165 Z-3.147 I-1.984 J0.
X59.134 Z-3.178 I1.984 J0.
X55.165 Z-3.209 I-1.984 J0.
X59.134 Z-3.24 I1.984 J0.
X55.165 Z-3.272 I-1.984 J0.
X59.134 Z-3.303 I1.984 J0.
X55.165 Z-3.334 I-1.984 J0.
X59.134 Z-3.365 I1.984 J0.
X55.165 Z-3.396 I-1.984 J0.
X59.134 Z-3.427 I1.984 J0.
X55.165 Z-3.459 I-1.984 J0.
X59.134 Z-3.49 I1.984 J0.
X55.165 Z-3.521 I-1.984 J0.
X59.134 Z-3.552 I1.984 J0.
X55.165 Z-3.583 I-1.984 J0.
X59.134 Z-3.614 I1.984 J0.
X55.165 Z-3.646 I-1.984 J0.
X59.134 Z-3.677 I1.984 J0.
X55.165 Z-3.708 I-1.984 J0.
X59.134 Z-3.739 I1.984 J0.
X55.165 Z-3.77 I-1.984 J0.
X59.134 Z-3.802 I1.984 J0.
X55.165 Z-3.833 I-1.984 J0.
X59.134 Z-3.864 I1.984 J0.
X55.165 Z-3.895 I-1.984 J0.
X59.134 Z-3.926 I1.984 J0.
X55.165 Z-3.957 I-1.984 J0.
X59.134 Z-3.989 I1.984 J0.
X55.165 Z-4.02 I-1.984 J0.
X59.134 Z-4.051 I1.984 J0.
X55.165 Z-4.082 I-1.984 J0.
X59.134 Z-4.113 I1.984 J0.
X55.165 Z-4.144 I-1.984 J0.
X59.134 Z-4.176 I1.984 J0.
X55.165 Z-4.207 I-1.984 J0.
X59.134 Z-4.238 I1.984 J0.
X55.165 Z-4.269 I-1.984 J0.
X59.134 Z-4.3 I1.984 J0.
X55.165 Z-4.331 I-1.984 J0.
X59.134 Z-4.363 I1.984 J0.
X55.165 Z-4.394 I-1.984 J0.
X59.134 Z-4.425 I1.984 J0.
X55.165 Z-4.456 I-1.984 J0.
X59.134 Z-4.487 I1.984 J0.
X55.165 Z-4.518 I-1.984 J0.
X59.134 Z-4.55 I1.984 J0.
X55.165 Z-4.581 I-1.984 J0.
X59.134 Z-4.612 I1.984 J0.
X55.165 Z-4.643 I-1.984 J0.
X59.134 Z-4.674 I1.984 J0.
X55.165 Z-4.705 I-1.984 J0.
X57.332 Y90.876 Z-4.722 I1.984 J0.
X59.1 Y88.536 Z-4.738 I-0.182 J-1.976
X55.198 Y89.263 I-1.951 J0.363
X59.1 Y88.536 I1.951 J-0.363
X58.73 Y88.282 I-0.312 J0.058
G1 X58.574 Y88.311
X58.504 Y88.324 Z-4.731
X58.438 Y88.337 Z-4.707
X58.379 Y88.348 Z-4.669
X58.33 Y88.357 Z-4.619
X58.292 Y88.364 Z-4.559
X58.269 Y88.368 Z-4.492
X58.262 Y88.37 Z-4.421
G0 Z6.
X83.74 Y89.217
Z2.937
G1 Z1.254 F1600.
G18 G2 X84.057 Z0.937 I0.317 K0.
G1 X84.216
G17 G2 X84.534 Y88.9 I0. J-0.318
X80.565 Z0.905 I-1.984 J0.
X84.534 Z0.874 I1.984 J0.
X80.565 Z0.843 I-1.984 J0.
X84.534 Z0.812 I1.984 J0.
X80.565 Z0.781 I-1.984 J0.
X84.534 Z0.75 I1.984 J0.
X80.565 Z0.718 I-1.984 J0.
X84.534 Z0.687 I1.984 J0.
X80.565 Z0.656 I-1.984 J0.
X84.534 Z0.625 I1.984 J0.
X80.565 Z0.594 I-1.984 J0.
X84.534 Z0.562 I1.984 J0.
X80.565 Z0.531 I-1.984 J0.
X84.534 Z0.5 I1.984 J0.
X80.565 Z0.469 I-1.984 J0.
X84.534 Z0.438 I1.984 J0.
X80.565 Z0.407 I-1.984 J0.
X84.534 Z0.375 I1.984 J0.
X80.565 Z0.344 I-1.984 J0.
X84.534 Z0.313 I1.984 J0.
X80.565 Z0.282 I-1.984 J0.
X84.534 Z0.251 I1.984 J0.
X80.565 Z0.22 I-1.984 J0.
X84.534 Z0.188 I1.984 J0.
X80.565 Z0.157 I-1.984 J0.
X84.534 Z0.126 I1.984 J0.
X80.565 Z0.095 I-1.984 J0.
X84.534 Z0.064 I1.984 J0.
X80.565 Z0.033 I-1.984 J0.
X84.534 Z0.001 I1.984 J0.
X80.565 Z-0.03 I-1.984 J0.
X84.534 Z-0.061 I1.984 J0.
X80.565 Z-0.092 I-1.984 J0.
X84.534 Z-0.123 I1.984 J0.
X80.565 Z-0.154 I-1.984 J0.
X84.534 Z-0.186 I1.984 J0.
X80.565 Z-0.217 I-1.984 J0.
X84.534 Z-0.248 I1.984 J0.
X80.565 Z-0.279 I-1.984 J0.
X84.534 Z-0.31 I1.984 J0.
X80.565 Z-0.341 I-1.984 J0.
X84.534 Z-0.373 I1.984 J0.
X80.565 Z-0.404 I-1.984 J0.
X84.534 Z-0.435 I1.984 J0.
X80.565 Z-0.466 I-1.984 J0.
X84.534 Z-0.497 I1.984 J0.
X80.565 Z-0.529 I-1.984 J0.
X84.534 Z-0.56 I1.984 J0.
X80.565 Z-0.591 I-1.984 J0.
X84.534 Z-0.622 I1.984 J0.
X80.565 Z-0.653 I-1.984 J0.
X84.534 Z-0.684 I1.984 J0.
X80.565 Z-0.716 I-1.984 J0.
X84.534 Z-0.747 I1.984 J0.
X80.565 Z-0.778 I-1.984 J0.
X84.534 Z-0.809 I1.984 J0.
X80.565 Z-0.84 I-1.984 J0.
X84.534 Z-0.871 I1.984 J0.
X80.565 Z-0.903 I-1.984 J0.
X84.534 Z-0.934 I1.984 J0.
X80.565 Z-0.965 I-1.984 J0.
X84.534 Z-0.996 I1.984 J0.
X80.565 Z-1.027 I-1.984 J0.
X84.534 Z-1.058 I1.984 J0.
X80.565 Z-1.09 I-1.984 J0.
X84.534 Z-1.121 I1.984 J0.
X80.565 Z-1.152 I-1.984 J0.
X84.534 Z-1.183 I1.984 J0.
X80.565 Z-1.214 I-1.984 J0.
X84.534 Z-1.245 I1.984 J0.
X80.565 Z-1.277 I-1.984 J0.
X84.534 Z-1.308 I1.984 J0.
X80.565 Z-1.339 I-1.984 J0.
X84.534 Z-1.37 I1.984 J0.
X80.565 Z-1.401 I-1.984 J0.
X84.534 Z-1.432 I1.984 J0.
X80.565 Z-1.464 I-1.984 J0.
X84.534 Z-1.495 I1.984 J0.
X80.565 Z-1.526 I-1.984 J0.
X84.534 Z-1.557 I1.984 J0.
X80.565 Z-1.588 I-1.984 J0.
X84.534 Z-1.62 I1.984 J0.
X80.565 Z-1.651 I-1.984 J0.
X84.534 Z-1.682 I1.984 J0.
X80.565 Z-1.713 I-1.984 J0.
X84.534 Z-1.744 I1.984 J0.
X80.565 Z-1.775 I-1.984 J0.
X84.534 Z-1.807 I1.984 J0.
X80.565 Z-1.838 I-1.984 J0.
X84.534 Z-1.869 I1.984 J0.
X80.565 Z-1.9 I-1.984 J0.
X84.534 Z-1.931 I1.984 J0.
X80.565 Z-1.962 I-1.984 J0.
X84.534 Z-1.994 I1.984 J0.
X80.565 Z-2.025 I-1.984 J0.
X84.534 Z-2.056 I1.984 J0.
X80.565 Z-2.087 I-1.984 J0.
X84.534 Z-2.118 I1.984 J0.
X80.565 Z-2.149 I-1.984 J0.
X84.534 Z-2.181 I1.984 J0.
X80.565 Z-2.212 I-1.984 J0.
X84.534 Z-2.243 I1.984 J0.
X80.565 Z-2.274 I-1.984 J0.
X84.534 Z-2.305 I1.984 J0.
X80.565 Z-2.336 I-1.984 J0.
X84.534 Z-2.368 I1.984 J0.
X80.565 Z-2.399 I-1.984 J0.
X84.534 Z-2.43 I1.984 J0.
X80.565 Z-2.461 I-1.984 J0.
X84.534 Z-2.492 I1.984 J0.
X80.565 Z-2.523 I-1.984 J0.
X84.534 Z-2.555 I1.984 J0.
X80.565 Z-2.586 I-1.984 J0.
X84.534 Z-2.617 I1.984 J0.
X80.565 Z-2.648 I-1.984 J0.
X84.534 Z-2.679 I1.984 J0.
X80.565 Z-2.711 I-1.984 J0.
X84.534 Z-2.742 I1.984 J0.
X80.565 Z-2.773 I-1.984 J0.
X84.534 Z-2.804 I1.984 J0.
X80.565 Z-2.835 I-1.984 J0.
X84.534 Z-2.866 I1.984 J0.
X80.565 Z-2.898 I-1.984 J0.
X84.534 Z-2.929 I1.984 J0.
X80.565 Z-2.96 I-1.984 J0.
X84.534 Z-2.991 I1.984 J0.
X80.565 Z-3.022 I-1.984 J0.
X84.534 Z-3.053 I1.984 J0.
X80.565 Z-3.085 I-1.984 J0.
X84.534 Z-3.116 I1.984 J0.
X80.565 Z-3.147 I-1.984 J0.
X84.534 Z-3.178 I1.984 J0.
X80.565 Z-3.209 I-1.984 J0.
X84.534 Z-3.24 I1.984 J0.
X80.565 Z-3.272 I-1.984 J0.
X84.534 Z-3.303 I1.984 J0.
X80.565 Z-3.334 I-1.984 J0.
X84.534 Z-3.365 I1.984 J0.
X80.565 Z-3.396 I-1.984 J0.
X84.534 Z-3.427 I1.984 J0.
X80.565 Z-3.459 I-1.984 J0.
X84.534 Z-3.49 I1.984 J0.
X80.565 Z-3.521 I-1.984 J0.
X84.534 Z-3.552 I1.984 J0.
X80.565 Z-3.583 I-1.984 J0.
X84.534 Z-3.614 I1.984 J0.
X80.565 Z-3.646 I-1.984 J0.
X84.534 Z-3.677 I1.984 J0.
X80.565 Z-3.708 I-1.984 J0.
X84.534 Z-3.739 I1.984 J0.
X80.565 Z-3.77 I-1.984 J0.
X84.534 Z-3.802 I1.984 J0.
X80.565 Z-3.833 I-1.984 J0.
X84.534 Z-3.864 I1.984 J0.
X80.565 Z-3.895 I-1.984 J0.
X84.534 Z-3.926 I1.984 J0.
X80.565 Z-3.957 I-1.984 J0.
X84.534 Z-3.989 I1.984 J0.
X80.565 Z-4.02 I-1.984 J0.
X84.534 Z-4.051 I1.984 J0.
X80.565 Z-4.082 I-1.984 J0.
X84.534 Z-4.113 I1.984 J0.
X80.565 Z-4.144 I-1.984 J0.
X84.534 Z-4.176 I1.984 J0.
X80.565 Z-4.207 I-1.984 J0.
X84.534 Z-4.238 I1.984 J0.
X80.565 Z-4.269 I-1.984 J0.
X84.534 Z-4.3 I1.984 J0.
X80.565 Z-4.331 I-1.984 J0.
X84.534 Z-4.363 I1.984 J0.
X80.565 Z-4.394 I-1.984 J0.
X84.534 Z-4.425 I1.984 J0.
X80.565 Z-4.456 I-1.984 J0.
X84.534 Z-4.487 I1.984 J0.
X80.565 Z-4.518 I-1.984 J0.
X84.534 Z-4.55 I1.984 J0.
X80.565 Z-4.581 I-1.984 J0.
X84.534 Z-4.612 I1.984 J0.
X80.565 Z-4.643 I-1.984 J0.
X84.534 Z-4.674 I1.984 J0.
X80.565 Z-4.705 I-1.984 J0.
X82.732 Y90.876 Z-4.722 I1.984 J0.
X84.5 Y88.536 Z-4.738 I-0.182 J-1.976
X80.598 Y89.263 I-1.951 J0.363
X84.5 Y88.536 I1.951 J-0.363
X84.13 Y88.282 I-0.312 J0.058
G1 X83.974 Y88.311
X83.904 Y88.324 Z-4.731
X83.838 Y88.337 Z-4.707
X83.779 Y88.348 Z-4.669
X83.73 Y88.357 Z-4.619
X83.692 Y88.364 Z-4.559
X83.669 Y88.368 Z-4.492
X83.662 Y88.37 Z-4.421
G0 Z6.
X83.74 Y114.617
Z2.937
G1 Z1.254 F1600.
G18 G2 X84.057 Z0.937 I0.317 K0.
G1 X84.216
G17 G2 X84.534 Y114.3 I0. J-0.317
X80.565 Z0.905 I-1.984 J0.
X84.534 Z0.874 I1.984 J0.
X80.565 Z0.843 I-1.984 J0.
X84.534 Z0.812 I1.984 J0.
X80.565 Z0.781 I-1.984 J0.
X84.534 Z0.75 I1.984 J0.
X80.565 Z0.718 I-1.984 J0.
X84.534 Z0.687 I1.984 J0.
X80.565 Z0.656 I-1.984 J0.
X84.534 Z0.625 I1.984 J0.
X80.565 Z0.594 I-1.984 J0.
X84.534 Z0.562 I1.984 J0.
X80.565 Z0.531 I-1.984 J0.
X84.534 Z0.5 I1.984 J0.
X80.565 Z0.469 I-1.984 J0.
X84.534 Z0.438 I1.984 J0.
X80.565 Z0.407 I-1.984 J0.
X84.534 Z0.375 I1.984 J0.
X80.565 Z0.344 I-1.984 J0.
X84.534 Z0.313 I1.984 J0.
X80.565 Z0.282 I-1.984 J0.
X84.534 Z0.251 I1.984 J0.
X80.565 Z0.22 I-1.984 J0.
X84.534 Z0.188 I1.984 J0.
X80.565 Z0.157 I-1.984 J0.
X84.534 Z0.126 I1.984 J0.
X80.565 Z0.095 I-1.984 J0.
X84.534 Z0.064 I1.984 J0.
X80.565 Z0.033 I-1.984 J0.
X84.534 Z0.001 I1.984 J0.
X80.565 Z-0.03 I-1.984 J0.
X84.534 Z-0.061 I1.984 J0.
X80.565 Z-0.092 I-1.984 J0.
X84.534 Z-0.123 I1.984 J0.
X80.565 Z-0.154 I-1.984 J0.
X84.534 Z-0.186 I1.984 J0.
X80.565 Z-0.217 I-1.984 J0.
X84.534 Z-0.248 I1.984 J0.
X80.565 Z-0.279 I-1.984 J0.
X84.534 Z-0.31 I1.984 J0.
X80.565 Z-0.341 I-1.984 J0.
X84.534 Z-0.373 I1.984 J0.
X80.565 Z-0.404 I-1.984 J0.
X84.534 Z-0.435 I1.984 J0.
X80.565 Z-0.466 I-1.984 J0.
X84.534 Z-0.497 I1.984 J0.
X80.565 Z-0.529 I-1.984 J0.
X84.534 Z-0.56 I1.984 J0.
X80.565 Z-0.591 I-1.984 J0.
X84.534 Z-0.622 I1.984 J0.
X80.565 Z-0.653 I-1.984 J0.
X84.534 Z-0.684 I1.984 J0.
X80.565 Z-0.716 I-1.984 J0.
X84.534 Z-0.747 I1.984 J0.
X80.565 Z-0.778 I-1.984 J0.
X84.534 Z-0.809 I1.984 J0.
X80.565 Z-0.84 I-1.984 J0.
X84.534 Z-0.871 I1.984 J0.
X80.565 Z-0.903 I-1.984 J0.
X84.534 Z-0.934 I1.984 J0.
X80.565 Z-0.965 I-1.984 J0.
X84.534 Z-0.996 I1.984 J0.
X80.565 Z-1.027 I-1.984 J0.
X84.534 Z-1.058 I1.984 J0.
X80.565 Z-1.09 I-1.984 J0.
X84.534 Z-1.121 I1.984 J0.
X80.565 Z-1.152 I-1.984 J0.
X84.534 Z-1.183 I1.984 J0.
X80.565 Z-1.214 I-1.984 J0.
X84.534 Z-1.245 I1.984 J0.
X80.565 Z-1.277 I-1.984 J0.
X84.534 Z-1.308 I1.984 J0.
X80.565 Z-1.339 I-1.984 J0.
X84.534 Z-1.37 I1.984 J0.
X80.565 Z-1.401 I-1.984 J0.
X84.534 Z-1.432 I1.984 J0.
X80.565 Z-1.464 I-1.984 J0.
X84.534 Z-1.495 I1.984 J0.
X80.565 Z-1.526 I-1.984 J0.
X84.534 Z-1.557 I1.984 J0.
X80.565 Z-1.588 I-1.984 J0.
X84.534 Z-1.62 I1.984 J0.
X80.565 Z-1.651 I-1.984 J0.
X84.534 Z-1.682 I1.984 J0.
X80.565 Z-1.713 I-1.984 J0.
X84.534 Z-1.744 I1.984 J0.
X80.565 Z-1.775 I-1.984 J0.
X84.534 Z-1.807 I1.984 J0.
X80.565 Z-1.838 I-1.984 J0.
X84.534 Z-1.869 I1.984 J0.
X80.565 Z-1.9 I-1.984 J0.
X84.534 Z-1.931 I1.984 J0.
X80.565 Z-1.962 I-1.984 J0.
X84.534 Z-1.994 I1.984 J0.
X80.565 Z-2.025 I-1.984 J0.
X84.534 Z-2.056 I1.984 J0.
X80.565 Z-2.087 I-1.984 J0.
X84.534 Z-2.118 I1.984 J0.
X80.565 Z-2.149 I-1.984 J0.
X84.534 Z-2.181 I1.984 J0.
X80.565 Z-2.212 I-1.984 J0.
X84.534 Z-2.243 I1.984 J0.
X80.565 Z-2.274 I-1.984 J0.
X84.534 Z-2.305 I1.984 J0.
X80.565 Z-2.336 I-1.984 J0.
X84.534 Z-2.368 I1.984 J0.
X80.565 Z-2.399 I-1.984 J0.
X84.534 Z-2.43 I1.984 J0.
X80.565 Z-2.461 I-1.984 J0.
X84.534 Z-2.492 I1.984 J0.
X80.565 Z-2.523 I-1.984 J0.
X84.534 Z-2.555 I1.984 J0.
X80.565 Z-2.586 I-1.984 J0.
X84.534 Z-2.617 I1.984 J0.
X80.565 Z-2.648 I-1.984 J0.
X84.534 Z-2.679 I1.984 J0.
X80.565 Z-2.711 I-1.984 J0.
X84.534 Z-2.742 I1.984 J0.
X80.565 Z-2.773 I-1.984 J0.
X84.534 Z-2.804 I1.984 J0.
X80.565 Z-2.835 I-1.984 J0.
X84.534 Z-2.866 I1.984 J0.
X80.565 Z-2.898 I-1.984 J0.
X84.534 Z-2.929 I1.984 J0.
X80.565 Z-2.96 I-1.984 J0.
X84.534 Z-2.991 I1.984 J0.
X80.565 Z-3.022 I-1.984 J0.
X84.534 Z-3.053 I1.984 J0.
X80.565 Z-3.085 I-1.984 J0.
X84.534 Z-3.116 I1.984 J0.
X80.565 Z-3.147 I-1.984 J0.
X84.534 Z-3.178 I1.984 J0.
X80.565 Z-3.209 I-1.984 J0.
X84.534 Z-3.24 I1.984 J0.
X80.565 Z-3.272 I-1.984 J0.
X84.534 Z-3.303 I1.984 J0.
X80.565 Z-3.334 I-1.984 J0.
X84.534 Z-3.365 I1.984 J0.
X80.565 Z-3.396 I-1.984 J0.
X84.534 Z-3.427 I1.984 J0.
X80.565 Z-3.459 I-1.984 J0.
X84.534 Z-3.49 I1.984 J0.
X80.565 Z-3.521 I-1.984 J0.
X84.534 Z-3.552 I1.984 J0.
X80.565 Z-3.583 I-1.984 J0.
X84.534 Z-3.614 I1.984 J0.
X80.565 Z-3.646 I-1.984 J0.
X84.534 Z-3.677 I1.984 J0.
X80.565 Z-3.708 I-1.984 J0.
X84.534 Z-3.739 I1.984 J0.
X80.565 Z-3.77 I-1.984 J0.
X84.534 Z-3.802 I1.984 J0.
X80.565 Z-3.833 I-1.984 J0.
X84.534 Z-3.864 I1.984 J0.
X80.565 Z-3.895 I-1.984 J0.
X84.534 Z-3.926 I1.984 J0.
X80.565 Z-3.957 I-1.984 J0.
X84.534 Z-3.989 I1.984 J0.
X80.565 Z-4.02 I-1.984 J0.
X84.534 Z-4.051 I1.984 J0.
X80.565 Z-4.082 I-1.984 J0.
X84.534 Z-4.113 I1.984 J0.
X80.565 Z-4.144 I-1.984 J0.
X84.534 Z-4.176 I1.984 J0.
X80.565 Z-4.207 I-1.984 J0.
X84.534 Z-4.238 I1.984 J0.
X80.565 Z-4.269 I-1.984 J0.
X84.534 Z-4.3 I1.984 J0.
X80.565 Z-4.331 I-1.984 J0.
X84.534 Z-4.363 I1.984 J0.
X80.565 Z-4.394 I-1.984 J0.
X84.534 Z-4.425 I1.984 J0.
X80.565 Z-4.456 I-1.984 J0.
X84.534 Z-4.487 I1.984 J0.
X80.565 Z-4.518 I-1.984 J0.
X84.534 Z-4.55 I1.984 J0.
X80.565 Z-4.581 I-1.984 J0.
X84.534 Z-4.612 I1.984 J0.
X80.565 Z-4.643 I-1.984 J0.
X84.534 Z-4.674 I1.984 J0.
X80.565 Z-4.705 I-1.984 J0.
X82.732 Y116.276 Z-4.722 I1.984 J0.
X84.5 Y113.936 Z-4.738 I-0.182 J-1.976
X80.598 Y114.663 I-1.951 J0.363
X84.5 Y113.936 I1.951 J-0.363
X84.13 Y113.682 I-0.312 J0.058
G1 X83.974 Y113.711
X83.904 Y113.724 Z-4.731
X83.838 Y113.737 Z-4.707
X83.779 Y113.748 Z-4.669
X83.73 Y113.757 Z-4.619
X83.692 Y113.764 Z-4.559
X83.669 Y113.768 Z-4.492
X83.662 Y113.77 Z-4.421
G0 Z6.
X58.34 Y114.617
Z2.937
G1 Z1.254 F1600.
G18 G2 X58.657 Z0.937 I0.317 K0.
G1 X58.816
G17 G2 X59.134 Y114.3 I0. J-0.317
X55.165 Z0.905 I-1.984 J0.
X59.134 Z0.874 I1.984 J0.
X55.165 Z0.843 I-1.984 J0.
X59.134 Z0.812 I1.984 J0.
X55.165 Z0.781 I-1.984 J0.
X59.134 Z0.75 I1.984 J0.
X55.165 Z0.718 I-1.984 J0.
X59.134 Z0.687 I1.984 J0.
X55.165 Z0.656 I-1.984 J0.
X59.134 Z0.625 I1.984 J0.
X55.165 Z0.594 I-1.984 J0.
X59.134 Z0.562 I1.984 J0.
X55.165 Z0.531 I-1.984 J0.
X59.134 Z0.5 I1.984 J0.
X55.165 Z0.469 I-1.984 J0.
X59.134 Z0.438 I1.984 J0.
X55.165 Z0.407 I-1.984 J0.
X59.134 Z0.375 I1.984 J0.
X55.165 Z0.344 I-1.984 J0.
X59.134 Z0.313 I1.984 J0.
X55.165 Z0.282 I-1.984 J0.
X59.134 Z0.251 I1.984 J0.
X55.165 Z0.22 I-1.984 J0.
X59.134 Z0.188 I1.984 J0.
X55.165 Z0.157 I-1.984 J0.
X59.134 Z0.126 I1.984 J0.
X55.165 Z0.095 I-1.984 J0.
X59.134 Z0.064 I1.984 J0.
X55.165 Z0.033 I-1.984 J0.
X59.134 Z0.001 I1.984 J0.
X55.165 Z-0.03 I-1.984 J0.
X59.134 Z-0.061 I1.984 J0.
X55.165 Z-0.092 I-1.984 J0.
X59.134 Z-0.123 I1.984 J0.
X55.165 Z-0.154 I-1.984 J0.
X59.134 Z-0.186 I1.984 J0.
X55.165 Z-0.217 I-1.984 J0.
X59.134 Z-0.248 I1.984 J0.
X55.165 Z-0.279 I-1.984 J0.
X59.134 Z-0.31 I1.984 J0.
X55.165 Z-0.341 I-1.984 J0.
X59.134 Z-0.373 I1.984 J0.
X55.165 Z-0.404 I-1.984 J0.
X59.134 Z-0.435 I1.984 J0.
X55.165 Z-0.466 I-1.984 J0.
X59.134 Z-0.497 I1.984 J0.
X55.165 Z-0.529 I-1.984 J0.
X59.134 Z-0.56 I1.984 J0.
X55.165 Z-0.591 I-1.984 J0.
X59.134 Z-0.622 I1.984 J0.
X55.165 Z-0.653 I-1.984 J0.
X59.134 Z-0.684 I1.984 J0.
X55.165 Z-0.716 I-1.984 J0.
X59.134 Z-0.747 I1.984 J0.
X55.165 Z-0.778 I-1.984 J0.
X59.134 Z-0.809 I1.984 J0.
X55.165 Z-0.84 I-1.984 J0.
X59.134 Z-0.871 I1.984 J0.
X55.165 Z-0.903 I-1.984 J0.
X59.134 Z-0.934 I1.984 J0.
X55.165 Z-0.965 I-1.984 J0.
X59.134 Z-0.996 I1.984 J0.
X55.165 Z-1.027 I-1.984 J0.
X59.134 Z-1.058 I1.984 J0.
X55.165 Z-1.09 I-1.984 J0.
X59.134 Z-1.121 I1.984 J0.
X55.165 Z-1.152 I-1.984 J0.
X59.134 Z-1.183 I1.984 J0.
X55.165 Z-1.214 I-1.984 J0.
X59.134 Z-1.245 I1.984 J0.
X55.165 Z-1.277 I-1.984 J0.
X59.134 Z-1.308 I1.984 J0.
X55.165 Z-1.339 I-1.984 J0.
X59.134 Z-1.37 I1.984 J0.
X55.165 Z-1.401 I-1.984 J0.
X59.134 Z-1.432 I1.984 J0.
X55.165 Z-1.464 I-1.984 J0.
X59.134 Z-1.495 I1.984 J0.
X55.165 Z-1.526 I-1.984 J0.
X59.134 Z-1.557 I1.984 J0.
X55.165 Z-1.588 I-1.984 J0.
X59.134 Z-1.62 I1.984 J0.
X55.165 Z-1.651 I-1.984 J0.
X59.134 Z-1.682 I1.984 J0.
X55.165 Z-1.713 I-1.984 J0.
X59.134 Z-1.744 I1.984 J0.
X55.165 Z-1.775 I-1.984 J0.
X59.134 Z-1.807 I1.984 J0.
X55.165 Z-1.838 I-1.984 J0.
X59.134 Z-1.869 I1.984 J0.
X55.165 Z-1.9 I-1.984 J0.
X59.134 Z-1.931 I1.984 J0.
X55.165 Z-1.962 I-1.984 J0.
X59.134 Z-1.994 I1.984 J0.
X55.165 Z-2.025 I-1.984 J0.
X59.134 Z-2.056 I1.984 J0.
X55.165 Z-2.087 I-1.984 J0.
X59.134 Z-2.118 I1.984 J0.
X55.165 Z-2.149 I-1.984 J0.
X59.134 Z-2.181 I1.984 J0.
X55.165 Z-2.212 I-1.984 J0.
X59.134 Z-2.243 I1.984 J0.
X55.165 Z-2.274 I-1.984 J0.
X59.134 Z-2.305 I1.984 J0.
X55.165 Z-2.336 I-1.984 J0.
X59.134 Z-2.368 I1.984 J0.
X55.165 Z-2.399 I-1.984 J0.
X59.134 Z-2.43 I1.984 J0.
X55.165 Z-2.461 I-1.984 J0.
X59.134 Z-2.492 I1.984 J0.
X55.165 Z-2.523 I-1.984 J0.
X59.134 Z-2.555 I1.984 J0.
X55.165 Z-2.586 I-1.984 J0.
X59.134 Z-2.617 I1.984 J0.
X55.165 Z-2.648 I-1.984 J0.
X59.134 Z-2.679 I1.984 J0.
X55.165 Z-2.711 I-1.984 J0.
X59.134 Z-2.742 I1.984 J0.
X55.165 Z-2.773 I-1.984 J0.
X59.134 Z-2.804 I1.984 J0.
X55.165 Z-2.835 I-1.984 J0.
X59.134 Z-2.866 I1.984 J0.
X55.165 Z-2.898 I-1.984 J0.
X59.134 Z-2.929 I1.984 J0.
X55.165 Z-2.96 I-1.984 J0.
X59.134 Z-2.991 I1.984 J0.
X55.165 Z-3.022 I-1.984 J0.
X59.134 Z-3.053 I1.984 J0.
X55.165 Z-3.085 I-1.984 J0.
X59.134 Z-3.116 I1.984 J0.
X55.165 Z-3.147 I-1.984 J0.
X59.134 Z-3.178 I1.984 J0.
X55.165 Z-3.209 I-1.984 J0.
X59.134 Z-3.24 I1.984 J0.
X55.165 Z-3.272 I-1.984 J0.
X59.134 Z-3.303 I1.984 J0.
X55.165 Z-3.334 I-1.984 J0.
X59.134 Z-3.365 I1.984 J0.
X55.165 Z-3.396 I-1.984 J0.
X59.134 Z-3.427 I1.984 J0.
X55.165 Z-3.459 I-1.984 J0.
X59.134 Z-3.49 I1.984 J0.
X55.165 Z-3.521 I-1.984 J0.
X59.134 Z-3.552 I1.984 J0.
X55.165 Z-3.583 I-1.984 J0.
X59.134 Z-3.614 I1.984 J0.
X55.165 Z-3.646 I-1.984 J0.
X59.134 Z-3.677 I1.984 J0.
X55.165 Z-3.708 I-1.984 J0.
X59.134 Z-3.739 I1.984 J0.
X55.165 Z-3.77 I-1.984 J0.
X59.134 Z-3.802 I1.984 J0.
X55.165 Z-3.833 I-1.984 J0.
X59.134 Z-3.864 I1.984 J0.
X55.165 Z-3.895 I-1.984 J0.
X59.134 Z-3.926 I1.984 J0.
X55.165 Z-3.957 I-1.984 J0.
X59.134 Z-3.989 I1.984 J0.
X55.165 Z-4.02 I-1.984 J0.
X59.134 Z-4.051 I1.984 J0.
X55.165 Z-4.082 I-1.984 J0.
X59.134 Z-4.113 I1.984 J0.
X55.165 Z-4.144 I-1.984 J0.
X59.134 Z-4.176 I1.984 J0.
X55.165 Z-4.207 I-1.984 J0.
X59.134 Z-4.238 I1.984 J0.
X55.165 Z-4.269 I-1.984 J0.
X59.134 Z-4.3 I1.984 J0.
X55.165 Z-4.331 I-1.984 J0.
X59.134 Z-4.363 I1.984 J0.
X55.165 Z-4.394 I-1.984 J0.
X59.134 Z-4.425 I1.984 J0.
X55.165 Z-4.456 I-1.984 J0.
X59.134 Z-4.487 I1.984 J0.
X55.165 Z-4.518 I-1.984 J0.
X59.134 Z-4.55 I1.984 J0.
X55.165 Z-4.581 I-1.984 J0.
X59.134 Z-4.612 I1.984 J0.
X55.165 Z-4.643 I-1.984 J0.
X59.134 Z-4.674 I1.984 J0.
X55.165 Z-4.705 I-1.984 J0.
X57.332 Y116.276 Z-4.722 I1.984 J0.
X59.1 Y113.936 Z-4.738 I-0.182 J-1.976
X55.198 Y114.663 I-1.951 J0.363
X59.1 Y113.936 I1.951 J-0.363
X58.73 Y113.682 I-0.312 J0.058
G1 X58.574 Y113.711
X58.504 Y113.724 Z-4.731
X58.438 Y113.737 Z-4.707
X58.379 Y113.748 Z-4.669
X58.33 Y113.757 Z-4.619
X58.292 Y113.764 Z-4.559
X58.269 Y113.768 Z-4.492
X58.262 Y113.77 Z-4.421
G0 Z6.
X58.34 Y140.017
Z2.937
G1 Z1.254 F1600.
G18 G2 X58.657 Z0.937 I0.317 K0.
G1 X58.816
G17 G2 X59.134 Y139.7 I0. J-0.318
X55.165 Z0.905 I-1.984 J0.
X59.134 Z0.874 I1.984 J0.
X55.165 Z0.843 I-1.984 J0.
X59.134 Z0.812 I1.984 J0.
X55.165 Z0.781 I-1.984 J0.
X59.134 Z0.75 I1.984 J0.
X55.165 Z0.718 I-1.984 J0.
X59.134 Z0.687 I1.984 J0.
X55.165 Z0.656 I-1.984 J0.
X59.134 Z0.625 I1.984 J0.
X55.165 Z0.594 I-1.984 J0.
X59.134 Z0.562 I1.984 J0.
X55.165 Z0.531 I-1.984 J0.
X59.134 Z0.5 I1.984 J0.
X55.165 Z0.469 I-1.984 J0.
X59.134 Z0.438 I1.984 J0.
X55.165 Z0.407 I-1.984 J0.
X59.134 Z0.375 I1.984 J0.
X55.165 Z0.344 I-1.984 J0.
X59.134 Z0.313 I1.984 J0.
X55.165 Z0.282 I-1.984 J0.
X59.134 Z0.251 I1.984 J0.
X55.165 Z0.22 I-1.984 J0.
X59.134 Z0.188 I1.984 J0.
X55.165 Z0.157 I-1.984 J0.
X59.134 Z0.126 I1.984 J0.
X55.165 Z0.095 I-1.984 J0.
X59.134 Z0.064 I1.984 J0.
X55.165 Z0.033 I-1.984 J0.
X59.134 Z0.001 I1.984 J0.
X55.165 Z-0.03 I-1.984 J0.
X59.134 Z-0.061 I1.984 J0.
X55.165 Z-0.092 I-1.984 J0.
X59.134 Z-0.123 I1.984 J0.
X55.165 Z-0.154 I-1.984 J0.
X59.134 Z-0.186 I1.984 J0.
X55.165 Z-0.217 I-1.984 J0.
X59.134 Z-0.248 I1.984 J0.
X55.165 Z-0.279 I-1.984 J0.
X59.134 Z-0.31 I1.984 J0.
X55.165 Z-0.341 I-1.984 J0.
X59.134 Z-0.373 I1.984 J0.
X55.165 Z-0.404 I-1.984 J0.
X59.134 Z-0.435 I1.984 J0.
X55.165 Z-0.466 I-1.984 J0.
X59.134 Z-0.497 I1.984 J0.
X55.165 Z-0.529 I-1.984 J0.
X59.134 Z-0.56 I1.984 J0.
X55.165 Z-0.591 I-1.984 J0.
X59.134 Z-0.622 I1.984 J0.
X55.165 Z-0.653 I-1.984 J0.
X59.134 Z-0.684 I1.984 J0.
X55.165 Z-0.716 I-1.984 J0.
X59.134 Z-0.747 I1.984 J0.
X55.165 Z-0.778 I-1.984 J0.
X59.134 Z-0.809 I1.984 J0.
X55.165 Z-0.84 I-1.984 J0.
X59.134 Z-0.871 I1.984 J0.
X55.165 Z-0.903 I-1.984 J0.
X59.134 Z-0.934 I1.984 J0.
X55.165 Z-0.965 I-1.984 J0.
X59.134 Z-0.996 I1.984 J0.
X55.165 Z-1.027 I-1.984 J0.
X59.134 Z-1.058 I1.984 J0.
X55.165 Z-1.09 I-1.984 J0.
X59.134 Z-1.121 I1.984 J0.
X55.165 Z-1.152 I-1.984 J0.
X59.134 Z-1.183 I1.984 J0.
X55.165 Z-1.214 I-1.984 J0.
X59.134 Z-1.245 I1.984 J0.
X55.165 Z-1.277 I-1.984 J0.
X59.134 Z-1.308 I1.984 J0.
X55.165 Z-1.339 I-1.984 J0.
X59.134 Z-1.37 I1.984 J0.
X55.165 Z-1.401 I-1.984 J0.
X59.134 Z-1.432 I1.984 J0.
X55.165 Z-1.464 I-1.984 J0.
X59.134 Z-1.495 I1.984 J0.
X55.165 Z-1.526 I-1.984 J0.
X59.134 Z-1.557 I1.984 J0.
X55.165 Z-1.588 I-1.984 J0.
X59.134 Z-1.62 I1.984 J0.
X55.165 Z-1.651 I-1.984 J0.
X59.134 Z-1.682 I1.984 J0.
X55.165 Z-1.713 I-1.984 J0.
X59.134 Z-1.744 I1.984 J0.
X55.165 Z-1.775 I-1.984 J0.
X59.134 Z-1.807 I1.984 J0.
X55.165 Z-1.838 I-1.984 J0.
X59.134 Z-1.869 I1.984 J0.
X55.165 Z-1.9 I-1.984 J0.
X59.134 Z-1.931 I1.984 J0.
X55.165 Z-1.962 I-1.984 J0.
X59.134 Z-1.994 I1.984 J0.
X55.165 Z-2.025 I-1.984 J0.
X59.134 Z-2.056 I1.984 J0.
X55.165 Z-2.087 I-1.984 J0.
X59.134 Z-2.118 I1.984 J0.
X55.165 Z-2.149 I-1.984 J0.
X59.134 Z-2.181 I1.984 J0.
X55.165 Z-2.212 I-1.984 J0.
X59.134 Z-2.243 I1.984 J0.
X55.165 Z-2.274 I-1.984 J0.
X59.134 Z-2.305 I1.984 J0.
X55.165 Z-2.336 I-1.984 J0.
X59.134 Z-2.368 I1.984 J0.
X55.165 Z-2.399 I-1.984 J0.
X59.134 Z-2.43 I1.984 J0.
X55.165 Z-2.461 I-1.984 J0.
X59.134 Z-2.492 I1.984 J0.
X55.165 Z-2.523 I-1.984 J0.
X59.134 Z-2.555 I1.984 J0.
X55.165 Z-2.586 I-1.984 J0.
X59.134 Z-2.617 I1.984 J0.
X55.165 Z-2.648 I-1.984 J0.
X59.134 Z-2.679 I1.984 J0.
X55.165 Z-2.711 I-1.984 J0.
X59.134 Z-2.742 I1.984 J0.
X55.165 Z-2.773 I-1.984 J0.
X59.134 Z-2.804 I1.984 J0.
X55.165 Z-2.835 I-1.984 J0.
X59.134 Z-2.866 I1.984 J0.
X55.165 Z-2.898 I-1.984 J0.
X59.134 Z-2.929 I1.984 J0.
X55.165 Z-2.96 I-1.984 J0.
X59.134 Z-2.991 I1.984 J0.
X55.165 Z-3.022 I-1.984 J0.
X59.134 Z-3.053 I1.984 J0.
X55.165 Z-3.085 I-1.984 J0.
X59.134 Z-3.116 I1.984 J0.
X55.165 Z-3.147 I-1.984 J0.
X59.134 Z-3.178 I1.984 J0.
X55.165 Z-3.209 I-1.984 J0.
X59.134 Z-3.24 I1.984 J0.
X55.165 Z-3.272 I-1.984 J0.
X59.134 Z-3.303 I1.984 J0.
X55.165 Z-3.334 I-1.984 J0.
X59.134 Z-3.365 I1.984 J0.
X55.165 Z-3.396 I-1.984 J0.
X59.134 Z-3.427 I1.984 J0.
X55.165 Z-3.459 I-1.984 J0.
X59.134 Z-3.49 I1.984 J0.
X55.165 Z-3.521 I-1.984 J0.
X59.134 Z-3.552 I1.984 J0.
X55.165 Z-3.583 I-1.984 J0.
X59.134 Z-3.614 I1.984 J0.
X55.165 Z-3.646 I-1.984 J0.
X59.134 Z-3.677 I1.984 J0.
X55.165 Z-3.708 I-1.984 J0.
X59.134 Z-3.739 I1.984 J0.
X55.165 Z-3.77 I-1.984 J0.
X59.134 Z-3.802 I1.984 J0.
X55.165 Z-3.833 I-1.984 J0.
X59.134 Z-3.864 I1.984 J0.
X55.165 Z-3.895 I-1.984 J0.
X59.134 Z-3.926 I1.984 J0.
X55.165 Z-3.957 I-1.984 J0.
X59.134 Z-3.989 I1.984 J0.
X55.165 Z-4.02 I-1.984 J0.
X59.134 Z-4.051 I1.984 J0.
X55.165 Z-4.082 I-1.984 J0.
X59.134 Z-4.113 I1.984 J0.
X55.165 Z-4.144 I-1.984 J0.
X59.134 Z-4.176 I1.984 J0.
X55.165 Z-4.207 I-1.984 J0.
X59.134 Z-4.238 I1.984 J0.
X55.165 Z-4.269 I-1.984 J0.
X59.134 Z-4.3 I1.984 J0.
X55.165 Z-4.331 I-1.984 J0.
X59.134 Z-4.363 I1.984 J0.
X55.165 Z-4.394 I-1.984 J0.
X59.134 Z-4.425 I1.984 J0.
X55.165 Z-4.456 I-1.984 J0.
X59.134 Z-4.487 I1.984 J0.
X55.165 Z-4.518 I-1.984 J0.
X59.134 Z-4.55 I1.984 J0.
X55.165 Z-4.581 I-1.984 J0.
X59.134 Z-4.612 I1.984 J0.
X55.165 Z-4.643 I-1.984 J0.
X59.134 Z-4.674 I1.984 J0.
X55.165 Z-4.705 I-1.984 J0.
X57.332 Y141.676 Z-4.722 I1.984 J0.
X59.1 Y139.336 Z-4.738 I-0.182 J-1.976
X55.198 Y140.063 I-1.951 J0.363
X59.1 Y139.336 I1.951 J-0.363
X58.73 Y139.082 I-0.312 J0.058
G1 X58.574 Y139.111
X58.504 Y139.124 Z-4.731
X58.438 Y139.137 Z-4.707
X58.379 Y139.148 Z-4.669
X58.33 Y139.157 Z-4.619
X58.292 Y139.164 Z-4.559
X58.269 Y139.168 Z-4.492
X58.262 Y139.17 Z-4.421
G0 Z6.
X83.74 Y140.017
Z2.937
G1 Z1.254 F1600.
G18 G2 X84.057 Z0.937 I0.317 K0.
G1 X84.216
G17 G2 X84.534 Y139.7 I0. J-0.318
X80.565 Z0.905 I-1.984 J0.
X84.534 Z0.874 I1.984 J0.
X80.565 Z0.843 I-1.984 J0.
X84.534 Z0.812 I1.984 J0.
X80.565 Z0.781 I-1.984 J0.
X84.534 Z0.75 I1.984 J0.
X80.565 Z0.718 I-1.984 J0.
X84.534 Z0.687 I1.984 J0.
X80.565 Z0.656 I-1.984 J0.
X84.534 Z0.625 I1.984 J0.
X80.565 Z0.594 I-1.984 J0.
X84.534 Z0.562 I1.984 J0.
X80.565 Z0.531 I-1.984 J0.
X84.534 Z0.5 I1.984 J0.
X80.565 Z0.469 I-1.984 J0.
X84.534 Z0.438 I1.984 J0.
X80.565 Z0.407 I-1.984 J0.
X84.534 Z0.375 I1.984 J0.
X80.565 Z0.344 I-1.984 J0.
X84.534 Z0.313 I1.984 J0.
X80.565 Z0.282 I-1.984 J0.
X84.534 Z0.251 I1.984 J0.
X80.565 Z0.22 I-1.984 J0.
X84.534 Z0.188 I1.984 J0.
X80.565 Z0.157 I-1.984 J0.
X84.534 Z0.126 I1.984 J0.
X80.565 Z0.095 I-1.984 J0.
X84.534 Z0.064 I1.984 J0.
X80.565 Z0.033 I-1.984 J0.
X84.534 Z0.001 I1.984 J0.
X80.565 Z-0.03 I-1.984 J0.
X84.534 Z-0.061 I1.984 J0.
X80.565 Z-0.092 I-1.984 J0.
X84.534 Z-0.123 I1.984 J0.
X80.565 Z-0.154 I-1.984 J0.
X84.534 Z-0.186 I1.984 J0.
X80.565 Z-0.217 I-1.984 J0.
X84.534 Z-0.248 I1.984 J0.
X80.565 Z-0.279 I-1.984 J0.
X84.534 Z-0.31 I1.984 J0.
X80.565 Z-0.341 I-1.984 J0.
X84.534 Z-0.373 I1.984 J0.
X80.565 Z-0.404 I-1.984 J0.
X84.534 Z-0.435 I1.984 J0.
X80.565 Z-0.466 I-1.984 J0.
X84.534 Z-0.497 I1.984 J0.
X80.565 Z-0.529 I-1.984 J0.
X84.534 Z-0.56 I1.984 J0.
X80.565 Z-0.591 I-1.984 J0.
X84.534 Z-0.622 I1.984 J0.
X80.565 Z-0.653 I-1.984 J0.
X84.534 Z-0.684 I1.984 J0.
X80.565 Z-0.716 I-1.984 J0.
X84.534 Z-0.747 I1.984 J0.
X80.565 Z-0.778 I-1.984 J0.
X84.534 Z-0.809 I1.984 J0.
X80.565 Z-0.84 I-1.984 J0.
X84.534 Z-0.871 I1.984 J0.
X80.565 Z-0.903 I-1.984 J0.
X84.534 Z-0.934 I1.984 J0.
X80.565 Z-0.965 I-1.984 J0.
X84.534 Z-0.996 I1.984 J0.
X80.565 Z-1.027 I-1.984 J0.
X84.534 Z-1.058 I1.984 J0.
X80.565 Z-1.09 I-1.984 J0.
X84.534 Z-1.121 I1.984 J0.
X80.565 Z-1.152 I-1.984 J0.
X84.534 Z-1.183 I1.984 J0.
X80.565 Z-1.214 I-1.984 J0.
X84.534 Z-1.245 I1.984 J0.
X80.565 Z-1.277 I-1.984 J0.
X84.534 Z-1.308 I1.984 J0.
X80.565 Z-1.339 I-1.984 J0.
X84.534 Z-1.37 I1.984 J0.
X80.565 Z-1.401 I-1.984 J0.
X84.534 Z-1.432 I1.984 J0.
X80.565 Z-1.464 I-1.984 J0.
X84.534 Z-1.495 I1.984 J0.
X80.565 Z-1.526 I-1.984 J0.
X84.534 Z-1.557 I1.984 J0.
X80.565 Z-1.588 I-1.984 J0.
X84.534 Z-1.62 I1.984 J0.
X80.565 Z-1.651 I-1.984 J0.
X84.534 Z-1.682 I1.984 J0.
X80.565 Z-1.713 I-1.984 J0.
X84.534 Z-1.744 I1.984 J0.
X80.565 Z-1.775 I-1.984 J0.
X84.534 Z-1.807 I1.984 J0.
X80.565 Z-1.838 I-1.984 J0.
X84.534 Z-1.869 I1.984 J0.
X80.565 Z-1.9 I-1.984 J0.
X84.534 Z-1.931 I1.984 J0.
X80.565 Z-1.962 I-1.984 J0.
X84.534 Z-1.994 I1.984 J0.
X80.565 Z-2.025 I-1.984 J0.
X84.534 Z-2.056 I1.984 J0.
X80.565 Z-2.087 I-1.984 J0.
X84.534 Z-2.118 I1.984 J0.
X80.565 Z-2.149 I-1.984 J0.
X84.534 Z-2.181 I1.984 J0.
X80.565 Z-2.212 I-1.984 J0.
X84.534 Z-2.243 I1.984 J0.
X80.565 Z-2.274 I-1.984 J0.
X84.534 Z-2.305 I1.984 J0.
X80.565 Z-2.336 I-1.984 J0.
X84.534 Z-2.368 I1.984 J0.
X80.565 Z-2.399 I-1.984 J0.
X84.534 Z-2.43 I1.984 J0.
X80.565 Z-2.461 I-1.984 J0.
X84.534 Z-2.492 I1.984 J0.
X80.565 Z-2.523 I-1.984 J0.
X84.534 Z-2.555 I1.984 J0.
X80.565 Z-2.586 I-1.984 J0.
X84.534 Z-2.617 I1.984 J0.
X80.565 Z-2.648 I-1.984 J0.
X84.534 Z-2.679 I1.984 J0.
X80.565 Z-2.711 I-1.984 J0.
X84.534 Z-2.742 I1.984 J0.
X80.565 Z-2.773 I-1.984 J0.
X84.534 Z-2.804 I1.984 J0.
X80.565 Z-2.835 I-1.984 J0.
X84.534 Z-2.866 I1.984 J0.
X80.565 Z-2.898 I-1.984 J0.
X84.534 Z-2.929 I1.984 J0.
X80.565 Z-2.96 I-1.984 J0.
X84.534 Z-2.991 I1.984 J0.
X80.565 Z-3.022 I-1.984 J0.
X84.534 Z-3.053 I1.984 J0.
X80.565 Z-3.085 I-1.984 J0.
X84.534 Z-3.116 I1.984 J0.
X80.565 Z-3.147 I-1.984 J0.
X84.534 Z-3.178 I1.984 J0.
X80.565 Z-3.209 I-1.984 J0.
X84.534 Z-3.24 I1.984 J0.
X80.565 Z-3.272 I-1.984 J0.
X84.534 Z-3.303 I1.984 J0.
X80.565 Z-3.334 I-1.984 J0.
X84.534 Z-3.365 I1.984 J0.
X80.565 Z-3.396 I-1.984 J0.
X84.534 Z-3.427 I1.984 J0.
X80.565 Z-3.459 I-1.984 J0.
X84.534 Z-3.49 I1.984 J0.
X80.565 Z-3.521 I-1.984 J0.
X84.534 Z-3.552 I1.984 J0.
X80.565 Z-3.583 I-1.984 J0.
X84.534 Z-3.614 I1.984 J0.
X80.565 Z-3.646 I-1.984 J0.
X84.534 Z-3.677 I1.984 J0.
X80.565 Z-3.708 I-1.984 J0.
X84.534 Z-3.739 I1.984 J0.
X80.565 Z-3.77 I-1.984 J0.
X84.534 Z-3.802 I1.984 J0.
X80.565 Z-3.833 I-1.984 J0.
X84.534 Z-3.864 I1.984 J0.
X80.565 Z-3.895 I-1.984 J0.
X84.534 Z-3.926 I1.984 J0.
X80.565 Z-3.957 I-1.984 J0.
X84.534 Z-3.989 I1.984 J0.
X80.565 Z-4.02 I-1.984 J0.
X84.534 Z-4.051 I1.984 J0.
X80.565 Z-4.082 I-1.984 J0.
X84.534 Z-4.113 I1.984 J0.
X80.565 Z-4.144 I-1.984 J0.
X84.534 Z-4.176 I1.984 J0.
X80.565 Z-4.207 I-1.984 J0.
X84.534 Z-4.238 I1.984 J0.
X80.565 Z-4.269 I-1.984 J0.
X84.534 Z-4.3 I1.984 J0.
X80.565 Z-4.331 I-1.984 J0.
X84.534 Z-4.363 I1.984 J0.
X80.565 Z-4.394 I-1.984 J0.
X84.534 Z-4.425 I1.984 J0.
X80.565 Z-4.456 I-1.984 J0.
X84.534 Z-4.487 I1.984 J0.
X80.565 Z-4.518 I-1.984 J0.
X84.534 Z-4.55 I1.984 J0.
X80.565 Z-4.581 I-1.984 J0.
X84.534 Z-4.612 I1.984 J0.
X80.565 Z-4.643 I-1.984 J0.
X84.534 Z-4.674 I1.984 J0.
X80.565 Z-4.705 I-1.984 J0.
X82.732 Y141.676 Z-4.722 I1.984 J0.
X84.5 Y139.336 Z-4.738 I-0.182 J-1.976
X80.598 Y140.063 I-1.951 J0.363
X84.5 Y139.336 I1.951 J-0.363
X84.13 Y139.082 I-0.312 J0.058
G1 X83.974 Y139.111
X83.904 Y139.124 Z-4.731
X83.838 Y139.137 Z-4.707
X83.779 Y139.148 Z-4.669
X83.73 Y139.157 Z-4.619
X83.692 Y139.164 Z-4.559
X83.669 Y139.168 Z-4.492
X83.662 Y139.17 Z-4.421
G0 Z6.
X83.74 Y165.417
Z2.937
G1 Z1.254 F1600.
G18 G2 X84.057 Z0.937 I0.317 K0.
G1 X84.216
G17 G2 X84.534 Y165.1 I0. J-0.317
X80.565 Z0.905 I-1.984 J0.
X84.534 Z0.874 I1.984 J0.
X80.565 Z0.843 I-1.984 J0.
X84.534 Z0.812 I1.984 J0.
X80.565 Z0.781 I-1.984 J0.
X84.534 Z0.75 I1.984 J0.
X80.565 Z0.718 I-1.984 J0.
X84.534 Z0.687 I1.984 J0.
X80.565 Z0.656 I-1.984 J0.
X84.534 Z0.625 I1.984 J0.
X80.565 Z0.594 I-1.984 J0.
X84.534 Z0.562 I1.984 J0.
X80.565 Z0.531 I-1.984 J0.
X84.534 Z0.5 I1.984 J0.
X80.565 Z0.469 I-1.984 J0.
X84.534 Z0.438 I1.984 J0.
X80.565 Z0.407 I-1.984 J0.
X84.534 Z0.375 I1.984 J0.
X80.565 Z0.344 I-1.984 J0.
X84.534 Z0.313 I1.984 J0.
X80.565 Z0.282 I-1.984 J0.
X84.534 Z0.251 I1.984 J0.
X80.565 Z0.22 I-1.984 J0.
X84.534 Z0.188 I1.984 J0.
X80.565 Z0.157 I-1.984 J0.
X84.534 Z0.126 I1.984 J0.
X80.565 Z0.095 I-1.984 J0.
X84.534 Z0.064 I1.984 J0.
X80.565 Z0.033 I-1.984 J0.
X84.534 Z0.001 I1.984 J0.
X80.565 Z-0.03 I-1.984 J0.
X84.534 Z-0.061 I1.984 J0.
X80.565 Z-0.092 I-1.984 J0.
X84.534 Z-0.123 I1.984 J0.
X80.565 Z-0.154 I-1.984 J0.
X84.534 Z-0.186 I1.984 J0.
X80.565 Z-0.217 I-1.984 J0.
X84.534 Z-0.248 I1.984 J0.
X80.565 Z-0.279 I-1.984 J0.
X84.534 Z-0.31 I1.984 J0.
X80.565 Z-0.341 I-1.984 J0.
X84.534 Z-0.373 I1.984 J0.
X80.565 Z-0.404 I-1.984 J0.
X84.534 Z-0.435 I1.984 J0.
X80.565 Z-0.466 I-1.984 J0.
X84.534 Z-0.497 I1.984 J0.
X80.565 Z-0.529 I-1.984 J0.
X84.534 Z-0.56 I1.984 J0.
X80.565 Z-0.591 I-1.984 J0.
X84.534 Z-0.622 I1.984 J0.
X80.565 Z-0.653 I-1.984 J0.
X84.534 Z-0.684 I1.984 J0.
X80.565 Z-0.716 I-1.984 J0.
X84.534 Z-0.747 I1.984 J0.
X80.565 Z-0.778 I-1.984 J0.
X84.534 Z-0.809 I1.984 J0.
X80.565 Z-0.84 I-1.984 J0.
X84.534 Z-0.871 I1.984 J0.
X80.565 Z-0.903 I-1.984 J0.
X84.534 Z-0.934 I1.984 J0.
X80.565 Z-0.965 I-1.984 J0.
X84.534 Z-0.996 I1.984 J0.
X80.565 Z-1.027 I-1.984 J0.
X84.534 Z-1.058 I1.984 J0.
X80.565 Z-1.09 I-1.984 J0.
X84.534 Z-1.121 I1.984 J0.
X80.565 Z-1.152 I-1.984 J0.
X84.534 Z-1.183 I1.984 J0.
X80.565 Z-1.214 I-1.984 J0.
X84.534 Z-1.245 I1.984 J0.
X80.565 Z-1.277 I-1.984 J0.
X84.534 Z-1.308 I1.984 J0.
X80.565 Z-1.339 I-1.984 J0.
X84.534 Z-1.37 I1.984 J0.
X80.565 Z-1.401 I-1.984 J0.
X84.534 Z-1.432 I1.984 J0.
X80.565 Z-1.464 I-1.984 J0.
X84.534 Z-1.495 I1.984 J0.
X80.565 Z-1.526 I-1.984 J0.
X84.534 Z-1.557 I1.984 J0.
X80.565 Z-1.588 I-1.984 J0.
X84.534 Z-1.62 I1.984 J0.
X80.565 Z-1.651 I-1.984 J0.
X84.534 Z-1.682 I1.984 J0.
X80.565 Z-1.713 I-1.984 J0.
X84.534 Z-1.744 I1.984 J0.
X80.565 Z-1.775 I-1.984 J0.
X84.534 Z-1.807 I1.984 J0.
X80.565 Z-1.838 I-1.984 J0.
X84.534 Z-1.869 I1.984 J0.
X80.565 Z-1.9 I-1.984 J0.
X84.534 Z-1.931 I1.984 J0.
X80.565 Z-1.962 I-1.984 J0.
X84.534 Z-1.994 I1.984 J0.
X80.565 Z-2.025 I-1.984 J0.
X84.534 Z-2.056 I1.984 J0.
X80.565 Z-2.087 I-1.984 J0.
X84.534 Z-2.118 I1.984 J0.
X80.565 Z-2.149 I-1.984 J0.
X84.534 Z-2.181 I1.984 J0.
X80.565 Z-2.212 I-1.984 J0.
X84.534 Z-2.243 I1.984 J0.
X80.565 Z-2.274 I-1.984 J0.
X84.534 Z-2.305 I1.984 J0.
X80.565 Z-2.336 I-1.984 J0.
X84.534 Z-2.368 I1.984 J0.
X80.565 Z-2.399 I-1.984 J0.
X84.534 Z-2.43 I1.984 J0.
X80.565 Z-2.461 I-1.984 J0.
X84.534 Z-2.492 I1.984 J0.
X80.565 Z-2.523 I-1.984 J0.
X84.534 Z-2.555 I1.984 J0.
X80.565 Z-2.586 I-1.984 J0.
X84.534 Z-2.617 I1.984 J0.
X80.565 Z-2.648 I-1.984 J0.
X84.534 Z-2.679 I1.984 J0.
X80.565 Z-2.711 I-1.984 J0.
X84.534 Z-2.742 I1.984 J0.
X80.565 Z-2.773 I-1.984 J0.
X84.534 Z-2.804 I1.984 J0.
X80.565 Z-2.835 I-1.984 J0.
X84.534 Z-2.866 I1.984 J0.
X80.565 Z-2.898 I-1.984 J0.
X84.534 Z-2.929 I1.984 J0.
X80.565 Z-2.96 I-1.984 J0.
X84.534 Z-2.991 I1.984 J0.
X80.565 Z-3.022 I-1.984 J0.
X84.534 Z-3.053 I1.984 J0.
X80.565 Z-3.085 I-1.984 J0.
X84.534 Z-3.116 I1.984 J0.
X80.565 Z-3.147 I-1.984 J0.
X84.534 Z-3.178 I1.984 J0.
X80.565 Z-3.209 I-1.984 J0.
X84.534 Z-3.24 I1.984 J0.
X80.565 Z-3.272 I-1.984 J0.
X84.534 Z-3.303 I1.984 J0.
X80.565 Z-3.334 I-1.984 J0.
X84.534 Z-3.365 I1.984 J0.
X80.565 Z-3.396 I-1.984 J0.
X84.534 Z-3.427 I1.984 J0.
X80.565 Z-3.459 I-1.984 J0.
X84.534 Z-3.49 I1.984 J0.
X80.565 Z-3.521 I-1.984 J0.
X84.534 Z-3.552 I1.984 J0.
X80.565 Z-3.583 I-1.984 J0.
X84.534 Z-3.614 I1.984 J0.
X80.565 Z-3.646 I-1.984 J0.
X84.534 Z-3.677 I1.984 J0.
X80.565 Z-3.708 I-1.984 J0.
X84.534 Z-3.739 I1.984 J0.
X80.565 Z-3.77 I-1.984 J0.
X84.534 Z-3.802 I1.984 J0.
X80.565 Z-3.833 I-1.984 J0.
X84.534 Z-3.864 I1.984 J0.
X80.565 Z-3.895 I-1.984 J0.
X84.534 Z-3.926 I1.984 J0.
X80.565 Z-3.957 I-1.984 J0.
X84.534 Z-3.989 I1.984 J0.
X80.565 Z-4.02 I-1.984 J0.
X84.534 Z-4.051 I1.984 J0.
X80.565 Z-4.082 I-1.984 J0.
X84.534 Z-4.113 I1.984 J0.
X80.565 Z-4.144 I-1.984 J0.
X84.534 Z-4.176 I1.984 J0.
X80.565 Z-4.207 I-1.984 J0.
X84.534 Z-4.238 I1.984 J0.
X80.565 Z-4.269 I-1.984 J0.
X84.534 Z-4.3 I1.984 J0.
X80.565 Z-4.331 I-1.984 J0.
X84.534 Z-4.363 I1.984 J0.
X80.565 Z-4.394 I-1.984 J0.
X84.534 Z-4.425 I1.984 J0.
X80.565 Z-4.456 I-1.984 J0.
X84.534 Z-4.487 I1.984 J0.
X80.565 Z-4.518 I-1.984 J0.
X84.534 Z-4.55 I1.984 J0.
X80.565 Z-4.581 I-1.984 J0.
X84.534 Z-4.612 I1.984 J0.
X80.565 Z-4.643 I-1.984 J0.
X84.534 Z-4.674 I1.984 J0.
X80.565 Z-4.705 I-1.984 J0.
X82.732 Y167.076 Z-4.722 I1.984 J0.
X84.5 Y164.736 Z-4.738 I-0.182 J-1.976
X80.598 Y165.463 I-1.951 J0.363
X84.5 Y164.736 I1.951 J-0.363
X84.13 Y164.482 I-0.312 J0.058
G1 X83.974 Y164.511
X83.904 Y164.524 Z-4.731
X83.838 Y164.537 Z-4.707
X83.779 Y164.548 Z-4.669
X83.73 Y164.557 Z-4.619
X83.692 Y164.564 Z-4.559
X83.669 Y164.568 Z-4.492
X83.662 Y164.57 Z-4.421
G0 Z6.
X58.34 Y165.417
Z2.937
G1 Z1.254 F1600.
G18 G2 X58.657 Z0.937 I0.317 K0.
G1 X58.816
G17 G2 X59.134 Y165.1 I0. J-0.317
X55.165 Z0.905 I-1.984 J0.
X59.134 Z0.874 I1.984 J0.
X55.165 Z0.843 I-1.984 J0.
X59.134 Z0.812 I1.984 J0.
X55.165 Z0.781 I-1.984 J0.
X59.134 Z0.75 I1.984 J0.
X55.165 Z0.718 I-1.984 J0.
X59.134 Z0.687 I1.984 J0.
X55.165 Z0.656 I-1.984 J0.
X59.134 Z0.625 I1.984 J0.
X55.165 Z0.594 I-1.984 J0.
X59.134 Z0.562 I1.984 J0.
X55.165 Z0.531 I-1.984 J0.
X59.134 Z0.5 I1.984 J0.
X55.165 Z0.469 I-1.984 J0.
X59.134 Z0.438 I1.984 J0.
X55.165 Z0.407 I-1.984 J0.
X59.134 Z0.375 I1.984 J0.
X55.165 Z0.344 I-1.984 J0.
X59.134 Z0.313 I1.984 J0.
X55.165 Z0.282 I-1.984 J0.
X59.134 Z0.251 I1.984 J0.
X55.165 Z0.22 I-1.984 J0.
X59.134 Z0.188 I1.984 J0.
X55.165 Z0.157 I-1.984 J0.
X59.134 Z0.126 I1.984 J0.
X55.165 Z0.095 I-1.984 J0.
X59.134 Z0.064 I1.984 J0.
X55.165 Z0.033 I-1.984 J0.
X59.134 Z0.001 I1.984 J0.
X55.165 Z-0.03 I-1.984 J0.
X59.134 Z-0.061 I1.984 J0.
X55.165 Z-0.092 I-1.984 J0.
X59.134 Z-0.123 I1.984 J0.
X55.165 Z-0.154 I-1.984 J0.
X59.134 Z-0.186 I1.984 J0.
X55.165 Z-0.217 I-1.984 J0.
X59.134 Z-0.248 I1.984 J0.
X55.165 Z-0.279 I-1.984 J0.
X59.134 Z-0.31 I1.984 J0.
X55.165 Z-0.341 I-1.984 J0.
X59.134 Z-0.373 I1.984 J0.
X55.165 Z-0.404 I-1.984 J0.
X59.134 Z-0.435 I1.984 J0.
X55.165 Z-0.466 I-1.984 J0.
X59.134 Z-0.497 I1.984 J0.
X55.165 Z-0.529 I-1.984 J0.
X59.134 Z-0.56 I1.984 J0.
X55.165 Z-0.591 I-1.984 J0.
X59.134 Z-0.622 I1.984 J0.
X55.165 Z-0.653 I-1.984 J0.
X59.134 Z-0.684 I1.984 J0.
X55.165 Z-0.716 I-1.984 J0.
X59.134 Z-0.747 I1.984 J0.
X55.165 Z-0.778 I-1.984 J0.
X59.134 Z-0.809 I1.984 J0.
X55.165 Z-0.84 I-1.984 J0.
X59.134 Z-0.871 I1.984 J0.
X55.165 Z-0.903 I-1.984 J0.
X59.134 Z-0.934 I1.984 J0.
X55.165 Z-0.965 I-1.984 J0.
X59.134 Z-0.996 I1.984 J0.
X55.165 Z-1.027 I-1.984 J0.
X59.134 Z-1.058 I1.984 J0.
X55.165 Z-1.09 I-1.984 J0.
X59.134 Z-1.121 I1.984 J0.
X55.165 Z-1.152 I-1.984 J0.
X59.134 Z-1.183 I1.984 J0.
X55.165 Z-1.214 I-1.984 J0.
X59.134 Z-1.245 I1.984 J0.
X55.165 Z-1.277 I-1.984 J0.
X59.134 Z-1.308 I1.984 J0.
X55.165 Z-1.339 I-1.984 J0.
X59.134 Z-1.37 I1.984 J0.
X55.165 Z-1.401 I-1.984 J0.
X59.134 Z-1.432 I1.984 J0.
X55.165 Z-1.464 I-1.984 J0.
X59.134 Z-1.495 I1.984 J0.
X55.165 Z-1.526 I-1.984 J0.
X59.134 Z-1.557 I1.984 J0.
X55.165 Z-1.588 I-1.984 J0.
X59.134 Z-1.62 I1.984 J0.
X55.165 Z-1.651 I-1.984 J0.
X59.134 Z-1.682 I1.984 J0.
X55.165 Z-1.713 I-1.984 J0.
X59.134 Z-1.744 I1.984 J0.
X55.165 Z-1.775 I-1.984 J0.
X59.134 Z-1.807 I1.984 J0.
X55.165 Z-1.838 I-1.984 J0.
X59.134 Z-1.869 I1.984 J0.
X55.165 Z-1.9 I-1.984 J0.
X59.134 Z-1.931 I1.984 J0.
X55.165 Z-1.962 I-1.984 J0.
X59.134 Z-1.994 I1.984 J0.
X55.165 Z-2.025 I-1.984 J0.
X59.134 Z-2.056 I1.984 J0.
X55.165 Z-2.087 I-1.984 J0.
X59.134 Z-2.118 I1.984 J0.
X55.165 Z-2.149 I-1.984 J0.
X59.134 Z-2.181 I1.984 J0.
X55.165 Z-2.212 I-1.984 J0.
X59.134 Z-2.243 I1.984 J0.
X55.165 Z-2.274 I-1.984 J0.
X59.134 Z-2.305 I1.984 J0.
X55.165 Z-2.336 I-1.984 J0.
X59.134 Z-2.368 I1.984 J0.
X55.165 Z-2.399 I-1.984 J0.
X59.134 Z-2.43 I1.984 J0.
X55.165 Z-2.461 I-1.984 J0.
X59.134 Z-2.492 I1.984 J0.
X55.165 Z-2.523 I-1.984 J0.
X59.134 Z-2.555 I1.984 J0.
X55.165 Z-2.586 I-1.984 J0.
X59.134 Z-2.617 I1.984 J0.
X55.165 Z-2.648 I-1.984 J0.
X59.134 Z-2.679 I1.984 J0.
X55.165 Z-2.711 I-1.984 J0.
X59.134 Z-2.742 I1.984 J0.
X55.165 Z-2.773 I-1.984 J0.
X59.134 Z-2.804 I1.984 J0.
X55.165 Z-2.835 I-1.984 J0.
X59.134 Z-2.866 I1.984 J0.
X55.165 Z-2.898 I-1.984 J0.
X59.134 Z-2.929 I1.984 J0.
X55.165 Z-2.96 I-1.984 J0.
X59.134 Z-2.991 I1.984 J0.
X55.165 Z-3.022 I-1.984 J0.
X59.134 Z-3.053 I1.984 J0.
X55.165 Z-3.085 I-1.984 J0.
X59.134 Z-3.116 I1.984 J0.
X55.165 Z-3.147 I-1.984 J0.
X59.134 Z-3.178 I1.984 J0.
X55.165 Z-3.209 I-1.984 J0.
X59.134 Z-3.24 I1.984 J0.
X55.165 Z-3.272 I-1.984 J0.
X59.134 Z-3.303 I1.984 J0.
X55.165 Z-3.334 I-1.984 J0.
X59.134 Z-3.365 I1.984 J0.
X55.165 Z-3.396 I-1.984 J0.
X59.134 Z-3.427 I1.984 J0.
X55.165 Z-3.459 I-1.984 J0.
X59.134 Z-3.49 I1.984 J0.
X55.165 Z-3.521 I-1.984 J0.
X59.134 Z-3.552 I1.984 J0.
X55.165 Z-3.583 I-1.984 J0.
X59.134 Z-3.614 I1.984 J0.
X55.165 Z-3.646 I-1.984 J0.
X59.134 Z-3.677 I1.984 J0.
X55.165 Z-3.708 I-1.984 J0.
X59.134 Z-3.739 I1.984 J0.
X55.165 Z-3.77 I-1.984 J0.
X59.134 Z-3.802 I1.984 J0.
X55.165 Z-3.833 I-1.984 J0.
X59.134 Z-3.864 I1.984 J0.
X55.165 Z-3.895 I-1.984 J0.
X59.134 Z-3.926 I1.984 J0.
X55.165 Z-3.957 I-1.984 J0.
X59.134 Z-3.989 I1.984 J0.
X55.165 Z-4.02 I-1.984 J0.
X59.134 Z-4.051 I1.984 J0.
X55.165 Z-4.082 I-1.984 J0.
X59.134 Z-4.113 I1.984 J0.
X55.165 Z-4.144 I-1.984 J0.
X59.134 Z-4.176 I1.984 J0.
X55.165 Z-4.207 I-1.984 J0.
X59.134 Z-4.238 I1.984 J0.
X55.165 Z-4.269 I-1.984 J0.
X59.134 Z-4.3 I1.984 J0.
X55.165 Z-4.331 I-1.984 J0.
X59.134 Z-4.363 I1.984 J0.
X55.165 Z-4.394 I-1.984 J0.
X59.134 Z-4.425 I1.984 J0.
X55.165 Z-4.456 I-1.984 J0.
X59.134 Z-4.487 I1.984 J0.
X55.165 Z-4.518 I-1.984 J0.
X59.134 Z-4.55 I1.984 J0.
X55.165 Z-4.581 I-1.984 J0.
X59.134 Z-4.612 I1.984 J0.
X55.165 Z-4.643 I-1.984 J0.
X59.134 Z-4.674 I1.984 J0.
X55.165 Z-4.705 I-1.984 J0.
X57.332 Y167.076 Z-4.722 I1.984 J0.
X59.1 Y164.736 Z-4.738 I-0.182 J-1.976
X55.198 Y165.463 I-1.951 J0.363
X59.1 Y164.736 I1.951 J-0.363
X58.73 Y164.482 I-0.312 J0.058
G1 X58.574 Y164.511
X58.504 Y164.524 Z-4.731
X58.438 Y164.537 Z-4.707
X58.379 Y164.548 Z-4.669
X58.33 Y164.557 Z-4.619
X58.292 Y164.564 Z-4.559
X58.269 Y164.568 Z-4.492
X58.262 Y164.57 Z-4.421
G0 Z6.
X55.883 Y205.558
Z3.
G1 Z1.317 F1600.
G18 G3 X55.566 Z1. I-0.318 K0.
G1 X55.407
G17 G2 X55.09 Y205.876 I0. J0.317
X59.058 Z0.969 I1.984 J0.
X55.09 Z0.938 I-1.984 J0.
X59.058 Z0.906 I1.984 J0.
X55.09 Z0.875 I-1.984 J0.
X59.058 Z0.844 I1.984 J0.
X55.09 Z0.813 I-1.984 J0.
X59.058 Z0.782 I1.984 J0.
X55.09 Z0.751 I-1.984 J0.
X59.058 Z0.719 I1.984 J0.
X55.09 Z0.688 I-1.984 J0.
X59.058 Z0.657 I1.984 J0.
X55.09 Z0.626 I-1.984 J0.
X59.058 Z0.595 I1.984 J0.
X55.09 Z0.564 I-1.984 J0.
X59.058 Z0.532 I1.984 J0.
X55.09 Z0.501 I-1.984 J0.
X59.058 Z0.47 I1.984 J0.
X55.09 Z0.439 I-1.984 J0.
X59.058 Z0.408 I1.984 J0.
X55.09 Z0.377 I-1.984 J0.
X59.058 Z0.345 I1.984 J0.
X55.09 Z0.314 I-1.984 J0.
X59.058 Z0.283 I1.984 J0.
X55.09 Z0.252 I-1.984 J0.
X59.058 Z0.221 I1.984 J0.
X55.09 Z0.19 I-1.984 J0.
X59.058 Z0.158 I1.984 J0.
X55.09 Z0.127 I-1.984 J0.
X59.058 Z0.096 I1.984 J0.
X55.09 Z0.065 I-1.984 J0.
X59.058 Z0.034 I1.984 J0.
X55.09 Z0.003 I-1.984 J0.
X59.058 Z-0.029 I1.984 J0.
X55.09 Z-0.06 I-1.984 J0.
X59.058 Z-0.091 I1.984 J0.
X55.09 Z-0.122 I-1.984 J0.
X59.058 Z-0.153 I1.984 J0.
X55.09 Z-0.185 I-1.984 J0.
X59.058 Z-0.216 I1.984 J0.
X55.09 Z-0.247 I-1.984 J0.
X59.058 Z-0.278 I1.984 J0.
X55.09 Z-0.309 I-1.984 J0.
X59.058 Z-0.34 I1.984 J0.
X55.09 Z-0.372 I-1.984 J0.
X59.058 Z-0.403 I1.984 J0.
X55.09 Z-0.434 I-1.984 J0.
X59.058 Z-0.465 I1.984 J0.
X55.09 Z-0.496 I-1.984 J0.
X59.058 Z-0.527 I1.984 J0.
X55.09 Z-0.559 I-1.984 J0.
X59.058 Z-0.59 I1.984 J0.
X55.09 Z-0.621 I-1.984 J0.
X59.058 Z-0.652 I1.984 J0.
X55.09 Z-0.683 I-1.984 J0.
X59.058 Z-0.714 I1.984 J0.
X55.09 Z-0.746 I-1.984 J0.
X59.058 Z-0.777 I1.984 J0.
X55.09 Z-0.808 I-1.984 J0.
X59.058 Z-0.839 I1.984 J0.
X55.09 Z-0.87 I-1.984 J0.
X59.058 Z-0.901 I1.984 J0.
X55.09 Z-0.933 I-1.984 J0.
X59.058 Z-0.964 I1.984 J0.
X55.09 Z-0.995 I-1.984 J0.
X59.058 Z-1.026 I1.984 J0.
X55.09 Z-1.057 I-1.984 J0.
X59.058 Z-1.088 I1.984 J0.
X55.09 Z-1.12 I-1.984 J0.
X59.058 Z-1.151 I1.984 J0.
X55.09 Z-1.182 I-1.984 J0.
X59.058 Z-1.213 I1.984 J0.
X55.09 Z-1.244 I-1.984 J0.
X59.058 Z-1.276 I1.984 J0.
X55.09 Z-1.307 I-1.984 J0.
X59.058 Z-1.338 I1.984 J0.
X55.09 Z-1.369 I-1.984 J0.
X59.058 Z-1.4 I1.984 J0.
X55.09 Z-1.431 I-1.984 J0.
X59.058 Z-1.463 I1.984 J0.
X55.09 Z-1.494 I-1.984 J0.
X59.058 Z-1.525 I1.984 J0.
X55.09 Z-1.556 I-1.984 J0.
X59.058 Z-1.587 I1.984 J0.
X55.09 Z-1.618 I-1.984 J0.
X59.058 Z-1.65 I1.984 J0.
X55.09 Z-1.681 I-1.984 J0.
X59.058 Z-1.712 I1.984 J0.
X55.09 Z-1.743 I-1.984 J0.
X59.058 Z-1.774 I1.984 J0.
X55.09 Z-1.805 I-1.984 J0.
X59.058 Z-1.837 I1.984 J0.
X55.09 Z-1.868 I-1.984 J0.
X59.058 Z-1.899 I1.984 J0.
X55.09 Z-1.93 I-1.984 J0.
X59.058 Z-1.961 I1.984 J0.
X55.09 Z-1.992 I-1.984 J0.
X59.058 Z-2.024 I1.984 J0.
X55.09 Z-2.055 I-1.984 J0.
X59.058 Z-2.086 I1.984 J0.
X55.09 Z-2.117 I-1.984 J0.
X59.058 Z-2.148 I1.984 J0.
X55.09 Z-2.179 I-1.984 J0.
X59.058 Z-2.211 I1.984 J0.
X55.09 Z-2.242 I-1.984 J0.
X59.058 Z-2.273 I1.984 J0.
X55.09 Z-2.304 I-1.984 J0.
X59.058 Z-2.335 I1.984 J0.
X55.09 Z-2.366 I-1.984 J0.
X59.058 Z-2.398 I1.984 J0.
X55.09 Z-2.429 I-1.984 J0.
X59.058 Z-2.46 I1.984 J0.
X55.09 Z-2.491 I-1.984 J0.
X59.058 Z-2.522 I1.984 J0.
X55.09 Z-2.554 I-1.984 J0.
X59.058 Z-2.585 I1.984 J0.
X55.09 Z-2.616 I-1.984 J0.
X59.058 Z-2.647 I1.984 J0.
X55.09 Z-2.678 I-1.984 J0.
X59.058 Z-2.709 I1.984 J0.
X55.09 Z-2.741 I-1.984 J0.
X59.058 Z-2.772 I1.984 J0.
X55.09 Z-2.803 I-1.984 J0.
X59.058 Z-2.834 I1.984 J0.
X55.09 Z-2.865 I-1.984 J0.
X59.058 Z-2.896 I1.984 J0.
X55.09 Z-2.928 I-1.984 J0.
X59.058 Z-2.959 I1.984 J0.
X55.09 Z-2.99 I-1.984 J0.
X59.058 Z-3.021 I1.984 J0.
X55.09 Z-3.052 I-1.984 J0.
X59.058 Z-3.083 I1.984 J0.
X55.09 Z-3.115 I-1.984 J0.
X59.058 Z-3.146 I1.984 J0.
X55.09 Z-3.177 I-1.984 J0.
X59.058 Z-3.208 I1.984 J0.
X55.09 Z-3.239 I-1.984 J0.
X59.058 Z-3.27 I1.984 J0.
X55.09 Z-3.302 I-1.984 J0.
X59.058 Z-3.333 I1.984 J0.
X55.09 Z-3.364 I-1.984 J0.
X59.058 Z-3.395 I1.984 J0.
X55.09 Z-3.426 I-1.984 J0.
X59.058 Z-3.457 I1.984 J0.
X55.09 Z-3.489 I-1.984 J0.
X59.058 Z-3.52 I1.984 J0.
X55.09 Z-3.551 I-1.984 J0.
X59.058 Z-3.582 I1.984 J0.
X55.09 Z-3.613 I-1.984 J0.
X59.058 Z-3.645 I1.984 J0.
X55.09 Z-3.676 I-1.984 J0.
X59.058 Z-3.707 I1.984 J0.
X55.09 Z-3.738 I-1.984 J0.
X59.058 Z-3.769 I1.984 J0.
X55.09 Z-3.8 I-1.984 J0.
X59.058 Z-3.832 I1.984 J0.
X55.09 Z-3.863 I-1.984 J0.
X59.058 Z-3.894 I1.984 J0.
X55.09 Z-3.925 I-1.984 J0.
X59.058 Z-3.956 I1.984 J0.
X55.09 Z-3.987 I-1.984 J0.
X59.058 Z-4.019 I1.984 J0.
X55.09 Z-4.05 I-1.984 J0.
X59.058 Z-4.081 I1.984 J0.
X55.09 Z-4.112 I-1.984 J0.
X59.058 Z-4.143 I1.984 J0.
X55.09 Z-4.174 I-1.984 J0.
X59.058 Z-4.206 I1.984 J0.
X55.09 Z-4.237 I-1.984 J0.
X59.058 Z-4.268 I1.984 J0.
X55.09 Z-4.299 I-1.984 J0.
X59.058 Z-4.33 I1.984 J0.
X55.09 Z-4.361 I-1.984 J0.
X59.058 Z-4.393 I1.984 J0.
X55.09 Z-4.424 I-1.984 J0.
X59.058 Z-4.455 I1.984 J0.
X55.09 Z-4.486 I-1.984 J0.
X59.058 Z-4.517 I1.984 J0.
X55.09 Z-4.548 I-1.984 J0.
X59.058 Z-4.58 I1.984 J0.
X55.09 Z-4.611 I-1.984 J0.
X59.058 Z-4.642 I1.984 J0.
X56.892 Y203.9 Z-4.659 I-1.984 J0.
X55.123 Y206.239 Z-4.675 I0.182 J1.976
X59.025 Y205.512 I1.951 J-0.363
X55.123 Y206.239 I-1.951 J0.363
X55.494 Y206.493 I0.312 J-0.058
G1 X55.65 Y206.464
X55.719 Y206.451 Z-4.667
X55.785 Y206.439 Z-4.644
X55.844 Y206.428 Z-4.606
X55.894 Y206.418 Z-4.555
X55.931 Y206.412 Z-4.495
X55.954 Y206.407 Z-4.428
X55.962 Y206.406 Z-4.358
G0 Z6.
X81.283 Y205.558
Z3.
G1 Z1.317 F1600.
G18 G3 X80.966 Z1. I-0.317 K0.
G1 X80.807
G17 G2 X80.49 Y205.876 I0. J0.317
X84.458 Z0.969 I1.984 J0.
X80.49 Z0.938 I-1.984 J0.
X84.458 Z0.906 I1.984 J0.
X80.49 Z0.875 I-1.984 J0.
X84.458 Z0.844 I1.984 J0.
X80.49 Z0.813 I-1.984 J0.
X84.458 Z0.782 I1.984 J0.
X80.49 Z0.751 I-1.984 J0.
X84.458 Z0.719 I1.984 J0.
X80.49 Z0.688 I-1.984 J0.
X84.458 Z0.657 I1.984 J0.
X80.49 Z0.626 I-1.984 J0.
X84.458 Z0.595 I1.984 J0.
X80.49 Z0.564 I-1.984 J0.
X84.458 Z0.532 I1.984 J0.
X80.49 Z0.501 I-1.984 J0.
X84.458 Z0.47 I1.984 J0.
X80.49 Z0.439 I-1.984 J0.
X84.458 Z0.408 I1.984 J0.
X80.49 Z0.377 I-1.984 J0.
X84.458 Z0.345 I1.984 J0.
X80.49 Z0.314 I-1.984 J0.
X84.458 Z0.283 I1.984 J0.
X80.49 Z0.252 I-1.984 J0.
X84.458 Z0.221 I1.984 J0.
X80.49 Z0.19 I-1.984 J0.
X84.458 Z0.158 I1.984 J0.
X80.49 Z0.127 I-1.984 J0.
X84.458 Z0.096 I1.984 J0.
X80.49 Z0.065 I-1.984 J0.
X84.458 Z0.034 I1.984 J0.
X80.49 Z0.003 I-1.984 J0.
X84.458 Z-0.029 I1.984 J0.
X80.49 Z-0.06 I-1.984 J0.
X84.458 Z-0.091 I1.984 J0.
X80.49 Z-0.122 I-1.984 J0.
X84.458 Z-0.153 I1.984 J0.
X80.49 Z-0.185 I-1.984 J0.
X84.458 Z-0.216 I1.984 J0.
X80.49 Z-0.247 I-1.984 J0.
X84.458 Z-0.278 I1.984 J0.
X80.49 Z-0.309 I-1.984 J0.
X84.458 Z-0.34 I1.984 J0.
X80.49 Z-0.372 I-1.984 J0.
X84.458 Z-0.403 I1.984 J0.
X80.49 Z-0.434 I-1.984 J0.
X84.458 Z-0.465 I1.984 J0.
X80.49 Z-0.496 I-1.984 J0.
X84.458 Z-0.527 I1.984 J0.
X80.49 Z-0.559 I-1.984 J0.
X84.458 Z-0.59 I1.984 J0.
X80.49 Z-0.621 I-1.984 J0.
X84.458 Z-0.652 I1.984 J0.
X80.49 Z-0.683 I-1.984 J0.
X84.458 Z-0.714 I1.984 J0.
X80.49 Z-0.746 I-1.984 J0.
X84.458 Z-0.777 I1.984 J0.
X80.49 Z-0.808 I-1.984 J0.
X84.458 Z-0.839 I1.984 J0.
X80.49 Z-0.87 I-1.984 J0.
X84.458 Z-0.901 I1.984 J0.
X80.49 Z-0.933 I-1.984 J0.
X84.458 Z-0.964 I1.984 J0.
X80.49 Z-0.995 I-1.984 J0.
X84.458 Z-1.026 I1.984 J0.
X80.49 Z-1.057 I-1.984 J0.
X84.458 Z-1.088 I1.984 J0.
X80.49 Z-1.12 I-1.984 J0.
X84.458 Z-1.151 I1.984 J0.
X80.49 Z-1.182 I-1.984 J0.
X84.458 Z-1.213 I1.984 J0.
X80.49 Z-1.244 I-1.984 J0.
X84.458 Z-1.276 I1.984 J0.
X80.49 Z-1.307 I-1.984 J0.
X84.458 Z-1.338 I1.984 J0.
X80.49 Z-1.369 I-1.984 J0.
X84.458 Z-1.4 I1.984 J0.
X80.49 Z-1.431 I-1.984 J0.
X84.458 Z-1.463 I1.984 J0.
X80.49 Z-1.494 I-1.984 J0.
X84.458 Z-1.525 I1.984 J0.
X80.49 Z-1.556 I-1.984 J0.
X84.458 Z-1.587 I1.984 J0.
X80.49 Z-1.618 I-1.984 J0.
X84.458 Z-1.65 I1.984 J0.
X80.49 Z-1.681 I-1.984 J0.
X84.458 Z-1.712 I1.984 J0.
X80.49 Z-1.743 I-1.984 J0.
X84.458 Z-1.774 I1.984 J0.
X80.49 Z-1.805 I-1.984 J0.
X84.458 Z-1.837 I1.984 J0.
X80.49 Z-1.868 I-1.984 J0.
X84.458 Z-1.899 I1.984 J0.
X80.49 Z-1.93 I-1.984 J0.
X84.458 Z-1.961 I1.984 J0.
X80.49 Z-1.992 I-1.984 J0.
X84.458 Z-2.024 I1.984 J0.
X80.49 Z-2.055 I-1.984 J0.
X84.458 Z-2.086 I1.984 J0.
X80.49 Z-2.117 I-1.984 J0.
X84.458 Z-2.148 I1.984 J0.
X80.49 Z-2.179 I-1.984 J0.
X84.458 Z-2.211 I1.984 J0.
X80.49 Z-2.242 I-1.984 J0.
X84.458 Z-2.273 I1.984 J0.
X80.49 Z-2.304 I-1.984 J0.
X84.458 Z-2.335 I1.984 J0.
X80.49 Z-2.366 I-1.984 J0.
X84.458 Z-2.398 I1.984 J0.
X80.49 Z-2.429 I-1.984 J0.
X84.458 Z-2.46 I1.984 J0.
X80.49 Z-2.491 I-1.984 J0.
X84.458 Z-2.522 I1.984 J0.
X80.49 Z-2.554 I-1.984 J0.
X84.458 Z-2.585 I1.984 J0.
X80.49 Z-2.616 I-1.984 J0.
X84.458 Z-2.647 I1.984 J0.
X80.49 Z-2.678 I-1.984 J0.
X84.458 Z-2.709 I1.984 J0.
X80.49 Z-2.741 I-1.984 J0.
X84.458 Z-2.772 I1.984 J0.
X80.49 Z-2.803 I-1.984 J0.
X84.458 Z-2.834 I1.984 J0.
X80.49 Z-2.865 I-1.984 J0.
X84.458 Z-2.896 I1.984 J0.
X80.49 Z-2.928 I-1.984 J0.
X84.458 Z-2.959 I1.984 J0.
X80.49 Z-2.99 I-1.984 J0.
X84.458 Z-3.021 I1.984 J0.
X80.49 Z-3.052 I-1.984 J0.
X84.458 Z-3.083 I1.984 J0.
X80.49 Z-3.115 I-1.984 J0.
X84.458 Z-3.146 I1.984 J0.
X80.49 Z-3.177 I-1.984 J0.
X84.458 Z-3.208 I1.984 J0.
X80.49 Z-3.239 I-1.984 J0.
X84.458 Z-3.27 I1.984 J0.
X80.49 Z-3.302 I-1.984 J0.
X84.458 Z-3.333 I1.984 J0.
X80.49 Z-3.364 I-1.984 J0.
X84.458 Z-3.395 I1.984 J0.
X80.49 Z-3.426 I-1.984 J0.
X84.458 Z-3.457 I1.984 J0.
X80.49 Z-3.489 I-1.984 J0.
X84.458 Z-3.52 I1.984 J0.
X80.49 Z-3.551 I-1.984 J0.
X84.458 Z-3.582 I1.984 J0.
X80.49 Z-3.613 I-1.984 J0.
X84.458 Z-3.645 I1.984 J0.
X80.49 Z-3.676 I-1.984 J0.
X84.458 Z-3.707 I1.984 J0.
X80.49 Z-3.738 I-1.984 J0.
X84.458 Z-3.769 I1.984 J0.
X80.49 Z-3.8 I-1.984 J0.
X84.458 Z-3.832 I1.984 J0.
X80.49 Z-3.863 I-1.984 J0.
X84.458 Z-3.894 I1.984 J0.
X80.49 Z-3.925 I-1.984 J0.
X84.458 Z-3.956 I1.984 J0.
X80.49 Z-3.987 I-1.984 J0.
X84.458 Z-4.019 I1.984 J0.
X80.49 Z-4.05 I-1.984 J0.
X84.458 Z-4.081 I1.984 J0.
X80.49 Z-4.112 I-1.984 J0.
X84.458 Z-4.143 I1.984 J0.
X80.49 Z-4.174 I-1.984 J0.
X84.458 Z-4.206 I1.984 J0.
X80.49 Z-4.237 I-1.984 J0.
X84.458 Z-4.268 I1.984 J0.
X80.49 Z-4.299 I-1.984 J0.
X84.458 Z-4.33 I1.984 J0.
X80.49 Z-4.361 I-1.984 J0.
X84.458 Z-4.393 I1.984 J0.
X80.49 Z-4.424 I-1.984 J0.
X84.458 Z-4.455 I1.984 J0.
X80.49 Z-4.486 I-1.984 J0.
X84.458 Z-4.517 I1.984 J0.
X80.49 Z-4.548 I-1.984 J0.
X84.458 Z-4.58 I1.984 J0.
X80.49 Z-4.611 I-1.984 J0.
X84.458 Z-4.642 I1.984 J0.
X82.292 Y203.9 Z-4.659 I-1.984 J0.
X80.523 Y206.239 Z-4.675 I0.182 J1.976
X84.425 Y205.512 I1.951 J-0.363
X80.523 Y206.239 I-1.951 J0.363
X80.894 Y206.493 I0.312 J-0.058
G1 X81.05 Y206.464
X81.119 Y206.451 Z-4.667
X81.185 Y206.439 Z-4.644
X81.244 Y206.428 Z-4.606
X81.294 Y206.418 Z-4.555
X81.331 Y206.412 Z-4.495
X81.354 Y206.407 Z-4.428
X81.362 Y206.406 Z-4.358
G0 Z6.
X81.283 Y230.958
Z3.
G1 Z1.317 F1600.
G18 G3 X80.966 Z1. I-0.317 K0.
G1 X80.807
G17 G2 X80.49 Y231.276 I0. J0.318
X84.458 Z0.969 I1.984 J0.
X80.49 Z0.938 I-1.984 J0.
X84.458 Z0.906 I1.984 J0.
X80.49 Z0.875 I-1.984 J0.
X84.458 Z0.844 I1.984 J0.
X80.49 Z0.813 I-1.984 J0.
X84.458 Z0.782 I1.984 J0.
X80.49 Z0.751 I-1.984 J0.
X84.458 Z0.719 I1.984 J0.
X80.49 Z0.688 I-1.984 J0.
X84.458 Z0.657 I1.984 J0.
X80.49 Z0.626 I-1.984 J0.
X84.458 Z0.595 I1.984 J0.
X80.49 Z0.564 I-1.984 J0.
X84.458 Z0.532 I1.984 J0.
X80.49 Z0.501 I-1.984 J0.
X84.458 Z0.47 I1.984 J0.
X80.49 Z0.439 I-1.984 J0.
X84.458 Z0.408 I1.984 J0.
X80.49 Z0.377 I-1.984 J0.
X84.458 Z0.345 I1.984 J0.
X80.49 Z0.314 I-1.984 J0.
X84.458 Z0.283 I1.984 J0.
X80.49 Z0.252 I-1.984 J0.
X84.458 Z0.221 I1.984 J0.
X80.49 Z0.19 I-1.984 J0.
X84.458 Z0.158 I1.984 J0.
X80.49 Z0.127 I-1.984 J0.
X84.458 Z0.096 I1.984 J0.
X80.49 Z0.065 I-1.984 J0.
X84.458 Z0.034 I1.984 J0.
X80.49 Z0.003 I-1.984 J0.
X84.458 Z-0.029 I1.984 J0.
X80.49 Z-0.06 I-1.984 J0.
X84.458 Z-0.091 I1.984 J0.
X80.49 Z-0.122 I-1.984 J0.
X84.458 Z-0.153 I1.984 J0.
X80.49 Z-0.185 I-1.984 J0.
X84.458 Z-0.216 I1.984 J0.
X80.49 Z-0.247 I-1.984 J0.
X84.458 Z-0.278 I1.984 J0.
X80.49 Z-0.309 I-1.984 J0.
X84.458 Z-0.34 I1.984 J0.
X80.49 Z-0.372 I-1.984 J0.
X84.458 Z-0.403 I1.984 J0.
X80.49 Z-0.434 I-1.984 J0.
X84.458 Z-0.465 I1.984 J0.
X80.49 Z-0.496 I-1.984 J0.
X84.458 Z-0.527 I1.984 J0.
X80.49 Z-0.559 I-1.984 J0.
X84.458 Z-0.59 I1.984 J0.
X80.49 Z-0.621 I-1.984 J0.
X84.458 Z-0.652 I1.984 J0.
X80.49 Z-0.683 I-1.984 J0.
X84.458 Z-0.714 I1.984 J0.
X80.49 Z-0.746 I-1.984 J0.
X84.458 Z-0.777 I1.984 J0.
X80.49 Z-0.808 I-1.984 J0.
X84.458 Z-0.839 I1.984 J0.
X80.49 Z-0.87 I-1.984 J0.
X84.458 Z-0.901 I1.984 J0.
X80.49 Z-0.933 I-1.984 J0.
X84.458 Z-0.964 I1.984 J0.
X80.49 Z-0.995 I-1.984 J0.
X84.458 Z-1.026 I1.984 J0.
X80.49 Z-1.057 I-1.984 J0.
X84.458 Z-1.088 I1.984 J0.
X80.49 Z-1.12 I-1.984 J0.
X84.458 Z-1.151 I1.984 J0.
X80.49 Z-1.182 I-1.984 J0.
X84.458 Z-1.213 I1.984 J0.
X80.49 Z-1.244 I-1.984 J0.
X84.458 Z-1.276 I1.984 J0.
X80.49 Z-1.307 I-1.984 J0.
X84.458 Z-1.338 I1.984 J0.
X80.49 Z-1.369 I-1.984 J0.
X84.458 Z-1.4 I1.984 J0.
X80.49 Z-1.431 I-1.984 J0.
X84.458 Z-1.463 I1.984 J0.
X80.49 Z-1.494 I-1.984 J0.
X84.458 Z-1.525 I1.984 J0.
X80.49 Z-1.556 I-1.984 J0.
X84.458 Z-1.587 I1.984 J0.
X80.49 Z-1.618 I-1.984 J0.
X84.458 Z-1.65 I1.984 J0.
X80.49 Z-1.681 I-1.984 J0.
X84.458 Z-1.712 I1.984 J0.
X80.49 Z-1.743 I-1.984 J0.
X84.458 Z-1.774 I1.984 J0.
X80.49 Z-1.805 I-1.984 J0.
X84.458 Z-1.837 I1.984 J0.
X80.49 Z-1.868 I-1.984 J0.
X84.458 Z-1.899 I1.984 J0.
X80.49 Z-1.93 I-1.984 J0.
X84.458 Z-1.961 I1.984 J0.
X80.49 Z-1.992 I-1.984 J0.
X84.458 Z-2.024 I1.984 J0.
X80.49 Z-2.055 I-1.984 J0.
X84.458 Z-2.086 I1.984 J0.
X80.49 Z-2.117 I-1.984 J0.
X84.458 Z-2.148 I1.984 J0.
X80.49 Z-2.179 I-1.984 J0.
X84.458 Z-2.211 I1.984 J0.
X80.49 Z-2.242 I-1.984 J0.
X84.458 Z-2.273 I1.984 J0.
X80.49 Z-2.304 I-1.984 J0.
X84.458 Z-2.335 I1.984 J0.
X80.49 Z-2.366 I-1.984 J0.
X84.458 Z-2.398 I1.984 J0.
X80.49 Z-2.429 I-1.984 J0.
X84.458 Z-2.46 I1.984 J0.
X80.49 Z-2.491 I-1.984 J0.
X84.458 Z-2.522 I1.984 J0.
X80.49 Z-2.554 I-1.984 J0.
X84.458 Z-2.585 I1.984 J0.
X80.49 Z-2.616 I-1.984 J0.
X84.458 Z-2.647 I1.984 J0.
X80.49 Z-2.678 I-1.984 J0.
X84.458 Z-2.709 I1.984 J0.
X80.49 Z-2.741 I-1.984 J0.
X84.458 Z-2.772 I1.984 J0.
X80.49 Z-2.803 I-1.984 J0.
X84.458 Z-2.834 I1.984 J0.
X80.49 Z-2.865 I-1.984 J0.
X84.458 Z-2.896 I1.984 J0.
X80.49 Z-2.928 I-1.984 J0.
X84.458 Z-2.959 I1.984 J0.
X80.49 Z-2.99 I-1.984 J0.
X84.458 Z-3.021 I1.984 J0.
X80.49 Z-3.052 I-1.984 J0.
X84.458 Z-3.083 I1.984 J0.
X80.49 Z-3.115 I-1.984 J0.
X84.458 Z-3.146 I1.984 J0.
X80.49 Z-3.177 I-1.984 J0.
X84.458 Z-3.208 I1.984 J0.
X80.49 Z-3.239 I-1.984 J0.
X84.458 Z-3.27 I1.984 J0.
X80.49 Z-3.302 I-1.984 J0.
X84.458 Z-3.333 I1.984 J0.
X80.49 Z-3.364 I-1.984 J0.
X84.458 Z-3.395 I1.984 J0.
X80.49 Z-3.426 I-1.984 J0.
X84.458 Z-3.457 I1.984 J0.
X80.49 Z-3.489 I-1.984 J0.
X84.458 Z-3.52 I1.984 J0.
X80.49 Z-3.551 I-1.984 J0.
X84.458 Z-3.582 I1.984 J0.
X80.49 Z-3.613 I-1.984 J0.
X84.458 Z-3.645 I1.984 J0.
X80.49 Z-3.676 I-1.984 J0.
X84.458 Z-3.707 I1.984 J0.
X80.49 Z-3.738 I-1.984 J0.
X84.458 Z-3.769 I1.984 J0.
X80.49 Z-3.8 I-1.984 J0.
X84.458 Z-3.832 I1.984 J0.
X80.49 Z-3.863 I-1.984 J0.
X84.458 Z-3.894 I1.984 J0.
X80.49 Z-3.925 I-1.984 J0.
X84.458 Z-3.956 I1.984 J0.
X80.49 Z-3.987 I-1.984 J0.
X84.458 Z-4.019 I1.984 J0.
X80.49 Z-4.05 I-1.984 J0.
X84.458 Z-4.081 I1.984 J0.
X80.49 Z-4.112 I-1.984 J0.
X84.458 Z-4.143 I1.984 J0.
X80.49 Z-4.174 I-1.984 J0.
X84.458 Z-4.206 I1.984 J0.
X80.49 Z-4.237 I-1.984 J0.
X84.458 Z-4.268 I1.984 J0.
X80.49 Z-4.299 I-1.984 J0.
X84.458 Z-4.33 I1.984 J0.
X80.49 Z-4.361 I-1.984 J0.
X84.458 Z-4.393 I1.984 J0.
X80.49 Z-4.424 I-1.984 J0.
X84.458 Z-4.455 I1.984 J0.
X80.49 Z-4.486 I-1.984 J0.
X84.458 Z-4.517 I1.984 J0.
X80.49 Z-4.548 I-1.984 J0.
X84.458 Z-4.58 I1.984 J0.
X80.49 Z-4.611 I-1.984 J0.
X84.458 Z-4.642 I1.984 J0.
X82.292 Y229.3 Z-4.659 I-1.984 J0.
X80.523 Y231.639 Z-4.675 I0.182 J1.976
X84.425 Y230.912 I1.951 J-0.363
X80.523 Y231.639 I-1.951 J0.363
X80.894 Y231.893 I0.312 J-0.058
G1 X81.05 Y231.864
X81.119 Y231.851 Z-4.667
X81.185 Y231.839 Z-4.644
X81.244 Y231.828 Z-4.606
X81.294 Y231.818 Z-4.555
X81.331 Y231.812 Z-4.495
X81.354 Y231.807 Z-4.428
X81.362 Y231.806 Z-4.358
G0 Z6.
X55.883 Y230.958
Z3.
G1 Z1.317 F1600.
G18 G3 X55.566 Z1. I-0.318 K0.
G1 X55.407
G17 G2 X55.09 Y231.276 I0. J0.318
X59.058 Z0.969 I1.984 J0.
X55.09 Z0.938 I-1.984 J0.
X59.058 Z0.906 I1.984 J0.
X55.09 Z0.875 I-1.984 J0.
X59.058 Z0.844 I1.984 J0.
X55.09 Z0.813 I-1.984 J0.
X59.058 Z0.782 I1.984 J0.
X55.09 Z0.751 I-1.984 J0.
X59.058 Z0.719 I1.984 J0.
X55.09 Z0.688 I-1.984 J0.
X59.058 Z0.657 I1.984 J0.
X55.09 Z0.626 I-1.984 J0.
X59.058 Z0.595 I1.984 J0.
X55.09 Z0.564 I-1.984 J0.
X59.058 Z0.532 I1.984 J0.
X55.09 Z0.501 I-1.984 J0.
X59.058 Z0.47 I1.984 J0.
X55.09 Z0.439 I-1.984 J0.
X59.058 Z0.408 I1.984 J0.
X55.09 Z0.377 I-1.984 J0.
X59.058 Z0.345 I1.984 J0.
X55.09 Z0.314 I-1.984 J0.
X59.058 Z0.283 I1.984 J0.
X55.09 Z0.252 I-1.984 J0.
X59.058 Z0.221 I1.984 J0.
X55.09 Z0.19 I-1.984 J0.
X59.058 Z0.158 I1.984 J0.
X55.09 Z0.127 I-1.984 J0.
X59.058 Z0.096 I1.984 J0.
X55.09 Z0.065 I-1.984 J0.
X59.058 Z0.034 I1.984 J0.
X55.09 Z0.003 I-1.984 J0.
X59.058 Z-0.029 I1.984 J0.
X55.09 Z-0.06 I-1.984 J0.
X59.058 Z-0.091 I1.984 J0.
X55.09 Z-0.122 I-1.984 J0.
X59.058 Z-0.153 I1.984 J0.
X55.09 Z-0.185 I-1.984 J0.
X59.058 Z-0.216 I1.984 J0.
X55.09 Z-0.247 I-1.984 J0.
X59.058 Z-0.278 I1.984 J0.
X55.09 Z-0.309 I-1.984 J0.
X59.058 Z-0.34 I1.984 J0.
X55.09 Z-0.372 I-1.984 J0.
X59.058 Z-0.403 I1.984 J0.
X55.09 Z-0.434 I-1.984 J0.
X59.058 Z-0.465 I1.984 J0.
X55.09 Z-0.496 I-1.984 J0.
X59.058 Z-0.527 I1.984 J0.
X55.09 Z-0.559 I-1.984 J0.
X59.058 Z-0.59 I1.984 J0.
X55.09 Z-0.621 I-1.984 J0.
X59.058 Z-0.652 I1.984 J0.
X55.09 Z-0.683 I-1.984 J0.
X59.058 Z-0.714 I1.984 J0.
X55.09 Z-0.746 I-1.984 J0.
X59.058 Z-0.777 I1.984 J0.
X55.09 Z-0.808 I-1.984 J0.
X59.058 Z-0.839 I1.984 J0.
X55.09 Z-0.87 I-1.984 J0.
X59.058 Z-0.901 I1.984 J0.
X55.09 Z-0.933 I-1.984 J0.
X59.058 Z-0.964 I1.984 J0.
X55.09 Z-0.995 I-1.984 J0.
X59.058 Z-1.026 I1.984 J0.
X55.09 Z-1.057 I-1.984 J0.
X59.058 Z-1.088 I1.984 J0.
X55.09 Z-1.12 I-1.984 J0.
X59.058 Z-1.151 I1.984 J0.
X55.09 Z-1.182 I-1.984 J0.
X59.058 Z-1.213 I1.984 J0.
X55.09 Z-1.244 I-1.984 J0.
X59.058 Z-1.276 I1.984 J0.
X55.09 Z-1.307 I-1.984 J0.
X59.058 Z-1.338 I1.984 J0.
X55.09 Z-1.369 I-1.984 J0.
X59.058 Z-1.4 I1.984 J0.
X55.09 Z-1.431 I-1.984 J0.
X59.058 Z-1.463 I1.984 J0.
X55.09 Z-1.494 I-1.984 J0.
X59.058 Z-1.525 I1.984 J0.
X55.09 Z-1.556 I-1.984 J0.
X59.058 Z-1.587 I1.984 J0.
X55.09 Z-1.618 I-1.984 J0.
X59.058 Z-1.65 I1.984 J0.
X55.09 Z-1.681 I-1.984 J0.
X59.058 Z-1.712 I1.984 J0.
X55.09 Z-1.743 I-1.984 J0.
X59.058 Z-1.774 I1.984 J0.
X55.09 Z-1.805 I-1.984 J0.
X59.058 Z-1.837 I1.984 J0.
X55.09 Z-1.868 I-1.984 J0.
X59.058 Z-1.899 I1.984 J0.
X55.09 Z-1.93 I-1.984 J0.
X59.058 Z-1.961 I1.984 J0.
X55.09 Z-1.992 I-1.984 J0.
X59.058 Z-2.024 I1.984 J0.
X55.09 Z-2.055 I-1.984 J0.
X59.058 Z-2.086 I1.984 J0.
X55.09 Z-2.117 I-1.984 J0.
X59.058 Z-2.148 I1.984 J0.
X55.09 Z-2.179 I-1.984 J0.
X59.058 Z-2.211 I1.984 J0.
X55.09 Z-2.242 I-1.984 J0.
X59.058 Z-2.273 I1.984 J0.
X55.09 Z-2.304 I-1.984 J0.
X59.058 Z-2.335 I1.984 J0.
X55.09 Z-2.366 I-1.984 J0.
X59.058 Z-2.398 I1.984 J0.
X55.09 Z-2.429 I-1.984 J0.
X59.058 Z-2.46 I1.984 J0.
X55.09 Z-2.491 I-1.984 J0.
X59.058 Z-2.522 I1.984 J0.
X55.09 Z-2.554 I-1.984 J0.
X59.058 Z-2.585 I1.984 J0.
X55.09 Z-2.616 I-1.984 J0.
X59.058 Z-2.647 I1.984 J0.
X55.09 Z-2.678 I-1.984 J0.
X59.058 Z-2.709 I1.984 J0.
X55.09 Z-2.741 I-1.984 J0.
X59.058 Z-2.772 I1.984 J0.
X55.09 Z-2.803 I-1.984 J0.
X59.058 Z-2.834 I1.984 J0.
X55.09 Z-2.865 I-1.984 J0.
X59.058 Z-2.896 I1.984 J0.
X55.09 Z-2.928 I-1.984 J0.
X59.058 Z-2.959 I1.984 J0.
X55.09 Z-2.99 I-1.984 J0.
X59.058 Z-3.021 I1.984 J0.
X55.09 Z-3.052 I-1.984 J0.
X59.058 Z-3.083 I1.984 J0.
X55.09 Z-3.115 I-1.984 J0.
X59.058 Z-3.146 I1.984 J0.
X55.09 Z-3.177 I-1.984 J0.
X59.058 Z-3.208 I1.984 J0.
X55.09 Z-3.239 I-1.984 J0.
X59.058 Z-3.27 I1.984 J0.
X55.09 Z-3.302 I-1.984 J0.
X59.058 Z-3.333 I1.984 J0.
X55.09 Z-3.364 I-1.984 J0.
X59.058 Z-3.395 I1.984 J0.
X55.09 Z-3.426 I-1.984 J0.
X59.058 Z-3.457 I1.984 J0.
X55.09 Z-3.489 I-1.984 J0.
X59.058 Z-3.52 I1.984 J0.
X55.09 Z-3.551 I-1.984 J0.
X59.058 Z-3.582 I1.984 J0.
X55.09 Z-3.613 I-1.984 J0.
X59.058 Z-3.645 I1.984 J0.
X55.09 Z-3.676 I-1.984 J0.
X59.058 Z-3.707 I1.984 J0.
X55.09 Z-3.738 I-1.984 J0.
X59.058 Z-3.769 I1.984 J0.
X55.09 Z-3.8 I-1.984 J0.
X59.058 Z-3.832 I1.984 J0.
X55.09 Z-3.863 I-1.984 J0.
X59.058 Z-3.894 I1.984 J0.
X55.09 Z-3.925 I-1.984 J0.
X59.058 Z-3.956 I1.984 J0.
X55.09 Z-3.987 I-1.984 J0.
X59.058 Z-4.019 I1.984 J0.
X55.09 Z-4.05 I-1.984 J0.
X59.058 Z-4.081 I1.984 J0.
X55.09 Z-4.112 I-1.984 J0.
X59.058 Z-4.143 I1.984 J0.
X55.09 Z-4.174 I-1.984 J0.
X59.058 Z-4.206 I1.984 J0.
X55.09 Z-4.237 I-1.984 J0.
X59.058 Z-4.268 I1.984 J0.
X55.09 Z-4.299 I-1.984 J0.
X59.058 Z-4.33 I1.984 J0.
X55.09 Z-4.361 I-1.984 J0.
X59.058 Z-4.393 I1.984 J0.
X55.09 Z-4.424 I-1.984 J0.
X59.058 Z-4.455 I1.984 J0.
X55.09 Z-4.486 I-1.984 J0.
X59.058 Z-4.517 I1.984 J0.
X55.09 Z-4.548 I-1.984 J0.
X59.058 Z-4.58 I1.984 J0.
X55.09 Z-4.611 I-1.984 J0.
X59.058 Z-4.642 I1.984 J0.
X56.892 Y229.3 Z-4.659 I-1.984 J0.
X55.123 Y231.639 Z-4.675 I0.182 J1.976
X59.025 Y230.912 I1.951 J-0.363
X55.123 Y231.639 I-1.951 J0.363
X55.494 Y231.893 I0.312 J-0.058
G1 X55.65 Y231.864
X55.719 Y231.851 Z-4.667
X55.785 Y231.839 Z-4.644
X55.844 Y231.828 Z-4.606
X55.894 Y231.818 Z-4.555
X55.931 Y231.812 Z-4.495
X55.954 Y231.807 Z-4.428
X55.962 Y231.806 Z-4.358
G0 Z6.
X55.883 Y256.358
Z3.
G1 Z1.317 F1600.
G18 G3 X55.566 Z1. I-0.318 K0.
G1 X55.407
G17 G2 X55.09 Y256.676 I0. J0.318
X59.058 Z0.969 I1.984 J0.
X55.09 Z0.938 I-1.984 J0.
X59.058 Z0.906 I1.984 J0.
X55.09 Z0.875 I-1.984 J0.
X59.058 Z0.844 I1.984 J0.
X55.09 Z0.813 I-1.984 J0.
X59.058 Z0.782 I1.984 J0.
X55.09 Z0.751 I-1.984 J0.
X59.058 Z0.719 I1.984 J0.
X55.09 Z0.688 I-1.984 J0.
X59.058 Z0.657 I1.984 J0.
X55.09 Z0.626 I-1.984 J0.
X59.058 Z0.595 I1.984 J0.
X55.09 Z0.564 I-1.984 J0.
X59.058 Z0.532 I1.984 J0.
X55.09 Z0.501 I-1.984 J0.
X59.058 Z0.47 I1.984 J0.
X55.09 Z0.439 I-1.984 J0.
X59.058 Z0.408 I1.984 J0.
X55.09 Z0.377 I-1.984 J0.
X59.058 Z0.345 I1.984 J0.
X55.09 Z0.314 I-1.984 J0.
X59.058 Z0.283 I1.984 J0.
X55.09 Z0.252 I-1.984 J0.
X59.058 Z0.221 I1.984 J0.
X55.09 Z0.19 I-1.984 J0.
X59.058 Z0.158 I1.984 J0.
X55.09 Z0.127 I-1.984 J0.
X59.058 Z0.096 I1.984 J0.
X55.09 Z0.065 I-1.984 J0.
X59.058 Z0.034 I1.984 J0.
X55.09 Z0.003 I-1.984 J0.
X59.058 Z-0.029 I1.984 J0.
X55.09 Z-0.06 I-1.984 J0.
X59.058 Z-0.091 I1.984 J0.
X55.09 Z-0.122 I-1.984 J0.
X59.058 Z-0.153 I1.984 J0.
X55.09 Z-0.185 I-1.984 J0.
X59.058 Z-0.216 I1.984 J0.
X55.09 Z-0.247 I-1.984 J0.
X59.058 Z-0.278 I1.984 J0.
X55.09 Z-0.309 I-1.984 J0.
X59.058 Z-0.34 I1.984 J0.
X55.09 Z-0.372 I-1.984 J0.
X59.058 Z-0.403 I1.984 J0.
X55.09 Z-0.434 I-1.984 J0.
X59.058 Z-0.465 I1.984 J0.
X55.09 Z-0.496 I-1.984 J0.
X59.058 Z-0.527 I1.984 J0.
X55.09 Z-0.559 I-1.984 J0.
X59.058 Z-0.59 I1.984 J0.
X55.09 Z-0.621 I-1.984 J0.
X59.058 Z-0.652 I1.984 J0.
X55.09 Z-0.683 I-1.984 J0.
X59.058 Z-0.714 I1.984 J0.
X55.09 Z-0.746 I-1.984 J0.
X59.058 Z-0.777 I1.984 J0.
X55.09 Z-0.808 I-1.984 J0.
X59.058 Z-0.839 I1.984 J0.
X55.09 Z-0.87 I-1.984 J0.
X59.058 Z-0.901 I1.984 J0.
X55.09 Z-0.933 I-1.984 J0.
X59.058 Z-0.964 I1.984 J0.
X55.09 Z-0.995 I-1.984 J0.
X59.058 Z-1.026 I1.984 J0.
X55.09 Z-1.057 I-1.984 J0.
X59.058 Z-1.088 I1.984 J0.
X55.09 Z-1.12 I-1.984 J0.
X59.058 Z-1.151 I1.984 J0.
X55.09 Z-1.182 I-1.984 J0.
X59.058 Z-1.213 I1.984 J0.
X55.09 Z-1.244 I-1.984 J0.
X59.058 Z-1.276 I1.984 J0.
X55.09 Z-1.307 I-1.984 J0.
X59.058 Z-1.338 I1.984 J0.
X55.09 Z-1.369 I-1.984 J0.
X59.058 Z-1.4 I1.984 J0.
X55.09 Z-1.431 I-1.984 J0.
X59.058 Z-1.463 I1.984 J0.
X55.09 Z-1.494 I-1.984 J0.
X59.058 Z-1.525 I1.984 J0.
X55.09 Z-1.556 I-1.984 J0.
X59.058 Z-1.587 I1.984 J0.
X55.09 Z-1.618 I-1.984 J0.
X59.058 Z-1.65 I1.984 J0.
X55.09 Z-1.681 I-1.984 J0.
X59.058 Z-1.712 I1.984 J0.
X55.09 Z-1.743 I-1.984 J0.
X59.058 Z-1.774 I1.984 J0.
X55.09 Z-1.805 I-1.984 J0.
X59.058 Z-1.837 I1.984 J0.
X55.09 Z-1.868 I-1.984 J0.
X59.058 Z-1.899 I1.984 J0.
X55.09 Z-1.93 I-1.984 J0.
X59.058 Z-1.961 I1.984 J0.
X55.09 Z-1.992 I-1.984 J0.
X59.058 Z-2.024 I1.984 J0.
X55.09 Z-2.055 I-1.984 J0.
X59.058 Z-2.086 I1.984 J0.
X55.09 Z-2.117 I-1.984 J0.
X59.058 Z-2.148 I1.984 J0.
X55.09 Z-2.179 I-1.984 J0.
X59.058 Z-2.211 I1.984 J0.
X55.09 Z-2.242 I-1.984 J0.
X59.058 Z-2.273 I1.984 J0.
X55.09 Z-2.304 I-1.984 J0.
X59.058 Z-2.335 I1.984 J0.
X55.09 Z-2.366 I-1.984 J0.
X59.058 Z-2.398 I1.984 J0.
X55.09 Z-2.429 I-1.984 J0.
X59.058 Z-2.46 I1.984 J0.
X55.09 Z-2.491 I-1.984 J0.
X59.058 Z-2.522 I1.984 J0.
X55.09 Z-2.554 I-1.984 J0.
X59.058 Z-2.585 I1.984 J0.
X55.09 Z-2.616 I-1.984 J0.
X59.058 Z-2.647 I1.984 J0.
X55.09 Z-2.678 I-1.984 J0.
X59.058 Z-2.709 I1.984 J0.
X55.09 Z-2.741 I-1.984 J0.
X59.058 Z-2.772 I1.984 J0.
X55.09 Z-2.803 I-1.984 J0.
X59.058 Z-2.834 I1.984 J0.
X55.09 Z-2.865 I-1.984 J0.
X59.058 Z-2.896 I1.984 J0.
X55.09 Z-2.928 I-1.984 J0.
X59.058 Z-2.959 I1.984 J0.
X55.09 Z-2.99 I-1.984 J0.
X59.058 Z-3.021 I1.984 J0.
X55.09 Z-3.052 I-1.984 J0.
X59.058 Z-3.083 I1.984 J0.
X55.09 Z-3.115 I-1.984 J0.
X59.058 Z-3.146 I1.984 J0.
X55.09 Z-3.177 I-1.984 J0.
X59.058 Z-3.208 I1.984 J0.
X55.09 Z-3.239 I-1.984 J0.
X59.058 Z-3.27 I1.984 J0.
X55.09 Z-3.302 I-1.984 J0.
X59.058 Z-3.333 I1.984 J0.
X55.09 Z-3.364 I-1.984 J0.
X59.058 Z-3.395 I1.984 J0.
X55.09 Z-3.426 I-1.984 J0.
X59.058 Z-3.457 I1.984 J0.
X55.09 Z-3.489 I-1.984 J0.
X59.058 Z-3.52 I1.984 J0.
X55.09 Z-3.551 I-1.984 J0.
X59.058 Z-3.582 I1.984 J0.
X55.09 Z-3.613 I-1.984 J0.
X59.058 Z-3.645 I1.984 J0.
X55.09 Z-3.676 I-1.984 J0.
X59.058 Z-3.707 I1.984 J0.
X55.09 Z-3.738 I-1.984 J0.
X59.058 Z-3.769 I1.984 J0.
X55.09 Z-3.8 I-1.984 J0.
X59.058 Z-3.832 I1.984 J0.
X55.09 Z-3.863 I-1.984 J0.
X59.058 Z-3.894 I1.984 J0.
X55.09 Z-3.925 I-1.984 J0.
X59.058 Z-3.956 I1.984 J0.
X55.09 Z-3.987 I-1.984 J0.
X59.058 Z-4.019 I1.984 J0.
X55.09 Z-4.05 I-1.984 J0.
X59.058 Z-4.081 I1.984 J0.
X55.09 Z-4.112 I-1.984 J0.
X59.058 Z-4.143 I1.984 J0.
X55.09 Z-4.174 I-1.984 J0.
X59.058 Z-4.206 I1.984 J0.
X55.09 Z-4.237 I-1.984 J0.
X59.058 Z-4.268 I1.984 J0.
X55.09 Z-4.299 I-1.984 J0.
X59.058 Z-4.33 I1.984 J0.
X55.09 Z-4.361 I-1.984 J0.
X59.058 Z-4.393 I1.984 J0.
X55.09 Z-4.424 I-1.984 J0.
X59.058 Z-4.455 I1.984 J0.
X55.09 Z-4.486 I-1.984 J0.
X59.058 Z-4.517 I1.984 J0.
X55.09 Z-4.548 I-1.984 J0.
X59.058 Z-4.58 I1.984 J0.
X55.09 Z-4.611 I-1.984 J0.
X59.058 Z-4.642 I1.984 J0.
X56.892 Y254.7 Z-4.659 I-1.984 J0.
X55.123 Y257.039 Z-4.675 I0.182 J1.976
X59.025 Y256.312 I1.951 J-0.363
X55.123 Y257.039 I-1.951 J0.363
X55.494 Y257.293 I0.312 J-0.058
G1 X55.65 Y257.264
X55.719 Y257.251 Z-4.667
X55.785 Y257.239 Z-4.644
X55.844 Y257.228 Z-4.606
X55.894 Y257.218 Z-4.555
X55.931 Y257.212 Z-4.495
X55.954 Y257.207 Z-4.428
X55.962 Y257.206 Z-4.358
G0 Z6.
X81.283 Y256.358
Z3.
G1 Z1.317 F1600.
G18 G3 X80.966 Z1. I-0.317 K0.
G1 X80.807
G17 G2 X80.49 Y256.676 I0. J0.318
X84.458 Z0.969 I1.984 J0.
X80.49 Z0.938 I-1.984 J0.
X84.458 Z0.906 I1.984 J0.
X80.49 Z0.875 I-1.984 J0.
X84.458 Z0.844 I1.984 J0.
X80.49 Z0.813 I-1.984 J0.
X84.458 Z0.782 I1.984 J0.
X80.49 Z0.751 I-1.984 J0.
X84.458 Z0.719 I1.984 J0.
X80.49 Z0.688 I-1.984 J0.
X84.458 Z0.657 I1.984 J0.
X80.49 Z0.626 I-1.984 J0.
X84.458 Z0.595 I1.984 J0.
X80.49 Z0.564 I-1.984 J0.
X84.458 Z0.532 I1.984 J0.
X80.49 Z0.501 I-1.984 J0.
X84.458 Z0.47 I1.984 J0.
X80.49 Z0.439 I-1.984 J0.
X84.458 Z0.408 I1.984 J0.
X80.49 Z0.377 I-1.984 J0.
X84.458 Z0.345 I1.984 J0.
X80.49 Z0.314 I-1.984 J0.
X84.458 Z0.283 I1.984 J0.
X80.49 Z0.252 I-1.984 J0.
X84.458 Z0.221 I1.984 J0.
X80.49 Z0.19 I-1.984 J0.
X84.458 Z0.158 I1.984 J0.
X80.49 Z0.127 I-1.984 J0.
X84.458 Z0.096 I1.984 J0.
X80.49 Z0.065 I-1.984 J0.
X84.458 Z0.034 I1.984 J0.
X80.49 Z0.003 I-1.984 J0.
X84.458 Z-0.029 I1.984 J0.
X80.49 Z-0.06 I-1.984 J0.
X84.458 Z-0.091 I1.984 J0.
X80.49 Z-0.122 I-1.984 J0.
X84.458 Z-0.153 I1.984 J0.
X80.49 Z-0.185 I-1.984 J0.
X84.458 Z-0.216 I1.984 J0.
X80.49 Z-0.247 I-1.984 J0.
X84.458 Z-0.278 I1.984 J0.
X80.49 Z-0.309 I-1.984 J0.
X84.458 Z-0.34 I1.984 J0.
X80.49 Z-0.372 I-1.984 J0.
X84.458 Z-0.403 I1.984 J0.
X80.49 Z-0.434 I-1.984 J0.
X84.458 Z-0.465 I1.984 J0.
X80.49 Z-0.496 I-1.984 J0.
X84.458 Z-0.527 I1.984 J0.
X80.49 Z-0.559 I-1.984 J0.
X84.458 Z-0.59 I1.984 J0.
X80.49 Z-0.621 I-1.984 J0.
X84.458 Z-0.652 I1.984 J0.
X80.49 Z-0.683 I-1.984 J0.
X84.458 Z-0.714 I1.984 J0.
X80.49 Z-0.746 I-1.984 J0.
X84.458 Z-0.777 I1.984 J0.
X80.49 Z-0.808 I-1.984 J0.
X84.458 Z-0.839 I1.984 J0.
X80.49 Z-0.87 I-1.984 J0.
X84.458 Z-0.901 I1.984 J0.
X80.49 Z-0.933 I-1.984 J0.
X84.458 Z-0.964 I1.984 J0.
X80.49 Z-0.995 I-1.984 J0.
X84.458 Z-1.026 I1.984 J0.
X80.49 Z-1.057 I-1.984 J0.
X84.458 Z-1.088 I1.984 J0.
X80.49 Z-1.12 I-1.984 J0.
X84.458 Z-1.151 I1.984 J0.
X80.49 Z-1.182 I-1.984 J0.
X84.458 Z-1.213 I1.984 J0.
X80.49 Z-1.244 I-1.984 J0.
X84.458 Z-1.276 I1.984 J0.
X80.49 Z-1.307 I-1.984 J0.
X84.458 Z-1.338 I1.984 J0.
X80.49 Z-1.369 I-1.984 J0.
X84.458 Z-1.4 I1.984 J0.
X80.49 Z-1.431 I-1.984 J0.
X84.458 Z-1.463 I1.984 J0.
X80.49 Z-1.494 I-1.984 J0.
X84.458 Z-1.525 I1.984 J0.
X80.49 Z-1.556 I-1.984 J0.
X84.458 Z-1.587 I1.984 J0.
X80.49 Z-1.618 I-1.984 J0.
X84.458 Z-1.65 I1.984 J0.
X80.49 Z-1.681 I-1.984 J0.
X84.458 Z-1.712 I1.984 J0.
X80.49 Z-1.743 I-1.984 J0.
X84.458 Z-1.774 I1.984 J0.
X80.49 Z-1.805 I-1.984 J0.
X84.458 Z-1.837 I1.984 J0.
X80.49 Z-1.868 I-1.984 J0.
X84.458 Z-1.899 I1.984 J0.
X80.49 Z-1.93 I-1.984 J0.
X84.458 Z-1.961 I1.984 J0.
X80.49 Z-1.992 I-1.984 J0.
X84.458 Z-2.024 I1.984 J0.
X80.49 Z-2.055 I-1.984 J0.
X84.458 Z-2.086 I1.984 J0.
X80.49 Z-2.117 I-1.984 J0.
X84.458 Z-2.148 I1.984 J0.
X80.49 Z-2.179 I-1.984 J0.
X84.458 Z-2.211 I1.984 J0.
X80.49 Z-2.242 I-1.984 J0.
X84.458 Z-2.273 I1.984 J0.
X80.49 Z-2.304 I-1.984 J0.
X84.458 Z-2.335 I1.984 J0.
X80.49 Z-2.366 I-1.984 J0.
X84.458 Z-2.398 I1.984 J0.
X80.49 Z-2.429 I-1.984 J0.
X84.458 Z-2.46 I1.984 J0.
X80.49 Z-2.491 I-1.984 J0.
X84.458 Z-2.522 I1.984 J0.
X80.49 Z-2.554 I-1.984 J0.
X84.458 Z-2.585 I1.984 J0.
X80.49 Z-2.616 I-1.984 J0.
X84.458 Z-2.647 I1.984 J0.
X80.49 Z-2.678 I-1.984 J0.
X84.458 Z-2.709 I1.984 J0.
X80.49 Z-2.741 I-1.984 J0.
X84.458 Z-2.772 I1.984 J0.
X80.49 Z-2.803 I-1.984 J0.
X84.458 Z-2.834 I1.984 J0.
X80.49 Z-2.865 I-1.984 J0.
X84.458 Z-2.896 I1.984 J0.
X80.49 Z-2.928 I-1.984 J0.
X84.458 Z-2.959 I1.984 J0.
X80.49 Z-2.99 I-1.984 J0.
X84.458 Z-3.021 I1.984 J0.
X80.49 Z-3.052 I-1.984 J0.
X84.458 Z-3.083 I1.984 J0.
X80.49 Z-3.115 I-1.984 J0.
X84.458 Z-3.146 I1.984 J0.
X80.49 Z-3.177 I-1.984 J0.
X84.458 Z-3.208 I1.984 J0.
X80.49 Z-3.239 I-1.984 J0.
X84.458 Z-3.27 I1.984 J0.
X80.49 Z-3.302 I-1.984 J0.
X84.458 Z-3.333 I1.984 J0.
X80.49 Z-3.364 I-1.984 J0.
X84.458 Z-3.395 I1.984 J0.
X80.49 Z-3.426 I-1.984 J0.
X84.458 Z-3.457 I1.984 J0.
X80.49 Z-3.489 I-1.984 J0.
X84.458 Z-3.52 I1.984 J0.
X80.49 Z-3.551 I-1.984 J0.
X84.458 Z-3.582 I1.984 J0.
X80.49 Z-3.613 I-1.984 J0.
X84.458 Z-3.645 I1.984 J0.
X80.49 Z-3.676 I-1.984 J0.
X84.458 Z-3.707 I1.984 J0.
X80.49 Z-3.738 I-1.984 J0.
X84.458 Z-3.769 I1.984 J0.
X80.49 Z-3.8 I-1.984 J0.
X84.458 Z-3.832 I1.984 J0.
X80.49 Z-3.863 I-1.984 J0.
X84.458 Z-3.894 I1.984 J0.
X80.49 Z-3.925 I-1.984 J0.
X84.458 Z-3.956 I1.984 J0.
X80.49 Z-3.987 I-1.984 J0.
X84.458 Z-4.019 I1.984 J0.
X80.49 Z-4.05 I-1.984 J0.
X84.458 Z-4.081 I1.984 J0.
X80.49 Z-4.112 I-1.984 J0.
X84.458 Z-4.143 I1.984 J0.
X80.49 Z-4.174 I-1.984 J0.
X84.458 Z-4.206 I1.984 J0.
X80.49 Z-4.237 I-1.984 J0.
X84.458 Z-4.268 I1.984 J0.
X80.49 Z-4.299 I-1.984 J0.
X84.458 Z-4.33 I1.984 J0.
X80.49 Z-4.361 I-1.984 J0.
X84.458 Z-4.393 I1.984 J0.
X80.49 Z-4.424 I-1.984 J0.
X84.458 Z-4.455 I1.984 J0.
X80.49 Z-4.486 I-1.984 J0.
X84.458 Z-4.517 I1.984 J0.
X80.49 Z-4.548 I-1.984 J0.
X84.458 Z-4.58 I1.984 J0.
X80.49 Z-4.611 I-1.984 J0.
X84.458 Z-4.642 I1.984 J0.
X82.292 Y254.7 Z-4.659 I-1.984 J0.
X80.523 Y257.039 Z-4.675 I0.182 J1.976
X84.425 Y256.312 I1.951 J-0.363
X80.523 Y257.039 I-1.951 J0.363
X80.894 Y257.293 I0.312 J-0.058
G1 X81.05 Y257.264
X81.119 Y257.251 Z-4.667
X81.185 Y257.239 Z-4.644
X81.244 Y257.228 Z-4.606
X81.294 Y257.218 Z-4.555
X81.331 Y257.212 Z-4.495
X81.354 Y257.207 Z-4.428
X81.362 Y257.206 Z-4.358
G0 Z6.
X81.283 Y281.758
Z3.
G1 Z1.317 F1600.
G18 G3 X80.966 Z1. I-0.317 K0.
G1 X80.807
G17 G2 X80.49 Y282.076 I0. J0.318
X84.458 Z0.969 I1.984 J0.
X80.49 Z0.938 I-1.984 J0.
X84.458 Z0.906 I1.984 J0.
X80.49 Z0.875 I-1.984 J0.
X84.458 Z0.844 I1.984 J0.
X80.49 Z0.813 I-1.984 J0.
X84.458 Z0.782 I1.984 J0.
X80.49 Z0.751 I-1.984 J0.
X84.458 Z0.719 I1.984 J0.
X80.49 Z0.688 I-1.984 J0.
X84.458 Z0.657 I1.984 J0.
X80.49 Z0.626 I-1.984 J0.
X84.458 Z0.595 I1.984 J0.
X80.49 Z0.564 I-1.984 J0.
X84.458 Z0.532 I1.984 J0.
X80.49 Z0.501 I-1.984 J0.
X84.458 Z0.47 I1.984 J0.
X80.49 Z0.439 I-1.984 J0.
X84.458 Z0.408 I1.984 J0.
X80.49 Z0.377 I-1.984 J0.
X84.458 Z0.345 I1.984 J0.
X80.49 Z0.314 I-1.984 J0.
X84.458 Z0.283 I1.984 J0.
X80.49 Z0.252 I-1.984 J0.
X84.458 Z0.221 I1.984 J0.
X80.49 Z0.19 I-1.984 J0.
X84.458 Z0.158 I1.984 J0.
X80.49 Z0.127 I-1.984 J0.
X84.458 Z0.096 I1.984 J0.
X80.49 Z0.065 I-1.984 J0.
X84.458 Z0.034 I1.984 J0.
X80.49 Z0.003 I-1.984 J0.
X84.458 Z-0.029 I1.984 J0.
X80.49 Z-0.06 I-1.984 J0.
X84.458 Z-0.091 I1.984 J0.
X80.49 Z-0.122 I-1.984 J0.
X84.458 Z-0.153 I1.984 J0.
X80.49 Z-0.185 I-1.984 J0.
X84.458 Z-0.216 I1.984 J0.
X80.49 Z-0.247 I-1.984 J0.
X84.458 Z-0.278 I1.984 J0.
X80.49 Z-0.309 I-1.984 J0.
X84.458 Z-0.34 I1.984 J0.
X80.49 Z-0.372 I-1.984 J0.
X84.458 Z-0.403 I1.984 J0.
X80.49 Z-0.434 I-1.984 J0.
X84.458 Z-0.465 I1.984 J0.
X80.49 Z-0.496 I-1.984 J0.
X84.458 Z-0.527 I1.984 J0.
X80.49 Z-0.559 I-1.984 J0.
X84.458 Z-0.59 I1.984 J0.
X80.49 Z-0.621 I-1.984 J0.
X84.458 Z-0.652 I1.984 J0.
X80.49 Z-0.683 I-1.984 J0.
X84.458 Z-0.714 I1.984 J0.
X80.49 Z-0.746 I-1.984 J0.
X84.458 Z-0.777 I1.984 J0.
X80.49 Z-0.808 I-1.984 J0.
X84.458 Z-0.839 I1.984 J0.
X80.49 Z-0.87 I-1.984 J0.
X84.458 Z-0.901 I1.984 J0.
X80.49 Z-0.933 I-1.984 J0.
X84.458 Z-0.964 I1.984 J0.
X80.49 Z-0.995 I-1.984 J0.
X84.458 Z-1.026 I1.984 J0.
X80.49 Z-1.057 I-1.984 J0.
X84.458 Z-1.088 I1.984 J0.
X80.49 Z-1.12 I-1.984 J0.
X84.458 Z-1.151 I1.984 J0.
X80.49 Z-1.182 I-1.984 J0.
X84.458 Z-1.213 I1.984 J0.
X80.49 Z-1.244 I-1.984 J0.
X84.458 Z-1.276 I1.984 J0.
X80.49 Z-1.307 I-1.984 J0.
X84.458 Z-1.338 I1.984 J0.
X80.49 Z-1.369 I-1.984 J0.
X84.458 Z-1.4 I1.984 J0.
X80.49 Z-1.431 I-1.984 J0.
X84.458 Z-1.463 I1.984 J0.
X80.49 Z-1.494 I-1.984 J0.
X84.458 Z-1.525 I1.984 J0.
X80.49 Z-1.556 I-1.984 J0.
X84.458 Z-1.587 I1.984 J0.
X80.49 Z-1.618 I-1.984 J0.
X84.458 Z-1.65 I1.984 J0.
X80.49 Z-1.681 I-1.984 J0.
X84.458 Z-1.712 I1.984 J0.
X80.49 Z-1.743 I-1.984 J0.
X84.458 Z-1.774 I1.984 J0.
X80.49 Z-1.805 I-1.984 J0.
X84.458 Z-1.837 I1.984 J0.
X80.49 Z-1.868 I-1.984 J0.
X84.458 Z-1.899 I1.984 J0.
X80.49 Z-1.93 I-1.984 J0.
X84.458 Z-1.961 I1.984 J0.
X80.49 Z-1.992 I-1.984 J0.
X84.458 Z-2.024 I1.984 J0.
X80.49 Z-2.055 I-1.984 J0.
X84.458 Z-2.086 I1.984 J0.
X80.49 Z-2.117 I-1.984 J0.
X84.458 Z-2.148 I1.984 J0.
X80.49 Z-2.179 I-1.984 J0.
X84.458 Z-2.211 I1.984 J0.
X80.49 Z-2.242 I-1.984 J0.
X84.458 Z-2.273 I1.984 J0.
X80.49 Z-2.304 I-1.984 J0.
X84.458 Z-2.335 I1.984 J0.
X80.49 Z-2.366 I-1.984 J0.
X84.458 Z-2.398 I1.984 J0.
X80.49 Z-2.429 I-1.984 J0.
X84.458 Z-2.46 I1.984 J0.
X80.49 Z-2.491 I-1.984 J0.
X84.458 Z-2.522 I1.984 J0.
X80.49 Z-2.554 I-1.984 J0.
X84.458 Z-2.585 I1.984 J0.
X80.49 Z-2.616 I-1.984 J0.
X84.458 Z-2.647 I1.984 J0.
X80.49 Z-2.678 I-1.984 J0.
X84.458 Z-2.709 I1.984 J0.
X80.49 Z-2.741 I-1.984 J0.
X84.458 Z-2.772 I1.984 J0.
X80.49 Z-2.803 I-1.984 J0.
X84.458 Z-2.834 I1.984 J0.
X80.49 Z-2.865 I-1.984 J0.
X84.458 Z-2.896 I1.984 J0.
X80.49 Z-2.928 I-1.984 J0.
X84.458 Z-2.959 I1.984 J0.
X80.49 Z-2.99 I-1.984 J0.
X84.458 Z-3.021 I1.984 J0.
X80.49 Z-3.052 I-1.984 J0.
X84.458 Z-3.083 I1.984 J0.
X80.49 Z-3.115 I-1.984 J0.
X84.458 Z-3.146 I1.984 J0.
X80.49 Z-3.177 I-1.984 J0.
X84.458 Z-3.208 I1.984 J0.
X80.49 Z-3.239 I-1.984 J0.
X84.458 Z-3.27 I1.984 J0.
X80.49 Z-3.302 I-1.984 J0.
X84.458 Z-3.333 I1.984 J0.
X80.49 Z-3.364 I-1.984 J0.
X84.458 Z-3.395 I1.984 J0.
X80.49 Z-3.426 I-1.984 J0.
X84.458 Z-3.457 I1.984 J0.
X80.49 Z-3.489 I-1.984 J0.
X84.458 Z-3.52 I1.984 J0.
X80.49 Z-3.551 I-1.984 J0.
X84.458 Z-3.582 I1.984 J0.
X80.49 Z-3.613 I-1.984 J0.
X84.458 Z-3.645 I1.984 J0.
X80.49 Z-3.676 I-1.984 J0.
X84.458 Z-3.707 I1.984 J0.
X80.49 Z-3.738 I-1.984 J0.
X84.458 Z-3.769 I1.984 J0.
X80.49 Z-3.8 I-1.984 J0.
X84.458 Z-3.832 I1.984 J0.
X80.49 Z-3.863 I-1.984 J0.
X84.458 Z-3.894 I1.984 J0.
X80.49 Z-3.925 I-1.984 J0.
X84.458 Z-3.956 I1.984 J0.
X80.49 Z-3.987 I-1.984 J0.
X84.458 Z-4.019 I1.984 J0.
X80.49 Z-4.05 I-1.984 J0.
X84.458 Z-4.081 I1.984 J0.
X80.49 Z-4.112 I-1.984 J0.
X84.458 Z-4.143 I1.984 J0.
X80.49 Z-4.174 I-1.984 J0.
X84.458 Z-4.206 I1.984 J0.
X80.49 Z-4.237 I-1.984 J0.
X84.458 Z-4.268 I1.984 J0.
X80.49 Z-4.299 I-1.984 J0.
X84.458 Z-4.33 I1.984 J0.
X80.49 Z-4.361 I-1.984 J0.
X84.458 Z-4.393 I1.984 J0.
X80.49 Z-4.424 I-1.984 J0.
X84.458 Z-4.455 I1.984 J0.
X80.49 Z-4.486 I-1.984 J0.
X84.458 Z-4.517 I1.984 J0.
X80.49 Z-4.548 I-1.984 J0.
X84.458 Z-4.58 I1.984 J0.
X80.49 Z-4.611 I-1.984 J0.
X84.458 Z-4.642 I1.984 J0.
X82.292 Y280.1 Z-4.659 I-1.984 J0.
X80.523 Y282.439 Z-4.675 I0.182 J1.976
X84.425 Y281.712 I1.951 J-0.363
X80.523 Y282.439 I-1.951 J0.363
X80.894 Y282.693 I0.312 J-0.058
G1 X81.05 Y282.664
X81.119 Y282.651 Z-4.667
X81.185 Y282.639 Z-4.644
X81.244 Y282.628 Z-4.606
X81.294 Y282.618 Z-4.555
X81.331 Y282.612 Z-4.495
X81.354 Y282.607 Z-4.428
X81.362 Y282.606 Z-4.358
G0 Z6.
X55.883 Y281.758
Z3.
G1 Z1.317 F1600.
G18 G3 X55.566 Z1. I-0.318 K0.
G1 X55.407
G17 G2 X55.09 Y282.076 I0. J0.318
X59.058 Z0.969 I1.984 J0.
X55.09 Z0.938 I-1.984 J0.
X59.058 Z0.906 I1.984 J0.
X55.09 Z0.875 I-1.984 J0.
X59.058 Z0.844 I1.984 J0.
X55.09 Z0.813 I-1.984 J0.
X59.058 Z0.782 I1.984 J0.
X55.09 Z0.751 I-1.984 J0.
X59.058 Z0.719 I1.984 J0.
X55.09 Z0.688 I-1.984 J0.
X59.058 Z0.657 I1.984 J0.
X55.09 Z0.626 I-1.984 J0.
X59.058 Z0.595 I1.984 J0.
X55.09 Z0.564 I-1.984 J0.
X59.058 Z0.532 I1.984 J0.
X55.09 Z0.501 I-1.984 J0.
X59.058 Z0.47 I1.984 J0.
X55.09 Z0.439 I-1.984 J0.
X59.058 Z0.408 I1.984 J0.
X55.09 Z0.377 I-1.984 J0.
X59.058 Z0.345 I1.984 J0.
X55.09 Z0.314 I-1.984 J0.
X59.058 Z0.283 I1.984 J0.
X55.09 Z0.252 I-1.984 J0.
X59.058 Z0.221 I1.984 J0.
X55.09 Z0.19 I-1.984 J0.
X59.058 Z0.158 I1.984 J0.
X55.09 Z0.127 I-1.984 J0.
X59.058 Z0.096 I1.984 J0.
X55.09 Z0.065 I-1.984 J0.
X59.058 Z0.034 I1.984 J0.
X55.09 Z0.003 I-1.984 J0.
X59.058 Z-0.029 I1.984 J0.
X55.09 Z-0.06 I-1.984 J0.
X59.058 Z-0.091 I1.984 J0.
X55.09 Z-0.122 I-1.984 J0.
X59.058 Z-0.153 I1.984 J0.
X55.09 Z-0.185 I-1.984 J0.
X59.058 Z-0.216 I1.984 J0.
X55.09 Z-0.247 I-1.984 J0.
X59.058 Z-0.278 I1.984 J0.
X55.09 Z-0.309 I-1.984 J0.
X59.058 Z-0.34 I1.984 J0.
X55.09 Z-0.372 I-1.984 J0.
X59.058 Z-0.403 I1.984 J0.
X55.09 Z-0.434 I-1.984 J0.
X59.058 Z-0.465 I1.984 J0.
X55.09 Z-0.496 I-1.984 J0.
X59.058 Z-0.527 I1.984 J0.
X55.09 Z-0.559 I-1.984 J0.
X59.058 Z-0.59 I1.984 J0.
X55.09 Z-0.621 I-1.984 J0.
X59.058 Z-0.652 I1.984 J0.
X55.09 Z-0.683 I-1.984 J0.
X59.058 Z-0.714 I1.984 J0.
X55.09 Z-0.746 I-1.984 J0.
X59.058 Z-0.777 I1.984 J0.
X55.09 Z-0.808 I-1.984 J0.
X59.058 Z-0.839 I1.984 J0.
X55.09 Z-0.87 I-1.984 J0.
X59.058 Z-0.901 I1.984 J0.
X55.09 Z-0.933 I-1.984 J0.
X59.058 Z-0.964 I1.984 J0.
X55.09 Z-0.995 I-1.984 J0.
X59.058 Z-1.026 I1.984 J0.
X55.09 Z-1.057 I-1.984 J0.
X59.058 Z-1.088 I1.984 J0.
X55.09 Z-1.12 I-1.984 J0.
X59.058 Z-1.151 I1.984 J0.
X55.09 Z-1.182 I-1.984 J0.
X59.058 Z-1.213 I1.984 J0.
X55.09 Z-1.244 I-1.984 J0.
X59.058 Z-1.276 I1.984 J0.
X55.09 Z-1.307 I-1.984 J0.
X59.058 Z-1.338 I1.984 J0.
X55.09 Z-1.369 I-1.984 J0.
X59.058 Z-1.4 I1.984 J0.
X55.09 Z-1.431 I-1.984 J0.
X59.058 Z-1.463 I1.984 J0.
X55.09 Z-1.494 I-1.984 J0.
X59.058 Z-1.525 I1.984 J0.
X55.09 Z-1.556 I-1.984 J0.
X59.058 Z-1.587 I1.984 J0.
X55.09 Z-1.618 I-1.984 J0.
X59.058 Z-1.65 I1.984 J0.
X55.09 Z-1.681 I-1.984 J0.
X59.058 Z-1.712 I1.984 J0.
X55.09 Z-1.743 I-1.984 J0.
X59.058 Z-1.774 I1.984 J0.
X55.09 Z-1.805 I-1.984 J0.
X59.058 Z-1.837 I1.984 J0.
X55.09 Z-1.868 I-1.984 J0.
X59.058 Z-1.899 I1.984 J0.
X55.09 Z-1.93 I-1.984 J0.
X59.058 Z-1.961 I1.984 J0.
X55.09 Z-1.992 I-1.984 J0.
X59.058 Z-2.024 I1.984 J0.
X55.09 Z-2.055 I-1.984 J0.
X59.058 Z-2.086 I1.984 J0.
X55.09 Z-2.117 I-1.984 J0.
X59.058 Z-2.148 I1.984 J0.
X55.09 Z-2.179 I-1.984 J0.
X59.058 Z-2.211 I1.984 J0.
X55.09 Z-2.242 I-1.984 J0.
X59.058 Z-2.273 I1.984 J0.
X55.09 Z-2.304 I-1.984 J0.
X59.058 Z-2.335 I1.984 J0.
X55.09 Z-2.366 I-1.984 J0.
X59.058 Z-2.398 I1.984 J0.
X55.09 Z-2.429 I-1.984 J0.
X59.058 Z-2.46 I1.984 J0.
X55.09 Z-2.491 I-1.984 J0.
X59.058 Z-2.522 I1.984 J0.
X55.09 Z-2.554 I-1.984 J0.
X59.058 Z-2.585 I1.984 J0.
X55.09 Z-2.616 I-1.984 J0.
X59.058 Z-2.647 I1.984 J0.
X55.09 Z-2.678 I-1.984 J0.
X59.058 Z-2.709 I1.984 J0.
X55.09 Z-2.741 I-1.984 J0.
X59.058 Z-2.772 I1.984 J0.
X55.09 Z-2.803 I-1.984 J0.
X59.058 Z-2.834 I1.984 J0.
X55.09 Z-2.865 I-1.984 J0.
X59.058 Z-2.896 I1.984 J0.
X55.09 Z-2.928 I-1.984 J0.
X59.058 Z-2.959 I1.984 J0.
X55.09 Z-2.99 I-1.984 J0.
X59.058 Z-3.021 I1.984 J0.
X55.09 Z-3.052 I-1.984 J0.
X59.058 Z-3.083 I1.984 J0.
X55.09 Z-3.115 I-1.984 J0.
X59.058 Z-3.146 I1.984 J0.
X55.09 Z-3.177 I-1.984 J0.
X59.058 Z-3.208 I1.984 J0.
X55.09 Z-3.239 I-1.984 J0.
X59.058 Z-3.27 I1.984 J0.
X55.09 Z-3.302 I-1.984 J0.
X59.058 Z-3.333 I1.984 J0.
X55.09 Z-3.364 I-1.984 J0.
X59.058 Z-3.395 I1.984 J0.
X55.09 Z-3.426 I-1.984 J0.
X59.058 Z-3.457 I1.984 J0.
X55.09 Z-3.489 I-1.984 J0.
X59.058 Z-3.52 I1.984 J0.
X55.09 Z-3.551 I-1.984 J0.
X59.058 Z-3.582 I1.984 J0.
X55.09 Z-3.613 I-1.984 J0.
X59.058 Z-3.645 I1.984 J0.
X55.09 Z-3.676 I-1.984 J0.
X59.058 Z-3.707 I1.984 J0.
X55.09 Z-3.738 I-1.984 J0.
X59.058 Z-3.769 I1.984 J0.
X55.09 Z-3.8 I-1.984 J0.
X59.058 Z-3.832 I1.984 J0.
X55.09 Z-3.863 I-1.984 J0.
X59.058 Z-3.894 I1.984 J0.
X55.09 Z-3.925 I-1.984 J0.
X59.058 Z-3.956 I1.984 J0.
X55.09 Z-3.987 I-1.984 J0.
X59.058 Z-4.019 I1.984 J0.
X55.09 Z-4.05 I-1.984 J0.
X59.058 Z-4.081 I1.984 J0.
X55.09 Z-4.112 I-1.984 J0.
X59.058 Z-4.143 I1.984 J0.
X55.09 Z-4.174 I-1.984 J0.
X59.058 Z-4.206 I1.984 J0.
X55.09 Z-4.237 I-1.984 J0.
X59.058 Z-4.268 I1.984 J0.
X55.09 Z-4.299 I-1.984 J0.
X59.058 Z-4.33 I1.984 J0.
X55.09 Z-4.361 I-1.984 J0.
X59.058 Z-4.393 I1.984 J0.
X55.09 Z-4.424 I-1.984 J0.
X59.058 Z-4.455 I1.984 J0.
X55.09 Z-4.486 I-1.984 J0.
X59.058 Z-4.517 I1.984 J0.
X55.09 Z-4.548 I-1.984 J0.
X59.058 Z-4.58 I1.984 J0.
X55.09 Z-4.611 I-1.984 J0.
X59.058 Z-4.642 I1.984 J0.
X56.892 Y280.1 Z-4.659 I-1.984 J0.
X55.123 Y282.439 Z-4.675 I0.182 J1.976
X59.025 Y281.712 I1.951 J-0.363
X55.123 Y282.439 I-1.951 J0.363
X55.494 Y282.693 I0.312 J-0.058
G1 X55.65 Y282.664
X55.719 Y282.651 Z-4.667
X55.785 Y282.639 Z-4.644
X55.844 Y282.628 Z-4.606
X55.894 Y282.618 Z-4.555
X55.931 Y282.612 Z-4.495
X55.954 Y282.607 Z-4.428
X55.962 Y282.606 Z-4.358
G0 Z6.
X38.024 Y357.958
Z3.
G1 Z1.317 F1600.
G18 G3 X37.707 Z1. I-0.318 K0.
G1 X37.548
G17 G2 X37.23 Y358.276 I0. J0.318
X41.199 Z0.969 I1.984 J0.
X37.23 Z0.938 I-1.984 J0.
X41.199 Z0.906 I1.984 J0.
X37.23 Z0.875 I-1.984 J0.
X41.199 Z0.844 I1.984 J0.
X37.23 Z0.813 I-1.984 J0.
X41.199 Z0.782 I1.984 J0.
X37.23 Z0.751 I-1.984 J0.
X41.199 Z0.719 I1.984 J0.
X37.23 Z0.688 I-1.984 J0.
X41.199 Z0.657 I1.984 J0.
X37.23 Z0.626 I-1.984 J0.
X41.199 Z0.595 I1.984 J0.
X37.23 Z0.564 I-1.984 J0.
X41.199 Z0.532 I1.984 J0.
X37.23 Z0.501 I-1.984 J0.
X41.199 Z0.47 I1.984 J0.
X37.23 Z0.439 I-1.984 J0.
X41.199 Z0.408 I1.984 J0.
X37.23 Z0.377 I-1.984 J0.
X41.199 Z0.345 I1.984 J0.
X37.23 Z0.314 I-1.984 J0.
X41.199 Z0.283 I1.984 J0.
X37.23 Z0.252 I-1.984 J0.
X41.199 Z0.221 I1.984 J0.
X37.23 Z0.19 I-1.984 J0.
X41.199 Z0.158 I1.984 J0.
X37.23 Z0.127 I-1.984 J0.
X41.199 Z0.096 I1.984 J0.
X37.23 Z0.065 I-1.984 J0.
X41.199 Z0.034 I1.984 J0.
X37.23 Z0.003 I-1.984 J0.
X41.199 Z-0.029 I1.984 J0.
X37.23 Z-0.06 I-1.984 J0.
X41.199 Z-0.091 I1.984 J0.
X37.23 Z-0.122 I-1.984 J0.
X41.199 Z-0.153 I1.984 J0.
X37.23 Z-0.185 I-1.984 J0.
X41.199 Z-0.216 I1.984 J0.
X37.23 Z-0.247 I-1.984 J0.
X41.199 Z-0.278 I1.984 J0.
X37.23 Z-0.309 I-1.984 J0.
X41.199 Z-0.34 I1.984 J0.
X37.23 Z-0.372 I-1.984 J0.
X41.199 Z-0.403 I1.984 J0.
X37.23 Z-0.434 I-1.984 J0.
X41.199 Z-0.465 I1.984 J0.
X37.23 Z-0.496 I-1.984 J0.
X41.199 Z-0.527 I1.984 J0.
X37.23 Z-0.559 I-1.984 J0.
X41.199 Z-0.59 I1.984 J0.
X37.23 Z-0.621 I-1.984 J0.
X41.199 Z-0.652 I1.984 J0.
X37.23 Z-0.683 I-1.984 J0.
X41.199 Z-0.714 I1.984 J0.
X37.23 Z-0.746 I-1.984 J0.
X41.199 Z-0.777 I1.984 J0.
X37.23 Z-0.808 I-1.984 J0.
X41.199 Z-0.839 I1.984 J0.
X37.23 Z-0.87 I-1.984 J0.
X41.199 Z-0.901 I1.984 J0.
X37.23 Z-0.933 I-1.984 J0.
X41.199 Z-0.964 I1.984 J0.
X37.23 Z-0.995 I-1.984 J0.
X41.199 Z-1.026 I1.984 J0.
X37.23 Z-1.057 I-1.984 J0.
X41.199 Z-1.088 I1.984 J0.
X37.23 Z-1.12 I-1.984 J0.
X41.199 Z-1.151 I1.984 J0.
X37.23 Z-1.182 I-1.984 J0.
X41.199 Z-1.213 I1.984 J0.
X37.23 Z-1.244 I-1.984 J0.
X41.199 Z-1.276 I1.984 J0.
X37.23 Z-1.307 I-1.984 J0.
X41.199 Z-1.338 I1.984 J0.
X37.23 Z-1.369 I-1.984 J0.
X41.199 Z-1.4 I1.984 J0.
X37.23 Z-1.431 I-1.984 J0.
X41.199 Z-1.463 I1.984 J0.
X37.23 Z-1.494 I-1.984 J0.
X41.199 Z-1.525 I1.984 J0.
X37.23 Z-1.556 I-1.984 J0.
X41.199 Z-1.587 I1.984 J0.
X37.23 Z-1.618 I-1.984 J0.
X41.199 Z-1.65 I1.984 J0.
X37.23 Z-1.681 I-1.984 J0.
X41.199 Z-1.712 I1.984 J0.
X37.23 Z-1.743 I-1.984 J0.
X41.199 Z-1.774 I1.984 J0.
X37.23 Z-1.805 I-1.984 J0.
X41.199 Z-1.837 I1.984 J0.
X37.23 Z-1.868 I-1.984 J0.
X41.199 Z-1.899 I1.984 J0.
X37.23 Z-1.93 I-1.984 J0.
X41.199 Z-1.961 I1.984 J0.
X37.23 Z-1.992 I-1.984 J0.
X41.199 Z-2.024 I1.984 J0.
X37.23 Z-2.055 I-1.984 J0.
X41.199 Z-2.086 I1.984 J0.
X37.23 Z-2.117 I-1.984 J0.
X41.199 Z-2.148 I1.984 J0.
X37.23 Z-2.179 I-1.984 J0.
X41.199 Z-2.211 I1.984 J0.
X37.23 Z-2.242 I-1.984 J0.
X41.199 Z-2.273 I1.984 J0.
X37.23 Z-2.304 I-1.984 J0.
X41.199 Z-2.335 I1.984 J0.
X37.23 Z-2.366 I-1.984 J0.
X41.199 Z-2.398 I1.984 J0.
X37.23 Z-2.429 I-1.984 J0.
X41.199 Z-2.46 I1.984 J0.
X37.23 Z-2.491 I-1.984 J0.
X41.199 Z-2.522 I1.984 J0.
