(T1  D=6.35 CR=0. - ZMIN=-6.176 - FLAT END MILL)
G90 G94 G91.1 G40 G49 G17
G21
G0 Z15

(2D CONTOUR1)
M5
T1 M6
S15000 M3
G54
M8
G0 X181.346 Y196.58
G43 Z16. H1
Z6.
G1 Z4.135 F1600.
G19 G2 Y195.945 Z3.5 J-0.635 K0.
G1 Y195.31
G17 G2 X180.711 Y194.675 I-0.635 J0.
G1 X131.292 Z2.637
G3 X129.047 Y193.745 Z2.594 I0. J-3.175
G1 X109.997 Y174.695 Z2.124
G3 X109.067 Y172.45 Z2.08 I2.245 J-2.245
G1 Y96.25 Z0.75
Y1.
G3 X112.242 Y-2.175 I3.175 J0.
G1 X201.142
G3 X204.317 Y1. I0. J3.175
G1 Y172.45
G3 X203.387 Y174.695 I-3.175 J0.
G1 X184.337 Y193.745
G3 X182.092 Y194.675 I-2.245 J-2.245
G1 X131.292
G3 X129.047 Y193.745 I0. J-3.175
G1 X109.997 Y174.695
G3 X109.067 Y172.45 I2.245 J-2.245
G1 Y96.25
Y81.928 Z0.5
Y1.
G3 X112.242 Y-2.175 I3.175 J0.
G1 X201.142
G3 X204.317 Y1. I0. J3.175
G1 Y172.45
G3 X203.387 Y174.695 I-3.175 J0.
G1 X184.337 Y193.745
G3 X182.092 Y194.675 I-2.245 J-2.245
G1 X131.292
G3 X129.047 Y193.745 I0. J-3.175
G1 X109.997 Y174.695
G3 X109.067 Y172.45 I2.245 J-2.245
G1 Y96.25
Y81.928
Y67.605 Z0.25
Y1.
G3 X112.242 Y-2.175 I3.175 J0.
G1 X201.142
G3 X204.317 Y1. I0. J3.175
G1 Y172.45
G3 X203.387 Y174.695 I-3.175 J0.
G1 X184.337 Y193.745
G3 X182.092 Y194.675 I-2.245 J-2.245
G1 X131.292
G3 X129.047 Y193.745 I0. J-3.175
G1 X109.997 Y174.695
G3 X109.067 Y172.45 I2.245 J-2.245
G1 Y81.928
Y67.605
Y53.283 Z0.
Y1.
G3 X112.242 Y-2.175 I3.175 J0.
G1 X201.142
G3 X204.317 Y1. I0. J3.175
G1 Y172.45
G3 X203.387 Y174.695 I-3.175 J0.
G1 X184.337 Y193.745
G3 X182.092 Y194.675 I-2.245 J-2.245
G1 X131.292
G3 X129.047 Y193.745 I0. J-3.175
G1 X109.997 Y174.695
G3 X109.067 Y172.45 I2.245 J-2.245
G1 Y67.605
Y53.283
Y38.96 Z-0.25
Y1.
G3 X112.242 Y-2.175 I3.175 J0.
G1 X201.142
G3 X204.317 Y1. I0. J3.175
G1 Y172.45
G3 X203.387 Y174.695 I-3.175 J0.
G1 X184.337 Y193.745
G3 X182.092 Y194.675 I-2.245 J-2.245
G1 X131.292
G3 X129.047 Y193.745 I0. J-3.175
G1 X109.997 Y174.695
G3 X109.067 Y172.45 I2.245 J-2.245
G1 Y53.283
Y38.96
Y24.638 Z-0.5
Y1.
G3 X112.242 Y-2.175 I3.175 J0.
G1 X201.142
G3 X204.317 Y1. I0. J3.175
G1 Y172.45
G3 X203.387 Y174.695 I-3.175 J0.
G1 X184.337 Y193.745
G3 X182.092 Y194.675 I-2.245 J-2.245
G1 X131.292
G3 X129.047 Y193.745 I0. J-3.175
G1 X109.997 Y174.695
G3 X109.067 Y172.45 I2.245 J-2.245
G1 Y38.96
Y24.638
Y10.315 Z-0.75
Y1.
G3 X112.242 Y-2.175 I3.175 J0.
G1 X201.142
G3 X204.317 Y1. I0. J3.175
G1 Y172.45
G3 X203.387 Y174.695 I-3.175 J0.
G1 X184.337 Y193.745
G3 X182.092 Y194.675 I-2.245 J-2.245
G1 X131.292
G3 X129.047 Y193.745 I0. J-3.175
G1 X109.997 Y174.695
G3 X109.067 Y172.45 I2.245 J-2.245
G1 Y24.638
Y10.315
Y1. Z-0.913
G3 X112.242 Y-2.175 Z-1. I3.175 J0.
G1 X112.262
X201.142
G3 X204.317 Y1. I0. J3.175
G1 Y172.45
G3 X203.387 Y174.695 I-3.175 J0.
G1 X184.337 Y193.745
G3 X182.092 Y194.675 I-2.245 J-2.245
G1 X131.292
G3 X129.047 Y193.745 I0. J-3.175
G1 X109.997 Y174.695
G3 X109.067 Y172.45 I2.245 J-2.245
G1 Y10.315
Y1.
G3 X112.242 Y-2.175 I3.175 J0.
G1 X112.262
X126.585 Z-1.25
X201.142
G3 X204.317 Y1. I0. J3.175
G1 Y172.45
G3 X203.387 Y174.695 I-3.175 J0.
G1 X184.337 Y193.745
G3 X182.092 Y194.675 I-2.245 J-2.245
G1 X131.292
G3 X129.047 Y193.745 I0. J-3.175
G1 X109.997 Y174.695
G3 X109.067 Y172.45 I2.245 J-2.245
G1 Y1.
G3 X112.242 Y-2.175 I3.175 J0.
G1 X126.585
X140.907 Z-1.5
X201.142
G3 X204.317 Y1. I0. J3.175
G1 Y172.45
G3 X203.387 Y174.695 I-3.175 J0.
G1 X184.337 Y193.745
G3 X182.092 Y194.675 I-2.245 J-2.245
G1 X131.292
G3 X129.047 Y193.745 I0. J-3.175
G1 X109.997 Y174.695
G3 X109.067 Y172.45 I2.245 J-2.245
G1 Y1.
G3 X112.242 Y-2.175 I3.175 J0.
G1 X126.585
X140.907
X155.23 Z-1.75
X201.142
G3 X204.317 Y1. I0. J3.175
G1 Y172.45
G3 X203.387 Y174.695 I-3.175 J0.
G1 X184.337 Y193.745
G3 X182.092 Y194.675 I-2.245 J-2.245
G1 X131.292
G3 X129.047 Y193.745 I0. J-3.175
G1 X109.997 Y174.695
G3 X109.067 Y172.45 I2.245 J-2.245
G1 Y1.
G3 X112.242 Y-2.175 I3.175 J0.
G1 X140.907
X155.23
X169.552 Z-2.
X201.142
G3 X204.317 Y1. I0. J3.175
G1 Y172.45
G3 X203.387 Y174.695 I-3.175 J0.
G1 X184.337 Y193.745
G3 X182.092 Y194.675 I-2.245 J-2.245
G1 X131.292
G3 X129.047 Y193.745 I0. J-3.175
G1 X109.997 Y174.695
G3 X109.067 Y172.45 I2.245 J-2.245
G1 Y1.
G3 X112.242 Y-2.175 I3.175 J0.
G1 X155.23
X169.552
X183.875 Z-2.25
X201.142
G3 X204.317 Y1. I0. J3.175
G1 Y172.45
G3 X203.387 Y174.695 I-3.175 J0.
G1 X184.337 Y193.745
G3 X182.092 Y194.675 I-2.245 J-2.245
G1 X131.292
G3 X129.047 Y193.745 I0. J-3.175
G1 X109.997 Y174.695
G3 X109.067 Y172.45 I2.245 J-2.245
G1 Y1.
G3 X112.242 Y-2.175 I3.175 J0.
G1 X169.552
X183.875
X198.197 Z-2.5
X201.142
G3 X204.317 Y1. I0. J3.175
G1 Y172.45
G3 X203.387 Y174.695 I-3.175 J0.
G1 X184.337 Y193.745
G3 X182.092 Y194.675 I-2.245 J-2.245
G1 X131.292
G3 X129.047 Y193.745 I0. J-3.175
G1 X109.997 Y174.695
G3 X109.067 Y172.45 I2.245 J-2.245
G1 Y1.
G3 X112.242 Y-2.175 I3.175 J0.
G1 X183.875
X198.197
X201.142 Z-2.551
G3 X204.317 Y1. Z-2.638 I0. J3.175
G1 Y7.39 Z-2.75
Y172.45
G3 X203.387 Y174.695 I-3.175 J0.
G1 X184.337 Y193.745
G3 X182.092 Y194.675 I-2.245 J-2.245
G1 X131.292
G3 X129.047 Y193.745 I0. J-3.175
G1 X109.997 Y174.695
G3 X109.067 Y172.45 I2.245 J-2.245
G1 Y1.
G3 X112.242 Y-2.175 I3.175 J0.
G1 X198.197
X201.142
G3 X204.317 Y1. I0. J3.175
G1 Y7.39
Y21.713 Z-3.
Y172.45
G3 X203.387 Y174.695 I-3.175 J0.
G1 X184.337 Y193.745
G3 X182.092 Y194.675 I-2.245 J-2.245
G1 X131.292
G3 X129.047 Y193.745 I0. J-3.175
G1 X109.997 Y174.695
G3 X109.067 Y172.45 I2.245 J-2.245
G1 Y1.
G3 X112.242 Y-2.175 I3.175 J0.
G1 X201.142
G3 X204.317 Y1. I0. J3.175
G1 Y21.713
Y36.035 Z-3.25
Y172.45
G3 X203.387 Y174.695 I-3.175 J0.
G1 X184.337 Y193.745
G3 X182.092 Y194.675 I-2.245 J-2.245
G1 X131.292
G3 X129.047 Y193.745 I0. J-3.175
G1 X109.997 Y174.695
G3 X109.067 Y172.45 I2.245 J-2.245
G1 Y1.
G3 X112.242 Y-2.175 I3.175 J0.
G1 X201.142
G3 X204.317 Y1. I0. J3.175
G1 Y21.713
Y36.035
Y50.358 Z-3.5
Y172.45
G3 X203.387 Y174.695 I-3.175 J0.
G1 X184.337 Y193.745
G3 X182.092 Y194.675 I-2.245 J-2.245
G1 X131.292
G3 X129.047 Y193.745 I0. J-3.175
G1 X109.997 Y174.695
G3 X109.067 Y172.45 I2.245 J-2.245
G1 Y1.
G3 X112.242 Y-2.175 I3.175 J0.
G1 X201.142
G3 X204.317 Y1. I0. J3.175
G1 Y36.035
Y50.358
Y64.68 Z-3.75
Y172.45
G3 X203.387 Y174.695 I-3.175 J0.
G1 X184.337 Y193.745
G3 X182.092 Y194.675 I-2.245 J-2.245
G1 X131.292
G3 X129.047 Y193.745 I0. J-3.175
G1 X109.997 Y174.695
G3 X109.067 Y172.45 I2.245 J-2.245
G1 Y1.
G3 X112.242 Y-2.175 I3.175 J0.
G1 X201.142
G3 X204.317 Y1. I0. J3.175
G1 Y50.358
Y64.68
Y79.003 Z-4.
Y172.45
G3 X203.387 Y174.695 I-3.175 J0.
G1 X184.337 Y193.745
G3 X182.092 Y194.675 I-2.245 J-2.245
G1 X131.292
G3 X129.047 Y193.745 I0. J-3.175
G1 X109.997 Y174.695
G3 X109.067 Y172.45 I2.245 J-2.245
G1 Y1.
G3 X112.242 Y-2.175 I3.175 J0.
G1 X201.142
G3 X204.317 Y1. I0. J3.175
G1 Y64.68
Y79.003
Y93.325 Z-4.25
Y172.45
G3 X203.387 Y174.695 I-3.175 J0.
G1 X184.337 Y193.745
G3 X182.092 Y194.675 I-2.245 J-2.245
G1 X131.292
G3 X129.047 Y193.745 I0. J-3.175
G1 X109.997 Y174.695
G3 X109.067 Y172.45 I2.245 J-2.245
G1 Y1.
G3 X112.242 Y-2.175 I3.175 J0.
G1 X201.142
G3 X204.317 Y1. I0. J3.175
G1 Y79.003
Y93.325
Y107.648 Z-4.5
Y172.45
G3 X203.387 Y174.695 I-3.175 J0.
G1 X184.337 Y193.745
G3 X182.092 Y194.675 I-2.245 J-2.245
G1 X131.292
G3 X129.047 Y193.745 I0. J-3.175
G1 X109.997 Y174.695
G3 X109.067 Y172.45 I2.245 J-2.245
G1 Y1.
G3 X112.242 Y-2.175 I3.175 J0.
G1 X201.142
G3 X204.317 Y1. I0. J3.175
G1 Y93.325
Y107.648
Y121.97 Z-4.75
Y172.45
G3 X203.387 Y174.695 I-3.175 J0.
G1 X184.337 Y193.745
G3 X182.092 Y194.675 I-2.245 J-2.245
G1 X131.292
G3 X129.047 Y193.745 I0. J-3.175
G1 X109.997 Y174.695
G3 X109.067 Y172.45 I2.245 J-2.245
G1 Y1.
G3 X112.242 Y-2.175 I3.175 J0.
G1 X201.142
G3 X204.317 Y1. I0. J3.175
G1 Y107.648
Y121.97
Y136.293 Z-5.
Y172.45
G3 X203.387 Y174.695 I-3.175 J0.
G1 X184.337 Y193.745
G3 X182.092 Y194.675 I-2.245 J-2.245
G1 X131.292
G3 X129.047 Y193.745 I0. J-3.175
G1 X109.997 Y174.695
G3 X109.067 Y172.45 I2.245 J-2.245
G1 Y1.
G3 X112.242 Y-2.175 I3.175 J0.
G1 X201.142
G3 X204.317 Y1. I0. J3.175
G1 Y121.97
Y136.293
Y150.615 Z-5.25
Y172.45
G3 X203.387 Y174.695 I-3.175 J0.
G1 X184.337 Y193.745
G3 X182.092 Y194.675 I-2.245 J-2.245
G1 X131.292
G3 X129.047 Y193.745 I0. J-3.175
G1 X109.997 Y174.695
G3 X109.067 Y172.45 I2.245 J-2.245
G1 Y1.
G3 X112.242 Y-2.175 I3.175 J0.
G1 X201.142
G3 X204.317 Y1. I0. J3.175
G1 Y136.293
Y150.615
Y164.938 Z-5.5
Y172.45
G3 X203.387 Y174.695 I-3.175 J0.
G1 X184.337 Y193.745
G3 X182.092 Y194.675 I-2.245 J-2.245
G1 X131.292
G3 X129.047 Y193.745 I0. J-3.175
G1 X109.997 Y174.695
G3 X109.067 Y172.45 I2.245 J-2.245
G1 Y1.
G3 X112.242 Y-2.175 I3.175 J0.
G1 X201.142
G3 X204.317 Y1. I0. J3.175
G1 Y150.615
Y164.938
Y172.45 Z-5.631
G3 X203.387 Y174.695 Z-5.675 I-3.175 J0.
G1 X203.373 Y174.709
X184.337 Y193.745
G3 X182.092 Y194.675 I-2.245 J-2.245
G1 X131.292
G3 X129.047 Y193.745 I0. J-3.175
G1 X109.997 Y174.695
G3 X109.067 Y172.45 I2.245 J-2.245
G1 Y1.
G3 X112.242 Y-2.175 I3.175 J0.
G1 X201.142
G3 X204.317 Y1. I0. J3.175
G1 Y164.938
Y172.45
G3 X203.387 Y174.695 I-3.175 J0.
G1 X203.373 Y174.709
G2 Y175.607 I0.449 J0.449
G1 X203.822 Y176.056
X203.892 Y176.126 Z-5.667
X203.961 Y176.195 Z-5.644
X204.026 Y176.26 Z-5.606
X204.086 Y176.32 Z-5.554
X204.14 Y176.374 Z-5.489
X204.185 Y176.419 Z-5.413
X204.222 Y176.456 Z-5.328
X204.249 Y176.483 Z-5.236
X204.266 Y176.5 Z-5.139
X204.271 Y176.505 Z-5.04
G0 Z16.
X31.955 Y-3.921
Z6.
G1 Z4.135 F1600.
G19 G3 Y-3.286 Z3.5 J0.635 K0.
G1 Y-2.651
G17 G2 X32.59 Y-2.016 I0.635 J0.
G1 X89.9 Z2.5
G3 X93.075 Y1.159 Z2.413 I0. J3.175
G1 Y96.409 Z0.75
Y172.609
G3 X92.145 Y174.854 I-3.175 J0.
G1 X73.095 Y193.904
G3 X70.85 Y194.834 I-2.245 J-2.245
G1 X20.05
G3 X17.805 Y193.904 I0. J-3.175
G1 X-1.245 Y174.854
G3 X-2.175 Y172.609 I2.245 J-2.245
G1 Y1.159
G3 X1. Y-2.016 I3.175 J0.
G1 X89.9
G3 X93.075 Y1.159 I0. J3.175
G1 Y96.409
Y110.732 Z0.5
Y172.609
G3 X92.145 Y174.854 I-3.175 J0.
G1 X73.095 Y193.904
G3 X70.85 Y194.834 I-2.245 J-2.245
G1 X20.05
G3 X17.805 Y193.904 I0. J-3.175
G1 X-1.245 Y174.854
G3 X-2.175 Y172.609 I2.245 J-2.245
G1 Y1.159
G3 X1. Y-2.016 I3.175 J0.
G1 X89.9
G3 X93.075 Y1.159 I0. J3.175
G1 Y96.409
Y110.732
Y125.054 Z0.25
Y172.609
G3 X92.145 Y174.854 I-3.175 J0.
G1 X73.095 Y193.904
G3 X70.85 Y194.834 I-2.245 J-2.245
G1 X20.05
G3 X17.805 Y193.904 I0. J-3.175
G1 X-1.245 Y174.854
G3 X-2.175 Y172.609 I2.245 J-2.245
G1 Y1.159
G3 X1. Y-2.016 I3.175 J0.
G1 X89.9
G3 X93.075 Y1.159 I0. J3.175
G1 Y110.732
Y125.054
Y139.377 Z0.
Y172.609
G3 X92.145 Y174.854 I-3.175 J0.
G1 X73.095 Y193.904
G3 X70.85 Y194.834 I-2.245 J-2.245
G1 X20.05
G3 X17.805 Y193.904 I0. J-3.175
G1 X-1.245 Y174.854
G3 X-2.175 Y172.609 I2.245 J-2.245
G1 Y1.159
G3 X1. Y-2.016 I3.175 J0.
G1 X89.9
G3 X93.075 Y1.159 I0. J3.175
G1 Y125.054
Y139.377
Y153.699 Z-0.25
Y172.609
G3 X92.145 Y174.854 I-3.175 J0.
G1 X73.095 Y193.904
G3 X70.85 Y194.834 I-2.245 J-2.245
G1 X20.05
G3 X17.805 Y193.904 I0. J-3.175
G1 X-1.245 Y174.854
G3 X-2.175 Y172.609 I2.245 J-2.245
G1 Y1.159
G3 X1. Y-2.016 I3.175 J0.
G1 X89.9
G3 X93.075 Y1.159 I0. J3.175
G1 Y139.377
Y153.699
Y168.022 Z-0.5
Y172.609
G3 X92.145 Y174.854 I-3.175 J0.
G1 X73.095 Y193.904
G3 X70.85 Y194.834 I-2.245 J-2.245
G1 X20.05
G3 X17.805 Y193.904 I0. J-3.175
G1 X-1.245 Y174.854
G3 X-2.175 Y172.609 I2.245 J-2.245
G1 Y1.159
G3 X1. Y-2.016 I3.175 J0.
G1 X89.9
G3 X93.075 Y1.159 I0. J3.175
G1 Y153.699
Y168.022
Y172.609 Z-0.58
G3 X92.145 Y174.854 Z-0.624 I-3.175 J0.
G1 X87.025 Y179.975 Z-0.75
X73.095 Y193.904
G3 X70.85 Y194.834 I-2.245 J-2.245
G1 X20.05
G3 X17.805 Y193.904 I0. J-3.175
G1 X-1.245 Y174.854
G3 X-2.175 Y172.609 I2.245 J-2.245
G1 Y1.159
G3 X1. Y-2.016 I3.175 J0.
G1 X89.9
G3 X93.075 Y1.159 I0. J3.175
G1 Y168.022
Y172.609
G3 X92.145 Y174.854 I-3.175 J0.
G1 X87.025 Y179.975
X76.897 Y190.102 Z-1.
X73.095 Y193.904
G3 X70.85 Y194.834 I-2.245 J-2.245
G1 X20.05
G3 X17.805 Y193.904 I0. J-3.175
G1 X-1.245 Y174.854
G3 X-2.175 Y172.609 I2.245 J-2.245
G1 Y1.159
G3 X1. Y-2.016 I3.175 J0.
G1 X89.9
G3 X93.075 Y1.159 I0. J3.175
G1 Y172.609
G3 X92.145 Y174.854 I-3.175 J0.
G1 X76.897 Y190.102
X73.095 Y193.904 Z-1.094
G3 X70.85 Y194.834 Z-1.137 I-2.245 J-2.245
G1 X64.398 Z-1.25
X20.05
G3 X17.805 Y193.904 I0. J-3.175
G1 X-1.245 Y174.854
G3 X-2.175 Y172.609 I2.245 J-2.245
G1 Y1.159
G3 X1. Y-2.016 I3.175 J0.
G1 X89.9
G3 X93.075 Y1.159 I0. J3.175
G1 Y172.609
G3 X92.145 Y174.854 I-3.175 J0.
G1 X76.897 Y190.102
X73.095 Y193.904
G3 X70.85 Y194.834 I-2.245 J-2.245
G1 X64.398
X50.075 Z-1.5
X20.05
G3 X17.805 Y193.904 I0. J-3.175
G1 X-1.245 Y174.854
G3 X-2.175 Y172.609 I2.245 J-2.245
G1 Y1.159
G3 X1. Y-2.016 I3.175 J0.
G1 X89.9
G3 X93.075 Y1.159 I0. J3.175
G1 Y172.609
G3 X92.145 Y174.854 I-3.175 J0.
G1 X73.095 Y193.904
G3 X70.85 Y194.834 I-2.245 J-2.245
G1 X50.075
X35.753 Z-1.75
X20.05
G3 X17.805 Y193.904 I0. J-3.175
G1 X-1.245 Y174.854
G3 X-2.175 Y172.609 I2.245 J-2.245
G1 Y1.159
G3 X1. Y-2.016 I3.175 J0.
G1 X89.9
G3 X93.075 Y1.159 I0. J3.175
G1 Y172.609
G3 X92.145 Y174.854 I-3.175 J0.
G1 X73.095 Y193.904
G3 X70.85 Y194.834 I-2.245 J-2.245
G1 X50.075
X35.753
X21.43 Z-2.
X20.05
G3 X17.805 Y193.904 I0. J-3.175
G1 X-1.245 Y174.854
G3 X-2.175 Y172.609 I2.245 J-2.245
G1 Y1.159
G3 X1. Y-2.016 I3.175 J0.
G1 X89.9
G3 X93.075 Y1.159 I0. J3.175
G1 Y172.609
G3 X92.145 Y174.854 I-3.175 J0.
G1 X73.095 Y193.904
G3 X70.85 Y194.834 I-2.245 J-2.245
G1 X35.753
X21.43
X20.05 Z-2.024
G3 X17.805 Y193.904 Z-2.068 I0. J-3.175
G1 X10.417 Y186.516 Z-2.25
X-1.245 Y174.854
G3 X-2.175 Y172.609 I2.245 J-2.245
G1 Y1.159
G3 X1. Y-2.016 I3.175 J0.
G1 X89.9
G3 X93.075 Y1.159 I0. J3.175
G1 Y172.609
G3 X92.145 Y174.854 I-3.175 J0.
G1 X73.095 Y193.904
G3 X70.85 Y194.834 I-2.245 J-2.245
G1 X21.43
X20.05
G3 X17.805 Y193.904 I0. J-3.175
G1 X10.417 Y186.516
X0.289 Y176.388 Z-2.5
X-1.245 Y174.854
G3 X-2.175 Y172.609 I2.245 J-2.245
G1 Y1.159
G3 X1. Y-2.016 I3.175 J0.
G1 X89.9
G3 X93.075 Y1.159 I0. J3.175
G1 Y172.609
G3 X92.145 Y174.854 I-3.175 J0.
G1 X73.095 Y193.904
G3 X70.85 Y194.834 I-2.245 J-2.245
G1 X20.05
G3 X17.805 Y193.904 I0. J-3.175
G1 X0.289 Y176.388
X-1.245 Y174.854 Z-2.538
G3 X-2.175 Y172.609 Z-2.581 I2.245 J-2.245
G1 Y162.95 Z-2.75
Y1.159
G3 X1. Y-2.016 I3.175 J0.
G1 X89.9
G3 X93.075 Y1.159 I0. J3.175
G1 Y172.609
G3 X92.145 Y174.854 I-3.175 J0.
G1 X73.095 Y193.904
G3 X70.85 Y194.834 I-2.245 J-2.245
G1 X20.05
G3 X17.805 Y193.904 I0. J-3.175
G1 X0.289 Y176.388
X-1.245 Y174.854
G3 X-2.175 Y172.609 I2.245 J-2.245
G1 Y162.95
Y148.628 Z-3.
Y1.159
G3 X1. Y-2.016 I3.175 J0.
G1 X89.9
G3 X93.075 Y1.159 I0. J3.175
G1 Y172.609
G3 X92.145 Y174.854 I-3.175 J0.
G1 X73.095 Y193.904
G3 X70.85 Y194.834 I-2.245 J-2.245
G1 X20.05
G3 X17.805 Y193.904 I0. J-3.175
G1 X-1.245 Y174.854
G3 X-2.175 Y172.609 I2.245 J-2.245
G1 Y148.628
Y134.305 Z-3.25
Y1.159
G3 X1. Y-2.016 I3.175 J0.
G1 X89.9
G3 X93.075 Y1.159 I0. J3.175
G1 Y172.609
G3 X92.145 Y174.854 I-3.175 J0.
G1 X73.095 Y193.904
G3 X70.85 Y194.834 I-2.245 J-2.245
G1 X20.05
G3 X17.805 Y193.904 I0. J-3.175
G1 X-1.245 Y174.854
G3 X-2.175 Y172.609 I2.245 J-2.245
G1 Y148.628
Y134.305
Y119.983 Z-3.5
Y1.159
G3 X1. Y-2.016 I3.175 J0.
G1 X89.9
G3 X93.075 Y1.159 I0. J3.175
G1 Y172.609
G3 X92.145 Y174.854 I-3.175 J0.
G1 X73.095 Y193.904
G3 X70.85 Y194.834 I-2.245 J-2.245
G1 X20.05
G3 X17.805 Y193.904 I0. J-3.175
G1 X-1.245 Y174.854
G3 X-2.175 Y172.609 I2.245 J-2.245
G1 Y134.305
Y119.983
Y105.66 Z-3.75
Y1.159
G3 X1. Y-2.016 I3.175 J0.
G1 X89.9
G3 X93.075 Y1.159 I0. J3.175
G1 Y172.609
G3 X92.145 Y174.854 I-3.175 J0.
G1 X73.095 Y193.904
G3 X70.85 Y194.834 I-2.245 J-2.245
G1 X20.05
G3 X17.805 Y193.904 I0. J-3.175
G1 X-1.245 Y174.854
G3 X-2.175 Y172.609 I2.245 J-2.245
G1 Y119.983
Y105.66
Y91.338 Z-4.
Y1.159
G3 X1. Y-2.016 I3.175 J0.
G1 X89.9
G3 X93.075 Y1.159 I0. J3.175
G1 Y172.609
G3 X92.145 Y174.854 I-3.175 J0.
G1 X73.095 Y193.904
G3 X70.85 Y194.834 I-2.245 J-2.245
G1 X20.05
G3 X17.805 Y193.904 I0. J-3.175
G1 X-1.245 Y174.854
G3 X-2.175 Y172.609 I2.245 J-2.245
G1 Y105.66
Y91.338
Y77.015 Z-4.25
Y1.159
G3 X1. Y-2.016 I3.175 J0.
G1 X89.9
G3 X93.075 Y1.159 I0. J3.175
G1 Y172.609
G3 X92.145 Y174.854 I-3.175 J0.
G1 X73.095 Y193.904
G3 X70.85 Y194.834 I-2.245 J-2.245
G1 X20.05
G3 X17.805 Y193.904 I0. J-3.175
G1 X-1.245 Y174.854
G3 X-2.175 Y172.609 I2.245 J-2.245
G1 Y91.338
Y77.015
Y62.693 Z-4.5
Y1.159
G3 X1. Y-2.016 I3.175 J0.
G1 X89.9
G3 X93.075 Y1.159 I0. J3.175
G1 Y172.609
G3 X92.145 Y174.854 I-3.175 J0.
G1 X73.095 Y193.904
G3 X70.85 Y194.834 I-2.245 J-2.245
G1 X20.05
G3 X17.805 Y193.904 I0. J-3.175
G1 X-1.245 Y174.854
G3 X-2.175 Y172.609 I2.245 J-2.245
G1 Y77.015
Y62.693
Y48.37 Z-4.75
Y1.159
G3 X1. Y-2.016 I3.175 J0.
G1 X89.9
G3 X93.075 Y1.159 I0. J3.175
G1 Y172.609
G3 X92.145 Y174.854 I-3.175 J0.
G1 X73.095 Y193.904
G3 X70.85 Y194.834 I-2.245 J-2.245
G1 X20.05
G3 X17.805 Y193.904 I0. J-3.175
G1 X-1.245 Y174.854
G3 X-2.175 Y172.609 I2.245 J-2.245
G1 Y62.693
Y48.37
Y34.048 Z-5.
Y1.159
G3 X1. Y-2.016 I3.175 J0.
G1 X89.9
G3 X93.075 Y1.159 I0. J3.175
G1 Y172.609
G3 X92.145 Y174.854 I-3.175 J0.
G1 X73.095 Y193.904
G3 X70.85 Y194.834 I-2.245 J-2.245
G1 X20.05
G3 X17.805 Y193.904 I0. J-3.175
G1 X-1.245 Y174.854
G3 X-2.175 Y172.609 I2.245 J-2.245
G1 Y48.37
Y34.048
Y19.725 Z-5.25
Y1.159
G3 X1. Y-2.016 I3.175 J0.
G1 X89.9
G3 X93.075 Y1.159 I0. J3.175
G1 Y172.609
G3 X92.145 Y174.854 I-3.175 J0.
G1 X73.095 Y193.904
G3 X70.85 Y194.834 I-2.245 J-2.245
G1 X20.05
G3 X17.805 Y193.904 I0. J-3.175
G1 X-1.245 Y174.854
G3 X-2.175 Y172.609 I2.245 J-2.245
G1 Y34.048
Y19.725
Y5.403 Z-5.5
Y1.159
G3 X1. Y-2.016 I3.175 J0.
G1 X89.9
G3 X93.075 Y1.159 I0. J3.175
G1 Y172.609
G3 X92.145 Y174.854 I-3.175 J0.
G1 X73.095 Y193.904
G3 X70.85 Y194.834 I-2.245 J-2.245
G1 X20.05
G3 X17.805 Y193.904 I0. J-3.175
G1 X-1.245 Y174.854
G3 X-2.175 Y172.609 I2.245 J-2.245
G1 Y19.725
Y5.403
Y1.159 Z-5.574
G3 X1. Y-2.016 Z-5.661 I3.175 J0.
G1 X6.092 Z-5.75
X89.9
G3 X93.075 Y1.159 I0. J3.175
G1 Y172.609
G3 X92.145 Y174.854 I-3.175 J0.
G1 X73.095 Y193.904
G3 X70.85 Y194.834 I-2.245 J-2.245
G1 X20.05
G3 X17.805 Y193.904 I0. J-3.175
G1 X-1.245 Y174.854
G3 X-2.175 Y172.609 I2.245 J-2.245
G1 Y5.403
Y1.159
G3 X1. Y-2.016 I3.175 J0.
G1 X6.092
X20.415 Z-6.
X89.9
G3 X93.075 Y1.159 I0. J3.175
G1 Y172.609
G3 X92.145 Y174.854 I-3.175 J0.
G1 X73.095 Y193.904
G3 X70.85 Y194.834 I-2.245 J-2.245
G1 X20.05
G3 X17.805 Y193.904 I0. J-3.175
G1 X-1.245 Y174.854
G3 X-2.175 Y172.609 I2.245 J-2.245
G1 Y1.159
G3 X1. Y-2.016 I3.175 J0.
G1 X20.415
X30.492 Z-6.176
X89.9
G3 X93.075 Y1.159 I0. J3.175
G1 Y172.609
G3 X92.145 Y174.854 I-3.175 J0.
G1 X73.095 Y193.904
G3 X70.85 Y194.834 I-2.245 J-2.245
G1 X20.05
G3 X17.805 Y193.904 I0. J-3.175
G1 X-1.245 Y174.854
G3 X-2.175 Y172.609 I2.245 J-2.245
G1 Y1.159
G3 X1. Y-2.016 I3.175 J0.
G1 X20.415
X30.492
G2 X31.127 Y-2.651 I0. J-0.635
G1 Y-3.286
G19 G2 Y-3.921 Z-5.541 J0. K0.635
G0 Z16.
G17
M5
G0 Z15
G0 X0 Y0

M9
M30
