(1001)
(T1  D=3.175 CR=0. - ZMIN=-4.738 - FLAT END MILL)
G90 G94 G91.1 G40 G49 G17
G21
G0 Z15

(BORE1)
M5
T1 M6
S15000 M3
G54
M8
G0 X101.599 Y13.017
G43 Z16. H1
Z2.937
G1 Z1.254 F1600.
G18 G2 X101.917 Z0.937 I0.317 K0.
G1 X102.075
G17 G2 X102.393 Y12.7 I0. J-0.318
X98.424 Z0.874 I-1.984 J0.
X102.393 Z0.812 I1.984 J0.
X98.424 Z0.749 I-1.984 J0.
X102.393 Z0.687 I1.984 J0.
X98.424 Z0.625 I-1.984 J0.
X102.393 Z0.562 I1.984 J0.
X98.424 Z0.5 I-1.984 J0.
X102.393 Z0.438 I1.984 J0.
X98.424 Z0.375 I-1.984 J0.
X102.393 Z0.313 I1.984 J0.
X98.424 Z0.251 I-1.984 J0.
X102.393 Z0.188 I1.984 J0.
X98.424 Z0.126 I-1.984 J0.
X102.393 Z0.064 I1.984 J0.
X98.424 Z0.001 I-1.984 J0.
X102.393 Z-0.061 I1.984 J0.
X98.424 Z-0.123 I-1.984 J0.
X102.393 Z-0.186 I1.984 J0.
X98.424 Z-0.248 I-1.984 J0.
X102.393 Z-0.31 I1.984 J0.
X98.424 Z-0.373 I-1.984 J0.
X102.393 Z-0.435 I1.984 J0.
X98.424 Z-0.497 I-1.984 J0.
X102.393 Z-0.56 I1.984 J0.
X98.424 Z-0.622 I-1.984 J0.
X102.393 Z-0.684 I1.984 J0.
X98.424 Z-0.747 I-1.984 J0.
X102.393 Z-0.809 I1.984 J0.
X98.424 Z-0.872 I-1.984 J0.
X102.393 Z-0.934 I1.984 J0.
X98.424 Z-0.996 I-1.984 J0.
X102.393 Z-1.059 I1.984 J0.
X98.424 Z-1.121 I-1.984 J0.
X102.393 Z-1.183 I1.984 J0.
X98.424 Z-1.246 I-1.984 J0.
X102.393 Z-1.308 I1.984 J0.
X98.424 Z-1.37 I-1.984 J0.
X102.393 Z-1.433 I1.984 J0.
X98.424 Z-1.495 I-1.984 J0.
X102.393 Z-1.557 I1.984 J0.
X98.424 Z-1.62 I-1.984 J0.
X102.393 Z-1.682 I1.984 J0.
X98.424 Z-1.744 I-1.984 J0.
X102.393 Z-1.807 I1.984 J0.
X98.424 Z-1.869 I-1.984 J0.
X102.393 Z-1.931 I1.984 J0.
X98.424 Z-1.994 I-1.984 J0.
X102.393 Z-2.056 I1.984 J0.
X98.424 Z-2.118 I-1.984 J0.
X102.393 Z-2.181 I1.984 J0.
X98.424 Z-2.243 I-1.984 J0.
X102.393 Z-2.306 I1.984 J0.
X98.424 Z-2.368 I-1.984 J0.
X102.393 Z-2.43 I1.984 J0.
X98.424 Z-2.493 I-1.984 J0.
X102.393 Z-2.555 I1.984 J0.
X98.424 Z-2.617 I-1.984 J0.
X102.393 Z-2.68 I1.984 J0.
X98.424 Z-2.742 I-1.984 J0.
X102.393 Z-2.804 I1.984 J0.
X98.424 Z-2.867 I-1.984 J0.
X102.393 Z-2.929 I1.984 J0.
X98.424 Z-2.991 I-1.984 J0.
X102.393 Z-3.054 I1.984 J0.
X98.424 Z-3.116 I-1.984 J0.
X102.393 Z-3.178 I1.984 J0.
X98.424 Z-3.241 I-1.984 J0.
X102.393 Z-3.303 I1.984 J0.
X98.424 Z-3.365 I-1.984 J0.
X102.393 Z-3.428 I1.984 J0.
X98.424 Z-3.49 I-1.984 J0.
X102.393 Z-3.552 I1.984 J0.
X98.424 Z-3.615 I-1.984 J0.
X102.393 Z-3.677 I1.984 J0.
X98.424 Z-3.74 I-1.984 J0.
X102.393 Z-3.802 I1.984 J0.
X98.424 Z-3.864 I-1.984 J0.
X102.393 Z-3.927 I1.984 J0.
X98.424 Z-3.989 I-1.984 J0.
X102.393 Z-4.051 I1.984 J0.
X98.424 Z-4.114 I-1.984 J0.
X102.393 Z-4.176 I1.984 J0.
X98.424 Z-4.238 I-1.984 J0.
X102.393 Z-4.301 I1.984 J0.
X98.424 Z-4.363 I-1.984 J0.
X102.393 Z-4.425 I1.984 J0.
X98.424 Z-4.488 I-1.984 J0.
X102.393 Z-4.55 I1.984 J0.
X98.424 Z-4.612 I-1.984 J0.
X102.393 Z-4.675 I1.984 J0.
X100.339 Y10.717 Z-4.707 I-1.984 J0.
X98.429 Y12.839 Z-4.738 I0.07 J1.983
X102.388 Y12.56 I1.979 J-0.139
X98.429 Y12.839 I-1.979 J0.139
X98.768 Y13.133 I0.317 J-0.022
G1 X98.926 Y13.122
X98.997 Y13.117 Z-4.731
X99.064 Y13.113 Z-4.707
X99.124 Y13.108 Z-4.669
X99.174 Y13.105 Z-4.619
X99.212 Y13.102 Z-4.559
X99.235 Y13.101 Z-4.492
X99.243 Y13.1 Z-4.421
G0 Z6.
X40.48 Y13.017
Z2.937
G1 Z1.254 F1600.
G18 G2 X40.798 Z0.937 I0.317 K0.
G1 X40.957
G17 G2 X41.274 Y12.7 I0. J-0.318
X37.305 Z0.874 I-1.984 J0.
X41.274 Z0.812 I1.984 J0.
X37.305 Z0.749 I-1.984 J0.
X41.274 Z0.687 I1.984 J0.
X37.305 Z0.625 I-1.984 J0.
X41.274 Z0.562 I1.984 J0.
X37.305 Z0.5 I-1.984 J0.
X41.274 Z0.438 I1.984 J0.
X37.305 Z0.375 I-1.984 J0.
X41.274 Z0.313 I1.984 J0.
X37.305 Z0.251 I-1.984 J0.
X41.274 Z0.188 I1.984 J0.
X37.305 Z0.126 I-1.984 J0.
X41.274 Z0.064 I1.984 J0.
X37.305 Z0.001 I-1.984 J0.
X41.274 Z-0.061 I1.984 J0.
X37.305 Z-0.123 I-1.984 J0.
X41.274 Z-0.186 I1.984 J0.
X37.305 Z-0.248 I-1.984 J0.
X41.274 Z-0.31 I1.984 J0.
X37.305 Z-0.373 I-1.984 J0.
X41.274 Z-0.435 I1.984 J0.
X37.305 Z-0.497 I-1.984 J0.
X41.274 Z-0.56 I1.984 J0.
X37.305 Z-0.622 I-1.984 J0.
X41.274 Z-0.684 I1.984 J0.
X37.305 Z-0.747 I-1.984 J0.
X41.274 Z-0.809 I1.984 J0.
X37.305 Z-0.872 I-1.984 J0.
X41.274 Z-0.934 I1.984 J0.
X37.305 Z-0.996 I-1.984 J0.
X41.274 Z-1.059 I1.984 J0.
X37.305 Z-1.121 I-1.984 J0.
X41.274 Z-1.183 I1.984 J0.
X37.305 Z-1.246 I-1.984 J0.
X41.274 Z-1.308 I1.984 J0.
X37.305 Z-1.37 I-1.984 J0.
X41.274 Z-1.433 I1.984 J0.
X37.305 Z-1.495 I-1.984 J0.
X41.274 Z-1.557 I1.984 J0.
X37.305 Z-1.62 I-1.984 J0.
X41.274 Z-1.682 I1.984 J0.
X37.305 Z-1.744 I-1.984 J0.
X41.274 Z-1.807 I1.984 J0.
X37.305 Z-1.869 I-1.984 J0.
X41.274 Z-1.931 I1.984 J0.
X37.305 Z-1.994 I-1.984 J0.
X41.274 Z-2.056 I1.984 J0.
X37.305 Z-2.118 I-1.984 J0.
X41.274 Z-2.181 I1.984 J0.
X37.305 Z-2.243 I-1.984 J0.
X41.274 Z-2.306 I1.984 J0.
X37.305 Z-2.368 I-1.984 J0.
X41.274 Z-2.43 I1.984 J0.
X37.305 Z-2.493 I-1.984 J0.
X41.274 Z-2.555 I1.984 J0.
X37.305 Z-2.617 I-1.984 J0.
X41.274 Z-2.68 I1.984 J0.
X37.305 Z-2.742 I-1.984 J0.
X41.274 Z-2.804 I1.984 J0.
X37.305 Z-2.867 I-1.984 J0.
X41.274 Z-2.929 I1.984 J0.
X37.305 Z-2.991 I-1.984 J0.
X41.274 Z-3.054 I1.984 J0.
X37.305 Z-3.116 I-1.984 J0.
X41.274 Z-3.178 I1.984 J0.
X37.305 Z-3.241 I-1.984 J0.
X41.274 Z-3.303 I1.984 J0.
X37.305 Z-3.365 I-1.984 J0.
X41.274 Z-3.428 I1.984 J0.
X37.305 Z-3.49 I-1.984 J0.
X41.274 Z-3.552 I1.984 J0.
X37.305 Z-3.615 I-1.984 J0.
X41.274 Z-3.677 I1.984 J0.
X37.305 Z-3.74 I-1.984 J0.
X41.274 Z-3.802 I1.984 J0.
X37.305 Z-3.864 I-1.984 J0.
X41.274 Z-3.927 I1.984 J0.
X37.305 Z-3.989 I-1.984 J0.
X41.274 Z-4.051 I1.984 J0.
X37.305 Z-4.114 I-1.984 J0.
X41.274 Z-4.176 I1.984 J0.
X37.305 Z-4.238 I-1.984 J0.
X41.274 Z-4.301 I1.984 J0.
X37.305 Z-4.363 I-1.984 J0.
X41.274 Z-4.425 I1.984 J0.
X37.305 Z-4.488 I-1.984 J0.
X41.274 Z-4.55 I1.984 J0.
X37.305 Z-4.612 I-1.984 J0.
X41.274 Z-4.675 I1.984 J0.
X39.22 Y10.717 Z-4.707 I-1.984 J0.
X37.31 Y12.839 Z-4.738 I0.07 J1.983
X41.269 Y12.56 I1.979 J-0.139
X37.31 Y12.839 I-1.979 J0.139
X37.649 Y13.133 I0.317 J-0.022
G1 X37.808 Y13.122
X37.878 Y13.117 Z-4.731
X37.945 Y13.113 Z-4.707
X38.005 Y13.108 Z-4.669
X38.055 Y13.105 Z-4.619
X38.093 Y13.102 Z-4.559
X38.116 Y13.101 Z-4.492
X38.124 Y13.1 Z-4.421
G0 Z6.
X58.34 Y89.217
Z2.937
G1 Z1.254 F1600.
G18 G2 X58.657 Z0.937 I0.317 K0.
G1 X58.816
G17 G2 X59.134 Y88.9 I0. J-0.318
X55.165 Z0.874 I-1.984 J0.
X59.134 Z0.812 I1.984 J0.
X55.165 Z0.749 I-1.984 J0.
X59.134 Z0.687 I1.984 J0.
X55.165 Z0.625 I-1.984 J0.
X59.134 Z0.562 I1.984 J0.
X55.165 Z0.5 I-1.984 J0.
X59.134 Z0.438 I1.984 J0.
X55.165 Z0.375 I-1.984 J0.
X59.134 Z0.313 I1.984 J0.
X55.165 Z0.251 I-1.984 J0.
X59.134 Z0.188 I1.984 J0.
X55.165 Z0.126 I-1.984 J0.
X59.134 Z0.064 I1.984 J0.
X55.165 Z0.001 I-1.984 J0.
X59.134 Z-0.061 I1.984 J0.
X55.165 Z-0.123 I-1.984 J0.
X59.134 Z-0.186 I1.984 J0.
X55.165 Z-0.248 I-1.984 J0.
X59.134 Z-0.31 I1.984 J0.
X55.165 Z-0.373 I-1.984 J0.
X59.134 Z-0.435 I1.984 J0.
X55.165 Z-0.497 I-1.984 J0.
X59.134 Z-0.56 I1.984 J0.
X55.165 Z-0.622 I-1.984 J0.
X59.134 Z-0.684 I1.984 J0.
X55.165 Z-0.747 I-1.984 J0.
X59.134 Z-0.809 I1.984 J0.
X55.165 Z-0.872 I-1.984 J0.
X59.134 Z-0.934 I1.984 J0.
X55.165 Z-0.996 I-1.984 J0.
X59.134 Z-1.059 I1.984 J0.
X55.165 Z-1.121 I-1.984 J0.
X59.134 Z-1.183 I1.984 J0.
X55.165 Z-1.246 I-1.984 J0.
X59.134 Z-1.308 I1.984 J0.
X55.165 Z-1.37 I-1.984 J0.
X59.134 Z-1.433 I1.984 J0.
X55.165 Z-1.495 I-1.984 J0.
X59.134 Z-1.557 I1.984 J0.
X55.165 Z-1.62 I-1.984 J0.
X59.134 Z-1.682 I1.984 J0.
X55.165 Z-1.744 I-1.984 J0.
X59.134 Z-1.807 I1.984 J0.
X55.165 Z-1.869 I-1.984 J0.
X59.134 Z-1.931 I1.984 J0.
X55.165 Z-1.994 I-1.984 J0.
X59.134 Z-2.056 I1.984 J0.
X55.165 Z-2.118 I-1.984 J0.
X59.134 Z-2.181 I1.984 J0.
X55.165 Z-2.243 I-1.984 J0.
X59.134 Z-2.306 I1.984 J0.
X55.165 Z-2.368 I-1.984 J0.
X59.134 Z-2.43 I1.984 J0.
X55.165 Z-2.493 I-1.984 J0.
X59.134 Z-2.555 I1.984 J0.
X55.165 Z-2.617 I-1.984 J0.
X59.134 Z-2.68 I1.984 J0.
X55.165 Z-2.742 I-1.984 J0.
X59.134 Z-2.804 I1.984 J0.
X55.165 Z-2.867 I-1.984 J0.
X59.134 Z-2.929 I1.984 J0.
X55.165 Z-2.991 I-1.984 J0.
X59.134 Z-3.054 I1.984 J0.
X55.165 Z-3.116 I-1.984 J0.
X59.134 Z-3.178 I1.984 J0.
X55.165 Z-3.241 I-1.984 J0.
X59.134 Z-3.303 I1.984 J0.
X55.165 Z-3.365 I-1.984 J0.
X59.134 Z-3.428 I1.984 J0.
X55.165 Z-3.49 I-1.984 J0.
X59.134 Z-3.552 I1.984 J0.
X55.165 Z-3.615 I-1.984 J0.
X59.134 Z-3.677 I1.984 J0.
X55.165 Z-3.74 I-1.984 J0.
X59.134 Z-3.802 I1.984 J0.
X55.165 Z-3.864 I-1.984 J0.
X59.134 Z-3.927 I1.984 J0.
X55.165 Z-3.989 I-1.984 J0.
X59.134 Z-4.051 I1.984 J0.
X55.165 Z-4.114 I-1.984 J0.
X59.134 Z-4.176 I1.984 J0.
X55.165 Z-4.238 I-1.984 J0.
X59.134 Z-4.301 I1.984 J0.
X55.165 Z-4.363 I-1.984 J0.
X59.134 Z-4.425 I1.984 J0.
X55.165 Z-4.488 I-1.984 J0.
X59.134 Z-4.55 I1.984 J0.
X55.165 Z-4.612 I-1.984 J0.
X59.134 Z-4.675 I1.984 J0.
X57.079 Y86.917 Z-4.707 I-1.984 J0.
X55.17 Y89.039 Z-4.738 I0.07 J1.983
X59.129 Y88.76 I1.979 J-0.139
X55.17 Y89.039 I-1.979 J0.139
X55.509 Y89.333 I0.317 J-0.022
G1 X55.667 Y89.322
X55.738 Y89.317 Z-4.731
X55.805 Y89.313 Z-4.707
X55.865 Y89.308 Z-4.669
X55.915 Y89.305 Z-4.619
X55.952 Y89.302 Z-4.559
X55.976 Y89.301 Z-4.492
X55.984 Y89.3 Z-4.421
G0 Z6.
X83.74 Y89.217
Z2.937
G1 Z1.254 F1600.
G18 G2 X84.057 Z0.937 I0.317 K0.
G1 X84.216
G17 G2 X84.534 Y88.9 I0. J-0.318
X80.565 Z0.874 I-1.984 J0.
X84.534 Z0.812 I1.984 J0.
X80.565 Z0.749 I-1.984 J0.
X84.534 Z0.687 I1.984 J0.
X80.565 Z0.625 I-1.984 J0.
X84.534 Z0.562 I1.984 J0.
X80.565 Z0.5 I-1.984 J0.
X84.534 Z0.438 I1.984 J0.
X80.565 Z0.375 I-1.984 J0.
X84.534 Z0.313 I1.984 J0.
X80.565 Z0.251 I-1.984 J0.
X84.534 Z0.188 I1.984 J0.
X80.565 Z0.126 I-1.984 J0.
X84.534 Z0.064 I1.984 J0.
X80.565 Z0.001 I-1.984 J0.
X84.534 Z-0.061 I1.984 J0.
X80.565 Z-0.123 I-1.984 J0.
X84.534 Z-0.186 I1.984 J0.
X80.565 Z-0.248 I-1.984 J0.
X84.534 Z-0.31 I1.984 J0.
X80.565 Z-0.373 I-1.984 J0.
X84.534 Z-0.435 I1.984 J0.
X80.565 Z-0.497 I-1.984 J0.
X84.534 Z-0.56 I1.984 J0.
X80.565 Z-0.622 I-1.984 J0.
X84.534 Z-0.684 I1.984 J0.
X80.565 Z-0.747 I-1.984 J0.
X84.534 Z-0.809 I1.984 J0.
X80.565 Z-0.872 I-1.984 J0.
X84.534 Z-0.934 I1.984 J0.
X80.565 Z-0.996 I-1.984 J0.
X84.534 Z-1.059 I1.984 J0.
X80.565 Z-1.121 I-1.984 J0.
X84.534 Z-1.183 I1.984 J0.
X80.565 Z-1.246 I-1.984 J0.
X84.534 Z-1.308 I1.984 J0.
X80.565 Z-1.37 I-1.984 J0.
X84.534 Z-1.433 I1.984 J0.
X80.565 Z-1.495 I-1.984 J0.
X84.534 Z-1.557 I1.984 J0.
X80.565 Z-1.62 I-1.984 J0.
X84.534 Z-1.682 I1.984 J0.
X80.565 Z-1.744 I-1.984 J0.
X84.534 Z-1.807 I1.984 J0.
X80.565 Z-1.869 I-1.984 J0.
X84.534 Z-1.931 I1.984 J0.
X80.565 Z-1.994 I-1.984 J0.
X84.534 Z-2.056 I1.984 J0.
X80.565 Z-2.118 I-1.984 J0.
X84.534 Z-2.181 I1.984 J0.
X80.565 Z-2.243 I-1.984 J0.
X84.534 Z-2.306 I1.984 J0.
X80.565 Z-2.368 I-1.984 J0.
X84.534 Z-2.43 I1.984 J0.
X80.565 Z-2.493 I-1.984 J0.
X84.534 Z-2.555 I1.984 J0.
X80.565 Z-2.617 I-1.984 J0.
X84.534 Z-2.68 I1.984 J0.
X80.565 Z-2.742 I-1.984 J0.
X84.534 Z-2.804 I1.984 J0.
X80.565 Z-2.867 I-1.984 J0.
X84.534 Z-2.929 I1.984 J0.
X80.565 Z-2.991 I-1.984 J0.
X84.534 Z-3.054 I1.984 J0.
X80.565 Z-3.116 I-1.984 J0.
X84.534 Z-3.178 I1.984 J0.
X80.565 Z-3.241 I-1.984 J0.
X84.534 Z-3.303 I1.984 J0.
X80.565 Z-3.365 I-1.984 J0.
X84.534 Z-3.428 I1.984 J0.
X80.565 Z-3.49 I-1.984 J0.
X84.534 Z-3.552 I1.984 J0.
X80.565 Z-3.615 I-1.984 J0.
X84.534 Z-3.677 I1.984 J0.
X80.565 Z-3.74 I-1.984 J0.
X84.534 Z-3.802 I1.984 J0.
X80.565 Z-3.864 I-1.984 J0.
X84.534 Z-3.927 I1.984 J0.
X80.565 Z-3.989 I-1.984 J0.
X84.534 Z-4.051 I1.984 J0.
X80.565 Z-4.114 I-1.984 J0.
X84.534 Z-4.176 I1.984 J0.
X80.565 Z-4.238 I-1.984 J0.
X84.534 Z-4.301 I1.984 J0.
X80.565 Z-4.363 I-1.984 J0.
X84.534 Z-4.425 I1.984 J0.
X80.565 Z-4.488 I-1.984 J0.
X84.534 Z-4.55 I1.984 J0.
X80.565 Z-4.612 I-1.984 J0.
X84.534 Z-4.675 I1.984 J0.
X82.479 Y86.917 Z-4.707 I-1.984 J0.
X80.57 Y89.039 Z-4.738 I0.07 J1.983
X84.529 Y88.76 I1.979 J-0.139
X80.57 Y89.039 I-1.979 J0.139
X80.909 Y89.333 I0.317 J-0.022
G1 X81.067 Y89.322
X81.138 Y89.317 Z-4.731
X81.205 Y89.313 Z-4.707
X81.265 Y89.308 Z-4.669
X81.315 Y89.305 Z-4.619
X81.352 Y89.302 Z-4.559
X81.376 Y89.301 Z-4.492
X81.384 Y89.3 Z-4.421
G0 Z6.
X83.74 Y114.617
Z2.937
G1 Z1.254 F1600.
G18 G2 X84.057 Z0.937 I0.317 K0.
G1 X84.216
G17 G2 X84.534 Y114.3 I0. J-0.317
X80.565 Z0.874 I-1.984 J0.
X84.534 Z0.812 I1.984 J0.
X80.565 Z0.749 I-1.984 J0.
X84.534 Z0.687 I1.984 J0.
X80.565 Z0.625 I-1.984 J0.
X84.534 Z0.562 I1.984 J0.
X80.565 Z0.5 I-1.984 J0.
X84.534 Z0.438 I1.984 J0.
X80.565 Z0.375 I-1.984 J0.
X84.534 Z0.313 I1.984 J0.
X80.565 Z0.251 I-1.984 J0.
X84.534 Z0.188 I1.984 J0.
X80.565 Z0.126 I-1.984 J0.
X84.534 Z0.064 I1.984 J0.
X80.565 Z0.001 I-1.984 J0.
X84.534 Z-0.061 I1.984 J0.
X80.565 Z-0.123 I-1.984 J0.
X84.534 Z-0.186 I1.984 J0.
X80.565 Z-0.248 I-1.984 J0.
X84.534 Z-0.31 I1.984 J0.
X80.565 Z-0.373 I-1.984 J0.
X84.534 Z-0.435 I1.984 J0.
X80.565 Z-0.497 I-1.984 J0.
X84.534 Z-0.56 I1.984 J0.
X80.565 Z-0.622 I-1.984 J0.
X84.534 Z-0.684 I1.984 J0.
X80.565 Z-0.747 I-1.984 J0.
X84.534 Z-0.809 I1.984 J0.
X80.565 Z-0.872 I-1.984 J0.
X84.534 Z-0.934 I1.984 J0.
X80.565 Z-0.996 I-1.984 J0.
X84.534 Z-1.059 I1.984 J0.
X80.565 Z-1.121 I-1.984 J0.
X84.534 Z-1.183 I1.984 J0.
X80.565 Z-1.246 I-1.984 J0.
X84.534 Z-1.308 I1.984 J0.
X80.565 Z-1.37 I-1.984 J0.
X84.534 Z-1.433 I1.984 J0.
X80.565 Z-1.495 I-1.984 J0.
X84.534 Z-1.557 I1.984 J0.
X80.565 Z-1.62 I-1.984 J0.
X84.534 Z-1.682 I1.984 J0.
X80.565 Z-1.744 I-1.984 J0.
X84.534 Z-1.807 I1.984 J0.
X80.565 Z-1.869 I-1.984 J0.
X84.534 Z-1.931 I1.984 J0.
X80.565 Z-1.994 I-1.984 J0.
X84.534 Z-2.056 I1.984 J0.
X80.565 Z-2.118 I-1.984 J0.
X84.534 Z-2.181 I1.984 J0.
X80.565 Z-2.243 I-1.984 J0.
X84.534 Z-2.306 I1.984 J0.
X80.565 Z-2.368 I-1.984 J0.
X84.534 Z-2.43 I1.984 J0.
X80.565 Z-2.493 I-1.984 J0.
X84.534 Z-2.555 I1.984 J0.
X80.565 Z-2.617 I-1.984 J0.
X84.534 Z-2.68 I1.984 J0.
X80.565 Z-2.742 I-1.984 J0.
X84.534 Z-2.804 I1.984 J0.
X80.565 Z-2.867 I-1.984 J0.
X84.534 Z-2.929 I1.984 J0.
X80.565 Z-2.991 I-1.984 J0.
X84.534 Z-3.054 I1.984 J0.
X80.565 Z-3.116 I-1.984 J0.
X84.534 Z-3.178 I1.984 J0.
X80.565 Z-3.241 I-1.984 J0.
X84.534 Z-3.303 I1.984 J0.
X80.565 Z-3.365 I-1.984 J0.
X84.534 Z-3.428 I1.984 J0.
X80.565 Z-3.49 I-1.984 J0.
X84.534 Z-3.552 I1.984 J0.
X80.565 Z-3.615 I-1.984 J0.
X84.534 Z-3.677 I1.984 J0.
X80.565 Z-3.74 I-1.984 J0.
X84.534 Z-3.802 I1.984 J0.
X80.565 Z-3.864 I-1.984 J0.
X84.534 Z-3.927 I1.984 J0.
X80.565 Z-3.989 I-1.984 J0.
X84.534 Z-4.051 I1.984 J0.
X80.565 Z-4.114 I-1.984 J0.
X84.534 Z-4.176 I1.984 J0.
X80.565 Z-4.238 I-1.984 J0.
X84.534 Z-4.301 I1.984 J0.
X80.565 Z-4.363 I-1.984 J0.
X84.534 Z-4.425 I1.984 J0.
X80.565 Z-4.488 I-1.984 J0.
X84.534 Z-4.55 I1.984 J0.
X80.565 Z-4.612 I-1.984 J0.
X84.534 Z-4.675 I1.984 J0.
X82.479 Y112.317 Z-4.707 I-1.984 J0.
X80.57 Y114.439 Z-4.738 I0.07 J1.983
X84.529 Y114.16 I1.979 J-0.139
X80.57 Y114.439 I-1.979 J0.139
X80.909 Y114.733 I0.317 J-0.022
G1 X81.067 Y114.722
X81.138 Y114.717 Z-4.731
X81.205 Y114.713 Z-4.707
X81.265 Y114.708 Z-4.669
X81.315 Y114.705 Z-4.619
X81.352 Y114.702 Z-4.559
X81.376 Y114.701 Z-4.492
X81.384 Y114.7 Z-4.421
G0 Z6.
X58.34 Y114.617
Z2.937
G1 Z1.254 F1600.
G18 G2 X58.657 Z0.937 I0.317 K0.
G1 X58.816
G17 G2 X59.134 Y114.3 I0. J-0.317
X55.165 Z0.874 I-1.984 J0.
X59.134 Z0.812 I1.984 J0.
X55.165 Z0.749 I-1.984 J0.
X59.134 Z0.687 I1.984 J0.
X55.165 Z0.625 I-1.984 J0.
X59.134 Z0.562 I1.984 J0.
X55.165 Z0.5 I-1.984 J0.
X59.134 Z0.438 I1.984 J0.
X55.165 Z0.375 I-1.984 J0.
X59.134 Z0.313 I1.984 J0.
X55.165 Z0.251 I-1.984 J0.
X59.134 Z0.188 I1.984 J0.
X55.165 Z0.126 I-1.984 J0.
X59.134 Z0.064 I1.984 J0.
X55.165 Z0.001 I-1.984 J0.
X59.134 Z-0.061 I1.984 J0.
X55.165 Z-0.123 I-1.984 J0.
X59.134 Z-0.186 I1.984 J0.
X55.165 Z-0.248 I-1.984 J0.
X59.134 Z-0.31 I1.984 J0.
X55.165 Z-0.373 I-1.984 J0.
X59.134 Z-0.435 I1.984 J0.
X55.165 Z-0.497 I-1.984 J0.
X59.134 Z-0.56 I1.984 J0.
X55.165 Z-0.622 I-1.984 J0.
X59.134 Z-0.684 I1.984 J0.
X55.165 Z-0.747 I-1.984 J0.
X59.134 Z-0.809 I1.984 J0.
X55.165 Z-0.872 I-1.984 J0.
X59.134 Z-0.934 I1.984 J0.
X55.165 Z-0.996 I-1.984 J0.
X59.134 Z-1.059 I1.984 J0.
X55.165 Z-1.121 I-1.984 J0.
X59.134 Z-1.183 I1.984 J0.
X55.165 Z-1.246 I-1.984 J0.
X59.134 Z-1.308 I1.984 J0.
X55.165 Z-1.37 I-1.984 J0.
X59.134 Z-1.433 I1.984 J0.
X55.165 Z-1.495 I-1.984 J0.
X59.134 Z-1.557 I1.984 J0.
X55.165 Z-1.62 I-1.984 J0.
X59.134 Z-1.682 I1.984 J0.
X55.165 Z-1.744 I-1.984 J0.
X59.134 Z-1.807 I1.984 J0.
X55.165 Z-1.869 I-1.984 J0.
X59.134 Z-1.931 I1.984 J0.
X55.165 Z-1.994 I-1.984 J0.
X59.134 Z-2.056 I1.984 J0.
X55.165 Z-2.118 I-1.984 J0.
X59.134 Z-2.181 I1.984 J0.
X55.165 Z-2.243 I-1.984 J0.
X59.134 Z-2.306 I1.984 J0.
X55.165 Z-2.368 I-1.984 J0.
X59.134 Z-2.43 I1.984 J0.
X55.165 Z-2.493 I-1.984 J0.
X59.134 Z-2.555 I1.984 J0.
X55.165 Z-2.617 I-1.984 J0.
X59.134 Z-2.68 I1.984 J0.
X55.165 Z-2.742 I-1.984 J0.
X59.134 Z-2.804 I1.984 J0.
X55.165 Z-2.867 I-1.984 J0.
X59.134 Z-2.929 I1.984 J0.
X55.165 Z-2.991 I-1.984 J0.
X59.134 Z-3.054 I1.984 J0.
X55.165 Z-3.116 I-1.984 J0.
X59.134 Z-3.178 I1.984 J0.
X55.165 Z-3.241 I-1.984 J0.
X59.134 Z-3.303 I1.984 J0.
X55.165 Z-3.365 I-1.984 J0.
X59.134 Z-3.428 I1.984 J0.
X55.165 Z-3.49 I-1.984 J0.
X59.134 Z-3.552 I1.984 J0.
X55.165 Z-3.615 I-1.984 J0.
X59.134 Z-3.677 I1.984 J0.
X55.165 Z-3.74 I-1.984 J0.
X59.134 Z-3.802 I1.984 J0.
X55.165 Z-3.864 I-1.984 J0.
X59.134 Z-3.927 I1.984 J0.
X55.165 Z-3.989 I-1.984 J0.
X59.134 Z-4.051 I1.984 J0.
X55.165 Z-4.114 I-1.984 J0.
X59.134 Z-4.176 I1.984 J0.
X55.165 Z-4.238 I-1.984 J0.
X59.134 Z-4.301 I1.984 J0.
X55.165 Z-4.363 I-1.984 J0.
X59.134 Z-4.425 I1.984 J0.
X55.165 Z-4.488 I-1.984 J0.
X59.134 Z-4.55 I1.984 J0.
X55.165 Z-4.612 I-1.984 J0.
X59.134 Z-4.675 I1.984 J0.
X57.079 Y112.317 Z-4.707 I-1.984 J0.
X55.17 Y114.439 Z-4.738 I0.07 J1.983
X59.129 Y114.16 I1.979 J-0.139
X55.17 Y114.439 I-1.979 J0.139
X55.509 Y114.733 I0.317 J-0.022
G1 X55.667 Y114.722
X55.738 Y114.717 Z-4.731
X55.805 Y114.713 Z-4.707
X55.865 Y114.708 Z-4.669
X55.915 Y114.705 Z-4.619
X55.952 Y114.702 Z-4.559
X55.976 Y114.701 Z-4.492
X55.984 Y114.7 Z-4.421
G0 Z6.
X58.34 Y140.017
Z2.937
G1 Z1.254 F1600.
G18 G2 X58.657 Z0.937 I0.317 K0.
G1 X58.816
G17 G2 X59.134 Y139.7 I0. J-0.318
X55.165 Z0.874 I-1.984 J0.
X59.134 Z0.812 I1.984 J0.
X55.165 Z0.749 I-1.984 J0.
X59.134 Z0.687 I1.984 J0.
X55.165 Z0.625 I-1.984 J0.
X59.134 Z0.562 I1.984 J0.
X55.165 Z0.5 I-1.984 J0.
X59.134 Z0.438 I1.984 J0.
X55.165 Z0.375 I-1.984 J0.
X59.134 Z0.313 I1.984 J0.
X55.165 Z0.251 I-1.984 J0.
X59.134 Z0.188 I1.984 J0.
X55.165 Z0.126 I-1.984 J0.
X59.134 Z0.064 I1.984 J0.
X55.165 Z0.001 I-1.984 J0.
X59.134 Z-0.061 I1.984 J0.
X55.165 Z-0.123 I-1.984 J0.
X59.134 Z-0.186 I1.984 J0.
X55.165 Z-0.248 I-1.984 J0.
X59.134 Z-0.31 I1.984 J0.
X55.165 Z-0.373 I-1.984 J0.
X59.134 Z-0.435 I1.984 J0.
X55.165 Z-0.497 I-1.984 J0.
X59.134 Z-0.56 I1.984 J0.
X55.165 Z-0.622 I-1.984 J0.
X59.134 Z-0.684 I1.984 J0.
X55.165 Z-0.747 I-1.984 J0.
X59.134 Z-0.809 I1.984 J0.
X55.165 Z-0.872 I-1.984 J0.
X59.134 Z-0.934 I1.984 J0.
X55.165 Z-0.996 I-1.984 J0.
X59.134 Z-1.059 I1.984 J0.
X55.165 Z-1.121 I-1.984 J0.
X59.134 Z-1.183 I1.984 J0.
X55.165 Z-1.246 I-1.984 J0.
X59.134 Z-1.308 I1.984 J0.
X55.165 Z-1.37 I-1.984 J0.
X59.134 Z-1.433 I1.984 J0.
X55.165 Z-1.495 I-1.984 J0.
X59.134 Z-1.557 I1.984 J0.
X55.165 Z-1.62 I-1.984 J0.
X59.134 Z-1.682 I1.984 J0.
X55.165 Z-1.744 I-1.984 J0.
X59.134 Z-1.807 I1.984 J0.
X55.165 Z-1.869 I-1.984 J0.
X59.134 Z-1.931 I1.984 J0.
X55.165 Z-1.994 I-1.984 J0.
X59.134 Z-2.056 I1.984 J0.
X55.165 Z-2.118 I-1.984 J0.
X59.134 Z-2.181 I1.984 J0.
X55.165 Z-2.243 I-1.984 J0.
X59.134 Z-2.306 I1.984 J0.
X55.165 Z-2.368 I-1.984 J0.
X59.134 Z-2.43 I1.984 J0.
X55.165 Z-2.493 I-1.984 J0.
X59.134 Z-2.555 I1.984 J0.
X55.165 Z-2.617 I-1.984 J0.
X59.134 Z-2.68 I1.984 J0.
X55.165 Z-2.742 I-1.984 J0.
X59.134 Z-2.804 I1.984 J0.
X55.165 Z-2.867 I-1.984 J0.
X59.134 Z-2.929 I1.984 J0.
X55.165 Z-2.991 I-1.984 J0.
X59.134 Z-3.054 I1.984 J0.
X55.165 Z-3.116 I-1.984 J0.
X59.134 Z-3.178 I1.984 J0.
X55.165 Z-3.241 I-1.984 J0.
X59.134 Z-3.303 I1.984 J0.
X55.165 Z-3.365 I-1.984 J0.
X59.134 Z-3.428 I1.984 J0.
X55.165 Z-3.49 I-1.984 J0.
X59.134 Z-3.552 I1.984 J0.
X55.165 Z-3.615 I-1.984 J0.
X59.134 Z-3.677 I1.984 J0.
X55.165 Z-3.74 I-1.984 J0.
X59.134 Z-3.802 I1.984 J0.
X55.165 Z-3.864 I-1.984 J0.
X59.134 Z-3.927 I1.984 J0.
X55.165 Z-3.989 I-1.984 J0.
X59.134 Z-4.051 I1.984 J0.
X55.165 Z-4.114 I-1.984 J0.
X59.134 Z-4.176 I1.984 J0.
X55.165 Z-4.238 I-1.984 J0.
X59.134 Z-4.301 I1.984 J0.
X55.165 Z-4.363 I-1.984 J0.
X59.134 Z-4.425 I1.984 J0.
X55.165 Z-4.488 I-1.984 J0.
X59.134 Z-4.55 I1.984 J0.
X55.165 Z-4.612 I-1.984 J0.
X59.134 Z-4.675 I1.984 J0.
X57.079 Y137.717 Z-4.707 I-1.984 J0.
X55.17 Y139.839 Z-4.738 I0.07 J1.983
X59.129 Y139.56 I1.979 J-0.139
X55.17 Y139.839 I-1.979 J0.139
X55.509 Y140.133 I0.317 J-0.022
G1 X55.667 Y140.122
X55.738 Y140.117 Z-4.731
X55.805 Y140.113 Z-4.707
X55.865 Y140.108 Z-4.669
X55.915 Y140.105 Z-4.619
X55.952 Y140.102 Z-4.559
X55.976 Y140.101 Z-4.492
X55.984 Y140.1 Z-4.421
G0 Z6.
X83.74 Y140.017
Z2.937
G1 Z1.254 F1600.
G18 G2 X84.057 Z0.937 I0.317 K0.
G1 X84.216
G17 G2 X84.534 Y139.7 I0. J-0.318
X80.565 Z0.874 I-1.984 J0.
X84.534 Z0.812 I1.984 J0.
X80.565 Z0.749 I-1.984 J0.
X84.534 Z0.687 I1.984 J0.
X80.565 Z0.625 I-1.984 J0.
X84.534 Z0.562 I1.984 J0.
X80.565 Z0.5 I-1.984 J0.
X84.534 Z0.438 I1.984 J0.
X80.565 Z0.375 I-1.984 J0.
X84.534 Z0.313 I1.984 J0.
X80.565 Z0.251 I-1.984 J0.
X84.534 Z0.188 I1.984 J0.
X80.565 Z0.126 I-1.984 J0.
X84.534 Z0.064 I1.984 J0.
X80.565 Z0.001 I-1.984 J0.
X84.534 Z-0.061 I1.984 J0.
X80.565 Z-0.123 I-1.984 J0.
X84.534 Z-0.186 I1.984 J0.
X80.565 Z-0.248 I-1.984 J0.
X84.534 Z-0.31 I1.984 J0.
X80.565 Z-0.373 I-1.984 J0.
X84.534 Z-0.435 I1.984 J0.
X80.565 Z-0.497 I-1.984 J0.
X84.534 Z-0.56 I1.984 J0.
X80.565 Z-0.622 I-1.984 J0.
X84.534 Z-0.684 I1.984 J0.
X80.565 Z-0.747 I-1.984 J0.
X84.534 Z-0.809 I1.984 J0.
X80.565 Z-0.872 I-1.984 J0.
X84.534 Z-0.934 I1.984 J0.
X80.565 Z-0.996 I-1.984 J0.
X84.534 Z-1.059 I1.984 J0.
X80.565 Z-1.121 I-1.984 J0.
X84.534 Z-1.183 I1.984 J0.
X80.565 Z-1.246 I-1.984 J0.
X84.534 Z-1.308 I1.984 J0.
X80.565 Z-1.37 I-1.984 J0.
X84.534 Z-1.433 I1.984 J0.
X80.565 Z-1.495 I-1.984 J0.
X84.534 Z-1.557 I1.984 J0.
X80.565 Z-1.62 I-1.984 J0.
X84.534 Z-1.682 I1.984 J0.
X80.565 Z-1.744 I-1.984 J0.
X84.534 Z-1.807 I1.984 J0.
X80.565 Z-1.869 I-1.984 J0.
X84.534 Z-1.931 I1.984 J0.
X80.565 Z-1.994 I-1.984 J0.
X84.534 Z-2.056 I1.984 J0.
X80.565 Z-2.118 I-1.984 J0.
X84.534 Z-2.181 I1.984 J0.
X80.565 Z-2.243 I-1.984 J0.
X84.534 Z-2.306 I1.984 J0.
X80.565 Z-2.368 I-1.984 J0.
X84.534 Z-2.43 I1.984 J0.
X80.565 Z-2.493 I-1.984 J0.
X84.534 Z-2.555 I1.984 J0.
X80.565 Z-2.617 I-1.984 J0.
X84.534 Z-2.68 I1.984 J0.
X80.565 Z-2.742 I-1.984 J0.
X84.534 Z-2.804 I1.984 J0.
X80.565 Z-2.867 I-1.984 J0.
X84.534 Z-2.929 I1.984 J0.
X80.565 Z-2.991 I-1.984 J0.
X84.534 Z-3.054 I1.984 J0.
X80.565 Z-3.116 I-1.984 J0.
X84.534 Z-3.178 I1.984 J0.
X80.565 Z-3.241 I-1.984 J0.
X84.534 Z-3.303 I1.984 J0.
X80.565 Z-3.365 I-1.984 J0.
X84.534 Z-3.428 I1.984 J0.
X80.565 Z-3.49 I-1.984 J0.
X84.534 Z-3.552 I1.984 J0.
X80.565 Z-3.615 I-1.984 J0.
X84.534 Z-3.677 I1.984 J0.
X80.565 Z-3.74 I-1.984 J0.
X84.534 Z-3.802 I1.984 J0.
X80.565 Z-3.864 I-1.984 J0.
X84.534 Z-3.927 I1.984 J0.
X80.565 Z-3.989 I-1.984 J0.
X84.534 Z-4.051 I1.984 J0.
X80.565 Z-4.114 I-1.984 J0.
X84.534 Z-4.176 I1.984 J0.
X80.565 Z-4.238 I-1.984 J0.
X84.534 Z-4.301 I1.984 J0.
X80.565 Z-4.363 I-1.984 J0.
X84.534 Z-4.425 I1.984 J0.
X80.565 Z-4.488 I-1.984 J0.
X84.534 Z-4.55 I1.984 J0.
X80.565 Z-4.612 I-1.984 J0.
X84.534 Z-4.675 I1.984 J0.
X82.479 Y137.717 Z-4.707 I-1.984 J0.
X80.57 Y139.839 Z-4.738 I0.07 J1.983
X84.529 Y139.56 I1.979 J-0.139
X80.57 Y139.839 I-1.979 J0.139
X80.909 Y140.133 I0.317 J-0.022
G1 X81.067 Y140.122
X81.138 Y140.117 Z-4.731
X81.205 Y140.113 Z-4.707
X81.265 Y140.108 Z-4.669
X81.315 Y140.105 Z-4.619
X81.352 Y140.102 Z-4.559
X81.376 Y140.101 Z-4.492
X81.384 Y140.1 Z-4.421
G0 Z6.
X83.74 Y165.417
Z2.937
G1 Z1.254 F1600.
G18 G2 X84.057 Z0.937 I0.317 K0.
G1 X84.216
G17 G2 X84.534 Y165.1 I0. J-0.317
X80.565 Z0.874 I-1.984 J0.
X84.534 Z0.812 I1.984 J0.
X80.565 Z0.749 I-1.984 J0.
X84.534 Z0.687 I1.984 J0.
X80.565 Z0.625 I-1.984 J0.
X84.534 Z0.562 I1.984 J0.
X80.565 Z0.5 I-1.984 J0.
X84.534 Z0.438 I1.984 J0.
X80.565 Z0.375 I-1.984 J0.
X84.534 Z0.313 I1.984 J0.
X80.565 Z0.251 I-1.984 J0.
X84.534 Z0.188 I1.984 J0.
X80.565 Z0.126 I-1.984 J0.
X84.534 Z0.064 I1.984 J0.
X80.565 Z0.001 I-1.984 J0.
X84.534 Z-0.061 I1.984 J0.
X80.565 Z-0.123 I-1.984 J0.
X84.534 Z-0.186 I1.984 J0.
X80.565 Z-0.248 I-1.984 J0.
X84.534 Z-0.31 I1.984 J0.
X80.565 Z-0.373 I-1.984 J0.
X84.534 Z-0.435 I1.984 J0.
X80.565 Z-0.497 I-1.984 J0.
X84.534 Z-0.56 I1.984 J0.
X80.565 Z-0.622 I-1.984 J0.
X84.534 Z-0.684 I1.984 J0.
X80.565 Z-0.747 I-1.984 J0.
X84.534 Z-0.809 I1.984 J0.
X80.565 Z-0.872 I-1.984 J0.
X84.534 Z-0.934 I1.984 J0.
X80.565 Z-0.996 I-1.984 J0.
X84.534 Z-1.059 I1.984 J0.
X80.565 Z-1.121 I-1.984 J0.
X84.534 Z-1.183 I1.984 J0.
X80.565 Z-1.246 I-1.984 J0.
X84.534 Z-1.308 I1.984 J0.
X80.565 Z-1.37 I-1.984 J0.
X84.534 Z-1.433 I1.984 J0.
X80.565 Z-1.495 I-1.984 J0.
X84.534 Z-1.557 I1.984 J0.
X80.565 Z-1.62 I-1.984 J0.
X84.534 Z-1.682 I1.984 J0.
X80.565 Z-1.744 I-1.984 J0.
X84.534 Z-1.807 I1.984 J0.
X80.565 Z-1.869 I-1.984 J0.
X84.534 Z-1.931 I1.984 J0.
X80.565 Z-1.994 I-1.984 J0.
X84.534 Z-2.056 I1.984 J0.
X80.565 Z-2.118 I-1.984 J0.
X84.534 Z-2.181 I1.984 J0.
X80.565 Z-2.243 I-1.984 J0.
X84.534 Z-2.306 I1.984 J0.
X80.565 Z-2.368 I-1.984 J0.
X84.534 Z-2.43 I1.984 J0.
X80.565 Z-2.493 I-1.984 J0.
X84.534 Z-2.555 I1.984 J0.
X80.565 Z-2.617 I-1.984 J0.
X84.534 Z-2.68 I1.984 J0.
X80.565 Z-2.742 I-1.984 J0.
X84.534 Z-2.804 I1.984 J0.
X80.565 Z-2.867 I-1.984 J0.
X84.534 Z-2.929 I1.984 J0.
X80.565 Z-2.991 I-1.984 J0.
X84.534 Z-3.054 I1.984 J0.
X80.565 Z-3.116 I-1.984 J0.
X84.534 Z-3.178 I1.984 J0.
X80.565 Z-3.241 I-1.984 J0.
X84.534 Z-3.303 I1.984 J0.
X80.565 Z-3.365 I-1.984 J0.
X84.534 Z-3.428 I1.984 J0.
X80.565 Z-3.49 I-1.984 J0.
X84.534 Z-3.552 I1.984 J0.
X80.565 Z-3.615 I-1.984 J0.
X84.534 Z-3.677 I1.984 J0.
X80.565 Z-3.74 I-1.984 J0.
X84.534 Z-3.802 I1.984 J0.
X80.565 Z-3.864 I-1.984 J0.
X84.534 Z-3.927 I1.984 J0.
X80.565 Z-3.989 I-1.984 J0.
X84.534 Z-4.051 I1.984 J0.
X80.565 Z-4.114 I-1.984 J0.
X84.534 Z-4.176 I1.984 J0.
X80.565 Z-4.238 I-1.984 J0.
X84.534 Z-4.301 I1.984 J0.
X80.565 Z-4.363 I-1.984 J0.
X84.534 Z-4.425 I1.984 J0.
X80.565 Z-4.488 I-1.984 J0.
X84.534 Z-4.55 I1.984 J0.
X80.565 Z-4.612 I-1.984 J0.
X84.534 Z-4.675 I1.984 J0.
X82.479 Y163.117 Z-4.707 I-1.984 J0.
X80.57 Y165.239 Z-4.738 I0.07 J1.983
X84.529 Y164.96 I1.979 J-0.139
X80.57 Y165.239 I-1.979 J0.139
X80.909 Y165.533 I0.317 J-0.022
G1 X81.067 Y165.522
X81.138 Y165.517 Z-4.731
X81.205 Y165.513 Z-4.707
X81.265 Y165.508 Z-4.669
X81.315 Y165.505 Z-4.619
X81.352 Y165.502 Z-4.559
X81.376 Y165.501 Z-4.492
X81.384 Y165.5 Z-4.421
G0 Z6.
X58.34 Y165.417
Z2.937
G1 Z1.254 F1600.
G18 G2 X58.657 Z0.937 I0.317 K0.
G1 X58.816
G17 G2 X59.134 Y165.1 I0. J-0.317
X55.165 Z0.874 I-1.984 J0.
X59.134 Z0.812 I1.984 J0.
X55.165 Z0.749 I-1.984 J0.
X59.134 Z0.687 I1.984 J0.
X55.165 Z0.625 I-1.984 J0.
X59.134 Z0.562 I1.984 J0.
X55.165 Z0.5 I-1.984 J0.
X59.134 Z0.438 I1.984 J0.
X55.165 Z0.375 I-1.984 J0.
X59.134 Z0.313 I1.984 J0.
X55.165 Z0.251 I-1.984 J0.
X59.134 Z0.188 I1.984 J0.
X55.165 Z0.126 I-1.984 J0.
X59.134 Z0.064 I1.984 J0.
X55.165 Z0.001 I-1.984 J0.
X59.134 Z-0.061 I1.984 J0.
X55.165 Z-0.123 I-1.984 J0.
X59.134 Z-0.186 I1.984 J0.
X55.165 Z-0.248 I-1.984 J0.
X59.134 Z-0.31 I1.984 J0.
X55.165 Z-0.373 I-1.984 J0.
X59.134 Z-0.435 I1.984 J0.
X55.165 Z-0.497 I-1.984 J0.
X59.134 Z-0.56 I1.984 J0.
X55.165 Z-0.622 I-1.984 J0.
X59.134 Z-0.684 I1.984 J0.
X55.165 Z-0.747 I-1.984 J0.
X59.134 Z-0.809 I1.984 J0.
X55.165 Z-0.872 I-1.984 J0.
X59.134 Z-0.934 I1.984 J0.
X55.165 Z-0.996 I-1.984 J0.
X59.134 Z-1.059 I1.984 J0.
X55.165 Z-1.121 I-1.984 J0.
X59.134 Z-1.183 I1.984 J0.
X55.165 Z-1.246 I-1.984 J0.
X59.134 Z-1.308 I1.984 J0.
X55.165 Z-1.37 I-1.984 J0.
X59.134 Z-1.433 I1.984 J0.
X55.165 Z-1.495 I-1.984 J0.
X59.134 Z-1.557 I1.984 J0.
X55.165 Z-1.62 I-1.984 J0.
X59.134 Z-1.682 I1.984 J0.
X55.165 Z-1.744 I-1.984 J0.
X59.134 Z-1.807 I1.984 J0.
X55.165 Z-1.869 I-1.984 J0.
X59.134 Z-1.931 I1.984 J0.
X55.165 Z-1.994 I-1.984 J0.
X59.134 Z-2.056 I1.984 J0.
X55.165 Z-2.118 I-1.984 J0.
X59.134 Z-2.181 I1.984 J0.
X55.165 Z-2.243 I-1.984 J0.
X59.134 Z-2.306 I1.984 J0.
X55.165 Z-2.368 I-1.984 J0.
X59.134 Z-2.43 I1.984 J0.
X55.165 Z-2.493 I-1.984 J0.
X59.134 Z-2.555 I1.984 J0.
X55.165 Z-2.617 I-1.984 J0.
X59.134 Z-2.68 I1.984 J0.
X55.165 Z-2.742 I-1.984 J0.
X59.134 Z-2.804 I1.984 J0.
X55.165 Z-2.867 I-1.984 J0.
X59.134 Z-2.929 I1.984 J0.
X55.165 Z-2.991 I-1.984 J0.
X59.134 Z-3.054 I1.984 J0.
X55.165 Z-3.116 I-1.984 J0.
X59.134 Z-3.178 I1.984 J0.
X55.165 Z-3.241 I-1.984 J0.
X59.134 Z-3.303 I1.984 J0.
X55.165 Z-3.365 I-1.984 J0.
X59.134 Z-3.428 I1.984 J0.
X55.165 Z-3.49 I-1.984 J0.
X59.134 Z-3.552 I1.984 J0.
X55.165 Z-3.615 I-1.984 J0.
X59.134 Z-3.677 I1.984 J0.
X55.165 Z-3.74 I-1.984 J0.
X59.134 Z-3.802 I1.984 J0.
X55.165 Z-3.864 I-1.984 J0.
X59.134 Z-3.927 I1.984 J0.
X55.165 Z-3.989 I-1.984 J0.
X59.134 Z-4.051 I1.984 J0.
X55.165 Z-4.114 I-1.984 J0.
X59.134 Z-4.176 I1.984 J0.
X55.165 Z-4.238 I-1.984 J0.
X59.134 Z-4.301 I1.984 J0.
X55.165 Z-4.363 I-1.984 J0.
X59.134 Z-4.425 I1.984 J0.
X55.165 Z-4.488 I-1.984 J0.
X59.134 Z-4.55 I1.984 J0.
X55.165 Z-4.612 I-1.984 J0.
X59.134 Z-4.675 I1.984 J0.
X57.079 Y163.117 Z-4.707 I-1.984 J0.
X55.17 Y165.239 Z-4.738 I0.07 J1.983
X59.129 Y164.96 I1.979 J-0.139
X55.17 Y165.239 I-1.979 J0.139
X55.509 Y165.533 I0.317 J-0.022
G1 X55.667 Y165.522
X55.738 Y165.517 Z-4.731
X55.805 Y165.513 Z-4.707
X55.865 Y165.508 Z-4.669
X55.915 Y165.505 Z-4.619
X55.952 Y165.502 Z-4.559
X55.976 Y165.501 Z-4.492
X55.984 Y165.5 Z-4.421
G0 Z6.
X55.883 Y205.558
Z3.
G1 Z1.317 F1600.
G18 G3 X55.566 Z1. I-0.318 K0.
G1 X55.407
G17 G2 X55.09 Y205.876 I0. J0.317
X59.058 Z0.938 I1.984 J0.
X55.09 Z0.875 I-1.984 J0.
X59.058 Z0.813 I1.984 J0.
X55.09 Z0.751 I-1.984 J0.
X59.058 Z0.688 I1.984 J0.
X55.09 Z0.626 I-1.984 J0.
X59.058 Z0.564 I1.984 J0.
X55.09 Z0.501 I-1.984 J0.
X59.058 Z0.439 I1.984 J0.
X55.09 Z0.377 I-1.984 J0.
X59.058 Z0.314 I1.984 J0.
X55.09 Z0.252 I-1.984 J0.
X59.058 Z0.189 I1.984 J0.
X55.09 Z0.127 I-1.984 J0.
X59.058 Z0.065 I1.984 J0.
X55.09 Z0.002 I-1.984 J0.
X59.058 Z-0.06 I1.984 J0.
X55.09 Z-0.122 I-1.984 J0.
X59.058 Z-0.185 I1.984 J0.
X55.09 Z-0.247 I-1.984 J0.
X59.058 Z-0.309 I1.984 J0.
X55.09 Z-0.372 I-1.984 J0.
X59.058 Z-0.434 I1.984 J0.
X55.09 Z-0.496 I-1.984 J0.
X59.058 Z-0.559 I1.984 J0.
X55.09 Z-0.621 I-1.984 J0.
X59.058 Z-0.683 I1.984 J0.
X55.09 Z-0.746 I-1.984 J0.
X59.058 Z-0.808 I1.984 J0.
X55.09 Z-0.87 I-1.984 J0.
X59.058 Z-0.933 I1.984 J0.
X55.09 Z-0.995 I-1.984 J0.
X59.058 Z-1.057 I1.984 J0.
X55.09 Z-1.12 I-1.984 J0.
X59.058 Z-1.182 I1.984 J0.
X55.09 Z-1.245 I-1.984 J0.
X59.058 Z-1.307 I1.984 J0.
X55.09 Z-1.369 I-1.984 J0.
X59.058 Z-1.432 I1.984 J0.
X55.09 Z-1.494 I-1.984 J0.
X59.058 Z-1.556 I1.984 J0.
X55.09 Z-1.619 I-1.984 J0.
X59.058 Z-1.681 I1.984 J0.
X55.09 Z-1.743 I-1.984 J0.
X59.058 Z-1.806 I1.984 J0.
X55.09 Z-1.868 I-1.984 J0.
X59.058 Z-1.93 I1.984 J0.
X55.09 Z-1.993 I-1.984 J0.
X59.058 Z-2.055 I1.984 J0.
X55.09 Z-2.117 I-1.984 J0.
X59.058 Z-2.18 I1.984 J0.
X55.09 Z-2.242 I-1.984 J0.
X59.058 Z-2.304 I1.984 J0.
X55.09 Z-2.367 I-1.984 J0.
X59.058 Z-2.429 I1.984 J0.
X55.09 Z-2.491 I-1.984 J0.
X59.058 Z-2.554 I1.984 J0.
X55.09 Z-2.616 I-1.984 J0.
X59.058 Z-2.678 I1.984 J0.
X55.09 Z-2.741 I-1.984 J0.
X59.058 Z-2.803 I1.984 J0.
X55.09 Z-2.866 I-1.984 J0.
X59.058 Z-2.928 I1.984 J0.
X55.09 Z-2.99 I-1.984 J0.
X59.058 Z-3.053 I1.984 J0.
X55.09 Z-3.115 I-1.984 J0.
X59.058 Z-3.177 I1.984 J0.
X55.09 Z-3.24 I-1.984 J0.
X59.058 Z-3.302 I1.984 J0.
X55.09 Z-3.364 I-1.984 J0.
X59.058 Z-3.427 I1.984 J0.
X55.09 Z-3.489 I-1.984 J0.
X59.058 Z-3.551 I1.984 J0.
X55.09 Z-3.614 I-1.984 J0.
X59.058 Z-3.676 I1.984 J0.
X55.09 Z-3.738 I-1.984 J0.
X59.058 Z-3.801 I1.984 J0.
X55.09 Z-3.863 I-1.984 J0.
X59.058 Z-3.925 I1.984 J0.
X55.09 Z-3.988 I-1.984 J0.
X59.058 Z-4.05 I1.984 J0.
X55.09 Z-4.112 I-1.984 J0.
X59.058 Z-4.175 I1.984 J0.
X55.09 Z-4.237 I-1.984 J0.
X59.058 Z-4.3 I1.984 J0.
X55.09 Z-4.362 I-1.984 J0.
X59.058 Z-4.424 I1.984 J0.
X55.09 Z-4.487 I-1.984 J0.
X59.058 Z-4.549 I1.984 J0.
X55.09 Z-4.611 I-1.984 J0.
X57.144 Y207.859 Z-4.643 I1.984 J0.
X59.054 Y205.736 Z-4.675 I-0.07 J-1.983
X55.095 Y206.015 I-1.979 J0.139
X59.054 Y205.736 I1.979 J-0.139
X58.715 Y205.442 I-0.317 J0.022
G1 X58.556 Y205.453
X58.486 Y205.458 Z-4.667
X58.419 Y205.463 Z-4.644
X58.359 Y205.467 Z-4.606
X58.309 Y205.471 Z-4.555
X58.271 Y205.473 Z-4.495
X58.247 Y205.475 Z-4.428
X58.24 Z-4.358
G0 Z6.
X81.283 Y205.558
Z3.
G1 Z1.317 F1600.
G18 G3 X80.966 Z1. I-0.317 K0.
G1 X80.807
G17 G2 X80.49 Y205.876 I0. J0.317
X84.458 Z0.938 I1.984 J0.
X80.49 Z0.875 I-1.984 J0.
X84.458 Z0.813 I1.984 J0.
X80.49 Z0.751 I-1.984 J0.
X84.458 Z0.688 I1.984 J0.
X80.49 Z0.626 I-1.984 J0.
X84.458 Z0.564 I1.984 J0.
X80.49 Z0.501 I-1.984 J0.
X84.458 Z0.439 I1.984 J0.
X80.49 Z0.377 I-1.984 J0.
X84.458 Z0.314 I1.984 J0.
X80.49 Z0.252 I-1.984 J0.
X84.458 Z0.189 I1.984 J0.
X80.49 Z0.127 I-1.984 J0.
X84.458 Z0.065 I1.984 J0.
X80.49 Z0.002 I-1.984 J0.
X84.458 Z-0.06 I1.984 J0.
X80.49 Z-0.122 I-1.984 J0.
X84.458 Z-0.185 I1.984 J0.
X80.49 Z-0.247 I-1.984 J0.
X84.458 Z-0.309 I1.984 J0.
X80.49 Z-0.372 I-1.984 J0.
X84.458 Z-0.434 I1.984 J0.
X80.49 Z-0.496 I-1.984 J0.
X84.458 Z-0.559 I1.984 J0.
X80.49 Z-0.621 I-1.984 J0.
X84.458 Z-0.683 I1.984 J0.
X80.49 Z-0.746 I-1.984 J0.
X84.458 Z-0.808 I1.984 J0.
X80.49 Z-0.87 I-1.984 J0.
X84.458 Z-0.933 I1.984 J0.
X80.49 Z-0.995 I-1.984 J0.
X84.458 Z-1.057 I1.984 J0.
X80.49 Z-1.12 I-1.984 J0.
X84.458 Z-1.182 I1.984 J0.
X80.49 Z-1.245 I-1.984 J0.
X84.458 Z-1.307 I1.984 J0.
X80.49 Z-1.369 I-1.984 J0.
X84.458 Z-1.432 I1.984 J0.
X80.49 Z-1.494 I-1.984 J0.
X84.458 Z-1.556 I1.984 J0.
X80.49 Z-1.619 I-1.984 J0.
X84.458 Z-1.681 I1.984 J0.
X80.49 Z-1.743 I-1.984 J0.
X84.458 Z-1.806 I1.984 J0.
X80.49 Z-1.868 I-1.984 J0.
X84.458 Z-1.93 I1.984 J0.
X80.49 Z-1.993 I-1.984 J0.
X84.458 Z-2.055 I1.984 J0.
X80.49 Z-2.117 I-1.984 J0.
X84.458 Z-2.18 I1.984 J0.
X80.49 Z-2.242 I-1.984 J0.
X84.458 Z-2.304 I1.984 J0.
X80.49 Z-2.367 I-1.984 J0.
X84.458 Z-2.429 I1.984 J0.
X80.49 Z-2.491 I-1.984 J0.
X84.458 Z-2.554 I1.984 J0.
X80.49 Z-2.616 I-1.984 J0.
X84.458 Z-2.678 I1.984 J0.
X80.49 Z-2.741 I-1.984 J0.
X84.458 Z-2.803 I1.984 J0.
X80.49 Z-2.866 I-1.984 J0.
X84.458 Z-2.928 I1.984 J0.
X80.49 Z-2.99 I-1.984 J0.
X84.458 Z-3.053 I1.984 J0.
X80.49 Z-3.115 I-1.984 J0.
X84.458 Z-3.177 I1.984 J0.
X80.49 Z-3.24 I-1.984 J0.
X84.458 Z-3.302 I1.984 J0.
X80.49 Z-3.364 I-1.984 J0.
X84.458 Z-3.427 I1.984 J0.
X80.49 Z-3.489 I-1.984 J0.
X84.458 Z-3.551 I1.984 J0.
X80.49 Z-3.614 I-1.984 J0.
X84.458 Z-3.676 I1.984 J0.
X80.49 Z-3.738 I-1.984 J0.
X84.458 Z-3.801 I1.984 J0.
X80.49 Z-3.863 I-1.984 J0.
X84.458 Z-3.925 I1.984 J0.
X80.49 Z-3.988 I-1.984 J0.
X84.458 Z-4.05 I1.984 J0.
X80.49 Z-4.112 I-1.984 J0.
X84.458 Z-4.175 I1.984 J0.
X80.49 Z-4.237 I-1.984 J0.
X84.458 Z-4.3 I1.984 J0.
X80.49 Z-4.362 I-1.984 J0.
X84.458 Z-4.424 I1.984 J0.
X80.49 Z-4.487 I-1.984 J0.
X84.458 Z-4.549 I1.984 J0.
X80.49 Z-4.611 I-1.984 J0.
X82.544 Y207.859 Z-4.643 I1.984 J0.
X84.454 Y205.736 Z-4.675 I-0.07 J-1.983
X80.495 Y206.015 I-1.979 J0.139
X84.454 Y205.736 I1.979 J-0.139
X84.115 Y205.442 I-0.317 J0.022
G1 X83.956 Y205.453
X83.886 Y205.458 Z-4.667
X83.819 Y205.463 Z-4.644
X83.759 Y205.467 Z-4.606
X83.709 Y205.471 Z-4.555
X83.671 Y205.473 Z-4.495
X83.647 Y205.475 Z-4.428
X83.64 Z-4.358
G0 Z6.
X81.283 Y230.958
Z3.
G1 Z1.317 F1600.
G18 G3 X80.966 Z1. I-0.317 K0.
G1 X80.807
G17 G2 X80.49 Y231.276 I0. J0.318
X84.458 Z0.938 I1.984 J0.
X80.49 Z0.875 I-1.984 J0.
X84.458 Z0.813 I1.984 J0.
X80.49 Z0.751 I-1.984 J0.
X84.458 Z0.688 I1.984 J0.
X80.49 Z0.626 I-1.984 J0.
X84.458 Z0.564 I1.984 J0.
X80.49 Z0.501 I-1.984 J0.
X84.458 Z0.439 I1.984 J0.
X80.49 Z0.377 I-1.984 J0.
X84.458 Z0.314 I1.984 J0.
X80.49 Z0.252 I-1.984 J0.
X84.458 Z0.189 I1.984 J0.
X80.49 Z0.127 I-1.984 J0.
X84.458 Z0.065 I1.984 J0.
X80.49 Z0.002 I-1.984 J0.
X84.458 Z-0.06 I1.984 J0.
X80.49 Z-0.122 I-1.984 J0.
X84.458 Z-0.185 I1.984 J0.
X80.49 Z-0.247 I-1.984 J0.
X84.458 Z-0.309 I1.984 J0.
X80.49 Z-0.372 I-1.984 J0.
X84.458 Z-0.434 I1.984 J0.
X80.49 Z-0.496 I-1.984 J0.
X84.458 Z-0.559 I1.984 J0.
X80.49 Z-0.621 I-1.984 J0.
X84.458 Z-0.683 I1.984 J0.
X80.49 Z-0.746 I-1.984 J0.
X84.458 Z-0.808 I1.984 J0.
X80.49 Z-0.87 I-1.984 J0.
X84.458 Z-0.933 I1.984 J0.
X80.49 Z-0.995 I-1.984 J0.
X84.458 Z-1.057 I1.984 J0.
X80.49 Z-1.12 I-1.984 J0.
X84.458 Z-1.182 I1.984 J0.
X80.49 Z-1.245 I-1.984 J0.
X84.458 Z-1.307 I1.984 J0.
X80.49 Z-1.369 I-1.984 J0.
X84.458 Z-1.432 I1.984 J0.
X80.49 Z-1.494 I-1.984 J0.
X84.458 Z-1.556 I1.984 J0.
X80.49 Z-1.619 I-1.984 J0.
X84.458 Z-1.681 I1.984 J0.
X80.49 Z-1.743 I-1.984 J0.
X84.458 Z-1.806 I1.984 J0.
X80.49 Z-1.868 I-1.984 J0.
X84.458 Z-1.93 I1.984 J0.
X80.49 Z-1.993 I-1.984 J0.
X84.458 Z-2.055 I1.984 J0.
X80.49 Z-2.117 I-1.984 J0.
X84.458 Z-2.18 I1.984 J0.
X80.49 Z-2.242 I-1.984 J0.
X84.458 Z-2.304 I1.984 J0.
X80.49 Z-2.367 I-1.984 J0.
X84.458 Z-2.429 I1.984 J0.
X80.49 Z-2.491 I-1.984 J0.
X84.458 Z-2.554 I1.984 J0.
X80.49 Z-2.616 I-1.984 J0.
X84.458 Z-2.678 I1.984 J0.
X80.49 Z-2.741 I-1.984 J0.
X84.458 Z-2.803 I1.984 J0.
X80.49 Z-2.866 I-1.984 J0.
X84.458 Z-2.928 I1.984 J0.
X80.49 Z-2.99 I-1.984 J0.
X84.458 Z-3.053 I1.984 J0.
X80.49 Z-3.115 I-1.984 J0.
X84.458 Z-3.177 I1.984 J0.
X80.49 Z-3.24 I-1.984 J0.
X84.458 Z-3.302 I1.984 J0.
X80.49 Z-3.364 I-1.984 J0.
X84.458 Z-3.427 I1.984 J0.
X80.49 Z-3.489 I-1.984 J0.
X84.458 Z-3.551 I1.984 J0.
X80.49 Z-3.614 I-1.984 J0.
X84.458 Z-3.676 I1.984 J0.
X80.49 Z-3.738 I-1.984 J0.
X84.458 Z-3.801 I1.984 J0.
X80.49 Z-3.863 I-1.984 J0.
X84.458 Z-3.925 I1.984 J0.
X80.49 Z-3.988 I-1.984 J0.
X84.458 Z-4.05 I1.984 J0.
X80.49 Z-4.112 I-1.984 J0.
X84.458 Z-4.175 I1.984 J0.
X80.49 Z-4.237 I-1.984 J0.
X84.458 Z-4.3 I1.984 J0.
X80.49 Z-4.362 I-1.984 J0.
X84.458 Z-4.424 I1.984 J0.
X80.49 Z-4.487 I-1.984 J0.
X84.458 Z-4.549 I1.984 J0.
X80.49 Z-4.611 I-1.984 J0.
X82.544 Y233.259 Z-4.643 I1.984 J0.
X84.454 Y231.136 Z-4.675 I-0.07 J-1.983
X80.495 Y231.415 I-1.979 J0.139
X84.454 Y231.136 I1.979 J-0.139
X84.115 Y230.842 I-0.317 J0.022
G1 X83.956 Y230.853
X83.886 Y230.858 Z-4.667
X83.819 Y230.863 Z-4.644
X83.759 Y230.867 Z-4.606
X83.709 Y230.871 Z-4.555
X83.671 Y230.873 Z-4.495
X83.647 Y230.875 Z-4.428
X83.64 Z-4.358
G0 Z6.
X55.883 Y230.958
Z3.
G1 Z1.317 F1600.
G18 G3 X55.566 Z1. I-0.318 K0.
G1 X55.407
G17 G2 X55.09 Y231.276 I0. J0.318
X59.058 Z0.938 I1.984 J0.
X55.09 Z0.875 I-1.984 J0.
X59.058 Z0.813 I1.984 J0.
X55.09 Z0.751 I-1.984 J0.
X59.058 Z0.688 I1.984 J0.
X55.09 Z0.626 I-1.984 J0.
X59.058 Z0.564 I1.984 J0.
X55.09 Z0.501 I-1.984 J0.
X59.058 Z0.439 I1.984 J0.
X55.09 Z0.377 I-1.984 J0.
X59.058 Z0.314 I1.984 J0.
X55.09 Z0.252 I-1.984 J0.
X59.058 Z0.189 I1.984 J0.
X55.09 Z0.127 I-1.984 J0.
X59.058 Z0.065 I1.984 J0.
X55.09 Z0.002 I-1.984 J0.
X59.058 Z-0.06 I1.984 J0.
X55.09 Z-0.122 I-1.984 J0.
X59.058 Z-0.185 I1.984 J0.
X55.09 Z-0.247 I-1.984 J0.
X59.058 Z-0.309 I1.984 J0.
X55.09 Z-0.372 I-1.984 J0.
X59.058 Z-0.434 I1.984 J0.
X55.09 Z-0.496 I-1.984 J0.
X59.058 Z-0.559 I1.984 J0.
X55.09 Z-0.621 I-1.984 J0.
X59.058 Z-0.683 I1.984 J0.
X55.09 Z-0.746 I-1.984 J0.
X59.058 Z-0.808 I1.984 J0.
X55.09 Z-0.87 I-1.984 J0.
X59.058 Z-0.933 I1.984 J0.
X55.09 Z-0.995 I-1.984 J0.
X59.058 Z-1.057 I1.984 J0.
X55.09 Z-1.12 I-1.984 J0.
X59.058 Z-1.182 I1.984 J0.
X55.09 Z-1.245 I-1.984 J0.
X59.058 Z-1.307 I1.984 J0.
X55.09 Z-1.369 I-1.984 J0.
X59.058 Z-1.432 I1.984 J0.
X55.09 Z-1.494 I-1.984 J0.
X59.058 Z-1.556 I1.984 J0.
X55.09 Z-1.619 I-1.984 J0.
X59.058 Z-1.681 I1.984 J0.
X55.09 Z-1.743 I-1.984 J0.
X59.058 Z-1.806 I1.984 J0.
X55.09 Z-1.868 I-1.984 J0.
X59.058 Z-1.93 I1.984 J0.
X55.09 Z-1.993 I-1.984 J0.
X59.058 Z-2.055 I1.984 J0.
X55.09 Z-2.117 I-1.984 J0.
X59.058 Z-2.18 I1.984 J0.
X55.09 Z-2.242 I-1.984 J0.
X59.058 Z-2.304 I1.984 J0.
X55.09 Z-2.367 I-1.984 J0.
X59.058 Z-2.429 I1.984 J0.
X55.09 Z-2.491 I-1.984 J0.
X59.058 Z-2.554 I1.984 J0.
X55.09 Z-2.616 I-1.984 J0.
X59.058 Z-2.678 I1.984 J0.
X55.09 Z-2.741 I-1.984 J0.
X59.058 Z-2.803 I1.984 J0.
X55.09 Z-2.866 I-1.984 J0.
X59.058 Z-2.928 I1.984 J0.
X55.09 Z-2.99 I-1.984 J0.
X59.058 Z-3.053 I1.984 J0.
X55.09 Z-3.115 I-1.984 J0.
X59.058 Z-3.177 I1.984 J0.
X55.09 Z-3.24 I-1.984 J0.
X59.058 Z-3.302 I1.984 J0.
X55.09 Z-3.364 I-1.984 J0.
X59.058 Z-3.427 I1.984 J0.
X55.09 Z-3.489 I-1.984 J0.
X59.058 Z-3.551 I1.984 J0.
X55.09 Z-3.614 I-1.984 J0.
X59.058 Z-3.676 I1.984 J0.
X55.09 Z-3.738 I-1.984 J0.
X59.058 Z-3.801 I1.984 J0.
X55.09 Z-3.863 I-1.984 J0.
X59.058 Z-3.925 I1.984 J0.
X55.09 Z-3.988 I-1.984 J0.
X59.058 Z-4.05 I1.984 J0.
X55.09 Z-4.112 I-1.984 J0.
X59.058 Z-4.175 I1.984 J0.
X55.09 Z-4.237 I-1.984 J0.
X59.058 Z-4.3 I1.984 J0.
X55.09 Z-4.362 I-1.984 J0.
X59.058 Z-4.424 I1.984 J0.
X55.09 Z-4.487 I-1.984 J0.
X59.058 Z-4.549 I1.984 J0.
X55.09 Z-4.611 I-1.984 J0.
X57.144 Y233.259 Z-4.643 I1.984 J0.
X59.054 Y231.136 Z-4.675 I-0.07 J-1.983
X55.095 Y231.415 I-1.979 J0.139
X59.054 Y231.136 I1.979 J-0.139
X58.715 Y230.842 I-0.317 J0.022
G1 X58.556 Y230.853
X58.486 Y230.858 Z-4.667
X58.419 Y230.863 Z-4.644
X58.359 Y230.867 Z-4.606
X58.309 Y230.871 Z-4.555
X58.271 Y230.873 Z-4.495
X58.247 Y230.875 Z-4.428
X58.24 Z-4.358
G0 Z6.
X55.883 Y256.358
Z3.
G1 Z1.317 F1600.
G18 G3 X55.566 Z1. I-0.318 K0.
G1 X55.407
G17 G2 X55.09 Y256.676 I0. J0.318
X59.058 Z0.938 I1.984 J0.
X55.09 Z0.875 I-1.984 J0.
X59.058 Z0.813 I1.984 J0.
X55.09 Z0.751 I-1.984 J0.
X59.058 Z0.688 I1.984 J0.
X55.09 Z0.626 I-1.984 J0.
X59.058 Z0.564 I1.984 J0.
X55.09 Z0.501 I-1.984 J0.
X59.058 Z0.439 I1.984 J0.
X55.09 Z0.377 I-1.984 J0.
X59.058 Z0.314 I1.984 J0.
X55.09 Z0.252 I-1.984 J0.
X59.058 Z0.189 I1.984 J0.
X55.09 Z0.127 I-1.984 J0.
X59.058 Z0.065 I1.984 J0.
X55.09 Z0.002 I-1.984 J0.
X59.058 Z-0.06 I1.984 J0.
X55.09 Z-0.122 I-1.984 J0.
X59.058 Z-0.185 I1.984 J0.
X55.09 Z-0.247 I-1.984 J0.
X59.058 Z-0.309 I1.984 J0.
X55.09 Z-0.372 I-1.984 J0.
X59.058 Z-0.434 I1.984 J0.
X55.09 Z-0.496 I-1.984 J0.
X59.058 Z-0.559 I1.984 J0.
X55.09 Z-0.621 I-1.984 J0.
X59.058 Z-0.683 I1.984 J0.
X55.09 Z-0.746 I-1.984 J0.
X59.058 Z-0.808 I1.984 J0.
X55.09 Z-0.87 I-1.984 J0.
X59.058 Z-0.933 I1.984 J0.
X55.09 Z-0.995 I-1.984 J0.
X59.058 Z-1.057 I1.984 J0.
X55.09 Z-1.12 I-1.984 J0.
X59.058 Z-1.182 I1.984 J0.
X55.09 Z-1.245 I-1.984 J0.
X59.058 Z-1.307 I1.984 J0.
X55.09 Z-1.369 I-1.984 J0.
X59.058 Z-1.432 I1.984 J0.
X55.09 Z-1.494 I-1.984 J0.
X59.058 Z-1.556 I1.984 J0.
X55.09 Z-1.619 I-1.984 J0.
X59.058 Z-1.681 I1.984 J0.
X55.09 Z-1.743 I-1.984 J0.
X59.058 Z-1.806 I1.984 J0.
X55.09 Z-1.868 I-1.984 J0.
X59.058 Z-1.93 I1.984 J0.
X55.09 Z-1.993 I-1.984 J0.
X59.058 Z-2.055 I1.984 J0.
X55.09 Z-2.117 I-1.984 J0.
X59.058 Z-2.18 I1.984 J0.
X55.09 Z-2.242 I-1.984 J0.
X59.058 Z-2.304 I1.984 J0.
X55.09 Z-2.367 I-1.984 J0.
X59.058 Z-2.429 I1.984 J0.
X55.09 Z-2.491 I-1.984 J0.
X59.058 Z-2.554 I1.984 J0.
X55.09 Z-2.616 I-1.984 J0.
X59.058 Z-2.678 I1.984 J0.
X55.09 Z-2.741 I-1.984 J0.
X59.058 Z-2.803 I1.984 J0.
X55.09 Z-2.866 I-1.984 J0.
X59.058 Z-2.928 I1.984 J0.
X55.09 Z-2.99 I-1.984 J0.
X59.058 Z-3.053 I1.984 J0.
X55.09 Z-3.115 I-1.984 J0.
X59.058 Z-3.177 I1.984 J0.
X55.09 Z-3.24 I-1.984 J0.
X59.058 Z-3.302 I1.984 J0.
X55.09 Z-3.364 I-1.984 J0.
X59.058 Z-3.427 I1.984 J0.
X55.09 Z-3.489 I-1.984 J0.
X59.058 Z-3.551 I1.984 J0.
X55.09 Z-3.614 I-1.984 J0.
X59.058 Z-3.676 I1.984 J0.
X55.09 Z-3.738 I-1.984 J0.
X59.058 Z-3.801 I1.984 J0.
X55.09 Z-3.863 I-1.984 J0.
X59.058 Z-3.925 I1.984 J0.
X55.09 Z-3.988 I-1.984 J0.
X59.058 Z-4.05 I1.984 J0.
X55.09 Z-4.112 I-1.984 J0.
X59.058 Z-4.175 I1.984 J0.
X55.09 Z-4.237 I-1.984 J0.
X59.058 Z-4.3 I1.984 J0.
X55.09 Z-4.362 I-1.984 J0.
X59.058 Z-4.424 I1.984 J0.
X55.09 Z-4.487 I-1.984 J0.
X59.058 Z-4.549 I1.984 J0.
X55.09 Z-4.611 I-1.984 J0.
X57.144 Y258.659 Z-4.643 I1.984 J0.
X59.054 Y256.536 Z-4.675 I-0.07 J-1.983
X55.095 Y256.815 I-1.979 J0.139
X59.054 Y256.536 I1.979 J-0.139
X58.715 Y256.242 I-0.317 J0.022
G1 X58.556 Y256.253
X58.486 Y256.258 Z-4.667
X58.419 Y256.263 Z-4.644
X58.359 Y256.267 Z-4.606
X58.309 Y256.271 Z-4.555
X58.271 Y256.273 Z-4.495
X58.247 Y256.275 Z-4.428
X58.24 Z-4.358
G0 Z6.
X81.283 Y256.358
Z3.
G1 Z1.317 F1600.
G18 G3 X80.966 Z1. I-0.317 K0.
G1 X80.807
G17 G2 X80.49 Y256.676 I0. J0.318
X84.458 Z0.938 I1.984 J0.
X80.49 Z0.875 I-1.984 J0.
X84.458 Z0.813 I1.984 J0.
X80.49 Z0.751 I-1.984 J0.
X84.458 Z0.688 I1.984 J0.
X80.49 Z0.626 I-1.984 J0.
X84.458 Z0.564 I1.984 J0.
X80.49 Z0.501 I-1.984 J0.
X84.458 Z0.439 I1.984 J0.
X80.49 Z0.377 I-1.984 J0.
X84.458 Z0.314 I1.984 J0.
X80.49 Z0.252 I-1.984 J0.
X84.458 Z0.189 I1.984 J0.
X80.49 Z0.127 I-1.984 J0.
X84.458 Z0.065 I1.984 J0.
X80.49 Z0.002 I-1.984 J0.
X84.458 Z-0.06 I1.984 J0.
X80.49 Z-0.122 I-1.984 J0.
X84.458 Z-0.185 I1.984 J0.
X80.49 Z-0.247 I-1.984 J0.
X84.458 Z-0.309 I1.984 J0.
X80.49 Z-0.372 I-1.984 J0.
X84.458 Z-0.434 I1.984 J0.
X80.49 Z-0.496 I-1.984 J0.
X84.458 Z-0.559 I1.984 J0.
X80.49 Z-0.621 I-1.984 J0.
X84.458 Z-0.683 I1.984 J0.
X80.49 Z-0.746 I-1.984 J0.
X84.458 Z-0.808 I1.984 J0.
X80.49 Z-0.87 I-1.984 J0.
X84.458 Z-0.933 I1.984 J0.
X80.49 Z-0.995 I-1.984 J0.
X84.458 Z-1.057 I1.984 J0.
X80.49 Z-1.12 I-1.984 J0.
X84.458 Z-1.182 I1.984 J0.
X80.49 Z-1.245 I-1.984 J0.
X84.458 Z-1.307 I1.984 J0.
X80.49 Z-1.369 I-1.984 J0.
X84.458 Z-1.432 I1.984 J0.
X80.49 Z-1.494 I-1.984 J0.
X84.458 Z-1.556 I1.984 J0.
X80.49 Z-1.619 I-1.984 J0.
X84.458 Z-1.681 I1.984 J0.
X80.49 Z-1.743 I-1.984 J0.
X84.458 Z-1.806 I1.984 J0.
X80.49 Z-1.868 I-1.984 J0.
X84.458 Z-1.93 I1.984 J0.
X80.49 Z-1.993 I-1.984 J0.
X84.458 Z-2.055 I1.984 J0.
X80.49 Z-2.117 I-1.984 J0.
X84.458 Z-2.18 I1.984 J0.
X80.49 Z-2.242 I-1.984 J0.
X84.458 Z-2.304 I1.984 J0.
X80.49 Z-2.367 I-1.984 J0.
X84.458 Z-2.429 I1.984 J0.
X80.49 Z-2.491 I-1.984 J0.
X84.458 Z-2.554 I1.984 J0.
X80.49 Z-2.616 I-1.984 J0.
X84.458 Z-2.678 I1.984 J0.
X80.49 Z-2.741 I-1.984 J0.
X84.458 Z-2.803 I1.984 J0.
X80.49 Z-2.866 I-1.984 J0.
X84.458 Z-2.928 I1.984 J0.
X80.49 Z-2.99 I-1.984 J0.
X84.458 Z-3.053 I1.984 J0.
X80.49 Z-3.115 I-1.984 J0.
X84.458 Z-3.177 I1.984 J0.
X80.49 Z-3.24 I-1.984 J0.
X84.458 Z-3.302 I1.984 J0.
X80.49 Z-3.364 I-1.984 J0.
X84.458 Z-3.427 I1.984 J0.
X80.49 Z-3.489 I-1.984 J0.
X84.458 Z-3.551 I1.984 J0.
X80.49 Z-3.614 I-1.984 J0.
X84.458 Z-3.676 I1.984 J0.
X80.49 Z-3.738 I-1.984 J0.
X84.458 Z-3.801 I1.984 J0.
X80.49 Z-3.863 I-1.984 J0.
X84.458 Z-3.925 I1.984 J0.
X80.49 Z-3.988 I-1.984 J0.
X84.458 Z-4.05 I1.984 J0.
X80.49 Z-4.112 I-1.984 J0.
X84.458 Z-4.175 I1.984 J0.
X80.49 Z-4.237 I-1.984 J0.
X84.458 Z-4.3 I1.984 J0.
X80.49 Z-4.362 I-1.984 J0.
X84.458 Z-4.424 I1.984 J0.
X80.49 Z-4.487 I-1.984 J0.
X84.458 Z-4.549 I1.984 J0.
X80.49 Z-4.611 I-1.984 J0.
X82.544 Y258.659 Z-4.643 I1.984 J0.
X84.454 Y256.536 Z-4.675 I-0.07 J-1.983
X80.495 Y256.815 I-1.979 J0.139
X84.454 Y256.536 I1.979 J-0.139
X84.115 Y256.242 I-0.317 J0.022
G1 X83.956 Y256.253
X83.886 Y256.258 Z-4.667
X83.819 Y256.263 Z-4.644
X83.759 Y256.267 Z-4.606
X83.709 Y256.271 Z-4.555
X83.671 Y256.273 Z-4.495
X83.647 Y256.275 Z-4.428
X83.64 Z-4.358
G0 Z6.
X81.283 Y281.758
Z3.
G1 Z1.317 F1600.
G18 G3 X80.966 Z1. I-0.317 K0.
G1 X80.807
G17 G2 X80.49 Y282.076 I0. J0.318
X84.458 Z0.938 I1.984 J0.
X80.49 Z0.875 I-1.984 J0.
X84.458 Z0.813 I1.984 J0.
X80.49 Z0.751 I-1.984 J0.
X84.458 Z0.688 I1.984 J0.
X80.49 Z0.626 I-1.984 J0.
X84.458 Z0.564 I1.984 J0.
X80.49 Z0.501 I-1.984 J0.
X84.458 Z0.439 I1.984 J0.
X80.49 Z0.377 I-1.984 J0.
X84.458 Z0.314 I1.984 J0.
X80.49 Z0.252 I-1.984 J0.
X84.458 Z0.189 I1.984 J0.
X80.49 Z0.127 I-1.984 J0.
X84.458 Z0.065 I1.984 J0.
X80.49 Z0.002 I-1.984 J0.
X84.458 Z-0.06 I1.984 J0.
X80.49 Z-0.122 I-1.984 J0.
X84.458 Z-0.185 I1.984 J0.
X80.49 Z-0.247 I-1.984 J0.
X84.458 Z-0.309 I1.984 J0.
X80.49 Z-0.372 I-1.984 J0.
X84.458 Z-0.434 I1.984 J0.
X80.49 Z-0.496 I-1.984 J0.
X84.458 Z-0.559 I1.984 J0.
X80.49 Z-0.621 I-1.984 J0.
X84.458 Z-0.683 I1.984 J0.
X80.49 Z-0.746 I-1.984 J0.
X84.458 Z-0.808 I1.984 J0.
X80.49 Z-0.87 I-1.984 J0.
X84.458 Z-0.933 I1.984 J0.
X80.49 Z-0.995 I-1.984 J0.
X84.458 Z-1.057 I1.984 J0.
X80.49 Z-1.12 I-1.984 J0.
X84.458 Z-1.182 I1.984 J0.
X80.49 Z-1.245 I-1.984 J0.
X84.458 Z-1.307 I1.984 J0.
X80.49 Z-1.369 I-1.984 J0.
X84.458 Z-1.432 I1.984 J0.
X80.49 Z-1.494 I-1.984 J0.
X84.458 Z-1.556 I1.984 J0.
X80.49 Z-1.619 I-1.984 J0.
X84.458 Z-1.681 I1.984 J0.
X80.49 Z-1.743 I-1.984 J0.
X84.458 Z-1.806 I1.984 J0.
X80.49 Z-1.868 I-1.984 J0.
X84.458 Z-1.93 I1.984 J0.
X80.49 Z-1.993 I-1.984 J0.
X84.458 Z-2.055 I1.984 J0.
X80.49 Z-2.117 I-1.984 J0.
X84.458 Z-2.18 I1.984 J0.
X80.49 Z-2.242 I-1.984 J0.
X84.458 Z-2.304 I1.984 J0.
X80.49 Z-2.367 I-1.984 J0.
X84.458 Z-2.429 I1.984 J0.
X80.49 Z-2.491 I-1.984 J0.
X84.458 Z-2.554 I1.984 J0.
X80.49 Z-2.616 I-1.984 J0.
X84.458 Z-2.678 I1.984 J0.
X80.49 Z-2.741 I-1.984 J0.
X84.458 Z-2.803 I1.984 J0.
X80.49 Z-2.866 I-1.984 J0.
X84.458 Z-2.928 I1.984 J0.
X80.49 Z-2.99 I-1.984 J0.
X84.458 Z-3.053 I1.984 J0.
X80.49 Z-3.115 I-1.984 J0.
X84.458 Z-3.177 I1.984 J0.
X80.49 Z-3.24 I-1.984 J0.
X84.458 Z-3.302 I1.984 J0.
X80.49 Z-3.364 I-1.984 J0.
X84.458 Z-3.427 I1.984 J0.
X80.49 Z-3.489 I-1.984 J0.
X84.458 Z-3.551 I1.984 J0.
X80.49 Z-3.614 I-1.984 J0.
X84.458 Z-3.676 I1.984 J0.
X80.49 Z-3.738 I-1.984 J0.
X84.458 Z-3.801 I1.984 J0.
X80.49 Z-3.863 I-1.984 J0.
X84.458 Z-3.925 I1.984 J0.
X80.49 Z-3.988 I-1.984 J0.
X84.458 Z-4.05 I1.984 J0.
X80.49 Z-4.112 I-1.984 J0.
X84.458 Z-4.175 I1.984 J0.
X80.49 Z-4.237 I-1.984 J0.
X84.458 Z-4.3 I1.984 J0.
X80.49 Z-4.362 I-1.984 J0.
X84.458 Z-4.424 I1.984 J0.
X80.49 Z-4.487 I-1.984 J0.
X84.458 Z-4.549 I1.984 J0.
X80.49 Z-4.611 I-1.984 J0.
X82.544 Y284.059 Z-4.643 I1.984 J0.
X84.454 Y281.936 Z-4.675 I-0.07 J-1.983
X80.495 Y282.215 I-1.979 J0.139
X84.454 Y281.936 I1.979 J-0.139
X84.115 Y281.642 I-0.317 J0.022
G1 X83.956 Y281.653
X83.886 Y281.658 Z-4.667
X83.819 Y281.663 Z-4.644
X83.759 Y281.667 Z-4.606
X83.709 Y281.67 Z-4.555
X83.671 Y281.673 Z-4.495
X83.647 Y281.675 Z-4.428
X83.64 Z-4.358
G0 Z6.
X55.883 Y281.758
Z3.
G1 Z1.317 F1600.
G18 G3 X55.566 Z1. I-0.318 K0.
G1 X55.407
G17 G2 X55.09 Y282.076 I0. J0.318
X59.058 Z0.938 I1.984 J0.
X55.09 Z0.875 I-1.984 J0.
X59.058 Z0.813 I1.984 J0.
X55.09 Z0.751 I-1.984 J0.
X59.058 Z0.688 I1.984 J0.
X55.09 Z0.626 I-1.984 J0.
X59.058 Z0.564 I1.984 J0.
X55.09 Z0.501 I-1.984 J0.
X59.058 Z0.439 I1.984 J0.
X55.09 Z0.377 I-1.984 J0.
X59.058 Z0.314 I1.984 J0.
X55.09 Z0.252 I-1.984 J0.
X59.058 Z0.189 I1.984 J0.
X55.09 Z0.127 I-1.984 J0.
X59.058 Z0.065 I1.984 J0.
X55.09 Z0.002 I-1.984 J0.
X59.058 Z-0.06 I1.984 J0.
X55.09 Z-0.122 I-1.984 J0.
X59.058 Z-0.185 I1.984 J0.
X55.09 Z-0.247 I-1.984 J0.
X59.058 Z-0.309 I1.984 J0.
X55.09 Z-0.372 I-1.984 J0.
X59.058 Z-0.434 I1.984 J0.
X55.09 Z-0.496 I-1.984 J0.
X59.058 Z-0.559 I1.984 J0.
X55.09 Z-0.621 I-1.984 J0.
X59.058 Z-0.683 I1.984 J0.
X55.09 Z-0.746 I-1.984 J0.
X59.058 Z-0.808 I1.984 J0.
X55.09 Z-0.87 I-1.984 J0.
X59.058 Z-0.933 I1.984 J0.
X55.09 Z-0.995 I-1.984 J0.
X59.058 Z-1.057 I1.984 J0.
X55.09 Z-1.12 I-1.984 J0.
X59.058 Z-1.182 I1.984 J0.
X55.09 Z-1.245 I-1.984 J0.
X59.058 Z-1.307 I1.984 J0.
X55.09 Z-1.369 I-1.984 J0.
X59.058 Z-1.432 I1.984 J0.
X55.09 Z-1.494 I-1.984 J0.
X59.058 Z-1.556 I1.984 J0.
X55.09 Z-1.619 I-1.984 J0.
X59.058 Z-1.681 I1.984 J0.
X55.09 Z-1.743 I-1.984 J0.
X59.058 Z-1.806 I1.984 J0.
X55.09 Z-1.868 I-1.984 J0.
X59.058 Z-1.93 I1.984 J0.
X55.09 Z-1.993 I-1.984 J0.
X59.058 Z-2.055 I1.984 J0.
X55.09 Z-2.117 I-1.984 J0.
X59.058 Z-2.18 I1.984 J0.
X55.09 Z-2.242 I-1.984 J0.
X59.058 Z-2.304 I1.984 J0.
X55.09 Z-2.367 I-1.984 J0.
X59.058 Z-2.429 I1.984 J0.
X55.09 Z-2.491 I-1.984 J0.
X59.058 Z-2.554 I1.984 J0.
X55.09 Z-2.616 I-1.984 J0.
X59.058 Z-2.678 I1.984 J0.
X55.09 Z-2.741 I-1.984 J0.
X59.058 Z-2.803 I1.984 J0.
X55.09 Z-2.866 I-1.984 J0.
X59.058 Z-2.928 I1.984 J0.
X55.09 Z-2.99 I-1.984 J0.
X59.058 Z-3.053 I1.984 J0.
X55.09 Z-3.115 I-1.984 J0.
X59.058 Z-3.177 I1.984 J0.
X55.09 Z-3.24 I-1.984 J0.
X59.058 Z-3.302 I1.984 J0.
X55.09 Z-3.364 I-1.984 J0.
X59.058 Z-3.427 I1.984 J0.
X55.09 Z-3.489 I-1.984 J0.
X59.058 Z-3.551 I1.984 J0.
X55.09 Z-3.614 I-1.984 J0.
X59.058 Z-3.676 I1.984 J0.
X55.09 Z-3.738 I-1.984 J0.
X59.058 Z-3.801 I1.984 J0.
X55.09 Z-3.863 I-1.984 J0.
X59.058 Z-3.925 I1.984 J0.
X55.09 Z-3.988 I-1.984 J0.
X59.058 Z-4.05 I1.984 J0.
X55.09 Z-4.112 I-1.984 J0.
X59.058 Z-4.175 I1.984 J0.
X55.09 Z-4.237 I-1.984 J0.
X59.058 Z-4.3 I1.984 J0.
X55.09 Z-4.362 I-1.984 J0.
X59.058 Z-4.424 I1.984 J0.
X55.09 Z-4.487 I-1.984 J0.
X59.058 Z-4.549 I1.984 J0.
X55.09 Z-4.611 I-1.984 J0.
X57.144 Y284.059 Z-4.643 I1.984 J0.
X59.054 Y281.936 Z-4.675 I-0.07 J-1.983
X55.095 Y282.215 I-1.979 J0.139
X59.054 Y281.936 I1.979 J-0.139
X58.715 Y281.642 I-0.317 J0.022
G1 X58.556 Y281.653
X58.486 Y281.658 Z-4.667
X58.419 Y281.663 Z-4.644
X58.359 Y281.667 Z-4.606
X58.309 Y281.67 Z-4.555
X58.271 Y281.673 Z-4.495
X58.247 Y281.675 Z-4.428
X58.24 Z-4.358
G0 Z6.
X38.024 Y357.958
Z3.
G1 Z1.317 F1600.
G18 G3 X37.707 Z1. I-0.318 K0.
G1 X37.548
G17 G2 X37.23 Y358.276 I0. J0.318
X41.199 Z0.938 I1.984 J0.
X37.23 Z0.875 I-1.984 J0.
X41.199 Z0.813 I1.984 J0.
X37.23 Z0.751 I-1.984 J0.
X41.199 Z0.688 I1.984 J0.
X37.23 Z0.626 I-1.984 J0.
X41.199 Z0.564 I1.984 J0.
X37.23 Z0.501 I-1.984 J0.
X41.199 Z0.439 I1.984 J0.
X37.23 Z0.377 I-1.984 J0.
X41.199 Z0.314 I1.984 J0.
X37.23 Z0.252 I-1.984 J0.
X41.199 Z0.189 I1.984 J0.
X37.23 Z0.127 I-1.984 J0.
X41.199 Z0.065 I1.984 J0.
X37.23 Z0.002 I-1.984 J0.
X41.199 Z-0.06 I1.984 J0.
X37.23 Z-0.122 I-1.984 J0.
X41.199 Z-0.185 I1.984 J0.
X37.23 Z-0.247 I-1.984 J0.
X41.199 Z-0.309 I1.984 J0.
X37.23 Z-0.372 I-1.984 J0.
X41.199 Z-0.434 I1.984 J0.
X37.23 Z-0.496 I-1.984 J0.
X41.199 Z-0.559 I1.984 J0.
X37.23 Z-0.621 I-1.984 J0.
X41.199 Z-0.683 I1.984 J0.
X37.23 Z-0.746 I-1.984 J0.
X41.199 Z-0.808 I1.984 J0.
X37.23 Z-0.87 I-1.984 J0.
X41.199 Z-0.933 I1.984 J0.
X37.23 Z-0.995 I-1.984 J0.
X41.199 Z-1.057 I1.984 J0.
X37.23 Z-1.12 I-1.984 J0.
X41.199 Z-1.182 I1.984 J0.
X37.23 Z-1.245 I-1.984 J0.
X41.199 Z-1.307 I1.984 J0.
X37.23 Z-1.369 I-1.984 J0.
X41.199 Z-1.432 I1.984 J0.
X37.23 Z-1.494 I-1.984 J0.
X41.199 Z-1.556 I1.984 J0.
X37.23 Z-1.619 I-1.984 J0.
X41.199 Z-1.681 I1.984 J0.
X37.23 Z-1.743 I-1.984 J0.
X41.199 Z-1.806 I1.984 J0.
X37.23 Z-1.868 I-1.984 J0.
X41.199 Z-1.93 I1.984 J0.
X37.23 Z-1.993 I-1.984 J0.
X41.199 Z-2.055 I1.984 J0.
X37.23 Z-2.117 I-1.984 J0.
X41.199 Z-2.18 I1.984 J0.
X37.23 Z-2.242 I-1.984 J0.
X41.199 Z-2.304 I1.984 J0.
X37.23 Z-2.367 I-1.984 J0.
X41.199 Z-2.429 I1.984 J0.
X37.23 Z-2.491 I-1.984 J0.
X41.199 Z-2.554 I1.984 J0.
X37.23 Z-2.616 I-1.984 J0.
X41.199 Z-2.678 I1.984 J0.
X37.23 Z-2.741 I-1.984 J0.
X41.199 Z-2.803 I1.984 J0.
X37.23 Z-2.866 I-1.984 J0.
X41.199 Z-2.928 I1.984 J0.
X37.23 Z-2.99 I-1.984 J0.
X41.199 Z-3.053 I1.984 J0.
X37.23 Z-3.115 I-1.984 J0.
X41.199 Z-3.177 I1.984 J0.
X37.23 Z-3.24 I-1.984 J0.
X41.199 Z-3.302 I1.984 J0.
X37.23 Z-3.364 I-1.984 J0.
X41.199 Z-3.427 I1.984 J0.
X37.23 Z-3.489 I-1.984 J0.
X41.199 Z-3.551 I1.984 J0.
X37.23 Z-3.614 I-1.984 J0.
X41.199 Z-3.676 I1.984 J0.
X37.23 Z-3.738 I-1.984 J0.
X41.199 Z-3.801 I1.984 J0.
X37.23 Z-3.863 I-1.984 J0.
X41.199 Z-3.925 I1.984 J0.
X37.23 Z-3.988 I-1.984 J0.
X41.199 Z-4.05 I1.984 J0.
X37.23 Z-4.112 I-1.984 J0.
X41.199 Z-4.175 I1.984 J0.
X37.23 Z-4.237 I-1.984 J0.
X41.199 Z-4.3 I1.984 J0.
X37.23 Z-4.362 I-1.984 J0.
X41.199 Z-4.424 I1.984 J0.
X37.23 Z-4.487 I-1.984 J0.
X41.199 Z-4.549 I1.984 J0.
X37.23 Z-4.611 I-1.984 J0.
X39.284 Y360.259 Z-4.643 I1.984 J0.
X41.194 Y358.136 Z-4.675 I-0.07 J-1.983
X37.235 Y358.415 I-1.979 J0.139
X41.194 Y358.136 I1.979 J-0.139
X40.855 Y357.842 I-0.317 J0.022
G1 X40.697 Y357.853
X40.626 Y357.858 Z-4.667
X40.559 Y357.863 Z-4.644
X40.499 Y357.867 Z-4.606
X40.449 Y357.87 Z-4.555
X40.411 Y357.873 Z-4.495
X40.388 Y357.875 Z-4.428
X40.38 Z-4.358
G0 Z6.
X99.143 Y357.958
Z3.
G1 Z1.317 F1600.
G18 G3 X98.825 Z1. I-0.317 K0.
G1 X98.667
G17 G2 X98.349 Y358.276 I0. J0.318
X102.318 Z0.938 I1.984 J0.
X98.349 Z0.875 I-1.984 J0.
X102.318 Z0.813 I1.984 J0.
X98.349 Z0.751 I-1.984 J0.
X102.318 Z0.688 I1.984 J0.
X98.349 Z0.626 I-1.984 J0.
X102.318 Z0.564 I1.984 J0.
X98.349 Z0.501 I-1.984 J0.
X102.318 Z0.439 I1.984 J0.
X98.349 Z0.377 I-1.984 J0.
X102.318 Z0.314 I1.984 J0.
X98.349 Z0.252 I-1.984 J0.
X102.318 Z0.189 I1.984 J0.
X98.349 Z0.127 I-1.984 J0.
X102.318 Z0.065 I1.984 J0.
X98.349 Z0.002 I-1.984 J0.
X102.318 Z-0.06 I1.984 J0.
X98.349 Z-0.122 I-1.984 J0.
X102.318 Z-0.185 I1.984 J0.
X98.349 Z-0.247 I-1.984 J0.
X102.318 Z-0.309 I1.984 J0.
X98.349 Z-0.372 I-1.984 J0.
X102.318 Z-0.434 I1.984 J0.
X98.349 Z-0.496 I-1.984 J0.
X102.318 Z-0.559 I1.984 J0.
X98.349 Z-0.621 I-1.984 J0.
X102.318 Z-0.683 I1.984 J0.
X98.349 Z-0.746 I-1.984 J0.
X102.318 Z-0.808 I1.984 J0.
X98.349 Z-0.87 I-1.984 J0.
X102.318 Z-0.933 I1.984 J0.
X98.349 Z-0.995 I-1.984 J0.
X102.318 Z-1.057 I1.984 J0.
X98.349 Z-1.12 I-1.984 J0.
X102.318 Z-1.182 I1.984 J0.
X98.349 Z-1.245 I-1.984 J0.
X102.318 Z-1.307 I1.984 J0.
X98.349 Z-1.369 I-1.984 J0.
X102.318 Z-1.432 I1.984 J0.
X98.349 Z-1.494 I-1.984 J0.
X102.318 Z-1.556 I1.984 J0.
X98.349 Z-1.619 I-1.984 J0.
X102.318 Z-1.681 I1.984 J0.
X98.349 Z-1.743 I-1.984 J0.
X102.318 Z-1.806 I1.984 J0.
X98.349 Z-1.868 I-1.984 J0.
X102.318 Z-1.93 I1.984 J0.
X98.349 Z-1.993 I-1.984 J0.
X102.318 Z-2.055 I1.984 J0.
X98.349 Z-2.117 I-1.984 J0.
X102.318 Z-2.18 I1.984 J0.
X98.349 Z-2.242 I-1.984 J0.
X102.318 Z-2.304 I1.984 J0.
X98.349 Z-2.367 I-1.984 J0.
X102.318 Z-2.429 I1.984 J0.
X98.349 Z-2.491 I-1.984 J0.
X102.318 Z-2.554 I1.984 J0.
X98.349 Z-2.616 I-1.984 J0.
X102.318 Z-2.678 I1.984 J0.
X98.349 Z-2.741 I-1.984 J0.
X102.318 Z-2.803 I1.984 J0.
X98.349 Z-2.866 I-1.984 J0.
X102.318 Z-2.928 I1.984 J0.
X98.349 Z-2.99 I-1.984 J0.
X102.318 Z-3.053 I1.984 J0.
X98.349 Z-3.115 I-1.984 J0.
X102.318 Z-3.177 I1.984 J0.
X98.349 Z-3.24 I-1.984 J0.
X102.318 Z-3.302 I1.984 J0.
X98.349 Z-3.364 I-1.984 J0.
X102.318 Z-3.427 I1.984 J0.
X98.349 Z-3.489 I-1.984 J0.
X102.318 Z-3.551 I1.984 J0.
X98.349 Z-3.614 I-1.984 J0.
X102.318 Z-3.676 I1.984 J0.
X98.349 Z-3.738 I-1.984 J0.
X102.318 Z-3.801 I1.984 J0.
X98.349 Z-3.863 I-1.984 J0.
X102.318 Z-3.925 I1.984 J0.
X98.349 Z-3.988 I-1.984 J0.
X102.318 Z-4.05 I1.984 J0.
X98.349 Z-4.112 I-1.984 J0.
X102.318 Z-4.175 I1.984 J0.
X98.349 Z-4.237 I-1.984 J0.
X102.318 Z-4.3 I1.984 J0.
X98.349 Z-4.362 I-1.984 J0.
X102.318 Z-4.424 I1.984 J0.
X98.349 Z-4.487 I-1.984 J0.
X102.318 Z-4.549 I1.984 J0.
X98.349 Z-4.611 I-1.984 J0.
X100.403 Y360.259 Z-4.643 I1.984 J0.
X102.313 Y358.136 Z-4.675 I-0.07 J-1.983
X98.354 Y358.415 I-1.979 J0.139
X102.313 Y358.136 I1.979 J-0.139
X101.974 Y357.842 I-0.317 J0.022
G1 X101.816 Y357.853
X101.745 Y357.858 Z-4.667
X101.678 Y357.863 Z-4.644
X101.618 Y357.867 Z-4.606
X101.568 Y357.87 Z-4.555
X101.53 Y357.873 Z-4.495
X101.507 Y357.875 Z-4.428
X101.499 Z-4.358
G0 Z16.
M5
G0 Z15
G0 X0 Y0

M9
M30
