(X8 DYNAMIC HOOK UPSIDE DOWN COMPLETE)
(T3  D=0.118 CR=0. - ZMIN=-0.16 - FLAT END MILL)
G90 G94 G91.1 G40 G49 G17
G20

(2D POCKET1 3)
M5
T3 M6
S15000 M3
g4 p5
G54
M8
G0 X-0.755 Y-1.7497
G43 Z0.6 H3
Z0.2
G1 Z0.1118 F40.
X-0.7549 Y-1.7504 Z0.1075 F20.
X-0.7546 Y-1.7515 Z0.1057
X-0.754 Y-1.7525 Z0.1039
X-0.7531 Y-1.7534 Z0.1029
X-0.7521 Y-1.7541 Z0.102
X-0.7509 Y-1.7544 Z0.1011
X-0.7493 Y-1.7545 Z0.1007
X-0.7479 Y-1.754 Z0.1004
X-0.7466 Y-1.7532 Z0.1
G3 X-0.7534 Y-1.7458 Z0.0995 I-0.0034 J0.0037
X-0.7466 Y-1.7532 Z0.0989 I0.0034 J-0.0037
X-0.7534 Y-1.7458 Z0.0984 I-0.0034 J0.0037
X-0.7466 Y-1.7532 Z0.0978 I0.0034 J-0.0037
X-0.7534 Y-1.7458 Z0.0973 I-0.0034 J0.0037
X-0.7466 Y-1.7532 Z0.0967 I0.0034 J-0.0037
X-0.7534 Y-1.7458 Z0.0962 I-0.0034 J0.0037
X-0.7466 Y-1.7532 Z0.0956 I0.0034 J-0.0037
X-0.7534 Y-1.7458 Z0.0951 I-0.0034 J0.0037
X-0.7466 Y-1.7532 Z0.0945 I0.0034 J-0.0037
X-0.7534 Y-1.7458 Z0.094 I-0.0034 J0.0037
X-0.7466 Y-1.7532 Z0.0934 I0.0034 J-0.0037
X-0.7534 Y-1.7458 Z0.0929 I-0.0034 J0.0037
X-0.7466 Y-1.7532 Z0.0923 I0.0034 J-0.0037
X-0.7534 Y-1.7458 Z0.0918 I-0.0034 J0.0037
X-0.7466 Y-1.7532 Z0.0912 I0.0034 J-0.0037
X-0.7534 Y-1.7458 Z0.0907 I-0.0034 J0.0037
X-0.7466 Y-1.7532 Z0.0901 I0.0034 J-0.0037
X-0.7534 Y-1.7458 Z0.0896 I-0.0034 J0.0037
X-0.7466 Y-1.7532 Z0.089 I0.0034 J-0.0037
X-0.7534 Y-1.7458 Z0.0885 I-0.0034 J0.0037
X-0.7466 Y-1.7532 Z0.0879 I0.0034 J-0.0037
X-0.7534 Y-1.7458 Z0.0874 I-0.0034 J0.0037
X-0.7466 Y-1.7532 Z0.0868 I0.0034 J-0.0037
X-0.7534 Y-1.7458 Z0.0863 I-0.0034 J0.0037
X-0.7466 Y-1.7532 Z0.0857 I0.0034 J-0.0037
X-0.7534 Y-1.7458 Z0.0852 I-0.0034 J0.0037
X-0.7466 Y-1.7532 Z0.0846 I0.0034 J-0.0037
X-0.7534 Y-1.7458 Z0.0841 I-0.0034 J0.0037
X-0.7466 Y-1.7532 Z0.0835 I0.0034 J-0.0037
X-0.7534 Y-1.7458 Z0.083 I-0.0034 J0.0037
X-0.7466 Y-1.7532 Z0.0824 I0.0034 J-0.0037
X-0.7534 Y-1.7458 Z0.0819 I-0.0034 J0.0037
X-0.7466 Y-1.7532 Z0.0813 I0.0034 J-0.0037
X-0.7534 Y-1.7458 Z0.0808 I-0.0034 J0.0037
X-0.7466 Y-1.7532 Z0.0803 I0.0034 J-0.0037
X-0.7534 Y-1.7458 Z0.0797 I-0.0034 J0.0037
X-0.7466 Y-1.7532 Z0.0792 I0.0034 J-0.0037
X-0.7534 Y-1.7458 Z0.0786 I-0.0034 J0.0037
X-0.7466 Y-1.7532 Z0.0781 I0.0034 J-0.0037
X-0.7534 Y-1.7458 Z0.0775 I-0.0034 J0.0037
X-0.7466 Y-1.7532 Z0.077 I0.0034 J-0.0037
X-0.7534 Y-1.7458 Z0.0764 I-0.0034 J0.0037
X-0.7466 Y-1.7532 Z0.0759 I0.0034 J-0.0037
X-0.7534 Y-1.7458 Z0.0753 I-0.0034 J0.0037
X-0.7466 Y-1.7532 Z0.0748 I0.0034 J-0.0037
X-0.7534 Y-1.7458 Z0.0742 I-0.0034 J0.0037
X-0.7466 Y-1.7532 Z0.0737 I0.0034 J-0.0037
X-0.7534 Y-1.7458 Z0.0731 I-0.0034 J0.0037
X-0.7466 Y-1.7532 Z0.0726 I0.0034 J-0.0037
X-0.7534 Y-1.7458 Z0.072 I-0.0034 J0.0037
X-0.7466 Y-1.7532 Z0.0715 I0.0034 J-0.0037
X-0.7534 Y-1.7458 Z0.0709 I-0.0034 J0.0037
X-0.7466 Y-1.7532 Z0.0704 I0.0034 J-0.0037
X-0.7534 Y-1.7458 Z0.0698 I-0.0034 J0.0037
X-0.7466 Y-1.7532 Z0.0693 I0.0034 J-0.0037
X-0.7534 Y-1.7458 Z0.0687 I-0.0034 J0.0037
X-0.7466 Y-1.7532 Z0.0682 I0.0034 J-0.0037
X-0.7534 Y-1.7458 Z0.0676 I-0.0034 J0.0037
X-0.7466 Y-1.7532 Z0.0671 I0.0034 J-0.0037
X-0.7534 Y-1.7458 Z0.0665 I-0.0034 J0.0037
X-0.7466 Y-1.7532 Z0.066 I0.0034 J-0.0037
X-0.7534 Y-1.7458 Z0.0654 I-0.0034 J0.0037
X-0.7466 Y-1.7532 Z0.0649 I0.0034 J-0.0037
X-0.7534 Y-1.7458 Z0.0643 I-0.0034 J0.0037
X-0.7466 Y-1.7532 Z0.0638 I0.0034 J-0.0037
X-0.7534 Y-1.7458 Z0.0632 I-0.0034 J0.0037
X-0.7466 Y-1.7532 Z0.0627 I0.0034 J-0.0037
X-0.7534 Y-1.7458 Z0.0622 I-0.0034 J0.0037
X-0.7466 Y-1.7532 Z0.0616 I0.0034 J-0.0037
X-0.7534 Y-1.7458 Z0.0611 I-0.0034 J0.0037
X-0.7466 Y-1.7532 Z0.0605 I0.0034 J-0.0037
X-0.7534 Y-1.7458 Z0.06 I-0.0034 J0.0037
X-0.7466 Y-1.7532 Z0.0594 I0.0034 J-0.0037
X-0.7534 Y-1.7458 Z0.0589 I-0.0034 J0.0037
X-0.7466 Y-1.7532 Z0.0583 I0.0034 J-0.0037
X-0.7534 Y-1.7458 Z0.0578 I-0.0034 J0.0037
X-0.7466 Y-1.7532 Z0.0572 I0.0034 J-0.0037
X-0.7534 Y-1.7458 Z0.0567 I-0.0034 J0.0037
X-0.7466 Y-1.7532 Z0.0561 I0.0034 J-0.0037
X-0.7534 Y-1.7458 Z0.0556 I-0.0034 J0.0037
X-0.7466 Y-1.7532 Z0.055 I0.0034 J-0.0037
X-0.7534 Y-1.7458 Z0.0545 I-0.0034 J0.0037
X-0.7466 Y-1.7532 Z0.0539 I0.0034 J-0.0037
X-0.7534 Y-1.7458 Z0.0534 I-0.0034 J0.0037
X-0.7466 Y-1.7532 Z0.0528 I0.0034 J-0.0037
X-0.7534 Y-1.7458 Z0.0523 I-0.0034 J0.0037
X-0.7466 Y-1.7532 Z0.0517 I0.0034 J-0.0037
X-0.7534 Y-1.7458 Z0.0512 I-0.0034 J0.0037
X-0.7466 Y-1.7532 Z0.0506 I0.0034 J-0.0037
X-0.7534 Y-1.7458 Z0.0501 I-0.0034 J0.0037
X-0.7466 Y-1.7532 Z0.0495 I0.0034 J-0.0037
X-0.7534 Y-1.7458 Z0.049 I-0.0034 J0.0037
X-0.7466 Y-1.7532 Z0.0484 I0.0034 J-0.0037
X-0.7534 Y-1.7458 Z0.0479 I-0.0034 J0.0037
X-0.7466 Y-1.7532 Z0.0473 I0.0034 J-0.0037
X-0.7534 Y-1.7458 Z0.0468 I-0.0034 J0.0037
X-0.7466 Y-1.7532 Z0.0462 I0.0034 J-0.0037
X-0.7534 Y-1.7458 Z0.0457 I-0.0034 J0.0037
X-0.7466 Y-1.7532 Z0.0451 I0.0034 J-0.0037
X-0.7534 Y-1.7458 Z0.0446 I-0.0034 J0.0037
X-0.7466 Y-1.7532 Z0.044 I0.0034 J-0.0037
X-0.7534 Y-1.7458 Z0.0435 I-0.0034 J0.0037
X-0.7466 Y-1.7532 Z0.043 I0.0034 J-0.0037
X-0.7534 Y-1.7458 Z0.0424 I-0.0034 J0.0037
X-0.7466 Y-1.7532 Z0.0419 I0.0034 J-0.0037
X-0.7534 Y-1.7458 Z0.0413 I-0.0034 J0.0037
X-0.7466 Y-1.7532 Z0.0408 I0.0034 J-0.0037
X-0.7534 Y-1.7458 Z0.0402 I-0.0034 J0.0037
X-0.7466 Y-1.7532 Z0.0397 I0.0034 J-0.0037
X-0.7534 Y-1.7458 Z0.0391 I-0.0034 J0.0037
X-0.7466 Y-1.7532 Z0.0386 I0.0034 J-0.0037
X-0.7534 Y-1.7458 Z0.038 I-0.0034 J0.0037
X-0.7466 Y-1.7532 Z0.0375 I0.0034 J-0.0037
X-0.7534 Y-1.7458 Z0.0369 I-0.0034 J0.0037
X-0.7466 Y-1.7532 Z0.0364 I0.0034 J-0.0037
X-0.7534 Y-1.7458 Z0.0358 I-0.0034 J0.0037
X-0.7466 Y-1.7532 Z0.0353 I0.0034 J-0.0037
X-0.7534 Y-1.7458 Z0.0347 I-0.0034 J0.0037
X-0.7466 Y-1.7532 Z0.0342 I0.0034 J-0.0037
X-0.7534 Y-1.7458 Z0.0336 I-0.0034 J0.0037
X-0.7466 Y-1.7532 Z0.0331 I0.0034 J-0.0037
X-0.7534 Y-1.7458 Z0.0325 I-0.0034 J0.0037
X-0.7466 Y-1.7532 Z0.032 I0.0034 J-0.0037
X-0.7534 Y-1.7458 Z0.0314 I-0.0034 J0.0037
X-0.7466 Y-1.7532 Z0.0309 I0.0034 J-0.0037
X-0.7534 Y-1.7458 Z0.0303 I-0.0034 J0.0037
X-0.7466 Y-1.7532 Z0.0298 I0.0034 J-0.0037
X-0.7534 Y-1.7458 Z0.0292 I-0.0034 J0.0037
X-0.7466 Y-1.7532 Z0.0287 I0.0034 J-0.0037
X-0.7534 Y-1.7458 Z0.0281 I-0.0034 J0.0037
X-0.7466 Y-1.7532 Z0.0276 I0.0034 J-0.0037
X-0.7534 Y-1.7458 Z0.027 I-0.0034 J0.0037
X-0.7466 Y-1.7532 Z0.0265 I0.0034 J-0.0037
X-0.7534 Y-1.7458 Z0.0259 I-0.0034 J0.0037
X-0.7466 Y-1.7532 Z0.0254 I0.0034 J-0.0037
X-0.7534 Y-1.7458 Z0.0249 I-0.0034 J0.0037
X-0.7466 Y-1.7532 Z0.0243 I0.0034 J-0.0037
X-0.7534 Y-1.7458 Z0.0238 I-0.0034 J0.0037
X-0.7466 Y-1.7532 Z0.0232 I0.0034 J-0.0037
X-0.7534 Y-1.7458 Z0.0227 I-0.0034 J0.0037
X-0.7466 Y-1.7532 Z0.0221 I0.0034 J-0.0037
X-0.7534 Y-1.7458 Z0.0216 I-0.0034 J0.0037
X-0.7466 Y-1.7532 Z0.021 I0.0034 J-0.0037
X-0.7534 Y-1.7458 Z0.0205 I-0.0034 J0.0037
X-0.7466 Y-1.7532 Z0.0199 I0.0034 J-0.0037
X-0.7534 Y-1.7458 Z0.0194 I-0.0034 J0.0037
X-0.7466 Y-1.7532 Z0.0188 I0.0034 J-0.0037
X-0.7534 Y-1.7458 Z0.0183 I-0.0034 J0.0037
X-0.7466 Y-1.7532 Z0.0177 I0.0034 J-0.0037
X-0.7534 Y-1.7458 Z0.0172 I-0.0034 J0.0037
X-0.7466 Y-1.7532 Z0.0166 I0.0034 J-0.0037
X-0.7534 Y-1.7458 Z0.0161 I-0.0034 J0.0037
X-0.7466 Y-1.7532 Z0.0155 I0.0034 J-0.0037
X-0.7534 Y-1.7458 Z0.015 I-0.0034 J0.0037
X-0.7466 Y-1.7532 Z0.0144 I0.0034 J-0.0037
X-0.7534 Y-1.7458 Z0.0139 I-0.0034 J0.0037
X-0.7466 Y-1.7532 Z0.0133 I0.0034 J-0.0037
X-0.7534 Y-1.7458 Z0.0128 I-0.0034 J0.0037
X-0.7466 Y-1.7532 Z0.0122 I0.0034 J-0.0037
X-0.7534 Y-1.7458 Z0.0117 I-0.0034 J0.0037
X-0.7466 Y-1.7532 Z0.0111 I0.0034 J-0.0037
X-0.7534 Y-1.7458 Z0.0106 I-0.0034 J0.0037
X-0.7466 Y-1.7532 Z0.01 I0.0034 J-0.0037
X-0.7534 Y-1.7458 Z0.0095 I-0.0034 J0.0037
X-0.7466 Y-1.7532 Z0.0089 I0.0034 J-0.0037
X-0.7534 Y-1.7458 Z0.0084 I-0.0034 J0.0037
X-0.7466 Y-1.7532 Z0.0078 I0.0034 J-0.0037
X-0.7534 Y-1.7458 Z0.0073 I-0.0034 J0.0037
X-0.7466 Y-1.7532 Z0.0067 I0.0034 J-0.0037
X-0.7534 Y-1.7458 Z0.0062 I-0.0034 J0.0037
X-0.7466 Y-1.7532 Z0.0057 I0.0034 J-0.0037
X-0.7534 Y-1.7458 Z0.0051 I-0.0034 J0.0037
X-0.7466 Y-1.7532 Z0.0046 I0.0034 J-0.0037
X-0.7534 Y-1.7458 Z0.004 I-0.0034 J0.0037
X-0.7466 Y-1.7532 Z0.0035 I0.0034 J-0.0037
X-0.7534 Y-1.7458 Z0.0029 I-0.0034 J0.0037
X-0.7466 Y-1.7532 Z0.0024 I0.0034 J-0.0037
X-0.7534 Y-1.7458 Z0.0018 I-0.0034 J0.0037
X-0.7466 Y-1.7532 Z0.0013 I0.0034 J-0.0037
X-0.7534 Y-1.7458 Z0.0007 I-0.0034 J0.0037
X-0.7466 Y-1.7532 Z0.0002 I0.0034 J-0.0037
X-0.7534 Y-1.7458 Z-0.0004 I-0.0034 J0.0037
X-0.7466 Y-1.7532 Z-0.0009 I0.0034 J-0.0037
X-0.7534 Y-1.7458 Z-0.0015 I-0.0034 J0.0037
X-0.7466 Y-1.7532 Z-0.002 I0.0034 J-0.0037
X-0.7534 Y-1.7458 Z-0.0026 I-0.0034 J0.0037
X-0.7466 Y-1.7532 Z-0.0031 I0.0034 J-0.0037
X-0.7534 Y-1.7458 Z-0.0037 I-0.0034 J0.0037
X-0.7466 Y-1.7532 Z-0.0042 I0.0034 J-0.0037
X-0.7534 Y-1.7458 Z-0.0048 I-0.0034 J0.0037
X-0.7466 Y-1.7532 Z-0.0053 I0.0034 J-0.0037
X-0.7534 Y-1.7458 Z-0.0059 I-0.0034 J0.0037
X-0.7466 Y-1.7532 Z-0.0064 I0.0034 J-0.0037
X-0.7534 Y-1.7458 Z-0.007 I-0.0034 J0.0037
X-0.7466 Y-1.7532 Z-0.0075 I0.0034 J-0.0037
X-0.7534 Y-1.7458 Z-0.0081 I-0.0034 J0.0037
X-0.7466 Y-1.7532 Z-0.0086 I0.0034 J-0.0037
X-0.7534 Y-1.7458 Z-0.0092 I-0.0034 J0.0037
X-0.7466 Y-1.7532 Z-0.0097 I0.0034 J-0.0037
X-0.7534 Y-1.7458 Z-0.0103 I-0.0034 J0.0037
X-0.7466 Y-1.7532 Z-0.0108 I0.0034 J-0.0037
X-0.7534 Y-1.7458 Z-0.0114 I-0.0034 J0.0037
X-0.7466 Y-1.7532 Z-0.0119 I0.0034 J-0.0037
X-0.7534 Y-1.7458 Z-0.0124 I-0.0034 J0.0037
X-0.7466 Y-1.7532 Z-0.013 I0.0034 J-0.0037
X-0.7534 Y-1.7458 Z-0.0135 I-0.0034 J0.0037
X-0.7466 Y-1.7532 Z-0.0141 I0.0034 J-0.0037
X-0.7534 Y-1.7458 Z-0.0146 I-0.0034 J0.0037
X-0.7466 Y-1.7532 Z-0.0152 I0.0034 J-0.0037
X-0.7534 Y-1.7458 Z-0.0157 I-0.0034 J0.0037
X-0.7466 Y-1.7532 Z-0.0163 I0.0034 J-0.0037
X-0.7534 Y-1.7458 Z-0.0168 I-0.0034 J0.0037
X-0.7466 Y-1.7532 Z-0.0174 I0.0034 J-0.0037
X-0.7534 Y-1.7458 Z-0.0179 I-0.0034 J0.0037
X-0.7466 Y-1.7532 Z-0.0185 I0.0034 J-0.0037
X-0.7534 Y-1.7458 Z-0.019 I-0.0034 J0.0037
X-0.7466 Y-1.7532 Z-0.0196 I0.0034 J-0.0037
X-0.75 Y-1.7445 Z-0.02 I-0.0034 J0.0037
Y-1.7555 I0. J-0.0055 F40.
Y-1.7445 I0. J0.0055
Y-1.7555 Z-0.0206 I0. J-0.0055 F20.
Y-1.7445 Z-0.0212 I0. J0.0055
Y-1.7555 Z-0.0218 I0. J-0.0055
Y-1.7445 Z-0.0224 I0. J0.0055
Y-1.7555 Z-0.023 I0. J-0.0055
Y-1.7445 Z-0.0236 I0. J0.0055
Y-1.7555 Z-0.0242 I0. J-0.0055
Y-1.7445 Z-0.0248 I0. J0.0055
Y-1.7555 Z-0.0254 I0. J-0.0055
Y-1.7445 Z-0.026 I0. J0.0055
Y-1.7555 Z-0.0266 I0. J-0.0055
Y-1.7445 Z-0.0272 I0. J0.0055
Y-1.7555 Z-0.0278 I0. J-0.0055
Y-1.7445 Z-0.0284 I0. J0.0055
Y-1.7555 Z-0.0291 I0. J-0.0055
Y-1.7445 Z-0.0297 I0. J0.0055
Y-1.7555 Z-0.0303 I0. J-0.0055
Y-1.7445 Z-0.0309 I0. J0.0055
Y-1.7555 Z-0.0315 I0. J-0.0055
Y-1.7445 Z-0.0321 I0. J0.0055
Y-1.7555 Z-0.0327 I0. J-0.0055
Y-1.7445 Z-0.0333 I0. J0.0055
Y-1.7555 Z-0.0339 I0. J-0.0055
Y-1.7445 Z-0.0345 I0. J0.0055
Y-1.7555 Z-0.0351 I0. J-0.0055
Y-1.7445 Z-0.0357 I0. J0.0055
Y-1.7555 Z-0.0363 I0. J-0.0055
Y-1.7445 Z-0.0369 I0. J0.0055
Y-1.7555 Z-0.0375 I0. J-0.0055
Y-1.7445 Z-0.0381 I0. J0.0055
Y-1.7555 Z-0.0387 I0. J-0.0055
Y-1.7445 Z-0.0393 I0. J0.0055
Y-1.7555 Z-0.0399 I0. J-0.0055
X-0.7476 Y-1.7549 Z-0.04 I0. J0.0055
X-0.7524 Y-1.7451 I-0.0024 J0.0049 F40.
X-0.7476 Y-1.7549 I0.0024 J-0.0049
X-0.7524 Y-1.7451 Z-0.0406 I-0.0024 J0.0049 F20.
X-0.7476 Y-1.7549 Z-0.0412 I0.0024 J-0.0049
X-0.7524 Y-1.7451 Z-0.0418 I-0.0024 J0.0049
X-0.7476 Y-1.7549 Z-0.0424 I0.0024 J-0.0049
X-0.7524 Y-1.7451 Z-0.043 I-0.0024 J0.0049
X-0.7476 Y-1.7549 Z-0.0436 I0.0024 J-0.0049
X-0.7524 Y-1.7451 Z-0.0442 I-0.0024 J0.0049
X-0.7476 Y-1.7549 Z-0.0448 I0.0024 J-0.0049
X-0.7524 Y-1.7451 Z-0.0454 I-0.0024 J0.0049
X-0.7476 Y-1.7549 Z-0.046 I0.0024 J-0.0049
X-0.7524 Y-1.7451 Z-0.0466 I-0.0024 J0.0049
X-0.7476 Y-1.7549 Z-0.0472 I0.0024 J-0.0049
X-0.7524 Y-1.7451 Z-0.0478 I-0.0024 J0.0049
X-0.7476 Y-1.7549 Z-0.0484 I0.0024 J-0.0049
X-0.7524 Y-1.7451 Z-0.0491 I-0.0024 J0.0049
X-0.7476 Y-1.7549 Z-0.0497 I0.0024 J-0.0049
X-0.7524 Y-1.7451 Z-0.0503 I-0.0024 J0.0049
X-0.7476 Y-1.7549 Z-0.0509 I0.0024 J-0.0049
X-0.7524 Y-1.7451 Z-0.0515 I-0.0024 J0.0049
X-0.7476 Y-1.7549 Z-0.0521 I0.0024 J-0.0049
X-0.7524 Y-1.7451 Z-0.0527 I-0.0024 J0.0049
X-0.7476 Y-1.7549 Z-0.0533 I0.0024 J-0.0049
X-0.7524 Y-1.7451 Z-0.0539 I-0.0024 J0.0049
X-0.7476 Y-1.7549 Z-0.0545 I0.0024 J-0.0049
X-0.7524 Y-1.7451 Z-0.0551 I-0.0024 J0.0049
X-0.7476 Y-1.7549 Z-0.0557 I0.0024 J-0.0049
X-0.7524 Y-1.7451 Z-0.0563 I-0.0024 J0.0049
X-0.7476 Y-1.7549 Z-0.0569 I0.0024 J-0.0049
X-0.7524 Y-1.7451 Z-0.0575 I-0.0024 J0.0049
X-0.7476 Y-1.7549 Z-0.0581 I0.0024 J-0.0049
X-0.7524 Y-1.7451 Z-0.0587 I-0.0024 J0.0049
X-0.7476 Y-1.7549 Z-0.0593 I0.0024 J-0.0049
X-0.7524 Y-1.7451 Z-0.0599 I-0.0024 J0.0049
X-0.7544 Y-1.7467 Z-0.06 I0.0024 J-0.0049
X-0.7456 Y-1.7533 I0.0044 J-0.0033 F40.
X-0.7544 Y-1.7467 I-0.0044 J0.0033
X-0.7456 Y-1.7533 Z-0.0606 I0.0044 J-0.0033 F20.
X-0.7544 Y-1.7467 Z-0.0612 I-0.0044 J0.0033
X-0.7456 Y-1.7533 Z-0.0618 I0.0044 J-0.0033
X-0.7544 Y-1.7467 Z-0.0624 I-0.0044 J0.0033
X-0.7456 Y-1.7533 Z-0.063 I0.0044 J-0.0033
X-0.7544 Y-1.7467 Z-0.0636 I-0.0044 J0.0033
X-0.7456 Y-1.7533 Z-0.0642 I0.0044 J-0.0033
X-0.7544 Y-1.7467 Z-0.0648 I-0.0044 J0.0033
X-0.7456 Y-1.7533 Z-0.0654 I0.0044 J-0.0033
X-0.7544 Y-1.7467 Z-0.066 I-0.0044 J0.0033
X-0.7456 Y-1.7533 Z-0.0666 I0.0044 J-0.0033
X-0.7544 Y-1.7467 Z-0.0672 I-0.0044 J0.0033
X-0.7456 Y-1.7533 Z-0.0678 I0.0044 J-0.0033
X-0.7544 Y-1.7467 Z-0.0684 I-0.0044 J0.0033
X-0.7456 Y-1.7533 Z-0.0691 I0.0044 J-0.0033
X-0.7544 Y-1.7467 Z-0.0697 I-0.0044 J0.0033
X-0.7456 Y-1.7533 Z-0.0703 I0.0044 J-0.0033
X-0.7544 Y-1.7467 Z-0.0709 I-0.0044 J0.0033
X-0.7456 Y-1.7533 Z-0.0715 I0.0044 J-0.0033
X-0.7544 Y-1.7467 Z-0.0721 I-0.0044 J0.0033
X-0.7456 Y-1.7533 Z-0.0727 I0.0044 J-0.0033
X-0.7544 Y-1.7467 Z-0.0733 I-0.0044 J0.0033
X-0.7456 Y-1.7533 Z-0.0739 I0.0044 J-0.0033
X-0.7544 Y-1.7467 Z-0.0745 I-0.0044 J0.0033
X-0.7456 Y-1.7533 Z-0.0751 I0.0044 J-0.0033
X-0.7544 Y-1.7467 Z-0.0757 I-0.0044 J0.0033
X-0.7456 Y-1.7533 Z-0.0763 I0.0044 J-0.0033
X-0.7544 Y-1.7467 Z-0.0769 I-0.0044 J0.0033
X-0.7456 Y-1.7533 Z-0.0775 I0.0044 J-0.0033
X-0.7544 Y-1.7467 Z-0.0781 I-0.0044 J0.0033
X-0.7456 Y-1.7533 Z-0.0787 I0.0044 J-0.0033
X-0.7544 Y-1.7467 Z-0.0793 I-0.0044 J0.0033
X-0.7456 Y-1.7533 Z-0.0799 I0.0044 J-0.0033
X-0.7446 Y-1.7511 Z-0.08 I-0.0044 J0.0033
X-0.7554 Y-1.7489 I-0.0054 J0.0011 F40.
X-0.7446 Y-1.7511 I0.0054 J-0.0011
X-0.7554 Y-1.7489 Z-0.0806 I-0.0054 J0.0011 F20.
X-0.7446 Y-1.7511 Z-0.0812 I0.0054 J-0.0011
X-0.7554 Y-1.7489 Z-0.0818 I-0.0054 J0.0011
X-0.7446 Y-1.7511 Z-0.0824 I0.0054 J-0.0011
X-0.7554 Y-1.7489 Z-0.083 I-0.0054 J0.0011
X-0.7446 Y-1.7511 Z-0.0836 I0.0054 J-0.0011
X-0.7554 Y-1.7489 Z-0.0842 I-0.0054 J0.0011
X-0.7446 Y-1.7511 Z-0.0848 I0.0054 J-0.0011
X-0.7554 Y-1.7489 Z-0.0854 I-0.0054 J0.0011
X-0.7446 Y-1.7511 Z-0.086 I0.0054 J-0.0011
X-0.7554 Y-1.7489 Z-0.0866 I-0.0054 J0.0011
X-0.7446 Y-1.7511 Z-0.0872 I0.0054 J-0.0011
X-0.7554 Y-1.7489 Z-0.0878 I-0.0054 J0.0011
X-0.7446 Y-1.7511 Z-0.0884 I0.0054 J-0.0011
X-0.7554 Y-1.7489 Z-0.0891 I-0.0054 J0.0011
X-0.7446 Y-1.7511 Z-0.0897 I0.0054 J-0.0011
X-0.7554 Y-1.7489 Z-0.0903 I-0.0054 J0.0011
X-0.7446 Y-1.7511 Z-0.0909 I0.0054 J-0.0011
X-0.7554 Y-1.7489 Z-0.0915 I-0.0054 J0.0011
X-0.7446 Y-1.7511 Z-0.0921 I0.0054 J-0.0011
X-0.7554 Y-1.7489 Z-0.0927 I-0.0054 J0.0011
X-0.7446 Y-1.7511 Z-0.0933 I0.0054 J-0.0011
X-0.7554 Y-1.7489 Z-0.0939 I-0.0054 J0.0011
X-0.7446 Y-1.7511 Z-0.0945 I0.0054 J-0.0011
X-0.7554 Y-1.7489 Z-0.0951 I-0.0054 J0.0011
X-0.7446 Y-1.7511 Z-0.0957 I0.0054 J-0.0011
X-0.7554 Y-1.7489 Z-0.0963 I-0.0054 J0.0011
X-0.7446 Y-1.7511 Z-0.0969 I0.0054 J-0.0011
X-0.7554 Y-1.7489 Z-0.0975 I-0.0054 J0.0011
X-0.7446 Y-1.7511 Z-0.0981 I0.0054 J-0.0011
X-0.7554 Y-1.7489 Z-0.0987 I-0.0054 J0.0011
X-0.7446 Y-1.7511 Z-0.0993 I0.0054 J-0.0011
X-0.7554 Y-1.7489 Z-0.0999 I-0.0054 J0.0011
X-0.7553 Y-1.7514 Z-0.1 I0.0054 J-0.0011
X-0.7447 Y-1.7486 I0.0053 J0.0014 F40.
X-0.7553 Y-1.7514 I-0.0053 J-0.0014
X-0.7447 Y-1.7486 Z-0.1006 I0.0053 J0.0014 F20.
X-0.7553 Y-1.7514 Z-0.1012 I-0.0053 J-0.0014
X-0.7447 Y-1.7486 Z-0.1018 I0.0053 J0.0014
X-0.7553 Y-1.7514 Z-0.1024 I-0.0053 J-0.0014
X-0.7447 Y-1.7486 Z-0.103 I0.0053 J0.0014
X-0.7553 Y-1.7514 Z-0.1036 I-0.0053 J-0.0014
X-0.7447 Y-1.7486 Z-0.1042 I0.0053 J0.0014
X-0.7553 Y-1.7514 Z-0.1048 I-0.0053 J-0.0014
X-0.7447 Y-1.7486 Z-0.1054 I0.0053 J0.0014
X-0.7553 Y-1.7514 Z-0.106 I-0.0053 J-0.0014
X-0.7447 Y-1.7486 Z-0.1066 I0.0053 J0.0014
X-0.7553 Y-1.7514 Z-0.1072 I-0.0053 J-0.0014
X-0.7447 Y-1.7486 Z-0.1078 I0.0053 J0.0014
X-0.7553 Y-1.7514 Z-0.1084 I-0.0053 J-0.0014
X-0.7447 Y-1.7486 Z-0.1091 I0.0053 J0.0014
X-0.7553 Y-1.7514 Z-0.1097 I-0.0053 J-0.0014
X-0.7447 Y-1.7486 Z-0.1103 I0.0053 J0.0014
X-0.7553 Y-1.7514 Z-0.1109 I-0.0053 J-0.0014
X-0.7447 Y-1.7486 Z-0.1115 I0.0053 J0.0014
X-0.7553 Y-1.7514 Z-0.1121 I-0.0053 J-0.0014
X-0.7447 Y-1.7486 Z-0.1127 I0.0053 J0.0014
X-0.7553 Y-1.7514 Z-0.1133 I-0.0053 J-0.0014
X-0.7447 Y-1.7486 Z-0.1139 I0.0053 J0.0014
X-0.7553 Y-1.7514 Z-0.1145 I-0.0053 J-0.0014
X-0.7447 Y-1.7486 Z-0.1151 I0.0053 J0.0014
X-0.7553 Y-1.7514 Z-0.1157 I-0.0053 J-0.0014
X-0.7447 Y-1.7486 Z-0.1163 I0.0053 J0.0014
X-0.7553 Y-1.7514 Z-0.1169 I-0.0053 J-0.0014
X-0.7447 Y-1.7486 Z-0.1175 I0.0053 J0.0014
X-0.7553 Y-1.7514 Z-0.1181 I-0.0053 J-0.0014
X-0.7447 Y-1.7486 Z-0.1187 I0.0053 J0.0014
X-0.7553 Y-1.7514 Z-0.1193 I-0.0053 J-0.0014
X-0.7447 Y-1.7486 Z-0.1199 I0.0053 J0.0014
X-0.7459 Y-1.7464 Z-0.12 I-0.0053 J-0.0014
X-0.7541 Y-1.7536 I-0.0041 J-0.0036 F40.
X-0.7459 Y-1.7464 I0.0041 J0.0036
X-0.7541 Y-1.7536 Z-0.1206 I-0.0041 J-0.0036 F20.
X-0.7459 Y-1.7464 Z-0.1212 I0.0041 J0.0036
X-0.7541 Y-1.7536 Z-0.1218 I-0.0041 J-0.0036
X-0.7459 Y-1.7464 Z-0.1224 I0.0041 J0.0036
X-0.7541 Y-1.7536 Z-0.123 I-0.0041 J-0.0036
X-0.7459 Y-1.7464 Z-0.1236 I0.0041 J0.0036
X-0.7541 Y-1.7536 Z-0.1242 I-0.0041 J-0.0036
X-0.7459 Y-1.7464 Z-0.1248 I0.0041 J0.0036
X-0.7541 Y-1.7536 Z-0.1254 I-0.0041 J-0.0036
X-0.7459 Y-1.7464 Z-0.126 I0.0041 J0.0036
X-0.7541 Y-1.7536 Z-0.1266 I-0.0041 J-0.0036
X-0.7459 Y-1.7464 Z-0.1272 I0.0041 J0.0036
X-0.7541 Y-1.7536 Z-0.1278 I-0.0041 J-0.0036
X-0.7459 Y-1.7464 Z-0.1284 I0.0041 J0.0036
X-0.7541 Y-1.7536 Z-0.1291 I-0.0041 J-0.0036
X-0.7459 Y-1.7464 Z-0.1297 I0.0041 J0.0036
X-0.7541 Y-1.7536 Z-0.1303 I-0.0041 J-0.0036
X-0.7459 Y-1.7464 Z-0.1309 I0.0041 J0.0036
X-0.7541 Y-1.7536 Z-0.1315 I-0.0041 J-0.0036
X-0.7459 Y-1.7464 Z-0.1321 I0.0041 J0.0036
X-0.7541 Y-1.7536 Z-0.1327 I-0.0041 J-0.0036
X-0.7459 Y-1.7464 Z-0.1333 I0.0041 J0.0036
X-0.7541 Y-1.7536 Z-0.1339 I-0.0041 J-0.0036
X-0.7459 Y-1.7464 Z-0.1345 I0.0041 J0.0036
X-0.7541 Y-1.7536 Z-0.1351 I-0.0041 J-0.0036
X-0.7459 Y-1.7464 Z-0.1357 I0.0041 J0.0036
X-0.7541 Y-1.7536 Z-0.1363 I-0.0041 J-0.0036
X-0.7459 Y-1.7464 Z-0.1369 I0.0041 J0.0036
X-0.7541 Y-1.7536 Z-0.1375 I-0.0041 J-0.0036
X-0.7459 Y-1.7464 Z-0.1381 I0.0041 J0.0036
X-0.7541 Y-1.7536 Z-0.1387 I-0.0041 J-0.0036
X-0.7459 Y-1.7464 Z-0.1393 I0.0041 J0.0036
X-0.7541 Y-1.7536 Z-0.1399 I-0.0041 J-0.0036
X-0.7521 Y-1.7551 Z-0.14 I0.0041 J0.0036
X-0.7479 Y-1.7449 I0.0021 J0.0051 F40.
X-0.7521 Y-1.7551 I-0.0021 J-0.0051
X-0.7479 Y-1.7449 Z-0.1406 I0.0021 J0.0051 F20.
X-0.7521 Y-1.7551 Z-0.1412 I-0.0021 J-0.0051
X-0.7479 Y-1.7449 Z-0.1418 I0.0021 J0.0051
X-0.7521 Y-1.7551 Z-0.1424 I-0.0021 J-0.0051
X-0.7479 Y-1.7449 Z-0.143 I0.0021 J0.0051
X-0.7521 Y-1.7551 Z-0.1436 I-0.0021 J-0.0051
X-0.7479 Y-1.7449 Z-0.1442 I0.0021 J0.0051
X-0.7521 Y-1.7551 Z-0.1448 I-0.0021 J-0.0051
X-0.7479 Y-1.7449 Z-0.1454 I0.0021 J0.0051
X-0.7521 Y-1.7551 Z-0.146 I-0.0021 J-0.0051
X-0.7479 Y-1.7449 Z-0.1466 I0.0021 J0.0051
X-0.7521 Y-1.7551 Z-0.1472 I-0.0021 J-0.0051
X-0.7479 Y-1.7449 Z-0.1478 I0.0021 J0.0051
X-0.7521 Y-1.7551 Z-0.1484 I-0.0021 J-0.0051
X-0.7479 Y-1.7449 Z-0.1491 I0.0021 J0.0051
X-0.7521 Y-1.7551 Z-0.1497 I-0.0021 J-0.0051
X-0.7479 Y-1.7449 Z-0.1503 I0.0021 J0.0051
X-0.7521 Y-1.7551 Z-0.1509 I-0.0021 J-0.0051
X-0.7479 Y-1.7449 Z-0.1515 I0.0021 J0.0051
X-0.7521 Y-1.7551 Z-0.1521 I-0.0021 J-0.0051
X-0.7479 Y-1.7449 Z-0.1527 I0.0021 J0.0051
X-0.7521 Y-1.7551 Z-0.1533 I-0.0021 J-0.0051
X-0.7479 Y-1.7449 Z-0.1539 I0.0021 J0.0051
X-0.7521 Y-1.7551 Z-0.1545 I-0.0021 J-0.0051
X-0.7479 Y-1.7449 Z-0.1551 I0.0021 J0.0051
X-0.7521 Y-1.7551 Z-0.1557 I-0.0021 J-0.0051
X-0.7479 Y-1.7449 Z-0.1563 I0.0021 J0.0051
X-0.7521 Y-1.7551 Z-0.1569 I-0.0021 J-0.0051
X-0.7479 Y-1.7449 Z-0.1575 I0.0021 J0.0051
X-0.7521 Y-1.7551 Z-0.1581 I-0.0021 J-0.0051
X-0.7479 Y-1.7449 Z-0.1587 I0.0021 J0.0051
X-0.7521 Y-1.7551 Z-0.1593 I-0.0021 J-0.0051
X-0.7479 Y-1.7449 Z-0.1599 I0.0021 J0.0051
X-0.7504 Y-1.7445 Z-0.16 I-0.0021 J-0.0051
X-0.7496 Y-1.7555 I0.0004 J-0.0055 F40.
X-0.7504 Y-1.7445 I-0.0004 J0.0055
G1 X-0.7518 Y-1.7448 Z-0.1597
X-0.7532 Y-1.7455 Z-0.1594
X-0.7542 Y-1.7465 Z-0.1591
X-0.7549 Y-1.7476 Z-0.1583
X-0.7554 Y-1.7487 Z-0.1575
X-0.7555 Y-1.75 Z-0.1567
X-0.7553 Y-1.7513 Z-0.1547
X-0.7549 Y-1.7525 Z-0.1528
X-0.7544 Y-1.7533 Z-0.1482
G0 Z0.2
X-0.4487 Y-1.505
G1 Z0.1118 F40.
X-0.448 Y-1.5049 Z0.1075 F20.
X-0.4469 Y-1.5046 Z0.1057
X-0.4459 Y-1.504 Z0.1039
X-0.445 Y-1.5031 Z0.1029
X-0.4443 Y-1.5021 Z0.102
X-0.444 Y-1.5009 Z0.1011
X-0.4439 Y-1.4993 Z0.1007
X-0.4444 Y-1.4979 Z0.1004
X-0.4452 Y-1.4966 Z0.1
G3 X-0.4526 Y-1.5034 Z0.0995 I-0.0037 J-0.0034
X-0.4452 Y-1.4966 Z0.0989 I0.0037 J0.0034
X-0.4526 Y-1.5034 Z0.0984 I-0.0037 J-0.0034
X-0.4452 Y-1.4966 Z0.0978 I0.0037 J0.0034
X-0.4526 Y-1.5034 Z0.0973 I-0.0037 J-0.0034
X-0.4452 Y-1.4966 Z0.0967 I0.0037 J0.0034
X-0.4526 Y-1.5034 Z0.0962 I-0.0037 J-0.0034
X-0.4452 Y-1.4966 Z0.0956 I0.0037 J0.0034
X-0.4526 Y-1.5034 Z0.0951 I-0.0037 J-0.0034
X-0.4452 Y-1.4966 Z0.0945 I0.0037 J0.0034
X-0.4526 Y-1.5034 Z0.094 I-0.0037 J-0.0034
X-0.4452 Y-1.4966 Z0.0934 I0.0037 J0.0034
X-0.4526 Y-1.5034 Z0.0929 I-0.0037 J-0.0034
X-0.4452 Y-1.4966 Z0.0923 I0.0037 J0.0034
X-0.4526 Y-1.5034 Z0.0918 I-0.0037 J-0.0034
X-0.4452 Y-1.4966 Z0.0912 I0.0037 J0.0034
X-0.4526 Y-1.5034 Z0.0907 I-0.0037 J-0.0034
X-0.4452 Y-1.4966 Z0.0901 I0.0037 J0.0034
X-0.4526 Y-1.5034 Z0.0896 I-0.0037 J-0.0034
X-0.4452 Y-1.4966 Z0.089 I0.0037 J0.0034
X-0.4526 Y-1.5034 Z0.0885 I-0.0037 J-0.0034
X-0.4452 Y-1.4966 Z0.0879 I0.0037 J0.0034
X-0.4526 Y-1.5034 Z0.0874 I-0.0037 J-0.0034
X-0.4452 Y-1.4966 Z0.0868 I0.0037 J0.0034
X-0.4526 Y-1.5034 Z0.0863 I-0.0037 J-0.0034
X-0.4452 Y-1.4966 Z0.0857 I0.0037 J0.0034
X-0.4526 Y-1.5034 Z0.0852 I-0.0037 J-0.0034
X-0.4452 Y-1.4966 Z0.0846 I0.0037 J0.0034
X-0.4526 Y-1.5034 Z0.0841 I-0.0037 J-0.0034
X-0.4452 Y-1.4966 Z0.0835 I0.0037 J0.0034
X-0.4526 Y-1.5034 Z0.083 I-0.0037 J-0.0034
X-0.4452 Y-1.4966 Z0.0824 I0.0037 J0.0034
X-0.4526 Y-1.5034 Z0.0819 I-0.0037 J-0.0034
X-0.4452 Y-1.4966 Z0.0813 I0.0037 J0.0034
X-0.4526 Y-1.5034 Z0.0808 I-0.0037 J-0.0034
X-0.4452 Y-1.4966 Z0.0803 I0.0037 J0.0034
X-0.4526 Y-1.5034 Z0.0797 I-0.0037 J-0.0034
X-0.4452 Y-1.4966 Z0.0792 I0.0037 J0.0034
X-0.4526 Y-1.5034 Z0.0786 I-0.0037 J-0.0034
X-0.4452 Y-1.4966 Z0.0781 I0.0037 J0.0034
X-0.4526 Y-1.5034 Z0.0775 I-0.0037 J-0.0034
X-0.4452 Y-1.4966 Z0.077 I0.0037 J0.0034
X-0.4526 Y-1.5034 Z0.0764 I-0.0037 J-0.0034
X-0.4452 Y-1.4966 Z0.0759 I0.0037 J0.0034
X-0.4526 Y-1.5034 Z0.0753 I-0.0037 J-0.0034
X-0.4452 Y-1.4966 Z0.0748 I0.0037 J0.0034
X-0.4526 Y-1.5034 Z0.0742 I-0.0037 J-0.0034
X-0.4452 Y-1.4966 Z0.0737 I0.0037 J0.0034
X-0.4526 Y-1.5034 Z0.0731 I-0.0037 J-0.0034
X-0.4452 Y-1.4966 Z0.0726 I0.0037 J0.0034
X-0.4526 Y-1.5034 Z0.072 I-0.0037 J-0.0034
X-0.4452 Y-1.4966 Z0.0715 I0.0037 J0.0034
X-0.4526 Y-1.5034 Z0.0709 I-0.0037 J-0.0034
X-0.4452 Y-1.4966 Z0.0704 I0.0037 J0.0034
X-0.4526 Y-1.5034 Z0.0698 I-0.0037 J-0.0034
X-0.4452 Y-1.4966 Z0.0693 I0.0037 J0.0034
X-0.4526 Y-1.5034 Z0.0687 I-0.0037 J-0.0034
X-0.4452 Y-1.4966 Z0.0682 I0.0037 J0.0034
X-0.4526 Y-1.5034 Z0.0676 I-0.0037 J-0.0034
X-0.4452 Y-1.4966 Z0.0671 I0.0037 J0.0034
X-0.4526 Y-1.5034 Z0.0665 I-0.0037 J-0.0034
X-0.4452 Y-1.4966 Z0.066 I0.0037 J0.0034
X-0.4526 Y-1.5034 Z0.0654 I-0.0037 J-0.0034
X-0.4452 Y-1.4966 Z0.0649 I0.0037 J0.0034
X-0.4526 Y-1.5034 Z0.0643 I-0.0037 J-0.0034
X-0.4452 Y-1.4966 Z0.0638 I0.0037 J0.0034
X-0.4526 Y-1.5034 Z0.0632 I-0.0037 J-0.0034
X-0.4452 Y-1.4966 Z0.0627 I0.0037 J0.0034
X-0.4526 Y-1.5034 Z0.0622 I-0.0037 J-0.0034
X-0.4452 Y-1.4966 Z0.0616 I0.0037 J0.0034
X-0.4526 Y-1.5034 Z0.0611 I-0.0037 J-0.0034
X-0.4452 Y-1.4966 Z0.0605 I0.0037 J0.0034
X-0.4526 Y-1.5034 Z0.06 I-0.0037 J-0.0034
X-0.4452 Y-1.4966 Z0.0594 I0.0037 J0.0034
X-0.4526 Y-1.5034 Z0.0589 I-0.0037 J-0.0034
X-0.4452 Y-1.4966 Z0.0583 I0.0037 J0.0034
X-0.4526 Y-1.5034 Z0.0578 I-0.0037 J-0.0034
X-0.4452 Y-1.4966 Z0.0572 I0.0037 J0.0034
X-0.4526 Y-1.5034 Z0.0567 I-0.0037 J-0.0034
X-0.4452 Y-1.4966 Z0.0561 I0.0037 J0.0034
X-0.4526 Y-1.5034 Z0.0556 I-0.0037 J-0.0034
X-0.4452 Y-1.4966 Z0.055 I0.0037 J0.0034
X-0.4526 Y-1.5034 Z0.0545 I-0.0037 J-0.0034
X-0.4452 Y-1.4966 Z0.0539 I0.0037 J0.0034
X-0.4526 Y-1.5034 Z0.0534 I-0.0037 J-0.0034
X-0.4452 Y-1.4966 Z0.0528 I0.0037 J0.0034
X-0.4526 Y-1.5034 Z0.0523 I-0.0037 J-0.0034
X-0.4452 Y-1.4966 Z0.0517 I0.0037 J0.0034
X-0.4526 Y-1.5034 Z0.0512 I-0.0037 J-0.0034
X-0.4452 Y-1.4966 Z0.0506 I0.0037 J0.0034
X-0.4526 Y-1.5034 Z0.0501 I-0.0037 J-0.0034
X-0.4452 Y-1.4966 Z0.0495 I0.0037 J0.0034
X-0.4526 Y-1.5034 Z0.049 I-0.0037 J-0.0034
X-0.4452 Y-1.4966 Z0.0484 I0.0037 J0.0034
X-0.4526 Y-1.5034 Z0.0479 I-0.0037 J-0.0034
X-0.4452 Y-1.4966 Z0.0473 I0.0037 J0.0034
X-0.4526 Y-1.5034 Z0.0468 I-0.0037 J-0.0034
X-0.4452 Y-1.4966 Z0.0462 I0.0037 J0.0034
X-0.4526 Y-1.5034 Z0.0457 I-0.0037 J-0.0034
X-0.4452 Y-1.4966 Z0.0451 I0.0037 J0.0034
X-0.4526 Y-1.5034 Z0.0446 I-0.0037 J-0.0034
X-0.4452 Y-1.4966 Z0.044 I0.0037 J0.0034
X-0.4526 Y-1.5034 Z0.0435 I-0.0037 J-0.0034
X-0.4452 Y-1.4966 Z0.043 I0.0037 J0.0034
X-0.4526 Y-1.5034 Z0.0424 I-0.0037 J-0.0034
X-0.4452 Y-1.4966 Z0.0419 I0.0037 J0.0034
X-0.4526 Y-1.5034 Z0.0413 I-0.0037 J-0.0034
X-0.4452 Y-1.4966 Z0.0408 I0.0037 J0.0034
X-0.4526 Y-1.5034 Z0.0402 I-0.0037 J-0.0034
X-0.4452 Y-1.4966 Z0.0397 I0.0037 J0.0034
X-0.4526 Y-1.5034 Z0.0391 I-0.0037 J-0.0034
X-0.4452 Y-1.4966 Z0.0386 I0.0037 J0.0034
X-0.4526 Y-1.5034 Z0.038 I-0.0037 J-0.0034
X-0.4452 Y-1.4966 Z0.0375 I0.0037 J0.0034
X-0.4526 Y-1.5034 Z0.0369 I-0.0037 J-0.0034
X-0.4452 Y-1.4966 Z0.0364 I0.0037 J0.0034
X-0.4526 Y-1.5034 Z0.0358 I-0.0037 J-0.0034
X-0.4452 Y-1.4966 Z0.0353 I0.0037 J0.0034
X-0.4526 Y-1.5034 Z0.0347 I-0.0037 J-0.0034
X-0.4452 Y-1.4966 Z0.0342 I0.0037 J0.0034
X-0.4526 Y-1.5034 Z0.0336 I-0.0037 J-0.0034
X-0.4452 Y-1.4966 Z0.0331 I0.0037 J0.0034
X-0.4526 Y-1.5034 Z0.0325 I-0.0037 J-0.0034
X-0.4452 Y-1.4966 Z0.032 I0.0037 J0.0034
X-0.4526 Y-1.5034 Z0.0314 I-0.0037 J-0.0034
X-0.4452 Y-1.4966 Z0.0309 I0.0037 J0.0034
X-0.4526 Y-1.5034 Z0.0303 I-0.0037 J-0.0034
X-0.4452 Y-1.4966 Z0.0298 I0.0037 J0.0034
X-0.4526 Y-1.5034 Z0.0292 I-0.0037 J-0.0034
X-0.4452 Y-1.4966 Z0.0287 I0.0037 J0.0034
X-0.4526 Y-1.5034 Z0.0281 I-0.0037 J-0.0034
X-0.4452 Y-1.4966 Z0.0276 I0.0037 J0.0034
X-0.4526 Y-1.5034 Z0.027 I-0.0037 J-0.0034
X-0.4452 Y-1.4966 Z0.0265 I0.0037 J0.0034
X-0.4526 Y-1.5034 Z0.0259 I-0.0037 J-0.0034
X-0.4452 Y-1.4966 Z0.0254 I0.0037 J0.0034
X-0.4526 Y-1.5034 Z0.0249 I-0.0037 J-0.0034
X-0.4452 Y-1.4966 Z0.0243 I0.0037 J0.0034
X-0.4526 Y-1.5034 Z0.0238 I-0.0037 J-0.0034
X-0.4452 Y-1.4966 Z0.0232 I0.0037 J0.0034
X-0.4526 Y-1.5034 Z0.0227 I-0.0037 J-0.0034
X-0.4452 Y-1.4966 Z0.0221 I0.0037 J0.0034
X-0.4526 Y-1.5034 Z0.0216 I-0.0037 J-0.0034
X-0.4452 Y-1.4966 Z0.021 I0.0037 J0.0034
X-0.4526 Y-1.5034 Z0.0205 I-0.0037 J-0.0034
X-0.4452 Y-1.4966 Z0.0199 I0.0037 J0.0034
X-0.4526 Y-1.5034 Z0.0194 I-0.0037 J-0.0034
X-0.4452 Y-1.4966 Z0.0188 I0.0037 J0.0034
X-0.4526 Y-1.5034 Z0.0183 I-0.0037 J-0.0034
X-0.4452 Y-1.4966 Z0.0177 I0.0037 J0.0034
X-0.4526 Y-1.5034 Z0.0172 I-0.0037 J-0.0034
X-0.4452 Y-1.4966 Z0.0166 I0.0037 J0.0034
X-0.4526 Y-1.5034 Z0.0161 I-0.0037 J-0.0034
X-0.4452 Y-1.4966 Z0.0155 I0.0037 J0.0034
X-0.4526 Y-1.5034 Z0.015 I-0.0037 J-0.0034
X-0.4452 Y-1.4966 Z0.0144 I0.0037 J0.0034
X-0.4526 Y-1.5034 Z0.0139 I-0.0037 J-0.0034
X-0.4452 Y-1.4966 Z0.0133 I0.0037 J0.0034
X-0.4526 Y-1.5034 Z0.0128 I-0.0037 J-0.0034
X-0.4452 Y-1.4966 Z0.0122 I0.0037 J0.0034
X-0.4526 Y-1.5034 Z0.0117 I-0.0037 J-0.0034
X-0.4452 Y-1.4966 Z0.0111 I0.0037 J0.0034
X-0.4526 Y-1.5034 Z0.0106 I-0.0037 J-0.0034
X-0.4452 Y-1.4966 Z0.01 I0.0037 J0.0034
X-0.4526 Y-1.5034 Z0.0095 I-0.0037 J-0.0034
X-0.4452 Y-1.4966 Z0.0089 I0.0037 J0.0034
X-0.4526 Y-1.5034 Z0.0084 I-0.0037 J-0.0034
X-0.4452 Y-1.4966 Z0.0078 I0.0037 J0.0034
X-0.4526 Y-1.5034 Z0.0073 I-0.0037 J-0.0034
X-0.4452 Y-1.4966 Z0.0067 I0.0037 J0.0034
X-0.4526 Y-1.5034 Z0.0062 I-0.0037 J-0.0034
X-0.4452 Y-1.4966 Z0.0057 I0.0037 J0.0034
X-0.4526 Y-1.5034 Z0.0051 I-0.0037 J-0.0034
X-0.4452 Y-1.4966 Z0.0046 I0.0037 J0.0034
X-0.4526 Y-1.5034 Z0.004 I-0.0037 J-0.0034
X-0.4452 Y-1.4966 Z0.0035 I0.0037 J0.0034
X-0.4526 Y-1.5034 Z0.0029 I-0.0037 J-0.0034
X-0.4452 Y-1.4966 Z0.0024 I0.0037 J0.0034
X-0.4526 Y-1.5034 Z0.0018 I-0.0037 J-0.0034
X-0.4452 Y-1.4966 Z0.0013 I0.0037 J0.0034
X-0.4526 Y-1.5034 Z0.0007 I-0.0037 J-0.0034
X-0.4452 Y-1.4966 Z0.0002 I0.0037 J0.0034
X-0.4526 Y-1.5034 Z-0.0004 I-0.0037 J-0.0034
X-0.4452 Y-1.4966 Z-0.0009 I0.0037 J0.0034
X-0.4526 Y-1.5034 Z-0.0015 I-0.0037 J-0.0034
X-0.4452 Y-1.4966 Z-0.002 I0.0037 J0.0034
X-0.4526 Y-1.5034 Z-0.0026 I-0.0037 J-0.0034
X-0.4452 Y-1.4966 Z-0.0031 I0.0037 J0.0034
X-0.4526 Y-1.5034 Z-0.0037 I-0.0037 J-0.0034
X-0.4452 Y-1.4966 Z-0.0042 I0.0037 J0.0034
X-0.4526 Y-1.5034 Z-0.0048 I-0.0037 J-0.0034
X-0.4452 Y-1.4966 Z-0.0053 I0.0037 J0.0034
X-0.4526 Y-1.5034 Z-0.0059 I-0.0037 J-0.0034
X-0.4452 Y-1.4966 Z-0.0064 I0.0037 J0.0034
X-0.4526 Y-1.5034 Z-0.007 I-0.0037 J-0.0034
X-0.4452 Y-1.4966 Z-0.0075 I0.0037 J0.0034
X-0.4526 Y-1.5034 Z-0.0081 I-0.0037 J-0.0034
X-0.4452 Y-1.4966 Z-0.0086 I0.0037 J0.0034
X-0.4526 Y-1.5034 Z-0.0092 I-0.0037 J-0.0034
X-0.4452 Y-1.4966 Z-0.0097 I0.0037 J0.0034
X-0.4526 Y-1.5034 Z-0.0103 I-0.0037 J-0.0034
X-0.4452 Y-1.4966 Z-0.0108 I0.0037 J0.0034
X-0.4526 Y-1.5034 Z-0.0114 I-0.0037 J-0.0034
X-0.4452 Y-1.4966 Z-0.0119 I0.0037 J0.0034
X-0.4526 Y-1.5034 Z-0.0124 I-0.0037 J-0.0034
X-0.4452 Y-1.4966 Z-0.013 I0.0037 J0.0034
X-0.4526 Y-1.5034 Z-0.0135 I-0.0037 J-0.0034
X-0.4452 Y-1.4966 Z-0.0141 I0.0037 J0.0034
X-0.4526 Y-1.5034 Z-0.0146 I-0.0037 J-0.0034
X-0.4452 Y-1.4966 Z-0.0152 I0.0037 J0.0034
X-0.4526 Y-1.5034 Z-0.0157 I-0.0037 J-0.0034
X-0.4452 Y-1.4966 Z-0.0163 I0.0037 J0.0034
X-0.4526 Y-1.5034 Z-0.0168 I-0.0037 J-0.0034
X-0.4452 Y-1.4966 Z-0.0174 I0.0037 J0.0034
X-0.4526 Y-1.5034 Z-0.0179 I-0.0037 J-0.0034
X-0.4452 Y-1.4966 Z-0.0185 I0.0037 J0.0034
X-0.4526 Y-1.5034 Z-0.019 I-0.0037 J-0.0034
X-0.4452 Y-1.4966 Z-0.0196 I0.0037 J0.0034
X-0.4539 Y-1.5 Z-0.02 I-0.0037 J-0.0034
X-0.434 I0.01 J0. F40.
X-0.566 I-0.066 J0.
X-0.434 I0.066 J0.
X-0.4453 Y-1.4927 I-0.008 J0.
G1 X-0.4495 Y-1.495
G3 X-0.4483 Y-1.505 Z-0.0205 I0.0006 J-0.005 F20.
X-0.4495 Y-1.495 Z-0.0211 I-0.0006 J0.005
X-0.4483 Y-1.505 Z-0.0216 I0.0006 J-0.005
X-0.4495 Y-1.495 Z-0.0222 I-0.0006 J0.005
X-0.4483 Y-1.505 Z-0.0227 I0.0006 J-0.005
X-0.4495 Y-1.495 Z-0.0233 I-0.0006 J0.005
X-0.4483 Y-1.505 Z-0.0238 I0.0006 J-0.005
X-0.4495 Y-1.495 Z-0.0244 I-0.0006 J0.005
X-0.4483 Y-1.505 Z-0.0249 I0.0006 J-0.005
X-0.4495 Y-1.495 Z-0.0255 I-0.0006 J0.005
X-0.4483 Y-1.505 Z-0.026 I0.0006 J-0.005
X-0.4495 Y-1.495 Z-0.0266 I-0.0006 J0.005
X-0.4483 Y-1.505 Z-0.0271 I0.0006 J-0.005
X-0.4495 Y-1.495 Z-0.0277 I-0.0006 J0.005
X-0.4483 Y-1.505 Z-0.0282 I0.0006 J-0.005
X-0.4495 Y-1.495 Z-0.0288 I-0.0006 J0.005
X-0.4483 Y-1.505 Z-0.0293 I0.0006 J-0.005
X-0.4495 Y-1.495 Z-0.0299 I-0.0006 J0.005
X-0.4483 Y-1.505 Z-0.0304 I0.0006 J-0.005
X-0.4495 Y-1.495 Z-0.031 I-0.0006 J0.005
X-0.4483 Y-1.505 Z-0.0315 I0.0006 J-0.005
X-0.4495 Y-1.495 Z-0.0321 I-0.0006 J0.005
X-0.4483 Y-1.505 Z-0.0326 I0.0006 J-0.005
X-0.4495 Y-1.495 Z-0.0332 I-0.0006 J0.005
X-0.4483 Y-1.505 Z-0.0337 I0.0006 J-0.005
X-0.4495 Y-1.495 Z-0.0343 I-0.0006 J0.005
X-0.4483 Y-1.505 Z-0.0348 I0.0006 J-0.005
X-0.4495 Y-1.495 Z-0.0354 I-0.0006 J0.005
X-0.4483 Y-1.505 Z-0.0359 I0.0006 J-0.005
X-0.4495 Y-1.495 Z-0.0365 I-0.0006 J0.005
X-0.4483 Y-1.505 Z-0.037 I0.0006 J-0.005
X-0.4495 Y-1.495 Z-0.0376 I-0.0006 J0.005
X-0.4483 Y-1.505 Z-0.0381 I0.0006 J-0.005
X-0.4495 Y-1.495 Z-0.0387 I-0.0006 J0.005
X-0.4483 Y-1.505 Z-0.0392 I0.0006 J-0.005
X-0.4495 Y-1.495 Z-0.0397 I-0.0006 J0.005
X-0.4539 Y-1.5 Z-0.04 I0.0006 J-0.005
X-0.434 I0.01 J0. F40.
X-0.566 I-0.066 J0.
X-0.434 I0.066 J0.
X-0.4453 Y-1.4927 I-0.008 J0.
G1 X-0.4495 Y-1.495
G3 X-0.4483 Y-1.505 Z-0.0405 I0.0006 J-0.005 F20.
X-0.4495 Y-1.495 Z-0.0411 I-0.0006 J0.005
X-0.4483 Y-1.505 Z-0.0416 I0.0006 J-0.005
X-0.4495 Y-1.495 Z-0.0422 I-0.0006 J0.005
X-0.4483 Y-1.505 Z-0.0427 I0.0006 J-0.005
X-0.4495 Y-1.495 Z-0.0433 I-0.0006 J0.005
X-0.4483 Y-1.505 Z-0.0438 I0.0006 J-0.005
X-0.4495 Y-1.495 Z-0.0444 I-0.0006 J0.005
X-0.4483 Y-1.505 Z-0.0449 I0.0006 J-0.005
X-0.4495 Y-1.495 Z-0.0455 I-0.0006 J0.005
X-0.4483 Y-1.505 Z-0.046 I0.0006 J-0.005
X-0.4495 Y-1.495 Z-0.0466 I-0.0006 J0.005
X-0.4483 Y-1.505 Z-0.0471 I0.0006 J-0.005
X-0.4495 Y-1.495 Z-0.0477 I-0.0006 J0.005
X-0.4483 Y-1.505 Z-0.0482 I0.0006 J-0.005
X-0.4495 Y-1.495 Z-0.0488 I-0.0006 J0.005
X-0.4483 Y-1.505 Z-0.0493 I0.0006 J-0.005
X-0.4495 Y-1.495 Z-0.0499 I-0.0006 J0.005
X-0.4483 Y-1.505 Z-0.0504 I0.0006 J-0.005
X-0.4495 Y-1.495 Z-0.051 I-0.0006 J0.005
X-0.4483 Y-1.505 Z-0.0515 I0.0006 J-0.005
X-0.4495 Y-1.495 Z-0.0521 I-0.0006 J0.005
X-0.4483 Y-1.505 Z-0.0526 I0.0006 J-0.005
X-0.4495 Y-1.495 Z-0.0532 I-0.0006 J0.005
X-0.4483 Y-1.505 Z-0.0537 I0.0006 J-0.005
X-0.4495 Y-1.495 Z-0.0543 I-0.0006 J0.005
X-0.4483 Y-1.505 Z-0.0548 I0.0006 J-0.005
X-0.4495 Y-1.495 Z-0.0554 I-0.0006 J0.005
X-0.4483 Y-1.505 Z-0.0559 I0.0006 J-0.005
X-0.4495 Y-1.495 Z-0.0565 I-0.0006 J0.005
X-0.4483 Y-1.505 Z-0.057 I0.0006 J-0.005
X-0.4495 Y-1.495 Z-0.0576 I-0.0006 J0.005
X-0.4483 Y-1.505 Z-0.0581 I0.0006 J-0.005
X-0.4495 Y-1.495 Z-0.0587 I-0.0006 J0.005
X-0.4483 Y-1.505 Z-0.0592 I0.0006 J-0.005
X-0.4495 Y-1.495 Z-0.0597 I-0.0006 J0.005
X-0.4539 Y-1.5 Z-0.06 I0.0006 J-0.005
X-0.434 I0.01 J0. F40.
X-0.566 I-0.066 J0.
X-0.434 I0.066 J0.
X-0.4453 Y-1.4927 I-0.008 J0.
G1 X-0.4495 Y-1.495
G3 X-0.4483 Y-1.505 Z-0.0605 I0.0006 J-0.005 F20.
X-0.4495 Y-1.495 Z-0.0611 I-0.0006 J0.005
X-0.4483 Y-1.505 Z-0.0616 I0.0006 J-0.005
X-0.4495 Y-1.495 Z-0.0622 I-0.0006 J0.005
X-0.4483 Y-1.505 Z-0.0627 I0.0006 J-0.005
X-0.4495 Y-1.495 Z-0.0633 I-0.0006 J0.005
X-0.4483 Y-1.505 Z-0.0638 I0.0006 J-0.005
X-0.4495 Y-1.495 Z-0.0644 I-0.0006 J0.005
X-0.4483 Y-1.505 Z-0.0649 I0.0006 J-0.005
X-0.4495 Y-1.495 Z-0.0655 I-0.0006 J0.005
X-0.4483 Y-1.505 Z-0.066 I0.0006 J-0.005
X-0.4495 Y-1.495 Z-0.0666 I-0.0006 J0.005
X-0.4483 Y-1.505 Z-0.0671 I0.0006 J-0.005
X-0.4495 Y-1.495 Z-0.0677 I-0.0006 J0.005
X-0.4483 Y-1.505 Z-0.0682 I0.0006 J-0.005
X-0.4495 Y-1.495 Z-0.0688 I-0.0006 J0.005
X-0.4483 Y-1.505 Z-0.0693 I0.0006 J-0.005
X-0.4495 Y-1.495 Z-0.0699 I-0.0006 J0.005
X-0.4483 Y-1.505 Z-0.0704 I0.0006 J-0.005
X-0.4495 Y-1.495 Z-0.071 I-0.0006 J0.005
X-0.4483 Y-1.505 Z-0.0715 I0.0006 J-0.005
X-0.4495 Y-1.495 Z-0.0721 I-0.0006 J0.005
X-0.4483 Y-1.505 Z-0.0726 I0.0006 J-0.005
X-0.4495 Y-1.495 Z-0.0732 I-0.0006 J0.005
X-0.4483 Y-1.505 Z-0.0737 I0.0006 J-0.005
X-0.4495 Y-1.495 Z-0.0743 I-0.0006 J0.005
X-0.4483 Y-1.505 Z-0.0748 I0.0006 J-0.005
X-0.4495 Y-1.495 Z-0.0754 I-0.0006 J0.005
X-0.4483 Y-1.505 Z-0.0759 I0.0006 J-0.005
X-0.4495 Y-1.495 Z-0.0765 I-0.0006 J0.005
X-0.4483 Y-1.505 Z-0.077 I0.0006 J-0.005
X-0.4495 Y-1.495 Z-0.0776 I-0.0006 J0.005
X-0.4483 Y-1.505 Z-0.0781 I0.0006 J-0.005
X-0.4495 Y-1.495 Z-0.0787 I-0.0006 J0.005
X-0.4483 Y-1.505 Z-0.0792 I0.0006 J-0.005
X-0.4495 Y-1.495 Z-0.0797 I-0.0006 J0.005
X-0.4539 Y-1.5 Z-0.08 I0.0006 J-0.005
X-0.434 I0.01 J0. F40.
X-0.566 I-0.066 J0.
X-0.434 I0.066 J0.
X-0.4453 Y-1.4927 I-0.008 J0.
G1 X-0.4495 Y-1.495
G3 X-0.4483 Y-1.505 Z-0.0805 I0.0006 J-0.005 F20.
X-0.4495 Y-1.495 Z-0.0811 I-0.0006 J0.005
X-0.4483 Y-1.505 Z-0.0816 I0.0006 J-0.005
X-0.4495 Y-1.495 Z-0.0822 I-0.0006 J0.005
X-0.4483 Y-1.505 Z-0.0827 I0.0006 J-0.005
X-0.4495 Y-1.495 Z-0.0833 I-0.0006 J0.005
X-0.4483 Y-1.505 Z-0.0838 I0.0006 J-0.005
X-0.4495 Y-1.495 Z-0.0844 I-0.0006 J0.005
X-0.4483 Y-1.505 Z-0.0849 I0.0006 J-0.005
X-0.4495 Y-1.495 Z-0.0855 I-0.0006 J0.005
X-0.4483 Y-1.505 Z-0.086 I0.0006 J-0.005
X-0.4495 Y-1.495 Z-0.0866 I-0.0006 J0.005
X-0.4483 Y-1.505 Z-0.0871 I0.0006 J-0.005
X-0.4495 Y-1.495 Z-0.0877 I-0.0006 J0.005
X-0.4483 Y-1.505 Z-0.0882 I0.0006 J-0.005
X-0.4495 Y-1.495 Z-0.0888 I-0.0006 J0.005
X-0.4483 Y-1.505 Z-0.0893 I0.0006 J-0.005
X-0.4495 Y-1.495 Z-0.0899 I-0.0006 J0.005
X-0.4483 Y-1.505 Z-0.0904 I0.0006 J-0.005
X-0.4495 Y-1.495 Z-0.091 I-0.0006 J0.005
X-0.4483 Y-1.505 Z-0.0915 I0.0006 J-0.005
X-0.4495 Y-1.495 Z-0.0921 I-0.0006 J0.005
X-0.4483 Y-1.505 Z-0.0926 I0.0006 J-0.005
X-0.4495 Y-1.495 Z-0.0932 I-0.0006 J0.005
X-0.4483 Y-1.505 Z-0.0937 I0.0006 J-0.005
X-0.4495 Y-1.495 Z-0.0943 I-0.0006 J0.005
X-0.4483 Y-1.505 Z-0.0948 I0.0006 J-0.005
X-0.4495 Y-1.495 Z-0.0954 I-0.0006 J0.005
X-0.4483 Y-1.505 Z-0.0959 I0.0006 J-0.005
X-0.4495 Y-1.495 Z-0.0965 I-0.0006 J0.005
X-0.4483 Y-1.505 Z-0.097 I0.0006 J-0.005
X-0.4495 Y-1.495 Z-0.0976 I-0.0006 J0.005
X-0.4483 Y-1.505 Z-0.0981 I0.0006 J-0.005
X-0.4495 Y-1.495 Z-0.0987 I-0.0006 J0.005
X-0.4483 Y-1.505 Z-0.0992 I0.0006 J-0.005
X-0.4495 Y-1.495 Z-0.0997 I-0.0006 J0.005
X-0.4539 Y-1.5 Z-0.1 I0.0006 J-0.005
X-0.434 I0.01 J0. F40.
X-0.566 I-0.066 J0.
X-0.434 I0.066 J0.
X-0.4453 Y-1.4927 I-0.008 J0.
G1 X-0.4495 Y-1.495
G3 X-0.4483 Y-1.505 Z-0.1005 I0.0006 J-0.005 F20.
X-0.4495 Y-1.495 Z-0.1011 I-0.0006 J0.005
X-0.4483 Y-1.505 Z-0.1016 I0.0006 J-0.005
X-0.4495 Y-1.495 Z-0.1022 I-0.0006 J0.005
X-0.4483 Y-1.505 Z-0.1027 I0.0006 J-0.005
X-0.4495 Y-1.495 Z-0.1033 I-0.0006 J0.005
X-0.4483 Y-1.505 Z-0.1038 I0.0006 J-0.005
X-0.4495 Y-1.495 Z-0.1044 I-0.0006 J0.005
X-0.4483 Y-1.505 Z-0.1049 I0.0006 J-0.005
X-0.4495 Y-1.495 Z-0.1055 I-0.0006 J0.005
X-0.4483 Y-1.505 Z-0.106 I0.0006 J-0.005
X-0.4495 Y-1.495 Z-0.1066 I-0.0006 J0.005
X-0.4483 Y-1.505 Z-0.1071 I0.0006 J-0.005
X-0.4495 Y-1.495 Z-0.1077 I-0.0006 J0.005
X-0.4483 Y-1.505 Z-0.1082 I0.0006 J-0.005
X-0.4495 Y-1.495 Z-0.1088 I-0.0006 J0.005
X-0.4483 Y-1.505 Z-0.1093 I0.0006 J-0.005
X-0.4495 Y-1.495 Z-0.1099 I-0.0006 J0.005
X-0.4483 Y-1.505 Z-0.1104 I0.0006 J-0.005
X-0.4495 Y-1.495 Z-0.111 I-0.0006 J0.005
X-0.4483 Y-1.505 Z-0.1115 I0.0006 J-0.005
X-0.4495 Y-1.495 Z-0.1121 I-0.0006 J0.005
X-0.4483 Y-1.505 Z-0.1126 I0.0006 J-0.005
X-0.4495 Y-1.495 Z-0.1132 I-0.0006 J0.005
X-0.4483 Y-1.505 Z-0.1137 I0.0006 J-0.005
X-0.4495 Y-1.495 Z-0.1143 I-0.0006 J0.005
X-0.4483 Y-1.505 Z-0.1148 I0.0006 J-0.005
X-0.4495 Y-1.495 Z-0.1154 I-0.0006 J0.005
X-0.4483 Y-1.505 Z-0.1159 I0.0006 J-0.005
X-0.4495 Y-1.495 Z-0.1165 I-0.0006 J0.005
X-0.4483 Y-1.505 Z-0.117 I0.0006 J-0.005
X-0.4495 Y-1.495 Z-0.1176 I-0.0006 J0.005
X-0.4483 Y-1.505 Z-0.1181 I0.0006 J-0.005
X-0.4495 Y-1.495 Z-0.1187 I-0.0006 J0.005
X-0.4483 Y-1.505 Z-0.1192 I0.0006 J-0.005
X-0.4495 Y-1.495 Z-0.1197 I-0.0006 J0.005
X-0.4539 Y-1.5 Z-0.12 I0.0006 J-0.005
X-0.434 I0.01 J0. F40.
X-0.566 I-0.066 J0.
X-0.434 I0.066 J0.
X-0.4453 Y-1.4927 I-0.008 J0.
G1 X-0.4495 Y-1.495
G3 X-0.4483 Y-1.505 Z-0.1205 I0.0006 J-0.005 F20.
X-0.4495 Y-1.495 Z-0.1211 I-0.0006 J0.005
X-0.4483 Y-1.505 Z-0.1216 I0.0006 J-0.005
X-0.4495 Y-1.495 Z-0.1222 I-0.0006 J0.005
X-0.4483 Y-1.505 Z-0.1227 I0.0006 J-0.005
X-0.4495 Y-1.495 Z-0.1233 I-0.0006 J0.005
X-0.4483 Y-1.505 Z-0.1238 I0.0006 J-0.005
X-0.4495 Y-1.495 Z-0.1244 I-0.0006 J0.005
X-0.4483 Y-1.505 Z-0.1249 I0.0006 J-0.005
X-0.4495 Y-1.495 Z-0.1255 I-0.0006 J0.005
X-0.4483 Y-1.505 Z-0.126 I0.0006 J-0.005
X-0.4495 Y-1.495 Z-0.1266 I-0.0006 J0.005
X-0.4483 Y-1.505 Z-0.1271 I0.0006 J-0.005
X-0.4495 Y-1.495 Z-0.1277 I-0.0006 J0.005
X-0.4483 Y-1.505 Z-0.1282 I0.0006 J-0.005
X-0.4495 Y-1.495 Z-0.1288 I-0.0006 J0.005
X-0.4483 Y-1.505 Z-0.1293 I0.0006 J-0.005
X-0.4495 Y-1.495 Z-0.1299 I-0.0006 J0.005
X-0.4483 Y-1.505 Z-0.1304 I0.0006 J-0.005
X-0.4495 Y-1.495 Z-0.131 I-0.0006 J0.005
X-0.4483 Y-1.505 Z-0.1315 I0.0006 J-0.005
X-0.4495 Y-1.495 Z-0.1321 I-0.0006 J0.005
X-0.4483 Y-1.505 Z-0.1326 I0.0006 J-0.005
X-0.4495 Y-1.495 Z-0.1332 I-0.0006 J0.005
X-0.4483 Y-1.505 Z-0.1337 I0.0006 J-0.005
X-0.4495 Y-1.495 Z-0.1343 I-0.0006 J0.005
X-0.4483 Y-1.505 Z-0.1348 I0.0006 J-0.005
X-0.4495 Y-1.495 Z-0.1354 I-0.0006 J0.005
X-0.4483 Y-1.505 Z-0.1359 I0.0006 J-0.005
X-0.4495 Y-1.495 Z-0.1365 I-0.0006 J0.005
X-0.4483 Y-1.505 Z-0.137 I0.0006 J-0.005
X-0.4495 Y-1.495 Z-0.1376 I-0.0006 J0.005
X-0.4483 Y-1.505 Z-0.1381 I0.0006 J-0.005
X-0.4495 Y-1.495 Z-0.1387 I-0.0006 J0.005
X-0.4483 Y-1.505 Z-0.1392 I0.0006 J-0.005
X-0.4495 Y-1.495 Z-0.1397 I-0.0006 J0.005
X-0.4539 Y-1.5 Z-0.14 I0.0006 J-0.005
X-0.434 I0.01 J0. F40.
X-0.566 I-0.066 J0.
X-0.434 I0.066 J0.
X-0.4453 Y-1.4927 I-0.008 J0.
G1 X-0.4495 Y-1.495
G3 X-0.4483 Y-1.505 Z-0.1405 I0.0006 J-0.005 F20.
X-0.4495 Y-1.495 Z-0.1411 I-0.0006 J0.005
X-0.4483 Y-1.505 Z-0.1416 I0.0006 J-0.005
X-0.4495 Y-1.495 Z-0.1422 I-0.0006 J0.005
X-0.4483 Y-1.505 Z-0.1427 I0.0006 J-0.005
X-0.4495 Y-1.495 Z-0.1433 I-0.0006 J0.005
X-0.4483 Y-1.505 Z-0.1438 I0.0006 J-0.005
X-0.4495 Y-1.495 Z-0.1444 I-0.0006 J0.005
X-0.4483 Y-1.505 Z-0.1449 I0.0006 J-0.005
X-0.4495 Y-1.495 Z-0.1455 I-0.0006 J0.005
X-0.4483 Y-1.505 Z-0.146 I0.0006 J-0.005
X-0.4495 Y-1.495 Z-0.1466 I-0.0006 J0.005
X-0.4483 Y-1.505 Z-0.1471 I0.0006 J-0.005
X-0.4495 Y-1.495 Z-0.1477 I-0.0006 J0.005
X-0.4483 Y-1.505 Z-0.1482 I0.0006 J-0.005
X-0.4495 Y-1.495 Z-0.1488 I-0.0006 J0.005
X-0.4483 Y-1.505 Z-0.1493 I0.0006 J-0.005
X-0.4495 Y-1.495 Z-0.1499 I-0.0006 J0.005
X-0.4483 Y-1.505 Z-0.1504 I0.0006 J-0.005
X-0.4495 Y-1.495 Z-0.151 I-0.0006 J0.005
X-0.4483 Y-1.505 Z-0.1515 I0.0006 J-0.005
X-0.4495 Y-1.495 Z-0.1521 I-0.0006 J0.005
X-0.4483 Y-1.505 Z-0.1526 I0.0006 J-0.005
X-0.4495 Y-1.495 Z-0.1532 I-0.0006 J0.005
X-0.4483 Y-1.505 Z-0.1537 I0.0006 J-0.005
X-0.4495 Y-1.495 Z-0.1543 I-0.0006 J0.005
X-0.4483 Y-1.505 Z-0.1548 I0.0006 J-0.005
X-0.4495 Y-1.495 Z-0.1554 I-0.0006 J0.005
X-0.4483 Y-1.505 Z-0.1559 I0.0006 J-0.005
X-0.4495 Y-1.495 Z-0.1565 I-0.0006 J0.005
X-0.4483 Y-1.505 Z-0.157 I0.0006 J-0.005
X-0.4495 Y-1.495 Z-0.1576 I-0.0006 J0.005
X-0.4483 Y-1.505 Z-0.1581 I0.0006 J-0.005
X-0.4495 Y-1.495 Z-0.1587 I-0.0006 J0.005
X-0.4483 Y-1.505 Z-0.1592 I0.0006 J-0.005
X-0.4495 Y-1.495 Z-0.1597 I-0.0006 J0.005
X-0.4539 Y-1.5 Z-0.16 I0.0006 J-0.005
X-0.434 I0.01 J0. F40.
X-0.566 I-0.066 J0.
X-0.434 I0.066 J0.
G1 X-0.4342 Y-1.4978 Z-0.1596
X-0.4349 Y-1.4956 Z-0.1591
X-0.4357 Y-1.4939 Z-0.1578
X-0.4368 Y-1.4923 Z-0.1565
X-0.4387 Y-1.4906 Z-0.1527
X-0.4394 Y-1.4901 Z-0.1482
G0 Z0.2
X-0.2497 Y-1.245
G1 Z0.1118 F40.
X-0.2504 Y-1.2451 Z0.1075 F20.
X-0.2515 Y-1.2454 Z0.1057
X-0.2525 Y-1.246 Z0.1039
X-0.2534 Y-1.2469 Z0.1029
X-0.2541 Y-1.2479 Z0.102
X-0.2544 Y-1.2491 Z0.1011
X-0.2545 Y-1.2507 Z0.1007
X-0.254 Y-1.2521 Z0.1004
X-0.2532 Y-1.2534 Z0.1
G3 X-0.2458 Y-1.2466 Z0.0995 I0.0037 J0.0034
X-0.2532 Y-1.2534 Z0.0989 I-0.0037 J-0.0034
X-0.2458 Y-1.2466 Z0.0984 I0.0037 J0.0034
X-0.2532 Y-1.2534 Z0.0978 I-0.0037 J-0.0034
X-0.2458 Y-1.2466 Z0.0973 I0.0037 J0.0034
X-0.2532 Y-1.2534 Z0.0967 I-0.0037 J-0.0034
X-0.2458 Y-1.2466 Z0.0962 I0.0037 J0.0034
X-0.2532 Y-1.2534 Z0.0956 I-0.0037 J-0.0034
X-0.2458 Y-1.2466 Z0.0951 I0.0037 J0.0034
X-0.2532 Y-1.2534 Z0.0945 I-0.0037 J-0.0034
X-0.2458 Y-1.2466 Z0.094 I0.0037 J0.0034
X-0.2532 Y-1.2534 Z0.0934 I-0.0037 J-0.0034
X-0.2458 Y-1.2466 Z0.0929 I0.0037 J0.0034
X-0.2532 Y-1.2534 Z0.0923 I-0.0037 J-0.0034
X-0.2458 Y-1.2466 Z0.0918 I0.0037 J0.0034
X-0.2532 Y-1.2534 Z0.0912 I-0.0037 J-0.0034
X-0.2458 Y-1.2466 Z0.0907 I0.0037 J0.0034
X-0.2532 Y-1.2534 Z0.0901 I-0.0037 J-0.0034
X-0.2458 Y-1.2466 Z0.0896 I0.0037 J0.0034
X-0.2532 Y-1.2534 Z0.089 I-0.0037 J-0.0034
X-0.2458 Y-1.2466 Z0.0885 I0.0037 J0.0034
X-0.2532 Y-1.2534 Z0.0879 I-0.0037 J-0.0034
X-0.2458 Y-1.2466 Z0.0874 I0.0037 J0.0034
X-0.2532 Y-1.2534 Z0.0868 I-0.0037 J-0.0034
X-0.2458 Y-1.2466 Z0.0863 I0.0037 J0.0034
X-0.2532 Y-1.2534 Z0.0857 I-0.0037 J-0.0034
X-0.2458 Y-1.2466 Z0.0852 I0.0037 J0.0034
X-0.2532 Y-1.2534 Z0.0846 I-0.0037 J-0.0034
X-0.2458 Y-1.2466 Z0.0841 I0.0037 J0.0034
X-0.2532 Y-1.2534 Z0.0835 I-0.0037 J-0.0034
X-0.2458 Y-1.2466 Z0.083 I0.0037 J0.0034
X-0.2532 Y-1.2534 Z0.0824 I-0.0037 J-0.0034
X-0.2458 Y-1.2466 Z0.0819 I0.0037 J0.0034
X-0.2532 Y-1.2534 Z0.0813 I-0.0037 J-0.0034
X-0.2458 Y-1.2466 Z0.0808 I0.0037 J0.0034
X-0.2532 Y-1.2534 Z0.0803 I-0.0037 J-0.0034
X-0.2458 Y-1.2466 Z0.0797 I0.0037 J0.0034
X-0.2532 Y-1.2534 Z0.0792 I-0.0037 J-0.0034
X-0.2458 Y-1.2466 Z0.0786 I0.0037 J0.0034
X-0.2532 Y-1.2534 Z0.0781 I-0.0037 J-0.0034
X-0.2458 Y-1.2466 Z0.0775 I0.0037 J0.0034
X-0.2532 Y-1.2534 Z0.077 I-0.0037 J-0.0034
X-0.2458 Y-1.2466 Z0.0764 I0.0037 J0.0034
X-0.2532 Y-1.2534 Z0.0759 I-0.0037 J-0.0034
X-0.2458 Y-1.2466 Z0.0753 I0.0037 J0.0034
X-0.2532 Y-1.2534 Z0.0748 I-0.0037 J-0.0034
X-0.2458 Y-1.2466 Z0.0742 I0.0037 J0.0034
X-0.2532 Y-1.2534 Z0.0737 I-0.0037 J-0.0034
X-0.2458 Y-1.2466 Z0.0731 I0.0037 J0.0034
X-0.2532 Y-1.2534 Z0.0726 I-0.0037 J-0.0034
X-0.2458 Y-1.2466 Z0.072 I0.0037 J0.0034
X-0.2532 Y-1.2534 Z0.0715 I-0.0037 J-0.0034
X-0.2458 Y-1.2466 Z0.0709 I0.0037 J0.0034
X-0.2532 Y-1.2534 Z0.0704 I-0.0037 J-0.0034
X-0.2458 Y-1.2466 Z0.0698 I0.0037 J0.0034
X-0.2532 Y-1.2534 Z0.0693 I-0.0037 J-0.0034
X-0.2458 Y-1.2466 Z0.0687 I0.0037 J0.0034
X-0.2532 Y-1.2534 Z0.0682 I-0.0037 J-0.0034
X-0.2458 Y-1.2466 Z0.0676 I0.0037 J0.0034
X-0.2532 Y-1.2534 Z0.0671 I-0.0037 J-0.0034
X-0.2458 Y-1.2466 Z0.0665 I0.0037 J0.0034
X-0.2532 Y-1.2534 Z0.066 I-0.0037 J-0.0034
X-0.2458 Y-1.2466 Z0.0654 I0.0037 J0.0034
X-0.2532 Y-1.2534 Z0.0649 I-0.0037 J-0.0034
X-0.2458 Y-1.2466 Z0.0643 I0.0037 J0.0034
X-0.2532 Y-1.2534 Z0.0638 I-0.0037 J-0.0034
X-0.2458 Y-1.2466 Z0.0632 I0.0037 J0.0034
X-0.2532 Y-1.2534 Z0.0627 I-0.0037 J-0.0034
X-0.2458 Y-1.2466 Z0.0622 I0.0037 J0.0034
X-0.2532 Y-1.2534 Z0.0616 I-0.0037 J-0.0034
X-0.2458 Y-1.2466 Z0.0611 I0.0037 J0.0034
X-0.2532 Y-1.2534 Z0.0605 I-0.0037 J-0.0034
X-0.2458 Y-1.2466 Z0.06 I0.0037 J0.0034
X-0.2532 Y-1.2534 Z0.0594 I-0.0037 J-0.0034
X-0.2458 Y-1.2466 Z0.0589 I0.0037 J0.0034
X-0.2532 Y-1.2534 Z0.0583 I-0.0037 J-0.0034
X-0.2458 Y-1.2466 Z0.0578 I0.0037 J0.0034
X-0.2532 Y-1.2534 Z0.0572 I-0.0037 J-0.0034
X-0.2458 Y-1.2466 Z0.0567 I0.0037 J0.0034
X-0.2532 Y-1.2534 Z0.0561 I-0.0037 J-0.0034
X-0.2458 Y-1.2466 Z0.0556 I0.0037 J0.0034
X-0.2532 Y-1.2534 Z0.055 I-0.0037 J-0.0034
X-0.2458 Y-1.2466 Z0.0545 I0.0037 J0.0034
X-0.2532 Y-1.2534 Z0.0539 I-0.0037 J-0.0034
X-0.2458 Y-1.2466 Z0.0534 I0.0037 J0.0034
X-0.2532 Y-1.2534 Z0.0528 I-0.0037 J-0.0034
X-0.2458 Y-1.2466 Z0.0523 I0.0037 J0.0034
X-0.2532 Y-1.2534 Z0.0517 I-0.0037 J-0.0034
X-0.2458 Y-1.2466 Z0.0512 I0.0037 J0.0034
X-0.2532 Y-1.2534 Z0.0506 I-0.0037 J-0.0034
X-0.2458 Y-1.2466 Z0.0501 I0.0037 J0.0034
X-0.2532 Y-1.2534 Z0.0495 I-0.0037 J-0.0034
X-0.2458 Y-1.2466 Z0.049 I0.0037 J0.0034
X-0.2532 Y-1.2534 Z0.0484 I-0.0037 J-0.0034
X-0.2458 Y-1.2466 Z0.0479 I0.0037 J0.0034
X-0.2532 Y-1.2534 Z0.0473 I-0.0037 J-0.0034
X-0.2458 Y-1.2466 Z0.0468 I0.0037 J0.0034
X-0.2532 Y-1.2534 Z0.0462 I-0.0037 J-0.0034
X-0.2458 Y-1.2466 Z0.0457 I0.0037 J0.0034
X-0.2532 Y-1.2534 Z0.0451 I-0.0037 J-0.0034
X-0.2458 Y-1.2466 Z0.0446 I0.0037 J0.0034
X-0.2532 Y-1.2534 Z0.044 I-0.0037 J-0.0034
X-0.2458 Y-1.2466 Z0.0435 I0.0037 J0.0034
X-0.2532 Y-1.2534 Z0.043 I-0.0037 J-0.0034
X-0.2458 Y-1.2466 Z0.0424 I0.0037 J0.0034
X-0.2532 Y-1.2534 Z0.0419 I-0.0037 J-0.0034
X-0.2458 Y-1.2466 Z0.0413 I0.0037 J0.0034
X-0.2532 Y-1.2534 Z0.0408 I-0.0037 J-0.0034
X-0.2458 Y-1.2466 Z0.0402 I0.0037 J0.0034
X-0.2532 Y-1.2534 Z0.0397 I-0.0037 J-0.0034
X-0.2458 Y-1.2466 Z0.0391 I0.0037 J0.0034
X-0.2532 Y-1.2534 Z0.0386 I-0.0037 J-0.0034
X-0.2458 Y-1.2466 Z0.038 I0.0037 J0.0034
X-0.2532 Y-1.2534 Z0.0375 I-0.0037 J-0.0034
X-0.2458 Y-1.2466 Z0.0369 I0.0037 J0.0034
X-0.2532 Y-1.2534 Z0.0364 I-0.0037 J-0.0034
X-0.2458 Y-1.2466 Z0.0358 I0.0037 J0.0034
X-0.2532 Y-1.2534 Z0.0353 I-0.0037 J-0.0034
X-0.2458 Y-1.2466 Z0.0347 I0.0037 J0.0034
X-0.2532 Y-1.2534 Z0.0342 I-0.0037 J-0.0034
X-0.2458 Y-1.2466 Z0.0336 I0.0037 J0.0034
X-0.2532 Y-1.2534 Z0.0331 I-0.0037 J-0.0034
X-0.2458 Y-1.2466 Z0.0325 I0.0037 J0.0034
X-0.2532 Y-1.2534 Z0.032 I-0.0037 J-0.0034
X-0.2458 Y-1.2466 Z0.0314 I0.0037 J0.0034
X-0.2532 Y-1.2534 Z0.0309 I-0.0037 J-0.0034
X-0.2458 Y-1.2466 Z0.0303 I0.0037 J0.0034
X-0.2532 Y-1.2534 Z0.0298 I-0.0037 J-0.0034
X-0.2458 Y-1.2466 Z0.0292 I0.0037 J0.0034
X-0.2532 Y-1.2534 Z0.0287 I-0.0037 J-0.0034
X-0.2458 Y-1.2466 Z0.0281 I0.0037 J0.0034
X-0.2532 Y-1.2534 Z0.0276 I-0.0037 J-0.0034
X-0.2458 Y-1.2466 Z0.027 I0.0037 J0.0034
X-0.2532 Y-1.2534 Z0.0265 I-0.0037 J-0.0034
X-0.2458 Y-1.2466 Z0.0259 I0.0037 J0.0034
X-0.2532 Y-1.2534 Z0.0254 I-0.0037 J-0.0034
X-0.2458 Y-1.2466 Z0.0249 I0.0037 J0.0034
X-0.2532 Y-1.2534 Z0.0243 I-0.0037 J-0.0034
X-0.2458 Y-1.2466 Z0.0238 I0.0037 J0.0034
X-0.2532 Y-1.2534 Z0.0232 I-0.0037 J-0.0034
X-0.2458 Y-1.2466 Z0.0227 I0.0037 J0.0034
X-0.2532 Y-1.2534 Z0.0221 I-0.0037 J-0.0034
X-0.2458 Y-1.2466 Z0.0216 I0.0037 J0.0034
X-0.2532 Y-1.2534 Z0.021 I-0.0037 J-0.0034
X-0.2458 Y-1.2466 Z0.0205 I0.0037 J0.0034
X-0.2532 Y-1.2534 Z0.0199 I-0.0037 J-0.0034
X-0.2458 Y-1.2466 Z0.0194 I0.0037 J0.0034
X-0.2532 Y-1.2534 Z0.0188 I-0.0037 J-0.0034
X-0.2458 Y-1.2466 Z0.0183 I0.0037 J0.0034
X-0.2532 Y-1.2534 Z0.0177 I-0.0037 J-0.0034
X-0.2458 Y-1.2466 Z0.0172 I0.0037 J0.0034
X-0.2532 Y-1.2534 Z0.0166 I-0.0037 J-0.0034
X-0.2458 Y-1.2466 Z0.0161 I0.0037 J0.0034
X-0.2532 Y-1.2534 Z0.0155 I-0.0037 J-0.0034
X-0.2458 Y-1.2466 Z0.015 I0.0037 J0.0034
X-0.2532 Y-1.2534 Z0.0144 I-0.0037 J-0.0034
X-0.2458 Y-1.2466 Z0.0139 I0.0037 J0.0034
X-0.2532 Y-1.2534 Z0.0133 I-0.0037 J-0.0034
X-0.2458 Y-1.2466 Z0.0128 I0.0037 J0.0034
X-0.2532 Y-1.2534 Z0.0122 I-0.0037 J-0.0034
X-0.2458 Y-1.2466 Z0.0117 I0.0037 J0.0034
X-0.2532 Y-1.2534 Z0.0111 I-0.0037 J-0.0034
X-0.2458 Y-1.2466 Z0.0106 I0.0037 J0.0034
X-0.2532 Y-1.2534 Z0.01 I-0.0037 J-0.0034
X-0.2458 Y-1.2466 Z0.0095 I0.0037 J0.0034
X-0.2532 Y-1.2534 Z0.0089 I-0.0037 J-0.0034
X-0.2458 Y-1.2466 Z0.0084 I0.0037 J0.0034
X-0.2532 Y-1.2534 Z0.0078 I-0.0037 J-0.0034
X-0.2458 Y-1.2466 Z0.0073 I0.0037 J0.0034
X-0.2532 Y-1.2534 Z0.0067 I-0.0037 J-0.0034
X-0.2458 Y-1.2466 Z0.0062 I0.0037 J0.0034
X-0.2532 Y-1.2534 Z0.0057 I-0.0037 J-0.0034
X-0.2458 Y-1.2466 Z0.0051 I0.0037 J0.0034
X-0.2532 Y-1.2534 Z0.0046 I-0.0037 J-0.0034
X-0.2458 Y-1.2466 Z0.004 I0.0037 J0.0034
X-0.2532 Y-1.2534 Z0.0035 I-0.0037 J-0.0034
X-0.2458 Y-1.2466 Z0.0029 I0.0037 J0.0034
X-0.2532 Y-1.2534 Z0.0024 I-0.0037 J-0.0034
X-0.2458 Y-1.2466 Z0.0018 I0.0037 J0.0034
X-0.2532 Y-1.2534 Z0.0013 I-0.0037 J-0.0034
X-0.2458 Y-1.2466 Z0.0007 I0.0037 J0.0034
X-0.2532 Y-1.2534 Z0.0002 I-0.0037 J-0.0034
X-0.2458 Y-1.2466 Z-0.0004 I0.0037 J0.0034
X-0.2532 Y-1.2534 Z-0.0009 I-0.0037 J-0.0034
X-0.2458 Y-1.2466 Z-0.0015 I0.0037 J0.0034
X-0.2532 Y-1.2534 Z-0.002 I-0.0037 J-0.0034
X-0.2458 Y-1.2466 Z-0.0026 I0.0037 J0.0034
X-0.2532 Y-1.2534 Z-0.0031 I-0.0037 J-0.0034
X-0.2458 Y-1.2466 Z-0.0037 I0.0037 J0.0034
X-0.2532 Y-1.2534 Z-0.0042 I-0.0037 J-0.0034
X-0.2458 Y-1.2466 Z-0.0048 I0.0037 J0.0034
X-0.2532 Y-1.2534 Z-0.0053 I-0.0037 J-0.0034
X-0.2458 Y-1.2466 Z-0.0059 I0.0037 J0.0034
X-0.2532 Y-1.2534 Z-0.0064 I-0.0037 J-0.0034
X-0.2458 Y-1.2466 Z-0.007 I0.0037 J0.0034
X-0.2532 Y-1.2534 Z-0.0075 I-0.0037 J-0.0034
X-0.2458 Y-1.2466 Z-0.0081 I0.0037 J0.0034
X-0.2532 Y-1.2534 Z-0.0086 I-0.0037 J-0.0034
X-0.2458 Y-1.2466 Z-0.0092 I0.0037 J0.0034
X-0.2532 Y-1.2534 Z-0.0097 I-0.0037 J-0.0034
X-0.2458 Y-1.2466 Z-0.0103 I0.0037 J0.0034
X-0.2532 Y-1.2534 Z-0.0108 I-0.0037 J-0.0034
X-0.2458 Y-1.2466 Z-0.0114 I0.0037 J0.0034
X-0.2532 Y-1.2534 Z-0.0119 I-0.0037 J-0.0034
X-0.2458 Y-1.2466 Z-0.0124 I0.0037 J0.0034
X-0.2532 Y-1.2534 Z-0.013 I-0.0037 J-0.0034
X-0.2458 Y-1.2466 Z-0.0135 I0.0037 J0.0034
X-0.2532 Y-1.2534 Z-0.0141 I-0.0037 J-0.0034
X-0.2458 Y-1.2466 Z-0.0146 I0.0037 J0.0034
X-0.2532 Y-1.2534 Z-0.0152 I-0.0037 J-0.0034
X-0.2458 Y-1.2466 Z-0.0157 I0.0037 J0.0034
X-0.2532 Y-1.2534 Z-0.0163 I-0.0037 J-0.0034
X-0.2458 Y-1.2466 Z-0.0168 I0.0037 J0.0034
X-0.2532 Y-1.2534 Z-0.0174 I-0.0037 J-0.0034
X-0.2458 Y-1.2466 Z-0.0179 I0.0037 J0.0034
X-0.2532 Y-1.2534 Z-0.0185 I-0.0037 J-0.0034
X-0.2458 Y-1.2466 Z-0.019 I0.0037 J0.0034
X-0.2532 Y-1.2534 Z-0.0196 I-0.0037 J-0.0034
X-0.2445 Y-1.25 Z-0.02 I0.0037 J0.0034
X-0.2555 I-0.0055 J0. F40.
X-0.2445 I0.0055 J0.
X-0.2555 Z-0.0206 I-0.0055 J0. F20.
X-0.2445 Z-0.0212 I0.0055 J0.
X-0.2555 Z-0.0218 I-0.0055 J0.
X-0.2445 Z-0.0224 I0.0055 J0.
X-0.2555 Z-0.023 I-0.0055 J0.
X-0.2445 Z-0.0236 I0.0055 J0.
X-0.2555 Z-0.0242 I-0.0055 J0.
X-0.2445 Z-0.0248 I0.0055 J0.
X-0.2555 Z-0.0254 I-0.0055 J0.
X-0.2445 Z-0.026 I0.0055 J0.
X-0.2555 Z-0.0266 I-0.0055 J0.
X-0.2445 Z-0.0272 I0.0055 J0.
X-0.2555 Z-0.0278 I-0.0055 J0.
X-0.2445 Z-0.0284 I0.0055 J0.
X-0.2555 Z-0.0291 I-0.0055 J0.
X-0.2445 Z-0.0297 I0.0055 J0.
X-0.2555 Z-0.0303 I-0.0055 J0.
X-0.2445 Z-0.0309 I0.0055 J0.
X-0.2555 Z-0.0315 I-0.0055 J0.
X-0.2445 Z-0.0321 I0.0055 J0.
X-0.2555 Z-0.0327 I-0.0055 J0.
X-0.2445 Z-0.0333 I0.0055 J0.
X-0.2555 Z-0.0339 I-0.0055 J0.
X-0.2445 Z-0.0345 I0.0055 J0.
X-0.2555 Z-0.0351 I-0.0055 J0.
X-0.2445 Z-0.0357 I0.0055 J0.
X-0.2555 Z-0.0363 I-0.0055 J0.
X-0.2445 Z-0.0369 I0.0055 J0.
X-0.2555 Z-0.0375 I-0.0055 J0.
X-0.2445 Z-0.0381 I0.0055 J0.
X-0.2555 Z-0.0387 I-0.0055 J0.
X-0.2445 Z-0.0393 I0.0055 J0.
X-0.2555 Z-0.0399 I-0.0055 J0.
X-0.2549 Y-1.2524 Z-0.04 I0.0055 J0.
X-0.2451 Y-1.2476 I0.0049 J0.0024 F40.
X-0.2549 Y-1.2524 I-0.0049 J-0.0024
X-0.2451 Y-1.2476 Z-0.0406 I0.0049 J0.0024 F20.
X-0.2549 Y-1.2524 Z-0.0412 I-0.0049 J-0.0024
X-0.2451 Y-1.2476 Z-0.0418 I0.0049 J0.0024
X-0.2549 Y-1.2524 Z-0.0424 I-0.0049 J-0.0024
X-0.2451 Y-1.2476 Z-0.043 I0.0049 J0.0024
X-0.2549 Y-1.2524 Z-0.0436 I-0.0049 J-0.0024
X-0.2451 Y-1.2476 Z-0.0442 I0.0049 J0.0024
X-0.2549 Y-1.2524 Z-0.0448 I-0.0049 J-0.0024
X-0.2451 Y-1.2476 Z-0.0454 I0.0049 J0.0024
X-0.2549 Y-1.2524 Z-0.046 I-0.0049 J-0.0024
X-0.2451 Y-1.2476 Z-0.0466 I0.0049 J0.0024
X-0.2549 Y-1.2524 Z-0.0472 I-0.0049 J-0.0024
X-0.2451 Y-1.2476 Z-0.0478 I0.0049 J0.0024
X-0.2549 Y-1.2524 Z-0.0484 I-0.0049 J-0.0024
X-0.2451 Y-1.2476 Z-0.0491 I0.0049 J0.0024
X-0.2549 Y-1.2524 Z-0.0497 I-0.0049 J-0.0024
X-0.2451 Y-1.2476 Z-0.0503 I0.0049 J0.0024
X-0.2549 Y-1.2524 Z-0.0509 I-0.0049 J-0.0024
X-0.2451 Y-1.2476 Z-0.0515 I0.0049 J0.0024
X-0.2549 Y-1.2524 Z-0.0521 I-0.0049 J-0.0024
X-0.2451 Y-1.2476 Z-0.0527 I0.0049 J0.0024
X-0.2549 Y-1.2524 Z-0.0533 I-0.0049 J-0.0024
X-0.2451 Y-1.2476 Z-0.0539 I0.0049 J0.0024
X-0.2549 Y-1.2524 Z-0.0545 I-0.0049 J-0.0024
X-0.2451 Y-1.2476 Z-0.0551 I0.0049 J0.0024
X-0.2549 Y-1.2524 Z-0.0557 I-0.0049 J-0.0024
X-0.2451 Y-1.2476 Z-0.0563 I0.0049 J0.0024
X-0.2549 Y-1.2524 Z-0.0569 I-0.0049 J-0.0024
X-0.2451 Y-1.2476 Z-0.0575 I0.0049 J0.0024
X-0.2549 Y-1.2524 Z-0.0581 I-0.0049 J-0.0024
X-0.2451 Y-1.2476 Z-0.0587 I0.0049 J0.0024
X-0.2549 Y-1.2524 Z-0.0593 I-0.0049 J-0.0024
X-0.2451 Y-1.2476 Z-0.0599 I0.0049 J0.0024
X-0.2467 Y-1.2456 Z-0.06 I-0.0049 J-0.0024
X-0.2533 Y-1.2544 I-0.0033 J-0.0044 F40.
X-0.2467 Y-1.2456 I0.0033 J0.0044
X-0.2533 Y-1.2544 Z-0.0606 I-0.0033 J-0.0044 F20.
X-0.2467 Y-1.2456 Z-0.0612 I0.0033 J0.0044
X-0.2533 Y-1.2544 Z-0.0618 I-0.0033 J-0.0044
X-0.2467 Y-1.2456 Z-0.0624 I0.0033 J0.0044
X-0.2533 Y-1.2544 Z-0.063 I-0.0033 J-0.0044
X-0.2467 Y-1.2456 Z-0.0636 I0.0033 J0.0044
X-0.2533 Y-1.2544 Z-0.0642 I-0.0033 J-0.0044
X-0.2467 Y-1.2456 Z-0.0648 I0.0033 J0.0044
X-0.2533 Y-1.2544 Z-0.0654 I-0.0033 J-0.0044
X-0.2467 Y-1.2456 Z-0.066 I0.0033 J0.0044
X-0.2533 Y-1.2544 Z-0.0666 I-0.0033 J-0.0044
X-0.2467 Y-1.2456 Z-0.0672 I0.0033 J0.0044
X-0.2533 Y-1.2544 Z-0.0678 I-0.0033 J-0.0044
X-0.2467 Y-1.2456 Z-0.0684 I0.0033 J0.0044
X-0.2533 Y-1.2544 Z-0.0691 I-0.0033 J-0.0044
X-0.2467 Y-1.2456 Z-0.0697 I0.0033 J0.0044
X-0.2533 Y-1.2544 Z-0.0703 I-0.0033 J-0.0044
X-0.2467 Y-1.2456 Z-0.0709 I0.0033 J0.0044
X-0.2533 Y-1.2544 Z-0.0715 I-0.0033 J-0.0044
X-0.2467 Y-1.2456 Z-0.0721 I0.0033 J0.0044
X-0.2533 Y-1.2544 Z-0.0727 I-0.0033 J-0.0044
X-0.2467 Y-1.2456 Z-0.0733 I0.0033 J0.0044
X-0.2533 Y-1.2544 Z-0.0739 I-0.0033 J-0.0044
X-0.2467 Y-1.2456 Z-0.0745 I0.0033 J0.0044
X-0.2533 Y-1.2544 Z-0.0751 I-0.0033 J-0.0044
X-0.2467 Y-1.2456 Z-0.0757 I0.0033 J0.0044
X-0.2533 Y-1.2544 Z-0.0763 I-0.0033 J-0.0044
X-0.2467 Y-1.2456 Z-0.0769 I0.0033 J0.0044
X-0.2533 Y-1.2544 Z-0.0775 I-0.0033 J-0.0044
X-0.2467 Y-1.2456 Z-0.0781 I0.0033 J0.0044
X-0.2533 Y-1.2544 Z-0.0787 I-0.0033 J-0.0044
X-0.2467 Y-1.2456 Z-0.0793 I0.0033 J0.0044
X-0.2533 Y-1.2544 Z-0.0799 I-0.0033 J-0.0044
X-0.2511 Y-1.2554 Z-0.08 I0.0033 J0.0044
X-0.2489 Y-1.2446 I0.0011 J0.0054 F40.
X-0.2511 Y-1.2554 I-0.0011 J-0.0054
X-0.2489 Y-1.2446 Z-0.0806 I0.0011 J0.0054 F20.
X-0.2511 Y-1.2554 Z-0.0812 I-0.0011 J-0.0054
X-0.2489 Y-1.2446 Z-0.0818 I0.0011 J0.0054
X-0.2511 Y-1.2554 Z-0.0824 I-0.0011 J-0.0054
X-0.2489 Y-1.2446 Z-0.083 I0.0011 J0.0054
X-0.2511 Y-1.2554 Z-0.0836 I-0.0011 J-0.0054
X-0.2489 Y-1.2446 Z-0.0842 I0.0011 J0.0054
X-0.2511 Y-1.2554 Z-0.0848 I-0.0011 J-0.0054
X-0.2489 Y-1.2446 Z-0.0854 I0.0011 J0.0054
X-0.2511 Y-1.2554 Z-0.086 I-0.0011 J-0.0054
X-0.2489 Y-1.2446 Z-0.0866 I0.0011 J0.0054
X-0.2511 Y-1.2554 Z-0.0872 I-0.0011 J-0.0054
X-0.2489 Y-1.2446 Z-0.0878 I0.0011 J0.0054
X-0.2511 Y-1.2554 Z-0.0884 I-0.0011 J-0.0054
X-0.2489 Y-1.2446 Z-0.0891 I0.0011 J0.0054
X-0.2511 Y-1.2554 Z-0.0897 I-0.0011 J-0.0054
X-0.2489 Y-1.2446 Z-0.0903 I0.0011 J0.0054
X-0.2511 Y-1.2554 Z-0.0909 I-0.0011 J-0.0054
X-0.2489 Y-1.2446 Z-0.0915 I0.0011 J0.0054
X-0.2511 Y-1.2554 Z-0.0921 I-0.0011 J-0.0054
X-0.2489 Y-1.2446 Z-0.0927 I0.0011 J0.0054
X-0.2511 Y-1.2554 Z-0.0933 I-0.0011 J-0.0054
X-0.2489 Y-1.2446 Z-0.0939 I0.0011 J0.0054
X-0.2511 Y-1.2554 Z-0.0945 I-0.0011 J-0.0054
X-0.2489 Y-1.2446 Z-0.0951 I0.0011 J0.0054
X-0.2511 Y-1.2554 Z-0.0957 I-0.0011 J-0.0054
X-0.2489 Y-1.2446 Z-0.0963 I0.0011 J0.0054
X-0.2511 Y-1.2554 Z-0.0969 I-0.0011 J-0.0054
X-0.2489 Y-1.2446 Z-0.0975 I0.0011 J0.0054
X-0.2511 Y-1.2554 Z-0.0981 I-0.0011 J-0.0054
X-0.2489 Y-1.2446 Z-0.0987 I0.0011 J0.0054
X-0.2511 Y-1.2554 Z-0.0993 I-0.0011 J-0.0054
X-0.2489 Y-1.2446 Z-0.0999 I0.0011 J0.0054
X-0.2514 Y-1.2447 Z-0.1 I-0.0011 J-0.0054
X-0.2486 Y-1.2553 I0.0014 J-0.0053 F40.
X-0.2514 Y-1.2447 I-0.0014 J0.0053
X-0.2486 Y-1.2553 Z-0.1006 I0.0014 J-0.0053 F20.
X-0.2514 Y-1.2447 Z-0.1012 I-0.0014 J0.0053
X-0.2486 Y-1.2553 Z-0.1018 I0.0014 J-0.0053
X-0.2514 Y-1.2447 Z-0.1024 I-0.0014 J0.0053
X-0.2486 Y-1.2553 Z-0.103 I0.0014 J-0.0053
X-0.2514 Y-1.2447 Z-0.1036 I-0.0014 J0.0053
X-0.2486 Y-1.2553 Z-0.1042 I0.0014 J-0.0053
X-0.2514 Y-1.2447 Z-0.1048 I-0.0014 J0.0053
X-0.2486 Y-1.2553 Z-0.1054 I0.0014 J-0.0053
X-0.2514 Y-1.2447 Z-0.106 I-0.0014 J0.0053
X-0.2486 Y-1.2553 Z-0.1066 I0.0014 J-0.0053
X-0.2514 Y-1.2447 Z-0.1072 I-0.0014 J0.0053
X-0.2486 Y-1.2553 Z-0.1078 I0.0014 J-0.0053
X-0.2514 Y-1.2447 Z-0.1084 I-0.0014 J0.0053
X-0.2486 Y-1.2553 Z-0.1091 I0.0014 J-0.0053
X-0.2514 Y-1.2447 Z-0.1097 I-0.0014 J0.0053
X-0.2486 Y-1.2553 Z-0.1103 I0.0014 J-0.0053
X-0.2514 Y-1.2447 Z-0.1109 I-0.0014 J0.0053
X-0.2486 Y-1.2553 Z-0.1115 I0.0014 J-0.0053
X-0.2514 Y-1.2447 Z-0.1121 I-0.0014 J0.0053
X-0.2486 Y-1.2553 Z-0.1127 I0.0014 J-0.0053
X-0.2514 Y-1.2447 Z-0.1133 I-0.0014 J0.0053
X-0.2486 Y-1.2553 Z-0.1139 I0.0014 J-0.0053
X-0.2514 Y-1.2447 Z-0.1145 I-0.0014 J0.0053
X-0.2486 Y-1.2553 Z-0.1151 I0.0014 J-0.0053
X-0.2514 Y-1.2447 Z-0.1157 I-0.0014 J0.0053
X-0.2486 Y-1.2553 Z-0.1163 I0.0014 J-0.0053
X-0.2514 Y-1.2447 Z-0.1169 I-0.0014 J0.0053
X-0.2486 Y-1.2553 Z-0.1175 I0.0014 J-0.0053
X-0.2514 Y-1.2447 Z-0.1181 I-0.0014 J0.0053
X-0.2486 Y-1.2553 Z-0.1187 I0.0014 J-0.0053
X-0.2514 Y-1.2447 Z-0.1193 I-0.0014 J0.0053
X-0.2486 Y-1.2553 Z-0.1199 I0.0014 J-0.0053
X-0.2464 Y-1.2541 Z-0.12 I-0.0014 J0.0053
X-0.2536 Y-1.2459 I-0.0036 J0.0041 F40.
X-0.2464 Y-1.2541 I0.0036 J-0.0041
X-0.2536 Y-1.2459 Z-0.1206 I-0.0036 J0.0041 F20.
X-0.2464 Y-1.2541 Z-0.1212 I0.0036 J-0.0041
X-0.2536 Y-1.2459 Z-0.1218 I-0.0036 J0.0041
X-0.2464 Y-1.2541 Z-0.1224 I0.0036 J-0.0041
X-0.2536 Y-1.2459 Z-0.123 I-0.0036 J0.0041
X-0.2464 Y-1.2541 Z-0.1236 I0.0036 J-0.0041
X-0.2536 Y-1.2459 Z-0.1242 I-0.0036 J0.0041
X-0.2464 Y-1.2541 Z-0.1248 I0.0036 J-0.0041
X-0.2536 Y-1.2459 Z-0.1254 I-0.0036 J0.0041
X-0.2464 Y-1.2541 Z-0.126 I0.0036 J-0.0041
X-0.2536 Y-1.2459 Z-0.1266 I-0.0036 J0.0041
X-0.2464 Y-1.2541 Z-0.1272 I0.0036 J-0.0041
X-0.2536 Y-1.2459 Z-0.1278 I-0.0036 J0.0041
X-0.2464 Y-1.2541 Z-0.1284 I0.0036 J-0.0041
X-0.2536 Y-1.2459 Z-0.1291 I-0.0036 J0.0041
X-0.2464 Y-1.2541 Z-0.1297 I0.0036 J-0.0041
X-0.2536 Y-1.2459 Z-0.1303 I-0.0036 J0.0041
X-0.2464 Y-1.2541 Z-0.1309 I0.0036 J-0.0041
X-0.2536 Y-1.2459 Z-0.1315 I-0.0036 J0.0041
X-0.2464 Y-1.2541 Z-0.1321 I0.0036 J-0.0041
X-0.2536 Y-1.2459 Z-0.1327 I-0.0036 J0.0041
X-0.2464 Y-1.2541 Z-0.1333 I0.0036 J-0.0041
X-0.2536 Y-1.2459 Z-0.1339 I-0.0036 J0.0041
X-0.2464 Y-1.2541 Z-0.1345 I0.0036 J-0.0041
X-0.2536 Y-1.2459 Z-0.1351 I-0.0036 J0.0041
X-0.2464 Y-1.2541 Z-0.1357 I0.0036 J-0.0041
X-0.2536 Y-1.2459 Z-0.1363 I-0.0036 J0.0041
X-0.2464 Y-1.2541 Z-0.1369 I0.0036 J-0.0041
X-0.2536 Y-1.2459 Z-0.1375 I-0.0036 J0.0041
X-0.2464 Y-1.2541 Z-0.1381 I0.0036 J-0.0041
X-0.2536 Y-1.2459 Z-0.1387 I-0.0036 J0.0041
X-0.2464 Y-1.2541 Z-0.1393 I0.0036 J-0.0041
X-0.2536 Y-1.2459 Z-0.1399 I-0.0036 J0.0041
X-0.2551 Y-1.2479 Z-0.14 I0.0036 J-0.0041
X-0.2449 Y-1.2521 I0.0051 J-0.0021 F40.
X-0.2551 Y-1.2479 I-0.0051 J0.0021
X-0.2449 Y-1.2521 Z-0.1406 I0.0051 J-0.0021 F20.
X-0.2551 Y-1.2479 Z-0.1412 I-0.0051 J0.0021
X-0.2449 Y-1.2521 Z-0.1418 I0.0051 J-0.0021
X-0.2551 Y-1.2479 Z-0.1424 I-0.0051 J0.0021
X-0.2449 Y-1.2521 Z-0.143 I0.0051 J-0.0021
X-0.2551 Y-1.2479 Z-0.1436 I-0.0051 J0.0021
X-0.2449 Y-1.2521 Z-0.1442 I0.0051 J-0.0021
X-0.2551 Y-1.2479 Z-0.1448 I-0.0051 J0.0021
X-0.2449 Y-1.2521 Z-0.1454 I0.0051 J-0.0021
X-0.2551 Y-1.2479 Z-0.146 I-0.0051 J0.0021
X-0.2449 Y-1.2521 Z-0.1466 I0.0051 J-0.0021
X-0.2551 Y-1.2479 Z-0.1472 I-0.0051 J0.0021
X-0.2449 Y-1.2521 Z-0.1478 I0.0051 J-0.0021
X-0.2551 Y-1.2479 Z-0.1484 I-0.0051 J0.0021
X-0.2449 Y-1.2521 Z-0.1491 I0.0051 J-0.0021
X-0.2551 Y-1.2479 Z-0.1497 I-0.0051 J0.0021
X-0.2449 Y-1.2521 Z-0.1503 I0.0051 J-0.0021
X-0.2551 Y-1.2479 Z-0.1509 I-0.0051 J0.0021
X-0.2449 Y-1.2521 Z-0.1515 I0.0051 J-0.0021
X-0.2551 Y-1.2479 Z-0.1521 I-0.0051 J0.0021
X-0.2449 Y-1.2521 Z-0.1527 I0.0051 J-0.0021
X-0.2551 Y-1.2479 Z-0.1533 I-0.0051 J0.0021
X-0.2449 Y-1.2521 Z-0.1539 I0.0051 J-0.0021
X-0.2551 Y-1.2479 Z-0.1545 I-0.0051 J0.0021
X-0.2449 Y-1.2521 Z-0.1551 I0.0051 J-0.0021
X-0.2551 Y-1.2479 Z-0.1557 I-0.0051 J0.0021
X-0.2449 Y-1.2521 Z-0.1563 I0.0051 J-0.0021
X-0.2551 Y-1.2479 Z-0.1569 I-0.0051 J0.0021
X-0.2449 Y-1.2521 Z-0.1575 I0.0051 J-0.0021
X-0.2551 Y-1.2479 Z-0.1581 I-0.0051 J0.0021
X-0.2449 Y-1.2521 Z-0.1587 I0.0051 J-0.0021
X-0.2551 Y-1.2479 Z-0.1593 I-0.0051 J0.0021
X-0.2449 Y-1.2521 Z-0.1599 I0.0051 J-0.0021
X-0.2445 Y-1.2496 Z-0.16 I-0.0051 J0.0021
X-0.2555 Y-1.2504 I-0.0055 J-0.0004 F40.
X-0.2445 Y-1.2496 I0.0055 J0.0004
G1 X-0.2448 Y-1.2482 Z-0.1597
X-0.2455 Y-1.2468 Z-0.1594
X-0.2465 Y-1.2458 Z-0.1591
X-0.2476 Y-1.2451 Z-0.1583
X-0.2487 Y-1.2446 Z-0.1575
X-0.25 Y-1.2445 Z-0.1567
X-0.2513 Y-1.2447 Z-0.1547
X-0.2525 Y-1.2451 Z-0.1528
X-0.2533 Y-1.2456 Z-0.1482
G0 Z0.2
X-0.245 Y-0.7503
G1 Z0.1118 F40.
X-0.2451 Y-0.7496 Z0.1075 F20.
X-0.2454 Y-0.7485 Z0.1057
X-0.246 Y-0.7475 Z0.1039
X-0.2469 Y-0.7466 Z0.1029
X-0.2479 Y-0.7459 Z0.102
X-0.2491 Y-0.7456 Z0.1011
X-0.2507 Y-0.7455 Z0.1007
X-0.2521 Y-0.746 Z0.1004
X-0.2534 Y-0.7468 Z0.1
G3 X-0.2466 Y-0.7542 Z0.0995 I0.0034 J-0.0037
X-0.2534 Y-0.7468 Z0.0989 I-0.0034 J0.0037
X-0.2466 Y-0.7542 Z0.0984 I0.0034 J-0.0037
X-0.2534 Y-0.7468 Z0.0978 I-0.0034 J0.0037
X-0.2466 Y-0.7542 Z0.0973 I0.0034 J-0.0037
X-0.2534 Y-0.7468 Z0.0967 I-0.0034 J0.0037
X-0.2466 Y-0.7542 Z0.0962 I0.0034 J-0.0037
X-0.2534 Y-0.7468 Z0.0956 I-0.0034 J0.0037
X-0.2466 Y-0.7542 Z0.0951 I0.0034 J-0.0037
X-0.2534 Y-0.7468 Z0.0945 I-0.0034 J0.0037
X-0.2466 Y-0.7542 Z0.094 I0.0034 J-0.0037
X-0.2534 Y-0.7468 Z0.0934 I-0.0034 J0.0037
X-0.2466 Y-0.7542 Z0.0929 I0.0034 J-0.0037
X-0.2534 Y-0.7468 Z0.0923 I-0.0034 J0.0037
X-0.2466 Y-0.7542 Z0.0918 I0.0034 J-0.0037
X-0.2534 Y-0.7468 Z0.0912 I-0.0034 J0.0037
X-0.2466 Y-0.7542 Z0.0907 I0.0034 J-0.0037
X-0.2534 Y-0.7468 Z0.0901 I-0.0034 J0.0037
X-0.2466 Y-0.7542 Z0.0896 I0.0034 J-0.0037
X-0.2534 Y-0.7468 Z0.089 I-0.0034 J0.0037
X-0.2466 Y-0.7542 Z0.0885 I0.0034 J-0.0037
X-0.2534 Y-0.7468 Z0.0879 I-0.0034 J0.0037
X-0.2466 Y-0.7542 Z0.0874 I0.0034 J-0.0037
X-0.2534 Y-0.7468 Z0.0868 I-0.0034 J0.0037
X-0.2466 Y-0.7542 Z0.0863 I0.0034 J-0.0037
X-0.2534 Y-0.7468 Z0.0857 I-0.0034 J0.0037
X-0.2466 Y-0.7542 Z0.0852 I0.0034 J-0.0037
X-0.2534 Y-0.7468 Z0.0846 I-0.0034 J0.0037
X-0.2466 Y-0.7542 Z0.0841 I0.0034 J-0.0037
X-0.2534 Y-0.7468 Z0.0835 I-0.0034 J0.0037
X-0.2466 Y-0.7542 Z0.083 I0.0034 J-0.0037
X-0.2534 Y-0.7468 Z0.0824 I-0.0034 J0.0037
X-0.2466 Y-0.7542 Z0.0819 I0.0034 J-0.0037
X-0.2534 Y-0.7468 Z0.0813 I-0.0034 J0.0037
X-0.2466 Y-0.7542 Z0.0808 I0.0034 J-0.0037
X-0.2534 Y-0.7468 Z0.0803 I-0.0034 J0.0037
X-0.2466 Y-0.7542 Z0.0797 I0.0034 J-0.0037
X-0.2534 Y-0.7468 Z0.0792 I-0.0034 J0.0037
X-0.2466 Y-0.7542 Z0.0786 I0.0034 J-0.0037
X-0.2534 Y-0.7468 Z0.0781 I-0.0034 J0.0037
X-0.2466 Y-0.7542 Z0.0775 I0.0034 J-0.0037
X-0.2534 Y-0.7468 Z0.077 I-0.0034 J0.0037
X-0.2466 Y-0.7542 Z0.0764 I0.0034 J-0.0037
X-0.2534 Y-0.7468 Z0.0759 I-0.0034 J0.0037
X-0.2466 Y-0.7542 Z0.0753 I0.0034 J-0.0037
X-0.2534 Y-0.7468 Z0.0748 I-0.0034 J0.0037
X-0.2466 Y-0.7542 Z0.0742 I0.0034 J-0.0037
X-0.2534 Y-0.7468 Z0.0737 I-0.0034 J0.0037
X-0.2466 Y-0.7542 Z0.0731 I0.0034 J-0.0037
X-0.2534 Y-0.7468 Z0.0726 I-0.0034 J0.0037
X-0.2466 Y-0.7542 Z0.072 I0.0034 J-0.0037
X-0.2534 Y-0.7468 Z0.0715 I-0.0034 J0.0037
X-0.2466 Y-0.7542 Z0.0709 I0.0034 J-0.0037
X-0.2534 Y-0.7468 Z0.0704 I-0.0034 J0.0037
X-0.2466 Y-0.7542 Z0.0698 I0.0034 J-0.0037
X-0.2534 Y-0.7468 Z0.0693 I-0.0034 J0.0037
X-0.2466 Y-0.7542 Z0.0687 I0.0034 J-0.0037
X-0.2534 Y-0.7468 Z0.0682 I-0.0034 J0.0037
X-0.2466 Y-0.7542 Z0.0676 I0.0034 J-0.0037
X-0.2534 Y-0.7468 Z0.0671 I-0.0034 J0.0037
X-0.2466 Y-0.7542 Z0.0665 I0.0034 J-0.0037
X-0.2534 Y-0.7468 Z0.066 I-0.0034 J0.0037
X-0.2466 Y-0.7542 Z0.0654 I0.0034 J-0.0037
X-0.2534 Y-0.7468 Z0.0649 I-0.0034 J0.0037
X-0.2466 Y-0.7542 Z0.0643 I0.0034 J-0.0037
X-0.2534 Y-0.7468 Z0.0638 I-0.0034 J0.0037
X-0.2466 Y-0.7542 Z0.0632 I0.0034 J-0.0037
X-0.2534 Y-0.7468 Z0.0627 I-0.0034 J0.0037
X-0.2466 Y-0.7542 Z0.0622 I0.0034 J-0.0037
X-0.2534 Y-0.7468 Z0.0616 I-0.0034 J0.0037
X-0.2466 Y-0.7542 Z0.0611 I0.0034 J-0.0037
X-0.2534 Y-0.7468 Z0.0605 I-0.0034 J0.0037
X-0.2466 Y-0.7542 Z0.06 I0.0034 J-0.0037
X-0.2534 Y-0.7468 Z0.0594 I-0.0034 J0.0037
X-0.2466 Y-0.7542 Z0.0589 I0.0034 J-0.0037
X-0.2534 Y-0.7468 Z0.0583 I-0.0034 J0.0037
X-0.2466 Y-0.7542 Z0.0578 I0.0034 J-0.0037
X-0.2534 Y-0.7468 Z0.0572 I-0.0034 J0.0037
X-0.2466 Y-0.7542 Z0.0567 I0.0034 J-0.0037
X-0.2534 Y-0.7468 Z0.0561 I-0.0034 J0.0037
X-0.2466 Y-0.7542 Z0.0556 I0.0034 J-0.0037
X-0.2534 Y-0.7468 Z0.055 I-0.0034 J0.0037
X-0.2466 Y-0.7542 Z0.0545 I0.0034 J-0.0037
X-0.2534 Y-0.7468 Z0.0539 I-0.0034 J0.0037
X-0.2466 Y-0.7542 Z0.0534 I0.0034 J-0.0037
X-0.2534 Y-0.7468 Z0.0528 I-0.0034 J0.0037
X-0.2466 Y-0.7542 Z0.0523 I0.0034 J-0.0037
X-0.2534 Y-0.7468 Z0.0517 I-0.0034 J0.0037
X-0.2466 Y-0.7542 Z0.0512 I0.0034 J-0.0037
X-0.2534 Y-0.7468 Z0.0506 I-0.0034 J0.0037
X-0.2466 Y-0.7542 Z0.0501 I0.0034 J-0.0037
X-0.2534 Y-0.7468 Z0.0495 I-0.0034 J0.0037
X-0.2466 Y-0.7542 Z0.049 I0.0034 J-0.0037
X-0.2534 Y-0.7468 Z0.0484 I-0.0034 J0.0037
X-0.2466 Y-0.7542 Z0.0479 I0.0034 J-0.0037
X-0.2534 Y-0.7468 Z0.0473 I-0.0034 J0.0037
X-0.2466 Y-0.7542 Z0.0468 I0.0034 J-0.0037
X-0.2534 Y-0.7468 Z0.0462 I-0.0034 J0.0037
X-0.2466 Y-0.7542 Z0.0457 I0.0034 J-0.0037
X-0.2534 Y-0.7468 Z0.0451 I-0.0034 J0.0037
X-0.2466 Y-0.7542 Z0.0446 I0.0034 J-0.0037
X-0.2534 Y-0.7468 Z0.044 I-0.0034 J0.0037
X-0.2466 Y-0.7542 Z0.0435 I0.0034 J-0.0037
X-0.2534 Y-0.7468 Z0.043 I-0.0034 J0.0037
X-0.2466 Y-0.7542 Z0.0424 I0.0034 J-0.0037
X-0.2534 Y-0.7468 Z0.0419 I-0.0034 J0.0037
X-0.2466 Y-0.7542 Z0.0413 I0.0034 J-0.0037
X-0.2534 Y-0.7468 Z0.0408 I-0.0034 J0.0037
X-0.2466 Y-0.7542 Z0.0402 I0.0034 J-0.0037
X-0.2534 Y-0.7468 Z0.0397 I-0.0034 J0.0037
X-0.2466 Y-0.7542 Z0.0391 I0.0034 J-0.0037
X-0.2534 Y-0.7468 Z0.0386 I-0.0034 J0.0037
X-0.2466 Y-0.7542 Z0.038 I0.0034 J-0.0037
X-0.2534 Y-0.7468 Z0.0375 I-0.0034 J0.0037
X-0.2466 Y-0.7542 Z0.0369 I0.0034 J-0.0037
X-0.2534 Y-0.7468 Z0.0364 I-0.0034 J0.0037
X-0.2466 Y-0.7542 Z0.0358 I0.0034 J-0.0037
X-0.2534 Y-0.7468 Z0.0353 I-0.0034 J0.0037
X-0.2466 Y-0.7542 Z0.0347 I0.0034 J-0.0037
X-0.2534 Y-0.7468 Z0.0342 I-0.0034 J0.0037
X-0.2466 Y-0.7542 Z0.0336 I0.0034 J-0.0037
X-0.2534 Y-0.7468 Z0.0331 I-0.0034 J0.0037
X-0.2466 Y-0.7542 Z0.0325 I0.0034 J-0.0037
X-0.2534 Y-0.7468 Z0.032 I-0.0034 J0.0037
X-0.2466 Y-0.7542 Z0.0314 I0.0034 J-0.0037
X-0.2534 Y-0.7468 Z0.0309 I-0.0034 J0.0037
X-0.2466 Y-0.7542 Z0.0303 I0.0034 J-0.0037
X-0.2534 Y-0.7468 Z0.0298 I-0.0034 J0.0037
X-0.2466 Y-0.7542 Z0.0292 I0.0034 J-0.0037
X-0.2534 Y-0.7468 Z0.0287 I-0.0034 J0.0037
X-0.2466 Y-0.7542 Z0.0281 I0.0034 J-0.0037
X-0.2534 Y-0.7468 Z0.0276 I-0.0034 J0.0037
X-0.2466 Y-0.7542 Z0.027 I0.0034 J-0.0037
X-0.2534 Y-0.7468 Z0.0265 I-0.0034 J0.0037
X-0.2466 Y-0.7542 Z0.0259 I0.0034 J-0.0037
X-0.2534 Y-0.7468 Z0.0254 I-0.0034 J0.0037
X-0.2466 Y-0.7542 Z0.0249 I0.0034 J-0.0037
X-0.2534 Y-0.7468 Z0.0243 I-0.0034 J0.0037
X-0.2466 Y-0.7542 Z0.0238 I0.0034 J-0.0037
X-0.2534 Y-0.7468 Z0.0232 I-0.0034 J0.0037
X-0.2466 Y-0.7542 Z0.0227 I0.0034 J-0.0037
X-0.2534 Y-0.7468 Z0.0221 I-0.0034 J0.0037
X-0.2466 Y-0.7542 Z0.0216 I0.0034 J-0.0037
X-0.2534 Y-0.7468 Z0.021 I-0.0034 J0.0037
X-0.2466 Y-0.7542 Z0.0205 I0.0034 J-0.0037
X-0.2534 Y-0.7468 Z0.0199 I-0.0034 J0.0037
X-0.2466 Y-0.7542 Z0.0194 I0.0034 J-0.0037
X-0.2534 Y-0.7468 Z0.0188 I-0.0034 J0.0037
X-0.2466 Y-0.7542 Z0.0183 I0.0034 J-0.0037
X-0.2534 Y-0.7468 Z0.0177 I-0.0034 J0.0037
X-0.2466 Y-0.7542 Z0.0172 I0.0034 J-0.0037
X-0.2534 Y-0.7468 Z0.0166 I-0.0034 J0.0037
X-0.2466 Y-0.7542 Z0.0161 I0.0034 J-0.0037
X-0.2534 Y-0.7468 Z0.0155 I-0.0034 J0.0037
X-0.2466 Y-0.7542 Z0.015 I0.0034 J-0.0037
X-0.2534 Y-0.7468 Z0.0144 I-0.0034 J0.0037
X-0.2466 Y-0.7542 Z0.0139 I0.0034 J-0.0037
X-0.2534 Y-0.7468 Z0.0133 I-0.0034 J0.0037
X-0.2466 Y-0.7542 Z0.0128 I0.0034 J-0.0037
X-0.2534 Y-0.7468 Z0.0122 I-0.0034 J0.0037
X-0.2466 Y-0.7542 Z0.0117 I0.0034 J-0.0037
X-0.2534 Y-0.7468 Z0.0111 I-0.0034 J0.0037
X-0.2466 Y-0.7542 Z0.0106 I0.0034 J-0.0037
X-0.2534 Y-0.7468 Z0.01 I-0.0034 J0.0037
X-0.2466 Y-0.7542 Z0.0095 I0.0034 J-0.0037
X-0.2534 Y-0.7468 Z0.0089 I-0.0034 J0.0037
X-0.2466 Y-0.7542 Z0.0084 I0.0034 J-0.0037
X-0.2534 Y-0.7468 Z0.0078 I-0.0034 J0.0037
X-0.2466 Y-0.7542 Z0.0073 I0.0034 J-0.0037
X-0.2534 Y-0.7468 Z0.0067 I-0.0034 J0.0037
X-0.2466 Y-0.7542 Z0.0062 I0.0034 J-0.0037
X-0.2534 Y-0.7468 Z0.0057 I-0.0034 J0.0037
X-0.2466 Y-0.7542 Z0.0051 I0.0034 J-0.0037
X-0.2534 Y-0.7468 Z0.0046 I-0.0034 J0.0037
X-0.2466 Y-0.7542 Z0.004 I0.0034 J-0.0037
X-0.2534 Y-0.7468 Z0.0035 I-0.0034 J0.0037
X-0.2466 Y-0.7542 Z0.0029 I0.0034 J-0.0037
X-0.2534 Y-0.7468 Z0.0024 I-0.0034 J0.0037
X-0.2466 Y-0.7542 Z0.0018 I0.0034 J-0.0037
X-0.2534 Y-0.7468 Z0.0013 I-0.0034 J0.0037
X-0.2466 Y-0.7542 Z0.0007 I0.0034 J-0.0037
X-0.2534 Y-0.7468 Z0.0002 I-0.0034 J0.0037
X-0.2466 Y-0.7542 Z-0.0004 I0.0034 J-0.0037
X-0.2534 Y-0.7468 Z-0.0009 I-0.0034 J0.0037
X-0.2466 Y-0.7542 Z-0.0015 I0.0034 J-0.0037
X-0.2534 Y-0.7468 Z-0.002 I-0.0034 J0.0037
X-0.2466 Y-0.7542 Z-0.0026 I0.0034 J-0.0037
X-0.2534 Y-0.7468 Z-0.0031 I-0.0034 J0.0037
X-0.2466 Y-0.7542 Z-0.0037 I0.0034 J-0.0037
X-0.2534 Y-0.7468 Z-0.0042 I-0.0034 J0.0037
X-0.2466 Y-0.7542 Z-0.0048 I0.0034 J-0.0037
X-0.2534 Y-0.7468 Z-0.0053 I-0.0034 J0.0037
X-0.2466 Y-0.7542 Z-0.0059 I0.0034 J-0.0037
X-0.2534 Y-0.7468 Z-0.0064 I-0.0034 J0.0037
X-0.2466 Y-0.7542 Z-0.007 I0.0034 J-0.0037
X-0.2534 Y-0.7468 Z-0.0075 I-0.0034 J0.0037
X-0.2466 Y-0.7542 Z-0.0081 I0.0034 J-0.0037
X-0.2534 Y-0.7468 Z-0.0086 I-0.0034 J0.0037
X-0.2466 Y-0.7542 Z-0.0092 I0.0034 J-0.0037
X-0.2534 Y-0.7468 Z-0.0097 I-0.0034 J0.0037
X-0.2466 Y-0.7542 Z-0.0103 I0.0034 J-0.0037
X-0.2534 Y-0.7468 Z-0.0108 I-0.0034 J0.0037
X-0.2466 Y-0.7542 Z-0.0114 I0.0034 J-0.0037
X-0.2534 Y-0.7468 Z-0.0119 I-0.0034 J0.0037
X-0.2466 Y-0.7542 Z-0.0124 I0.0034 J-0.0037
X-0.2534 Y-0.7468 Z-0.013 I-0.0034 J0.0037
X-0.2466 Y-0.7542 Z-0.0135 I0.0034 J-0.0037
X-0.2534 Y-0.7468 Z-0.0141 I-0.0034 J0.0037
X-0.2466 Y-0.7542 Z-0.0146 I0.0034 J-0.0037
X-0.2534 Y-0.7468 Z-0.0152 I-0.0034 J0.0037
X-0.2466 Y-0.7542 Z-0.0157 I0.0034 J-0.0037
X-0.2534 Y-0.7468 Z-0.0163 I-0.0034 J0.0037
X-0.2466 Y-0.7542 Z-0.0168 I0.0034 J-0.0037
X-0.2534 Y-0.7468 Z-0.0174 I-0.0034 J0.0037
X-0.2466 Y-0.7542 Z-0.0179 I0.0034 J-0.0037
X-0.2534 Y-0.7468 Z-0.0185 I-0.0034 J0.0037
X-0.2466 Y-0.7542 Z-0.019 I0.0034 J-0.0037
X-0.2534 Y-0.7468 Z-0.0196 I-0.0034 J0.0037
X-0.25 Y-0.7555 Z-0.02 I0.0034 J-0.0037
Y-0.7445 I0. J0.0055 F40.
Y-0.7555 I0. J-0.0055
Y-0.7445 Z-0.0206 I0. J0.0055 F20.
Y-0.7555 Z-0.0212 I0. J-0.0055
Y-0.7445 Z-0.0218 I0. J0.0055
Y-0.7555 Z-0.0224 I0. J-0.0055
Y-0.7445 Z-0.023 I0. J0.0055
Y-0.7555 Z-0.0236 I0. J-0.0055
Y-0.7445 Z-0.0242 I0. J0.0055
Y-0.7555 Z-0.0248 I0. J-0.0055
Y-0.7445 Z-0.0254 I0. J0.0055
Y-0.7555 Z-0.026 I0. J-0.0055
Y-0.7445 Z-0.0266 I0. J0.0055
Y-0.7555 Z-0.0272 I0. J-0.0055
Y-0.7445 Z-0.0278 I0. J0.0055
Y-0.7555 Z-0.0284 I0. J-0.0055
Y-0.7445 Z-0.0291 I0. J0.0055
Y-0.7555 Z-0.0297 I0. J-0.0055
Y-0.7445 Z-0.0303 I0. J0.0055
Y-0.7555 Z-0.0309 I0. J-0.0055
Y-0.7445 Z-0.0315 I0. J0.0055
Y-0.7555 Z-0.0321 I0. J-0.0055
Y-0.7445 Z-0.0327 I0. J0.0055
Y-0.7555 Z-0.0333 I0. J-0.0055
Y-0.7445 Z-0.0339 I0. J0.0055
Y-0.7555 Z-0.0345 I0. J-0.0055
Y-0.7445 Z-0.0351 I0. J0.0055
Y-0.7555 Z-0.0357 I0. J-0.0055
Y-0.7445 Z-0.0363 I0. J0.0055
Y-0.7555 Z-0.0369 I0. J-0.0055
Y-0.7445 Z-0.0375 I0. J0.0055
Y-0.7555 Z-0.0381 I0. J-0.0055
Y-0.7445 Z-0.0387 I0. J0.0055
Y-0.7555 Z-0.0393 I0. J-0.0055
Y-0.7445 Z-0.0399 I0. J0.0055
X-0.2524 Y-0.7451 Z-0.04 I0. J-0.0055
X-0.2476 Y-0.7549 I0.0024 J-0.0049 F40.
X-0.2524 Y-0.7451 I-0.0024 J0.0049
X-0.2476 Y-0.7549 Z-0.0406 I0.0024 J-0.0049 F20.
X-0.2524 Y-0.7451 Z-0.0412 I-0.0024 J0.0049
X-0.2476 Y-0.7549 Z-0.0418 I0.0024 J-0.0049
X-0.2524 Y-0.7451 Z-0.0424 I-0.0024 J0.0049
X-0.2476 Y-0.7549 Z-0.043 I0.0024 J-0.0049
X-0.2524 Y-0.7451 Z-0.0436 I-0.0024 J0.0049
X-0.2476 Y-0.7549 Z-0.0442 I0.0024 J-0.0049
X-0.2524 Y-0.7451 Z-0.0448 I-0.0024 J0.0049
X-0.2476 Y-0.7549 Z-0.0454 I0.0024 J-0.0049
X-0.2524 Y-0.7451 Z-0.046 I-0.0024 J0.0049
X-0.2476 Y-0.7549 Z-0.0466 I0.0024 J-0.0049
X-0.2524 Y-0.7451 Z-0.0472 I-0.0024 J0.0049
X-0.2476 Y-0.7549 Z-0.0478 I0.0024 J-0.0049
X-0.2524 Y-0.7451 Z-0.0484 I-0.0024 J0.0049
X-0.2476 Y-0.7549 Z-0.0491 I0.0024 J-0.0049
X-0.2524 Y-0.7451 Z-0.0497 I-0.0024 J0.0049
X-0.2476 Y-0.7549 Z-0.0503 I0.0024 J-0.0049
X-0.2524 Y-0.7451 Z-0.0509 I-0.0024 J0.0049
X-0.2476 Y-0.7549 Z-0.0515 I0.0024 J-0.0049
X-0.2524 Y-0.7451 Z-0.0521 I-0.0024 J0.0049
X-0.2476 Y-0.7549 Z-0.0527 I0.0024 J-0.0049
X-0.2524 Y-0.7451 Z-0.0533 I-0.0024 J0.0049
X-0.2476 Y-0.7549 Z-0.0539 I0.0024 J-0.0049
X-0.2524 Y-0.7451 Z-0.0545 I-0.0024 J0.0049
X-0.2476 Y-0.7549 Z-0.0551 I0.0024 J-0.0049
X-0.2524 Y-0.7451 Z-0.0557 I-0.0024 J0.0049
X-0.2476 Y-0.7549 Z-0.0563 I0.0024 J-0.0049
X-0.2524 Y-0.7451 Z-0.0569 I-0.0024 J0.0049
X-0.2476 Y-0.7549 Z-0.0575 I0.0024 J-0.0049
X-0.2524 Y-0.7451 Z-0.0581 I-0.0024 J0.0049
X-0.2476 Y-0.7549 Z-0.0587 I0.0024 J-0.0049
X-0.2524 Y-0.7451 Z-0.0593 I-0.0024 J0.0049
X-0.2476 Y-0.7549 Z-0.0599 I0.0024 J-0.0049
X-0.2456 Y-0.7533 Z-0.06 I-0.0024 J0.0049
X-0.2544 Y-0.7467 I-0.0044 J0.0033 F40.
X-0.2456 Y-0.7533 I0.0044 J-0.0033
X-0.2544 Y-0.7467 Z-0.0606 I-0.0044 J0.0033 F20.
X-0.2456 Y-0.7533 Z-0.0612 I0.0044 J-0.0033
X-0.2544 Y-0.7467 Z-0.0618 I-0.0044 J0.0033
X-0.2456 Y-0.7533 Z-0.0624 I0.0044 J-0.0033
X-0.2544 Y-0.7467 Z-0.063 I-0.0044 J0.0033
X-0.2456 Y-0.7533 Z-0.0636 I0.0044 J-0.0033
X-0.2544 Y-0.7467 Z-0.0642 I-0.0044 J0.0033
X-0.2456 Y-0.7533 Z-0.0648 I0.0044 J-0.0033
X-0.2544 Y-0.7467 Z-0.0654 I-0.0044 J0.0033
X-0.2456 Y-0.7533 Z-0.066 I0.0044 J-0.0033
X-0.2544 Y-0.7467 Z-0.0666 I-0.0044 J0.0033
X-0.2456 Y-0.7533 Z-0.0672 I0.0044 J-0.0033
X-0.2544 Y-0.7467 Z-0.0678 I-0.0044 J0.0033
X-0.2456 Y-0.7533 Z-0.0684 I0.0044 J-0.0033
X-0.2544 Y-0.7467 Z-0.0691 I-0.0044 J0.0033
X-0.2456 Y-0.7533 Z-0.0697 I0.0044 J-0.0033
X-0.2544 Y-0.7467 Z-0.0703 I-0.0044 J0.0033
X-0.2456 Y-0.7533 Z-0.0709 I0.0044 J-0.0033
X-0.2544 Y-0.7467 Z-0.0715 I-0.0044 J0.0033
X-0.2456 Y-0.7533 Z-0.0721 I0.0044 J-0.0033
X-0.2544 Y-0.7467 Z-0.0727 I-0.0044 J0.0033
X-0.2456 Y-0.7533 Z-0.0733 I0.0044 J-0.0033
X-0.2544 Y-0.7467 Z-0.0739 I-0.0044 J0.0033
X-0.2456 Y-0.7533 Z-0.0745 I0.0044 J-0.0033
X-0.2544 Y-0.7467 Z-0.0751 I-0.0044 J0.0033
X-0.2456 Y-0.7533 Z-0.0757 I0.0044 J-0.0033
X-0.2544 Y-0.7467 Z-0.0763 I-0.0044 J0.0033
X-0.2456 Y-0.7533 Z-0.0769 I0.0044 J-0.0033
X-0.2544 Y-0.7467 Z-0.0775 I-0.0044 J0.0033
X-0.2456 Y-0.7533 Z-0.0781 I0.0044 J-0.0033
X-0.2544 Y-0.7467 Z-0.0787 I-0.0044 J0.0033
X-0.2456 Y-0.7533 Z-0.0793 I0.0044 J-0.0033
X-0.2544 Y-0.7467 Z-0.0799 I-0.0044 J0.0033
X-0.2554 Y-0.7489 Z-0.08 I0.0044 J-0.0033
X-0.2446 Y-0.7511 I0.0054 J-0.0011 F40.
X-0.2554 Y-0.7489 I-0.0054 J0.0011
X-0.2446 Y-0.7511 Z-0.0806 I0.0054 J-0.0011 F20.
X-0.2554 Y-0.7489 Z-0.0812 I-0.0054 J0.0011
X-0.2446 Y-0.7511 Z-0.0818 I0.0054 J-0.0011
X-0.2554 Y-0.7489 Z-0.0824 I-0.0054 J0.0011
X-0.2446 Y-0.7511 Z-0.083 I0.0054 J-0.0011
X-0.2554 Y-0.7489 Z-0.0836 I-0.0054 J0.0011
X-0.2446 Y-0.7511 Z-0.0842 I0.0054 J-0.0011
X-0.2554 Y-0.7489 Z-0.0848 I-0.0054 J0.0011
X-0.2446 Y-0.7511 Z-0.0854 I0.0054 J-0.0011
X-0.2554 Y-0.7489 Z-0.086 I-0.0054 J0.0011
X-0.2446 Y-0.7511 Z-0.0866 I0.0054 J-0.0011
X-0.2554 Y-0.7489 Z-0.0872 I-0.0054 J0.0011
X-0.2446 Y-0.7511 Z-0.0878 I0.0054 J-0.0011
X-0.2554 Y-0.7489 Z-0.0884 I-0.0054 J0.0011
X-0.2446 Y-0.7511 Z-0.0891 I0.0054 J-0.0011
X-0.2554 Y-0.7489 Z-0.0897 I-0.0054 J0.0011
X-0.2446 Y-0.7511 Z-0.0903 I0.0054 J-0.0011
X-0.2554 Y-0.7489 Z-0.0909 I-0.0054 J0.0011
X-0.2446 Y-0.7511 Z-0.0915 I0.0054 J-0.0011
X-0.2554 Y-0.7489 Z-0.0921 I-0.0054 J0.0011
X-0.2446 Y-0.7511 Z-0.0927 I0.0054 J-0.0011
X-0.2554 Y-0.7489 Z-0.0933 I-0.0054 J0.0011
X-0.2446 Y-0.7511 Z-0.0939 I0.0054 J-0.0011
X-0.2554 Y-0.7489 Z-0.0945 I-0.0054 J0.0011
X-0.2446 Y-0.7511 Z-0.0951 I0.0054 J-0.0011
X-0.2554 Y-0.7489 Z-0.0957 I-0.0054 J0.0011
X-0.2446 Y-0.7511 Z-0.0963 I0.0054 J-0.0011
X-0.2554 Y-0.7489 Z-0.0969 I-0.0054 J0.0011
X-0.2446 Y-0.7511 Z-0.0975 I0.0054 J-0.0011
X-0.2554 Y-0.7489 Z-0.0981 I-0.0054 J0.0011
X-0.2446 Y-0.7511 Z-0.0987 I0.0054 J-0.0011
X-0.2554 Y-0.7489 Z-0.0993 I-0.0054 J0.0011
X-0.2446 Y-0.7511 Z-0.0999 I0.0054 J-0.0011
X-0.2447 Y-0.7486 Z-0.1 I-0.0054 J0.0011
X-0.2553 Y-0.7514 I-0.0053 J-0.0014 F40.
X-0.2447 Y-0.7486 I0.0053 J0.0014
X-0.2553 Y-0.7514 Z-0.1006 I-0.0053 J-0.0014 F20.
X-0.2447 Y-0.7486 Z-0.1012 I0.0053 J0.0014
X-0.2553 Y-0.7514 Z-0.1018 I-0.0053 J-0.0014
X-0.2447 Y-0.7486 Z-0.1024 I0.0053 J0.0014
X-0.2553 Y-0.7514 Z-0.103 I-0.0053 J-0.0014
X-0.2447 Y-0.7486 Z-0.1036 I0.0053 J0.0014
X-0.2553 Y-0.7514 Z-0.1042 I-0.0053 J-0.0014
X-0.2447 Y-0.7486 Z-0.1048 I0.0053 J0.0014
X-0.2553 Y-0.7514 Z-0.1054 I-0.0053 J-0.0014
X-0.2447 Y-0.7486 Z-0.106 I0.0053 J0.0014
X-0.2553 Y-0.7514 Z-0.1066 I-0.0053 J-0.0014
X-0.2447 Y-0.7486 Z-0.1072 I0.0053 J0.0014
X-0.2553 Y-0.7514 Z-0.1078 I-0.0053 J-0.0014
X-0.2447 Y-0.7486 Z-0.1084 I0.0053 J0.0014
X-0.2553 Y-0.7514 Z-0.1091 I-0.0053 J-0.0014
X-0.2447 Y-0.7486 Z-0.1097 I0.0053 J0.0014
X-0.2553 Y-0.7514 Z-0.1103 I-0.0053 J-0.0014
X-0.2447 Y-0.7486 Z-0.1109 I0.0053 J0.0014
X-0.2553 Y-0.7514 Z-0.1115 I-0.0053 J-0.0014
X-0.2447 Y-0.7486 Z-0.1121 I0.0053 J0.0014
X-0.2553 Y-0.7514 Z-0.1127 I-0.0053 J-0.0014
X-0.2447 Y-0.7486 Z-0.1133 I0.0053 J0.0014
X-0.2553 Y-0.7514 Z-0.1139 I-0.0053 J-0.0014
X-0.2447 Y-0.7486 Z-0.1145 I0.0053 J0.0014
X-0.2553 Y-0.7514 Z-0.1151 I-0.0053 J-0.0014
X-0.2447 Y-0.7486 Z-0.1157 I0.0053 J0.0014
X-0.2553 Y-0.7514 Z-0.1163 I-0.0053 J-0.0014
X-0.2447 Y-0.7486 Z-0.1169 I0.0053 J0.0014
X-0.2553 Y-0.7514 Z-0.1175 I-0.0053 J-0.0014
X-0.2447 Y-0.7486 Z-0.1181 I0.0053 J0.0014
X-0.2553 Y-0.7514 Z-0.1187 I-0.0053 J-0.0014
X-0.2447 Y-0.7486 Z-0.1193 I0.0053 J0.0014
X-0.2553 Y-0.7514 Z-0.1199 I-0.0053 J-0.0014
X-0.2541 Y-0.7536 Z-0.12 I0.0053 J0.0014
X-0.2459 Y-0.7464 I0.0041 J0.0036 F40.
X-0.2541 Y-0.7536 I-0.0041 J-0.0036
X-0.2459 Y-0.7464 Z-0.1206 I0.0041 J0.0036 F20.
X-0.2541 Y-0.7536 Z-0.1212 I-0.0041 J-0.0036
X-0.2459 Y-0.7464 Z-0.1218 I0.0041 J0.0036
X-0.2541 Y-0.7536 Z-0.1224 I-0.0041 J-0.0036
X-0.2459 Y-0.7464 Z-0.123 I0.0041 J0.0036
X-0.2541 Y-0.7536 Z-0.1236 I-0.0041 J-0.0036
X-0.2459 Y-0.7464 Z-0.1242 I0.0041 J0.0036
X-0.2541 Y-0.7536 Z-0.1248 I-0.0041 J-0.0036
X-0.2459 Y-0.7464 Z-0.1254 I0.0041 J0.0036
X-0.2541 Y-0.7536 Z-0.126 I-0.0041 J-0.0036
X-0.2459 Y-0.7464 Z-0.1266 I0.0041 J0.0036
X-0.2541 Y-0.7536 Z-0.1272 I-0.0041 J-0.0036
X-0.2459 Y-0.7464 Z-0.1278 I0.0041 J0.0036
X-0.2541 Y-0.7536 Z-0.1284 I-0.0041 J-0.0036
X-0.2459 Y-0.7464 Z-0.1291 I0.0041 J0.0036
X-0.2541 Y-0.7536 Z-0.1297 I-0.0041 J-0.0036
X-0.2459 Y-0.7464 Z-0.1303 I0.0041 J0.0036
X-0.2541 Y-0.7536 Z-0.1309 I-0.0041 J-0.0036
X-0.2459 Y-0.7464 Z-0.1315 I0.0041 J0.0036
X-0.2541 Y-0.7536 Z-0.1321 I-0.0041 J-0.0036
X-0.2459 Y-0.7464 Z-0.1327 I0.0041 J0.0036
X-0.2541 Y-0.7536 Z-0.1333 I-0.0041 J-0.0036
X-0.2459 Y-0.7464 Z-0.1339 I0.0041 J0.0036
X-0.2541 Y-0.7536 Z-0.1345 I-0.0041 J-0.0036
X-0.2459 Y-0.7464 Z-0.1351 I0.0041 J0.0036
X-0.2541 Y-0.7536 Z-0.1357 I-0.0041 J-0.0036
X-0.2459 Y-0.7464 Z-0.1363 I0.0041 J0.0036
X-0.2541 Y-0.7536 Z-0.1369 I-0.0041 J-0.0036
X-0.2459 Y-0.7464 Z-0.1375 I0.0041 J0.0036
X-0.2541 Y-0.7536 Z-0.1381 I-0.0041 J-0.0036
X-0.2459 Y-0.7464 Z-0.1387 I0.0041 J0.0036
X-0.2541 Y-0.7536 Z-0.1393 I-0.0041 J-0.0036
X-0.2459 Y-0.7464 Z-0.1399 I0.0041 J0.0036
X-0.2479 Y-0.7449 Z-0.14 I-0.0041 J-0.0036
X-0.2521 Y-0.7551 I-0.0021 J-0.0051 F40.
X-0.2479 Y-0.7449 I0.0021 J0.0051
X-0.2521 Y-0.7551 Z-0.1406 I-0.0021 J-0.0051 F20.
X-0.2479 Y-0.7449 Z-0.1412 I0.0021 J0.0051
X-0.2521 Y-0.7551 Z-0.1418 I-0.0021 J-0.0051
X-0.2479 Y-0.7449 Z-0.1424 I0.0021 J0.0051
X-0.2521 Y-0.7551 Z-0.143 I-0.0021 J-0.0051
X-0.2479 Y-0.7449 Z-0.1436 I0.0021 J0.0051
X-0.2521 Y-0.7551 Z-0.1442 I-0.0021 J-0.0051
X-0.2479 Y-0.7449 Z-0.1448 I0.0021 J0.0051
X-0.2521 Y-0.7551 Z-0.1454 I-0.0021 J-0.0051
X-0.2479 Y-0.7449 Z-0.146 I0.0021 J0.0051
X-0.2521 Y-0.7551 Z-0.1466 I-0.0021 J-0.0051
X-0.2479 Y-0.7449 Z-0.1472 I0.0021 J0.0051
X-0.2521 Y-0.7551 Z-0.1478 I-0.0021 J-0.0051
X-0.2479 Y-0.7449 Z-0.1484 I0.0021 J0.0051
X-0.2521 Y-0.7551 Z-0.1491 I-0.0021 J-0.0051
X-0.2479 Y-0.7449 Z-0.1497 I0.0021 J0.0051
X-0.2521 Y-0.7551 Z-0.1503 I-0.0021 J-0.0051
X-0.2479 Y-0.7449 Z-0.1509 I0.0021 J0.0051
X-0.2521 Y-0.7551 Z-0.1515 I-0.0021 J-0.0051
X-0.2479 Y-0.7449 Z-0.1521 I0.0021 J0.0051
X-0.2521 Y-0.7551 Z-0.1527 I-0.0021 J-0.0051
X-0.2479 Y-0.7449 Z-0.1533 I0.0021 J0.0051
X-0.2521 Y-0.7551 Z-0.1539 I-0.0021 J-0.0051
X-0.2479 Y-0.7449 Z-0.1545 I0.0021 J0.0051
X-0.2521 Y-0.7551 Z-0.1551 I-0.0021 J-0.0051
X-0.2479 Y-0.7449 Z-0.1557 I0.0021 J0.0051
X-0.2521 Y-0.7551 Z-0.1563 I-0.0021 J-0.0051
X-0.2479 Y-0.7449 Z-0.1569 I0.0021 J0.0051
X-0.2521 Y-0.7551 Z-0.1575 I-0.0021 J-0.0051
X-0.2479 Y-0.7449 Z-0.1581 I0.0021 J0.0051
X-0.2521 Y-0.7551 Z-0.1587 I-0.0021 J-0.0051
X-0.2479 Y-0.7449 Z-0.1593 I0.0021 J0.0051
X-0.2521 Y-0.7551 Z-0.1599 I-0.0021 J-0.0051
X-0.2496 Y-0.7555 Z-0.16 I0.0021 J0.0051
X-0.2504 Y-0.7445 I-0.0004 J0.0055 F40.
X-0.2496 Y-0.7555 I0.0004 J-0.0055
G1 X-0.2482 Y-0.7552 Z-0.1597
X-0.2468 Y-0.7545 Z-0.1594
X-0.2458 Y-0.7535 Z-0.1591
X-0.2451 Y-0.7524 Z-0.1583
X-0.2446 Y-0.7513 Z-0.1575
X-0.2445 Y-0.75 Z-0.1567
X-0.2447 Y-0.7487 Z-0.1547
X-0.2451 Y-0.7475 Z-0.1528
X-0.2456 Y-0.7467 Z-0.1482
G0 Z0.2
X-0.2503 Y-0.255
G1 Z0.1118 F40.
X-0.2496 Y-0.2549 Z0.1075 F20.
X-0.2485 Y-0.2546 Z0.1057
X-0.2475 Y-0.254 Z0.1039
X-0.2466 Y-0.2531 Z0.1029
X-0.2459 Y-0.2521 Z0.102
X-0.2456 Y-0.2509 Z0.1011
X-0.2455 Y-0.2493 Z0.1007
X-0.246 Y-0.2479 Z0.1004
X-0.2468 Y-0.2466 Z0.1
G3 X-0.2542 Y-0.2534 Z0.0995 I-0.0037 J-0.0034
X-0.2468 Y-0.2466 Z0.0989 I0.0037 J0.0034
X-0.2542 Y-0.2534 Z0.0984 I-0.0037 J-0.0034
X-0.2468 Y-0.2466 Z0.0978 I0.0037 J0.0034
X-0.2542 Y-0.2534 Z0.0973 I-0.0037 J-0.0034
X-0.2468 Y-0.2466 Z0.0967 I0.0037 J0.0034
X-0.2542 Y-0.2534 Z0.0962 I-0.0037 J-0.0034
X-0.2468 Y-0.2466 Z0.0956 I0.0037 J0.0034
X-0.2542 Y-0.2534 Z0.0951 I-0.0037 J-0.0034
X-0.2468 Y-0.2466 Z0.0945 I0.0037 J0.0034
X-0.2542 Y-0.2534 Z0.094 I-0.0037 J-0.0034
X-0.2468 Y-0.2466 Z0.0934 I0.0037 J0.0034
X-0.2542 Y-0.2534 Z0.0929 I-0.0037 J-0.0034
X-0.2468 Y-0.2466 Z0.0923 I0.0037 J0.0034
X-0.2542 Y-0.2534 Z0.0918 I-0.0037 J-0.0034
X-0.2468 Y-0.2466 Z0.0912 I0.0037 J0.0034
X-0.2542 Y-0.2534 Z0.0907 I-0.0037 J-0.0034
X-0.2468 Y-0.2466 Z0.0901 I0.0037 J0.0034
X-0.2542 Y-0.2534 Z0.0896 I-0.0037 J-0.0034
X-0.2468 Y-0.2466 Z0.089 I0.0037 J0.0034
X-0.2542 Y-0.2534 Z0.0885 I-0.0037 J-0.0034
X-0.2468 Y-0.2466 Z0.0879 I0.0037 J0.0034
X-0.2542 Y-0.2534 Z0.0874 I-0.0037 J-0.0034
X-0.2468 Y-0.2466 Z0.0868 I0.0037 J0.0034
X-0.2542 Y-0.2534 Z0.0863 I-0.0037 J-0.0034
X-0.2468 Y-0.2466 Z0.0857 I0.0037 J0.0034
X-0.2542 Y-0.2534 Z0.0852 I-0.0037 J-0.0034
X-0.2468 Y-0.2466 Z0.0846 I0.0037 J0.0034
X-0.2542 Y-0.2534 Z0.0841 I-0.0037 J-0.0034
X-0.2468 Y-0.2466 Z0.0835 I0.0037 J0.0034
X-0.2542 Y-0.2534 Z0.083 I-0.0037 J-0.0034
X-0.2468 Y-0.2466 Z0.0824 I0.0037 J0.0034
X-0.2542 Y-0.2534 Z0.0819 I-0.0037 J-0.0034
X-0.2468 Y-0.2466 Z0.0813 I0.0037 J0.0034
X-0.2542 Y-0.2534 Z0.0808 I-0.0037 J-0.0034
X-0.2468 Y-0.2466 Z0.0803 I0.0037 J0.0034
X-0.2542 Y-0.2534 Z0.0797 I-0.0037 J-0.0034
X-0.2468 Y-0.2466 Z0.0792 I0.0037 J0.0034
X-0.2542 Y-0.2534 Z0.0786 I-0.0037 J-0.0034
X-0.2468 Y-0.2466 Z0.0781 I0.0037 J0.0034
X-0.2542 Y-0.2534 Z0.0775 I-0.0037 J-0.0034
X-0.2468 Y-0.2466 Z0.077 I0.0037 J0.0034
X-0.2542 Y-0.2534 Z0.0764 I-0.0037 J-0.0034
X-0.2468 Y-0.2466 Z0.0759 I0.0037 J0.0034
X-0.2542 Y-0.2534 Z0.0753 I-0.0037 J-0.0034
X-0.2468 Y-0.2466 Z0.0748 I0.0037 J0.0034
X-0.2542 Y-0.2534 Z0.0742 I-0.0037 J-0.0034
X-0.2468 Y-0.2466 Z0.0737 I0.0037 J0.0034
X-0.2542 Y-0.2534 Z0.0731 I-0.0037 J-0.0034
X-0.2468 Y-0.2466 Z0.0726 I0.0037 J0.0034
X-0.2542 Y-0.2534 Z0.072 I-0.0037 J-0.0034
X-0.2468 Y-0.2466 Z0.0715 I0.0037 J0.0034
X-0.2542 Y-0.2534 Z0.0709 I-0.0037 J-0.0034
X-0.2468 Y-0.2466 Z0.0704 I0.0037 J0.0034
X-0.2542 Y-0.2534 Z0.0698 I-0.0037 J-0.0034
X-0.2468 Y-0.2466 Z0.0693 I0.0037 J0.0034
X-0.2542 Y-0.2534 Z0.0687 I-0.0037 J-0.0034
X-0.2468 Y-0.2466 Z0.0682 I0.0037 J0.0034
X-0.2542 Y-0.2534 Z0.0676 I-0.0037 J-0.0034
X-0.2468 Y-0.2466 Z0.0671 I0.0037 J0.0034
X-0.2542 Y-0.2534 Z0.0665 I-0.0037 J-0.0034
X-0.2468 Y-0.2466 Z0.066 I0.0037 J0.0034
X-0.2542 Y-0.2534 Z0.0654 I-0.0037 J-0.0034
X-0.2468 Y-0.2466 Z0.0649 I0.0037 J0.0034
X-0.2542 Y-0.2534 Z0.0643 I-0.0037 J-0.0034
X-0.2468 Y-0.2466 Z0.0638 I0.0037 J0.0034
X-0.2542 Y-0.2534 Z0.0632 I-0.0037 J-0.0034
X-0.2468 Y-0.2466 Z0.0627 I0.0037 J0.0034
X-0.2542 Y-0.2534 Z0.0622 I-0.0037 J-0.0034
X-0.2468 Y-0.2466 Z0.0616 I0.0037 J0.0034
X-0.2542 Y-0.2534 Z0.0611 I-0.0037 J-0.0034
X-0.2468 Y-0.2466 Z0.0605 I0.0037 J0.0034
X-0.2542 Y-0.2534 Z0.06 I-0.0037 J-0.0034
X-0.2468 Y-0.2466 Z0.0594 I0.0037 J0.0034
X-0.2542 Y-0.2534 Z0.0589 I-0.0037 J-0.0034
X-0.2468 Y-0.2466 Z0.0583 I0.0037 J0.0034
X-0.2542 Y-0.2534 Z0.0578 I-0.0037 J-0.0034
X-0.2468 Y-0.2466 Z0.0572 I0.0037 J0.0034
X-0.2542 Y-0.2534 Z0.0567 I-0.0037 J-0.0034
X-0.2468 Y-0.2466 Z0.0561 I0.0037 J0.0034
X-0.2542 Y-0.2534 Z0.0556 I-0.0037 J-0.0034
X-0.2468 Y-0.2466 Z0.055 I0.0037 J0.0034
X-0.2542 Y-0.2534 Z0.0545 I-0.0037 J-0.0034
X-0.2468 Y-0.2466 Z0.0539 I0.0037 J0.0034
X-0.2542 Y-0.2534 Z0.0534 I-0.0037 J-0.0034
X-0.2468 Y-0.2466 Z0.0528 I0.0037 J0.0034
X-0.2542 Y-0.2534 Z0.0523 I-0.0037 J-0.0034
X-0.2468 Y-0.2466 Z0.0517 I0.0037 J0.0034
X-0.2542 Y-0.2534 Z0.0512 I-0.0037 J-0.0034
X-0.2468 Y-0.2466 Z0.0506 I0.0037 J0.0034
X-0.2542 Y-0.2534 Z0.0501 I-0.0037 J-0.0034
X-0.2468 Y-0.2466 Z0.0495 I0.0037 J0.0034
X-0.2542 Y-0.2534 Z0.049 I-0.0037 J-0.0034
X-0.2468 Y-0.2466 Z0.0484 I0.0037 J0.0034
X-0.2542 Y-0.2534 Z0.0479 I-0.0037 J-0.0034
X-0.2468 Y-0.2466 Z0.0473 I0.0037 J0.0034
X-0.2542 Y-0.2534 Z0.0468 I-0.0037 J-0.0034
X-0.2468 Y-0.2466 Z0.0462 I0.0037 J0.0034
X-0.2542 Y-0.2534 Z0.0457 I-0.0037 J-0.0034
X-0.2468 Y-0.2466 Z0.0451 I0.0037 J0.0034
X-0.2542 Y-0.2534 Z0.0446 I-0.0037 J-0.0034
X-0.2468 Y-0.2466 Z0.044 I0.0037 J0.0034
X-0.2542 Y-0.2534 Z0.0435 I-0.0037 J-0.0034
X-0.2468 Y-0.2466 Z0.043 I0.0037 J0.0034
X-0.2542 Y-0.2534 Z0.0424 I-0.0037 J-0.0034
X-0.2468 Y-0.2466 Z0.0419 I0.0037 J0.0034
X-0.2542 Y-0.2534 Z0.0413 I-0.0037 J-0.0034
X-0.2468 Y-0.2466 Z0.0408 I0.0037 J0.0034
X-0.2542 Y-0.2534 Z0.0402 I-0.0037 J-0.0034
X-0.2468 Y-0.2466 Z0.0397 I0.0037 J0.0034
X-0.2542 Y-0.2534 Z0.0391 I-0.0037 J-0.0034
X-0.2468 Y-0.2466 Z0.0386 I0.0037 J0.0034
X-0.2542 Y-0.2534 Z0.038 I-0.0037 J-0.0034
X-0.2468 Y-0.2466 Z0.0375 I0.0037 J0.0034
X-0.2542 Y-0.2534 Z0.0369 I-0.0037 J-0.0034
X-0.2468 Y-0.2466 Z0.0364 I0.0037 J0.0034
X-0.2542 Y-0.2534 Z0.0358 I-0.0037 J-0.0034
X-0.2468 Y-0.2466 Z0.0353 I0.0037 J0.0034
X-0.2542 Y-0.2534 Z0.0347 I-0.0037 J-0.0034
X-0.2468 Y-0.2466 Z0.0342 I0.0037 J0.0034
X-0.2542 Y-0.2534 Z0.0336 I-0.0037 J-0.0034
X-0.2468 Y-0.2466 Z0.0331 I0.0037 J0.0034
X-0.2542 Y-0.2534 Z0.0325 I-0.0037 J-0.0034
X-0.2468 Y-0.2466 Z0.032 I0.0037 J0.0034
X-0.2542 Y-0.2534 Z0.0314 I-0.0037 J-0.0034
X-0.2468 Y-0.2466 Z0.0309 I0.0037 J0.0034
X-0.2542 Y-0.2534 Z0.0303 I-0.0037 J-0.0034
X-0.2468 Y-0.2466 Z0.0298 I0.0037 J0.0034
X-0.2542 Y-0.2534 Z0.0292 I-0.0037 J-0.0034
X-0.2468 Y-0.2466 Z0.0287 I0.0037 J0.0034
X-0.2542 Y-0.2534 Z0.0281 I-0.0037 J-0.0034
X-0.2468 Y-0.2466 Z0.0276 I0.0037 J0.0034
X-0.2542 Y-0.2534 Z0.027 I-0.0037 J-0.0034
X-0.2468 Y-0.2466 Z0.0265 I0.0037 J0.0034
X-0.2542 Y-0.2534 Z0.0259 I-0.0037 J-0.0034
X-0.2468 Y-0.2466 Z0.0254 I0.0037 J0.0034
X-0.2542 Y-0.2534 Z0.0249 I-0.0037 J-0.0034
X-0.2468 Y-0.2466 Z0.0243 I0.0037 J0.0034
X-0.2542 Y-0.2534 Z0.0238 I-0.0037 J-0.0034
X-0.2468 Y-0.2466 Z0.0232 I0.0037 J0.0034
X-0.2542 Y-0.2534 Z0.0227 I-0.0037 J-0.0034
X-0.2468 Y-0.2466 Z0.0221 I0.0037 J0.0034
X-0.2542 Y-0.2534 Z0.0216 I-0.0037 J-0.0034
X-0.2468 Y-0.2466 Z0.021 I0.0037 J0.0034
X-0.2542 Y-0.2534 Z0.0205 I-0.0037 J-0.0034
X-0.2468 Y-0.2466 Z0.0199 I0.0037 J0.0034
X-0.2542 Y-0.2534 Z0.0194 I-0.0037 J-0.0034
X-0.2468 Y-0.2466 Z0.0188 I0.0037 J0.0034
X-0.2542 Y-0.2534 Z0.0183 I-0.0037 J-0.0034
X-0.2468 Y-0.2466 Z0.0177 I0.0037 J0.0034
X-0.2542 Y-0.2534 Z0.0172 I-0.0037 J-0.0034
X-0.2468 Y-0.2466 Z0.0166 I0.0037 J0.0034
X-0.2542 Y-0.2534 Z0.0161 I-0.0037 J-0.0034
X-0.2468 Y-0.2466 Z0.0155 I0.0037 J0.0034
X-0.2542 Y-0.2534 Z0.015 I-0.0037 J-0.0034
X-0.2468 Y-0.2466 Z0.0144 I0.0037 J0.0034
X-0.2542 Y-0.2534 Z0.0139 I-0.0037 J-0.0034
X-0.2468 Y-0.2466 Z0.0133 I0.0037 J0.0034
X-0.2542 Y-0.2534 Z0.0128 I-0.0037 J-0.0034
X-0.2468 Y-0.2466 Z0.0122 I0.0037 J0.0034
X-0.2542 Y-0.2534 Z0.0117 I-0.0037 J-0.0034
X-0.2468 Y-0.2466 Z0.0111 I0.0037 J0.0034
X-0.2542 Y-0.2534 Z0.0106 I-0.0037 J-0.0034
X-0.2468 Y-0.2466 Z0.01 I0.0037 J0.0034
X-0.2542 Y-0.2534 Z0.0095 I-0.0037 J-0.0034
X-0.2468 Y-0.2466 Z0.0089 I0.0037 J0.0034
X-0.2542 Y-0.2534 Z0.0084 I-0.0037 J-0.0034
X-0.2468 Y-0.2466 Z0.0078 I0.0037 J0.0034
X-0.2542 Y-0.2534 Z0.0073 I-0.0037 J-0.0034
X-0.2468 Y-0.2466 Z0.0067 I0.0037 J0.0034
X-0.2542 Y-0.2534 Z0.0062 I-0.0037 J-0.0034
X-0.2468 Y-0.2466 Z0.0057 I0.0037 J0.0034
X-0.2542 Y-0.2534 Z0.0051 I-0.0037 J-0.0034
X-0.2468 Y-0.2466 Z0.0046 I0.0037 J0.0034
X-0.2542 Y-0.2534 Z0.004 I-0.0037 J-0.0034
X-0.2468 Y-0.2466 Z0.0035 I0.0037 J0.0034
X-0.2542 Y-0.2534 Z0.0029 I-0.0037 J-0.0034
X-0.2468 Y-0.2466 Z0.0024 I0.0037 J0.0034
X-0.2542 Y-0.2534 Z0.0018 I-0.0037 J-0.0034
X-0.2468 Y-0.2466 Z0.0013 I0.0037 J0.0034
X-0.2542 Y-0.2534 Z0.0007 I-0.0037 J-0.0034
X-0.2468 Y-0.2466 Z0.0002 I0.0037 J0.0034
X-0.2542 Y-0.2534 Z-0.0004 I-0.0037 J-0.0034
X-0.2468 Y-0.2466 Z-0.0009 I0.0037 J0.0034
X-0.2542 Y-0.2534 Z-0.0015 I-0.0037 J-0.0034
X-0.2468 Y-0.2466 Z-0.002 I0.0037 J0.0034
X-0.2542 Y-0.2534 Z-0.0026 I-0.0037 J-0.0034
X-0.2468 Y-0.2466 Z-0.0031 I0.0037 J0.0034
X-0.2542 Y-0.2534 Z-0.0037 I-0.0037 J-0.0034
X-0.2468 Y-0.2466 Z-0.0042 I0.0037 J0.0034
X-0.2542 Y-0.2534 Z-0.0048 I-0.0037 J-0.0034
X-0.2468 Y-0.2466 Z-0.0053 I0.0037 J0.0034
X-0.2542 Y-0.2534 Z-0.0059 I-0.0037 J-0.0034
X-0.2468 Y-0.2466 Z-0.0064 I0.0037 J0.0034
X-0.2542 Y-0.2534 Z-0.007 I-0.0037 J-0.0034
X-0.2468 Y-0.2466 Z-0.0075 I0.0037 J0.0034
X-0.2542 Y-0.2534 Z-0.0081 I-0.0037 J-0.0034
X-0.2468 Y-0.2466 Z-0.0086 I0.0037 J0.0034
X-0.2542 Y-0.2534 Z-0.0092 I-0.0037 J-0.0034
X-0.2468 Y-0.2466 Z-0.0097 I0.0037 J0.0034
X-0.2542 Y-0.2534 Z-0.0103 I-0.0037 J-0.0034
X-0.2468 Y-0.2466 Z-0.0108 I0.0037 J0.0034
X-0.2542 Y-0.2534 Z-0.0114 I-0.0037 J-0.0034
X-0.2468 Y-0.2466 Z-0.0119 I0.0037 J0.0034
X-0.2542 Y-0.2534 Z-0.0124 I-0.0037 J-0.0034
X-0.2468 Y-0.2466 Z-0.013 I0.0037 J0.0034
X-0.2542 Y-0.2534 Z-0.0135 I-0.0037 J-0.0034
X-0.2468 Y-0.2466 Z-0.0141 I0.0037 J0.0034
X-0.2542 Y-0.2534 Z-0.0146 I-0.0037 J-0.0034
X-0.2468 Y-0.2466 Z-0.0152 I0.0037 J0.0034
X-0.2542 Y-0.2534 Z-0.0157 I-0.0037 J-0.0034
X-0.2468 Y-0.2466 Z-0.0163 I0.0037 J0.0034
X-0.2542 Y-0.2534 Z-0.0168 I-0.0037 J-0.0034
X-0.2468 Y-0.2466 Z-0.0174 I0.0037 J0.0034
X-0.2542 Y-0.2534 Z-0.0179 I-0.0037 J-0.0034
X-0.2468 Y-0.2466 Z-0.0185 I0.0037 J0.0034
X-0.2542 Y-0.2534 Z-0.019 I-0.0037 J-0.0034
X-0.2468 Y-0.2466 Z-0.0196 I0.0037 J0.0034
X-0.2555 Y-0.25 Z-0.02 I-0.0037 J-0.0034
X-0.2445 I0.0055 J0. F40.
X-0.2555 I-0.0055 J0.
X-0.2445 Z-0.0206 I0.0055 J0. F20.
X-0.2555 Z-0.0212 I-0.0055 J0.
X-0.2445 Z-0.0218 I0.0055 J0.
X-0.2555 Z-0.0224 I-0.0055 J0.
X-0.2445 Z-0.023 I0.0055 J0.
X-0.2555 Z-0.0236 I-0.0055 J0.
X-0.2445 Z-0.0242 I0.0055 J0.
X-0.2555 Z-0.0248 I-0.0055 J0.
X-0.2445 Z-0.0254 I0.0055 J0.
X-0.2555 Z-0.026 I-0.0055 J0.
X-0.2445 Z-0.0266 I0.0055 J0.
X-0.2555 Z-0.0272 I-0.0055 J0.
X-0.2445 Z-0.0278 I0.0055 J0.
X-0.2555 Z-0.0284 I-0.0055 J0.
X-0.2445 Z-0.0291 I0.0055 J0.
X-0.2555 Z-0.0297 I-0.0055 J0.
X-0.2445 Z-0.0303 I0.0055 J0.
X-0.2555 Z-0.0309 I-0.0055 J0.
X-0.2445 Z-0.0315 I0.0055 J0.
X-0.2555 Z-0.0321 I-0.0055 J0.
X-0.2445 Z-0.0327 I0.0055 J0.
X-0.2555 Z-0.0333 I-0.0055 J0.
X-0.2445 Z-0.0339 I0.0055 J0.
X-0.2555 Z-0.0345 I-0.0055 J0.
X-0.2445 Z-0.0351 I0.0055 J0.
X-0.2555 Z-0.0357 I-0.0055 J0.
X-0.2445 Z-0.0363 I0.0055 J0.
X-0.2555 Z-0.0369 I-0.0055 J0.
X-0.2445 Z-0.0375 I0.0055 J0.
X-0.2555 Z-0.0381 I-0.0055 J0.
X-0.2445 Z-0.0387 I0.0055 J0.
X-0.2555 Z-0.0393 I-0.0055 J0.
X-0.2445 Z-0.0399 I0.0055 J0.
X-0.2451 Y-0.2476 Z-0.04 I-0.0055 J0.
X-0.2549 Y-0.2524 I-0.0049 J-0.0024 F40.
X-0.2451 Y-0.2476 I0.0049 J0.0024
X-0.2549 Y-0.2524 Z-0.0406 I-0.0049 J-0.0024 F20.
X-0.2451 Y-0.2476 Z-0.0412 I0.0049 J0.0024
X-0.2549 Y-0.2524 Z-0.0418 I-0.0049 J-0.0024
X-0.2451 Y-0.2476 Z-0.0424 I0.0049 J0.0024
X-0.2549 Y-0.2524 Z-0.043 I-0.0049 J-0.0024
X-0.2451 Y-0.2476 Z-0.0436 I0.0049 J0.0024
X-0.2549 Y-0.2524 Z-0.0442 I-0.0049 J-0.0024
X-0.2451 Y-0.2476 Z-0.0448 I0.0049 J0.0024
X-0.2549 Y-0.2524 Z-0.0454 I-0.0049 J-0.0024
X-0.2451 Y-0.2476 Z-0.046 I0.0049 J0.0024
X-0.2549 Y-0.2524 Z-0.0466 I-0.0049 J-0.0024
X-0.2451 Y-0.2476 Z-0.0472 I0.0049 J0.0024
X-0.2549 Y-0.2524 Z-0.0478 I-0.0049 J-0.0024
X-0.2451 Y-0.2476 Z-0.0484 I0.0049 J0.0024
X-0.2549 Y-0.2524 Z-0.0491 I-0.0049 J-0.0024
X-0.2451 Y-0.2476 Z-0.0497 I0.0049 J0.0024
X-0.2549 Y-0.2524 Z-0.0503 I-0.0049 J-0.0024
X-0.2451 Y-0.2476 Z-0.0509 I0.0049 J0.0024
X-0.2549 Y-0.2524 Z-0.0515 I-0.0049 J-0.0024
X-0.2451 Y-0.2476 Z-0.0521 I0.0049 J0.0024
X-0.2549 Y-0.2524 Z-0.0527 I-0.0049 J-0.0024
X-0.2451 Y-0.2476 Z-0.0533 I0.0049 J0.0024
X-0.2549 Y-0.2524 Z-0.0539 I-0.0049 J-0.0024
X-0.2451 Y-0.2476 Z-0.0545 I0.0049 J0.0024
X-0.2549 Y-0.2524 Z-0.0551 I-0.0049 J-0.0024
X-0.2451 Y-0.2476 Z-0.0557 I0.0049 J0.0024
X-0.2549 Y-0.2524 Z-0.0563 I-0.0049 J-0.0024
X-0.2451 Y-0.2476 Z-0.0569 I0.0049 J0.0024
X-0.2549 Y-0.2524 Z-0.0575 I-0.0049 J-0.0024
X-0.2451 Y-0.2476 Z-0.0581 I0.0049 J0.0024
X-0.2549 Y-0.2524 Z-0.0587 I-0.0049 J-0.0024
X-0.2451 Y-0.2476 Z-0.0593 I0.0049 J0.0024
X-0.2549 Y-0.2524 Z-0.0599 I-0.0049 J-0.0024
X-0.2533 Y-0.2544 Z-0.06 I0.0049 J0.0024
X-0.2467 Y-0.2456 I0.0033 J0.0044 F40.
X-0.2533 Y-0.2544 I-0.0033 J-0.0044
X-0.2467 Y-0.2456 Z-0.0606 I0.0033 J0.0044 F20.
X-0.2533 Y-0.2544 Z-0.0612 I-0.0033 J-0.0044
X-0.2467 Y-0.2456 Z-0.0618 I0.0033 J0.0044
X-0.2533 Y-0.2544 Z-0.0624 I-0.0033 J-0.0044
X-0.2467 Y-0.2456 Z-0.063 I0.0033 J0.0044
X-0.2533 Y-0.2544 Z-0.0636 I-0.0033 J-0.0044
X-0.2467 Y-0.2456 Z-0.0642 I0.0033 J0.0044
X-0.2533 Y-0.2544 Z-0.0648 I-0.0033 J-0.0044
X-0.2467 Y-0.2456 Z-0.0654 I0.0033 J0.0044
X-0.2533 Y-0.2544 Z-0.066 I-0.0033 J-0.0044
X-0.2467 Y-0.2456 Z-0.0666 I0.0033 J0.0044
X-0.2533 Y-0.2544 Z-0.0672 I-0.0033 J-0.0044
X-0.2467 Y-0.2456 Z-0.0678 I0.0033 J0.0044
X-0.2533 Y-0.2544 Z-0.0684 I-0.0033 J-0.0044
X-0.2467 Y-0.2456 Z-0.0691 I0.0033 J0.0044
X-0.2533 Y-0.2544 Z-0.0697 I-0.0033 J-0.0044
X-0.2467 Y-0.2456 Z-0.0703 I0.0033 J0.0044
X-0.2533 Y-0.2544 Z-0.0709 I-0.0033 J-0.0044
X-0.2467 Y-0.2456 Z-0.0715 I0.0033 J0.0044
X-0.2533 Y-0.2544 Z-0.0721 I-0.0033 J-0.0044
X-0.2467 Y-0.2456 Z-0.0727 I0.0033 J0.0044
X-0.2533 Y-0.2544 Z-0.0733 I-0.0033 J-0.0044
X-0.2467 Y-0.2456 Z-0.0739 I0.0033 J0.0044
X-0.2533 Y-0.2544 Z-0.0745 I-0.0033 J-0.0044
X-0.2467 Y-0.2456 Z-0.0751 I0.0033 J0.0044
X-0.2533 Y-0.2544 Z-0.0757 I-0.0033 J-0.0044
X-0.2467 Y-0.2456 Z-0.0763 I0.0033 J0.0044
X-0.2533 Y-0.2544 Z-0.0769 I-0.0033 J-0.0044
X-0.2467 Y-0.2456 Z-0.0775 I0.0033 J0.0044
X-0.2533 Y-0.2544 Z-0.0781 I-0.0033 J-0.0044
X-0.2467 Y-0.2456 Z-0.0787 I0.0033 J0.0044
X-0.2533 Y-0.2544 Z-0.0793 I-0.0033 J-0.0044
X-0.2467 Y-0.2456 Z-0.0799 I0.0033 J0.0044
X-0.2489 Y-0.2446 Z-0.08 I-0.0033 J-0.0044
X-0.2511 Y-0.2554 I-0.0011 J-0.0054 F40.
X-0.2489 Y-0.2446 I0.0011 J0.0054
X-0.2511 Y-0.2554 Z-0.0806 I-0.0011 J-0.0054 F20.
X-0.2489 Y-0.2446 Z-0.0812 I0.0011 J0.0054
X-0.2511 Y-0.2554 Z-0.0818 I-0.0011 J-0.0054
X-0.2489 Y-0.2446 Z-0.0824 I0.0011 J0.0054
X-0.2511 Y-0.2554 Z-0.083 I-0.0011 J-0.0054
X-0.2489 Y-0.2446 Z-0.0836 I0.0011 J0.0054
X-0.2511 Y-0.2554 Z-0.0842 I-0.0011 J-0.0054
X-0.2489 Y-0.2446 Z-0.0848 I0.0011 J0.0054
X-0.2511 Y-0.2554 Z-0.0854 I-0.0011 J-0.0054
X-0.2489 Y-0.2446 Z-0.086 I0.0011 J0.0054
X-0.2511 Y-0.2554 Z-0.0866 I-0.0011 J-0.0054
X-0.2489 Y-0.2446 Z-0.0872 I0.0011 J0.0054
X-0.2511 Y-0.2554 Z-0.0878 I-0.0011 J-0.0054
X-0.2489 Y-0.2446 Z-0.0884 I0.0011 J0.0054
X-0.2511 Y-0.2554 Z-0.0891 I-0.0011 J-0.0054
X-0.2489 Y-0.2446 Z-0.0897 I0.0011 J0.0054
X-0.2511 Y-0.2554 Z-0.0903 I-0.0011 J-0.0054
X-0.2489 Y-0.2446 Z-0.0909 I0.0011 J0.0054
X-0.2511 Y-0.2554 Z-0.0915 I-0.0011 J-0.0054
X-0.2489 Y-0.2446 Z-0.0921 I0.0011 J0.0054
X-0.2511 Y-0.2554 Z-0.0927 I-0.0011 J-0.0054
X-0.2489 Y-0.2446 Z-0.0933 I0.0011 J0.0054
X-0.2511 Y-0.2554 Z-0.0939 I-0.0011 J-0.0054
X-0.2489 Y-0.2446 Z-0.0945 I0.0011 J0.0054
X-0.2511 Y-0.2554 Z-0.0951 I-0.0011 J-0.0054
X-0.2489 Y-0.2446 Z-0.0957 I0.0011 J0.0054
X-0.2511 Y-0.2554 Z-0.0963 I-0.0011 J-0.0054
X-0.2489 Y-0.2446 Z-0.0969 I0.0011 J0.0054
X-0.2511 Y-0.2554 Z-0.0975 I-0.0011 J-0.0054
X-0.2489 Y-0.2446 Z-0.0981 I0.0011 J0.0054
X-0.2511 Y-0.2554 Z-0.0987 I-0.0011 J-0.0054
X-0.2489 Y-0.2446 Z-0.0993 I0.0011 J0.0054
X-0.2511 Y-0.2554 Z-0.0999 I-0.0011 J-0.0054
X-0.2486 Y-0.2553 Z-0.1 I0.0011 J0.0054
X-0.2514 Y-0.2447 I-0.0014 J0.0053 F40.
X-0.2486 Y-0.2553 I0.0014 J-0.0053
X-0.2514 Y-0.2447 Z-0.1006 I-0.0014 J0.0053 F20.
X-0.2486 Y-0.2553 Z-0.1012 I0.0014 J-0.0053
X-0.2514 Y-0.2447 Z-0.1018 I-0.0014 J0.0053
X-0.2486 Y-0.2553 Z-0.1024 I0.0014 J-0.0053
X-0.2514 Y-0.2447 Z-0.103 I-0.0014 J0.0053
X-0.2486 Y-0.2553 Z-0.1036 I0.0014 J-0.0053
X-0.2514 Y-0.2447 Z-0.1042 I-0.0014 J0.0053
X-0.2486 Y-0.2553 Z-0.1048 I0.0014 J-0.0053
X-0.2514 Y-0.2447 Z-0.1054 I-0.0014 J0.0053
X-0.2486 Y-0.2553 Z-0.106 I0.0014 J-0.0053
X-0.2514 Y-0.2447 Z-0.1066 I-0.0014 J0.0053
X-0.2486 Y-0.2553 Z-0.1072 I0.0014 J-0.0053
X-0.2514 Y-0.2447 Z-0.1078 I-0.0014 J0.0053
X-0.2486 Y-0.2553 Z-0.1084 I0.0014 J-0.0053
X-0.2514 Y-0.2447 Z-0.1091 I-0.0014 J0.0053
X-0.2486 Y-0.2553 Z-0.1097 I0.0014 J-0.0053
X-0.2514 Y-0.2447 Z-0.1103 I-0.0014 J0.0053
X-0.2486 Y-0.2553 Z-0.1109 I0.0014 J-0.0053
X-0.2514 Y-0.2447 Z-0.1115 I-0.0014 J0.0053
X-0.2486 Y-0.2553 Z-0.1121 I0.0014 J-0.0053
X-0.2514 Y-0.2447 Z-0.1127 I-0.0014 J0.0053
X-0.2486 Y-0.2553 Z-0.1133 I0.0014 J-0.0053
