(X8 DYNAMIC HOOK COMPLETE)
(T3  D=0.118 CR=0. - ZMIN=-0.15 - FLAT END MILL)
G90 G94 G91.1 G40 G49 G17
G20

(2D POCKET1)
M5
T3 M6
S15000 M3
g4 p5
G54
M8
G0 X0.7503 Y1.755
G43 Z0.6 H3
Z0.2
G1 Z0.1118 F40.
X0.7496 Y1.7549 Z0.1075 F20.
X0.7485 Y1.7546 Z0.1057
X0.7475 Y1.754 Z0.1039
X0.7466 Y1.7531 Z0.1029
X0.7459 Y1.7521 Z0.102
X0.7456 Y1.7509 Z0.1011
X0.7455 Y1.7493 Z0.1007
X0.746 Y1.7479 Z0.1004
X0.7468 Y1.7466 Z0.1
G3 X0.7542 Y1.7534 Z0.0995 I0.0037 J0.0034
X0.7468 Y1.7466 Z0.0989 I-0.0037 J-0.0034
X0.7542 Y1.7534 Z0.0984 I0.0037 J0.0034
X0.7468 Y1.7466 Z0.0978 I-0.0037 J-0.0034
X0.7542 Y1.7534 Z0.0973 I0.0037 J0.0034
X0.7468 Y1.7466 Z0.0967 I-0.0037 J-0.0034
X0.7542 Y1.7534 Z0.0962 I0.0037 J0.0034
X0.7468 Y1.7466 Z0.0956 I-0.0037 J-0.0034
X0.7542 Y1.7534 Z0.0951 I0.0037 J0.0034
X0.7468 Y1.7466 Z0.0945 I-0.0037 J-0.0034
X0.7542 Y1.7534 Z0.094 I0.0037 J0.0034
X0.7468 Y1.7466 Z0.0934 I-0.0037 J-0.0034
X0.7542 Y1.7534 Z0.0929 I0.0037 J0.0034
X0.7468 Y1.7466 Z0.0923 I-0.0037 J-0.0034
X0.7542 Y1.7534 Z0.0918 I0.0037 J0.0034
X0.7468 Y1.7466 Z0.0912 I-0.0037 J-0.0034
X0.7542 Y1.7534 Z0.0907 I0.0037 J0.0034
X0.7468 Y1.7466 Z0.0901 I-0.0037 J-0.0034
X0.7542 Y1.7534 Z0.0896 I0.0037 J0.0034
X0.7468 Y1.7466 Z0.089 I-0.0037 J-0.0034
X0.7542 Y1.7534 Z0.0885 I0.0037 J0.0034
X0.7468 Y1.7466 Z0.0879 I-0.0037 J-0.0034
X0.7542 Y1.7534 Z0.0874 I0.0037 J0.0034
X0.7468 Y1.7466 Z0.0868 I-0.0037 J-0.0034
X0.7542 Y1.7534 Z0.0863 I0.0037 J0.0034
X0.7468 Y1.7466 Z0.0857 I-0.0037 J-0.0034
X0.7542 Y1.7534 Z0.0852 I0.0037 J0.0034
X0.7468 Y1.7466 Z0.0846 I-0.0037 J-0.0034
X0.7542 Y1.7534 Z0.0841 I0.0037 J0.0034
X0.7468 Y1.7466 Z0.0835 I-0.0037 J-0.0034
X0.7542 Y1.7534 Z0.083 I0.0037 J0.0034
X0.7468 Y1.7466 Z0.0824 I-0.0037 J-0.0034
X0.7542 Y1.7534 Z0.0819 I0.0037 J0.0034
X0.7468 Y1.7466 Z0.0813 I-0.0037 J-0.0034
X0.7542 Y1.7534 Z0.0808 I0.0037 J0.0034
X0.7468 Y1.7466 Z0.0803 I-0.0037 J-0.0034
X0.7542 Y1.7534 Z0.0797 I0.0037 J0.0034
X0.7468 Y1.7466 Z0.0792 I-0.0037 J-0.0034
X0.7542 Y1.7534 Z0.0786 I0.0037 J0.0034
X0.7468 Y1.7466 Z0.0781 I-0.0037 J-0.0034
X0.7542 Y1.7534 Z0.0775 I0.0037 J0.0034
X0.7468 Y1.7466 Z0.077 I-0.0037 J-0.0034
X0.7542 Y1.7534 Z0.0764 I0.0037 J0.0034
X0.7468 Y1.7466 Z0.0759 I-0.0037 J-0.0034
X0.7542 Y1.7534 Z0.0753 I0.0037 J0.0034
X0.7468 Y1.7466 Z0.0748 I-0.0037 J-0.0034
X0.7542 Y1.7534 Z0.0742 I0.0037 J0.0034
X0.7468 Y1.7466 Z0.0737 I-0.0037 J-0.0034
X0.7542 Y1.7534 Z0.0731 I0.0037 J0.0034
X0.7468 Y1.7466 Z0.0726 I-0.0037 J-0.0034
X0.7542 Y1.7534 Z0.072 I0.0037 J0.0034
X0.7468 Y1.7466 Z0.0715 I-0.0037 J-0.0034
X0.7542 Y1.7534 Z0.0709 I0.0037 J0.0034
X0.7468 Y1.7466 Z0.0704 I-0.0037 J-0.0034
X0.7542 Y1.7534 Z0.0698 I0.0037 J0.0034
X0.7468 Y1.7466 Z0.0693 I-0.0037 J-0.0034
X0.7542 Y1.7534 Z0.0687 I0.0037 J0.0034
X0.7468 Y1.7466 Z0.0682 I-0.0037 J-0.0034
X0.7542 Y1.7534 Z0.0676 I0.0037 J0.0034
X0.7468 Y1.7466 Z0.0671 I-0.0037 J-0.0034
X0.7542 Y1.7534 Z0.0665 I0.0037 J0.0034
X0.7468 Y1.7466 Z0.066 I-0.0037 J-0.0034
X0.7542 Y1.7534 Z0.0654 I0.0037 J0.0034
X0.7468 Y1.7466 Z0.0649 I-0.0037 J-0.0034
X0.7542 Y1.7534 Z0.0643 I0.0037 J0.0034
X0.7468 Y1.7466 Z0.0638 I-0.0037 J-0.0034
X0.7542 Y1.7534 Z0.0632 I0.0037 J0.0034
X0.7468 Y1.7466 Z0.0627 I-0.0037 J-0.0034
X0.7542 Y1.7534 Z0.0622 I0.0037 J0.0034
X0.7468 Y1.7466 Z0.0616 I-0.0037 J-0.0034
X0.7542 Y1.7534 Z0.0611 I0.0037 J0.0034
X0.7468 Y1.7466 Z0.0605 I-0.0037 J-0.0034
X0.7542 Y1.7534 Z0.06 I0.0037 J0.0034
X0.7468 Y1.7466 Z0.0594 I-0.0037 J-0.0034
X0.7542 Y1.7534 Z0.0589 I0.0037 J0.0034
X0.7468 Y1.7466 Z0.0583 I-0.0037 J-0.0034
X0.7542 Y1.7534 Z0.0578 I0.0037 J0.0034
X0.7468 Y1.7466 Z0.0572 I-0.0037 J-0.0034
X0.7542 Y1.7534 Z0.0567 I0.0037 J0.0034
X0.7468 Y1.7466 Z0.0561 I-0.0037 J-0.0034
X0.7542 Y1.7534 Z0.0556 I0.0037 J0.0034
X0.7468 Y1.7466 Z0.055 I-0.0037 J-0.0034
X0.7542 Y1.7534 Z0.0545 I0.0037 J0.0034
X0.7468 Y1.7466 Z0.0539 I-0.0037 J-0.0034
X0.7542 Y1.7534 Z0.0534 I0.0037 J0.0034
X0.7468 Y1.7466 Z0.0528 I-0.0037 J-0.0034
X0.7542 Y1.7534 Z0.0523 I0.0037 J0.0034
X0.7468 Y1.7466 Z0.0517 I-0.0037 J-0.0034
X0.7542 Y1.7534 Z0.0512 I0.0037 J0.0034
X0.7468 Y1.7466 Z0.0506 I-0.0037 J-0.0034
X0.7542 Y1.7534 Z0.0501 I0.0037 J0.0034
X0.7468 Y1.7466 Z0.0495 I-0.0037 J-0.0034
X0.7542 Y1.7534 Z0.049 I0.0037 J0.0034
X0.7468 Y1.7466 Z0.0484 I-0.0037 J-0.0034
X0.7542 Y1.7534 Z0.0479 I0.0037 J0.0034
X0.7468 Y1.7466 Z0.0473 I-0.0037 J-0.0034
X0.7542 Y1.7534 Z0.0468 I0.0037 J0.0034
X0.7468 Y1.7466 Z0.0462 I-0.0037 J-0.0034
X0.7542 Y1.7534 Z0.0457 I0.0037 J0.0034
X0.7468 Y1.7466 Z0.0451 I-0.0037 J-0.0034
X0.7542 Y1.7534 Z0.0446 I0.0037 J0.0034
X0.7468 Y1.7466 Z0.044 I-0.0037 J-0.0034
X0.7542 Y1.7534 Z0.0435 I0.0037 J0.0034
X0.7468 Y1.7466 Z0.043 I-0.0037 J-0.0034
X0.7542 Y1.7534 Z0.0424 I0.0037 J0.0034
X0.7468 Y1.7466 Z0.0419 I-0.0037 J-0.0034
X0.7542 Y1.7534 Z0.0413 I0.0037 J0.0034
X0.7468 Y1.7466 Z0.0408 I-0.0037 J-0.0034
X0.7542 Y1.7534 Z0.0402 I0.0037 J0.0034
X0.7468 Y1.7466 Z0.0397 I-0.0037 J-0.0034
X0.7542 Y1.7534 Z0.0391 I0.0037 J0.0034
X0.7468 Y1.7466 Z0.0386 I-0.0037 J-0.0034
X0.7542 Y1.7534 Z0.038 I0.0037 J0.0034
X0.7468 Y1.7466 Z0.0375 I-0.0037 J-0.0034
X0.7542 Y1.7534 Z0.0369 I0.0037 J0.0034
X0.7468 Y1.7466 Z0.0364 I-0.0037 J-0.0034
X0.7542 Y1.7534 Z0.0358 I0.0037 J0.0034
X0.7468 Y1.7466 Z0.0353 I-0.0037 J-0.0034
X0.7542 Y1.7534 Z0.0347 I0.0037 J0.0034
X0.7468 Y1.7466 Z0.0342 I-0.0037 J-0.0034
X0.7542 Y1.7534 Z0.0336 I0.0037 J0.0034
X0.7468 Y1.7466 Z0.0331 I-0.0037 J-0.0034
X0.7542 Y1.7534 Z0.0325 I0.0037 J0.0034
X0.7468 Y1.7466 Z0.032 I-0.0037 J-0.0034
X0.7542 Y1.7534 Z0.0314 I0.0037 J0.0034
X0.7468 Y1.7466 Z0.0309 I-0.0037 J-0.0034
X0.7542 Y1.7534 Z0.0303 I0.0037 J0.0034
X0.7468 Y1.7466 Z0.0298 I-0.0037 J-0.0034
X0.7542 Y1.7534 Z0.0292 I0.0037 J0.0034
X0.7468 Y1.7466 Z0.0287 I-0.0037 J-0.0034
X0.7542 Y1.7534 Z0.0281 I0.0037 J0.0034
X0.7468 Y1.7466 Z0.0276 I-0.0037 J-0.0034
X0.7542 Y1.7534 Z0.027 I0.0037 J0.0034
X0.7468 Y1.7466 Z0.0265 I-0.0037 J-0.0034
X0.7542 Y1.7534 Z0.0259 I0.0037 J0.0034
X0.7468 Y1.7466 Z0.0254 I-0.0037 J-0.0034
X0.7542 Y1.7534 Z0.0249 I0.0037 J0.0034
X0.7468 Y1.7466 Z0.0243 I-0.0037 J-0.0034
X0.7542 Y1.7534 Z0.0238 I0.0037 J0.0034
X0.7468 Y1.7466 Z0.0232 I-0.0037 J-0.0034
X0.7542 Y1.7534 Z0.0227 I0.0037 J0.0034
X0.7468 Y1.7466 Z0.0221 I-0.0037 J-0.0034
X0.7542 Y1.7534 Z0.0216 I0.0037 J0.0034
X0.7468 Y1.7466 Z0.021 I-0.0037 J-0.0034
X0.7542 Y1.7534 Z0.0205 I0.0037 J0.0034
X0.7468 Y1.7466 Z0.0199 I-0.0037 J-0.0034
X0.7542 Y1.7534 Z0.0194 I0.0037 J0.0034
X0.7468 Y1.7466 Z0.0188 I-0.0037 J-0.0034
X0.7542 Y1.7534 Z0.0183 I0.0037 J0.0034
X0.7468 Y1.7466 Z0.0177 I-0.0037 J-0.0034
X0.7542 Y1.7534 Z0.0172 I0.0037 J0.0034
X0.7468 Y1.7466 Z0.0166 I-0.0037 J-0.0034
X0.7542 Y1.7534 Z0.0161 I0.0037 J0.0034
X0.7468 Y1.7466 Z0.0155 I-0.0037 J-0.0034
X0.7542 Y1.7534 Z0.015 I0.0037 J0.0034
X0.7468 Y1.7466 Z0.0144 I-0.0037 J-0.0034
X0.7542 Y1.7534 Z0.0139 I0.0037 J0.0034
X0.7468 Y1.7466 Z0.0133 I-0.0037 J-0.0034
X0.7542 Y1.7534 Z0.0128 I0.0037 J0.0034
X0.7468 Y1.7466 Z0.0122 I-0.0037 J-0.0034
X0.7542 Y1.7534 Z0.0117 I0.0037 J0.0034
X0.7468 Y1.7466 Z0.0111 I-0.0037 J-0.0034
X0.7542 Y1.7534 Z0.0106 I0.0037 J0.0034
X0.7468 Y1.7466 Z0.01 I-0.0037 J-0.0034
X0.7542 Y1.7534 Z0.0095 I0.0037 J0.0034
X0.7468 Y1.7466 Z0.0089 I-0.0037 J-0.0034
X0.7542 Y1.7534 Z0.0084 I0.0037 J0.0034
X0.7468 Y1.7466 Z0.0078 I-0.0037 J-0.0034
X0.7542 Y1.7534 Z0.0073 I0.0037 J0.0034
X0.7468 Y1.7466 Z0.0067 I-0.0037 J-0.0034
X0.7542 Y1.7534 Z0.0062 I0.0037 J0.0034
X0.7468 Y1.7466 Z0.0057 I-0.0037 J-0.0034
X0.7542 Y1.7534 Z0.0051 I0.0037 J0.0034
X0.7468 Y1.7466 Z0.0046 I-0.0037 J-0.0034
X0.7542 Y1.7534 Z0.004 I0.0037 J0.0034
X0.7468 Y1.7466 Z0.0035 I-0.0037 J-0.0034
X0.7542 Y1.7534 Z0.0029 I0.0037 J0.0034
X0.7468 Y1.7466 Z0.0024 I-0.0037 J-0.0034
X0.7542 Y1.7534 Z0.0018 I0.0037 J0.0034
X0.7468 Y1.7466 Z0.0013 I-0.0037 J-0.0034
X0.7542 Y1.7534 Z0.0007 I0.0037 J0.0034
X0.7468 Y1.7466 Z0.0002 I-0.0037 J-0.0034
X0.7542 Y1.7534 Z-0.0004 I0.0037 J0.0034
X0.7468 Y1.7466 Z-0.0009 I-0.0037 J-0.0034
X0.7542 Y1.7534 Z-0.0015 I0.0037 J0.0034
X0.7468 Y1.7466 Z-0.002 I-0.0037 J-0.0034
X0.7542 Y1.7534 Z-0.0026 I0.0037 J0.0034
X0.7468 Y1.7466 Z-0.0031 I-0.0037 J-0.0034
X0.7542 Y1.7534 Z-0.0037 I0.0037 J0.0034
X0.7468 Y1.7466 Z-0.0042 I-0.0037 J-0.0034
X0.7542 Y1.7534 Z-0.0048 I0.0037 J0.0034
X0.7468 Y1.7466 Z-0.0053 I-0.0037 J-0.0034
X0.7542 Y1.7534 Z-0.0059 I0.0037 J0.0034
X0.7468 Y1.7466 Z-0.0064 I-0.0037 J-0.0034
X0.7542 Y1.7534 Z-0.007 I0.0037 J0.0034
X0.7468 Y1.7466 Z-0.0075 I-0.0037 J-0.0034
X0.7542 Y1.7534 Z-0.0081 I0.0037 J0.0034
X0.7468 Y1.7466 Z-0.0086 I-0.0037 J-0.0034
X0.7542 Y1.7534 Z-0.0092 I0.0037 J0.0034
X0.7468 Y1.7466 Z-0.0097 I-0.0037 J-0.0034
X0.7542 Y1.7534 Z-0.0103 I0.0037 J0.0034
X0.7468 Y1.7466 Z-0.0108 I-0.0037 J-0.0034
X0.7542 Y1.7534 Z-0.0114 I0.0037 J0.0034
X0.7468 Y1.7466 Z-0.0119 I-0.0037 J-0.0034
X0.7542 Y1.7534 Z-0.0124 I0.0037 J0.0034
X0.7468 Y1.7466 Z-0.013 I-0.0037 J-0.0034
X0.7542 Y1.7534 Z-0.0135 I0.0037 J0.0034
X0.7468 Y1.7466 Z-0.0141 I-0.0037 J-0.0034
X0.7542 Y1.7534 Z-0.0146 I0.0037 J0.0034
X0.7468 Y1.7466 Z-0.0152 I-0.0037 J-0.0034
X0.7542 Y1.7534 Z-0.0157 I0.0037 J0.0034
X0.7468 Y1.7466 Z-0.0163 I-0.0037 J-0.0034
X0.7542 Y1.7534 Z-0.0168 I0.0037 J0.0034
X0.7468 Y1.7466 Z-0.0174 I-0.0037 J-0.0034
X0.7542 Y1.7534 Z-0.0179 I0.0037 J0.0034
X0.7468 Y1.7466 Z-0.0185 I-0.0037 J-0.0034
X0.7542 Y1.7534 Z-0.019 I0.0037 J0.0034
X0.7468 Y1.7466 Z-0.0196 I-0.0037 J-0.0034
X0.7555 Y1.75 Z-0.02 I0.0037 J0.0034
X0.7445 I-0.0055 J0. F40.
X0.7555 I0.0055 J0.
X0.7445 Z-0.0206 I-0.0055 J0. F20.
X0.7555 Z-0.0212 I0.0055 J0.
X0.7445 Z-0.0218 I-0.0055 J0.
X0.7555 Z-0.0224 I0.0055 J0.
X0.7445 Z-0.023 I-0.0055 J0.
X0.7555 Z-0.0236 I0.0055 J0.
X0.7445 Z-0.0242 I-0.0055 J0.
X0.7555 Z-0.0248 I0.0055 J0.
X0.7445 Z-0.0254 I-0.0055 J0.
X0.7555 Z-0.026 I0.0055 J0.
X0.7445 Z-0.0266 I-0.0055 J0.
X0.7555 Z-0.0272 I0.0055 J0.
X0.7445 Z-0.0278 I-0.0055 J0.
X0.7555 Z-0.0284 I0.0055 J0.
X0.7445 Z-0.0291 I-0.0055 J0.
X0.7555 Z-0.0297 I0.0055 J0.
X0.7445 Z-0.0303 I-0.0055 J0.
X0.7555 Z-0.0309 I0.0055 J0.
X0.7445 Z-0.0315 I-0.0055 J0.
X0.7555 Z-0.0321 I0.0055 J0.
X0.7445 Z-0.0327 I-0.0055 J0.
X0.7555 Z-0.0333 I0.0055 J0.
X0.7445 Z-0.0339 I-0.0055 J0.
X0.7555 Z-0.0345 I0.0055 J0.
X0.7445 Z-0.0351 I-0.0055 J0.
X0.7555 Z-0.0357 I0.0055 J0.
X0.7445 Z-0.0363 I-0.0055 J0.
X0.7555 Z-0.0369 I0.0055 J0.
X0.7445 Z-0.0375 I-0.0055 J0.
X0.7555 Z-0.0381 I0.0055 J0.
X0.7445 Z-0.0387 I-0.0055 J0.
X0.7555 Z-0.0393 I0.0055 J0.
X0.7445 Z-0.0399 I-0.0055 J0.
X0.7451 Y1.7476 Z-0.04 I0.0055 J0.
X0.7549 Y1.7524 I0.0049 J0.0024 F40.
X0.7451 Y1.7476 I-0.0049 J-0.0024
X0.7549 Y1.7524 Z-0.0406 I0.0049 J0.0024 F20.
X0.7451 Y1.7476 Z-0.0412 I-0.0049 J-0.0024
X0.7549 Y1.7524 Z-0.0418 I0.0049 J0.0024
X0.7451 Y1.7476 Z-0.0424 I-0.0049 J-0.0024
X0.7549 Y1.7524 Z-0.043 I0.0049 J0.0024
X0.7451 Y1.7476 Z-0.0436 I-0.0049 J-0.0024
X0.7549 Y1.7524 Z-0.0442 I0.0049 J0.0024
X0.7451 Y1.7476 Z-0.0448 I-0.0049 J-0.0024
X0.7549 Y1.7524 Z-0.0454 I0.0049 J0.0024
X0.7451 Y1.7476 Z-0.046 I-0.0049 J-0.0024
X0.7549 Y1.7524 Z-0.0466 I0.0049 J0.0024
X0.7451 Y1.7476 Z-0.0472 I-0.0049 J-0.0024
X0.7549 Y1.7524 Z-0.0478 I0.0049 J0.0024
X0.7451 Y1.7476 Z-0.0484 I-0.0049 J-0.0024
X0.7549 Y1.7524 Z-0.0491 I0.0049 J0.0024
X0.7451 Y1.7476 Z-0.0497 I-0.0049 J-0.0024
X0.7549 Y1.7524 Z-0.0503 I0.0049 J0.0024
X0.7451 Y1.7476 Z-0.0509 I-0.0049 J-0.0024
X0.7549 Y1.7524 Z-0.0515 I0.0049 J0.0024
X0.7451 Y1.7476 Z-0.0521 I-0.0049 J-0.0024
X0.7549 Y1.7524 Z-0.0527 I0.0049 J0.0024
X0.7451 Y1.7476 Z-0.0533 I-0.0049 J-0.0024
X0.7549 Y1.7524 Z-0.0539 I0.0049 J0.0024
X0.7451 Y1.7476 Z-0.0545 I-0.0049 J-0.0024
X0.7549 Y1.7524 Z-0.0551 I0.0049 J0.0024
X0.7451 Y1.7476 Z-0.0557 I-0.0049 J-0.0024
X0.7549 Y1.7524 Z-0.0563 I0.0049 J0.0024
X0.7451 Y1.7476 Z-0.0569 I-0.0049 J-0.0024
X0.7549 Y1.7524 Z-0.0575 I0.0049 J0.0024
X0.7451 Y1.7476 Z-0.0581 I-0.0049 J-0.0024
X0.7549 Y1.7524 Z-0.0587 I0.0049 J0.0024
X0.7451 Y1.7476 Z-0.0593 I-0.0049 J-0.0024
X0.7549 Y1.7524 Z-0.0599 I0.0049 J0.0024
X0.7533 Y1.7544 Z-0.06 I-0.0049 J-0.0024
X0.7467 Y1.7456 I-0.0033 J-0.0044 F40.
X0.7533 Y1.7544 I0.0033 J0.0044
X0.7467 Y1.7456 Z-0.0606 I-0.0033 J-0.0044 F20.
X0.7533 Y1.7544 Z-0.0612 I0.0033 J0.0044
X0.7467 Y1.7456 Z-0.0618 I-0.0033 J-0.0044
X0.7533 Y1.7544 Z-0.0624 I0.0033 J0.0044
X0.7467 Y1.7456 Z-0.063 I-0.0033 J-0.0044
X0.7533 Y1.7544 Z-0.0636 I0.0033 J0.0044
X0.7467 Y1.7456 Z-0.0642 I-0.0033 J-0.0044
X0.7533 Y1.7544 Z-0.0648 I0.0033 J0.0044
X0.7467 Y1.7456 Z-0.0654 I-0.0033 J-0.0044
X0.7533 Y1.7544 Z-0.066 I0.0033 J0.0044
X0.7467 Y1.7456 Z-0.0666 I-0.0033 J-0.0044
X0.7533 Y1.7544 Z-0.0672 I0.0033 J0.0044
X0.7467 Y1.7456 Z-0.0678 I-0.0033 J-0.0044
X0.7533 Y1.7544 Z-0.0684 I0.0033 J0.0044
X0.7467 Y1.7456 Z-0.0691 I-0.0033 J-0.0044
X0.7533 Y1.7544 Z-0.0697 I0.0033 J0.0044
X0.7467 Y1.7456 Z-0.0703 I-0.0033 J-0.0044
X0.7533 Y1.7544 Z-0.0709 I0.0033 J0.0044
X0.7467 Y1.7456 Z-0.0715 I-0.0033 J-0.0044
X0.7533 Y1.7544 Z-0.0721 I0.0033 J0.0044
X0.7467 Y1.7456 Z-0.0727 I-0.0033 J-0.0044
X0.7533 Y1.7544 Z-0.0733 I0.0033 J0.0044
X0.7467 Y1.7456 Z-0.0739 I-0.0033 J-0.0044
X0.7533 Y1.7544 Z-0.0745 I0.0033 J0.0044
X0.7467 Y1.7456 Z-0.0751 I-0.0033 J-0.0044
X0.7533 Y1.7544 Z-0.0757 I0.0033 J0.0044
X0.7467 Y1.7456 Z-0.0763 I-0.0033 J-0.0044
X0.7533 Y1.7544 Z-0.0769 I0.0033 J0.0044
X0.7467 Y1.7456 Z-0.0775 I-0.0033 J-0.0044
X0.7533 Y1.7544 Z-0.0781 I0.0033 J0.0044
X0.7467 Y1.7456 Z-0.0787 I-0.0033 J-0.0044
X0.7533 Y1.7544 Z-0.0793 I0.0033 J0.0044
X0.7467 Y1.7456 Z-0.0799 I-0.0033 J-0.0044
X0.7489 Y1.7446 Z-0.08 I0.0033 J0.0044
X0.7511 Y1.7554 I0.0011 J0.0054 F40.
X0.7489 Y1.7446 I-0.0011 J-0.0054
X0.7511 Y1.7554 Z-0.0806 I0.0011 J0.0054 F20.
X0.7489 Y1.7446 Z-0.0812 I-0.0011 J-0.0054
X0.7511 Y1.7554 Z-0.0818 I0.0011 J0.0054
X0.7489 Y1.7446 Z-0.0824 I-0.0011 J-0.0054
X0.7511 Y1.7554 Z-0.083 I0.0011 J0.0054
X0.7489 Y1.7446 Z-0.0836 I-0.0011 J-0.0054
X0.7511 Y1.7554 Z-0.0842 I0.0011 J0.0054
X0.7489 Y1.7446 Z-0.0848 I-0.0011 J-0.0054
X0.7511 Y1.7554 Z-0.0854 I0.0011 J0.0054
X0.7489 Y1.7446 Z-0.086 I-0.0011 J-0.0054
X0.7511 Y1.7554 Z-0.0866 I0.0011 J0.0054
X0.7489 Y1.7446 Z-0.0872 I-0.0011 J-0.0054
X0.7511 Y1.7554 Z-0.0878 I0.0011 J0.0054
X0.7489 Y1.7446 Z-0.0884 I-0.0011 J-0.0054
X0.7511 Y1.7554 Z-0.0891 I0.0011 J0.0054
X0.7489 Y1.7446 Z-0.0897 I-0.0011 J-0.0054
X0.7511 Y1.7554 Z-0.0903 I0.0011 J0.0054
X0.7489 Y1.7446 Z-0.0909 I-0.0011 J-0.0054
X0.7511 Y1.7554 Z-0.0915 I0.0011 J0.0054
X0.7489 Y1.7446 Z-0.0921 I-0.0011 J-0.0054
X0.7511 Y1.7554 Z-0.0927 I0.0011 J0.0054
X0.7489 Y1.7446 Z-0.0933 I-0.0011 J-0.0054
X0.7511 Y1.7554 Z-0.0939 I0.0011 J0.0054
X0.7489 Y1.7446 Z-0.0945 I-0.0011 J-0.0054
X0.7511 Y1.7554 Z-0.0951 I0.0011 J0.0054
X0.7489 Y1.7446 Z-0.0957 I-0.0011 J-0.0054
X0.7511 Y1.7554 Z-0.0963 I0.0011 J0.0054
X0.7489 Y1.7446 Z-0.0969 I-0.0011 J-0.0054
X0.7511 Y1.7554 Z-0.0975 I0.0011 J0.0054
X0.7489 Y1.7446 Z-0.0981 I-0.0011 J-0.0054
X0.7511 Y1.7554 Z-0.0987 I0.0011 J0.0054
X0.7489 Y1.7446 Z-0.0993 I-0.0011 J-0.0054
X0.7511 Y1.7554 Z-0.0999 I0.0011 J0.0054
X0.7486 Y1.7553 Z-0.1 I-0.0011 J-0.0054
X0.7514 Y1.7447 I0.0014 J-0.0053 F40.
X0.7486 Y1.7553 I-0.0014 J0.0053
X0.7514 Y1.7447 Z-0.1006 I0.0014 J-0.0053 F20.
X0.7486 Y1.7553 Z-0.1012 I-0.0014 J0.0053
X0.7514 Y1.7447 Z-0.1018 I0.0014 J-0.0053
X0.7486 Y1.7553 Z-0.1024 I-0.0014 J0.0053
X0.7514 Y1.7447 Z-0.103 I0.0014 J-0.0053
X0.7486 Y1.7553 Z-0.1036 I-0.0014 J0.0053
X0.7514 Y1.7447 Z-0.1042 I0.0014 J-0.0053
X0.7486 Y1.7553 Z-0.1048 I-0.0014 J0.0053
X0.7514 Y1.7447 Z-0.1054 I0.0014 J-0.0053
X0.7486 Y1.7553 Z-0.106 I-0.0014 J0.0053
X0.7514 Y1.7447 Z-0.1066 I0.0014 J-0.0053
X0.7486 Y1.7553 Z-0.1072 I-0.0014 J0.0053
X0.7514 Y1.7447 Z-0.1078 I0.0014 J-0.0053
X0.7486 Y1.7553 Z-0.1084 I-0.0014 J0.0053
X0.7514 Y1.7447 Z-0.1091 I0.0014 J-0.0053
X0.7486 Y1.7553 Z-0.1097 I-0.0014 J0.0053
X0.7514 Y1.7447 Z-0.1103 I0.0014 J-0.0053
X0.7486 Y1.7553 Z-0.1109 I-0.0014 J0.0053
X0.7514 Y1.7447 Z-0.1115 I0.0014 J-0.0053
X0.7486 Y1.7553 Z-0.1121 I-0.0014 J0.0053
X0.7514 Y1.7447 Z-0.1127 I0.0014 J-0.0053
X0.7486 Y1.7553 Z-0.1133 I-0.0014 J0.0053
X0.7514 Y1.7447 Z-0.1139 I0.0014 J-0.0053
X0.7486 Y1.7553 Z-0.1145 I-0.0014 J0.0053
X0.7514 Y1.7447 Z-0.1151 I0.0014 J-0.0053
X0.7486 Y1.7553 Z-0.1157 I-0.0014 J0.0053
X0.7514 Y1.7447 Z-0.1163 I0.0014 J-0.0053
X0.7486 Y1.7553 Z-0.1169 I-0.0014 J0.0053
X0.7514 Y1.7447 Z-0.1175 I0.0014 J-0.0053
X0.7486 Y1.7553 Z-0.1181 I-0.0014 J0.0053
X0.7514 Y1.7447 Z-0.1187 I0.0014 J-0.0053
X0.7486 Y1.7553 Z-0.1193 I-0.0014 J0.0053
X0.7514 Y1.7447 Z-0.1199 I0.0014 J-0.0053
X0.7536 Y1.7459 Z-0.12 I-0.0014 J0.0053
X0.7464 Y1.7541 I-0.0036 J0.0041 F40.
X0.7536 Y1.7459 I0.0036 J-0.0041
X0.7464 Y1.7541 Z-0.1206 I-0.0036 J0.0041 F20.
X0.7536 Y1.7459 Z-0.1212 I0.0036 J-0.0041
X0.7464 Y1.7541 Z-0.1218 I-0.0036 J0.0041
X0.7536 Y1.7459 Z-0.1224 I0.0036 J-0.0041
X0.7464 Y1.7541 Z-0.123 I-0.0036 J0.0041
X0.7536 Y1.7459 Z-0.1236 I0.0036 J-0.0041
X0.7464 Y1.7541 Z-0.1242 I-0.0036 J0.0041
X0.7536 Y1.7459 Z-0.1248 I0.0036 J-0.0041
X0.7464 Y1.7541 Z-0.1254 I-0.0036 J0.0041
X0.7536 Y1.7459 Z-0.126 I0.0036 J-0.0041
X0.7464 Y1.7541 Z-0.1266 I-0.0036 J0.0041
X0.7536 Y1.7459 Z-0.1272 I0.0036 J-0.0041
X0.7464 Y1.7541 Z-0.1278 I-0.0036 J0.0041
X0.7536 Y1.7459 Z-0.1284 I0.0036 J-0.0041
X0.7464 Y1.7541 Z-0.1291 I-0.0036 J0.0041
X0.7536 Y1.7459 Z-0.1297 I0.0036 J-0.0041
X0.7464 Y1.7541 Z-0.1303 I-0.0036 J0.0041
X0.7536 Y1.7459 Z-0.1309 I0.0036 J-0.0041
X0.7464 Y1.7541 Z-0.1315 I-0.0036 J0.0041
X0.7536 Y1.7459 Z-0.1321 I0.0036 J-0.0041
X0.7509 Y1.7554 Z-0.1325 I-0.0036 J0.0041
X0.7491 Y1.7446 I-0.0009 J-0.0054 F40.
X0.7509 Y1.7554 I0.0009 J0.0054
X0.7491 Y1.7446 Z-0.1331 I-0.0009 J-0.0054 F20.
X0.7509 Y1.7554 Z-0.1337 I0.0009 J0.0054
X0.7491 Y1.7446 Z-0.1343 I-0.0009 J-0.0054
X0.7509 Y1.7554 Z-0.1349 I0.0009 J0.0054
X0.7491 Y1.7446 Z-0.1355 I-0.0009 J-0.0054
X0.7509 Y1.7554 Z-0.1361 I0.0009 J0.0054
X0.7491 Y1.7446 Z-0.1367 I-0.0009 J-0.0054
X0.7509 Y1.7554 Z-0.1373 I0.0009 J0.0054
X0.7491 Y1.7446 Z-0.1379 I-0.0009 J-0.0054
X0.7509 Y1.7554 Z-0.1385 I0.0009 J0.0054
X0.7491 Y1.7446 Z-0.1391 I-0.0009 J-0.0054
X0.7509 Y1.7554 Z-0.1397 I0.0009 J0.0054
X0.7491 Y1.7446 Z-0.1403 I-0.0009 J-0.0054
X0.7509 Y1.7554 Z-0.1409 I0.0009 J0.0054
X0.7491 Y1.7446 Z-0.1416 I-0.0009 J-0.0054
X0.7509 Y1.7554 Z-0.1422 I0.0009 J0.0054
X0.7491 Y1.7446 Z-0.1428 I-0.0009 J-0.0054
X0.7509 Y1.7554 Z-0.1434 I0.0009 J0.0054
X0.7491 Y1.7446 Z-0.144 I-0.0009 J-0.0054
X0.7509 Y1.7554 Z-0.1446 I0.0009 J0.0054
X0.7452 Y1.7473 Z-0.145 I-0.0009 J-0.0054
X0.7548 Y1.7527 I0.0048 J0.0027 F40.
X0.7452 Y1.7473 I-0.0048 J-0.0027
G1 X0.7461 Y1.7461 Z-0.1446
X0.7472 Y1.7452 Z-0.1442
X0.7486 Y1.7447 Z-0.1439
X0.75 Y1.7445 Z-0.1435
X0.7516 Y1.7447 Z-0.1422
X0.753 Y1.7454 Z-0.1408
X0.7538 Y1.746 Z-0.1391
X0.7545 Y1.7468 Z-0.1373
X0.7549 Y1.7475 Z-0.1332
G0 Z0.2
X0.5513 Y1.495
G1 Z0.1118 F40.
X0.552 Y1.4951 Z0.1075 F20.
X0.5531 Y1.4954 Z0.1057
X0.5541 Y1.496 Z0.1039
X0.555 Y1.4969 Z0.1029
X0.5557 Y1.4979 Z0.102
X0.556 Y1.4991 Z0.1011
X0.5561 Y1.5007 Z0.1007
X0.5556 Y1.5021 Z0.1004
X0.5548 Y1.5034 Z0.1
G3 X0.5474 Y1.4966 Z0.0995 I-0.0037 J-0.0034
X0.5548 Y1.5034 Z0.0989 I0.0037 J0.0034
X0.5474 Y1.4966 Z0.0984 I-0.0037 J-0.0034
X0.5548 Y1.5034 Z0.0978 I0.0037 J0.0034
X0.5474 Y1.4966 Z0.0973 I-0.0037 J-0.0034
X0.5548 Y1.5034 Z0.0967 I0.0037 J0.0034
X0.5474 Y1.4966 Z0.0962 I-0.0037 J-0.0034
X0.5548 Y1.5034 Z0.0956 I0.0037 J0.0034
X0.5474 Y1.4966 Z0.0951 I-0.0037 J-0.0034
X0.5548 Y1.5034 Z0.0945 I0.0037 J0.0034
X0.5474 Y1.4966 Z0.094 I-0.0037 J-0.0034
X0.5548 Y1.5034 Z0.0934 I0.0037 J0.0034
X0.5474 Y1.4966 Z0.0929 I-0.0037 J-0.0034
X0.5548 Y1.5034 Z0.0923 I0.0037 J0.0034
X0.5474 Y1.4966 Z0.0918 I-0.0037 J-0.0034
X0.5548 Y1.5034 Z0.0912 I0.0037 J0.0034
X0.5474 Y1.4966 Z0.0907 I-0.0037 J-0.0034
X0.5548 Y1.5034 Z0.0901 I0.0037 J0.0034
X0.5474 Y1.4966 Z0.0896 I-0.0037 J-0.0034
X0.5548 Y1.5034 Z0.089 I0.0037 J0.0034
X0.5474 Y1.4966 Z0.0885 I-0.0037 J-0.0034
X0.5548 Y1.5034 Z0.0879 I0.0037 J0.0034
X0.5474 Y1.4966 Z0.0874 I-0.0037 J-0.0034
X0.5548 Y1.5034 Z0.0868 I0.0037 J0.0034
X0.5474 Y1.4966 Z0.0863 I-0.0037 J-0.0034
X0.5548 Y1.5034 Z0.0857 I0.0037 J0.0034
X0.5474 Y1.4966 Z0.0852 I-0.0037 J-0.0034
X0.5548 Y1.5034 Z0.0846 I0.0037 J0.0034
X0.5474 Y1.4966 Z0.0841 I-0.0037 J-0.0034
X0.5548 Y1.5034 Z0.0835 I0.0037 J0.0034
X0.5474 Y1.4966 Z0.083 I-0.0037 J-0.0034
X0.5548 Y1.5034 Z0.0824 I0.0037 J0.0034
X0.5474 Y1.4966 Z0.0819 I-0.0037 J-0.0034
X0.5548 Y1.5034 Z0.0813 I0.0037 J0.0034
X0.5474 Y1.4966 Z0.0808 I-0.0037 J-0.0034
X0.5548 Y1.5034 Z0.0803 I0.0037 J0.0034
X0.5474 Y1.4966 Z0.0797 I-0.0037 J-0.0034
X0.5548 Y1.5034 Z0.0792 I0.0037 J0.0034
X0.5474 Y1.4966 Z0.0786 I-0.0037 J-0.0034
X0.5548 Y1.5034 Z0.0781 I0.0037 J0.0034
X0.5474 Y1.4966 Z0.0775 I-0.0037 J-0.0034
X0.5548 Y1.5034 Z0.077 I0.0037 J0.0034
X0.5474 Y1.4966 Z0.0764 I-0.0037 J-0.0034
X0.5548 Y1.5034 Z0.0759 I0.0037 J0.0034
X0.5474 Y1.4966 Z0.0753 I-0.0037 J-0.0034
X0.5548 Y1.5034 Z0.0748 I0.0037 J0.0034
X0.5474 Y1.4966 Z0.0742 I-0.0037 J-0.0034
X0.5548 Y1.5034 Z0.0737 I0.0037 J0.0034
X0.5474 Y1.4966 Z0.0731 I-0.0037 J-0.0034
X0.5548 Y1.5034 Z0.0726 I0.0037 J0.0034
X0.5474 Y1.4966 Z0.072 I-0.0037 J-0.0034
X0.5548 Y1.5034 Z0.0715 I0.0037 J0.0034
X0.5474 Y1.4966 Z0.0709 I-0.0037 J-0.0034
X0.5548 Y1.5034 Z0.0704 I0.0037 J0.0034
X0.5474 Y1.4966 Z0.0698 I-0.0037 J-0.0034
X0.5548 Y1.5034 Z0.0693 I0.0037 J0.0034
X0.5474 Y1.4966 Z0.0687 I-0.0037 J-0.0034
X0.5548 Y1.5034 Z0.0682 I0.0037 J0.0034
X0.5474 Y1.4966 Z0.0676 I-0.0037 J-0.0034
X0.5548 Y1.5034 Z0.0671 I0.0037 J0.0034
X0.5474 Y1.4966 Z0.0665 I-0.0037 J-0.0034
X0.5548 Y1.5034 Z0.066 I0.0037 J0.0034
X0.5474 Y1.4966 Z0.0654 I-0.0037 J-0.0034
X0.5548 Y1.5034 Z0.0649 I0.0037 J0.0034
X0.5474 Y1.4966 Z0.0643 I-0.0037 J-0.0034
X0.5548 Y1.5034 Z0.0638 I0.0037 J0.0034
X0.5474 Y1.4966 Z0.0632 I-0.0037 J-0.0034
X0.5548 Y1.5034 Z0.0627 I0.0037 J0.0034
X0.5474 Y1.4966 Z0.0622 I-0.0037 J-0.0034
X0.5548 Y1.5034 Z0.0616 I0.0037 J0.0034
X0.5474 Y1.4966 Z0.0611 I-0.0037 J-0.0034
X0.5548 Y1.5034 Z0.0605 I0.0037 J0.0034
X0.5474 Y1.4966 Z0.06 I-0.0037 J-0.0034
X0.5548 Y1.5034 Z0.0594 I0.0037 J0.0034
X0.5474 Y1.4966 Z0.0589 I-0.0037 J-0.0034
X0.5548 Y1.5034 Z0.0583 I0.0037 J0.0034
X0.5474 Y1.4966 Z0.0578 I-0.0037 J-0.0034
X0.5548 Y1.5034 Z0.0572 I0.0037 J0.0034
X0.5474 Y1.4966 Z0.0567 I-0.0037 J-0.0034
X0.5548 Y1.5034 Z0.0561 I0.0037 J0.0034
X0.5474 Y1.4966 Z0.0556 I-0.0037 J-0.0034
X0.5548 Y1.5034 Z0.055 I0.0037 J0.0034
X0.5474 Y1.4966 Z0.0545 I-0.0037 J-0.0034
X0.5548 Y1.5034 Z0.0539 I0.0037 J0.0034
X0.5474 Y1.4966 Z0.0534 I-0.0037 J-0.0034
X0.5548 Y1.5034 Z0.0528 I0.0037 J0.0034
X0.5474 Y1.4966 Z0.0523 I-0.0037 J-0.0034
X0.5548 Y1.5034 Z0.0517 I0.0037 J0.0034
X0.5474 Y1.4966 Z0.0512 I-0.0037 J-0.0034
X0.5548 Y1.5034 Z0.0506 I0.0037 J0.0034
X0.5474 Y1.4966 Z0.0501 I-0.0037 J-0.0034
X0.5548 Y1.5034 Z0.0495 I0.0037 J0.0034
X0.5474 Y1.4966 Z0.049 I-0.0037 J-0.0034
X0.5548 Y1.5034 Z0.0484 I0.0037 J0.0034
X0.5474 Y1.4966 Z0.0479 I-0.0037 J-0.0034
X0.5548 Y1.5034 Z0.0473 I0.0037 J0.0034
X0.5474 Y1.4966 Z0.0468 I-0.0037 J-0.0034
X0.5548 Y1.5034 Z0.0462 I0.0037 J0.0034
X0.5474 Y1.4966 Z0.0457 I-0.0037 J-0.0034
X0.5548 Y1.5034 Z0.0451 I0.0037 J0.0034
X0.5474 Y1.4966 Z0.0446 I-0.0037 J-0.0034
X0.5548 Y1.5034 Z0.044 I0.0037 J0.0034
X0.5474 Y1.4966 Z0.0435 I-0.0037 J-0.0034
X0.5548 Y1.5034 Z0.043 I0.0037 J0.0034
X0.5474 Y1.4966 Z0.0424 I-0.0037 J-0.0034
X0.5548 Y1.5034 Z0.0419 I0.0037 J0.0034
X0.5474 Y1.4966 Z0.0413 I-0.0037 J-0.0034
X0.5548 Y1.5034 Z0.0408 I0.0037 J0.0034
X0.5474 Y1.4966 Z0.0402 I-0.0037 J-0.0034
X0.5548 Y1.5034 Z0.0397 I0.0037 J0.0034
X0.5474 Y1.4966 Z0.0391 I-0.0037 J-0.0034
X0.5548 Y1.5034 Z0.0386 I0.0037 J0.0034
X0.5474 Y1.4966 Z0.038 I-0.0037 J-0.0034
X0.5548 Y1.5034 Z0.0375 I0.0037 J0.0034
X0.5474 Y1.4966 Z0.0369 I-0.0037 J-0.0034
X0.5548 Y1.5034 Z0.0364 I0.0037 J0.0034
X0.5474 Y1.4966 Z0.0358 I-0.0037 J-0.0034
X0.5548 Y1.5034 Z0.0353 I0.0037 J0.0034
X0.5474 Y1.4966 Z0.0347 I-0.0037 J-0.0034
X0.5548 Y1.5034 Z0.0342 I0.0037 J0.0034
X0.5474 Y1.4966 Z0.0336 I-0.0037 J-0.0034
X0.5548 Y1.5034 Z0.0331 I0.0037 J0.0034
X0.5474 Y1.4966 Z0.0325 I-0.0037 J-0.0034
X0.5548 Y1.5034 Z0.032 I0.0037 J0.0034
X0.5474 Y1.4966 Z0.0314 I-0.0037 J-0.0034
X0.5548 Y1.5034 Z0.0309 I0.0037 J0.0034
X0.5474 Y1.4966 Z0.0303 I-0.0037 J-0.0034
X0.5548 Y1.5034 Z0.0298 I0.0037 J0.0034
X0.5474 Y1.4966 Z0.0292 I-0.0037 J-0.0034
X0.5548 Y1.5034 Z0.0287 I0.0037 J0.0034
X0.5474 Y1.4966 Z0.0281 I-0.0037 J-0.0034
X0.5548 Y1.5034 Z0.0276 I0.0037 J0.0034
X0.5474 Y1.4966 Z0.027 I-0.0037 J-0.0034
X0.5548 Y1.5034 Z0.0265 I0.0037 J0.0034
X0.5474 Y1.4966 Z0.0259 I-0.0037 J-0.0034
X0.5548 Y1.5034 Z0.0254 I0.0037 J0.0034
X0.5474 Y1.4966 Z0.0249 I-0.0037 J-0.0034
X0.5548 Y1.5034 Z0.0243 I0.0037 J0.0034
X0.5474 Y1.4966 Z0.0238 I-0.0037 J-0.0034
X0.5548 Y1.5034 Z0.0232 I0.0037 J0.0034
X0.5474 Y1.4966 Z0.0227 I-0.0037 J-0.0034
X0.5548 Y1.5034 Z0.0221 I0.0037 J0.0034
X0.5474 Y1.4966 Z0.0216 I-0.0037 J-0.0034
X0.5548 Y1.5034 Z0.021 I0.0037 J0.0034
X0.5474 Y1.4966 Z0.0205 I-0.0037 J-0.0034
X0.5548 Y1.5034 Z0.0199 I0.0037 J0.0034
X0.5474 Y1.4966 Z0.0194 I-0.0037 J-0.0034
X0.5548 Y1.5034 Z0.0188 I0.0037 J0.0034
X0.5474 Y1.4966 Z0.0183 I-0.0037 J-0.0034
X0.5548 Y1.5034 Z0.0177 I0.0037 J0.0034
X0.5474 Y1.4966 Z0.0172 I-0.0037 J-0.0034
X0.5548 Y1.5034 Z0.0166 I0.0037 J0.0034
X0.5474 Y1.4966 Z0.0161 I-0.0037 J-0.0034
X0.5548 Y1.5034 Z0.0155 I0.0037 J0.0034
X0.5474 Y1.4966 Z0.015 I-0.0037 J-0.0034
X0.5548 Y1.5034 Z0.0144 I0.0037 J0.0034
X0.5474 Y1.4966 Z0.0139 I-0.0037 J-0.0034
X0.5548 Y1.5034 Z0.0133 I0.0037 J0.0034
X0.5474 Y1.4966 Z0.0128 I-0.0037 J-0.0034
X0.5548 Y1.5034 Z0.0122 I0.0037 J0.0034
X0.5474 Y1.4966 Z0.0117 I-0.0037 J-0.0034
X0.5548 Y1.5034 Z0.0111 I0.0037 J0.0034
X0.5474 Y1.4966 Z0.0106 I-0.0037 J-0.0034
X0.5548 Y1.5034 Z0.01 I0.0037 J0.0034
X0.5474 Y1.4966 Z0.0095 I-0.0037 J-0.0034
X0.5548 Y1.5034 Z0.0089 I0.0037 J0.0034
X0.5474 Y1.4966 Z0.0084 I-0.0037 J-0.0034
X0.5548 Y1.5034 Z0.0078 I0.0037 J0.0034
X0.5474 Y1.4966 Z0.0073 I-0.0037 J-0.0034
X0.5548 Y1.5034 Z0.0067 I0.0037 J0.0034
X0.5474 Y1.4966 Z0.0062 I-0.0037 J-0.0034
X0.5548 Y1.5034 Z0.0057 I0.0037 J0.0034
X0.5474 Y1.4966 Z0.0051 I-0.0037 J-0.0034
X0.5548 Y1.5034 Z0.0046 I0.0037 J0.0034
X0.5474 Y1.4966 Z0.004 I-0.0037 J-0.0034
X0.5548 Y1.5034 Z0.0035 I0.0037 J0.0034
X0.5474 Y1.4966 Z0.0029 I-0.0037 J-0.0034
X0.5548 Y1.5034 Z0.0024 I0.0037 J0.0034
X0.5474 Y1.4966 Z0.0018 I-0.0037 J-0.0034
X0.5548 Y1.5034 Z0.0013 I0.0037 J0.0034
X0.5474 Y1.4966 Z0.0007 I-0.0037 J-0.0034
X0.5548 Y1.5034 Z0.0002 I0.0037 J0.0034
X0.5474 Y1.4966 Z-0.0004 I-0.0037 J-0.0034
X0.5548 Y1.5034 Z-0.0009 I0.0037 J0.0034
X0.5474 Y1.4966 Z-0.0015 I-0.0037 J-0.0034
X0.5548 Y1.5034 Z-0.002 I0.0037 J0.0034
X0.5474 Y1.4966 Z-0.0026 I-0.0037 J-0.0034
X0.5548 Y1.5034 Z-0.0031 I0.0037 J0.0034
X0.5474 Y1.4966 Z-0.0037 I-0.0037 J-0.0034
X0.5548 Y1.5034 Z-0.0042 I0.0037 J0.0034
X0.5474 Y1.4966 Z-0.0048 I-0.0037 J-0.0034
X0.5548 Y1.5034 Z-0.0053 I0.0037 J0.0034
X0.5474 Y1.4966 Z-0.0059 I-0.0037 J-0.0034
X0.5548 Y1.5034 Z-0.0064 I0.0037 J0.0034
X0.5474 Y1.4966 Z-0.007 I-0.0037 J-0.0034
X0.5548 Y1.5034 Z-0.0075 I0.0037 J0.0034
X0.5474 Y1.4966 Z-0.0081 I-0.0037 J-0.0034
X0.5548 Y1.5034 Z-0.0086 I0.0037 J0.0034
X0.5474 Y1.4966 Z-0.0092 I-0.0037 J-0.0034
X0.5548 Y1.5034 Z-0.0097 I0.0037 J0.0034
X0.5474 Y1.4966 Z-0.0103 I-0.0037 J-0.0034
X0.5548 Y1.5034 Z-0.0108 I0.0037 J0.0034
X0.5474 Y1.4966 Z-0.0114 I-0.0037 J-0.0034
X0.5548 Y1.5034 Z-0.0119 I0.0037 J0.0034
X0.5474 Y1.4966 Z-0.0124 I-0.0037 J-0.0034
X0.5548 Y1.5034 Z-0.013 I0.0037 J0.0034
X0.5474 Y1.4966 Z-0.0135 I-0.0037 J-0.0034
X0.5548 Y1.5034 Z-0.0141 I0.0037 J0.0034
X0.5474 Y1.4966 Z-0.0146 I-0.0037 J-0.0034
X0.5548 Y1.5034 Z-0.0152 I0.0037 J0.0034
X0.5474 Y1.4966 Z-0.0157 I-0.0037 J-0.0034
X0.5548 Y1.5034 Z-0.0163 I0.0037 J0.0034
X0.5474 Y1.4966 Z-0.0168 I-0.0037 J-0.0034
X0.5548 Y1.5034 Z-0.0174 I0.0037 J0.0034
X0.5474 Y1.4966 Z-0.0179 I-0.0037 J-0.0034
X0.5548 Y1.5034 Z-0.0185 I0.0037 J0.0034
X0.5474 Y1.4966 Z-0.019 I-0.0037 J-0.0034
X0.5548 Y1.5034 Z-0.0196 I0.0037 J0.0034
X0.5461 Y1.5 Z-0.02 I-0.0037 J-0.0034
X0.566 I0.0099 J0. F40.
X0.434 I-0.066 J0.
X0.566 I0.066 J0.
X0.5547 Y1.5073 I-0.008 J0.
G1 X0.5505 Y1.505
G3 X0.5517 Y1.495 Z-0.0205 I0.0006 J-0.005 F20.
X0.5505 Y1.505 Z-0.0211 I-0.0006 J0.005
X0.5517 Y1.495 Z-0.0216 I0.0006 J-0.005
X0.5505 Y1.505 Z-0.0222 I-0.0006 J0.005
X0.5517 Y1.495 Z-0.0227 I0.0006 J-0.005
X0.5505 Y1.505 Z-0.0233 I-0.0006 J0.005
X0.5517 Y1.495 Z-0.0238 I0.0006 J-0.005
X0.5505 Y1.505 Z-0.0244 I-0.0006 J0.005
X0.5517 Y1.495 Z-0.0249 I0.0006 J-0.005
X0.5505 Y1.505 Z-0.0255 I-0.0006 J0.005
X0.5517 Y1.495 Z-0.026 I0.0006 J-0.005
X0.5505 Y1.505 Z-0.0266 I-0.0006 J0.005
X0.5517 Y1.495 Z-0.0271 I0.0006 J-0.005
X0.5505 Y1.505 Z-0.0277 I-0.0006 J0.005
X0.5517 Y1.495 Z-0.0282 I0.0006 J-0.005
X0.5505 Y1.505 Z-0.0288 I-0.0006 J0.005
X0.5517 Y1.495 Z-0.0293 I0.0006 J-0.005
X0.5505 Y1.505 Z-0.0299 I-0.0006 J0.005
X0.5517 Y1.495 Z-0.0304 I0.0006 J-0.005
X0.5505 Y1.505 Z-0.031 I-0.0006 J0.005
X0.5517 Y1.495 Z-0.0315 I0.0006 J-0.005
X0.5505 Y1.505 Z-0.0321 I-0.0006 J0.005
X0.5517 Y1.495 Z-0.0326 I0.0006 J-0.005
X0.5505 Y1.505 Z-0.0332 I-0.0006 J0.005
X0.5517 Y1.495 Z-0.0337 I0.0006 J-0.005
X0.5505 Y1.505 Z-0.0343 I-0.0006 J0.005
X0.5517 Y1.495 Z-0.0348 I0.0006 J-0.005
X0.5505 Y1.505 Z-0.0354 I-0.0006 J0.005
X0.5517 Y1.495 Z-0.0359 I0.0006 J-0.005
X0.5505 Y1.505 Z-0.0365 I-0.0006 J0.005
X0.5517 Y1.495 Z-0.037 I0.0006 J-0.005
X0.5505 Y1.505 Z-0.0376 I-0.0006 J0.005
X0.5517 Y1.495 Z-0.0381 I0.0006 J-0.005
X0.5505 Y1.505 Z-0.0387 I-0.0006 J0.005
X0.5517 Y1.495 Z-0.0392 I0.0006 J-0.005
X0.5505 Y1.505 Z-0.0397 I-0.0006 J0.005
X0.5461 Y1.5 Z-0.04 I0.0006 J-0.005
X0.566 I0.0099 J0. F40.
X0.434 I-0.066 J0.
X0.566 I0.066 J0.
X0.5547 Y1.5073 I-0.008 J0.
G1 X0.5505 Y1.505
G3 X0.5517 Y1.495 Z-0.0405 I0.0006 J-0.005 F20.
X0.5505 Y1.505 Z-0.0411 I-0.0006 J0.005
X0.5517 Y1.495 Z-0.0416 I0.0006 J-0.005
X0.5505 Y1.505 Z-0.0422 I-0.0006 J0.005
X0.5517 Y1.495 Z-0.0427 I0.0006 J-0.005
X0.5505 Y1.505 Z-0.0433 I-0.0006 J0.005
X0.5517 Y1.495 Z-0.0438 I0.0006 J-0.005
X0.5505 Y1.505 Z-0.0444 I-0.0006 J0.005
X0.5517 Y1.495 Z-0.0449 I0.0006 J-0.005
X0.5505 Y1.505 Z-0.0455 I-0.0006 J0.005
X0.5517 Y1.495 Z-0.046 I0.0006 J-0.005
X0.5505 Y1.505 Z-0.0466 I-0.0006 J0.005
X0.5517 Y1.495 Z-0.0471 I0.0006 J-0.005
X0.5505 Y1.505 Z-0.0477 I-0.0006 J0.005
X0.5517 Y1.495 Z-0.0482 I0.0006 J-0.005
X0.5505 Y1.505 Z-0.0488 I-0.0006 J0.005
X0.5517 Y1.495 Z-0.0493 I0.0006 J-0.005
X0.5505 Y1.505 Z-0.0499 I-0.0006 J0.005
X0.5517 Y1.495 Z-0.0504 I0.0006 J-0.005
X0.5505 Y1.505 Z-0.051 I-0.0006 J0.005
X0.5517 Y1.495 Z-0.0515 I0.0006 J-0.005
X0.5505 Y1.505 Z-0.0521 I-0.0006 J0.005
X0.5517 Y1.495 Z-0.0526 I0.0006 J-0.005
X0.5505 Y1.505 Z-0.0532 I-0.0006 J0.005
X0.5517 Y1.495 Z-0.0537 I0.0006 J-0.005
X0.5505 Y1.505 Z-0.0543 I-0.0006 J0.005
X0.5517 Y1.495 Z-0.0548 I0.0006 J-0.005
X0.5505 Y1.505 Z-0.0554 I-0.0006 J0.005
X0.5517 Y1.495 Z-0.0559 I0.0006 J-0.005
X0.5505 Y1.505 Z-0.0565 I-0.0006 J0.005
X0.5517 Y1.495 Z-0.057 I0.0006 J-0.005
X0.5505 Y1.505 Z-0.0576 I-0.0006 J0.005
X0.5517 Y1.495 Z-0.0581 I0.0006 J-0.005
X0.5505 Y1.505 Z-0.0587 I-0.0006 J0.005
X0.5517 Y1.495 Z-0.0592 I0.0006 J-0.005
X0.5505 Y1.505 Z-0.0597 I-0.0006 J0.005
X0.5461 Y1.5 Z-0.06 I0.0006 J-0.005
X0.566 I0.0099 J0. F40.
X0.434 I-0.066 J0.
X0.566 I0.066 J0.
X0.5547 Y1.5073 I-0.008 J0.
G1 X0.5505 Y1.505
G3 X0.5517 Y1.495 Z-0.0605 I0.0006 J-0.005 F20.
X0.5505 Y1.505 Z-0.0611 I-0.0006 J0.005
X0.5517 Y1.495 Z-0.0616 I0.0006 J-0.005
X0.5505 Y1.505 Z-0.0622 I-0.0006 J0.005
X0.5517 Y1.495 Z-0.0627 I0.0006 J-0.005
X0.5505 Y1.505 Z-0.0633 I-0.0006 J0.005
X0.5517 Y1.495 Z-0.0638 I0.0006 J-0.005
X0.5505 Y1.505 Z-0.0644 I-0.0006 J0.005
X0.5517 Y1.495 Z-0.0649 I0.0006 J-0.005
X0.5505 Y1.505 Z-0.0655 I-0.0006 J0.005
X0.5517 Y1.495 Z-0.066 I0.0006 J-0.005
X0.5505 Y1.505 Z-0.0666 I-0.0006 J0.005
X0.5517 Y1.495 Z-0.0671 I0.0006 J-0.005
X0.5505 Y1.505 Z-0.0677 I-0.0006 J0.005
X0.5517 Y1.495 Z-0.0682 I0.0006 J-0.005
X0.5505 Y1.505 Z-0.0688 I-0.0006 J0.005
X0.5517 Y1.495 Z-0.0693 I0.0006 J-0.005
X0.5505 Y1.505 Z-0.0699 I-0.0006 J0.005
X0.5517 Y1.495 Z-0.0704 I0.0006 J-0.005
X0.5505 Y1.505 Z-0.071 I-0.0006 J0.005
X0.5517 Y1.495 Z-0.0715 I0.0006 J-0.005
X0.5505 Y1.505 Z-0.0721 I-0.0006 J0.005
X0.5517 Y1.495 Z-0.0726 I0.0006 J-0.005
X0.5505 Y1.505 Z-0.0732 I-0.0006 J0.005
X0.5517 Y1.495 Z-0.0737 I0.0006 J-0.005
X0.5505 Y1.505 Z-0.0743 I-0.0006 J0.005
X0.5517 Y1.495 Z-0.0748 I0.0006 J-0.005
X0.5505 Y1.505 Z-0.0754 I-0.0006 J0.005
X0.5517 Y1.495 Z-0.0759 I0.0006 J-0.005
X0.5505 Y1.505 Z-0.0765 I-0.0006 J0.005
X0.5517 Y1.495 Z-0.077 I0.0006 J-0.005
X0.5505 Y1.505 Z-0.0776 I-0.0006 J0.005
X0.5517 Y1.495 Z-0.0781 I0.0006 J-0.005
X0.5505 Y1.505 Z-0.0787 I-0.0006 J0.005
X0.5517 Y1.495 Z-0.0792 I0.0006 J-0.005
X0.5505 Y1.505 Z-0.0797 I-0.0006 J0.005
X0.5461 Y1.5 Z-0.08 I0.0006 J-0.005
X0.566 I0.0099 J0. F40.
X0.434 I-0.066 J0.
X0.566 I0.066 J0.
X0.5547 Y1.5073 I-0.008 J0.
G1 X0.5505 Y1.505
G3 X0.5517 Y1.495 Z-0.0805 I0.0006 J-0.005 F20.
X0.5505 Y1.505 Z-0.0811 I-0.0006 J0.005
X0.5517 Y1.495 Z-0.0816 I0.0006 J-0.005
X0.5505 Y1.505 Z-0.0822 I-0.0006 J0.005
X0.5517 Y1.495 Z-0.0827 I0.0006 J-0.005
X0.5505 Y1.505 Z-0.0833 I-0.0006 J0.005
X0.5517 Y1.495 Z-0.0838 I0.0006 J-0.005
X0.5505 Y1.505 Z-0.0844 I-0.0006 J0.005
X0.5517 Y1.495 Z-0.0849 I0.0006 J-0.005
X0.5505 Y1.505 Z-0.0855 I-0.0006 J0.005
X0.5517 Y1.495 Z-0.086 I0.0006 J-0.005
X0.5505 Y1.505 Z-0.0866 I-0.0006 J0.005
X0.5517 Y1.495 Z-0.0871 I0.0006 J-0.005
X0.5505 Y1.505 Z-0.0877 I-0.0006 J0.005
X0.5517 Y1.495 Z-0.0882 I0.0006 J-0.005
X0.5505 Y1.505 Z-0.0888 I-0.0006 J0.005
X0.5517 Y1.495 Z-0.0893 I0.0006 J-0.005
X0.5505 Y1.505 Z-0.0899 I-0.0006 J0.005
X0.5517 Y1.495 Z-0.0904 I0.0006 J-0.005
X0.5505 Y1.505 Z-0.091 I-0.0006 J0.005
X0.5517 Y1.495 Z-0.0915 I0.0006 J-0.005
X0.5505 Y1.505 Z-0.0921 I-0.0006 J0.005
X0.5517 Y1.495 Z-0.0926 I0.0006 J-0.005
X0.5505 Y1.505 Z-0.0932 I-0.0006 J0.005
X0.5517 Y1.495 Z-0.0937 I0.0006 J-0.005
X0.5505 Y1.505 Z-0.0943 I-0.0006 J0.005
X0.5517 Y1.495 Z-0.0948 I0.0006 J-0.005
X0.5505 Y1.505 Z-0.0954 I-0.0006 J0.005
X0.5517 Y1.495 Z-0.0959 I0.0006 J-0.005
X0.5505 Y1.505 Z-0.0965 I-0.0006 J0.005
X0.5517 Y1.495 Z-0.097 I0.0006 J-0.005
X0.5505 Y1.505 Z-0.0976 I-0.0006 J0.005
X0.5517 Y1.495 Z-0.0981 I0.0006 J-0.005
X0.5505 Y1.505 Z-0.0987 I-0.0006 J0.005
X0.5517 Y1.495 Z-0.0992 I0.0006 J-0.005
X0.5505 Y1.505 Z-0.0997 I-0.0006 J0.005
X0.5461 Y1.5 Z-0.1 I0.0006 J-0.005
X0.566 I0.0099 J0. F40.
X0.434 I-0.066 J0.
X0.566 I0.066 J0.
X0.5547 Y1.5073 I-0.008 J0.
G1 X0.5505 Y1.505
G3 X0.5517 Y1.495 Z-0.1005 I0.0006 J-0.005 F20.
X0.5505 Y1.505 Z-0.1011 I-0.0006 J0.005
X0.5517 Y1.495 Z-0.1016 I0.0006 J-0.005
X0.5505 Y1.505 Z-0.1022 I-0.0006 J0.005
X0.5517 Y1.495 Z-0.1027 I0.0006 J-0.005
X0.5505 Y1.505 Z-0.1033 I-0.0006 J0.005
X0.5517 Y1.495 Z-0.1038 I0.0006 J-0.005
X0.5505 Y1.505 Z-0.1044 I-0.0006 J0.005
X0.5517 Y1.495 Z-0.1049 I0.0006 J-0.005
X0.5505 Y1.505 Z-0.1055 I-0.0006 J0.005
X0.5517 Y1.495 Z-0.106 I0.0006 J-0.005
X0.5505 Y1.505 Z-0.1066 I-0.0006 J0.005
X0.5517 Y1.495 Z-0.1071 I0.0006 J-0.005
X0.5505 Y1.505 Z-0.1077 I-0.0006 J0.005
X0.5517 Y1.495 Z-0.1082 I0.0006 J-0.005
X0.5505 Y1.505 Z-0.1088 I-0.0006 J0.005
X0.5517 Y1.495 Z-0.1093 I0.0006 J-0.005
X0.5505 Y1.505 Z-0.1099 I-0.0006 J0.005
X0.5517 Y1.495 Z-0.1104 I0.0006 J-0.005
X0.5505 Y1.505 Z-0.111 I-0.0006 J0.005
X0.5517 Y1.495 Z-0.1115 I0.0006 J-0.005
X0.5505 Y1.505 Z-0.1121 I-0.0006 J0.005
X0.5517 Y1.495 Z-0.1126 I0.0006 J-0.005
X0.5505 Y1.505 Z-0.1132 I-0.0006 J0.005
X0.5517 Y1.495 Z-0.1137 I0.0006 J-0.005
X0.5505 Y1.505 Z-0.1143 I-0.0006 J0.005
X0.5517 Y1.495 Z-0.1148 I0.0006 J-0.005
X0.5505 Y1.505 Z-0.1154 I-0.0006 J0.005
X0.5517 Y1.495 Z-0.1159 I0.0006 J-0.005
X0.5505 Y1.505 Z-0.1165 I-0.0006 J0.005
X0.5517 Y1.495 Z-0.117 I0.0006 J-0.005
X0.5505 Y1.505 Z-0.1176 I-0.0006 J0.005
X0.5517 Y1.495 Z-0.1181 I0.0006 J-0.005
X0.5505 Y1.505 Z-0.1187 I-0.0006 J0.005
X0.5517 Y1.495 Z-0.1192 I0.0006 J-0.005
X0.5505 Y1.505 Z-0.1197 I-0.0006 J0.005
X0.5461 Y1.5 Z-0.12 I0.0006 J-0.005
X0.566 I0.0099 J0. F40.
X0.434 I-0.066 J0.
X0.566 I0.066 J0.
G1 X0.5657 Y1.5012
X0.565 Y1.5022
X0.5639 Y1.5027
X0.5627 Y1.5028
X0.5577 Y1.502
X0.5567 Y1.5021
X0.5558 Y1.5024
X0.555 Y1.5031
G3 X0.5472 Y1.4969 Z-0.1205 I-0.0039 J-0.0031 F20.
X0.555 Y1.5031 Z-0.1211 I0.0039 J0.0031
X0.5472 Y1.4969 Z-0.1216 I-0.0039 J-0.0031
X0.555 Y1.5031 Z-0.1222 I0.0039 J0.0031
X0.5472 Y1.4969 Z-0.1227 I-0.0039 J-0.0031
X0.555 Y1.5031 Z-0.1233 I0.0039 J0.0031
X0.5472 Y1.4969 Z-0.1238 I-0.0039 J-0.0031
X0.555 Y1.5031 Z-0.1244 I0.0039 J0.0031
X0.5472 Y1.4969 Z-0.1249 I-0.0039 J-0.0031
X0.555 Y1.5031 Z-0.1255 I0.0039 J0.0031
X0.5472 Y1.4969 Z-0.126 I-0.0039 J-0.0031
X0.555 Y1.5031 Z-0.1266 I0.0039 J0.0031
X0.5472 Y1.4969 Z-0.1271 I-0.0039 J-0.0031
X0.555 Y1.5031 Z-0.1277 I0.0039 J0.0031
X0.5472 Y1.4969 Z-0.1282 I-0.0039 J-0.0031
X0.555 Y1.5031 Z-0.1288 I0.0039 J0.0031
X0.5472 Y1.4969 Z-0.1293 I-0.0039 J-0.0031
X0.555 Y1.5031 Z-0.1299 I0.0039 J0.0031
X0.5472 Y1.4969 Z-0.1304 I-0.0039 J-0.0031
X0.555 Y1.5031 Z-0.131 I0.0039 J0.0031
X0.5472 Y1.4969 Z-0.1315 I-0.0039 J-0.0031
X0.555 Y1.5031 Z-0.1321 I0.0039 J0.0031
X0.5461 Y1.5 Z-0.1325 I-0.0039 J-0.0031
X0.566 I0.0099 J0. F40.
X0.434 I-0.066 J0.
X0.566 I0.066 J0.
G1 X0.5657 Y1.5012
X0.565 Y1.5022
X0.5639 Y1.5027
X0.5627 Y1.5028
X0.5577 Y1.502
X0.5567 Y1.5021
X0.5558 Y1.5024
X0.555 Y1.5031
G3 X0.5472 Y1.4969 Z-0.133 I-0.0039 J-0.0031 F20.
X0.555 Y1.5031 Z-0.1336 I0.0039 J0.0031
X0.5472 Y1.4969 Z-0.1341 I-0.0039 J-0.0031
X0.555 Y1.5031 Z-0.1347 I0.0039 J0.0031
X0.5472 Y1.4969 Z-0.1352 I-0.0039 J-0.0031
X0.555 Y1.5031 Z-0.1358 I0.0039 J0.0031
X0.5472 Y1.4969 Z-0.1363 I-0.0039 J-0.0031
X0.555 Y1.5031 Z-0.1369 I0.0039 J0.0031
X0.5472 Y1.4969 Z-0.1374 I-0.0039 J-0.0031
X0.555 Y1.5031 Z-0.138 I0.0039 J0.0031
X0.5472 Y1.4969 Z-0.1385 I-0.0039 J-0.0031
X0.555 Y1.5031 Z-0.1391 I0.0039 J0.0031
X0.5472 Y1.4969 Z-0.1396 I-0.0039 J-0.0031
X0.555 Y1.5031 Z-0.1402 I0.0039 J0.0031
X0.5472 Y1.4969 Z-0.1407 I-0.0039 J-0.0031
X0.555 Y1.5031 Z-0.1413 I0.0039 J0.0031
X0.5472 Y1.4969 Z-0.1418 I-0.0039 J-0.0031
X0.555 Y1.5031 Z-0.1424 I0.0039 J0.0031
X0.5472 Y1.4969 Z-0.1429 I-0.0039 J-0.0031
X0.555 Y1.5031 Z-0.1435 I0.0039 J0.0031
X0.5472 Y1.4969 Z-0.144 I-0.0039 J-0.0031
X0.555 Y1.5031 Z-0.1446 I0.0039 J0.0031
X0.5461 Y1.5 Z-0.145 I-0.0039 J-0.0031
X0.566 I0.0099 J0. F40.
X0.434 I-0.066 J0.
X0.566 I0.066 J0.
G1 X0.5658 Y1.5022 Z-0.1446
X0.5651 Y1.5044 Z-0.1441
X0.5643 Y1.5061 Z-0.1428
X0.5632 Y1.5077 Z-0.1415
X0.5613 Y1.5094 Z-0.1377
X0.5606 Y1.5099 Z-0.1332
G0 Z0.2
X0.745 Y1.2503
G1 Z0.1118 F40.
X0.7451 Y1.2496 Z0.1075 F20.
X0.7454 Y1.2485 Z0.1057
X0.746 Y1.2475 Z0.1039
X0.7469 Y1.2466 Z0.1029
X0.7479 Y1.2459 Z0.102
X0.7491 Y1.2456 Z0.1011
X0.7507 Y1.2455 Z0.1007
X0.7521 Y1.246 Z0.1004
X0.7534 Y1.2468 Z0.1
G3 X0.7466 Y1.2542 Z0.0995 I-0.0034 J0.0037
X0.7534 Y1.2468 Z0.0989 I0.0034 J-0.0037
X0.7466 Y1.2542 Z0.0984 I-0.0034 J0.0037
X0.7534 Y1.2468 Z0.0978 I0.0034 J-0.0037
X0.7466 Y1.2542 Z0.0973 I-0.0034 J0.0037
X0.7534 Y1.2468 Z0.0967 I0.0034 J-0.0037
X0.7466 Y1.2542 Z0.0962 I-0.0034 J0.0037
X0.7534 Y1.2468 Z0.0956 I0.0034 J-0.0037
X0.7466 Y1.2542 Z0.0951 I-0.0034 J0.0037
X0.7534 Y1.2468 Z0.0945 I0.0034 J-0.0037
X0.7466 Y1.2542 Z0.094 I-0.0034 J0.0037
X0.7534 Y1.2468 Z0.0934 I0.0034 J-0.0037
X0.7466 Y1.2542 Z0.0929 I-0.0034 J0.0037
X0.7534 Y1.2468 Z0.0923 I0.0034 J-0.0037
X0.7466 Y1.2542 Z0.0918 I-0.0034 J0.0037
X0.7534 Y1.2468 Z0.0912 I0.0034 J-0.0037
X0.7466 Y1.2542 Z0.0907 I-0.0034 J0.0037
X0.7534 Y1.2468 Z0.0901 I0.0034 J-0.0037
X0.7466 Y1.2542 Z0.0896 I-0.0034 J0.0037
X0.7534 Y1.2468 Z0.089 I0.0034 J-0.0037
X0.7466 Y1.2542 Z0.0885 I-0.0034 J0.0037
X0.7534 Y1.2468 Z0.0879 I0.0034 J-0.0037
X0.7466 Y1.2542 Z0.0874 I-0.0034 J0.0037
X0.7534 Y1.2468 Z0.0868 I0.0034 J-0.0037
X0.7466 Y1.2542 Z0.0863 I-0.0034 J0.0037
X0.7534 Y1.2468 Z0.0857 I0.0034 J-0.0037
X0.7466 Y1.2542 Z0.0852 I-0.0034 J0.0037
X0.7534 Y1.2468 Z0.0846 I0.0034 J-0.0037
X0.7466 Y1.2542 Z0.0841 I-0.0034 J0.0037
X0.7534 Y1.2468 Z0.0835 I0.0034 J-0.0037
X0.7466 Y1.2542 Z0.083 I-0.0034 J0.0037
X0.7534 Y1.2468 Z0.0824 I0.0034 J-0.0037
X0.7466 Y1.2542 Z0.0819 I-0.0034 J0.0037
X0.7534 Y1.2468 Z0.0813 I0.0034 J-0.0037
X0.7466 Y1.2542 Z0.0808 I-0.0034 J0.0037
X0.7534 Y1.2468 Z0.0803 I0.0034 J-0.0037
X0.7466 Y1.2542 Z0.0797 I-0.0034 J0.0037
X0.7534 Y1.2468 Z0.0792 I0.0034 J-0.0037
X0.7466 Y1.2542 Z0.0786 I-0.0034 J0.0037
X0.7534 Y1.2468 Z0.0781 I0.0034 J-0.0037
X0.7466 Y1.2542 Z0.0775 I-0.0034 J0.0037
X0.7534 Y1.2468 Z0.077 I0.0034 J-0.0037
X0.7466 Y1.2542 Z0.0764 I-0.0034 J0.0037
X0.7534 Y1.2468 Z0.0759 I0.0034 J-0.0037
X0.7466 Y1.2542 Z0.0753 I-0.0034 J0.0037
X0.7534 Y1.2468 Z0.0748 I0.0034 J-0.0037
X0.7466 Y1.2542 Z0.0742 I-0.0034 J0.0037
X0.7534 Y1.2468 Z0.0737 I0.0034 J-0.0037
X0.7466 Y1.2542 Z0.0731 I-0.0034 J0.0037
X0.7534 Y1.2468 Z0.0726 I0.0034 J-0.0037
X0.7466 Y1.2542 Z0.072 I-0.0034 J0.0037
X0.7534 Y1.2468 Z0.0715 I0.0034 J-0.0037
X0.7466 Y1.2542 Z0.0709 I-0.0034 J0.0037
X0.7534 Y1.2468 Z0.0704 I0.0034 J-0.0037
X0.7466 Y1.2542 Z0.0698 I-0.0034 J0.0037
X0.7534 Y1.2468 Z0.0693 I0.0034 J-0.0037
X0.7466 Y1.2542 Z0.0687 I-0.0034 J0.0037
X0.7534 Y1.2468 Z0.0682 I0.0034 J-0.0037
X0.7466 Y1.2542 Z0.0676 I-0.0034 J0.0037
X0.7534 Y1.2468 Z0.0671 I0.0034 J-0.0037
X0.7466 Y1.2542 Z0.0665 I-0.0034 J0.0037
X0.7534 Y1.2468 Z0.066 I0.0034 J-0.0037
X0.7466 Y1.2542 Z0.0654 I-0.0034 J0.0037
X0.7534 Y1.2468 Z0.0649 I0.0034 J-0.0037
X0.7466 Y1.2542 Z0.0643 I-0.0034 J0.0037
X0.7534 Y1.2468 Z0.0638 I0.0034 J-0.0037
X0.7466 Y1.2542 Z0.0632 I-0.0034 J0.0037
X0.7534 Y1.2468 Z0.0627 I0.0034 J-0.0037
X0.7466 Y1.2542 Z0.0622 I-0.0034 J0.0037
X0.7534 Y1.2468 Z0.0616 I0.0034 J-0.0037
X0.7466 Y1.2542 Z0.0611 I-0.0034 J0.0037
X0.7534 Y1.2468 Z0.0605 I0.0034 J-0.0037
X0.7466 Y1.2542 Z0.06 I-0.0034 J0.0037
X0.7534 Y1.2468 Z0.0594 I0.0034 J-0.0037
X0.7466 Y1.2542 Z0.0589 I-0.0034 J0.0037
X0.7534 Y1.2468 Z0.0583 I0.0034 J-0.0037
X0.7466 Y1.2542 Z0.0578 I-0.0034 J0.0037
X0.7534 Y1.2468 Z0.0572 I0.0034 J-0.0037
X0.7466 Y1.2542 Z0.0567 I-0.0034 J0.0037
X0.7534 Y1.2468 Z0.0561 I0.0034 J-0.0037
X0.7466 Y1.2542 Z0.0556 I-0.0034 J0.0037
X0.7534 Y1.2468 Z0.055 I0.0034 J-0.0037
X0.7466 Y1.2542 Z0.0545 I-0.0034 J0.0037
X0.7534 Y1.2468 Z0.0539 I0.0034 J-0.0037
X0.7466 Y1.2542 Z0.0534 I-0.0034 J0.0037
X0.7534 Y1.2468 Z0.0528 I0.0034 J-0.0037
X0.7466 Y1.2542 Z0.0523 I-0.0034 J0.0037
X0.7534 Y1.2468 Z0.0517 I0.0034 J-0.0037
X0.7466 Y1.2542 Z0.0512 I-0.0034 J0.0037
X0.7534 Y1.2468 Z0.0506 I0.0034 J-0.0037
X0.7466 Y1.2542 Z0.0501 I-0.0034 J0.0037
X0.7534 Y1.2468 Z0.0495 I0.0034 J-0.0037
X0.7466 Y1.2542 Z0.049 I-0.0034 J0.0037
X0.7534 Y1.2468 Z0.0484 I0.0034 J-0.0037
X0.7466 Y1.2542 Z0.0479 I-0.0034 J0.0037
X0.7534 Y1.2468 Z0.0473 I0.0034 J-0.0037
X0.7466 Y1.2542 Z0.0468 I-0.0034 J0.0037
X0.7534 Y1.2468 Z0.0462 I0.0034 J-0.0037
X0.7466 Y1.2542 Z0.0457 I-0.0034 J0.0037
X0.7534 Y1.2468 Z0.0451 I0.0034 J-0.0037
X0.7466 Y1.2542 Z0.0446 I-0.0034 J0.0037
X0.7534 Y1.2468 Z0.044 I0.0034 J-0.0037
X0.7466 Y1.2542 Z0.0435 I-0.0034 J0.0037
X0.7534 Y1.2468 Z0.043 I0.0034 J-0.0037
X0.7466 Y1.2542 Z0.0424 I-0.0034 J0.0037
X0.7534 Y1.2468 Z0.0419 I0.0034 J-0.0037
X0.7466 Y1.2542 Z0.0413 I-0.0034 J0.0037
X0.7534 Y1.2468 Z0.0408 I0.0034 J-0.0037
X0.7466 Y1.2542 Z0.0402 I-0.0034 J0.0037
X0.7534 Y1.2468 Z0.0397 I0.0034 J-0.0037
X0.7466 Y1.2542 Z0.0391 I-0.0034 J0.0037
X0.7534 Y1.2468 Z0.0386 I0.0034 J-0.0037
X0.7466 Y1.2542 Z0.038 I-0.0034 J0.0037
X0.7534 Y1.2468 Z0.0375 I0.0034 J-0.0037
X0.7466 Y1.2542 Z0.0369 I-0.0034 J0.0037
X0.7534 Y1.2468 Z0.0364 I0.0034 J-0.0037
X0.7466 Y1.2542 Z0.0358 I-0.0034 J0.0037
X0.7534 Y1.2468 Z0.0353 I0.0034 J-0.0037
X0.7466 Y1.2542 Z0.0347 I-0.0034 J0.0037
X0.7534 Y1.2468 Z0.0342 I0.0034 J-0.0037
X0.7466 Y1.2542 Z0.0336 I-0.0034 J0.0037
X0.7534 Y1.2468 Z0.0331 I0.0034 J-0.0037
X0.7466 Y1.2542 Z0.0325 I-0.0034 J0.0037
X0.7534 Y1.2468 Z0.032 I0.0034 J-0.0037
X0.7466 Y1.2542 Z0.0314 I-0.0034 J0.0037
X0.7534 Y1.2468 Z0.0309 I0.0034 J-0.0037
X0.7466 Y1.2542 Z0.0303 I-0.0034 J0.0037
X0.7534 Y1.2468 Z0.0298 I0.0034 J-0.0037
X0.7466 Y1.2542 Z0.0292 I-0.0034 J0.0037
X0.7534 Y1.2468 Z0.0287 I0.0034 J-0.0037
X0.7466 Y1.2542 Z0.0281 I-0.0034 J0.0037
X0.7534 Y1.2468 Z0.0276 I0.0034 J-0.0037
X0.7466 Y1.2542 Z0.027 I-0.0034 J0.0037
X0.7534 Y1.2468 Z0.0265 I0.0034 J-0.0037
X0.7466 Y1.2542 Z0.0259 I-0.0034 J0.0037
X0.7534 Y1.2468 Z0.0254 I0.0034 J-0.0037
X0.7466 Y1.2542 Z0.0249 I-0.0034 J0.0037
X0.7534 Y1.2468 Z0.0243 I0.0034 J-0.0037
X0.7466 Y1.2542 Z0.0238 I-0.0034 J0.0037
X0.7534 Y1.2468 Z0.0232 I0.0034 J-0.0037
X0.7466 Y1.2542 Z0.0227 I-0.0034 J0.0037
X0.7534 Y1.2468 Z0.0221 I0.0034 J-0.0037
X0.7466 Y1.2542 Z0.0216 I-0.0034 J0.0037
X0.7534 Y1.2468 Z0.021 I0.0034 J-0.0037
X0.7466 Y1.2542 Z0.0205 I-0.0034 J0.0037
X0.7534 Y1.2468 Z0.0199 I0.0034 J-0.0037
X0.7466 Y1.2542 Z0.0194 I-0.0034 J0.0037
X0.7534 Y1.2468 Z0.0188 I0.0034 J-0.0037
X0.7466 Y1.2542 Z0.0183 I-0.0034 J0.0037
X0.7534 Y1.2468 Z0.0177 I0.0034 J-0.0037
X0.7466 Y1.2542 Z0.0172 I-0.0034 J0.0037
X0.7534 Y1.2468 Z0.0166 I0.0034 J-0.0037
X0.7466 Y1.2542 Z0.0161 I-0.0034 J0.0037
X0.7534 Y1.2468 Z0.0155 I0.0034 J-0.0037
X0.7466 Y1.2542 Z0.015 I-0.0034 J0.0037
X0.7534 Y1.2468 Z0.0144 I0.0034 J-0.0037
X0.7466 Y1.2542 Z0.0139 I-0.0034 J0.0037
X0.7534 Y1.2468 Z0.0133 I0.0034 J-0.0037
X0.7466 Y1.2542 Z0.0128 I-0.0034 J0.0037
X0.7534 Y1.2468 Z0.0122 I0.0034 J-0.0037
X0.7466 Y1.2542 Z0.0117 I-0.0034 J0.0037
X0.7534 Y1.2468 Z0.0111 I0.0034 J-0.0037
X0.7466 Y1.2542 Z0.0106 I-0.0034 J0.0037
X0.7534 Y1.2468 Z0.01 I0.0034 J-0.0037
X0.7466 Y1.2542 Z0.0095 I-0.0034 J0.0037
X0.7534 Y1.2468 Z0.0089 I0.0034 J-0.0037
X0.7466 Y1.2542 Z0.0084 I-0.0034 J0.0037
X0.7534 Y1.2468 Z0.0078 I0.0034 J-0.0037
X0.7466 Y1.2542 Z0.0073 I-0.0034 J0.0037
X0.7534 Y1.2468 Z0.0067 I0.0034 J-0.0037
X0.7466 Y1.2542 Z0.0062 I-0.0034 J0.0037
X0.7534 Y1.2468 Z0.0057 I0.0034 J-0.0037
X0.7466 Y1.2542 Z0.0051 I-0.0034 J0.0037
X0.7534 Y1.2468 Z0.0046 I0.0034 J-0.0037
X0.7466 Y1.2542 Z0.004 I-0.0034 J0.0037
X0.7534 Y1.2468 Z0.0035 I0.0034 J-0.0037
X0.7466 Y1.2542 Z0.0029 I-0.0034 J0.0037
X0.7534 Y1.2468 Z0.0024 I0.0034 J-0.0037
X0.7466 Y1.2542 Z0.0018 I-0.0034 J0.0037
X0.7534 Y1.2468 Z0.0013 I0.0034 J-0.0037
X0.7466 Y1.2542 Z0.0007 I-0.0034 J0.0037
X0.7534 Y1.2468 Z0.0002 I0.0034 J-0.0037
X0.7466 Y1.2542 Z-0.0004 I-0.0034 J0.0037
X0.7534 Y1.2468 Z-0.0009 I0.0034 J-0.0037
X0.7466 Y1.2542 Z-0.0015 I-0.0034 J0.0037
X0.7534 Y1.2468 Z-0.002 I0.0034 J-0.0037
X0.7466 Y1.2542 Z-0.0026 I-0.0034 J0.0037
X0.7534 Y1.2468 Z-0.0031 I0.0034 J-0.0037
X0.7466 Y1.2542 Z-0.0037 I-0.0034 J0.0037
X0.7534 Y1.2468 Z-0.0042 I0.0034 J-0.0037
X0.7466 Y1.2542 Z-0.0048 I-0.0034 J0.0037
X0.7534 Y1.2468 Z-0.0053 I0.0034 J-0.0037
X0.7466 Y1.2542 Z-0.0059 I-0.0034 J0.0037
X0.7534 Y1.2468 Z-0.0064 I0.0034 J-0.0037
X0.7466 Y1.2542 Z-0.007 I-0.0034 J0.0037
X0.7534 Y1.2468 Z-0.0075 I0.0034 J-0.0037
X0.7466 Y1.2542 Z-0.0081 I-0.0034 J0.0037
X0.7534 Y1.2468 Z-0.0086 I0.0034 J-0.0037
X0.7466 Y1.2542 Z-0.0092 I-0.0034 J0.0037
X0.7534 Y1.2468 Z-0.0097 I0.0034 J-0.0037
X0.7466 Y1.2542 Z-0.0103 I-0.0034 J0.0037
X0.7534 Y1.2468 Z-0.0108 I0.0034 J-0.0037
X0.7466 Y1.2542 Z-0.0114 I-0.0034 J0.0037
X0.7534 Y1.2468 Z-0.0119 I0.0034 J-0.0037
X0.7466 Y1.2542 Z-0.0124 I-0.0034 J0.0037
X0.7534 Y1.2468 Z-0.013 I0.0034 J-0.0037
X0.7466 Y1.2542 Z-0.0135 I-0.0034 J0.0037
X0.7534 Y1.2468 Z-0.0141 I0.0034 J-0.0037
X0.7466 Y1.2542 Z-0.0146 I-0.0034 J0.0037
X0.7534 Y1.2468 Z-0.0152 I0.0034 J-0.0037
X0.7466 Y1.2542 Z-0.0157 I-0.0034 J0.0037
X0.7534 Y1.2468 Z-0.0163 I0.0034 J-0.0037
X0.7466 Y1.2542 Z-0.0168 I-0.0034 J0.0037
X0.7534 Y1.2468 Z-0.0174 I0.0034 J-0.0037
X0.7466 Y1.2542 Z-0.0179 I-0.0034 J0.0037
X0.7534 Y1.2468 Z-0.0185 I0.0034 J-0.0037
X0.7466 Y1.2542 Z-0.019 I-0.0034 J0.0037
X0.7534 Y1.2468 Z-0.0196 I0.0034 J-0.0037
X0.75 Y1.2555 Z-0.02 I-0.0034 J0.0037
Y1.2445 I0. J-0.0055 F40.
Y1.2555 I0. J0.0055
Y1.2445 Z-0.0206 I0. J-0.0055 F20.
Y1.2555 Z-0.0212 I0. J0.0055
Y1.2445 Z-0.0218 I0. J-0.0055
Y1.2555 Z-0.0224 I0. J0.0055
Y1.2445 Z-0.023 I0. J-0.0055
Y1.2555 Z-0.0236 I0. J0.0055
Y1.2445 Z-0.0242 I0. J-0.0055
Y1.2555 Z-0.0248 I0. J0.0055
Y1.2445 Z-0.0254 I0. J-0.0055
Y1.2555 Z-0.026 I0. J0.0055
Y1.2445 Z-0.0266 I0. J-0.0055
Y1.2555 Z-0.0272 I0. J0.0055
Y1.2445 Z-0.0278 I0. J-0.0055
Y1.2555 Z-0.0284 I0. J0.0055
Y1.2445 Z-0.0291 I0. J-0.0055
Y1.2555 Z-0.0297 I0. J0.0055
Y1.2445 Z-0.0303 I0. J-0.0055
Y1.2555 Z-0.0309 I0. J0.0055
Y1.2445 Z-0.0315 I0. J-0.0055
Y1.2555 Z-0.0321 I0. J0.0055
Y1.2445 Z-0.0327 I0. J-0.0055
Y1.2555 Z-0.0333 I0. J0.0055
Y1.2445 Z-0.0339 I0. J-0.0055
Y1.2555 Z-0.0345 I0. J0.0055
Y1.2445 Z-0.0351 I0. J-0.0055
Y1.2555 Z-0.0357 I0. J0.0055
Y1.2445 Z-0.0363 I0. J-0.0055
Y1.2555 Z-0.0369 I0. J0.0055
Y1.2445 Z-0.0375 I0. J-0.0055
Y1.2555 Z-0.0381 I0. J0.0055
Y1.2445 Z-0.0387 I0. J-0.0055
Y1.2555 Z-0.0393 I0. J0.0055
Y1.2445 Z-0.0399 I0. J-0.0055
X0.7524 Y1.2451 Z-0.04 I0. J0.0055
X0.7476 Y1.2549 I-0.0024 J0.0049 F40.
X0.7524 Y1.2451 I0.0024 J-0.0049
X0.7476 Y1.2549 Z-0.0406 I-0.0024 J0.0049 F20.
X0.7524 Y1.2451 Z-0.0412 I0.0024 J-0.0049
X0.7476 Y1.2549 Z-0.0418 I-0.0024 J0.0049
X0.7524 Y1.2451 Z-0.0424 I0.0024 J-0.0049
X0.7476 Y1.2549 Z-0.043 I-0.0024 J0.0049
X0.7524 Y1.2451 Z-0.0436 I0.0024 J-0.0049
X0.7476 Y1.2549 Z-0.0442 I-0.0024 J0.0049
X0.7524 Y1.2451 Z-0.0448 I0.0024 J-0.0049
X0.7476 Y1.2549 Z-0.0454 I-0.0024 J0.0049
X0.7524 Y1.2451 Z-0.046 I0.0024 J-0.0049
X0.7476 Y1.2549 Z-0.0466 I-0.0024 J0.0049
X0.7524 Y1.2451 Z-0.0472 I0.0024 J-0.0049
X0.7476 Y1.2549 Z-0.0478 I-0.0024 J0.0049
X0.7524 Y1.2451 Z-0.0484 I0.0024 J-0.0049
X0.7476 Y1.2549 Z-0.0491 I-0.0024 J0.0049
X0.7524 Y1.2451 Z-0.0497 I0.0024 J-0.0049
X0.7476 Y1.2549 Z-0.0503 I-0.0024 J0.0049
X0.7524 Y1.2451 Z-0.0509 I0.0024 J-0.0049
X0.7476 Y1.2549 Z-0.0515 I-0.0024 J0.0049
X0.7524 Y1.2451 Z-0.0521 I0.0024 J-0.0049
X0.7476 Y1.2549 Z-0.0527 I-0.0024 J0.0049
X0.7524 Y1.2451 Z-0.0533 I0.0024 J-0.0049
X0.7476 Y1.2549 Z-0.0539 I-0.0024 J0.0049
X0.7524 Y1.2451 Z-0.0545 I0.0024 J-0.0049
X0.7476 Y1.2549 Z-0.0551 I-0.0024 J0.0049
X0.7524 Y1.2451 Z-0.0557 I0.0024 J-0.0049
X0.7476 Y1.2549 Z-0.0563 I-0.0024 J0.0049
X0.7524 Y1.2451 Z-0.0569 I0.0024 J-0.0049
X0.7476 Y1.2549 Z-0.0575 I-0.0024 J0.0049
X0.7524 Y1.2451 Z-0.0581 I0.0024 J-0.0049
X0.7476 Y1.2549 Z-0.0587 I-0.0024 J0.0049
X0.7524 Y1.2451 Z-0.0593 I0.0024 J-0.0049
X0.7476 Y1.2549 Z-0.0599 I-0.0024 J0.0049
X0.7456 Y1.2533 Z-0.06 I0.0024 J-0.0049
X0.7544 Y1.2467 I0.0044 J-0.0033 F40.
X0.7456 Y1.2533 I-0.0044 J0.0033
X0.7544 Y1.2467 Z-0.0606 I0.0044 J-0.0033 F20.
X0.7456 Y1.2533 Z-0.0612 I-0.0044 J0.0033
X0.7544 Y1.2467 Z-0.0618 I0.0044 J-0.0033
X0.7456 Y1.2533 Z-0.0624 I-0.0044 J0.0033
X0.7544 Y1.2467 Z-0.063 I0.0044 J-0.0033
X0.7456 Y1.2533 Z-0.0636 I-0.0044 J0.0033
X0.7544 Y1.2467 Z-0.0642 I0.0044 J-0.0033
X0.7456 Y1.2533 Z-0.0648 I-0.0044 J0.0033
X0.7544 Y1.2467 Z-0.0654 I0.0044 J-0.0033
X0.7456 Y1.2533 Z-0.066 I-0.0044 J0.0033
X0.7544 Y1.2467 Z-0.0666 I0.0044 J-0.0033
X0.7456 Y1.2533 Z-0.0672 I-0.0044 J0.0033
X0.7544 Y1.2467 Z-0.0678 I0.0044 J-0.0033
X0.7456 Y1.2533 Z-0.0684 I-0.0044 J0.0033
X0.7544 Y1.2467 Z-0.0691 I0.0044 J-0.0033
X0.7456 Y1.2533 Z-0.0697 I-0.0044 J0.0033
X0.7544 Y1.2467 Z-0.0703 I0.0044 J-0.0033
X0.7456 Y1.2533 Z-0.0709 I-0.0044 J0.0033
X0.7544 Y1.2467 Z-0.0715 I0.0044 J-0.0033
X0.7456 Y1.2533 Z-0.0721 I-0.0044 J0.0033
X0.7544 Y1.2467 Z-0.0727 I0.0044 J-0.0033
X0.7456 Y1.2533 Z-0.0733 I-0.0044 J0.0033
X0.7544 Y1.2467 Z-0.0739 I0.0044 J-0.0033
X0.7456 Y1.2533 Z-0.0745 I-0.0044 J0.0033
X0.7544 Y1.2467 Z-0.0751 I0.0044 J-0.0033
X0.7456 Y1.2533 Z-0.0757 I-0.0044 J0.0033
X0.7544 Y1.2467 Z-0.0763 I0.0044 J-0.0033
X0.7456 Y1.2533 Z-0.0769 I-0.0044 J0.0033
X0.7544 Y1.2467 Z-0.0775 I0.0044 J-0.0033
X0.7456 Y1.2533 Z-0.0781 I-0.0044 J0.0033
X0.7544 Y1.2467 Z-0.0787 I0.0044 J-0.0033
X0.7456 Y1.2533 Z-0.0793 I-0.0044 J0.0033
X0.7544 Y1.2467 Z-0.0799 I0.0044 J-0.0033
X0.7554 Y1.2489 Z-0.08 I-0.0044 J0.0033
X0.7446 Y1.2511 I-0.0054 J0.0011 F40.
X0.7554 Y1.2489 I0.0054 J-0.0011
X0.7446 Y1.2511 Z-0.0806 I-0.0054 J0.0011 F20.
X0.7554 Y1.2489 Z-0.0812 I0.0054 J-0.0011
X0.7446 Y1.2511 Z-0.0818 I-0.0054 J0.0011
X0.7554 Y1.2489 Z-0.0824 I0.0054 J-0.0011
X0.7446 Y1.2511 Z-0.083 I-0.0054 J0.0011
X0.7554 Y1.2489 Z-0.0836 I0.0054 J-0.0011
X0.7446 Y1.2511 Z-0.0842 I-0.0054 J0.0011
X0.7554 Y1.2489 Z-0.0848 I0.0054 J-0.0011
X0.7446 Y1.2511 Z-0.0854 I-0.0054 J0.0011
X0.7554 Y1.2489 Z-0.086 I0.0054 J-0.0011
X0.7446 Y1.2511 Z-0.0866 I-0.0054 J0.0011
X0.7554 Y1.2489 Z-0.0872 I0.0054 J-0.0011
X0.7446 Y1.2511 Z-0.0878 I-0.0054 J0.0011
X0.7554 Y1.2489 Z-0.0884 I0.0054 J-0.0011
X0.7446 Y1.2511 Z-0.0891 I-0.0054 J0.0011
X0.7554 Y1.2489 Z-0.0897 I0.0054 J-0.0011
X0.7446 Y1.2511 Z-0.0903 I-0.0054 J0.0011
X0.7554 Y1.2489 Z-0.0909 I0.0054 J-0.0011
X0.7446 Y1.2511 Z-0.0915 I-0.0054 J0.0011
X0.7554 Y1.2489 Z-0.0921 I0.0054 J-0.0011
X0.7446 Y1.2511 Z-0.0927 I-0.0054 J0.0011
X0.7554 Y1.2489 Z-0.0933 I0.0054 J-0.0011
X0.7446 Y1.2511 Z-0.0939 I-0.0054 J0.0011
X0.7554 Y1.2489 Z-0.0945 I0.0054 J-0.0011
X0.7446 Y1.2511 Z-0.0951 I-0.0054 J0.0011
X0.7554 Y1.2489 Z-0.0957 I0.0054 J-0.0011
X0.7446 Y1.2511 Z-0.0963 I-0.0054 J0.0011
X0.7554 Y1.2489 Z-0.0969 I0.0054 J-0.0011
X0.7446 Y1.2511 Z-0.0975 I-0.0054 J0.0011
X0.7554 Y1.2489 Z-0.0981 I0.0054 J-0.0011
X0.7446 Y1.2511 Z-0.0987 I-0.0054 J0.0011
X0.7554 Y1.2489 Z-0.0993 I0.0054 J-0.0011
X0.7446 Y1.2511 Z-0.0999 I-0.0054 J0.0011
X0.7447 Y1.2486 Z-0.1 I0.0054 J-0.0011
X0.7553 Y1.2514 I0.0053 J0.0014 F40.
X0.7447 Y1.2486 I-0.0053 J-0.0014
X0.7553 Y1.2514 Z-0.1006 I0.0053 J0.0014 F20.
X0.7447 Y1.2486 Z-0.1012 I-0.0053 J-0.0014
X0.7553 Y1.2514 Z-0.1018 I0.0053 J0.0014
X0.7447 Y1.2486 Z-0.1024 I-0.0053 J-0.0014
X0.7553 Y1.2514 Z-0.103 I0.0053 J0.0014
X0.7447 Y1.2486 Z-0.1036 I-0.0053 J-0.0014
X0.7553 Y1.2514 Z-0.1042 I0.0053 J0.0014
X0.7447 Y1.2486 Z-0.1048 I-0.0053 J-0.0014
X0.7553 Y1.2514 Z-0.1054 I0.0053 J0.0014
X0.7447 Y1.2486 Z-0.106 I-0.0053 J-0.0014
X0.7553 Y1.2514 Z-0.1066 I0.0053 J0.0014
X0.7447 Y1.2486 Z-0.1072 I-0.0053 J-0.0014
X0.7553 Y1.2514 Z-0.1078 I0.0053 J0.0014
X0.7447 Y1.2486 Z-0.1084 I-0.0053 J-0.0014
X0.7553 Y1.2514 Z-0.1091 I0.0053 J0.0014
X0.7447 Y1.2486 Z-0.1097 I-0.0053 J-0.0014
X0.7553 Y1.2514 Z-0.1103 I0.0053 J0.0014
X0.7447 Y1.2486 Z-0.1109 I-0.0053 J-0.0014
X0.7553 Y1.2514 Z-0.1115 I0.0053 J0.0014
X0.7447 Y1.2486 Z-0.1121 I-0.0053 J-0.0014
X0.7553 Y1.2514 Z-0.1127 I0.0053 J0.0014
X0.7447 Y1.2486 Z-0.1133 I-0.0053 J-0.0014
X0.7553 Y1.2514 Z-0.1139 I0.0053 J0.0014
X0.7447 Y1.2486 Z-0.1145 I-0.0053 J-0.0014
X0.7553 Y1.2514 Z-0.1151 I0.0053 J0.0014
X0.7447 Y1.2486 Z-0.1157 I-0.0053 J-0.0014
X0.7553 Y1.2514 Z-0.1163 I0.0053 J0.0014
X0.7447 Y1.2486 Z-0.1169 I-0.0053 J-0.0014
X0.7553 Y1.2514 Z-0.1175 I0.0053 J0.0014
X0.7447 Y1.2486 Z-0.1181 I-0.0053 J-0.0014
X0.7553 Y1.2514 Z-0.1187 I0.0053 J0.0014
X0.7447 Y1.2486 Z-0.1193 I-0.0053 J-0.0014
X0.7553 Y1.2514 Z-0.1199 I0.0053 J0.0014
X0.7541 Y1.2536 Z-0.12 I-0.0053 J-0.0014
X0.7459 Y1.2464 I-0.0041 J-0.0036 F40.
X0.7541 Y1.2536 I0.0041 J0.0036
X0.7459 Y1.2464 Z-0.1206 I-0.0041 J-0.0036 F20.
X0.7541 Y1.2536 Z-0.1212 I0.0041 J0.0036
X0.7459 Y1.2464 Z-0.1218 I-0.0041 J-0.0036
X0.7541 Y1.2536 Z-0.1224 I0.0041 J0.0036
X0.7459 Y1.2464 Z-0.123 I-0.0041 J-0.0036
X0.7541 Y1.2536 Z-0.1236 I0.0041 J0.0036
X0.7459 Y1.2464 Z-0.1242 I-0.0041 J-0.0036
X0.7541 Y1.2536 Z-0.1248 I0.0041 J0.0036
X0.7459 Y1.2464 Z-0.1254 I-0.0041 J-0.0036
X0.7541 Y1.2536 Z-0.126 I0.0041 J0.0036
X0.7459 Y1.2464 Z-0.1266 I-0.0041 J-0.0036
X0.7541 Y1.2536 Z-0.1272 I0.0041 J0.0036
X0.7459 Y1.2464 Z-0.1278 I-0.0041 J-0.0036
X0.7541 Y1.2536 Z-0.1284 I0.0041 J0.0036
X0.7459 Y1.2464 Z-0.1291 I-0.0041 J-0.0036
X0.7541 Y1.2536 Z-0.1297 I0.0041 J0.0036
X0.7459 Y1.2464 Z-0.1303 I-0.0041 J-0.0036
X0.7541 Y1.2536 Z-0.1309 I0.0041 J0.0036
X0.7459 Y1.2464 Z-0.1315 I-0.0041 J-0.0036
X0.7541 Y1.2536 Z-0.1321 I0.0041 J0.0036
X0.7446 Y1.2509 Z-0.1325 I-0.0041 J-0.0036
X0.7554 Y1.2491 I0.0054 J-0.0009 F40.
X0.7446 Y1.2509 I-0.0054 J0.0009
X0.7554 Y1.2491 Z-0.1331 I0.0054 J-0.0009 F20.
X0.7446 Y1.2509 Z-0.1337 I-0.0054 J0.0009
X0.7554 Y1.2491 Z-0.1343 I0.0054 J-0.0009
X0.7446 Y1.2509 Z-0.1349 I-0.0054 J0.0009
X0.7554 Y1.2491 Z-0.1355 I0.0054 J-0.0009
X0.7446 Y1.2509 Z-0.1361 I-0.0054 J0.0009
X0.7554 Y1.2491 Z-0.1367 I0.0054 J-0.0009
X0.7446 Y1.2509 Z-0.1373 I-0.0054 J0.0009
X0.7554 Y1.2491 Z-0.1379 I0.0054 J-0.0009
X0.7446 Y1.2509 Z-0.1385 I-0.0054 J0.0009
X0.7554 Y1.2491 Z-0.1391 I0.0054 J-0.0009
X0.7446 Y1.2509 Z-0.1397 I-0.0054 J0.0009
X0.7554 Y1.2491 Z-0.1403 I0.0054 J-0.0009
X0.7446 Y1.2509 Z-0.1409 I-0.0054 J0.0009
X0.7554 Y1.2491 Z-0.1416 I0.0054 J-0.0009
X0.7446 Y1.2509 Z-0.1422 I-0.0054 J0.0009
X0.7554 Y1.2491 Z-0.1428 I0.0054 J-0.0009
X0.7446 Y1.2509 Z-0.1434 I-0.0054 J0.0009
X0.7554 Y1.2491 Z-0.144 I0.0054 J-0.0009
X0.7446 Y1.2509 Z-0.1446 I-0.0054 J0.0009
X0.7527 Y1.2452 Z-0.145 I0.0054 J-0.0009
X0.7473 Y1.2548 I-0.0027 J0.0048 F40.
X0.7527 Y1.2452 I0.0027 J-0.0048
G1 X0.7539 Y1.2461 Z-0.1446
X0.7548 Y1.2472 Z-0.1442
X0.7553 Y1.2486 Z-0.1439
X0.7555 Y1.25 Z-0.1435
X0.7553 Y1.2516 Z-0.1422
X0.7546 Y1.253 Z-0.1408
X0.754 Y1.2538 Z-0.1391
X0.7532 Y1.2545 Z-0.1373
X0.7525 Y1.2549 Z-0.1332
G0 Z0.2
X0.755 Y0.7497
G1 Z0.1118 F40.
X0.7549 Y0.7504 Z0.1075 F20.
X0.7546 Y0.7515 Z0.1057
X0.754 Y0.7525 Z0.1039
X0.7531 Y0.7534 Z0.1029
X0.7521 Y0.7541 Z0.102
X0.7509 Y0.7544 Z0.1011
X0.7493 Y0.7545 Z0.1007
X0.7479 Y0.754 Z0.1004
X0.7466 Y0.7532 Z0.1
G3 X0.7534 Y0.7458 Z0.0995 I0.0034 J-0.0037
X0.7466 Y0.7532 Z0.0989 I-0.0034 J0.0037
X0.7534 Y0.7458 Z0.0984 I0.0034 J-0.0037
X0.7466 Y0.7532 Z0.0978 I-0.0034 J0.0037
X0.7534 Y0.7458 Z0.0973 I0.0034 J-0.0037
X0.7466 Y0.7532 Z0.0967 I-0.0034 J0.0037
X0.7534 Y0.7458 Z0.0962 I0.0034 J-0.0037
X0.7466 Y0.7532 Z0.0956 I-0.0034 J0.0037
X0.7534 Y0.7458 Z0.0951 I0.0034 J-0.0037
X0.7466 Y0.7532 Z0.0945 I-0.0034 J0.0037
X0.7534 Y0.7458 Z0.094 I0.0034 J-0.0037
X0.7466 Y0.7532 Z0.0934 I-0.0034 J0.0037
X0.7534 Y0.7458 Z0.0929 I0.0034 J-0.0037
X0.7466 Y0.7532 Z0.0923 I-0.0034 J0.0037
X0.7534 Y0.7458 Z0.0918 I0.0034 J-0.0037
X0.7466 Y0.7532 Z0.0912 I-0.0034 J0.0037
X0.7534 Y0.7458 Z0.0907 I0.0034 J-0.0037
X0.7466 Y0.7532 Z0.0901 I-0.0034 J0.0037
X0.7534 Y0.7458 Z0.0896 I0.0034 J-0.0037
X0.7466 Y0.7532 Z0.089 I-0.0034 J0.0037
X0.7534 Y0.7458 Z0.0885 I0.0034 J-0.0037
X0.7466 Y0.7532 Z0.0879 I-0.0034 J0.0037
X0.7534 Y0.7458 Z0.0874 I0.0034 J-0.0037
X0.7466 Y0.7532 Z0.0868 I-0.0034 J0.0037
X0.7534 Y0.7458 Z0.0863 I0.0034 J-0.0037
X0.7466 Y0.7532 Z0.0857 I-0.0034 J0.0037
X0.7534 Y0.7458 Z0.0852 I0.0034 J-0.0037
X0.7466 Y0.7532 Z0.0846 I-0.0034 J0.0037
X0.7534 Y0.7458 Z0.0841 I0.0034 J-0.0037
X0.7466 Y0.7532 Z0.0835 I-0.0034 J0.0037
X0.7534 Y0.7458 Z0.083 I0.0034 J-0.0037
X0.7466 Y0.7532 Z0.0824 I-0.0034 J0.0037
X0.7534 Y0.7458 Z0.0819 I0.0034 J-0.0037
X0.7466 Y0.7532 Z0.0813 I-0.0034 J0.0037
X0.7534 Y0.7458 Z0.0808 I0.0034 J-0.0037
X0.7466 Y0.7532 Z0.0803 I-0.0034 J0.0037
X0.7534 Y0.7458 Z0.0797 I0.0034 J-0.0037
X0.7466 Y0.7532 Z0.0792 I-0.0034 J0.0037
X0.7534 Y0.7458 Z0.0786 I0.0034 J-0.0037
X0.7466 Y0.7532 Z0.0781 I-0.0034 J0.0037
X0.7534 Y0.7458 Z0.0775 I0.0034 J-0.0037
X0.7466 Y0.7532 Z0.077 I-0.0034 J0.0037
X0.7534 Y0.7458 Z0.0764 I0.0034 J-0.0037
X0.7466 Y0.7532 Z0.0759 I-0.0034 J0.0037
X0.7534 Y0.7458 Z0.0753 I0.0034 J-0.0037
X0.7466 Y0.7532 Z0.0748 I-0.0034 J0.0037
X0.7534 Y0.7458 Z0.0742 I0.0034 J-0.0037
X0.7466 Y0.7532 Z0.0737 I-0.0034 J0.0037
X0.7534 Y0.7458 Z0.0731 I0.0034 J-0.0037
X0.7466 Y0.7532 Z0.0726 I-0.0034 J0.0037
X0.7534 Y0.7458 Z0.072 I0.0034 J-0.0037
X0.7466 Y0.7532 Z0.0715 I-0.0034 J0.0037
X0.7534 Y0.7458 Z0.0709 I0.0034 J-0.0037
X0.7466 Y0.7532 Z0.0704 I-0.0034 J0.0037
X0.7534 Y0.7458 Z0.0698 I0.0034 J-0.0037
X0.7466 Y0.7532 Z0.0693 I-0.0034 J0.0037
X0.7534 Y0.7458 Z0.0687 I0.0034 J-0.0037
X0.7466 Y0.7532 Z0.0682 I-0.0034 J0.0037
X0.7534 Y0.7458 Z0.0676 I0.0034 J-0.0037
X0.7466 Y0.7532 Z0.0671 I-0.0034 J0.0037
X0.7534 Y0.7458 Z0.0665 I0.0034 J-0.0037
X0.7466 Y0.7532 Z0.066 I-0.0034 J0.0037
X0.7534 Y0.7458 Z0.0654 I0.0034 J-0.0037
X0.7466 Y0.7532 Z0.0649 I-0.0034 J0.0037
X0.7534 Y0.7458 Z0.0643 I0.0034 J-0.0037
X0.7466 Y0.7532 Z0.0638 I-0.0034 J0.0037
X0.7534 Y0.7458 Z0.0632 I0.0034 J-0.0037
X0.7466 Y0.7532 Z0.0627 I-0.0034 J0.0037
X0.7534 Y0.7458 Z0.0622 I0.0034 J-0.0037
X0.7466 Y0.7532 Z0.0616 I-0.0034 J0.0037
X0.7534 Y0.7458 Z0.0611 I0.0034 J-0.0037
X0.7466 Y0.7532 Z0.0605 I-0.0034 J0.0037
X0.7534 Y0.7458 Z0.06 I0.0034 J-0.0037
X0.7466 Y0.7532 Z0.0594 I-0.0034 J0.0037
X0.7534 Y0.7458 Z0.0589 I0.0034 J-0.0037
X0.7466 Y0.7532 Z0.0583 I-0.0034 J0.0037
X0.7534 Y0.7458 Z0.0578 I0.0034 J-0.0037
X0.7466 Y0.7532 Z0.0572 I-0.0034 J0.0037
X0.7534 Y0.7458 Z0.0567 I0.0034 J-0.0037
X0.7466 Y0.7532 Z0.0561 I-0.0034 J0.0037
X0.7534 Y0.7458 Z0.0556 I0.0034 J-0.0037
X0.7466 Y0.7532 Z0.055 I-0.0034 J0.0037
X0.7534 Y0.7458 Z0.0545 I0.0034 J-0.0037
X0.7466 Y0.7532 Z0.0539 I-0.0034 J0.0037
X0.7534 Y0.7458 Z0.0534 I0.0034 J-0.0037
X0.7466 Y0.7532 Z0.0528 I-0.0034 J0.0037
X0.7534 Y0.7458 Z0.0523 I0.0034 J-0.0037
X0.7466 Y0.7532 Z0.0517 I-0.0034 J0.0037
X0.7534 Y0.7458 Z0.0512 I0.0034 J-0.0037
X0.7466 Y0.7532 Z0.0506 I-0.0034 J0.0037
X0.7534 Y0.7458 Z0.0501 I0.0034 J-0.0037
X0.7466 Y0.7532 Z0.0495 I-0.0034 J0.0037
X0.7534 Y0.7458 Z0.049 I0.0034 J-0.0037
X0.7466 Y0.7532 Z0.0484 I-0.0034 J0.0037
X0.7534 Y0.7458 Z0.0479 I0.0034 J-0.0037
X0.7466 Y0.7532 Z0.0473 I-0.0034 J0.0037
X0.7534 Y0.7458 Z0.0468 I0.0034 J-0.0037
X0.7466 Y0.7532 Z0.0462 I-0.0034 J0.0037
X0.7534 Y0.7458 Z0.0457 I0.0034 J-0.0037
X0.7466 Y0.7532 Z0.0451 I-0.0034 J0.0037
X0.7534 Y0.7458 Z0.0446 I0.0034 J-0.0037
X0.7466 Y0.7532 Z0.044 I-0.0034 J0.0037
X0.7534 Y0.7458 Z0.0435 I0.0034 J-0.0037
X0.7466 Y0.7532 Z0.043 I-0.0034 J0.0037
X0.7534 Y0.7458 Z0.0424 I0.0034 J-0.0037
X0.7466 Y0.7532 Z0.0419 I-0.0034 J0.0037
X0.7534 Y0.7458 Z0.0413 I0.0034 J-0.0037
X0.7466 Y0.7532 Z0.0408 I-0.0034 J0.0037
X0.7534 Y0.7458 Z0.0402 I0.0034 J-0.0037
X0.7466 Y0.7532 Z0.0397 I-0.0034 J0.0037
X0.7534 Y0.7458 Z0.0391 I0.0034 J-0.0037
X0.7466 Y0.7532 Z0.0386 I-0.0034 J0.0037
X0.7534 Y0.7458 Z0.038 I0.0034 J-0.0037
X0.7466 Y0.7532 Z0.0375 I-0.0034 J0.0037
X0.7534 Y0.7458 Z0.0369 I0.0034 J-0.0037
X0.7466 Y0.7532 Z0.0364 I-0.0034 J0.0037
X0.7534 Y0.7458 Z0.0358 I0.0034 J-0.0037
X0.7466 Y0.7532 Z0.0353 I-0.0034 J0.0037
X0.7534 Y0.7458 Z0.0347 I0.0034 J-0.0037
X0.7466 Y0.7532 Z0.0342 I-0.0034 J0.0037
X0.7534 Y0.7458 Z0.0336 I0.0034 J-0.0037
X0.7466 Y0.7532 Z0.0331 I-0.0034 J0.0037
X0.7534 Y0.7458 Z0.0325 I0.0034 J-0.0037
X0.7466 Y0.7532 Z0.032 I-0.0034 J0.0037
X0.7534 Y0.7458 Z0.0314 I0.0034 J-0.0037
X0.7466 Y0.7532 Z0.0309 I-0.0034 J0.0037
X0.7534 Y0.7458 Z0.0303 I0.0034 J-0.0037
X0.7466 Y0.7532 Z0.0298 I-0.0034 J0.0037
X0.7534 Y0.7458 Z0.0292 I0.0034 J-0.0037
X0.7466 Y0.7532 Z0.0287 I-0.0034 J0.0037
X0.7534 Y0.7458 Z0.0281 I0.0034 J-0.0037
X0.7466 Y0.7532 Z0.0276 I-0.0034 J0.0037
X0.7534 Y0.7458 Z0.027 I0.0034 J-0.0037
X0.7466 Y0.7532 Z0.0265 I-0.0034 J0.0037
X0.7534 Y0.7458 Z0.0259 I0.0034 J-0.0037
X0.7466 Y0.7532 Z0.0254 I-0.0034 J0.0037
X0.7534 Y0.7458 Z0.0249 I0.0034 J-0.0037
X0.7466 Y0.7532 Z0.0243 I-0.0034 J0.0037
X0.7534 Y0.7458 Z0.0238 I0.0034 J-0.0037
X0.7466 Y0.7532 Z0.0232 I-0.0034 J0.0037
X0.7534 Y0.7458 Z0.0227 I0.0034 J-0.0037
X0.7466 Y0.7532 Z0.0221 I-0.0034 J0.0037
X0.7534 Y0.7458 Z0.0216 I0.0034 J-0.0037
X0.7466 Y0.7532 Z0.021 I-0.0034 J0.0037
X0.7534 Y0.7458 Z0.0205 I0.0034 J-0.0037
X0.7466 Y0.7532 Z0.0199 I-0.0034 J0.0037
X0.7534 Y0.7458 Z0.0194 I0.0034 J-0.0037
X0.7466 Y0.7532 Z0.0188 I-0.0034 J0.0037
X0.7534 Y0.7458 Z0.0183 I0.0034 J-0.0037
X0.7466 Y0.7532 Z0.0177 I-0.0034 J0.0037
X0.7534 Y0.7458 Z0.0172 I0.0034 J-0.0037
X0.7466 Y0.7532 Z0.0166 I-0.0034 J0.0037
X0.7534 Y0.7458 Z0.0161 I0.0034 J-0.0037
X0.7466 Y0.7532 Z0.0155 I-0.0034 J0.0037
X0.7534 Y0.7458 Z0.015 I0.0034 J-0.0037
X0.7466 Y0.7532 Z0.0144 I-0.0034 J0.0037
X0.7534 Y0.7458 Z0.0139 I0.0034 J-0.0037
X0.7466 Y0.7532 Z0.0133 I-0.0034 J0.0037
X0.7534 Y0.7458 Z0.0128 I0.0034 J-0.0037
X0.7466 Y0.7532 Z0.0122 I-0.0034 J0.0037
X0.7534 Y0.7458 Z0.0117 I0.0034 J-0.0037
X0.7466 Y0.7532 Z0.0111 I-0.0034 J0.0037
X0.7534 Y0.7458 Z0.0106 I0.0034 J-0.0037
X0.7466 Y0.7532 Z0.01 I-0.0034 J0.0037
X0.7534 Y0.7458 Z0.0095 I0.0034 J-0.0037
X0.7466 Y0.7532 Z0.0089 I-0.0034 J0.0037
X0.7534 Y0.7458 Z0.0084 I0.0034 J-0.0037
X0.7466 Y0.7532 Z0.0078 I-0.0034 J0.0037
X0.7534 Y0.7458 Z0.0073 I0.0034 J-0.0037
X0.7466 Y0.7532 Z0.0067 I-0.0034 J0.0037
X0.7534 Y0.7458 Z0.0062 I0.0034 J-0.0037
X0.7466 Y0.7532 Z0.0057 I-0.0034 J0.0037
X0.7534 Y0.7458 Z0.0051 I0.0034 J-0.0037
X0.7466 Y0.7532 Z0.0046 I-0.0034 J0.0037
X0.7534 Y0.7458 Z0.004 I0.0034 J-0.0037
X0.7466 Y0.7532 Z0.0035 I-0.0034 J0.0037
X0.7534 Y0.7458 Z0.0029 I0.0034 J-0.0037
X0.7466 Y0.7532 Z0.0024 I-0.0034 J0.0037
X0.7534 Y0.7458 Z0.0018 I0.0034 J-0.0037
X0.7466 Y0.7532 Z0.0013 I-0.0034 J0.0037
X0.7534 Y0.7458 Z0.0007 I0.0034 J-0.0037
X0.7466 Y0.7532 Z0.0002 I-0.0034 J0.0037
X0.7534 Y0.7458 Z-0.0004 I0.0034 J-0.0037
X0.7466 Y0.7532 Z-0.0009 I-0.0034 J0.0037
X0.7534 Y0.7458 Z-0.0015 I0.0034 J-0.0037
X0.7466 Y0.7532 Z-0.002 I-0.0034 J0.0037
X0.7534 Y0.7458 Z-0.0026 I0.0034 J-0.0037
X0.7466 Y0.7532 Z-0.0031 I-0.0034 J0.0037
X0.7534 Y0.7458 Z-0.0037 I0.0034 J-0.0037
X0.7466 Y0.7532 Z-0.0042 I-0.0034 J0.0037
X0.7534 Y0.7458 Z-0.0048 I0.0034 J-0.0037
X0.7466 Y0.7532 Z-0.0053 I-0.0034 J0.0037
X0.7534 Y0.7458 Z-0.0059 I0.0034 J-0.0037
X0.7466 Y0.7532 Z-0.0064 I-0.0034 J0.0037
X0.7534 Y0.7458 Z-0.007 I0.0034 J-0.0037
X0.7466 Y0.7532 Z-0.0075 I-0.0034 J0.0037
X0.7534 Y0.7458 Z-0.0081 I0.0034 J-0.0037
X0.7466 Y0.7532 Z-0.0086 I-0.0034 J0.0037
X0.7534 Y0.7458 Z-0.0092 I0.0034 J-0.0037
X0.7466 Y0.7532 Z-0.0097 I-0.0034 J0.0037
X0.7534 Y0.7458 Z-0.0103 I0.0034 J-0.0037
X0.7466 Y0.7532 Z-0.0108 I-0.0034 J0.0037
X0.7534 Y0.7458 Z-0.0114 I0.0034 J-0.0037
X0.7466 Y0.7532 Z-0.0119 I-0.0034 J0.0037
X0.7534 Y0.7458 Z-0.0124 I0.0034 J-0.0037
X0.7466 Y0.7532 Z-0.013 I-0.0034 J0.0037
X0.7534 Y0.7458 Z-0.0135 I0.0034 J-0.0037
X0.7466 Y0.7532 Z-0.0141 I-0.0034 J0.0037
X0.7534 Y0.7458 Z-0.0146 I0.0034 J-0.0037
X0.7466 Y0.7532 Z-0.0152 I-0.0034 J0.0037
X0.7534 Y0.7458 Z-0.0157 I0.0034 J-0.0037
X0.7466 Y0.7532 Z-0.0163 I-0.0034 J0.0037
X0.7534 Y0.7458 Z-0.0168 I0.0034 J-0.0037
X0.7466 Y0.7532 Z-0.0174 I-0.0034 J0.0037
X0.7534 Y0.7458 Z-0.0179 I0.0034 J-0.0037
X0.7466 Y0.7532 Z-0.0185 I-0.0034 J0.0037
X0.7534 Y0.7458 Z-0.019 I0.0034 J-0.0037
X0.7466 Y0.7532 Z-0.0196 I-0.0034 J0.0037
X0.75 Y0.7445 Z-0.02 I0.0034 J-0.0037
Y0.7555 I0. J0.0055 F40.
Y0.7445 I0. J-0.0055
Y0.7555 Z-0.0206 I0. J0.0055 F20.
Y0.7445 Z-0.0212 I0. J-0.0055
Y0.7555 Z-0.0218 I0. J0.0055
Y0.7445 Z-0.0224 I0. J-0.0055
Y0.7555 Z-0.023 I0. J0.0055
Y0.7445 Z-0.0236 I0. J-0.0055
Y0.7555 Z-0.0242 I0. J0.0055
Y0.7445 Z-0.0248 I0. J-0.0055
Y0.7555 Z-0.0254 I0. J0.0055
Y0.7445 Z-0.026 I0. J-0.0055
Y0.7555 Z-0.0266 I0. J0.0055
Y0.7445 Z-0.0272 I0. J-0.0055
Y0.7555 Z-0.0278 I0. J0.0055
Y0.7445 Z-0.0284 I0. J-0.0055
Y0.7555 Z-0.0291 I0. J0.0055
Y0.7445 Z-0.0297 I0. J-0.0055
Y0.7555 Z-0.0303 I0. J0.0055
Y0.7445 Z-0.0309 I0. J-0.0055
Y0.7555 Z-0.0315 I0. J0.0055
Y0.7445 Z-0.0321 I0. J-0.0055
Y0.7555 Z-0.0327 I0. J0.0055
Y0.7445 Z-0.0333 I0. J-0.0055
Y0.7555 Z-0.0339 I0. J0.0055
Y0.7445 Z-0.0345 I0. J-0.0055
Y0.7555 Z-0.0351 I0. J0.0055
Y0.7445 Z-0.0357 I0. J-0.0055
Y0.7555 Z-0.0363 I0. J0.0055
Y0.7445 Z-0.0369 I0. J-0.0055
Y0.7555 Z-0.0375 I0. J0.0055
Y0.7445 Z-0.0381 I0. J-0.0055
Y0.7555 Z-0.0387 I0. J0.0055
Y0.7445 Z-0.0393 I0. J-0.0055
Y0.7555 Z-0.0399 I0. J0.0055
X0.7476 Y0.7549 Z-0.04 I0. J-0.0055
X0.7524 Y0.7451 I0.0024 J-0.0049 F40.
X0.7476 Y0.7549 I-0.0024 J0.0049
X0.7524 Y0.7451 Z-0.0406 I0.0024 J-0.0049 F20.
X0.7476 Y0.7549 Z-0.0412 I-0.0024 J0.0049
X0.7524 Y0.7451 Z-0.0418 I0.0024 J-0.0049
X0.7476 Y0.7549 Z-0.0424 I-0.0024 J0.0049
X0.7524 Y0.7451 Z-0.043 I0.0024 J-0.0049
X0.7476 Y0.7549 Z-0.0436 I-0.0024 J0.0049
X0.7524 Y0.7451 Z-0.0442 I0.0024 J-0.0049
X0.7476 Y0.7549 Z-0.0448 I-0.0024 J0.0049
X0.7524 Y0.7451 Z-0.0454 I0.0024 J-0.0049
X0.7476 Y0.7549 Z-0.046 I-0.0024 J0.0049
X0.7524 Y0.7451 Z-0.0466 I0.0024 J-0.0049
X0.7476 Y0.7549 Z-0.0472 I-0.0024 J0.0049
X0.7524 Y0.7451 Z-0.0478 I0.0024 J-0.0049
X0.7476 Y0.7549 Z-0.0484 I-0.0024 J0.0049
X0.7524 Y0.7451 Z-0.0491 I0.0024 J-0.0049
X0.7476 Y0.7549 Z-0.0497 I-0.0024 J0.0049
X0.7524 Y0.7451 Z-0.0503 I0.0024 J-0.0049
X0.7476 Y0.7549 Z-0.0509 I-0.0024 J0.0049
X0.7524 Y0.7451 Z-0.0515 I0.0024 J-0.0049
X0.7476 Y0.7549 Z-0.0521 I-0.0024 J0.0049
X0.7524 Y0.7451 Z-0.0527 I0.0024 J-0.0049
X0.7476 Y0.7549 Z-0.0533 I-0.0024 J0.0049
X0.7524 Y0.7451 Z-0.0539 I0.0024 J-0.0049
X0.7476 Y0.7549 Z-0.0545 I-0.0024 J0.0049
X0.7524 Y0.7451 Z-0.0551 I0.0024 J-0.0049
X0.7476 Y0.7549 Z-0.0557 I-0.0024 J0.0049
X0.7524 Y0.7451 Z-0.0563 I0.0024 J-0.0049
X0.7476 Y0.7549 Z-0.0569 I-0.0024 J0.0049
X0.7524 Y0.7451 Z-0.0575 I0.0024 J-0.0049
X0.7476 Y0.7549 Z-0.0581 I-0.0024 J0.0049
X0.7524 Y0.7451 Z-0.0587 I0.0024 J-0.0049
X0.7476 Y0.7549 Z-0.0593 I-0.0024 J0.0049
X0.7524 Y0.7451 Z-0.0599 I0.0024 J-0.0049
X0.7544 Y0.7467 Z-0.06 I-0.0024 J0.0049
X0.7456 Y0.7533 I-0.0044 J0.0033 F40.
X0.7544 Y0.7467 I0.0044 J-0.0033
X0.7456 Y0.7533 Z-0.0606 I-0.0044 J0.0033 F20.
X0.7544 Y0.7467 Z-0.0612 I0.0044 J-0.0033
X0.7456 Y0.7533 Z-0.0618 I-0.0044 J0.0033
X0.7544 Y0.7467 Z-0.0624 I0.0044 J-0.0033
X0.7456 Y0.7533 Z-0.063 I-0.0044 J0.0033
X0.7544 Y0.7467 Z-0.0636 I0.0044 J-0.0033
X0.7456 Y0.7533 Z-0.0642 I-0.0044 J0.0033
X0.7544 Y0.7467 Z-0.0648 I0.0044 J-0.0033
X0.7456 Y0.7533 Z-0.0654 I-0.0044 J0.0033
X0.7544 Y0.7467 Z-0.066 I0.0044 J-0.0033
X0.7456 Y0.7533 Z-0.0666 I-0.0044 J0.0033
X0.7544 Y0.7467 Z-0.0672 I0.0044 J-0.0033
X0.7456 Y0.7533 Z-0.0678 I-0.0044 J0.0033
X0.7544 Y0.7467 Z-0.0684 I0.0044 J-0.0033
X0.7456 Y0.7533 Z-0.0691 I-0.0044 J0.0033
X0.7544 Y0.7467 Z-0.0697 I0.0044 J-0.0033
X0.7456 Y0.7533 Z-0.0703 I-0.0044 J0.0033
X0.7544 Y0.7467 Z-0.0709 I0.0044 J-0.0033
X0.7456 Y0.7533 Z-0.0715 I-0.0044 J0.0033
X0.7544 Y0.7467 Z-0.0721 I0.0044 J-0.0033
X0.7456 Y0.7533 Z-0.0727 I-0.0044 J0.0033
X0.7544 Y0.7467 Z-0.0733 I0.0044 J-0.0033
X0.7456 Y0.7533 Z-0.0739 I-0.0044 J0.0033
X0.7544 Y0.7467 Z-0.0745 I0.0044 J-0.0033
X0.7456 Y0.7533 Z-0.0751 I-0.0044 J0.0033
X0.7544 Y0.7467 Z-0.0757 I0.0044 J-0.0033
X0.7456 Y0.7533 Z-0.0763 I-0.0044 J0.0033
X0.7544 Y0.7467 Z-0.0769 I0.0044 J-0.0033
X0.7456 Y0.7533 Z-0.0775 I-0.0044 J0.0033
X0.7544 Y0.7467 Z-0.0781 I0.0044 J-0.0033
X0.7456 Y0.7533 Z-0.0787 I-0.0044 J0.0033
X0.7544 Y0.7467 Z-0.0793 I0.0044 J-0.0033
X0.7456 Y0.7533 Z-0.0799 I-0.0044 J0.0033
X0.7446 Y0.7511 Z-0.08 I0.0044 J-0.0033
X0.7554 Y0.7489 I0.0054 J-0.0011 F40.
X0.7446 Y0.7511 I-0.0054 J0.0011
X0.7554 Y0.7489 Z-0.0806 I0.0054 J-0.0011 F20.
X0.7446 Y0.7511 Z-0.0812 I-0.0054 J0.0011
X0.7554 Y0.7489 Z-0.0818 I0.0054 J-0.0011
X0.7446 Y0.7511 Z-0.0824 I-0.0054 J0.0011
X0.7554 Y0.7489 Z-0.083 I0.0054 J-0.0011
X0.7446 Y0.7511 Z-0.0836 I-0.0054 J0.0011
X0.7554 Y0.7489 Z-0.0842 I0.0054 J-0.0011
X0.7446 Y0.7511 Z-0.0848 I-0.0054 J0.0011
X0.7554 Y0.7489 Z-0.0854 I0.0054 J-0.0011
X0.7446 Y0.7511 Z-0.086 I-0.0054 J0.0011
X0.7554 Y0.7489 Z-0.0866 I0.0054 J-0.0011
X0.7446 Y0.7511 Z-0.0872 I-0.0054 J0.0011
X0.7554 Y0.7489 Z-0.0878 I0.0054 J-0.0011
X0.7446 Y0.7511 Z-0.0884 I-0.0054 J0.0011
X0.7554 Y0.7489 Z-0.0891 I0.0054 J-0.0011
X0.7446 Y0.7511 Z-0.0897 I-0.0054 J0.0011
X0.7554 Y0.7489 Z-0.0903 I0.0054 J-0.0011
X0.7446 Y0.7511 Z-0.0909 I-0.0054 J0.0011
X0.7554 Y0.7489 Z-0.0915 I0.0054 J-0.0011
X0.7446 Y0.7511 Z-0.0921 I-0.0054 J0.0011
X0.7554 Y0.7489 Z-0.0927 I0.0054 J-0.0011
X0.7446 Y0.7511 Z-0.0933 I-0.0054 J0.0011
X0.7554 Y0.7489 Z-0.0939 I0.0054 J-0.0011
X0.7446 Y0.7511 Z-0.0945 I-0.0054 J0.0011
X0.7554 Y0.7489 Z-0.0951 I0.0054 J-0.0011
X0.7446 Y0.7511 Z-0.0957 I-0.0054 J0.0011
X0.7554 Y0.7489 Z-0.0963 I0.0054 J-0.0011
X0.7446 Y0.7511 Z-0.0969 I-0.0054 J0.0011
X0.7554 Y0.7489 Z-0.0975 I0.0054 J-0.0011
X0.7446 Y0.7511 Z-0.0981 I-0.0054 J0.0011
X0.7554 Y0.7489 Z-0.0987 I0.0054 J-0.0011
X0.7446 Y0.7511 Z-0.0993 I-0.0054 J0.0011
X0.7554 Y0.7489 Z-0.0999 I0.0054 J-0.0011
X0.7553 Y0.7514 Z-0.1 I-0.0054 J0.0011
X0.7447 Y0.7486 I-0.0053 J-0.0014 F40.
X0.7553 Y0.7514 I0.0053 J0.0014
X0.7447 Y0.7486 Z-0.1006 I-0.0053 J-0.0014 F20.
X0.7553 Y0.7514 Z-0.1012 I0.0053 J0.0014
X0.7447 Y0.7486 Z-0.1018 I-0.0053 J-0.0014
X0.7553 Y0.7514 Z-0.1024 I0.0053 J0.0014
X0.7447 Y0.7486 Z-0.103 I-0.0053 J-0.0014
X0.7553 Y0.7514 Z-0.1036 I0.0053 J0.0014
X0.7447 Y0.7486 Z-0.1042 I-0.0053 J-0.0014
X0.7553 Y0.7514 Z-0.1048 I0.0053 J0.0014
X0.7447 Y0.7486 Z-0.1054 I-0.0053 J-0.0014
X0.7553 Y0.7514 Z-0.106 I0.0053 J0.0014
X0.7447 Y0.7486 Z-0.1066 I-0.0053 J-0.0014
X0.7553 Y0.7514 Z-0.1072 I0.0053 J0.0014
X0.7447 Y0.7486 Z-0.1078 I-0.0053 J-0.0014
X0.7553 Y0.7514 Z-0.1084 I0.0053 J0.0014
X0.7447 Y0.7486 Z-0.1091 I-0.0053 J-0.0014
X0.7553 Y0.7514 Z-0.1097 I0.0053 J0.0014
X0.7447 Y0.7486 Z-0.1103 I-0.0053 J-0.0014
X0.7553 Y0.7514 Z-0.1109 I0.0053 J0.0014
X0.7447 Y0.7486 Z-0.1115 I-0.0053 J-0.0014
X0.7553 Y0.7514 Z-0.1121 I0.0053 J0.0014
X0.7447 Y0.7486 Z-0.1127 I-0.0053 J-0.0014
X0.7553 Y0.7514 Z-0.1133 I0.0053 J0.0014
X0.7447 Y0.7486 Z-0.1139 I-0.0053 J-0.0014
X0.7553 Y0.7514 Z-0.1145 I0.0053 J0.0014
X0.7447 Y0.7486 Z-0.1151 I-0.0053 J-0.0014
X0.7553 Y0.7514 Z-0.1157 I0.0053 J0.0014
X0.7447 Y0.7486 Z-0.1163 I-0.0053 J-0.0014
X0.7553 Y0.7514 Z-0.1169 I0.0053 J0.0014
X0.7447 Y0.7486 Z-0.1175 I-0.0053 J-0.0014
X0.7553 Y0.7514 Z-0.1181 I0.0053 J0.0014
X0.7447 Y0.7486 Z-0.1187 I-0.0053 J-0.0014
X0.7553 Y0.7514 Z-0.1193 I0.0053 J0.0014
X0.7447 Y0.7486 Z-0.1199 I-0.0053 J-0.0014
X0.7459 Y0.7464 Z-0.12 I0.0053 J0.0014
X0.7541 Y0.7536 I0.0041 J0.0036 F40.
X0.7459 Y0.7464 I-0.0041 J-0.0036
X0.7541 Y0.7536 Z-0.1206 I0.0041 J0.0036 F20.
X0.7459 Y0.7464 Z-0.1212 I-0.0041 J-0.0036
X0.7541 Y0.7536 Z-0.1218 I0.0041 J0.0036
X0.7459 Y0.7464 Z-0.1224 I-0.0041 J-0.0036
X0.7541 Y0.7536 Z-0.123 I0.0041 J0.0036
X0.7459 Y0.7464 Z-0.1236 I-0.0041 J-0.0036
X0.7541 Y0.7536 Z-0.1242 I0.0041 J0.0036
X0.7459 Y0.7464 Z-0.1248 I-0.0041 J-0.0036
X0.7541 Y0.7536 Z-0.1254 I0.0041 J0.0036
X0.7459 Y0.7464 Z-0.126 I-0.0041 J-0.0036
X0.7541 Y0.7536 Z-0.1266 I0.0041 J0.0036
X0.7459 Y0.7464 Z-0.1272 I-0.0041 J-0.0036
X0.7541 Y0.7536 Z-0.1278 I0.0041 J0.0036
X0.7459 Y0.7464 Z-0.1284 I-0.0041 J-0.0036
X0.7541 Y0.7536 Z-0.1291 I0.0041 J0.0036
X0.7459 Y0.7464 Z-0.1297 I-0.0041 J-0.0036
X0.7541 Y0.7536 Z-0.1303 I0.0041 J0.0036
X0.7459 Y0.7464 Z-0.1309 I-0.0041 J-0.0036
X0.7541 Y0.7536 Z-0.1315 I0.0041 J0.0036
X0.7459 Y0.7464 Z-0.1321 I-0.0041 J-0.0036
X0.7554 Y0.7491 Z-0.1325 I0.0041 J0.0036
X0.7446 Y0.7509 I-0.0054 J0.0009 F40.
X0.7554 Y0.7491 I0.0054 J-0.0009
X0.7446 Y0.7509 Z-0.1331 I-0.0054 J0.0009 F20.
X0.7554 Y0.7491 Z-0.1337 I0.0054 J-0.0009
X0.7446 Y0.7509 Z-0.1343 I-0.0054 J0.0009
X0.7554 Y0.7491 Z-0.1349 I0.0054 J-0.0009
X0.7446 Y0.7509 Z-0.1355 I-0.0054 J0.0009
X0.7554 Y0.7491 Z-0.1361 I0.0054 J-0.0009
X0.7446 Y0.7509 Z-0.1367 I-0.0054 J0.0009
X0.7554 Y0.7491 Z-0.1373 I0.0054 J-0.0009
X0.7446 Y0.7509 Z-0.1379 I-0.0054 J0.0009
X0.7554 Y0.7491 Z-0.1385 I0.0054 J-0.0009
X0.7446 Y0.7509 Z-0.1391 I-0.0054 J0.0009
X0.7554 Y0.7491 Z-0.1397 I0.0054 J-0.0009
X0.7446 Y0.7509 Z-0.1403 I-0.0054 J0.0009
X0.7554 Y0.7491 Z-0.1409 I0.0054 J-0.0009
X0.7446 Y0.7509 Z-0.1416 I-0.0054 J0.0009
X0.7554 Y0.7491 Z-0.1422 I0.0054 J-0.0009
X0.7446 Y0.7509 Z-0.1428 I-0.0054 J0.0009
X0.7554 Y0.7491 Z-0.1434 I0.0054 J-0.0009
X0.7446 Y0.7509 Z-0.144 I-0.0054 J0.0009
X0.7554 Y0.7491 Z-0.1446 I0.0054 J-0.0009
X0.7473 Y0.7548 Z-0.145 I-0.0054 J0.0009
X0.7527 Y0.7452 I0.0027 J-0.0048 F40.
X0.7473 Y0.7548 I-0.0027 J0.0048
G1 X0.7461 Y0.7539 Z-0.1446
X0.7452 Y0.7528 Z-0.1442
X0.7447 Y0.7514 Z-0.1439
X0.7445 Y0.75 Z-0.1435
X0.7447 Y0.7484 Z-0.1422
X0.7454 Y0.747 Z-0.1408
X0.746 Y0.7462 Z-0.1391
X0.7468 Y0.7455 Z-0.1373
X0.7475 Y0.7451 Z-0.1332
G0 Z0.2
X0.2497 Y0.745
G1 Z0.1118 F40.
X0.2504 Y0.7451 Z0.1075 F20.
X0.2515 Y0.7454 Z0.1057
X0.2525 Y0.746 Z0.1039
X0.2534 Y0.7469 Z0.1029
X0.2541 Y0.7479 Z0.102
X0.2544 Y0.7491 Z0.1011
X0.2545 Y0.7507 Z0.1007
X0.254 Y0.7521 Z0.1004
X0.2532 Y0.7534 Z0.1
G3 X0.2458 Y0.7466 Z0.0995 I-0.0037 J-0.0034
X0.2532 Y0.7534 Z0.0989 I0.0037 J0.0034
X0.2458 Y0.7466 Z0.0984 I-0.0037 J-0.0034
X0.2532 Y0.7534 Z0.0978 I0.0037 J0.0034
X0.2458 Y0.7466 Z0.0973 I-0.0037 J-0.0034
X0.2532 Y0.7534 Z0.0967 I0.0037 J0.0034
X0.2458 Y0.7466 Z0.0962 I-0.0037 J-0.0034
X0.2532 Y0.7534 Z0.0956 I0.0037 J0.0034
X0.2458 Y0.7466 Z0.0951 I-0.0037 J-0.0034
X0.2532 Y0.7534 Z0.0945 I0.0037 J0.0034
X0.2458 Y0.7466 Z0.094 I-0.0037 J-0.0034
X0.2532 Y0.7534 Z0.0934 I0.0037 J0.0034
X0.2458 Y0.7466 Z0.0929 I-0.0037 J-0.0034
X0.2532 Y0.7534 Z0.0923 I0.0037 J0.0034
X0.2458 Y0.7466 Z0.0918 I-0.0037 J-0.0034
X0.2532 Y0.7534 Z0.0912 I0.0037 J0.0034
X0.2458 Y0.7466 Z0.0907 I-0.0037 J-0.0034
X0.2532 Y0.7534 Z0.0901 I0.0037 J0.0034
X0.2458 Y0.7466 Z0.0896 I-0.0037 J-0.0034
X0.2532 Y0.7534 Z0.089 I0.0037 J0.0034
X0.2458 Y0.7466 Z0.0885 I-0.0037 J-0.0034
X0.2532 Y0.7534 Z0.0879 I0.0037 J0.0034
X0.2458 Y0.7466 Z0.0874 I-0.0037 J-0.0034
X0.2532 Y0.7534 Z0.0868 I0.0037 J0.0034
X0.2458 Y0.7466 Z0.0863 I-0.0037 J-0.0034
X0.2532 Y0.7534 Z0.0857 I0.0037 J0.0034
X0.2458 Y0.7466 Z0.0852 I-0.0037 J-0.0034
X0.2532 Y0.7534 Z0.0846 I0.0037 J0.0034
X0.2458 Y0.7466 Z0.0841 I-0.0037 J-0.0034
X0.2532 Y0.7534 Z0.0835 I0.0037 J0.0034
X0.2458 Y0.7466 Z0.083 I-0.0037 J-0.0034
X0.2532 Y0.7534 Z0.0824 I0.0037 J0.0034
X0.2458 Y0.7466 Z0.0819 I-0.0037 J-0.0034
X0.2532 Y0.7534 Z0.0813 I0.0037 J0.0034
X0.2458 Y0.7466 Z0.0808 I-0.0037 J-0.0034
X0.2532 Y0.7534 Z0.0803 I0.0037 J0.0034
X0.2458 Y0.7466 Z0.0797 I-0.0037 J-0.0034
X0.2532 Y0.7534 Z0.0792 I0.0037 J0.0034
X0.2458 Y0.7466 Z0.0786 I-0.0037 J-0.0034
X0.2532 Y0.7534 Z0.0781 I0.0037 J0.0034
X0.2458 Y0.7466 Z0.0775 I-0.0037 J-0.0034
X0.2532 Y0.7534 Z0.077 I0.0037 J0.0034
X0.2458 Y0.7466 Z0.0764 I-0.0037 J-0.0034
X0.2532 Y0.7534 Z0.0759 I0.0037 J0.0034
X0.2458 Y0.7466 Z0.0753 I-0.0037 J-0.0034
X0.2532 Y0.7534 Z0.0748 I0.0037 J0.0034
X0.2458 Y0.7466 Z0.0742 I-0.0037 J-0.0034
X0.2532 Y0.7534 Z0.0737 I0.0037 J0.0034
X0.2458 Y0.7466 Z0.0731 I-0.0037 J-0.0034
X0.2532 Y0.7534 Z0.0726 I0.0037 J0.0034
X0.2458 Y0.7466 Z0.072 I-0.0037 J-0.0034
X0.2532 Y0.7534 Z0.0715 I0.0037 J0.0034
X0.2458 Y0.7466 Z0.0709 I-0.0037 J-0.0034
X0.2532 Y0.7534 Z0.0704 I0.0037 J0.0034
X0.2458 Y0.7466 Z0.0698 I-0.0037 J-0.0034
X0.2532 Y0.7534 Z0.0693 I0.0037 J0.0034
X0.2458 Y0.7466 Z0.0687 I-0.0037 J-0.0034
X0.2532 Y0.7534 Z0.0682 I0.0037 J0.0034
X0.2458 Y0.7466 Z0.0676 I-0.0037 J-0.0034
X0.2532 Y0.7534 Z0.0671 I0.0037 J0.0034
X0.2458 Y0.7466 Z0.0665 I-0.0037 J-0.0034
X0.2532 Y0.7534 Z0.066 I0.0037 J0.0034
X0.2458 Y0.7466 Z0.0654 I-0.0037 J-0.0034
X0.2532 Y0.7534 Z0.0649 I0.0037 J0.0034
X0.2458 Y0.7466 Z0.0643 I-0.0037 J-0.0034
X0.2532 Y0.7534 Z0.0638 I0.0037 J0.0034
X0.2458 Y0.7466 Z0.0632 I-0.0037 J-0.0034
X0.2532 Y0.7534 Z0.0627 I0.0037 J0.0034
X0.2458 Y0.7466 Z0.0622 I-0.0037 J-0.0034
X0.2532 Y0.7534 Z0.0616 I0.0037 J0.0034
X0.2458 Y0.7466 Z0.0611 I-0.0037 J-0.0034
X0.2532 Y0.7534 Z0.0605 I0.0037 J0.0034
X0.2458 Y0.7466 Z0.06 I-0.0037 J-0.0034
X0.2532 Y0.7534 Z0.0594 I0.0037 J0.0034
X0.2458 Y0.7466 Z0.0589 I-0.0037 J-0.0034
X0.2532 Y0.7534 Z0.0583 I0.0037 J0.0034
X0.2458 Y0.7466 Z0.0578 I-0.0037 J-0.0034
X0.2532 Y0.7534 Z0.0572 I0.0037 J0.0034
X0.2458 Y0.7466 Z0.0567 I-0.0037 J-0.0034
X0.2532 Y0.7534 Z0.0561 I0.0037 J0.0034
X0.2458 Y0.7466 Z0.0556 I-0.0037 J-0.0034
X0.2532 Y0.7534 Z0.055 I0.0037 J0.0034
X0.2458 Y0.7466 Z0.0545 I-0.0037 J-0.0034
X0.2532 Y0.7534 Z0.0539 I0.0037 J0.0034
X0.2458 Y0.7466 Z0.0534 I-0.0037 J-0.0034
X0.2532 Y0.7534 Z0.0528 I0.0037 J0.0034
X0.2458 Y0.7466 Z0.0523 I-0.0037 J-0.0034
X0.2532 Y0.7534 Z0.0517 I0.0037 J0.0034
X0.2458 Y0.7466 Z0.0512 I-0.0037 J-0.0034
X0.2532 Y0.7534 Z0.0506 I0.0037 J0.0034
X0.2458 Y0.7466 Z0.0501 I-0.0037 J-0.0034
X0.2532 Y0.7534 Z0.0495 I0.0037 J0.0034
X0.2458 Y0.7466 Z0.049 I-0.0037 J-0.0034
X0.2532 Y0.7534 Z0.0484 I0.0037 J0.0034
X0.2458 Y0.7466 Z0.0479 I-0.0037 J-0.0034
X0.2532 Y0.7534 Z0.0473 I0.0037 J0.0034
X0.2458 Y0.7466 Z0.0468 I-0.0037 J-0.0034
X0.2532 Y0.7534 Z0.0462 I0.0037 J0.0034
X0.2458 Y0.7466 Z0.0457 I-0.0037 J-0.0034
X0.2532 Y0.7534 Z0.0451 I0.0037 J0.0034
X0.2458 Y0.7466 Z0.0446 I-0.0037 J-0.0034
X0.2532 Y0.7534 Z0.044 I0.0037 J0.0034
X0.2458 Y0.7466 Z0.0435 I-0.0037 J-0.0034
X0.2532 Y0.7534 Z0.043 I0.0037 J0.0034
X0.2458 Y0.7466 Z0.0424 I-0.0037 J-0.0034
X0.2532 Y0.7534 Z0.0419 I0.0037 J0.0034
X0.2458 Y0.7466 Z0.0413 I-0.0037 J-0.0034
X0.2532 Y0.7534 Z0.0408 I0.0037 J0.0034
X0.2458 Y0.7466 Z0.0402 I-0.0037 J-0.0034
X0.2532 Y0.7534 Z0.0397 I0.0037 J0.0034
X0.2458 Y0.7466 Z0.0391 I-0.0037 J-0.0034
X0.2532 Y0.7534 Z0.0386 I0.0037 J0.0034
X0.2458 Y0.7466 Z0.038 I-0.0037 J-0.0034
X0.2532 Y0.7534 Z0.0375 I0.0037 J0.0034
X0.2458 Y0.7466 Z0.0369 I-0.0037 J-0.0034
X0.2532 Y0.7534 Z0.0364 I0.0037 J0.0034
X0.2458 Y0.7466 Z0.0358 I-0.0037 J-0.0034
X0.2532 Y0.7534 Z0.0353 I0.0037 J0.0034
X0.2458 Y0.7466 Z0.0347 I-0.0037 J-0.0034
X0.2532 Y0.7534 Z0.0342 I0.0037 J0.0034
X0.2458 Y0.7466 Z0.0336 I-0.0037 J-0.0034
X0.2532 Y0.7534 Z0.0331 I0.0037 J0.0034
X0.2458 Y0.7466 Z0.0325 I-0.0037 J-0.0034
X0.2532 Y0.7534 Z0.032 I0.0037 J0.0034
X0.2458 Y0.7466 Z0.0314 I-0.0037 J-0.0034
X0.2532 Y0.7534 Z0.0309 I0.0037 J0.0034
X0.2458 Y0.7466 Z0.0303 I-0.0037 J-0.0034
X0.2532 Y0.7534 Z0.0298 I0.0037 J0.0034
X0.2458 Y0.7466 Z0.0292 I-0.0037 J-0.0034
X0.2532 Y0.7534 Z0.0287 I0.0037 J0.0034
X0.2458 Y0.7466 Z0.0281 I-0.0037 J-0.0034
X0.2532 Y0.7534 Z0.0276 I0.0037 J0.0034
X0.2458 Y0.7466 Z0.027 I-0.0037 J-0.0034
X0.2532 Y0.7534 Z0.0265 I0.0037 J0.0034
X0.2458 Y0.7466 Z0.0259 I-0.0037 J-0.0034
X0.2532 Y0.7534 Z0.0254 I0.0037 J0.0034
X0.2458 Y0.7466 Z0.0249 I-0.0037 J-0.0034
X0.2532 Y0.7534 Z0.0243 I0.0037 J0.0034
X0.2458 Y0.7466 Z0.0238 I-0.0037 J-0.0034
X0.2532 Y0.7534 Z0.0232 I0.0037 J0.0034
X0.2458 Y0.7466 Z0.0227 I-0.0037 J-0.0034
X0.2532 Y0.7534 Z0.0221 I0.0037 J0.0034
X0.2458 Y0.7466 Z0.0216 I-0.0037 J-0.0034
X0.2532 Y0.7534 Z0.021 I0.0037 J0.0034
X0.2458 Y0.7466 Z0.0205 I-0.0037 J-0.0034
X0.2532 Y0.7534 Z0.0199 I0.0037 J0.0034
X0.2458 Y0.7466 Z0.0194 I-0.0037 J-0.0034
X0.2532 Y0.7534 Z0.0188 I0.0037 J0.0034
X0.2458 Y0.7466 Z0.0183 I-0.0037 J-0.0034
X0.2532 Y0.7534 Z0.0177 I0.0037 J0.0034
X0.2458 Y0.7466 Z0.0172 I-0.0037 J-0.0034
X0.2532 Y0.7534 Z0.0166 I0.0037 J0.0034
X0.2458 Y0.7466 Z0.0161 I-0.0037 J-0.0034
X0.2532 Y0.7534 Z0.0155 I0.0037 J0.0034
X0.2458 Y0.7466 Z0.015 I-0.0037 J-0.0034
X0.2532 Y0.7534 Z0.0144 I0.0037 J0.0034
X0.2458 Y0.7466 Z0.0139 I-0.0037 J-0.0034
X0.2532 Y0.7534 Z0.0133 I0.0037 J0.0034
X0.2458 Y0.7466 Z0.0128 I-0.0037 J-0.0034
X0.2532 Y0.7534 Z0.0122 I0.0037 J0.0034
X0.2458 Y0.7466 Z0.0117 I-0.0037 J-0.0034
X0.2532 Y0.7534 Z0.0111 I0.0037 J0.0034
X0.2458 Y0.7466 Z0.0106 I-0.0037 J-0.0034
X0.2532 Y0.7534 Z0.01 I0.0037 J0.0034
X0.2458 Y0.7466 Z0.0095 I-0.0037 J-0.0034
X0.2532 Y0.7534 Z0.0089 I0.0037 J0.0034
X0.2458 Y0.7466 Z0.0084 I-0.0037 J-0.0034
X0.2532 Y0.7534 Z0.0078 I0.0037 J0.0034
X0.2458 Y0.7466 Z0.0073 I-0.0037 J-0.0034
X0.2532 Y0.7534 Z0.0067 I0.0037 J0.0034
X0.2458 Y0.7466 Z0.0062 I-0.0037 J-0.0034
X0.2532 Y0.7534 Z0.0057 I0.0037 J0.0034
X0.2458 Y0.7466 Z0.0051 I-0.0037 J-0.0034
X0.2532 Y0.7534 Z0.0046 I0.0037 J0.0034
X0.2458 Y0.7466 Z0.004 I-0.0037 J-0.0034
X0.2532 Y0.7534 Z0.0035 I0.0037 J0.0034
X0.2458 Y0.7466 Z0.0029 I-0.0037 J-0.0034
X0.2532 Y0.7534 Z0.0024 I0.0037 J0.0034
X0.2458 Y0.7466 Z0.0018 I-0.0037 J-0.0034
X0.2532 Y0.7534 Z0.0013 I0.0037 J0.0034
X0.2458 Y0.7466 Z0.0007 I-0.0037 J-0.0034
X0.2532 Y0.7534 Z0.0002 I0.0037 J0.0034
X0.2458 Y0.7466 Z-0.0004 I-0.0037 J-0.0034
X0.2532 Y0.7534 Z-0.0009 I0.0037 J0.0034
X0.2458 Y0.7466 Z-0.0015 I-0.0037 J-0.0034
X0.2532 Y0.7534 Z-0.002 I0.0037 J0.0034
X0.2458 Y0.7466 Z-0.0026 I-0.0037 J-0.0034
X0.2532 Y0.7534 Z-0.0031 I0.0037 J0.0034
X0.2458 Y0.7466 Z-0.0037 I-0.0037 J-0.0034
X0.2532 Y0.7534 Z-0.0042 I0.0037 J0.0034
X0.2458 Y0.7466 Z-0.0048 I-0.0037 J-0.0034
X0.2532 Y0.7534 Z-0.0053 I0.0037 J0.0034
X0.2458 Y0.7466 Z-0.0059 I-0.0037 J-0.0034
X0.2532 Y0.7534 Z-0.0064 I0.0037 J0.0034
X0.2458 Y0.7466 Z-0.007 I-0.0037 J-0.0034
X0.2532 Y0.7534 Z-0.0075 I0.0037 J0.0034
X0.2458 Y0.7466 Z-0.0081 I-0.0037 J-0.0034
X0.2532 Y0.7534 Z-0.0086 I0.0037 J0.0034
X0.2458 Y0.7466 Z-0.0092 I-0.0037 J-0.0034
X0.2532 Y0.7534 Z-0.0097 I0.0037 J0.0034
X0.2458 Y0.7466 Z-0.0103 I-0.0037 J-0.0034
X0.2532 Y0.7534 Z-0.0108 I0.0037 J0.0034
X0.2458 Y0.7466 Z-0.0114 I-0.0037 J-0.0034
X0.2532 Y0.7534 Z-0.0119 I0.0037 J0.0034
X0.2458 Y0.7466 Z-0.0124 I-0.0037 J-0.0034
X0.2532 Y0.7534 Z-0.013 I0.0037 J0.0034
X0.2458 Y0.7466 Z-0.0135 I-0.0037 J-0.0034
X0.2532 Y0.7534 Z-0.0141 I0.0037 J0.0034
X0.2458 Y0.7466 Z-0.0146 I-0.0037 J-0.0034
X0.2532 Y0.7534 Z-0.0152 I0.0037 J0.0034
X0.2458 Y0.7466 Z-0.0157 I-0.0037 J-0.0034
X0.2532 Y0.7534 Z-0.0163 I0.0037 J0.0034
X0.2458 Y0.7466 Z-0.0168 I-0.0037 J-0.0034
X0.2532 Y0.7534 Z-0.0174 I0.0037 J0.0034
X0.2458 Y0.7466 Z-0.0179 I-0.0037 J-0.0034
X0.2532 Y0.7534 Z-0.0185 I0.0037 J0.0034
X0.2458 Y0.7466 Z-0.019 I-0.0037 J-0.0034
X0.2532 Y0.7534 Z-0.0196 I0.0037 J0.0034
X0.2445 Y0.75 Z-0.02 I-0.0037 J-0.0034
X0.2555 I0.0055 J0. F40.
X0.2445 I-0.0055 J0.
X0.2555 Z-0.0206 I0.0055 J0. F20.
X0.2445 Z-0.0212 I-0.0055 J0.
X0.2555 Z-0.0218 I0.0055 J0.
X0.2445 Z-0.0224 I-0.0055 J0.
X0.2555 Z-0.023 I0.0055 J0.
X0.2445 Z-0.0236 I-0.0055 J0.
X0.2555 Z-0.0242 I0.0055 J0.
X0.2445 Z-0.0248 I-0.0055 J0.
X0.2555 Z-0.0254 I0.0055 J0.
X0.2445 Z-0.026 I-0.0055 J0.
X0.2555 Z-0.0266 I0.0055 J0.
X0.2445 Z-0.0272 I-0.0055 J0.
X0.2555 Z-0.0278 I0.0055 J0.
X0.2445 Z-0.0284 I-0.0055 J0.
X0.2555 Z-0.0291 I0.0055 J0.
X0.2445 Z-0.0297 I-0.0055 J0.
X0.2555 Z-0.0303 I0.0055 J0.
X0.2445 Z-0.0309 I-0.0055 J0.
X0.2555 Z-0.0315 I0.0055 J0.
X0.2445 Z-0.0321 I-0.0055 J0.
X0.2555 Z-0.0327 I0.0055 J0.
X0.2445 Z-0.0333 I-0.0055 J0.
X0.2555 Z-0.0339 I0.0055 J0.
X0.2445 Z-0.0345 I-0.0055 J0.
X0.2555 Z-0.0351 I0.0055 J0.
X0.2445 Z-0.0357 I-0.0055 J0.
X0.2555 Z-0.0363 I0.0055 J0.
X0.2445 Z-0.0369 I-0.0055 J0.
X0.2555 Z-0.0375 I0.0055 J0.
X0.2445 Z-0.0381 I-0.0055 J0.
X0.2555 Z-0.0387 I0.0055 J0.
X0.2445 Z-0.0393 I-0.0055 J0.
X0.2555 Z-0.0399 I0.0055 J0.
X0.2549 Y0.7524 Z-0.04 I-0.0055 J0.
X0.2451 Y0.7476 I-0.0049 J-0.0024 F40.
X0.2549 Y0.7524 I0.0049 J0.0024
X0.2451 Y0.7476 Z-0.0406 I-0.0049 J-0.0024 F20.
X0.2549 Y0.7524 Z-0.0412 I0.0049 J0.0024
X0.2451 Y0.7476 Z-0.0418 I-0.0049 J-0.0024
X0.2549 Y0.7524 Z-0.0424 I0.0049 J0.0024
X0.2451 Y0.7476 Z-0.043 I-0.0049 J-0.0024
X0.2549 Y0.7524 Z-0.0436 I0.0049 J0.0024
X0.2451 Y0.7476 Z-0.0442 I-0.0049 J-0.0024
X0.2549 Y0.7524 Z-0.0448 I0.0049 J0.0024
X0.2451 Y0.7476 Z-0.0454 I-0.0049 J-0.0024
X0.2549 Y0.7524 Z-0.046 I0.0049 J0.0024
X0.2451 Y0.7476 Z-0.0466 I-0.0049 J-0.0024
X0.2549 Y0.7524 Z-0.0472 I0.0049 J0.0024
X0.2451 Y0.7476 Z-0.0478 I-0.0049 J-0.0024
X0.2549 Y0.7524 Z-0.0484 I0.0049 J0.0024
X0.2451 Y0.7476 Z-0.0491 I-0.0049 J-0.0024
X0.2549 Y0.7524 Z-0.0497 I0.0049 J0.0024
X0.2451 Y0.7476 Z-0.0503 I-0.0049 J-0.0024
X0.2549 Y0.7524 Z-0.0509 I0.0049 J0.0024
X0.2451 Y0.7476 Z-0.0515 I-0.0049 J-0.0024
X0.2549 Y0.7524 Z-0.0521 I0.0049 J0.0024
X0.2451 Y0.7476 Z-0.0527 I-0.0049 J-0.0024
X0.2549 Y0.7524 Z-0.0533 I0.0049 J0.0024
X0.2451 Y0.7476 Z-0.0539 I-0.0049 J-0.0024
X0.2549 Y0.7524 Z-0.0545 I0.0049 J0.0024
X0.2451 Y0.7476 Z-0.0551 I-0.0049 J-0.0024
X0.2549 Y0.7524 Z-0.0557 I0.0049 J0.0024
X0.2451 Y0.7476 Z-0.0563 I-0.0049 J-0.0024
X0.2549 Y0.7524 Z-0.0569 I0.0049 J0.0024
X0.2451 Y0.7476 Z-0.0575 I-0.0049 J-0.0024
X0.2549 Y0.7524 Z-0.0581 I0.0049 J0.0024
X0.2451 Y0.7476 Z-0.0587 I-0.0049 J-0.0024
X0.2549 Y0.7524 Z-0.0593 I0.0049 J0.0024
X0.2451 Y0.7476 Z-0.0599 I-0.0049 J-0.0024
X0.2467 Y0.7456 Z-0.06 I0.0049 J0.0024
X0.2533 Y0.7544 I0.0033 J0.0044 F40.
X0.2467 Y0.7456 I-0.0033 J-0.0044
X0.2533 Y0.7544 Z-0.0606 I0.0033 J0.0044 F20.
X0.2467 Y0.7456 Z-0.0612 I-0.0033 J-0.0044
X0.2533 Y0.7544 Z-0.0618 I0.0033 J0.0044
X0.2467 Y0.7456 Z-0.0624 I-0.0033 J-0.0044
X0.2533 Y0.7544 Z-0.063 I0.0033 J0.0044
X0.2467 Y0.7456 Z-0.0636 I-0.0033 J-0.0044
X0.2533 Y0.7544 Z-0.0642 I0.0033 J0.0044
X0.2467 Y0.7456 Z-0.0648 I-0.0033 J-0.0044
X0.2533 Y0.7544 Z-0.0654 I0.0033 J0.0044
X0.2467 Y0.7456 Z-0.066 I-0.0033 J-0.0044
X0.2533 Y0.7544 Z-0.0666 I0.0033 J0.0044
X0.2467 Y0.7456 Z-0.0672 I-0.0033 J-0.0044
X0.2533 Y0.7544 Z-0.0678 I0.0033 J0.0044
X0.2467 Y0.7456 Z-0.0684 I-0.0033 J-0.0044
X0.2533 Y0.7544 Z-0.0691 I0.0033 J0.0044
X0.2467 Y0.7456 Z-0.0697 I-0.0033 J-0.0044
X0.2533 Y0.7544 Z-0.0703 I0.0033 J0.0044
X0.2467 Y0.7456 Z-0.0709 I-0.0033 J-0.0044
X0.2533 Y0.7544 Z-0.0715 I0.0033 J0.0044
X0.2467 Y0.7456 Z-0.0721 I-0.0033 J-0.0044
X0.2533 Y0.7544 Z-0.0727 I0.0033 J0.0044
X0.2467 Y0.7456 Z-0.0733 I-0.0033 J-0.0044
X0.2533 Y0.7544 Z-0.0739 I0.0033 J0.0044
X0.2467 Y0.7456 Z-0.0745 I-0.0033 J-0.0044
X0.2533 Y0.7544 Z-0.0751 I0.0033 J0.0044
X0.2467 Y0.7456 Z-0.0757 I-0.0033 J-0.0044
X0.2533 Y0.7544 Z-0.0763 I0.0033 J0.0044
X0.2467 Y0.7456 Z-0.0769 I-0.0033 J-0.0044
X0.2533 Y0.7544 Z-0.0775 I0.0033 J0.0044
X0.2467 Y0.7456 Z-0.0781 I-0.0033 J-0.0044
X0.2533 Y0.7544 Z-0.0787 I0.0033 J0.0044
X0.2467 Y0.7456 Z-0.0793 I-0.0033 J-0.0044
X0.2533 Y0.7544 Z-0.0799 I0.0033 J0.0044
X0.2511 Y0.7554 Z-0.08 I-0.0033 J-0.0044
X0.2489 Y0.7446 I-0.0011 J-0.0054 F40.
X0.2511 Y0.7554 I0.0011 J0.0054
X0.2489 Y0.7446 Z-0.0806 I-0.0011 J-0.0054 F20.
X0.2511 Y0.7554 Z-0.0812 I0.0011 J0.0054
X0.2489 Y0.7446 Z-0.0818 I-0.0011 J-0.0054
X0.2511 Y0.7554 Z-0.0824 I0.0011 J0.0054
X0.2489 Y0.7446 Z-0.083 I-0.0011 J-0.0054
X0.2511 Y0.7554 Z-0.0836 I0.0011 J0.0054
X0.2489 Y0.7446 Z-0.0842 I-0.0011 J-0.0054
X0.2511 Y0.7554 Z-0.0848 I0.0011 J0.0054
X0.2489 Y0.7446 Z-0.0854 I-0.0011 J-0.0054
X0.2511 Y0.7554 Z-0.086 I0.0011 J0.0054
X0.2489 Y0.7446 Z-0.0866 I-0.0011 J-0.0054
X0.2511 Y0.7554 Z-0.0872 I0.0011 J0.0054
X0.2489 Y0.7446 Z-0.0878 I-0.0011 J-0.0054
X0.2511 Y0.7554 Z-0.0884 I0.0011 J0.0054
X0.2489 Y0.7446 Z-0.0891 I-0.0011 J-0.0054
X0.2511 Y0.7554 Z-0.0897 I0.0011 J0.0054
X0.2489 Y0.7446 Z-0.0903 I-0.0011 J-0.0054
X0.2511 Y0.7554 Z-0.0909 I0.0011 J0.0054
X0.2489 Y0.7446 Z-0.0915 I-0.0011 J-0.0054
X0.2511 Y0.7554 Z-0.0921 I0.0011 J0.0054
X0.2489 Y0.7446 Z-0.0927 I-0.0011 J-0.0054
X0.2511 Y0.7554 Z-0.0933 I0.0011 J0.0054
X0.2489 Y0.7446 Z-0.0939 I-0.0011 J-0.0054
X0.2511 Y0.7554 Z-0.0945 I0.0011 J0.0054
X0.2489 Y0.7446 Z-0.0951 I-0.0011 J-0.0054
X0.2511 Y0.7554 Z-0.0957 I0.0011 J0.0054
X0.2489 Y0.7446 Z-0.0963 I-0.0011 J-0.0054
X0.2511 Y0.7554 Z-0.0969 I0.0011 J0.0054
X0.2489 Y0.7446 Z-0.0975 I-0.0011 J-0.0054
X0.2511 Y0.7554 Z-0.0981 I0.0011 J0.0054
X0.2489 Y0.7446 Z-0.0987 I-0.0011 J-0.0054
X0.2511 Y0.7554 Z-0.0993 I0.0011 J0.0054
X0.2489 Y0.7446 Z-0.0999 I-0.0011 J-0.0054
X0.2514 Y0.7447 Z-0.1 I0.0011 J0.0054
X0.2486 Y0.7553 I-0.0014 J0.0053 F40.
X0.2514 Y0.7447 I0.0014 J-0.0053
X0.2486 Y0.7553 Z-0.1006 I-0.0014 J0.0053 F20.
X0.2514 Y0.7447 Z-0.1012 I0.0014 J-0.0053
X0.2486 Y0.7553 Z-0.1018 I-0.0014 J0.0053
X0.2514 Y0.7447 Z-0.1024 I0.0014 J-0.0053
X0.2486 Y0.7553 Z-0.103 I-0.0014 J0.0053
X0.2514 Y0.7447 Z-0.1036 I0.0014 J-0.0053
X0.2486 Y0.7553 Z-0.1042 I-0.0014 J0.0053
X0.2514 Y0.7447 Z-0.1048 I0.0014 J-0.0053
X0.2486 Y0.7553 Z-0.1054 I-0.0014 J0.0053
X0.2514 Y0.7447 Z-0.106 I0.0014 J-0.0053
X0.2486 Y0.7553 Z-0.1066 I-0.0014 J0.0053
X0.2514 Y0.7447 Z-0.1072 I0.0014 J-0.0053
X0.2486 Y0.7553 Z-0.1078 I-0.0014 J0.0053
X0.2514 Y0.7447 Z-0.1084 I0.0014 J-0.0053
X0.2486 Y0.7553 Z-0.1091 I-0.0014 J0.0053
X0.2514 Y0.7447 Z-0.1097 I0.0014 J-0.0053
X0.2486 Y0.7553 Z-0.1103 I-0.0014 J0.0053
X0.2514 Y0.7447 Z-0.1109 I0.0014 J-0.0053
X0.2486 Y0.7553 Z-0.1115 I-0.0014 J0.0053
X0.2514 Y0.7447 Z-0.1121 I0.0014 J-0.0053
X0.2486 Y0.7553 Z-0.1127 I-0.0014 J0.0053
X0.2514 Y0.7447 Z-0.1133 I0.0014 J-0.0053
X0.2486 Y0.7553 Z-0.1139 I-0.0014 J0.0053
X0.2514 Y0.7447 Z-0.1145 I0.0014 J-0.0053
X0.2486 Y0.7553 Z-0.1151 I-0.0014 J0.0053
X0.2514 Y0.7447 Z-0.1157 I0.0014 J-0.0053
X0.2486 Y0.7553 Z-0.1163 I-0.0014 J0.0053
X0.2514 Y0.7447 Z-0.1169 I0.0014 J-0.0053
X0.2486 Y0.7553 Z-0.1175 I-0.0014 J0.0053
X0.2514 Y0.7447 Z-0.1181 I0.0014 J-0.0053
X0.2486 Y0.7553 Z-0.1187 I-0.0014 J0.0053
X0.2514 Y0.7447 Z-0.1193 I0.0014 J-0.0053
X0.2486 Y0.7553 Z-0.1199 I-0.0014 J0.0053
X0.2464 Y0.7541 Z-0.12 I0.0014 J-0.0053
X0.2536 Y0.7459 I0.0036 J-0.0041 F40.
X0.2464 Y0.7541 I-0.0036 J0.0041
X0.2536 Y0.7459 Z-0.1206 I0.0036 J-0.0041 F20.
X0.2464 Y0.7541 Z-0.1212 I-0.0036 J0.0041
X0.2536 Y0.7459 Z-0.1218 I0.0036 J-0.0041
X0.2464 Y0.7541 Z-0.1224 I-0.0036 J0.0041
X0.2536 Y0.7459 Z-0.123 I0.0036 J-0.0041
X0.2464 Y0.7541 Z-0.1236 I-0.0036 J0.0041
X0.2536 Y0.7459 Z-0.1242 I0.0036 J-0.0041
X0.2464 Y0.7541 Z-0.1248 I-0.0036 J0.0041
X0.2536 Y0.7459 Z-0.1254 I0.0036 J-0.0041
X0.2464 Y0.7541 Z-0.126 I-0.0036 J0.0041
X0.2536 Y0.7459 Z-0.1266 I0.0036 J-0.0041
X0.2464 Y0.7541 Z-0.1272 I-0.0036 J0.0041
X0.2536 Y0.7459 Z-0.1278 I0.0036 J-0.0041
X0.2464 Y0.7541 Z-0.1284 I-0.0036 J0.0041
X0.2536 Y0.7459 Z-0.1291 I0.0036 J-0.0041
X0.2464 Y0.7541 Z-0.1297 I-0.0036 J0.0041
X0.2536 Y0.7459 Z-0.1303 I0.0036 J-0.0041
X0.2464 Y0.7541 Z-0.1309 I-0.0036 J0.0041
X0.2536 Y0.7459 Z-0.1315 I0.0036 J-0.0041
X0.2464 Y0.7541 Z-0.1321 I-0.0036 J0.0041
X0.2491 Y0.7446 Z-0.1325 I0.0036 J-0.0041
X0.2509 Y0.7554 I0.0009 J0.0054 F40.
X0.2491 Y0.7446 I-0.0009 J-0.0054
X0.2509 Y0.7554 Z-0.1331 I0.0009 J0.0054 F20.
X0.2491 Y0.7446 Z-0.1337 I-0.0009 J-0.0054
X0.2509 Y0.7554 Z-0.1343 I0.0009 J0.0054
X0.2491 Y0.7446 Z-0.1349 I-0.0009 J-0.0054
X0.2509 Y0.7554 Z-0.1355 I0.0009 J0.0054
X0.2491 Y0.7446 Z-0.1361 I-0.0009 J-0.0054
X0.2509 Y0.7554 Z-0.1367 I0.0009 J0.0054
X0.2491 Y0.7446 Z-0.1373 I-0.0009 J-0.0054
X0.2509 Y0.7554 Z-0.1379 I0.0009 J0.0054
X0.2491 Y0.7446 Z-0.1385 I-0.0009 J-0.0054
X0.2509 Y0.7554 Z-0.1391 I0.0009 J0.0054
X0.2491 Y0.7446 Z-0.1397 I-0.0009 J-0.0054
X0.2509 Y0.7554 Z-0.1403 I0.0009 J0.0054
X0.2491 Y0.7446 Z-0.1409 I-0.0009 J-0.0054
X0.2509 Y0.7554 Z-0.1416 I0.0009 J0.0054
X0.2491 Y0.7446 Z-0.1422 I-0.0009 J-0.0054
X0.2509 Y0.7554 Z-0.1428 I0.0009 J0.0054
X0.2491 Y0.7446 Z-0.1434 I-0.0009 J-0.0054
X0.2509 Y0.7554 Z-0.144 I0.0009 J0.0054
X0.2491 Y0.7446 Z-0.1446 I-0.0009 J-0.0054
X0.2548 Y0.7527 Z-0.145 I0.0009 J0.0054
X0.2452 Y0.7473 I-0.0048 J-0.0027 F40.
X0.2548 Y0.7527 I0.0048 J0.0027
G1 X0.2539 Y0.7539 Z-0.1446
X0.2528 Y0.7548 Z-0.1442
X0.2514 Y0.7553 Z-0.1439
X0.25 Y0.7555 Z-0.1435
X0.2484 Y0.7553 Z-0.1422
X0.247 Y0.7546 Z-0.1408
X0.2462 Y0.754 Z-0.1391
X0.2455 Y0.7532 Z-0.1373
X0.2451 Y0.7525 Z-0.1332
G0 Z0.2
X0.245 Y1.2503
G1 Z0.1118 F40.
X0.2451 Y1.2496 Z0.1075 F20.
X0.2454 Y1.2485 Z0.1057
X0.246 Y1.2475 Z0.1039
X0.2469 Y1.2466 Z0.1029
X0.2479 Y1.2459 Z0.102
X0.2491 Y1.2456 Z0.1011
X0.2507 Y1.2455 Z0.1007
X0.2521 Y1.246 Z0.1004
X0.2534 Y1.2468 Z0.1
G3 X0.2466 Y1.2542 Z0.0995 I-0.0034 J0.0037
X0.2534 Y1.2468 Z0.0989 I0.0034 J-0.0037
X0.2466 Y1.2542 Z0.0984 I-0.0034 J0.0037
X0.2534 Y1.2468 Z0.0978 I0.0034 J-0.0037
X0.2466 Y1.2542 Z0.0973 I-0.0034 J0.0037
X0.2534 Y1.2468 Z0.0967 I0.0034 J-0.0037
X0.2466 Y1.2542 Z0.0962 I-0.0034 J0.0037
X0.2534 Y1.2468 Z0.0956 I0.0034 J-0.0037
X0.2466 Y1.2542 Z0.0951 I-0.0034 J0.0037
X0.2534 Y1.2468 Z0.0945 I0.0034 J-0.0037
X0.2466 Y1.2542 Z0.094 I-0.0034 J0.0037
X0.2534 Y1.2468 Z0.0934 I0.0034 J-0.0037
X0.2466 Y1.2542 Z0.0929 I-0.0034 J0.0037
X0.2534 Y1.2468 Z0.0923 I0.0034 J-0.0037
X0.2466 Y1.2542 Z0.0918 I-0.0034 J0.0037
X0.2534 Y1.2468 Z0.0912 I0.0034 J-0.0037
X0.2466 Y1.2542 Z0.0907 I-0.0034 J0.0037
X0.2534 Y1.2468 Z0.0901 I0.0034 J-0.0037
X0.2466 Y1.2542 Z0.0896 I-0.0034 J0.0037
X0.2534 Y1.2468 Z0.089 I0.0034 J-0.0037
X0.2466 Y1.2542 Z0.0885 I-0.0034 J0.0037
X0.2534 Y1.2468 Z0.0879 I0.0034 J-0.0037
X0.2466 Y1.2542 Z0.0874 I-0.0034 J0.0037
X0.2534 Y1.2468 Z0.0868 I0.0034 J-0.0037
X0.2466 Y1.2542 Z0.0863 I-0.0034 J0.0037
X0.2534 Y1.2468 Z0.0857 I0.0034 J-0.0037
X0.2466 Y1.2542 Z0.0852 I-0.0034 J0.0037
X0.2534 Y1.2468 Z0.0846 I0.0034 J-0.0037
X0.2466 Y1.2542 Z0.0841 I-0.0034 J0.0037
X0.2534 Y1.2468 Z0.0835 I0.0034 J-0.0037
X0.2466 Y1.2542 Z0.083 I-0.0034 J0.0037
X0.2534 Y1.2468 Z0.0824 I0.0034 J-0.0037
X0.2466 Y1.2542 Z0.0819 I-0.0034 J0.0037
X0.2534 Y1.2468 Z0.0813 I0.0034 J-0.0037
X0.2466 Y1.2542 Z0.0808 I-0.0034 J0.0037
X0.2534 Y1.2468 Z0.0803 I0.0034 J-0.0037
X0.2466 Y1.2542 Z0.0797 I-0.0034 J0.0037
X0.2534 Y1.2468 Z0.0792 I0.0034 J-0.0037
X0.2466 Y1.2542 Z0.0786 I-0.0034 J0.0037
X0.2534 Y1.2468 Z0.0781 I0.0034 J-0.0037
X0.2466 Y1.2542 Z0.0775 I-0.0034 J0.0037
X0.2534 Y1.2468 Z0.077 I0.0034 J-0.0037
X0.2466 Y1.2542 Z0.0764 I-0.0034 J0.0037
X0.2534 Y1.2468 Z0.0759 I0.0034 J-0.0037
X0.2466 Y1.2542 Z0.0753 I-0.0034 J0.0037
X0.2534 Y1.2468 Z0.0748 I0.0034 J-0.0037
X0.2466 Y1.2542 Z0.0742 I-0.0034 J0.0037
X0.2534 Y1.2468 Z0.0737 I0.0034 J-0.0037
X0.2466 Y1.2542 Z0.0731 I-0.0034 J0.0037
X0.2534 Y1.2468 Z0.0726 I0.0034 J-0.0037
X0.2466 Y1.2542 Z0.072 I-0.0034 J0.0037
X0.2534 Y1.2468 Z0.0715 I0.0034 J-0.0037
X0.2466 Y1.2542 Z0.0709 I-0.0034 J0.0037
X0.2534 Y1.2468 Z0.0704 I0.0034 J-0.0037
X0.2466 Y1.2542 Z0.0698 I-0.0034 J0.0037
X0.2534 Y1.2468 Z0.0693 I0.0034 J-0.0037
X0.2466 Y1.2542 Z0.0687 I-0.0034 J0.0037
X0.2534 Y1.2468 Z0.0682 I0.0034 J-0.0037
X0.2466 Y1.2542 Z0.0676 I-0.0034 J0.0037
X0.2534 Y1.2468 Z0.0671 I0.0034 J-0.0037
X0.2466 Y1.2542 Z0.0665 I-0.0034 J0.0037
X0.2534 Y1.2468 Z0.066 I0.0034 J-0.0037
X0.2466 Y1.2542 Z0.0654 I-0.0034 J0.0037
X0.2534 Y1.2468 Z0.0649 I0.0034 J-0.0037
X0.2466 Y1.2542 Z0.0643 I-0.0034 J0.0037
X0.2534 Y1.2468 Z0.0638 I0.0034 J-0.0037
X0.2466 Y1.2542 Z0.0632 I-0.0034 J0.0037
X0.2534 Y1.2468 Z0.0627 I0.0034 J-0.0037
X0.2466 Y1.2542 Z0.0622 I-0.0034 J0.0037
X0.2534 Y1.2468 Z0.0616 I0.0034 J-0.0037
X0.2466 Y1.2542 Z0.0611 I-0.0034 J0.0037
X0.2534 Y1.2468 Z0.0605 I0.0034 J-0.0037
X0.2466 Y1.2542 Z0.06 I-0.0034 J0.0037
X0.2534 Y1.2468 Z0.0594 I0.0034 J-0.0037
X0.2466 Y1.2542 Z0.0589 I-0.0034 J0.0037
X0.2534 Y1.2468 Z0.0583 I0.0034 J-0.0037
X0.2466 Y1.2542 Z0.0578 I-0.0034 J0.0037
X0.2534 Y1.2468 Z0.0572 I0.0034 J-0.0037
X0.2466 Y1.2542 Z0.0567 I-0.0034 J0.0037
X0.2534 Y1.2468 Z0.0561 I0.0034 J-0.0037
X0.2466 Y1.2542 Z0.0556 I-0.0034 J0.0037
X0.2534 Y1.2468 Z0.055 I0.0034 J-0.0037
X0.2466 Y1.2542 Z0.0545 I-0.0034 J0.0037
X0.2534 Y1.2468 Z0.0539 I0.0034 J-0.0037
X0.2466 Y1.2542 Z0.0534 I-0.0034 J0.0037
X0.2534 Y1.2468 Z0.0528 I0.0034 J-0.0037
X0.2466 Y1.2542 Z0.0523 I-0.0034 J0.0037
X0.2534 Y1.2468 Z0.0517 I0.0034 J-0.0037
X0.2466 Y1.2542 Z0.0512 I-0.0034 J0.0037
X0.2534 Y1.2468 Z0.0506 I0.0034 J-0.0037
X0.2466 Y1.2542 Z0.0501 I-0.0034 J0.0037
X0.2534 Y1.2468 Z0.0495 I0.0034 J-0.0037
X0.2466 Y1.2542 Z0.049 I-0.0034 J0.0037
X0.2534 Y1.2468 Z0.0484 I0.0034 J-0.0037
X0.2466 Y1.2542 Z0.0479 I-0.0034 J0.0037
X0.2534 Y1.2468 Z0.0473 I0.0034 J-0.0037
X0.2466 Y1.2542 Z0.0468 I-0.0034 J0.0037
X0.2534 Y1.2468 Z0.0462 I0.0034 J-0.0037
X0.2466 Y1.2542 Z0.0457 I-0.0034 J0.0037
X0.2534 Y1.2468 Z0.0451 I0.0034 J-0.0037
X0.2466 Y1.2542 Z0.0446 I-0.0034 J0.0037
X0.2534 Y1.2468 Z0.044 I0.0034 J-0.0037
X0.2466 Y1.2542 Z0.0435 I-0.0034 J0.0037
X0.2534 Y1.2468 Z0.043 I0.0034 J-0.0037
X0.2466 Y1.2542 Z0.0424 I-0.0034 J0.0037
X0.2534 Y1.2468 Z0.0419 I0.0034 J-0.0037
X0.2466 Y1.2542 Z0.0413 I-0.0034 J0.0037
X0.2534 Y1.2468 Z0.0408 I0.0034 J-0.0037
X0.2466 Y1.2542 Z0.0402 I-0.0034 J0.0037
X0.2534 Y1.2468 Z0.0397 I0.0034 J-0.0037
X0.2466 Y1.2542 Z0.0391 I-0.0034 J0.0037
X0.2534 Y1.2468 Z0.0386 I0.0034 J-0.0037
X0.2466 Y1.2542 Z0.038 I-0.0034 J0.0037
X0.2534 Y1.2468 Z0.0375 I0.0034 J-0.0037
X0.2466 Y1.2542 Z0.0369 I-0.0034 J0.0037
X0.2534 Y1.2468 Z0.0364 I0.0034 J-0.0037
X0.2466 Y1.2542 Z0.0358 I-0.0034 J0.0037
X0.2534 Y1.2468 Z0.0353 I0.0034 J-0.0037
X0.2466 Y1.2542 Z0.0347 I-0.0034 J0.0037
X0.2534 Y1.2468 Z0.0342 I0.0034 J-0.0037
X0.2466 Y1.2542 Z0.0336 I-0.0034 J0.0037
X0.2534 Y1.2468 Z0.0331 I0.0034 J-0.0037
X0.2466 Y1.2542 Z0.0325 I-0.0034 J0.0037
X0.2534 Y1.2468 Z0.032 I0.0034 J-0.0037
X0.2466 Y1.2542 Z0.0314 I-0.0034 J0.0037
X0.2534 Y1.2468 Z0.0309 I0.0034 J-0.0037
X0.2466 Y1.2542 Z0.0303 I-0.0034 J0.0037
X0.2534 Y1.2468 Z0.0298 I0.0034 J-0.0037
X0.2466 Y1.2542 Z0.0292 I-0.0034 J0.0037
X0.2534 Y1.2468 Z0.0287 I0.0034 J-0.0037
X0.2466 Y1.2542 Z0.0281 I-0.0034 J0.0037
X0.2534 Y1.2468 Z0.0276 I0.0034 J-0.0037
X0.2466 Y1.2542 Z0.027 I-0.0034 J0.0037
X0.2534 Y1.2468 Z0.0265 I0.0034 J-0.0037
X0.2466 Y1.2542 Z0.0259 I-0.0034 J0.0037
X0.2534 Y1.2468 Z0.0254 I0.0034 J-0.0037
X0.2466 Y1.2542 Z0.0249 I-0.0034 J0.0037
X0.2534 Y1.2468 Z0.0243 I0.0034 J-0.0037
X0.2466 Y1.2542 Z0.0238 I-0.0034 J0.0037
X0.2534 Y1.2468 Z0.0232 I0.0034 J-0.0037
X0.2466 Y1.2542 Z0.0227 I-0.0034 J0.0037
X0.2534 Y1.2468 Z0.0221 I0.0034 J-0.0037
X0.2466 Y1.2542 Z0.0216 I-0.0034 J0.0037
