(1001)
(T1  D=3.175 CR=0. - ZMIN=-6.175 - FLAT END MILL)
G90 G94 G91.1 G40 G49 G17
G21
G0 Z15

(2D ADAPTIVE1)
M5
T1 M6
S15000 M3
G54
M8
G0 X15.081 Y242.951
G43 Z15. H1
Z5.
Z2.868
G1 Z2.55 F1600.
Z-6.175
Y242.913
X15.109 Y242.939
X15.101 Y242.976
X15.063
X15.052 Y242.941
X15.068 Y242.907
X15.105 Y242.909
X15.123 Y242.942
X15.116 Y242.978
X15.081 Y242.991
X15.045 Y242.98
X15.037 Y242.943
X15.049 Y242.908
X15.083 Y242.892
X15.119 Y242.902
X15.137 Y242.935
X15.135 Y242.972
X15.107 Y242.997
X15.07 Y243.003
X15.035 Y242.99
X15.022 Y242.954
X15.027 Y242.917
X15.053 Y242.89
X15.089 Y242.878
X15.125 Y242.888
X15.147 Y242.918
X15.153 Y242.955
X15.137 Y242.989
X15.107 Y243.012
X15.07 Y243.018
X15.034 Y243.007
X15.013 Y242.976
X15.008 Y242.939
X15.02 Y242.903
X15.047 Y242.877
X15.082 Y242.864
X15.119 Y242.869
X15.148 Y242.892
X15.165 Y242.926
Y242.963
X15.149 Y242.997
X15.121 Y243.022
X15.085 Y243.033
X15.047 Y243.03
X15.017 Y243.008
X14.998 Y242.975
X14.993 Y242.938
X15.003 Y242.902
X15.026 Y242.873
X15.059 Y242.853
X15.096 Y242.849
X15.131 Y242.86
X15.16 Y242.884
X15.178 Y242.917
X15.182 Y242.955
X15.172 Y242.991
X15.149 Y243.021
X15.118 Y243.041
X15.081 Y243.049
X15.044 Y243.044
X15.012 Y243.025
X14.989 Y242.995
X14.978 Y242.959
X14.979 Y242.922
X14.993 Y242.887
X15.018 Y242.859
X15.051 Y242.84
X15.087 Y242.833
X15.124 Y242.839
X15.157 Y242.858
X15.182 Y242.886
X15.196 Y242.921
X15.198 Y242.958
X15.187 Y242.994
X15.167 Y243.026
X15.138 Y243.049
X15.103 Y243.063
X15.065 Y243.066
X15.029 Y243.055
X14.999 Y243.034
X14.976 Y243.004
X14.963 Y242.969
X14.961 Y242.931
X14.97 Y242.895
X14.99 Y242.863
X15.017 Y242.838
X15.051 Y242.821
X15.088 Y242.816
X15.125 Y242.823
X15.159 Y242.839
X15.187 Y242.864
X15.206 Y242.896
X15.215 Y242.933
X15.213 Y242.97
X15.201 Y243.006
X15.18 Y243.037
X15.152 Y243.061
X15.118 Y243.077
X15.081 Y243.083
X15.043 Y243.079
X15.009 Y243.064
X14.98 Y243.04
X14.959 Y243.009
X14.946 Y242.974
X14.943 Y242.937
X14.95 Y242.9
X14.966 Y242.866
X14.99 Y242.837
X15.02 Y242.815
X15.055 Y242.802
X15.093 Y242.799
X15.13 Y242.805
X15.164 Y242.821
X15.193 Y242.844
X15.215 Y242.875
X15.229 Y242.909
X15.234 Y242.947
X15.229 Y242.984
X15.216 Y243.019
X15.194 Y243.05
X15.166 Y243.074
X15.132 Y243.091
X15.096 Y243.1
X15.058
X15.022 Y243.091
X14.989 Y243.073
X14.962 Y243.047
X14.941 Y243.016
X14.928 Y242.981
X14.924 Y242.944
X14.933 Y242.869
X14.978 Y242.809
X15.045 Y242.775
X15.12 Y242.773
X15.189 Y242.803
X15.239 Y242.859
X15.262 Y242.93
X15.253 Y243.005
X15.215 Y243.069
X15.155 Y243.114
X15.082 Y243.131
X15.008 Y243.116
X14.946 Y243.074
X14.906 Y243.01
X14.894 Y242.936
X14.906 Y242.862
X14.946 Y242.799
X15.008 Y242.756
X15.081 Y242.74
X15.155 Y242.753
X15.219 Y242.792
X15.265 Y242.851
X15.29 Y242.922
X15.287 Y242.997
X15.257 Y243.065
X15.205 Y243.12
X15.137 Y243.152
X15.062 Y243.159
X14.99 Y243.138
X14.928 Y243.096
X14.884 Y243.035
X14.864 Y242.963
X14.866 Y242.888
X14.893 Y242.818
X14.943 Y242.762
X15.008 Y242.725
X15.082 Y242.712
X15.157 Y242.722
X15.223 Y242.756
X15.276 Y242.809
X15.311 Y242.876
X15.323 Y242.95
X15.311 Y243.024
X15.276 Y243.09
X15.222 Y243.143
X15.156 Y243.177
X15.082 Y243.19
X15.008 Y243.179
X14.94 Y243.147
X14.885 Y243.096
X14.848 Y243.031
X14.831 Y242.958
X14.836 Y242.883
X14.862 Y242.812
X14.907 Y242.752
X14.968 Y242.708
X15.039 Y242.684
X15.113 Y242.68
X15.186 Y242.699
X15.251 Y242.737
X15.302 Y242.791
X15.337 Y242.858
X15.353 Y242.931
X15.349 Y243.006
X15.323 Y243.076
X15.279 Y243.137
X15.221 Y243.184
X15.152 Y243.213
X15.077 Y243.222
X15.003 Y243.211
X14.935 Y243.18
X14.876 Y243.134
X14.832 Y243.073
X14.805 Y243.003
X14.797 Y242.928
X14.808 Y242.854
X14.838 Y242.785
X14.886 Y242.727
X14.946 Y242.683
X15.016 Y242.656
X15.091 Y242.647
X15.165 Y242.657
X15.235 Y242.685
X15.295 Y242.73
X15.342 Y242.788
X15.373 Y242.856
X15.387 Y242.93
X15.383 Y243.005
X15.359 Y243.076
X15.32 Y243.14
X15.267 Y243.193
X15.202 Y243.231
X15.13 Y243.252
X15.055 Y243.256
X14.982 Y243.24
X14.914 Y243.209
X14.856 Y243.162
X14.81 Y243.102
X14.779 Y243.034
X14.764 Y242.96
X14.767 Y242.885
X14.786 Y242.813
X14.822 Y242.747
X14.873 Y242.692
X14.935 Y242.65
X15.005 Y242.623
X15.079 Y242.612
X15.154 Y242.619
X15.225 Y242.643
X15.29 Y242.681
X15.344 Y242.732
X15.386 Y242.795
X15.413 Y242.865
X15.424 Y242.939
X15.411 Y243.088
X15.326 Y243.212
X15.197 Y243.289
X15.048 Y243.307
X14.905 Y243.265
X14.79 Y243.168
X14.724 Y243.033
X14.713 Y242.884
X14.762 Y242.742
X14.863 Y242.631
X15. Y242.57
X15.15 Y242.564
X15.291 Y242.616
X15.401 Y242.718
X15.464 Y242.854
X15.479 Y243.003
X15.434 Y243.146
X15.342 Y243.264
X15.212 Y243.339
X15.063 Y243.362
X14.917 Y243.331
X14.791 Y243.249
X14.703 Y243.128
X14.662 Y242.984
X14.673 Y242.834
X14.732 Y242.696
X14.835 Y242.587
X14.97 Y242.522
X15.119 Y242.505
X15.265 Y242.541
X15.39 Y242.624
X15.479 Y242.744
X15.526 Y242.887
X15.524 Y243.037
X15.475 Y243.179
X15.384 Y243.298
X15.259 Y243.38
X15.113 Y243.417
X14.964 Y243.405
X14.826 Y243.345
X14.715 Y243.245
X14.641 Y243.114
X14.61 Y242.968
X14.623 Y242.818
X14.679 Y242.679
X14.775 Y242.564
X14.903 Y242.486
X15.049 Y242.45
X15.199 Y242.461
X15.338 Y242.517
X15.452 Y242.614
X15.534 Y242.74
X15.578 Y242.883
X15.579 Y243.033
X15.538 Y243.177
X15.458 Y243.304
X15.343 Y243.4
X15.204 Y243.458
X15.055 Y243.474
X14.908 Y243.445
X14.776 Y243.375
X14.668 Y243.27
X14.593 Y243.14
X14.556 Y242.995
X14.559 Y242.845
X14.602 Y242.701
X14.683 Y242.575
X14.797 Y242.477
X14.934 Y242.415
X15.082 Y242.394
X15.231 Y242.414
X15.368 Y242.474
X15.485 Y242.569
X15.573 Y242.69
X15.626 Y242.83
X15.642 Y242.98
X15.619 Y243.128
X15.558 Y243.265
X15.463 Y243.381
X15.339 Y243.466
X15.198 Y243.516
X15.048 Y243.527
X14.901 Y243.5
X14.765 Y243.436
X14.651 Y243.339
X14.564 Y243.217
X14.51 Y243.076
X14.493 Y242.927
X14.512 Y242.779
X14.568 Y242.639
X14.658 Y242.519
X14.776 Y242.426
X14.913 Y242.365
X15.06 Y242.338
X15.21 Y242.35
X15.352 Y242.399
X15.478 Y242.48
X15.58 Y242.59
X15.654 Y242.721
X15.694 Y242.865
X15.699 Y243.015
X15.669 Y243.162
X15.604 Y243.297
X15.509 Y243.413
X15.389 Y243.504
X15.251 Y243.562
X15.103 Y243.587
X14.954 Y243.575
X14.811 Y243.529
X14.683 Y243.451
X14.577 Y243.345
X14.498 Y243.217
X14.45 Y243.075
X14.435 Y242.926
X14.454 Y242.777
X14.506 Y242.636
X14.588 Y242.511
X14.697 Y242.408
X14.827 Y242.332
X14.97 Y242.288
X15.12 Y242.278
X15.268 Y242.302
X15.406 Y242.359
X15.529 Y242.446
X15.629 Y242.558
X15.703 Y242.688
X15.747 Y242.832
X15.76 Y242.981
X15.74 Y243.13
X15.688 Y243.27
X15.607 Y243.396
X15.5 Y243.502
X15.373 Y243.581
X15.231 Y243.63
X15.082 Y243.648
X14.933 Y243.632
X14.791 Y243.584
X14.662 Y243.508
X14.552 Y243.406
X14.465 Y243.283
X14.406 Y243.146
X14.377 Y242.998
X14.379 Y242.848
X14.411 Y242.702
X14.473 Y242.566
X14.563 Y242.445
X14.676 Y242.347
X14.808 Y242.275
X14.951 Y242.231
X15.101 Y242.219
X15.25 Y242.237
X15.392 Y242.285
X15.521 Y242.361
X15.632 Y242.462
X15.72 Y242.584
X15.782 Y242.72
X15.817 Y242.866
X15.821 Y243.016
X15.795 Y243.164
X15.74 Y243.304
X15.658 Y243.429
X15.553 Y243.536
X15.428 Y243.619
X15.29 Y243.677
X15.143 Y243.706
X14.993 Y243.704
X14.846 Y243.673
X14.708 Y243.613
X14.585 Y243.527
X14.481 Y243.42
X14.399 Y243.294
X14.343 Y243.155
X14.315 Y243.007
X14.316 Y242.857
X14.345 Y242.71
X14.401 Y242.571
X14.483 Y242.445
X14.587 Y242.338
X14.711 Y242.252
X14.848 Y242.193
X14.995 Y242.16
X15.145 Y242.157
X15.293 Y242.182
X15.433 Y242.234
X15.561 Y242.313
X15.672 Y242.414
X15.762 Y242.534
X15.829 Y242.668
X15.87 Y242.812
X15.885 Y242.962
X15.872 Y243.111
X15.831 Y243.256
X15.765 Y243.39
X15.674 Y243.509
X15.563 Y243.61
X15.435 Y243.689
X15.295 Y243.742
X15.147 Y243.769
X14.997 Y243.768
X14.85 Y243.739
X14.71 Y243.684
X14.583 Y243.605
X14.471 Y243.504
X14.379 Y243.386
X14.31 Y243.253
X14.265 Y243.11
X14.247 Y242.961
X14.256 Y242.811
X14.291 Y242.665
X14.351 Y242.528
X14.434 Y242.403
X14.539 Y242.296
X14.661 Y242.209
X14.797 Y242.145
X14.942 Y242.106
X15.091 Y242.093
X15.24 Y242.106
X15.385 Y242.145
X15.521 Y242.209
X15.643 Y242.295
X15.748 Y242.402
X15.834 Y242.526
X15.897 Y242.662
X15.936 Y242.807
X15.95 Y242.956
X15.938 Y243.106
X15.901 Y243.251
X15.839 Y243.387
X15.755 Y243.512
X15.651 Y243.62
X15.53 Y243.709
X15.396 Y243.776
X15.252 Y243.819
X15.103 Y243.837
X14.954 Y243.828
X14.807 Y243.795
X14.669 Y243.737
X14.542 Y243.657
X14.43 Y243.557
X14.337 Y243.44
X14.264 Y243.309
X14.214 Y243.167
X14.187 Y243.019
X14.185 Y242.869
X14.208 Y242.721
X14.254 Y242.578
X14.323 Y242.445
X14.413 Y242.326
X14.523 Y242.223
X14.648 Y242.14
X14.784 Y242.078
X14.93 Y242.04
X15.079 Y242.027
X15.229 Y242.037
X15.374 Y242.072
X15.513 Y242.131
X15.639 Y242.211
X15.752 Y242.31
X15.847 Y242.426
X15.923 Y242.555
X15.978 Y242.695
X16.009 Y242.842
X16.017 Y242.991
X16. Y243.14
X15.96 Y243.285
X15.897 Y243.421
X15.813 Y243.546
X15.711 Y243.655
X15.592 Y243.747
X15.461 Y243.819
X15.319 Y243.869
X15.172 Y243.897
X15.022 Y243.9
X14.873 Y243.88
X14.73 Y243.837
X14.594 Y243.772
X14.471 Y243.687
X14.363 Y243.583
X14.272 Y243.464
X14.2 Y243.332
X14.15 Y243.191
X14.122 Y243.043
X14.117 Y242.893
X14.135 Y242.745
X14.175 Y242.6
X14.237 Y242.463
X14.319 Y242.338
X14.419 Y242.226
X14.535 Y242.131
X14.665 Y242.056
X14.804 Y242.001
X14.951 Y241.968
X15.1 Y241.958
X15.25 Y241.972
X15.396 Y242.008
X15.534 Y242.065
X15.662 Y242.143
X15.777 Y242.24
X15.876 Y242.352
X15.958 Y242.478
X16.02 Y242.614
X16.062 Y242.759
X16.082 Y242.907
X16.079 Y243.057
X16.055 Y243.205
X16.008 Y243.348
X15.941 Y243.482
X15.854 Y243.604
X15.75 Y243.712
X15.631 Y243.804
X15.5 Y243.877
X15.36 Y243.929
X15.213 Y243.96
X15.063 Y243.969
X14.914 Y243.956
X14.768 Y243.921
X14.628 Y243.865
X14.499 Y243.79
X14.381 Y243.697
X14.278 Y243.588
X14.192 Y243.465
X14.125 Y243.331
X14.078 Y243.189
X14.052 Y243.041
X14.047 Y242.891
X14.064 Y242.742
X14.103 Y242.597
X14.161 Y242.459
X14.239 Y242.331
X14.335 Y242.215
X14.446 Y242.114
X14.57 Y242.03
X14.705 Y241.965
X14.848 Y241.919
X14.996 Y241.895
X15.146 Y241.891
X15.295 Y241.91
X15.439 Y241.949
X15.577 Y242.009
X15.705 Y242.088
X15.82 Y242.184
X15.921 Y242.295
X16.005 Y242.419
X16.071 Y242.554
X16.118 Y242.696
X16.145 Y242.844
X16.151 Y242.994
X16.137 Y243.143
X16.101 Y243.289
X16.047 Y243.428
X15.973 Y243.559
X15.882 Y243.678
X15.775 Y243.783
X15.654 Y243.872
X15.522 Y243.944
X15.381 Y243.996
X15.235 Y244.028
X15.085 Y244.039
X14.935 Y244.029
X14.788 Y244.
X14.647 Y243.95
X14.513 Y243.881
X14.39 Y243.796
X14.28 Y243.694
X14.185 Y243.578
X14.105 Y243.451
X14.044 Y243.314
X14.002 Y243.17
X13.98 Y243.022
X13.978 Y242.872
X13.996 Y242.723
X14.034 Y242.578
X14.092 Y242.439
X14.168 Y242.31
X14.26 Y242.192
X14.368 Y242.088
X14.489 Y241.999
X14.62 Y241.926
X14.76 Y241.872
X14.906 Y241.837
X15.055 Y241.822
X15.205 Y241.827
X15.353 Y241.852
X15.497 Y241.896
X15.633 Y241.959
X15.759 Y242.04
X15.874 Y242.137
X15.974 Y242.248
X16.06 Y242.371
X16.128 Y242.505
X16.178 Y242.646
X16.21 Y242.793
X16.222 Y242.942
X16.214 Y243.092
X16.188 Y243.24
X16.142 Y243.383
X16.078 Y243.518
X15.998 Y243.645
X15.901 Y243.76
X15.79 Y243.861
X15.667 Y243.947
X15.534 Y244.016
X15.393 Y244.066
X15.246 Y244.098
X15.097 Y244.11
X14.947 Y244.103
X14.8 Y244.076
X14.657 Y244.031
X14.521 Y243.967
X14.394 Y243.887
X14.278 Y243.791
X14.176 Y243.682
X14.088 Y243.56
X14.016 Y243.429
X13.961 Y243.289
X13.925 Y243.144
X13.907 Y242.995
X13.908 Y242.845
X13.928 Y242.696
X13.967 Y242.551
X14.025 Y242.413
X14.099 Y242.283
X14.19 Y242.163
X14.295 Y242.056
X14.413 Y241.963
X14.541 Y241.886
X14.679 Y241.825
X14.822 Y241.782
X14.97 Y241.758
X15.12 Y241.752
X15.27 Y241.764
X15.416 Y241.795
X15.558 Y241.845
X15.692 Y241.911
X15.817 Y241.994
X15.931 Y242.092
X16.032 Y242.204
X16.117 Y242.326
X16.187 Y242.459
X16.24 Y242.6
X16.276 Y242.745
X16.293 Y242.894
X16.291 Y243.044
X16.271 Y243.193
X16.234 Y243.338
X16.179 Y243.478
X16.107 Y243.61
X16.02 Y243.732
X15.919 Y243.842
X15.805 Y243.94
X15.68 Y244.023
X15.545 Y244.089
X15.404 Y244.139
X15.257 Y244.17
X15.107 Y244.183
X14.958 Y244.177
X14.809 Y244.154
X14.665 Y244.112
X14.527 Y244.053
X14.398 Y243.978
X14.278 Y243.888
X14.169 Y243.784
X14.074 Y243.668
X13.994 Y243.541
X13.928 Y243.406
X13.88 Y243.265
X13.848 Y243.118
X13.834 Y242.969
X13.837 Y242.819
X13.859 Y242.67
X13.899 Y242.526
X13.956 Y242.387
X14.029 Y242.256
X14.118 Y242.135
X14.22 Y242.025
X14.335 Y241.929
X14.461 Y241.847
X14.595 Y241.78
X14.736 Y241.73
X14.883 Y241.697
X15.032 Y241.681
X15.182 Y241.683
X15.331 Y241.702
X15.476 Y241.738
X15.616 Y241.791
X15.749 Y241.861
X15.873 Y241.945
X15.986 Y242.044
X16.087 Y242.155
X16.174 Y242.277
X16.246 Y242.409
X16.302 Y242.548
X16.341 Y242.693
X16.363 Y242.841
X16.367 Y242.991
X16.354 Y243.141
X16.324 Y243.288
X16.278 Y243.43
X16.215 Y243.567
X16.138 Y243.695
X16.046 Y243.814
X15.941 Y243.921
X15.825 Y244.015
X15.698 Y244.096
X15.563 Y244.161
X15.421 Y244.21
X15.274 Y244.242
X15.125 Y244.256
X14.975 Y244.253
X14.827 Y244.233
X14.681 Y244.196
X14.541 Y244.142
X14.408 Y244.072
X14.284 Y243.988
X14.171 Y243.89
X14.069 Y243.78
X13.98 Y243.659
X13.905 Y243.529
X13.844 Y243.392
X13.8 Y243.249
X13.771 Y243.101
X13.76 Y242.952
X13.765 Y242.802
X13.787 Y242.654
X13.826 Y242.509
X13.882 Y242.369
X13.953 Y242.237
X14.039 Y242.114
X14.138 Y242.002
X14.249 Y241.901
X14.371 Y241.814
X14.502 Y241.741
X14.641 Y241.683
X14.785 Y241.641
X14.932 Y241.616
X15.082 Y241.606
X15.232 Y241.613
X15.38 Y241.637
X15.525 Y241.677
X15.664 Y241.732
X15.797 Y241.803
X15.92 Y241.888
X16.034 Y241.986
X16.135 Y242.096
X16.224 Y242.217
X16.299 Y242.347
X16.359 Y242.485
X16.403 Y242.628
X16.431 Y242.775
X16.442 Y242.925
X16.437 Y243.075
X16.416 Y243.223
X16.378 Y243.368
X16.325 Y243.509
X16.258 Y243.643
X16.176 Y243.769
X16.081 Y243.885
X15.974 Y243.99
X15.857 Y244.084
X15.73 Y244.163
X15.595 Y244.229
X15.453 Y244.279
X15.307 Y244.313
X15.158 Y244.33
X15.008 Y244.331
X14.859 Y244.315
X14.713 Y244.283
X14.57 Y244.235
X14.434 Y244.172
X14.306 Y244.095
X14.186 Y244.004
X14.077 Y243.901
X13.98 Y243.787
X13.895 Y243.664
X13.823 Y243.532
X13.766 Y243.394
X13.723 Y243.25
X13.696 Y243.102
X13.684 Y242.953
X13.689 Y242.803
X13.71 Y242.654
X13.747 Y242.509
X13.799 Y242.368
X13.867 Y242.234
X13.948 Y242.108
X14.043 Y241.992
X14.15 Y241.887
X14.267 Y241.793
X14.394 Y241.713
X14.529 Y241.647
X14.67 Y241.595
X14.815 Y241.559
X14.963 Y241.538
X15.113 Y241.532
X15.263 Y241.542
X15.411 Y241.567
X15.555 Y241.608
X15.695 Y241.663
X15.827 Y241.733
X15.952 Y241.816
X16.067 Y241.913
X16.171 Y242.02
X16.263 Y242.139
X16.343 Y242.266
X16.408 Y242.401
X16.458 Y242.543
X16.493 Y242.689
X16.513 Y242.837
X16.517 Y242.987
X16.506 Y243.137
X16.479 Y243.284
X16.437 Y243.428
X16.381 Y243.568
X16.311 Y243.7
X16.228 Y243.825
X16.133 Y243.941
X16.026 Y244.046
X15.909 Y244.14
X15.783 Y244.221
X15.649 Y244.289
X15.508 Y244.342
X15.363 Y244.38
X15.215 Y244.402
X15.065 Y244.409
X14.915 Y244.4
X14.767 Y244.375
X14.623 Y244.335
X14.483 Y244.28
X14.35 Y244.212
X14.224 Y244.13
X14.107 Y244.035
X14.001 Y243.93
X13.905 Y243.814
X13.822 Y243.69
X13.751 Y243.557
X13.694 Y243.419
X13.65 Y243.275
X13.622 Y243.128
X13.608 Y242.979
X13.61 Y242.829
X13.627 Y242.68
X13.66 Y242.533
X13.707 Y242.391
X13.769 Y242.254
X13.844 Y242.125
X13.933 Y242.004
X14.033 Y241.892
X14.145 Y241.792
X14.266 Y241.703
X14.395 Y241.627
X14.531 Y241.564
X14.673 Y241.515
X14.819 Y241.481
X14.968 Y241.461
X15.118 Y241.455
X15.267 Y241.465
X15.415 Y241.489
X15.56 Y241.528
X15.701 Y241.581
X15.835 Y241.648
X15.962 Y241.728
X16.08 Y241.82
X16.188 Y241.924
X16.285 Y242.038
X16.37 Y242.162
X16.443 Y242.293
X16.501 Y242.431
X16.546 Y242.575
X16.576 Y242.722
X16.591 Y242.871
X16.592 Y243.021
X16.578 Y243.17
X16.549 Y243.317
X16.507 Y243.461
X16.451 Y243.6
X16.381 Y243.733
X16.299 Y243.859
X16.206 Y243.976
X16.101 Y244.083
X15.986 Y244.18
X15.862 Y244.265
X15.731 Y244.336
X15.592 Y244.395
X15.449 Y244.439
X15.302 Y244.469
X15.153 Y244.484
X15.003 Y244.483
X14.853 Y244.468
X14.706 Y244.439
X14.563 Y244.395
X14.425 Y244.337
X14.292 Y244.266
X14.168 Y244.183
X14.051 Y244.088
X13.945 Y243.983
X13.848 Y243.868
X13.764 Y243.744
X13.691 Y243.613
X13.631 Y243.475
X13.584 Y243.333
X13.551 Y243.186
X13.533 Y243.038
X13.529 Y242.888
X13.54 Y242.738
X13.565 Y242.59
X13.605 Y242.446
X13.659 Y242.305
X13.726 Y242.171
X13.806 Y242.044
X13.898 Y241.926
X14.001 Y241.817
X14.114 Y241.718
X14.236 Y241.631
X14.366 Y241.555
X14.502 Y241.493
X14.644 Y241.443
X14.789 Y241.407
X14.938 Y241.385
X15.087 Y241.377
X15.237 Y241.383
X15.386 Y241.403
X15.532 Y241.437
X15.674 Y241.485
X15.811 Y241.546
X15.941 Y241.62
X16.064 Y241.706
X16.178 Y241.804
X16.282 Y241.912
X16.375 Y242.03
X16.456 Y242.156
X16.526 Y242.289
X16.582 Y242.428
X16.624 Y242.572
X16.654 Y242.719
X16.669 Y242.868
X16.67 Y243.018
X16.657 Y243.168
X16.631 Y243.315
X16.591 Y243.46
X16.537 Y243.6
X16.471 Y243.735
X16.393 Y243.863
X16.304 Y243.983
X16.203 Y244.094
X16.092 Y244.196
X15.973 Y244.286
X15.845 Y244.365
X15.711 Y244.431
X15.57 Y244.484
X15.426 Y244.524
X15.278 Y244.55
X15.128 Y244.562
X14.978 Y244.559
X14.829 Y244.543
X14.682 Y244.512
X14.539 Y244.469
X14.4 Y244.412
X14.267 Y244.342
X14.141 Y244.261
X14.023 Y244.169
X13.914 Y244.066
X13.814 Y243.953
X13.726 Y243.833
X13.648 Y243.704
X13.583 Y243.569
X13.53 Y243.429
X13.49 Y243.284
X13.464 Y243.136
X13.452 Y242.987
X13.453 Y242.837
X13.468 Y242.688
X13.497 Y242.541
X13.54 Y242.397
X13.596 Y242.257
X13.664 Y242.124
X13.744 Y241.997
X13.836 Y241.879
X13.938 Y241.769
X14.05 Y241.669
X14.171 Y241.579
X14.299 Y241.501
X14.433 Y241.435
X14.573 Y241.382
X14.718 Y241.341
X14.865 Y241.313
X15.015 Y241.299
X15.165 Y241.298
X15.314 Y241.311
X15.462 Y241.337
X15.606 Y241.377
X15.747 Y241.43
X15.882 Y241.495
X16.011 Y241.572
X16.132 Y241.66
X16.244 Y241.76
X16.347 Y241.869
X16.44 Y241.986
X16.522 Y242.112
X16.592 Y242.245
X16.65 Y242.383
X16.695 Y242.526
X16.727 Y242.673
X16.746 Y242.822
X16.751 Y242.972
X16.743 Y243.121
X16.722 Y243.27
X16.688 Y243.416
X16.641 Y243.558
X16.581 Y243.696
X16.51 Y243.828
X16.427 Y243.953
X16.334 Y244.07
X16.23 Y244.179
X16.117 Y244.277
X15.996 Y244.365
X15.867 Y244.442
X15.732 Y244.507
X15.591 Y244.56
X15.447 Y244.6
X15.299 Y244.626
X15.15 Y244.64
X15.
X14.85 Y244.626
X14.703 Y244.6
X14.558 Y244.56
X14.417 Y244.507
X14.282 Y244.443
X14.153 Y244.367
X14.031 Y244.279
X13.917 Y244.182
X13.812 Y244.075
X13.717 Y243.959
X13.632 Y243.835
X13.558 Y243.704
X13.496 Y243.568
X13.446 Y243.426
X13.409 Y243.281
X13.384 Y243.133
X13.373 Y242.983
X13.374 Y242.833
X13.389 Y242.684
X13.417 Y242.537
X13.458 Y242.392
X13.511 Y242.252
X13.576 Y242.117
X13.653 Y241.989
X13.741 Y241.867
X13.84 Y241.754
X13.948 Y241.65
X14.065 Y241.556
X14.189 Y241.472
X14.32 Y241.399
X14.457 Y241.338
X14.599 Y241.289
X14.745 Y241.253
X14.893 Y241.229
X15.042 Y241.218
X15.192 Y241.22
X15.342 Y241.235
X15.489 Y241.262
X15.633 Y241.302
X15.774 Y241.355
X15.909 Y241.419
X16.039 Y241.495
X16.161 Y241.582
X16.276 Y241.679
X16.381 Y241.786
X16.477 Y241.901
X16.563 Y242.024
X16.637 Y242.154
X16.7 Y242.29
X16.751 Y242.431
X16.79 Y242.576
X16.816 Y242.724
X16.83 Y242.873
Y243.023
X16.818 Y243.173
X16.794 Y243.321
X16.757 Y243.466
X16.707 Y243.608
X16.646 Y243.745
X16.574 Y243.876
X16.491 Y244.001
X16.397 Y244.118
X16.294 Y244.227
X16.182 Y244.327
X16.062 Y244.417
X15.935 Y244.497
X15.801 Y244.565
X15.662 Y244.621
X15.519 Y244.665
X15.373 Y244.697
X15.224 Y244.716
X15.074 Y244.723
X14.924 Y244.716
X14.775 Y244.697
X14.629 Y244.665
X14.485 Y244.62
X14.346 Y244.564
X14.213 Y244.496
X14.085 Y244.418
X13.964 Y244.329
X13.851 Y244.23
X13.747 Y244.122
X13.652 Y244.006
X13.567 Y243.882
X13.492 Y243.752
X13.429 Y243.616
X13.377 Y243.476
X13.337 Y243.331
X13.309 Y243.184
X13.294 Y243.035
X13.291 Y242.885
X13.3 Y242.735
X13.323 Y242.587
X13.358 Y242.441
X13.405 Y242.298
X13.463 Y242.16
X13.534 Y242.028
X13.615 Y241.902
X13.706 Y241.783
X13.807 Y241.672
X13.917 Y241.57
X14.035 Y241.477
X14.161 Y241.395
X14.293 Y241.323
X14.43 Y241.263
X14.572 Y241.214
X14.717 Y241.176
X14.865 Y241.151
X15.014 Y241.138
X15.164 Y241.137
X15.314 Y241.149
X15.462 Y241.173
X15.607 Y241.209
X15.75 Y241.257
X15.887 Y241.316
X16.02 Y241.387
X16.146 Y241.468
X16.264 Y241.56
X16.375 Y241.661
X16.477 Y241.771
X16.57 Y241.889
X16.652 Y242.015
X16.724 Y242.146
X16.784 Y242.283
X16.834 Y242.425
X16.871 Y242.57
X16.897 Y242.718
X16.91 Y242.868
X16.911 Y243.018
X16.901 Y243.167
X16.878 Y243.315
X16.843 Y243.461
X16.796 Y243.604
X16.739 Y243.742
X16.67 Y243.876
X16.59 Y244.003
X16.501 Y244.123
X16.402 Y244.236
X16.294 Y244.34
X16.178 Y244.435
X16.055 Y244.521
X15.925 Y244.595
X15.789 Y244.659
X15.648 Y244.712
X15.504 Y244.753
X15.357 Y244.782
X15.208 Y244.799
X15.058 Y244.803
X14.908 Y244.796
X14.759 Y244.776
X14.613 Y244.744
X14.469 Y244.7
X14.33 Y244.646
X14.195 Y244.58
X14.066 Y244.503
X13.943 Y244.417
X13.828 Y244.321
X13.721 Y244.216
X13.622 Y244.103
X13.533 Y243.982
X13.454 Y243.855
X13.385 Y243.721
X13.327 Y243.583
X13.28 Y243.441
X13.245 Y243.295
X13.221 Y243.147
X13.21 Y242.997
Y242.847
X13.223 Y242.698
X13.247 Y242.55
X13.284 Y242.404
X13.332 Y242.262
X13.391 Y242.124
X13.461 Y241.992
X13.541 Y241.865
X13.632 Y241.745
X13.731 Y241.633
X13.84 Y241.529
X13.956 Y241.434
X14.079 Y241.349
X14.209 Y241.274
X14.344 Y241.209
X14.484 Y241.155
X14.628 Y241.112
X14.774 Y241.081
X14.923 Y241.061
X15.073 Y241.053
X15.223 Y241.057
X15.372 Y241.073
X15.519 Y241.101
X15.664 Y241.14
X15.805 Y241.191
X15.942 Y241.252
X16.074 Y241.324
X16.199 Y241.407
X16.318 Y241.499
X16.429 Y241.6
X16.531 Y241.709
X16.625 Y241.826
X16.709 Y241.951
X16.783 Y242.081
X16.846 Y242.217
X16.899 Y242.358
X16.94 Y242.502
X16.97 Y242.649
X16.989 Y242.797
X16.996 Y242.947
X16.991 Y243.097
X16.974 Y243.246
X16.946 Y243.394
X16.907 Y243.538
X16.856 Y243.68
X16.795 Y243.817
X16.723 Y243.948
X16.641 Y244.074
X16.55 Y244.193
X16.45 Y244.305
X16.341 Y244.408
X16.225 Y244.503
X16.101 Y244.588
X15.971 Y244.663
X15.836 Y244.728
X15.696 Y244.782
X15.553 Y244.825
X15.406 Y244.857
X15.257 Y244.877
X15.108 Y244.886
X14.958 Y244.882
X14.808 Y244.868
X14.661 Y244.841
X14.516 Y244.803
X14.374 Y244.754
X14.236 Y244.694
X14.104 Y244.624
X13.977 Y244.544
X13.857 Y244.454
X13.744 Y244.356
X13.639 Y244.249
X13.542 Y244.134
X13.454 Y244.012
X13.376 Y243.884
X13.308 Y243.751
X13.25 Y243.612
X13.203 Y243.47
X13.167 Y243.324
X13.142 Y243.177
X13.129 Y243.027
X13.127 Y242.877
X13.136 Y242.727
X13.157 Y242.579
X13.19 Y242.432
X13.233 Y242.289
X13.288 Y242.149
X13.353 Y242.014
X13.428 Y241.884
X13.513 Y241.761
X13.608 Y241.644
X13.711 Y241.535
X13.822 Y241.434
X13.94 Y241.342
X14.065 Y241.259
X14.196 Y241.186
X14.332 Y241.124
X14.473 Y241.071
X14.617 Y241.029
X14.764 Y240.999
X14.913 Y240.979
X15.062 Y240.971
X15.212 Y240.974
X15.362 Y240.989
X15.509 Y241.014
X15.655 Y241.051
X15.797 Y241.098
X15.935 Y241.157
X16.069 Y241.225
X16.197 Y241.303
X16.318 Y241.391
X16.433 Y241.488
X16.54 Y241.594
X16.638 Y241.707
X16.728 Y241.827
X16.808 Y241.954
X16.879 Y242.086
X16.939 Y242.223
X16.989 Y242.365
X17.028 Y242.51
X17.056 Y242.657
X17.073 Y242.806
X17.079 Y242.956
X17.073 Y243.106
X17.057 Y243.255
X17.029 Y243.402
X16.991 Y243.547
X16.942 Y243.689
X16.882 Y243.827
X16.813 Y243.96
X16.734 Y244.087
X16.645 Y244.208
X16.548 Y244.323
X16.442 Y244.429
X16.329 Y244.528
X16.209 Y244.617
X16.082 Y244.698
X15.95 Y244.768
X15.813 Y244.829
X15.671 Y244.879
X15.527 Y244.918
X15.379 Y244.946
X15.23 Y244.963
X15.08 Y244.969
X14.93 Y244.964
X14.781 Y244.948
X14.634 Y244.92
X14.489 Y244.882
X14.347 Y244.833
X14.209 Y244.774
X14.076 Y244.704
X13.949 Y244.625
X13.827 Y244.537
X13.713 Y244.441
X13.605 Y244.336
X13.506 Y244.223
X13.415 Y244.104
X13.333 Y243.978
X13.261 Y243.847
X13.198 Y243.711
X13.145 Y243.57
X13.103 Y243.426
X13.072 Y243.28
X13.052 Y243.131
X13.042 Y242.981
X13.044 Y242.831
X13.057 Y242.682
X13.08 Y242.534
X13.115 Y242.388
X13.16 Y242.245
X13.216 Y242.106
X13.282 Y241.971
X13.357 Y241.841
X13.442 Y241.717
X13.536 Y241.6
X13.638 Y241.49
X13.748 Y241.388
X13.864 Y241.294
X13.988 Y241.209
X14.117 Y241.133
X14.252 Y241.067
X14.391 Y241.01
X14.534 Y240.964
X14.679 Y240.929
X14.827 Y240.904
X14.977 Y240.889
X15.126 Y240.886
X15.276 Y240.894
X15.425 Y240.912
X15.572 Y240.941
X15.717 Y240.981
X15.858 Y241.031
X15.996 Y241.092
X16.128 Y241.162
X16.255 Y241.242
X16.376 Y241.33
X16.49 Y241.428
X16.597 Y241.533
X16.696 Y241.646
X16.787 Y241.765
X16.868 Y241.891
X16.941 Y242.022
X17.003 Y242.159
X17.056 Y242.299
X17.098 Y242.443
X17.13 Y242.59
X17.152 Y242.738
X17.162 Y242.888
Y243.038
X17.151 Y243.187
X17.13 Y243.336
X17.098 Y243.482
X17.055 Y243.626
X17.002 Y243.767
X16.94 Y243.903
X16.868 Y244.034
X16.786 Y244.16
X16.696 Y244.28
X16.597 Y244.393
X16.491 Y244.499
X16.377 Y244.597
X16.257 Y244.686
X16.13 Y244.767
X15.998 Y244.838
X15.861 Y244.899
X15.72 Y244.951
X15.576 Y244.992
X15.429 Y245.023
X15.281 Y245.043
X15.131 Y245.053
X14.981 Y245.052
X14.832 Y245.04
X14.683 Y245.017
X14.537 Y244.984
X14.393 Y244.94
X14.253 Y244.887
X14.117 Y244.823
X13.986 Y244.751
X13.861 Y244.669
X13.741 Y244.578
X13.628 Y244.479
X13.523 Y244.372
X13.425 Y244.259
X13.335 Y244.138
X13.255 Y244.012
X13.183 Y243.88
X13.12 Y243.744
X13.068 Y243.604
X13.025 Y243.46
X12.993 Y243.313
X12.971 Y243.165
X12.959 Y243.015
X12.958 Y242.865
X12.968 Y242.716
X12.988 Y242.567
X13.019 Y242.42
X13.06 Y242.276
X13.111 Y242.135
X13.172 Y241.998
X13.243 Y241.866
X13.322 Y241.739
X13.411 Y241.617
X13.508 Y241.503
X13.612 Y241.395
X13.724 Y241.296
X13.843 Y241.204
X13.968 Y241.121
X14.098 Y241.047
X14.234 Y240.982
X14.373 Y240.927
X14.516 Y240.881
X14.662 Y240.846
X14.81 Y240.821
X14.959 Y240.806
X15.109 Y240.801
X15.259 Y240.808
X15.408 Y240.824
X15.555 Y240.851
X15.701 Y240.888
X15.843 Y240.935
X15.982 Y240.992
X16.117 Y241.058
X16.246 Y241.134
X16.37 Y241.218
X16.488 Y241.311
X16.599 Y241.412
X16.702 Y241.521
X16.798 Y241.636
X16.886 Y241.758
X16.964 Y241.886
X17.034 Y242.018
X17.094 Y242.156
X17.145 Y242.297
X17.186 Y242.441
X17.216 Y242.588
X17.237 Y242.737
X17.247 Y242.886
Y243.036
X17.237 Y243.186
X17.216 Y243.335
X17.185 Y243.481
X17.144 Y243.626
X17.094 Y243.767
X17.034 Y243.904
X16.964 Y244.037
X16.886 Y244.165
X16.799 Y244.287
X16.704 Y244.403
X16.601 Y244.512
X16.491 Y244.614
X16.374 Y244.708
X16.25 Y244.794
X16.122 Y244.87
X15.988 Y244.938
X15.85 Y244.997
X15.708 Y245.045
X15.563 Y245.084
X15.415 Y245.112
X15.267 Y245.131
X15.117 Y245.139
X14.967 Y245.136
X14.817 Y245.124
X14.669 Y245.101
X14.523 Y245.068
X14.379 Y245.025
X14.238 Y244.973
X14.102 Y244.911
X13.97 Y244.84
X13.843 Y244.76
X13.722 Y244.671
X13.607 Y244.575
X13.498 Y244.471
X13.398 Y244.36
X13.304 Y244.243
X13.219 Y244.119
X13.143 Y243.99
X13.075 Y243.856
X13.017 Y243.718
X12.968 Y243.576
X12.929 Y243.431
X12.9 Y243.284
X12.881 Y243.135
X12.872 Y242.986
X12.873 Y242.836
X12.885 Y242.686
X12.906 Y242.538
X12.938 Y242.391
X12.98 Y242.247
X13.031 Y242.106
X13.092 Y241.969
X13.161 Y241.836
X13.24 Y241.708
X13.327 Y241.586
X13.423 Y241.47
X13.525 Y241.361
X13.635 Y241.259
X13.752 Y241.165
X13.875 Y241.079
X14.003 Y241.001
X14.136 Y240.932
X14.274 Y240.872
X14.415 Y240.821
X14.559 Y240.78
X14.706 Y240.749
X14.854 Y240.728
X15.004 Y240.717
X15.154 Y240.716
X15.304 Y240.724
X15.453 Y240.743
X15.6 Y240.772
X15.745 Y240.811
X15.887 Y240.859
X16.025 Y240.917
X16.159 Y240.984
X16.289 Y241.06
X16.413 Y241.144
X16.531 Y241.236
X16.643 Y241.336
X16.748 Y241.444
X16.845 Y241.558
X16.935 Y241.678
X17.016 Y241.804
X17.089 Y241.935
X17.152 Y242.071
X17.207 Y242.211
X17.252 Y242.354
X17.288 Y242.5
X17.313 Y242.647
X17.329 Y242.797
X17.335 Y242.946
X17.331 Y243.096
X17.317 Y243.246
X17.293 Y243.394
X17.26 Y243.54
X17.217 Y243.684
X17.164 Y243.824
X17.103 Y243.961
X17.032 Y244.093
X16.953 Y244.221
X16.865 Y244.342
X16.77 Y244.458
X16.667 Y244.568
X16.557 Y244.67
X16.441 Y244.764
X16.319 Y244.851
X16.191 Y244.93
X16.058 Y245.
X15.921 Y245.06
X15.78 Y245.112
X15.636 Y245.154
X15.49 Y245.187
X15.342 Y245.21
X15.192 Y245.222
X15.042 Y245.225
X14.892 Y245.218
X14.743 Y245.202
X14.596 Y245.175
X14.45 Y245.138
X14.307 Y245.093
X14.168 Y245.037
X14.032 Y244.973
X13.901 Y244.9
X13.775 Y244.819
X13.655 Y244.729
X13.541 Y244.632
X13.433 Y244.528
X13.332 Y244.417
X13.239 Y244.299
X13.153 Y244.176
X13.076 Y244.047
X13.007 Y243.914
X12.947 Y243.777
X12.897 Y243.635
X12.855 Y243.491
X12.823 Y243.345
X12.801 Y243.196
X12.788 Y243.047
X12.785 Y242.897
X12.792 Y242.747
X12.809 Y242.598
X12.835 Y242.45
X12.871 Y242.305
X12.917 Y242.162
X12.971 Y242.022
X13.035 Y241.886
X13.108 Y241.755
X13.189 Y241.629
X13.278 Y241.508
X13.374 Y241.394
X13.478 Y241.286
X13.589 Y241.184
X13.706 Y241.091
X13.829 Y241.005
X13.958 Y240.927
X14.091 Y240.858
X14.228 Y240.797
X14.369 Y240.746
X14.513 Y240.703
X14.659 Y240.67
X14.807 Y240.647
X14.956 Y240.633
X15.106 Y240.628
X15.256 Y240.634
X15.406 Y240.649
X15.553 Y240.673
X15.7 Y240.708
X15.843 Y240.751
X15.984 Y240.804
X16.12 Y240.865
X16.253 Y240.936
X16.38 Y241.015
X16.503 Y241.101
X16.619 Y241.196
X16.729 Y241.298
X16.832 Y241.407
X16.928 Y241.522
X17.017 Y241.643
X17.097 Y241.77
X17.169 Y241.902
X17.232 Y242.038
X17.287 Y242.177
X17.333 Y242.32
X17.369 Y242.466
X17.396 Y242.613
X17.413 Y242.762
X17.421 Y242.912
X17.42 Y243.062
X17.408 Y243.212
X17.388 Y243.36
X17.358 Y243.507
X17.318 Y243.652
X17.27 Y243.794
X17.212 Y243.932
X17.146 Y244.067
X17.072 Y244.197
X16.989 Y244.322
X16.898 Y244.442
X16.8 Y244.556
X16.695 Y244.663
X16.584 Y244.763
X16.466 Y244.855
X16.342 Y244.941
X16.214 Y245.017
X16.08 Y245.086
X15.943 Y245.146
X15.801 Y245.197
X15.657 Y245.239
X15.511 Y245.271
X15.363 Y245.294
X15.213 Y245.308
X15.063 Y245.312
X14.914 Y245.307
X14.764 Y245.292
X14.616 Y245.268
X14.47 Y245.234
X14.326 Y245.191
X14.186 Y245.139
X14.048 Y245.078
X13.915 Y245.009
X13.787 Y244.932
X13.664 Y244.846
X13.546 Y244.753
X13.434 Y244.653
X13.329 Y244.546
X13.231 Y244.433
X13.14 Y244.313
X13.057 Y244.189
X12.982 Y244.059
X12.915 Y243.924
X12.857 Y243.786
X12.807 Y243.645
X12.767 Y243.5
X12.736 Y243.353
X12.714 Y243.205
X12.701 Y243.056
X12.698 Y242.906
X12.704 Y242.756
X12.72 Y242.607
X12.745 Y242.459
X12.779 Y242.313
X12.822 Y242.169
X12.874 Y242.028
X12.936 Y241.891
X13.005 Y241.759
X13.083 Y241.63
X13.169 Y241.507
X13.262 Y241.39
X13.362 Y241.278
X13.469 Y241.173
X13.583 Y241.075
X13.702 Y240.985
X13.827 Y240.902
X13.957 Y240.827
X14.092 Y240.76
X14.23 Y240.702
X14.371 Y240.652
X14.516 Y240.611
X14.662 Y240.58
X14.811 Y240.557
X14.96 Y240.544
X15.11 Y240.541
X15.26 Y240.546
X15.409 Y240.561
X15.557 Y240.585
X15.704 Y240.618
X15.848 Y240.661
X15.989 Y240.712
X16.126 Y240.772
X16.26 Y240.84
X16.389 Y240.916
X16.513 Y241.
X16.632 Y241.092
X16.744 Y241.191
X16.85 Y241.297
X16.95 Y241.409
X17.042 Y241.528
X17.127 Y241.651
X17.204 Y241.78
X17.273 Y241.913
X17.333 Y242.051
X17.385 Y242.191
X17.428 Y242.335
X17.462 Y242.481
X17.487 Y242.629
X17.503 Y242.778
X17.51 Y242.928
X17.507 Y243.078
X17.495 Y243.227
X17.474 Y243.376
X17.444 Y243.523
X17.405 Y243.668
X17.357 Y243.81
X17.301 Y243.949
X17.236 Y244.084
X17.163 Y244.215
X17.082 Y244.342
X16.994 Y244.463
X16.898 Y244.578
X16.795 Y244.687
X16.686 Y244.79
X16.571 Y244.886
X16.45 Y244.975
X16.323 Y245.056
X16.192 Y245.129
X16.057 Y245.193
X15.918 Y245.25
X15.776 Y245.297
X15.631 Y245.336
X15.484 Y245.366
X15.335 Y245.387
X15.186 Y245.398
X15.036 Y245.4
X14.886 Y245.393
X14.737 Y245.377
X14.589 Y245.352
X14.443 Y245.318
X14.299 Y245.275
X14.158 Y245.223
X14.021 Y245.163
X13.888 Y245.094
X13.759 Y245.018
X13.634 Y244.934
X13.515 Y244.842
X13.402 Y244.744
X13.295 Y244.638
X13.195 Y244.527
X13.102 Y244.41
X13.015 Y244.287
X12.937 Y244.159
X12.866 Y244.027
X12.804 Y243.89
X12.749 Y243.751
X12.704 Y243.608
X12.667 Y243.462
X12.639 Y243.315
X12.62 Y243.166
X12.61 Y243.016
Y242.866
X12.618 Y242.717
X12.635 Y242.568
X12.662 Y242.42
X12.697 Y242.274
X12.742 Y242.131
X12.794 Y241.991
X12.856 Y241.854
X12.925 Y241.721
X13.003 Y241.592
X13.088 Y241.469
X13.18 Y241.35
X13.279 Y241.238
X13.385 Y241.132
X13.497 Y241.032
X13.615 Y240.939
X13.738 Y240.854
X13.867 Y240.776
X13.999 Y240.706
X14.136 Y240.644
X14.276 Y240.591
X14.419 Y240.546
X14.565 Y240.509
X14.712 Y240.482
X14.861 Y240.463
X15.011 Y240.453
X15.161 Y240.452
X15.31 Y240.461
X15.459 Y240.478
X15.607 Y240.504
X15.753 Y240.539
X15.896 Y240.583
X16.037 Y240.635
X16.174 Y240.696
X16.307 Y240.765
X16.436 Y240.841
X16.561 Y240.926
X16.679 Y241.017
X16.793 Y241.116
X16.9 Y241.221
X17. Y241.332
X17.094 Y241.449
X17.18 Y241.572
X17.26 Y241.699
X17.331 Y241.831
X17.394 Y241.967
X17.449 Y242.107
X17.496 Y242.249
X17.534 Y242.394
X17.564 Y242.541
X17.584 Y242.69
X17.596 Y242.839
X17.599 Y242.989
X17.593 Y243.139
X17.578 Y243.288
X17.554 Y243.437
X17.522 Y243.583
X17.48 Y243.727
X17.431 Y243.869
X17.373 Y244.007
X17.307 Y244.142
X17.233 Y244.272
X17.151 Y244.398
X17.062 Y244.519
X16.967 Y244.634
X16.864 Y244.744
X16.755 Y244.847
X16.64 Y244.944
X16.52 Y245.033
X16.395 Y245.116
X16.265 Y245.19
X16.13 Y245.257
X15.992 Y245.316
X15.851 Y245.366
X15.707 Y245.408
X15.561 Y245.442
X15.413 Y245.466
X15.264 Y245.482
X15.114 Y245.489
X14.964 Y245.487
X14.814 Y245.476
X14.666 Y245.457
X14.518 Y245.428
X14.373 Y245.391
X14.23 Y245.346
X14.09 Y245.292
X13.954 Y245.23
X13.821 Y245.16
X13.693 Y245.082
X13.569 Y244.997
X13.451 Y244.905
X13.338 Y244.806
X13.231 Y244.7
X13.131 Y244.589
X13.037 Y244.472
X12.95 Y244.349
X12.871 Y244.222
X12.799 Y244.09
X12.735 Y243.955
X12.679 Y243.816
X12.631 Y243.674
X12.591 Y243.529
X12.561 Y243.382
X12.538 Y243.234
X12.525 Y243.084
X12.52 Y242.934
X12.524 Y242.784
X12.537 Y242.635
X12.558 Y242.487
X12.589 Y242.34
X12.627 Y242.195
X12.675 Y242.052
X12.73 Y241.913
X12.794 Y241.777
X12.865 Y241.645
X12.944 Y241.518
X13.03 Y241.395
X13.124 Y241.278
X13.224 Y241.166
X13.33 Y241.06
X13.443 Y240.961
X13.561 Y240.869
X13.684 Y240.783
X13.812 Y240.705
X13.944 Y240.634
X14.081 Y240.571
X14.22 Y240.516
X14.363 Y240.469
X14.508 Y240.431
X14.655 Y240.401
X14.803 Y240.38
X14.953 Y240.367
X15.102 Y240.363
X15.252 Y240.367
X15.402 Y240.381
X15.55 Y240.403
X15.697 Y240.433
X15.842 Y240.472
X15.984 Y240.519
X16.124 Y240.575
X16.26 Y240.638
X16.392 Y240.709
X16.519 Y240.788
X16.642 Y240.874
X16.76 Y240.967
X16.872 Y241.067
X16.978 Y241.173
X17.078 Y241.285
X17.171 Y241.402
X17.257 Y241.525
X17.336 Y241.653
X17.408 Y241.785
X17.471 Y241.92
X17.527 Y242.06
X17.575 Y242.202
X17.614 Y242.346
X17.646 Y242.493
X17.668 Y242.642
X17.682 Y242.791
X17.688 Y242.941
X17.685 Y243.091
X17.673 Y243.24
X17.653 Y243.389
X17.625 Y243.536
X17.588 Y243.681
X17.542 Y243.825
X17.489 Y243.965
X17.428 Y244.102
X17.359 Y244.235
X17.282 Y244.364
X17.198 Y244.488
X17.107 Y244.607
X17.01 Y244.721
X16.906 Y244.83
X16.796 Y244.932
X16.68 Y245.027
X16.559 Y245.116
X16.433 Y245.197
X16.303 Y245.272
X16.169 Y245.338
X16.031 Y245.397
X15.889 Y245.448
X15.746 Y245.491
X15.6 Y245.525
X15.452 Y245.551
X15.303 Y245.568
X15.153 Y245.577
X15.003 Y245.578
X14.853 Y245.57
X14.704 Y245.553
X14.557 Y245.528
X14.41 Y245.494
X14.266 Y245.452
X14.125 Y245.402
X13.986 Y245.344
X13.852 Y245.278
X13.721 Y245.205
X13.594 Y245.125
X13.472 Y245.037
X13.356 Y244.943
X13.245 Y244.842
X13.14 Y244.735
X13.041 Y244.622
X12.948 Y244.504
X12.863 Y244.381
X12.784 Y244.253
X12.713 Y244.121
X12.65 Y243.985
X12.594 Y243.846
X12.546 Y243.704
X12.506 Y243.559
X12.475 Y243.412
X12.452 Y243.264
X12.437 Y243.115
X12.431 Y242.965
X12.433 Y242.815
X12.444 Y242.665
X12.463 Y242.517
X12.49 Y242.369
X12.526 Y242.223
X12.57 Y242.08
X12.622 Y241.939
X12.682 Y241.802
X12.75 Y241.668
X12.825 Y241.538
X12.907 Y241.413
X12.996 Y241.292
X13.092 Y241.177
X13.194 Y241.067
X13.303 Y240.963
X13.417 Y240.866
X13.536 Y240.775
X13.66 Y240.691
X13.789 Y240.614
X13.922 Y240.544
X14.058 Y240.482
X14.198 Y240.428
X14.341 Y240.382
X14.486 Y240.343
X14.633 Y240.313
X14.781 Y240.292
X14.931 Y240.278
X15.081 Y240.273
X15.231 Y240.276
X15.38 Y240.288
X15.529 Y240.308
X15.676 Y240.336
X15.822 Y240.373
X15.965 Y240.417
X16.105 Y240.47
X16.243 Y240.53
X16.376 Y240.598
X16.506 Y240.673
X16.632 Y240.756
X16.752 Y240.845
X16.867 Y240.941
X16.977 Y241.043
X17.081 Y241.151
X17.179 Y241.265
X17.27 Y241.384
X17.354 Y241.508
X17.431 Y241.637
X17.501 Y241.77
X17.564 Y241.906
X17.619 Y242.046
X17.666 Y242.188
X17.704 Y242.333
X17.735 Y242.48
X17.758 Y242.628
X17.772 Y242.777
X17.778 Y242.927
X17.776 Y243.077
X17.765 Y243.227
X17.746 Y243.376
X17.719 Y243.523
X17.684 Y243.669
X17.641 Y243.813
X17.59 Y243.954
X17.531 Y244.092
X17.465 Y244.226
X17.392 Y244.357
X17.311 Y244.484
X17.223 Y244.605
X17.129 Y244.722
X17.029 Y244.833
X16.922 Y244.939
X16.81 Y245.038
X16.692 Y245.132
X16.57 Y245.218
X16.442 Y245.298
X16.311 Y245.37
X16.176 Y245.435
X16.037 Y245.492
X15.895 Y245.541
X15.751 Y245.583
X15.605 Y245.617
X15.457 Y245.642
X15.308 Y245.659
X15.158 Y245.668
X15.008
X14.859 Y245.661
X14.71 Y245.645
X14.562 Y245.62
X14.415 Y245.588
X14.271 Y245.548
X14.128 Y245.5
X13.989 Y245.444
X13.853 Y245.38
X13.721 Y245.31
X13.593 Y245.232
X13.469 Y245.147
X13.35 Y245.055
X13.237 Y244.958
X13.128 Y244.854
X13.026 Y244.744
X12.93 Y244.629
X12.84 Y244.509
X12.757 Y244.384
X12.681 Y244.255
X12.612 Y244.121
X12.55 Y243.985
X12.497 Y243.845
X12.45 Y243.702
X12.412 Y243.557
X12.382 Y243.41
X12.36 Y243.262
X12.346 Y243.112
X12.34 Y242.962
X12.342 Y242.812
X12.353 Y242.663
X12.371 Y242.514
X12.398 Y242.366
X12.433 Y242.221
X12.476 Y242.077
X12.527 Y241.936
X12.585 Y241.797
X12.65 Y241.662
X12.723 Y241.531
X12.803 Y241.404
X12.89 Y241.282
X12.984 Y241.165
X13.083 Y241.053
X13.189 Y240.946
X13.3 Y240.845
X13.416 Y240.751
X13.538 Y240.663
X13.664 Y240.582
X13.794 Y240.507
X13.928 Y240.44
X14.066 Y240.381
X14.207 Y240.328
X14.35 Y240.284
X14.496 Y240.248
X14.643 Y240.219
X14.791 Y240.198
X14.941 Y240.186
X15.091 Y240.182
X15.241 Y240.185
X15.39 Y240.197
X15.539 Y240.217
X15.686 Y240.245
X15.832 Y240.281
X15.975 Y240.325
X16.116 Y240.377
X16.254 Y240.436
X16.389 Y240.502
X16.519 Y240.575
X16.646 Y240.656
X16.768 Y240.743
X16.885 Y240.837
X16.997 Y240.937
X17.103 Y241.043
X17.204 Y241.154
X17.298 Y241.271
X17.386 Y241.392
X17.467 Y241.518
X17.541 Y241.649
X17.609 Y241.783
X17.668 Y241.92
X17.721 Y242.061
X17.765 Y242.204
X17.802 Y242.35
X17.831 Y242.497
X17.852 Y242.645
X17.865 Y242.795
X17.87 Y242.945
X17.867 Y243.095
X17.855 Y243.244
X17.836 Y243.393
X17.809 Y243.541
X17.774 Y243.686
X17.731 Y243.83
X17.681 Y243.971
X17.623 Y244.11
X17.558 Y244.245
X17.486 Y244.376
X17.406 Y244.504
X17.321 Y244.627
X17.228 Y244.745
X17.13 Y244.858
X17.025 Y244.966
X16.915 Y245.068
X16.8 Y245.163
X16.679 Y245.253
X16.554 Y245.336
X16.425 Y245.412
X16.292 Y245.481
X16.155 Y245.543
X16.015 Y245.597
X15.873 Y245.644
X15.728 Y245.683
X15.581 Y245.714
X15.433 Y245.737
X15.284 Y245.753
X15.134 Y245.76
X14.984 Y245.759
X14.834 Y245.75
X14.685 Y245.734
X14.537 Y245.709
X14.391 Y245.676
X14.246 Y245.636
X14.104 Y245.588
X13.965 Y245.533
X13.829 Y245.47
X13.696 Y245.4
X13.567 Y245.323
X13.443 Y245.24
X13.323 Y245.15
X13.207 Y245.054
X13.098 Y244.951
X12.993 Y244.844
X12.895 Y244.73
X12.803 Y244.612
X12.717 Y244.489
X12.637 Y244.362
X12.565 Y244.231
X12.499 Y244.096
X12.441 Y243.957
X12.39 Y243.816
X12.347 Y243.673
X12.312 Y243.527
X12.284 Y243.379
X12.264 Y243.231
X12.252 Y243.081
X12.248 Y242.931
X12.252 Y242.781
X12.264 Y242.632
X12.283 Y242.483
X12.311 Y242.336
X12.346 Y242.19
X12.39 Y242.046
X12.44 Y241.905
X12.498 Y241.767
X12.563 Y241.632
X12.636 Y241.5
X12.715 Y241.373
X12.801 Y241.25
X12.893 Y241.131
X12.991 Y241.018
X13.095 Y240.91
X13.205 Y240.808
X13.319 Y240.711
X13.439 Y240.621
X13.564 Y240.537
X13.692 Y240.46
X13.825 Y240.389
X13.961 Y240.326
X14.1 Y240.27
X14.242 Y240.221
X14.386 Y240.18
X14.532 Y240.146
X14.68 Y240.121
X14.829 Y240.102
X14.978 Y240.092
X15.128 Y240.09
X15.278 Y240.096
X15.428 Y240.109
X15.576 Y240.13
X15.723 Y240.159
X15.869 Y240.196
X16.012 Y240.24
X16.153 Y240.292
X16.291 Y240.351
X16.425 Y240.417
X16.556 Y240.491
X16.683 Y240.571
X16.806 Y240.657
X16.924 Y240.75
X17.036 Y240.849
X17.144 Y240.953
X17.246 Y241.063
X17.342 Y241.178
X17.432 Y241.299
X17.515 Y241.423
X17.592 Y241.552
X17.662 Y241.684
X17.725 Y241.821
X17.781 Y241.96
X17.83 Y242.102
X17.871 Y242.246
X17.905 Y242.392
X17.93 Y242.54
X17.949 Y242.689
X17.959 Y242.838
X17.962 Y242.988
X17.956 Y243.138
X17.943 Y243.288
X17.923 Y243.436
X17.894 Y243.584
X17.858 Y243.729
X17.815 Y243.873
X17.764 Y244.014
X17.705 Y244.152
X17.64 Y244.287
X17.568 Y244.419
X17.489 Y244.546
X17.403 Y244.669
X17.312 Y244.788
X17.214 Y244.902
X17.11 Y245.01
X17.001 Y245.113
X16.887 Y245.211
X16.768 Y245.302
X16.644 Y245.387
X16.516 Y245.465
X16.385 Y245.537
X16.249 Y245.601
X16.111 Y245.659
X15.969 Y245.709
X15.826 Y245.752
X15.68 Y245.788
X15.533 Y245.815
X15.384 Y245.835
X15.234 Y245.848
X15.085 Y245.852
X14.935 Y245.849
X14.785 Y245.838
X14.636 Y245.82
X14.488 Y245.793
X14.342 Y245.759
X14.198 Y245.718
X14.056 Y245.669
X13.917 Y245.613
X13.781 Y245.55
X13.649 Y245.479
X13.52 Y245.403
X13.395 Y245.319
X13.275 Y245.23
X13.159 Y245.134
X13.049 Y245.032
X12.944 Y244.925
X12.844 Y244.813
X12.751 Y244.696
X12.663 Y244.574
X12.582 Y244.448
X12.507 Y244.318
X12.44 Y244.184
X12.379 Y244.047
X12.325 Y243.907
X12.278 Y243.764
X12.239 Y243.62
X12.207 Y243.473
X12.183 Y243.325
X12.166 Y243.176
X12.158 Y243.026
X12.156 Y242.876
X12.163 Y242.726
X12.177 Y242.577
X12.199 Y242.429
X12.228 Y242.282
X12.265 Y242.136
X12.31 Y241.993
X12.362 Y241.852
X12.42 Y241.714
X12.486 Y241.579
X12.559 Y241.448
X12.638 Y241.321
X12.724 Y241.198
X12.816 Y241.079
X12.914 Y240.966
X13.018 Y240.857
X13.126 Y240.754
X13.241 Y240.657
X13.359 Y240.565
X13.483 Y240.48
X13.61 Y240.401
X13.742 Y240.328
X13.877 Y240.263
X14.015 Y240.204
X14.156 Y240.153
X14.299 Y240.108
X14.444 Y240.071
X14.591 Y240.042
X14.74 Y240.02
X14.889 Y240.005
X15.039 Y239.998
X15.189 Y239.999
X15.339 Y240.008
X15.488 Y240.024
X15.636 Y240.047
X15.783 Y240.078
X15.928 Y240.117
X16.07 Y240.163
X16.211 Y240.216
X16.348 Y240.276
X16.482 Y240.343
X16.613 Y240.417
X16.74 Y240.497
X16.862 Y240.583
X16.98 Y240.676
X17.093 Y240.775
X17.201 Y240.879
X17.303 Y240.989
X17.4 Y241.103
X17.491 Y241.223
X17.576 Y241.346
X17.654 Y241.474
X17.726 Y241.606
X17.791 Y241.741
X17.849 Y241.879
X17.9 Y242.02
X17.944 Y242.164
X17.981 Y242.309
X18.01 Y242.456
X18.032 Y242.605
X18.046 Y242.754
X18.053 Y242.904
X18.052 Y243.054
X18.044 Y243.204
X18.028 Y243.353
X18.005 Y243.501
X17.974 Y243.648
X17.936 Y243.793
X17.891 Y243.936
X17.839 Y244.076
X17.779 Y244.214
X17.713 Y244.349
X17.64 Y244.48
X17.56 Y244.607
X17.474 Y244.73
X17.382 Y244.848
X17.284 Y244.962
X17.181 Y245.071
X17.072 Y245.174
X16.959 Y245.272
X16.84 Y245.364
X16.717 Y245.45
X16.59 Y245.529
X16.459 Y245.602
X16.324 Y245.669
X16.187 Y245.728
X16.046 Y245.781
X15.903 Y245.826
X15.758 Y245.864
X15.611 Y245.895
X15.463 Y245.919
X15.314 Y245.935
X15.164 Y245.943
X15.014 Y245.944
X14.864 Y245.938
X14.715 Y245.923
X14.567 Y245.902
X14.419 Y245.873
X14.274 Y245.837
X14.13 Y245.793
X13.989 Y245.743
X13.851 Y245.685
X13.715 Y245.62
X13.583 Y245.549
X13.455 Y245.472
X13.331 Y245.388
X13.211 Y245.298
X13.095 Y245.202
X12.985 Y245.1
X12.88 Y244.993
X12.78 Y244.881
X12.686 Y244.764
X12.598 Y244.643
X12.516 Y244.517
X12.44 Y244.388
X12.371 Y244.255
X12.308 Y244.118
X12.253 Y243.979
X12.204 Y243.837
X12.162 Y243.693
X12.128 Y243.547
X12.101 Y243.4
X12.081 Y243.251
X12.069 Y243.101
X12.064 Y242.951
X12.066 Y242.802
X12.076 Y242.652
X12.094 Y242.503
X12.119 Y242.355
X12.151 Y242.208
X12.19 Y242.064
X12.237 Y241.921
X12.29 Y241.781
X12.351 Y241.644
X12.418 Y241.51
X12.492 Y241.379
X12.572 Y241.252
X12.659 Y241.13
X12.751 Y241.012
X12.849 Y240.898
X12.953 Y240.79
X13.062 Y240.687
X13.176 Y240.589
X13.294 Y240.497
X13.417 Y240.411
X13.544 Y240.332
X13.675 Y240.258
X13.81 Y240.192
X13.947 Y240.132
X14.087 Y240.078
X14.23 Y240.032
X14.375 Y239.993
X14.521 Y239.961
X14.669 Y239.936
X14.818 Y239.918
X14.968 Y239.908
X15.118 Y239.905
X15.268 Y239.91
X15.417 Y239.922
X15.566 Y239.941
X15.714 Y239.968
X15.86 Y240.002
X16.004 Y240.043
X16.146 Y240.091
X16.286 Y240.146
X16.422 Y240.208
X16.556 Y240.277
X16.685 Y240.352
X16.812 Y240.433
X16.933 Y240.52
X17.051 Y240.614
X17.163 Y240.713
X17.271 Y240.817
X17.373 Y240.927
X17.47 Y241.042
X17.561 Y241.161
X17.646 Y241.284
X17.725 Y241.412
X17.798 Y241.543
X17.864 Y241.678
X17.924 Y241.815
X17.976 Y241.956
X18.022 Y242.099
X18.061 Y242.244
X18.092 Y242.39
X18.117 Y242.538
X18.134 Y242.687
X18.144 Y242.837
X18.146 Y242.987
X18.142 Y243.137
X18.13 Y243.286
X18.11 Y243.435
X18.084 Y243.583
X18.05 Y243.729
X18.009 Y243.873
X17.961 Y244.015
X17.907 Y244.155
X17.845 Y244.292
X17.777 Y244.426
X17.703 Y244.556
X17.622 Y244.682
X17.535 Y244.804
X17.442 Y244.922
X17.344 Y245.036
X17.24 Y245.144
X17.131 Y245.247
X17.017 Y245.345
X16.899 Y245.436
X16.776 Y245.522
X16.649 Y245.602
X16.518 Y245.676
X16.384 Y245.743
X16.247 Y245.804
X16.107 Y245.858
X15.965 Y245.905
X15.82 Y245.945
X15.674 Y245.978
X15.526 Y246.003
X15.377 Y246.022
X15.227 Y246.033
X15.078 Y246.037
X14.928 Y246.034
X14.778 Y246.023
X14.629 Y246.006
X14.481 Y245.981
X14.335 Y245.949
X14.19 Y245.909
X14.047 Y245.863
X13.907 Y245.81
X13.769 Y245.75
X13.635 Y245.684
X13.504 Y245.611
X13.376 Y245.532
X13.253 Y245.447
X13.133 Y245.356
X13.019 Y245.259
X12.909 Y245.157
X12.804 Y245.05
X12.705 Y244.937
X12.611 Y244.82
X12.523 Y244.699
X12.44 Y244.574
X12.364 Y244.444
X12.294 Y244.311
X12.231 Y244.176
X12.174 Y244.037
X12.125 Y243.895
X12.081 Y243.752
X12.045 Y243.606
X12.016 Y243.459
X11.994 Y243.31
X11.979 Y243.161
X11.972 Y243.011
X11.971 Y242.861
X11.978 Y242.711
X11.992 Y242.562
X12.013 Y242.414
X12.042 Y242.266
X12.077 Y242.121
X12.12 Y241.977
X12.169 Y241.835
X12.225 Y241.696
X12.288 Y241.56
X12.357 Y241.427
X12.432 Y241.297
X12.514 Y241.171
X12.602 Y241.049
X12.695 Y240.932
X12.794 Y240.819
X12.899 Y240.712
X13.008 Y240.609
X13.122 Y240.512
X13.241 Y240.42
X13.364 Y240.334
X13.491 Y240.254
X13.622 Y240.181
X13.756 Y240.113
X13.893 Y240.053
X14.033 Y239.998
X14.175 Y239.951
X14.319 Y239.91
X14.465 Y239.877
X14.613 Y239.85
X14.762 Y239.83
X14.911 Y239.818
X15.061 Y239.812
X15.211 Y239.814
X15.361 Y239.823
X15.51 Y239.839
X15.658 Y239.862
X15.805 Y239.893
X15.95 Y239.93
X16.094 Y239.974
X16.235 Y240.025
X16.373 Y240.083
X16.509 Y240.147
X16.641 Y240.217
X16.77 Y240.294
X16.895 Y240.377
X17.016 Y240.466
X17.133 Y240.56
X17.244 Y240.66
X17.351 Y240.765
X17.453 Y240.875
X17.55 Y240.99
X17.64 Y241.11
X17.725 Y241.233
X17.805 Y241.361
X17.877 Y241.492
X17.944 Y241.626
X18.004 Y241.764
X18.057 Y241.904
X18.104 Y242.046
X18.144 Y242.191
X18.177 Y242.337
X18.204 Y242.485
X18.223 Y242.634
X18.235 Y242.783
X18.24 Y242.933
X18.238 Y243.083
X18.228 Y243.233
X18.212 Y243.382
X18.189 Y243.53
X18.159 Y243.677
X18.122 Y243.823
X18.078 Y243.966
X18.027 Y244.107
X17.969 Y244.246
X17.906 Y244.381
X17.835 Y244.514
X17.759 Y244.643
X17.677 Y244.768
X17.588 Y244.89
X17.494 Y245.007
X17.395 Y245.119
X17.29 Y245.226
X17.181 Y245.329
X17.066 Y245.426
X16.948 Y245.517
X16.825 Y245.603
X16.698 Y245.683
X16.567 Y245.757
X16.433 Y245.824
X16.296 Y245.885
X16.156 Y245.94
X16.014 Y245.988
X15.87 Y246.029
X15.724 Y246.063
X15.576 Y246.09
X15.428 Y246.111
X15.278 Y246.124
X15.128 Y246.13
X14.978 Y246.129
X14.829 Y246.122
X14.679 Y246.107
X14.531 Y246.085
X14.384 Y246.056
X14.238 Y246.02
X14.094 Y245.978
X13.953 Y245.928
X13.813 Y245.872
X13.677 Y245.81
X13.544 Y245.741
X13.414 Y245.666
X13.287 Y245.586
X13.165 Y245.499
X13.047 Y245.406
X12.933 Y245.309
X12.824 Y245.206
X12.72 Y245.097
X12.621 Y244.985
X12.528 Y244.867
X12.44 Y244.746
X12.358 Y244.62
X12.282 Y244.491
X12.212 Y244.358
X12.149 Y244.222
X12.091 Y244.083
X12.041 Y243.942
X11.997 Y243.799
X11.96 Y243.653
X11.929 Y243.507
X11.906 Y243.358
X11.889 Y243.209
X11.88 Y243.06
X11.877 Y242.91
X11.881 Y242.76
X11.893 Y242.61
X11.911 Y242.461
X11.937 Y242.313
X11.969 Y242.167
X12.008 Y242.022
X12.054 Y241.879
X12.106 Y241.739
X12.165 Y241.601
X12.23 Y241.466
X12.302 Y241.334
X12.379 Y241.205
X12.463 Y241.081
X12.552 Y240.96
X12.647 Y240.844
X12.747 Y240.732
X12.852 Y240.625
X12.962 Y240.524
X13.077 Y240.427
X13.196 Y240.336
X13.319 Y240.25
X13.447 Y240.171
X13.577 Y240.097
X13.711 Y240.03
X13.848 Y239.969
X13.988 Y239.914
X14.13 Y239.866
X14.274 Y239.825
X14.42 Y239.79
X14.567 Y239.762
X14.716 Y239.741
X14.865 Y239.727
X15.015 Y239.719
X15.165
X15.315 Y239.726
X15.464 Y239.739
X15.613 Y239.76
X15.76 Y239.787
X15.907 Y239.821
X16.051 Y239.862
X16.193 Y239.909
X16.333 Y239.963
X16.47 Y240.024
X16.605 Y240.09
X16.736 Y240.163
X16.863 Y240.242
X16.987 Y240.327
X17.107 Y240.417
X17.222 Y240.513
X17.333 Y240.614
X17.439 Y240.72
X17.54 Y240.831
X17.636 Y240.947
X17.726 Y241.067
X17.81 Y241.191
X17.889 Y241.318
X17.962 Y241.449
X18.029 Y241.584
X18.089 Y241.721
X18.143 Y241.861
X18.19 Y242.003
X18.231 Y242.148
X18.265 Y242.294
X18.292 Y242.441
X18.313 Y242.59
X18.326 Y242.739
X18.333 Y242.889
Y243.039
X18.326 Y243.189
X18.312 Y243.338
X18.292 Y243.487
X18.264 Y243.634
X18.23 Y243.781
X18.189 Y243.925
X18.142 Y244.067
X18.088 Y244.207
X18.028 Y244.345
X17.961 Y244.479
X17.889 Y244.61
X17.81 Y244.738
X17.726 Y244.862
X17.636 Y244.982
X17.54 Y245.098
X17.44 Y245.209
X17.334 Y245.316
X17.224 Y245.417
X17.109 Y245.513
X16.989 Y245.604
X16.866 Y245.689
X16.739 Y245.769
X16.608 Y245.842
X16.474 Y245.91
X16.337 Y245.971
X16.197 Y246.026
X16.055 Y246.074
X15.911 Y246.116
X15.765 Y246.151
X15.618 Y246.179
X15.47 Y246.201
X15.32 Y246.216
X15.171 Y246.224
X15.021 Y246.225
X14.871 Y246.219
X14.721 Y246.206
X14.572 Y246.187
X14.425 Y246.161
X14.278 Y246.128
X14.134 Y246.088
X13.991 Y246.042
X13.851 Y245.99
X13.713 Y245.931
X13.577 Y245.866
X13.445 Y245.794
X13.317 Y245.717
X13.192 Y245.634
X13.071 Y245.546
X12.954 Y245.452
X12.841 Y245.353
X12.733 Y245.248
X12.63 Y245.139
X12.532 Y245.026
X12.44 Y244.908
X12.353 Y244.786
X12.271 Y244.66
X12.195 Y244.53
X12.126 Y244.397
X12.062 Y244.262
X12.005 Y244.123
X11.954 Y243.982
X11.91 Y243.839
X11.872 Y243.694
X11.84 Y243.547
X11.816 Y243.399
X11.798 Y243.25
X11.787 Y243.1
X11.783 Y242.95
X11.785 Y242.8
X11.794 Y242.651
X11.81 Y242.502
X11.833 Y242.353
X11.863 Y242.206
X11.899 Y242.061
X11.942 Y241.917
X11.991 Y241.775
X12.046 Y241.636
X12.108 Y241.499
X12.176 Y241.365
X12.25 Y241.235
X12.33 Y241.108
X12.415 Y240.985
X12.506 Y240.865
X12.603 Y240.75
X12.704 Y240.64
X12.811 Y240.534
X12.922 Y240.433
X13.037 Y240.338
X13.157 Y240.247
X13.28 Y240.162
X13.408 Y240.083
X13.539 Y240.01
X13.673 Y239.943
X13.81 Y239.882
X13.95 Y239.827
X14.091 Y239.778
X14.235 Y239.736
X14.381 Y239.701
X14.528 Y239.672
X14.677 Y239.65
X14.826 Y239.634
X14.976 Y239.626
X15.126 Y239.624
X15.276 Y239.628
X15.425 Y239.64
X15.574 Y239.658
X15.722 Y239.683
X15.869 Y239.714
X16.014 Y239.752
X16.157 Y239.797
X16.298 Y239.848
X16.437 Y239.905
X16.573 Y239.968
X16.706 Y240.038
X16.835 Y240.113
X16.962 Y240.194
X17.084 Y240.281
X17.202 Y240.373
X17.317 Y240.47
X17.426 Y240.573
X17.531 Y240.68
X17.631 Y240.792
X17.726 Y240.908
X17.815 Y241.028
X17.899 Y241.153
X17.977 Y241.281
X18.05 Y241.412
X18.116 Y241.547
X18.176 Y241.684
X18.23 Y241.824
X18.278 Y241.966
X18.319 Y242.11
X18.354 Y242.256
X18.382 Y242.403
X18.404 Y242.552
X18.419 Y242.701
X18.427 Y242.851
X18.429 Y243.001
X18.424 Y243.151
X18.412 Y243.3
X18.393 Y243.449
X18.368 Y243.597
X18.337 Y243.744
X18.299 Y243.889
X18.254 Y244.032
X18.203 Y244.173
X18.146 Y244.312
X18.083 Y244.448
X18.014 Y244.581
X17.939 Y244.711
X17.858 Y244.837
X17.772 Y244.96
X17.68 Y245.079
X17.583 Y245.193
X17.481 Y245.303
X17.374 Y245.408
X17.263 Y245.509
X17.147 Y245.604
X17.027 Y245.694
X16.903 Y245.779
X16.776 Y245.858
X16.645 Y245.931
X16.51 Y245.998
X16.373 Y246.059
X16.234 Y246.114
X16.092 Y246.163
X15.948 Y246.205
X15.802 Y246.24
X15.655 Y246.27
X15.507 Y246.292
X15.358 Y246.308
X15.208 Y246.317
X15.058 Y246.32
X14.908 Y246.316
X14.758 Y246.305
X14.609 Y246.288
X14.461 Y246.264
X14.314 Y246.234
X14.169 Y246.197
X14.025 Y246.154
X13.884 Y246.104
X13.745 Y246.048
X13.608 Y245.987
X13.474 Y245.919
X13.344 Y245.845
X13.216 Y245.765
X13.093 Y245.68
X12.973 Y245.59
X12.857 Y245.494
X12.746 Y245.394
X12.64 Y245.288
X12.538 Y245.178
X12.441 Y245.064
X12.349 Y244.945
X12.262 Y244.823
X12.182 Y244.696
X12.106 Y244.567
X12.037 Y244.434
X11.974 Y244.298
X11.916 Y244.159
X11.865 Y244.018
X11.82 Y243.875
X11.782 Y243.73
X11.75 Y243.583
X11.725 Y243.435
X11.706 Y243.287
X11.693 Y243.137
X11.688 Y242.987
X11.689 Y242.837
X11.696 Y242.687
X11.71 Y242.538
X11.731 Y242.389
X11.758 Y242.242
X11.792 Y242.096
X11.832 Y241.951
X11.878 Y241.809
X11.93 Y241.668
X11.989 Y241.53
X12.054 Y241.395
X12.125 Y241.262
X12.201 Y241.133
X12.283 Y241.008
X12.37 Y240.886
X12.463 Y240.768
X12.561 Y240.654
X12.664 Y240.545
X12.771 Y240.44
X12.883 Y240.341
X13. Y240.246
X13.12 Y240.156
X13.244 Y240.072
X13.372 Y239.994
X13.503 Y239.921
X13.637 Y239.854
X13.774 Y239.793
X13.914 Y239.738
X14.056 Y239.689
X14.2 Y239.647
X14.345 Y239.611
X14.492 Y239.581
X14.641 Y239.558
X14.79 Y239.542
X14.939 Y239.532
X15.089 Y239.528
X15.239 Y239.531
X15.389 Y239.541
X15.538 Y239.557
X15.686 Y239.58
X15.834 Y239.609
X15.979 Y239.644
X16.123 Y239.686
X16.265 Y239.734
X16.405 Y239.788
X16.543 Y239.848
X16.677 Y239.915
X16.809 Y239.987
X16.937 Y240.064
X17.062 Y240.148
X17.183 Y240.236
X17.3 Y240.33
X17.413 Y240.429
X17.521 Y240.533
X17.625 Y240.641
X17.724 Y240.754
X17.818 Y240.871
X17.906 Y240.992
X17.99 Y241.117
X18.067 Y241.245
X18.139 Y241.376
X18.205 Y241.511
X18.265 Y241.649
X18.32 Y241.788
X18.367 Y241.931
X18.409 Y242.075
X18.444 Y242.22
X18.473 Y242.368
X18.496 Y242.516
X18.512 Y242.665
X18.521 Y242.815
X18.525 Y242.965
X18.521 Y243.115
X18.511 Y243.264
X18.495 Y243.413
X18.472 Y243.562
X18.443 Y243.709
X18.407 Y243.855
X18.365 Y243.999
X18.317 Y244.141
X18.263 Y244.281
X18.203 Y244.418
X18.137 Y244.553
X18.065 Y244.684
X17.988 Y244.813
X17.905 Y244.938
X17.816 Y245.059
X17.723 Y245.176
X17.624 Y245.29
X17.521 Y245.398
X17.413 Y245.502
X17.301 Y245.602
X17.184 Y245.696
X17.064 Y245.785
X16.939 Y245.869
X16.811 Y245.948
X16.68 Y246.02
X16.546 Y246.087
X16.409 Y246.148
X16.269 Y246.203
X16.127 Y246.252
X15.984 Y246.294
X15.838 Y246.331
X15.691 Y246.361
X15.543 Y246.384
X15.394 Y246.401
X15.244 Y246.412
X15.094 Y246.416
X14.944 Y246.413
X14.795 Y246.404
X14.645 Y246.389
X14.497 Y246.368
X14.35 Y246.339
X14.204 Y246.305
X14.059 Y246.264
X13.917 Y246.218
X13.776 Y246.165
X13.638 Y246.106
X13.503 Y246.041
X13.371 Y245.971
X13.241 Y245.894
X13.116 Y245.813
X12.993 Y245.726
X12.875 Y245.634
X12.761 Y245.537
X12.651 Y245.435
X12.545 Y245.328
X12.444 Y245.217
X12.348 Y245.102
X12.257 Y244.982
X12.172 Y244.859
X12.091 Y244.733
X12.017 Y244.602
X11.948 Y244.469
X11.884 Y244.333
X11.827 Y244.195
X11.776 Y244.054
X11.731 Y243.911
X11.692 Y243.766
X11.659 Y243.619
X11.633 Y243.472
X11.613 Y243.323
X11.6 Y243.174
X11.593 Y243.024
X11.592 Y242.874
X11.598 Y242.724
X11.61 Y242.574
X11.628 Y242.426
X11.653 Y242.278
X11.685 Y242.131
X11.722 Y241.986
X11.766 Y241.842
X11.815 Y241.701
X11.871 Y241.561
X11.933 Y241.425
X12. Y241.291
X12.074 Y241.16
X12.152 Y241.032
X12.236 Y240.908
X12.326 Y240.787
X12.42 Y240.671
X12.519 Y240.558
X12.623 Y240.45
X12.732 Y240.347
X12.845 Y240.248
X12.962 Y240.154
X13.083 Y240.065
X13.207 Y239.982
X13.335 Y239.904
X13.467 Y239.831
X13.601 Y239.765
X13.738 Y239.704
X13.878 Y239.649
X14.02 Y239.6
X14.163 Y239.557
X14.309 Y239.521
X14.456 Y239.49
X14.604 Y239.466
X14.753 Y239.449
X14.902 Y239.437
X15.052 Y239.432
X15.202 Y239.434
X15.352 Y239.442
X15.501 Y239.456
X15.65 Y239.476
X15.798 Y239.503
X15.944 Y239.536
X16.089 Y239.575
X16.232 Y239.621
X16.373 Y239.672
X16.511 Y239.729
X16.647 Y239.792
X16.781 Y239.861
X16.911 Y239.936
X17.038 Y240.016
X17.161 Y240.101
X17.281 Y240.191
X17.397 Y240.287
X17.508 Y240.387
X17.615 Y240.492
X17.718 Y240.601
X17.816 Y240.715
X17.909 Y240.832
X17.997 Y240.954
X18.08 Y241.079
X18.157 Y241.208
X18.228 Y241.34
X18.294 Y241.474
X18.354 Y241.612
X18.409 Y241.752
X18.457 Y241.894
X18.499 Y242.038
X18.535 Y242.183
X18.565 Y242.33
X18.588 Y242.478
X18.605 Y242.627
X18.616 Y242.777
X18.621 Y242.927
X18.619 Y243.077
X18.611 Y243.227
X18.596 Y243.376
X18.575 Y243.525
X18.549 Y243.672
X18.515 Y243.818
X18.476 Y243.963
X18.431 Y244.106
X18.38 Y244.247
X18.322 Y244.386
X18.259 Y244.522
X18.191 Y244.655
X18.117 Y244.786
X18.037 Y244.913
X17.952 Y245.037
X17.862 Y245.157
X17.767 Y245.273
X17.667 Y245.385
X17.563 Y245.492
X17.454 Y245.595
X17.341 Y245.694
X17.223 Y245.787
X17.102 Y245.876
X16.977 Y245.959
X16.849 Y246.037
X16.718 Y246.109
X16.584 Y246.176
X16.446 Y246.237
X16.307 Y246.292
X16.165 Y246.341
X16.021 Y246.384
X15.876 Y246.421
X15.729 Y246.451
X15.581 Y246.476
X15.432 Y246.494
X15.283 Y246.506
X15.133 Y246.512
X14.983 Y246.511
X14.833 Y246.504
X14.684 Y246.49
X14.535 Y246.471
X14.387 Y246.445
X14.241 Y246.413
X14.096 Y246.375
X13.952 Y246.331
X13.811 Y246.281
X13.672 Y246.225
X13.535 Y246.163
X13.401 Y246.096
X13.27 Y246.023
X13.142 Y245.945
X13.017 Y245.861
X12.896 Y245.773
X12.779 Y245.679
X12.666 Y245.581
X12.557 Y245.477
X12.452 Y245.37
X12.353 Y245.258
X12.257 Y245.142
X12.167 Y245.022
X12.082 Y244.899
X12.002 Y244.772
X11.928 Y244.641
X11.859 Y244.508
X11.796 Y244.372
X11.739 Y244.233
X11.687 Y244.092
X11.642 Y243.95
X11.602 Y243.805
X11.569 Y243.659
X11.542 Y243.511
X11.521 Y243.363
X11.506 Y243.213
X11.497 Y243.064
X11.495 Y242.914
X11.499 Y242.764
X11.509 Y242.614
X11.526 Y242.465
X11.549 Y242.317
X11.577 Y242.169
X11.612 Y242.023
X11.653 Y241.879
X11.7 Y241.737
X11.753 Y241.596
X11.812 Y241.458
X11.876 Y241.323
X11.946 Y241.19
X12.021 Y241.06
X12.102 Y240.934
X12.188 Y240.811
X12.279 Y240.692
X12.374 Y240.576
X12.475 Y240.465
X12.58 Y240.358
X12.689 Y240.255
X12.803 Y240.157
X12.921 Y240.064
X13.042 Y239.976
X13.167 Y239.893
X13.295 Y239.815
X13.427 Y239.743
X13.561 Y239.677
X13.698 Y239.616
X13.838 Y239.561
X13.98 Y239.511
X14.123 Y239.468
X14.268 Y239.431
X14.415 Y239.4
X14.563 Y239.375
X14.712 Y239.356
X14.861 Y239.343
X15.011 Y239.337
X15.161 Y239.336
X15.311 Y239.342
X15.461 Y239.354
X15.609 Y239.373
X15.757 Y239.397
X15.904 Y239.428
X16.05 Y239.464
X16.194 Y239.507
X16.336 Y239.555
X16.475 Y239.61
X16.613 Y239.67
X16.748 Y239.735
X16.88 Y239.806
X17.009 Y239.883
X17.135 Y239.965
X17.257 Y240.052
X17.375 Y240.143
X17.49 Y240.24
X17.601 Y240.342
X17.707 Y240.447
X17.809 Y240.558
X17.906 Y240.672
X17.998 Y240.79
X18.085 Y240.912
X18.168 Y241.038
X18.244 Y241.166
X18.316 Y241.298
X18.382 Y241.433
X18.442 Y241.57
X18.497 Y241.71
X18.545 Y241.852
X18.588 Y241.996
X18.625 Y242.141
X18.655 Y242.288
X18.68 Y242.436
X18.698 Y242.585
X18.71 Y242.734
X18.717 Y242.884
Y243.034
X18.71 Y243.184
X18.698 Y243.334
X18.68 Y243.483
X18.655 Y243.631
X18.624 Y243.777
X18.588 Y243.923
X18.545 Y244.067
X18.497 Y244.209
X18.443 Y244.349
X18.383 Y244.486
X18.318 Y244.621
X18.247 Y244.753
X18.171 Y244.883
X18.089 Y245.009
X18.003 Y245.131
X17.911 Y245.25
X17.815 Y245.365
X17.714 Y245.476
X17.608 Y245.583
X17.499 Y245.685
X17.385 Y245.783
X17.267 Y245.875
X17.146 Y245.963
X17.021 Y246.046
X16.892 Y246.124
X16.761 Y246.196
X16.626 Y246.263
X16.489 Y246.324
X16.35 Y246.379
X16.208 Y246.429
X16.065 Y246.472
X15.92 Y246.51
X15.773 Y246.542
X15.625 Y246.567
X15.477 Y246.587
X15.327 Y246.6
X15.177 Y246.607
X15.027 Y246.608
X14.877 Y246.603
X14.728 Y246.592
X14.579 Y246.575
X14.431 Y246.551
X14.284 Y246.522
X14.138 Y246.487
X13.994 Y246.446
X13.851 Y246.399
X13.711 Y246.346
X13.573 Y246.287
X13.437 Y246.223
X13.304 Y246.154
X13.174 Y246.079
X13.047 Y245.999
X12.924 Y245.914
X12.804 Y245.823
X12.688 Y245.728
X12.576 Y245.629
X12.468 Y245.525
X12.364 Y245.416
X12.265 Y245.304
X12.17 Y245.188
X12.08 Y245.067
X11.996 Y244.943
X11.916 Y244.816
X11.842 Y244.686
X11.773 Y244.553
X11.71 Y244.417
X11.652 Y244.278
X11.6 Y244.138
X11.554 Y243.995
X11.514 Y243.85
X11.479 Y243.704
X11.451 Y243.557
X11.429 Y243.409
X11.412 Y243.26
X11.402 Y243.11
X11.398 Y242.96
X11.4 Y242.81
X11.409 Y242.66
X11.423 Y242.511
X11.443 Y242.362
X11.469 Y242.215
X11.501 Y242.068
X11.54 Y241.923
X11.584 Y241.78
X11.633 Y241.638
X11.689 Y241.499
X11.75 Y241.362
X11.816 Y241.227
X11.888 Y241.096
X11.965 Y240.967
X12.048 Y240.842
X12.135 Y240.72
X12.227 Y240.601
X12.324 Y240.487
X12.425 Y240.376
X12.531 Y240.27
X12.641 Y240.168
X12.756 Y240.071
X12.874 Y239.978
X12.995 Y239.89
X13.12 Y239.808
X13.249 Y239.73
X13.38 Y239.658
X13.515 Y239.591
X13.651 Y239.53
X13.791 Y239.474
X13.932 Y239.424
X14.076 Y239.38
X14.221 Y239.342
X14.367 Y239.31
X14.515 Y239.284
X14.663 Y239.263
X14.813 Y239.249
X14.963 Y239.241
X15.113 Y239.239
X15.263 Y239.243
X15.412 Y239.253
X15.561 Y239.268
X15.71 Y239.29
X15.857 Y239.318
X16.003 Y239.352
X16.148 Y239.392
X16.291 Y239.437
X16.432 Y239.488
X16.571 Y239.545
X16.707 Y239.607
X16.841 Y239.675
X16.972 Y239.748
X17.1 Y239.826
X17.225 Y239.909
X17.346 Y239.998
X17.464 Y240.091
X17.578 Y240.188
X17.687 Y240.291
X17.793 Y240.397
X17.894 Y240.508
X17.991 Y240.623
X18.083 Y240.741
X18.17 Y240.863
X18.252 Y240.989
X18.329 Y241.118
X18.4 Y241.249
X18.466 Y241.384
X18.527 Y241.521
X18.582 Y241.661
X18.631 Y241.802
X18.675 Y241.946
X18.713 Y242.091
X18.745 Y242.238
X18.77 Y242.386
X18.79 Y242.534
X18.804 Y242.684
X18.812 Y242.833
X18.814 Y242.983
X18.81 Y243.133
X18.8 Y243.283
X18.784 Y243.432
X18.762 Y243.58
X18.735 Y243.728
X18.701 Y243.874
X18.661 Y244.019
X18.616 Y244.162
X18.565 Y244.303
X18.509 Y244.442
X18.447 Y244.578
X18.379 Y244.712
X18.307 Y244.844
X18.229 Y244.972
X18.146 Y245.097
X18.058 Y245.219
X17.966 Y245.337
X17.869 Y245.451
X17.767 Y245.561
X17.661 Y245.667
X17.551 Y245.769
X17.436 Y245.866
X17.318 Y245.959
X17.197 Y246.046
X17.072 Y246.129
X16.943 Y246.207
X16.812 Y246.279
X16.678 Y246.346
X16.541 Y246.408
X16.402 Y246.464
X16.26 Y246.514
X16.117 Y246.559
X15.972 Y246.597
X15.826 Y246.63
X15.678 Y246.657
X15.53 Y246.678
X15.381 Y246.693
X15.231 Y246.703
X15.081 Y246.706
X14.931 Y246.703
X14.781 Y246.694
X14.632 Y246.679
X14.483 Y246.659
X14.336 Y246.632
X14.189 Y246.6
X14.044 Y246.562
X13.901 Y246.518
X13.759 Y246.468
X13.62 Y246.413
X13.482 Y246.353
X13.348 Y246.287
X13.216 Y246.216
X13.087 Y246.139
X12.961 Y246.058
X12.838 Y245.971
X12.719 Y245.88
X12.603 Y245.784
X12.492 Y245.684
X12.384 Y245.579
X12.281 Y245.471
X12.182 Y245.358
X12.088 Y245.241
X11.999 Y245.121
X11.914 Y244.997
X11.834 Y244.87
X11.76 Y244.739
X11.691 Y244.606
X11.627 Y244.471
X11.568 Y244.332
X11.516 Y244.192
X11.469 Y244.05
X11.427 Y243.905
X11.392 Y243.76
X11.362 Y243.613
X11.338 Y243.465
X11.32 Y243.316
X11.308 Y243.166
X11.302 Y243.016
Y242.866
X11.307 Y242.716
X11.319 Y242.567
X11.337 Y242.418
X11.36 Y242.27
X11.389 Y242.123
X11.424 Y241.977
X11.465 Y241.832
X11.511 Y241.69
X11.563 Y241.549
X11.621 Y241.411
X11.684 Y241.274
X11.752 Y241.141
X11.825 Y241.01
X11.904 Y240.882
X11.987 Y240.758
X12.076 Y240.636
X12.169 Y240.519
X12.266 Y240.405
X12.369 Y240.295
X12.475 Y240.189
X12.585 Y240.088
X12.7 Y239.99
X12.818 Y239.898
X12.939 Y239.81
X13.064 Y239.728
X13.193 Y239.65
X13.324 Y239.577
X13.458 Y239.51
X13.595 Y239.448
X13.734 Y239.392
X13.875 Y239.341
X14.018 Y239.296
X14.163 Y239.256
X14.309 Y239.222
X14.456 Y239.195
X14.605 Y239.172
X14.754 Y239.156
X14.903 Y239.146
X15.053 Y239.142
X15.203 Y239.143
X15.353 Y239.15
X15.502 Y239.164
X15.651 Y239.183
X15.799 Y239.208
X15.946 Y239.238
X16.092 Y239.275
X16.236 Y239.317
X16.378 Y239.364
X16.518 Y239.417
X16.656 Y239.476
X16.792 Y239.54
X16.925 Y239.609
X17.055 Y239.684
X17.182 Y239.763
X17.306 Y239.848
X17.427 Y239.937
X17.544 Y240.03
X17.657 Y240.129
X17.767 Y240.231
X17.872 Y240.338
X17.973 Y240.449
X18.069 Y240.564
X18.161 Y240.683
X18.248 Y240.805
X18.331 Y240.93
X18.408 Y241.059
X18.48 Y241.19
X18.547 Y241.325
X18.608 Y241.462
X18.664 Y241.601
X18.714 Y241.742
X18.759 Y241.885
X18.798 Y242.03
X18.832 Y242.176
X18.859 Y242.324
X18.881 Y242.472
X18.897 Y242.621
X18.907 Y242.771
X18.912 Y242.921
X18.91 Y243.071
X18.903 Y243.221
X18.89 Y243.37
X18.871 Y243.519
X18.846 Y243.667
X18.815 Y243.814
X18.779 Y243.959
X18.738 Y244.103
X18.69 Y244.246
X18.637 Y244.386
X18.579 Y244.524
X18.516 Y244.66
X18.447 Y244.793
X18.373 Y244.924
X18.294 Y245.051
X18.21 Y245.176
X18.121 Y245.297
X18.028 Y245.414
X17.93 Y245.528
X17.828 Y245.638
X17.722 Y245.744
X17.612 Y245.845
X17.497 Y245.943
X17.379 Y246.035
X17.258 Y246.123
X17.133 Y246.206
X17.005 Y246.284
X16.874 Y246.357
X16.74 Y246.425
X16.604 Y246.487
X16.465 Y246.544
X16.324 Y246.596
X16.181 Y246.642
X16.037 Y246.682
X15.891 Y246.716
X15.743 Y246.745
X15.595 Y246.768
X15.446 Y246.786
X15.297 Y246.797
X15.147 Y246.803
X14.997 Y246.802
X14.847 Y246.796
X14.697 Y246.785
X14.548 Y246.767
X14.4 Y246.744
X14.253 Y246.715
X14.107 Y246.68
X13.963 Y246.64
X13.82 Y246.594
X13.679 Y246.542
X13.54 Y246.486
X13.404 Y246.423
X13.269 Y246.356
X13.138 Y246.284
X13.01 Y246.206
X12.884 Y246.124
X12.762 Y246.037
X12.643 Y245.945
X12.528 Y245.849
X12.417 Y245.748
X12.31 Y245.643
X12.207 Y245.534
X12.108 Y245.422
X12.014 Y245.305
X11.924 Y245.185
X11.839 Y245.061
X11.759 Y244.934
X11.684 Y244.805
X11.614 Y244.672
X11.549 Y244.537
X11.49 Y244.399
X11.436 Y244.259
X11.387 Y244.117
X11.344 Y243.973
X11.307 Y243.828
X11.275 Y243.681
X11.249 Y243.533
X11.229 Y243.385
X11.215 Y243.236
X11.206 Y243.086
X11.203 Y242.936
X11.206 Y242.786
X11.215 Y242.636
X11.229 Y242.487
X11.25 Y242.338
X11.275 Y242.19
X11.307 Y242.044
X11.344 Y241.898
X11.387 Y241.755
X11.435 Y241.613
X11.489 Y241.473
X11.548 Y241.335
X11.612 Y241.199
X11.681 Y241.066
X11.756 Y240.936
X11.835 Y240.809
X11.919 Y240.684
X12.008 Y240.564
X12.102 Y240.446
X12.2 Y240.333
X12.302 Y240.223
X12.408 Y240.117
X12.519 Y240.016
X12.633 Y239.918
X12.751 Y239.826
X12.872 Y239.738
X12.997 Y239.654
X13.125 Y239.576
X13.256 Y239.502
X13.389 Y239.434
X13.525 Y239.371
X13.664 Y239.314
X13.804 Y239.261
X13.947 Y239.215
X14.091 Y239.174
X14.237 Y239.138
X14.384 Y239.108
X14.532 Y239.084
X14.681 Y239.065
X14.83 Y239.052
X14.98 Y239.045
X15.13 Y239.044
X15.28 Y239.048
X15.43 Y239.058
X15.579 Y239.074
X15.727 Y239.096
X15.875 Y239.123
X16.021 Y239.156
X16.166 Y239.194
X16.31 Y239.238
X16.451 Y239.287
X16.591 Y239.342
X16.728 Y239.401
X16.864 Y239.467
X16.996 Y239.537
X17.126 Y239.612
X17.253 Y239.692
X17.376 Y239.777
X17.497 Y239.867
X17.614 Y239.961
X17.727 Y240.059
X17.836 Y240.162
X17.941 Y240.269
X18.042 Y240.38
X18.139 Y240.494
X18.231 Y240.612
X18.319 Y240.734
X18.402 Y240.859
X18.48 Y240.987
X18.553 Y241.118
X18.621 Y241.252
X18.683 Y241.388
X18.741 Y241.527
X18.793 Y241.668
X18.839 Y241.81
X18.88 Y241.955
X18.916 Y242.1
X18.945 Y242.247
X18.97 Y242.396
X18.988 Y242.544
X19.001 Y242.694
X19.008 Y242.844
X19.01 Y242.994
X19.005 Y243.144
X18.995 Y243.293
X18.98 Y243.442
X18.959 Y243.591
X18.932 Y243.738
X18.899 Y243.885
X18.861 Y244.03
X18.818 Y244.174
X18.769 Y244.315
X18.715 Y244.455
X18.656 Y244.593
X18.591 Y244.729
X18.521 Y244.861
X18.447 Y244.992
X18.367 Y245.119
X18.283 Y245.243
X18.194 Y245.364
X18.101 Y245.481
X18.003 Y245.595
X17.901 Y245.705
X17.795 Y245.811
X17.685 Y245.912
X17.571 Y246.01
X17.453 Y246.103
X17.332 Y246.191
X17.207 Y246.275
X17.08 Y246.354
X16.949 Y246.428
X16.816 Y246.497
X16.68 Y246.561
X16.542 Y246.619
X16.402 Y246.672
X16.26 Y246.72
X16.116 Y246.762
X15.97 Y246.799
X15.824 Y246.83
X15.676 Y246.856
X15.527 Y246.876
X15.378 Y246.89
X15.228 Y246.898
X15.078 Y246.901
X14.928 Y246.898
X14.778 Y246.89
X14.629 Y246.876
X14.48 Y246.856
X14.332 Y246.831
X14.186 Y246.8
X14.04 Y246.764
X13.896 Y246.722
X13.754 Y246.674
X13.613 Y246.622
X13.475 Y246.564
X13.339 Y246.501
X13.205 Y246.433
X13.074 Y246.36
X12.946 Y246.282
X12.821 Y246.2
X12.699 Y246.112
X12.58 Y246.021
X12.465 Y245.924
X12.354 Y245.824
X12.246 Y245.719
X12.143 Y245.61
X12.043 Y245.498
X11.949 Y245.382
X11.858 Y245.262
X11.772 Y245.139
X11.691 Y245.013
X11.615 Y244.884
X11.544 Y244.752
X11.478 Y244.617
X11.417 Y244.48
X11.361 Y244.341
X11.311 Y244.199
X11.266 Y244.056
X11.226 Y243.912
X11.192 Y243.765
X11.164 Y243.618
X11.141 Y243.47
X11.124 Y243.321
X11.112 Y243.171
X11.106 Y243.021
Y242.871
X11.111 Y242.722
X11.122 Y242.572
X11.138 Y242.423
X11.161 Y242.274
X11.188 Y242.127
X11.221 Y241.981
X11.26 Y241.836
X11.304 Y241.692
X11.353 Y241.551
X11.408 Y241.411
X11.467 Y241.273
X11.532 Y241.138
X11.602 Y241.005
X11.677 Y240.875
X11.757 Y240.748
X11.841 Y240.624
X11.93 Y240.503
X12.023 Y240.386
X12.121 Y240.272
X12.223 Y240.162
X12.329 Y240.056
X12.439 Y239.954
X12.553 Y239.856
X12.67 Y239.763
X12.791 Y239.674
X12.915 Y239.59
X13.042 Y239.51
X13.172 Y239.436
X13.305 Y239.366
X13.441 Y239.301
X13.578 Y239.242
X13.718 Y239.188
X13.86 Y239.139
X14.004 Y239.096
X14.149 Y239.058
X14.295 Y239.025
X14.443 Y238.998
X14.591 Y238.977
X14.74 Y238.961
X14.89 Y238.95
X15.04 Y238.946
X15.19 Y238.947
X15.34 Y238.953
X15.489 Y238.965
X15.638 Y238.983
X15.786 Y239.006
X15.934 Y239.035
X16.08 Y239.069
X16.224 Y239.108
X16.368 Y239.153
X16.509 Y239.203
X16.648 Y239.259
X16.786 Y239.319
X16.92 Y239.385
X17.053 Y239.455
X17.182 Y239.531
X17.309 Y239.611
X17.433 Y239.696
X17.553 Y239.785
X17.67 Y239.879
X17.784 Y239.977
X17.893 Y240.08
X17.999 Y240.186
X18.101 Y240.296
X18.198 Y240.41
X18.291 Y240.528
X18.38 Y240.649
X18.464 Y240.773
X18.543 Y240.901
X18.618 Y241.031
X18.687 Y241.164
X18.751 Y241.299
X18.811 Y241.437
X18.865 Y241.577
X18.913 Y241.719
X18.957 Y241.863
X18.995 Y242.008
X19.027 Y242.154
X19.055 Y242.302
X19.076 Y242.45
X19.092 Y242.599
X19.103 Y242.749
X19.108 Y242.899
X19.107 Y243.049
X19.101 Y243.199
X19.089 Y243.348
X19.072 Y243.497
X19.049 Y243.645
X19.021 Y243.793
X18.987 Y243.939
X18.949 Y244.084
X18.904 Y244.227
X18.855 Y244.369
X18.8 Y244.508
X18.74 Y244.646
X18.675 Y244.781
X18.605 Y244.914
X18.531 Y245.044
X18.451 Y245.171
X18.367 Y245.295
X18.278 Y245.416
X18.185 Y245.534
X18.088 Y245.648
X17.986 Y245.759
X17.881 Y245.865
X17.771 Y245.968
X17.658 Y246.066
X17.541 Y246.16
X17.421 Y246.249
X17.297 Y246.334
X17.171 Y246.415
X17.041 Y246.49
X16.909 Y246.561
X16.774 Y246.626
X16.636 Y246.687
X16.497 Y246.742
X16.356 Y246.792
X16.212 Y246.837
X16.068 Y246.877
X15.922 Y246.911
X15.774 Y246.939
X15.626 Y246.962
X15.477 Y246.98
X15.328 Y246.992
X15.178 Y246.998
X15.028 Y246.999
X14.878 Y246.995
X14.728 Y246.985
X14.579 Y246.969
X14.431 Y246.948
X14.283 Y246.922
X14.136 Y246.89
X13.991 Y246.852
X13.847 Y246.81
X13.705 Y246.762
X13.565 Y246.709
X13.426 Y246.651
X13.29 Y246.588
X13.157 Y246.52
X13.026 Y246.447
X12.897 Y246.369
X12.772 Y246.286
X12.65 Y246.2
X12.531 Y246.108
X12.415 Y246.012
X12.303 Y245.913
X12.195 Y245.809
X12.091 Y245.701
X11.991 Y245.589
X11.895 Y245.474
X11.804 Y245.355
X11.716 Y245.233
X11.634 Y245.107
X11.556 Y244.979
X11.483 Y244.848
X11.415 Y244.714
X11.352 Y244.578
X11.294 Y244.44
X11.241 Y244.3
X11.194 Y244.157
X11.151 Y244.013
X11.115 Y243.868
X11.083 Y243.721
X11.057 Y243.574
X11.036 Y243.425
X11.021 Y243.276
X11.011 Y243.126
X11.007 Y242.976
X11.008 Y242.826
X11.015 Y242.676
X11.027 Y242.527
X11.045 Y242.378
X11.068 Y242.23
X11.097 Y242.083
X11.13 Y241.936
X11.17 Y241.792
X11.214 Y241.648
X11.264 Y241.507
X11.319 Y241.367
X11.379 Y241.23
X11.443 Y241.094
X11.513 Y240.962
X11.588 Y240.831
X11.667 Y240.704
X11.751 Y240.58
X11.839 Y240.459
X11.932 Y240.341
X12.029 Y240.226
X12.13 Y240.116
X12.236 Y240.009
X12.345 Y239.906
X12.457 Y239.807
X12.574 Y239.712
X12.694 Y239.622
X12.817 Y239.536
X12.943 Y239.455
X13.072 Y239.379
X13.204 Y239.307
X13.338 Y239.24
X13.475 Y239.179
X13.614 Y239.122
X13.755 Y239.07
X13.897 Y239.024
X14.042 Y238.983
X14.187 Y238.947
X14.334 Y238.917
X14.482 Y238.892
X14.631 Y238.873
X14.78 Y238.859
X14.93 Y238.85
X15.08 Y238.847
X15.23 Y238.849
X15.38 Y238.857
X15.529 Y238.87
X15.678 Y238.889
X15.826 Y238.913
X15.973 Y238.942
X16.119 Y238.977
X16.264 Y239.017
X16.407 Y239.062
X16.548 Y239.112
X16.687 Y239.168
X16.825 Y239.228
X16.96 Y239.293
X17.092 Y239.364
X17.222 Y239.439
X17.349 Y239.518
X17.473 Y239.603
X17.594 Y239.691
X17.712 Y239.785
X17.826 Y239.882
X17.936 Y239.983
X18.043 Y240.089
X18.146 Y240.198
X18.244 Y240.311
X18.339 Y240.428
X18.429 Y240.547
X18.515 Y240.671
X18.596 Y240.797
X18.672 Y240.926
X18.744 Y241.058
X18.81 Y241.192
X18.872 Y241.329
X18.929 Y241.468
X18.98 Y241.608
X19.027 Y241.751
X19.068 Y241.895
X19.104 Y242.041
X19.135 Y242.188
X19.16 Y242.336
X19.18 Y242.484
X19.194 Y242.634
X19.203 Y242.783
X19.207 Y242.933
X19.205 Y243.083
X19.198 Y243.233
X19.185 Y243.383
X19.167 Y243.531
X19.144 Y243.68
X19.115 Y243.827
X19.081 Y243.973
X19.042 Y244.118
X18.998 Y244.261
X18.948 Y244.403
X18.893 Y244.542
X18.834 Y244.68
X18.769 Y244.815
X18.7 Y244.948
X18.626 Y245.079
X18.547 Y245.206
X18.464 Y245.331
X18.376 Y245.453
X18.284 Y245.571
X18.187 Y245.686
X18.087 Y245.797
X17.982 Y245.905
X17.874 Y246.008
X17.761 Y246.108
X17.646 Y246.204
X17.527 Y246.295
X17.404 Y246.382
X17.279 Y246.464
X17.151 Y246.542
X17.019 Y246.614
X16.886 Y246.682
X16.75 Y246.746
X16.611 Y246.804
X16.471 Y246.857
X16.329 Y246.905
X16.185 Y246.948
X16.04 Y246.985
X15.894 Y247.017
X15.746 Y247.044
X15.598 Y247.066
X15.448 Y247.082
X15.299 Y247.093
X15.149 Y247.098
X14.999
X14.849 Y247.092
X14.699 Y247.082
X14.55 Y247.065
X14.402 Y247.044
X14.254 Y247.017
X14.108 Y246.985
X13.962 Y246.948
X13.819 Y246.905
X13.676 Y246.857
X13.536 Y246.805
X13.397 Y246.747
X13.261 Y246.684
X13.127 Y246.617
X12.996 Y246.544
X12.867 Y246.467
X12.741 Y246.386
X12.618 Y246.3
X12.499 Y246.21
X12.382 Y246.115
X12.269 Y246.016
X12.16 Y245.913
X12.055 Y245.807
X11.953 Y245.696
X11.856 Y245.582
X11.762 Y245.465
X11.673 Y245.344
X11.589 Y245.22
X11.509 Y245.093
X11.433 Y244.964
X11.363 Y244.831
X11.297 Y244.696
X11.236 Y244.559
X11.18 Y244.42
X11.13 Y244.279
X11.084 Y244.136
X11.043 Y243.992
X11.008 Y243.846
X10.978 Y243.699
X10.953 Y243.551
X10.934 Y243.402
X10.92 Y243.253
X10.911 Y243.103
X10.908 Y242.953
X10.91 Y242.803
X10.917 Y242.653
X10.93 Y242.504
X10.948 Y242.355
X10.971 Y242.207
X11. Y242.06
X11.034 Y241.913
X11.073 Y241.769
X11.117 Y241.625
X11.166 Y241.484
X11.221 Y241.344
X11.28 Y241.206
X11.344 Y241.07
X11.413 Y240.937
X11.487 Y240.807
X11.565 Y240.679
X11.648 Y240.554
X11.735 Y240.432
X11.827 Y240.313
X11.923 Y240.197
X12.022 Y240.086
X12.126 Y239.977
X12.234 Y239.873
X12.345 Y239.772
X12.46 Y239.676
X12.579 Y239.584
X12.7 Y239.496
X12.825 Y239.413
X12.952 Y239.334
X13.083 Y239.259
X13.216 Y239.19
X13.351 Y239.125
X13.489 Y239.065
X13.628 Y239.011
X13.77 Y238.961
X13.913 Y238.916
X14.058 Y238.877
X14.204 Y238.842
X14.351 Y238.813
X14.499 Y238.79
X14.648 Y238.771
X14.797 Y238.758
X14.947 Y238.75
X15.097 Y238.747
X15.247 Y238.75
X15.397 Y238.758
X15.546 Y238.772
X15.695 Y238.79
X15.843 Y238.814
X15.99 Y238.844
X16.136 Y238.878
X16.281 Y238.918
X16.424 Y238.962
X16.566 Y239.012
X16.705 Y239.067
X16.843 Y239.127
X16.978 Y239.191
X17.111 Y239.26
X17.242 Y239.334
X17.37 Y239.413
X17.494 Y239.496
X17.616 Y239.583
X17.735 Y239.675
X17.85 Y239.771
X17.962 Y239.871
X18.07 Y239.975
X18.175 Y240.083
X18.275 Y240.194
X18.371 Y240.309
X18.464 Y240.427
X18.552 Y240.549
X18.635 Y240.674
X18.714 Y240.801
X18.788 Y240.931
X18.858 Y241.064
X18.923 Y241.199
X18.983 Y241.337
X19.038 Y241.476
X19.088 Y241.618
X19.133 Y241.761
X19.173 Y241.905
X19.208 Y242.051
X19.238 Y242.198
X19.262 Y242.346
X19.281 Y242.495
X19.295 Y242.645
X19.303 Y242.794
X19.306 Y242.944
X19.304 Y243.094
X19.297 Y243.244
X19.284 Y243.394
X19.266 Y243.542
X19.243 Y243.691
X19.215 Y243.838
X19.181 Y243.984
X19.143 Y244.129
X19.099 Y244.273
X19.05 Y244.414
X18.996 Y244.555
X18.938 Y244.693
X18.874 Y244.828
X18.806 Y244.962
X18.733 Y245.093
X18.656 Y245.222
X18.574 Y245.347
X18.487 Y245.47
X18.396 Y245.589
X18.302 Y245.705
X18.203 Y245.818
X18.1 Y245.927
X17.993 Y246.033
X17.883 Y246.134
X17.769 Y246.232
X17.651 Y246.325
X17.531 Y246.414
X17.407 Y246.499
X17.28 Y246.58
X17.151 Y246.655
X17.019 Y246.727
X16.884 Y246.793
X16.748 Y246.855
X16.609 Y246.911
X16.468 Y246.963
X16.325 Y247.01
X16.181 Y247.051
X16.036 Y247.088
X15.889 Y247.119
X15.741 Y247.146
X15.593 Y247.166
X15.444 Y247.182
X15.294 Y247.193
X15.144 Y247.198
X14.994 Y247.197
X14.844 Y247.192
X14.695 Y247.181
X14.546 Y247.166
X14.397 Y247.144
X14.249 Y247.118
X14.103 Y247.087
X13.957 Y247.05
X13.813 Y247.008
X13.671 Y246.961
X13.53 Y246.91
X13.391 Y246.853
X13.254 Y246.792
X13.12 Y246.725
X12.987 Y246.654
X12.858 Y246.579
X12.731 Y246.499
X12.607 Y246.414
X12.486 Y246.326
X12.368 Y246.233
X12.254 Y246.136
X12.143 Y246.035
X12.036 Y245.93
X11.932 Y245.821
X11.833 Y245.709
X11.737 Y245.594
X11.645 Y245.475
X11.558 Y245.353
X11.475 Y245.228
X11.397 Y245.1
X11.323 Y244.969
X11.254 Y244.836
X11.19 Y244.701
X11.13 Y244.563
X11.075 Y244.423
X11.026 Y244.282
X10.981 Y244.139
X10.941 Y243.994
X10.907 Y243.848
X10.877 Y243.701
X10.853 Y243.553
X10.834 Y243.404
X10.82 Y243.255
X10.811 Y243.105
X10.808 Y242.955
X10.81 Y242.805
X10.817 Y242.655
X10.829 Y242.506
X10.847 Y242.357
X10.869 Y242.208
X10.897 Y242.061
X10.93 Y241.915
X10.968 Y241.77
X11.011 Y241.626
X11.06 Y241.484
X11.113 Y241.344
X11.171 Y241.205
X11.233 Y241.069
X11.301 Y240.935
X11.373 Y240.804
X11.45 Y240.675
X11.531 Y240.548
X11.616 Y240.425
X11.706 Y240.305
X11.8 Y240.188
X11.898 Y240.075
X12. Y239.964
X12.106 Y239.858
X12.215 Y239.755
X12.328 Y239.657
X12.444 Y239.562
X12.564 Y239.471
X12.686 Y239.385
X12.812 Y239.303
X12.94 Y239.226
X13.071 Y239.153
X13.205 Y239.084
X13.341 Y239.021
X13.479 Y238.962
X13.619 Y238.908
X13.761 Y238.859
X13.904 Y238.815
X14.049 Y238.776
X14.195 Y238.742
X14.342 Y238.714
X14.49 Y238.69
X14.639 Y238.672
X14.789 Y238.658
X14.938 Y238.65
X15.088 Y238.647
X15.238 Y238.65
X15.388 Y238.657
X15.538 Y238.67
X15.687 Y238.688
X15.835 Y238.711
X15.982 Y238.739
X16.128 Y238.773
X16.273 Y238.811
X16.417 Y238.855
X16.559 Y238.903
X16.699 Y238.956
X16.837 Y239.014
X16.974 Y239.077
X17.108 Y239.145
X17.239 Y239.217
X17.368 Y239.294
X17.494 Y239.375
X17.617 Y239.461
X17.737 Y239.55
X17.854 Y239.644
X17.968 Y239.742
X18.078 Y239.844
X18.185 Y239.949
X18.288 Y240.059
X18.387 Y240.171
X18.481 Y240.288
X18.572 Y240.407
X18.659 Y240.529
X18.741 Y240.655
X18.819 Y240.783
X18.892 Y240.914
X18.961 Y241.047
X19.025 Y241.183
X19.084 Y241.321
X19.139 Y241.461
X19.188 Y241.602
X19.233 Y241.745
X19.272 Y241.89
X19.307 Y242.036
X19.336 Y242.183
X19.361 Y242.331
X19.38 Y242.48
X19.394 Y242.629
X19.403 Y242.779
X19.407 Y242.929
X19.405 Y243.079
X19.398 Y243.229
X19.387 Y243.378
X19.37 Y243.527
X19.348 Y243.676
X19.32 Y243.823
X19.288 Y243.97
X19.251 Y244.115
X19.209 Y244.259
X19.161 Y244.401
X19.109 Y244.542
X19.052 Y244.681
X18.991 Y244.817
X18.924 Y244.952
X18.853 Y245.084
X18.778 Y245.214
X18.698 Y245.341
X18.614 Y245.465
X18.525 Y245.586
X18.432 Y245.704
X18.336 Y245.818
X18.235 Y245.93
X18.131 Y246.037
X18.023 Y246.141
X17.911 Y246.242
X17.796 Y246.338
X17.678 Y246.43
X17.556 Y246.518
X17.432 Y246.602
X17.305 Y246.681
X17.175 Y246.756
X17.042 Y246.827
X16.907 Y246.892
X16.77 Y246.953
X16.631 Y247.01
X16.49 Y247.061
X16.348 Y247.108
X16.204 Y247.149
X16.058 Y247.186
X15.911 Y247.217
X15.764 Y247.243
X15.615 Y247.265
X15.466 Y247.281
X15.316 Y247.292
X15.167 Y247.298
X15.017
X14.867 Y247.294
X14.717 Y247.284
X14.568 Y247.269
X14.419 Y247.249
X14.271 Y247.224
X14.124 Y247.194
X13.978 Y247.159
X13.834 Y247.119
X13.691 Y247.074
X13.549 Y247.024
X13.41 Y246.97
X13.272 Y246.91
X13.136 Y246.846
X13.003 Y246.777
X12.872 Y246.704
X12.744 Y246.626
X12.618 Y246.544
X12.496 Y246.458
X12.376 Y246.367
X12.26 Y246.272
X12.147 Y246.174
X12.037 Y246.072
X11.931 Y245.965
X11.829 Y245.856
X11.73 Y245.743
X11.636 Y245.626
X11.545 Y245.507
X11.459 Y245.384
X11.377 Y245.258
X11.299 Y245.13
X11.226 Y244.999
X11.157 Y244.866
X11.093 Y244.73
X11.034 Y244.592
X10.98 Y244.452
X10.93 Y244.311
X10.885 Y244.168
X10.845 Y244.023
X10.81 Y243.877
X10.78 Y243.73
X10.756 Y243.582
X10.736 Y243.434
X10.721 Y243.284
X10.712 Y243.135
X10.708 Y242.985
Y242.835
X10.714 Y242.685
X10.725 Y242.535
X10.741 Y242.386
X10.763 Y242.238
X10.789 Y242.09
X10.82 Y241.943
X10.857 Y241.798
X10.898 Y241.653
X10.944 Y241.511
X10.995 Y241.37
X11.051 Y241.23
X11.111 Y241.093
X11.176 Y240.958
X11.246 Y240.825
X11.32 Y240.695
X11.399 Y240.567
X11.482 Y240.442
X11.569 Y240.32
X11.661 Y240.201
X11.756 Y240.085
X11.855 Y239.973
X11.958 Y239.864
X12.065 Y239.758
X12.175 Y239.657
X12.289 Y239.559
X12.406 Y239.465
X12.526 Y239.375
X12.649 Y239.29
X12.775 Y239.208
X12.904 Y239.131
X13.035 Y239.059
X13.169 Y238.991
X13.305 Y238.927
X13.443 Y238.868
X13.583 Y238.815
X13.725 Y238.765
X13.868 Y238.721
X14.013 Y238.682
X14.159 Y238.647
X14.306 Y238.618
X14.454 Y238.594
X14.602 Y238.574
X14.752 Y238.56
X14.901 Y238.551
X15.051 Y238.547
X15.201 Y238.548
X15.351 Y238.554
X15.501 Y238.566
X15.65 Y238.582
X15.798 Y238.603
X15.946 Y238.63
X16.093 Y238.661
X16.238 Y238.697
X16.382 Y238.739
X16.525 Y238.785
X16.666 Y238.836
X16.806 Y238.892
X16.943 Y238.952
X17.078 Y239.017
X17.211 Y239.087
X17.341 Y239.161
X17.469 Y239.239
X17.594 Y239.322
X17.716 Y239.409
X17.836 Y239.5
X17.952 Y239.595
X18.064 Y239.694
X18.174 Y239.797
X18.279 Y239.903
X18.381 Y240.013
X18.48 Y240.127
X18.574 Y240.243
X18.664 Y240.363
X18.75 Y240.486
X18.832 Y240.612
X18.91 Y240.74
X18.983 Y240.871
X19.052 Y241.004
X19.116 Y241.14
X19.175 Y241.278
X19.23 Y241.417
X19.28 Y241.559
X19.325 Y241.702
X19.365 Y241.846
X19.4 Y241.992
X19.431 Y242.139
X19.456 Y242.287
X19.476 Y242.436
X19.491 Y242.585
X19.502 Y242.734
X19.507 Y242.884
Y243.034
X19.502 Y243.184
X19.492 Y243.334
X19.476 Y243.483
X19.456 Y243.632
X19.431 Y243.78
X19.401 Y243.927
X19.366 Y244.072
X19.326 Y244.217
X19.281 Y244.36
X19.232 Y244.502
X19.177 Y244.642
X19.118 Y244.78
X19.055 Y244.915
X18.987 Y245.049
X18.914 Y245.18
X18.837 Y245.309
X18.755 Y245.435
X18.67 Y245.558
X18.58 Y245.678
X18.487 Y245.796
X18.389 Y245.909
X18.288 Y246.02
X18.183 Y246.127
X18.074 Y246.23
X17.962 Y246.33
X17.846 Y246.426
X17.728 Y246.518
X17.606 Y246.606
X17.482 Y246.689
X17.354 Y246.769
X17.224 Y246.843
X17.092 Y246.914
X16.957 Y246.98
X16.82 Y247.041
X16.682 Y247.098
X16.541 Y247.15
X16.398 Y247.197
X16.255 Y247.239
X16.109 Y247.277
X15.963 Y247.309
X15.815 Y247.337
X15.667 Y247.359
X15.518 Y247.377
X15.369 Y247.389
X15.219 Y247.397
X15.069 Y247.399
X14.919 Y247.397
X14.769 Y247.389
X14.62 Y247.376
X14.471 Y247.358
X14.322 Y247.336
X14.175 Y247.308
X14.029 Y247.275
X13.883 Y247.238
X13.739 Y247.195
X13.597 Y247.148
X13.456 Y247.096
X13.317 Y247.04
X13.181 Y246.978
X13.046 Y246.913
X12.913 Y246.842
X12.783 Y246.768
X12.656 Y246.689
X12.531 Y246.605
X12.409 Y246.518
X12.29 Y246.427
X12.174 Y246.331
X12.062 Y246.232
X11.952 Y246.129
X11.847 Y246.023
X11.745 Y245.913
X11.647 Y245.799
X11.552 Y245.683
X11.462 Y245.563
X11.376 Y245.44
X11.294 Y245.315
X11.216 Y245.187
X11.142 Y245.056
X11.073 Y244.923
X11.009 Y244.787
X10.949 Y244.65
X10.894 Y244.51
X10.843 Y244.369
X10.797 Y244.226
X10.756 Y244.082
X10.72 Y243.936
X10.689 Y243.789
X10.663 Y243.642
X10.642 Y243.493
X10.625 Y243.344
X10.614 Y243.195
X10.608 Y243.045
X10.607 Y242.895
X10.611 Y242.745
X10.619 Y242.595
X10.633 Y242.446
X10.652 Y242.297
X10.676 Y242.149
X10.704 Y242.002
X10.738 Y241.855
X10.776 Y241.71
X10.82 Y241.567
X10.868 Y241.425
X10.921 Y241.284
X10.978 Y241.146
X11.04 Y241.009
X11.106 Y240.875
X11.177 Y240.742
X11.253 Y240.613
X11.332 Y240.486
X11.416 Y240.361
X11.504 Y240.24
X11.596 Y240.121
X11.692 Y240.006
X11.792 Y239.894
X11.895 Y239.785
X12.002 Y239.68
X12.112 Y239.578
X12.226 Y239.48
X12.343 Y239.387
X12.463 Y239.297
X12.586 Y239.211
X12.712 Y239.129
X12.84 Y239.052
X12.971 Y238.978
X13.105 Y238.91
X13.24 Y238.846
X13.378 Y238.786
X13.517 Y238.731
X13.659 Y238.681
X13.802 Y238.635
X13.946 Y238.595
X14.092 Y238.559
X14.239 Y238.528
X14.386 Y238.502
X14.535 Y238.481
X14.684 Y238.465
X14.833 Y238.454
X14.983 Y238.447
X15.133 Y238.446
X15.283 Y238.45
X15.433 Y238.459
X15.582 Y238.473
X15.731 Y238.491
X15.879 Y238.515
X16.027 Y238.544
X16.173 Y238.577
X16.318 Y238.615
X16.462 Y238.658
X16.604 Y238.706
X16.744 Y238.758
X16.883 Y238.816
X17.02 Y238.877
X17.154 Y238.943
X17.287 Y239.014
X17.417 Y239.089
X17.544 Y239.168
X17.669 Y239.251
X17.791 Y239.339
X17.909 Y239.43
X18.025 Y239.526
X18.138 Y239.625
X18.247 Y239.728
X18.353 Y239.834
X18.455 Y239.944
X18.553 Y240.057
X18.648 Y240.174
X18.738 Y240.293
X18.825 Y240.416
X18.907 Y240.541
X18.985 Y240.669
X19.059 Y240.8
X19.129 Y240.933
X19.194 Y241.068
X19.254 Y241.205
X19.31 Y241.344
X19.361 Y241.485
X19.408 Y241.628
X19.45 Y241.772
X19.487 Y241.917
X19.519 Y242.064
X19.546 Y242.212
X19.568 Y242.36
X19.586 Y242.509
X19.598 Y242.658
X19.605 Y242.808
X19.608 Y242.958
X19.606 Y243.108
X19.598 Y243.258
X19.586 Y243.407
X19.569 Y243.556
X19.547 Y243.705
X19.52 Y243.852
X19.488 Y243.999
X19.451 Y244.144
X19.41 Y244.289
X19.363 Y244.431
X19.313 Y244.572
X19.257 Y244.712
X19.197 Y244.849
X19.133 Y244.985
X19.064 Y245.118
X18.99 Y245.249
X18.913 Y245.377
X18.831 Y245.503
X18.745 Y245.626
X18.655 Y245.746
X18.562 Y245.863
X18.464 Y245.977
X18.363 Y246.087
X18.258 Y246.195
X18.149 Y246.298
X18.037 Y246.398
X17.922 Y246.494
X17.804 Y246.587
X17.683 Y246.675
X17.559 Y246.759
X17.432 Y246.84
X17.303 Y246.916
X17.171 Y246.987
X17.037 Y247.054
X16.9 Y247.117
X16.762 Y247.175
X16.622 Y247.228
X16.48 Y247.277
X16.337 Y247.321
X16.192 Y247.36
X16.046 Y247.395
X15.899 Y247.425
X15.751 Y247.449
X15.602 Y247.469
X15.453 Y247.484
X15.303 Y247.494
X15.153 Y247.499
X15.003
X14.853 Y247.495
X14.704 Y247.485
X14.555 Y247.47
X14.406 Y247.451
X14.258 Y247.426
X14.111 Y247.397
X13.965 Y247.363
X13.82 Y247.324
X13.676 Y247.281
X13.534 Y247.233
X13.394 Y247.18
X13.255 Y247.122
X13.118 Y247.061
X12.984 Y246.994
X12.852 Y246.923
X12.722 Y246.848
X12.594 Y246.769
X12.47 Y246.686
X12.348 Y246.598
X12.229 Y246.507
X12.113 Y246.412
X12. Y246.313
X11.891 Y246.21
X11.785 Y246.104
X11.682 Y245.995
X11.584 Y245.882
X11.489 Y245.766
X11.398 Y245.646
X11.31 Y245.524
X11.227 Y245.399
X11.149 Y245.272
X11.074 Y245.142
X11.004 Y245.009
X10.938 Y244.874
X10.876 Y244.738
X10.819 Y244.599
X10.767 Y244.458
X10.719 Y244.316
X10.676 Y244.172
X10.638 Y244.027
X10.605 Y243.881
X10.576 Y243.734
X10.552 Y243.586
X10.534 Y243.437
X10.52 Y243.287
X10.51 Y243.138
X10.506 Y242.988
X10.507 Y242.838
X10.512 Y242.688
X10.523 Y242.538
X10.538 Y242.389
X10.559 Y242.24
X10.584 Y242.093
X10.613 Y241.946
X10.648 Y241.8
X10.688 Y241.655
X10.732 Y241.511
X10.78 Y241.37
X10.834 Y241.229
X10.892 Y241.091
X10.954 Y240.955
X11.021 Y240.82
X11.092 Y240.688
X11.167 Y240.559
X11.247 Y240.432
X11.331 Y240.307
X11.418 Y240.185
X11.51 Y240.067
X11.606 Y239.951
X11.705 Y239.838
X11.808 Y239.729
X11.914 Y239.624
X12.024 Y239.521
X12.137 Y239.423
X12.253 Y239.328
X12.373 Y239.237
X12.495 Y239.15
X12.62 Y239.067
X12.748 Y238.989
X12.878 Y238.914
X13.01 Y238.844
X13.145 Y238.778
X13.282 Y238.717
X13.421 Y238.66
X13.561 Y238.608
X13.704 Y238.56
X13.847 Y238.517
X13.992 Y238.479
X14.139 Y238.445
X14.286 Y238.417
X14.434 Y238.393
X14.583 Y238.374
X14.732 Y238.36
X14.882 Y238.35
X15.032 Y238.346
X15.182
X15.332 Y238.351
X15.481 Y238.362
X15.63 Y238.377
X15.779 Y238.396
X15.927 Y238.421
X16.074 Y238.451
X16.22 Y238.485
X16.365 Y238.524
X16.509 Y238.567
X16.651 Y238.615
X16.791 Y238.668
X16.93 Y238.726
X17.066 Y238.787
X17.201 Y238.854
X17.333 Y238.924
X17.463 Y238.999
X17.591 Y239.078
X17.716 Y239.161
X17.838 Y239.248
X17.957 Y239.339
X18.073 Y239.434
X18.187 Y239.532
X18.296 Y239.635
X18.403 Y239.74
X18.506 Y239.849
X18.605 Y239.962
X18.7 Y240.078
X18.792 Y240.196
X18.88 Y240.318
X18.964 Y240.442
X19.044 Y240.569
X19.119 Y240.699
X19.19 Y240.831
X19.257 Y240.965
X19.32 Y241.102
X19.378 Y241.24
X19.431 Y241.38
X19.48 Y241.522
X19.524 Y241.665
X19.564 Y241.81
X19.599 Y241.956
X19.629 Y242.103
X19.654 Y242.25
X19.675 Y242.399
X19.691 Y242.548
X19.701 Y242.698
X19.708 Y242.848
X19.709 Y242.998
X19.705 Y243.148
X19.697 Y243.297
X19.683 Y243.447
X19.665 Y243.596
X19.642 Y243.744
X19.615 Y243.891
X19.582 Y244.038
X19.545 Y244.183
X19.504 Y244.327
X19.457 Y244.47
X19.406 Y244.611
X19.351 Y244.75
X19.291 Y244.888
X19.227 Y245.023
X19.158 Y245.157
X19.085 Y245.288
X19.008 Y245.417
X18.927 Y245.543
X18.841 Y245.666
X18.752 Y245.787
X18.659 Y245.904
X18.562 Y246.019
X18.462 Y246.13
X18.358 Y246.238
X18.25 Y246.343
X18.139 Y246.444
X18.025 Y246.541
X17.908 Y246.635
X17.788 Y246.725
X17.665 Y246.811
X17.539 Y246.892
X17.411 Y246.97
X17.28 Y247.043
X17.147 Y247.113
X17.012 Y247.178
X16.874 Y247.238
X16.735 Y247.294
X16.594 Y247.345
X16.452 Y247.392
X16.308 Y247.434
X16.163 Y247.472
X16.016 Y247.504
X15.869 Y247.532
X15.721 Y247.556
X15.572 Y247.574
X15.422 Y247.588
X15.273 Y247.597
X15.123 Y247.601
X14.973 Y247.6
X14.823 Y247.594
X14.673 Y247.584
X14.524 Y247.569
X14.375 Y247.548
X14.227 Y247.524
X14.08 Y247.494
X13.934 Y247.46
X13.789 Y247.421
X13.646 Y247.378
X13.504 Y247.329
X13.363 Y247.277
X13.225 Y247.22
X13.088 Y247.158
X12.953 Y247.092
X12.82 Y247.022
X12.69 Y246.948
X12.562 Y246.869
X12.437 Y246.787
X12.315 Y246.7
X12.195 Y246.61
X12.078 Y246.516
X11.965 Y246.418
X11.854 Y246.316
X11.747 Y246.211
X11.644 Y246.102
X11.544 Y245.991
X11.447 Y245.876
X11.355 Y245.758
X11.266 Y245.637
X11.181 Y245.513
X11.1 Y245.387
X11.023 Y245.258
X10.951 Y245.127
X10.883 Y244.993
X10.819 Y244.857
X10.759 Y244.72
X10.704 Y244.58
X10.653 Y244.439
X10.607 Y244.296
X10.566 Y244.152
X10.529 Y244.007
X10.497 Y243.86
X10.47 Y243.713
X10.447 Y243.564
X10.43 Y243.415
X10.417 Y243.266
X10.408 Y243.116
X10.405 Y242.966
X10.406 Y242.816
X10.412 Y242.666
X10.423 Y242.517
X10.439 Y242.368
X10.459 Y242.219
X10.485 Y242.071
X10.514 Y241.924
X10.549 Y241.778
X10.588 Y241.633
X10.632 Y241.49
X10.68 Y241.348
X10.733 Y241.207
X10.79 Y241.069
X10.852 Y240.932
X10.918 Y240.797
X10.989 Y240.665
X11.063 Y240.535
X11.142 Y240.407
X11.224 Y240.282
X11.311 Y240.16
X11.402 Y240.04
X11.496 Y239.923
X11.594 Y239.81
X11.696 Y239.699
X11.801 Y239.592
X11.909 Y239.489
X12.021 Y239.389
X12.136 Y239.292
X12.254 Y239.2
X12.375 Y239.111
X12.498 Y239.026
X12.625 Y238.945
X12.753 Y238.868
X12.885 Y238.795
X13.018 Y238.727
X13.154 Y238.663
X13.291 Y238.603
X13.431 Y238.548
X13.572 Y238.497
X13.715 Y238.451
X13.859 Y238.409
X14.004 Y238.372
X14.15 Y238.34
X14.298 Y238.312
X14.446 Y238.289
X14.595 Y238.271
X14.744 Y238.257
X14.894 Y238.248
X15.044 Y238.244
X15.194 Y238.245
X15.344 Y238.251
X15.494 Y238.261
X15.643 Y238.276
X15.792 Y238.296
X15.94 Y238.32
X16.087 Y238.349
X16.233 Y238.383
X16.378 Y238.422
X16.521 Y238.465
X16.664 Y238.512
X16.804 Y238.564
X16.943 Y238.621
X17.08 Y238.682
X17.216 Y238.747
X17.348 Y238.816
X17.479 Y238.89
X17.607 Y238.968
X17.733 Y239.05
X17.856 Y239.135
X17.976 Y239.225
X18.094 Y239.318
X18.208 Y239.416
X18.319 Y239.516
X18.427 Y239.621
X18.532 Y239.728
X18.633 Y239.839
X18.73 Y239.953
X18.824 Y240.07
X18.914 Y240.19
X19. Y240.313
X19.082 Y240.439
X19.16 Y240.567
X19.234 Y240.697
X19.304 Y240.83
X19.369 Y240.965
X19.43 Y241.102
X19.487 Y241.241
X19.539 Y241.381
X19.587 Y241.524
X19.63 Y241.667
X19.669 Y241.812
X19.703 Y241.958
X19.732 Y242.105
X19.757 Y242.253
X19.777 Y242.402
X19.793 Y242.551
X19.803 Y242.701
X19.809 Y242.851
X19.81 Y243.001
X19.807 Y243.151
X19.798 Y243.3
X19.785 Y243.45
X19.768 Y243.599
X19.745 Y243.747
X19.718 Y243.895
X19.686 Y244.041
X19.65 Y244.187
X19.609 Y244.331
X19.563 Y244.474
X19.513 Y244.615
X19.459 Y244.755
X19.4 Y244.893
X19.337 Y245.029
X19.27 Y245.163
X19.198 Y245.295
X19.122 Y245.425
X19.043 Y245.552
X18.959 Y245.676
X18.871 Y245.798
X18.78 Y245.917
X18.684 Y246.032
X18.586 Y246.145
X18.483 Y246.255
X18.377 Y246.361
X18.268 Y246.464
X18.156 Y246.564
X18.041 Y246.659
X17.922 Y246.752
X17.801 Y246.84
X17.677 Y246.924
X17.55 Y247.005
X17.421 Y247.081
X17.29 Y247.153
X17.156 Y247.221
X17.02 Y247.285
X16.882 Y247.344
X16.743 Y247.399
X16.602 Y247.45
X16.459 Y247.496
X16.315 Y247.537
X16.169 Y247.574
X16.023 Y247.607
X15.875 Y247.634
X15.727 Y247.657
X15.578 Y247.676
X15.429 Y247.689
X15.279 Y247.698
X15.129 Y247.702
X14.979
X14.829 Y247.696
X14.68 Y247.686
X14.53 Y247.672
X14.382 Y247.652
X14.234 Y247.628
X14.086 Y247.6
X13.94 Y247.566
X13.795 Y247.529
X13.651 Y247.486
X13.509 Y247.439
X13.368 Y247.388
X13.228 Y247.332
X13.091 Y247.272
X12.956 Y247.208
X12.822 Y247.139
X12.691 Y247.066
X12.562 Y246.989
X12.436 Y246.909
X12.312 Y246.824
X12.191 Y246.735
X12.073 Y246.643
X11.958 Y246.547
X11.846 Y246.447
X11.737 Y246.344
X11.631 Y246.237
X11.529 Y246.127
X11.43 Y246.014
X11.335 Y245.898
X11.244 Y245.779
X11.156 Y245.658
X11.073 Y245.533
X10.993 Y245.406
X10.917 Y245.277
X10.846 Y245.145
X10.778 Y245.011
X10.715 Y244.875
X10.656 Y244.737
X10.602 Y244.597
X10.552 Y244.456
X10.506 Y244.313
X10.465 Y244.168
X10.429 Y244.023
X10.397 Y243.876
X10.37 Y243.729
X10.347 Y243.581
X10.329 Y243.432
X10.316 Y243.282
X10.307 Y243.132
X10.303 Y242.982
X10.304 Y242.832
X10.309 Y242.683
X10.319 Y242.533
X10.334 Y242.384
X10.354 Y242.235
X10.378 Y242.087
X10.407 Y241.94
X10.44 Y241.793
X10.478 Y241.648
X10.52 Y241.504
X10.567 Y241.362
X10.618 Y241.221
X10.674 Y241.082
X10.734 Y240.944
X10.799 Y240.809
X10.867 Y240.675
X10.94 Y240.544
X11.017 Y240.415
X11.097 Y240.289
X11.182 Y240.165
X11.27 Y240.044
X11.363 Y239.926
X11.459 Y239.81
X11.558 Y239.698
X11.661 Y239.589
X11.767 Y239.483
X11.877 Y239.381
X11.99 Y239.282
X12.106 Y239.186
X12.224 Y239.095
X12.346 Y239.007
X12.47 Y238.923
X12.597 Y238.843
X12.726 Y238.767
X12.858 Y238.695
X12.992 Y238.627
X13.127 Y238.563
X13.265 Y238.504
X13.405 Y238.449
X13.546 Y238.398
X13.689 Y238.352
X13.833 Y238.311
X13.978 Y238.274
X14.125 Y238.241
X14.272 Y238.213
X14.42 Y238.19
X14.569 Y238.171
X14.718 Y238.157
X14.868 Y238.147
X15.018 Y238.143
X15.168 Y238.142
X15.318 Y238.147
X15.468 Y238.156
X15.617 Y238.17
X15.766 Y238.189
X15.914 Y238.212
X16.061 Y238.24
X16.208 Y238.272
X16.353 Y238.309
X16.497 Y238.35
X16.64 Y238.396
X16.782 Y238.446
X16.921 Y238.501
X17.059 Y238.56
X17.195 Y238.623
X17.329 Y238.691
X17.461 Y238.762
X17.591 Y238.838
X17.718 Y238.917
X17.842 Y239.001
X17.964 Y239.088
X18.083 Y239.179
X18.2 Y239.274
X18.313 Y239.373
X18.423 Y239.475
X18.53 Y239.58
X18.633 Y239.688
X18.733 Y239.8
X18.83 Y239.915
X18.923 Y240.033
X19.012 Y240.153
X19.097 Y240.277
X19.179 Y240.402
X19.257 Y240.531
X19.33 Y240.662
X19.399 Y240.795
X19.465 Y240.93
X19.526 Y241.067
X19.582 Y241.206
X19.635 Y241.346
X19.683 Y241.488
X19.726 Y241.632
X19.765 Y241.777
X19.8 Y241.923
X19.83 Y242.07
X19.855 Y242.217
X19.876 Y242.366
X19.892 Y242.515
X19.904 Y242.665
X19.91 Y242.814
X19.913 Y242.964
X19.91 Y243.114
X19.903 Y243.264
X19.892 Y243.414
X19.875 Y243.563
X19.854 Y243.711
X19.829 Y243.859
X19.799 Y244.006
X19.764 Y244.152
X19.725 Y244.297
X19.682 Y244.441
X19.634 Y244.583
X19.582 Y244.723
X19.525 Y244.862
X19.464 Y244.999
X19.399 Y245.134
X19.33 Y245.268
X19.256 Y245.398
X19.179 Y245.527
X19.098 Y245.653
X19.013 Y245.776
X18.924 Y245.897
X18.831 Y246.015
X18.735 Y246.13
X18.635 Y246.242
X18.532 Y246.351
X18.425 Y246.457
X18.315 Y246.559
X18.202 Y246.658
X18.087 Y246.753
X17.968 Y246.844
X17.846 Y246.932
X17.722 Y247.016
X17.595 Y247.096
X17.466 Y247.173
X17.334 Y247.245
X17.201 Y247.313
X17.065 Y247.376
X16.927 Y247.436
X16.788 Y247.491
X16.647 Y247.542
X16.504 Y247.589
X16.36 Y247.631
X16.215 Y247.668
X16.069 Y247.701
X15.921 Y247.73
X15.773 Y247.754
X15.624 Y247.773
X15.475 Y247.788
X15.326 Y247.798
X15.176 Y247.804
X15.026 Y247.805
X14.876 Y247.801
X14.726 Y247.793
X14.576 Y247.78
X14.428 Y247.762
X14.279 Y247.74
X14.132 Y247.713
X13.985 Y247.682
X13.839 Y247.646
X13.695 Y247.606
X13.551 Y247.561
X13.41 Y247.512
X13.269 Y247.459
X13.131 Y247.401
X12.994 Y247.34
X12.86 Y247.274
X12.727 Y247.203
X12.597 Y247.129
X12.469 Y247.051
X12.343 Y246.969
X12.22 Y246.883
X12.1 Y246.794
X11.982 Y246.7
X11.868 Y246.603
X11.756 Y246.503
X11.648 Y246.399
X11.543 Y246.292
X11.441 Y246.182
X11.343 Y246.069
X11.248 Y245.952
X11.157 Y245.833
X11.07 Y245.711
X10.986 Y245.587
X10.906 Y245.46
X10.83 Y245.33
X10.759 Y245.199
X10.691 Y245.065
X10.628 Y244.929
X10.568 Y244.791
X10.513 Y244.652
X10.463 Y244.51
X10.416 Y244.368
X10.374 Y244.224
X10.337 Y244.078
X10.304 Y243.932
X10.275 Y243.785
X10.252 Y243.637
X10.232 Y243.488
X10.217 Y243.339
X10.207 Y243.189
X10.202 Y243.039
X10.201 Y242.889
X10.204 Y242.739
X10.213 Y242.589
X10.225 Y242.44
X10.243 Y242.291
X10.265 Y242.143
X10.291 Y241.995
X10.322 Y241.848
X10.358 Y241.702
X10.398 Y241.558
X10.442 Y241.415
X10.491 Y241.273
X10.544 Y241.132
X10.601 Y240.994
X10.662 Y240.857
X10.728 Y240.722
X10.798 Y240.589
X10.872 Y240.459
X10.949 Y240.33
X11.031 Y240.205
X11.116 Y240.081
X11.206 Y239.961
X11.299 Y239.843
X11.395 Y239.728
X11.495 Y239.616
X11.598 Y239.507
X11.705 Y239.402
X11.815 Y239.3
X11.927 Y239.201
X12.043 Y239.106
X12.162 Y239.014
X12.284 Y238.926
X12.408 Y238.842
X12.534 Y238.761
X12.663 Y238.685
X12.795 Y238.612
X12.928 Y238.544
X13.064 Y238.48
X13.201 Y238.42
X13.34 Y238.364
X13.481 Y238.312
X13.624 Y238.265
X13.767 Y238.222
X13.912 Y238.184
X14.059 Y238.15
X14.206 Y238.121
X14.354 Y238.096
X14.502 Y238.075
X14.651 Y238.06
X14.801 Y238.048
X14.951 Y238.042
X15.101 Y238.04
X15.251 Y238.042
X15.401 Y238.049
X15.55 Y238.061
X15.699 Y238.077
X15.848 Y238.098
X15.996 Y238.123
X16.143 Y238.152
X16.289 Y238.187
X16.434 Y238.225
X16.577 Y238.268
X16.72 Y238.316
X16.861 Y238.367
X17. Y238.423
X17.137 Y238.483
X17.273 Y238.548
X17.406 Y238.616
X17.538 Y238.688
X17.667 Y238.765
X17.793 Y238.845
X17.918 Y238.929
X18.039 Y239.017
X18.158 Y239.109
X18.274 Y239.204
X18.387 Y239.302
X18.497 Y239.404
X18.604 Y239.51
X18.707 Y239.618
X18.808 Y239.73
X18.904 Y239.844
X18.997 Y239.962
X19.087 Y240.082
X19.173 Y240.205
X19.255 Y240.331
X19.333 Y240.459
X19.407 Y240.589
X19.477 Y240.722
X19.544 Y240.856
X19.606 Y240.993
X19.663 Y241.131
X19.717 Y241.272
X19.766 Y241.413
X19.811 Y241.556
X19.851 Y241.701
X19.888 Y241.846
X19.919 Y241.993
X19.946 Y242.141
X19.969 Y242.289
X19.987 Y242.438
X20.001 Y242.587
X20.01 Y242.737
X20.014 Y242.887
Y243.037
X20.01 Y243.187
X20.001 Y243.336
X19.987 Y243.486
X19.969 Y243.635
X19.946 Y243.783
X19.919 Y243.931
X19.888 Y244.077
X19.852 Y244.223
X19.811 Y244.367
X19.766 Y244.51
X19.717 Y244.652
X19.664 Y244.792
X19.607 Y244.931
X19.545 Y245.068
X19.479 Y245.202
X19.409 Y245.335
X19.335 Y245.466
X19.257 Y245.594
X19.176 Y245.72
X19.09 Y245.843
X19.001 Y245.964
X18.909 Y246.082
X18.812 Y246.197
X18.713 Y246.309
X18.61 Y246.418
X18.503 Y246.523
X18.394 Y246.626
X18.281 Y246.725
X18.166 Y246.821
X18.047 Y246.913
X17.926 Y247.001
X17.802 Y247.086
X17.676 Y247.167
X17.547 Y247.244
X17.416 Y247.317
X17.283 Y247.386
X17.148 Y247.451
X17.011 Y247.512
X16.872 Y247.569
X16.731 Y247.621
X16.589 Y247.669
X16.446 Y247.713
X16.301 Y247.752
X16.155 Y247.787
X16.008 Y247.818
X15.861 Y247.844
X15.712 Y247.866
X15.563 Y247.883
X15.414 Y247.895
X15.264 Y247.903
X15.114 Y247.907
X14.964 Y247.906
X14.814 Y247.9
X14.665 Y247.89
X14.515 Y247.876
X14.366 Y247.857
X14.218 Y247.833
X14.071 Y247.805
X13.924 Y247.773
X13.779 Y247.736
X13.635 Y247.695
X13.492 Y247.649
X13.35 Y247.6
X13.21 Y247.546
X13.072 Y247.487
X12.936 Y247.425
X12.801 Y247.359
X12.669 Y247.288
X12.539 Y247.214
X12.411 Y247.135
X12.285 Y247.053
X12.162 Y246.967
X12.042 Y246.878
X11.924 Y246.785
X11.809 Y246.688
X11.698 Y246.588
X11.589 Y246.485
X11.483 Y246.378
X11.381 Y246.269
X11.282 Y246.156
X11.187 Y246.04
X11.095 Y245.922
X11.006 Y245.8
X10.922 Y245.676
X10.841 Y245.55
X10.764 Y245.421
X10.691 Y245.29
X10.622 Y245.157
X10.557 Y245.022
X10.496 Y244.885
X10.44 Y244.746
X10.387 Y244.605
X10.339 Y244.463
X10.295 Y244.32
X10.255 Y244.175
X10.22 Y244.029
X10.189 Y243.883
X10.163 Y243.735
X10.141 Y243.587
X10.124 Y243.438
X10.111 Y243.288
X10.102 Y243.138
X10.099 Y242.988
Y242.838
X10.104 Y242.689
X10.114 Y242.539
X10.128 Y242.389
X10.146 Y242.241
X10.169 Y242.092
X10.197 Y241.945
X10.229 Y241.798
X10.265 Y241.653
X10.305 Y241.508
X10.35 Y241.365
X10.4 Y241.224
X10.453 Y241.083
X10.51 Y240.945
X10.572 Y240.808
X10.638 Y240.673
X10.708 Y240.541
X10.781 Y240.41
X10.859 Y240.282
X10.94 Y240.156
X11.026 Y240.032
X11.114 Y239.911
X11.207 Y239.793
X11.303 Y239.678
X11.402 Y239.565
X11.505 Y239.456
X11.611 Y239.35
X11.72 Y239.247
X11.832 Y239.147
X11.947 Y239.051
X12.065 Y238.958
X12.186 Y238.869
X12.309 Y238.784
X12.435 Y238.702
X12.563 Y238.624
X12.694 Y238.55
X12.826 Y238.48
X12.961 Y238.414
X13.098 Y238.352
X13.236 Y238.295
X13.376 Y238.241
X13.518 Y238.192
X13.661 Y238.147
X13.805 Y238.106
X13.951 Y238.07
X14.097 Y238.037
X14.245 Y238.01
X14.393 Y237.987
X14.542 Y237.968
X14.691 Y237.954
X14.841 Y237.944
X14.991 Y237.938
X15.141 Y237.937
X15.291 Y237.941
X15.44 Y237.949
X15.59 Y237.962
X15.739 Y237.979
X15.887 Y238.
X16.035 Y238.026
X16.182 Y238.056
X16.328 Y238.091
X16.473 Y238.13
X16.616 Y238.173
