(ALT TOP BACK SLOT)
(T1  D=3.175 CR=0. - ZMIN=-6.175 - FLAT END MILL)
G90 G94 G91.1 G40 G49 G17
G21
G0 Z15

(2D ADAPTIVE1 2)
M5
T1 M6
S15000 M3
G54
M8
G0 X10.319 Y-242.951
G43 Z15. H1
Z5.
Z2.868
G1 Z2.55 F1600.
Z-6.175
Y-242.913
X10.291 Y-242.939
X10.299 Y-242.976
X10.336
X10.348 Y-242.941
X10.332 Y-242.907
X10.295 Y-242.909
X10.276 Y-242.942
X10.284 Y-242.978
X10.319 Y-242.991
X10.355 Y-242.98
X10.363 Y-242.943
X10.351 Y-242.908
X10.317 Y-242.892
X10.281 Y-242.902
X10.263 Y-242.935
X10.265 Y-242.972
X10.293 Y-242.997
X10.33 Y-243.003
X10.365 Y-242.99
X10.378 Y-242.954
X10.373 Y-242.917
X10.347 Y-242.89
X10.311 Y-242.878
X10.275 Y-242.888
X10.253 Y-242.918
X10.247 Y-242.955
X10.263 Y-242.989
X10.293 Y-243.012
X10.33 Y-243.018
X10.366 Y-243.007
X10.387 Y-242.976
X10.392 Y-242.939
X10.38 Y-242.903
X10.353 Y-242.877
X10.318 Y-242.864
X10.281 Y-242.869
X10.251 Y-242.892
X10.235 Y-242.926
Y-242.963
X10.251 Y-242.997
X10.279 Y-243.022
X10.315 Y-243.033
X10.352 Y-243.03
X10.383 Y-243.008
X10.402 Y-242.975
X10.407 Y-242.938
X10.397 Y-242.902
X10.373 Y-242.873
X10.341 Y-242.853
X10.304 Y-242.849
X10.268 Y-242.86
X10.24 Y-242.884
X10.222 Y-242.917
X10.218 Y-242.955
X10.228 Y-242.991
X10.251 Y-243.021
X10.282 Y-243.041
X10.319 Y-243.049
X10.356 Y-243.044
X10.388 Y-243.025
X10.411 Y-242.995
X10.422 Y-242.959
X10.421 Y-242.922
X10.406 Y-242.887
X10.382 Y-242.859
X10.349 Y-242.84
X10.313 Y-242.833
X10.276 Y-242.839
X10.243 Y-242.858
X10.218 Y-242.886
X10.204 Y-242.921
X10.202 Y-242.958
X10.213 Y-242.994
X10.233 Y-243.026
X10.262 Y-243.049
X10.297 Y-243.063
X10.334 Y-243.066
X10.371 Y-243.055
X10.401 Y-243.034
X10.424 Y-243.004
X10.437 Y-242.969
X10.439 Y-242.931
X10.43 Y-242.895
X10.41 Y-242.863
X10.383 Y-242.838
X10.349 Y-242.821
X10.312 Y-242.816
X10.275 Y-242.823
X10.241 Y-242.839
X10.213 Y-242.864
X10.194 Y-242.896
X10.185 Y-242.933
X10.187 Y-242.97
X10.198 Y-243.006
X10.22 Y-243.037
X10.248 Y-243.061
X10.282 Y-243.077
X10.319 Y-243.083
X10.357 Y-243.079
X10.391 Y-243.064
X10.42 Y-243.04
X10.441 Y-243.009
X10.454 Y-242.974
X10.457 Y-242.937
X10.45 Y-242.9
X10.434 Y-242.866
X10.41 Y-242.837
X10.38 Y-242.815
X10.345 Y-242.802
X10.307 Y-242.799
X10.27 Y-242.805
X10.236 Y-242.821
X10.207 Y-242.844
X10.185 Y-242.875
X10.171 Y-242.909
X10.166 Y-242.947
X10.171 Y-242.984
X10.184 Y-243.019
X10.206 Y-243.05
X10.234 Y-243.074
X10.267 Y-243.091
X10.304 Y-243.1
X10.341
X10.378 Y-243.091
X10.411 Y-243.073
X10.438 Y-243.047
X10.459 Y-243.016
X10.472 Y-242.981
X10.476 Y-242.944
X10.467 Y-242.869
X10.422 Y-242.809
X10.355 Y-242.775
X10.28 Y-242.773
X10.211 Y-242.803
X10.161 Y-242.859
X10.138 Y-242.93
X10.146 Y-243.005
X10.185 Y-243.069
X10.245 Y-243.114
X10.318 Y-243.131
X10.392 Y-243.116
X10.454 Y-243.074
X10.494 Y-243.01
X10.506 Y-242.936
X10.494 Y-242.862
X10.454 Y-242.799
X10.392 Y-242.756
X10.319 Y-242.74
X10.245 Y-242.753
X10.181 Y-242.792
X10.135 Y-242.851
X10.11 Y-242.922
X10.113 Y-242.997
X10.143 Y-243.065
X10.195 Y-243.12
X10.263 Y-243.152
X10.338 Y-243.159
X10.41 Y-243.138
X10.472 Y-243.096
X10.515 Y-243.035
X10.536 Y-242.963
X10.534 Y-242.888
X10.507 Y-242.818
X10.457 Y-242.762
X10.392 Y-242.725
X10.318 Y-242.712
X10.243 Y-242.722
X10.176 Y-242.756
X10.124 Y-242.809
X10.089 Y-242.876
X10.077 Y-242.95
X10.089 Y-243.024
X10.124 Y-243.09
X10.177 Y-243.143
X10.244 Y-243.177
X10.318 Y-243.19
X10.392 Y-243.179
X10.46 Y-243.147
X10.515 Y-243.096
X10.551 Y-243.031
X10.569 Y-242.958
X10.564 Y-242.883
X10.538 Y-242.812
X10.493 Y-242.752
X10.432 Y-242.708
X10.361 Y-242.684
X10.286 Y-242.68
X10.214 Y-242.699
X10.149 Y-242.737
X10.097 Y-242.791
X10.063 Y-242.858
X10.046 Y-242.931
X10.051 Y-243.006
X10.077 Y-243.076
X10.121 Y-243.137
X10.179 Y-243.184
X10.248 Y-243.213
X10.323 Y-243.222
X10.397 Y-243.211
X10.465 Y-243.18
X10.524 Y-243.134
X10.568 Y-243.073
X10.595 Y-243.003
X10.603 Y-242.928
X10.591 Y-242.854
X10.561 Y-242.785
X10.514 Y-242.727
X10.454 Y-242.683
X10.384 Y-242.656
X10.309 Y-242.647
X10.235 Y-242.657
X10.165 Y-242.685
X10.105 Y-242.73
X10.058 Y-242.788
X10.026 Y-242.856
X10.012 Y-242.93
X10.017 Y-243.005
X10.041 Y-243.076
X10.08 Y-243.14
X10.133 Y-243.193
X10.198 Y-243.231
X10.27 Y-243.252
X10.344 Y-243.256
X10.418 Y-243.24
X10.486 Y-243.209
X10.544 Y-243.162
X10.59 Y-243.102
X10.621 Y-243.034
X10.635 Y-242.96
X10.633 Y-242.885
X10.614 Y-242.813
X10.578 Y-242.747
X10.527 Y-242.692
X10.465 Y-242.65
X10.395 Y-242.623
X10.321 Y-242.612
X10.246 Y-242.619
X10.175 Y-242.643
X10.11 Y-242.681
X10.056 Y-242.732
X10.014 Y-242.795
X9.987 Y-242.865
X9.976 Y-242.939
X9.989 Y-243.088
X10.074 Y-243.212
X10.202 Y-243.289
X10.351 Y-243.307
X10.495 Y-243.265
X10.61 Y-243.168
X10.676 Y-243.033
X10.686 Y-242.884
X10.638 Y-242.742
X10.536 Y-242.631
X10.4 Y-242.57
X10.25 Y-242.564
X10.109 Y-242.616
X9.999 Y-242.718
X9.936 Y-242.854
X9.921 Y-243.003
X9.966 Y-243.146
X10.058 Y-243.264
X10.188 Y-243.339
X10.336 Y-243.362
X10.483 Y-243.331
X10.609 Y-243.249
X10.697 Y-243.128
X10.738 Y-242.984
X10.727 Y-242.834
X10.668 Y-242.696
X10.565 Y-242.587
X10.43 Y-242.522
X10.281 Y-242.505
X10.135 Y-242.541
X10.01 Y-242.624
X9.921 Y-242.744
X9.874 Y-242.887
X9.876 Y-243.037
X9.925 Y-243.179
X10.016 Y-243.298
X10.141 Y-243.38
X10.287 Y-243.417
X10.436 Y-243.405
X10.574 Y-243.345
X10.685 Y-243.245
X10.759 Y-243.114
X10.79 Y-242.968
X10.777 Y-242.818
X10.721 Y-242.679
X10.624 Y-242.564
X10.497 Y-242.486
X10.351 Y-242.45
X10.201 Y-242.461
X10.062 Y-242.517
X9.947 Y-242.614
X9.866 Y-242.74
X9.822 Y-242.883
X9.821 Y-243.033
X9.862 Y-243.177
X9.942 Y-243.304
X10.057 Y-243.4
X10.195 Y-243.458
X10.345 Y-243.474
X10.492 Y-243.445
X10.624 Y-243.375
X10.732 Y-243.27
X10.807 Y-243.14
X10.844 Y-242.995
X10.841 Y-242.845
X10.798 Y-242.701
X10.716 Y-242.575
X10.603 Y-242.477
X10.466 Y-242.415
X10.318 Y-242.394
X10.169 Y-242.414
X10.032 Y-242.474
X9.915 Y-242.569
X9.827 Y-242.69
X9.773 Y-242.83
X9.758 Y-242.98
X9.781 Y-243.128
X9.842 Y-243.265
X9.937 Y-243.381
X10.06 Y-243.466
X10.202 Y-243.516
X10.352 Y-243.527
X10.499 Y-243.5
X10.635 Y-243.436
X10.749 Y-243.339
X10.836 Y-243.217
X10.889 Y-243.076
X10.907 Y-242.927
X10.887 Y-242.779
X10.831 Y-242.639
X10.742 Y-242.519
X10.624 Y-242.426
X10.487 Y-242.365
X10.34 Y-242.338
X10.19 Y-242.35
X10.048 Y-242.399
X9.922 Y-242.48
X9.82 Y-242.59
X9.746 Y-242.721
X9.706 Y-242.865
X9.701 Y-243.015
X9.731 Y-243.162
X9.796 Y-243.297
X9.891 Y-243.413
X10.011 Y-243.504
X10.149 Y-243.562
X10.297 Y-243.587
X10.446 Y-243.575
X10.589 Y-243.529
X10.717 Y-243.451
X10.823 Y-243.345
X10.902 Y-243.217
X10.95 Y-243.075
X10.964 Y-242.926
X10.945 Y-242.777
X10.894 Y-242.636
X10.812 Y-242.511
X10.703 Y-242.408
X10.573 Y-242.332
X10.43 Y-242.288
X10.28 Y-242.278
X10.132 Y-242.302
X9.994 Y-242.359
X9.871 Y-242.446
X9.771 Y-242.558
X9.697 Y-242.688
X9.653 Y-242.832
X9.64 Y-242.981
X9.66 Y-243.13
X9.712 Y-243.27
X9.793 Y-243.396
X9.9 Y-243.502
X10.027 Y-243.581
X10.169 Y-243.63
X10.318 Y-243.648
X10.467 Y-243.632
X10.609 Y-243.584
X10.738 Y-243.508
X10.848 Y-243.406
X10.935 Y-243.283
X10.994 Y-243.146
X11.023 Y-242.998
X11.021 Y-242.848
X10.989 Y-242.702
X10.927 Y-242.566
X10.837 Y-242.445
X10.723 Y-242.347
X10.592 Y-242.275
X10.448 Y-242.231
X10.299 Y-242.219
X10.15 Y-242.237
X10.008 Y-242.285
X9.879 Y-242.361
X9.768 Y-242.462
X9.68 Y-242.584
X9.618 Y-242.72
X9.583 Y-242.866
X9.579 Y-243.016
X9.604 Y-243.164
X9.66 Y-243.304
X9.742 Y-243.429
X9.847 Y-243.536
X9.972 Y-243.619
X10.11 Y-243.677
X10.257 Y-243.706
X10.407 Y-243.704
X10.554 Y-243.673
X10.692 Y-243.613
X10.815 Y-243.527
X10.919 Y-243.42
X11.001 Y-243.294
X11.057 Y-243.155
X11.085 Y-243.007
X11.084 Y-242.857
X11.055 Y-242.71
X10.999 Y-242.571
X10.917 Y-242.445
X10.813 Y-242.338
X10.689 Y-242.252
X10.552 Y-242.193
X10.405 Y-242.16
X10.255 Y-242.157
X10.107 Y-242.182
X9.967 Y-242.234
X9.839 Y-242.313
X9.728 Y-242.414
X9.638 Y-242.534
X9.571 Y-242.668
X9.53 Y-242.812
X9.515 Y-242.962
X9.528 Y-243.111
X9.569 Y-243.256
X9.635 Y-243.39
X9.726 Y-243.509
X9.837 Y-243.61
X9.965 Y-243.689
X10.105 Y-243.742
X10.253 Y-243.769
X10.403 Y-243.768
X10.55 Y-243.739
X10.689 Y-243.684
X10.817 Y-243.605
X10.929 Y-243.504
X11.021 Y-243.386
X11.09 Y-243.253
X11.134 Y-243.11
X11.153 Y-242.961
X11.144 Y-242.811
X11.109 Y-242.665
X11.049 Y-242.528
X10.966 Y-242.403
X10.861 Y-242.296
X10.739 Y-242.209
X10.603 Y-242.145
X10.458 Y-242.106
X10.309 Y-242.093
X10.159 Y-242.106
X10.015 Y-242.145
X9.879 Y-242.209
X9.757 Y-242.295
X9.651 Y-242.402
X9.566 Y-242.526
X9.503 Y-242.662
X9.464 Y-242.807
X9.45 Y-242.956
X9.462 Y-243.105
X9.499 Y-243.251
X9.561 Y-243.387
X9.645 Y-243.512
X9.749 Y-243.62
X9.87 Y-243.709
X10.004 Y-243.776
X10.148 Y-243.819
X10.296 Y-243.837
X10.446 Y-243.828
X10.592 Y-243.795
X10.731 Y-243.737
X10.858 Y-243.657
X10.97 Y-243.557
X11.063 Y-243.44
X11.136 Y-243.309
X11.186 Y-243.167
X11.212 Y-243.019
X11.215 Y-242.869
X11.192 Y-242.721
X11.146 Y-242.578
X11.077 Y-242.445
X10.986 Y-242.326
X10.877 Y-242.223
X10.752 Y-242.14
X10.615 Y-242.078
X10.47 Y-242.04
X10.321 Y-242.027
X10.171 Y-242.037
X10.026 Y-242.072
X9.887 Y-242.131
X9.76 Y-242.211
X9.648 Y-242.31
X9.553 Y-242.426
X9.477 Y-242.555
X9.422 Y-242.695
X9.391 Y-242.842
X9.383 Y-242.991
X9.4 Y-243.14
X9.44 Y-243.285
X9.503 Y-243.421
X9.587 Y-243.546
X9.689 Y-243.655
X9.808 Y-243.747
X9.939 Y-243.819
X10.08 Y-243.869
X10.228 Y-243.897
X10.378 Y-243.9
X10.527 Y-243.88
X10.67 Y-243.837
X10.805 Y-243.772
X10.929 Y-243.687
X11.037 Y-243.583
X11.128 Y-243.464
X11.2 Y-243.332
X11.25 Y-243.191
X11.278 Y-243.043
X11.283 Y-242.893
X11.265 Y-242.745
X11.225 Y-242.6
X11.163 Y-242.463
X11.081 Y-242.338
X10.981 Y-242.226
X10.865 Y-242.131
X10.735 Y-242.056
X10.595 Y-242.001
X10.449 Y-241.968
X10.299 Y-241.958
X10.15 Y-241.972
X10.004 Y-242.008
X9.866 Y-242.065
X9.738 Y-242.143
X9.623 Y-242.24
X9.523 Y-242.352
X9.442 Y-242.478
X9.38 Y-242.614
X9.338 Y-242.758
X9.318 Y-242.907
X9.32 Y-243.057
X9.345 Y-243.205
X9.392 Y-243.348
X9.459 Y-243.482
X9.546 Y-243.604
X9.65 Y-243.712
X9.769 Y-243.804
X9.9 Y-243.877
X10.04 Y-243.929
X10.187 Y-243.96
X10.337 Y-243.969
X10.486 Y-243.956
X10.632 Y-243.921
X10.771 Y-243.865
X10.901 Y-243.79
X11.019 Y-243.697
X11.122 Y-243.588
X11.208 Y-243.465
X11.275 Y-243.331
X11.322 Y-243.189
X11.348 Y-243.041
X11.353 Y-242.891
X11.336 Y-242.742
X11.297 Y-242.597
X11.239 Y-242.459
X11.161 Y-242.331
X11.065 Y-242.215
X10.954 Y-242.114
X10.83 Y-242.03
X10.695 Y-241.965
X10.552 Y-241.919
X10.404 Y-241.895
X10.254 Y-241.891
X10.105 Y-241.91
X9.96 Y-241.949
X9.823 Y-242.009
X9.695 Y-242.088
X9.58 Y-242.184
X9.479 Y-242.295
X9.395 Y-242.419
X9.329 Y-242.554
X9.282 Y-242.696
X9.255 Y-242.844
X9.249 Y-242.994
X9.263 Y-243.143
X9.298 Y-243.289
X9.353 Y-243.428
X9.427 Y-243.559
X9.518 Y-243.678
X9.625 Y-243.783
X9.746 Y-243.872
X9.878 Y-243.944
X10.019 Y-243.996
X10.165 Y-244.028
X10.315 Y-244.039
X10.464 Y-244.029
X10.611 Y-244.
X10.753 Y-243.95
X10.886 Y-243.881
X11.009 Y-243.796
X11.12 Y-243.694
X11.215 Y-243.578
X11.295 Y-243.451
X11.356 Y-243.314
X11.398 Y-243.17
X11.42 Y-243.022
X11.422 Y-242.872
X11.404 Y-242.723
X11.366 Y-242.578
X11.308 Y-242.439
X11.232 Y-242.31
X11.14 Y-242.192
X11.032 Y-242.088
X10.911 Y-241.999
X10.78 Y-241.926
X10.64 Y-241.872
X10.494 Y-241.837
X10.345 Y-241.822
X10.195 Y-241.827
X10.047 Y-241.852
X9.903 Y-241.896
X9.767 Y-241.959
X9.641 Y-242.04
X9.526 Y-242.137
X9.426 Y-242.248
X9.34 Y-242.371
X9.272 Y-242.505
X9.222 Y-242.646
X9.19 Y-242.793
X9.178 Y-242.942
X9.186 Y-243.092
X9.212 Y-243.24
X9.258 Y-243.383
X9.322 Y-243.518
X9.402 Y-243.645
X9.499 Y-243.76
X9.609 Y-243.861
X9.732 Y-243.947
X9.866 Y-244.016
X10.007 Y-244.066
X10.153 Y-244.098
X10.303 Y-244.11
X10.453 Y-244.103
X10.6 Y-244.076
X10.743 Y-244.031
X10.879 Y-243.967
X11.006 Y-243.887
X11.121 Y-243.791
X11.224 Y-243.682
X11.312 Y-243.56
X11.384 Y-243.429
X11.438 Y-243.289
X11.475 Y-243.144
X11.493 Y-242.995
X11.492 Y-242.845
X11.472 Y-242.696
X11.432 Y-242.551
X11.375 Y-242.413
X11.301 Y-242.283
X11.21 Y-242.163
X11.105 Y-242.056
X10.987 Y-241.963
X10.859 Y-241.886
X10.721 Y-241.825
X10.578 Y-241.782
X10.43 Y-241.758
X10.28 Y-241.752
X10.13 Y-241.764
X9.984 Y-241.795
X9.842 Y-241.845
X9.707 Y-241.911
X9.582 Y-241.994
X9.469 Y-242.092
X9.368 Y-242.203
X9.283 Y-242.326
X9.213 Y-242.459
X9.16 Y-242.599
X9.124 Y-242.745
X9.107 Y-242.894
X9.109 Y-243.044
X9.129 Y-243.193
X9.166 Y-243.338
X9.221 Y-243.478
X9.293 Y-243.61
X9.38 Y-243.732
X9.481 Y-243.842
X9.595 Y-243.94
X9.72 Y-244.023
X9.855 Y-244.089
X9.996 Y-244.139
X10.143 Y-244.17
X10.292 Y-244.183
X10.442 Y-244.177
X10.59 Y-244.154
X10.735 Y-244.112
X10.873 Y-244.053
X11.002 Y-243.978
X11.122 Y-243.888
X11.23 Y-243.784
X11.326 Y-243.668
X11.406 Y-243.541
X11.472 Y-243.406
X11.52 Y-243.265
X11.552 Y-243.118
X11.566 Y-242.969
X11.562 Y-242.819
X11.54 Y-242.67
X11.501 Y-242.526
X11.444 Y-242.387
X11.371 Y-242.256
X11.282 Y-242.135
X11.18 Y-242.025
X11.065 Y-241.929
X10.939 Y-241.847
X10.805 Y-241.78
X10.664 Y-241.73
X10.517 Y-241.697
X10.368 Y-241.681
X10.218 Y-241.683
X10.069 Y-241.702
X9.924 Y-241.738
X9.784 Y-241.791
X9.651 Y-241.861
X9.527 Y-241.945
X9.414 Y-242.044
X9.313 Y-242.155
X9.226 Y-242.277
X9.154 Y-242.409
X9.098 Y-242.548
X9.059 Y-242.693
X9.037 Y-242.841
X9.033 Y-242.991
X9.045 Y-243.141
X9.075 Y-243.288
X9.122 Y-243.43
X9.185 Y-243.567
X9.262 Y-243.695
X9.354 Y-243.814
X9.459 Y-243.921
X9.575 Y-244.015
X9.702 Y-244.096
X9.837 Y-244.161
X9.979 Y-244.21
X10.125 Y-244.242
X10.275 Y-244.256
X10.425 Y-244.253
X10.573 Y-244.233
X10.719 Y-244.196
X10.859 Y-244.142
X10.991 Y-244.072
X11.115 Y-243.988
X11.229 Y-243.89
X11.331 Y-243.78
X11.42 Y-243.659
X11.495 Y-243.529
X11.556 Y-243.392
X11.6 Y-243.249
X11.629 Y-243.101
X11.64 Y-242.952
X11.635 Y-242.802
X11.613 Y-242.654
X11.574 Y-242.509
X11.518 Y-242.369
X11.447 Y-242.237
X11.361 Y-242.114
X11.262 Y-242.002
X11.151 Y-241.901
X11.029 Y-241.814
X10.898 Y-241.741
X10.759 Y-241.683
X10.615 Y-241.641
X10.467 Y-241.616
X10.318 Y-241.606
X10.168 Y-241.613
X10.02 Y-241.637
X9.875 Y-241.677
X9.736 Y-241.732
X9.603 Y-241.803
X9.48 Y-241.888
X9.366 Y-241.986
X9.265 Y-242.096
X9.176 Y-242.217
X9.101 Y-242.347
X9.041 Y-242.485
X8.997 Y-242.628
X8.969 Y-242.775
X8.958 Y-242.925
X8.963 Y-243.075
X8.984 Y-243.223
X9.022 Y-243.368
X9.075 Y-243.509
X9.142 Y-243.643
X9.224 Y-243.769
X9.319 Y-243.885
X9.425 Y-243.99
X9.543 Y-244.084
X9.67 Y-244.163
X9.805 Y-244.229
X9.946 Y-244.279
X10.093 Y-244.313
X10.241 Y-244.33
X10.391 Y-244.331
X10.541 Y-244.315
X10.687 Y-244.283
X10.829 Y-244.235
X10.966 Y-244.172
X11.094 Y-244.095
X11.213 Y-244.004
X11.323 Y-243.901
X11.42 Y-243.787
X11.505 Y-243.664
X11.577 Y-243.532
X11.634 Y-243.394
X11.677 Y-243.25
X11.704 Y-243.102
X11.715 Y-242.953
X11.711 Y-242.803
X11.69 Y-242.654
X11.653 Y-242.509
X11.601 Y-242.368
X11.533 Y-242.234
X11.452 Y-242.108
X11.357 Y-241.992
X11.25 Y-241.887
X11.133 Y-241.793
X11.006 Y-241.713
X10.871 Y-241.647
X10.73 Y-241.595
X10.585 Y-241.559
X10.436 Y-241.538
X10.287 Y-241.532
X10.137 Y-241.542
X9.989 Y-241.567
X9.845 Y-241.608
X9.705 Y-241.663
X9.572 Y-241.733
X9.448 Y-241.816
X9.333 Y-241.913
X9.229 Y-242.02
X9.136 Y-242.139
X9.057 Y-242.266
X8.992 Y-242.401
X8.942 Y-242.543
X8.907 Y-242.689
X8.887 Y-242.837
X8.883 Y-242.987
X8.894 Y-243.137
X8.921 Y-243.284
X8.963 Y-243.428
X9.019 Y-243.568
X9.089 Y-243.7
X9.172 Y-243.825
X9.267 Y-243.941
X9.374 Y-244.046
X9.491 Y-244.14
X9.617 Y-244.221
X9.751 Y-244.289
X9.891 Y-244.342
X10.037 Y-244.38
X10.185 Y-244.402
X10.335 Y-244.409
X10.485 Y-244.4
X10.632 Y-244.375
X10.777 Y-244.335
X10.917 Y-244.28
X11.05 Y-244.212
X11.176 Y-244.13
X11.292 Y-244.035
X11.399 Y-243.93
X11.495 Y-243.814
X11.578 Y-243.69
X11.649 Y-243.558
X11.706 Y-243.419
X11.75 Y-243.275
X11.778 Y-243.128
X11.792 Y-242.979
X11.79 Y-242.829
X11.773 Y-242.68
X11.74 Y-242.533
X11.693 Y-242.391
X11.631 Y-242.254
X11.555 Y-242.125
X11.467 Y-242.004
X11.366 Y-241.892
X11.255 Y-241.792
X11.134 Y-241.703
X11.005 Y-241.627
X10.869 Y-241.564
X10.727 Y-241.515
X10.581 Y-241.481
X10.432 Y-241.461
X10.282 Y-241.455
X10.133 Y-241.465
X9.984 Y-241.489
X9.84 Y-241.528
X9.699 Y-241.581
X9.565 Y-241.648
X9.438 Y-241.728
X9.32 Y-241.82
X9.212 Y-241.924
X9.115 Y-242.038
X9.029 Y-242.162
X8.957 Y-242.293
X8.899 Y-242.431
X8.854 Y-242.575
X8.824 Y-242.722
X8.809 Y-242.871
X8.808 Y-243.021
X8.822 Y-243.17
X8.85 Y-243.317
X8.893 Y-243.461
X8.949 Y-243.6
X9.019 Y-243.733
X9.101 Y-243.859
X9.194 Y-243.976
X9.299 Y-244.083
X9.414 Y-244.18
X9.538 Y-244.265
X9.669 Y-244.336
X9.808 Y-244.395
X9.951 Y-244.439
X10.098 Y-244.469
X10.247 Y-244.484
X10.397 Y-244.483
X10.546 Y-244.468
X10.693 Y-244.439
X10.837 Y-244.395
X10.975 Y-244.337
X11.108 Y-244.266
X11.232 Y-244.183
X11.349 Y-244.088
X11.455 Y-243.983
X11.552 Y-243.868
X11.636 Y-243.744
X11.709 Y-243.613
X11.769 Y-243.475
X11.816 Y-243.333
X11.848 Y-243.186
X11.867 Y-243.038
X11.871 Y-242.888
X11.86 Y-242.738
X11.834 Y-242.59
X11.795 Y-242.446
X11.741 Y-242.305
X11.674 Y-242.171
X11.594 Y-242.045
X11.502 Y-241.926
X11.399 Y-241.817
X11.286 Y-241.718
X11.164 Y-241.631
X11.034 Y-241.555
X10.898 Y-241.493
X10.756 Y-241.443
X10.611 Y-241.407
X10.462 Y-241.385
X10.313 Y-241.377
X10.163 Y-241.383
X10.014 Y-241.403
X9.868 Y-241.437
X9.726 Y-241.485
X9.589 Y-241.546
X9.458 Y-241.62
X9.336 Y-241.706
X9.222 Y-241.804
X9.118 Y-241.912
X9.025 Y-242.03
X8.943 Y-242.156
X8.874 Y-242.289
X8.818 Y-242.428
X8.775 Y-242.572
X8.746 Y-242.719
X8.731 Y-242.868
X8.73 Y-243.018
X8.743 Y-243.168
X8.769 Y-243.315
X8.809 Y-243.46
X8.863 Y-243.6
X8.928 Y-243.735
X9.007 Y-243.863
X9.096 Y-243.983
X9.197 Y-244.094
X9.307 Y-244.196
X9.427 Y-244.286
X9.555 Y-244.365
X9.689 Y-244.431
X9.83 Y-244.484
X9.974 Y-244.524
X10.122 Y-244.55
X10.272 Y-244.562
X10.422 Y-244.559
X10.571 Y-244.543
X10.718 Y-244.512
X10.861 Y-244.469
X11. Y-244.412
X11.133 Y-244.342
X11.259 Y-244.261
X11.377 Y-244.169
X11.486 Y-244.066
X11.585 Y-243.954
X11.674 Y-243.833
X11.752 Y-243.704
X11.817 Y-243.569
X11.87 Y-243.429
X11.91 Y-243.284
X11.936 Y-243.136
X11.948 Y-242.987
X11.947 Y-242.837
X11.932 Y-242.688
X11.902 Y-242.541
X11.86 Y-242.397
X11.804 Y-242.257
X11.736 Y-242.124
X11.655 Y-241.997
X11.564 Y-241.879
X11.462 Y-241.769
X11.35 Y-241.669
X11.229 Y-241.579
X11.101 Y-241.501
X10.967 Y-241.435
X10.826 Y-241.382
X10.682 Y-241.341
X10.535 Y-241.313
X10.385 Y-241.299
X10.235 Y-241.298
X10.086 Y-241.311
X9.938 Y-241.337
X9.794 Y-241.377
X9.653 Y-241.43
X9.518 Y-241.495
X9.389 Y-241.572
X9.268 Y-241.66
X9.156 Y-241.76
X9.053 Y-241.869
X8.96 Y-241.986
X8.878 Y-242.112
X8.808 Y-242.245
X8.75 Y-242.383
X8.705 Y-242.526
X8.673 Y-242.673
X8.654 Y-242.822
X8.649 Y-242.972
X8.657 Y-243.121
X8.678 Y-243.27
X8.712 Y-243.416
X8.759 Y-243.558
X8.818 Y-243.696
X8.89 Y-243.828
X8.973 Y-243.953
X9.066 Y-244.07
X9.17 Y-244.179
X9.283 Y-244.277
X9.404 Y-244.365
X9.533 Y-244.442
X9.668 Y-244.507
X9.809 Y-244.56
X9.953 Y-244.6
X10.101 Y-244.626
X10.25 Y-244.64
X10.4
X10.55 Y-244.626
X10.697 Y-244.6
X10.842 Y-244.56
X10.983 Y-244.507
X11.118 Y-244.443
X11.247 Y-244.367
X11.369 Y-244.279
X11.483 Y-244.182
X11.588 Y-244.075
X11.683 Y-243.959
X11.768 Y-243.835
X11.842 Y-243.704
X11.904 Y-243.568
X11.954 Y-243.426
X11.991 Y-243.281
X12.016 Y-243.133
X12.027 Y-242.984
X12.026 Y-242.834
X12.011 Y-242.684
X11.983 Y-242.537
X11.942 Y-242.392
X11.889 Y-242.252
X11.824 Y-242.117
X11.747 Y-241.989
X11.658 Y-241.867
X11.56 Y-241.754
X11.452 Y-241.65
X11.335 Y-241.556
X11.211 Y-241.472
X11.08 Y-241.399
X10.943 Y-241.338
X10.801 Y-241.289
X10.655 Y-241.253
X10.507 Y-241.229
X10.358 Y-241.218
X10.208 Y-241.22
X10.058 Y-241.235
X9.911 Y-241.262
X9.766 Y-241.302
X9.626 Y-241.355
X9.49 Y-241.419
X9.361 Y-241.495
X9.239 Y-241.582
X9.124 Y-241.679
X9.019 Y-241.786
X8.923 Y-241.901
X8.837 Y-242.024
X8.763 Y-242.154
X8.7 Y-242.29
X8.649 Y-242.431
X8.61 Y-242.576
X8.584 Y-242.724
X8.57 Y-242.873
X8.569 Y-243.023
X8.581 Y-243.173
X8.606 Y-243.321
X8.643 Y-243.466
X8.692 Y-243.608
X8.753 Y-243.745
X8.826 Y-243.876
X8.909 Y-244.001
X9.002 Y-244.118
X9.105 Y-244.227
X9.217 Y-244.327
X9.337 Y-244.417
X9.465 Y-244.497
X9.598 Y-244.565
X9.737 Y-244.621
X9.881 Y-244.665
X10.027 Y-244.697
X10.176 Y-244.716
X10.326 Y-244.723
X10.476 Y-244.716
X10.625 Y-244.697
X10.771 Y-244.665
X10.914 Y-244.62
X11.053 Y-244.564
X11.187 Y-244.496
X11.315 Y-244.418
X11.436 Y-244.329
X11.549 Y-244.23
X11.653 Y-244.122
X11.748 Y-244.006
X11.833 Y-243.882
X11.907 Y-243.752
X11.971 Y-243.616
X12.023 Y-243.476
X12.063 Y-243.331
X12.091 Y-243.184
X12.106 Y-243.035
X12.109 Y-242.885
X12.099 Y-242.735
X12.077 Y-242.587
X12.042 Y-242.441
X11.995 Y-242.298
X11.937 Y-242.16
X11.866 Y-242.028
X11.785 Y-241.902
X11.694 Y-241.783
X11.593 Y-241.672
X11.483 Y-241.57
X11.364 Y-241.477
X11.239 Y-241.395
X11.107 Y-241.323
X10.97 Y-241.263
X10.828 Y-241.214
X10.683 Y-241.176
X10.535 Y-241.151
X10.386 Y-241.138
X10.236 Y-241.137
X10.086 Y-241.149
X9.938 Y-241.173
X9.792 Y-241.209
X9.65 Y-241.257
X9.513 Y-241.316
X9.38 Y-241.387
X9.254 Y-241.468
X9.136 Y-241.56
X9.025 Y-241.661
X8.923 Y-241.771
X8.83 Y-241.889
X8.748 Y-242.015
X8.676 Y-242.146
X8.615 Y-242.283
X8.566 Y-242.425
X8.529 Y-242.57
X8.503 Y-242.718
X8.49 Y-242.868
X8.488 Y-243.018
X8.499 Y-243.167
X8.522 Y-243.315
X8.557 Y-243.461
X8.604 Y-243.604
X8.661 Y-243.742
X8.73 Y-243.876
X8.81 Y-244.003
X8.899 Y-244.123
X8.998 Y-244.236
X9.106 Y-244.34
X9.222 Y-244.435
X9.345 Y-244.521
X9.475 Y-244.595
X9.611 Y-244.659
X9.751 Y-244.712
X9.896 Y-244.753
X10.043 Y-244.782
X10.192 Y-244.799
X10.342 Y-244.803
X10.492 Y-244.796
X10.64 Y-244.776
X10.787 Y-244.744
X10.931 Y-244.7
X11.07 Y-244.646
X11.205 Y-244.58
X11.334 Y-244.503
X11.456 Y-244.417
X11.572 Y-244.321
X11.679 Y-244.216
X11.777 Y-244.103
X11.867 Y-243.982
X11.946 Y-243.855
X12.015 Y-243.721
X12.073 Y-243.583
X12.12 Y-243.441
X12.155 Y-243.295
X12.179 Y-243.147
X12.19 Y-242.997
Y-242.847
X12.177 Y-242.698
X12.153 Y-242.55
X12.116 Y-242.404
X12.068 Y-242.262
X12.009 Y-242.124
X11.939 Y-241.992
X11.859 Y-241.865
X11.768 Y-241.745
X11.669 Y-241.633
X11.56 Y-241.529
X11.444 Y-241.434
X11.321 Y-241.349
X11.191 Y-241.274
X11.056 Y-241.209
X10.916 Y-241.155
X10.772 Y-241.112
X10.626 Y-241.081
X10.477 Y-241.061
X10.327 Y-241.053
X10.177 Y-241.057
X10.028 Y-241.073
X9.88 Y-241.101
X9.736 Y-241.14
X9.594 Y-241.191
X9.458 Y-241.252
X9.326 Y-241.324
X9.201 Y-241.407
X9.082 Y-241.499
X8.971 Y-241.6
X8.869 Y-241.709
X8.775 Y-241.826
X8.691 Y-241.951
X8.617 Y-242.081
X8.554 Y-242.217
X8.501 Y-242.357
X8.46 Y-242.502
X8.43 Y-242.649
X8.411 Y-242.797
X8.404 Y-242.947
X8.409 Y-243.097
X8.426 Y-243.246
X8.454 Y-243.394
X8.493 Y-243.538
X8.544 Y-243.68
X8.605 Y-243.817
X8.677 Y-243.948
X8.759 Y-244.074
X8.85 Y-244.193
X8.95 Y-244.305
X9.059 Y-244.408
X9.175 Y-244.503
X9.299 Y-244.588
X9.428 Y-244.663
X9.564 Y-244.728
X9.703 Y-244.782
X9.847 Y-244.825
X9.994 Y-244.857
X10.142 Y-244.877
X10.292 Y-244.886
X10.442 Y-244.882
X10.591 Y-244.868
X10.739 Y-244.841
X10.884 Y-244.803
X11.026 Y-244.754
X11.164 Y-244.694
X11.296 Y-244.624
X11.423 Y-244.544
X11.543 Y-244.454
X11.656 Y-244.356
X11.761 Y-244.249
X11.858 Y-244.134
X11.946 Y-244.012
X12.024 Y-243.884
X12.092 Y-243.751
X12.15 Y-243.612
X12.197 Y-243.47
X12.233 Y-243.324
X12.258 Y-243.177
X12.271 Y-243.027
X12.273 Y-242.877
X12.264 Y-242.727
X12.243 Y-242.579
X12.21 Y-242.432
X12.167 Y-242.289
X12.112 Y-242.149
X12.047 Y-242.014
X11.972 Y-241.884
X11.887 Y-241.761
X11.792 Y-241.644
X11.689 Y-241.535
X11.578 Y-241.434
X11.46 Y-241.342
X11.335 Y-241.26
X11.204 Y-241.186
X11.067 Y-241.124
X10.927 Y-241.071
X10.783 Y-241.029
X10.636 Y-240.999
X10.487 Y-240.979
X10.338 Y-240.971
X10.188 Y-240.974
X10.038 Y-240.989
X9.89 Y-241.014
X9.745 Y-241.051
X9.603 Y-241.098
X9.464 Y-241.157
X9.331 Y-241.225
X9.203 Y-241.303
X9.082 Y-241.391
X8.967 Y-241.488
X8.86 Y-241.594
X8.762 Y-241.707
X8.672 Y-241.827
X8.592 Y-241.954
X8.521 Y-242.086
X8.461 Y-242.223
X8.411 Y-242.365
X8.372 Y-242.51
X8.344 Y-242.657
X8.327 Y-242.806
X8.321 Y-242.956
X8.327 Y-243.106
X8.343 Y-243.255
X8.371 Y-243.402
X8.409 Y-243.547
X8.458 Y-243.689
X8.518 Y-243.827
X8.587 Y-243.96
X8.666 Y-244.087
X8.755 Y-244.208
X8.852 Y-244.322
X8.957 Y-244.429
X9.071 Y-244.528
X9.191 Y-244.617
X9.318 Y-244.698
X9.45 Y-244.768
X9.587 Y-244.829
X9.729 Y-244.879
X9.873 Y-244.918
X10.021 Y-244.946
X10.17 Y-244.963
X10.32 Y-244.969
X10.469 Y-244.964
X10.619 Y-244.948
X10.766 Y-244.92
X10.911 Y-244.882
X11.053 Y-244.833
X11.191 Y-244.774
X11.324 Y-244.704
X11.451 Y-244.625
X11.573 Y-244.537
X11.687 Y-244.441
X11.795 Y-244.336
X11.894 Y-244.223
X11.985 Y-244.104
X12.067 Y-243.979
X12.139 Y-243.847
X12.202 Y-243.711
X12.254 Y-243.57
X12.296 Y-243.426
X12.328 Y-243.28
X12.348 Y-243.131
X12.358 Y-242.981
X12.356 Y-242.831
X12.343 Y-242.682
X12.32 Y-242.534
X12.285 Y-242.388
X12.24 Y-242.245
X12.184 Y-242.106
X12.118 Y-241.971
X12.043 Y-241.841
X11.958 Y-241.717
X11.864 Y-241.6
X11.762 Y-241.49
X11.652 Y-241.388
X11.535 Y-241.294
X11.412 Y-241.209
X11.283 Y-241.133
X11.148 Y-241.067
X11.009 Y-241.01
X10.866 Y-240.964
X10.721 Y-240.929
X10.573 Y-240.904
X10.423 Y-240.889
X10.273 Y-240.886
X10.124 Y-240.894
X9.975 Y-240.912
X9.828 Y-240.941
X9.683 Y-240.981
X9.542 Y-241.031
X9.404 Y-241.092
X9.272 Y-241.162
X9.145 Y-241.242
X9.024 Y-241.33
X8.91 Y-241.428
X8.803 Y-241.533
X8.704 Y-241.646
X8.613 Y-241.765
X8.532 Y-241.891
X8.459 Y-242.022
X8.397 Y-242.159
X8.344 Y-242.299
X8.302 Y-242.443
X8.27 Y-242.59
X8.248 Y-242.738
X8.238 Y-242.888
Y-243.038
X8.249 Y-243.187
X8.27 Y-243.336
X8.302 Y-243.482
X8.345 Y-243.626
X8.398 Y-243.767
X8.46 Y-243.903
X8.532 Y-244.034
X8.614 Y-244.16
X8.704 Y-244.28
X8.803 Y-244.393
X8.909 Y-244.499
X9.023 Y-244.597
X9.143 Y-244.686
X9.27 Y-244.767
X9.402 Y-244.838
X9.539 Y-244.899
X9.679 Y-244.951
X9.824 Y-244.992
X9.97 Y-245.023
X10.119 Y-245.043
X10.269 Y-245.053
X10.419 Y-245.052
X10.568 Y-245.04
X10.717 Y-245.017
X10.863 Y-244.984
X11.006 Y-244.94
X11.146 Y-244.887
X11.282 Y-244.823
X11.414 Y-244.751
X11.539 Y-244.669
X11.659 Y-244.578
X11.771 Y-244.479
X11.877 Y-244.372
X11.975 Y-244.259
X12.064 Y-244.138
X12.145 Y-244.012
X12.217 Y-243.88
X12.28 Y-243.744
X12.332 Y-243.604
X12.375 Y-243.46
X12.407 Y-243.313
X12.429 Y-243.165
X12.441 Y-243.015
X12.442 Y-242.865
X12.432 Y-242.716
X12.412 Y-242.567
X12.381 Y-242.42
X12.34 Y-242.276
X12.289 Y-242.135
X12.228 Y-241.998
X12.157 Y-241.866
X12.078 Y-241.739
X11.989 Y-241.617
X11.892 Y-241.503
X11.787 Y-241.395
X11.675 Y-241.296
X11.557 Y-241.204
X11.432 Y-241.121
X11.301 Y-241.047
X11.166 Y-240.982
X11.027 Y-240.927
X10.884 Y-240.881
X10.738 Y-240.846
X10.59 Y-240.821
X10.441 Y-240.806
X10.291 Y-240.801
X10.141 Y-240.808
X9.992 Y-240.824
X9.844 Y-240.851
X9.699 Y-240.888
X9.557 Y-240.935
X9.418 Y-240.992
X9.283 Y-241.058
X9.154 Y-241.134
X9.03 Y-241.218
X8.912 Y-241.311
X8.801 Y-241.412
X8.698 Y-241.521
X8.602 Y-241.636
X8.514 Y-241.758
X8.436 Y-241.886
X8.366 Y-242.018
X8.306 Y-242.156
X8.255 Y-242.297
X8.214 Y-242.441
X8.183 Y-242.588
X8.163 Y-242.737
X8.153 Y-242.886
Y-243.036
X8.163 Y-243.186
X8.184 Y-243.335
X8.215 Y-243.481
X8.255 Y-243.626
X8.306 Y-243.767
X8.366 Y-243.904
X8.436 Y-244.037
X8.514 Y-244.165
X8.601 Y-244.287
X8.696 Y-244.403
X8.799 Y-244.512
X8.909 Y-244.614
X9.026 Y-244.708
X9.149 Y-244.794
X9.278 Y-244.87
X9.412 Y-244.938
X9.55 Y-244.997
X9.692 Y-245.045
X9.837 Y-245.084
X9.984 Y-245.112
X10.133 Y-245.131
X10.283 Y-245.139
X10.433 Y-245.136
X10.583 Y-245.124
X10.731 Y-245.101
X10.877 Y-245.068
X11.021 Y-245.025
X11.161 Y-244.973
X11.298 Y-244.911
X11.43 Y-244.84
X11.557 Y-244.76
X11.678 Y-244.671
X11.793 Y-244.575
X11.901 Y-244.471
X12.002 Y-244.36
X12.096 Y-244.243
X12.181 Y-244.119
X12.257 Y-243.99
X12.325 Y-243.856
X12.383 Y-243.718
X12.432 Y-243.576
X12.471 Y-243.431
X12.5 Y-243.284
X12.519 Y-243.135
X12.528 Y-242.986
X12.527 Y-242.836
X12.515 Y-242.686
X12.494 Y-242.538
X12.462 Y-242.391
X12.42 Y-242.247
X12.369 Y-242.106
X12.308 Y-241.969
X12.238 Y-241.836
X12.16 Y-241.708
X12.073 Y-241.586
X11.977 Y-241.47
X11.874 Y-241.361
X11.764 Y-241.259
X11.648 Y-241.165
X11.525 Y-241.079
X11.397 Y-241.001
X11.264 Y-240.932
X11.126 Y-240.872
X10.985 Y-240.821
X10.841 Y-240.78
X10.694 Y-240.749
X10.545 Y-240.728
X10.396 Y-240.717
X10.246 Y-240.716
X10.096 Y-240.724
X9.947 Y-240.743
X9.8 Y-240.772
X9.655 Y-240.811
X9.513 Y-240.859
X9.375 Y-240.917
X9.241 Y-240.984
X9.111 Y-241.06
X8.987 Y-241.144
X8.869 Y-241.236
X8.757 Y-241.336
X8.652 Y-241.444
X8.555 Y-241.558
X8.465 Y-241.678
X8.384 Y-241.804
X8.311 Y-241.935
X8.248 Y-242.071
X8.193 Y-242.211
X8.148 Y-242.354
X8.112 Y-242.5
X8.087 Y-242.647
X8.071 Y-242.796
X8.065 Y-242.946
X8.069 Y-243.096
X8.083 Y-243.246
X8.106 Y-243.394
X8.14 Y-243.54
X8.183 Y-243.684
X8.236 Y-243.824
X8.297 Y-243.961
X8.368 Y-244.093
X8.447 Y-244.221
X8.535 Y-244.342
X8.63 Y-244.458
X8.733 Y-244.568
X8.842 Y-244.67
X8.959 Y-244.764
X9.081 Y-244.851
X9.209 Y-244.93
X9.342 Y-245.
X9.479 Y-245.06
X9.62 Y-245.112
X9.764 Y-245.154
X9.91 Y-245.187
X10.058 Y-245.21
X10.208 Y-245.222
X10.358 Y-245.225
X10.508 Y-245.218
X10.657 Y-245.202
X10.804 Y-245.175
X10.95 Y-245.138
X11.093 Y-245.093
X11.232 Y-245.037
X11.368 Y-244.973
X11.499 Y-244.9
X11.625 Y-244.819
X11.745 Y-244.729
X11.859 Y-244.632
X11.967 Y-244.528
X12.068 Y-244.417
X12.161 Y-244.299
X12.247 Y-244.176
X12.324 Y-244.047
X12.393 Y-243.914
X12.453 Y-243.777
X12.503 Y-243.635
X12.545 Y-243.491
X12.577 Y-243.345
X12.599 Y-243.196
X12.612 Y-243.047
X12.615 Y-242.897
X12.608 Y-242.747
X12.591 Y-242.598
X12.565 Y-242.45
X12.529 Y-242.305
X12.483 Y-242.162
X12.429 Y-242.022
X12.365 Y-241.886
X12.292 Y-241.755
X12.211 Y-241.629
X12.122 Y-241.508
X12.025 Y-241.394
X11.921 Y-241.286
X11.811 Y-241.184
X11.693 Y-241.091
X11.571 Y-241.005
X11.442 Y-240.927
X11.309 Y-240.858
X11.172 Y-240.797
X11.031 Y-240.746
X10.887 Y-240.703
X10.741 Y-240.67
X10.593 Y-240.647
X10.443 Y-240.633
X10.294 Y-240.628
X10.144 Y-240.634
X9.994 Y-240.649
X9.846 Y-240.673
X9.7 Y-240.708
X9.557 Y-240.751
X9.416 Y-240.804
X9.28 Y-240.865
X9.147 Y-240.936
X9.02 Y-241.015
X8.897 Y-241.101
X8.781 Y-241.196
X8.671 Y-241.298
X8.568 Y-241.407
X8.472 Y-241.522
X8.383 Y-241.643
X8.303 Y-241.77
X8.231 Y-241.902
X8.168 Y-242.038
X8.113 Y-242.177
X8.067 Y-242.32
X8.031 Y-242.466
X8.004 Y-242.613
X7.987 Y-242.762
X7.979 Y-242.912
X7.98 Y-243.062
X7.991 Y-243.212
X8.012 Y-243.36
X8.042 Y-243.507
X8.082 Y-243.652
X8.13 Y-243.794
X8.187 Y-243.932
X8.254 Y-244.067
X8.328 Y-244.197
X8.411 Y-244.322
X8.501 Y-244.442
X8.599 Y-244.555
X8.704 Y-244.663
X8.816 Y-244.763
X8.934 Y-244.855
X9.058 Y-244.941
X9.186 Y-245.017
X9.32 Y-245.086
X9.457 Y-245.146
X9.598 Y-245.197
X9.742 Y-245.239
X9.889 Y-245.271
X10.037 Y-245.294
X10.186 Y-245.308
X10.336 Y-245.312
X10.486 Y-245.307
X10.636 Y-245.292
X10.784 Y-245.268
X10.93 Y-245.234
X11.073 Y-245.191
X11.214 Y-245.139
X11.351 Y-245.078
X11.484 Y-245.009
X11.613 Y-244.932
X11.736 Y-244.846
X11.854 Y-244.753
X11.966 Y-244.653
X12.071 Y-244.546
X12.169 Y-244.433
X12.26 Y-244.313
X12.343 Y-244.189
X12.418 Y-244.059
X12.485 Y-243.924
X12.543 Y-243.786
X12.593 Y-243.645
X12.633 Y-243.5
X12.664 Y-243.353
X12.686 Y-243.205
X12.699 Y-243.056
X12.702 Y-242.906
X12.696 Y-242.756
X12.68 Y-242.607
X12.655 Y-242.459
X12.621 Y-242.313
X12.578 Y-242.169
X12.525 Y-242.028
X12.464 Y-241.891
X12.395 Y-241.759
X12.317 Y-241.63
X12.231 Y-241.507
X12.138 Y-241.39
X12.038 Y-241.278
X11.93 Y-241.173
X11.817 Y-241.075
X11.697 Y-240.985
X11.573 Y-240.902
X11.443 Y-240.827
X11.308 Y-240.76
X11.17 Y-240.702
X11.029 Y-240.652
X10.884 Y-240.611
X10.737 Y-240.58
X10.589 Y-240.557
X10.44 Y-240.544
X10.29 Y-240.541
X10.14 Y-240.546
X9.991 Y-240.561
X9.843 Y-240.585
X9.696 Y-240.618
X9.552 Y-240.661
X9.411 Y-240.712
X9.274 Y-240.772
X9.14 Y-240.84
X9.011 Y-240.916
X8.887 Y-241.
X8.768 Y-241.092
X8.656 Y-241.191
X8.549 Y-241.297
X8.45 Y-241.409
X8.358 Y-241.528
X8.273 Y-241.651
X8.196 Y-241.78
X8.127 Y-241.913
X8.066 Y-242.051
X8.015 Y-242.191
X7.972 Y-242.335
X7.937 Y-242.481
X7.912 Y-242.629
X7.897 Y-242.778
X7.89 Y-242.928
X7.893 Y-243.078
X7.905 Y-243.227
X7.926 Y-243.376
X7.956 Y-243.523
X7.995 Y-243.668
X8.042 Y-243.81
X8.099 Y-243.949
X8.164 Y-244.084
X8.237 Y-244.215
X8.318 Y-244.342
X8.406 Y-244.463
X8.502 Y-244.578
X8.605 Y-244.687
X8.714 Y-244.79
X8.829 Y-244.886
X8.95 Y-244.975
X9.077 Y-245.056
X9.208 Y-245.129
X9.343 Y-245.193
X9.482 Y-245.25
X9.624 Y-245.297
X9.769 Y-245.336
X9.916 Y-245.366
X10.065 Y-245.387
X10.214 Y-245.398
X10.364 Y-245.4
X10.514 Y-245.393
X10.663 Y-245.377
X10.811 Y-245.352
X10.957 Y-245.318
X11.101 Y-245.275
X11.241 Y-245.223
X11.379 Y-245.163
X11.512 Y-245.094
X11.641 Y-245.018
X11.766 Y-244.934
X11.884 Y-244.842
X11.998 Y-244.744
X12.104 Y-244.638
X12.205 Y-244.527
X12.298 Y-244.41
X12.384 Y-244.287
X12.463 Y-244.159
X12.534 Y-244.027
X12.596 Y-243.89
X12.65 Y-243.751
X12.696 Y-243.608
X12.733 Y-243.462
X12.761 Y-243.315
X12.78 Y-243.166
X12.79 Y-243.016
Y-242.866
X12.782 Y-242.717
X12.764 Y-242.568
X12.738 Y-242.42
X12.703 Y-242.274
X12.658 Y-242.131
X12.605 Y-241.991
X12.544 Y-241.854
X12.475 Y-241.721
X12.397 Y-241.592
X12.312 Y-241.469
X12.22 Y-241.35
X12.121 Y-241.238
X12.015 Y-241.132
X11.903 Y-241.032
X11.785 Y-240.939
X11.661 Y-240.854
X11.533 Y-240.776
X11.401 Y-240.706
X11.264 Y-240.644
X11.124 Y-240.591
X10.981 Y-240.546
X10.835 Y-240.509
X10.688 Y-240.482
X10.539 Y-240.463
X10.389 Y-240.453
X10.239 Y-240.452
X10.09 Y-240.461
X9.941 Y-240.478
X9.793 Y-240.504
X9.647 Y-240.539
X9.504 Y-240.583
X9.363 Y-240.635
X9.226 Y-240.696
X9.092 Y-240.765
X8.964 Y-240.841
X8.839 Y-240.926
X8.721 Y-241.017
X8.607 Y-241.116
X8.5 Y-241.221
X8.4 Y-241.332
X8.306 Y-241.449
X8.219 Y-241.572
X8.14 Y-241.699
X8.069 Y-241.831
X8.006 Y-241.967
X7.951 Y-242.107
X7.904 Y-242.249
X7.866 Y-242.394
X7.836 Y-242.541
X7.816 Y-242.69
X7.804 Y-242.839
X7.801 Y-242.989
X7.807 Y-243.139
X7.822 Y-243.288
X7.846 Y-243.437
X7.878 Y-243.583
X7.919 Y-243.727
X7.969 Y-243.869
X8.027 Y-244.007
X8.093 Y-244.142
X8.167 Y-244.272
X8.249 Y-244.398
X8.337 Y-244.519
X8.433 Y-244.634
X8.536 Y-244.744
X8.645 Y-244.847
X8.759 Y-244.944
X8.88 Y-245.033
X9.005 Y-245.116
X9.135 Y-245.19
X9.27 Y-245.257
X9.408 Y-245.316
X9.549 Y-245.366
X9.693 Y-245.408
X9.839 Y-245.442
X9.987 Y-245.466
X10.136 Y-245.482
X10.286 Y-245.489
X10.436 Y-245.487
X10.586 Y-245.476
X10.734 Y-245.457
X10.882 Y-245.428
X11.027 Y-245.391
X11.17 Y-245.346
X11.31 Y-245.292
X11.446 Y-245.23
X11.579 Y-245.16
X11.707 Y-245.082
X11.831 Y-244.997
X11.949 Y-244.905
X12.062 Y-244.806
X12.169 Y-244.7
X12.269 Y-244.589
X12.363 Y-244.472
X12.45 Y-244.349
X12.529 Y-244.222
X12.601 Y-244.091
X12.665 Y-243.955
X12.721 Y-243.816
X12.769 Y-243.674
X12.808 Y-243.529
X12.839 Y-243.382
X12.862 Y-243.234
X12.875 Y-243.084
X12.88 Y-242.934
X12.876 Y-242.785
X12.863 Y-242.635
X12.842 Y-242.487
X12.811 Y-242.34
X12.773 Y-242.195
X12.725 Y-242.052
X12.67 Y-241.913
X12.606 Y-241.777
X12.535 Y-241.645
X12.456 Y-241.518
X12.369 Y-241.395
X12.276 Y-241.278
X12.176 Y-241.166
X12.069 Y-241.06
X11.957 Y-240.961
X11.839 Y-240.869
X11.716 Y-240.783
X11.588 Y-240.705
X11.456 Y-240.634
X11.319 Y-240.571
X11.18 Y-240.516
X11.037 Y-240.469
X10.892 Y-240.431
X10.745 Y-240.401
X10.597 Y-240.38
X10.447 Y-240.367
X10.297 Y-240.363
X10.148 Y-240.367
X9.998 Y-240.381
X9.85 Y-240.403
X9.703 Y-240.433
X9.558 Y-240.472
X9.416 Y-240.519
X9.276 Y-240.575
X9.14 Y-240.638
X9.008 Y-240.709
X8.881 Y-240.788
X8.758 Y-240.874
X8.64 Y-240.967
X8.528 Y-241.067
X8.422 Y-241.173
X8.322 Y-241.285
X8.229 Y-241.402
X8.143 Y-241.525
X8.064 Y-241.653
X7.992 Y-241.785
X7.929 Y-241.92
X7.873 Y-242.06
X7.825 Y-242.202
X7.785 Y-242.346
X7.754 Y-242.493
X7.732 Y-242.641
X7.717 Y-242.791
X7.712 Y-242.941
X7.715 Y-243.091
X7.727 Y-243.24
X7.747 Y-243.389
X7.775 Y-243.536
X7.812 Y-243.681
X7.858 Y-243.824
X7.911 Y-243.965
X7.972 Y-244.102
X8.041 Y-244.235
X8.118 Y-244.364
X8.202 Y-244.488
X8.293 Y-244.607
X8.39 Y-244.721
X8.494 Y-244.83
X8.604 Y-244.932
X8.72 Y-245.027
X8.841 Y-245.116
X8.967 Y-245.197
X9.097 Y-245.272
X9.231 Y-245.338
X9.369 Y-245.397
X9.51 Y-245.448
X9.654 Y-245.491
X9.8 Y-245.525
X9.948 Y-245.551
X10.097 Y-245.568
X10.247 Y-245.577
X10.397 Y-245.578
X10.546 Y-245.57
X10.696 Y-245.553
X10.843 Y-245.528
X10.99 Y-245.494
X11.134 Y-245.452
X11.275 Y-245.402
X11.413 Y-245.344
X11.548 Y-245.278
X11.679 Y-245.205
X11.806 Y-245.125
X11.927 Y-245.037
X12.044 Y-244.943
X12.155 Y-244.842
X12.26 Y-244.735
X12.359 Y-244.622
X12.452 Y-244.504
X12.537 Y-244.381
X12.616 Y-244.253
X12.687 Y-244.121
X12.75 Y-243.985
X12.806 Y-243.846
X12.854 Y-243.704
X12.894 Y-243.559
X12.925 Y-243.412
X12.948 Y-243.264
X12.963 Y-243.115
X12.969 Y-242.965
X12.967 Y-242.815
X12.956 Y-242.665
X12.937 Y-242.517
X12.91 Y-242.369
X12.874 Y-242.223
X12.83 Y-242.08
X12.778 Y-241.939
X12.718 Y-241.802
X12.65 Y-241.668
X12.575 Y-241.538
X12.493 Y-241.413
X12.404 Y-241.292
X12.308 Y-241.177
X12.206 Y-241.067
X12.097 Y-240.963
X11.983 Y-240.866
X11.864 Y-240.775
X11.74 Y-240.691
X11.611 Y-240.614
X11.478 Y-240.544
X11.341 Y-240.482
X11.202 Y-240.428
X11.059 Y-240.382
X10.914 Y-240.343
X10.767 Y-240.313
X10.619 Y-240.292
X10.469 Y-240.278
X10.319 Y-240.273
X10.169 Y-240.276
X10.02 Y-240.288
X9.871 Y-240.308
X9.724 Y-240.336
X9.578 Y-240.373
X9.435 Y-240.417
X9.295 Y-240.47
X9.157 Y-240.53
X9.023 Y-240.598
X8.894 Y-240.673
X8.768 Y-240.756
X8.648 Y-240.845
X8.533 Y-240.941
X8.423 Y-241.043
X8.319 Y-241.151
X8.221 Y-241.265
X8.13 Y-241.384
X8.046 Y-241.508
X7.968 Y-241.637
X7.898 Y-241.77
X7.836 Y-241.906
X7.781 Y-242.046
X7.734 Y-242.188
X7.695 Y-242.333
X7.665 Y-242.48
X7.642 Y-242.628
X7.628 Y-242.777
X7.622 Y-242.927
X7.624 Y-243.077
X7.635 Y-243.227
X7.653 Y-243.376
X7.68 Y-243.523
X7.716 Y-243.669
X7.759 Y-243.813
X7.81 Y-243.954
X7.868 Y-244.092
X7.935 Y-244.226
X8.008 Y-244.357
X8.089 Y-244.484
X8.177 Y-244.605
X8.271 Y-244.722
X8.371 Y-244.833
X8.478 Y-244.939
X8.59 Y-245.038
X8.708 Y-245.132
X8.83 Y-245.218
X8.958 Y-245.298
X9.089 Y-245.37
X9.224 Y-245.435
X9.363 Y-245.492
X9.504 Y-245.541
X9.649 Y-245.583
X9.795 Y-245.617
X9.943 Y-245.642
X10.092 Y-245.659
X10.241 Y-245.668
X10.391
X10.541 Y-245.661
X10.69 Y-245.645
X10.838 Y-245.62
X10.985 Y-245.588
X11.129 Y-245.548
X11.271 Y-245.5
X11.411 Y-245.444
X11.547 Y-245.38
X11.679 Y-245.31
X11.807 Y-245.232
X11.931 Y-245.147
X12.05 Y-245.055
X12.163 Y-244.958
X12.271 Y-244.854
X12.374 Y-244.744
X12.47 Y-244.629
X12.56 Y-244.509
X12.643 Y-244.384
X12.719 Y-244.255
X12.788 Y-244.121
X12.849 Y-243.985
X12.903 Y-243.845
X12.95 Y-243.702
X12.988 Y-243.557
X13.018 Y-243.41
X13.04 Y-243.262
X13.054 Y-243.112
X13.06 Y-242.962
X13.058 Y-242.812
X13.047 Y-242.663
X13.028 Y-242.514
X13.002 Y-242.366
X12.967 Y-242.221
X12.924 Y-242.077
X12.873 Y-241.936
X12.815 Y-241.797
X12.749 Y-241.662
X12.676 Y-241.531
X12.597 Y-241.404
X12.51 Y-241.282
X12.416 Y-241.165
X12.317 Y-241.053
X12.211 Y-240.946
X12.1 Y-240.845
X11.983 Y-240.751
X11.862 Y-240.663
X11.736 Y-240.582
X11.606 Y-240.507
X11.471 Y-240.44
X11.334 Y-240.381
X11.193 Y-240.328
X11.05 Y-240.284
X10.904 Y-240.248
X10.757 Y-240.219
X10.609 Y-240.198
X10.459 Y-240.186
X10.309 Y-240.182
X10.159 Y-240.185
X10.01 Y-240.197
X9.861 Y-240.217
X9.714 Y-240.245
X9.568 Y-240.281
X9.425 Y-240.325
X9.284 Y-240.377
X9.146 Y-240.436
X9.011 Y-240.502
X8.88 Y-240.575
X8.754 Y-240.656
X8.632 Y-240.743
X8.515 Y-240.837
X8.403 Y-240.937
X8.297 Y-241.043
X8.196 Y-241.154
X8.102 Y-241.271
X8.014 Y-241.392
X7.933 Y-241.518
X7.858 Y-241.649
X7.791 Y-241.783
X7.732 Y-241.92
X7.679 Y-242.061
X7.635 Y-242.204
X7.598 Y-242.35
X7.569 Y-242.497
X7.548 Y-242.645
X7.535 Y-242.795
X7.53 Y-242.945
X7.533 Y-243.095
X7.544 Y-243.244
X7.564 Y-243.393
X7.591 Y-243.541
X7.626 Y-243.686
X7.668 Y-243.83
X7.719 Y-243.971
X7.777 Y-244.11
X7.842 Y-244.245
X7.914 Y-244.376
X7.993 Y-244.504
X8.079 Y-244.627
X8.172 Y-244.745
X8.27 Y-244.858
X8.375 Y-244.966
X8.485 Y-245.068
X8.6 Y-245.163
X8.721 Y-245.253
X8.846 Y-245.336
X8.975 Y-245.412
X9.108 Y-245.481
X9.245 Y-245.543
X9.385 Y-245.597
X9.527 Y-245.644
X9.672 Y-245.683
X9.819 Y-245.714
X9.967 Y-245.737
X10.116 Y-245.753
X10.266 Y-245.76
X10.416 Y-245.759
X10.566 Y-245.75
X10.715 Y-245.734
X10.863 Y-245.709
X11.009 Y-245.676
X11.153 Y-245.636
X11.296 Y-245.588
X11.435 Y-245.533
X11.571 Y-245.47
X11.704 Y-245.4
X11.833 Y-245.323
X11.957 Y-245.24
X12.077 Y-245.15
X12.192 Y-245.054
X12.302 Y-244.951
X12.407 Y-244.844
X12.505 Y-244.73
X12.597 Y-244.612
X12.683 Y-244.489
X12.763 Y-244.362
X12.835 Y-244.231
X12.9 Y-244.096
X12.959 Y-243.957
X13.009 Y-243.816
X13.053 Y-243.673
X13.088 Y-243.527
X13.116 Y-243.379
X13.136 Y-243.231
X13.148 Y-243.081
X13.152 Y-242.931
X13.148 Y-242.781
X13.136 Y-242.632
X13.117 Y-242.483
X13.089 Y-242.336
X13.053 Y-242.19
X13.01 Y-242.046
X12.96 Y-241.905
X12.902 Y-241.767
X12.836 Y-241.632
X12.764 Y-241.5
X12.685 Y-241.373
X12.599 Y-241.25
X12.507 Y-241.131
X12.409 Y-241.018
X12.305 Y-240.91
X12.195 Y-240.808
X12.08 Y-240.711
X11.961 Y-240.621
X11.836 Y-240.537
X11.708 Y-240.46
X11.575 Y-240.389
X11.439 Y-240.326
X11.3 Y-240.27
X11.158 Y-240.221
X11.014 Y-240.18
X10.868 Y-240.146
X10.72 Y-240.121
X10.571 Y-240.102
X10.422 Y-240.092
X10.272 Y-240.09
X10.122 Y-240.096
X9.972 Y-240.109
X9.824 Y-240.13
X9.677 Y-240.159
X9.531 Y-240.196
X9.388 Y-240.24
X9.247 Y-240.292
X9.109 Y-240.351
X8.975 Y-240.417
X8.844 Y-240.491
X8.717 Y-240.571
X8.594 Y-240.657
X8.476 Y-240.75
X8.364 Y-240.849
X8.256 Y-240.953
X8.154 Y-241.063
X8.058 Y-241.178
X7.968 Y-241.298
X7.885 Y-241.423
X7.808 Y-241.552
X7.738 Y-241.684
X7.674 Y-241.821
X7.619 Y-241.96
X7.57 Y-242.102
X7.529 Y-242.246
X7.495 Y-242.392
X7.469 Y-242.54
X7.451 Y-242.689
X7.441 Y-242.838
X7.438 Y-242.988
X7.443 Y-243.138
X7.456 Y-243.288
X7.477 Y-243.436
X7.506 Y-243.584
X7.542 Y-243.729
X7.585 Y-243.873
X7.636 Y-244.014
X7.695 Y-244.152
X7.76 Y-244.287
X7.832 Y-244.418
X7.911 Y-244.546
X7.997 Y-244.669
X8.088 Y-244.788
X8.186 Y-244.902
X8.29 Y-245.01
X8.399 Y-245.113
X8.513 Y-245.211
X8.632 Y-245.302
X8.756 Y-245.387
X8.883 Y-245.465
X9.015 Y-245.537
X9.151 Y-245.601
X9.289 Y-245.659
X9.43 Y-245.709
X9.574 Y-245.752
X9.72 Y-245.788
X9.867 Y-245.815
X10.016 Y-245.835
X10.165 Y-245.848
X10.315 Y-245.852
X10.465 Y-245.849
X10.615 Y-245.838
X10.764 Y-245.82
X10.911 Y-245.793
X11.058 Y-245.759
X11.202 Y-245.718
X11.343 Y-245.669
X11.483 Y-245.613
X11.619 Y-245.55
X11.751 Y-245.48
X11.88 Y-245.403
X12.005 Y-245.319
X12.125 Y-245.23
X12.241 Y-245.134
X12.351 Y-245.032
X12.456 Y-244.925
X12.556 Y-244.813
X12.649 Y-244.696
X12.737 Y-244.574
X12.818 Y-244.448
X12.893 Y-244.318
X12.96 Y-244.184
X13.021 Y-244.047
X13.075 Y-243.907
X13.122 Y-243.764
X13.161 Y-243.62
X13.193 Y-243.473
X13.217 Y-243.325
X13.233 Y-243.176
X13.242 Y-243.026
X13.243 Y-242.876
X13.237 Y-242.726
X13.223 Y-242.577
X13.201 Y-242.429
X13.171 Y-242.282
X13.134 Y-242.136
X13.09 Y-241.993
X13.038 Y-241.852
X12.979 Y-241.714
X12.914 Y-241.579
X12.841 Y-241.448
X12.762 Y-241.321
X12.676 Y-241.198
X12.584 Y-241.079
X12.486 Y-240.966
X12.382 Y-240.857
X12.273 Y-240.754
X12.159 Y-240.657
X12.041 Y-240.565
X11.917 Y-240.48
X11.79 Y-240.401
X11.658 Y-240.328
X11.523 Y-240.263
X11.385 Y-240.204
X11.244 Y-240.153
X11.101 Y-240.108
X10.956 Y-240.071
X10.809 Y-240.042
X10.66 Y-240.02
X10.511 Y-240.005
X10.361 Y-239.998
X10.211 Y-239.999
X10.061 Y-240.008
X9.912 Y-240.024
X9.764 Y-240.047
X9.617 Y-240.078
X9.472 Y-240.117
X9.33 Y-240.163
X9.189 Y-240.216
X9.052 Y-240.276
X8.918 Y-240.343
X8.787 Y-240.417
X8.66 Y-240.497
X8.538 Y-240.583
X8.42 Y-240.676
X8.307 Y-240.775
X8.199 Y-240.879
X8.097 Y-240.989
X8. Y-241.103
X7.909 Y-241.223
X7.824 Y-241.346
X7.746 Y-241.474
X7.674 Y-241.606
X7.609 Y-241.741
X7.551 Y-241.879
X7.5 Y-242.02
X7.456 Y-242.164
X7.419 Y-242.309
X7.39 Y-242.456
X7.368 Y-242.605
X7.354 Y-242.754
X7.347 Y-242.904
Y-243.054
X7.356 Y-243.204
X7.371 Y-243.353
X7.395 Y-243.501
X7.425 Y-243.648
X7.464 Y-243.793
X7.509 Y-243.936
X7.561 Y-244.076
X7.621 Y-244.214
X7.687 Y-244.349
X7.76 Y-244.48
X7.84 Y-244.607
X7.926 Y-244.73
X8.018 Y-244.848
X8.115 Y-244.962
X8.219 Y-245.071
X8.328 Y-245.174
X8.441 Y-245.272
X8.56 Y-245.364
X8.683 Y-245.45
X8.81 Y-245.529
X8.941 Y-245.602
X9.076 Y-245.669
X9.213 Y-245.728
X9.354 Y-245.781
X9.497 Y-245.826
X9.642 Y-245.864
X9.789 Y-245.895
X9.937 Y-245.919
X10.086 Y-245.935
X10.236 Y-245.943
X10.386 Y-245.944
X10.535 Y-245.938
X10.685 Y-245.923
X10.833 Y-245.902
X10.98 Y-245.873
X11.126 Y-245.837
X11.27 Y-245.793
X11.411 Y-245.743
X11.549 Y-245.685
X11.685 Y-245.621
X11.817 Y-245.549
X11.945 Y-245.472
X12.069 Y-245.388
X12.189 Y-245.298
X12.305 Y-245.202
X12.415 Y-245.1
X12.52 Y-244.993
X12.62 Y-244.881
X12.714 Y-244.764
X12.802 Y-244.643
X12.884 Y-244.517
X12.96 Y-244.388
X13.029 Y-244.255
X13.092 Y-244.118
X13.147 Y-243.979
X13.196 Y-243.837
X13.238 Y-243.693
X13.272 Y-243.547
X13.299 Y-243.4
X13.319 Y-243.251
X13.331 Y-243.101
X13.336 Y-242.952
X13.334 Y-242.802
X13.324 Y-242.652
X13.306 Y-242.503
X13.281 Y-242.355
X13.249 Y-242.208
X13.21 Y-242.064
X13.163 Y-241.921
X13.11 Y-241.781
X13.049 Y-241.644
X12.982 Y-241.51
X12.908 Y-241.379
X12.828 Y-241.252
X12.741 Y-241.13
X12.649 Y-241.012
X12.551 Y-240.898
X12.447 Y-240.79
X12.338 Y-240.687
X12.224 Y-240.589
X12.106 Y-240.497
X11.983 Y-240.411
X11.856 Y-240.332
X11.725 Y-240.258
X11.59 Y-240.192
X11.453 Y-240.132
X11.313 Y-240.078
X11.17 Y-240.032
X11.025 Y-239.993
X10.879 Y-239.961
X10.731 Y-239.936
X10.582 Y-239.918
X10.432 Y-239.908
X10.282 Y-239.905
X10.132 Y-239.91
X9.983 Y-239.922
X9.834 Y-239.941
X9.686 Y-239.968
X9.54 Y-240.002
X9.396 Y-240.043
X9.254 Y-240.091
X9.114 Y-240.146
X8.978 Y-240.208
X8.844 Y-240.276
X8.714 Y-240.352
X8.588 Y-240.433
X8.467 Y-240.52
X8.349 Y-240.614
X8.237 Y-240.713
X8.129 Y-240.817
X8.027 Y-240.927
X7.93 Y-241.042
X7.839 Y-241.161
X7.754 Y-241.284
X7.675 Y-241.412
X7.602 Y-241.543
X7.536 Y-241.678
X7.476 Y-241.815
X7.424 Y-241.956
X7.378 Y-242.099
X7.339 Y-242.244
X7.308 Y-242.39
X7.283 Y-242.538
X7.266 Y-242.687
X7.256 Y-242.837
X7.253 Y-242.987
X7.258 Y-243.137
X7.27 Y-243.286
X7.29 Y-243.435
X7.316 Y-243.583
X7.35 Y-243.729
X7.391 Y-243.873
X7.438 Y-244.015
X7.493 Y-244.155
X7.555 Y-244.292
X7.623 Y-244.426
X7.697 Y-244.556
X7.778 Y-244.682
X7.865 Y-244.804
X7.957 Y-244.922
X8.056 Y-245.036
X8.16 Y-245.144
X8.269 Y-245.247
X8.383 Y-245.344
X8.501 Y-245.436
X8.624 Y-245.522
X8.751 Y-245.602
X8.882 Y-245.676
X9.016 Y-245.743
X9.153 Y-245.804
X9.293 Y-245.858
X9.435 Y-245.905
X9.58 Y-245.945
X9.726 Y-245.978
X9.874 Y-246.003
X10.023 Y-246.022
X10.172 Y-246.033
X10.322 Y-246.037
X10.472 Y-246.034
X10.622 Y-246.023
X10.771 Y-246.006
X10.919 Y-245.981
X11.065 Y-245.949
X11.21 Y-245.909
X11.353 Y-245.863
X11.493 Y-245.81
X11.631 Y-245.75
X11.765 Y-245.684
X11.896 Y-245.611
X12.024 Y-245.532
X12.147 Y-245.447
X12.266 Y-245.356
X12.381 Y-245.259
X12.491 Y-245.157
X12.596 Y-245.05
X12.695 Y-244.937
X12.789 Y-244.82
X12.877 Y-244.699
X12.96 Y-244.574
X13.036 Y-244.444
X13.105 Y-244.312
X13.169 Y-244.176
X13.225 Y-244.037
X13.275 Y-243.895
X13.318 Y-243.752
X13.355 Y-243.606
X13.384 Y-243.459
X13.406 Y-243.31
X13.42 Y-243.161
X13.428 Y-243.011
Y-242.861
X13.422 Y-242.712
X13.408 Y-242.562
X13.386 Y-242.414
X13.358 Y-242.266
X13.323 Y-242.121
X13.28 Y-241.977
X13.231 Y-241.835
X13.175 Y-241.696
X13.112 Y-241.56
X13.043 Y-241.427
X12.967 Y-241.297
X12.886 Y-241.171
X12.798 Y-241.049
X12.705 Y-240.932
X12.606 Y-240.819
X12.501 Y-240.712
X12.392 Y-240.609
X12.278 Y-240.512
X12.159 Y-240.42
X12.036 Y-240.334
X11.909 Y-240.254
X11.778 Y-240.181
X11.644 Y-240.113
X11.507 Y-240.053
X11.367 Y-239.998
X11.225 Y-239.951
X11.081 Y-239.91
X10.934 Y-239.877
X10.787 Y-239.85
X10.638 Y-239.83
X10.489 Y-239.818
X10.339 Y-239.812
X10.189 Y-239.814
X10.039 Y-239.823
X9.89 Y-239.839
X9.742 Y-239.862
X9.595 Y-239.893
X9.449 Y-239.93
X9.306 Y-239.974
X9.165 Y-240.025
X9.027 Y-240.083
X8.891 Y-240.147
X8.759 Y-240.217
X8.63 Y-240.294
X8.505 Y-240.377
X8.384 Y-240.466
X8.267 Y-240.56
X8.155 Y-240.66
X8.048 Y-240.765
X7.947 Y-240.875
X7.85 Y-240.99
X7.759 Y-241.11
X7.674 Y-241.233
X7.595 Y-241.361
X7.523 Y-241.492
X7.456 Y-241.626
X7.396 Y-241.764
X7.342 Y-241.904
X7.296 Y-242.046
X7.256 Y-242.191
X7.223 Y-242.337
X7.196 Y-242.485
X7.177 Y-242.634
X7.165 Y-242.783
X7.16 Y-242.933
X7.162 Y-243.083
X7.171 Y-243.233
X7.188 Y-243.382
X7.211 Y-243.53
X7.241 Y-243.677
X7.278 Y-243.822
X7.322 Y-243.966
X7.373 Y-244.107
X7.43 Y-244.246
X7.494 Y-244.381
X7.564 Y-244.514
X7.641 Y-244.643
X7.723 Y-244.768
X7.812 Y-244.89
X7.906 Y-245.007
X8.005 Y-245.119
X8.11 Y-245.226
X8.219 Y-245.329
X8.334 Y-245.426
X8.452 Y-245.517
X8.575 Y-245.603
X8.702 Y-245.683
X8.833 Y-245.757
X8.967 Y-245.824
X9.104 Y-245.885
X9.244 Y-245.94
X9.386 Y-245.988
X9.53 Y-246.029
X9.676 Y-246.063
X9.824 Y-246.09
X9.972 Y-246.111
X10.122 Y-246.124
X10.272 Y-246.13
X10.422
X10.571 Y-246.122
X10.721 Y-246.107
X10.869 Y-246.085
X11.016 Y-246.056
X11.162 Y-246.02
X11.306 Y-245.978
X11.447 Y-245.928
X11.587 Y-245.872
X11.723 Y-245.81
X11.856 Y-245.741
X11.986 Y-245.666
X12.113 Y-245.586
X12.235 Y-245.499
X12.353 Y-245.406
X12.467 Y-245.309
X12.576 Y-245.206
X12.68 Y-245.097
X12.779 Y-244.985
X12.872 Y-244.867
X12.96 Y-244.746
X13.042 Y-244.62
X13.118 Y-244.491
X13.188 Y-244.358
X13.251 Y-244.222
X13.308 Y-244.083
X13.359 Y-243.942
X13.403 Y-243.799
X13.44 Y-243.653
X13.471 Y-243.507
X13.494 Y-243.358
X13.511 Y-243.209
X13.52 Y-243.06
X13.523 Y-242.91
X13.518 Y-242.76
X13.507 Y-242.61
X13.489 Y-242.461
X13.463 Y-242.313
X13.431 Y-242.167
X13.392 Y-242.022
X13.346 Y-241.879
X13.294 Y-241.739
X13.235 Y-241.601
X13.17 Y-241.466
X13.098 Y-241.334
X13.021 Y-241.205
X12.937 Y-241.081
X12.848 Y-240.96
X12.753 Y-240.844
X12.653 Y-240.732
X12.548 Y-240.625
X12.438 Y-240.524
X12.323 Y-240.427
X12.204 Y-240.336
X12.081 Y-240.25
X11.953 Y-240.171
X11.823 Y-240.097
X11.689 Y-240.03
X11.552 Y-239.969
X11.412 Y-239.914
X11.27 Y-239.866
X11.126 Y-239.825
X10.98 Y-239.79
X10.832 Y-239.762
X10.684 Y-239.741
X10.535 Y-239.727
X10.385 Y-239.719
X10.235
X10.085 Y-239.726
X9.936 Y-239.739
X9.787 Y-239.76
X9.64 Y-239.787
X9.493 Y-239.821
X9.349 Y-239.862
X9.207 Y-239.909
X9.067 Y-239.963
X8.93 Y-240.024
X8.795 Y-240.09
X8.664 Y-240.163
X8.537 Y-240.242
X8.413 Y-240.327
X8.293 Y-240.417
X8.178 Y-240.513
X8.067 Y-240.614
X7.961 Y-240.72
X7.86 Y-240.831
X7.764 Y-240.947
X7.674 Y-241.067
X7.589 Y-241.191
X7.511 Y-241.318
X7.438 Y-241.449
X7.371 Y-241.584
X7.311 Y-241.721
X7.257 Y-241.861
X7.21 Y-242.003
X7.169 Y-242.148
X7.135 Y-242.294
X7.108 Y-242.441
X7.087 Y-242.59
X7.073 Y-242.739
X7.067 Y-242.889
Y-243.039
X7.074 Y-243.189
X7.087 Y-243.338
X7.108 Y-243.487
X7.136 Y-243.634
X7.17 Y-243.781
X7.211 Y-243.925
X7.258 Y-244.067
X7.312 Y-244.207
X7.372 Y-244.344
X7.439 Y-244.479
X7.511 Y-244.61
X7.59 Y-244.738
X7.674 Y-244.862
X7.764 Y-244.982
X7.859 Y-245.098
X7.96 Y-245.209
X8.066 Y-245.316
X8.176 Y-245.417
X8.291 Y-245.513
X8.411 Y-245.604
X8.534 Y-245.689
X8.661 Y-245.769
X8.792 Y-245.842
X8.926 Y-245.91
X9.063 Y-245.971
X9.203 Y-246.026
X9.345 Y-246.074
X9.489 Y-246.116
X9.634 Y-246.151
X9.782 Y-246.179
X9.93 Y-246.201
X10.079 Y-246.216
X10.229 Y-246.224
X10.379 Y-246.225
X10.529 Y-246.219
X10.679 Y-246.206
X10.827 Y-246.187
X10.975 Y-246.161
X11.121 Y-246.128
X11.266 Y-246.088
X11.409 Y-246.042
X11.549 Y-245.99
X11.687 Y-245.931
X11.822 Y-245.866
X11.954 Y-245.794
X12.083 Y-245.717
X12.208 Y-245.634
X12.329 Y-245.546
X12.446 Y-245.452
X12.559 Y-245.353
X12.667 Y-245.248
X12.77 Y-245.139
X12.867 Y-245.026
X12.96 Y-244.908
X13.047 Y-244.786
X13.129 Y-244.66
X13.204 Y-244.53
X13.274 Y-244.398
X13.338 Y-244.262
X13.395 Y-244.123
X13.446 Y-243.982
X13.49 Y-243.839
X13.528 Y-243.694
X13.56 Y-243.547
X13.584 Y-243.399
X13.602 Y-243.25
X13.613 Y-243.1
X13.617 Y-242.95
X13.615 Y-242.8
X13.606 Y-242.651
X13.59 Y-242.502
X13.567 Y-242.353
X13.537 Y-242.206
X13.501 Y-242.061
X13.458 Y-241.917
X13.409 Y-241.775
X13.354 Y-241.636
X13.292 Y-241.499
X13.224 Y-241.365
X13.15 Y-241.235
X13.07 Y-241.108
X12.984 Y-240.985
X12.893 Y-240.865
X12.797 Y-240.75
X12.696 Y-240.64
X12.589 Y-240.534
X12.478 Y-240.433
X12.363 Y-240.338
X12.243 Y-240.247
X12.119 Y-240.162
X11.992 Y-240.083
X11.861 Y-240.01
X11.727 Y-239.943
X11.59 Y-239.882
X11.45 Y-239.827
X11.308 Y-239.778
X11.164 Y-239.736
X11.019 Y-239.701
X10.871 Y-239.672
X10.723 Y-239.65
X10.574 Y-239.634
X10.424 Y-239.626
X10.274 Y-239.624
X10.124 Y-239.628
X9.975 Y-239.64
X9.826 Y-239.658
X9.678 Y-239.683
X9.531 Y-239.714
X9.386 Y-239.752
X9.243 Y-239.797
X9.102 Y-239.848
X8.963 Y-239.905
X8.827 Y-239.968
X8.694 Y-240.038
X8.564 Y-240.113
X8.438 Y-240.194
X8.316 Y-240.281
X8.197 Y-240.373
X8.083 Y-240.47
X7.974 Y-240.573
X7.869 Y-240.68
X7.769 Y-240.792
X7.674 Y-240.908
X7.585 Y-241.028
X7.501 Y-241.153
X7.423 Y-241.281
X7.35 Y-241.412
X7.284 Y-241.546
X7.223 Y-241.684
X7.169 Y-241.824
X7.122 Y-241.966
X7.08 Y-242.11
X7.046 Y-242.256
X7.018 Y-242.403
X6.996 Y-242.552
X6.981 Y-242.701
X6.973 Y-242.851
X6.971 Y-243.001
X6.976 Y-243.151
X6.988 Y-243.3
X7.006 Y-243.449
X7.031 Y-243.597
X7.063 Y-243.744
X7.101 Y-243.889
X7.146 Y-244.032
X7.196 Y-244.173
X7.254 Y-244.312
X7.317 Y-244.448
X7.386 Y-244.581
X7.461 Y-244.711
X7.542 Y-244.837
X7.628 Y-244.96
X7.72 Y-245.079
X7.817 Y-245.193
X7.919 Y-245.303
X8.026 Y-245.408
X8.137 Y-245.509
X8.253 Y-245.604
X8.373 Y-245.694
X8.497 Y-245.779
X8.624 Y-245.858
X8.755 Y-245.931
X8.889 Y-245.998
X9.026 Y-246.059
X9.166 Y-246.114
X9.308 Y-246.162
X9.452 Y-246.205
X9.598 Y-246.24
X9.745 Y-246.27
X9.893 Y-246.292
X10.042 Y-246.308
X10.192 Y-246.317
X10.342 Y-246.32
X10.492 Y-246.316
X10.641 Y-246.305
X10.79 Y-246.288
X10.939 Y-246.264
X11.085 Y-246.234
X11.231 Y-246.197
X11.374 Y-246.154
X11.516 Y-246.104
X11.655 Y-246.048
X11.792 Y-245.987
X11.926 Y-245.919
X12.056 Y-245.845
X12.183 Y-245.765
X12.307 Y-245.68
X12.427 Y-245.59
X12.542 Y-245.494
X12.654 Y-245.394
X12.76 Y-245.288
X12.862 Y-245.178
X12.959 Y-245.064
X13.051 Y-244.945
X13.137 Y-244.823
X13.218 Y-244.696
X13.293 Y-244.567
X13.363 Y-244.434
X13.426 Y-244.298
X13.484 Y-244.159
X13.535 Y-244.018
X13.579 Y-243.875
X13.618 Y-243.73
X13.65 Y-243.583
X13.675 Y-243.435
X13.694 Y-243.287
X13.706 Y-243.137
X13.712 Y-242.987
X13.711 Y-242.837
X13.704 Y-242.687
X13.69 Y-242.538
X13.669 Y-242.39
X13.642 Y-242.242
X13.608 Y-242.096
X13.568 Y-241.951
X13.522 Y-241.809
X13.469 Y-241.668
X13.411 Y-241.53
X13.346 Y-241.395
X13.275 Y-241.262
X13.199 Y-241.133
X13.117 Y-241.008
X13.029 Y-240.886
X12.937 Y-240.768
X12.839 Y-240.654
X12.736 Y-240.545
X12.629 Y-240.44
X12.517 Y-240.341
X12.4 Y-240.246
X12.28 Y-240.156
X12.156 Y-240.072
X12.028 Y-239.994
X11.897 Y-239.921
X11.763 Y-239.854
X11.626 Y-239.793
X11.486 Y-239.738
X11.344 Y-239.689
X11.2 Y-239.647
X11.055 Y-239.611
X10.908 Y-239.581
X10.759 Y-239.558
X10.61 Y-239.542
X10.461 Y-239.532
X10.311 Y-239.528
X10.161 Y-239.531
X10.011 Y-239.541
X9.862 Y-239.557
X9.714 Y-239.58
X9.566 Y-239.609
X9.421 Y-239.644
X9.277 Y-239.686
X9.134 Y-239.734
X8.995 Y-239.788
X8.857 Y-239.848
X8.723 Y-239.915
X8.591 Y-239.987
X8.463 Y-240.064
X8.338 Y-240.148
X8.217 Y-240.236
X8.1 Y-240.33
X7.987 Y-240.429
X7.879 Y-240.533
X7.775 Y-240.641
X7.676 Y-240.754
X7.582 Y-240.871
X7.494 Y-240.992
X7.41 Y-241.117
X7.333 Y-241.245
X7.261 Y-241.376
X7.195 Y-241.511
X7.134 Y-241.648
X7.08 Y-241.788
X7.032 Y-241.931
X6.991 Y-242.075
X6.955 Y-242.22
X6.927 Y-242.368
X6.904 Y-242.516
X6.888 Y-242.665
X6.878 Y-242.815
X6.875 Y-242.965
X6.879 Y-243.115
X6.889 Y-243.264
X6.905 Y-243.413
X6.928 Y-243.562
X6.957 Y-243.709
X6.993 Y-243.855
X7.035 Y-243.999
X7.083 Y-244.141
X7.137 Y-244.281
X7.197 Y-244.418
X7.263 Y-244.553
X7.335 Y-244.684
X7.412 Y-244.813
X7.495 Y-244.938
X7.584 Y-245.059
X7.677 Y-245.176
X7.775 Y-245.289
X7.879 Y-245.398
X7.987 Y-245.502
X8.099 Y-245.602
X8.216 Y-245.696
X8.336 Y-245.785
X8.461 Y-245.869
X8.589 Y-245.948
X8.72 Y-246.02
X8.854 Y-246.087
X8.991 Y-246.148
X9.131 Y-246.203
X9.272 Y-246.252
X9.416 Y-246.294
X9.562 Y-246.331
X9.709 Y-246.361
X9.857 Y-246.384
X10.006 Y-246.401
X10.156 Y-246.412
X10.306 Y-246.416
X10.456 Y-246.413
X10.605 Y-246.405
X10.755 Y-246.389
X10.903 Y-246.368
X11.05 Y-246.339
X11.196 Y-246.305
X11.341 Y-246.264
X11.483 Y-246.218
X11.624 Y-246.165
X11.762 Y-246.106
X11.897 Y-246.041
X12.029 Y-245.971
X12.158 Y-245.894
X12.284 Y-245.813
X12.407 Y-245.726
X12.525 Y-245.634
X12.639 Y-245.537
X12.749 Y-245.435
X12.855 Y-245.328
X12.956 Y-245.217
X13.052 Y-245.102
X13.143 Y-244.982
X13.228 Y-244.859
X13.308 Y-244.733
X13.383 Y-244.603
X13.452 Y-244.469
X13.515 Y-244.333
X13.573 Y-244.195
X13.624 Y-244.054
X13.669 Y-243.911
X13.708 Y-243.766
X13.741 Y-243.619
X13.767 Y-243.472
X13.787 Y-243.323
X13.8 Y-243.174
X13.807 Y-243.024
X13.808 Y-242.874
X13.802 Y-242.724
X13.79 Y-242.574
X13.771 Y-242.426
X13.747 Y-242.278
X13.715 Y-242.131
X13.678 Y-241.986
X13.634 Y-241.842
X13.584 Y-241.701
X13.529 Y-241.561
X13.467 Y-241.425
X13.4 Y-241.291
X13.326 Y-241.16
X13.248 Y-241.032
X13.164 Y-240.908
X13.074 Y-240.787
X12.98 Y-240.671
X12.881 Y-240.558
X12.777 Y-240.45
X12.668 Y-240.347
X12.555 Y-240.248
X12.438 Y-240.154
X12.317 Y-240.065
X12.193 Y-239.982
X12.064 Y-239.904
X11.933 Y-239.831
X11.799 Y-239.765
X11.662 Y-239.704
X11.522 Y-239.649
X11.38 Y-239.6
X11.237 Y-239.557
X11.091 Y-239.521
X10.944 Y-239.49
X10.796 Y-239.466
X10.647 Y-239.449
X10.498 Y-239.437
X10.348 Y-239.432
X10.198 Y-239.434
X10.048 Y-239.442
X9.899 Y-239.456
X9.75 Y-239.476
X9.602 Y-239.503
X9.456 Y-239.536
X9.311 Y-239.575
X9.168 Y-239.621
X9.027 Y-239.672
X8.889 Y-239.729
X8.753 Y-239.792
X8.619 Y-239.861
X8.489 Y-239.936
X8.362 Y-240.016
X8.239 Y-240.101
X8.119 Y-240.191
X8.003 Y-240.287
X7.892 Y-240.387
X7.784 Y-240.492
X7.682 Y-240.601
X7.584 Y-240.715
X7.491 Y-240.832
X7.403 Y-240.954
X7.32 Y-241.079
X7.243 Y-241.208
X7.172 Y-241.34
X7.106 Y-241.474
X7.045 Y-241.612
X6.991 Y-241.752
X6.943 Y-241.894
X6.901 Y-242.038
X6.865 Y-242.183
X6.835 Y-242.33
X6.812 Y-242.478
X6.795 Y-242.627
X6.784 Y-242.777
X6.779 Y-242.927
X6.781 Y-243.077
X6.789 Y-243.227
X6.804 Y-243.376
X6.824 Y-243.525
X6.851 Y-243.672
X6.884 Y-243.818
X6.924 Y-243.963
X6.969 Y-244.106
X7.02 Y-244.247
X7.077 Y-244.386
X7.14 Y-244.522
X7.209 Y-244.655
X7.283 Y-244.786
X7.363 Y-244.913
X7.448 Y-245.037
X7.538 Y-245.157
X7.633 Y-245.273
X7.733 Y-245.385
X7.837 Y-245.492
X7.946 Y-245.595
X8.059 Y-245.694
X8.177 Y-245.787
X8.298 Y-245.876
X8.422 Y-245.959
X8.551 Y-246.037
X8.682 Y-246.109
X8.816 Y-246.176
X8.953 Y-246.237
X9.093 Y-246.292
X9.235 Y-246.341
X9.378 Y-246.384
X9.524 Y-246.421
X9.671 Y-246.451
X9.819 Y-246.476
X9.968 Y-246.494
X10.117 Y-246.506
X10.267 Y-246.512
X10.417 Y-246.511
X10.567 Y-246.504
X10.716 Y-246.49
X10.865 Y-246.471
X11.013 Y-246.445
X11.159 Y-246.413
X11.304 Y-246.375
X11.448 Y-246.331
X11.589 Y-246.281
X11.728 Y-246.225
X11.865 Y-246.164
X11.999 Y-246.096
X12.13 Y-246.023
X12.258 Y-245.945
X12.383 Y-245.861
X12.504 Y-245.773
X12.621 Y-245.679
X12.734 Y-245.581
X12.843 Y-245.477
X12.947 Y-245.37
X13.047 Y-245.258
X13.142 Y-245.142
X13.233 Y-245.022
X13.318 Y-244.899
X13.398 Y-244.772
X13.472 Y-244.641
X13.541 Y-244.508
X13.604 Y-244.372
X13.661 Y-244.233
X13.713 Y-244.093
X13.758 Y-243.95
X13.798 Y-243.805
X13.831 Y-243.659
X13.858 Y-243.511
X13.879 Y-243.363
X13.894 Y-243.213
X13.903 Y-243.064
X13.905 Y-242.914
X13.901 Y-242.764
X13.891 Y-242.614
X13.874 Y-242.465
X13.851 Y-242.317
X13.823 Y-242.169
X13.788 Y-242.024
X13.747 Y-241.879
X13.7 Y-241.737
X13.647 Y-241.596
X13.588 Y-241.458
X13.524 Y-241.323
X13.454 Y-241.19
X13.379 Y-241.06
X13.298 Y-240.934
X13.212 Y-240.811
X13.121 Y-240.692
X13.026 Y-240.576
X12.925 Y-240.465
X12.82 Y-240.358
X12.71 Y-240.255
X12.597 Y-240.157
X12.479 Y-240.064
X12.358 Y-239.976
X12.233 Y-239.893
X12.105 Y-239.815
X11.973 Y-239.743
X11.839 Y-239.677
X11.702 Y-239.616
X11.562 Y-239.561
X11.42 Y-239.511
X11.277 Y-239.468
X11.132 Y-239.431
X10.985 Y-239.4
X10.837 Y-239.375
X10.688 Y-239.356
X10.539 Y-239.343
X10.389 Y-239.337
X10.239 Y-239.336
X10.089 Y-239.342
X9.939 Y-239.354
X9.79 Y-239.373
X9.642 Y-239.397
X9.496 Y-239.428
X9.35 Y-239.464
X9.206 Y-239.507
X9.064 Y-239.555
X8.925 Y-239.61
X8.787 Y-239.67
X8.652 Y-239.735
X8.52 Y-239.806
X8.391 Y-239.883
X8.265 Y-239.965
X8.143 Y-240.052
X8.025 Y-240.143
X7.91 Y-240.24
X7.799 Y-240.342
X7.693 Y-240.447
X7.591 Y-240.558
X7.494 Y-240.672
X7.402 Y-240.79
X7.315 Y-240.912
X7.232 Y-241.038
X7.155 Y-241.166
X7.084 Y-241.298
X7.018 Y-241.433
X6.958 Y-241.57
X6.903 Y-241.71
X6.855 Y-241.852
X6.812 Y-241.996
X6.775 Y-242.141
X6.745 Y-242.288
X6.72 Y-242.436
X6.702 Y-242.585
X6.689 Y-242.734
X6.683 Y-242.884
Y-243.034
X6.69 Y-243.184
X6.702 Y-243.334
X6.72 Y-243.482
X6.745 Y-243.63
X6.775 Y-243.777
X6.812 Y-243.923
X6.855 Y-244.067
X6.903 Y-244.209
X6.957 Y-244.349
X7.017 Y-244.486
X7.082 Y-244.621
X7.153 Y-244.753
X7.229 Y-244.883
X7.311 Y-245.008
X7.397 Y-245.131
X7.489 Y-245.25
X7.585 Y-245.365
X7.686 Y-245.476
X7.791 Y-245.583
X7.901 Y-245.685
X8.015 Y-245.783
X8.133 Y-245.875
X8.254 Y-245.963
X8.379 Y-246.046
X8.508 Y-246.124
X8.639 Y-246.196
X8.773 Y-246.263
X8.91 Y-246.324
X9.05 Y-246.379
X9.191 Y-246.429
X9.335 Y-246.472
X9.48 Y-246.51
X9.627 Y-246.542
X9.775 Y-246.567
X9.923 Y-246.587
X10.073 Y-246.6
X10.223 Y-246.607
X10.373 Y-246.608
X10.522 Y-246.603
X10.672 Y-246.592
X10.821 Y-246.575
X10.969 Y-246.551
X11.116 Y-246.522
X11.262 Y-246.487
X11.406 Y-246.446
X11.549 Y-246.399
X11.689 Y-246.346
X11.827 Y-246.287
X11.963 Y-246.223
X12.096 Y-246.154
X12.226 Y-246.079
X12.353 Y-245.999
X12.476 Y-245.914
X12.596 Y-245.823
X12.712 Y-245.729
X12.824 Y-245.629
X12.932 Y-245.525
X13.036 Y-245.416
X13.135 Y-245.304
X13.23 Y-245.188
X13.32 Y-245.067
X13.404 Y-244.944
X13.484 Y-244.816
X13.558 Y-244.686
X13.627 Y-244.553
X13.69 Y-244.417
X13.748 Y-244.278
X13.8 Y-244.138
X13.846 Y-243.995
X13.886 Y-243.85
X13.921 Y-243.704
X13.949 Y-243.557
X13.971 Y-243.409
X13.987 Y-243.26
X13.998 Y-243.11
X14.002 Y-242.96
X14. Y-242.81
X13.991 Y-242.66
X13.977 Y-242.511
X13.957 Y-242.362
X13.931 Y-242.215
X13.898 Y-242.068
X13.86 Y-241.923
X13.816 Y-241.78
X13.767 Y-241.638
X13.711 Y-241.499
X13.65 Y-241.362
X13.584 Y-241.227
X13.512 Y-241.096
X13.435 Y-240.967
X13.352 Y-240.842
X13.265 Y-240.72
X13.173 Y-240.601
X13.076 Y-240.487
X12.974 Y-240.376
X12.869 Y-240.27
X12.758 Y-240.168
X12.644 Y-240.071
X12.526 Y-239.978
X12.405 Y-239.89
X12.28 Y-239.808
X12.151 Y-239.73
X12.02 Y-239.658
X11.885 Y-239.591
X11.748 Y-239.53
X11.609 Y-239.474
X11.468 Y-239.425
X11.324 Y-239.38
X11.179 Y-239.342
X11.033 Y-239.31
X10.885 Y-239.284
X10.736 Y-239.263
X10.587 Y-239.249
X10.437 Y-239.241
X10.287 Y-239.239
X10.137 Y-239.243
X9.988 Y-239.253
X9.839 Y-239.268
X9.69 Y-239.29
X9.543 Y-239.318
X9.397 Y-239.352
X9.252 Y-239.392
X9.109 Y-239.437
X8.968 Y-239.488
X8.829 Y-239.545
X8.693 Y-239.607
X8.559 Y-239.675
X8.428 Y-239.748
X8.3 Y-239.826
X8.175 Y-239.909
X8.054 Y-239.998
X7.936 Y-240.091
X7.822 Y-240.188
X7.713 Y-240.291
X7.607 Y-240.397
X7.506 Y-240.508
X7.409 Y-240.623
X7.317 Y-240.741
X7.23 Y-240.863
X7.148 Y-240.989
X7.071 Y-241.118
X7. Y-241.249
X6.933 Y-241.384
X6.873 Y-241.521
X6.818 Y-241.661
X6.768 Y-241.802
X6.725 Y-241.946
X6.687 Y-242.091
X6.655 Y-242.238
X6.629 Y-242.385
X6.609 Y-242.534
X6.596 Y-242.684
X6.588 Y-242.833
X6.586 Y-242.983
X6.59 Y-243.133
X6.6 Y-243.283
X6.616 Y-243.432
X6.638 Y-243.58
X6.665 Y-243.728
X6.699 Y-243.874
X6.739 Y-244.019
X6.784 Y-244.162
X6.835 Y-244.303
X6.891 Y-244.442
X6.953 Y-244.578
X7.02 Y-244.712
X7.093 Y-244.844
X7.171 Y-244.972
X7.254 Y-245.097
X7.342 Y-245.219
X7.434 Y-245.337
X7.531 Y-245.451
X7.633 Y-245.561
X7.739 Y-245.667
X7.849 Y-245.769
X7.964 Y-245.866
X8.082 Y-245.959
X8.203 Y-246.046
X8.328 Y-246.129
X8.457 Y-246.207
X8.588 Y-246.279
X8.722 Y-246.346
X8.859 Y-246.408
X8.998 Y-246.464
X9.139 Y-246.514
X9.283 Y-246.559
X9.428 Y-246.597
X9.574 Y-246.63
X9.722 Y-246.657
X9.87 Y-246.678
X10.019 Y-246.693
X10.169 Y-246.703
X10.319 Y-246.706
X10.469 Y-246.703
X10.619 Y-246.694
X10.768 Y-246.679
X10.917 Y-246.659
X11.064 Y-246.632
X11.211 Y-246.6
X11.356 Y-246.562
X11.499 Y-246.518
X11.641 Y-246.468
X11.78 Y-246.413
X11.917 Y-246.353
X12.052 Y-246.287
X12.184 Y-246.216
X12.313 Y-246.139
X12.439 Y-246.058
X12.562 Y-245.971
X12.681 Y-245.88
X12.796 Y-245.784
X12.908 Y-245.684
X13.015 Y-245.579
X13.119 Y-245.471
X13.217 Y-245.358
X13.312 Y-245.241
X13.401 Y-245.121
X13.486 Y-244.997
X13.566 Y-244.87
X13.64 Y-244.74
X13.709 Y-244.606
X13.773 Y-244.471
X13.831 Y-244.333
X13.884 Y-244.192
X13.931 Y-244.05
X13.973 Y-243.906
X14.008 Y-243.76
X14.038 Y-243.613
X14.062 Y-243.465
X14.08 Y-243.316
X14.092 Y-243.166
X14.098 Y-243.016
Y-242.866
X14.093 Y-242.716
X14.081 Y-242.567
X14.063 Y-242.418
X14.04 Y-242.27
X14.011 Y-242.123
X13.976 Y-241.977
X13.935 Y-241.832
X13.889 Y-241.69
X13.837 Y-241.549
X13.779 Y-241.411
X13.716 Y-241.274
X13.648 Y-241.141
X13.575 Y-241.01
X13.496 Y-240.882
X13.412 Y-240.758
X13.324 Y-240.636
X13.231 Y-240.519
X13.133 Y-240.405
X13.031 Y-240.295
X12.925 Y-240.189
X12.815 Y-240.088
X12.7 Y-239.991
X12.582 Y-239.898
X12.461 Y-239.81
X12.335 Y-239.728
X12.207 Y-239.65
X12.076 Y-239.577
X11.942 Y-239.51
X11.805 Y-239.448
X11.666 Y-239.392
X11.525 Y-239.341
X11.382 Y-239.296
X11.237 Y-239.256
X11.091 Y-239.222
X10.944 Y-239.195
X10.795 Y-239.172
X10.646 Y-239.156
X10.497 Y-239.146
X10.347 Y-239.142
X10.197 Y-239.143
X10.047 Y-239.15
X9.897 Y-239.164
X9.749 Y-239.183
X9.601 Y-239.208
X9.454 Y-239.238
X9.308 Y-239.275
X9.164 Y-239.317
X9.022 Y-239.364
X8.882 Y-239.417
X8.744 Y-239.476
X8.608 Y-239.54
X8.475 Y-239.609
X8.345 Y-239.684
X8.218 Y-239.763
X8.094 Y-239.847
X7.973 Y-239.937
X7.856 Y-240.03
X7.743 Y-240.129
X7.633 Y-240.231
X7.528 Y-240.338
X7.427 Y-240.449
X7.331 Y-240.564
X7.239 Y-240.683
X7.152 Y-240.805
X7.069 Y-240.93
X6.992 Y-241.059
X6.92 Y-241.19
X6.853 Y-241.325
X6.792 Y-241.462
X6.736 Y-241.601
X6.686 Y-241.742
X6.641 Y-241.885
X6.602 Y-242.03
X6.568 Y-242.176
X6.541 Y-242.324
X6.519 Y-242.472
X6.503 Y-242.621
X6.493 Y-242.771
X6.488 Y-242.921
X6.49 Y-243.071
X6.497 Y-243.221
X6.51 Y-243.37
X6.529 Y-243.519
X6.554 Y-243.667
X6.584 Y-243.814
X6.621 Y-243.959
X6.662 Y-244.103
X6.71 Y-244.246
X6.763 Y-244.386
X6.821 Y-244.524
X6.884 Y-244.66
X6.953 Y-244.793
X7.027 Y-244.924
X7.106 Y-245.051
X7.19 Y-245.176
X7.278 Y-245.297
X7.372 Y-245.414
X7.469 Y-245.528
X7.572 Y-245.638
X7.678 Y-245.744
X7.788 Y-245.845
X7.902 Y-245.943
X8.02 Y-246.035
X8.142 Y-246.123
X8.267 Y-246.206
X8.395 Y-246.284
X8.526 Y-246.357
X8.66 Y-246.425
X8.796 Y-246.487
X8.935 Y-246.544
X9.076 Y-246.596
X9.219 Y-246.642
X9.363 Y-246.682
X9.509 Y-246.716
X9.656 Y-246.745
X9.805 Y-246.768
X9.954 Y-246.786
X10.103 Y-246.797
X10.253 Y-246.803
X10.403 Y-246.802
X10.553 Y-246.796
X10.702 Y-246.785
X10.851 Y-246.767
X11. Y-246.744
X11.147 Y-246.715
X11.293 Y-246.68
X11.437 Y-246.64
X11.58 Y-246.594
X11.721 Y-246.542
X11.86 Y-246.486
X11.996 Y-246.423
X12.13 Y-246.356
X12.262 Y-246.284
X12.39 Y-246.206
X12.516 Y-246.124
X12.638 Y-246.037
X12.756 Y-245.945
X12.871 Y-245.849
X12.983 Y-245.748
X13.09 Y-245.643
X13.193 Y-245.534
X13.292 Y-245.422
X13.386 Y-245.305
X13.476 Y-245.185
X13.561 Y-245.061
X13.641 Y-244.934
X13.716 Y-244.805
X13.786 Y-244.672
X13.851 Y-244.537
X13.91 Y-244.399
X13.964 Y-244.259
X14.013 Y-244.117
X14.056 Y-243.973
X14.093 Y-243.828
X14.125 Y-243.681
X14.15 Y-243.534
X14.171 Y-243.385
X14.185 Y-243.236
X14.194 Y-243.086
X14.197 Y-242.936
X14.194 Y-242.786
X14.185 Y-242.636
X14.17 Y-242.487
X14.15 Y-242.338
X14.124 Y-242.19
X14.093 Y-242.044
X14.056 Y-241.898
X14.013 Y-241.755
X13.965 Y-241.613
X13.911 Y-241.473
X13.852 Y-241.335
X13.788 Y-241.199
X13.719 Y-241.066
X13.644 Y-240.936
X13.565 Y-240.809
X13.481 Y-240.684
X13.392 Y-240.564
X13.298 Y-240.446
X13.2 Y-240.333
X13.098 Y-240.223
X12.992 Y-240.117
X12.881 Y-240.016
X12.767 Y-239.918
X12.649 Y-239.826
X12.528 Y-239.738
X12.403 Y-239.654
X12.275 Y-239.576
X12.144 Y-239.502
X12.011 Y-239.434
X11.875 Y-239.371
X11.736 Y-239.314
X11.596 Y-239.261
X11.453 Y-239.215
X11.309 Y-239.174
X11.163 Y-239.138
X11.016 Y-239.108
X10.868 Y-239.084
X10.719 Y-239.065
X10.57 Y-239.052
X10.42 Y-239.045
X10.27 Y-239.044
X10.12 Y-239.048
X9.97 Y-239.058
X9.821 Y-239.074
X9.673 Y-239.096
X9.525 Y-239.123
X9.379 Y-239.155
X9.234 Y-239.194
X9.09 Y-239.238
X8.949 Y-239.287
X8.809 Y-239.342
X8.671 Y-239.401
X8.536 Y-239.467
X8.404 Y-239.537
X8.274 Y-239.612
X8.147 Y-239.692
X8.024 Y-239.777
X7.903 Y-239.867
X7.786 Y-239.961
X7.673 Y-240.059
X7.564 Y-240.162
X7.459 Y-240.269
X7.358 Y-240.38
X7.261 Y-240.494
X7.169 Y-240.612
X7.081 Y-240.734
X6.998 Y-240.859
X6.92 Y-240.987
X6.847 Y-241.118
X6.779 Y-241.252
X6.717 Y-241.388
X6.659 Y-241.527
X6.607 Y-241.668
X6.561 Y-241.81
X6.52 Y-241.955
X6.484 Y-242.1
X6.455 Y-242.247
X6.43 Y-242.395
X6.412 Y-242.544
X6.399 Y-242.694
X6.392 Y-242.844
X6.39 Y-242.994
X6.395 Y-243.144
X6.404 Y-243.293
X6.42 Y-243.442
X6.441 Y-243.591
X6.468 Y-243.738
X6.501 Y-243.885
X6.539 Y-244.03
X6.582 Y-244.174
X6.631 Y-244.315
X6.685 Y-244.455
X6.744 Y-244.593
X6.809 Y-244.728
X6.878 Y-244.861
X6.953 Y-244.991
X7.033 Y-245.119
X7.117 Y-245.243
X7.206 Y-245.364
X7.299 Y-245.481
X7.397 Y-245.595
X7.499 Y-245.705
X7.605 Y-245.811
X7.715 Y-245.912
X7.829 Y-246.01
X7.947 Y-246.103
X8.068 Y-246.191
X8.192 Y-246.275
X8.32 Y-246.354
X8.45 Y-246.428
X8.584 Y-246.497
X8.72 Y-246.561
X8.858 Y-246.619
X8.998 Y-246.672
X9.14 Y-246.72
X9.284 Y-246.762
X9.43 Y-246.799
X9.576 Y-246.83
X9.724 Y-246.856
X9.873 Y-246.876
X10.022 Y-246.89
X10.172 Y-246.898
X10.322 Y-246.901
X10.472 Y-246.898
X10.622 Y-246.89
X10.771 Y-246.876
X10.92 Y-246.856
X11.067 Y-246.831
X11.214 Y-246.8
X11.36 Y-246.764
X11.504 Y-246.722
X11.646 Y-246.675
X11.787 Y-246.622
X11.925 Y-246.564
X12.061 Y-246.501
X12.195 Y-246.433
X12.326 Y-246.36
X12.454 Y-246.282
X12.579 Y-246.2
X12.701 Y-246.112
X12.82 Y-246.021
X12.935 Y-245.924
X13.046 Y-245.824
X13.154 Y-245.719
X13.257 Y-245.611
X13.356 Y-245.498
X13.451 Y-245.382
X13.542 Y-245.262
X13.628 Y-245.139
X13.709 Y-245.013
X13.785 Y-244.884
X13.856 Y-244.752
X13.922 Y-244.617
X13.983 Y-244.48
X14.039 Y-244.341
X14.089 Y-244.199
X14.134 Y-244.056
X14.173 Y-243.912
X14.207 Y-243.765
X14.236 Y-243.618
X14.259 Y-243.47
X14.276 Y-243.321
X14.288 Y-243.171
X14.294 Y-243.021
Y-242.872
X14.289 Y-242.722
X14.278 Y-242.572
X14.261 Y-242.423
X14.239 Y-242.275
X14.212 Y-242.127
X14.179 Y-241.981
X14.14 Y-241.836
X14.096 Y-241.692
X14.047 Y-241.551
X13.992 Y-241.411
X13.932 Y-241.273
X13.868 Y-241.138
X13.798 Y-241.005
X13.723 Y-240.875
X13.643 Y-240.748
X13.559 Y-240.624
X13.47 Y-240.504
X13.377 Y-240.386
X13.279 Y-240.272
X13.177 Y-240.162
X13.071 Y-240.056
X12.961 Y-239.954
X12.847 Y-239.856
X12.73 Y-239.763
X12.609 Y-239.674
X12.485 Y-239.59
X12.358 Y-239.51
X12.228 Y-239.436
X12.095 Y-239.366
X11.959 Y-239.301
X11.822 Y-239.242
X11.682 Y-239.188
X11.54 Y-239.139
X11.396 Y-239.096
X11.251 Y-239.058
X11.105 Y-239.025
X10.957 Y-238.998
X10.809 Y-238.977
X10.66 Y-238.961
X10.51 Y-238.95
X10.36 Y-238.946
X10.21 Y-238.947
X10.06 Y-238.953
X9.911 Y-238.965
X9.762 Y-238.983
X9.614 Y-239.006
X9.466 Y-239.035
X9.32 Y-239.069
X9.176 Y-239.108
X9.032 Y-239.153
X8.891 Y-239.203
X8.752 Y-239.259
X8.614 Y-239.319
X8.48 Y-239.385
X8.347 Y-239.455
X8.218 Y-239.531
X8.091 Y-239.611
X7.967 Y-239.696
X7.847 Y-239.785
X7.73 Y-239.879
X7.616 Y-239.977
X7.507 Y-240.08
X7.401 Y-240.186
X7.299 Y-240.296
X7.202 Y-240.41
X7.109 Y-240.528
X7.02 Y-240.649
X6.936 Y-240.773
X6.857 Y-240.901
X6.782 Y-241.031
X6.713 Y-241.164
X6.649 Y-241.299
X6.589 Y-241.437
X6.535 Y-241.577
X6.486 Y-241.719
X6.443 Y-241.863
X6.405 Y-242.008
X6.372 Y-242.154
X6.345 Y-242.302
X6.324 Y-242.45
X6.308 Y-242.599
X6.297 Y-242.749
X6.292 Y-242.899
X6.293 Y-243.049
X6.299 Y-243.199
X6.311 Y-243.348
X6.328 Y-243.497
X6.351 Y-243.645
X6.379 Y-243.793
X6.412 Y-243.939
X6.451 Y-244.084
X6.496 Y-244.227
X6.545 Y-244.369
X6.6 Y-244.508
X6.66 Y-244.646
X6.725 Y-244.781
X6.795 Y-244.914
X6.869 Y-245.044
X6.949 Y-245.171
X7.033 Y-245.295
X7.121 Y-245.416
X7.215 Y-245.534
X7.312 Y-245.648
X7.413 Y-245.758
X7.519 Y-245.865
X7.629 Y-245.968
X7.742 Y-246.066
X7.859 Y-246.16
X7.979 Y-246.249
X8.103 Y-246.334
X8.229 Y-246.415
X8.359 Y-246.49
X8.491 Y-246.561
X8.626 Y-246.626
X8.763 Y-246.687
X8.903 Y-246.742
X9.044 Y-246.792
X9.187 Y-246.837
X9.332 Y-246.877
X9.478 Y-246.911
X9.626 Y-246.939
X9.774 Y-246.962
X9.923 Y-246.98
X10.072 Y-246.992
X10.222 Y-246.998
X10.372 Y-246.999
X10.522 Y-246.995
X10.672 Y-246.985
X10.821 Y-246.969
X10.969 Y-246.948
X11.117 Y-246.922
X11.264 Y-246.89
X11.409 Y-246.852
X11.553 Y-246.81
X11.695 Y-246.762
X11.835 Y-246.709
X11.973 Y-246.651
X12.11 Y-246.588
X12.243 Y-246.52
X12.374 Y-246.447
X12.503 Y-246.369
X12.628 Y-246.287
X12.75 Y-246.2
X12.869 Y-246.108
X12.985 Y-246.012
X13.096 Y-245.913
X13.205 Y-245.809
X13.309 Y-245.701
X13.409 Y-245.589
X13.505 Y-245.474
X13.596 Y-245.355
X13.683 Y-245.233
X13.766 Y-245.107
X13.844 Y-244.979
X13.917 Y-244.848
X13.985 Y-244.714
X14.048 Y-244.578
X14.106 Y-244.44
X14.159 Y-244.3
X14.206 Y-244.157
X14.248 Y-244.013
X14.285 Y-243.868
X14.317 Y-243.721
X14.343 Y-243.574
X14.364 Y-243.425
X14.379 Y-243.276
X14.389 Y-243.126
X14.393 Y-242.976
X14.392 Y-242.826
X14.385 Y-242.676
X14.373 Y-242.527
X14.355 Y-242.378
X14.332 Y-242.23
X14.303 Y-242.083
X14.269 Y-241.936
X14.23 Y-241.792
X14.186 Y-241.648
X14.136 Y-241.507
X14.081 Y-241.367
X14.021 Y-241.23
X13.957 Y-241.094
X13.887 Y-240.962
X13.812 Y-240.831
X13.733 Y-240.704
X13.649 Y-240.58
X13.561 Y-240.459
X13.468 Y-240.341
X13.371 Y-240.226
X13.27 Y-240.116
X13.164 Y-240.009
X13.055 Y-239.906
X12.942 Y-239.807
X12.826 Y-239.712
X12.706 Y-239.622
X12.583 Y-239.536
X12.457 Y-239.455
X12.328 Y-239.379
X12.196 Y-239.307
X12.062 Y-239.24
X11.925 Y-239.179
X11.786 Y-239.122
X11.645 Y-239.07
X11.503 Y-239.024
X11.358 Y-238.983
X11.213 Y-238.947
X11.066 Y-238.917
X10.918 Y-238.892
X10.769 Y-238.873
X10.62 Y-238.859
X10.47 Y-238.85
X10.32 Y-238.847
X10.17 Y-238.849
X10.02 Y-238.857
X9.871 Y-238.87
X9.722 Y-238.889
X9.574 Y-238.913
X9.427 Y-238.942
X9.281 Y-238.977
X9.136 Y-239.017
X8.993 Y-239.062
X8.852 Y-239.112
X8.713 Y-239.167
X8.575 Y-239.228
X8.44 Y-239.293
X8.308 Y-239.364
X8.178 Y-239.439
X8.051 Y-239.518
X7.927 Y-239.603
X7.806 Y-239.691
X7.688 Y-239.784
X7.574 Y-239.882
X7.464 Y-239.983
X7.357 Y-240.089
X7.254 Y-240.198
X7.156 Y-240.311
X7.061 Y-240.428
X6.971 Y-240.547
X6.885 Y-240.671
X6.804 Y-240.797
X6.728 Y-240.926
X6.656 Y-241.058
X6.59 Y-241.192
X6.528 Y-241.329
X6.471 Y-241.468
X6.419 Y-241.608
X6.373 Y-241.751
X6.332 Y-241.895
X6.296 Y-242.041
X6.265 Y-242.188
X6.24 Y-242.336
X6.22 Y-242.484
X6.206 Y-242.634
X6.197 Y-242.783
X6.193 Y-242.933
X6.195 Y-243.083
X6.202 Y-243.233
X6.215 Y-243.383
X6.233 Y-243.531
X6.256 Y-243.68
X6.285 Y-243.827
X6.319 Y-243.973
X6.358 Y-244.118
X6.402 Y-244.261
X6.452 Y-244.403
X6.506 Y-244.542
X6.566 Y-244.68
X6.631 Y-244.815
X6.7 Y-244.948
X6.774 Y-245.079
X6.853 Y-245.206
X6.936 Y-245.331
X7.024 Y-245.453
X7.116 Y-245.571
X7.213 Y-245.686
X7.313 Y-245.797
X7.418 Y-245.905
X7.526 Y-246.008
X7.638 Y-246.108
X7.754 Y-246.204
X7.873 Y-246.295
X7.996 Y-246.382
X8.121 Y-246.464
X8.249 Y-246.541
X8.38 Y-246.614
X8.514 Y-246.682
X8.65 Y-246.746
X8.788 Y-246.804
X8.929 Y-246.857
X9.071 Y-246.905
X9.215 Y-246.948
X9.36 Y-246.985
X9.506 Y-247.017
X9.654 Y-247.044
X9.802 Y-247.066
X9.951 Y-247.082
X10.101 Y-247.093
X10.251 Y-247.098
X10.401
X10.551 Y-247.092
X10.7 Y-247.082
X10.85 Y-247.065
X10.998 Y-247.044
X11.146 Y-247.017
X11.292 Y-246.985
X11.437 Y-246.948
X11.581 Y-246.905
X11.724 Y-246.857
X11.864 Y-246.805
X12.002 Y-246.747
X12.139 Y-246.684
X12.273 Y-246.617
X12.404 Y-246.544
X12.533 Y-246.468
X12.659 Y-246.386
X12.782 Y-246.3
X12.901 Y-246.21
X13.018 Y-246.115
X13.131 Y-246.016
X13.24 Y-245.913
X13.345 Y-245.807
X13.447 Y-245.696
X13.544 Y-245.582
X13.638 Y-245.465
X13.727 Y-245.344
X13.811 Y-245.22
X13.891 Y-245.093
X13.966 Y-244.964
X14.037 Y-244.831
X14.103 Y-244.696
X14.164 Y-244.559
X14.22 Y-244.42
X14.27 Y-244.279
X14.316 Y-244.136
X14.357 Y-243.992
X14.392 Y-243.846
X14.422 Y-243.699
X14.447 Y-243.551
X14.466 Y-243.402
X14.48 Y-243.253
X14.489 Y-243.103
X14.492 Y-242.953
X14.49 Y-242.803
X14.483 Y-242.653
X14.47 Y-242.504
X14.452 Y-242.355
X14.429 Y-242.207
X14.4 Y-242.06
X14.366 Y-241.913
X14.327 Y-241.769
X14.283 Y-241.625
X14.234 Y-241.484
X14.179 Y-241.344
X14.12 Y-241.206
X14.056 Y-241.07
X13.987 Y-240.937
X13.913 Y-240.807
X13.835 Y-240.679
X13.752 Y-240.554
X13.665 Y-240.432
X13.573 Y-240.313
X13.477 Y-240.197
X13.377 Y-240.086
X13.274 Y-239.977
X13.166 Y-239.873
X13.055 Y-239.772
X12.94 Y-239.676
X12.821 Y-239.584
X12.7 Y-239.496
X12.575 Y-239.413
X12.448 Y-239.334
X12.317 Y-239.259
X12.184 Y-239.19
X12.049 Y-239.125
X11.911 Y-239.065
X11.772 Y-239.011
X11.63 Y-238.961
X11.487 Y-238.916
X11.342 Y-238.877
X11.196 Y-238.842
X11.049 Y-238.813
X10.901 Y-238.79
X10.752 Y-238.771
X10.603 Y-238.758
X10.453 Y-238.75
X10.303 Y-238.747
X10.153 Y-238.75
X10.003 Y-238.758
X9.854 Y-238.772
X9.705 Y-238.79
X9.557 Y-238.814
X9.41 Y-238.844
X9.264 Y-238.878
X9.119 Y-238.918
X8.976 Y-238.962
X8.834 Y-239.012
X8.695 Y-239.067
X8.557 Y-239.126
X8.422 Y-239.191
X8.289 Y-239.26
X8.158 Y-239.334
X8.03 Y-239.413
X7.906 Y-239.496
X7.784 Y-239.583
X7.665 Y-239.675
X7.55 Y-239.771
X7.438 Y-239.871
X7.33 Y-239.975
X7.225 Y-240.083
X7.125 Y-240.194
X7.029 Y-240.309
X6.936 Y-240.427
X6.848 Y-240.549
X6.765 Y-240.674
X6.686 Y-240.801
X6.611 Y-240.931
X6.542 Y-241.064
X6.477 Y-241.199
X6.417 Y-241.337
X6.362 Y-241.476
X6.312 Y-241.618
X6.267 Y-241.761
X6.227 Y-241.905
X6.192 Y-242.051
X6.162 Y-242.198
X6.138 Y-242.346
X6.119 Y-242.495
X6.105 Y-242.645
X6.097 Y-242.794
X6.094 Y-242.944
X6.096 Y-243.094
X6.103 Y-243.244
X6.116 Y-243.394
X6.134 Y-243.542
X6.157 Y-243.691
X6.185 Y-243.838
X6.219 Y-243.984
X6.257 Y-244.129
X6.301 Y-244.273
X6.35 Y-244.414
X6.403 Y-244.554
X6.462 Y-244.693
X6.526 Y-244.828
X6.594 Y-244.962
X6.667 Y-245.093
X6.744 Y-245.221
X6.826 Y-245.347
X6.913 Y-245.47
X7.003 Y-245.589
X7.098 Y-245.705
X7.197 Y-245.818
X7.3 Y-245.927
X7.407 Y-246.033
X7.517 Y-246.134
X7.631 Y-246.232
X7.749 Y-246.325
X7.869 Y-246.414
X7.993 Y-246.499
X8.12 Y-246.58
X8.249 Y-246.655
X8.381 Y-246.727
X8.515 Y-246.793
X8.652 Y-246.855
X8.791 Y-246.911
X8.932 Y-246.963
X9.074 Y-247.01
X9.219 Y-247.051
X9.364 Y-247.088
X9.511 Y-247.119
X9.658 Y-247.146
X9.807 Y-247.166
X9.956 Y-247.182
X10.106 Y-247.192
X10.256 Y-247.198
X10.406 Y-247.197
X10.556 Y-247.192
X10.705 Y-247.181
X10.854 Y-247.166
X11.003 Y-247.144
X11.151 Y-247.118
X11.297 Y-247.087
X11.443 Y-247.05
X11.587 Y-247.008
X11.729 Y-246.961
X11.87 Y-246.91
X12.009 Y-246.853
X12.146 Y-246.792
X12.28 Y-246.725
X12.413 Y-246.654
X12.542 Y-246.579
X12.669 Y-246.499
X12.793 Y-246.414
X12.914 Y-246.326
X13.032 Y-246.233
X13.146 Y-246.136
X13.257 Y-246.035
X13.364 Y-245.93
X13.468 Y-245.821
X13.567 Y-245.709
X13.663 Y-245.594
X13.754 Y-245.475
X13.842 Y-245.353
X13.924 Y-245.228
X14.003 Y-245.1
X14.077 Y-244.969
X14.146 Y-244.836
X14.21 Y-244.701
X14.27 Y-244.563
X14.324 Y-244.423
X14.374 Y-244.282
X14.419 Y-244.139
X14.459 Y-243.994
X14.493 Y-243.848
X14.523 Y-243.701
X14.547 Y-243.553
X14.566 Y-243.404
X14.58 Y-243.255
X14.589 Y-243.105
X14.592 Y-242.955
X14.59 Y-242.805
X14.583 Y-242.655
X14.571 Y-242.506
X14.553 Y-242.357
X14.531 Y-242.208
X14.503 Y-242.061
X14.47 Y-241.915
X14.432 Y-241.77
X14.388 Y-241.626
X14.34 Y-241.484
X14.287 Y-241.344
X14.229 Y-241.205
X14.167 Y-241.069
X14.099 Y-240.935
X14.027 Y-240.804
X13.95 Y-240.675
X13.869 Y-240.548
X13.784 Y-240.425
X13.694 Y-240.305
X13.6 Y-240.188
X13.502 Y-240.075
X13.4 Y-239.964
X13.294 Y-239.858
X13.185 Y-239.755
X13.072 Y-239.657
X12.956 Y-239.562
X12.836 Y-239.471
X12.714 Y-239.385
X12.588 Y-239.303
X12.46 Y-239.226
X12.328 Y-239.153
X12.195 Y-239.084
X12.059 Y-239.021
X11.921 Y-238.962
X11.781 Y-238.908
X11.639 Y-238.859
X11.496 Y-238.815
X11.351 Y-238.776
X11.205 Y-238.742
X11.058 Y-238.714
X10.91 Y-238.69
X10.761 Y-238.672
X10.611 Y-238.658
X10.461 Y-238.65
X10.311 Y-238.647
X10.162 Y-238.65
X10.012 Y-238.657
X9.862 Y-238.67
X9.713 Y-238.688
X9.565 Y-238.711
X9.418 Y-238.739
X9.272 Y-238.773
X9.127 Y-238.811
X8.983 Y-238.855
X8.841 Y-238.903
X8.701 Y-238.956
X8.563 Y-239.014
X8.426 Y-239.077
X8.292 Y-239.145
X8.161 Y-239.217
X8.032 Y-239.294
X7.906 Y-239.375
X7.783 Y-239.461
X7.662 Y-239.55
X7.545 Y-239.644
X7.432 Y-239.742
X7.322 Y-239.844
X7.215 Y-239.949
X7.112 Y-240.059
X7.013 Y-240.171
X6.918 Y-240.288
X6.828 Y-240.407
X6.741 Y-240.529
X6.659 Y-240.655
X6.581 Y-240.783
X6.508 Y-240.914
X6.439 Y-241.047
X6.375 Y-241.183
X6.316 Y-241.321
X6.261 Y-241.461
X6.212 Y-241.602
X6.167 Y-241.745
X6.128 Y-241.89
X6.093 Y-242.036
X6.064 Y-242.183
X6.039 Y-242.331
X6.02 Y-242.48
X6.006 Y-242.629
X5.997 Y-242.779
X5.993 Y-242.929
X5.995 Y-243.079
X6.001 Y-243.229
X6.013 Y-243.378
X6.03 Y-243.527
X6.052 Y-243.676
X6.079 Y-243.823
X6.112 Y-243.97
X6.149 Y-244.115
X6.191 Y-244.259
X6.239 Y-244.401
X6.291 Y-244.542
X6.348 Y-244.681
X6.409 Y-244.817
X6.476 Y-244.952
X6.547 Y-245.084
X6.622 Y-245.214
X6.702 Y-245.341
X6.786 Y-245.465
X6.875 Y-245.586
X6.967 Y-245.704
X7.064 Y-245.818
X7.165 Y-245.93
X7.269 Y-246.037
X7.377 Y-246.141
X7.489 Y-246.242
X7.604 Y-246.338
X7.722 Y-246.43
X7.844 Y-246.518
X7.968 Y-246.602
X8.095 Y-246.681
X8.225 Y-246.756
X8.358 Y-246.827
X8.493 Y-246.892
X8.63 Y-246.953
X8.769 Y-247.01
X8.91 Y-247.061
X9.052 Y-247.108
X9.196 Y-247.149
X9.342 Y-247.186
X9.488 Y-247.217
X9.636 Y-247.243
X9.785 Y-247.265
X9.934 Y-247.281
X10.083 Y-247.292
X10.233 Y-247.298
X10.383
X10.533 Y-247.294
X10.683 Y-247.284
X10.832 Y-247.269
X10.981 Y-247.249
X11.129 Y-247.224
X11.276 Y-247.194
X11.422 Y-247.159
X11.566 Y-247.119
X11.709 Y-247.074
X11.851 Y-247.024
X11.99 Y-246.97
X12.128 Y-246.91
X12.264 Y-246.846
X12.397 Y-246.777
X12.528 Y-246.704
X12.656 Y-246.626
X12.782 Y-246.544
X12.904 Y-246.458
X13.024 Y-246.367
X13.14 Y-246.272
X13.253 Y-246.174
X13.363 Y-246.072
X13.469 Y-245.965
X13.571 Y-245.856
X13.67 Y-245.743
X13.764 Y-245.626
X13.855 Y-245.507
X13.941 Y-245.384
X14.023 Y-245.258
X14.101 Y-245.13
X14.174 Y-244.999
X14.243 Y-244.866
X14.307 Y-244.73
X14.366 Y-244.592
X14.42 Y-244.452
X14.47 Y-244.311
X14.515 Y-244.168
X14.555 Y-244.023
X14.59 Y-243.877
X14.619 Y-243.73
X14.644 Y-243.582
X14.664 Y-243.434
X14.678 Y-243.284
X14.688 Y-243.135
X14.692 Y-242.985
Y-242.835
X14.686 Y-242.685
X14.675 Y-242.535
X14.658 Y-242.386
X14.637 Y-242.238
X14.611 Y-242.09
X14.58 Y-241.943
X14.543 Y-241.798
X14.502 Y-241.653
X14.456 Y-241.511
X14.405 Y-241.37
X14.349 Y-241.23
X14.289 Y-241.093
X14.223 Y-240.958
X14.154 Y-240.825
X14.079 Y-240.695
X14.001 Y-240.567
X13.918 Y-240.442
X13.831 Y-240.32
X13.739 Y-240.201
X13.644 Y-240.085
X13.545 Y-239.973
X13.442 Y-239.864
X13.335 Y-239.758
X13.225 Y-239.657
X13.111 Y-239.559
X12.994 Y-239.465
X12.874 Y-239.375
X12.751 Y-239.29
X12.625 Y-239.208
X12.496 Y-239.131
X12.365 Y-239.059
X12.231 Y-238.991
X12.095 Y-238.927
X11.957 Y-238.868
X11.817 Y-238.815
X11.675 Y-238.765
X11.532 Y-238.721
X11.387 Y-238.682
X11.241 Y-238.647
X11.094 Y-238.618
X10.946 Y-238.594
X10.797 Y-238.574
X10.648 Y-238.56
X10.498 Y-238.551
X10.349 Y-238.547
X10.199 Y-238.548
X10.049 Y-238.554
X9.899 Y-238.566
X9.75 Y-238.582
X9.601 Y-238.603
X9.454 Y-238.63
X9.307 Y-238.661
X9.162 Y-238.697
X9.017 Y-238.739
X8.875 Y-238.785
X8.734 Y-238.836
X8.594 Y-238.892
X8.457 Y-238.952
X8.322 Y-239.017
X8.189 Y-239.087
X8.059 Y-239.161
X7.931 Y-239.239
X7.806 Y-239.322
X7.683 Y-239.409
X7.564 Y-239.5
X7.448 Y-239.595
X7.336 Y-239.694
X7.226 Y-239.797
X7.121 Y-239.903
X7.019 Y-240.013
X6.92 Y-240.127
X6.826 Y-240.243
X6.736 Y-240.363
X6.65 Y-240.486
X6.568 Y-240.612
X6.49 Y-240.74
X6.417 Y-240.871
X6.348 Y-241.004
X6.284 Y-241.14
X6.225 Y-241.278
X6.17 Y-241.417
X6.12 Y-241.559
X6.075 Y-241.702
X6.035 Y-241.846
X6. Y-241.992
X5.969 Y-242.139
X5.944 Y-242.287
X5.924 Y-242.436
X5.909 Y-242.585
X5.898 Y-242.734
X5.893 Y-242.884
Y-243.034
X5.898 Y-243.184
X5.908 Y-243.334
X5.923 Y-243.483
X5.944 Y-243.632
X5.969 Y-243.78
X5.999 Y-243.927
X6.034 Y-244.072
X6.074 Y-244.217
X6.119 Y-244.36
X6.168 Y-244.502
X6.223 Y-244.642
X6.282 Y-244.779
X6.345 Y-244.915
X6.413 Y-245.049
X6.486 Y-245.18
X6.563 Y-245.309
X6.644 Y-245.435
X6.73 Y-245.558
X6.82 Y-245.678
X6.913 Y-245.796
X7.011 Y-245.909
X7.112 Y-246.02
X7.217 Y-246.127
X7.326 Y-246.23
X7.438 Y-246.33
X7.553 Y-246.426
X7.672 Y-246.518
X7.794 Y-246.606
X7.918 Y-246.689
X8.046 Y-246.768
X8.175 Y-246.843
X8.308 Y-246.914
X8.443 Y-246.98
X8.579 Y-247.041
X8.718 Y-247.098
X8.859 Y-247.15
X9.001 Y-247.197
X9.145 Y-247.239
X9.291 Y-247.277
X9.437 Y-247.309
X9.584 Y-247.337
X9.733 Y-247.359
X9.882 Y-247.377
X10.031 Y-247.389
X10.181 Y-247.397
X10.331 Y-247.399
X10.481 Y-247.397
X10.631 Y-247.389
X10.78 Y-247.376
X10.929 Y-247.358
X11.077 Y-247.336
X11.225 Y-247.308
X11.371 Y-247.275
X11.517 Y-247.238
X11.66 Y-247.195
X11.803 Y-247.148
X11.944 Y-247.096
X12.082 Y-247.04
X12.219 Y-246.978
X12.354 Y-246.913
X12.487 Y-246.842
X12.617 Y-246.768
X12.744 Y-246.689
X12.869 Y-246.605
X12.991 Y-246.518
X13.11 Y-246.427
X13.226 Y-246.331
X13.338 Y-246.232
X13.447 Y-246.129
X13.553 Y-246.023
X13.655 Y-245.913
X13.753 Y-245.799
X13.848 Y-245.683
X13.938 Y-245.563
X14.024 Y-245.44
X14.106 Y-245.315
X14.184 Y-245.187
X14.258 Y-245.056
X14.327 Y-244.923
X14.391 Y-244.787
X14.451 Y-244.65
X14.506 Y-244.51
X14.557 Y-244.369
X14.603 Y-244.226
X14.644 Y-244.082
X14.68 Y-243.936
X14.711 Y-243.79
X14.737 Y-243.642
X14.758 Y-243.493
X14.774 Y-243.344
X14.786 Y-243.195
X14.792 Y-243.045
X14.793 Y-242.895
X14.789 Y-242.745
X14.78 Y-242.595
X14.767 Y-242.446
X14.748 Y-242.297
X14.724 Y-242.149
X14.695 Y-242.002
X14.662 Y-241.855
X14.623 Y-241.71
X14.58 Y-241.567
X14.532 Y-241.425
X14.479 Y-241.284
X14.422 Y-241.146
X14.36 Y-241.009
X14.294 Y-240.875
X14.223 Y-240.742
X14.147 Y-240.613
X14.068 Y-240.486
X13.984 Y-240.361
X13.896 Y-240.24
X13.804 Y-240.121
X13.708 Y-240.006
X13.608 Y-239.894
X13.505 Y-239.785
X13.398 Y-239.68
X13.288 Y-239.578
X13.174 Y-239.48
X13.057 Y-239.387
X12.937 Y-239.297
X12.814 Y-239.211
X12.688 Y-239.129
X12.56 Y-239.052
X12.429 Y-238.978
X12.295 Y-238.91
X12.16 Y-238.846
X12.022 Y-238.786
X11.883 Y-238.731
X11.741 Y-238.681
X11.598 Y-238.635
X11.454 Y-238.595
X11.308 Y-238.559
X11.161 Y-238.528
X11.014 Y-238.502
X10.865 Y-238.481
X10.716 Y-238.465
X10.566 Y-238.454
X10.417 Y-238.447
X10.267 Y-238.446
X10.117 Y-238.45
X9.967 Y-238.459
X9.818 Y-238.473
X9.669 Y-238.491
X9.521 Y-238.515
X9.373 Y-238.544
X9.227 Y-238.577
X9.082 Y-238.615
X8.938 Y-238.658
X8.796 Y-238.706
X8.656 Y-238.758
X8.517 Y-238.815
X8.38 Y-238.877
X8.246 Y-238.943
X8.113 Y-239.014
X7.983 Y-239.089
X7.856 Y-239.168
X7.731 Y-239.251
X7.609 Y-239.339
X7.49 Y-239.43
X7.375 Y-239.526
X7.262 Y-239.625
X7.153 Y-239.728
X7.047 Y-239.834
X6.945 Y-239.944
X6.847 Y-240.057
X6.752 Y-240.174
X6.662 Y-240.293
X6.575 Y-240.416
X6.493 Y-240.541
X6.415 Y-240.669
X6.341 Y-240.8
X6.271 Y-240.933
X6.206 Y-241.068
X6.146 Y-241.205
X6.09 Y-241.344
X6.039 Y-241.485
X5.992 Y-241.628
X5.95 Y-241.772
X5.913 Y-241.917
X5.881 Y-242.064
X5.854 Y-242.211
X5.832 Y-242.36
X5.814 Y-242.509
X5.802 Y-242.658
X5.794 Y-242.808
X5.792 Y-242.958
X5.794 Y-243.108
X5.802 Y-243.258
X5.814 Y-243.407
X5.831 Y-243.556
X5.853 Y-243.705
X5.88 Y-243.852
X5.912 Y-243.999
X5.949 Y-244.144
X5.99 Y-244.288
X6.036 Y-244.431
X6.087 Y-244.572
X6.143 Y-244.712
X6.203 Y-244.849
X6.267 Y-244.985
X6.336 Y-245.118
X6.409 Y-245.249
X6.487 Y-245.377
X6.569 Y-245.503
X6.655 Y-245.626
X6.745 Y-245.746
X6.838 Y-245.863
X6.936 Y-245.977
X7.037 Y-246.087
X7.142 Y-246.195
X7.251 Y-246.298
X7.362 Y-246.398
X7.478 Y-246.494
X7.596 Y-246.587
X7.717 Y-246.675
X7.841 Y-246.759
X7.968 Y-246.84
X8.097 Y-246.915
X8.229 Y-246.987
X8.363 Y-247.054
X8.5 Y-247.117
X8.638 Y-247.175
X8.778 Y-247.228
X8.92 Y-247.277
X9.063 Y-247.321
X9.208 Y-247.36
X9.354 Y-247.395
X9.501 Y-247.425
X9.649 Y-247.449
X9.798 Y-247.469
X9.947 Y-247.484
X10.097 Y-247.494
X10.246 Y-247.499
X10.396
X10.546 Y-247.495
X10.696 Y-247.485
X10.845 Y-247.47
X10.994 Y-247.451
X11.142 Y-247.426
X11.289 Y-247.397
X11.435 Y-247.363
X11.58 Y-247.324
X11.724 Y-247.281
X11.866 Y-247.233
X12.006 Y-247.18
X12.145 Y-247.122
X12.281 Y-247.061
X12.416 Y-246.994
X12.548 Y-246.923
X12.678 Y-246.848
X12.805 Y-246.769
X12.93 Y-246.686
X13.052 Y-246.598
X13.171 Y-246.507
X13.287 Y-246.412
X13.4 Y-246.313
X13.509 Y-246.21
X13.615 Y-246.104
X13.717 Y-245.995
X13.816 Y-245.882
X13.911 Y-245.766
X14.002 Y-245.646
X14.089 Y-245.524
X14.172 Y-245.399
X14.251 Y-245.272
X14.326 Y-245.142
X14.396 Y-245.009
X14.462 Y-244.874
X14.524 Y-244.738
X14.581 Y-244.599
X14.633 Y-244.458
X14.681 Y-244.316
X14.723 Y-244.172
X14.762 Y-244.027
X14.795 Y-243.881
X14.824 Y-243.734
X14.847 Y-243.586
X14.866 Y-243.437
X14.88 Y-243.287
X14.889 Y-243.138
X14.894 Y-242.988
X14.893 Y-242.838
X14.887 Y-242.688
X14.877 Y-242.538
X14.862 Y-242.389
X14.841 Y-242.24
X14.816 Y-242.093
X14.786 Y-241.946
X14.752 Y-241.8
X14.712 Y-241.655
X14.668 Y-241.512
X14.619 Y-241.37
X14.566 Y-241.229
X14.508 Y-241.091
X14.446 Y-240.955
X14.379 Y-240.82
X14.308 Y-240.688
X14.233 Y-240.559
X14.153 Y-240.432
X14.069 Y-240.307
X13.981 Y-240.185
X13.89 Y-240.067
X13.794 Y-239.951
X13.695 Y-239.839
X13.592 Y-239.729
X13.486 Y-239.624
X13.376 Y-239.521
X13.263 Y-239.423
X13.147 Y-239.328
X13.027 Y-239.237
X12.905 Y-239.15
X12.78 Y-239.067
X12.652 Y-238.989
X12.522 Y-238.914
X12.39 Y-238.844
X12.255 Y-238.778
X12.118 Y-238.717
X11.979 Y-238.66
X11.839 Y-238.608
X11.696 Y-238.56
X11.553 Y-238.517
X11.408 Y-238.479
X11.261 Y-238.445
X11.114 Y-238.417
X10.966 Y-238.393
X10.817 Y-238.374
X10.668 Y-238.36
X10.518 Y-238.35
X10.368 Y-238.346
X10.218
X10.068 Y-238.351
X9.919 Y-238.362
X9.769 Y-238.377
X9.621 Y-238.396
X9.473 Y-238.421
X9.326 Y-238.451
X9.18 Y-238.485
X9.035 Y-238.524
X8.891 Y-238.567
X8.749 Y-238.615
X8.609 Y-238.668
X8.47 Y-238.726
X8.334 Y-238.787
X8.199 Y-238.854
X8.067 Y-238.924
X7.937 Y-238.999
X7.809 Y-239.078
X7.684 Y-239.161
X7.562 Y-239.248
X7.443 Y-239.339
X7.326 Y-239.434
X7.213 Y-239.532
X7.104 Y-239.635
X6.997 Y-239.74
X6.894 Y-239.849
X6.795 Y-239.962
X6.699 Y-240.077
X6.608 Y-240.196
X6.52 Y-240.318
X6.436 Y-240.442
X6.356 Y-240.569
X6.281 Y-240.699
X6.21 Y-240.831
X6.143 Y-240.965
X6.08 Y-241.101
X6.022 Y-241.24
X5.969 Y-241.38
X5.92 Y-241.522
X5.876 Y-241.665
X5.836 Y-241.81
X5.801 Y-241.956
X5.771 Y-242.103
X5.746 Y-242.25
X5.725 Y-242.399
X5.709 Y-242.548
X5.698 Y-242.698
X5.692 Y-242.848
X5.691 Y-242.998
X5.695 Y-243.148
X5.703 Y-243.297
X5.716 Y-243.447
X5.735 Y-243.596
X5.757 Y-243.744
X5.785 Y-243.891
X5.818 Y-244.038
X5.855 Y-244.183
X5.896 Y-244.327
X5.943 Y-244.47
X5.994 Y-244.611
X6.049 Y-244.75
X6.109 Y-244.888
X6.173 Y-245.023
X6.242 Y-245.157
X6.315 Y-245.288
X6.392 Y-245.416
X6.473 Y-245.543
X6.559 Y-245.666
X6.648 Y-245.787
X6.741 Y-245.904
X6.838 Y-246.019
X6.938 Y-246.13
X7.042 Y-246.238
X7.15 Y-246.343
X7.261 Y-246.444
X7.375 Y-246.541
X7.492 Y-246.635
X7.612 Y-246.725
X7.735 Y-246.811
X7.861 Y-246.892
X7.989 Y-246.97
X8.12 Y-247.043
X8.253 Y-247.113
X8.388 Y-247.177
X8.525 Y-247.238
X8.665 Y-247.294
X8.806 Y-247.345
X8.948 Y-247.392
X9.092 Y-247.434
X9.237 Y-247.472
X9.384 Y-247.504
X9.531 Y-247.532
X9.679 Y-247.556
X9.828 Y-247.574
X9.977 Y-247.588
X10.127 Y-247.597
X10.277 Y-247.601
X10.427 Y-247.6
X10.577 Y-247.594
X10.727 Y-247.584
X10.876 Y-247.569
X11.025 Y-247.548
X11.172 Y-247.524
X11.32 Y-247.494
X11.466 Y-247.46
X11.61 Y-247.421
X11.754 Y-247.378
X11.896 Y-247.329
X12.037 Y-247.277
X12.175 Y-247.22
X12.312 Y-247.158
X12.447 Y-247.092
X12.579 Y-247.022
X12.71 Y-246.948
X12.838 Y-246.869
X12.963 Y-246.787
X13.085 Y-246.7
X13.205 Y-246.61
X13.322 Y-246.516
X13.435 Y-246.418
X13.546 Y-246.316
X13.653 Y-246.211
X13.756 Y-246.102
X13.856 Y-245.991
X13.953 Y-245.876
X14.045 Y-245.758
X14.134 Y-245.637
X14.219 Y-245.513
X14.3 Y-245.387
X14.377 Y-245.258
X14.449 Y-245.127
X14.517 Y-244.993
X14.581 Y-244.857
X14.641 Y-244.72
X14.696 Y-244.58
X14.746 Y-244.439
X14.792 Y-244.296
X14.834 Y-244.152
X14.871 Y-244.007
X14.903 Y-243.86
X14.93 Y-243.713
X14.952 Y-243.564
X14.97 Y-243.415
X14.983 Y-243.266
X14.992 Y-243.116
X14.995 Y-242.966
X14.994 Y-242.816
X14.988 Y-242.666
X14.977 Y-242.517
X14.961 Y-242.368
X14.941 Y-242.219
X14.915 Y-242.071
X14.885 Y-241.924
X14.851 Y-241.778
X14.812 Y-241.633
X14.768 Y-241.49
X14.72 Y-241.348
X14.667 Y-241.208
X14.609 Y-241.069
X14.548 Y-240.932
X14.482 Y-240.798
X14.411 Y-240.665
X14.337 Y-240.535
X14.258 Y-240.407
X14.175 Y-240.282
X14.089 Y-240.16
X13.998 Y-240.04
X13.904 Y-239.923
X13.806 Y-239.81
X13.704 Y-239.699
X13.599 Y-239.592
X13.491 Y-239.489
X13.379 Y-239.389
X13.264 Y-239.292
X13.146 Y-239.2
X13.025 Y-239.111
X12.902 Y-239.026
X12.775 Y-238.945
X12.647 Y-238.868
X12.515 Y-238.795
X12.382 Y-238.727
X12.246 Y-238.663
X12.109 Y-238.603
X11.969 Y-238.548
X11.828 Y-238.497
X11.685 Y-238.451
X11.541 Y-238.409
X11.396 Y-238.372
X11.249 Y-238.34
X11.102 Y-238.312
X10.954 Y-238.289
X10.805 Y-238.271
X10.656 Y-238.257
X10.506 Y-238.248
X10.356 Y-238.244
X10.206 Y-238.245
X10.056 Y-238.251
X9.906 Y-238.261
X9.757 Y-238.276
X9.608 Y-238.296
X9.46 Y-238.32
X9.313 Y-238.349
X9.167 Y-238.383
X9.022 Y-238.422
X8.878 Y-238.465
X8.736 Y-238.512
X8.596 Y-238.564
X8.457 Y-238.621
X8.319 Y-238.682
X8.184 Y-238.747
X8.051 Y-238.816
X7.921 Y-238.89
X7.793 Y-238.968
X7.667 Y-239.05
X7.544 Y-239.135
X7.424 Y-239.225
X7.306 Y-239.318
X7.192 Y-239.416
X7.081 Y-239.516
X6.973 Y-239.621
X6.868 Y-239.728
X6.767 Y-239.839
X6.67 Y-239.953
X6.576 Y-240.07
X6.486 Y-240.19
X6.4 Y-240.313
X6.318 Y-240.439
X6.24 Y-240.567
X6.166 Y-240.697
X6.096 Y-240.83
X6.031 Y-240.965
X5.97 Y-241.102
X5.913 Y-241.241
X5.861 Y-241.381
X5.813 Y-241.524
X5.77 Y-241.667
X5.731 Y-241.812
X5.697 Y-241.958
X5.667 Y-242.105
X5.643 Y-242.253
X5.623 Y-242.402
X5.607 Y-242.551
X5.597 Y-242.701
X5.591 Y-242.851
X5.59 Y-243.001
X5.593 Y-243.151
X5.602 Y-243.3
X5.615 Y-243.45
X5.632 Y-243.599
X5.655 Y-243.747
X5.682 Y-243.895
X5.714 Y-244.041
X5.75 Y-244.187
X5.791 Y-244.331
X5.836 Y-244.474
X5.886 Y-244.615
X5.941 Y-244.755
X6. Y-244.893
X6.063 Y-245.029
X6.13 Y-245.163
X6.202 Y-245.295
X6.277 Y-245.425
X6.357 Y-245.552
X6.441 Y-245.676
X6.529 Y-245.798
X6.62 Y-245.917
X6.715 Y-246.032
X6.814 Y-246.145
X6.917 Y-246.255
X7.022 Y-246.361
X7.132 Y-246.464
X7.244 Y-246.564
X7.359 Y-246.659
X7.478 Y-246.752
X7.599 Y-246.84
X7.723 Y-246.924
X7.85 Y-247.005
X7.979 Y-247.081
X8.11 Y-247.153
X8.244 Y-247.221
X8.38 Y-247.285
X8.517 Y-247.344
X8.657 Y-247.399
X8.798 Y-247.45
X8.941 Y-247.496
X9.085 Y-247.537
X9.23 Y-247.574
X9.377 Y-247.607
X9.524 Y-247.634
X9.673 Y-247.657
X9.821 Y-247.676
X9.971 Y-247.689
X10.121 Y-247.698
X10.271 Y-247.702
X10.421
X10.57 Y-247.696
X10.72 Y-247.686
X10.869 Y-247.672
X11.018 Y-247.652
X11.166 Y-247.628
X11.313 Y-247.6
X11.46 Y-247.566
X11.605 Y-247.529
X11.749 Y-247.486
X11.891 Y-247.439
X12.032 Y-247.388
X12.171 Y-247.332
X12.309 Y-247.272
X12.444 Y-247.208
X12.578 Y-247.139
X12.709 Y-247.066
X12.838 Y-246.989
X12.964 Y-246.909
X13.088 Y-246.824
X13.209 Y-246.735
X13.327 Y-246.643
X13.442 Y-246.547
X13.554 Y-246.447
X13.663 Y-246.344
X13.769 Y-246.237
X13.871 Y-246.127
X13.97 Y-246.014
X14.065 Y-245.898
X14.156 Y-245.78
X14.244 Y-245.658
X14.327 Y-245.533
X14.407 Y-245.406
X14.483 Y-245.277
X14.554 Y-245.145
X14.622 Y-245.011
X14.685 Y-244.875
X14.744 Y-244.737
X14.798 Y-244.597
X14.848 Y-244.456
X14.894 Y-244.313
X14.935 Y-244.168
X14.971 Y-244.023
X15.003 Y-243.876
X15.03 Y-243.729
X15.053 Y-243.581
X15.071 Y-243.432
X15.084 Y-243.282
X15.093 Y-243.132
X15.097 Y-242.983
X15.096 Y-242.833
X15.091 Y-242.683
X15.08 Y-242.533
X15.066 Y-242.384
X15.046 Y-242.235
X15.022 Y-242.087
X14.993 Y-241.94
X14.96 Y-241.793
X14.922 Y-241.648
X14.88 Y-241.504
X14.833 Y-241.362
X14.781 Y-241.221
X14.726 Y-241.082
X14.666 Y-240.944
X14.601 Y-240.809
X14.533 Y-240.675
X14.46 Y-240.544
X14.383 Y-240.415
X14.303 Y-240.289
X14.218 Y-240.165
X14.129 Y-240.044
X14.037 Y-239.926
X13.941 Y-239.81
X13.842 Y-239.698
X13.739 Y-239.589
X13.633 Y-239.483
X13.523 Y-239.381
X13.41 Y-239.282
X13.294 Y-239.186
X13.176 Y-239.095
X13.054 Y-239.007
X12.93 Y-238.923
X12.803 Y-238.843
X12.674 Y-238.767
X12.542 Y-238.695
X12.408 Y-238.627
X12.273 Y-238.563
X12.135 Y-238.504
X11.995 Y-238.449
X11.854 Y-238.398
X11.711 Y-238.352
X11.567 Y-238.311
X11.422 Y-238.274
X11.275 Y-238.241
X11.128 Y-238.213
X10.98 Y-238.19
X10.831 Y-238.171
X10.682 Y-238.157
X10.532 Y-238.147
X10.382 Y-238.143
X10.232 Y-238.142
X10.082 Y-238.147
X9.932 Y-238.156
X9.783 Y-238.17
X9.634 Y-238.189
X9.486 Y-238.212
X9.339 Y-238.24
X9.192 Y-238.272
X9.047 Y-238.309
X8.903 Y-238.35
X8.76 Y-238.396
X8.618 Y-238.446
X8.479 Y-238.501
X8.341 Y-238.56
X8.205 Y-238.623
X8.071 Y-238.691
X7.939 Y-238.762
X7.809 Y-238.838
X7.682 Y-238.917
X7.558 Y-239.001
X7.436 Y-239.088
X7.317 Y-239.179
X7.2 Y-239.274
X7.087 Y-239.373
X6.977 Y-239.475
X6.87 Y-239.58
X6.767 Y-239.688
X6.667 Y-239.8
X6.57 Y-239.915
X6.477 Y-240.033
X6.388 Y-240.153
X6.302 Y-240.276
X6.221 Y-240.402
X6.143 Y-240.531
X6.07 Y-240.662
X6. Y-240.795
X5.935 Y-240.93
X5.874 Y-241.067
X5.818 Y-241.206
X5.765 Y-241.346
X5.717 Y-241.488
X5.674 Y-241.632
X5.635 Y-241.777
X5.6 Y-241.923
X5.57 Y-242.07
X5.545 Y-242.217
X5.524 Y-242.366
X5.508 Y-242.515
X5.496 Y-242.665
X5.489 Y-242.814
X5.487 Y-242.964
X5.49 Y-243.114
X5.497 Y-243.264
X5.508 Y-243.414
X5.525 Y-243.563
X5.545 Y-243.711
X5.571 Y-243.859
X5.601 Y-244.006
X5.636 Y-244.152
X5.675 Y-244.297
X5.718 Y-244.441
X5.766 Y-244.583
X5.818 Y-244.723
X5.875 Y-244.862
X5.936 Y-244.999
X6.001 Y-245.134
X6.07 Y-245.267
X6.144 Y-245.398
X6.221 Y-245.527
X6.302 Y-245.653
X6.387 Y-245.776
X6.476 Y-245.897
X6.569 Y-246.015
X6.665 Y-246.13
X6.765 Y-246.242
X6.868 Y-246.351
X6.975 Y-246.457
X7.085 Y-246.559
X7.197 Y-246.658
X7.313 Y-246.753
X7.432 Y-246.844
X7.554 Y-246.932
X7.678 Y-247.016
X7.805 Y-247.096
X7.934 Y-247.173
X8.066 Y-247.245
X8.199 Y-247.313
X8.335 Y-247.376
X8.473 Y-247.436
X8.612 Y-247.491
X8.753 Y-247.542
X8.896 Y-247.589
X9.04 Y-247.631
X9.185 Y-247.668
X9.331 Y-247.701
X9.479 Y-247.73
X9.627 Y-247.754
X9.775 Y-247.773
X9.925 Y-247.788
X10.074 Y-247.798
X10.224 Y-247.804
X10.374 Y-247.805
X10.524 Y-247.801
X10.674 Y-247.793
X10.823 Y-247.78
X10.972 Y-247.762
X11.121 Y-247.74
X11.268 Y-247.713
X11.415 Y-247.682
X11.561 Y-247.646
X11.705 Y-247.606
X11.848 Y-247.561
X11.99 Y-247.512
X12.13 Y-247.459
X12.269 Y-247.401
X12.406 Y-247.34
X12.54 Y-247.274
X12.673 Y-247.203
X12.803 Y-247.129
X12.931 Y-247.051
X13.057 Y-246.969
X13.18 Y-246.883
X13.3 Y-246.794
X13.417 Y-246.7
X13.532 Y-246.603
X13.643 Y-246.503
X13.752 Y-246.399
X13.857 Y-246.292
X13.959 Y-246.182
X14.057 Y-246.069
X14.152 Y-245.952
X14.243 Y-245.833
X14.33 Y-245.711
X14.414 Y-245.587
X14.494 Y-245.46
X14.569 Y-245.33
X14.641 Y-245.199
X14.709 Y-245.065
X14.772 Y-244.929
X14.832 Y-244.791
X14.887 Y-244.652
X14.937 Y-244.51
X14.984 Y-244.368
X15.026 Y-244.224
X15.063 Y-244.078
X15.096 Y-243.932
X15.124 Y-243.785
X15.148 Y-243.637
X15.168 Y-243.488
X15.182 Y-243.339
X15.193 Y-243.189
X15.198 Y-243.039
X15.199 Y-242.889
X15.196 Y-242.739
X15.187 Y-242.589
X15.175 Y-242.44
X15.157 Y-242.291
X15.135 Y-242.143
X15.109 Y-241.995
X15.078 Y-241.848
X15.042 Y-241.702
X15.002 Y-241.558
X14.958 Y-241.415
X14.909 Y-241.273
X14.856 Y-241.132
X14.799 Y-240.994
X14.738 Y-240.857
X14.672 Y-240.722
X14.602 Y-240.589
X14.528 Y-240.459
X14.451 Y-240.33
X14.369 Y-240.205
X14.283 Y-240.081
X14.194 Y-239.961
X14.101 Y-239.843
X14.005 Y-239.728
X13.905 Y-239.616
X13.802 Y-239.507
X13.695 Y-239.402
X13.585 Y-239.3
X13.472 Y-239.201
X13.357 Y-239.106
X13.238 Y-239.014
X13.116 Y-238.926
X12.992 Y-238.842
X12.866 Y-238.761
X12.737 Y-238.685
X12.605 Y-238.612
X12.472 Y-238.544
X12.336 Y-238.48
X12.199 Y-238.42
X12.06 Y-238.364
X11.919 Y-238.312
X11.776 Y-238.265
X11.632 Y-238.222
X11.487 Y-238.184
X11.341 Y-238.15
X11.194 Y-238.121
X11.046 Y-238.096
X10.898 Y-238.075
X10.749 Y-238.06
X10.599 Y-238.048
X10.449 Y-238.042
X10.299 Y-238.04
X10.149 Y-238.042
X9.999 Y-238.049
X9.85 Y-238.061
X9.701 Y-238.077
X9.552 Y-238.098
X9.404 Y-238.123
X9.257 Y-238.152
X9.111 Y-238.187
X8.966 Y-238.225
X8.822 Y-238.268
X8.68 Y-238.316
X8.539 Y-238.367
X8.4 Y-238.423
X8.263 Y-238.483
X8.127 Y-238.548
X7.994 Y-238.616
X7.862 Y-238.688
X7.733 Y-238.765
X7.607 Y-238.845
X7.482 Y-238.929
X7.361 Y-239.017
X7.242 Y-239.108
