(OUTSIDE CUT 1)
(T1  D=6.35 CR=0. - ZMIN=-5.175 - FLAT END MILL)
G90 G94 G91.1 G40 G49 G17
G21
G0 Z15

(BORE1)
M5
T1 M6
S15000 M3
G54
M8
G0 X25.603 Y99.86
G43 Z15. H1
Z3.865
G1 Z2.5 F1600.
Y99.543
G2 X25.4 Y99.339 I-0.203 J0.
Y100.152 Z2.437 I0. J0.406
Y99.339 Z2.375 I0. J-0.406
Y100.152 Z2.312 I0. J0.406
Y99.339 Z2.25 I0. J-0.406
Y100.152 Z2.187 I0. J0.406
Y99.339 Z2.125 I0. J-0.406
Y100.152 Z2.062 I0. J0.406
Y99.339 Z2. I0. J-0.406
Y100.152 Z1.937 I0. J0.406
Y99.339 Z1.875 I0. J-0.406
Y100.152 Z1.812 I0. J0.406
Y99.339 Z1.75 I0. J-0.406
Y100.152 Z1.687 I0. J0.406
Y99.339 Z1.625 I0. J-0.406
Y100.152 Z1.562 I0. J0.406
Y99.339 Z1.5 I0. J-0.406
Y100.152 Z1.437 I0. J0.406
Y99.339 Z1.375 I0. J-0.406
Y100.152 Z1.312 I0. J0.406
Y99.339 Z1.25 I0. J-0.406
Y100.152 Z1.187 I0. J0.406
Y99.339 Z1.125 I0. J-0.406
Y100.152 Z1.062 I0. J0.406
Y99.339 Z1. I0. J-0.406
Y100.152 Z0.937 I0. J0.406
Y99.339 Z0.875 I0. J-0.406
Y100.152 Z0.812 I0. J0.406
Y99.339 Z0.75 I0. J-0.406
Y100.152 Z0.687 I0. J0.406
Y99.339 Z0.625 I0. J-0.406
Y100.152 Z0.562 I0. J0.406
Y99.339 Z0.5 I0. J-0.406
Y100.152 Z0.437 I0. J0.406
Y99.339 Z0.375 I0. J-0.406
Y100.152 Z0.312 I0. J0.406
Y99.339 Z0.25 I0. J-0.406
Y100.152 Z0.187 I0. J0.406
Y99.339 Z0.124 I0. J-0.406
Y100.152 Z0.062 I0. J0.406
Y99.339 Z-0.001 I0. J-0.406
Y100.152 Z-0.063 I0. J0.406
Y99.339 Z-0.126 I0. J-0.406
Y100.152 Z-0.188 I0. J0.406
Y99.339 Z-0.251 I0. J-0.406
Y100.152 Z-0.313 I0. J0.406
Y99.339 Z-0.376 I0. J-0.406
Y100.152 Z-0.438 I0. J0.406
Y99.339 Z-0.501 I0. J-0.406
Y100.152 Z-0.563 I0. J0.406
Y99.339 Z-0.626 I0. J-0.406
Y100.152 Z-0.688 I0. J0.406
Y99.339 Z-0.751 I0. J-0.406
Y100.152 Z-0.813 I0. J0.406
Y99.339 Z-0.876 I0. J-0.406
Y100.152 Z-0.938 I0. J0.406
Y99.339 Z-1.001 I0. J-0.406
Y100.152 Z-1.063 I0. J0.406
Y99.339 Z-1.126 I0. J-0.406
Y100.152 Z-1.188 I0. J0.406
Y99.339 Z-1.251 I0. J-0.406
Y100.152 Z-1.313 I0. J0.406
Y99.339 Z-1.376 I0. J-0.406
Y100.152 Z-1.438 I0. J0.406
Y99.339 Z-1.501 I0. J-0.406
Y100.152 Z-1.563 I0. J0.406
Y99.339 Z-1.626 I0. J-0.406
Y100.152 Z-1.688 I0. J0.406
Y99.339 Z-1.751 I0. J-0.406
Y100.152 Z-1.813 I0. J0.406
Y99.339 Z-1.876 I0. J-0.406
Y100.152 Z-1.938 I0. J0.406
Y99.339 Z-2.001 I0. J-0.406
Y100.152 Z-2.063 I0. J0.406
Y99.339 Z-2.126 I0. J-0.406
Y100.152 Z-2.189 I0. J0.406
Y99.339 Z-2.251 I0. J-0.406
Y100.152 Z-2.314 I0. J0.406
Y99.339 Z-2.376 I0. J-0.406
Y100.152 Z-2.439 I0. J0.406
Y99.339 Z-2.501 I0. J-0.406
Y100.152 Z-2.564 I0. J0.406
Y99.339 Z-2.626 I0. J-0.406
Y100.152 Z-2.689 I0. J0.406
Y99.339 Z-2.751 I0. J-0.406
Y100.152 Z-2.814 I0. J0.406
Y99.339 Z-2.876 I0. J-0.406
Y100.152 Z-2.939 I0. J0.406
Y99.339 Z-3.001 I0. J-0.406
Y100.152 Z-3.064 I0. J0.406
Y99.339 Z-3.126 I0. J-0.406
Y100.152 Z-3.189 I0. J0.406
Y99.339 Z-3.251 I0. J-0.406
Y100.152 Z-3.314 I0. J0.406
Y99.339 Z-3.376 I0. J-0.406
Y100.152 Z-3.439 I0. J0.406
Y99.339 Z-3.501 I0. J-0.406
Y100.152 Z-3.564 I0. J0.406
Y99.339 Z-3.626 I0. J-0.406
Y100.152 Z-3.689 I0. J0.406
Y99.339 Z-3.751 I0. J-0.406
Y100.152 Z-3.814 I0. J0.406
Y99.339 Z-3.876 I0. J-0.406
Y100.152 Z-3.939 I0. J0.406
Y99.339 Z-4.001 I0. J-0.406
Y100.152 Z-4.064 I0. J0.406
Y99.339 Z-4.126 I0. J-0.406
Y100.152 Z-4.189 I0. J0.406
Y99.339 Z-4.251 I0. J-0.406
Y100.152 Z-4.314 I0. J0.406
Y99.339 Z-4.376 I0. J-0.406
Y100.152 Z-4.439 I0. J0.406
Y99.339 Z-4.502 I0. J-0.406
Y100.152 Z-4.564 I0. J0.406
Y99.339 Z-4.627 I0. J-0.406
Y100.152 Z-4.689 I0. J0.406
Y99.339 Z-4.752 I0. J-0.406
Y100.152 Z-4.814 I0. J0.406
Y99.339 Z-4.877 I0. J-0.406
Y100.152 Z-4.939 I0. J0.406
Y99.339 Z-5.002 I0. J-0.406
Y100.152 Z-5.064 I0. J0.406
Y99.339 Z-5.127 I0. J-0.406
X25.134 Y100.053 Z-5.175 I0. J0.406
X25.666 Y99.438 I0.266 J-0.308
X25.134 Y100.053 I-0.266 J0.308
X25.421 Y100.032 I0.133 J-0.154
G1 X25.629 Y99.792
G0 Z5.
X25.603 Y160.973
Z3.865
G1 Z2.5 F1600.
Y160.655
G2 X25.4 Y160.452 I-0.203 J0.
Y161.265 Z2.437 I0. J0.406
Y160.452 Z2.375 I0. J-0.406
Y161.265 Z2.312 I0. J0.406
Y160.452 Z2.25 I0. J-0.406
Y161.265 Z2.187 I0. J0.406
Y160.452 Z2.125 I0. J-0.406
Y161.265 Z2.062 I0. J0.406
Y160.452 Z2. I0. J-0.406
Y161.265 Z1.937 I0. J0.406
Y160.452 Z1.875 I0. J-0.406
Y161.265 Z1.812 I0. J0.406
Y160.452 Z1.75 I0. J-0.406
Y161.265 Z1.687 I0. J0.406
Y160.452 Z1.625 I0. J-0.406
Y161.265 Z1.562 I0. J0.406
Y160.452 Z1.5 I0. J-0.406
Y161.265 Z1.437 I0. J0.406
Y160.452 Z1.375 I0. J-0.406
Y161.265 Z1.312 I0. J0.406
Y160.452 Z1.25 I0. J-0.406
Y161.265 Z1.187 I0. J0.406
Y160.452 Z1.125 I0. J-0.406
Y161.265 Z1.062 I0. J0.406
Y160.452 Z1. I0. J-0.406
Y161.265 Z0.937 I0. J0.406
Y160.452 Z0.875 I0. J-0.406
Y161.265 Z0.812 I0. J0.406
Y160.452 Z0.75 I0. J-0.406
Y161.265 Z0.687 I0. J0.406
Y160.452 Z0.625 I0. J-0.406
Y161.265 Z0.562 I0. J0.406
Y160.452 Z0.5 I0. J-0.406
Y161.265 Z0.437 I0. J0.406
Y160.452 Z0.375 I0. J-0.406
Y161.265 Z0.312 I0. J0.406
Y160.452 Z0.25 I0. J-0.406
Y161.265 Z0.187 I0. J0.406
Y160.452 Z0.124 I0. J-0.406
Y161.265 Z0.062 I0. J0.406
Y160.452 Z-0.001 I0. J-0.406
Y161.265 Z-0.063 I0. J0.406
Y160.452 Z-0.126 I0. J-0.406
Y161.265 Z-0.188 I0. J0.406
Y160.452 Z-0.251 I0. J-0.406
Y161.265 Z-0.313 I0. J0.406
Y160.452 Z-0.376 I0. J-0.406
Y161.265 Z-0.438 I0. J0.406
Y160.452 Z-0.501 I0. J-0.406
Y161.265 Z-0.563 I0. J0.406
Y160.452 Z-0.626 I0. J-0.406
Y161.265 Z-0.688 I0. J0.406
Y160.452 Z-0.751 I0. J-0.406
Y161.265 Z-0.813 I0. J0.406
Y160.452 Z-0.876 I0. J-0.406
Y161.265 Z-0.938 I0. J0.406
Y160.452 Z-1.001 I0. J-0.406
Y161.265 Z-1.063 I0. J0.406
Y160.452 Z-1.126 I0. J-0.406
Y161.265 Z-1.188 I0. J0.406
Y160.452 Z-1.251 I0. J-0.406
Y161.265 Z-1.313 I0. J0.406
Y160.452 Z-1.376 I0. J-0.406
Y161.265 Z-1.438 I0. J0.406
Y160.452 Z-1.501 I0. J-0.406
Y161.265 Z-1.563 I0. J0.406
Y160.452 Z-1.626 I0. J-0.406
Y161.265 Z-1.688 I0. J0.406
Y160.452 Z-1.751 I0. J-0.406
Y161.265 Z-1.813 I0. J0.406
Y160.452 Z-1.876 I0. J-0.406
Y161.265 Z-1.938 I0. J0.406
Y160.452 Z-2.001 I0. J-0.406
Y161.265 Z-2.063 I0. J0.406
Y160.452 Z-2.126 I0. J-0.406
Y161.265 Z-2.189 I0. J0.406
Y160.452 Z-2.251 I0. J-0.406
Y161.265 Z-2.314 I0. J0.406
Y160.452 Z-2.376 I0. J-0.406
Y161.265 Z-2.439 I0. J0.406
Y160.452 Z-2.501 I0. J-0.406
Y161.265 Z-2.564 I0. J0.406
Y160.452 Z-2.626 I0. J-0.406
Y161.265 Z-2.689 I0. J0.406
Y160.452 Z-2.751 I0. J-0.406
Y161.265 Z-2.814 I0. J0.406
Y160.452 Z-2.876 I0. J-0.406
Y161.265 Z-2.939 I0. J0.406
Y160.452 Z-3.001 I0. J-0.406
Y161.265 Z-3.064 I0. J0.406
Y160.452 Z-3.126 I0. J-0.406
Y161.265 Z-3.189 I0. J0.406
Y160.452 Z-3.251 I0. J-0.406
Y161.265 Z-3.314 I0. J0.406
Y160.452 Z-3.376 I0. J-0.406
Y161.265 Z-3.439 I0. J0.406
Y160.452 Z-3.501 I0. J-0.406
Y161.265 Z-3.564 I0. J0.406
Y160.452 Z-3.626 I0. J-0.406
Y161.265 Z-3.689 I0. J0.406
Y160.452 Z-3.751 I0. J-0.406
Y161.265 Z-3.814 I0. J0.406
Y160.452 Z-3.876 I0. J-0.406
Y161.265 Z-3.939 I0. J0.406
Y160.452 Z-4.001 I0. J-0.406
Y161.265 Z-4.064 I0. J0.406
Y160.452 Z-4.126 I0. J-0.406
Y161.265 Z-4.189 I0. J0.406
Y160.452 Z-4.251 I0. J-0.406
Y161.265 Z-4.314 I0. J0.406
Y160.452 Z-4.376 I0. J-0.406
Y161.265 Z-4.439 I0. J0.406
Y160.452 Z-4.502 I0. J-0.406
Y161.265 Z-4.564 I0. J0.406
Y160.452 Z-4.627 I0. J-0.406
Y161.265 Z-4.689 I0. J0.406
Y160.452 Z-4.752 I0. J-0.406
Y161.265 Z-4.814 I0. J0.406
Y160.452 Z-4.877 I0. J-0.406
Y161.265 Z-4.939 I0. J0.406
Y160.452 Z-5.002 I0. J-0.406
Y161.265 Z-5.064 I0. J0.406
Y160.452 Z-5.127 I0. J-0.406
X25.134 Y161.166 Z-5.175 I0. J0.406
X25.666 Y160.551 I0.266 J-0.308
X25.134 Y161.166 I-0.266 J0.308
X25.421 Y161.145 I0.133 J-0.154
G1 X25.629 Y160.904
G0 Z15.

(BORE1 2)
G0 X26.035 Y128.714
Z15.
Z4.5
G1 Z3.135 F1600.
G19 G2 Y128.079 Z2.5 J-0.635 K0.
G1 Y127.762
G17 G2 X25.4 Y127.127 I-0.635 J0.
Y133.477 Z2.389 I0. J3.175
Y127.127 Z2.278 I0. J-3.175
Y133.477 Z2.167 I0. J3.175
Y127.127 Z2.057 I0. J-3.175
Y133.477 Z1.946 I0. J3.175
Y127.127 Z1.835 I0. J-3.175
Y133.477 Z1.724 I0. J3.175
Y127.127 Z1.613 I0. J-3.175
Y133.477 Z1.502 I0. J3.175
Y127.127 Z1.392 I0. J-3.175
Y133.477 Z1.281 I0. J3.175
Y127.127 Z1.17 I0. J-3.175
Y133.477 Z1.059 I0. J3.175
Y127.127 Z0.948 I0. J-3.175
Y133.477 Z0.837 I0. J3.175
Y127.127 Z0.727 I0. J-3.175
Y133.477 Z0.616 I0. J3.175
Y127.127 Z0.505 I0. J-3.175
Y133.477 Z0.394 I0. J3.175
Y127.127 Z0.283 I0. J-3.175
Y133.477 Z0.172 I0. J3.175
Y127.127 Z0.062 I0. J-3.175
Y133.477 Z-0.049 I0. J3.175
Y127.127 Z-0.16 I0. J-3.175
Y133.477 Z-0.271 I0. J3.175
Y127.127 Z-0.382 I0. J-3.175
Y133.477 Z-0.493 I0. J3.175
Y127.127 Z-0.604 I0. J-3.175
Y133.477 Z-0.714 I0. J3.175
Y127.127 Z-0.825 I0. J-3.175
Y133.477 Z-0.936 I0. J3.175
Y127.127 Z-1.047 I0. J-3.175
Y133.477 Z-1.158 I0. J3.175
Y127.127 Z-1.269 I0. J-3.175
Y133.477 Z-1.379 I0. J3.175
Y127.127 Z-1.49 I0. J-3.175
Y133.477 Z-1.601 I0. J3.175
Y127.127 Z-1.712 I0. J-3.175
Y133.477 Z-1.823 I0. J3.175
Y127.127 Z-1.934 I0. J-3.175
Y133.477 Z-2.044 I0. J3.175
Y127.127 Z-2.155 I0. J-3.175
Y133.477 Z-2.266 I0. J3.175
Y127.127 Z-2.377 I0. J-3.175
Y133.477 Z-2.488 I0. J3.175
Y127.127 Z-2.599 I0. J-3.175
Y133.477 Z-2.709 I0. J3.175
Y127.127 Z-2.82 I0. J-3.175
Y133.477 Z-2.931 I0. J3.175
Y127.127 Z-3.042 I0. J-3.175
Y133.477 Z-3.153 I0. J3.175
Y127.127 Z-3.264 I0. J-3.175
Y133.477 Z-3.375 I0. J3.175
Y127.127 Z-3.485 I0. J-3.175
Y133.477 Z-3.596 I0. J3.175
Y127.127 Z-3.707 I0. J-3.175
Y133.477 Z-3.818 I0. J3.175
Y127.127 Z-3.929 I0. J-3.175
Y133.477 Z-4.04 I0. J3.175
Y127.127 Z-4.15 I0. J-3.175
Y133.477 Z-4.261 I0. J3.175
Y127.127 Z-4.372 I0. J-3.175
Y133.477 Z-4.483 I0. J3.175
Y127.127 Z-4.594 I0. J-3.175
Y133.477 Z-4.705 I0. J3.175
Y127.127 Z-4.815 I0. J-3.175
Y133.477 Z-4.926 I0. J3.175
Y127.127 Z-5.037 I0. J-3.175
Y133.477 Z-5.148 I0. J3.175
X27.604 Y132.588 Z-5.175 I0. J-3.175
X23.196 Y128.016 I-2.204 J-2.286
X27.604 Y132.588 I2.204 J2.286
X27.62 Y131.69 I-0.441 J-0.457
G1 X27.4 Y131.461
X27.331 Y131.39 Z-5.167
X27.263 Y131.32 Z-5.144
X27.2 Y131.254 Z-5.106
X27.141 Y131.193 Z-5.054
X27.088 Y131.138 Z-4.989
X27.043 Y131.092 Z-4.913
X27.007 Y131.054 Z-4.828
X26.981 Y131.027 Z-4.736
X26.964 Y131.01 Z-4.639
X26.959 Y131.004 Z-4.54
G0 Z5.
X26.035 Y125.539
Z4.5
G1 Z3.135 F1600.
G19 G2 Y124.905 Z2.5 J-0.635 K0.
G1 Y124.587
G17 G2 X25.4 Y123.952 I-0.635 J0.
Y136.652 Z2.334 I0. J6.35
Y123.952 Z2.167 I0. J-6.35
Y136.652 Z2.001 I0. J6.35
Y123.952 Z1.835 I0. J-6.35
Y136.652 Z1.669 I0. J6.35
Y123.952 Z1.502 I0. J-6.35
Y136.652 Z1.336 I0. J6.35
Y123.952 Z1.17 I0. J-6.35
Y136.652 Z1.004 I0. J6.35
Y123.952 Z0.837 I0. J-6.35
Y136.652 Z0.671 I0. J6.35
Y123.952 Z0.505 I0. J-6.35
Y136.652 Z0.339 I0. J6.35
Y123.952 Z0.172 I0. J-6.35
Y136.652 Z0.006 I0. J6.35
Y123.952 Z-0.16 I0. J-6.35
Y136.652 Z-0.326 I0. J6.35
Y123.952 Z-0.493 I0. J-6.35
Y136.652 Z-0.659 I0. J6.35
Y123.952 Z-0.825 I0. J-6.35
Y136.652 Z-0.991 I0. J6.35
Y123.952 Z-1.158 I0. J-6.35
Y136.652 Z-1.324 I0. J6.35
Y123.952 Z-1.49 I0. J-6.35
Y136.652 Z-1.656 I0. J6.35
Y123.952 Z-1.823 I0. J-6.35
Y136.652 Z-1.989 I0. J6.35
Y123.952 Z-2.155 I0. J-6.35
Y136.652 Z-2.322 I0. J6.35
Y123.952 Z-2.488 I0. J-6.35
Y136.652 Z-2.654 I0. J6.35
Y123.952 Z-2.82 I0. J-6.35
Y136.652 Z-2.987 I0. J6.35
Y123.952 Z-3.153 I0. J-6.35
Y136.652 Z-3.319 I0. J6.35
Y123.952 Z-3.485 I0. J-6.35
Y136.652 Z-3.652 I0. J6.35
Y123.952 Z-3.818 I0. J-6.35
Y136.652 Z-3.984 I0. J6.35
Y123.952 Z-4.15 I0. J-6.35
Y136.652 Z-4.317 I0. J6.35
Y123.952 Z-4.483 I0. J-6.35
Y136.652 Z-4.649 I0. J6.35
Y123.952 Z-4.815 I0. J-6.35
Y136.652 Z-4.982 I0. J6.35
Y123.952 Z-5.148 I0. J-6.35
X22.292 Y124.764 Z-5.175 I0. J6.35
X28.508 Y135.84 I3.108 J5.538
X22.292 Y124.764 I-3.108 J-5.538
X22.049 Y125.629 I0.311 J0.554
G1 X22.205 Y125.906
X22.253 Y125.992 Z-5.167
X22.301 Y126.077 Z-5.144
X22.346 Y126.157 Z-5.106
X22.387 Y126.231 Z-5.054
X22.425 Y126.297 Z-4.989
X22.456 Y126.354 Z-4.913
X22.482 Y126.399 Z-4.828
X22.5 Y126.432 Z-4.736
X22.512 Y126.453 Z-4.639
X22.516 Y126.46 Z-4.54
G0 Z15.
M5
G0 Z15
G0 X0 Y0

M9
M30
