(TEST TENTSIONER SLOT )
(T1  D=3.175 CR=0. - ZMIN=-3.175 - FLAT END MILL)
G90 G94 G91.1 G40 G49 G17
G21
G0 Z15

(2D ADAPTIVE1 2)
M5
T1 M6
S15000 M3
G54
M8
G0 X10.319 Y242.951
G43 Z15. H1
Z5.
Z3.868
G1 Z3.55 F1600.
Z-3.175
Y242.913
X10.291 Y242.939
X10.299 Y242.976
X10.336
X10.348 Y242.941
X10.332 Y242.907
X10.295 Y242.909
X10.276 Y242.942
X10.284 Y242.978
X10.319 Y242.991
X10.355 Y242.98
X10.363 Y242.943
X10.351 Y242.908
X10.317 Y242.892
X10.281 Y242.902
X10.263 Y242.935
X10.265 Y242.972
X10.293 Y242.997
X10.33 Y243.003
X10.365 Y242.99
X10.378 Y242.954
X10.373 Y242.917
X10.347 Y242.89
X10.311 Y242.878
X10.275 Y242.888
X10.253 Y242.918
X10.247 Y242.955
X10.263 Y242.989
X10.293 Y243.012
X10.33 Y243.018
X10.366 Y243.007
X10.387 Y242.976
X10.392 Y242.939
X10.38 Y242.903
X10.353 Y242.877
X10.318 Y242.864
X10.281 Y242.869
X10.251 Y242.892
X10.235 Y242.926
Y242.963
X10.251 Y242.997
X10.279 Y243.022
X10.315 Y243.033
X10.352 Y243.03
X10.383 Y243.008
X10.402 Y242.975
X10.407 Y242.938
X10.397 Y242.902
X10.373 Y242.873
X10.341 Y242.853
X10.304 Y242.849
X10.268 Y242.86
X10.24 Y242.884
X10.222 Y242.917
X10.218 Y242.955
X10.228 Y242.991
X10.251 Y243.021
X10.282 Y243.041
X10.319 Y243.049
X10.356 Y243.044
X10.388 Y243.025
X10.411 Y242.995
X10.422 Y242.959
X10.421 Y242.922
X10.406 Y242.887
X10.382 Y242.859
X10.349 Y242.84
X10.313 Y242.833
X10.276 Y242.839
X10.243 Y242.858
X10.218 Y242.886
X10.204 Y242.921
X10.202 Y242.958
X10.213 Y242.994
X10.233 Y243.026
X10.262 Y243.049
X10.297 Y243.063
X10.334 Y243.066
X10.371 Y243.055
X10.401 Y243.034
X10.424 Y243.004
X10.437 Y242.969
X10.439 Y242.931
X10.43 Y242.895
X10.41 Y242.863
X10.383 Y242.838
X10.349 Y242.821
X10.312 Y242.816
X10.275 Y242.823
X10.241 Y242.839
X10.213 Y242.864
X10.194 Y242.896
X10.185 Y242.933
X10.187 Y242.97
X10.198 Y243.006
X10.22 Y243.037
X10.248 Y243.061
X10.282 Y243.077
X10.319 Y243.083
X10.357 Y243.079
X10.391 Y243.064
X10.42 Y243.04
X10.441 Y243.009
X10.454 Y242.974
X10.457 Y242.937
X10.45 Y242.9
X10.434 Y242.866
X10.41 Y242.837
X10.38 Y242.815
X10.345 Y242.802
X10.307 Y242.799
X10.27 Y242.805
X10.236 Y242.821
X10.207 Y242.844
X10.185 Y242.875
X10.171 Y242.909
X10.166 Y242.947
X10.171 Y242.984
X10.184 Y243.019
X10.206 Y243.05
X10.234 Y243.074
X10.267 Y243.091
X10.304 Y243.1
X10.341
X10.378 Y243.091
X10.411 Y243.073
X10.438 Y243.047
X10.459 Y243.016
X10.472 Y242.981
X10.476 Y242.944
X10.467 Y242.869
X10.422 Y242.809
X10.355 Y242.775
X10.28 Y242.773
X10.211 Y242.803
X10.161 Y242.859
X10.138 Y242.93
X10.146 Y243.005
X10.185 Y243.069
X10.245 Y243.114
X10.318 Y243.131
X10.392 Y243.116
X10.454 Y243.074
X10.494 Y243.01
X10.506 Y242.936
X10.494 Y242.862
X10.454 Y242.799
X10.392 Y242.756
X10.319 Y242.74
X10.245 Y242.753
X10.181 Y242.792
X10.135 Y242.851
X10.11 Y242.922
X10.113 Y242.997
X10.143 Y243.065
X10.195 Y243.12
X10.263 Y243.152
X10.338 Y243.159
X10.41 Y243.138
X10.472 Y243.096
X10.515 Y243.035
X10.536 Y242.963
X10.534 Y242.888
X10.507 Y242.818
X10.457 Y242.762
X10.392 Y242.725
X10.318 Y242.712
X10.243 Y242.722
X10.176 Y242.756
X10.124 Y242.809
X10.089 Y242.876
X10.077 Y242.95
X10.089 Y243.024
X10.124 Y243.09
X10.177 Y243.143
X10.244 Y243.177
X10.318 Y243.19
X10.392 Y243.179
X10.46 Y243.147
X10.515 Y243.096
X10.551 Y243.031
X10.569 Y242.958
X10.564 Y242.883
X10.538 Y242.812
X10.493 Y242.752
X10.432 Y242.708
X10.361 Y242.684
X10.286 Y242.68
X10.214 Y242.699
X10.149 Y242.737
X10.097 Y242.791
X10.063 Y242.858
X10.046 Y242.931
X10.051 Y243.006
X10.077 Y243.076
X10.121 Y243.137
X10.179 Y243.184
X10.248 Y243.213
X10.323 Y243.222
X10.397 Y243.211
X10.465 Y243.18
X10.524 Y243.134
X10.568 Y243.073
X10.595 Y243.003
X10.603 Y242.928
X10.591 Y242.854
X10.561 Y242.785
X10.514 Y242.727
X10.454 Y242.683
X10.384 Y242.656
X10.309 Y242.647
X10.235 Y242.657
X10.165 Y242.685
X10.105 Y242.73
X10.058 Y242.788
X10.026 Y242.856
X10.012 Y242.93
X10.017 Y243.005
X10.041 Y243.076
X10.08 Y243.14
X10.133 Y243.193
X10.198 Y243.231
X10.27 Y243.252
X10.344 Y243.256
X10.418 Y243.24
X10.486 Y243.209
X10.544 Y243.162
X10.59 Y243.102
X10.621 Y243.034
X10.635 Y242.96
X10.633 Y242.885
X10.614 Y242.813
X10.578 Y242.747
X10.527 Y242.692
X10.465 Y242.65
X10.395 Y242.623
X10.321 Y242.612
X10.246 Y242.619
X10.175 Y242.643
X10.11 Y242.681
X10.056 Y242.732
X10.014 Y242.795
X9.987 Y242.865
X9.976 Y242.939
X9.989 Y243.088
X10.074 Y243.212
X10.202 Y243.289
X10.351 Y243.307
X10.495 Y243.265
X10.61 Y243.168
X10.676 Y243.033
X10.686 Y242.884
X10.638 Y242.742
X10.536 Y242.631
X10.4 Y242.57
X10.25 Y242.564
X10.109 Y242.616
X9.999 Y242.718
X9.936 Y242.854
X9.921 Y243.003
X9.966 Y243.146
X10.058 Y243.264
X10.188 Y243.339
X10.336 Y243.362
X10.483 Y243.331
X10.609 Y243.249
X10.697 Y243.128
X10.738 Y242.984
X10.727 Y242.834
X10.668 Y242.696
X10.565 Y242.587
X10.43 Y242.522
X10.281 Y242.505
X10.135 Y242.541
X10.01 Y242.624
X9.921 Y242.744
X9.874 Y242.887
X9.876 Y243.037
X9.925 Y243.179
X10.016 Y243.298
X10.141 Y243.38
X10.287 Y243.417
X10.436 Y243.405
X10.574 Y243.345
X10.685 Y243.245
X10.759 Y243.114
X10.79 Y242.968
X10.777 Y242.818
X10.721 Y242.679
X10.624 Y242.564
X10.497 Y242.486
X10.351 Y242.45
X10.201 Y242.461
X10.062 Y242.517
X9.947 Y242.614
X9.866 Y242.74
X9.822 Y242.883
X9.821 Y243.033
X9.862 Y243.177
X9.942 Y243.304
X10.057 Y243.4
X10.195 Y243.458
X10.345 Y243.474
X10.492 Y243.445
X10.624 Y243.375
X10.732 Y243.27
X10.807 Y243.14
X10.844 Y242.995
X10.841 Y242.845
X10.798 Y242.701
X10.716 Y242.575
X10.603 Y242.477
X10.466 Y242.415
X10.318 Y242.394
X10.169 Y242.414
X10.032 Y242.474
X9.915 Y242.569
X9.827 Y242.69
X9.773 Y242.83
X9.758 Y242.98
X9.781 Y243.128
X9.842 Y243.265
X9.937 Y243.381
X10.06 Y243.466
X10.202 Y243.516
X10.352 Y243.527
X10.499 Y243.5
X10.635 Y243.436
X10.749 Y243.339
X10.836 Y243.217
X10.889 Y243.076
X10.907 Y242.927
X10.887 Y242.779
X10.831 Y242.639
X10.742 Y242.519
X10.624 Y242.426
X10.487 Y242.365
X10.34 Y242.338
X10.19 Y242.35
X10.048 Y242.399
X9.922 Y242.48
X9.82 Y242.59
X9.746 Y242.721
X9.706 Y242.865
X9.701 Y243.015
X9.731 Y243.162
X9.796 Y243.297
X9.891 Y243.413
X10.011 Y243.504
X10.149 Y243.562
X10.297 Y243.587
X10.446 Y243.575
X10.589 Y243.529
X10.717 Y243.451
X10.823 Y243.345
X10.902 Y243.217
X10.95 Y243.075
X10.964 Y242.926
X10.945 Y242.777
X10.894 Y242.636
X10.812 Y242.511
X10.703 Y242.408
X10.573 Y242.332
X10.43 Y242.288
X10.28 Y242.278
X10.132 Y242.302
X9.994 Y242.359
X9.871 Y242.446
X9.771 Y242.558
X9.697 Y242.688
X9.653 Y242.832
X9.64 Y242.981
X9.66 Y243.13
X9.712 Y243.27
X9.793 Y243.396
X9.9 Y243.502
X10.027 Y243.581
X10.169 Y243.63
X10.318 Y243.648
X10.467 Y243.632
X10.609 Y243.584
X10.738 Y243.508
X10.848 Y243.406
X10.935 Y243.283
X10.994 Y243.146
X11.023 Y242.998
X11.021 Y242.848
X10.989 Y242.702
X10.927 Y242.566
X10.837 Y242.445
X10.723 Y242.347
X10.592 Y242.275
X10.448 Y242.231
X10.299 Y242.219
X10.15 Y242.237
X10.008 Y242.285
X9.879 Y242.361
X9.768 Y242.462
X9.68 Y242.584
X9.618 Y242.72
X9.583 Y242.866
X9.579 Y243.016
X9.604 Y243.164
X9.66 Y243.304
X9.742 Y243.429
X9.847 Y243.536
X9.972 Y243.619
X10.11 Y243.677
X10.257 Y243.706
X10.407 Y243.704
X10.554 Y243.673
X10.692 Y243.613
X10.815 Y243.527
X10.919 Y243.42
X11.001 Y243.294
X11.057 Y243.155
X11.085 Y243.007
X11.084 Y242.857
X11.055 Y242.71
X10.999 Y242.571
X10.917 Y242.445
X10.813 Y242.338
X10.689 Y242.252
X10.552 Y242.193
X10.405 Y242.16
X10.255 Y242.157
X10.107 Y242.182
X9.967 Y242.234
X9.839 Y242.313
X9.728 Y242.414
X9.638 Y242.534
X9.571 Y242.668
X9.53 Y242.812
X9.515 Y242.962
X9.528 Y243.111
X9.569 Y243.256
X9.635 Y243.39
X9.726 Y243.509
X9.837 Y243.61
X9.965 Y243.689
X10.105 Y243.742
X10.253 Y243.769
X10.403 Y243.768
X10.55 Y243.739
X10.689 Y243.684
X10.817 Y243.605
X10.929 Y243.504
X11.021 Y243.386
X11.09 Y243.253
X11.134 Y243.11
X11.153 Y242.961
X11.144 Y242.811
X11.109 Y242.665
X11.049 Y242.528
X10.966 Y242.403
X10.861 Y242.296
X10.739 Y242.209
X10.603 Y242.145
X10.458 Y242.106
X10.309 Y242.093
X10.159 Y242.106
X10.015 Y242.145
X9.879 Y242.209
X9.757 Y242.295
X9.651 Y242.402
X9.566 Y242.526
X9.503 Y242.662
X9.464 Y242.807
X9.45 Y242.956
X9.462 Y243.105
X9.499 Y243.251
X9.561 Y243.387
X9.645 Y243.512
X9.749 Y243.62
X9.87 Y243.709
X10.004 Y243.776
X10.148 Y243.819
X10.296 Y243.837
X10.446 Y243.828
X10.592 Y243.795
X10.731 Y243.737
X10.858 Y243.657
X10.97 Y243.557
X11.063 Y243.44
X11.136 Y243.309
X11.186 Y243.167
X11.212 Y243.019
X11.215 Y242.869
X11.192 Y242.721
X11.146 Y242.578
X11.077 Y242.445
X10.986 Y242.326
X10.877 Y242.223
X10.752 Y242.14
X10.615 Y242.078
X10.47 Y242.04
X10.321 Y242.027
X10.171 Y242.037
X10.026 Y242.072
X9.887 Y242.131
X9.76 Y242.211
X9.648 Y242.31
X9.553 Y242.426
X9.477 Y242.555
X9.422 Y242.695
X9.391 Y242.842
X9.383 Y242.991
X9.4 Y243.14
X9.44 Y243.285
X9.503 Y243.421
X9.587 Y243.546
X9.689 Y243.655
X9.808 Y243.747
X9.939 Y243.819
X10.08 Y243.869
X10.228 Y243.897
X10.378 Y243.9
X10.527 Y243.88
X10.67 Y243.837
X10.805 Y243.772
X10.929 Y243.687
X11.037 Y243.583
X11.128 Y243.464
X11.2 Y243.332
X11.25 Y243.191
X11.278 Y243.043
X11.283 Y242.893
X11.265 Y242.745
X11.225 Y242.6
X11.163 Y242.463
X11.081 Y242.338
X10.981 Y242.226
X10.865 Y242.131
X10.735 Y242.056
X10.595 Y242.001
X10.449 Y241.968
X10.299 Y241.958
X10.15 Y241.972
X10.004 Y242.008
X9.866 Y242.065
X9.738 Y242.143
X9.623 Y242.24
X9.523 Y242.352
X9.442 Y242.478
X9.38 Y242.614
X9.338 Y242.758
X9.318 Y242.907
X9.32 Y243.057
X9.345 Y243.205
X9.392 Y243.348
X9.459 Y243.482
X9.546 Y243.604
X9.65 Y243.712
X9.769 Y243.804
X9.9 Y243.877
X10.04 Y243.929
X10.187 Y243.96
X10.337 Y243.969
X10.486 Y243.956
X10.632 Y243.921
X10.771 Y243.865
X10.901 Y243.79
X11.019 Y243.697
X11.122 Y243.588
X11.208 Y243.465
X11.275 Y243.331
X11.322 Y243.189
X11.348 Y243.041
X11.353 Y242.891
X11.336 Y242.742
X11.297 Y242.597
X11.239 Y242.459
X11.161 Y242.331
X11.065 Y242.215
X10.954 Y242.114
X10.83 Y242.03
X10.695 Y241.965
X10.552 Y241.919
X10.404 Y241.895
X10.254 Y241.891
X10.105 Y241.91
X9.96 Y241.949
X9.823 Y242.009
X9.695 Y242.088
X9.58 Y242.184
X9.479 Y242.295
X9.395 Y242.419
X9.329 Y242.554
X9.282 Y242.696
X9.255 Y242.844
X9.249 Y242.994
X9.263 Y243.143
X9.298 Y243.289
X9.353 Y243.428
X9.427 Y243.559
X9.518 Y243.678
X9.625 Y243.783
X9.746 Y243.872
X9.878 Y243.944
X10.019 Y243.996
X10.165 Y244.028
X10.315 Y244.039
X10.464 Y244.029
X10.611 Y244.
X10.753 Y243.95
X10.886 Y243.881
X11.009 Y243.796
X11.12 Y243.694
X11.215 Y243.578
X11.295 Y243.451
X11.356 Y243.314
X11.398 Y243.17
X11.42 Y243.022
X11.422 Y242.872
X11.404 Y242.723
X11.366 Y242.578
X11.308 Y242.439
X11.232 Y242.31
X11.14 Y242.192
X11.032 Y242.088
X10.911 Y241.999
X10.78 Y241.926
X10.64 Y241.872
X10.494 Y241.837
X10.345 Y241.822
X10.195 Y241.827
X10.047 Y241.852
X9.903 Y241.896
X9.767 Y241.959
X9.641 Y242.04
X9.526 Y242.137
X9.426 Y242.248
X9.34 Y242.371
X9.272 Y242.505
X9.222 Y242.646
X9.19 Y242.793
X9.178 Y242.942
X9.186 Y243.092
X9.212 Y243.24
X9.258 Y243.383
X9.322 Y243.518
X9.402 Y243.645
X9.499 Y243.76
X9.609 Y243.861
X9.732 Y243.947
X9.866 Y244.016
X10.007 Y244.066
X10.153 Y244.098
X10.303 Y244.11
X10.453 Y244.103
X10.6 Y244.076
X10.743 Y244.031
X10.879 Y243.967
X11.006 Y243.887
X11.121 Y243.791
X11.224 Y243.682
X11.312 Y243.56
X11.384 Y243.429
X11.438 Y243.289
X11.475 Y243.144
X11.493 Y242.995
X11.492 Y242.845
X11.472 Y242.696
X11.432 Y242.551
X11.375 Y242.413
X11.301 Y242.283
X11.21 Y242.163
X11.105 Y242.056
X10.987 Y241.963
X10.859 Y241.886
X10.721 Y241.825
X10.578 Y241.782
X10.43 Y241.758
X10.28 Y241.752
X10.13 Y241.764
X9.984 Y241.795
X9.842 Y241.845
X9.707 Y241.911
X9.582 Y241.994
X9.469 Y242.092
X9.368 Y242.203
X9.283 Y242.326
X9.213 Y242.459
X9.16 Y242.599
X9.124 Y242.745
X9.107 Y242.894
X9.109 Y243.044
X9.129 Y243.193
X9.166 Y243.338
X9.221 Y243.478
X9.293 Y243.61
X9.38 Y243.732
X9.481 Y243.842
X9.595 Y243.94
X9.72 Y244.023
X9.855 Y244.089
X9.996 Y244.139
X10.143 Y244.17
X10.292 Y244.183
X10.442 Y244.177
X10.59 Y244.154
X10.735 Y244.112
X10.873 Y244.053
X11.002 Y243.978
X11.122 Y243.888
X11.23 Y243.784
X11.326 Y243.668
X11.406 Y243.541
X11.472 Y243.406
X11.52 Y243.265
X11.552 Y243.118
X11.566 Y242.969
X11.562 Y242.819
X11.54 Y242.67
X11.501 Y242.526
X11.444 Y242.387
X11.371 Y242.256
X11.282 Y242.135
X11.18 Y242.025
X11.065 Y241.929
X10.939 Y241.847
X10.805 Y241.78
X10.664 Y241.73
X10.517 Y241.697
X10.368 Y241.681
X10.218 Y241.683
X10.069 Y241.702
X9.924 Y241.738
X9.784 Y241.791
X9.651 Y241.861
X9.527 Y241.945
X9.414 Y242.044
X9.313 Y242.155
X9.226 Y242.277
X9.154 Y242.409
X9.098 Y242.548
X9.059 Y242.693
X9.037 Y242.841
X9.033 Y242.991
X9.045 Y243.141
X9.075 Y243.288
X9.122 Y243.43
X9.185 Y243.567
X9.262 Y243.695
X9.354 Y243.814
X9.459 Y243.921
X9.575 Y244.015
X9.702 Y244.096
X9.837 Y244.161
X9.979 Y244.21
X10.125 Y244.242
X10.275 Y244.256
X10.425 Y244.253
X10.573 Y244.233
X10.719 Y244.196
X10.859 Y244.142
X10.991 Y244.072
X11.115 Y243.988
X11.229 Y243.89
X11.331 Y243.78
X11.42 Y243.659
X11.495 Y243.529
X11.556 Y243.392
X11.6 Y243.249
X11.629 Y243.101
X11.64 Y242.952
X11.635 Y242.802
X11.613 Y242.654
X11.574 Y242.509
X11.518 Y242.369
X11.447 Y242.237
X11.361 Y242.114
X11.262 Y242.002
X11.151 Y241.901
X11.029 Y241.814
X10.898 Y241.741
X10.759 Y241.683
X10.615 Y241.641
X10.467 Y241.616
X10.318 Y241.606
X10.168 Y241.613
X10.02 Y241.637
X9.875 Y241.677
X9.736 Y241.732
X9.603 Y241.803
X9.48 Y241.888
X9.366 Y241.986
X9.265 Y242.096
X9.176 Y242.217
X9.101 Y242.347
X9.041 Y242.485
X8.997 Y242.628
X8.969 Y242.775
X8.958 Y242.925
X8.963 Y243.075
X8.984 Y243.223
X9.022 Y243.368
X9.075 Y243.509
X9.142 Y243.643
X9.224 Y243.769
X9.319 Y243.885
X9.425 Y243.99
X9.543 Y244.084
X9.67 Y244.163
X9.805 Y244.229
X9.946 Y244.279
X10.093 Y244.313
X10.241 Y244.33
X10.391 Y244.331
X10.541 Y244.315
X10.687 Y244.283
X10.829 Y244.235
X10.966 Y244.172
X11.094 Y244.095
X11.213 Y244.004
X11.323 Y243.901
X11.42 Y243.787
X11.505 Y243.664
X11.577 Y243.532
X11.634 Y243.394
X11.677 Y243.25
X11.704 Y243.102
X11.715 Y242.953
X11.711 Y242.803
X11.69 Y242.654
X11.653 Y242.509
X11.601 Y242.368
X11.533 Y242.234
X11.452 Y242.108
X11.357 Y241.992
X11.25 Y241.887
X11.133 Y241.793
X11.006 Y241.713
X10.871 Y241.647
X10.73 Y241.595
X10.585 Y241.559
X10.436 Y241.538
X10.287 Y241.532
X10.137 Y241.542
X9.989 Y241.567
X9.845 Y241.608
X9.705 Y241.663
X9.572 Y241.733
X9.448 Y241.816
X9.333 Y241.913
X9.229 Y242.02
X9.136 Y242.139
X9.057 Y242.266
X8.992 Y242.401
X8.942 Y242.543
X8.907 Y242.689
X8.887 Y242.837
X8.883 Y242.987
X8.894 Y243.137
X8.921 Y243.284
X8.963 Y243.428
X9.019 Y243.568
X9.089 Y243.7
X9.172 Y243.825
X9.267 Y243.941
X9.374 Y244.046
X9.491 Y244.14
X9.617 Y244.221
X9.751 Y244.289
X9.891 Y244.342
X10.037 Y244.38
X10.185 Y244.402
X10.335 Y244.409
X10.485 Y244.4
X10.632 Y244.375
X10.777 Y244.335
X10.917 Y244.28
X11.05 Y244.212
X11.176 Y244.13
X11.292 Y244.035
X11.399 Y243.93
X11.495 Y243.814
X11.578 Y243.69
X11.649 Y243.558
X11.706 Y243.419
X11.75 Y243.275
X11.778 Y243.128
X11.792 Y242.979
X11.79 Y242.829
X11.773 Y242.68
X11.74 Y242.533
X11.693 Y242.391
X11.631 Y242.254
X11.555 Y242.125
X11.467 Y242.004
X11.366 Y241.892
X11.255 Y241.792
X11.134 Y241.703
X11.005 Y241.627
X10.869 Y241.564
X10.727 Y241.515
X10.581 Y241.481
X10.432 Y241.461
X10.282 Y241.455
X10.133 Y241.465
X9.984 Y241.489
X9.84 Y241.528
X9.699 Y241.581
X9.565 Y241.648
X9.438 Y241.728
X9.32 Y241.82
X9.212 Y241.924
X9.115 Y242.038
X9.029 Y242.162
X8.957 Y242.293
X8.899 Y242.431
X8.854 Y242.575
X8.824 Y242.722
X8.809 Y242.871
X8.808 Y243.021
X8.822 Y243.17
X8.85 Y243.317
X8.893 Y243.461
X8.949 Y243.6
X9.019 Y243.733
X9.101 Y243.859
X9.194 Y243.976
X9.299 Y244.083
X9.414 Y244.18
X9.538 Y244.265
X9.669 Y244.336
X9.808 Y244.395
X9.951 Y244.439
X10.098 Y244.469
X10.247 Y244.484
X10.397 Y244.483
X10.546 Y244.468
X10.693 Y244.439
X10.837 Y244.395
X10.975 Y244.337
X11.108 Y244.266
X11.232 Y244.183
X11.349 Y244.088
X11.455 Y243.983
X11.552 Y243.868
X11.636 Y243.744
X11.709 Y243.613
X11.769 Y243.475
X11.816 Y243.333
X11.848 Y243.186
X11.867 Y243.038
X11.871 Y242.888
X11.86 Y242.738
X11.834 Y242.59
X11.795 Y242.446
X11.741 Y242.305
X11.674 Y242.171
X11.594 Y242.045
X11.502 Y241.926
X11.399 Y241.817
X11.286 Y241.718
X11.164 Y241.631
X11.034 Y241.555
X10.898 Y241.493
X10.756 Y241.443
X10.611 Y241.407
X10.462 Y241.385
X10.313 Y241.377
X10.163 Y241.383
X10.014 Y241.403
X9.868 Y241.437
X9.726 Y241.485
X9.589 Y241.546
X9.458 Y241.62
X9.336 Y241.706
X9.222 Y241.804
X9.118 Y241.912
X9.025 Y242.03
X8.943 Y242.156
X8.874 Y242.289
X8.818 Y242.428
X8.775 Y242.572
X8.746 Y242.719
X8.731 Y242.868
X8.73 Y243.018
X8.743 Y243.168
X8.769 Y243.315
X8.809 Y243.46
X8.863 Y243.6
X8.928 Y243.735
X9.007 Y243.863
X9.096 Y243.983
X9.197 Y244.094
X9.307 Y244.196
X9.427 Y244.286
X9.555 Y244.365
X9.689 Y244.431
X9.83 Y244.484
X9.974 Y244.524
X10.122 Y244.55
X10.272 Y244.562
X10.422 Y244.559
X10.571 Y244.543
X10.718 Y244.512
X10.861 Y244.469
X11. Y244.412
X11.133 Y244.342
X11.259 Y244.261
X11.377 Y244.169
X11.486 Y244.066
X11.585 Y243.954
X11.674 Y243.833
X11.752 Y243.704
X11.817 Y243.569
X11.87 Y243.429
X11.91 Y243.284
X11.936 Y243.136
X11.948 Y242.987
X11.947 Y242.837
X11.932 Y242.688
X11.902 Y242.541
X11.86 Y242.397
X11.804 Y242.257
X11.736 Y242.124
X11.655 Y241.997
X11.564 Y241.879
X11.462 Y241.769
X11.35 Y241.669
X11.229 Y241.579
X11.101 Y241.501
X10.967 Y241.435
X10.826 Y241.382
X10.682 Y241.341
X10.535 Y241.313
X10.385 Y241.299
X10.235 Y241.298
X10.086 Y241.311
X9.938 Y241.337
X9.794 Y241.377
X9.653 Y241.43
X9.518 Y241.495
X9.389 Y241.572
X9.268 Y241.66
X9.156 Y241.76
X9.053 Y241.869
X8.96 Y241.986
X8.878 Y242.112
X8.808 Y242.245
X8.75 Y242.383
X8.705 Y242.526
X8.673 Y242.673
X8.654 Y242.822
X8.649 Y242.972
X8.657 Y243.121
X8.678 Y243.27
X8.712 Y243.416
X8.759 Y243.558
X8.818 Y243.696
X8.89 Y243.828
X8.973 Y243.953
X9.066 Y244.07
X9.17 Y244.179
X9.283 Y244.277
X9.404 Y244.365
X9.533 Y244.442
X9.668 Y244.507
X9.809 Y244.56
X9.953 Y244.6
X10.101 Y244.626
X10.25 Y244.64
X10.4
X10.55 Y244.626
X10.697 Y244.6
X10.842 Y244.56
X10.983 Y244.507
X11.118 Y244.443
X11.247 Y244.367
X11.369 Y244.279
X11.483 Y244.182
X11.588 Y244.075
X11.683 Y243.959
X11.768 Y243.835
X11.842 Y243.704
X11.904 Y243.568
X11.954 Y243.426
X11.991 Y243.281
X12.016 Y243.133
X12.027 Y242.984
X12.026 Y242.834
X12.011 Y242.684
X11.983 Y242.537
X11.942 Y242.392
X11.889 Y242.252
X11.824 Y242.117
X11.747 Y241.989
X11.658 Y241.867
X11.56 Y241.754
X11.452 Y241.65
X11.335 Y241.556
X11.211 Y241.472
X11.08 Y241.399
X10.943 Y241.338
X10.801 Y241.289
X10.655 Y241.253
X10.507 Y241.229
X10.358 Y241.218
X10.208 Y241.22
X10.058 Y241.235
X9.911 Y241.262
X9.766 Y241.302
X9.626 Y241.355
X9.49 Y241.419
X9.361 Y241.495
X9.239 Y241.582
X9.124 Y241.679
X9.019 Y241.786
X8.923 Y241.901
X8.837 Y242.024
X8.763 Y242.154
X8.7 Y242.29
X8.649 Y242.431
X8.61 Y242.576
X8.584 Y242.724
X8.57 Y242.873
X8.569 Y243.023
X8.581 Y243.173
X8.606 Y243.321
X8.643 Y243.466
X8.692 Y243.608
X8.753 Y243.745
X8.826 Y243.876
X8.909 Y244.001
X9.002 Y244.118
X9.105 Y244.227
X9.217 Y244.327
X9.337 Y244.417
X9.465 Y244.497
X9.598 Y244.565
X9.737 Y244.621
X9.881 Y244.665
X10.027 Y244.697
X10.176 Y244.716
X10.326 Y244.723
X10.476 Y244.716
X10.625 Y244.697
X10.771 Y244.665
X10.914 Y244.62
X11.053 Y244.564
X11.187 Y244.496
X11.315 Y244.418
X11.436 Y244.329
X11.549 Y244.23
X11.653 Y244.122
X11.748 Y244.006
X11.833 Y243.882
X11.907 Y243.752
X11.971 Y243.616
X12.023 Y243.476
X12.063 Y243.331
X12.091 Y243.184
X12.106 Y243.035
X12.109 Y242.885
X12.099 Y242.735
X12.077 Y242.587
X12.042 Y242.441
X11.995 Y242.298
X11.937 Y242.16
X11.866 Y242.028
X11.785 Y241.902
X11.694 Y241.783
X11.593 Y241.672
X11.483 Y241.57
X11.364 Y241.477
X11.239 Y241.395
X11.107 Y241.323
X10.97 Y241.263
X10.828 Y241.214
X10.683 Y241.176
X10.535 Y241.151
X10.386 Y241.138
X10.236 Y241.137
X10.086 Y241.149
X9.938 Y241.173
X9.792 Y241.209
X9.65 Y241.257
X9.513 Y241.316
X9.38 Y241.387
X9.254 Y241.468
X9.136 Y241.56
X9.025 Y241.661
X8.923 Y241.771
X8.83 Y241.889
X8.748 Y242.015
X8.676 Y242.146
X8.615 Y242.283
X8.566 Y242.425
X8.529 Y242.57
X8.503 Y242.718
X8.49 Y242.868
X8.488 Y243.018
X8.499 Y243.167
X8.522 Y243.315
X8.557 Y243.461
X8.604 Y243.604
X8.661 Y243.742
X8.73 Y243.876
X8.81 Y244.003
X8.899 Y244.123
X8.998 Y244.236
X9.106 Y244.34
X9.222 Y244.435
X9.345 Y244.521
X9.475 Y244.595
X9.611 Y244.659
X9.751 Y244.712
X9.896 Y244.753
X10.043 Y244.782
X10.192 Y244.799
X10.342 Y244.803
X10.492 Y244.796
X10.64 Y244.776
X10.787 Y244.744
X10.931 Y244.7
X11.07 Y244.646
X11.205 Y244.58
X11.334 Y244.503
X11.456 Y244.417
X11.572 Y244.321
X11.679 Y244.216
X11.777 Y244.103
X11.867 Y243.982
X11.946 Y243.855
X12.015 Y243.721
X12.073 Y243.583
X12.12 Y243.441
X12.155 Y243.295
X12.179 Y243.147
X12.19 Y242.997
Y242.847
X12.177 Y242.698
X12.153 Y242.55
X12.116 Y242.404
X12.068 Y242.262
X12.009 Y242.124
X11.939 Y241.992
X11.859 Y241.865
X11.768 Y241.745
X11.669 Y241.633
X11.56 Y241.529
X11.444 Y241.434
X11.321 Y241.349
X11.191 Y241.274
X11.056 Y241.209
X10.916 Y241.155
X10.772 Y241.112
X10.626 Y241.081
X10.477 Y241.061
X10.327 Y241.053
X10.177 Y241.057
X10.028 Y241.073
X9.88 Y241.101
X9.736 Y241.14
X9.594 Y241.191
X9.458 Y241.252
X9.326 Y241.324
X9.201 Y241.407
X9.082 Y241.499
X8.971 Y241.6
X8.869 Y241.709
X8.775 Y241.826
X8.691 Y241.951
X8.617 Y242.081
X8.554 Y242.217
X8.501 Y242.357
X8.46 Y242.502
X8.43 Y242.649
X8.411 Y242.797
X8.404 Y242.947
X8.409 Y243.097
X8.426 Y243.246
X8.454 Y243.394
X8.493 Y243.538
X8.544 Y243.68
X8.605 Y243.817
X8.677 Y243.948
X8.759 Y244.074
X8.85 Y244.193
X8.95 Y244.305
X9.059 Y244.408
X9.175 Y244.503
X9.299 Y244.588
X9.428 Y244.663
X9.564 Y244.728
X9.703 Y244.782
X9.847 Y244.825
X9.994 Y244.857
X10.142 Y244.877
X10.292 Y244.886
X10.442 Y244.882
X10.591 Y244.868
X10.739 Y244.841
X10.884 Y244.803
X11.026 Y244.754
X11.164 Y244.694
X11.296 Y244.624
X11.423 Y244.544
X11.543 Y244.454
X11.656 Y244.356
X11.761 Y244.249
X11.858 Y244.134
X11.946 Y244.012
X12.024 Y243.884
X12.092 Y243.751
X12.15 Y243.612
X12.197 Y243.47
X12.233 Y243.324
X12.258 Y243.177
X12.271 Y243.027
X12.273 Y242.877
X12.264 Y242.727
X12.243 Y242.579
X12.21 Y242.432
X12.167 Y242.289
X12.112 Y242.149
X12.047 Y242.014
X11.972 Y241.884
X11.887 Y241.761
X11.792 Y241.644
X11.689 Y241.535
X11.578 Y241.434
X11.46 Y241.342
X11.335 Y241.26
X11.204 Y241.186
X11.067 Y241.124
X10.927 Y241.071
X10.783 Y241.029
X10.636 Y240.999
X10.487 Y240.979
X10.338 Y240.971
X10.188 Y240.974
X10.038 Y240.989
X9.89 Y241.014
X9.745 Y241.051
X9.603 Y241.098
X9.464 Y241.157
X9.331 Y241.225
X9.203 Y241.303
X9.082 Y241.391
X8.967 Y241.488
X8.86 Y241.594
X8.762 Y241.707
X8.672 Y241.827
X8.592 Y241.954
X8.521 Y242.086
X8.461 Y242.223
X8.411 Y242.365
X8.372 Y242.51
X8.344 Y242.657
X8.327 Y242.806
X8.321 Y242.956
X8.327 Y243.106
X8.343 Y243.255
X8.371 Y243.402
X8.409 Y243.547
X8.458 Y243.689
X8.518 Y243.827
X8.587 Y243.96
X8.666 Y244.087
X8.755 Y244.208
X8.852 Y244.322
X8.957 Y244.429
X9.071 Y244.528
X9.191 Y244.617
X9.318 Y244.698
X9.45 Y244.768
X9.587 Y244.829
X9.729 Y244.879
X9.873 Y244.918
X10.021 Y244.946
X10.17 Y244.963
X10.32 Y244.969
X10.469 Y244.964
X10.619 Y244.948
X10.766 Y244.92
X10.911 Y244.882
X11.053 Y244.833
X11.191 Y244.774
X11.324 Y244.704
X11.451 Y244.625
X11.573 Y244.537
X11.687 Y244.441
X11.795 Y244.336
X11.894 Y244.223
X11.985 Y244.104
X12.067 Y243.979
X12.139 Y243.847
X12.202 Y243.711
X12.254 Y243.57
X12.296 Y243.426
X12.328 Y243.28
X12.348 Y243.131
X12.358 Y242.981
X12.356 Y242.831
X12.343 Y242.682
X12.32 Y242.534
X12.285 Y242.388
X12.24 Y242.245
X12.184 Y242.106
X12.118 Y241.971
X12.043 Y241.841
X11.958 Y241.717
X11.864 Y241.6
X11.762 Y241.49
X11.652 Y241.388
X11.535 Y241.294
X11.412 Y241.209
X11.283 Y241.133
X11.148 Y241.067
X11.009 Y241.01
X10.866 Y240.964
X10.721 Y240.929
X10.573 Y240.904
X10.423 Y240.889
X10.273 Y240.886
X10.124 Y240.894
X9.975 Y240.912
X9.828 Y240.941
X9.683 Y240.981
X9.542 Y241.031
X9.404 Y241.092
X9.272 Y241.162
X9.145 Y241.242
X9.024 Y241.33
X8.91 Y241.428
X8.803 Y241.533
X8.704 Y241.646
X8.613 Y241.765
X8.532 Y241.891
X8.459 Y242.022
X8.397 Y242.159
X8.344 Y242.299
X8.302 Y242.443
X8.27 Y242.59
X8.248 Y242.738
X8.238 Y242.888
Y243.038
X8.249 Y243.187
X8.27 Y243.336
X8.302 Y243.482
X8.345 Y243.626
X8.398 Y243.767
X8.46 Y243.903
X8.532 Y244.034
X8.614 Y244.16
X8.704 Y244.28
X8.803 Y244.393
X8.909 Y244.499
X9.023 Y244.597
X9.143 Y244.686
X9.27 Y244.767
X9.402 Y244.838
X9.539 Y244.899
X9.679 Y244.951
X9.824 Y244.992
X9.97 Y245.023
X10.119 Y245.043
X10.269 Y245.053
X10.419 Y245.052
X10.568 Y245.04
X10.717 Y245.017
X10.863 Y244.984
X11.006 Y244.94
X11.146 Y244.887
X11.282 Y244.823
X11.414 Y244.751
X11.539 Y244.669
X11.659 Y244.578
X11.771 Y244.479
X11.877 Y244.372
X11.975 Y244.259
X12.064 Y244.138
X12.145 Y244.012
X12.217 Y243.88
X12.28 Y243.744
X12.332 Y243.604
X12.375 Y243.46
X12.407 Y243.313
X12.429 Y243.165
X12.441 Y243.015
X12.442 Y242.865
X12.432 Y242.716
X12.412 Y242.567
X12.381 Y242.42
X12.34 Y242.276
X12.289 Y242.135
X12.228 Y241.998
X12.157 Y241.866
X12.078 Y241.739
X11.989 Y241.617
X11.892 Y241.503
X11.787 Y241.395
X11.675 Y241.296
X11.557 Y241.204
X11.432 Y241.121
X11.301 Y241.047
X11.166 Y240.982
X11.027 Y240.927
X10.884 Y240.881
X10.738 Y240.846
X10.59 Y240.821
X10.441 Y240.806
X10.291 Y240.801
X10.141 Y240.808
X9.992 Y240.824
X9.844 Y240.851
X9.699 Y240.888
X9.557 Y240.935
X9.418 Y240.992
X9.283 Y241.058
X9.154 Y241.134
X9.03 Y241.218
X8.912 Y241.311
X8.801 Y241.412
X8.698 Y241.521
X8.602 Y241.636
X8.514 Y241.758
X8.436 Y241.886
X8.366 Y242.018
X8.306 Y242.156
X8.255 Y242.297
X8.214 Y242.441
X8.183 Y242.588
X8.163 Y242.737
X8.153 Y242.886
Y243.036
X8.163 Y243.186
X8.184 Y243.335
X8.215 Y243.481
X8.255 Y243.626
X8.306 Y243.767
X8.366 Y243.904
X8.436 Y244.037
X8.514 Y244.165
X8.601 Y244.287
X8.696 Y244.403
X8.799 Y244.512
X8.909 Y244.614
X9.026 Y244.708
X9.149 Y244.794
X9.278 Y244.87
X9.412 Y244.938
X9.55 Y244.997
X9.692 Y245.045
X9.837 Y245.084
X9.984 Y245.112
X10.133 Y245.131
X10.283 Y245.139
X10.433 Y245.136
X10.583 Y245.124
X10.731 Y245.101
X10.877 Y245.068
X11.021 Y245.025
X11.161 Y244.973
X11.298 Y244.911
X11.43 Y244.84
X11.557 Y244.76
X11.678 Y244.671
X11.793 Y244.575
X11.901 Y244.471
X12.002 Y244.36
X12.096 Y244.243
X12.181 Y244.119
X12.257 Y243.99
X12.325 Y243.856
X12.383 Y243.718
X12.432 Y243.576
X12.471 Y243.431
X12.5 Y243.284
X12.519 Y243.135
X12.528 Y242.986
X12.527 Y242.836
X12.515 Y242.686
X12.494 Y242.538
X12.462 Y242.391
X12.42 Y242.247
X12.369 Y242.106
X12.308 Y241.969
X12.238 Y241.836
X12.16 Y241.708
X12.073 Y241.586
X11.977 Y241.47
X11.874 Y241.361
X11.764 Y241.259
X11.648 Y241.165
X11.525 Y241.079
X11.397 Y241.001
X11.264 Y240.932
X11.126 Y240.872
X10.985 Y240.821
X10.841 Y240.78
X10.694 Y240.749
X10.545 Y240.728
X10.396 Y240.717
X10.246 Y240.716
X10.096 Y240.724
X9.947 Y240.743
X9.8 Y240.772
X9.655 Y240.811
X9.513 Y240.859
X9.375 Y240.917
X9.241 Y240.984
X9.111 Y241.06
X8.987 Y241.144
X8.869 Y241.236
X8.757 Y241.336
X8.652 Y241.444
X8.555 Y241.558
X8.465 Y241.678
X8.384 Y241.804
X8.311 Y241.935
X8.248 Y242.071
X8.193 Y242.211
X8.148 Y242.354
X8.112 Y242.5
X8.087 Y242.647
X8.071 Y242.796
X8.065 Y242.946
X8.069 Y243.096
X8.083 Y243.246
X8.106 Y243.394
X8.14 Y243.54
X8.183 Y243.684
X8.236 Y243.824
X8.297 Y243.961
X8.368 Y244.093
X8.447 Y244.221
X8.535 Y244.342
X8.63 Y244.458
X8.733 Y244.568
X8.842 Y244.67
X8.959 Y244.764
X9.081 Y244.851
X9.209 Y244.93
X9.342 Y245.
X9.479 Y245.06
X9.62 Y245.112
X9.764 Y245.154
X9.91 Y245.187
X10.058 Y245.21
X10.208 Y245.222
X10.358 Y245.225
X10.508 Y245.218
X10.657 Y245.202
X10.804 Y245.175
X10.95 Y245.138
X11.093 Y245.093
X11.232 Y245.037
X11.368 Y244.973
X11.499 Y244.9
X11.625 Y244.819
X11.745 Y244.729
X11.859 Y244.632
X11.967 Y244.528
X12.068 Y244.417
X12.161 Y244.299
X12.247 Y244.176
X12.324 Y244.047
X12.393 Y243.914
X12.453 Y243.777
X12.503 Y243.635
X12.545 Y243.491
X12.577 Y243.345
X12.599 Y243.196
X12.612 Y243.047
X12.615 Y242.897
X12.608 Y242.747
X12.591 Y242.598
X12.565 Y242.45
X12.529 Y242.305
X12.483 Y242.162
X12.429 Y242.022
X12.365 Y241.886
X12.292 Y241.755
X12.211 Y241.629
X12.122 Y241.508
X12.025 Y241.394
X11.921 Y241.286
X11.811 Y241.184
X11.693 Y241.091
X11.571 Y241.005
X11.442 Y240.927
X11.309 Y240.858
X11.172 Y240.797
X11.031 Y240.746
X10.887 Y240.703
X10.741 Y240.67
X10.593 Y240.647
X10.443 Y240.633
X10.294 Y240.628
X10.144 Y240.634
X9.994 Y240.649
X9.846 Y240.673
X9.7 Y240.708
X9.557 Y240.751
X9.416 Y240.804
X9.28 Y240.865
X9.147 Y240.936
X9.02 Y241.015
X8.897 Y241.101
X8.781 Y241.196
X8.671 Y241.298
X8.568 Y241.407
X8.472 Y241.522
X8.383 Y241.643
X8.303 Y241.77
X8.231 Y241.902
X8.168 Y242.038
X8.113 Y242.177
X8.067 Y242.32
X8.031 Y242.466
X8.004 Y242.613
X7.987 Y242.762
X7.979 Y242.912
X7.98 Y243.062
X7.991 Y243.212
X8.012 Y243.36
X8.042 Y243.507
X8.082 Y243.652
X8.13 Y243.794
X8.187 Y243.932
X8.254 Y244.067
X8.328 Y244.197
X8.411 Y244.322
X8.501 Y244.442
X8.599 Y244.555
X8.704 Y244.663
X8.816 Y244.763
X8.934 Y244.855
X9.058 Y244.941
X9.186 Y245.017
X9.32 Y245.086
X9.457 Y245.146
X9.598 Y245.197
X9.742 Y245.239
X9.889 Y245.271
X10.037 Y245.294
X10.186 Y245.308
X10.336 Y245.312
X10.486 Y245.307
X10.636 Y245.292
X10.784 Y245.268
X10.93 Y245.234
X11.073 Y245.191
X11.214 Y245.139
X11.351 Y245.078
X11.484 Y245.009
X11.613 Y244.932
X11.736 Y244.846
X11.854 Y244.753
X11.966 Y244.653
X12.071 Y244.546
X12.169 Y244.433
X12.26 Y244.313
X12.343 Y244.189
X12.418 Y244.059
X12.485 Y243.924
X12.543 Y243.786
X12.593 Y243.645
X12.633 Y243.5
X12.664 Y243.353
X12.686 Y243.205
X12.699 Y243.056
X12.702 Y242.906
X12.696 Y242.756
X12.68 Y242.607
X12.655 Y242.459
X12.621 Y242.313
X12.578 Y242.169
X12.525 Y242.028
X12.464 Y241.891
X12.395 Y241.759
X12.317 Y241.63
X12.231 Y241.507
X12.138 Y241.39
X12.038 Y241.278
X11.93 Y241.173
X11.817 Y241.075
X11.697 Y240.985
X11.573 Y240.902
X11.443 Y240.827
X11.308 Y240.76
X11.17 Y240.702
X11.029 Y240.652
X10.884 Y240.611
X10.737 Y240.58
X10.589 Y240.557
X10.44 Y240.544
X10.29 Y240.541
X10.14 Y240.546
X9.991 Y240.561
X9.843 Y240.585
X9.696 Y240.618
X9.552 Y240.661
X9.411 Y240.712
X9.274 Y240.772
X9.14 Y240.84
X9.011 Y240.916
X8.887 Y241.
X8.768 Y241.092
X8.656 Y241.191
X8.549 Y241.297
X8.45 Y241.409
X8.358 Y241.528
X8.273 Y241.651
X8.196 Y241.78
X8.127 Y241.913
X8.066 Y242.051
X8.015 Y242.191
X7.972 Y242.335
X7.937 Y242.481
X7.912 Y242.629
X7.897 Y242.778
X7.89 Y242.928
X7.893 Y243.078
X7.905 Y243.227
X7.926 Y243.376
X7.956 Y243.523
X7.995 Y243.668
X8.042 Y243.81
X8.099 Y243.949
X8.164 Y244.084
X8.237 Y244.215
X8.318 Y244.342
X8.406 Y244.463
X8.502 Y244.578
X8.605 Y244.687
X8.714 Y244.79
X8.829 Y244.886
X8.95 Y244.975
X9.077 Y245.056
X9.208 Y245.129
X9.343 Y245.193
X9.482 Y245.25
X9.624 Y245.297
X9.769 Y245.336
X9.916 Y245.366
X10.065 Y245.387
X10.214 Y245.398
X10.364 Y245.4
X10.514 Y245.393
X10.663 Y245.377
X10.811 Y245.352
X10.957 Y245.318
X11.101 Y245.275
X11.241 Y245.223
X11.379 Y245.163
X11.512 Y245.094
X11.641 Y245.018
X11.766 Y244.934
X11.884 Y244.842
X11.998 Y244.744
X12.104 Y244.638
X12.205 Y244.527
X12.298 Y244.41
X12.384 Y244.287
X12.463 Y244.159
X12.534 Y244.027
X12.596 Y243.89
X12.65 Y243.751
X12.696 Y243.608
X12.733 Y243.462
X12.761 Y243.315
X12.78 Y243.166
X12.79 Y243.016
Y242.866
X12.782 Y242.717
X12.764 Y242.568
X12.738 Y242.42
X12.703 Y242.274
X12.658 Y242.131
X12.605 Y241.991
X12.544 Y241.854
X12.475 Y241.721
X12.397 Y241.592
X12.312 Y241.469
X12.22 Y241.35
X12.121 Y241.238
X12.015 Y241.132
X11.903 Y241.032
X11.785 Y240.939
X11.661 Y240.854
X11.533 Y240.776
X11.401 Y240.706
X11.264 Y240.644
X11.124 Y240.591
X10.981 Y240.546
X10.835 Y240.509
X10.688 Y240.482
X10.539 Y240.463
X10.389 Y240.453
X10.239 Y240.452
X10.09 Y240.461
X9.941 Y240.478
X9.793 Y240.504
X9.647 Y240.539
X9.504 Y240.583
X9.363 Y240.635
X9.226 Y240.696
X9.092 Y240.765
X8.964 Y240.841
X8.839 Y240.926
X8.721 Y241.017
X8.607 Y241.116
X8.5 Y241.221
X8.4 Y241.332
X8.306 Y241.449
X8.219 Y241.572
X8.14 Y241.699
X8.069 Y241.831
X8.006 Y241.967
X7.951 Y242.107
X7.904 Y242.249
X7.866 Y242.394
X7.836 Y242.541
X7.816 Y242.69
X7.804 Y242.839
X7.801 Y242.989
X7.807 Y243.139
X7.822 Y243.288
X7.846 Y243.437
X7.878 Y243.583
X7.919 Y243.727
X7.969 Y243.869
X8.027 Y244.007
X8.093 Y244.142
X8.167 Y244.272
X8.249 Y244.398
X8.337 Y244.519
X8.433 Y244.634
X8.536 Y244.744
X8.645 Y244.847
X8.759 Y244.944
X8.88 Y245.033
X9.005 Y245.116
X9.135 Y245.19
X9.27 Y245.257
X9.408 Y245.316
X9.549 Y245.366
X9.693 Y245.408
X9.839 Y245.442
X9.987 Y245.466
X10.136 Y245.482
X10.286 Y245.489
X10.436 Y245.487
X10.586 Y245.476
X10.734 Y245.457
X10.882 Y245.428
X11.027 Y245.391
X11.17 Y245.346
X11.31 Y245.292
X11.446 Y245.23
X11.579 Y245.16
X11.707 Y245.082
X11.831 Y244.997
X11.949 Y244.905
X12.062 Y244.806
X12.169 Y244.7
X12.269 Y244.589
X12.363 Y244.472
X12.45 Y244.349
X12.529 Y244.222
X12.601 Y244.091
X12.665 Y243.955
X12.721 Y243.816
X12.769 Y243.674
X12.808 Y243.529
X12.839 Y243.382
X12.862 Y243.234
X12.875 Y243.084
X12.88 Y242.934
X12.876 Y242.785
X12.863 Y242.635
X12.842 Y242.487
X12.811 Y242.34
X12.773 Y242.195
X12.725 Y242.052
X12.67 Y241.913
X12.606 Y241.777
X12.535 Y241.645
X12.456 Y241.518
X12.369 Y241.395
X12.276 Y241.278
X12.176 Y241.166
X12.069 Y241.06
X11.957 Y240.961
X11.839 Y240.869
X11.716 Y240.783
X11.588 Y240.705
X11.456 Y240.634
X11.319 Y240.571
X11.18 Y240.516
X11.037 Y240.469
X10.892 Y240.431
X10.745 Y240.401
X10.597 Y240.38
X10.447 Y240.367
X10.297 Y240.363
X10.148 Y240.367
X9.998 Y240.381
X9.85 Y240.403
X9.703 Y240.433
X9.558 Y240.472
X9.416 Y240.519
X9.276 Y240.575
X9.14 Y240.638
X9.008 Y240.709
X8.881 Y240.788
X8.758 Y240.874
X8.64 Y240.967
X8.528 Y241.067
X8.422 Y241.173
X8.322 Y241.285
X8.229 Y241.402
X8.143 Y241.525
X8.064 Y241.653
X7.992 Y241.785
X7.929 Y241.92
X7.873 Y242.06
X7.825 Y242.202
X7.785 Y242.346
X7.754 Y242.493
X7.732 Y242.641
X7.717 Y242.791
X7.712 Y242.941
X7.715 Y243.091
X7.727 Y243.24
X7.747 Y243.389
X7.775 Y243.536
X7.812 Y243.681
X7.858 Y243.824
X7.911 Y243.965
X7.972 Y244.102
X8.041 Y244.235
X8.118 Y244.364
X8.202 Y244.488
X8.293 Y244.607
X8.39 Y244.721
X8.494 Y244.83
X8.604 Y244.932
X8.72 Y245.027
X8.841 Y245.116
X8.967 Y245.197
X9.097 Y245.272
X9.231 Y245.338
X9.369 Y245.397
X9.51 Y245.448
X9.654 Y245.491
X9.8 Y245.525
X9.948 Y245.551
X10.097 Y245.568
X10.247 Y245.577
X10.397 Y245.578
X10.546 Y245.57
X10.696 Y245.553
X10.843 Y245.528
X10.99 Y245.494
X11.134 Y245.452
X11.275 Y245.402
X11.413 Y245.344
X11.548 Y245.278
X11.679 Y245.205
X11.806 Y245.125
X11.927 Y245.037
X12.044 Y244.943
X12.155 Y244.842
X12.26 Y244.735
X12.359 Y244.622
X12.452 Y244.504
X12.537 Y244.381
X12.616 Y244.253
X12.687 Y244.121
X12.75 Y243.985
X12.806 Y243.846
X12.854 Y243.704
X12.894 Y243.559
X12.925 Y243.412
X12.948 Y243.264
X12.963 Y243.115
X12.969 Y242.965
X12.967 Y242.815
X12.956 Y242.665
X12.937 Y242.517
X12.91 Y242.369
X12.874 Y242.223
X12.83 Y242.08
X12.778 Y241.939
X12.718 Y241.802
X12.65 Y241.668
X12.575 Y241.538
X12.493 Y241.413
X12.404 Y241.292
X12.308 Y241.177
X12.206 Y241.067
X12.097 Y240.963
X11.983 Y240.866
X11.864 Y240.775
X11.74 Y240.691
X11.611 Y240.614
X11.478 Y240.544
X11.341 Y240.482
X11.202 Y240.428
X11.059 Y240.382
X10.914 Y240.343
X10.767 Y240.313
X10.619 Y240.292
X10.469 Y240.278
X10.319 Y240.273
X10.169 Y240.276
X10.02 Y240.288
X9.871 Y240.308
X9.724 Y240.336
X9.578 Y240.373
X9.435 Y240.417
X9.295 Y240.47
X9.157 Y240.53
X9.023 Y240.598
X8.894 Y240.673
X8.768 Y240.756
X8.648 Y240.845
X8.533 Y240.941
X8.423 Y241.043
X8.319 Y241.151
X8.221 Y241.265
X8.13 Y241.384
X8.046 Y241.508
X7.968 Y241.637
X7.898 Y241.77
X7.836 Y241.906
X7.781 Y242.046
X7.734 Y242.188
X7.695 Y242.333
X7.665 Y242.48
X7.642 Y242.628
X7.628 Y242.777
X7.622 Y242.927
X7.624 Y243.077
X7.635 Y243.227
X7.653 Y243.376
X7.68 Y243.523
X7.716 Y243.669
X7.759 Y243.813
X7.81 Y243.954
X7.868 Y244.092
X7.935 Y244.226
X8.008 Y244.357
X8.089 Y244.484
X8.177 Y244.605
X8.271 Y244.722
X8.371 Y244.833
X8.478 Y244.939
X8.59 Y245.038
X8.708 Y245.132
X8.83 Y245.218
X8.958 Y245.298
X9.089 Y245.37
X9.224 Y245.435
X9.363 Y245.492
X9.504 Y245.541
X9.649 Y245.583
X9.795 Y245.617
X9.943 Y245.642
X10.092 Y245.659
X10.241 Y245.668
X10.391
X10.541 Y245.661
X10.69 Y245.645
X10.838 Y245.62
X10.985 Y245.588
X11.129 Y245.548
X11.271 Y245.5
X11.411 Y245.444
X11.547 Y245.38
X11.679 Y245.31
X11.807 Y245.232
X11.931 Y245.147
X12.05 Y245.055
X12.163 Y244.958
X12.271 Y244.854
X12.374 Y244.744
X12.47 Y244.629
X12.56 Y244.509
X12.643 Y244.384
X12.719 Y244.255
X12.788 Y244.121
X12.849 Y243.985
X12.903 Y243.845
X12.95 Y243.702
X12.988 Y243.557
X13.018 Y243.41
X13.04 Y243.262
X13.054 Y243.112
X13.06 Y242.962
X13.058 Y242.812
X13.047 Y242.663
X13.028 Y242.514
X13.002 Y242.366
X12.967 Y242.221
X12.924 Y242.077
X12.873 Y241.936
X12.815 Y241.797
X12.749 Y241.662
X12.676 Y241.531
X12.597 Y241.404
X12.51 Y241.282
X12.416 Y241.165
X12.317 Y241.053
X12.211 Y240.946
X12.1 Y240.845
X11.983 Y240.751
X11.862 Y240.663
X11.736 Y240.582
X11.606 Y240.507
X11.471 Y240.44
X11.334 Y240.381
X11.193 Y240.328
X11.05 Y240.284
X10.904 Y240.248
X10.757 Y240.219
X10.609 Y240.198
X10.459 Y240.186
X10.309 Y240.182
X10.159 Y240.185
X10.01 Y240.197
X9.861 Y240.217
X9.714 Y240.245
X9.568 Y240.281
X9.425 Y240.325
X9.284 Y240.377
X9.146 Y240.436
X9.011 Y240.502
X8.88 Y240.575
X8.754 Y240.656
X8.632 Y240.743
X8.515 Y240.837
X8.403 Y240.937
X8.297 Y241.043
X8.196 Y241.154
X8.102 Y241.271
X8.014 Y241.392
X7.933 Y241.518
X7.858 Y241.649
X7.791 Y241.783
X7.732 Y241.92
X7.679 Y242.061
X7.635 Y242.204
X7.598 Y242.35
X7.569 Y242.497
X7.548 Y242.645
X7.535 Y242.795
X7.53 Y242.945
X7.533 Y243.095
X7.544 Y243.244
X7.564 Y243.393
X7.591 Y243.541
X7.626 Y243.686
X7.668 Y243.83
X7.719 Y243.971
X7.777 Y244.11
X7.842 Y244.245
X7.914 Y244.376
X7.993 Y244.504
X8.079 Y244.627
X8.172 Y244.745
X8.27 Y244.858
X8.375 Y244.966
X8.485 Y245.068
X8.6 Y245.163
X8.721 Y245.253
X8.846 Y245.336
X8.975 Y245.412
X9.108 Y245.481
X9.245 Y245.543
X9.385 Y245.597
X9.527 Y245.644
X9.672 Y245.683
X9.819 Y245.714
X9.967 Y245.737
X10.116 Y245.753
X10.266 Y245.76
X10.416 Y245.759
X10.566 Y245.75
X10.715 Y245.734
X10.863 Y245.709
X11.009 Y245.676
X11.153 Y245.636
X11.296 Y245.588
X11.435 Y245.533
X11.571 Y245.47
X11.704 Y245.4
X11.833 Y245.323
X11.957 Y245.24
X12.077 Y245.15
X12.192 Y245.054
X12.302 Y244.951
X12.407 Y244.844
X12.505 Y244.73
X12.597 Y244.612
X12.683 Y244.489
X12.763 Y244.362
X12.835 Y244.231
X12.9 Y244.096
X12.959 Y243.957
X13.009 Y243.816
X13.053 Y243.673
X13.088 Y243.527
X13.116 Y243.379
X13.136 Y243.231
X13.148 Y243.081
X13.152 Y242.931
X13.148 Y242.781
X13.136 Y242.632
X13.117 Y242.483
X13.089 Y242.336
X13.053 Y242.19
X13.01 Y242.046
X12.96 Y241.905
X12.902 Y241.767
X12.836 Y241.632
X12.764 Y241.5
X12.685 Y241.373
X12.599 Y241.25
X12.507 Y241.131
X12.409 Y241.018
X12.305 Y240.91
X12.195 Y240.808
X12.08 Y240.711
X11.961 Y240.621
X11.836 Y240.537
X11.708 Y240.46
X11.575 Y240.389
X11.439 Y240.326
X11.3 Y240.27
X11.158 Y240.221
X11.014 Y240.18
X10.868 Y240.146
X10.72 Y240.121
X10.571 Y240.102
X10.422 Y240.092
X10.272 Y240.09
X10.122 Y240.096
X9.972 Y240.109
X9.824 Y240.13
X9.677 Y240.159
X9.531 Y240.196
X9.388 Y240.24
X9.247 Y240.292
X9.109 Y240.351
X8.975 Y240.417
X8.844 Y240.491
X8.717 Y240.571
X8.594 Y240.657
X8.476 Y240.75
X8.364 Y240.849
X8.256 Y240.953
X8.154 Y241.063
X8.058 Y241.178
X7.968 Y241.298
X7.885 Y241.423
X7.808 Y241.552
X7.738 Y241.684
X7.674 Y241.821
X7.619 Y241.96
X7.57 Y242.102
X7.529 Y242.246
X7.495 Y242.392
X7.469 Y242.54
X7.451 Y242.689
X7.441 Y242.838
X7.438 Y242.988
X7.443 Y243.138
X7.456 Y243.288
X7.477 Y243.436
X7.506 Y243.584
X7.542 Y243.729
X7.585 Y243.873
X7.636 Y244.014
X7.695 Y244.152
X7.76 Y244.287
X7.832 Y244.418
X7.911 Y244.546
X7.997 Y244.669
X8.088 Y244.788
X8.186 Y244.902
X8.29 Y245.01
X8.399 Y245.113
X8.513 Y245.211
X8.632 Y245.302
X8.756 Y245.387
X8.883 Y245.465
X9.015 Y245.537
X9.151 Y245.601
X9.289 Y245.659
X9.43 Y245.709
X9.574 Y245.752
X9.72 Y245.788
X9.867 Y245.815
X10.016 Y245.835
X10.165 Y245.848
X10.315 Y245.852
X10.465 Y245.849
X10.615 Y245.838
X10.764 Y245.82
X10.911 Y245.793
X11.058 Y245.759
X11.202 Y245.718
X11.343 Y245.669
X11.483 Y245.613
X11.619 Y245.55
X11.751 Y245.48
X11.88 Y245.403
X12.005 Y245.319
X12.125 Y245.23
X12.241 Y245.134
X12.351 Y245.032
X12.456 Y244.925
X12.556 Y244.813
X12.649 Y244.696
X12.737 Y244.574
X12.818 Y244.448
X12.893 Y244.318
X12.96 Y244.184
X13.021 Y244.047
X13.075 Y243.907
X13.122 Y243.764
X13.161 Y243.62
X13.193 Y243.473
X13.217 Y243.325
X13.233 Y243.176
X13.242 Y243.026
X13.243 Y242.876
X13.237 Y242.726
X13.223 Y242.577
X13.201 Y242.429
X13.171 Y242.282
X13.134 Y242.136
X13.09 Y241.993
X13.038 Y241.852
X12.979 Y241.714
X12.914 Y241.579
X12.841 Y241.448
X12.762 Y241.321
X12.676 Y241.198
X12.584 Y241.079
X12.486 Y240.966
X12.382 Y240.857
X12.273 Y240.754
X12.159 Y240.657
X12.041 Y240.565
X11.917 Y240.48
X11.79 Y240.401
X11.658 Y240.328
X11.523 Y240.263
X11.385 Y240.204
X11.244 Y240.153
X11.101 Y240.108
X10.956 Y240.071
X10.809 Y240.042
X10.66 Y240.02
X10.511 Y240.005
X10.361 Y239.998
X10.211 Y239.999
X10.061 Y240.008
X9.912 Y240.024
X9.764 Y240.047
X9.617 Y240.078
X9.472 Y240.117
X9.33 Y240.163
X9.189 Y240.216
X9.052 Y240.276
X8.918 Y240.343
X8.787 Y240.417
X8.66 Y240.497
X8.538 Y240.583
X8.42 Y240.676
X8.307 Y240.775
X8.199 Y240.879
X8.097 Y240.989
X8. Y241.103
X7.909 Y241.223
X7.824 Y241.346
X7.746 Y241.474
X7.674 Y241.606
X7.609 Y241.741
X7.551 Y241.879
X7.5 Y242.02
X7.456 Y242.164
X7.419 Y242.309
X7.39 Y242.456
X7.368 Y242.605
X7.354 Y242.754
X7.347 Y242.904
Y243.054
X7.356 Y243.204
X7.371 Y243.353
X7.395 Y243.501
X7.425 Y243.648
X7.464 Y243.793
X7.509 Y243.936
X7.561 Y244.076
X7.621 Y244.214
X7.687 Y244.349
X7.76 Y244.48
X7.84 Y244.607
X7.926 Y244.73
X8.018 Y244.848
X8.115 Y244.962
X8.219 Y245.071
X8.328 Y245.174
X8.441 Y245.272
X8.56 Y245.364
X8.683 Y245.45
X8.81 Y245.529
X8.941 Y245.602
X9.076 Y245.669
X9.213 Y245.728
X9.354 Y245.781
X9.497 Y245.826
X9.642 Y245.864
X9.789 Y245.895
X9.937 Y245.919
X10.086 Y245.935
X10.236 Y245.943
X10.386 Y245.944
X10.535 Y245.938
X10.685 Y245.923
X10.833 Y245.902
X10.98 Y245.873
X11.126 Y245.837
X11.27 Y245.793
X11.411 Y245.743
X11.549 Y245.685
X11.685 Y245.621
X11.817 Y245.549
X11.945 Y245.472
X12.069 Y245.388
X12.189 Y245.298
X12.305 Y245.202
X12.415 Y245.1
X12.52 Y244.993
X12.62 Y244.881
X12.714 Y244.764
X12.802 Y244.643
X12.884 Y244.517
X12.96 Y244.388
X13.029 Y244.255
X13.092 Y244.118
X13.147 Y243.979
X13.196 Y243.837
X13.238 Y243.693
X13.272 Y243.547
X13.299 Y243.4
X13.319 Y243.251
X13.331 Y243.101
X13.336 Y242.952
X13.334 Y242.802
X13.324 Y242.652
X13.306 Y242.503
X13.281 Y242.355
X13.249 Y242.208
X13.21 Y242.064
X13.163 Y241.921
X13.11 Y241.781
X13.049 Y241.644
X12.982 Y241.51
X12.908 Y241.379
X12.828 Y241.252
X12.741 Y241.13
X12.649 Y241.012
X12.551 Y240.898
X12.447 Y240.79
X12.338 Y240.687
X12.224 Y240.589
X12.106 Y240.497
X11.983 Y240.411
X11.856 Y240.332
X11.725 Y240.258
X11.59 Y240.192
X11.453 Y240.132
X11.313 Y240.078
X11.17 Y240.032
X11.025 Y239.993
X10.879 Y239.961
X10.731 Y239.936
X10.582 Y239.918
X10.432 Y239.908
X10.282 Y239.905
X10.132 Y239.91
X9.983 Y239.922
X9.834 Y239.941
X9.686 Y239.968
X9.54 Y240.002
X9.396 Y240.043
X9.254 Y240.091
X9.114 Y240.146
X8.978 Y240.208
X8.844 Y240.276
X8.714 Y240.352
X8.588 Y240.433
X8.467 Y240.52
X8.349 Y240.614
X8.237 Y240.713
X8.129 Y240.817
X8.027 Y240.927
X7.93 Y241.042
X7.839 Y241.161
X7.754 Y241.284
X7.675 Y241.412
X7.602 Y241.543
X7.536 Y241.678
X7.476 Y241.815
X7.424 Y241.956
X7.378 Y242.099
X7.339 Y242.244
X7.308 Y242.39
X7.283 Y242.538
X7.266 Y242.687
X7.256 Y242.837
X7.253 Y242.987
X7.258 Y243.137
X7.27 Y243.286
X7.29 Y243.435
X7.316 Y243.583
X7.35 Y243.729
X7.391 Y243.873
X7.438 Y244.015
X7.493 Y244.155
X7.555 Y244.292
X7.623 Y244.426
X7.697 Y244.556
X7.778 Y244.682
X7.865 Y244.804
X7.957 Y244.922
X8.056 Y245.036
X8.16 Y245.144
X8.269 Y245.247
X8.383 Y245.344
X8.501 Y245.436
X8.624 Y245.522
X8.751 Y245.602
X8.882 Y245.676
X9.016 Y245.743
X9.153 Y245.804
X9.293 Y245.858
X9.435 Y245.905
X9.58 Y245.945
X9.726 Y245.978
X9.874 Y246.003
X10.023 Y246.022
X10.172 Y246.033
X10.322 Y246.037
X10.472 Y246.034
X10.622 Y246.023
X10.771 Y246.006
X10.919 Y245.981
X11.065 Y245.949
X11.21 Y245.909
X11.353 Y245.863
X11.493 Y245.81
X11.631 Y245.75
X11.765 Y245.684
X11.896 Y245.611
X12.024 Y245.532
X12.147 Y245.447
X12.266 Y245.356
X12.381 Y245.259
X12.491 Y245.157
X12.596 Y245.05
X12.695 Y244.937
X12.789 Y244.82
X12.877 Y244.699
X12.96 Y244.574
X13.036 Y244.444
X13.105 Y244.312
X13.169 Y244.176
X13.225 Y244.037
X13.275 Y243.895
X13.318 Y243.752
X13.355 Y243.606
X13.384 Y243.459
X13.406 Y243.31
X13.42 Y243.161
X13.428 Y243.011
Y242.861
X13.422 Y242.712
X13.408 Y242.562
X13.386 Y242.414
X13.358 Y242.266
X13.323 Y242.121
X13.28 Y241.977
X13.231 Y241.835
X13.175 Y241.696
X13.112 Y241.56
X13.043 Y241.427
X12.967 Y241.297
X12.886 Y241.171
X12.798 Y241.049
X12.705 Y240.932
X12.606 Y240.819
X12.501 Y240.712
X12.392 Y240.609
X12.278 Y240.512
X12.159 Y240.42
X12.036 Y240.334
X11.909 Y240.254
X11.778 Y240.181
X11.644 Y240.113
X11.507 Y240.053
X11.367 Y239.998
X11.225 Y239.951
X11.081 Y239.91
X10.934 Y239.877
X10.787 Y239.85
X10.638 Y239.83
X10.489 Y239.818
X10.339 Y239.812
X10.189 Y239.814
X10.039 Y239.823
X9.89 Y239.839
X9.742 Y239.862
X9.595 Y239.893
X9.449 Y239.93
X9.306 Y239.974
X9.165 Y240.025
X9.027 Y240.083
X8.891 Y240.147
X8.759 Y240.217
X8.63 Y240.294
X8.505 Y240.377
X8.384 Y240.466
X8.267 Y240.56
X8.155 Y240.66
X8.048 Y240.765
X7.947 Y240.875
X7.85 Y240.99
X7.759 Y241.11
X7.674 Y241.233
X7.595 Y241.361
X7.523 Y241.492
X7.456 Y241.626
X7.396 Y241.764
X7.342 Y241.904
X7.296 Y242.046
X7.256 Y242.191
X7.223 Y242.337
X7.196 Y242.485
X7.177 Y242.634
X7.165 Y242.783
X7.16 Y242.933
X7.162 Y243.083
X7.171 Y243.233
X7.188 Y243.382
X7.211 Y243.53
X7.241 Y243.677
X7.278 Y243.822
X7.322 Y243.966
X7.373 Y244.107
X7.43 Y244.246
X7.494 Y244.381
X7.564 Y244.514
X7.641 Y244.643
X7.723 Y244.768
X7.812 Y244.89
X7.906 Y245.007
X8.005 Y245.119
X8.11 Y245.226
X8.219 Y245.329
X8.334 Y245.426
X8.452 Y245.517
X8.575 Y245.603
X8.702 Y245.683
X8.833 Y245.757
X8.967 Y245.824
X9.104 Y245.885
X9.244 Y245.94
X9.386 Y245.988
X9.53 Y246.029
X9.676 Y246.063
X9.824 Y246.09
X9.972 Y246.111
X10.122 Y246.124
X10.272 Y246.13
X10.422
X10.571 Y246.122
X10.721 Y246.107
X10.869 Y246.085
X11.016 Y246.056
X11.162 Y246.02
X11.306 Y245.978
X11.447 Y245.928
X11.587 Y245.872
X11.723 Y245.81
X11.856 Y245.741
X11.986 Y245.666
X12.113 Y245.586
X12.235 Y245.499
X12.353 Y245.406
X12.467 Y245.309
X12.576 Y245.206
X12.68 Y245.097
X12.779 Y244.985
X12.872 Y244.867
X12.96 Y244.746
X13.042 Y244.62
X13.118 Y244.491
X13.188 Y244.358
X13.251 Y244.222
X13.308 Y244.083
X13.359 Y243.942
X13.403 Y243.799
X13.44 Y243.653
X13.471 Y243.507
X13.494 Y243.358
X13.511 Y243.209
X13.52 Y243.06
X13.523 Y242.91
X13.518 Y242.76
X13.507 Y242.61
X13.489 Y242.461
X13.463 Y242.313
X13.431 Y242.167
X13.392 Y242.022
X13.346 Y241.879
X13.294 Y241.739
X13.235 Y241.601
X13.17 Y241.466
X13.098 Y241.334
X13.021 Y241.205
X12.937 Y241.081
X12.848 Y240.96
X12.753 Y240.844
X12.653 Y240.732
X12.548 Y240.625
X12.438 Y240.524
X12.323 Y240.427
X12.204 Y240.336
X12.081 Y240.25
X11.953 Y240.171
X11.823 Y240.097
X11.689 Y240.03
X11.552 Y239.969
X11.412 Y239.914
X11.27 Y239.866
X11.126 Y239.825
X10.98 Y239.79
X10.832 Y239.762
X10.684 Y239.741
X10.535 Y239.727
X10.385 Y239.719
X10.235
X10.085 Y239.726
X9.936 Y239.739
X9.787 Y239.76
X9.64 Y239.787
X9.493 Y239.821
X9.349 Y239.862
X9.207 Y239.909
X9.067 Y239.963
X8.93 Y240.024
X8.795 Y240.09
X8.664 Y240.163
X8.537 Y240.242
X8.413 Y240.327
X8.293 Y240.417
X8.178 Y240.513
X8.067 Y240.614
X7.961 Y240.72
X7.86 Y240.831
X7.764 Y240.947
X7.674 Y241.067
X7.589 Y241.191
X7.511 Y241.318
X7.438 Y241.449
X7.371 Y241.584
X7.311 Y241.721
X7.257 Y241.861
X7.21 Y242.003
X7.169 Y242.148
X7.135 Y242.294
X7.108 Y242.441
X7.087 Y242.59
X7.073 Y242.739
X7.067 Y242.889
Y243.039
X7.074 Y243.189
X7.087 Y243.338
X7.108 Y243.487
X7.136 Y243.634
X7.17 Y243.781
X7.211 Y243.925
X7.258 Y244.067
X7.312 Y244.207
X7.372 Y244.344
X7.439 Y244.479
X7.511 Y244.61
X7.59 Y244.738
X7.674 Y244.862
X7.764 Y244.982
X7.859 Y245.098
X7.96 Y245.209
X8.066 Y245.316
X8.176 Y245.417
X8.291 Y245.513
X8.411 Y245.604
X8.534 Y245.689
X8.661 Y245.769
X8.792 Y245.842
X8.926 Y245.91
X9.063 Y245.971
X9.203 Y246.026
X9.345 Y246.074
X9.489 Y246.116
X9.634 Y246.151
X9.782 Y246.179
X9.93 Y246.201
X10.079 Y246.216
X10.229 Y246.224
X10.379 Y246.225
X10.529 Y246.219
X10.679 Y246.206
X10.827 Y246.187
X10.975 Y246.161
X11.121 Y246.128
X11.266 Y246.088
X11.409 Y246.042
X11.549 Y245.99
X11.687 Y245.931
X11.822 Y245.866
X11.954 Y245.794
X12.083 Y245.717
X12.208 Y245.634
X12.329 Y245.546
X12.446 Y245.452
X12.559 Y245.353
X12.667 Y245.248
X12.77 Y245.139
X12.867 Y245.026
X12.96 Y244.908
X13.047 Y244.786
X13.129 Y244.66
X13.204 Y244.53
X13.274 Y244.398
X13.338 Y244.262
X13.395 Y244.123
X13.446 Y243.982
X13.49 Y243.839
X13.528 Y243.694
X13.56 Y243.547
X13.584 Y243.399
X13.602 Y243.25
X13.613 Y243.1
X13.617 Y242.95
X13.615 Y242.8
X13.606 Y242.651
X13.59 Y242.502
X13.567 Y242.353
X13.537 Y242.206
X13.501 Y242.061
X13.458 Y241.917
X13.409 Y241.775
X13.354 Y241.636
X13.292 Y241.499
X13.224 Y241.365
X13.15 Y241.235
X13.07 Y241.108
X12.984 Y240.985
X12.893 Y240.865
X12.797 Y240.75
X12.696 Y240.64
X12.589 Y240.534
X12.478 Y240.433
X12.363 Y240.338
X12.243 Y240.247
X12.119 Y240.162
X11.992 Y240.083
X11.861 Y240.01
X11.727 Y239.943
X11.59 Y239.882
X11.45 Y239.827
X11.308 Y239.778
X11.164 Y239.736
X11.019 Y239.701
X10.871 Y239.672
X10.723 Y239.65
X10.574 Y239.634
X10.424 Y239.626
X10.274 Y239.624
X10.124 Y239.628
X9.975 Y239.64
X9.826 Y239.658
X9.678 Y239.683
X9.531 Y239.714
X9.386 Y239.752
X9.243 Y239.797
X9.102 Y239.848
X8.963 Y239.905
X8.827 Y239.968
X8.694 Y240.038
X8.564 Y240.113
X8.438 Y240.194
X8.316 Y240.281
X8.197 Y240.373
X8.083 Y240.47
X7.974 Y240.573
X7.869 Y240.68
X7.769 Y240.792
X7.674 Y240.908
X7.585 Y241.028
X7.501 Y241.153
X7.423 Y241.281
X7.35 Y241.412
X7.284 Y241.546
X7.223 Y241.684
X7.169 Y241.824
X7.122 Y241.966
X7.08 Y242.11
X7.046 Y242.256
X7.018 Y242.403
X6.996 Y242.552
X6.981 Y242.701
X6.973 Y242.851
X6.971 Y243.001
X6.976 Y243.151
X6.988 Y243.3
X7.006 Y243.449
X7.031 Y243.597
X7.063 Y243.744
X7.101 Y243.889
X7.146 Y244.032
X7.196 Y244.173
X7.254 Y244.312
X7.317 Y244.448
X7.386 Y244.581
X7.461 Y244.711
X7.542 Y244.837
X7.628 Y244.96
X7.72 Y245.079
X7.817 Y245.193
X7.919 Y245.303
X8.026 Y245.408
X8.137 Y245.509
X8.253 Y245.604
X8.373 Y245.694
X8.497 Y245.779
X8.624 Y245.858
X8.755 Y245.931
X8.889 Y245.998
X9.026 Y246.059
X9.166 Y246.114
X9.308 Y246.162
X9.452 Y246.205
X9.598 Y246.24
X9.745 Y246.27
X9.893 Y246.292
X10.042 Y246.308
X10.192 Y246.317
X10.342 Y246.32
X10.492 Y246.316
X10.641 Y246.305
X10.79 Y246.288
X10.939 Y246.264
X11.085 Y246.234
X11.231 Y246.197
X11.374 Y246.154
X11.516 Y246.104
X11.655 Y246.048
X11.792 Y245.987
X11.926 Y245.919
X12.056 Y245.845
X12.183 Y245.765
X12.307 Y245.68
X12.427 Y245.59
X12.542 Y245.494
X12.654 Y245.394
X12.76 Y245.288
X12.862 Y245.178
X12.959 Y245.064
X13.051 Y244.945
X13.137 Y244.823
X13.218 Y244.696
X13.293 Y244.567
X13.363 Y244.434
X13.426 Y244.298
X13.484 Y244.159
X13.535 Y244.018
X13.579 Y243.875
X13.618 Y243.73
X13.65 Y243.583
X13.675 Y243.435
X13.694 Y243.287
X13.706 Y243.137
X13.712 Y242.987
X13.711 Y242.837
X13.704 Y242.687
X13.69 Y242.538
X13.669 Y242.39
X13.642 Y242.242
X13.608 Y242.096
X13.568 Y241.951
X13.522 Y241.809
X13.469 Y241.668
X13.411 Y241.53
X13.346 Y241.395
X13.275 Y241.262
X13.199 Y241.133
X13.117 Y241.008
X13.029 Y240.886
X12.937 Y240.768
X12.839 Y240.654
X12.736 Y240.545
X12.629 Y240.44
X12.517 Y240.341
X12.4 Y240.246
X12.28 Y240.156
X12.156 Y240.072
X12.028 Y239.994
X11.897 Y239.921
X11.763 Y239.854
X11.626 Y239.793
X11.486 Y239.738
X11.344 Y239.689
X11.2 Y239.647
X11.055 Y239.611
X10.908 Y239.581
X10.759 Y239.558
X10.61 Y239.542
X10.461 Y239.532
X10.311 Y239.528
X10.161 Y239.531
X10.011 Y239.541
X9.862 Y239.557
X9.714 Y239.58
X9.566 Y239.609
X9.421 Y239.644
X9.277 Y239.686
X9.134 Y239.734
X8.995 Y239.788
X8.857 Y239.848
X8.723 Y239.915
X8.591 Y239.987
X8.463 Y240.064
X8.338 Y240.148
X8.217 Y240.236
X8.1 Y240.33
X7.987 Y240.429
X7.879 Y240.533
X7.775 Y240.641
X7.676 Y240.754
X7.582 Y240.871
X7.494 Y240.992
X7.41 Y241.117
X7.333 Y241.245
X7.261 Y241.376
X7.195 Y241.511
X7.134 Y241.648
X7.08 Y241.788
X7.032 Y241.931
X6.991 Y242.075
X6.955 Y242.22
X6.927 Y242.368
X6.904 Y242.516
X6.888 Y242.665
X6.878 Y242.815
X6.875 Y242.965
X6.879 Y243.115
X6.889 Y243.264
X6.905 Y243.413
X6.928 Y243.562
X6.957 Y243.709
X6.993 Y243.855
X7.035 Y243.999
X7.083 Y244.141
X7.137 Y244.281
X7.197 Y244.418
X7.263 Y244.553
X7.335 Y244.684
X7.412 Y244.813
X7.495 Y244.938
X7.584 Y245.059
X7.677 Y245.176
X7.775 Y245.289
X7.879 Y245.398
X7.987 Y245.502
X8.099 Y245.602
X8.216 Y245.696
X8.336 Y245.785
X8.461 Y245.869
X8.589 Y245.948
X8.72 Y246.02
X8.854 Y246.087
X8.991 Y246.148
X9.131 Y246.203
X9.272 Y246.252
X9.416 Y246.294
X9.562 Y246.331
X9.709 Y246.361
X9.857 Y246.384
X10.006 Y246.401
X10.156 Y246.412
X10.306 Y246.416
X10.456 Y246.413
X10.605 Y246.405
X10.755 Y246.389
X10.903 Y246.368
X11.05 Y246.339
X11.196 Y246.305
X11.341 Y246.264
X11.483 Y246.218
X11.624 Y246.165
X11.762 Y246.106
X11.897 Y246.041
X12.029 Y245.971
X12.158 Y245.894
X12.284 Y245.813
X12.407 Y245.726
X12.525 Y245.634
X12.639 Y245.537
X12.749 Y245.435
X12.855 Y245.328
X12.956 Y245.217
X13.052 Y245.102
X13.143 Y244.982
X13.228 Y244.859
X13.308 Y244.733
X13.383 Y244.603
X13.452 Y244.469
X13.515 Y244.333
X13.573 Y244.195
X13.624 Y244.054
X13.669 Y243.911
X13.708 Y243.766
X13.741 Y243.619
X13.767 Y243.472
X13.787 Y243.323
X13.8 Y243.174
X13.807 Y243.024
X13.808 Y242.874
X13.802 Y242.724
X13.79 Y242.574
X13.771 Y242.426
X13.747 Y242.278
X13.715 Y242.131
X13.678 Y241.986
X13.634 Y241.842
X13.584 Y241.701
X13.529 Y241.561
X13.467 Y241.425
X13.4 Y241.291
X13.326 Y241.16
X13.248 Y241.032
X13.164 Y240.908
X13.074 Y240.787
X12.98 Y240.671
X12.881 Y240.558
X12.777 Y240.45
X12.668 Y240.347
X12.555 Y240.248
X12.438 Y240.154
X12.317 Y240.065
X12.193 Y239.982
X12.064 Y239.904
X11.933 Y239.831
X11.799 Y239.765
X11.662 Y239.704
X11.522 Y239.649
X11.38 Y239.6
X11.237 Y239.557
X11.091 Y239.521
X10.944 Y239.49
X10.796 Y239.466
X10.647 Y239.449
X10.498 Y239.437
X10.348 Y239.432
X10.198 Y239.434
X10.048 Y239.442
X9.899 Y239.456
X9.75 Y239.476
X9.602 Y239.503
X9.456 Y239.536
X9.311 Y239.575
X9.168 Y239.621
X9.027 Y239.672
X8.889 Y239.729
X8.753 Y239.792
X8.619 Y239.861
X8.489 Y239.936
X8.362 Y240.016
X8.239 Y240.101
X8.119 Y240.191
X8.003 Y240.287
X7.892 Y240.387
X7.784 Y240.492
X7.682 Y240.601
X7.584 Y240.715
X7.491 Y240.832
X7.403 Y240.954
X7.32 Y241.079
X7.243 Y241.208
X7.172 Y241.34
X7.106 Y241.474
X7.045 Y241.612
X6.991 Y241.752
X6.943 Y241.894
X6.901 Y242.038
X6.865 Y242.183
X6.835 Y242.33
X6.812 Y242.478
X6.795 Y242.627
X6.784 Y242.777
X6.779 Y242.927
X6.781 Y243.077
X6.789 Y243.227
X6.804 Y243.376
X6.824 Y243.525
X6.851 Y243.672
X6.884 Y243.818
X6.924 Y243.963
X6.969 Y244.106
X7.02 Y244.247
X7.077 Y244.386
X7.14 Y244.522
X7.209 Y244.655
X7.283 Y244.786
X7.363 Y244.913
X7.448 Y245.037
X7.538 Y245.157
X7.633 Y245.273
X7.733 Y245.385
X7.837 Y245.492
X7.946 Y245.595
X8.059 Y245.694
X8.177 Y245.787
X8.298 Y245.876
X8.422 Y245.959
X8.551 Y246.037
X8.682 Y246.109
X8.816 Y246.176
X8.953 Y246.237
X9.093 Y246.292
X9.235 Y246.341
X9.378 Y246.384
X9.524 Y246.421
X9.671 Y246.451
X9.819 Y246.476
X9.968 Y246.494
X10.117 Y246.506
X10.267 Y246.512
X10.417 Y246.511
X10.567 Y246.504
X10.716 Y246.49
X10.865 Y246.471
X11.013 Y246.445
X11.159 Y246.413
X11.304 Y246.375
X11.448 Y246.331
X11.589 Y246.281
X11.728 Y246.225
X11.865 Y246.164
X11.999 Y246.096
X12.13 Y246.023
X12.258 Y245.945
X12.383 Y245.861
X12.504 Y245.773
X12.621 Y245.679
X12.734 Y245.581
X12.843 Y245.477
X12.947 Y245.37
X13.047 Y245.258
X13.142 Y245.142
X13.233 Y245.022
X13.318 Y244.899
X13.398 Y244.772
X13.472 Y244.641
X13.541 Y244.508
X13.604 Y244.372
X13.661 Y244.233
X13.713 Y244.093
X13.758 Y243.95
X13.798 Y243.805
X13.831 Y243.659
X13.858 Y243.511
X13.879 Y243.363
X13.894 Y243.213
X13.903 Y243.064
X13.905 Y242.914
X13.901 Y242.764
X13.891 Y242.614
X13.874 Y242.465
X13.851 Y242.317
X13.823 Y242.169
X13.788 Y242.024
X13.747 Y241.879
X13.7 Y241.737
X13.647 Y241.596
X13.588 Y241.458
X13.524 Y241.323
X13.454 Y241.19
X13.379 Y241.06
X13.298 Y240.934
X13.212 Y240.811
X13.121 Y240.692
X13.026 Y240.576
X12.925 Y240.465
X12.82 Y240.358
X12.71 Y240.255
X12.597 Y240.157
X12.479 Y240.064
X12.358 Y239.976
X12.233 Y239.893
X12.105 Y239.815
X11.973 Y239.743
X11.839 Y239.677
X11.702 Y239.616
X11.562 Y239.561
X11.42 Y239.511
X11.277 Y239.468
X11.132 Y239.431
X10.985 Y239.4
X10.837 Y239.375
X10.688 Y239.356
X10.539 Y239.343
X10.389 Y239.337
X10.239 Y239.336
X10.089 Y239.342
X9.939 Y239.354
X9.79 Y239.373
X9.642 Y239.397
X9.496 Y239.428
X9.35 Y239.464
X9.206 Y239.507
X9.064 Y239.555
X8.925 Y239.61
X8.787 Y239.67
X8.652 Y239.735
X8.52 Y239.806
X8.391 Y239.883
X8.265 Y239.965
X8.143 Y240.052
X8.025 Y240.143
X7.91 Y240.24
X7.799 Y240.342
X7.693 Y240.447
X7.591 Y240.558
X7.494 Y240.672
X7.402 Y240.79
X7.315 Y240.912
X7.232 Y241.038
X7.155 Y241.166
X7.084 Y241.298
X7.018 Y241.433
X6.958 Y241.57
X6.903 Y241.71
X6.855 Y241.852
X6.812 Y241.996
X6.775 Y242.141
X6.745 Y242.288
X6.72 Y242.436
X6.702 Y242.585
X6.689 Y242.734
X6.683 Y242.884
Y243.034
X6.69 Y243.184
X6.702 Y243.334
X6.72 Y243.482
X6.745 Y243.63
X6.775 Y243.777
X6.812 Y243.923
X6.855 Y244.067
X6.903 Y244.209
X6.957 Y244.349
X7.017 Y244.486
X7.082 Y244.621
X7.153 Y244.753
X7.229 Y244.883
X7.311 Y245.008
X7.397 Y245.131
X7.489 Y245.25
X7.585 Y245.365
X7.686 Y245.476
X7.791 Y245.583
X7.901 Y245.685
X8.015 Y245.783
X8.133 Y245.875
X8.254 Y245.963
X8.379 Y246.046
X8.508 Y246.124
X8.639 Y246.196
X8.773 Y246.263
X8.91 Y246.324
X9.05 Y246.379
X9.191 Y246.429
X9.335 Y246.472
X9.48 Y246.51
X9.627 Y246.542
X9.775 Y246.567
X9.923 Y246.587
X10.073 Y246.6
X10.223 Y246.607
X10.373 Y246.608
X10.522 Y246.603
X10.672 Y246.592
X10.821 Y246.575
X10.969 Y246.551
X11.116 Y246.522
X11.262 Y246.487
X11.406 Y246.446
X11.549 Y246.399
X11.689 Y246.346
X11.827 Y246.287
X11.963 Y246.223
X12.096 Y246.154
X12.226 Y246.079
X12.353 Y245.999
X12.476 Y245.914
X12.596 Y245.823
X12.712 Y245.729
X12.824 Y245.629
X12.932 Y245.525
X13.036 Y245.416
X13.135 Y245.304
X13.23 Y245.188
X13.32 Y245.067
X13.404 Y244.944
X13.484 Y244.816
X13.558 Y244.686
X13.627 Y244.553
X13.69 Y244.417
X13.748 Y244.278
X13.8 Y244.138
X13.846 Y243.995
X13.886 Y243.85
X13.921 Y243.704
X13.949 Y243.557
X13.971 Y243.409
X13.987 Y243.26
X13.998 Y243.11
X14.002 Y242.96
X14. Y242.81
X13.991 Y242.66
X13.977 Y242.511
X13.957 Y242.362
X13.931 Y242.215
X13.898 Y242.068
X13.86 Y241.923
X13.816 Y241.78
X13.767 Y241.638
X13.711 Y241.499
X13.65 Y241.362
X13.584 Y241.227
X13.512 Y241.096
X13.435 Y240.967
X13.352 Y240.842
X13.265 Y240.72
X13.173 Y240.601
X13.076 Y240.487
X12.974 Y240.376
X12.869 Y240.27
X12.758 Y240.168
X12.644 Y240.071
X12.526 Y239.978
X12.405 Y239.89
X12.28 Y239.808
X12.151 Y239.73
X12.02 Y239.658
X11.885 Y239.591
X11.748 Y239.53
X11.609 Y239.474
X11.468 Y239.425
X11.324 Y239.38
X11.179 Y239.342
X11.033 Y239.31
X10.885 Y239.284
X10.736 Y239.263
X10.587 Y239.249
X10.437 Y239.241
X10.287 Y239.239
X10.137 Y239.243
X9.988 Y239.253
X9.839 Y239.268
X9.69 Y239.29
X9.543 Y239.318
X9.397 Y239.352
X9.252 Y239.392
X9.109 Y239.437
X8.968 Y239.488
X8.829 Y239.545
X8.693 Y239.607
X8.559 Y239.675
X8.428 Y239.748
X8.3 Y239.826
X8.175 Y239.909
X8.054 Y239.998
X7.936 Y240.091
X7.822 Y240.188
X7.713 Y240.291
X7.607 Y240.397
X7.506 Y240.508
X7.409 Y240.623
X7.317 Y240.741
X7.23 Y240.863
X7.148 Y240.989
X7.071 Y241.118
X7. Y241.249
X6.933 Y241.384
X6.873 Y241.521
X6.818 Y241.661
X6.768 Y241.802
X6.725 Y241.946
X6.687 Y242.091
X6.655 Y242.238
X6.629 Y242.385
X6.609 Y242.534
X6.596 Y242.684
X6.588 Y242.833
X6.586 Y242.983
X6.59 Y243.133
X6.6 Y243.283
X6.616 Y243.432
X6.638 Y243.58
X6.665 Y243.728
X6.699 Y243.874
X6.739 Y244.019
X6.784 Y244.162
X6.835 Y244.303
X6.891 Y244.442
X6.953 Y244.578
X7.02 Y244.712
X7.093 Y244.844
X7.171 Y244.972
X7.254 Y245.097
X7.342 Y245.219
X7.434 Y245.337
X7.531 Y245.451
X7.633 Y245.561
X7.739 Y245.667
X7.849 Y245.769
X7.964 Y245.866
X8.082 Y245.959
X8.203 Y246.046
X8.328 Y246.129
X8.457 Y246.207
X8.588 Y246.279
X8.722 Y246.346
X8.859 Y246.408
X8.998 Y246.464
X9.139 Y246.514
X9.283 Y246.559
X9.428 Y246.597
X9.574 Y246.63
X9.722 Y246.657
X9.87 Y246.678
X10.019 Y246.693
X10.169 Y246.703
X10.319 Y246.706
X10.469 Y246.703
X10.619 Y246.694
X10.768 Y246.679
X10.917 Y246.659
X11.064 Y246.632
X11.211 Y246.6
X11.356 Y246.562
X11.499 Y246.518
X11.641 Y246.468
X11.78 Y246.413
X11.917 Y246.353
X12.052 Y246.287
X12.184 Y246.216
X12.313 Y246.139
X12.439 Y246.058
X12.562 Y245.971
X12.681 Y245.88
X12.796 Y245.784
X12.908 Y245.684
X13.015 Y245.579
X13.119 Y245.471
X13.217 Y245.358
X13.312 Y245.241
X13.401 Y245.121
X13.486 Y244.997
X13.566 Y244.87
X13.64 Y244.74
X13.709 Y244.606
X13.773 Y244.471
X13.831 Y244.333
X13.884 Y244.192
X13.931 Y244.05
X13.973 Y243.906
X14.008 Y243.76
X14.038 Y243.613
X14.062 Y243.465
X14.08 Y243.316
X14.092 Y243.166
X14.098 Y243.016
Y242.866
X14.093 Y242.716
X14.081 Y242.567
X14.063 Y242.418
X14.04 Y242.27
X14.011 Y242.123
X13.976 Y241.977
X13.935 Y241.832
X13.889 Y241.69
X13.837 Y241.549
X13.779 Y241.411
X13.716 Y241.274
X13.648 Y241.141
X13.575 Y241.01
X13.496 Y240.882
X13.412 Y240.758
X13.324 Y240.636
X13.231 Y240.519
X13.133 Y240.405
X13.031 Y240.295
X12.925 Y240.189
X12.815 Y240.088
X12.7 Y239.991
X12.582 Y239.898
X12.461 Y239.81
X12.335 Y239.728
X12.207 Y239.65
X12.076 Y239.577
X11.942 Y239.51
X11.805 Y239.448
X11.666 Y239.392
X11.525 Y239.341
X11.382 Y239.296
X11.237 Y239.256
X11.091 Y239.222
X10.944 Y239.195
X10.795 Y239.172
X10.646 Y239.156
X10.497 Y239.146
X10.347 Y239.142
X10.197 Y239.143
X10.047 Y239.15
X9.897 Y239.164
X9.749 Y239.183
X9.601 Y239.208
X9.454 Y239.238
X9.308 Y239.275
X9.164 Y239.317
X9.022 Y239.364
X8.882 Y239.417
X8.744 Y239.476
X8.608 Y239.54
X8.475 Y239.609
X8.345 Y239.684
X8.218 Y239.763
X8.094 Y239.847
X7.973 Y239.937
X7.856 Y240.03
X7.743 Y240.129
X7.633 Y240.231
X7.528 Y240.338
X7.427 Y240.449
X7.331 Y240.564
X7.239 Y240.683
X7.152 Y240.805
X7.069 Y240.93
X6.992 Y241.059
X6.92 Y241.19
X6.853 Y241.325
X6.792 Y241.462
X6.736 Y241.601
X6.686 Y241.742
X6.641 Y241.885
X6.602 Y242.03
X6.568 Y242.176
X6.541 Y242.324
X6.519 Y242.472
X6.503 Y242.621
X6.493 Y242.771
X6.488 Y242.921
X6.49 Y243.071
X6.497 Y243.221
X6.51 Y243.37
X6.529 Y243.519
X6.554 Y243.667
X6.584 Y243.814
X6.621 Y243.959
X6.662 Y244.103
X6.71 Y244.246
X6.763 Y244.386
X6.821 Y244.524
X6.884 Y244.66
X6.953 Y244.793
X7.027 Y244.924
X7.106 Y245.051
X7.19 Y245.176
X7.278 Y245.297
X7.372 Y245.414
X7.469 Y245.528
X7.572 Y245.638
X7.678 Y245.744
X7.788 Y245.845
X7.902 Y245.943
X8.02 Y246.035
X8.142 Y246.123
X8.267 Y246.206
X8.395 Y246.284
X8.526 Y246.357
X8.66 Y246.425
X8.796 Y246.487
X8.935 Y246.544
X9.076 Y246.596
X9.219 Y246.642
X9.363 Y246.682
X9.509 Y246.716
X9.656 Y246.745
X9.805 Y246.768
X9.954 Y246.786
X10.103 Y246.797
X10.253 Y246.803
X10.403 Y246.802
X10.553 Y246.796
X10.702 Y246.785
X10.851 Y246.767
X11. Y246.744
X11.147 Y246.715
X11.293 Y246.68
X11.437 Y246.64
X11.58 Y246.594
X11.721 Y246.542
X11.86 Y246.486
X11.996 Y246.423
X12.13 Y246.356
X12.262 Y246.284
X12.39 Y246.206
X12.516 Y246.124
X12.638 Y246.037
X12.756 Y245.945
X12.871 Y245.849
X12.983 Y245.748
X13.09 Y245.643
X13.193 Y245.534
X13.292 Y245.422
X13.386 Y245.305
X13.476 Y245.185
X13.561 Y245.061
X13.641 Y244.934
X13.716 Y244.805
X13.786 Y244.672
X13.851 Y244.537
X13.91 Y244.399
X13.964 Y244.259
X14.013 Y244.117
X14.056 Y243.973
X14.093 Y243.828
X14.125 Y243.681
X14.15 Y243.534
X14.171 Y243.385
X14.185 Y243.236
X14.194 Y243.086
X14.197 Y242.936
X14.194 Y242.786
X14.185 Y242.636
X14.17 Y242.487
X14.15 Y242.338
X14.124 Y242.19
X14.093 Y242.044
X14.056 Y241.898
X14.013 Y241.755
X13.965 Y241.613
X13.911 Y241.473
X13.852 Y241.335
X13.788 Y241.199
X13.719 Y241.066
X13.644 Y240.936
X13.565 Y240.809
X13.481 Y240.684
X13.392 Y240.564
X13.298 Y240.446
X13.2 Y240.333
X13.098 Y240.223
X12.992 Y240.117
X12.881 Y240.016
X12.767 Y239.918
X12.649 Y239.826
X12.528 Y239.738
X12.403 Y239.654
X12.275 Y239.576
X12.144 Y239.502
X12.011 Y239.434
X11.875 Y239.371
X11.736 Y239.314
X11.596 Y239.261
X11.453 Y239.215
X11.309 Y239.174
X11.163 Y239.138
X11.016 Y239.108
X10.868 Y239.084
X10.719 Y239.065
X10.57 Y239.052
X10.42 Y239.045
X10.27 Y239.044
X10.12 Y239.048
X9.97 Y239.058
X9.821 Y239.074
X9.673 Y239.096
X9.525 Y239.123
X9.379 Y239.155
X9.234 Y239.194
X9.09 Y239.238
X8.949 Y239.287
X8.809 Y239.342
X8.671 Y239.401
X8.536 Y239.467
X8.404 Y239.537
X8.274 Y239.612
X8.147 Y239.692
X8.024 Y239.777
X7.903 Y239.867
X7.786 Y239.961
X7.673 Y240.059
X7.564 Y240.162
X7.459 Y240.269
X7.358 Y240.38
X7.261 Y240.494
X7.169 Y240.612
X7.081 Y240.734
X6.998 Y240.859
X6.92 Y240.987
X6.847 Y241.118
X6.779 Y241.252
X6.717 Y241.388
X6.659 Y241.527
X6.607 Y241.668
X6.561 Y241.81
X6.52 Y241.955
X6.484 Y242.1
X6.455 Y242.247
X6.43 Y242.395
X6.412 Y242.544
X6.399 Y242.694
X6.392 Y242.844
X6.39 Y242.994
X6.395 Y243.144
X6.404 Y243.293
X6.42 Y243.442
X6.441 Y243.591
X6.468 Y243.738
X6.501 Y243.885
X6.539 Y244.03
X6.582 Y244.174
X6.631 Y244.315
X6.685 Y244.455
X6.744 Y244.593
X6.809 Y244.728
X6.878 Y244.861
X6.953 Y244.991
X7.033 Y245.119
X7.117 Y245.243
X7.206 Y245.364
X7.299 Y245.481
X7.397 Y245.595
X7.499 Y245.705
X7.605 Y245.811
X7.715 Y245.912
X7.829 Y246.01
X7.947 Y246.103
X8.068 Y246.191
X8.192 Y246.275
X8.32 Y246.354
X8.45 Y246.428
X8.584 Y246.497
X8.72 Y246.561
X8.858 Y246.619
X8.998 Y246.672
X9.14 Y246.72
X9.284 Y246.762
X9.43 Y246.799
X9.576 Y246.83
X9.724 Y246.856
X9.873 Y246.876
X10.022 Y246.89
X10.172 Y246.898
X10.322 Y246.901
X10.472 Y246.898
X10.622 Y246.89
X10.771 Y246.876
X10.92 Y246.856
X11.067 Y246.831
X11.214 Y246.8
X11.36 Y246.764
X11.504 Y246.722
X11.646 Y246.675
X11.787 Y246.622
X11.925 Y246.564
X12.061 Y246.501
X12.195 Y246.433
X12.326 Y246.36
X12.454 Y246.282
X12.579 Y246.2
X12.701 Y246.112
X12.82 Y246.021
X12.935 Y245.924
X13.046 Y245.824
X13.154 Y245.719
X13.257 Y245.611
X13.356 Y245.498
X13.451 Y245.382
X13.542 Y245.262
X13.628 Y245.139
X13.709 Y245.013
X13.785 Y244.884
X13.856 Y244.752
X13.922 Y244.617
X13.983 Y244.48
X14.039 Y244.341
X14.089 Y244.199
X14.134 Y244.056
X14.173 Y243.912
X14.207 Y243.765
X14.236 Y243.618
X14.259 Y243.47
X14.276 Y243.321
X14.288 Y243.171
X14.294 Y243.021
Y242.872
X14.289 Y242.722
X14.278 Y242.572
X14.261 Y242.423
X14.239 Y242.275
X14.212 Y242.127
X14.179 Y241.981
X14.14 Y241.836
X14.096 Y241.692
X14.047 Y241.551
X13.992 Y241.411
X13.932 Y241.273
X13.868 Y241.138
X13.798 Y241.005
X13.723 Y240.875
X13.643 Y240.748
X13.559 Y240.624
X13.47 Y240.504
X13.377 Y240.386
X13.279 Y240.272
X13.177 Y240.162
X13.071 Y240.056
X12.961 Y239.954
X12.847 Y239.856
X12.73 Y239.763
X12.609 Y239.674
X12.485 Y239.59
X12.358 Y239.51
X12.228 Y239.436
X12.095 Y239.366
X11.959 Y239.301
X11.822 Y239.242
X11.682 Y239.188
X11.54 Y239.139
X11.396 Y239.096
X11.251 Y239.058
X11.105 Y239.025
X10.957 Y238.998
X10.809 Y238.977
X10.66 Y238.961
X10.51 Y238.95
X10.36 Y238.946
X10.21 Y238.947
X10.06 Y238.953
X9.911 Y238.965
X9.762 Y238.983
X9.614 Y239.006
X9.466 Y239.035
X9.32 Y239.069
X9.176 Y239.108
X9.032 Y239.153
X8.891 Y239.203
X8.752 Y239.259
X8.614 Y239.319
X8.48 Y239.385
X8.347 Y239.455
X8.218 Y239.531
X8.091 Y239.611
X7.967 Y239.696
X7.847 Y239.785
X7.73 Y239.879
X7.616 Y239.977
X7.507 Y240.08
X7.401 Y240.186
X7.299 Y240.296
X7.202 Y240.41
X7.109 Y240.528
X7.02 Y240.649
X6.936 Y240.773
X6.857 Y240.901
X6.782 Y241.031
X6.713 Y241.164
X6.649 Y241.299
X6.589 Y241.437
X6.535 Y241.577
X6.486 Y241.719
X6.443 Y241.863
X6.405 Y242.008
X6.372 Y242.154
X6.345 Y242.302
X6.324 Y242.45
X6.308 Y242.599
X6.297 Y242.749
X6.292 Y242.899
X6.293 Y243.049
X6.299 Y243.199
X6.311 Y243.348
X6.328 Y243.497
X6.351 Y243.645
X6.379 Y243.793
X6.412 Y243.939
X6.451 Y244.084
X6.496 Y244.227
X6.545 Y244.369
X6.6 Y244.508
X6.66 Y244.646
X6.725 Y244.781
X6.795 Y244.914
X6.869 Y245.044
X6.949 Y245.171
X7.033 Y245.295
X7.121 Y245.416
X7.215 Y245.534
X7.312 Y245.648
X7.413 Y245.758
X7.519 Y245.865
X7.629 Y245.968
X7.742 Y246.066
X7.859 Y246.16
X7.979 Y246.249
X8.103 Y246.334
X8.229 Y246.415
X8.359 Y246.49
X8.491 Y246.561
X8.626 Y246.626
X8.763 Y246.687
X8.903 Y246.742
X9.044 Y246.792
X9.187 Y246.837
X9.332 Y246.877
X9.478 Y246.911
X9.626 Y246.939
X9.774 Y246.962
X9.923 Y246.98
X10.072 Y246.992
X10.222 Y246.998
X10.372 Y246.999
X10.522 Y246.995
X10.672 Y246.985
X10.821 Y246.969
X10.969 Y246.948
X11.117 Y246.922
X11.264 Y246.89
X11.409 Y246.852
X11.553 Y246.81
X11.695 Y246.762
X11.835 Y246.709
X11.973 Y246.651
X12.11 Y246.588
X12.243 Y246.52
X12.374 Y246.447
X12.503 Y246.369
X12.628 Y246.287
X12.75 Y246.2
X12.869 Y246.108
X12.985 Y246.012
X13.096 Y245.913
X13.205 Y245.809
X13.309 Y245.701
X13.409 Y245.589
X13.505 Y245.474
X13.596 Y245.355
X13.683 Y245.233
X13.766 Y245.107
X13.844 Y244.979
X13.917 Y244.848
X13.985 Y244.714
X14.048 Y244.578
X14.106 Y244.44
X14.159 Y244.3
X14.206 Y244.157
X14.248 Y244.013
X14.285 Y243.868
X14.317 Y243.721
X14.343 Y243.574
X14.364 Y243.425
X14.379 Y243.276
X14.389 Y243.126
X14.393 Y242.976
X14.392 Y242.826
X14.385 Y242.676
X14.373 Y242.527
X14.355 Y242.378
X14.332 Y242.23
X14.303 Y242.083
X14.269 Y241.936
X14.23 Y241.792
X14.186 Y241.648
X14.136 Y241.507
X14.081 Y241.367
X14.021 Y241.23
X13.957 Y241.094
X13.887 Y240.962
X13.812 Y240.831
X13.733 Y240.704
X13.649 Y240.58
X13.561 Y240.459
X13.468 Y240.341
X13.371 Y240.226
X13.27 Y240.116
X13.164 Y240.009
X13.055 Y239.906
X12.942 Y239.807
X12.826 Y239.712
X12.706 Y239.622
X12.583 Y239.536
X12.457 Y239.455
X12.328 Y239.379
X12.196 Y239.307
X12.062 Y239.24
X11.925 Y239.179
X11.786 Y239.122
X11.645 Y239.07
X11.503 Y239.024
X11.358 Y238.983
X11.213 Y238.947
X11.066 Y238.917
X10.918 Y238.892
X10.769 Y238.873
X10.62 Y238.859
X10.47 Y238.85
X10.32 Y238.847
X10.17 Y238.849
X10.02 Y238.857
X9.871 Y238.87
X9.722 Y238.889
X9.574 Y238.913
X9.427 Y238.942
X9.281 Y238.977
X9.136 Y239.017
X8.993 Y239.062
X8.852 Y239.112
X8.713 Y239.167
X8.575 Y239.228
X8.44 Y239.293
X8.308 Y239.364
X8.178 Y239.439
X8.051 Y239.518
X7.927 Y239.603
X7.806 Y239.691
X7.688 Y239.784
X7.574 Y239.882
X7.464 Y239.983
X7.357 Y240.089
X7.254 Y240.198
X7.156 Y240.311
X7.061 Y240.428
X6.971 Y240.547
X6.885 Y240.671
X6.804 Y240.797
X6.728 Y240.926
X6.656 Y241.058
X6.59 Y241.192
X6.528 Y241.329
X6.471 Y241.468
X6.419 Y241.608
X6.373 Y241.751
X6.332 Y241.895
X6.296 Y242.041
X6.265 Y242.188
X6.24 Y242.336
X6.22 Y242.484
X6.206 Y242.634
X6.197 Y242.783
X6.193 Y242.933
X6.195 Y243.083
X6.202 Y243.233
X6.215 Y243.383
X6.233 Y243.531
X6.256 Y243.68
X6.285 Y243.827
X6.319 Y243.973
X6.358 Y244.118
X6.402 Y244.261
X6.452 Y244.403
X6.506 Y244.542
X6.566 Y244.68
X6.631 Y244.815
X6.7 Y244.948
X6.774 Y245.079
X6.853 Y245.206
X6.936 Y245.331
X7.024 Y245.453
X7.116 Y245.571
X7.213 Y245.686
X7.313 Y245.797
X7.418 Y245.905
X7.526 Y246.008
X7.638 Y246.108
X7.754 Y246.204
X7.873 Y246.295
X7.996 Y246.382
X8.121 Y246.464
X8.249 Y246.541
X8.38 Y246.614
X8.514 Y246.682
X8.65 Y246.746
X8.788 Y246.804
X8.929 Y246.857
X9.071 Y246.905
X9.215 Y246.948
X9.36 Y246.985
X9.506 Y247.017
X9.654 Y247.044
X9.802 Y247.066
X9.951 Y247.082
X10.101 Y247.093
X10.251 Y247.098
X10.401
X10.551 Y247.092
X10.7 Y247.082
X10.85 Y247.065
X10.998 Y247.044
X11.146 Y247.017
X11.292 Y246.985
X11.437 Y246.948
X11.581 Y246.905
X11.724 Y246.857
X11.864 Y246.805
X12.002 Y246.747
X12.139 Y246.684
X12.273 Y246.617
X12.404 Y246.544
X12.533 Y246.468
X12.659 Y246.386
X12.782 Y246.3
X12.901 Y246.21
X13.018 Y246.115
X13.131 Y246.016
X13.24 Y245.913
X13.345 Y245.807
X13.447 Y245.696
X13.544 Y245.582
X13.638 Y245.465
X13.727 Y245.344
X13.811 Y245.22
X13.891 Y245.093
X13.966 Y244.964
X14.037 Y244.831
X14.103 Y244.696
X14.164 Y244.559
X14.22 Y244.42
X14.27 Y244.279
X14.316 Y244.136
X14.357 Y243.992
X14.392 Y243.846
X14.422 Y243.699
X14.447 Y243.551
X14.466 Y243.402
X14.48 Y243.253
X14.489 Y243.103
X14.492 Y242.953
X14.49 Y242.803
X14.483 Y242.653
X14.47 Y242.504
X14.452 Y242.355
X14.429 Y242.207
X14.4 Y242.06
X14.366 Y241.913
X14.327 Y241.769
X14.283 Y241.625
X14.234 Y241.484
X14.179 Y241.344
X14.12 Y241.206
X14.056 Y241.07
X13.987 Y240.937
X13.913 Y240.807
X13.835 Y240.679
X13.752 Y240.554
X13.665 Y240.432
X13.573 Y240.313
X13.477 Y240.197
X13.377 Y240.086
X13.274 Y239.977
X13.166 Y239.873
X13.055 Y239.772
X12.94 Y239.676
X12.821 Y239.584
X12.7 Y239.496
X12.575 Y239.413
X12.448 Y239.334
X12.317 Y239.259
X12.184 Y239.19
X12.049 Y239.125
X11.911 Y239.065
X11.772 Y239.011
X11.63 Y238.961
X11.487 Y238.916
X11.342 Y238.877
X11.196 Y238.842
X11.049 Y238.813
X10.901 Y238.79
X10.752 Y238.771
X10.603 Y238.758
X10.453 Y238.75
X10.303 Y238.747
X10.153 Y238.75
X10.003 Y238.758
X9.854 Y238.772
X9.705 Y238.79
X9.557 Y238.814
X9.41 Y238.844
X9.264 Y238.878
X9.119 Y238.918
X8.976 Y238.962
X8.834 Y239.012
X8.695 Y239.067
X8.557 Y239.126
X8.422 Y239.191
X8.289 Y239.26
X8.158 Y239.334
X8.03 Y239.413
X7.906 Y239.496
X7.784 Y239.583
X7.665 Y239.675
X7.55 Y239.771
X7.438 Y239.871
X7.33 Y239.975
X7.225 Y240.083
X7.125 Y240.194
X7.029 Y240.309
X6.936 Y240.427
X6.848 Y240.549
X6.765 Y240.674
X6.686 Y240.801
X6.611 Y240.931
X6.542 Y241.064
X6.477 Y241.199
X6.417 Y241.337
X6.362 Y241.476
X6.312 Y241.618
X6.267 Y241.761
X6.227 Y241.905
X6.192 Y242.051
X6.162 Y242.198
X6.138 Y242.346
X6.119 Y242.495
X6.105 Y242.645
X6.097 Y242.794
X6.094 Y242.944
X6.096 Y243.094
X6.103 Y243.244
X6.116 Y243.394
X6.134 Y243.542
X6.157 Y243.691
X6.185 Y243.838
X6.219 Y243.984
X6.257 Y244.129
X6.301 Y244.273
X6.35 Y244.414
X6.403 Y244.554
X6.462 Y244.693
X6.526 Y244.828
X6.594 Y244.962
X6.667 Y245.093
X6.744 Y245.221
X6.826 Y245.347
X6.913 Y245.47
X7.003 Y245.589
X7.098 Y245.705
X7.197 Y245.818
X7.3 Y245.927
X7.407 Y246.033
X7.517 Y246.134
X7.631 Y246.232
X7.749 Y246.325
X7.869 Y246.414
X7.993 Y246.499
X8.12 Y246.58
X8.249 Y246.655
X8.381 Y246.727
X8.515 Y246.793
X8.652 Y246.855
X8.791 Y246.911
X8.932 Y246.963
X9.074 Y247.01
X9.219 Y247.051
X9.364 Y247.088
X9.511 Y247.119
X9.658 Y247.146
X9.807 Y247.166
X9.956 Y247.182
X10.106 Y247.192
X10.256 Y247.198
X10.406 Y247.197
X10.556 Y247.192
X10.705 Y247.181
X10.854 Y247.166
X11.003 Y247.144
X11.151 Y247.118
X11.297 Y247.087
X11.443 Y247.05
X11.587 Y247.008
X11.729 Y246.961
X11.87 Y246.91
X12.009 Y246.853
X12.146 Y246.792
X12.28 Y246.725
X12.413 Y246.654
X12.542 Y246.579
X12.669 Y246.499
X12.793 Y246.414
X12.914 Y246.326
X13.032 Y246.233
X13.146 Y246.136
X13.257 Y246.035
X13.364 Y245.93
X13.468 Y245.821
X13.567 Y245.709
X13.663 Y245.594
X13.754 Y245.475
X13.842 Y245.353
X13.924 Y245.228
X14.003 Y245.1
X14.077 Y244.969
X14.146 Y244.836
X14.21 Y244.701
X14.27 Y244.563
X14.324 Y244.423
X14.374 Y244.282
X14.419 Y244.139
X14.459 Y243.994
X14.493 Y243.848
X14.523 Y243.701
X14.547 Y243.553
X14.566 Y243.404
X14.58 Y243.255
X14.589 Y243.105
X14.592 Y242.955
X14.59 Y242.805
X14.583 Y242.655
X14.571 Y242.506
X14.553 Y242.357
X14.531 Y242.208
X14.503 Y242.061
X14.47 Y241.915
X14.432 Y241.77
X14.388 Y241.626
X14.34 Y241.484
X14.287 Y241.344
X14.229 Y241.205
X14.167 Y241.069
X14.099 Y240.935
X14.027 Y240.804
X13.95 Y240.675
X13.869 Y240.548
X13.784 Y240.425
X13.694 Y240.305
X13.6 Y240.188
X13.502 Y240.075
X13.4 Y239.964
X13.294 Y239.858
X13.185 Y239.755
X13.072 Y239.657
X12.956 Y239.562
X12.836 Y239.471
X12.714 Y239.385
X12.588 Y239.303
X12.46 Y239.226
X12.328 Y239.153
X12.195 Y239.084
X12.059 Y239.021
X11.921 Y238.962
X11.781 Y238.908
X11.639 Y238.859
X11.496 Y238.815
X11.351 Y238.776
X11.205 Y238.742
X11.058 Y238.714
X10.91 Y238.69
X10.761 Y238.672
X10.611 Y238.658
X10.461 Y238.65
X10.311 Y238.647
X10.162 Y238.65
X10.012 Y238.657
X9.862 Y238.67
X9.713 Y238.688
X9.565 Y238.711
X9.418 Y238.739
X9.272 Y238.773
X9.127 Y238.811
X8.983 Y238.855
X8.841 Y238.903
X8.701 Y238.956
X8.563 Y239.014
X8.426 Y239.077
X8.292 Y239.145
X8.161 Y239.217
X8.032 Y239.294
X7.906 Y239.375
X7.783 Y239.461
X7.662 Y239.55
X7.545 Y239.644
X7.432 Y239.742
X7.322 Y239.844
X7.215 Y239.949
X7.112 Y240.059
X7.013 Y240.171
X6.918 Y240.288
X6.828 Y240.407
X6.741 Y240.529
X6.659 Y240.655
X6.581 Y240.783
X6.508 Y240.914
X6.439 Y241.047
X6.375 Y241.183
X6.316 Y241.321
X6.261 Y241.461
X6.212 Y241.602
X6.167 Y241.745
X6.128 Y241.89
X6.093 Y242.036
X6.064 Y242.183
X6.039 Y242.331
X6.02 Y242.48
X6.006 Y242.629
X5.997 Y242.779
X5.993 Y242.929
X5.995 Y243.079
X6.001 Y243.229
X6.013 Y243.378
X6.03 Y243.527
X6.052 Y243.676
X6.079 Y243.823
X6.112 Y243.97
X6.149 Y244.115
X6.191 Y244.259
X6.239 Y244.401
X6.291 Y244.542
X6.348 Y244.681
X6.409 Y244.817
X6.476 Y244.952
X6.547 Y245.084
X6.622 Y245.214
X6.702 Y245.341
X6.786 Y245.465
X6.875 Y245.586
X6.967 Y245.704
X7.064 Y245.818
X7.165 Y245.93
X7.269 Y246.037
X7.377 Y246.141
X7.489 Y246.242
X7.604 Y246.338
X7.722 Y246.43
X7.844 Y246.518
X7.968 Y246.602
X8.095 Y246.681
X8.225 Y246.756
X8.358 Y246.827
X8.493 Y246.892
X8.63 Y246.953
X8.769 Y247.01
X8.91 Y247.061
X9.052 Y247.108
X9.196 Y247.149
X9.342 Y247.186
X9.488 Y247.217
X9.636 Y247.243
X9.785 Y247.265
X9.934 Y247.281
X10.083 Y247.292
X10.233 Y247.298
X10.383
X10.533 Y247.294
X10.683 Y247.284
X10.832 Y247.269
X10.981 Y247.249
X11.129 Y247.224
X11.276 Y247.194
X11.422 Y247.159
X11.566 Y247.119
X11.709 Y247.074
X11.851 Y247.024
X11.99 Y246.97
X12.128 Y246.91
X12.264 Y246.846
X12.397 Y246.777
X12.528 Y246.704
X12.656 Y246.626
X12.782 Y246.544
X12.904 Y246.458
X13.024 Y246.367
X13.14 Y246.272
X13.253 Y246.174
X13.363 Y246.072
X13.469 Y245.965
X13.571 Y245.856
X13.67 Y245.743
X13.764 Y245.626
X13.855 Y245.507
X13.941 Y245.384
X14.023 Y245.258
X14.101 Y245.13
X14.174 Y244.999
X14.243 Y244.866
X14.307 Y244.73
X14.366 Y244.592
X14.42 Y244.452
X14.47 Y244.311
X14.515 Y244.168
X14.555 Y244.023
X14.59 Y243.877
X14.619 Y243.73
X14.644 Y243.582
X14.664 Y243.434
X14.678 Y243.284
X14.688 Y243.135
X14.692 Y242.985
Y242.835
X14.686 Y242.685
X14.675 Y242.535
X14.658 Y242.386
X14.637 Y242.238
X14.611 Y242.09
X14.58 Y241.943
X14.543 Y241.798
X14.502 Y241.653
X14.456 Y241.511
X14.405 Y241.37
X14.349 Y241.23
X14.289 Y241.093
X14.223 Y240.958
X14.154 Y240.825
X14.079 Y240.695
X14.001 Y240.567
X13.918 Y240.442
X13.831 Y240.32
X13.739 Y240.201
X13.644 Y240.085
X13.545 Y239.973
X13.442 Y239.864
X13.335 Y239.758
X13.225 Y239.657
X13.111 Y239.559
X12.994 Y239.465
X12.874 Y239.375
X12.751 Y239.29
X12.625 Y239.208
X12.496 Y239.131
X12.365 Y239.059
X12.231 Y238.991
X12.095 Y238.927
X11.957 Y238.868
X11.817 Y238.815
X11.675 Y238.765
X11.532 Y238.721
X11.387 Y238.682
X11.241 Y238.647
X11.094 Y238.618
X10.946 Y238.594
X10.797 Y238.574
X10.648 Y238.56
X10.498 Y238.551
X10.349 Y238.547
X10.199 Y238.548
X10.049 Y238.554
X9.899 Y238.566
X9.75 Y238.582
X9.601 Y238.603
X9.454 Y238.63
X9.307 Y238.661
X9.162 Y238.697
X9.017 Y238.739
X8.875 Y238.785
X8.734 Y238.836
X8.594 Y238.892
X8.457 Y238.952
X8.322 Y239.017
X8.189 Y239.087
X8.059 Y239.161
X7.931 Y239.239
X7.806 Y239.322
X7.683 Y239.409
X7.564 Y239.5
X7.448 Y239.595
X7.336 Y239.694
X7.226 Y239.797
X7.121 Y239.903
X7.019 Y240.013
X6.92 Y240.127
X6.826 Y240.243
X6.736 Y240.363
X6.65 Y240.486
X6.568 Y240.612
X6.49 Y240.74
X6.417 Y240.871
X6.348 Y241.004
X6.284 Y241.14
X6.225 Y241.278
X6.17 Y241.417
X6.12 Y241.559
X6.075 Y241.702
X6.035 Y241.846
X6. Y241.992
X5.969 Y242.139
X5.944 Y242.287
X5.924 Y242.436
X5.909 Y242.585
X5.898 Y242.734
X5.893 Y242.884
Y243.034
X5.898 Y243.184
X5.908 Y243.334
X5.923 Y243.483
X5.944 Y243.632
X5.969 Y243.78
X5.999 Y243.927
X6.034 Y244.072
X6.074 Y244.217
X6.119 Y244.36
X6.168 Y244.502
X6.223 Y244.642
X6.282 Y244.779
X6.345 Y244.915
X6.413 Y245.049
X6.486 Y245.18
X6.563 Y245.309
X6.644 Y245.435
X6.73 Y245.558
X6.82 Y245.678
X6.913 Y245.796
X7.011 Y245.909
X7.112 Y246.02
X7.217 Y246.127
X7.326 Y246.23
X7.438 Y246.33
X7.553 Y246.426
X7.672 Y246.518
X7.794 Y246.606
X7.918 Y246.689
X8.046 Y246.768
X8.175 Y246.843
X8.308 Y246.914
X8.443 Y246.98
X8.579 Y247.041
X8.718 Y247.098
X8.859 Y247.15
X9.001 Y247.197
X9.145 Y247.239
X9.291 Y247.277
X9.437 Y247.309
X9.584 Y247.337
X9.733 Y247.359
X9.882 Y247.377
X10.031 Y247.389
X10.181 Y247.397
X10.331 Y247.399
X10.481 Y247.397
X10.631 Y247.389
X10.78 Y247.376
X10.929 Y247.358
X11.077 Y247.336
X11.225 Y247.308
X11.371 Y247.275
X11.517 Y247.238
X11.66 Y247.195
X11.803 Y247.148
X11.944 Y247.096
X12.082 Y247.04
X12.219 Y246.978
X12.354 Y246.913
X12.487 Y246.842
X12.617 Y246.768
X12.744 Y246.689
X12.869 Y246.605
X12.991 Y246.518
X13.11 Y246.427
X13.226 Y246.331
X13.338 Y246.232
X13.447 Y246.129
X13.553 Y246.023
X13.655 Y245.913
X13.753 Y245.799
X13.848 Y245.683
X13.938 Y245.563
X14.024 Y245.44
X14.106 Y245.315
X14.184 Y245.187
X14.258 Y245.056
X14.327 Y244.923
X14.391 Y244.787
X14.451 Y244.65
X14.506 Y244.51
X14.557 Y244.369
X14.603 Y244.226
X14.644 Y244.082
X14.68 Y243.936
X14.711 Y243.79
X14.737 Y243.642
X14.758 Y243.493
X14.774 Y243.344
X14.786 Y243.195
X14.792 Y243.045
X14.793 Y242.895
X14.789 Y242.745
X14.78 Y242.595
X14.767 Y242.446
X14.748 Y242.297
X14.724 Y242.149
X14.695 Y242.002
X14.662 Y241.855
X14.623 Y241.71
X14.58 Y241.567
X14.532 Y241.425
X14.479 Y241.284
X14.422 Y241.146
X14.36 Y241.009
X14.294 Y240.875
X14.223 Y240.742
X14.147 Y240.613
X14.068 Y240.486
X13.984 Y240.361
X13.896 Y240.24
X13.804 Y240.121
X13.708 Y240.006
X13.608 Y239.894
X13.505 Y239.785
X13.398 Y239.68
X13.288 Y239.578
X13.174 Y239.48
X13.057 Y239.387
X12.937 Y239.297
X12.814 Y239.211
X12.688 Y239.129
X12.56 Y239.052
X12.429 Y238.978
X12.295 Y238.91
X12.16 Y238.846
X12.022 Y238.786
X11.883 Y238.731
X11.741 Y238.681
X11.598 Y238.635
X11.454 Y238.595
X11.308 Y238.559
X11.161 Y238.528
X11.014 Y238.502
X10.865 Y238.481
X10.716 Y238.465
X10.566 Y238.454
X10.417 Y238.447
X10.267 Y238.446
X10.117 Y238.45
X9.967 Y238.459
X9.818 Y238.473
X9.669 Y238.491
X9.521 Y238.515
X9.373 Y238.544
X9.227 Y238.577
X9.082 Y238.615
X8.938 Y238.658
X8.796 Y238.706
X8.656 Y238.758
X8.517 Y238.815
X8.38 Y238.877
X8.246 Y238.943
X8.113 Y239.014
X7.983 Y239.089
X7.856 Y239.168
X7.731 Y239.251
X7.609 Y239.339
X7.49 Y239.43
X7.375 Y239.526
X7.262 Y239.625
X7.153 Y239.728
X7.047 Y239.834
X6.945 Y239.944
X6.847 Y240.057
X6.752 Y240.174
X6.662 Y240.293
X6.575 Y240.416
X6.493 Y240.541
X6.415 Y240.669
X6.341 Y240.8
X6.271 Y240.933
X6.206 Y241.068
X6.146 Y241.205
X6.09 Y241.344
X6.039 Y241.485
X5.992 Y241.628
X5.95 Y241.772
X5.913 Y241.917
X5.881 Y242.064
X5.854 Y242.211
X5.832 Y242.36
X5.814 Y242.509
X5.802 Y242.658
X5.794 Y242.808
X5.792 Y242.958
X5.794 Y243.108
X5.802 Y243.258
X5.814 Y243.407
X5.831 Y243.556
X5.853 Y243.705
X5.88 Y243.852
X5.912 Y243.999
X5.949 Y244.144
X5.99 Y244.288
X6.036 Y244.431
X6.087 Y244.572
X6.143 Y244.712
X6.203 Y244.849
X6.267 Y244.985
X6.336 Y245.118
X6.409 Y245.249
X6.487 Y245.377
X6.569 Y245.503
X6.655 Y245.626
X6.745 Y245.746
X6.838 Y245.863
X6.936 Y245.977
X7.037 Y246.087
X7.142 Y246.195
X7.251 Y246.298
X7.362 Y246.398
X7.478 Y246.494
X7.596 Y246.587
X7.717 Y246.675
X7.841 Y246.759
X7.968 Y246.84
X8.097 Y246.915
X8.229 Y246.987
X8.363 Y247.054
X8.5 Y247.117
X8.638 Y247.175
X8.778 Y247.228
X8.92 Y247.277
X9.063 Y247.321
X9.208 Y247.36
X9.354 Y247.395
X9.501 Y247.425
X9.649 Y247.449
X9.798 Y247.469
X9.947 Y247.484
X10.097 Y247.494
X10.246 Y247.499
X10.396
X10.546 Y247.495
X10.696 Y247.485
X10.845 Y247.47
X10.994 Y247.451
X11.142 Y247.426
X11.289 Y247.397
X11.435 Y247.363
X11.58 Y247.324
X11.724 Y247.281
X11.866 Y247.233
X12.006 Y247.18
X12.145 Y247.122
X12.281 Y247.061
X12.416 Y246.994
X12.548 Y246.923
X12.678 Y246.848
X12.805 Y246.769
X12.93 Y246.686
X13.052 Y246.598
X13.171 Y246.507
X13.287 Y246.412
X13.4 Y246.313
X13.509 Y246.21
X13.615 Y246.104
X13.717 Y245.995
X13.816 Y245.882
X13.911 Y245.766
X14.002 Y245.646
X14.089 Y245.524
X14.172 Y245.399
X14.251 Y245.272
X14.326 Y245.142
X14.396 Y245.009
X14.462 Y244.874
X14.524 Y244.738
X14.581 Y244.599
X14.633 Y244.458
X14.681 Y244.316
X14.723 Y244.172
X14.762 Y244.027
X14.795 Y243.881
X14.824 Y243.734
X14.847 Y243.586
X14.866 Y243.437
X14.872 Y243.368
X14.874 Y243.321
X14.875 Y243.274
Y242.806
X14.862 Y242.539
X14.851 Y242.389
X14.834 Y242.24
X14.811 Y242.092
X14.783 Y241.944
X14.749 Y241.798
X14.71 Y241.653
X14.667 Y241.51
X14.618 Y241.368
X14.565 Y241.228
X14.507 Y241.089
X14.445 Y240.953
X14.378 Y240.819
X14.307 Y240.686
X14.231 Y240.557
X14.152 Y240.43
X14.068 Y240.305
X13.98 Y240.184
X13.888 Y240.065
X13.793 Y239.949
X13.694 Y239.837
X13.591 Y239.728
X13.484 Y239.622
X13.374 Y239.52
X13.261 Y239.421
X13.145 Y239.327
X13.026 Y239.236
X12.903 Y239.149
X12.778 Y239.066
X12.651 Y238.988
X12.52 Y238.913
X12.388 Y238.843
X12.253 Y238.777
X12.116 Y238.716
X11.977 Y238.659
X11.836 Y238.607
X11.694 Y238.559
X11.55 Y238.516
X11.405 Y238.478
X11.259 Y238.445
X11.112 Y238.416
X10.964 Y238.392
X10.815 Y238.373
X10.666 Y238.359
X10.516 Y238.35
X10.366 Y238.346
X10.216
X10.066 Y238.352
X9.917 Y238.362
X9.767 Y238.377
X9.619 Y238.397
X9.471 Y238.422
X9.324 Y238.451
X9.178 Y238.485
X9.033 Y238.524
X8.889 Y238.568
X8.747 Y238.616
X8.607 Y238.669
X8.468 Y238.726
X8.332 Y238.788
X8.197 Y238.855
X8.065 Y238.925
X7.935 Y239.
X7.807 Y239.079
X7.682 Y239.162
X7.56 Y239.249
X7.441 Y239.34
X7.325 Y239.435
X7.212 Y239.534
X7.102 Y239.636
X6.996 Y239.742
X6.893 Y239.851
X6.794 Y239.964
X6.698 Y240.079
X6.606 Y240.198
X6.519 Y240.32
X6.435 Y240.444
X6.355 Y240.571
X6.28 Y240.701
X6.209 Y240.833
X6.142 Y240.967
X6.079 Y241.103
X6.021 Y241.242
X5.968 Y241.382
X5.919 Y241.524
X5.875 Y241.667
X5.835 Y241.812
X5.801 Y241.958
X5.793 Y241.995
X5.776 Y242.095
X5.766 Y242.195
X5.762 Y242.296
Y243.424
X5.771 Y243.591
X5.781 Y243.74
X5.801 Y243.889
X5.828 Y244.037
X5.862 Y244.183
X5.902 Y244.327
X5.946 Y244.471
X5.996 Y244.612
X6.051 Y244.752
X6.111 Y244.889
X6.175 Y245.025
X6.243 Y245.158
X6.316 Y245.289
X6.393 Y245.418
X6.475 Y245.544
X6.56 Y245.668
X6.649 Y245.788
X6.742 Y245.906
X6.839 Y246.02
X6.94 Y246.132
X7.044 Y246.24
X7.151 Y246.344
X7.262 Y246.445
X7.376 Y246.543
X7.493 Y246.636
X7.614 Y246.726
X7.737 Y246.812
X7.862 Y246.893
X7.991 Y246.971
X8.122 Y247.044
X8.255 Y247.114
X8.39 Y247.178
X8.527 Y247.239
X8.667 Y247.295
X8.808 Y247.346
X8.95 Y247.393
X9.094 Y247.435
X9.239 Y247.472
X9.386 Y247.505
X9.533 Y247.533
X9.681 Y247.556
X9.83 Y247.574
X9.98 Y247.588
X10.129 Y247.597
X10.279 Y247.601
X10.429 Y247.6
X10.579 Y247.594
X10.729 Y247.584
X10.878 Y247.568
X11.027 Y247.548
X11.175 Y247.523
X11.322 Y247.494
X11.468 Y247.459
X11.612 Y247.42
X11.756 Y247.377
X11.898 Y247.329
X12.038 Y247.276
X12.177 Y247.219
X12.314 Y247.157
X12.449 Y247.091
X12.581 Y247.021
X12.712 Y246.947
X12.839 Y246.868
X12.964 Y246.786
X13.087 Y246.699
X13.207 Y246.609
X13.323 Y246.514
X13.437 Y246.416
X13.547 Y246.315
X13.654 Y246.209
X13.758 Y246.101
X13.858 Y245.989
X13.954 Y245.874
X14.047 Y245.756
X14.135 Y245.635
X14.22 Y245.512
X14.301 Y245.385
X14.378 Y245.256
X14.45 Y245.125
X14.518 Y244.991
X14.582 Y244.856
X14.642 Y244.718
X14.697 Y244.578
X14.747 Y244.437
X14.793 Y244.294
X14.817 Y244.211
X14.849 Y244.075
X14.868 Y243.937
X14.875 Y243.797
Y243.274
G2 X14.243 Y243.231 I-0.318 J0.
X14.581 Y243.278 I0.169 J0.023
X14.449 Y243.087 I-0.169 J-0.023
X14.313 Y243.708 I-0.068 J0.31
X14.654 Y243.56 I0.068 J-0.31
X14.875 Y242.806 I-1.36 J-0.809
G1 Y242.215
X14.868 Y242.065
X14.852 Y241.915
X14.827 Y241.768
X14.793 Y241.621
X14.753 Y241.477
X14.707 Y241.334
X14.656 Y241.193
X14.599 Y241.054
X14.538 Y240.917
X14.472 Y240.783
X14.402 Y240.65
X14.327 Y240.52
X14.248 Y240.393
X14.165 Y240.268
X14.078 Y240.145
X13.987 Y240.026
X13.892 Y239.91
X13.794 Y239.797
X13.692 Y239.687
X13.587 Y239.58
X13.478 Y239.477
X13.366 Y239.377
X13.25 Y239.281
X13.132 Y239.189
X13.011 Y239.1
X12.887 Y239.016
X12.76 Y238.935
X12.631 Y238.859
X12.5 Y238.787
X12.366 Y238.719
X12.23 Y238.655
X12.092 Y238.596
X11.953 Y238.542
X11.811 Y238.491
X11.668 Y238.446
X11.524 Y238.404
X11.379 Y238.368
X11.232 Y238.336
X11.085 Y238.309
X10.936 Y238.286
X10.787 Y238.269
X10.638 Y238.256
X10.488 Y238.248
X10.338 Y238.244
X10.188 Y238.246
X10.038 Y238.252
X9.889 Y238.263
X9.74 Y238.278
X9.591 Y238.298
X9.443 Y238.324
X9.296 Y238.353
X9.15 Y238.388
X9.005 Y238.427
X8.862 Y238.47
X8.72 Y238.518
X8.579 Y238.571
X8.44 Y238.628
X8.303 Y238.689
X8.169 Y238.755
X8.036 Y238.825
X7.905 Y238.899
X7.778 Y238.977
X7.652 Y239.059
X7.529 Y239.146
X7.409 Y239.236
X7.292 Y239.33
X7.178 Y239.427
X7.068 Y239.528
X6.96 Y239.633
X6.856 Y239.741
X6.756 Y239.852
X6.659 Y239.967
X6.565 Y240.084
X6.476 Y240.205
X6.39 Y240.328
X6.309 Y240.454
X6.231 Y240.582
X6.158 Y240.713
X6.088 Y240.846
X6.023 Y240.981
X5.963 Y241.118
X5.907 Y241.257
X5.855 Y241.398
X5.839 Y241.445
X5.797 Y241.6
X5.771 Y241.759
X5.762 Y241.919
Y242.296
G2 X6.083 Y242.603 I0.317 J-0.011
G1 X6.378 Y242.6
X14.26 Y242.524
X14.561 Y242.521
G2 X14.875 Y242.215 I-0.003 J-0.317
G1 Y241.841
X14.868 Y241.691
X14.846 Y241.542
X14.812 Y241.396
X14.77 Y241.252
X14.721 Y241.111
X14.666 Y240.971
X14.605 Y240.834
X14.539 Y240.699
X14.468 Y240.567
X14.393 Y240.437
X14.314 Y240.31
X14.23 Y240.185
X14.143 Y240.063
X14.051 Y239.945
X13.956 Y239.829
X13.857 Y239.716
X13.755 Y239.606
X13.649 Y239.5
X13.54 Y239.396
X13.428 Y239.297
X13.313 Y239.201
X13.195 Y239.109
X13.074 Y239.02
X12.95 Y238.935
X12.823 Y238.855
X12.695 Y238.778
X12.563 Y238.705
X12.43 Y238.637
X12.294 Y238.573
X12.157 Y238.513
X12.018 Y238.457
X11.877 Y238.406
X11.734 Y238.359
X11.59 Y238.317
X11.445 Y238.279
X11.299 Y238.245
X11.151 Y238.217
X11.003 Y238.193
X10.855 Y238.173
X10.705 Y238.159
X10.556 Y238.149
X10.406 Y238.143
X10.256 Y238.142
X10.106 Y238.146
X9.956 Y238.155
X9.807 Y238.168
X9.658 Y238.186
X9.509 Y238.208
X9.362 Y238.236
X9.215 Y238.267
X9.07 Y238.303
X8.925 Y238.344
X8.782 Y238.389
X8.641 Y238.439
X8.501 Y238.493
X8.363 Y238.551
X8.226 Y238.613
X8.092 Y238.68
X7.96 Y238.751
X7.83 Y238.826
X7.702 Y238.905
X7.577 Y238.988
X7.455 Y239.074
X7.335 Y239.165
X7.218 Y239.259
X7.105 Y239.357
X6.994 Y239.458
X6.887 Y239.563
X6.782 Y239.671
X6.682 Y239.782
X6.585 Y239.896
X6.491 Y240.014
X6.401 Y240.134
X6.315 Y240.257
X6.233 Y240.382
X6.155 Y240.51
X6.081 Y240.64
X6.011 Y240.773
X5.945 Y240.908
X5.883 Y241.045
X5.872 Y241.073
X5.811 Y241.255
X5.775 Y241.444
X5.762 Y241.636
Y241.919
G2 X6.083 Y242.226 I0.317 J-0.011
G1 X6.378 Y242.223
X14.26 Y242.15
X14.561 Y242.147
G2 X14.875 Y241.841 I-0.003 J-0.317
G1 Y241.536
X14.868 Y241.386
X14.84 Y241.239
X14.799 Y241.094
X14.75 Y240.952
X14.694 Y240.813
X14.632 Y240.677
X14.564 Y240.543
X14.492 Y240.412
X14.414 Y240.283
X14.332 Y240.158
X14.246 Y240.035
X14.156 Y239.915
X14.063 Y239.798
X13.965 Y239.684
X13.864 Y239.573
X13.76 Y239.465
X13.652 Y239.361
X13.541 Y239.26
X13.427 Y239.162
X13.31 Y239.068
X13.19 Y238.978
X13.068 Y238.892
X12.942 Y238.809
X12.815 Y238.73
X12.685 Y238.655
X12.552 Y238.585
X12.418 Y238.518
X12.282 Y238.455
X12.144 Y238.397
X12.004 Y238.343
X11.862 Y238.293
X11.719 Y238.248
X11.575 Y238.207
X11.429 Y238.17
X11.283 Y238.138
X11.135 Y238.111
X10.987 Y238.088
X10.838 Y238.069
X10.689 Y238.055
X10.539 Y238.046
X10.389 Y238.041
X10.239
X10.089 Y238.045
X9.94 Y238.054
X9.79 Y238.067
X9.641 Y238.085
X9.493 Y238.108
X9.346 Y238.135
X9.199 Y238.166
X9.053 Y238.202
X8.909 Y238.242
X8.766 Y238.287
X8.624 Y238.336
X8.484 Y238.389
X8.345 Y238.447
X8.208 Y238.508
X8.074 Y238.574
X7.941 Y238.644
X7.81 Y238.718
X7.682 Y238.796
X7.556 Y238.878
X7.433 Y238.963
X7.313 Y239.053
X7.195 Y239.146
X7.08 Y239.242
X6.968 Y239.342
X6.86 Y239.445
X6.754 Y239.552
X6.652 Y239.662
X6.553 Y239.775
X6.458 Y239.891
X6.366 Y240.009
X6.278 Y240.131
X6.194 Y240.255
X6.113 Y240.381
X6.037 Y240.51
X5.964 Y240.642
X5.893 Y240.782
X5.821 Y240.979
X5.777 Y241.185
X5.762 Y241.395
Y241.636
G2 X6.084 Y241.942 I0.317 J-0.011
G1 X6.378 Y241.939
X14.26 Y241.846
X14.561 Y241.842
G2 X14.875 Y241.536 I-0.004 J-0.317
G1 Y241.311
X14.868 Y241.161
X14.841 Y241.014
X14.799 Y240.87
X14.748 Y240.729
X14.688 Y240.591
X14.622 Y240.456
X14.55 Y240.325
X14.473 Y240.196
X14.391 Y240.07
X14.305 Y239.948
X14.215 Y239.828
X14.121 Y239.711
X14.023 Y239.597
X13.922 Y239.486
X13.817 Y239.379
X13.709 Y239.275
X13.598 Y239.174
X13.484 Y239.077
X13.367 Y238.983
X13.247 Y238.893
X13.124 Y238.807
X12.999 Y238.724
X12.871 Y238.645
X12.742 Y238.57
X12.609 Y238.499
X12.475 Y238.432
X12.339 Y238.369
X12.201 Y238.31
X12.062 Y238.255
X11.92 Y238.204
X11.778 Y238.158
X11.634 Y238.116
X11.488 Y238.079
X11.342 Y238.045
X11.195 Y238.017
X11.047 Y237.992
X10.898 Y237.972
X10.749 Y237.957
X10.599 Y237.946
X10.45 Y237.939
X10.3 Y237.937
X10.15 Y237.94
X10. Y237.947
X9.85 Y237.958
X9.701 Y237.974
X9.552 Y237.994
X9.404 Y238.019
X9.257 Y238.048
X9.111 Y238.081
X8.966 Y238.119
X8.822 Y238.161
X8.679 Y238.208
X8.538 Y238.258
X8.398 Y238.313
X8.26 Y238.372
X8.124 Y238.435
X7.99 Y238.502
X7.858 Y238.573
X7.728 Y238.648
X7.6 Y238.727
X7.475 Y238.809
X7.352 Y238.895
X7.232 Y238.985
X7.115 Y239.079
X7.001 Y239.176
X6.889 Y239.276
X6.781 Y239.38
X6.675 Y239.486
X6.573 Y239.596
X6.474 Y239.709
X6.379 Y239.825
X6.287 Y239.944
X6.199 Y240.065
X6.114 Y240.189
X6.034 Y240.315
X5.957 Y240.444
X5.934 Y240.487
X5.84 Y240.709
X5.782 Y240.944
X5.762 Y241.185
Y241.395
G2 X6.083 Y241.701 I0.317 J-0.011
G1 X6.378 Y241.698
X14.26 Y241.62
X14.561 Y241.618
G2 X14.875 Y241.311 I-0.003 J-0.317
G1 Y241.046
X14.868 Y240.896
X14.831 Y240.751
X14.782 Y240.609
X14.724 Y240.471
X14.658 Y240.336
X14.586 Y240.204
X14.508 Y240.076
X14.426 Y239.951
X14.339 Y239.829
X14.247 Y239.71
X14.152 Y239.594
X14.053 Y239.481
X13.951 Y239.371
X13.845 Y239.265
X13.736 Y239.162
X13.624 Y239.062
X13.509 Y238.966
X13.391 Y238.873
X13.27 Y238.784
X13.147 Y238.699
X13.021 Y238.617
X12.893 Y238.539
X12.763 Y238.465
X12.631 Y238.394
X12.496 Y238.328
X12.36 Y238.265
X12.221 Y238.207
X12.082 Y238.153
X11.94 Y238.103
X11.797 Y238.057
X11.653 Y238.015
X11.508 Y237.978
X11.362 Y237.945
X11.215 Y237.916
X11.067 Y237.891
X10.918 Y237.871
X10.769 Y237.855
X10.619 Y237.844
X10.469 Y237.837
X10.319 Y237.834
X10.169 Y237.836
X10.019 Y237.842
X9.87 Y237.853
X9.721 Y237.868
X9.572 Y237.887
X9.424 Y237.911
X9.276 Y237.939
X9.13 Y237.971
X8.984 Y238.007
X8.84 Y238.048
X8.697 Y238.093
X8.555 Y238.142
X8.415 Y238.195
X8.276 Y238.252
X8.139 Y238.314
X8.004 Y238.379
X7.871 Y238.448
X7.74 Y238.521
X7.611 Y238.598
X7.485 Y238.679
X7.361 Y238.763
X7.239 Y238.851
X7.12 Y238.942
X7.004 Y239.037
X6.891 Y239.135
X6.78 Y239.237
X6.673 Y239.342
X6.569 Y239.449
X6.468 Y239.56
X6.37 Y239.674
X6.275 Y239.791
X6.184 Y239.91
X6.097 Y240.032
X6.013 Y240.156
X5.972 Y240.226
X5.857 Y240.468
X5.786 Y240.726
X5.762 Y240.992
Y241.185
G2 X6.085 Y241.491 I0.317 J-0.011
G1 X6.378 Y241.486
X14.26 Y241.357
X14.563 Y241.352
G2 X14.875 Y241.046 I-0.005 J-0.317
G1 Y240.841
X14.868 Y240.692
X14.829 Y240.546
X14.778 Y240.406
X14.717 Y240.269
X14.648 Y240.135
X14.572 Y240.006
X14.491 Y239.88
X14.405 Y239.757
X14.315 Y239.637
X14.22 Y239.521
X14.122 Y239.407
X14.02 Y239.297
X13.914 Y239.191
X13.805 Y239.087
X13.694 Y238.988
X13.579 Y238.891
X13.461 Y238.798
X13.341 Y238.708
X13.218 Y238.622
X13.093 Y238.54
X12.965 Y238.461
X12.835 Y238.386
X12.703 Y238.315
X12.569 Y238.248
X12.433 Y238.185
X12.295 Y238.126
X12.156 Y238.07
X12.015 Y238.019
X11.872 Y237.972
X11.728 Y237.929
X11.584 Y237.89
X11.438 Y237.855
X11.291 Y237.825
X11.143 Y237.799
X10.995 Y237.777
X10.846 Y237.759
X10.696 Y237.746
X10.547 Y237.737
X10.397 Y237.732
X10.247 Y237.731
X10.097 Y237.735
X9.947 Y237.743
X9.797 Y237.756
X9.648 Y237.773
X9.5 Y237.793
X9.352 Y237.819
X9.205 Y237.848
X9.059 Y237.882
X8.914 Y237.92
X8.77 Y237.962
X8.627 Y238.008
X8.485 Y238.058
X8.346 Y238.112
X8.207 Y238.17
X8.071 Y238.232
X7.936 Y238.298
X7.803 Y238.368
X7.673 Y238.441
X7.544 Y238.519
X7.418 Y238.6
X7.294 Y238.684
X7.172 Y238.772
X7.054 Y238.864
X6.937 Y238.959
X6.824 Y239.057
X6.713 Y239.158
X6.606 Y239.263
X6.501 Y239.37
X6.4 Y239.481
X6.302 Y239.594
X6.207 Y239.711
X6.115 Y239.829
X6.029 Y239.952
X5.988 Y240.019
X5.864 Y240.268
X5.788 Y240.535
X5.762 Y240.811
Y240.992
G2 X6.085 Y241.298 I0.317 J-0.011
G1 X6.378 Y241.293
X14.26 Y241.153
X14.563 Y241.148
G2 X14.875 Y240.841 I-0.006 J-0.317
G1 Y240.654
X14.868 Y240.505
X14.829 Y240.36
X14.776 Y240.219
X14.712 Y240.084
X14.641 Y239.952
X14.563 Y239.824
X14.479 Y239.699
X14.39 Y239.578
X14.297 Y239.461
X14.2 Y239.346
X14.099 Y239.236
X13.994 Y239.128
X13.886 Y239.024
X13.775 Y238.923
X13.661 Y238.826
X13.544 Y238.732
X13.424 Y238.642
X13.302 Y238.555
X13.177 Y238.472
X13.05 Y238.392
X12.921 Y238.316
X12.789 Y238.244
X12.656 Y238.175
X12.52 Y238.111
X12.383 Y238.05
X12.244 Y237.993
X12.104 Y237.941
X11.962 Y237.892
X11.819 Y237.847
X11.674 Y237.806
X11.529 Y237.77
X11.383 Y237.737
X11.235 Y237.709
X11.087 Y237.685
X10.939 Y237.665
X10.789 Y237.65
X10.64 Y237.638
X10.49 Y237.631
X10.34 Y237.628
X10.19 Y237.629
X10.04 Y237.634
X9.89 Y237.644
X9.741 Y237.658
X9.592 Y237.676
X9.444 Y237.698
X9.296 Y237.724
X9.149 Y237.754
X9.003 Y237.789
X8.858 Y237.828
X8.714 Y237.87
X8.572 Y237.917
X8.431 Y237.968
X8.291 Y238.022
X8.153 Y238.081
X8.017 Y238.143
X7.882 Y238.209
X7.749 Y238.279
X7.619 Y238.353
X7.49 Y238.43
X7.364 Y238.511
X7.24 Y238.596
X7.118 Y238.684
X6.999 Y238.775
X6.883 Y238.869
X6.769 Y238.967
X6.658 Y239.068
X6.55 Y239.172
X6.445 Y239.279
X6.343 Y239.389
X6.244 Y239.502
X6.149 Y239.618
X6.059 Y239.738
X5.975 Y239.866
X5.858 Y240.108
X5.787 Y240.368
X5.762 Y240.636
Y240.811
G2 X6.086 Y241.117 I0.317 J-0.011
G1 X6.378 Y241.112
X14.26 Y240.966
X14.564 Y240.961
G2 X14.875 Y240.654 I-0.006 J-0.317
G1 Y240.468
X14.868 Y240.318
X14.827 Y240.173
X14.771 Y240.034
X14.705 Y239.9
X14.631 Y239.769
X14.55 Y239.643
X14.464 Y239.52
X14.372 Y239.401
X14.276 Y239.286
X14.176 Y239.174
X14.073 Y239.065
X13.966 Y238.96
X13.855 Y238.859
X13.742 Y238.761
X13.626 Y238.666
X13.507 Y238.575
X13.385 Y238.487
X13.261 Y238.403
X13.134 Y238.322
X13.005 Y238.245
X12.875 Y238.172
X12.742 Y238.102
X12.607 Y238.037
X12.47 Y237.975
X12.332 Y237.916
X12.192 Y237.862
X12.051 Y237.812
X11.908 Y237.766
X11.764 Y237.723
X11.619 Y237.685
X11.473 Y237.651
X11.326 Y237.62
X11.179 Y237.594
X11.03 Y237.572
X10.881 Y237.554
X10.732 Y237.54
X10.582 Y237.531
X10.432 Y237.525
X10.282 Y237.524
X10.132 Y237.527
X9.983 Y237.533
X9.833 Y237.544
X9.684 Y237.56
X9.535 Y237.579
X9.387 Y237.602
X9.239 Y237.629
X9.093 Y237.661
X8.947 Y237.696
X8.802 Y237.736
X8.659 Y237.779
X8.516 Y237.827
X8.375 Y237.878
X8.236 Y237.933
X8.098 Y237.992
X7.962 Y238.055
X7.827 Y238.121
X7.695 Y238.191
X7.564 Y238.265
X7.435 Y238.342
X7.309 Y238.423
X7.185 Y238.507
X7.063 Y238.595
X6.944 Y238.686
X6.827 Y238.78
X6.713 Y238.878
X6.602 Y238.978
X6.493 Y239.082
X6.388 Y239.188
X6.285 Y239.298
X6.187 Y239.411
X6.093 Y239.528
X6.005 Y239.65
X5.991 Y239.673
X5.865 Y239.923
X5.788 Y240.191
X5.762 Y240.469
Y240.636
G2 X6.086 Y240.943 I0.317 J-0.011
G1 X6.378 Y240.937
X14.26 Y240.78
X14.564 Y240.774
G2 X14.875 Y240.468 I-0.006 J-0.317
G1 Y240.281
X14.868 Y240.131
X14.823 Y239.988
X14.764 Y239.85
X14.694 Y239.717
X14.617 Y239.588
X14.534 Y239.463
X14.445 Y239.343
X14.351 Y239.226
X14.252 Y239.113
X14.15 Y239.003
X14.044 Y238.897
X13.934 Y238.794
X13.822 Y238.695
X13.706 Y238.6
X13.588 Y238.508
X13.467 Y238.419
X13.343 Y238.334
X13.218 Y238.252
X13.089 Y238.174
X12.959 Y238.1
X12.827 Y238.029
X12.693 Y237.962
X12.557 Y237.899
X12.419 Y237.839
X12.28 Y237.784
X12.139 Y237.732
X11.997 Y237.684
X11.853 Y237.64
X11.709 Y237.6
X11.563 Y237.564
X11.417 Y237.532
X11.269 Y237.504
X11.121 Y237.48
X10.973 Y237.46
X10.823 Y237.444
X10.674 Y237.432
X10.524 Y237.424
X10.374 Y237.42
X10.224
X10.074 Y237.424
X9.924 Y237.433
X9.775 Y237.445
X9.626 Y237.462
X9.477 Y237.482
X9.329 Y237.506
X9.182 Y237.535
X9.036 Y237.567
X8.89 Y237.604
X8.745 Y237.644
X8.602 Y237.688
X8.46 Y237.736
X8.319 Y237.788
X8.18 Y237.843
X8.042 Y237.903
X7.906 Y237.966
X7.772 Y238.032
X7.639 Y238.103
X7.509 Y238.177
X7.38 Y238.254
X7.254 Y238.335
X7.13 Y238.419
X7.008 Y238.507
X6.888 Y238.597
X6.771 Y238.691
X6.657 Y238.788
X6.545 Y238.889
X6.437 Y238.992
X6.331 Y239.098
X6.229 Y239.208
X6.131 Y239.321
X6.039 Y239.44
X6.013 Y239.479
X5.876 Y239.738
X5.791 Y240.019
X5.762 Y240.31
Y240.469
G2 X6.087 Y240.776 I0.317 J-0.011
G1 X6.377 Y240.769
X14.26 Y240.594
X14.565 Y240.587
G2 X14.875 Y240.281 I-0.007 J-0.317
G1 Y240.094
X14.868 Y239.944
X14.817 Y239.803
X14.754 Y239.666
X14.682 Y239.535
X14.602 Y239.408
X14.515 Y239.286
X14.424 Y239.167
X14.327 Y239.052
X14.226 Y238.941
X14.121 Y238.834
X14.013 Y238.73
X13.901 Y238.63
X13.786 Y238.534
X13.669 Y238.441
X13.548 Y238.351
X13.426 Y238.265
X13.3 Y238.182
X13.173 Y238.103
X13.043 Y238.028
X12.912 Y237.956
X12.778 Y237.888
X12.642 Y237.823
X12.505 Y237.763
X12.367 Y237.706
X12.226 Y237.652
X12.085 Y237.603
X11.942 Y237.557
X11.798 Y237.516
X11.653 Y237.478
X11.506 Y237.444
X11.359 Y237.414
X11.212 Y237.388
