(1001)
(BOTTOM GUIDE)
(T1  D=3.175 CR=0. - ZMIN=-7.85 - FLAT END MILL)
G90 G94 G91.1 G40 G49 G17
G21
G0 Z15

(2D CONTOUR1)
M5
T1 M6
S15000 M3
G54
M8
G0 X158.846 Y147.8
G43 Z16. H1
Z6.
G1 Z3.818 F800.
X158.854 Z3.747
X158.877 Z3.68
X158.915 Z3.62
X158.966 Z3.569
X159.026 Z3.531
X159.093 Z3.508
X159.164 Z3.5
X159.481 Y147.799 F1600.
G3 X159.799 Y148.116 I0.001 J0.317
X132.397 Y202.052 Z1.307 I-66.476 J0.156
G2 X132.046 Y204.269 Z1.22 I0.933 J1.284
G1 X151.758 Y231.4 Z0.049
G2 X152.935 Y232.051 Z0. I1.284 J-0.933
X153.975 Y231.751 I0.107 J-1.584
X242.38 Y121.532 I-157.695 J-217.049
X241.415 Y119.39 I-1.456 J-0.632
G1 X188.572 Y102.22
X195.931 Y79.573
G2 X194.912 Y77.573 I-1.51 J-0.491
G1 X23.947 Y22.023
G2 X21.946 Y23.042 I-0.491 J1.51
G3 X12.142 Y36.536 I-25.667 J-8.34
G2 X11.791 Y38.753 I0.933 J1.284
G1 X52.032 Y94.139
G2 X54.249 Y94.491 I1.284 J-0.933
G3 X132.397 Y202.052 I39.074 J53.781
G2 X132.046 Y204.269 I0.933 J1.284
G1 X151.758 Y231.4
G2 X152.935 Y232.051 I1.284 J-0.933
X153.975 Y231.751 Z-0.023 I0.107 J-1.584
X190.046 Y200.263 Z-1. I-157.695 J-217.049
X242.38 Y121.532 I-193.766 J-185.56
X241.415 Y119.39 I-1.456 J-0.632
G1 X188.572 Y102.22
X195.931 Y79.573
G2 X194.912 Y77.573 I-1.51 J-0.491
G1 X23.947 Y22.023
G2 X21.946 Y23.042 I-0.491 J1.51
G3 X12.142 Y36.536 I-25.667 J-8.34
G2 X11.791 Y38.753 I0.933 J1.284
G1 X52.032 Y94.139
G2 X54.249 Y94.491 I1.284 J-0.933
G3 X132.397 Y202.052 I39.074 J53.781
G2 X132.046 Y204.269 I0.933 J1.284
G1 X151.758 Y231.4
G2 X153.975 Y231.751 I1.284 J-0.933
X190.046 Y200.263 I-157.695 J-217.049
X220.553 Y161.942 Z-2. I-193.766 J-185.56
X242.38 Y121.532 I-224.274 J-147.239
X241.415 Y119.39 I-1.456 J-0.632
G1 X188.572 Y102.22
X195.931 Y79.573
G2 X194.912 Y77.573 I-1.51 J-0.491
G1 X23.947 Y22.023
G2 X21.946 Y23.042 I-0.491 J1.51
G3 X12.142 Y36.536 I-25.667 J-8.34
G2 X11.791 Y38.753 I0.933 J1.284
G1 X52.032 Y94.139
G2 X54.249 Y94.491 I1.284 J-0.933
G3 X132.397 Y202.052 I39.074 J53.781
G2 X132.046 Y204.269 I0.933 J1.284
G1 X151.758 Y231.4
G2 X153.975 Y231.751 I1.284 J-0.933
X220.553 Y161.942 I-157.695 J-217.049
X242.38 Y121.532 Z-2.937 I-224.274 J-147.239
X241.415 Y119.39 Z-2.991 I-1.456 J-0.632
G1 X241.014 Y119.26 Z-3.
X188.572 Y102.22
X195.931 Y79.573
G2 X194.912 Y77.573 I-1.51 J-0.491
G1 X23.947 Y22.023
G2 X21.946 Y23.042 I-0.491 J1.51
G3 X12.142 Y36.536 I-25.667 J-8.34
G2 X11.791 Y38.753 I0.933 J1.284
G1 X52.032 Y94.139
G2 X54.249 Y94.491 I1.284 J-0.933
G3 X132.397 Y202.052 I39.074 J53.781
G2 X132.046 Y204.269 I0.933 J1.284
G1 X151.758 Y231.4
G2 X153.975 Y231.751 I1.284 J-0.933
X242.38 Y121.532 I-157.695 J-217.049
X241.415 Y119.39 I-1.456 J-0.632
G1 X241.014 Y119.26
X194.365 Y104.102 Z-4.
X188.572 Y102.22
X195.931 Y79.573
G2 X194.912 Y77.573 I-1.51 J-0.491
G1 X23.947 Y22.023
G2 X21.946 Y23.042 I-0.491 J1.51
G3 X12.142 Y36.536 I-25.667 J-8.34
G2 X11.791 Y38.753 I0.933 J1.284
G1 X52.032 Y94.139
G2 X54.249 Y94.491 I1.284 J-0.933
G3 X132.397 Y202.052 I39.074 J53.781
G2 X132.046 Y204.269 I0.933 J1.284
G1 X151.758 Y231.4
G2 X153.975 Y231.751 I1.284 J-0.933
X242.38 Y121.532 I-157.695 J-217.049
X241.415 Y119.39 I-1.456 J-0.632
G1 X194.365 Y104.102
X188.572 Y102.22 Z-4.124
X195.931 Y79.573 Z-4.61
G2 X194.912 Y77.573 Z-4.66 I-1.51 J-0.491
G1 X179.074 Y72.427 Z-5.
X23.947 Y22.023
G2 X21.946 Y23.042 I-0.491 J1.51
G3 X12.142 Y36.536 I-25.667 J-8.34
G2 X11.791 Y38.753 I0.933 J1.284
G1 X52.032 Y94.139
G2 X54.249 Y94.491 I1.284 J-0.933
G3 X132.397 Y202.052 I39.074 J53.781
G2 X132.046 Y204.269 I0.933 J1.284
G1 X151.758 Y231.4
G2 X153.975 Y231.751 I1.284 J-0.933
X242.38 Y121.532 I-157.695 J-217.049
X241.415 Y119.39 I-1.456 J-0.632
G1 X194.365 Y104.102
X188.572 Y102.22
X195.931 Y79.573
G2 X194.912 Y77.573 I-1.51 J-0.491
G1 X179.074 Y72.427
X132.425 Y57.269 Z-6.
X23.947 Y22.023
G2 X21.946 Y23.042 I-0.491 J1.51
G3 X12.142 Y36.536 I-25.667 J-8.34
G2 X11.791 Y38.753 I0.933 J1.284
G1 X52.032 Y94.139
G2 X54.249 Y94.491 I1.284 J-0.933
G3 X132.397 Y202.052 I39.074 J53.781
G2 X132.046 Y204.269 I0.933 J1.284
G1 X151.758 Y231.4
G2 X153.975 Y231.751 I1.284 J-0.933
X242.38 Y121.532 I-157.695 J-217.049
X241.415 Y119.39 I-1.456 J-0.632
G1 X188.572 Y102.22
X195.931 Y79.573
G2 X194.912 Y77.573 I-1.51 J-0.491
G1 X132.425 Y57.269
X85.776 Y42.112 Z-7.
X23.947 Y22.023
G2 X21.946 Y23.042 I-0.491 J1.51
G3 X12.142 Y36.536 I-25.667 J-8.34
G2 X11.791 Y38.753 I0.933 J1.284
G1 X52.032 Y94.139
G2 X54.249 Y94.491 I1.284 J-0.933
G3 X132.397 Y202.052 I39.074 J53.781
G2 X132.046 Y204.269 I0.933 J1.284
G1 X151.758 Y231.4
G2 X153.975 Y231.751 I1.284 J-0.933
X242.38 Y121.532 I-157.695 J-217.049
X241.415 Y119.39 I-1.456 J-0.632
G1 X188.572 Y102.22
X195.931 Y79.573
G2 X194.912 Y77.573 I-1.51 J-0.491
G1 X132.425 Y57.269
X85.776 Y42.112
X46.124 Y29.229 Z-7.85
X23.947 Y22.023
G2 X21.946 Y23.042 I-0.491 J1.51
G3 X12.142 Y36.536 I-25.667 J-8.34
G2 X11.791 Y38.753 I0.933 J1.284
G1 X52.032 Y94.139
G2 X54.249 Y94.491 I1.284 J-0.933
G3 X132.397 Y202.052 I39.074 J53.781
G2 X132.046 Y204.269 I0.933 J1.284
G1 X151.758 Y231.4
G2 X153.975 Y231.751 I1.284 J-0.933
X242.38 Y121.532 I-157.695 J-217.049
X241.415 Y119.39 I-1.456 J-0.632
G1 X188.572 Y102.22
X195.931 Y79.573
G2 X194.912 Y77.573 I-1.51 J-0.491
G1 X85.776 Y42.112
X46.124 Y29.229
G3 X45.92 Y28.829 I0.098 J-0.302
G1 X46.018 Y28.527
X46.04 Y28.459 Z-7.842
X46.061 Y28.396 Z-7.819
X46.079 Y28.338 Z-7.781
X46.095 Y28.291 Z-7.73
X46.107 Y28.255 Z-7.67
X46.114 Y28.232 Z-7.603
X46.116 Y28.225 Z-7.533
G0 Z16.
M5
G0 Z15
G0 X0 Y0

M9
M30
