(X8 SHOOTER PLATE CONTOUR)
(T3  D=0.118 CR=0. - ZMIN=-0.195 - FLAT END MILL)
G90 G94 G91.1 G40 G49 G17
G20

(2D CONTOUR1)
M5
T3 M6
S15000 M3
G4 p5
g0 z.5
G54
M8
G0 X2.3864 Y1.6059
G43 Z0.6 H3
Z0.2
G1 Z0.1118 F20.
X2.3865 Y1.6062 Z0.1092 F30.
X2.387 Y1.607 Z0.1067
X2.3876 Y1.6082 Z0.1044
X2.3886 Y1.6098 Z0.1026
X2.3897 Y1.6118 Z0.1012
X2.3909 Y1.6139 Z0.1003
X2.3922 Y1.6162 Z0.1
X2.3979 Y1.6265
G3 X2.3934 Y1.6426 I-0.0103 J0.0058
G1 X2.0179 Y1.8527 Z0.0925 F20.
G2 X-0.059 Y5.3948 Z0.0173 I1.9821 J3.5422
G1 Y7.5056 Z-0.0195
Y10.4839 F30.
G2 X0.1539 Y10.9229 I0.559 J0.
G1 X3.4039 Y13.4854
G2 X7.8603 Y15.0701 I4.5718 J-5.7985
X8.405 Y14.9535 I0.0194 J-1.2399
G1 X10.2473 Y14.0918
G2 X11.289 Y11.4676 I-0.8723 J-1.8651
G1 X7.0591 Y0.8028
G2 X5.1237 Y0.1148 I-1.2688 J0.5032
G1 X2.0179 Y1.8527
G2 X-0.059 Y5.3948 I1.9821 J3.5422
G1 Y7.5056
Y8.6228 Z-0.039 F20.
Y10.4839 F30.
G2 X0.1539 Y10.9229 I0.559 J0.
G1 X3.4039 Y13.4854
G2 X7.8603 Y15.0701 I4.5718 J-5.7985
X8.405 Y14.9535 I0.0194 J-1.2399
G1 X10.2473 Y14.0918
G2 X11.289 Y11.4676 I-0.8723 J-1.8651
G1 X7.0591 Y0.8028
G2 X5.1237 Y0.1148 I-1.2688 J0.5032
G1 X2.0179 Y1.8527
G2 X-0.059 Y5.3948 I1.9821 J3.5422
G1 Y7.5056
Y8.6228
Y9.7399 Z-0.0585 F20.
Y10.4839 F30.
G2 X0.1539 Y10.9229 I0.559 J0.
G1 X3.4039 Y13.4854
G2 X7.8603 Y15.0701 I4.5718 J-5.7985
X8.405 Y14.9535 I0.0194 J-1.2399
G1 X10.2473 Y14.0918
G2 X11.289 Y11.4676 I-0.8723 J-1.8651
G1 X7.0591 Y0.8028
G2 X5.1237 Y0.1148 I-1.2688 J0.5032
G1 X2.0179 Y1.8527
G2 X-0.059 Y5.3948 I1.9821 J3.5422
G1 Y8.6228
Y9.7399
Y10.4839 Z-0.0715 F20.
G2 X0.061 Y10.83 Z-0.078 I0.559 J0.
X0.1539 Y10.9229 I0.439 J-0.3461 F30.
G1 X3.4039 Y13.4854
G2 X7.8603 Y15.0701 I4.5718 J-5.7985
X8.405 Y14.9535 I0.0194 J-1.2399
G1 X10.2473 Y14.0918
G2 X11.289 Y11.4676 I-0.8723 J-1.8651
G1 X7.0591 Y0.8028
G2 X5.1237 Y0.1148 I-1.2688 J0.5032
G1 X2.0179 Y1.8527
G2 X-0.059 Y5.3948 I1.9821 J3.5422
G1 Y9.7399
Y10.4839
G2 X0.061 Y10.83 I0.559 J0.
X0.1539 Y10.9229 Z-0.0803 I0.439 J-0.3461 F20.
G1 X0.9277 Y11.5331 Z-0.0975
X3.4039 Y13.4854 F30.
G2 X7.8603 Y15.0701 I4.5718 J-5.7985
X8.405 Y14.9535 I0.0194 J-1.2399
G1 X10.2473 Y14.0918
G2 X11.289 Y11.4676 I-0.8723 J-1.8651
G1 X7.0591 Y0.8028
G2 X5.1237 Y0.1148 I-1.2688 J0.5032
G1 X2.0179 Y1.8527
G2 X-0.059 Y5.3948 I1.9821 J3.5422
G1 Y10.4839
G2 X0.1539 Y10.9229 I0.559 J0.
G1 X0.9277 Y11.5331
X1.805 Y12.2248 Z-0.117 F20.
X3.4039 Y13.4854 F30.
G2 X7.8603 Y15.0701 I4.5718 J-5.7985
X8.405 Y14.9535 I0.0194 J-1.2399
G1 X10.2473 Y14.0918
G2 X11.289 Y11.4676 I-0.8723 J-1.8651
G1 X7.0591 Y0.8028
G2 X5.1237 Y0.1148 I-1.2688 J0.5032
G1 X2.0179 Y1.8527
G2 X-0.059 Y5.3948 I1.9821 J3.5422
G1 Y10.4839
G2 X0.1539 Y10.9229 I0.559 J0.
G1 X1.805 Y12.2248
X2.6823 Y12.9164 Z-0.1365 F20.
X3.4039 Y13.4854 F30.
G2 X7.8603 Y15.0701 I4.5718 J-5.7985
X8.405 Y14.9535 I0.0194 J-1.2399
G1 X10.2473 Y14.0918
G2 X11.289 Y11.4676 I-0.8723 J-1.8651
G1 X7.0591 Y0.8028
G2 X5.1237 Y0.1148 I-1.2688 J0.5032
G1 X2.0179 Y1.8527
G2 X-0.059 Y5.3948 I1.9821 J3.5422
G1 Y10.4839
G2 X0.1539 Y10.9229 I0.559 J0.
G1 X1.805 Y12.2248
X2.6823 Y12.9164
X3.4039 Y13.4854 Z-0.1525 F20.
G2 X3.5612 Y13.606 Z-0.156 I4.5718 J-5.7985
X7.8603 Y15.0701 I4.4146 J-5.9191 F30.
X8.405 Y14.9535 I0.0194 J-1.2399
G1 X10.2473 Y14.0918
G2 X11.289 Y11.4676 I-0.8723 J-1.8651
G1 X7.0591 Y0.8028
G2 X5.1237 Y0.1148 I-1.2688 J0.5032
G1 X2.0179 Y1.8527
G2 X-0.059 Y5.3948 I1.9821 J3.5422
G1 Y10.4839
G2 X0.1539 Y10.9229 I0.559 J0.
G1 X2.6823 Y12.9164
X3.4039 Y13.4854
G2 X3.5612 Y13.606 I4.5718 J-5.7985
X4.5037 Y14.2038 Z-0.1755 I4.4146 J-5.9191 F20.
X7.8603 Y15.0701 I3.472 J-6.5168 F30.
X8.405 Y14.9535 I0.0194 J-1.2399
G1 X10.2473 Y14.0918
G2 X11.289 Y11.4676 I-0.8723 J-1.8651
G1 X7.0591 Y0.8028
G2 X5.1237 Y0.1148 I-1.2688 J0.5032
G1 X2.0179 Y1.8527
G2 X-0.059 Y5.3948 I1.9821 J3.5422
G1 Y10.4839
G2 X0.1539 Y10.9229 I0.559 J0.
G1 X3.4039 Y13.4854
G2 X4.5037 Y14.2038 I4.5718 J-5.7985
X5.5255 Y14.6526 Z-0.195 I3.472 J-6.5168 F20.
X7.8603 Y15.0701 I2.4502 J-6.9657 F30.
X8.405 Y14.9535 I0.0194 J-1.2399
G1 X10.2473 Y14.0918
G2 X11.289 Y11.4676 I-0.8723 J-1.8651
G1 X7.0591 Y0.8028
G2 X5.1237 Y0.1148 I-1.2688 J0.5032
G1 X2.0179 Y1.8527
G2 X-0.059 Y5.3948 I1.9821 J3.5422
G1 Y10.4839
G2 X0.1539 Y10.9229 I0.559 J0.
G1 X3.4039 Y13.4854
G2 X5.5255 Y14.6526 I4.5718 J-5.7985
G3 X5.5328 Y14.6677 I-0.0039 J0.0111
G1 X5.5288 Y14.6788
X5.528 Y14.6813 Z-0.1947
X5.5271 Y14.6836 Z-0.1938
X5.5264 Y14.6857 Z-0.1924
X5.5258 Y14.6875 Z-0.1906
X5.5253 Y14.6888 Z-0.1883
X5.525 Y14.6897 Z-0.1858
X5.5249 Y14.6899 Z-0.1832
G0 Z0.6
g0 x0 y0

M9
M30
