(RIGHT SIDE GEARBOX DS011520)
(T1  D=6.35 CR=0. - ZMIN=-7.35 - FLAT END MILL)
G90 G94 G91.1 G40 G49 G17
G21
G0 Z15

(BORE3)
M5
T1 M6
S16000 M3
G54
M8
G0 X48.439 Y45.085
G43 Z16. H1
Z4.
G1 Z2.635 F890.
G18 G3 X47.804 Z2. I-0.635 K0.
G1 X47.486
G17 G2 X46.851 Y45.72 I0. J0.635
X59.253 Z1.836 I6.201 J0.
X46.851 Z1.673 I-6.201 J0.
X59.253 Z1.509 I6.201 J0.
X46.851 Z1.345 I-6.201 J0.
X59.253 Z1.182 I6.201 J0.
X46.851 Z1.018 I-6.201 J0.
X59.253 Z0.854 I6.201 J0.
X46.851 Z0.691 I-6.201 J0.
X59.253 Z0.527 I6.201 J0.
X46.851 Z0.363 I-6.201 J0.
X59.253 Z0.2 I6.201 J0.
X46.851 Z0.036 I-6.201 J0.
X59.253 Z-0.128 I6.201 J0.
X46.851 Z-0.291 I-6.201 J0.
X59.253 Z-0.455 I6.201 J0.
X46.851 Z-0.619 I-6.201 J0.
X59.253 Z-0.782 I6.201 J0.
X46.851 Z-0.946 I-6.201 J0.
X59.253 Z-1.11 I6.201 J0.
X46.851 Z-1.273 I-6.201 J0.
X59.253 Z-1.437 I6.201 J0.
X46.851 Z-1.6 I-6.201 J0.
X59.253 Z-1.764 I6.201 J0.
X46.851 Z-1.928 I-6.201 J0.
X59.253 Z-2.091 I6.201 J0.
X46.851 Z-2.255 I-6.201 J0.
X59.253 Z-2.419 I6.201 J0.
X46.851 Z-2.582 I-6.201 J0.
X59.253 Z-2.746 I6.201 J0.
X46.851 Z-2.91 I-6.201 J0.
X59.253 Z-3.073 I6.201 J0.
X46.851 Z-3.237 I-6.201 J0.
X59.253 Z-3.401 I6.201 J0.
X46.851 Z-3.564 I-6.201 J0.
X59.253 Z-3.728 I6.201 J0.
X46.851 Z-3.892 I-6.201 J0.
X59.253 Z-4.055 I6.201 J0.
X46.851 Z-4.219 I-6.201 J0.
X59.253 Z-4.383 I6.201 J0.
X46.851 Z-4.546 I-6.201 J0.
X59.253 Z-4.71 I6.201 J0.
X46.851 Z-4.874 I-6.201 J0.
X59.253 Z-5.037 I6.201 J0.
X46.851 Z-5.201 I-6.201 J0.
X59.253 Z-5.365 I6.201 J0.
X46.851 Z-5.528 I-6.201 J0.
X59.253 Z-5.692 I6.201 J0.
X46.851 Z-5.856 I-6.201 J0.
X59.253 Z-6.019 I6.201 J0.
X46.851 Z-6.183 I-6.201 J0.
X59.253 Z-6.347 I6.201 J0.
X46.851 Z-6.51 I-6.201 J0.
X59.253 Z-6.674 I6.201 J0.
X46.851 Z-6.838 I-6.201 J0.
X59.253 Z-7.001 I6.201 J0.
X46.851 Z-7.165 I-6.201 J0.
X59.253 Z-7.329 I6.201 J0.
X58.735 Y43.238 Z-7.35 I-6.201 J0.
X47.37 Y48.202 I-5.682 J2.482
X58.735 Y43.238 I5.682 J-2.482
X57.899 Y42.91 I-0.582 J0.254 F800.
G1 X57.608 Y43.037
X57.517 Y43.077 Z-7.342
X57.428 Y43.116 Z-7.319
X57.344 Y43.153 Z-7.281
X57.266 Y43.187 Z-7.229
X57.196 Y43.217 Z-7.164
X57.137 Y43.243 Z-7.088
X57.089 Y43.264 Z-7.003
X57.054 Y43.279 Z-6.911
X57.033 Y43.288 Z-6.814
X57.026 Y43.291 Z-6.715
G0 Z6.
X43.464 Y45.085
Z4.
G1 Z2.635 F890.
G18 G3 X42.829 Z2. I-0.635 K0.
G1 X42.511
G17 G2 X41.876 Y45.72 I0. J0.635
X64.228 Z1.75 I11.176 J0.
X41.876 Z1.499 I-11.176 J0.
X64.228 Z1.249 I11.176 J0.
X41.876 Z0.998 I-11.176 J0.
X64.228 Z0.748 I11.176 J0.
X41.876 Z0.497 I-11.176 J0.
X64.228 Z0.247 I11.176 J0.
X41.876 Z-0.004 I-11.176 J0.
X64.228 Z-0.254 I11.176 J0.
X41.876 Z-0.505 I-11.176 J0.
X64.228 Z-0.755 I11.176 J0.
X41.876 Z-1.006 I-11.176 J0.
X64.228 Z-1.256 I11.176 J0.
X41.876 Z-1.507 I-11.176 J0.
X64.228 Z-1.757 I11.176 J0.
X41.876 Z-2.008 I-11.176 J0.
X64.228 Z-2.258 I11.176 J0.
X41.876 Z-2.509 I-11.176 J0.
X64.228 Z-2.759 I11.176 J0.
X41.876 Z-3.01 I-11.176 J0.
X64.228 Z-3.26 I11.176 J0.
X41.876 Z-3.511 I-11.176 J0.
X64.228 Z-3.761 I11.176 J0.
X41.876 Z-4.012 I-11.176 J0.
X64.228 Z-4.262 I11.176 J0.
X41.876 Z-4.513 I-11.176 J0.
X64.228 Z-4.763 I11.176 J0.
X41.876 Z-5.014 I-11.176 J0.
X64.228 Z-5.264 I11.176 J0.
X41.876 Z-5.515 I-11.176 J0.
X64.228 Z-5.765 I11.176 J0.
X41.876 Z-6.016 I-11.176 J0.
X64.228 Z-6.266 I11.176 J0.
X41.876 Z-6.517 I-11.176 J0.
X64.228 Z-6.767 I11.176 J0.
X41.876 Z-7.018 I-11.176 J0.
X64.228 Z-7.268 I11.176 J0.
X58.871 Y36.178 Z-7.35 I-11.176 J0.
X47.234 Y55.262 I-5.818 J9.542
X58.871 Y36.178 I5.818 J-9.542
X57.998 Y36.39 I-0.331 J0.542 F800.
G1 X57.833 Y36.661
X57.781 Y36.746 Z-7.342
X57.731 Y36.828 Z-7.319
X57.683 Y36.907 Z-7.281
X57.638 Y36.979 Z-7.229
X57.599 Y37.044 Z-7.164
X57.565 Y37.099 Z-7.088
X57.538 Y37.144 Z-7.003
X57.518 Y37.176 Z-6.911
X57.506 Y37.196 Z-6.814
X57.502 Y37.203 Z-6.715
G0 Z6.
X102.414 Y45.085
Z4.
G1 Z2.635 F890.
G18 G3 X101.779 Z2. I-0.635 K0.
G1 X101.461
G17 G2 X100.826 Y45.72 I0. J0.635
X106.878 Z1.892 I3.026 J0.
X100.826 Z1.784 I-3.026 J0.
X106.878 Z1.675 I3.026 J0.
X100.826 Z1.567 I-3.026 J0.
X106.878 Z1.459 I3.026 J0.
X100.826 Z1.351 I-3.026 J0.
X106.878 Z1.242 I3.026 J0.
X100.826 Z1.134 I-3.026 J0.
X106.878 Z1.026 I3.026 J0.
X100.826 Z0.918 I-3.026 J0.
X106.878 Z0.809 I3.026 J0.
X100.826 Z0.701 I-3.026 J0.
X106.878 Z0.593 I3.026 J0.
X100.826 Z0.485 I-3.026 J0.
X106.878 Z0.376 I3.026 J0.
X100.826 Z0.268 I-3.026 J0.
X106.878 Z0.16 I3.026 J0.
X100.826 Z0.052 I-3.026 J0.
X106.878 Z-0.057 I3.026 J0.
X100.826 Z-0.165 I-3.026 J0.
X106.878 Z-0.273 I3.026 J0.
X100.826 Z-0.381 I-3.026 J0.
X106.878 Z-0.489 I3.026 J0.
X100.826 Z-0.598 I-3.026 J0.
X106.878 Z-0.706 I3.026 J0.
X100.826 Z-0.814 I-3.026 J0.
X106.878 Z-0.922 I3.026 J0.
X100.826 Z-1.031 I-3.026 J0.
X106.878 Z-1.139 I3.026 J0.
X100.826 Z-1.247 I-3.026 J0.
X106.878 Z-1.355 I3.026 J0.
X100.826 Z-1.464 I-3.026 J0.
X106.878 Z-1.572 I3.026 J0.
X100.826 Z-1.68 I-3.026 J0.
X106.878 Z-1.788 I3.026 J0.
X100.826 Z-1.897 I-3.026 J0.
X106.878 Z-2.005 I3.026 J0.
X100.826 Z-2.113 I-3.026 J0.
X106.878 Z-2.221 I3.026 J0.
X100.826 Z-2.33 I-3.026 J0.
X106.878 Z-2.438 I3.026 J0.
X100.826 Z-2.546 I-3.026 J0.
X106.878 Z-2.654 I3.026 J0.
X100.826 Z-2.763 I-3.026 J0.
X106.878 Z-2.871 I3.026 J0.
X100.826 Z-2.979 I-3.026 J0.
X106.878 Z-3.087 I3.026 J0.
X100.826 Z-3.195 I-3.026 J0.
X106.878 Z-3.304 I3.026 J0.
X100.826 Z-3.412 I-3.026 J0.
X106.878 Z-3.52 I3.026 J0.
X100.826 Z-3.628 I-3.026 J0.
X106.878 Z-3.737 I3.026 J0.
X100.826 Z-3.845 I-3.026 J0.
X106.878 Z-3.953 I3.026 J0.
X100.826 Z-4.061 I-3.026 J0.
X106.878 Z-4.17 I3.026 J0.
X100.826 Z-4.278 I-3.026 J0.
X106.878 Z-4.386 I3.026 J0.
X100.826 Z-4.494 I-3.026 J0.
X106.878 Z-4.603 I3.026 J0.
X100.826 Z-4.711 I-3.026 J0.
X106.878 Z-4.819 I3.026 J0.
X100.826 Z-4.927 I-3.026 J0.
X106.878 Z-5.036 I3.026 J0.
X100.826 Z-5.144 I-3.026 J0.
X106.878 Z-5.252 I3.026 J0.
X100.826 Z-5.36 I-3.026 J0.
X106.878 Z-5.468 I3.026 J0.
X100.826 Z-5.577 I-3.026 J0.
X106.878 Z-5.685 I3.026 J0.
X100.826 Z-5.793 I-3.026 J0.
X106.878 Z-5.901 I3.026 J0.
X100.826 Z-6.01 I-3.026 J0.
X106.878 Z-6.118 I3.026 J0.
X100.826 Z-6.226 I-3.026 J0.
X106.878 Z-6.334 I3.026 J0.
X100.826 Z-6.443 I-3.026 J0.
X106.878 Z-6.551 I3.026 J0.
X100.826 Z-6.659 I-3.026 J0.
X106.878 Z-6.767 I3.026 J0.
X100.826 Z-6.876 I-3.026 J0.
X106.878 Z-6.984 I3.026 J0.
X100.826 Z-7.092 I-3.026 J0.
X106.878 Z-7.2 I3.026 J0.
X100.826 Z-7.309 I-3.026 J0.
X102.765 Y48.544 Z-7.35 I3.026 J0.
X104.939 Y42.896 I1.087 J-2.824
X102.765 Y48.544 I-1.087 J2.824
X103.586 Y48.179 I0.228 J-0.593 F800.
G1 X103.7 Y47.883
X103.736 Y47.79 Z-7.342
X103.771 Y47.7 Z-7.319
X103.804 Y47.614 Z-7.281
X103.834 Y47.535 Z-7.229
X103.861 Y47.464 Z-7.164
X103.885 Y47.404 Z-7.088
X103.903 Y47.355 Z-7.003
X103.917 Y47.32 Z-6.911
X103.925 Y47.298 Z-6.814
X103.928 Y47.291 Z-6.715
G0 Z6.
X97.439 Y45.085
Z4.
G1 Z2.635 F890.
G18 G3 X96.804 Z2. I-0.635 K0.
G1 X96.486
G17 G2 X95.851 Y45.72 I0. J0.635
X111.853 Z1.805 I8.001 J0.
X95.851 Z1.61 I-8.001 J0.
X111.853 Z1.415 I8.001 J0.
X95.851 Z1.22 I-8.001 J0.
X111.853 Z1.025 I8.001 J0.
X95.851 Z0.83 I-8.001 J0.
X111.853 Z0.634 I8.001 J0.
X95.851 Z0.439 I-8.001 J0.
X111.853 Z0.244 I8.001 J0.
X95.851 Z0.049 I-8.001 J0.
X111.853 Z-0.146 I8.001 J0.
X95.851 Z-0.341 I-8.001 J0.
X111.853 Z-0.536 I8.001 J0.
X95.851 Z-0.731 I-8.001 J0.
X111.853 Z-0.926 I8.001 J0.
X95.851 Z-1.121 I-8.001 J0.
X111.853 Z-1.316 I8.001 J0.
X95.851 Z-1.511 I-8.001 J0.
X111.853 Z-1.706 I8.001 J0.
X95.851 Z-1.902 I-8.001 J0.
X111.853 Z-2.097 I8.001 J0.
X95.851 Z-2.292 I-8.001 J0.
X111.853 Z-2.487 I8.001 J0.
X95.851 Z-2.682 I-8.001 J0.
X111.853 Z-2.877 I8.001 J0.
X95.851 Z-3.072 I-8.001 J0.
X111.853 Z-3.267 I8.001 J0.
X95.851 Z-3.462 I-8.001 J0.
X111.853 Z-3.657 I8.001 J0.
X95.851 Z-3.852 I-8.001 J0.
X111.853 Z-4.047 I8.001 J0.
X95.851 Z-4.242 I-8.001 J0.
X111.853 Z-4.438 I8.001 J0.
X95.851 Z-4.633 I-8.001 J0.
X111.853 Z-4.828 I8.001 J0.
X95.851 Z-5.023 I-8.001 J0.
X111.853 Z-5.218 I8.001 J0.
X95.851 Z-5.413 I-8.001 J0.
X111.853 Z-5.608 I8.001 J0.
X95.851 Z-5.803 I-8.001 J0.
X111.853 Z-5.998 I8.001 J0.
X95.851 Z-6.193 I-8.001 J0.
X111.853 Z-6.388 I8.001 J0.
X95.851 Z-6.583 I-8.001 J0.
X111.853 Z-6.779 I8.001 J0.
X95.851 Z-6.974 I-8.001 J0.
X111.853 Z-7.169 I8.001 J0.
X96.046 Y43.965 Z-7.35 I-8.001 J0.
X111.658 Y47.475 I7.806 J1.755
X96.046 Y43.965 I-7.806 J-1.755
X96.526 Y44.724 I0.62 J0.139 F800.
G1 X96.836 Y44.793
X96.933 Y44.815 Z-7.342
X97.028 Y44.836 Z-7.319
X97.118 Y44.856 Z-7.281
X97.2 Y44.875 Z-7.229
X97.274 Y44.892 Z-7.164
X97.337 Y44.906 Z-7.088
X97.388 Y44.917 Z-7.003
X97.425 Y44.926 Z-6.911
X97.448 Y44.931 Z-6.814
X97.456 Y44.932 Z-6.715
G0 Z16.

(BORE4)
G0 X40.352 Y45.085
Z16.
Z4.
G1 Z2.635 F800.
G18 G3 X39.717 Z2. I-0.635 K0.
G1 X39.4
G17 G2 X38.765 Y45.72 I0. J0.635
X67.34 Z1.695 I14.288 J0.
X38.765 Z1.39 I-14.288 J0.
X67.34 Z1.086 I14.288 J0.
X38.765 Z0.781 I-14.288 J0.
X67.34 Z0.476 I14.288 J0.
X38.765 Z0.171 I-14.288 J0.
X67.34 Z-0.134 I14.288 J0.
X38.765 Z-0.438 I-14.288 J0.
X67.34 Z-0.743 I14.287 J0.
X38.765 Z-1.048 I-14.287 J0.
X67.34 Z-1.353 I14.287 J0.
X38.765 Z-1.658 I-14.287 J0.
X48.409 Y59.232 Z-1.778 I14.287 J0.
X57.695 Y32.208 I4.643 J-13.512
X48.409 Y59.232 I-4.643 J13.512
X49.216 Y58.838 I0.206 J-0.601
G1 X49.319 Y58.538
X49.352 Y58.444 Z-1.77
X49.383 Y58.352 Z-1.747
X49.413 Y58.265 Z-1.709
X49.441 Y58.185 Z-1.657
X49.465 Y58.113 Z-1.592
X49.486 Y58.052 Z-1.516
X49.503 Y58.002 Z-1.431
X49.516 Y57.966 Z-1.339
X49.523 Y57.944 Z-1.242
X49.526 Y57.937 Z-1.143
G0 Z6.
X94.708 Y45.085
Z4.
G1 Z2.635 F800.
G18 G3 X94.073 Z2. I-0.635 K0.
G1 X93.756
G17 G2 X93.121 Y45.72 I0. J0.635
X114.584 Z1.757 I10.731 J0.
X93.121 Z1.515 I-10.731 J0.
X114.584 Z1.272 I10.731 J0.
X93.121 Z1.029 I-10.731 J0.
X114.584 Z0.786 I10.731 J0.
X93.121 Z0.544 I-10.731 J0.
X114.584 Z0.301 I10.732 J0.
X93.121 Z0.058 I-10.732 J0.
X114.584 Z-0.185 I10.732 J0.
X93.121 Z-0.427 I-10.732 J0.
X114.584 Z-0.67 I10.732 J0.
X93.121 Z-0.913 I-10.732 J0.
X114.584 Z-1.156 I10.732 J0.
X93.121 Z-1.398 I-10.732 J0.
X114.584 Z-1.641 I10.732 J0.
X101.707 Y35.205 Z-1.778 I-10.732 J0.
X105.997 Y56.235 I2.145 J10.515
X101.707 Y35.205 I-2.145 J-10.515
X101.212 Y35.954 I0.127 J0.622
G1 X101.276 Y36.265
X101.296 Y36.363 Z-1.77
X101.315 Y36.457 Z-1.747
X101.333 Y36.548 Z-1.709
X101.35 Y36.631 Z-1.657
X101.365 Y36.705 Z-1.592
X101.378 Y36.769 Z-1.516
X101.389 Y36.82 Z-1.431
X101.396 Y36.857 Z-1.339
X101.401 Y36.88 Z-1.242
X101.403 Y36.887 Z-1.143
G0 Z16.

(BORE5)
G0 X79.352 Y80.137
Z16.
Z4.
G1 Z2.635 F800.
G18 G3 X78.717 Z2. I-0.635 K0.
G1 X78.4
G17 G2 X77.765 Y80.772 I0. J0.635
X89.465 Z1.842 I5.85 J0.
X77.765 Z1.685 I-5.85 J0.
X89.465 Z1.527 I5.85 J0.
X77.765 Z1.37 I-5.85 J0.
X89.465 Z1.212 I5.85 J0.
X77.765 Z1.055 I-5.85 J0.
X89.465 Z0.897 I5.85 J0.
X77.765 Z0.74 I-5.85 J0.
X89.465 Z0.582 I5.85 J0.
X77.765 Z0.425 I-5.85 J0.
X89.465 Z0.267 I5.85 J0.
X77.765 Z0.11 I-5.85 J0.
X89.465 Z-0.048 I5.85 J0.
X77.765 Z-0.205 I-5.85 J0.
X89.465 Z-0.363 I5.85 J0.
X77.765 Z-0.521 I-5.85 J0.
X89.465 Z-0.678 I5.85 J0.
X77.765 Z-0.836 I-5.85 J0.
X89.465 Z-0.993 I5.85 J0.
X77.765 Z-1.151 I-5.85 J0.
X89.465 Z-1.308 I5.85 J0.
X77.765 Z-1.466 I-5.85 J0.
X89.465 Z-1.623 I5.85 J0.
X77.765 Z-1.781 I-5.85 J0.
X89.465 Z-1.938 I5.85 J0.
X77.765 Z-2.096 I-5.85 J0.
X89.465 Z-2.253 I5.85 J0.
X77.765 Z-2.411 I-5.85 J0.
X89.465 Z-2.568 I5.85 J0.
X77.765 Z-2.726 I-5.85 J0.
X89.465 Z-2.883 I5.85 J0.
X77.765 Z-3.041 I-5.85 J0.
X89.465 Z-3.199 I5.85 J0.
X77.765 Z-3.356 I-5.85 J0.
X89.465 Z-3.514 I5.85 J0.
X77.765 Z-3.671 I-5.85 J0.
X89.465 Z-3.829 I5.85 J0.
X77.765 Z-3.986 I-5.85 J0.
X89.465 Z-4.144 I5.85 J0.
X77.765 Z-4.301 I-5.85 J0.
X89.465 Z-4.459 I5.85 J0.
X77.765 Z-4.616 I-5.85 J0.
X89.465 Z-4.774 I5.85 J0.
X77.765 Z-4.931 I-5.85 J0.
X89.465 Z-5.089 I5.85 J0.
X77.765 Z-5.246 I-5.85 J0.
X89.465 Z-5.404 I5.85 J0.
X77.765 Z-5.562 I-5.85 J0.
X89.465 Z-5.719 I5.85 J0.
X77.765 Z-5.877 I-5.85 J0.
X89.465 Z-6.034 I5.85 J0.
X77.765 Z-6.192 I-5.85 J0.
X89.465 Z-6.349 I5.85 J0.
X77.765 Z-6.507 I-5.85 J0.
X89.465 Z-6.664 I5.85 J0.
X77.765 Z-6.822 I-5.85 J0.
X89.465 Z-6.979 I5.85 J0.
X77.765 Z-7.137 I-5.85 J0.
X89.465 Z-7.294 I5.85 J0.
X86.221 Y75.535 Z-7.35 I-5.85 J0.
X81.009 Y86.01 I-2.606 J5.237
X86.221 Y75.535 I2.606 J-5.237
X85.37 Y75.82 I-0.283 J0.569
G1 X85.228 Y76.105
X85.184 Y76.194 Z-7.342
X85.141 Y76.28 Z-7.319
X85.1 Y76.363 Z-7.281
X85.062 Y76.439 Z-7.229
X85.028 Y76.507 Z-7.164
X84.999 Y76.565 Z-7.088
X84.976 Y76.611 Z-7.003
X84.959 Y76.645 Z-6.911
X84.949 Y76.666 Z-6.814
X84.945 Y76.673 Z-6.715
G0 Z6.
X75.677 Y80.137
Z4.
G1 Z2.635 F800.
G18 G3 X75.042 Z2. I-0.635 K0.
G1 X74.725
G17 G2 X74.09 Y80.772 I0. J0.635
X93.14 Z1.778 I9.525 J0.
X74.09 Z1.557 I-9.525 J0.
X93.14 Z1.335 I9.525 J0.
X74.09 Z1.113 I-9.525 J0.
X93.14 Z0.892 I9.525 J0.
X74.09 Z0.67 I-9.525 J0.
X93.14 Z0.448 I9.525 J0.
X74.09 Z0.227 I-9.525 J0.
X93.14 Z0.005 I9.525 J0.
X74.09 Z-0.217 I-9.525 J0.
X93.14 Z-0.438 I9.525 J0.
X74.09 Z-0.66 I-9.525 J0.
X93.14 Z-0.882 I9.525 J0.
X74.09 Z-1.104 I-9.525 J0.
X93.14 Z-1.325 I9.525 J0.
X74.09 Z-1.547 I-9.525 J0.
X93.14 Z-1.769 I9.525 J0.
X74.09 Z-1.99 I-9.525 J0.
X93.14 Z-2.212 I9.525 J0.
X74.09 Z-2.434 I-9.525 J0.
X93.14 Z-2.655 I9.525 J0.
X74.09 Z-2.877 I-9.525 J0.
X93.14 Z-3.099 I9.525 J0.
X74.09 Z-3.32 I-9.525 J0.
X93.14 Z-3.542 I9.525 J0.
X74.09 Z-3.764 I-9.525 J0.
X93.14 Z-3.985 I9.525 J0.
X74.09 Z-4.207 I-9.525 J0.
X93.14 Z-4.429 I9.525 J0.
X74.09 Z-4.65 I-9.525 J0.
X93.14 Z-4.872 I9.525 J0.
X74.09 Z-5.094 I-9.525 J0.
X93.14 Z-5.315 I9.525 J0.
X74.09 Z-5.537 I-9.525 J0.
X93.14 Z-5.759 I9.525 J0.
X74.09 Z-5.98 I-9.525 J0.
X93.14 Z-6.202 I9.525 J0.
X74.09 Z-6.424 I-9.525 J0.
X93.14 Z-6.645 I9.525 J0.
X74.09 Z-6.867 I-9.525 J0.
X93.14 Z-7.089 I9.525 J0.
X74.09 Z-7.311 I-9.525 J0.
X75.541 Y85.826 Z-7.35 I9.525 J0.
X91.688 Y75.718 I8.073 J-5.054
X75.541 Y85.826 I-8.073 J5.054
X76.417 Y86.028 I0.538 J-0.337
G1 X76.686 Y85.859
X76.77 Y85.807 Z-7.342
X76.852 Y85.755 Z-7.319
X76.93 Y85.706 Z-7.281
X77.002 Y85.661 Z-7.229
X77.066 Y85.621 Z-7.164
X77.121 Y85.587 Z-7.088
X77.165 Y85.559 Z-7.003
X77.198 Y85.539 Z-6.911
X77.217 Y85.527 Z-6.814
X77.224 Y85.522 Z-6.715
G0 Z6.
X140.065 Y45.085
Z4.
G1 Z2.635 F800.
G18 G3 X139.43 Z2. I-0.635 K0.
G1 X139.112
G17 G2 X138.477 Y45.72 I0. J0.635
X150.177 Z1.842 I5.85 J0.
X138.477 Z1.685 I-5.85 J0.
X150.177 Z1.527 I5.85 J0.
X138.477 Z1.37 I-5.85 J0.
X150.177 Z1.212 I5.85 J0.
X138.477 Z1.055 I-5.85 J0.
X150.177 Z0.897 I5.85 J0.
X138.477 Z0.74 I-5.85 J0.
X150.177 Z0.582 I5.85 J0.
X138.477 Z0.425 I-5.85 J0.
X150.177 Z0.267 I5.85 J0.
X138.477 Z0.11 I-5.85 J0.
X150.177 Z-0.048 I5.85 J0.
X138.477 Z-0.205 I-5.85 J0.
X150.177 Z-0.363 I5.85 J0.
X138.477 Z-0.521 I-5.85 J0.
X150.177 Z-0.678 I5.85 J0.
X138.477 Z-0.836 I-5.85 J0.
X150.177 Z-0.993 I5.85 J0.
X138.477 Z-1.151 I-5.85 J0.
X150.177 Z-1.308 I5.85 J0.
X138.477 Z-1.466 I-5.85 J0.
X150.177 Z-1.623 I5.85 J0.
X138.477 Z-1.781 I-5.85 J0.
X150.177 Z-1.938 I5.85 J0.
X138.477 Z-2.096 I-5.85 J0.
X150.177 Z-2.253 I5.85 J0.
X138.477 Z-2.411 I-5.85 J0.
X150.177 Z-2.568 I5.85 J0.
X138.477 Z-2.726 I-5.85 J0.
X150.177 Z-2.883 I5.85 J0.
X138.477 Z-3.041 I-5.85 J0.
X150.177 Z-3.199 I5.85 J0.
X138.477 Z-3.356 I-5.85 J0.
X150.177 Z-3.514 I5.85 J0.
X138.477 Z-3.671 I-5.85 J0.
X150.177 Z-3.829 I5.85 J0.
X138.477 Z-3.986 I-5.85 J0.
X150.177 Z-4.144 I5.85 J0.
X138.477 Z-4.301 I-5.85 J0.
X150.177 Z-4.459 I5.85 J0.
X138.477 Z-4.616 I-5.85 J0.
X150.177 Z-4.774 I5.85 J0.
X138.477 Z-4.931 I-5.85 J0.
X150.177 Z-5.089 I5.85 J0.
X138.477 Z-5.246 I-5.85 J0.
X150.177 Z-5.404 I5.85 J0.
X138.477 Z-5.562 I-5.85 J0.
X150.177 Z-5.719 I5.85 J0.
X138.477 Z-5.877 I-5.85 J0.
X150.177 Z-6.034 I5.85 J0.
X138.477 Z-6.192 I-5.85 J0.
X150.177 Z-6.349 I5.85 J0.
X138.477 Z-6.507 I-5.85 J0.
X150.177 Z-6.664 I5.85 J0.
X138.477 Z-6.822 I-5.85 J0.
X150.177 Z-6.979 I5.85 J0.
X138.477 Z-7.137 I-5.85 J0.
X150.177 Z-7.294 I5.85 J0.
X146.933 Y40.483 Z-7.35 I-5.85 J0.
X141.721 Y50.957 I-2.606 J5.237
X146.933 Y40.483 I2.606 J-5.237
X146.082 Y40.768 I-0.283 J0.569
G1 X145.94 Y41.052
X145.896 Y41.141 Z-7.342
X145.853 Y41.228 Z-7.319
X145.812 Y41.311 Z-7.281
X145.774 Y41.387 Z-7.229
X145.74 Y41.454 Z-7.164
X145.712 Y41.512 Z-7.088
X145.688 Y41.559 Z-7.003
X145.671 Y41.593 Z-6.911
X145.661 Y41.614 Z-6.814
X145.658 Y41.621 Z-6.715
G0 Z6.
X136.39 Y45.085
Z4.
G1 Z2.635 F800.
G18 G3 X135.755 Z2. I-0.635 K0.
G1 X135.437
G17 G2 X134.802 Y45.72 I0. J0.635
X153.852 Z1.778 I9.525 J0.
X134.802 Z1.557 I-9.525 J0.
X153.852 Z1.335 I9.525 J0.
X134.802 Z1.113 I-9.525 J0.
X153.852 Z0.892 I9.525 J0.
X134.802 Z0.67 I-9.525 J0.
X153.852 Z0.448 I9.525 J0.
X134.802 Z0.227 I-9.525 J0.
X153.852 Z0.005 I9.525 J0.
X134.802 Z-0.217 I-9.525 J0.
X153.852 Z-0.438 I9.525 J0.
X134.802 Z-0.66 I-9.525 J0.
X153.852 Z-0.882 I9.525 J0.
X134.802 Z-1.104 I-9.525 J0.
X153.852 Z-1.325 I9.525 J0.
X134.802 Z-1.547 I-9.525 J0.
X153.852 Z-1.769 I9.525 J0.
X134.802 Z-1.99 I-9.525 J0.
X153.852 Z-2.212 I9.525 J0.
X134.802 Z-2.434 I-9.525 J0.
X153.852 Z-2.655 I9.525 J0.
X134.802 Z-2.877 I-9.525 J0.
X153.852 Z-3.099 I9.525 J0.
X134.802 Z-3.32 I-9.525 J0.
X153.852 Z-3.542 I9.525 J0.
X134.802 Z-3.764 I-9.525 J0.
X153.852 Z-3.985 I9.525 J0.
X134.802 Z-4.207 I-9.525 J0.
X153.852 Z-4.429 I9.525 J0.
X134.802 Z-4.65 I-9.525 J0.
X153.852 Z-4.872 I9.525 J0.
X134.802 Z-5.094 I-9.525 J0.
X153.852 Z-5.315 I9.525 J0.
X134.802 Z-5.537 I-9.525 J0.
X153.852 Z-5.759 I9.525 J0.
X134.802 Z-5.98 I-9.525 J0.
X153.852 Z-6.202 I9.525 J0.
X134.802 Z-6.424 I-9.525 J0.
X153.852 Z-6.645 I9.525 J0.
X134.802 Z-6.867 I-9.525 J0.
X153.852 Z-7.089 I9.525 J0.
X134.802 Z-7.311 I-9.525 J0.
X136.254 Y50.774 Z-7.35 I9.525 J0.
X152.401 Y40.666 I8.073 J-5.054
X136.254 Y50.774 I-8.073 J5.054
X137.129 Y50.975 I0.538 J-0.337
G1 X137.398 Y50.807
X137.482 Y50.754 Z-7.342
X137.564 Y50.703 Z-7.319
X137.642 Y50.654 Z-7.281
X137.714 Y50.609 Z-7.229
X137.779 Y50.569 Z-7.164
X137.834 Y50.534 Z-7.088
X137.878 Y50.507 Z-7.003
X137.91 Y50.487 Z-6.911
X137.93 Y50.474 Z-6.814
X137.936 Y50.47 Z-6.715
G0 Z16.
M5
G0 Z15
G0 X0 Y0

M9
M30
