(X8DS CABLE TABLE HOLES 1)
(T3  D=0.118 CR=0. - ZMIN=-0.3525 - FLAT END MILL)
G90 G94 G91.1 G40 G49 G17
G20

(2D POCKET1)
M5
T3 M6
S15000 M3
g4 p5
g0 z.5
G54
M8
G0 X1.7536 Y2.8439
G43 Z0.6 H3
Z0.2
G1 Z0.1118 F40.
X1.7533 Y2.8445 Z0.1079 F20.
X1.7527 Y2.8452 Z0.1061
X1.752 Y2.8459 Z0.1044
X1.7509 Y2.8465 Z0.1033
X1.7496 Y2.8469 Z0.1023
X1.7483 Z0.1012
X1.7468 Y2.8464 Z0.1008
X1.7455 Y2.8454 Z0.1004
X1.7446 Y2.8441 Z0.1
G3 X1.7535 Y2.8397 Z0.0995 I0.0045 J-0.0022
X1.7446 Y2.8441 Z0.0989 I-0.0045 J0.0022
X1.7535 Y2.8397 Z0.0984 I0.0045 J-0.0022
X1.7446 Y2.8441 Z0.0978 I-0.0045 J0.0022
X1.7535 Y2.8397 Z0.0973 I0.0045 J-0.0022
X1.7446 Y2.8441 Z0.0967 I-0.0045 J0.0022
X1.7535 Y2.8397 Z0.0962 I0.0045 J-0.0022
X1.7446 Y2.8441 Z0.0956 I-0.0045 J0.0022
X1.7535 Y2.8397 Z0.0951 I0.0045 J-0.0022
X1.7446 Y2.8441 Z0.0945 I-0.0045 J0.0022
X1.7535 Y2.8397 Z0.094 I0.0045 J-0.0022
X1.7446 Y2.8441 Z0.0934 I-0.0045 J0.0022
X1.7535 Y2.8397 Z0.0929 I0.0045 J-0.0022
X1.7446 Y2.8441 Z0.0923 I-0.0045 J0.0022
X1.7535 Y2.8397 Z0.0918 I0.0045 J-0.0022
X1.7446 Y2.8441 Z0.0912 I-0.0045 J0.0022
X1.7535 Y2.8397 Z0.0907 I0.0045 J-0.0022
X1.7446 Y2.8441 Z0.0901 I-0.0045 J0.0022
X1.7535 Y2.8397 Z0.0896 I0.0045 J-0.0022
X1.7446 Y2.8441 Z0.089 I-0.0045 J0.0022
X1.7535 Y2.8397 Z0.0885 I0.0045 J-0.0022
X1.7446 Y2.8441 Z0.0879 I-0.0045 J0.0022
X1.7535 Y2.8397 Z0.0874 I0.0045 J-0.0022
X1.7446 Y2.8441 Z0.0868 I-0.0045 J0.0022
X1.7535 Y2.8397 Z0.0863 I0.0045 J-0.0022
X1.7446 Y2.8441 Z0.0857 I-0.0045 J0.0022
X1.7535 Y2.8397 Z0.0852 I0.0045 J-0.0022
X1.7446 Y2.8441 Z0.0846 I-0.0045 J0.0022
X1.7535 Y2.8397 Z0.0841 I0.0045 J-0.0022
X1.7446 Y2.8441 Z0.0835 I-0.0045 J0.0022
X1.7535 Y2.8397 Z0.083 I0.0045 J-0.0022
X1.7446 Y2.8441 Z0.0824 I-0.0045 J0.0022
X1.7535 Y2.8397 Z0.0819 I0.0045 J-0.0022
X1.7446 Y2.8441 Z0.0813 I-0.0045 J0.0022
X1.7535 Y2.8397 Z0.0808 I0.0045 J-0.0022
X1.7446 Y2.8441 Z0.0803 I-0.0045 J0.0022
X1.7535 Y2.8397 Z0.0797 I0.0045 J-0.0022
X1.7446 Y2.8441 Z0.0792 I-0.0045 J0.0022
X1.7535 Y2.8397 Z0.0786 I0.0045 J-0.0022
X1.7446 Y2.8441 Z0.0781 I-0.0045 J0.0022
X1.7535 Y2.8397 Z0.0775 I0.0045 J-0.0022
X1.7446 Y2.8441 Z0.077 I-0.0045 J0.0022
X1.7535 Y2.8397 Z0.0764 I0.0045 J-0.0022
X1.7446 Y2.8441 Z0.0759 I-0.0045 J0.0022
X1.7535 Y2.8397 Z0.0753 I0.0045 J-0.0022
X1.7446 Y2.8441 Z0.0748 I-0.0045 J0.0022
X1.7535 Y2.8397 Z0.0742 I0.0045 J-0.0022
X1.7446 Y2.8441 Z0.0737 I-0.0045 J0.0022
X1.7535 Y2.8397 Z0.0731 I0.0045 J-0.0022
X1.7446 Y2.8441 Z0.0726 I-0.0045 J0.0022
X1.7535 Y2.8397 Z0.072 I0.0045 J-0.0022
X1.7446 Y2.8441 Z0.0715 I-0.0045 J0.0022
X1.7535 Y2.8397 Z0.0709 I0.0045 J-0.0022
X1.7446 Y2.8441 Z0.0704 I-0.0045 J0.0022
X1.7535 Y2.8397 Z0.0698 I0.0045 J-0.0022
X1.7446 Y2.8441 Z0.0693 I-0.0045 J0.0022
X1.7535 Y2.8397 Z0.0687 I0.0045 J-0.0022
X1.7446 Y2.8441 Z0.0682 I-0.0045 J0.0022
X1.7535 Y2.8397 Z0.0676 I0.0045 J-0.0022
X1.7446 Y2.8441 Z0.0671 I-0.0045 J0.0022
X1.7535 Y2.8397 Z0.0665 I0.0045 J-0.0022
X1.7446 Y2.8441 Z0.066 I-0.0045 J0.0022
X1.7535 Y2.8397 Z0.0654 I0.0045 J-0.0022
X1.7446 Y2.8441 Z0.0649 I-0.0045 J0.0022
X1.7535 Y2.8397 Z0.0643 I0.0045 J-0.0022
X1.7446 Y2.8441 Z0.0638 I-0.0045 J0.0022
X1.7535 Y2.8397 Z0.0632 I0.0045 J-0.0022
X1.7446 Y2.8441 Z0.0627 I-0.0045 J0.0022
X1.7535 Y2.8397 Z0.0622 I0.0045 J-0.0022
X1.7446 Y2.8441 Z0.0616 I-0.0045 J0.0022
X1.7535 Y2.8397 Z0.0611 I0.0045 J-0.0022
X1.7446 Y2.8441 Z0.0605 I-0.0045 J0.0022
X1.7535 Y2.8397 Z0.06 I0.0045 J-0.0022
X1.7446 Y2.8441 Z0.0594 I-0.0045 J0.0022
X1.7535 Y2.8397 Z0.0589 I0.0045 J-0.0022
X1.7446 Y2.8441 Z0.0583 I-0.0045 J0.0022
X1.7535 Y2.8397 Z0.0578 I0.0045 J-0.0022
X1.7446 Y2.8441 Z0.0572 I-0.0045 J0.0022
X1.7535 Y2.8397 Z0.0567 I0.0045 J-0.0022
X1.7446 Y2.8441 Z0.0561 I-0.0045 J0.0022
X1.7535 Y2.8397 Z0.0556 I0.0045 J-0.0022
X1.7446 Y2.8441 Z0.055 I-0.0045 J0.0022
X1.7535 Y2.8397 Z0.0545 I0.0045 J-0.0022
X1.7446 Y2.8441 Z0.0539 I-0.0045 J0.0022
X1.7535 Y2.8397 Z0.0534 I0.0045 J-0.0022
X1.7446 Y2.8441 Z0.0528 I-0.0045 J0.0022
X1.7535 Y2.8397 Z0.0523 I0.0045 J-0.0022
X1.7446 Y2.8441 Z0.0517 I-0.0045 J0.0022
X1.7535 Y2.8397 Z0.0512 I0.0045 J-0.0022
X1.7446 Y2.8441 Z0.0506 I-0.0045 J0.0022
X1.7535 Y2.8397 Z0.0501 I0.0045 J-0.0022
X1.7446 Y2.8441 Z0.0495 I-0.0045 J0.0022
X1.7535 Y2.8397 Z0.049 I0.0045 J-0.0022
X1.7446 Y2.8441 Z0.0484 I-0.0045 J0.0022
X1.7535 Y2.8397 Z0.0479 I0.0045 J-0.0022
X1.7446 Y2.8441 Z0.0473 I-0.0045 J0.0022
X1.7535 Y2.8397 Z0.0468 I0.0045 J-0.0022
X1.7446 Y2.8441 Z0.0462 I-0.0045 J0.0022
X1.7535 Y2.8397 Z0.0457 I0.0045 J-0.0022
X1.7446 Y2.8441 Z0.0451 I-0.0045 J0.0022
X1.7535 Y2.8397 Z0.0446 I0.0045 J-0.0022
X1.7446 Y2.8441 Z0.044 I-0.0045 J0.0022
X1.7535 Y2.8397 Z0.0435 I0.0045 J-0.0022
X1.7446 Y2.8441 Z0.043 I-0.0045 J0.0022
X1.7535 Y2.8397 Z0.0424 I0.0045 J-0.0022
X1.7446 Y2.8441 Z0.0419 I-0.0045 J0.0022
X1.7535 Y2.8397 Z0.0413 I0.0045 J-0.0022
X1.7446 Y2.8441 Z0.0408 I-0.0045 J0.0022
X1.7535 Y2.8397 Z0.0402 I0.0045 J-0.0022
X1.7446 Y2.8441 Z0.0397 I-0.0045 J0.0022
X1.7535 Y2.8397 Z0.0391 I0.0045 J-0.0022
X1.7446 Y2.8441 Z0.0386 I-0.0045 J0.0022
X1.7535 Y2.8397 Z0.038 I0.0045 J-0.0022
X1.7446 Y2.8441 Z0.0375 I-0.0045 J0.0022
X1.7535 Y2.8397 Z0.0369 I0.0045 J-0.0022
X1.7446 Y2.8441 Z0.0364 I-0.0045 J0.0022
X1.7535 Y2.8397 Z0.0358 I0.0045 J-0.0022
X1.7446 Y2.8441 Z0.0353 I-0.0045 J0.0022
X1.7535 Y2.8397 Z0.0347 I0.0045 J-0.0022
X1.7446 Y2.8441 Z0.0342 I-0.0045 J0.0022
X1.7535 Y2.8397 Z0.0336 I0.0045 J-0.0022
X1.7446 Y2.8441 Z0.0331 I-0.0045 J0.0022
X1.7535 Y2.8397 Z0.0325 I0.0045 J-0.0022
X1.7446 Y2.8441 Z0.032 I-0.0045 J0.0022
X1.7535 Y2.8397 Z0.0314 I0.0045 J-0.0022
X1.7446 Y2.8441 Z0.0309 I-0.0045 J0.0022
X1.7535 Y2.8397 Z0.0303 I0.0045 J-0.0022
X1.7446 Y2.8441 Z0.0298 I-0.0045 J0.0022
X1.7535 Y2.8397 Z0.0292 I0.0045 J-0.0022
X1.7446 Y2.8441 Z0.0287 I-0.0045 J0.0022
X1.7535 Y2.8397 Z0.0281 I0.0045 J-0.0022
X1.7446 Y2.8441 Z0.0276 I-0.0045 J0.0022
X1.7535 Y2.8397 Z0.027 I0.0045 J-0.0022
X1.7446 Y2.8441 Z0.0265 I-0.0045 J0.0022
X1.7535 Y2.8397 Z0.0259 I0.0045 J-0.0022
X1.7446 Y2.8441 Z0.0254 I-0.0045 J0.0022
X1.7535 Y2.8397 Z0.0249 I0.0045 J-0.0022
X1.7446 Y2.8441 Z0.0243 I-0.0045 J0.0022
X1.7535 Y2.8397 Z0.0238 I0.0045 J-0.0022
X1.7446 Y2.8441 Z0.0232 I-0.0045 J0.0022
X1.7535 Y2.8397 Z0.0227 I0.0045 J-0.0022
X1.7446 Y2.8441 Z0.0221 I-0.0045 J0.0022
X1.7535 Y2.8397 Z0.0216 I0.0045 J-0.0022
X1.7446 Y2.8441 Z0.021 I-0.0045 J0.0022
X1.7535 Y2.8397 Z0.0205 I0.0045 J-0.0022
X1.7446 Y2.8441 Z0.0199 I-0.0045 J0.0022
X1.7535 Y2.8397 Z0.0194 I0.0045 J-0.0022
X1.7446 Y2.8441 Z0.0188 I-0.0045 J0.0022
X1.7535 Y2.8397 Z0.0183 I0.0045 J-0.0022
X1.7446 Y2.8441 Z0.0177 I-0.0045 J0.0022
X1.7535 Y2.8397 Z0.0172 I0.0045 J-0.0022
X1.7446 Y2.8441 Z0.0166 I-0.0045 J0.0022
X1.7535 Y2.8397 Z0.0161 I0.0045 J-0.0022
X1.7446 Y2.8441 Z0.0155 I-0.0045 J0.0022
X1.7535 Y2.8397 Z0.015 I0.0045 J-0.0022
X1.7446 Y2.8441 Z0.0144 I-0.0045 J0.0022
X1.7535 Y2.8397 Z0.0139 I0.0045 J-0.0022
X1.7446 Y2.8441 Z0.0133 I-0.0045 J0.0022
X1.7535 Y2.8397 Z0.0128 I0.0045 J-0.0022
X1.7446 Y2.8441 Z0.0122 I-0.0045 J0.0022
X1.7535 Y2.8397 Z0.0117 I0.0045 J-0.0022
X1.7446 Y2.8441 Z0.0111 I-0.0045 J0.0022
X1.7535 Y2.8397 Z0.0106 I0.0045 J-0.0022
X1.7446 Y2.8441 Z0.01 I-0.0045 J0.0022
X1.7535 Y2.8397 Z0.0095 I0.0045 J-0.0022
X1.7446 Y2.8441 Z0.0089 I-0.0045 J0.0022
X1.7535 Y2.8397 Z0.0084 I0.0045 J-0.0022
X1.7446 Y2.8441 Z0.0078 I-0.0045 J0.0022
X1.7535 Y2.8397 Z0.0073 I0.0045 J-0.0022
X1.7446 Y2.8441 Z0.0067 I-0.0045 J0.0022
X1.7535 Y2.8397 Z0.0062 I0.0045 J-0.0022
X1.7446 Y2.8441 Z0.0057 I-0.0045 J0.0022
X1.7535 Y2.8397 Z0.0051 I0.0045 J-0.0022
X1.7446 Y2.8441 Z0.0046 I-0.0045 J0.0022
X1.7535 Y2.8397 Z0.004 I0.0045 J-0.0022
X1.7446 Y2.8441 Z0.0035 I-0.0045 J0.0022
X1.7535 Y2.8397 Z0.0029 I0.0045 J-0.0022
X1.7446 Y2.8441 Z0.0024 I-0.0045 J0.0022
X1.7535 Y2.8397 Z0.0018 I0.0045 J-0.0022
X1.7446 Y2.8441 Z0.0013 I-0.0045 J0.0022
X1.7535 Y2.8397 Z0.0007 I0.0045 J-0.0022
X1.7446 Y2.8441 Z0.0002 I-0.0045 J0.0022
X1.7535 Y2.8397 Z-0.0004 I0.0045 J-0.0022
X1.7446 Y2.8441 Z-0.0009 I-0.0045 J0.0022
X1.7535 Y2.8397 Z-0.0015 I0.0045 J-0.0022
X1.7446 Y2.8441 Z-0.002 I-0.0045 J0.0022
X1.7535 Y2.8397 Z-0.0026 I0.0045 J-0.0022
X1.7446 Y2.8441 Z-0.0031 I-0.0045 J0.0022
X1.7535 Y2.8397 Z-0.0037 I0.0045 J-0.0022
X1.7446 Y2.8441 Z-0.0042 I-0.0045 J0.0022
X1.7535 Y2.8397 Z-0.0048 I0.0045 J-0.0022
X1.7446 Y2.8441 Z-0.0053 I-0.0045 J0.0022
X1.7535 Y2.8397 Z-0.0059 I0.0045 J-0.0022
X1.7446 Y2.8441 Z-0.0064 I-0.0045 J0.0022
X1.7535 Y2.8397 Z-0.007 I0.0045 J-0.0022
X1.7446 Y2.8441 Z-0.0075 I-0.0045 J0.0022
X1.7535 Y2.8397 Z-0.0081 I0.0045 J-0.0022
X1.7446 Y2.8441 Z-0.0086 I-0.0045 J0.0022
X1.7535 Y2.8397 Z-0.0092 I0.0045 J-0.0022
X1.7446 Y2.8441 Z-0.0097 I-0.0045 J0.0022
X1.7535 Y2.8397 Z-0.0103 I0.0045 J-0.0022
X1.7446 Y2.8441 Z-0.0108 I-0.0045 J0.0022
X1.7535 Y2.8397 Z-0.0114 I0.0045 J-0.0022
X1.7446 Y2.8441 Z-0.0119 I-0.0045 J0.0022
X1.7535 Y2.8397 Z-0.0124 I0.0045 J-0.0022
X1.7446 Y2.8441 Z-0.013 I-0.0045 J0.0022
X1.7535 Y2.8397 Z-0.0135 I0.0045 J-0.0022
X1.7446 Y2.8441 Z-0.0141 I-0.0045 J0.0022
X1.7535 Y2.8397 Z-0.0146 I0.0045 J-0.0022
X1.7446 Y2.8441 Z-0.0152 I-0.0045 J0.0022
X1.7535 Y2.8397 Z-0.0157 I0.0045 J-0.0022
X1.7446 Y2.8441 Z-0.0163 I-0.0045 J0.0022
X1.7535 Y2.8397 Z-0.0168 I0.0045 J-0.0022
X1.7446 Y2.8441 Z-0.0174 I-0.0045 J0.0022
X1.7535 Y2.8397 Z-0.0179 I0.0045 J-0.0022
X1.7446 Y2.8441 Z-0.0185 I-0.0045 J0.0022
X1.7535 Y2.8397 Z-0.019 I0.0045 J-0.0022
X1.7446 Y2.8441 Z-0.0196 I-0.0045 J0.0022
X1.7535 Y2.8397 Z-0.0201 I0.0045 J-0.0022
X1.7446 Y2.8441 Z-0.0207 I-0.0045 J0.0022
X1.7535 Y2.8397 Z-0.0212 I0.0045 J-0.0022
X1.7446 Y2.8441 Z-0.0218 I-0.0045 J0.0022
X1.7535 Y2.8397 Z-0.0223 I0.0045 J-0.0022
X1.7446 Y2.8441 Z-0.0229 I-0.0045 J0.0022
X1.7535 Y2.8397 Z-0.0234 I0.0045 J-0.0022
X1.7446 Y2.8441 Z-0.024 I-0.0045 J0.0022
X1.7535 Y2.8397 Z-0.0245 I0.0045 J-0.0022
X1.7446 Y2.8441 Z-0.0251 I-0.0045 J0.0022
X1.7535 Y2.8397 Z-0.0256 I0.0045 J-0.0022
X1.7446 Y2.8441 Z-0.0262 I-0.0045 J0.0022
X1.7535 Y2.8397 Z-0.0267 I0.0045 J-0.0022
X1.7446 Y2.8441 Z-0.0273 I-0.0045 J0.0022
X1.7535 Y2.8397 Z-0.0278 I0.0045 J-0.0022
X1.7446 Y2.8441 Z-0.0284 I-0.0045 J0.0022
X1.7535 Y2.8397 Z-0.0289 I0.0045 J-0.0022
X1.7446 Y2.8441 Z-0.0295 I-0.0045 J0.0022
X1.7535 Y2.8397 Z-0.03 I0.0045 J-0.0022
X1.7446 Y2.8441 Z-0.0306 I-0.0045 J0.0022
X1.7535 Y2.8397 Z-0.0311 I0.0045 J-0.0022
X1.7446 Y2.8441 Z-0.0316 I-0.0045 J0.0022
X1.7535 Y2.8397 Z-0.0322 I0.0045 J-0.0022
X1.7446 Y2.8441 Z-0.0327 I-0.0045 J0.0022
X1.7535 Y2.8397 Z-0.0333 I0.0045 J-0.0022
X1.7446 Y2.8441 Z-0.0338 I-0.0045 J0.0022
X1.7535 Y2.8397 Z-0.0344 I0.0045 J-0.0022
X1.7446 Y2.8441 Z-0.0349 I-0.0045 J0.0022
X1.7535 Y2.8397 Z-0.0355 I0.0045 J-0.0022
X1.7446 Y2.8441 Z-0.036 I-0.0045 J0.0022
X1.7535 Y2.8397 Z-0.0366 I0.0045 J-0.0022
X1.7446 Y2.8441 Z-0.0371 I-0.0045 J0.0022
X1.7535 Y2.8397 Z-0.0377 I0.0045 J-0.0022
X1.7446 Y2.8441 Z-0.0382 I-0.0045 J0.0022
X1.7535 Y2.8397 Z-0.0388 I0.0045 J-0.0022
X1.7446 Y2.8441 Z-0.0393 I-0.0045 J0.0022
X1.7535 Y2.8397 Z-0.0399 I0.0045 J-0.0022
X1.7446 Y2.8441 Z-0.0404 I-0.0045 J0.0022
X1.7535 Y2.8397 Z-0.041 I0.0045 J-0.0022
X1.7446 Y2.8441 Z-0.0415 I-0.0045 J0.0022
X1.7535 Y2.8397 Z-0.0421 I0.0045 J-0.0022
X1.7446 Y2.8441 Z-0.0426 I-0.0045 J0.0022
X1.7535 Y2.8397 Z-0.0432 I0.0045 J-0.0022
X1.7446 Y2.8441 Z-0.0437 I-0.0045 J0.0022
X1.7535 Y2.8397 Z-0.0443 I0.0045 J-0.0022
X1.7446 Y2.8441 Z-0.0448 I-0.0045 J0.0022
X1.7535 Y2.8397 Z-0.0454 I0.0045 J-0.0022
X1.7446 Y2.8441 Z-0.0459 I-0.0045 J0.0022
X1.7535 Y2.8397 Z-0.0465 I0.0045 J-0.0022
X1.7446 Y2.8441 Z-0.047 I-0.0045 J0.0022
X1.7535 Y2.8397 Z-0.0476 I0.0045 J-0.0022
X1.7446 Y2.8441 Z-0.0481 I-0.0045 J0.0022
X1.7535 Y2.8397 Z-0.0487 I0.0045 J-0.0022
X1.7446 Y2.8441 Z-0.0492 I-0.0045 J0.0022
X1.7535 Y2.8397 Z-0.0497 I0.0045 J-0.0022
X1.7446 Y2.8441 Z-0.0503 I-0.0045 J0.0022
X1.7535 Y2.8397 Z-0.0508 I0.0045 J-0.0022
X1.7446 Y2.8441 Z-0.0514 I-0.0045 J0.0022
X1.7535 Y2.8397 Z-0.0519 I0.0045 J-0.0022
X1.7446 Y2.8441 Z-0.0525 I-0.0045 J0.0022
X1.7535 Y2.8397 Z-0.053 I0.0045 J-0.0022
X1.7446 Y2.8441 Z-0.0536 I-0.0045 J0.0022
X1.7535 Y2.8397 Z-0.0541 I0.0045 J-0.0022
X1.7446 Y2.8441 Z-0.0547 I-0.0045 J0.0022
X1.7535 Y2.8397 Z-0.0552 I0.0045 J-0.0022
X1.7446 Y2.8441 Z-0.0558 I-0.0045 J0.0022
X1.7535 Y2.8397 Z-0.0563 I0.0045 J-0.0022
X1.7446 Y2.8441 Z-0.0569 I-0.0045 J0.0022
X1.7535 Y2.8397 Z-0.0574 I0.0045 J-0.0022
X1.7446 Y2.8441 Z-0.058 I-0.0045 J0.0022
X1.7535 Y2.8397 Z-0.0585 I0.0045 J-0.0022
X1.7446 Y2.8441 Z-0.0591 I-0.0045 J0.0022
X1.7535 Y2.8397 Z-0.0596 I0.0045 J-0.0022
X1.7446 Y2.8441 Z-0.0602 I-0.0045 J0.0022
X1.7535 Y2.8397 Z-0.0607 I0.0045 J-0.0022
X1.7446 Y2.8441 Z-0.0613 I-0.0045 J0.0022
X1.7535 Y2.8397 Z-0.0618 I0.0045 J-0.0022
X1.7446 Y2.8441 Z-0.0624 I-0.0045 J0.0022
X1.7535 Y2.8397 Z-0.0629 I0.0045 J-0.0022
X1.7446 Y2.8441 Z-0.0635 I-0.0045 J0.0022
X1.7535 Y2.8397 Z-0.064 I0.0045 J-0.0022
X1.7446 Y2.8441 Z-0.0646 I-0.0045 J0.0022
X1.7535 Y2.8397 Z-0.0651 I0.0045 J-0.0022
X1.7446 Y2.8441 Z-0.0657 I-0.0045 J0.0022
X1.7535 Y2.8397 Z-0.0662 I0.0045 J-0.0022
X1.7446 Y2.8441 Z-0.0668 I-0.0045 J0.0022
X1.7535 Y2.8397 Z-0.0673 I0.0045 J-0.0022
X1.7446 Y2.8441 Z-0.0679 I-0.0045 J0.0022
X1.7535 Y2.8397 Z-0.0684 I0.0045 J-0.0022
X1.7446 Y2.8441 Z-0.0689 I-0.0045 J0.0022
X1.7535 Y2.8397 Z-0.0695 I0.0045 J-0.0022
X1.7446 Y2.8441 Z-0.07 I-0.0045 J0.0022
X1.7535 Y2.8397 Z-0.0706 I0.0045 J-0.0022
X1.7446 Y2.8441 Z-0.0711 I-0.0045 J0.0022
X1.7535 Y2.8397 Z-0.0717 I0.0045 J-0.0022
X1.7446 Y2.8441 Z-0.0722 I-0.0045 J0.0022
X1.7535 Y2.8397 Z-0.0728 I0.0045 J-0.0022
X1.7446 Y2.8441 Z-0.0733 I-0.0045 J0.0022
X1.7535 Y2.8397 Z-0.0739 I0.0045 J-0.0022
X1.7446 Y2.8441 Z-0.0744 I-0.0045 J0.0022
X1.7535 Y2.8397 Z-0.075 I0.0045 J-0.0022
X1.7446 Y2.8441 Z-0.0755 I-0.0045 J0.0022
X1.7535 Y2.8397 Z-0.0761 I0.0045 J-0.0022
X1.7446 Y2.8441 Z-0.0766 I-0.0045 J0.0022
X1.7535 Y2.8397 Z-0.0772 I0.0045 J-0.0022
X1.7446 Y2.8441 Z-0.0777 I-0.0045 J0.0022
X1.7535 Y2.8397 Z-0.0783 I0.0045 J-0.0022
X1.7446 Y2.8441 Z-0.0788 I-0.0045 J0.0022
X1.7535 Y2.8397 Z-0.0794 I0.0045 J-0.0022
X1.7446 Y2.8441 Z-0.0799 I-0.0045 J0.0022
X1.744 Y2.8419 Z-0.08 I0.0045 J-0.0022
X1.762 I0.009 J0. F40.
X1.744 I-0.009 J0.
X1.762 Z-0.081 I0.009 J0. F20.
X1.744 Z-0.082 I-0.009 J0.
X1.762 Z-0.083 I0.009 J0.
X1.744 Z-0.0839 I-0.009 J0.
X1.762 Z-0.0849 I0.009 J0.
X1.744 Z-0.0859 I-0.009 J0.
X1.762 Z-0.0869 I0.009 J0.
X1.744 Z-0.0879 I-0.009 J0.
X1.762 Z-0.0889 I0.009 J0.
X1.744 Z-0.0899 I-0.009 J0.
X1.762 Z-0.0909 I0.009 J0.
X1.744 Z-0.0918 I-0.009 J0.
X1.762 Z-0.0928 I0.009 J0.
X1.744 Z-0.0938 I-0.009 J0.
X1.762 Z-0.0948 I0.009 J0.
X1.744 Z-0.0958 I-0.009 J0.
X1.762 Z-0.0968 I0.009 J0.
X1.744 Z-0.0978 I-0.009 J0.
X1.762 Z-0.0988 I0.009 J0.
X1.744 Z-0.0997 I-0.009 J0.
X1.762 Z-0.1007 I0.009 J0.
X1.744 Z-0.1017 I-0.009 J0.
X1.762 Z-0.1027 I0.009 J0.
X1.744 Z-0.1037 I-0.009 J0.
X1.762 Z-0.1047 I0.009 J0.
X1.744 Z-0.1057 I-0.009 J0.
X1.762 Z-0.1067 I0.009 J0.
X1.744 Z-0.1076 I-0.009 J0.
X1.762 Z-0.1086 I0.009 J0.
X1.744 Z-0.1096 I-0.009 J0.
X1.762 Z-0.1106 I0.009 J0.
X1.744 Z-0.1116 I-0.009 J0.
X1.762 Z-0.1126 I0.009 J0.
X1.744 Z-0.1136 I-0.009 J0.
X1.762 Z-0.1146 I0.009 J0.
X1.744 Z-0.1155 I-0.009 J0.
X1.762 Z-0.1165 I0.009 J0.
X1.744 Z-0.1175 I-0.009 J0.
X1.762 Z-0.1185 I0.009 J0.
X1.744 Z-0.1195 I-0.009 J0.
X1.762 Z-0.1205 I0.009 J0.
X1.744 Z-0.1215 I-0.009 J0.
X1.762 Z-0.1225 I0.009 J0.
X1.744 Z-0.1234 I-0.009 J0.
X1.762 Z-0.1244 I0.009 J0.
X1.744 Z-0.1254 I-0.009 J0.
X1.762 Z-0.1264 I0.009 J0.
X1.744 Z-0.1274 I-0.009 J0.
X1.762 Z-0.1284 I0.009 J0.
X1.744 Z-0.1294 I-0.009 J0.
X1.762 Z-0.1304 I0.009 J0.
X1.744 Z-0.1313 I-0.009 J0.
X1.762 Z-0.1323 I0.009 J0.
X1.744 Z-0.1333 I-0.009 J0.
X1.762 Z-0.1343 I0.009 J0.
X1.744 Z-0.1353 I-0.009 J0.
X1.762 Z-0.1363 I0.009 J0.
X1.744 Z-0.1373 I-0.009 J0.
X1.762 Z-0.1383 I0.009 J0.
X1.744 Z-0.1392 I-0.009 J0.
X1.762 Z-0.1402 I0.009 J0.
X1.744 Z-0.1412 I-0.009 J0.
X1.762 Z-0.1422 I0.009 J0.
X1.744 Z-0.1432 I-0.009 J0.
X1.762 Z-0.1442 I0.009 J0.
X1.744 Z-0.1452 I-0.009 J0.
X1.762 Z-0.1462 I0.009 J0.
X1.744 Z-0.1471 I-0.009 J0.
X1.762 Z-0.1481 I0.009 J0.
X1.744 Z-0.1491 I-0.009 J0.
X1.762 Z-0.1501 I0.009 J0.
X1.744 Z-0.1511 I-0.009 J0.
X1.762 Z-0.1521 I0.009 J0.
X1.744 Z-0.1531 I-0.009 J0.
X1.762 Z-0.1541 I0.009 J0.
X1.744 Z-0.155 I-0.009 J0.
X1.762 Z-0.156 I0.009 J0.
X1.744 Z-0.157 I-0.009 J0.
X1.762 Z-0.158 I0.009 J0.
X1.744 Z-0.159 I-0.009 J0.
X1.7534 Y2.8329 Z-0.1595 I0.009 J0.
X1.762 Y2.8426 Z-0.16 I-0.0003 J0.009
X1.7441 Y2.8412 I-0.009 J-0.0007 F40.
X1.762 Y2.8426 I0.009 J0.0007
X1.7441 Y2.8412 Z-0.161 I-0.009 J-0.0007 F20.
X1.762 Y2.8426 Z-0.162 I0.009 J0.0007
X1.7441 Y2.8412 Z-0.163 I-0.009 J-0.0007
X1.762 Y2.8426 Z-0.1639 I0.009 J0.0007
X1.7441 Y2.8412 Z-0.1649 I-0.009 J-0.0007
X1.762 Y2.8426 Z-0.1659 I0.009 J0.0007
X1.7441 Y2.8412 Z-0.1669 I-0.009 J-0.0007
X1.762 Y2.8426 Z-0.1679 I0.009 J0.0007
X1.7441 Y2.8412 Z-0.1689 I-0.009 J-0.0007
X1.762 Y2.8426 Z-0.1699 I0.009 J0.0007
X1.7441 Y2.8412 Z-0.1709 I-0.009 J-0.0007
X1.762 Y2.8426 Z-0.1718 I0.009 J0.0007
X1.7441 Y2.8412 Z-0.1728 I-0.009 J-0.0007
X1.762 Y2.8426 Z-0.1738 I0.009 J0.0007
X1.7441 Y2.8412 Z-0.1748 I-0.009 J-0.0007
X1.762 Y2.8426 Z-0.1758 I0.009 J0.0007
X1.7441 Y2.8412 Z-0.1768 I-0.009 J-0.0007
X1.762 Y2.8426 Z-0.1778 I0.009 J0.0007
X1.7441 Y2.8412 Z-0.1788 I-0.009 J-0.0007
X1.762 Y2.8426 Z-0.1797 I0.009 J0.0007
X1.7441 Y2.8412 Z-0.1807 I-0.009 J-0.0007
X1.762 Y2.8426 Z-0.1817 I0.009 J0.0007
X1.7441 Y2.8412 Z-0.1827 I-0.009 J-0.0007
X1.762 Y2.8426 Z-0.1837 I0.009 J0.0007
X1.7441 Y2.8412 Z-0.1847 I-0.009 J-0.0007
X1.762 Y2.8426 Z-0.1857 I0.009 J0.0007
X1.7441 Y2.8412 Z-0.1867 I-0.009 J-0.0007
X1.762 Y2.8426 Z-0.1876 I0.009 J0.0007
X1.7441 Y2.8412 Z-0.1886 I-0.009 J-0.0007
X1.762 Y2.8426 Z-0.1896 I0.009 J0.0007
X1.7441 Y2.8412 Z-0.1906 I-0.009 J-0.0007
X1.762 Y2.8426 Z-0.1916 I0.009 J0.0007
X1.7441 Y2.8412 Z-0.1926 I-0.009 J-0.0007
X1.762 Y2.8426 Z-0.1936 I0.009 J0.0007
X1.7441 Y2.8412 Z-0.1946 I-0.009 J-0.0007
X1.762 Y2.8426 Z-0.1955 I0.009 J0.0007
X1.7441 Y2.8412 Z-0.1965 I-0.009 J-0.0007
X1.762 Y2.8426 Z-0.1975 I0.009 J0.0007
X1.7441 Y2.8412 Z-0.1985 I-0.009 J-0.0007
X1.762 Y2.8426 Z-0.1995 I0.009 J0.0007
X1.7441 Y2.8412 Z-0.2005 I-0.009 J-0.0007
X1.762 Y2.8426 Z-0.2015 I0.009 J0.0007
X1.7441 Y2.8412 Z-0.2025 I-0.009 J-0.0007
X1.762 Y2.8426 Z-0.2034 I0.009 J0.0007
X1.7441 Y2.8412 Z-0.2044 I-0.009 J-0.0007
X1.762 Y2.8426 Z-0.2054 I0.009 J0.0007
X1.7441 Y2.8412 Z-0.2064 I-0.009 J-0.0007
X1.762 Y2.8426 Z-0.2074 I0.009 J0.0007
X1.7441 Y2.8412 Z-0.2084 I-0.009 J-0.0007
X1.762 Y2.8426 Z-0.2094 I0.009 J0.0007
X1.7441 Y2.8412 Z-0.2104 I-0.009 J-0.0007
X1.762 Y2.8426 Z-0.2113 I0.009 J0.0007
X1.7441 Y2.8412 Z-0.2123 I-0.009 J-0.0007
X1.762 Y2.8426 Z-0.2133 I0.009 J0.0007
X1.7441 Y2.8412 Z-0.2143 I-0.009 J-0.0007
X1.762 Y2.8426 Z-0.2153 I0.009 J0.0007
X1.7441 Y2.8412 Z-0.2163 I-0.009 J-0.0007
X1.762 Y2.8426 Z-0.2173 I0.009 J0.0007
X1.7441 Y2.8412 Z-0.2183 I-0.009 J-0.0007
X1.762 Y2.8426 Z-0.2192 I0.009 J0.0007
X1.7441 Y2.8412 Z-0.2202 I-0.009 J-0.0007
X1.762 Y2.8426 Z-0.2212 I0.009 J0.0007
X1.7441 Y2.8412 Z-0.2222 I-0.009 J-0.0007
X1.762 Y2.8426 Z-0.2232 I0.009 J0.0007
X1.7441 Y2.8412 Z-0.2242 I-0.009 J-0.0007
X1.762 Y2.8426 Z-0.2252 I0.009 J0.0007
X1.7441 Y2.8412 Z-0.2262 I-0.009 J-0.0007
X1.762 Y2.8426 Z-0.2271 I0.009 J0.0007
X1.7441 Y2.8412 Z-0.2281 I-0.009 J-0.0007
X1.762 Y2.8426 Z-0.2291 I0.009 J0.0007
X1.7441 Y2.8412 Z-0.2301 I-0.009 J-0.0007
X1.762 Y2.8426 Z-0.2311 I0.009 J0.0007
X1.7441 Y2.8412 Z-0.2321 I-0.009 J-0.0007
X1.762 Y2.8426 Z-0.2331 I0.009 J0.0007
X1.7441 Y2.8412 Z-0.2341 I-0.009 J-0.0007
X1.762 Y2.8426 Z-0.235 I0.009 J0.0007
X1.7441 Y2.8412 Z-0.236 I-0.009 J-0.0007
X1.762 Y2.8426 Z-0.237 I0.009 J0.0007
X1.7441 Y2.8412 Z-0.238 I-0.009 J-0.0007
X1.762 Y2.8426 Z-0.239 I0.009 J0.0007
X1.752 Y2.8508 Z-0.2395 I-0.009 J-0.0007
X1.7441 Y2.8406 Z-0.24 I0.001 J-0.0089
X1.7619 Y2.8433 I0.0089 J0.0014 F40.
X1.7441 Y2.8406 I-0.0089 J-0.0014
X1.7619 Y2.8433 Z-0.241 I0.0089 J0.0014 F20.
X1.7441 Y2.8406 Z-0.242 I-0.0089 J-0.0014
X1.7619 Y2.8433 Z-0.243 I0.0089 J0.0014
X1.7441 Y2.8406 Z-0.2439 I-0.0089 J-0.0014
X1.7619 Y2.8433 Z-0.2449 I0.0089 J0.0014
X1.7441 Y2.8406 Z-0.2459 I-0.0089 J-0.0014
X1.7619 Y2.8433 Z-0.2469 I0.0089 J0.0014
X1.7441 Y2.8406 Z-0.2479 I-0.0089 J-0.0014
X1.7619 Y2.8433 Z-0.2489 I0.0089 J0.0014
X1.7441 Y2.8406 Z-0.2499 I-0.0089 J-0.0014
X1.7619 Y2.8433 Z-0.2509 I0.0089 J0.0014
X1.7441 Y2.8406 Z-0.2518 I-0.0089 J-0.0014
X1.7619 Y2.8433 Z-0.2528 I0.0089 J0.0014
X1.7441 Y2.8406 Z-0.2538 I-0.0089 J-0.0014
X1.7619 Y2.8433 Z-0.2548 I0.0089 J0.0014
X1.7441 Y2.8406 Z-0.2558 I-0.0089 J-0.0014
X1.7619 Y2.8433 Z-0.2568 I0.0089 J0.0014
X1.7441 Y2.8406 Z-0.2578 I-0.0089 J-0.0014
X1.7619 Y2.8433 Z-0.2588 I0.0089 J0.0014
X1.7441 Y2.8406 Z-0.2597 I-0.0089 J-0.0014
X1.7619 Y2.8433 Z-0.2607 I0.0089 J0.0014
X1.7441 Y2.8406 Z-0.2617 I-0.0089 J-0.0014
X1.7619 Y2.8433 Z-0.2627 I0.0089 J0.0014
X1.7441 Y2.8406 Z-0.2637 I-0.0089 J-0.0014
X1.7619 Y2.8433 Z-0.2647 I0.0089 J0.0014
X1.7441 Y2.8406 Z-0.2657 I-0.0089 J-0.0014
X1.7619 Y2.8433 Z-0.2667 I0.0089 J0.0014
X1.7441 Y2.8406 Z-0.2676 I-0.0089 J-0.0014
X1.7619 Y2.8433 Z-0.2686 I0.0089 J0.0014
X1.7441 Y2.8406 Z-0.2696 I-0.0089 J-0.0014
X1.7619 Y2.8433 Z-0.2706 I0.0089 J0.0014
X1.7441 Y2.8406 Z-0.2716 I-0.0089 J-0.0014
X1.7619 Y2.8433 Z-0.2726 I0.0089 J0.0014
X1.7441 Y2.8406 Z-0.2736 I-0.0089 J-0.0014
X1.7619 Y2.8433 Z-0.2746 I0.0089 J0.0014
X1.7441 Y2.8406 Z-0.2755 I-0.0089 J-0.0014
X1.7619 Y2.8433 Z-0.2765 I0.0089 J0.0014
X1.7441 Y2.8406 Z-0.2775 I-0.0089 J-0.0014
X1.7619 Y2.8433 Z-0.2785 I0.0089 J0.0014
X1.7441 Y2.8406 Z-0.2795 I-0.0089 J-0.0014
X1.7619 Y2.8433 Z-0.2805 I0.0089 J0.0014
X1.7441 Y2.8406 Z-0.2815 I-0.0089 J-0.0014
X1.7619 Y2.8433 Z-0.2825 I0.0089 J0.0014
X1.7441 Y2.8406 Z-0.2834 I-0.0089 J-0.0014
X1.7619 Y2.8433 Z-0.2844 I0.0089 J0.0014
X1.7441 Y2.8406 Z-0.2854 I-0.0089 J-0.0014
X1.7619 Y2.8433 Z-0.2864 I0.0089 J0.0014
X1.7441 Y2.8406 Z-0.2874 I-0.0089 J-0.0014
X1.7619 Y2.8433 Z-0.2884 I0.0089 J0.0014
X1.7441 Y2.8406 Z-0.2894 I-0.0089 J-0.0014
X1.7619 Y2.8433 Z-0.2904 I0.0089 J0.0014
X1.7441 Y2.8406 Z-0.2913 I-0.0089 J-0.0014
X1.7619 Y2.8433 Z-0.2923 I0.0089 J0.0014
X1.7441 Y2.8406 Z-0.2933 I-0.0089 J-0.0014
X1.7619 Y2.8433 Z-0.2943 I0.0089 J0.0014
X1.7441 Y2.8406 Z-0.2953 I-0.0089 J-0.0014
X1.7619 Y2.8433 Z-0.2963 I0.0089 J0.0014
X1.7441 Y2.8406 Z-0.2973 I-0.0089 J-0.0014
X1.7619 Y2.8433 Z-0.2983 I0.0089 J0.0014
X1.7441 Y2.8406 Z-0.2992 I-0.0089 J-0.0014
X1.7619 Y2.8433 Z-0.3002 I0.0089 J0.0014
X1.7441 Y2.8406 Z-0.3012 I-0.0089 J-0.0014
X1.7619 Y2.8433 Z-0.3022 I0.0089 J0.0014
X1.7441 Y2.8406 Z-0.3032 I-0.0089 J-0.0014
X1.7619 Y2.8433 Z-0.3042 I0.0089 J0.0014
X1.7441 Y2.8406 Z-0.3052 I-0.0089 J-0.0014
X1.7619 Y2.8433 Z-0.3062 I0.0089 J0.0014
X1.7441 Y2.8406 Z-0.3071 I-0.0089 J-0.0014
X1.7619 Y2.8433 Z-0.3081 I0.0089 J0.0014
X1.7441 Y2.8406 Z-0.3091 I-0.0089 J-0.0014
X1.7619 Y2.8433 Z-0.3101 I0.0089 J0.0014
X1.7441 Y2.8406 Z-0.3111 I-0.0089 J-0.0014
X1.7619 Y2.8433 Z-0.3121 I0.0089 J0.0014
X1.7441 Y2.8406 Z-0.3131 I-0.0089 J-0.0014
X1.7619 Y2.8433 Z-0.3141 I0.0089 J0.0014
X1.7441 Y2.8406 Z-0.315 I-0.0089 J-0.0014
X1.7619 Y2.8433 Z-0.316 I0.0089 J0.0014
X1.7441 Y2.8406 Z-0.317 I-0.0089 J-0.0014
X1.7619 Y2.8433 Z-0.318 I0.0089 J0.0014
X1.7441 Y2.8406 Z-0.319 I-0.0089 J-0.0014
X1.7547 Y2.8331 Z-0.3195 I0.0089 J0.0014
X1.7618 Y2.8439 Z-0.32 I-0.0017 J0.0088
X1.7443 Y2.8399 I-0.0088 J-0.002 F40.
X1.7618 Y2.8439 I0.0088 J0.002
X1.7443 Y2.8399 Z-0.321 I-0.0088 J-0.002 F20.
X1.7618 Y2.8439 Z-0.322 I0.0088 J0.002
X1.7443 Y2.8399 Z-0.323 I-0.0088 J-0.002
X1.7618 Y2.8439 Z-0.3239 I0.0088 J0.002
X1.7443 Y2.8399 Z-0.3249 I-0.0088 J-0.002
X1.7618 Y2.8439 Z-0.3259 I0.0088 J0.002
X1.7443 Y2.8399 Z-0.3269 I-0.0088 J-0.002
X1.7618 Y2.8439 Z-0.3279 I0.0088 J0.002
X1.7443 Y2.8399 Z-0.3289 I-0.0088 J-0.002
X1.7618 Y2.8439 Z-0.3299 I0.0088 J0.002
X1.7443 Y2.8399 Z-0.3309 I-0.0088 J-0.002
X1.7618 Y2.8439 Z-0.3318 I0.0088 J0.002
X1.7443 Y2.8399 Z-0.3328 I-0.0088 J-0.002
X1.7618 Y2.8439 Z-0.3338 I0.0088 J0.002
X1.7443 Y2.8399 Z-0.3348 I-0.0088 J-0.002
X1.7618 Y2.8439 Z-0.3358 I0.0088 J0.002
X1.7443 Y2.8399 Z-0.3368 I-0.0088 J-0.002
X1.7618 Y2.8439 Z-0.3378 I0.0088 J0.002
X1.7443 Y2.8399 Z-0.3388 I-0.0088 J-0.002
X1.7618 Y2.8439 Z-0.3397 I0.0088 J0.002
X1.7443 Y2.8399 Z-0.3407 I-0.0088 J-0.002
X1.7618 Y2.8439 Z-0.3417 I0.0088 J0.002
X1.7443 Y2.8399 Z-0.3427 I-0.0088 J-0.002
X1.7618 Y2.8439 Z-0.3437 I0.0088 J0.002
X1.7443 Y2.8399 Z-0.3447 I-0.0088 J-0.002
X1.7618 Y2.8439 Z-0.3457 I0.0088 J0.002
X1.7443 Y2.8399 Z-0.3467 I-0.0088 J-0.002
X1.7618 Y2.8439 Z-0.3476 I0.0088 J0.002
X1.7443 Y2.8399 Z-0.3486 I-0.0088 J-0.002
X1.7618 Y2.8439 Z-0.3496 I0.0088 J0.002
X1.7443 Y2.8399 Z-0.3506 I-0.0088 J-0.002
X1.7618 Y2.8439 Z-0.3516 I0.0088 J0.002
X1.7441 Y2.8434 Z-0.3525 I-0.0088 J-0.002
X1.7619 Y2.8404 I0.0089 J-0.0015 F40.
X1.7441 Y2.8434 I-0.0089 J0.0015
G1 X1.744 Y2.8419 Z-0.3524
X1.7442 Y2.8402 Z-0.3517
X1.7447 Y2.8385 Z-0.351
X1.7455 Y2.8369 Z-0.3504
X1.7467 Y2.8355 Z-0.3482
X1.7482 Y2.8343 Z-0.3461
X1.7493 Y2.8337 Z-0.3407
G0 Z0.2
X2.6519 Y2.7794
G1 Z0.1118 F40.
X2.6513 Y2.7791 Z0.1079 F20.
X2.6505 Y2.7785 Z0.1061
X2.6498 Y2.7778 Z0.1044
X2.6492 Y2.7767 Z0.1033
X2.6488 Y2.7754 Z0.1023
X2.6489 Y2.7741 Z0.1012
X2.6493 Y2.7726 Z0.1008
X2.6503 Y2.7713 Z0.1004
X2.6516 Y2.7703 Z0.1
G3 X2.656 Y2.7793 Z0.0995 I0.0022 J0.0045
X2.6516 Y2.7703 Z0.0989 I-0.0022 J-0.0045
X2.656 Y2.7793 Z0.0984 I0.0022 J0.0045
X2.6516 Y2.7703 Z0.0978 I-0.0022 J-0.0045
X2.656 Y2.7793 Z0.0973 I0.0022 J0.0045
X2.6516 Y2.7703 Z0.0967 I-0.0022 J-0.0045
X2.656 Y2.7793 Z0.0962 I0.0022 J0.0045
X2.6516 Y2.7703 Z0.0956 I-0.0022 J-0.0045
X2.656 Y2.7793 Z0.0951 I0.0022 J0.0045
X2.6516 Y2.7703 Z0.0945 I-0.0022 J-0.0045
X2.656 Y2.7793 Z0.094 I0.0022 J0.0045
X2.6516 Y2.7703 Z0.0934 I-0.0022 J-0.0045
X2.656 Y2.7793 Z0.0929 I0.0022 J0.0045
X2.6516 Y2.7703 Z0.0923 I-0.0022 J-0.0045
X2.656 Y2.7793 Z0.0918 I0.0022 J0.0045
X2.6516 Y2.7703 Z0.0912 I-0.0022 J-0.0045
X2.656 Y2.7793 Z0.0907 I0.0022 J0.0045
X2.6516 Y2.7703 Z0.0901 I-0.0022 J-0.0045
X2.656 Y2.7793 Z0.0896 I0.0022 J0.0045
X2.6516 Y2.7703 Z0.089 I-0.0022 J-0.0045
X2.656 Y2.7793 Z0.0885 I0.0022 J0.0045
X2.6516 Y2.7703 Z0.0879 I-0.0022 J-0.0045
X2.656 Y2.7793 Z0.0874 I0.0022 J0.0045
X2.6516 Y2.7703 Z0.0868 I-0.0022 J-0.0045
X2.656 Y2.7793 Z0.0863 I0.0022 J0.0045
X2.6516 Y2.7703 Z0.0857 I-0.0022 J-0.0045
X2.656 Y2.7793 Z0.0852 I0.0022 J0.0045
X2.6516 Y2.7703 Z0.0846 I-0.0022 J-0.0045
X2.656 Y2.7793 Z0.0841 I0.0022 J0.0045
X2.6516 Y2.7703 Z0.0835 I-0.0022 J-0.0045
X2.656 Y2.7793 Z0.083 I0.0022 J0.0045
X2.6516 Y2.7703 Z0.0824 I-0.0022 J-0.0045
X2.656 Y2.7793 Z0.0819 I0.0022 J0.0045
X2.6516 Y2.7703 Z0.0813 I-0.0022 J-0.0045
X2.656 Y2.7793 Z0.0808 I0.0022 J0.0045
X2.6516 Y2.7703 Z0.0803 I-0.0022 J-0.0045
X2.656 Y2.7793 Z0.0797 I0.0022 J0.0045
X2.6516 Y2.7703 Z0.0792 I-0.0022 J-0.0045
X2.656 Y2.7793 Z0.0786 I0.0022 J0.0045
X2.6516 Y2.7703 Z0.0781 I-0.0022 J-0.0045
X2.656 Y2.7793 Z0.0775 I0.0022 J0.0045
X2.6516 Y2.7703 Z0.077 I-0.0022 J-0.0045
X2.656 Y2.7793 Z0.0764 I0.0022 J0.0045
X2.6516 Y2.7703 Z0.0759 I-0.0022 J-0.0045
X2.656 Y2.7793 Z0.0753 I0.0022 J0.0045
X2.6516 Y2.7703 Z0.0748 I-0.0022 J-0.0045
X2.656 Y2.7793 Z0.0742 I0.0022 J0.0045
X2.6516 Y2.7703 Z0.0737 I-0.0022 J-0.0045
X2.656 Y2.7793 Z0.0731 I0.0022 J0.0045
X2.6516 Y2.7703 Z0.0726 I-0.0022 J-0.0045
X2.656 Y2.7793 Z0.072 I0.0022 J0.0045
X2.6516 Y2.7703 Z0.0715 I-0.0022 J-0.0045
X2.656 Y2.7793 Z0.0709 I0.0022 J0.0045
X2.6516 Y2.7703 Z0.0704 I-0.0022 J-0.0045
X2.656 Y2.7793 Z0.0698 I0.0022 J0.0045
X2.6516 Y2.7703 Z0.0693 I-0.0022 J-0.0045
X2.656 Y2.7793 Z0.0687 I0.0022 J0.0045
X2.6516 Y2.7703 Z0.0682 I-0.0022 J-0.0045
X2.656 Y2.7793 Z0.0676 I0.0022 J0.0045
X2.6516 Y2.7703 Z0.0671 I-0.0022 J-0.0045
X2.656 Y2.7793 Z0.0665 I0.0022 J0.0045
X2.6516 Y2.7703 Z0.066 I-0.0022 J-0.0045
X2.656 Y2.7793 Z0.0654 I0.0022 J0.0045
X2.6516 Y2.7703 Z0.0649 I-0.0022 J-0.0045
X2.656 Y2.7793 Z0.0643 I0.0022 J0.0045
X2.6516 Y2.7703 Z0.0638 I-0.0022 J-0.0045
X2.656 Y2.7793 Z0.0632 I0.0022 J0.0045
X2.6516 Y2.7703 Z0.0627 I-0.0022 J-0.0045
X2.656 Y2.7793 Z0.0622 I0.0022 J0.0045
X2.6516 Y2.7703 Z0.0616 I-0.0022 J-0.0045
X2.656 Y2.7793 Z0.0611 I0.0022 J0.0045
X2.6516 Y2.7703 Z0.0605 I-0.0022 J-0.0045
X2.656 Y2.7793 Z0.06 I0.0022 J0.0045
X2.6516 Y2.7703 Z0.0594 I-0.0022 J-0.0045
X2.656 Y2.7793 Z0.0589 I0.0022 J0.0045
X2.6516 Y2.7703 Z0.0583 I-0.0022 J-0.0045
X2.656 Y2.7793 Z0.0578 I0.0022 J0.0045
X2.6516 Y2.7703 Z0.0572 I-0.0022 J-0.0045
X2.656 Y2.7793 Z0.0567 I0.0022 J0.0045
X2.6516 Y2.7703 Z0.0561 I-0.0022 J-0.0045
X2.656 Y2.7793 Z0.0556 I0.0022 J0.0045
X2.6516 Y2.7703 Z0.055 I-0.0022 J-0.0045
X2.656 Y2.7793 Z0.0545 I0.0022 J0.0045
X2.6516 Y2.7703 Z0.0539 I-0.0022 J-0.0045
X2.656 Y2.7793 Z0.0534 I0.0022 J0.0045
X2.6516 Y2.7703 Z0.0528 I-0.0022 J-0.0045
X2.656 Y2.7793 Z0.0523 I0.0022 J0.0045
X2.6516 Y2.7703 Z0.0517 I-0.0022 J-0.0045
X2.656 Y2.7793 Z0.0512 I0.0022 J0.0045
X2.6516 Y2.7703 Z0.0506 I-0.0022 J-0.0045
X2.656 Y2.7793 Z0.0501 I0.0022 J0.0045
X2.6516 Y2.7703 Z0.0495 I-0.0022 J-0.0045
X2.656 Y2.7793 Z0.049 I0.0022 J0.0045
X2.6516 Y2.7703 Z0.0484 I-0.0022 J-0.0045
X2.656 Y2.7793 Z0.0479 I0.0022 J0.0045
X2.6516 Y2.7703 Z0.0473 I-0.0022 J-0.0045
X2.656 Y2.7793 Z0.0468 I0.0022 J0.0045
X2.6516 Y2.7703 Z0.0462 I-0.0022 J-0.0045
X2.656 Y2.7793 Z0.0457 I0.0022 J0.0045
X2.6516 Y2.7703 Z0.0451 I-0.0022 J-0.0045
X2.656 Y2.7793 Z0.0446 I0.0022 J0.0045
X2.6516 Y2.7703 Z0.044 I-0.0022 J-0.0045
X2.656 Y2.7793 Z0.0435 I0.0022 J0.0045
X2.6516 Y2.7703 Z0.043 I-0.0022 J-0.0045
X2.656 Y2.7793 Z0.0424 I0.0022 J0.0045
X2.6516 Y2.7703 Z0.0419 I-0.0022 J-0.0045
X2.656 Y2.7793 Z0.0413 I0.0022 J0.0045
X2.6516 Y2.7703 Z0.0408 I-0.0022 J-0.0045
X2.656 Y2.7793 Z0.0402 I0.0022 J0.0045
X2.6516 Y2.7703 Z0.0397 I-0.0022 J-0.0045
X2.656 Y2.7793 Z0.0391 I0.0022 J0.0045
X2.6516 Y2.7703 Z0.0386 I-0.0022 J-0.0045
X2.656 Y2.7793 Z0.038 I0.0022 J0.0045
X2.6516 Y2.7703 Z0.0375 I-0.0022 J-0.0045
X2.656 Y2.7793 Z0.0369 I0.0022 J0.0045
X2.6516 Y2.7703 Z0.0364 I-0.0022 J-0.0045
X2.656 Y2.7793 Z0.0358 I0.0022 J0.0045
X2.6516 Y2.7703 Z0.0353 I-0.0022 J-0.0045
X2.656 Y2.7793 Z0.0347 I0.0022 J0.0045
X2.6516 Y2.7703 Z0.0342 I-0.0022 J-0.0045
X2.656 Y2.7793 Z0.0336 I0.0022 J0.0045
X2.6516 Y2.7703 Z0.0331 I-0.0022 J-0.0045
X2.656 Y2.7793 Z0.0325 I0.0022 J0.0045
X2.6516 Y2.7703 Z0.032 I-0.0022 J-0.0045
X2.656 Y2.7793 Z0.0314 I0.0022 J0.0045
X2.6516 Y2.7703 Z0.0309 I-0.0022 J-0.0045
X2.656 Y2.7793 Z0.0303 I0.0022 J0.0045
X2.6516 Y2.7703 Z0.0298 I-0.0022 J-0.0045
X2.656 Y2.7793 Z0.0292 I0.0022 J0.0045
X2.6516 Y2.7703 Z0.0287 I-0.0022 J-0.0045
X2.656 Y2.7793 Z0.0281 I0.0022 J0.0045
X2.6516 Y2.7703 Z0.0276 I-0.0022 J-0.0045
X2.656 Y2.7793 Z0.027 I0.0022 J0.0045
X2.6516 Y2.7703 Z0.0265 I-0.0022 J-0.0045
X2.656 Y2.7793 Z0.0259 I0.0022 J0.0045
X2.6516 Y2.7703 Z0.0254 I-0.0022 J-0.0045
X2.656 Y2.7793 Z0.0249 I0.0022 J0.0045
X2.6516 Y2.7703 Z0.0243 I-0.0022 J-0.0045
X2.656 Y2.7793 Z0.0238 I0.0022 J0.0045
X2.6516 Y2.7703 Z0.0232 I-0.0022 J-0.0045
X2.656 Y2.7793 Z0.0227 I0.0022 J0.0045
X2.6516 Y2.7703 Z0.0221 I-0.0022 J-0.0045
X2.656 Y2.7793 Z0.0216 I0.0022 J0.0045
X2.6516 Y2.7703 Z0.021 I-0.0022 J-0.0045
X2.656 Y2.7793 Z0.0205 I0.0022 J0.0045
X2.6516 Y2.7703 Z0.0199 I-0.0022 J-0.0045
X2.656 Y2.7793 Z0.0194 I0.0022 J0.0045
X2.6516 Y2.7703 Z0.0188 I-0.0022 J-0.0045
X2.656 Y2.7793 Z0.0183 I0.0022 J0.0045
X2.6516 Y2.7703 Z0.0177 I-0.0022 J-0.0045
X2.656 Y2.7793 Z0.0172 I0.0022 J0.0045
X2.6516 Y2.7703 Z0.0166 I-0.0022 J-0.0045
X2.656 Y2.7793 Z0.0161 I0.0022 J0.0045
X2.6516 Y2.7703 Z0.0155 I-0.0022 J-0.0045
X2.656 Y2.7793 Z0.015 I0.0022 J0.0045
X2.6516 Y2.7703 Z0.0144 I-0.0022 J-0.0045
X2.656 Y2.7793 Z0.0139 I0.0022 J0.0045
X2.6516 Y2.7703 Z0.0133 I-0.0022 J-0.0045
X2.656 Y2.7793 Z0.0128 I0.0022 J0.0045
X2.6516 Y2.7703 Z0.0122 I-0.0022 J-0.0045
X2.656 Y2.7793 Z0.0117 I0.0022 J0.0045
X2.6516 Y2.7703 Z0.0111 I-0.0022 J-0.0045
X2.656 Y2.7793 Z0.0106 I0.0022 J0.0045
X2.6516 Y2.7703 Z0.01 I-0.0022 J-0.0045
X2.656 Y2.7793 Z0.0095 I0.0022 J0.0045
X2.6516 Y2.7703 Z0.0089 I-0.0022 J-0.0045
X2.656 Y2.7793 Z0.0084 I0.0022 J0.0045
X2.6516 Y2.7703 Z0.0078 I-0.0022 J-0.0045
X2.656 Y2.7793 Z0.0073 I0.0022 J0.0045
X2.6516 Y2.7703 Z0.0067 I-0.0022 J-0.0045
X2.656 Y2.7793 Z0.0062 I0.0022 J0.0045
X2.6516 Y2.7703 Z0.0057 I-0.0022 J-0.0045
X2.656 Y2.7793 Z0.0051 I0.0022 J0.0045
X2.6516 Y2.7703 Z0.0046 I-0.0022 J-0.0045
X2.656 Y2.7793 Z0.004 I0.0022 J0.0045
X2.6516 Y2.7703 Z0.0035 I-0.0022 J-0.0045
X2.656 Y2.7793 Z0.0029 I0.0022 J0.0045
X2.6516 Y2.7703 Z0.0024 I-0.0022 J-0.0045
X2.656 Y2.7793 Z0.0018 I0.0022 J0.0045
X2.6516 Y2.7703 Z0.0013 I-0.0022 J-0.0045
X2.656 Y2.7793 Z0.0007 I0.0022 J0.0045
X2.6516 Y2.7703 Z0.0002 I-0.0022 J-0.0045
X2.656 Y2.7793 Z-0.0004 I0.0022 J0.0045
X2.6516 Y2.7703 Z-0.0009 I-0.0022 J-0.0045
X2.656 Y2.7793 Z-0.0015 I0.0022 J0.0045
X2.6516 Y2.7703 Z-0.002 I-0.0022 J-0.0045
X2.656 Y2.7793 Z-0.0026 I0.0022 J0.0045
X2.6516 Y2.7703 Z-0.0031 I-0.0022 J-0.0045
X2.656 Y2.7793 Z-0.0037 I0.0022 J0.0045
X2.6516 Y2.7703 Z-0.0042 I-0.0022 J-0.0045
X2.656 Y2.7793 Z-0.0048 I0.0022 J0.0045
X2.6516 Y2.7703 Z-0.0053 I-0.0022 J-0.0045
X2.656 Y2.7793 Z-0.0059 I0.0022 J0.0045
X2.6516 Y2.7703 Z-0.0064 I-0.0022 J-0.0045
X2.656 Y2.7793 Z-0.007 I0.0022 J0.0045
X2.6516 Y2.7703 Z-0.0075 I-0.0022 J-0.0045
X2.656 Y2.7793 Z-0.0081 I0.0022 J0.0045
X2.6516 Y2.7703 Z-0.0086 I-0.0022 J-0.0045
X2.656 Y2.7793 Z-0.0092 I0.0022 J0.0045
X2.6516 Y2.7703 Z-0.0097 I-0.0022 J-0.0045
X2.656 Y2.7793 Z-0.0103 I0.0022 J0.0045
X2.6516 Y2.7703 Z-0.0108 I-0.0022 J-0.0045
X2.656 Y2.7793 Z-0.0114 I0.0022 J0.0045
X2.6516 Y2.7703 Z-0.0119 I-0.0022 J-0.0045
X2.656 Y2.7793 Z-0.0124 I0.0022 J0.0045
X2.6516 Y2.7703 Z-0.013 I-0.0022 J-0.0045
X2.656 Y2.7793 Z-0.0135 I0.0022 J0.0045
X2.6516 Y2.7703 Z-0.0141 I-0.0022 J-0.0045
X2.656 Y2.7793 Z-0.0146 I0.0022 J0.0045
X2.6516 Y2.7703 Z-0.0152 I-0.0022 J-0.0045
X2.656 Y2.7793 Z-0.0157 I0.0022 J0.0045
X2.6516 Y2.7703 Z-0.0163 I-0.0022 J-0.0045
X2.656 Y2.7793 Z-0.0168 I0.0022 J0.0045
X2.6516 Y2.7703 Z-0.0174 I-0.0022 J-0.0045
X2.656 Y2.7793 Z-0.0179 I0.0022 J0.0045
X2.6516 Y2.7703 Z-0.0185 I-0.0022 J-0.0045
X2.656 Y2.7793 Z-0.019 I0.0022 J0.0045
X2.6516 Y2.7703 Z-0.0196 I-0.0022 J-0.0045
X2.656 Y2.7793 Z-0.0201 I0.0022 J0.0045
X2.6516 Y2.7703 Z-0.0207 I-0.0022 J-0.0045
X2.656 Y2.7793 Z-0.0212 I0.0022 J0.0045
X2.6516 Y2.7703 Z-0.0218 I-0.0022 J-0.0045
X2.656 Y2.7793 Z-0.0223 I0.0022 J0.0045
X2.6516 Y2.7703 Z-0.0229 I-0.0022 J-0.0045
X2.656 Y2.7793 Z-0.0234 I0.0022 J0.0045
X2.6516 Y2.7703 Z-0.024 I-0.0022 J-0.0045
X2.656 Y2.7793 Z-0.0245 I0.0022 J0.0045
X2.6516 Y2.7703 Z-0.0251 I-0.0022 J-0.0045
X2.656 Y2.7793 Z-0.0256 I0.0022 J0.0045
X2.6516 Y2.7703 Z-0.0262 I-0.0022 J-0.0045
X2.656 Y2.7793 Z-0.0267 I0.0022 J0.0045
X2.6516 Y2.7703 Z-0.0273 I-0.0022 J-0.0045
X2.656 Y2.7793 Z-0.0278 I0.0022 J0.0045
X2.6516 Y2.7703 Z-0.0284 I-0.0022 J-0.0045
X2.656 Y2.7793 Z-0.0289 I0.0022 J0.0045
X2.6516 Y2.7703 Z-0.0295 I-0.0022 J-0.0045
X2.656 Y2.7793 Z-0.03 I0.0022 J0.0045
X2.6516 Y2.7703 Z-0.0306 I-0.0022 J-0.0045
X2.656 Y2.7793 Z-0.0311 I0.0022 J0.0045
X2.6516 Y2.7703 Z-0.0316 I-0.0022 J-0.0045
X2.656 Y2.7793 Z-0.0322 I0.0022 J0.0045
X2.6516 Y2.7703 Z-0.0327 I-0.0022 J-0.0045
X2.656 Y2.7793 Z-0.0333 I0.0022 J0.0045
X2.6516 Y2.7703 Z-0.0338 I-0.0022 J-0.0045
X2.656 Y2.7793 Z-0.0344 I0.0022 J0.0045
X2.6516 Y2.7703 Z-0.0349 I-0.0022 J-0.0045
X2.656 Y2.7793 Z-0.0355 I0.0022 J0.0045
X2.6516 Y2.7703 Z-0.036 I-0.0022 J-0.0045
X2.656 Y2.7793 Z-0.0366 I0.0022 J0.0045
X2.6516 Y2.7703 Z-0.0371 I-0.0022 J-0.0045
X2.656 Y2.7793 Z-0.0377 I0.0022 J0.0045
X2.6516 Y2.7703 Z-0.0382 I-0.0022 J-0.0045
X2.656 Y2.7793 Z-0.0388 I0.0022 J0.0045
X2.6516 Y2.7703 Z-0.0393 I-0.0022 J-0.0045
X2.656 Y2.7793 Z-0.0399 I0.0022 J0.0045
X2.6516 Y2.7703 Z-0.0404 I-0.0022 J-0.0045
X2.656 Y2.7793 Z-0.041 I0.0022 J0.0045
X2.6516 Y2.7703 Z-0.0415 I-0.0022 J-0.0045
X2.656 Y2.7793 Z-0.0421 I0.0022 J0.0045
X2.6516 Y2.7703 Z-0.0426 I-0.0022 J-0.0045
X2.656 Y2.7793 Z-0.0432 I0.0022 J0.0045
X2.6516 Y2.7703 Z-0.0437 I-0.0022 J-0.0045
X2.656 Y2.7793 Z-0.0443 I0.0022 J0.0045
X2.6516 Y2.7703 Z-0.0448 I-0.0022 J-0.0045
X2.656 Y2.7793 Z-0.0454 I0.0022 J0.0045
X2.6516 Y2.7703 Z-0.0459 I-0.0022 J-0.0045
X2.656 Y2.7793 Z-0.0465 I0.0022 J0.0045
X2.6516 Y2.7703 Z-0.047 I-0.0022 J-0.0045
X2.656 Y2.7793 Z-0.0476 I0.0022 J0.0045
X2.6516 Y2.7703 Z-0.0481 I-0.0022 J-0.0045
X2.656 Y2.7793 Z-0.0487 I0.0022 J0.0045
X2.6516 Y2.7703 Z-0.0492 I-0.0022 J-0.0045
X2.656 Y2.7793 Z-0.0497 I0.0022 J0.0045
X2.6516 Y2.7703 Z-0.0503 I-0.0022 J-0.0045
X2.656 Y2.7793 Z-0.0508 I0.0022 J0.0045
X2.6516 Y2.7703 Z-0.0514 I-0.0022 J-0.0045
X2.656 Y2.7793 Z-0.0519 I0.0022 J0.0045
X2.6516 Y2.7703 Z-0.0525 I-0.0022 J-0.0045
X2.656 Y2.7793 Z-0.053 I0.0022 J0.0045
X2.6516 Y2.7703 Z-0.0536 I-0.0022 J-0.0045
X2.656 Y2.7793 Z-0.0541 I0.0022 J0.0045
X2.6516 Y2.7703 Z-0.0547 I-0.0022 J-0.0045
X2.656 Y2.7793 Z-0.0552 I0.0022 J0.0045
X2.6516 Y2.7703 Z-0.0558 I-0.0022 J-0.0045
X2.656 Y2.7793 Z-0.0563 I0.0022 J0.0045
X2.6516 Y2.7703 Z-0.0569 I-0.0022 J-0.0045
X2.656 Y2.7793 Z-0.0574 I0.0022 J0.0045
X2.6516 Y2.7703 Z-0.058 I-0.0022 J-0.0045
X2.656 Y2.7793 Z-0.0585 I0.0022 J0.0045
X2.6516 Y2.7703 Z-0.0591 I-0.0022 J-0.0045
X2.656 Y2.7793 Z-0.0596 I0.0022 J0.0045
X2.6516 Y2.7703 Z-0.0602 I-0.0022 J-0.0045
X2.656 Y2.7793 Z-0.0607 I0.0022 J0.0045
X2.6516 Y2.7703 Z-0.0613 I-0.0022 J-0.0045
X2.656 Y2.7793 Z-0.0618 I0.0022 J0.0045
X2.6516 Y2.7703 Z-0.0624 I-0.0022 J-0.0045
X2.656 Y2.7793 Z-0.0629 I0.0022 J0.0045
X2.6516 Y2.7703 Z-0.0635 I-0.0022 J-0.0045
X2.656 Y2.7793 Z-0.064 I0.0022 J0.0045
X2.6516 Y2.7703 Z-0.0646 I-0.0022 J-0.0045
X2.656 Y2.7793 Z-0.0651 I0.0022 J0.0045
X2.6516 Y2.7703 Z-0.0657 I-0.0022 J-0.0045
X2.656 Y2.7793 Z-0.0662 I0.0022 J0.0045
X2.6516 Y2.7703 Z-0.0668 I-0.0022 J-0.0045
X2.656 Y2.7793 Z-0.0673 I0.0022 J0.0045
X2.6516 Y2.7703 Z-0.0679 I-0.0022 J-0.0045
X2.656 Y2.7793 Z-0.0684 I0.0022 J0.0045
X2.6516 Y2.7703 Z-0.0689 I-0.0022 J-0.0045
X2.656 Y2.7793 Z-0.0695 I0.0022 J0.0045
X2.6516 Y2.7703 Z-0.07 I-0.0022 J-0.0045
X2.656 Y2.7793 Z-0.0706 I0.0022 J0.0045
X2.6516 Y2.7703 Z-0.0711 I-0.0022 J-0.0045
X2.656 Y2.7793 Z-0.0717 I0.0022 J0.0045
X2.6516 Y2.7703 Z-0.0722 I-0.0022 J-0.0045
X2.656 Y2.7793 Z-0.0728 I0.0022 J0.0045
X2.6516 Y2.7703 Z-0.0733 I-0.0022 J-0.0045
X2.656 Y2.7793 Z-0.0739 I0.0022 J0.0045
X2.6516 Y2.7703 Z-0.0744 I-0.0022 J-0.0045
X2.656 Y2.7793 Z-0.075 I0.0022 J0.0045
X2.6516 Y2.7703 Z-0.0755 I-0.0022 J-0.0045
X2.656 Y2.7793 Z-0.0761 I0.0022 J0.0045
X2.6516 Y2.7703 Z-0.0766 I-0.0022 J-0.0045
X2.656 Y2.7793 Z-0.0772 I0.0022 J0.0045
X2.6516 Y2.7703 Z-0.0777 I-0.0022 J-0.0045
X2.656 Y2.7793 Z-0.0783 I0.0022 J0.0045
X2.6516 Y2.7703 Z-0.0788 I-0.0022 J-0.0045
X2.656 Y2.7793 Z-0.0794 I0.0022 J0.0045
X2.6516 Y2.7703 Z-0.0799 I-0.0022 J-0.0045
X2.6538 Y2.7698 Z-0.08 I0.0022 J0.0045
Y2.7878 I0. J0.009 F40.
Y2.7698 I0. J-0.009
Y2.7878 Z-0.081 I0. J0.009 F20.
Y2.7698 Z-0.082 I0. J-0.009
Y2.7878 Z-0.083 I0. J0.009
Y2.7698 Z-0.0839 I0. J-0.009
Y2.7878 Z-0.0849 I0. J0.009
Y2.7698 Z-0.0859 I0. J-0.009
Y2.7878 Z-0.0869 I0. J0.009
Y2.7698 Z-0.0879 I0. J-0.009
Y2.7878 Z-0.0889 I0. J0.009
Y2.7698 Z-0.0899 I0. J-0.009
Y2.7878 Z-0.0909 I0. J0.009
Y2.7698 Z-0.0918 I0. J-0.009
Y2.7878 Z-0.0928 I0. J0.009
Y2.7698 Z-0.0938 I0. J-0.009
Y2.7878 Z-0.0948 I0. J0.009
Y2.7698 Z-0.0958 I0. J-0.009
Y2.7878 Z-0.0968 I0. J0.009
Y2.7698 Z-0.0978 I0. J-0.009
Y2.7878 Z-0.0988 I0. J0.009
Y2.7698 Z-0.0997 I0. J-0.009
Y2.7878 Z-0.1007 I0. J0.009
Y2.7698 Z-0.1017 I0. J-0.009
Y2.7878 Z-0.1027 I0. J0.009
Y2.7698 Z-0.1037 I0. J-0.009
Y2.7878 Z-0.1047 I0. J0.009
Y2.7698 Z-0.1057 I0. J-0.009
Y2.7878 Z-0.1067 I0. J0.009
Y2.7698 Z-0.1076 I0. J-0.009
Y2.7878 Z-0.1086 I0. J0.009
Y2.7698 Z-0.1096 I0. J-0.009
Y2.7878 Z-0.1106 I0. J0.009
Y2.7698 Z-0.1116 I0. J-0.009
Y2.7878 Z-0.1126 I0. J0.009
Y2.7698 Z-0.1136 I0. J-0.009
Y2.7878 Z-0.1146 I0. J0.009
Y2.7698 Z-0.1155 I0. J-0.009
Y2.7878 Z-0.1165 I0. J0.009
Y2.7698 Z-0.1175 I0. J-0.009
Y2.7878 Z-0.1185 I0. J0.009
Y2.7698 Z-0.1195 I0. J-0.009
Y2.7878 Z-0.1205 I0. J0.009
Y2.7698 Z-0.1215 I0. J-0.009
Y2.7878 Z-0.1225 I0. J0.009
Y2.7698 Z-0.1234 I0. J-0.009
Y2.7878 Z-0.1244 I0. J0.009
Y2.7698 Z-0.1254 I0. J-0.009
Y2.7878 Z-0.1264 I0. J0.009
Y2.7698 Z-0.1274 I0. J-0.009
Y2.7878 Z-0.1284 I0. J0.009
Y2.7698 Z-0.1294 I0. J-0.009
Y2.7878 Z-0.1304 I0. J0.009
Y2.7698 Z-0.1313 I0. J-0.009
Y2.7878 Z-0.1323 I0. J0.009
Y2.7698 Z-0.1333 I0. J-0.009
Y2.7878 Z-0.1343 I0. J0.009
Y2.7698 Z-0.1353 I0. J-0.009
Y2.7878 Z-0.1363 I0. J0.009
Y2.7698 Z-0.1373 I0. J-0.009
Y2.7878 Z-0.1383 I0. J0.009
Y2.7698 Z-0.1392 I0. J-0.009
Y2.7878 Z-0.1402 I0. J0.009
Y2.7698 Z-0.1412 I0. J-0.009
Y2.7878 Z-0.1422 I0. J0.009
Y2.7698 Z-0.1432 I0. J-0.009
Y2.7878 Z-0.1442 I0. J0.009
Y2.7698 Z-0.1452 I0. J-0.009
Y2.7878 Z-0.1462 I0. J0.009
Y2.7698 Z-0.1471 I0. J-0.009
Y2.7878 Z-0.1481 I0. J0.009
Y2.7698 Z-0.1491 I0. J-0.009
Y2.7878 Z-0.1501 I0. J0.009
Y2.7698 Z-0.1511 I0. J-0.009
Y2.7878 Z-0.1521 I0. J0.009
Y2.7698 Z-0.1531 I0. J-0.009
Y2.7878 Z-0.1541 I0. J0.009
Y2.7698 Z-0.155 I0. J-0.009
Y2.7878 Z-0.156 I0. J0.009
Y2.7698 Z-0.157 I0. J-0.009
Y2.7878 Z-0.158 I0. J0.009
Y2.7698 Z-0.159 I0. J-0.009
X2.6628 Y2.7791 Z-0.1595 I0. J0.009
X2.6531 Y2.7878 Z-0.16 I-0.009 J-0.0003
X2.6545 Y2.7698 I0.0007 J-0.009 F40.
X2.6531 Y2.7878 I-0.0007 J0.009
X2.6545 Y2.7698 Z-0.161 I0.0007 J-0.009 F20.
X2.6531 Y2.7878 Z-0.162 I-0.0007 J0.009
X2.6545 Y2.7698 Z-0.163 I0.0007 J-0.009
X2.6531 Y2.7878 Z-0.1639 I-0.0007 J0.009
X2.6545 Y2.7698 Z-0.1649 I0.0007 J-0.009
X2.6531 Y2.7878 Z-0.1659 I-0.0007 J0.009
X2.6545 Y2.7698 Z-0.1669 I0.0007 J-0.009
X2.6531 Y2.7878 Z-0.1679 I-0.0007 J0.009
X2.6545 Y2.7698 Z-0.1689 I0.0007 J-0.009
X2.6531 Y2.7878 Z-0.1699 I-0.0007 J0.009
X2.6545 Y2.7698 Z-0.1709 I0.0007 J-0.009
X2.6531 Y2.7878 Z-0.1718 I-0.0007 J0.009
X2.6545 Y2.7698 Z-0.1728 I0.0007 J-0.009
X2.6531 Y2.7878 Z-0.1738 I-0.0007 J0.009
X2.6545 Y2.7698 Z-0.1748 I0.0007 J-0.009
X2.6531 Y2.7878 Z-0.1758 I-0.0007 J0.009
X2.6545 Y2.7698 Z-0.1768 I0.0007 J-0.009
X2.6531 Y2.7878 Z-0.1778 I-0.0007 J0.009
X2.6545 Y2.7698 Z-0.1788 I0.0007 J-0.009
X2.6531 Y2.7878 Z-0.1797 I-0.0007 J0.009
X2.6545 Y2.7698 Z-0.1807 I0.0007 J-0.009
X2.6531 Y2.7878 Z-0.1817 I-0.0007 J0.009
X2.6545 Y2.7698 Z-0.1827 I0.0007 J-0.009
X2.6531 Y2.7878 Z-0.1837 I-0.0007 J0.009
X2.6545 Y2.7698 Z-0.1847 I0.0007 J-0.009
X2.6531 Y2.7878 Z-0.1857 I-0.0007 J0.009
X2.6545 Y2.7698 Z-0.1867 I0.0007 J-0.009
X2.6531 Y2.7878 Z-0.1876 I-0.0007 J0.009
X2.6545 Y2.7698 Z-0.1886 I0.0007 J-0.009
X2.6531 Y2.7878 Z-0.1896 I-0.0007 J0.009
X2.6545 Y2.7698 Z-0.1906 I0.0007 J-0.009
X2.6531 Y2.7878 Z-0.1916 I-0.0007 J0.009
X2.6545 Y2.7698 Z-0.1926 I0.0007 J-0.009
X2.6531 Y2.7878 Z-0.1936 I-0.0007 J0.009
X2.6545 Y2.7698 Z-0.1946 I0.0007 J-0.009
X2.6531 Y2.7878 Z-0.1955 I-0.0007 J0.009
X2.6545 Y2.7698 Z-0.1965 I0.0007 J-0.009
X2.6531 Y2.7878 Z-0.1975 I-0.0007 J0.009
X2.6545 Y2.7698 Z-0.1985 I0.0007 J-0.009
X2.6531 Y2.7878 Z-0.1995 I-0.0007 J0.009
X2.6545 Y2.7698 Z-0.2005 I0.0007 J-0.009
X2.6531 Y2.7878 Z-0.2015 I-0.0007 J0.009
X2.6545 Y2.7698 Z-0.2025 I0.0007 J-0.009
X2.6531 Y2.7878 Z-0.2034 I-0.0007 J0.009
X2.6545 Y2.7698 Z-0.2044 I0.0007 J-0.009
X2.6531 Y2.7878 Z-0.2054 I-0.0007 J0.009
X2.6545 Y2.7698 Z-0.2064 I0.0007 J-0.009
X2.6531 Y2.7878 Z-0.2074 I-0.0007 J0.009
X2.6545 Y2.7698 Z-0.2084 I0.0007 J-0.009
X2.6531 Y2.7878 Z-0.2094 I-0.0007 J0.009
X2.6545 Y2.7698 Z-0.2104 I0.0007 J-0.009
X2.6531 Y2.7878 Z-0.2113 I-0.0007 J0.009
X2.6545 Y2.7698 Z-0.2123 I0.0007 J-0.009
X2.6531 Y2.7878 Z-0.2133 I-0.0007 J0.009
X2.6545 Y2.7698 Z-0.2143 I0.0007 J-0.009
X2.6531 Y2.7878 Z-0.2153 I-0.0007 J0.009
X2.6545 Y2.7698 Z-0.2163 I0.0007 J-0.009
X2.6531 Y2.7878 Z-0.2173 I-0.0007 J0.009
X2.6545 Y2.7698 Z-0.2183 I0.0007 J-0.009
X2.6531 Y2.7878 Z-0.2192 I-0.0007 J0.009
X2.6545 Y2.7698 Z-0.2202 I0.0007 J-0.009
X2.6531 Y2.7878 Z-0.2212 I-0.0007 J0.009
X2.6545 Y2.7698 Z-0.2222 I0.0007 J-0.009
X2.6531 Y2.7878 Z-0.2232 I-0.0007 J0.009
X2.6545 Y2.7698 Z-0.2242 I0.0007 J-0.009
X2.6531 Y2.7878 Z-0.2252 I-0.0007 J0.009
X2.6545 Y2.7698 Z-0.2262 I0.0007 J-0.009
X2.6531 Y2.7878 Z-0.2271 I-0.0007 J0.009
X2.6545 Y2.7698 Z-0.2281 I0.0007 J-0.009
X2.6531 Y2.7878 Z-0.2291 I-0.0007 J0.009
X2.6545 Y2.7698 Z-0.2301 I0.0007 J-0.009
X2.6531 Y2.7878 Z-0.2311 I-0.0007 J0.009
X2.6545 Y2.7698 Z-0.2321 I0.0007 J-0.009
X2.6531 Y2.7878 Z-0.2331 I-0.0007 J0.009
X2.6545 Y2.7698 Z-0.2341 I0.0007 J-0.009
X2.6531 Y2.7878 Z-0.235 I-0.0007 J0.009
X2.6545 Y2.7698 Z-0.236 I0.0007 J-0.009
X2.6531 Y2.7878 Z-0.237 I-0.0007 J0.009
X2.6545 Y2.7698 Z-0.238 I0.0007 J-0.009
X2.6531 Y2.7878 Z-0.239 I-0.0007 J0.009
X2.6449 Y2.7778 Z-0.2395 I0.0007 J-0.009
X2.6552 Y2.7699 Z-0.24 I0.0089 J0.001
X2.6525 Y2.7877 I-0.0014 J0.0089 F40.
X2.6552 Y2.7699 I0.0014 J-0.0089
X2.6525 Y2.7877 Z-0.241 I-0.0014 J0.0089 F20.
X2.6552 Y2.7699 Z-0.242 I0.0014 J-0.0089
X2.6525 Y2.7877 Z-0.243 I-0.0014 J0.0089
X2.6552 Y2.7699 Z-0.2439 I0.0014 J-0.0089
X2.6525 Y2.7877 Z-0.2449 I-0.0014 J0.0089
X2.6552 Y2.7699 Z-0.2459 I0.0014 J-0.0089
X2.6525 Y2.7877 Z-0.2469 I-0.0014 J0.0089
X2.6552 Y2.7699 Z-0.2479 I0.0014 J-0.0089
X2.6525 Y2.7877 Z-0.2489 I-0.0014 J0.0089
X2.6552 Y2.7699 Z-0.2499 I0.0014 J-0.0089
X2.6525 Y2.7877 Z-0.2509 I-0.0014 J0.0089
X2.6552 Y2.7699 Z-0.2518 I0.0014 J-0.0089
X2.6525 Y2.7877 Z-0.2528 I-0.0014 J0.0089
X2.6552 Y2.7699 Z-0.2538 I0.0014 J-0.0089
X2.6525 Y2.7877 Z-0.2548 I-0.0014 J0.0089
X2.6552 Y2.7699 Z-0.2558 I0.0014 J-0.0089
X2.6525 Y2.7877 Z-0.2568 I-0.0014 J0.0089
X2.6552 Y2.7699 Z-0.2578 I0.0014 J-0.0089
X2.6525 Y2.7877 Z-0.2588 I-0.0014 J0.0089
X2.6552 Y2.7699 Z-0.2597 I0.0014 J-0.0089
X2.6525 Y2.7877 Z-0.2607 I-0.0014 J0.0089
X2.6552 Y2.7699 Z-0.2617 I0.0014 J-0.0089
X2.6525 Y2.7877 Z-0.2627 I-0.0014 J0.0089
X2.6552 Y2.7699 Z-0.2637 I0.0014 J-0.0089
X2.6525 Y2.7877 Z-0.2647 I-0.0014 J0.0089
X2.6552 Y2.7699 Z-0.2657 I0.0014 J-0.0089
X2.6525 Y2.7877 Z-0.2667 I-0.0014 J0.0089
X2.6552 Y2.7699 Z-0.2676 I0.0014 J-0.0089
X2.6525 Y2.7877 Z-0.2686 I-0.0014 J0.0089
X2.6552 Y2.7699 Z-0.2696 I0.0014 J-0.0089
X2.6525 Y2.7877 Z-0.2706 I-0.0014 J0.0089
X2.6552 Y2.7699 Z-0.2716 I0.0014 J-0.0089
X2.6525 Y2.7877 Z-0.2726 I-0.0014 J0.0089
X2.6552 Y2.7699 Z-0.2736 I0.0014 J-0.0089
X2.6525 Y2.7877 Z-0.2746 I-0.0014 J0.0089
X2.6552 Y2.7699 Z-0.2755 I0.0014 J-0.0089
X2.6525 Y2.7877 Z-0.2765 I-0.0014 J0.0089
X2.6552 Y2.7699 Z-0.2775 I0.0014 J-0.0089
X2.6525 Y2.7877 Z-0.2785 I-0.0014 J0.0089
X2.6552 Y2.7699 Z-0.2795 I0.0014 J-0.0089
X2.6525 Y2.7877 Z-0.2805 I-0.0014 J0.0089
X2.6552 Y2.7699 Z-0.2815 I0.0014 J-0.0089
X2.6525 Y2.7877 Z-0.2825 I-0.0014 J0.0089
X2.6552 Y2.7699 Z-0.2834 I0.0014 J-0.0089
X2.6525 Y2.7877 Z-0.2844 I-0.0014 J0.0089
X2.6552 Y2.7699 Z-0.2854 I0.0014 J-0.0089
X2.6525 Y2.7877 Z-0.2864 I-0.0014 J0.0089
X2.6552 Y2.7699 Z-0.2874 I0.0014 J-0.0089
X2.6525 Y2.7877 Z-0.2884 I-0.0014 J0.0089
X2.6552 Y2.7699 Z-0.2894 I0.0014 J-0.0089
X2.6525 Y2.7877 Z-0.2904 I-0.0014 J0.0089
X2.6552 Y2.7699 Z-0.2913 I0.0014 J-0.0089
X2.6525 Y2.7877 Z-0.2923 I-0.0014 J0.0089
X2.6552 Y2.7699 Z-0.2933 I0.0014 J-0.0089
X2.6525 Y2.7877 Z-0.2943 I-0.0014 J0.0089
X2.6552 Y2.7699 Z-0.2953 I0.0014 J-0.0089
X2.6525 Y2.7877 Z-0.2963 I-0.0014 J0.0089
X2.6552 Y2.7699 Z-0.2973 I0.0014 J-0.0089
X2.6525 Y2.7877 Z-0.2983 I-0.0014 J0.0089
X2.6552 Y2.7699 Z-0.2992 I0.0014 J-0.0089
X2.6525 Y2.7877 Z-0.3002 I-0.0014 J0.0089
X2.6552 Y2.7699 Z-0.3012 I0.0014 J-0.0089
X2.6525 Y2.7877 Z-0.3022 I-0.0014 J0.0089
X2.6552 Y2.7699 Z-0.3032 I0.0014 J-0.0089
X2.6525 Y2.7877 Z-0.3042 I-0.0014 J0.0089
X2.6552 Y2.7699 Z-0.3052 I0.0014 J-0.0089
X2.6525 Y2.7877 Z-0.3062 I-0.0014 J0.0089
X2.6552 Y2.7699 Z-0.3071 I0.0014 J-0.0089
X2.6525 Y2.7877 Z-0.3081 I-0.0014 J0.0089
X2.6552 Y2.7699 Z-0.3091 I0.0014 J-0.0089
X2.6525 Y2.7877 Z-0.3101 I-0.0014 J0.0089
X2.6552 Y2.7699 Z-0.3111 I0.0014 J-0.0089
X2.6525 Y2.7877 Z-0.3121 I-0.0014 J0.0089
X2.6552 Y2.7699 Z-0.3131 I0.0014 J-0.0089
X2.6525 Y2.7877 Z-0.3141 I-0.0014 J0.0089
X2.6552 Y2.7699 Z-0.315 I0.0014 J-0.0089
X2.6525 Y2.7877 Z-0.316 I-0.0014 J0.0089
X2.6552 Y2.7699 Z-0.317 I0.0014 J-0.0089
X2.6525 Y2.7877 Z-0.318 I-0.0014 J0.0089
X2.6552 Y2.7699 Z-0.319 I0.0014 J-0.0089
X2.6626 Y2.7805 Z-0.3195 I-0.0014 J0.0089
X2.6518 Y2.7876 Z-0.32 I-0.0088 J-0.0017
X2.6558 Y2.77 I0.002 J-0.0088 F40.
X2.6518 Y2.7876 I-0.002 J0.0088
X2.6558 Y2.77 Z-0.321 I0.002 J-0.0088 F20.
X2.6518 Y2.7876 Z-0.322 I-0.002 J0.0088
X2.6558 Y2.77 Z-0.323 I0.002 J-0.0088
X2.6518 Y2.7876 Z-0.3239 I-0.002 J0.0088
X2.6558 Y2.77 Z-0.3249 I0.002 J-0.0088
X2.6518 Y2.7876 Z-0.3259 I-0.002 J0.0088
X2.6558 Y2.77 Z-0.3269 I0.002 J-0.0088
X2.6518 Y2.7876 Z-0.3279 I-0.002 J0.0088
X2.6558 Y2.77 Z-0.3289 I0.002 J-0.0088
X2.6518 Y2.7876 Z-0.3299 I-0.002 J0.0088
X2.6558 Y2.77 Z-0.3309 I0.002 J-0.0088
X2.6518 Y2.7876 Z-0.3318 I-0.002 J0.0088
X2.6558 Y2.77 Z-0.3328 I0.002 J-0.0088
X2.6518 Y2.7876 Z-0.3338 I-0.002 J0.0088
X2.6558 Y2.77 Z-0.3348 I0.002 J-0.0088
X2.6518 Y2.7876 Z-0.3358 I-0.002 J0.0088
X2.6558 Y2.77 Z-0.3368 I0.002 J-0.0088
X2.6518 Y2.7876 Z-0.3378 I-0.002 J0.0088
X2.6558 Y2.77 Z-0.3388 I0.002 J-0.0088
X2.6518 Y2.7876 Z-0.3397 I-0.002 J0.0088
X2.6558 Y2.77 Z-0.3407 I0.002 J-0.0088
X2.6518 Y2.7876 Z-0.3417 I-0.002 J0.0088
X2.6558 Y2.77 Z-0.3427 I0.002 J-0.0088
X2.6518 Y2.7876 Z-0.3437 I-0.002 J0.0088
X2.6558 Y2.77 Z-0.3447 I0.002 J-0.0088
X2.6518 Y2.7876 Z-0.3457 I-0.002 J0.0088
X2.6558 Y2.77 Z-0.3467 I0.002 J-0.0088
X2.6518 Y2.7876 Z-0.3476 I-0.002 J0.0088
X2.6558 Y2.77 Z-0.3486 I0.002 J-0.0088
X2.6518 Y2.7876 Z-0.3496 I-0.002 J0.0088
X2.6558 Y2.77 Z-0.3506 I0.002 J-0.0088
X2.6518 Y2.7876 Z-0.3516 I-0.002 J0.0088
X2.6523 Y2.7699 Z-0.3525 I0.002 J-0.0088
X2.6553 Y2.7877 I0.0015 J0.0089 F40.
X2.6523 Y2.7699 I-0.0015 J-0.0089
G1 X2.6538 Y2.7698 Z-0.3524
X2.6555 Y2.77 Z-0.3517
X2.6572 Y2.7705 Z-0.351
X2.6588 Y2.7713 Z-0.3504
X2.6602 Y2.7725 Z-0.3482
X2.6614 Y2.7739 Z-0.3461
X2.662 Y2.7751 Z-0.3407
G0 Z0.2
X2.7163 Y1.8761
G1 Z0.1118 F40.
X2.7166 Y1.8755 Z0.1079 F20.
X2.7172 Y1.8747 Z0.1061
X2.7179 Y1.874 Z0.1044
X2.719 Y1.8734 Z0.1033
X2.7203 Y1.8731 Z0.1023
X2.7216 Z0.1012
X2.7231 Y1.8735 Z0.1008
X2.7244 Y1.8745 Z0.1004
X2.7254 Y1.8758 Z0.1
G3 X2.7164 Y1.8803 Z0.0995 I-0.0045 J0.0022
X2.7254 Y1.8758 Z0.0989 I0.0045 J-0.0022
X2.7164 Y1.8803 Z0.0984 I-0.0045 J0.0022
X2.7254 Y1.8758 Z0.0978 I0.0045 J-0.0022
X2.7164 Y1.8803 Z0.0973 I-0.0045 J0.0022
X2.7254 Y1.8758 Z0.0967 I0.0045 J-0.0022
X2.7164 Y1.8803 Z0.0962 I-0.0045 J0.0022
X2.7254 Y1.8758 Z0.0956 I0.0045 J-0.0022
X2.7164 Y1.8803 Z0.0951 I-0.0045 J0.0022
X2.7254 Y1.8758 Z0.0945 I0.0045 J-0.0022
X2.7164 Y1.8803 Z0.094 I-0.0045 J0.0022
X2.7254 Y1.8758 Z0.0934 I0.0045 J-0.0022
X2.7164 Y1.8803 Z0.0929 I-0.0045 J0.0022
X2.7254 Y1.8758 Z0.0923 I0.0045 J-0.0022
X2.7164 Y1.8803 Z0.0918 I-0.0045 J0.0022
X2.7254 Y1.8758 Z0.0912 I0.0045 J-0.0022
X2.7164 Y1.8803 Z0.0907 I-0.0045 J0.0022
X2.7254 Y1.8758 Z0.0901 I0.0045 J-0.0022
X2.7164 Y1.8803 Z0.0896 I-0.0045 J0.0022
X2.7254 Y1.8758 Z0.089 I0.0045 J-0.0022
X2.7164 Y1.8803 Z0.0885 I-0.0045 J0.0022
X2.7254 Y1.8758 Z0.0879 I0.0045 J-0.0022
X2.7164 Y1.8803 Z0.0874 I-0.0045 J0.0022
X2.7254 Y1.8758 Z0.0868 I0.0045 J-0.0022
X2.7164 Y1.8803 Z0.0863 I-0.0045 J0.0022
X2.7254 Y1.8758 Z0.0857 I0.0045 J-0.0022
X2.7164 Y1.8803 Z0.0852 I-0.0045 J0.0022
X2.7254 Y1.8758 Z0.0846 I0.0045 J-0.0022
X2.7164 Y1.8803 Z0.0841 I-0.0045 J0.0022
X2.7254 Y1.8758 Z0.0835 I0.0045 J-0.0022
X2.7164 Y1.8803 Z0.083 I-0.0045 J0.0022
X2.7254 Y1.8758 Z0.0824 I0.0045 J-0.0022
X2.7164 Y1.8803 Z0.0819 I-0.0045 J0.0022
X2.7254 Y1.8758 Z0.0813 I0.0045 J-0.0022
X2.7164 Y1.8803 Z0.0808 I-0.0045 J0.0022
X2.7254 Y1.8758 Z0.0803 I0.0045 J-0.0022
X2.7164 Y1.8803 Z0.0797 I-0.0045 J0.0022
X2.7254 Y1.8758 Z0.0792 I0.0045 J-0.0022
X2.7164 Y1.8803 Z0.0786 I-0.0045 J0.0022
X2.7254 Y1.8758 Z0.0781 I0.0045 J-0.0022
X2.7164 Y1.8803 Z0.0775 I-0.0045 J0.0022
X2.7254 Y1.8758 Z0.077 I0.0045 J-0.0022
X2.7164 Y1.8803 Z0.0764 I-0.0045 J0.0022
X2.7254 Y1.8758 Z0.0759 I0.0045 J-0.0022
X2.7164 Y1.8803 Z0.0753 I-0.0045 J0.0022
X2.7254 Y1.8758 Z0.0748 I0.0045 J-0.0022
X2.7164 Y1.8803 Z0.0742 I-0.0045 J0.0022
X2.7254 Y1.8758 Z0.0737 I0.0045 J-0.0022
X2.7164 Y1.8803 Z0.0731 I-0.0045 J0.0022
X2.7254 Y1.8758 Z0.0726 I0.0045 J-0.0022
X2.7164 Y1.8803 Z0.072 I-0.0045 J0.0022
X2.7254 Y1.8758 Z0.0715 I0.0045 J-0.0022
X2.7164 Y1.8803 Z0.0709 I-0.0045 J0.0022
X2.7254 Y1.8758 Z0.0704 I0.0045 J-0.0022
X2.7164 Y1.8803 Z0.0698 I-0.0045 J0.0022
X2.7254 Y1.8758 Z0.0693 I0.0045 J-0.0022
X2.7164 Y1.8803 Z0.0687 I-0.0045 J0.0022
X2.7254 Y1.8758 Z0.0682 I0.0045 J-0.0022
X2.7164 Y1.8803 Z0.0676 I-0.0045 J0.0022
X2.7254 Y1.8758 Z0.0671 I0.0045 J-0.0022
X2.7164 Y1.8803 Z0.0665 I-0.0045 J0.0022
X2.7254 Y1.8758 Z0.066 I0.0045 J-0.0022
X2.7164 Y1.8803 Z0.0654 I-0.0045 J0.0022
X2.7254 Y1.8758 Z0.0649 I0.0045 J-0.0022
X2.7164 Y1.8803 Z0.0643 I-0.0045 J0.0022
X2.7254 Y1.8758 Z0.0638 I0.0045 J-0.0022
X2.7164 Y1.8803 Z0.0632 I-0.0045 J0.0022
X2.7254 Y1.8758 Z0.0627 I0.0045 J-0.0022
X2.7164 Y1.8803 Z0.0622 I-0.0045 J0.0022
X2.7254 Y1.8758 Z0.0616 I0.0045 J-0.0022
X2.7164 Y1.8803 Z0.0611 I-0.0045 J0.0022
X2.7254 Y1.8758 Z0.0605 I0.0045 J-0.0022
X2.7164 Y1.8803 Z0.06 I-0.0045 J0.0022
X2.7254 Y1.8758 Z0.0594 I0.0045 J-0.0022
X2.7164 Y1.8803 Z0.0589 I-0.0045 J0.0022
X2.7254 Y1.8758 Z0.0583 I0.0045 J-0.0022
X2.7164 Y1.8803 Z0.0578 I-0.0045 J0.0022
X2.7254 Y1.8758 Z0.0572 I0.0045 J-0.0022
X2.7164 Y1.8803 Z0.0567 I-0.0045 J0.0022
X2.7254 Y1.8758 Z0.0561 I0.0045 J-0.0022
X2.7164 Y1.8803 Z0.0556 I-0.0045 J0.0022
X2.7254 Y1.8758 Z0.055 I0.0045 J-0.0022
X2.7164 Y1.8803 Z0.0545 I-0.0045 J0.0022
X2.7254 Y1.8758 Z0.0539 I0.0045 J-0.0022
X2.7164 Y1.8803 Z0.0534 I-0.0045 J0.0022
X2.7254 Y1.8758 Z0.0528 I0.0045 J-0.0022
X2.7164 Y1.8803 Z0.0523 I-0.0045 J0.0022
X2.7254 Y1.8758 Z0.0517 I0.0045 J-0.0022
X2.7164 Y1.8803 Z0.0512 I-0.0045 J0.0022
X2.7254 Y1.8758 Z0.0506 I0.0045 J-0.0022
X2.7164 Y1.8803 Z0.0501 I-0.0045 J0.0022
X2.7254 Y1.8758 Z0.0495 I0.0045 J-0.0022
X2.7164 Y1.8803 Z0.049 I-0.0045 J0.0022
X2.7254 Y1.8758 Z0.0484 I0.0045 J-0.0022
X2.7164 Y1.8803 Z0.0479 I-0.0045 J0.0022
X2.7254 Y1.8758 Z0.0473 I0.0045 J-0.0022
X2.7164 Y1.8803 Z0.0468 I-0.0045 J0.0022
X2.7254 Y1.8758 Z0.0462 I0.0045 J-0.0022
X2.7164 Y1.8803 Z0.0457 I-0.0045 J0.0022
X2.7254 Y1.8758 Z0.0451 I0.0045 J-0.0022
X2.7164 Y1.8803 Z0.0446 I-0.0045 J0.0022
X2.7254 Y1.8758 Z0.044 I0.0045 J-0.0022
X2.7164 Y1.8803 Z0.0435 I-0.0045 J0.0022
X2.7254 Y1.8758 Z0.043 I0.0045 J-0.0022
X2.7164 Y1.8803 Z0.0424 I-0.0045 J0.0022
X2.7254 Y1.8758 Z0.0419 I0.0045 J-0.0022
X2.7164 Y1.8803 Z0.0413 I-0.0045 J0.0022
X2.7254 Y1.8758 Z0.0408 I0.0045 J-0.0022
X2.7164 Y1.8803 Z0.0402 I-0.0045 J0.0022
X2.7254 Y1.8758 Z0.0397 I0.0045 J-0.0022
X2.7164 Y1.8803 Z0.0391 I-0.0045 J0.0022
X2.7254 Y1.8758 Z0.0386 I0.0045 J-0.0022
X2.7164 Y1.8803 Z0.038 I-0.0045 J0.0022
X2.7254 Y1.8758 Z0.0375 I0.0045 J-0.0022
X2.7164 Y1.8803 Z0.0369 I-0.0045 J0.0022
X2.7254 Y1.8758 Z0.0364 I0.0045 J-0.0022
X2.7164 Y1.8803 Z0.0358 I-0.0045 J0.0022
X2.7254 Y1.8758 Z0.0353 I0.0045 J-0.0022
X2.7164 Y1.8803 Z0.0347 I-0.0045 J0.0022
X2.7254 Y1.8758 Z0.0342 I0.0045 J-0.0022
X2.7164 Y1.8803 Z0.0336 I-0.0045 J0.0022
X2.7254 Y1.8758 Z0.0331 I0.0045 J-0.0022
X2.7164 Y1.8803 Z0.0325 I-0.0045 J0.0022
X2.7254 Y1.8758 Z0.032 I0.0045 J-0.0022
X2.7164 Y1.8803 Z0.0314 I-0.0045 J0.0022
X2.7254 Y1.8758 Z0.0309 I0.0045 J-0.0022
X2.7164 Y1.8803 Z0.0303 I-0.0045 J0.0022
X2.7254 Y1.8758 Z0.0298 I0.0045 J-0.0022
X2.7164 Y1.8803 Z0.0292 I-0.0045 J0.0022
X2.7254 Y1.8758 Z0.0287 I0.0045 J-0.0022
X2.7164 Y1.8803 Z0.0281 I-0.0045 J0.0022
X2.7254 Y1.8758 Z0.0276 I0.0045 J-0.0022
X2.7164 Y1.8803 Z0.027 I-0.0045 J0.0022
X2.7254 Y1.8758 Z0.0265 I0.0045 J-0.0022
X2.7164 Y1.8803 Z0.0259 I-0.0045 J0.0022
X2.7254 Y1.8758 Z0.0254 I0.0045 J-0.0022
X2.7164 Y1.8803 Z0.0249 I-0.0045 J0.0022
X2.7254 Y1.8758 Z0.0243 I0.0045 J-0.0022
X2.7164 Y1.8803 Z0.0238 I-0.0045 J0.0022
X2.7254 Y1.8758 Z0.0232 I0.0045 J-0.0022
X2.7164 Y1.8803 Z0.0227 I-0.0045 J0.0022
X2.7254 Y1.8758 Z0.0221 I0.0045 J-0.0022
X2.7164 Y1.8803 Z0.0216 I-0.0045 J0.0022
X2.7254 Y1.8758 Z0.021 I0.0045 J-0.0022
X2.7164 Y1.8803 Z0.0205 I-0.0045 J0.0022
X2.7254 Y1.8758 Z0.0199 I0.0045 J-0.0022
X2.7164 Y1.8803 Z0.0194 I-0.0045 J0.0022
X2.7254 Y1.8758 Z0.0188 I0.0045 J-0.0022
X2.7164 Y1.8803 Z0.0183 I-0.0045 J0.0022
X2.7254 Y1.8758 Z0.0177 I0.0045 J-0.0022
X2.7164 Y1.8803 Z0.0172 I-0.0045 J0.0022
X2.7254 Y1.8758 Z0.0166 I0.0045 J-0.0022
X2.7164 Y1.8803 Z0.0161 I-0.0045 J0.0022
X2.7254 Y1.8758 Z0.0155 I0.0045 J-0.0022
X2.7164 Y1.8803 Z0.015 I-0.0045 J0.0022
X2.7254 Y1.8758 Z0.0144 I0.0045 J-0.0022
X2.7164 Y1.8803 Z0.0139 I-0.0045 J0.0022
X2.7254 Y1.8758 Z0.0133 I0.0045 J-0.0022
X2.7164 Y1.8803 Z0.0128 I-0.0045 J0.0022
X2.7254 Y1.8758 Z0.0122 I0.0045 J-0.0022
X2.7164 Y1.8803 Z0.0117 I-0.0045 J0.0022
X2.7254 Y1.8758 Z0.0111 I0.0045 J-0.0022
X2.7164 Y1.8803 Z0.0106 I-0.0045 J0.0022
X2.7254 Y1.8758 Z0.01 I0.0045 J-0.0022
X2.7164 Y1.8803 Z0.0095 I-0.0045 J0.0022
X2.7254 Y1.8758 Z0.0089 I0.0045 J-0.0022
X2.7164 Y1.8803 Z0.0084 I-0.0045 J0.0022
X2.7254 Y1.8758 Z0.0078 I0.0045 J-0.0022
X2.7164 Y1.8803 Z0.0073 I-0.0045 J0.0022
X2.7254 Y1.8758 Z0.0067 I0.0045 J-0.0022
X2.7164 Y1.8803 Z0.0062 I-0.0045 J0.0022
X2.7254 Y1.8758 Z0.0057 I0.0045 J-0.0022
X2.7164 Y1.8803 Z0.0051 I-0.0045 J0.0022
X2.7254 Y1.8758 Z0.0046 I0.0045 J-0.0022
X2.7164 Y1.8803 Z0.004 I-0.0045 J0.0022
X2.7254 Y1.8758 Z0.0035 I0.0045 J-0.0022
X2.7164 Y1.8803 Z0.0029 I-0.0045 J0.0022
X2.7254 Y1.8758 Z0.0024 I0.0045 J-0.0022
X2.7164 Y1.8803 Z0.0018 I-0.0045 J0.0022
X2.7254 Y1.8758 Z0.0013 I0.0045 J-0.0022
X2.7164 Y1.8803 Z0.0007 I-0.0045 J0.0022
X2.7254 Y1.8758 Z0.0002 I0.0045 J-0.0022
X2.7164 Y1.8803 Z-0.0004 I-0.0045 J0.0022
X2.7254 Y1.8758 Z-0.0009 I0.0045 J-0.0022
X2.7164 Y1.8803 Z-0.0015 I-0.0045 J0.0022
X2.7254 Y1.8758 Z-0.002 I0.0045 J-0.0022
X2.7164 Y1.8803 Z-0.0026 I-0.0045 J0.0022
X2.7254 Y1.8758 Z-0.0031 I0.0045 J-0.0022
X2.7164 Y1.8803 Z-0.0037 I-0.0045 J0.0022
X2.7254 Y1.8758 Z-0.0042 I0.0045 J-0.0022
X2.7164 Y1.8803 Z-0.0048 I-0.0045 J0.0022
X2.7254 Y1.8758 Z-0.0053 I0.0045 J-0.0022
X2.7164 Y1.8803 Z-0.0059 I-0.0045 J0.0022
X2.7254 Y1.8758 Z-0.0064 I0.0045 J-0.0022
X2.7164 Y1.8803 Z-0.007 I-0.0045 J0.0022
X2.7254 Y1.8758 Z-0.0075 I0.0045 J-0.0022
X2.7164 Y1.8803 Z-0.0081 I-0.0045 J0.0022
X2.7254 Y1.8758 Z-0.0086 I0.0045 J-0.0022
X2.7164 Y1.8803 Z-0.0092 I-0.0045 J0.0022
X2.7254 Y1.8758 Z-0.0097 I0.0045 J-0.0022
X2.7164 Y1.8803 Z-0.0103 I-0.0045 J0.0022
X2.7254 Y1.8758 Z-0.0108 I0.0045 J-0.0022
X2.7164 Y1.8803 Z-0.0114 I-0.0045 J0.0022
X2.7254 Y1.8758 Z-0.0119 I0.0045 J-0.0022
X2.7164 Y1.8803 Z-0.0124 I-0.0045 J0.0022
X2.7254 Y1.8758 Z-0.013 I0.0045 J-0.0022
X2.7164 Y1.8803 Z-0.0135 I-0.0045 J0.0022
X2.7254 Y1.8758 Z-0.0141 I0.0045 J-0.0022
X2.7164 Y1.8803 Z-0.0146 I-0.0045 J0.0022
X2.7254 Y1.8758 Z-0.0152 I0.0045 J-0.0022
X2.7164 Y1.8803 Z-0.0157 I-0.0045 J0.0022
X2.7254 Y1.8758 Z-0.0163 I0.0045 J-0.0022
X2.7164 Y1.8803 Z-0.0168 I-0.0045 J0.0022
X2.7254 Y1.8758 Z-0.0174 I0.0045 J-0.0022
X2.7164 Y1.8803 Z-0.0179 I-0.0045 J0.0022
X2.7254 Y1.8758 Z-0.0185 I0.0045 J-0.0022
X2.7164 Y1.8803 Z-0.019 I-0.0045 J0.0022
X2.7254 Y1.8758 Z-0.0196 I0.0045 J-0.0022
X2.7164 Y1.8803 Z-0.0201 I-0.0045 J0.0022
X2.7254 Y1.8758 Z-0.0207 I0.0045 J-0.0022
X2.7164 Y1.8803 Z-0.0212 I-0.0045 J0.0022
X2.7254 Y1.8758 Z-0.0218 I0.0045 J-0.0022
X2.7164 Y1.8803 Z-0.0223 I-0.0045 J0.0022
X2.7254 Y1.8758 Z-0.0229 I0.0045 J-0.0022
X2.7164 Y1.8803 Z-0.0234 I-0.0045 J0.0022
X2.7254 Y1.8758 Z-0.024 I0.0045 J-0.0022
X2.7164 Y1.8803 Z-0.0245 I-0.0045 J0.0022
X2.7254 Y1.8758 Z-0.0251 I0.0045 J-0.0022
X2.7164 Y1.8803 Z-0.0256 I-0.0045 J0.0022
X2.7254 Y1.8758 Z-0.0262 I0.0045 J-0.0022
X2.7164 Y1.8803 Z-0.0267 I-0.0045 J0.0022
X2.7254 Y1.8758 Z-0.0273 I0.0045 J-0.0022
X2.7164 Y1.8803 Z-0.0278 I-0.0045 J0.0022
X2.7254 Y1.8758 Z-0.0284 I0.0045 J-0.0022
X2.7164 Y1.8803 Z-0.0289 I-0.0045 J0.0022
X2.7254 Y1.8758 Z-0.0295 I0.0045 J-0.0022
X2.7164 Y1.8803 Z-0.03 I-0.0045 J0.0022
X2.7254 Y1.8758 Z-0.0306 I0.0045 J-0.0022
X2.7164 Y1.8803 Z-0.0311 I-0.0045 J0.0022
X2.7254 Y1.8758 Z-0.0316 I0.0045 J-0.0022
X2.7164 Y1.8803 Z-0.0322 I-0.0045 J0.0022
X2.7254 Y1.8758 Z-0.0327 I0.0045 J-0.0022
X2.7164 Y1.8803 Z-0.0333 I-0.0045 J0.0022
X2.7254 Y1.8758 Z-0.0338 I0.0045 J-0.0022
X2.7164 Y1.8803 Z-0.0344 I-0.0045 J0.0022
X2.7254 Y1.8758 Z-0.0349 I0.0045 J-0.0022
X2.7164 Y1.8803 Z-0.0355 I-0.0045 J0.0022
X2.7254 Y1.8758 Z-0.036 I0.0045 J-0.0022
X2.7164 Y1.8803 Z-0.0366 I-0.0045 J0.0022
X2.7254 Y1.8758 Z-0.0371 I0.0045 J-0.0022
X2.7164 Y1.8803 Z-0.0377 I-0.0045 J0.0022
X2.7254 Y1.8758 Z-0.0382 I0.0045 J-0.0022
X2.7164 Y1.8803 Z-0.0388 I-0.0045 J0.0022
X2.7254 Y1.8758 Z-0.0393 I0.0045 J-0.0022
X2.7164 Y1.8803 Z-0.0399 I-0.0045 J0.0022
X2.7254 Y1.8758 Z-0.0404 I0.0045 J-0.0022
X2.7164 Y1.8803 Z-0.041 I-0.0045 J0.0022
X2.7254 Y1.8758 Z-0.0415 I0.0045 J-0.0022
X2.7164 Y1.8803 Z-0.0421 I-0.0045 J0.0022
X2.7254 Y1.8758 Z-0.0426 I0.0045 J-0.0022
X2.7164 Y1.8803 Z-0.0432 I-0.0045 J0.0022
X2.7254 Y1.8758 Z-0.0437 I0.0045 J-0.0022
X2.7164 Y1.8803 Z-0.0443 I-0.0045 J0.0022
X2.7254 Y1.8758 Z-0.0448 I0.0045 J-0.0022
X2.7164 Y1.8803 Z-0.0454 I-0.0045 J0.0022
X2.7254 Y1.8758 Z-0.0459 I0.0045 J-0.0022
X2.7164 Y1.8803 Z-0.0465 I-0.0045 J0.0022
X2.7254 Y1.8758 Z-0.047 I0.0045 J-0.0022
X2.7164 Y1.8803 Z-0.0476 I-0.0045 J0.0022
X2.7254 Y1.8758 Z-0.0481 I0.0045 J-0.0022
X2.7164 Y1.8803 Z-0.0487 I-0.0045 J0.0022
X2.7254 Y1.8758 Z-0.0492 I0.0045 J-0.0022
X2.7164 Y1.8803 Z-0.0497 I-0.0045 J0.0022
X2.7254 Y1.8758 Z-0.0503 I0.0045 J-0.0022
X2.7164 Y1.8803 Z-0.0508 I-0.0045 J0.0022
X2.7254 Y1.8758 Z-0.0514 I0.0045 J-0.0022
X2.7164 Y1.8803 Z-0.0519 I-0.0045 J0.0022
X2.7254 Y1.8758 Z-0.0525 I0.0045 J-0.0022
X2.7164 Y1.8803 Z-0.053 I-0.0045 J0.0022
X2.7254 Y1.8758 Z-0.0536 I0.0045 J-0.0022
X2.7164 Y1.8803 Z-0.0541 I-0.0045 J0.0022
X2.7254 Y1.8758 Z-0.0547 I0.0045 J-0.0022
X2.7164 Y1.8803 Z-0.0552 I-0.0045 J0.0022
X2.7254 Y1.8758 Z-0.0558 I0.0045 J-0.0022
X2.7164 Y1.8803 Z-0.0563 I-0.0045 J0.0022
X2.7254 Y1.8758 Z-0.0569 I0.0045 J-0.0022
X2.7164 Y1.8803 Z-0.0574 I-0.0045 J0.0022
X2.7254 Y1.8758 Z-0.058 I0.0045 J-0.0022
X2.7164 Y1.8803 Z-0.0585 I-0.0045 J0.0022
X2.7254 Y1.8758 Z-0.0591 I0.0045 J-0.0022
X2.7164 Y1.8803 Z-0.0596 I-0.0045 J0.0022
X2.7254 Y1.8758 Z-0.0602 I0.0045 J-0.0022
X2.7164 Y1.8803 Z-0.0607 I-0.0045 J0.0022
X2.7254 Y1.8758 Z-0.0613 I0.0045 J-0.0022
X2.7164 Y1.8803 Z-0.0618 I-0.0045 J0.0022
X2.7254 Y1.8758 Z-0.0624 I0.0045 J-0.0022
X2.7164 Y1.8803 Z-0.0629 I-0.0045 J0.0022
X2.7254 Y1.8758 Z-0.0635 I0.0045 J-0.0022
X2.7164 Y1.8803 Z-0.064 I-0.0045 J0.0022
X2.7254 Y1.8758 Z-0.0646 I0.0045 J-0.0022
X2.7164 Y1.8803 Z-0.0651 I-0.0045 J0.0022
X2.7254 Y1.8758 Z-0.0657 I0.0045 J-0.0022
X2.7164 Y1.8803 Z-0.0662 I-0.0045 J0.0022
X2.7254 Y1.8758 Z-0.0668 I0.0045 J-0.0022
X2.7164 Y1.8803 Z-0.0673 I-0.0045 J0.0022
X2.7254 Y1.8758 Z-0.0679 I0.0045 J-0.0022
X2.7164 Y1.8803 Z-0.0684 I-0.0045 J0.0022
X2.7254 Y1.8758 Z-0.0689 I0.0045 J-0.0022
X2.7164 Y1.8803 Z-0.0695 I-0.0045 J0.0022
X2.7254 Y1.8758 Z-0.07 I0.0045 J-0.0022
X2.7164 Y1.8803 Z-0.0706 I-0.0045 J0.0022
X2.7254 Y1.8758 Z-0.0711 I0.0045 J-0.0022
X2.7164 Y1.8803 Z-0.0717 I-0.0045 J0.0022
X2.7254 Y1.8758 Z-0.0722 I0.0045 J-0.0022
X2.7164 Y1.8803 Z-0.0728 I-0.0045 J0.0022
X2.7254 Y1.8758 Z-0.0733 I0.0045 J-0.0022
X2.7164 Y1.8803 Z-0.0739 I-0.0045 J0.0022
X2.7254 Y1.8758 Z-0.0744 I0.0045 J-0.0022
X2.7164 Y1.8803 Z-0.075 I-0.0045 J0.0022
X2.7254 Y1.8758 Z-0.0755 I0.0045 J-0.0022
X2.7164 Y1.8803 Z-0.0761 I-0.0045 J0.0022
X2.7254 Y1.8758 Z-0.0766 I0.0045 J-0.0022
X2.7164 Y1.8803 Z-0.0772 I-0.0045 J0.0022
X2.7254 Y1.8758 Z-0.0777 I0.0045 J-0.0022
X2.7164 Y1.8803 Z-0.0783 I-0.0045 J0.0022
X2.7254 Y1.8758 Z-0.0788 I0.0045 J-0.0022
X2.7164 Y1.8803 Z-0.0794 I-0.0045 J0.0022
X2.7254 Y1.8758 Z-0.0799 I0.0045 J-0.0022
X2.7259 Y1.878 Z-0.08 I-0.0045 J0.0022
X2.7079 I-0.009 J0. F40.
X2.7259 I0.009 J0.
X2.7079 Z-0.081 I-0.009 J0. F20.
X2.7259 Z-0.082 I0.009 J0.
X2.7079 Z-0.083 I-0.009 J0.
X2.7259 Z-0.0839 I0.009 J0.
X2.7079 Z-0.0849 I-0.009 J0.
X2.7259 Z-0.0859 I0.009 J0.
X2.7079 Z-0.0869 I-0.009 J0.
X2.7259 Z-0.0879 I0.009 J0.
X2.7079 Z-0.0889 I-0.009 J0.
X2.7259 Z-0.0899 I0.009 J0.
X2.7079 Z-0.0909 I-0.009 J0.
X2.7259 Z-0.0918 I0.009 J0.
X2.7079 Z-0.0928 I-0.009 J0.
X2.7259 Z-0.0938 I0.009 J0.
X2.7079 Z-0.0948 I-0.009 J0.
X2.7259 Z-0.0958 I0.009 J0.
X2.7079 Z-0.0968 I-0.009 J0.
X2.7259 Z-0.0978 I0.009 J0.
X2.7079 Z-0.0988 I-0.009 J0.
X2.7259 Z-0.0997 I0.009 J0.
X2.7079 Z-0.1007 I-0.009 J0.
X2.7259 Z-0.1017 I0.009 J0.
X2.7079 Z-0.1027 I-0.009 J0.
X2.7259 Z-0.1037 I0.009 J0.
X2.7079 Z-0.1047 I-0.009 J0.
X2.7259 Z-0.1057 I0.009 J0.
X2.7079 Z-0.1067 I-0.009 J0.
X2.7259 Z-0.1076 I0.009 J0.
X2.7079 Z-0.1086 I-0.009 J0.
X2.7259 Z-0.1096 I0.009 J0.
X2.7079 Z-0.1106 I-0.009 J0.
X2.7259 Z-0.1116 I0.009 J0.
X2.7079 Z-0.1126 I-0.009 J0.
X2.7259 Z-0.1136 I0.009 J0.
X2.7079 Z-0.1146 I-0.009 J0.
X2.7259 Z-0.1155 I0.009 J0.
X2.7079 Z-0.1165 I-0.009 J0.
X2.7259 Z-0.1175 I0.009 J0.
X2.7079 Z-0.1185 I-0.009 J0.
X2.7259 Z-0.1195 I0.009 J0.
X2.7079 Z-0.1205 I-0.009 J0.
X2.7259 Z-0.1215 I0.009 J0.
X2.7079 Z-0.1225 I-0.009 J0.
X2.7259 Z-0.1234 I0.009 J0.
X2.7079 Z-0.1244 I-0.009 J0.
X2.7259 Z-0.1254 I0.009 J0.
X2.7079 Z-0.1264 I-0.009 J0.
X2.7259 Z-0.1274 I0.009 J0.
X2.7079 Z-0.1284 I-0.009 J0.
X2.7259 Z-0.1294 I0.009 J0.
X2.7079 Z-0.1304 I-0.009 J0.
X2.7259 Z-0.1313 I0.009 J0.
X2.7079 Z-0.1323 I-0.009 J0.
X2.7259 Z-0.1333 I0.009 J0.
X2.7079 Z-0.1343 I-0.009 J0.
X2.7259 Z-0.1353 I0.009 J0.
X2.7079 Z-0.1363 I-0.009 J0.
X2.7259 Z-0.1373 I0.009 J0.
X2.7079 Z-0.1383 I-0.009 J0.
X2.7259 Z-0.1392 I0.009 J0.
X2.7079 Z-0.1402 I-0.009 J0.
X2.7259 Z-0.1412 I0.009 J0.
X2.7079 Z-0.1422 I-0.009 J0.
X2.7259 Z-0.1432 I0.009 J0.
X2.7079 Z-0.1442 I-0.009 J0.
X2.7259 Z-0.1452 I0.009 J0.
X2.7079 Z-0.1462 I-0.009 J0.
X2.7259 Z-0.1471 I0.009 J0.
X2.7079 Z-0.1481 I-0.009 J0.
X2.7259 Z-0.1491 I0.009 J0.
X2.7079 Z-0.1501 I-0.009 J0.
X2.7259 Z-0.1511 I0.009 J0.
X2.7079 Z-0.1521 I-0.009 J0.
X2.7259 Z-0.1531 I0.009 J0.
X2.7079 Z-0.1541 I-0.009 J0.
X2.7259 Z-0.155 I0.009 J0.
X2.7079 Z-0.156 I-0.009 J0.
X2.7259 Z-0.157 I0.009 J0.
X2.7079 Z-0.158 I-0.009 J0.
X2.7259 Z-0.159 I0.009 J0.
X2.7166 Y1.887 Z-0.1595 I-0.009 J0.
X2.7079 Y1.8773 Z-0.16 I0.0003 J-0.009
X2.7259 Y1.8787 I0.009 J0.0007 F40.
X2.7079 Y1.8773 I-0.009 J-0.0007
X2.7259 Y1.8787 Z-0.161 I0.009 J0.0007 F20.
X2.7079 Y1.8773 Z-0.162 I-0.009 J-0.0007
X2.7259 Y1.8787 Z-0.163 I0.009 J0.0007
X2.7079 Y1.8773 Z-0.1639 I-0.009 J-0.0007
X2.7259 Y1.8787 Z-0.1649 I0.009 J0.0007
X2.7079 Y1.8773 Z-0.1659 I-0.009 J-0.0007
X2.7259 Y1.8787 Z-0.1669 I0.009 J0.0007
X2.7079 Y1.8773 Z-0.1679 I-0.009 J-0.0007
X2.7259 Y1.8787 Z-0.1689 I0.009 J0.0007
X2.7079 Y1.8773 Z-0.1699 I-0.009 J-0.0007
X2.7259 Y1.8787 Z-0.1709 I0.009 J0.0007
X2.7079 Y1.8773 Z-0.1718 I-0.009 J-0.0007
X2.7259 Y1.8787 Z-0.1728 I0.009 J0.0007
X2.7079 Y1.8773 Z-0.1738 I-0.009 J-0.0007
X2.7259 Y1.8787 Z-0.1748 I0.009 J0.0007
X2.7079 Y1.8773 Z-0.1758 I-0.009 J-0.0007
X2.7259 Y1.8787 Z-0.1768 I0.009 J0.0007
X2.7079 Y1.8773 Z-0.1778 I-0.009 J-0.0007
X2.7259 Y1.8787 Z-0.1788 I0.009 J0.0007
X2.7079 Y1.8773 Z-0.1797 I-0.009 J-0.0007
X2.7259 Y1.8787 Z-0.1807 I0.009 J0.0007
X2.7079 Y1.8773 Z-0.1817 I-0.009 J-0.0007
X2.7259 Y1.8787 Z-0.1827 I0.009 J0.0007
X2.7079 Y1.8773 Z-0.1837 I-0.009 J-0.0007
X2.7259 Y1.8787 Z-0.1847 I0.009 J0.0007
X2.7079 Y1.8773 Z-0.1857 I-0.009 J-0.0007
X2.7259 Y1.8787 Z-0.1867 I0.009 J0.0007
X2.7079 Y1.8773 Z-0.1876 I-0.009 J-0.0007
X2.7259 Y1.8787 Z-0.1886 I0.009 J0.0007
X2.7079 Y1.8773 Z-0.1896 I-0.009 J-0.0007
X2.7259 Y1.8787 Z-0.1906 I0.009 J0.0007
X2.7079 Y1.8773 Z-0.1916 I-0.009 J-0.0007
X2.7259 Y1.8787 Z-0.1926 I0.009 J0.0007
X2.7079 Y1.8773 Z-0.1936 I-0.009 J-0.0007
X2.7259 Y1.8787 Z-0.1946 I0.009 J0.0007
X2.7079 Y1.8773 Z-0.1955 I-0.009 J-0.0007
X2.7259 Y1.8787 Z-0.1965 I0.009 J0.0007
X2.7079 Y1.8773 Z-0.1975 I-0.009 J-0.0007
X2.7259 Y1.8787 Z-0.1985 I0.009 J0.0007
X2.7079 Y1.8773 Z-0.1995 I-0.009 J-0.0007
X2.7259 Y1.8787 Z-0.2005 I0.009 J0.0007
X2.7079 Y1.8773 Z-0.2015 I-0.009 J-0.0007
X2.7259 Y1.8787 Z-0.2025 I0.009 J0.0007
X2.7079 Y1.8773 Z-0.2034 I-0.009 J-0.0007
X2.7259 Y1.8787 Z-0.2044 I0.009 J0.0007
X2.7079 Y1.8773 Z-0.2054 I-0.009 J-0.0007
X2.7259 Y1.8787 Z-0.2064 I0.009 J0.0007
X2.7079 Y1.8773 Z-0.2074 I-0.009 J-0.0007
X2.7259 Y1.8787 Z-0.2084 I0.009 J0.0007
X2.7079 Y1.8773 Z-0.2094 I-0.009 J-0.0007
X2.7259 Y1.8787 Z-0.2104 I0.009 J0.0007
X2.7079 Y1.8773 Z-0.2113 I-0.009 J-0.0007
X2.7259 Y1.8787 Z-0.2123 I0.009 J0.0007
X2.7079 Y1.8773 Z-0.2133 I-0.009 J-0.0007
X2.7259 Y1.8787 Z-0.2143 I0.009 J0.0007
X2.7079 Y1.8773 Z-0.2153 I-0.009 J-0.0007
X2.7259 Y1.8787 Z-0.2163 I0.009 J0.0007
X2.7079 Y1.8773 Z-0.2173 I-0.009 J-0.0007
X2.7259 Y1.8787 Z-0.2183 I0.009 J0.0007
X2.7079 Y1.8773 Z-0.2192 I-0.009 J-0.0007
X2.7259 Y1.8787 Z-0.2202 I0.009 J0.0007
X2.7079 Y1.8773 Z-0.2212 I-0.009 J-0.0007
X2.7259 Y1.8787 Z-0.2222 I0.009 J0.0007
X2.7079 Y1.8773 Z-0.2232 I-0.009 J-0.0007
X2.7259 Y1.8787 Z-0.2242 I0.009 J0.0007
X2.7079 Y1.8773 Z-0.2252 I-0.009 J-0.0007
X2.7259 Y1.8787 Z-0.2262 I0.009 J0.0007
X2.7079 Y1.8773 Z-0.2271 I-0.009 J-0.0007
X2.7259 Y1.8787 Z-0.2281 I0.009 J0.0007
X2.7079 Y1.8773 Z-0.2291 I-0.009 J-0.0007
X2.7259 Y1.8787 Z-0.2301 I0.009 J0.0007
X2.7079 Y1.8773 Z-0.2311 I-0.009 J-0.0007
X2.7259 Y1.8787 Z-0.2321 I0.009 J0.0007
X2.7079 Y1.8773 Z-0.2331 I-0.009 J-0.0007
X2.7259 Y1.8787 Z-0.2341 I0.009 J0.0007
X2.7079 Y1.8773 Z-0.235 I-0.009 J-0.0007
X2.7259 Y1.8787 Z-0.236 I0.009 J0.0007
X2.7079 Y1.8773 Z-0.237 I-0.009 J-0.0007
X2.7259 Y1.8787 Z-0.238 I0.009 J0.0007
X2.7079 Y1.8773 Z-0.239 I-0.009 J-0.0007
X2.7179 Y1.8691 Z-0.2395 I0.009 J0.0007
X2.7258 Y1.8794 Z-0.24 I-0.001 J0.0089
X2.708 Y1.8767 I-0.0089 J-0.0014 F40.
X2.7258 Y1.8794 I0.0089 J0.0014
X2.708 Y1.8767 Z-0.241 I-0.0089 J-0.0014 F20.
X2.7258 Y1.8794 Z-0.242 I0.0089 J0.0014
X2.708 Y1.8767 Z-0.243 I-0.0089 J-0.0014
X2.7258 Y1.8794 Z-0.2439 I0.0089 J0.0014
X2.708 Y1.8767 Z-0.2449 I-0.0089 J-0.0014
X2.7258 Y1.8794 Z-0.2459 I0.0089 J0.0014
X2.708 Y1.8767 Z-0.2469 I-0.0089 J-0.0014
X2.7258 Y1.8794 Z-0.2479 I0.0089 J0.0014
X2.708 Y1.8767 Z-0.2489 I-0.0089 J-0.0014
X2.7258 Y1.8794 Z-0.2499 I0.0089 J0.0014
X2.708 Y1.8767 Z-0.2509 I-0.0089 J-0.0014
X2.7258 Y1.8794 Z-0.2518 I0.0089 J0.0014
X2.708 Y1.8767 Z-0.2528 I-0.0089 J-0.0014
X2.7258 Y1.8794 Z-0.2538 I0.0089 J0.0014
X2.708 Y1.8767 Z-0.2548 I-0.0089 J-0.0014
X2.7258 Y1.8794 Z-0.2558 I0.0089 J0.0014
X2.708 Y1.8767 Z-0.2568 I-0.0089 J-0.0014
X2.7258 Y1.8794 Z-0.2578 I0.0089 J0.0014
X2.708 Y1.8767 Z-0.2588 I-0.0089 J-0.0014
X2.7258 Y1.8794 Z-0.2597 I0.0089 J0.0014
X2.708 Y1.8767 Z-0.2607 I-0.0089 J-0.0014
X2.7258 Y1.8794 Z-0.2617 I0.0089 J0.0014
X2.708 Y1.8767 Z-0.2627 I-0.0089 J-0.0014
X2.7258 Y1.8794 Z-0.2637 I0.0089 J0.0014
X2.708 Y1.8767 Z-0.2647 I-0.0089 J-0.0014
X2.7258 Y1.8794 Z-0.2657 I0.0089 J0.0014
X2.708 Y1.8767 Z-0.2667 I-0.0089 J-0.0014
X2.7258 Y1.8794 Z-0.2676 I0.0089 J0.0014
X2.708 Y1.8767 Z-0.2686 I-0.0089 J-0.0014
X2.7258 Y1.8794 Z-0.2696 I0.0089 J0.0014
X2.708 Y1.8767 Z-0.2706 I-0.0089 J-0.0014
X2.7258 Y1.8794 Z-0.2716 I0.0089 J0.0014
X2.708 Y1.8767 Z-0.2726 I-0.0089 J-0.0014
X2.7258 Y1.8794 Z-0.2736 I0.0089 J0.0014
X2.708 Y1.8767 Z-0.2746 I-0.0089 J-0.0014
X2.7258 Y1.8794 Z-0.2755 I0.0089 J0.0014
X2.708 Y1.8767 Z-0.2765 I-0.0089 J-0.0014
X2.7258 Y1.8794 Z-0.2775 I0.0089 J0.0014
X2.708 Y1.8767 Z-0.2785 I-0.0089 J-0.0014
X2.7258 Y1.8794 Z-0.2795 I0.0089 J0.0014
X2.708 Y1.8767 Z-0.2805 I-0.0089 J-0.0014
X2.7258 Y1.8794 Z-0.2815 I0.0089 J0.0014
X2.708 Y1.8767 Z-0.2825 I-0.0089 J-0.0014
X2.7258 Y1.8794 Z-0.2834 I0.0089 J0.0014
X2.708 Y1.8767 Z-0.2844 I-0.0089 J-0.0014
X2.7258 Y1.8794 Z-0.2854 I0.0089 J0.0014
X2.708 Y1.8767 Z-0.2864 I-0.0089 J-0.0014
X2.7258 Y1.8794 Z-0.2874 I0.0089 J0.0014
X2.708 Y1.8767 Z-0.2884 I-0.0089 J-0.0014
X2.7258 Y1.8794 Z-0.2894 I0.0089 J0.0014
X2.708 Y1.8767 Z-0.2904 I-0.0089 J-0.0014
X2.7258 Y1.8794 Z-0.2913 I0.0089 J0.0014
X2.708 Y1.8767 Z-0.2923 I-0.0089 J-0.0014
X2.7258 Y1.8794 Z-0.2933 I0.0089 J0.0014
X2.708 Y1.8767 Z-0.2943 I-0.0089 J-0.0014
X2.7258 Y1.8794 Z-0.2953 I0.0089 J0.0014
X2.708 Y1.8767 Z-0.2963 I-0.0089 J-0.0014
X2.7258 Y1.8794 Z-0.2973 I0.0089 J0.0014
X2.708 Y1.8767 Z-0.2983 I-0.0089 J-0.0014
X2.7258 Y1.8794 Z-0.2992 I0.0089 J0.0014
X2.708 Y1.8767 Z-0.3002 I-0.0089 J-0.0014
X2.7258 Y1.8794 Z-0.3012 I0.0089 J0.0014
X2.708 Y1.8767 Z-0.3022 I-0.0089 J-0.0014
X2.7258 Y1.8794 Z-0.3032 I0.0089 J0.0014
X2.708 Y1.8767 Z-0.3042 I-0.0089 J-0.0014
X2.7258 Y1.8794 Z-0.3052 I0.0089 J0.0014
X2.708 Y1.8767 Z-0.3062 I-0.0089 J-0.0014
X2.7258 Y1.8794 Z-0.3071 I0.0089 J0.0014
X2.708 Y1.8767 Z-0.3081 I-0.0089 J-0.0014
X2.7258 Y1.8794 Z-0.3091 I0.0089 J0.0014
X2.708 Y1.8767 Z-0.3101 I-0.0089 J-0.0014
X2.7258 Y1.8794 Z-0.3111 I0.0089 J0.0014
X2.708 Y1.8767 Z-0.3121 I-0.0089 J-0.0014
X2.7258 Y1.8794 Z-0.3131 I0.0089 J0.0014
X2.708 Y1.8767 Z-0.3141 I-0.0089 J-0.0014
X2.7258 Y1.8794 Z-0.315 I0.0089 J0.0014
X2.708 Y1.8767 Z-0.316 I-0.0089 J-0.0014
X2.7258 Y1.8794 Z-0.317 I0.0089 J0.0014
X2.708 Y1.8767 Z-0.318 I-0.0089 J-0.0014
X2.7258 Y1.8794 Z-0.319 I0.0089 J0.0014
X2.7152 Y1.8869 Z-0.3195 I-0.0089 J-0.0014
X2.7081 Y1.876 Z-0.32 I0.0017 J-0.0088
X2.7257 Y1.88 I0.0088 J0.002 F40.
X2.7081 Y1.876 I-0.0088 J-0.002
X2.7257 Y1.88 Z-0.321 I0.0088 J0.002 F20.
X2.7081 Y1.876 Z-0.322 I-0.0088 J-0.002
X2.7257 Y1.88 Z-0.323 I0.0088 J0.002
X2.7081 Y1.876 Z-0.3239 I-0.0088 J-0.002
X2.7257 Y1.88 Z-0.3249 I0.0088 J0.002
X2.7081 Y1.876 Z-0.3259 I-0.0088 J-0.002
X2.7257 Y1.88 Z-0.3269 I0.0088 J0.002
X2.7081 Y1.876 Z-0.3279 I-0.0088 J-0.002
X2.7257 Y1.88 Z-0.3289 I0.0088 J0.002
X2.7081 Y1.876 Z-0.3299 I-0.0088 J-0.002
X2.7257 Y1.88 Z-0.3309 I0.0088 J0.002
X2.7081 Y1.876 Z-0.3318 I-0.0088 J-0.002
X2.7257 Y1.88 Z-0.3328 I0.0088 J0.002
X2.7081 Y1.876 Z-0.3338 I-0.0088 J-0.002
X2.7257 Y1.88 Z-0.3348 I0.0088 J0.002
X2.7081 Y1.876 Z-0.3358 I-0.0088 J-0.002
X2.7257 Y1.88 Z-0.3368 I0.0088 J0.002
X2.7081 Y1.876 Z-0.3378 I-0.0088 J-0.002
X2.7257 Y1.88 Z-0.3388 I0.0088 J0.002
X2.7081 Y1.876 Z-0.3397 I-0.0088 J-0.002
X2.7257 Y1.88 Z-0.3407 I0.0088 J0.002
X2.7081 Y1.876 Z-0.3417 I-0.0088 J-0.002
X2.7257 Y1.88 Z-0.3427 I0.0088 J0.002
X2.7081 Y1.876 Z-0.3437 I-0.0088 J-0.002
X2.7257 Y1.88 Z-0.3447 I0.0088 J0.002
X2.7081 Y1.876 Z-0.3457 I-0.0088 J-0.002
X2.7257 Y1.88 Z-0.3467 I0.0088 J0.002
X2.7081 Y1.876 Z-0.3476 I-0.0088 J-0.002
X2.7257 Y1.88 Z-0.3486 I0.0088 J0.002
X2.7081 Y1.876 Z-0.3496 I-0.0088 J-0.002
X2.7257 Y1.88 Z-0.3506 I0.0088 J0.002
X2.7081 Y1.876 Z-0.3516 I-0.0088 J-0.002
X2.7258 Y1.8766 Z-0.3525 I0.0088 J0.002
X2.708 Y1.8795 I-0.0089 J0.0015 F40.
X2.7258 Y1.8766 I0.0089 J-0.0015
G1 X2.7259 Y1.878 Z-0.3524
X2.7257 Y1.8798 Z-0.3517
X2.7252 Y1.8814 Z-0.351
X2.7244 Y1.883 Z-0.3504
X2.7232 Y1.8844 Z-0.3482
X2.7218 Y1.8856 Z-0.3461
X2.7206 Y1.8862 Z-0.3407
G0 Z0.2
X1.7536 Y11.9101
G1 Z0.1118 F40.
X1.7533 Y11.9107 Z0.1079 F20.
X1.7527 Y11.9115 Z0.1061
X1.752 Y11.9121 Z0.1044
X1.7509 Y11.9127 Z0.1033
X1.7496 Y11.9131 Z0.1023
X1.7483 Z0.1012
X1.7468 Y11.9126 Z0.1008
X1.7455 Y11.9116 Z0.1004
X1.7446 Y11.9103 Z0.1
G3 X1.7535 Y11.9059 Z0.0995 I0.0045 J-0.0022
X1.7446 Y11.9103 Z0.0989 I-0.0045 J0.0022
X1.7535 Y11.9059 Z0.0984 I0.0045 J-0.0022
X1.7446 Y11.9103 Z0.0978 I-0.0045 J0.0022
X1.7535 Y11.9059 Z0.0973 I0.0045 J-0.0022
X1.7446 Y11.9103 Z0.0967 I-0.0045 J0.0022
X1.7535 Y11.9059 Z0.0962 I0.0045 J-0.0022
X1.7446 Y11.9103 Z0.0956 I-0.0045 J0.0022
X1.7535 Y11.9059 Z0.0951 I0.0045 J-0.0022
X1.7446 Y11.9103 Z0.0945 I-0.0045 J0.0022
X1.7535 Y11.9059 Z0.094 I0.0045 J-0.0022
X1.7446 Y11.9103 Z0.0934 I-0.0045 J0.0022
X1.7535 Y11.9059 Z0.0929 I0.0045 J-0.0022
X1.7446 Y11.9103 Z0.0923 I-0.0045 J0.0022
X1.7535 Y11.9059 Z0.0918 I0.0045 J-0.0022
X1.7446 Y11.9103 Z0.0912 I-0.0045 J0.0022
X1.7535 Y11.9059 Z0.0907 I0.0045 J-0.0022
X1.7446 Y11.9103 Z0.0901 I-0.0045 J0.0022
X1.7535 Y11.9059 Z0.0896 I0.0045 J-0.0022
X1.7446 Y11.9103 Z0.089 I-0.0045 J0.0022
X1.7535 Y11.9059 Z0.0885 I0.0045 J-0.0022
X1.7446 Y11.9103 Z0.0879 I-0.0045 J0.0022
X1.7535 Y11.9059 Z0.0874 I0.0045 J-0.0022
X1.7446 Y11.9103 Z0.0868 I-0.0045 J0.0022
X1.7535 Y11.9059 Z0.0863 I0.0045 J-0.0022
X1.7446 Y11.9103 Z0.0857 I-0.0045 J0.0022
X1.7535 Y11.9059 Z0.0852 I0.0045 J-0.0022
X1.7446 Y11.9103 Z0.0846 I-0.0045 J0.0022
X1.7535 Y11.9059 Z0.0841 I0.0045 J-0.0022
X1.7446 Y11.9103 Z0.0835 I-0.0045 J0.0022
X1.7535 Y11.9059 Z0.083 I0.0045 J-0.0022
X1.7446 Y11.9103 Z0.0824 I-0.0045 J0.0022
X1.7535 Y11.9059 Z0.0819 I0.0045 J-0.0022
X1.7446 Y11.9103 Z0.0813 I-0.0045 J0.0022
X1.7535 Y11.9059 Z0.0808 I0.0045 J-0.0022
X1.7446 Y11.9103 Z0.0803 I-0.0045 J0.0022
X1.7535 Y11.9059 Z0.0797 I0.0045 J-0.0022
X1.7446 Y11.9103 Z0.0792 I-0.0045 J0.0022
X1.7535 Y11.9059 Z0.0786 I0.0045 J-0.0022
X1.7446 Y11.9103 Z0.0781 I-0.0045 J0.0022
X1.7535 Y11.9059 Z0.0775 I0.0045 J-0.0022
X1.7446 Y11.9103 Z0.077 I-0.0045 J0.0022
X1.7535 Y11.9059 Z0.0764 I0.0045 J-0.0022
X1.7446 Y11.9103 Z0.0759 I-0.0045 J0.0022
X1.7535 Y11.9059 Z0.0753 I0.0045 J-0.0022
X1.7446 Y11.9103 Z0.0748 I-0.0045 J0.0022
X1.7535 Y11.9059 Z0.0742 I0.0045 J-0.0022
X1.7446 Y11.9103 Z0.0737 I-0.0045 J0.0022
X1.7535 Y11.9059 Z0.0731 I0.0045 J-0.0022
X1.7446 Y11.9103 Z0.0726 I-0.0045 J0.0022
X1.7535 Y11.9059 Z0.072 I0.0045 J-0.0022
X1.7446 Y11.9103 Z0.0715 I-0.0045 J0.0022
X1.7535 Y11.9059 Z0.0709 I0.0045 J-0.0022
X1.7446 Y11.9103 Z0.0704 I-0.0045 J0.0022
X1.7535 Y11.9059 Z0.0698 I0.0045 J-0.0022
X1.7446 Y11.9103 Z0.0693 I-0.0045 J0.0022
X1.7535 Y11.9059 Z0.0687 I0.0045 J-0.0022
X1.7446 Y11.9103 Z0.0682 I-0.0045 J0.0022
X1.7535 Y11.9059 Z0.0676 I0.0045 J-0.0022
X1.7446 Y11.9103 Z0.0671 I-0.0045 J0.0022
X1.7535 Y11.9059 Z0.0665 I0.0045 J-0.0022
X1.7446 Y11.9103 Z0.066 I-0.0045 J0.0022
X1.7535 Y11.9059 Z0.0654 I0.0045 J-0.0022
X1.7446 Y11.9103 Z0.0649 I-0.0045 J0.0022
X1.7535 Y11.9059 Z0.0643 I0.0045 J-0.0022
X1.7446 Y11.9103 Z0.0638 I-0.0045 J0.0022
X1.7535 Y11.9059 Z0.0632 I0.0045 J-0.0022
X1.7446 Y11.9103 Z0.0627 I-0.0045 J0.0022
X1.7535 Y11.9059 Z0.0622 I0.0045 J-0.0022
X1.7446 Y11.9103 Z0.0616 I-0.0045 J0.0022
X1.7535 Y11.9059 Z0.0611 I0.0045 J-0.0022
X1.7446 Y11.9103 Z0.0605 I-0.0045 J0.0022
X1.7535 Y11.9059 Z0.06 I0.0045 J-0.0022
X1.7446 Y11.9103 Z0.0594 I-0.0045 J0.0022
X1.7535 Y11.9059 Z0.0589 I0.0045 J-0.0022
X1.7446 Y11.9103 Z0.0583 I-0.0045 J0.0022
X1.7535 Y11.9059 Z0.0578 I0.0045 J-0.0022
X1.7446 Y11.9103 Z0.0572 I-0.0045 J0.0022
X1.7535 Y11.9059 Z0.0567 I0.0045 J-0.0022
X1.7446 Y11.9103 Z0.0561 I-0.0045 J0.0022
X1.7535 Y11.9059 Z0.0556 I0.0045 J-0.0022
X1.7446 Y11.9103 Z0.055 I-0.0045 J0.0022
X1.7535 Y11.9059 Z0.0545 I0.0045 J-0.0022
X1.7446 Y11.9103 Z0.0539 I-0.0045 J0.0022
X1.7535 Y11.9059 Z0.0534 I0.0045 J-0.0022
X1.7446 Y11.9103 Z0.0528 I-0.0045 J0.0022
X1.7535 Y11.9059 Z0.0523 I0.0045 J-0.0022
X1.7446 Y11.9103 Z0.0517 I-0.0045 J0.0022
X1.7535 Y11.9059 Z0.0512 I0.0045 J-0.0022
X1.7446 Y11.9103 Z0.0506 I-0.0045 J0.0022
X1.7535 Y11.9059 Z0.0501 I0.0045 J-0.0022
X1.7446 Y11.9103 Z0.0495 I-0.0045 J0.0022
X1.7535 Y11.9059 Z0.049 I0.0045 J-0.0022
X1.7446 Y11.9103 Z0.0484 I-0.0045 J0.0022
X1.7535 Y11.9059 Z0.0479 I0.0045 J-0.0022
X1.7446 Y11.9103 Z0.0473 I-0.0045 J0.0022
X1.7535 Y11.9059 Z0.0468 I0.0045 J-0.0022
X1.7446 Y11.9103 Z0.0462 I-0.0045 J0.0022
X1.7535 Y11.9059 Z0.0457 I0.0045 J-0.0022
X1.7446 Y11.9103 Z0.0451 I-0.0045 J0.0022
X1.7535 Y11.9059 Z0.0446 I0.0045 J-0.0022
X1.7446 Y11.9103 Z0.044 I-0.0045 J0.0022
X1.7535 Y11.9059 Z0.0435 I0.0045 J-0.0022
X1.7446 Y11.9103 Z0.043 I-0.0045 J0.0022
X1.7535 Y11.9059 Z0.0424 I0.0045 J-0.0022
X1.7446 Y11.9103 Z0.0419 I-0.0045 J0.0022
X1.7535 Y11.9059 Z0.0413 I0.0045 J-0.0022
X1.7446 Y11.9103 Z0.0408 I-0.0045 J0.0022
X1.7535 Y11.9059 Z0.0402 I0.0045 J-0.0022
X1.7446 Y11.9103 Z0.0397 I-0.0045 J0.0022
X1.7535 Y11.9059 Z0.0391 I0.0045 J-0.0022
X1.7446 Y11.9103 Z0.0386 I-0.0045 J0.0022
X1.7535 Y11.9059 Z0.038 I0.0045 J-0.0022
X1.7446 Y11.9103 Z0.0375 I-0.0045 J0.0022
X1.7535 Y11.9059 Z0.0369 I0.0045 J-0.0022
X1.7446 Y11.9103 Z0.0364 I-0.0045 J0.0022
X1.7535 Y11.9059 Z0.0358 I0.0045 J-0.0022
X1.7446 Y11.9103 Z0.0353 I-0.0045 J0.0022
X1.7535 Y11.9059 Z0.0347 I0.0045 J-0.0022
X1.7446 Y11.9103 Z0.0342 I-0.0045 J0.0022
X1.7535 Y11.9059 Z0.0336 I0.0045 J-0.0022
X1.7446 Y11.9103 Z0.0331 I-0.0045 J0.0022
X1.7535 Y11.9059 Z0.0325 I0.0045 J-0.0022
X1.7446 Y11.9103 Z0.032 I-0.0045 J0.0022
X1.7535 Y11.9059 Z0.0314 I0.0045 J-0.0022
X1.7446 Y11.9103 Z0.0309 I-0.0045 J0.0022
X1.7535 Y11.9059 Z0.0303 I0.0045 J-0.0022
X1.7446 Y11.9103 Z0.0298 I-0.0045 J0.0022
X1.7535 Y11.9059 Z0.0292 I0.0045 J-0.0022
X1.7446 Y11.9103 Z0.0287 I-0.0045 J0.0022
X1.7535 Y11.9059 Z0.0281 I0.0045 J-0.0022
X1.7446 Y11.9103 Z0.0276 I-0.0045 J0.0022
X1.7535 Y11.9059 Z0.027 I0.0045 J-0.0022
X1.7446 Y11.9103 Z0.0265 I-0.0045 J0.0022
X1.7535 Y11.9059 Z0.0259 I0.0045 J-0.0022
X1.7446 Y11.9103 Z0.0254 I-0.0045 J0.0022
X1.7535 Y11.9059 Z0.0249 I0.0045 J-0.0022
X1.7446 Y11.9103 Z0.0243 I-0.0045 J0.0022
X1.7535 Y11.9059 Z0.0238 I0.0045 J-0.0022
X1.7446 Y11.9103 Z0.0232 I-0.0045 J0.0022
X1.7535 Y11.9059 Z0.0227 I0.0045 J-0.0022
X1.7446 Y11.9103 Z0.0221 I-0.0045 J0.0022
X1.7535 Y11.9059 Z0.0216 I0.0045 J-0.0022
X1.7446 Y11.9103 Z0.021 I-0.0045 J0.0022
X1.7535 Y11.9059 Z0.0205 I0.0045 J-0.0022
X1.7446 Y11.9103 Z0.0199 I-0.0045 J0.0022
X1.7535 Y11.9059 Z0.0194 I0.0045 J-0.0022
X1.7446 Y11.9103 Z0.0188 I-0.0045 J0.0022
X1.7535 Y11.9059 Z0.0183 I0.0045 J-0.0022
X1.7446 Y11.9103 Z0.0177 I-0.0045 J0.0022
X1.7535 Y11.9059 Z0.0172 I0.0045 J-0.0022
X1.7446 Y11.9103 Z0.0166 I-0.0045 J0.0022
X1.7535 Y11.9059 Z0.0161 I0.0045 J-0.0022
X1.7446 Y11.9103 Z0.0155 I-0.0045 J0.0022
X1.7535 Y11.9059 Z0.015 I0.0045 J-0.0022
X1.7446 Y11.9103 Z0.0144 I-0.0045 J0.0022
X1.7535 Y11.9059 Z0.0139 I0.0045 J-0.0022
X1.7446 Y11.9103 Z0.0133 I-0.0045 J0.0022
X1.7535 Y11.9059 Z0.0128 I0.0045 J-0.0022
X1.7446 Y11.9103 Z0.0122 I-0.0045 J0.0022
X1.7535 Y11.9059 Z0.0117 I0.0045 J-0.0022
X1.7446 Y11.9103 Z0.0111 I-0.0045 J0.0022
X1.7535 Y11.9059 Z0.0106 I0.0045 J-0.0022
X1.7446 Y11.9103 Z0.01 I-0.0045 J0.0022
X1.7535 Y11.9059 Z0.0095 I0.0045 J-0.0022
X1.7446 Y11.9103 Z0.0089 I-0.0045 J0.0022
X1.7535 Y11.9059 Z0.0084 I0.0045 J-0.0022
X1.7446 Y11.9103 Z0.0078 I-0.0045 J0.0022
X1.7535 Y11.9059 Z0.0073 I0.0045 J-0.0022
X1.7446 Y11.9103 Z0.0067 I-0.0045 J0.0022
X1.7535 Y11.9059 Z0.0062 I0.0045 J-0.0022
X1.7446 Y11.9103 Z0.0057 I-0.0045 J0.0022
X1.7535 Y11.9059 Z0.0051 I0.0045 J-0.0022
X1.7446 Y11.9103 Z0.0046 I-0.0045 J0.0022
X1.7535 Y11.9059 Z0.004 I0.0045 J-0.0022
X1.7446 Y11.9103 Z0.0035 I-0.0045 J0.0022
X1.7535 Y11.9059 Z0.0029 I0.0045 J-0.0022
X1.7446 Y11.9103 Z0.0024 I-0.0045 J0.0022
X1.7535 Y11.9059 Z0.0018 I0.0045 J-0.0022
X1.7446 Y11.9103 Z0.0013 I-0.0045 J0.0022
X1.7535 Y11.9059 Z0.0007 I0.0045 J-0.0022
X1.7446 Y11.9103 Z0.0002 I-0.0045 J0.0022
X1.7535 Y11.9059 Z-0.0004 I0.0045 J-0.0022
X1.7446 Y11.9103 Z-0.0009 I-0.0045 J0.0022
X1.7535 Y11.9059 Z-0.0015 I0.0045 J-0.0022
X1.7446 Y11.9103 Z-0.002 I-0.0045 J0.0022
X1.7535 Y11.9059 Z-0.0026 I0.0045 J-0.0022
X1.7446 Y11.9103 Z-0.0031 I-0.0045 J0.0022
X1.7535 Y11.9059 Z-0.0037 I0.0045 J-0.0022
X1.7446 Y11.9103 Z-0.0042 I-0.0045 J0.0022
X1.7535 Y11.9059 Z-0.0048 I0.0045 J-0.0022
X1.7446 Y11.9103 Z-0.0053 I-0.0045 J0.0022
X1.7535 Y11.9059 Z-0.0059 I0.0045 J-0.0022
X1.7446 Y11.9103 Z-0.0064 I-0.0045 J0.0022
X1.7535 Y11.9059 Z-0.007 I0.0045 J-0.0022
X1.7446 Y11.9103 Z-0.0075 I-0.0045 J0.0022
X1.7535 Y11.9059 Z-0.0081 I0.0045 J-0.0022
X1.7446 Y11.9103 Z-0.0086 I-0.0045 J0.0022
X1.7535 Y11.9059 Z-0.0092 I0.0045 J-0.0022
X1.7446 Y11.9103 Z-0.0097 I-0.0045 J0.0022
X1.7535 Y11.9059 Z-0.0103 I0.0045 J-0.0022
X1.7446 Y11.9103 Z-0.0108 I-0.0045 J0.0022
X1.7535 Y11.9059 Z-0.0114 I0.0045 J-0.0022
X1.7446 Y11.9103 Z-0.0119 I-0.0045 J0.0022
X1.7535 Y11.9059 Z-0.0124 I0.0045 J-0.0022
X1.7446 Y11.9103 Z-0.013 I-0.0045 J0.0022
X1.7535 Y11.9059 Z-0.0135 I0.0045 J-0.0022
X1.7446 Y11.9103 Z-0.0141 I-0.0045 J0.0022
X1.7535 Y11.9059 Z-0.0146 I0.0045 J-0.0022
X1.7446 Y11.9103 Z-0.0152 I-0.0045 J0.0022
X1.7535 Y11.9059 Z-0.0157 I0.0045 J-0.0022
X1.7446 Y11.9103 Z-0.0163 I-0.0045 J0.0022
X1.7535 Y11.9059 Z-0.0168 I0.0045 J-0.0022
X1.7446 Y11.9103 Z-0.0174 I-0.0045 J0.0022
X1.7535 Y11.9059 Z-0.0179 I0.0045 J-0.0022
X1.7446 Y11.9103 Z-0.0185 I-0.0045 J0.0022
X1.7535 Y11.9059 Z-0.019 I0.0045 J-0.0022
X1.7446 Y11.9103 Z-0.0196 I-0.0045 J0.0022
X1.7535 Y11.9059 Z-0.0201 I0.0045 J-0.0022
X1.7446 Y11.9103 Z-0.0207 I-0.0045 J0.0022
X1.7535 Y11.9059 Z-0.0212 I0.0045 J-0.0022
X1.7446 Y11.9103 Z-0.0218 I-0.0045 J0.0022
X1.7535 Y11.9059 Z-0.0223 I0.0045 J-0.0022
X1.7446 Y11.9103 Z-0.0229 I-0.0045 J0.0022
X1.7535 Y11.9059 Z-0.0234 I0.0045 J-0.0022
X1.7446 Y11.9103 Z-0.024 I-0.0045 J0.0022
X1.7535 Y11.9059 Z-0.0245 I0.0045 J-0.0022
X1.7446 Y11.9103 Z-0.0251 I-0.0045 J0.0022
X1.7535 Y11.9059 Z-0.0256 I0.0045 J-0.0022
X1.7446 Y11.9103 Z-0.0262 I-0.0045 J0.0022
X1.7535 Y11.9059 Z-0.0267 I0.0045 J-0.0022
X1.7446 Y11.9103 Z-0.0273 I-0.0045 J0.0022
X1.7535 Y11.9059 Z-0.0278 I0.0045 J-0.0022
X1.7446 Y11.9103 Z-0.0284 I-0.0045 J0.0022
X1.7535 Y11.9059 Z-0.0289 I0.0045 J-0.0022
X1.7446 Y11.9103 Z-0.0295 I-0.0045 J0.0022
X1.7535 Y11.9059 Z-0.03 I0.0045 J-0.0022
X1.7446 Y11.9103 Z-0.0306 I-0.0045 J0.0022
X1.7535 Y11.9059 Z-0.0311 I0.0045 J-0.0022
X1.7446 Y11.9103 Z-0.0316 I-0.0045 J0.0022
X1.7535 Y11.9059 Z-0.0322 I0.0045 J-0.0022
X1.7446 Y11.9103 Z-0.0327 I-0.0045 J0.0022
X1.7535 Y11.9059 Z-0.0333 I0.0045 J-0.0022
X1.7446 Y11.9103 Z-0.0338 I-0.0045 J0.0022
X1.7535 Y11.9059 Z-0.0344 I0.0045 J-0.0022
X1.7446 Y11.9103 Z-0.0349 I-0.0045 J0.0022
X1.7535 Y11.9059 Z-0.0355 I0.0045 J-0.0022
X1.7446 Y11.9103 Z-0.036 I-0.0045 J0.0022
X1.7535 Y11.9059 Z-0.0366 I0.0045 J-0.0022
X1.7446 Y11.9103 Z-0.0371 I-0.0045 J0.0022
X1.7535 Y11.9059 Z-0.0377 I0.0045 J-0.0022
X1.7446 Y11.9103 Z-0.0382 I-0.0045 J0.0022
X1.7535 Y11.9059 Z-0.0388 I0.0045 J-0.0022
X1.7446 Y11.9103 Z-0.0393 I-0.0045 J0.0022
X1.7535 Y11.9059 Z-0.0399 I0.0045 J-0.0022
X1.7446 Y11.9103 Z-0.0404 I-0.0045 J0.0022
X1.7535 Y11.9059 Z-0.041 I0.0045 J-0.0022
X1.7446 Y11.9103 Z-0.0415 I-0.0045 J0.0022
X1.7535 Y11.9059 Z-0.0421 I0.0045 J-0.0022
X1.7446 Y11.9103 Z-0.0426 I-0.0045 J0.0022
X1.7535 Y11.9059 Z-0.0432 I0.0045 J-0.0022
X1.7446 Y11.9103 Z-0.0437 I-0.0045 J0.0022
X1.7535 Y11.9059 Z-0.0443 I0.0045 J-0.0022
X1.7446 Y11.9103 Z-0.0448 I-0.0045 J0.0022
X1.7535 Y11.9059 Z-0.0454 I0.0045 J-0.0022
X1.7446 Y11.9103 Z-0.0459 I-0.0045 J0.0022
X1.7535 Y11.9059 Z-0.0465 I0.0045 J-0.0022
X1.7446 Y11.9103 Z-0.047 I-0.0045 J0.0022
X1.7535 Y11.9059 Z-0.0476 I0.0045 J-0.0022
X1.7446 Y11.9103 Z-0.0481 I-0.0045 J0.0022
X1.7535 Y11.9059 Z-0.0487 I0.0045 J-0.0022
X1.7446 Y11.9103 Z-0.0492 I-0.0045 J0.0022
X1.7535 Y11.9059 Z-0.0497 I0.0045 J-0.0022
X1.7446 Y11.9103 Z-0.0503 I-0.0045 J0.0022
X1.7535 Y11.9059 Z-0.0508 I0.0045 J-0.0022
X1.7446 Y11.9103 Z-0.0514 I-0.0045 J0.0022
X1.7535 Y11.9059 Z-0.0519 I0.0045 J-0.0022
X1.7446 Y11.9103 Z-0.0525 I-0.0045 J0.0022
X1.7535 Y11.9059 Z-0.053 I0.0045 J-0.0022
X1.7446 Y11.9103 Z-0.0536 I-0.0045 J0.0022
X1.7535 Y11.9059 Z-0.0541 I0.0045 J-0.0022
X1.7446 Y11.9103 Z-0.0547 I-0.0045 J0.0022
X1.7535 Y11.9059 Z-0.0552 I0.0045 J-0.0022
X1.7446 Y11.9103 Z-0.0558 I-0.0045 J0.0022
X1.7535 Y11.9059 Z-0.0563 I0.0045 J-0.0022
X1.7446 Y11.9103 Z-0.0569 I-0.0045 J0.0022
X1.7535 Y11.9059 Z-0.0574 I0.0045 J-0.0022
X1.7446 Y11.9103 Z-0.058 I-0.0045 J0.0022
X1.7535 Y11.9059 Z-0.0585 I0.0045 J-0.0022
X1.7446 Y11.9103 Z-0.0591 I-0.0045 J0.0022
X1.7535 Y11.9059 Z-0.0596 I0.0045 J-0.0022
X1.7446 Y11.9103 Z-0.0602 I-0.0045 J0.0022
X1.7535 Y11.9059 Z-0.0607 I0.0045 J-0.0022
X1.7446 Y11.9103 Z-0.0613 I-0.0045 J0.0022
X1.7535 Y11.9059 Z-0.0618 I0.0045 J-0.0022
X1.7446 Y11.9103 Z-0.0624 I-0.0045 J0.0022
X1.7535 Y11.9059 Z-0.0629 I0.0045 J-0.0022
X1.7446 Y11.9103 Z-0.0635 I-0.0045 J0.0022
X1.7535 Y11.9059 Z-0.064 I0.0045 J-0.0022
X1.7446 Y11.9103 Z-0.0646 I-0.0045 J0.0022
X1.7535 Y11.9059 Z-0.0651 I0.0045 J-0.0022
X1.7446 Y11.9103 Z-0.0657 I-0.0045 J0.0022
X1.7535 Y11.9059 Z-0.0662 I0.0045 J-0.0022
X1.7446 Y11.9103 Z-0.0668 I-0.0045 J0.0022
X1.7535 Y11.9059 Z-0.0673 I0.0045 J-0.0022
X1.7446 Y11.9103 Z-0.0679 I-0.0045 J0.0022
X1.7535 Y11.9059 Z-0.0684 I0.0045 J-0.0022
X1.7446 Y11.9103 Z-0.0689 I-0.0045 J0.0022
X1.7535 Y11.9059 Z-0.0695 I0.0045 J-0.0022
X1.7446 Y11.9103 Z-0.07 I-0.0045 J0.0022
X1.7535 Y11.9059 Z-0.0706 I0.0045 J-0.0022
X1.7446 Y11.9103 Z-0.0711 I-0.0045 J0.0022
X1.7535 Y11.9059 Z-0.0717 I0.0045 J-0.0022
X1.7446 Y11.9103 Z-0.0722 I-0.0045 J0.0022
X1.7535 Y11.9059 Z-0.0728 I0.0045 J-0.0022
X1.7446 Y11.9103 Z-0.0733 I-0.0045 J0.0022
X1.7535 Y11.9059 Z-0.0739 I0.0045 J-0.0022
X1.7446 Y11.9103 Z-0.0744 I-0.0045 J0.0022
X1.7535 Y11.9059 Z-0.075 I0.0045 J-0.0022
X1.7446 Y11.9103 Z-0.0755 I-0.0045 J0.0022
X1.7535 Y11.9059 Z-0.0761 I0.0045 J-0.0022
X1.7446 Y11.9103 Z-0.0766 I-0.0045 J0.0022
X1.7535 Y11.9059 Z-0.0772 I0.0045 J-0.0022
X1.7446 Y11.9103 Z-0.0777 I-0.0045 J0.0022
X1.7535 Y11.9059 Z-0.0783 I0.0045 J-0.0022
X1.7446 Y11.9103 Z-0.0788 I-0.0045 J0.0022
X1.7535 Y11.9059 Z-0.0794 I0.0045 J-0.0022
X1.7446 Y11.9103 Z-0.0799 I-0.0045 J0.0022
X1.744 Y11.9081 Z-0.08 I0.0045 J-0.0022
X1.762 I0.009 J0. F40.
X1.744 I-0.009 J0.
X1.762 Z-0.081 I0.009 J0. F20.
X1.744 Z-0.082 I-0.009 J0.
X1.762 Z-0.083 I0.009 J0.
X1.744 Z-0.0839 I-0.009 J0.
X1.762 Z-0.0849 I0.009 J0.
X1.744 Z-0.0859 I-0.009 J0.
X1.762 Z-0.0869 I0.009 J0.
X1.744 Z-0.0879 I-0.009 J0.
X1.762 Z-0.0889 I0.009 J0.
X1.744 Z-0.0899 I-0.009 J0.
X1.762 Z-0.0909 I0.009 J0.
X1.744 Z-0.0918 I-0.009 J0.
X1.762 Z-0.0928 I0.009 J0.
X1.744 Z-0.0938 I-0.009 J0.
X1.762 Z-0.0948 I0.009 J0.
X1.744 Z-0.0958 I-0.009 J0.
X1.762 Z-0.0968 I0.009 J0.
X1.744 Z-0.0978 I-0.009 J0.
X1.762 Z-0.0988 I0.009 J0.
X1.744 Z-0.0997 I-0.009 J0.
X1.762 Z-0.1007 I0.009 J0.
X1.744 Z-0.1017 I-0.009 J0.
X1.762 Z-0.1027 I0.009 J0.
X1.744 Z-0.1037 I-0.009 J0.
X1.762 Z-0.1047 I0.009 J0.
X1.744 Z-0.1057 I-0.009 J0.
X1.762 Z-0.1067 I0.009 J0.
X1.744 Z-0.1076 I-0.009 J0.
X1.762 Z-0.1086 I0.009 J0.
X1.744 Z-0.1096 I-0.009 J0.
X1.762 Z-0.1106 I0.009 J0.
X1.744 Z-0.1116 I-0.009 J0.
X1.762 Z-0.1126 I0.009 J0.
X1.744 Z-0.1136 I-0.009 J0.
X1.762 Z-0.1146 I0.009 J0.
X1.744 Z-0.1155 I-0.009 J0.
X1.762 Z-0.1165 I0.009 J0.
X1.744 Z-0.1175 I-0.009 J0.
X1.762 Z-0.1185 I0.009 J0.
X1.744 Z-0.1195 I-0.009 J0.
X1.762 Z-0.1205 I0.009 J0.
X1.744 Z-0.1215 I-0.009 J0.
X1.762 Z-0.1225 I0.009 J0.
X1.744 Z-0.1234 I-0.009 J0.
X1.762 Z-0.1244 I0.009 J0.
X1.744 Z-0.1254 I-0.009 J0.
X1.762 Z-0.1264 I0.009 J0.
X1.744 Z-0.1274 I-0.009 J0.
X1.762 Z-0.1284 I0.009 J0.
X1.744 Z-0.1294 I-0.009 J0.
X1.762 Z-0.1304 I0.009 J0.
X1.744 Z-0.1313 I-0.009 J0.
X1.762 Z-0.1323 I0.009 J0.
X1.744 Z-0.1333 I-0.009 J0.
X1.762 Z-0.1343 I0.009 J0.
X1.744 Z-0.1353 I-0.009 J0.
X1.762 Z-0.1363 I0.009 J0.
X1.744 Z-0.1373 I-0.009 J0.
X1.762 Z-0.1383 I0.009 J0.
X1.744 Z-0.1392 I-0.009 J0.
X1.762 Z-0.1402 I0.009 J0.
X1.744 Z-0.1412 I-0.009 J0.
X1.762 Z-0.1422 I0.009 J0.
X1.744 Z-0.1432 I-0.009 J0.
X1.762 Z-0.1442 I0.009 J0.
X1.744 Z-0.1452 I-0.009 J0.
X1.762 Z-0.1462 I0.009 J0.
X1.744 Z-0.1471 I-0.009 J0.
X1.762 Z-0.1481 I0.009 J0.
X1.744 Z-0.1491 I-0.009 J0.
X1.762 Z-0.1501 I0.009 J0.
X1.744 Z-0.1511 I-0.009 J0.
X1.762 Z-0.1521 I0.009 J0.
X1.744 Z-0.1531 I-0.009 J0.
X1.762 Z-0.1541 I0.009 J0.
X1.744 Z-0.155 I-0.009 J0.
X1.762 Z-0.156 I0.009 J0.
X1.744 Z-0.157 I-0.009 J0.
X1.762 Z-0.158 I0.009 J0.
X1.744 Z-0.159 I-0.009 J0.
X1.7534 Y11.8991 Z-0.1595 I0.009 J0.
X1.762 Y11.9088 Z-0.16 I-0.0003 J0.009
X1.7441 Y11.9074 I-0.009 J-0.0007 F40.
X1.762 Y11.9088 I0.009 J0.0007
X1.7441 Y11.9074 Z-0.161 I-0.009 J-0.0007 F20.
X1.762 Y11.9088 Z-0.162 I0.009 J0.0007
X1.7441 Y11.9074 Z-0.163 I-0.009 J-0.0007
X1.762 Y11.9088 Z-0.1639 I0.009 J0.0007
X1.7441 Y11.9074 Z-0.1649 I-0.009 J-0.0007
X1.762 Y11.9088 Z-0.1659 I0.009 J0.0007
X1.7441 Y11.9074 Z-0.1669 I-0.009 J-0.0007
X1.762 Y11.9088 Z-0.1679 I0.009 J0.0007
X1.7441 Y11.9074 Z-0.1689 I-0.009 J-0.0007
X1.762 Y11.9088 Z-0.1699 I0.009 J0.0007
X1.7441 Y11.9074 Z-0.1709 I-0.009 J-0.0007
X1.762 Y11.9088 Z-0.1718 I0.009 J0.0007
X1.7441 Y11.9074 Z-0.1728 I-0.009 J-0.0007
X1.762 Y11.9088 Z-0.1738 I0.009 J0.0007
X1.7441 Y11.9074 Z-0.1748 I-0.009 J-0.0007
X1.762 Y11.9088 Z-0.1758 I0.009 J0.0007
X1.7441 Y11.9074 Z-0.1768 I-0.009 J-0.0007
X1.762 Y11.9088 Z-0.1778 I0.009 J0.0007
X1.7441 Y11.9074 Z-0.1788 I-0.009 J-0.0007
X1.762 Y11.9088 Z-0.1797 I0.009 J0.0007
X1.7441 Y11.9074 Z-0.1807 I-0.009 J-0.0007
X1.762 Y11.9088 Z-0.1817 I0.009 J0.0007
X1.7441 Y11.9074 Z-0.1827 I-0.009 J-0.0007
X1.762 Y11.9088 Z-0.1837 I0.009 J0.0007
X1.7441 Y11.9074 Z-0.1847 I-0.009 J-0.0007
X1.762 Y11.9088 Z-0.1857 I0.009 J0.0007
X1.7441 Y11.9074 Z-0.1867 I-0.009 J-0.0007
X1.762 Y11.9088 Z-0.1876 I0.009 J0.0007
X1.7441 Y11.9074 Z-0.1886 I-0.009 J-0.0007
X1.762 Y11.9088 Z-0.1896 I0.009 J0.0007
X1.7441 Y11.9074 Z-0.1906 I-0.009 J-0.0007
X1.762 Y11.9088 Z-0.1916 I0.009 J0.0007
X1.7441 Y11.9074 Z-0.1926 I-0.009 J-0.0007
X1.762 Y11.9088 Z-0.1936 I0.009 J0.0007
X1.7441 Y11.9074 Z-0.1946 I-0.009 J-0.0007
X1.762 Y11.9088 Z-0.1955 I0.009 J0.0007
X1.7441 Y11.9074 Z-0.1965 I-0.009 J-0.0007
X1.762 Y11.9088 Z-0.1975 I0.009 J0.0007
X1.7441 Y11.9074 Z-0.1985 I-0.009 J-0.0007
X1.762 Y11.9088 Z-0.1995 I0.009 J0.0007
X1.7441 Y11.9074 Z-0.2005 I-0.009 J-0.0007
X1.762 Y11.9088 Z-0.2015 I0.009 J0.0007
X1.7441 Y11.9074 Z-0.2025 I-0.009 J-0.0007
X1.762 Y11.9088 Z-0.2034 I0.009 J0.0007
X1.7441 Y11.9074 Z-0.2044 I-0.009 J-0.0007
X1.762 Y11.9088 Z-0.2054 I0.009 J0.0007
X1.7441 Y11.9074 Z-0.2064 I-0.009 J-0.0007
X1.762 Y11.9088 Z-0.2074 I0.009 J0.0007
X1.7441 Y11.9074 Z-0.2084 I-0.009 J-0.0007
X1.762 Y11.9088 Z-0.2094 I0.009 J0.0007
X1.7441 Y11.9074 Z-0.2104 I-0.009 J-0.0007
X1.762 Y11.9088 Z-0.2113 I0.009 J0.0007
X1.7441 Y11.9074 Z-0.2123 I-0.009 J-0.0007
X1.762 Y11.9088 Z-0.2133 I0.009 J0.0007
X1.7441 Y11.9074 Z-0.2143 I-0.009 J-0.0007
X1.762 Y11.9088 Z-0.2153 I0.009 J0.0007
X1.7441 Y11.9074 Z-0.2163 I-0.009 J-0.0007
X1.762 Y11.9088 Z-0.2173 I0.009 J0.0007
X1.7441 Y11.9074 Z-0.2183 I-0.009 J-0.0007
X1.762 Y11.9088 Z-0.2192 I0.009 J0.0007
X1.7441 Y11.9074 Z-0.2202 I-0.009 J-0.0007
X1.762 Y11.9088 Z-0.2212 I0.009 J0.0007
X1.7441 Y11.9074 Z-0.2222 I-0.009 J-0.0007
X1.762 Y11.9088 Z-0.2232 I0.009 J0.0007
X1.7441 Y11.9074 Z-0.2242 I-0.009 J-0.0007
X1.762 Y11.9088 Z-0.2252 I0.009 J0.0007
X1.7441 Y11.9074 Z-0.2262 I-0.009 J-0.0007
X1.762 Y11.9088 Z-0.2271 I0.009 J0.0007
X1.7441 Y11.9074 Z-0.2281 I-0.009 J-0.0007
X1.762 Y11.9088 Z-0.2291 I0.009 J0.0007
X1.7441 Y11.9074 Z-0.2301 I-0.009 J-0.0007
X1.762 Y11.9088 Z-0.2311 I0.009 J0.0007
X1.7441 Y11.9074 Z-0.2321 I-0.009 J-0.0007
X1.762 Y11.9088 Z-0.2331 I0.009 J0.0007
X1.7441 Y11.9074 Z-0.2341 I-0.009 J-0.0007
X1.762 Y11.9088 Z-0.235 I0.009 J0.0007
X1.7441 Y11.9074 Z-0.236 I-0.009 J-0.0007
X1.762 Y11.9088 Z-0.237 I0.009 J0.0007
X1.7441 Y11.9074 Z-0.238 I-0.009 J-0.0007
X1.762 Y11.9088 Z-0.239 I0.009 J0.0007
X1.752 Y11.9171 Z-0.2395 I-0.009 J-0.0007
X1.7441 Y11.9068 Z-0.24 I0.001 J-0.0089
X1.7619 Y11.9095 I0.0089 J0.0014 F40.
X1.7441 Y11.9068 I-0.0089 J-0.0014
X1.7619 Y11.9095 Z-0.241 I0.0089 J0.0014 F20.
X1.7441 Y11.9068 Z-0.242 I-0.0089 J-0.0014
X1.7619 Y11.9095 Z-0.243 I0.0089 J0.0014
X1.7441 Y11.9068 Z-0.2439 I-0.0089 J-0.0014
X1.7619 Y11.9095 Z-0.2449 I0.0089 J0.0014
X1.7441 Y11.9068 Z-0.2459 I-0.0089 J-0.0014
X1.7619 Y11.9095 Z-0.2469 I0.0089 J0.0014
X1.7441 Y11.9068 Z-0.2479 I-0.0089 J-0.0014
X1.7619 Y11.9095 Z-0.2489 I0.0089 J0.0014
X1.7441 Y11.9068 Z-0.2499 I-0.0089 J-0.0014
X1.7619 Y11.9095 Z-0.2509 I0.0089 J0.0014
X1.7441 Y11.9068 Z-0.2518 I-0.0089 J-0.0014
X1.7619 Y11.9095 Z-0.2528 I0.0089 J0.0014
X1.7441 Y11.9068 Z-0.2538 I-0.0089 J-0.0014
X1.7619 Y11.9095 Z-0.2548 I0.0089 J0.0014
X1.7441 Y11.9068 Z-0.2558 I-0.0089 J-0.0014
X1.7619 Y11.9095 Z-0.2568 I0.0089 J0.0014
X1.7441 Y11.9068 Z-0.2578 I-0.0089 J-0.0014
X1.7619 Y11.9095 Z-0.2588 I0.0089 J0.0014
X1.7441 Y11.9068 Z-0.2597 I-0.0089 J-0.0014
X1.7619 Y11.9095 Z-0.2607 I0.0089 J0.0014
X1.7441 Y11.9068 Z-0.2617 I-0.0089 J-0.0014
X1.7619 Y11.9095 Z-0.2627 I0.0089 J0.0014
X1.7441 Y11.9068 Z-0.2637 I-0.0089 J-0.0014
X1.7619 Y11.9095 Z-0.2647 I0.0089 J0.0014
X1.7441 Y11.9068 Z-0.2657 I-0.0089 J-0.0014
X1.7619 Y11.9095 Z-0.2667 I0.0089 J0.0014
X1.7441 Y11.9068 Z-0.2676 I-0.0089 J-0.0014
X1.7619 Y11.9095 Z-0.2686 I0.0089 J0.0014
X1.7441 Y11.9068 Z-0.2696 I-0.0089 J-0.0014
X1.7619 Y11.9095 Z-0.2706 I0.0089 J0.0014
X1.7441 Y11.9068 Z-0.2716 I-0.0089 J-0.0014
X1.7619 Y11.9095 Z-0.2726 I0.0089 J0.0014
X1.7441 Y11.9068 Z-0.2736 I-0.0089 J-0.0014
X1.7619 Y11.9095 Z-0.2746 I0.0089 J0.0014
X1.7441 Y11.9068 Z-0.2755 I-0.0089 J-0.0014
X1.7619 Y11.9095 Z-0.2765 I0.0089 J0.0014
X1.7441 Y11.9068 Z-0.2775 I-0.0089 J-0.0014
X1.7619 Y11.9095 Z-0.2785 I0.0089 J0.0014
X1.7441 Y11.9068 Z-0.2795 I-0.0089 J-0.0014
X1.7619 Y11.9095 Z-0.2805 I0.0089 J0.0014
X1.7441 Y11.9068 Z-0.2815 I-0.0089 J-0.0014
X1.7619 Y11.9095 Z-0.2825 I0.0089 J0.0014
X1.7441 Y11.9068 Z-0.2834 I-0.0089 J-0.0014
X1.7619 Y11.9095 Z-0.2844 I0.0089 J0.0014
X1.7441 Y11.9068 Z-0.2854 I-0.0089 J-0.0014
X1.7619 Y11.9095 Z-0.2864 I0.0089 J0.0014
X1.7441 Y11.9068 Z-0.2874 I-0.0089 J-0.0014
X1.7619 Y11.9095 Z-0.2884 I0.0089 J0.0014
X1.7441 Y11.9068 Z-0.2894 I-0.0089 J-0.0014
X1.7619 Y11.9095 Z-0.2904 I0.0089 J0.0014
X1.7441 Y11.9068 Z-0.2913 I-0.0089 J-0.0014
X1.7619 Y11.9095 Z-0.2923 I0.0089 J0.0014
X1.7441 Y11.9068 Z-0.2933 I-0.0089 J-0.0014
X1.7619 Y11.9095 Z-0.2943 I0.0089 J0.0014
X1.7441 Y11.9068 Z-0.2953 I-0.0089 J-0.0014
X1.7619 Y11.9095 Z-0.2963 I0.0089 J0.0014
X1.7441 Y11.9068 Z-0.2973 I-0.0089 J-0.0014
X1.7619 Y11.9095 Z-0.2983 I0.0089 J0.0014
X1.7441 Y11.9068 Z-0.2992 I-0.0089 J-0.0014
X1.7619 Y11.9095 Z-0.3002 I0.0089 J0.0014
X1.7441 Y11.9068 Z-0.3012 I-0.0089 J-0.0014
X1.7619 Y11.9095 Z-0.3022 I0.0089 J0.0014
X1.7441 Y11.9068 Z-0.3032 I-0.0089 J-0.0014
X1.7619 Y11.9095 Z-0.3042 I0.0089 J0.0014
X1.7441 Y11.9068 Z-0.3052 I-0.0089 J-0.0014
X1.7619 Y11.9095 Z-0.3062 I0.0089 J0.0014
X1.7441 Y11.9068 Z-0.3071 I-0.0089 J-0.0014
X1.7619 Y11.9095 Z-0.3081 I0.0089 J0.0014
X1.7441 Y11.9068 Z-0.3091 I-0.0089 J-0.0014
X1.7619 Y11.9095 Z-0.3101 I0.0089 J0.0014
X1.7441 Y11.9068 Z-0.3111 I-0.0089 J-0.0014
X1.7619 Y11.9095 Z-0.3121 I0.0089 J0.0014
X1.7441 Y11.9068 Z-0.3131 I-0.0089 J-0.0014
X1.7619 Y11.9095 Z-0.3141 I0.0089 J0.0014
X1.7441 Y11.9068 Z-0.315 I-0.0089 J-0.0014
X1.7619 Y11.9095 Z-0.316 I0.0089 J0.0014
X1.7441 Y11.9068 Z-0.317 I-0.0089 J-0.0014
X1.7619 Y11.9095 Z-0.318 I0.0089 J0.0014
X1.7441 Y11.9068 Z-0.319 I-0.0089 J-0.0014
X1.7547 Y11.8993 Z-0.3195 I0.0089 J0.0014
X1.7618 Y11.9101 Z-0.32 I-0.0017 J0.0088
X1.7443 Y11.9061 I-0.0088 J-0.002 F40.
X1.7618 Y11.9101 I0.0088 J0.002
X1.7443 Y11.9061 Z-0.321 I-0.0088 J-0.002 F20.
X1.7618 Y11.9101 Z-0.322 I0.0088 J0.002
X1.7443 Y11.9061 Z-0.323 I-0.0088 J-0.002
X1.7618 Y11.9101 Z-0.3239 I0.0088 J0.002
X1.7443 Y11.9061 Z-0.3249 I-0.0088 J-0.002
X1.7618 Y11.9101 Z-0.3259 I0.0088 J0.002
X1.7443 Y11.9061 Z-0.3269 I-0.0088 J-0.002
X1.7618 Y11.9101 Z-0.3279 I0.0088 J0.002
X1.7443 Y11.9061 Z-0.3289 I-0.0088 J-0.002
X1.7618 Y11.9101 Z-0.3299 I0.0088 J0.002
X1.7443 Y11.9061 Z-0.3309 I-0.0088 J-0.002
X1.7618 Y11.9101 Z-0.3318 I0.0088 J0.002
X1.7443 Y11.9061 Z-0.3328 I-0.0088 J-0.002
X1.7618 Y11.9101 Z-0.3338 I0.0088 J0.002
X1.7443 Y11.9061 Z-0.3348 I-0.0088 J-0.002
X1.7618 Y11.9101 Z-0.3358 I0.0088 J0.002
X1.7443 Y11.9061 Z-0.3368 I-0.0088 J-0.002
X1.7618 Y11.9101 Z-0.3378 I0.0088 J0.002
X1.7443 Y11.9061 Z-0.3388 I-0.0088 J-0.002
X1.7618 Y11.9101 Z-0.3397 I0.0088 J0.002
X1.7443 Y11.9061 Z-0.3407 I-0.0088 J-0.002
X1.7618 Y11.9101 Z-0.3417 I0.0088 J0.002
X1.7443 Y11.9061 Z-0.3427 I-0.0088 J-0.002
X1.7618 Y11.9101 Z-0.3437 I0.0088 J0.002
X1.7443 Y11.9061 Z-0.3447 I-0.0088 J-0.002
X1.7618 Y11.9101 Z-0.3457 I0.0088 J0.002
X1.7443 Y11.9061 Z-0.3467 I-0.0088 J-0.002
X1.7618 Y11.9101 Z-0.3476 I0.0088 J0.002
X1.7443 Y11.9061 Z-0.3486 I-0.0088 J-0.002
X1.7618 Y11.9101 Z-0.3496 I0.0088 J0.002
X1.7443 Y11.9061 Z-0.3506 I-0.0088 J-0.002
X1.7618 Y11.9101 Z-0.3516 I0.0088 J0.002
X1.7441 Y11.9096 Z-0.3525 I-0.0088 J-0.002
X1.7619 Y11.9067 I0.0089 J-0.0015 F40.
X1.7441 Y11.9096 I-0.0089 J0.0015
G1 X1.744 Y11.9081 Z-0.3524
X1.7442 Y11.9064 Z-0.3517
X1.7447 Y11.9047 Z-0.351
X1.7455 Y11.9031 Z-0.3504
X1.7467 Y11.9017 Z-0.3482
X1.7482 Y11.9005 Z-0.3461
X1.7493 Y11.8999 Z-0.3407
G0 Z0.2
X2.6558 Y11.9706
G1 Z0.1118 F40.
X2.6564 Y11.9709 Z0.1079 F20.
X2.6571 Y11.9715 Z0.1061
X2.6578 Y11.9722 Z0.1044
X2.6584 Y11.9733 Z0.1033
X2.6588 Y11.9746 Z0.1023
Y11.9759 Z0.1012
X2.6583 Y11.9774 Z0.1008
X2.6573 Y11.9787 Z0.1004
X2.656 Y11.9797 Z0.1
G3 X2.6516 Y11.9707 Z0.0995 I-0.0022 J-0.0045
X2.656 Y11.9797 Z0.0989 I0.0022 J0.0045
X2.6516 Y11.9707 Z0.0984 I-0.0022 J-0.0045
