(X8DS CABLE TABLE HOLES 2)
(T3  D=0.118 CR=0. - ZMIN=-0.3525 - FLAT END MILL)
G90 G94 G91.1 G40 G49 G17
G20

(2D POCKET2)
M5
T3 M6
S15000 M3
g4 p5
g0 z.5
G54
M8
G0 X12.7489 Y2.8413
G43 Z0.6 H3
Z0.2
G1 Z0.1118 F40.
X12.7495 Y2.8416 Z0.1079 F20.
X12.7503 Y2.8422 Z0.1061
X12.751 Y2.8429 Z0.1044
X12.7516 Y2.844 Z0.1033
X12.7519 Y2.8453 Z0.1023
Y2.8466 Z0.1012
X12.7514 Y2.8481 Z0.1008
X12.7505 Y2.8494 Z0.1004
X12.7492 Y2.8504 Z0.1
G3 X12.7447 Y2.8414 Z0.0995 I-0.0022 J-0.0045
X12.7492 Y2.8504 Z0.0989 I0.0022 J0.0045
X12.7447 Y2.8414 Z0.0984 I-0.0022 J-0.0045
X12.7492 Y2.8504 Z0.0978 I0.0022 J0.0045
X12.7447 Y2.8414 Z0.0973 I-0.0022 J-0.0045
X12.7492 Y2.8504 Z0.0967 I0.0022 J0.0045
X12.7447 Y2.8414 Z0.0962 I-0.0022 J-0.0045
X12.7492 Y2.8504 Z0.0956 I0.0022 J0.0045
X12.7447 Y2.8414 Z0.0951 I-0.0022 J-0.0045
X12.7492 Y2.8504 Z0.0945 I0.0022 J0.0045
X12.7447 Y2.8414 Z0.094 I-0.0022 J-0.0045
X12.7492 Y2.8504 Z0.0934 I0.0022 J0.0045
X12.7447 Y2.8414 Z0.0929 I-0.0022 J-0.0045
X12.7492 Y2.8504 Z0.0923 I0.0022 J0.0045
X12.7447 Y2.8414 Z0.0918 I-0.0022 J-0.0045
X12.7492 Y2.8504 Z0.0912 I0.0022 J0.0045
X12.7447 Y2.8414 Z0.0907 I-0.0022 J-0.0045
X12.7492 Y2.8504 Z0.0901 I0.0022 J0.0045
X12.7447 Y2.8414 Z0.0896 I-0.0022 J-0.0045
X12.7492 Y2.8504 Z0.089 I0.0022 J0.0045
X12.7447 Y2.8414 Z0.0885 I-0.0022 J-0.0045
X12.7492 Y2.8504 Z0.0879 I0.0022 J0.0045
X12.7447 Y2.8414 Z0.0874 I-0.0022 J-0.0045
X12.7492 Y2.8504 Z0.0868 I0.0022 J0.0045
X12.7447 Y2.8414 Z0.0863 I-0.0022 J-0.0045
X12.7492 Y2.8504 Z0.0857 I0.0022 J0.0045
X12.7447 Y2.8414 Z0.0852 I-0.0022 J-0.0045
X12.7492 Y2.8504 Z0.0846 I0.0022 J0.0045
X12.7447 Y2.8414 Z0.0841 I-0.0022 J-0.0045
X12.7492 Y2.8504 Z0.0835 I0.0022 J0.0045
X12.7447 Y2.8414 Z0.083 I-0.0022 J-0.0045
X12.7492 Y2.8504 Z0.0824 I0.0022 J0.0045
X12.7447 Y2.8414 Z0.0819 I-0.0022 J-0.0045
X12.7492 Y2.8504 Z0.0813 I0.0022 J0.0045
X12.7447 Y2.8414 Z0.0808 I-0.0022 J-0.0045
X12.7492 Y2.8504 Z0.0803 I0.0022 J0.0045
X12.7447 Y2.8414 Z0.0797 I-0.0022 J-0.0045
X12.7492 Y2.8504 Z0.0792 I0.0022 J0.0045
X12.7447 Y2.8414 Z0.0786 I-0.0022 J-0.0045
X12.7492 Y2.8504 Z0.0781 I0.0022 J0.0045
X12.7447 Y2.8414 Z0.0775 I-0.0022 J-0.0045
X12.7492 Y2.8504 Z0.077 I0.0022 J0.0045
X12.7447 Y2.8414 Z0.0764 I-0.0022 J-0.0045
X12.7492 Y2.8504 Z0.0759 I0.0022 J0.0045
X12.7447 Y2.8414 Z0.0753 I-0.0022 J-0.0045
X12.7492 Y2.8504 Z0.0748 I0.0022 J0.0045
X12.7447 Y2.8414 Z0.0742 I-0.0022 J-0.0045
X12.7492 Y2.8504 Z0.0737 I0.0022 J0.0045
X12.7447 Y2.8414 Z0.0731 I-0.0022 J-0.0045
X12.7492 Y2.8504 Z0.0726 I0.0022 J0.0045
X12.7447 Y2.8414 Z0.072 I-0.0022 J-0.0045
X12.7492 Y2.8504 Z0.0715 I0.0022 J0.0045
X12.7447 Y2.8414 Z0.0709 I-0.0022 J-0.0045
X12.7492 Y2.8504 Z0.0704 I0.0022 J0.0045
X12.7447 Y2.8414 Z0.0698 I-0.0022 J-0.0045
X12.7492 Y2.8504 Z0.0693 I0.0022 J0.0045
X12.7447 Y2.8414 Z0.0687 I-0.0022 J-0.0045
X12.7492 Y2.8504 Z0.0682 I0.0022 J0.0045
X12.7447 Y2.8414 Z0.0676 I-0.0022 J-0.0045
X12.7492 Y2.8504 Z0.0671 I0.0022 J0.0045
X12.7447 Y2.8414 Z0.0665 I-0.0022 J-0.0045
X12.7492 Y2.8504 Z0.066 I0.0022 J0.0045
X12.7447 Y2.8414 Z0.0654 I-0.0022 J-0.0045
X12.7492 Y2.8504 Z0.0649 I0.0022 J0.0045
X12.7447 Y2.8414 Z0.0643 I-0.0022 J-0.0045
X12.7492 Y2.8504 Z0.0638 I0.0022 J0.0045
X12.7447 Y2.8414 Z0.0632 I-0.0022 J-0.0045
X12.7492 Y2.8504 Z0.0627 I0.0022 J0.0045
X12.7447 Y2.8414 Z0.0622 I-0.0022 J-0.0045
X12.7492 Y2.8504 Z0.0616 I0.0022 J0.0045
X12.7447 Y2.8414 Z0.0611 I-0.0022 J-0.0045
X12.7492 Y2.8504 Z0.0605 I0.0022 J0.0045
X12.7447 Y2.8414 Z0.06 I-0.0022 J-0.0045
X12.7492 Y2.8504 Z0.0594 I0.0022 J0.0045
X12.7447 Y2.8414 Z0.0589 I-0.0022 J-0.0045
X12.7492 Y2.8504 Z0.0583 I0.0022 J0.0045
X12.7447 Y2.8414 Z0.0578 I-0.0022 J-0.0045
X12.7492 Y2.8504 Z0.0572 I0.0022 J0.0045
X12.7447 Y2.8414 Z0.0567 I-0.0022 J-0.0045
X12.7492 Y2.8504 Z0.0561 I0.0022 J0.0045
X12.7447 Y2.8414 Z0.0556 I-0.0022 J-0.0045
X12.7492 Y2.8504 Z0.055 I0.0022 J0.0045
X12.7447 Y2.8414 Z0.0545 I-0.0022 J-0.0045
X12.7492 Y2.8504 Z0.0539 I0.0022 J0.0045
X12.7447 Y2.8414 Z0.0534 I-0.0022 J-0.0045
X12.7492 Y2.8504 Z0.0528 I0.0022 J0.0045
X12.7447 Y2.8414 Z0.0523 I-0.0022 J-0.0045
X12.7492 Y2.8504 Z0.0517 I0.0022 J0.0045
X12.7447 Y2.8414 Z0.0512 I-0.0022 J-0.0045
X12.7492 Y2.8504 Z0.0506 I0.0022 J0.0045
X12.7447 Y2.8414 Z0.0501 I-0.0022 J-0.0045
X12.7492 Y2.8504 Z0.0495 I0.0022 J0.0045
X12.7447 Y2.8414 Z0.049 I-0.0022 J-0.0045
X12.7492 Y2.8504 Z0.0484 I0.0022 J0.0045
X12.7447 Y2.8414 Z0.0479 I-0.0022 J-0.0045
X12.7492 Y2.8504 Z0.0473 I0.0022 J0.0045
X12.7447 Y2.8414 Z0.0468 I-0.0022 J-0.0045
X12.7492 Y2.8504 Z0.0462 I0.0022 J0.0045
X12.7447 Y2.8414 Z0.0457 I-0.0022 J-0.0045
X12.7492 Y2.8504 Z0.0451 I0.0022 J0.0045
X12.7447 Y2.8414 Z0.0446 I-0.0022 J-0.0045
X12.7492 Y2.8504 Z0.044 I0.0022 J0.0045
X12.7447 Y2.8414 Z0.0435 I-0.0022 J-0.0045
X12.7492 Y2.8504 Z0.043 I0.0022 J0.0045
X12.7447 Y2.8414 Z0.0424 I-0.0022 J-0.0045
X12.7492 Y2.8504 Z0.0419 I0.0022 J0.0045
X12.7447 Y2.8414 Z0.0413 I-0.0022 J-0.0045
X12.7492 Y2.8504 Z0.0408 I0.0022 J0.0045
X12.7447 Y2.8414 Z0.0402 I-0.0022 J-0.0045
X12.7492 Y2.8504 Z0.0397 I0.0022 J0.0045
X12.7447 Y2.8414 Z0.0391 I-0.0022 J-0.0045
X12.7492 Y2.8504 Z0.0386 I0.0022 J0.0045
X12.7447 Y2.8414 Z0.038 I-0.0022 J-0.0045
X12.7492 Y2.8504 Z0.0375 I0.0022 J0.0045
X12.7447 Y2.8414 Z0.0369 I-0.0022 J-0.0045
X12.7492 Y2.8504 Z0.0364 I0.0022 J0.0045
X12.7447 Y2.8414 Z0.0358 I-0.0022 J-0.0045
X12.7492 Y2.8504 Z0.0353 I0.0022 J0.0045
X12.7447 Y2.8414 Z0.0347 I-0.0022 J-0.0045
X12.7492 Y2.8504 Z0.0342 I0.0022 J0.0045
X12.7447 Y2.8414 Z0.0336 I-0.0022 J-0.0045
X12.7492 Y2.8504 Z0.0331 I0.0022 J0.0045
X12.7447 Y2.8414 Z0.0325 I-0.0022 J-0.0045
X12.7492 Y2.8504 Z0.032 I0.0022 J0.0045
X12.7447 Y2.8414 Z0.0314 I-0.0022 J-0.0045
X12.7492 Y2.8504 Z0.0309 I0.0022 J0.0045
X12.7447 Y2.8414 Z0.0303 I-0.0022 J-0.0045
X12.7492 Y2.8504 Z0.0298 I0.0022 J0.0045
X12.7447 Y2.8414 Z0.0292 I-0.0022 J-0.0045
X12.7492 Y2.8504 Z0.0287 I0.0022 J0.0045
X12.7447 Y2.8414 Z0.0281 I-0.0022 J-0.0045
X12.7492 Y2.8504 Z0.0276 I0.0022 J0.0045
X12.7447 Y2.8414 Z0.027 I-0.0022 J-0.0045
X12.7492 Y2.8504 Z0.0265 I0.0022 J0.0045
X12.7447 Y2.8414 Z0.0259 I-0.0022 J-0.0045
X12.7492 Y2.8504 Z0.0254 I0.0022 J0.0045
X12.7447 Y2.8414 Z0.0249 I-0.0022 J-0.0045
X12.7492 Y2.8504 Z0.0243 I0.0022 J0.0045
X12.7447 Y2.8414 Z0.0238 I-0.0022 J-0.0045
X12.7492 Y2.8504 Z0.0232 I0.0022 J0.0045
X12.7447 Y2.8414 Z0.0227 I-0.0022 J-0.0045
X12.7492 Y2.8504 Z0.0221 I0.0022 J0.0045
X12.7447 Y2.8414 Z0.0216 I-0.0022 J-0.0045
X12.7492 Y2.8504 Z0.021 I0.0022 J0.0045
X12.7447 Y2.8414 Z0.0205 I-0.0022 J-0.0045
X12.7492 Y2.8504 Z0.0199 I0.0022 J0.0045
X12.7447 Y2.8414 Z0.0194 I-0.0022 J-0.0045
X12.7492 Y2.8504 Z0.0188 I0.0022 J0.0045
X12.7447 Y2.8414 Z0.0183 I-0.0022 J-0.0045
X12.7492 Y2.8504 Z0.0177 I0.0022 J0.0045
X12.7447 Y2.8414 Z0.0172 I-0.0022 J-0.0045
X12.7492 Y2.8504 Z0.0166 I0.0022 J0.0045
X12.7447 Y2.8414 Z0.0161 I-0.0022 J-0.0045
X12.7492 Y2.8504 Z0.0155 I0.0022 J0.0045
X12.7447 Y2.8414 Z0.015 I-0.0022 J-0.0045
X12.7492 Y2.8504 Z0.0144 I0.0022 J0.0045
X12.7447 Y2.8414 Z0.0139 I-0.0022 J-0.0045
X12.7492 Y2.8504 Z0.0133 I0.0022 J0.0045
X12.7447 Y2.8414 Z0.0128 I-0.0022 J-0.0045
X12.7492 Y2.8504 Z0.0122 I0.0022 J0.0045
X12.7447 Y2.8414 Z0.0117 I-0.0022 J-0.0045
X12.7492 Y2.8504 Z0.0111 I0.0022 J0.0045
X12.7447 Y2.8414 Z0.0106 I-0.0022 J-0.0045
X12.7492 Y2.8504 Z0.01 I0.0022 J0.0045
X12.7447 Y2.8414 Z0.0095 I-0.0022 J-0.0045
X12.7492 Y2.8504 Z0.0089 I0.0022 J0.0045
X12.7447 Y2.8414 Z0.0084 I-0.0022 J-0.0045
X12.7492 Y2.8504 Z0.0078 I0.0022 J0.0045
X12.7447 Y2.8414 Z0.0073 I-0.0022 J-0.0045
X12.7492 Y2.8504 Z0.0067 I0.0022 J0.0045
X12.7447 Y2.8414 Z0.0062 I-0.0022 J-0.0045
X12.7492 Y2.8504 Z0.0057 I0.0022 J0.0045
X12.7447 Y2.8414 Z0.0051 I-0.0022 J-0.0045
X12.7492 Y2.8504 Z0.0046 I0.0022 J0.0045
X12.7447 Y2.8414 Z0.004 I-0.0022 J-0.0045
X12.7492 Y2.8504 Z0.0035 I0.0022 J0.0045
X12.7447 Y2.8414 Z0.0029 I-0.0022 J-0.0045
X12.7492 Y2.8504 Z0.0024 I0.0022 J0.0045
X12.7447 Y2.8414 Z0.0018 I-0.0022 J-0.0045
X12.7492 Y2.8504 Z0.0013 I0.0022 J0.0045
X12.7447 Y2.8414 Z0.0007 I-0.0022 J-0.0045
X12.7492 Y2.8504 Z0.0002 I0.0022 J0.0045
X12.7447 Y2.8414 Z-0.0004 I-0.0022 J-0.0045
X12.7492 Y2.8504 Z-0.0009 I0.0022 J0.0045
X12.7447 Y2.8414 Z-0.0015 I-0.0022 J-0.0045
X12.7492 Y2.8504 Z-0.002 I0.0022 J0.0045
X12.7447 Y2.8414 Z-0.0026 I-0.0022 J-0.0045
X12.7492 Y2.8504 Z-0.0031 I0.0022 J0.0045
X12.7447 Y2.8414 Z-0.0037 I-0.0022 J-0.0045
X12.7492 Y2.8504 Z-0.0042 I0.0022 J0.0045
X12.7447 Y2.8414 Z-0.0048 I-0.0022 J-0.0045
X12.7492 Y2.8504 Z-0.0053 I0.0022 J0.0045
X12.7447 Y2.8414 Z-0.0059 I-0.0022 J-0.0045
X12.7492 Y2.8504 Z-0.0064 I0.0022 J0.0045
X12.7447 Y2.8414 Z-0.007 I-0.0022 J-0.0045
X12.7492 Y2.8504 Z-0.0075 I0.0022 J0.0045
X12.7447 Y2.8414 Z-0.0081 I-0.0022 J-0.0045
X12.7492 Y2.8504 Z-0.0086 I0.0022 J0.0045
X12.7447 Y2.8414 Z-0.0092 I-0.0022 J-0.0045
X12.7492 Y2.8504 Z-0.0097 I0.0022 J0.0045
X12.7447 Y2.8414 Z-0.0103 I-0.0022 J-0.0045
X12.7492 Y2.8504 Z-0.0108 I0.0022 J0.0045
X12.7447 Y2.8414 Z-0.0114 I-0.0022 J-0.0045
X12.7492 Y2.8504 Z-0.0119 I0.0022 J0.0045
X12.7447 Y2.8414 Z-0.0124 I-0.0022 J-0.0045
X12.7492 Y2.8504 Z-0.013 I0.0022 J0.0045
X12.7447 Y2.8414 Z-0.0135 I-0.0022 J-0.0045
X12.7492 Y2.8504 Z-0.0141 I0.0022 J0.0045
X12.7447 Y2.8414 Z-0.0146 I-0.0022 J-0.0045
X12.7492 Y2.8504 Z-0.0152 I0.0022 J0.0045
X12.7447 Y2.8414 Z-0.0157 I-0.0022 J-0.0045
X12.7492 Y2.8504 Z-0.0163 I0.0022 J0.0045
X12.7447 Y2.8414 Z-0.0168 I-0.0022 J-0.0045
X12.7492 Y2.8504 Z-0.0174 I0.0022 J0.0045
X12.7447 Y2.8414 Z-0.0179 I-0.0022 J-0.0045
X12.7492 Y2.8504 Z-0.0185 I0.0022 J0.0045
X12.7447 Y2.8414 Z-0.019 I-0.0022 J-0.0045
X12.7492 Y2.8504 Z-0.0196 I0.0022 J0.0045
X12.7447 Y2.8414 Z-0.0201 I-0.0022 J-0.0045
X12.7492 Y2.8504 Z-0.0207 I0.0022 J0.0045
X12.7447 Y2.8414 Z-0.0212 I-0.0022 J-0.0045
X12.7492 Y2.8504 Z-0.0218 I0.0022 J0.0045
X12.7447 Y2.8414 Z-0.0223 I-0.0022 J-0.0045
X12.7492 Y2.8504 Z-0.0229 I0.0022 J0.0045
X12.7447 Y2.8414 Z-0.0234 I-0.0022 J-0.0045
X12.7492 Y2.8504 Z-0.024 I0.0022 J0.0045
X12.7447 Y2.8414 Z-0.0245 I-0.0022 J-0.0045
X12.7492 Y2.8504 Z-0.0251 I0.0022 J0.0045
X12.7447 Y2.8414 Z-0.0256 I-0.0022 J-0.0045
X12.7492 Y2.8504 Z-0.0262 I0.0022 J0.0045
X12.7447 Y2.8414 Z-0.0267 I-0.0022 J-0.0045
X12.7492 Y2.8504 Z-0.0273 I0.0022 J0.0045
X12.7447 Y2.8414 Z-0.0278 I-0.0022 J-0.0045
X12.7492 Y2.8504 Z-0.0284 I0.0022 J0.0045
X12.7447 Y2.8414 Z-0.0289 I-0.0022 J-0.0045
X12.7492 Y2.8504 Z-0.0295 I0.0022 J0.0045
X12.7447 Y2.8414 Z-0.03 I-0.0022 J-0.0045
X12.7492 Y2.8504 Z-0.0306 I0.0022 J0.0045
X12.7447 Y2.8414 Z-0.0311 I-0.0022 J-0.0045
X12.7492 Y2.8504 Z-0.0316 I0.0022 J0.0045
X12.7447 Y2.8414 Z-0.0322 I-0.0022 J-0.0045
X12.7492 Y2.8504 Z-0.0327 I0.0022 J0.0045
X12.7447 Y2.8414 Z-0.0333 I-0.0022 J-0.0045
X12.7492 Y2.8504 Z-0.0338 I0.0022 J0.0045
X12.7447 Y2.8414 Z-0.0344 I-0.0022 J-0.0045
X12.7492 Y2.8504 Z-0.0349 I0.0022 J0.0045
X12.7447 Y2.8414 Z-0.0355 I-0.0022 J-0.0045
X12.7492 Y2.8504 Z-0.036 I0.0022 J0.0045
X12.7447 Y2.8414 Z-0.0366 I-0.0022 J-0.0045
X12.7492 Y2.8504 Z-0.0371 I0.0022 J0.0045
X12.7447 Y2.8414 Z-0.0377 I-0.0022 J-0.0045
X12.7492 Y2.8504 Z-0.0382 I0.0022 J0.0045
X12.7447 Y2.8414 Z-0.0388 I-0.0022 J-0.0045
X12.7492 Y2.8504 Z-0.0393 I0.0022 J0.0045
X12.7447 Y2.8414 Z-0.0399 I-0.0022 J-0.0045
X12.7492 Y2.8504 Z-0.0404 I0.0022 J0.0045
X12.7447 Y2.8414 Z-0.041 I-0.0022 J-0.0045
X12.7492 Y2.8504 Z-0.0415 I0.0022 J0.0045
X12.7447 Y2.8414 Z-0.0421 I-0.0022 J-0.0045
X12.7492 Y2.8504 Z-0.0426 I0.0022 J0.0045
X12.7447 Y2.8414 Z-0.0432 I-0.0022 J-0.0045
X12.7492 Y2.8504 Z-0.0437 I0.0022 J0.0045
X12.7447 Y2.8414 Z-0.0443 I-0.0022 J-0.0045
X12.7492 Y2.8504 Z-0.0448 I0.0022 J0.0045
X12.7447 Y2.8414 Z-0.0454 I-0.0022 J-0.0045
X12.7492 Y2.8504 Z-0.0459 I0.0022 J0.0045
X12.7447 Y2.8414 Z-0.0465 I-0.0022 J-0.0045
X12.7492 Y2.8504 Z-0.047 I0.0022 J0.0045
X12.7447 Y2.8414 Z-0.0476 I-0.0022 J-0.0045
X12.7492 Y2.8504 Z-0.0481 I0.0022 J0.0045
X12.7447 Y2.8414 Z-0.0487 I-0.0022 J-0.0045
X12.7492 Y2.8504 Z-0.0492 I0.0022 J0.0045
X12.7447 Y2.8414 Z-0.0497 I-0.0022 J-0.0045
X12.7492 Y2.8504 Z-0.0503 I0.0022 J0.0045
X12.7447 Y2.8414 Z-0.0508 I-0.0022 J-0.0045
X12.7492 Y2.8504 Z-0.0514 I0.0022 J0.0045
X12.7447 Y2.8414 Z-0.0519 I-0.0022 J-0.0045
X12.7492 Y2.8504 Z-0.0525 I0.0022 J0.0045
X12.7447 Y2.8414 Z-0.053 I-0.0022 J-0.0045
X12.7492 Y2.8504 Z-0.0536 I0.0022 J0.0045
X12.7447 Y2.8414 Z-0.0541 I-0.0022 J-0.0045
X12.7492 Y2.8504 Z-0.0547 I0.0022 J0.0045
X12.7447 Y2.8414 Z-0.0552 I-0.0022 J-0.0045
X12.7492 Y2.8504 Z-0.0558 I0.0022 J0.0045
X12.7447 Y2.8414 Z-0.0563 I-0.0022 J-0.0045
X12.7492 Y2.8504 Z-0.0569 I0.0022 J0.0045
X12.7447 Y2.8414 Z-0.0574 I-0.0022 J-0.0045
X12.7492 Y2.8504 Z-0.058 I0.0022 J0.0045
X12.7447 Y2.8414 Z-0.0585 I-0.0022 J-0.0045
X12.7492 Y2.8504 Z-0.0591 I0.0022 J0.0045
X12.7447 Y2.8414 Z-0.0596 I-0.0022 J-0.0045
X12.7492 Y2.8504 Z-0.0602 I0.0022 J0.0045
X12.7447 Y2.8414 Z-0.0607 I-0.0022 J-0.0045
X12.7492 Y2.8504 Z-0.0613 I0.0022 J0.0045
X12.7447 Y2.8414 Z-0.0618 I-0.0022 J-0.0045
X12.7492 Y2.8504 Z-0.0624 I0.0022 J0.0045
X12.7447 Y2.8414 Z-0.0629 I-0.0022 J-0.0045
X12.7492 Y2.8504 Z-0.0635 I0.0022 J0.0045
X12.7447 Y2.8414 Z-0.064 I-0.0022 J-0.0045
X12.7492 Y2.8504 Z-0.0646 I0.0022 J0.0045
X12.7447 Y2.8414 Z-0.0651 I-0.0022 J-0.0045
X12.7492 Y2.8504 Z-0.0657 I0.0022 J0.0045
X12.7447 Y2.8414 Z-0.0662 I-0.0022 J-0.0045
X12.7492 Y2.8504 Z-0.0668 I0.0022 J0.0045
X12.7447 Y2.8414 Z-0.0673 I-0.0022 J-0.0045
X12.7492 Y2.8504 Z-0.0679 I0.0022 J0.0045
X12.7447 Y2.8414 Z-0.0684 I-0.0022 J-0.0045
X12.7492 Y2.8504 Z-0.0689 I0.0022 J0.0045
X12.7447 Y2.8414 Z-0.0695 I-0.0022 J-0.0045
X12.7492 Y2.8504 Z-0.07 I0.0022 J0.0045
X12.7447 Y2.8414 Z-0.0706 I-0.0022 J-0.0045
X12.7492 Y2.8504 Z-0.0711 I0.0022 J0.0045
X12.7447 Y2.8414 Z-0.0717 I-0.0022 J-0.0045
X12.7492 Y2.8504 Z-0.0722 I0.0022 J0.0045
X12.7447 Y2.8414 Z-0.0728 I-0.0022 J-0.0045
X12.7492 Y2.8504 Z-0.0733 I0.0022 J0.0045
X12.7447 Y2.8414 Z-0.0739 I-0.0022 J-0.0045
X12.7492 Y2.8504 Z-0.0744 I0.0022 J0.0045
X12.7447 Y2.8414 Z-0.075 I-0.0022 J-0.0045
X12.7492 Y2.8504 Z-0.0755 I0.0022 J0.0045
X12.7447 Y2.8414 Z-0.0761 I-0.0022 J-0.0045
X12.7492 Y2.8504 Z-0.0766 I0.0022 J0.0045
X12.7447 Y2.8414 Z-0.0772 I-0.0022 J-0.0045
X12.7492 Y2.8504 Z-0.0777 I0.0022 J0.0045
X12.7447 Y2.8414 Z-0.0783 I-0.0022 J-0.0045
X12.7492 Y2.8504 Z-0.0788 I0.0022 J0.0045
X12.7447 Y2.8414 Z-0.0794 I-0.0022 J-0.0045
X12.7492 Y2.8504 Z-0.0799 I0.0022 J0.0045
X12.747 Y2.8509 Z-0.08 I-0.0022 J-0.0045
Y2.8329 I0. J-0.009 F40.
Y2.8509 I0. J0.009
Y2.8329 Z-0.081 I0. J-0.009 F20.
Y2.8509 Z-0.082 I0. J0.009
Y2.8329 Z-0.083 I0. J-0.009
Y2.8509 Z-0.0839 I0. J0.009
Y2.8329 Z-0.0849 I0. J-0.009
Y2.8509 Z-0.0859 I0. J0.009
Y2.8329 Z-0.0869 I0. J-0.009
Y2.8509 Z-0.0879 I0. J0.009
Y2.8329 Z-0.0889 I0. J-0.009
Y2.8509 Z-0.0899 I0. J0.009
Y2.8329 Z-0.0909 I0. J-0.009
Y2.8509 Z-0.0918 I0. J0.009
Y2.8329 Z-0.0928 I0. J-0.009
Y2.8509 Z-0.0938 I0. J0.009
Y2.8329 Z-0.0948 I0. J-0.009
Y2.8509 Z-0.0958 I0. J0.009
Y2.8329 Z-0.0968 I0. J-0.009
Y2.8509 Z-0.0978 I0. J0.009
Y2.8329 Z-0.0987 I0. J-0.009
Y2.8509 Z-0.0997 I0. J0.009
Y2.8329 Z-0.1007 I0. J-0.009
Y2.8509 Z-0.1017 I0. J0.009
Y2.8329 Z-0.1027 I0. J-0.009
Y2.8509 Z-0.1037 I0. J0.009
Y2.8329 Z-0.1047 I0. J-0.009
Y2.8509 Z-0.1056 I0. J0.009
Y2.8329 Z-0.1066 I0. J-0.009
Y2.8509 Z-0.1076 I0. J0.009
Y2.8329 Z-0.1086 I0. J-0.009
Y2.8509 Z-0.1096 I0. J0.009
Y2.8329 Z-0.1106 I0. J-0.009
Y2.8509 Z-0.1116 I0. J0.009
Y2.8329 Z-0.1126 I0. J-0.009
Y2.8509 Z-0.1135 I0. J0.009
Y2.8329 Z-0.1145 I0. J-0.009
Y2.8509 Z-0.1155 I0. J0.009
Y2.8329 Z-0.1165 I0. J-0.009
Y2.8509 Z-0.1175 I0. J0.009
Y2.8329 Z-0.1185 I0. J-0.009
Y2.8509 Z-0.1195 I0. J0.009
Y2.8329 Z-0.1204 I0. J-0.009
Y2.8509 Z-0.1214 I0. J0.009
Y2.8329 Z-0.1224 I0. J-0.009
Y2.8509 Z-0.1234 I0. J0.009
Y2.8329 Z-0.1244 I0. J-0.009
Y2.8509 Z-0.1254 I0. J0.009
Y2.8329 Z-0.1264 I0. J-0.009
Y2.8509 Z-0.1274 I0. J0.009
Y2.8329 Z-0.1283 I0. J-0.009
Y2.8509 Z-0.1293 I0. J0.009
Y2.8329 Z-0.1303 I0. J-0.009
Y2.8509 Z-0.1313 I0. J0.009
Y2.8329 Z-0.1323 I0. J-0.009
Y2.8509 Z-0.1333 I0. J0.009
Y2.8329 Z-0.1343 I0. J-0.009
Y2.8509 Z-0.1352 I0. J0.009
Y2.8329 Z-0.1362 I0. J-0.009
Y2.8509 Z-0.1372 I0. J0.009
Y2.8329 Z-0.1382 I0. J-0.009
Y2.8509 Z-0.1392 I0. J0.009
Y2.8329 Z-0.1402 I0. J-0.009
Y2.8509 Z-0.1412 I0. J0.009
Y2.8329 Z-0.1421 I0. J-0.009
Y2.8509 Z-0.1431 I0. J0.009
Y2.8329 Z-0.1441 I0. J-0.009
Y2.8509 Z-0.1451 I0. J0.009
Y2.8329 Z-0.1461 I0. J-0.009
Y2.8509 Z-0.1471 I0. J0.009
Y2.8329 Z-0.1481 I0. J-0.009
Y2.8509 Z-0.1491 I0. J0.009
Y2.8329 Z-0.15 I0. J-0.009
Y2.8509 Z-0.151 I0. J0.009
Y2.8329 Z-0.152 I0. J-0.009
Y2.8509 Z-0.153 I0. J0.009
Y2.8329 Z-0.154 I0. J-0.009
Y2.8509 Z-0.155 I0. J0.009
Y2.8329 Z-0.156 I0. J-0.009
Y2.8509 Z-0.1569 I0. J0.009
Y2.8329 Z-0.1579 I0. J-0.009
Y2.8509 Z-0.1589 I0. J0.009
X12.7381 Y2.8406 Z-0.1595 I0. J-0.009
X12.7496 Y2.8333 Z-0.16 I0.0089 J0.0013
X12.7443 Y2.8505 I-0.0026 J0.0086 F40.
X12.7496 Y2.8333 I0.0026 J-0.0086
X12.7443 Y2.8505 Z-0.161 I-0.0026 J0.0086 F20.
X12.7496 Y2.8333 Z-0.162 I0.0026 J-0.0086
X12.7443 Y2.8505 Z-0.163 I-0.0026 J0.0086
X12.7496 Y2.8333 Z-0.1639 I0.0026 J-0.0086
X12.7443 Y2.8505 Z-0.1649 I-0.0026 J0.0086
X12.7496 Y2.8333 Z-0.1659 I0.0026 J-0.0086
X12.7443 Y2.8505 Z-0.1669 I-0.0026 J0.0086
X12.7496 Y2.8333 Z-0.1679 I0.0026 J-0.0086
X12.7443 Y2.8505 Z-0.1689 I-0.0026 J0.0086
X12.7496 Y2.8333 Z-0.1699 I0.0026 J-0.0086
X12.7443 Y2.8505 Z-0.1709 I-0.0026 J0.0086
X12.7496 Y2.8333 Z-0.1718 I0.0026 J-0.0086
X12.7443 Y2.8505 Z-0.1728 I-0.0026 J0.0086
X12.7496 Y2.8333 Z-0.1738 I0.0026 J-0.0086
X12.7443 Y2.8505 Z-0.1748 I-0.0026 J0.0086
X12.7496 Y2.8333 Z-0.1758 I0.0026 J-0.0086
X12.7443 Y2.8505 Z-0.1768 I-0.0026 J0.0086
X12.7496 Y2.8333 Z-0.1778 I0.0026 J-0.0086
X12.7443 Y2.8505 Z-0.1787 I-0.0026 J0.0086
X12.7496 Y2.8333 Z-0.1797 I0.0026 J-0.0086
X12.7443 Y2.8505 Z-0.1807 I-0.0026 J0.0086
X12.7496 Y2.8333 Z-0.1817 I0.0026 J-0.0086
X12.7443 Y2.8505 Z-0.1827 I-0.0026 J0.0086
X12.7496 Y2.8333 Z-0.1837 I0.0026 J-0.0086
X12.7443 Y2.8505 Z-0.1847 I-0.0026 J0.0086
X12.7496 Y2.8333 Z-0.1856 I0.0026 J-0.0086
X12.7443 Y2.8505 Z-0.1866 I-0.0026 J0.0086
X12.7496 Y2.8333 Z-0.1876 I0.0026 J-0.0086
X12.7443 Y2.8505 Z-0.1886 I-0.0026 J0.0086
X12.7496 Y2.8333 Z-0.1896 I0.0026 J-0.0086
X12.7443 Y2.8505 Z-0.1906 I-0.0026 J0.0086
X12.7496 Y2.8333 Z-0.1916 I0.0026 J-0.0086
X12.7443 Y2.8505 Z-0.1926 I-0.0026 J0.0086
X12.7496 Y2.8333 Z-0.1935 I0.0026 J-0.0086
X12.7443 Y2.8505 Z-0.1945 I-0.0026 J0.0086
X12.7496 Y2.8333 Z-0.1955 I0.0026 J-0.0086
X12.7443 Y2.8505 Z-0.1965 I-0.0026 J0.0086
X12.7496 Y2.8333 Z-0.1975 I0.0026 J-0.0086
X12.7443 Y2.8505 Z-0.1985 I-0.0026 J0.0086
X12.7496 Y2.8333 Z-0.1995 I0.0026 J-0.0086
X12.7443 Y2.8505 Z-0.2004 I-0.0026 J0.0086
X12.7496 Y2.8333 Z-0.2014 I0.0026 J-0.0086
X12.7443 Y2.8505 Z-0.2024 I-0.0026 J0.0086
X12.7496 Y2.8333 Z-0.2034 I0.0026 J-0.0086
X12.7443 Y2.8505 Z-0.2044 I-0.0026 J0.0086
X12.7496 Y2.8333 Z-0.2054 I0.0026 J-0.0086
X12.7443 Y2.8505 Z-0.2064 I-0.0026 J0.0086
X12.7496 Y2.8333 Z-0.2074 I0.0026 J-0.0086
X12.7443 Y2.8505 Z-0.2083 I-0.0026 J0.0086
X12.7496 Y2.8333 Z-0.2093 I0.0026 J-0.0086
X12.7443 Y2.8505 Z-0.2103 I-0.0026 J0.0086
X12.7496 Y2.8333 Z-0.2113 I0.0026 J-0.0086
X12.7443 Y2.8505 Z-0.2123 I-0.0026 J0.0086
X12.7496 Y2.8333 Z-0.2133 I0.0026 J-0.0086
X12.7443 Y2.8505 Z-0.2143 I-0.0026 J0.0086
X12.7496 Y2.8333 Z-0.2152 I0.0026 J-0.0086
X12.7443 Y2.8505 Z-0.2162 I-0.0026 J0.0086
X12.7496 Y2.8333 Z-0.2172 I0.0026 J-0.0086
X12.7443 Y2.8505 Z-0.2182 I-0.0026 J0.0086
X12.7496 Y2.8333 Z-0.2192 I0.0026 J-0.0086
X12.7443 Y2.8505 Z-0.2202 I-0.0026 J0.0086
X12.7496 Y2.8333 Z-0.2212 I0.0026 J-0.0086
X12.7443 Y2.8505 Z-0.2221 I-0.0026 J0.0086
X12.7496 Y2.8333 Z-0.2231 I0.0026 J-0.0086
X12.7443 Y2.8505 Z-0.2241 I-0.0026 J0.0086
X12.7496 Y2.8333 Z-0.2251 I0.0026 J-0.0086
X12.7443 Y2.8505 Z-0.2261 I-0.0026 J0.0086
X12.7496 Y2.8333 Z-0.2271 I0.0026 J-0.0086
X12.7443 Y2.8505 Z-0.2281 I-0.0026 J0.0086
X12.7496 Y2.8333 Z-0.2291 I0.0026 J-0.0086
X12.7443 Y2.8505 Z-0.23 I-0.0026 J0.0086
X12.7496 Y2.8333 Z-0.231 I0.0026 J-0.0086
X12.7443 Y2.8505 Z-0.232 I-0.0026 J0.0086
X12.7496 Y2.8333 Z-0.233 I0.0026 J-0.0086
X12.7443 Y2.8505 Z-0.234 I-0.0026 J0.0086
X12.7496 Y2.8333 Z-0.235 I0.0026 J-0.0086
X12.7443 Y2.8505 Z-0.236 I-0.0026 J0.0086
X12.7496 Y2.8333 Z-0.2369 I0.0026 J-0.0086
X12.7443 Y2.8505 Z-0.2379 I-0.0026 J0.0086
X12.7496 Y2.8333 Z-0.2389 I0.0026 J-0.0086
X12.7551 Y2.8458 Z-0.2395 I-0.0026 J0.0086
X12.7419 Y2.8493 Z-0.24 I-0.0081 J-0.0039
X12.752 Y2.8345 I0.0051 J-0.0074 F40.
X12.7419 Y2.8493 I-0.0051 J0.0074
X12.752 Y2.8345 Z-0.241 I0.0051 J-0.0074 F20.
X12.7419 Y2.8493 Z-0.242 I-0.0051 J0.0074
X12.752 Y2.8345 Z-0.243 I0.0051 J-0.0074
X12.7419 Y2.8493 Z-0.2439 I-0.0051 J0.0074
X12.752 Y2.8345 Z-0.2449 I0.0051 J-0.0074
X12.7419 Y2.8493 Z-0.2459 I-0.0051 J0.0074
X12.752 Y2.8345 Z-0.2469 I0.0051 J-0.0074
X12.7419 Y2.8493 Z-0.2479 I-0.0051 J0.0074
X12.752 Y2.8345 Z-0.2489 I0.0051 J-0.0074
X12.7419 Y2.8493 Z-0.2499 I-0.0051 J0.0074
X12.752 Y2.8345 Z-0.2509 I0.0051 J-0.0074
X12.7419 Y2.8493 Z-0.2518 I-0.0051 J0.0074
X12.752 Y2.8345 Z-0.2528 I0.0051 J-0.0074
X12.7419 Y2.8493 Z-0.2538 I-0.0051 J0.0074
X12.752 Y2.8345 Z-0.2548 I0.0051 J-0.0074
X12.7419 Y2.8493 Z-0.2558 I-0.0051 J0.0074
X12.752 Y2.8345 Z-0.2568 I0.0051 J-0.0074
X12.7419 Y2.8493 Z-0.2578 I-0.0051 J0.0074
X12.752 Y2.8345 Z-0.2587 I0.0051 J-0.0074
X12.7419 Y2.8493 Z-0.2597 I-0.0051 J0.0074
X12.752 Y2.8345 Z-0.2607 I0.0051 J-0.0074
X12.7419 Y2.8493 Z-0.2617 I-0.0051 J0.0074
X12.752 Y2.8345 Z-0.2627 I0.0051 J-0.0074
X12.7419 Y2.8493 Z-0.2637 I-0.0051 J0.0074
X12.752 Y2.8345 Z-0.2647 I0.0051 J-0.0074
X12.7419 Y2.8493 Z-0.2656 I-0.0051 J0.0074
X12.752 Y2.8345 Z-0.2666 I0.0051 J-0.0074
X12.7419 Y2.8493 Z-0.2676 I-0.0051 J0.0074
X12.752 Y2.8345 Z-0.2686 I0.0051 J-0.0074
X12.7419 Y2.8493 Z-0.2696 I-0.0051 J0.0074
X12.752 Y2.8345 Z-0.2706 I0.0051 J-0.0074
X12.7419 Y2.8493 Z-0.2716 I-0.0051 J0.0074
X12.752 Y2.8345 Z-0.2726 I0.0051 J-0.0074
X12.7419 Y2.8493 Z-0.2735 I-0.0051 J0.0074
X12.752 Y2.8345 Z-0.2745 I0.0051 J-0.0074
X12.7419 Y2.8493 Z-0.2755 I-0.0051 J0.0074
X12.752 Y2.8345 Z-0.2765 I0.0051 J-0.0074
X12.7419 Y2.8493 Z-0.2775 I-0.0051 J0.0074
X12.752 Y2.8345 Z-0.2785 I0.0051 J-0.0074
X12.7419 Y2.8493 Z-0.2795 I-0.0051 J0.0074
X12.752 Y2.8345 Z-0.2804 I0.0051 J-0.0074
X12.7419 Y2.8493 Z-0.2814 I-0.0051 J0.0074
X12.752 Y2.8345 Z-0.2824 I0.0051 J-0.0074
X12.7419 Y2.8493 Z-0.2834 I-0.0051 J0.0074
X12.752 Y2.8345 Z-0.2844 I0.0051 J-0.0074
X12.7419 Y2.8493 Z-0.2854 I-0.0051 J0.0074
X12.752 Y2.8345 Z-0.2864 I0.0051 J-0.0074
X12.7419 Y2.8493 Z-0.2874 I-0.0051 J0.0074
X12.752 Y2.8345 Z-0.2883 I0.0051 J-0.0074
X12.7419 Y2.8493 Z-0.2893 I-0.0051 J0.0074
X12.752 Y2.8345 Z-0.2903 I0.0051 J-0.0074
X12.7419 Y2.8493 Z-0.2913 I-0.0051 J0.0074
X12.752 Y2.8345 Z-0.2923 I0.0051 J-0.0074
X12.7419 Y2.8493 Z-0.2933 I-0.0051 J0.0074
X12.752 Y2.8345 Z-0.2943 I0.0051 J-0.0074
X12.7419 Y2.8493 Z-0.2952 I-0.0051 J0.0074
X12.752 Y2.8345 Z-0.2962 I0.0051 J-0.0074
X12.7419 Y2.8493 Z-0.2972 I-0.0051 J0.0074
X12.752 Y2.8345 Z-0.2982 I0.0051 J-0.0074
X12.7419 Y2.8493 Z-0.2992 I-0.0051 J0.0074
X12.752 Y2.8345 Z-0.3002 I0.0051 J-0.0074
X12.7419 Y2.8493 Z-0.3012 I-0.0051 J0.0074
X12.752 Y2.8345 Z-0.3021 I0.0051 J-0.0074
X12.7419 Y2.8493 Z-0.3031 I-0.0051 J0.0074
X12.752 Y2.8345 Z-0.3041 I0.0051 J-0.0074
X12.7419 Y2.8493 Z-0.3051 I-0.0051 J0.0074
X12.752 Y2.8345 Z-0.3061 I0.0051 J-0.0074
X12.7419 Y2.8493 Z-0.3071 I-0.0051 J0.0074
X12.752 Y2.8345 Z-0.3081 I0.0051 J-0.0074
X12.7419 Y2.8493 Z-0.3091 I-0.0051 J0.0074
X12.752 Y2.8345 Z-0.31 I0.0051 J-0.0074
X12.7419 Y2.8493 Z-0.311 I-0.0051 J0.0074
X12.752 Y2.8345 Z-0.312 I0.0051 J-0.0074
X12.7419 Y2.8493 Z-0.313 I-0.0051 J0.0074
X12.752 Y2.8345 Z-0.314 I0.0051 J-0.0074
X12.7419 Y2.8493 Z-0.315 I-0.0051 J0.0074
X12.752 Y2.8345 Z-0.316 I0.0051 J-0.0074
X12.7419 Y2.8493 Z-0.3169 I-0.0051 J0.0074
X12.752 Y2.8345 Z-0.3179 I0.0051 J-0.0074
X12.7419 Y2.8493 Z-0.3189 I-0.0051 J0.0074
X12.7404 Y2.8358 Z-0.3195 I0.0051 J-0.0074
X12.754 Y2.8363 Z-0.32 I0.0066 J0.0061
X12.74 Y2.8475 I-0.007 J0.0056 F40.
X12.754 Y2.8363 I0.007 J-0.0056
X12.74 Y2.8475 Z-0.321 I-0.007 J0.0056 F20.
X12.754 Y2.8363 Z-0.322 I0.007 J-0.0056
X12.74 Y2.8475 Z-0.323 I-0.007 J0.0056
X12.754 Y2.8363 Z-0.3239 I0.007 J-0.0056
X12.74 Y2.8475 Z-0.3249 I-0.007 J0.0056
X12.754 Y2.8363 Z-0.3259 I0.007 J-0.0056
X12.74 Y2.8475 Z-0.3269 I-0.007 J0.0056
X12.754 Y2.8363 Z-0.3279 I0.007 J-0.0056
X12.74 Y2.8475 Z-0.3289 I-0.007 J0.0056
X12.754 Y2.8363 Z-0.3299 I0.007 J-0.0056
X12.74 Y2.8475 Z-0.3309 I-0.007 J0.0056
X12.754 Y2.8363 Z-0.3318 I0.007 J-0.0056
X12.74 Y2.8475 Z-0.3328 I-0.007 J0.0056
X12.754 Y2.8363 Z-0.3338 I0.007 J-0.0056
X12.74 Y2.8475 Z-0.3348 I-0.007 J0.0056
X12.754 Y2.8363 Z-0.3358 I0.007 J-0.0056
X12.74 Y2.8475 Z-0.3368 I-0.007 J0.0056
X12.754 Y2.8363 Z-0.3378 I0.007 J-0.0056
X12.74 Y2.8475 Z-0.3387 I-0.007 J0.0056
X12.754 Y2.8363 Z-0.3397 I0.007 J-0.0056
X12.74 Y2.8475 Z-0.3407 I-0.007 J0.0056
X12.754 Y2.8363 Z-0.3417 I0.007 J-0.0056
X12.74 Y2.8475 Z-0.3427 I-0.007 J0.0056
X12.754 Y2.8363 Z-0.3437 I0.007 J-0.0056
X12.74 Y2.8475 Z-0.3447 I-0.007 J0.0056
X12.754 Y2.8363 Z-0.3456 I0.007 J-0.0056
X12.74 Y2.8475 Z-0.3466 I-0.007 J0.0056
X12.754 Y2.8363 Z-0.3476 I0.007 J-0.0056
X12.74 Y2.8475 Z-0.3486 I-0.007 J0.0056
X12.754 Y2.8363 Z-0.3496 I0.007 J-0.0056
X12.74 Y2.8475 Z-0.3506 I-0.007 J0.0056
X12.754 Y2.8363 Z-0.3516 I0.007 J-0.0056
X12.7419 Y2.8493 Z-0.3525 I-0.007 J0.0056
X12.752 Y2.8345 I0.0051 J-0.0074 F40.
X12.7419 Y2.8493 I-0.0051 J0.0074
G1 X12.7407 Y2.8483 Z-0.3521
X12.7396 Y2.8471 Z-0.3518
X12.7388 Y2.8457 Z-0.3514
X12.7382 Y2.8439 Z-0.35
X12.738 Y2.8419 Z-0.3486
X12.7383 Y2.8397 Z-0.3449
X12.7385 Y2.8389 Z-0.3407
G0 Z0.2
X11.8482 Y2.7782
G1 Z0.1118 F40.
X11.8488 Y2.7785 Z0.1079 F20.
X11.8495 Y2.7791 Z0.1061
X11.8502 Y2.7798 Z0.1044
X11.8508 Y2.7809 Z0.1033
X11.8512 Y2.7822 Z0.1023
Y2.7835 Z0.1012
X11.8507 Y2.785 Z0.1008
X11.8497 Y2.7863 Z0.1004
X11.8484 Y2.7873 Z0.1
G3 X11.844 Y2.7783 Z0.0995 I-0.0022 J-0.0045
X11.8484 Y2.7873 Z0.0989 I0.0022 J0.0045
X11.844 Y2.7783 Z0.0984 I-0.0022 J-0.0045
X11.8484 Y2.7873 Z0.0978 I0.0022 J0.0045
X11.844 Y2.7783 Z0.0973 I-0.0022 J-0.0045
X11.8484 Y2.7873 Z0.0967 I0.0022 J0.0045
X11.844 Y2.7783 Z0.0962 I-0.0022 J-0.0045
X11.8484 Y2.7873 Z0.0956 I0.0022 J0.0045
X11.844 Y2.7783 Z0.0951 I-0.0022 J-0.0045
X11.8484 Y2.7873 Z0.0945 I0.0022 J0.0045
X11.844 Y2.7783 Z0.094 I-0.0022 J-0.0045
X11.8484 Y2.7873 Z0.0934 I0.0022 J0.0045
X11.844 Y2.7783 Z0.0929 I-0.0022 J-0.0045
X11.8484 Y2.7873 Z0.0923 I0.0022 J0.0045
X11.844 Y2.7783 Z0.0918 I-0.0022 J-0.0045
X11.8484 Y2.7873 Z0.0912 I0.0022 J0.0045
X11.844 Y2.7783 Z0.0907 I-0.0022 J-0.0045
X11.8484 Y2.7873 Z0.0901 I0.0022 J0.0045
X11.844 Y2.7783 Z0.0896 I-0.0022 J-0.0045
X11.8484 Y2.7873 Z0.089 I0.0022 J0.0045
X11.844 Y2.7783 Z0.0885 I-0.0022 J-0.0045
X11.8484 Y2.7873 Z0.0879 I0.0022 J0.0045
X11.844 Y2.7783 Z0.0874 I-0.0022 J-0.0045
X11.8484 Y2.7873 Z0.0868 I0.0022 J0.0045
X11.844 Y2.7783 Z0.0863 I-0.0022 J-0.0045
X11.8484 Y2.7873 Z0.0857 I0.0022 J0.0045
X11.844 Y2.7783 Z0.0852 I-0.0022 J-0.0045
X11.8484 Y2.7873 Z0.0846 I0.0022 J0.0045
X11.844 Y2.7783 Z0.0841 I-0.0022 J-0.0045
X11.8484 Y2.7873 Z0.0835 I0.0022 J0.0045
X11.844 Y2.7783 Z0.083 I-0.0022 J-0.0045
X11.8484 Y2.7873 Z0.0824 I0.0022 J0.0045
X11.844 Y2.7783 Z0.0819 I-0.0022 J-0.0045
X11.8484 Y2.7873 Z0.0813 I0.0022 J0.0045
X11.844 Y2.7783 Z0.0808 I-0.0022 J-0.0045
X11.8484 Y2.7873 Z0.0803 I0.0022 J0.0045
X11.844 Y2.7783 Z0.0797 I-0.0022 J-0.0045
X11.8484 Y2.7873 Z0.0792 I0.0022 J0.0045
X11.844 Y2.7783 Z0.0786 I-0.0022 J-0.0045
X11.8484 Y2.7873 Z0.0781 I0.0022 J0.0045
X11.844 Y2.7783 Z0.0775 I-0.0022 J-0.0045
X11.8484 Y2.7873 Z0.077 I0.0022 J0.0045
X11.844 Y2.7783 Z0.0764 I-0.0022 J-0.0045
X11.8484 Y2.7873 Z0.0759 I0.0022 J0.0045
X11.844 Y2.7783 Z0.0753 I-0.0022 J-0.0045
X11.8484 Y2.7873 Z0.0748 I0.0022 J0.0045
X11.844 Y2.7783 Z0.0742 I-0.0022 J-0.0045
X11.8484 Y2.7873 Z0.0737 I0.0022 J0.0045
X11.844 Y2.7783 Z0.0731 I-0.0022 J-0.0045
X11.8484 Y2.7873 Z0.0726 I0.0022 J0.0045
X11.844 Y2.7783 Z0.072 I-0.0022 J-0.0045
X11.8484 Y2.7873 Z0.0715 I0.0022 J0.0045
X11.844 Y2.7783 Z0.0709 I-0.0022 J-0.0045
X11.8484 Y2.7873 Z0.0704 I0.0022 J0.0045
X11.844 Y2.7783 Z0.0698 I-0.0022 J-0.0045
X11.8484 Y2.7873 Z0.0693 I0.0022 J0.0045
X11.844 Y2.7783 Z0.0687 I-0.0022 J-0.0045
X11.8484 Y2.7873 Z0.0682 I0.0022 J0.0045
X11.844 Y2.7783 Z0.0676 I-0.0022 J-0.0045
X11.8484 Y2.7873 Z0.0671 I0.0022 J0.0045
X11.844 Y2.7783 Z0.0665 I-0.0022 J-0.0045
X11.8484 Y2.7873 Z0.066 I0.0022 J0.0045
X11.844 Y2.7783 Z0.0654 I-0.0022 J-0.0045
X11.8484 Y2.7873 Z0.0649 I0.0022 J0.0045
X11.844 Y2.7783 Z0.0643 I-0.0022 J-0.0045
X11.8484 Y2.7873 Z0.0638 I0.0022 J0.0045
X11.844 Y2.7783 Z0.0632 I-0.0022 J-0.0045
X11.8484 Y2.7873 Z0.0627 I0.0022 J0.0045
X11.844 Y2.7783 Z0.0622 I-0.0022 J-0.0045
X11.8484 Y2.7873 Z0.0616 I0.0022 J0.0045
X11.844 Y2.7783 Z0.0611 I-0.0022 J-0.0045
X11.8484 Y2.7873 Z0.0605 I0.0022 J0.0045
X11.844 Y2.7783 Z0.06 I-0.0022 J-0.0045
X11.8484 Y2.7873 Z0.0594 I0.0022 J0.0045
X11.844 Y2.7783 Z0.0589 I-0.0022 J-0.0045
X11.8484 Y2.7873 Z0.0583 I0.0022 J0.0045
X11.844 Y2.7783 Z0.0578 I-0.0022 J-0.0045
X11.8484 Y2.7873 Z0.0572 I0.0022 J0.0045
X11.844 Y2.7783 Z0.0567 I-0.0022 J-0.0045
X11.8484 Y2.7873 Z0.0561 I0.0022 J0.0045
X11.844 Y2.7783 Z0.0556 I-0.0022 J-0.0045
X11.8484 Y2.7873 Z0.055 I0.0022 J0.0045
X11.844 Y2.7783 Z0.0545 I-0.0022 J-0.0045
X11.8484 Y2.7873 Z0.0539 I0.0022 J0.0045
X11.844 Y2.7783 Z0.0534 I-0.0022 J-0.0045
X11.8484 Y2.7873 Z0.0528 I0.0022 J0.0045
X11.844 Y2.7783 Z0.0523 I-0.0022 J-0.0045
X11.8484 Y2.7873 Z0.0517 I0.0022 J0.0045
X11.844 Y2.7783 Z0.0512 I-0.0022 J-0.0045
X11.8484 Y2.7873 Z0.0506 I0.0022 J0.0045
X11.844 Y2.7783 Z0.0501 I-0.0022 J-0.0045
X11.8484 Y2.7873 Z0.0495 I0.0022 J0.0045
X11.844 Y2.7783 Z0.049 I-0.0022 J-0.0045
X11.8484 Y2.7873 Z0.0484 I0.0022 J0.0045
X11.844 Y2.7783 Z0.0479 I-0.0022 J-0.0045
X11.8484 Y2.7873 Z0.0473 I0.0022 J0.0045
X11.844 Y2.7783 Z0.0468 I-0.0022 J-0.0045
X11.8484 Y2.7873 Z0.0462 I0.0022 J0.0045
X11.844 Y2.7783 Z0.0457 I-0.0022 J-0.0045
X11.8484 Y2.7873 Z0.0451 I0.0022 J0.0045
X11.844 Y2.7783 Z0.0446 I-0.0022 J-0.0045
X11.8484 Y2.7873 Z0.044 I0.0022 J0.0045
X11.844 Y2.7783 Z0.0435 I-0.0022 J-0.0045
X11.8484 Y2.7873 Z0.043 I0.0022 J0.0045
X11.844 Y2.7783 Z0.0424 I-0.0022 J-0.0045
X11.8484 Y2.7873 Z0.0419 I0.0022 J0.0045
X11.844 Y2.7783 Z0.0413 I-0.0022 J-0.0045
X11.8484 Y2.7873 Z0.0408 I0.0022 J0.0045
X11.844 Y2.7783 Z0.0402 I-0.0022 J-0.0045
X11.8484 Y2.7873 Z0.0397 I0.0022 J0.0045
X11.844 Y2.7783 Z0.0391 I-0.0022 J-0.0045
X11.8484 Y2.7873 Z0.0386 I0.0022 J0.0045
X11.844 Y2.7783 Z0.038 I-0.0022 J-0.0045
X11.8484 Y2.7873 Z0.0375 I0.0022 J0.0045
X11.844 Y2.7783 Z0.0369 I-0.0022 J-0.0045
X11.8484 Y2.7873 Z0.0364 I0.0022 J0.0045
X11.844 Y2.7783 Z0.0358 I-0.0022 J-0.0045
X11.8484 Y2.7873 Z0.0353 I0.0022 J0.0045
X11.844 Y2.7783 Z0.0347 I-0.0022 J-0.0045
X11.8484 Y2.7873 Z0.0342 I0.0022 J0.0045
X11.844 Y2.7783 Z0.0336 I-0.0022 J-0.0045
X11.8484 Y2.7873 Z0.0331 I0.0022 J0.0045
X11.844 Y2.7783 Z0.0325 I-0.0022 J-0.0045
X11.8484 Y2.7873 Z0.032 I0.0022 J0.0045
X11.844 Y2.7783 Z0.0314 I-0.0022 J-0.0045
X11.8484 Y2.7873 Z0.0309 I0.0022 J0.0045
X11.844 Y2.7783 Z0.0303 I-0.0022 J-0.0045
X11.8484 Y2.7873 Z0.0298 I0.0022 J0.0045
X11.844 Y2.7783 Z0.0292 I-0.0022 J-0.0045
X11.8484 Y2.7873 Z0.0287 I0.0022 J0.0045
X11.844 Y2.7783 Z0.0281 I-0.0022 J-0.0045
X11.8484 Y2.7873 Z0.0276 I0.0022 J0.0045
X11.844 Y2.7783 Z0.027 I-0.0022 J-0.0045
X11.8484 Y2.7873 Z0.0265 I0.0022 J0.0045
X11.844 Y2.7783 Z0.0259 I-0.0022 J-0.0045
X11.8484 Y2.7873 Z0.0254 I0.0022 J0.0045
X11.844 Y2.7783 Z0.0249 I-0.0022 J-0.0045
X11.8484 Y2.7873 Z0.0243 I0.0022 J0.0045
X11.844 Y2.7783 Z0.0238 I-0.0022 J-0.0045
X11.8484 Y2.7873 Z0.0232 I0.0022 J0.0045
X11.844 Y2.7783 Z0.0227 I-0.0022 J-0.0045
X11.8484 Y2.7873 Z0.0221 I0.0022 J0.0045
X11.844 Y2.7783 Z0.0216 I-0.0022 J-0.0045
X11.8484 Y2.7873 Z0.021 I0.0022 J0.0045
X11.844 Y2.7783 Z0.0205 I-0.0022 J-0.0045
X11.8484 Y2.7873 Z0.0199 I0.0022 J0.0045
X11.844 Y2.7783 Z0.0194 I-0.0022 J-0.0045
X11.8484 Y2.7873 Z0.0188 I0.0022 J0.0045
X11.844 Y2.7783 Z0.0183 I-0.0022 J-0.0045
X11.8484 Y2.7873 Z0.0177 I0.0022 J0.0045
X11.844 Y2.7783 Z0.0172 I-0.0022 J-0.0045
X11.8484 Y2.7873 Z0.0166 I0.0022 J0.0045
X11.844 Y2.7783 Z0.0161 I-0.0022 J-0.0045
X11.8484 Y2.7873 Z0.0155 I0.0022 J0.0045
X11.844 Y2.7783 Z0.015 I-0.0022 J-0.0045
X11.8484 Y2.7873 Z0.0144 I0.0022 J0.0045
X11.844 Y2.7783 Z0.0139 I-0.0022 J-0.0045
X11.8484 Y2.7873 Z0.0133 I0.0022 J0.0045
X11.844 Y2.7783 Z0.0128 I-0.0022 J-0.0045
X11.8484 Y2.7873 Z0.0122 I0.0022 J0.0045
X11.844 Y2.7783 Z0.0117 I-0.0022 J-0.0045
X11.8484 Y2.7873 Z0.0111 I0.0022 J0.0045
X11.844 Y2.7783 Z0.0106 I-0.0022 J-0.0045
X11.8484 Y2.7873 Z0.01 I0.0022 J0.0045
X11.844 Y2.7783 Z0.0095 I-0.0022 J-0.0045
X11.8484 Y2.7873 Z0.0089 I0.0022 J0.0045
X11.844 Y2.7783 Z0.0084 I-0.0022 J-0.0045
X11.8484 Y2.7873 Z0.0078 I0.0022 J0.0045
X11.844 Y2.7783 Z0.0073 I-0.0022 J-0.0045
X11.8484 Y2.7873 Z0.0067 I0.0022 J0.0045
X11.844 Y2.7783 Z0.0062 I-0.0022 J-0.0045
X11.8484 Y2.7873 Z0.0057 I0.0022 J0.0045
X11.844 Y2.7783 Z0.0051 I-0.0022 J-0.0045
X11.8484 Y2.7873 Z0.0046 I0.0022 J0.0045
X11.844 Y2.7783 Z0.004 I-0.0022 J-0.0045
X11.8484 Y2.7873 Z0.0035 I0.0022 J0.0045
X11.844 Y2.7783 Z0.0029 I-0.0022 J-0.0045
X11.8484 Y2.7873 Z0.0024 I0.0022 J0.0045
X11.844 Y2.7783 Z0.0018 I-0.0022 J-0.0045
X11.8484 Y2.7873 Z0.0013 I0.0022 J0.0045
X11.844 Y2.7783 Z0.0007 I-0.0022 J-0.0045
X11.8484 Y2.7873 Z0.0002 I0.0022 J0.0045
X11.844 Y2.7783 Z-0.0004 I-0.0022 J-0.0045
X11.8484 Y2.7873 Z-0.0009 I0.0022 J0.0045
X11.844 Y2.7783 Z-0.0015 I-0.0022 J-0.0045
X11.8484 Y2.7873 Z-0.002 I0.0022 J0.0045
X11.844 Y2.7783 Z-0.0026 I-0.0022 J-0.0045
X11.8484 Y2.7873 Z-0.0031 I0.0022 J0.0045
X11.844 Y2.7783 Z-0.0037 I-0.0022 J-0.0045
X11.8484 Y2.7873 Z-0.0042 I0.0022 J0.0045
X11.844 Y2.7783 Z-0.0048 I-0.0022 J-0.0045
X11.8484 Y2.7873 Z-0.0053 I0.0022 J0.0045
X11.844 Y2.7783 Z-0.0059 I-0.0022 J-0.0045
X11.8484 Y2.7873 Z-0.0064 I0.0022 J0.0045
X11.844 Y2.7783 Z-0.007 I-0.0022 J-0.0045
X11.8484 Y2.7873 Z-0.0075 I0.0022 J0.0045
X11.844 Y2.7783 Z-0.0081 I-0.0022 J-0.0045
X11.8484 Y2.7873 Z-0.0086 I0.0022 J0.0045
X11.844 Y2.7783 Z-0.0092 I-0.0022 J-0.0045
X11.8484 Y2.7873 Z-0.0097 I0.0022 J0.0045
X11.844 Y2.7783 Z-0.0103 I-0.0022 J-0.0045
X11.8484 Y2.7873 Z-0.0108 I0.0022 J0.0045
X11.844 Y2.7783 Z-0.0114 I-0.0022 J-0.0045
X11.8484 Y2.7873 Z-0.0119 I0.0022 J0.0045
X11.844 Y2.7783 Z-0.0124 I-0.0022 J-0.0045
X11.8484 Y2.7873 Z-0.013 I0.0022 J0.0045
X11.844 Y2.7783 Z-0.0135 I-0.0022 J-0.0045
X11.8484 Y2.7873 Z-0.0141 I0.0022 J0.0045
X11.844 Y2.7783 Z-0.0146 I-0.0022 J-0.0045
X11.8484 Y2.7873 Z-0.0152 I0.0022 J0.0045
X11.844 Y2.7783 Z-0.0157 I-0.0022 J-0.0045
X11.8484 Y2.7873 Z-0.0163 I0.0022 J0.0045
X11.844 Y2.7783 Z-0.0168 I-0.0022 J-0.0045
X11.8484 Y2.7873 Z-0.0174 I0.0022 J0.0045
X11.844 Y2.7783 Z-0.0179 I-0.0022 J-0.0045
X11.8484 Y2.7873 Z-0.0185 I0.0022 J0.0045
X11.844 Y2.7783 Z-0.019 I-0.0022 J-0.0045
X11.8484 Y2.7873 Z-0.0196 I0.0022 J0.0045
X11.844 Y2.7783 Z-0.0201 I-0.0022 J-0.0045
X11.8484 Y2.7873 Z-0.0207 I0.0022 J0.0045
X11.844 Y2.7783 Z-0.0212 I-0.0022 J-0.0045
X11.8484 Y2.7873 Z-0.0218 I0.0022 J0.0045
X11.844 Y2.7783 Z-0.0223 I-0.0022 J-0.0045
X11.8484 Y2.7873 Z-0.0229 I0.0022 J0.0045
X11.844 Y2.7783 Z-0.0234 I-0.0022 J-0.0045
X11.8484 Y2.7873 Z-0.024 I0.0022 J0.0045
X11.844 Y2.7783 Z-0.0245 I-0.0022 J-0.0045
X11.8484 Y2.7873 Z-0.0251 I0.0022 J0.0045
X11.844 Y2.7783 Z-0.0256 I-0.0022 J-0.0045
X11.8484 Y2.7873 Z-0.0262 I0.0022 J0.0045
X11.844 Y2.7783 Z-0.0267 I-0.0022 J-0.0045
X11.8484 Y2.7873 Z-0.0273 I0.0022 J0.0045
X11.844 Y2.7783 Z-0.0278 I-0.0022 J-0.0045
X11.8484 Y2.7873 Z-0.0284 I0.0022 J0.0045
X11.844 Y2.7783 Z-0.0289 I-0.0022 J-0.0045
X11.8484 Y2.7873 Z-0.0295 I0.0022 J0.0045
X11.844 Y2.7783 Z-0.03 I-0.0022 J-0.0045
X11.8484 Y2.7873 Z-0.0306 I0.0022 J0.0045
X11.844 Y2.7783 Z-0.0311 I-0.0022 J-0.0045
X11.8484 Y2.7873 Z-0.0316 I0.0022 J0.0045
X11.844 Y2.7783 Z-0.0322 I-0.0022 J-0.0045
X11.8484 Y2.7873 Z-0.0327 I0.0022 J0.0045
X11.844 Y2.7783 Z-0.0333 I-0.0022 J-0.0045
X11.8484 Y2.7873 Z-0.0338 I0.0022 J0.0045
X11.844 Y2.7783 Z-0.0344 I-0.0022 J-0.0045
X11.8484 Y2.7873 Z-0.0349 I0.0022 J0.0045
X11.844 Y2.7783 Z-0.0355 I-0.0022 J-0.0045
X11.8484 Y2.7873 Z-0.036 I0.0022 J0.0045
X11.844 Y2.7783 Z-0.0366 I-0.0022 J-0.0045
X11.8484 Y2.7873 Z-0.0371 I0.0022 J0.0045
X11.844 Y2.7783 Z-0.0377 I-0.0022 J-0.0045
X11.8484 Y2.7873 Z-0.0382 I0.0022 J0.0045
X11.844 Y2.7783 Z-0.0388 I-0.0022 J-0.0045
X11.8484 Y2.7873 Z-0.0393 I0.0022 J0.0045
X11.844 Y2.7783 Z-0.0399 I-0.0022 J-0.0045
X11.8484 Y2.7873 Z-0.0404 I0.0022 J0.0045
X11.844 Y2.7783 Z-0.041 I-0.0022 J-0.0045
X11.8484 Y2.7873 Z-0.0415 I0.0022 J0.0045
X11.844 Y2.7783 Z-0.0421 I-0.0022 J-0.0045
X11.8484 Y2.7873 Z-0.0426 I0.0022 J0.0045
X11.844 Y2.7783 Z-0.0432 I-0.0022 J-0.0045
X11.8484 Y2.7873 Z-0.0437 I0.0022 J0.0045
X11.844 Y2.7783 Z-0.0443 I-0.0022 J-0.0045
X11.8484 Y2.7873 Z-0.0448 I0.0022 J0.0045
X11.844 Y2.7783 Z-0.0454 I-0.0022 J-0.0045
X11.8484 Y2.7873 Z-0.0459 I0.0022 J0.0045
X11.844 Y2.7783 Z-0.0465 I-0.0022 J-0.0045
X11.8484 Y2.7873 Z-0.047 I0.0022 J0.0045
X11.844 Y2.7783 Z-0.0476 I-0.0022 J-0.0045
X11.8484 Y2.7873 Z-0.0481 I0.0022 J0.0045
X11.844 Y2.7783 Z-0.0487 I-0.0022 J-0.0045
X11.8484 Y2.7873 Z-0.0492 I0.0022 J0.0045
X11.844 Y2.7783 Z-0.0497 I-0.0022 J-0.0045
X11.8484 Y2.7873 Z-0.0503 I0.0022 J0.0045
X11.844 Y2.7783 Z-0.0508 I-0.0022 J-0.0045
X11.8484 Y2.7873 Z-0.0514 I0.0022 J0.0045
X11.844 Y2.7783 Z-0.0519 I-0.0022 J-0.0045
X11.8484 Y2.7873 Z-0.0525 I0.0022 J0.0045
X11.844 Y2.7783 Z-0.053 I-0.0022 J-0.0045
X11.8484 Y2.7873 Z-0.0536 I0.0022 J0.0045
X11.844 Y2.7783 Z-0.0541 I-0.0022 J-0.0045
X11.8484 Y2.7873 Z-0.0547 I0.0022 J0.0045
X11.844 Y2.7783 Z-0.0552 I-0.0022 J-0.0045
X11.8484 Y2.7873 Z-0.0558 I0.0022 J0.0045
X11.844 Y2.7783 Z-0.0563 I-0.0022 J-0.0045
X11.8484 Y2.7873 Z-0.0569 I0.0022 J0.0045
X11.844 Y2.7783 Z-0.0574 I-0.0022 J-0.0045
X11.8484 Y2.7873 Z-0.058 I0.0022 J0.0045
X11.844 Y2.7783 Z-0.0585 I-0.0022 J-0.0045
X11.8484 Y2.7873 Z-0.0591 I0.0022 J0.0045
X11.844 Y2.7783 Z-0.0596 I-0.0022 J-0.0045
X11.8484 Y2.7873 Z-0.0602 I0.0022 J0.0045
X11.844 Y2.7783 Z-0.0607 I-0.0022 J-0.0045
X11.8484 Y2.7873 Z-0.0613 I0.0022 J0.0045
X11.844 Y2.7783 Z-0.0618 I-0.0022 J-0.0045
X11.8484 Y2.7873 Z-0.0624 I0.0022 J0.0045
X11.844 Y2.7783 Z-0.0629 I-0.0022 J-0.0045
X11.8484 Y2.7873 Z-0.0635 I0.0022 J0.0045
X11.844 Y2.7783 Z-0.064 I-0.0022 J-0.0045
X11.8484 Y2.7873 Z-0.0646 I0.0022 J0.0045
X11.844 Y2.7783 Z-0.0651 I-0.0022 J-0.0045
X11.8484 Y2.7873 Z-0.0657 I0.0022 J0.0045
X11.844 Y2.7783 Z-0.0662 I-0.0022 J-0.0045
X11.8484 Y2.7873 Z-0.0668 I0.0022 J0.0045
X11.844 Y2.7783 Z-0.0673 I-0.0022 J-0.0045
X11.8484 Y2.7873 Z-0.0679 I0.0022 J0.0045
X11.844 Y2.7783 Z-0.0684 I-0.0022 J-0.0045
X11.8484 Y2.7873 Z-0.0689 I0.0022 J0.0045
X11.844 Y2.7783 Z-0.0695 I-0.0022 J-0.0045
X11.8484 Y2.7873 Z-0.07 I0.0022 J0.0045
X11.844 Y2.7783 Z-0.0706 I-0.0022 J-0.0045
X11.8484 Y2.7873 Z-0.0711 I0.0022 J0.0045
X11.844 Y2.7783 Z-0.0717 I-0.0022 J-0.0045
X11.8484 Y2.7873 Z-0.0722 I0.0022 J0.0045
X11.844 Y2.7783 Z-0.0728 I-0.0022 J-0.0045
X11.8484 Y2.7873 Z-0.0733 I0.0022 J0.0045
X11.844 Y2.7783 Z-0.0739 I-0.0022 J-0.0045
X11.8484 Y2.7873 Z-0.0744 I0.0022 J0.0045
X11.844 Y2.7783 Z-0.075 I-0.0022 J-0.0045
X11.8484 Y2.7873 Z-0.0755 I0.0022 J0.0045
X11.844 Y2.7783 Z-0.0761 I-0.0022 J-0.0045
X11.8484 Y2.7873 Z-0.0766 I0.0022 J0.0045
X11.844 Y2.7783 Z-0.0772 I-0.0022 J-0.0045
X11.8484 Y2.7873 Z-0.0777 I0.0022 J0.0045
X11.844 Y2.7783 Z-0.0783 I-0.0022 J-0.0045
X11.8484 Y2.7873 Z-0.0788 I0.0022 J0.0045
X11.844 Y2.7783 Z-0.0794 I-0.0022 J-0.0045
X11.8484 Y2.7873 Z-0.0799 I0.0022 J0.0045
X11.8462 Y2.7878 Z-0.08 I-0.0022 J-0.0045
X11.8372 Y2.7788 I0. J-0.009 F40.
X11.8552 I0.009 J0.
X11.8462 Y2.7878 I-0.009 J0.
X11.8372 Y2.7788 Z-0.0805 I0. J-0.009 F20.
X11.8552 Z-0.0815 I0.009 J0.
X11.8372 Z-0.0825 I-0.009 J0.
X11.8552 Z-0.0835 I0.009 J0.
X11.8372 Z-0.0844 I-0.009 J0.
X11.8552 Z-0.0854 I0.009 J0.
X11.8372 Z-0.0864 I-0.009 J0.
X11.8552 Z-0.0874 I0.009 J0.
X11.8372 Z-0.0884 I-0.009 J0.
X11.8552 Z-0.0894 I0.009 J0.
X11.8372 Z-0.0904 I-0.009 J0.
X11.8552 Z-0.0914 I0.009 J0.
X11.8372 Z-0.0923 I-0.009 J0.
X11.8552 Z-0.0933 I0.009 J0.
X11.8372 Z-0.0943 I-0.009 J0.
X11.8552 Z-0.0953 I0.009 J0.
X11.8372 Z-0.0963 I-0.009 J0.
X11.8552 Z-0.0973 I0.009 J0.
X11.8372 Z-0.0983 I-0.009 J0.
X11.8552 Z-0.0993 I0.009 J0.
X11.8372 Z-0.1002 I-0.009 J0.
X11.8552 Z-0.1012 I0.009 J0.
X11.8372 Z-0.1022 I-0.009 J0.
X11.8552 Z-0.1032 I0.009 J0.
X11.8372 Z-0.1042 I-0.009 J0.
X11.8552 Z-0.1052 I0.009 J0.
X11.8372 Z-0.1062 I-0.009 J0.
X11.8552 Z-0.1072 I0.009 J0.
X11.8372 Z-0.1081 I-0.009 J0.
X11.8552 Z-0.1091 I0.009 J0.
X11.8372 Z-0.1101 I-0.009 J0.
X11.8552 Z-0.1111 I0.009 J0.
X11.8372 Z-0.1121 I-0.009 J0.
X11.8552 Z-0.1131 I0.009 J0.
X11.8372 Z-0.1141 I-0.009 J0.
X11.8552 Z-0.115 I0.009 J0.
X11.8372 Z-0.116 I-0.009 J0.
X11.8552 Z-0.117 I0.009 J0.
X11.8372 Z-0.118 I-0.009 J0.
X11.8552 Z-0.119 I0.009 J0.
X11.8372 Z-0.12 I-0.009 J0.
X11.8552 Z-0.121 I0.009 J0.
X11.8372 Z-0.122 I-0.009 J0.
X11.8552 Z-0.1229 I0.009 J0.
X11.8372 Z-0.1239 I-0.009 J0.
X11.8552 Z-0.1249 I0.009 J0.
X11.8372 Z-0.1259 I-0.009 J0.
X11.8552 Z-0.1269 I0.009 J0.
X11.8372 Z-0.1279 I-0.009 J0.
X11.8552 Z-0.1289 I0.009 J0.
X11.8372 Z-0.1299 I-0.009 J0.
X11.8552 Z-0.1308 I0.009 J0.
X11.8372 Z-0.1318 I-0.009 J0.
X11.8552 Z-0.1328 I0.009 J0.
X11.8372 Z-0.1338 I-0.009 J0.
X11.8552 Z-0.1348 I0.009 J0.
X11.8372 Z-0.1358 I-0.009 J0.
X11.8552 Z-0.1368 I0.009 J0.
X11.8372 Z-0.1378 I-0.009 J0.
X11.8552 Z-0.1387 I0.009 J0.
X11.8372 Z-0.1397 I-0.009 J0.
X11.8552 Z-0.1407 I0.009 J0.
X11.8372 Z-0.1417 I-0.009 J0.
X11.8552 Z-0.1427 I0.009 J0.
X11.8372 Z-0.1437 I-0.009 J0.
X11.8552 Z-0.1447 I0.009 J0.
X11.8372 Z-0.1457 I-0.009 J0.
X11.8552 Z-0.1466 I0.009 J0.
X11.8372 Z-0.1476 I-0.009 J0.
X11.8552 Z-0.1486 I0.009 J0.
X11.8372 Z-0.1496 I-0.009 J0.
X11.8552 Z-0.1506 I0.009 J0.
X11.8372 Z-0.1516 I-0.009 J0.
X11.8552 Z-0.1526 I0.009 J0.
X11.8372 Z-0.1536 I-0.009 J0.
X11.8552 Z-0.1545 I0.009 J0.
X11.8372 Z-0.1555 I-0.009 J0.
X11.8552 Z-0.1565 I0.009 J0.
X11.8372 Z-0.1575 I-0.009 J0.
X11.8552 Z-0.1585 I0.009 J0.
X11.8372 Z-0.1595 I-0.009 J0.
X11.8471 Y2.7699 Z-0.16 I0.009 J0.
X11.8552 Y2.7788 I-0.0009 J0.009 F40.
X11.8372 I-0.009 J0.
X11.8471 Y2.7699 I0.009 J0.
X11.8552 Y2.7788 Z-0.1605 I-0.0009 J0.009 F20.
X11.8372 Z-0.1615 I-0.009 J0.
X11.8552 Z-0.1624 I0.009 J0.
X11.8372 Z-0.1634 I-0.009 J0.
X11.8552 Z-0.1644 I0.009 J0.
X11.8372 Z-0.1654 I-0.009 J0.
X11.8552 Z-0.1664 I0.009 J0.
X11.8372 Z-0.1674 I-0.009 J0.
X11.8552 Z-0.1684 I0.009 J0.
X11.8372 Z-0.1693 I-0.009 J0.
X11.8552 Z-0.1703 I0.009 J0.
X11.8372 Z-0.1713 I-0.009 J0.
X11.8552 Z-0.1723 I0.009 J0.
X11.8372 Z-0.1733 I-0.009 J0.
X11.8552 Z-0.1743 I0.009 J0.
X11.8372 Z-0.1753 I-0.009 J0.
X11.8552 Z-0.1763 I0.009 J0.
X11.8372 Z-0.1772 I-0.009 J0.
X11.8552 Z-0.1782 I0.009 J0.
X11.8372 Z-0.1792 I-0.009 J0.
X11.8552 Z-0.1802 I0.009 J0.
X11.8372 Z-0.1812 I-0.009 J0.
X11.8552 Z-0.1822 I0.009 J0.
X11.8372 Z-0.1832 I-0.009 J0.
X11.8552 Z-0.1842 I0.009 J0.
X11.8372 Z-0.1851 I-0.009 J0.
X11.8552 Z-0.1861 I0.009 J0.
X11.8372 Z-0.1871 I-0.009 J0.
X11.8552 Z-0.1881 I0.009 J0.
X11.8372 Z-0.1891 I-0.009 J0.
X11.8552 Z-0.1901 I0.009 J0.
X11.8372 Z-0.1911 I-0.009 J0.
X11.8552 Z-0.1921 I0.009 J0.
X11.8372 Z-0.193 I-0.009 J0.
X11.8552 Z-0.194 I0.009 J0.
X11.8372 Z-0.195 I-0.009 J0.
X11.8552 Z-0.196 I0.009 J0.
X11.8372 Z-0.197 I-0.009 J0.
X11.8552 Z-0.198 I0.009 J0.
X11.8372 Z-0.199 I-0.009 J0.
X11.8552 Z-0.2 I0.009 J0.
X11.8372 Z-0.2009 I-0.009 J0.
X11.8552 Z-0.2019 I0.009 J0.
X11.8372 Z-0.2029 I-0.009 J0.
X11.8552 Z-0.2039 I0.009 J0.
X11.8372 Z-0.2049 I-0.009 J0.
X11.8552 Z-0.2059 I0.009 J0.
X11.8372 Z-0.2069 I-0.009 J0.
X11.8552 Z-0.2079 I0.009 J0.
X11.8372 Z-0.2088 I-0.009 J0.
X11.8552 Z-0.2098 I0.009 J0.
X11.8372 Z-0.2108 I-0.009 J0.
X11.8552 Z-0.2118 I0.009 J0.
X11.8372 Z-0.2128 I-0.009 J0.
X11.8552 Z-0.2138 I0.009 J0.
X11.8372 Z-0.2148 I-0.009 J0.
X11.8552 Z-0.2158 I0.009 J0.
X11.8372 Z-0.2167 I-0.009 J0.
X11.8552 Z-0.2177 I0.009 J0.
X11.8372 Z-0.2187 I-0.009 J0.
X11.8552 Z-0.2197 I0.009 J0.
X11.8372 Z-0.2207 I-0.009 J0.
X11.8552 Z-0.2217 I0.009 J0.
X11.8372 Z-0.2227 I-0.009 J0.
X11.8552 Z-0.2236 I0.009 J0.
X11.8372 Z-0.2246 I-0.009 J0.
X11.8552 Z-0.2256 I0.009 J0.
X11.8372 Z-0.2266 I-0.009 J0.
X11.8552 Z-0.2276 I0.009 J0.
X11.8372 Z-0.2286 I-0.009 J0.
X11.8552 Z-0.2296 I0.009 J0.
X11.8372 Z-0.2306 I-0.009 J0.
X11.8552 Z-0.2315 I0.009 J0.
X11.8372 Z-0.2325 I-0.009 J0.
X11.8552 Z-0.2335 I0.009 J0.
X11.8372 Z-0.2345 I-0.009 J0.
X11.8552 Z-0.2355 I0.009 J0.
X11.8372 Z-0.2365 I-0.009 J0.
X11.8552 Z-0.2375 I0.009 J0.
X11.8372 Z-0.2385 I-0.009 J0.
X11.8552 Z-0.2394 I0.009 J0.
X11.8445 Y2.7876 Z-0.24 I-0.009 J0.
X11.8372 Y2.7788 I0.0017 J-0.0088 F40.
X11.8552 I0.009 J0.
X11.8445 Y2.7876 I-0.009 J0.
X11.8372 Y2.7788 Z-0.2404 I0.0017 J-0.0088 F20.
X11.8552 Z-0.2414 I0.009 J0.
X11.8372 Z-0.2424 I-0.009 J0.
X11.8552 Z-0.2434 I0.009 J0.
X11.8372 Z-0.2444 I-0.009 J0.
X11.8552 Z-0.2454 I0.009 J0.
X11.8372 Z-0.2464 I-0.009 J0.
X11.8552 Z-0.2473 I0.009 J0.
X11.8372 Z-0.2483 I-0.009 J0.
X11.8552 Z-0.2493 I0.009 J0.
X11.8372 Z-0.2503 I-0.009 J0.
X11.8552 Z-0.2513 I0.009 J0.
X11.8372 Z-0.2523 I-0.009 J0.
X11.8552 Z-0.2533 I0.009 J0.
X11.8372 Z-0.2543 I-0.009 J0.
X11.8552 Z-0.2552 I0.009 J0.
X11.8372 Z-0.2562 I-0.009 J0.
X11.8552 Z-0.2572 I0.009 J0.
X11.8372 Z-0.2582 I-0.009 J0.
X11.8552 Z-0.2592 I0.009 J0.
X11.8372 Z-0.2602 I-0.009 J0.
X11.8552 Z-0.2612 I0.009 J0.
X11.8372 Z-0.2622 I-0.009 J0.
X11.8552 Z-0.2631 I0.009 J0.
X11.8372 Z-0.2641 I-0.009 J0.
X11.8552 Z-0.2651 I0.009 J0.
X11.8372 Z-0.2661 I-0.009 J0.
X11.8552 Z-0.2671 I0.009 J0.
X11.8372 Z-0.2681 I-0.009 J0.
X11.8552 Z-0.2691 I0.009 J0.
X11.8372 Z-0.2701 I-0.009 J0.
X11.8552 Z-0.271 I0.009 J0.
X11.8372 Z-0.272 I-0.009 J0.
X11.8552 Z-0.273 I0.009 J0.
X11.8372 Z-0.274 I-0.009 J0.
X11.8552 Z-0.275 I0.009 J0.
X11.8372 Z-0.276 I-0.009 J0.
X11.8552 Z-0.277 I0.009 J0.
X11.8372 Z-0.278 I-0.009 J0.
X11.8552 Z-0.2789 I0.009 J0.
X11.8372 Z-0.2799 I-0.009 J0.
X11.8552 Z-0.2809 I0.009 J0.
X11.8372 Z-0.2819 I-0.009 J0.
X11.8552 Z-0.2829 I0.009 J0.
X11.8372 Z-0.2839 I-0.009 J0.
X11.8552 Z-0.2849 I0.009 J0.
X11.8372 Z-0.2858 I-0.009 J0.
X11.8552 Z-0.2868 I0.009 J0.
X11.8372 Z-0.2878 I-0.009 J0.
X11.8552 Z-0.2888 I0.009 J0.
X11.8372 Z-0.2898 I-0.009 J0.
X11.8552 Z-0.2908 I0.009 J0.
X11.8372 Z-0.2918 I-0.009 J0.
X11.8552 Z-0.2928 I0.009 J0.
X11.8372 Z-0.2937 I-0.009 J0.
X11.8552 Z-0.2947 I0.009 J0.
X11.8372 Z-0.2957 I-0.009 J0.
X11.8552 Z-0.2967 I0.009 J0.
X11.8372 Z-0.2977 I-0.009 J0.
X11.8552 Z-0.2987 I0.009 J0.
X11.8372 Z-0.2997 I-0.009 J0.
X11.8552 Z-0.3007 I0.009 J0.
X11.8372 Z-0.3016 I-0.009 J0.
X11.8552 Z-0.3026 I0.009 J0.
X11.8372 Z-0.3036 I-0.009 J0.
X11.8552 Z-0.3046 I0.009 J0.
X11.8372 Z-0.3056 I-0.009 J0.
X11.8552 Z-0.3066 I0.009 J0.
X11.8372 Z-0.3076 I-0.009 J0.
X11.8552 Z-0.3086 I0.009 J0.
X11.8372 Z-0.3095 I-0.009 J0.
X11.8552 Z-0.3105 I0.009 J0.
X11.8372 Z-0.3115 I-0.009 J0.
X11.8552 Z-0.3125 I0.009 J0.
X11.8372 Z-0.3135 I-0.009 J0.
X11.8552 Z-0.3145 I0.009 J0.
X11.8372 Z-0.3155 I-0.009 J0.
X11.8552 Z-0.3165 I0.009 J0.
X11.8372 Z-0.3174 I-0.009 J0.
X11.8552 Z-0.3184 I0.009 J0.
X11.8372 Z-0.3194 I-0.009 J0.
X11.8487 Y2.7702 Z-0.32 I0.009 J0.
X11.8552 Y2.7788 I-0.0025 J0.0086 F40.
X11.8372 I-0.009 J0.
X11.8487 Y2.7702 I0.009 J0.
X11.8552 Y2.7788 Z-0.3204 I-0.0025 J0.0086 F20.
X11.8372 Z-0.3214 I-0.009 J0.
X11.8552 Z-0.3224 I0.009 J0.
X11.8372 Z-0.3234 I-0.009 J0.
X11.8552 Z-0.3244 I0.009 J0.
X11.8372 Z-0.3253 I-0.009 J0.
X11.8552 Z-0.3263 I0.009 J0.
X11.8372 Z-0.3273 I-0.009 J0.
X11.8552 Z-0.3283 I0.009 J0.
X11.8372 Z-0.3293 I-0.009 J0.
X11.8552 Z-0.3303 I0.009 J0.
X11.8372 Z-0.3313 I-0.009 J0.
X11.8552 Z-0.3323 I0.009 J0.
X11.8372 Z-0.3332 I-0.009 J0.
X11.8552 Z-0.3342 I0.009 J0.
X11.8372 Z-0.3352 I-0.009 J0.
X11.8552 Z-0.3362 I0.009 J0.
X11.8372 Z-0.3372 I-0.009 J0.
X11.8552 Z-0.3382 I0.009 J0.
X11.8372 Z-0.3392 I-0.009 J0.
X11.8552 Z-0.3401 I0.009 J0.
X11.8372 Z-0.3411 I-0.009 J0.
X11.8552 Z-0.3421 I0.009 J0.
X11.8372 Z-0.3431 I-0.009 J0.
X11.8552 Z-0.3441 I0.009 J0.
X11.8372 Z-0.3451 I-0.009 J0.
X11.8552 Z-0.3461 I0.009 J0.
X11.8372 Z-0.3471 I-0.009 J0.
X11.8552 Z-0.348 I0.009 J0.
X11.8372 Z-0.349 I-0.009 J0.
X11.8552 Z-0.35 I0.009 J0.
X11.8372 Z-0.351 I-0.009 J0.
X11.8552 Z-0.352 I0.009 J0.
X11.847 Y2.7878 Z-0.3525 I-0.009 J0.
X11.8372 Y2.7788 I-0.0008 J-0.009 F40.
X11.8552 I0.009 J0.
X11.847 Y2.7878 I-0.009 J0.
G1 X11.8462 Z-0.3524
X11.8444 Y2.7876 Z-0.3518
X11.8426 Y2.7871 Z-0.3512
X11.841 Y2.7862 Z-0.3506
X11.8395 Y2.7848 Z-0.3484
X11.8384 Y2.7832 Z-0.3463
X11.8378 Y2.7819 Z-0.3407
G0 Z0.2
X11.785 Y1.8774
G1 Z0.1118 F40.
X11.7856 Y1.8777 Z0.1079 F20.
X11.7864 Y1.8783 Z0.1061
X11.7871 Y1.879 Z0.1044
X11.7877 Y1.8802 Z0.1033
X11.7881 Y1.8814 Z0.1023
X11.788 Y1.8827 Z0.1012
X11.7876 Y1.8842 Z0.1008
X11.7866 Y1.8856 Z0.1004
X11.7853 Y1.8865 Z0.1
G3 X11.7809 Y1.8775 Z0.0995 I-0.0022 J-0.0045
X11.7853 Y1.8865 Z0.0989 I0.0022 J0.0045
X11.7809 Y1.8775 Z0.0984 I-0.0022 J-0.0045
X11.7853 Y1.8865 Z0.0978 I0.0022 J0.0045
X11.7809 Y1.8775 Z0.0973 I-0.0022 J-0.0045
X11.7853 Y1.8865 Z0.0967 I0.0022 J0.0045
X11.7809 Y1.8775 Z0.0962 I-0.0022 J-0.0045
X11.7853 Y1.8865 Z0.0956 I0.0022 J0.0045
X11.7809 Y1.8775 Z0.0951 I-0.0022 J-0.0045
X11.7853 Y1.8865 Z0.0945 I0.0022 J0.0045
X11.7809 Y1.8775 Z0.094 I-0.0022 J-0.0045
X11.7853 Y1.8865 Z0.0934 I0.0022 J0.0045
X11.7809 Y1.8775 Z0.0929 I-0.0022 J-0.0045
X11.7853 Y1.8865 Z0.0923 I0.0022 J0.0045
X11.7809 Y1.8775 Z0.0918 I-0.0022 J-0.0045
X11.7853 Y1.8865 Z0.0912 I0.0022 J0.0045
X11.7809 Y1.8775 Z0.0907 I-0.0022 J-0.0045
X11.7853 Y1.8865 Z0.0901 I0.0022 J0.0045
X11.7809 Y1.8775 Z0.0896 I-0.0022 J-0.0045
X11.7853 Y1.8865 Z0.089 I0.0022 J0.0045
X11.7809 Y1.8775 Z0.0885 I-0.0022 J-0.0045
X11.7853 Y1.8865 Z0.0879 I0.0022 J0.0045
X11.7809 Y1.8775 Z0.0874 I-0.0022 J-0.0045
X11.7853 Y1.8865 Z0.0868 I0.0022 J0.0045
X11.7809 Y1.8775 Z0.0863 I-0.0022 J-0.0045
X11.7853 Y1.8865 Z0.0857 I0.0022 J0.0045
X11.7809 Y1.8775 Z0.0852 I-0.0022 J-0.0045
X11.7853 Y1.8865 Z0.0846 I0.0022 J0.0045
X11.7809 Y1.8775 Z0.0841 I-0.0022 J-0.0045
X11.7853 Y1.8865 Z0.0835 I0.0022 J0.0045
X11.7809 Y1.8775 Z0.083 I-0.0022 J-0.0045
X11.7853 Y1.8865 Z0.0824 I0.0022 J0.0045
X11.7809 Y1.8775 Z0.0819 I-0.0022 J-0.0045
X11.7853 Y1.8865 Z0.0813 I0.0022 J0.0045
X11.7809 Y1.8775 Z0.0808 I-0.0022 J-0.0045
X11.7853 Y1.8865 Z0.0803 I0.0022 J0.0045
X11.7809 Y1.8775 Z0.0797 I-0.0022 J-0.0045
X11.7853 Y1.8865 Z0.0792 I0.0022 J0.0045
X11.7809 Y1.8775 Z0.0786 I-0.0022 J-0.0045
X11.7853 Y1.8865 Z0.0781 I0.0022 J0.0045
X11.7809 Y1.8775 Z0.0775 I-0.0022 J-0.0045
X11.7853 Y1.8865 Z0.077 I0.0022 J0.0045
X11.7809 Y1.8775 Z0.0764 I-0.0022 J-0.0045
X11.7853 Y1.8865 Z0.0759 I0.0022 J0.0045
X11.7809 Y1.8775 Z0.0753 I-0.0022 J-0.0045
X11.7853 Y1.8865 Z0.0748 I0.0022 J0.0045
X11.7809 Y1.8775 Z0.0742 I-0.0022 J-0.0045
X11.7853 Y1.8865 Z0.0737 I0.0022 J0.0045
X11.7809 Y1.8775 Z0.0731 I-0.0022 J-0.0045
X11.7853 Y1.8865 Z0.0726 I0.0022 J0.0045
X11.7809 Y1.8775 Z0.072 I-0.0022 J-0.0045
X11.7853 Y1.8865 Z0.0715 I0.0022 J0.0045
X11.7809 Y1.8775 Z0.0709 I-0.0022 J-0.0045
X11.7853 Y1.8865 Z0.0704 I0.0022 J0.0045
X11.7809 Y1.8775 Z0.0698 I-0.0022 J-0.0045
X11.7853 Y1.8865 Z0.0693 I0.0022 J0.0045
X11.7809 Y1.8775 Z0.0687 I-0.0022 J-0.0045
X11.7853 Y1.8865 Z0.0682 I0.0022 J0.0045
X11.7809 Y1.8775 Z0.0676 I-0.0022 J-0.0045
X11.7853 Y1.8865 Z0.0671 I0.0022 J0.0045
X11.7809 Y1.8775 Z0.0665 I-0.0022 J-0.0045
X11.7853 Y1.8865 Z0.066 I0.0022 J0.0045
X11.7809 Y1.8775 Z0.0654 I-0.0022 J-0.0045
X11.7853 Y1.8865 Z0.0649 I0.0022 J0.0045
X11.7809 Y1.8775 Z0.0643 I-0.0022 J-0.0045
X11.7853 Y1.8865 Z0.0638 I0.0022 J0.0045
X11.7809 Y1.8775 Z0.0632 I-0.0022 J-0.0045
X11.7853 Y1.8865 Z0.0627 I0.0022 J0.0045
X11.7809 Y1.8775 Z0.0622 I-0.0022 J-0.0045
X11.7853 Y1.8865 Z0.0616 I0.0022 J0.0045
X11.7809 Y1.8775 Z0.0611 I-0.0022 J-0.0045
X11.7853 Y1.8865 Z0.0605 I0.0022 J0.0045
X11.7809 Y1.8775 Z0.06 I-0.0022 J-0.0045
X11.7853 Y1.8865 Z0.0594 I0.0022 J0.0045
X11.7809 Y1.8775 Z0.0589 I-0.0022 J-0.0045
X11.7853 Y1.8865 Z0.0583 I0.0022 J0.0045
X11.7809 Y1.8775 Z0.0578 I-0.0022 J-0.0045
X11.7853 Y1.8865 Z0.0572 I0.0022 J0.0045
X11.7809 Y1.8775 Z0.0567 I-0.0022 J-0.0045
X11.7853 Y1.8865 Z0.0561 I0.0022 J0.0045
X11.7809 Y1.8775 Z0.0556 I-0.0022 J-0.0045
X11.7853 Y1.8865 Z0.055 I0.0022 J0.0045
X11.7809 Y1.8775 Z0.0545 I-0.0022 J-0.0045
X11.7853 Y1.8865 Z0.0539 I0.0022 J0.0045
X11.7809 Y1.8775 Z0.0534 I-0.0022 J-0.0045
X11.7853 Y1.8865 Z0.0528 I0.0022 J0.0045
X11.7809 Y1.8775 Z0.0523 I-0.0022 J-0.0045
X11.7853 Y1.8865 Z0.0517 I0.0022 J0.0045
X11.7809 Y1.8775 Z0.0512 I-0.0022 J-0.0045
X11.7853 Y1.8865 Z0.0506 I0.0022 J0.0045
X11.7809 Y1.8775 Z0.0501 I-0.0022 J-0.0045
X11.7853 Y1.8865 Z0.0495 I0.0022 J0.0045
X11.7809 Y1.8775 Z0.049 I-0.0022 J-0.0045
X11.7853 Y1.8865 Z0.0484 I0.0022 J0.0045
X11.7809 Y1.8775 Z0.0479 I-0.0022 J-0.0045
X11.7853 Y1.8865 Z0.0473 I0.0022 J0.0045
X11.7809 Y1.8775 Z0.0468 I-0.0022 J-0.0045
X11.7853 Y1.8865 Z0.0462 I0.0022 J0.0045
X11.7809 Y1.8775 Z0.0457 I-0.0022 J-0.0045
X11.7853 Y1.8865 Z0.0451 I0.0022 J0.0045
X11.7809 Y1.8775 Z0.0446 I-0.0022 J-0.0045
X11.7853 Y1.8865 Z0.044 I0.0022 J0.0045
X11.7809 Y1.8775 Z0.0435 I-0.0022 J-0.0045
X11.7853 Y1.8865 Z0.043 I0.0022 J0.0045
X11.7809 Y1.8775 Z0.0424 I-0.0022 J-0.0045
X11.7853 Y1.8865 Z0.0419 I0.0022 J0.0045
X11.7809 Y1.8775 Z0.0413 I-0.0022 J-0.0045
X11.7853 Y1.8865 Z0.0408 I0.0022 J0.0045
X11.7809 Y1.8775 Z0.0402 I-0.0022 J-0.0045
X11.7853 Y1.8865 Z0.0397 I0.0022 J0.0045
X11.7809 Y1.8775 Z0.0391 I-0.0022 J-0.0045
X11.7853 Y1.8865 Z0.0386 I0.0022 J0.0045
X11.7809 Y1.8775 Z0.038 I-0.0022 J-0.0045
X11.7853 Y1.8865 Z0.0375 I0.0022 J0.0045
X11.7809 Y1.8775 Z0.0369 I-0.0022 J-0.0045
X11.7853 Y1.8865 Z0.0364 I0.0022 J0.0045
X11.7809 Y1.8775 Z0.0358 I-0.0022 J-0.0045
X11.7853 Y1.8865 Z0.0353 I0.0022 J0.0045
X11.7809 Y1.8775 Z0.0347 I-0.0022 J-0.0045
X11.7853 Y1.8865 Z0.0342 I0.0022 J0.0045
X11.7809 Y1.8775 Z0.0336 I-0.0022 J-0.0045
X11.7853 Y1.8865 Z0.0331 I0.0022 J0.0045
X11.7809 Y1.8775 Z0.0325 I-0.0022 J-0.0045
X11.7853 Y1.8865 Z0.032 I0.0022 J0.0045
X11.7809 Y1.8775 Z0.0314 I-0.0022 J-0.0045
X11.7853 Y1.8865 Z0.0309 I0.0022 J0.0045
X11.7809 Y1.8775 Z0.0303 I-0.0022 J-0.0045
X11.7853 Y1.8865 Z0.0298 I0.0022 J0.0045
X11.7809 Y1.8775 Z0.0292 I-0.0022 J-0.0045
X11.7853 Y1.8865 Z0.0287 I0.0022 J0.0045
X11.7809 Y1.8775 Z0.0281 I-0.0022 J-0.0045
X11.7853 Y1.8865 Z0.0276 I0.0022 J0.0045
X11.7809 Y1.8775 Z0.027 I-0.0022 J-0.0045
X11.7853 Y1.8865 Z0.0265 I0.0022 J0.0045
X11.7809 Y1.8775 Z0.0259 I-0.0022 J-0.0045
X11.7853 Y1.8865 Z0.0254 I0.0022 J0.0045
X11.7809 Y1.8775 Z0.0249 I-0.0022 J-0.0045
X11.7853 Y1.8865 Z0.0243 I0.0022 J0.0045
X11.7809 Y1.8775 Z0.0238 I-0.0022 J-0.0045
X11.7853 Y1.8865 Z0.0232 I0.0022 J0.0045
X11.7809 Y1.8775 Z0.0227 I-0.0022 J-0.0045
X11.7853 Y1.8865 Z0.0221 I0.0022 J0.0045
X11.7809 Y1.8775 Z0.0216 I-0.0022 J-0.0045
X11.7853 Y1.8865 Z0.021 I0.0022 J0.0045
X11.7809 Y1.8775 Z0.0205 I-0.0022 J-0.0045
X11.7853 Y1.8865 Z0.0199 I0.0022 J0.0045
X11.7809 Y1.8775 Z0.0194 I-0.0022 J-0.0045
X11.7853 Y1.8865 Z0.0188 I0.0022 J0.0045
X11.7809 Y1.8775 Z0.0183 I-0.0022 J-0.0045
X11.7853 Y1.8865 Z0.0177 I0.0022 J0.0045
X11.7809 Y1.8775 Z0.0172 I-0.0022 J-0.0045
X11.7853 Y1.8865 Z0.0166 I0.0022 J0.0045
X11.7809 Y1.8775 Z0.0161 I-0.0022 J-0.0045
X11.7853 Y1.8865 Z0.0155 I0.0022 J0.0045
X11.7809 Y1.8775 Z0.015 I-0.0022 J-0.0045
X11.7853 Y1.8865 Z0.0144 I0.0022 J0.0045
X11.7809 Y1.8775 Z0.0139 I-0.0022 J-0.0045
X11.7853 Y1.8865 Z0.0133 I0.0022 J0.0045
X11.7809 Y1.8775 Z0.0128 I-0.0022 J-0.0045
X11.7853 Y1.8865 Z0.0122 I0.0022 J0.0045
X11.7809 Y1.8775 Z0.0117 I-0.0022 J-0.0045
X11.7853 Y1.8865 Z0.0111 I0.0022 J0.0045
X11.7809 Y1.8775 Z0.0106 I-0.0022 J-0.0045
X11.7853 Y1.8865 Z0.01 I0.0022 J0.0045
X11.7809 Y1.8775 Z0.0095 I-0.0022 J-0.0045
X11.7853 Y1.8865 Z0.0089 I0.0022 J0.0045
X11.7809 Y1.8775 Z0.0084 I-0.0022 J-0.0045
X11.7853 Y1.8865 Z0.0078 I0.0022 J0.0045
X11.7809 Y1.8775 Z0.0073 I-0.0022 J-0.0045
X11.7853 Y1.8865 Z0.0067 I0.0022 J0.0045
X11.7809 Y1.8775 Z0.0062 I-0.0022 J-0.0045
X11.7853 Y1.8865 Z0.0057 I0.0022 J0.0045
X11.7809 Y1.8775 Z0.0051 I-0.0022 J-0.0045
X11.7853 Y1.8865 Z0.0046 I0.0022 J0.0045
X11.7809 Y1.8775 Z0.004 I-0.0022 J-0.0045
X11.7853 Y1.8865 Z0.0035 I0.0022 J0.0045
X11.7809 Y1.8775 Z0.0029 I-0.0022 J-0.0045
X11.7853 Y1.8865 Z0.0024 I0.0022 J0.0045
X11.7809 Y1.8775 Z0.0018 I-0.0022 J-0.0045
X11.7853 Y1.8865 Z0.0013 I0.0022 J0.0045
X11.7809 Y1.8775 Z0.0007 I-0.0022 J-0.0045
X11.7853 Y1.8865 Z0.0002 I0.0022 J0.0045
X11.7809 Y1.8775 Z-0.0004 I-0.0022 J-0.0045
X11.7853 Y1.8865 Z-0.0009 I0.0022 J0.0045
X11.7809 Y1.8775 Z-0.0015 I-0.0022 J-0.0045
X11.7853 Y1.8865 Z-0.002 I0.0022 J0.0045
X11.7809 Y1.8775 Z-0.0026 I-0.0022 J-0.0045
X11.7853 Y1.8865 Z-0.0031 I0.0022 J0.0045
X11.7809 Y1.8775 Z-0.0037 I-0.0022 J-0.0045
X11.7853 Y1.8865 Z-0.0042 I0.0022 J0.0045
X11.7809 Y1.8775 Z-0.0048 I-0.0022 J-0.0045
X11.7853 Y1.8865 Z-0.0053 I0.0022 J0.0045
X11.7809 Y1.8775 Z-0.0059 I-0.0022 J-0.0045
X11.7853 Y1.8865 Z-0.0064 I0.0022 J0.0045
X11.7809 Y1.8775 Z-0.007 I-0.0022 J-0.0045
X11.7853 Y1.8865 Z-0.0075 I0.0022 J0.0045
X11.7809 Y1.8775 Z-0.0081 I-0.0022 J-0.0045
X11.7853 Y1.8865 Z-0.0086 I0.0022 J0.0045
X11.7809 Y1.8775 Z-0.0092 I-0.0022 J-0.0045
X11.7853 Y1.8865 Z-0.0097 I0.0022 J0.0045
X11.7809 Y1.8775 Z-0.0103 I-0.0022 J-0.0045
X11.7853 Y1.8865 Z-0.0108 I0.0022 J0.0045
X11.7809 Y1.8775 Z-0.0114 I-0.0022 J-0.0045
X11.7853 Y1.8865 Z-0.0119 I0.0022 J0.0045
X11.7809 Y1.8775 Z-0.0124 I-0.0022 J-0.0045
X11.7853 Y1.8865 Z-0.013 I0.0022 J0.0045
X11.7809 Y1.8775 Z-0.0135 I-0.0022 J-0.0045
X11.7853 Y1.8865 Z-0.0141 I0.0022 J0.0045
X11.7809 Y1.8775 Z-0.0146 I-0.0022 J-0.0045
X11.7853 Y1.8865 Z-0.0152 I0.0022 J0.0045
X11.7809 Y1.8775 Z-0.0157 I-0.0022 J-0.0045
X11.7853 Y1.8865 Z-0.0163 I0.0022 J0.0045
X11.7809 Y1.8775 Z-0.0168 I-0.0022 J-0.0045
X11.7853 Y1.8865 Z-0.0174 I0.0022 J0.0045
X11.7809 Y1.8775 Z-0.0179 I-0.0022 J-0.0045
X11.7853 Y1.8865 Z-0.0185 I0.0022 J0.0045
X11.7809 Y1.8775 Z-0.019 I-0.0022 J-0.0045
X11.7853 Y1.8865 Z-0.0196 I0.0022 J0.0045
X11.7809 Y1.8775 Z-0.0201 I-0.0022 J-0.0045
X11.7853 Y1.8865 Z-0.0207 I0.0022 J0.0045
X11.7809 Y1.8775 Z-0.0212 I-0.0022 J-0.0045
X11.7853 Y1.8865 Z-0.0218 I0.0022 J0.0045
X11.7809 Y1.8775 Z-0.0223 I-0.0022 J-0.0045
X11.7853 Y1.8865 Z-0.0229 I0.0022 J0.0045
X11.7809 Y1.8775 Z-0.0234 I-0.0022 J-0.0045
X11.7853 Y1.8865 Z-0.024 I0.0022 J0.0045
X11.7809 Y1.8775 Z-0.0245 I-0.0022 J-0.0045
X11.7853 Y1.8865 Z-0.0251 I0.0022 J0.0045
X11.7809 Y1.8775 Z-0.0256 I-0.0022 J-0.0045
X11.7853 Y1.8865 Z-0.0262 I0.0022 J0.0045
X11.7809 Y1.8775 Z-0.0267 I-0.0022 J-0.0045
X11.7853 Y1.8865 Z-0.0273 I0.0022 J0.0045
X11.7809 Y1.8775 Z-0.0278 I-0.0022 J-0.0045
X11.7853 Y1.8865 Z-0.0284 I0.0022 J0.0045
X11.7809 Y1.8775 Z-0.0289 I-0.0022 J-0.0045
X11.7853 Y1.8865 Z-0.0295 I0.0022 J0.0045
X11.7809 Y1.8775 Z-0.03 I-0.0022 J-0.0045
X11.7853 Y1.8865 Z-0.0306 I0.0022 J0.0045
X11.7809 Y1.8775 Z-0.0311 I-0.0022 J-0.0045
X11.7853 Y1.8865 Z-0.0316 I0.0022 J0.0045
X11.7809 Y1.8775 Z-0.0322 I-0.0022 J-0.0045
X11.7853 Y1.8865 Z-0.0327 I0.0022 J0.0045
X11.7809 Y1.8775 Z-0.0333 I-0.0022 J-0.0045
X11.7853 Y1.8865 Z-0.0338 I0.0022 J0.0045
X11.7809 Y1.8775 Z-0.0344 I-0.0022 J-0.0045
X11.7853 Y1.8865 Z-0.0349 I0.0022 J0.0045
X11.7809 Y1.8775 Z-0.0355 I-0.0022 J-0.0045
X11.7853 Y1.8865 Z-0.036 I0.0022 J0.0045
X11.7809 Y1.8775 Z-0.0366 I-0.0022 J-0.0045
X11.7853 Y1.8865 Z-0.0371 I0.0022 J0.0045
X11.7809 Y1.8775 Z-0.0377 I-0.0022 J-0.0045
X11.7853 Y1.8865 Z-0.0382 I0.0022 J0.0045
X11.7809 Y1.8775 Z-0.0388 I-0.0022 J-0.0045
X11.7853 Y1.8865 Z-0.0393 I0.0022 J0.0045
X11.7809 Y1.8775 Z-0.0399 I-0.0022 J-0.0045
X11.7853 Y1.8865 Z-0.0404 I0.0022 J0.0045
X11.7809 Y1.8775 Z-0.041 I-0.0022 J-0.0045
X11.7853 Y1.8865 Z-0.0415 I0.0022 J0.0045
X11.7809 Y1.8775 Z-0.0421 I-0.0022 J-0.0045
X11.7853 Y1.8865 Z-0.0426 I0.0022 J0.0045
X11.7809 Y1.8775 Z-0.0432 I-0.0022 J-0.0045
X11.7853 Y1.8865 Z-0.0437 I0.0022 J0.0045
X11.7809 Y1.8775 Z-0.0443 I-0.0022 J-0.0045
X11.7853 Y1.8865 Z-0.0448 I0.0022 J0.0045
X11.7809 Y1.8775 Z-0.0454 I-0.0022 J-0.0045
X11.7853 Y1.8865 Z-0.0459 I0.0022 J0.0045
X11.7809 Y1.8775 Z-0.0465 I-0.0022 J-0.0045
X11.7853 Y1.8865 Z-0.047 I0.0022 J0.0045
X11.7809 Y1.8775 Z-0.0476 I-0.0022 J-0.0045
X11.7853 Y1.8865 Z-0.0481 I0.0022 J0.0045
X11.7809 Y1.8775 Z-0.0487 I-0.0022 J-0.0045
X11.7853 Y1.8865 Z-0.0492 I0.0022 J0.0045
X11.7809 Y1.8775 Z-0.0497 I-0.0022 J-0.0045
X11.7853 Y1.8865 Z-0.0503 I0.0022 J0.0045
X11.7809 Y1.8775 Z-0.0508 I-0.0022 J-0.0045
X11.7853 Y1.8865 Z-0.0514 I0.0022 J0.0045
X11.7809 Y1.8775 Z-0.0519 I-0.0022 J-0.0045
X11.7853 Y1.8865 Z-0.0525 I0.0022 J0.0045
X11.7809 Y1.8775 Z-0.053 I-0.0022 J-0.0045
X11.7853 Y1.8865 Z-0.0536 I0.0022 J0.0045
X11.7809 Y1.8775 Z-0.0541 I-0.0022 J-0.0045
X11.7853 Y1.8865 Z-0.0547 I0.0022 J0.0045
X11.7809 Y1.8775 Z-0.0552 I-0.0022 J-0.0045
X11.7853 Y1.8865 Z-0.0558 I0.0022 J0.0045
X11.7809 Y1.8775 Z-0.0563 I-0.0022 J-0.0045
X11.7853 Y1.8865 Z-0.0569 I0.0022 J0.0045
X11.7809 Y1.8775 Z-0.0574 I-0.0022 J-0.0045
X11.7853 Y1.8865 Z-0.058 I0.0022 J0.0045
X11.7809 Y1.8775 Z-0.0585 I-0.0022 J-0.0045
X11.7853 Y1.8865 Z-0.0591 I0.0022 J0.0045
X11.7809 Y1.8775 Z-0.0596 I-0.0022 J-0.0045
X11.7853 Y1.8865 Z-0.0602 I0.0022 J0.0045
X11.7809 Y1.8775 Z-0.0607 I-0.0022 J-0.0045
X11.7853 Y1.8865 Z-0.0613 I0.0022 J0.0045
X11.7809 Y1.8775 Z-0.0618 I-0.0022 J-0.0045
X11.7853 Y1.8865 Z-0.0624 I0.0022 J0.0045
X11.7809 Y1.8775 Z-0.0629 I-0.0022 J-0.0045
X11.7853 Y1.8865 Z-0.0635 I0.0022 J0.0045
X11.7809 Y1.8775 Z-0.064 I-0.0022 J-0.0045
X11.7853 Y1.8865 Z-0.0646 I0.0022 J0.0045
X11.7809 Y1.8775 Z-0.0651 I-0.0022 J-0.0045
X11.7853 Y1.8865 Z-0.0657 I0.0022 J0.0045
X11.7809 Y1.8775 Z-0.0662 I-0.0022 J-0.0045
X11.7853 Y1.8865 Z-0.0668 I0.0022 J0.0045
X11.7809 Y1.8775 Z-0.0673 I-0.0022 J-0.0045
X11.7853 Y1.8865 Z-0.0679 I0.0022 J0.0045
X11.7809 Y1.8775 Z-0.0684 I-0.0022 J-0.0045
X11.7853 Y1.8865 Z-0.0689 I0.0022 J0.0045
X11.7809 Y1.8775 Z-0.0695 I-0.0022 J-0.0045
X11.7853 Y1.8865 Z-0.07 I0.0022 J0.0045
X11.7809 Y1.8775 Z-0.0706 I-0.0022 J-0.0045
X11.7853 Y1.8865 Z-0.0711 I0.0022 J0.0045
X11.7809 Y1.8775 Z-0.0717 I-0.0022 J-0.0045
X11.7853 Y1.8865 Z-0.0722 I0.0022 J0.0045
X11.7809 Y1.8775 Z-0.0728 I-0.0022 J-0.0045
X11.7853 Y1.8865 Z-0.0733 I0.0022 J0.0045
X11.7809 Y1.8775 Z-0.0739 I-0.0022 J-0.0045
X11.7853 Y1.8865 Z-0.0744 I0.0022 J0.0045
X11.7809 Y1.8775 Z-0.075 I-0.0022 J-0.0045
X11.7853 Y1.8865 Z-0.0755 I0.0022 J0.0045
X11.7809 Y1.8775 Z-0.0761 I-0.0022 J-0.0045
X11.7853 Y1.8865 Z-0.0766 I0.0022 J0.0045
X11.7809 Y1.8775 Z-0.0772 I-0.0022 J-0.0045
X11.7853 Y1.8865 Z-0.0777 I0.0022 J0.0045
X11.7809 Y1.8775 Z-0.0783 I-0.0022 J-0.0045
X11.7853 Y1.8865 Z-0.0788 I0.0022 J0.0045
X11.7809 Y1.8775 Z-0.0794 I-0.0022 J-0.0045
X11.7853 Y1.8865 Z-0.0799 I0.0022 J0.0045
X11.7831 Y1.887 Z-0.08 I-0.0022 J-0.0045
X11.7741 Y1.878 I0. J-0.009 F40.
X11.7921 I0.009 J0.
X11.7831 Y1.887 I-0.009 J0.
X11.7741 Y1.878 Z-0.0805 I0. J-0.009 F20.
X11.7921 Z-0.0815 I0.009 J0.
X11.7741 Z-0.0825 I-0.009 J0.
X11.7921 Z-0.0835 I0.009 J0.
X11.7741 Z-0.0844 I-0.009 J0.
X11.7921 Z-0.0854 I0.009 J0.
X11.7741 Z-0.0864 I-0.009 J0.
X11.7921 Z-0.0874 I0.009 J0.
X11.7741 Z-0.0884 I-0.009 J0.
X11.7921 Z-0.0894 I0.009 J0.
X11.7741 Z-0.0904 I-0.009 J0.
X11.7921 Z-0.0914 I0.009 J0.
X11.7741 Z-0.0923 I-0.009 J0.
X11.7921 Z-0.0933 I0.009 J0.
X11.7741 Z-0.0943 I-0.009 J0.
X11.7921 Z-0.0953 I0.009 J0.
X11.7741 Z-0.0963 I-0.009 J0.
X11.7921 Z-0.0973 I0.009 J0.
X11.7741 Z-0.0983 I-0.009 J0.
X11.7921 Z-0.0993 I0.009 J0.
X11.7741 Z-0.1002 I-0.009 J0.
X11.7921 Z-0.1012 I0.009 J0.
X11.7741 Z-0.1022 I-0.009 J0.
X11.7921 Z-0.1032 I0.009 J0.
X11.7741 Z-0.1042 I-0.009 J0.
X11.7921 Z-0.1052 I0.009 J0.
X11.7741 Z-0.1062 I-0.009 J0.
X11.7921 Z-0.1072 I0.009 J0.
X11.7741 Z-0.1081 I-0.009 J0.
X11.7921 Z-0.1091 I0.009 J0.
X11.7741 Z-0.1101 I-0.009 J0.
X11.7921 Z-0.1111 I0.009 J0.
X11.7741 Z-0.1121 I-0.009 J0.
X11.7921 Z-0.1131 I0.009 J0.
X11.7741 Z-0.1141 I-0.009 J0.
X11.7921 Z-0.115 I0.009 J0.
X11.7741 Z-0.116 I-0.009 J0.
X11.7921 Z-0.117 I0.009 J0.
X11.7741 Z-0.118 I-0.009 J0.
X11.7921 Z-0.119 I0.009 J0.
X11.7741 Z-0.12 I-0.009 J0.
X11.7921 Z-0.121 I0.009 J0.
X11.7741 Z-0.122 I-0.009 J0.
X11.7921 Z-0.1229 I0.009 J0.
X11.7741 Z-0.1239 I-0.009 J0.
X11.7921 Z-0.1249 I0.009 J0.
X11.7741 Z-0.1259 I-0.009 J0.
X11.7921 Z-0.1269 I0.009 J0.
X11.7741 Z-0.1279 I-0.009 J0.
X11.7921 Z-0.1289 I0.009 J0.
X11.7741 Z-0.1299 I-0.009 J0.
X11.7921 Z-0.1308 I0.009 J0.
X11.7741 Z-0.1318 I-0.009 J0.
X11.7921 Z-0.1328 I0.009 J0.
X11.7741 Z-0.1338 I-0.009 J0.
X11.7921 Z-0.1348 I0.009 J0.
X11.7741 Z-0.1358 I-0.009 J0.
X11.7921 Z-0.1368 I0.009 J0.
X11.7741 Z-0.1378 I-0.009 J0.
X11.7921 Z-0.1387 I0.009 J0.
X11.7741 Z-0.1397 I-0.009 J0.
X11.7921 Z-0.1407 I0.009 J0.
X11.7741 Z-0.1417 I-0.009 J0.
X11.7921 Z-0.1427 I0.009 J0.
X11.7741 Z-0.1437 I-0.009 J0.
X11.7921 Z-0.1447 I0.009 J0.
X11.7741 Z-0.1457 I-0.009 J0.
X11.7921 Z-0.1466 I0.009 J0.
X11.7741 Z-0.1476 I-0.009 J0.
X11.7921 Z-0.1486 I0.009 J0.
X11.7741 Z-0.1496 I-0.009 J0.
X11.7921 Z-0.1506 I0.009 J0.
X11.7741 Z-0.1516 I-0.009 J0.
X11.7921 Z-0.1526 I0.009 J0.
X11.7741 Z-0.1536 I-0.009 J0.
X11.7921 Z-0.1545 I0.009 J0.
X11.7741 Z-0.1555 I-0.009 J0.
X11.7921 Z-0.1565 I0.009 J0.
X11.7741 Z-0.1575 I-0.009 J0.
X11.7921 Z-0.1585 I0.009 J0.
X11.7741 Z-0.1595 I-0.009 J0.
X11.784 Y1.8691 Z-0.16 I0.009 J0.
X11.7921 Y1.878 I-0.0009 J0.009 F40.
X11.7741 I-0.009 J0.
X11.784 Y1.8691 I0.009 J0.
X11.7921 Y1.878 Z-0.1605 I-0.0009 J0.009 F20.
X11.7741 Z-0.1615 I-0.009 J0.
X11.7921 Z-0.1624 I0.009 J0.
X11.7741 Z-0.1634 I-0.009 J0.
X11.7921 Z-0.1644 I0.009 J0.
X11.7741 Z-0.1654 I-0.009 J0.
X11.7921 Z-0.1664 I0.009 J0.
X11.7741 Z-0.1674 I-0.009 J0.
X11.7921 Z-0.1684 I0.009 J0.
X11.7741 Z-0.1693 I-0.009 J0.
X11.7921 Z-0.1703 I0.009 J0.
X11.7741 Z-0.1713 I-0.009 J0.
X11.7921 Z-0.1723 I0.009 J0.
X11.7741 Z-0.1733 I-0.009 J0.
X11.7921 Z-0.1743 I0.009 J0.
X11.7741 Z-0.1753 I-0.009 J0.
X11.7921 Z-0.1763 I0.009 J0.
X11.7741 Z-0.1772 I-0.009 J0.
X11.7921 Z-0.1782 I0.009 J0.
X11.7741 Z-0.1792 I-0.009 J0.
X11.7921 Z-0.1802 I0.009 J0.
X11.7741 Z-0.1812 I-0.009 J0.
X11.7921 Z-0.1822 I0.009 J0.
X11.7741 Z-0.1832 I-0.009 J0.
X11.7921 Z-0.1842 I0.009 J0.
X11.7741 Z-0.1851 I-0.009 J0.
X11.7921 Z-0.1861 I0.009 J0.
X11.7741 Z-0.1871 I-0.009 J0.
X11.7921 Z-0.1881 I0.009 J0.
X11.7741 Z-0.1891 I-0.009 J0.
X11.7921 Z-0.1901 I0.009 J0.
X11.7741 Z-0.1911 I-0.009 J0.
X11.7921 Z-0.1921 I0.009 J0.
X11.7741 Z-0.193 I-0.009 J0.
X11.7921 Z-0.194 I0.009 J0.
X11.7741 Z-0.195 I-0.009 J0.
X11.7921 Z-0.196 I0.009 J0.
X11.7741 Z-0.197 I-0.009 J0.
X11.7921 Z-0.198 I0.009 J0.
X11.7741 Z-0.199 I-0.009 J0.
X11.7921 Z-0.2 I0.009 J0.
X11.7741 Z-0.2009 I-0.009 J0.
X11.7921 Z-0.2019 I0.009 J0.
X11.7741 Z-0.2029 I-0.009 J0.
X11.7921 Z-0.2039 I0.009 J0.
X11.7741 Z-0.2049 I-0.009 J0.
X11.7921 Z-0.2059 I0.009 J0.
X11.7741 Z-0.2069 I-0.009 J0.
X11.7921 Z-0.2079 I0.009 J0.
X11.7741 Z-0.2088 I-0.009 J0.
X11.7921 Z-0.2098 I0.009 J0.
X11.7741 Z-0.2108 I-0.009 J0.
X11.7921 Z-0.2118 I0.009 J0.
X11.7741 Z-0.2128 I-0.009 J0.
X11.7921 Z-0.2138 I0.009 J0.
X11.7741 Z-0.2148 I-0.009 J0.
X11.7921 Z-0.2158 I0.009 J0.
X11.7741 Z-0.2167 I-0.009 J0.
X11.7921 Z-0.2177 I0.009 J0.
X11.7741 Z-0.2187 I-0.009 J0.
X11.7921 Z-0.2197 I0.009 J0.
X11.7741 Z-0.2207 I-0.009 J0.
X11.7921 Z-0.2217 I0.009 J0.
X11.7741 Z-0.2227 I-0.009 J0.
X11.7921 Z-0.2236 I0.009 J0.
X11.7741 Z-0.2246 I-0.009 J0.
X11.7921 Z-0.2256 I0.009 J0.
X11.7741 Z-0.2266 I-0.009 J0.
X11.7921 Z-0.2276 I0.009 J0.
X11.7741 Z-0.2286 I-0.009 J0.
X11.7921 Z-0.2296 I0.009 J0.
X11.7741 Z-0.2306 I-0.009 J0.
X11.7921 Z-0.2315 I0.009 J0.
X11.7741 Z-0.2325 I-0.009 J0.
X11.7921 Z-0.2335 I0.009 J0.
X11.7741 Z-0.2345 I-0.009 J0.
X11.7921 Z-0.2355 I0.009 J0.
X11.7741 Z-0.2365 I-0.009 J0.
X11.7921 Z-0.2375 I0.009 J0.
X11.7741 Z-0.2385 I-0.009 J0.
X11.7921 Z-0.2394 I0.009 J0.
X11.7814 Y1.8869 Z-0.24 I-0.009 J0.
X11.7741 Y1.878 I0.0017 J-0.0088 F40.
X11.7921 I0.009 J0.
X11.7814 Y1.8869 I-0.009 J0.
X11.7741 Y1.878 Z-0.2404 I0.0017 J-0.0088 F20.
X11.7921 Z-0.2414 I0.009 J0.
X11.7741 Z-0.2424 I-0.009 J0.
X11.7921 Z-0.2434 I0.009 J0.
X11.7741 Z-0.2444 I-0.009 J0.
X11.7921 Z-0.2454 I0.009 J0.
X11.7741 Z-0.2464 I-0.009 J0.
X11.7921 Z-0.2473 I0.009 J0.
X11.7741 Z-0.2483 I-0.009 J0.
X11.7921 Z-0.2493 I0.009 J0.
X11.7741 Z-0.2503 I-0.009 J0.
X11.7921 Z-0.2513 I0.009 J0.
X11.7741 Z-0.2523 I-0.009 J0.
X11.7921 Z-0.2533 I0.009 J0.
X11.7741 Z-0.2543 I-0.009 J0.
X11.7921 Z-0.2552 I0.009 J0.
X11.7741 Z-0.2562 I-0.009 J0.
X11.7921 Z-0.2572 I0.009 J0.
X11.7741 Z-0.2582 I-0.009 J0.
X11.7921 Z-0.2592 I0.009 J0.
X11.7741 Z-0.2602 I-0.009 J0.
X11.7921 Z-0.2612 I0.009 J0.
X11.7741 Z-0.2622 I-0.009 J0.
X11.7921 Z-0.2631 I0.009 J0.
X11.7741 Z-0.2641 I-0.009 J0.
X11.7921 Z-0.2651 I0.009 J0.
X11.7741 Z-0.2661 I-0.009 J0.
X11.7921 Z-0.2671 I0.009 J0.
X11.7741 Z-0.2681 I-0.009 J0.
X11.7921 Z-0.2691 I0.009 J0.
X11.7741 Z-0.2701 I-0.009 J0.
X11.7921 Z-0.271 I0.009 J0.
X11.7741 Z-0.272 I-0.009 J0.
X11.7921 Z-0.273 I0.009 J0.
X11.7741 Z-0.274 I-0.009 J0.
X11.7921 Z-0.275 I0.009 J0.
X11.7741 Z-0.276 I-0.009 J0.
X11.7921 Z-0.277 I0.009 J0.
X11.7741 Z-0.278 I-0.009 J0.
X11.7921 Z-0.2789 I0.009 J0.
X11.7741 Z-0.2799 I-0.009 J0.
X11.7921 Z-0.2809 I0.009 J0.
X11.7741 Z-0.2819 I-0.009 J0.
X11.7921 Z-0.2829 I0.009 J0.
X11.7741 Z-0.2839 I-0.009 J0.
X11.7921 Z-0.2849 I0.009 J0.
X11.7741 Z-0.2858 I-0.009 J0.
X11.7921 Z-0.2868 I0.009 J0.
X11.7741 Z-0.2878 I-0.009 J0.
X11.7921 Z-0.2888 I0.009 J0.
X11.7741 Z-0.2898 I-0.009 J0.
X11.7921 Z-0.2908 I0.009 J0.
X11.7741 Z-0.2918 I-0.009 J0.
X11.7921 Z-0.2928 I0.009 J0.
X11.7741 Z-0.2937 I-0.009 J0.
X11.7921 Z-0.2947 I0.009 J0.
X11.7741 Z-0.2957 I-0.009 J0.
X11.7921 Z-0.2967 I0.009 J0.
X11.7741 Z-0.2977 I-0.009 J0.
X11.7921 Z-0.2987 I0.009 J0.
X11.7741 Z-0.2997 I-0.009 J0.
X11.7921 Z-0.3007 I0.009 J0.
X11.7741 Z-0.3016 I-0.009 J0.
X11.7921 Z-0.3026 I0.009 J0.
X11.7741 Z-0.3036 I-0.009 J0.
X11.7921 Z-0.3046 I0.009 J0.
X11.7741 Z-0.3056 I-0.009 J0.
X11.7921 Z-0.3066 I0.009 J0.
X11.7741 Z-0.3076 I-0.009 J0.
X11.7921 Z-0.3086 I0.009 J0.
X11.7741 Z-0.3095 I-0.009 J0.
X11.7921 Z-0.3105 I0.009 J0.
X11.7741 Z-0.3115 I-0.009 J0.
X11.7921 Z-0.3125 I0.009 J0.
X11.7741 Z-0.3135 I-0.009 J0.
X11.7921 Z-0.3145 I0.009 J0.
X11.7741 Z-0.3155 I-0.009 J0.
X11.7921 Z-0.3165 I0.009 J0.
X11.7741 Z-0.3174 I-0.009 J0.
X11.7921 Z-0.3184 I0.009 J0.
X11.7741 Z-0.3194 I-0.009 J0.
X11.7856 Y1.8694 Z-0.32 I0.009 J0.
X11.7921 Y1.878 I-0.0025 J0.0086 F40.
X11.7741 I-0.009 J0.
X11.7856 Y1.8694 I0.009 J0.
X11.7921 Y1.878 Z-0.3204 I-0.0025 J0.0086 F20.
X11.7741 Z-0.3214 I-0.009 J0.
X11.7921 Z-0.3224 I0.009 J0.
X11.7741 Z-0.3234 I-0.009 J0.
X11.7921 Z-0.3244 I0.009 J0.
X11.7741 Z-0.3253 I-0.009 J0.
X11.7921 Z-0.3263 I0.009 J0.
X11.7741 Z-0.3273 I-0.009 J0.
X11.7921 Z-0.3283 I0.009 J0.
X11.7741 Z-0.3293 I-0.009 J0.
X11.7921 Z-0.3303 I0.009 J0.
X11.7741 Z-0.3313 I-0.009 J0.
X11.7921 Z-0.3323 I0.009 J0.
X11.7741 Z-0.3332 I-0.009 J0.
X11.7921 Z-0.3342 I0.009 J0.
X11.7741 Z-0.3352 I-0.009 J0.
X11.7921 Z-0.3362 I0.009 J0.
X11.7741 Z-0.3372 I-0.009 J0.
X11.7921 Z-0.3382 I0.009 J0.
X11.7741 Z-0.3392 I-0.009 J0.
X11.7921 Z-0.3401 I0.009 J0.
X11.7741 Z-0.3411 I-0.009 J0.
X11.7921 Z-0.3421 I0.009 J0.
X11.7741 Z-0.3431 I-0.009 J0.
X11.7921 Z-0.3441 I0.009 J0.
X11.7741 Z-0.3451 I-0.009 J0.
X11.7921 Z-0.3461 I0.009 J0.
X11.7741 Z-0.3471 I-0.009 J0.
X11.7921 Z-0.348 I0.009 J0.
X11.7741 Z-0.349 I-0.009 J0.
X11.7921 Z-0.35 I0.009 J0.
X11.7741 Z-0.351 I-0.009 J0.
X11.7921 Z-0.352 I0.009 J0.
X11.7839 Y1.887 Z-0.3525 I-0.009 J0.
X11.7741 Y1.878 I-0.0008 J-0.009 F40.
X11.7921 I0.009 J0.
X11.7839 Y1.887 I-0.009 J0.
G1 X11.7831 Z-0.3524
X11.7813 Y1.8868 Z-0.3518
X11.7795 Y1.8863 Z-0.3512
X11.7779 Y1.8854 Z-0.3506
X11.7764 Y1.8841 Z-0.3484
X11.7752 Y1.8824 Z-0.3463
X11.7746 Y1.8811 Z-0.3407
G0 Z0.2
X12.7489 Y11.9075
G1 Z0.1118 F40.
X12.7495 Y11.9078 Z0.1079 F20.
X12.7503 Y11.9084 Z0.1061
X12.751 Y11.9091 Z0.1044
X12.7516 Y11.9102 Z0.1033
X12.7519 Y11.9115 Z0.1023
Y11.9128 Z0.1012
X12.7514 Y11.9143 Z0.1008
X12.7505 Y11.9156 Z0.1004
X12.7492 Y11.9166 Z0.1
G3 X12.7447 Y11.9076 Z0.0995 I-0.0022 J-0.0045
X12.7492 Y11.9166 Z0.0989 I0.0022 J0.0045
X12.7447 Y11.9076 Z0.0984 I-0.0022 J-0.0045
X12.7492 Y11.9166 Z0.0978 I0.0022 J0.0045
X12.7447 Y11.9076 Z0.0973 I-0.0022 J-0.0045
X12.7492 Y11.9166 Z0.0967 I0.0022 J0.0045
X12.7447 Y11.9076 Z0.0962 I-0.0022 J-0.0045
X12.7492 Y11.9166 Z0.0956 I0.0022 J0.0045
X12.7447 Y11.9076 Z0.0951 I-0.0022 J-0.0045
X12.7492 Y11.9166 Z0.0945 I0.0022 J0.0045
X12.7447 Y11.9076 Z0.094 I-0.0022 J-0.0045
X12.7492 Y11.9166 Z0.0934 I0.0022 J0.0045
X12.7447 Y11.9076 Z0.0929 I-0.0022 J-0.0045
X12.7492 Y11.9166 Z0.0923 I0.0022 J0.0045
X12.7447 Y11.9076 Z0.0918 I-0.0022 J-0.0045
X12.7492 Y11.9166 Z0.0912 I0.0022 J0.0045
X12.7447 Y11.9076 Z0.0907 I-0.0022 J-0.0045
X12.7492 Y11.9166 Z0.0901 I0.0022 J0.0045
X12.7447 Y11.9076 Z0.0896 I-0.0022 J-0.0045
X12.7492 Y11.9166 Z0.089 I0.0022 J0.0045
X12.7447 Y11.9076 Z0.0885 I-0.0022 J-0.0045
X12.7492 Y11.9166 Z0.0879 I0.0022 J0.0045
X12.7447 Y11.9076 Z0.0874 I-0.0022 J-0.0045
X12.7492 Y11.9166 Z0.0868 I0.0022 J0.0045
X12.7447 Y11.9076 Z0.0863 I-0.0022 J-0.0045
X12.7492 Y11.9166 Z0.0857 I0.0022 J0.0045
X12.7447 Y11.9076 Z0.0852 I-0.0022 J-0.0045
X12.7492 Y11.9166 Z0.0846 I0.0022 J0.0045
X12.7447 Y11.9076 Z0.0841 I-0.0022 J-0.0045
X12.7492 Y11.9166 Z0.0835 I0.0022 J0.0045
X12.7447 Y11.9076 Z0.083 I-0.0022 J-0.0045
X12.7492 Y11.9166 Z0.0824 I0.0022 J0.0045
X12.7447 Y11.9076 Z0.0819 I-0.0022 J-0.0045
X12.7492 Y11.9166 Z0.0813 I0.0022 J0.0045
X12.7447 Y11.9076 Z0.0808 I-0.0022 J-0.0045
X12.7492 Y11.9166 Z0.0803 I0.0022 J0.0045
X12.7447 Y11.9076 Z0.0797 I-0.0022 J-0.0045
X12.7492 Y11.9166 Z0.0792 I0.0022 J0.0045
X12.7447 Y11.9076 Z0.0786 I-0.0022 J-0.0045
X12.7492 Y11.9166 Z0.0781 I0.0022 J0.0045
X12.7447 Y11.9076 Z0.0775 I-0.0022 J-0.0045
X12.7492 Y11.9166 Z0.077 I0.0022 J0.0045
X12.7447 Y11.9076 Z0.0764 I-0.0022 J-0.0045
X12.7492 Y11.9166 Z0.0759 I0.0022 J0.0045
X12.7447 Y11.9076 Z0.0753 I-0.0022 J-0.0045
X12.7492 Y11.9166 Z0.0748 I0.0022 J0.0045
X12.7447 Y11.9076 Z0.0742 I-0.0022 J-0.0045
X12.7492 Y11.9166 Z0.0737 I0.0022 J0.0045
X12.7447 Y11.9076 Z0.0731 I-0.0022 J-0.0045
X12.7492 Y11.9166 Z0.0726 I0.0022 J0.0045
X12.7447 Y11.9076 Z0.072 I-0.0022 J-0.0045
X12.7492 Y11.9166 Z0.0715 I0.0022 J0.0045
X12.7447 Y11.9076 Z0.0709 I-0.0022 J-0.0045
X12.7492 Y11.9166 Z0.0704 I0.0022 J0.0045
X12.7447 Y11.9076 Z0.0698 I-0.0022 J-0.0045
X12.7492 Y11.9166 Z0.0693 I0.0022 J0.0045
X12.7447 Y11.9076 Z0.0687 I-0.0022 J-0.0045
X12.7492 Y11.9166 Z0.0682 I0.0022 J0.0045
X12.7447 Y11.9076 Z0.0676 I-0.0022 J-0.0045
X12.7492 Y11.9166 Z0.0671 I0.0022 J0.0045
X12.7447 Y11.9076 Z0.0665 I-0.0022 J-0.0045
X12.7492 Y11.9166 Z0.066 I0.0022 J0.0045
X12.7447 Y11.9076 Z0.0654 I-0.0022 J-0.0045
X12.7492 Y11.9166 Z0.0649 I0.0022 J0.0045
X12.7447 Y11.9076 Z0.0643 I-0.0022 J-0.0045
X12.7492 Y11.9166 Z0.0638 I0.0022 J0.0045
X12.7447 Y11.9076 Z0.0632 I-0.0022 J-0.0045
X12.7492 Y11.9166 Z0.0627 I0.0022 J0.0045
X12.7447 Y11.9076 Z0.0622 I-0.0022 J-0.0045
X12.7492 Y11.9166 Z0.0616 I0.0022 J0.0045
X12.7447 Y11.9076 Z0.0611 I-0.0022 J-0.0045
X12.7492 Y11.9166 Z0.0605 I0.0022 J0.0045
X12.7447 Y11.9076 Z0.06 I-0.0022 J-0.0045
X12.7492 Y11.9166 Z0.0594 I0.0022 J0.0045
X12.7447 Y11.9076 Z0.0589 I-0.0022 J-0.0045
X12.7492 Y11.9166 Z0.0583 I0.0022 J0.0045
X12.7447 Y11.9076 Z0.0578 I-0.0022 J-0.0045
X12.7492 Y11.9166 Z0.0572 I0.0022 J0.0045
X12.7447 Y11.9076 Z0.0567 I-0.0022 J-0.0045
X12.7492 Y11.9166 Z0.0561 I0.0022 J0.0045
X12.7447 Y11.9076 Z0.0556 I-0.0022 J-0.0045
X12.7492 Y11.9166 Z0.055 I0.0022 J0.0045
X12.7447 Y11.9076 Z0.0545 I-0.0022 J-0.0045
X12.7492 Y11.9166 Z0.0539 I0.0022 J0.0045
X12.7447 Y11.9076 Z0.0534 I-0.0022 J-0.0045
X12.7492 Y11.9166 Z0.0528 I0.0022 J0.0045
X12.7447 Y11.9076 Z0.0523 I-0.0022 J-0.0045
X12.7492 Y11.9166 Z0.0517 I0.0022 J0.0045
X12.7447 Y11.9076 Z0.0512 I-0.0022 J-0.0045
X12.7492 Y11.9166 Z0.0506 I0.0022 J0.0045
X12.7447 Y11.9076 Z0.0501 I-0.0022 J-0.0045
X12.7492 Y11.9166 Z0.0495 I0.0022 J0.0045
X12.7447 Y11.9076 Z0.049 I-0.0022 J-0.0045
X12.7492 Y11.9166 Z0.0484 I0.0022 J0.0045
X12.7447 Y11.9076 Z0.0479 I-0.0022 J-0.0045
X12.7492 Y11.9166 Z0.0473 I0.0022 J0.0045
X12.7447 Y11.9076 Z0.0468 I-0.0022 J-0.0045
X12.7492 Y11.9166 Z0.0462 I0.0022 J0.0045
X12.7447 Y11.9076 Z0.0457 I-0.0022 J-0.0045
X12.7492 Y11.9166 Z0.0451 I0.0022 J0.0045
X12.7447 Y11.9076 Z0.0446 I-0.0022 J-0.0045
X12.7492 Y11.9166 Z0.044 I0.0022 J0.0045
X12.7447 Y11.9076 Z0.0435 I-0.0022 J-0.0045
X12.7492 Y11.9166 Z0.043 I0.0022 J0.0045
X12.7447 Y11.9076 Z0.0424 I-0.0022 J-0.0045
X12.7492 Y11.9166 Z0.0419 I0.0022 J0.0045
X12.7447 Y11.9076 Z0.0413 I-0.0022 J-0.0045
X12.7492 Y11.9166 Z0.0408 I0.0022 J0.0045
X12.7447 Y11.9076 Z0.0402 I-0.0022 J-0.0045
X12.7492 Y11.9166 Z0.0397 I0.0022 J0.0045
X12.7447 Y11.9076 Z0.0391 I-0.0022 J-0.0045
X12.7492 Y11.9166 Z0.0386 I0.0022 J0.0045
X12.7447 Y11.9076 Z0.038 I-0.0022 J-0.0045
X12.7492 Y11.9166 Z0.0375 I0.0022 J0.0045
X12.7447 Y11.9076 Z0.0369 I-0.0022 J-0.0045
X12.7492 Y11.9166 Z0.0364 I0.0022 J0.0045
X12.7447 Y11.9076 Z0.0358 I-0.0022 J-0.0045
X12.7492 Y11.9166 Z0.0353 I0.0022 J0.0045
X12.7447 Y11.9076 Z0.0347 I-0.0022 J-0.0045
X12.7492 Y11.9166 Z0.0342 I0.0022 J0.0045
X12.7447 Y11.9076 Z0.0336 I-0.0022 J-0.0045
X12.7492 Y11.9166 Z0.0331 I0.0022 J0.0045
X12.7447 Y11.9076 Z0.0325 I-0.0022 J-0.0045
X12.7492 Y11.9166 Z0.032 I0.0022 J0.0045
X12.7447 Y11.9076 Z0.0314 I-0.0022 J-0.0045
X12.7492 Y11.9166 Z0.0309 I0.0022 J0.0045
X12.7447 Y11.9076 Z0.0303 I-0.0022 J-0.0045
X12.7492 Y11.9166 Z0.0298 I0.0022 J0.0045
X12.7447 Y11.9076 Z0.0292 I-0.0022 J-0.0045
X12.7492 Y11.9166 Z0.0287 I0.0022 J0.0045
X12.7447 Y11.9076 Z0.0281 I-0.0022 J-0.0045
X12.7492 Y11.9166 Z0.0276 I0.0022 J0.0045
X12.7447 Y11.9076 Z0.027 I-0.0022 J-0.0045
X12.7492 Y11.9166 Z0.0265 I0.0022 J0.0045
X12.7447 Y11.9076 Z0.0259 I-0.0022 J-0.0045
X12.7492 Y11.9166 Z0.0254 I0.0022 J0.0045
X12.7447 Y11.9076 Z0.0249 I-0.0022 J-0.0045
X12.7492 Y11.9166 Z0.0243 I0.0022 J0.0045
X12.7447 Y11.9076 Z0.0238 I-0.0022 J-0.0045
X12.7492 Y11.9166 Z0.0232 I0.0022 J0.0045
X12.7447 Y11.9076 Z0.0227 I-0.0022 J-0.0045
X12.7492 Y11.9166 Z0.0221 I0.0022 J0.0045
X12.7447 Y11.9076 Z0.0216 I-0.0022 J-0.0045
X12.7492 Y11.9166 Z0.021 I0.0022 J0.0045
X12.7447 Y11.9076 Z0.0205 I-0.0022 J-0.0045
X12.7492 Y11.9166 Z0.0199 I0.0022 J0.0045
X12.7447 Y11.9076 Z0.0194 I-0.0022 J-0.0045
X12.7492 Y11.9166 Z0.0188 I0.0022 J0.0045
X12.7447 Y11.9076 Z0.0183 I-0.0022 J-0.0045
X12.7492 Y11.9166 Z0.0177 I0.0022 J0.0045
X12.7447 Y11.9076 Z0.0172 I-0.0022 J-0.0045
X12.7492 Y11.9166 Z0.0166 I0.0022 J0.0045
X12.7447 Y11.9076 Z0.0161 I-0.0022 J-0.0045
X12.7492 Y11.9166 Z0.0155 I0.0022 J0.0045
X12.7447 Y11.9076 Z0.015 I-0.0022 J-0.0045
X12.7492 Y11.9166 Z0.0144 I0.0022 J0.0045
X12.7447 Y11.9076 Z0.0139 I-0.0022 J-0.0045
X12.7492 Y11.9166 Z0.0133 I0.0022 J0.0045
X12.7447 Y11.9076 Z0.0128 I-0.0022 J-0.0045
X12.7492 Y11.9166 Z0.0122 I0.0022 J0.0045
X12.7447 Y11.9076 Z0.0117 I-0.0022 J-0.0045
X12.7492 Y11.9166 Z0.0111 I0.0022 J0.0045
X12.7447 Y11.9076 Z0.0106 I-0.0022 J-0.0045
X12.7492 Y11.9166 Z0.01 I0.0022 J0.0045
X12.7447 Y11.9076 Z0.0095 I-0.0022 J-0.0045
X12.7492 Y11.9166 Z0.0089 I0.0022 J0.0045
X12.7447 Y11.9076 Z0.0084 I-0.0022 J-0.0045
X12.7492 Y11.9166 Z0.0078 I0.0022 J0.0045
X12.7447 Y11.9076 Z0.0073 I-0.0022 J-0.0045
X12.7492 Y11.9166 Z0.0067 I0.0022 J0.0045
X12.7447 Y11.9076 Z0.0062 I-0.0022 J-0.0045
X12.7492 Y11.9166 Z0.0057 I0.0022 J0.0045
X12.7447 Y11.9076 Z0.0051 I-0.0022 J-0.0045
X12.7492 Y11.9166 Z0.0046 I0.0022 J0.0045
X12.7447 Y11.9076 Z0.004 I-0.0022 J-0.0045
X12.7492 Y11.9166 Z0.0035 I0.0022 J0.0045
X12.7447 Y11.9076 Z0.0029 I-0.0022 J-0.0045
X12.7492 Y11.9166 Z0.0024 I0.0022 J0.0045
X12.7447 Y11.9076 Z0.0018 I-0.0022 J-0.0045
X12.7492 Y11.9166 Z0.0013 I0.0022 J0.0045
X12.7447 Y11.9076 Z0.0007 I-0.0022 J-0.0045
X12.7492 Y11.9166 Z0.0002 I0.0022 J0.0045
X12.7447 Y11.9076 Z-0.0004 I-0.0022 J-0.0045
X12.7492 Y11.9166 Z-0.0009 I0.0022 J0.0045
X12.7447 Y11.9076 Z-0.0015 I-0.0022 J-0.0045
X12.7492 Y11.9166 Z-0.002 I0.0022 J0.0045
X12.7447 Y11.9076 Z-0.0026 I-0.0022 J-0.0045
X12.7492 Y11.9166 Z-0.0031 I0.0022 J0.0045
X12.7447 Y11.9076 Z-0.0037 I-0.0022 J-0.0045
X12.7492 Y11.9166 Z-0.0042 I0.0022 J0.0045
X12.7447 Y11.9076 Z-0.0048 I-0.0022 J-0.0045
X12.7492 Y11.9166 Z-0.0053 I0.0022 J0.0045
X12.7447 Y11.9076 Z-0.0059 I-0.0022 J-0.0045
X12.7492 Y11.9166 Z-0.0064 I0.0022 J0.0045
X12.7447 Y11.9076 Z-0.007 I-0.0022 J-0.0045
X12.7492 Y11.9166 Z-0.0075 I0.0022 J0.0045
X12.7447 Y11.9076 Z-0.0081 I-0.0022 J-0.0045
X12.7492 Y11.9166 Z-0.0086 I0.0022 J0.0045
X12.7447 Y11.9076 Z-0.0092 I-0.0022 J-0.0045
X12.7492 Y11.9166 Z-0.0097 I0.0022 J0.0045
X12.7447 Y11.9076 Z-0.0103 I-0.0022 J-0.0045
X12.7492 Y11.9166 Z-0.0108 I0.0022 J0.0045
X12.7447 Y11.9076 Z-0.0114 I-0.0022 J-0.0045
X12.7492 Y11.9166 Z-0.0119 I0.0022 J0.0045
X12.7447 Y11.9076 Z-0.0124 I-0.0022 J-0.0045
X12.7492 Y11.9166 Z-0.013 I0.0022 J0.0045
X12.7447 Y11.9076 Z-0.0135 I-0.0022 J-0.0045
X12.7492 Y11.9166 Z-0.0141 I0.0022 J0.0045
X12.7447 Y11.9076 Z-0.0146 I-0.0022 J-0.0045
X12.7492 Y11.9166 Z-0.0152 I0.0022 J0.0045
X12.7447 Y11.9076 Z-0.0157 I-0.0022 J-0.0045
X12.7492 Y11.9166 Z-0.0163 I0.0022 J0.0045
X12.7447 Y11.9076 Z-0.0168 I-0.0022 J-0.0045
X12.7492 Y11.9166 Z-0.0174 I0.0022 J0.0045
X12.7447 Y11.9076 Z-0.0179 I-0.0022 J-0.0045
X12.7492 Y11.9166 Z-0.0185 I0.0022 J0.0045
X12.7447 Y11.9076 Z-0.019 I-0.0022 J-0.0045
X12.7492 Y11.9166 Z-0.0196 I0.0022 J0.0045
X12.7447 Y11.9076 Z-0.0201 I-0.0022 J-0.0045
X12.7492 Y11.9166 Z-0.0207 I0.0022 J0.0045
X12.7447 Y11.9076 Z-0.0212 I-0.0022 J-0.0045
X12.7492 Y11.9166 Z-0.0218 I0.0022 J0.0045
X12.7447 Y11.9076 Z-0.0223 I-0.0022 J-0.0045
X12.7492 Y11.9166 Z-0.0229 I0.0022 J0.0045
X12.7447 Y11.9076 Z-0.0234 I-0.0022 J-0.0045
X12.7492 Y11.9166 Z-0.024 I0.0022 J0.0045
X12.7447 Y11.9076 Z-0.0245 I-0.0022 J-0.0045
X12.7492 Y11.9166 Z-0.0251 I0.0022 J0.0045
X12.7447 Y11.9076 Z-0.0256 I-0.0022 J-0.0045
X12.7492 Y11.9166 Z-0.0262 I0.0022 J0.0045
X12.7447 Y11.9076 Z-0.0267 I-0.0022 J-0.0045
X12.7492 Y11.9166 Z-0.0273 I0.0022 J0.0045
X12.7447 Y11.9076 Z-0.0278 I-0.0022 J-0.0045
X12.7492 Y11.9166 Z-0.0284 I0.0022 J0.0045
X12.7447 Y11.9076 Z-0.0289 I-0.0022 J-0.0045
X12.7492 Y11.9166 Z-0.0295 I0.0022 J0.0045
X12.7447 Y11.9076 Z-0.03 I-0.0022 J-0.0045
X12.7492 Y11.9166 Z-0.0306 I0.0022 J0.0045
X12.7447 Y11.9076 Z-0.0311 I-0.0022 J-0.0045
X12.7492 Y11.9166 Z-0.0316 I0.0022 J0.0045
X12.7447 Y11.9076 Z-0.0322 I-0.0022 J-0.0045
X12.7492 Y11.9166 Z-0.0327 I0.0022 J0.0045
X12.7447 Y11.9076 Z-0.0333 I-0.0022 J-0.0045
X12.7492 Y11.9166 Z-0.0338 I0.0022 J0.0045
X12.7447 Y11.9076 Z-0.0344 I-0.0022 J-0.0045
X12.7492 Y11.9166 Z-0.0349 I0.0022 J0.0045
X12.7447 Y11.9076 Z-0.0355 I-0.0022 J-0.0045
X12.7492 Y11.9166 Z-0.036 I0.0022 J0.0045
X12.7447 Y11.9076 Z-0.0366 I-0.0022 J-0.0045
X12.7492 Y11.9166 Z-0.0371 I0.0022 J0.0045
X12.7447 Y11.9076 Z-0.0377 I-0.0022 J-0.0045
X12.7492 Y11.9166 Z-0.0382 I0.0022 J0.0045
X12.7447 Y11.9076 Z-0.0388 I-0.0022 J-0.0045
X12.7492 Y11.9166 Z-0.0393 I0.0022 J0.0045
X12.7447 Y11.9076 Z-0.0399 I-0.0022 J-0.0045
X12.7492 Y11.9166 Z-0.0404 I0.0022 J0.0045
X12.7447 Y11.9076 Z-0.041 I-0.0022 J-0.0045
X12.7492 Y11.9166 Z-0.0415 I0.0022 J0.0045
X12.7447 Y11.9076 Z-0.0421 I-0.0022 J-0.0045
X12.7492 Y11.9166 Z-0.0426 I0.0022 J0.0045
X12.7447 Y11.9076 Z-0.0432 I-0.0022 J-0.0045
X12.7492 Y11.9166 Z-0.0437 I0.0022 J0.0045
X12.7447 Y11.9076 Z-0.0443 I-0.0022 J-0.0045
X12.7492 Y11.9166 Z-0.0448 I0.0022 J0.0045
X12.7447 Y11.9076 Z-0.0454 I-0.0022 J-0.0045
X12.7492 Y11.9166 Z-0.0459 I0.0022 J0.0045
X12.7447 Y11.9076 Z-0.0465 I-0.0022 J-0.0045
X12.7492 Y11.9166 Z-0.047 I0.0022 J0.0045
X12.7447 Y11.9076 Z-0.0476 I-0.0022 J-0.0045
X12.7492 Y11.9166 Z-0.0481 I0.0022 J0.0045
X12.7447 Y11.9076 Z-0.0487 I-0.0022 J-0.0045
X12.7492 Y11.9166 Z-0.0492 I0.0022 J0.0045
X12.7447 Y11.9076 Z-0.0497 I-0.0022 J-0.0045
X12.7492 Y11.9166 Z-0.0503 I0.0022 J0.0045
X12.7447 Y11.9076 Z-0.0508 I-0.0022 J-0.0045
X12.7492 Y11.9166 Z-0.0514 I0.0022 J0.0045
X12.7447 Y11.9076 Z-0.0519 I-0.0022 J-0.0045
X12.7492 Y11.9166 Z-0.0525 I0.0022 J0.0045
X12.7447 Y11.9076 Z-0.053 I-0.0022 J-0.0045
X12.7492 Y11.9166 Z-0.0536 I0.0022 J0.0045
X12.7447 Y11.9076 Z-0.0541 I-0.0022 J-0.0045
X12.7492 Y11.9166 Z-0.0547 I0.0022 J0.0045
X12.7447 Y11.9076 Z-0.0552 I-0.0022 J-0.0045
X12.7492 Y11.9166 Z-0.0558 I0.0022 J0.0045
X12.7447 Y11.9076 Z-0.0563 I-0.0022 J-0.0045
X12.7492 Y11.9166 Z-0.0569 I0.0022 J0.0045
X12.7447 Y11.9076 Z-0.0574 I-0.0022 J-0.0045
X12.7492 Y11.9166 Z-0.058 I0.0022 J0.0045
X12.7447 Y11.9076 Z-0.0585 I-0.0022 J-0.0045
X12.7492 Y11.9166 Z-0.0591 I0.0022 J0.0045
X12.7447 Y11.9076 Z-0.0596 I-0.0022 J-0.0045
X12.7492 Y11.9166 Z-0.0602 I0.0022 J0.0045
X12.7447 Y11.9076 Z-0.0607 I-0.0022 J-0.0045
X12.7492 Y11.9166 Z-0.0613 I0.0022 J0.0045
X12.7447 Y11.9076 Z-0.0618 I-0.0022 J-0.0045
X12.7492 Y11.9166 Z-0.0624 I0.0022 J0.0045
X12.7447 Y11.9076 Z-0.0629 I-0.0022 J-0.0045
X12.7492 Y11.9166 Z-0.0635 I0.0022 J0.0045
X12.7447 Y11.9076 Z-0.064 I-0.0022 J-0.0045
X12.7492 Y11.9166 Z-0.0646 I0.0022 J0.0045
X12.7447 Y11.9076 Z-0.0651 I-0.0022 J-0.0045
X12.7492 Y11.9166 Z-0.0657 I0.0022 J0.0045
X12.7447 Y11.9076 Z-0.0662 I-0.0022 J-0.0045
X12.7492 Y11.9166 Z-0.0668 I0.0022 J0.0045
X12.7447 Y11.9076 Z-0.0673 I-0.0022 J-0.0045
X12.7492 Y11.9166 Z-0.0679 I0.0022 J0.0045
X12.7447 Y11.9076 Z-0.0684 I-0.0022 J-0.0045
X12.7492 Y11.9166 Z-0.0689 I0.0022 J0.0045
X12.7447 Y11.9076 Z-0.0695 I-0.0022 J-0.0045
X12.7492 Y11.9166 Z-0.07 I0.0022 J0.0045
X12.7447 Y11.9076 Z-0.0706 I-0.0022 J-0.0045
X12.7492 Y11.9166 Z-0.0711 I0.0022 J0.0045
X12.7447 Y11.9076 Z-0.0717 I-0.0022 J-0.0045
X12.7492 Y11.9166 Z-0.0722 I0.0022 J0.0045
X12.7447 Y11.9076 Z-0.0728 I-0.0022 J-0.0045
X12.7492 Y11.9166 Z-0.0733 I0.0022 J0.0045
X12.7447 Y11.9076 Z-0.0739 I-0.0022 J-0.0045
X12.7492 Y11.9166 Z-0.0744 I0.0022 J0.0045
X12.7447 Y11.9076 Z-0.075 I-0.0022 J-0.0045
X12.7492 Y11.9166 Z-0.0755 I0.0022 J0.0045
X12.7447 Y11.9076 Z-0.0761 I-0.0022 J-0.0045
X12.7492 Y11.9166 Z-0.0766 I0.0022 J0.0045
X12.7447 Y11.9076 Z-0.0772 I-0.0022 J-0.0045
X12.7492 Y11.9166 Z-0.0777 I0.0022 J0.0045
X12.7447 Y11.9076 Z-0.0783 I-0.0022 J-0.0045
X12.7492 Y11.9166 Z-0.0788 I0.0022 J0.0045
X12.7447 Y11.9076 Z-0.0794 I-0.0022 J-0.0045
X12.7492 Y11.9166 Z-0.0799 I0.0022 J0.0045
X12.747 Y11.9171 Z-0.08 I-0.0022 J-0.0045
Y11.8991 I0. J-0.009 F40.
Y11.9171 I0. J0.009
Y11.8991 Z-0.081 I0. J-0.009 F20.
Y11.9171 Z-0.082 I0. J0.009
Y11.8991 Z-0.083 I0. J-0.009
Y11.9171 Z-0.0839 I0. J0.009
Y11.8991 Z-0.0849 I0. J-0.009
Y11.9171 Z-0.0859 I0. J0.009
Y11.8991 Z-0.0869 I0. J-0.009
Y11.9171 Z-0.0879 I0. J0.009
Y11.8991 Z-0.0889 I0. J-0.009
Y11.9171 Z-0.0899 I0. J0.009
Y11.8991 Z-0.0909 I0. J-0.009
Y11.9171 Z-0.0918 I0. J0.009
Y11.8991 Z-0.0928 I0. J-0.009
Y11.9171 Z-0.0938 I0. J0.009
Y11.8991 Z-0.0948 I0. J-0.009
Y11.9171 Z-0.0958 I0. J0.009
Y11.8991 Z-0.0968 I0. J-0.009
Y11.9171 Z-0.0978 I0. J0.009
Y11.8991 Z-0.0987 I0. J-0.009
Y11.9171 Z-0.0997 I0. J0.009
Y11.8991 Z-0.1007 I0. J-0.009
Y11.9171 Z-0.1017 I0. J0.009
Y11.8991 Z-0.1027 I0. J-0.009
Y11.9171 Z-0.1037 I0. J0.009
Y11.8991 Z-0.1047 I0. J-0.009
Y11.9171 Z-0.1056 I0. J0.009
Y11.8991 Z-0.1066 I0. J-0.009
Y11.9171 Z-0.1076 I0. J0.009
Y11.8991 Z-0.1086 I0. J-0.009
Y11.9171 Z-0.1096 I0. J0.009
Y11.8991 Z-0.1106 I0. J-0.009
Y11.9171 Z-0.1116 I0. J0.009
Y11.8991 Z-0.1126 I0. J-0.009
Y11.9171 Z-0.1135 I0. J0.009
Y11.8991 Z-0.1145 I0. J-0.009
Y11.9171 Z-0.1155 I0. J0.009
Y11.8991 Z-0.1165 I0. J-0.009
Y11.9171 Z-0.1175 I0. J0.009
Y11.8991 Z-0.1185 I0. J-0.009
Y11.9171 Z-0.1195 I0. J0.009
Y11.8991 Z-0.1204 I0. J-0.009
Y11.9171 Z-0.1214 I0. J0.009
Y11.8991 Z-0.1224 I0. J-0.009
Y11.9171 Z-0.1234 I0. J0.009
Y11.8991 Z-0.1244 I0. J-0.009
Y11.9171 Z-0.1254 I0. J0.009
Y11.8991 Z-0.1264 I0. J-0.009
Y11.9171 Z-0.1274 I0. J0.009
Y11.8991 Z-0.1283 I0. J-0.009
Y11.9171 Z-0.1293 I0. J0.009
Y11.8991 Z-0.1303 I0. J-0.009
Y11.9171 Z-0.1313 I0. J0.009
Y11.8991 Z-0.1323 I0. J-0.009
Y11.9171 Z-0.1333 I0. J0.009
Y11.8991 Z-0.1343 I0. J-0.009
Y11.9171 Z-0.1352 I0. J0.009
Y11.8991 Z-0.1362 I0. J-0.009
Y11.9171 Z-0.1372 I0. J0.009
Y11.8991 Z-0.1382 I0. J-0.009
Y11.9171 Z-0.1392 I0. J0.009
Y11.8991 Z-0.1402 I0. J-0.009
Y11.9171 Z-0.1412 I0. J0.009
Y11.8991 Z-0.1421 I0. J-0.009
Y11.9171 Z-0.1431 I0. J0.009
Y11.8991 Z-0.1441 I0. J-0.009
Y11.9171 Z-0.1451 I0. J0.009
Y11.8991 Z-0.1461 I0. J-0.009
Y11.9171 Z-0.1471 I0. J0.009
Y11.8991 Z-0.1481 I0. J-0.009
Y11.9171 Z-0.1491 I0. J0.009
Y11.8991 Z-0.15 I0. J-0.009
Y11.9171 Z-0.151 I0. J0.009
Y11.8991 Z-0.152 I0. J-0.009
Y11.9171 Z-0.153 I0. J0.009
Y11.8991 Z-0.154 I0. J-0.009
Y11.9171 Z-0.155 I0. J0.009
Y11.8991 Z-0.156 I0. J-0.009
Y11.9171 Z-0.1569 I0. J0.009
Y11.8991 Z-0.1579 I0. J-0.009
Y11.9171 Z-0.1589 I0. J0.009
X12.7381 Y11.9068 Z-0.1595 I0. J-0.009
X12.7496 Y11.8995 Z-0.16 I0.0089 J0.0013
X12.7443 Y11.9167 I-0.0026 J0.0086 F40.
X12.7496 Y11.8995 I0.0026 J-0.0086
X12.7443 Y11.9167 Z-0.161 I-0.0026 J0.0086 F20.
X12.7496 Y11.8995 Z-0.162 I0.0026 J-0.0086
X12.7443 Y11.9167 Z-0.163 I-0.0026 J0.0086
X12.7496 Y11.8995 Z-0.1639 I0.0026 J-0.0086
X12.7443 Y11.9167 Z-0.1649 I-0.0026 J0.0086
X12.7496 Y11.8995 Z-0.1659 I0.0026 J-0.0086
X12.7443 Y11.9167 Z-0.1669 I-0.0026 J0.0086
X12.7496 Y11.8995 Z-0.1679 I0.0026 J-0.0086
X12.7443 Y11.9167 Z-0.1689 I-0.0026 J0.0086
X12.7496 Y11.8995 Z-0.1699 I0.0026 J-0.0086
X12.7443 Y11.9167 Z-0.1709 I-0.0026 J0.0086
X12.7496 Y11.8995 Z-0.1718 I0.0026 J-0.0086
X12.7443 Y11.9167 Z-0.1728 I-0.0026 J0.0086
X12.7496 Y11.8995 Z-0.1738 I0.0026 J-0.0086
X12.7443 Y11.9167 Z-0.1748 I-0.0026 J0.0086
X12.7496 Y11.8995 Z-0.1758 I0.0026 J-0.0086
X12.7443 Y11.9167 Z-0.1768 I-0.0026 J0.0086
X12.7496 Y11.8995 Z-0.1778 I0.0026 J-0.0086
X12.7443 Y11.9167 Z-0.1787 I-0.0026 J0.0086
X12.7496 Y11.8995 Z-0.1797 I0.0026 J-0.0086
X12.7443 Y11.9167 Z-0.1807 I-0.0026 J0.0086
X12.7496 Y11.8995 Z-0.1817 I0.0026 J-0.0086
X12.7443 Y11.9167 Z-0.1827 I-0.0026 J0.0086
X12.7496 Y11.8995 Z-0.1837 I0.0026 J-0.0086
X12.7443 Y11.9167 Z-0.1847 I-0.0026 J0.0086
X12.7496 Y11.8995 Z-0.1856 I0.0026 J-0.0086
X12.7443 Y11.9167 Z-0.1866 I-0.0026 J0.0086
X12.7496 Y11.8995 Z-0.1876 I0.0026 J-0.0086
X12.7443 Y11.9167 Z-0.1886 I-0.0026 J0.0086
X12.7496 Y11.8995 Z-0.1896 I0.0026 J-0.0086
X12.7443 Y11.9167 Z-0.1906 I-0.0026 J0.0086
X12.7496 Y11.8995 Z-0.1916 I0.0026 J-0.0086
X12.7443 Y11.9167 Z-0.1926 I-0.0026 J0.0086
X12.7496 Y11.8995 Z-0.1935 I0.0026 J-0.0086
X12.7443 Y11.9167 Z-0.1945 I-0.0026 J0.0086
X12.7496 Y11.8995 Z-0.1955 I0.0026 J-0.0086
X12.7443 Y11.9167 Z-0.1965 I-0.0026 J0.0086
X12.7496 Y11.8995 Z-0.1975 I0.0026 J-0.0086
X12.7443 Y11.9167 Z-0.1985 I-0.0026 J0.0086
X12.7496 Y11.8995 Z-0.1995 I0.0026 J-0.0086
X12.7443 Y11.9167 Z-0.2004 I-0.0026 J0.0086
X12.7496 Y11.8995 Z-0.2014 I0.0026 J-0.0086
X12.7443 Y11.9167 Z-0.2024 I-0.0026 J0.0086
X12.7496 Y11.8995 Z-0.2034 I0.0026 J-0.0086
X12.7443 Y11.9167 Z-0.2044 I-0.0026 J0.0086
X12.7496 Y11.8995 Z-0.2054 I0.0026 J-0.0086
X12.7443 Y11.9167 Z-0.2064 I-0.0026 J0.0086
X12.7496 Y11.8995 Z-0.2074 I0.0026 J-0.0086
X12.7443 Y11.9167 Z-0.2083 I-0.0026 J0.0086
X12.7496 Y11.8995 Z-0.2093 I0.0026 J-0.0086
X12.7443 Y11.9167 Z-0.2103 I-0.0026 J0.0086
X12.7496 Y11.8995 Z-0.2113 I0.0026 J-0.0086
X12.7443 Y11.9167 Z-0.2123 I-0.0026 J0.0086
X12.7496 Y11.8995 Z-0.2133 I0.0026 J-0.0086
X12.7443 Y11.9167 Z-0.2143 I-0.0026 J0.0086
X12.7496 Y11.8995 Z-0.2152 I0.0026 J-0.0086
X12.7443 Y11.9167 Z-0.2162 I-0.0026 J0.0086
X12.7496 Y11.8995 Z-0.2172 I0.0026 J-0.0086
X12.7443 Y11.9167 Z-0.2182 I-0.0026 J0.0086
X12.7496 Y11.8995 Z-0.2192 I0.0026 J-0.0086
X12.7443 Y11.9167 Z-0.2202 I-0.0026 J0.0086
X12.7496 Y11.8995 Z-0.2212 I0.0026 J-0.0086
X12.7443 Y11.9167 Z-0.2221 I-0.0026 J0.0086
X12.7496 Y11.8995 Z-0.2231 I0.0026 J-0.0086
X12.7443 Y11.9167 Z-0.2241 I-0.0026 J0.0086
X12.7496 Y11.8995 Z-0.2251 I0.0026 J-0.0086
X12.7443 Y11.9167 Z-0.2261 I-0.0026 J0.0086
X12.7496 Y11.8995 Z-0.2271 I0.0026 J-0.0086
X12.7443 Y11.9167 Z-0.2281 I-0.0026 J0.0086
X12.7496 Y11.8995 Z-0.2291 I0.0026 J-0.0086
X12.7443 Y11.9167 Z-0.23 I-0.0026 J0.0086
X12.7496 Y11.8995 Z-0.231 I0.0026 J-0.0086
X12.7443 Y11.9167 Z-0.232 I-0.0026 J0.0086
X12.7496 Y11.8995 Z-0.233 I0.0026 J-0.0086
X12.7443 Y11.9167 Z-0.234 I-0.0026 J0.0086
X12.7496 Y11.8995 Z-0.235 I0.0026 J-0.0086
X12.7443 Y11.9167 Z-0.236 I-0.0026 J0.0086
X12.7496 Y11.8995 Z-0.2369 I0.0026 J-0.0086
X12.7443 Y11.9167 Z-0.2379 I-0.0026 J0.0086
X12.7496 Y11.8995 Z-0.2389 I0.0026 J-0.0086
X12.7551 Y11.912 Z-0.2395 I-0.0026 J0.0086
X12.7419 Y11.9155 Z-0.24 I-0.0081 J-0.0039
X12.752 Y11.9007 I0.0051 J-0.0074 F40.
X12.7419 Y11.9155 I-0.0051 J0.0074
X12.752 Y11.9007 Z-0.241 I0.0051 J-0.0074 F20.
X12.7419 Y11.9155 Z-0.242 I-0.0051 J0.0074
X12.752 Y11.9007 Z-0.243 I0.0051 J-0.0074
X12.7419 Y11.9155 Z-0.2439 I-0.0051 J0.0074
X12.752 Y11.9007 Z-0.2449 I0.0051 J-0.0074
X12.7419 Y11.9155 Z-0.2459 I-0.0051 J0.0074
X12.752 Y11.9007 Z-0.2469 I0.0051 J-0.0074
X12.7419 Y11.9155 Z-0.2479 I-0.0051 J0.0074
X12.752 Y11.9007 Z-0.2489 I0.0051 J-0.0074
X12.7419 Y11.9155 Z-0.2499 I-0.0051 J0.0074
X12.752 Y11.9007 Z-0.2509 I0.0051 J-0.0074
X12.7419 Y11.9155 Z-0.2518 I-0.0051 J0.0074
X12.752 Y11.9007 Z-0.2528 I0.0051 J-0.0074
X12.7419 Y11.9155 Z-0.2538 I-0.0051 J0.0074
X12.752 Y11.9007 Z-0.2548 I0.0051 J-0.0074
X12.7419 Y11.9155 Z-0.2558 I-0.0051 J0.0074
X12.752 Y11.9007 Z-0.2568 I0.0051 J-0.0074
X12.7419 Y11.9155 Z-0.2578 I-0.0051 J0.0074
X12.752 Y11.9007 Z-0.2587 I0.0051 J-0.0074
X12.7419 Y11.9155 Z-0.2597 I-0.0051 J0.0074
X12.752 Y11.9007 Z-0.2607 I0.0051 J-0.0074
X12.7419 Y11.9155 Z-0.2617 I-0.0051 J0.0074
X12.752 Y11.9007 Z-0.2627 I0.0051 J-0.0074
X12.7419 Y11.9155 Z-0.2637 I-0.0051 J0.0074
X12.752 Y11.9007 Z-0.2647 I0.0051 J-0.0074
X12.7419 Y11.9155 Z-0.2656 I-0.0051 J0.0074
X12.752 Y11.9007 Z-0.2666 I0.0051 J-0.0074
X12.7419 Y11.9155 Z-0.2676 I-0.0051 J0.0074
X12.752 Y11.9007 Z-0.2686 I0.0051 J-0.0074
X12.7419 Y11.9155 Z-0.2696 I-0.0051 J0.0074
X12.752 Y11.9007 Z-0.2706 I0.0051 J-0.0074
X12.7419 Y11.9155 Z-0.2716 I-0.0051 J0.0074
X12.752 Y11.9007 Z-0.2726 I0.0051 J-0.0074
X12.7419 Y11.9155 Z-0.2735 I-0.0051 J0.0074
X12.752 Y11.9007 Z-0.2745 I0.0051 J-0.0074
X12.7419 Y11.9155 Z-0.2755 I-0.0051 J0.0074
X12.752 Y11.9007 Z-0.2765 I0.0051 J-0.0074
X12.7419 Y11.9155 Z-0.2775 I-0.0051 J0.0074
X12.752 Y11.9007 Z-0.2785 I0.0051 J-0.0074
X12.7419 Y11.9155 Z-0.2795 I-0.0051 J0.0074
X12.752 Y11.9007 Z-0.2804 I0.0051 J-0.0074
X12.7419 Y11.9155 Z-0.2814 I-0.0051 J0.0074
X12.752 Y11.9007 Z-0.2824 I0.0051 J-0.0074
X12.7419 Y11.9155 Z-0.2834 I-0.0051 J0.0074
X12.752 Y11.9007 Z-0.2844 I0.0051 J-0.0074
X12.7419 Y11.9155 Z-0.2854 I-0.0051 J0.0074
X12.752 Y11.9007 Z-0.2864 I0.0051 J-0.0074
X12.7419 Y11.9155 Z-0.2874 I-0.0051 J0.0074
X12.752 Y11.9007 Z-0.2883 I0.0051 J-0.0074
X12.7419 Y11.9155 Z-0.2893 I-0.0051 J0.0074
X12.752 Y11.9007 Z-0.2903 I0.0051 J-0.0074
X12.7419 Y11.9155 Z-0.2913 I-0.0051 J0.0074
X12.752 Y11.9007 Z-0.2923 I0.0051 J-0.0074
X12.7419 Y11.9155 Z-0.2933 I-0.0051 J0.0074
X12.752 Y11.9007 Z-0.2943 I0.0051 J-0.0074
X12.7419 Y11.9155 Z-0.2952 I-0.0051 J0.0074
X12.752 Y11.9007 Z-0.2962 I0.0051 J-0.0074
X12.7419 Y11.9155 Z-0.2972 I-0.0051 J0.0074
X12.752 Y11.9007 Z-0.2982 I0.0051 J-0.0074
X12.7419 Y11.9155 Z-0.2992 I-0.0051 J0.0074
X12.752 Y11.9007 Z-0.3002 I0.0051 J-0.0074
X12.7419 Y11.9155 Z-0.3012 I-0.0051 J0.0074
X12.752 Y11.9007 Z-0.3021 I0.0051 J-0.0074
X12.7419 Y11.9155 Z-0.3031 I-0.0051 J0.0074
X12.752 Y11.9007 Z-0.3041 I0.0051 J-0.0074
X12.7419 Y11.9155 Z-0.3051 I-0.0051 J0.0074
X12.752 Y11.9007 Z-0.3061 I0.0051 J-0.0074
X12.7419 Y11.9155 Z-0.3071 I-0.0051 J0.0074
X12.752 Y11.9007 Z-0.3081 I0.0051 J-0.0074
X12.7419 Y11.9155 Z-0.3091 I-0.0051 J0.0074
X12.752 Y11.9007 Z-0.31 I0.0051 J-0.0074
X12.7419 Y11.9155 Z-0.311 I-0.0051 J0.0074
X12.752 Y11.9007 Z-0.312 I0.0051 J-0.0074
X12.7419 Y11.9155 Z-0.313 I-0.0051 J0.0074
X12.752 Y11.9007 Z-0.314 I0.0051 J-0.0074
X12.7419 Y11.9155 Z-0.315 I-0.0051 J0.0074
X12.752 Y11.9007 Z-0.316 I0.0051 J-0.0074
X12.7419 Y11.9155 Z-0.3169 I-0.0051 J0.0074
X12.752 Y11.9007 Z-0.3179 I0.0051 J-0.0074
X12.7419 Y11.9155 Z-0.3189 I-0.0051 J0.0074
X12.7404 Y11.902 Z-0.3195 I0.0051 J-0.0074
X12.754 Y11.9025 Z-0.32 I0.0066 J0.0061
X12.74 Y11.9137 I-0.007 J0.0056 F40.
X12.754 Y11.9025 I0.007 J-0.0056
X12.74 Y11.9137 Z-0.321 I-0.007 J0.0056 F20.
X12.754 Y11.9025 Z-0.322 I0.007 J-0.0056
X12.74 Y11.9137 Z-0.323 I-0.007 J0.0056
X12.754 Y11.9025 Z-0.3239 I0.007 J-0.0056
X12.74 Y11.9137 Z-0.3249 I-0.007 J0.0056
X12.754 Y11.9025 Z-0.3259 I0.007 J-0.0056
X12.74 Y11.9137 Z-0.3269 I-0.007 J0.0056
X12.754 Y11.9025 Z-0.3279 I0.007 J-0.0056
X12.74 Y11.9137 Z-0.3289 I-0.007 J0.0056
X12.754 Y11.9025 Z-0.3299 I0.007 J-0.0056
X12.74 Y11.9137 Z-0.3309 I-0.007 J0.0056
X12.754 Y11.9025 Z-0.3318 I0.007 J-0.0056
X12.74 Y11.9137 Z-0.3328 I-0.007 J0.0056
X12.754 Y11.9025 Z-0.3338 I0.007 J-0.0056
X12.74 Y11.9137 Z-0.3348 I-0.007 J0.0056
X12.754 Y11.9025 Z-0.3358 I0.007 J-0.0056
X12.74 Y11.9137 Z-0.3368 I-0.007 J0.0056
X12.754 Y11.9025 Z-0.3378 I0.007 J-0.0056
X12.74 Y11.9137 Z-0.3387 I-0.007 J0.0056
X12.754 Y11.9025 Z-0.3397 I0.007 J-0.0056
X12.74 Y11.9137 Z-0.3407 I-0.007 J0.0056
X12.754 Y11.9025 Z-0.3417 I0.007 J-0.0056
X12.74 Y11.9137 Z-0.3427 I-0.007 J0.0056
X12.754 Y11.9025 Z-0.3437 I0.007 J-0.0056
X12.74 Y11.9137 Z-0.3447 I-0.007 J0.0056
X12.754 Y11.9025 Z-0.3456 I0.007 J-0.0056
X12.74 Y11.9137 Z-0.3466 I-0.007 J0.0056
X12.754 Y11.9025 Z-0.3476 I0.007 J-0.0056
X12.74 Y11.9137 Z-0.3486 I-0.007 J0.0056
X12.754 Y11.9025 Z-0.3496 I0.007 J-0.0056
X12.74 Y11.9137 Z-0.3506 I-0.007 J0.0056
X12.754 Y11.9025 Z-0.3516 I0.007 J-0.0056
X12.7419 Y11.9155 Z-0.3525 I-0.007 J0.0056
X12.752 Y11.9007 I0.0051 J-0.0074 F40.
X12.7419 Y11.9155 I-0.0051 J0.0074
G1 X12.7407 Y11.9145 Z-0.3521
X12.7396 Y11.9133 Z-0.3518
X12.7388 Y11.912 Z-0.3514
X12.7382 Y11.9101 Z-0.35
X12.738 Y11.9081 Z-0.3486
X12.7383 Y11.9059 Z-0.3449
X12.7385 Y11.9051 Z-0.3407
G0 Z0.2
X11.8442 Y11.9718
G1 Z0.1118 F40.
X11.8436 Y11.9715 Z0.1079 F20.
X11.8429 Y11.9709 Z0.1061
X11.8422 Y11.9702 Z0.1044
X11.8416 Y11.9691 Z0.1033
X11.8412 Y11.9678 Z0.1023
Y11.9665 Z0.1012
X11.8417 Y11.965 Z0.1008
X11.8427 Y11.9637 Z0.1004
X11.844 Y11.9627 Z0.1
G3 X11.8484 Y11.9717 Z0.0995 I0.0022 J0.0045
X11.844 Y11.9627 Z0.0989 I-0.0022 J-0.0045
X11.8484 Y11.9717 Z0.0984 I0.0022 J0.0045
X11.844 Y11.9627 Z0.0978 I-0.0022 J-0.0045
X11.8484 Y11.9717 Z0.0973 I0.0022 J0.0045
X11.844 Y11.9627 Z0.0967 I-0.0022 J-0.0045
X11.8484 Y11.9717 Z0.0962 I0.0022 J0.0045
X11.844 Y11.9627 Z0.0956 I-0.0022 J-0.0045
X11.8484 Y11.9717 Z0.0951 I0.0022 J0.0045
X11.844 Y11.9627 Z0.0945 I-0.0022 J-0.0045
X11.8484 Y11.9717 Z0.094 I0.0022 J0.0045
X11.844 Y11.9627 Z0.0934 I-0.0022 J-0.0045
X11.8484 Y11.9717 Z0.0929 I0.0022 J0.0045
X11.844 Y11.9627 Z0.0923 I-0.0022 J-0.0045
X11.8484 Y11.9717 Z0.0918 I0.0022 J0.0045
X11.844 Y11.9627 Z0.0912 I-0.0022 J-0.0045
X11.8484 Y11.9717 Z0.0907 I0.0022 J0.0045
X11.844 Y11.9627 Z0.0901 I-0.0022 J-0.0045
X11.8484 Y11.9717 Z0.0896 I0.0022 J0.0045
X11.844 Y11.9627 Z0.089 I-0.0022 J-0.0045
X11.8484 Y11.9717 Z0.0885 I0.0022 J0.0045
X11.844 Y11.9627 Z0.0879 I-0.0022 J-0.0045
X11.8484 Y11.9717 Z0.0874 I0.0022 J0.0045
X11.844 Y11.9627 Z0.0868 I-0.0022 J-0.0045
X11.8484 Y11.9717 Z0.0863 I0.0022 J0.0045
X11.844 Y11.9627 Z0.0857 I-0.0022 J-0.0045
X11.8484 Y11.9717 Z0.0852 I0.0022 J0.0045
X11.844 Y11.9627 Z0.0846 I-0.0022 J-0.0045
X11.8484 Y11.9717 Z0.0841 I0.0022 J0.0045
X11.844 Y11.9627 Z0.0835 I-0.0022 J-0.0045
X11.8484 Y11.9717 Z0.083 I0.0022 J0.0045
X11.844 Y11.9627 Z0.0824 I-0.0022 J-0.0045
X11.8484 Y11.9717 Z0.0819 I0.0022 J0.0045
X11.844 Y11.9627 Z0.0813 I-0.0022 J-0.0045
X11.8484 Y11.9717 Z0.0808 I0.0022 J0.0045
X11.844 Y11.9627 Z0.0803 I-0.0022 J-0.0045
X11.8484 Y11.9717 Z0.0797 I0.0022 J0.0045
X11.844 Y11.9627 Z0.0792 I-0.0022 J-0.0045
X11.8484 Y11.9717 Z0.0786 I0.0022 J0.0045
X11.844 Y11.9627 Z0.0781 I-0.0022 J-0.0045
X11.8484 Y11.9717 Z0.0775 I0.0022 J0.0045
X11.844 Y11.9627 Z0.077 I-0.0022 J-0.0045
X11.8484 Y11.9717 Z0.0764 I0.0022 J0.0045
X11.844 Y11.9627 Z0.0759 I-0.0022 J-0.0045
X11.8484 Y11.9717 Z0.0753 I0.0022 J0.0045
X11.844 Y11.9627 Z0.0748 I-0.0022 J-0.0045
X11.8484 Y11.9717 Z0.0742 I0.0022 J0.0045
X11.844 Y11.9627 Z0.0737 I-0.0022 J-0.0045
X11.8484 Y11.9717 Z0.0731 I0.0022 J0.0045
