(X8 CABLE TABLE HOLES 4)
(T3  D=0.118 CR=0. - ZMIN=-0.04 - FLAT END MILL)
G90 G94 G91.1 G40 G49 G17
G20

(2D POCKET5)
M5
T3 M6
S15000 M3
g4 p5
g0 z.5
G54
M8
G0 X11.8375 Y8.4061
G43 Z0.6 H3
Z0.2
G1 Z0.1 F40.
Z-0.0282 F20.
X11.8378 Y8.4052 Z-0.0327
X11.8383 Y8.4041 Z-0.0346
X11.839 Y8.403 Z-0.0365
X11.8403 Y8.4016 Z-0.0378
X11.8419 Y8.4005 Z-0.0391
X11.844 Y8.3997 Z-0.0396
X11.8462 Y8.3994 Z-0.04
G3 X11.8552 Y8.4084 I0. J0.009 F40.
X11.8372 I-0.009 J0.
X11.8462 Y8.3994 I0.009 J0.
G1 X11.8484 Y8.3997 Z-0.0396
X11.8505 Y8.4005 Z-0.0391
X11.8521 Y8.4016 Z-0.0378
X11.8534 Y8.403 Z-0.0365
X11.8541 Y8.4041 Z-0.0346
X11.8546 Y8.4052 Z-0.0327
X11.8549 Y8.4061 Z-0.0282
G0 Z0.2
X12.747 Y8.4805
G1 Z0.1 F20.
Z-0.04
G3 Y8.4625 I0. J-0.009 F40.
Y8.4805 I0. J0.009
G1 X12.7447 Y8.4802 Z-0.0396
X12.7426 Y8.4794 Z-0.0391
X12.7411 Y8.4783 Z-0.0378
X12.7398 Y8.4769 Z-0.0365
X12.7391 Y8.4758 Z-0.0346
X12.7385 Y8.4747 Z-0.0327
X12.7383 Y8.4738 Z-0.0282
G0 Z0.2
X11.7744 Y7.5053
G1 Z0.1 F20.
Z-0.0282
X11.7747 Y7.5045 Z-0.0327
X11.7752 Y7.5033 Z-0.0346
X11.7759 Y7.5022 Z-0.0365
X11.7772 Y7.5008 Z-0.0378
X11.7788 Y7.4998 Z-0.0391
X11.7809 Y7.4989 Z-0.0396
X11.7831 Y7.4986 Z-0.04
G3 X11.7921 Y7.5076 I0. J0.009 F40.
X11.7741 I-0.009 J0.
X11.7831 Y7.4986 I0.009 J0.
G1 X11.7853 Y7.4989 Z-0.0396
X11.7874 Y7.4998 Z-0.0391
X11.789 Y7.5008 Z-0.0378
X11.7903 Y7.5022 Z-0.0365
X11.791 Y7.5033 Z-0.0346
X11.7915 Y7.5045 Z-0.0327
X11.7918 Y7.5053 Z-0.0282
G0 Z0.6
g0 x0 y0

M9
M30
