(X8 CABLE TABLE HOLES 2)
(T3  D=0.118 CR=0. - ZMIN=-0.04 - FLAT END MILL)
G90 G94 G91.1 G40 G49 G17
G20

(2D POCKET2)
M5
T3 M6
S15000 M3
g4 p5
g0 z.5
G54
M8
G0 X11.8375 Y17.5985
G43 Z0.6 H3
Z0.2
G1 Z0.1 F40.
Z-0.0282 F20.
X11.8378 Y17.5976 Z-0.0327
X11.8383 Y17.5965 Z-0.0346
X11.839 Y17.5954 Z-0.0365
X11.8403 Y17.594 Z-0.0378
X11.8419 Y17.5929 Z-0.0391
X11.844 Y17.5921 Z-0.0396
X11.8462 Y17.5918 Z-0.04
G3 X11.8552 Y17.6008 I0. J0.009 F40.
X11.8372 I-0.009 J0.
X11.8462 Y17.5918 I0.009 J0.
G1 X11.8484 Y17.5921 Z-0.0396
X11.8505 Y17.5929 Z-0.0391
X11.8521 Y17.594 Z-0.0378
X11.8534 Y17.5954 Z-0.0365
X11.8541 Y17.5965 Z-0.0346
X11.8546 Y17.5976 Z-0.0327
X11.8549 Y17.5985 Z-0.0282
G0 Z0.2
X12.756 Y17.5377
G1 Z0.1 F20.
Z-0.04
G3 X12.738 I-0.009 J0. F40.
X12.756 I0.009 J0.
G1 X12.7557 Y17.5399 Z-0.0396
X12.7549 Y17.542 Z-0.0391
X12.7538 Y17.5436 Z-0.0378
X12.7524 Y17.5449 Z-0.0365
X12.7513 Y17.5456 Z-0.0346
X12.7501 Y17.5461 Z-0.0327
X12.7493 Y17.5464 Z-0.0282
G0 Z0.2
X11.7744 Y18.4993
G1 Z0.1 F20.
Z-0.0282
X11.7747 Y18.4984 Z-0.0327
X11.7752 Y18.4973 Z-0.0346
X11.7759 Y18.4962 Z-0.0365
X11.7772 Y18.4948 Z-0.0378
X11.7788 Y18.4937 Z-0.0391
X11.7809 Y18.4929 Z-0.0396
X11.7831 Y18.4926 Z-0.04
G3 X11.7921 Y18.5016 I0. J0.009 F40.
X11.7741 I-0.009 J0.
X11.7831 Y18.4926 I0.009 J0.
G1 X11.7853 Y18.4929 Z-0.0396
X11.7874 Y18.4937 Z-0.0391
X11.789 Y18.4948 Z-0.0378
X11.7903 Y18.4962 Z-0.0365
X11.791 Y18.4973 Z-0.0346
X11.7915 Y18.4984 Z-0.0327
X11.7918 Y18.4993 Z-0.0282
G0 Z0.6
g0 x0 y0

M9
M30
