(X8 CABLE TABLE HOLES 4)
(T3  D=0.118 CR=0. - ZMIN=-0.35 - FLAT END MILL)
G90 G94 G91.1 G40 G49 G17
G20

(2D POCKET5)
M5
T3 M6
S15000 M3
g4 p5
g0 z.5
G54
M8
G0 X11.8375 Y8.4061
G43 Z0.6 H3
Z0.2
G1 Z0.1 F40.
Z-0.0282 F20.
X11.8378 Y8.4052 Z-0.0327
X11.8383 Y8.4041 Z-0.0346
X11.839 Y8.403 Z-0.0365
X11.8403 Y8.4016 Z-0.0378
X11.8419 Y8.4005 Z-0.0391
X11.844 Y8.3997 Z-0.0396
X11.8462 Y8.3994 Z-0.04
G3 X11.8552 Y8.4084 I0. J0.009 F40.
X11.8372 I-0.009 J0.
X11.8462 Y8.3994 I0.009 J0.
G1 X11.8473 Y8.3996
X11.8482 Y8.4003
X11.8488 Y8.4013
X11.8489 Y8.4024
X11.8486 Y8.4035
X11.8479 Y8.4043
X11.8418 Y8.409
X11.8408 Y8.4094
X11.8397 Y8.4095
X11.8386 Y8.4091
X11.8378 Y8.4083
X11.8374 Y8.4072
X11.8375 Y8.4061
Z-0.0682 F20.
X11.8378 Y8.4052 Z-0.0727
X11.8383 Y8.4041 Z-0.0746
X11.839 Y8.403 Z-0.0765
X11.8403 Y8.4016 Z-0.0778
X11.8419 Y8.4005 Z-0.0791
X11.844 Y8.3997 Z-0.0796
X11.8462 Y8.3994 Z-0.08
G3 X11.8552 Y8.4084 I0. J0.009 F40.
X11.8372 I-0.009 J0.
X11.8462 Y8.3994 I0.009 J0.
G1 X11.8473 Y8.3996
X11.8482 Y8.4003
X11.8488 Y8.4013
X11.8489 Y8.4024
X11.8486 Y8.4035
X11.8479 Y8.4043
X11.8418 Y8.409
X11.8408 Y8.4094
X11.8397 Y8.4095
X11.8386 Y8.4091
X11.8378 Y8.4083
X11.8374 Y8.4072
X11.8375 Y8.4061
Z-0.1082 F20.
X11.8378 Y8.4052 Z-0.1127
X11.8383 Y8.4041 Z-0.1146
X11.839 Y8.403 Z-0.1165
X11.8403 Y8.4016 Z-0.1178
X11.8419 Y8.4005 Z-0.1191
X11.844 Y8.3997 Z-0.1196
X11.8462 Y8.3994 Z-0.12
G3 X11.8552 Y8.4084 I0. J0.009 F40.
X11.8372 I-0.009 J0.
X11.8462 Y8.3994 I0.009 J0.
G1 X11.8473 Y8.3996
X11.8482 Y8.4003
X11.8488 Y8.4013
X11.8489 Y8.4024
X11.8486 Y8.4035
X11.8479 Y8.4043
X11.8418 Y8.409
X11.8408 Y8.4094
X11.8397 Y8.4095
X11.8386 Y8.4091
X11.8378 Y8.4083
X11.8374 Y8.4072
X11.8375 Y8.4061
Z-0.1482 F20.
X11.8378 Y8.4052 Z-0.1527
X11.8383 Y8.4041 Z-0.1546
X11.839 Y8.403 Z-0.1565
X11.8403 Y8.4016 Z-0.1578
X11.8419 Y8.4005 Z-0.1591
X11.844 Y8.3997 Z-0.1596
X11.8462 Y8.3994 Z-0.16
G3 X11.8552 Y8.4084 I0. J0.009 F40.
X11.8372 I-0.009 J0.
X11.8462 Y8.3994 I0.009 J0.
G1 X11.8473 Y8.3996
X11.8482 Y8.4003
X11.8488 Y8.4013
X11.8489 Y8.4024
X11.8486 Y8.4035
X11.8479 Y8.4043
X11.8418 Y8.409
X11.8408 Y8.4094
X11.8397 Y8.4095
X11.8386 Y8.4091
X11.8378 Y8.4083
X11.8374 Y8.4072
X11.8375 Y8.4061
Z-0.1882 F20.
X11.8378 Y8.4052 Z-0.1927
X11.8383 Y8.4041 Z-0.1946
X11.839 Y8.403 Z-0.1965
X11.8403 Y8.4016 Z-0.1978
X11.8419 Y8.4005 Z-0.1991
X11.844 Y8.3997 Z-0.1996
X11.8462 Y8.3994 Z-0.2
G3 X11.8552 Y8.4084 I0. J0.009 F40.
X11.8372 I-0.009 J0.
X11.8462 Y8.3994 I0.009 J0.
G1 X11.8473 Y8.3996
X11.8482 Y8.4003
X11.8488 Y8.4013
X11.8489 Y8.4024
X11.8486 Y8.4035
X11.8479 Y8.4043
X11.8418 Y8.409
X11.8408 Y8.4094
X11.8397 Y8.4095
X11.8386 Y8.4091
X11.8378 Y8.4083
X11.8374 Y8.4072
X11.8375 Y8.4061
Z-0.2282 F20.
X11.8378 Y8.4052 Z-0.2327
X11.8383 Y8.4041 Z-0.2346
X11.839 Y8.403 Z-0.2365
X11.8403 Y8.4016 Z-0.2378
X11.8419 Y8.4005 Z-0.2391
X11.844 Y8.3997 Z-0.2396
X11.8462 Y8.3994 Z-0.24
G3 X11.8552 Y8.4084 I0. J0.009 F40.
X11.8372 I-0.009 J0.
X11.8462 Y8.3994 I0.009 J0.
G1 X11.8473 Y8.3996
X11.8482 Y8.4003
X11.8488 Y8.4013
X11.8489 Y8.4024
X11.8486 Y8.4035
X11.8479 Y8.4043
X11.8418 Y8.409
X11.8408 Y8.4094
X11.8397 Y8.4095
X11.8386 Y8.4091
X11.8378 Y8.4083
X11.8374 Y8.4072
X11.8375 Y8.4061
Z-0.2682 F20.
X11.8378 Y8.4052 Z-0.2727
X11.8383 Y8.4041 Z-0.2746
X11.839 Y8.403 Z-0.2765
X11.8403 Y8.4016 Z-0.2778
X11.8419 Y8.4005 Z-0.2791
X11.844 Y8.3997 Z-0.2796
X11.8462 Y8.3994 Z-0.28
G3 X11.8552 Y8.4084 I0. J0.009 F40.
X11.8372 I-0.009 J0.
X11.8462 Y8.3994 I0.009 J0.
G1 X11.8473 Y8.3996
X11.8482 Y8.4003
X11.8488 Y8.4013
X11.8489 Y8.4024
X11.8486 Y8.4035
X11.8479 Y8.4043
X11.8418 Y8.409
X11.8408 Y8.4094
X11.8397 Y8.4095
X11.8386 Y8.4091
X11.8378 Y8.4083
X11.8374 Y8.4072
X11.8375 Y8.4061
Z-0.3082 F20.
X11.8378 Y8.4052 Z-0.3127
X11.8383 Y8.4041 Z-0.3146
X11.839 Y8.403 Z-0.3165
X11.8403 Y8.4016 Z-0.3178
X11.8419 Y8.4005 Z-0.3191
X11.844 Y8.3997 Z-0.3196
X11.8462 Y8.3994 Z-0.32
G3 X11.8552 Y8.4084 I0. J0.009 F40.
X11.8372 I-0.009 J0.
X11.8462 Y8.3994 I0.009 J0.
G1 X11.8473 Y8.3996
X11.8482 Y8.4003
X11.8488 Y8.4013
X11.8489 Y8.4024
X11.8486 Y8.4035
X11.8479 Y8.4043
X11.8418 Y8.409
X11.8408 Y8.4094
X11.8397 Y8.4095
X11.8386 Y8.4091
X11.8378 Y8.4083
X11.8374 Y8.4072
X11.8375 Y8.4061
Z-0.3382 F20.
X11.8378 Y8.4052 Z-0.3427
X11.8383 Y8.4041 Z-0.3446
X11.839 Y8.403 Z-0.3465
X11.8403 Y8.4016 Z-0.3478
X11.8419 Y8.4005 Z-0.3491
X11.844 Y8.3997 Z-0.3496
X11.8462 Y8.3994 Z-0.35
G3 X11.8552 Y8.4084 I0. J0.009 F40.
X11.8372 I-0.009 J0.
X11.8462 Y8.3994 I0.009 J0.
G1 X11.8484 Y8.3997 Z-0.3496
X11.8505 Y8.4005 Z-0.3491
X11.8521 Y8.4016 Z-0.3478
X11.8534 Y8.403 Z-0.3465
X11.8541 Y8.4041 Z-0.3446
X11.8546 Y8.4052 Z-0.3427
X11.8549 Y8.4061 Z-0.3382
G0 Z0.2
X12.747 Y8.4805
G1 Z0.1 F20.
Z-0.04
G3 Y8.4625 I0. J-0.009 F40.
Y8.4805 I0. J0.009
G1 Z-0.08 F20.
G3 Y8.4625 I0. J-0.009 F40.
Y8.4805 I0. J0.009
G1 Z-0.12 F20.
G3 Y8.4625 I0. J-0.009 F40.
Y8.4805 I0. J0.009
G1 Z-0.16 F20.
G3 Y8.4625 I0. J-0.009 F40.
Y8.4805 I0. J0.009
G1 Z-0.2 F20.
G3 Y8.4625 I0. J-0.009 F40.
Y8.4805 I0. J0.009
G1 Z-0.24 F20.
G3 Y8.4625 I0. J-0.009 F40.
Y8.4805 I0. J0.009
G1 Z-0.28 F20.
G3 Y8.4625 I0. J-0.009 F40.
Y8.4805 I0. J0.009
G1 Z-0.32 F20.
G3 Y8.4625 I0. J-0.009 F40.
Y8.4805 I0. J0.009
G1 Z-0.35 F20.
G3 Y8.4625 I0. J-0.009 F40.
Y8.4805 I0. J0.009
G1 X12.7447 Y8.4802 Z-0.3496
X12.7426 Y8.4794 Z-0.3491
X12.7411 Y8.4783 Z-0.3478
X12.7398 Y8.4769 Z-0.3465
X12.7391 Y8.4758 Z-0.3446
X12.7385 Y8.4747 Z-0.3427
X12.7383 Y8.4738 Z-0.3382
G0 Z0.2
X11.7744 Y7.5053
G1 Z0.1 F20.
Z-0.0282
X11.7747 Y7.5045 Z-0.0327
X11.7752 Y7.5033 Z-0.0346
X11.7759 Y7.5022 Z-0.0365
X11.7772 Y7.5008 Z-0.0378
X11.7788 Y7.4998 Z-0.0391
X11.7809 Y7.4989 Z-0.0396
X11.7831 Y7.4986 Z-0.04
G3 X11.7921 Y7.5076 I0. J0.009 F40.
X11.7741 I-0.009 J0.
X11.7831 Y7.4986 I0.009 J0.
G1 X11.7847 Y7.4988
X11.7862 Y7.4994
X11.7876 Y7.5003
X11.7887 Y7.5014
X11.7905 Y7.5038
X11.7914 Y7.5052
X11.7919 Y7.5067
X11.792 Y7.5083
X11.7918 Y7.5099
Z-0.0682 F20.
X11.7915 Y7.5108 Z-0.0727
X11.791 Y7.512 Z-0.0746
X11.7903 Y7.513 Z-0.0765
X11.789 Y7.5144 Z-0.0778
X11.7874 Y7.5155 Z-0.0791
X11.7853 Y7.5163 Z-0.0796
X11.7831 Y7.5166 Z-0.08
G3 X11.7741 Y7.5076 I0. J-0.009 F40.
X11.7921 I0.009 J0.
X11.7831 Y7.5166 I-0.009 J0.
G1 X11.782 Y7.5164
X11.7811 Y7.5157
X11.7805 Y7.5148
X11.7804 Y7.5137
X11.7807 Y7.5126
X11.7814 Y7.5117
X11.7875 Y7.5071
X11.7885 Y7.5066
X11.7896 Y7.5065
X11.7907 Y7.507
X11.7914 Y7.5078
X11.7918 Y7.5088
Y7.5099
Z-0.1082 F20.
X11.7915 Y7.5108 Z-0.1127
X11.791 Y7.512 Z-0.1146
X11.7903 Y7.513 Z-0.1165
X11.789 Y7.5144 Z-0.1178
X11.7874 Y7.5155 Z-0.1191
X11.7853 Y7.5163 Z-0.1196
X11.7831 Y7.5166 Z-0.12
G3 X11.7741 Y7.5076 I0. J-0.009 F40.
X11.7921 I0.009 J0.
X11.7831 Y7.5166 I-0.009 J0.
G1 X11.782 Y7.5164
X11.7811 Y7.5157
X11.7805 Y7.5148
X11.7804 Y7.5137
X11.7807 Y7.5126
X11.7814 Y7.5117
X11.7875 Y7.5071
X11.7885 Y7.5066
X11.7896 Y7.5065
X11.7907 Y7.507
X11.7914 Y7.5078
X11.7918 Y7.5088
Y7.5099
Z-0.1482 F20.
X11.7915 Y7.5108 Z-0.1527
X11.791 Y7.512 Z-0.1546
X11.7903 Y7.513 Z-0.1565
X11.789 Y7.5144 Z-0.1578
X11.7874 Y7.5155 Z-0.1591
X11.7853 Y7.5163 Z-0.1596
X11.7831 Y7.5166 Z-0.16
G3 X11.7741 Y7.5076 I0. J-0.009 F40.
X11.7921 I0.009 J0.
X11.7831 Y7.5166 I-0.009 J0.
G1 X11.782 Y7.5164
X11.7811 Y7.5157
X11.7805 Y7.5148
X11.7804 Y7.5137
X11.7807 Y7.5126
X11.7814 Y7.5117
X11.7875 Y7.5071
X11.7885 Y7.5066
X11.7896 Y7.5065
X11.7907 Y7.507
X11.7914 Y7.5078
X11.7918 Y7.5088
Y7.5099
Z-0.1882 F20.
X11.7915 Y7.5108 Z-0.1927
X11.791 Y7.512 Z-0.1946
X11.7903 Y7.513 Z-0.1965
X11.789 Y7.5144 Z-0.1978
X11.7874 Y7.5155 Z-0.1991
X11.7853 Y7.5163 Z-0.1996
X11.7831 Y7.5166 Z-0.2
G3 X11.7741 Y7.5076 I0. J-0.009 F40.
X11.7921 I0.009 J0.
X11.7831 Y7.5166 I-0.009 J0.
G1 X11.782 Y7.5164
X11.7811 Y7.5157
X11.7805 Y7.5148
X11.7804 Y7.5137
X11.7807 Y7.5126
X11.7814 Y7.5117
X11.7875 Y7.5071
X11.7885 Y7.5066
X11.7896 Y7.5065
X11.7907 Y7.507
X11.7914 Y7.5078
X11.7918 Y7.5088
Y7.5099
Z-0.2282 F20.
X11.7915 Y7.5108 Z-0.2327
X11.791 Y7.512 Z-0.2346
X11.7903 Y7.513 Z-0.2365
X11.789 Y7.5144 Z-0.2378
X11.7874 Y7.5155 Z-0.2391
X11.7853 Y7.5163 Z-0.2396
X11.7831 Y7.5166 Z-0.24
G3 X11.7741 Y7.5076 I0. J-0.009 F40.
X11.7921 I0.009 J0.
X11.7831 Y7.5166 I-0.009 J0.
G1 X11.782 Y7.5164
X11.7811 Y7.5157
X11.7805 Y7.5148
X11.7804 Y7.5137
X11.7807 Y7.5126
X11.7814 Y7.5117
X11.7875 Y7.5071
X11.7885 Y7.5066
X11.7896 Y7.5065
X11.7907 Y7.507
X11.7914 Y7.5078
X11.7918 Y7.5088
Y7.5099
Z-0.2682 F20.
X11.7915 Y7.5108 Z-0.2727
X11.791 Y7.512 Z-0.2746
X11.7903 Y7.513 Z-0.2765
X11.789 Y7.5144 Z-0.2778
X11.7874 Y7.5155 Z-0.2791
X11.7853 Y7.5163 Z-0.2796
X11.7831 Y7.5166 Z-0.28
G3 X11.7741 Y7.5076 I0. J-0.009 F40.
X11.7921 I0.009 J0.
X11.7831 Y7.5166 I-0.009 J0.
G1 X11.782 Y7.5164
X11.7811 Y7.5157
X11.7805 Y7.5148
X11.7804 Y7.5137
X11.7807 Y7.5126
X11.7814 Y7.5117
X11.7875 Y7.5071
X11.7885 Y7.5066
X11.7896 Y7.5065
X11.7907 Y7.507
X11.7914 Y7.5078
X11.7918 Y7.5088
Y7.5099
Z-0.3082 F20.
X11.7915 Y7.5108 Z-0.3127
X11.791 Y7.512 Z-0.3146
X11.7903 Y7.513 Z-0.3165
X11.789 Y7.5144 Z-0.3178
X11.7874 Y7.5155 Z-0.3191
X11.7853 Y7.5163 Z-0.3196
X11.7831 Y7.5166 Z-0.32
G3 X11.7741 Y7.5076 I0. J-0.009 F40.
X11.7921 I0.009 J0.
X11.7831 Y7.5166 I-0.009 J0.
G1 X11.782 Y7.5164
X11.7811 Y7.5157
X11.7805 Y7.5148
X11.7804 Y7.5137
X11.7807 Y7.5126
X11.7814 Y7.5117
X11.7875 Y7.5071
X11.7885 Y7.5066
X11.7896 Y7.5065
X11.7907 Y7.507
X11.7914 Y7.5078
X11.7918 Y7.5088
Y7.5099
Z-0.3382 F20.
X11.7915 Y7.5108 Z-0.3427
X11.791 Y7.512 Z-0.3446
X11.7903 Y7.513 Z-0.3465
X11.789 Y7.5144 Z-0.3478
X11.7874 Y7.5155 Z-0.3491
X11.7853 Y7.5163 Z-0.3496
X11.7831 Y7.5166 Z-0.35
G3 X11.7741 Y7.5076 I0. J-0.009 F40.
X11.7921 I0.009 J0.
X11.7831 Y7.5166 I-0.009 J0.
G1 X11.7809 Y7.5163 Z-0.3496
X11.7788 Y7.5155 Z-0.3491
X11.7772 Y7.5144 Z-0.3478
X11.7759 Y7.513 Z-0.3465
X11.7752 Y7.512 Z-0.3446
X11.7747 Y7.5108 Z-0.3427
X11.7744 Y7.5099 Z-0.3382
G0 Z0.6
g0 x0 y0

M9
M30
