(X8 CABLE TABLE HOLES 3)
(T3  D=0.118 CR=0. - ZMIN=-0.04 - FLAT END MILL)
G90 G94 G91.1 G40 G49 G17
G20

(2D POCKET4)
M5
T3 M6
S15000 M3
g4 p5
g0 z.5
G54
M8
G0 X2.6538 Y8.4174
G43 Z0.6 H3
Z0.2
G1 Z0.1 F40.
Z-0.04 F20.
G3 Y8.3994 I0. J-0.009 F40.
Y8.4174 I0. J0.009
G1 X2.6516 Y8.4171 Z-0.0396
X2.6495 Y8.4163 Z-0.0391
X2.6479 Y8.4152 Z-0.0378
X2.6466 Y8.4138 Z-0.0365
X2.6459 Y8.4127 Z-0.0346
X2.6454 Y8.4116 Z-0.0327
X2.6451 Y8.4107 Z-0.0282
G0 Z0.2
X2.7169 Y7.5166
G1 Z0.1 F20.
Z-0.04
G3 Y7.4986 I0. J-0.009 F40.
Y7.5166 I0. J0.009
G1 X2.7147 Y7.5164 Z-0.0396
X2.7126 Y7.5155 Z-0.0391
X2.711 Y7.5144 Z-0.0378
X2.7097 Y7.513 Z-0.0365
X2.709 Y7.512 Z-0.0346
X2.7085 Y7.5108 Z-0.0327
X2.7082 Y7.5099 Z-0.0282
G0 Z0.2
X1.744 Y8.4715
G1 Z0.1 F20.
Z-0.04
G3 X1.762 I0.009 J0. F40.
X1.744 I-0.009 J0.
G1 X1.7443 Y8.4693 Z-0.0396
X1.7451 Y8.4672 Z-0.0391
X1.7462 Y8.4656 Z-0.0378
X1.7476 Y8.4643 Z-0.0365
X1.7487 Y8.4636 Z-0.0346
X1.7499 Y8.4631 Z-0.0327
X1.7507 Y8.4628 Z-0.0282
G0 Z0.6
g0 x0 y0

M9
M30
