(X8 CABLE TABLE HOLES 2)
(T3  D=0.118 CR=0. - ZMIN=-0.35 - FLAT END MILL)
G90 G94 G91.1 G40 G49 G17
G20

(2D POCKET2)
M5
T3 M6
S15000 M3
g4 p5
g0 z.5
G54
M8
G0 X11.8375 Y17.5985
G43 Z0.6 H3
Z0.2
G1 Z0.1 F40.
Z-0.0282 F20.
X11.8378 Y17.5976 Z-0.0327
X11.8383 Y17.5965 Z-0.0346
X11.839 Y17.5954 Z-0.0365
X11.8403 Y17.594 Z-0.0378
X11.8419 Y17.5929 Z-0.0391
X11.844 Y17.5921 Z-0.0396
X11.8462 Y17.5918 Z-0.04
G3 X11.8552 Y17.6008 I0. J0.009 F40.
X11.8372 I-0.009 J0.
X11.8462 Y17.5918 I0.009 J0.
G1 X11.8473 Y17.592
X11.8482 Y17.5927
X11.8488 Y17.5937
X11.8489 Y17.5948
X11.8486 Y17.5959
X11.8479 Y17.5967
X11.8418 Y17.6014
X11.8408 Y17.6019
X11.8397
X11.8386 Y17.6015
X11.8379 Y17.6007
X11.8374 Y17.5996
X11.8375 Y17.5985
Z-0.0682 F20.
X11.8378 Y17.5976 Z-0.0727
X11.8383 Y17.5965 Z-0.0746
X11.839 Y17.5954 Z-0.0765
X11.8403 Y17.594 Z-0.0778
X11.8419 Y17.5929 Z-0.0791
X11.844 Y17.5921 Z-0.0796
X11.8462 Y17.5918 Z-0.08
G3 X11.8552 Y17.6008 I0. J0.009 F40.
X11.8372 I-0.009 J0.
X11.8462 Y17.5918 I0.009 J0.
G1 X11.8473 Y17.592
X11.8482 Y17.5927
X11.8488 Y17.5937
X11.8489 Y17.5948
X11.8486 Y17.5959
X11.8479 Y17.5967
X11.8418 Y17.6014
X11.8408 Y17.6019
X11.8397
X11.8386 Y17.6015
X11.8379 Y17.6007
X11.8374 Y17.5996
X11.8375 Y17.5985
Z-0.1082 F20.
X11.8378 Y17.5976 Z-0.1127
X11.8383 Y17.5965 Z-0.1146
X11.839 Y17.5954 Z-0.1165
X11.8403 Y17.594 Z-0.1178
X11.8419 Y17.5929 Z-0.1191
X11.844 Y17.5921 Z-0.1196
X11.8462 Y17.5918 Z-0.12
G3 X11.8552 Y17.6008 I0. J0.009 F40.
X11.8372 I-0.009 J0.
X11.8462 Y17.5918 I0.009 J0.
G1 X11.8473 Y17.592
X11.8482 Y17.5927
X11.8488 Y17.5937
X11.8489 Y17.5948
X11.8486 Y17.5959
X11.8479 Y17.5967
X11.8418 Y17.6014
X11.8408 Y17.6019
X11.8397
X11.8386 Y17.6015
X11.8379 Y17.6007
X11.8374 Y17.5996
X11.8375 Y17.5985
Z-0.1482 F20.
X11.8378 Y17.5976 Z-0.1527
X11.8383 Y17.5965 Z-0.1546
X11.839 Y17.5954 Z-0.1565
X11.8403 Y17.594 Z-0.1578
X11.8419 Y17.5929 Z-0.1591
X11.844 Y17.5921 Z-0.1596
X11.8462 Y17.5918 Z-0.16
G3 X11.8552 Y17.6008 I0. J0.009 F40.
X11.8372 I-0.009 J0.
X11.8462 Y17.5918 I0.009 J0.
G1 X11.8473 Y17.592
X11.8482 Y17.5927
X11.8488 Y17.5937
X11.8489 Y17.5948
X11.8486 Y17.5959
X11.8479 Y17.5967
X11.8418 Y17.6014
X11.8408 Y17.6019
X11.8397
X11.8386 Y17.6015
X11.8379 Y17.6007
X11.8374 Y17.5996
X11.8375 Y17.5985
Z-0.1882 F20.
X11.8378 Y17.5976 Z-0.1927
X11.8383 Y17.5965 Z-0.1946
X11.839 Y17.5954 Z-0.1965
X11.8403 Y17.594 Z-0.1978
X11.8419 Y17.5929 Z-0.1991
X11.844 Y17.5921 Z-0.1996
X11.8462 Y17.5918 Z-0.2
G3 X11.8552 Y17.6008 I0. J0.009 F40.
X11.8372 I-0.009 J0.
X11.8462 Y17.5918 I0.009 J0.
G1 X11.8473 Y17.592
X11.8482 Y17.5927
X11.8488 Y17.5937
X11.8489 Y17.5948
X11.8486 Y17.5959
X11.8479 Y17.5967
X11.8418 Y17.6014
X11.8408 Y17.6019
X11.8397
X11.8386 Y17.6015
X11.8379 Y17.6007
X11.8374 Y17.5996
X11.8375 Y17.5985
Z-0.2282 F20.
X11.8378 Y17.5976 Z-0.2327
X11.8383 Y17.5965 Z-0.2346
X11.839 Y17.5954 Z-0.2365
X11.8403 Y17.594 Z-0.2378
X11.8419 Y17.5929 Z-0.2391
X11.844 Y17.5921 Z-0.2396
X11.8462 Y17.5918 Z-0.24
G3 X11.8552 Y17.6008 I0. J0.009 F40.
X11.8372 I-0.009 J0.
X11.8462 Y17.5918 I0.009 J0.
G1 X11.8473 Y17.592
X11.8482 Y17.5927
X11.8488 Y17.5937
X11.8489 Y17.5948
X11.8486 Y17.5959
X11.8479 Y17.5967
X11.8418 Y17.6014
X11.8408 Y17.6019
X11.8397
X11.8386 Y17.6015
X11.8379 Y17.6007
X11.8374 Y17.5996
X11.8375 Y17.5985
Z-0.2682 F20.
X11.8378 Y17.5976 Z-0.2727
X11.8383 Y17.5965 Z-0.2746
X11.839 Y17.5954 Z-0.2765
X11.8403 Y17.594 Z-0.2778
X11.8419 Y17.5929 Z-0.2791
X11.844 Y17.5921 Z-0.2796
X11.8462 Y17.5918 Z-0.28
G3 X11.8552 Y17.6008 I0. J0.009 F40.
X11.8372 I-0.009 J0.
X11.8462 Y17.5918 I0.009 J0.
G1 X11.8473 Y17.592
X11.8482 Y17.5927
X11.8488 Y17.5937
X11.8489 Y17.5948
X11.8486 Y17.5959
X11.8479 Y17.5967
X11.8418 Y17.6014
X11.8408 Y17.6019
X11.8397
X11.8386 Y17.6015
X11.8379 Y17.6007
X11.8374 Y17.5996
X11.8375 Y17.5985
Z-0.3082 F20.
X11.8378 Y17.5976 Z-0.3127
X11.8383 Y17.5965 Z-0.3146
X11.839 Y17.5954 Z-0.3165
X11.8403 Y17.594 Z-0.3178
X11.8419 Y17.5929 Z-0.3191
X11.844 Y17.5921 Z-0.3196
X11.8462 Y17.5918 Z-0.32
G3 X11.8552 Y17.6008 I0. J0.009 F40.
X11.8372 I-0.009 J0.
X11.8462 Y17.5918 I0.009 J0.
G1 X11.8473 Y17.592
X11.8482 Y17.5927
X11.8488 Y17.5937
X11.8489 Y17.5948
X11.8486 Y17.5959
X11.8479 Y17.5967
X11.8418 Y17.6014
X11.8408 Y17.6019
X11.8397
X11.8386 Y17.6015
X11.8379 Y17.6007
X11.8374 Y17.5996
X11.8375 Y17.5985
Z-0.3382 F20.
X11.8378 Y17.5976 Z-0.3427
X11.8383 Y17.5965 Z-0.3446
X11.839 Y17.5954 Z-0.3465
X11.8403 Y17.594 Z-0.3478
X11.8419 Y17.5929 Z-0.3491
X11.844 Y17.5921 Z-0.3496
X11.8462 Y17.5918 Z-0.35
G3 X11.8552 Y17.6008 I0. J0.009 F40.
X11.8372 I-0.009 J0.
X11.8462 Y17.5918 I0.009 J0.
G1 X11.8484 Y17.5921 Z-0.3496
X11.8505 Y17.5929 Z-0.3491
X11.8521 Y17.594 Z-0.3478
X11.8534 Y17.5954 Z-0.3465
X11.8541 Y17.5965 Z-0.3446
X11.8546 Y17.5976 Z-0.3427
X11.8549 Y17.5985 Z-0.3382
G0 Z0.2
X12.756 Y17.5377
G1 Z0.1 F20.
Z-0.04
G3 X12.738 I-0.009 J0. F40.
X12.756 I0.009 J0.
G1 Z-0.08 F20.
G3 X12.738 I-0.009 J0. F40.
X12.756 I0.009 J0.
G1 Z-0.12 F20.
G3 X12.738 I-0.009 J0. F40.
X12.756 I0.009 J0.
G1 Z-0.16 F20.
G3 X12.738 I-0.009 J0. F40.
X12.756 I0.009 J0.
G1 Z-0.2 F20.
G3 X12.738 I-0.009 J0. F40.
X12.756 I0.009 J0.
G1 Z-0.24 F20.
G3 X12.738 I-0.009 J0. F40.
X12.756 I0.009 J0.
G1 Z-0.28 F20.
G3 X12.738 I-0.009 J0. F40.
X12.756 I0.009 J0.
G1 Z-0.32 F20.
G3 X12.738 I-0.009 J0. F40.
X12.756 I0.009 J0.
G1 Z-0.35 F20.
G3 X12.738 I-0.009 J0. F40.
X12.756 I0.009 J0.
G1 X12.7557 Y17.5399 Z-0.3496
X12.7549 Y17.542 Z-0.3491
X12.7538 Y17.5436 Z-0.3478
X12.7524 Y17.5449 Z-0.3465
X12.7513 Y17.5456 Z-0.3446
X12.7501 Y17.5461 Z-0.3427
X12.7493 Y17.5464 Z-0.3382
G0 Z0.2
X11.7744 Y18.4993
G1 Z0.1 F20.
Z-0.0282
X11.7747 Y18.4984 Z-0.0327
X11.7752 Y18.4973 Z-0.0346
X11.7759 Y18.4962 Z-0.0365
X11.7772 Y18.4948 Z-0.0378
X11.7788 Y18.4937 Z-0.0391
X11.7809 Y18.4929 Z-0.0396
X11.7831 Y18.4926 Z-0.04
G3 X11.7921 Y18.5016 I0. J0.009 F40.
X11.7741 I-0.009 J0.
X11.7831 Y18.4926 I0.009 J0.
G1 X11.7842 Y18.4928
X11.7851 Y18.4935
X11.7857 Y18.4944
X11.7858 Y18.4956
X11.7855 Y18.4966
X11.7848 Y18.4975
X11.7787 Y18.5021
X11.7777 Y18.5026
X11.7766 Y18.5027
X11.7755 Y18.5023
X11.7747 Y18.5015
X11.7743 Y18.5004
X11.7744 Y18.4993
Z-0.0682 F20.
X11.7747 Y18.4984 Z-0.0727
X11.7752 Y18.4973 Z-0.0746
X11.7759 Y18.4962 Z-0.0765
X11.7772 Y18.4948 Z-0.0778
X11.7788 Y18.4937 Z-0.0791
X11.7809 Y18.4929 Z-0.0796
X11.7831 Y18.4926 Z-0.08
G3 X11.7921 Y18.5016 I0. J0.009 F40.
X11.7741 I-0.009 J0.
X11.7831 Y18.4926 I0.009 J0.
G1 X11.7842 Y18.4928
X11.7851 Y18.4935
X11.7857 Y18.4944
X11.7858 Y18.4956
X11.7855 Y18.4966
X11.7848 Y18.4975
X11.7787 Y18.5021
X11.7777 Y18.5026
X11.7766 Y18.5027
X11.7755 Y18.5023
X11.7747 Y18.5015
X11.7743 Y18.5004
X11.7744 Y18.4993
Z-0.1082 F20.
X11.7747 Y18.4984 Z-0.1127
X11.7752 Y18.4973 Z-0.1146
X11.7759 Y18.4962 Z-0.1165
X11.7772 Y18.4948 Z-0.1178
X11.7788 Y18.4937 Z-0.1191
X11.7809 Y18.4929 Z-0.1196
X11.7831 Y18.4926 Z-0.12
G3 X11.7921 Y18.5016 I0. J0.009 F40.
X11.7741 I-0.009 J0.
X11.7831 Y18.4926 I0.009 J0.
G1 X11.7842 Y18.4928
X11.7851 Y18.4935
X11.7857 Y18.4944
X11.7858 Y18.4956
X11.7855 Y18.4966
X11.7848 Y18.4975
X11.7787 Y18.5021
X11.7777 Y18.5026
X11.7766 Y18.5027
X11.7755 Y18.5023
X11.7747 Y18.5015
X11.7743 Y18.5004
X11.7744 Y18.4993
Z-0.1482 F20.
X11.7747 Y18.4984 Z-0.1527
X11.7752 Y18.4973 Z-0.1546
X11.7759 Y18.4962 Z-0.1565
X11.7772 Y18.4948 Z-0.1578
X11.7788 Y18.4937 Z-0.1591
X11.7809 Y18.4929 Z-0.1596
X11.7831 Y18.4926 Z-0.16
G3 X11.7921 Y18.5016 I0. J0.009 F40.
X11.7741 I-0.009 J0.
X11.7831 Y18.4926 I0.009 J0.
G1 X11.7842 Y18.4928
X11.7851 Y18.4935
X11.7857 Y18.4944
X11.7858 Y18.4956
X11.7855 Y18.4966
X11.7848 Y18.4975
X11.7787 Y18.5021
X11.7777 Y18.5026
X11.7766 Y18.5027
X11.7755 Y18.5023
X11.7747 Y18.5015
X11.7743 Y18.5004
X11.7744 Y18.4993
Z-0.1882 F20.
X11.7747 Y18.4984 Z-0.1927
X11.7752 Y18.4973 Z-0.1946
X11.7759 Y18.4962 Z-0.1965
X11.7772 Y18.4948 Z-0.1978
X11.7788 Y18.4937 Z-0.1991
X11.7809 Y18.4929 Z-0.1996
X11.7831 Y18.4926 Z-0.2
G3 X11.7921 Y18.5016 I0. J0.009 F40.
X11.7741 I-0.009 J0.
X11.7831 Y18.4926 I0.009 J0.
G1 X11.7842 Y18.4928
X11.7851 Y18.4935
X11.7857 Y18.4944
X11.7858 Y18.4956
X11.7855 Y18.4966
X11.7848 Y18.4975
X11.7787 Y18.5021
X11.7777 Y18.5026
X11.7766 Y18.5027
X11.7755 Y18.5023
X11.7747 Y18.5015
X11.7743 Y18.5004
X11.7744 Y18.4993
Z-0.2282 F20.
X11.7747 Y18.4984 Z-0.2327
X11.7752 Y18.4973 Z-0.2346
X11.7759 Y18.4962 Z-0.2365
X11.7772 Y18.4948 Z-0.2378
X11.7788 Y18.4937 Z-0.2391
X11.7809 Y18.4929 Z-0.2396
X11.7831 Y18.4926 Z-0.24
G3 X11.7921 Y18.5016 I0. J0.009 F40.
X11.7741 I-0.009 J0.
X11.7831 Y18.4926 I0.009 J0.
G1 X11.7842 Y18.4928
X11.7851 Y18.4935
X11.7857 Y18.4944
X11.7858 Y18.4956
X11.7855 Y18.4966
X11.7848 Y18.4975
X11.7787 Y18.5021
X11.7777 Y18.5026
X11.7766 Y18.5027
X11.7755 Y18.5023
X11.7747 Y18.5015
X11.7743 Y18.5004
X11.7744 Y18.4993
Z-0.2682 F20.
X11.7747 Y18.4984 Z-0.2727
X11.7752 Y18.4973 Z-0.2746
X11.7759 Y18.4962 Z-0.2765
X11.7772 Y18.4948 Z-0.2778
X11.7788 Y18.4937 Z-0.2791
X11.7809 Y18.4929 Z-0.2796
X11.7831 Y18.4926 Z-0.28
G3 X11.7921 Y18.5016 I0. J0.009 F40.
X11.7741 I-0.009 J0.
X11.7831 Y18.4926 I0.009 J0.
G1 X11.7842 Y18.4928
X11.7851 Y18.4935
X11.7857 Y18.4944
X11.7858 Y18.4956
X11.7855 Y18.4966
X11.7848 Y18.4975
X11.7787 Y18.5021
X11.7777 Y18.5026
X11.7766 Y18.5027
X11.7755 Y18.5023
X11.7747 Y18.5015
X11.7743 Y18.5004
X11.7744 Y18.4993
Z-0.3082 F20.
X11.7747 Y18.4984 Z-0.3127
X11.7752 Y18.4973 Z-0.3146
X11.7759 Y18.4962 Z-0.3165
X11.7772 Y18.4948 Z-0.3178
X11.7788 Y18.4937 Z-0.3191
X11.7809 Y18.4929 Z-0.3196
X11.7831 Y18.4926 Z-0.32
G3 X11.7921 Y18.5016 I0. J0.009 F40.
X11.7741 I-0.009 J0.
X11.7831 Y18.4926 I0.009 J0.
G1 X11.7842 Y18.4928
X11.7851 Y18.4935
X11.7857 Y18.4944
X11.7858 Y18.4956
X11.7855 Y18.4966
X11.7848 Y18.4975
X11.7787 Y18.5021
X11.7777 Y18.5026
X11.7766 Y18.5027
X11.7755 Y18.5023
X11.7747 Y18.5015
X11.7743 Y18.5004
X11.7744 Y18.4993
Z-0.3382 F20.
X11.7747 Y18.4984 Z-0.3427
X11.7752 Y18.4973 Z-0.3446
X11.7759 Y18.4962 Z-0.3465
X11.7772 Y18.4948 Z-0.3478
X11.7788 Y18.4937 Z-0.3491
X11.7809 Y18.4929 Z-0.3496
X11.7831 Y18.4926 Z-0.35
G3 X11.7921 Y18.5016 I0. J0.009 F40.
X11.7741 I-0.009 J0.
X11.7831 Y18.4926 I0.009 J0.
G1 X11.7853 Y18.4929 Z-0.3496
X11.7874 Y18.4937 Z-0.3491
X11.789 Y18.4948 Z-0.3478
X11.7903 Y18.4962 Z-0.3465
X11.791 Y18.4973 Z-0.3446
X11.7915 Y18.4984 Z-0.3427
X11.7918 Y18.4993 Z-0.3382
G0 Z0.6
g0 x0 y0

M9
M30
