(X8 CABLE TABLE POCKET)
(T3  D=0.118 CR=0. - ZMIN=-0.3625 - FLAT END MILL)
G90 G94 G91.1 G40 G49 G17
G20

(2D CONTOUR1)
M5
T3 M6
S15000 M3
g4 p5
g0 z.5
G54
M8
G0 X13.4056 Y12.9928
G43 Z0.6 H3
Z0.2
G1 Z0.1194 F20.
Z-0.0682
G18 G2 X13.4174 Z-0.08 I0.0118 K0. F40.
G1 X13.4292
G17 G3 X13.441 Y13.0046 I0. J0.0118
X1.059 I-6.191 J0.
X13.441 I6.191 J0.
X13.4292 Y13.0164 I-0.0118 J0.
G1 X13.4174
G18 G3 X13.4056 Z-0.0682 I0. K0.0118
G0 Z0.2
Y12.9928
G1 Z0.0394 F20.
Z-0.1482
G2 X13.4174 Z-0.16 I0.0118 K0. F40.
G1 X13.4292
G17 G3 X13.441 Y13.0046 I0. J0.0118
X1.059 I-6.191 J0.
X13.441 I6.191 J0.
X13.4292 Y13.0164 I-0.0118 J0.
G1 X13.4174
G18 G3 X13.4056 Z-0.1482 I0. K0.0118
G0 Z0.2
Y12.9928
G1 Z-0.0406 F20.
Z-0.2282
G2 X13.4174 Z-0.24 I0.0118 K0. F40.
G1 X13.4292
G17 G3 X13.441 Y13.0046 I0. J0.0118
X1.059 I-6.191 J0.
X13.441 I6.191 J0.
X13.4292 Y13.0164 I-0.0118 J0.
G1 X13.4174
G18 G3 X13.4056 Z-0.2282 I0. K0.0118
G0 Z0.2
Y12.9928
G1 Z-0.1206 F20.
Z-0.3082
G2 X13.4174 Z-0.32 I0.0118 K0. F40.
G1 X13.4292
G17 G3 X13.441 Y13.0046 I0. J0.0118
X1.059 I-6.191 J0.
X13.441 I6.191 J0.
X13.4292 Y13.0164 I-0.0118 J0.
G1 X13.4174
G18 G3 X13.4056 Z-0.3082 I0. K0.0118
G0 Z0.2
Y12.9928
G1 Z-0.2006 F20.
Z-0.3507
G2 X13.4174 Z-0.3625 I0.0118 K0. F40.
G1 X13.4292
G17 G3 X13.441 Y13.0046 I0. J0.0118
X1.059 I-6.191 J0.
X13.441 I6.191 J0.
X13.4292 Y13.0164 I-0.0118 J0.
G1 X13.4174
G18 G3 X13.4056 Z-0.3507 I0. K0.0118
G0 Z0.6
g0 x0 y0
G17

M9
M30
