(X8DS CABLE TABLE CENTERDRILL)
(T7  D=0.3937 CR=0. TAPER=118DEG - ZMIN=-0.3125 - CENTER DRILL)
G90 G94 G91.1 G40 G49 G17
G20

(DRILL1)
M5
T7 M6
S15000 M3
g4 p5
g0 z.5
G54
M8
G0 X1.6844 Y24.8171
G43 Z0.6 H7
Z0.2
G98 G81 X1.6844 Y24.8171 Z-0.3125 R0.2 F20.
Y23.9421
X1.5579 Y22.875
X0.6829
Y15.875
X1.5579
X2.7169 Y12.872
X2.6538 Y11.9712
X1.753 Y11.9081
Y2.8419
X2.6538 Y2.7788
X2.7169 Y1.878
X11.7831
X11.8462 Y2.7788
X12.747 Y2.8419
Y11.9081
X11.8462 Y11.9712
X11.7831 Y12.872
X13.8171 Y15.875
X12.9421
X11.0807 Y18.0918
Y19.1449
X13.8171 Y22.875
X12.9421
X12.8156 Y23.9421
Y24.8171
G80
Z0.6
g0 x0 y0

M9
M30
