(X8DS CABLE TABLE CONTOUR 2)
(T3  D=0.118 CR=0. - ZMIN=-0.3525 - FLAT END MILL)
G90 G94 G91.1 G40 G49 G17
G20

(2D CONTOUR2)
M5
T3 M6
S15000 M3
g4 p5
g0 z.5
G54
M8
G0 X13.1792 Y15.2806
G43 Z0.6 H3
Z0.2
G1 Z0.1194 F20.
Z0.1118
G19 G3 Y15.2924 Z0.1 J0.0118 K0. F40.
G1 Y15.3042
G17 G3 X13.1674 Y15.316 I-0.0118 J0.
G1 X12.3115 Z0.0701 F20.
X12.31 Y15.3157
X12.3086 Y15.3149 Z0.07
X12.3076 Y15.3137 Z0.0699
X12.3071 Y15.3123
Y15.3107 Z0.0698
X12.3076 Y15.3092
X12.3086 Y15.308 Z0.0697
X12.31 Y15.3073
X12.3115 Y15.307 Z0.0696
X12.5 Z0.063
G2 X14.559 Y13.248 Z-0.0499 I0. J-2.059
G1 Y12.6585 Z-0.0705
Y6.0229 F40.
G2 X14.558 Y6.0121 I-0.059 J0.
X-0.058 I-7.308 J1.3629
X-0.059 Y6.0229 I0.058 J0.0108
G1 Y13.248
G2 X2. Y15.307 I2.059 J0.
G1 X2.1885
X2.19 Y15.3073
X2.1914 Y15.308
X2.1924 Y15.3092
X2.1929 Y15.3107
Y15.3123
X2.1924 Y15.3137
X2.1914 Y15.3149
X2.19 Y15.3157
X2.1885 Y15.316
X0.3079
G2 X0.1239 Y15.5 I0. J0.184
G1 Y23.1875
G2 X0.3079 Y23.3715 I0.184 J0.
G1 X2.1873
X2.1925
Y23.3831
X1.3719
G2 X1.1879 Y23.5671 I0. J0.184
G1 Y25.1921
G2 X1.3719 Y25.3761 I0.184 J0.
G1 X13.1281
G2 X13.3121 Y25.1921 I0. J-0.184
G1 Y23.5671
G2 X13.1281 Y23.3831 I-0.184 J0.
G1 X12.3075
Y23.3715
X12.3127
X14.1921
G2 X14.3761 Y23.1875 I0. J-0.184
G1 Y15.5
G2 X14.1921 Y15.316 I-0.184 J0.
G1 X12.3115
X12.31 Y15.3157
X12.3086 Y15.3149
X12.3076 Y15.3137
X12.3071 Y15.3123
Y15.3107
X12.3076 Y15.3092
X12.3086 Y15.308
X12.31 Y15.3073
X12.3115 Y15.307
X12.5
G2 X14.559 Y13.248 I0. J-2.059
G1 Y12.6585
Y6.748 Z-0.141 F20.
Y6.0229 F40.
G2 X14.558 Y6.0121 I-0.059 J0.
X-0.058 I-7.308 J1.3629
X-0.059 Y6.0229 I0.058 J0.0108
G1 Y13.248
G2 X2. Y15.307 I2.059 J0.
G1 X2.1885
X2.19 Y15.3073
X2.1914 Y15.308
X2.1924 Y15.3092
X2.1929 Y15.3107
Y15.3123
X2.1924 Y15.3137
X2.1914 Y15.3149
X2.19 Y15.3157
X2.1885 Y15.316
X0.3079
G2 X0.1239 Y15.5 I0. J0.184
G1 Y23.1875
G2 X0.3079 Y23.3715 I0.184 J0.
G1 X2.1873
X2.1925
Y23.3831
X1.3719
G2 X1.1879 Y23.5671 I0. J0.184
G1 Y25.1921
G2 X1.3719 Y25.3761 I0.184 J0.
G1 X13.1281
G2 X13.3121 Y25.1921 I0. J-0.184
G1 Y23.5671
G2 X13.1281 Y23.3831 I-0.184 J0.
G1 X12.3075
Y23.3715
X12.3127
X14.1921
G2 X14.3761 Y23.1875 I0. J-0.184
G1 Y15.5
G2 X14.1921 Y15.316 I-0.184 J0.
G1 X12.3115
X12.31 Y15.3157
X12.3086 Y15.3149
X12.3076 Y15.3137
X12.3071 Y15.3123
Y15.3107
X12.3076 Y15.3092
X12.3086 Y15.308
X12.31 Y15.3073
X12.3115 Y15.307
X12.5
G2 X14.559 Y13.248 I0. J-2.059
G1 Y6.748
Y6.0229 Z-0.1496 F20.
G2 X14.558 Y6.0121 Z-0.1498 I-0.059 J0.
X11.984 Y1.6432 Z-0.2115 I-7.308 J1.3629
X-0.058 Y6.0121 I-4.734 J5.7318 F40.
X-0.059 Y6.0229 I0.058 J0.0108
G1 Y13.248
G2 X2. Y15.307 I2.059 J0.
G1 X2.1885
X2.19 Y15.3073
X2.1914 Y15.308
X2.1924 Y15.3092
X2.1929 Y15.3107
Y15.3123
X2.1924 Y15.3137
X2.1914 Y15.3149
X2.19 Y15.3157
X2.1885 Y15.316
X0.3079
G2 X0.1239 Y15.5 I0. J0.184
G1 Y23.1875
G2 X0.3079 Y23.3715 I0.184 J0.
G1 X2.1873
X2.1925
Y23.3831
X1.3719
G2 X1.1879 Y23.5671 I0. J0.184
G1 Y25.1921
G2 X1.3719 Y25.3761 I0.184 J0.
G1 X13.1281
G2 X13.3121 Y25.1921 I0. J-0.184
G1 Y23.5671
G2 X13.1281 Y23.3831 I-0.184 J0.
G1 X12.3075
Y23.3715
X12.3127
X14.1921
G2 X14.3761 Y23.1875 I0. J-0.184
G1 Y15.5
G2 X14.1921 Y15.316 I-0.184 J0.
G1 X12.3115
X12.31 Y15.3157
X12.3086 Y15.3149
X12.3076 Y15.3137
X12.3071 Y15.3123
Y15.3107
X12.3076 Y15.3092
X12.3086 Y15.308
X12.31 Y15.3073
X12.3115 Y15.307
X12.5
G2 X14.559 Y13.248 I0. J-2.059
G1 Y6.748
Y6.0229
G2 X14.558 Y6.0121 I-0.059 J0.
X11.984 Y1.6432 I-7.308 J1.3629
X6.4729 Y-0.0183 Z-0.282 I-4.734 J5.7318 F20.
X-0.058 Y6.0121 I0.7771 J7.3933 F40.
X-0.059 Y6.0229 I0.058 J0.0108
G1 Y13.248
G2 X2. Y15.307 I2.059 J0.
G1 X2.1885
X2.19 Y15.3073
X2.1914 Y15.308
X2.1924 Y15.3092
X2.1929 Y15.3107
Y15.3123
X2.1924 Y15.3137
X2.1914 Y15.3149
X2.19 Y15.3157
X2.1885 Y15.316
X0.3079
G2 X0.1239 Y15.5 I0. J0.184
G1 Y23.1875
G2 X0.3079 Y23.3715 I0.184 J0.
G1 X2.1873
X2.1925
Y23.3831
X1.3719
G2 X1.1879 Y23.5671 I0. J0.184
G1 Y25.1921
G2 X1.3719 Y25.3761 I0.184 J0.
G1 X13.1281
G2 X13.3121 Y25.1921 I0. J-0.184
G1 Y23.5671
G2 X13.1281 Y23.3831 I-0.184 J0.
G1 X12.3075
Y23.3715
X12.3127
X14.1921
G2 X14.3761 Y23.1875 I0. J-0.184
G1 Y15.5
G2 X14.1921 Y15.316 I-0.184 J0.
G1 X12.3115
X12.31 Y15.3157
X12.3086 Y15.3149
X12.3076 Y15.3137
X12.3071 Y15.3123
Y15.3107
X12.3076 Y15.3092
X12.3086 Y15.308
X12.31 Y15.3073
X12.3115 Y15.307
X12.5
G2 X14.559 Y13.248 I0. J-2.059
G1 Y6.0229
G2 X14.558 Y6.0121 I-0.059 J0.
X6.4729 Y-0.0183 I-7.308 J1.3629
X1.4277 Y2.7528 Z-0.3525 I0.7771 J7.3933 F20.
X-0.058 Y6.0121 I5.8223 J4.6222 F40.
X-0.059 Y6.0229 I0.058 J0.0108
G1 Y13.248
G2 X2. Y15.307 I2.059 J0.
G1 X2.1885
X2.19 Y15.3073
X2.1914 Y15.308
X2.1924 Y15.3092
X2.1929 Y15.3107
Y15.3123
X2.1924 Y15.3137
X2.1914 Y15.3149
X2.19 Y15.3157
X2.1885 Y15.316
X0.3079
G2 X0.1239 Y15.5 I0. J0.184
G1 Y23.1875
G2 X0.3079 Y23.3715 I0.184 J0.
G1 X2.1873
X2.1925
Y23.3831
X1.3719
G2 X1.1879 Y23.5671 I0. J0.184
G1 Y25.1921
G2 X1.3719 Y25.3761 I0.184 J0.
G1 X13.1281
G2 X13.3121 Y25.1921 I0. J-0.184
G1 Y23.5671
G2 X13.1281 Y23.3831 I-0.184 J0.
G1 X12.3075
Y23.3715
X12.3127
X14.1921
G2 X14.3761 Y23.1875 I0. J-0.184
G1 Y15.5
G2 X14.1921 Y15.316 I-0.184 J0.
G1 X12.3115
X12.31 Y15.3157
X12.3086 Y15.3149
X12.3076 Y15.3137
X12.3071 Y15.3123
Y15.3107
X12.3076 Y15.3092
X12.3086 Y15.308
X12.31 Y15.3073
X12.3115 Y15.307
X12.5
G2 X14.559 Y13.248 I0. J-2.059
G1 Y6.0229
G2 X14.558 Y6.0121 I-0.059 J0.
X1.4277 Y2.7528 I-7.308 J1.3629
G3 X1.4111 Y2.7547 I-0.0092 J-0.0073
G1 X1.4018 Y2.7474
X1.3998 Y2.7457 Z-0.3522
X1.3978 Y2.7442 Z-0.3513
X1.3961 Y2.7428 Z-0.3499
X1.3946 Y2.7416 Z-0.348
X1.3935 Y2.7408 Z-0.3458
X1.3928 Y2.7402 Z-0.3433
X1.3926 Y2.74 Z-0.3407
G0 Z0.6
g0 x0 y0

M9
M30
