(X8DS CABLE TABLE POCKET 1)
(T3  D=0.118 CR=0. - ZMIN=-0.3525 - FLAT END MILL)
G90 G94 G91.1 G40 G49 G17
G20

(2D POCKET3)
M5
T3 M6
S15000 M3
g4 p5
g0 z.5
G54
M8
G0 X11.7895 Y18.6496
G43 Z0.6 H3
Z0.2
G1 Z0.1118 F40.
X11.7891 Y18.6504 Z0.1072 F20.
X11.7877 Y18.6526 Z0.1034
X11.7855 Y18.6558 Z0.1008
X11.783 Y18.6589 Z0.1
G3 X11.6983 Y18.5855 Z0.0939 I-0.0424 J-0.0367
X11.783 Y18.6589 Z0.0877 I0.0424 J0.0367
X11.6983 Y18.5855 Z0.0816 I-0.0424 J-0.0367
X11.783 Y18.6589 Z0.0754 I0.0424 J0.0367
X11.6983 Y18.5855 Z0.0693 I-0.0424 J-0.0367
X11.783 Y18.6589 Z0.0631 I0.0424 J0.0367
X11.6983 Y18.5855 Z0.057 I-0.0424 J-0.0367
X11.783 Y18.6589 Z0.0508 I0.0424 J0.0367
X11.6983 Y18.5855 Z0.0447 I-0.0424 J-0.0367
X11.783 Y18.6589 Z0.0385 I0.0424 J0.0367
X11.6983 Y18.5855 Z0.0324 I-0.0424 J-0.0367
X11.783 Y18.6589 Z0.0262 I0.0424 J0.0367
X11.6983 Y18.5855 Z0.0201 I-0.0424 J-0.0367
X11.783 Y18.6589 Z0.0139 I0.0424 J0.0367
X11.6983 Y18.5855 Z0.0078 I-0.0424 J-0.0367
X11.783 Y18.6589 Z0.0016 I0.0424 J0.0367
X11.6983 Y18.5855 Z-0.0045 I-0.0424 J-0.0367
X11.783 Y18.6589 Z-0.0107 I0.0424 J0.0367
X11.6983 Y18.5855 Z-0.0168 I-0.0424 J-0.0367
X11.783 Y18.6589 Z-0.023 I0.0424 J0.0367
X11.6983 Y18.5855 Z-0.0291 I-0.0424 J-0.0367
X11.783 Y18.6589 Z-0.0353 I0.0424 J0.0367
X11.6983 Y18.5855 Z-0.0414 I-0.0424 J-0.0367
X11.783 Y18.6589 Z-0.0476 I0.0424 J0.0367
X11.6983 Y18.5855 Z-0.0537 I-0.0424 J-0.0367
X11.783 Y18.6589 Z-0.0599 I0.0424 J0.0367
X11.6983 Y18.5855 Z-0.066 I-0.0424 J-0.0367
X11.783 Y18.6589 Z-0.0722 I0.0424 J0.0367
X11.6983 Y18.5855 Z-0.0783 I-0.0424 J-0.0367
X11.7407 Y18.5662 Z-0.08 I0.0424 J0.0367
X11.7929 Y18.6183 I0. J0.0522 F40.
X11.7406 Y18.6705 I-0.0522 J0.
X11.6884 Y18.6183 I0. J-0.0522
X11.7407 Y18.5662 I0.0522 J0.
G2 X11.8044 Y18.5322 I0. J-0.0767
G3 X11.8766 Y18.5334 I0.0357 J0.024
X11.9009 Y18.6183 I-0.1359 J0.085
X11.7406 Y18.7786 I-0.1603 J0.
X11.5803 Y18.6183 I0. J-0.1603
X11.7407 Y18.4581 I0.1603 J0.
X11.8766 Y18.5334 I0. J0.1603
G2 X11.9501 Y18.5719 I0.0697 J-0.0436
G3 X12.0088 Y18.6305 I0.0026 J0.0561
X11.7406 Y18.8867 I-0.2681 J-0.0121
X11.4722 Y18.6183 I0. J-0.2684
X11.7407 Y18.35 I0.2684 J0.
X12.009 Y18.6183 I0. J0.2684
X12.0088 Y18.6305 I-0.2684 J0.
G2 X12.0514 Y18.7084 I0.0855 J0.0039
G3 X12.0761 Y18.7937 I-0.0322 J0.0555
X11.3621 Y18.6183 I-0.3354 J-0.1753
X12.1191 I0.3785 J0.
X12.0761 Y18.7937 I-0.3785 J0.
G1 X12.0751 Y18.7951
X12.0737 Y18.7961
X12.072 Y18.7967
X12.0703 Y18.7968
X12.0686 Y18.7964
X11.8569 Y18.7078
X11.8553 Y18.7071
X11.854 Y18.706
X11.7346 Y18.5682
G3 X11.7389 Y18.5585 I0.0045 J-0.0039
X11.7424 Y18.6705 Z-0.0861 I0.0018 J0.056 F20.
X11.7389 Y18.5585 Z-0.0923 I-0.0018 J-0.056
X11.7424 Y18.6705 Z-0.0984 I0.0018 J0.056
X11.7389 Y18.5585 Z-0.1046 I-0.0018 J-0.056
X11.7424 Y18.6705 Z-0.1107 I0.0018 J0.056
X11.7389 Y18.5585 Z-0.1169 I-0.0018 J-0.056
X11.7424 Y18.6705 Z-0.123 I0.0018 J0.056
X11.7389 Y18.5585 Z-0.1292 I-0.0018 J-0.056
X11.7424 Y18.6705 Z-0.1353 I0.0018 J0.056
X11.7389 Y18.5585 Z-0.1415 I-0.0018 J-0.056
X11.7424 Y18.6705 Z-0.1476 I0.0018 J0.056
X11.7389 Y18.5585 Z-0.1538 I-0.0018 J-0.056
X11.7967 Y18.6136 Z-0.1569 I0.0018 J0.056
X11.7406 Y18.6705 Z-0.16 I-0.056 J0.0009
X11.6884 Y18.6183 I0. J-0.0522 F40.
X11.7407 Y18.5662 I0.0522 J0.
X11.7929 Y18.6183 I0. J0.0522
X11.7406 Y18.6705 I-0.0522 J0.
G2 X11.6769 Y18.7045 I0. J0.0767
G3 X11.6047 Y18.7033 I-0.0357 J-0.024
X11.5803 Y18.6183 I0.1359 J-0.085
X11.7407 Y18.4581 I0.1603 J0.
X11.9009 Y18.6183 I0. J0.1603
X11.7406 Y18.7786 I-0.1603 J0.
X11.6047 Y18.7033 I0. J-0.1603
G2 X11.5312 Y18.6648 I-0.0697 J0.0436
G3 X11.4725 Y18.6062 I-0.0026 J-0.0561
X11.7407 Y18.35 I0.2681 J0.0121
X12.009 Y18.6183 I0. J0.2684
X11.7406 Y18.8867 I-0.2684 J0.
X11.4722 Y18.6183 I0. J-0.2684
X11.4725 Y18.6062 I0.2684 J0.
G2 X11.4299 Y18.5283 I-0.0855 J-0.0039
G3 X11.4052 Y18.443 I0.0322 J-0.0555
X12.1191 Y18.6183 I0.3354 J0.1753
X11.3621 I-0.3785 J0.
X11.4052 Y18.443 I0.3785 J0.
G1 X11.4062 Y18.4416
X11.4076 Y18.4406
X11.4093 Y18.44
X11.411 Y18.4399
X11.4127 Y18.4403
X11.6244 Y18.5289
X11.626 Y18.5296
X11.6273 Y18.5307
X11.7467 Y18.6685
G3 X11.7424 Y18.6782 I-0.0045 J0.0039
X11.7389 Y18.5662 Z-0.1661 I-0.0018 J-0.056 F20.
X11.7424 Y18.6782 Z-0.1723 I0.0018 J0.056
X11.7389 Y18.5662 Z-0.1784 I-0.0018 J-0.056
X11.7424 Y18.6782 Z-0.1846 I0.0018 J0.056
X11.7389 Y18.5662 Z-0.1907 I-0.0018 J-0.056
X11.7424 Y18.6782 Z-0.1969 I0.0018 J0.056
X11.7389 Y18.5662 Z-0.203 I-0.0018 J-0.056
X11.7424 Y18.6782 Z-0.2092 I0.0018 J0.056
X11.7389 Y18.5662 Z-0.2153 I-0.0018 J-0.056
X11.7424 Y18.6782 Z-0.2215 I0.0018 J0.056
X11.7389 Y18.5662 Z-0.2276 I-0.0018 J-0.056
X11.7424 Y18.6782 Z-0.2338 I0.0018 J0.056
X11.6846 Y18.6231 Z-0.2369 I-0.0018 J-0.056
X11.7407 Y18.5662 Z-0.24 I0.056 J-0.0009
X11.7929 Y18.6183 I0. J0.0522 F40.
X11.7406 Y18.6705 I-0.0522 J0.
X11.6884 Y18.6183 I0. J-0.0522
X11.7407 Y18.5662 I0.0522 J0.
G2 X11.8044 Y18.5322 I0. J-0.0767
G3 X11.8766 Y18.5334 I0.0357 J0.024
X11.9009 Y18.6183 I-0.1359 J0.085
X11.7406 Y18.7786 I-0.1603 J0.
X11.5803 Y18.6183 I0. J-0.1603
X11.7407 Y18.4581 I0.1603 J0.
X11.8766 Y18.5334 I0. J0.1603
G2 X11.9501 Y18.5719 I0.0697 J-0.0436
G3 X12.0088 Y18.6305 I0.0026 J0.0561
X11.7406 Y18.8867 I-0.2681 J-0.0121
X11.4722 Y18.6183 I0. J-0.2684
X11.7407 Y18.35 I0.2684 J0.
X12.009 Y18.6183 I0. J0.2684
X12.0088 Y18.6305 I-0.2684 J0.
G2 X12.0514 Y18.7084 I0.0855 J0.0039
G3 X12.0761 Y18.7937 I-0.0322 J0.0555
X11.3621 Y18.6183 I-0.3354 J-0.1753
X12.1191 I0.3785 J0.
X12.0761 Y18.7937 I-0.3785 J0.
G1 X12.0751 Y18.7951
X12.0737 Y18.7961
X12.072 Y18.7967
X12.0703 Y18.7968
X12.0686 Y18.7964
X11.8569 Y18.7078
X11.8553 Y18.7071
X11.854 Y18.706
X11.7346 Y18.5682
G3 X11.7389 Y18.5585 I0.0045 J-0.0039
X11.7424 Y18.6705 Z-0.2461 I0.0018 J0.056 F20.
X11.7389 Y18.5585 Z-0.2523 I-0.0018 J-0.056
X11.7424 Y18.6705 Z-0.2584 I0.0018 J0.056
X11.7389 Y18.5585 Z-0.2646 I-0.0018 J-0.056
X11.7424 Y18.6705 Z-0.2707 I0.0018 J0.056
X11.7389 Y18.5585 Z-0.2769 I-0.0018 J-0.056
X11.7424 Y18.6705 Z-0.283 I0.0018 J0.056
X11.7389 Y18.5585 Z-0.2892 I-0.0018 J-0.056
X11.7424 Y18.6705 Z-0.2953 I0.0018 J0.056
X11.7389 Y18.5585 Z-0.3015 I-0.0018 J-0.056
X11.7424 Y18.6705 Z-0.3076 I0.0018 J0.056
X11.7389 Y18.5585 Z-0.3138 I-0.0018 J-0.056
X11.7967 Y18.6136 Z-0.3169 I0.0018 J0.056
X11.7406 Y18.6705 Z-0.32 I-0.056 J0.0009
X11.6884 Y18.6183 I0. J-0.0522 F40.
X11.7407 Y18.5662 I0.0522 J0.
X11.7929 Y18.6183 I0. J0.0522
X11.7406 Y18.6705 I-0.0522 J0.
G2 X11.6769 Y18.7045 I0. J0.0767
G3 X11.6047 Y18.7033 I-0.0357 J-0.024
X11.5803 Y18.6183 I0.1359 J-0.085
X11.7407 Y18.4581 I0.1603 J0.
X11.9009 Y18.6183 I0. J0.1603
X11.7406 Y18.7786 I-0.1603 J0.
X11.6047 Y18.7033 I0. J-0.1603
G2 X11.5312 Y18.6648 I-0.0697 J0.0436
G3 X11.4725 Y18.6062 I-0.0026 J-0.0561
X11.7407 Y18.35 I0.2681 J0.0121
X12.009 Y18.6183 I0. J0.2684
X11.7406 Y18.8867 I-0.2684 J0.
X11.4722 Y18.6183 I0. J-0.2684
X11.4725 Y18.6062 I0.2684 J0.
G2 X11.4299 Y18.5283 I-0.0855 J-0.0039
G3 X11.4052 Y18.443 I0.0322 J-0.0555
X12.1191 Y18.6183 I0.3354 J0.1753
X11.3621 I-0.3785 J0.
X11.4052 Y18.443 I0.3785 J0.
G1 X11.4063 Y18.4415
X11.4078 Y18.4405
X11.4096 Y18.4399
X11.4115 Y18.44
X11.4132 Y18.4406
X11.6009 Y18.5409
X11.7822 Y18.6492
X11.7835 Y18.6503
X11.7845 Y18.6517
X11.785 Y18.6533
Y18.655
X11.7846 Y18.6566
X11.7837 Y18.6581
G3 X11.6976 Y18.5863 Z-0.3261 I-0.0431 J-0.0359 F20.
X11.7837 Y18.6581 Z-0.3323 I0.0431 J0.0359
X11.6976 Y18.5863 Z-0.3384 I-0.0431 J-0.0359
X11.7837 Y18.6581 Z-0.3446 I0.0431 J0.0359
X11.6976 Y18.5863 Z-0.3507 I-0.0431 J-0.0359
X11.7407 Y18.5662 Z-0.3525 I0.0431 J0.0359
X11.7929 Y18.6183 I0. J0.0522 F40.
X11.7406 Y18.6705 I-0.0522 J0.
X11.6884 Y18.6183 I0. J-0.0522
X11.7407 Y18.5662 I0.0522 J0.
G2 X11.8044 Y18.5322 I0. J-0.0767
G3 X11.8766 Y18.5334 I0.0357 J0.024
X11.9009 Y18.6183 I-0.1359 J0.085
X11.7406 Y18.7786 I-0.1603 J0.
X11.5803 Y18.6183 I0. J-0.1603
X11.7407 Y18.4581 I0.1603 J0.
X11.8766 Y18.5334 I0. J0.1603
G2 X11.9501 Y18.5719 I0.0697 J-0.0436
G3 X12.0088 Y18.6305 I0.0026 J0.0561
X11.7406 Y18.8867 I-0.2681 J-0.0121
X11.4722 Y18.6183 I0. J-0.2684
X11.7407 Y18.35 I0.2684 J0.
X12.009 Y18.6183 I0. J0.2684
X12.0088 Y18.6305 I-0.2684 J0.
G2 X12.0514 Y18.7084 I0.0855 J0.0039
G3 X12.0761 Y18.7937 I-0.0322 J0.0555
X11.3621 Y18.6183 I-0.3354 J-0.1753
X12.1191 I0.3785 J0.
X12.0761 Y18.7937 I-0.3785 J0.
G1 X12.0749 Y18.7955 Z-0.352
X12.0733 Y18.7972 Z-0.3516
X12.0717 Y18.7983 Z-0.3503
X12.07 Y18.7991 Z-0.349
X12.0676 Y18.7998 Z-0.3452
X12.0667 Y18.7999 Z-0.3407
G0 Z0.6
g0 x0 y0

M9
M30
