(X8 FEEDER MOTOR PLATE 2)
(T3  D=0.118 CR=0. - ZMIN=-0.165 - FLAT END MILL)
G90 G94 G91.1 G40 G49 G17
G20

(2D POCKET1)
M5
T3 M6
S15000 M3
g4 p5
G54
M8
G0 X2.8679 Y2.6427
G43 Z0.6 H3
Z0.2
G1 Z0.1118 F40.
X2.8671 Y2.6426 Z0.1075 F20.
X2.866 Y2.6423 Z0.1057
X2.8651 Y2.6417 Z0.1039
X2.8642 Y2.6408 Z0.1029
X2.8635 Y2.6398 Z0.102
X2.8631 Y2.6386 Z0.1011
Y2.6371 Z0.1007
X2.8635 Y2.6356 Z0.1004
X2.8644 Y2.6343 Z0.1
G3 X2.8718 Y2.6411 Z0.0995 I0.0037 J0.0034
X2.8644 Y2.6343 Z0.0989 I-0.0037 J-0.0034
X2.8718 Y2.6411 Z0.0984 I0.0037 J0.0034
X2.8644 Y2.6343 Z0.0978 I-0.0037 J-0.0034
X2.8718 Y2.6411 Z0.0973 I0.0037 J0.0034
X2.8644 Y2.6343 Z0.0967 I-0.0037 J-0.0034
X2.8718 Y2.6411 Z0.0962 I0.0037 J0.0034
X2.8644 Y2.6343 Z0.0956 I-0.0037 J-0.0034
X2.8718 Y2.6411 Z0.0951 I0.0037 J0.0034
X2.8644 Y2.6343 Z0.0945 I-0.0037 J-0.0034
X2.8718 Y2.6411 Z0.094 I0.0037 J0.0034
X2.8644 Y2.6343 Z0.0934 I-0.0037 J-0.0034
X2.8718 Y2.6411 Z0.0929 I0.0037 J0.0034
X2.8644 Y2.6343 Z0.0923 I-0.0037 J-0.0034
X2.8718 Y2.6411 Z0.0918 I0.0037 J0.0034
X2.8644 Y2.6343 Z0.0912 I-0.0037 J-0.0034
X2.8718 Y2.6411 Z0.0907 I0.0037 J0.0034
X2.8644 Y2.6343 Z0.0901 I-0.0037 J-0.0034
X2.8718 Y2.6411 Z0.0896 I0.0037 J0.0034
X2.8644 Y2.6343 Z0.089 I-0.0037 J-0.0034
X2.8718 Y2.6411 Z0.0885 I0.0037 J0.0034
X2.8644 Y2.6343 Z0.0879 I-0.0037 J-0.0034
X2.8718 Y2.6411 Z0.0874 I0.0037 J0.0034
X2.8644 Y2.6343 Z0.0868 I-0.0037 J-0.0034
X2.8718 Y2.6411 Z0.0863 I0.0037 J0.0034
X2.8644 Y2.6343 Z0.0857 I-0.0037 J-0.0034
X2.8718 Y2.6411 Z0.0852 I0.0037 J0.0034
X2.8644 Y2.6343 Z0.0846 I-0.0037 J-0.0034
X2.8718 Y2.6411 Z0.0841 I0.0037 J0.0034
X2.8644 Y2.6343 Z0.0835 I-0.0037 J-0.0034
X2.8718 Y2.6411 Z0.083 I0.0037 J0.0034
X2.8644 Y2.6343 Z0.0824 I-0.0037 J-0.0034
X2.8718 Y2.6411 Z0.0819 I0.0037 J0.0034
X2.8644 Y2.6343 Z0.0813 I-0.0037 J-0.0034
X2.8718 Y2.6411 Z0.0808 I0.0037 J0.0034
X2.8644 Y2.6343 Z0.0803 I-0.0037 J-0.0034
X2.8718 Y2.6411 Z0.0797 I0.0037 J0.0034
X2.8644 Y2.6343 Z0.0792 I-0.0037 J-0.0034
X2.8718 Y2.6411 Z0.0786 I0.0037 J0.0034
X2.8644 Y2.6343 Z0.0781 I-0.0037 J-0.0034
X2.8718 Y2.6411 Z0.0775 I0.0037 J0.0034
X2.8644 Y2.6343 Z0.077 I-0.0037 J-0.0034
X2.8718 Y2.6411 Z0.0764 I0.0037 J0.0034
X2.8644 Y2.6343 Z0.0759 I-0.0037 J-0.0034
X2.8718 Y2.6411 Z0.0753 I0.0037 J0.0034
X2.8644 Y2.6343 Z0.0748 I-0.0037 J-0.0034
X2.8718 Y2.6411 Z0.0742 I0.0037 J0.0034
X2.8644 Y2.6343 Z0.0737 I-0.0037 J-0.0034
X2.8718 Y2.6411 Z0.0731 I0.0037 J0.0034
X2.8644 Y2.6343 Z0.0726 I-0.0037 J-0.0034
X2.8718 Y2.6411 Z0.072 I0.0037 J0.0034
X2.8644 Y2.6343 Z0.0715 I-0.0037 J-0.0034
X2.8718 Y2.6411 Z0.0709 I0.0037 J0.0034
X2.8644 Y2.6343 Z0.0704 I-0.0037 J-0.0034
X2.8718 Y2.6411 Z0.0698 I0.0037 J0.0034
X2.8644 Y2.6343 Z0.0693 I-0.0037 J-0.0034
X2.8718 Y2.6411 Z0.0687 I0.0037 J0.0034
X2.8644 Y2.6343 Z0.0682 I-0.0037 J-0.0034
X2.8718 Y2.6411 Z0.0676 I0.0037 J0.0034
X2.8644 Y2.6343 Z0.0671 I-0.0037 J-0.0034
X2.8718 Y2.6411 Z0.0665 I0.0037 J0.0034
X2.8644 Y2.6343 Z0.066 I-0.0037 J-0.0034
X2.8718 Y2.6411 Z0.0654 I0.0037 J0.0034
X2.8644 Y2.6343 Z0.0649 I-0.0037 J-0.0034
X2.8718 Y2.6411 Z0.0643 I0.0037 J0.0034
X2.8644 Y2.6343 Z0.0638 I-0.0037 J-0.0034
X2.8718 Y2.6411 Z0.0632 I0.0037 J0.0034
X2.8644 Y2.6343 Z0.0627 I-0.0037 J-0.0034
X2.8718 Y2.6411 Z0.0622 I0.0037 J0.0034
X2.8644 Y2.6343 Z0.0616 I-0.0037 J-0.0034
X2.8718 Y2.6411 Z0.0611 I0.0037 J0.0034
X2.8644 Y2.6343 Z0.0605 I-0.0037 J-0.0034
X2.8718 Y2.6411 Z0.06 I0.0037 J0.0034
X2.8644 Y2.6343 Z0.0594 I-0.0037 J-0.0034
X2.8718 Y2.6411 Z0.0589 I0.0037 J0.0034
X2.8644 Y2.6343 Z0.0583 I-0.0037 J-0.0034
X2.8718 Y2.6411 Z0.0578 I0.0037 J0.0034
X2.8644 Y2.6343 Z0.0572 I-0.0037 J-0.0034
X2.8718 Y2.6411 Z0.0567 I0.0037 J0.0034
X2.8644 Y2.6343 Z0.0561 I-0.0037 J-0.0034
X2.8718 Y2.6411 Z0.0556 I0.0037 J0.0034
X2.8644 Y2.6343 Z0.055 I-0.0037 J-0.0034
X2.8718 Y2.6411 Z0.0545 I0.0037 J0.0034
X2.8644 Y2.6343 Z0.0539 I-0.0037 J-0.0034
X2.8718 Y2.6411 Z0.0534 I0.0037 J0.0034
X2.8644 Y2.6343 Z0.0528 I-0.0037 J-0.0034
X2.8718 Y2.6411 Z0.0523 I0.0037 J0.0034
X2.8644 Y2.6343 Z0.0517 I-0.0037 J-0.0034
X2.8718 Y2.6411 Z0.0512 I0.0037 J0.0034
X2.8644 Y2.6343 Z0.0506 I-0.0037 J-0.0034
X2.8718 Y2.6411 Z0.0501 I0.0037 J0.0034
X2.8644 Y2.6343 Z0.0495 I-0.0037 J-0.0034
X2.8718 Y2.6411 Z0.049 I0.0037 J0.0034
X2.8644 Y2.6343 Z0.0484 I-0.0037 J-0.0034
X2.8718 Y2.6411 Z0.0479 I0.0037 J0.0034
X2.8644 Y2.6343 Z0.0473 I-0.0037 J-0.0034
X2.8718 Y2.6411 Z0.0468 I0.0037 J0.0034
X2.8644 Y2.6343 Z0.0462 I-0.0037 J-0.0034
X2.8718 Y2.6411 Z0.0457 I0.0037 J0.0034
X2.8644 Y2.6343 Z0.0451 I-0.0037 J-0.0034
X2.8718 Y2.6411 Z0.0446 I0.0037 J0.0034
X2.8644 Y2.6343 Z0.044 I-0.0037 J-0.0034
X2.8718 Y2.6411 Z0.0435 I0.0037 J0.0034
X2.8644 Y2.6343 Z0.043 I-0.0037 J-0.0034
X2.8718 Y2.6411 Z0.0424 I0.0037 J0.0034
X2.8644 Y2.6343 Z0.0419 I-0.0037 J-0.0034
X2.8718 Y2.6411 Z0.0413 I0.0037 J0.0034
X2.8644 Y2.6343 Z0.0408 I-0.0037 J-0.0034
X2.8718 Y2.6411 Z0.0402 I0.0037 J0.0034
X2.8644 Y2.6343 Z0.0397 I-0.0037 J-0.0034
X2.8718 Y2.6411 Z0.0391 I0.0037 J0.0034
X2.8644 Y2.6343 Z0.0386 I-0.0037 J-0.0034
X2.8718 Y2.6411 Z0.038 I0.0037 J0.0034
X2.8644 Y2.6343 Z0.0375 I-0.0037 J-0.0034
X2.8718 Y2.6411 Z0.0369 I0.0037 J0.0034
X2.8644 Y2.6343 Z0.0364 I-0.0037 J-0.0034
X2.8718 Y2.6411 Z0.0358 I0.0037 J0.0034
X2.8644 Y2.6343 Z0.0353 I-0.0037 J-0.0034
X2.8718 Y2.6411 Z0.0347 I0.0037 J0.0034
X2.8644 Y2.6343 Z0.0342 I-0.0037 J-0.0034
X2.8718 Y2.6411 Z0.0336 I0.0037 J0.0034
X2.8644 Y2.6343 Z0.0331 I-0.0037 J-0.0034
X2.8718 Y2.6411 Z0.0325 I0.0037 J0.0034
X2.8644 Y2.6343 Z0.032 I-0.0037 J-0.0034
X2.8718 Y2.6411 Z0.0314 I0.0037 J0.0034
X2.8644 Y2.6343 Z0.0309 I-0.0037 J-0.0034
X2.8718 Y2.6411 Z0.0303 I0.0037 J0.0034
X2.8644 Y2.6343 Z0.0298 I-0.0037 J-0.0034
X2.8718 Y2.6411 Z0.0292 I0.0037 J0.0034
X2.8644 Y2.6343 Z0.0287 I-0.0037 J-0.0034
X2.8718 Y2.6411 Z0.0281 I0.0037 J0.0034
X2.8644 Y2.6343 Z0.0276 I-0.0037 J-0.0034
X2.8718 Y2.6411 Z0.027 I0.0037 J0.0034
X2.8644 Y2.6343 Z0.0265 I-0.0037 J-0.0034
X2.8718 Y2.6411 Z0.0259 I0.0037 J0.0034
X2.8644 Y2.6343 Z0.0254 I-0.0037 J-0.0034
X2.8718 Y2.6411 Z0.0249 I0.0037 J0.0034
X2.8644 Y2.6343 Z0.0243 I-0.0037 J-0.0034
X2.8718 Y2.6411 Z0.0238 I0.0037 J0.0034
X2.8644 Y2.6343 Z0.0232 I-0.0037 J-0.0034
X2.8718 Y2.6411 Z0.0227 I0.0037 J0.0034
X2.8644 Y2.6343 Z0.0221 I-0.0037 J-0.0034
X2.8718 Y2.6411 Z0.0216 I0.0037 J0.0034
X2.8644 Y2.6343 Z0.021 I-0.0037 J-0.0034
X2.8718 Y2.6411 Z0.0205 I0.0037 J0.0034
X2.8644 Y2.6343 Z0.0199 I-0.0037 J-0.0034
X2.8718 Y2.6411 Z0.0194 I0.0037 J0.0034
X2.8644 Y2.6343 Z0.0188 I-0.0037 J-0.0034
X2.8718 Y2.6411 Z0.0183 I0.0037 J0.0034
X2.8644 Y2.6343 Z0.0177 I-0.0037 J-0.0034
X2.8718 Y2.6411 Z0.0172 I0.0037 J0.0034
X2.8644 Y2.6343 Z0.0166 I-0.0037 J-0.0034
X2.8718 Y2.6411 Z0.0161 I0.0037 J0.0034
X2.8644 Y2.6343 Z0.0155 I-0.0037 J-0.0034
X2.8718 Y2.6411 Z0.015 I0.0037 J0.0034
X2.8644 Y2.6343 Z0.0144 I-0.0037 J-0.0034
X2.8718 Y2.6411 Z0.0139 I0.0037 J0.0034
X2.8644 Y2.6343 Z0.0133 I-0.0037 J-0.0034
X2.8718 Y2.6411 Z0.0128 I0.0037 J0.0034
X2.8644 Y2.6343 Z0.0122 I-0.0037 J-0.0034
X2.8718 Y2.6411 Z0.0117 I0.0037 J0.0034
X2.8644 Y2.6343 Z0.0111 I-0.0037 J-0.0034
X2.8718 Y2.6411 Z0.0106 I0.0037 J0.0034
X2.8644 Y2.6343 Z0.01 I-0.0037 J-0.0034
X2.8718 Y2.6411 Z0.0095 I0.0037 J0.0034
X2.8644 Y2.6343 Z0.0089 I-0.0037 J-0.0034
X2.8718 Y2.6411 Z0.0084 I0.0037 J0.0034
X2.8644 Y2.6343 Z0.0078 I-0.0037 J-0.0034
X2.8718 Y2.6411 Z0.0073 I0.0037 J0.0034
X2.8644 Y2.6343 Z0.0067 I-0.0037 J-0.0034
X2.8718 Y2.6411 Z0.0062 I0.0037 J0.0034
X2.8644 Y2.6343 Z0.0057 I-0.0037 J-0.0034
X2.8718 Y2.6411 Z0.0051 I0.0037 J0.0034
X2.8644 Y2.6343 Z0.0046 I-0.0037 J-0.0034
X2.8718 Y2.6411 Z0.004 I0.0037 J0.0034
X2.8644 Y2.6343 Z0.0035 I-0.0037 J-0.0034
X2.8718 Y2.6411 Z0.0029 I0.0037 J0.0034
X2.8644 Y2.6343 Z0.0024 I-0.0037 J-0.0034
X2.8718 Y2.6411 Z0.0018 I0.0037 J0.0034
X2.8644 Y2.6343 Z0.0013 I-0.0037 J-0.0034
X2.8718 Y2.6411 Z0.0007 I0.0037 J0.0034
X2.8644 Y2.6343 Z0.0002 I-0.0037 J-0.0034
X2.8718 Y2.6411 Z-0.0004 I0.0037 J0.0034
X2.8644 Y2.6343 Z-0.0009 I-0.0037 J-0.0034
X2.8718 Y2.6411 Z-0.0015 I0.0037 J0.0034
X2.8644 Y2.6343 Z-0.002 I-0.0037 J-0.0034
X2.8718 Y2.6411 Z-0.0026 I0.0037 J0.0034
X2.8644 Y2.6343 Z-0.0031 I-0.0037 J-0.0034
X2.8718 Y2.6411 Z-0.0037 I0.0037 J0.0034
X2.8644 Y2.6343 Z-0.0042 I-0.0037 J-0.0034
X2.8718 Y2.6411 Z-0.0048 I0.0037 J0.0034
X2.8644 Y2.6343 Z-0.0053 I-0.0037 J-0.0034
X2.8718 Y2.6411 Z-0.0059 I0.0037 J0.0034
X2.8644 Y2.6343 Z-0.0064 I-0.0037 J-0.0034
X2.8718 Y2.6411 Z-0.007 I0.0037 J0.0034
X2.8644 Y2.6343 Z-0.0075 I-0.0037 J-0.0034
X2.8718 Y2.6411 Z-0.0081 I0.0037 J0.0034
X2.8644 Y2.6343 Z-0.0086 I-0.0037 J-0.0034
X2.8718 Y2.6411 Z-0.0092 I0.0037 J0.0034
X2.8644 Y2.6343 Z-0.0097 I-0.0037 J-0.0034
X2.8718 Y2.6411 Z-0.0103 I0.0037 J0.0034
X2.8644 Y2.6343 Z-0.0108 I-0.0037 J-0.0034
X2.8718 Y2.6411 Z-0.0114 I0.0037 J0.0034
X2.8644 Y2.6343 Z-0.0119 I-0.0037 J-0.0034
X2.8718 Y2.6411 Z-0.0124 I0.0037 J0.0034
X2.8644 Y2.6343 Z-0.013 I-0.0037 J-0.0034
X2.8718 Y2.6411 Z-0.0135 I0.0037 J0.0034
X2.8644 Y2.6343 Z-0.0141 I-0.0037 J-0.0034
X2.8718 Y2.6411 Z-0.0146 I0.0037 J0.0034
X2.8644 Y2.6343 Z-0.0152 I-0.0037 J-0.0034
X2.8718 Y2.6411 Z-0.0157 I0.0037 J0.0034
X2.8644 Y2.6343 Z-0.0163 I-0.0037 J-0.0034
X2.8718 Y2.6411 Z-0.0168 I0.0037 J0.0034
X2.8644 Y2.6343 Z-0.0174 I-0.0037 J-0.0034
X2.8718 Y2.6411 Z-0.0179 I0.0037 J0.0034
X2.8644 Y2.6343 Z-0.0185 I-0.0037 J-0.0034
X2.8718 Y2.6411 Z-0.019 I0.0037 J0.0034
X2.8644 Y2.6343 Z-0.0196 I-0.0037 J-0.0034
X2.8731 Y2.6377 Z-0.02 I0.0037 J0.0034
X2.8211 I-0.026 J0. F40.
X2.8731 I0.026 J0.
X2.8211 Z-0.0229 I-0.026 J0. F20.
X2.8731 Z-0.0257 I0.026 J0.
X2.8211 Z-0.0286 I-0.026 J0.
X2.8731 Z-0.0314 I0.026 J0.
X2.8211 Z-0.0343 I-0.026 J0.
X2.8731 Z-0.0371 I0.026 J0.
X2.8466 Y2.6637 Z-0.0386 I-0.026 J0.
X2.8211 Y2.6367 Z-0.04 I0.0005 J-0.026
X2.873 Y2.6387 I0.026 J0.001 F40.
X2.8211 Y2.6367 I-0.026 J-0.001
X2.873 Y2.6387 Z-0.0429 I0.026 J0.001 F20.
X2.8211 Y2.6367 Z-0.0457 I-0.026 J-0.001
X2.873 Y2.6387 Z-0.0486 I0.026 J0.001
X2.8211 Y2.6367 Z-0.0514 I-0.026 J-0.001
X2.873 Y2.6387 Z-0.0543 I0.026 J0.001
X2.8211 Y2.6367 Z-0.0571 I-0.026 J-0.001
X2.8485 Y2.6117 Z-0.0586 I0.026 J0.001
X2.873 Y2.6396 Z-0.06 I-0.0014 J0.026
X2.8211 Y2.6358 I-0.0259 J-0.0019 F40.
X2.873 Y2.6396 I0.0259 J0.0019
X2.8211 Y2.6358 Z-0.0629 I-0.0259 J-0.0019 F20.
X2.873 Y2.6396 Z-0.0657 I0.0259 J0.0019
X2.8211 Y2.6358 Z-0.0686 I-0.0259 J-0.0019
X2.873 Y2.6396 Z-0.0714 I0.0259 J0.0019
X2.8211 Y2.6358 Z-0.0743 I-0.0259 J-0.0019
X2.873 Y2.6396 Z-0.0771 I0.0259 J0.0019
X2.8447 Y2.6636 Z-0.0786 I-0.0259 J-0.0019
X2.8212 Y2.6348 Z-0.08 I0.0024 J-0.0259
X2.8729 Y2.6406 I0.0258 J0.0029 F40.
X2.8212 Y2.6348 I-0.0258 J-0.0029
X2.8729 Y2.6406 Z-0.0829 I0.0258 J0.0029 F20.
X2.8212 Y2.6348 Z-0.0857 I-0.0258 J-0.0029
X2.8729 Y2.6406 Z-0.0886 I0.0258 J0.0029
X2.8212 Y2.6348 Z-0.0914 I-0.0258 J-0.0029
X2.8729 Y2.6406 Z-0.0943 I0.0258 J0.0029
X2.8212 Y2.6348 Z-0.0971 I-0.0258 J-0.0029
X2.8504 Y2.6119 Z-0.0986 I0.0258 J0.0029
X2.8728 Y2.6415 Z-0.1 I-0.0033 J0.0258
X2.8213 Y2.6339 I-0.0257 J-0.0038 F40.
X2.8728 Y2.6415 I0.0257 J0.0038
X2.8213 Y2.6339 Z-0.1029 I-0.0257 J-0.0038 F20.
X2.8728 Y2.6415 Z-0.1057 I0.0257 J0.0038
X2.8213 Y2.6339 Z-0.1086 I-0.0257 J-0.0038
X2.8728 Y2.6415 Z-0.1114 I0.0257 J0.0038
X2.8213 Y2.6339 Z-0.1143 I-0.0257 J-0.0038
X2.8728 Y2.6415 Z-0.1171 I0.0257 J0.0038
X2.8428 Y2.6634 Z-0.1186 I-0.0257 J-0.0038
X2.8215 Y2.633 Z-0.12 I0.0043 J-0.0256
X2.8726 Y2.6425 I0.0256 J0.0047 F40.
X2.8215 Y2.633 I-0.0256 J-0.0047
X2.8726 Y2.6425 Z-0.1229 I0.0256 J0.0047 F20.
X2.8215 Y2.633 Z-0.1257 I-0.0256 J-0.0047
X2.8726 Y2.6425 Z-0.1286 I0.0256 J0.0047
X2.8215 Y2.633 Z-0.1314 I-0.0256 J-0.0047
X2.8726 Y2.6425 Z-0.1343 I0.0256 J0.0047
X2.8215 Y2.633 Z-0.1371 I-0.0256 J-0.0047
X2.8523 Y2.6122 Z-0.1386 I0.0256 J0.0047
X2.8724 Y2.6434 Z-0.14 I-0.0052 J0.0255
X2.8217 Y2.632 I-0.0254 J-0.0057 F40.
X2.8724 Y2.6434 I0.0254 J0.0057
X2.8217 Y2.632 Z-0.1429 I-0.0254 J-0.0057 F20.
X2.8724 Y2.6434 Z-0.1457 I0.0254 J0.0057
X2.8217 Y2.632 Z-0.1486 I-0.0254 J-0.0057
X2.8724 Y2.6434 Z-0.1514 I0.0254 J0.0057
X2.8509 Y2.6634 Z-0.1525 I-0.0254 J-0.0057
X2.8432 Y2.612 I-0.0039 J-0.0257 F40.
X2.8509 Y2.6634 I0.0039 J0.0257
X2.8432 Y2.612 Z-0.1554 I-0.0039 J-0.0257 F20.
X2.8509 Y2.6634 Z-0.1582 I0.0039 J0.0257
X2.8432 Y2.612 Z-0.1611 I-0.0039 J-0.0257
X2.8509 Y2.6634 Z-0.1639 I0.0039 J0.0257
X2.8245 Y2.6506 Z-0.165 I-0.0039 J-0.0257
X2.8696 Y2.6248 I0.0226 J-0.0129 F40.
X2.8245 Y2.6506 I-0.0226 J0.0129
G1 X2.8236 Y2.6485 Z-0.1646
X2.823 Y2.6464 Z-0.1641
X2.8229 Y2.6444 Z-0.1628
X2.8231 Y2.6425 Z-0.1615
X2.8239 Y2.6401 Z-0.1577
X2.8243 Y2.6393 Z-0.1532
G0 Z0.2
X2.0958 Y1.672
G1 Z0.1118 F40.
X2.0951 Y1.6719 Z0.1075 F20.
X2.094 Y1.6716 Z0.1057
X2.093 Y1.671 Z0.1039
X2.0921 Y1.6701 Z0.1029
X2.0914 Y1.6691 Z0.102
X2.0911 Y1.6679 Z0.1011
X2.091 Y1.6664 Z0.1007
X2.0915 Y1.6649 Z0.1004
X2.0923 Y1.6636 Z0.1
G3 X2.0997 Y1.6704 Z0.0995 I0.0037 J0.0034
X2.0923 Y1.6636 Z0.0989 I-0.0037 J-0.0034
X2.0997 Y1.6704 Z0.0984 I0.0037 J0.0034
X2.0923 Y1.6636 Z0.0978 I-0.0037 J-0.0034
X2.0997 Y1.6704 Z0.0973 I0.0037 J0.0034
X2.0923 Y1.6636 Z0.0967 I-0.0037 J-0.0034
X2.0997 Y1.6704 Z0.0962 I0.0037 J0.0034
X2.0923 Y1.6636 Z0.0956 I-0.0037 J-0.0034
X2.0997 Y1.6704 Z0.0951 I0.0037 J0.0034
X2.0923 Y1.6636 Z0.0945 I-0.0037 J-0.0034
X2.0997 Y1.6704 Z0.094 I0.0037 J0.0034
X2.0923 Y1.6636 Z0.0934 I-0.0037 J-0.0034
X2.0997 Y1.6704 Z0.0929 I0.0037 J0.0034
X2.0923 Y1.6636 Z0.0923 I-0.0037 J-0.0034
X2.0997 Y1.6704 Z0.0918 I0.0037 J0.0034
X2.0923 Y1.6636 Z0.0912 I-0.0037 J-0.0034
X2.0997 Y1.6704 Z0.0907 I0.0037 J0.0034
X2.0923 Y1.6636 Z0.0901 I-0.0037 J-0.0034
X2.0997 Y1.6704 Z0.0896 I0.0037 J0.0034
X2.0923 Y1.6636 Z0.089 I-0.0037 J-0.0034
X2.0997 Y1.6704 Z0.0885 I0.0037 J0.0034
X2.0923 Y1.6636 Z0.0879 I-0.0037 J-0.0034
X2.0997 Y1.6704 Z0.0874 I0.0037 J0.0034
X2.0923 Y1.6636 Z0.0868 I-0.0037 J-0.0034
X2.0997 Y1.6704 Z0.0863 I0.0037 J0.0034
X2.0923 Y1.6636 Z0.0857 I-0.0037 J-0.0034
X2.0997 Y1.6704 Z0.0852 I0.0037 J0.0034
X2.0923 Y1.6636 Z0.0846 I-0.0037 J-0.0034
X2.0997 Y1.6704 Z0.0841 I0.0037 J0.0034
X2.0923 Y1.6636 Z0.0835 I-0.0037 J-0.0034
X2.0997 Y1.6704 Z0.083 I0.0037 J0.0034
X2.0923 Y1.6636 Z0.0824 I-0.0037 J-0.0034
X2.0997 Y1.6704 Z0.0819 I0.0037 J0.0034
X2.0923 Y1.6636 Z0.0813 I-0.0037 J-0.0034
X2.0997 Y1.6704 Z0.0808 I0.0037 J0.0034
X2.0923 Y1.6636 Z0.0803 I-0.0037 J-0.0034
X2.0997 Y1.6704 Z0.0797 I0.0037 J0.0034
X2.0923 Y1.6636 Z0.0792 I-0.0037 J-0.0034
X2.0997 Y1.6704 Z0.0786 I0.0037 J0.0034
X2.0923 Y1.6636 Z0.0781 I-0.0037 J-0.0034
X2.0997 Y1.6704 Z0.0775 I0.0037 J0.0034
X2.0923 Y1.6636 Z0.077 I-0.0037 J-0.0034
X2.0997 Y1.6704 Z0.0764 I0.0037 J0.0034
X2.0923 Y1.6636 Z0.0759 I-0.0037 J-0.0034
X2.0997 Y1.6704 Z0.0753 I0.0037 J0.0034
X2.0923 Y1.6636 Z0.0748 I-0.0037 J-0.0034
X2.0997 Y1.6704 Z0.0742 I0.0037 J0.0034
X2.0923 Y1.6636 Z0.0737 I-0.0037 J-0.0034
X2.0997 Y1.6704 Z0.0731 I0.0037 J0.0034
X2.0923 Y1.6636 Z0.0726 I-0.0037 J-0.0034
X2.0997 Y1.6704 Z0.072 I0.0037 J0.0034
X2.0923 Y1.6636 Z0.0715 I-0.0037 J-0.0034
X2.0997 Y1.6704 Z0.0709 I0.0037 J0.0034
X2.0923 Y1.6636 Z0.0704 I-0.0037 J-0.0034
X2.0997 Y1.6704 Z0.0698 I0.0037 J0.0034
X2.0923 Y1.6636 Z0.0693 I-0.0037 J-0.0034
X2.0997 Y1.6704 Z0.0687 I0.0037 J0.0034
X2.0923 Y1.6636 Z0.0682 I-0.0037 J-0.0034
X2.0997 Y1.6704 Z0.0676 I0.0037 J0.0034
X2.0923 Y1.6636 Z0.0671 I-0.0037 J-0.0034
X2.0997 Y1.6704 Z0.0665 I0.0037 J0.0034
X2.0923 Y1.6636 Z0.066 I-0.0037 J-0.0034
X2.0997 Y1.6704 Z0.0654 I0.0037 J0.0034
X2.0923 Y1.6636 Z0.0649 I-0.0037 J-0.0034
X2.0997 Y1.6704 Z0.0643 I0.0037 J0.0034
X2.0923 Y1.6636 Z0.0638 I-0.0037 J-0.0034
X2.0997 Y1.6704 Z0.0632 I0.0037 J0.0034
X2.0923 Y1.6636 Z0.0627 I-0.0037 J-0.0034
X2.0997 Y1.6704 Z0.0622 I0.0037 J0.0034
X2.0923 Y1.6636 Z0.0616 I-0.0037 J-0.0034
X2.0997 Y1.6704 Z0.0611 I0.0037 J0.0034
X2.0923 Y1.6636 Z0.0605 I-0.0037 J-0.0034
X2.0997 Y1.6704 Z0.06 I0.0037 J0.0034
X2.0923 Y1.6636 Z0.0594 I-0.0037 J-0.0034
X2.0997 Y1.6704 Z0.0589 I0.0037 J0.0034
X2.0923 Y1.6636 Z0.0583 I-0.0037 J-0.0034
X2.0997 Y1.6704 Z0.0578 I0.0037 J0.0034
X2.0923 Y1.6636 Z0.0572 I-0.0037 J-0.0034
X2.0997 Y1.6704 Z0.0567 I0.0037 J0.0034
X2.0923 Y1.6636 Z0.0561 I-0.0037 J-0.0034
X2.0997 Y1.6704 Z0.0556 I0.0037 J0.0034
X2.0923 Y1.6636 Z0.055 I-0.0037 J-0.0034
X2.0997 Y1.6704 Z0.0545 I0.0037 J0.0034
X2.0923 Y1.6636 Z0.0539 I-0.0037 J-0.0034
X2.0997 Y1.6704 Z0.0534 I0.0037 J0.0034
X2.0923 Y1.6636 Z0.0528 I-0.0037 J-0.0034
X2.0997 Y1.6704 Z0.0523 I0.0037 J0.0034
X2.0923 Y1.6636 Z0.0517 I-0.0037 J-0.0034
X2.0997 Y1.6704 Z0.0512 I0.0037 J0.0034
X2.0923 Y1.6636 Z0.0506 I-0.0037 J-0.0034
X2.0997 Y1.6704 Z0.0501 I0.0037 J0.0034
X2.0923 Y1.6636 Z0.0495 I-0.0037 J-0.0034
X2.0997 Y1.6704 Z0.049 I0.0037 J0.0034
X2.0923 Y1.6636 Z0.0484 I-0.0037 J-0.0034
X2.0997 Y1.6704 Z0.0479 I0.0037 J0.0034
X2.0923 Y1.6636 Z0.0473 I-0.0037 J-0.0034
X2.0997 Y1.6704 Z0.0468 I0.0037 J0.0034
X2.0923 Y1.6636 Z0.0462 I-0.0037 J-0.0034
X2.0997 Y1.6704 Z0.0457 I0.0037 J0.0034
X2.0923 Y1.6636 Z0.0451 I-0.0037 J-0.0034
X2.0997 Y1.6704 Z0.0446 I0.0037 J0.0034
X2.0923 Y1.6636 Z0.044 I-0.0037 J-0.0034
X2.0997 Y1.6704 Z0.0435 I0.0037 J0.0034
X2.0923 Y1.6636 Z0.043 I-0.0037 J-0.0034
X2.0997 Y1.6704 Z0.0424 I0.0037 J0.0034
X2.0923 Y1.6636 Z0.0419 I-0.0037 J-0.0034
X2.0997 Y1.6704 Z0.0413 I0.0037 J0.0034
X2.0923 Y1.6636 Z0.0408 I-0.0037 J-0.0034
X2.0997 Y1.6704 Z0.0402 I0.0037 J0.0034
X2.0923 Y1.6636 Z0.0397 I-0.0037 J-0.0034
X2.0997 Y1.6704 Z0.0391 I0.0037 J0.0034
X2.0923 Y1.6636 Z0.0386 I-0.0037 J-0.0034
X2.0997 Y1.6704 Z0.038 I0.0037 J0.0034
X2.0923 Y1.6636 Z0.0375 I-0.0037 J-0.0034
X2.0997 Y1.6704 Z0.0369 I0.0037 J0.0034
X2.0923 Y1.6636 Z0.0364 I-0.0037 J-0.0034
X2.0997 Y1.6704 Z0.0358 I0.0037 J0.0034
X2.0923 Y1.6636 Z0.0353 I-0.0037 J-0.0034
X2.0997 Y1.6704 Z0.0347 I0.0037 J0.0034
X2.0923 Y1.6636 Z0.0342 I-0.0037 J-0.0034
X2.0997 Y1.6704 Z0.0336 I0.0037 J0.0034
X2.0923 Y1.6636 Z0.0331 I-0.0037 J-0.0034
X2.0997 Y1.6704 Z0.0325 I0.0037 J0.0034
X2.0923 Y1.6636 Z0.032 I-0.0037 J-0.0034
X2.0997 Y1.6704 Z0.0314 I0.0037 J0.0034
X2.0923 Y1.6636 Z0.0309 I-0.0037 J-0.0034
X2.0997 Y1.6704 Z0.0303 I0.0037 J0.0034
X2.0923 Y1.6636 Z0.0298 I-0.0037 J-0.0034
X2.0997 Y1.6704 Z0.0292 I0.0037 J0.0034
X2.0923 Y1.6636 Z0.0287 I-0.0037 J-0.0034
X2.0997 Y1.6704 Z0.0281 I0.0037 J0.0034
X2.0923 Y1.6636 Z0.0276 I-0.0037 J-0.0034
X2.0997 Y1.6704 Z0.027 I0.0037 J0.0034
X2.0923 Y1.6636 Z0.0265 I-0.0037 J-0.0034
X2.0997 Y1.6704 Z0.0259 I0.0037 J0.0034
X2.0923 Y1.6636 Z0.0254 I-0.0037 J-0.0034
X2.0997 Y1.6704 Z0.0249 I0.0037 J0.0034
X2.0923 Y1.6636 Z0.0243 I-0.0037 J-0.0034
X2.0997 Y1.6704 Z0.0238 I0.0037 J0.0034
X2.0923 Y1.6636 Z0.0232 I-0.0037 J-0.0034
X2.0997 Y1.6704 Z0.0227 I0.0037 J0.0034
X2.0923 Y1.6636 Z0.0221 I-0.0037 J-0.0034
X2.0997 Y1.6704 Z0.0216 I0.0037 J0.0034
X2.0923 Y1.6636 Z0.021 I-0.0037 J-0.0034
X2.0997 Y1.6704 Z0.0205 I0.0037 J0.0034
X2.0923 Y1.6636 Z0.0199 I-0.0037 J-0.0034
X2.0997 Y1.6704 Z0.0194 I0.0037 J0.0034
X2.0923 Y1.6636 Z0.0188 I-0.0037 J-0.0034
X2.0997 Y1.6704 Z0.0183 I0.0037 J0.0034
X2.0923 Y1.6636 Z0.0177 I-0.0037 J-0.0034
X2.0997 Y1.6704 Z0.0172 I0.0037 J0.0034
X2.0923 Y1.6636 Z0.0166 I-0.0037 J-0.0034
X2.0997 Y1.6704 Z0.0161 I0.0037 J0.0034
X2.0923 Y1.6636 Z0.0155 I-0.0037 J-0.0034
X2.0997 Y1.6704 Z0.015 I0.0037 J0.0034
X2.0923 Y1.6636 Z0.0144 I-0.0037 J-0.0034
X2.0997 Y1.6704 Z0.0139 I0.0037 J0.0034
X2.0923 Y1.6636 Z0.0133 I-0.0037 J-0.0034
X2.0997 Y1.6704 Z0.0128 I0.0037 J0.0034
X2.0923 Y1.6636 Z0.0122 I-0.0037 J-0.0034
X2.0997 Y1.6704 Z0.0117 I0.0037 J0.0034
X2.0923 Y1.6636 Z0.0111 I-0.0037 J-0.0034
X2.0997 Y1.6704 Z0.0106 I0.0037 J0.0034
X2.0923 Y1.6636 Z0.01 I-0.0037 J-0.0034
X2.0997 Y1.6704 Z0.0095 I0.0037 J0.0034
X2.0923 Y1.6636 Z0.0089 I-0.0037 J-0.0034
X2.0997 Y1.6704 Z0.0084 I0.0037 J0.0034
X2.0923 Y1.6636 Z0.0078 I-0.0037 J-0.0034
X2.0997 Y1.6704 Z0.0073 I0.0037 J0.0034
X2.0923 Y1.6636 Z0.0067 I-0.0037 J-0.0034
X2.0997 Y1.6704 Z0.0062 I0.0037 J0.0034
X2.0923 Y1.6636 Z0.0057 I-0.0037 J-0.0034
X2.0997 Y1.6704 Z0.0051 I0.0037 J0.0034
X2.0923 Y1.6636 Z0.0046 I-0.0037 J-0.0034
X2.0997 Y1.6704 Z0.004 I0.0037 J0.0034
X2.0923 Y1.6636 Z0.0035 I-0.0037 J-0.0034
X2.0997 Y1.6704 Z0.0029 I0.0037 J0.0034
X2.0923 Y1.6636 Z0.0024 I-0.0037 J-0.0034
X2.0997 Y1.6704 Z0.0018 I0.0037 J0.0034
X2.0923 Y1.6636 Z0.0013 I-0.0037 J-0.0034
X2.0997 Y1.6704 Z0.0007 I0.0037 J0.0034
X2.0923 Y1.6636 Z0.0002 I-0.0037 J-0.0034
X2.0997 Y1.6704 Z-0.0004 I0.0037 J0.0034
X2.0923 Y1.6636 Z-0.0009 I-0.0037 J-0.0034
X2.0997 Y1.6704 Z-0.0015 I0.0037 J0.0034
X2.0923 Y1.6636 Z-0.002 I-0.0037 J-0.0034
X2.0997 Y1.6704 Z-0.0026 I0.0037 J0.0034
X2.0923 Y1.6636 Z-0.0031 I-0.0037 J-0.0034
X2.0997 Y1.6704 Z-0.0037 I0.0037 J0.0034
X2.0923 Y1.6636 Z-0.0042 I-0.0037 J-0.0034
X2.0997 Y1.6704 Z-0.0048 I0.0037 J0.0034
X2.0923 Y1.6636 Z-0.0053 I-0.0037 J-0.0034
X2.0997 Y1.6704 Z-0.0059 I0.0037 J0.0034
X2.0923 Y1.6636 Z-0.0064 I-0.0037 J-0.0034
X2.0997 Y1.6704 Z-0.007 I0.0037 J0.0034
X2.0923 Y1.6636 Z-0.0075 I-0.0037 J-0.0034
X2.0997 Y1.6704 Z-0.0081 I0.0037 J0.0034
X2.0923 Y1.6636 Z-0.0086 I-0.0037 J-0.0034
X2.0997 Y1.6704 Z-0.0092 I0.0037 J0.0034
X2.0923 Y1.6636 Z-0.0097 I-0.0037 J-0.0034
X2.0997 Y1.6704 Z-0.0103 I0.0037 J0.0034
X2.0923 Y1.6636 Z-0.0108 I-0.0037 J-0.0034
X2.0997 Y1.6704 Z-0.0114 I0.0037 J0.0034
X2.0923 Y1.6636 Z-0.0119 I-0.0037 J-0.0034
X2.0997 Y1.6704 Z-0.0124 I0.0037 J0.0034
X2.0923 Y1.6636 Z-0.013 I-0.0037 J-0.0034
X2.0997 Y1.6704 Z-0.0135 I0.0037 J0.0034
X2.0923 Y1.6636 Z-0.0141 I-0.0037 J-0.0034
X2.0997 Y1.6704 Z-0.0146 I0.0037 J0.0034
X2.0923 Y1.6636 Z-0.0152 I-0.0037 J-0.0034
X2.0997 Y1.6704 Z-0.0157 I0.0037 J0.0034
X2.0923 Y1.6636 Z-0.0163 I-0.0037 J-0.0034
X2.0997 Y1.6704 Z-0.0168 I0.0037 J0.0034
X2.0923 Y1.6636 Z-0.0174 I-0.0037 J-0.0034
X2.0997 Y1.6704 Z-0.0179 I0.0037 J0.0034
X2.0923 Y1.6636 Z-0.0185 I-0.0037 J-0.0034
X2.0997 Y1.6704 Z-0.019 I0.0037 J0.0034
X2.0923 Y1.6636 Z-0.0196 I-0.0037 J-0.0034
X2.101 Y1.667 Z-0.02 I0.0037 J0.0034
X2.018 I-0.0415 J0. F40.
X2.101 I0.0415 J0.
X2.018 Z-0.0246 I-0.0415 J0. F20.
X2.101 Z-0.0291 I0.0415 J0.
X2.018 Z-0.0337 I-0.0415 J0.
X2.101 Z-0.0382 I0.0415 J0.
X2.0732 Y1.7062 Z-0.04 I-0.0415 J0.
X2.0458 Y1.6278 I-0.0137 J-0.0392 F40.
X2.0732 Y1.7062 I0.0137 J0.0392
X2.0458 Y1.6278 Z-0.0446 I-0.0137 J-0.0392 F20.
X2.0732 Y1.7062 Z-0.0491 I0.0137 J0.0392
X2.0458 Y1.6278 Z-0.0537 I-0.0137 J-0.0392
X2.0732 Y1.7062 Z-0.0582 I0.0137 J0.0392
X2.0271 Y1.6929 Z-0.06 I-0.0137 J-0.0392
X2.0919 Y1.6411 I0.0324 J-0.0259 F40.
X2.0271 Y1.6929 I-0.0324 J0.0259
X2.0919 Y1.6411 Z-0.0646 I0.0324 J-0.0259 F20.
X2.0271 Y1.6929 Z-0.0691 I-0.0324 J0.0259
X2.0919 Y1.6411 Z-0.0737 I0.0324 J-0.0259
X2.0271 Y1.6929 Z-0.0782 I-0.0324 J0.0259
X2.0244 Y1.6449 Z-0.08 I0.0324 J-0.0259
X2.0946 Y1.6891 I0.0351 J0.0221 F40.
X2.0244 Y1.6449 I-0.0351 J-0.0221
X2.0946 Y1.6891 Z-0.0846 I0.0351 J0.0221 F20.
X2.0244 Y1.6449 Z-0.0891 I-0.0351 J-0.0221
X2.0946 Y1.6891 Z-0.0937 I0.0351 J0.0221
X2.0244 Y1.6449 Z-0.0982 I-0.0351 J-0.0221
X2.0687 Y1.6266 Z-0.1 I0.0351 J0.0221
X2.0503 Y1.7075 I-0.0092 J0.0405 F40.
X2.0687 Y1.6266 I0.0092 J-0.0405
X2.0503 Y1.7075 Z-0.1046 I-0.0092 J0.0405 F20.
X2.0687 Y1.6266 Z-0.1091 I0.0092 J-0.0405
X2.0503 Y1.7075 Z-0.1137 I-0.0092 J0.0405
X2.0687 Y1.6266 Z-0.1182 I0.0092 J-0.0405
X2.1007 Y1.6624 Z-0.12 I-0.0092 J0.0405
X2.0183 Y1.6717 I-0.0412 J0.0046 F40.
X2.1007 Y1.6624 I0.0412 J-0.0046
X2.0183 Y1.6717 Z-0.1246 I-0.0412 J0.0046 F20.
X2.1007 Y1.6624 Z-0.1291 I0.0412 J-0.0046
X2.0183 Y1.6717 Z-0.1337 I-0.0412 J0.0046
X2.1007 Y1.6624 Z-0.1382 I0.0412 J-0.0046
X2.0775 Y1.7044 Z-0.14 I-0.0412 J0.0046
X2.0415 Y1.6296 I-0.018 J-0.0374 F40.
X2.0775 Y1.7044 I0.018 J0.0374
X2.0415 Y1.6296 Z-0.1446 I-0.018 J-0.0374 F20.
X2.0775 Y1.7044 Z-0.1491 I0.018 J0.0374
X2.0201 Y1.6539 Z-0.1525 I-0.018 J-0.0374
X2.0989 Y1.6802 I0.0394 J0.0132 F40.
X2.0201 Y1.6539 I-0.0394 J-0.0132
X2.0989 Y1.6802 Z-0.1571 I0.0394 J0.0132 F20.
X2.0201 Y1.6539 Z-0.1616 I-0.0394 J-0.0132
X2.0964 Y1.648 Z-0.165 I0.0394 J0.0132
X2.0226 Y1.6861 I-0.0369 J0.019 F40.
X2.0964 Y1.648 I0.0369 J-0.019
G1 X2.0972 Y1.6501 Z-0.1646
X2.0976 Y1.6523 Z-0.1641
X2.0977 Y1.6542 Z-0.1628
X2.0974 Y1.6561 Z-0.1615
X2.0965 Y1.6585 Z-0.1577
X2.0961 Y1.6593 Z-0.1532
G0 Z0.2
X3.2169 Y1.1619
G1 Z0.1118 F40.
X3.2168 Y1.1627 Z0.1075 F20.
X3.2165 Y1.1638 Z0.1057
X3.2159 Y1.1647 Z0.1039
X3.215 Y1.1656 Z0.1029
X3.2139 Y1.1663 Z0.102
X3.2127 Y1.1667 Z0.1011
X3.2112 Z0.1007
X3.2098 Y1.1663 Z0.1004
X3.2085 Y1.1654 Z0.1
G3 X3.2152 Y1.158 Z0.0995 I0.0034 J-0.0037
X3.2085 Y1.1654 Z0.0989 I-0.0034 J0.0037
X3.2152 Y1.158 Z0.0984 I0.0034 J-0.0037
X3.2085 Y1.1654 Z0.0978 I-0.0034 J0.0037
X3.2152 Y1.158 Z0.0973 I0.0034 J-0.0037
X3.2085 Y1.1654 Z0.0967 I-0.0034 J0.0037
X3.2152 Y1.158 Z0.0962 I0.0034 J-0.0037
X3.2085 Y1.1654 Z0.0956 I-0.0034 J0.0037
X3.2152 Y1.158 Z0.0951 I0.0034 J-0.0037
X3.2085 Y1.1654 Z0.0945 I-0.0034 J0.0037
X3.2152 Y1.158 Z0.094 I0.0034 J-0.0037
X3.2085 Y1.1654 Z0.0934 I-0.0034 J0.0037
X3.2152 Y1.158 Z0.0929 I0.0034 J-0.0037
X3.2085 Y1.1654 Z0.0923 I-0.0034 J0.0037
X3.2152 Y1.158 Z0.0918 I0.0034 J-0.0037
X3.2085 Y1.1654 Z0.0912 I-0.0034 J0.0037
X3.2152 Y1.158 Z0.0907 I0.0034 J-0.0037
X3.2085 Y1.1654 Z0.0901 I-0.0034 J0.0037
X3.2152 Y1.158 Z0.0896 I0.0034 J-0.0037
X3.2085 Y1.1654 Z0.089 I-0.0034 J0.0037
X3.2152 Y1.158 Z0.0885 I0.0034 J-0.0037
X3.2085 Y1.1654 Z0.0879 I-0.0034 J0.0037
X3.2152 Y1.158 Z0.0874 I0.0034 J-0.0037
X3.2085 Y1.1654 Z0.0868 I-0.0034 J0.0037
X3.2152 Y1.158 Z0.0863 I0.0034 J-0.0037
X3.2085 Y1.1654 Z0.0857 I-0.0034 J0.0037
X3.2152 Y1.158 Z0.0852 I0.0034 J-0.0037
X3.2085 Y1.1654 Z0.0846 I-0.0034 J0.0037
X3.2152 Y1.158 Z0.0841 I0.0034 J-0.0037
X3.2085 Y1.1654 Z0.0835 I-0.0034 J0.0037
X3.2152 Y1.158 Z0.083 I0.0034 J-0.0037
X3.2085 Y1.1654 Z0.0824 I-0.0034 J0.0037
X3.2152 Y1.158 Z0.0819 I0.0034 J-0.0037
X3.2085 Y1.1654 Z0.0813 I-0.0034 J0.0037
X3.2152 Y1.158 Z0.0808 I0.0034 J-0.0037
X3.2085 Y1.1654 Z0.0803 I-0.0034 J0.0037
X3.2152 Y1.158 Z0.0797 I0.0034 J-0.0037
X3.2085 Y1.1654 Z0.0792 I-0.0034 J0.0037
X3.2152 Y1.158 Z0.0786 I0.0034 J-0.0037
X3.2085 Y1.1654 Z0.0781 I-0.0034 J0.0037
X3.2152 Y1.158 Z0.0775 I0.0034 J-0.0037
X3.2085 Y1.1654 Z0.077 I-0.0034 J0.0037
X3.2152 Y1.158 Z0.0764 I0.0034 J-0.0037
X3.2085 Y1.1654 Z0.0759 I-0.0034 J0.0037
X3.2152 Y1.158 Z0.0753 I0.0034 J-0.0037
X3.2085 Y1.1654 Z0.0748 I-0.0034 J0.0037
X3.2152 Y1.158 Z0.0742 I0.0034 J-0.0037
X3.2085 Y1.1654 Z0.0737 I-0.0034 J0.0037
X3.2152 Y1.158 Z0.0731 I0.0034 J-0.0037
X3.2085 Y1.1654 Z0.0726 I-0.0034 J0.0037
X3.2152 Y1.158 Z0.072 I0.0034 J-0.0037
X3.2085 Y1.1654 Z0.0715 I-0.0034 J0.0037
X3.2152 Y1.158 Z0.0709 I0.0034 J-0.0037
X3.2085 Y1.1654 Z0.0704 I-0.0034 J0.0037
X3.2152 Y1.158 Z0.0698 I0.0034 J-0.0037
X3.2085 Y1.1654 Z0.0693 I-0.0034 J0.0037
X3.2152 Y1.158 Z0.0687 I0.0034 J-0.0037
X3.2085 Y1.1654 Z0.0682 I-0.0034 J0.0037
X3.2152 Y1.158 Z0.0676 I0.0034 J-0.0037
X3.2085 Y1.1654 Z0.0671 I-0.0034 J0.0037
X3.2152 Y1.158 Z0.0665 I0.0034 J-0.0037
X3.2085 Y1.1654 Z0.066 I-0.0034 J0.0037
X3.2152 Y1.158 Z0.0654 I0.0034 J-0.0037
X3.2085 Y1.1654 Z0.0649 I-0.0034 J0.0037
X3.2152 Y1.158 Z0.0643 I0.0034 J-0.0037
X3.2085 Y1.1654 Z0.0638 I-0.0034 J0.0037
X3.2152 Y1.158 Z0.0632 I0.0034 J-0.0037
X3.2085 Y1.1654 Z0.0627 I-0.0034 J0.0037
X3.2152 Y1.158 Z0.0622 I0.0034 J-0.0037
X3.2085 Y1.1654 Z0.0616 I-0.0034 J0.0037
X3.2152 Y1.158 Z0.0611 I0.0034 J-0.0037
X3.2085 Y1.1654 Z0.0605 I-0.0034 J0.0037
X3.2152 Y1.158 Z0.06 I0.0034 J-0.0037
X3.2085 Y1.1654 Z0.0594 I-0.0034 J0.0037
X3.2152 Y1.158 Z0.0589 I0.0034 J-0.0037
X3.2085 Y1.1654 Z0.0583 I-0.0034 J0.0037
X3.2152 Y1.158 Z0.0578 I0.0034 J-0.0037
X3.2085 Y1.1654 Z0.0572 I-0.0034 J0.0037
X3.2152 Y1.158 Z0.0567 I0.0034 J-0.0037
X3.2085 Y1.1654 Z0.0561 I-0.0034 J0.0037
X3.2152 Y1.158 Z0.0556 I0.0034 J-0.0037
X3.2085 Y1.1654 Z0.055 I-0.0034 J0.0037
X3.2152 Y1.158 Z0.0545 I0.0034 J-0.0037
X3.2085 Y1.1654 Z0.0539 I-0.0034 J0.0037
X3.2152 Y1.158 Z0.0534 I0.0034 J-0.0037
X3.2085 Y1.1654 Z0.0528 I-0.0034 J0.0037
X3.2152 Y1.158 Z0.0523 I0.0034 J-0.0037
X3.2085 Y1.1654 Z0.0517 I-0.0034 J0.0037
X3.2152 Y1.158 Z0.0512 I0.0034 J-0.0037
X3.2085 Y1.1654 Z0.0506 I-0.0034 J0.0037
X3.2152 Y1.158 Z0.0501 I0.0034 J-0.0037
X3.2085 Y1.1654 Z0.0495 I-0.0034 J0.0037
X3.2152 Y1.158 Z0.049 I0.0034 J-0.0037
X3.2085 Y1.1654 Z0.0484 I-0.0034 J0.0037
X3.2152 Y1.158 Z0.0479 I0.0034 J-0.0037
X3.2085 Y1.1654 Z0.0473 I-0.0034 J0.0037
X3.2152 Y1.158 Z0.0468 I0.0034 J-0.0037
X3.2085 Y1.1654 Z0.0462 I-0.0034 J0.0037
X3.2152 Y1.158 Z0.0457 I0.0034 J-0.0037
X3.2085 Y1.1654 Z0.0451 I-0.0034 J0.0037
X3.2152 Y1.158 Z0.0446 I0.0034 J-0.0037
X3.2085 Y1.1654 Z0.044 I-0.0034 J0.0037
X3.2152 Y1.158 Z0.0435 I0.0034 J-0.0037
X3.2085 Y1.1654 Z0.043 I-0.0034 J0.0037
X3.2152 Y1.158 Z0.0424 I0.0034 J-0.0037
X3.2085 Y1.1654 Z0.0419 I-0.0034 J0.0037
X3.2152 Y1.158 Z0.0413 I0.0034 J-0.0037
X3.2085 Y1.1654 Z0.0408 I-0.0034 J0.0037
X3.2152 Y1.158 Z0.0402 I0.0034 J-0.0037
X3.2085 Y1.1654 Z0.0397 I-0.0034 J0.0037
X3.2152 Y1.158 Z0.0391 I0.0034 J-0.0037
X3.2085 Y1.1654 Z0.0386 I-0.0034 J0.0037
X3.2152 Y1.158 Z0.038 I0.0034 J-0.0037
X3.2085 Y1.1654 Z0.0375 I-0.0034 J0.0037
X3.2152 Y1.158 Z0.0369 I0.0034 J-0.0037
X3.2085 Y1.1654 Z0.0364 I-0.0034 J0.0037
X3.2152 Y1.158 Z0.0358 I0.0034 J-0.0037
X3.2085 Y1.1654 Z0.0353 I-0.0034 J0.0037
X3.2152 Y1.158 Z0.0347 I0.0034 J-0.0037
X3.2085 Y1.1654 Z0.0342 I-0.0034 J0.0037
X3.2152 Y1.158 Z0.0336 I0.0034 J-0.0037
X3.2085 Y1.1654 Z0.0331 I-0.0034 J0.0037
X3.2152 Y1.158 Z0.0325 I0.0034 J-0.0037
X3.2085 Y1.1654 Z0.032 I-0.0034 J0.0037
X3.2152 Y1.158 Z0.0314 I0.0034 J-0.0037
X3.2085 Y1.1654 Z0.0309 I-0.0034 J0.0037
X3.2152 Y1.158 Z0.0303 I0.0034 J-0.0037
X3.2085 Y1.1654 Z0.0298 I-0.0034 J0.0037
X3.2152 Y1.158 Z0.0292 I0.0034 J-0.0037
X3.2085 Y1.1654 Z0.0287 I-0.0034 J0.0037
X3.2152 Y1.158 Z0.0281 I0.0034 J-0.0037
X3.2085 Y1.1654 Z0.0276 I-0.0034 J0.0037
X3.2152 Y1.158 Z0.027 I0.0034 J-0.0037
X3.2085 Y1.1654 Z0.0265 I-0.0034 J0.0037
X3.2152 Y1.158 Z0.0259 I0.0034 J-0.0037
X3.2085 Y1.1654 Z0.0254 I-0.0034 J0.0037
X3.2152 Y1.158 Z0.0249 I0.0034 J-0.0037
X3.2085 Y1.1654 Z0.0243 I-0.0034 J0.0037
X3.2152 Y1.158 Z0.0238 I0.0034 J-0.0037
X3.2085 Y1.1654 Z0.0232 I-0.0034 J0.0037
X3.2152 Y1.158 Z0.0227 I0.0034 J-0.0037
X3.2085 Y1.1654 Z0.0221 I-0.0034 J0.0037
X3.2152 Y1.158 Z0.0216 I0.0034 J-0.0037
X3.2085 Y1.1654 Z0.021 I-0.0034 J0.0037
X3.2152 Y1.158 Z0.0205 I0.0034 J-0.0037
X3.2085 Y1.1654 Z0.0199 I-0.0034 J0.0037
X3.2152 Y1.158 Z0.0194 I0.0034 J-0.0037
X3.2085 Y1.1654 Z0.0188 I-0.0034 J0.0037
X3.2152 Y1.158 Z0.0183 I0.0034 J-0.0037
X3.2085 Y1.1654 Z0.0177 I-0.0034 J0.0037
X3.2152 Y1.158 Z0.0172 I0.0034 J-0.0037
X3.2085 Y1.1654 Z0.0166 I-0.0034 J0.0037
X3.2152 Y1.158 Z0.0161 I0.0034 J-0.0037
X3.2085 Y1.1654 Z0.0155 I-0.0034 J0.0037
X3.2152 Y1.158 Z0.015 I0.0034 J-0.0037
X3.2085 Y1.1654 Z0.0144 I-0.0034 J0.0037
X3.2152 Y1.158 Z0.0139 I0.0034 J-0.0037
X3.2085 Y1.1654 Z0.0133 I-0.0034 J0.0037
X3.2152 Y1.158 Z0.0128 I0.0034 J-0.0037
X3.2085 Y1.1654 Z0.0122 I-0.0034 J0.0037
X3.2152 Y1.158 Z0.0117 I0.0034 J-0.0037
X3.2085 Y1.1654 Z0.0111 I-0.0034 J0.0037
X3.2152 Y1.158 Z0.0106 I0.0034 J-0.0037
X3.2085 Y1.1654 Z0.01 I-0.0034 J0.0037
X3.2152 Y1.158 Z0.0095 I0.0034 J-0.0037
X3.2085 Y1.1654 Z0.0089 I-0.0034 J0.0037
X3.2152 Y1.158 Z0.0084 I0.0034 J-0.0037
X3.2085 Y1.1654 Z0.0078 I-0.0034 J0.0037
X3.2152 Y1.158 Z0.0073 I0.0034 J-0.0037
X3.2085 Y1.1654 Z0.0067 I-0.0034 J0.0037
X3.2152 Y1.158 Z0.0062 I0.0034 J-0.0037
X3.2085 Y1.1654 Z0.0057 I-0.0034 J0.0037
X3.2152 Y1.158 Z0.0051 I0.0034 J-0.0037
X3.2085 Y1.1654 Z0.0046 I-0.0034 J0.0037
X3.2152 Y1.158 Z0.004 I0.0034 J-0.0037
X3.2085 Y1.1654 Z0.0035 I-0.0034 J0.0037
X3.2152 Y1.158 Z0.0029 I0.0034 J-0.0037
X3.2085 Y1.1654 Z0.0024 I-0.0034 J0.0037
X3.2152 Y1.158 Z0.0018 I0.0034 J-0.0037
X3.2085 Y1.1654 Z0.0013 I-0.0034 J0.0037
X3.2152 Y1.158 Z0.0007 I0.0034 J-0.0037
X3.2085 Y1.1654 Z0.0002 I-0.0034 J0.0037
X3.2152 Y1.158 Z-0.0004 I0.0034 J-0.0037
X3.2085 Y1.1654 Z-0.0009 I-0.0034 J0.0037
X3.2152 Y1.158 Z-0.0015 I0.0034 J-0.0037
X3.2085 Y1.1654 Z-0.002 I-0.0034 J0.0037
X3.2152 Y1.158 Z-0.0026 I0.0034 J-0.0037
X3.2085 Y1.1654 Z-0.0031 I-0.0034 J0.0037
X3.2152 Y1.158 Z-0.0037 I0.0034 J-0.0037
X3.2085 Y1.1654 Z-0.0042 I-0.0034 J0.0037
X3.2152 Y1.158 Z-0.0048 I0.0034 J-0.0037
X3.2085 Y1.1654 Z-0.0053 I-0.0034 J0.0037
X3.2152 Y1.158 Z-0.0059 I0.0034 J-0.0037
X3.2085 Y1.1654 Z-0.0064 I-0.0034 J0.0037
X3.2152 Y1.158 Z-0.007 I0.0034 J-0.0037
X3.2085 Y1.1654 Z-0.0075 I-0.0034 J0.0037
X3.2152 Y1.158 Z-0.0081 I0.0034 J-0.0037
X3.2085 Y1.1654 Z-0.0086 I-0.0034 J0.0037
X3.2152 Y1.158 Z-0.0092 I0.0034 J-0.0037
X3.2085 Y1.1654 Z-0.0097 I-0.0034 J0.0037
X3.2152 Y1.158 Z-0.0103 I0.0034 J-0.0037
X3.2085 Y1.1654 Z-0.0108 I-0.0034 J0.0037
X3.2152 Y1.158 Z-0.0114 I0.0034 J-0.0037
X3.2085 Y1.1654 Z-0.0119 I-0.0034 J0.0037
X3.2152 Y1.158 Z-0.0124 I0.0034 J-0.0037
X3.2085 Y1.1654 Z-0.013 I-0.0034 J0.0037
X3.2152 Y1.158 Z-0.0135 I0.0034 J-0.0037
X3.2085 Y1.1654 Z-0.0141 I-0.0034 J0.0037
X3.2152 Y1.158 Z-0.0146 I0.0034 J-0.0037
X3.2085 Y1.1654 Z-0.0152 I-0.0034 J0.0037
X3.2152 Y1.158 Z-0.0157 I0.0034 J-0.0037
X3.2085 Y1.1654 Z-0.0163 I-0.0034 J0.0037
X3.2152 Y1.158 Z-0.0168 I0.0034 J-0.0037
X3.2085 Y1.1654 Z-0.0174 I-0.0034 J0.0037
X3.2152 Y1.158 Z-0.0179 I0.0034 J-0.0037
X3.2085 Y1.1654 Z-0.0185 I-0.0034 J0.0037
X3.2152 Y1.158 Z-0.019 I0.0034 J-0.0037
X3.2085 Y1.1654 Z-0.0196 I-0.0034 J0.0037
X3.2119 Y1.1567 Z-0.02 I0.0034 J-0.0037
Y1.2087 I0. J0.026 F40.
Y1.1567 I0. J-0.026
Y1.2087 Z-0.0229 I0. J0.026 F20.
Y1.1567 Z-0.0257 I0. J-0.026
Y1.2087 Z-0.0286 I0. J0.026
Y1.1567 Z-0.0314 I0. J-0.026
Y1.2087 Z-0.0343 I0. J0.026
Y1.1567 Z-0.0371 I0. J-0.026
X3.2379 Y1.1832 Z-0.0386 I0. J0.026
X3.2109 Y1.2087 Z-0.04 I-0.026 J-0.0005
X3.2128 Y1.1568 I0.001 J-0.026 F40.
X3.2109 Y1.2087 I-0.001 J0.026
X3.2128 Y1.1568 Z-0.0429 I0.001 J-0.026 F20.
X3.2109 Y1.2087 Z-0.0457 I-0.001 J0.026
X3.2128 Y1.1568 Z-0.0486 I0.001 J-0.026
X3.2109 Y1.2087 Z-0.0514 I-0.001 J0.026
X3.2128 Y1.1568 Z-0.0543 I0.001 J-0.026
X3.2109 Y1.2087 Z-0.0571 I-0.001 J0.026
X3.1859 Y1.1813 Z-0.0586 I0.001 J-0.026
X3.2138 Y1.1568 Z-0.06 I0.026 J0.0014
X3.21 Y1.2087 I-0.0019 J0.0259 F40.
X3.2138 Y1.1568 I0.0019 J-0.0259
X3.21 Y1.2087 Z-0.0629 I-0.0019 J0.0259 F20.
X3.2138 Y1.1568 Z-0.0657 I0.0019 J-0.0259
X3.21 Y1.2087 Z-0.0686 I-0.0019 J0.0259
X3.2138 Y1.1568 Z-0.0714 I0.0019 J-0.0259
X3.21 Y1.2087 Z-0.0743 I-0.0019 J0.0259
X3.2138 Y1.1568 Z-0.0771 I0.0019 J-0.0259
X3.2378 Y1.1851 Z-0.0786 I-0.0019 J0.0259
X3.209 Y1.2086 Z-0.08 I-0.0259 J-0.0024
X3.2147 Y1.1569 I0.0029 J-0.0258 F40.
X3.209 Y1.2086 I-0.0029 J0.0258
X3.2147 Y1.1569 Z-0.0829 I0.0029 J-0.0258 F20.
X3.209 Y1.2086 Z-0.0857 I-0.0029 J0.0258
X3.2147 Y1.1569 Z-0.0886 I0.0029 J-0.0258
X3.209 Y1.2086 Z-0.0914 I-0.0029 J0.0258
X3.2147 Y1.1569 Z-0.0943 I0.0029 J-0.0258
X3.209 Y1.2086 Z-0.0971 I-0.0029 J0.0258
X3.1861 Y1.1794 Z-0.0986 I0.0029 J-0.0258
X3.2157 Y1.157 Z-0.1 I0.0258 J0.0033
X3.2081 Y1.2085 I-0.0038 J0.0257 F40.
X3.2157 Y1.157 I0.0038 J-0.0257
X3.2081 Y1.2085 Z-0.1029 I-0.0038 J0.0257 F20.
X3.2157 Y1.157 Z-0.1057 I0.0038 J-0.0257
X3.2081 Y1.2085 Z-0.1086 I-0.0038 J0.0257
X3.2157 Y1.157 Z-0.1114 I0.0038 J-0.0257
X3.2081 Y1.2085 Z-0.1143 I-0.0038 J0.0257
X3.2157 Y1.157 Z-0.1171 I0.0038 J-0.0257
X3.2375 Y1.187 Z-0.1186 I-0.0038 J0.0257
X3.2071 Y1.2083 Z-0.12 I-0.0256 J-0.0043
X3.2166 Y1.1572 I0.0047 J-0.0256 F40.
X3.2071 Y1.2083 I-0.0047 J0.0256
X3.2166 Y1.1572 Z-0.1229 I0.0047 J-0.0256 F20.
X3.2071 Y1.2083 Z-0.1257 I-0.0047 J0.0256
X3.2166 Y1.1572 Z-0.1286 I0.0047 J-0.0256
X3.2071 Y1.2083 Z-0.1314 I-0.0047 J0.0256
X3.2166 Y1.1572 Z-0.1343 I0.0047 J-0.0256
X3.2071 Y1.2083 Z-0.1371 I-0.0047 J0.0256
X3.1864 Y1.1775 Z-0.1386 I0.0047 J-0.0256
X3.2176 Y1.1574 Z-0.14 I0.0255 J0.0052
X3.2062 Y1.2081 I-0.0057 J0.0254 F40.
X3.2176 Y1.1574 I0.0057 J-0.0254
X3.2062 Y1.2081 Z-0.1429 I-0.0057 J0.0254 F20.
X3.2176 Y1.1574 Z-0.1457 I0.0057 J-0.0254
X3.2062 Y1.2081 Z-0.1486 I-0.0057 J0.0254
X3.2176 Y1.1574 Z-0.1514 I0.0057 J-0.0254
X3.2376 Y1.1789 Z-0.1525 I-0.0057 J0.0254
X3.1862 Y1.1866 I-0.0257 J0.0039 F40.
X3.2376 Y1.1789 I0.0257 J-0.0039
X3.1862 Y1.1866 Z-0.1554 I-0.0257 J0.0039 F20.
X3.2376 Y1.1789 Z-0.1582 I0.0257 J-0.0039
X3.1862 Y1.1866 Z-0.1611 I-0.0257 J0.0039
X3.2376 Y1.1789 Z-0.1639 I0.0257 J-0.0039
X3.2248 Y1.2053 Z-0.165 I-0.0257 J0.0039
X3.199 Y1.1602 I-0.0129 J-0.0226 F40.
X3.2248 Y1.2053 I0.0129 J0.0226
G1 X3.2227 Y1.2062 Z-0.1646
X3.2205 Y1.2068 Z-0.1641
X3.2186 Y1.2069 Z-0.1628
X3.2167 Y1.2067 Z-0.1615
X3.2143 Y1.2059 Z-0.1577
X3.2135 Y1.2055 Z-0.1532
G0 Z0.2
X4.8145 Y1.1667
G1 Z0.1118 F40.
X4.8144 Y1.1675 Z0.1075 F20.
X4.8141 Y1.1686 Z0.1057
X4.8135 Y1.1695 Z0.1039
X4.8126 Y1.1704 Z0.1029
X4.8116 Y1.1711 Z0.102
X4.8104 Y1.1715 Z0.1011
X4.8089 Z0.1007
X4.8074 Y1.1711 Z0.1004
X4.8061 Y1.1702 Z0.1
G3 X4.8129 Y1.1628 Z0.0995 I0.0034 J-0.0037
X4.8061 Y1.1702 Z0.0989 I-0.0034 J0.0037
X4.8129 Y1.1628 Z0.0984 I0.0034 J-0.0037
X4.8061 Y1.1702 Z0.0978 I-0.0034 J0.0037
X4.8129 Y1.1628 Z0.0973 I0.0034 J-0.0037
X4.8061 Y1.1702 Z0.0967 I-0.0034 J0.0037
X4.8129 Y1.1628 Z0.0962 I0.0034 J-0.0037
X4.8061 Y1.1702 Z0.0956 I-0.0034 J0.0037
X4.8129 Y1.1628 Z0.0951 I0.0034 J-0.0037
X4.8061 Y1.1702 Z0.0945 I-0.0034 J0.0037
X4.8129 Y1.1628 Z0.094 I0.0034 J-0.0037
X4.8061 Y1.1702 Z0.0934 I-0.0034 J0.0037
X4.8129 Y1.1628 Z0.0929 I0.0034 J-0.0037
X4.8061 Y1.1702 Z0.0923 I-0.0034 J0.0037
X4.8129 Y1.1628 Z0.0918 I0.0034 J-0.0037
X4.8061 Y1.1702 Z0.0912 I-0.0034 J0.0037
X4.8129 Y1.1628 Z0.0907 I0.0034 J-0.0037
X4.8061 Y1.1702 Z0.0901 I-0.0034 J0.0037
X4.8129 Y1.1628 Z0.0896 I0.0034 J-0.0037
X4.8061 Y1.1702 Z0.089 I-0.0034 J0.0037
X4.8129 Y1.1628 Z0.0885 I0.0034 J-0.0037
X4.8061 Y1.1702 Z0.0879 I-0.0034 J0.0037
X4.8129 Y1.1628 Z0.0874 I0.0034 J-0.0037
X4.8061 Y1.1702 Z0.0868 I-0.0034 J0.0037
X4.8129 Y1.1628 Z0.0863 I0.0034 J-0.0037
X4.8061 Y1.1702 Z0.0857 I-0.0034 J0.0037
X4.8129 Y1.1628 Z0.0852 I0.0034 J-0.0037
X4.8061 Y1.1702 Z0.0846 I-0.0034 J0.0037
X4.8129 Y1.1628 Z0.0841 I0.0034 J-0.0037
X4.8061 Y1.1702 Z0.0835 I-0.0034 J0.0037
X4.8129 Y1.1628 Z0.083 I0.0034 J-0.0037
X4.8061 Y1.1702 Z0.0824 I-0.0034 J0.0037
X4.8129 Y1.1628 Z0.0819 I0.0034 J-0.0037
X4.8061 Y1.1702 Z0.0813 I-0.0034 J0.0037
X4.8129 Y1.1628 Z0.0808 I0.0034 J-0.0037
X4.8061 Y1.1702 Z0.0803 I-0.0034 J0.0037
X4.8129 Y1.1628 Z0.0797 I0.0034 J-0.0037
X4.8061 Y1.1702 Z0.0792 I-0.0034 J0.0037
X4.8129 Y1.1628 Z0.0786 I0.0034 J-0.0037
X4.8061 Y1.1702 Z0.0781 I-0.0034 J0.0037
X4.8129 Y1.1628 Z0.0775 I0.0034 J-0.0037
X4.8061 Y1.1702 Z0.077 I-0.0034 J0.0037
X4.8129 Y1.1628 Z0.0764 I0.0034 J-0.0037
X4.8061 Y1.1702 Z0.0759 I-0.0034 J0.0037
X4.8129 Y1.1628 Z0.0753 I0.0034 J-0.0037
X4.8061 Y1.1702 Z0.0748 I-0.0034 J0.0037
X4.8129 Y1.1628 Z0.0742 I0.0034 J-0.0037
X4.8061 Y1.1702 Z0.0737 I-0.0034 J0.0037
X4.8129 Y1.1628 Z0.0731 I0.0034 J-0.0037
X4.8061 Y1.1702 Z0.0726 I-0.0034 J0.0037
X4.8129 Y1.1628 Z0.072 I0.0034 J-0.0037
X4.8061 Y1.1702 Z0.0715 I-0.0034 J0.0037
X4.8129 Y1.1628 Z0.0709 I0.0034 J-0.0037
X4.8061 Y1.1702 Z0.0704 I-0.0034 J0.0037
X4.8129 Y1.1628 Z0.0698 I0.0034 J-0.0037
X4.8061 Y1.1702 Z0.0693 I-0.0034 J0.0037
X4.8129 Y1.1628 Z0.0687 I0.0034 J-0.0037
X4.8061 Y1.1702 Z0.0682 I-0.0034 J0.0037
X4.8129 Y1.1628 Z0.0676 I0.0034 J-0.0037
X4.8061 Y1.1702 Z0.0671 I-0.0034 J0.0037
X4.8129 Y1.1628 Z0.0665 I0.0034 J-0.0037
X4.8061 Y1.1702 Z0.066 I-0.0034 J0.0037
X4.8129 Y1.1628 Z0.0654 I0.0034 J-0.0037
X4.8061 Y1.1702 Z0.0649 I-0.0034 J0.0037
X4.8129 Y1.1628 Z0.0643 I0.0034 J-0.0037
X4.8061 Y1.1702 Z0.0638 I-0.0034 J0.0037
X4.8129 Y1.1628 Z0.0632 I0.0034 J-0.0037
X4.8061 Y1.1702 Z0.0627 I-0.0034 J0.0037
X4.8129 Y1.1628 Z0.0622 I0.0034 J-0.0037
X4.8061 Y1.1702 Z0.0616 I-0.0034 J0.0037
X4.8129 Y1.1628 Z0.0611 I0.0034 J-0.0037
X4.8061 Y1.1702 Z0.0605 I-0.0034 J0.0037
X4.8129 Y1.1628 Z0.06 I0.0034 J-0.0037
X4.8061 Y1.1702 Z0.0594 I-0.0034 J0.0037
X4.8129 Y1.1628 Z0.0589 I0.0034 J-0.0037
X4.8061 Y1.1702 Z0.0583 I-0.0034 J0.0037
X4.8129 Y1.1628 Z0.0578 I0.0034 J-0.0037
X4.8061 Y1.1702 Z0.0572 I-0.0034 J0.0037
X4.8129 Y1.1628 Z0.0567 I0.0034 J-0.0037
X4.8061 Y1.1702 Z0.0561 I-0.0034 J0.0037
X4.8129 Y1.1628 Z0.0556 I0.0034 J-0.0037
X4.8061 Y1.1702 Z0.055 I-0.0034 J0.0037
X4.8129 Y1.1628 Z0.0545 I0.0034 J-0.0037
X4.8061 Y1.1702 Z0.0539 I-0.0034 J0.0037
X4.8129 Y1.1628 Z0.0534 I0.0034 J-0.0037
X4.8061 Y1.1702 Z0.0528 I-0.0034 J0.0037
X4.8129 Y1.1628 Z0.0523 I0.0034 J-0.0037
X4.8061 Y1.1702 Z0.0517 I-0.0034 J0.0037
X4.8129 Y1.1628 Z0.0512 I0.0034 J-0.0037
X4.8061 Y1.1702 Z0.0506 I-0.0034 J0.0037
X4.8129 Y1.1628 Z0.0501 I0.0034 J-0.0037
X4.8061 Y1.1702 Z0.0495 I-0.0034 J0.0037
X4.8129 Y1.1628 Z0.049 I0.0034 J-0.0037
X4.8061 Y1.1702 Z0.0484 I-0.0034 J0.0037
X4.8129 Y1.1628 Z0.0479 I0.0034 J-0.0037
X4.8061 Y1.1702 Z0.0473 I-0.0034 J0.0037
X4.8129 Y1.1628 Z0.0468 I0.0034 J-0.0037
X4.8061 Y1.1702 Z0.0462 I-0.0034 J0.0037
X4.8129 Y1.1628 Z0.0457 I0.0034 J-0.0037
X4.8061 Y1.1702 Z0.0451 I-0.0034 J0.0037
X4.8129 Y1.1628 Z0.0446 I0.0034 J-0.0037
X4.8061 Y1.1702 Z0.044 I-0.0034 J0.0037
X4.8129 Y1.1628 Z0.0435 I0.0034 J-0.0037
X4.8061 Y1.1702 Z0.043 I-0.0034 J0.0037
X4.8129 Y1.1628 Z0.0424 I0.0034 J-0.0037
X4.8061 Y1.1702 Z0.0419 I-0.0034 J0.0037
X4.8129 Y1.1628 Z0.0413 I0.0034 J-0.0037
X4.8061 Y1.1702 Z0.0408 I-0.0034 J0.0037
X4.8129 Y1.1628 Z0.0402 I0.0034 J-0.0037
X4.8061 Y1.1702 Z0.0397 I-0.0034 J0.0037
X4.8129 Y1.1628 Z0.0391 I0.0034 J-0.0037
X4.8061 Y1.1702 Z0.0386 I-0.0034 J0.0037
X4.8129 Y1.1628 Z0.038 I0.0034 J-0.0037
X4.8061 Y1.1702 Z0.0375 I-0.0034 J0.0037
X4.8129 Y1.1628 Z0.0369 I0.0034 J-0.0037
X4.8061 Y1.1702 Z0.0364 I-0.0034 J0.0037
X4.8129 Y1.1628 Z0.0358 I0.0034 J-0.0037
X4.8061 Y1.1702 Z0.0353 I-0.0034 J0.0037
X4.8129 Y1.1628 Z0.0347 I0.0034 J-0.0037
X4.8061 Y1.1702 Z0.0342 I-0.0034 J0.0037
X4.8129 Y1.1628 Z0.0336 I0.0034 J-0.0037
X4.8061 Y1.1702 Z0.0331 I-0.0034 J0.0037
X4.8129 Y1.1628 Z0.0325 I0.0034 J-0.0037
X4.8061 Y1.1702 Z0.032 I-0.0034 J0.0037
X4.8129 Y1.1628 Z0.0314 I0.0034 J-0.0037
X4.8061 Y1.1702 Z0.0309 I-0.0034 J0.0037
X4.8129 Y1.1628 Z0.0303 I0.0034 J-0.0037
X4.8061 Y1.1702 Z0.0298 I-0.0034 J0.0037
X4.8129 Y1.1628 Z0.0292 I0.0034 J-0.0037
X4.8061 Y1.1702 Z0.0287 I-0.0034 J0.0037
X4.8129 Y1.1628 Z0.0281 I0.0034 J-0.0037
X4.8061 Y1.1702 Z0.0276 I-0.0034 J0.0037
X4.8129 Y1.1628 Z0.027 I0.0034 J-0.0037
X4.8061 Y1.1702 Z0.0265 I-0.0034 J0.0037
X4.8129 Y1.1628 Z0.0259 I0.0034 J-0.0037
X4.8061 Y1.1702 Z0.0254 I-0.0034 J0.0037
X4.8129 Y1.1628 Z0.0249 I0.0034 J-0.0037
X4.8061 Y1.1702 Z0.0243 I-0.0034 J0.0037
X4.8129 Y1.1628 Z0.0238 I0.0034 J-0.0037
X4.8061 Y1.1702 Z0.0232 I-0.0034 J0.0037
X4.8129 Y1.1628 Z0.0227 I0.0034 J-0.0037
X4.8061 Y1.1702 Z0.0221 I-0.0034 J0.0037
X4.8129 Y1.1628 Z0.0216 I0.0034 J-0.0037
X4.8061 Y1.1702 Z0.021 I-0.0034 J0.0037
X4.8129 Y1.1628 Z0.0205 I0.0034 J-0.0037
X4.8061 Y1.1702 Z0.0199 I-0.0034 J0.0037
X4.8129 Y1.1628 Z0.0194 I0.0034 J-0.0037
X4.8061 Y1.1702 Z0.0188 I-0.0034 J0.0037
X4.8129 Y1.1628 Z0.0183 I0.0034 J-0.0037
X4.8061 Y1.1702 Z0.0177 I-0.0034 J0.0037
X4.8129 Y1.1628 Z0.0172 I0.0034 J-0.0037
X4.8061 Y1.1702 Z0.0166 I-0.0034 J0.0037
X4.8129 Y1.1628 Z0.0161 I0.0034 J-0.0037
X4.8061 Y1.1702 Z0.0155 I-0.0034 J0.0037
X4.8129 Y1.1628 Z0.015 I0.0034 J-0.0037
X4.8061 Y1.1702 Z0.0144 I-0.0034 J0.0037
X4.8129 Y1.1628 Z0.0139 I0.0034 J-0.0037
X4.8061 Y1.1702 Z0.0133 I-0.0034 J0.0037
X4.8129 Y1.1628 Z0.0128 I0.0034 J-0.0037
X4.8061 Y1.1702 Z0.0122 I-0.0034 J0.0037
X4.8129 Y1.1628 Z0.0117 I0.0034 J-0.0037
X4.8061 Y1.1702 Z0.0111 I-0.0034 J0.0037
X4.8129 Y1.1628 Z0.0106 I0.0034 J-0.0037
X4.8061 Y1.1702 Z0.01 I-0.0034 J0.0037
X4.8129 Y1.1628 Z0.0095 I0.0034 J-0.0037
X4.8061 Y1.1702 Z0.0089 I-0.0034 J0.0037
X4.8129 Y1.1628 Z0.0084 I0.0034 J-0.0037
X4.8061 Y1.1702 Z0.0078 I-0.0034 J0.0037
X4.8129 Y1.1628 Z0.0073 I0.0034 J-0.0037
X4.8061 Y1.1702 Z0.0067 I-0.0034 J0.0037
X4.8129 Y1.1628 Z0.0062 I0.0034 J-0.0037
X4.8061 Y1.1702 Z0.0057 I-0.0034 J0.0037
X4.8129 Y1.1628 Z0.0051 I0.0034 J-0.0037
X4.8061 Y1.1702 Z0.0046 I-0.0034 J0.0037
X4.8129 Y1.1628 Z0.004 I0.0034 J-0.0037
X4.8061 Y1.1702 Z0.0035 I-0.0034 J0.0037
X4.8129 Y1.1628 Z0.0029 I0.0034 J-0.0037
X4.8061 Y1.1702 Z0.0024 I-0.0034 J0.0037
X4.8129 Y1.1628 Z0.0018 I0.0034 J-0.0037
X4.8061 Y1.1702 Z0.0013 I-0.0034 J0.0037
X4.8129 Y1.1628 Z0.0007 I0.0034 J-0.0037
X4.8061 Y1.1702 Z0.0002 I-0.0034 J0.0037
X4.8129 Y1.1628 Z-0.0004 I0.0034 J-0.0037
X4.8061 Y1.1702 Z-0.0009 I-0.0034 J0.0037
X4.8129 Y1.1628 Z-0.0015 I0.0034 J-0.0037
X4.8061 Y1.1702 Z-0.002 I-0.0034 J0.0037
X4.8129 Y1.1628 Z-0.0026 I0.0034 J-0.0037
X4.8061 Y1.1702 Z-0.0031 I-0.0034 J0.0037
X4.8129 Y1.1628 Z-0.0037 I0.0034 J-0.0037
X4.8061 Y1.1702 Z-0.0042 I-0.0034 J0.0037
X4.8129 Y1.1628 Z-0.0048 I0.0034 J-0.0037
X4.8061 Y1.1702 Z-0.0053 I-0.0034 J0.0037
X4.8129 Y1.1628 Z-0.0059 I0.0034 J-0.0037
X4.8061 Y1.1702 Z-0.0064 I-0.0034 J0.0037
X4.8129 Y1.1628 Z-0.007 I0.0034 J-0.0037
X4.8061 Y1.1702 Z-0.0075 I-0.0034 J0.0037
X4.8129 Y1.1628 Z-0.0081 I0.0034 J-0.0037
X4.8061 Y1.1702 Z-0.0086 I-0.0034 J0.0037
X4.8129 Y1.1628 Z-0.0092 I0.0034 J-0.0037
X4.8061 Y1.1702 Z-0.0097 I-0.0034 J0.0037
X4.8129 Y1.1628 Z-0.0103 I0.0034 J-0.0037
X4.8061 Y1.1702 Z-0.0108 I-0.0034 J0.0037
X4.8129 Y1.1628 Z-0.0114 I0.0034 J-0.0037
X4.8061 Y1.1702 Z-0.0119 I-0.0034 J0.0037
X4.8129 Y1.1628 Z-0.0124 I0.0034 J-0.0037
X4.8061 Y1.1702 Z-0.013 I-0.0034 J0.0037
X4.8129 Y1.1628 Z-0.0135 I0.0034 J-0.0037
X4.8061 Y1.1702 Z-0.0141 I-0.0034 J0.0037
X4.8129 Y1.1628 Z-0.0146 I0.0034 J-0.0037
X4.8061 Y1.1702 Z-0.0152 I-0.0034 J0.0037
X4.8129 Y1.1628 Z-0.0157 I0.0034 J-0.0037
X4.8061 Y1.1702 Z-0.0163 I-0.0034 J0.0037
X4.8129 Y1.1628 Z-0.0168 I0.0034 J-0.0037
X4.8061 Y1.1702 Z-0.0174 I-0.0034 J0.0037
X4.8129 Y1.1628 Z-0.0179 I0.0034 J-0.0037
X4.8061 Y1.1702 Z-0.0185 I-0.0034 J0.0037
X4.8129 Y1.1628 Z-0.019 I0.0034 J-0.0037
X4.8061 Y1.1702 Z-0.0196 I-0.0034 J0.0037
X4.8095 Y1.1615 Z-0.02 I0.0034 J-0.0037
G1 X4.8112 Y1.1618 F40.
X4.8127 Y1.1626
X4.814 Y1.1638
X4.8147 Y1.1653
X4.815 Y1.167
G3 X4.804 I-0.0055 J0.
G1 X4.8043 Y1.1653
X4.8051 Y1.1638
X4.8063 Y1.1626
X4.8078 Y1.1618
X4.8095 Y1.1615
X4.8112 Y1.1618 Z-0.0201 F20.
X4.8127 Y1.1626
X4.814 Y1.1638 Z-0.0202
X4.8147 Y1.1653
X4.815 Y1.167 Z-0.0203
G3 X4.804 Z-0.0209 I-0.0055 J0.
X4.815 Z-0.0215 I0.0055 J0.
X4.804 Z-0.0221 I-0.0055 J0.
X4.815 Z-0.0227 I0.0055 J0.
X4.804 Z-0.0233 I-0.0055 J0.
X4.815 Z-0.0239 I0.0055 J0.
X4.804 Z-0.0245 I-0.0055 J0.
X4.815 Z-0.0251 I0.0055 J0.
X4.804 Z-0.0257 I-0.0055 J0.
X4.815 Z-0.0263 I0.0055 J0.
X4.804 Z-0.0269 I-0.0055 J0.
X4.815 Z-0.0275 I0.0055 J0.
X4.804 Z-0.0281 I-0.0055 J0.
X4.815 Z-0.0287 I0.0055 J0.
X4.804 Z-0.0293 I-0.0055 J0.
X4.815 Z-0.0299 I0.0055 J0.
X4.804 Z-0.0306 I-0.0055 J0.
X4.815 Z-0.0312 I0.0055 J0.
X4.804 Z-0.0318 I-0.0055 J0.
X4.815 Z-0.0324 I0.0055 J0.
X4.804 Z-0.033 I-0.0055 J0.
X4.815 Z-0.0336 I0.0055 J0.
X4.804 Z-0.0342 I-0.0055 J0.
X4.815 Z-0.0348 I0.0055 J0.
X4.804 Z-0.0354 I-0.0055 J0.
X4.815 Z-0.036 I0.0055 J0.
X4.804 Z-0.0366 I-0.0055 J0.
X4.815 Z-0.0372 I0.0055 J0.
X4.804 Z-0.0378 I-0.0055 J0.
X4.815 Z-0.0384 I0.0055 J0.
X4.804 Z-0.039 I-0.0055 J0.
X4.815 Z-0.0396 I0.0055 J0.
G1 X4.8148 Y1.1687 Z-0.0397
X4.814 Y1.1701
X4.8129 Y1.1713 Z-0.0398
X4.8114 Y1.1722
X4.8098 Y1.1725 Z-0.0399
X4.8082 Y1.1723
X4.8066 Y1.1717 Z-0.04
X4.8056 Y1.1708 F40.
X4.8047 Y1.1697
X4.8042 Y1.1684
X4.804 Y1.167
G3 X4.815 I0.0055 J0.
G1 X4.8148 Y1.1687
X4.814 Y1.1701
X4.8129 Y1.1713
X4.8114 Y1.1722
X4.8098 Y1.1725
X4.8082 Y1.1723
X4.8066 Y1.1717
X4.8056 Y1.1708 F20.
X4.8047 Y1.1697 Z-0.0401
X4.8042 Y1.1684
X4.804 Y1.167 Z-0.0402
G3 X4.815 Z-0.0408 I0.0055 J0.
X4.804 Z-0.0414 I-0.0055 J0.
X4.815 Z-0.042 I0.0055 J0.
X4.804 Z-0.0426 I-0.0055 J0.
X4.815 Z-0.0432 I0.0055 J0.
X4.804 Z-0.0438 I-0.0055 J0.
X4.815 Z-0.0444 I0.0055 J0.
X4.804 Z-0.045 I-0.0055 J0.
X4.815 Z-0.0456 I0.0055 J0.
X4.804 Z-0.0462 I-0.0055 J0.
X4.815 Z-0.0468 I0.0055 J0.
X4.804 Z-0.0474 I-0.0055 J0.
X4.815 Z-0.048 I0.0055 J0.
X4.804 Z-0.0486 I-0.0055 J0.
X4.815 Z-0.0492 I0.0055 J0.
X4.804 Z-0.0498 I-0.0055 J0.
X4.815 Z-0.0504 I0.0055 J0.
X4.804 Z-0.051 I-0.0055 J0.
X4.815 Z-0.0517 I0.0055 J0.
X4.804 Z-0.0523 I-0.0055 J0.
X4.815 Z-0.0529 I0.0055 J0.
X4.804 Z-0.0535 I-0.0055 J0.
X4.815 Z-0.0541 I0.0055 J0.
X4.804 Z-0.0547 I-0.0055 J0.
X4.815 Z-0.0553 I0.0055 J0.
X4.804 Z-0.0559 I-0.0055 J0.
X4.815 Z-0.0565 I0.0055 J0.
X4.804 Z-0.0571 I-0.0055 J0.
X4.815 Z-0.0577 I0.0055 J0.
X4.804 Z-0.0583 I-0.0055 J0.
X4.815 Z-0.0589 I0.0055 J0.
X4.804 Z-0.0595 I-0.0055 J0.
X4.8144 Y1.1645 Z-0.06 I0.0055 J0.
G1 X4.8149 Y1.1657 F40.
X4.815 Y1.167
G3 X4.804 I-0.0055 J0.
X4.8144 Y1.1645 I0.0055 J0.
G1 X4.8149 Y1.1657 F20.
X4.815 Y1.167 Z-0.0601
G3 X4.804 Z-0.0607 I-0.0055 J0.
X4.815 Z-0.0613 I0.0055 J0.
X4.804 Z-0.0619 I-0.0055 J0.
X4.815 Z-0.0625 I0.0055 J0.
X4.804 Z-0.0631 I-0.0055 J0.
X4.815 Z-0.0637 I0.0055 J0.
X4.804 Z-0.0643 I-0.0055 J0.
X4.815 Z-0.0649 I0.0055 J0.
X4.804 Z-0.0655 I-0.0055 J0.
X4.815 Z-0.0661 I0.0055 J0.
X4.804 Z-0.0667 I-0.0055 J0.
X4.815 Z-0.0673 I0.0055 J0.
X4.804 Z-0.0679 I-0.0055 J0.
X4.815 Z-0.0685 I0.0055 J0.
X4.804 Z-0.0691 I-0.0055 J0.
X4.815 Z-0.0697 I0.0055 J0.
X4.804 Z-0.0703 I-0.0055 J0.
X4.815 Z-0.0709 I0.0055 J0.
X4.804 Z-0.0715 I-0.0055 J0.
X4.815 Z-0.0721 I0.0055 J0.
X4.804 Z-0.0728 I-0.0055 J0.
X4.815 Z-0.0734 I0.0055 J0.
X4.804 Z-0.074 I-0.0055 J0.
X4.815 Z-0.0746 I0.0055 J0.
X4.804 Z-0.0752 I-0.0055 J0.
X4.815 Z-0.0758 I0.0055 J0.
X4.804 Z-0.0764 I-0.0055 J0.
X4.815 Z-0.077 I0.0055 J0.
X4.804 Z-0.0776 I-0.0055 J0.
X4.815 Z-0.0782 I0.0055 J0.
X4.804 Z-0.0788 I-0.0055 J0.
X4.815 Z-0.0794 I0.0055 J0.
X4.804 Z-0.08 I-0.0055 J0.
G1 Y1.1666
G3 X4.815 Y1.167 I0.0055 J0.0004 F40.
X4.804 I-0.0055 J0.
G1 Y1.1666
G3 X4.815 Y1.167 Z-0.0806 I0.0055 J0.0004 F20.
X4.804 Z-0.0812 I-0.0055 J0.
X4.815 Z-0.0818 I0.0055 J0.
X4.804 Z-0.0824 I-0.0055 J0.
X4.815 Z-0.083 I0.0055 J0.
X4.804 Z-0.0836 I-0.0055 J0.
X4.815 Z-0.0842 I0.0055 J0.
X4.804 Z-0.0848 I-0.0055 J0.
X4.815 Z-0.0854 I0.0055 J0.
X4.804 Z-0.086 I-0.0055 J0.
X4.815 Z-0.0866 I0.0055 J0.
X4.804 Z-0.0872 I-0.0055 J0.
X4.815 Z-0.0878 I0.0055 J0.
X4.804 Z-0.0884 I-0.0055 J0.
X4.815 Z-0.089 I0.0055 J0.
X4.804 Z-0.0896 I-0.0055 J0.
X4.815 Z-0.0902 I0.0055 J0.
X4.804 Z-0.0908 I-0.0055 J0.
X4.815 Z-0.0914 I0.0055 J0.
X4.804 Z-0.092 I-0.0055 J0.
X4.815 Z-0.0926 I0.0055 J0.
X4.804 Z-0.0932 I-0.0055 J0.
X4.815 Z-0.0939 I0.0055 J0.
X4.804 Z-0.0945 I-0.0055 J0.
X4.815 Z-0.0951 I0.0055 J0.
X4.804 Z-0.0957 I-0.0055 J0.
X4.815 Z-0.0963 I0.0055 J0.
X4.804 Z-0.0969 I-0.0055 J0.
X4.815 Z-0.0975 I0.0055 J0.
X4.804 Z-0.0981 I-0.0055 J0.
X4.815 Z-0.0987 I0.0055 J0.
X4.804 Z-0.0993 I-0.0055 J0.
X4.815 Z-0.0999 I0.0055 J0.
G1 X4.8147 Y1.1687
X4.814 Y1.1702 Z-0.1
G3 X4.804 Y1.167 I-0.0045 J-0.0032 F40.
X4.815 I0.0055 J0.
G1 X4.8147 Y1.1687
X4.814 Y1.1702
G3 X4.804 Y1.167 Z-0.1005 I-0.0045 J-0.0032 F20.
X4.815 Z-0.1011 I0.0055 J0.
X4.804 Z-0.1017 I-0.0055 J0.
X4.815 Z-0.1023 I0.0055 J0.
X4.804 Z-0.1029 I-0.0055 J0.
X4.815 Z-0.1035 I0.0055 J0.
X4.804 Z-0.1041 I-0.0055 J0.
X4.815 Z-0.1047 I0.0055 J0.
X4.804 Z-0.1053 I-0.0055 J0.
X4.815 Z-0.1059 I0.0055 J0.
X4.804 Z-0.1065 I-0.0055 J0.
X4.815 Z-0.1071 I0.0055 J0.
X4.804 Z-0.1077 I-0.0055 J0.
X4.815 Z-0.1083 I0.0055 J0.
X4.804 Z-0.1089 I-0.0055 J0.
X4.815 Z-0.1095 I0.0055 J0.
X4.804 Z-0.1101 I-0.0055 J0.
X4.815 Z-0.1107 I0.0055 J0.
X4.804 Z-0.1113 I-0.0055 J0.
X4.815 Z-0.1119 I0.0055 J0.
X4.804 Z-0.1125 I-0.0055 J0.
X4.815 Z-0.1131 I0.0055 J0.
X4.804 Z-0.1137 I-0.0055 J0.
X4.815 Z-0.1144 I0.0055 J0.
X4.804 Z-0.115 I-0.0055 J0.
X4.815 Z-0.1156 I0.0055 J0.
X4.804 Z-0.1162 I-0.0055 J0.
X4.815 Z-0.1168 I0.0055 J0.
X4.804 Z-0.1174 I-0.0055 J0.
X4.815 Z-0.118 I0.0055 J0.
X4.804 Z-0.1186 I-0.0055 J0.
X4.815 Z-0.1192 I0.0055 J0.
X4.804 Z-0.1198 I-0.0055 J0.
G1 X4.8042 Y1.1654
X4.8049 Y1.164 Z-0.1199
X4.806 Y1.1628
X4.8073 Y1.162 Z-0.12
X4.8091 Y1.1615 F40.
X4.8109 Y1.1617
X4.8125 Y1.1624
X4.8139 Y1.1637
X4.8147 Y1.1652
X4.815 Y1.167
G3 X4.804 I-0.0055 J0.
G1 X4.8042 Y1.1654
X4.8049 Y1.164
X4.806 Y1.1628
X4.8073 Y1.162
X4.8091 Y1.1615 Z-0.1201 F20.
X4.8109 Y1.1617
X4.8125 Y1.1624 Z-0.1202
X4.8139 Y1.1637 Z-0.1203
X4.8147 Y1.1652
X4.815 Y1.167 Z-0.1204
G3 X4.804 Z-0.121 I-0.0055 J0.
X4.815 Z-0.1216 I0.0055 J0.
X4.804 Z-0.1222 I-0.0055 J0.
X4.815 Z-0.1228 I0.0055 J0.
X4.804 Z-0.1234 I-0.0055 J0.
X4.815 Z-0.124 I0.0055 J0.
X4.804 Z-0.1246 I-0.0055 J0.
X4.815 Z-0.1252 I0.0055 J0.
X4.804 Z-0.1258 I-0.0055 J0.
X4.815 Z-0.1264 I0.0055 J0.
X4.804 Z-0.127 I-0.0055 J0.
X4.815 Z-0.1276 I0.0055 J0.
X4.804 Z-0.1282 I-0.0055 J0.
X4.815 Z-0.1288 I0.0055 J0.
X4.804 Z-0.1294 I-0.0055 J0.
X4.815 Z-0.13 I0.0055 J0.
X4.804 Z-0.1306 I-0.0055 J0.
X4.815 Z-0.1312 I0.0055 J0.
X4.804 Z-0.1318 I-0.0055 J0.
X4.815 Z-0.1324 I0.0055 J0.
X4.804 Z-0.133 I-0.0055 J0.
X4.815 Z-0.1336 I0.0055 J0.
X4.804 Z-0.1342 I-0.0055 J0.
X4.815 Z-0.1348 I0.0055 J0.
X4.804 Z-0.1355 I-0.0055 J0.
X4.815 Z-0.1361 I0.0055 J0.
X4.804 Z-0.1367 I-0.0055 J0.
X4.815 Z-0.1373 I0.0055 J0.
X4.804 Z-0.1379 I-0.0055 J0.
X4.815 Z-0.1385 I0.0055 J0.
X4.804 Z-0.1391 I-0.0055 J0.
X4.815 Z-0.1397 I0.0055 J0.
G1 X4.8148 Y1.1686
X4.8141 Y1.17 Z-0.1398
X4.8131 Y1.1712
X4.8118 Y1.172 Z-0.1399
X4.8103 Y1.1724
X4.8087 Z-0.14
X4.8072 Y1.172 F40.
X4.8059 Y1.1712
X4.8049 Y1.17
X4.8042 Y1.1686
X4.804 Y1.167
G3 X4.815 I0.0055 J0.
G1 X4.8148 Y1.1686
X4.8141 Y1.17
X4.8131 Y1.1712
X4.8118 Y1.172
X4.8103 Y1.1724
X4.8087
X4.8072 Y1.172 Z-0.1401 F20.
X4.8059 Y1.1712
X4.8049 Y1.17 Z-0.1402
X4.8042 Y1.1686
X4.804 Y1.167 Z-0.1403
G3 X4.815 Z-0.1409 I0.0055 J0.
X4.804 Z-0.1415 I-0.0055 J0.
X4.815 Z-0.1421 I0.0055 J0.
X4.804 Z-0.1427 I-0.0055 J0.
X4.815 Z-0.1433 I0.0055 J0.
X4.804 Z-0.1439 I-0.0055 J0.
X4.815 Z-0.1445 I0.0055 J0.
X4.804 Z-0.1451 I-0.0055 J0.
X4.815 Z-0.1457 I0.0055 J0.
X4.804 Z-0.1463 I-0.0055 J0.
X4.815 Z-0.1469 I0.0055 J0.
X4.804 Z-0.1475 I-0.0055 J0.
X4.815 Z-0.1481 I0.0055 J0.
X4.804 Z-0.1487 I-0.0055 J0.
X4.815 Z-0.1493 I0.0055 J0.
X4.804 Z-0.1499 I-0.0055 J0.
X4.815 Z-0.1505 I0.0055 J0.
X4.804 Z-0.1511 I-0.0055 J0.
X4.815 Z-0.1517 I0.0055 J0.
X4.804 Z-0.1523 I-0.0055 J0.
G1 X4.8042 Y1.1654 Z-0.1524
X4.8049 Y1.164
X4.806 Y1.1628 Z-0.1525
G3 X4.815 Y1.167 I0.0035 J0.0042 F40.
X4.804 I-0.0055 J0.
G1 X4.8042 Y1.1654
X4.8049 Y1.164
X4.806 Y1.1628
G3 X4.815 Y1.167 Z-0.1529 I0.0035 J0.0042 F20.
X4.804 Z-0.1535 I-0.0055 J0.
X4.815 Z-0.1541 I0.0055 J0.
X4.804 Z-0.1547 I-0.0055 J0.
X4.815 Z-0.1553 I0.0055 J0.
X4.804 Z-0.1559 I-0.0055 J0.
X4.815 Z-0.1566 I0.0055 J0.
X4.804 Z-0.1572 I-0.0055 J0.
X4.815 Z-0.1578 I0.0055 J0.
X4.804 Z-0.1584 I-0.0055 J0.
X4.815 Z-0.159 I0.0055 J0.
X4.804 Z-0.1596 I-0.0055 J0.
X4.815 Z-0.1602 I0.0055 J0.
X4.804 Z-0.1608 I-0.0055 J0.
X4.815 Z-0.1614 I0.0055 J0.
X4.804 Z-0.162 I-0.0055 J0.
X4.815 Z-0.1626 I0.0055 J0.
X4.804 Z-0.1632 I-0.0055 J0.
X4.815 Z-0.1638 I0.0055 J0.
X4.804 Z-0.1644 I-0.0055 J0.
X4.815 Z-0.165 I0.0055 J0.
G1 Y1.1672
G3 X4.804 Y1.167 I-0.0055 J-0.0002 F40.
X4.815 I0.0055 J0.
G1 Y1.1672
X4.8147 Y1.1687 Z-0.1647
X4.8141 Y1.1701 Z-0.1644
X4.8131 Y1.1712 Z-0.1641
X4.812 Y1.1719 Z-0.1632
X4.8108 Y1.1724 Z-0.1623
X4.8095 Y1.1725 Z-0.1615
X4.8083 Y1.1724 Z-0.1596
X4.8071 Y1.1719 Z-0.1577
X4.8063 Y1.1715 Z-0.1532
G0 Z0.2
X5.3145 Y1.1667
G1 Z0.1118 F40.
X5.3144 Y1.1675 Z0.1075 F20.
X5.3141 Y1.1686 Z0.1057
X5.3135 Y1.1695 Z0.1039
X5.3126 Y1.1704 Z0.1029
X5.3116 Y1.1711 Z0.102
X5.3104 Y1.1715 Z0.1011
X5.3089 Z0.1007
X5.3074 Y1.1711 Z0.1004
X5.3061 Y1.1702 Z0.1
G3 X5.3129 Y1.1628 Z0.0995 I0.0034 J-0.0037
X5.3061 Y1.1702 Z0.0989 I-0.0034 J0.0037
X5.3129 Y1.1628 Z0.0984 I0.0034 J-0.0037
X5.3061 Y1.1702 Z0.0978 I-0.0034 J0.0037
X5.3129 Y1.1628 Z0.0973 I0.0034 J-0.0037
X5.3061 Y1.1702 Z0.0967 I-0.0034 J0.0037
X5.3129 Y1.1628 Z0.0962 I0.0034 J-0.0037
X5.3061 Y1.1702 Z0.0956 I-0.0034 J0.0037
X5.3129 Y1.1628 Z0.0951 I0.0034 J-0.0037
X5.3061 Y1.1702 Z0.0945 I-0.0034 J0.0037
X5.3129 Y1.1628 Z0.094 I0.0034 J-0.0037
X5.3061 Y1.1702 Z0.0934 I-0.0034 J0.0037
X5.3129 Y1.1628 Z0.0929 I0.0034 J-0.0037
X5.3061 Y1.1702 Z0.0923 I-0.0034 J0.0037
X5.3129 Y1.1628 Z0.0918 I0.0034 J-0.0037
X5.3061 Y1.1702 Z0.0912 I-0.0034 J0.0037
X5.3129 Y1.1628 Z0.0907 I0.0034 J-0.0037
X5.3061 Y1.1702 Z0.0901 I-0.0034 J0.0037
X5.3129 Y1.1628 Z0.0896 I0.0034 J-0.0037
X5.3061 Y1.1702 Z0.089 I-0.0034 J0.0037
X5.3129 Y1.1628 Z0.0885 I0.0034 J-0.0037
X5.3061 Y1.1702 Z0.0879 I-0.0034 J0.0037
X5.3129 Y1.1628 Z0.0874 I0.0034 J-0.0037
X5.3061 Y1.1702 Z0.0868 I-0.0034 J0.0037
X5.3129 Y1.1628 Z0.0863 I0.0034 J-0.0037
X5.3061 Y1.1702 Z0.0857 I-0.0034 J0.0037
X5.3129 Y1.1628 Z0.0852 I0.0034 J-0.0037
X5.3061 Y1.1702 Z0.0846 I-0.0034 J0.0037
X5.3129 Y1.1628 Z0.0841 I0.0034 J-0.0037
X5.3061 Y1.1702 Z0.0835 I-0.0034 J0.0037
X5.3129 Y1.1628 Z0.083 I0.0034 J-0.0037
X5.3061 Y1.1702 Z0.0824 I-0.0034 J0.0037
X5.3129 Y1.1628 Z0.0819 I0.0034 J-0.0037
X5.3061 Y1.1702 Z0.0813 I-0.0034 J0.0037
X5.3129 Y1.1628 Z0.0808 I0.0034 J-0.0037
X5.3061 Y1.1702 Z0.0803 I-0.0034 J0.0037
X5.3129 Y1.1628 Z0.0797 I0.0034 J-0.0037
X5.3061 Y1.1702 Z0.0792 I-0.0034 J0.0037
X5.3129 Y1.1628 Z0.0786 I0.0034 J-0.0037
X5.3061 Y1.1702 Z0.0781 I-0.0034 J0.0037
X5.3129 Y1.1628 Z0.0775 I0.0034 J-0.0037
X5.3061 Y1.1702 Z0.077 I-0.0034 J0.0037
X5.3129 Y1.1628 Z0.0764 I0.0034 J-0.0037
X5.3061 Y1.1702 Z0.0759 I-0.0034 J0.0037
X5.3129 Y1.1628 Z0.0753 I0.0034 J-0.0037
X5.3061 Y1.1702 Z0.0748 I-0.0034 J0.0037
X5.3129 Y1.1628 Z0.0742 I0.0034 J-0.0037
X5.3061 Y1.1702 Z0.0737 I-0.0034 J0.0037
X5.3129 Y1.1628 Z0.0731 I0.0034 J-0.0037
X5.3061 Y1.1702 Z0.0726 I-0.0034 J0.0037
X5.3129 Y1.1628 Z0.072 I0.0034 J-0.0037
X5.3061 Y1.1702 Z0.0715 I-0.0034 J0.0037
X5.3129 Y1.1628 Z0.0709 I0.0034 J-0.0037
X5.3061 Y1.1702 Z0.0704 I-0.0034 J0.0037
X5.3129 Y1.1628 Z0.0698 I0.0034 J-0.0037
X5.3061 Y1.1702 Z0.0693 I-0.0034 J0.0037
X5.3129 Y1.1628 Z0.0687 I0.0034 J-0.0037
X5.3061 Y1.1702 Z0.0682 I-0.0034 J0.0037
X5.3129 Y1.1628 Z0.0676 I0.0034 J-0.0037
X5.3061 Y1.1702 Z0.0671 I-0.0034 J0.0037
X5.3129 Y1.1628 Z0.0665 I0.0034 J-0.0037
X5.3061 Y1.1702 Z0.066 I-0.0034 J0.0037
X5.3129 Y1.1628 Z0.0654 I0.0034 J-0.0037
X5.3061 Y1.1702 Z0.0649 I-0.0034 J0.0037
X5.3129 Y1.1628 Z0.0643 I0.0034 J-0.0037
X5.3061 Y1.1702 Z0.0638 I-0.0034 J0.0037
X5.3129 Y1.1628 Z0.0632 I0.0034 J-0.0037
X5.3061 Y1.1702 Z0.0627 I-0.0034 J0.0037
X5.3129 Y1.1628 Z0.0622 I0.0034 J-0.0037
X5.3061 Y1.1702 Z0.0616 I-0.0034 J0.0037
X5.3129 Y1.1628 Z0.0611 I0.0034 J-0.0037
X5.3061 Y1.1702 Z0.0605 I-0.0034 J0.0037
X5.3129 Y1.1628 Z0.06 I0.0034 J-0.0037
X5.3061 Y1.1702 Z0.0594 I-0.0034 J0.0037
X5.3129 Y1.1628 Z0.0589 I0.0034 J-0.0037
X5.3061 Y1.1702 Z0.0583 I-0.0034 J0.0037
X5.3129 Y1.1628 Z0.0578 I0.0034 J-0.0037
X5.3061 Y1.1702 Z0.0572 I-0.0034 J0.0037
X5.3129 Y1.1628 Z0.0567 I0.0034 J-0.0037
X5.3061 Y1.1702 Z0.0561 I-0.0034 J0.0037
X5.3129 Y1.1628 Z0.0556 I0.0034 J-0.0037
X5.3061 Y1.1702 Z0.055 I-0.0034 J0.0037
X5.3129 Y1.1628 Z0.0545 I0.0034 J-0.0037
X5.3061 Y1.1702 Z0.0539 I-0.0034 J0.0037
X5.3129 Y1.1628 Z0.0534 I0.0034 J-0.0037
X5.3061 Y1.1702 Z0.0528 I-0.0034 J0.0037
X5.3129 Y1.1628 Z0.0523 I0.0034 J-0.0037
X5.3061 Y1.1702 Z0.0517 I-0.0034 J0.0037
X5.3129 Y1.1628 Z0.0512 I0.0034 J-0.0037
X5.3061 Y1.1702 Z0.0506 I-0.0034 J0.0037
X5.3129 Y1.1628 Z0.0501 I0.0034 J-0.0037
X5.3061 Y1.1702 Z0.0495 I-0.0034 J0.0037
X5.3129 Y1.1628 Z0.049 I0.0034 J-0.0037
X5.3061 Y1.1702 Z0.0484 I-0.0034 J0.0037
X5.3129 Y1.1628 Z0.0479 I0.0034 J-0.0037
X5.3061 Y1.1702 Z0.0473 I-0.0034 J0.0037
X5.3129 Y1.1628 Z0.0468 I0.0034 J-0.0037
X5.3061 Y1.1702 Z0.0462 I-0.0034 J0.0037
X5.3129 Y1.1628 Z0.0457 I0.0034 J-0.0037
X5.3061 Y1.1702 Z0.0451 I-0.0034 J0.0037
X5.3129 Y1.1628 Z0.0446 I0.0034 J-0.0037
X5.3061 Y1.1702 Z0.044 I-0.0034 J0.0037
X5.3129 Y1.1628 Z0.0435 I0.0034 J-0.0037
X5.3061 Y1.1702 Z0.043 I-0.0034 J0.0037
X5.3129 Y1.1628 Z0.0424 I0.0034 J-0.0037
X5.3061 Y1.1702 Z0.0419 I-0.0034 J0.0037
X5.3129 Y1.1628 Z0.0413 I0.0034 J-0.0037
X5.3061 Y1.1702 Z0.0408 I-0.0034 J0.0037
X5.3129 Y1.1628 Z0.0402 I0.0034 J-0.0037
X5.3061 Y1.1702 Z0.0397 I-0.0034 J0.0037
X5.3129 Y1.1628 Z0.0391 I0.0034 J-0.0037
X5.3061 Y1.1702 Z0.0386 I-0.0034 J0.0037
X5.3129 Y1.1628 Z0.038 I0.0034 J-0.0037
X5.3061 Y1.1702 Z0.0375 I-0.0034 J0.0037
X5.3129 Y1.1628 Z0.0369 I0.0034 J-0.0037
X5.3061 Y1.1702 Z0.0364 I-0.0034 J0.0037
X5.3129 Y1.1628 Z0.0358 I0.0034 J-0.0037
X5.3061 Y1.1702 Z0.0353 I-0.0034 J0.0037
X5.3129 Y1.1628 Z0.0347 I0.0034 J-0.0037
X5.3061 Y1.1702 Z0.0342 I-0.0034 J0.0037
X5.3129 Y1.1628 Z0.0336 I0.0034 J-0.0037
X5.3061 Y1.1702 Z0.0331 I-0.0034 J0.0037
X5.3129 Y1.1628 Z0.0325 I0.0034 J-0.0037
X5.3061 Y1.1702 Z0.032 I-0.0034 J0.0037
X5.3129 Y1.1628 Z0.0314 I0.0034 J-0.0037
X5.3061 Y1.1702 Z0.0309 I-0.0034 J0.0037
X5.3129 Y1.1628 Z0.0303 I0.0034 J-0.0037
X5.3061 Y1.1702 Z0.0298 I-0.0034 J0.0037
X5.3129 Y1.1628 Z0.0292 I0.0034 J-0.0037
X5.3061 Y1.1702 Z0.0287 I-0.0034 J0.0037
X5.3129 Y1.1628 Z0.0281 I0.0034 J-0.0037
X5.3061 Y1.1702 Z0.0276 I-0.0034 J0.0037
X5.3129 Y1.1628 Z0.027 I0.0034 J-0.0037
X5.3061 Y1.1702 Z0.0265 I-0.0034 J0.0037
X5.3129 Y1.1628 Z0.0259 I0.0034 J-0.0037
X5.3061 Y1.1702 Z0.0254 I-0.0034 J0.0037
X5.3129 Y1.1628 Z0.0249 I0.0034 J-0.0037
X5.3061 Y1.1702 Z0.0243 I-0.0034 J0.0037
X5.3129 Y1.1628 Z0.0238 I0.0034 J-0.0037
X5.3061 Y1.1702 Z0.0232 I-0.0034 J0.0037
X5.3129 Y1.1628 Z0.0227 I0.0034 J-0.0037
X5.3061 Y1.1702 Z0.0221 I-0.0034 J0.0037
X5.3129 Y1.1628 Z0.0216 I0.0034 J-0.0037
X5.3061 Y1.1702 Z0.021 I-0.0034 J0.0037
X5.3129 Y1.1628 Z0.0205 I0.0034 J-0.0037
X5.3061 Y1.1702 Z0.0199 I-0.0034 J0.0037
X5.3129 Y1.1628 Z0.0194 I0.0034 J-0.0037
X5.3061 Y1.1702 Z0.0188 I-0.0034 J0.0037
X5.3129 Y1.1628 Z0.0183 I0.0034 J-0.0037
X5.3061 Y1.1702 Z0.0177 I-0.0034 J0.0037
X5.3129 Y1.1628 Z0.0172 I0.0034 J-0.0037
X5.3061 Y1.1702 Z0.0166 I-0.0034 J0.0037
X5.3129 Y1.1628 Z0.0161 I0.0034 J-0.0037
X5.3061 Y1.1702 Z0.0155 I-0.0034 J0.0037
X5.3129 Y1.1628 Z0.015 I0.0034 J-0.0037
X5.3061 Y1.1702 Z0.0144 I-0.0034 J0.0037
X5.3129 Y1.1628 Z0.0139 I0.0034 J-0.0037
X5.3061 Y1.1702 Z0.0133 I-0.0034 J0.0037
X5.3129 Y1.1628 Z0.0128 I0.0034 J-0.0037
X5.3061 Y1.1702 Z0.0122 I-0.0034 J0.0037
X5.3129 Y1.1628 Z0.0117 I0.0034 J-0.0037
X5.3061 Y1.1702 Z0.0111 I-0.0034 J0.0037
X5.3129 Y1.1628 Z0.0106 I0.0034 J-0.0037
X5.3061 Y1.1702 Z0.01 I-0.0034 J0.0037
X5.3129 Y1.1628 Z0.0095 I0.0034 J-0.0037
X5.3061 Y1.1702 Z0.0089 I-0.0034 J0.0037
X5.3129 Y1.1628 Z0.0084 I0.0034 J-0.0037
X5.3061 Y1.1702 Z0.0078 I-0.0034 J0.0037
X5.3129 Y1.1628 Z0.0073 I0.0034 J-0.0037
X5.3061 Y1.1702 Z0.0067 I-0.0034 J0.0037
X5.3129 Y1.1628 Z0.0062 I0.0034 J-0.0037
X5.3061 Y1.1702 Z0.0057 I-0.0034 J0.0037
X5.3129 Y1.1628 Z0.0051 I0.0034 J-0.0037
X5.3061 Y1.1702 Z0.0046 I-0.0034 J0.0037
X5.3129 Y1.1628 Z0.004 I0.0034 J-0.0037
X5.3061 Y1.1702 Z0.0035 I-0.0034 J0.0037
X5.3129 Y1.1628 Z0.0029 I0.0034 J-0.0037
X5.3061 Y1.1702 Z0.0024 I-0.0034 J0.0037
X5.3129 Y1.1628 Z0.0018 I0.0034 J-0.0037
X5.3061 Y1.1702 Z0.0013 I-0.0034 J0.0037
X5.3129 Y1.1628 Z0.0007 I0.0034 J-0.0037
X5.3061 Y1.1702 Z0.0002 I-0.0034 J0.0037
X5.3129 Y1.1628 Z-0.0004 I0.0034 J-0.0037
X5.3061 Y1.1702 Z-0.0009 I-0.0034 J0.0037
X5.3129 Y1.1628 Z-0.0015 I0.0034 J-0.0037
X5.3061 Y1.1702 Z-0.002 I-0.0034 J0.0037
X5.3129 Y1.1628 Z-0.0026 I0.0034 J-0.0037
X5.3061 Y1.1702 Z-0.0031 I-0.0034 J0.0037
X5.3129 Y1.1628 Z-0.0037 I0.0034 J-0.0037
X5.3061 Y1.1702 Z-0.0042 I-0.0034 J0.0037
X5.3129 Y1.1628 Z-0.0048 I0.0034 J-0.0037
X5.3061 Y1.1702 Z-0.0053 I-0.0034 J0.0037
X5.3129 Y1.1628 Z-0.0059 I0.0034 J-0.0037
X5.3061 Y1.1702 Z-0.0064 I-0.0034 J0.0037
X5.3129 Y1.1628 Z-0.007 I0.0034 J-0.0037
X5.3061 Y1.1702 Z-0.0075 I-0.0034 J0.0037
X5.3129 Y1.1628 Z-0.0081 I0.0034 J-0.0037
X5.3061 Y1.1702 Z-0.0086 I-0.0034 J0.0037
X5.3129 Y1.1628 Z-0.0092 I0.0034 J-0.0037
X5.3061 Y1.1702 Z-0.0097 I-0.0034 J0.0037
X5.3129 Y1.1628 Z-0.0103 I0.0034 J-0.0037
X5.3061 Y1.1702 Z-0.0108 I-0.0034 J0.0037
X5.3129 Y1.1628 Z-0.0114 I0.0034 J-0.0037
X5.3061 Y1.1702 Z-0.0119 I-0.0034 J0.0037
X5.3129 Y1.1628 Z-0.0124 I0.0034 J-0.0037
X5.3061 Y1.1702 Z-0.013 I-0.0034 J0.0037
X5.3129 Y1.1628 Z-0.0135 I0.0034 J-0.0037
X5.3061 Y1.1702 Z-0.0141 I-0.0034 J0.0037
X5.3129 Y1.1628 Z-0.0146 I0.0034 J-0.0037
X5.3061 Y1.1702 Z-0.0152 I-0.0034 J0.0037
X5.3129 Y1.1628 Z-0.0157 I0.0034 J-0.0037
X5.3061 Y1.1702 Z-0.0163 I-0.0034 J0.0037
X5.3129 Y1.1628 Z-0.0168 I0.0034 J-0.0037
X5.3061 Y1.1702 Z-0.0174 I-0.0034 J0.0037
X5.3129 Y1.1628 Z-0.0179 I0.0034 J-0.0037
X5.3061 Y1.1702 Z-0.0185 I-0.0034 J0.0037
X5.3129 Y1.1628 Z-0.019 I0.0034 J-0.0037
X5.3061 Y1.1702 Z-0.0196 I-0.0034 J0.0037
X5.3095 Y1.1615 Z-0.02 I0.0034 J-0.0037
G1 X5.3112 Y1.1618 F40.
X5.3127 Y1.1626
X5.314 Y1.1638
X5.3147 Y1.1653
X5.315 Y1.167
G3 X5.304 I-0.0055 J0.
G1 X5.3043 Y1.1653
X5.3051 Y1.1638
X5.3063 Y1.1626
X5.3078 Y1.1618
X5.3095 Y1.1615
X5.3112 Y1.1618 Z-0.0201 F20.
X5.3127 Y1.1626
X5.314 Y1.1638 Z-0.0202
X5.3147 Y1.1653
X5.315 Y1.167 Z-0.0203
G3 X5.304 Z-0.0209 I-0.0055 J0.
X5.315 Z-0.0215 I0.0055 J0.
X5.304 Z-0.0221 I-0.0055 J0.
X5.315 Z-0.0227 I0.0055 J0.
X5.304 Z-0.0233 I-0.0055 J0.
X5.315 Z-0.0239 I0.0055 J0.
X5.304 Z-0.0245 I-0.0055 J0.
X5.315 Z-0.0251 I0.0055 J0.
X5.304 Z-0.0257 I-0.0055 J0.
X5.315 Z-0.0263 I0.0055 J0.
X5.304 Z-0.0269 I-0.0055 J0.
X5.315 Z-0.0275 I0.0055 J0.
X5.304 Z-0.0281 I-0.0055 J0.
X5.315 Z-0.0287 I0.0055 J0.
X5.304 Z-0.0293 I-0.0055 J0.
X5.315 Z-0.0299 I0.0055 J0.
X5.304 Z-0.0306 I-0.0055 J0.
X5.315 Z-0.0312 I0.0055 J0.
X5.304 Z-0.0318 I-0.0055 J0.
X5.315 Z-0.0324 I0.0055 J0.
X5.304 Z-0.033 I-0.0055 J0.
X5.315 Z-0.0336 I0.0055 J0.
X5.304 Z-0.0342 I-0.0055 J0.
X5.315 Z-0.0348 I0.0055 J0.
X5.304 Z-0.0354 I-0.0055 J0.
X5.315 Z-0.036 I0.0055 J0.
X5.304 Z-0.0366 I-0.0055 J0.
X5.315 Z-0.0372 I0.0055 J0.
X5.304 Z-0.0378 I-0.0055 J0.
X5.315 Z-0.0384 I0.0055 J0.
X5.304 Z-0.039 I-0.0055 J0.
X5.315 Z-0.0396 I0.0055 J0.
G1 X5.3148 Y1.1687 Z-0.0397
X5.314 Y1.1701
X5.3129 Y1.1713 Z-0.0398
X5.3114 Y1.1722
X5.3098 Y1.1725 Z-0.0399
X5.3082 Y1.1723
X5.3066 Y1.1717 Z-0.04
X5.3056 Y1.1708 F40.
X5.3047 Y1.1697
X5.3042 Y1.1684
X5.304 Y1.167
G3 X5.315 I0.0055 J0.
G1 X5.3148 Y1.1687
X5.314 Y1.1701
X5.3129 Y1.1713
X5.3114 Y1.1722
X5.3098 Y1.1725
X5.3082 Y1.1723
X5.3066 Y1.1717
X5.3056 Y1.1708 F20.
X5.3047 Y1.1697 Z-0.0401
X5.3042 Y1.1684
X5.304 Y1.167 Z-0.0402
G3 X5.315 Z-0.0408 I0.0055 J0.
X5.304 Z-0.0414 I-0.0055 J0.
X5.315 Z-0.042 I0.0055 J0.
X5.304 Z-0.0426 I-0.0055 J0.
X5.315 Z-0.0432 I0.0055 J0.
X5.304 Z-0.0438 I-0.0055 J0.
X5.315 Z-0.0444 I0.0055 J0.
X5.304 Z-0.045 I-0.0055 J0.
X5.315 Z-0.0456 I0.0055 J0.
X5.304 Z-0.0462 I-0.0055 J0.
X5.315 Z-0.0468 I0.0055 J0.
X5.304 Z-0.0474 I-0.0055 J0.
X5.315 Z-0.048 I0.0055 J0.
X5.304 Z-0.0486 I-0.0055 J0.
X5.315 Z-0.0492 I0.0055 J0.
X5.304 Z-0.0498 I-0.0055 J0.
X5.315 Z-0.0504 I0.0055 J0.
X5.304 Z-0.051 I-0.0055 J0.
X5.315 Z-0.0517 I0.0055 J0.
X5.304 Z-0.0523 I-0.0055 J0.
X5.315 Z-0.0529 I0.0055 J0.
X5.304 Z-0.0535 I-0.0055 J0.
X5.315 Z-0.0541 I0.0055 J0.
X5.304 Z-0.0547 I-0.0055 J0.
X5.315 Z-0.0553 I0.0055 J0.
X5.304 Z-0.0559 I-0.0055 J0.
X5.315 Z-0.0565 I0.0055 J0.
X5.304 Z-0.0571 I-0.0055 J0.
X5.315 Z-0.0577 I0.0055 J0.
X5.304 Z-0.0583 I-0.0055 J0.
X5.315 Z-0.0589 I0.0055 J0.
X5.304 Z-0.0595 I-0.0055 J0.
X5.3144 Y1.1645 Z-0.06 I0.0055 J0.
G1 X5.3149 Y1.1657 F40.
X5.315 Y1.167
G3 X5.304 I-0.0055 J0.
X5.3144 Y1.1645 I0.0055 J0.
G1 X5.3149 Y1.1657 F20.
X5.315 Y1.167 Z-0.0601
G3 X5.304 Z-0.0607 I-0.0055 J0.
X5.315 Z-0.0613 I0.0055 J0.
X5.304 Z-0.0619 I-0.0055 J0.
X5.315 Z-0.0625 I0.0055 J0.
X5.304 Z-0.0631 I-0.0055 J0.
X5.315 Z-0.0637 I0.0055 J0.
X5.304 Z-0.0643 I-0.0055 J0.
X5.315 Z-0.0649 I0.0055 J0.
X5.304 Z-0.0655 I-0.0055 J0.
X5.315 Z-0.0661 I0.0055 J0.
X5.304 Z-0.0667 I-0.0055 J0.
X5.315 Z-0.0673 I0.0055 J0.
X5.304 Z-0.0679 I-0.0055 J0.
X5.315 Z-0.0685 I0.0055 J0.
X5.304 Z-0.0691 I-0.0055 J0.
X5.315 Z-0.0697 I0.0055 J0.
X5.304 Z-0.0703 I-0.0055 J0.
X5.315 Z-0.0709 I0.0055 J0.
X5.304 Z-0.0715 I-0.0055 J0.
X5.315 Z-0.0721 I0.0055 J0.
X5.304 Z-0.0728 I-0.0055 J0.
X5.315 Z-0.0734 I0.0055 J0.
X5.304 Z-0.074 I-0.0055 J0.
X5.315 Z-0.0746 I0.0055 J0.
X5.304 Z-0.0752 I-0.0055 J0.
X5.315 Z-0.0758 I0.0055 J0.
X5.304 Z-0.0764 I-0.0055 J0.
X5.315 Z-0.077 I0.0055 J0.
X5.304 Z-0.0776 I-0.0055 J0.
X5.315 Z-0.0782 I0.0055 J0.
X5.304 Z-0.0788 I-0.0055 J0.
X5.315 Z-0.0794 I0.0055 J0.
X5.304 Z-0.08 I-0.0055 J0.
G1 Y1.1666
G3 X5.315 Y1.167 I0.0055 J0.0004 F40.
X5.304 I-0.0055 J0.
G1 Y1.1666
G3 X5.315 Y1.167 Z-0.0806 I0.0055 J0.0004 F20.
X5.304 Z-0.0812 I-0.0055 J0.
X5.315 Z-0.0818 I0.0055 J0.
X5.304 Z-0.0824 I-0.0055 J0.
X5.315 Z-0.083 I0.0055 J0.
X5.304 Z-0.0836 I-0.0055 J0.
X5.315 Z-0.0842 I0.0055 J0.
X5.304 Z-0.0848 I-0.0055 J0.
X5.315 Z-0.0854 I0.0055 J0.
X5.304 Z-0.086 I-0.0055 J0.
X5.315 Z-0.0866 I0.0055 J0.
X5.304 Z-0.0872 I-0.0055 J0.
X5.315 Z-0.0878 I0.0055 J0.
X5.304 Z-0.0884 I-0.0055 J0.
X5.315 Z-0.089 I0.0055 J0.
X5.304 Z-0.0896 I-0.0055 J0.
X5.315 Z-0.0902 I0.0055 J0.
X5.304 Z-0.0908 I-0.0055 J0.
X5.315 Z-0.0914 I0.0055 J0.
X5.304 Z-0.092 I-0.0055 J0.
X5.315 Z-0.0926 I0.0055 J0.
X5.304 Z-0.0932 I-0.0055 J0.
X5.315 Z-0.0939 I0.0055 J0.
X5.304 Z-0.0945 I-0.0055 J0.
X5.315 Z-0.0951 I0.0055 J0.
X5.304 Z-0.0957 I-0.0055 J0.
X5.315 Z-0.0963 I0.0055 J0.
X5.304 Z-0.0969 I-0.0055 J0.
X5.315 Z-0.0975 I0.0055 J0.
X5.304 Z-0.0981 I-0.0055 J0.
X5.315 Z-0.0987 I0.0055 J0.
X5.304 Z-0.0993 I-0.0055 J0.
X5.315 Z-0.0999 I0.0055 J0.
G1 X5.3147 Y1.1687
X5.314 Y1.1702 Z-0.1
G3 X5.304 Y1.167 I-0.0045 J-0.0032 F40.
X5.315 I0.0055 J0.
G1 X5.3147 Y1.1687
X5.314 Y1.1702
G3 X5.304 Y1.167 Z-0.1005 I-0.0045 J-0.0032 F20.
X5.315 Z-0.1011 I0.0055 J0.
X5.304 Z-0.1017 I-0.0055 J0.
X5.315 Z-0.1023 I0.0055 J0.
X5.304 Z-0.1029 I-0.0055 J0.
X5.315 Z-0.1035 I0.0055 J0.
X5.304 Z-0.1041 I-0.0055 J0.
X5.315 Z-0.1047 I0.0055 J0.
X5.304 Z-0.1053 I-0.0055 J0.
X5.315 Z-0.1059 I0.0055 J0.
X5.304 Z-0.1065 I-0.0055 J0.
X5.315 Z-0.1071 I0.0055 J0.
X5.304 Z-0.1077 I-0.0055 J0.
X5.315 Z-0.1083 I0.0055 J0.
X5.304 Z-0.1089 I-0.0055 J0.
X5.315 Z-0.1095 I0.0055 J0.
X5.304 Z-0.1101 I-0.0055 J0.
X5.315 Z-0.1107 I0.0055 J0.
X5.304 Z-0.1113 I-0.0055 J0.
X5.315 Z-0.1119 I0.0055 J0.
X5.304 Z-0.1125 I-0.0055 J0.
X5.315 Z-0.1131 I0.0055 J0.
X5.304 Z-0.1137 I-0.0055 J0.
X5.315 Z-0.1144 I0.0055 J0.
X5.304 Z-0.115 I-0.0055 J0.
X5.315 Z-0.1156 I0.0055 J0.
X5.304 Z-0.1162 I-0.0055 J0.
X5.315 Z-0.1168 I0.0055 J0.
X5.304 Z-0.1174 I-0.0055 J0.
X5.315 Z-0.118 I0.0055 J0.
X5.304 Z-0.1186 I-0.0055 J0.
X5.315 Z-0.1192 I0.0055 J0.
X5.304 Z-0.1198 I-0.0055 J0.
G1 X5.3042 Y1.1654
X5.3049 Y1.164 Z-0.1199
X5.306 Y1.1628
X5.3073 Y1.162 Z-0.12
X5.3091 Y1.1615 F40.
X5.3109 Y1.1617
X5.3125 Y1.1624
X5.3139 Y1.1637
X5.3147 Y1.1652
X5.315 Y1.167
G3 X5.304 I-0.0055 J0.
G1 X5.3042 Y1.1654
X5.3049 Y1.164
X5.306 Y1.1628
X5.3073 Y1.162
X5.3091 Y1.1615 Z-0.1201 F20.
X5.3109 Y1.1617
X5.3125 Y1.1624 Z-0.1202
X5.3139 Y1.1637 Z-0.1203
X5.3147 Y1.1652
X5.315 Y1.167 Z-0.1204
G3 X5.304 Z-0.121 I-0.0055 J0.
X5.315 Z-0.1216 I0.0055 J0.
X5.304 Z-0.1222 I-0.0055 J0.
X5.315 Z-0.1228 I0.0055 J0.
X5.304 Z-0.1234 I-0.0055 J0.
X5.315 Z-0.124 I0.0055 J0.
X5.304 Z-0.1246 I-0.0055 J0.
X5.315 Z-0.1252 I0.0055 J0.
X5.304 Z-0.1258 I-0.0055 J0.
X5.315 Z-0.1264 I0.0055 J0.
X5.304 Z-0.127 I-0.0055 J0.
X5.315 Z-0.1276 I0.0055 J0.
X5.304 Z-0.1282 I-0.0055 J0.
X5.315 Z-0.1288 I0.0055 J0.
X5.304 Z-0.1294 I-0.0055 J0.
X5.315 Z-0.13 I0.0055 J0.
X5.304 Z-0.1306 I-0.0055 J0.
X5.315 Z-0.1312 I0.0055 J0.
X5.304 Z-0.1318 I-0.0055 J0.
X5.315 Z-0.1324 I0.0055 J0.
X5.304 Z-0.133 I-0.0055 J0.
X5.315 Z-0.1336 I0.0055 J0.
X5.304 Z-0.1342 I-0.0055 J0.
X5.315 Z-0.1348 I0.0055 J0.
X5.304 Z-0.1355 I-0.0055 J0.
X5.315 Z-0.1361 I0.0055 J0.
X5.304 Z-0.1367 I-0.0055 J0.
X5.315 Z-0.1373 I0.0055 J0.
X5.304 Z-0.1379 I-0.0055 J0.
X5.315 Z-0.1385 I0.0055 J0.
X5.304 Z-0.1391 I-0.0055 J0.
X5.315 Z-0.1397 I0.0055 J0.
G1 X5.3148 Y1.1686
X5.3141 Y1.17 Z-0.1398
X5.3131 Y1.1712
X5.3118 Y1.172 Z-0.1399
X5.3103 Y1.1724
X5.3087 Z-0.14
X5.3072 Y1.172 F40.
X5.3059 Y1.1712
X5.3049 Y1.17
X5.3042 Y1.1686
X5.304 Y1.167
G3 X5.315 I0.0055 J0.
G1 X5.3148 Y1.1686
X5.3141 Y1.17
X5.3131 Y1.1712
X5.3118 Y1.172
X5.3103 Y1.1724
X5.3087
X5.3072 Y1.172 Z-0.1401 F20.
X5.3059 Y1.1712
X5.3049 Y1.17 Z-0.1402
X5.3042 Y1.1686
X5.304 Y1.167 Z-0.1403
G3 X5.315 Z-0.1409 I0.0055 J0.
X5.304 Z-0.1415 I-0.0055 J0.
X5.315 Z-0.1421 I0.0055 J0.
X5.304 Z-0.1427 I-0.0055 J0.
X5.315 Z-0.1433 I0.0055 J0.
X5.304 Z-0.1439 I-0.0055 J0.
X5.315 Z-0.1445 I0.0055 J0.
X5.304 Z-0.1451 I-0.0055 J0.
X5.315 Z-0.1457 I0.0055 J0.
X5.304 Z-0.1463 I-0.0055 J0.
X5.315 Z-0.1469 I0.0055 J0.
X5.304 Z-0.1475 I-0.0055 J0.
X5.315 Z-0.1481 I0.0055 J0.
X5.304 Z-0.1487 I-0.0055 J0.
X5.315 Z-0.1493 I0.0055 J0.
X5.304 Z-0.1499 I-0.0055 J0.
X5.315 Z-0.1505 I0.0055 J0.
X5.304 Z-0.1511 I-0.0055 J0.
X5.315 Z-0.1517 I0.0055 J0.
X5.304 Z-0.1523 I-0.0055 J0.
G1 X5.3042 Y1.1654 Z-0.1524
X5.3049 Y1.164
X5.306 Y1.1628 Z-0.1525
G3 X5.315 Y1.167 I0.0035 J0.0042 F40.
X5.304 I-0.0055 J0.
G1 X5.3042 Y1.1654
X5.3049 Y1.164
X5.306 Y1.1628
G3 X5.315 Y1.167 Z-0.1529 I0.0035 J0.0042 F20.
X5.304 Z-0.1535 I-0.0055 J0.
X5.315 Z-0.1541 I0.0055 J0.
X5.304 Z-0.1547 I-0.0055 J0.
X5.315 Z-0.1553 I0.0055 J0.
X5.304 Z-0.1559 I-0.0055 J0.
X5.315 Z-0.1566 I0.0055 J0.
X5.304 Z-0.1572 I-0.0055 J0.
X5.315 Z-0.1578 I0.0055 J0.
X5.304 Z-0.1584 I-0.0055 J0.
X5.315 Z-0.159 I0.0055 J0.
X5.304 Z-0.1596 I-0.0055 J0.
X5.315 Z-0.1602 I0.0055 J0.
X5.304 Z-0.1608 I-0.0055 J0.
X5.315 Z-0.1614 I0.0055 J0.
X5.304 Z-0.162 I-0.0055 J0.
X5.315 Z-0.1626 I0.0055 J0.
X5.304 Z-0.1632 I-0.0055 J0.
X5.315 Z-0.1638 I0.0055 J0.
X5.304 Z-0.1644 I-0.0055 J0.
X5.315 Z-0.165 I0.0055 J0.
G1 Y1.1672
G3 X5.304 Y1.167 I-0.0055 J-0.0002 F40.
X5.315 I0.0055 J0.
G1 Y1.1672
X5.3147 Y1.1687 Z-0.1647
X5.3141 Y1.1701 Z-0.1644
X5.3131 Y1.1712 Z-0.1641
X5.312 Y1.1719 Z-0.1632
X5.3108 Y1.1724 Z-0.1623
X5.3095 Y1.1725 Z-0.1615
X5.3083 Y1.1724 Z-0.1596
X5.3071 Y1.1719 Z-0.1577
X5.3063 Y1.1715 Z-0.1532
G0 Z0.2
X1.2769 Y0.6755
G1 Z0.1118 F40.
X1.2768 Y0.6763 Z0.1075 F20.
X1.2765 Y0.6774 Z0.1057
X1.2759 Y0.6783 Z0.1039
X1.2751 Y0.6792 Z0.1029
X1.274 Y0.6799 Z0.102
X1.2728 Y0.6803 Z0.1011
X1.2713 Z0.1007
X1.2698 Y0.6799 Z0.1004
X1.2686 Y0.679 Z0.1
G3 X1.2753 Y0.6716 Z0.0995 I0.0034 J-0.0037
X1.2686 Y0.679 Z0.0989 I-0.0034 J0.0037
X1.2753 Y0.6716 Z0.0984 I0.0034 J-0.0037
X1.2686 Y0.679 Z0.0978 I-0.0034 J0.0037
X1.2753 Y0.6716 Z0.0973 I0.0034 J-0.0037
X1.2686 Y0.679 Z0.0967 I-0.0034 J0.0037
X1.2753 Y0.6716 Z0.0962 I0.0034 J-0.0037
X1.2686 Y0.679 Z0.0956 I-0.0034 J0.0037
X1.2753 Y0.6716 Z0.0951 I0.0034 J-0.0037
X1.2686 Y0.679 Z0.0945 I-0.0034 J0.0037
X1.2753 Y0.6716 Z0.094 I0.0034 J-0.0037
X1.2686 Y0.679 Z0.0934 I-0.0034 J0.0037
X1.2753 Y0.6716 Z0.0929 I0.0034 J-0.0037
X1.2686 Y0.679 Z0.0923 I-0.0034 J0.0037
X1.2753 Y0.6716 Z0.0918 I0.0034 J-0.0037
X1.2686 Y0.679 Z0.0912 I-0.0034 J0.0037
X1.2753 Y0.6716 Z0.0907 I0.0034 J-0.0037
X1.2686 Y0.679 Z0.0901 I-0.0034 J0.0037
X1.2753 Y0.6716 Z0.0896 I0.0034 J-0.0037
X1.2686 Y0.679 Z0.089 I-0.0034 J0.0037
X1.2753 Y0.6716 Z0.0885 I0.0034 J-0.0037
X1.2686 Y0.679 Z0.0879 I-0.0034 J0.0037
X1.2753 Y0.6716 Z0.0874 I0.0034 J-0.0037
X1.2686 Y0.679 Z0.0868 I-0.0034 J0.0037
X1.2753 Y0.6716 Z0.0863 I0.0034 J-0.0037
X1.2686 Y0.679 Z0.0857 I-0.0034 J0.0037
X1.2753 Y0.6716 Z0.0852 I0.0034 J-0.0037
X1.2686 Y0.679 Z0.0846 I-0.0034 J0.0037
X1.2753 Y0.6716 Z0.0841 I0.0034 J-0.0037
X1.2686 Y0.679 Z0.0835 I-0.0034 J0.0037
X1.2753 Y0.6716 Z0.083 I0.0034 J-0.0037
X1.2686 Y0.679 Z0.0824 I-0.0034 J0.0037
X1.2753 Y0.6716 Z0.0819 I0.0034 J-0.0037
X1.2686 Y0.679 Z0.0813 I-0.0034 J0.0037
X1.2753 Y0.6716 Z0.0808 I0.0034 J-0.0037
X1.2686 Y0.679 Z0.0803 I-0.0034 J0.0037
X1.2753 Y0.6716 Z0.0797 I0.0034 J-0.0037
X1.2686 Y0.679 Z0.0792 I-0.0034 J0.0037
X1.2753 Y0.6716 Z0.0786 I0.0034 J-0.0037
X1.2686 Y0.679 Z0.0781 I-0.0034 J0.0037
X1.2753 Y0.6716 Z0.0775 I0.0034 J-0.0037
X1.2686 Y0.679 Z0.077 I-0.0034 J0.0037
X1.2753 Y0.6716 Z0.0764 I0.0034 J-0.0037
X1.2686 Y0.679 Z0.0759 I-0.0034 J0.0037
X1.2753 Y0.6716 Z0.0753 I0.0034 J-0.0037
X1.2686 Y0.679 Z0.0748 I-0.0034 J0.0037
X1.2753 Y0.6716 Z0.0742 I0.0034 J-0.0037
X1.2686 Y0.679 Z0.0737 I-0.0034 J0.0037
X1.2753 Y0.6716 Z0.0731 I0.0034 J-0.0037
X1.2686 Y0.679 Z0.0726 I-0.0034 J0.0037
X1.2753 Y0.6716 Z0.072 I0.0034 J-0.0037
X1.2686 Y0.679 Z0.0715 I-0.0034 J0.0037
X1.2753 Y0.6716 Z0.0709 I0.0034 J-0.0037
X1.2686 Y0.679 Z0.0704 I-0.0034 J0.0037
X1.2753 Y0.6716 Z0.0698 I0.0034 J-0.0037
X1.2686 Y0.679 Z0.0693 I-0.0034 J0.0037
X1.2753 Y0.6716 Z0.0687 I0.0034 J-0.0037
X1.2686 Y0.679 Z0.0682 I-0.0034 J0.0037
X1.2753 Y0.6716 Z0.0676 I0.0034 J-0.0037
X1.2686 Y0.679 Z0.0671 I-0.0034 J0.0037
X1.2753 Y0.6716 Z0.0665 I0.0034 J-0.0037
X1.2686 Y0.679 Z0.066 I-0.0034 J0.0037
X1.2753 Y0.6716 Z0.0654 I0.0034 J-0.0037
X1.2686 Y0.679 Z0.0649 I-0.0034 J0.0037
X1.2753 Y0.6716 Z0.0643 I0.0034 J-0.0037
X1.2686 Y0.679 Z0.0638 I-0.0034 J0.0037
X1.2753 Y0.6716 Z0.0632 I0.0034 J-0.0037
X1.2686 Y0.679 Z0.0627 I-0.0034 J0.0037
X1.2753 Y0.6716 Z0.0622 I0.0034 J-0.0037
X1.2686 Y0.679 Z0.0616 I-0.0034 J0.0037
X1.2753 Y0.6716 Z0.0611 I0.0034 J-0.0037
X1.2686 Y0.679 Z0.0605 I-0.0034 J0.0037
X1.2753 Y0.6716 Z0.06 I0.0034 J-0.0037
X1.2686 Y0.679 Z0.0594 I-0.0034 J0.0037
X1.2753 Y0.6716 Z0.0589 I0.0034 J-0.0037
X1.2686 Y0.679 Z0.0583 I-0.0034 J0.0037
X1.2753 Y0.6716 Z0.0578 I0.0034 J-0.0037
X1.2686 Y0.679 Z0.0572 I-0.0034 J0.0037
X1.2753 Y0.6716 Z0.0567 I0.0034 J-0.0037
X1.2686 Y0.679 Z0.0561 I-0.0034 J0.0037
X1.2753 Y0.6716 Z0.0556 I0.0034 J-0.0037
X1.2686 Y0.679 Z0.055 I-0.0034 J0.0037
X1.2753 Y0.6716 Z0.0545 I0.0034 J-0.0037
X1.2686 Y0.679 Z0.0539 I-0.0034 J0.0037
X1.2753 Y0.6716 Z0.0534 I0.0034 J-0.0037
X1.2686 Y0.679 Z0.0528 I-0.0034 J0.0037
X1.2753 Y0.6716 Z0.0523 I0.0034 J-0.0037
X1.2686 Y0.679 Z0.0517 I-0.0034 J0.0037
X1.2753 Y0.6716 Z0.0512 I0.0034 J-0.0037
X1.2686 Y0.679 Z0.0506 I-0.0034 J0.0037
X1.2753 Y0.6716 Z0.0501 I0.0034 J-0.0037
X1.2686 Y0.679 Z0.0495 I-0.0034 J0.0037
X1.2753 Y0.6716 Z0.049 I0.0034 J-0.0037
X1.2686 Y0.679 Z0.0484 I-0.0034 J0.0037
X1.2753 Y0.6716 Z0.0479 I0.0034 J-0.0037
X1.2686 Y0.679 Z0.0473 I-0.0034 J0.0037
X1.2753 Y0.6716 Z0.0468 I0.0034 J-0.0037
X1.2686 Y0.679 Z0.0462 I-0.0034 J0.0037
X1.2753 Y0.6716 Z0.0457 I0.0034 J-0.0037
X1.2686 Y0.679 Z0.0451 I-0.0034 J0.0037
X1.2753 Y0.6716 Z0.0446 I0.0034 J-0.0037
X1.2686 Y0.679 Z0.044 I-0.0034 J0.0037
X1.2753 Y0.6716 Z0.0435 I0.0034 J-0.0037
X1.2686 Y0.679 Z0.043 I-0.0034 J0.0037
X1.2753 Y0.6716 Z0.0424 I0.0034 J-0.0037
X1.2686 Y0.679 Z0.0419 I-0.0034 J0.0037
X1.2753 Y0.6716 Z0.0413 I0.0034 J-0.0037
X1.2686 Y0.679 Z0.0408 I-0.0034 J0.0037
X1.2753 Y0.6716 Z0.0402 I0.0034 J-0.0037
X1.2686 Y0.679 Z0.0397 I-0.0034 J0.0037
X1.2753 Y0.6716 Z0.0391 I0.0034 J-0.0037
X1.2686 Y0.679 Z0.0386 I-0.0034 J0.0037
X1.2753 Y0.6716 Z0.038 I0.0034 J-0.0037
X1.2686 Y0.679 Z0.0375 I-0.0034 J0.0037
X1.2753 Y0.6716 Z0.0369 I0.0034 J-0.0037
X1.2686 Y0.679 Z0.0364 I-0.0034 J0.0037
X1.2753 Y0.6716 Z0.0358 I0.0034 J-0.0037
X1.2686 Y0.679 Z0.0353 I-0.0034 J0.0037
X1.2753 Y0.6716 Z0.0347 I0.0034 J-0.0037
X1.2686 Y0.679 Z0.0342 I-0.0034 J0.0037
X1.2753 Y0.6716 Z0.0336 I0.0034 J-0.0037
X1.2686 Y0.679 Z0.0331 I-0.0034 J0.0037
X1.2753 Y0.6716 Z0.0325 I0.0034 J-0.0037
X1.2686 Y0.679 Z0.032 I-0.0034 J0.0037
X1.2753 Y0.6716 Z0.0314 I0.0034 J-0.0037
X1.2686 Y0.679 Z0.0309 I-0.0034 J0.0037
X1.2753 Y0.6716 Z0.0303 I0.0034 J-0.0037
X1.2686 Y0.679 Z0.0298 I-0.0034 J0.0037
X1.2753 Y0.6716 Z0.0292 I0.0034 J-0.0037
X1.2686 Y0.679 Z0.0287 I-0.0034 J0.0037
X1.2753 Y0.6716 Z0.0281 I0.0034 J-0.0037
X1.2686 Y0.679 Z0.0276 I-0.0034 J0.0037
X1.2753 Y0.6716 Z0.027 I0.0034 J-0.0037
X1.2686 Y0.679 Z0.0265 I-0.0034 J0.0037
X1.2753 Y0.6716 Z0.0259 I0.0034 J-0.0037
X1.2686 Y0.679 Z0.0254 I-0.0034 J0.0037
X1.2753 Y0.6716 Z0.0249 I0.0034 J-0.0037
X1.2686 Y0.679 Z0.0243 I-0.0034 J0.0037
X1.2753 Y0.6716 Z0.0238 I0.0034 J-0.0037
X1.2686 Y0.679 Z0.0232 I-0.0034 J0.0037
X1.2753 Y0.6716 Z0.0227 I0.0034 J-0.0037
X1.2686 Y0.679 Z0.0221 I-0.0034 J0.0037
X1.2753 Y0.6716 Z0.0216 I0.0034 J-0.0037
X1.2686 Y0.679 Z0.021 I-0.0034 J0.0037
X1.2753 Y0.6716 Z0.0205 I0.0034 J-0.0037
X1.2686 Y0.679 Z0.0199 I-0.0034 J0.0037
X1.2753 Y0.6716 Z0.0194 I0.0034 J-0.0037
X1.2686 Y0.679 Z0.0188 I-0.0034 J0.0037
X1.2753 Y0.6716 Z0.0183 I0.0034 J-0.0037
X1.2686 Y0.679 Z0.0177 I-0.0034 J0.0037
X1.2753 Y0.6716 Z0.0172 I0.0034 J-0.0037
X1.2686 Y0.679 Z0.0166 I-0.0034 J0.0037
X1.2753 Y0.6716 Z0.0161 I0.0034 J-0.0037
X1.2686 Y0.679 Z0.0155 I-0.0034 J0.0037
X1.2753 Y0.6716 Z0.015 I0.0034 J-0.0037
X1.2686 Y0.679 Z0.0144 I-0.0034 J0.0037
X1.2753 Y0.6716 Z0.0139 I0.0034 J-0.0037
X1.2686 Y0.679 Z0.0133 I-0.0034 J0.0037
X1.2753 Y0.6716 Z0.0128 I0.0034 J-0.0037
X1.2686 Y0.679 Z0.0122 I-0.0034 J0.0037
X1.2753 Y0.6716 Z0.0117 I0.0034 J-0.0037
X1.2686 Y0.679 Z0.0111 I-0.0034 J0.0037
X1.2753 Y0.6716 Z0.0106 I0.0034 J-0.0037
X1.2686 Y0.679 Z0.01 I-0.0034 J0.0037
X1.2753 Y0.6716 Z0.0095 I0.0034 J-0.0037
X1.2686 Y0.679 Z0.0089 I-0.0034 J0.0037
X1.2753 Y0.6716 Z0.0084 I0.0034 J-0.0037
X1.2686 Y0.679 Z0.0078 I-0.0034 J0.0037
X1.2753 Y0.6716 Z0.0073 I0.0034 J-0.0037
X1.2686 Y0.679 Z0.0067 I-0.0034 J0.0037
X1.2753 Y0.6716 Z0.0062 I0.0034 J-0.0037
X1.2686 Y0.679 Z0.0057 I-0.0034 J0.0037
X1.2753 Y0.6716 Z0.0051 I0.0034 J-0.0037
X1.2686 Y0.679 Z0.0046 I-0.0034 J0.0037
X1.2753 Y0.6716 Z0.004 I0.0034 J-0.0037
X1.2686 Y0.679 Z0.0035 I-0.0034 J0.0037
X1.2753 Y0.6716 Z0.0029 I0.0034 J-0.0037
X1.2686 Y0.679 Z0.0024 I-0.0034 J0.0037
X1.2753 Y0.6716 Z0.0018 I0.0034 J-0.0037
X1.2686 Y0.679 Z0.0013 I-0.0034 J0.0037
X1.2753 Y0.6716 Z0.0007 I0.0034 J-0.0037
X1.2686 Y0.679 Z0.0002 I-0.0034 J0.0037
X1.2753 Y0.6716 Z-0.0004 I0.0034 J-0.0037
X1.2686 Y0.679 Z-0.0009 I-0.0034 J0.0037
X1.2753 Y0.6716 Z-0.0015 I0.0034 J-0.0037
X1.2686 Y0.679 Z-0.002 I-0.0034 J0.0037
X1.2753 Y0.6716 Z-0.0026 I0.0034 J-0.0037
X1.2686 Y0.679 Z-0.0031 I-0.0034 J0.0037
X1.2753 Y0.6716 Z-0.0037 I0.0034 J-0.0037
X1.2686 Y0.679 Z-0.0042 I-0.0034 J0.0037
X1.2753 Y0.6716 Z-0.0048 I0.0034 J-0.0037
X1.2686 Y0.679 Z-0.0053 I-0.0034 J0.0037
X1.2753 Y0.6716 Z-0.0059 I0.0034 J-0.0037
X1.2686 Y0.679 Z-0.0064 I-0.0034 J0.0037
X1.2753 Y0.6716 Z-0.007 I0.0034 J-0.0037
X1.2686 Y0.679 Z-0.0075 I-0.0034 J0.0037
X1.2753 Y0.6716 Z-0.0081 I0.0034 J-0.0037
X1.2686 Y0.679 Z-0.0086 I-0.0034 J0.0037
X1.2753 Y0.6716 Z-0.0092 I0.0034 J-0.0037
X1.2686 Y0.679 Z-0.0097 I-0.0034 J0.0037
X1.2753 Y0.6716 Z-0.0103 I0.0034 J-0.0037
X1.2686 Y0.679 Z-0.0108 I-0.0034 J0.0037
X1.2753 Y0.6716 Z-0.0114 I0.0034 J-0.0037
X1.2686 Y0.679 Z-0.0119 I-0.0034 J0.0037
X1.2753 Y0.6716 Z-0.0124 I0.0034 J-0.0037
X1.2686 Y0.679 Z-0.013 I-0.0034 J0.0037
X1.2753 Y0.6716 Z-0.0135 I0.0034 J-0.0037
X1.2686 Y0.679 Z-0.0141 I-0.0034 J0.0037
X1.2753 Y0.6716 Z-0.0146 I0.0034 J-0.0037
X1.2686 Y0.679 Z-0.0152 I-0.0034 J0.0037
X1.2753 Y0.6716 Z-0.0157 I0.0034 J-0.0037
X1.2686 Y0.679 Z-0.0163 I-0.0034 J0.0037
X1.2753 Y0.6716 Z-0.0168 I0.0034 J-0.0037
X1.2686 Y0.679 Z-0.0174 I-0.0034 J0.0037
X1.2753 Y0.6716 Z-0.0179 I0.0034 J-0.0037
X1.2686 Y0.679 Z-0.0185 I-0.0034 J0.0037
X1.2753 Y0.6716 Z-0.019 I0.0034 J-0.0037
X1.2686 Y0.679 Z-0.0196 I-0.0034 J0.0037
X1.2719 Y0.6703 Z-0.02 I0.0034 J-0.0037
Y0.7223 I0. J0.026 F40.
Y0.6703 I0. J-0.026
Y0.7223 Z-0.0229 I0. J0.026 F20.
Y0.6703 Z-0.0257 I0. J-0.026
Y0.7223 Z-0.0286 I0. J0.026
Y0.6703 Z-0.0314 I0. J-0.026
Y0.7223 Z-0.0343 I0. J0.026
Y0.6703 Z-0.0371 I0. J-0.026
X1.2979 Y0.6968 Z-0.0386 I0. J0.026
X1.271 Y0.7223 Z-0.04 I-0.026 J-0.0005
X1.2729 Y0.6703 I0.001 J-0.026 F40.
X1.271 Y0.7223 I-0.001 J0.026
X1.2729 Y0.6703 Z-0.0429 I0.001 J-0.026 F20.
X1.271 Y0.7223 Z-0.0457 I-0.001 J0.026
X1.2729 Y0.6703 Z-0.0486 I0.001 J-0.026
X1.271 Y0.7223 Z-0.0514 I-0.001 J0.026
X1.2729 Y0.6703 Z-0.0543 I0.001 J-0.026
X1.271 Y0.7223 Z-0.0571 I-0.001 J0.026
X1.246 Y0.6949 Z-0.0586 I0.001 J-0.026
X1.2738 Y0.6704 Z-0.06 I0.026 J0.0014
X1.27 Y0.7223 I-0.0019 J0.0259 F40.
X1.2738 Y0.6704 I0.0019 J-0.0259
X1.27 Y0.7223 Z-0.0629 I-0.0019 J0.0259 F20.
X1.2738 Y0.6704 Z-0.0657 I0.0019 J-0.0259
X1.27 Y0.7223 Z-0.0686 I-0.0019 J0.0259
X1.2738 Y0.6704 Z-0.0714 I0.0019 J-0.0259
X1.27 Y0.7223 Z-0.0743 I-0.0019 J0.0259
X1.2738 Y0.6704 Z-0.0771 I0.0019 J-0.0259
X1.2978 Y0.6987 Z-0.0786 I-0.0019 J0.0259
X1.2691 Y0.7222 Z-0.08 I-0.0259 J-0.0024
X1.2748 Y0.6705 I0.0029 J-0.0258 F40.
X1.2691 Y0.7222 I-0.0029 J0.0258
X1.2748 Y0.6705 Z-0.0829 I0.0029 J-0.0258 F20.
X1.2691 Y0.7222 Z-0.0857 I-0.0029 J0.0258
X1.2748 Y0.6705 Z-0.0886 I0.0029 J-0.0258
X1.2691 Y0.7222 Z-0.0914 I-0.0029 J0.0258
X1.2748 Y0.6705 Z-0.0943 I0.0029 J-0.0258
X1.2691 Y0.7222 Z-0.0971 I-0.0029 J0.0258
X1.2461 Y0.693 Z-0.0986 I0.0029 J-0.0258
X1.2757 Y0.6706 Z-0.1 I0.0258 J0.0033
X1.2681 Y0.722 I-0.0038 J0.0257 F40.
X1.2757 Y0.6706 I0.0038 J-0.0257
X1.2681 Y0.722 Z-0.1029 I-0.0038 J0.0257 F20.
X1.2757 Y0.6706 Z-0.1057 I0.0038 J-0.0257
X1.2681 Y0.722 Z-0.1086 I-0.0038 J0.0257
X1.2757 Y0.6706 Z-0.1114 I0.0038 J-0.0257
X1.2681 Y0.722 Z-0.1143 I-0.0038 J0.0257
X1.2757 Y0.6706 Z-0.1171 I0.0038 J-0.0257
X1.2976 Y0.7006 Z-0.1186 I-0.0038 J0.0257
X1.2672 Y0.7219 Z-0.12 I-0.0256 J-0.0043
X1.2767 Y0.6708 I0.0047 J-0.0256 F40.
X1.2672 Y0.7219 I-0.0047 J0.0256
X1.2767 Y0.6708 Z-0.1229 I0.0047 J-0.0256 F20.
X1.2672 Y0.7219 Z-0.1257 I-0.0047 J0.0256
X1.2767 Y0.6708 Z-0.1286 I0.0047 J-0.0256
X1.2672 Y0.7219 Z-0.1314 I-0.0047 J0.0256
X1.2767 Y0.6708 Z-0.1343 I0.0047 J-0.0256
X1.2672 Y0.7219 Z-0.1371 I-0.0047 J0.0256
X1.2465 Y0.6911 Z-0.1386 I0.0047 J-0.0256
X1.2776 Y0.671 Z-0.14 I0.0255 J0.0052
X1.2662 Y0.7217 I-0.0057 J0.0254 F40.
X1.2776 Y0.671 I0.0057 J-0.0254
X1.2662 Y0.7217 Z-0.1429 I-0.0057 J0.0254 F20.
X1.2776 Y0.671 Z-0.1457 I0.0057 J-0.0254
X1.2662 Y0.7217 Z-0.1486 I-0.0057 J0.0254
X1.2776 Y0.671 Z-0.1514 I0.0057 J-0.0254
X1.2976 Y0.6925 Z-0.1525 I-0.0057 J0.0254
X1.2462 Y0.7002 I-0.0257 J0.0039 F40.
X1.2976 Y0.6925 I0.0257 J-0.0039
X1.2462 Y0.7002 Z-0.1554 I-0.0257 J0.0039 F20.
X1.2976 Y0.6925 Z-0.1582 I0.0257 J-0.0039
X1.2462 Y0.7002 Z-0.1611 I-0.0257 J0.0039
X1.2976 Y0.6925 Z-0.1639 I0.0257 J-0.0039
X1.2848 Y0.7189 Z-0.165 I-0.0257 J0.0039
X1.259 Y0.6738 I-0.0129 J-0.0226 F40.
X1.2848 Y0.7189 I0.0129 J0.0226
G1 X1.2828 Y0.7198 Z-0.1646
X1.2806 Y0.7203 Z-0.1641
X1.2787 Y0.7205 Z-0.1628
X1.2768 Y0.7202 Z-0.1615
X1.2743 Y0.7195 Z-0.1577
X1.2735 Y0.7191 Z-0.1532
G0 Z0.2
X0.8863 Y2.1463
G1 Z0.1118 F40.
X0.8871 Y2.1464 Z0.1075 F20.
X0.8881 Y2.1467 Z0.1057
X0.8891 Y2.1473 Z0.1039
X0.89 Y2.1482 Z0.1029
X0.8907 Y2.1492 Z0.102
X0.891 Y2.1504 Z0.1011
X0.8911 Y2.1519 Z0.1007
X0.8907 Y2.1534 Z0.1004
X0.8898 Y2.1547 Z0.1
G3 X0.8824 Y2.1479 Z0.0995 I-0.0037 J-0.0034
X0.8898 Y2.1547 Z0.0989 I0.0037 J0.0034
X0.8824 Y2.1479 Z0.0984 I-0.0037 J-0.0034
X0.8898 Y2.1547 Z0.0978 I0.0037 J0.0034
X0.8824 Y2.1479 Z0.0973 I-0.0037 J-0.0034
X0.8898 Y2.1547 Z0.0967 I0.0037 J0.0034
X0.8824 Y2.1479 Z0.0962 I-0.0037 J-0.0034
X0.8898 Y2.1547 Z0.0956 I0.0037 J0.0034
X0.8824 Y2.1479 Z0.0951 I-0.0037 J-0.0034
X0.8898 Y2.1547 Z0.0945 I0.0037 J0.0034
X0.8824 Y2.1479 Z0.094 I-0.0037 J-0.0034
X0.8898 Y2.1547 Z0.0934 I0.0037 J0.0034
X0.8824 Y2.1479 Z0.0929 I-0.0037 J-0.0034
X0.8898 Y2.1547 Z0.0923 I0.0037 J0.0034
X0.8824 Y2.1479 Z0.0918 I-0.0037 J-0.0034
X0.8898 Y2.1547 Z0.0912 I0.0037 J0.0034
X0.8824 Y2.1479 Z0.0907 I-0.0037 J-0.0034
X0.8898 Y2.1547 Z0.0901 I0.0037 J0.0034
X0.8824 Y2.1479 Z0.0896 I-0.0037 J-0.0034
X0.8898 Y2.1547 Z0.089 I0.0037 J0.0034
X0.8824 Y2.1479 Z0.0885 I-0.0037 J-0.0034
X0.8898 Y2.1547 Z0.0879 I0.0037 J0.0034
X0.8824 Y2.1479 Z0.0874 I-0.0037 J-0.0034
X0.8898 Y2.1547 Z0.0868 I0.0037 J0.0034
X0.8824 Y2.1479 Z0.0863 I-0.0037 J-0.0034
X0.8898 Y2.1547 Z0.0857 I0.0037 J0.0034
X0.8824 Y2.1479 Z0.0852 I-0.0037 J-0.0034
X0.8898 Y2.1547 Z0.0846 I0.0037 J0.0034
X0.8824 Y2.1479 Z0.0841 I-0.0037 J-0.0034
X0.8898 Y2.1547 Z0.0835 I0.0037 J0.0034
X0.8824 Y2.1479 Z0.083 I-0.0037 J-0.0034
X0.8898 Y2.1547 Z0.0824 I0.0037 J0.0034
X0.8824 Y2.1479 Z0.0819 I-0.0037 J-0.0034
X0.8898 Y2.1547 Z0.0813 I0.0037 J0.0034
X0.8824 Y2.1479 Z0.0808 I-0.0037 J-0.0034
X0.8898 Y2.1547 Z0.0803 I0.0037 J0.0034
X0.8824 Y2.1479 Z0.0797 I-0.0037 J-0.0034
X0.8898 Y2.1547 Z0.0792 I0.0037 J0.0034
X0.8824 Y2.1479 Z0.0786 I-0.0037 J-0.0034
X0.8898 Y2.1547 Z0.0781 I0.0037 J0.0034
X0.8824 Y2.1479 Z0.0775 I-0.0037 J-0.0034
X0.8898 Y2.1547 Z0.077 I0.0037 J0.0034
X0.8824 Y2.1479 Z0.0764 I-0.0037 J-0.0034
X0.8898 Y2.1547 Z0.0759 I0.0037 J0.0034
X0.8824 Y2.1479 Z0.0753 I-0.0037 J-0.0034
X0.8898 Y2.1547 Z0.0748 I0.0037 J0.0034
X0.8824 Y2.1479 Z0.0742 I-0.0037 J-0.0034
X0.8898 Y2.1547 Z0.0737 I0.0037 J0.0034
X0.8824 Y2.1479 Z0.0731 I-0.0037 J-0.0034
X0.8898 Y2.1547 Z0.0726 I0.0037 J0.0034
X0.8824 Y2.1479 Z0.072 I-0.0037 J-0.0034
X0.8898 Y2.1547 Z0.0715 I0.0037 J0.0034
X0.8824 Y2.1479 Z0.0709 I-0.0037 J-0.0034
X0.8898 Y2.1547 Z0.0704 I0.0037 J0.0034
X0.8824 Y2.1479 Z0.0698 I-0.0037 J-0.0034
X0.8898 Y2.1547 Z0.0693 I0.0037 J0.0034
X0.8824 Y2.1479 Z0.0687 I-0.0037 J-0.0034
X0.8898 Y2.1547 Z0.0682 I0.0037 J0.0034
X0.8824 Y2.1479 Z0.0676 I-0.0037 J-0.0034
X0.8898 Y2.1547 Z0.0671 I0.0037 J0.0034
X0.8824 Y2.1479 Z0.0665 I-0.0037 J-0.0034
X0.8898 Y2.1547 Z0.066 I0.0037 J0.0034
X0.8824 Y2.1479 Z0.0654 I-0.0037 J-0.0034
X0.8898 Y2.1547 Z0.0649 I0.0037 J0.0034
X0.8824 Y2.1479 Z0.0643 I-0.0037 J-0.0034
X0.8898 Y2.1547 Z0.0638 I0.0037 J0.0034
X0.8824 Y2.1479 Z0.0632 I-0.0037 J-0.0034
X0.8898 Y2.1547 Z0.0627 I0.0037 J0.0034
X0.8824 Y2.1479 Z0.0622 I-0.0037 J-0.0034
X0.8898 Y2.1547 Z0.0616 I0.0037 J0.0034
X0.8824 Y2.1479 Z0.0611 I-0.0037 J-0.0034
X0.8898 Y2.1547 Z0.0605 I0.0037 J0.0034
X0.8824 Y2.1479 Z0.06 I-0.0037 J-0.0034
X0.8898 Y2.1547 Z0.0594 I0.0037 J0.0034
X0.8824 Y2.1479 Z0.0589 I-0.0037 J-0.0034
X0.8898 Y2.1547 Z0.0583 I0.0037 J0.0034
X0.8824 Y2.1479 Z0.0578 I-0.0037 J-0.0034
X0.8898 Y2.1547 Z0.0572 I0.0037 J0.0034
X0.8824 Y2.1479 Z0.0567 I-0.0037 J-0.0034
X0.8898 Y2.1547 Z0.0561 I0.0037 J0.0034
X0.8824 Y2.1479 Z0.0556 I-0.0037 J-0.0034
X0.8898 Y2.1547 Z0.055 I0.0037 J0.0034
X0.8824 Y2.1479 Z0.0545 I-0.0037 J-0.0034
X0.8898 Y2.1547 Z0.0539 I0.0037 J0.0034
X0.8824 Y2.1479 Z0.0534 I-0.0037 J-0.0034
X0.8898 Y2.1547 Z0.0528 I0.0037 J0.0034
X0.8824 Y2.1479 Z0.0523 I-0.0037 J-0.0034
X0.8898 Y2.1547 Z0.0517 I0.0037 J0.0034
X0.8824 Y2.1479 Z0.0512 I-0.0037 J-0.0034
X0.8898 Y2.1547 Z0.0506 I0.0037 J0.0034
X0.8824 Y2.1479 Z0.0501 I-0.0037 J-0.0034
X0.8898 Y2.1547 Z0.0495 I0.0037 J0.0034
X0.8824 Y2.1479 Z0.049 I-0.0037 J-0.0034
X0.8898 Y2.1547 Z0.0484 I0.0037 J0.0034
X0.8824 Y2.1479 Z0.0479 I-0.0037 J-0.0034
X0.8898 Y2.1547 Z0.0473 I0.0037 J0.0034
X0.8824 Y2.1479 Z0.0468 I-0.0037 J-0.0034
X0.8898 Y2.1547 Z0.0462 I0.0037 J0.0034
X0.8824 Y2.1479 Z0.0457 I-0.0037 J-0.0034
X0.8898 Y2.1547 Z0.0451 I0.0037 J0.0034
X0.8824 Y2.1479 Z0.0446 I-0.0037 J-0.0034
X0.8898 Y2.1547 Z0.044 I0.0037 J0.0034
X0.8824 Y2.1479 Z0.0435 I-0.0037 J-0.0034
X0.8898 Y2.1547 Z0.043 I0.0037 J0.0034
X0.8824 Y2.1479 Z0.0424 I-0.0037 J-0.0034
X0.8898 Y2.1547 Z0.0419 I0.0037 J0.0034
X0.8824 Y2.1479 Z0.0413 I-0.0037 J-0.0034
X0.8898 Y2.1547 Z0.0408 I0.0037 J0.0034
X0.8824 Y2.1479 Z0.0402 I-0.0037 J-0.0034
X0.8898 Y2.1547 Z0.0397 I0.0037 J0.0034
X0.8824 Y2.1479 Z0.0391 I-0.0037 J-0.0034
X0.8898 Y2.1547 Z0.0386 I0.0037 J0.0034
X0.8824 Y2.1479 Z0.038 I-0.0037 J-0.0034
X0.8898 Y2.1547 Z0.0375 I0.0037 J0.0034
X0.8824 Y2.1479 Z0.0369 I-0.0037 J-0.0034
X0.8898 Y2.1547 Z0.0364 I0.0037 J0.0034
X0.8824 Y2.1479 Z0.0358 I-0.0037 J-0.0034
X0.8898 Y2.1547 Z0.0353 I0.0037 J0.0034
X0.8824 Y2.1479 Z0.0347 I-0.0037 J-0.0034
X0.8898 Y2.1547 Z0.0342 I0.0037 J0.0034
X0.8824 Y2.1479 Z0.0336 I-0.0037 J-0.0034
X0.8898 Y2.1547 Z0.0331 I0.0037 J0.0034
X0.8824 Y2.1479 Z0.0325 I-0.0037 J-0.0034
X0.8898 Y2.1547 Z0.032 I0.0037 J0.0034
X0.8824 Y2.1479 Z0.0314 I-0.0037 J-0.0034
X0.8898 Y2.1547 Z0.0309 I0.0037 J0.0034
X0.8824 Y2.1479 Z0.0303 I-0.0037 J-0.0034
X0.8898 Y2.1547 Z0.0298 I0.0037 J0.0034
X0.8824 Y2.1479 Z0.0292 I-0.0037 J-0.0034
X0.8898 Y2.1547 Z0.0287 I0.0037 J0.0034
X0.8824 Y2.1479 Z0.0281 I-0.0037 J-0.0034
X0.8898 Y2.1547 Z0.0276 I0.0037 J0.0034
X0.8824 Y2.1479 Z0.027 I-0.0037 J-0.0034
X0.8898 Y2.1547 Z0.0265 I0.0037 J0.0034
X0.8824 Y2.1479 Z0.0259 I-0.0037 J-0.0034
X0.8898 Y2.1547 Z0.0254 I0.0037 J0.0034
X0.8824 Y2.1479 Z0.0249 I-0.0037 J-0.0034
X0.8898 Y2.1547 Z0.0243 I0.0037 J0.0034
X0.8824 Y2.1479 Z0.0238 I-0.0037 J-0.0034
X0.8898 Y2.1547 Z0.0232 I0.0037 J0.0034
X0.8824 Y2.1479 Z0.0227 I-0.0037 J-0.0034
X0.8898 Y2.1547 Z0.0221 I0.0037 J0.0034
X0.8824 Y2.1479 Z0.0216 I-0.0037 J-0.0034
X0.8898 Y2.1547 Z0.021 I0.0037 J0.0034
X0.8824 Y2.1479 Z0.0205 I-0.0037 J-0.0034
X0.8898 Y2.1547 Z0.0199 I0.0037 J0.0034
X0.8824 Y2.1479 Z0.0194 I-0.0037 J-0.0034
X0.8898 Y2.1547 Z0.0188 I0.0037 J0.0034
X0.8824 Y2.1479 Z0.0183 I-0.0037 J-0.0034
X0.8898 Y2.1547 Z0.0177 I0.0037 J0.0034
X0.8824 Y2.1479 Z0.0172 I-0.0037 J-0.0034
X0.8898 Y2.1547 Z0.0166 I0.0037 J0.0034
X0.8824 Y2.1479 Z0.0161 I-0.0037 J-0.0034
X0.8898 Y2.1547 Z0.0155 I0.0037 J0.0034
X0.8824 Y2.1479 Z0.015 I-0.0037 J-0.0034
X0.8898 Y2.1547 Z0.0144 I0.0037 J0.0034
X0.8824 Y2.1479 Z0.0139 I-0.0037 J-0.0034
X0.8898 Y2.1547 Z0.0133 I0.0037 J0.0034
X0.8824 Y2.1479 Z0.0128 I-0.0037 J-0.0034
X0.8898 Y2.1547 Z0.0122 I0.0037 J0.0034
X0.8824 Y2.1479 Z0.0117 I-0.0037 J-0.0034
X0.8898 Y2.1547 Z0.0111 I0.0037 J0.0034
X0.8824 Y2.1479 Z0.0106 I-0.0037 J-0.0034
X0.8898 Y2.1547 Z0.01 I0.0037 J0.0034
X0.8824 Y2.1479 Z0.0095 I-0.0037 J-0.0034
X0.8898 Y2.1547 Z0.0089 I0.0037 J0.0034
X0.8824 Y2.1479 Z0.0084 I-0.0037 J-0.0034
X0.8898 Y2.1547 Z0.0078 I0.0037 J0.0034
X0.8824 Y2.1479 Z0.0073 I-0.0037 J-0.0034
X0.8898 Y2.1547 Z0.0067 I0.0037 J0.0034
X0.8824 Y2.1479 Z0.0062 I-0.0037 J-0.0034
X0.8898 Y2.1547 Z0.0057 I0.0037 J0.0034
X0.8824 Y2.1479 Z0.0051 I-0.0037 J-0.0034
X0.8898 Y2.1547 Z0.0046 I0.0037 J0.0034
X0.8824 Y2.1479 Z0.004 I-0.0037 J-0.0034
X0.8898 Y2.1547 Z0.0035 I0.0037 J0.0034
X0.8824 Y2.1479 Z0.0029 I-0.0037 J-0.0034
X0.8898 Y2.1547 Z0.0024 I0.0037 J0.0034
X0.8824 Y2.1479 Z0.0018 I-0.0037 J-0.0034
X0.8898 Y2.1547 Z0.0013 I0.0037 J0.0034
X0.8824 Y2.1479 Z0.0007 I-0.0037 J-0.0034
X0.8898 Y2.1547 Z0.0002 I0.0037 J0.0034
X0.8824 Y2.1479 Z-0.0004 I-0.0037 J-0.0034
X0.8898 Y2.1547 Z-0.0009 I0.0037 J0.0034
X0.8824 Y2.1479 Z-0.0015 I-0.0037 J-0.0034
X0.8898 Y2.1547 Z-0.002 I0.0037 J0.0034
X0.8824 Y2.1479 Z-0.0026 I-0.0037 J-0.0034
X0.8898 Y2.1547 Z-0.0031 I0.0037 J0.0034
X0.8824 Y2.1479 Z-0.0037 I-0.0037 J-0.0034
X0.8898 Y2.1547 Z-0.0042 I0.0037 J0.0034
X0.8824 Y2.1479 Z-0.0048 I-0.0037 J-0.0034
X0.8898 Y2.1547 Z-0.0053 I0.0037 J0.0034
X0.8824 Y2.1479 Z-0.0059 I-0.0037 J-0.0034
X0.8898 Y2.1547 Z-0.0064 I0.0037 J0.0034
X0.8824 Y2.1479 Z-0.007 I-0.0037 J-0.0034
X0.8898 Y2.1547 Z-0.0075 I0.0037 J0.0034
X0.8824 Y2.1479 Z-0.0081 I-0.0037 J-0.0034
X0.8898 Y2.1547 Z-0.0086 I0.0037 J0.0034
X0.8824 Y2.1479 Z-0.0092 I-0.0037 J-0.0034
X0.8898 Y2.1547 Z-0.0097 I0.0037 J0.0034
X0.8824 Y2.1479 Z-0.0103 I-0.0037 J-0.0034
X0.8898 Y2.1547 Z-0.0108 I0.0037 J0.0034
X0.8824 Y2.1479 Z-0.0114 I-0.0037 J-0.0034
X0.8898 Y2.1547 Z-0.0119 I0.0037 J0.0034
X0.8824 Y2.1479 Z-0.0124 I-0.0037 J-0.0034
X0.8898 Y2.1547 Z-0.013 I0.0037 J0.0034
X0.8824 Y2.1479 Z-0.0135 I-0.0037 J-0.0034
X0.8898 Y2.1547 Z-0.0141 I0.0037 J0.0034
X0.8824 Y2.1479 Z-0.0146 I-0.0037 J-0.0034
X0.8898 Y2.1547 Z-0.0152 I0.0037 J0.0034
X0.8824 Y2.1479 Z-0.0157 I-0.0037 J-0.0034
X0.8898 Y2.1547 Z-0.0163 I0.0037 J0.0034
X0.8824 Y2.1479 Z-0.0168 I-0.0037 J-0.0034
X0.8898 Y2.1547 Z-0.0174 I0.0037 J0.0034
X0.8824 Y2.1479 Z-0.0179 I-0.0037 J-0.0034
X0.8898 Y2.1547 Z-0.0185 I0.0037 J0.0034
X0.8824 Y2.1479 Z-0.019 I-0.0037 J-0.0034
X0.8898 Y2.1547 Z-0.0196 I0.0037 J0.0034
X0.8811 Y2.1513 Z-0.02 I-0.0037 J-0.0034
X0.9331 I0.026 J0. F40.
X0.8811 I-0.026 J0.
X0.9331 Z-0.0229 I0.026 J0. F20.
X0.8811 Z-0.0257 I-0.026 J0.
X0.9331 Z-0.0286 I0.026 J0.
X0.8811 Z-0.0314 I-0.026 J0.
X0.9331 Z-0.0343 I0.026 J0.
X0.8811 Z-0.0371 I-0.026 J0.
X0.9076 Y2.1253 Z-0.0386 I0.026 J0.
X0.9331 Y2.1522 Z-0.04 I-0.0005 J0.026
X0.8811 Y2.1503 I-0.026 J-0.001 F40.
X0.9331 Y2.1522 I0.026 J0.001
X0.8811 Y2.1503 Z-0.0429 I-0.026 J-0.001 F20.
X0.9331 Y2.1522 Z-0.0457 I0.026 J0.001
X0.8811 Y2.1503 Z-0.0486 I-0.026 J-0.001
X0.9331 Y2.1522 Z-0.0514 I0.026 J0.001
X0.8811 Y2.1503 Z-0.0543 I-0.026 J-0.001
X0.9331 Y2.1522 Z-0.0571 I0.026 J0.001
X0.9057 Y2.1772 Z-0.0586 I-0.026 J-0.001
X0.8812 Y2.1494 Z-0.06 I0.0014 J-0.026
X0.933 Y2.1532 I0.0259 J0.0019 F40.
X0.8812 Y2.1494 I-0.0259 J-0.0019
X0.933 Y2.1532 Z-0.0629 I0.0259 J0.0019 F20.
X0.8812 Y2.1494 Z-0.0657 I-0.0259 J-0.0019
X0.933 Y2.1532 Z-0.0686 I0.0259 J0.0019
X0.8812 Y2.1494 Z-0.0714 I-0.0259 J-0.0019
X0.933 Y2.1532 Z-0.0743 I0.0259 J0.0019
X0.8812 Y2.1494 Z-0.0771 I-0.0259 J-0.0019
X0.9095 Y2.1254 Z-0.0786 I0.0259 J0.0019
X0.933 Y2.1541 Z-0.08 I-0.0024 J0.0259
X0.8813 Y2.1484 I-0.0258 J-0.0029 F40.
X0.933 Y2.1541 I0.0258 J0.0029
X0.8813 Y2.1484 Z-0.0829 I-0.0258 J-0.0029 F20.
X0.933 Y2.1541 Z-0.0857 I0.0258 J0.0029
X0.8813 Y2.1484 Z-0.0886 I-0.0258 J-0.0029
X0.933 Y2.1541 Z-0.0914 I0.0258 J0.0029
X0.8813 Y2.1484 Z-0.0943 I-0.0258 J-0.0029
X0.933 Y2.1541 Z-0.0971 I0.0258 J0.0029
X0.9038 Y2.1771 Z-0.0986 I-0.0258 J-0.0029
X0.8814 Y2.1475 Z-0.1 I0.0033 J-0.0258
X0.9328 Y2.1551 I0.0257 J0.0038 F40.
X0.8814 Y2.1475 I-0.0257 J-0.0038
X0.9328 Y2.1551 Z-0.1029 I0.0257 J0.0038 F20.
X0.8814 Y2.1475 Z-0.1057 I-0.0257 J-0.0038
X0.9328 Y2.1551 Z-0.1086 I0.0257 J0.0038
X0.8814 Y2.1475 Z-0.1114 I-0.0257 J-0.0038
X0.9328 Y2.1551 Z-0.1143 I0.0257 J0.0038
X0.8814 Y2.1475 Z-0.1171 I-0.0257 J-0.0038
X0.9114 Y2.1256 Z-0.1186 I0.0257 J0.0038
X0.9327 Y2.156 Z-0.12 I-0.0043 J0.0256
X0.8816 Y2.1465 I-0.0256 J-0.0047 F40.
X0.9327 Y2.156 I0.0256 J0.0047
X0.8816 Y2.1465 Z-0.1229 I-0.0256 J-0.0047 F20.
X0.9327 Y2.156 Z-0.1257 I0.0256 J0.0047
X0.8816 Y2.1465 Z-0.1286 I-0.0256 J-0.0047
X0.9327 Y2.156 Z-0.1314 I0.0256 J0.0047
X0.8816 Y2.1465 Z-0.1343 I-0.0256 J-0.0047
X0.9327 Y2.156 Z-0.1371 I0.0256 J0.0047
X0.9019 Y2.1768 Z-0.1386 I-0.0256 J-0.0047
X0.8817 Y2.1456 Z-0.14 I0.0052 J-0.0255
X0.9325 Y2.157 I0.0254 J0.0057 F40.
X0.8817 Y2.1456 I-0.0254 J-0.0057
X0.9325 Y2.157 Z-0.1429 I0.0254 J0.0057 F20.
X0.8817 Y2.1456 Z-0.1457 I-0.0254 J-0.0057
X0.9325 Y2.157 Z-0.1486 I0.0254 J0.0057
X0.8817 Y2.1456 Z-0.1514 I-0.0254 J-0.0057
X0.9033 Y2.1256 Z-0.1525 I0.0254 J0.0057
X0.911 Y2.177 I0.0039 J0.0257 F40.
X0.9033 Y2.1256 I-0.0039 J-0.0257
X0.911 Y2.177 Z-0.1554 I0.0039 J0.0257 F20.
X0.9033 Y2.1256 Z-0.1582 I-0.0039 J-0.0257
X0.911 Y2.177 Z-0.1611 I0.0039 J0.0257
X0.9033 Y2.1256 Z-0.1639 I-0.0039 J-0.0257
X0.9297 Y2.1384 Z-0.165 I0.0039 J0.0257
X0.8845 Y2.1642 I-0.0226 J0.0129 F40.
X0.9297 Y2.1384 I0.0226 J-0.0129
G1 X0.9306 Y2.1404 Z-0.1646
X0.9311 Y2.1426 Z-0.1641
X0.9312 Y2.1445 Z-0.1628
X0.931 Y2.1464 Z-0.1615
X0.9303 Y2.1489 Z-0.1577
X0.9299 Y2.1497 Z-0.1532
G0 Z0.2
X1.3098 Y6.672
G1 Z0.1118 F40.
X1.3091 Y6.6719 Z0.1075 F20.
X1.308 Y6.6716 Z0.1057
X1.307 Y6.671 Z0.1039
X1.3061 Y6.6701 Z0.1029
X1.3054 Y6.6691 Z0.102
X1.3051 Y6.6679 Z0.1011
X1.305 Y6.6664 Z0.1007
X1.3055 Y6.6649 Z0.1004
X1.3063 Y6.6636 Z0.1
G3 X1.3137 Y6.6704 Z0.0995 I0.0037 J0.0034
X1.3063 Y6.6636 Z0.0989 I-0.0037 J-0.0034
X1.3137 Y6.6704 Z0.0984 I0.0037 J0.0034
X1.3063 Y6.6636 Z0.0978 I-0.0037 J-0.0034
X1.3137 Y6.6704 Z0.0973 I0.0037 J0.0034
X1.3063 Y6.6636 Z0.0967 I-0.0037 J-0.0034
X1.3137 Y6.6704 Z0.0962 I0.0037 J0.0034
X1.3063 Y6.6636 Z0.0956 I-0.0037 J-0.0034
X1.3137 Y6.6704 Z0.0951 I0.0037 J0.0034
X1.3063 Y6.6636 Z0.0945 I-0.0037 J-0.0034
X1.3137 Y6.6704 Z0.094 I0.0037 J0.0034
X1.3063 Y6.6636 Z0.0934 I-0.0037 J-0.0034
X1.3137 Y6.6704 Z0.0929 I0.0037 J0.0034
X1.3063 Y6.6636 Z0.0923 I-0.0037 J-0.0034
X1.3137 Y6.6704 Z0.0918 I0.0037 J0.0034
X1.3063 Y6.6636 Z0.0912 I-0.0037 J-0.0034
X1.3137 Y6.6704 Z0.0907 I0.0037 J0.0034
X1.3063 Y6.6636 Z0.0901 I-0.0037 J-0.0034
X1.3137 Y6.6704 Z0.0896 I0.0037 J0.0034
X1.3063 Y6.6636 Z0.089 I-0.0037 J-0.0034
X1.3137 Y6.6704 Z0.0885 I0.0037 J0.0034
X1.3063 Y6.6636 Z0.0879 I-0.0037 J-0.0034
X1.3137 Y6.6704 Z0.0874 I0.0037 J0.0034
X1.3063 Y6.6636 Z0.0868 I-0.0037 J-0.0034
X1.3137 Y6.6704 Z0.0863 I0.0037 J0.0034
X1.3063 Y6.6636 Z0.0857 I-0.0037 J-0.0034
X1.3137 Y6.6704 Z0.0852 I0.0037 J0.0034
X1.3063 Y6.6636 Z0.0846 I-0.0037 J-0.0034
X1.3137 Y6.6704 Z0.0841 I0.0037 J0.0034
X1.3063 Y6.6636 Z0.0835 I-0.0037 J-0.0034
X1.3137 Y6.6704 Z0.083 I0.0037 J0.0034
X1.3063 Y6.6636 Z0.0824 I-0.0037 J-0.0034
X1.3137 Y6.6704 Z0.0819 I0.0037 J0.0034
X1.3063 Y6.6636 Z0.0813 I-0.0037 J-0.0034
X1.3137 Y6.6704 Z0.0808 I0.0037 J0.0034
X1.3063 Y6.6636 Z0.0803 I-0.0037 J-0.0034
X1.3137 Y6.6704 Z0.0797 I0.0037 J0.0034
X1.3063 Y6.6636 Z0.0792 I-0.0037 J-0.0034
X1.3137 Y6.6704 Z0.0786 I0.0037 J0.0034
X1.3063 Y6.6636 Z0.0781 I-0.0037 J-0.0034
X1.3137 Y6.6704 Z0.0775 I0.0037 J0.0034
X1.3063 Y6.6636 Z0.077 I-0.0037 J-0.0034
X1.3137 Y6.6704 Z0.0764 I0.0037 J0.0034
X1.3063 Y6.6636 Z0.0759 I-0.0037 J-0.0034
X1.3137 Y6.6704 Z0.0753 I0.0037 J0.0034
X1.3063 Y6.6636 Z0.0748 I-0.0037 J-0.0034
X1.3137 Y6.6704 Z0.0742 I0.0037 J0.0034
X1.3063 Y6.6636 Z0.0737 I-0.0037 J-0.0034
X1.3137 Y6.6704 Z0.0731 I0.0037 J0.0034
X1.3063 Y6.6636 Z0.0726 I-0.0037 J-0.0034
X1.3137 Y6.6704 Z0.072 I0.0037 J0.0034
