(1X1 BOARD LAYOUT)
(ANGLE BRACKET 0.125IN)
(T1  D=3.175 CR=0. - ZMIN=-1.5 - FLAT END MILL)
G90 G94 G91.1 G40 G49 G17
G21
G0 Z15

(2D CONTOUR1 3)
M5
T1 M6
S5000 M3
G54
M8
G0 X126.692 Y37.626
G43 Z18.175 H1
Z8.175
G1 Z5.992 F333.
X126.685 Y37.623 Z5.922
X126.664 Y37.613 Z5.855
X126.63 Y37.597 Z5.795
X126.584 Y37.576 Z5.744
X126.529 Y37.55 Z5.706
X126.469 Y37.522 Z5.683
X126.405 Y37.492 Z5.675
X126.117 Y37.358 F1000.
G3 X125.963 Y36.936 I0.134 J-0.288
G2 X126.409 Y34.925 Z5.602 I-4.317 J-2.011 F333.
G1 Y15.875 Z4.937
G2 X121.646 Y11.113 Z4.676 I-4.762 J0.
G1 X71.503 Z2.925
X15.875 F1000.
G2 X11.113 Y15.875 I0. J4.762
G1 Y34.925
G2 X15.875 Y39.688 I4.762 J0.
G1 X48.17
G3 X51.537 Y41.082 I0. J4.762
G1 X110.294 Y99.839
G2 X117.03 I3.368 J-3.368
G1 X130.5 Y86.369
G2 Y79.634 I-3.368 J-3.368
G1 X98.684 Y47.818
G3 X102.051 Y39.688 I3.367 J-3.368
G1 X121.646
G2 X126.409 Y34.925 I0. J-4.763
G1 Y15.875
G2 X121.646 Y11.113 I-4.762 J0.
G1 X71.503
X64.344 Z2.675 F333.
X15.875 F1000.
G2 X11.113 Y15.875 I0. J4.762
G1 Y34.925
G2 X15.875 Y39.688 I4.762 J0.
G1 X48.17
G3 X51.537 Y41.082 I0. J4.762
G1 X110.294 Y99.839
G2 X117.03 I3.368 J-3.368
G1 X130.5 Y86.369
G2 Y79.634 I-3.368 J-3.368
G1 X98.684 Y47.818
G3 X102.051 Y39.688 I3.367 J-3.368
G1 X121.646
G2 X126.409 Y34.925 I0. J-4.763
G1 Y15.875
G2 X121.646 Y11.113 I-4.762 J0.
G1 X71.503
X64.344
X57.185 Z2.425 F333.
X15.875 F1000.
G2 X11.113 Y15.875 I0. J4.762
G1 Y34.925
G2 X15.875 Y39.688 I4.762 J0.
G1 X48.17
G3 X51.537 Y41.082 I0. J4.762
G1 X110.294 Y99.839
G2 X117.03 I3.368 J-3.368
G1 X130.5 Y86.369
G2 Y79.634 I-3.368 J-3.368
G1 X98.684 Y47.818
G3 X102.051 Y39.688 I3.367 J-3.368
G1 X121.646
G2 X126.409 Y34.925 I0. J-4.763
G1 Y15.875
G2 X121.646 Y11.113 I-4.762 J0.
G1 X64.344
X57.185
X50.026 Z2.175 F333.
X15.875 F1000.
G2 X11.113 Y15.875 I0. J4.762
G1 Y34.925
G2 X15.875 Y39.688 I4.762 J0.
G1 X48.17
G3 X51.537 Y41.082 I0. J4.762
G1 X110.294 Y99.839
G2 X117.03 I3.368 J-3.368
G1 X130.5 Y86.369
G2 Y79.634 I-3.368 J-3.368
G1 X98.684 Y47.818
G3 X102.051 Y39.688 I3.367 J-3.368
G1 X121.646
G2 X126.409 Y34.925 I0. J-4.763
G1 Y15.875
G2 X121.646 Y11.113 I-4.762 J0.
G1 X57.185
X50.026
X42.867 Z1.925 F333.
X15.875 F1000.
G2 X11.113 Y15.875 I0. J4.762
G1 Y34.925
G2 X15.875 Y39.688 I4.762 J0.
G1 X48.17
G3 X51.537 Y41.082 I0. J4.762
G1 X110.294 Y99.839
G2 X117.03 I3.368 J-3.368
G1 X130.5 Y86.369
G2 Y79.634 I-3.368 J-3.368
G1 X98.684 Y47.818
G3 X102.051 Y39.688 I3.367 J-3.368
G1 X121.646
G2 X126.409 Y34.925 I0. J-4.763
G1 Y15.875
G2 X121.646 Y11.113 I-4.762 J0.
G1 X50.026
X42.867
X35.708 Z1.675 F333.
X15.875 F1000.
G2 X11.113 Y15.875 I0. J4.762
G1 Y34.925
G2 X15.875 Y39.688 I4.762 J0.
G1 X48.17
G3 X51.537 Y41.082 I0. J4.762
G1 X110.294 Y99.839
G2 X117.03 I3.368 J-3.368
G1 X130.5 Y86.369
G2 Y79.634 I-3.368 J-3.368
G1 X98.684 Y47.818
G3 X102.051 Y39.688 I3.367 J-3.368
G1 X121.646
G2 X126.409 Y34.925 I0. J-4.763
G1 Y15.875
G2 X121.646 Y11.113 I-4.762 J0.
G1 X42.867
X35.708
X28.549 Z1.425 F333.
X15.875 F1000.
G2 X11.113 Y15.875 I0. J4.762
G1 Y34.925
G2 X15.875 Y39.688 I4.762 J0.
G1 X48.17
G3 X51.537 Y41.082 I0. J4.762
G1 X110.294 Y99.839
G2 X117.03 I3.368 J-3.368
G1 X130.5 Y86.369
G2 Y79.634 I-3.368 J-3.368
G1 X98.684 Y47.818
G3 X102.051 Y39.688 I3.367 J-3.368
G1 X121.646
G2 X126.409 Y34.925 I0. J-4.763
G1 Y15.875
G2 X121.646 Y11.113 I-4.762 J0.
G1 X35.708
X28.549
X21.39 Z1.175 F333.
X15.875 F1000.
G2 X11.113 Y15.875 I0. J4.762
G1 Y34.925
G2 X15.875 Y39.688 I4.762 J0.
G1 X48.17
G3 X51.537 Y41.082 I0. J4.762
G1 X110.294 Y99.839
G2 X117.03 I3.368 J-3.368
G1 X130.5 Y86.369
G2 Y79.634 I-3.368 J-3.368
G1 X98.684 Y47.818
G3 X102.051 Y39.688 I3.367 J-3.368
G1 X121.646
G2 X126.409 Y34.925 I0. J-4.763
G1 Y15.875
G2 X121.646 Y11.113 I-4.762 J0.
G1 X28.549
X21.39
X15.875 Z0.982 F333.
G2 X14.263 Y11.393 Z0.925 I0. J4.762
X11.113 Y15.875 I1.612 J4.482 F1000.
G1 Y34.925
G2 X15.875 Y39.688 I4.762 J0.
G1 X48.17
G3 X51.537 Y41.082 I0. J4.762
G1 X110.294 Y99.839
G2 X117.03 I3.368 J-3.368
G1 X130.5 Y86.369
G2 Y79.634 I-3.368 J-3.368
G1 X98.684 Y47.818
G3 X102.051 Y39.688 I3.367 J-3.368
G1 X121.646
G2 X126.409 Y34.925 I0. J-4.763
G1 Y15.875
G2 X121.646 Y11.113 I-4.762 J0.
G1 X21.39
X15.875
G2 X14.263 Y11.393 I0. J4.762
X11.113 Y15.875 Z0.721 I1.612 J4.482 F333.
G1 Y17.197 Z0.675
Y34.925 F1000.
G2 X15.875 Y39.688 I4.762 J0.
G1 X48.17
G3 X51.537 Y41.082 I0. J4.762
G1 X110.294 Y99.839
G2 X117.03 I3.368 J-3.368
G1 X130.5 Y86.369
G2 Y79.634 I-3.368 J-3.368
G1 X98.684 Y47.818
G3 X102.051 Y39.688 I3.367 J-3.368
G1 X121.646
G2 X126.409 Y34.925 I0. J-4.763
G1 Y15.875
G2 X121.646 Y11.113 I-4.762 J0.
G1 X15.875
G2 X11.113 Y15.875 I0. J4.762
G1 Y17.197
Y24.356 Z0.425 F333.
Y34.925 F1000.
G2 X15.875 Y39.688 I4.762 J0.
G1 X48.17
G3 X51.537 Y41.082 I0. J4.762
G1 X110.294 Y99.839
G2 X117.03 I3.368 J-3.368
G1 X130.5 Y86.369
G2 Y79.634 I-3.368 J-3.368
G1 X98.684 Y47.818
G3 X102.051 Y39.688 I3.367 J-3.368
G1 X121.646
G2 X126.409 Y34.925 I0. J-4.763
G1 Y15.875
G2 X121.646 Y11.113 I-4.762 J0.
G1 X15.875
G2 X11.113 Y15.875 I0. J4.762
G1 Y24.356
Y31.515 Z0.175 F333.
Y34.925 F1000.
G2 X15.875 Y39.688 I4.762 J0.
G1 X48.17
G3 X51.537 Y41.082 I0. J4.762
G1 X110.294 Y99.839
G2 X117.03 I3.368 J-3.368
G1 X130.5 Y86.369
G2 Y79.634 I-3.368 J-3.368
G1 X98.684 Y47.818
G3 X102.051 Y39.688 I3.367 J-3.368
G1 X121.646
G2 X126.409 Y34.925 I0. J-4.763
G1 Y15.875
G2 X121.646 Y11.113 I-4.762 J0.
G1 X15.875
G2 X11.113 Y15.875 I0. J4.762
G1 Y24.356
Y31.515
Y34.925 Z0.056 F333.
G2 X12.514 Y38.299 Z-0.075 I4.762 J0.
X15.875 Y39.688 I3.361 J-3.374 F1000.
G1 X48.17
G3 X51.537 Y41.082 I0. J4.762
G1 X110.294 Y99.839
G2 X117.03 I3.368 J-3.368
G1 X130.5 Y86.369
G2 Y79.634 I-3.368 J-3.368
G1 X98.684 Y47.818
G3 X102.051 Y39.688 I3.367 J-3.368
G1 X121.646
G2 X126.409 Y34.925 I0. J-4.763
G1 Y15.875
G2 X121.646 Y11.113 I-4.762 J0.
G1 X15.875
G2 X11.113 Y15.875 I0. J4.762
G1 Y31.515
Y34.925
G2 X12.514 Y38.299 I4.762 J0.
X15.875 Y39.688 Z-0.205 I3.361 J-3.374 F333.
G1 X19.303 Z-0.325
X48.17 F1000.
G3 X51.537 Y41.082 I0. J4.762
G1 X110.294 Y99.839
G2 X117.03 I3.368 J-3.368
G1 X130.5 Y86.369
G2 Y79.634 I-3.368 J-3.368
G1 X98.684 Y47.818
G3 X102.051 Y39.688 I3.367 J-3.368
G1 X121.646
G2 X126.409 Y34.925 I0. J-4.763
G1 Y15.875
G2 X121.646 Y11.113 I-4.762 J0.
G1 X15.875
G2 X11.113 Y15.875 I0. J4.762
G1 Y34.925
G2 X15.875 Y39.688 I4.762 J0.
G1 X19.303
X26.462 Z-0.575 F333.
X48.17 F1000.
G3 X51.537 Y41.082 I0. J4.762
G1 X110.294 Y99.839
G2 X117.03 I3.368 J-3.368
G1 X130.5 Y86.369
G2 Y79.634 I-3.368 J-3.368
G1 X98.684 Y47.818
G3 X102.051 Y39.688 I3.367 J-3.368
G1 X121.646
G2 X126.409 Y34.925 I0. J-4.763
G1 Y15.875
G2 X121.646 Y11.113 I-4.762 J0.
G1 X15.875
G2 X11.113 Y15.875 I0. J4.762
G1 Y34.925
G2 X15.875 Y39.688 I4.762 J0.
G1 X26.462
X33.621 Z-0.825 F333.
X48.17 F1000.
G3 X51.537 Y41.082 I0. J4.762
G1 X110.294 Y99.839
G2 X117.03 I3.368 J-3.368
G1 X130.5 Y86.369
G2 Y79.634 I-3.368 J-3.368
G1 X98.684 Y47.818
G3 X102.051 Y39.688 I3.367 J-3.368
G1 X121.646
G2 X126.409 Y34.925 I0. J-4.763
G1 Y15.875
G2 X121.646 Y11.113 I-4.762 J0.
G1 X15.875
G2 X11.113 Y15.875 I0. J4.762
G1 Y34.925
G2 X15.875 Y39.688 I4.762 J0.
G1 X26.462
X33.621
X40.78 Z-1.075 F333.
X48.17 F1000.
G3 X51.537 Y41.082 I0. J4.762
G1 X110.294 Y99.839
G2 X117.03 I3.368 J-3.368
G1 X130.5 Y86.369
G2 Y79.634 I-3.368 J-3.368
G1 X98.684 Y47.818
G3 X102.051 Y39.688 I3.367 J-3.368
G1 X121.646
G2 X126.409 Y34.925 I0. J-4.763
G1 Y15.875
G2 X121.646 Y11.113 I-4.762 J0.
G1 X15.875
G2 X11.113 Y15.875 I0. J4.762
G1 Y34.925
G2 X15.875 Y39.688 I4.762 J0.
G1 X33.621
X40.78
X47.939 Z-1.325 F333.
X48.17 F1000.
G3 X51.537 Y41.082 I0. J4.762
G1 X110.294 Y99.839
G2 X117.03 I3.368 J-3.368
G1 X130.5 Y86.369
G2 Y79.634 I-3.368 J-3.368
G1 X98.684 Y47.818
G3 X102.051 Y39.688 I3.367 J-3.368
G1 X121.646
G2 X126.409 Y34.925 I0. J-4.763
G1 Y15.875
G2 X121.646 Y11.113 I-4.762 J0.
G1 X15.875
G2 X11.113 Y15.875 I0. J4.762
G1 Y34.925
G2 X15.875 Y39.688 I4.762 J0.
G1 X40.78
X47.939
X48.17 Z-1.333 F333.
G3 X51.537 Y41.082 Z-1.464 I0. J4.762
G1 X52.273 Y41.818 Z-1.5
X110.294 Y99.839 F1000.
G2 X117.03 I3.368 J-3.368
G1 X130.5 Y86.369
G2 Y79.634 I-3.368 J-3.368
G1 X98.684 Y47.818
G3 X102.051 Y39.688 I3.367 J-3.368
G1 X121.646
G2 X126.409 Y34.925 I0. J-4.763
G1 Y15.875
G2 X121.646 Y11.113 I-4.762 J0.
G1 X15.875
G2 X11.113 Y15.875 I0. J4.762
G1 Y34.925
G2 X15.875 Y39.688 I4.762 J0.
G1 X47.939
X48.17
G3 X51.537 Y41.082 I0. J4.762
G1 X52.273 Y41.818
G3 Y42.267 I-0.225 J0.225
G1 X52.048 Y42.491
X51.998 Y42.541 Z-1.492
X51.951 Y42.589 Z-1.469
X51.908 Y42.631 Z-1.431
X51.873 Y42.667 Z-1.38
X51.846 Y42.694 Z-1.32
X51.829 Y42.71 Z-1.253
X51.824 Y42.716 Z-1.183
G0 Z18.175

(2D CONTOUR2 3)
G0 X102.308 Y93.907
Z18.175
Z8.175
G1 Z5.992 F333.
X102.313 Y93.901 Z5.922
X102.33 Y93.884 Z5.855
X102.357 Y93.858 Z5.795
X102.392 Y93.822 Z5.744
X102.435 Y93.78 Z5.706
X102.482 Y93.732 Z5.683
X102.532 Y93.682 Z5.675
X102.757 Y93.458 F1000.
G3 X103.206 I0.225 J0.225
G1 X109.941 Y100.193 Z5.342 F333.
G2 X117.383 Z5.054 I3.721 J-3.721
G1 X130.853 Y86.722 Z4.388
G2 Y79.28 Z4.1 I-3.721 J-3.721
G1 X99.037 Y47.464 Z2.529
G3 X102.051 Y40.188 Z2.178 I3.014 J-3.014
G1 X121.646 Z1.494
G2 X126.909 Y34.925 Z1.205 I0. J-5.263
G1 Y15.875 Z0.54
G2 X121.646 Y10.613 Z0.251 I-5.262 J0.
G1 X71.503 Z-1.5
X15.875 F1000.
G2 X10.613 Y15.875 I0. J5.262
G1 Y34.925
G2 X15.875 Y40.188 I5.262 J0.
G1 X48.17
G3 X51.184 Y41.436 I0. J4.262
G1 X109.941 Y100.193
G2 X117.383 I3.721 J-3.721
G1 X130.853 Y86.722
G2 Y79.28 I-3.721 J-3.721
G1 X99.037 Y47.464
G3 X102.051 Y40.188 I3.014 J-3.014
G1 X121.646
G2 X126.909 Y34.925 I0. J-5.263
G1 Y15.875
G2 X121.646 Y10.613 I-5.262 J0.
G1 X71.503
G2 X71.128 Y10.863 I0. J0.406
G3 X70.753 Y11.113 I-0.375 J-0.156
G1 X15.875
G2 X11.113 Y15.875 I0. J4.762
G1 Y34.925
G2 X15.875 Y39.688 I4.762 J0.
G1 X48.17
G3 X51.537 Y41.082 I0. J4.762
G1 X110.294 Y99.839
G2 X117.03 I3.368 J-3.368
G1 X130.5 Y86.369
G2 Y79.634 I-3.368 J-3.368
G1 X98.684 Y47.818
G3 X102.051 Y39.688 I3.367 J-3.368
G1 X121.646
G2 X126.409 Y34.925 I0. J-4.763
G1 Y15.875
G2 X121.646 Y11.113 I-4.762 J0.
G1 X70.753
G3 X70.436 Y10.795 I0. J-0.318
G1 Y10.477
G19 G2 Y10.16 Z-1.183 J0. K0.317
G0 Z18.175
G17
M9

(BORE2 2)
S15000 M3
G0 X113.96 Y82.823
Z18.175
Z5.175
G1 Z3.493 F600.
Y82.831 Z3.422
Y82.855 Z3.355
Y82.893 Z3.295
Y82.943 Z3.244
Y83.003 Z3.206
Y83.07 Z3.183
Y83.141 Z3.175
Y83.3
G3 X113.662 Y83.598 I-0.298 J0.
Y82.404 Z2.675 I0. J-0.597
Y83.598 Z2.175 I0. J0.597
Y82.404 Z1.675 I0. J-0.597
Y83.598 Z1.175 I0. J0.597
Y82.404 Z0.675 I0. J-0.597
Y83.598 Z0.175 I0. J0.597
X113.13 Y83.272 Z0. I0. J-0.597
X114.194 Y82.73 I0.532 J-0.271
X113.13 Y83.272 I-0.532 J0.271
X113.26 Y82.871 I0.266 J-0.135
G1 X113.402 Y82.799
X113.465 Y82.767 Z0.008
X113.525 Y82.736 Z0.031
X113.578 Y82.709 Z0.069
X113.623 Y82.686 Z0.12
X113.657 Y82.669 Z0.18
X113.678 Y82.658 Z0.247
X113.685 Y82.655 Z0.317
G0 Z8.175
X87.019 Y55.883
Z5.175
G1 Z3.493 F600.
Y55.891 Z3.422
Y55.914 Z3.355
Y55.952 Z3.295
Y56.002 Z3.244
Y56.062 Z3.206
Y56.13 Z3.183
Y56.2 Z3.175
Y56.359
G3 X86.721 Y56.657 I-0.298 J0.
Y55.464 Z2.675 I0. J-0.597
Y56.657 Z2.175 I0. J0.597
Y55.464 Z1.675 I0. J-0.597
Y56.657 Z1.175 I0. J0.597
Y55.464 Z0.675 I0. J-0.597
Y56.657 Z0.175 I0. J0.597
X86.189 Y56.332 Z0. I0. J-0.597
X87.253 Y55.79 I0.532 J-0.271
X86.189 Y56.332 I-0.532 J0.271
X86.32 Y55.93 I0.266 J-0.135
G1 X86.461 Y55.858
X86.524 Y55.826 Z0.008
X86.584 Y55.795 Z0.031
X86.637 Y55.768 Z0.069
X86.682 Y55.745 Z0.12
X86.716 Y55.728 Z0.18
X86.737 Y55.717 Z0.247
X86.744 Y55.714 Z0.317
G0 Z8.175
X87.019 Y25.222
Z5.175
G1 Z3.493 F600.
Y25.23 Z3.422
Y25.254 Z3.355
Y25.291 Z3.295
Y25.342 Z3.244
Y25.402 Z3.206
Y25.469 Z3.183
Y25.54 Z3.175
Y25.698
G3 X86.721 Y25.997 I-0.298 J0.
Y24.803 Z2.675 I0. J-0.597
Y25.997 Z2.175 I0. J0.597
Y24.803 Z1.675 I0. J-0.597
Y25.997 Z1.175 I0. J0.597
Y24.803 Z0.675 I0. J-0.597
Y25.997 Z0.175 I0. J0.597
X86.189 Y25.671 Z0. I0. J-0.597
X87.253 Y25.129 I0.532 J-0.271
X86.189 Y25.671 I-0.532 J0.271
X86.32 Y25.27 I0.266 J-0.135
G1 X86.461 Y25.198
X86.524 Y25.165 Z0.008
X86.584 Y25.135 Z0.031
X86.637 Y25.108 Z0.069
X86.682 Y25.085 Z0.12
X86.716 Y25.068 Z0.18
X86.737 Y25.057 Z0.247
X86.744 Y25.053 Z0.317
G0 Z8.175
X112.419 Y25.222
Z5.175
G1 Z3.493 F600.
Y25.23 Z3.422
Y25.254 Z3.355
Y25.291 Z3.295
Y25.342 Z3.244
Y25.402 Z3.206
Y25.469 Z3.183
Y25.54 Z3.175
Y25.698
G3 X112.121 Y25.997 I-0.298 J0.
Y24.803 Z2.675 I0. J-0.597
Y25.997 Z2.175 I0. J0.597
Y24.803 Z1.675 I0. J-0.597
Y25.997 Z1.175 I0. J0.597
Y24.803 Z0.675 I0. J-0.597
Y25.997 Z0.175 I0. J0.597
X111.589 Y25.671 Z0. I0. J-0.597
X112.653 Y25.129 I0.532 J-0.271
X111.589 Y25.671 I-0.532 J0.271
X111.72 Y25.27 I0.266 J-0.135
G1 X111.861 Y25.198
X111.924 Y25.165 Z0.008
X111.984 Y25.135 Z0.031
X112.037 Y25.108 Z0.069
X112.082 Y25.085 Z0.12
X112.116 Y25.068 Z0.18
X112.137 Y25.057 Z0.247
X112.144 Y25.053 Z0.317
G0 Z8.175
X51.098 Y25.222
Z5.175
G1 Z3.493 F600.
Y25.23 Z3.422
Y25.254 Z3.355
Y25.291 Z3.295
Y25.342 Z3.244
Y25.402 Z3.206
Y25.469 Z3.183
Y25.54 Z3.175
Y25.698
G3 X50.8 Y25.997 I-0.298 J0.
Y24.803 Z2.675 I0. J-0.597
Y25.997 Z2.175 I0. J0.597
Y24.803 Z1.675 I0. J-0.597
Y25.997 Z1.175 I0. J0.597
Y24.803 Z0.675 I0. J-0.597
Y25.997 Z0.175 I0. J0.597
X50.268 Y25.671 Z0. I0. J-0.597
X51.332 Y25.129 I0.532 J-0.271
X50.268 Y25.671 I-0.532 J0.271
X50.399 Y25.27 I0.266 J-0.135
G1 X50.54 Y25.198
X50.603 Y25.165 Z0.008
X50.663 Y25.135 Z0.031
X50.716 Y25.108 Z0.069
X50.761 Y25.085 Z0.12
X50.795 Y25.068 Z0.18
X50.816 Y25.057 Z0.247
X50.823 Y25.053 Z0.317
G0 Z8.175
X25.698 Y25.222
Z5.175
G1 Z3.493 F600.
Y25.23 Z3.422
Y25.254 Z3.355
Y25.291 Z3.295
Y25.342 Z3.244
Y25.402 Z3.206
Y25.469 Z3.183
Y25.54 Z3.175
Y25.698
G3 X25.4 Y25.997 I-0.298 J0.
Y24.803 Z2.675 I0. J-0.597
Y25.997 Z2.175 I0. J0.597
Y24.803 Z1.675 I0. J-0.597
Y25.997 Z1.175 I0. J0.597
Y24.803 Z0.675 I0. J-0.597
Y25.997 Z0.175 I0. J0.597
X24.868 Y25.671 Z0. I0. J-0.597
X25.932 Y25.129 I0.532 J-0.271
X24.868 Y25.671 I-0.532 J0.271
X24.999 Y25.27 I0.266 J-0.135
G1 X25.14 Y25.198
X25.203 Y25.165 Z0.008
X25.263 Y25.135 Z0.031
X25.316 Y25.108 Z0.069
X25.361 Y25.085 Z0.12
X25.395 Y25.068 Z0.18
X25.416 Y25.057 Z0.247
X25.423 Y25.053 Z0.317
G0 Z18.175
M5
G0 Z15
G0 X0 Y0

M30
