(T1  D=3.175 CR=0. - ZMIN=-3.375 - FLAT END MILL)
G90 G94 G91.1 G40 G49 G17
G21
G0 Z15

(BORE2)
M5
T1 M6
S15000 M3
G54
G0 X101.663 Y71.123
G43 Z15. H1
Z2.5
G1 Z0.817 F800.
Y71.131 Z0.747
Y71.155 Z0.68
Y71.193 Z0.62
Y71.243 Z0.569
Y71.303 Z0.531
Y71.37 Z0.508
Y71.441 Z0.5
Y71.6
G2 X101.962 Y71.898 I0.298 J0.
Y70.704 Z0.49 I0. J-0.597
Y71.898 Z0.481 I0. J0.597
Y70.704 Z0.471 I0. J-0.597
Y71.898 Z0.462 I0. J0.597
Y70.704 Z0.452 I0. J-0.597
Y71.898 Z0.443 I0. J0.597
Y70.704 Z0.433 I0. J-0.597
Y71.898 Z0.424 I0. J0.597
Y70.704 Z0.414 I0. J-0.597
Y71.898 Z0.405 I0. J0.597
Y70.704 Z0.395 I0. J-0.597
Y71.898 Z0.386 I0. J0.597
Y70.704 Z0.376 I0. J-0.597
Y71.898 Z0.367 I0. J0.597
Y70.704 Z0.357 I0. J-0.597
Y71.898 Z0.347 I0. J0.597
Y70.704 Z0.338 I0. J-0.597
Y71.898 Z0.328 I0. J0.597
Y70.704 Z0.319 I0. J-0.597
Y71.898 Z0.309 I0. J0.597
Y70.704 Z0.3 I0. J-0.597
Y71.898 Z0.29 I0. J0.597
Y70.704 Z0.281 I0. J-0.597
Y71.898 Z0.271 I0. J0.597
Y70.704 Z0.262 I0. J-0.597
Y71.898 Z0.252 I0. J0.597
Y70.704 Z0.243 I0. J-0.597
Y71.898 Z0.233 I0. J0.597
Y70.704 Z0.224 I0. J-0.597
Y71.898 Z0.214 I0. J0.597
Y70.704 Z0.205 I0. J-0.597
Y71.898 Z0.195 I0. J0.597
Y70.704 Z0.185 I0. J-0.597
Y71.898 Z0.176 I0. J0.597
Y70.704 Z0.166 I0. J-0.597
Y71.898 Z0.157 I0. J0.597
Y70.704 Z0.147 I0. J-0.597
Y71.898 Z0.138 I0. J0.597
Y70.704 Z0.128 I0. J-0.597
Y71.898 Z0.119 I0. J0.597
Y70.704 Z0.109 I0. J-0.597
Y71.898 Z0.1 I0. J0.597
Y70.704 Z0.09 I0. J-0.597
Y71.898 Z0.081 I0. J0.597
Y70.704 Z0.071 I0. J-0.597
Y71.898 Z0.062 I0. J0.597
Y70.704 Z0.052 I0. J-0.597
Y71.898 Z0.042 I0. J0.597
Y70.704 Z0.033 I0. J-0.597
Y71.898 Z0.023 I0. J0.597
Y70.704 Z0.014 I0. J-0.597
Y71.898 Z0.004 I0. J0.597
Y70.704 Z-0.005 I0. J-0.597
Y71.898 Z-0.015 I0. J0.597
Y70.704 Z-0.024 I0. J-0.597
Y71.898 Z-0.034 I0. J0.597
Y70.704 Z-0.043 I0. J-0.597
Y71.898 Z-0.053 I0. J0.597
Y70.704 Z-0.062 I0. J-0.597
Y71.898 Z-0.072 I0. J0.597
Y70.704 Z-0.081 I0. J-0.597
Y71.898 Z-0.091 I0. J0.597
Y70.704 Z-0.1 I0. J-0.597
Y71.898 Z-0.11 I0. J0.597
Y70.704 Z-0.12 I0. J-0.597
Y71.898 Z-0.129 I0. J0.597
Y70.704 Z-0.139 I0. J-0.597
Y71.898 Z-0.148 I0. J0.597
Y70.704 Z-0.158 I0. J-0.597
Y71.898 Z-0.167 I0. J0.597
Y70.704 Z-0.177 I0. J-0.597
Y71.898 Z-0.186 I0. J0.597
Y70.704 Z-0.196 I0. J-0.597
Y71.898 Z-0.205 I0. J0.597
Y70.704 Z-0.215 I0. J-0.597
Y71.898 Z-0.224 I0. J0.597
Y70.704 Z-0.234 I0. J-0.597
Y71.898 Z-0.243 I0. J0.597
Y70.704 Z-0.253 I0. J-0.597
Y71.898 Z-0.263 I0. J0.597
Y70.704 Z-0.272 I0. J-0.597
Y71.898 Z-0.282 I0. J0.597
Y70.704 Z-0.291 I0. J-0.597
Y71.898 Z-0.301 I0. J0.597
Y70.704 Z-0.31 I0. J-0.597
Y71.898 Z-0.32 I0. J0.597
Y70.704 Z-0.329 I0. J-0.597
Y71.898 Z-0.339 I0. J0.597
Y70.704 Z-0.348 I0. J-0.597
Y71.898 Z-0.358 I0. J0.597
Y70.704 Z-0.367 I0. J-0.597
Y71.898 Z-0.377 I0. J0.597
Y70.704 Z-0.386 I0. J-0.597
Y71.898 Z-0.396 I0. J0.597
Y70.704 Z-0.405 I0. J-0.597
Y71.898 Z-0.415 I0. J0.597
Y70.704 Z-0.425 I0. J-0.597
Y71.898 Z-0.434 I0. J0.597
Y70.704 Z-0.444 I0. J-0.597
Y71.898 Z-0.453 I0. J0.597
Y70.704 Z-0.463 I0. J-0.597
Y71.898 Z-0.472 I0. J0.597
Y70.704 Z-0.482 I0. J-0.597
Y71.898 Z-0.491 I0. J0.597
Y70.704 Z-0.501 I0. J-0.597
Y71.898 Z-0.51 I0. J0.597
Y70.704 Z-0.52 I0. J-0.597
Y71.898 Z-0.529 I0. J0.597
Y70.704 Z-0.539 I0. J-0.597
Y71.898 Z-0.548 I0. J0.597
Y70.704 Z-0.558 I0. J-0.597
Y71.898 Z-0.568 I0. J0.597
Y70.704 Z-0.577 I0. J-0.597
Y71.898 Z-0.587 I0. J0.597
Y70.704 Z-0.596 I0. J-0.597
Y71.898 Z-0.606 I0. J0.597
Y70.704 Z-0.615 I0. J-0.597
Y71.898 Z-0.625 I0. J0.597
Y70.704 Z-0.634 I0. J-0.597
Y71.898 Z-0.644 I0. J0.597
Y70.704 Z-0.653 I0. J-0.597
Y71.898 Z-0.663 I0. J0.597
Y70.704 Z-0.672 I0. J-0.597
Y71.898 Z-0.682 I0. J0.597
Y70.704 Z-0.691 I0. J-0.597
Y71.898 Z-0.701 I0. J0.597
Y70.704 Z-0.71 I0. J-0.597
Y71.898 Z-0.72 I0. J0.597
Y70.704 Z-0.73 I0. J-0.597
Y71.898 Z-0.739 I0. J0.597
Y70.704 Z-0.749 I0. J-0.597
Y71.898 Z-0.758 I0. J0.597
Y70.704 Z-0.768 I0. J-0.597
Y71.898 Z-0.777 I0. J0.597
Y70.704 Z-0.787 I0. J-0.597
Y71.898 Z-0.796 I0. J0.597
Y70.704 Z-0.806 I0. J-0.597
Y71.898 Z-0.815 I0. J0.597
Y70.704 Z-0.825 I0. J-0.597
Y71.898 Z-0.834 I0. J0.597
Y70.704 Z-0.844 I0. J-0.597
Y71.898 Z-0.853 I0. J0.597
Y70.704 Z-0.863 I0. J-0.597
Y71.898 Z-0.873 I0. J0.597
Y70.704 Z-0.882 I0. J-0.597
Y71.898 Z-0.892 I0. J0.597
Y70.704 Z-0.901 I0. J-0.597
Y71.898 Z-0.911 I0. J0.597
Y70.704 Z-0.92 I0. J-0.597
Y71.898 Z-0.93 I0. J0.597
Y70.704 Z-0.939 I0. J-0.597
Y71.898 Z-0.949 I0. J0.597
Y70.704 Z-0.958 I0. J-0.597
Y71.898 Z-0.968 I0. J0.597
Y70.704 Z-0.977 I0. J-0.597
Y71.898 Z-0.987 I0. J0.597
Y70.704 Z-0.996 I0. J-0.597
Y71.898 Z-1.006 I0. J0.597
Y70.704 Z-1.015 I0. J-0.597
Y71.898 Z-1.025 I0. J0.597
Y70.704 Z-1.035 I0. J-0.597
Y71.898 Z-1.044 I0. J0.597
Y70.704 Z-1.054 I0. J-0.597
Y71.898 Z-1.063 I0. J0.597
Y70.704 Z-1.073 I0. J-0.597
Y71.898 Z-1.082 I0. J0.597
Y70.704 Z-1.092 I0. J-0.597
Y71.898 Z-1.101 I0. J0.597
Y70.704 Z-1.111 I0. J-0.597
Y71.898 Z-1.12 I0. J0.597
Y70.704 Z-1.13 I0. J-0.597
Y71.898 Z-1.139 I0. J0.597
Y70.704 Z-1.149 I0. J-0.597
Y71.898 Z-1.158 I0. J0.597
Y70.704 Z-1.168 I0. J-0.597
Y71.898 Z-1.178 I0. J0.597
Y70.704 Z-1.187 I0. J-0.597
Y71.898 Z-1.197 I0. J0.597
Y70.704 Z-1.206 I0. J-0.597
Y71.898 Z-1.216 I0. J0.597
Y70.704 Z-1.225 I0. J-0.597
Y71.898 Z-1.235 I0. J0.597
Y70.704 Z-1.244 I0. J-0.597
Y71.898 Z-1.254 I0. J0.597
Y70.704 Z-1.263 I0. J-0.597
Y71.898 Z-1.273 I0. J0.597
Y70.704 Z-1.282 I0. J-0.597
Y71.898 Z-1.292 I0. J0.597
Y70.704 Z-1.301 I0. J-0.597
Y71.898 Z-1.311 I0. J0.597
Y70.704 Z-1.32 I0. J-0.597
Y71.898 Z-1.33 I0. J0.597
Y70.704 Z-1.34 I0. J-0.597
Y71.898 Z-1.349 I0. J0.597
Y70.704 Z-1.359 I0. J-0.597
Y71.898 Z-1.368 I0. J0.597
Y70.704 Z-1.378 I0. J-0.597
Y71.898 Z-1.387 I0. J0.597
Y70.704 Z-1.397 I0. J-0.597
Y71.898 Z-1.406 I0. J0.597
Y70.704 Z-1.416 I0. J-0.597
Y71.898 Z-1.425 I0. J0.597
Y70.704 Z-1.435 I0. J-0.597
Y71.898 Z-1.444 I0. J0.597
Y70.704 Z-1.454 I0. J-0.597
Y71.898 Z-1.463 I0. J0.597
Y70.704 Z-1.473 I0. J-0.597
Y71.898 Z-1.483 I0. J0.597
Y70.704 Z-1.492 I0. J-0.597
Y71.898 Z-1.502 I0. J0.597
Y70.704 Z-1.511 I0. J-0.597
Y71.898 Z-1.521 I0. J0.597
Y70.704 Z-1.53 I0. J-0.597
Y71.898 Z-1.54 I0. J0.597
Y70.704 Z-1.549 I0. J-0.597
Y71.898 Z-1.559 I0. J0.597
Y70.704 Z-1.568 I0. J-0.597
Y71.898 Z-1.578 I0. J0.597
Y70.704 Z-1.587 I0. J-0.597
Y71.898 Z-1.597 I0. J0.597
Y70.704 Z-1.606 I0. J-0.597
Y71.898 Z-1.616 I0. J0.597
Y70.704 Z-1.625 I0. J-0.597
Y71.898 Z-1.635 I0. J0.597
Y70.704 Z-1.645 I0. J-0.597
Y71.898 Z-1.654 I0. J0.597
Y70.704 Z-1.664 I0. J-0.597
Y71.898 Z-1.673 I0. J0.597
Y70.704 Z-1.683 I0. J-0.597
Y71.898 Z-1.692 I0. J0.597
Y70.704 Z-1.702 I0. J-0.597
Y71.898 Z-1.711 I0. J0.597
Y70.704 Z-1.721 I0. J-0.597
Y71.898 Z-1.73 I0. J0.597
Y70.704 Z-1.74 I0. J-0.597
Y71.898 Z-1.749 I0. J0.597
Y70.704 Z-1.759 I0. J-0.597
Y71.898 Z-1.768 I0. J0.597
Y70.704 Z-1.778 I0. J-0.597
Y71.898 Z-1.788 I0. J0.597
Y70.704 Z-1.797 I0. J-0.597
Y71.898 Z-1.807 I0. J0.597
Y70.704 Z-1.816 I0. J-0.597
Y71.898 Z-1.826 I0. J0.597
Y70.704 Z-1.835 I0. J-0.597
Y71.898 Z-1.845 I0. J0.597
Y70.704 Z-1.854 I0. J-0.597
Y71.898 Z-1.864 I0. J0.597
Y70.704 Z-1.873 I0. J-0.597
Y71.898 Z-1.883 I0. J0.597
Y70.704 Z-1.892 I0. J-0.597
Y71.898 Z-1.902 I0. J0.597
Y70.704 Z-1.911 I0. J-0.597
Y71.898 Z-1.921 I0. J0.597
Y70.704 Z-1.93 I0. J-0.597
Y71.898 Z-1.94 I0. J0.597
Y70.704 Z-1.95 I0. J-0.597
Y71.898 Z-1.959 I0. J0.597
Y70.704 Z-1.969 I0. J-0.597
Y71.898 Z-1.978 I0. J0.597
Y70.704 Z-1.988 I0. J-0.597
Y71.898 Z-1.997 I0. J0.597
Y70.704 Z-2.007 I0. J-0.597
Y71.898 Z-2.016 I0. J0.597
Y70.704 Z-2.026 I0. J-0.597
Y71.898 Z-2.035 I0. J0.597
Y70.704 Z-2.045 I0. J-0.597
Y71.898 Z-2.054 I0. J0.597
Y70.704 Z-2.064 I0. J-0.597
Y71.898 Z-2.073 I0. J0.597
Y70.704 Z-2.083 I0. J-0.597
Y71.898 Z-2.093 I0. J0.597
Y70.704 Z-2.102 I0. J-0.597
Y71.898 Z-2.112 I0. J0.597
Y70.704 Z-2.121 I0. J-0.597
Y71.898 Z-2.131 I0. J0.597
Y70.704 Z-2.14 I0. J-0.597
Y71.898 Z-2.15 I0. J0.597
Y70.704 Z-2.159 I0. J-0.597
Y71.898 Z-2.169 I0. J0.597
Y70.704 Z-2.178 I0. J-0.597
Y71.898 Z-2.188 I0. J0.597
Y70.704 Z-2.197 I0. J-0.597
Y71.898 Z-2.207 I0. J0.597
Y70.704 Z-2.216 I0. J-0.597
Y71.898 Z-2.226 I0. J0.597
Y70.704 Z-2.235 I0. J-0.597
Y71.898 Z-2.245 I0. J0.597
Y70.704 Z-2.255 I0. J-0.597
Y71.898 Z-2.264 I0. J0.597
Y70.704 Z-2.274 I0. J-0.597
Y71.898 Z-2.283 I0. J0.597
Y70.704 Z-2.293 I0. J-0.597
Y71.898 Z-2.302 I0. J0.597
Y70.704 Z-2.312 I0. J-0.597
Y71.898 Z-2.321 I0. J0.597
Y70.704 Z-2.331 I0. J-0.597
Y71.898 Z-2.34 I0. J0.597
Y70.704 Z-2.35 I0. J-0.597
Y71.898 Z-2.359 I0. J0.597
Y70.704 Z-2.369 I0. J-0.597
Y71.898 Z-2.378 I0. J0.597
Y70.704 Z-2.388 I0. J-0.597
Y71.898 Z-2.398 I0. J0.597
Y70.704 Z-2.407 I0. J-0.597
Y71.898 Z-2.417 I0. J0.597
Y70.704 Z-2.426 I0. J-0.597
Y71.898 Z-2.436 I0. J0.597
Y70.704 Z-2.445 I0. J-0.597
Y71.898 Z-2.455 I0. J0.597
Y70.704 Z-2.464 I0. J-0.597
Y71.898 Z-2.474 I0. J0.597
Y70.704 Z-2.483 I0. J-0.597
Y71.898 Z-2.493 I0. J0.597
Y70.704 Z-2.502 I0. J-0.597
Y71.898 Z-2.512 I0. J0.597
Y70.704 Z-2.521 I0. J-0.597
Y71.898 Z-2.531 I0. J0.597
Y70.704 Z-2.54 I0. J-0.597
Y71.898 Z-2.55 I0. J0.597
Y70.704 Z-2.56 I0. J-0.597
Y71.898 Z-2.569 I0. J0.597
Y70.704 Z-2.579 I0. J-0.597
Y71.898 Z-2.588 I0. J0.597
Y70.704 Z-2.598 I0. J-0.597
Y71.898 Z-2.607 I0. J0.597
Y70.704 Z-2.617 I0. J-0.597
Y71.898 Z-2.626 I0. J0.597
Y70.704 Z-2.636 I0. J-0.597
Y71.898 Z-2.645 I0. J0.597
Y70.704 Z-2.655 I0. J-0.597
Y71.898 Z-2.664 I0. J0.597
Y70.704 Z-2.674 I0. J-0.597
Y71.898 Z-2.683 I0. J0.597
Y70.704 Z-2.693 I0. J-0.597
Y71.898 Z-2.703 I0. J0.597
Y70.704 Z-2.712 I0. J-0.597
Y71.898 Z-2.722 I0. J0.597
Y70.704 Z-2.731 I0. J-0.597
Y71.898 Z-2.741 I0. J0.597
Y70.704 Z-2.75 I0. J-0.597
Y71.898 Z-2.76 I0. J0.597
Y70.704 Z-2.769 I0. J-0.597
Y71.898 Z-2.779 I0. J0.597
Y70.704 Z-2.788 I0. J-0.597
Y71.898 Z-2.798 I0. J0.597
Y70.704 Z-2.807 I0. J-0.597
Y71.898 Z-2.817 I0. J0.597
Y70.704 Z-2.826 I0. J-0.597
Y71.898 Z-2.836 I0. J0.597
Y70.704 Z-2.845 I0. J-0.597
Y71.898 Z-2.855 I0. J0.597
Y70.704 Z-2.865 I0. J-0.597
Y71.898 Z-2.874 I0. J0.597
Y70.704 Z-2.884 I0. J-0.597
Y71.898 Z-2.893 I0. J0.597
Y70.704 Z-2.903 I0. J-0.597
Y71.898 Z-2.912 I0. J0.597
Y70.704 Z-2.922 I0. J-0.597
Y71.898 Z-2.931 I0. J0.597
Y70.704 Z-2.941 I0. J-0.597
Y71.898 Z-2.95 I0. J0.597
Y70.704 Z-2.96 I0. J-0.597
Y71.898 Z-2.969 I0. J0.597
Y70.704 Z-2.979 I0. J-0.597
Y71.898 Z-2.988 I0. J0.597
Y70.704 Z-2.998 I0. J-0.597
Y71.898 Z-3.008 I0. J0.597
Y70.704 Z-3.017 I0. J-0.597
Y71.898 Z-3.027 I0. J0.597
Y70.704 Z-3.036 I0. J-0.597
Y71.898 Z-3.046 I0. J0.597
Y70.704 Z-3.055 I0. J-0.597
Y71.898 Z-3.065 I0. J0.597
Y70.704 Z-3.074 I0. J-0.597
Y71.898 Z-3.084 I0. J0.597
Y70.704 Z-3.093 I0. J-0.597
Y71.898 Z-3.103 I0. J0.597
Y70.704 Z-3.112 I0. J-0.597
Y71.898 Z-3.122 I0. J0.597
Y70.704 Z-3.131 I0. J-0.597
Y71.898 Z-3.141 I0. J0.597
Y70.704 Z-3.15 I0. J-0.597
Y71.898 Z-3.16 I0. J0.597
Y70.704 Z-3.17 I0. J-0.597
Y71.898 Z-3.179 I0. J0.597
Y70.704 Z-3.189 I0. J-0.597
Y71.898 Z-3.198 I0. J0.597
Y70.704 Z-3.208 I0. J-0.597
Y71.898 Z-3.217 I0. J0.597
Y70.704 Z-3.227 I0. J-0.597
Y71.898 Z-3.236 I0. J0.597
Y70.704 Z-3.246 I0. J-0.597
Y71.898 Z-3.255 I0. J0.597
Y70.704 Z-3.265 I0. J-0.597
Y71.898 Z-3.274 I0. J0.597
Y70.704 Z-3.284 I0. J-0.597
Y71.898 Z-3.293 I0. J0.597
Y70.704 Z-3.303 I0. J-0.597
Y71.898 Z-3.313 I0. J0.597
Y70.704 Z-3.322 I0. J-0.597
Y71.898 Z-3.332 I0. J0.597
Y70.704 Z-3.341 I0. J-0.597
Y71.898 Z-3.351 I0. J0.597
Y70.704 Z-3.36 I0. J-0.597
Y71.898 Z-3.37 I0. J0.597
X102.55 Y71.198 Z-3.375 I0. J-0.597
X101.374 Y71.404 I-0.588 J0.103
X102.55 Y71.198 I0.588 J-0.103
X102.204 Y70.956 I-0.294 J0.051
G1 X102.048 Y70.983
X101.978 Y70.995 Z-3.367
X101.912 Y71.007 Z-3.344
X101.853 Y71.017 Z-3.306
X101.803 Y71.026 Z-3.255
X101.766 Y71.032 Z-3.195
X101.743 Y71.037 Z-3.128
X101.735 Y71.038 Z-3.057
G0 Z5.
X74.723 Y44.183
Z2.5
G1 Z0.817 F800.
Y44.191 Z0.747
Y44.214 Z0.68
Y44.252 Z0.62
Y44.302 Z0.569
Y44.362 Z0.531
Y44.43 Z0.508
Y44.5 Z0.5
Y44.659
G2 X75.021 Y44.957 I0.298 J0.
Y43.764 Z0.49 I0. J-0.597
Y44.957 Z0.481 I0. J0.597
Y43.764 Z0.471 I0. J-0.597
Y44.957 Z0.462 I0. J0.597
Y43.764 Z0.452 I0. J-0.597
Y44.957 Z0.443 I0. J0.597
Y43.764 Z0.433 I0. J-0.597
Y44.957 Z0.424 I0. J0.597
Y43.764 Z0.414 I0. J-0.597
Y44.957 Z0.405 I0. J0.597
Y43.764 Z0.395 I0. J-0.597
Y44.957 Z0.386 I0. J0.597
Y43.764 Z0.376 I0. J-0.597
Y44.957 Z0.367 I0. J0.597
Y43.764 Z0.357 I0. J-0.597
Y44.957 Z0.347 I0. J0.597
Y43.764 Z0.338 I0. J-0.597
Y44.957 Z0.328 I0. J0.597
Y43.764 Z0.319 I0. J-0.597
Y44.957 Z0.309 I0. J0.597
Y43.764 Z0.3 I0. J-0.597
Y44.957 Z0.29 I0. J0.597
Y43.764 Z0.281 I0. J-0.597
Y44.957 Z0.271 I0. J0.597
Y43.764 Z0.262 I0. J-0.597
Y44.957 Z0.252 I0. J0.597
Y43.764 Z0.243 I0. J-0.597
Y44.957 Z0.233 I0. J0.597
Y43.764 Z0.224 I0. J-0.597
Y44.957 Z0.214 I0. J0.597
Y43.764 Z0.205 I0. J-0.597
Y44.957 Z0.195 I0. J0.597
Y43.764 Z0.185 I0. J-0.597
Y44.957 Z0.176 I0. J0.597
Y43.764 Z0.166 I0. J-0.597
Y44.957 Z0.157 I0. J0.597
Y43.764 Z0.147 I0. J-0.597
Y44.957 Z0.138 I0. J0.597
Y43.764 Z0.128 I0. J-0.597
Y44.957 Z0.119 I0. J0.597
Y43.764 Z0.109 I0. J-0.597
Y44.957 Z0.1 I0. J0.597
Y43.764 Z0.09 I0. J-0.597
Y44.957 Z0.081 I0. J0.597
Y43.764 Z0.071 I0. J-0.597
Y44.957 Z0.062 I0. J0.597
Y43.764 Z0.052 I0. J-0.597
Y44.957 Z0.042 I0. J0.597
Y43.764 Z0.033 I0. J-0.597
Y44.957 Z0.023 I0. J0.597
Y43.764 Z0.014 I0. J-0.597
Y44.957 Z0.004 I0. J0.597
Y43.764 Z-0.005 I0. J-0.597
Y44.957 Z-0.015 I0. J0.597
Y43.764 Z-0.024 I0. J-0.597
Y44.957 Z-0.034 I0. J0.597
Y43.764 Z-0.043 I0. J-0.597
Y44.957 Z-0.053 I0. J0.597
Y43.764 Z-0.062 I0. J-0.597
Y44.957 Z-0.072 I0. J0.597
Y43.764 Z-0.081 I0. J-0.597
Y44.957 Z-0.091 I0. J0.597
Y43.764 Z-0.1 I0. J-0.597
Y44.957 Z-0.11 I0. J0.597
Y43.764 Z-0.12 I0. J-0.597
Y44.957 Z-0.129 I0. J0.597
Y43.764 Z-0.139 I0. J-0.597
Y44.957 Z-0.148 I0. J0.597
Y43.764 Z-0.158 I0. J-0.597
Y44.957 Z-0.167 I0. J0.597
Y43.764 Z-0.177 I0. J-0.597
Y44.957 Z-0.186 I0. J0.597
Y43.764 Z-0.196 I0. J-0.597
Y44.957 Z-0.205 I0. J0.597
Y43.764 Z-0.215 I0. J-0.597
Y44.957 Z-0.224 I0. J0.597
Y43.764 Z-0.234 I0. J-0.597
Y44.957 Z-0.243 I0. J0.597
Y43.764 Z-0.253 I0. J-0.597
Y44.957 Z-0.263 I0. J0.597
Y43.764 Z-0.272 I0. J-0.597
Y44.957 Z-0.282 I0. J0.597
Y43.764 Z-0.291 I0. J-0.597
Y44.957 Z-0.301 I0. J0.597
Y43.764 Z-0.31 I0. J-0.597
Y44.957 Z-0.32 I0. J0.597
Y43.764 Z-0.329 I0. J-0.597
Y44.957 Z-0.339 I0. J0.597
Y43.764 Z-0.348 I0. J-0.597
Y44.957 Z-0.358 I0. J0.597
Y43.764 Z-0.367 I0. J-0.597
Y44.957 Z-0.377 I0. J0.597
Y43.764 Z-0.386 I0. J-0.597
Y44.957 Z-0.396 I0. J0.597
Y43.764 Z-0.405 I0. J-0.597
Y44.957 Z-0.415 I0. J0.597
Y43.764 Z-0.425 I0. J-0.597
Y44.957 Z-0.434 I0. J0.597
Y43.764 Z-0.444 I0. J-0.597
Y44.957 Z-0.453 I0. J0.597
Y43.764 Z-0.463 I0. J-0.597
Y44.957 Z-0.472 I0. J0.597
Y43.764 Z-0.482 I0. J-0.597
Y44.957 Z-0.491 I0. J0.597
Y43.764 Z-0.501 I0. J-0.597
Y44.957 Z-0.51 I0. J0.597
Y43.764 Z-0.52 I0. J-0.597
Y44.957 Z-0.529 I0. J0.597
Y43.764 Z-0.539 I0. J-0.597
Y44.957 Z-0.548 I0. J0.597
Y43.764 Z-0.558 I0. J-0.597
Y44.957 Z-0.568 I0. J0.597
Y43.764 Z-0.577 I0. J-0.597
Y44.957 Z-0.587 I0. J0.597
Y43.764 Z-0.596 I0. J-0.597
Y44.957 Z-0.606 I0. J0.597
Y43.764 Z-0.615 I0. J-0.597
Y44.957 Z-0.625 I0. J0.597
Y43.764 Z-0.634 I0. J-0.597
Y44.957 Z-0.644 I0. J0.597
Y43.764 Z-0.653 I0. J-0.597
Y44.957 Z-0.663 I0. J0.597
Y43.764 Z-0.672 I0. J-0.597
Y44.957 Z-0.682 I0. J0.597
Y43.764 Z-0.691 I0. J-0.597
Y44.957 Z-0.701 I0. J0.597
Y43.764 Z-0.71 I0. J-0.597
Y44.957 Z-0.72 I0. J0.597
Y43.764 Z-0.73 I0. J-0.597
Y44.957 Z-0.739 I0. J0.597
Y43.764 Z-0.749 I0. J-0.597
Y44.957 Z-0.758 I0. J0.597
Y43.764 Z-0.768 I0. J-0.597
Y44.957 Z-0.777 I0. J0.597
Y43.764 Z-0.787 I0. J-0.597
Y44.957 Z-0.796 I0. J0.597
Y43.764 Z-0.806 I0. J-0.597
Y44.957 Z-0.815 I0. J0.597
Y43.764 Z-0.825 I0. J-0.597
Y44.957 Z-0.834 I0. J0.597
Y43.764 Z-0.844 I0. J-0.597
Y44.957 Z-0.853 I0. J0.597
Y43.764 Z-0.863 I0. J-0.597
Y44.957 Z-0.873 I0. J0.597
Y43.764 Z-0.882 I0. J-0.597
Y44.957 Z-0.892 I0. J0.597
Y43.764 Z-0.901 I0. J-0.597
Y44.957 Z-0.911 I0. J0.597
Y43.764 Z-0.92 I0. J-0.597
Y44.957 Z-0.93 I0. J0.597
Y43.764 Z-0.939 I0. J-0.597
Y44.957 Z-0.949 I0. J0.597
Y43.764 Z-0.958 I0. J-0.597
Y44.957 Z-0.968 I0. J0.597
Y43.764 Z-0.977 I0. J-0.597
Y44.957 Z-0.987 I0. J0.597
Y43.764 Z-0.996 I0. J-0.597
Y44.957 Z-1.006 I0. J0.597
Y43.764 Z-1.015 I0. J-0.597
Y44.957 Z-1.025 I0. J0.597
Y43.764 Z-1.035 I0. J-0.597
Y44.957 Z-1.044 I0. J0.597
Y43.764 Z-1.054 I0. J-0.597
Y44.957 Z-1.063 I0. J0.597
Y43.764 Z-1.073 I0. J-0.597
Y44.957 Z-1.082 I0. J0.597
Y43.764 Z-1.092 I0. J-0.597
Y44.957 Z-1.101 I0. J0.597
Y43.764 Z-1.111 I0. J-0.597
Y44.957 Z-1.12 I0. J0.597
Y43.764 Z-1.13 I0. J-0.597
Y44.957 Z-1.139 I0. J0.597
Y43.764 Z-1.149 I0. J-0.597
Y44.957 Z-1.158 I0. J0.597
Y43.764 Z-1.168 I0. J-0.597
Y44.957 Z-1.178 I0. J0.597
Y43.764 Z-1.187 I0. J-0.597
Y44.957 Z-1.197 I0. J0.597
Y43.764 Z-1.206 I0. J-0.597
Y44.957 Z-1.216 I0. J0.597
Y43.764 Z-1.225 I0. J-0.597
Y44.957 Z-1.235 I0. J0.597
Y43.764 Z-1.244 I0. J-0.597
Y44.957 Z-1.254 I0. J0.597
Y43.764 Z-1.263 I0. J-0.597
Y44.957 Z-1.273 I0. J0.597
Y43.764 Z-1.282 I0. J-0.597
Y44.957 Z-1.292 I0. J0.597
Y43.764 Z-1.301 I0. J-0.597
Y44.957 Z-1.311 I0. J0.597
Y43.764 Z-1.32 I0. J-0.597
Y44.957 Z-1.33 I0. J0.597
Y43.764 Z-1.34 I0. J-0.597
Y44.957 Z-1.349 I0. J0.597
Y43.764 Z-1.359 I0. J-0.597
Y44.957 Z-1.368 I0. J0.597
Y43.764 Z-1.378 I0. J-0.597
Y44.957 Z-1.387 I0. J0.597
Y43.764 Z-1.397 I0. J-0.597
Y44.957 Z-1.406 I0. J0.597
Y43.764 Z-1.416 I0. J-0.597
Y44.957 Z-1.425 I0. J0.597
Y43.764 Z-1.435 I0. J-0.597
Y44.957 Z-1.444 I0. J0.597
Y43.764 Z-1.454 I0. J-0.597
Y44.957 Z-1.463 I0. J0.597
Y43.764 Z-1.473 I0. J-0.597
Y44.957 Z-1.483 I0. J0.597
Y43.764 Z-1.492 I0. J-0.597
Y44.957 Z-1.502 I0. J0.597
Y43.764 Z-1.511 I0. J-0.597
Y44.957 Z-1.521 I0. J0.597
Y43.764 Z-1.53 I0. J-0.597
Y44.957 Z-1.54 I0. J0.597
Y43.764 Z-1.549 I0. J-0.597
Y44.957 Z-1.559 I0. J0.597
Y43.764 Z-1.568 I0. J-0.597
Y44.957 Z-1.578 I0. J0.597
Y43.764 Z-1.587 I0. J-0.597
Y44.957 Z-1.597 I0. J0.597
Y43.764 Z-1.606 I0. J-0.597
Y44.957 Z-1.616 I0. J0.597
Y43.764 Z-1.625 I0. J-0.597
Y44.957 Z-1.635 I0. J0.597
Y43.764 Z-1.645 I0. J-0.597
Y44.957 Z-1.654 I0. J0.597
Y43.764 Z-1.664 I0. J-0.597
Y44.957 Z-1.673 I0. J0.597
Y43.764 Z-1.683 I0. J-0.597
Y44.957 Z-1.692 I0. J0.597
Y43.764 Z-1.702 I0. J-0.597
Y44.957 Z-1.711 I0. J0.597
Y43.764 Z-1.721 I0. J-0.597
Y44.957 Z-1.73 I0. J0.597
Y43.764 Z-1.74 I0. J-0.597
Y44.957 Z-1.749 I0. J0.597
Y43.764 Z-1.759 I0. J-0.597
Y44.957 Z-1.768 I0. J0.597
Y43.764 Z-1.778 I0. J-0.597
Y44.957 Z-1.788 I0. J0.597
Y43.764 Z-1.797 I0. J-0.597
Y44.957 Z-1.807 I0. J0.597
Y43.764 Z-1.816 I0. J-0.597
Y44.957 Z-1.826 I0. J0.597
Y43.764 Z-1.835 I0. J-0.597
Y44.957 Z-1.845 I0. J0.597
Y43.764 Z-1.854 I0. J-0.597
Y44.957 Z-1.864 I0. J0.597
Y43.764 Z-1.873 I0. J-0.597
Y44.957 Z-1.883 I0. J0.597
Y43.764 Z-1.892 I0. J-0.597
Y44.957 Z-1.902 I0. J0.597
Y43.764 Z-1.911 I0. J-0.597
Y44.957 Z-1.921 I0. J0.597
Y43.764 Z-1.93 I0. J-0.597
Y44.957 Z-1.94 I0. J0.597
Y43.764 Z-1.95 I0. J-0.597
Y44.957 Z-1.959 I0. J0.597
Y43.764 Z-1.969 I0. J-0.597
Y44.957 Z-1.978 I0. J0.597
Y43.764 Z-1.988 I0. J-0.597
Y44.957 Z-1.997 I0. J0.597
Y43.764 Z-2.007 I0. J-0.597
Y44.957 Z-2.016 I0. J0.597
Y43.764 Z-2.026 I0. J-0.597
Y44.957 Z-2.035 I0. J0.597
Y43.764 Z-2.045 I0. J-0.597
Y44.957 Z-2.054 I0. J0.597
Y43.764 Z-2.064 I0. J-0.597
Y44.957 Z-2.073 I0. J0.597
Y43.764 Z-2.083 I0. J-0.597
Y44.957 Z-2.093 I0. J0.597
Y43.764 Z-2.102 I0. J-0.597
Y44.957 Z-2.112 I0. J0.597
Y43.764 Z-2.121 I0. J-0.597
Y44.957 Z-2.131 I0. J0.597
Y43.764 Z-2.14 I0. J-0.597
Y44.957 Z-2.15 I0. J0.597
Y43.764 Z-2.159 I0. J-0.597
Y44.957 Z-2.169 I0. J0.597
Y43.764 Z-2.178 I0. J-0.597
Y44.957 Z-2.188 I0. J0.597
Y43.764 Z-2.197 I0. J-0.597
Y44.957 Z-2.207 I0. J0.597
Y43.764 Z-2.216 I0. J-0.597
Y44.957 Z-2.226 I0. J0.597
Y43.764 Z-2.235 I0. J-0.597
Y44.957 Z-2.245 I0. J0.597
Y43.764 Z-2.255 I0. J-0.597
Y44.957 Z-2.264 I0. J0.597
Y43.764 Z-2.274 I0. J-0.597
Y44.957 Z-2.283 I0. J0.597
Y43.764 Z-2.293 I0. J-0.597
Y44.957 Z-2.302 I0. J0.597
Y43.764 Z-2.312 I0. J-0.597
Y44.957 Z-2.321 I0. J0.597
Y43.764 Z-2.331 I0. J-0.597
Y44.957 Z-2.34 I0. J0.597
Y43.764 Z-2.35 I0. J-0.597
Y44.957 Z-2.359 I0. J0.597
Y43.764 Z-2.369 I0. J-0.597
Y44.957 Z-2.378 I0. J0.597
Y43.764 Z-2.388 I0. J-0.597
Y44.957 Z-2.398 I0. J0.597
Y43.764 Z-2.407 I0. J-0.597
Y44.957 Z-2.417 I0. J0.597
Y43.764 Z-2.426 I0. J-0.597
Y44.957 Z-2.436 I0. J0.597
Y43.764 Z-2.445 I0. J-0.597
Y44.957 Z-2.455 I0. J0.597
Y43.764 Z-2.464 I0. J-0.597
Y44.957 Z-2.474 I0. J0.597
Y43.764 Z-2.483 I0. J-0.597
Y44.957 Z-2.493 I0. J0.597
Y43.764 Z-2.502 I0. J-0.597
Y44.957 Z-2.512 I0. J0.597
Y43.764 Z-2.521 I0. J-0.597
Y44.957 Z-2.531 I0. J0.597
Y43.764 Z-2.54 I0. J-0.597
Y44.957 Z-2.55 I0. J0.597
Y43.764 Z-2.56 I0. J-0.597
Y44.957 Z-2.569 I0. J0.597
Y43.764 Z-2.579 I0. J-0.597
Y44.957 Z-2.588 I0. J0.597
Y43.764 Z-2.598 I0. J-0.597
Y44.957 Z-2.607 I0. J0.597
Y43.764 Z-2.617 I0. J-0.597
Y44.957 Z-2.626 I0. J0.597
Y43.764 Z-2.636 I0. J-0.597
Y44.957 Z-2.645 I0. J0.597
Y43.764 Z-2.655 I0. J-0.597
Y44.957 Z-2.664 I0. J0.597
Y43.764 Z-2.674 I0. J-0.597
Y44.957 Z-2.683 I0. J0.597
Y43.764 Z-2.693 I0. J-0.597
Y44.957 Z-2.703 I0. J0.597
Y43.764 Z-2.712 I0. J-0.597
Y44.957 Z-2.722 I0. J0.597
Y43.764 Z-2.731 I0. J-0.597
Y44.957 Z-2.741 I0. J0.597
Y43.764 Z-2.75 I0. J-0.597
Y44.957 Z-2.76 I0. J0.597
Y43.764 Z-2.769 I0. J-0.597
Y44.957 Z-2.779 I0. J0.597
Y43.764 Z-2.788 I0. J-0.597
Y44.957 Z-2.798 I0. J0.597
Y43.764 Z-2.807 I0. J-0.597
Y44.957 Z-2.817 I0. J0.597
Y43.764 Z-2.826 I0. J-0.597
Y44.957 Z-2.836 I0. J0.597
Y43.764 Z-2.845 I0. J-0.597
Y44.957 Z-2.855 I0. J0.597
Y43.764 Z-2.865 I0. J-0.597
Y44.957 Z-2.874 I0. J0.597
Y43.764 Z-2.884 I0. J-0.597
Y44.957 Z-2.893 I0. J0.597
Y43.764 Z-2.903 I0. J-0.597
Y44.957 Z-2.912 I0. J0.597
Y43.764 Z-2.922 I0. J-0.597
Y44.957 Z-2.931 I0. J0.597
Y43.764 Z-2.941 I0. J-0.597
Y44.957 Z-2.95 I0. J0.597
Y43.764 Z-2.96 I0. J-0.597
Y44.957 Z-2.969 I0. J0.597
Y43.764 Z-2.979 I0. J-0.597
Y44.957 Z-2.988 I0. J0.597
Y43.764 Z-2.998 I0. J-0.597
Y44.957 Z-3.008 I0. J0.597
Y43.764 Z-3.017 I0. J-0.597
Y44.957 Z-3.027 I0. J0.597
Y43.764 Z-3.036 I0. J-0.597
Y44.957 Z-3.046 I0. J0.597
Y43.764 Z-3.055 I0. J-0.597
Y44.957 Z-3.065 I0. J0.597
Y43.764 Z-3.074 I0. J-0.597
Y44.957 Z-3.084 I0. J0.597
Y43.764 Z-3.093 I0. J-0.597
Y44.957 Z-3.103 I0. J0.597
Y43.764 Z-3.112 I0. J-0.597
Y44.957 Z-3.122 I0. J0.597
Y43.764 Z-3.131 I0. J-0.597
Y44.957 Z-3.141 I0. J0.597
Y43.764 Z-3.15 I0. J-0.597
Y44.957 Z-3.16 I0. J0.597
Y43.764 Z-3.17 I0. J-0.597
Y44.957 Z-3.179 I0. J0.597
Y43.764 Z-3.189 I0. J-0.597
Y44.957 Z-3.198 I0. J0.597
Y43.764 Z-3.208 I0. J-0.597
Y44.957 Z-3.217 I0. J0.597
Y43.764 Z-3.227 I0. J-0.597
Y44.957 Z-3.236 I0. J0.597
Y43.764 Z-3.246 I0. J-0.597
Y44.957 Z-3.255 I0. J0.597
Y43.764 Z-3.265 I0. J-0.597
Y44.957 Z-3.274 I0. J0.597
Y43.764 Z-3.284 I0. J-0.597
Y44.957 Z-3.293 I0. J0.597
Y43.764 Z-3.303 I0. J-0.597
Y44.957 Z-3.313 I0. J0.597
Y43.764 Z-3.322 I0. J-0.597
Y44.957 Z-3.332 I0. J0.597
Y43.764 Z-3.341 I0. J-0.597
Y44.957 Z-3.351 I0. J0.597
Y43.764 Z-3.36 I0. J-0.597
Y44.957 Z-3.37 I0. J0.597
X75.609 Y44.258 Z-3.375 I0. J-0.597
X74.433 Y44.463 I-0.588 J0.103
X75.609 Y44.258 I0.588 J-0.103
X75.264 Y44.015 I-0.294 J0.051
G1 X75.107 Y44.042
X75.038 Y44.055 Z-3.367
X74.972 Y44.066 Z-3.344
X74.912 Y44.077 Z-3.306
X74.863 Y44.085 Z-3.255
X74.825 Y44.092 Z-3.195
X74.802 Y44.096 Z-3.128
X74.794 Y44.097 Z-3.057
G0 Z5.
X74.723 Y13.522
Z2.5
G1 Z0.817 F800.
Y13.53 Z0.747
Y13.554 Z0.68
Y13.591 Z0.62
Y13.642 Z0.569
Y13.702 Z0.531
Y13.769 Z0.508
Y13.84 Z0.5
Y13.998
G2 X75.021 Y14.297 I0.298 J0.
Y13.103 Z0.49 I0. J-0.597
Y14.297 Z0.481 I0. J0.597
Y13.103 Z0.471 I0. J-0.597
Y14.297 Z0.462 I0. J0.597
Y13.103 Z0.452 I0. J-0.597
Y14.297 Z0.443 I0. J0.597
Y13.103 Z0.433 I0. J-0.597
Y14.297 Z0.424 I0. J0.597
Y13.103 Z0.414 I0. J-0.597
Y14.297 Z0.405 I0. J0.597
Y13.103 Z0.395 I0. J-0.597
Y14.297 Z0.386 I0. J0.597
Y13.103 Z0.376 I0. J-0.597
Y14.297 Z0.367 I0. J0.597
Y13.103 Z0.357 I0. J-0.597
Y14.297 Z0.347 I0. J0.597
Y13.103 Z0.338 I0. J-0.597
Y14.297 Z0.328 I0. J0.597
Y13.103 Z0.319 I0. J-0.597
Y14.297 Z0.309 I0. J0.597
Y13.103 Z0.3 I0. J-0.597
Y14.297 Z0.29 I0. J0.597
Y13.103 Z0.281 I0. J-0.597
Y14.297 Z0.271 I0. J0.597
Y13.103 Z0.262 I0. J-0.597
Y14.297 Z0.252 I0. J0.597
Y13.103 Z0.243 I0. J-0.597
Y14.297 Z0.233 I0. J0.597
Y13.103 Z0.224 I0. J-0.597
Y14.297 Z0.214 I0. J0.597
Y13.103 Z0.205 I0. J-0.597
Y14.297 Z0.195 I0. J0.597
Y13.103 Z0.185 I0. J-0.597
Y14.297 Z0.176 I0. J0.597
Y13.103 Z0.166 I0. J-0.597
Y14.297 Z0.157 I0. J0.597
Y13.103 Z0.147 I0. J-0.597
Y14.297 Z0.138 I0. J0.597
Y13.103 Z0.128 I0. J-0.597
Y14.297 Z0.119 I0. J0.597
Y13.103 Z0.109 I0. J-0.597
Y14.297 Z0.1 I0. J0.597
Y13.103 Z0.09 I0. J-0.597
Y14.297 Z0.081 I0. J0.597
Y13.103 Z0.071 I0. J-0.597
Y14.297 Z0.062 I0. J0.597
Y13.103 Z0.052 I0. J-0.597
Y14.297 Z0.042 I0. J0.597
Y13.103 Z0.033 I0. J-0.597
Y14.297 Z0.023 I0. J0.597
Y13.103 Z0.014 I0. J-0.597
Y14.297 Z0.004 I0. J0.597
Y13.103 Z-0.005 I0. J-0.597
Y14.297 Z-0.015 I0. J0.597
Y13.103 Z-0.024 I0. J-0.597
Y14.297 Z-0.034 I0. J0.597
Y13.103 Z-0.043 I0. J-0.597
Y14.297 Z-0.053 I0. J0.597
Y13.103 Z-0.062 I0. J-0.597
Y14.297 Z-0.072 I0. J0.597
Y13.103 Z-0.081 I0. J-0.597
Y14.297 Z-0.091 I0. J0.597
Y13.103 Z-0.1 I0. J-0.597
Y14.297 Z-0.11 I0. J0.597
Y13.103 Z-0.12 I0. J-0.597
Y14.297 Z-0.129 I0. J0.597
Y13.103 Z-0.139 I0. J-0.597
Y14.297 Z-0.148 I0. J0.597
Y13.103 Z-0.158 I0. J-0.597
Y14.297 Z-0.167 I0. J0.597
Y13.103 Z-0.177 I0. J-0.597
Y14.297 Z-0.186 I0. J0.597
Y13.103 Z-0.196 I0. J-0.597
Y14.297 Z-0.205 I0. J0.597
Y13.103 Z-0.215 I0. J-0.597
Y14.297 Z-0.224 I0. J0.597
Y13.103 Z-0.234 I0. J-0.597
Y14.297 Z-0.243 I0. J0.597
Y13.103 Z-0.253 I0. J-0.597
Y14.297 Z-0.263 I0. J0.597
Y13.103 Z-0.272 I0. J-0.597
Y14.297 Z-0.282 I0. J0.597
Y13.103 Z-0.291 I0. J-0.597
Y14.297 Z-0.301 I0. J0.597
Y13.103 Z-0.31 I0. J-0.597
Y14.297 Z-0.32 I0. J0.597
Y13.103 Z-0.329 I0. J-0.597
Y14.297 Z-0.339 I0. J0.597
Y13.103 Z-0.348 I0. J-0.597
Y14.297 Z-0.358 I0. J0.597
Y13.103 Z-0.367 I0. J-0.597
Y14.297 Z-0.377 I0. J0.597
Y13.103 Z-0.386 I0. J-0.597
Y14.297 Z-0.396 I0. J0.597
Y13.103 Z-0.405 I0. J-0.597
Y14.297 Z-0.415 I0. J0.597
Y13.103 Z-0.425 I0. J-0.597
Y14.297 Z-0.434 I0. J0.597
Y13.103 Z-0.444 I0. J-0.597
Y14.297 Z-0.453 I0. J0.597
Y13.103 Z-0.463 I0. J-0.597
Y14.297 Z-0.472 I0. J0.597
Y13.103 Z-0.482 I0. J-0.597
Y14.297 Z-0.491 I0. J0.597
Y13.103 Z-0.501 I0. J-0.597
Y14.297 Z-0.51 I0. J0.597
Y13.103 Z-0.52 I0. J-0.597
Y14.297 Z-0.529 I0. J0.597
Y13.103 Z-0.539 I0. J-0.597
Y14.297 Z-0.548 I0. J0.597
Y13.103 Z-0.558 I0. J-0.597
Y14.297 Z-0.568 I0. J0.597
Y13.103 Z-0.577 I0. J-0.597
Y14.297 Z-0.587 I0. J0.597
Y13.103 Z-0.596 I0. J-0.597
Y14.297 Z-0.606 I0. J0.597
Y13.103 Z-0.615 I0. J-0.597
Y14.297 Z-0.625 I0. J0.597
Y13.103 Z-0.634 I0. J-0.597
Y14.297 Z-0.644 I0. J0.597
Y13.103 Z-0.653 I0. J-0.597
Y14.297 Z-0.663 I0. J0.597
Y13.103 Z-0.672 I0. J-0.597
Y14.297 Z-0.682 I0. J0.597
Y13.103 Z-0.691 I0. J-0.597
Y14.297 Z-0.701 I0. J0.597
Y13.103 Z-0.71 I0. J-0.597
Y14.297 Z-0.72 I0. J0.597
Y13.103 Z-0.73 I0. J-0.597
Y14.297 Z-0.739 I0. J0.597
Y13.103 Z-0.749 I0. J-0.597
Y14.297 Z-0.758 I0. J0.597
Y13.103 Z-0.768 I0. J-0.597
Y14.297 Z-0.777 I0. J0.597
Y13.103 Z-0.787 I0. J-0.597
Y14.297 Z-0.796 I0. J0.597
Y13.103 Z-0.806 I0. J-0.597
Y14.297 Z-0.815 I0. J0.597
Y13.103 Z-0.825 I0. J-0.597
Y14.297 Z-0.834 I0. J0.597
Y13.103 Z-0.844 I0. J-0.597
Y14.297 Z-0.853 I0. J0.597
Y13.103 Z-0.863 I0. J-0.597
Y14.297 Z-0.873 I0. J0.597
Y13.103 Z-0.882 I0. J-0.597
Y14.297 Z-0.892 I0. J0.597
Y13.103 Z-0.901 I0. J-0.597
Y14.297 Z-0.911 I0. J0.597
Y13.103 Z-0.92 I0. J-0.597
Y14.297 Z-0.93 I0. J0.597
Y13.103 Z-0.939 I0. J-0.597
Y14.297 Z-0.949 I0. J0.597
Y13.103 Z-0.958 I0. J-0.597
Y14.297 Z-0.968 I0. J0.597
Y13.103 Z-0.977 I0. J-0.597
Y14.297 Z-0.987 I0. J0.597
Y13.103 Z-0.996 I0. J-0.597
Y14.297 Z-1.006 I0. J0.597
Y13.103 Z-1.015 I0. J-0.597
Y14.297 Z-1.025 I0. J0.597
Y13.103 Z-1.035 I0. J-0.597
Y14.297 Z-1.044 I0. J0.597
Y13.103 Z-1.054 I0. J-0.597
Y14.297 Z-1.063 I0. J0.597
Y13.103 Z-1.073 I0. J-0.597
Y14.297 Z-1.082 I0. J0.597
Y13.103 Z-1.092 I0. J-0.597
Y14.297 Z-1.101 I0. J0.597
Y13.103 Z-1.111 I0. J-0.597
Y14.297 Z-1.12 I0. J0.597
Y13.103 Z-1.13 I0. J-0.597
Y14.297 Z-1.139 I0. J0.597
Y13.103 Z-1.149 I0. J-0.597
Y14.297 Z-1.158 I0. J0.597
Y13.103 Z-1.168 I0. J-0.597
Y14.297 Z-1.178 I0. J0.597
Y13.103 Z-1.187 I0. J-0.597
Y14.297 Z-1.197 I0. J0.597
Y13.103 Z-1.206 I0. J-0.597
Y14.297 Z-1.216 I0. J0.597
Y13.103 Z-1.225 I0. J-0.597
Y14.297 Z-1.235 I0. J0.597
Y13.103 Z-1.244 I0. J-0.597
Y14.297 Z-1.254 I0. J0.597
Y13.103 Z-1.263 I0. J-0.597
Y14.297 Z-1.273 I0. J0.597
Y13.103 Z-1.282 I0. J-0.597
Y14.297 Z-1.292 I0. J0.597
Y13.103 Z-1.301 I0. J-0.597
Y14.297 Z-1.311 I0. J0.597
Y13.103 Z-1.32 I0. J-0.597
Y14.297 Z-1.33 I0. J0.597
Y13.103 Z-1.34 I0. J-0.597
Y14.297 Z-1.349 I0. J0.597
Y13.103 Z-1.359 I0. J-0.597
Y14.297 Z-1.368 I0. J0.597
Y13.103 Z-1.378 I0. J-0.597
Y14.297 Z-1.387 I0. J0.597
Y13.103 Z-1.397 I0. J-0.597
Y14.297 Z-1.406 I0. J0.597
Y13.103 Z-1.416 I0. J-0.597
Y14.297 Z-1.425 I0. J0.597
Y13.103 Z-1.435 I0. J-0.597
Y14.297 Z-1.444 I0. J0.597
Y13.103 Z-1.454 I0. J-0.597
Y14.297 Z-1.463 I0. J0.597
Y13.103 Z-1.473 I0. J-0.597
Y14.297 Z-1.483 I0. J0.597
Y13.103 Z-1.492 I0. J-0.597
Y14.297 Z-1.502 I0. J0.597
Y13.103 Z-1.511 I0. J-0.597
Y14.297 Z-1.521 I0. J0.597
Y13.103 Z-1.53 I0. J-0.597
Y14.297 Z-1.54 I0. J0.597
Y13.103 Z-1.549 I0. J-0.597
Y14.297 Z-1.559 I0. J0.597
Y13.103 Z-1.568 I0. J-0.597
Y14.297 Z-1.578 I0. J0.597
Y13.103 Z-1.587 I0. J-0.597
Y14.297 Z-1.597 I0. J0.597
Y13.103 Z-1.606 I0. J-0.597
Y14.297 Z-1.616 I0. J0.597
Y13.103 Z-1.625 I0. J-0.597
Y14.297 Z-1.635 I0. J0.597
Y13.103 Z-1.645 I0. J-0.597
Y14.297 Z-1.654 I0. J0.597
Y13.103 Z-1.664 I0. J-0.597
Y14.297 Z-1.673 I0. J0.597
Y13.103 Z-1.683 I0. J-0.597
Y14.297 Z-1.692 I0. J0.597
Y13.103 Z-1.702 I0. J-0.597
Y14.297 Z-1.711 I0. J0.597
Y13.103 Z-1.721 I0. J-0.597
Y14.297 Z-1.73 I0. J0.597
Y13.103 Z-1.74 I0. J-0.597
Y14.297 Z-1.749 I0. J0.597
Y13.103 Z-1.759 I0. J-0.597
Y14.297 Z-1.768 I0. J0.597
Y13.103 Z-1.778 I0. J-0.597
Y14.297 Z-1.788 I0. J0.597
Y13.103 Z-1.797 I0. J-0.597
Y14.297 Z-1.807 I0. J0.597
Y13.103 Z-1.816 I0. J-0.597
Y14.297 Z-1.826 I0. J0.597
Y13.103 Z-1.835 I0. J-0.597
Y14.297 Z-1.845 I0. J0.597
Y13.103 Z-1.854 I0. J-0.597
Y14.297 Z-1.864 I0. J0.597
Y13.103 Z-1.873 I0. J-0.597
Y14.297 Z-1.883 I0. J0.597
Y13.103 Z-1.892 I0. J-0.597
Y14.297 Z-1.902 I0. J0.597
Y13.103 Z-1.911 I0. J-0.597
Y14.297 Z-1.921 I0. J0.597
Y13.103 Z-1.93 I0. J-0.597
Y14.297 Z-1.94 I0. J0.597
Y13.103 Z-1.95 I0. J-0.597
Y14.297 Z-1.959 I0. J0.597
Y13.103 Z-1.969 I0. J-0.597
Y14.297 Z-1.978 I0. J0.597
Y13.103 Z-1.988 I0. J-0.597
Y14.297 Z-1.997 I0. J0.597
Y13.103 Z-2.007 I0. J-0.597
Y14.297 Z-2.016 I0. J0.597
Y13.103 Z-2.026 I0. J-0.597
Y14.297 Z-2.035 I0. J0.597
Y13.103 Z-2.045 I0. J-0.597
Y14.297 Z-2.054 I0. J0.597
Y13.103 Z-2.064 I0. J-0.597
Y14.297 Z-2.073 I0. J0.597
Y13.103 Z-2.083 I0. J-0.597
Y14.297 Z-2.093 I0. J0.597
Y13.103 Z-2.102 I0. J-0.597
Y14.297 Z-2.112 I0. J0.597
Y13.103 Z-2.121 I0. J-0.597
Y14.297 Z-2.131 I0. J0.597
Y13.103 Z-2.14 I0. J-0.597
Y14.297 Z-2.15 I0. J0.597
Y13.103 Z-2.159 I0. J-0.597
Y14.297 Z-2.169 I0. J0.597
Y13.103 Z-2.178 I0. J-0.597
Y14.297 Z-2.188 I0. J0.597
Y13.103 Z-2.197 I0. J-0.597
Y14.297 Z-2.207 I0. J0.597
Y13.103 Z-2.216 I0. J-0.597
Y14.297 Z-2.226 I0. J0.597
Y13.103 Z-2.235 I0. J-0.597
Y14.297 Z-2.245 I0. J0.597
Y13.103 Z-2.255 I0. J-0.597
Y14.297 Z-2.264 I0. J0.597
Y13.103 Z-2.274 I0. J-0.597
Y14.297 Z-2.283 I0. J0.597
Y13.103 Z-2.293 I0. J-0.597
Y14.297 Z-2.302 I0. J0.597
Y13.103 Z-2.312 I0. J-0.597
Y14.297 Z-2.321 I0. J0.597
Y13.103 Z-2.331 I0. J-0.597
Y14.297 Z-2.34 I0. J0.597
Y13.103 Z-2.35 I0. J-0.597
Y14.297 Z-2.359 I0. J0.597
Y13.103 Z-2.369 I0. J-0.597
Y14.297 Z-2.378 I0. J0.597
Y13.103 Z-2.388 I0. J-0.597
Y14.297 Z-2.398 I0. J0.597
Y13.103 Z-2.407 I0. J-0.597
Y14.297 Z-2.417 I0. J0.597
Y13.103 Z-2.426 I0. J-0.597
Y14.297 Z-2.436 I0. J0.597
Y13.103 Z-2.445 I0. J-0.597
Y14.297 Z-2.455 I0. J0.597
Y13.103 Z-2.464 I0. J-0.597
Y14.297 Z-2.474 I0. J0.597
Y13.103 Z-2.483 I0. J-0.597
Y14.297 Z-2.493 I0. J0.597
Y13.103 Z-2.502 I0. J-0.597
Y14.297 Z-2.512 I0. J0.597
Y13.103 Z-2.521 I0. J-0.597
Y14.297 Z-2.531 I0. J0.597
Y13.103 Z-2.54 I0. J-0.597
Y14.297 Z-2.55 I0. J0.597
Y13.103 Z-2.56 I0. J-0.597
Y14.297 Z-2.569 I0. J0.597
Y13.103 Z-2.579 I0. J-0.597
Y14.297 Z-2.588 I0. J0.597
Y13.103 Z-2.598 I0. J-0.597
Y14.297 Z-2.607 I0. J0.597
Y13.103 Z-2.617 I0. J-0.597
Y14.297 Z-2.626 I0. J0.597
Y13.103 Z-2.636 I0. J-0.597
Y14.297 Z-2.645 I0. J0.597
Y13.103 Z-2.655 I0. J-0.597
Y14.297 Z-2.664 I0. J0.597
Y13.103 Z-2.674 I0. J-0.597
Y14.297 Z-2.683 I0. J0.597
Y13.103 Z-2.693 I0. J-0.597
Y14.297 Z-2.703 I0. J0.597
Y13.103 Z-2.712 I0. J-0.597
Y14.297 Z-2.722 I0. J0.597
Y13.103 Z-2.731 I0. J-0.597
Y14.297 Z-2.741 I0. J0.597
Y13.103 Z-2.75 I0. J-0.597
Y14.297 Z-2.76 I0. J0.597
Y13.103 Z-2.769 I0. J-0.597
Y14.297 Z-2.779 I0. J0.597
Y13.103 Z-2.788 I0. J-0.597
Y14.297 Z-2.798 I0. J0.597
Y13.103 Z-2.807 I0. J-0.597
Y14.297 Z-2.817 I0. J0.597
Y13.103 Z-2.826 I0. J-0.597
Y14.297 Z-2.836 I0. J0.597
Y13.103 Z-2.845 I0. J-0.597
Y14.297 Z-2.855 I0. J0.597
Y13.103 Z-2.865 I0. J-0.597
Y14.297 Z-2.874 I0. J0.597
Y13.103 Z-2.884 I0. J-0.597
Y14.297 Z-2.893 I0. J0.597
Y13.103 Z-2.903 I0. J-0.597
Y14.297 Z-2.912 I0. J0.597
Y13.103 Z-2.922 I0. J-0.597
Y14.297 Z-2.931 I0. J0.597
Y13.103 Z-2.941 I0. J-0.597
Y14.297 Z-2.95 I0. J0.597
Y13.103 Z-2.96 I0. J-0.597
Y14.297 Z-2.969 I0. J0.597
Y13.103 Z-2.979 I0. J-0.597
Y14.297 Z-2.988 I0. J0.597
Y13.103 Z-2.998 I0. J-0.597
Y14.297 Z-3.008 I0. J0.597
Y13.103 Z-3.017 I0. J-0.597
Y14.297 Z-3.027 I0. J0.597
Y13.103 Z-3.036 I0. J-0.597
Y14.297 Z-3.046 I0. J0.597
Y13.103 Z-3.055 I0. J-0.597
Y14.297 Z-3.065 I0. J0.597
Y13.103 Z-3.074 I0. J-0.597
Y14.297 Z-3.084 I0. J0.597
Y13.103 Z-3.093 I0. J-0.597
Y14.297 Z-3.103 I0. J0.597
Y13.103 Z-3.112 I0. J-0.597
Y14.297 Z-3.122 I0. J0.597
Y13.103 Z-3.131 I0. J-0.597
Y14.297 Z-3.141 I0. J0.597
Y13.103 Z-3.15 I0. J-0.597
Y14.297 Z-3.16 I0. J0.597
Y13.103 Z-3.17 I0. J-0.597
Y14.297 Z-3.179 I0. J0.597
Y13.103 Z-3.189 I0. J-0.597
Y14.297 Z-3.198 I0. J0.597
Y13.103 Z-3.208 I0. J-0.597
Y14.297 Z-3.217 I0. J0.597
Y13.103 Z-3.227 I0. J-0.597
Y14.297 Z-3.236 I0. J0.597
Y13.103 Z-3.246 I0. J-0.597
Y14.297 Z-3.255 I0. J0.597
Y13.103 Z-3.265 I0. J-0.597
Y14.297 Z-3.274 I0. J0.597
Y13.103 Z-3.284 I0. J-0.597
Y14.297 Z-3.293 I0. J0.597
Y13.103 Z-3.303 I0. J-0.597
Y14.297 Z-3.313 I0. J0.597
Y13.103 Z-3.322 I0. J-0.597
Y14.297 Z-3.332 I0. J0.597
Y13.103 Z-3.341 I0. J-0.597
Y14.297 Z-3.351 I0. J0.597
Y13.103 Z-3.36 I0. J-0.597
Y14.297 Z-3.37 I0. J0.597
X75.609 Y13.597 Z-3.375 I0. J-0.597
X74.433 Y13.803 I-0.588 J0.103
X75.609 Y13.597 I0.588 J-0.103
X75.264 Y13.355 I-0.294 J0.051
G1 X75.107 Y13.382
X75.038 Y13.394 Z-3.367
X74.972 Y13.406 Z-3.344
X74.912 Y13.416 Z-3.306
X74.863 Y13.425 Z-3.255
X74.825 Y13.431 Z-3.195
X74.802 Y13.435 Z-3.128
X74.794 Y13.437 Z-3.057
G0 Z5.
X100.123 Y13.522
Z2.5
G1 Z0.817 F800.
Y13.53 Z0.747
Y13.554 Z0.68
Y13.591 Z0.62
Y13.642 Z0.569
Y13.702 Z0.531
Y13.769 Z0.508
Y13.84 Z0.5
Y13.998
G2 X100.421 Y14.297 I0.298 J0.
Y13.103 Z0.49 I0. J-0.597
Y14.297 Z0.481 I0. J0.597
Y13.103 Z0.471 I0. J-0.597
Y14.297 Z0.462 I0. J0.597
Y13.103 Z0.452 I0. J-0.597
Y14.297 Z0.443 I0. J0.597
Y13.103 Z0.433 I0. J-0.597
Y14.297 Z0.424 I0. J0.597
Y13.103 Z0.414 I0. J-0.597
Y14.297 Z0.405 I0. J0.597
Y13.103 Z0.395 I0. J-0.597
Y14.297 Z0.386 I0. J0.597
Y13.103 Z0.376 I0. J-0.597
Y14.297 Z0.367 I0. J0.597
Y13.103 Z0.357 I0. J-0.597
Y14.297 Z0.347 I0. J0.597
Y13.103 Z0.338 I0. J-0.597
Y14.297 Z0.328 I0. J0.597
Y13.103 Z0.319 I0. J-0.597
Y14.297 Z0.309 I0. J0.597
Y13.103 Z0.3 I0. J-0.597
Y14.297 Z0.29 I0. J0.597
Y13.103 Z0.281 I0. J-0.597
Y14.297 Z0.271 I0. J0.597
Y13.103 Z0.262 I0. J-0.597
Y14.297 Z0.252 I0. J0.597
Y13.103 Z0.243 I0. J-0.597
Y14.297 Z0.233 I0. J0.597
Y13.103 Z0.224 I0. J-0.597
Y14.297 Z0.214 I0. J0.597
Y13.103 Z0.205 I0. J-0.597
Y14.297 Z0.195 I0. J0.597
Y13.103 Z0.185 I0. J-0.597
Y14.297 Z0.176 I0. J0.597
Y13.103 Z0.166 I0. J-0.597
Y14.297 Z0.157 I0. J0.597
Y13.103 Z0.147 I0. J-0.597
Y14.297 Z0.138 I0. J0.597
Y13.103 Z0.128 I0. J-0.597
Y14.297 Z0.119 I0. J0.597
Y13.103 Z0.109 I0. J-0.597
Y14.297 Z0.1 I0. J0.597
Y13.103 Z0.09 I0. J-0.597
Y14.297 Z0.081 I0. J0.597
Y13.103 Z0.071 I0. J-0.597
Y14.297 Z0.062 I0. J0.597
Y13.103 Z0.052 I0. J-0.597
Y14.297 Z0.042 I0. J0.597
Y13.103 Z0.033 I0. J-0.597
Y14.297 Z0.023 I0. J0.597
Y13.103 Z0.014 I0. J-0.597
Y14.297 Z0.004 I0. J0.597
Y13.103 Z-0.005 I0. J-0.597
Y14.297 Z-0.015 I0. J0.597
Y13.103 Z-0.024 I0. J-0.597
Y14.297 Z-0.034 I0. J0.597
Y13.103 Z-0.043 I0. J-0.597
Y14.297 Z-0.053 I0. J0.597
Y13.103 Z-0.062 I0. J-0.597
Y14.297 Z-0.072 I0. J0.597
Y13.103 Z-0.081 I0. J-0.597
Y14.297 Z-0.091 I0. J0.597
Y13.103 Z-0.1 I0. J-0.597
Y14.297 Z-0.11 I0. J0.597
Y13.103 Z-0.12 I0. J-0.597
Y14.297 Z-0.129 I0. J0.597
Y13.103 Z-0.139 I0. J-0.597
Y14.297 Z-0.148 I0. J0.597
Y13.103 Z-0.158 I0. J-0.597
Y14.297 Z-0.167 I0. J0.597
Y13.103 Z-0.177 I0. J-0.597
Y14.297 Z-0.186 I0. J0.597
Y13.103 Z-0.196 I0. J-0.597
Y14.297 Z-0.205 I0. J0.597
Y13.103 Z-0.215 I0. J-0.597
Y14.297 Z-0.224 I0. J0.597
Y13.103 Z-0.234 I0. J-0.597
Y14.297 Z-0.243 I0. J0.597
Y13.103 Z-0.253 I0. J-0.597
Y14.297 Z-0.263 I0. J0.597
Y13.103 Z-0.272 I0. J-0.597
Y14.297 Z-0.282 I0. J0.597
Y13.103 Z-0.291 I0. J-0.597
Y14.297 Z-0.301 I0. J0.597
Y13.103 Z-0.31 I0. J-0.597
Y14.297 Z-0.32 I0. J0.597
Y13.103 Z-0.329 I0. J-0.597
Y14.297 Z-0.339 I0. J0.597
Y13.103 Z-0.348 I0. J-0.597
Y14.297 Z-0.358 I0. J0.597
Y13.103 Z-0.367 I0. J-0.597
Y14.297 Z-0.377 I0. J0.597
Y13.103 Z-0.386 I0. J-0.597
Y14.297 Z-0.396 I0. J0.597
Y13.103 Z-0.405 I0. J-0.597
Y14.297 Z-0.415 I0. J0.597
Y13.103 Z-0.425 I0. J-0.597
Y14.297 Z-0.434 I0. J0.597
Y13.103 Z-0.444 I0. J-0.597
Y14.297 Z-0.453 I0. J0.597
Y13.103 Z-0.463 I0. J-0.597
Y14.297 Z-0.472 I0. J0.597
Y13.103 Z-0.482 I0. J-0.597
Y14.297 Z-0.491 I0. J0.597
Y13.103 Z-0.501 I0. J-0.597
Y14.297 Z-0.51 I0. J0.597
Y13.103 Z-0.52 I0. J-0.597
Y14.297 Z-0.529 I0. J0.597
Y13.103 Z-0.539 I0. J-0.597
Y14.297 Z-0.548 I0. J0.597
Y13.103 Z-0.558 I0. J-0.597
Y14.297 Z-0.568 I0. J0.597
Y13.103 Z-0.577 I0. J-0.597
Y14.297 Z-0.587 I0. J0.597
Y13.103 Z-0.596 I0. J-0.597
Y14.297 Z-0.606 I0. J0.597
Y13.103 Z-0.615 I0. J-0.597
Y14.297 Z-0.625 I0. J0.597
Y13.103 Z-0.634 I0. J-0.597
Y14.297 Z-0.644 I0. J0.597
Y13.103 Z-0.653 I0. J-0.597
Y14.297 Z-0.663 I0. J0.597
Y13.103 Z-0.672 I0. J-0.597
Y14.297 Z-0.682 I0. J0.597
Y13.103 Z-0.691 I0. J-0.597
Y14.297 Z-0.701 I0. J0.597
Y13.103 Z-0.71 I0. J-0.597
Y14.297 Z-0.72 I0. J0.597
Y13.103 Z-0.73 I0. J-0.597
Y14.297 Z-0.739 I0. J0.597
Y13.103 Z-0.749 I0. J-0.597
Y14.297 Z-0.758 I0. J0.597
Y13.103 Z-0.768 I0. J-0.597
Y14.297 Z-0.777 I0. J0.597
Y13.103 Z-0.787 I0. J-0.597
Y14.297 Z-0.796 I0. J0.597
Y13.103 Z-0.806 I0. J-0.597
Y14.297 Z-0.815 I0. J0.597
Y13.103 Z-0.825 I0. J-0.597
Y14.297 Z-0.834 I0. J0.597
Y13.103 Z-0.844 I0. J-0.597
Y14.297 Z-0.853 I0. J0.597
Y13.103 Z-0.863 I0. J-0.597
Y14.297 Z-0.873 I0. J0.597
Y13.103 Z-0.882 I0. J-0.597
Y14.297 Z-0.892 I0. J0.597
Y13.103 Z-0.901 I0. J-0.597
Y14.297 Z-0.911 I0. J0.597
Y13.103 Z-0.92 I0. J-0.597
Y14.297 Z-0.93 I0. J0.597
Y13.103 Z-0.939 I0. J-0.597
Y14.297 Z-0.949 I0. J0.597
Y13.103 Z-0.958 I0. J-0.597
Y14.297 Z-0.968 I0. J0.597
Y13.103 Z-0.977 I0. J-0.597
Y14.297 Z-0.987 I0. J0.597
Y13.103 Z-0.996 I0. J-0.597
Y14.297 Z-1.006 I0. J0.597
Y13.103 Z-1.015 I0. J-0.597
Y14.297 Z-1.025 I0. J0.597
Y13.103 Z-1.035 I0. J-0.597
Y14.297 Z-1.044 I0. J0.597
Y13.103 Z-1.054 I0. J-0.597
Y14.297 Z-1.063 I0. J0.597
Y13.103 Z-1.073 I0. J-0.597
Y14.297 Z-1.082 I0. J0.597
Y13.103 Z-1.092 I0. J-0.597
Y14.297 Z-1.101 I0. J0.597
Y13.103 Z-1.111 I0. J-0.597
Y14.297 Z-1.12 I0. J0.597
Y13.103 Z-1.13 I0. J-0.597
Y14.297 Z-1.139 I0. J0.597
Y13.103 Z-1.149 I0. J-0.597
Y14.297 Z-1.158 I0. J0.597
Y13.103 Z-1.168 I0. J-0.597
Y14.297 Z-1.178 I0. J0.597
Y13.103 Z-1.187 I0. J-0.597
Y14.297 Z-1.197 I0. J0.597
Y13.103 Z-1.206 I0. J-0.597
Y14.297 Z-1.216 I0. J0.597
Y13.103 Z-1.225 I0. J-0.597
Y14.297 Z-1.235 I0. J0.597
Y13.103 Z-1.244 I0. J-0.597
Y14.297 Z-1.254 I0. J0.597
Y13.103 Z-1.263 I0. J-0.597
Y14.297 Z-1.273 I0. J0.597
Y13.103 Z-1.282 I0. J-0.597
Y14.297 Z-1.292 I0. J0.597
Y13.103 Z-1.301 I0. J-0.597
Y14.297 Z-1.311 I0. J0.597
Y13.103 Z-1.32 I0. J-0.597
Y14.297 Z-1.33 I0. J0.597
Y13.103 Z-1.34 I0. J-0.597
Y14.297 Z-1.349 I0. J0.597
Y13.103 Z-1.359 I0. J-0.597
Y14.297 Z-1.368 I0. J0.597
Y13.103 Z-1.378 I0. J-0.597
Y14.297 Z-1.387 I0. J0.597
Y13.103 Z-1.397 I0. J-0.597
Y14.297 Z-1.406 I0. J0.597
Y13.103 Z-1.416 I0. J-0.597
Y14.297 Z-1.425 I0. J0.597
Y13.103 Z-1.435 I0. J-0.597
Y14.297 Z-1.444 I0. J0.597
Y13.103 Z-1.454 I0. J-0.597
Y14.297 Z-1.463 I0. J0.597
Y13.103 Z-1.473 I0. J-0.597
Y14.297 Z-1.483 I0. J0.597
Y13.103 Z-1.492 I0. J-0.597
Y14.297 Z-1.502 I0. J0.597
Y13.103 Z-1.511 I0. J-0.597
Y14.297 Z-1.521 I0. J0.597
Y13.103 Z-1.53 I0. J-0.597
Y14.297 Z-1.54 I0. J0.597
Y13.103 Z-1.549 I0. J-0.597
Y14.297 Z-1.559 I0. J0.597
Y13.103 Z-1.568 I0. J-0.597
Y14.297 Z-1.578 I0. J0.597
Y13.103 Z-1.587 I0. J-0.597
Y14.297 Z-1.597 I0. J0.597
Y13.103 Z-1.606 I0. J-0.597
Y14.297 Z-1.616 I0. J0.597
Y13.103 Z-1.625 I0. J-0.597
Y14.297 Z-1.635 I0. J0.597
Y13.103 Z-1.645 I0. J-0.597
Y14.297 Z-1.654 I0. J0.597
Y13.103 Z-1.664 I0. J-0.597
Y14.297 Z-1.673 I0. J0.597
Y13.103 Z-1.683 I0. J-0.597
Y14.297 Z-1.692 I0. J0.597
Y13.103 Z-1.702 I0. J-0.597
Y14.297 Z-1.711 I0. J0.597
Y13.103 Z-1.721 I0. J-0.597
Y14.297 Z-1.73 I0. J0.597
Y13.103 Z-1.74 I0. J-0.597
Y14.297 Z-1.749 I0. J0.597
Y13.103 Z-1.759 I0. J-0.597
Y14.297 Z-1.768 I0. J0.597
Y13.103 Z-1.778 I0. J-0.597
Y14.297 Z-1.788 I0. J0.597
Y13.103 Z-1.797 I0. J-0.597
Y14.297 Z-1.807 I0. J0.597
Y13.103 Z-1.816 I0. J-0.597
Y14.297 Z-1.826 I0. J0.597
Y13.103 Z-1.835 I0. J-0.597
Y14.297 Z-1.845 I0. J0.597
Y13.103 Z-1.854 I0. J-0.597
Y14.297 Z-1.864 I0. J0.597
Y13.103 Z-1.873 I0. J-0.597
Y14.297 Z-1.883 I0. J0.597
Y13.103 Z-1.892 I0. J-0.597
Y14.297 Z-1.902 I0. J0.597
Y13.103 Z-1.911 I0. J-0.597
Y14.297 Z-1.921 I0. J0.597
Y13.103 Z-1.93 I0. J-0.597
Y14.297 Z-1.94 I0. J0.597
Y13.103 Z-1.95 I0. J-0.597
Y14.297 Z-1.959 I0. J0.597
Y13.103 Z-1.969 I0. J-0.597
Y14.297 Z-1.978 I0. J0.597
Y13.103 Z-1.988 I0. J-0.597
Y14.297 Z-1.997 I0. J0.597
Y13.103 Z-2.007 I0. J-0.597
Y14.297 Z-2.016 I0. J0.597
Y13.103 Z-2.026 I0. J-0.597
Y14.297 Z-2.035 I0. J0.597
Y13.103 Z-2.045 I0. J-0.597
Y14.297 Z-2.054 I0. J0.597
Y13.103 Z-2.064 I0. J-0.597
Y14.297 Z-2.073 I0. J0.597
Y13.103 Z-2.083 I0. J-0.597
Y14.297 Z-2.093 I0. J0.597
Y13.103 Z-2.102 I0. J-0.597
Y14.297 Z-2.112 I0. J0.597
Y13.103 Z-2.121 I0. J-0.597
Y14.297 Z-2.131 I0. J0.597
Y13.103 Z-2.14 I0. J-0.597
Y14.297 Z-2.15 I0. J0.597
Y13.103 Z-2.159 I0. J-0.597
Y14.297 Z-2.169 I0. J0.597
Y13.103 Z-2.178 I0. J-0.597
Y14.297 Z-2.188 I0. J0.597
Y13.103 Z-2.197 I0. J-0.597
Y14.297 Z-2.207 I0. J0.597
Y13.103 Z-2.216 I0. J-0.597
Y14.297 Z-2.226 I0. J0.597
Y13.103 Z-2.235 I0. J-0.597
Y14.297 Z-2.245 I0. J0.597
Y13.103 Z-2.255 I0. J-0.597
Y14.297 Z-2.264 I0. J0.597
Y13.103 Z-2.274 I0. J-0.597
Y14.297 Z-2.283 I0. J0.597
Y13.103 Z-2.293 I0. J-0.597
Y14.297 Z-2.302 I0. J0.597
Y13.103 Z-2.312 I0. J-0.597
Y14.297 Z-2.321 I0. J0.597
Y13.103 Z-2.331 I0. J-0.597
Y14.297 Z-2.34 I0. J0.597
Y13.103 Z-2.35 I0. J-0.597
Y14.297 Z-2.359 I0. J0.597
Y13.103 Z-2.369 I0. J-0.597
Y14.297 Z-2.378 I0. J0.597
Y13.103 Z-2.388 I0. J-0.597
Y14.297 Z-2.398 I0. J0.597
Y13.103 Z-2.407 I0. J-0.597
Y14.297 Z-2.417 I0. J0.597
Y13.103 Z-2.426 I0. J-0.597
Y14.297 Z-2.436 I0. J0.597
Y13.103 Z-2.445 I0. J-0.597
Y14.297 Z-2.455 I0. J0.597
Y13.103 Z-2.464 I0. J-0.597
Y14.297 Z-2.474 I0. J0.597
Y13.103 Z-2.483 I0. J-0.597
Y14.297 Z-2.493 I0. J0.597
Y13.103 Z-2.502 I0. J-0.597
Y14.297 Z-2.512 I0. J0.597
Y13.103 Z-2.521 I0. J-0.597
Y14.297 Z-2.531 I0. J0.597
Y13.103 Z-2.54 I0. J-0.597
Y14.297 Z-2.55 I0. J0.597
Y13.103 Z-2.56 I0. J-0.597
Y14.297 Z-2.569 I0. J0.597
Y13.103 Z-2.579 I0. J-0.597
Y14.297 Z-2.588 I0. J0.597
Y13.103 Z-2.598 I0. J-0.597
Y14.297 Z-2.607 I0. J0.597
Y13.103 Z-2.617 I0. J-0.597
Y14.297 Z-2.626 I0. J0.597
Y13.103 Z-2.636 I0. J-0.597
Y14.297 Z-2.645 I0. J0.597
Y13.103 Z-2.655 I0. J-0.597
Y14.297 Z-2.664 I0. J0.597
Y13.103 Z-2.674 I0. J-0.597
Y14.297 Z-2.683 I0. J0.597
Y13.103 Z-2.693 I0. J-0.597
Y14.297 Z-2.703 I0. J0.597
Y13.103 Z-2.712 I0. J-0.597
Y14.297 Z-2.722 I0. J0.597
Y13.103 Z-2.731 I0. J-0.597
Y14.297 Z-2.741 I0. J0.597
Y13.103 Z-2.75 I0. J-0.597
Y14.297 Z-2.76 I0. J0.597
Y13.103 Z-2.769 I0. J-0.597
Y14.297 Z-2.779 I0. J0.597
Y13.103 Z-2.788 I0. J-0.597
Y14.297 Z-2.798 I0. J0.597
Y13.103 Z-2.807 I0. J-0.597
Y14.297 Z-2.817 I0. J0.597
Y13.103 Z-2.826 I0. J-0.597
Y14.297 Z-2.836 I0. J0.597
Y13.103 Z-2.845 I0. J-0.597
Y14.297 Z-2.855 I0. J0.597
Y13.103 Z-2.865 I0. J-0.597
Y14.297 Z-2.874 I0. J0.597
Y13.103 Z-2.884 I0. J-0.597
Y14.297 Z-2.893 I0. J0.597
Y13.103 Z-2.903 I0. J-0.597
Y14.297 Z-2.912 I0. J0.597
Y13.103 Z-2.922 I0. J-0.597
Y14.297 Z-2.931 I0. J0.597
Y13.103 Z-2.941 I0. J-0.597
Y14.297 Z-2.95 I0. J0.597
Y13.103 Z-2.96 I0. J-0.597
Y14.297 Z-2.969 I0. J0.597
Y13.103 Z-2.979 I0. J-0.597
Y14.297 Z-2.988 I0. J0.597
Y13.103 Z-2.998 I0. J-0.597
Y14.297 Z-3.008 I0. J0.597
Y13.103 Z-3.017 I0. J-0.597
Y14.297 Z-3.027 I0. J0.597
Y13.103 Z-3.036 I0. J-0.597
Y14.297 Z-3.046 I0. J0.597
Y13.103 Z-3.055 I0. J-0.597
Y14.297 Z-3.065 I0. J0.597
Y13.103 Z-3.074 I0. J-0.597
Y14.297 Z-3.084 I0. J0.597
Y13.103 Z-3.093 I0. J-0.597
Y14.297 Z-3.103 I0. J0.597
Y13.103 Z-3.112 I0. J-0.597
Y14.297 Z-3.122 I0. J0.597
Y13.103 Z-3.131 I0. J-0.597
Y14.297 Z-3.141 I0. J0.597
Y13.103 Z-3.15 I0. J-0.597
Y14.297 Z-3.16 I0. J0.597
Y13.103 Z-3.17 I0. J-0.597
Y14.297 Z-3.179 I0. J0.597
Y13.103 Z-3.189 I0. J-0.597
Y14.297 Z-3.198 I0. J0.597
Y13.103 Z-3.208 I0. J-0.597
Y14.297 Z-3.217 I0. J0.597
Y13.103 Z-3.227 I0. J-0.597
Y14.297 Z-3.236 I0. J0.597
Y13.103 Z-3.246 I0. J-0.597
Y14.297 Z-3.255 I0. J0.597
Y13.103 Z-3.265 I0. J-0.597
Y14.297 Z-3.274 I0. J0.597
Y13.103 Z-3.284 I0. J-0.597
Y14.297 Z-3.293 I0. J0.597
Y13.103 Z-3.303 I0. J-0.597
Y14.297 Z-3.313 I0. J0.597
Y13.103 Z-3.322 I0. J-0.597
Y14.297 Z-3.332 I0. J0.597
Y13.103 Z-3.341 I0. J-0.597
Y14.297 Z-3.351 I0. J0.597
Y13.103 Z-3.36 I0. J-0.597
Y14.297 Z-3.37 I0. J0.597
X101.009 Y13.597 Z-3.375 I0. J-0.597
X99.833 Y13.803 I-0.588 J0.103
X101.009 Y13.597 I0.588 J-0.103
X100.664 Y13.355 I-0.294 J0.051
G1 X100.507 Y13.382
X100.438 Y13.394 Z-3.367
X100.372 Y13.406 Z-3.344
X100.312 Y13.416 Z-3.306
X100.263 Y13.425 Z-3.255
X100.225 Y13.431 Z-3.195
X100.202 Y13.435 Z-3.128
X100.194 Y13.437 Z-3.057
G0 Z5.
X38.802 Y13.522
Z2.5
G1 Z0.817 F800.
Y13.53 Z0.747
Y13.554 Z0.68
Y13.591 Z0.62
Y13.642 Z0.569
Y13.702 Z0.531
Y13.769 Z0.508
Y13.84 Z0.5
Y13.998
G2 X39.1 Y14.297 I0.298 J0.
Y13.103 Z0.49 I0. J-0.597
Y14.297 Z0.481 I0. J0.597
Y13.103 Z0.471 I0. J-0.597
Y14.297 Z0.462 I0. J0.597
Y13.103 Z0.452 I0. J-0.597
Y14.297 Z0.443 I0. J0.597
Y13.103 Z0.433 I0. J-0.597
Y14.297 Z0.424 I0. J0.597
Y13.103 Z0.414 I0. J-0.597
Y14.297 Z0.405 I0. J0.597
Y13.103 Z0.395 I0. J-0.597
Y14.297 Z0.386 I0. J0.597
Y13.103 Z0.376 I0. J-0.597
Y14.297 Z0.367 I0. J0.597
Y13.103 Z0.357 I0. J-0.597
Y14.297 Z0.347 I0. J0.597
Y13.103 Z0.338 I0. J-0.597
Y14.297 Z0.328 I0. J0.597
Y13.103 Z0.319 I0. J-0.597
Y14.297 Z0.309 I0. J0.597
Y13.103 Z0.3 I0. J-0.597
Y14.297 Z0.29 I0. J0.597
Y13.103 Z0.281 I0. J-0.597
Y14.297 Z0.271 I0. J0.597
Y13.103 Z0.262 I0. J-0.597
Y14.297 Z0.252 I0. J0.597
Y13.103 Z0.243 I0. J-0.597
Y14.297 Z0.233 I0. J0.597
Y13.103 Z0.224 I0. J-0.597
Y14.297 Z0.214 I0. J0.597
Y13.103 Z0.205 I0. J-0.597
Y14.297 Z0.195 I0. J0.597
Y13.103 Z0.185 I0. J-0.597
Y14.297 Z0.176 I0. J0.597
Y13.103 Z0.166 I0. J-0.597
Y14.297 Z0.157 I0. J0.597
Y13.103 Z0.147 I0. J-0.597
Y14.297 Z0.138 I0. J0.597
Y13.103 Z0.128 I0. J-0.597
Y14.297 Z0.119 I0. J0.597
Y13.103 Z0.109 I0. J-0.597
Y14.297 Z0.1 I0. J0.597
Y13.103 Z0.09 I0. J-0.597
Y14.297 Z0.081 I0. J0.597
Y13.103 Z0.071 I0. J-0.597
Y14.297 Z0.062 I0. J0.597
Y13.103 Z0.052 I0. J-0.597
Y14.297 Z0.042 I0. J0.597
Y13.103 Z0.033 I0. J-0.597
Y14.297 Z0.023 I0. J0.597
Y13.103 Z0.014 I0. J-0.597
Y14.297 Z0.004 I0. J0.597
Y13.103 Z-0.005 I0. J-0.597
Y14.297 Z-0.015 I0. J0.597
Y13.103 Z-0.024 I0. J-0.597
Y14.297 Z-0.034 I0. J0.597
Y13.103 Z-0.043 I0. J-0.597
Y14.297 Z-0.053 I0. J0.597
Y13.103 Z-0.062 I0. J-0.597
Y14.297 Z-0.072 I0. J0.597
Y13.103 Z-0.081 I0. J-0.597
Y14.297 Z-0.091 I0. J0.597
Y13.103 Z-0.1 I0. J-0.597
Y14.297 Z-0.11 I0. J0.597
Y13.103 Z-0.12 I0. J-0.597
Y14.297 Z-0.129 I0. J0.597
Y13.103 Z-0.139 I0. J-0.597
Y14.297 Z-0.148 I0. J0.597
Y13.103 Z-0.158 I0. J-0.597
Y14.297 Z-0.167 I0. J0.597
Y13.103 Z-0.177 I0. J-0.597
Y14.297 Z-0.186 I0. J0.597
Y13.103 Z-0.196 I0. J-0.597
Y14.297 Z-0.205 I0. J0.597
Y13.103 Z-0.215 I0. J-0.597
Y14.297 Z-0.224 I0. J0.597
Y13.103 Z-0.234 I0. J-0.597
Y14.297 Z-0.243 I0. J0.597
Y13.103 Z-0.253 I0. J-0.597
Y14.297 Z-0.263 I0. J0.597
Y13.103 Z-0.272 I0. J-0.597
Y14.297 Z-0.282 I0. J0.597
Y13.103 Z-0.291 I0. J-0.597
Y14.297 Z-0.301 I0. J0.597
Y13.103 Z-0.31 I0. J-0.597
Y14.297 Z-0.32 I0. J0.597
Y13.103 Z-0.329 I0. J-0.597
Y14.297 Z-0.339 I0. J0.597
Y13.103 Z-0.348 I0. J-0.597
Y14.297 Z-0.358 I0. J0.597
Y13.103 Z-0.367 I0. J-0.597
Y14.297 Z-0.377 I0. J0.597
Y13.103 Z-0.386 I0. J-0.597
Y14.297 Z-0.396 I0. J0.597
Y13.103 Z-0.405 I0. J-0.597
Y14.297 Z-0.415 I0. J0.597
Y13.103 Z-0.425 I0. J-0.597
Y14.297 Z-0.434 I0. J0.597
Y13.103 Z-0.444 I0. J-0.597
Y14.297 Z-0.453 I0. J0.597
Y13.103 Z-0.463 I0. J-0.597
Y14.297 Z-0.472 I0. J0.597
Y13.103 Z-0.482 I0. J-0.597
Y14.297 Z-0.491 I0. J0.597
Y13.103 Z-0.501 I0. J-0.597
Y14.297 Z-0.51 I0. J0.597
Y13.103 Z-0.52 I0. J-0.597
Y14.297 Z-0.529 I0. J0.597
Y13.103 Z-0.539 I0. J-0.597
Y14.297 Z-0.548 I0. J0.597
Y13.103 Z-0.558 I0. J-0.597
Y14.297 Z-0.568 I0. J0.597
Y13.103 Z-0.577 I0. J-0.597
Y14.297 Z-0.587 I0. J0.597
Y13.103 Z-0.596 I0. J-0.597
Y14.297 Z-0.606 I0. J0.597
Y13.103 Z-0.615 I0. J-0.597
Y14.297 Z-0.625 I0. J0.597
Y13.103 Z-0.634 I0. J-0.597
Y14.297 Z-0.644 I0. J0.597
Y13.103 Z-0.653 I0. J-0.597
Y14.297 Z-0.663 I0. J0.597
Y13.103 Z-0.672 I0. J-0.597
Y14.297 Z-0.682 I0. J0.597
Y13.103 Z-0.691 I0. J-0.597
Y14.297 Z-0.701 I0. J0.597
Y13.103 Z-0.71 I0. J-0.597
Y14.297 Z-0.72 I0. J0.597
Y13.103 Z-0.73 I0. J-0.597
Y14.297 Z-0.739 I0. J0.597
Y13.103 Z-0.749 I0. J-0.597
Y14.297 Z-0.758 I0. J0.597
Y13.103 Z-0.768 I0. J-0.597
Y14.297 Z-0.777 I0. J0.597
Y13.103 Z-0.787 I0. J-0.597
Y14.297 Z-0.796 I0. J0.597
Y13.103 Z-0.806 I0. J-0.597
Y14.297 Z-0.815 I0. J0.597
Y13.103 Z-0.825 I0. J-0.597
Y14.297 Z-0.834 I0. J0.597
Y13.103 Z-0.844 I0. J-0.597
Y14.297 Z-0.853 I0. J0.597
Y13.103 Z-0.863 I0. J-0.597
Y14.297 Z-0.873 I0. J0.597
Y13.103 Z-0.882 I0. J-0.597
Y14.297 Z-0.892 I0. J0.597
Y13.103 Z-0.901 I0. J-0.597
Y14.297 Z-0.911 I0. J0.597
Y13.103 Z-0.92 I0. J-0.597
Y14.297 Z-0.93 I0. J0.597
Y13.103 Z-0.939 I0. J-0.597
Y14.297 Z-0.949 I0. J0.597
Y13.103 Z-0.958 I0. J-0.597
Y14.297 Z-0.968 I0. J0.597
Y13.103 Z-0.977 I0. J-0.597
Y14.297 Z-0.987 I0. J0.597
Y13.103 Z-0.996 I0. J-0.597
Y14.297 Z-1.006 I0. J0.597
Y13.103 Z-1.015 I0. J-0.597
Y14.297 Z-1.025 I0. J0.597
Y13.103 Z-1.035 I0. J-0.597
Y14.297 Z-1.044 I0. J0.597
Y13.103 Z-1.054 I0. J-0.597
Y14.297 Z-1.063 I0. J0.597
Y13.103 Z-1.073 I0. J-0.597
Y14.297 Z-1.082 I0. J0.597
Y13.103 Z-1.092 I0. J-0.597
Y14.297 Z-1.101 I0. J0.597
Y13.103 Z-1.111 I0. J-0.597
Y14.297 Z-1.12 I0. J0.597
Y13.103 Z-1.13 I0. J-0.597
Y14.297 Z-1.139 I0. J0.597
Y13.103 Z-1.149 I0. J-0.597
Y14.297 Z-1.158 I0. J0.597
Y13.103 Z-1.168 I0. J-0.597
Y14.297 Z-1.178 I0. J0.597
Y13.103 Z-1.187 I0. J-0.597
Y14.297 Z-1.197 I0. J0.597
Y13.103 Z-1.206 I0. J-0.597
Y14.297 Z-1.216 I0. J0.597
Y13.103 Z-1.225 I0. J-0.597
Y14.297 Z-1.235 I0. J0.597
Y13.103 Z-1.244 I0. J-0.597
Y14.297 Z-1.254 I0. J0.597
Y13.103 Z-1.263 I0. J-0.597
Y14.297 Z-1.273 I0. J0.597
Y13.103 Z-1.282 I0. J-0.597
Y14.297 Z-1.292 I0. J0.597
Y13.103 Z-1.301 I0. J-0.597
Y14.297 Z-1.311 I0. J0.597
Y13.103 Z-1.32 I0. J-0.597
Y14.297 Z-1.33 I0. J0.597
Y13.103 Z-1.34 I0. J-0.597
Y14.297 Z-1.349 I0. J0.597
Y13.103 Z-1.359 I0. J-0.597
Y14.297 Z-1.368 I0. J0.597
Y13.103 Z-1.378 I0. J-0.597
Y14.297 Z-1.387 I0. J0.597
Y13.103 Z-1.397 I0. J-0.597
Y14.297 Z-1.406 I0. J0.597
Y13.103 Z-1.416 I0. J-0.597
Y14.297 Z-1.425 I0. J0.597
Y13.103 Z-1.435 I0. J-0.597
Y14.297 Z-1.444 I0. J0.597
Y13.103 Z-1.454 I0. J-0.597
Y14.297 Z-1.463 I0. J0.597
Y13.103 Z-1.473 I0. J-0.597
Y14.297 Z-1.483 I0. J0.597
Y13.103 Z-1.492 I0. J-0.597
Y14.297 Z-1.502 I0. J0.597
Y13.103 Z-1.511 I0. J-0.597
Y14.297 Z-1.521 I0. J0.597
Y13.103 Z-1.53 I0. J-0.597
Y14.297 Z-1.54 I0. J0.597
Y13.103 Z-1.549 I0. J-0.597
Y14.297 Z-1.559 I0. J0.597
Y13.103 Z-1.568 I0. J-0.597
Y14.297 Z-1.578 I0. J0.597
Y13.103 Z-1.587 I0. J-0.597
Y14.297 Z-1.597 I0. J0.597
Y13.103 Z-1.606 I0. J-0.597
Y14.297 Z-1.616 I0. J0.597
Y13.103 Z-1.625 I0. J-0.597
Y14.297 Z-1.635 I0. J0.597
Y13.103 Z-1.645 I0. J-0.597
Y14.297 Z-1.654 I0. J0.597
Y13.103 Z-1.664 I0. J-0.597
Y14.297 Z-1.673 I0. J0.597
Y13.103 Z-1.683 I0. J-0.597
Y14.297 Z-1.692 I0. J0.597
Y13.103 Z-1.702 I0. J-0.597
Y14.297 Z-1.711 I0. J0.597
Y13.103 Z-1.721 I0. J-0.597
Y14.297 Z-1.73 I0. J0.597
Y13.103 Z-1.74 I0. J-0.597
Y14.297 Z-1.749 I0. J0.597
Y13.103 Z-1.759 I0. J-0.597
Y14.297 Z-1.768 I0. J0.597
Y13.103 Z-1.778 I0. J-0.597
Y14.297 Z-1.788 I0. J0.597
Y13.103 Z-1.797 I0. J-0.597
Y14.297 Z-1.807 I0. J0.597
Y13.103 Z-1.816 I0. J-0.597
Y14.297 Z-1.826 I0. J0.597
Y13.103 Z-1.835 I0. J-0.597
Y14.297 Z-1.845 I0. J0.597
Y13.103 Z-1.854 I0. J-0.597
Y14.297 Z-1.864 I0. J0.597
Y13.103 Z-1.873 I0. J-0.597
Y14.297 Z-1.883 I0. J0.597
Y13.103 Z-1.892 I0. J-0.597
Y14.297 Z-1.902 I0. J0.597
Y13.103 Z-1.911 I0. J-0.597
Y14.297 Z-1.921 I0. J0.597
Y13.103 Z-1.93 I0. J-0.597
Y14.297 Z-1.94 I0. J0.597
Y13.103 Z-1.95 I0. J-0.597
Y14.297 Z-1.959 I0. J0.597
Y13.103 Z-1.969 I0. J-0.597
Y14.297 Z-1.978 I0. J0.597
Y13.103 Z-1.988 I0. J-0.597
Y14.297 Z-1.997 I0. J0.597
Y13.103 Z-2.007 I0. J-0.597
Y14.297 Z-2.016 I0. J0.597
Y13.103 Z-2.026 I0. J-0.597
Y14.297 Z-2.035 I0. J0.597
Y13.103 Z-2.045 I0. J-0.597
Y14.297 Z-2.054 I0. J0.597
Y13.103 Z-2.064 I0. J-0.597
Y14.297 Z-2.073 I0. J0.597
Y13.103 Z-2.083 I0. J-0.597
Y14.297 Z-2.093 I0. J0.597
Y13.103 Z-2.102 I0. J-0.597
Y14.297 Z-2.112 I0. J0.597
Y13.103 Z-2.121 I0. J-0.597
Y14.297 Z-2.131 I0. J0.597
Y13.103 Z-2.14 I0. J-0.597
Y14.297 Z-2.15 I0. J0.597
Y13.103 Z-2.159 I0. J-0.597
Y14.297 Z-2.169 I0. J0.597
Y13.103 Z-2.178 I0. J-0.597
Y14.297 Z-2.188 I0. J0.597
Y13.103 Z-2.197 I0. J-0.597
Y14.297 Z-2.207 I0. J0.597
Y13.103 Z-2.216 I0. J-0.597
Y14.297 Z-2.226 I0. J0.597
Y13.103 Z-2.235 I0. J-0.597
Y14.297 Z-2.245 I0. J0.597
Y13.103 Z-2.255 I0. J-0.597
Y14.297 Z-2.264 I0. J0.597
Y13.103 Z-2.274 I0. J-0.597
Y14.297 Z-2.283 I0. J0.597
Y13.103 Z-2.293 I0. J-0.597
Y14.297 Z-2.302 I0. J0.597
Y13.103 Z-2.312 I0. J-0.597
Y14.297 Z-2.321 I0. J0.597
Y13.103 Z-2.331 I0. J-0.597
Y14.297 Z-2.34 I0. J0.597
Y13.103 Z-2.35 I0. J-0.597
Y14.297 Z-2.359 I0. J0.597
Y13.103 Z-2.369 I0. J-0.597
Y14.297 Z-2.378 I0. J0.597
Y13.103 Z-2.388 I0. J-0.597
Y14.297 Z-2.398 I0. J0.597
Y13.103 Z-2.407 I0. J-0.597
Y14.297 Z-2.417 I0. J0.597
Y13.103 Z-2.426 I0. J-0.597
Y14.297 Z-2.436 I0. J0.597
Y13.103 Z-2.445 I0. J-0.597
Y14.297 Z-2.455 I0. J0.597
Y13.103 Z-2.464 I0. J-0.597
Y14.297 Z-2.474 I0. J0.597
Y13.103 Z-2.483 I0. J-0.597
Y14.297 Z-2.493 I0. J0.597
Y13.103 Z-2.502 I0. J-0.597
Y14.297 Z-2.512 I0. J0.597
Y13.103 Z-2.521 I0. J-0.597
Y14.297 Z-2.531 I0. J0.597
Y13.103 Z-2.54 I0. J-0.597
Y14.297 Z-2.55 I0. J0.597
Y13.103 Z-2.56 I0. J-0.597
Y14.297 Z-2.569 I0. J0.597
Y13.103 Z-2.579 I0. J-0.597
Y14.297 Z-2.588 I0. J0.597
Y13.103 Z-2.598 I0. J-0.597
Y14.297 Z-2.607 I0. J0.597
Y13.103 Z-2.617 I0. J-0.597
Y14.297 Z-2.626 I0. J0.597
Y13.103 Z-2.636 I0. J-0.597
Y14.297 Z-2.645 I0. J0.597
Y13.103 Z-2.655 I0. J-0.597
Y14.297 Z-2.664 I0. J0.597
Y13.103 Z-2.674 I0. J-0.597
Y14.297 Z-2.683 I0. J0.597
Y13.103 Z-2.693 I0. J-0.597
Y14.297 Z-2.703 I0. J0.597
Y13.103 Z-2.712 I0. J-0.597
Y14.297 Z-2.722 I0. J0.597
Y13.103 Z-2.731 I0. J-0.597
Y14.297 Z-2.741 I0. J0.597
Y13.103 Z-2.75 I0. J-0.597
Y14.297 Z-2.76 I0. J0.597
Y13.103 Z-2.769 I0. J-0.597
Y14.297 Z-2.779 I0. J0.597
Y13.103 Z-2.788 I0. J-0.597
Y14.297 Z-2.798 I0. J0.597
Y13.103 Z-2.807 I0. J-0.597
Y14.297 Z-2.817 I0. J0.597
Y13.103 Z-2.826 I0. J-0.597
Y14.297 Z-2.836 I0. J0.597
Y13.103 Z-2.845 I0. J-0.597
Y14.297 Z-2.855 I0. J0.597
Y13.103 Z-2.865 I0. J-0.597
Y14.297 Z-2.874 I0. J0.597
Y13.103 Z-2.884 I0. J-0.597
Y14.297 Z-2.893 I0. J0.597
Y13.103 Z-2.903 I0. J-0.597
Y14.297 Z-2.912 I0. J0.597
Y13.103 Z-2.922 I0. J-0.597
Y14.297 Z-2.931 I0. J0.597
Y13.103 Z-2.941 I0. J-0.597
Y14.297 Z-2.95 I0. J0.597
Y13.103 Z-2.96 I0. J-0.597
Y14.297 Z-2.969 I0. J0.597
Y13.103 Z-2.979 I0. J-0.597
Y14.297 Z-2.988 I0. J0.597
Y13.103 Z-2.998 I0. J-0.597
Y14.297 Z-3.008 I0. J0.597
Y13.103 Z-3.017 I0. J-0.597
Y14.297 Z-3.027 I0. J0.597
Y13.103 Z-3.036 I0. J-0.597
Y14.297 Z-3.046 I0. J0.597
Y13.103 Z-3.055 I0. J-0.597
Y14.297 Z-3.065 I0. J0.597
Y13.103 Z-3.074 I0. J-0.597
Y14.297 Z-3.084 I0. J0.597
Y13.103 Z-3.093 I0. J-0.597
Y14.297 Z-3.103 I0. J0.597
Y13.103 Z-3.112 I0. J-0.597
Y14.297 Z-3.122 I0. J0.597
Y13.103 Z-3.131 I0. J-0.597
Y14.297 Z-3.141 I0. J0.597
Y13.103 Z-3.15 I0. J-0.597
Y14.297 Z-3.16 I0. J0.597
Y13.103 Z-3.17 I0. J-0.597
Y14.297 Z-3.179 I0. J0.597
Y13.103 Z-3.189 I0. J-0.597
Y14.297 Z-3.198 I0. J0.597
Y13.103 Z-3.208 I0. J-0.597
Y14.297 Z-3.217 I0. J0.597
Y13.103 Z-3.227 I0. J-0.597
Y14.297 Z-3.236 I0. J0.597
Y13.103 Z-3.246 I0. J-0.597
Y14.297 Z-3.255 I0. J0.597
Y13.103 Z-3.265 I0. J-0.597
Y14.297 Z-3.274 I0. J0.597
Y13.103 Z-3.284 I0. J-0.597
Y14.297 Z-3.293 I0. J0.597
Y13.103 Z-3.303 I0. J-0.597
Y14.297 Z-3.313 I0. J0.597
Y13.103 Z-3.322 I0. J-0.597
Y14.297 Z-3.332 I0. J0.597
Y13.103 Z-3.341 I0. J-0.597
Y14.297 Z-3.351 I0. J0.597
Y13.103 Z-3.36 I0. J-0.597
Y14.297 Z-3.37 I0. J0.597
X39.688 Y13.597 Z-3.375 I0. J-0.597
X38.512 Y13.803 I-0.588 J0.103
X39.688 Y13.597 I0.588 J-0.103
X39.343 Y13.355 I-0.294 J0.051
G1 X39.186 Y13.382
X39.117 Y13.394 Z-3.367
X39.051 Y13.406 Z-3.344
X38.991 Y13.416 Z-3.306
X38.942 Y13.425 Z-3.255
X38.904 Y13.431 Z-3.195
X38.881 Y13.435 Z-3.128
X38.873 Y13.437 Z-3.057
G0 Z5.
X13.402 Y13.522
Z2.5
G1 Z0.817 F800.
Y13.53 Z0.747
Y13.554 Z0.68
Y13.591 Z0.62
Y13.642 Z0.569
Y13.702 Z0.531
Y13.769 Z0.508
Y13.84 Z0.5
Y13.998
G2 X13.7 Y14.297 I0.298 J0.
Y13.103 Z0.49 I0. J-0.597
Y14.297 Z0.481 I0. J0.597
Y13.103 Z0.471 I0. J-0.597
Y14.297 Z0.462 I0. J0.597
Y13.103 Z0.452 I0. J-0.597
Y14.297 Z0.443 I0. J0.597
Y13.103 Z0.433 I0. J-0.597
Y14.297 Z0.424 I0. J0.597
Y13.103 Z0.414 I0. J-0.597
Y14.297 Z0.405 I0. J0.597
Y13.103 Z0.395 I0. J-0.597
Y14.297 Z0.386 I0. J0.597
Y13.103 Z0.376 I0. J-0.597
Y14.297 Z0.367 I0. J0.597
Y13.103 Z0.357 I0. J-0.597
Y14.297 Z0.347 I0. J0.597
Y13.103 Z0.338 I0. J-0.597
Y14.297 Z0.328 I0. J0.597
Y13.103 Z0.319 I0. J-0.597
Y14.297 Z0.309 I0. J0.597
Y13.103 Z0.3 I0. J-0.597
Y14.297 Z0.29 I0. J0.597
Y13.103 Z0.281 I0. J-0.597
Y14.297 Z0.271 I0. J0.597
Y13.103 Z0.262 I0. J-0.597
Y14.297 Z0.252 I0. J0.597
Y13.103 Z0.243 I0. J-0.597
Y14.297 Z0.233 I0. J0.597
Y13.103 Z0.224 I0. J-0.597
Y14.297 Z0.214 I0. J0.597
Y13.103 Z0.205 I0. J-0.597
Y14.297 Z0.195 I0. J0.597
Y13.103 Z0.185 I0. J-0.597
Y14.297 Z0.176 I0. J0.597
Y13.103 Z0.166 I0. J-0.597
Y14.297 Z0.157 I0. J0.597
Y13.103 Z0.147 I0. J-0.597
Y14.297 Z0.138 I0. J0.597
Y13.103 Z0.128 I0. J-0.597
Y14.297 Z0.119 I0. J0.597
Y13.103 Z0.109 I0. J-0.597
Y14.297 Z0.1 I0. J0.597
Y13.103 Z0.09 I0. J-0.597
Y14.297 Z0.081 I0. J0.597
Y13.103 Z0.071 I0. J-0.597
Y14.297 Z0.062 I0. J0.597
Y13.103 Z0.052 I0. J-0.597
Y14.297 Z0.042 I0. J0.597
Y13.103 Z0.033 I0. J-0.597
Y14.297 Z0.023 I0. J0.597
Y13.103 Z0.014 I0. J-0.597
Y14.297 Z0.004 I0. J0.597
Y13.103 Z-0.005 I0. J-0.597
Y14.297 Z-0.015 I0. J0.597
Y13.103 Z-0.024 I0. J-0.597
Y14.297 Z-0.034 I0. J0.597
Y13.103 Z-0.043 I0. J-0.597
Y14.297 Z-0.053 I0. J0.597
Y13.103 Z-0.062 I0. J-0.597
Y14.297 Z-0.072 I0. J0.597
Y13.103 Z-0.081 I0. J-0.597
Y14.297 Z-0.091 I0. J0.597
Y13.103 Z-0.1 I0. J-0.597
Y14.297 Z-0.11 I0. J0.597
Y13.103 Z-0.12 I0. J-0.597
Y14.297 Z-0.129 I0. J0.597
Y13.103 Z-0.139 I0. J-0.597
Y14.297 Z-0.148 I0. J0.597
Y13.103 Z-0.158 I0. J-0.597
Y14.297 Z-0.167 I0. J0.597
Y13.103 Z-0.177 I0. J-0.597
Y14.297 Z-0.186 I0. J0.597
Y13.103 Z-0.196 I0. J-0.597
Y14.297 Z-0.205 I0. J0.597
Y13.103 Z-0.215 I0. J-0.597
Y14.297 Z-0.224 I0. J0.597
Y13.103 Z-0.234 I0. J-0.597
Y14.297 Z-0.243 I0. J0.597
Y13.103 Z-0.253 I0. J-0.597
Y14.297 Z-0.263 I0. J0.597
Y13.103 Z-0.272 I0. J-0.597
Y14.297 Z-0.282 I0. J0.597
Y13.103 Z-0.291 I0. J-0.597
Y14.297 Z-0.301 I0. J0.597
Y13.103 Z-0.31 I0. J-0.597
Y14.297 Z-0.32 I0. J0.597
Y13.103 Z-0.329 I0. J-0.597
Y14.297 Z-0.339 I0. J0.597
Y13.103 Z-0.348 I0. J-0.597
Y14.297 Z-0.358 I0. J0.597
Y13.103 Z-0.367 I0. J-0.597
Y14.297 Z-0.377 I0. J0.597
Y13.103 Z-0.386 I0. J-0.597
Y14.297 Z-0.396 I0. J0.597
Y13.103 Z-0.405 I0. J-0.597
Y14.297 Z-0.415 I0. J0.597
Y13.103 Z-0.425 I0. J-0.597
Y14.297 Z-0.434 I0. J0.597
Y13.103 Z-0.444 I0. J-0.597
Y14.297 Z-0.453 I0. J0.597
Y13.103 Z-0.463 I0. J-0.597
Y14.297 Z-0.472 I0. J0.597
Y13.103 Z-0.482 I0. J-0.597
Y14.297 Z-0.491 I0. J0.597
Y13.103 Z-0.501 I0. J-0.597
Y14.297 Z-0.51 I0. J0.597
Y13.103 Z-0.52 I0. J-0.597
Y14.297 Z-0.529 I0. J0.597
Y13.103 Z-0.539 I0. J-0.597
Y14.297 Z-0.548 I0. J0.597
Y13.103 Z-0.558 I0. J-0.597
Y14.297 Z-0.568 I0. J0.597
Y13.103 Z-0.577 I0. J-0.597
Y14.297 Z-0.587 I0. J0.597
Y13.103 Z-0.596 I0. J-0.597
Y14.297 Z-0.606 I0. J0.597
Y13.103 Z-0.615 I0. J-0.597
Y14.297 Z-0.625 I0. J0.597
Y13.103 Z-0.634 I0. J-0.597
Y14.297 Z-0.644 I0. J0.597
Y13.103 Z-0.653 I0. J-0.597
Y14.297 Z-0.663 I0. J0.597
Y13.103 Z-0.672 I0. J-0.597
Y14.297 Z-0.682 I0. J0.597
Y13.103 Z-0.691 I0. J-0.597
Y14.297 Z-0.701 I0. J0.597
Y13.103 Z-0.71 I0. J-0.597
Y14.297 Z-0.72 I0. J0.597
Y13.103 Z-0.73 I0. J-0.597
Y14.297 Z-0.739 I0. J0.597
Y13.103 Z-0.749 I0. J-0.597
Y14.297 Z-0.758 I0. J0.597
Y13.103 Z-0.768 I0. J-0.597
Y14.297 Z-0.777 I0. J0.597
Y13.103 Z-0.787 I0. J-0.597
Y14.297 Z-0.796 I0. J0.597
Y13.103 Z-0.806 I0. J-0.597
Y14.297 Z-0.815 I0. J0.597
Y13.103 Z-0.825 I0. J-0.597
Y14.297 Z-0.834 I0. J0.597
Y13.103 Z-0.844 I0. J-0.597
Y14.297 Z-0.853 I0. J0.597
Y13.103 Z-0.863 I0. J-0.597
Y14.297 Z-0.873 I0. J0.597
Y13.103 Z-0.882 I0. J-0.597
Y14.297 Z-0.892 I0. J0.597
Y13.103 Z-0.901 I0. J-0.597
Y14.297 Z-0.911 I0. J0.597
Y13.103 Z-0.92 I0. J-0.597
Y14.297 Z-0.93 I0. J0.597
Y13.103 Z-0.939 I0. J-0.597
Y14.297 Z-0.949 I0. J0.597
Y13.103 Z-0.958 I0. J-0.597
Y14.297 Z-0.968 I0. J0.597
Y13.103 Z-0.977 I0. J-0.597
Y14.297 Z-0.987 I0. J0.597
Y13.103 Z-0.996 I0. J-0.597
Y14.297 Z-1.006 I0. J0.597
Y13.103 Z-1.015 I0. J-0.597
Y14.297 Z-1.025 I0. J0.597
Y13.103 Z-1.035 I0. J-0.597
Y14.297 Z-1.044 I0. J0.597
Y13.103 Z-1.054 I0. J-0.597
Y14.297 Z-1.063 I0. J0.597
Y13.103 Z-1.073 I0. J-0.597
Y14.297 Z-1.082 I0. J0.597
Y13.103 Z-1.092 I0. J-0.597
Y14.297 Z-1.101 I0. J0.597
Y13.103 Z-1.111 I0. J-0.597
Y14.297 Z-1.12 I0. J0.597
Y13.103 Z-1.13 I0. J-0.597
Y14.297 Z-1.139 I0. J0.597
Y13.103 Z-1.149 I0. J-0.597
Y14.297 Z-1.158 I0. J0.597
Y13.103 Z-1.168 I0. J-0.597
Y14.297 Z-1.178 I0. J0.597
Y13.103 Z-1.187 I0. J-0.597
Y14.297 Z-1.197 I0. J0.597
Y13.103 Z-1.206 I0. J-0.597
Y14.297 Z-1.216 I0. J0.597
Y13.103 Z-1.225 I0. J-0.597
Y14.297 Z-1.235 I0. J0.597
Y13.103 Z-1.244 I0. J-0.597
Y14.297 Z-1.254 I0. J0.597
Y13.103 Z-1.263 I0. J-0.597
Y14.297 Z-1.273 I0. J0.597
Y13.103 Z-1.282 I0. J-0.597
Y14.297 Z-1.292 I0. J0.597
Y13.103 Z-1.301 I0. J-0.597
Y14.297 Z-1.311 I0. J0.597
Y13.103 Z-1.32 I0. J-0.597
Y14.297 Z-1.33 I0. J0.597
Y13.103 Z-1.34 I0. J-0.597
Y14.297 Z-1.349 I0. J0.597
Y13.103 Z-1.359 I0. J-0.597
Y14.297 Z-1.368 I0. J0.597
Y13.103 Z-1.378 I0. J-0.597
Y14.297 Z-1.387 I0. J0.597
Y13.103 Z-1.397 I0. J-0.597
Y14.297 Z-1.406 I0. J0.597
Y13.103 Z-1.416 I0. J-0.597
Y14.297 Z-1.425 I0. J0.597
Y13.103 Z-1.435 I0. J-0.597
Y14.297 Z-1.444 I0. J0.597
Y13.103 Z-1.454 I0. J-0.597
Y14.297 Z-1.463 I0. J0.597
Y13.103 Z-1.473 I0. J-0.597
Y14.297 Z-1.483 I0. J0.597
Y13.103 Z-1.492 I0. J-0.597
Y14.297 Z-1.502 I0. J0.597
Y13.103 Z-1.511 I0. J-0.597
Y14.297 Z-1.521 I0. J0.597
Y13.103 Z-1.53 I0. J-0.597
Y14.297 Z-1.54 I0. J0.597
Y13.103 Z-1.549 I0. J-0.597
Y14.297 Z-1.559 I0. J0.597
Y13.103 Z-1.568 I0. J-0.597
Y14.297 Z-1.578 I0. J0.597
Y13.103 Z-1.587 I0. J-0.597
Y14.297 Z-1.597 I0. J0.597
Y13.103 Z-1.606 I0. J-0.597
Y14.297 Z-1.616 I0. J0.597
Y13.103 Z-1.625 I0. J-0.597
Y14.297 Z-1.635 I0. J0.597
Y13.103 Z-1.645 I0. J-0.597
Y14.297 Z-1.654 I0. J0.597
Y13.103 Z-1.664 I0. J-0.597
Y14.297 Z-1.673 I0. J0.597
Y13.103 Z-1.683 I0. J-0.597
Y14.297 Z-1.692 I0. J0.597
Y13.103 Z-1.702 I0. J-0.597
Y14.297 Z-1.711 I0. J0.597
Y13.103 Z-1.721 I0. J-0.597
Y14.297 Z-1.73 I0. J0.597
Y13.103 Z-1.74 I0. J-0.597
Y14.297 Z-1.749 I0. J0.597
Y13.103 Z-1.759 I0. J-0.597
Y14.297 Z-1.768 I0. J0.597
Y13.103 Z-1.778 I0. J-0.597
Y14.297 Z-1.788 I0. J0.597
Y13.103 Z-1.797 I0. J-0.597
Y14.297 Z-1.807 I0. J0.597
Y13.103 Z-1.816 I0. J-0.597
Y14.297 Z-1.826 I0. J0.597
Y13.103 Z-1.835 I0. J-0.597
Y14.297 Z-1.845 I0. J0.597
Y13.103 Z-1.854 I0. J-0.597
Y14.297 Z-1.864 I0. J0.597
Y13.103 Z-1.873 I0. J-0.597
Y14.297 Z-1.883 I0. J0.597
Y13.103 Z-1.892 I0. J-0.597
Y14.297 Z-1.902 I0. J0.597
Y13.103 Z-1.911 I0. J-0.597
Y14.297 Z-1.921 I0. J0.597
Y13.103 Z-1.93 I0. J-0.597
Y14.297 Z-1.94 I0. J0.597
Y13.103 Z-1.95 I0. J-0.597
Y14.297 Z-1.959 I0. J0.597
Y13.103 Z-1.969 I0. J-0.597
Y14.297 Z-1.978 I0. J0.597
Y13.103 Z-1.988 I0. J-0.597
Y14.297 Z-1.997 I0. J0.597
Y13.103 Z-2.007 I0. J-0.597
Y14.297 Z-2.016 I0. J0.597
Y13.103 Z-2.026 I0. J-0.597
Y14.297 Z-2.035 I0. J0.597
Y13.103 Z-2.045 I0. J-0.597
Y14.297 Z-2.054 I0. J0.597
Y13.103 Z-2.064 I0. J-0.597
Y14.297 Z-2.073 I0. J0.597
Y13.103 Z-2.083 I0. J-0.597
Y14.297 Z-2.093 I0. J0.597
Y13.103 Z-2.102 I0. J-0.597
Y14.297 Z-2.112 I0. J0.597
Y13.103 Z-2.121 I0. J-0.597
Y14.297 Z-2.131 I0. J0.597
Y13.103 Z-2.14 I0. J-0.597
Y14.297 Z-2.15 I0. J0.597
Y13.103 Z-2.159 I0. J-0.597
Y14.297 Z-2.169 I0. J0.597
Y13.103 Z-2.178 I0. J-0.597
Y14.297 Z-2.188 I0. J0.597
Y13.103 Z-2.197 I0. J-0.597
Y14.297 Z-2.207 I0. J0.597
Y13.103 Z-2.216 I0. J-0.597
Y14.297 Z-2.226 I0. J0.597
Y13.103 Z-2.235 I0. J-0.597
Y14.297 Z-2.245 I0. J0.597
Y13.103 Z-2.255 I0. J-0.597
Y14.297 Z-2.264 I0. J0.597
Y13.103 Z-2.274 I0. J-0.597
Y14.297 Z-2.283 I0. J0.597
Y13.103 Z-2.293 I0. J-0.597
Y14.297 Z-2.302 I0. J0.597
Y13.103 Z-2.312 I0. J-0.597
Y14.297 Z-2.321 I0. J0.597
Y13.103 Z-2.331 I0. J-0.597
Y14.297 Z-2.34 I0. J0.597
Y13.103 Z-2.35 I0. J-0.597
Y14.297 Z-2.359 I0. J0.597
Y13.103 Z-2.369 I0. J-0.597
Y14.297 Z-2.378 I0. J0.597
Y13.103 Z-2.388 I0. J-0.597
Y14.297 Z-2.398 I0. J0.597
Y13.103 Z-2.407 I0. J-0.597
Y14.297 Z-2.417 I0. J0.597
Y13.103 Z-2.426 I0. J-0.597
Y14.297 Z-2.436 I0. J0.597
Y13.103 Z-2.445 I0. J-0.597
Y14.297 Z-2.455 I0. J0.597
Y13.103 Z-2.464 I0. J-0.597
Y14.297 Z-2.474 I0. J0.597
Y13.103 Z-2.483 I0. J-0.597
Y14.297 Z-2.493 I0. J0.597
Y13.103 Z-2.502 I0. J-0.597
Y14.297 Z-2.512 I0. J0.597
Y13.103 Z-2.521 I0. J-0.597
Y14.297 Z-2.531 I0. J0.597
Y13.103 Z-2.54 I0. J-0.597
Y14.297 Z-2.55 I0. J0.597
Y13.103 Z-2.56 I0. J-0.597
Y14.297 Z-2.569 I0. J0.597
Y13.103 Z-2.579 I0. J-0.597
Y14.297 Z-2.588 I0. J0.597
Y13.103 Z-2.598 I0. J-0.597
Y14.297 Z-2.607 I0. J0.597
Y13.103 Z-2.617 I0. J-0.597
Y14.297 Z-2.626 I0. J0.597
Y13.103 Z-2.636 I0. J-0.597
Y14.297 Z-2.645 I0. J0.597
Y13.103 Z-2.655 I0. J-0.597
Y14.297 Z-2.664 I0. J0.597
Y13.103 Z-2.674 I0. J-0.597
Y14.297 Z-2.683 I0. J0.597
Y13.103 Z-2.693 I0. J-0.597
Y14.297 Z-2.703 I0. J0.597
Y13.103 Z-2.712 I0. J-0.597
Y14.297 Z-2.722 I0. J0.597
Y13.103 Z-2.731 I0. J-0.597
Y14.297 Z-2.741 I0. J0.597
Y13.103 Z-2.75 I0. J-0.597
Y14.297 Z-2.76 I0. J0.597
Y13.103 Z-2.769 I0. J-0.597
Y14.297 Z-2.779 I0. J0.597
Y13.103 Z-2.788 I0. J-0.597
Y14.297 Z-2.798 I0. J0.597
Y13.103 Z-2.807 I0. J-0.597
Y14.297 Z-2.817 I0. J0.597
Y13.103 Z-2.826 I0. J-0.597
Y14.297 Z-2.836 I0. J0.597
Y13.103 Z-2.845 I0. J-0.597
Y14.297 Z-2.855 I0. J0.597
Y13.103 Z-2.865 I0. J-0.597
Y14.297 Z-2.874 I0. J0.597
Y13.103 Z-2.884 I0. J-0.597
Y14.297 Z-2.893 I0. J0.597
Y13.103 Z-2.903 I0. J-0.597
Y14.297 Z-2.912 I0. J0.597
Y13.103 Z-2.922 I0. J-0.597
Y14.297 Z-2.931 I0. J0.597
Y13.103 Z-2.941 I0. J-0.597
Y14.297 Z-2.95 I0. J0.597
Y13.103 Z-2.96 I0. J-0.597
Y14.297 Z-2.969 I0. J0.597
Y13.103 Z-2.979 I0. J-0.597
Y14.297 Z-2.988 I0. J0.597
Y13.103 Z-2.998 I0. J-0.597
Y14.297 Z-3.008 I0. J0.597
Y13.103 Z-3.017 I0. J-0.597
Y14.297 Z-3.027 I0. J0.597
Y13.103 Z-3.036 I0. J-0.597
Y14.297 Z-3.046 I0. J0.597
Y13.103 Z-3.055 I0. J-0.597
Y14.297 Z-3.065 I0. J0.597
Y13.103 Z-3.074 I0. J-0.597
Y14.297 Z-3.084 I0. J0.597
Y13.103 Z-3.093 I0. J-0.597
Y14.297 Z-3.103 I0. J0.597
Y13.103 Z-3.112 I0. J-0.597
Y14.297 Z-3.122 I0. J0.597
Y13.103 Z-3.131 I0. J-0.597
Y14.297 Z-3.141 I0. J0.597
Y13.103 Z-3.15 I0. J-0.597
Y14.297 Z-3.16 I0. J0.597
Y13.103 Z-3.17 I0. J-0.597
Y14.297 Z-3.179 I0. J0.597
Y13.103 Z-3.189 I0. J-0.597
Y14.297 Z-3.198 I0. J0.597
Y13.103 Z-3.208 I0. J-0.597
Y14.297 Z-3.217 I0. J0.597
Y13.103 Z-3.227 I0. J-0.597
Y14.297 Z-3.236 I0. J0.597
Y13.103 Z-3.246 I0. J-0.597
Y14.297 Z-3.255 I0. J0.597
Y13.103 Z-3.265 I0. J-0.597
Y14.297 Z-3.274 I0. J0.597
Y13.103 Z-3.284 I0. J-0.597
Y14.297 Z-3.293 I0. J0.597
Y13.103 Z-3.303 I0. J-0.597
Y14.297 Z-3.313 I0. J0.597
Y13.103 Z-3.322 I0. J-0.597
Y14.297 Z-3.332 I0. J0.597
Y13.103 Z-3.341 I0. J-0.597
Y14.297 Z-3.351 I0. J0.597
Y13.103 Z-3.36 I0. J-0.597
Y14.297 Z-3.37 I0. J0.597
X14.288 Y13.597 Z-3.375 I0. J-0.597
X13.112 Y13.803 I-0.588 J0.103
X14.288 Y13.597 I0.588 J-0.103
X13.943 Y13.355 I-0.294 J0.051
G1 X13.786 Y13.382
X13.717 Y13.394 Z-3.367
X13.651 Y13.406 Z-3.344
X13.591 Y13.416 Z-3.306
X13.542 Y13.425 Z-3.255
X13.504 Y13.431 Z-3.195
X13.481 Y13.435 Z-3.128
X13.473 Y13.437 Z-3.057
G0 Z15.

(BORE2)
G0 X34.159 Y52.373
Z15.
Z2.5
G1 Z0.817 F800.
Y52.365 Z0.747
Y52.341 Z0.68
Y52.303 Z0.62
Y52.253 Z0.569
Y52.193 Z0.531
Y52.126 Z0.508
Y52.055 Z0.5
Y51.896
G2 X33.86 Y51.598 I-0.298 J0.
Y52.792 Z0.49 I0. J0.597
Y51.598 Z0.481 I0. J-0.597
Y52.792 Z0.471 I0. J0.597
Y51.598 Z0.462 I0. J-0.597
Y52.792 Z0.452 I0. J0.597
Y51.598 Z0.443 I0. J-0.597
Y52.792 Z0.433 I0. J0.597
Y51.598 Z0.424 I0. J-0.597
Y52.792 Z0.414 I0. J0.597
Y51.598 Z0.405 I0. J-0.597
Y52.792 Z0.395 I0. J0.597
Y51.598 Z0.386 I0. J-0.597
Y52.792 Z0.376 I0. J0.597
Y51.598 Z0.367 I0. J-0.597
Y52.792 Z0.357 I0. J0.597
Y51.598 Z0.347 I0. J-0.597
Y52.792 Z0.338 I0. J0.597
Y51.598 Z0.328 I0. J-0.597
Y52.792 Z0.319 I0. J0.597
Y51.598 Z0.309 I0. J-0.597
Y52.792 Z0.3 I0. J0.597
Y51.598 Z0.29 I0. J-0.597
Y52.792 Z0.281 I0. J0.597
Y51.598 Z0.271 I0. J-0.597
Y52.792 Z0.262 I0. J0.597
Y51.598 Z0.252 I0. J-0.597
Y52.792 Z0.243 I0. J0.597
Y51.598 Z0.233 I0. J-0.597
Y52.792 Z0.224 I0. J0.597
Y51.598 Z0.214 I0. J-0.597
Y52.792 Z0.205 I0. J0.597
Y51.598 Z0.195 I0. J-0.597
Y52.792 Z0.185 I0. J0.597
Y51.598 Z0.176 I0. J-0.597
Y52.792 Z0.166 I0. J0.597
Y51.598 Z0.157 I0. J-0.597
Y52.792 Z0.147 I0. J0.597
Y51.598 Z0.138 I0. J-0.597
Y52.792 Z0.128 I0. J0.597
Y51.598 Z0.119 I0. J-0.597
Y52.792 Z0.109 I0. J0.597
Y51.598 Z0.1 I0. J-0.597
Y52.792 Z0.09 I0. J0.597
Y51.598 Z0.081 I0. J-0.597
Y52.792 Z0.071 I0. J0.597
Y51.598 Z0.062 I0. J-0.597
Y52.792 Z0.052 I0. J0.597
Y51.598 Z0.042 I0. J-0.597
Y52.792 Z0.033 I0. J0.597
Y51.598 Z0.023 I0. J-0.597
Y52.792 Z0.014 I0. J0.597
Y51.598 Z0.004 I0. J-0.597
Y52.792 Z-0.005 I0. J0.597
Y51.598 Z-0.015 I0. J-0.597
Y52.792 Z-0.024 I0. J0.597
Y51.598 Z-0.034 I0. J-0.597
Y52.792 Z-0.043 I0. J0.597
Y51.598 Z-0.053 I0. J-0.597
Y52.792 Z-0.062 I0. J0.597
Y51.598 Z-0.072 I0. J-0.597
Y52.792 Z-0.081 I0. J0.597
Y51.598 Z-0.091 I0. J-0.597
Y52.792 Z-0.1 I0. J0.597
Y51.598 Z-0.11 I0. J-0.597
Y52.792 Z-0.12 I0. J0.597
Y51.598 Z-0.129 I0. J-0.597
Y52.792 Z-0.139 I0. J0.597
Y51.598 Z-0.148 I0. J-0.597
Y52.792 Z-0.158 I0. J0.597
Y51.598 Z-0.167 I0. J-0.597
Y52.792 Z-0.177 I0. J0.597
Y51.598 Z-0.186 I0. J-0.597
Y52.792 Z-0.196 I0. J0.597
Y51.598 Z-0.205 I0. J-0.597
Y52.792 Z-0.215 I0. J0.597
Y51.598 Z-0.224 I0. J-0.597
Y52.792 Z-0.234 I0. J0.597
Y51.598 Z-0.243 I0. J-0.597
Y52.792 Z-0.253 I0. J0.597
Y51.598 Z-0.263 I0. J-0.597
Y52.792 Z-0.272 I0. J0.597
Y51.598 Z-0.282 I0. J-0.597
Y52.792 Z-0.291 I0. J0.597
Y51.598 Z-0.301 I0. J-0.597
Y52.792 Z-0.31 I0. J0.597
Y51.598 Z-0.32 I0. J-0.597
Y52.792 Z-0.329 I0. J0.597
Y51.598 Z-0.339 I0. J-0.597
Y52.792 Z-0.348 I0. J0.597
Y51.598 Z-0.358 I0. J-0.597
Y52.792 Z-0.367 I0. J0.597
Y51.598 Z-0.377 I0. J-0.597
Y52.792 Z-0.386 I0. J0.597
Y51.598 Z-0.396 I0. J-0.597
Y52.792 Z-0.405 I0. J0.597
Y51.598 Z-0.415 I0. J-0.597
Y52.792 Z-0.425 I0. J0.597
Y51.598 Z-0.434 I0. J-0.597
Y52.792 Z-0.444 I0. J0.597
Y51.598 Z-0.453 I0. J-0.597
Y52.792 Z-0.463 I0. J0.597
Y51.598 Z-0.472 I0. J-0.597
Y52.792 Z-0.482 I0. J0.597
Y51.598 Z-0.491 I0. J-0.597
Y52.792 Z-0.501 I0. J0.597
Y51.598 Z-0.51 I0. J-0.597
Y52.792 Z-0.52 I0. J0.597
Y51.598 Z-0.529 I0. J-0.597
Y52.792 Z-0.539 I0. J0.597
Y51.598 Z-0.548 I0. J-0.597
Y52.792 Z-0.558 I0. J0.597
Y51.598 Z-0.568 I0. J-0.597
Y52.792 Z-0.577 I0. J0.597
Y51.598 Z-0.587 I0. J-0.597
Y52.792 Z-0.596 I0. J0.597
Y51.598 Z-0.606 I0. J-0.597
Y52.792 Z-0.615 I0. J0.597
Y51.598 Z-0.625 I0. J-0.597
Y52.792 Z-0.634 I0. J0.597
Y51.598 Z-0.644 I0. J-0.597
Y52.792 Z-0.653 I0. J0.597
Y51.598 Z-0.663 I0. J-0.597
Y52.792 Z-0.672 I0. J0.597
Y51.598 Z-0.682 I0. J-0.597
Y52.792 Z-0.691 I0. J0.597
Y51.598 Z-0.701 I0. J-0.597
Y52.792 Z-0.71 I0. J0.597
Y51.598 Z-0.72 I0. J-0.597
Y52.792 Z-0.73 I0. J0.597
Y51.598 Z-0.739 I0. J-0.597
Y52.792 Z-0.749 I0. J0.597
Y51.598 Z-0.758 I0. J-0.597
Y52.792 Z-0.768 I0. J0.597
Y51.598 Z-0.777 I0. J-0.597
Y52.792 Z-0.787 I0. J0.597
Y51.598 Z-0.796 I0. J-0.597
Y52.792 Z-0.806 I0. J0.597
Y51.598 Z-0.815 I0. J-0.597
Y52.792 Z-0.825 I0. J0.597
Y51.598 Z-0.834 I0. J-0.597
Y52.792 Z-0.844 I0. J0.597
Y51.598 Z-0.853 I0. J-0.597
Y52.792 Z-0.863 I0. J0.597
Y51.598 Z-0.873 I0. J-0.597
Y52.792 Z-0.882 I0. J0.597
Y51.598 Z-0.892 I0. J-0.597
Y52.792 Z-0.901 I0. J0.597
Y51.598 Z-0.911 I0. J-0.597
Y52.792 Z-0.92 I0. J0.597
Y51.598 Z-0.93 I0. J-0.597
Y52.792 Z-0.939 I0. J0.597
Y51.598 Z-0.949 I0. J-0.597
Y52.792 Z-0.958 I0. J0.597
Y51.598 Z-0.968 I0. J-0.597
Y52.792 Z-0.977 I0. J0.597
Y51.598 Z-0.987 I0. J-0.597
Y52.792 Z-0.996 I0. J0.597
Y51.598 Z-1.006 I0. J-0.597
Y52.792 Z-1.015 I0. J0.597
Y51.598 Z-1.025 I0. J-0.597
Y52.792 Z-1.035 I0. J0.597
Y51.598 Z-1.044 I0. J-0.597
Y52.792 Z-1.054 I0. J0.597
Y51.598 Z-1.063 I0. J-0.597
Y52.792 Z-1.073 I0. J0.597
Y51.598 Z-1.082 I0. J-0.597
Y52.792 Z-1.092 I0. J0.597
Y51.598 Z-1.101 I0. J-0.597
Y52.792 Z-1.111 I0. J0.597
Y51.598 Z-1.12 I0. J-0.597
Y52.792 Z-1.13 I0. J0.597
Y51.598 Z-1.139 I0. J-0.597
Y52.792 Z-1.149 I0. J0.597
Y51.598 Z-1.158 I0. J-0.597
Y52.792 Z-1.168 I0. J0.597
Y51.598 Z-1.178 I0. J-0.597
Y52.792 Z-1.187 I0. J0.597
Y51.598 Z-1.197 I0. J-0.597
Y52.792 Z-1.206 I0. J0.597
Y51.598 Z-1.216 I0. J-0.597
Y52.792 Z-1.225 I0. J0.597
Y51.598 Z-1.235 I0. J-0.597
Y52.792 Z-1.244 I0. J0.597
Y51.598 Z-1.254 I0. J-0.597
Y52.792 Z-1.263 I0. J0.597
Y51.598 Z-1.273 I0. J-0.597
Y52.792 Z-1.282 I0. J0.597
Y51.598 Z-1.292 I0. J-0.597
Y52.792 Z-1.301 I0. J0.597
Y51.598 Z-1.311 I0. J-0.597
Y52.792 Z-1.32 I0. J0.597
Y51.598 Z-1.33 I0. J-0.597
Y52.792 Z-1.34 I0. J0.597
Y51.598 Z-1.349 I0. J-0.597
Y52.792 Z-1.359 I0. J0.597
Y51.598 Z-1.368 I0. J-0.597
Y52.792 Z-1.378 I0. J0.597
Y51.598 Z-1.387 I0. J-0.597
Y52.792 Z-1.397 I0. J0.597
Y51.598 Z-1.406 I0. J-0.597
Y52.792 Z-1.416 I0. J0.597
Y51.598 Z-1.425 I0. J-0.597
Y52.792 Z-1.435 I0. J0.597
Y51.598 Z-1.444 I0. J-0.597
Y52.792 Z-1.454 I0. J0.597
Y51.598 Z-1.463 I0. J-0.597
Y52.792 Z-1.473 I0. J0.597
Y51.598 Z-1.483 I0. J-0.597
Y52.792 Z-1.492 I0. J0.597
Y51.598 Z-1.502 I0. J-0.597
Y52.792 Z-1.511 I0. J0.597
Y51.598 Z-1.521 I0. J-0.597
Y52.792 Z-1.53 I0. J0.597
Y51.598 Z-1.54 I0. J-0.597
Y52.792 Z-1.549 I0. J0.597
Y51.598 Z-1.559 I0. J-0.597
Y52.792 Z-1.568 I0. J0.597
Y51.598 Z-1.578 I0. J-0.597
Y52.792 Z-1.587 I0. J0.597
Y51.598 Z-1.597 I0. J-0.597
Y52.792 Z-1.606 I0. J0.597
Y51.598 Z-1.616 I0. J-0.597
Y52.792 Z-1.625 I0. J0.597
Y51.598 Z-1.635 I0. J-0.597
Y52.792 Z-1.645 I0. J0.597
Y51.598 Z-1.654 I0. J-0.597
Y52.792 Z-1.664 I0. J0.597
Y51.598 Z-1.673 I0. J-0.597
Y52.792 Z-1.683 I0. J0.597
Y51.598 Z-1.692 I0. J-0.597
Y52.792 Z-1.702 I0. J0.597
Y51.598 Z-1.711 I0. J-0.597
Y52.792 Z-1.721 I0. J0.597
Y51.598 Z-1.73 I0. J-0.597
Y52.792 Z-1.74 I0. J0.597
Y51.598 Z-1.749 I0. J-0.597
Y52.792 Z-1.759 I0. J0.597
Y51.598 Z-1.768 I0. J-0.597
Y52.792 Z-1.778 I0. J0.597
Y51.598 Z-1.788 I0. J-0.597
Y52.792 Z-1.797 I0. J0.597
Y51.598 Z-1.807 I0. J-0.597
Y52.792 Z-1.816 I0. J0.597
Y51.598 Z-1.826 I0. J-0.597
Y52.792 Z-1.835 I0. J0.597
Y51.598 Z-1.845 I0. J-0.597
Y52.792 Z-1.854 I0. J0.597
Y51.598 Z-1.864 I0. J-0.597
Y52.792 Z-1.873 I0. J0.597
Y51.598 Z-1.883 I0. J-0.597
Y52.792 Z-1.892 I0. J0.597
Y51.598 Z-1.902 I0. J-0.597
Y52.792 Z-1.911 I0. J0.597
Y51.598 Z-1.921 I0. J-0.597
Y52.792 Z-1.93 I0. J0.597
Y51.598 Z-1.94 I0. J-0.597
Y52.792 Z-1.95 I0. J0.597
Y51.598 Z-1.959 I0. J-0.597
Y52.792 Z-1.969 I0. J0.597
Y51.598 Z-1.978 I0. J-0.597
Y52.792 Z-1.988 I0. J0.597
Y51.598 Z-1.997 I0. J-0.597
Y52.792 Z-2.007 I0. J0.597
Y51.598 Z-2.016 I0. J-0.597
Y52.792 Z-2.026 I0. J0.597
Y51.598 Z-2.035 I0. J-0.597
Y52.792 Z-2.045 I0. J0.597
Y51.598 Z-2.054 I0. J-0.597
Y52.792 Z-2.064 I0. J0.597
Y51.598 Z-2.073 I0. J-0.597
Y52.792 Z-2.083 I0. J0.597
Y51.598 Z-2.093 I0. J-0.597
Y52.792 Z-2.102 I0. J0.597
Y51.598 Z-2.112 I0. J-0.597
Y52.792 Z-2.121 I0. J0.597
Y51.598 Z-2.131 I0. J-0.597
Y52.792 Z-2.14 I0. J0.597
Y51.598 Z-2.15 I0. J-0.597
Y52.792 Z-2.159 I0. J0.597
Y51.598 Z-2.169 I0. J-0.597
Y52.792 Z-2.178 I0. J0.597
Y51.598 Z-2.188 I0. J-0.597
Y52.792 Z-2.197 I0. J0.597
Y51.598 Z-2.207 I0. J-0.597
Y52.792 Z-2.216 I0. J0.597
Y51.598 Z-2.226 I0. J-0.597
Y52.792 Z-2.235 I0. J0.597
Y51.598 Z-2.245 I0. J-0.597
Y52.792 Z-2.255 I0. J0.597
Y51.598 Z-2.264 I0. J-0.597
Y52.792 Z-2.274 I0. J0.597
Y51.598 Z-2.283 I0. J-0.597
Y52.792 Z-2.293 I0. J0.597
Y51.598 Z-2.302 I0. J-0.597
Y52.792 Z-2.312 I0. J0.597
Y51.598 Z-2.321 I0. J-0.597
Y52.792 Z-2.331 I0. J0.597
Y51.598 Z-2.34 I0. J-0.597
Y52.792 Z-2.35 I0. J0.597
Y51.598 Z-2.359 I0. J-0.597
Y52.792 Z-2.369 I0. J0.597
Y51.598 Z-2.378 I0. J-0.597
Y52.792 Z-2.388 I0. J0.597
Y51.598 Z-2.398 I0. J-0.597
Y52.792 Z-2.407 I0. J0.597
Y51.598 Z-2.417 I0. J-0.597
Y52.792 Z-2.426 I0. J0.597
Y51.598 Z-2.436 I0. J-0.597
Y52.792 Z-2.445 I0. J0.597
Y51.598 Z-2.455 I0. J-0.597
Y52.792 Z-2.464 I0. J0.597
Y51.598 Z-2.474 I0. J-0.597
Y52.792 Z-2.483 I0. J0.597
Y51.598 Z-2.493 I0. J-0.597
Y52.792 Z-2.502 I0. J0.597
Y51.598 Z-2.512 I0. J-0.597
Y52.792 Z-2.521 I0. J0.597
Y51.598 Z-2.531 I0. J-0.597
Y52.792 Z-2.54 I0. J0.597
Y51.598 Z-2.55 I0. J-0.597
Y52.792 Z-2.56 I0. J0.597
Y51.598 Z-2.569 I0. J-0.597
Y52.792 Z-2.579 I0. J0.597
Y51.598 Z-2.588 I0. J-0.597
Y52.792 Z-2.598 I0. J0.597
Y51.598 Z-2.607 I0. J-0.597
Y52.792 Z-2.617 I0. J0.597
Y51.598 Z-2.626 I0. J-0.597
Y52.792 Z-2.636 I0. J0.597
Y51.598 Z-2.645 I0. J-0.597
Y52.792 Z-2.655 I0. J0.597
Y51.598 Z-2.664 I0. J-0.597
Y52.792 Z-2.674 I0. J0.597
Y51.598 Z-2.683 I0. J-0.597
Y52.792 Z-2.693 I0. J0.597
Y51.598 Z-2.703 I0. J-0.597
Y52.792 Z-2.712 I0. J0.597
Y51.598 Z-2.722 I0. J-0.597
Y52.792 Z-2.731 I0. J0.597
Y51.598 Z-2.741 I0. J-0.597
Y52.792 Z-2.75 I0. J0.597
Y51.598 Z-2.76 I0. J-0.597
Y52.792 Z-2.769 I0. J0.597
Y51.598 Z-2.779 I0. J-0.597
Y52.792 Z-2.788 I0. J0.597
Y51.598 Z-2.798 I0. J-0.597
Y52.792 Z-2.807 I0. J0.597
Y51.598 Z-2.817 I0. J-0.597
Y52.792 Z-2.826 I0. J0.597
Y51.598 Z-2.836 I0. J-0.597
Y52.792 Z-2.845 I0. J0.597
Y51.598 Z-2.855 I0. J-0.597
Y52.792 Z-2.865 I0. J0.597
Y51.598 Z-2.874 I0. J-0.597
Y52.792 Z-2.884 I0. J0.597
Y51.598 Z-2.893 I0. J-0.597
Y52.792 Z-2.903 I0. J0.597
Y51.598 Z-2.912 I0. J-0.597
Y52.792 Z-2.922 I0. J0.597
Y51.598 Z-2.931 I0. J-0.597
Y52.792 Z-2.941 I0. J0.597
Y51.598 Z-2.95 I0. J-0.597
Y52.792 Z-2.96 I0. J0.597
Y51.598 Z-2.969 I0. J-0.597
Y52.792 Z-2.979 I0. J0.597
Y51.598 Z-2.988 I0. J-0.597
Y52.792 Z-2.998 I0. J0.597
Y51.598 Z-3.008 I0. J-0.597
Y52.792 Z-3.017 I0. J0.597
Y51.598 Z-3.027 I0. J-0.597
Y52.792 Z-3.036 I0. J0.597
Y51.598 Z-3.046 I0. J-0.597
Y52.792 Z-3.055 I0. J0.597
Y51.598 Z-3.065 I0. J-0.597
Y52.792 Z-3.074 I0. J0.597
Y51.598 Z-3.084 I0. J-0.597
Y52.792 Z-3.093 I0. J0.597
Y51.598 Z-3.103 I0. J-0.597
Y52.792 Z-3.112 I0. J0.597
Y51.598 Z-3.122 I0. J-0.597
Y52.792 Z-3.131 I0. J0.597
Y51.598 Z-3.141 I0. J-0.597
Y52.792 Z-3.15 I0. J0.597
Y51.598 Z-3.16 I0. J-0.597
Y52.792 Z-3.17 I0. J0.597
Y51.598 Z-3.179 I0. J-0.597
Y52.792 Z-3.189 I0. J0.597
Y51.598 Z-3.198 I0. J-0.597
Y52.792 Z-3.208 I0. J0.597
Y51.598 Z-3.217 I0. J-0.597
Y52.792 Z-3.227 I0. J0.597
Y51.598 Z-3.236 I0. J-0.597
Y52.792 Z-3.246 I0. J0.597
Y51.598 Z-3.255 I0. J-0.597
Y52.792 Z-3.265 I0. J0.597
Y51.598 Z-3.274 I0. J-0.597
Y52.792 Z-3.284 I0. J0.597
Y51.598 Z-3.293 I0. J-0.597
Y52.792 Z-3.303 I0. J0.597
Y51.598 Z-3.313 I0. J-0.597
Y52.792 Z-3.322 I0. J0.597
Y51.598 Z-3.332 I0. J-0.597
Y52.792 Z-3.341 I0. J0.597
Y51.598 Z-3.351 I0. J-0.597
Y52.792 Z-3.36 I0. J0.597
Y51.598 Z-3.37 I0. J-0.597
X33.272 Y52.298 Z-3.375 I0. J0.597
X34.448 Y52.092 I0.588 J-0.103
X33.272 Y52.298 I-0.588 J0.103
X33.618 Y52.54 I0.294 J-0.051
G1 X33.774 Y52.513
X33.843 Y52.501 Z-3.367
X33.91 Y52.489 Z-3.344
X33.969 Y52.479 Z-3.306
X34.018 Y52.47 Z-3.255
X34.056 Y52.464 Z-3.195
X34.079 Y52.459 Z-3.128
X34.087 Y52.458 Z-3.057
G0 Z5.
X61.099 Y79.313
Z2.5
G1 Z0.817 F800.
Y79.305 Z0.747
Y79.282 Z0.68
Y79.244 Z0.62
Y79.194 Z0.569
Y79.134 Z0.531
Y79.066 Z0.508
Y78.996 Z0.5
Y78.837
G2 X60.801 Y78.539 I-0.298 J0.
Y79.732 Z0.49 I0. J0.597
Y78.539 Z0.481 I0. J-0.597
Y79.732 Z0.471 I0. J0.597
Y78.539 Z0.462 I0. J-0.597
Y79.732 Z0.452 I0. J0.597
Y78.539 Z0.443 I0. J-0.597
Y79.732 Z0.433 I0. J0.597
Y78.539 Z0.424 I0. J-0.597
Y79.732 Z0.414 I0. J0.597
Y78.539 Z0.405 I0. J-0.597
Y79.732 Z0.395 I0. J0.597
Y78.539 Z0.386 I0. J-0.597
Y79.732 Z0.376 I0. J0.597
Y78.539 Z0.367 I0. J-0.597
Y79.732 Z0.357 I0. J0.597
Y78.539 Z0.347 I0. J-0.597
Y79.732 Z0.338 I0. J0.597
Y78.539 Z0.328 I0. J-0.597
Y79.732 Z0.319 I0. J0.597
Y78.539 Z0.309 I0. J-0.597
Y79.732 Z0.3 I0. J0.597
Y78.539 Z0.29 I0. J-0.597
Y79.732 Z0.281 I0. J0.597
Y78.539 Z0.271 I0. J-0.597
Y79.732 Z0.262 I0. J0.597
Y78.539 Z0.252 I0. J-0.597
Y79.732 Z0.243 I0. J0.597
Y78.539 Z0.233 I0. J-0.597
Y79.732 Z0.224 I0. J0.597
Y78.539 Z0.214 I0. J-0.597
Y79.732 Z0.205 I0. J0.597
Y78.539 Z0.195 I0. J-0.597
Y79.732 Z0.185 I0. J0.597
Y78.539 Z0.176 I0. J-0.597
Y79.732 Z0.166 I0. J0.597
Y78.539 Z0.157 I0. J-0.597
Y79.732 Z0.147 I0. J0.597
Y78.539 Z0.138 I0. J-0.597
Y79.732 Z0.128 I0. J0.597
Y78.539 Z0.119 I0. J-0.597
Y79.732 Z0.109 I0. J0.597
Y78.539 Z0.1 I0. J-0.597
Y79.732 Z0.09 I0. J0.597
Y78.539 Z0.081 I0. J-0.597
Y79.732 Z0.071 I0. J0.597
Y78.539 Z0.062 I0. J-0.597
Y79.732 Z0.052 I0. J0.597
Y78.539 Z0.042 I0. J-0.597
Y79.732 Z0.033 I0. J0.597
Y78.539 Z0.023 I0. J-0.597
Y79.732 Z0.014 I0. J0.597
Y78.539 Z0.004 I0. J-0.597
Y79.732 Z-0.005 I0. J0.597
Y78.539 Z-0.015 I0. J-0.597
Y79.732 Z-0.024 I0. J0.597
Y78.539 Z-0.034 I0. J-0.597
Y79.732 Z-0.043 I0. J0.597
Y78.539 Z-0.053 I0. J-0.597
Y79.732 Z-0.062 I0. J0.597
Y78.539 Z-0.072 I0. J-0.597
Y79.732 Z-0.081 I0. J0.597
Y78.539 Z-0.091 I0. J-0.597
Y79.732 Z-0.1 I0. J0.597
Y78.539 Z-0.11 I0. J-0.597
Y79.732 Z-0.12 I0. J0.597
Y78.539 Z-0.129 I0. J-0.597
Y79.732 Z-0.139 I0. J0.597
Y78.539 Z-0.148 I0. J-0.597
Y79.732 Z-0.158 I0. J0.597
Y78.539 Z-0.167 I0. J-0.597
Y79.732 Z-0.177 I0. J0.597
Y78.539 Z-0.186 I0. J-0.597
Y79.732 Z-0.196 I0. J0.597
Y78.539 Z-0.205 I0. J-0.597
Y79.732 Z-0.215 I0. J0.597
Y78.539 Z-0.224 I0. J-0.597
Y79.732 Z-0.234 I0. J0.597
Y78.539 Z-0.243 I0. J-0.597
Y79.732 Z-0.253 I0. J0.597
Y78.539 Z-0.263 I0. J-0.597
Y79.732 Z-0.272 I0. J0.597
Y78.539 Z-0.282 I0. J-0.597
Y79.732 Z-0.291 I0. J0.597
Y78.539 Z-0.301 I0. J-0.597
Y79.732 Z-0.31 I0. J0.597
Y78.539 Z-0.32 I0. J-0.597
Y79.732 Z-0.329 I0. J0.597
Y78.539 Z-0.339 I0. J-0.597
Y79.732 Z-0.348 I0. J0.597
Y78.539 Z-0.358 I0. J-0.597
Y79.732 Z-0.367 I0. J0.597
Y78.539 Z-0.377 I0. J-0.597
Y79.732 Z-0.386 I0. J0.597
Y78.539 Z-0.396 I0. J-0.597
Y79.732 Z-0.405 I0. J0.597
Y78.539 Z-0.415 I0. J-0.597
Y79.732 Z-0.425 I0. J0.597
Y78.539 Z-0.434 I0. J-0.597
Y79.732 Z-0.444 I0. J0.597
Y78.539 Z-0.453 I0. J-0.597
Y79.732 Z-0.463 I0. J0.597
Y78.539 Z-0.472 I0. J-0.597
Y79.732 Z-0.482 I0. J0.597
Y78.539 Z-0.491 I0. J-0.597
Y79.732 Z-0.501 I0. J0.597
Y78.539 Z-0.51 I0. J-0.597
Y79.732 Z-0.52 I0. J0.597
Y78.539 Z-0.529 I0. J-0.597
Y79.732 Z-0.539 I0. J0.597
Y78.539 Z-0.548 I0. J-0.597
Y79.732 Z-0.558 I0. J0.597
Y78.539 Z-0.568 I0. J-0.597
Y79.732 Z-0.577 I0. J0.597
Y78.539 Z-0.587 I0. J-0.597
Y79.732 Z-0.596 I0. J0.597
Y78.539 Z-0.606 I0. J-0.597
Y79.732 Z-0.615 I0. J0.597
Y78.539 Z-0.625 I0. J-0.597
Y79.732 Z-0.634 I0. J0.597
Y78.539 Z-0.644 I0. J-0.597
Y79.732 Z-0.653 I0. J0.597
Y78.539 Z-0.663 I0. J-0.597
Y79.732 Z-0.672 I0. J0.597
Y78.539 Z-0.682 I0. J-0.597
Y79.732 Z-0.691 I0. J0.597
Y78.539 Z-0.701 I0. J-0.597
Y79.732 Z-0.71 I0. J0.597
Y78.539 Z-0.72 I0. J-0.597
Y79.732 Z-0.73 I0. J0.597
Y78.539 Z-0.739 I0. J-0.597
Y79.732 Z-0.749 I0. J0.597
Y78.539 Z-0.758 I0. J-0.597
Y79.732 Z-0.768 I0. J0.597
Y78.539 Z-0.777 I0. J-0.597
Y79.732 Z-0.787 I0. J0.597
Y78.539 Z-0.796 I0. J-0.597
Y79.732 Z-0.806 I0. J0.597
Y78.539 Z-0.815 I0. J-0.597
Y79.732 Z-0.825 I0. J0.597
Y78.539 Z-0.834 I0. J-0.597
Y79.732 Z-0.844 I0. J0.597
Y78.539 Z-0.853 I0. J-0.597
Y79.732 Z-0.863 I0. J0.597
Y78.539 Z-0.873 I0. J-0.597
Y79.732 Z-0.882 I0. J0.597
Y78.539 Z-0.892 I0. J-0.597
Y79.732 Z-0.901 I0. J0.597
Y78.539 Z-0.911 I0. J-0.597
Y79.732 Z-0.92 I0. J0.597
Y78.539 Z-0.93 I0. J-0.597
Y79.732 Z-0.939 I0. J0.597
Y78.539 Z-0.949 I0. J-0.597
Y79.732 Z-0.958 I0. J0.597
Y78.539 Z-0.968 I0. J-0.597
Y79.732 Z-0.977 I0. J0.597
Y78.539 Z-0.987 I0. J-0.597
Y79.732 Z-0.996 I0. J0.597
Y78.539 Z-1.006 I0. J-0.597
Y79.732 Z-1.015 I0. J0.597
Y78.539 Z-1.025 I0. J-0.597
Y79.732 Z-1.035 I0. J0.597
Y78.539 Z-1.044 I0. J-0.597
Y79.732 Z-1.054 I0. J0.597
Y78.539 Z-1.063 I0. J-0.597
Y79.732 Z-1.073 I0. J0.597
Y78.539 Z-1.082 I0. J-0.597
Y79.732 Z-1.092 I0. J0.597
Y78.539 Z-1.101 I0. J-0.597
Y79.732 Z-1.111 I0. J0.597
Y78.539 Z-1.12 I0. J-0.597
Y79.732 Z-1.13 I0. J0.597
Y78.539 Z-1.139 I0. J-0.597
Y79.732 Z-1.149 I0. J0.597
Y78.539 Z-1.158 I0. J-0.597
Y79.732 Z-1.168 I0. J0.597
Y78.539 Z-1.178 I0. J-0.597
Y79.732 Z-1.187 I0. J0.597
Y78.539 Z-1.197 I0. J-0.597
Y79.732 Z-1.206 I0. J0.597
Y78.539 Z-1.216 I0. J-0.597
Y79.732 Z-1.225 I0. J0.597
Y78.539 Z-1.235 I0. J-0.597
Y79.732 Z-1.244 I0. J0.597
Y78.539 Z-1.254 I0. J-0.597
Y79.732 Z-1.263 I0. J0.597
Y78.539 Z-1.273 I0. J-0.597
Y79.732 Z-1.282 I0. J0.597
Y78.539 Z-1.292 I0. J-0.597
Y79.732 Z-1.301 I0. J0.597
Y78.539 Z-1.311 I0. J-0.597
Y79.732 Z-1.32 I0. J0.597
Y78.539 Z-1.33 I0. J-0.597
Y79.732 Z-1.34 I0. J0.597
Y78.539 Z-1.349 I0. J-0.597
Y79.732 Z-1.359 I0. J0.597
Y78.539 Z-1.368 I0. J-0.597
Y79.732 Z-1.378 I0. J0.597
Y78.539 Z-1.387 I0. J-0.597
Y79.732 Z-1.397 I0. J0.597
Y78.539 Z-1.406 I0. J-0.597
Y79.732 Z-1.416 I0. J0.597
Y78.539 Z-1.425 I0. J-0.597
Y79.732 Z-1.435 I0. J0.597
Y78.539 Z-1.444 I0. J-0.597
Y79.732 Z-1.454 I0. J0.597
Y78.539 Z-1.463 I0. J-0.597
Y79.732 Z-1.473 I0. J0.597
Y78.539 Z-1.483 I0. J-0.597
Y79.732 Z-1.492 I0. J0.597
Y78.539 Z-1.502 I0. J-0.597
Y79.732 Z-1.511 I0. J0.597
Y78.539 Z-1.521 I0. J-0.597
Y79.732 Z-1.53 I0. J0.597
Y78.539 Z-1.54 I0. J-0.597
Y79.732 Z-1.549 I0. J0.597
Y78.539 Z-1.559 I0. J-0.597
Y79.732 Z-1.568 I0. J0.597
Y78.539 Z-1.578 I0. J-0.597
Y79.732 Z-1.587 I0. J0.597
Y78.539 Z-1.597 I0. J-0.597
Y79.732 Z-1.606 I0. J0.597
Y78.539 Z-1.616 I0. J-0.597
Y79.732 Z-1.625 I0. J0.597
Y78.539 Z-1.635 I0. J-0.597
Y79.732 Z-1.645 I0. J0.597
Y78.539 Z-1.654 I0. J-0.597
Y79.732 Z-1.664 I0. J0.597
Y78.539 Z-1.673 I0. J-0.597
Y79.732 Z-1.683 I0. J0.597
Y78.539 Z-1.692 I0. J-0.597
Y79.732 Z-1.702 I0. J0.597
Y78.539 Z-1.711 I0. J-0.597
Y79.732 Z-1.721 I0. J0.597
Y78.539 Z-1.73 I0. J-0.597
Y79.732 Z-1.74 I0. J0.597
Y78.539 Z-1.749 I0. J-0.597
Y79.732 Z-1.759 I0. J0.597
Y78.539 Z-1.768 I0. J-0.597
Y79.732 Z-1.778 I0. J0.597
Y78.539 Z-1.788 I0. J-0.597
Y79.732 Z-1.797 I0. J0.597
Y78.539 Z-1.807 I0. J-0.597
Y79.732 Z-1.816 I0. J0.597
Y78.539 Z-1.826 I0. J-0.597
Y79.732 Z-1.835 I0. J0.597
Y78.539 Z-1.845 I0. J-0.597
Y79.732 Z-1.854 I0. J0.597
Y78.539 Z-1.864 I0. J-0.597
Y79.732 Z-1.873 I0. J0.597
Y78.539 Z-1.883 I0. J-0.597
Y79.732 Z-1.892 I0. J0.597
Y78.539 Z-1.902 I0. J-0.597
Y79.732 Z-1.911 I0. J0.597
Y78.539 Z-1.921 I0. J-0.597
Y79.732 Z-1.93 I0. J0.597
Y78.539 Z-1.94 I0. J-0.597
Y79.732 Z-1.95 I0. J0.597
Y78.539 Z-1.959 I0. J-0.597
Y79.732 Z-1.969 I0. J0.597
Y78.539 Z-1.978 I0. J-0.597
Y79.732 Z-1.988 I0. J0.597
Y78.539 Z-1.997 I0. J-0.597
Y79.732 Z-2.007 I0. J0.597
Y78.539 Z-2.016 I0. J-0.597
Y79.732 Z-2.026 I0. J0.597
Y78.539 Z-2.035 I0. J-0.597
Y79.732 Z-2.045 I0. J0.597
Y78.539 Z-2.054 I0. J-0.597
Y79.732 Z-2.064 I0. J0.597
Y78.539 Z-2.073 I0. J-0.597
Y79.732 Z-2.083 I0. J0.597
Y78.539 Z-2.093 I0. J-0.597
Y79.732 Z-2.102 I0. J0.597
Y78.539 Z-2.112 I0. J-0.597
Y79.732 Z-2.121 I0. J0.597
Y78.539 Z-2.131 I0. J-0.597
Y79.732 Z-2.14 I0. J0.597
Y78.539 Z-2.15 I0. J-0.597
Y79.732 Z-2.159 I0. J0.597
Y78.539 Z-2.169 I0. J-0.597
Y79.732 Z-2.178 I0. J0.597
Y78.539 Z-2.188 I0. J-0.597
Y79.732 Z-2.197 I0. J0.597
Y78.539 Z-2.207 I0. J-0.597
Y79.732 Z-2.216 I0. J0.597
Y78.539 Z-2.226 I0. J-0.597
Y79.732 Z-2.235 I0. J0.597
Y78.539 Z-2.245 I0. J-0.597
Y79.732 Z-2.255 I0. J0.597
Y78.539 Z-2.264 I0. J-0.597
Y79.732 Z-2.274 I0. J0.597
Y78.539 Z-2.283 I0. J-0.597
Y79.732 Z-2.293 I0. J0.597
Y78.539 Z-2.302 I0. J-0.597
Y79.732 Z-2.312 I0. J0.597
Y78.539 Z-2.321 I0. J-0.597
Y79.732 Z-2.331 I0. J0.597
Y78.539 Z-2.34 I0. J-0.597
Y79.732 Z-2.35 I0. J0.597
Y78.539 Z-2.359 I0. J-0.597
Y79.732 Z-2.369 I0. J0.597
Y78.539 Z-2.378 I0. J-0.597
Y79.732 Z-2.388 I0. J0.597
Y78.539 Z-2.398 I0. J-0.597
Y79.732 Z-2.407 I0. J0.597
Y78.539 Z-2.417 I0. J-0.597
Y79.732 Z-2.426 I0. J0.597
Y78.539 Z-2.436 I0. J-0.597
Y79.732 Z-2.445 I0. J0.597
Y78.539 Z-2.455 I0. J-0.597
Y79.732 Z-2.464 I0. J0.597
Y78.539 Z-2.474 I0. J-0.597
Y79.732 Z-2.483 I0. J0.597
Y78.539 Z-2.493 I0. J-0.597
Y79.732 Z-2.502 I0. J0.597
Y78.539 Z-2.512 I0. J-0.597
Y79.732 Z-2.521 I0. J0.597
Y78.539 Z-2.531 I0. J-0.597
Y79.732 Z-2.54 I0. J0.597
Y78.539 Z-2.55 I0. J-0.597
Y79.732 Z-2.56 I0. J0.597
Y78.539 Z-2.569 I0. J-0.597
Y79.732 Z-2.579 I0. J0.597
Y78.539 Z-2.588 I0. J-0.597
Y79.732 Z-2.598 I0. J0.597
Y78.539 Z-2.607 I0. J-0.597
Y79.732 Z-2.617 I0. J0.597
Y78.539 Z-2.626 I0. J-0.597
Y79.732 Z-2.636 I0. J0.597
Y78.539 Z-2.645 I0. J-0.597
Y79.732 Z-2.655 I0. J0.597
Y78.539 Z-2.664 I0. J-0.597
Y79.732 Z-2.674 I0. J0.597
Y78.539 Z-2.683 I0. J-0.597
Y79.732 Z-2.693 I0. J0.597
Y78.539 Z-2.703 I0. J-0.597
Y79.732 Z-2.712 I0. J0.597
Y78.539 Z-2.722 I0. J-0.597
Y79.732 Z-2.731 I0. J0.597
Y78.539 Z-2.741 I0. J-0.597
Y79.732 Z-2.75 I0. J0.597
Y78.539 Z-2.76 I0. J-0.597
Y79.732 Z-2.769 I0. J0.597
Y78.539 Z-2.779 I0. J-0.597
Y79.732 Z-2.788 I0. J0.597
Y78.539 Z-2.798 I0. J-0.597
Y79.732 Z-2.807 I0. J0.597
Y78.539 Z-2.817 I0. J-0.597
Y79.732 Z-2.826 I0. J0.597
Y78.539 Z-2.836 I0. J-0.597
Y79.732 Z-2.845 I0. J0.597
Y78.539 Z-2.855 I0. J-0.597
Y79.732 Z-2.865 I0. J0.597
Y78.539 Z-2.874 I0. J-0.597
Y79.732 Z-2.884 I0. J0.597
Y78.539 Z-2.893 I0. J-0.597
Y79.732 Z-2.903 I0. J0.597
Y78.539 Z-2.912 I0. J-0.597
Y79.732 Z-2.922 I0. J0.597
Y78.539 Z-2.931 I0. J-0.597
Y79.732 Z-2.941 I0. J0.597
Y78.539 Z-2.95 I0. J-0.597
Y79.732 Z-2.96 I0. J0.597
Y78.539 Z-2.969 I0. J-0.597
Y79.732 Z-2.979 I0. J0.597
Y78.539 Z-2.988 I0. J-0.597
Y79.732 Z-2.998 I0. J0.597
Y78.539 Z-3.008 I0. J-0.597
Y79.732 Z-3.017 I0. J0.597
Y78.539 Z-3.027 I0. J-0.597
Y79.732 Z-3.036 I0. J0.597
Y78.539 Z-3.046 I0. J-0.597
Y79.732 Z-3.055 I0. J0.597
Y78.539 Z-3.065 I0. J-0.597
Y79.732 Z-3.074 I0. J0.597
Y78.539 Z-3.084 I0. J-0.597
Y79.732 Z-3.093 I0. J0.597
Y78.539 Z-3.103 I0. J-0.597
Y79.732 Z-3.112 I0. J0.597
Y78.539 Z-3.122 I0. J-0.597
Y79.732 Z-3.131 I0. J0.597
Y78.539 Z-3.141 I0. J-0.597
Y79.732 Z-3.15 I0. J0.597
Y78.539 Z-3.16 I0. J-0.597
Y79.732 Z-3.17 I0. J0.597
Y78.539 Z-3.179 I0. J-0.597
Y79.732 Z-3.189 I0. J0.597
Y78.539 Z-3.198 I0. J-0.597
Y79.732 Z-3.208 I0. J0.597
Y78.539 Z-3.217 I0. J-0.597
Y79.732 Z-3.227 I0. J0.597
Y78.539 Z-3.236 I0. J-0.597
Y79.732 Z-3.246 I0. J0.597
Y78.539 Z-3.255 I0. J-0.597
Y79.732 Z-3.265 I0. J0.597
Y78.539 Z-3.274 I0. J-0.597
Y79.732 Z-3.284 I0. J0.597
Y78.539 Z-3.293 I0. J-0.597
Y79.732 Z-3.303 I0. J0.597
Y78.539 Z-3.313 I0. J-0.597
Y79.732 Z-3.322 I0. J0.597
Y78.539 Z-3.332 I0. J-0.597
Y79.732 Z-3.341 I0. J0.597
Y78.539 Z-3.351 I0. J-0.597
Y79.732 Z-3.36 I0. J0.597
Y78.539 Z-3.37 I0. J-0.597
X60.213 Y79.238 Z-3.375 I0. J0.597
X61.389 Y79.033 I0.588 J-0.103
X60.213 Y79.238 I-0.588 J0.103
X60.558 Y79.481 I0.294 J-0.051
G1 X60.715 Y79.454
X60.784 Y79.441 Z-3.367
X60.85 Y79.43 Z-3.344
X60.91 Y79.419 Z-3.306
X60.959 Y79.411 Z-3.255
X60.996 Y79.404 Z-3.195
X61.02 Y79.4 Z-3.128
X61.027 Y79.399 Z-3.057
G0 Z5.
X61.099 Y109.974
Z2.5
G1 Z0.817 F800.
Y109.966 Z0.747
Y109.942 Z0.68
Y109.905 Z0.62
Y109.854 Z0.569
Y109.794 Z0.531
Y109.727 Z0.508
Y109.656 Z0.5
Y109.498
G2 X60.801 Y109.199 I-0.298 J0.
Y110.393 Z0.49 I0. J0.597
Y109.199 Z0.481 I0. J-0.597
Y110.393 Z0.471 I0. J0.597
Y109.199 Z0.462 I0. J-0.597
Y110.393 Z0.452 I0. J0.597
Y109.199 Z0.443 I0. J-0.597
Y110.393 Z0.433 I0. J0.597
Y109.199 Z0.424 I0. J-0.597
Y110.393 Z0.414 I0. J0.597
Y109.199 Z0.405 I0. J-0.597
Y110.393 Z0.395 I0. J0.597
Y109.199 Z0.386 I0. J-0.597
Y110.393 Z0.376 I0. J0.597
Y109.199 Z0.367 I0. J-0.597
Y110.393 Z0.357 I0. J0.597
Y109.199 Z0.347 I0. J-0.597
Y110.393 Z0.338 I0. J0.597
Y109.199 Z0.328 I0. J-0.597
Y110.393 Z0.319 I0. J0.597
Y109.199 Z0.309 I0. J-0.597
Y110.393 Z0.3 I0. J0.597
Y109.199 Z0.29 I0. J-0.597
Y110.393 Z0.281 I0. J0.597
Y109.199 Z0.271 I0. J-0.597
Y110.393 Z0.262 I0. J0.597
Y109.199 Z0.252 I0. J-0.597
Y110.393 Z0.243 I0. J0.597
Y109.199 Z0.233 I0. J-0.597
Y110.393 Z0.224 I0. J0.597
Y109.199 Z0.214 I0. J-0.597
Y110.393 Z0.205 I0. J0.597
Y109.199 Z0.195 I0. J-0.597
Y110.393 Z0.185 I0. J0.597
Y109.199 Z0.176 I0. J-0.597
Y110.393 Z0.166 I0. J0.597
Y109.199 Z0.157 I0. J-0.597
Y110.393 Z0.147 I0. J0.597
Y109.199 Z0.138 I0. J-0.597
Y110.393 Z0.128 I0. J0.597
Y109.199 Z0.119 I0. J-0.597
Y110.393 Z0.109 I0. J0.597
Y109.199 Z0.1 I0. J-0.597
Y110.393 Z0.09 I0. J0.597
Y109.199 Z0.081 I0. J-0.597
Y110.393 Z0.071 I0. J0.597
Y109.199 Z0.062 I0. J-0.597
Y110.393 Z0.052 I0. J0.597
Y109.199 Z0.042 I0. J-0.597
Y110.393 Z0.033 I0. J0.597
Y109.199 Z0.023 I0. J-0.597
Y110.393 Z0.014 I0. J0.597
Y109.199 Z0.004 I0. J-0.597
Y110.393 Z-0.005 I0. J0.597
Y109.199 Z-0.015 I0. J-0.597
Y110.393 Z-0.024 I0. J0.597
Y109.199 Z-0.034 I0. J-0.597
Y110.393 Z-0.043 I0. J0.597
Y109.199 Z-0.053 I0. J-0.597
Y110.393 Z-0.062 I0. J0.597
Y109.199 Z-0.072 I0. J-0.597
Y110.393 Z-0.081 I0. J0.597
Y109.199 Z-0.091 I0. J-0.597
Y110.393 Z-0.1 I0. J0.597
Y109.199 Z-0.11 I0. J-0.597
Y110.393 Z-0.12 I0. J0.597
Y109.199 Z-0.129 I0. J-0.597
Y110.393 Z-0.139 I0. J0.597
Y109.199 Z-0.148 I0. J-0.597
Y110.393 Z-0.158 I0. J0.597
Y109.199 Z-0.167 I0. J-0.597
Y110.393 Z-0.177 I0. J0.597
Y109.199 Z-0.186 I0. J-0.597
Y110.393 Z-0.196 I0. J0.597
Y109.199 Z-0.205 I0. J-0.597
Y110.393 Z-0.215 I0. J0.597
Y109.199 Z-0.224 I0. J-0.597
Y110.393 Z-0.234 I0. J0.597
Y109.199 Z-0.243 I0. J-0.597
Y110.393 Z-0.253 I0. J0.597
Y109.199 Z-0.263 I0. J-0.597
Y110.393 Z-0.272 I0. J0.597
Y109.199 Z-0.282 I0. J-0.597
Y110.393 Z-0.291 I0. J0.597
Y109.199 Z-0.301 I0. J-0.597
Y110.393 Z-0.31 I0. J0.597
Y109.199 Z-0.32 I0. J-0.597
Y110.393 Z-0.329 I0. J0.597
Y109.199 Z-0.339 I0. J-0.597
Y110.393 Z-0.348 I0. J0.597
Y109.199 Z-0.358 I0. J-0.597
Y110.393 Z-0.367 I0. J0.597
Y109.199 Z-0.377 I0. J-0.597
Y110.393 Z-0.386 I0. J0.597
Y109.199 Z-0.396 I0. J-0.597
Y110.393 Z-0.405 I0. J0.597
Y109.199 Z-0.415 I0. J-0.597
Y110.393 Z-0.425 I0. J0.597
Y109.199 Z-0.434 I0. J-0.597
Y110.393 Z-0.444 I0. J0.597
Y109.199 Z-0.453 I0. J-0.597
Y110.393 Z-0.463 I0. J0.597
Y109.199 Z-0.472 I0. J-0.597
Y110.393 Z-0.482 I0. J0.597
Y109.199 Z-0.491 I0. J-0.597
Y110.393 Z-0.501 I0. J0.597
Y109.199 Z-0.51 I0. J-0.597
Y110.393 Z-0.52 I0. J0.597
Y109.199 Z-0.529 I0. J-0.597
Y110.393 Z-0.539 I0. J0.597
Y109.199 Z-0.548 I0. J-0.597
Y110.393 Z-0.558 I0. J0.597
Y109.199 Z-0.568 I0. J-0.597
Y110.393 Z-0.577 I0. J0.597
Y109.199 Z-0.587 I0. J-0.597
Y110.393 Z-0.596 I0. J0.597
Y109.199 Z-0.606 I0. J-0.597
Y110.393 Z-0.615 I0. J0.597
Y109.199 Z-0.625 I0. J-0.597
Y110.393 Z-0.634 I0. J0.597
Y109.199 Z-0.644 I0. J-0.597
Y110.393 Z-0.653 I0. J0.597
Y109.199 Z-0.663 I0. J-0.597
Y110.393 Z-0.672 I0. J0.597
Y109.199 Z-0.682 I0. J-0.597
Y110.393 Z-0.691 I0. J0.597
Y109.199 Z-0.701 I0. J-0.597
Y110.393 Z-0.71 I0. J0.597
Y109.199 Z-0.72 I0. J-0.597
Y110.393 Z-0.73 I0. J0.597
Y109.199 Z-0.739 I0. J-0.597
Y110.393 Z-0.749 I0. J0.597
Y109.199 Z-0.758 I0. J-0.597
Y110.393 Z-0.768 I0. J0.597
Y109.199 Z-0.777 I0. J-0.597
Y110.393 Z-0.787 I0. J0.597
Y109.199 Z-0.796 I0. J-0.597
Y110.393 Z-0.806 I0. J0.597
Y109.199 Z-0.815 I0. J-0.597
Y110.393 Z-0.825 I0. J0.597
Y109.199 Z-0.834 I0. J-0.597
Y110.393 Z-0.844 I0. J0.597
Y109.199 Z-0.853 I0. J-0.597
Y110.393 Z-0.863 I0. J0.597
Y109.199 Z-0.873 I0. J-0.597
Y110.393 Z-0.882 I0. J0.597
Y109.199 Z-0.892 I0. J-0.597
Y110.393 Z-0.901 I0. J0.597
Y109.199 Z-0.911 I0. J-0.597
Y110.393 Z-0.92 I0. J0.597
Y109.199 Z-0.93 I0. J-0.597
Y110.393 Z-0.939 I0. J0.597
Y109.199 Z-0.949 I0. J-0.597
Y110.393 Z-0.958 I0. J0.597
Y109.199 Z-0.968 I0. J-0.597
Y110.393 Z-0.977 I0. J0.597
Y109.199 Z-0.987 I0. J-0.597
Y110.393 Z-0.996 I0. J0.597
Y109.199 Z-1.006 I0. J-0.597
Y110.393 Z-1.015 I0. J0.597
Y109.199 Z-1.025 I0. J-0.597
Y110.393 Z-1.035 I0. J0.597
Y109.199 Z-1.044 I0. J-0.597
Y110.393 Z-1.054 I0. J0.597
Y109.199 Z-1.063 I0. J-0.597
Y110.393 Z-1.073 I0. J0.597
Y109.199 Z-1.082 I0. J-0.597
Y110.393 Z-1.092 I0. J0.597
Y109.199 Z-1.101 I0. J-0.597
Y110.393 Z-1.111 I0. J0.597
Y109.199 Z-1.12 I0. J-0.597
Y110.393 Z-1.13 I0. J0.597
Y109.199 Z-1.139 I0. J-0.597
Y110.393 Z-1.149 I0. J0.597
Y109.199 Z-1.158 I0. J-0.597
Y110.393 Z-1.168 I0. J0.597
Y109.199 Z-1.178 I0. J-0.597
Y110.393 Z-1.187 I0. J0.597
Y109.199 Z-1.197 I0. J-0.597
Y110.393 Z-1.206 I0. J0.597
Y109.199 Z-1.216 I0. J-0.597
Y110.393 Z-1.225 I0. J0.597
Y109.199 Z-1.235 I0. J-0.597
Y110.393 Z-1.244 I0. J0.597
Y109.199 Z-1.254 I0. J-0.597
Y110.393 Z-1.263 I0. J0.597
Y109.199 Z-1.273 I0. J-0.597
Y110.393 Z-1.282 I0. J0.597
Y109.199 Z-1.292 I0. J-0.597
Y110.393 Z-1.301 I0. J0.597
Y109.199 Z-1.311 I0. J-0.597
Y110.393 Z-1.32 I0. J0.597
Y109.199 Z-1.33 I0. J-0.597
Y110.393 Z-1.34 I0. J0.597
Y109.199 Z-1.349 I0. J-0.597
Y110.393 Z-1.359 I0. J0.597
Y109.199 Z-1.368 I0. J-0.597
Y110.393 Z-1.378 I0. J0.597
Y109.199 Z-1.387 I0. J-0.597
Y110.393 Z-1.397 I0. J0.597
Y109.199 Z-1.406 I0. J-0.597
Y110.393 Z-1.416 I0. J0.597
Y109.199 Z-1.425 I0. J-0.597
Y110.393 Z-1.435 I0. J0.597
Y109.199 Z-1.444 I0. J-0.597
Y110.393 Z-1.454 I0. J0.597
Y109.199 Z-1.463 I0. J-0.597
Y110.393 Z-1.473 I0. J0.597
Y109.199 Z-1.483 I0. J-0.597
Y110.393 Z-1.492 I0. J0.597
Y109.199 Z-1.502 I0. J-0.597
Y110.393 Z-1.511 I0. J0.597
Y109.199 Z-1.521 I0. J-0.597
Y110.393 Z-1.53 I0. J0.597
Y109.199 Z-1.54 I0. J-0.597
Y110.393 Z-1.549 I0. J0.597
Y109.199 Z-1.559 I0. J-0.597
Y110.393 Z-1.568 I0. J0.597
Y109.199 Z-1.578 I0. J-0.597
Y110.393 Z-1.587 I0. J0.597
Y109.199 Z-1.597 I0. J-0.597
Y110.393 Z-1.606 I0. J0.597
Y109.199 Z-1.616 I0. J-0.597
Y110.393 Z-1.625 I0. J0.597
Y109.199 Z-1.635 I0. J-0.597
Y110.393 Z-1.645 I0. J0.597
Y109.199 Z-1.654 I0. J-0.597
Y110.393 Z-1.664 I0. J0.597
Y109.199 Z-1.673 I0. J-0.597
Y110.393 Z-1.683 I0. J0.597
Y109.199 Z-1.692 I0. J-0.597
Y110.393 Z-1.702 I0. J0.597
Y109.199 Z-1.711 I0. J-0.597
Y110.393 Z-1.721 I0. J0.597
Y109.199 Z-1.73 I0. J-0.597
Y110.393 Z-1.74 I0. J0.597
Y109.199 Z-1.749 I0. J-0.597
Y110.393 Z-1.759 I0. J0.597
Y109.199 Z-1.768 I0. J-0.597
Y110.393 Z-1.778 I0. J0.597
Y109.199 Z-1.788 I0. J-0.597
Y110.393 Z-1.797 I0. J0.597
Y109.199 Z-1.807 I0. J-0.597
Y110.393 Z-1.816 I0. J0.597
Y109.199 Z-1.826 I0. J-0.597
Y110.393 Z-1.835 I0. J0.597
Y109.199 Z-1.845 I0. J-0.597
Y110.393 Z-1.854 I0. J0.597
Y109.199 Z-1.864 I0. J-0.597
Y110.393 Z-1.873 I0. J0.597
Y109.199 Z-1.883 I0. J-0.597
Y110.393 Z-1.892 I0. J0.597
Y109.199 Z-1.902 I0. J-0.597
Y110.393 Z-1.911 I0. J0.597
