(1X1 ANGLE BRACKET)
(ANGLE BRACKET 0.125IN)
(T1  D=6.35 CR=0. - ZMIN=-1.5 - FLAT END MILL)
G90 G94 G91.1 G40 G49 G17
G21
G0 Z15

(2D CONTOUR1 2)
M5
T1 M6
S15000 M3
G54
M8
G0 X129.901 Y35.143
G43 Z18.175 H1
Z8.175
G1 Z6.31 F1600.
G18 G3 X129.266 Z5.675 I-0.635 K0.
G1 X128.631
G17 G3 X127.996 Y34.508 I0. J-0.635
G1 Y15.875 Z5.024
G2 X121.646 Y9.525 Z4.676 I-6.35 J0.
G1 X71.503 Z2.925
X15.875
G2 X9.525 Y15.875 I0. J6.35
G1 Y34.925
G2 X15.875 Y41.275 I6.35 J0.
G1 X48.17
G3 X50.415 Y42.205 I0. J3.175
G1 X109.172 Y100.962
G2 X118.152 I4.49 J-4.49
G1 X131.622 Y87.491
G2 Y78.511 I-4.49 J-4.49
G1 X99.806 Y46.695
G3 X102.051 Y41.275 I2.245 J-2.245
G1 X121.646
G2 X127.996 Y34.925 I0. J-6.35
G1 Y15.875
G2 X121.646 Y9.525 I-6.35 J0.
G1 X71.503
X64.344 Z2.675
X15.875
G2 X9.525 Y15.875 I0. J6.35
G1 Y34.925
G2 X15.875 Y41.275 I6.35 J0.
G1 X48.17
G3 X50.415 Y42.205 I0. J3.175
G1 X109.172 Y100.962
G2 X118.152 I4.49 J-4.49
G1 X131.622 Y87.491
G2 Y78.511 I-4.49 J-4.49
G1 X99.806 Y46.695
G3 X102.051 Y41.275 I2.245 J-2.245
G1 X121.646
G2 X127.996 Y34.925 I0. J-6.35
G1 Y15.875
G2 X121.646 Y9.525 I-6.35 J0.
G1 X71.503
X64.344
X57.185 Z2.425
X15.875
G2 X9.525 Y15.875 I0. J6.35
G1 Y34.925
G2 X15.875 Y41.275 I6.35 J0.
G1 X48.17
G3 X50.415 Y42.205 I0. J3.175
G1 X109.172 Y100.962
G2 X118.152 I4.49 J-4.49
G1 X131.622 Y87.491
G2 Y78.511 I-4.49 J-4.49
G1 X99.806 Y46.695
G3 X102.051 Y41.275 I2.245 J-2.245
G1 X121.646
G2 X127.996 Y34.925 I0. J-6.35
G1 Y15.875
G2 X121.646 Y9.525 I-6.35 J0.
G1 X64.344
X57.185
X50.026 Z2.175
X15.875
G2 X9.525 Y15.875 I0. J6.35
G1 Y34.925
G2 X15.875 Y41.275 I6.35 J0.
G1 X48.17
G3 X50.415 Y42.205 I0. J3.175
G1 X109.172 Y100.962
G2 X118.152 I4.49 J-4.49
G1 X131.622 Y87.491
G2 Y78.511 I-4.49 J-4.49
G1 X99.806 Y46.695
G3 X102.051 Y41.275 I2.245 J-2.245
G1 X121.646
G2 X127.996 Y34.925 I0. J-6.35
G1 Y15.875
G2 X121.646 Y9.525 I-6.35 J0.
G1 X57.185
X50.026
X42.867 Z1.925
X15.875
G2 X9.525 Y15.875 I0. J6.35
G1 Y34.925
G2 X15.875 Y41.275 I6.35 J0.
G1 X48.17
G3 X50.415 Y42.205 I0. J3.175
G1 X109.172 Y100.962
G2 X118.152 I4.49 J-4.49
G1 X131.622 Y87.491
G2 Y78.511 I-4.49 J-4.49
G1 X99.806 Y46.695
G3 X102.051 Y41.275 I2.245 J-2.245
G1 X121.646
G2 X127.996 Y34.925 I0. J-6.35
G1 Y15.875
G2 X121.646 Y9.525 I-6.35 J0.
G1 X50.026
X42.867
X35.708 Z1.675
X15.875
G2 X9.525 Y15.875 I0. J6.35
G1 Y34.925
G2 X15.875 Y41.275 I6.35 J0.
G1 X48.17
G3 X50.415 Y42.205 I0. J3.175
G1 X109.172 Y100.962
G2 X118.152 I4.49 J-4.49
G1 X131.622 Y87.491
G2 Y78.511 I-4.49 J-4.49
G1 X99.806 Y46.695
G3 X102.051 Y41.275 I2.245 J-2.245
G1 X121.646
G2 X127.996 Y34.925 I0. J-6.35
G1 Y15.875
G2 X121.646 Y9.525 I-6.35 J0.
G1 X42.867
X35.708
X28.549 Z1.425
X15.875
G2 X9.525 Y15.875 I0. J6.35
G1 Y34.925
G2 X15.875 Y41.275 I6.35 J0.
G1 X48.17
G3 X50.415 Y42.205 I0. J3.175
G1 X109.172 Y100.962
G2 X118.152 I4.49 J-4.49
G1 X131.622 Y87.491
G2 Y78.511 I-4.49 J-4.49
G1 X99.806 Y46.695
G3 X102.051 Y41.275 I2.245 J-2.245
G1 X121.646
G2 X127.996 Y34.925 I0. J-6.35
G1 Y15.875
G2 X121.646 Y9.525 I-6.35 J0.
G1 X35.708
X28.549
X21.39 Z1.175
X15.875
G2 X9.525 Y15.875 I0. J6.35
G1 Y34.925
G2 X15.875 Y41.275 I6.35 J0.
G1 X48.17
G3 X50.415 Y42.205 I0. J3.175
G1 X109.172 Y100.962
G2 X118.152 I4.49 J-4.49
G1 X131.622 Y87.491
G2 Y78.511 I-4.49 J-4.49
G1 X99.806 Y46.695
G3 X102.051 Y41.275 I2.245 J-2.245
G1 X121.646
G2 X127.996 Y34.925 I0. J-6.35
G1 Y15.875
G2 X121.646 Y9.525 I-6.35 J0.
G1 X28.549
X21.39
X15.875 Z0.982
G2 X14.249 Y9.737 Z0.925 I0. J6.35
X9.525 Y15.875 I1.626 J6.138
G1 Y34.925
G2 X15.875 Y41.275 I6.35 J0.
G1 X48.17
G3 X50.415 Y42.205 I0. J3.175
G1 X109.172 Y100.962
G2 X118.152 I4.49 J-4.49
G1 X131.622 Y87.491
G2 Y78.511 I-4.49 J-4.49
G1 X99.806 Y46.695
G3 X102.051 Y41.275 I2.245 J-2.245
G1 X121.646
G2 X127.996 Y34.925 I0. J-6.35
G1 Y15.875
G2 X121.646 Y9.525 I-6.35 J0.
G1 X21.39
X15.875
G2 X14.249 Y9.737 I0. J6.35
X9.633 Y14.71 Z0.675 I1.626 J6.138
X9.525 Y15.875 I6.242 J1.165
G1 Y34.925
G2 X15.875 Y41.275 I6.35 J0.
G1 X48.17
G3 X50.415 Y42.205 I0. J3.175
G1 X109.172 Y100.962
G2 X118.152 I4.49 J-4.49
G1 X131.622 Y87.491
G2 Y78.511 I-4.49 J-4.49
G1 X99.806 Y46.695
G3 X102.051 Y41.275 I2.245 J-2.245
G1 X121.646
G2 X127.996 Y34.925 I0. J-6.35
G1 Y15.875
G2 X121.646 Y9.525 I-6.35 J0.
G1 X15.875
G2 X9.633 Y14.71 I0. J6.35
X9.525 Y15.875 Z0.634 I6.242 J1.165
G1 Y21.863 Z0.425
Y34.925
G2 X15.875 Y41.275 I6.35 J0.
G1 X48.17
G3 X50.415 Y42.205 I0. J3.175
G1 X109.172 Y100.962
G2 X118.152 I4.49 J-4.49
G1 X131.622 Y87.491
G2 Y78.511 I-4.49 J-4.49
G1 X99.806 Y46.695
G3 X102.051 Y41.275 I2.245 J-2.245
G1 X121.646
G2 X127.996 Y34.925 I0. J-6.35
G1 Y15.875
G2 X121.646 Y9.525 I-6.35 J0.
G1 X15.875
G2 X9.525 Y15.875 I0. J6.35
G1 Y21.863
Y29.022 Z0.175
Y34.925
G2 X15.875 Y41.275 I6.35 J0.
G1 X48.17
G3 X50.415 Y42.205 I0. J3.175
G1 X109.172 Y100.962
G2 X118.152 I4.49 J-4.49
G1 X131.622 Y87.491
G2 Y78.511 I-4.49 J-4.49
G1 X99.806 Y46.695
G3 X102.051 Y41.275 I2.245 J-2.245
G1 X121.646
G2 X127.996 Y34.925 I0. J-6.35
G1 Y15.875
G2 X121.646 Y9.525 I-6.35 J0.
G1 X15.875
G2 X9.525 Y15.875 I0. J6.35
G1 Y29.022
Y34.925 Z-0.031
G2 X9.649 Y36.173 Z-0.075 I6.35 J0.
X15.875 Y41.275 I6.226 J-1.248
G1 X48.17
G3 X50.415 Y42.205 I0. J3.175
G1 X109.172 Y100.962
G2 X118.152 I4.49 J-4.49
G1 X131.622 Y87.491
G2 Y78.511 I-4.49 J-4.49
G1 X99.806 Y46.695
G3 X102.051 Y41.275 I2.245 J-2.245
G1 X121.646
G2 X127.996 Y34.925 I0. J-6.35
G1 Y15.875
G2 X121.646 Y9.525 I-6.35 J0.
G1 X15.875
G2 X9.525 Y15.875 I0. J6.35
G1 Y29.022
Y34.925
G2 X9.649 Y36.173 I6.35 J0.
X14.331 Y41.084 Z-0.325 I6.226 J-1.248
X15.875 Y41.275 I1.544 J-6.159
G1 X48.17
G3 X50.415 Y42.205 I0. J3.175
G1 X109.172 Y100.962
G2 X118.152 I4.49 J-4.49
G1 X131.622 Y87.491
G2 Y78.511 I-4.49 J-4.49
G1 X99.806 Y46.695
G3 X102.051 Y41.275 I2.245 J-2.245
G1 X121.646
G2 X127.996 Y34.925 I0. J-6.35
G1 Y15.875
G2 X121.646 Y9.525 I-6.35 J0.
G1 X15.875
G2 X9.525 Y15.875 I0. J6.35
G1 Y34.925
G2 X14.331 Y41.084 I6.35 J0.
X15.875 Y41.275 Z-0.379 I1.544 J-6.159
G1 X21.474 Z-0.575
X48.17
G3 X50.415 Y42.205 I0. J3.175
G1 X109.172 Y100.962
G2 X118.152 I4.49 J-4.49
G1 X131.622 Y87.491
G2 Y78.511 I-4.49 J-4.49
G1 X99.806 Y46.695
G3 X102.051 Y41.275 I2.245 J-2.245
G1 X121.646
G2 X127.996 Y34.925 I0. J-6.35
G1 Y15.875
G2 X121.646 Y9.525 I-6.35 J0.
G1 X15.875
G2 X9.525 Y15.875 I0. J6.35
G1 Y34.925
G2 X15.875 Y41.275 I6.35 J0.
G1 X21.474
X28.633 Z-0.825
X48.17
G3 X50.415 Y42.205 I0. J3.175
G1 X109.172 Y100.962
G2 X118.152 I4.49 J-4.49
G1 X131.622 Y87.491
G2 Y78.511 I-4.49 J-4.49
G1 X99.806 Y46.695
G3 X102.051 Y41.275 I2.245 J-2.245
G1 X121.646
G2 X127.996 Y34.925 I0. J-6.35
G1 Y15.875
G2 X121.646 Y9.525 I-6.35 J0.
G1 X15.875
G2 X9.525 Y15.875 I0. J6.35
G1 Y34.925
G2 X15.875 Y41.275 I6.35 J0.
G1 X28.633
X35.792 Z-1.075
X48.17
G3 X50.415 Y42.205 I0. J3.175
G1 X109.172 Y100.962
G2 X118.152 I4.49 J-4.49
G1 X131.622 Y87.491
G2 Y78.511 I-4.49 J-4.49
G1 X99.806 Y46.695
G3 X102.051 Y41.275 I2.245 J-2.245
G1 X121.646
G2 X127.996 Y34.925 I0. J-6.35
G1 Y15.875
G2 X121.646 Y9.525 I-6.35 J0.
G1 X15.875
G2 X9.525 Y15.875 I0. J6.35
G1 Y34.925
G2 X15.875 Y41.275 I6.35 J0.
G1 X28.633
X35.792
X42.951 Z-1.325
X48.17
G3 X50.415 Y42.205 I0. J3.175
G1 X109.172 Y100.962
G2 X118.152 I4.49 J-4.49
G1 X131.622 Y87.491
G2 Y78.511 I-4.49 J-4.49
G1 X99.806 Y46.695
G3 X102.051 Y41.275 I2.245 J-2.245
G1 X121.646
G2 X127.996 Y34.925 I0. J-6.35
G1 Y15.875
G2 X121.646 Y9.525 I-6.35 J0.
G1 X15.875
G2 X9.525 Y15.875 I0. J6.35
G1 Y34.925
G2 X15.875 Y41.275 I6.35 J0.
G1 X35.792
X42.951
X47.963 Z-1.5
X48.17
G3 X50.415 Y42.205 I0. J3.175
G1 X109.172 Y100.962
G2 X118.152 I4.49 J-4.49
G1 X131.622 Y87.491
G2 Y78.511 I-4.49 J-4.49
G1 X99.806 Y46.695
G3 X102.051 Y41.275 I2.245 J-2.245
G1 X121.646
G2 X127.996 Y34.925 I0. J-6.35
G1 Y15.875
G2 X121.646 Y9.525 I-6.35 J0.
G1 X15.875
G2 X9.525 Y15.875 I0. J6.35
G1 Y34.925
G2 X15.875 Y41.275 I6.35 J0.
G1 X42.951
X47.963
G3 X48.598 Y41.91 I0. J0.635
G1 Y42.545
G19 G3 Y43.18 Z-0.865 J0. K0.635
G0 Z18.175
G17

(2D CONTOUR2 2)
G0 X104.695 Y99.886
Z18.175
Z8.175
G1 Z6.31 F800.
X104.701 Y99.881 Z6.211
X104.717 Y99.864 Z6.114
X104.744 Y99.837 Z6.022
X104.781 Y99.801 Z5.937
X104.827 Y99.755 Z5.861
X104.88 Y99.701 Z5.796
X104.94 Y99.641 Z5.744
X105.006 Y99.576 Z5.706
X105.074 Y99.508 Z5.683
X105.144 Y99.437 Z5.675
X105.593 Y98.988
G3 X106.491 I0.449 J0.449
G1 X108.818 Y101.315 Z5.56
G2 X118.506 Z5.184 I4.844 J-4.844
G1 X131.976 Y87.845 Z4.519
G2 Y78.158 Z4.143 I-4.844 J-4.844
G1 X100.16 Y46.341 Z2.572
G3 X102.051 Y41.775 Z2.352 I1.891 J-1.892
G1 X121.646 Z1.668
G2 X128.496 Y34.925 Z1.292 I0. J-6.85
G1 Y15.875 Z0.627
G2 X121.646 Y9.025 Z0.251 I-6.85 J0.
G1 X71.503 Z-1.5
X15.875
G2 X9.025 Y15.875 I0. J6.85
G1 Y34.925
G2 X15.875 Y41.775 I6.85 J0.
G1 X48.17
G3 X50.061 Y42.558 I0. J2.675
G1 X108.818 Y101.315
G2 X118.506 I4.844 J-4.844
G1 X131.976 Y87.845
G2 Y78.158 I-4.844 J-4.844
G1 X100.16 Y46.341
G3 X102.051 Y41.775 I1.891 J-1.892
G1 X121.646
G2 X128.496 Y34.925 I0. J-6.85
G1 Y15.875
G2 X121.646 Y9.025 I-6.85 J0.
G1 X71.503
G2 X71.128 Y9.275 I0. J0.406
G3 X70.753 Y9.525 I-0.375 J-0.156
G1 X15.875
G2 X9.525 Y15.875 I0. J6.35
G1 Y34.925
G2 X15.875 Y41.275 I6.35 J0.
G1 X48.17
G3 X50.415 Y42.205 I0. J3.175
G1 X109.172 Y100.962
G2 X118.152 I4.49 J-4.49
G1 X131.622 Y87.491
G2 Y78.511 I-4.49 J-4.49
G1 X99.806 Y46.695
G3 X102.051 Y41.275 I2.245 J-2.245
G1 X121.646
G2 X127.996 Y34.925 I0. J-6.35
G1 Y15.875
G2 X121.646 Y9.525 I-6.35 J0.
G1 X70.753
G3 X70.118 Y8.89 I0. J-0.635
G1 Y8.255
G19 G2 Y7.62 Z-0.865 J0. K0.635
G0 Z18.175
G17
M5
G0 Z15
G0 X0 Y0

M9
M30
