(FRAME SIDE RAIL SECOND OP.)
(T1  D=3.175 CR=0. - ZMIN=-3.175 - FLAT END MILL)
G90 G94 G91.1 G40 G49 G17
G21
G0 Z15

(BORE2)
M5
T1 M6
S15000 M3
G54
G0 X101.663 Y71.123
G43 Z15. H1
Z2.
G1 Z0.317 F800.
Y71.131 Z0.247
Y71.155 Z0.18
Y71.193 Z0.12
Y71.243 Z0.069
Y71.303 Z0.031
Y71.37 Z0.008
Y71.441 Z0.
Y71.6
G2 X101.962 Y71.898 I0.298 J0.
Y70.704 Z-0.005 I0. J-0.597
Y71.898 Z-0.01 I0. J0.597
Y70.704 Z-0.014 I0. J-0.597
Y71.898 Z-0.019 I0. J0.597
Y70.704 Z-0.024 I0. J-0.597
Y71.898 Z-0.029 I0. J0.597
Y70.704 Z-0.033 I0. J-0.597
Y71.898 Z-0.038 I0. J0.597
Y70.704 Z-0.043 I0. J-0.597
Y71.898 Z-0.048 I0. J0.597
Y70.704 Z-0.052 I0. J-0.597
Y71.898 Z-0.057 I0. J0.597
Y70.704 Z-0.062 I0. J-0.597
Y71.898 Z-0.067 I0. J0.597
Y70.704 Z-0.071 I0. J-0.597
Y71.898 Z-0.076 I0. J0.597
Y70.704 Z-0.081 I0. J-0.597
Y71.898 Z-0.086 I0. J0.597
Y70.704 Z-0.091 I0. J-0.597
Y71.898 Z-0.095 I0. J0.597
Y70.704 Z-0.1 I0. J-0.597
Y71.898 Z-0.105 I0. J0.597
Y70.704 Z-0.11 I0. J-0.597
Y71.898 Z-0.114 I0. J0.597
Y70.704 Z-0.119 I0. J-0.597
Y71.898 Z-0.124 I0. J0.597
Y70.704 Z-0.129 I0. J-0.597
Y71.898 Z-0.133 I0. J0.597
Y70.704 Z-0.138 I0. J-0.597
Y71.898 Z-0.143 I0. J0.597
Y70.704 Z-0.148 I0. J-0.597
Y71.898 Z-0.153 I0. J0.597
Y70.704 Z-0.157 I0. J-0.597
Y71.898 Z-0.162 I0. J0.597
Y70.704 Z-0.167 I0. J-0.597
Y71.898 Z-0.172 I0. J0.597
Y70.704 Z-0.176 I0. J-0.597
Y71.898 Z-0.181 I0. J0.597
Y70.704 Z-0.186 I0. J-0.597
Y71.898 Z-0.191 I0. J0.597
Y70.704 Z-0.195 I0. J-0.597
Y71.898 Z-0.2 I0. J0.597
Y70.704 Z-0.205 I0. J-0.597
Y71.898 Z-0.21 I0. J0.597
Y70.704 Z-0.214 I0. J-0.597
Y71.898 Z-0.219 I0. J0.597
Y70.704 Z-0.224 I0. J-0.597
Y71.898 Z-0.229 I0. J0.597
Y70.704 Z-0.234 I0. J-0.597
Y71.898 Z-0.238 I0. J0.597
Y70.704 Z-0.243 I0. J-0.597
Y71.898 Z-0.248 I0. J0.597
Y70.704 Z-0.253 I0. J-0.597
Y71.898 Z-0.257 I0. J0.597
Y70.704 Z-0.262 I0. J-0.597
Y71.898 Z-0.267 I0. J0.597
Y70.704 Z-0.272 I0. J-0.597
Y71.898 Z-0.276 I0. J0.597
Y70.704 Z-0.281 I0. J-0.597
Y71.898 Z-0.286 I0. J0.597
Y70.704 Z-0.291 I0. J-0.597
Y71.898 Z-0.295 I0. J0.597
Y70.704 Z-0.3 I0. J-0.597
Y71.898 Z-0.305 I0. J0.597
Y70.704 Z-0.31 I0. J-0.597
Y71.898 Z-0.315 I0. J0.597
Y70.704 Z-0.319 I0. J-0.597
Y71.898 Z-0.324 I0. J0.597
Y70.704 Z-0.329 I0. J-0.597
Y71.898 Z-0.334 I0. J0.597
Y70.704 Z-0.338 I0. J-0.597
Y71.898 Z-0.343 I0. J0.597
Y70.704 Z-0.348 I0. J-0.597
Y71.898 Z-0.353 I0. J0.597
Y70.704 Z-0.357 I0. J-0.597
Y71.898 Z-0.362 I0. J0.597
Y70.704 Z-0.367 I0. J-0.597
Y71.898 Z-0.372 I0. J0.597
Y70.704 Z-0.376 I0. J-0.597
Y71.898 Z-0.381 I0. J0.597
Y70.704 Z-0.386 I0. J-0.597
Y71.898 Z-0.391 I0. J0.597
Y70.704 Z-0.396 I0. J-0.597
Y71.898 Z-0.4 I0. J0.597
Y70.704 Z-0.405 I0. J-0.597
Y71.898 Z-0.41 I0. J0.597
Y70.704 Z-0.415 I0. J-0.597
Y71.898 Z-0.419 I0. J0.597
Y70.704 Z-0.424 I0. J-0.597
Y71.898 Z-0.429 I0. J0.597
Y70.704 Z-0.434 I0. J-0.597
Y71.898 Z-0.438 I0. J0.597
Y70.704 Z-0.443 I0. J-0.597
Y71.898 Z-0.448 I0. J0.597
Y70.704 Z-0.453 I0. J-0.597
Y71.898 Z-0.458 I0. J0.597
Y70.704 Z-0.462 I0. J-0.597
Y71.898 Z-0.467 I0. J0.597
Y70.704 Z-0.472 I0. J-0.597
Y71.898 Z-0.477 I0. J0.597
Y70.704 Z-0.481 I0. J-0.597
Y71.898 Z-0.486 I0. J0.597
Y70.704 Z-0.491 I0. J-0.597
Y71.898 Z-0.496 I0. J0.597
Y70.704 Z-0.5 I0. J-0.597
Y71.898 Z-0.505 I0. J0.597
Y70.704 Z-0.51 I0. J-0.597
Y71.898 Z-0.515 I0. J0.597
Y70.704 Z-0.519 I0. J-0.597
Y71.898 Z-0.524 I0. J0.597
Y70.704 Z-0.529 I0. J-0.597
Y71.898 Z-0.534 I0. J0.597
Y70.704 Z-0.539 I0. J-0.597
Y71.898 Z-0.543 I0. J0.597
Y70.704 Z-0.548 I0. J-0.597
Y71.898 Z-0.553 I0. J0.597
Y70.704 Z-0.558 I0. J-0.597
Y71.898 Z-0.562 I0. J0.597
Y70.704 Z-0.567 I0. J-0.597
Y71.898 Z-0.572 I0. J0.597
Y70.704 Z-0.577 I0. J-0.597
Y71.898 Z-0.581 I0. J0.597
Y70.704 Z-0.586 I0. J-0.597
Y71.898 Z-0.591 I0. J0.597
Y70.704 Z-0.596 I0. J-0.597
Y71.898 Z-0.6 I0. J0.597
Y70.704 Z-0.605 I0. J-0.597
Y71.898 Z-0.61 I0. J0.597
Y70.704 Z-0.615 I0. J-0.597
Y71.898 Z-0.62 I0. J0.597
Y70.704 Z-0.624 I0. J-0.597
Y71.898 Z-0.629 I0. J0.597
Y70.704 Z-0.634 I0. J-0.597
Y71.898 Z-0.639 I0. J0.597
Y70.704 Z-0.643 I0. J-0.597
Y71.898 Z-0.648 I0. J0.597
Y70.704 Z-0.653 I0. J-0.597
Y71.898 Z-0.658 I0. J0.597
Y70.704 Z-0.662 I0. J-0.597
Y71.898 Z-0.667 I0. J0.597
Y70.704 Z-0.672 I0. J-0.597
Y71.898 Z-0.677 I0. J0.597
Y70.704 Z-0.681 I0. J-0.597
Y71.898 Z-0.686 I0. J0.597
Y70.704 Z-0.691 I0. J-0.597
Y71.898 Z-0.696 I0. J0.597
Y70.704 Z-0.701 I0. J-0.597
Y71.898 Z-0.705 I0. J0.597
Y70.704 Z-0.71 I0. J-0.597
Y71.898 Z-0.715 I0. J0.597
Y70.704 Z-0.72 I0. J-0.597
Y71.898 Z-0.724 I0. J0.597
Y70.704 Z-0.729 I0. J-0.597
Y71.898 Z-0.734 I0. J0.597
Y70.704 Z-0.739 I0. J-0.597
Y71.898 Z-0.743 I0. J0.597
Y70.704 Z-0.748 I0. J-0.597
Y71.898 Z-0.753 I0. J0.597
Y70.704 Z-0.758 I0. J-0.597
Y71.898 Z-0.763 I0. J0.597
Y70.704 Z-0.767 I0. J-0.597
Y71.898 Z-0.772 I0. J0.597
Y70.704 Z-0.777 I0. J-0.597
Y71.898 Z-0.782 I0. J0.597
Y70.704 Z-0.786 I0. J-0.597
Y71.898 Z-0.791 I0. J0.597
Y70.704 Z-0.796 I0. J-0.597
Y71.898 Z-0.801 I0. J0.597
Y70.704 Z-0.805 I0. J-0.597
Y71.898 Z-0.81 I0. J0.597
Y70.704 Z-0.815 I0. J-0.597
Y71.898 Z-0.82 I0. J0.597
Y70.704 Z-0.824 I0. J-0.597
Y71.898 Z-0.829 I0. J0.597
Y70.704 Z-0.834 I0. J-0.597
Y71.898 Z-0.839 I0. J0.597
Y70.704 Z-0.844 I0. J-0.597
Y71.898 Z-0.848 I0. J0.597
Y70.704 Z-0.853 I0. J-0.597
Y71.898 Z-0.858 I0. J0.597
Y70.704 Z-0.863 I0. J-0.597
Y71.898 Z-0.867 I0. J0.597
Y70.704 Z-0.872 I0. J-0.597
Y71.898 Z-0.877 I0. J0.597
Y70.704 Z-0.882 I0. J-0.597
Y71.898 Z-0.886 I0. J0.597
Y70.704 Z-0.891 I0. J-0.597
Y71.898 Z-0.896 I0. J0.597
Y70.704 Z-0.901 I0. J-0.597
Y71.898 Z-0.905 I0. J0.597
Y70.704 Z-0.91 I0. J-0.597
Y71.898 Z-0.915 I0. J0.597
Y70.704 Z-0.92 I0. J-0.597
Y71.898 Z-0.925 I0. J0.597
Y70.704 Z-0.929 I0. J-0.597
Y71.898 Z-0.934 I0. J0.597
Y70.704 Z-0.939 I0. J-0.597
Y71.898 Z-0.944 I0. J0.597
Y70.704 Z-0.948 I0. J-0.597
Y71.898 Z-0.953 I0. J0.597
Y70.704 Z-0.958 I0. J-0.597
Y71.898 Z-0.963 I0. J0.597
Y70.704 Z-0.967 I0. J-0.597
Y71.898 Z-0.972 I0. J0.597
Y70.704 Z-0.977 I0. J-0.597
Y71.898 Z-0.982 I0. J0.597
Y70.704 Z-0.986 I0. J-0.597
Y71.898 Z-0.991 I0. J0.597
Y70.704 Z-0.996 I0. J-0.597
Y71.898 Z-1.001 I0. J0.597
Y70.704 Z-1.006 I0. J-0.597
Y71.898 Z-1.01 I0. J0.597
Y70.704 Z-1.015 I0. J-0.597
Y71.898 Z-1.02 I0. J0.597
Y70.704 Z-1.025 I0. J-0.597
Y71.898 Z-1.029 I0. J0.597
Y70.704 Z-1.034 I0. J-0.597
Y71.898 Z-1.039 I0. J0.597
Y70.704 Z-1.044 I0. J-0.597
Y71.898 Z-1.048 I0. J0.597
Y70.704 Z-1.053 I0. J-0.597
Y71.898 Z-1.058 I0. J0.597
Y70.704 Z-1.063 I0. J-0.597
Y71.898 Z-1.068 I0. J0.597
Y70.704 Z-1.072 I0. J-0.597
Y71.898 Z-1.077 I0. J0.597
Y70.704 Z-1.082 I0. J-0.597
Y71.898 Z-1.087 I0. J0.597
Y70.704 Z-1.091 I0. J-0.597
Y71.898 Z-1.096 I0. J0.597
Y70.704 Z-1.101 I0. J-0.597
Y71.898 Z-1.106 I0. J0.597
Y70.704 Z-1.11 I0. J-0.597
Y71.898 Z-1.115 I0. J0.597
Y70.704 Z-1.12 I0. J-0.597
Y71.898 Z-1.125 I0. J0.597
Y70.704 Z-1.129 I0. J-0.597
Y71.898 Z-1.134 I0. J0.597
Y70.704 Z-1.139 I0. J-0.597
Y71.898 Z-1.144 I0. J0.597
Y70.704 Z-1.149 I0. J-0.597
Y71.898 Z-1.153 I0. J0.597
Y70.704 Z-1.158 I0. J-0.597
Y71.898 Z-1.163 I0. J0.597
Y70.704 Z-1.168 I0. J-0.597
Y71.898 Z-1.172 I0. J0.597
Y70.704 Z-1.177 I0. J-0.597
Y71.898 Z-1.182 I0. J0.597
Y70.704 Z-1.187 I0. J-0.597
Y71.898 Z-1.191 I0. J0.597
Y70.704 Z-1.196 I0. J-0.597
Y71.898 Z-1.201 I0. J0.597
Y70.704 Z-1.206 I0. J-0.597
Y71.898 Z-1.21 I0. J0.597
Y70.704 Z-1.215 I0. J-0.597
Y71.898 Z-1.22 I0. J0.597
Y70.704 Z-1.225 I0. J-0.597
Y71.898 Z-1.23 I0. J0.597
Y70.704 Z-1.234 I0. J-0.597
Y71.898 Z-1.239 I0. J0.597
Y70.704 Z-1.244 I0. J-0.597
Y71.898 Z-1.249 I0. J0.597
Y70.704 Z-1.253 I0. J-0.597
Y71.898 Z-1.258 I0. J0.597
Y70.704 Z-1.263 I0. J-0.597
Y71.898 Z-1.268 I0. J0.597
Y70.704 Z-1.272 I0. J-0.597
Y71.898 Z-1.277 I0. J0.597
Y70.704 Z-1.282 I0. J-0.597
Y71.898 Z-1.287 I0. J0.597
Y70.704 Z-1.291 I0. J-0.597
Y71.898 Z-1.296 I0. J0.597
Y70.704 Z-1.301 I0. J-0.597
Y71.898 Z-1.306 I0. J0.597
Y70.704 Z-1.311 I0. J-0.597
Y71.898 Z-1.315 I0. J0.597
Y70.704 Z-1.32 I0. J-0.597
Y71.898 Z-1.325 I0. J0.597
Y70.704 Z-1.33 I0. J-0.597
Y71.898 Z-1.334 I0. J0.597
Y70.704 Z-1.339 I0. J-0.597
Y71.898 Z-1.344 I0. J0.597
Y70.704 Z-1.349 I0. J-0.597
Y71.898 Z-1.353 I0. J0.597
Y70.704 Z-1.358 I0. J-0.597
Y71.898 Z-1.363 I0. J0.597
Y70.704 Z-1.368 I0. J-0.597
Y71.898 Z-1.373 I0. J0.597
Y70.704 Z-1.377 I0. J-0.597
Y71.898 Z-1.382 I0. J0.597
Y70.704 Z-1.387 I0. J-0.597
Y71.898 Z-1.392 I0. J0.597
Y70.704 Z-1.396 I0. J-0.597
Y71.898 Z-1.401 I0. J0.597
Y70.704 Z-1.406 I0. J-0.597
Y71.898 Z-1.411 I0. J0.597
Y70.704 Z-1.415 I0. J-0.597
Y71.898 Z-1.42 I0. J0.597
Y70.704 Z-1.425 I0. J-0.597
Y71.898 Z-1.43 I0. J0.597
Y70.704 Z-1.434 I0. J-0.597
Y71.898 Z-1.439 I0. J0.597
Y70.704 Z-1.444 I0. J-0.597
Y71.898 Z-1.449 I0. J0.597
Y70.704 Z-1.454 I0. J-0.597
Y71.898 Z-1.458 I0. J0.597
Y70.704 Z-1.463 I0. J-0.597
Y71.898 Z-1.468 I0. J0.597
Y70.704 Z-1.473 I0. J-0.597
Y71.898 Z-1.477 I0. J0.597
Y70.704 Z-1.482 I0. J-0.597
Y71.898 Z-1.487 I0. J0.597
Y70.704 Z-1.492 I0. J-0.597
Y71.898 Z-1.496 I0. J0.597
Y70.704 Z-1.501 I0. J-0.597
Y71.898 Z-1.506 I0. J0.597
Y70.704 Z-1.511 I0. J-0.597
Y71.898 Z-1.515 I0. J0.597
Y70.704 Z-1.52 I0. J-0.597
Y71.898 Z-1.525 I0. J0.597
Y70.704 Z-1.53 I0. J-0.597
Y71.898 Z-1.535 I0. J0.597
Y70.704 Z-1.539 I0. J-0.597
Y71.898 Z-1.544 I0. J0.597
Y70.704 Z-1.549 I0. J-0.597
Y71.898 Z-1.554 I0. J0.597
Y70.704 Z-1.558 I0. J-0.597
Y71.898 Z-1.563 I0. J0.597
Y70.704 Z-1.568 I0. J-0.597
Y71.898 Z-1.573 I0. J0.597
Y70.704 Z-1.577 I0. J-0.597
Y71.898 Z-1.582 I0. J0.597
Y70.704 Z-1.587 I0. J-0.597
Y71.898 Z-1.592 I0. J0.597
Y70.704 Z-1.596 I0. J-0.597
Y71.898 Z-1.601 I0. J0.597
Y70.704 Z-1.606 I0. J-0.597
Y71.898 Z-1.611 I0. J0.597
Y70.704 Z-1.616 I0. J-0.597
Y71.898 Z-1.62 I0. J0.597
Y70.704 Z-1.625 I0. J-0.597
Y71.898 Z-1.63 I0. J0.597
Y70.704 Z-1.635 I0. J-0.597
Y71.898 Z-1.639 I0. J0.597
Y70.704 Z-1.644 I0. J-0.597
Y71.898 Z-1.649 I0. J0.597
Y70.704 Z-1.654 I0. J-0.597
Y71.898 Z-1.658 I0. J0.597
Y70.704 Z-1.663 I0. J-0.597
Y71.898 Z-1.668 I0. J0.597
Y70.704 Z-1.673 I0. J-0.597
Y71.898 Z-1.678 I0. J0.597
Y70.704 Z-1.682 I0. J-0.597
Y71.898 Z-1.687 I0. J0.597
Y70.704 Z-1.692 I0. J-0.597
Y71.898 Z-1.697 I0. J0.597
Y70.704 Z-1.701 I0. J-0.597
Y71.898 Z-1.706 I0. J0.597
Y70.704 Z-1.711 I0. J-0.597
Y71.898 Z-1.716 I0. J0.597
Y70.704 Z-1.72 I0. J-0.597
Y71.898 Z-1.725 I0. J0.597
Y70.704 Z-1.73 I0. J-0.597
Y71.898 Z-1.735 I0. J0.597
Y70.704 Z-1.739 I0. J-0.597
Y71.898 Z-1.744 I0. J0.597
Y70.704 Z-1.749 I0. J-0.597
Y71.898 Z-1.754 I0. J0.597
Y70.704 Z-1.759 I0. J-0.597
Y71.898 Z-1.763 I0. J0.597
Y70.704 Z-1.768 I0. J-0.597
Y71.898 Z-1.773 I0. J0.597
Y70.704 Z-1.778 I0. J-0.597
Y71.898 Z-1.782 I0. J0.597
Y70.704 Z-1.787 I0. J-0.597
Y71.898 Z-1.792 I0. J0.597
Y70.704 Z-1.797 I0. J-0.597
Y71.898 Z-1.801 I0. J0.597
Y70.704 Z-1.806 I0. J-0.597
Y71.898 Z-1.811 I0. J0.597
Y70.704 Z-1.816 I0. J-0.597
Y71.898 Z-1.82 I0. J0.597
Y70.704 Z-1.825 I0. J-0.597
Y71.898 Z-1.83 I0. J0.597
Y70.704 Z-1.835 I0. J-0.597
Y71.898 Z-1.84 I0. J0.597
Y70.704 Z-1.844 I0. J-0.597
Y71.898 Z-1.849 I0. J0.597
Y70.704 Z-1.854 I0. J-0.597
Y71.898 Z-1.859 I0. J0.597
Y70.704 Z-1.863 I0. J-0.597
Y71.898 Z-1.868 I0. J0.597
Y70.704 Z-1.873 I0. J-0.597
Y71.898 Z-1.878 I0. J0.597
Y70.704 Z-1.882 I0. J-0.597
Y71.898 Z-1.887 I0. J0.597
Y70.704 Z-1.892 I0. J-0.597
Y71.898 Z-1.897 I0. J0.597
Y70.704 Z-1.901 I0. J-0.597
Y71.898 Z-1.906 I0. J0.597
Y70.704 Z-1.911 I0. J-0.597
Y71.898 Z-1.916 I0. J0.597
Y70.704 Z-1.921 I0. J-0.597
Y71.898 Z-1.925 I0. J0.597
Y70.704 Z-1.93 I0. J-0.597
Y71.898 Z-1.935 I0. J0.597
Y70.704 Z-1.94 I0. J-0.597
Y71.898 Z-1.944 I0. J0.597
Y70.704 Z-1.949 I0. J-0.597
Y71.898 Z-1.954 I0. J0.597
Y70.704 Z-1.959 I0. J-0.597
Y71.898 Z-1.963 I0. J0.597
Y70.704 Z-1.968 I0. J-0.597
Y71.898 Z-1.973 I0. J0.597
Y70.704 Z-1.978 I0. J-0.597
Y71.898 Z-1.983 I0. J0.597
Y70.704 Z-1.987 I0. J-0.597
Y71.898 Z-1.992 I0. J0.597
Y70.704 Z-1.997 I0. J-0.597
Y71.898 Z-2.002 I0. J0.597
Y70.704 Z-2.006 I0. J-0.597
Y71.898 Z-2.011 I0. J0.597
Y70.704 Z-2.016 I0. J-0.597
Y71.898 Z-2.021 I0. J0.597
Y70.704 Z-2.025 I0. J-0.597
Y71.898 Z-2.03 I0. J0.597
Y70.704 Z-2.035 I0. J-0.597
Y71.898 Z-2.04 I0. J0.597
Y70.704 Z-2.044 I0. J-0.597
Y71.898 Z-2.049 I0. J0.597
Y70.704 Z-2.054 I0. J-0.597
Y71.898 Z-2.059 I0. J0.597
Y70.704 Z-2.064 I0. J-0.597
Y71.898 Z-2.068 I0. J0.597
Y70.704 Z-2.073 I0. J-0.597
Y71.898 Z-2.078 I0. J0.597
Y70.704 Z-2.083 I0. J-0.597
Y71.898 Z-2.087 I0. J0.597
Y70.704 Z-2.092 I0. J-0.597
Y71.898 Z-2.097 I0. J0.597
Y70.704 Z-2.102 I0. J-0.597
Y71.898 Z-2.106 I0. J0.597
Y70.704 Z-2.111 I0. J-0.597
Y71.898 Z-2.116 I0. J0.597
Y70.704 Z-2.121 I0. J-0.597
Y71.898 Z-2.125 I0. J0.597
Y70.704 Z-2.13 I0. J-0.597
Y71.898 Z-2.135 I0. J0.597
Y70.704 Z-2.14 I0. J-0.597
Y71.898 Z-2.145 I0. J0.597
Y70.704 Z-2.149 I0. J-0.597
Y71.898 Z-2.154 I0. J0.597
Y70.704 Z-2.159 I0. J-0.597
Y71.898 Z-2.164 I0. J0.597
Y70.704 Z-2.168 I0. J-0.597
Y71.898 Z-2.173 I0. J0.597
Y70.704 Z-2.178 I0. J-0.597
Y71.898 Z-2.183 I0. J0.597
Y70.704 Z-2.187 I0. J-0.597
Y71.898 Z-2.192 I0. J0.597
Y70.704 Z-2.197 I0. J-0.597
Y71.898 Z-2.202 I0. J0.597
Y70.704 Z-2.206 I0. J-0.597
Y71.898 Z-2.211 I0. J0.597
Y70.704 Z-2.216 I0. J-0.597
Y71.898 Z-2.221 I0. J0.597
Y70.704 Z-2.226 I0. J-0.597
Y71.898 Z-2.23 I0. J0.597
Y70.704 Z-2.235 I0. J-0.597
Y71.898 Z-2.24 I0. J0.597
Y70.704 Z-2.245 I0. J-0.597
Y71.898 Z-2.249 I0. J0.597
Y70.704 Z-2.254 I0. J-0.597
Y71.898 Z-2.259 I0. J0.597
Y70.704 Z-2.264 I0. J-0.597
Y71.898 Z-2.268 I0. J0.597
Y70.704 Z-2.273 I0. J-0.597
Y71.898 Z-2.278 I0. J0.597
Y70.704 Z-2.283 I0. J-0.597
Y71.898 Z-2.288 I0. J0.597
Y70.704 Z-2.292 I0. J-0.597
Y71.898 Z-2.297 I0. J0.597
Y70.704 Z-2.302 I0. J-0.597
Y71.898 Z-2.307 I0. J0.597
Y70.704 Z-2.311 I0. J-0.597
Y71.898 Z-2.316 I0. J0.597
Y70.704 Z-2.321 I0. J-0.597
Y71.898 Z-2.326 I0. J0.597
Y70.704 Z-2.33 I0. J-0.597
Y71.898 Z-2.335 I0. J0.597
Y70.704 Z-2.34 I0. J-0.597
Y71.898 Z-2.345 I0. J0.597
Y70.704 Z-2.349 I0. J-0.597
Y71.898 Z-2.354 I0. J0.597
Y70.704 Z-2.359 I0. J-0.597
Y71.898 Z-2.364 I0. J0.597
Y70.704 Z-2.369 I0. J-0.597
Y71.898 Z-2.373 I0. J0.597
Y70.704 Z-2.378 I0. J-0.597
Y71.898 Z-2.383 I0. J0.597
Y70.704 Z-2.388 I0. J-0.597
Y71.898 Z-2.392 I0. J0.597
Y70.704 Z-2.397 I0. J-0.597
Y71.898 Z-2.402 I0. J0.597
Y70.704 Z-2.407 I0. J-0.597
Y71.898 Z-2.411 I0. J0.597
Y70.704 Z-2.416 I0. J-0.597
Y71.898 Z-2.421 I0. J0.597
Y70.704 Z-2.426 I0. J-0.597
Y71.898 Z-2.43 I0. J0.597
Y70.704 Z-2.435 I0. J-0.597
Y71.898 Z-2.44 I0. J0.597
Y70.704 Z-2.445 I0. J-0.597
Y71.898 Z-2.45 I0. J0.597
Y70.704 Z-2.454 I0. J-0.597
Y71.898 Z-2.459 I0. J0.597
Y70.704 Z-2.464 I0. J-0.597
Y71.898 Z-2.469 I0. J0.597
Y70.704 Z-2.473 I0. J-0.597
Y71.898 Z-2.478 I0. J0.597
Y70.704 Z-2.483 I0. J-0.597
Y71.898 Z-2.488 I0. J0.597
Y70.704 Z-2.492 I0. J-0.597
Y71.898 Z-2.497 I0. J0.597
Y70.704 Z-2.502 I0. J-0.597
Y71.898 Z-2.507 I0. J0.597
Y70.704 Z-2.511 I0. J-0.597
Y71.898 Z-2.516 I0. J0.597
Y70.704 Z-2.521 I0. J-0.597
Y71.898 Z-2.526 I0. J0.597
Y70.704 Z-2.531 I0. J-0.597
Y71.898 Z-2.535 I0. J0.597
Y70.704 Z-2.54 I0. J-0.597
Y71.898 Z-2.545 I0. J0.597
Y70.704 Z-2.55 I0. J-0.597
Y71.898 Z-2.554 I0. J0.597
Y70.704 Z-2.559 I0. J-0.597
Y71.898 Z-2.564 I0. J0.597
Y70.704 Z-2.569 I0. J-0.597
Y71.898 Z-2.573 I0. J0.597
Y70.704 Z-2.578 I0. J-0.597
Y71.898 Z-2.583 I0. J0.597
Y70.704 Z-2.588 I0. J-0.597
Y71.898 Z-2.593 I0. J0.597
Y70.704 Z-2.597 I0. J-0.597
Y71.898 Z-2.602 I0. J0.597
Y70.704 Z-2.607 I0. J-0.597
Y71.898 Z-2.612 I0. J0.597
Y70.704 Z-2.616 I0. J-0.597
Y71.898 Z-2.621 I0. J0.597
Y70.704 Z-2.626 I0. J-0.597
Y71.898 Z-2.631 I0. J0.597
Y70.704 Z-2.635 I0. J-0.597
Y71.898 Z-2.64 I0. J0.597
Y70.704 Z-2.645 I0. J-0.597
Y71.898 Z-2.65 I0. J0.597
Y70.704 Z-2.654 I0. J-0.597
Y71.898 Z-2.659 I0. J0.597
Y70.704 Z-2.664 I0. J-0.597
Y71.898 Z-2.669 I0. J0.597
Y70.704 Z-2.674 I0. J-0.597
Y71.898 Z-2.678 I0. J0.597
Y70.704 Z-2.683 I0. J-0.597
Y71.898 Z-2.688 I0. J0.597
Y70.704 Z-2.693 I0. J-0.597
Y71.898 Z-2.697 I0. J0.597
Y70.704 Z-2.702 I0. J-0.597
Y71.898 Z-2.707 I0. J0.597
Y70.704 Z-2.712 I0. J-0.597
Y71.898 Z-2.716 I0. J0.597
Y70.704 Z-2.721 I0. J-0.597
Y71.898 Z-2.726 I0. J0.597
Y70.704 Z-2.731 I0. J-0.597
Y71.898 Z-2.735 I0. J0.597
Y70.704 Z-2.74 I0. J-0.597
Y71.898 Z-2.745 I0. J0.597
Y70.704 Z-2.75 I0. J-0.597
Y71.898 Z-2.755 I0. J0.597
Y70.704 Z-2.759 I0. J-0.597
Y71.898 Z-2.764 I0. J0.597
Y70.704 Z-2.769 I0. J-0.597
Y71.898 Z-2.774 I0. J0.597
Y70.704 Z-2.778 I0. J-0.597
Y71.898 Z-2.783 I0. J0.597
Y70.704 Z-2.788 I0. J-0.597
Y71.898 Z-2.793 I0. J0.597
Y70.704 Z-2.797 I0. J-0.597
Y71.898 Z-2.802 I0. J0.597
Y70.704 Z-2.807 I0. J-0.597
Y71.898 Z-2.812 I0. J0.597
Y70.704 Z-2.816 I0. J-0.597
Y71.898 Z-2.821 I0. J0.597
Y70.704 Z-2.826 I0. J-0.597
Y71.898 Z-2.831 I0. J0.597
Y70.704 Z-2.836 I0. J-0.597
Y71.898 Z-2.84 I0. J0.597
Y70.704 Z-2.845 I0. J-0.597
Y71.898 Z-2.85 I0. J0.597
Y70.704 Z-2.855 I0. J-0.597
Y71.898 Z-2.859 I0. J0.597
Y70.704 Z-2.864 I0. J-0.597
Y71.898 Z-2.869 I0. J0.597
Y70.704 Z-2.874 I0. J-0.597
Y71.898 Z-2.878 I0. J0.597
Y70.704 Z-2.883 I0. J-0.597
Y71.898 Z-2.888 I0. J0.597
Y70.704 Z-2.893 I0. J-0.597
Y71.898 Z-2.898 I0. J0.597
Y70.704 Z-2.902 I0. J-0.597
Y71.898 Z-2.907 I0. J0.597
Y70.704 Z-2.912 I0. J-0.597
Y71.898 Z-2.917 I0. J0.597
Y70.704 Z-2.921 I0. J-0.597
Y71.898 Z-2.926 I0. J0.597
Y70.704 Z-2.931 I0. J-0.597
Y71.898 Z-2.936 I0. J0.597
Y70.704 Z-2.94 I0. J-0.597
Y71.898 Z-2.945 I0. J0.597
Y70.704 Z-2.95 I0. J-0.597
Y71.898 Z-2.955 I0. J0.597
Y70.704 Z-2.959 I0. J-0.597
Y71.898 Z-2.964 I0. J0.597
Y70.704 Z-2.969 I0. J-0.597
Y71.898 Z-2.974 I0. J0.597
Y70.704 Z-2.979 I0. J-0.597
Y71.898 Z-2.983 I0. J0.597
Y70.704 Z-2.988 I0. J-0.597
Y71.898 Z-2.993 I0. J0.597
Y70.704 Z-2.998 I0. J-0.597
Y71.898 Z-3.002 I0. J0.597
Y70.704 Z-3.007 I0. J-0.597
Y71.898 Z-3.012 I0. J0.597
Y70.704 Z-3.017 I0. J-0.597
Y71.898 Z-3.021 I0. J0.597
Y70.704 Z-3.026 I0. J-0.597
Y71.898 Z-3.031 I0. J0.597
Y70.704 Z-3.036 I0. J-0.597
Y71.898 Z-3.04 I0. J0.597
Y70.704 Z-3.045 I0. J-0.597
Y71.898 Z-3.05 I0. J0.597
Y70.704 Z-3.055 I0. J-0.597
Y71.898 Z-3.06 I0. J0.597
Y70.704 Z-3.064 I0. J-0.597
Y71.898 Z-3.069 I0. J0.597
Y70.704 Z-3.074 I0. J-0.597
Y71.898 Z-3.079 I0. J0.597
Y70.704 Z-3.083 I0. J-0.597
Y71.898 Z-3.088 I0. J0.597
Y70.704 Z-3.093 I0. J-0.597
Y71.898 Z-3.098 I0. J0.597
Y70.704 Z-3.102 I0. J-0.597
Y71.898 Z-3.107 I0. J0.597
Y70.704 Z-3.112 I0. J-0.597
Y71.898 Z-3.117 I0. J0.597
Y70.704 Z-3.121 I0. J-0.597
Y71.898 Z-3.126 I0. J0.597
Y70.704 Z-3.131 I0. J-0.597
Y71.898 Z-3.136 I0. J0.597
Y70.704 Z-3.141 I0. J-0.597
Y71.898 Z-3.145 I0. J0.597
Y70.704 Z-3.15 I0. J-0.597
Y71.898 Z-3.155 I0. J0.597
Y70.704 Z-3.16 I0. J-0.597
Y71.898 Z-3.164 I0. J0.597
Y70.704 Z-3.169 I0. J-0.597
Y71.898 Z-3.174 I0. J0.597
X102.355 Y71.75 Z-3.175 I0. J-0.597
X101.569 Y70.852 I-0.393 J-0.449
X102.355 Y71.75 I0.393 J0.449
X102.383 Y71.329 I-0.197 J-0.225
G1 X102.278 Y71.21
X102.232 Y71.157 Z-3.167
X102.188 Y71.106 Z-3.144
X102.148 Y71.061 Z-3.106
X102.115 Y71.023 Z-3.055
X102.09 Y70.995 Z-2.995
X102.074 Y70.977 Z-2.928
X102.069 Y70.971 Z-2.858
G0 Z5.
X74.723 Y44.183
Z2.
G1 Z0.317 F800.
Y44.191 Z0.247
Y44.214 Z0.18
Y44.252 Z0.12
Y44.302 Z0.069
Y44.362 Z0.031
Y44.43 Z0.008
Y44.5 Z0.
Y44.659
G2 X75.021 Y44.957 I0.298 J0.
Y43.764 Z-0.005 I0. J-0.597
Y44.957 Z-0.01 I0. J0.597
Y43.764 Z-0.014 I0. J-0.597
Y44.957 Z-0.019 I0. J0.597
Y43.764 Z-0.024 I0. J-0.597
Y44.957 Z-0.029 I0. J0.597
Y43.764 Z-0.033 I0. J-0.597
Y44.957 Z-0.038 I0. J0.597
Y43.764 Z-0.043 I0. J-0.597
Y44.957 Z-0.048 I0. J0.597
Y43.764 Z-0.052 I0. J-0.597
Y44.957 Z-0.057 I0. J0.597
Y43.764 Z-0.062 I0. J-0.597
Y44.957 Z-0.067 I0. J0.597
Y43.764 Z-0.071 I0. J-0.597
Y44.957 Z-0.076 I0. J0.597
Y43.764 Z-0.081 I0. J-0.597
Y44.957 Z-0.086 I0. J0.597
Y43.764 Z-0.091 I0. J-0.597
Y44.957 Z-0.095 I0. J0.597
Y43.764 Z-0.1 I0. J-0.597
Y44.957 Z-0.105 I0. J0.597
Y43.764 Z-0.11 I0. J-0.597
Y44.957 Z-0.114 I0. J0.597
Y43.764 Z-0.119 I0. J-0.597
Y44.957 Z-0.124 I0. J0.597
Y43.764 Z-0.129 I0. J-0.597
Y44.957 Z-0.133 I0. J0.597
Y43.764 Z-0.138 I0. J-0.597
Y44.957 Z-0.143 I0. J0.597
Y43.764 Z-0.148 I0. J-0.597
Y44.957 Z-0.153 I0. J0.597
Y43.764 Z-0.157 I0. J-0.597
Y44.957 Z-0.162 I0. J0.597
Y43.764 Z-0.167 I0. J-0.597
Y44.957 Z-0.172 I0. J0.597
Y43.764 Z-0.176 I0. J-0.597
Y44.957 Z-0.181 I0. J0.597
Y43.764 Z-0.186 I0. J-0.597
Y44.957 Z-0.191 I0. J0.597
Y43.764 Z-0.195 I0. J-0.597
Y44.957 Z-0.2 I0. J0.597
Y43.764 Z-0.205 I0. J-0.597
Y44.957 Z-0.21 I0. J0.597
Y43.764 Z-0.214 I0. J-0.597
Y44.957 Z-0.219 I0. J0.597
Y43.764 Z-0.224 I0. J-0.597
Y44.957 Z-0.229 I0. J0.597
Y43.764 Z-0.234 I0. J-0.597
Y44.957 Z-0.238 I0. J0.597
Y43.764 Z-0.243 I0. J-0.597
Y44.957 Z-0.248 I0. J0.597
Y43.764 Z-0.253 I0. J-0.597
Y44.957 Z-0.257 I0. J0.597
Y43.764 Z-0.262 I0. J-0.597
Y44.957 Z-0.267 I0. J0.597
Y43.764 Z-0.272 I0. J-0.597
Y44.957 Z-0.276 I0. J0.597
Y43.764 Z-0.281 I0. J-0.597
Y44.957 Z-0.286 I0. J0.597
Y43.764 Z-0.291 I0. J-0.597
Y44.957 Z-0.295 I0. J0.597
Y43.764 Z-0.3 I0. J-0.597
Y44.957 Z-0.305 I0. J0.597
Y43.764 Z-0.31 I0. J-0.597
Y44.957 Z-0.315 I0. J0.597
Y43.764 Z-0.319 I0. J-0.597
Y44.957 Z-0.324 I0. J0.597
Y43.764 Z-0.329 I0. J-0.597
Y44.957 Z-0.334 I0. J0.597
Y43.764 Z-0.338 I0. J-0.597
Y44.957 Z-0.343 I0. J0.597
Y43.764 Z-0.348 I0. J-0.597
Y44.957 Z-0.353 I0. J0.597
Y43.764 Z-0.357 I0. J-0.597
Y44.957 Z-0.362 I0. J0.597
Y43.764 Z-0.367 I0. J-0.597
Y44.957 Z-0.372 I0. J0.597
Y43.764 Z-0.376 I0. J-0.597
Y44.957 Z-0.381 I0. J0.597
Y43.764 Z-0.386 I0. J-0.597
Y44.957 Z-0.391 I0. J0.597
Y43.764 Z-0.396 I0. J-0.597
Y44.957 Z-0.4 I0. J0.597
Y43.764 Z-0.405 I0. J-0.597
Y44.957 Z-0.41 I0. J0.597
Y43.764 Z-0.415 I0. J-0.597
Y44.957 Z-0.419 I0. J0.597
Y43.764 Z-0.424 I0. J-0.597
Y44.957 Z-0.429 I0. J0.597
Y43.764 Z-0.434 I0. J-0.597
Y44.957 Z-0.438 I0. J0.597
Y43.764 Z-0.443 I0. J-0.597
Y44.957 Z-0.448 I0. J0.597
Y43.764 Z-0.453 I0. J-0.597
Y44.957 Z-0.458 I0. J0.597
Y43.764 Z-0.462 I0. J-0.597
Y44.957 Z-0.467 I0. J0.597
Y43.764 Z-0.472 I0. J-0.597
Y44.957 Z-0.477 I0. J0.597
Y43.764 Z-0.481 I0. J-0.597
Y44.957 Z-0.486 I0. J0.597
Y43.764 Z-0.491 I0. J-0.597
Y44.957 Z-0.496 I0. J0.597
Y43.764 Z-0.5 I0. J-0.597
Y44.957 Z-0.505 I0. J0.597
Y43.764 Z-0.51 I0. J-0.597
Y44.957 Z-0.515 I0. J0.597
Y43.764 Z-0.519 I0. J-0.597
Y44.957 Z-0.524 I0. J0.597
Y43.764 Z-0.529 I0. J-0.597
Y44.957 Z-0.534 I0. J0.597
Y43.764 Z-0.539 I0. J-0.597
Y44.957 Z-0.543 I0. J0.597
Y43.764 Z-0.548 I0. J-0.597
Y44.957 Z-0.553 I0. J0.597
Y43.764 Z-0.558 I0. J-0.597
Y44.957 Z-0.562 I0. J0.597
Y43.764 Z-0.567 I0. J-0.597
Y44.957 Z-0.572 I0. J0.597
Y43.764 Z-0.577 I0. J-0.597
Y44.957 Z-0.581 I0. J0.597
Y43.764 Z-0.586 I0. J-0.597
Y44.957 Z-0.591 I0. J0.597
Y43.764 Z-0.596 I0. J-0.597
Y44.957 Z-0.6 I0. J0.597
Y43.764 Z-0.605 I0. J-0.597
Y44.957 Z-0.61 I0. J0.597
Y43.764 Z-0.615 I0. J-0.597
Y44.957 Z-0.62 I0. J0.597
Y43.764 Z-0.624 I0. J-0.597
Y44.957 Z-0.629 I0. J0.597
Y43.764 Z-0.634 I0. J-0.597
Y44.957 Z-0.639 I0. J0.597
Y43.764 Z-0.643 I0. J-0.597
Y44.957 Z-0.648 I0. J0.597
Y43.764 Z-0.653 I0. J-0.597
Y44.957 Z-0.658 I0. J0.597
Y43.764 Z-0.662 I0. J-0.597
Y44.957 Z-0.667 I0. J0.597
Y43.764 Z-0.672 I0. J-0.597
Y44.957 Z-0.677 I0. J0.597
Y43.764 Z-0.681 I0. J-0.597
Y44.957 Z-0.686 I0. J0.597
Y43.764 Z-0.691 I0. J-0.597
Y44.957 Z-0.696 I0. J0.597
Y43.764 Z-0.701 I0. J-0.597
Y44.957 Z-0.705 I0. J0.597
Y43.764 Z-0.71 I0. J-0.597
Y44.957 Z-0.715 I0. J0.597
Y43.764 Z-0.72 I0. J-0.597
Y44.957 Z-0.724 I0. J0.597
Y43.764 Z-0.729 I0. J-0.597
Y44.957 Z-0.734 I0. J0.597
Y43.764 Z-0.739 I0. J-0.597
Y44.957 Z-0.743 I0. J0.597
Y43.764 Z-0.748 I0. J-0.597
Y44.957 Z-0.753 I0. J0.597
Y43.764 Z-0.758 I0. J-0.597
Y44.957 Z-0.763 I0. J0.597
Y43.764 Z-0.767 I0. J-0.597
Y44.957 Z-0.772 I0. J0.597
Y43.764 Z-0.777 I0. J-0.597
Y44.957 Z-0.782 I0. J0.597
Y43.764 Z-0.786 I0. J-0.597
Y44.957 Z-0.791 I0. J0.597
Y43.764 Z-0.796 I0. J-0.597
Y44.957 Z-0.801 I0. J0.597
Y43.764 Z-0.805 I0. J-0.597
Y44.957 Z-0.81 I0. J0.597
Y43.764 Z-0.815 I0. J-0.597
Y44.957 Z-0.82 I0. J0.597
Y43.764 Z-0.824 I0. J-0.597
Y44.957 Z-0.829 I0. J0.597
Y43.764 Z-0.834 I0. J-0.597
Y44.957 Z-0.839 I0. J0.597
Y43.764 Z-0.844 I0. J-0.597
Y44.957 Z-0.848 I0. J0.597
Y43.764 Z-0.853 I0. J-0.597
Y44.957 Z-0.858 I0. J0.597
Y43.764 Z-0.863 I0. J-0.597
Y44.957 Z-0.867 I0. J0.597
Y43.764 Z-0.872 I0. J-0.597
Y44.957 Z-0.877 I0. J0.597
Y43.764 Z-0.882 I0. J-0.597
Y44.957 Z-0.886 I0. J0.597
Y43.764 Z-0.891 I0. J-0.597
Y44.957 Z-0.896 I0. J0.597
Y43.764 Z-0.901 I0. J-0.597
Y44.957 Z-0.905 I0. J0.597
Y43.764 Z-0.91 I0. J-0.597
Y44.957 Z-0.915 I0. J0.597
Y43.764 Z-0.92 I0. J-0.597
Y44.957 Z-0.925 I0. J0.597
Y43.764 Z-0.929 I0. J-0.597
Y44.957 Z-0.934 I0. J0.597
Y43.764 Z-0.939 I0. J-0.597
Y44.957 Z-0.944 I0. J0.597
Y43.764 Z-0.948 I0. J-0.597
Y44.957 Z-0.953 I0. J0.597
Y43.764 Z-0.958 I0. J-0.597
Y44.957 Z-0.963 I0. J0.597
Y43.764 Z-0.967 I0. J-0.597
Y44.957 Z-0.972 I0. J0.597
Y43.764 Z-0.977 I0. J-0.597
Y44.957 Z-0.982 I0. J0.597
Y43.764 Z-0.986 I0. J-0.597
Y44.957 Z-0.991 I0. J0.597
Y43.764 Z-0.996 I0. J-0.597
Y44.957 Z-1.001 I0. J0.597
Y43.764 Z-1.006 I0. J-0.597
Y44.957 Z-1.01 I0. J0.597
Y43.764 Z-1.015 I0. J-0.597
Y44.957 Z-1.02 I0. J0.597
Y43.764 Z-1.025 I0. J-0.597
Y44.957 Z-1.029 I0. J0.597
Y43.764 Z-1.034 I0. J-0.597
Y44.957 Z-1.039 I0. J0.597
Y43.764 Z-1.044 I0. J-0.597
Y44.957 Z-1.048 I0. J0.597
Y43.764 Z-1.053 I0. J-0.597
Y44.957 Z-1.058 I0. J0.597
Y43.764 Z-1.063 I0. J-0.597
Y44.957 Z-1.068 I0. J0.597
Y43.764 Z-1.072 I0. J-0.597
Y44.957 Z-1.077 I0. J0.597
Y43.764 Z-1.082 I0. J-0.597
Y44.957 Z-1.087 I0. J0.597
Y43.764 Z-1.091 I0. J-0.597
Y44.957 Z-1.096 I0. J0.597
Y43.764 Z-1.101 I0. J-0.597
Y44.957 Z-1.106 I0. J0.597
Y43.764 Z-1.11 I0. J-0.597
Y44.957 Z-1.115 I0. J0.597
Y43.764 Z-1.12 I0. J-0.597
Y44.957 Z-1.125 I0. J0.597
Y43.764 Z-1.129 I0. J-0.597
Y44.957 Z-1.134 I0. J0.597
Y43.764 Z-1.139 I0. J-0.597
Y44.957 Z-1.144 I0. J0.597
Y43.764 Z-1.149 I0. J-0.597
Y44.957 Z-1.153 I0. J0.597
Y43.764 Z-1.158 I0. J-0.597
Y44.957 Z-1.163 I0. J0.597
Y43.764 Z-1.168 I0. J-0.597
Y44.957 Z-1.172 I0. J0.597
Y43.764 Z-1.177 I0. J-0.597
Y44.957 Z-1.182 I0. J0.597
Y43.764 Z-1.187 I0. J-0.597
Y44.957 Z-1.191 I0. J0.597
Y43.764 Z-1.196 I0. J-0.597
Y44.957 Z-1.201 I0. J0.597
Y43.764 Z-1.206 I0. J-0.597
Y44.957 Z-1.21 I0. J0.597
Y43.764 Z-1.215 I0. J-0.597
Y44.957 Z-1.22 I0. J0.597
Y43.764 Z-1.225 I0. J-0.597
Y44.957 Z-1.23 I0. J0.597
Y43.764 Z-1.234 I0. J-0.597
Y44.957 Z-1.239 I0. J0.597
Y43.764 Z-1.244 I0. J-0.597
Y44.957 Z-1.249 I0. J0.597
Y43.764 Z-1.253 I0. J-0.597
Y44.957 Z-1.258 I0. J0.597
Y43.764 Z-1.263 I0. J-0.597
Y44.957 Z-1.268 I0. J0.597
Y43.764 Z-1.272 I0. J-0.597
Y44.957 Z-1.277 I0. J0.597
Y43.764 Z-1.282 I0. J-0.597
Y44.957 Z-1.287 I0. J0.597
Y43.764 Z-1.291 I0. J-0.597
Y44.957 Z-1.296 I0. J0.597
Y43.764 Z-1.301 I0. J-0.597
Y44.957 Z-1.306 I0. J0.597
Y43.764 Z-1.311 I0. J-0.597
Y44.957 Z-1.315 I0. J0.597
Y43.764 Z-1.32 I0. J-0.597
Y44.957 Z-1.325 I0. J0.597
Y43.764 Z-1.33 I0. J-0.597
Y44.957 Z-1.334 I0. J0.597
Y43.764 Z-1.339 I0. J-0.597
Y44.957 Z-1.344 I0. J0.597
Y43.764 Z-1.349 I0. J-0.597
Y44.957 Z-1.353 I0. J0.597
Y43.764 Z-1.358 I0. J-0.597
Y44.957 Z-1.363 I0. J0.597
Y43.764 Z-1.368 I0. J-0.597
Y44.957 Z-1.373 I0. J0.597
Y43.764 Z-1.377 I0. J-0.597
Y44.957 Z-1.382 I0. J0.597
Y43.764 Z-1.387 I0. J-0.597
Y44.957 Z-1.392 I0. J0.597
Y43.764 Z-1.396 I0. J-0.597
Y44.957 Z-1.401 I0. J0.597
Y43.764 Z-1.406 I0. J-0.597
Y44.957 Z-1.411 I0. J0.597
Y43.764 Z-1.415 I0. J-0.597
Y44.957 Z-1.42 I0. J0.597
Y43.764 Z-1.425 I0. J-0.597
Y44.957 Z-1.43 I0. J0.597
Y43.764 Z-1.434 I0. J-0.597
Y44.957 Z-1.439 I0. J0.597
Y43.764 Z-1.444 I0. J-0.597
Y44.957 Z-1.449 I0. J0.597
Y43.764 Z-1.454 I0. J-0.597
Y44.957 Z-1.458 I0. J0.597
Y43.764 Z-1.463 I0. J-0.597
Y44.957 Z-1.468 I0. J0.597
Y43.764 Z-1.473 I0. J-0.597
Y44.957 Z-1.477 I0. J0.597
Y43.764 Z-1.482 I0. J-0.597
Y44.957 Z-1.487 I0. J0.597
Y43.764 Z-1.492 I0. J-0.597
Y44.957 Z-1.496 I0. J0.597
Y43.764 Z-1.501 I0. J-0.597
Y44.957 Z-1.506 I0. J0.597
Y43.764 Z-1.511 I0. J-0.597
Y44.957 Z-1.515 I0. J0.597
Y43.764 Z-1.52 I0. J-0.597
Y44.957 Z-1.525 I0. J0.597
Y43.764 Z-1.53 I0. J-0.597
Y44.957 Z-1.535 I0. J0.597
Y43.764 Z-1.539 I0. J-0.597
Y44.957 Z-1.544 I0. J0.597
Y43.764 Z-1.549 I0. J-0.597
Y44.957 Z-1.554 I0. J0.597
Y43.764 Z-1.558 I0. J-0.597
Y44.957 Z-1.563 I0. J0.597
Y43.764 Z-1.568 I0. J-0.597
Y44.957 Z-1.573 I0. J0.597
Y43.764 Z-1.577 I0. J-0.597
Y44.957 Z-1.582 I0. J0.597
Y43.764 Z-1.587 I0. J-0.597
Y44.957 Z-1.592 I0. J0.597
Y43.764 Z-1.596 I0. J-0.597
Y44.957 Z-1.601 I0. J0.597
Y43.764 Z-1.606 I0. J-0.597
Y44.957 Z-1.611 I0. J0.597
Y43.764 Z-1.616 I0. J-0.597
Y44.957 Z-1.62 I0. J0.597
Y43.764 Z-1.625 I0. J-0.597
Y44.957 Z-1.63 I0. J0.597
Y43.764 Z-1.635 I0. J-0.597
Y44.957 Z-1.639 I0. J0.597
Y43.764 Z-1.644 I0. J-0.597
Y44.957 Z-1.649 I0. J0.597
Y43.764 Z-1.654 I0. J-0.597
Y44.957 Z-1.658 I0. J0.597
Y43.764 Z-1.663 I0. J-0.597
Y44.957 Z-1.668 I0. J0.597
Y43.764 Z-1.673 I0. J-0.597
Y44.957 Z-1.678 I0. J0.597
Y43.764 Z-1.682 I0. J-0.597
Y44.957 Z-1.687 I0. J0.597
Y43.764 Z-1.692 I0. J-0.597
Y44.957 Z-1.697 I0. J0.597
Y43.764 Z-1.701 I0. J-0.597
Y44.957 Z-1.706 I0. J0.597
Y43.764 Z-1.711 I0. J-0.597
Y44.957 Z-1.716 I0. J0.597
Y43.764 Z-1.72 I0. J-0.597
Y44.957 Z-1.725 I0. J0.597
Y43.764 Z-1.73 I0. J-0.597
Y44.957 Z-1.735 I0. J0.597
Y43.764 Z-1.739 I0. J-0.597
Y44.957 Z-1.744 I0. J0.597
Y43.764 Z-1.749 I0. J-0.597
Y44.957 Z-1.754 I0. J0.597
Y43.764 Z-1.759 I0. J-0.597
Y44.957 Z-1.763 I0. J0.597
Y43.764 Z-1.768 I0. J-0.597
Y44.957 Z-1.773 I0. J0.597
Y43.764 Z-1.778 I0. J-0.597
Y44.957 Z-1.782 I0. J0.597
Y43.764 Z-1.787 I0. J-0.597
Y44.957 Z-1.792 I0. J0.597
Y43.764 Z-1.797 I0. J-0.597
Y44.957 Z-1.801 I0. J0.597
Y43.764 Z-1.806 I0. J-0.597
Y44.957 Z-1.811 I0. J0.597
Y43.764 Z-1.816 I0. J-0.597
Y44.957 Z-1.82 I0. J0.597
Y43.764 Z-1.825 I0. J-0.597
Y44.957 Z-1.83 I0. J0.597
Y43.764 Z-1.835 I0. J-0.597
Y44.957 Z-1.84 I0. J0.597
Y43.764 Z-1.844 I0. J-0.597
Y44.957 Z-1.849 I0. J0.597
Y43.764 Z-1.854 I0. J-0.597
Y44.957 Z-1.859 I0. J0.597
Y43.764 Z-1.863 I0. J-0.597
Y44.957 Z-1.868 I0. J0.597
Y43.764 Z-1.873 I0. J-0.597
Y44.957 Z-1.878 I0. J0.597
Y43.764 Z-1.882 I0. J-0.597
Y44.957 Z-1.887 I0. J0.597
Y43.764 Z-1.892 I0. J-0.597
Y44.957 Z-1.897 I0. J0.597
Y43.764 Z-1.901 I0. J-0.597
Y44.957 Z-1.906 I0. J0.597
Y43.764 Z-1.911 I0. J-0.597
Y44.957 Z-1.916 I0. J0.597
Y43.764 Z-1.921 I0. J-0.597
Y44.957 Z-1.925 I0. J0.597
Y43.764 Z-1.93 I0. J-0.597
Y44.957 Z-1.935 I0. J0.597
Y43.764 Z-1.94 I0. J-0.597
Y44.957 Z-1.944 I0. J0.597
Y43.764 Z-1.949 I0. J-0.597
Y44.957 Z-1.954 I0. J0.597
Y43.764 Z-1.959 I0. J-0.597
Y44.957 Z-1.963 I0. J0.597
Y43.764 Z-1.968 I0. J-0.597
Y44.957 Z-1.973 I0. J0.597
Y43.764 Z-1.978 I0. J-0.597
Y44.957 Z-1.983 I0. J0.597
Y43.764 Z-1.987 I0. J-0.597
Y44.957 Z-1.992 I0. J0.597
Y43.764 Z-1.997 I0. J-0.597
Y44.957 Z-2.002 I0. J0.597
Y43.764 Z-2.006 I0. J-0.597
Y44.957 Z-2.011 I0. J0.597
Y43.764 Z-2.016 I0. J-0.597
Y44.957 Z-2.021 I0. J0.597
Y43.764 Z-2.025 I0. J-0.597
Y44.957 Z-2.03 I0. J0.597
Y43.764 Z-2.035 I0. J-0.597
Y44.957 Z-2.04 I0. J0.597
Y43.764 Z-2.044 I0. J-0.597
Y44.957 Z-2.049 I0. J0.597
Y43.764 Z-2.054 I0. J-0.597
Y44.957 Z-2.059 I0. J0.597
Y43.764 Z-2.064 I0. J-0.597
Y44.957 Z-2.068 I0. J0.597
Y43.764 Z-2.073 I0. J-0.597
Y44.957 Z-2.078 I0. J0.597
Y43.764 Z-2.083 I0. J-0.597
Y44.957 Z-2.087 I0. J0.597
Y43.764 Z-2.092 I0. J-0.597
Y44.957 Z-2.097 I0. J0.597
Y43.764 Z-2.102 I0. J-0.597
Y44.957 Z-2.106 I0. J0.597
Y43.764 Z-2.111 I0. J-0.597
Y44.957 Z-2.116 I0. J0.597
Y43.764 Z-2.121 I0. J-0.597
Y44.957 Z-2.125 I0. J0.597
Y43.764 Z-2.13 I0. J-0.597
Y44.957 Z-2.135 I0. J0.597
Y43.764 Z-2.14 I0. J-0.597
Y44.957 Z-2.145 I0. J0.597
Y43.764 Z-2.149 I0. J-0.597
Y44.957 Z-2.154 I0. J0.597
Y43.764 Z-2.159 I0. J-0.597
Y44.957 Z-2.164 I0. J0.597
Y43.764 Z-2.168 I0. J-0.597
Y44.957 Z-2.173 I0. J0.597
Y43.764 Z-2.178 I0. J-0.597
Y44.957 Z-2.183 I0. J0.597
Y43.764 Z-2.187 I0. J-0.597
Y44.957 Z-2.192 I0. J0.597
Y43.764 Z-2.197 I0. J-0.597
Y44.957 Z-2.202 I0. J0.597
Y43.764 Z-2.206 I0. J-0.597
Y44.957 Z-2.211 I0. J0.597
Y43.764 Z-2.216 I0. J-0.597
Y44.957 Z-2.221 I0. J0.597
Y43.764 Z-2.226 I0. J-0.597
Y44.957 Z-2.23 I0. J0.597
Y43.764 Z-2.235 I0. J-0.597
Y44.957 Z-2.24 I0. J0.597
Y43.764 Z-2.245 I0. J-0.597
Y44.957 Z-2.249 I0. J0.597
Y43.764 Z-2.254 I0. J-0.597
Y44.957 Z-2.259 I0. J0.597
Y43.764 Z-2.264 I0. J-0.597
Y44.957 Z-2.268 I0. J0.597
Y43.764 Z-2.273 I0. J-0.597
Y44.957 Z-2.278 I0. J0.597
Y43.764 Z-2.283 I0. J-0.597
Y44.957 Z-2.288 I0. J0.597
Y43.764 Z-2.292 I0. J-0.597
Y44.957 Z-2.297 I0. J0.597
Y43.764 Z-2.302 I0. J-0.597
Y44.957 Z-2.307 I0. J0.597
Y43.764 Z-2.311 I0. J-0.597
Y44.957 Z-2.316 I0. J0.597
Y43.764 Z-2.321 I0. J-0.597
Y44.957 Z-2.326 I0. J0.597
Y43.764 Z-2.33 I0. J-0.597
Y44.957 Z-2.335 I0. J0.597
Y43.764 Z-2.34 I0. J-0.597
Y44.957 Z-2.345 I0. J0.597
Y43.764 Z-2.349 I0. J-0.597
Y44.957 Z-2.354 I0. J0.597
Y43.764 Z-2.359 I0. J-0.597
Y44.957 Z-2.364 I0. J0.597
Y43.764 Z-2.369 I0. J-0.597
Y44.957 Z-2.373 I0. J0.597
Y43.764 Z-2.378 I0. J-0.597
Y44.957 Z-2.383 I0. J0.597
Y43.764 Z-2.388 I0. J-0.597
Y44.957 Z-2.392 I0. J0.597
Y43.764 Z-2.397 I0. J-0.597
Y44.957 Z-2.402 I0. J0.597
Y43.764 Z-2.407 I0. J-0.597
Y44.957 Z-2.411 I0. J0.597
Y43.764 Z-2.416 I0. J-0.597
Y44.957 Z-2.421 I0. J0.597
Y43.764 Z-2.426 I0. J-0.597
Y44.957 Z-2.43 I0. J0.597
Y43.764 Z-2.435 I0. J-0.597
Y44.957 Z-2.44 I0. J0.597
Y43.764 Z-2.445 I0. J-0.597
Y44.957 Z-2.45 I0. J0.597
Y43.764 Z-2.454 I0. J-0.597
Y44.957 Z-2.459 I0. J0.597
Y43.764 Z-2.464 I0. J-0.597
Y44.957 Z-2.469 I0. J0.597
Y43.764 Z-2.473 I0. J-0.597
Y44.957 Z-2.478 I0. J0.597
Y43.764 Z-2.483 I0. J-0.597
Y44.957 Z-2.488 I0. J0.597
Y43.764 Z-2.492 I0. J-0.597
Y44.957 Z-2.497 I0. J0.597
Y43.764 Z-2.502 I0. J-0.597
Y44.957 Z-2.507 I0. J0.597
Y43.764 Z-2.511 I0. J-0.597
Y44.957 Z-2.516 I0. J0.597
Y43.764 Z-2.521 I0. J-0.597
Y44.957 Z-2.526 I0. J0.597
Y43.764 Z-2.531 I0. J-0.597
Y44.957 Z-2.535 I0. J0.597
Y43.764 Z-2.54 I0. J-0.597
Y44.957 Z-2.545 I0. J0.597
Y43.764 Z-2.55 I0. J-0.597
Y44.957 Z-2.554 I0. J0.597
Y43.764 Z-2.559 I0. J-0.597
Y44.957 Z-2.564 I0. J0.597
Y43.764 Z-2.569 I0. J-0.597
Y44.957 Z-2.573 I0. J0.597
Y43.764 Z-2.578 I0. J-0.597
Y44.957 Z-2.583 I0. J0.597
Y43.764 Z-2.588 I0. J-0.597
Y44.957 Z-2.593 I0. J0.597
Y43.764 Z-2.597 I0. J-0.597
Y44.957 Z-2.602 I0. J0.597
Y43.764 Z-2.607 I0. J-0.597
Y44.957 Z-2.612 I0. J0.597
Y43.764 Z-2.616 I0. J-0.597
Y44.957 Z-2.621 I0. J0.597
Y43.764 Z-2.626 I0. J-0.597
Y44.957 Z-2.631 I0. J0.597
Y43.764 Z-2.635 I0. J-0.597
Y44.957 Z-2.64 I0. J0.597
Y43.764 Z-2.645 I0. J-0.597
Y44.957 Z-2.65 I0. J0.597
Y43.764 Z-2.654 I0. J-0.597
Y44.957 Z-2.659 I0. J0.597
Y43.764 Z-2.664 I0. J-0.597
Y44.957 Z-2.669 I0. J0.597
Y43.764 Z-2.674 I0. J-0.597
Y44.957 Z-2.678 I0. J0.597
Y43.764 Z-2.683 I0. J-0.597
Y44.957 Z-2.688 I0. J0.597
Y43.764 Z-2.693 I0. J-0.597
Y44.957 Z-2.697 I0. J0.597
Y43.764 Z-2.702 I0. J-0.597
Y44.957 Z-2.707 I0. J0.597
Y43.764 Z-2.712 I0. J-0.597
Y44.957 Z-2.716 I0. J0.597
Y43.764 Z-2.721 I0. J-0.597
Y44.957 Z-2.726 I0. J0.597
Y43.764 Z-2.731 I0. J-0.597
Y44.957 Z-2.735 I0. J0.597
Y43.764 Z-2.74 I0. J-0.597
Y44.957 Z-2.745 I0. J0.597
Y43.764 Z-2.75 I0. J-0.597
Y44.957 Z-2.755 I0. J0.597
Y43.764 Z-2.759 I0. J-0.597
Y44.957 Z-2.764 I0. J0.597
Y43.764 Z-2.769 I0. J-0.597
Y44.957 Z-2.774 I0. J0.597
Y43.764 Z-2.778 I0. J-0.597
Y44.957 Z-2.783 I0. J0.597
Y43.764 Z-2.788 I0. J-0.597
Y44.957 Z-2.793 I0. J0.597
Y43.764 Z-2.797 I0. J-0.597
Y44.957 Z-2.802 I0. J0.597
Y43.764 Z-2.807 I0. J-0.597
Y44.957 Z-2.812 I0. J0.597
Y43.764 Z-2.816 I0. J-0.597
Y44.957 Z-2.821 I0. J0.597
Y43.764 Z-2.826 I0. J-0.597
Y44.957 Z-2.831 I0. J0.597
Y43.764 Z-2.836 I0. J-0.597
Y44.957 Z-2.84 I0. J0.597
Y43.764 Z-2.845 I0. J-0.597
Y44.957 Z-2.85 I0. J0.597
Y43.764 Z-2.855 I0. J-0.597
Y44.957 Z-2.859 I0. J0.597
Y43.764 Z-2.864 I0. J-0.597
Y44.957 Z-2.869 I0. J0.597
Y43.764 Z-2.874 I0. J-0.597
Y44.957 Z-2.878 I0. J0.597
Y43.764 Z-2.883 I0. J-0.597
Y44.957 Z-2.888 I0. J0.597
Y43.764 Z-2.893 I0. J-0.597
Y44.957 Z-2.898 I0. J0.597
Y43.764 Z-2.902 I0. J-0.597
Y44.957 Z-2.907 I0. J0.597
Y43.764 Z-2.912 I0. J-0.597
Y44.957 Z-2.917 I0. J0.597
Y43.764 Z-2.921 I0. J-0.597
Y44.957 Z-2.926 I0. J0.597
Y43.764 Z-2.931 I0. J-0.597
Y44.957 Z-2.936 I0. J0.597
Y43.764 Z-2.94 I0. J-0.597
Y44.957 Z-2.945 I0. J0.597
Y43.764 Z-2.95 I0. J-0.597
Y44.957 Z-2.955 I0. J0.597
Y43.764 Z-2.959 I0. J-0.597
Y44.957 Z-2.964 I0. J0.597
Y43.764 Z-2.969 I0. J-0.597
Y44.957 Z-2.974 I0. J0.597
Y43.764 Z-2.979 I0. J-0.597
Y44.957 Z-2.983 I0. J0.597
Y43.764 Z-2.988 I0. J-0.597
Y44.957 Z-2.993 I0. J0.597
Y43.764 Z-2.998 I0. J-0.597
Y44.957 Z-3.002 I0. J0.597
Y43.764 Z-3.007 I0. J-0.597
Y44.957 Z-3.012 I0. J0.597
Y43.764 Z-3.017 I0. J-0.597
Y44.957 Z-3.021 I0. J0.597
Y43.764 Z-3.026 I0. J-0.597
Y44.957 Z-3.031 I0. J0.597
Y43.764 Z-3.036 I0. J-0.597
Y44.957 Z-3.04 I0. J0.597
Y43.764 Z-3.045 I0. J-0.597
Y44.957 Z-3.05 I0. J0.597
Y43.764 Z-3.055 I0. J-0.597
Y44.957 Z-3.06 I0. J0.597
Y43.764 Z-3.064 I0. J-0.597
Y44.957 Z-3.069 I0. J0.597
Y43.764 Z-3.074 I0. J-0.597
Y44.957 Z-3.079 I0. J0.597
Y43.764 Z-3.083 I0. J-0.597
Y44.957 Z-3.088 I0. J0.597
Y43.764 Z-3.093 I0. J-0.597
Y44.957 Z-3.098 I0. J0.597
Y43.764 Z-3.102 I0. J-0.597
Y44.957 Z-3.107 I0. J0.597
Y43.764 Z-3.112 I0. J-0.597
Y44.957 Z-3.117 I0. J0.597
Y43.764 Z-3.121 I0. J-0.597
Y44.957 Z-3.126 I0. J0.597
Y43.764 Z-3.131 I0. J-0.597
Y44.957 Z-3.136 I0. J0.597
Y43.764 Z-3.141 I0. J-0.597
Y44.957 Z-3.145 I0. J0.597
Y43.764 Z-3.15 I0. J-0.597
Y44.957 Z-3.155 I0. J0.597
Y43.764 Z-3.16 I0. J-0.597
Y44.957 Z-3.164 I0. J0.597
Y43.764 Z-3.169 I0. J-0.597
Y44.957 Z-3.174 I0. J0.597
X75.414 Y44.81 Z-3.175 I0. J-0.597
X74.628 Y43.911 I-0.393 J-0.449
X75.414 Y44.81 I0.393 J0.449
X75.442 Y44.388 I-0.197 J-0.225
G1 X75.338 Y44.269
X75.291 Y44.216 Z-3.167
X75.247 Y44.165 Z-3.144
X75.207 Y44.12 Z-3.106
X75.174 Y44.082 Z-3.055
X75.149 Y44.054 Z-2.995
X75.134 Y44.036 Z-2.928
X75.128 Y44.03 Z-2.858
G0 Z5.
X74.723 Y13.522
Z2.
G1 Z0.317 F800.
Y13.53 Z0.247
Y13.554 Z0.18
Y13.591 Z0.12
Y13.642 Z0.069
Y13.702 Z0.031
Y13.769 Z0.008
Y13.84 Z0.
Y13.998
G2 X75.021 Y14.297 I0.298 J0.
Y13.103 Z-0.005 I0. J-0.597
Y14.297 Z-0.01 I0. J0.597
Y13.103 Z-0.014 I0. J-0.597
Y14.297 Z-0.019 I0. J0.597
Y13.103 Z-0.024 I0. J-0.597
Y14.297 Z-0.029 I0. J0.597
Y13.103 Z-0.033 I0. J-0.597
Y14.297 Z-0.038 I0. J0.597
Y13.103 Z-0.043 I0. J-0.597
Y14.297 Z-0.048 I0. J0.597
Y13.103 Z-0.052 I0. J-0.597
Y14.297 Z-0.057 I0. J0.597
Y13.103 Z-0.062 I0. J-0.597
Y14.297 Z-0.067 I0. J0.597
Y13.103 Z-0.071 I0. J-0.597
Y14.297 Z-0.076 I0. J0.597
Y13.103 Z-0.081 I0. J-0.597
Y14.297 Z-0.086 I0. J0.597
Y13.103 Z-0.091 I0. J-0.597
Y14.297 Z-0.095 I0. J0.597
Y13.103 Z-0.1 I0. J-0.597
Y14.297 Z-0.105 I0. J0.597
Y13.103 Z-0.11 I0. J-0.597
Y14.297 Z-0.114 I0. J0.597
Y13.103 Z-0.119 I0. J-0.597
Y14.297 Z-0.124 I0. J0.597
Y13.103 Z-0.129 I0. J-0.597
Y14.297 Z-0.133 I0. J0.597
Y13.103 Z-0.138 I0. J-0.597
Y14.297 Z-0.143 I0. J0.597
Y13.103 Z-0.148 I0. J-0.597
Y14.297 Z-0.153 I0. J0.597
Y13.103 Z-0.157 I0. J-0.597
Y14.297 Z-0.162 I0. J0.597
Y13.103 Z-0.167 I0. J-0.597
Y14.297 Z-0.172 I0. J0.597
Y13.103 Z-0.176 I0. J-0.597
Y14.297 Z-0.181 I0. J0.597
Y13.103 Z-0.186 I0. J-0.597
Y14.297 Z-0.191 I0. J0.597
Y13.103 Z-0.195 I0. J-0.597
Y14.297 Z-0.2 I0. J0.597
Y13.103 Z-0.205 I0. J-0.597
Y14.297 Z-0.21 I0. J0.597
Y13.103 Z-0.214 I0. J-0.597
Y14.297 Z-0.219 I0. J0.597
Y13.103 Z-0.224 I0. J-0.597
Y14.297 Z-0.229 I0. J0.597
Y13.103 Z-0.234 I0. J-0.597
Y14.297 Z-0.238 I0. J0.597
Y13.103 Z-0.243 I0. J-0.597
Y14.297 Z-0.248 I0. J0.597
Y13.103 Z-0.253 I0. J-0.597
Y14.297 Z-0.257 I0. J0.597
Y13.103 Z-0.262 I0. J-0.597
Y14.297 Z-0.267 I0. J0.597
Y13.103 Z-0.272 I0. J-0.597
Y14.297 Z-0.276 I0. J0.597
Y13.103 Z-0.281 I0. J-0.597
Y14.297 Z-0.286 I0. J0.597
Y13.103 Z-0.291 I0. J-0.597
Y14.297 Z-0.295 I0. J0.597
Y13.103 Z-0.3 I0. J-0.597
Y14.297 Z-0.305 I0. J0.597
Y13.103 Z-0.31 I0. J-0.597
Y14.297 Z-0.315 I0. J0.597
Y13.103 Z-0.319 I0. J-0.597
Y14.297 Z-0.324 I0. J0.597
Y13.103 Z-0.329 I0. J-0.597
Y14.297 Z-0.334 I0. J0.597
Y13.103 Z-0.338 I0. J-0.597
Y14.297 Z-0.343 I0. J0.597
Y13.103 Z-0.348 I0. J-0.597
Y14.297 Z-0.353 I0. J0.597
Y13.103 Z-0.357 I0. J-0.597
Y14.297 Z-0.362 I0. J0.597
Y13.103 Z-0.367 I0. J-0.597
Y14.297 Z-0.372 I0. J0.597
Y13.103 Z-0.376 I0. J-0.597
Y14.297 Z-0.381 I0. J0.597
Y13.103 Z-0.386 I0. J-0.597
Y14.297 Z-0.391 I0. J0.597
Y13.103 Z-0.396 I0. J-0.597
Y14.297 Z-0.4 I0. J0.597
Y13.103 Z-0.405 I0. J-0.597
Y14.297 Z-0.41 I0. J0.597
Y13.103 Z-0.415 I0. J-0.597
Y14.297 Z-0.419 I0. J0.597
Y13.103 Z-0.424 I0. J-0.597
Y14.297 Z-0.429 I0. J0.597
Y13.103 Z-0.434 I0. J-0.597
Y14.297 Z-0.438 I0. J0.597
Y13.103 Z-0.443 I0. J-0.597
Y14.297 Z-0.448 I0. J0.597
Y13.103 Z-0.453 I0. J-0.597
Y14.297 Z-0.458 I0. J0.597
Y13.103 Z-0.462 I0. J-0.597
Y14.297 Z-0.467 I0. J0.597
Y13.103 Z-0.472 I0. J-0.597
Y14.297 Z-0.477 I0. J0.597
Y13.103 Z-0.481 I0. J-0.597
Y14.297 Z-0.486 I0. J0.597
Y13.103 Z-0.491 I0. J-0.597
Y14.297 Z-0.496 I0. J0.597
Y13.103 Z-0.5 I0. J-0.597
Y14.297 Z-0.505 I0. J0.597
Y13.103 Z-0.51 I0. J-0.597
Y14.297 Z-0.515 I0. J0.597
Y13.103 Z-0.519 I0. J-0.597
Y14.297 Z-0.524 I0. J0.597
Y13.103 Z-0.529 I0. J-0.597
Y14.297 Z-0.534 I0. J0.597
Y13.103 Z-0.539 I0. J-0.597
Y14.297 Z-0.543 I0. J0.597
Y13.103 Z-0.548 I0. J-0.597
Y14.297 Z-0.553 I0. J0.597
Y13.103 Z-0.558 I0. J-0.597
Y14.297 Z-0.562 I0. J0.597
Y13.103 Z-0.567 I0. J-0.597
Y14.297 Z-0.572 I0. J0.597
Y13.103 Z-0.577 I0. J-0.597
Y14.297 Z-0.581 I0. J0.597
Y13.103 Z-0.586 I0. J-0.597
Y14.297 Z-0.591 I0. J0.597
Y13.103 Z-0.596 I0. J-0.597
Y14.297 Z-0.6 I0. J0.597
Y13.103 Z-0.605 I0. J-0.597
Y14.297 Z-0.61 I0. J0.597
Y13.103 Z-0.615 I0. J-0.597
Y14.297 Z-0.62 I0. J0.597
Y13.103 Z-0.624 I0. J-0.597
Y14.297 Z-0.629 I0. J0.597
Y13.103 Z-0.634 I0. J-0.597
Y14.297 Z-0.639 I0. J0.597
Y13.103 Z-0.643 I0. J-0.597
Y14.297 Z-0.648 I0. J0.597
Y13.103 Z-0.653 I0. J-0.597
Y14.297 Z-0.658 I0. J0.597
Y13.103 Z-0.662 I0. J-0.597
Y14.297 Z-0.667 I0. J0.597
Y13.103 Z-0.672 I0. J-0.597
Y14.297 Z-0.677 I0. J0.597
Y13.103 Z-0.681 I0. J-0.597
Y14.297 Z-0.686 I0. J0.597
Y13.103 Z-0.691 I0. J-0.597
Y14.297 Z-0.696 I0. J0.597
Y13.103 Z-0.701 I0. J-0.597
Y14.297 Z-0.705 I0. J0.597
Y13.103 Z-0.71 I0. J-0.597
Y14.297 Z-0.715 I0. J0.597
Y13.103 Z-0.72 I0. J-0.597
Y14.297 Z-0.724 I0. J0.597
Y13.103 Z-0.729 I0. J-0.597
Y14.297 Z-0.734 I0. J0.597
Y13.103 Z-0.739 I0. J-0.597
Y14.297 Z-0.743 I0. J0.597
Y13.103 Z-0.748 I0. J-0.597
Y14.297 Z-0.753 I0. J0.597
Y13.103 Z-0.758 I0. J-0.597
Y14.297 Z-0.763 I0. J0.597
Y13.103 Z-0.767 I0. J-0.597
Y14.297 Z-0.772 I0. J0.597
Y13.103 Z-0.777 I0. J-0.597
Y14.297 Z-0.782 I0. J0.597
Y13.103 Z-0.786 I0. J-0.597
Y14.297 Z-0.791 I0. J0.597
Y13.103 Z-0.796 I0. J-0.597
Y14.297 Z-0.801 I0. J0.597
Y13.103 Z-0.805 I0. J-0.597
Y14.297 Z-0.81 I0. J0.597
Y13.103 Z-0.815 I0. J-0.597
Y14.297 Z-0.82 I0. J0.597
Y13.103 Z-0.824 I0. J-0.597
Y14.297 Z-0.829 I0. J0.597
Y13.103 Z-0.834 I0. J-0.597
Y14.297 Z-0.839 I0. J0.597
Y13.103 Z-0.844 I0. J-0.597
Y14.297 Z-0.848 I0. J0.597
Y13.103 Z-0.853 I0. J-0.597
Y14.297 Z-0.858 I0. J0.597
Y13.103 Z-0.863 I0. J-0.597
Y14.297 Z-0.867 I0. J0.597
Y13.103 Z-0.872 I0. J-0.597
Y14.297 Z-0.877 I0. J0.597
Y13.103 Z-0.882 I0. J-0.597
Y14.297 Z-0.886 I0. J0.597
Y13.103 Z-0.891 I0. J-0.597
Y14.297 Z-0.896 I0. J0.597
Y13.103 Z-0.901 I0. J-0.597
Y14.297 Z-0.905 I0. J0.597
Y13.103 Z-0.91 I0. J-0.597
Y14.297 Z-0.915 I0. J0.597
Y13.103 Z-0.92 I0. J-0.597
Y14.297 Z-0.925 I0. J0.597
Y13.103 Z-0.929 I0. J-0.597
Y14.297 Z-0.934 I0. J0.597
Y13.103 Z-0.939 I0. J-0.597
Y14.297 Z-0.944 I0. J0.597
Y13.103 Z-0.948 I0. J-0.597
Y14.297 Z-0.953 I0. J0.597
Y13.103 Z-0.958 I0. J-0.597
Y14.297 Z-0.963 I0. J0.597
Y13.103 Z-0.967 I0. J-0.597
Y14.297 Z-0.972 I0. J0.597
Y13.103 Z-0.977 I0. J-0.597
Y14.297 Z-0.982 I0. J0.597
Y13.103 Z-0.986 I0. J-0.597
Y14.297 Z-0.991 I0. J0.597
Y13.103 Z-0.996 I0. J-0.597
Y14.297 Z-1.001 I0. J0.597
Y13.103 Z-1.006 I0. J-0.597
Y14.297 Z-1.01 I0. J0.597
Y13.103 Z-1.015 I0. J-0.597
Y14.297 Z-1.02 I0. J0.597
Y13.103 Z-1.025 I0. J-0.597
Y14.297 Z-1.029 I0. J0.597
Y13.103 Z-1.034 I0. J-0.597
Y14.297 Z-1.039 I0. J0.597
Y13.103 Z-1.044 I0. J-0.597
Y14.297 Z-1.048 I0. J0.597
Y13.103 Z-1.053 I0. J-0.597
Y14.297 Z-1.058 I0. J0.597
Y13.103 Z-1.063 I0. J-0.597
Y14.297 Z-1.068 I0. J0.597
Y13.103 Z-1.072 I0. J-0.597
Y14.297 Z-1.077 I0. J0.597
Y13.103 Z-1.082 I0. J-0.597
Y14.297 Z-1.087 I0. J0.597
Y13.103 Z-1.091 I0. J-0.597
Y14.297 Z-1.096 I0. J0.597
Y13.103 Z-1.101 I0. J-0.597
Y14.297 Z-1.106 I0. J0.597
Y13.103 Z-1.11 I0. J-0.597
Y14.297 Z-1.115 I0. J0.597
Y13.103 Z-1.12 I0. J-0.597
Y14.297 Z-1.125 I0. J0.597
Y13.103 Z-1.129 I0. J-0.597
Y14.297 Z-1.134 I0. J0.597
Y13.103 Z-1.139 I0. J-0.597
Y14.297 Z-1.144 I0. J0.597
Y13.103 Z-1.149 I0. J-0.597
Y14.297 Z-1.153 I0. J0.597
Y13.103 Z-1.158 I0. J-0.597
Y14.297 Z-1.163 I0. J0.597
Y13.103 Z-1.168 I0. J-0.597
Y14.297 Z-1.172 I0. J0.597
Y13.103 Z-1.177 I0. J-0.597
Y14.297 Z-1.182 I0. J0.597
Y13.103 Z-1.187 I0. J-0.597
Y14.297 Z-1.191 I0. J0.597
Y13.103 Z-1.196 I0. J-0.597
Y14.297 Z-1.201 I0. J0.597
Y13.103 Z-1.206 I0. J-0.597
Y14.297 Z-1.21 I0. J0.597
Y13.103 Z-1.215 I0. J-0.597
Y14.297 Z-1.22 I0. J0.597
Y13.103 Z-1.225 I0. J-0.597
Y14.297 Z-1.23 I0. J0.597
Y13.103 Z-1.234 I0. J-0.597
Y14.297 Z-1.239 I0. J0.597
Y13.103 Z-1.244 I0. J-0.597
Y14.297 Z-1.249 I0. J0.597
Y13.103 Z-1.253 I0. J-0.597
Y14.297 Z-1.258 I0. J0.597
Y13.103 Z-1.263 I0. J-0.597
Y14.297 Z-1.268 I0. J0.597
Y13.103 Z-1.272 I0. J-0.597
Y14.297 Z-1.277 I0. J0.597
Y13.103 Z-1.282 I0. J-0.597
Y14.297 Z-1.287 I0. J0.597
Y13.103 Z-1.291 I0. J-0.597
Y14.297 Z-1.296 I0. J0.597
Y13.103 Z-1.301 I0. J-0.597
Y14.297 Z-1.306 I0. J0.597
Y13.103 Z-1.311 I0. J-0.597
Y14.297 Z-1.315 I0. J0.597
Y13.103 Z-1.32 I0. J-0.597
Y14.297 Z-1.325 I0. J0.597
Y13.103 Z-1.33 I0. J-0.597
Y14.297 Z-1.334 I0. J0.597
Y13.103 Z-1.339 I0. J-0.597
Y14.297 Z-1.344 I0. J0.597
Y13.103 Z-1.349 I0. J-0.597
Y14.297 Z-1.353 I0. J0.597
Y13.103 Z-1.358 I0. J-0.597
Y14.297 Z-1.363 I0. J0.597
Y13.103 Z-1.368 I0. J-0.597
Y14.297 Z-1.373 I0. J0.597
Y13.103 Z-1.377 I0. J-0.597
Y14.297 Z-1.382 I0. J0.597
Y13.103 Z-1.387 I0. J-0.597
Y14.297 Z-1.392 I0. J0.597
Y13.103 Z-1.396 I0. J-0.597
Y14.297 Z-1.401 I0. J0.597
Y13.103 Z-1.406 I0. J-0.597
Y14.297 Z-1.411 I0. J0.597
Y13.103 Z-1.415 I0. J-0.597
Y14.297 Z-1.42 I0. J0.597
Y13.103 Z-1.425 I0. J-0.597
Y14.297 Z-1.43 I0. J0.597
Y13.103 Z-1.434 I0. J-0.597
Y14.297 Z-1.439 I0. J0.597
Y13.103 Z-1.444 I0. J-0.597
Y14.297 Z-1.449 I0. J0.597
Y13.103 Z-1.454 I0. J-0.597
Y14.297 Z-1.458 I0. J0.597
Y13.103 Z-1.463 I0. J-0.597
Y14.297 Z-1.468 I0. J0.597
Y13.103 Z-1.473 I0. J-0.597
Y14.297 Z-1.477 I0. J0.597
Y13.103 Z-1.482 I0. J-0.597
Y14.297 Z-1.487 I0. J0.597
Y13.103 Z-1.492 I0. J-0.597
Y14.297 Z-1.496 I0. J0.597
Y13.103 Z-1.501 I0. J-0.597
Y14.297 Z-1.506 I0. J0.597
Y13.103 Z-1.511 I0. J-0.597
Y14.297 Z-1.515 I0. J0.597
Y13.103 Z-1.52 I0. J-0.597
Y14.297 Z-1.525 I0. J0.597
Y13.103 Z-1.53 I0. J-0.597
Y14.297 Z-1.535 I0. J0.597
Y13.103 Z-1.539 I0. J-0.597
Y14.297 Z-1.544 I0. J0.597
Y13.103 Z-1.549 I0. J-0.597
Y14.297 Z-1.554 I0. J0.597
Y13.103 Z-1.558 I0. J-0.597
Y14.297 Z-1.563 I0. J0.597
Y13.103 Z-1.568 I0. J-0.597
Y14.297 Z-1.573 I0. J0.597
Y13.103 Z-1.577 I0. J-0.597
Y14.297 Z-1.582 I0. J0.597
Y13.103 Z-1.587 I0. J-0.597
Y14.297 Z-1.592 I0. J0.597
Y13.103 Z-1.596 I0. J-0.597
Y14.297 Z-1.601 I0. J0.597
Y13.103 Z-1.606 I0. J-0.597
Y14.297 Z-1.611 I0. J0.597
Y13.103 Z-1.616 I0. J-0.597
Y14.297 Z-1.62 I0. J0.597
Y13.103 Z-1.625 I0. J-0.597
Y14.297 Z-1.63 I0. J0.597
Y13.103 Z-1.635 I0. J-0.597
Y14.297 Z-1.639 I0. J0.597
Y13.103 Z-1.644 I0. J-0.597
Y14.297 Z-1.649 I0. J0.597
Y13.103 Z-1.654 I0. J-0.597
Y14.297 Z-1.658 I0. J0.597
Y13.103 Z-1.663 I0. J-0.597
Y14.297 Z-1.668 I0. J0.597
Y13.103 Z-1.673 I0. J-0.597
Y14.297 Z-1.678 I0. J0.597
Y13.103 Z-1.682 I0. J-0.597
Y14.297 Z-1.687 I0. J0.597
Y13.103 Z-1.692 I0. J-0.597
Y14.297 Z-1.697 I0. J0.597
Y13.103 Z-1.701 I0. J-0.597
Y14.297 Z-1.706 I0. J0.597
Y13.103 Z-1.711 I0. J-0.597
Y14.297 Z-1.716 I0. J0.597
Y13.103 Z-1.72 I0. J-0.597
Y14.297 Z-1.725 I0. J0.597
Y13.103 Z-1.73 I0. J-0.597
Y14.297 Z-1.735 I0. J0.597
Y13.103 Z-1.739 I0. J-0.597
Y14.297 Z-1.744 I0. J0.597
Y13.103 Z-1.749 I0. J-0.597
Y14.297 Z-1.754 I0. J0.597
Y13.103 Z-1.759 I0. J-0.597
Y14.297 Z-1.763 I0. J0.597
Y13.103 Z-1.768 I0. J-0.597
Y14.297 Z-1.773 I0. J0.597
Y13.103 Z-1.778 I0. J-0.597
Y14.297 Z-1.782 I0. J0.597
Y13.103 Z-1.787 I0. J-0.597
Y14.297 Z-1.792 I0. J0.597
Y13.103 Z-1.797 I0. J-0.597
Y14.297 Z-1.801 I0. J0.597
Y13.103 Z-1.806 I0. J-0.597
Y14.297 Z-1.811 I0. J0.597
Y13.103 Z-1.816 I0. J-0.597
Y14.297 Z-1.82 I0. J0.597
Y13.103 Z-1.825 I0. J-0.597
Y14.297 Z-1.83 I0. J0.597
Y13.103 Z-1.835 I0. J-0.597
Y14.297 Z-1.84 I0. J0.597
Y13.103 Z-1.844 I0. J-0.597
Y14.297 Z-1.849 I0. J0.597
Y13.103 Z-1.854 I0. J-0.597
Y14.297 Z-1.859 I0. J0.597
Y13.103 Z-1.863 I0. J-0.597
Y14.297 Z-1.868 I0. J0.597
Y13.103 Z-1.873 I0. J-0.597
Y14.297 Z-1.878 I0. J0.597
Y13.103 Z-1.882 I0. J-0.597
Y14.297 Z-1.887 I0. J0.597
Y13.103 Z-1.892 I0. J-0.597
Y14.297 Z-1.897 I0. J0.597
Y13.103 Z-1.901 I0. J-0.597
Y14.297 Z-1.906 I0. J0.597
Y13.103 Z-1.911 I0. J-0.597
Y14.297 Z-1.916 I0. J0.597
Y13.103 Z-1.921 I0. J-0.597
Y14.297 Z-1.925 I0. J0.597
Y13.103 Z-1.93 I0. J-0.597
Y14.297 Z-1.935 I0. J0.597
Y13.103 Z-1.94 I0. J-0.597
Y14.297 Z-1.944 I0. J0.597
Y13.103 Z-1.949 I0. J-0.597
Y14.297 Z-1.954 I0. J0.597
Y13.103 Z-1.959 I0. J-0.597
Y14.297 Z-1.963 I0. J0.597
Y13.103 Z-1.968 I0. J-0.597
Y14.297 Z-1.973 I0. J0.597
Y13.103 Z-1.978 I0. J-0.597
Y14.297 Z-1.983 I0. J0.597
Y13.103 Z-1.987 I0. J-0.597
Y14.297 Z-1.992 I0. J0.597
Y13.103 Z-1.997 I0. J-0.597
Y14.297 Z-2.002 I0. J0.597
Y13.103 Z-2.006 I0. J-0.597
Y14.297 Z-2.011 I0. J0.597
Y13.103 Z-2.016 I0. J-0.597
Y14.297 Z-2.021 I0. J0.597
Y13.103 Z-2.025 I0. J-0.597
Y14.297 Z-2.03 I0. J0.597
Y13.103 Z-2.035 I0. J-0.597
Y14.297 Z-2.04 I0. J0.597
Y13.103 Z-2.044 I0. J-0.597
Y14.297 Z-2.049 I0. J0.597
Y13.103 Z-2.054 I0. J-0.597
Y14.297 Z-2.059 I0. J0.597
Y13.103 Z-2.064 I0. J-0.597
Y14.297 Z-2.068 I0. J0.597
Y13.103 Z-2.073 I0. J-0.597
Y14.297 Z-2.078 I0. J0.597
Y13.103 Z-2.083 I0. J-0.597
Y14.297 Z-2.087 I0. J0.597
Y13.103 Z-2.092 I0. J-0.597
Y14.297 Z-2.097 I0. J0.597
Y13.103 Z-2.102 I0. J-0.597
Y14.297 Z-2.106 I0. J0.597
Y13.103 Z-2.111 I0. J-0.597
Y14.297 Z-2.116 I0. J0.597
Y13.103 Z-2.121 I0. J-0.597
Y14.297 Z-2.125 I0. J0.597
Y13.103 Z-2.13 I0. J-0.597
Y14.297 Z-2.135 I0. J0.597
Y13.103 Z-2.14 I0. J-0.597
Y14.297 Z-2.145 I0. J0.597
Y13.103 Z-2.149 I0. J-0.597
Y14.297 Z-2.154 I0. J0.597
Y13.103 Z-2.159 I0. J-0.597
Y14.297 Z-2.164 I0. J0.597
Y13.103 Z-2.168 I0. J-0.597
Y14.297 Z-2.173 I0. J0.597
Y13.103 Z-2.178 I0. J-0.597
Y14.297 Z-2.183 I0. J0.597
Y13.103 Z-2.187 I0. J-0.597
Y14.297 Z-2.192 I0. J0.597
Y13.103 Z-2.197 I0. J-0.597
Y14.297 Z-2.202 I0. J0.597
Y13.103 Z-2.206 I0. J-0.597
Y14.297 Z-2.211 I0. J0.597
Y13.103 Z-2.216 I0. J-0.597
Y14.297 Z-2.221 I0. J0.597
Y13.103 Z-2.226 I0. J-0.597
Y14.297 Z-2.23 I0. J0.597
Y13.103 Z-2.235 I0. J-0.597
Y14.297 Z-2.24 I0. J0.597
Y13.103 Z-2.245 I0. J-0.597
Y14.297 Z-2.249 I0. J0.597
Y13.103 Z-2.254 I0. J-0.597
Y14.297 Z-2.259 I0. J0.597
Y13.103 Z-2.264 I0. J-0.597
Y14.297 Z-2.268 I0. J0.597
Y13.103 Z-2.273 I0. J-0.597
Y14.297 Z-2.278 I0. J0.597
Y13.103 Z-2.283 I0. J-0.597
Y14.297 Z-2.288 I0. J0.597
Y13.103 Z-2.292 I0. J-0.597
Y14.297 Z-2.297 I0. J0.597
Y13.103 Z-2.302 I0. J-0.597
Y14.297 Z-2.307 I0. J0.597
Y13.103 Z-2.311 I0. J-0.597
Y14.297 Z-2.316 I0. J0.597
Y13.103 Z-2.321 I0. J-0.597
Y14.297 Z-2.326 I0. J0.597
Y13.103 Z-2.33 I0. J-0.597
Y14.297 Z-2.335 I0. J0.597
Y13.103 Z-2.34 I0. J-0.597
Y14.297 Z-2.345 I0. J0.597
Y13.103 Z-2.349 I0. J-0.597
Y14.297 Z-2.354 I0. J0.597
Y13.103 Z-2.359 I0. J-0.597
Y14.297 Z-2.364 I0. J0.597
Y13.103 Z-2.369 I0. J-0.597
Y14.297 Z-2.373 I0. J0.597
Y13.103 Z-2.378 I0. J-0.597
Y14.297 Z-2.383 I0. J0.597
Y13.103 Z-2.388 I0. J-0.597
Y14.297 Z-2.392 I0. J0.597
Y13.103 Z-2.397 I0. J-0.597
Y14.297 Z-2.402 I0. J0.597
Y13.103 Z-2.407 I0. J-0.597
Y14.297 Z-2.411 I0. J0.597
Y13.103 Z-2.416 I0. J-0.597
Y14.297 Z-2.421 I0. J0.597
Y13.103 Z-2.426 I0. J-0.597
Y14.297 Z-2.43 I0. J0.597
Y13.103 Z-2.435 I0. J-0.597
Y14.297 Z-2.44 I0. J0.597
Y13.103 Z-2.445 I0. J-0.597
Y14.297 Z-2.45 I0. J0.597
Y13.103 Z-2.454 I0. J-0.597
Y14.297 Z-2.459 I0. J0.597
Y13.103 Z-2.464 I0. J-0.597
Y14.297 Z-2.469 I0. J0.597
Y13.103 Z-2.473 I0. J-0.597
Y14.297 Z-2.478 I0. J0.597
Y13.103 Z-2.483 I0. J-0.597
Y14.297 Z-2.488 I0. J0.597
Y13.103 Z-2.492 I0. J-0.597
Y14.297 Z-2.497 I0. J0.597
Y13.103 Z-2.502 I0. J-0.597
Y14.297 Z-2.507 I0. J0.597
Y13.103 Z-2.511 I0. J-0.597
Y14.297 Z-2.516 I0. J0.597
Y13.103 Z-2.521 I0. J-0.597
Y14.297 Z-2.526 I0. J0.597
Y13.103 Z-2.531 I0. J-0.597
Y14.297 Z-2.535 I0. J0.597
Y13.103 Z-2.54 I0. J-0.597
Y14.297 Z-2.545 I0. J0.597
Y13.103 Z-2.55 I0. J-0.597
Y14.297 Z-2.554 I0. J0.597
Y13.103 Z-2.559 I0. J-0.597
Y14.297 Z-2.564 I0. J0.597
Y13.103 Z-2.569 I0. J-0.597
Y14.297 Z-2.573 I0. J0.597
Y13.103 Z-2.578 I0. J-0.597
Y14.297 Z-2.583 I0. J0.597
Y13.103 Z-2.588 I0. J-0.597
Y14.297 Z-2.593 I0. J0.597
Y13.103 Z-2.597 I0. J-0.597
Y14.297 Z-2.602 I0. J0.597
Y13.103 Z-2.607 I0. J-0.597
Y14.297 Z-2.612 I0. J0.597
Y13.103 Z-2.616 I0. J-0.597
Y14.297 Z-2.621 I0. J0.597
Y13.103 Z-2.626 I0. J-0.597
Y14.297 Z-2.631 I0. J0.597
Y13.103 Z-2.635 I0. J-0.597
Y14.297 Z-2.64 I0. J0.597
Y13.103 Z-2.645 I0. J-0.597
Y14.297 Z-2.65 I0. J0.597
Y13.103 Z-2.654 I0. J-0.597
Y14.297 Z-2.659 I0. J0.597
Y13.103 Z-2.664 I0. J-0.597
Y14.297 Z-2.669 I0. J0.597
Y13.103 Z-2.674 I0. J-0.597
Y14.297 Z-2.678 I0. J0.597
Y13.103 Z-2.683 I0. J-0.597
Y14.297 Z-2.688 I0. J0.597
Y13.103 Z-2.693 I0. J-0.597
Y14.297 Z-2.697 I0. J0.597
Y13.103 Z-2.702 I0. J-0.597
Y14.297 Z-2.707 I0. J0.597
Y13.103 Z-2.712 I0. J-0.597
Y14.297 Z-2.716 I0. J0.597
Y13.103 Z-2.721 I0. J-0.597
Y14.297 Z-2.726 I0. J0.597
Y13.103 Z-2.731 I0. J-0.597
Y14.297 Z-2.735 I0. J0.597
Y13.103 Z-2.74 I0. J-0.597
Y14.297 Z-2.745 I0. J0.597
Y13.103 Z-2.75 I0. J-0.597
Y14.297 Z-2.755 I0. J0.597
Y13.103 Z-2.759 I0. J-0.597
Y14.297 Z-2.764 I0. J0.597
Y13.103 Z-2.769 I0. J-0.597
Y14.297 Z-2.774 I0. J0.597
Y13.103 Z-2.778 I0. J-0.597
Y14.297 Z-2.783 I0. J0.597
Y13.103 Z-2.788 I0. J-0.597
Y14.297 Z-2.793 I0. J0.597
Y13.103 Z-2.797 I0. J-0.597
Y14.297 Z-2.802 I0. J0.597
Y13.103 Z-2.807 I0. J-0.597
Y14.297 Z-2.812 I0. J0.597
Y13.103 Z-2.816 I0. J-0.597
Y14.297 Z-2.821 I0. J0.597
Y13.103 Z-2.826 I0. J-0.597
Y14.297 Z-2.831 I0. J0.597
Y13.103 Z-2.836 I0. J-0.597
Y14.297 Z-2.84 I0. J0.597
Y13.103 Z-2.845 I0. J-0.597
Y14.297 Z-2.85 I0. J0.597
Y13.103 Z-2.855 I0. J-0.597
Y14.297 Z-2.859 I0. J0.597
Y13.103 Z-2.864 I0. J-0.597
Y14.297 Z-2.869 I0. J0.597
Y13.103 Z-2.874 I0. J-0.597
Y14.297 Z-2.878 I0. J0.597
Y13.103 Z-2.883 I0. J-0.597
Y14.297 Z-2.888 I0. J0.597
Y13.103 Z-2.893 I0. J-0.597
Y14.297 Z-2.898 I0. J0.597
Y13.103 Z-2.902 I0. J-0.597
Y14.297 Z-2.907 I0. J0.597
Y13.103 Z-2.912 I0. J-0.597
Y14.297 Z-2.917 I0. J0.597
Y13.103 Z-2.921 I0. J-0.597
Y14.297 Z-2.926 I0. J0.597
Y13.103 Z-2.931 I0. J-0.597
Y14.297 Z-2.936 I0. J0.597
Y13.103 Z-2.94 I0. J-0.597
Y14.297 Z-2.945 I0. J0.597
Y13.103 Z-2.95 I0. J-0.597
Y14.297 Z-2.955 I0. J0.597
Y13.103 Z-2.959 I0. J-0.597
Y14.297 Z-2.964 I0. J0.597
Y13.103 Z-2.969 I0. J-0.597
Y14.297 Z-2.974 I0. J0.597
Y13.103 Z-2.979 I0. J-0.597
Y14.297 Z-2.983 I0. J0.597
Y13.103 Z-2.988 I0. J-0.597
Y14.297 Z-2.993 I0. J0.597
Y13.103 Z-2.998 I0. J-0.597
Y14.297 Z-3.002 I0. J0.597
Y13.103 Z-3.007 I0. J-0.597
Y14.297 Z-3.012 I0. J0.597
Y13.103 Z-3.017 I0. J-0.597
Y14.297 Z-3.021 I0. J0.597
Y13.103 Z-3.026 I0. J-0.597
Y14.297 Z-3.031 I0. J0.597
Y13.103 Z-3.036 I0. J-0.597
Y14.297 Z-3.04 I0. J0.597
Y13.103 Z-3.045 I0. J-0.597
Y14.297 Z-3.05 I0. J0.597
Y13.103 Z-3.055 I0. J-0.597
Y14.297 Z-3.06 I0. J0.597
Y13.103 Z-3.064 I0. J-0.597
Y14.297 Z-3.069 I0. J0.597
Y13.103 Z-3.074 I0. J-0.597
Y14.297 Z-3.079 I0. J0.597
Y13.103 Z-3.083 I0. J-0.597
Y14.297 Z-3.088 I0. J0.597
Y13.103 Z-3.093 I0. J-0.597
Y14.297 Z-3.098 I0. J0.597
Y13.103 Z-3.102 I0. J-0.597
Y14.297 Z-3.107 I0. J0.597
Y13.103 Z-3.112 I0. J-0.597
Y14.297 Z-3.117 I0. J0.597
Y13.103 Z-3.121 I0. J-0.597
Y14.297 Z-3.126 I0. J0.597
Y13.103 Z-3.131 I0. J-0.597
Y14.297 Z-3.136 I0. J0.597
Y13.103 Z-3.141 I0. J-0.597
Y14.297 Z-3.145 I0. J0.597
Y13.103 Z-3.15 I0. J-0.597
Y14.297 Z-3.155 I0. J0.597
Y13.103 Z-3.16 I0. J-0.597
Y14.297 Z-3.164 I0. J0.597
Y13.103 Z-3.169 I0. J-0.597
Y14.297 Z-3.174 I0. J0.597
X75.414 Y14.149 Z-3.175 I0. J-0.597
X74.628 Y13.251 I-0.393 J-0.449
X75.414 Y14.149 I0.393 J0.449
X75.442 Y13.728 I-0.197 J-0.225
G1 X75.338 Y13.608
X75.291 Y13.555 Z-3.167
X75.247 Y13.505 Z-3.144
X75.207 Y13.46 Z-3.106
X75.174 Y13.422 Z-3.055
X75.149 Y13.393 Z-2.995
X75.134 Y13.376 Z-2.928
X75.128 Y13.37 Z-2.858
G0 Z5.
X100.123 Y13.522
Z2.
G1 Z0.317 F800.
Y13.53 Z0.247
Y13.554 Z0.18
Y13.591 Z0.12
Y13.642 Z0.069
Y13.702 Z0.031
Y13.769 Z0.008
Y13.84 Z0.
Y13.998
G2 X100.421 Y14.297 I0.298 J0.
Y13.103 Z-0.005 I0. J-0.597
Y14.297 Z-0.01 I0. J0.597
Y13.103 Z-0.014 I0. J-0.597
Y14.297 Z-0.019 I0. J0.597
Y13.103 Z-0.024 I0. J-0.597
Y14.297 Z-0.029 I0. J0.597
Y13.103 Z-0.033 I0. J-0.597
Y14.297 Z-0.038 I0. J0.597
Y13.103 Z-0.043 I0. J-0.597
Y14.297 Z-0.048 I0. J0.597
Y13.103 Z-0.052 I0. J-0.597
Y14.297 Z-0.057 I0. J0.597
Y13.103 Z-0.062 I0. J-0.597
Y14.297 Z-0.067 I0. J0.597
Y13.103 Z-0.071 I0. J-0.597
Y14.297 Z-0.076 I0. J0.597
Y13.103 Z-0.081 I0. J-0.597
Y14.297 Z-0.086 I0. J0.597
Y13.103 Z-0.091 I0. J-0.597
Y14.297 Z-0.095 I0. J0.597
Y13.103 Z-0.1 I0. J-0.597
Y14.297 Z-0.105 I0. J0.597
Y13.103 Z-0.11 I0. J-0.597
Y14.297 Z-0.114 I0. J0.597
Y13.103 Z-0.119 I0. J-0.597
Y14.297 Z-0.124 I0. J0.597
Y13.103 Z-0.129 I0. J-0.597
Y14.297 Z-0.133 I0. J0.597
Y13.103 Z-0.138 I0. J-0.597
Y14.297 Z-0.143 I0. J0.597
Y13.103 Z-0.148 I0. J-0.597
Y14.297 Z-0.153 I0. J0.597
Y13.103 Z-0.157 I0. J-0.597
Y14.297 Z-0.162 I0. J0.597
Y13.103 Z-0.167 I0. J-0.597
Y14.297 Z-0.172 I0. J0.597
Y13.103 Z-0.176 I0. J-0.597
Y14.297 Z-0.181 I0. J0.597
Y13.103 Z-0.186 I0. J-0.597
Y14.297 Z-0.191 I0. J0.597
Y13.103 Z-0.195 I0. J-0.597
Y14.297 Z-0.2 I0. J0.597
Y13.103 Z-0.205 I0. J-0.597
Y14.297 Z-0.21 I0. J0.597
Y13.103 Z-0.214 I0. J-0.597
Y14.297 Z-0.219 I0. J0.597
Y13.103 Z-0.224 I0. J-0.597
Y14.297 Z-0.229 I0. J0.597
Y13.103 Z-0.234 I0. J-0.597
Y14.297 Z-0.238 I0. J0.597
Y13.103 Z-0.243 I0. J-0.597
Y14.297 Z-0.248 I0. J0.597
Y13.103 Z-0.253 I0. J-0.597
Y14.297 Z-0.257 I0. J0.597
Y13.103 Z-0.262 I0. J-0.597
Y14.297 Z-0.267 I0. J0.597
Y13.103 Z-0.272 I0. J-0.597
Y14.297 Z-0.276 I0. J0.597
Y13.103 Z-0.281 I0. J-0.597
Y14.297 Z-0.286 I0. J0.597
Y13.103 Z-0.291 I0. J-0.597
Y14.297 Z-0.295 I0. J0.597
Y13.103 Z-0.3 I0. J-0.597
Y14.297 Z-0.305 I0. J0.597
Y13.103 Z-0.31 I0. J-0.597
Y14.297 Z-0.315 I0. J0.597
Y13.103 Z-0.319 I0. J-0.597
Y14.297 Z-0.324 I0. J0.597
Y13.103 Z-0.329 I0. J-0.597
Y14.297 Z-0.334 I0. J0.597
Y13.103 Z-0.338 I0. J-0.597
Y14.297 Z-0.343 I0. J0.597
Y13.103 Z-0.348 I0. J-0.597
Y14.297 Z-0.353 I0. J0.597
Y13.103 Z-0.357 I0. J-0.597
Y14.297 Z-0.362 I0. J0.597
Y13.103 Z-0.367 I0. J-0.597
Y14.297 Z-0.372 I0. J0.597
Y13.103 Z-0.376 I0. J-0.597
Y14.297 Z-0.381 I0. J0.597
Y13.103 Z-0.386 I0. J-0.597
Y14.297 Z-0.391 I0. J0.597
Y13.103 Z-0.396 I0. J-0.597
Y14.297 Z-0.4 I0. J0.597
Y13.103 Z-0.405 I0. J-0.597
Y14.297 Z-0.41 I0. J0.597
Y13.103 Z-0.415 I0. J-0.597
Y14.297 Z-0.419 I0. J0.597
Y13.103 Z-0.424 I0. J-0.597
Y14.297 Z-0.429 I0. J0.597
Y13.103 Z-0.434 I0. J-0.597
Y14.297 Z-0.438 I0. J0.597
Y13.103 Z-0.443 I0. J-0.597
Y14.297 Z-0.448 I0. J0.597
Y13.103 Z-0.453 I0. J-0.597
Y14.297 Z-0.458 I0. J0.597
Y13.103 Z-0.462 I0. J-0.597
Y14.297 Z-0.467 I0. J0.597
Y13.103 Z-0.472 I0. J-0.597
Y14.297 Z-0.477 I0. J0.597
Y13.103 Z-0.481 I0. J-0.597
Y14.297 Z-0.486 I0. J0.597
Y13.103 Z-0.491 I0. J-0.597
Y14.297 Z-0.496 I0. J0.597
Y13.103 Z-0.5 I0. J-0.597
Y14.297 Z-0.505 I0. J0.597
Y13.103 Z-0.51 I0. J-0.597
Y14.297 Z-0.515 I0. J0.597
Y13.103 Z-0.519 I0. J-0.597
Y14.297 Z-0.524 I0. J0.597
Y13.103 Z-0.529 I0. J-0.597
Y14.297 Z-0.534 I0. J0.597
Y13.103 Z-0.539 I0. J-0.597
Y14.297 Z-0.543 I0. J0.597
Y13.103 Z-0.548 I0. J-0.597
Y14.297 Z-0.553 I0. J0.597
Y13.103 Z-0.558 I0. J-0.597
Y14.297 Z-0.562 I0. J0.597
Y13.103 Z-0.567 I0. J-0.597
Y14.297 Z-0.572 I0. J0.597
Y13.103 Z-0.577 I0. J-0.597
Y14.297 Z-0.581 I0. J0.597
Y13.103 Z-0.586 I0. J-0.597
Y14.297 Z-0.591 I0. J0.597
Y13.103 Z-0.596 I0. J-0.597
Y14.297 Z-0.6 I0. J0.597
Y13.103 Z-0.605 I0. J-0.597
Y14.297 Z-0.61 I0. J0.597
Y13.103 Z-0.615 I0. J-0.597
Y14.297 Z-0.62 I0. J0.597
Y13.103 Z-0.624 I0. J-0.597
Y14.297 Z-0.629 I0. J0.597
Y13.103 Z-0.634 I0. J-0.597
Y14.297 Z-0.639 I0. J0.597
Y13.103 Z-0.643 I0. J-0.597
Y14.297 Z-0.648 I0. J0.597
Y13.103 Z-0.653 I0. J-0.597
Y14.297 Z-0.658 I0. J0.597
Y13.103 Z-0.662 I0. J-0.597
Y14.297 Z-0.667 I0. J0.597
Y13.103 Z-0.672 I0. J-0.597
Y14.297 Z-0.677 I0. J0.597
Y13.103 Z-0.681 I0. J-0.597
Y14.297 Z-0.686 I0. J0.597
Y13.103 Z-0.691 I0. J-0.597
Y14.297 Z-0.696 I0. J0.597
Y13.103 Z-0.701 I0. J-0.597
Y14.297 Z-0.705 I0. J0.597
Y13.103 Z-0.71 I0. J-0.597
Y14.297 Z-0.715 I0. J0.597
Y13.103 Z-0.72 I0. J-0.597
Y14.297 Z-0.724 I0. J0.597
Y13.103 Z-0.729 I0. J-0.597
Y14.297 Z-0.734 I0. J0.597
Y13.103 Z-0.739 I0. J-0.597
Y14.297 Z-0.743 I0. J0.597
Y13.103 Z-0.748 I0. J-0.597
Y14.297 Z-0.753 I0. J0.597
Y13.103 Z-0.758 I0. J-0.597
Y14.297 Z-0.763 I0. J0.597
Y13.103 Z-0.767 I0. J-0.597
Y14.297 Z-0.772 I0. J0.597
Y13.103 Z-0.777 I0. J-0.597
Y14.297 Z-0.782 I0. J0.597
Y13.103 Z-0.786 I0. J-0.597
Y14.297 Z-0.791 I0. J0.597
Y13.103 Z-0.796 I0. J-0.597
Y14.297 Z-0.801 I0. J0.597
Y13.103 Z-0.805 I0. J-0.597
Y14.297 Z-0.81 I0. J0.597
Y13.103 Z-0.815 I0. J-0.597
Y14.297 Z-0.82 I0. J0.597
Y13.103 Z-0.824 I0. J-0.597
Y14.297 Z-0.829 I0. J0.597
Y13.103 Z-0.834 I0. J-0.597
Y14.297 Z-0.839 I0. J0.597
Y13.103 Z-0.844 I0. J-0.597
Y14.297 Z-0.848 I0. J0.597
Y13.103 Z-0.853 I0. J-0.597
Y14.297 Z-0.858 I0. J0.597
Y13.103 Z-0.863 I0. J-0.597
Y14.297 Z-0.867 I0. J0.597
Y13.103 Z-0.872 I0. J-0.597
Y14.297 Z-0.877 I0. J0.597
Y13.103 Z-0.882 I0. J-0.597
Y14.297 Z-0.886 I0. J0.597
Y13.103 Z-0.891 I0. J-0.597
Y14.297 Z-0.896 I0. J0.597
Y13.103 Z-0.901 I0. J-0.597
Y14.297 Z-0.905 I0. J0.597
Y13.103 Z-0.91 I0. J-0.597
Y14.297 Z-0.915 I0. J0.597
Y13.103 Z-0.92 I0. J-0.597
Y14.297 Z-0.925 I0. J0.597
Y13.103 Z-0.929 I0. J-0.597
Y14.297 Z-0.934 I0. J0.597
Y13.103 Z-0.939 I0. J-0.597
Y14.297 Z-0.944 I0. J0.597
Y13.103 Z-0.948 I0. J-0.597
Y14.297 Z-0.953 I0. J0.597
Y13.103 Z-0.958 I0. J-0.597
Y14.297 Z-0.963 I0. J0.597
Y13.103 Z-0.967 I0. J-0.597
Y14.297 Z-0.972 I0. J0.597
Y13.103 Z-0.977 I0. J-0.597
Y14.297 Z-0.982 I0. J0.597
Y13.103 Z-0.986 I0. J-0.597
Y14.297 Z-0.991 I0. J0.597
Y13.103 Z-0.996 I0. J-0.597
Y14.297 Z-1.001 I0. J0.597
Y13.103 Z-1.006 I0. J-0.597
Y14.297 Z-1.01 I0. J0.597
Y13.103 Z-1.015 I0. J-0.597
Y14.297 Z-1.02 I0. J0.597
Y13.103 Z-1.025 I0. J-0.597
Y14.297 Z-1.029 I0. J0.597
Y13.103 Z-1.034 I0. J-0.597
Y14.297 Z-1.039 I0. J0.597
Y13.103 Z-1.044 I0. J-0.597
Y14.297 Z-1.048 I0. J0.597
Y13.103 Z-1.053 I0. J-0.597
Y14.297 Z-1.058 I0. J0.597
Y13.103 Z-1.063 I0. J-0.597
Y14.297 Z-1.068 I0. J0.597
Y13.103 Z-1.072 I0. J-0.597
Y14.297 Z-1.077 I0. J0.597
Y13.103 Z-1.082 I0. J-0.597
Y14.297 Z-1.087 I0. J0.597
Y13.103 Z-1.091 I0. J-0.597
Y14.297 Z-1.096 I0. J0.597
Y13.103 Z-1.101 I0. J-0.597
Y14.297 Z-1.106 I0. J0.597
Y13.103 Z-1.11 I0. J-0.597
Y14.297 Z-1.115 I0. J0.597
Y13.103 Z-1.12 I0. J-0.597
Y14.297 Z-1.125 I0. J0.597
Y13.103 Z-1.129 I0. J-0.597
Y14.297 Z-1.134 I0. J0.597
Y13.103 Z-1.139 I0. J-0.597
Y14.297 Z-1.144 I0. J0.597
Y13.103 Z-1.149 I0. J-0.597
Y14.297 Z-1.153 I0. J0.597
Y13.103 Z-1.158 I0. J-0.597
Y14.297 Z-1.163 I0. J0.597
Y13.103 Z-1.168 I0. J-0.597
Y14.297 Z-1.172 I0. J0.597
Y13.103 Z-1.177 I0. J-0.597
Y14.297 Z-1.182 I0. J0.597
Y13.103 Z-1.187 I0. J-0.597
Y14.297 Z-1.191 I0. J0.597
Y13.103 Z-1.196 I0. J-0.597
Y14.297 Z-1.201 I0. J0.597
Y13.103 Z-1.206 I0. J-0.597
Y14.297 Z-1.21 I0. J0.597
Y13.103 Z-1.215 I0. J-0.597
Y14.297 Z-1.22 I0. J0.597
Y13.103 Z-1.225 I0. J-0.597
Y14.297 Z-1.23 I0. J0.597
Y13.103 Z-1.234 I0. J-0.597
Y14.297 Z-1.239 I0. J0.597
Y13.103 Z-1.244 I0. J-0.597
Y14.297 Z-1.249 I0. J0.597
Y13.103 Z-1.253 I0. J-0.597
Y14.297 Z-1.258 I0. J0.597
Y13.103 Z-1.263 I0. J-0.597
Y14.297 Z-1.268 I0. J0.597
Y13.103 Z-1.272 I0. J-0.597
Y14.297 Z-1.277 I0. J0.597
Y13.103 Z-1.282 I0. J-0.597
Y14.297 Z-1.287 I0. J0.597
Y13.103 Z-1.291 I0. J-0.597
Y14.297 Z-1.296 I0. J0.597
Y13.103 Z-1.301 I0. J-0.597
Y14.297 Z-1.306 I0. J0.597
Y13.103 Z-1.311 I0. J-0.597
Y14.297 Z-1.315 I0. J0.597
Y13.103 Z-1.32 I0. J-0.597
Y14.297 Z-1.325 I0. J0.597
Y13.103 Z-1.33 I0. J-0.597
Y14.297 Z-1.334 I0. J0.597
Y13.103 Z-1.339 I0. J-0.597
Y14.297 Z-1.344 I0. J0.597
Y13.103 Z-1.349 I0. J-0.597
Y14.297 Z-1.353 I0. J0.597
Y13.103 Z-1.358 I0. J-0.597
Y14.297 Z-1.363 I0. J0.597
Y13.103 Z-1.368 I0. J-0.597
Y14.297 Z-1.373 I0. J0.597
Y13.103 Z-1.377 I0. J-0.597
Y14.297 Z-1.382 I0. J0.597
Y13.103 Z-1.387 I0. J-0.597
Y14.297 Z-1.392 I0. J0.597
Y13.103 Z-1.396 I0. J-0.597
Y14.297 Z-1.401 I0. J0.597
Y13.103 Z-1.406 I0. J-0.597
Y14.297 Z-1.411 I0. J0.597
Y13.103 Z-1.415 I0. J-0.597
Y14.297 Z-1.42 I0. J0.597
Y13.103 Z-1.425 I0. J-0.597
Y14.297 Z-1.43 I0. J0.597
Y13.103 Z-1.434 I0. J-0.597
Y14.297 Z-1.439 I0. J0.597
Y13.103 Z-1.444 I0. J-0.597
Y14.297 Z-1.449 I0. J0.597
Y13.103 Z-1.454 I0. J-0.597
Y14.297 Z-1.458 I0. J0.597
Y13.103 Z-1.463 I0. J-0.597
Y14.297 Z-1.468 I0. J0.597
Y13.103 Z-1.473 I0. J-0.597
Y14.297 Z-1.477 I0. J0.597
Y13.103 Z-1.482 I0. J-0.597
Y14.297 Z-1.487 I0. J0.597
Y13.103 Z-1.492 I0. J-0.597
Y14.297 Z-1.496 I0. J0.597
Y13.103 Z-1.501 I0. J-0.597
Y14.297 Z-1.506 I0. J0.597
Y13.103 Z-1.511 I0. J-0.597
Y14.297 Z-1.515 I0. J0.597
Y13.103 Z-1.52 I0. J-0.597
Y14.297 Z-1.525 I0. J0.597
Y13.103 Z-1.53 I0. J-0.597
Y14.297 Z-1.535 I0. J0.597
Y13.103 Z-1.539 I0. J-0.597
Y14.297 Z-1.544 I0. J0.597
Y13.103 Z-1.549 I0. J-0.597
Y14.297 Z-1.554 I0. J0.597
Y13.103 Z-1.558 I0. J-0.597
Y14.297 Z-1.563 I0. J0.597
Y13.103 Z-1.568 I0. J-0.597
Y14.297 Z-1.573 I0. J0.597
Y13.103 Z-1.577 I0. J-0.597
Y14.297 Z-1.582 I0. J0.597
Y13.103 Z-1.587 I0. J-0.597
Y14.297 Z-1.592 I0. J0.597
Y13.103 Z-1.596 I0. J-0.597
Y14.297 Z-1.601 I0. J0.597
Y13.103 Z-1.606 I0. J-0.597
Y14.297 Z-1.611 I0. J0.597
Y13.103 Z-1.616 I0. J-0.597
Y14.297 Z-1.62 I0. J0.597
Y13.103 Z-1.625 I0. J-0.597
Y14.297 Z-1.63 I0. J0.597
Y13.103 Z-1.635 I0. J-0.597
Y14.297 Z-1.639 I0. J0.597
Y13.103 Z-1.644 I0. J-0.597
Y14.297 Z-1.649 I0. J0.597
Y13.103 Z-1.654 I0. J-0.597
Y14.297 Z-1.658 I0. J0.597
Y13.103 Z-1.663 I0. J-0.597
Y14.297 Z-1.668 I0. J0.597
Y13.103 Z-1.673 I0. J-0.597
Y14.297 Z-1.678 I0. J0.597
Y13.103 Z-1.682 I0. J-0.597
Y14.297 Z-1.687 I0. J0.597
Y13.103 Z-1.692 I0. J-0.597
Y14.297 Z-1.697 I0. J0.597
Y13.103 Z-1.701 I0. J-0.597
Y14.297 Z-1.706 I0. J0.597
Y13.103 Z-1.711 I0. J-0.597
Y14.297 Z-1.716 I0. J0.597
Y13.103 Z-1.72 I0. J-0.597
Y14.297 Z-1.725 I0. J0.597
Y13.103 Z-1.73 I0. J-0.597
Y14.297 Z-1.735 I0. J0.597
Y13.103 Z-1.739 I0. J-0.597
Y14.297 Z-1.744 I0. J0.597
Y13.103 Z-1.749 I0. J-0.597
Y14.297 Z-1.754 I0. J0.597
Y13.103 Z-1.759 I0. J-0.597
Y14.297 Z-1.763 I0. J0.597
Y13.103 Z-1.768 I0. J-0.597
Y14.297 Z-1.773 I0. J0.597
Y13.103 Z-1.778 I0. J-0.597
Y14.297 Z-1.782 I0. J0.597
Y13.103 Z-1.787 I0. J-0.597
Y14.297 Z-1.792 I0. J0.597
Y13.103 Z-1.797 I0. J-0.597
Y14.297 Z-1.801 I0. J0.597
Y13.103 Z-1.806 I0. J-0.597
Y14.297 Z-1.811 I0. J0.597
Y13.103 Z-1.816 I0. J-0.597
Y14.297 Z-1.82 I0. J0.597
Y13.103 Z-1.825 I0. J-0.597
Y14.297 Z-1.83 I0. J0.597
Y13.103 Z-1.835 I0. J-0.597
Y14.297 Z-1.84 I0. J0.597
Y13.103 Z-1.844 I0. J-0.597
Y14.297 Z-1.849 I0. J0.597
Y13.103 Z-1.854 I0. J-0.597
Y14.297 Z-1.859 I0. J0.597
Y13.103 Z-1.863 I0. J-0.597
Y14.297 Z-1.868 I0. J0.597
Y13.103 Z-1.873 I0. J-0.597
Y14.297 Z-1.878 I0. J0.597
Y13.103 Z-1.882 I0. J-0.597
Y14.297 Z-1.887 I0. J0.597
Y13.103 Z-1.892 I0. J-0.597
Y14.297 Z-1.897 I0. J0.597
Y13.103 Z-1.901 I0. J-0.597
Y14.297 Z-1.906 I0. J0.597
Y13.103 Z-1.911 I0. J-0.597
Y14.297 Z-1.916 I0. J0.597
Y13.103 Z-1.921 I0. J-0.597
Y14.297 Z-1.925 I0. J0.597
Y13.103 Z-1.93 I0. J-0.597
Y14.297 Z-1.935 I0. J0.597
Y13.103 Z-1.94 I0. J-0.597
Y14.297 Z-1.944 I0. J0.597
Y13.103 Z-1.949 I0. J-0.597
Y14.297 Z-1.954 I0. J0.597
Y13.103 Z-1.959 I0. J-0.597
Y14.297 Z-1.963 I0. J0.597
Y13.103 Z-1.968 I0. J-0.597
Y14.297 Z-1.973 I0. J0.597
Y13.103 Z-1.978 I0. J-0.597
Y14.297 Z-1.983 I0. J0.597
Y13.103 Z-1.987 I0. J-0.597
Y14.297 Z-1.992 I0. J0.597
Y13.103 Z-1.997 I0. J-0.597
Y14.297 Z-2.002 I0. J0.597
Y13.103 Z-2.006 I0. J-0.597
Y14.297 Z-2.011 I0. J0.597
Y13.103 Z-2.016 I0. J-0.597
Y14.297 Z-2.021 I0. J0.597
Y13.103 Z-2.025 I0. J-0.597
Y14.297 Z-2.03 I0. J0.597
Y13.103 Z-2.035 I0. J-0.597
Y14.297 Z-2.04 I0. J0.597
Y13.103 Z-2.044 I0. J-0.597
Y14.297 Z-2.049 I0. J0.597
Y13.103 Z-2.054 I0. J-0.597
Y14.297 Z-2.059 I0. J0.597
Y13.103 Z-2.064 I0. J-0.597
Y14.297 Z-2.068 I0. J0.597
Y13.103 Z-2.073 I0. J-0.597
Y14.297 Z-2.078 I0. J0.597
Y13.103 Z-2.083 I0. J-0.597
Y14.297 Z-2.087 I0. J0.597
Y13.103 Z-2.092 I0. J-0.597
Y14.297 Z-2.097 I0. J0.597
Y13.103 Z-2.102 I0. J-0.597
Y14.297 Z-2.106 I0. J0.597
Y13.103 Z-2.111 I0. J-0.597
Y14.297 Z-2.116 I0. J0.597
Y13.103 Z-2.121 I0. J-0.597
Y14.297 Z-2.125 I0. J0.597
Y13.103 Z-2.13 I0. J-0.597
Y14.297 Z-2.135 I0. J0.597
Y13.103 Z-2.14 I0. J-0.597
Y14.297 Z-2.145 I0. J0.597
Y13.103 Z-2.149 I0. J-0.597
Y14.297 Z-2.154 I0. J0.597
Y13.103 Z-2.159 I0. J-0.597
Y14.297 Z-2.164 I0. J0.597
Y13.103 Z-2.168 I0. J-0.597
Y14.297 Z-2.173 I0. J0.597
Y13.103 Z-2.178 I0. J-0.597
Y14.297 Z-2.183 I0. J0.597
Y13.103 Z-2.187 I0. J-0.597
Y14.297 Z-2.192 I0. J0.597
Y13.103 Z-2.197 I0. J-0.597
Y14.297 Z-2.202 I0. J0.597
Y13.103 Z-2.206 I0. J-0.597
Y14.297 Z-2.211 I0. J0.597
Y13.103 Z-2.216 I0. J-0.597
Y14.297 Z-2.221 I0. J0.597
Y13.103 Z-2.226 I0. J-0.597
Y14.297 Z-2.23 I0. J0.597
Y13.103 Z-2.235 I0. J-0.597
Y14.297 Z-2.24 I0. J0.597
Y13.103 Z-2.245 I0. J-0.597
Y14.297 Z-2.249 I0. J0.597
Y13.103 Z-2.254 I0. J-0.597
Y14.297 Z-2.259 I0. J0.597
Y13.103 Z-2.264 I0. J-0.597
Y14.297 Z-2.268 I0. J0.597
Y13.103 Z-2.273 I0. J-0.597
Y14.297 Z-2.278 I0. J0.597
Y13.103 Z-2.283 I0. J-0.597
Y14.297 Z-2.288 I0. J0.597
Y13.103 Z-2.292 I0. J-0.597
Y14.297 Z-2.297 I0. J0.597
Y13.103 Z-2.302 I0. J-0.597
Y14.297 Z-2.307 I0. J0.597
Y13.103 Z-2.311 I0. J-0.597
Y14.297 Z-2.316 I0. J0.597
Y13.103 Z-2.321 I0. J-0.597
Y14.297 Z-2.326 I0. J0.597
Y13.103 Z-2.33 I0. J-0.597
Y14.297 Z-2.335 I0. J0.597
Y13.103 Z-2.34 I0. J-0.597
Y14.297 Z-2.345 I0. J0.597
Y13.103 Z-2.349 I0. J-0.597
Y14.297 Z-2.354 I0. J0.597
Y13.103 Z-2.359 I0. J-0.597
Y14.297 Z-2.364 I0. J0.597
Y13.103 Z-2.369 I0. J-0.597
Y14.297 Z-2.373 I0. J0.597
Y13.103 Z-2.378 I0. J-0.597
Y14.297 Z-2.383 I0. J0.597
Y13.103 Z-2.388 I0. J-0.597
Y14.297 Z-2.392 I0. J0.597
Y13.103 Z-2.397 I0. J-0.597
Y14.297 Z-2.402 I0. J0.597
Y13.103 Z-2.407 I0. J-0.597
Y14.297 Z-2.411 I0. J0.597
Y13.103 Z-2.416 I0. J-0.597
Y14.297 Z-2.421 I0. J0.597
Y13.103 Z-2.426 I0. J-0.597
Y14.297 Z-2.43 I0. J0.597
Y13.103 Z-2.435 I0. J-0.597
Y14.297 Z-2.44 I0. J0.597
Y13.103 Z-2.445 I0. J-0.597
Y14.297 Z-2.45 I0. J0.597
Y13.103 Z-2.454 I0. J-0.597
Y14.297 Z-2.459 I0. J0.597
Y13.103 Z-2.464 I0. J-0.597
Y14.297 Z-2.469 I0. J0.597
Y13.103 Z-2.473 I0. J-0.597
Y14.297 Z-2.478 I0. J0.597
Y13.103 Z-2.483 I0. J-0.597
Y14.297 Z-2.488 I0. J0.597
Y13.103 Z-2.492 I0. J-0.597
Y14.297 Z-2.497 I0. J0.597
Y13.103 Z-2.502 I0. J-0.597
Y14.297 Z-2.507 I0. J0.597
Y13.103 Z-2.511 I0. J-0.597
Y14.297 Z-2.516 I0. J0.597
Y13.103 Z-2.521 I0. J-0.597
Y14.297 Z-2.526 I0. J0.597
Y13.103 Z-2.531 I0. J-0.597
Y14.297 Z-2.535 I0. J0.597
Y13.103 Z-2.54 I0. J-0.597
Y14.297 Z-2.545 I0. J0.597
Y13.103 Z-2.55 I0. J-0.597
Y14.297 Z-2.554 I0. J0.597
Y13.103 Z-2.559 I0. J-0.597
Y14.297 Z-2.564 I0. J0.597
Y13.103 Z-2.569 I0. J-0.597
Y14.297 Z-2.573 I0. J0.597
Y13.103 Z-2.578 I0. J-0.597
Y14.297 Z-2.583 I0. J0.597
Y13.103 Z-2.588 I0. J-0.597
Y14.297 Z-2.593 I0. J0.597
Y13.103 Z-2.597 I0. J-0.597
Y14.297 Z-2.602 I0. J0.597
Y13.103 Z-2.607 I0. J-0.597
Y14.297 Z-2.612 I0. J0.597
Y13.103 Z-2.616 I0. J-0.597
Y14.297 Z-2.621 I0. J0.597
Y13.103 Z-2.626 I0. J-0.597
Y14.297 Z-2.631 I0. J0.597
Y13.103 Z-2.635 I0. J-0.597
Y14.297 Z-2.64 I0. J0.597
Y13.103 Z-2.645 I0. J-0.597
Y14.297 Z-2.65 I0. J0.597
Y13.103 Z-2.654 I0. J-0.597
Y14.297 Z-2.659 I0. J0.597
Y13.103 Z-2.664 I0. J-0.597
Y14.297 Z-2.669 I0. J0.597
Y13.103 Z-2.674 I0. J-0.597
Y14.297 Z-2.678 I0. J0.597
Y13.103 Z-2.683 I0. J-0.597
Y14.297 Z-2.688 I0. J0.597
Y13.103 Z-2.693 I0. J-0.597
Y14.297 Z-2.697 I0. J0.597
Y13.103 Z-2.702 I0. J-0.597
Y14.297 Z-2.707 I0. J0.597
Y13.103 Z-2.712 I0. J-0.597
Y14.297 Z-2.716 I0. J0.597
Y13.103 Z-2.721 I0. J-0.597
Y14.297 Z-2.726 I0. J0.597
Y13.103 Z-2.731 I0. J-0.597
Y14.297 Z-2.735 I0. J0.597
Y13.103 Z-2.74 I0. J-0.597
Y14.297 Z-2.745 I0. J0.597
Y13.103 Z-2.75 I0. J-0.597
Y14.297 Z-2.755 I0. J0.597
Y13.103 Z-2.759 I0. J-0.597
Y14.297 Z-2.764 I0. J0.597
Y13.103 Z-2.769 I0. J-0.597
Y14.297 Z-2.774 I0. J0.597
Y13.103 Z-2.778 I0. J-0.597
Y14.297 Z-2.783 I0. J0.597
Y13.103 Z-2.788 I0. J-0.597
Y14.297 Z-2.793 I0. J0.597
Y13.103 Z-2.797 I0. J-0.597
Y14.297 Z-2.802 I0. J0.597
Y13.103 Z-2.807 I0. J-0.597
Y14.297 Z-2.812 I0. J0.597
Y13.103 Z-2.816 I0. J-0.597
Y14.297 Z-2.821 I0. J0.597
Y13.103 Z-2.826 I0. J-0.597
Y14.297 Z-2.831 I0. J0.597
Y13.103 Z-2.836 I0. J-0.597
Y14.297 Z-2.84 I0. J0.597
Y13.103 Z-2.845 I0. J-0.597
Y14.297 Z-2.85 I0. J0.597
Y13.103 Z-2.855 I0. J-0.597
Y14.297 Z-2.859 I0. J0.597
Y13.103 Z-2.864 I0. J-0.597
Y14.297 Z-2.869 I0. J0.597
Y13.103 Z-2.874 I0. J-0.597
Y14.297 Z-2.878 I0. J0.597
Y13.103 Z-2.883 I0. J-0.597
Y14.297 Z-2.888 I0. J0.597
Y13.103 Z-2.893 I0. J-0.597
Y14.297 Z-2.898 I0. J0.597
Y13.103 Z-2.902 I0. J-0.597
Y14.297 Z-2.907 I0. J0.597
Y13.103 Z-2.912 I0. J-0.597
Y14.297 Z-2.917 I0. J0.597
Y13.103 Z-2.921 I0. J-0.597
Y14.297 Z-2.926 I0. J0.597
Y13.103 Z-2.931 I0. J-0.597
Y14.297 Z-2.936 I0. J0.597
Y13.103 Z-2.94 I0. J-0.597
Y14.297 Z-2.945 I0. J0.597
Y13.103 Z-2.95 I0. J-0.597
Y14.297 Z-2.955 I0. J0.597
Y13.103 Z-2.959 I0. J-0.597
Y14.297 Z-2.964 I0. J0.597
Y13.103 Z-2.969 I0. J-0.597
Y14.297 Z-2.974 I0. J0.597
Y13.103 Z-2.979 I0. J-0.597
Y14.297 Z-2.983 I0. J0.597
Y13.103 Z-2.988 I0. J-0.597
Y14.297 Z-2.993 I0. J0.597
Y13.103 Z-2.998 I0. J-0.597
Y14.297 Z-3.002 I0. J0.597
Y13.103 Z-3.007 I0. J-0.597
Y14.297 Z-3.012 I0. J0.597
Y13.103 Z-3.017 I0. J-0.597
Y14.297 Z-3.021 I0. J0.597
Y13.103 Z-3.026 I0. J-0.597
Y14.297 Z-3.031 I0. J0.597
Y13.103 Z-3.036 I0. J-0.597
Y14.297 Z-3.04 I0. J0.597
Y13.103 Z-3.045 I0. J-0.597
Y14.297 Z-3.05 I0. J0.597
Y13.103 Z-3.055 I0. J-0.597
Y14.297 Z-3.06 I0. J0.597
Y13.103 Z-3.064 I0. J-0.597
Y14.297 Z-3.069 I0. J0.597
Y13.103 Z-3.074 I0. J-0.597
Y14.297 Z-3.079 I0. J0.597
Y13.103 Z-3.083 I0. J-0.597
Y14.297 Z-3.088 I0. J0.597
Y13.103 Z-3.093 I0. J-0.597
Y14.297 Z-3.098 I0. J0.597
Y13.103 Z-3.102 I0. J-0.597
Y14.297 Z-3.107 I0. J0.597
Y13.103 Z-3.112 I0. J-0.597
Y14.297 Z-3.117 I0. J0.597
Y13.103 Z-3.121 I0. J-0.597
Y14.297 Z-3.126 I0. J0.597
Y13.103 Z-3.131 I0. J-0.597
Y14.297 Z-3.136 I0. J0.597
Y13.103 Z-3.141 I0. J-0.597
Y14.297 Z-3.145 I0. J0.597
Y13.103 Z-3.15 I0. J-0.597
Y14.297 Z-3.155 I0. J0.597
Y13.103 Z-3.16 I0. J-0.597
Y14.297 Z-3.164 I0. J0.597
Y13.103 Z-3.169 I0. J-0.597
Y14.297 Z-3.174 I0. J0.597
X100.814 Y14.149 Z-3.175 I0. J-0.597
X100.028 Y13.251 I-0.393 J-0.449
X100.814 Y14.149 I0.393 J0.449
X100.842 Y13.728 I-0.197 J-0.225
G1 X100.738 Y13.608
X100.691 Y13.555 Z-3.167
X100.647 Y13.505 Z-3.144
X100.607 Y13.46 Z-3.106
X100.574 Y13.422 Z-3.055
X100.549 Y13.393 Z-2.995
X100.534 Y13.376 Z-2.928
X100.528 Y13.37 Z-2.858
G0 Z5.
X38.802 Y13.522
Z2.
G1 Z0.317 F800.
Y13.53 Z0.247
Y13.554 Z0.18
Y13.591 Z0.12
Y13.642 Z0.069
Y13.702 Z0.031
Y13.769 Z0.008
Y13.84 Z0.
Y13.998
G2 X39.1 Y14.297 I0.298 J0.
Y13.103 Z-0.005 I0. J-0.597
Y14.297 Z-0.01 I0. J0.597
Y13.103 Z-0.014 I0. J-0.597
Y14.297 Z-0.019 I0. J0.597
Y13.103 Z-0.024 I0. J-0.597
Y14.297 Z-0.029 I0. J0.597
Y13.103 Z-0.033 I0. J-0.597
Y14.297 Z-0.038 I0. J0.597
Y13.103 Z-0.043 I0. J-0.597
Y14.297 Z-0.048 I0. J0.597
Y13.103 Z-0.052 I0. J-0.597
Y14.297 Z-0.057 I0. J0.597
Y13.103 Z-0.062 I0. J-0.597
Y14.297 Z-0.067 I0. J0.597
Y13.103 Z-0.071 I0. J-0.597
Y14.297 Z-0.076 I0. J0.597
Y13.103 Z-0.081 I0. J-0.597
Y14.297 Z-0.086 I0. J0.597
Y13.103 Z-0.091 I0. J-0.597
Y14.297 Z-0.095 I0. J0.597
Y13.103 Z-0.1 I0. J-0.597
Y14.297 Z-0.105 I0. J0.597
Y13.103 Z-0.11 I0. J-0.597
Y14.297 Z-0.114 I0. J0.597
Y13.103 Z-0.119 I0. J-0.597
Y14.297 Z-0.124 I0. J0.597
Y13.103 Z-0.129 I0. J-0.597
Y14.297 Z-0.133 I0. J0.597
Y13.103 Z-0.138 I0. J-0.597
Y14.297 Z-0.143 I0. J0.597
Y13.103 Z-0.148 I0. J-0.597
Y14.297 Z-0.153 I0. J0.597
Y13.103 Z-0.157 I0. J-0.597
Y14.297 Z-0.162 I0. J0.597
Y13.103 Z-0.167 I0. J-0.597
Y14.297 Z-0.172 I0. J0.597
Y13.103 Z-0.176 I0. J-0.597
Y14.297 Z-0.181 I0. J0.597
Y13.103 Z-0.186 I0. J-0.597
Y14.297 Z-0.191 I0. J0.597
Y13.103 Z-0.195 I0. J-0.597
Y14.297 Z-0.2 I0. J0.597
Y13.103 Z-0.205 I0. J-0.597
Y14.297 Z-0.21 I0. J0.597
Y13.103 Z-0.214 I0. J-0.597
Y14.297 Z-0.219 I0. J0.597
Y13.103 Z-0.224 I0. J-0.597
Y14.297 Z-0.229 I0. J0.597
Y13.103 Z-0.234 I0. J-0.597
Y14.297 Z-0.238 I0. J0.597
Y13.103 Z-0.243 I0. J-0.597
Y14.297 Z-0.248 I0. J0.597
Y13.103 Z-0.253 I0. J-0.597
Y14.297 Z-0.257 I0. J0.597
Y13.103 Z-0.262 I0. J-0.597
Y14.297 Z-0.267 I0. J0.597
Y13.103 Z-0.272 I0. J-0.597
Y14.297 Z-0.276 I0. J0.597
Y13.103 Z-0.281 I0. J-0.597
Y14.297 Z-0.286 I0. J0.597
Y13.103 Z-0.291 I0. J-0.597
Y14.297 Z-0.295 I0. J0.597
Y13.103 Z-0.3 I0. J-0.597
Y14.297 Z-0.305 I0. J0.597
Y13.103 Z-0.31 I0. J-0.597
Y14.297 Z-0.315 I0. J0.597
Y13.103 Z-0.319 I0. J-0.597
Y14.297 Z-0.324 I0. J0.597
Y13.103 Z-0.329 I0. J-0.597
Y14.297 Z-0.334 I0. J0.597
Y13.103 Z-0.338 I0. J-0.597
Y14.297 Z-0.343 I0. J0.597
Y13.103 Z-0.348 I0. J-0.597
Y14.297 Z-0.353 I0. J0.597
Y13.103 Z-0.357 I0. J-0.597
Y14.297 Z-0.362 I0. J0.597
Y13.103 Z-0.367 I0. J-0.597
Y14.297 Z-0.372 I0. J0.597
Y13.103 Z-0.376 I0. J-0.597
Y14.297 Z-0.381 I0. J0.597
Y13.103 Z-0.386 I0. J-0.597
Y14.297 Z-0.391 I0. J0.597
Y13.103 Z-0.396 I0. J-0.597
Y14.297 Z-0.4 I0. J0.597
Y13.103 Z-0.405 I0. J-0.597
Y14.297 Z-0.41 I0. J0.597
Y13.103 Z-0.415 I0. J-0.597
Y14.297 Z-0.419 I0. J0.597
Y13.103 Z-0.424 I0. J-0.597
Y14.297 Z-0.429 I0. J0.597
Y13.103 Z-0.434 I0. J-0.597
Y14.297 Z-0.438 I0. J0.597
Y13.103 Z-0.443 I0. J-0.597
Y14.297 Z-0.448 I0. J0.597
Y13.103 Z-0.453 I0. J-0.597
Y14.297 Z-0.458 I0. J0.597
Y13.103 Z-0.462 I0. J-0.597
Y14.297 Z-0.467 I0. J0.597
Y13.103 Z-0.472 I0. J-0.597
Y14.297 Z-0.477 I0. J0.597
Y13.103 Z-0.481 I0. J-0.597
Y14.297 Z-0.486 I0. J0.597
Y13.103 Z-0.491 I0. J-0.597
Y14.297 Z-0.496 I0. J0.597
Y13.103 Z-0.5 I0. J-0.597
Y14.297 Z-0.505 I0. J0.597
Y13.103 Z-0.51 I0. J-0.597
Y14.297 Z-0.515 I0. J0.597
Y13.103 Z-0.519 I0. J-0.597
Y14.297 Z-0.524 I0. J0.597
Y13.103 Z-0.529 I0. J-0.597
Y14.297 Z-0.534 I0. J0.597
Y13.103 Z-0.539 I0. J-0.597
Y14.297 Z-0.543 I0. J0.597
Y13.103 Z-0.548 I0. J-0.597
Y14.297 Z-0.553 I0. J0.597
Y13.103 Z-0.558 I0. J-0.597
Y14.297 Z-0.562 I0. J0.597
Y13.103 Z-0.567 I0. J-0.597
Y14.297 Z-0.572 I0. J0.597
Y13.103 Z-0.577 I0. J-0.597
Y14.297 Z-0.581 I0. J0.597
Y13.103 Z-0.586 I0. J-0.597
Y14.297 Z-0.591 I0. J0.597
Y13.103 Z-0.596 I0. J-0.597
Y14.297 Z-0.6 I0. J0.597
Y13.103 Z-0.605 I0. J-0.597
Y14.297 Z-0.61 I0. J0.597
Y13.103 Z-0.615 I0. J-0.597
Y14.297 Z-0.62 I0. J0.597
Y13.103 Z-0.624 I0. J-0.597
Y14.297 Z-0.629 I0. J0.597
Y13.103 Z-0.634 I0. J-0.597
Y14.297 Z-0.639 I0. J0.597
Y13.103 Z-0.643 I0. J-0.597
Y14.297 Z-0.648 I0. J0.597
Y13.103 Z-0.653 I0. J-0.597
Y14.297 Z-0.658 I0. J0.597
Y13.103 Z-0.662 I0. J-0.597
Y14.297 Z-0.667 I0. J0.597
Y13.103 Z-0.672 I0. J-0.597
Y14.297 Z-0.677 I0. J0.597
Y13.103 Z-0.681 I0. J-0.597
Y14.297 Z-0.686 I0. J0.597
Y13.103 Z-0.691 I0. J-0.597
Y14.297 Z-0.696 I0. J0.597
Y13.103 Z-0.701 I0. J-0.597
Y14.297 Z-0.705 I0. J0.597
Y13.103 Z-0.71 I0. J-0.597
Y14.297 Z-0.715 I0. J0.597
Y13.103 Z-0.72 I0. J-0.597
Y14.297 Z-0.724 I0. J0.597
Y13.103 Z-0.729 I0. J-0.597
Y14.297 Z-0.734 I0. J0.597
Y13.103 Z-0.739 I0. J-0.597
Y14.297 Z-0.743 I0. J0.597
Y13.103 Z-0.748 I0. J-0.597
Y14.297 Z-0.753 I0. J0.597
Y13.103 Z-0.758 I0. J-0.597
Y14.297 Z-0.763 I0. J0.597
Y13.103 Z-0.767 I0. J-0.597
Y14.297 Z-0.772 I0. J0.597
Y13.103 Z-0.777 I0. J-0.597
Y14.297 Z-0.782 I0. J0.597
Y13.103 Z-0.786 I0. J-0.597
Y14.297 Z-0.791 I0. J0.597
Y13.103 Z-0.796 I0. J-0.597
Y14.297 Z-0.801 I0. J0.597
Y13.103 Z-0.805 I0. J-0.597
Y14.297 Z-0.81 I0. J0.597
Y13.103 Z-0.815 I0. J-0.597
Y14.297 Z-0.82 I0. J0.597
Y13.103 Z-0.824 I0. J-0.597
Y14.297 Z-0.829 I0. J0.597
Y13.103 Z-0.834 I0. J-0.597
Y14.297 Z-0.839 I0. J0.597
Y13.103 Z-0.844 I0. J-0.597
Y14.297 Z-0.848 I0. J0.597
Y13.103 Z-0.853 I0. J-0.597
Y14.297 Z-0.858 I0. J0.597
Y13.103 Z-0.863 I0. J-0.597
Y14.297 Z-0.867 I0. J0.597
Y13.103 Z-0.872 I0. J-0.597
Y14.297 Z-0.877 I0. J0.597
Y13.103 Z-0.882 I0. J-0.597
Y14.297 Z-0.886 I0. J0.597
Y13.103 Z-0.891 I0. J-0.597
Y14.297 Z-0.896 I0. J0.597
Y13.103 Z-0.901 I0. J-0.597
Y14.297 Z-0.905 I0. J0.597
Y13.103 Z-0.91 I0. J-0.597
Y14.297 Z-0.915 I0. J0.597
Y13.103 Z-0.92 I0. J-0.597
Y14.297 Z-0.925 I0. J0.597
Y13.103 Z-0.929 I0. J-0.597
Y14.297 Z-0.934 I0. J0.597
Y13.103 Z-0.939 I0. J-0.597
Y14.297 Z-0.944 I0. J0.597
Y13.103 Z-0.948 I0. J-0.597
Y14.297 Z-0.953 I0. J0.597
Y13.103 Z-0.958 I0. J-0.597
Y14.297 Z-0.963 I0. J0.597
Y13.103 Z-0.967 I0. J-0.597
Y14.297 Z-0.972 I0. J0.597
Y13.103 Z-0.977 I0. J-0.597
Y14.297 Z-0.982 I0. J0.597
Y13.103 Z-0.986 I0. J-0.597
Y14.297 Z-0.991 I0. J0.597
Y13.103 Z-0.996 I0. J-0.597
Y14.297 Z-1.001 I0. J0.597
Y13.103 Z-1.006 I0. J-0.597
Y14.297 Z-1.01 I0. J0.597
Y13.103 Z-1.015 I0. J-0.597
Y14.297 Z-1.02 I0. J0.597
Y13.103 Z-1.025 I0. J-0.597
Y14.297 Z-1.029 I0. J0.597
Y13.103 Z-1.034 I0. J-0.597
Y14.297 Z-1.039 I0. J0.597
Y13.103 Z-1.044 I0. J-0.597
Y14.297 Z-1.048 I0. J0.597
Y13.103 Z-1.053 I0. J-0.597
Y14.297 Z-1.058 I0. J0.597
Y13.103 Z-1.063 I0. J-0.597
Y14.297 Z-1.068 I0. J0.597
Y13.103 Z-1.072 I0. J-0.597
Y14.297 Z-1.077 I0. J0.597
Y13.103 Z-1.082 I0. J-0.597
Y14.297 Z-1.087 I0. J0.597
Y13.103 Z-1.091 I0. J-0.597
Y14.297 Z-1.096 I0. J0.597
Y13.103 Z-1.101 I0. J-0.597
Y14.297 Z-1.106 I0. J0.597
Y13.103 Z-1.11 I0. J-0.597
Y14.297 Z-1.115 I0. J0.597
Y13.103 Z-1.12 I0. J-0.597
Y14.297 Z-1.125 I0. J0.597
Y13.103 Z-1.129 I0. J-0.597
Y14.297 Z-1.134 I0. J0.597
Y13.103 Z-1.139 I0. J-0.597
Y14.297 Z-1.144 I0. J0.597
Y13.103 Z-1.149 I0. J-0.597
Y14.297 Z-1.153 I0. J0.597
Y13.103 Z-1.158 I0. J-0.597
Y14.297 Z-1.163 I0. J0.597
Y13.103 Z-1.168 I0. J-0.597
Y14.297 Z-1.172 I0. J0.597
Y13.103 Z-1.177 I0. J-0.597
Y14.297 Z-1.182 I0. J0.597
Y13.103 Z-1.187 I0. J-0.597
Y14.297 Z-1.191 I0. J0.597
Y13.103 Z-1.196 I0. J-0.597
Y14.297 Z-1.201 I0. J0.597
Y13.103 Z-1.206 I0. J-0.597
Y14.297 Z-1.21 I0. J0.597
Y13.103 Z-1.215 I0. J-0.597
Y14.297 Z-1.22 I0. J0.597
Y13.103 Z-1.225 I0. J-0.597
Y14.297 Z-1.23 I0. J0.597
Y13.103 Z-1.234 I0. J-0.597
Y14.297 Z-1.239 I0. J0.597
Y13.103 Z-1.244 I0. J-0.597
Y14.297 Z-1.249 I0. J0.597
Y13.103 Z-1.253 I0. J-0.597
Y14.297 Z-1.258 I0. J0.597
Y13.103 Z-1.263 I0. J-0.597
Y14.297 Z-1.268 I0. J0.597
Y13.103 Z-1.272 I0. J-0.597
Y14.297 Z-1.277 I0. J0.597
Y13.103 Z-1.282 I0. J-0.597
Y14.297 Z-1.287 I0. J0.597
Y13.103 Z-1.291 I0. J-0.597
Y14.297 Z-1.296 I0. J0.597
Y13.103 Z-1.301 I0. J-0.597
Y14.297 Z-1.306 I0. J0.597
Y13.103 Z-1.311 I0. J-0.597
Y14.297 Z-1.315 I0. J0.597
Y13.103 Z-1.32 I0. J-0.597
Y14.297 Z-1.325 I0. J0.597
Y13.103 Z-1.33 I0. J-0.597
Y14.297 Z-1.334 I0. J0.597
Y13.103 Z-1.339 I0. J-0.597
Y14.297 Z-1.344 I0. J0.597
Y13.103 Z-1.349 I0. J-0.597
Y14.297 Z-1.353 I0. J0.597
Y13.103 Z-1.358 I0. J-0.597
Y14.297 Z-1.363 I0. J0.597
Y13.103 Z-1.368 I0. J-0.597
Y14.297 Z-1.373 I0. J0.597
Y13.103 Z-1.377 I0. J-0.597
Y14.297 Z-1.382 I0. J0.597
Y13.103 Z-1.387 I0. J-0.597
Y14.297 Z-1.392 I0. J0.597
Y13.103 Z-1.396 I0. J-0.597
Y14.297 Z-1.401 I0. J0.597
Y13.103 Z-1.406 I0. J-0.597
Y14.297 Z-1.411 I0. J0.597
Y13.103 Z-1.415 I0. J-0.597
Y14.297 Z-1.42 I0. J0.597
Y13.103 Z-1.425 I0. J-0.597
Y14.297 Z-1.43 I0. J0.597
Y13.103 Z-1.434 I0. J-0.597
Y14.297 Z-1.439 I0. J0.597
Y13.103 Z-1.444 I0. J-0.597
Y14.297 Z-1.449 I0. J0.597
Y13.103 Z-1.454 I0. J-0.597
Y14.297 Z-1.458 I0. J0.597
Y13.103 Z-1.463 I0. J-0.597
Y14.297 Z-1.468 I0. J0.597
Y13.103 Z-1.473 I0. J-0.597
Y14.297 Z-1.477 I0. J0.597
Y13.103 Z-1.482 I0. J-0.597
Y14.297 Z-1.487 I0. J0.597
Y13.103 Z-1.492 I0. J-0.597
Y14.297 Z-1.496 I0. J0.597
Y13.103 Z-1.501 I0. J-0.597
Y14.297 Z-1.506 I0. J0.597
Y13.103 Z-1.511 I0. J-0.597
Y14.297 Z-1.515 I0. J0.597
Y13.103 Z-1.52 I0. J-0.597
Y14.297 Z-1.525 I0. J0.597
Y13.103 Z-1.53 I0. J-0.597
Y14.297 Z-1.535 I0. J0.597
Y13.103 Z-1.539 I0. J-0.597
Y14.297 Z-1.544 I0. J0.597
Y13.103 Z-1.549 I0. J-0.597
Y14.297 Z-1.554 I0. J0.597
Y13.103 Z-1.558 I0. J-0.597
Y14.297 Z-1.563 I0. J0.597
Y13.103 Z-1.568 I0. J-0.597
Y14.297 Z-1.573 I0. J0.597
Y13.103 Z-1.577 I0. J-0.597
Y14.297 Z-1.582 I0. J0.597
Y13.103 Z-1.587 I0. J-0.597
Y14.297 Z-1.592 I0. J0.597
Y13.103 Z-1.596 I0. J-0.597
Y14.297 Z-1.601 I0. J0.597
Y13.103 Z-1.606 I0. J-0.597
Y14.297 Z-1.611 I0. J0.597
Y13.103 Z-1.616 I0. J-0.597
Y14.297 Z-1.62 I0. J0.597
Y13.103 Z-1.625 I0. J-0.597
Y14.297 Z-1.63 I0. J0.597
Y13.103 Z-1.635 I0. J-0.597
Y14.297 Z-1.639 I0. J0.597
Y13.103 Z-1.644 I0. J-0.597
Y14.297 Z-1.649 I0. J0.597
Y13.103 Z-1.654 I0. J-0.597
Y14.297 Z-1.658 I0. J0.597
Y13.103 Z-1.663 I0. J-0.597
Y14.297 Z-1.668 I0. J0.597
Y13.103 Z-1.673 I0. J-0.597
Y14.297 Z-1.678 I0. J0.597
Y13.103 Z-1.682 I0. J-0.597
Y14.297 Z-1.687 I0. J0.597
Y13.103 Z-1.692 I0. J-0.597
Y14.297 Z-1.697 I0. J0.597
Y13.103 Z-1.701 I0. J-0.597
Y14.297 Z-1.706 I0. J0.597
Y13.103 Z-1.711 I0. J-0.597
Y14.297 Z-1.716 I0. J0.597
Y13.103 Z-1.72 I0. J-0.597
Y14.297 Z-1.725 I0. J0.597
Y13.103 Z-1.73 I0. J-0.597
Y14.297 Z-1.735 I0. J0.597
Y13.103 Z-1.739 I0. J-0.597
Y14.297 Z-1.744 I0. J0.597
Y13.103 Z-1.749 I0. J-0.597
Y14.297 Z-1.754 I0. J0.597
Y13.103 Z-1.759 I0. J-0.597
Y14.297 Z-1.763 I0. J0.597
Y13.103 Z-1.768 I0. J-0.597
Y14.297 Z-1.773 I0. J0.597
Y13.103 Z-1.778 I0. J-0.597
Y14.297 Z-1.782 I0. J0.597
Y13.103 Z-1.787 I0. J-0.597
Y14.297 Z-1.792 I0. J0.597
Y13.103 Z-1.797 I0. J-0.597
Y14.297 Z-1.801 I0. J0.597
Y13.103 Z-1.806 I0. J-0.597
Y14.297 Z-1.811 I0. J0.597
Y13.103 Z-1.816 I0. J-0.597
Y14.297 Z-1.82 I0. J0.597
Y13.103 Z-1.825 I0. J-0.597
Y14.297 Z-1.83 I0. J0.597
Y13.103 Z-1.835 I0. J-0.597
Y14.297 Z-1.84 I0. J0.597
Y13.103 Z-1.844 I0. J-0.597
Y14.297 Z-1.849 I0. J0.597
Y13.103 Z-1.854 I0. J-0.597
Y14.297 Z-1.859 I0. J0.597
Y13.103 Z-1.863 I0. J-0.597
Y14.297 Z-1.868 I0. J0.597
Y13.103 Z-1.873 I0. J-0.597
Y14.297 Z-1.878 I0. J0.597
Y13.103 Z-1.882 I0. J-0.597
Y14.297 Z-1.887 I0. J0.597
Y13.103 Z-1.892 I0. J-0.597
Y14.297 Z-1.897 I0. J0.597
Y13.103 Z-1.901 I0. J-0.597
Y14.297 Z-1.906 I0. J0.597
Y13.103 Z-1.911 I0. J-0.597
Y14.297 Z-1.916 I0. J0.597
Y13.103 Z-1.921 I0. J-0.597
Y14.297 Z-1.925 I0. J0.597
Y13.103 Z-1.93 I0. J-0.597
Y14.297 Z-1.935 I0. J0.597
Y13.103 Z-1.94 I0. J-0.597
Y14.297 Z-1.944 I0. J0.597
Y13.103 Z-1.949 I0. J-0.597
Y14.297 Z-1.954 I0. J0.597
Y13.103 Z-1.959 I0. J-0.597
Y14.297 Z-1.963 I0. J0.597
Y13.103 Z-1.968 I0. J-0.597
Y14.297 Z-1.973 I0. J0.597
Y13.103 Z-1.978 I0. J-0.597
Y14.297 Z-1.983 I0. J0.597
Y13.103 Z-1.987 I0. J-0.597
Y14.297 Z-1.992 I0. J0.597
Y13.103 Z-1.997 I0. J-0.597
Y14.297 Z-2.002 I0. J0.597
Y13.103 Z-2.006 I0. J-0.597
Y14.297 Z-2.011 I0. J0.597
Y13.103 Z-2.016 I0. J-0.597
Y14.297 Z-2.021 I0. J0.597
Y13.103 Z-2.025 I0. J-0.597
Y14.297 Z-2.03 I0. J0.597
Y13.103 Z-2.035 I0. J-0.597
Y14.297 Z-2.04 I0. J0.597
Y13.103 Z-2.044 I0. J-0.597
Y14.297 Z-2.049 I0. J0.597
Y13.103 Z-2.054 I0. J-0.597
Y14.297 Z-2.059 I0. J0.597
Y13.103 Z-2.064 I0. J-0.597
Y14.297 Z-2.068 I0. J0.597
Y13.103 Z-2.073 I0. J-0.597
Y14.297 Z-2.078 I0. J0.597
Y13.103 Z-2.083 I0. J-0.597
Y14.297 Z-2.087 I0. J0.597
Y13.103 Z-2.092 I0. J-0.597
Y14.297 Z-2.097 I0. J0.597
Y13.103 Z-2.102 I0. J-0.597
Y14.297 Z-2.106 I0. J0.597
Y13.103 Z-2.111 I0. J-0.597
Y14.297 Z-2.116 I0. J0.597
Y13.103 Z-2.121 I0. J-0.597
Y14.297 Z-2.125 I0. J0.597
Y13.103 Z-2.13 I0. J-0.597
Y14.297 Z-2.135 I0. J0.597
Y13.103 Z-2.14 I0. J-0.597
Y14.297 Z-2.145 I0. J0.597
Y13.103 Z-2.149 I0. J-0.597
Y14.297 Z-2.154 I0. J0.597
Y13.103 Z-2.159 I0. J-0.597
Y14.297 Z-2.164 I0. J0.597
Y13.103 Z-2.168 I0. J-0.597
Y14.297 Z-2.173 I0. J0.597
Y13.103 Z-2.178 I0. J-0.597
Y14.297 Z-2.183 I0. J0.597
Y13.103 Z-2.187 I0. J-0.597
Y14.297 Z-2.192 I0. J0.597
Y13.103 Z-2.197 I0. J-0.597
Y14.297 Z-2.202 I0. J0.597
Y13.103 Z-2.206 I0. J-0.597
Y14.297 Z-2.211 I0. J0.597
Y13.103 Z-2.216 I0. J-0.597
Y14.297 Z-2.221 I0. J0.597
Y13.103 Z-2.226 I0. J-0.597
Y14.297 Z-2.23 I0. J0.597
Y13.103 Z-2.235 I0. J-0.597
Y14.297 Z-2.24 I0. J0.597
Y13.103 Z-2.245 I0. J-0.597
Y14.297 Z-2.249 I0. J0.597
Y13.103 Z-2.254 I0. J-0.597
Y14.297 Z-2.259 I0. J0.597
Y13.103 Z-2.264 I0. J-0.597
Y14.297 Z-2.268 I0. J0.597
Y13.103 Z-2.273 I0. J-0.597
Y14.297 Z-2.278 I0. J0.597
Y13.103 Z-2.283 I0. J-0.597
Y14.297 Z-2.288 I0. J0.597
Y13.103 Z-2.292 I0. J-0.597
Y14.297 Z-2.297 I0. J0.597
Y13.103 Z-2.302 I0. J-0.597
Y14.297 Z-2.307 I0. J0.597
Y13.103 Z-2.311 I0. J-0.597
Y14.297 Z-2.316 I0. J0.597
Y13.103 Z-2.321 I0. J-0.597
Y14.297 Z-2.326 I0. J0.597
Y13.103 Z-2.33 I0. J-0.597
Y14.297 Z-2.335 I0. J0.597
Y13.103 Z-2.34 I0. J-0.597
Y14.297 Z-2.345 I0. J0.597
Y13.103 Z-2.349 I0. J-0.597
Y14.297 Z-2.354 I0. J0.597
Y13.103 Z-2.359 I0. J-0.597
Y14.297 Z-2.364 I0. J0.597
Y13.103 Z-2.369 I0. J-0.597
Y14.297 Z-2.373 I0. J0.597
Y13.103 Z-2.378 I0. J-0.597
Y14.297 Z-2.383 I0. J0.597
Y13.103 Z-2.388 I0. J-0.597
Y14.297 Z-2.392 I0. J0.597
Y13.103 Z-2.397 I0. J-0.597
Y14.297 Z-2.402 I0. J0.597
Y13.103 Z-2.407 I0. J-0.597
Y14.297 Z-2.411 I0. J0.597
Y13.103 Z-2.416 I0. J-0.597
Y14.297 Z-2.421 I0. J0.597
Y13.103 Z-2.426 I0. J-0.597
Y14.297 Z-2.43 I0. J0.597
Y13.103 Z-2.435 I0. J-0.597
Y14.297 Z-2.44 I0. J0.597
Y13.103 Z-2.445 I0. J-0.597
Y14.297 Z-2.45 I0. J0.597
Y13.103 Z-2.454 I0. J-0.597
Y14.297 Z-2.459 I0. J0.597
Y13.103 Z-2.464 I0. J-0.597
Y14.297 Z-2.469 I0. J0.597
Y13.103 Z-2.473 I0. J-0.597
Y14.297 Z-2.478 I0. J0.597
Y13.103 Z-2.483 I0. J-0.597
Y14.297 Z-2.488 I0. J0.597
Y13.103 Z-2.492 I0. J-0.597
Y14.297 Z-2.497 I0. J0.597
Y13.103 Z-2.502 I0. J-0.597
Y14.297 Z-2.507 I0. J0.597
Y13.103 Z-2.511 I0. J-0.597
Y14.297 Z-2.516 I0. J0.597
Y13.103 Z-2.521 I0. J-0.597
Y14.297 Z-2.526 I0. J0.597
Y13.103 Z-2.531 I0. J-0.597
Y14.297 Z-2.535 I0. J0.597
Y13.103 Z-2.54 I0. J-0.597
Y14.297 Z-2.545 I0. J0.597
Y13.103 Z-2.55 I0. J-0.597
Y14.297 Z-2.554 I0. J0.597
Y13.103 Z-2.559 I0. J-0.597
Y14.297 Z-2.564 I0. J0.597
Y13.103 Z-2.569 I0. J-0.597
Y14.297 Z-2.573 I0. J0.597
Y13.103 Z-2.578 I0. J-0.597
Y14.297 Z-2.583 I0. J0.597
Y13.103 Z-2.588 I0. J-0.597
Y14.297 Z-2.593 I0. J0.597
Y13.103 Z-2.597 I0. J-0.597
Y14.297 Z-2.602 I0. J0.597
Y13.103 Z-2.607 I0. J-0.597
Y14.297 Z-2.612 I0. J0.597
Y13.103 Z-2.616 I0. J-0.597
Y14.297 Z-2.621 I0. J0.597
Y13.103 Z-2.626 I0. J-0.597
Y14.297 Z-2.631 I0. J0.597
Y13.103 Z-2.635 I0. J-0.597
Y14.297 Z-2.64 I0. J0.597
Y13.103 Z-2.645 I0. J-0.597
Y14.297 Z-2.65 I0. J0.597
Y13.103 Z-2.654 I0. J-0.597
Y14.297 Z-2.659 I0. J0.597
Y13.103 Z-2.664 I0. J-0.597
Y14.297 Z-2.669 I0. J0.597
Y13.103 Z-2.674 I0. J-0.597
Y14.297 Z-2.678 I0. J0.597
Y13.103 Z-2.683 I0. J-0.597
Y14.297 Z-2.688 I0. J0.597
Y13.103 Z-2.693 I0. J-0.597
Y14.297 Z-2.697 I0. J0.597
Y13.103 Z-2.702 I0. J-0.597
Y14.297 Z-2.707 I0. J0.597
Y13.103 Z-2.712 I0. J-0.597
Y14.297 Z-2.716 I0. J0.597
Y13.103 Z-2.721 I0. J-0.597
Y14.297 Z-2.726 I0. J0.597
Y13.103 Z-2.731 I0. J-0.597
Y14.297 Z-2.735 I0. J0.597
Y13.103 Z-2.74 I0. J-0.597
Y14.297 Z-2.745 I0. J0.597
Y13.103 Z-2.75 I0. J-0.597
Y14.297 Z-2.755 I0. J0.597
Y13.103 Z-2.759 I0. J-0.597
Y14.297 Z-2.764 I0. J0.597
Y13.103 Z-2.769 I0. J-0.597
Y14.297 Z-2.774 I0. J0.597
Y13.103 Z-2.778 I0. J-0.597
Y14.297 Z-2.783 I0. J0.597
Y13.103 Z-2.788 I0. J-0.597
Y14.297 Z-2.793 I0. J0.597
Y13.103 Z-2.797 I0. J-0.597
Y14.297 Z-2.802 I0. J0.597
Y13.103 Z-2.807 I0. J-0.597
Y14.297 Z-2.812 I0. J0.597
Y13.103 Z-2.816 I0. J-0.597
Y14.297 Z-2.821 I0. J0.597
Y13.103 Z-2.826 I0. J-0.597
Y14.297 Z-2.831 I0. J0.597
Y13.103 Z-2.836 I0. J-0.597
Y14.297 Z-2.84 I0. J0.597
Y13.103 Z-2.845 I0. J-0.597
Y14.297 Z-2.85 I0. J0.597
Y13.103 Z-2.855 I0. J-0.597
Y14.297 Z-2.859 I0. J0.597
Y13.103 Z-2.864 I0. J-0.597
Y14.297 Z-2.869 I0. J0.597
Y13.103 Z-2.874 I0. J-0.597
Y14.297 Z-2.878 I0. J0.597
Y13.103 Z-2.883 I0. J-0.597
Y14.297 Z-2.888 I0. J0.597
Y13.103 Z-2.893 I0. J-0.597
Y14.297 Z-2.898 I0. J0.597
Y13.103 Z-2.902 I0. J-0.597
Y14.297 Z-2.907 I0. J0.597
Y13.103 Z-2.912 I0. J-0.597
Y14.297 Z-2.917 I0. J0.597
Y13.103 Z-2.921 I0. J-0.597
Y14.297 Z-2.926 I0. J0.597
Y13.103 Z-2.931 I0. J-0.597
Y14.297 Z-2.936 I0. J0.597
Y13.103 Z-2.94 I0. J-0.597
Y14.297 Z-2.945 I0. J0.597
Y13.103 Z-2.95 I0. J-0.597
Y14.297 Z-2.955 I0. J0.597
Y13.103 Z-2.959 I0. J-0.597
Y14.297 Z-2.964 I0. J0.597
Y13.103 Z-2.969 I0. J-0.597
Y14.297 Z-2.974 I0. J0.597
Y13.103 Z-2.979 I0. J-0.597
Y14.297 Z-2.983 I0. J0.597
Y13.103 Z-2.988 I0. J-0.597
Y14.297 Z-2.993 I0. J0.597
Y13.103 Z-2.998 I0. J-0.597
Y14.297 Z-3.002 I0. J0.597
Y13.103 Z-3.007 I0. J-0.597
Y14.297 Z-3.012 I0. J0.597
Y13.103 Z-3.017 I0. J-0.597
Y14.297 Z-3.021 I0. J0.597
Y13.103 Z-3.026 I0. J-0.597
Y14.297 Z-3.031 I0. J0.597
Y13.103 Z-3.036 I0. J-0.597
Y14.297 Z-3.04 I0. J0.597
Y13.103 Z-3.045 I0. J-0.597
Y14.297 Z-3.05 I0. J0.597
Y13.103 Z-3.055 I0. J-0.597
Y14.297 Z-3.06 I0. J0.597
Y13.103 Z-3.064 I0. J-0.597
Y14.297 Z-3.069 I0. J0.597
Y13.103 Z-3.074 I0. J-0.597
Y14.297 Z-3.079 I0. J0.597
Y13.103 Z-3.083 I0. J-0.597
Y14.297 Z-3.088 I0. J0.597
Y13.103 Z-3.093 I0. J-0.597
Y14.297 Z-3.098 I0. J0.597
Y13.103 Z-3.102 I0. J-0.597
Y14.297 Z-3.107 I0. J0.597
Y13.103 Z-3.112 I0. J-0.597
Y14.297 Z-3.117 I0. J0.597
Y13.103 Z-3.121 I0. J-0.597
Y14.297 Z-3.126 I0. J0.597
Y13.103 Z-3.131 I0. J-0.597
Y14.297 Z-3.136 I0. J0.597
Y13.103 Z-3.141 I0. J-0.597
Y14.297 Z-3.145 I0. J0.597
Y13.103 Z-3.15 I0. J-0.597
Y14.297 Z-3.155 I0. J0.597
Y13.103 Z-3.16 I0. J-0.597
Y14.297 Z-3.164 I0. J0.597
Y13.103 Z-3.169 I0. J-0.597
Y14.297 Z-3.174 I0. J0.597
X39.493 Y14.149 Z-3.175 I0. J-0.597
X38.707 Y13.251 I-0.393 J-0.449
X39.493 Y14.149 I0.393 J0.449
X39.521 Y13.728 I-0.197 J-0.225
G1 X39.417 Y13.608
X39.37 Y13.555 Z-3.167
X39.326 Y13.505 Z-3.144
X39.286 Y13.46 Z-3.106
X39.253 Y13.422 Z-3.055
X39.228 Y13.393 Z-2.995
X39.213 Y13.376 Z-2.928
X39.207 Y13.37 Z-2.858
G0 Z5.
X13.402 Y13.522
Z2.
G1 Z0.317 F800.
Y13.53 Z0.247
Y13.554 Z0.18
Y13.591 Z0.12
Y13.642 Z0.069
Y13.702 Z0.031
Y13.769 Z0.008
Y13.84 Z0.
Y13.998
G2 X13.7 Y14.297 I0.298 J0.
Y13.103 Z-0.005 I0. J-0.597
Y14.297 Z-0.01 I0. J0.597
Y13.103 Z-0.014 I0. J-0.597
Y14.297 Z-0.019 I0. J0.597
Y13.103 Z-0.024 I0. J-0.597
Y14.297 Z-0.029 I0. J0.597
Y13.103 Z-0.033 I0. J-0.597
Y14.297 Z-0.038 I0. J0.597
Y13.103 Z-0.043 I0. J-0.597
Y14.297 Z-0.048 I0. J0.597
Y13.103 Z-0.052 I0. J-0.597
Y14.297 Z-0.057 I0. J0.597
Y13.103 Z-0.062 I0. J-0.597
Y14.297 Z-0.067 I0. J0.597
Y13.103 Z-0.071 I0. J-0.597
Y14.297 Z-0.076 I0. J0.597
Y13.103 Z-0.081 I0. J-0.597
Y14.297 Z-0.086 I0. J0.597
Y13.103 Z-0.091 I0. J-0.597
Y14.297 Z-0.095 I0. J0.597
Y13.103 Z-0.1 I0. J-0.597
Y14.297 Z-0.105 I0. J0.597
Y13.103 Z-0.11 I0. J-0.597
Y14.297 Z-0.114 I0. J0.597
Y13.103 Z-0.119 I0. J-0.597
Y14.297 Z-0.124 I0. J0.597
Y13.103 Z-0.129 I0. J-0.597
Y14.297 Z-0.133 I0. J0.597
Y13.103 Z-0.138 I0. J-0.597
Y14.297 Z-0.143 I0. J0.597
Y13.103 Z-0.148 I0. J-0.597
Y14.297 Z-0.153 I0. J0.597
Y13.103 Z-0.157 I0. J-0.597
Y14.297 Z-0.162 I0. J0.597
Y13.103 Z-0.167 I0. J-0.597
Y14.297 Z-0.172 I0. J0.597
Y13.103 Z-0.176 I0. J-0.597
Y14.297 Z-0.181 I0. J0.597
Y13.103 Z-0.186 I0. J-0.597
Y14.297 Z-0.191 I0. J0.597
Y13.103 Z-0.195 I0. J-0.597
Y14.297 Z-0.2 I0. J0.597
Y13.103 Z-0.205 I0. J-0.597
Y14.297 Z-0.21 I0. J0.597
Y13.103 Z-0.214 I0. J-0.597
Y14.297 Z-0.219 I0. J0.597
Y13.103 Z-0.224 I0. J-0.597
Y14.297 Z-0.229 I0. J0.597
Y13.103 Z-0.234 I0. J-0.597
Y14.297 Z-0.238 I0. J0.597
Y13.103 Z-0.243 I0. J-0.597
Y14.297 Z-0.248 I0. J0.597
Y13.103 Z-0.253 I0. J-0.597
Y14.297 Z-0.257 I0. J0.597
Y13.103 Z-0.262 I0. J-0.597
Y14.297 Z-0.267 I0. J0.597
Y13.103 Z-0.272 I0. J-0.597
Y14.297 Z-0.276 I0. J0.597
Y13.103 Z-0.281 I0. J-0.597
Y14.297 Z-0.286 I0. J0.597
Y13.103 Z-0.291 I0. J-0.597
Y14.297 Z-0.295 I0. J0.597
Y13.103 Z-0.3 I0. J-0.597
Y14.297 Z-0.305 I0. J0.597
Y13.103 Z-0.31 I0. J-0.597
Y14.297 Z-0.315 I0. J0.597
Y13.103 Z-0.319 I0. J-0.597
Y14.297 Z-0.324 I0. J0.597
Y13.103 Z-0.329 I0. J-0.597
Y14.297 Z-0.334 I0. J0.597
Y13.103 Z-0.338 I0. J-0.597
Y14.297 Z-0.343 I0. J0.597
Y13.103 Z-0.348 I0. J-0.597
Y14.297 Z-0.353 I0. J0.597
Y13.103 Z-0.357 I0. J-0.597
Y14.297 Z-0.362 I0. J0.597
Y13.103 Z-0.367 I0. J-0.597
Y14.297 Z-0.372 I0. J0.597
Y13.103 Z-0.376 I0. J-0.597
Y14.297 Z-0.381 I0. J0.597
Y13.103 Z-0.386 I0. J-0.597
Y14.297 Z-0.391 I0. J0.597
Y13.103 Z-0.396 I0. J-0.597
Y14.297 Z-0.4 I0. J0.597
Y13.103 Z-0.405 I0. J-0.597
Y14.297 Z-0.41 I0. J0.597
Y13.103 Z-0.415 I0. J-0.597
Y14.297 Z-0.419 I0. J0.597
Y13.103 Z-0.424 I0. J-0.597
Y14.297 Z-0.429 I0. J0.597
Y13.103 Z-0.434 I0. J-0.597
Y14.297 Z-0.438 I0. J0.597
Y13.103 Z-0.443 I0. J-0.597
Y14.297 Z-0.448 I0. J0.597
Y13.103 Z-0.453 I0. J-0.597
Y14.297 Z-0.458 I0. J0.597
Y13.103 Z-0.462 I0. J-0.597
Y14.297 Z-0.467 I0. J0.597
Y13.103 Z-0.472 I0. J-0.597
Y14.297 Z-0.477 I0. J0.597
Y13.103 Z-0.481 I0. J-0.597
Y14.297 Z-0.486 I0. J0.597
Y13.103 Z-0.491 I0. J-0.597
Y14.297 Z-0.496 I0. J0.597
Y13.103 Z-0.5 I0. J-0.597
Y14.297 Z-0.505 I0. J0.597
Y13.103 Z-0.51 I0. J-0.597
Y14.297 Z-0.515 I0. J0.597
Y13.103 Z-0.519 I0. J-0.597
Y14.297 Z-0.524 I0. J0.597
Y13.103 Z-0.529 I0. J-0.597
Y14.297 Z-0.534 I0. J0.597
Y13.103 Z-0.539 I0. J-0.597
Y14.297 Z-0.543 I0. J0.597
Y13.103 Z-0.548 I0. J-0.597
Y14.297 Z-0.553 I0. J0.597
Y13.103 Z-0.558 I0. J-0.597
Y14.297 Z-0.562 I0. J0.597
Y13.103 Z-0.567 I0. J-0.597
Y14.297 Z-0.572 I0. J0.597
Y13.103 Z-0.577 I0. J-0.597
Y14.297 Z-0.581 I0. J0.597
Y13.103 Z-0.586 I0. J-0.597
Y14.297 Z-0.591 I0. J0.597
Y13.103 Z-0.596 I0. J-0.597
Y14.297 Z-0.6 I0. J0.597
Y13.103 Z-0.605 I0. J-0.597
Y14.297 Z-0.61 I0. J0.597
Y13.103 Z-0.615 I0. J-0.597
Y14.297 Z-0.62 I0. J0.597
Y13.103 Z-0.624 I0. J-0.597
Y14.297 Z-0.629 I0. J0.597
Y13.103 Z-0.634 I0. J-0.597
Y14.297 Z-0.639 I0. J0.597
Y13.103 Z-0.643 I0. J-0.597
Y14.297 Z-0.648 I0. J0.597
Y13.103 Z-0.653 I0. J-0.597
Y14.297 Z-0.658 I0. J0.597
Y13.103 Z-0.662 I0. J-0.597
Y14.297 Z-0.667 I0. J0.597
Y13.103 Z-0.672 I0. J-0.597
Y14.297 Z-0.677 I0. J0.597
Y13.103 Z-0.681 I0. J-0.597
Y14.297 Z-0.686 I0. J0.597
Y13.103 Z-0.691 I0. J-0.597
Y14.297 Z-0.696 I0. J0.597
Y13.103 Z-0.701 I0. J-0.597
Y14.297 Z-0.705 I0. J0.597
Y13.103 Z-0.71 I0. J-0.597
Y14.297 Z-0.715 I0. J0.597
Y13.103 Z-0.72 I0. J-0.597
Y14.297 Z-0.724 I0. J0.597
Y13.103 Z-0.729 I0. J-0.597
Y14.297 Z-0.734 I0. J0.597
Y13.103 Z-0.739 I0. J-0.597
Y14.297 Z-0.743 I0. J0.597
Y13.103 Z-0.748 I0. J-0.597
Y14.297 Z-0.753 I0. J0.597
Y13.103 Z-0.758 I0. J-0.597
Y14.297 Z-0.763 I0. J0.597
Y13.103 Z-0.767 I0. J-0.597
Y14.297 Z-0.772 I0. J0.597
Y13.103 Z-0.777 I0. J-0.597
Y14.297 Z-0.782 I0. J0.597
Y13.103 Z-0.786 I0. J-0.597
Y14.297 Z-0.791 I0. J0.597
Y13.103 Z-0.796 I0. J-0.597
Y14.297 Z-0.801 I0. J0.597
Y13.103 Z-0.805 I0. J-0.597
Y14.297 Z-0.81 I0. J0.597
Y13.103 Z-0.815 I0. J-0.597
Y14.297 Z-0.82 I0. J0.597
Y13.103 Z-0.824 I0. J-0.597
Y14.297 Z-0.829 I0. J0.597
Y13.103 Z-0.834 I0. J-0.597
Y14.297 Z-0.839 I0. J0.597
Y13.103 Z-0.844 I0. J-0.597
Y14.297 Z-0.848 I0. J0.597
Y13.103 Z-0.853 I0. J-0.597
Y14.297 Z-0.858 I0. J0.597
Y13.103 Z-0.863 I0. J-0.597
Y14.297 Z-0.867 I0. J0.597
Y13.103 Z-0.872 I0. J-0.597
Y14.297 Z-0.877 I0. J0.597
Y13.103 Z-0.882 I0. J-0.597
Y14.297 Z-0.886 I0. J0.597
Y13.103 Z-0.891 I0. J-0.597
Y14.297 Z-0.896 I0. J0.597
Y13.103 Z-0.901 I0. J-0.597
Y14.297 Z-0.905 I0. J0.597
Y13.103 Z-0.91 I0. J-0.597
Y14.297 Z-0.915 I0. J0.597
Y13.103 Z-0.92 I0. J-0.597
Y14.297 Z-0.925 I0. J0.597
Y13.103 Z-0.929 I0. J-0.597
Y14.297 Z-0.934 I0. J0.597
Y13.103 Z-0.939 I0. J-0.597
Y14.297 Z-0.944 I0. J0.597
Y13.103 Z-0.948 I0. J-0.597
Y14.297 Z-0.953 I0. J0.597
Y13.103 Z-0.958 I0. J-0.597
Y14.297 Z-0.963 I0. J0.597
Y13.103 Z-0.967 I0. J-0.597
Y14.297 Z-0.972 I0. J0.597
Y13.103 Z-0.977 I0. J-0.597
Y14.297 Z-0.982 I0. J0.597
Y13.103 Z-0.986 I0. J-0.597
Y14.297 Z-0.991 I0. J0.597
Y13.103 Z-0.996 I0. J-0.597
Y14.297 Z-1.001 I0. J0.597
Y13.103 Z-1.006 I0. J-0.597
Y14.297 Z-1.01 I0. J0.597
Y13.103 Z-1.015 I0. J-0.597
Y14.297 Z-1.02 I0. J0.597
Y13.103 Z-1.025 I0. J-0.597
Y14.297 Z-1.029 I0. J0.597
Y13.103 Z-1.034 I0. J-0.597
Y14.297 Z-1.039 I0. J0.597
