(K-BRACKET)
(K-BRACKET 0.125 THICK)
(T1  D=3.175 CR=0. - ZMIN=0. - FLAT END MILL)
G90 G94 G91.1 G40 G49 G17
G21
G0 Z15

(2D CONTOUR1 3)
M5
T1 M6
S15000 M3
G54
G0 X157.457 Y32.007
G43 Z18.175 H1
Z10.525
G1 Z0.317 F600.
X157.449 Y32.006 Z0.247
X157.426 Y32.002 Z0.18
X157.389 Y31.995 Z0.12
X157.339 Y31.986 Z0.069
X157.28 Y31.975 Z0.031
X157.214 Y31.963 Z0.008
X157.145 Y31.95 Z0.
X156.833 Y31.892 F1500.
G3 X156.578 Y31.523 I0.057 J-0.312
G2 X155.262 Y27.293 I-4.684 J-0.862
G1 X141.792 Y13.823
G2 X135.056 I-3.368 J3.368
G1 X114.85 Y34.028
X112.605 Y36.273 Z3.175
X110.36 Y38.519
X108.115 Y40.764 Z0. F600.
X87.91 Y60.969 F1500.
G3 X81.174 I-3.368 J-3.368
G1 X60.969 Y40.763
X58.724 Y38.518 Z3.175
X56.479 Y36.273
X54.234 Y34.028 Z0. F600.
X34.028 Y13.823 F1500.
G2 X27.293 I-3.368 J3.368
G1 X13.823 Y27.293
G2 Y34.028 I3.368 J3.368
G1 X36.658 Y56.864
G3 X33.291 Y64.994 I-3.368 J3.368
G1 X24.217
G2 X19.455 Y69.757 I0. J4.762
G1 Y88.807
G2 X24.217 Y93.569 I4.762 J0.
G1 X49.617
X52.792 Z3.175
X55.967
X59.142 Z0. F600.
X109.942 F1500.
X113.118 Z3.175
X116.293
X119.467 Z0. F600.
X144.867 F1500.
G2 X149.63 Y88.807 I0. J-4.762
G1 Y66.581
G2 X148.042 Y64.994 I-1.587 J0.
G1 X135.793
G3 X132.426 Y56.864 I0. J-4.762
G1 X155.262 Y34.028
G2 X156.578 Y31.523 I-3.368 J-3.368
G3 X156.948 Y31.268 I0.312 J0.057
G1 X157.26 Y31.325
X157.329 Y31.338 Z0.008
X157.395 Y31.35 Z0.031
X157.454 Y31.361 Z0.069
X157.504 Y31.37 Z0.12
X157.541 Y31.377 Z0.18
X157.564 Y31.381 Z0.247
X157.572 Y31.383 Z0.317
G0 Z18.175

(BORE2 2)
G0 X30.407 Y30.438
Z18.175
Z14.7
G1 Z13.017 F600.
G18 G2 X30.724 Z12.7 I0.318 K0.
G1 X30.883
G17 G3 X31.105 Y30.661 I0. J0.222
X30.216 Z12.2 I-0.444 J0.
X31.105 Z11.7 I0.444 J0.
X30.216 Z11.2 I-0.445 J0.
X31.105 Z10.7 I0.445 J0.
X30.216 Z10.2 I-0.445 J0.
X31.105 Z9.7 I0.445 J0.
X30.216 Z9.2 I-0.445 J0.
X31.105 Z8.7 I0.445 J0.
X30.216 Z8.2 I-0.445 J0.
X31.105 Z7.7 I0.445 J0.
X30.216 Z7.2 I-0.445 J0.
X31.105 Z6.7 I0.445 J0.
X30.216 Z6.2 I-0.445 J0.
X31.105 Z5.7 I0.445 J0.
X30.216 Z5.2 I-0.445 J0.
X31.105 Z4.7 I0.445 J0.
X30.216 Z4.2 I-0.445 J0.
X31.105 Z3.7 I0.445 J0.
X30.216 Z3.2 I-0.445 J0.
X31.105 Z2.7 I0.445 J0.
X30.216 Z2.2 I-0.445 J0.
X31.105 Z1.7 I0.445 J0.
X30.216 Z1.2 I-0.445 J0.
X31.105 Z0.7 I0.445 J0.
X30.216 Z0.2 I-0.445 J0.
X30.523 Y30.238 Z0. I0.445 J0.
X30.798 Y31.083 I0.137 J0.423
X30.523 Y30.238 I-0.137 J-0.423
X30.803 Y30.38 I0.069 J0.211
G1 X30.852 Y30.531
X30.874 Y30.599 Z0.008
X30.895 Y30.662 Z0.031
X30.913 Y30.72 Z0.069
X30.929 Y30.768 Z0.12
X30.941 Y30.803 Z0.18
X30.948 Y30.826 Z0.247
X30.95 Y30.833 Z0.317
G0 Z14.7
X48.367 Y48.399
G1 Z13.017 F600.
G18 G2 X48.685 Z12.7 I0.318 K0.
G1 X48.843
G17 G3 X49.066 Y48.621 I0. J0.222
X48.177 Z12.2 I-0.444 J0.
X49.066 Z11.7 I0.444 J0.
X48.177 Z11.2 I-0.445 J0.
X49.066 Z10.7 I0.445 J0.
X48.177 Z10.2 I-0.445 J0.
X49.066 Z9.7 I0.445 J0.
X48.177 Z9.2 I-0.445 J0.
X49.066 Z8.7 I0.445 J0.
X48.177 Z8.2 I-0.445 J0.
X49.066 Z7.7 I0.445 J0.
X48.177 Z7.2 I-0.445 J0.
X49.066 Z6.7 I0.445 J0.
X48.177 Z6.2 I-0.445 J0.
X49.066 Z5.7 I0.445 J0.
X48.177 Z5.2 I-0.445 J0.
X49.066 Z4.7 I0.445 J0.
X48.177 Z4.2 I-0.445 J0.
X49.066 Z3.7 I0.445 J0.
X48.177 Z3.2 I-0.445 J0.
X49.066 Z2.7 I0.445 J0.
X48.177 Z2.2 I-0.445 J0.
X49.066 Z1.7 I0.445 J0.
X48.177 Z1.2 I-0.445 J0.
X49.066 Z0.7 I0.445 J0.
X48.177 Z0.2 I-0.445 J0.
X48.484 Y48.198 Z0. I0.445 J0.
X48.758 Y49.044 I0.137 J0.423
X48.484 Y48.198 I-0.137 J-0.423
X48.764 Y48.341 I0.069 J0.211
G1 X48.813 Y48.492
X48.835 Y48.559 Z0.008
X48.855 Y48.623 Z0.031
X48.874 Y48.68 Z0.069
X48.889 Y48.728 Z0.12
X48.901 Y48.764 Z0.18
X48.908 Y48.786 Z0.247
X48.911 Y48.794 Z0.317
G0 Z14.7
X58.888 Y79.059
G1 Z13.017 F600.
G18 G2 X59.206 Z12.7 I0.317 K0.
G1 X59.364
G17 G3 X59.587 Y79.282 I0. J0.222
X58.698 Z12.2 I-0.444 J0.
X59.587 Z11.7 I0.444 J0.
X58.698 Z11.2 I-0.444 J0.
X59.587 Z10.7 I0.444 J0.
X58.698 Z10.2 I-0.444 J0.
X59.587 Z9.7 I0.444 J0.
X58.698 Z9.2 I-0.444 J0.
X59.587 Z8.7 I0.444 J0.
X58.698 Z8.2 I-0.444 J0.
X59.587 Z7.7 I0.444 J0.
X58.698 Z7.2 I-0.444 J0.
X59.587 Z6.7 I0.444 J0.
X58.698 Z6.2 I-0.444 J0.
X59.587 Z5.7 I0.444 J0.
X58.698 Z5.2 I-0.444 J0.
X59.587 Z4.7 I0.444 J0.
X58.698 Z4.2 I-0.444 J0.
X59.587 Z3.7 I0.444 J0.
X58.698 Z3.2 I-0.444 J0.
X59.587 Z2.7 I0.444 J0.
X58.698 Z2.2 I-0.444 J0.
X59.587 Z1.7 I0.444 J0.
X58.698 Z1.2 I-0.444 J0.
X59.587 Z0.7 I0.444 J0.
X58.698 Z0.2 I-0.444 J0.
X59.005 Y78.859 Z0. I0.444 J0.
X59.279 Y79.704 I0.137 J0.423
X59.005 Y78.859 I-0.137 J-0.423
X59.285 Y79.001 I0.069 J0.211
G1 X59.334 Y79.152
X59.356 Y79.22 Z0.008
X59.376 Y79.283 Z0.031
X59.395 Y79.341 Z0.069
X59.411 Y79.389 Z0.12
X59.422 Y79.425 Z0.18
X59.429 Y79.447 Z0.247
X59.432 Y79.454 Z0.317
G0 Z14.7
X33.488 Y79.059
G1 Z13.017 F600.
G18 G2 X33.806 Z12.7 I0.318 K0.
G1 X33.964
G17 G3 X34.187 Y79.282 I0. J0.222
X33.298 Z12.2 I-0.444 J0.
X34.187 Z11.7 I0.444 J0.
X33.298 Z11.2 I-0.445 J0.
X34.187 Z10.7 I0.445 J0.
X33.298 Z10.2 I-0.445 J0.
X34.187 Z9.7 I0.445 J0.
X33.298 Z9.2 I-0.445 J0.
X34.187 Z8.7 I0.445 J0.
X33.298 Z8.2 I-0.445 J0.
X34.187 Z7.7 I0.445 J0.
X33.298 Z7.2 I-0.445 J0.
X34.187 Z6.7 I0.445 J0.
X33.298 Z6.2 I-0.445 J0.
X34.187 Z5.7 I0.445 J0.
X33.298 Z5.2 I-0.445 J0.
X34.187 Z4.7 I0.445 J0.
X33.298 Z4.2 I-0.445 J0.
X34.187 Z3.7 I0.445 J0.
X33.298 Z3.2 I-0.445 J0.
X34.187 Z2.7 I0.445 J0.
X33.298 Z2.2 I-0.445 J0.
X34.187 Z1.7 I0.445 J0.
X33.298 Z1.2 I-0.445 J0.
X34.187 Z0.7 I0.445 J0.
X33.298 Z0.2 I-0.445 J0.
X33.605 Y78.859 Z0. I0.445 J0.
X33.879 Y79.704 I0.137 J0.423
X33.605 Y78.859 I-0.137 J-0.423
X33.885 Y79.001 I0.069 J0.211
G1 X33.934 Y79.152
X33.956 Y79.22 Z0.008
X33.976 Y79.283 Z0.031
X33.995 Y79.341 Z0.069
X34.011 Y79.389 Z0.12
X34.022 Y79.425 Z0.18
X34.029 Y79.447 Z0.247
X34.032 Y79.454 Z0.317
G0 Z14.7
X135.088 Y79.059
G1 Z13.017 F600.
G18 G2 X135.406 Z12.7 I0.318 K0.
G1 X135.564
G17 G3 X135.787 Y79.282 I0. J0.222
X134.898 Z12.2 I-0.444 J0.
X135.787 Z11.7 I0.444 J0.
X134.898 Z11.2 I-0.444 J0.
X135.787 Z10.7 I0.444 J0.
X134.898 Z10.2 I-0.444 J0.
X135.787 Z9.7 I0.444 J0.
X134.898 Z9.2 I-0.444 J0.
X135.787 Z8.7 I0.444 J0.
X134.898 Z8.2 I-0.444 J0.
X135.787 Z7.7 I0.444 J0.
X134.898 Z7.2 I-0.444 J0.
X135.787 Z6.7 I0.444 J0.
X134.898 Z6.2 I-0.444 J0.
X135.787 Z5.7 I0.444 J0.
X134.898 Z5.2 I-0.444 J0.
X135.787 Z4.7 I0.444 J0.
X134.898 Z4.2 I-0.444 J0.
X135.787 Z3.7 I0.444 J0.
X134.898 Z3.2 I-0.444 J0.
X135.787 Z2.7 I0.444 J0.
X134.898 Z2.2 I-0.444 J0.
X135.787 Z1.7 I0.444 J0.
X134.898 Z1.2 I-0.444 J0.
X135.787 Z0.7 I0.444 J0.
X134.898 Z0.2 I-0.444 J0.
X135.205 Y78.859 Z0. I0.445 J0.
X135.479 Y79.704 I0.137 J0.423
X135.205 Y78.859 I-0.137 J-0.423
X135.485 Y79.001 I0.069 J0.211
G1 X135.534 Y79.152
X135.556 Y79.22 Z0.008
X135.576 Y79.283 Z0.031
X135.595 Y79.341 Z0.069
X135.611 Y79.389 Z0.12
X135.622 Y79.425 Z0.18
X135.629 Y79.447 Z0.247
X135.632 Y79.454 Z0.317
G0 Z14.7
X109.688 Y79.059
G1 Z13.017 F600.
G18 G2 X110.006 Z12.7 I0.317 K0.
G1 X110.164
G17 G3 X110.387 Y79.282 I0. J0.222
X109.498 Z12.2 I-0.445 J0.
X110.387 Z11.7 I0.445 J0.
X109.498 Z11.2 I-0.445 J0.
X110.387 Z10.7 I0.445 J0.
X109.498 Z10.2 I-0.445 J0.
X110.387 Z9.7 I0.445 J0.
X109.498 Z9.2 I-0.445 J0.
X110.387 Z8.7 I0.445 J0.
X109.498 Z8.2 I-0.445 J0.
X110.387 Z7.7 I0.445 J0.
X109.498 Z7.2 I-0.445 J0.
X110.387 Z6.7 I0.445 J0.
X109.498 Z6.2 I-0.445 J0.
X110.387 Z5.7 I0.445 J0.
X109.498 Z5.2 I-0.445 J0.
X110.387 Z4.7 I0.445 J0.
X109.498 Z4.2 I-0.445 J0.
X110.387 Z3.7 I0.445 J0.
X109.498 Z3.2 I-0.445 J0.
X110.387 Z2.7 I0.445 J0.
X109.498 Z2.2 I-0.445 J0.
X110.387 Z1.7 I0.445 J0.
X109.498 Z1.2 I-0.445 J0.
X110.387 Z0.7 I0.445 J0.
X109.498 Z0.2 I-0.445 J0.
X109.805 Y78.859 Z0. I0.445 J0.
X110.079 Y79.704 I0.137 J0.423
X109.805 Y78.859 I-0.137 J-0.423
X110.085 Y79.001 I0.069 J0.211
G1 X110.134 Y79.152
X110.156 Y79.22 Z0.008
X110.176 Y79.283 Z0.031
X110.195 Y79.341 Z0.069
X110.211 Y79.389 Z0.12
X110.222 Y79.425 Z0.18
X110.229 Y79.447 Z0.247
X110.232 Y79.454 Z0.317
G0 Z14.7
X120.209 Y48.399
G1 Z13.017 F600.
G18 G2 X120.527 Z12.7 I0.317 K0.
G1 X120.685
G17 G3 X120.908 Y48.621 I0. J0.222
X120.019 Z12.2 I-0.444 J0.
X120.908 Z11.7 I0.444 J0.
X120.019 Z11.2 I-0.444 J0.
X120.908 Z10.7 I0.444 J0.
X120.019 Z10.2 I-0.444 J0.
X120.908 Z9.7 I0.444 J0.
X120.019 Z9.2 I-0.444 J0.
X120.908 Z8.7 I0.444 J0.
X120.019 Z8.2 I-0.444 J0.
X120.908 Z7.7 I0.444 J0.
X120.019 Z7.2 I-0.444 J0.
X120.908 Z6.7 I0.444 J0.
X120.019 Z6.2 I-0.444 J0.
X120.908 Z5.7 I0.444 J0.
X120.019 Z5.2 I-0.444 J0.
X120.908 Z4.7 I0.444 J0.
X120.019 Z4.2 I-0.444 J0.
X120.908 Z3.7 I0.444 J0.
X120.019 Z3.2 I-0.444 J0.
X120.908 Z2.7 I0.444 J0.
X120.019 Z2.2 I-0.444 J0.
X120.908 Z1.7 I0.444 J0.
X120.019 Z1.2 I-0.445 J0.
X120.908 Z0.7 I0.445 J0.
X120.019 Z0.2 I-0.445 J0.
X120.326 Y48.198 Z0. I0.445 J0.
X120.6 Y49.044 I0.137 J0.423
X120.326 Y48.198 I-0.137 J-0.423
X120.606 Y48.341 I0.069 J0.211
G1 X120.655 Y48.492
X120.677 Y48.559 Z0.008
X120.697 Y48.623 Z0.031
X120.716 Y48.68 Z0.069
X120.732 Y48.728 Z0.12
X120.743 Y48.764 Z0.18
X120.75 Y48.786 Z0.247
X120.753 Y48.794 Z0.317
G0 Z14.7
X138.17 Y30.438
G1 Z13.017 F600.
G18 G2 X138.487 Z12.7 I0.318 K0.
G1 X138.646
G17 G3 X138.868 Y30.661 I0. J0.222
X137.979 Z12.2 I-0.445 J0.
X138.868 Z11.7 I0.445 J0.
X137.979 Z11.2 I-0.445 J0.
X138.868 Z10.7 I0.445 J0.
X137.979 Z10.2 I-0.445 J0.
X138.868 Z9.7 I0.445 J0.
X137.979 Z9.2 I-0.445 J0.
X138.868 Z8.7 I0.445 J0.
X137.979 Z8.2 I-0.445 J0.
X138.868 Z7.7 I0.445 J0.
X137.979 Z7.2 I-0.445 J0.
X138.868 Z6.7 I0.445 J0.
X137.979 Z6.2 I-0.445 J0.
X138.868 Z5.7 I0.445 J0.
X137.979 Z5.2 I-0.445 J0.
X138.868 Z4.7 I0.445 J0.
X137.979 Z4.2 I-0.445 J0.
X138.868 Z3.7 I0.445 J0.
X137.979 Z3.2 I-0.445 J0.
X138.868 Z2.7 I0.445 J0.
X137.979 Z2.2 I-0.445 J0.
X138.868 Z1.7 I0.445 J0.
X137.979 Z1.2 I-0.445 J0.
X138.868 Z0.7 I0.445 J0.
X137.979 Z0.2 I-0.445 J0.
X138.286 Y30.238 Z0. I0.445 J0.
X138.561 Y31.083 I0.137 J0.423
X138.286 Y30.238 I-0.137 J-0.423
X138.566 Y30.38 I0.069 J0.211
G1 X138.615 Y30.531
X138.637 Y30.599 Z0.008
X138.658 Y30.662 Z0.031
X138.677 Y30.72 Z0.069
X138.692 Y30.768 Z0.12
X138.704 Y30.803 Z0.18
X138.711 Y30.826 Z0.247
X138.713 Y30.833 Z0.317
G0 Z18.175
M5
G0 Z15
G0 X0 Y0

M30
