(TURRET CENTER STEP 1)
(T7  D=0.3937 CR=0. TAPER=118DEG - ZMIN=-0.0312 - CENTER DRILL)
G90 G94 G91.1 G40 G49 G17
G20

(DRILL1)
M5
T7 M6
S5000 M3
g4 p5
G54
M8
G0 X0.3356 Y5.375
G43 Z0.6 H7
Z0.2
G98 G81 X0.3356 Y5.375 Z-0.0312 R0.2 F5.
X0.7192 Y7.3035
X1.8116 Y8.9384
X3.4465 Y10.0308
X5.375 Y10.4144
X7.3035 Y10.0308
X8.9384 Y8.9384
X10.0308 Y7.3035
X10.4144 Y5.375
X10.0308 Y3.4465
X8.9384 Y1.8116
X7.3035 Y0.7192
X5.375 Y0.3356
X3.4465 Y0.7192
X1.8116 Y1.8116
X0.7192 Y3.4465
G80
Z0.6

M9
M30
