(TURRET CENTER STEP 4)
(T1  D=0.25 CR=0. - ZMIN=-0.22 - FLAT END MILL)
G90 G94 G91.1 G40 G49 G17
G20

(2D CONTOUR4)
M5
T1 M6
S15000 M3
g4 p5
G54
M8
G0 X0.8678 Y2.0938
G43 Z0.6 H1
Z0.2
G1 Z0.125 F13.3
X0.8681 Y2.0939 Z0.1211 F60.
X0.8688 Y2.0945 Z0.1173
X0.87 Y2.0953 Z0.1137
X0.8717 Y2.0965 Z0.1103
X0.8738 Y2.098 Z0.1073
X0.8762 Y2.0998 Z0.1048
X0.8789 Y2.1017 Z0.1027
X0.8818 Y2.1039 Z0.1012
X0.8849 Y2.1061 Z0.1003
X0.8881 Y2.1084 Z0.1
X0.9084 Y2.123
G3 X0.914 Y2.1579 I-0.0146 J0.0203
G2 X-0.125 Y5.375 Z-0.02 I4.461 J3.2171 F13.3
X10.875 I5.5 J0. F60.
X-0.125 I-5.5 J0.
X-0.0816 Y6.0643 Z-0.04 I5.5 J0. F13.3
X10.8316 Y4.6857 I5.4566 J-0.6893 F60.
X-0.0816 Y6.0643 I-5.4566 J0.6893
X0.0478 Y6.7428 Z-0.06 I5.4566 J-0.6893 F13.3
X10.7022 Y4.0072 I5.3272 J-1.3678 F60.
X0.0478 Y6.7428 I-5.3272 J1.3678
X0.2612 Y7.3997 Z-0.08 I5.3272 J-1.3678 F13.3
X10.4888 Y3.3503 I5.1138 J-2.0247 F60.
X0.2612 Y7.3997 I-5.1138 J2.0247
X0.5553 Y8.0246 Z-0.1 I5.1138 J-2.0247 F13.3
X10.1947 Y2.7254 I4.8197 J-2.6496 F60.
X0.5553 Y8.0246 I-4.8197 J2.6496
X0.9254 Y8.6078 Z-0.12 I4.8197 J-2.6496 F13.3
X9.8246 Y2.1422 I4.4496 J-3.2328 F60.
X0.9254 Y8.6078 I-4.4496 J3.2328
X1.3657 Y9.14 Z-0.14 I4.4496 J-3.2328 F13.3
X9.3843 Y1.61 I4.0093 J-3.765 F60.
X1.3657 Y9.14 I-4.0093 J3.765
X1.8692 Y9.6128 Z-0.16 I4.0093 J-3.765 F13.3
X8.8808 Y1.1372 I3.5058 J-4.2378 F60.
X1.8692 Y9.6128 I-3.5058 J4.2378
X2.428 Y10.0188 Z-0.18 I3.5058 J-4.2378 F13.3
X8.322 Y0.7312 I2.947 J-4.6438 F60.
X2.428 Y10.0188 I-2.947 J4.6438
X3.0332 Y10.3515 Z-0.2 I2.947 J-4.6438 F13.3
X7.7168 Y0.3985 I2.3418 J-4.9765 F60.
X3.0332 Y10.3515 I-2.3418 J4.9765
X3.6754 Y10.6058 Z-0.22 I2.3418 J-4.9765 F13.3
X7.0746 Y0.1442 I1.6996 J-5.2308 F60.
X3.6754 Y10.6058 I-1.6996 J5.2308
G3 X3.6915 Y10.6373 I-0.0077 J0.0238
G1 X3.6837 Y10.6611
X3.6825 Y10.6648 Z-0.2197
X3.6813 Y10.6684 Z-0.2188
X3.6802 Y10.6719 Z-0.2173
X3.6792 Y10.6751 Z-0.2152
X3.6783 Y10.6779 Z-0.2127
X3.6775 Y10.6803 Z-0.2097
X3.6768 Y10.6823 Z-0.2063
X3.6764 Y10.6837 Z-0.2027
X3.6761 Y10.6846 Z-0.1989
X3.676 Y10.6849 Z-0.195
G0 Z0.6

M9
M30
