(LEFT CLIMBER PLATE CHAMFER)
(T1  D=0.25 CR=0. - ZMIN=-0.0325 - FLAT END MILL)
G90 G94 G91.1 G40 G49 G17
G20

(2D CONTOUR2)
M5
T1 M6
S15000 M3
g4 p5
G54
M8
G0 X0.5747 Y0.525
G43 Z0.6 H1
Z0.2
G1 Z0.0394 F13.3
Z-0.0075
G18 G3 X0.5497 Z-0.0325 I-0.025 K0. F30.
G1 X0.5247
G17 G3 X0.4997 Y0.5 I0. J-0.025
G1 Y-7.123
G0 Z0.6
g0 y7

M9
M30
