(X8 LEFT CLIMBER PLATE COMPLETE)
(T1  D=0.25 CR=0. - ZMIN=-0.175 - FLAT END MILL)
(T3  D=0.118 CR=0. - ZMIN=-0.175 - FLAT END MILL)
G90 G94 G91.1 G40 G49 G17
G20

(2D POCKET1)
M5
T3 M6
S15000 M3
g4 p5
G54
M8
G0 X0.9355 Y6.1394
G43 Z0.6 H3
Z0.2
G1 Z0.1118 F40.
X0.9361 Y6.1397 Z0.1079 F20.
X0.9368 Y6.1403 Z0.1061
X0.9375 Y6.141 Z0.1044
X0.9381 Y6.1421 Z0.1033
X0.9385 Y6.1434 Z0.1023
Y6.1447 Z0.1012
X0.938 Y6.1462 Z0.1008
X0.937 Y6.1475 Z0.1004
X0.9357 Y6.1485 Z0.1
G3 X0.9313 Y6.1395 Z0.0995 I-0.0022 J-0.0045
X0.9357 Y6.1485 Z0.0989 I0.0022 J0.0045
X0.9313 Y6.1395 Z0.0984 I-0.0022 J-0.0045
X0.9357 Y6.1485 Z0.0978 I0.0022 J0.0045
X0.9313 Y6.1395 Z0.0973 I-0.0022 J-0.0045
X0.9357 Y6.1485 Z0.0967 I0.0022 J0.0045
X0.9313 Y6.1395 Z0.0962 I-0.0022 J-0.0045
X0.9357 Y6.1485 Z0.0956 I0.0022 J0.0045
X0.9313 Y6.1395 Z0.0951 I-0.0022 J-0.0045
X0.9357 Y6.1485 Z0.0945 I0.0022 J0.0045
X0.9313 Y6.1395 Z0.094 I-0.0022 J-0.0045
X0.9357 Y6.1485 Z0.0934 I0.0022 J0.0045
X0.9313 Y6.1395 Z0.0929 I-0.0022 J-0.0045
X0.9357 Y6.1485 Z0.0923 I0.0022 J0.0045
X0.9313 Y6.1395 Z0.0918 I-0.0022 J-0.0045
X0.9357 Y6.1485 Z0.0912 I0.0022 J0.0045
X0.9313 Y6.1395 Z0.0907 I-0.0022 J-0.0045
X0.9357 Y6.1485 Z0.0901 I0.0022 J0.0045
X0.9313 Y6.1395 Z0.0896 I-0.0022 J-0.0045
X0.9357 Y6.1485 Z0.089 I0.0022 J0.0045
X0.9313 Y6.1395 Z0.0885 I-0.0022 J-0.0045
X0.9357 Y6.1485 Z0.0879 I0.0022 J0.0045
X0.9313 Y6.1395 Z0.0874 I-0.0022 J-0.0045
X0.9357 Y6.1485 Z0.0868 I0.0022 J0.0045
X0.9313 Y6.1395 Z0.0863 I-0.0022 J-0.0045
X0.9357 Y6.1485 Z0.0857 I0.0022 J0.0045
X0.9313 Y6.1395 Z0.0852 I-0.0022 J-0.0045
X0.9357 Y6.1485 Z0.0846 I0.0022 J0.0045
X0.9313 Y6.1395 Z0.0841 I-0.0022 J-0.0045
X0.9357 Y6.1485 Z0.0835 I0.0022 J0.0045
X0.9313 Y6.1395 Z0.083 I-0.0022 J-0.0045
X0.9357 Y6.1485 Z0.0824 I0.0022 J0.0045
X0.9313 Y6.1395 Z0.0819 I-0.0022 J-0.0045
X0.9357 Y6.1485 Z0.0813 I0.0022 J0.0045
X0.9313 Y6.1395 Z0.0808 I-0.0022 J-0.0045
X0.9357 Y6.1485 Z0.0803 I0.0022 J0.0045
X0.9313 Y6.1395 Z0.0797 I-0.0022 J-0.0045
X0.9357 Y6.1485 Z0.0792 I0.0022 J0.0045
X0.9313 Y6.1395 Z0.0786 I-0.0022 J-0.0045
X0.9357 Y6.1485 Z0.0781 I0.0022 J0.0045
X0.9313 Y6.1395 Z0.0775 I-0.0022 J-0.0045
X0.9357 Y6.1485 Z0.077 I0.0022 J0.0045
X0.9313 Y6.1395 Z0.0764 I-0.0022 J-0.0045
X0.9357 Y6.1485 Z0.0759 I0.0022 J0.0045
X0.9313 Y6.1395 Z0.0753 I-0.0022 J-0.0045
X0.9357 Y6.1485 Z0.0748 I0.0022 J0.0045
X0.9313 Y6.1395 Z0.0742 I-0.0022 J-0.0045
X0.9357 Y6.1485 Z0.0737 I0.0022 J0.0045
X0.9313 Y6.1395 Z0.0731 I-0.0022 J-0.0045
X0.9357 Y6.1485 Z0.0726 I0.0022 J0.0045
X0.9313 Y6.1395 Z0.072 I-0.0022 J-0.0045
X0.9357 Y6.1485 Z0.0715 I0.0022 J0.0045
X0.9313 Y6.1395 Z0.0709 I-0.0022 J-0.0045
X0.9357 Y6.1485 Z0.0704 I0.0022 J0.0045
X0.9313 Y6.1395 Z0.0698 I-0.0022 J-0.0045
X0.9357 Y6.1485 Z0.0693 I0.0022 J0.0045
X0.9313 Y6.1395 Z0.0687 I-0.0022 J-0.0045
X0.9357 Y6.1485 Z0.0682 I0.0022 J0.0045
X0.9313 Y6.1395 Z0.0676 I-0.0022 J-0.0045
X0.9357 Y6.1485 Z0.0671 I0.0022 J0.0045
X0.9313 Y6.1395 Z0.0665 I-0.0022 J-0.0045
X0.9357 Y6.1485 Z0.066 I0.0022 J0.0045
X0.9313 Y6.1395 Z0.0654 I-0.0022 J-0.0045
X0.9357 Y6.1485 Z0.0649 I0.0022 J0.0045
X0.9313 Y6.1395 Z0.0643 I-0.0022 J-0.0045
X0.9357 Y6.1485 Z0.0638 I0.0022 J0.0045
X0.9313 Y6.1395 Z0.0632 I-0.0022 J-0.0045
X0.9357 Y6.1485 Z0.0627 I0.0022 J0.0045
X0.9313 Y6.1395 Z0.0622 I-0.0022 J-0.0045
X0.9357 Y6.1485 Z0.0616 I0.0022 J0.0045
X0.9313 Y6.1395 Z0.0611 I-0.0022 J-0.0045
X0.9357 Y6.1485 Z0.0605 I0.0022 J0.0045
X0.9313 Y6.1395 Z0.06 I-0.0022 J-0.0045
X0.9357 Y6.1485 Z0.0594 I0.0022 J0.0045
X0.9313 Y6.1395 Z0.0589 I-0.0022 J-0.0045
X0.9357 Y6.1485 Z0.0583 I0.0022 J0.0045
X0.9313 Y6.1395 Z0.0578 I-0.0022 J-0.0045
X0.9357 Y6.1485 Z0.0572 I0.0022 J0.0045
X0.9313 Y6.1395 Z0.0567 I-0.0022 J-0.0045
X0.9357 Y6.1485 Z0.0561 I0.0022 J0.0045
X0.9313 Y6.1395 Z0.0556 I-0.0022 J-0.0045
X0.9357 Y6.1485 Z0.055 I0.0022 J0.0045
X0.9313 Y6.1395 Z0.0545 I-0.0022 J-0.0045
X0.9357 Y6.1485 Z0.0539 I0.0022 J0.0045
X0.9313 Y6.1395 Z0.0534 I-0.0022 J-0.0045
X0.9357 Y6.1485 Z0.0528 I0.0022 J0.0045
X0.9313 Y6.1395 Z0.0523 I-0.0022 J-0.0045
X0.9357 Y6.1485 Z0.0517 I0.0022 J0.0045
X0.9313 Y6.1395 Z0.0512 I-0.0022 J-0.0045
X0.9357 Y6.1485 Z0.0506 I0.0022 J0.0045
X0.9313 Y6.1395 Z0.0501 I-0.0022 J-0.0045
X0.9357 Y6.1485 Z0.0495 I0.0022 J0.0045
X0.9313 Y6.1395 Z0.049 I-0.0022 J-0.0045
X0.9357 Y6.1485 Z0.0484 I0.0022 J0.0045
X0.9313 Y6.1395 Z0.0479 I-0.0022 J-0.0045
X0.9357 Y6.1485 Z0.0473 I0.0022 J0.0045
X0.9313 Y6.1395 Z0.0468 I-0.0022 J-0.0045
X0.9357 Y6.1485 Z0.0462 I0.0022 J0.0045
X0.9313 Y6.1395 Z0.0457 I-0.0022 J-0.0045
X0.9357 Y6.1485 Z0.0451 I0.0022 J0.0045
X0.9313 Y6.1395 Z0.0446 I-0.0022 J-0.0045
X0.9357 Y6.1485 Z0.044 I0.0022 J0.0045
X0.9313 Y6.1395 Z0.0435 I-0.0022 J-0.0045
X0.9357 Y6.1485 Z0.043 I0.0022 J0.0045
X0.9313 Y6.1395 Z0.0424 I-0.0022 J-0.0045
X0.9357 Y6.1485 Z0.0419 I0.0022 J0.0045
X0.9313 Y6.1395 Z0.0413 I-0.0022 J-0.0045
X0.9357 Y6.1485 Z0.0408 I0.0022 J0.0045
X0.9313 Y6.1395 Z0.0402 I-0.0022 J-0.0045
X0.9357 Y6.1485 Z0.0397 I0.0022 J0.0045
X0.9313 Y6.1395 Z0.0391 I-0.0022 J-0.0045
X0.9357 Y6.1485 Z0.0386 I0.0022 J0.0045
X0.9313 Y6.1395 Z0.038 I-0.0022 J-0.0045
X0.9357 Y6.1485 Z0.0375 I0.0022 J0.0045
X0.9313 Y6.1395 Z0.0369 I-0.0022 J-0.0045
X0.9357 Y6.1485 Z0.0364 I0.0022 J0.0045
X0.9313 Y6.1395 Z0.0358 I-0.0022 J-0.0045
X0.9357 Y6.1485 Z0.0353 I0.0022 J0.0045
X0.9313 Y6.1395 Z0.0347 I-0.0022 J-0.0045
X0.9357 Y6.1485 Z0.0342 I0.0022 J0.0045
X0.9313 Y6.1395 Z0.0336 I-0.0022 J-0.0045
X0.9357 Y6.1485 Z0.0331 I0.0022 J0.0045
X0.9313 Y6.1395 Z0.0325 I-0.0022 J-0.0045
X0.9357 Y6.1485 Z0.032 I0.0022 J0.0045
X0.9313 Y6.1395 Z0.0314 I-0.0022 J-0.0045
X0.9357 Y6.1485 Z0.0309 I0.0022 J0.0045
X0.9313 Y6.1395 Z0.0303 I-0.0022 J-0.0045
X0.9357 Y6.1485 Z0.0298 I0.0022 J0.0045
X0.9313 Y6.1395 Z0.0292 I-0.0022 J-0.0045
X0.9357 Y6.1485 Z0.0287 I0.0022 J0.0045
X0.9313 Y6.1395 Z0.0281 I-0.0022 J-0.0045
X0.9357 Y6.1485 Z0.0276 I0.0022 J0.0045
X0.9313 Y6.1395 Z0.027 I-0.0022 J-0.0045
X0.9357 Y6.1485 Z0.0265 I0.0022 J0.0045
X0.9313 Y6.1395 Z0.0259 I-0.0022 J-0.0045
X0.9357 Y6.1485 Z0.0254 I0.0022 J0.0045
X0.9313 Y6.1395 Z0.0249 I-0.0022 J-0.0045
X0.9357 Y6.1485 Z0.0243 I0.0022 J0.0045
X0.9313 Y6.1395 Z0.0238 I-0.0022 J-0.0045
X0.9357 Y6.1485 Z0.0232 I0.0022 J0.0045
X0.9313 Y6.1395 Z0.0227 I-0.0022 J-0.0045
X0.9357 Y6.1485 Z0.0221 I0.0022 J0.0045
X0.9313 Y6.1395 Z0.0216 I-0.0022 J-0.0045
X0.9357 Y6.1485 Z0.021 I0.0022 J0.0045
X0.9313 Y6.1395 Z0.0205 I-0.0022 J-0.0045
X0.9357 Y6.1485 Z0.0199 I0.0022 J0.0045
X0.9313 Y6.1395 Z0.0194 I-0.0022 J-0.0045
X0.9357 Y6.1485 Z0.0188 I0.0022 J0.0045
X0.9313 Y6.1395 Z0.0183 I-0.0022 J-0.0045
X0.9357 Y6.1485 Z0.0177 I0.0022 J0.0045
X0.9313 Y6.1395 Z0.0172 I-0.0022 J-0.0045
X0.9357 Y6.1485 Z0.0166 I0.0022 J0.0045
X0.9313 Y6.1395 Z0.0161 I-0.0022 J-0.0045
X0.9357 Y6.1485 Z0.0155 I0.0022 J0.0045
X0.9313 Y6.1395 Z0.015 I-0.0022 J-0.0045
X0.9357 Y6.1485 Z0.0144 I0.0022 J0.0045
X0.9313 Y6.1395 Z0.0139 I-0.0022 J-0.0045
X0.9357 Y6.1485 Z0.0133 I0.0022 J0.0045
X0.9313 Y6.1395 Z0.0128 I-0.0022 J-0.0045
X0.9357 Y6.1485 Z0.0122 I0.0022 J0.0045
X0.9313 Y6.1395 Z0.0117 I-0.0022 J-0.0045
X0.9357 Y6.1485 Z0.0111 I0.0022 J0.0045
X0.9313 Y6.1395 Z0.0106 I-0.0022 J-0.0045
X0.9357 Y6.1485 Z0.01 I0.0022 J0.0045
X0.9313 Y6.1395 Z0.0095 I-0.0022 J-0.0045
X0.9357 Y6.1485 Z0.0089 I0.0022 J0.0045
X0.9313 Y6.1395 Z0.0084 I-0.0022 J-0.0045
X0.9357 Y6.1485 Z0.0078 I0.0022 J0.0045
X0.9313 Y6.1395 Z0.0073 I-0.0022 J-0.0045
X0.9357 Y6.1485 Z0.0067 I0.0022 J0.0045
X0.9313 Y6.1395 Z0.0062 I-0.0022 J-0.0045
X0.9357 Y6.1485 Z0.0057 I0.0022 J0.0045
X0.9313 Y6.1395 Z0.0051 I-0.0022 J-0.0045
X0.9357 Y6.1485 Z0.0046 I0.0022 J0.0045
X0.9313 Y6.1395 Z0.004 I-0.0022 J-0.0045
X0.9357 Y6.1485 Z0.0035 I0.0022 J0.0045
X0.9313 Y6.1395 Z0.0029 I-0.0022 J-0.0045
X0.9357 Y6.1485 Z0.0024 I0.0022 J0.0045
X0.9313 Y6.1395 Z0.0018 I-0.0022 J-0.0045
X0.9357 Y6.1485 Z0.0013 I0.0022 J0.0045
X0.9313 Y6.1395 Z0.0007 I-0.0022 J-0.0045
X0.9357 Y6.1485 Z0.0002 I0.0022 J0.0045
X0.9313 Y6.1395 Z-0.0004 I-0.0022 J-0.0045
X0.9357 Y6.1485 Z-0.0009 I0.0022 J0.0045
X0.9313 Y6.1395 Z-0.0015 I-0.0022 J-0.0045
X0.9357 Y6.1485 Z-0.002 I0.0022 J0.0045
X0.9313 Y6.1395 Z-0.0026 I-0.0022 J-0.0045
X0.9357 Y6.1485 Z-0.0031 I0.0022 J0.0045
X0.9313 Y6.1395 Z-0.0037 I-0.0022 J-0.0045
X0.9357 Y6.1485 Z-0.0042 I0.0022 J0.0045
X0.9313 Y6.1395 Z-0.0048 I-0.0022 J-0.0045
X0.9357 Y6.1485 Z-0.0053 I0.0022 J0.0045
X0.9313 Y6.1395 Z-0.0059 I-0.0022 J-0.0045
X0.9357 Y6.1485 Z-0.0064 I0.0022 J0.0045
X0.9313 Y6.1395 Z-0.007 I-0.0022 J-0.0045
X0.9357 Y6.1485 Z-0.0075 I0.0022 J0.0045
X0.9313 Y6.1395 Z-0.0081 I-0.0022 J-0.0045
X0.9357 Y6.1485 Z-0.0086 I0.0022 J0.0045
X0.9313 Y6.1395 Z-0.0092 I-0.0022 J-0.0045
X0.9357 Y6.1485 Z-0.0097 I0.0022 J0.0045
X0.9313 Y6.1395 Z-0.0103 I-0.0022 J-0.0045
X0.9357 Y6.1485 Z-0.0108 I0.0022 J0.0045
X0.9313 Y6.1395 Z-0.0114 I-0.0022 J-0.0045
X0.9357 Y6.1485 Z-0.0119 I0.0022 J0.0045
X0.9313 Y6.1395 Z-0.0124 I-0.0022 J-0.0045
X0.9357 Y6.1485 Z-0.013 I0.0022 J0.0045
X0.9313 Y6.1395 Z-0.0135 I-0.0022 J-0.0045
X0.9357 Y6.1485 Z-0.0141 I0.0022 J0.0045
X0.9313 Y6.1395 Z-0.0146 I-0.0022 J-0.0045
X0.9357 Y6.1485 Z-0.0152 I0.0022 J0.0045
X0.9313 Y6.1395 Z-0.0157 I-0.0022 J-0.0045
X0.9357 Y6.1485 Z-0.0163 I0.0022 J0.0045
X0.9313 Y6.1395 Z-0.0168 I-0.0022 J-0.0045
X0.9357 Y6.1485 Z-0.0174 I0.0022 J0.0045
X0.9313 Y6.1395 Z-0.0179 I-0.0022 J-0.0045
X0.9357 Y6.1485 Z-0.0185 I0.0022 J0.0045
X0.9313 Y6.1395 Z-0.019 I-0.0022 J-0.0045
X0.9357 Y6.1485 Z-0.0196 I0.0022 J0.0045
X0.9313 Y6.1395 Z-0.0201 I-0.0022 J-0.0045
X0.9357 Y6.1485 Z-0.0207 I0.0022 J0.0045
X0.9313 Y6.1395 Z-0.0212 I-0.0022 J-0.0045
X0.9357 Y6.1485 Z-0.0218 I0.0022 J0.0045
X0.9313 Y6.1395 Z-0.0223 I-0.0022 J-0.0045
X0.9357 Y6.1485 Z-0.0229 I0.0022 J0.0045
X0.9313 Y6.1395 Z-0.0234 I-0.0022 J-0.0045
X0.9357 Y6.1485 Z-0.024 I0.0022 J0.0045
X0.9313 Y6.1395 Z-0.0245 I-0.0022 J-0.0045
X0.9357 Y6.1485 Z-0.0251 I0.0022 J0.0045
X0.9313 Y6.1395 Z-0.0256 I-0.0022 J-0.0045
X0.9357 Y6.1485 Z-0.0262 I0.0022 J0.0045
X0.9313 Y6.1395 Z-0.0267 I-0.0022 J-0.0045
X0.9357 Y6.1485 Z-0.0273 I0.0022 J0.0045
X0.9313 Y6.1395 Z-0.0278 I-0.0022 J-0.0045
X0.9357 Y6.1485 Z-0.0284 I0.0022 J0.0045
X0.9313 Y6.1395 Z-0.0289 I-0.0022 J-0.0045
X0.9357 Y6.1485 Z-0.0295 I0.0022 J0.0045
X0.9313 Y6.1395 Z-0.03 I-0.0022 J-0.0045
X0.9357 Y6.1485 Z-0.0306 I0.0022 J0.0045
X0.9313 Y6.1395 Z-0.0311 I-0.0022 J-0.0045
X0.9357 Y6.1485 Z-0.0316 I0.0022 J0.0045
X0.9313 Y6.1395 Z-0.0322 I-0.0022 J-0.0045
X0.9357 Y6.1485 Z-0.0327 I0.0022 J0.0045
X0.9313 Y6.1395 Z-0.0333 I-0.0022 J-0.0045
X0.9357 Y6.1485 Z-0.0338 I0.0022 J0.0045
X0.9313 Y6.1395 Z-0.0344 I-0.0022 J-0.0045
X0.9357 Y6.1485 Z-0.0349 I0.0022 J0.0045
X0.9313 Y6.1395 Z-0.0355 I-0.0022 J-0.0045
X0.9357 Y6.1485 Z-0.036 I0.0022 J0.0045
X0.9313 Y6.1395 Z-0.0366 I-0.0022 J-0.0045
X0.9357 Y6.1485 Z-0.0371 I0.0022 J0.0045
X0.9313 Y6.1395 Z-0.0377 I-0.0022 J-0.0045
X0.9357 Y6.1485 Z-0.0382 I0.0022 J0.0045
X0.9313 Y6.1395 Z-0.0388 I-0.0022 J-0.0045
X0.9357 Y6.1485 Z-0.0393 I0.0022 J0.0045
X0.9313 Y6.1395 Z-0.0399 I-0.0022 J-0.0045
X0.9357 Y6.1485 Z-0.0404 I0.0022 J0.0045
X0.9313 Y6.1395 Z-0.041 I-0.0022 J-0.0045
X0.9357 Y6.1485 Z-0.0415 I0.0022 J0.0045
X0.9313 Y6.1395 Z-0.0421 I-0.0022 J-0.0045
X0.9357 Y6.1485 Z-0.0426 I0.0022 J0.0045
X0.9313 Y6.1395 Z-0.0432 I-0.0022 J-0.0045
X0.9357 Y6.1485 Z-0.0437 I0.0022 J0.0045
X0.9313 Y6.1395 Z-0.0443 I-0.0022 J-0.0045
X0.9357 Y6.1485 Z-0.0448 I0.0022 J0.0045
X0.9313 Y6.1395 Z-0.0454 I-0.0022 J-0.0045
X0.9357 Y6.1485 Z-0.0459 I0.0022 J0.0045
X0.9313 Y6.1395 Z-0.0465 I-0.0022 J-0.0045
X0.9357 Y6.1485 Z-0.047 I0.0022 J0.0045
X0.9313 Y6.1395 Z-0.0476 I-0.0022 J-0.0045
X0.9357 Y6.1485 Z-0.0481 I0.0022 J0.0045
X0.9313 Y6.1395 Z-0.0487 I-0.0022 J-0.0045
X0.9357 Y6.1485 Z-0.0492 I0.0022 J0.0045
X0.9313 Y6.1395 Z-0.0497 I-0.0022 J-0.0045
X0.9357 Y6.1485 Z-0.0503 I0.0022 J0.0045
X0.9313 Y6.1395 Z-0.0508 I-0.0022 J-0.0045
X0.9357 Y6.1485 Z-0.0514 I0.0022 J0.0045
X0.9313 Y6.1395 Z-0.0519 I-0.0022 J-0.0045
X0.9357 Y6.1485 Z-0.0525 I0.0022 J0.0045
X0.9313 Y6.1395 Z-0.053 I-0.0022 J-0.0045
X0.9357 Y6.1485 Z-0.0536 I0.0022 J0.0045
X0.9313 Y6.1395 Z-0.0541 I-0.0022 J-0.0045
X0.9357 Y6.1485 Z-0.0547 I0.0022 J0.0045
X0.9313 Y6.1395 Z-0.0552 I-0.0022 J-0.0045
X0.9357 Y6.1485 Z-0.0558 I0.0022 J0.0045
X0.9313 Y6.1395 Z-0.0563 I-0.0022 J-0.0045
X0.9357 Y6.1485 Z-0.0569 I0.0022 J0.0045
X0.9313 Y6.1395 Z-0.0574 I-0.0022 J-0.0045
X0.9357 Y6.1485 Z-0.058 I0.0022 J0.0045
X0.9313 Y6.1395 Z-0.0585 I-0.0022 J-0.0045
X0.9357 Y6.1485 Z-0.0591 I0.0022 J0.0045
X0.9313 Y6.1395 Z-0.0596 I-0.0022 J-0.0045
X0.9357 Y6.1485 Z-0.0602 I0.0022 J0.0045
X0.9313 Y6.1395 Z-0.0607 I-0.0022 J-0.0045
X0.9357 Y6.1485 Z-0.0613 I0.0022 J0.0045
X0.9313 Y6.1395 Z-0.0618 I-0.0022 J-0.0045
X0.9357 Y6.1485 Z-0.0624 I0.0022 J0.0045
X0.9313 Y6.1395 Z-0.0629 I-0.0022 J-0.0045
X0.9357 Y6.1485 Z-0.0635 I0.0022 J0.0045
X0.9313 Y6.1395 Z-0.064 I-0.0022 J-0.0045
X0.9357 Y6.1485 Z-0.0646 I0.0022 J0.0045
X0.9313 Y6.1395 Z-0.0651 I-0.0022 J-0.0045
X0.9357 Y6.1485 Z-0.0657 I0.0022 J0.0045
X0.9313 Y6.1395 Z-0.0662 I-0.0022 J-0.0045
X0.9357 Y6.1485 Z-0.0668 I0.0022 J0.0045
X0.9313 Y6.1395 Z-0.0673 I-0.0022 J-0.0045
X0.9357 Y6.1485 Z-0.0679 I0.0022 J0.0045
X0.9313 Y6.1395 Z-0.0684 I-0.0022 J-0.0045
X0.9357 Y6.1485 Z-0.0689 I0.0022 J0.0045
X0.9313 Y6.1395 Z-0.0695 I-0.0022 J-0.0045
X0.9357 Y6.1485 Z-0.07 I0.0022 J0.0045
X0.9313 Y6.1395 Z-0.0706 I-0.0022 J-0.0045
X0.9357 Y6.1485 Z-0.0711 I0.0022 J0.0045
X0.9313 Y6.1395 Z-0.0717 I-0.0022 J-0.0045
X0.9357 Y6.1485 Z-0.0722 I0.0022 J0.0045
X0.9313 Y6.1395 Z-0.0728 I-0.0022 J-0.0045
X0.9357 Y6.1485 Z-0.0733 I0.0022 J0.0045
X0.9313 Y6.1395 Z-0.0739 I-0.0022 J-0.0045
X0.9357 Y6.1485 Z-0.0744 I0.0022 J0.0045
X0.9313 Y6.1395 Z-0.075 I-0.0022 J-0.0045
X0.9357 Y6.1485 Z-0.0755 I0.0022 J0.0045
X0.9313 Y6.1395 Z-0.0761 I-0.0022 J-0.0045
X0.9357 Y6.1485 Z-0.0766 I0.0022 J0.0045
X0.9313 Y6.1395 Z-0.0772 I-0.0022 J-0.0045
X0.9357 Y6.1485 Z-0.0777 I0.0022 J0.0045
X0.9313 Y6.1395 Z-0.0783 I-0.0022 J-0.0045
X0.9357 Y6.1485 Z-0.0788 I0.0022 J0.0045
X0.9313 Y6.1395 Z-0.0794 I-0.0022 J-0.0045
X0.9357 Y6.1485 Z-0.0799 I0.0022 J0.0045
X0.9335 Y6.149 Z-0.08 I-0.0022 J-0.0045
Y6.097 I0. J-0.026 F40.
Y6.149 I0. J0.026
Y6.097 Z-0.0829 I0. J-0.026 F20.
Y6.149 Z-0.0857 I0. J0.026
Y6.097 Z-0.0886 I0. J-0.026
Y6.149 Z-0.0914 I0. J0.026
Y6.097 Z-0.0943 I0. J-0.026
Y6.149 Z-0.0971 I0. J0.026
Y6.097 Z-0.1 I0. J-0.026
Y6.149 Z-0.1028 I0. J0.026
Y6.097 Z-0.1057 I0. J-0.026
Y6.149 Z-0.1085 I0. J0.026
Y6.097 Z-0.1114 I0. J-0.026
Y6.149 Z-0.1142 I0. J0.026
Y6.097 Z-0.1171 I0. J-0.026
Y6.149 Z-0.1199 I0. J0.026
Y6.097 Z-0.1228 I0. J-0.026
Y6.149 Z-0.1256 I0. J0.026
X0.9104 Y6.111 Z-0.1275 I0. J-0.026
X0.9566 Y6.135 I0.0231 J0.012 F40.
X0.9104 Y6.111 I-0.0231 J-0.012
X0.9566 Y6.135 Z-0.1304 I0.0231 J0.012 F20.
X0.9104 Y6.111 Z-0.1332 I-0.0231 J-0.012
X0.9566 Y6.135 Z-0.1361 I0.0231 J0.012
X0.9104 Y6.111 Z-0.1389 I-0.0231 J-0.012
X0.9566 Y6.135 Z-0.1418 I0.0231 J0.012
X0.9104 Y6.111 Z-0.1446 I-0.0231 J-0.012
X0.9566 Y6.135 Z-0.1475 I0.0231 J0.012
X0.9104 Y6.111 Z-0.1503 I-0.0231 J-0.012
X0.9566 Y6.135 Z-0.1532 I0.0231 J0.012
X0.9104 Y6.111 Z-0.156 I-0.0231 J-0.012
X0.9566 Y6.135 Z-0.1589 I0.0231 J0.012
X0.9104 Y6.111 Z-0.1617 I-0.0231 J-0.012
X0.9566 Y6.135 Z-0.1646 I0.0231 J0.012
X0.9104 Y6.111 Z-0.1674 I-0.0231 J-0.012
X0.9566 Y6.135 Z-0.1703 I0.0231 J0.012
X0.9104 Y6.111 Z-0.1731 I-0.0231 J-0.012
X0.9548 Y6.1081 Z-0.175 I0.0231 J0.012
X0.9122 Y6.1379 I-0.0213 J0.0149 F40.
X0.9548 Y6.1081 I0.0213 J-0.0149
G1 X0.9559 Y6.11 Z-0.1746
X0.9566 Y6.1122 Z-0.1741
X0.9569 Y6.1141 Z-0.1728
Y6.116 Z-0.1715
X0.9564 Y6.1185 Z-0.1677
X0.956 Y6.1193 Z-0.1632
G0 Z0.2
X1.998 Y6.1066
G1 Z0.1118 F40.
X1.9974 Y6.1063 Z0.1079 F20.
X1.9967 Y6.1057 Z0.1061
X1.996 Y6.105 Z0.1044
X1.9954 Y6.1039 Z0.1033
X1.995 Y6.1026 Z0.1023
Y6.1013 Z0.1012
X1.9955 Y6.0998 Z0.1008
X1.9965 Y6.0985 Z0.1004
X1.9978 Y6.0975 Z0.1
G3 X2.0022 Y6.1065 Z0.0995 I0.0022 J0.0045
X1.9978 Y6.0975 Z0.0989 I-0.0022 J-0.0045
X2.0022 Y6.1065 Z0.0984 I0.0022 J0.0045
X1.9978 Y6.0975 Z0.0978 I-0.0022 J-0.0045
X2.0022 Y6.1065 Z0.0973 I0.0022 J0.0045
X1.9978 Y6.0975 Z0.0967 I-0.0022 J-0.0045
X2.0022 Y6.1065 Z0.0962 I0.0022 J0.0045
X1.9978 Y6.0975 Z0.0956 I-0.0022 J-0.0045
X2.0022 Y6.1065 Z0.0951 I0.0022 J0.0045
X1.9978 Y6.0975 Z0.0945 I-0.0022 J-0.0045
X2.0022 Y6.1065 Z0.094 I0.0022 J0.0045
X1.9978 Y6.0975 Z0.0934 I-0.0022 J-0.0045
X2.0022 Y6.1065 Z0.0929 I0.0022 J0.0045
X1.9978 Y6.0975 Z0.0923 I-0.0022 J-0.0045
X2.0022 Y6.1065 Z0.0918 I0.0022 J0.0045
X1.9978 Y6.0975 Z0.0912 I-0.0022 J-0.0045
X2.0022 Y6.1065 Z0.0907 I0.0022 J0.0045
X1.9978 Y6.0975 Z0.0901 I-0.0022 J-0.0045
X2.0022 Y6.1065 Z0.0896 I0.0022 J0.0045
X1.9978 Y6.0975 Z0.089 I-0.0022 J-0.0045
X2.0022 Y6.1065 Z0.0885 I0.0022 J0.0045
X1.9978 Y6.0975 Z0.0879 I-0.0022 J-0.0045
X2.0022 Y6.1065 Z0.0874 I0.0022 J0.0045
X1.9978 Y6.0975 Z0.0868 I-0.0022 J-0.0045
X2.0022 Y6.1065 Z0.0863 I0.0022 J0.0045
X1.9978 Y6.0975 Z0.0857 I-0.0022 J-0.0045
X2.0022 Y6.1065 Z0.0852 I0.0022 J0.0045
X1.9978 Y6.0975 Z0.0846 I-0.0022 J-0.0045
X2.0022 Y6.1065 Z0.0841 I0.0022 J0.0045
X1.9978 Y6.0975 Z0.0835 I-0.0022 J-0.0045
X2.0022 Y6.1065 Z0.083 I0.0022 J0.0045
X1.9978 Y6.0975 Z0.0824 I-0.0022 J-0.0045
X2.0022 Y6.1065 Z0.0819 I0.0022 J0.0045
X1.9978 Y6.0975 Z0.0813 I-0.0022 J-0.0045
X2.0022 Y6.1065 Z0.0808 I0.0022 J0.0045
X1.9978 Y6.0975 Z0.0803 I-0.0022 J-0.0045
X2.0022 Y6.1065 Z0.0797 I0.0022 J0.0045
X1.9978 Y6.0975 Z0.0792 I-0.0022 J-0.0045
X2.0022 Y6.1065 Z0.0786 I0.0022 J0.0045
X1.9978 Y6.0975 Z0.0781 I-0.0022 J-0.0045
X2.0022 Y6.1065 Z0.0775 I0.0022 J0.0045
X1.9978 Y6.0975 Z0.077 I-0.0022 J-0.0045
X2.0022 Y6.1065 Z0.0764 I0.0022 J0.0045
X1.9978 Y6.0975 Z0.0759 I-0.0022 J-0.0045
X2.0022 Y6.1065 Z0.0753 I0.0022 J0.0045
X1.9978 Y6.0975 Z0.0748 I-0.0022 J-0.0045
X2.0022 Y6.1065 Z0.0742 I0.0022 J0.0045
X1.9978 Y6.0975 Z0.0737 I-0.0022 J-0.0045
X2.0022 Y6.1065 Z0.0731 I0.0022 J0.0045
X1.9978 Y6.0975 Z0.0726 I-0.0022 J-0.0045
X2.0022 Y6.1065 Z0.072 I0.0022 J0.0045
X1.9978 Y6.0975 Z0.0715 I-0.0022 J-0.0045
X2.0022 Y6.1065 Z0.0709 I0.0022 J0.0045
X1.9978 Y6.0975 Z0.0704 I-0.0022 J-0.0045
X2.0022 Y6.1065 Z0.0698 I0.0022 J0.0045
X1.9978 Y6.0975 Z0.0693 I-0.0022 J-0.0045
X2.0022 Y6.1065 Z0.0687 I0.0022 J0.0045
X1.9978 Y6.0975 Z0.0682 I-0.0022 J-0.0045
X2.0022 Y6.1065 Z0.0676 I0.0022 J0.0045
X1.9978 Y6.0975 Z0.0671 I-0.0022 J-0.0045
X2.0022 Y6.1065 Z0.0665 I0.0022 J0.0045
X1.9978 Y6.0975 Z0.066 I-0.0022 J-0.0045
X2.0022 Y6.1065 Z0.0654 I0.0022 J0.0045
X1.9978 Y6.0975 Z0.0649 I-0.0022 J-0.0045
X2.0022 Y6.1065 Z0.0643 I0.0022 J0.0045
X1.9978 Y6.0975 Z0.0638 I-0.0022 J-0.0045
X2.0022 Y6.1065 Z0.0632 I0.0022 J0.0045
X1.9978 Y6.0975 Z0.0627 I-0.0022 J-0.0045
X2.0022 Y6.1065 Z0.0622 I0.0022 J0.0045
X1.9978 Y6.0975 Z0.0616 I-0.0022 J-0.0045
X2.0022 Y6.1065 Z0.0611 I0.0022 J0.0045
X1.9978 Y6.0975 Z0.0605 I-0.0022 J-0.0045
X2.0022 Y6.1065 Z0.06 I0.0022 J0.0045
X1.9978 Y6.0975 Z0.0594 I-0.0022 J-0.0045
X2.0022 Y6.1065 Z0.0589 I0.0022 J0.0045
X1.9978 Y6.0975 Z0.0583 I-0.0022 J-0.0045
X2.0022 Y6.1065 Z0.0578 I0.0022 J0.0045
X1.9978 Y6.0975 Z0.0572 I-0.0022 J-0.0045
X2.0022 Y6.1065 Z0.0567 I0.0022 J0.0045
X1.9978 Y6.0975 Z0.0561 I-0.0022 J-0.0045
X2.0022 Y6.1065 Z0.0556 I0.0022 J0.0045
X1.9978 Y6.0975 Z0.055 I-0.0022 J-0.0045
X2.0022 Y6.1065 Z0.0545 I0.0022 J0.0045
X1.9978 Y6.0975 Z0.0539 I-0.0022 J-0.0045
X2.0022 Y6.1065 Z0.0534 I0.0022 J0.0045
X1.9978 Y6.0975 Z0.0528 I-0.0022 J-0.0045
X2.0022 Y6.1065 Z0.0523 I0.0022 J0.0045
X1.9978 Y6.0975 Z0.0517 I-0.0022 J-0.0045
X2.0022 Y6.1065 Z0.0512 I0.0022 J0.0045
X1.9978 Y6.0975 Z0.0506 I-0.0022 J-0.0045
X2.0022 Y6.1065 Z0.0501 I0.0022 J0.0045
X1.9978 Y6.0975 Z0.0495 I-0.0022 J-0.0045
X2.0022 Y6.1065 Z0.049 I0.0022 J0.0045
X1.9978 Y6.0975 Z0.0484 I-0.0022 J-0.0045
X2.0022 Y6.1065 Z0.0479 I0.0022 J0.0045
X1.9978 Y6.0975 Z0.0473 I-0.0022 J-0.0045
X2.0022 Y6.1065 Z0.0468 I0.0022 J0.0045
X1.9978 Y6.0975 Z0.0462 I-0.0022 J-0.0045
X2.0022 Y6.1065 Z0.0457 I0.0022 J0.0045
X1.9978 Y6.0975 Z0.0451 I-0.0022 J-0.0045
X2.0022 Y6.1065 Z0.0446 I0.0022 J0.0045
X1.9978 Y6.0975 Z0.044 I-0.0022 J-0.0045
X2.0022 Y6.1065 Z0.0435 I0.0022 J0.0045
X1.9978 Y6.0975 Z0.043 I-0.0022 J-0.0045
X2.0022 Y6.1065 Z0.0424 I0.0022 J0.0045
X1.9978 Y6.0975 Z0.0419 I-0.0022 J-0.0045
X2.0022 Y6.1065 Z0.0413 I0.0022 J0.0045
X1.9978 Y6.0975 Z0.0408 I-0.0022 J-0.0045
X2.0022 Y6.1065 Z0.0402 I0.0022 J0.0045
X1.9978 Y6.0975 Z0.0397 I-0.0022 J-0.0045
X2.0022 Y6.1065 Z0.0391 I0.0022 J0.0045
X1.9978 Y6.0975 Z0.0386 I-0.0022 J-0.0045
X2.0022 Y6.1065 Z0.038 I0.0022 J0.0045
X1.9978 Y6.0975 Z0.0375 I-0.0022 J-0.0045
X2.0022 Y6.1065 Z0.0369 I0.0022 J0.0045
X1.9978 Y6.0975 Z0.0364 I-0.0022 J-0.0045
X2.0022 Y6.1065 Z0.0358 I0.0022 J0.0045
X1.9978 Y6.0975 Z0.0353 I-0.0022 J-0.0045
X2.0022 Y6.1065 Z0.0347 I0.0022 J0.0045
X1.9978 Y6.0975 Z0.0342 I-0.0022 J-0.0045
X2.0022 Y6.1065 Z0.0336 I0.0022 J0.0045
X1.9978 Y6.0975 Z0.0331 I-0.0022 J-0.0045
X2.0022 Y6.1065 Z0.0325 I0.0022 J0.0045
X1.9978 Y6.0975 Z0.032 I-0.0022 J-0.0045
X2.0022 Y6.1065 Z0.0314 I0.0022 J0.0045
X1.9978 Y6.0975 Z0.0309 I-0.0022 J-0.0045
X2.0022 Y6.1065 Z0.0303 I0.0022 J0.0045
X1.9978 Y6.0975 Z0.0298 I-0.0022 J-0.0045
X2.0022 Y6.1065 Z0.0292 I0.0022 J0.0045
X1.9978 Y6.0975 Z0.0287 I-0.0022 J-0.0045
X2.0022 Y6.1065 Z0.0281 I0.0022 J0.0045
X1.9978 Y6.0975 Z0.0276 I-0.0022 J-0.0045
X2.0022 Y6.1065 Z0.027 I0.0022 J0.0045
X1.9978 Y6.0975 Z0.0265 I-0.0022 J-0.0045
X2.0022 Y6.1065 Z0.0259 I0.0022 J0.0045
X1.9978 Y6.0975 Z0.0254 I-0.0022 J-0.0045
X2.0022 Y6.1065 Z0.0249 I0.0022 J0.0045
X1.9978 Y6.0975 Z0.0243 I-0.0022 J-0.0045
X2.0022 Y6.1065 Z0.0238 I0.0022 J0.0045
X1.9978 Y6.0975 Z0.0232 I-0.0022 J-0.0045
X2.0022 Y6.1065 Z0.0227 I0.0022 J0.0045
X1.9978 Y6.0975 Z0.0221 I-0.0022 J-0.0045
X2.0022 Y6.1065 Z0.0216 I0.0022 J0.0045
X1.9978 Y6.0975 Z0.021 I-0.0022 J-0.0045
X2.0022 Y6.1065 Z0.0205 I0.0022 J0.0045
X1.9978 Y6.0975 Z0.0199 I-0.0022 J-0.0045
X2.0022 Y6.1065 Z0.0194 I0.0022 J0.0045
X1.9978 Y6.0975 Z0.0188 I-0.0022 J-0.0045
X2.0022 Y6.1065 Z0.0183 I0.0022 J0.0045
X1.9978 Y6.0975 Z0.0177 I-0.0022 J-0.0045
X2.0022 Y6.1065 Z0.0172 I0.0022 J0.0045
X1.9978 Y6.0975 Z0.0166 I-0.0022 J-0.0045
X2.0022 Y6.1065 Z0.0161 I0.0022 J0.0045
X1.9978 Y6.0975 Z0.0155 I-0.0022 J-0.0045
X2.0022 Y6.1065 Z0.015 I0.0022 J0.0045
X1.9978 Y6.0975 Z0.0144 I-0.0022 J-0.0045
X2.0022 Y6.1065 Z0.0139 I0.0022 J0.0045
X1.9978 Y6.0975 Z0.0133 I-0.0022 J-0.0045
X2.0022 Y6.1065 Z0.0128 I0.0022 J0.0045
X1.9978 Y6.0975 Z0.0122 I-0.0022 J-0.0045
X2.0022 Y6.1065 Z0.0117 I0.0022 J0.0045
X1.9978 Y6.0975 Z0.0111 I-0.0022 J-0.0045
X2.0022 Y6.1065 Z0.0106 I0.0022 J0.0045
X1.9978 Y6.0975 Z0.01 I-0.0022 J-0.0045
X2.0022 Y6.1065 Z0.0095 I0.0022 J0.0045
X1.9978 Y6.0975 Z0.0089 I-0.0022 J-0.0045
X2.0022 Y6.1065 Z0.0084 I0.0022 J0.0045
X1.9978 Y6.0975 Z0.0078 I-0.0022 J-0.0045
X2.0022 Y6.1065 Z0.0073 I0.0022 J0.0045
X1.9978 Y6.0975 Z0.0067 I-0.0022 J-0.0045
X2.0022 Y6.1065 Z0.0062 I0.0022 J0.0045
X1.9978 Y6.0975 Z0.0057 I-0.0022 J-0.0045
X2.0022 Y6.1065 Z0.0051 I0.0022 J0.0045
X1.9978 Y6.0975 Z0.0046 I-0.0022 J-0.0045
X2.0022 Y6.1065 Z0.004 I0.0022 J0.0045
X1.9978 Y6.0975 Z0.0035 I-0.0022 J-0.0045
X2.0022 Y6.1065 Z0.0029 I0.0022 J0.0045
X1.9978 Y6.0975 Z0.0024 I-0.0022 J-0.0045
X2.0022 Y6.1065 Z0.0018 I0.0022 J0.0045
X1.9978 Y6.0975 Z0.0013 I-0.0022 J-0.0045
X2.0022 Y6.1065 Z0.0007 I0.0022 J0.0045
X1.9978 Y6.0975 Z0.0002 I-0.0022 J-0.0045
X2.0022 Y6.1065 Z-0.0004 I0.0022 J0.0045
X1.9978 Y6.0975 Z-0.0009 I-0.0022 J-0.0045
X2.0022 Y6.1065 Z-0.0015 I0.0022 J0.0045
X1.9978 Y6.0975 Z-0.002 I-0.0022 J-0.0045
X2.0022 Y6.1065 Z-0.0026 I0.0022 J0.0045
X1.9978 Y6.0975 Z-0.0031 I-0.0022 J-0.0045
X2.0022 Y6.1065 Z-0.0037 I0.0022 J0.0045
X1.9978 Y6.0975 Z-0.0042 I-0.0022 J-0.0045
X2.0022 Y6.1065 Z-0.0048 I0.0022 J0.0045
X1.9978 Y6.0975 Z-0.0053 I-0.0022 J-0.0045
X2.0022 Y6.1065 Z-0.0059 I0.0022 J0.0045
X1.9978 Y6.0975 Z-0.0064 I-0.0022 J-0.0045
X2.0022 Y6.1065 Z-0.007 I0.0022 J0.0045
X1.9978 Y6.0975 Z-0.0075 I-0.0022 J-0.0045
X2.0022 Y6.1065 Z-0.0081 I0.0022 J0.0045
X1.9978 Y6.0975 Z-0.0086 I-0.0022 J-0.0045
X2.0022 Y6.1065 Z-0.0092 I0.0022 J0.0045
X1.9978 Y6.0975 Z-0.0097 I-0.0022 J-0.0045
X2.0022 Y6.1065 Z-0.0103 I0.0022 J0.0045
X1.9978 Y6.0975 Z-0.0108 I-0.0022 J-0.0045
X2.0022 Y6.1065 Z-0.0114 I0.0022 J0.0045
X1.9978 Y6.0975 Z-0.0119 I-0.0022 J-0.0045
X2.0022 Y6.1065 Z-0.0124 I0.0022 J0.0045
X1.9978 Y6.0975 Z-0.013 I-0.0022 J-0.0045
X2.0022 Y6.1065 Z-0.0135 I0.0022 J0.0045
X1.9978 Y6.0975 Z-0.0141 I-0.0022 J-0.0045
X2.0022 Y6.1065 Z-0.0146 I0.0022 J0.0045
X1.9978 Y6.0975 Z-0.0152 I-0.0022 J-0.0045
X2.0022 Y6.1065 Z-0.0157 I0.0022 J0.0045
X1.9978 Y6.0975 Z-0.0163 I-0.0022 J-0.0045
X2.0022 Y6.1065 Z-0.0168 I0.0022 J0.0045
X1.9978 Y6.0975 Z-0.0174 I-0.0022 J-0.0045
X2.0022 Y6.1065 Z-0.0179 I0.0022 J0.0045
X1.9978 Y6.0975 Z-0.0185 I-0.0022 J-0.0045
X2.0022 Y6.1065 Z-0.019 I0.0022 J0.0045
X1.9978 Y6.0975 Z-0.0196 I-0.0022 J-0.0045
X2.0022 Y6.1065 Z-0.0201 I0.0022 J0.0045
X1.9978 Y6.0975 Z-0.0207 I-0.0022 J-0.0045
X2.0022 Y6.1065 Z-0.0212 I0.0022 J0.0045
X1.9978 Y6.0975 Z-0.0218 I-0.0022 J-0.0045
X2.0022 Y6.1065 Z-0.0223 I0.0022 J0.0045
X1.9978 Y6.0975 Z-0.0229 I-0.0022 J-0.0045
X2.0022 Y6.1065 Z-0.0234 I0.0022 J0.0045
X1.9978 Y6.0975 Z-0.024 I-0.0022 J-0.0045
X2.0022 Y6.1065 Z-0.0245 I0.0022 J0.0045
X1.9978 Y6.0975 Z-0.0251 I-0.0022 J-0.0045
X2.0022 Y6.1065 Z-0.0256 I0.0022 J0.0045
X1.9978 Y6.0975 Z-0.0262 I-0.0022 J-0.0045
X2.0022 Y6.1065 Z-0.0267 I0.0022 J0.0045
X1.9978 Y6.0975 Z-0.0273 I-0.0022 J-0.0045
X2.0022 Y6.1065 Z-0.0278 I0.0022 J0.0045
X1.9978 Y6.0975 Z-0.0284 I-0.0022 J-0.0045
X2.0022 Y6.1065 Z-0.0289 I0.0022 J0.0045
X1.9978 Y6.0975 Z-0.0295 I-0.0022 J-0.0045
X2.0022 Y6.1065 Z-0.03 I0.0022 J0.0045
X1.9978 Y6.0975 Z-0.0306 I-0.0022 J-0.0045
X2.0022 Y6.1065 Z-0.0311 I0.0022 J0.0045
X1.9978 Y6.0975 Z-0.0316 I-0.0022 J-0.0045
X2.0022 Y6.1065 Z-0.0322 I0.0022 J0.0045
X1.9978 Y6.0975 Z-0.0327 I-0.0022 J-0.0045
X2.0022 Y6.1065 Z-0.0333 I0.0022 J0.0045
X1.9978 Y6.0975 Z-0.0338 I-0.0022 J-0.0045
X2.0022 Y6.1065 Z-0.0344 I0.0022 J0.0045
X1.9978 Y6.0975 Z-0.0349 I-0.0022 J-0.0045
X2.0022 Y6.1065 Z-0.0355 I0.0022 J0.0045
X1.9978 Y6.0975 Z-0.036 I-0.0022 J-0.0045
X2.0022 Y6.1065 Z-0.0366 I0.0022 J0.0045
X1.9978 Y6.0975 Z-0.0371 I-0.0022 J-0.0045
X2.0022 Y6.1065 Z-0.0377 I0.0022 J0.0045
X1.9978 Y6.0975 Z-0.0382 I-0.0022 J-0.0045
X2.0022 Y6.1065 Z-0.0388 I0.0022 J0.0045
X1.9978 Y6.0975 Z-0.0393 I-0.0022 J-0.0045
X2.0022 Y6.1065 Z-0.0399 I0.0022 J0.0045
X1.9978 Y6.0975 Z-0.0404 I-0.0022 J-0.0045
X2.0022 Y6.1065 Z-0.041 I0.0022 J0.0045
X1.9978 Y6.0975 Z-0.0415 I-0.0022 J-0.0045
X2.0022 Y6.1065 Z-0.0421 I0.0022 J0.0045
X1.9978 Y6.0975 Z-0.0426 I-0.0022 J-0.0045
X2.0022 Y6.1065 Z-0.0432 I0.0022 J0.0045
X1.9978 Y6.0975 Z-0.0437 I-0.0022 J-0.0045
X2.0022 Y6.1065 Z-0.0443 I0.0022 J0.0045
X1.9978 Y6.0975 Z-0.0448 I-0.0022 J-0.0045
X2.0022 Y6.1065 Z-0.0454 I0.0022 J0.0045
X1.9978 Y6.0975 Z-0.0459 I-0.0022 J-0.0045
X2.0022 Y6.1065 Z-0.0465 I0.0022 J0.0045
X1.9978 Y6.0975 Z-0.047 I-0.0022 J-0.0045
X2.0022 Y6.1065 Z-0.0476 I0.0022 J0.0045
X1.9978 Y6.0975 Z-0.0481 I-0.0022 J-0.0045
X2.0022 Y6.1065 Z-0.0487 I0.0022 J0.0045
X1.9978 Y6.0975 Z-0.0492 I-0.0022 J-0.0045
X2.0022 Y6.1065 Z-0.0497 I0.0022 J0.0045
X1.9978 Y6.0975 Z-0.0503 I-0.0022 J-0.0045
X2.0022 Y6.1065 Z-0.0508 I0.0022 J0.0045
X1.9978 Y6.0975 Z-0.0514 I-0.0022 J-0.0045
X2.0022 Y6.1065 Z-0.0519 I0.0022 J0.0045
X1.9978 Y6.0975 Z-0.0525 I-0.0022 J-0.0045
X2.0022 Y6.1065 Z-0.053 I0.0022 J0.0045
X1.9978 Y6.0975 Z-0.0536 I-0.0022 J-0.0045
X2.0022 Y6.1065 Z-0.0541 I0.0022 J0.0045
X1.9978 Y6.0975 Z-0.0547 I-0.0022 J-0.0045
X2.0022 Y6.1065 Z-0.0552 I0.0022 J0.0045
X1.9978 Y6.0975 Z-0.0558 I-0.0022 J-0.0045
X2.0022 Y6.1065 Z-0.0563 I0.0022 J0.0045
X1.9978 Y6.0975 Z-0.0569 I-0.0022 J-0.0045
X2.0022 Y6.1065 Z-0.0574 I0.0022 J0.0045
X1.9978 Y6.0975 Z-0.058 I-0.0022 J-0.0045
X2.0022 Y6.1065 Z-0.0585 I0.0022 J0.0045
X1.9978 Y6.0975 Z-0.0591 I-0.0022 J-0.0045
X2.0022 Y6.1065 Z-0.0596 I0.0022 J0.0045
X1.9978 Y6.0975 Z-0.0602 I-0.0022 J-0.0045
X2.0022 Y6.1065 Z-0.0607 I0.0022 J0.0045
X1.9978 Y6.0975 Z-0.0613 I-0.0022 J-0.0045
X2.0022 Y6.1065 Z-0.0618 I0.0022 J0.0045
X1.9978 Y6.0975 Z-0.0624 I-0.0022 J-0.0045
X2.0022 Y6.1065 Z-0.0629 I0.0022 J0.0045
X1.9978 Y6.0975 Z-0.0635 I-0.0022 J-0.0045
X2.0022 Y6.1065 Z-0.064 I0.0022 J0.0045
X1.9978 Y6.0975 Z-0.0646 I-0.0022 J-0.0045
X2.0022 Y6.1065 Z-0.0651 I0.0022 J0.0045
X1.9978 Y6.0975 Z-0.0657 I-0.0022 J-0.0045
X2.0022 Y6.1065 Z-0.0662 I0.0022 J0.0045
X1.9978 Y6.0975 Z-0.0668 I-0.0022 J-0.0045
X2.0022 Y6.1065 Z-0.0673 I0.0022 J0.0045
X1.9978 Y6.0975 Z-0.0679 I-0.0022 J-0.0045
X2.0022 Y6.1065 Z-0.0684 I0.0022 J0.0045
X1.9978 Y6.0975 Z-0.0689 I-0.0022 J-0.0045
X2.0022 Y6.1065 Z-0.0695 I0.0022 J0.0045
X1.9978 Y6.0975 Z-0.07 I-0.0022 J-0.0045
X2.0022 Y6.1065 Z-0.0706 I0.0022 J0.0045
X1.9978 Y6.0975 Z-0.0711 I-0.0022 J-0.0045
X2.0022 Y6.1065 Z-0.0717 I0.0022 J0.0045
X1.9978 Y6.0975 Z-0.0722 I-0.0022 J-0.0045
X2.0022 Y6.1065 Z-0.0728 I0.0022 J0.0045
X1.9978 Y6.0975 Z-0.0733 I-0.0022 J-0.0045
X2.0022 Y6.1065 Z-0.0739 I0.0022 J0.0045
X1.9978 Y6.0975 Z-0.0744 I-0.0022 J-0.0045
X2.0022 Y6.1065 Z-0.075 I0.0022 J0.0045
X1.9978 Y6.0975 Z-0.0755 I-0.0022 J-0.0045
X2.0022 Y6.1065 Z-0.0761 I0.0022 J0.0045
X1.9978 Y6.0975 Z-0.0766 I-0.0022 J-0.0045
X2.0022 Y6.1065 Z-0.0772 I0.0022 J0.0045
X1.9978 Y6.0975 Z-0.0777 I-0.0022 J-0.0045
X2.0022 Y6.1065 Z-0.0783 I0.0022 J0.0045
X1.9978 Y6.0975 Z-0.0788 I-0.0022 J-0.0045
X2.0022 Y6.1065 Z-0.0794 I0.0022 J0.0045
X1.9978 Y6.0975 Z-0.0799 I-0.0022 J-0.0045
X2. Y6.097 Z-0.08 I0.0022 J0.0045
Y6.149 I0. J0.026 F40.
Y6.097 I0. J-0.026
Y6.149 Z-0.0829 I0. J0.026 F20.
Y6.097 Z-0.0857 I0. J-0.026
Y6.149 Z-0.0886 I0. J0.026
Y6.097 Z-0.0914 I0. J-0.026
Y6.149 Z-0.0943 I0. J0.026
Y6.097 Z-0.0971 I0. J-0.026
Y6.149 Z-0.1 I0. J0.026
Y6.097 Z-0.1028 I0. J-0.026
Y6.149 Z-0.1057 I0. J0.026
Y6.097 Z-0.1085 I0. J-0.026
Y6.149 Z-0.1114 I0. J0.026
Y6.097 Z-0.1142 I0. J-0.026
Y6.149 Z-0.1171 I0. J0.026
Y6.097 Z-0.1199 I0. J-0.026
Y6.149 Z-0.1228 I0. J0.026
Y6.097 Z-0.1256 I0. J-0.026
X2.0231 Y6.135 Z-0.1275 I0. J0.026
X1.9769 Y6.111 I-0.0231 J-0.012 F40.
X2.0231 Y6.135 I0.0231 J0.012
X1.9769 Y6.111 Z-0.1304 I-0.0231 J-0.012 F20.
X2.0231 Y6.135 Z-0.1332 I0.0231 J0.012
X1.9769 Y6.111 Z-0.1361 I-0.0231 J-0.012
X2.0231 Y6.135 Z-0.1389 I0.0231 J0.012
X1.9769 Y6.111 Z-0.1418 I-0.0231 J-0.012
X2.0231 Y6.135 Z-0.1446 I0.0231 J0.012
X1.9769 Y6.111 Z-0.1475 I-0.0231 J-0.012
X2.0231 Y6.135 Z-0.1503 I0.0231 J0.012
X1.9769 Y6.111 Z-0.1532 I-0.0231 J-0.012
X2.0231 Y6.135 Z-0.156 I0.0231 J0.012
X1.9769 Y6.111 Z-0.1589 I-0.0231 J-0.012
X2.0231 Y6.135 Z-0.1617 I0.0231 J0.012
X1.9769 Y6.111 Z-0.1646 I-0.0231 J-0.012
X2.0231 Y6.135 Z-0.1674 I0.0231 J0.012
X1.9769 Y6.111 Z-0.1703 I-0.0231 J-0.012
X2.0231 Y6.135 Z-0.1731 I0.0231 J0.012
X1.9787 Y6.1379 Z-0.175 I-0.0231 J-0.012
X2.0213 Y6.1081 I0.0213 J-0.0149 F40.
X1.9787 Y6.1379 I-0.0213 J0.0149
G1 X1.9776 Y6.1359 Z-0.1746
X1.9769 Y6.1338 Z-0.1741
X1.9766 Y6.1319 Z-0.1728
Y6.13 Z-0.1715
X1.9771 Y6.1275 Z-0.1677
X1.9775 Y6.1267 Z-0.1632
G0 Z0.2
X1.0851 Y4.8336
G1 Z0.1118 F40.
X1.0848 Y4.8342 Z0.1079 F20.
X1.0843 Y4.835 Z0.1061
X1.0836 Y4.8357 Z0.1044
X1.0824 Y4.8363 Z0.1033
X1.0812 Y4.8367 Z0.1023
X1.0799 Z0.1012
X1.0783 Y4.8362 Z0.1008
X1.077 Y4.8353 Z0.1004
X1.0761 Y4.834 Z0.1
G3 X1.085 Y4.8294 Z0.0995 I0.0044 J-0.0023
X1.0761 Y4.834 Z0.0989 I-0.0044 J0.0023
X1.085 Y4.8294 Z0.0984 I0.0044 J-0.0023
X1.0761 Y4.834 Z0.0978 I-0.0044 J0.0023
X1.085 Y4.8294 Z0.0973 I0.0044 J-0.0023
X1.0761 Y4.834 Z0.0967 I-0.0044 J0.0023
X1.085 Y4.8294 Z0.0962 I0.0044 J-0.0023
X1.0761 Y4.834 Z0.0956 I-0.0044 J0.0023
X1.085 Y4.8294 Z0.0951 I0.0044 J-0.0023
X1.0761 Y4.834 Z0.0945 I-0.0044 J0.0023
X1.085 Y4.8294 Z0.094 I0.0044 J-0.0023
X1.0761 Y4.834 Z0.0934 I-0.0044 J0.0023
X1.085 Y4.8294 Z0.0929 I0.0044 J-0.0023
X1.0761 Y4.834 Z0.0923 I-0.0044 J0.0023
X1.085 Y4.8294 Z0.0918 I0.0044 J-0.0023
X1.0761 Y4.834 Z0.0912 I-0.0044 J0.0023
X1.085 Y4.8294 Z0.0907 I0.0044 J-0.0023
X1.0761 Y4.834 Z0.0901 I-0.0044 J0.0023
X1.085 Y4.8294 Z0.0896 I0.0044 J-0.0023
X1.0761 Y4.834 Z0.089 I-0.0044 J0.0023
X1.085 Y4.8294 Z0.0885 I0.0044 J-0.0023
X1.0761 Y4.834 Z0.0879 I-0.0044 J0.0023
X1.085 Y4.8294 Z0.0874 I0.0044 J-0.0023
X1.0761 Y4.834 Z0.0868 I-0.0044 J0.0023
X1.085 Y4.8294 Z0.0863 I0.0044 J-0.0023
X1.0761 Y4.834 Z0.0857 I-0.0044 J0.0023
X1.085 Y4.8294 Z0.0852 I0.0044 J-0.0023
X1.0761 Y4.834 Z0.0846 I-0.0044 J0.0023
X1.085 Y4.8294 Z0.0841 I0.0044 J-0.0023
X1.0761 Y4.834 Z0.0835 I-0.0044 J0.0023
X1.085 Y4.8294 Z0.083 I0.0044 J-0.0023
X1.0761 Y4.834 Z0.0824 I-0.0044 J0.0023
X1.085 Y4.8294 Z0.0819 I0.0044 J-0.0023
X1.0761 Y4.834 Z0.0813 I-0.0044 J0.0023
X1.085 Y4.8294 Z0.0808 I0.0044 J-0.0023
X1.0761 Y4.834 Z0.0803 I-0.0044 J0.0023
X1.085 Y4.8294 Z0.0797 I0.0044 J-0.0023
X1.0761 Y4.834 Z0.0792 I-0.0044 J0.0023
X1.085 Y4.8294 Z0.0786 I0.0044 J-0.0023
X1.0761 Y4.834 Z0.0781 I-0.0044 J0.0023
X1.085 Y4.8294 Z0.0775 I0.0044 J-0.0023
X1.0761 Y4.834 Z0.077 I-0.0044 J0.0023
X1.085 Y4.8294 Z0.0764 I0.0044 J-0.0023
X1.0761 Y4.834 Z0.0759 I-0.0044 J0.0023
X1.085 Y4.8294 Z0.0753 I0.0044 J-0.0023
X1.0761 Y4.834 Z0.0748 I-0.0044 J0.0023
X1.085 Y4.8294 Z0.0742 I0.0044 J-0.0023
X1.0761 Y4.834 Z0.0737 I-0.0044 J0.0023
X1.085 Y4.8294 Z0.0731 I0.0044 J-0.0023
X1.0761 Y4.834 Z0.0726 I-0.0044 J0.0023
X1.085 Y4.8294 Z0.072 I0.0044 J-0.0023
X1.0761 Y4.834 Z0.0715 I-0.0044 J0.0023
X1.085 Y4.8294 Z0.0709 I0.0044 J-0.0023
X1.0761 Y4.834 Z0.0704 I-0.0044 J0.0023
X1.085 Y4.8294 Z0.0698 I0.0044 J-0.0023
X1.0761 Y4.834 Z0.0693 I-0.0044 J0.0023
X1.085 Y4.8294 Z0.0687 I0.0044 J-0.0023
X1.0761 Y4.834 Z0.0682 I-0.0044 J0.0023
X1.085 Y4.8294 Z0.0676 I0.0044 J-0.0023
X1.0761 Y4.834 Z0.0671 I-0.0044 J0.0023
X1.085 Y4.8294 Z0.0665 I0.0044 J-0.0023
X1.0761 Y4.834 Z0.066 I-0.0044 J0.0023
X1.085 Y4.8294 Z0.0654 I0.0044 J-0.0023
X1.0761 Y4.834 Z0.0649 I-0.0044 J0.0023
X1.085 Y4.8294 Z0.0643 I0.0044 J-0.0023
X1.0761 Y4.834 Z0.0638 I-0.0044 J0.0023
X1.085 Y4.8294 Z0.0632 I0.0044 J-0.0023
X1.0761 Y4.834 Z0.0627 I-0.0044 J0.0023
X1.085 Y4.8294 Z0.0622 I0.0044 J-0.0023
X1.0761 Y4.834 Z0.0616 I-0.0044 J0.0023
X1.085 Y4.8294 Z0.0611 I0.0044 J-0.0023
X1.0761 Y4.834 Z0.0605 I-0.0044 J0.0023
X1.085 Y4.8294 Z0.06 I0.0044 J-0.0023
X1.0761 Y4.834 Z0.0594 I-0.0044 J0.0023
X1.085 Y4.8294 Z0.0589 I0.0044 J-0.0023
X1.0761 Y4.834 Z0.0583 I-0.0044 J0.0023
X1.085 Y4.8294 Z0.0578 I0.0044 J-0.0023
X1.0761 Y4.834 Z0.0572 I-0.0044 J0.0023
X1.085 Y4.8294 Z0.0567 I0.0044 J-0.0023
X1.0761 Y4.834 Z0.0561 I-0.0044 J0.0023
X1.085 Y4.8294 Z0.0556 I0.0044 J-0.0023
X1.0761 Y4.834 Z0.055 I-0.0044 J0.0023
X1.085 Y4.8294 Z0.0545 I0.0044 J-0.0023
X1.0761 Y4.834 Z0.0539 I-0.0044 J0.0023
X1.085 Y4.8294 Z0.0534 I0.0044 J-0.0023
X1.0761 Y4.834 Z0.0528 I-0.0044 J0.0023
X1.085 Y4.8294 Z0.0523 I0.0044 J-0.0023
X1.0761 Y4.834 Z0.0517 I-0.0044 J0.0023
X1.085 Y4.8294 Z0.0512 I0.0044 J-0.0023
X1.0761 Y4.834 Z0.0506 I-0.0044 J0.0023
X1.085 Y4.8294 Z0.0501 I0.0044 J-0.0023
X1.0761 Y4.834 Z0.0495 I-0.0044 J0.0023
X1.085 Y4.8294 Z0.049 I0.0044 J-0.0023
X1.0761 Y4.834 Z0.0484 I-0.0044 J0.0023
X1.085 Y4.8294 Z0.0479 I0.0044 J-0.0023
X1.0761 Y4.834 Z0.0473 I-0.0044 J0.0023
X1.085 Y4.8294 Z0.0468 I0.0044 J-0.0023
X1.0761 Y4.834 Z0.0462 I-0.0044 J0.0023
X1.085 Y4.8294 Z0.0457 I0.0044 J-0.0023
X1.0761 Y4.834 Z0.0451 I-0.0044 J0.0023
X1.085 Y4.8294 Z0.0446 I0.0044 J-0.0023
X1.0761 Y4.834 Z0.044 I-0.0044 J0.0023
X1.085 Y4.8294 Z0.0435 I0.0044 J-0.0023
X1.0761 Y4.834 Z0.043 I-0.0044 J0.0023
X1.085 Y4.8294 Z0.0424 I0.0044 J-0.0023
X1.0761 Y4.834 Z0.0419 I-0.0044 J0.0023
X1.085 Y4.8294 Z0.0413 I0.0044 J-0.0023
X1.0761 Y4.834 Z0.0408 I-0.0044 J0.0023
X1.085 Y4.8294 Z0.0402 I0.0044 J-0.0023
X1.0761 Y4.834 Z0.0397 I-0.0044 J0.0023
X1.085 Y4.8294 Z0.0391 I0.0044 J-0.0023
X1.0761 Y4.834 Z0.0386 I-0.0044 J0.0023
X1.085 Y4.8294 Z0.038 I0.0044 J-0.0023
X1.0761 Y4.834 Z0.0375 I-0.0044 J0.0023
X1.085 Y4.8294 Z0.0369 I0.0044 J-0.0023
X1.0761 Y4.834 Z0.0364 I-0.0044 J0.0023
X1.085 Y4.8294 Z0.0358 I0.0044 J-0.0023
X1.0761 Y4.834 Z0.0353 I-0.0044 J0.0023
X1.085 Y4.8294 Z0.0347 I0.0044 J-0.0023
X1.0761 Y4.834 Z0.0342 I-0.0044 J0.0023
X1.085 Y4.8294 Z0.0336 I0.0044 J-0.0023
X1.0761 Y4.834 Z0.0331 I-0.0044 J0.0023
X1.085 Y4.8294 Z0.0325 I0.0044 J-0.0023
X1.0761 Y4.834 Z0.032 I-0.0044 J0.0023
X1.085 Y4.8294 Z0.0314 I0.0044 J-0.0023
X1.0761 Y4.834 Z0.0309 I-0.0044 J0.0023
X1.085 Y4.8294 Z0.0303 I0.0044 J-0.0023
X1.0761 Y4.834 Z0.0298 I-0.0044 J0.0023
X1.085 Y4.8294 Z0.0292 I0.0044 J-0.0023
X1.0761 Y4.834 Z0.0287 I-0.0044 J0.0023
X1.085 Y4.8294 Z0.0281 I0.0044 J-0.0023
X1.0761 Y4.834 Z0.0276 I-0.0044 J0.0023
X1.085 Y4.8294 Z0.027 I0.0044 J-0.0023
X1.0761 Y4.834 Z0.0265 I-0.0044 J0.0023
X1.085 Y4.8294 Z0.0259 I0.0044 J-0.0023
X1.0761 Y4.834 Z0.0254 I-0.0044 J0.0023
X1.085 Y4.8294 Z0.0249 I0.0044 J-0.0023
X1.0761 Y4.834 Z0.0243 I-0.0044 J0.0023
X1.085 Y4.8294 Z0.0238 I0.0044 J-0.0023
X1.0761 Y4.834 Z0.0232 I-0.0044 J0.0023
X1.085 Y4.8294 Z0.0227 I0.0044 J-0.0023
X1.0761 Y4.834 Z0.0221 I-0.0044 J0.0023
X1.085 Y4.8294 Z0.0216 I0.0044 J-0.0023
X1.0761 Y4.834 Z0.021 I-0.0044 J0.0023
X1.085 Y4.8294 Z0.0205 I0.0044 J-0.0023
X1.0761 Y4.834 Z0.0199 I-0.0044 J0.0023
X1.085 Y4.8294 Z0.0194 I0.0044 J-0.0023
X1.0761 Y4.834 Z0.0188 I-0.0044 J0.0023
X1.085 Y4.8294 Z0.0183 I0.0044 J-0.0023
X1.0761 Y4.834 Z0.0177 I-0.0044 J0.0023
X1.085 Y4.8294 Z0.0172 I0.0044 J-0.0023
X1.0761 Y4.834 Z0.0166 I-0.0044 J0.0023
X1.085 Y4.8294 Z0.0161 I0.0044 J-0.0023
X1.0761 Y4.834 Z0.0155 I-0.0044 J0.0023
X1.085 Y4.8294 Z0.015 I0.0044 J-0.0023
X1.0761 Y4.834 Z0.0144 I-0.0044 J0.0023
X1.085 Y4.8294 Z0.0139 I0.0044 J-0.0023
X1.0761 Y4.834 Z0.0133 I-0.0044 J0.0023
X1.085 Y4.8294 Z0.0128 I0.0044 J-0.0023
X1.0761 Y4.834 Z0.0122 I-0.0044 J0.0023
X1.085 Y4.8294 Z0.0117 I0.0044 J-0.0023
X1.0761 Y4.834 Z0.0111 I-0.0044 J0.0023
X1.085 Y4.8294 Z0.0106 I0.0044 J-0.0023
X1.0761 Y4.834 Z0.01 I-0.0044 J0.0023
X1.085 Y4.8294 Z0.0095 I0.0044 J-0.0023
X1.0761 Y4.834 Z0.0089 I-0.0044 J0.0023
X1.085 Y4.8294 Z0.0084 I0.0044 J-0.0023
X1.0761 Y4.834 Z0.0078 I-0.0044 J0.0023
X1.085 Y4.8294 Z0.0073 I0.0044 J-0.0023
X1.0761 Y4.834 Z0.0067 I-0.0044 J0.0023
X1.085 Y4.8294 Z0.0062 I0.0044 J-0.0023
X1.0761 Y4.834 Z0.0057 I-0.0044 J0.0023
X1.085 Y4.8294 Z0.0051 I0.0044 J-0.0023
X1.0761 Y4.834 Z0.0046 I-0.0044 J0.0023
X1.085 Y4.8294 Z0.004 I0.0044 J-0.0023
X1.0761 Y4.834 Z0.0035 I-0.0044 J0.0023
X1.085 Y4.8294 Z0.0029 I0.0044 J-0.0023
X1.0761 Y4.834 Z0.0024 I-0.0044 J0.0023
X1.085 Y4.8294 Z0.0018 I0.0044 J-0.0023
X1.0761 Y4.834 Z0.0013 I-0.0044 J0.0023
X1.085 Y4.8294 Z0.0007 I0.0044 J-0.0023
X1.0761 Y4.834 Z0.0002 I-0.0044 J0.0023
X1.085 Y4.8294 Z-0.0004 I0.0044 J-0.0023
X1.0761 Y4.834 Z-0.0009 I-0.0044 J0.0023
X1.085 Y4.8294 Z-0.0015 I0.0044 J-0.0023
X1.0761 Y4.834 Z-0.002 I-0.0044 J0.0023
X1.085 Y4.8294 Z-0.0026 I0.0044 J-0.0023
X1.0761 Y4.834 Z-0.0031 I-0.0044 J0.0023
X1.085 Y4.8294 Z-0.0037 I0.0044 J-0.0023
X1.0761 Y4.834 Z-0.0042 I-0.0044 J0.0023
X1.085 Y4.8294 Z-0.0048 I0.0044 J-0.0023
X1.0761 Y4.834 Z-0.0053 I-0.0044 J0.0023
X1.085 Y4.8294 Z-0.0059 I0.0044 J-0.0023
X1.0761 Y4.834 Z-0.0064 I-0.0044 J0.0023
X1.085 Y4.8294 Z-0.007 I0.0044 J-0.0023
X1.0761 Y4.834 Z-0.0075 I-0.0044 J0.0023
X1.085 Y4.8294 Z-0.0081 I0.0044 J-0.0023
X1.0761 Y4.834 Z-0.0086 I-0.0044 J0.0023
X1.085 Y4.8294 Z-0.0092 I0.0044 J-0.0023
X1.0761 Y4.834 Z-0.0097 I-0.0044 J0.0023
X1.085 Y4.8294 Z-0.0103 I0.0044 J-0.0023
X1.0761 Y4.834 Z-0.0108 I-0.0044 J0.0023
X1.085 Y4.8294 Z-0.0114 I0.0044 J-0.0023
X1.0761 Y4.834 Z-0.0119 I-0.0044 J0.0023
X1.085 Y4.8294 Z-0.0124 I0.0044 J-0.0023
X1.0761 Y4.834 Z-0.013 I-0.0044 J0.0023
X1.085 Y4.8294 Z-0.0135 I0.0044 J-0.0023
X1.0761 Y4.834 Z-0.0141 I-0.0044 J0.0023
X1.085 Y4.8294 Z-0.0146 I0.0044 J-0.0023
X1.0761 Y4.834 Z-0.0152 I-0.0044 J0.0023
X1.085 Y4.8294 Z-0.0157 I0.0044 J-0.0023
X1.0761 Y4.834 Z-0.0163 I-0.0044 J0.0023
X1.085 Y4.8294 Z-0.0168 I0.0044 J-0.0023
X1.0761 Y4.834 Z-0.0174 I-0.0044 J0.0023
X1.085 Y4.8294 Z-0.0179 I0.0044 J-0.0023
X1.0761 Y4.834 Z-0.0185 I-0.0044 J0.0023
X1.085 Y4.8294 Z-0.019 I0.0044 J-0.0023
X1.0761 Y4.834 Z-0.0196 I-0.0044 J0.0023
X1.085 Y4.8294 Z-0.0201 I0.0044 J-0.0023
X1.0761 Y4.834 Z-0.0207 I-0.0044 J0.0023
X1.085 Y4.8294 Z-0.0212 I0.0044 J-0.0023
X1.0761 Y4.834 Z-0.0218 I-0.0044 J0.0023
X1.085 Y4.8294 Z-0.0223 I0.0044 J-0.0023
X1.0761 Y4.834 Z-0.0229 I-0.0044 J0.0023
X1.085 Y4.8294 Z-0.0234 I0.0044 J-0.0023
X1.0761 Y4.834 Z-0.024 I-0.0044 J0.0023
X1.085 Y4.8294 Z-0.0245 I0.0044 J-0.0023
X1.0761 Y4.834 Z-0.0251 I-0.0044 J0.0023
X1.085 Y4.8294 Z-0.0256 I0.0044 J-0.0023
X1.0761 Y4.834 Z-0.0262 I-0.0044 J0.0023
X1.085 Y4.8294 Z-0.0267 I0.0044 J-0.0023
X1.0761 Y4.834 Z-0.0273 I-0.0044 J0.0023
X1.085 Y4.8294 Z-0.0278 I0.0044 J-0.0023
X1.0761 Y4.834 Z-0.0284 I-0.0044 J0.0023
X1.085 Y4.8294 Z-0.0289 I0.0044 J-0.0023
X1.0761 Y4.834 Z-0.0295 I-0.0044 J0.0023
X1.085 Y4.8294 Z-0.03 I0.0044 J-0.0023
X1.0761 Y4.834 Z-0.0306 I-0.0044 J0.0023
X1.085 Y4.8294 Z-0.0311 I0.0044 J-0.0023
X1.0761 Y4.834 Z-0.0316 I-0.0044 J0.0023
X1.085 Y4.8294 Z-0.0322 I0.0044 J-0.0023
X1.0761 Y4.834 Z-0.0327 I-0.0044 J0.0023
X1.085 Y4.8294 Z-0.0333 I0.0044 J-0.0023
X1.0761 Y4.834 Z-0.0338 I-0.0044 J0.0023
X1.085 Y4.8294 Z-0.0344 I0.0044 J-0.0023
X1.0761 Y4.834 Z-0.0349 I-0.0044 J0.0023
X1.085 Y4.8294 Z-0.0355 I0.0044 J-0.0023
X1.0761 Y4.834 Z-0.036 I-0.0044 J0.0023
X1.085 Y4.8294 Z-0.0366 I0.0044 J-0.0023
X1.0761 Y4.834 Z-0.0371 I-0.0044 J0.0023
X1.085 Y4.8294 Z-0.0377 I0.0044 J-0.0023
X1.0761 Y4.834 Z-0.0382 I-0.0044 J0.0023
X1.085 Y4.8294 Z-0.0388 I0.0044 J-0.0023
X1.0761 Y4.834 Z-0.0393 I-0.0044 J0.0023
X1.085 Y4.8294 Z-0.0399 I0.0044 J-0.0023
X1.0761 Y4.834 Z-0.0404 I-0.0044 J0.0023
X1.085 Y4.8294 Z-0.041 I0.0044 J-0.0023
X1.0761 Y4.834 Z-0.0415 I-0.0044 J0.0023
X1.085 Y4.8294 Z-0.0421 I0.0044 J-0.0023
X1.0761 Y4.834 Z-0.0426 I-0.0044 J0.0023
X1.085 Y4.8294 Z-0.0432 I0.0044 J-0.0023
X1.0761 Y4.834 Z-0.0437 I-0.0044 J0.0023
X1.085 Y4.8294 Z-0.0443 I0.0044 J-0.0023
X1.0761 Y4.834 Z-0.0448 I-0.0044 J0.0023
X1.085 Y4.8294 Z-0.0454 I0.0044 J-0.0023
X1.0761 Y4.834 Z-0.0459 I-0.0044 J0.0023
X1.085 Y4.8294 Z-0.0465 I0.0044 J-0.0023
X1.0761 Y4.834 Z-0.047 I-0.0044 J0.0023
X1.085 Y4.8294 Z-0.0476 I0.0044 J-0.0023
X1.0761 Y4.834 Z-0.0481 I-0.0044 J0.0023
X1.085 Y4.8294 Z-0.0487 I0.0044 J-0.0023
X1.0761 Y4.834 Z-0.0492 I-0.0044 J0.0023
X1.085 Y4.8294 Z-0.0497 I0.0044 J-0.0023
X1.0761 Y4.834 Z-0.0503 I-0.0044 J0.0023
X1.085 Y4.8294 Z-0.0508 I0.0044 J-0.0023
X1.0761 Y4.834 Z-0.0514 I-0.0044 J0.0023
X1.085 Y4.8294 Z-0.0519 I0.0044 J-0.0023
X1.0761 Y4.834 Z-0.0525 I-0.0044 J0.0023
X1.085 Y4.8294 Z-0.053 I0.0044 J-0.0023
X1.0761 Y4.834 Z-0.0536 I-0.0044 J0.0023
X1.085 Y4.8294 Z-0.0541 I0.0044 J-0.0023
X1.0761 Y4.834 Z-0.0547 I-0.0044 J0.0023
X1.085 Y4.8294 Z-0.0552 I0.0044 J-0.0023
X1.0761 Y4.834 Z-0.0558 I-0.0044 J0.0023
X1.085 Y4.8294 Z-0.0563 I0.0044 J-0.0023
X1.0761 Y4.834 Z-0.0569 I-0.0044 J0.0023
X1.085 Y4.8294 Z-0.0574 I0.0044 J-0.0023
X1.0761 Y4.834 Z-0.058 I-0.0044 J0.0023
X1.085 Y4.8294 Z-0.0585 I0.0044 J-0.0023
X1.0761 Y4.834 Z-0.0591 I-0.0044 J0.0023
X1.085 Y4.8294 Z-0.0596 I0.0044 J-0.0023
X1.0761 Y4.834 Z-0.0602 I-0.0044 J0.0023
X1.085 Y4.8294 Z-0.0607 I0.0044 J-0.0023
X1.0761 Y4.834 Z-0.0613 I-0.0044 J0.0023
X1.085 Y4.8294 Z-0.0618 I0.0044 J-0.0023
X1.0761 Y4.834 Z-0.0624 I-0.0044 J0.0023
X1.085 Y4.8294 Z-0.0629 I0.0044 J-0.0023
X1.0761 Y4.834 Z-0.0635 I-0.0044 J0.0023
X1.085 Y4.8294 Z-0.064 I0.0044 J-0.0023
X1.0761 Y4.834 Z-0.0646 I-0.0044 J0.0023
X1.085 Y4.8294 Z-0.0651 I0.0044 J-0.0023
X1.0761 Y4.834 Z-0.0657 I-0.0044 J0.0023
X1.085 Y4.8294 Z-0.0662 I0.0044 J-0.0023
X1.0761 Y4.834 Z-0.0668 I-0.0044 J0.0023
X1.085 Y4.8294 Z-0.0673 I0.0044 J-0.0023
X1.0761 Y4.834 Z-0.0679 I-0.0044 J0.0023
X1.085 Y4.8294 Z-0.0684 I0.0044 J-0.0023
X1.0761 Y4.834 Z-0.0689 I-0.0044 J0.0023
X1.085 Y4.8294 Z-0.0695 I0.0044 J-0.0023
X1.0761 Y4.834 Z-0.07 I-0.0044 J0.0023
X1.085 Y4.8294 Z-0.0706 I0.0044 J-0.0023
X1.0761 Y4.834 Z-0.0711 I-0.0044 J0.0023
X1.085 Y4.8294 Z-0.0717 I0.0044 J-0.0023
X1.0761 Y4.834 Z-0.0722 I-0.0044 J0.0023
X1.085 Y4.8294 Z-0.0728 I0.0044 J-0.0023
X1.0761 Y4.834 Z-0.0733 I-0.0044 J0.0023
X1.085 Y4.8294 Z-0.0739 I0.0044 J-0.0023
X1.0761 Y4.834 Z-0.0744 I-0.0044 J0.0023
X1.085 Y4.8294 Z-0.075 I0.0044 J-0.0023
X1.0761 Y4.834 Z-0.0755 I-0.0044 J0.0023
X1.085 Y4.8294 Z-0.0761 I0.0044 J-0.0023
X1.0761 Y4.834 Z-0.0766 I-0.0044 J0.0023
X1.085 Y4.8294 Z-0.0772 I0.0044 J-0.0023
X1.0761 Y4.834 Z-0.0777 I-0.0044 J0.0023
X1.085 Y4.8294 Z-0.0783 I0.0044 J-0.0023
X1.0761 Y4.834 Z-0.0788 I-0.0044 J0.0023
X1.085 Y4.8294 Z-0.0794 I0.0044 J-0.0023
X1.0761 Y4.834 Z-0.0799 I-0.0044 J0.0023
X1.0755 Y4.8318 Z-0.08 I0.0044 J-0.0023
X1.1145 Y4.7922 I0.039 J-0.0005 F40.
Y4.8703 I0. J0.039
X1.0755 Y4.8318 I0. J-0.039
G1 Y4.8312 F20.
G3 X1.1145 Y4.7922 Z-0.0822 I0.039 J0.
Y4.8703 Z-0.0864 I0. J0.039
Y4.7922 Z-0.0907 I0. J-0.039
Y4.8703 Z-0.095 I0. J0.039
Y4.7922 Z-0.0993 I0. J-0.039
Y4.8703 Z-0.1036 I0. J0.039
Y4.7922 Z-0.1078 I0. J-0.039
Y4.8703 Z-0.1121 I0. J0.039
Y4.7922 Z-0.1164 I0. J-0.039
Y4.8703 Z-0.1207 I0. J0.039
Y4.7922 Z-0.1249 I0. J-0.039
X1.1517 Y4.843 Z-0.1275 I0. J0.039
X1.1145 Y4.8703 I-0.0372 J-0.0118 F40.
Y4.7922 I0. J-0.039
X1.1517 Y4.843 I0. J0.039
X1.1145 Y4.8703 Z-0.1292 I-0.0372 J-0.0118 F20.
Y4.7922 Z-0.1335 I0. J-0.039
Y4.8703 Z-0.1378 I0. J0.039
Y4.7922 Z-0.1421 I0. J-0.039
Y4.8703 Z-0.1463 I0. J0.039
Y4.7922 Z-0.1506 I0. J-0.039
Y4.8703 Z-0.1549 I0. J0.039
Y4.7922 Z-0.1592 I0. J-0.039
Y4.8703 Z-0.1634 I0. J0.039
Y4.7922 Z-0.1677 I0. J-0.039
Y4.8703 Z-0.172 I0. J0.039
X1.0829 Y4.8084 Z-0.175 I0. J-0.039
X1.1145 Y4.7922 I0.0316 J0.0229 F40.
Y4.8703 I0. J0.039
X1.0829 Y4.8084 I0. J-0.039
G1 X1.0844 Y4.8067 Z-0.1746
X1.0862 Y4.8053 Z-0.1741
X1.0879 Y4.8044 Z-0.1728
X1.0897 Y4.8038 Z-0.1715
X1.0922 Y4.8035 Z-0.1677
X1.0931 Z-0.1632
G0 Z0.2
X0.4185 Y4.5456
G1 Z0.1118 F40.
X0.4191 Y4.546 Z0.1079 F20.
X0.4198 Y4.5465 Z0.1061
X0.4205 Y4.5473 Z0.1044
X0.4211 Y4.5484 Z0.1033
X0.4215 Y4.5496 Z0.1023
Y4.5509 Z0.1012
X0.421 Y4.5525 Z0.1008
X0.42 Y4.5538 Z0.1004
X0.4187 Y4.5547 Z0.1
G3 X0.4143 Y4.5458 Z0.0995 I-0.0022 J-0.0045
X0.4187 Y4.5547 Z0.0989 I0.0022 J0.0045
X0.4143 Y4.5458 Z0.0984 I-0.0022 J-0.0045
X0.4187 Y4.5547 Z0.0978 I0.0022 J0.0045
X0.4143 Y4.5458 Z0.0973 I-0.0022 J-0.0045
X0.4187 Y4.5547 Z0.0967 I0.0022 J0.0045
X0.4143 Y4.5458 Z0.0962 I-0.0022 J-0.0045
X0.4187 Y4.5547 Z0.0956 I0.0022 J0.0045
X0.4143 Y4.5458 Z0.0951 I-0.0022 J-0.0045
X0.4187 Y4.5547 Z0.0945 I0.0022 J0.0045
X0.4143 Y4.5458 Z0.094 I-0.0022 J-0.0045
X0.4187 Y4.5547 Z0.0934 I0.0022 J0.0045
X0.4143 Y4.5458 Z0.0929 I-0.0022 J-0.0045
X0.4187 Y4.5547 Z0.0923 I0.0022 J0.0045
X0.4143 Y4.5458 Z0.0918 I-0.0022 J-0.0045
X0.4187 Y4.5547 Z0.0912 I0.0022 J0.0045
X0.4143 Y4.5458 Z0.0907 I-0.0022 J-0.0045
X0.4187 Y4.5547 Z0.0901 I0.0022 J0.0045
X0.4143 Y4.5458 Z0.0896 I-0.0022 J-0.0045
X0.4187 Y4.5547 Z0.089 I0.0022 J0.0045
X0.4143 Y4.5458 Z0.0885 I-0.0022 J-0.0045
X0.4187 Y4.5547 Z0.0879 I0.0022 J0.0045
X0.4143 Y4.5458 Z0.0874 I-0.0022 J-0.0045
X0.4187 Y4.5547 Z0.0868 I0.0022 J0.0045
X0.4143 Y4.5458 Z0.0863 I-0.0022 J-0.0045
X0.4187 Y4.5547 Z0.0857 I0.0022 J0.0045
X0.4143 Y4.5458 Z0.0852 I-0.0022 J-0.0045
X0.4187 Y4.5547 Z0.0846 I0.0022 J0.0045
X0.4143 Y4.5458 Z0.0841 I-0.0022 J-0.0045
X0.4187 Y4.5547 Z0.0835 I0.0022 J0.0045
X0.4143 Y4.5458 Z0.083 I-0.0022 J-0.0045
X0.4187 Y4.5547 Z0.0824 I0.0022 J0.0045
X0.4143 Y4.5458 Z0.0819 I-0.0022 J-0.0045
X0.4187 Y4.5547 Z0.0813 I0.0022 J0.0045
X0.4143 Y4.5458 Z0.0808 I-0.0022 J-0.0045
X0.4187 Y4.5547 Z0.0803 I0.0022 J0.0045
X0.4143 Y4.5458 Z0.0797 I-0.0022 J-0.0045
X0.4187 Y4.5547 Z0.0792 I0.0022 J0.0045
X0.4143 Y4.5458 Z0.0786 I-0.0022 J-0.0045
X0.4187 Y4.5547 Z0.0781 I0.0022 J0.0045
X0.4143 Y4.5458 Z0.0775 I-0.0022 J-0.0045
X0.4187 Y4.5547 Z0.077 I0.0022 J0.0045
X0.4143 Y4.5458 Z0.0764 I-0.0022 J-0.0045
X0.4187 Y4.5547 Z0.0759 I0.0022 J0.0045
X0.4143 Y4.5458 Z0.0753 I-0.0022 J-0.0045
X0.4187 Y4.5547 Z0.0748 I0.0022 J0.0045
X0.4143 Y4.5458 Z0.0742 I-0.0022 J-0.0045
X0.4187 Y4.5547 Z0.0737 I0.0022 J0.0045
X0.4143 Y4.5458 Z0.0731 I-0.0022 J-0.0045
X0.4187 Y4.5547 Z0.0726 I0.0022 J0.0045
X0.4143 Y4.5458 Z0.072 I-0.0022 J-0.0045
X0.4187 Y4.5547 Z0.0715 I0.0022 J0.0045
X0.4143 Y4.5458 Z0.0709 I-0.0022 J-0.0045
X0.4187 Y4.5547 Z0.0704 I0.0022 J0.0045
X0.4143 Y4.5458 Z0.0698 I-0.0022 J-0.0045
X0.4187 Y4.5547 Z0.0693 I0.0022 J0.0045
X0.4143 Y4.5458 Z0.0687 I-0.0022 J-0.0045
X0.4187 Y4.5547 Z0.0682 I0.0022 J0.0045
X0.4143 Y4.5458 Z0.0676 I-0.0022 J-0.0045
X0.4187 Y4.5547 Z0.0671 I0.0022 J0.0045
X0.4143 Y4.5458 Z0.0665 I-0.0022 J-0.0045
X0.4187 Y4.5547 Z0.066 I0.0022 J0.0045
X0.4143 Y4.5458 Z0.0654 I-0.0022 J-0.0045
X0.4187 Y4.5547 Z0.0649 I0.0022 J0.0045
X0.4143 Y4.5458 Z0.0643 I-0.0022 J-0.0045
X0.4187 Y4.5547 Z0.0638 I0.0022 J0.0045
X0.4143 Y4.5458 Z0.0632 I-0.0022 J-0.0045
X0.4187 Y4.5547 Z0.0627 I0.0022 J0.0045
X0.4143 Y4.5458 Z0.0622 I-0.0022 J-0.0045
X0.4187 Y4.5547 Z0.0616 I0.0022 J0.0045
X0.4143 Y4.5458 Z0.0611 I-0.0022 J-0.0045
X0.4187 Y4.5547 Z0.0605 I0.0022 J0.0045
X0.4143 Y4.5458 Z0.06 I-0.0022 J-0.0045
X0.4187 Y4.5547 Z0.0594 I0.0022 J0.0045
X0.4143 Y4.5458 Z0.0589 I-0.0022 J-0.0045
X0.4187 Y4.5547 Z0.0583 I0.0022 J0.0045
X0.4143 Y4.5458 Z0.0578 I-0.0022 J-0.0045
X0.4187 Y4.5547 Z0.0572 I0.0022 J0.0045
X0.4143 Y4.5458 Z0.0567 I-0.0022 J-0.0045
X0.4187 Y4.5547 Z0.0561 I0.0022 J0.0045
X0.4143 Y4.5458 Z0.0556 I-0.0022 J-0.0045
X0.4187 Y4.5547 Z0.055 I0.0022 J0.0045
X0.4143 Y4.5458 Z0.0545 I-0.0022 J-0.0045
X0.4187 Y4.5547 Z0.0539 I0.0022 J0.0045
X0.4143 Y4.5458 Z0.0534 I-0.0022 J-0.0045
X0.4187 Y4.5547 Z0.0528 I0.0022 J0.0045
X0.4143 Y4.5458 Z0.0523 I-0.0022 J-0.0045
X0.4187 Y4.5547 Z0.0517 I0.0022 J0.0045
X0.4143 Y4.5458 Z0.0512 I-0.0022 J-0.0045
X0.4187 Y4.5547 Z0.0506 I0.0022 J0.0045
X0.4143 Y4.5458 Z0.0501 I-0.0022 J-0.0045
X0.4187 Y4.5547 Z0.0495 I0.0022 J0.0045
X0.4143 Y4.5458 Z0.049 I-0.0022 J-0.0045
X0.4187 Y4.5547 Z0.0484 I0.0022 J0.0045
X0.4143 Y4.5458 Z0.0479 I-0.0022 J-0.0045
X0.4187 Y4.5547 Z0.0473 I0.0022 J0.0045
X0.4143 Y4.5458 Z0.0468 I-0.0022 J-0.0045
X0.4187 Y4.5547 Z0.0462 I0.0022 J0.0045
X0.4143 Y4.5458 Z0.0457 I-0.0022 J-0.0045
X0.4187 Y4.5547 Z0.0451 I0.0022 J0.0045
X0.4143 Y4.5458 Z0.0446 I-0.0022 J-0.0045
X0.4187 Y4.5547 Z0.044 I0.0022 J0.0045
X0.4143 Y4.5458 Z0.0435 I-0.0022 J-0.0045
X0.4187 Y4.5547 Z0.043 I0.0022 J0.0045
X0.4143 Y4.5458 Z0.0424 I-0.0022 J-0.0045
X0.4187 Y4.5547 Z0.0419 I0.0022 J0.0045
X0.4143 Y4.5458 Z0.0413 I-0.0022 J-0.0045
X0.4187 Y4.5547 Z0.0408 I0.0022 J0.0045
X0.4143 Y4.5458 Z0.0402 I-0.0022 J-0.0045
X0.4187 Y4.5547 Z0.0397 I0.0022 J0.0045
X0.4143 Y4.5458 Z0.0391 I-0.0022 J-0.0045
X0.4187 Y4.5547 Z0.0386 I0.0022 J0.0045
X0.4143 Y4.5458 Z0.038 I-0.0022 J-0.0045
X0.4187 Y4.5547 Z0.0375 I0.0022 J0.0045
X0.4143 Y4.5458 Z0.0369 I-0.0022 J-0.0045
X0.4187 Y4.5547 Z0.0364 I0.0022 J0.0045
X0.4143 Y4.5458 Z0.0358 I-0.0022 J-0.0045
X0.4187 Y4.5547 Z0.0353 I0.0022 J0.0045
X0.4143 Y4.5458 Z0.0347 I-0.0022 J-0.0045
X0.4187 Y4.5547 Z0.0342 I0.0022 J0.0045
X0.4143 Y4.5458 Z0.0336 I-0.0022 J-0.0045
X0.4187 Y4.5547 Z0.0331 I0.0022 J0.0045
X0.4143 Y4.5458 Z0.0325 I-0.0022 J-0.0045
X0.4187 Y4.5547 Z0.032 I0.0022 J0.0045
X0.4143 Y4.5458 Z0.0314 I-0.0022 J-0.0045
X0.4187 Y4.5547 Z0.0309 I0.0022 J0.0045
X0.4143 Y4.5458 Z0.0303 I-0.0022 J-0.0045
X0.4187 Y4.5547 Z0.0298 I0.0022 J0.0045
X0.4143 Y4.5458 Z0.0292 I-0.0022 J-0.0045
X0.4187 Y4.5547 Z0.0287 I0.0022 J0.0045
X0.4143 Y4.5458 Z0.0281 I-0.0022 J-0.0045
X0.4187 Y4.5547 Z0.0276 I0.0022 J0.0045
X0.4143 Y4.5458 Z0.027 I-0.0022 J-0.0045
X0.4187 Y4.5547 Z0.0265 I0.0022 J0.0045
X0.4143 Y4.5458 Z0.0259 I-0.0022 J-0.0045
X0.4187 Y4.5547 Z0.0254 I0.0022 J0.0045
X0.4143 Y4.5458 Z0.0249 I-0.0022 J-0.0045
X0.4187 Y4.5547 Z0.0243 I0.0022 J0.0045
X0.4143 Y4.5458 Z0.0238 I-0.0022 J-0.0045
X0.4187 Y4.5547 Z0.0232 I0.0022 J0.0045
X0.4143 Y4.5458 Z0.0227 I-0.0022 J-0.0045
X0.4187 Y4.5547 Z0.0221 I0.0022 J0.0045
X0.4143 Y4.5458 Z0.0216 I-0.0022 J-0.0045
X0.4187 Y4.5547 Z0.021 I0.0022 J0.0045
X0.4143 Y4.5458 Z0.0205 I-0.0022 J-0.0045
X0.4187 Y4.5547 Z0.0199 I0.0022 J0.0045
X0.4143 Y4.5458 Z0.0194 I-0.0022 J-0.0045
X0.4187 Y4.5547 Z0.0188 I0.0022 J0.0045
X0.4143 Y4.5458 Z0.0183 I-0.0022 J-0.0045
X0.4187 Y4.5547 Z0.0177 I0.0022 J0.0045
X0.4143 Y4.5458 Z0.0172 I-0.0022 J-0.0045
X0.4187 Y4.5547 Z0.0166 I0.0022 J0.0045
X0.4143 Y4.5458 Z0.0161 I-0.0022 J-0.0045
X0.4187 Y4.5547 Z0.0155 I0.0022 J0.0045
X0.4143 Y4.5458 Z0.015 I-0.0022 J-0.0045
X0.4187 Y4.5547 Z0.0144 I0.0022 J0.0045
X0.4143 Y4.5458 Z0.0139 I-0.0022 J-0.0045
X0.4187 Y4.5547 Z0.0133 I0.0022 J0.0045
X0.4143 Y4.5458 Z0.0128 I-0.0022 J-0.0045
X0.4187 Y4.5547 Z0.0122 I0.0022 J0.0045
X0.4143 Y4.5458 Z0.0117 I-0.0022 J-0.0045
X0.4187 Y4.5547 Z0.0111 I0.0022 J0.0045
X0.4143 Y4.5458 Z0.0106 I-0.0022 J-0.0045
X0.4187 Y4.5547 Z0.01 I0.0022 J0.0045
X0.4143 Y4.5458 Z0.0095 I-0.0022 J-0.0045
X0.4187 Y4.5547 Z0.0089 I0.0022 J0.0045
X0.4143 Y4.5458 Z0.0084 I-0.0022 J-0.0045
X0.4187 Y4.5547 Z0.0078 I0.0022 J0.0045
X0.4143 Y4.5458 Z0.0073 I-0.0022 J-0.0045
X0.4187 Y4.5547 Z0.0067 I0.0022 J0.0045
X0.4143 Y4.5458 Z0.0062 I-0.0022 J-0.0045
X0.4187 Y4.5547 Z0.0057 I0.0022 J0.0045
X0.4143 Y4.5458 Z0.0051 I-0.0022 J-0.0045
X0.4187 Y4.5547 Z0.0046 I0.0022 J0.0045
X0.4143 Y4.5458 Z0.004 I-0.0022 J-0.0045
X0.4187 Y4.5547 Z0.0035 I0.0022 J0.0045
X0.4143 Y4.5458 Z0.0029 I-0.0022 J-0.0045
X0.4187 Y4.5547 Z0.0024 I0.0022 J0.0045
X0.4143 Y4.5458 Z0.0018 I-0.0022 J-0.0045
X0.4187 Y4.5547 Z0.0013 I0.0022 J0.0045
X0.4143 Y4.5458 Z0.0007 I-0.0022 J-0.0045
X0.4187 Y4.5547 Z0.0002 I0.0022 J0.0045
X0.4143 Y4.5458 Z-0.0004 I-0.0022 J-0.0045
X0.4187 Y4.5547 Z-0.0009 I0.0022 J0.0045
X0.4143 Y4.5458 Z-0.0015 I-0.0022 J-0.0045
X0.4187 Y4.5547 Z-0.002 I0.0022 J0.0045
X0.4143 Y4.5458 Z-0.0026 I-0.0022 J-0.0045
X0.4187 Y4.5547 Z-0.0031 I0.0022 J0.0045
X0.4143 Y4.5458 Z-0.0037 I-0.0022 J-0.0045
X0.4187 Y4.5547 Z-0.0042 I0.0022 J0.0045
X0.4143 Y4.5458 Z-0.0048 I-0.0022 J-0.0045
X0.4187 Y4.5547 Z-0.0053 I0.0022 J0.0045
X0.4143 Y4.5458 Z-0.0059 I-0.0022 J-0.0045
X0.4187 Y4.5547 Z-0.0064 I0.0022 J0.0045
X0.4143 Y4.5458 Z-0.007 I-0.0022 J-0.0045
X0.4187 Y4.5547 Z-0.0075 I0.0022 J0.0045
X0.4143 Y4.5458 Z-0.0081 I-0.0022 J-0.0045
X0.4187 Y4.5547 Z-0.0086 I0.0022 J0.0045
X0.4143 Y4.5458 Z-0.0092 I-0.0022 J-0.0045
X0.4187 Y4.5547 Z-0.0097 I0.0022 J0.0045
X0.4143 Y4.5458 Z-0.0103 I-0.0022 J-0.0045
X0.4187 Y4.5547 Z-0.0108 I0.0022 J0.0045
X0.4143 Y4.5458 Z-0.0114 I-0.0022 J-0.0045
X0.4187 Y4.5547 Z-0.0119 I0.0022 J0.0045
X0.4143 Y4.5458 Z-0.0124 I-0.0022 J-0.0045
X0.4187 Y4.5547 Z-0.013 I0.0022 J0.0045
X0.4143 Y4.5458 Z-0.0135 I-0.0022 J-0.0045
X0.4187 Y4.5547 Z-0.0141 I0.0022 J0.0045
X0.4143 Y4.5458 Z-0.0146 I-0.0022 J-0.0045
X0.4187 Y4.5547 Z-0.0152 I0.0022 J0.0045
X0.4143 Y4.5458 Z-0.0157 I-0.0022 J-0.0045
X0.4187 Y4.5547 Z-0.0163 I0.0022 J0.0045
X0.4143 Y4.5458 Z-0.0168 I-0.0022 J-0.0045
X0.4187 Y4.5547 Z-0.0174 I0.0022 J0.0045
X0.4143 Y4.5458 Z-0.0179 I-0.0022 J-0.0045
X0.4187 Y4.5547 Z-0.0185 I0.0022 J0.0045
X0.4143 Y4.5458 Z-0.019 I-0.0022 J-0.0045
X0.4187 Y4.5547 Z-0.0196 I0.0022 J0.0045
X0.4143 Y4.5458 Z-0.0201 I-0.0022 J-0.0045
X0.4187 Y4.5547 Z-0.0207 I0.0022 J0.0045
X0.4143 Y4.5458 Z-0.0212 I-0.0022 J-0.0045
X0.4187 Y4.5547 Z-0.0218 I0.0022 J0.0045
X0.4143 Y4.5458 Z-0.0223 I-0.0022 J-0.0045
X0.4187 Y4.5547 Z-0.0229 I0.0022 J0.0045
X0.4143 Y4.5458 Z-0.0234 I-0.0022 J-0.0045
X0.4187 Y4.5547 Z-0.024 I0.0022 J0.0045
X0.4143 Y4.5458 Z-0.0245 I-0.0022 J-0.0045
X0.4187 Y4.5547 Z-0.0251 I0.0022 J0.0045
X0.4143 Y4.5458 Z-0.0256 I-0.0022 J-0.0045
X0.4187 Y4.5547 Z-0.0262 I0.0022 J0.0045
X0.4143 Y4.5458 Z-0.0267 I-0.0022 J-0.0045
X0.4187 Y4.5547 Z-0.0273 I0.0022 J0.0045
X0.4143 Y4.5458 Z-0.0278 I-0.0022 J-0.0045
X0.4187 Y4.5547 Z-0.0284 I0.0022 J0.0045
X0.4143 Y4.5458 Z-0.0289 I-0.0022 J-0.0045
X0.4187 Y4.5547 Z-0.0295 I0.0022 J0.0045
X0.4143 Y4.5458 Z-0.03 I-0.0022 J-0.0045
X0.4187 Y4.5547 Z-0.0306 I0.0022 J0.0045
X0.4143 Y4.5458 Z-0.0311 I-0.0022 J-0.0045
X0.4187 Y4.5547 Z-0.0316 I0.0022 J0.0045
X0.4143 Y4.5458 Z-0.0322 I-0.0022 J-0.0045
X0.4187 Y4.5547 Z-0.0327 I0.0022 J0.0045
X0.4143 Y4.5458 Z-0.0333 I-0.0022 J-0.0045
X0.4187 Y4.5547 Z-0.0338 I0.0022 J0.0045
X0.4143 Y4.5458 Z-0.0344 I-0.0022 J-0.0045
X0.4187 Y4.5547 Z-0.0349 I0.0022 J0.0045
X0.4143 Y4.5458 Z-0.0355 I-0.0022 J-0.0045
X0.4187 Y4.5547 Z-0.036 I0.0022 J0.0045
X0.4143 Y4.5458 Z-0.0366 I-0.0022 J-0.0045
X0.4187 Y4.5547 Z-0.0371 I0.0022 J0.0045
X0.4143 Y4.5458 Z-0.0377 I-0.0022 J-0.0045
X0.4187 Y4.5547 Z-0.0382 I0.0022 J0.0045
X0.4143 Y4.5458 Z-0.0388 I-0.0022 J-0.0045
X0.4187 Y4.5547 Z-0.0393 I0.0022 J0.0045
X0.4143 Y4.5458 Z-0.0399 I-0.0022 J-0.0045
X0.4187 Y4.5547 Z-0.0404 I0.0022 J0.0045
X0.4143 Y4.5458 Z-0.041 I-0.0022 J-0.0045
X0.4187 Y4.5547 Z-0.0415 I0.0022 J0.0045
X0.4143 Y4.5458 Z-0.0421 I-0.0022 J-0.0045
X0.4187 Y4.5547 Z-0.0426 I0.0022 J0.0045
X0.4143 Y4.5458 Z-0.0432 I-0.0022 J-0.0045
X0.4187 Y4.5547 Z-0.0437 I0.0022 J0.0045
X0.4143 Y4.5458 Z-0.0443 I-0.0022 J-0.0045
X0.4187 Y4.5547 Z-0.0448 I0.0022 J0.0045
X0.4143 Y4.5458 Z-0.0454 I-0.0022 J-0.0045
X0.4187 Y4.5547 Z-0.0459 I0.0022 J0.0045
X0.4143 Y4.5458 Z-0.0465 I-0.0022 J-0.0045
X0.4187 Y4.5547 Z-0.047 I0.0022 J0.0045
X0.4143 Y4.5458 Z-0.0476 I-0.0022 J-0.0045
X0.4187 Y4.5547 Z-0.0481 I0.0022 J0.0045
X0.4143 Y4.5458 Z-0.0487 I-0.0022 J-0.0045
X0.4187 Y4.5547 Z-0.0492 I0.0022 J0.0045
X0.4143 Y4.5458 Z-0.0497 I-0.0022 J-0.0045
X0.4187 Y4.5547 Z-0.0503 I0.0022 J0.0045
X0.4143 Y4.5458 Z-0.0508 I-0.0022 J-0.0045
X0.4187 Y4.5547 Z-0.0514 I0.0022 J0.0045
X0.4143 Y4.5458 Z-0.0519 I-0.0022 J-0.0045
X0.4187 Y4.5547 Z-0.0525 I0.0022 J0.0045
X0.4143 Y4.5458 Z-0.053 I-0.0022 J-0.0045
X0.4187 Y4.5547 Z-0.0536 I0.0022 J0.0045
X0.4143 Y4.5458 Z-0.0541 I-0.0022 J-0.0045
X0.4187 Y4.5547 Z-0.0547 I0.0022 J0.0045
X0.4143 Y4.5458 Z-0.0552 I-0.0022 J-0.0045
X0.4187 Y4.5547 Z-0.0558 I0.0022 J0.0045
X0.4143 Y4.5458 Z-0.0563 I-0.0022 J-0.0045
X0.4187 Y4.5547 Z-0.0569 I0.0022 J0.0045
X0.4143 Y4.5458 Z-0.0574 I-0.0022 J-0.0045
X0.4187 Y4.5547 Z-0.058 I0.0022 J0.0045
X0.4143 Y4.5458 Z-0.0585 I-0.0022 J-0.0045
X0.4187 Y4.5547 Z-0.0591 I0.0022 J0.0045
X0.4143 Y4.5458 Z-0.0596 I-0.0022 J-0.0045
X0.4187 Y4.5547 Z-0.0602 I0.0022 J0.0045
X0.4143 Y4.5458 Z-0.0607 I-0.0022 J-0.0045
X0.4187 Y4.5547 Z-0.0613 I0.0022 J0.0045
X0.4143 Y4.5458 Z-0.0618 I-0.0022 J-0.0045
X0.4187 Y4.5547 Z-0.0624 I0.0022 J0.0045
X0.4143 Y4.5458 Z-0.0629 I-0.0022 J-0.0045
X0.4187 Y4.5547 Z-0.0635 I0.0022 J0.0045
X0.4143 Y4.5458 Z-0.064 I-0.0022 J-0.0045
X0.4187 Y4.5547 Z-0.0646 I0.0022 J0.0045
X0.4143 Y4.5458 Z-0.0651 I-0.0022 J-0.0045
X0.4187 Y4.5547 Z-0.0657 I0.0022 J0.0045
X0.4143 Y4.5458 Z-0.0662 I-0.0022 J-0.0045
X0.4187 Y4.5547 Z-0.0668 I0.0022 J0.0045
X0.4143 Y4.5458 Z-0.0673 I-0.0022 J-0.0045
X0.4187 Y4.5547 Z-0.0679 I0.0022 J0.0045
X0.4143 Y4.5458 Z-0.0684 I-0.0022 J-0.0045
X0.4187 Y4.5547 Z-0.0689 I0.0022 J0.0045
X0.4143 Y4.5458 Z-0.0695 I-0.0022 J-0.0045
X0.4187 Y4.5547 Z-0.07 I0.0022 J0.0045
X0.4143 Y4.5458 Z-0.0706 I-0.0022 J-0.0045
X0.4187 Y4.5547 Z-0.0711 I0.0022 J0.0045
X0.4143 Y4.5458 Z-0.0717 I-0.0022 J-0.0045
X0.4187 Y4.5547 Z-0.0722 I0.0022 J0.0045
X0.4143 Y4.5458 Z-0.0728 I-0.0022 J-0.0045
X0.4187 Y4.5547 Z-0.0733 I0.0022 J0.0045
X0.4143 Y4.5458 Z-0.0739 I-0.0022 J-0.0045
X0.4187 Y4.5547 Z-0.0744 I0.0022 J0.0045
X0.4143 Y4.5458 Z-0.075 I-0.0022 J-0.0045
X0.4187 Y4.5547 Z-0.0755 I0.0022 J0.0045
X0.4143 Y4.5458 Z-0.0761 I-0.0022 J-0.0045
X0.4187 Y4.5547 Z-0.0766 I0.0022 J0.0045
X0.4143 Y4.5458 Z-0.0772 I-0.0022 J-0.0045
X0.4187 Y4.5547 Z-0.0777 I0.0022 J0.0045
X0.4143 Y4.5458 Z-0.0783 I-0.0022 J-0.0045
X0.4187 Y4.5547 Z-0.0788 I0.0022 J0.0045
X0.4143 Y4.5458 Z-0.0794 I-0.0022 J-0.0045
X0.4187 Y4.5547 Z-0.0799 I0.0022 J0.0045
X0.4165 Y4.5553 Z-0.08 I-0.0022 J-0.0045
Y4.5033 I0. J-0.026 F40.
Y4.5553 I0. J0.026
Y4.5033 Z-0.0829 I0. J-0.026 F20.
Y4.5553 Z-0.0857 I0. J0.026
Y4.5033 Z-0.0886 I0. J-0.026
Y4.5553 Z-0.0914 I0. J0.026
Y4.5033 Z-0.0943 I0. J-0.026
Y4.5553 Z-0.0971 I0. J0.026
Y4.5033 Z-0.1 I0. J-0.026
Y4.5553 Z-0.1028 I0. J0.026
Y4.5033 Z-0.1057 I0. J-0.026
Y4.5553 Z-0.1085 I0. J0.026
Y4.5033 Z-0.1114 I0. J-0.026
Y4.5553 Z-0.1142 I0. J0.026
Y4.5033 Z-0.1171 I0. J-0.026
Y4.5553 Z-0.1199 I0. J0.026
Y4.5033 Z-0.1228 I0. J-0.026
Y4.5553 Z-0.1256 I0. J0.026
X0.3934 Y4.5172 Z-0.1275 I0. J-0.026
X0.4396 Y4.5413 I0.0231 J0.012 F40.
X0.3934 Y4.5172 I-0.0231 J-0.012
X0.4396 Y4.5413 Z-0.1304 I0.0231 J0.012 F20.
X0.3934 Y4.5172 Z-0.1332 I-0.0231 J-0.012
X0.4396 Y4.5413 Z-0.1361 I0.0231 J0.012
X0.3934 Y4.5172 Z-0.1389 I-0.0231 J-0.012
X0.4396 Y4.5413 Z-0.1418 I0.0231 J0.012
X0.3934 Y4.5172 Z-0.1446 I-0.0231 J-0.012
X0.4396 Y4.5413 Z-0.1475 I0.0231 J0.012
X0.3934 Y4.5172 Z-0.1503 I-0.0231 J-0.012
X0.4396 Y4.5413 Z-0.1532 I0.0231 J0.012
X0.3934 Y4.5172 Z-0.156 I-0.0231 J-0.012
X0.4396 Y4.5413 Z-0.1589 I0.0231 J0.012
X0.3934 Y4.5172 Z-0.1617 I-0.0231 J-0.012
X0.4396 Y4.5413 Z-0.1646 I0.0231 J0.012
X0.3934 Y4.5172 Z-0.1674 I-0.0231 J-0.012
X0.4396 Y4.5413 Z-0.1703 I0.0231 J0.012
X0.3934 Y4.5172 Z-0.1731 I-0.0231 J-0.012
X0.4378 Y4.5143 Z-0.175 I0.0231 J0.012
X0.3952 Y4.5442 I-0.0213 J0.0149 F40.
X0.4378 Y4.5143 I0.0213 J-0.0149
G1 X0.4389 Y4.5163 Z-0.1746
X0.4396 Y4.5184 Z-0.1741
X0.4399 Y4.5203 Z-0.1728
Y4.5222 Z-0.1715
X0.4394 Y4.5247 Z-0.1677
X0.439 Y4.5256 Z-0.1632
G0 Z0.2
X1.8145 Y4.5456
G1 Z0.1118 F40.
X1.8151 Y4.546 Z0.1079 F20.
X1.8158 Y4.5465 Z0.1061
X1.8165 Y4.5473 Z0.1044
X1.8171 Y4.5484 Z0.1033
X1.8175 Y4.5496 Z0.1023
Y4.5509 Z0.1012
X1.817 Y4.5525 Z0.1008
X1.816 Y4.5538 Z0.1004
X1.8147 Y4.5547 Z0.1
G3 X1.8103 Y4.5458 Z0.0995 I-0.0022 J-0.0045
X1.8147 Y4.5547 Z0.0989 I0.0022 J0.0045
X1.8103 Y4.5458 Z0.0984 I-0.0022 J-0.0045
X1.8147 Y4.5547 Z0.0978 I0.0022 J0.0045
X1.8103 Y4.5458 Z0.0973 I-0.0022 J-0.0045
X1.8147 Y4.5547 Z0.0967 I0.0022 J0.0045
X1.8103 Y4.5458 Z0.0962 I-0.0022 J-0.0045
X1.8147 Y4.5547 Z0.0956 I0.0022 J0.0045
X1.8103 Y4.5458 Z0.0951 I-0.0022 J-0.0045
X1.8147 Y4.5547 Z0.0945 I0.0022 J0.0045
X1.8103 Y4.5458 Z0.094 I-0.0022 J-0.0045
X1.8147 Y4.5547 Z0.0934 I0.0022 J0.0045
X1.8103 Y4.5458 Z0.0929 I-0.0022 J-0.0045
X1.8147 Y4.5547 Z0.0923 I0.0022 J0.0045
X1.8103 Y4.5458 Z0.0918 I-0.0022 J-0.0045
X1.8147 Y4.5547 Z0.0912 I0.0022 J0.0045
X1.8103 Y4.5458 Z0.0907 I-0.0022 J-0.0045
X1.8147 Y4.5547 Z0.0901 I0.0022 J0.0045
X1.8103 Y4.5458 Z0.0896 I-0.0022 J-0.0045
X1.8147 Y4.5547 Z0.089 I0.0022 J0.0045
X1.8103 Y4.5458 Z0.0885 I-0.0022 J-0.0045
X1.8147 Y4.5547 Z0.0879 I0.0022 J0.0045
X1.8103 Y4.5458 Z0.0874 I-0.0022 J-0.0045
X1.8147 Y4.5547 Z0.0868 I0.0022 J0.0045
X1.8103 Y4.5458 Z0.0863 I-0.0022 J-0.0045
X1.8147 Y4.5547 Z0.0857 I0.0022 J0.0045
X1.8103 Y4.5458 Z0.0852 I-0.0022 J-0.0045
X1.8147 Y4.5547 Z0.0846 I0.0022 J0.0045
X1.8103 Y4.5458 Z0.0841 I-0.0022 J-0.0045
X1.8147 Y4.5547 Z0.0835 I0.0022 J0.0045
X1.8103 Y4.5458 Z0.083 I-0.0022 J-0.0045
X1.8147 Y4.5547 Z0.0824 I0.0022 J0.0045
X1.8103 Y4.5458 Z0.0819 I-0.0022 J-0.0045
X1.8147 Y4.5547 Z0.0813 I0.0022 J0.0045
X1.8103 Y4.5458 Z0.0808 I-0.0022 J-0.0045
X1.8147 Y4.5547 Z0.0803 I0.0022 J0.0045
X1.8103 Y4.5458 Z0.0797 I-0.0022 J-0.0045
X1.8147 Y4.5547 Z0.0792 I0.0022 J0.0045
X1.8103 Y4.5458 Z0.0786 I-0.0022 J-0.0045
X1.8147 Y4.5547 Z0.0781 I0.0022 J0.0045
X1.8103 Y4.5458 Z0.0775 I-0.0022 J-0.0045
X1.8147 Y4.5547 Z0.077 I0.0022 J0.0045
X1.8103 Y4.5458 Z0.0764 I-0.0022 J-0.0045
X1.8147 Y4.5547 Z0.0759 I0.0022 J0.0045
X1.8103 Y4.5458 Z0.0753 I-0.0022 J-0.0045
X1.8147 Y4.5547 Z0.0748 I0.0022 J0.0045
X1.8103 Y4.5458 Z0.0742 I-0.0022 J-0.0045
X1.8147 Y4.5547 Z0.0737 I0.0022 J0.0045
X1.8103 Y4.5458 Z0.0731 I-0.0022 J-0.0045
X1.8147 Y4.5547 Z0.0726 I0.0022 J0.0045
X1.8103 Y4.5458 Z0.072 I-0.0022 J-0.0045
X1.8147 Y4.5547 Z0.0715 I0.0022 J0.0045
X1.8103 Y4.5458 Z0.0709 I-0.0022 J-0.0045
X1.8147 Y4.5547 Z0.0704 I0.0022 J0.0045
X1.8103 Y4.5458 Z0.0698 I-0.0022 J-0.0045
X1.8147 Y4.5547 Z0.0693 I0.0022 J0.0045
X1.8103 Y4.5458 Z0.0687 I-0.0022 J-0.0045
X1.8147 Y4.5547 Z0.0682 I0.0022 J0.0045
X1.8103 Y4.5458 Z0.0676 I-0.0022 J-0.0045
X1.8147 Y4.5547 Z0.0671 I0.0022 J0.0045
X1.8103 Y4.5458 Z0.0665 I-0.0022 J-0.0045
X1.8147 Y4.5547 Z0.066 I0.0022 J0.0045
X1.8103 Y4.5458 Z0.0654 I-0.0022 J-0.0045
X1.8147 Y4.5547 Z0.0649 I0.0022 J0.0045
X1.8103 Y4.5458 Z0.0643 I-0.0022 J-0.0045
X1.8147 Y4.5547 Z0.0638 I0.0022 J0.0045
X1.8103 Y4.5458 Z0.0632 I-0.0022 J-0.0045
X1.8147 Y4.5547 Z0.0627 I0.0022 J0.0045
X1.8103 Y4.5458 Z0.0622 I-0.0022 J-0.0045
X1.8147 Y4.5547 Z0.0616 I0.0022 J0.0045
X1.8103 Y4.5458 Z0.0611 I-0.0022 J-0.0045
X1.8147 Y4.5547 Z0.0605 I0.0022 J0.0045
X1.8103 Y4.5458 Z0.06 I-0.0022 J-0.0045
X1.8147 Y4.5547 Z0.0594 I0.0022 J0.0045
X1.8103 Y4.5458 Z0.0589 I-0.0022 J-0.0045
X1.8147 Y4.5547 Z0.0583 I0.0022 J0.0045
X1.8103 Y4.5458 Z0.0578 I-0.0022 J-0.0045
X1.8147 Y4.5547 Z0.0572 I0.0022 J0.0045
X1.8103 Y4.5458 Z0.0567 I-0.0022 J-0.0045
X1.8147 Y4.5547 Z0.0561 I0.0022 J0.0045
X1.8103 Y4.5458 Z0.0556 I-0.0022 J-0.0045
X1.8147 Y4.5547 Z0.055 I0.0022 J0.0045
X1.8103 Y4.5458 Z0.0545 I-0.0022 J-0.0045
X1.8147 Y4.5547 Z0.0539 I0.0022 J0.0045
X1.8103 Y4.5458 Z0.0534 I-0.0022 J-0.0045
X1.8147 Y4.5547 Z0.0528 I0.0022 J0.0045
X1.8103 Y4.5458 Z0.0523 I-0.0022 J-0.0045
X1.8147 Y4.5547 Z0.0517 I0.0022 J0.0045
X1.8103 Y4.5458 Z0.0512 I-0.0022 J-0.0045
X1.8147 Y4.5547 Z0.0506 I0.0022 J0.0045
X1.8103 Y4.5458 Z0.0501 I-0.0022 J-0.0045
X1.8147 Y4.5547 Z0.0495 I0.0022 J0.0045
X1.8103 Y4.5458 Z0.049 I-0.0022 J-0.0045
X1.8147 Y4.5547 Z0.0484 I0.0022 J0.0045
X1.8103 Y4.5458 Z0.0479 I-0.0022 J-0.0045
X1.8147 Y4.5547 Z0.0473 I0.0022 J0.0045
X1.8103 Y4.5458 Z0.0468 I-0.0022 J-0.0045
X1.8147 Y4.5547 Z0.0462 I0.0022 J0.0045
X1.8103 Y4.5458 Z0.0457 I-0.0022 J-0.0045
X1.8147 Y4.5547 Z0.0451 I0.0022 J0.0045
X1.8103 Y4.5458 Z0.0446 I-0.0022 J-0.0045
X1.8147 Y4.5547 Z0.044 I0.0022 J0.0045
X1.8103 Y4.5458 Z0.0435 I-0.0022 J-0.0045
X1.8147 Y4.5547 Z0.043 I0.0022 J0.0045
X1.8103 Y4.5458 Z0.0424 I-0.0022 J-0.0045
X1.8147 Y4.5547 Z0.0419 I0.0022 J0.0045
X1.8103 Y4.5458 Z0.0413 I-0.0022 J-0.0045
X1.8147 Y4.5547 Z0.0408 I0.0022 J0.0045
X1.8103 Y4.5458 Z0.0402 I-0.0022 J-0.0045
X1.8147 Y4.5547 Z0.0397 I0.0022 J0.0045
X1.8103 Y4.5458 Z0.0391 I-0.0022 J-0.0045
X1.8147 Y4.5547 Z0.0386 I0.0022 J0.0045
X1.8103 Y4.5458 Z0.038 I-0.0022 J-0.0045
X1.8147 Y4.5547 Z0.0375 I0.0022 J0.0045
X1.8103 Y4.5458 Z0.0369 I-0.0022 J-0.0045
X1.8147 Y4.5547 Z0.0364 I0.0022 J0.0045
X1.8103 Y4.5458 Z0.0358 I-0.0022 J-0.0045
X1.8147 Y4.5547 Z0.0353 I0.0022 J0.0045
X1.8103 Y4.5458 Z0.0347 I-0.0022 J-0.0045
X1.8147 Y4.5547 Z0.0342 I0.0022 J0.0045
X1.8103 Y4.5458 Z0.0336 I-0.0022 J-0.0045
X1.8147 Y4.5547 Z0.0331 I0.0022 J0.0045
X1.8103 Y4.5458 Z0.0325 I-0.0022 J-0.0045
X1.8147 Y4.5547 Z0.032 I0.0022 J0.0045
X1.8103 Y4.5458 Z0.0314 I-0.0022 J-0.0045
X1.8147 Y4.5547 Z0.0309 I0.0022 J0.0045
X1.8103 Y4.5458 Z0.0303 I-0.0022 J-0.0045
X1.8147 Y4.5547 Z0.0298 I0.0022 J0.0045
X1.8103 Y4.5458 Z0.0292 I-0.0022 J-0.0045
X1.8147 Y4.5547 Z0.0287 I0.0022 J0.0045
X1.8103 Y4.5458 Z0.0281 I-0.0022 J-0.0045
X1.8147 Y4.5547 Z0.0276 I0.0022 J0.0045
X1.8103 Y4.5458 Z0.027 I-0.0022 J-0.0045
X1.8147 Y4.5547 Z0.0265 I0.0022 J0.0045
X1.8103 Y4.5458 Z0.0259 I-0.0022 J-0.0045
X1.8147 Y4.5547 Z0.0254 I0.0022 J0.0045
X1.8103 Y4.5458 Z0.0249 I-0.0022 J-0.0045
X1.8147 Y4.5547 Z0.0243 I0.0022 J0.0045
X1.8103 Y4.5458 Z0.0238 I-0.0022 J-0.0045
X1.8147 Y4.5547 Z0.0232 I0.0022 J0.0045
X1.8103 Y4.5458 Z0.0227 I-0.0022 J-0.0045
X1.8147 Y4.5547 Z0.0221 I0.0022 J0.0045
X1.8103 Y4.5458 Z0.0216 I-0.0022 J-0.0045
X1.8147 Y4.5547 Z0.021 I0.0022 J0.0045
X1.8103 Y4.5458 Z0.0205 I-0.0022 J-0.0045
X1.8147 Y4.5547 Z0.0199 I0.0022 J0.0045
X1.8103 Y4.5458 Z0.0194 I-0.0022 J-0.0045
X1.8147 Y4.5547 Z0.0188 I0.0022 J0.0045
X1.8103 Y4.5458 Z0.0183 I-0.0022 J-0.0045
X1.8147 Y4.5547 Z0.0177 I0.0022 J0.0045
X1.8103 Y4.5458 Z0.0172 I-0.0022 J-0.0045
X1.8147 Y4.5547 Z0.0166 I0.0022 J0.0045
X1.8103 Y4.5458 Z0.0161 I-0.0022 J-0.0045
X1.8147 Y4.5547 Z0.0155 I0.0022 J0.0045
X1.8103 Y4.5458 Z0.015 I-0.0022 J-0.0045
X1.8147 Y4.5547 Z0.0144 I0.0022 J0.0045
X1.8103 Y4.5458 Z0.0139 I-0.0022 J-0.0045
X1.8147 Y4.5547 Z0.0133 I0.0022 J0.0045
X1.8103 Y4.5458 Z0.0128 I-0.0022 J-0.0045
X1.8147 Y4.5547 Z0.0122 I0.0022 J0.0045
X1.8103 Y4.5458 Z0.0117 I-0.0022 J-0.0045
X1.8147 Y4.5547 Z0.0111 I0.0022 J0.0045
X1.8103 Y4.5458 Z0.0106 I-0.0022 J-0.0045
X1.8147 Y4.5547 Z0.01 I0.0022 J0.0045
X1.8103 Y4.5458 Z0.0095 I-0.0022 J-0.0045
X1.8147 Y4.5547 Z0.0089 I0.0022 J0.0045
X1.8103 Y4.5458 Z0.0084 I-0.0022 J-0.0045
X1.8147 Y4.5547 Z0.0078 I0.0022 J0.0045
X1.8103 Y4.5458 Z0.0073 I-0.0022 J-0.0045
X1.8147 Y4.5547 Z0.0067 I0.0022 J0.0045
X1.8103 Y4.5458 Z0.0062 I-0.0022 J-0.0045
X1.8147 Y4.5547 Z0.0057 I0.0022 J0.0045
X1.8103 Y4.5458 Z0.0051 I-0.0022 J-0.0045
X1.8147 Y4.5547 Z0.0046 I0.0022 J0.0045
X1.8103 Y4.5458 Z0.004 I-0.0022 J-0.0045
X1.8147 Y4.5547 Z0.0035 I0.0022 J0.0045
X1.8103 Y4.5458 Z0.0029 I-0.0022 J-0.0045
X1.8147 Y4.5547 Z0.0024 I0.0022 J0.0045
X1.8103 Y4.5458 Z0.0018 I-0.0022 J-0.0045
X1.8147 Y4.5547 Z0.0013 I0.0022 J0.0045
X1.8103 Y4.5458 Z0.0007 I-0.0022 J-0.0045
X1.8147 Y4.5547 Z0.0002 I0.0022 J0.0045
X1.8103 Y4.5458 Z-0.0004 I-0.0022 J-0.0045
X1.8147 Y4.5547 Z-0.0009 I0.0022 J0.0045
X1.8103 Y4.5458 Z-0.0015 I-0.0022 J-0.0045
X1.8147 Y4.5547 Z-0.002 I0.0022 J0.0045
X1.8103 Y4.5458 Z-0.0026 I-0.0022 J-0.0045
X1.8147 Y4.5547 Z-0.0031 I0.0022 J0.0045
X1.8103 Y4.5458 Z-0.0037 I-0.0022 J-0.0045
X1.8147 Y4.5547 Z-0.0042 I0.0022 J0.0045
X1.8103 Y4.5458 Z-0.0048 I-0.0022 J-0.0045
X1.8147 Y4.5547 Z-0.0053 I0.0022 J0.0045
X1.8103 Y4.5458 Z-0.0059 I-0.0022 J-0.0045
X1.8147 Y4.5547 Z-0.0064 I0.0022 J0.0045
X1.8103 Y4.5458 Z-0.007 I-0.0022 J-0.0045
X1.8147 Y4.5547 Z-0.0075 I0.0022 J0.0045
X1.8103 Y4.5458 Z-0.0081 I-0.0022 J-0.0045
X1.8147 Y4.5547 Z-0.0086 I0.0022 J0.0045
X1.8103 Y4.5458 Z-0.0092 I-0.0022 J-0.0045
X1.8147 Y4.5547 Z-0.0097 I0.0022 J0.0045
X1.8103 Y4.5458 Z-0.0103 I-0.0022 J-0.0045
X1.8147 Y4.5547 Z-0.0108 I0.0022 J0.0045
X1.8103 Y4.5458 Z-0.0114 I-0.0022 J-0.0045
X1.8147 Y4.5547 Z-0.0119 I0.0022 J0.0045
X1.8103 Y4.5458 Z-0.0124 I-0.0022 J-0.0045
X1.8147 Y4.5547 Z-0.013 I0.0022 J0.0045
X1.8103 Y4.5458 Z-0.0135 I-0.0022 J-0.0045
X1.8147 Y4.5547 Z-0.0141 I0.0022 J0.0045
X1.8103 Y4.5458 Z-0.0146 I-0.0022 J-0.0045
X1.8147 Y4.5547 Z-0.0152 I0.0022 J0.0045
X1.8103 Y4.5458 Z-0.0157 I-0.0022 J-0.0045
X1.8147 Y4.5547 Z-0.0163 I0.0022 J0.0045
X1.8103 Y4.5458 Z-0.0168 I-0.0022 J-0.0045
X1.8147 Y4.5547 Z-0.0174 I0.0022 J0.0045
X1.8103 Y4.5458 Z-0.0179 I-0.0022 J-0.0045
X1.8147 Y4.5547 Z-0.0185 I0.0022 J0.0045
X1.8103 Y4.5458 Z-0.019 I-0.0022 J-0.0045
X1.8147 Y4.5547 Z-0.0196 I0.0022 J0.0045
X1.8103 Y4.5458 Z-0.0201 I-0.0022 J-0.0045
X1.8147 Y4.5547 Z-0.0207 I0.0022 J0.0045
X1.8103 Y4.5458 Z-0.0212 I-0.0022 J-0.0045
X1.8147 Y4.5547 Z-0.0218 I0.0022 J0.0045
X1.8103 Y4.5458 Z-0.0223 I-0.0022 J-0.0045
X1.8147 Y4.5547 Z-0.0229 I0.0022 J0.0045
X1.8103 Y4.5458 Z-0.0234 I-0.0022 J-0.0045
X1.8147 Y4.5547 Z-0.024 I0.0022 J0.0045
X1.8103 Y4.5458 Z-0.0245 I-0.0022 J-0.0045
X1.8147 Y4.5547 Z-0.0251 I0.0022 J0.0045
X1.8103 Y4.5458 Z-0.0256 I-0.0022 J-0.0045
X1.8147 Y4.5547 Z-0.0262 I0.0022 J0.0045
X1.8103 Y4.5458 Z-0.0267 I-0.0022 J-0.0045
X1.8147 Y4.5547 Z-0.0273 I0.0022 J0.0045
X1.8103 Y4.5458 Z-0.0278 I-0.0022 J-0.0045
X1.8147 Y4.5547 Z-0.0284 I0.0022 J0.0045
X1.8103 Y4.5458 Z-0.0289 I-0.0022 J-0.0045
X1.8147 Y4.5547 Z-0.0295 I0.0022 J0.0045
X1.8103 Y4.5458 Z-0.03 I-0.0022 J-0.0045
X1.8147 Y4.5547 Z-0.0306 I0.0022 J0.0045
X1.8103 Y4.5458 Z-0.0311 I-0.0022 J-0.0045
X1.8147 Y4.5547 Z-0.0316 I0.0022 J0.0045
X1.8103 Y4.5458 Z-0.0322 I-0.0022 J-0.0045
X1.8147 Y4.5547 Z-0.0327 I0.0022 J0.0045
X1.8103 Y4.5458 Z-0.0333 I-0.0022 J-0.0045
X1.8147 Y4.5547 Z-0.0338 I0.0022 J0.0045
X1.8103 Y4.5458 Z-0.0344 I-0.0022 J-0.0045
X1.8147 Y4.5547 Z-0.0349 I0.0022 J0.0045
X1.8103 Y4.5458 Z-0.0355 I-0.0022 J-0.0045
X1.8147 Y4.5547 Z-0.036 I0.0022 J0.0045
X1.8103 Y4.5458 Z-0.0366 I-0.0022 J-0.0045
X1.8147 Y4.5547 Z-0.0371 I0.0022 J0.0045
X1.8103 Y4.5458 Z-0.0377 I-0.0022 J-0.0045
X1.8147 Y4.5547 Z-0.0382 I0.0022 J0.0045
X1.8103 Y4.5458 Z-0.0388 I-0.0022 J-0.0045
X1.8147 Y4.5547 Z-0.0393 I0.0022 J0.0045
X1.8103 Y4.5458 Z-0.0399 I-0.0022 J-0.0045
X1.8147 Y4.5547 Z-0.0404 I0.0022 J0.0045
X1.8103 Y4.5458 Z-0.041 I-0.0022 J-0.0045
X1.8147 Y4.5547 Z-0.0415 I0.0022 J0.0045
X1.8103 Y4.5458 Z-0.0421 I-0.0022 J-0.0045
X1.8147 Y4.5547 Z-0.0426 I0.0022 J0.0045
X1.8103 Y4.5458 Z-0.0432 I-0.0022 J-0.0045
X1.8147 Y4.5547 Z-0.0437 I0.0022 J0.0045
X1.8103 Y4.5458 Z-0.0443 I-0.0022 J-0.0045
X1.8147 Y4.5547 Z-0.0448 I0.0022 J0.0045
X1.8103 Y4.5458 Z-0.0454 I-0.0022 J-0.0045
X1.8147 Y4.5547 Z-0.0459 I0.0022 J0.0045
X1.8103 Y4.5458 Z-0.0465 I-0.0022 J-0.0045
X1.8147 Y4.5547 Z-0.047 I0.0022 J0.0045
X1.8103 Y4.5458 Z-0.0476 I-0.0022 J-0.0045
X1.8147 Y4.5547 Z-0.0481 I0.0022 J0.0045
X1.8103 Y4.5458 Z-0.0487 I-0.0022 J-0.0045
X1.8147 Y4.5547 Z-0.0492 I0.0022 J0.0045
X1.8103 Y4.5458 Z-0.0497 I-0.0022 J-0.0045
X1.8147 Y4.5547 Z-0.0503 I0.0022 J0.0045
X1.8103 Y4.5458 Z-0.0508 I-0.0022 J-0.0045
X1.8147 Y4.5547 Z-0.0514 I0.0022 J0.0045
X1.8103 Y4.5458 Z-0.0519 I-0.0022 J-0.0045
X1.8147 Y4.5547 Z-0.0525 I0.0022 J0.0045
X1.8103 Y4.5458 Z-0.053 I-0.0022 J-0.0045
X1.8147 Y4.5547 Z-0.0536 I0.0022 J0.0045
X1.8103 Y4.5458 Z-0.0541 I-0.0022 J-0.0045
X1.8147 Y4.5547 Z-0.0547 I0.0022 J0.0045
X1.8103 Y4.5458 Z-0.0552 I-0.0022 J-0.0045
X1.8147 Y4.5547 Z-0.0558 I0.0022 J0.0045
X1.8103 Y4.5458 Z-0.0563 I-0.0022 J-0.0045
X1.8147 Y4.5547 Z-0.0569 I0.0022 J0.0045
X1.8103 Y4.5458 Z-0.0574 I-0.0022 J-0.0045
X1.8147 Y4.5547 Z-0.058 I0.0022 J0.0045
X1.8103 Y4.5458 Z-0.0585 I-0.0022 J-0.0045
X1.8147 Y4.5547 Z-0.0591 I0.0022 J0.0045
X1.8103 Y4.5458 Z-0.0596 I-0.0022 J-0.0045
X1.8147 Y4.5547 Z-0.0602 I0.0022 J0.0045
X1.8103 Y4.5458 Z-0.0607 I-0.0022 J-0.0045
X1.8147 Y4.5547 Z-0.0613 I0.0022 J0.0045
X1.8103 Y4.5458 Z-0.0618 I-0.0022 J-0.0045
X1.8147 Y4.5547 Z-0.0624 I0.0022 J0.0045
X1.8103 Y4.5458 Z-0.0629 I-0.0022 J-0.0045
X1.8147 Y4.5547 Z-0.0635 I0.0022 J0.0045
X1.8103 Y4.5458 Z-0.064 I-0.0022 J-0.0045
X1.8147 Y4.5547 Z-0.0646 I0.0022 J0.0045
X1.8103 Y4.5458 Z-0.0651 I-0.0022 J-0.0045
X1.8147 Y4.5547 Z-0.0657 I0.0022 J0.0045
X1.8103 Y4.5458 Z-0.0662 I-0.0022 J-0.0045
X1.8147 Y4.5547 Z-0.0668 I0.0022 J0.0045
X1.8103 Y4.5458 Z-0.0673 I-0.0022 J-0.0045
X1.8147 Y4.5547 Z-0.0679 I0.0022 J0.0045
X1.8103 Y4.5458 Z-0.0684 I-0.0022 J-0.0045
X1.8147 Y4.5547 Z-0.0689 I0.0022 J0.0045
X1.8103 Y4.5458 Z-0.0695 I-0.0022 J-0.0045
X1.8147 Y4.5547 Z-0.07 I0.0022 J0.0045
X1.8103 Y4.5458 Z-0.0706 I-0.0022 J-0.0045
X1.8147 Y4.5547 Z-0.0711 I0.0022 J0.0045
X1.8103 Y4.5458 Z-0.0717 I-0.0022 J-0.0045
X1.8147 Y4.5547 Z-0.0722 I0.0022 J0.0045
X1.8103 Y4.5458 Z-0.0728 I-0.0022 J-0.0045
X1.8147 Y4.5547 Z-0.0733 I0.0022 J0.0045
X1.8103 Y4.5458 Z-0.0739 I-0.0022 J-0.0045
X1.8147 Y4.5547 Z-0.0744 I0.0022 J0.0045
X1.8103 Y4.5458 Z-0.075 I-0.0022 J-0.0045
X1.8147 Y4.5547 Z-0.0755 I0.0022 J0.0045
X1.8103 Y4.5458 Z-0.0761 I-0.0022 J-0.0045
X1.8147 Y4.5547 Z-0.0766 I0.0022 J0.0045
X1.8103 Y4.5458 Z-0.0772 I-0.0022 J-0.0045
X1.8147 Y4.5547 Z-0.0777 I0.0022 J0.0045
X1.8103 Y4.5458 Z-0.0783 I-0.0022 J-0.0045
X1.8147 Y4.5547 Z-0.0788 I0.0022 J0.0045
X1.8103 Y4.5458 Z-0.0794 I-0.0022 J-0.0045
X1.8147 Y4.5547 Z-0.0799 I0.0022 J0.0045
X1.8125 Y4.5553 Z-0.08 I-0.0022 J-0.0045
Y4.5033 I0. J-0.026 F40.
Y4.5553 I0. J0.026
Y4.5033 Z-0.0829 I0. J-0.026 F20.
Y4.5553 Z-0.0857 I0. J0.026
Y4.5033 Z-0.0886 I0. J-0.026
Y4.5553 Z-0.0914 I0. J0.026
Y4.5033 Z-0.0943 I0. J-0.026
Y4.5553 Z-0.0971 I0. J0.026
Y4.5033 Z-0.1 I0. J-0.026
Y4.5553 Z-0.1028 I0. J0.026
Y4.5033 Z-0.1057 I0. J-0.026
Y4.5553 Z-0.1085 I0. J0.026
Y4.5033 Z-0.1114 I0. J-0.026
Y4.5553 Z-0.1142 I0. J0.026
Y4.5033 Z-0.1171 I0. J-0.026
Y4.5553 Z-0.1199 I0. J0.026
Y4.5033 Z-0.1228 I0. J-0.026
Y4.5553 Z-0.1256 I0. J0.026
X1.7894 Y4.5172 Z-0.1275 I0. J-0.026
X1.8356 Y4.5413 I0.0231 J0.012 F40.
X1.7894 Y4.5172 I-0.0231 J-0.012
X1.8356 Y4.5413 Z-0.1304 I0.0231 J0.012 F20.
X1.7894 Y4.5172 Z-0.1332 I-0.0231 J-0.012
X1.8356 Y4.5413 Z-0.1361 I0.0231 J0.012
X1.7894 Y4.5172 Z-0.1389 I-0.0231 J-0.012
X1.8356 Y4.5413 Z-0.1418 I0.0231 J0.012
X1.7894 Y4.5172 Z-0.1446 I-0.0231 J-0.012
X1.8356 Y4.5413 Z-0.1475 I0.0231 J0.012
X1.7894 Y4.5172 Z-0.1503 I-0.0231 J-0.012
X1.8356 Y4.5413 Z-0.1532 I0.0231 J0.012
X1.7894 Y4.5172 Z-0.156 I-0.0231 J-0.012
X1.8356 Y4.5413 Z-0.1589 I0.0231 J0.012
X1.7894 Y4.5172 Z-0.1617 I-0.0231 J-0.012
X1.8356 Y4.5413 Z-0.1646 I0.0231 J0.012
X1.7894 Y4.5172 Z-0.1674 I-0.0231 J-0.012
X1.8356 Y4.5413 Z-0.1703 I0.0231 J0.012
X1.7894 Y4.5172 Z-0.1731 I-0.0231 J-0.012
X1.8338 Y4.5143 Z-0.175 I0.0231 J0.012
X1.7912 Y4.5442 I-0.0213 J0.0149 F40.
X1.8338 Y4.5143 I0.0213 J-0.0149
G1 X1.8349 Y4.5163 Z-0.1746
X1.8356 Y4.5184 Z-0.1741
X1.8359 Y4.5203 Z-0.1728
Y4.5222 Z-0.1715
X1.8354 Y4.5247 Z-0.1677
X1.835 Y4.5256 Z-0.1632
G0 Z0.2
X1.8145 Y3.1496
G1 Z0.1118 F40.
X1.8151 Y3.1499 Z0.1079 F20.
X1.8158 Y3.1505 Z0.1061
X1.8165 Y3.1512 Z0.1044
X1.8171 Y3.1524 Z0.1033
X1.8175 Y3.1536 Z0.1023
Y3.1549 Z0.1012
X1.817 Y3.1565 Z0.1008
X1.816 Y3.1578 Z0.1004
X1.8147 Y3.1587 Z0.1
G3 X1.8103 Y3.1498 Z0.0995 I-0.0022 J-0.0045
X1.8147 Y3.1587 Z0.0989 I0.0022 J0.0045
X1.8103 Y3.1498 Z0.0984 I-0.0022 J-0.0045
X1.8147 Y3.1587 Z0.0978 I0.0022 J0.0045
X1.8103 Y3.1498 Z0.0973 I-0.0022 J-0.0045
X1.8147 Y3.1587 Z0.0967 I0.0022 J0.0045
X1.8103 Y3.1498 Z0.0962 I-0.0022 J-0.0045
X1.8147 Y3.1587 Z0.0956 I0.0022 J0.0045
X1.8103 Y3.1498 Z0.0951 I-0.0022 J-0.0045
X1.8147 Y3.1587 Z0.0945 I0.0022 J0.0045
X1.8103 Y3.1498 Z0.094 I-0.0022 J-0.0045
X1.8147 Y3.1587 Z0.0934 I0.0022 J0.0045
X1.8103 Y3.1498 Z0.0929 I-0.0022 J-0.0045
X1.8147 Y3.1587 Z0.0923 I0.0022 J0.0045
X1.8103 Y3.1498 Z0.0918 I-0.0022 J-0.0045
X1.8147 Y3.1587 Z0.0912 I0.0022 J0.0045
X1.8103 Y3.1498 Z0.0907 I-0.0022 J-0.0045
X1.8147 Y3.1587 Z0.0901 I0.0022 J0.0045
X1.8103 Y3.1498 Z0.0896 I-0.0022 J-0.0045
X1.8147 Y3.1587 Z0.089 I0.0022 J0.0045
X1.8103 Y3.1498 Z0.0885 I-0.0022 J-0.0045
X1.8147 Y3.1587 Z0.0879 I0.0022 J0.0045
X1.8103 Y3.1498 Z0.0874 I-0.0022 J-0.0045
X1.8147 Y3.1587 Z0.0868 I0.0022 J0.0045
X1.8103 Y3.1498 Z0.0863 I-0.0022 J-0.0045
X1.8147 Y3.1587 Z0.0857 I0.0022 J0.0045
X1.8103 Y3.1498 Z0.0852 I-0.0022 J-0.0045
X1.8147 Y3.1587 Z0.0846 I0.0022 J0.0045
X1.8103 Y3.1498 Z0.0841 I-0.0022 J-0.0045
X1.8147 Y3.1587 Z0.0835 I0.0022 J0.0045
X1.8103 Y3.1498 Z0.083 I-0.0022 J-0.0045
X1.8147 Y3.1587 Z0.0824 I0.0022 J0.0045
X1.8103 Y3.1498 Z0.0819 I-0.0022 J-0.0045
X1.8147 Y3.1587 Z0.0813 I0.0022 J0.0045
X1.8103 Y3.1498 Z0.0808 I-0.0022 J-0.0045
X1.8147 Y3.1587 Z0.0803 I0.0022 J0.0045
X1.8103 Y3.1498 Z0.0797 I-0.0022 J-0.0045
X1.8147 Y3.1587 Z0.0792 I0.0022 J0.0045
X1.8103 Y3.1498 Z0.0786 I-0.0022 J-0.0045
X1.8147 Y3.1587 Z0.0781 I0.0022 J0.0045
X1.8103 Y3.1498 Z0.0775 I-0.0022 J-0.0045
X1.8147 Y3.1587 Z0.077 I0.0022 J0.0045
X1.8103 Y3.1498 Z0.0764 I-0.0022 J-0.0045
X1.8147 Y3.1587 Z0.0759 I0.0022 J0.0045
X1.8103 Y3.1498 Z0.0753 I-0.0022 J-0.0045
X1.8147 Y3.1587 Z0.0748 I0.0022 J0.0045
X1.8103 Y3.1498 Z0.0742 I-0.0022 J-0.0045
X1.8147 Y3.1587 Z0.0737 I0.0022 J0.0045
X1.8103 Y3.1498 Z0.0731 I-0.0022 J-0.0045
X1.8147 Y3.1587 Z0.0726 I0.0022 J0.0045
X1.8103 Y3.1498 Z0.072 I-0.0022 J-0.0045
X1.8147 Y3.1587 Z0.0715 I0.0022 J0.0045
X1.8103 Y3.1498 Z0.0709 I-0.0022 J-0.0045
X1.8147 Y3.1587 Z0.0704 I0.0022 J0.0045
X1.8103 Y3.1498 Z0.0698 I-0.0022 J-0.0045
X1.8147 Y3.1587 Z0.0693 I0.0022 J0.0045
X1.8103 Y3.1498 Z0.0687 I-0.0022 J-0.0045
X1.8147 Y3.1587 Z0.0682 I0.0022 J0.0045
X1.8103 Y3.1498 Z0.0676 I-0.0022 J-0.0045
X1.8147 Y3.1587 Z0.0671 I0.0022 J0.0045
X1.8103 Y3.1498 Z0.0665 I-0.0022 J-0.0045
X1.8147 Y3.1587 Z0.066 I0.0022 J0.0045
X1.8103 Y3.1498 Z0.0654 I-0.0022 J-0.0045
X1.8147 Y3.1587 Z0.0649 I0.0022 J0.0045
X1.8103 Y3.1498 Z0.0643 I-0.0022 J-0.0045
X1.8147 Y3.1587 Z0.0638 I0.0022 J0.0045
X1.8103 Y3.1498 Z0.0632 I-0.0022 J-0.0045
X1.8147 Y3.1587 Z0.0627 I0.0022 J0.0045
X1.8103 Y3.1498 Z0.0622 I-0.0022 J-0.0045
X1.8147 Y3.1587 Z0.0616 I0.0022 J0.0045
X1.8103 Y3.1498 Z0.0611 I-0.0022 J-0.0045
X1.8147 Y3.1587 Z0.0605 I0.0022 J0.0045
X1.8103 Y3.1498 Z0.06 I-0.0022 J-0.0045
X1.8147 Y3.1587 Z0.0594 I0.0022 J0.0045
X1.8103 Y3.1498 Z0.0589 I-0.0022 J-0.0045
X1.8147 Y3.1587 Z0.0583 I0.0022 J0.0045
X1.8103 Y3.1498 Z0.0578 I-0.0022 J-0.0045
X1.8147 Y3.1587 Z0.0572 I0.0022 J0.0045
X1.8103 Y3.1498 Z0.0567 I-0.0022 J-0.0045
X1.8147 Y3.1587 Z0.0561 I0.0022 J0.0045
X1.8103 Y3.1498 Z0.0556 I-0.0022 J-0.0045
X1.8147 Y3.1587 Z0.055 I0.0022 J0.0045
X1.8103 Y3.1498 Z0.0545 I-0.0022 J-0.0045
X1.8147 Y3.1587 Z0.0539 I0.0022 J0.0045
X1.8103 Y3.1498 Z0.0534 I-0.0022 J-0.0045
X1.8147 Y3.1587 Z0.0528 I0.0022 J0.0045
X1.8103 Y3.1498 Z0.0523 I-0.0022 J-0.0045
X1.8147 Y3.1587 Z0.0517 I0.0022 J0.0045
X1.8103 Y3.1498 Z0.0512 I-0.0022 J-0.0045
X1.8147 Y3.1587 Z0.0506 I0.0022 J0.0045
X1.8103 Y3.1498 Z0.0501 I-0.0022 J-0.0045
X1.8147 Y3.1587 Z0.0495 I0.0022 J0.0045
X1.8103 Y3.1498 Z0.049 I-0.0022 J-0.0045
X1.8147 Y3.1587 Z0.0484 I0.0022 J0.0045
X1.8103 Y3.1498 Z0.0479 I-0.0022 J-0.0045
X1.8147 Y3.1587 Z0.0473 I0.0022 J0.0045
X1.8103 Y3.1498 Z0.0468 I-0.0022 J-0.0045
X1.8147 Y3.1587 Z0.0462 I0.0022 J0.0045
X1.8103 Y3.1498 Z0.0457 I-0.0022 J-0.0045
X1.8147 Y3.1587 Z0.0451 I0.0022 J0.0045
X1.8103 Y3.1498 Z0.0446 I-0.0022 J-0.0045
X1.8147 Y3.1587 Z0.044 I0.0022 J0.0045
X1.8103 Y3.1498 Z0.0435 I-0.0022 J-0.0045
X1.8147 Y3.1587 Z0.043 I0.0022 J0.0045
X1.8103 Y3.1498 Z0.0424 I-0.0022 J-0.0045
X1.8147 Y3.1587 Z0.0419 I0.0022 J0.0045
X1.8103 Y3.1498 Z0.0413 I-0.0022 J-0.0045
X1.8147 Y3.1587 Z0.0408 I0.0022 J0.0045
X1.8103 Y3.1498 Z0.0402 I-0.0022 J-0.0045
X1.8147 Y3.1587 Z0.0397 I0.0022 J0.0045
X1.8103 Y3.1498 Z0.0391 I-0.0022 J-0.0045
X1.8147 Y3.1587 Z0.0386 I0.0022 J0.0045
X1.8103 Y3.1498 Z0.038 I-0.0022 J-0.0045
X1.8147 Y3.1587 Z0.0375 I0.0022 J0.0045
X1.8103 Y3.1498 Z0.0369 I-0.0022 J-0.0045
X1.8147 Y3.1587 Z0.0364 I0.0022 J0.0045
X1.8103 Y3.1498 Z0.0358 I-0.0022 J-0.0045
X1.8147 Y3.1587 Z0.0353 I0.0022 J0.0045
X1.8103 Y3.1498 Z0.0347 I-0.0022 J-0.0045
X1.8147 Y3.1587 Z0.0342 I0.0022 J0.0045
X1.8103 Y3.1498 Z0.0336 I-0.0022 J-0.0045
X1.8147 Y3.1587 Z0.0331 I0.0022 J0.0045
X1.8103 Y3.1498 Z0.0325 I-0.0022 J-0.0045
X1.8147 Y3.1587 Z0.032 I0.0022 J0.0045
X1.8103 Y3.1498 Z0.0314 I-0.0022 J-0.0045
X1.8147 Y3.1587 Z0.0309 I0.0022 J0.0045
X1.8103 Y3.1498 Z0.0303 I-0.0022 J-0.0045
X1.8147 Y3.1587 Z0.0298 I0.0022 J0.0045
X1.8103 Y3.1498 Z0.0292 I-0.0022 J-0.0045
X1.8147 Y3.1587 Z0.0287 I0.0022 J0.0045
X1.8103 Y3.1498 Z0.0281 I-0.0022 J-0.0045
X1.8147 Y3.1587 Z0.0276 I0.0022 J0.0045
X1.8103 Y3.1498 Z0.027 I-0.0022 J-0.0045
X1.8147 Y3.1587 Z0.0265 I0.0022 J0.0045
X1.8103 Y3.1498 Z0.0259 I-0.0022 J-0.0045
X1.8147 Y3.1587 Z0.0254 I0.0022 J0.0045
X1.8103 Y3.1498 Z0.0249 I-0.0022 J-0.0045
X1.8147 Y3.1587 Z0.0243 I0.0022 J0.0045
X1.8103 Y3.1498 Z0.0238 I-0.0022 J-0.0045
X1.8147 Y3.1587 Z0.0232 I0.0022 J0.0045
X1.8103 Y3.1498 Z0.0227 I-0.0022 J-0.0045
X1.8147 Y3.1587 Z0.0221 I0.0022 J0.0045
X1.8103 Y3.1498 Z0.0216 I-0.0022 J-0.0045
X1.8147 Y3.1587 Z0.021 I0.0022 J0.0045
X1.8103 Y3.1498 Z0.0205 I-0.0022 J-0.0045
X1.8147 Y3.1587 Z0.0199 I0.0022 J0.0045
X1.8103 Y3.1498 Z0.0194 I-0.0022 J-0.0045
X1.8147 Y3.1587 Z0.0188 I0.0022 J0.0045
X1.8103 Y3.1498 Z0.0183 I-0.0022 J-0.0045
X1.8147 Y3.1587 Z0.0177 I0.0022 J0.0045
X1.8103 Y3.1498 Z0.0172 I-0.0022 J-0.0045
X1.8147 Y3.1587 Z0.0166 I0.0022 J0.0045
X1.8103 Y3.1498 Z0.0161 I-0.0022 J-0.0045
X1.8147 Y3.1587 Z0.0155 I0.0022 J0.0045
X1.8103 Y3.1498 Z0.015 I-0.0022 J-0.0045
X1.8147 Y3.1587 Z0.0144 I0.0022 J0.0045
X1.8103 Y3.1498 Z0.0139 I-0.0022 J-0.0045
X1.8147 Y3.1587 Z0.0133 I0.0022 J0.0045
X1.8103 Y3.1498 Z0.0128 I-0.0022 J-0.0045
X1.8147 Y3.1587 Z0.0122 I0.0022 J0.0045
X1.8103 Y3.1498 Z0.0117 I-0.0022 J-0.0045
X1.8147 Y3.1587 Z0.0111 I0.0022 J0.0045
X1.8103 Y3.1498 Z0.0106 I-0.0022 J-0.0045
X1.8147 Y3.1587 Z0.01 I0.0022 J0.0045
X1.8103 Y3.1498 Z0.0095 I-0.0022 J-0.0045
X1.8147 Y3.1587 Z0.0089 I0.0022 J0.0045
X1.8103 Y3.1498 Z0.0084 I-0.0022 J-0.0045
X1.8147 Y3.1587 Z0.0078 I0.0022 J0.0045
X1.8103 Y3.1498 Z0.0073 I-0.0022 J-0.0045
X1.8147 Y3.1587 Z0.0067 I0.0022 J0.0045
X1.8103 Y3.1498 Z0.0062 I-0.0022 J-0.0045
X1.8147 Y3.1587 Z0.0057 I0.0022 J0.0045
X1.8103 Y3.1498 Z0.0051 I-0.0022 J-0.0045
X1.8147 Y3.1587 Z0.0046 I0.0022 J0.0045
X1.8103 Y3.1498 Z0.004 I-0.0022 J-0.0045
X1.8147 Y3.1587 Z0.0035 I0.0022 J0.0045
X1.8103 Y3.1498 Z0.0029 I-0.0022 J-0.0045
X1.8147 Y3.1587 Z0.0024 I0.0022 J0.0045
X1.8103 Y3.1498 Z0.0018 I-0.0022 J-0.0045
X1.8147 Y3.1587 Z0.0013 I0.0022 J0.0045
X1.8103 Y3.1498 Z0.0007 I-0.0022 J-0.0045
X1.8147 Y3.1587 Z0.0002 I0.0022 J0.0045
X1.8103 Y3.1498 Z-0.0004 I-0.0022 J-0.0045
X1.8147 Y3.1587 Z-0.0009 I0.0022 J0.0045
X1.8103 Y3.1498 Z-0.0015 I-0.0022 J-0.0045
X1.8147 Y3.1587 Z-0.002 I0.0022 J0.0045
X1.8103 Y3.1498 Z-0.0026 I-0.0022 J-0.0045
X1.8147 Y3.1587 Z-0.0031 I0.0022 J0.0045
X1.8103 Y3.1498 Z-0.0037 I-0.0022 J-0.0045
X1.8147 Y3.1587 Z-0.0042 I0.0022 J0.0045
X1.8103 Y3.1498 Z-0.0048 I-0.0022 J-0.0045
X1.8147 Y3.1587 Z-0.0053 I0.0022 J0.0045
X1.8103 Y3.1498 Z-0.0059 I-0.0022 J-0.0045
X1.8147 Y3.1587 Z-0.0064 I0.0022 J0.0045
X1.8103 Y3.1498 Z-0.007 I-0.0022 J-0.0045
X1.8147 Y3.1587 Z-0.0075 I0.0022 J0.0045
X1.8103 Y3.1498 Z-0.0081 I-0.0022 J-0.0045
X1.8147 Y3.1587 Z-0.0086 I0.0022 J0.0045
X1.8103 Y3.1498 Z-0.0092 I-0.0022 J-0.0045
X1.8147 Y3.1587 Z-0.0097 I0.0022 J0.0045
X1.8103 Y3.1498 Z-0.0103 I-0.0022 J-0.0045
X1.8147 Y3.1587 Z-0.0108 I0.0022 J0.0045
X1.8103 Y3.1498 Z-0.0114 I-0.0022 J-0.0045
X1.8147 Y3.1587 Z-0.0119 I0.0022 J0.0045
X1.8103 Y3.1498 Z-0.0124 I-0.0022 J-0.0045
X1.8147 Y3.1587 Z-0.013 I0.0022 J0.0045
X1.8103 Y3.1498 Z-0.0135 I-0.0022 J-0.0045
X1.8147 Y3.1587 Z-0.0141 I0.0022 J0.0045
X1.8103 Y3.1498 Z-0.0146 I-0.0022 J-0.0045
X1.8147 Y3.1587 Z-0.0152 I0.0022 J0.0045
X1.8103 Y3.1498 Z-0.0157 I-0.0022 J-0.0045
X1.8147 Y3.1587 Z-0.0163 I0.0022 J0.0045
X1.8103 Y3.1498 Z-0.0168 I-0.0022 J-0.0045
X1.8147 Y3.1587 Z-0.0174 I0.0022 J0.0045
X1.8103 Y3.1498 Z-0.0179 I-0.0022 J-0.0045
X1.8147 Y3.1587 Z-0.0185 I0.0022 J0.0045
X1.8103 Y3.1498 Z-0.019 I-0.0022 J-0.0045
X1.8147 Y3.1587 Z-0.0196 I0.0022 J0.0045
X1.8103 Y3.1498 Z-0.0201 I-0.0022 J-0.0045
X1.8147 Y3.1587 Z-0.0207 I0.0022 J0.0045
X1.8103 Y3.1498 Z-0.0212 I-0.0022 J-0.0045
X1.8147 Y3.1587 Z-0.0218 I0.0022 J0.0045
X1.8103 Y3.1498 Z-0.0223 I-0.0022 J-0.0045
X1.8147 Y3.1587 Z-0.0229 I0.0022 J0.0045
X1.8103 Y3.1498 Z-0.0234 I-0.0022 J-0.0045
X1.8147 Y3.1587 Z-0.024 I0.0022 J0.0045
X1.8103 Y3.1498 Z-0.0245 I-0.0022 J-0.0045
X1.8147 Y3.1587 Z-0.0251 I0.0022 J0.0045
X1.8103 Y3.1498 Z-0.0256 I-0.0022 J-0.0045
X1.8147 Y3.1587 Z-0.0262 I0.0022 J0.0045
X1.8103 Y3.1498 Z-0.0267 I-0.0022 J-0.0045
X1.8147 Y3.1587 Z-0.0273 I0.0022 J0.0045
X1.8103 Y3.1498 Z-0.0278 I-0.0022 J-0.0045
X1.8147 Y3.1587 Z-0.0284 I0.0022 J0.0045
X1.8103 Y3.1498 Z-0.0289 I-0.0022 J-0.0045
X1.8147 Y3.1587 Z-0.0295 I0.0022 J0.0045
X1.8103 Y3.1498 Z-0.03 I-0.0022 J-0.0045
X1.8147 Y3.1587 Z-0.0306 I0.0022 J0.0045
X1.8103 Y3.1498 Z-0.0311 I-0.0022 J-0.0045
X1.8147 Y3.1587 Z-0.0316 I0.0022 J0.0045
X1.8103 Y3.1498 Z-0.0322 I-0.0022 J-0.0045
X1.8147 Y3.1587 Z-0.0327 I0.0022 J0.0045
X1.8103 Y3.1498 Z-0.0333 I-0.0022 J-0.0045
X1.8147 Y3.1587 Z-0.0338 I0.0022 J0.0045
X1.8103 Y3.1498 Z-0.0344 I-0.0022 J-0.0045
X1.8147 Y3.1587 Z-0.0349 I0.0022 J0.0045
X1.8103 Y3.1498 Z-0.0355 I-0.0022 J-0.0045
X1.8147 Y3.1587 Z-0.036 I0.0022 J0.0045
X1.8103 Y3.1498 Z-0.0366 I-0.0022 J-0.0045
X1.8147 Y3.1587 Z-0.0371 I0.0022 J0.0045
X1.8103 Y3.1498 Z-0.0377 I-0.0022 J-0.0045
X1.8147 Y3.1587 Z-0.0382 I0.0022 J0.0045
X1.8103 Y3.1498 Z-0.0388 I-0.0022 J-0.0045
X1.8147 Y3.1587 Z-0.0393 I0.0022 J0.0045
X1.8103 Y3.1498 Z-0.0399 I-0.0022 J-0.0045
X1.8147 Y3.1587 Z-0.0404 I0.0022 J0.0045
X1.8103 Y3.1498 Z-0.041 I-0.0022 J-0.0045
X1.8147 Y3.1587 Z-0.0415 I0.0022 J0.0045
X1.8103 Y3.1498 Z-0.0421 I-0.0022 J-0.0045
X1.8147 Y3.1587 Z-0.0426 I0.0022 J0.0045
X1.8103 Y3.1498 Z-0.0432 I-0.0022 J-0.0045
X1.8147 Y3.1587 Z-0.0437 I0.0022 J0.0045
X1.8103 Y3.1498 Z-0.0443 I-0.0022 J-0.0045
X1.8147 Y3.1587 Z-0.0448 I0.0022 J0.0045
X1.8103 Y3.1498 Z-0.0454 I-0.0022 J-0.0045
X1.8147 Y3.1587 Z-0.0459 I0.0022 J0.0045
X1.8103 Y3.1498 Z-0.0465 I-0.0022 J-0.0045
X1.8147 Y3.1587 Z-0.047 I0.0022 J0.0045
X1.8103 Y3.1498 Z-0.0476 I-0.0022 J-0.0045
X1.8147 Y3.1587 Z-0.0481 I0.0022 J0.0045
X1.8103 Y3.1498 Z-0.0487 I-0.0022 J-0.0045
X1.8147 Y3.1587 Z-0.0492 I0.0022 J0.0045
X1.8103 Y3.1498 Z-0.0497 I-0.0022 J-0.0045
X1.8147 Y3.1587 Z-0.0503 I0.0022 J0.0045
X1.8103 Y3.1498 Z-0.0508 I-0.0022 J-0.0045
X1.8147 Y3.1587 Z-0.0514 I0.0022 J0.0045
X1.8103 Y3.1498 Z-0.0519 I-0.0022 J-0.0045
X1.8147 Y3.1587 Z-0.0525 I0.0022 J0.0045
X1.8103 Y3.1498 Z-0.053 I-0.0022 J-0.0045
X1.8147 Y3.1587 Z-0.0536 I0.0022 J0.0045
X1.8103 Y3.1498 Z-0.0541 I-0.0022 J-0.0045
X1.8147 Y3.1587 Z-0.0547 I0.0022 J0.0045
X1.8103 Y3.1498 Z-0.0552 I-0.0022 J-0.0045
X1.8147 Y3.1587 Z-0.0558 I0.0022 J0.0045
X1.8103 Y3.1498 Z-0.0563 I-0.0022 J-0.0045
X1.8147 Y3.1587 Z-0.0569 I0.0022 J0.0045
X1.8103 Y3.1498 Z-0.0574 I-0.0022 J-0.0045
X1.8147 Y3.1587 Z-0.058 I0.0022 J0.0045
X1.8103 Y3.1498 Z-0.0585 I-0.0022 J-0.0045
X1.8147 Y3.1587 Z-0.0591 I0.0022 J0.0045
X1.8103 Y3.1498 Z-0.0596 I-0.0022 J-0.0045
X1.8147 Y3.1587 Z-0.0602 I0.0022 J0.0045
X1.8103 Y3.1498 Z-0.0607 I-0.0022 J-0.0045
X1.8147 Y3.1587 Z-0.0613 I0.0022 J0.0045
X1.8103 Y3.1498 Z-0.0618 I-0.0022 J-0.0045
X1.8147 Y3.1587 Z-0.0624 I0.0022 J0.0045
X1.8103 Y3.1498 Z-0.0629 I-0.0022 J-0.0045
X1.8147 Y3.1587 Z-0.0635 I0.0022 J0.0045
X1.8103 Y3.1498 Z-0.064 I-0.0022 J-0.0045
X1.8147 Y3.1587 Z-0.0646 I0.0022 J0.0045
X1.8103 Y3.1498 Z-0.0651 I-0.0022 J-0.0045
X1.8147 Y3.1587 Z-0.0657 I0.0022 J0.0045
X1.8103 Y3.1498 Z-0.0662 I-0.0022 J-0.0045
X1.8147 Y3.1587 Z-0.0668 I0.0022 J0.0045
X1.8103 Y3.1498 Z-0.0673 I-0.0022 J-0.0045
X1.8147 Y3.1587 Z-0.0679 I0.0022 J0.0045
X1.8103 Y3.1498 Z-0.0684 I-0.0022 J-0.0045
X1.8147 Y3.1587 Z-0.0689 I0.0022 J0.0045
X1.8103 Y3.1498 Z-0.0695 I-0.0022 J-0.0045
X1.8147 Y3.1587 Z-0.07 I0.0022 J0.0045
X1.8103 Y3.1498 Z-0.0706 I-0.0022 J-0.0045
X1.8147 Y3.1587 Z-0.0711 I0.0022 J0.0045
X1.8103 Y3.1498 Z-0.0717 I-0.0022 J-0.0045
X1.8147 Y3.1587 Z-0.0722 I0.0022 J0.0045
X1.8103 Y3.1498 Z-0.0728 I-0.0022 J-0.0045
X1.8147 Y3.1587 Z-0.0733 I0.0022 J0.0045
X1.8103 Y3.1498 Z-0.0739 I-0.0022 J-0.0045
X1.8147 Y3.1587 Z-0.0744 I0.0022 J0.0045
X1.8103 Y3.1498 Z-0.075 I-0.0022 J-0.0045
X1.8147 Y3.1587 Z-0.0755 I0.0022 J0.0045
X1.8103 Y3.1498 Z-0.0761 I-0.0022 J-0.0045
X1.8147 Y3.1587 Z-0.0766 I0.0022 J0.0045
X1.8103 Y3.1498 Z-0.0772 I-0.0022 J-0.0045
X1.8147 Y3.1587 Z-0.0777 I0.0022 J0.0045
X1.8103 Y3.1498 Z-0.0783 I-0.0022 J-0.0045
X1.8147 Y3.1587 Z-0.0788 I0.0022 J0.0045
X1.8103 Y3.1498 Z-0.0794 I-0.0022 J-0.0045
X1.8147 Y3.1587 Z-0.0799 I0.0022 J0.0045
X1.8125 Y3.1592 Z-0.08 I-0.0022 J-0.0045
Y3.1072 I0. J-0.026 F40.
Y3.1592 I0. J0.026
Y3.1072 Z-0.0829 I0. J-0.026 F20.
Y3.1592 Z-0.0857 I0. J0.026
Y3.1072 Z-0.0886 I0. J-0.026
Y3.1592 Z-0.0914 I0. J0.026
Y3.1072 Z-0.0943 I0. J-0.026
Y3.1592 Z-0.0971 I0. J0.026
Y3.1072 Z-0.1 I0. J-0.026
Y3.1592 Z-0.1028 I0. J0.026
Y3.1072 Z-0.1057 I0. J-0.026
Y3.1592 Z-0.1085 I0. J0.026
Y3.1072 Z-0.1114 I0. J-0.026
Y3.1592 Z-0.1142 I0. J0.026
Y3.1072 Z-0.1171 I0. J-0.026
Y3.1592 Z-0.1199 I0. J0.026
Y3.1072 Z-0.1228 I0. J-0.026
Y3.1592 Z-0.1256 I0. J0.026
X1.7894 Y3.1212 Z-0.1275 I0. J-0.026
X1.8356 Y3.1452 I0.0231 J0.012 F40.
X1.7894 Y3.1212 I-0.0231 J-0.012
X1.8356 Y3.1452 Z-0.1304 I0.0231 J0.012 F20.
X1.7894 Y3.1212 Z-0.1332 I-0.0231 J-0.012
X1.8356 Y3.1452 Z-0.1361 I0.0231 J0.012
X1.7894 Y3.1212 Z-0.1389 I-0.0231 J-0.012
X1.8356 Y3.1452 Z-0.1418 I0.0231 J0.012
X1.7894 Y3.1212 Z-0.1446 I-0.0231 J-0.012
X1.8356 Y3.1452 Z-0.1475 I0.0231 J0.012
X1.7894 Y3.1212 Z-0.1503 I-0.0231 J-0.012
X1.8356 Y3.1452 Z-0.1532 I0.0231 J0.012
X1.7894 Y3.1212 Z-0.156 I-0.0231 J-0.012
X1.8356 Y3.1452 Z-0.1589 I0.0231 J0.012
X1.7894 Y3.1212 Z-0.1617 I-0.0231 J-0.012
X1.8356 Y3.1452 Z-0.1646 I0.0231 J0.012
X1.7894 Y3.1212 Z-0.1674 I-0.0231 J-0.012
X1.8356 Y3.1452 Z-0.1703 I0.0231 J0.012
X1.7894 Y3.1212 Z-0.1731 I-0.0231 J-0.012
X1.8338 Y3.1183 Z-0.175 I0.0231 J0.012
X1.7912 Y3.1481 I-0.0213 J0.0149 F40.
X1.8338 Y3.1183 I0.0213 J-0.0149
G1 X1.8349 Y3.1203 Z-0.1746
X1.8356 Y3.1224 Z-0.1741
X1.8359 Y3.1243 Z-0.1728
Y3.1262 Z-0.1715
X1.8354 Y3.1287 Z-0.1677
X1.835 Y3.1296 Z-0.1632
G0 Z0.2
X1.1439 Y2.8293
G1 Z0.1118 F40.
X1.1442 Y2.8287 Z0.1079 F20.
X1.1448 Y2.8279 Z0.1061
X1.1455 Y2.8272 Z0.1044
X1.1466 Y2.8266 Z0.1033
X1.1479 Y2.8263 Z0.1023
X1.1492 Z0.1012
X1.1507 Y2.8268 Z0.1008
X1.152 Y2.8277 Z0.1004
X1.153 Y2.829 Z0.1
G3 X1.144 Y2.8335 Z0.0995 I-0.0045 J0.0022
X1.153 Y2.829 Z0.0989 I0.0045 J-0.0022
X1.144 Y2.8335 Z0.0984 I-0.0045 J0.0022
X1.153 Y2.829 Z0.0978 I0.0045 J-0.0022
X1.144 Y2.8335 Z0.0973 I-0.0045 J0.0022
X1.153 Y2.829 Z0.0967 I0.0045 J-0.0022
X1.144 Y2.8335 Z0.0962 I-0.0045 J0.0022
X1.153 Y2.829 Z0.0956 I0.0045 J-0.0022
X1.144 Y2.8335 Z0.0951 I-0.0045 J0.0022
X1.153 Y2.829 Z0.0945 I0.0045 J-0.0022
X1.144 Y2.8335 Z0.094 I-0.0045 J0.0022
X1.153 Y2.829 Z0.0934 I0.0045 J-0.0022
X1.144 Y2.8335 Z0.0929 I-0.0045 J0.0022
X1.153 Y2.829 Z0.0923 I0.0045 J-0.0022
X1.144 Y2.8335 Z0.0918 I-0.0045 J0.0022
X1.153 Y2.829 Z0.0912 I0.0045 J-0.0022
X1.144 Y2.8335 Z0.0907 I-0.0045 J0.0022
X1.153 Y2.829 Z0.0901 I0.0045 J-0.0022
X1.144 Y2.8335 Z0.0896 I-0.0045 J0.0022
X1.153 Y2.829 Z0.089 I0.0045 J-0.0022
X1.144 Y2.8335 Z0.0885 I-0.0045 J0.0022
X1.153 Y2.829 Z0.0879 I0.0045 J-0.0022
X1.144 Y2.8335 Z0.0874 I-0.0045 J0.0022
X1.153 Y2.829 Z0.0868 I0.0045 J-0.0022
X1.144 Y2.8335 Z0.0863 I-0.0045 J0.0022
X1.153 Y2.829 Z0.0857 I0.0045 J-0.0022
X1.144 Y2.8335 Z0.0852 I-0.0045 J0.0022
X1.153 Y2.829 Z0.0846 I0.0045 J-0.0022
X1.144 Y2.8335 Z0.0841 I-0.0045 J0.0022
X1.153 Y2.829 Z0.0835 I0.0045 J-0.0022
X1.144 Y2.8335 Z0.083 I-0.0045 J0.0022
X1.153 Y2.829 Z0.0824 I0.0045 J-0.0022
X1.144 Y2.8335 Z0.0819 I-0.0045 J0.0022
X1.153 Y2.829 Z0.0813 I0.0045 J-0.0022
X1.144 Y2.8335 Z0.0808 I-0.0045 J0.0022
X1.153 Y2.829 Z0.0803 I0.0045 J-0.0022
X1.144 Y2.8335 Z0.0797 I-0.0045 J0.0022
X1.153 Y2.829 Z0.0792 I0.0045 J-0.0022
X1.144 Y2.8335 Z0.0786 I-0.0045 J0.0022
X1.153 Y2.829 Z0.0781 I0.0045 J-0.0022
X1.144 Y2.8335 Z0.0775 I-0.0045 J0.0022
X1.153 Y2.829 Z0.077 I0.0045 J-0.0022
X1.144 Y2.8335 Z0.0764 I-0.0045 J0.0022
X1.153 Y2.829 Z0.0759 I0.0045 J-0.0022
X1.144 Y2.8335 Z0.0753 I-0.0045 J0.0022
X1.153 Y2.829 Z0.0748 I0.0045 J-0.0022
X1.144 Y2.8335 Z0.0742 I-0.0045 J0.0022
X1.153 Y2.829 Z0.0737 I0.0045 J-0.0022
X1.144 Y2.8335 Z0.0731 I-0.0045 J0.0022
X1.153 Y2.829 Z0.0726 I0.0045 J-0.0022
X1.144 Y2.8335 Z0.072 I-0.0045 J0.0022
X1.153 Y2.829 Z0.0715 I0.0045 J-0.0022
X1.144 Y2.8335 Z0.0709 I-0.0045 J0.0022
X1.153 Y2.829 Z0.0704 I0.0045 J-0.0022
X1.144 Y2.8335 Z0.0698 I-0.0045 J0.0022
X1.153 Y2.829 Z0.0693 I0.0045 J-0.0022
X1.144 Y2.8335 Z0.0687 I-0.0045 J0.0022
X1.153 Y2.829 Z0.0682 I0.0045 J-0.0022
X1.144 Y2.8335 Z0.0676 I-0.0045 J0.0022
X1.153 Y2.829 Z0.0671 I0.0045 J-0.0022
X1.144 Y2.8335 Z0.0665 I-0.0045 J0.0022
X1.153 Y2.829 Z0.066 I0.0045 J-0.0022
X1.144 Y2.8335 Z0.0654 I-0.0045 J0.0022
X1.153 Y2.829 Z0.0649 I0.0045 J-0.0022
X1.144 Y2.8335 Z0.0643 I-0.0045 J0.0022
X1.153 Y2.829 Z0.0638 I0.0045 J-0.0022
X1.144 Y2.8335 Z0.0632 I-0.0045 J0.0022
X1.153 Y2.829 Z0.0627 I0.0045 J-0.0022
X1.144 Y2.8335 Z0.0622 I-0.0045 J0.0022
X1.153 Y2.829 Z0.0616 I0.0045 J-0.0022
X1.144 Y2.8335 Z0.0611 I-0.0045 J0.0022
X1.153 Y2.829 Z0.0605 I0.0045 J-0.0022
X1.144 Y2.8335 Z0.06 I-0.0045 J0.0022
X1.153 Y2.829 Z0.0594 I0.0045 J-0.0022
X1.144 Y2.8335 Z0.0589 I-0.0045 J0.0022
X1.153 Y2.829 Z0.0583 I0.0045 J-0.0022
X1.144 Y2.8335 Z0.0578 I-0.0045 J0.0022
X1.153 Y2.829 Z0.0572 I0.0045 J-0.0022
X1.144 Y2.8335 Z0.0567 I-0.0045 J0.0022
X1.153 Y2.829 Z0.0561 I0.0045 J-0.0022
X1.144 Y2.8335 Z0.0556 I-0.0045 J0.0022
X1.153 Y2.829 Z0.055 I0.0045 J-0.0022
X1.144 Y2.8335 Z0.0545 I-0.0045 J0.0022
X1.153 Y2.829 Z0.0539 I0.0045 J-0.0022
X1.144 Y2.8335 Z0.0534 I-0.0045 J0.0022
X1.153 Y2.829 Z0.0528 I0.0045 J-0.0022
X1.144 Y2.8335 Z0.0523 I-0.0045 J0.0022
X1.153 Y2.829 Z0.0517 I0.0045 J-0.0022
X1.144 Y2.8335 Z0.0512 I-0.0045 J0.0022
X1.153 Y2.829 Z0.0506 I0.0045 J-0.0022
X1.144 Y2.8335 Z0.0501 I-0.0045 J0.0022
X1.153 Y2.829 Z0.0495 I0.0045 J-0.0022
X1.144 Y2.8335 Z0.049 I-0.0045 J0.0022
X1.153 Y2.829 Z0.0484 I0.0045 J-0.0022
X1.144 Y2.8335 Z0.0479 I-0.0045 J0.0022
X1.153 Y2.829 Z0.0473 I0.0045 J-0.0022
X1.144 Y2.8335 Z0.0468 I-0.0045 J0.0022
X1.153 Y2.829 Z0.0462 I0.0045 J-0.0022
X1.144 Y2.8335 Z0.0457 I-0.0045 J0.0022
X1.153 Y2.829 Z0.0451 I0.0045 J-0.0022
X1.144 Y2.8335 Z0.0446 I-0.0045 J0.0022
X1.153 Y2.829 Z0.044 I0.0045 J-0.0022
X1.144 Y2.8335 Z0.0435 I-0.0045 J0.0022
X1.153 Y2.829 Z0.043 I0.0045 J-0.0022
X1.144 Y2.8335 Z0.0424 I-0.0045 J0.0022
X1.153 Y2.829 Z0.0419 I0.0045 J-0.0022
X1.144 Y2.8335 Z0.0413 I-0.0045 J0.0022
X1.153 Y2.829 Z0.0408 I0.0045 J-0.0022
X1.144 Y2.8335 Z0.0402 I-0.0045 J0.0022
X1.153 Y2.829 Z0.0397 I0.0045 J-0.0022
X1.144 Y2.8335 Z0.0391 I-0.0045 J0.0022
X1.153 Y2.829 Z0.0386 I0.0045 J-0.0022
X1.144 Y2.8335 Z0.038 I-0.0045 J0.0022
X1.153 Y2.829 Z0.0375 I0.0045 J-0.0022
X1.144 Y2.8335 Z0.0369 I-0.0045 J0.0022
X1.153 Y2.829 Z0.0364 I0.0045 J-0.0022
X1.144 Y2.8335 Z0.0358 I-0.0045 J0.0022
X1.153 Y2.829 Z0.0353 I0.0045 J-0.0022
X1.144 Y2.8335 Z0.0347 I-0.0045 J0.0022
X1.153 Y2.829 Z0.0342 I0.0045 J-0.0022
X1.144 Y2.8335 Z0.0336 I-0.0045 J0.0022
X1.153 Y2.829 Z0.0331 I0.0045 J-0.0022
X1.144 Y2.8335 Z0.0325 I-0.0045 J0.0022
X1.153 Y2.829 Z0.032 I0.0045 J-0.0022
X1.144 Y2.8335 Z0.0314 I-0.0045 J0.0022
X1.153 Y2.829 Z0.0309 I0.0045 J-0.0022
X1.144 Y2.8335 Z0.0303 I-0.0045 J0.0022
X1.153 Y2.829 Z0.0298 I0.0045 J-0.0022
X1.144 Y2.8335 Z0.0292 I-0.0045 J0.0022
X1.153 Y2.829 Z0.0287 I0.0045 J-0.0022
X1.144 Y2.8335 Z0.0281 I-0.0045 J0.0022
X1.153 Y2.829 Z0.0276 I0.0045 J-0.0022
X1.144 Y2.8335 Z0.027 I-0.0045 J0.0022
X1.153 Y2.829 Z0.0265 I0.0045 J-0.0022
X1.144 Y2.8335 Z0.0259 I-0.0045 J0.0022
X1.153 Y2.829 Z0.0254 I0.0045 J-0.0022
X1.144 Y2.8335 Z0.0249 I-0.0045 J0.0022
X1.153 Y2.829 Z0.0243 I0.0045 J-0.0022
X1.144 Y2.8335 Z0.0238 I-0.0045 J0.0022
X1.153 Y2.829 Z0.0232 I0.0045 J-0.0022
X1.144 Y2.8335 Z0.0227 I-0.0045 J0.0022
X1.153 Y2.829 Z0.0221 I0.0045 J-0.0022
X1.144 Y2.8335 Z0.0216 I-0.0045 J0.0022
X1.153 Y2.829 Z0.021 I0.0045 J-0.0022
X1.144 Y2.8335 Z0.0205 I-0.0045 J0.0022
X1.153 Y2.829 Z0.0199 I0.0045 J-0.0022
X1.144 Y2.8335 Z0.0194 I-0.0045 J0.0022
X1.153 Y2.829 Z0.0188 I0.0045 J-0.0022
X1.144 Y2.8335 Z0.0183 I-0.0045 J0.0022
X1.153 Y2.829 Z0.0177 I0.0045 J-0.0022
X1.144 Y2.8335 Z0.0172 I-0.0045 J0.0022
X1.153 Y2.829 Z0.0166 I0.0045 J-0.0022
X1.144 Y2.8335 Z0.0161 I-0.0045 J0.0022
X1.153 Y2.829 Z0.0155 I0.0045 J-0.0022
X1.144 Y2.8335 Z0.015 I-0.0045 J0.0022
X1.153 Y2.829 Z0.0144 I0.0045 J-0.0022
X1.144 Y2.8335 Z0.0139 I-0.0045 J0.0022
X1.153 Y2.829 Z0.0133 I0.0045 J-0.0022
X1.144 Y2.8335 Z0.0128 I-0.0045 J0.0022
X1.153 Y2.829 Z0.0122 I0.0045 J-0.0022
X1.144 Y2.8335 Z0.0117 I-0.0045 J0.0022
X1.153 Y2.829 Z0.0111 I0.0045 J-0.0022
X1.144 Y2.8335 Z0.0106 I-0.0045 J0.0022
X1.153 Y2.829 Z0.01 I0.0045 J-0.0022
X1.144 Y2.8335 Z0.0095 I-0.0045 J0.0022
X1.153 Y2.829 Z0.0089 I0.0045 J-0.0022
X1.144 Y2.8335 Z0.0084 I-0.0045 J0.0022
X1.153 Y2.829 Z0.0078 I0.0045 J-0.0022
X1.144 Y2.8335 Z0.0073 I-0.0045 J0.0022
X1.153 Y2.829 Z0.0067 I0.0045 J-0.0022
X1.144 Y2.8335 Z0.0062 I-0.0045 J0.0022
X1.153 Y2.829 Z0.0057 I0.0045 J-0.0022
X1.144 Y2.8335 Z0.0051 I-0.0045 J0.0022
X1.153 Y2.829 Z0.0046 I0.0045 J-0.0022
X1.144 Y2.8335 Z0.004 I-0.0045 J0.0022
X1.153 Y2.829 Z0.0035 I0.0045 J-0.0022
X1.144 Y2.8335 Z0.0029 I-0.0045 J0.0022
X1.153 Y2.829 Z0.0024 I0.0045 J-0.0022
X1.144 Y2.8335 Z0.0018 I-0.0045 J0.0022
X1.153 Y2.829 Z0.0013 I0.0045 J-0.0022
X1.144 Y2.8335 Z0.0007 I-0.0045 J0.0022
X1.153 Y2.829 Z0.0002 I0.0045 J-0.0022
X1.144 Y2.8335 Z-0.0004 I-0.0045 J0.0022
X1.153 Y2.829 Z-0.0009 I0.0045 J-0.0022
X1.144 Y2.8335 Z-0.0015 I-0.0045 J0.0022
X1.153 Y2.829 Z-0.002 I0.0045 J-0.0022
X1.144 Y2.8335 Z-0.0026 I-0.0045 J0.0022
X1.153 Y2.829 Z-0.0031 I0.0045 J-0.0022
X1.144 Y2.8335 Z-0.0037 I-0.0045 J0.0022
X1.153 Y2.829 Z-0.0042 I0.0045 J-0.0022
X1.144 Y2.8335 Z-0.0048 I-0.0045 J0.0022
X1.153 Y2.829 Z-0.0053 I0.0045 J-0.0022
X1.144 Y2.8335 Z-0.0059 I-0.0045 J0.0022
X1.153 Y2.829 Z-0.0064 I0.0045 J-0.0022
X1.144 Y2.8335 Z-0.007 I-0.0045 J0.0022
X1.153 Y2.829 Z-0.0075 I0.0045 J-0.0022
X1.144 Y2.8335 Z-0.0081 I-0.0045 J0.0022
X1.153 Y2.829 Z-0.0086 I0.0045 J-0.0022
X1.144 Y2.8335 Z-0.0092 I-0.0045 J0.0022
X1.153 Y2.829 Z-0.0097 I0.0045 J-0.0022
X1.144 Y2.8335 Z-0.0103 I-0.0045 J0.0022
X1.153 Y2.829 Z-0.0108 I0.0045 J-0.0022
X1.144 Y2.8335 Z-0.0114 I-0.0045 J0.0022
X1.153 Y2.829 Z-0.0119 I0.0045 J-0.0022
X1.144 Y2.8335 Z-0.0124 I-0.0045 J0.0022
