(1001)
(T1  D=6.35 CR=0. - ZMIN=-1.5 - FLAT END MILL)
G90 G94 G91.1 G40 G49 G17
G21
(2ND HOLE )
G0 Z45

(2D CONTOUR2)
M5
T1 M6
S16000 M3
G54
M8
G0 X-123.46 Y108.255
G43 Z116.4 H1
Z31.4
G1 Z29.535 F800.
G19 G2 Y107.62 Z28.9 J-0.635 K0.
G1 Y106.985 F1600.
G17 G3 X-122.825 Y106.35 I0.635 J0.
G1 X-94.875 Z27.924 F800.
X-145.675 Z26.15
X-94.875 F1600.
X-145.675 Z25.9 F800.
X-94.875 F1600.
X-145.675 Z25.65 F800.
X-94.875 F1600.
X-145.675 Z25.4 F800.
X-94.875 F1600.
X-145.675 Z25.15 F800.
X-94.875 F1600.
X-145.675 Z24.9 F800.
X-94.875 F1600.
X-145.675 Z24.65 F800.
X-94.875 F1600.
X-145.675 Z24.4 F800.
X-94.875 F1600.
X-145.675 Z24.15 F800.
X-94.875 F1600.
X-145.675 Z23.9 F800.
X-94.875 F1600.
X-145.675 Z23.65 F800.
X-94.875 F1600.
X-145.675 Z23.4 F800.
X-94.875 F1600.
X-145.675 Z23.15 F800.
X-94.875 F1600.
X-145.675 Z22.9 F800.
X-94.875 F1600.
X-145.675 Z22.65 F800.
X-94.875 F1600.
X-145.675 Z22.4 F800.
X-94.875 F1600.
X-145.675 Z22.15 F800.
X-94.875 F1600.
X-145.675 Z21.9 F800.
X-94.875 F1600.
X-145.675 Z21.65 F800.
X-94.875 F1600.
X-145.675 Z21.4 F800.
X-94.875 F1600.
X-145.675 Z21.15 F800.
X-94.875 F1600.
X-145.675 Z20.9 F800.
X-94.875 F1600.
X-145.675 Z20.65 F800.
X-94.875 F1600.
X-145.675 Z20.4 F800.
X-94.875 F1600.
X-145.675 Z20.15 F800.
X-94.875 F1600.
X-145.675 Z19.9 F800.
X-94.875 F1600.
X-145.675 Z19.65 F800.
X-94.875 F1600.
X-145.675 Z19.4 F800.
X-94.875 F1600.
X-145.675 Z19.15 F800.
X-94.875 F1600.
X-145.675 Z18.9 F800.
X-94.875 F1600.
X-145.675 Z18.65 F800.
X-94.875 F1600.
X-145.675 Z18.4 F800.
X-94.875 F1600.
X-145.675 Z18.15 F800.
X-94.875 F1600.
X-145.675 Z17.9 F800.
X-94.875 F1600.
X-145.675 Z17.65 F800.
X-94.875 F1600.
X-145.675 Z17.4 F800.
X-94.875 F1600.
X-145.675 Z17.15 F800.
X-94.875 F1600.
X-145.675 Z16.9 F800.
X-94.875 F1600.
X-145.675 Z16.65 F800.
X-94.875 F1600.
X-145.675 Z16.4 F800.
X-94.875 F1600.
X-145.675 Z16.15 F800.
X-94.875 F1600.
X-145.675 Z15.9 F800.
X-94.875 F1600.
X-145.675 Z15.65 F800.
X-94.875 F1600.
X-145.675 Z15.4 F800.
X-94.875 F1600.
X-145.675 Z15.15 F800.
X-94.875 F1600.
X-145.675 Z14.9 F800.
X-94.875 F1600.
X-145.675 Z14.65 F800.
X-94.875 F1600.
X-145.675 Z14.4 F800.
X-94.875 F1600.
X-145.675 Z14.15 F800.
X-94.875 F1600.
X-145.675 Z13.9 F800.
X-94.875 F1600.
X-145.675 Z13.65 F800.
X-94.875 F1600.
X-145.675 Z13.4 F800.
X-94.875 F1600.
X-145.675 Z13.15 F800.
X-94.875 F1600.
X-145.675 Z12.9 F800.
X-94.875 F1600.
X-145.675 Z12.65 F800.
X-94.875 F1600.
X-145.675 Z12.4 F800.
X-94.875 F1600.
X-145.675 Z12.15 F800.
X-94.875 F1600.
X-145.675 Z11.9 F800.
X-94.875 F1600.
X-145.675 Z11.65 F800.
X-94.875 F1600.
X-145.675 Z11.4 F800.
X-94.875 F1600.
X-145.675 Z11.15 F800.
X-94.875 F1600.
X-145.675 Z10.9 F800.
X-94.875 F1600.
X-145.675 Z10.65 F800.
X-94.875 F1600.
X-145.675 Z10.4 F800.
X-94.875 F1600.
X-145.675 Z10.15 F800.
X-94.875 F1600.
X-145.675 Z9.9 F800.
X-94.875 F1600.
X-145.675 Z9.65 F800.
X-94.875 F1600.
X-145.675 Z9.4 F800.
X-94.875 F1600.
X-145.675 Z9.15 F800.
X-94.875 F1600.
X-145.675 Z8.9 F800.
X-94.875 F1600.
X-145.675 Z8.65 F800.
X-94.875 F1600.
X-145.675 Z8.4 F800.
X-94.875 F1600.
X-145.675 Z8.15 F800.
X-94.875 F1600.
X-145.675 Z7.9 F800.
X-94.875 F1600.
X-145.675 Z7.65 F800.
X-94.875 F1600.
X-145.675 Z7.4 F800.
X-94.875 F1600.
X-145.675 Z7.15 F800.
X-94.875 F1600.
X-145.675 Z6.9 F800.
X-94.875 F1600.
X-145.675 Z6.65 F800.
X-94.875 F1600.
X-145.675 Z6.4 F800.
X-94.875 F1600.
X-145.675 Z6.15 F800.
X-94.875 F1600.
X-145.675 Z5.9 F800.
X-94.875 F1600.
X-145.675 Z5.65 F800.
X-94.875 F1600.
X-145.675 Z5.4 F800.
X-94.875 F1600.
X-145.675 Z5.15 F800.
X-94.875 F1600.
X-145.675 Z4.9 F800.
X-94.875 F1600.
X-145.675 Z4.65 F800.
X-94.875 F1600.
X-145.675 Z4.4 F800.
X-94.875 F1600.
X-145.675 Z4.15 F800.
X-94.875 F1600.
X-145.675 Z3.9 F800.
X-94.875 F1600.
X-145.675 Z3.65 F800.
X-94.875 F1600.
X-145.675 Z3.4 F800.
X-94.875 F1600.
X-145.675 Z3.15 F800.
X-94.875 F1600.
X-145.675 Z2.9 F800.
X-94.875 F1600.
X-145.675 Z2.65 F800.
X-94.875 F1600.
X-145.675 Z2.4 F800.
X-94.875 F1600.
X-145.675 Z2.15 F800.
X-94.875 F1600.
X-145.675 Z1.9 F800.
X-94.875 F1600.
X-145.675 Z1.65 F800.
X-94.875 F1600.
X-145.675 Z1.4 F800.
X-94.875 F1600.
X-145.675 Z1.15 F800.
X-94.875 F1600.
X-145.675 Z0.9 F800.
X-94.875 F1600.
X-145.675 Z0.65 F800.
X-94.875 F1600.
X-145.675 Z0.4 F800.
X-94.875 F1600.
X-145.675 Z0.15 F800.
X-94.875 F1600.
X-145.675 Z-0.1 F800.
X-94.875 F1600.
X-145.675 Z-0.35 F800.
X-94.875 F1600.
X-145.675 Z-0.6 F800.
X-94.875 F1600.
X-145.675 Z-0.85 F800.
X-94.875 F1600.
X-145.675 Z-1.1 F800.
X-94.875 F1600.
X-145.675 Z-1.35 F800.
X-94.875 F1600.
X-145.675 Z-1.5 F800.
X-94.875 F1600.
G3 X-94.24 Y106.985 I0. J0.635
G1 Y107.62
G19 G3 Y108.255 Z-0.865 J0. K0.635
G0 Z116.4
G17

(BORE5)
G0 X-120.478 Y3.315
Z116.4
Z27.765
G1 Z26.4 F800.
Y3.632
G2 X-120.275 Y3.836 I0.203 J0.
Y3.023 Z26.337 I0. J-0.406
Y3.836 Z26.275 I0. J0.406
Y3.023 Z26.212 I0. J-0.406
Y3.836 Z26.15 I0. J0.406
Y3.023 Z26.087 I0. J-0.406
Y3.836 Z26.025 I0. J0.406
Y3.023 Z25.962 I0. J-0.406
Y3.836 Z25.9 I0. J0.406
Y3.023 Z25.837 I0. J-0.406
Y3.836 Z25.775 I0. J0.406
Y3.023 Z25.712 I0. J-0.406
Y3.836 Z25.65 I0. J0.406
Y3.023 Z25.587 I0. J-0.406
Y3.836 Z25.525 I0. J0.406
Y3.023 Z25.462 I0. J-0.406
Y3.836 Z25.4 I0. J0.406
Y3.023 Z25.337 I0. J-0.406
Y3.836 Z25.275 I0. J0.406
Y3.023 Z25.212 I0. J-0.406
Y3.836 Z25.15 I0. J0.406
Y3.023 Z25.087 I0. J-0.406
Y3.836 Z25.025 I0. J0.406
Y3.023 Z24.962 I0. J-0.406
Y3.836 Z24.9 I0. J0.406
Y3.023 Z24.837 I0. J-0.406
Y3.836 Z24.775 I0. J0.406
Y3.023 Z24.712 I0. J-0.406
Y3.836 Z24.65 I0. J0.406
Y3.023 Z24.587 I0. J-0.406
Y3.836 Z24.525 I0. J0.406
Y3.023 Z24.462 I0. J-0.406
Y3.836 Z24.4 I0. J0.406
Y3.023 Z24.337 I0. J-0.406
Y3.836 Z24.275 I0. J0.406
Y3.023 Z24.212 I0. J-0.406
Y3.836 Z24.15 I0. J0.406
Y3.023 Z24.087 I0. J-0.406
Y3.836 Z24.024 I0. J0.406
Y3.023 Z23.962 I0. J-0.406
Y3.836 Z23.899 I0. J0.406
Y3.023 Z23.837 I0. J-0.406
Y3.836 Z23.774 I0. J0.406
Y3.023 Z23.712 I0. J-0.406
Y3.836 Z23.649 I0. J0.406
Y3.023 Z23.587 I0. J-0.406
Y3.836 Z23.524 I0. J0.406
Y3.023 Z23.462 I0. J-0.406
Y3.836 Z23.399 I0. J0.406
Y3.023 Z23.337 I0. J-0.406
Y3.836 Z23.274 I0. J0.406
Y3.023 Z23.212 I0. J-0.406
Y3.836 Z23.149 I0. J0.406
Y3.023 Z23.087 I0. J-0.406
Y3.836 Z23.024 I0. J0.406
Y3.023 Z22.962 I0. J-0.406
Y3.836 Z22.899 I0. J0.406
Y3.023 Z22.837 I0. J-0.406
Y3.836 Z22.774 I0. J0.406
Y3.023 Z22.712 I0. J-0.406
Y3.836 Z22.649 I0. J0.406
Y3.023 Z22.587 I0. J-0.406
Y3.836 Z22.524 I0. J0.406
Y3.023 Z22.462 I0. J-0.406
Y3.836 Z22.399 I0. J0.406
Y3.023 Z22.337 I0. J-0.406
Y3.836 Z22.274 I0. J0.406
Y3.023 Z22.212 I0. J-0.406
Y3.836 Z22.149 I0. J0.406
Y3.023 Z22.087 I0. J-0.406
Y3.836 Z22.024 I0. J0.406
Y3.023 Z21.962 I0. J-0.406
Y3.836 Z21.899 I0. J0.406
Y3.023 Z21.837 I0. J-0.406
Y3.836 Z21.774 I0. J0.406
Y3.023 Z21.711 I0. J-0.406
Y3.836 Z21.649 I0. J0.406
Y3.023 Z21.586 I0. J-0.406
Y3.836 Z21.524 I0. J0.406
Y3.023 Z21.461 I0. J-0.406
Y3.836 Z21.399 I0. J0.406
Y3.023 Z21.336 I0. J-0.406
Y3.836 Z21.274 I0. J0.406
Y3.023 Z21.211 I0. J-0.406
Y3.836 Z21.149 I0. J0.406
Y3.023 Z21.086 I0. J-0.406
Y3.836 Z21.024 I0. J0.406
Y3.023 Z20.961 I0. J-0.406
Y3.836 Z20.899 I0. J0.406
Y3.023 Z20.836 I0. J-0.406
Y3.836 Z20.774 I0. J0.406
X-120.016 Y3.116 Z20.725 I0. J-0.406
X-120.534 Y3.743 I-0.259 J0.313
X-120.016 Y3.116 I0.259 J-0.313
X-120.302 Y3.143 I-0.129 J0.157
G1 X-120.504 Y3.388
G0 Z71.4
X-120.478 Y-57.798
Z27.765
G1 Z26.4 F800.
Y-57.48
G2 X-120.275 Y-57.277 I0.203 J0.
Y-58.09 Z26.337 I0. J-0.406
Y-57.277 Z26.275 I0. J0.406
Y-58.09 Z26.212 I0. J-0.406
Y-57.277 Z26.15 I0. J0.406
Y-58.09 Z26.087 I0. J-0.406
Y-57.277 Z26.025 I0. J0.406
Y-58.09 Z25.962 I0. J-0.406
Y-57.277 Z25.9 I0. J0.406
Y-58.09 Z25.837 I0. J-0.406
Y-57.277 Z25.775 I0. J0.406
Y-58.09 Z25.712 I0. J-0.406
Y-57.277 Z25.65 I0. J0.406
Y-58.09 Z25.587 I0. J-0.406
Y-57.277 Z25.525 I0. J0.406
Y-58.09 Z25.462 I0. J-0.406
Y-57.277 Z25.4 I0. J0.406
Y-58.09 Z25.337 I0. J-0.406
Y-57.277 Z25.275 I0. J0.406
Y-58.09 Z25.212 I0. J-0.406
Y-57.277 Z25.15 I0. J0.406
Y-58.09 Z25.087 I0. J-0.406
Y-57.277 Z25.025 I0. J0.406
Y-58.09 Z24.962 I0. J-0.406
Y-57.277 Z24.9 I0. J0.406
Y-58.09 Z24.837 I0. J-0.406
Y-57.277 Z24.775 I0. J0.406
Y-58.09 Z24.712 I0. J-0.406
Y-57.277 Z24.65 I0. J0.406
Y-58.09 Z24.587 I0. J-0.406
Y-57.277 Z24.525 I0. J0.406
Y-58.09 Z24.462 I0. J-0.406
Y-57.277 Z24.4 I0. J0.406
Y-58.09 Z24.337 I0. J-0.406
Y-57.277 Z24.275 I0. J0.406
Y-58.09 Z24.212 I0. J-0.406
Y-57.277 Z24.15 I0. J0.406
Y-58.09 Z24.087 I0. J-0.406
Y-57.277 Z24.024 I0. J0.406
Y-58.09 Z23.962 I0. J-0.406
Y-57.277 Z23.899 I0. J0.406
Y-58.09 Z23.837 I0. J-0.406
Y-57.277 Z23.774 I0. J0.406
Y-58.09 Z23.712 I0. J-0.406
Y-57.277 Z23.649 I0. J0.406
Y-58.09 Z23.587 I0. J-0.406
Y-57.277 Z23.524 I0. J0.406
Y-58.09 Z23.462 I0. J-0.406
Y-57.277 Z23.399 I0. J0.406
Y-58.09 Z23.337 I0. J-0.406
Y-57.277 Z23.274 I0. J0.406
Y-58.09 Z23.212 I0. J-0.406
Y-57.277 Z23.149 I0. J0.406
Y-58.09 Z23.087 I0. J-0.406
Y-57.277 Z23.024 I0. J0.406
Y-58.09 Z22.962 I0. J-0.406
Y-57.277 Z22.899 I0. J0.406
Y-58.09 Z22.837 I0. J-0.406
Y-57.277 Z22.774 I0. J0.406
Y-58.09 Z22.712 I0. J-0.406
Y-57.277 Z22.649 I0. J0.406
Y-58.09 Z22.587 I0. J-0.406
Y-57.277 Z22.524 I0. J0.406
Y-58.09 Z22.462 I0. J-0.406
Y-57.277 Z22.399 I0. J0.406
Y-58.09 Z22.337 I0. J-0.406
Y-57.277 Z22.274 I0. J0.406
Y-58.09 Z22.212 I0. J-0.406
Y-57.277 Z22.149 I0. J0.406
Y-58.09 Z22.087 I0. J-0.406
Y-57.277 Z22.024 I0. J0.406
Y-58.09 Z21.962 I0. J-0.406
Y-57.277 Z21.899 I0. J0.406
Y-58.09 Z21.837 I0. J-0.406
Y-57.277 Z21.774 I0. J0.406
Y-58.09 Z21.711 I0. J-0.406
Y-57.277 Z21.649 I0. J0.406
Y-58.09 Z21.586 I0. J-0.406
Y-57.277 Z21.524 I0. J0.406
Y-58.09 Z21.461 I0. J-0.406
Y-57.277 Z21.399 I0. J0.406
Y-58.09 Z21.336 I0. J-0.406
Y-57.277 Z21.274 I0. J0.406
Y-58.09 Z21.211 I0. J-0.406
Y-57.277 Z21.149 I0. J0.406
Y-58.09 Z21.086 I0. J-0.406
Y-57.277 Z21.024 I0. J0.406
Y-58.09 Z20.961 I0. J-0.406
Y-57.277 Z20.899 I0. J0.406
Y-58.09 Z20.836 I0. J-0.406
Y-57.277 Z20.774 I0. J0.406
X-120.016 Y-57.997 Z20.725 I0. J-0.406
X-120.534 Y-57.37 I-0.259 J0.313
X-120.016 Y-57.997 I0.259 J-0.313
X-120.302 Y-57.969 I-0.129 J0.157
G1 X-120.504 Y-57.724
G0 Z116.4

(BORE6)
G0 X-120.91 Y-25.539
Z116.4
Z28.4
G1 Z27.035 F800.
G19 G3 Y-24.904 Z26.4 J0.635 K0.
G1 Y-24.587
G17 G2 X-120.275 Y-23.952 I0.635 J0.
Y-30.302 Z26.289 I0. J-3.175
Y-23.952 Z26.178 I0. J3.175
Y-30.302 Z26.067 I0. J-3.175
Y-23.952 Z25.957 I0. J3.175
Y-30.302 Z25.846 I0. J-3.175
Y-23.952 Z25.735 I0. J3.175
Y-30.302 Z25.624 I0. J-3.175
Y-23.952 Z25.513 I0. J3.175
Y-30.302 Z25.402 I0. J-3.175
Y-23.952 Z25.292 I0. J3.175
Y-30.302 Z25.181 I0. J-3.175
Y-23.952 Z25.07 I0. J3.175
Y-30.302 Z24.959 I0. J-3.175
Y-23.952 Z24.848 I0. J3.175
Y-30.302 Z24.737 I0. J-3.175
Y-23.952 Z24.627 I0. J3.175
Y-30.302 Z24.516 I0. J-3.175
Y-23.952 Z24.405 I0. J3.175
Y-30.302 Z24.294 I0. J-3.175
Y-23.952 Z24.183 I0. J3.175
Y-30.302 Z24.072 I0. J-3.175
Y-23.952 Z23.962 I0. J3.175
Y-30.302 Z23.851 I0. J-3.175
Y-23.952 Z23.74 I0. J3.175
Y-30.302 Z23.629 I0. J-3.175
Y-23.952 Z23.518 I0. J3.175
Y-30.302 Z23.407 I0. J-3.175
Y-23.952 Z23.296 I0. J3.175
Y-30.302 Z23.186 I0. J-3.175
Y-23.952 Z23.075 I0. J3.175
Y-30.302 Z22.964 I0. J-3.175
Y-23.952 Z22.853 I0. J3.175
Y-30.302 Z22.742 I0. J-3.175
Y-23.952 Z22.631 I0. J3.175
Y-30.302 Z22.521 I0. J-3.175
Y-23.952 Z22.41 I0. J3.175
Y-30.302 Z22.299 I0. J-3.175
Y-23.952 Z22.188 I0. J3.175
Y-30.302 Z22.077 I0. J-3.175
Y-23.952 Z21.966 I0. J3.175
Y-30.302 Z21.856 I0. J-3.175
Y-23.952 Z21.745 I0. J3.175
Y-30.302 Z21.634 I0. J-3.175
Y-23.952 Z21.523 I0. J3.175
Y-30.302 Z21.412 I0. J-3.175
Y-23.952 Z21.301 I0. J3.175
Y-30.302 Z21.191 I0. J-3.175
Y-23.952 Z21.08 I0. J3.175
Y-30.302 Z20.969 I0. J-3.175
Y-23.952 Z20.858 I0. J3.175
Y-30.302 Z20.747 I0. J-3.175
X-122.142 Y-29.695 Z20.725 I0. J3.175
X-118.408 Y-24.559 I1.867 J2.568
X-122.142 Y-29.695 I-1.867 J-2.568
X-122.282 Y-28.808 I0.373 J0.514
G1 X-122.095 Y-28.551
X-122.037 Y-28.471 Z20.733
X-121.98 Y-28.393 Z20.756
X-121.926 Y-28.318 Z20.794
X-121.876 Y-28.249 Z20.846
X-121.831 Y-28.188 Z20.911
X-121.793 Y-28.136 Z20.987
X-121.763 Y-28.094 Z21.072
X-121.74 Y-28.063 Z21.164
X-121.727 Y-28.044 Z21.261
X-121.722 Y-28.038 Z21.36
G0 Z71.4
X-120.91 Y-22.365
Z28.4
G1 Z27.035 F800.
G19 G3 Y-21.729 Z26.4 J0.635 K0.
G1 Y-21.412
G17 G2 X-120.275 Y-20.777 I0.635 J0.
Y-33.477 Z26.234 I0. J-6.35
Y-20.777 Z26.067 I0. J6.35
Y-33.477 Z25.901 I0. J-6.35
Y-20.777 Z25.735 I0. J6.35
Y-33.477 Z25.569 I0. J-6.35
Y-20.777 Z25.402 I0. J6.35
Y-33.477 Z25.236 I0. J-6.35
Y-20.777 Z25.07 I0. J6.35
Y-33.477 Z24.904 I0. J-6.35
Y-20.777 Z24.737 I0. J6.35
Y-33.477 Z24.571 I0. J-6.35
Y-20.777 Z24.405 I0. J6.35
Y-33.477 Z24.239 I0. J-6.35
Y-20.777 Z24.072 I0. J6.35
Y-33.477 Z23.906 I0. J-6.35
Y-20.777 Z23.74 I0. J6.35
Y-33.477 Z23.574 I0. J-6.35
Y-20.777 Z23.407 I0. J6.35
Y-33.477 Z23.241 I0. J-6.35
Y-20.777 Z23.075 I0. J6.35
Y-33.477 Z22.909 I0. J-6.35
Y-20.777 Z22.742 I0. J6.35
Y-33.477 Z22.576 I0. J-6.35
Y-20.777 Z22.41 I0. J6.35
Y-33.477 Z22.244 I0. J-6.35
Y-20.777 Z22.077 I0. J6.35
Y-33.477 Z21.911 I0. J-6.35
Y-20.777 Z21.745 I0. J6.35
Y-33.477 Z21.578 I0. J-6.35
Y-20.777 Z21.412 I0. J6.35
Y-33.477 Z21.246 I0. J-6.35
Y-20.777 Z21.08 I0. J6.35
Y-33.477 Z20.913 I0. J-6.35
Y-20.777 Z20.747 I0. J6.35
X-117.691 Y-21.326 Z20.725 I0. J-6.35
X-122.859 Y-32.928 I-2.584 J-5.801
X-117.691 Y-21.326 I2.584 J5.801
X-117.37 Y-22.165 I-0.258 J-0.58
G1 X-117.499 Y-22.455
X-117.539 Y-22.546 Z20.733
X-117.579 Y-22.634 Z20.756
X-117.616 Y-22.718 Z20.794
X-117.651 Y-22.796 Z20.846
X-117.681 Y-22.865 Z20.911
X-117.708 Y-22.924 Z20.987
X-117.729 Y-22.972 Z21.072
X-117.744 Y-23.007 Z21.164
X-117.754 Y-23.028 Z21.261
X-117.757 Y-23.035 Z21.36
G0 Z116.4
M5
G0 Z15
G0 X0 Y0

M9
M30
