(1001)
(T1  D=6.35 CR=0. - ZMIN=20.725 - FLAT END MILL)
G90 G94 G91.1 G40 G49 G17
G21
(4TH HOLE )
G0 Z45

(BORE8)
M5
T1 M6
S16000 M3
G54
M8
G0 X-120.473 Y90.983
G43 Z81.4 H1
Z27.765
G1 Z26.4 F800.
Y91.301
G2 X-120.275 Y91.499 I0.198 J0.
Y90.705 Z26.338 I0. J-0.397
Y91.499 Z26.275 I0. J0.397
Y90.705 Z26.213 I0. J-0.397
Y91.499 Z26.151 I0. J0.397
Y90.705 Z26.088 I0. J-0.397
Y91.499 Z26.026 I0. J0.397
Y90.705 Z25.964 I0. J-0.397
Y91.499 Z25.901 I0. J0.397
Y90.705 Z25.839 I0. J-0.397
Y91.499 Z25.777 I0. J0.397
Y90.705 Z25.714 I0. J-0.397
Y91.499 Z25.652 I0. J0.397
Y90.705 Z25.589 I0. J-0.397
Y91.499 Z25.527 I0. J0.397
Y90.705 Z25.465 I0. J-0.397
Y91.499 Z25.402 I0. J0.397
Y90.705 Z25.34 I0. J-0.397
Y91.499 Z25.278 I0. J0.397
Y90.705 Z25.215 I0. J-0.397
Y91.499 Z25.153 I0. J0.397
Y90.705 Z25.091 I0. J-0.397
Y91.499 Z25.028 I0. J0.397
Y90.705 Z24.966 I0. J-0.397
Y91.499 Z24.904 I0. J0.397
Y90.705 Z24.841 I0. J-0.397
Y91.499 Z24.779 I0. J0.397
Y90.705 Z24.717 I0. J-0.397
Y91.499 Z24.654 I0. J0.397
Y90.705 Z24.592 I0. J-0.397
Y91.499 Z24.53 I0. J0.397
Y90.705 Z24.467 I0. J-0.397
Y91.499 Z24.405 I0. J0.397
Y90.705 Z24.343 I0. J-0.397
Y91.499 Z24.28 I0. J0.397
Y90.705 Z24.218 I0. J-0.397
Y91.499 Z24.155 I0. J0.397
Y90.705 Z24.093 I0. J-0.397
Y91.499 Z24.031 I0. J0.397
Y90.705 Z23.968 I0. J-0.397
Y91.499 Z23.906 I0. J0.397
Y90.705 Z23.844 I0. J-0.397
Y91.499 Z23.781 I0. J0.397
Y90.705 Z23.719 I0. J-0.397
Y91.499 Z23.657 I0. J0.397
Y90.705 Z23.594 I0. J-0.397
Y91.499 Z23.532 I0. J0.397
Y90.705 Z23.47 I0. J-0.397
Y91.499 Z23.407 I0. J0.397
Y90.705 Z23.345 I0. J-0.397
Y91.499 Z23.283 I0. J0.397
Y90.705 Z23.22 I0. J-0.397
Y91.499 Z23.158 I0. J0.397
Y90.705 Z23.096 I0. J-0.397
Y91.499 Z23.033 I0. J0.397
Y90.705 Z22.971 I0. J-0.397
Y91.499 Z22.909 I0. J0.397
Y90.705 Z22.846 I0. J-0.397
Y91.499 Z22.784 I0. J0.397
Y90.705 Z22.722 I0. J-0.397
Y91.499 Z22.659 I0. J0.397
Y90.705 Z22.597 I0. J-0.397
Y91.499 Z22.534 I0. J0.397
Y90.705 Z22.472 I0. J-0.397
Y91.499 Z22.41 I0. J0.397
Y90.705 Z22.347 I0. J-0.397
Y91.499 Z22.285 I0. J0.397
Y90.705 Z22.223 I0. J-0.397
Y91.499 Z22.16 I0. J0.397
Y90.705 Z22.098 I0. J-0.397
Y91.499 Z22.036 I0. J0.397
Y90.705 Z21.973 I0. J-0.397
Y91.499 Z21.911 I0. J0.397
Y90.705 Z21.849 I0. J-0.397
Y91.499 Z21.786 I0. J0.397
Y90.705 Z21.724 I0. J-0.397
Y91.499 Z21.662 I0. J0.397
Y90.705 Z21.599 I0. J-0.397
Y91.499 Z21.537 I0. J0.397
Y90.705 Z21.475 I0. J-0.397
Y91.499 Z21.412 I0. J0.397
Y90.705 Z21.35 I0. J-0.397
Y91.499 Z21.288 I0. J0.397
Y90.705 Z21.225 I0. J-0.397
Y91.499 Z21.163 I0. J0.397
Y90.705 Z21.1 I0. J-0.397
Y91.499 Z21.038 I0. J0.397
Y90.705 Z20.976 I0. J-0.397
Y91.499 Z20.913 I0. J0.397
Y90.705 Z20.851 I0. J-0.397
Y91.499 Z20.789 I0. J0.397
X-119.878 Y91.088 Z20.757 I0. J-0.397
X-120.303 Y90.706 Z20.725 I-0.397 J0.014
X-120.247 Y91.498 I0.028 J0.396
X-120.303 Y90.706 I-0.028 J-0.396
X-120.487 Y90.918 I0.014 J0.198
G1 X-120.465 Y91.235
G0 Z71.4
X-120.91 Y79.719
Z28.4
G1 Z27.035 F800.
G19 G3 Y80.354 Z26.4 J0.635 K0.
G1 Y80.671
G17 G2 X-120.275 Y81.306 I0.635 J0.
Y74.956 Z26.289 I0. J-3.175
Y81.306 Z26.178 I0. J3.175
Y74.956 Z26.067 I0. J-3.175
Y81.306 Z25.957 I0. J3.175
Y74.956 Z25.846 I0. J-3.175
Y81.306 Z25.735 I0. J3.175
Y74.956 Z25.624 I0. J-3.175
Y81.306 Z25.513 I0. J3.175
Y74.956 Z25.402 I0. J-3.175
Y81.306 Z25.292 I0. J3.175
Y74.956 Z25.181 I0. J-3.175
Y81.306 Z25.07 I0. J3.175
Y74.956 Z24.959 I0. J-3.175
Y81.306 Z24.848 I0. J3.175
Y74.956 Z24.737 I0. J-3.175
Y81.306 Z24.627 I0. J3.175
Y74.956 Z24.516 I0. J-3.175
Y81.306 Z24.405 I0. J3.175
Y74.956 Z24.294 I0. J-3.175
Y81.306 Z24.183 I0. J3.175
Y74.956 Z24.072 I0. J-3.175
Y81.306 Z23.962 I0. J3.175
Y74.956 Z23.851 I0. J-3.175
Y81.306 Z23.74 I0. J3.175
Y74.956 Z23.629 I0. J-3.175
Y81.306 Z23.518 I0. J3.175
Y74.956 Z23.407 I0. J-3.175
Y81.306 Z23.296 I0. J3.175
Y74.956 Z23.186 I0. J-3.175
Y81.306 Z23.075 I0. J3.175
Y74.956 Z22.964 I0. J-3.175
Y81.306 Z22.853 I0. J3.175
Y74.956 Z22.742 I0. J-3.175
Y81.306 Z22.631 I0. J3.175
Y74.956 Z22.521 I0. J-3.175
Y81.306 Z22.41 I0. J3.175
Y74.956 Z22.299 I0. J-3.175
Y81.306 Z22.188 I0. J3.175
Y74.956 Z22.077 I0. J-3.175
Y81.306 Z21.966 I0. J3.175
Y74.956 Z21.856 I0. J-3.175
Y81.306 Z21.745 I0. J3.175
Y74.956 Z21.634 I0. J-3.175
Y81.306 Z21.523 I0. J3.175
Y74.956 Z21.412 I0. J-3.175
Y81.306 Z21.301 I0. J3.175
Y74.956 Z21.191 I0. J-3.175
Y81.306 Z21.08 I0. J3.175
Y74.956 Z20.969 I0. J-3.175
Y81.306 Z20.858 I0. J3.175
Y74.956 Z20.747 I0. J-3.175
X-122.142 Y75.563 Z20.725 I0. J3.175
X-118.408 Y80.699 I1.867 J2.568
X-122.142 Y75.563 I-1.867 J-2.568
X-122.282 Y76.45 I0.373 J0.514
G1 X-122.095 Y76.707
X-122.037 Y76.787 Z20.733
X-121.98 Y76.866 Z20.756
X-121.926 Y76.94 Z20.794
X-121.876 Y77.009 Z20.846
X-121.831 Y77.07 Z20.911
X-121.793 Y77.122 Z20.987
X-121.763 Y77.165 Z21.072
X-121.74 Y77.195 Z21.164
X-121.727 Y77.214 Z21.261
X-121.722 Y77.221 Z21.36
G0 Z71.4
X-120.91 Y18.606
Z28.4
G1 Z27.035 F800.
G19 G3 Y19.241 Z26.4 J0.635 K0.
G1 Y19.559
G17 G2 X-120.275 Y20.194 I0.635 J0.
Y13.844 Z26.289 I0. J-3.175
Y20.194 Z26.178 I0. J3.175
Y13.844 Z26.067 I0. J-3.175
Y20.194 Z25.957 I0. J3.175
Y13.844 Z25.846 I0. J-3.175
Y20.194 Z25.735 I0. J3.175
Y13.844 Z25.624 I0. J-3.175
Y20.194 Z25.513 I0. J3.175
Y13.844 Z25.402 I0. J-3.175
Y20.194 Z25.292 I0. J3.175
Y13.844 Z25.181 I0. J-3.175
Y20.194 Z25.07 I0. J3.175
Y13.844 Z24.959 I0. J-3.175
Y20.194 Z24.848 I0. J3.175
Y13.844 Z24.737 I0. J-3.175
Y20.194 Z24.627 I0. J3.175
Y13.844 Z24.516 I0. J-3.175
Y20.194 Z24.405 I0. J3.175
Y13.844 Z24.294 I0. J-3.175
Y20.194 Z24.183 I0. J3.175
Y13.844 Z24.072 I0. J-3.175
Y20.194 Z23.962 I0. J3.175
Y13.844 Z23.851 I0. J-3.175
Y20.194 Z23.74 I0. J3.175
Y13.844 Z23.629 I0. J-3.175
Y20.194 Z23.518 I0. J3.175
Y13.844 Z23.407 I0. J-3.175
Y20.194 Z23.296 I0. J3.175
Y13.844 Z23.186 I0. J-3.175
Y20.194 Z23.075 I0. J3.175
Y13.844 Z22.964 I0. J-3.175
Y20.194 Z22.853 I0. J3.175
Y13.844 Z22.742 I0. J-3.175
Y20.194 Z22.631 I0. J3.175
Y13.844 Z22.521 I0. J-3.175
Y20.194 Z22.41 I0. J3.175
Y13.844 Z22.299 I0. J-3.175
Y20.194 Z22.188 I0. J3.175
Y13.844 Z22.077 I0. J-3.175
Y20.194 Z21.966 I0. J3.175
Y13.844 Z21.856 I0. J-3.175
Y20.194 Z21.745 I0. J3.175
Y13.844 Z21.634 I0. J-3.175
Y20.194 Z21.523 I0. J3.175
Y13.844 Z21.412 I0. J-3.175
Y20.194 Z21.301 I0. J3.175
Y13.844 Z21.191 I0. J-3.175
Y20.194 Z21.08 I0. J3.175
Y13.844 Z20.969 I0. J-3.175
Y20.194 Z20.858 I0. J3.175
Y13.844 Z20.747 I0. J-3.175
X-122.142 Y14.451 Z20.725 I0. J3.175
X-118.408 Y19.587 I1.867 J2.568
X-122.142 Y14.451 I-1.867 J-2.568
X-122.282 Y15.338 I0.373 J0.514
G1 X-122.095 Y15.594
X-122.037 Y15.675 Z20.733
X-121.98 Y15.753 Z20.756
X-121.926 Y15.828 Z20.794
X-121.876 Y15.896 Z20.846
X-121.831 Y15.958 Z20.911
X-121.793 Y16.01 Z20.987
X-121.763 Y16.052 Z21.072
X-121.74 Y16.083 Z21.164
X-121.727 Y16.102 Z21.261
X-121.722 Y16.108 Z21.36
G0 Z81.4

(BORE9)
G0 X-120.91 Y49.162
Z81.4
Z28.4
G1 Z27.035 F800.
G19 G3 Y49.798 Z26.4 J0.635 K0.
G1 Y50.115
G17 G2 X-120.275 Y50.75 I0.635 J0.
Y44.4 Z26.289 I0. J-3.175
Y50.75 Z26.178 I0. J3.175
Y44.4 Z26.067 I0. J-3.175
Y50.75 Z25.957 I0. J3.175
Y44.4 Z25.846 I0. J-3.175
Y50.75 Z25.735 I0. J3.175
Y44.4 Z25.624 I0. J-3.175
Y50.75 Z25.513 I0. J3.175
Y44.4 Z25.402 I0. J-3.175
Y50.75 Z25.292 I0. J3.175
Y44.4 Z25.181 I0. J-3.175
Y50.75 Z25.07 I0. J3.175
Y44.4 Z24.959 I0. J-3.175
Y50.75 Z24.848 I0. J3.175
Y44.4 Z24.737 I0. J-3.175
Y50.75 Z24.627 I0. J3.175
Y44.4 Z24.516 I0. J-3.175
Y50.75 Z24.405 I0. J3.175
Y44.4 Z24.294 I0. J-3.175
Y50.75 Z24.183 I0. J3.175
Y44.4 Z24.072 I0. J-3.175
Y50.75 Z23.962 I0. J3.175
Y44.4 Z23.851 I0. J-3.175
Y50.75 Z23.74 I0. J3.175
Y44.4 Z23.629 I0. J-3.175
Y50.75 Z23.518 I0. J3.175
Y44.4 Z23.407 I0. J-3.175
Y50.75 Z23.296 I0. J3.175
Y44.4 Z23.186 I0. J-3.175
Y50.75 Z23.075 I0. J3.175
Y44.4 Z22.964 I0. J-3.175
Y50.75 Z22.853 I0. J3.175
Y44.4 Z22.742 I0. J-3.175
Y50.75 Z22.631 I0. J3.175
Y44.4 Z22.521 I0. J-3.175
Y50.75 Z22.41 I0. J3.175
Y44.4 Z22.299 I0. J-3.175
Y50.75 Z22.188 I0. J3.175
Y44.4 Z22.077 I0. J-3.175
Y50.75 Z21.966 I0. J3.175
Y44.4 Z21.856 I0. J-3.175
Y50.75 Z21.745 I0. J3.175
Y44.4 Z21.634 I0. J-3.175
Y50.75 Z21.523 I0. J3.175
Y44.4 Z21.412 I0. J-3.175
Y50.75 Z21.301 I0. J3.175
Y44.4 Z21.191 I0. J-3.175
Y50.75 Z21.08 I0. J3.175
Y44.4 Z20.969 I0. J-3.175
Y50.75 Z20.858 I0. J3.175
Y44.4 Z20.747 I0. J-3.175
X-122.142 Y45.007 Z20.725 I0. J3.175
X-118.408 Y50.143 I1.867 J2.568
X-122.142 Y45.007 I-1.867 J-2.568
X-122.282 Y45.894 I0.373 J0.514
G1 X-122.095 Y46.151
X-122.037 Y46.231 Z20.733
X-121.98 Y46.309 Z20.756
X-121.926 Y46.384 Z20.794
X-121.876 Y46.453 Z20.846
X-121.831 Y46.514 Z20.911
X-121.793 Y46.566 Z20.987
X-121.763 Y46.608 Z21.072
X-121.74 Y46.639 Z21.164
X-121.727 Y46.658 Z21.261
X-121.722 Y46.664 Z21.36
G0 Z71.4
X-120.91 Y52.338
Z28.4
G1 Z27.035 F800.
G19 G3 Y52.972 Z26.4 J0.635 K0.
G1 Y53.29
G17 G2 X-120.275 Y53.925 I0.635 J0.
Y41.225 Z26.234 I0. J-6.35
Y53.925 Z26.067 I0. J6.35
Y41.225 Z25.901 I0. J-6.35
Y53.925 Z25.735 I0. J6.35
Y41.225 Z25.569 I0. J-6.35
Y53.925 Z25.402 I0. J6.35
Y41.225 Z25.236 I0. J-6.35
Y53.925 Z25.07 I0. J6.35
Y41.225 Z24.904 I0. J-6.35
Y53.925 Z24.737 I0. J6.35
Y41.225 Z24.571 I0. J-6.35
Y53.925 Z24.405 I0. J6.35
Y41.225 Z24.239 I0. J-6.35
Y53.925 Z24.072 I0. J6.35
Y41.225 Z23.906 I0. J-6.35
Y53.925 Z23.74 I0. J6.35
Y41.225 Z23.574 I0. J-6.35
Y53.925 Z23.407 I0. J6.35
Y41.225 Z23.241 I0. J-6.35
Y53.925 Z23.075 I0. J6.35
Y41.225 Z22.909 I0. J-6.35
Y53.925 Z22.742 I0. J6.35
Y41.225 Z22.576 I0. J-6.35
Y53.925 Z22.41 I0. J6.35
Y41.225 Z22.244 I0. J-6.35
Y53.925 Z22.077 I0. J6.35
Y41.225 Z21.911 I0. J-6.35
Y53.925 Z21.745 I0. J6.35
Y41.225 Z21.578 I0. J-6.35
Y53.925 Z21.412 I0. J6.35
Y41.225 Z21.246 I0. J-6.35
Y53.925 Z21.08 I0. J6.35
Y41.225 Z20.913 I0. J-6.35
Y53.925 Z20.747 I0. J6.35
X-117.691 Y53.376 Z20.725 I0. J-6.35
X-122.859 Y41.774 I-2.584 J-5.801
X-117.691 Y53.376 I2.584 J5.801
X-117.37 Y52.537 I-0.258 J-0.58
G1 X-117.499 Y52.247
X-117.539 Y52.156 Z20.733
X-117.579 Y52.068 Z20.756
X-117.616 Y51.984 Z20.794
X-117.651 Y51.906 Z20.846
X-117.681 Y51.837 Z20.911
X-117.708 Y51.778 Z20.987
X-117.729 Y51.73 Z21.072
X-117.744 Y51.695 Z21.164
X-117.754 Y51.674 Z21.261
X-117.757 Y51.667 Z21.36
G0 Z81.4

(BORE12)
G0 X-120.91 Y4.319
Z81.4
Z28.4
G1 Z27.035 F800.
G19 G3 Y4.954 Z26.4 J0.635 K0.
G1 Y5.271
G17 G2 X-120.275 Y5.906 I0.635 J0.
Y-12.356 Z26.185 I0. J-9.131
Y5.906 Z25.97 I0. J9.131
Y-12.356 Z25.756 I0. J-9.131
Y5.906 Z25.541 I0. J9.131
Y-12.356 Z25.326 I0. J-9.131
Y5.906 Z25.111 I0. J9.131
Y-12.356 Z24.896 I0. J-9.131
Y5.906 Z24.682 I0. J9.131
Y-12.356 Z24.467 I0. J-9.131
Y5.906 Z24.252 I0. J9.131
Y-12.356 Z24.037 I0. J-9.131
X-129.383 Y-2.57 Z23.925 I0. J9.131
X-118.969 Y5.812 Z23.813 I9.108 J-0.655
X-121.581 Y-12.262 I-1.306 J-9.037
X-118.969 Y5.812 I1.306 J9.037
X-118.431 Y5.093 I-0.091 J-0.628
G1 X-118.477 Y4.779
X-118.491 Y4.681 Z23.82
X-118.505 Y4.585 Z23.844
X-118.518 Y4.494 Z23.882
X-118.53 Y4.409 Z23.934
X-118.541 Y4.335 Z23.998
X-118.55 Y4.27 Z24.074
X-118.558 Y4.219 Z24.159
X-118.563 Y4.181 Z24.251
X-118.566 Y4.158 Z24.348
X-118.568 Y4.15 Z24.448
G0 Z81.4

(BORE11)
G0 X-120.91 Y-0.05
Z81.4
Z28.4
G1 Z27.035 F800.
G19 G3 Y0.585 Z26.4 J0.635 K0.
G1 Y0.902
G17 G2 X-120.275 Y1.538 I0.635 J0.
Y-7.987 Z26.261 I0. J-4.762
Y1.537 Z26.123 I0. J4.762
Y-7.987 Z25.984 I0. J-4.762
Y1.537 Z25.846 I0. J4.762
Y-7.987 Z25.707 I0. J-4.762
Y1.537 Z25.569 I0. J4.762
Y-7.987 Z25.43 I0. J-4.762
Y1.537 Z25.292 I0. J4.762
Y-7.987 Z25.153 I0. J-4.762
Y1.537 Z25.015 I0. J4.762
Y-7.987 Z24.876 I0. J-4.762
Y1.537 Z24.737 I0. J4.762
Y-7.987 Z24.599 I0. J-4.762
Y1.537 Z24.46 I0. J4.762
Y-7.987 Z24.322 I0. J-4.762
Y1.537 Z24.183 I0. J4.762
Y-7.987 Z24.045 I0. J-4.762
Y1.537 Z23.906 I0. J4.762
Y-7.987 Z23.768 I0. J-4.762
Y1.537 Z23.629 I0. J4.762
Y-7.987 Z23.49 I0. J-4.762
Y1.537 Z23.352 I0. J4.762
Y-7.987 Z23.213 I0. J-4.762
Y1.537 Z23.075 I0. J4.762
Y-7.987 Z22.936 I0. J-4.762
Y1.537 Z22.798 I0. J4.762
Y-7.987 Z22.659 I0. J-4.762
Y1.537 Z22.521 I0. J4.762
Y-7.987 Z22.382 I0. J-4.762
Y1.537 Z22.244 I0. J4.762
Y-7.987 Z22.105 I0. J-4.762
Y1.537 Z21.966 I0. J4.762
Y-7.987 Z21.828 I0. J-4.762
Y1.537 Z21.689 I0. J4.762
Y-7.987 Z21.551 I0. J-4.762
Y1.537 Z21.412 I0. J4.762
Y-7.987 Z21.274 I0. J-4.762
X-124.527 Y-5.37 Z21.225 I0. J4.762
X-116.023 Y-1.08 I4.252 J2.145
X-124.527 Y-5.37 I-4.252 J-2.145
X-124.246 Y-4.517 I0.567 J0.286
G1 X-123.963 Y-4.374
X-123.874 Y-4.33 Z21.233
X-123.787 Y-4.286 Z21.256
X-123.705 Y-4.245 Z21.294
X-123.629 Y-4.206 Z21.346
X-123.562 Y-4.172 Z21.411
X-123.504 Y-4.143 Z21.487
X-123.457 Y-4.12 Z21.572
X-123.423 Y-4.102 Z21.664
X-123.403 Y-4.092 Z21.761
X-123.396 Y-4.088 Z21.86
G0 Z71.4
X-120.91 Y3.125
Z28.4
G1 Z27.035 F800.
G19 G3 Y3.76 Z26.4 J0.635 K0.
G1 Y4.077
G17 G2 X-120.275 Y4.713 I0.635 J0.
Y-11.163 Z26.206 I0. J-7.938
Y4.713 Z26.012 I0. J7.938
Y-11.163 Z25.818 I0. J-7.938
Y4.713 Z25.624 I0. J7.938
Y-11.163 Z25.43 I0. J-7.938
Y4.713 Z25.236 I0. J7.938
Y-11.163 Z25.042 I0. J-7.938
Y4.713 Z24.848 I0. J7.938
Y-11.163 Z24.654 I0. J-7.938
Y4.713 Z24.46 I0. J7.938
Y-11.163 Z24.266 I0. J-7.938
Y4.713 Z24.072 I0. J7.938
Y-11.163 Z23.878 I0. J-7.938
Y4.713 Z23.684 I0. J7.938
Y-11.163 Z23.49 I0. J-7.938
Y4.713 Z23.296 I0. J7.938
Y-11.163 Z23.103 I0. J-7.938
Y4.713 Z22.909 I0. J7.938
Y-11.163 Z22.715 I0. J-7.938
Y4.713 Z22.521 I0. J7.938
Y-11.163 Z22.327 I0. J-7.938
Y4.713 Z22.133 I0. J7.938
Y-11.163 Z21.939 I0. J-7.938
Y4.713 Z21.745 I0. J7.938
Y-11.163 Z21.551 I0. J-7.938
Y4.713 Z21.357 I0. J7.938
X-113.566 Y-7.467 Z21.225 I0. J-7.938
X-126.984 Y1.017 I-6.709 J4.242
X-113.566 Y-7.467 I6.709 J-4.242
X-114.442 Y-7.664 I-0.537 J0.339
G1 X-114.71 Y-7.495
X-114.794 Y-7.441 Z21.233
X-114.876 Y-7.39 Z21.256
X-114.954 Y-7.34 Z21.294
X-115.026 Y-7.295 Z21.346
X-115.09 Y-7.255 Z21.411
X-115.145 Y-7.22 Z21.487
X-115.189 Y-7.192 Z21.572
X-115.221 Y-7.172 Z21.664
X-115.241 Y-7.159 Z21.761
X-115.247 Y-7.155 Z21.86
G0 Z81.4

(BORE13)
G0 X-104.394 Y-76.823
Z81.4
Z27.765
G1 Z26.4 F800.
Y-76.505
G3 X-104.593 Y-76.307 I-0.198 J0.
Y-77.101 Z26.338 I0. J-0.397
Y-76.307 Z26.275 I0. J0.397
Y-77.101 Z26.213 I0. J-0.397
Y-76.307 Z26.151 I0. J0.397
Y-77.101 Z26.088 I0. J-0.397
Y-76.307 Z26.026 I0. J0.397
Y-77.101 Z25.964 I0. J-0.397
Y-76.307 Z25.901 I0. J0.397
Y-77.101 Z25.839 I0. J-0.397
Y-76.307 Z25.777 I0. J0.397
Y-77.101 Z25.714 I0. J-0.397
Y-76.307 Z25.652 I0. J0.397
Y-77.101 Z25.589 I0. J-0.397
Y-76.307 Z25.527 I0. J0.397
Y-77.101 Z25.465 I0. J-0.397
Y-76.307 Z25.402 I0. J0.397
Y-77.101 Z25.34 I0. J-0.397
Y-76.307 Z25.278 I0. J0.397
Y-77.101 Z25.215 I0. J-0.397
Y-76.307 Z25.153 I0. J0.397
Y-77.101 Z25.091 I0. J-0.397
Y-76.307 Z25.028 I0. J0.397
Y-77.101 Z24.966 I0. J-0.397
Y-76.307 Z24.904 I0. J0.397
Y-77.101 Z24.841 I0. J-0.397
Y-76.307 Z24.779 I0. J0.397
Y-77.101 Z24.717 I0. J-0.397
Y-76.307 Z24.654 I0. J0.397
Y-77.101 Z24.592 I0. J-0.397
Y-76.307 Z24.53 I0. J0.397
Y-77.101 Z24.467 I0. J-0.397
Y-76.307 Z24.405 I0. J0.397
Y-77.101 Z24.343 I0. J-0.397
Y-76.307 Z24.28 I0. J0.397
Y-77.101 Z24.218 I0. J-0.397
Y-76.307 Z24.155 I0. J0.397
Y-77.101 Z24.093 I0. J-0.397
Y-76.307 Z24.031 I0. J0.397
Y-77.101 Z23.968 I0. J-0.397
Y-76.307 Z23.906 I0. J0.397
Y-77.101 Z23.844 I0. J-0.397
Y-76.307 Z23.781 I0. J0.397
Y-77.101 Z23.719 I0. J-0.397
Y-76.307 Z23.657 I0. J0.397
Y-77.101 Z23.594 I0. J-0.397
Y-76.307 Z23.532 I0. J0.397
Y-77.101 Z23.47 I0. J-0.397
Y-76.307 Z23.407 I0. J0.397
Y-77.101 Z23.345 I0. J-0.397
Y-76.307 Z23.283 I0. J0.397
Y-77.101 Z23.22 I0. J-0.397
Y-76.307 Z23.158 I0. J0.397
Y-77.101 Z23.096 I0. J-0.397
Y-76.307 Z23.033 I0. J0.397
Y-77.101 Z22.971 I0. J-0.397
Y-76.307 Z22.909 I0. J0.397
Y-77.101 Z22.846 I0. J-0.397
Y-76.307 Z22.784 I0. J0.397
Y-77.101 Z22.722 I0. J-0.397
Y-76.307 Z22.659 I0. J0.397
Y-77.101 Z22.597 I0. J-0.397
Y-76.307 Z22.534 I0. J0.397
Y-77.101 Z22.472 I0. J-0.397
Y-76.307 Z22.41 I0. J0.397
Y-77.101 Z22.347 I0. J-0.397
Y-76.307 Z22.285 I0. J0.397
Y-77.101 Z22.223 I0. J-0.397
Y-76.307 Z22.16 I0. J0.397
Y-77.101 Z22.098 I0. J-0.397
Y-76.307 Z22.036 I0. J0.397
Y-77.101 Z21.973 I0. J-0.397
Y-76.307 Z21.911 I0. J0.397
Y-77.101 Z21.849 I0. J-0.397
Y-76.307 Z21.786 I0. J0.397
Y-77.101 Z21.724 I0. J-0.397
Y-76.307 Z21.662 I0. J0.397
Y-77.101 Z21.599 I0. J-0.397
Y-76.307 Z21.537 I0. J0.397
Y-77.101 Z21.475 I0. J-0.397
Y-76.307 Z21.412 I0. J0.397
Y-77.101 Z21.35 I0. J-0.397
Y-76.307 Z21.288 I0. J0.397
Y-77.101 Z21.225 I0. J-0.397
Y-76.307 Z21.163 I0. J0.397
Y-77.101 Z21.1 I0. J-0.397
Y-76.307 Z21.038 I0. J0.397
Y-77.101 Z20.976 I0. J-0.397
Y-76.307 Z20.913 I0. J0.397
Y-77.101 Z20.851 I0. J-0.397
Y-76.307 Z20.789 I0. J0.397
X-104.989 Y-76.718 Z20.757 I0. J-0.397
X-104.565 Y-77.1 Z20.725 I0.397 J0.014
X-104.621 Y-76.308 I-0.028 J0.396
X-104.565 Y-77.1 I0.028 J-0.396
X-104.381 Y-76.888 I-0.014 J0.198
G1 X-104.403 Y-76.571
G0 Z71.4
X-135.759 Y-76.823
Z27.765
G1 Z26.4 F800.
Y-76.505
G3 X-135.957 Y-76.307 I-0.198 J0.
Y-77.101 Z26.338 I0. J-0.397
Y-76.307 Z26.275 I0. J0.397
Y-77.101 Z26.213 I0. J-0.397
Y-76.307 Z26.151 I0. J0.397
Y-77.101 Z26.088 I0. J-0.397
Y-76.307 Z26.026 I0. J0.397
Y-77.101 Z25.964 I0. J-0.397
Y-76.307 Z25.901 I0. J0.397
Y-77.101 Z25.839 I0. J-0.397
Y-76.307 Z25.777 I0. J0.397
Y-77.101 Z25.714 I0. J-0.397
Y-76.307 Z25.652 I0. J0.397
Y-77.101 Z25.589 I0. J-0.397
Y-76.307 Z25.527 I0. J0.397
Y-77.101 Z25.465 I0. J-0.397
Y-76.307 Z25.402 I0. J0.397
Y-77.101 Z25.34 I0. J-0.397
Y-76.307 Z25.278 I0. J0.397
Y-77.101 Z25.215 I0. J-0.397
Y-76.307 Z25.153 I0. J0.397
Y-77.101 Z25.091 I0. J-0.397
Y-76.307 Z25.028 I0. J0.397
Y-77.101 Z24.966 I0. J-0.397
Y-76.307 Z24.904 I0. J0.397
Y-77.101 Z24.841 I0. J-0.397
Y-76.307 Z24.779 I0. J0.397
Y-77.101 Z24.717 I0. J-0.397
Y-76.307 Z24.654 I0. J0.397
Y-77.101 Z24.592 I0. J-0.397
Y-76.307 Z24.53 I0. J0.397
Y-77.101 Z24.467 I0. J-0.397
Y-76.307 Z24.405 I0. J0.397
Y-77.101 Z24.343 I0. J-0.397
Y-76.307 Z24.28 I0. J0.397
Y-77.101 Z24.218 I0. J-0.397
Y-76.307 Z24.155 I0. J0.397
Y-77.101 Z24.093 I0. J-0.397
Y-76.307 Z24.031 I0. J0.397
Y-77.101 Z23.968 I0. J-0.397
Y-76.307 Z23.906 I0. J0.397
Y-77.101 Z23.844 I0. J-0.397
Y-76.307 Z23.781 I0. J0.397
Y-77.101 Z23.719 I0. J-0.397
Y-76.307 Z23.657 I0. J0.397
Y-77.101 Z23.594 I0. J-0.397
Y-76.307 Z23.532 I0. J0.397
Y-77.101 Z23.47 I0. J-0.397
Y-76.307 Z23.407 I0. J0.397
Y-77.101 Z23.345 I0. J-0.397
Y-76.307 Z23.283 I0. J0.397
Y-77.101 Z23.22 I0. J-0.397
Y-76.307 Z23.158 I0. J0.397
Y-77.101 Z23.096 I0. J-0.397
Y-76.307 Z23.033 I0. J0.397
Y-77.101 Z22.971 I0. J-0.397
Y-76.307 Z22.909 I0. J0.397
Y-77.101 Z22.846 I0. J-0.397
Y-76.307 Z22.784 I0. J0.397
Y-77.101 Z22.722 I0. J-0.397
Y-76.307 Z22.659 I0. J0.397
Y-77.101 Z22.597 I0. J-0.397
Y-76.307 Z22.534 I0. J0.397
Y-77.101 Z22.472 I0. J-0.397
Y-76.307 Z22.41 I0. J0.397
Y-77.101 Z22.347 I0. J-0.397
Y-76.307 Z22.285 I0. J0.397
Y-77.101 Z22.223 I0. J-0.397
Y-76.307 Z22.16 I0. J0.397
Y-77.101 Z22.098 I0. J-0.397
Y-76.307 Z22.036 I0. J0.397
Y-77.101 Z21.973 I0. J-0.397
Y-76.307 Z21.911 I0. J0.397
Y-77.101 Z21.849 I0. J-0.397
Y-76.307 Z21.786 I0. J0.397
Y-77.101 Z21.724 I0. J-0.397
Y-76.307 Z21.662 I0. J0.397
Y-77.101 Z21.599 I0. J-0.397
Y-76.307 Z21.537 I0. J0.397
Y-77.101 Z21.475 I0. J-0.397
Y-76.307 Z21.412 I0. J0.397
Y-77.101 Z21.35 I0. J-0.397
Y-76.307 Z21.288 I0. J0.397
Y-77.101 Z21.225 I0. J-0.397
Y-76.307 Z21.163 I0. J0.397
Y-77.101 Z21.1 I0. J-0.397
Y-76.307 Z21.038 I0. J0.397
Y-77.101 Z20.976 I0. J-0.397
Y-76.307 Z20.913 I0. J0.397
Y-77.101 Z20.851 I0. J-0.397
Y-76.307 Z20.789 I0. J0.397
X-136.354 Y-76.718 Z20.757 I0. J-0.397
X-135.929 Y-77.1 Z20.725 I0.397 J0.014
X-135.985 Y-76.308 I-0.028 J0.396
X-135.929 Y-77.1 I0.028 J-0.396
X-135.745 Y-76.888 I-0.014 J0.198
G1 X-135.768 Y-76.571
G0 Z81.4
M5
G0 Z15
G0 X0 Y0

M9
M30
