(T1  D=6.35 CR=0. - ZMIN=-4.675 - FLAT END MILL)
G90 G94 G91.1 G40 G49 G17
G21
(4TH HOLE )
G0 Z15

(BORE8)
M5
T1 M6
S16000 M3
G54
M8
G0 X120.473 Y-90.983
G43 Z20. H1
Z2.365
G1 Z1. F800.
Y-91.301
G2 X120.275 Y-91.499 I-0.198 J0.
Y-90.705 Z0.938 I0. J0.397
Y-91.499 Z0.875 I0. J-0.397
Y-90.705 Z0.813 I0. J0.397
Y-91.499 Z0.751 I0. J-0.397
Y-90.705 Z0.688 I0. J0.397
Y-91.499 Z0.626 I0. J-0.397
Y-90.705 Z0.564 I0. J0.397
Y-91.499 Z0.501 I0. J-0.397
Y-90.705 Z0.439 I0. J0.397
Y-91.499 Z0.377 I0. J-0.397
Y-90.705 Z0.314 I0. J0.397
Y-91.499 Z0.252 I0. J-0.397
Y-90.705 Z0.189 I0. J0.397
Y-91.499 Z0.127 I0. J-0.397
Y-90.705 Z0.065 I0. J0.397
Y-91.499 Z0.002 I0. J-0.397
Y-90.705 Z-0.06 I0. J0.397
Y-91.499 Z-0.122 I0. J-0.397
Y-90.705 Z-0.185 I0. J0.397
Y-91.499 Z-0.247 I0. J-0.397
Y-90.705 Z-0.309 I0. J0.397
Y-91.499 Z-0.372 I0. J-0.397
Y-90.705 Z-0.434 I0. J0.397
Y-91.499 Z-0.496 I0. J-0.397
Y-90.705 Z-0.559 I0. J0.397
Y-91.499 Z-0.621 I0. J-0.397
Y-90.705 Z-0.683 I0. J0.397
Y-91.499 Z-0.746 I0. J-0.397
Y-90.705 Z-0.808 I0. J0.397
Y-91.499 Z-0.87 I0. J-0.397
Y-90.705 Z-0.933 I0. J0.397
Y-91.499 Z-0.995 I0. J-0.397
Y-90.705 Z-1.057 I0. J0.397
Y-91.499 Z-1.12 I0. J-0.397
Y-90.705 Z-1.182 I0. J0.397
Y-91.499 Z-1.245 I0. J-0.397
Y-90.705 Z-1.307 I0. J0.397
Y-91.499 Z-1.369 I0. J-0.397
Y-90.705 Z-1.432 I0. J0.397
Y-91.499 Z-1.494 I0. J-0.397
Y-90.705 Z-1.556 I0. J0.397
Y-91.499 Z-1.619 I0. J-0.397
Y-90.705 Z-1.681 I0. J0.397
Y-91.499 Z-1.743 I0. J-0.397
Y-90.705 Z-1.806 I0. J0.397
Y-91.499 Z-1.868 I0. J-0.397
Y-90.705 Z-1.93 I0. J0.397
Y-91.499 Z-1.993 I0. J-0.397
Y-90.705 Z-2.055 I0. J0.397
Y-91.499 Z-2.117 I0. J-0.397
Y-90.705 Z-2.18 I0. J0.397
Y-91.499 Z-2.242 I0. J-0.397
Y-90.705 Z-2.304 I0. J0.397
Y-91.499 Z-2.367 I0. J-0.397
Y-90.705 Z-2.429 I0. J0.397
Y-91.499 Z-2.491 I0. J-0.397
Y-90.705 Z-2.554 I0. J0.397
Y-91.499 Z-2.616 I0. J-0.397
Y-90.705 Z-2.678 I0. J0.397
Y-91.499 Z-2.741 I0. J-0.397
Y-90.705 Z-2.803 I0. J0.397
Y-91.499 Z-2.866 I0. J-0.397
Y-90.705 Z-2.928 I0. J0.397
Y-91.499 Z-2.99 I0. J-0.397
Y-90.705 Z-3.053 I0. J0.397
Y-91.499 Z-3.115 I0. J-0.397
Y-90.705 Z-3.177 I0. J0.397
Y-91.499 Z-3.24 I0. J-0.397
Y-90.705 Z-3.302 I0. J0.397
Y-91.499 Z-3.364 I0. J-0.397
Y-90.705 Z-3.427 I0. J0.397
Y-91.499 Z-3.489 I0. J-0.397
Y-90.705 Z-3.551 I0. J0.397
Y-91.499 Z-3.614 I0. J-0.397
Y-90.705 Z-3.676 I0. J0.397
Y-91.499 Z-3.738 I0. J-0.397
Y-90.705 Z-3.801 I0. J0.397
Y-91.499 Z-3.863 I0. J-0.397
Y-90.705 Z-3.925 I0. J0.397
Y-91.499 Z-3.988 I0. J-0.397
Y-90.705 Z-4.05 I0. J0.397
Y-91.499 Z-4.112 I0. J-0.397
Y-90.705 Z-4.175 I0. J0.397
Y-91.499 Z-4.237 I0. J-0.397
Y-90.705 Z-4.3 I0. J0.397
Y-91.499 Z-4.362 I0. J-0.397
Y-90.705 Z-4.424 I0. J0.397
Y-91.499 Z-4.487 I0. J-0.397
Y-90.705 Z-4.549 I0. J0.397
Y-91.499 Z-4.611 I0. J-0.397
X119.878 Y-91.088 Z-4.643 I0. J0.397
X120.303 Y-90.706 Z-4.675 I0.397 J-0.014
X120.247 Y-91.498 I-0.028 J-0.396
X120.303 Y-90.706 I0.028 J0.396
X120.487 Y-90.918 I-0.014 J-0.198
G1 X120.465 Y-91.235
G0 Z5.
X120.91 Y-79.719
Z3.
G1 Z1.635 F800.
G19 G2 Y-80.354 Z1. J-0.635 K0.
G1 Y-80.671
G17 G2 X120.275 Y-81.306 I-0.635 J0.
Y-74.956 Z0.889 I0. J3.175
Y-81.306 Z0.778 I0. J-3.175
Y-74.956 Z0.667 I0. J3.175
Y-81.306 Z0.557 I0. J-3.175
Y-74.956 Z0.446 I0. J3.175
Y-81.306 Z0.335 I0. J-3.175
Y-74.956 Z0.224 I0. J3.175
Y-81.306 Z0.113 I0. J-3.175
Y-74.956 Z0.002 I0. J3.175
Y-81.306 Z-0.108 I0. J-3.175
Y-74.956 Z-0.219 I0. J3.175
Y-81.306 Z-0.33 I0. J-3.175
Y-74.956 Z-0.441 I0. J3.175
Y-81.306 Z-0.552 I0. J-3.175
Y-74.956 Z-0.663 I0. J3.175
Y-81.306 Z-0.773 I0. J-3.175
Y-74.956 Z-0.884 I0. J3.175
Y-81.306 Z-0.995 I0. J-3.175
Y-74.956 Z-1.106 I0. J3.175
Y-81.306 Z-1.217 I0. J-3.175
Y-74.956 Z-1.328 I0. J3.175
Y-81.306 Z-1.438 I0. J-3.175
Y-74.956 Z-1.549 I0. J3.175
Y-81.306 Z-1.66 I0. J-3.175
Y-74.956 Z-1.771 I0. J3.175
Y-81.306 Z-1.882 I0. J-3.175
Y-74.956 Z-1.993 I0. J3.175
Y-81.306 Z-2.104 I0. J-3.175
Y-74.956 Z-2.214 I0. J3.175
Y-81.306 Z-2.325 I0. J-3.175
Y-74.956 Z-2.436 I0. J3.175
Y-81.306 Z-2.547 I0. J-3.175
Y-74.956 Z-2.658 I0. J3.175
Y-81.306 Z-2.769 I0. J-3.175
Y-74.956 Z-2.879 I0. J3.175
Y-81.306 Z-2.99 I0. J-3.175
Y-74.956 Z-3.101 I0. J3.175
Y-81.306 Z-3.212 I0. J-3.175
Y-74.956 Z-3.323 I0. J3.175
Y-81.306 Z-3.434 I0. J-3.175
Y-74.956 Z-3.544 I0. J3.175
Y-81.306 Z-3.655 I0. J-3.175
Y-74.956 Z-3.766 I0. J3.175
Y-81.306 Z-3.877 I0. J-3.175
Y-74.956 Z-3.988 I0. J3.175
Y-81.306 Z-4.099 I0. J-3.175
Y-74.956 Z-4.209 I0. J3.175
Y-81.306 Z-4.32 I0. J-3.175
Y-74.956 Z-4.431 I0. J3.175
Y-81.306 Z-4.542 I0. J-3.175
Y-74.956 Z-4.653 I0. J3.175
X122.142 Y-75.563 Z-4.675 I0. J-3.175
X118.408 Y-80.699 I-1.867 J-2.568
X122.142 Y-75.563 I1.867 J2.568
X122.282 Y-76.45 I-0.373 J-0.514
G1 X122.095 Y-76.707
X122.037 Y-76.787 Z-4.667
X121.98 Y-76.866 Z-4.644
X121.926 Y-76.94 Z-4.606
X121.876 Y-77.009 Z-4.554
X121.831 Y-77.07 Z-4.489
X121.793 Y-77.122 Z-4.413
X121.763 Y-77.165 Z-4.328
X121.74 Y-77.195 Z-4.236
X121.727 Y-77.214 Z-4.139
X121.722 Y-77.221 Z-4.04
G0 Z5.
X120.91 Y-18.606
Z3.
G1 Z1.635 F800.
G19 G2 Y-19.241 Z1. J-0.635 K0.
G1 Y-19.559
G17 G2 X120.275 Y-20.194 I-0.635 J0.
Y-13.844 Z0.889 I0. J3.175
Y-20.194 Z0.778 I0. J-3.175
Y-13.844 Z0.667 I0. J3.175
Y-20.194 Z0.557 I0. J-3.175
Y-13.844 Z0.446 I0. J3.175
Y-20.194 Z0.335 I0. J-3.175
Y-13.844 Z0.224 I0. J3.175
Y-20.194 Z0.113 I0. J-3.175
Y-13.844 Z0.002 I0. J3.175
Y-20.194 Z-0.108 I0. J-3.175
Y-13.844 Z-0.219 I0. J3.175
Y-20.194 Z-0.33 I0. J-3.175
Y-13.844 Z-0.441 I0. J3.175
Y-20.194 Z-0.552 I0. J-3.175
Y-13.844 Z-0.663 I0. J3.175
Y-20.194 Z-0.773 I0. J-3.175
Y-13.844 Z-0.884 I0. J3.175
Y-20.194 Z-0.995 I0. J-3.175
Y-13.844 Z-1.106 I0. J3.175
Y-20.194 Z-1.217 I0. J-3.175
Y-13.844 Z-1.328 I0. J3.175
Y-20.194 Z-1.438 I0. J-3.175
Y-13.844 Z-1.549 I0. J3.175
Y-20.194 Z-1.66 I0. J-3.175
Y-13.844 Z-1.771 I0. J3.175
Y-20.194 Z-1.882 I0. J-3.175
Y-13.844 Z-1.993 I0. J3.175
Y-20.194 Z-2.104 I0. J-3.175
Y-13.844 Z-2.214 I0. J3.175
Y-20.194 Z-2.325 I0. J-3.175
Y-13.844 Z-2.436 I0. J3.175
Y-20.194 Z-2.547 I0. J-3.175
Y-13.844 Z-2.658 I0. J3.175
Y-20.194 Z-2.769 I0. J-3.175
Y-13.844 Z-2.879 I0. J3.175
Y-20.194 Z-2.99 I0. J-3.175
Y-13.844 Z-3.101 I0. J3.175
Y-20.194 Z-3.212 I0. J-3.175
Y-13.844 Z-3.323 I0. J3.175
Y-20.194 Z-3.434 I0. J-3.175
Y-13.844 Z-3.544 I0. J3.175
Y-20.194 Z-3.655 I0. J-3.175
Y-13.844 Z-3.766 I0. J3.175
Y-20.194 Z-3.877 I0. J-3.175
Y-13.844 Z-3.988 I0. J3.175
Y-20.194 Z-4.099 I0. J-3.175
Y-13.844 Z-4.209 I0. J3.175
Y-20.194 Z-4.32 I0. J-3.175
Y-13.844 Z-4.431 I0. J3.175
Y-20.194 Z-4.542 I0. J-3.175
Y-13.844 Z-4.653 I0. J3.175
X122.142 Y-14.451 Z-4.675 I0. J-3.175
X118.408 Y-19.587 I-1.867 J-2.568
X122.142 Y-14.451 I1.867 J2.568
X122.282 Y-15.338 I-0.373 J-0.514
G1 X122.095 Y-15.594
X122.037 Y-15.675 Z-4.667
X121.98 Y-15.753 Z-4.644
X121.926 Y-15.828 Z-4.606
X121.876 Y-15.896 Z-4.554
X121.831 Y-15.958 Z-4.489
X121.793 Y-16.01 Z-4.413
X121.763 Y-16.052 Z-4.328
X121.74 Y-16.083 Z-4.236
X121.727 Y-16.102 Z-4.139
X121.722 Y-16.108 Z-4.04
G0 Z20.
M9

(BORE9)
G0 X120.91 Y-49.162
Z20.
Z3.
G1 Z1.635 F800.
G19 G2 Y-49.798 Z1. J-0.635 K0.
G1 Y-50.115
G17 G2 X120.275 Y-50.75 I-0.635 J0.
Y-44.4 Z0.889 I0. J3.175
Y-50.75 Z0.778 I0. J-3.175
Y-44.4 Z0.667 I0. J3.175
Y-50.75 Z0.557 I0. J-3.175
Y-44.4 Z0.446 I0. J3.175
Y-50.75 Z0.335 I0. J-3.175
Y-44.4 Z0.224 I0. J3.175
Y-50.75 Z0.113 I0. J-3.175
Y-44.4 Z0.002 I0. J3.175
Y-50.75 Z-0.108 I0. J-3.175
Y-44.4 Z-0.219 I0. J3.175
Y-50.75 Z-0.33 I0. J-3.175
Y-44.4 Z-0.441 I0. J3.175
Y-50.75 Z-0.552 I0. J-3.175
Y-44.4 Z-0.663 I0. J3.175
Y-50.75 Z-0.773 I0. J-3.175
Y-44.4 Z-0.884 I0. J3.175
Y-50.75 Z-0.995 I0. J-3.175
Y-44.4 Z-1.106 I0. J3.175
Y-50.75 Z-1.217 I0. J-3.175
Y-44.4 Z-1.328 I0. J3.175
Y-50.75 Z-1.438 I0. J-3.175
Y-44.4 Z-1.549 I0. J3.175
Y-50.75 Z-1.66 I0. J-3.175
Y-44.4 Z-1.771 I0. J3.175
Y-50.75 Z-1.882 I0. J-3.175
Y-44.4 Z-1.993 I0. J3.175
Y-50.75 Z-2.104 I0. J-3.175
Y-44.4 Z-2.214 I0. J3.175
Y-50.75 Z-2.325 I0. J-3.175
Y-44.4 Z-2.436 I0. J3.175
Y-50.75 Z-2.547 I0. J-3.175
Y-44.4 Z-2.658 I0. J3.175
Y-50.75 Z-2.769 I0. J-3.175
Y-44.4 Z-2.879 I0. J3.175
Y-50.75 Z-2.99 I0. J-3.175
Y-44.4 Z-3.101 I0. J3.175
Y-50.75 Z-3.212 I0. J-3.175
Y-44.4 Z-3.323 I0. J3.175
Y-50.75 Z-3.434 I0. J-3.175
Y-44.4 Z-3.544 I0. J3.175
Y-50.75 Z-3.655 I0. J-3.175
Y-44.4 Z-3.766 I0. J3.175
Y-50.75 Z-3.877 I0. J-3.175
Y-44.4 Z-3.988 I0. J3.175
Y-50.75 Z-4.099 I0. J-3.175
Y-44.4 Z-4.209 I0. J3.175
Y-50.75 Z-4.32 I0. J-3.175
Y-44.4 Z-4.431 I0. J3.175
Y-50.75 Z-4.542 I0. J-3.175
Y-44.4 Z-4.653 I0. J3.175
X122.142 Y-45.007 Z-4.675 I0. J-3.175
X118.408 Y-50.143 I-1.867 J-2.568
X122.142 Y-45.007 I1.867 J2.568
X122.282 Y-45.894 I-0.373 J-0.514
G1 X122.095 Y-46.151
X122.037 Y-46.231 Z-4.667
X121.98 Y-46.309 Z-4.644
X121.926 Y-46.384 Z-4.606
X121.876 Y-46.453 Z-4.554
X121.831 Y-46.514 Z-4.489
X121.793 Y-46.566 Z-4.413
X121.763 Y-46.608 Z-4.328
X121.74 Y-46.639 Z-4.236
X121.727 Y-46.658 Z-4.139
X121.722 Y-46.664 Z-4.04
G0 Z5.
X120.91 Y-52.338
Z3.
G1 Z1.635 F800.
G19 G2 Y-52.972 Z1. J-0.635 K0.
G1 Y-53.29
G17 G2 X120.275 Y-53.925 I-0.635 J0.
Y-41.225 Z0.834 I0. J6.35
Y-53.925 Z0.667 I0. J-6.35
Y-41.225 Z0.501 I0. J6.35
Y-53.925 Z0.335 I0. J-6.35
Y-41.225 Z0.169 I0. J6.35
Y-53.925 Z0.002 I0. J-6.35
Y-41.225 Z-0.164 I0. J6.35
Y-53.925 Z-0.33 I0. J-6.35
Y-41.225 Z-0.496 I0. J6.35
Y-53.925 Z-0.663 I0. J-6.35
Y-41.225 Z-0.829 I0. J6.35
Y-53.925 Z-0.995 I0. J-6.35
Y-41.225 Z-1.161 I0. J6.35
Y-53.925 Z-1.328 I0. J-6.35
Y-41.225 Z-1.494 I0. J6.35
Y-53.925 Z-1.66 I0. J-6.35
Y-41.225 Z-1.826 I0. J6.35
Y-53.925 Z-1.993 I0. J-6.35
Y-41.225 Z-2.159 I0. J6.35
Y-53.925 Z-2.325 I0. J-6.35
Y-41.225 Z-2.491 I0. J6.35
Y-53.925 Z-2.658 I0. J-6.35
Y-41.225 Z-2.824 I0. J6.35
Y-53.925 Z-2.99 I0. J-6.35
Y-41.225 Z-3.156 I0. J6.35
Y-53.925 Z-3.323 I0. J-6.35
Y-41.225 Z-3.489 I0. J6.35
Y-53.925 Z-3.655 I0. J-6.35
Y-41.225 Z-3.822 I0. J6.35
Y-53.925 Z-3.988 I0. J-6.35
Y-41.225 Z-4.154 I0. J6.35
Y-53.925 Z-4.32 I0. J-6.35
Y-41.225 Z-4.487 I0. J6.35
Y-53.925 Z-4.653 I0. J-6.35
X117.691 Y-53.376 Z-4.675 I0. J6.35
X122.859 Y-41.774 I2.584 J5.801
X117.691 Y-53.376 I-2.584 J-5.801
X117.37 Y-52.537 I0.258 J0.58
G1 X117.499 Y-52.247
X117.539 Y-52.156 Z-4.667
X117.579 Y-52.068 Z-4.644
X117.616 Y-51.984 Z-4.606
X117.651 Y-51.906 Z-4.554
X117.681 Y-51.837 Z-4.489
X117.708 Y-51.778 Z-4.413
X117.729 Y-51.73 Z-4.328
X117.744 Y-51.695 Z-4.236
X117.754 Y-51.674 Z-4.139
X117.757 Y-51.667 Z-4.04
G0 Z20.

(BORE11)
G0 X120.91 Y0.05
Z20.
Z3.
G1 Z1.635 F800.
G19 G2 Y-0.585 Z1. J-0.635 K0.
G1 Y-0.902
G17 G2 X120.275 Y-1.538 I-0.635 J0.
Y7.987 Z0.861 I0. J4.762
Y-1.537 Z0.723 I0. J-4.762
Y7.987 Z0.584 I0. J4.762
Y-1.537 Z0.446 I0. J-4.762
Y7.987 Z0.307 I0. J4.762
Y-1.537 Z0.169 I0. J-4.762
Y7.987 Z0.03 I0. J4.762
Y-1.537 Z-0.108 I0. J-4.762
Y7.987 Z-0.247 I0. J4.762
Y-1.537 Z-0.385 I0. J-4.762
Y7.987 Z-0.524 I0. J4.762
Y-1.537 Z-0.663 I0. J-4.762
Y7.987 Z-0.801 I0. J4.762
Y-1.537 Z-0.94 I0. J-4.762
Y7.987 Z-1.078 I0. J4.762
Y-1.537 Z-1.217 I0. J-4.762
Y7.987 Z-1.355 I0. J4.762
Y-1.537 Z-1.494 I0. J-4.762
Y7.987 Z-1.632 I0. J4.762
Y-1.537 Z-1.771 I0. J-4.762
Y7.987 Z-1.91 I0. J4.762
Y-1.537 Z-2.048 I0. J-4.762
Y7.987 Z-2.187 I0. J4.762
Y-1.537 Z-2.325 I0. J-4.762
Y7.987 Z-2.464 I0. J4.762
Y-1.537 Z-2.602 I0. J-4.762
Y7.987 Z-2.741 I0. J4.762
Y-1.537 Z-2.879 I0. J-4.762
Y7.987 Z-3.018 I0. J4.762
Y-1.537 Z-3.156 I0. J-4.762
Y7.987 Z-3.295 I0. J4.762
Y-1.537 Z-3.434 I0. J-4.762
Y7.987 Z-3.572 I0. J4.762
Y-1.537 Z-3.711 I0. J-4.762
Y7.987 Z-3.849 I0. J4.762
Y-1.537 Z-3.988 I0. J-4.762
Y7.987 Z-4.126 I0. J4.762
X124.527 Y5.37 Z-4.175 I0. J-4.762
X116.023 Y1.08 I-4.252 J-2.145
X124.527 Y5.37 I4.252 J2.145
X124.246 Y4.517 I-0.567 J-0.286
G1 X123.963 Y4.374
X123.874 Y4.33 Z-4.167
X123.787 Y4.286 Z-4.144
X123.705 Y4.245 Z-4.106
X123.629 Y4.206 Z-4.054
X123.562 Y4.172 Z-3.989
X123.504 Y4.143 Z-3.913
X123.457 Y4.12 Z-3.828
X123.423 Y4.102 Z-3.736
X123.403 Y4.092 Z-3.639
X123.396 Y4.088 Z-3.54
G0 Z5.
X120.91 Y-3.125
Z3.
G1 Z1.635 F800.
G19 G2 Y-3.76 Z1. J-0.635 K0.
G1 Y-4.077
G17 G2 X120.275 Y-4.713 I-0.635 J0.
Y11.163 Z0.806 I0. J7.938
Y-4.713 Z0.612 I0. J-7.938
Y11.163 Z0.418 I0. J7.938
Y-4.713 Z0.224 I0. J-7.938
Y11.163 Z0.03 I0. J7.938
Y-4.713 Z-0.164 I0. J-7.938
Y11.163 Z-0.358 I0. J7.938
Y-4.713 Z-0.552 I0. J-7.938
Y11.163 Z-0.746 I0. J7.938
Y-4.713 Z-0.94 I0. J-7.938
Y11.163 Z-1.134 I0. J7.938
Y-4.713 Z-1.328 I0. J-7.938
Y11.163 Z-1.522 I0. J7.938
Y-4.713 Z-1.716 I0. J-7.938
Y11.163 Z-1.91 I0. J7.938
Y-4.713 Z-2.104 I0. J-7.938
Y11.163 Z-2.297 I0. J7.938
Y-4.713 Z-2.491 I0. J-7.938
Y11.163 Z-2.685 I0. J7.938
Y-4.713 Z-2.879 I0. J-7.938
Y11.163 Z-3.073 I0. J7.938
Y-4.713 Z-3.267 I0. J-7.938
Y11.163 Z-3.461 I0. J7.938
Y-4.713 Z-3.655 I0. J-7.938
Y11.163 Z-3.849 I0. J7.938
Y-4.713 Z-4.043 I0. J-7.938
X113.566 Y7.467 Z-4.175 I0. J7.938
X126.984 Y-1.017 I6.709 J-4.242
X113.566 Y7.467 I-6.709 J4.242
X114.442 Y7.664 I0.537 J-0.339
G1 X114.71 Y7.495
X114.794 Y7.441 Z-4.167
X114.876 Y7.39 Z-4.144
X114.954 Y7.34 Z-4.106
X115.026 Y7.295 Z-4.054
X115.09 Y7.255 Z-3.989
X115.145 Y7.22 Z-3.913
X115.189 Y7.192 Z-3.828
X115.221 Y7.172 Z-3.736
X115.241 Y7.159 Z-3.639
X115.247 Y7.155 Z-3.54
G0 Z20.

(BORE12)
G0 X120.91 Y-4.319
Z20.
Z3.
G1 Z1.635 F800.
G19 G2 Y-4.954 Z1. J-0.635 K0.
G1 Y-5.271
G17 G2 X120.275 Y-5.906 I-0.635 J0.
Y12.356 Z0.785 I0. J9.131
Y-5.906 Z0.57 I0. J-9.131
Y12.356 Z0.356 I0. J9.131
Y-5.906 Z0.141 I0. J-9.131
Y12.356 Z-0.074 I0. J9.131
Y-5.906 Z-0.289 I0. J-9.131
Y12.356 Z-0.504 I0. J9.131
Y-5.906 Z-0.718 I0. J-9.131
Y12.356 Z-0.933 I0. J9.131
Y-5.906 Z-1.148 I0. J-9.131
Y12.356 Z-1.363 I0. J9.131
X129.383 Y2.57 Z-1.475 I0. J-9.131
X118.969 Y-5.812 Z-1.587 I-9.108 J0.655
X121.581 Y12.262 I1.306 J9.037
X118.969 Y-5.812 I-1.306 J-9.037
X118.431 Y-5.093 I0.091 J0.628
G1 X118.477 Y-4.779
X118.491 Y-4.681 Z-1.58
X118.505 Y-4.585 Z-1.556
X118.518 Y-4.494 Z-1.518
X118.53 Y-4.409 Z-1.466
X118.541 Y-4.335 Z-1.402
X118.55 Y-4.27 Z-1.326
X118.558 Y-4.219 Z-1.241
X118.563 Y-4.181 Z-1.149
X118.566 Y-4.158 Z-1.052
X118.568 Y-4.15 Z-0.952
G0 Z20.

(BORE13)
G0 X104.791 Y76.823
Z20.
Z2.365
G1 Z1. F800.
Y76.505
G2 X104.593 Y76.307 I-0.198 J0.
Y77.101 Z0.938 I0. J0.397
Y76.307 Z0.875 I0. J-0.397
Y77.101 Z0.813 I0. J0.397
Y76.307 Z0.751 I0. J-0.397
Y77.101 Z0.688 I0. J0.397
Y76.307 Z0.626 I0. J-0.397
Y77.101 Z0.564 I0. J0.397
Y76.307 Z0.501 I0. J-0.397
Y77.101 Z0.439 I0. J0.397
Y76.307 Z0.377 I0. J-0.397
Y77.101 Z0.314 I0. J0.397
Y76.307 Z0.252 I0. J-0.397
Y77.101 Z0.189 I0. J0.397
Y76.307 Z0.127 I0. J-0.397
Y77.101 Z0.065 I0. J0.397
Y76.307 Z0.002 I0. J-0.397
Y77.101 Z-0.06 I0. J0.397
Y76.307 Z-0.122 I0. J-0.397
Y77.101 Z-0.185 I0. J0.397
Y76.307 Z-0.247 I0. J-0.397
Y77.101 Z-0.309 I0. J0.397
Y76.307 Z-0.372 I0. J-0.397
Y77.101 Z-0.434 I0. J0.397
Y76.307 Z-0.496 I0. J-0.397
Y77.101 Z-0.559 I0. J0.397
Y76.307 Z-0.621 I0. J-0.397
Y77.101 Z-0.683 I0. J0.397
Y76.307 Z-0.746 I0. J-0.397
Y77.101 Z-0.808 I0. J0.397
Y76.307 Z-0.87 I0. J-0.397
Y77.101 Z-0.933 I0. J0.397
Y76.307 Z-0.995 I0. J-0.397
Y77.101 Z-1.057 I0. J0.397
Y76.307 Z-1.12 I0. J-0.397
Y77.101 Z-1.182 I0. J0.397
Y76.307 Z-1.245 I0. J-0.397
Y77.101 Z-1.307 I0. J0.397
Y76.307 Z-1.369 I0. J-0.397
Y77.101 Z-1.432 I0. J0.397
Y76.307 Z-1.494 I0. J-0.397
Y77.101 Z-1.556 I0. J0.397
Y76.307 Z-1.619 I0. J-0.397
Y77.101 Z-1.681 I0. J0.397
Y76.307 Z-1.743 I0. J-0.397
Y77.101 Z-1.806 I0. J0.397
Y76.307 Z-1.868 I0. J-0.397
Y77.101 Z-1.93 I0. J0.397
Y76.307 Z-1.993 I0. J-0.397
Y77.101 Z-2.055 I0. J0.397
Y76.307 Z-2.117 I0. J-0.397
Y77.101 Z-2.18 I0. J0.397
Y76.307 Z-2.242 I0. J-0.397
Y77.101 Z-2.304 I0. J0.397
Y76.307 Z-2.367 I0. J-0.397
Y77.101 Z-2.429 I0. J0.397
Y76.307 Z-2.491 I0. J-0.397
Y77.101 Z-2.554 I0. J0.397
Y76.307 Z-2.616 I0. J-0.397
Y77.101 Z-2.678 I0. J0.397
Y76.307 Z-2.741 I0. J-0.397
Y77.101 Z-2.803 I0. J0.397
Y76.307 Z-2.866 I0. J-0.397
Y77.101 Z-2.928 I0. J0.397
Y76.307 Z-2.99 I0. J-0.397
Y77.101 Z-3.053 I0. J0.397
Y76.307 Z-3.115 I0. J-0.397
Y77.101 Z-3.177 I0. J0.397
Y76.307 Z-3.24 I0. J-0.397
Y77.101 Z-3.302 I0. J0.397
Y76.307 Z-3.364 I0. J-0.397
Y77.101 Z-3.427 I0. J0.397
Y76.307 Z-3.489 I0. J-0.397
Y77.101 Z-3.551 I0. J0.397
Y76.307 Z-3.614 I0. J-0.397
Y77.101 Z-3.676 I0. J0.397
Y76.307 Z-3.738 I0. J-0.397
Y77.101 Z-3.801 I0. J0.397
Y76.307 Z-3.863 I0. J-0.397
Y77.101 Z-3.925 I0. J0.397
Y76.307 Z-3.988 I0. J-0.397
Y77.101 Z-4.05 I0. J0.397
Y76.307 Z-4.112 I0. J-0.397
Y77.101 Z-4.175 I0. J0.397
Y76.307 Z-4.237 I0. J-0.397
Y77.101 Z-4.3 I0. J0.397
Y76.307 Z-4.362 I0. J-0.397
Y77.101 Z-4.424 I0. J0.397
Y76.307 Z-4.487 I0. J-0.397
Y77.101 Z-4.549 I0. J0.397
Y76.307 Z-4.611 I0. J-0.397
X104.196 Y76.718 Z-4.643 I0. J0.397
X104.621 Y77.1 Z-4.675 I0.397 J-0.014
X104.565 Y76.308 I-0.028 J-0.396
X104.621 Y77.1 I0.028 J0.396
X104.805 Y76.888 I-0.014 J-0.198
G1 X104.782 Y76.571
G0 Z5.
X136.156 Y76.823
Z2.365
G1 Z1. F800.
Y76.505
G2 X135.957 Y76.307 I-0.198 J0.
Y77.101 Z0.938 I0. J0.397
Y76.307 Z0.875 I0. J-0.397
Y77.101 Z0.813 I0. J0.397
Y76.307 Z0.751 I0. J-0.397
Y77.101 Z0.688 I0. J0.397
Y76.307 Z0.626 I0. J-0.397
Y77.101 Z0.564 I0. J0.397
Y76.307 Z0.501 I0. J-0.397
Y77.101 Z0.439 I0. J0.397
Y76.307 Z0.377 I0. J-0.397
Y77.101 Z0.314 I0. J0.397
Y76.307 Z0.252 I0. J-0.397
Y77.101 Z0.189 I0. J0.397
Y76.307 Z0.127 I0. J-0.397
Y77.101 Z0.065 I0. J0.397
Y76.307 Z0.002 I0. J-0.397
Y77.101 Z-0.06 I0. J0.397
Y76.307 Z-0.122 I0. J-0.397
Y77.101 Z-0.185 I0. J0.397
Y76.307 Z-0.247 I0. J-0.397
Y77.101 Z-0.309 I0. J0.397
Y76.307 Z-0.372 I0. J-0.397
Y77.101 Z-0.434 I0. J0.397
Y76.307 Z-0.496 I0. J-0.397
Y77.101 Z-0.559 I0. J0.397
Y76.307 Z-0.621 I0. J-0.397
Y77.101 Z-0.683 I0. J0.397
Y76.307 Z-0.746 I0. J-0.397
Y77.101 Z-0.808 I0. J0.397
Y76.307 Z-0.87 I0. J-0.397
Y77.101 Z-0.933 I0. J0.397
Y76.307 Z-0.995 I0. J-0.397
Y77.101 Z-1.057 I0. J0.397
Y76.307 Z-1.12 I0. J-0.397
Y77.101 Z-1.182 I0. J0.397
Y76.307 Z-1.245 I0. J-0.397
Y77.101 Z-1.307 I0. J0.397
Y76.307 Z-1.369 I0. J-0.397
Y77.101 Z-1.432 I0. J0.397
Y76.307 Z-1.494 I0. J-0.397
Y77.101 Z-1.556 I0. J0.397
Y76.307 Z-1.619 I0. J-0.397
Y77.101 Z-1.681 I0. J0.397
Y76.307 Z-1.743 I0. J-0.397
Y77.101 Z-1.806 I0. J0.397
Y76.307 Z-1.868 I0. J-0.397
Y77.101 Z-1.93 I0. J0.397
Y76.307 Z-1.993 I0. J-0.397
Y77.101 Z-2.055 I0. J0.397
Y76.307 Z-2.117 I0. J-0.397
Y77.101 Z-2.18 I0. J0.397
Y76.307 Z-2.242 I0. J-0.397
Y77.101 Z-2.304 I0. J0.397
Y76.307 Z-2.367 I0. J-0.397
Y77.101 Z-2.429 I0. J0.397
Y76.307 Z-2.491 I0. J-0.397
Y77.101 Z-2.554 I0. J0.397
Y76.307 Z-2.616 I0. J-0.397
Y77.101 Z-2.678 I0. J0.397
Y76.307 Z-2.741 I0. J-0.397
Y77.101 Z-2.803 I0. J0.397
Y76.307 Z-2.866 I0. J-0.397
Y77.101 Z-2.928 I0. J0.397
Y76.307 Z-2.99 I0. J-0.397
Y77.101 Z-3.053 I0. J0.397
Y76.307 Z-3.115 I0. J-0.397
Y77.101 Z-3.177 I0. J0.397
Y76.307 Z-3.24 I0. J-0.397
Y77.101 Z-3.302 I0. J0.397
Y76.307 Z-3.364 I0. J-0.397
Y77.101 Z-3.427 I0. J0.397
Y76.307 Z-3.489 I0. J-0.397
Y77.101 Z-3.551 I0. J0.397
Y76.307 Z-3.614 I0. J-0.397
Y77.101 Z-3.676 I0. J0.397
Y76.307 Z-3.738 I0. J-0.397
Y77.101 Z-3.801 I0. J0.397
Y76.307 Z-3.863 I0. J-0.397
Y77.101 Z-3.925 I0. J0.397
Y76.307 Z-3.988 I0. J-0.397
Y77.101 Z-4.05 I0. J0.397
Y76.307 Z-4.112 I0. J-0.397
Y77.101 Z-4.175 I0. J0.397
Y76.307 Z-4.237 I0. J-0.397
Y77.101 Z-4.3 I0. J0.397
Y76.307 Z-4.362 I0. J-0.397
Y77.101 Z-4.424 I0. J0.397
Y76.307 Z-4.487 I0. J-0.397
Y77.101 Z-4.549 I0. J0.397
Y76.307 Z-4.611 I0. J-0.397
X135.561 Y76.718 Z-4.643 I0. J0.397
X135.985 Y77.1 Z-4.675 I0.397 J-0.014
X135.929 Y76.308 I-0.028 J-0.396
X135.985 Y77.1 I0.028 J0.396
X136.169 Y76.888 I-0.014 J-0.198
G1 X136.147 Y76.571
G0 Z20.
M5
G0 Z15
G0 X0 Y0

M30
