(1001)
(T1  D=6.35 CR=0. - ZMIN=-1.5 - FLAT END MILL)
G90 G94 G91.1 G40 G49 G17
G21
(2ND HOLE )
G0 Z45

(2D CONTOUR2)
M5
T1 M6
S16000 M3
G54
M8
G0 X123.46 Y-108.255
G43 Z47.4 H1
Z31.4
G1 Z29.535 F800.
G19 G3 Y-107.62 Z28.9 J0.635 K0.
G1 Y-106.985 F1600.
G17 G3 X122.825 Y-106.35 I-0.635 J0.
G1 X94.875 Z27.924 F800.
X145.675 Z26.15
X94.875 F1600.
X145.675 Z25.9 F800.
X94.875 F1600.
X145.675 Z25.65 F800.
X94.875 F1600.
X145.675 Z25.4 F800.
X94.875 F1600.
X145.675 Z25.15 F800.
X94.875 F1600.
X145.675 Z24.9 F800.
X94.875 F1600.
X145.675 Z24.65 F800.
X94.875 F1600.
X145.675 Z24.4 F800.
X94.875 F1600.
X145.675 Z24.15 F800.
X94.875 F1600.
X145.675 Z23.9 F800.
X94.875 F1600.
X145.675 Z23.65 F800.
X94.875 F1600.
X145.675 Z23.4 F800.
X94.875 F1600.
X145.675 Z23.15 F800.
X94.875 F1600.
X145.675 Z22.9 F800.
X94.875 F1600.
X145.675 Z22.65 F800.
X94.875 F1600.
X145.675 Z22.4 F800.
X94.875 F1600.
X145.675 Z22.15 F800.
X94.875 F1600.
X145.675 Z21.9 F800.
X94.875 F1600.
X145.675 Z21.65 F800.
X94.875 F1600.
X145.675 Z21.4 F800.
X94.875 F1600.
X145.675 Z21.15 F800.
X94.875 F1600.
X145.675 Z20.9 F800.
X94.875 F1600.
X145.675 Z20.65 F800.
X94.875 F1600.
X145.675 Z20.4 F800.
X94.875 F1600.
X145.675 Z20.15 F800.
X94.875 F1600.
X145.675 Z19.9 F800.
X94.875 F1600.
X145.675 Z19.65 F800.
X94.875 F1600.
X145.675 Z19.4 F800.
X94.875 F1600.
X145.675 Z19.15 F800.
X94.875 F1600.
X145.675 Z18.9 F800.
X94.875 F1600.
X145.675 Z18.65 F800.
X94.875 F1600.
X145.675 Z18.4 F800.
X94.875 F1600.
X145.675 Z18.15 F800.
X94.875 F1600.
X145.675 Z17.9 F800.
X94.875 F1600.
X145.675 Z17.65 F800.
X94.875 F1600.
X145.675 Z17.4 F800.
X94.875 F1600.
X145.675 Z17.15 F800.
X94.875 F1600.
X145.675 Z16.9 F800.
X94.875 F1600.
X145.675 Z16.65 F800.
X94.875 F1600.
X145.675 Z16.4 F800.
X94.875 F1600.
X145.675 Z16.15 F800.
X94.875 F1600.
X145.675 Z15.9 F800.
X94.875 F1600.
X145.675 Z15.65 F800.
X94.875 F1600.
X145.675 Z15.4 F800.
X94.875 F1600.
X145.675 Z15.15 F800.
X94.875 F1600.
X145.675 Z14.9 F800.
X94.875 F1600.
X145.675 Z14.65 F800.
X94.875 F1600.
X145.675 Z14.4 F800.
X94.875 F1600.
X145.675 Z14.15 F800.
X94.875 F1600.
X145.675 Z13.9 F800.
X94.875 F1600.
X145.675 Z13.65 F800.
X94.875 F1600.
X145.675 Z13.4 F800.
X94.875 F1600.
X145.675 Z13.15 F800.
X94.875 F1600.
X145.675 Z12.9 F800.
X94.875 F1600.
X145.675 Z12.65 F800.
X94.875 F1600.
X145.675 Z12.4 F800.
X94.875 F1600.
X145.675 Z12.15 F800.
X94.875 F1600.
X145.675 Z11.9 F800.
X94.875 F1600.
X145.675 Z11.65 F800.
X94.875 F1600.
X145.675 Z11.4 F800.
X94.875 F1600.
X145.675 Z11.15 F800.
X94.875 F1600.
X145.675 Z10.9 F800.
X94.875 F1600.
X145.675 Z10.65 F800.
X94.875 F1600.
X145.675 Z10.4 F800.
X94.875 F1600.
X145.675 Z10.15 F800.
X94.875 F1600.
X145.675 Z9.9 F800.
X94.875 F1600.
X145.675 Z9.65 F800.
X94.875 F1600.
X145.675 Z9.4 F800.
X94.875 F1600.
X145.675 Z9.15 F800.
X94.875 F1600.
X145.675 Z8.9 F800.
X94.875 F1600.
X145.675 Z8.65 F800.
X94.875 F1600.
X145.675 Z8.4 F800.
X94.875 F1600.
X145.675 Z8.15 F800.
X94.875 F1600.
X145.675 Z7.9 F800.
X94.875 F1600.
X145.675 Z7.65 F800.
X94.875 F1600.
X145.675 Z7.4 F800.
X94.875 F1600.
X145.675 Z7.15 F800.
X94.875 F1600.
X145.675 Z6.9 F800.
X94.875 F1600.
X145.675 Z6.65 F800.
X94.875 F1600.
X145.675 Z6.4 F800.
X94.875 F1600.
X145.675 Z6.15 F800.
X94.875 F1600.
X145.675 Z5.9 F800.
X94.875 F1600.
X145.675 Z5.65 F800.
X94.875 F1600.
X145.675 Z5.4 F800.
X94.875 F1600.
X145.675 Z5.15 F800.
X94.875 F1600.
X145.675 Z4.9 F800.
X94.875 F1600.
X145.675 Z4.65 F800.
X94.875 F1600.
X145.675 Z4.4 F800.
X94.875 F1600.
X145.675 Z4.15 F800.
X94.875 F1600.
X145.675 Z3.9 F800.
X94.875 F1600.
X145.675 Z3.65 F800.
X94.875 F1600.
X145.675 Z3.4 F800.
X94.875 F1600.
X145.675 Z3.15 F800.
X94.875 F1600.
X145.675 Z2.9 F800.
X94.875 F1600.
X145.675 Z2.65 F800.
X94.875 F1600.
X145.675 Z2.4 F800.
X94.875 F1600.
X145.675 Z2.15 F800.
X94.875 F1600.
X145.675 Z1.9 F800.
X94.875 F1600.
X145.675 Z1.65 F800.
X94.875 F1600.
X145.675 Z1.4 F800.
X94.875 F1600.
X145.675 Z1.15 F800.
X94.875 F1600.
X145.675 Z0.9 F800.
X94.875 F1600.
X145.675 Z0.65 F800.
X94.875 F1600.
X145.675 Z0.4 F800.
X94.875 F1600.
X145.675 Z0.15 F800.
X94.875 F1600.
X145.675 Z-0.1 F800.
X94.875 F1600.
X145.675 Z-0.35 F800.
X94.875 F1600.
X145.675 Z-0.6 F800.
X94.875 F1600.
X145.675 Z-0.85 F800.
X94.875 F1600.
X145.675 Z-1.1 F800.
X94.875 F1600.
X145.675 Z-1.35 F800.
X94.875 F1600.
X145.675 Z-1.5 F800.
X94.875 F1600.
G3 X94.24 Y-106.985 I0. J-0.635
G1 Y-107.62
G19 G2 Y-108.255 Z-0.865 J0. K0.635
G0 Z47.4
G17

(BORE5)
G0 X120.478 Y-3.315
Z47.4
Z27.765
G1 Z26.4 F800.
Y-3.632
G2 X120.275 Y-3.836 I-0.203 J0.
Y-3.023 Z26.337 I0. J0.406
Y-3.836 Z26.275 I0. J-0.406
Y-3.023 Z26.212 I0. J0.406
Y-3.836 Z26.15 I0. J-0.406
Y-3.023 Z26.087 I0. J0.406
Y-3.836 Z26.025 I0. J-0.406
Y-3.023 Z25.962 I0. J0.406
Y-3.836 Z25.9 I0. J-0.406
Y-3.023 Z25.837 I0. J0.406
Y-3.836 Z25.775 I0. J-0.406
Y-3.023 Z25.712 I0. J0.406
Y-3.836 Z25.65 I0. J-0.406
Y-3.023 Z25.587 I0. J0.406
Y-3.836 Z25.525 I0. J-0.406
Y-3.023 Z25.462 I0. J0.406
Y-3.836 Z25.4 I0. J-0.406
Y-3.023 Z25.337 I0. J0.406
Y-3.836 Z25.275 I0. J-0.406
Y-3.023 Z25.212 I0. J0.406
Y-3.836 Z25.15 I0. J-0.406
Y-3.023 Z25.087 I0. J0.406
Y-3.836 Z25.025 I0. J-0.406
Y-3.023 Z24.962 I0. J0.406
Y-3.836 Z24.9 I0. J-0.406
Y-3.023 Z24.837 I0. J0.406
Y-3.836 Z24.775 I0. J-0.406
Y-3.023 Z24.712 I0. J0.406
Y-3.836 Z24.65 I0. J-0.406
Y-3.023 Z24.587 I0. J0.406
Y-3.836 Z24.525 I0. J-0.406
Y-3.023 Z24.462 I0. J0.406
Y-3.836 Z24.4 I0. J-0.406
Y-3.023 Z24.337 I0. J0.406
Y-3.836 Z24.275 I0. J-0.406
Y-3.023 Z24.212 I0. J0.406
Y-3.836 Z24.15 I0. J-0.406
Y-3.023 Z24.087 I0. J0.406
Y-3.836 Z24.024 I0. J-0.406
Y-3.023 Z23.962 I0. J0.406
Y-3.836 Z23.899 I0. J-0.406
Y-3.023 Z23.837 I0. J0.406
Y-3.836 Z23.774 I0. J-0.406
Y-3.023 Z23.712 I0. J0.406
Y-3.836 Z23.649 I0. J-0.406
Y-3.023 Z23.587 I0. J0.406
Y-3.836 Z23.524 I0. J-0.406
Y-3.023 Z23.462 I0. J0.406
Y-3.836 Z23.399 I0. J-0.406
Y-3.023 Z23.337 I0. J0.406
Y-3.836 Z23.274 I0. J-0.406
Y-3.023 Z23.212 I0. J0.406
Y-3.836 Z23.149 I0. J-0.406
Y-3.023 Z23.087 I0. J0.406
Y-3.836 Z23.024 I0. J-0.406
Y-3.023 Z22.962 I0. J0.406
Y-3.836 Z22.899 I0. J-0.406
Y-3.023 Z22.837 I0. J0.406
Y-3.836 Z22.774 I0. J-0.406
Y-3.023 Z22.712 I0. J0.406
Y-3.836 Z22.649 I0. J-0.406
Y-3.023 Z22.587 I0. J0.406
Y-3.836 Z22.524 I0. J-0.406
Y-3.023 Z22.462 I0. J0.406
Y-3.836 Z22.399 I0. J-0.406
Y-3.023 Z22.337 I0. J0.406
Y-3.836 Z22.274 I0. J-0.406
Y-3.023 Z22.212 I0. J0.406
Y-3.836 Z22.149 I0. J-0.406
Y-3.023 Z22.087 I0. J0.406
Y-3.836 Z22.024 I0. J-0.406
Y-3.023 Z21.962 I0. J0.406
Y-3.836 Z21.899 I0. J-0.406
Y-3.023 Z21.837 I0. J0.406
Y-3.836 Z21.774 I0. J-0.406
Y-3.023 Z21.711 I0. J0.406
Y-3.836 Z21.649 I0. J-0.406
Y-3.023 Z21.586 I0. J0.406
Y-3.836 Z21.524 I0. J-0.406
Y-3.023 Z21.461 I0. J0.406
Y-3.836 Z21.399 I0. J-0.406
Y-3.023 Z21.336 I0. J0.406
Y-3.836 Z21.274 I0. J-0.406
Y-3.023 Z21.211 I0. J0.406
Y-3.836 Z21.149 I0. J-0.406
Y-3.023 Z21.086 I0. J0.406
Y-3.836 Z21.024 I0. J-0.406
Y-3.023 Z20.961 I0. J0.406
Y-3.836 Z20.899 I0. J-0.406
Y-3.023 Z20.836 I0. J0.406
Y-3.836 Z20.774 I0. J-0.406
X120.016 Y-3.116 Z20.725 I0. J0.406
X120.534 Y-3.743 I0.259 J-0.313
X120.016 Y-3.116 I-0.259 J0.313
X120.302 Y-3.143 I0.129 J-0.157
G1 X120.504 Y-3.388
G0 Z32.4
X120.478 Y57.798
Z27.765
G1 Z26.4 F800.
Y57.48
G2 X120.275 Y57.277 I-0.203 J0.
Y58.09 Z26.337 I0. J0.406
Y57.277 Z26.275 I0. J-0.406
Y58.09 Z26.212 I0. J0.406
Y57.277 Z26.15 I0. J-0.406
Y58.09 Z26.087 I0. J0.406
Y57.277 Z26.025 I0. J-0.406
Y58.09 Z25.962 I0. J0.406
Y57.277 Z25.9 I0. J-0.406
Y58.09 Z25.837 I0. J0.406
Y57.277 Z25.775 I0. J-0.406
Y58.09 Z25.712 I0. J0.406
Y57.277 Z25.65 I0. J-0.406
Y58.09 Z25.587 I0. J0.406
Y57.277 Z25.525 I0. J-0.406
Y58.09 Z25.462 I0. J0.406
Y57.277 Z25.4 I0. J-0.406
Y58.09 Z25.337 I0. J0.406
Y57.277 Z25.275 I0. J-0.406
Y58.09 Z25.212 I0. J0.406
Y57.277 Z25.15 I0. J-0.406
Y58.09 Z25.087 I0. J0.406
Y57.277 Z25.025 I0. J-0.406
Y58.09 Z24.962 I0. J0.406
Y57.277 Z24.9 I0. J-0.406
Y58.09 Z24.837 I0. J0.406
Y57.277 Z24.775 I0. J-0.406
Y58.09 Z24.712 I0. J0.406
Y57.277 Z24.65 I0. J-0.406
Y58.09 Z24.587 I0. J0.406
Y57.277 Z24.525 I0. J-0.406
Y58.09 Z24.462 I0. J0.406
Y57.277 Z24.4 I0. J-0.406
Y58.09 Z24.337 I0. J0.406
Y57.277 Z24.275 I0. J-0.406
Y58.09 Z24.212 I0. J0.406
Y57.277 Z24.15 I0. J-0.406
Y58.09 Z24.087 I0. J0.406
Y57.277 Z24.024 I0. J-0.406
Y58.09 Z23.962 I0. J0.406
Y57.277 Z23.899 I0. J-0.406
Y58.09 Z23.837 I0. J0.406
Y57.277 Z23.774 I0. J-0.406
Y58.09 Z23.712 I0. J0.406
Y57.277 Z23.649 I0. J-0.406
Y58.09 Z23.587 I0. J0.406
Y57.277 Z23.524 I0. J-0.406
Y58.09 Z23.462 I0. J0.406
Y57.277 Z23.399 I0. J-0.406
Y58.09 Z23.337 I0. J0.406
Y57.277 Z23.274 I0. J-0.406
Y58.09 Z23.212 I0. J0.406
Y57.277 Z23.149 I0. J-0.406
Y58.09 Z23.087 I0. J0.406
Y57.277 Z23.024 I0. J-0.406
Y58.09 Z22.962 I0. J0.406
Y57.277 Z22.899 I0. J-0.406
Y58.09 Z22.837 I0. J0.406
Y57.277 Z22.774 I0. J-0.406
Y58.09 Z22.712 I0. J0.406
Y57.277 Z22.649 I0. J-0.406
Y58.09 Z22.587 I0. J0.406
Y57.277 Z22.524 I0. J-0.406
Y58.09 Z22.462 I0. J0.406
Y57.277 Z22.399 I0. J-0.406
Y58.09 Z22.337 I0. J0.406
Y57.277 Z22.274 I0. J-0.406
Y58.09 Z22.212 I0. J0.406
Y57.277 Z22.149 I0. J-0.406
Y58.09 Z22.087 I0. J0.406
Y57.277 Z22.024 I0. J-0.406
Y58.09 Z21.962 I0. J0.406
Y57.277 Z21.899 I0. J-0.406
Y58.09 Z21.837 I0. J0.406
Y57.277 Z21.774 I0. J-0.406
Y58.09 Z21.711 I0. J0.406
Y57.277 Z21.649 I0. J-0.406
Y58.09 Z21.586 I0. J0.406
Y57.277 Z21.524 I0. J-0.406
Y58.09 Z21.461 I0. J0.406
Y57.277 Z21.399 I0. J-0.406
Y58.09 Z21.336 I0. J0.406
Y57.277 Z21.274 I0. J-0.406
Y58.09 Z21.211 I0. J0.406
Y57.277 Z21.149 I0. J-0.406
Y58.09 Z21.086 I0. J0.406
Y57.277 Z21.024 I0. J-0.406
Y58.09 Z20.961 I0. J0.406
Y57.277 Z20.899 I0. J-0.406
Y58.09 Z20.836 I0. J0.406
Y57.277 Z20.774 I0. J-0.406
X120.016 Y57.997 Z20.725 I0. J0.406
X120.534 Y57.37 I0.259 J-0.313
X120.016 Y57.997 I-0.259 J0.313
X120.302 Y57.969 I0.129 J-0.157
G1 X120.504 Y57.724
G0 Z47.4

(BORE6)
G0 X120.91 Y25.539
Z46.4
Z28.4
G1 Z27.035 F800.
G19 G2 Y24.904 Z26.4 J-0.635 K0.
G1 Y24.587
G17 G2 X120.275 Y23.952 I-0.635 J0.
Y30.302 Z26.289 I0. J3.175
Y23.952 Z26.178 I0. J-3.175
Y30.302 Z26.067 I0. J3.175
Y23.952 Z25.957 I0. J-3.175
Y30.302 Z25.846 I0. J3.175
Y23.952 Z25.735 I0. J-3.175
Y30.302 Z25.624 I0. J3.175
Y23.952 Z25.513 I0. J-3.175
Y30.302 Z25.402 I0. J3.175
Y23.952 Z25.292 I0. J-3.175
Y30.302 Z25.181 I0. J3.175
Y23.952 Z25.07 I0. J-3.175
Y30.302 Z24.959 I0. J3.175
Y23.952 Z24.848 I0. J-3.175
Y30.302 Z24.737 I0. J3.175
Y23.952 Z24.627 I0. J-3.175
Y30.302 Z24.516 I0. J3.175
Y23.952 Z24.405 I0. J-3.175
Y30.302 Z24.294 I0. J3.175
Y23.952 Z24.183 I0. J-3.175
Y30.302 Z24.072 I0. J3.175
Y23.952 Z23.962 I0. J-3.175
Y30.302 Z23.851 I0. J3.175
Y23.952 Z23.74 I0. J-3.175
Y30.302 Z23.629 I0. J3.175
Y23.952 Z23.518 I0. J-3.175
Y30.302 Z23.407 I0. J3.175
Y23.952 Z23.296 I0. J-3.175
Y30.302 Z23.186 I0. J3.175
Y23.952 Z23.075 I0. J-3.175
Y30.302 Z22.964 I0. J3.175
Y23.952 Z22.853 I0. J-3.175
Y30.302 Z22.742 I0. J3.175
Y23.952 Z22.631 I0. J-3.175
Y30.302 Z22.521 I0. J3.175
Y23.952 Z22.41 I0. J-3.175
Y30.302 Z22.299 I0. J3.175
Y23.952 Z22.188 I0. J-3.175
Y30.302 Z22.077 I0. J3.175
Y23.952 Z21.966 I0. J-3.175
Y30.302 Z21.856 I0. J3.175
Y23.952 Z21.745 I0. J-3.175
Y30.302 Z21.634 I0. J3.175
Y23.952 Z21.523 I0. J-3.175
Y30.302 Z21.412 I0. J3.175
Y23.952 Z21.301 I0. J-3.175
Y30.302 Z21.191 I0. J3.175
Y23.952 Z21.08 I0. J-3.175
Y30.302 Z20.969 I0. J3.175
Y23.952 Z20.858 I0. J-3.175
Y30.302 Z20.747 I0. J3.175
X122.142 Y29.695 Z20.725 I0. J-3.175
X118.408 Y24.559 I-1.867 J-2.568
X122.142 Y29.695 I1.867 J2.568
X122.282 Y28.808 I-0.373 J-0.514
G1 X122.095 Y28.551
X122.037 Y28.471 Z20.733
X121.98 Y28.393 Z20.756
X121.926 Y28.318 Z20.794
X121.876 Y28.249 Z20.846
X121.831 Y28.188 Z20.911
X121.793 Y28.136 Z20.987
X121.763 Y28.094 Z21.072
X121.74 Y28.063 Z21.164
X121.727 Y28.044 Z21.261
X121.722 Y28.038 Z21.36
G0 Z31.4
X120.91 Y22.365
Z28.4
G1 Z27.035 F800.
G19 G2 Y21.729 Z26.4 J-0.635 K0.
G1 Y21.412
G17 G2 X120.275 Y20.777 I-0.635 J0.
Y33.477 Z26.234 I0. J6.35
Y20.777 Z26.067 I0. J-6.35
Y33.477 Z25.901 I0. J6.35
Y20.777 Z25.735 I0. J-6.35
Y33.477 Z25.569 I0. J6.35
Y20.777 Z25.402 I0. J-6.35
Y33.477 Z25.236 I0. J6.35
Y20.777 Z25.07 I0. J-6.35
Y33.477 Z24.904 I0. J6.35
Y20.777 Z24.737 I0. J-6.35
Y33.477 Z24.571 I0. J6.35
Y20.777 Z24.405 I0. J-6.35
Y33.477 Z24.239 I0. J6.35
Y20.777 Z24.072 I0. J-6.35
Y33.477 Z23.906 I0. J6.35
Y20.777 Z23.74 I0. J-6.35
Y33.477 Z23.574 I0. J6.35
Y20.777 Z23.407 I0. J-6.35
Y33.477 Z23.241 I0. J6.35
Y20.777 Z23.075 I0. J-6.35
Y33.477 Z22.909 I0. J6.35
Y20.777 Z22.742 I0. J-6.35
Y33.477 Z22.576 I0. J6.35
Y20.777 Z22.41 I0. J-6.35
Y33.477 Z22.244 I0. J6.35
Y20.777 Z22.077 I0. J-6.35
Y33.477 Z21.911 I0. J6.35
Y20.777 Z21.745 I0. J-6.35
Y33.477 Z21.578 I0. J6.35
Y20.777 Z21.412 I0. J-6.35
Y33.477 Z21.246 I0. J6.35
Y20.777 Z21.08 I0. J-6.35
Y33.477 Z20.913 I0. J6.35
Y20.777 Z20.747 I0. J-6.35
X117.691 Y21.326 Z20.725 I0. J6.35
X122.859 Y32.928 I2.584 J5.801
X117.691 Y21.326 I-2.584 J-5.801
X117.37 Y22.165 I0.258 J0.58
G1 X117.499 Y22.455
X117.539 Y22.546 Z20.733
X117.579 Y22.634 Z20.756
X117.616 Y22.718 Z20.794
X117.651 Y22.796 Z20.846
X117.681 Y22.865 Z20.911
X117.708 Y22.924 Z20.987
X117.729 Y22.972 Z21.072
X117.744 Y23.007 Z21.164
X117.754 Y23.028 Z21.261
X117.757 Y23.035 Z21.36
G0 Z46.4
M5
G0 Z15
G0 X0 Y0

M9
M30
