(T1  D=6.35 CR=0. - ZMIN=-26.9 - FLAT END MILL)
G90 G94 G91.1 G40 G49 G17
G21
(2ND HOLE )
G0 Z45

(2D CONTOUR2)
M5
T1 M6
S16000 M3
G54
M8
G0 X117.09 Y-108.255
G43 Z21. H1
Z5.
G1 Z3.135 F800.
G19 G3 Y-107.62 Z2.5 J0.635 K0.
G1 Y-106.985 F1600.
G17 G2 X117.725 Y-106.35 I0.635 J0.
G1 X145.675 Z1.524 F800.
X94.875 Z-0.25
X145.675 F1600.
X94.875 Z-0.5 F800.
X145.675 F1600.
X94.875 Z-0.75 F800.
X145.675 F1600.
X94.875 Z-1. F800.
X145.675 F1600.
X94.875 Z-1.25 F800.
X145.675 F1600.
X94.875 Z-1.5 F800.
X145.675 F1600.
X94.875 Z-1.75 F800.
X145.675 F1600.
X94.875 Z-2. F800.
X145.675 F1600.
X94.875 Z-2.25 F800.
X145.675 F1600.
X94.875 Z-2.5 F800.
X145.675 F1600.
X94.875 Z-2.75 F800.
X145.675 F1600.
X94.875 Z-3. F800.
X145.675 F1600.
X94.875 Z-3.25 F800.
X145.675 F1600.
X94.875 Z-3.5 F800.
X145.675 F1600.
X94.875 Z-3.75 F800.
X145.675 F1600.
X94.875 Z-4. F800.
X145.675 F1600.
X94.875 Z-4.25 F800.
X145.675 F1600.
X94.875 Z-4.5 F800.
X145.675 F1600.
X94.875 Z-4.75 F800.
X145.675 F1600.
X94.875 Z-5. F800.
X145.675 F1600.
X94.875 Z-5.25 F800.
X145.675 F1600.
X94.875 Z-5.5 F800.
X145.675 F1600.
X94.875 Z-5.75 F800.
X145.675 F1600.
X94.875 Z-6. F800.
X145.675 F1600.
X94.875 Z-6.25 F800.
X145.675 F1600.
X94.875 Z-6.5 F800.
X145.675 F1600.
X94.875 Z-6.75 F800.
X145.675 F1600.
X94.875 Z-7. F800.
X145.675 F1600.
X94.875 Z-7.25 F800.
X145.675 F1600.
X94.875 Z-7.5 F800.
X145.675 F1600.
X94.875 Z-7.75 F800.
X145.675 F1600.
X94.875 Z-8. F800.
X145.675 F1600.
X94.875 Z-8.25 F800.
X145.675 F1600.
X94.875 Z-8.5 F800.
X145.675 F1600.
X94.875 Z-8.75 F800.
X145.675 F1600.
X94.875 Z-9. F800.
X145.675 F1600.
X94.875 Z-9.25 F800.
X145.675 F1600.
X94.875 Z-9.5 F800.
X145.675 F1600.
X94.875 Z-9.75 F800.
X145.675 F1600.
X94.875 Z-10. F800.
X145.675 F1600.
X94.875 Z-10.25 F800.
X145.675 F1600.
X94.875 Z-10.5 F800.
X145.675 F1600.
X94.875 Z-10.75 F800.
X145.675 F1600.
X94.875 Z-11. F800.
X145.675 F1600.
X94.875 Z-11.25 F800.
X145.675 F1600.
X94.875 Z-11.5 F800.
X145.675 F1600.
X94.875 Z-11.75 F800.
X145.675 F1600.
X94.875 Z-12. F800.
X145.675 F1600.
X94.875 Z-12.25 F800.
X145.675 F1600.
X94.875 Z-12.5 F800.
X145.675 F1600.
X94.875 Z-12.75 F800.
X145.675 F1600.
X94.875 Z-13. F800.
X145.675 F1600.
X94.875 Z-13.25 F800.
X145.675 F1600.
X94.875 Z-13.5 F800.
X145.675 F1600.
X94.875 Z-13.75 F800.
X145.675 F1600.
X94.875 Z-14. F800.
X145.675 F1600.
X94.875 Z-14.25 F800.
X145.675 F1600.
X94.875 Z-14.5 F800.
X145.675 F1600.
X94.875 Z-14.75 F800.
X145.675 F1600.
X94.875 Z-15. F800.
X145.675 F1600.
X94.875 Z-15.25 F800.
X145.675 F1600.
X94.875 Z-15.5 F800.
X145.675 F1600.
X94.875 Z-15.75 F800.
X145.675 F1600.
X94.875 Z-16. F800.
X145.675 F1600.
X94.875 Z-16.25 F800.
X145.675 F1600.
X94.875 Z-16.5 F800.
X145.675 F1600.
X94.875 Z-16.75 F800.
X145.675 F1600.
X94.875 Z-17. F800.
X145.675 F1600.
X94.875 Z-17.25 F800.
X145.675 F1600.
X94.875 Z-17.5 F800.
X145.675 F1600.
X94.875 Z-17.75 F800.
X145.675 F1600.
X94.875 Z-18. F800.
X145.675 F1600.
X94.875 Z-18.25 F800.
X145.675 F1600.
X94.875 Z-18.5 F800.
X145.675 F1600.
X94.875 Z-18.75 F800.
X145.675 F1600.
X94.875 Z-19. F800.
X145.675 F1600.
X94.875 Z-19.25 F800.
X145.675 F1600.
X94.875 Z-19.5 F800.
X145.675 F1600.
X94.875 Z-19.75 F800.
X145.675 F1600.
X94.875 Z-20. F800.
X145.675 F1600.
X94.875 Z-20.25 F800.
X145.675 F1600.
X94.875 Z-20.5 F800.
X145.675 F1600.
X94.875 Z-20.75 F800.
X145.675 F1600.
X94.875 Z-21. F800.
X145.675 F1600.
X94.875 Z-21.25 F800.
X145.675 F1600.
X94.875 Z-21.5 F800.
X145.675 F1600.
X94.875 Z-21.75 F800.
X145.675 F1600.
X94.875 Z-22. F800.
X145.675 F1600.
X94.875 Z-22.25 F800.
X145.675 F1600.
X94.875 Z-22.5 F800.
X145.675 F1600.
X94.875 Z-22.75 F800.
X145.675 F1600.
X94.875 Z-23. F800.
X145.675 F1600.
X94.875 Z-23.25 F800.
X145.675 F1600.
X94.875 Z-23.5 F800.
X145.675 F1600.
X94.875 Z-23.75 F800.
X145.675 F1600.
X94.875 Z-24. F800.
X145.675 F1600.
X94.875 Z-24.25 F800.
X145.675 F1600.
X94.875 Z-24.5 F800.
X145.675 F1600.
X94.875 Z-24.75 F800.
X145.675 F1600.
X94.875 Z-25. F800.
X145.675 F1600.
X94.875 Z-25.25 F800.
X145.675 F1600.
X94.875 Z-25.5 F800.
X145.675 F1600.
X94.875 Z-25.75 F800.
X145.675 F1600.
X94.875 Z-26. F800.
X145.675 F1600.
X94.875 Z-26.25 F800.
X145.675 F1600.
X94.875 Z-26.5 F800.
X145.675 F1600.
X94.875 Z-26.75 F800.
X145.675 F1600.
X94.875 Z-26.9 F800.
X145.675 F1600.
G2 X146.31 Y-106.985 I0. J-0.635
G1 Y-107.62
G19 G2 Y-108.255 Z-26.265 J0. K0.635
G0 Z21.
G17
M9

(BORE5)
G0 X120.478 Y-3.315
Z21.
Z2.365
G1 Z1. F800.
Y-3.632
G2 X120.275 Y-3.836 I-0.203 J0.
Y-3.023 Z0.937 I0. J0.406
Y-3.836 Z0.875 I0. J-0.406
Y-3.023 Z0.812 I0. J0.406
Y-3.836 Z0.75 I0. J-0.406
Y-3.023 Z0.687 I0. J0.406
Y-3.836 Z0.625 I0. J-0.406
Y-3.023 Z0.562 I0. J0.406
Y-3.836 Z0.5 I0. J-0.406
Y-3.023 Z0.437 I0. J0.406
Y-3.836 Z0.375 I0. J-0.406
Y-3.023 Z0.312 I0. J0.406
Y-3.836 Z0.25 I0. J-0.406
Y-3.023 Z0.187 I0. J0.406
Y-3.836 Z0.125 I0. J-0.406
Y-3.023 Z0.062 I0. J0.406
Y-3.836 Z0. I0. J-0.406
Y-3.023 Z-0.063 I0. J0.406
Y-3.836 Z-0.125 I0. J-0.406
Y-3.023 Z-0.188 I0. J0.406
Y-3.836 Z-0.25 I0. J-0.406
Y-3.023 Z-0.313 I0. J0.406
Y-3.836 Z-0.375 I0. J-0.406
Y-3.023 Z-0.438 I0. J0.406
Y-3.836 Z-0.5 I0. J-0.406
Y-3.023 Z-0.563 I0. J0.406
Y-3.836 Z-0.625 I0. J-0.406
Y-3.023 Z-0.688 I0. J0.406
Y-3.836 Z-0.75 I0. J-0.406
Y-3.023 Z-0.813 I0. J0.406
Y-3.836 Z-0.875 I0. J-0.406
Y-3.023 Z-0.938 I0. J0.406
Y-3.836 Z-1. I0. J-0.406
Y-3.023 Z-1.063 I0. J0.406
Y-3.836 Z-1.125 I0. J-0.406
Y-3.023 Z-1.188 I0. J0.406
Y-3.836 Z-1.25 I0. J-0.406
Y-3.023 Z-1.313 I0. J0.406
Y-3.836 Z-1.376 I0. J-0.406
Y-3.023 Z-1.438 I0. J0.406
Y-3.836 Z-1.501 I0. J-0.406
Y-3.023 Z-1.563 I0. J0.406
Y-3.836 Z-1.626 I0. J-0.406
Y-3.023 Z-1.688 I0. J0.406
Y-3.836 Z-1.751 I0. J-0.406
Y-3.023 Z-1.813 I0. J0.406
Y-3.836 Z-1.876 I0. J-0.406
Y-3.023 Z-1.938 I0. J0.406
Y-3.836 Z-2.001 I0. J-0.406
Y-3.023 Z-2.063 I0. J0.406
Y-3.836 Z-2.126 I0. J-0.406
Y-3.023 Z-2.188 I0. J0.406
Y-3.836 Z-2.251 I0. J-0.406
Y-3.023 Z-2.313 I0. J0.406
Y-3.836 Z-2.376 I0. J-0.406
Y-3.023 Z-2.438 I0. J0.406
Y-3.836 Z-2.501 I0. J-0.406
Y-3.023 Z-2.563 I0. J0.406
Y-3.836 Z-2.626 I0. J-0.406
Y-3.023 Z-2.688 I0. J0.406
Y-3.836 Z-2.751 I0. J-0.406
Y-3.023 Z-2.813 I0. J0.406
Y-3.836 Z-2.876 I0. J-0.406
Y-3.023 Z-2.938 I0. J0.406
Y-3.836 Z-3.001 I0. J-0.406
Y-3.023 Z-3.063 I0. J0.406
Y-3.836 Z-3.126 I0. J-0.406
Y-3.023 Z-3.188 I0. J0.406
Y-3.836 Z-3.251 I0. J-0.406
Y-3.023 Z-3.313 I0. J0.406
Y-3.836 Z-3.376 I0. J-0.406
Y-3.023 Z-3.438 I0. J0.406
Y-3.836 Z-3.501 I0. J-0.406
Y-3.023 Z-3.563 I0. J0.406
Y-3.836 Z-3.626 I0. J-0.406
Y-3.023 Z-3.689 I0. J0.406
Y-3.836 Z-3.751 I0. J-0.406
Y-3.023 Z-3.814 I0. J0.406
Y-3.836 Z-3.876 I0. J-0.406
Y-3.023 Z-3.939 I0. J0.406
Y-3.836 Z-4.001 I0. J-0.406
Y-3.023 Z-4.064 I0. J0.406
Y-3.836 Z-4.126 I0. J-0.406
Y-3.023 Z-4.189 I0. J0.406
Y-3.836 Z-4.251 I0. J-0.406
Y-3.023 Z-4.314 I0. J0.406
Y-3.836 Z-4.376 I0. J-0.406
Y-3.023 Z-4.439 I0. J0.406
Y-3.836 Z-4.501 I0. J-0.406
Y-3.023 Z-4.564 I0. J0.406
Y-3.836 Z-4.626 I0. J-0.406
X120.016 Y-3.116 Z-4.675 I0. J0.406
X120.534 Y-3.743 I0.259 J-0.313
X120.016 Y-3.116 I-0.259 J0.313
X120.302 Y-3.143 I0.129 J-0.157
G1 X120.504 Y-3.388
G0 Z6.
X120.478 Y57.798
Z2.365
G1 Z1. F800.
Y57.48
G2 X120.275 Y57.277 I-0.203 J0.
Y58.09 Z0.937 I0. J0.406
Y57.277 Z0.875 I0. J-0.406
Y58.09 Z0.812 I0. J0.406
Y57.277 Z0.75 I0. J-0.406
Y58.09 Z0.687 I0. J0.406
Y57.277 Z0.625 I0. J-0.406
Y58.09 Z0.562 I0. J0.406
Y57.277 Z0.5 I0. J-0.406
Y58.09 Z0.437 I0. J0.406
Y57.277 Z0.375 I0. J-0.406
Y58.09 Z0.312 I0. J0.406
Y57.277 Z0.25 I0. J-0.406
Y58.09 Z0.187 I0. J0.406
Y57.277 Z0.125 I0. J-0.406
Y58.09 Z0.062 I0. J0.406
Y57.277 Z0. I0. J-0.406
Y58.09 Z-0.063 I0. J0.406
Y57.277 Z-0.125 I0. J-0.406
Y58.09 Z-0.188 I0. J0.406
Y57.277 Z-0.25 I0. J-0.406
Y58.09 Z-0.313 I0. J0.406
Y57.277 Z-0.375 I0. J-0.406
Y58.09 Z-0.438 I0. J0.406
Y57.277 Z-0.5 I0. J-0.406
Y58.09 Z-0.563 I0. J0.406
Y57.277 Z-0.625 I0. J-0.406
Y58.09 Z-0.688 I0. J0.406
Y57.277 Z-0.75 I0. J-0.406
Y58.09 Z-0.813 I0. J0.406
Y57.277 Z-0.875 I0. J-0.406
Y58.09 Z-0.938 I0. J0.406
Y57.277 Z-1. I0. J-0.406
Y58.09 Z-1.063 I0. J0.406
Y57.277 Z-1.125 I0. J-0.406
Y58.09 Z-1.188 I0. J0.406
Y57.277 Z-1.25 I0. J-0.406
Y58.09 Z-1.313 I0. J0.406
Y57.277 Z-1.376 I0. J-0.406
Y58.09 Z-1.438 I0. J0.406
Y57.277 Z-1.501 I0. J-0.406
Y58.09 Z-1.563 I0. J0.406
Y57.277 Z-1.626 I0. J-0.406
Y58.09 Z-1.688 I0. J0.406
Y57.277 Z-1.751 I0. J-0.406
Y58.09 Z-1.813 I0. J0.406
Y57.277 Z-1.876 I0. J-0.406
Y58.09 Z-1.938 I0. J0.406
Y57.277 Z-2.001 I0. J-0.406
Y58.09 Z-2.063 I0. J0.406
Y57.277 Z-2.126 I0. J-0.406
Y58.09 Z-2.188 I0. J0.406
Y57.277 Z-2.251 I0. J-0.406
Y58.09 Z-2.313 I0. J0.406
Y57.277 Z-2.376 I0. J-0.406
Y58.09 Z-2.438 I0. J0.406
Y57.277 Z-2.501 I0. J-0.406
Y58.09 Z-2.563 I0. J0.406
Y57.277 Z-2.626 I0. J-0.406
Y58.09 Z-2.688 I0. J0.406
Y57.277 Z-2.751 I0. J-0.406
Y58.09 Z-2.813 I0. J0.406
Y57.277 Z-2.876 I0. J-0.406
Y58.09 Z-2.938 I0. J0.406
Y57.277 Z-3.001 I0. J-0.406
Y58.09 Z-3.063 I0. J0.406
Y57.277 Z-3.126 I0. J-0.406
Y58.09 Z-3.188 I0. J0.406
Y57.277 Z-3.251 I0. J-0.406
Y58.09 Z-3.313 I0. J0.406
Y57.277 Z-3.376 I0. J-0.406
Y58.09 Z-3.438 I0. J0.406
Y57.277 Z-3.501 I0. J-0.406
Y58.09 Z-3.563 I0. J0.406
Y57.277 Z-3.626 I0. J-0.406
Y58.09 Z-3.689 I0. J0.406
Y57.277 Z-3.751 I0. J-0.406
Y58.09 Z-3.814 I0. J0.406
Y57.277 Z-3.876 I0. J-0.406
Y58.09 Z-3.939 I0. J0.406
Y57.277 Z-4.001 I0. J-0.406
Y58.09 Z-4.064 I0. J0.406
Y57.277 Z-4.126 I0. J-0.406
Y58.09 Z-4.189 I0. J0.406
Y57.277 Z-4.251 I0. J-0.406
Y58.09 Z-4.314 I0. J0.406
Y57.277 Z-4.376 I0. J-0.406
Y58.09 Z-4.439 I0. J0.406
Y57.277 Z-4.501 I0. J-0.406
Y58.09 Z-4.564 I0. J0.406
Y57.277 Z-4.626 I0. J-0.406
X120.016 Y57.997 Z-4.675 I0. J0.406
X120.534 Y57.37 I0.259 J-0.313
X120.016 Y57.997 I-0.259 J0.313
X120.302 Y57.969 I0.129 J-0.157
G1 X120.504 Y57.724
G0 Z21.

(BORE6)
M8
G0 X120.91 Y25.539
Z20.
Z3.
G1 Z1.635 F800.
G19 G2 Y24.904 Z1. J-0.635 K0.
G1 Y24.587
G17 G2 X120.275 Y23.952 I-0.635 J0.
Y30.302 Z0.889 I0. J3.175
Y23.952 Z0.778 I0. J-3.175
Y30.302 Z0.667 I0. J3.175
Y23.952 Z0.557 I0. J-3.175
Y30.302 Z0.446 I0. J3.175
Y23.952 Z0.335 I0. J-3.175
Y30.302 Z0.224 I0. J3.175
Y23.952 Z0.113 I0. J-3.175
Y30.302 Z0.002 I0. J3.175
Y23.952 Z-0.108 I0. J-3.175
Y30.302 Z-0.219 I0. J3.175
Y23.952 Z-0.33 I0. J-3.175
Y30.302 Z-0.441 I0. J3.175
Y23.952 Z-0.552 I0. J-3.175
Y30.302 Z-0.663 I0. J3.175
Y23.952 Z-0.773 I0. J-3.175
Y30.302 Z-0.884 I0. J3.175
Y23.952 Z-0.995 I0. J-3.175
Y30.302 Z-1.106 I0. J3.175
Y23.952 Z-1.217 I0. J-3.175
Y30.302 Z-1.328 I0. J3.175
Y23.952 Z-1.438 I0. J-3.175
Y30.302 Z-1.549 I0. J3.175
Y23.952 Z-1.66 I0. J-3.175
Y30.302 Z-1.771 I0. J3.175
Y23.952 Z-1.882 I0. J-3.175
Y30.302 Z-1.993 I0. J3.175
Y23.952 Z-2.104 I0. J-3.175
Y30.302 Z-2.214 I0. J3.175
Y23.952 Z-2.325 I0. J-3.175
Y30.302 Z-2.436 I0. J3.175
Y23.952 Z-2.547 I0. J-3.175
Y30.302 Z-2.658 I0. J3.175
Y23.952 Z-2.769 I0. J-3.175
Y30.302 Z-2.879 I0. J3.175
Y23.952 Z-2.99 I0. J-3.175
Y30.302 Z-3.101 I0. J3.175
Y23.952 Z-3.212 I0. J-3.175
Y30.302 Z-3.323 I0. J3.175
Y23.952 Z-3.434 I0. J-3.175
Y30.302 Z-3.544 I0. J3.175
Y23.952 Z-3.655 I0. J-3.175
Y30.302 Z-3.766 I0. J3.175
Y23.952 Z-3.877 I0. J-3.175
Y30.302 Z-3.988 I0. J3.175
Y23.952 Z-4.099 I0. J-3.175
Y30.302 Z-4.209 I0. J3.175
Y23.952 Z-4.32 I0. J-3.175
Y30.302 Z-4.431 I0. J3.175
Y23.952 Z-4.542 I0. J-3.175
Y30.302 Z-4.653 I0. J3.175
X122.142 Y29.695 Z-4.675 I0. J-3.175
X118.408 Y24.559 I-1.867 J-2.568
X122.142 Y29.695 I1.867 J2.568
X122.282 Y28.808 I-0.373 J-0.514
G1 X122.095 Y28.551
X122.037 Y28.471 Z-4.667
X121.98 Y28.393 Z-4.644
X121.926 Y28.318 Z-4.606
X121.876 Y28.249 Z-4.554
X121.831 Y28.188 Z-4.489
X121.793 Y28.136 Z-4.413
X121.763 Y28.094 Z-4.328
X121.74 Y28.063 Z-4.236
X121.727 Y28.044 Z-4.139
X121.722 Y28.038 Z-4.04
G0 Z5.
X120.91 Y22.365
Z3.
G1 Z1.635 F800.
G19 G2 Y21.729 Z1. J-0.635 K0.
G1 Y21.412
G17 G2 X120.275 Y20.777 I-0.635 J0.
Y33.477 Z0.834 I0. J6.35
Y20.777 Z0.667 I0. J-6.35
Y33.477 Z0.501 I0. J6.35
Y20.777 Z0.335 I0. J-6.35
Y33.477 Z0.169 I0. J6.35
Y20.777 Z0.002 I0. J-6.35
Y33.477 Z-0.164 I0. J6.35
Y20.777 Z-0.33 I0. J-6.35
Y33.477 Z-0.496 I0. J6.35
Y20.777 Z-0.663 I0. J-6.35
Y33.477 Z-0.829 I0. J6.35
Y20.777 Z-0.995 I0. J-6.35
Y33.477 Z-1.161 I0. J6.35
Y20.777 Z-1.328 I0. J-6.35
Y33.477 Z-1.494 I0. J6.35
Y20.777 Z-1.66 I0. J-6.35
Y33.477 Z-1.826 I0. J6.35
Y20.777 Z-1.993 I0. J-6.35
Y33.477 Z-2.159 I0. J6.35
Y20.777 Z-2.325 I0. J-6.35
Y33.477 Z-2.491 I0. J6.35
Y20.777 Z-2.658 I0. J-6.35
Y33.477 Z-2.824 I0. J6.35
Y20.777 Z-2.99 I0. J-6.35
Y33.477 Z-3.156 I0. J6.35
Y20.777 Z-3.323 I0. J-6.35
Y33.477 Z-3.489 I0. J6.35
Y20.777 Z-3.655 I0. J-6.35
Y33.477 Z-3.822 I0. J6.35
Y20.777 Z-3.988 I0. J-6.35
Y33.477 Z-4.154 I0. J6.35
Y20.777 Z-4.32 I0. J-6.35
Y33.477 Z-4.487 I0. J6.35
Y20.777 Z-4.653 I0. J-6.35
X117.691 Y21.326 Z-4.675 I0. J6.35
X122.859 Y32.928 I2.584 J5.801
X117.691 Y21.326 I-2.584 J-5.801
X117.37 Y22.165 I0.258 J0.58
G1 X117.499 Y22.455
X117.539 Y22.546 Z-4.667
X117.579 Y22.634 Z-4.644
X117.616 Y22.718 Z-4.606
X117.651 Y22.796 Z-4.554
X117.681 Y22.865 Z-4.489
X117.708 Y22.924 Z-4.413
X117.729 Y22.972 Z-4.328
X117.744 Y23.007 Z-4.236
X117.754 Y23.028 Z-4.139
X117.757 Y23.035 Z-4.04
G0 Z20.
M5
G0 Z15
G0 X0 Y0

M9
M30
