(1001)
(T1  D=6.35 CR=0. - ZMIN=20.725 - FLAT END MILL)
G90 G94 G91.1 G40 G49 G17
G21
(4TH HOLE )
G0 Z15

(BORE8)
M5
T1 M6
S16000 M3
G54
M8
G0 X-90.983 Y-120.473
G43 Z81.4 H1
Z27.765
G1 Z26.4 F800.
X-91.301
G2 X-91.499 Y-120.275 I0. J0.198
X-90.705 Z26.338 I0.397 J0.
X-91.499 Z26.275 I-0.397 J0.
X-90.705 Z26.213 I0.397 J0.
X-91.499 Z26.151 I-0.397 J0.
X-90.705 Z26.088 I0.397 J0.
X-91.499 Z26.026 I-0.397 J0.
X-90.705 Z25.964 I0.397 J0.
X-91.499 Z25.901 I-0.397 J0.
X-90.705 Z25.839 I0.397 J0.
X-91.499 Z25.777 I-0.397 J0.
X-90.705 Z25.714 I0.397 J0.
X-91.499 Z25.652 I-0.397 J0.
X-90.705 Z25.589 I0.397 J0.
X-91.499 Z25.527 I-0.397 J0.
X-90.705 Z25.465 I0.397 J0.
X-91.499 Z25.402 I-0.397 J0.
X-90.705 Z25.34 I0.397 J0.
X-91.499 Z25.278 I-0.397 J0.
X-90.705 Z25.215 I0.397 J0.
X-91.499 Z25.153 I-0.397 J0.
X-90.705 Z25.091 I0.397 J0.
X-91.499 Z25.028 I-0.397 J0.
X-90.705 Z24.966 I0.397 J0.
X-91.499 Z24.904 I-0.397 J0.
X-90.705 Z24.841 I0.397 J0.
X-91.499 Z24.779 I-0.397 J0.
X-90.705 Z24.717 I0.397 J0.
X-91.499 Z24.654 I-0.397 J0.
X-90.705 Z24.592 I0.397 J0.
X-91.499 Z24.53 I-0.397 J0.
X-90.705 Z24.467 I0.397 J0.
X-91.499 Z24.405 I-0.397 J0.
X-90.705 Z24.343 I0.397 J0.
X-91.499 Z24.28 I-0.397 J0.
X-90.705 Z24.218 I0.397 J0.
X-91.499 Z24.155 I-0.397 J0.
X-90.705 Z24.093 I0.397 J0.
X-91.499 Z24.031 I-0.397 J0.
X-90.705 Z23.968 I0.397 J0.
X-91.499 Z23.906 I-0.397 J0.
X-90.705 Z23.844 I0.397 J0.
X-91.499 Z23.781 I-0.397 J0.
X-90.705 Z23.719 I0.397 J0.
X-91.499 Z23.657 I-0.397 J0.
X-90.705 Z23.594 I0.397 J0.
X-91.499 Z23.532 I-0.397 J0.
X-90.705 Z23.47 I0.397 J0.
X-91.499 Z23.407 I-0.397 J0.
X-90.705 Z23.345 I0.397 J0.
X-91.499 Z23.283 I-0.397 J0.
X-90.705 Z23.22 I0.397 J0.
X-91.499 Z23.158 I-0.397 J0.
X-90.705 Z23.096 I0.397 J0.
X-91.499 Z23.033 I-0.397 J0.
X-90.705 Z22.971 I0.397 J0.
X-91.499 Z22.909 I-0.397 J0.
X-90.705 Z22.846 I0.397 J0.
X-91.499 Z22.784 I-0.397 J0.
X-90.705 Z22.722 I0.397 J0.
X-91.499 Z22.659 I-0.397 J0.
X-90.705 Z22.597 I0.397 J0.
X-91.499 Z22.534 I-0.397 J0.
X-90.705 Z22.472 I0.397 J0.
X-91.499 Z22.41 I-0.397 J0.
X-90.705 Z22.347 I0.397 J0.
X-91.499 Z22.285 I-0.397 J0.
X-90.705 Z22.223 I0.397 J0.
X-91.499 Z22.16 I-0.397 J0.
X-90.705 Z22.098 I0.397 J0.
X-91.499 Z22.036 I-0.397 J0.
X-90.705 Z21.973 I0.397 J0.
X-91.499 Z21.911 I-0.397 J0.
X-90.705 Z21.849 I0.397 J0.
X-91.499 Z21.786 I-0.397 J0.
X-90.705 Z21.724 I0.397 J0.
X-91.499 Z21.662 I-0.397 J0.
X-90.705 Z21.599 I0.397 J0.
X-91.499 Z21.537 I-0.397 J0.
X-90.705 Z21.475 I0.397 J0.
X-91.499 Z21.412 I-0.397 J0.
X-90.705 Z21.35 I0.397 J0.
X-91.499 Z21.288 I-0.397 J0.
X-90.705 Z21.225 I0.397 J0.
X-91.499 Z21.163 I-0.397 J0.
X-90.705 Z21.1 I0.397 J0.
X-91.499 Z21.038 I-0.397 J0.
X-90.705 Z20.976 I0.397 J0.
X-91.499 Z20.913 I-0.397 J0.
X-90.705 Z20.851 I0.397 J0.
X-91.499 Z20.789 I-0.397 J0.
X-91.088 Y-119.878 Z20.757 I0.397 J0.
X-90.706 Y-120.303 Z20.725 I-0.014 J-0.397
X-91.498 Y-120.247 I-0.396 J0.028
X-90.706 Y-120.303 I0.396 J-0.028
X-90.918 Y-120.487 I-0.198 J0.014
G1 X-91.235 Y-120.465
G0 Z71.4
X-79.719 Y-120.91
Z28.4
G1 Z27.035 F800.
G18 G3 X-80.354 Z26.4 I-0.635 K0.
G1 X-80.671
G17 G2 X-81.306 Y-120.275 I0. J0.635
X-74.956 Z26.289 I3.175 J0.
X-81.306 Z26.178 I-3.175 J0.
X-74.956 Z26.067 I3.175 J0.
X-81.306 Z25.957 I-3.175 J0.
X-74.956 Z25.846 I3.175 J0.
X-81.306 Z25.735 I-3.175 J0.
X-74.956 Z25.624 I3.175 J0.
X-81.306 Z25.513 I-3.175 J0.
X-74.956 Z25.402 I3.175 J0.
X-81.306 Z25.292 I-3.175 J0.
X-74.956 Z25.181 I3.175 J0.
X-81.306 Z25.07 I-3.175 J0.
X-74.956 Z24.959 I3.175 J0.
X-81.306 Z24.848 I-3.175 J0.
X-74.956 Z24.737 I3.175 J0.
X-81.306 Z24.627 I-3.175 J0.
X-74.956 Z24.516 I3.175 J0.
X-81.306 Z24.405 I-3.175 J0.
X-74.956 Z24.294 I3.175 J0.
X-81.306 Z24.183 I-3.175 J0.
X-74.956 Z24.072 I3.175 J0.
X-81.306 Z23.962 I-3.175 J0.
X-74.956 Z23.851 I3.175 J0.
X-81.306 Z23.74 I-3.175 J0.
X-74.956 Z23.629 I3.175 J0.
X-81.306 Z23.518 I-3.175 J0.
X-74.956 Z23.407 I3.175 J0.
X-81.306 Z23.296 I-3.175 J0.
X-74.956 Z23.186 I3.175 J0.
X-81.306 Z23.075 I-3.175 J0.
X-74.956 Z22.964 I3.175 J0.
X-81.306 Z22.853 I-3.175 J0.
X-74.956 Z22.742 I3.175 J0.
X-81.306 Z22.631 I-3.175 J0.
X-74.956 Z22.521 I3.175 J0.
X-81.306 Z22.41 I-3.175 J0.
X-74.956 Z22.299 I3.175 J0.
X-81.306 Z22.188 I-3.175 J0.
X-74.956 Z22.077 I3.175 J0.
X-81.306 Z21.966 I-3.175 J0.
X-74.956 Z21.856 I3.175 J0.
X-81.306 Z21.745 I-3.175 J0.
X-74.956 Z21.634 I3.175 J0.
X-81.306 Z21.523 I-3.175 J0.
X-74.956 Z21.412 I3.175 J0.
X-81.306 Z21.301 I-3.175 J0.
X-74.956 Z21.191 I3.175 J0.
X-81.306 Z21.08 I-3.175 J0.
X-74.956 Z20.969 I3.175 J0.
X-81.306 Z20.858 I-3.175 J0.
X-74.956 Z20.747 I3.175 J0.
X-75.563 Y-122.142 Z20.725 I-3.175 J0.
X-80.699 Y-118.408 I-2.568 J1.867
X-75.563 Y-122.142 I2.568 J-1.867
X-76.45 Y-122.282 I-0.514 J0.373
G1 X-76.707 Y-122.095
X-76.787 Y-122.037 Z20.733
X-76.866 Y-121.98 Z20.756
X-76.94 Y-121.926 Z20.794
X-77.009 Y-121.876 Z20.846
X-77.07 Y-121.831 Z20.911
X-77.122 Y-121.793 Z20.987
X-77.165 Y-121.763 Z21.072
X-77.195 Y-121.74 Z21.164
X-77.214 Y-121.727 Z21.261
X-77.221 Y-121.722 Z21.36
G0 Z71.4
X-18.606 Y-120.91
Z28.4
G1 Z27.035 F800.
G18 G3 X-19.241 Z26.4 I-0.635 K0.
G1 X-19.559
G17 G2 X-20.194 Y-120.275 I0. J0.635
X-13.844 Z26.289 I3.175 J0.
X-20.194 Z26.178 I-3.175 J0.
X-13.844 Z26.067 I3.175 J0.
X-20.194 Z25.957 I-3.175 J0.
X-13.844 Z25.846 I3.175 J0.
X-20.194 Z25.735 I-3.175 J0.
X-13.844 Z25.624 I3.175 J0.
X-20.194 Z25.513 I-3.175 J0.
X-13.844 Z25.402 I3.175 J0.
X-20.194 Z25.292 I-3.175 J0.
X-13.844 Z25.181 I3.175 J0.
X-20.194 Z25.07 I-3.175 J0.
X-13.844 Z24.959 I3.175 J0.
X-20.194 Z24.848 I-3.175 J0.
X-13.844 Z24.737 I3.175 J0.
X-20.194 Z24.627 I-3.175 J0.
X-13.844 Z24.516 I3.175 J0.
X-20.194 Z24.405 I-3.175 J0.
X-13.844 Z24.294 I3.175 J0.
X-20.194 Z24.183 I-3.175 J0.
X-13.844 Z24.072 I3.175 J0.
X-20.194 Z23.962 I-3.175 J0.
X-13.844 Z23.851 I3.175 J0.
X-20.194 Z23.74 I-3.175 J0.
X-13.844 Z23.629 I3.175 J0.
X-20.194 Z23.518 I-3.175 J0.
X-13.844 Z23.407 I3.175 J0.
X-20.194 Z23.296 I-3.175 J0.
X-13.844 Z23.186 I3.175 J0.
X-20.194 Z23.075 I-3.175 J0.
X-13.844 Z22.964 I3.175 J0.
X-20.194 Z22.853 I-3.175 J0.
X-13.844 Z22.742 I3.175 J0.
X-20.194 Z22.631 I-3.175 J0.
X-13.844 Z22.521 I3.175 J0.
X-20.194 Z22.41 I-3.175 J0.
X-13.844 Z22.299 I3.175 J0.
X-20.194 Z22.188 I-3.175 J0.
X-13.844 Z22.077 I3.175 J0.
X-20.194 Z21.966 I-3.175 J0.
X-13.844 Z21.856 I3.175 J0.
X-20.194 Z21.745 I-3.175 J0.
X-13.844 Z21.634 I3.175 J0.
X-20.194 Z21.523 I-3.175 J0.
X-13.844 Z21.412 I3.175 J0.
X-20.194 Z21.301 I-3.175 J0.
X-13.844 Z21.191 I3.175 J0.
X-20.194 Z21.08 I-3.175 J0.
X-13.844 Z20.969 I3.175 J0.
X-20.194 Z20.858 I-3.175 J0.
X-13.844 Z20.747 I3.175 J0.
X-14.451 Y-122.142 Z20.725 I-3.175 J0.
X-19.587 Y-118.408 I-2.568 J1.867
X-14.451 Y-122.142 I2.568 J-1.867
X-15.338 Y-122.282 I-0.514 J0.373
G1 X-15.594 Y-122.095
X-15.675 Y-122.037 Z20.733
X-15.753 Y-121.98 Z20.756
X-15.828 Y-121.926 Z20.794
X-15.896 Y-121.876 Z20.846
X-15.958 Y-121.831 Z20.911
X-16.01 Y-121.793 Z20.987
X-16.052 Y-121.763 Z21.072
X-16.083 Y-121.74 Z21.164
X-16.102 Y-121.727 Z21.261
X-16.108 Y-121.722 Z21.36
G0 Z81.4

(BORE9)
G0 X-49.162 Y-120.91
Z81.4
Z28.4
G1 Z27.035 F800.
G18 G3 X-49.798 Z26.4 I-0.635 K0.
G1 X-50.115
G17 G2 X-50.75 Y-120.275 I0. J0.635
X-44.4 Z26.289 I3.175 J0.
X-50.75 Z26.178 I-3.175 J0.
X-44.4 Z26.067 I3.175 J0.
X-50.75 Z25.957 I-3.175 J0.
X-44.4 Z25.846 I3.175 J0.
X-50.75 Z25.735 I-3.175 J0.
X-44.4 Z25.624 I3.175 J0.
X-50.75 Z25.513 I-3.175 J0.
X-44.4 Z25.402 I3.175 J0.
X-50.75 Z25.292 I-3.175 J0.
X-44.4 Z25.181 I3.175 J0.
X-50.75 Z25.07 I-3.175 J0.
X-44.4 Z24.959 I3.175 J0.
X-50.75 Z24.848 I-3.175 J0.
X-44.4 Z24.737 I3.175 J0.
X-50.75 Z24.627 I-3.175 J0.
X-44.4 Z24.516 I3.175 J0.
X-50.75 Z24.405 I-3.175 J0.
X-44.4 Z24.294 I3.175 J0.
X-50.75 Z24.183 I-3.175 J0.
X-44.4 Z24.072 I3.175 J0.
X-50.75 Z23.962 I-3.175 J0.
X-44.4 Z23.851 I3.175 J0.
X-50.75 Z23.74 I-3.175 J0.
X-44.4 Z23.629 I3.175 J0.
X-50.75 Z23.518 I-3.175 J0.
X-44.4 Z23.407 I3.175 J0.
X-50.75 Z23.296 I-3.175 J0.
X-44.4 Z23.186 I3.175 J0.
X-50.75 Z23.075 I-3.175 J0.
X-44.4 Z22.964 I3.175 J0.
X-50.75 Z22.853 I-3.175 J0.
X-44.4 Z22.742 I3.175 J0.
X-50.75 Z22.631 I-3.175 J0.
X-44.4 Z22.521 I3.175 J0.
X-50.75 Z22.41 I-3.175 J0.
X-44.4 Z22.299 I3.175 J0.
X-50.75 Z22.188 I-3.175 J0.
X-44.4 Z22.077 I3.175 J0.
X-50.75 Z21.966 I-3.175 J0.
X-44.4 Z21.856 I3.175 J0.
X-50.75 Z21.745 I-3.175 J0.
X-44.4 Z21.634 I3.175 J0.
X-50.75 Z21.523 I-3.175 J0.
X-44.4 Z21.412 I3.175 J0.
X-50.75 Z21.301 I-3.175 J0.
X-44.4 Z21.191 I3.175 J0.
X-50.75 Z21.08 I-3.175 J0.
X-44.4 Z20.969 I3.175 J0.
X-50.75 Z20.858 I-3.175 J0.
X-44.4 Z20.747 I3.175 J0.
X-45.007 Y-122.142 Z20.725 I-3.175 J0.
X-50.143 Y-118.408 I-2.568 J1.867
X-45.007 Y-122.142 I2.568 J-1.867
X-45.894 Y-122.282 I-0.514 J0.373
G1 X-46.151 Y-122.095
X-46.231 Y-122.037 Z20.733
X-46.309 Y-121.98 Z20.756
X-46.384 Y-121.926 Z20.794
X-46.453 Y-121.876 Z20.846
X-46.514 Y-121.831 Z20.911
X-46.566 Y-121.793 Z20.987
X-46.608 Y-121.763 Z21.072
X-46.639 Y-121.74 Z21.164
X-46.658 Y-121.727 Z21.261
X-46.664 Y-121.722 Z21.36
G0 Z71.4
X-52.338 Y-120.91
Z28.4
G1 Z27.035 F800.
G18 G3 X-52.972 Z26.4 I-0.635 K0.
G1 X-53.29
G17 G2 X-53.925 Y-120.275 I0. J0.635
X-41.225 Z26.234 I6.35 J0.
X-53.925 Z26.067 I-6.35 J0.
X-41.225 Z25.901 I6.35 J0.
X-53.925 Z25.735 I-6.35 J0.
X-41.225 Z25.569 I6.35 J0.
X-53.925 Z25.402 I-6.35 J0.
X-41.225 Z25.236 I6.35 J0.
X-53.925 Z25.07 I-6.35 J0.
X-41.225 Z24.904 I6.35 J0.
X-53.925 Z24.737 I-6.35 J0.
X-41.225 Z24.571 I6.35 J0.
X-53.925 Z24.405 I-6.35 J0.
X-41.225 Z24.239 I6.35 J0.
X-53.925 Z24.072 I-6.35 J0.
X-41.225 Z23.906 I6.35 J0.
X-53.925 Z23.74 I-6.35 J0.
X-41.225 Z23.574 I6.35 J0.
X-53.925 Z23.407 I-6.35 J0.
X-41.225 Z23.241 I6.35 J0.
X-53.925 Z23.075 I-6.35 J0.
X-41.225 Z22.909 I6.35 J0.
X-53.925 Z22.742 I-6.35 J0.
X-41.225 Z22.576 I6.35 J0.
X-53.925 Z22.41 I-6.35 J0.
X-41.225 Z22.244 I6.35 J0.
X-53.925 Z22.077 I-6.35 J0.
X-41.225 Z21.911 I6.35 J0.
X-53.925 Z21.745 I-6.35 J0.
X-41.225 Z21.578 I6.35 J0.
X-53.925 Z21.412 I-6.35 J0.
X-41.225 Z21.246 I6.35 J0.
X-53.925 Z21.08 I-6.35 J0.
X-41.225 Z20.913 I6.35 J0.
X-53.925 Z20.747 I-6.35 J0.
X-53.376 Y-117.691 Z20.725 I6.35 J0.
X-41.774 Y-122.859 I5.801 J-2.584
X-53.376 Y-117.691 I-5.801 J2.584
X-52.537 Y-117.37 I0.58 J-0.258
G1 X-52.247 Y-117.499
X-52.156 Y-117.539 Z20.733
X-52.068 Y-117.579 Z20.756
X-51.984 Y-117.616 Z20.794
X-51.906 Y-117.651 Z20.846
X-51.837 Y-117.681 Z20.911
X-51.778 Y-117.708 Z20.987
X-51.73 Y-117.729 Z21.072
X-51.695 Y-117.744 Z21.164
X-51.674 Y-117.754 Z21.261
X-51.667 Y-117.757 Z21.36
G0 Z81.4

(BORE12)
G0 X-4.319 Y-120.91
Z81.4
Z28.4
G1 Z27.035 F800.
G18 G3 X-4.954 Z26.4 I-0.635 K0.
G1 X-5.271
G17 G2 X-5.906 Y-120.275 I0. J0.635
X12.356 Z26.185 I9.131 J0.
X-5.906 Z25.97 I-9.131 J0.
X12.356 Z25.756 I9.131 J0.
X-5.906 Z25.541 I-9.131 J0.
X12.356 Z25.326 I9.131 J0.
X-5.906 Z25.111 I-9.131 J0.
X12.356 Z24.896 I9.131 J0.
X-5.906 Z24.682 I-9.131 J0.
X12.356 Z24.467 I9.131 J0.
X-5.906 Z24.252 I-9.131 J0.
X12.356 Z24.037 I9.131 J0.
X2.57 Y-129.383 Z23.925 I-9.131 J0.
X-5.812 Y-118.969 Z23.813 I0.655 J9.108
X12.262 Y-121.581 I9.037 J-1.306
X-5.812 Y-118.969 I-9.037 J1.306
X-5.093 Y-118.431 I0.628 J-0.091
G1 X-4.779 Y-118.477
X-4.681 Y-118.491 Z23.82
X-4.585 Y-118.505 Z23.844
X-4.494 Y-118.518 Z23.882
X-4.409 Y-118.53 Z23.934
X-4.335 Y-118.541 Z23.998
X-4.27 Y-118.55 Z24.074
X-4.219 Y-118.558 Z24.159
X-4.181 Y-118.563 Z24.251
X-4.158 Y-118.566 Z24.348
X-4.15 Y-118.568 Z24.448
G0 Z81.4

(BORE11)
G0 X0.05 Y-120.91
Z81.4
Z28.4
G1 Z27.035 F800.
G18 G3 X-0.585 Z26.4 I-0.635 K0.
G1 X-0.902
G17 G2 X-1.538 Y-120.275 I0. J0.635
X7.987 Z26.261 I4.762 J0.
X-1.537 Z26.123 I-4.762 J0.
X7.987 Z25.984 I4.762 J0.
X-1.537 Z25.846 I-4.762 J0.
X7.987 Z25.707 I4.762 J0.
X-1.537 Z25.569 I-4.762 J0.
X7.987 Z25.43 I4.762 J0.
X-1.537 Z25.292 I-4.762 J0.
X7.987 Z25.153 I4.762 J0.
X-1.537 Z25.015 I-4.762 J0.
X7.987 Z24.876 I4.762 J0.
X-1.537 Z24.737 I-4.762 J0.
X7.987 Z24.599 I4.762 J0.
X-1.537 Z24.46 I-4.762 J0.
X7.987 Z24.322 I4.762 J0.
X-1.537 Z24.183 I-4.762 J0.
X7.987 Z24.045 I4.762 J0.
X-1.537 Z23.906 I-4.762 J0.
X7.987 Z23.768 I4.762 J0.
X-1.537 Z23.629 I-4.762 J0.
X7.987 Z23.49 I4.762 J0.
X-1.537 Z23.352 I-4.762 J0.
X7.987 Z23.213 I4.762 J0.
X-1.537 Z23.075 I-4.762 J0.
X7.987 Z22.936 I4.762 J0.
X-1.537 Z22.798 I-4.762 J0.
X7.987 Z22.659 I4.762 J0.
X-1.537 Z22.521 I-4.762 J0.
X7.987 Z22.382 I4.762 J0.
X-1.537 Z22.244 I-4.762 J0.
X7.987 Z22.105 I4.762 J0.
X-1.537 Z21.966 I-4.762 J0.
X7.987 Z21.828 I4.762 J0.
X-1.537 Z21.689 I-4.762 J0.
X7.987 Z21.551 I4.762 J0.
X-1.537 Z21.412 I-4.762 J0.
X7.987 Z21.274 I4.762 J0.
X5.37 Y-124.527 Z21.225 I-4.762 J0.
X1.08 Y-116.023 I-2.145 J4.252
X5.37 Y-124.527 I2.145 J-4.252
X4.517 Y-124.246 I-0.286 J0.567
G1 X4.374 Y-123.963
X4.33 Y-123.874 Z21.233
X4.286 Y-123.787 Z21.256
X4.245 Y-123.705 Z21.294
X4.206 Y-123.629 Z21.346
X4.172 Y-123.562 Z21.411
X4.143 Y-123.504 Z21.487
X4.12 Y-123.457 Z21.572
X4.102 Y-123.423 Z21.664
X4.092 Y-123.403 Z21.761
X4.088 Y-123.396 Z21.86
G0 Z71.4
X-3.125 Y-120.91
Z28.4
G1 Z27.035 F800.
G18 G3 X-3.76 Z26.4 I-0.635 K0.
G1 X-4.077
G17 G2 X-4.713 Y-120.275 I0. J0.635
X11.163 Z26.206 I7.938 J0.
X-4.713 Z26.012 I-7.938 J0.
X11.163 Z25.818 I7.938 J0.
X-4.713 Z25.624 I-7.938 J0.
X11.163 Z25.43 I7.938 J0.
X-4.713 Z25.236 I-7.938 J0.
X11.163 Z25.042 I7.938 J0.
X-4.713 Z24.848 I-7.938 J0.
X11.163 Z24.654 I7.938 J0.
X-4.713 Z24.46 I-7.938 J0.
X11.163 Z24.266 I7.938 J0.
X-4.713 Z24.072 I-7.938 J0.
X11.163 Z23.878 I7.938 J0.
X-4.713 Z23.684 I-7.938 J0.
X11.163 Z23.49 I7.938 J0.
X-4.713 Z23.296 I-7.938 J0.
X11.163 Z23.103 I7.938 J0.
X-4.713 Z22.909 I-7.938 J0.
X11.163 Z22.715 I7.938 J0.
X-4.713 Z22.521 I-7.938 J0.
X11.163 Z22.327 I7.938 J0.
X-4.713 Z22.133 I-7.938 J0.
X11.163 Z21.939 I7.938 J0.
X-4.713 Z21.745 I-7.938 J0.
X11.163 Z21.551 I7.938 J0.
X-4.713 Z21.357 I-7.938 J0.
X7.467 Y-113.566 Z21.225 I7.938 J0.
X-1.017 Y-126.984 I-4.242 J-6.709
X7.467 Y-113.566 I4.242 J6.709
X7.664 Y-114.442 I-0.339 J-0.537
G1 X7.495 Y-114.71
X7.441 Y-114.794 Z21.233
X7.39 Y-114.876 Z21.256
X7.34 Y-114.954 Z21.294
X7.295 Y-115.026 Z21.346
X7.255 Y-115.09 Z21.411
X7.22 Y-115.145 Z21.487
X7.192 Y-115.189 Z21.572
X7.172 Y-115.221 Z21.664
X7.159 Y-115.241 Z21.761
X7.155 Y-115.247 Z21.86
G0 Z81.4

(BORE13)
G0 X76.823 Y-104.394
Z81.4
Z27.765
G1 Z26.4 F800.
X76.505
G3 X76.307 Y-104.593 I0. J-0.198
X77.101 Z26.338 I0.397 J0.
X76.307 Z26.275 I-0.397 J0.
X77.101 Z26.213 I0.397 J0.
X76.307 Z26.151 I-0.397 J0.
X77.101 Z26.088 I0.397 J0.
X76.307 Z26.026 I-0.397 J0.
X77.101 Z25.964 I0.397 J0.
X76.307 Z25.901 I-0.397 J0.
X77.101 Z25.839 I0.397 J0.
X76.307 Z25.777 I-0.397 J0.
X77.101 Z25.714 I0.397 J0.
X76.307 Z25.652 I-0.397 J0.
X77.101 Z25.589 I0.397 J0.
X76.307 Z25.527 I-0.397 J0.
X77.101 Z25.465 I0.397 J0.
X76.307 Z25.402 I-0.397 J0.
X77.101 Z25.34 I0.397 J0.
X76.307 Z25.278 I-0.397 J0.
X77.101 Z25.215 I0.397 J0.
X76.307 Z25.153 I-0.397 J0.
X77.101 Z25.091 I0.397 J0.
X76.307 Z25.028 I-0.397 J0.
X77.101 Z24.966 I0.397 J0.
X76.307 Z24.904 I-0.397 J0.
X77.101 Z24.841 I0.397 J0.
X76.307 Z24.779 I-0.397 J0.
X77.101 Z24.717 I0.397 J0.
X76.307 Z24.654 I-0.397 J0.
X77.101 Z24.592 I0.397 J0.
X76.307 Z24.53 I-0.397 J0.
X77.101 Z24.467 I0.397 J0.
X76.307 Z24.405 I-0.397 J0.
X77.101 Z24.343 I0.397 J0.
X76.307 Z24.28 I-0.397 J0.
X77.101 Z24.218 I0.397 J0.
X76.307 Z24.155 I-0.397 J0.
X77.101 Z24.093 I0.397 J0.
X76.307 Z24.031 I-0.397 J0.
X77.101 Z23.968 I0.397 J0.
X76.307 Z23.906 I-0.397 J0.
X77.101 Z23.844 I0.397 J0.
X76.307 Z23.781 I-0.397 J0.
X77.101 Z23.719 I0.397 J0.
X76.307 Z23.657 I-0.397 J0.
X77.101 Z23.594 I0.397 J0.
X76.307 Z23.532 I-0.397 J0.
X77.101 Z23.47 I0.397 J0.
X76.307 Z23.407 I-0.397 J0.
X77.101 Z23.345 I0.397 J0.
X76.307 Z23.283 I-0.397 J0.
X77.101 Z23.22 I0.397 J0.
X76.307 Z23.158 I-0.397 J0.
X77.101 Z23.096 I0.397 J0.
X76.307 Z23.033 I-0.397 J0.
X77.101 Z22.971 I0.397 J0.
X76.307 Z22.909 I-0.397 J0.
X77.101 Z22.846 I0.397 J0.
X76.307 Z22.784 I-0.397 J0.
X77.101 Z22.722 I0.397 J0.
X76.307 Z22.659 I-0.397 J0.
X77.101 Z22.597 I0.397 J0.
X76.307 Z22.534 I-0.397 J0.
X77.101 Z22.472 I0.397 J0.
X76.307 Z22.41 I-0.397 J0.
X77.101 Z22.347 I0.397 J0.
X76.307 Z22.285 I-0.397 J0.
X77.101 Z22.223 I0.397 J0.
X76.307 Z22.16 I-0.397 J0.
X77.101 Z22.098 I0.397 J0.
X76.307 Z22.036 I-0.397 J0.
X77.101 Z21.973 I0.397 J0.
X76.307 Z21.911 I-0.397 J0.
X77.101 Z21.849 I0.397 J0.
X76.307 Z21.786 I-0.397 J0.
X77.101 Z21.724 I0.397 J0.
X76.307 Z21.662 I-0.397 J0.
X77.101 Z21.599 I0.397 J0.
X76.307 Z21.537 I-0.397 J0.
X77.101 Z21.475 I0.397 J0.
X76.307 Z21.412 I-0.397 J0.
X77.101 Z21.35 I0.397 J0.
X76.307 Z21.288 I-0.397 J0.
X77.101 Z21.225 I0.397 J0.
X76.307 Z21.163 I-0.397 J0.
X77.101 Z21.1 I0.397 J0.
X76.307 Z21.038 I-0.397 J0.
X77.101 Z20.976 I0.397 J0.
X76.307 Z20.913 I-0.397 J0.
X77.101 Z20.851 I0.397 J0.
X76.307 Z20.789 I-0.397 J0.
X76.718 Y-104.989 Z20.757 I0.397 J0.
X77.1 Y-104.565 Z20.725 I-0.014 J0.397
X76.308 Y-104.621 I-0.396 J-0.028
X77.1 Y-104.565 I0.396 J0.028
X76.888 Y-104.381 I-0.198 J-0.014
G1 X76.571 Y-104.403
G0 Z71.4
X76.823 Y-135.759
Z27.765
G1 Z26.4 F800.
X76.505
G3 X76.307 Y-135.957 I0. J-0.198
X77.101 Z26.338 I0.397 J0.
X76.307 Z26.275 I-0.397 J0.
X77.101 Z26.213 I0.397 J0.
X76.307 Z26.151 I-0.397 J0.
X77.101 Z26.088 I0.397 J0.
X76.307 Z26.026 I-0.397 J0.
X77.101 Z25.964 I0.397 J0.
X76.307 Z25.901 I-0.397 J0.
X77.101 Z25.839 I0.397 J0.
X76.307 Z25.777 I-0.397 J0.
X77.101 Z25.714 I0.397 J0.
X76.307 Z25.652 I-0.397 J0.
X77.101 Z25.589 I0.397 J0.
X76.307 Z25.527 I-0.397 J0.
X77.101 Z25.465 I0.397 J0.
X76.307 Z25.402 I-0.397 J0.
X77.101 Z25.34 I0.397 J0.
X76.307 Z25.278 I-0.397 J0.
X77.101 Z25.215 I0.397 J0.
X76.307 Z25.153 I-0.397 J0.
X77.101 Z25.091 I0.397 J0.
X76.307 Z25.028 I-0.397 J0.
X77.101 Z24.966 I0.397 J0.
X76.307 Z24.904 I-0.397 J0.
X77.101 Z24.841 I0.397 J0.
X76.307 Z24.779 I-0.397 J0.
X77.101 Z24.717 I0.397 J0.
X76.307 Z24.654 I-0.397 J0.
X77.101 Z24.592 I0.397 J0.
X76.307 Z24.53 I-0.397 J0.
X77.101 Z24.467 I0.397 J0.
X76.307 Z24.405 I-0.397 J0.
X77.101 Z24.343 I0.397 J0.
X76.307 Z24.28 I-0.397 J0.
X77.101 Z24.218 I0.397 J0.
X76.307 Z24.155 I-0.397 J0.
X77.101 Z24.093 I0.397 J0.
X76.307 Z24.031 I-0.397 J0.
X77.101 Z23.968 I0.397 J0.
X76.307 Z23.906 I-0.397 J0.
X77.101 Z23.844 I0.397 J0.
X76.307 Z23.781 I-0.397 J0.
X77.101 Z23.719 I0.397 J0.
X76.307 Z23.657 I-0.397 J0.
X77.101 Z23.594 I0.397 J0.
X76.307 Z23.532 I-0.397 J0.
X77.101 Z23.47 I0.397 J0.
X76.307 Z23.407 I-0.397 J0.
X77.101 Z23.345 I0.397 J0.
X76.307 Z23.283 I-0.397 J0.
X77.101 Z23.22 I0.397 J0.
X76.307 Z23.158 I-0.397 J0.
X77.101 Z23.096 I0.397 J0.
X76.307 Z23.033 I-0.397 J0.
X77.101 Z22.971 I0.397 J0.
X76.307 Z22.909 I-0.397 J0.
X77.101 Z22.846 I0.397 J0.
X76.307 Z22.784 I-0.397 J0.
X77.101 Z22.722 I0.397 J0.
X76.307 Z22.659 I-0.397 J0.
X77.101 Z22.597 I0.397 J0.
X76.307 Z22.534 I-0.397 J0.
X77.101 Z22.472 I0.397 J0.
X76.307 Z22.41 I-0.397 J0.
X77.101 Z22.347 I0.397 J0.
X76.307 Z22.285 I-0.397 J0.
X77.101 Z22.223 I0.397 J0.
X76.307 Z22.16 I-0.397 J0.
X77.101 Z22.098 I0.397 J0.
X76.307 Z22.036 I-0.397 J0.
X77.101 Z21.973 I0.397 J0.
X76.307 Z21.911 I-0.397 J0.
X77.101 Z21.849 I0.397 J0.
X76.307 Z21.786 I-0.397 J0.
X77.101 Z21.724 I0.397 J0.
X76.307 Z21.662 I-0.397 J0.
X77.101 Z21.599 I0.397 J0.
X76.307 Z21.537 I-0.397 J0.
X77.101 Z21.475 I0.397 J0.
X76.307 Z21.412 I-0.397 J0.
X77.101 Z21.35 I0.397 J0.
X76.307 Z21.288 I-0.397 J0.
X77.101 Z21.225 I0.397 J0.
X76.307 Z21.163 I-0.397 J0.
X77.101 Z21.1 I0.397 J0.
X76.307 Z21.038 I-0.397 J0.
X77.101 Z20.976 I0.397 J0.
X76.307 Z20.913 I-0.397 J0.
X77.101 Z20.851 I0.397 J0.
X76.307 Z20.789 I-0.397 J0.
X76.718 Y-136.354 Z20.757 I0.397 J0.
X77.1 Y-135.929 Z20.725 I-0.014 J0.397
X76.308 Y-135.985 I-0.396 J-0.028
X77.1 Y-135.929 I0.396 J0.028
X76.888 Y-135.745 I-0.198 J-0.014
G1 X76.571 Y-135.768
G0 Z81.4
M5
G0 Z15
G0 X0 Y0

M9
M30
