(1001)
(T1  D=6.35 CR=0. - ZMIN=20.725 - FLAT END MILL)
G90 G94 G91.1 G40 G49 G17
G21
(4TH HOLE )
G0 Z15

(BORE8)
M5
T1 M6
S16000 M3
G54
M8
G0 X90.983 Y120.473
G43 Z41.4 H1
Z26.765
G1 Z25.4 F800.
X91.301
G2 X91.499 Y120.275 I0. J-0.198
X90.705 Z25.338 I-0.397 J0.
X91.499 Z25.275 I0.397 J0.
X90.705 Z25.213 I-0.397 J0.
X91.499 Z25.151 I0.397 J0.
X90.705 Z25.088 I-0.397 J0.
X91.499 Z25.026 I0.397 J0.
X90.705 Z24.964 I-0.397 J0.
X91.499 Z24.901 I0.397 J0.
X90.705 Z24.839 I-0.397 J0.
X91.499 Z24.777 I0.397 J0.
X90.705 Z24.714 I-0.397 J0.
X91.499 Z24.652 I0.397 J0.
X90.705 Z24.589 I-0.397 J0.
X91.499 Z24.527 I0.397 J0.
X90.705 Z24.465 I-0.397 J0.
X91.499 Z24.402 I0.397 J0.
X90.705 Z24.34 I-0.397 J0.
X91.499 Z24.278 I0.397 J0.
X90.705 Z24.215 I-0.397 J0.
X91.499 Z24.153 I0.397 J0.
X90.705 Z24.091 I-0.397 J0.
X91.499 Z24.028 I0.397 J0.
X90.705 Z23.966 I-0.397 J0.
X91.499 Z23.904 I0.397 J0.
X90.705 Z23.841 I-0.397 J0.
X91.499 Z23.779 I0.397 J0.
X90.705 Z23.717 I-0.397 J0.
X91.499 Z23.654 I0.397 J0.
X90.705 Z23.592 I-0.397 J0.
X91.499 Z23.53 I0.397 J0.
X90.705 Z23.467 I-0.397 J0.
X91.499 Z23.405 I0.397 J0.
X90.705 Z23.343 I-0.397 J0.
X91.499 Z23.28 I0.397 J0.
X90.705 Z23.218 I-0.397 J0.
X91.499 Z23.155 I0.397 J0.
X90.705 Z23.093 I-0.397 J0.
X91.499 Z23.031 I0.397 J0.
X90.705 Z22.968 I-0.397 J0.
X91.499 Z22.906 I0.397 J0.
X90.705 Z22.844 I-0.397 J0.
X91.499 Z22.781 I0.397 J0.
X90.705 Z22.719 I-0.397 J0.
X91.499 Z22.657 I0.397 J0.
X90.705 Z22.594 I-0.397 J0.
X91.499 Z22.532 I0.397 J0.
X90.705 Z22.47 I-0.397 J0.
X91.499 Z22.407 I0.397 J0.
X90.705 Z22.345 I-0.397 J0.
X91.499 Z22.283 I0.397 J0.
X90.717 Y120.182 Z22.225 I-0.397 J0.
X91.488 Y120.368 I0.386 J0.093
X90.717 Y120.182 I-0.386 J-0.093
X90.863 Y120.421 I0.193 J0.047
G1 X91.171 Y120.496
G0 Z31.4
X79.719 Y120.91
Z27.4
G1 Z26.035 F800.
G18 G2 X80.354 Z25.4 I0.635 K0.
G1 X80.671
G17 G2 X81.306 Y120.275 I0. J-0.635
X74.956 Z25.289 I-3.175 J0.
X81.306 Z25.178 I3.175 J0.
X74.956 Z25.067 I-3.175 J0.
X81.306 Z24.957 I3.175 J0.
X74.956 Z24.846 I-3.175 J0.
X81.306 Z24.735 I3.175 J0.
X74.956 Z24.624 I-3.175 J0.
X81.306 Z24.513 I3.175 J0.
X74.956 Z24.402 I-3.175 J0.
X81.306 Z24.292 I3.175 J0.
X74.956 Z24.181 I-3.175 J0.
X81.306 Z24.07 I3.175 J0.
X74.956 Z23.959 I-3.175 J0.
X81.306 Z23.848 I3.175 J0.
X74.956 Z23.737 I-3.175 J0.
X81.306 Z23.627 I3.175 J0.
X74.956 Z23.516 I-3.175 J0.
X81.306 Z23.405 I3.175 J0.
X74.956 Z23.294 I-3.175 J0.
X81.306 Z23.183 I3.175 J0.
X74.956 Z23.072 I-3.175 J0.
X81.306 Z22.962 I3.175 J0.
X74.956 Z22.851 I-3.175 J0.
X81.306 Z22.74 I3.175 J0.
X74.956 Z22.629 I-3.175 J0.
X81.306 Z22.518 I3.175 J0.
X74.956 Z22.407 I-3.175 J0.
X81.306 Z22.296 I3.175 J0.
X76.735 Y117.424 Z22.225 I-3.175 J0.
X79.528 Y123.126 I1.397 J2.851
X76.735 Y117.424 I-1.397 J-2.851
X76.444 Y118.273 I0.279 J0.57
G1 X76.583 Y118.558
X76.627 Y118.648 Z22.233
X76.67 Y118.735 Z22.256
X76.71 Y118.817 Z22.294
X76.747 Y118.894 Z22.346
X76.781 Y118.962 Z22.411
X76.809 Y119.02 Z22.487
X76.832 Y119.067 Z22.572
X76.849 Y119.101 Z22.664
X76.859 Y119.122 Z22.761
X76.863 Y119.129 Z22.86
G0 Z31.4
X18.606 Y120.91
Z27.4
G1 Z26.035 F800.
G18 G2 X19.241 Z25.4 I0.635 K0.
G1 X19.559
G17 G2 X20.194 Y120.275 I0. J-0.635
X13.844 Z25.289 I-3.175 J0.
X20.194 Z25.178 I3.175 J0.
X13.844 Z25.067 I-3.175 J0.
X20.194 Z24.957 I3.175 J0.
X13.844 Z24.846 I-3.175 J0.
X20.194 Z24.735 I3.175 J0.
X13.844 Z24.624 I-3.175 J0.
X20.194 Z24.513 I3.175 J0.
X13.844 Z24.402 I-3.175 J0.
X20.194 Z24.292 I3.175 J0.
X13.844 Z24.181 I-3.175 J0.
X20.194 Z24.07 I3.175 J0.
X13.844 Z23.959 I-3.175 J0.
X20.194 Z23.848 I3.175 J0.
X13.844 Z23.737 I-3.175 J0.
X20.194 Z23.627 I3.175 J0.
X13.844 Z23.516 I-3.175 J0.
X20.194 Z23.405 I3.175 J0.
X13.844 Z23.294 I-3.175 J0.
X20.194 Z23.183 I3.175 J0.
X13.844 Z23.072 I-3.175 J0.
X20.194 Z22.962 I3.175 J0.
X13.844 Z22.851 I-3.175 J0.
X20.194 Z22.74 I3.175 J0.
X13.844 Z22.629 I-3.175 J0.
X20.194 Z22.518 I3.175 J0.
X13.844 Z22.407 I-3.175 J0.
X20.194 Z22.296 I3.175 J0.
X15.622 Y117.424 Z22.225 I-3.175 J0.
X18.415 Y123.126 I1.397 J2.851
X15.622 Y117.424 I-1.397 J-2.851
X15.331 Y118.273 I0.279 J0.57
G1 X15.471 Y118.558
X15.515 Y118.648 Z22.233
X15.557 Y118.735 Z22.256
X15.598 Y118.817 Z22.294
X15.635 Y118.894 Z22.346
X15.668 Y118.962 Z22.411
X15.697 Y119.02 Z22.487
X15.72 Y119.067 Z22.572
X15.737 Y119.101 Z22.664
X15.747 Y119.122 Z22.761
X15.75 Y119.129 Z22.86
G0 Z41.4

(BORE9)
G0 X49.162 Y120.91
Z41.4
Z28.4
G1 Z27.035 F800.
G18 G2 X49.798 Z26.4 I0.635 K0.
G1 X50.115
G17 G2 X50.75 Y120.275 I0. J-0.635
X44.4 Z26.289 I-3.175 J0.
X50.75 Z26.178 I3.175 J0.
X44.4 Z26.067 I-3.175 J0.
X50.75 Z25.957 I3.175 J0.
X44.4 Z25.846 I-3.175 J0.
X50.75 Z25.735 I3.175 J0.
X44.4 Z25.624 I-3.175 J0.
X50.75 Z25.513 I3.175 J0.
X44.4 Z25.402 I-3.175 J0.
X50.75 Z25.292 I3.175 J0.
X44.4 Z25.181 I-3.175 J0.
X50.75 Z25.07 I3.175 J0.
X44.4 Z24.959 I-3.175 J0.
X50.75 Z24.848 I3.175 J0.
X44.4 Z24.737 I-3.175 J0.
X50.75 Z24.627 I3.175 J0.
X44.4 Z24.516 I-3.175 J0.
X50.75 Z24.405 I3.175 J0.
X44.4 Z24.294 I-3.175 J0.
X50.75 Z24.183 I3.175 J0.
X44.4 Z24.072 I-3.175 J0.
X50.75 Z23.962 I3.175 J0.
X44.4 Z23.851 I-3.175 J0.
X50.75 Z23.74 I3.175 J0.
X44.4 Z23.629 I-3.175 J0.
X50.75 Z23.518 I3.175 J0.
X44.4 Z23.407 I-3.175 J0.
X50.75 Z23.296 I3.175 J0.
X44.4 Z23.186 I-3.175 J0.
X50.75 Z23.075 I3.175 J0.
X44.4 Z22.964 I-3.175 J0.
X50.75 Z22.853 I3.175 J0.
X44.4 Z22.742 I-3.175 J0.
X50.75 Z22.631 I3.175 J0.
X44.4 Z22.521 I-3.175 J0.
X50.75 Z22.41 I3.175 J0.
X44.4 Z22.299 I-3.175 J0.
X50.75 Z22.188 I3.175 J0.
X44.4 Z22.077 I-3.175 J0.
X50.75 Z21.966 I3.175 J0.
X44.4 Z21.856 I-3.175 J0.
X50.75 Z21.745 I3.175 J0.
X44.4 Z21.634 I-3.175 J0.
X50.75 Z21.523 I3.175 J0.
X44.4 Z21.412 I-3.175 J0.
X50.75 Z21.301 I3.175 J0.
X44.4 Z21.191 I-3.175 J0.
X50.75 Z21.08 I3.175 J0.
X44.4 Z20.969 I-3.175 J0.
X50.75 Z20.858 I3.175 J0.
X44.4 Z20.747 I-3.175 J0.
X45.007 Y122.142 Z20.725 I3.175 J0.
X50.143 Y118.408 I2.568 J-1.867
X45.007 Y122.142 I-2.568 J1.867
X45.894 Y122.282 I0.514 J-0.373
G1 X46.151 Y122.095
X46.231 Y122.037 Z20.733
X46.309 Y121.98 Z20.756
X46.384 Y121.926 Z20.794
X46.453 Y121.876 Z20.846
X46.514 Y121.831 Z20.911
X46.566 Y121.793 Z20.987
X46.608 Y121.763 Z21.072
X46.639 Y121.74 Z21.164
X46.658 Y121.727 Z21.261
X46.664 Y121.722 Z21.36
G0 Z31.4
X52.338 Y120.91
Z28.4
G1 Z27.035 F800.
G18 G2 X52.972 Z26.4 I0.635 K0.
G1 X53.29
G17 G2 X53.925 Y120.275 I0. J-0.635
X41.225 Z26.234 I-6.35 J0.
X53.925 Z26.067 I6.35 J0.
X41.225 Z25.901 I-6.35 J0.
X53.925 Z25.735 I6.35 J0.
X41.225 Z25.569 I-6.35 J0.
X53.925 Z25.402 I6.35 J0.
X41.225 Z25.236 I-6.35 J0.
X53.925 Z25.07 I6.35 J0.
X41.225 Z24.904 I-6.35 J0.
X53.925 Z24.737 I6.35 J0.
X41.225 Z24.571 I-6.35 J0.
X53.925 Z24.405 I6.35 J0.
X41.225 Z24.239 I-6.35 J0.
X53.925 Z24.072 I6.35 J0.
X41.225 Z23.906 I-6.35 J0.
X53.925 Z23.74 I6.35 J0.
X41.225 Z23.574 I-6.35 J0.
X53.925 Z23.407 I6.35 J0.
X41.225 Z23.241 I-6.35 J0.
X53.925 Z23.075 I6.35 J0.
X41.225 Z22.909 I-6.35 J0.
X53.925 Z22.742 I6.35 J0.
X41.225 Z22.576 I-6.35 J0.
X53.925 Z22.41 I6.35 J0.
X41.225 Z22.244 I-6.35 J0.
X53.925 Z22.077 I6.35 J0.
X41.225 Z21.911 I-6.35 J0.
X53.925 Z21.745 I6.35 J0.
X41.225 Z21.578 I-6.35 J0.
X53.925 Z21.412 I6.35 J0.
X41.225 Z21.246 I-6.35 J0.
X53.925 Z21.08 I6.35 J0.
X41.225 Z20.913 I-6.35 J0.
X53.925 Z20.747 I6.35 J0.
X53.376 Y117.691 Z20.725 I-6.35 J0.
X41.774 Y122.859 I-5.801 J2.584
X53.376 Y117.691 I5.801 J-2.584
X52.537 Y117.37 I-0.58 J0.258
G1 X52.247 Y117.499
X52.156 Y117.539 Z20.733
X52.068 Y117.579 Z20.756
X51.984 Y117.616 Z20.794
X51.906 Y117.651 Z20.846
X51.837 Y117.681 Z20.911
X51.778 Y117.708 Z20.987
X51.73 Y117.729 Z21.072
X51.695 Y117.744 Z21.164
X51.674 Y117.754 Z21.261
X51.667 Y117.757 Z21.36
G0 Z41.4

(BORE12)
G0 X4.319 Y120.91
Z41.4
Z28.4
G1 Z27.035 F800.
G18 G2 X4.954 Z26.4 I0.635 K0.
G1 X5.271
G17 G2 X5.906 Y120.275 I0. J-0.635
X-12.356 Z26.185 I-9.131 J0.
X5.906 Z25.97 I9.131 J0.
X-12.356 Z25.756 I-9.131 J0.
X5.906 Z25.541 I9.131 J0.
X-12.356 Z25.326 I-9.131 J0.
X5.906 Z25.111 I9.131 J0.
X-12.356 Z24.896 I-9.131 J0.
X5.906 Z24.682 I9.131 J0.
X-12.356 Z24.467 I-9.131 J0.
X5.906 Z24.252 I9.131 J0.
X-12.356 Z24.037 I-9.131 J0.
X-2.57 Y129.383 Z23.925 I9.131 J0.
X5.812 Y118.969 Z23.813 I-0.655 J-9.108
X-12.262 Y121.581 I-9.037 J1.306
X5.812 Y118.969 I9.037 J-1.306
X5.093 Y118.431 I-0.628 J0.091
G1 X4.779 Y118.477
X4.681 Y118.491 Z23.82
X4.585 Y118.505 Z23.844
X4.494 Y118.518 Z23.882
X4.409 Y118.53 Z23.934
X4.335 Y118.541 Z23.998
X4.27 Y118.55 Z24.074
X4.219 Y118.558 Z24.159
X4.181 Y118.563 Z24.251
X4.158 Y118.566 Z24.348
X4.15 Y118.568 Z24.448
G0 Z41.4

(BORE11)
G0 X-0.05 Y120.91
Z41.4
Z28.4
G1 Z27.035 F800.
G18 G2 X0.585 Z26.4 I0.635 K0.
G1 X0.902
G17 G2 X1.538 Y120.275 I0. J-0.635
X-7.987 Z26.261 I-4.762 J0.
X1.537 Z26.123 I4.762 J0.
X-7.987 Z25.984 I-4.762 J0.
X1.537 Z25.846 I4.762 J0.
X-7.987 Z25.707 I-4.762 J0.
X1.537 Z25.569 I4.762 J0.
X-7.987 Z25.43 I-4.762 J0.
X1.537 Z25.292 I4.762 J0.
X-7.987 Z25.153 I-4.762 J0.
X1.537 Z25.015 I4.762 J0.
X-7.987 Z24.876 I-4.762 J0.
X1.537 Z24.737 I4.762 J0.
X-7.987 Z24.599 I-4.762 J0.
X1.537 Z24.46 I4.762 J0.
X-7.987 Z24.322 I-4.762 J0.
X1.537 Z24.183 I4.762 J0.
X-7.987 Z24.045 I-4.762 J0.
X1.537 Z23.906 I4.762 J0.
X-7.987 Z23.768 I-4.762 J0.
X1.537 Z23.629 I4.762 J0.
X-7.987 Z23.49 I-4.762 J0.
X1.537 Z23.352 I4.762 J0.
X-7.987 Z23.213 I-4.762 J0.
X1.537 Z23.075 I4.762 J0.
X-7.987 Z22.936 I-4.762 J0.
X1.537 Z22.798 I4.762 J0.
X-7.987 Z22.659 I-4.762 J0.
X1.537 Z22.521 I4.762 J0.
X-7.987 Z22.382 I-4.762 J0.
X1.537 Z22.244 I4.762 J0.
X-7.987 Z22.105 I-4.762 J0.
X1.537 Z21.966 I4.762 J0.
X-7.987 Z21.828 I-4.762 J0.
X1.537 Z21.689 I4.762 J0.
X-7.987 Z21.551 I-4.762 J0.
X1.537 Z21.412 I4.762 J0.
X-7.987 Z21.274 I-4.762 J0.
X-5.37 Y124.527 Z21.225 I4.762 J0.
X-1.08 Y116.023 I2.145 J-4.252
X-5.37 Y124.527 I-2.145 J4.252
X-4.517 Y124.246 I0.286 J-0.567
G1 X-4.374 Y123.963
X-4.33 Y123.874 Z21.233
X-4.286 Y123.787 Z21.256
X-4.245 Y123.705 Z21.294
X-4.206 Y123.629 Z21.346
X-4.172 Y123.562 Z21.411
X-4.143 Y123.504 Z21.487
X-4.12 Y123.457 Z21.572
X-4.102 Y123.423 Z21.664
X-4.092 Y123.403 Z21.761
X-4.088 Y123.396 Z21.86
G0 Z31.4
X3.125 Y120.91
Z28.4
G1 Z27.035 F800.
G18 G2 X3.76 Z26.4 I0.635 K0.
G1 X4.077
G17 G2 X4.713 Y120.275 I0. J-0.635
X-11.163 Z26.206 I-7.938 J0.
X4.713 Z26.012 I7.938 J0.
X-11.163 Z25.818 I-7.938 J0.
X4.713 Z25.624 I7.938 J0.
X-11.163 Z25.43 I-7.938 J0.
X4.713 Z25.236 I7.938 J0.
X-11.163 Z25.042 I-7.938 J0.
X4.713 Z24.848 I7.938 J0.
X-11.163 Z24.654 I-7.938 J0.
X4.713 Z24.46 I7.938 J0.
X-11.163 Z24.266 I-7.938 J0.
X4.713 Z24.072 I7.938 J0.
X-11.163 Z23.878 I-7.938 J0.
X4.713 Z23.684 I7.938 J0.
X-11.163 Z23.49 I-7.938 J0.
X4.713 Z23.296 I7.938 J0.
X-11.163 Z23.103 I-7.938 J0.
X4.713 Z22.909 I7.938 J0.
X-11.163 Z22.715 I-7.938 J0.
X4.713 Z22.521 I7.938 J0.
X-11.163 Z22.327 I-7.938 J0.
X4.713 Z22.133 I7.938 J0.
X-11.163 Z21.939 I-7.938 J0.
X4.713 Z21.745 I7.938 J0.
X-11.163 Z21.551 I-7.938 J0.
X4.713 Z21.357 I7.938 J0.
X-7.467 Y113.566 Z21.225 I-7.938 J0.
X1.017 Y126.984 I4.242 J6.709
X-7.467 Y113.566 I-4.242 J-6.709
X-7.664 Y114.442 I0.339 J0.537
G1 X-7.495 Y114.71
X-7.441 Y114.794 Z21.233
X-7.39 Y114.876 Z21.256
X-7.34 Y114.954 Z21.294
X-7.295 Y115.026 Z21.346
X-7.255 Y115.09 Z21.411
X-7.22 Y115.145 Z21.487
X-7.192 Y115.189 Z21.572
X-7.172 Y115.221 Z21.664
X-7.159 Y115.241 Z21.761
X-7.155 Y115.247 Z21.86
G0 Z41.4

(BORE13)
G0 X-76.823 Y104.394
Z41.4
Z27.765
G1 Z26.4 F800.
X-76.505
G3 X-76.307 Y104.593 I0. J0.198
X-77.101 Z26.338 I-0.397 J0.
X-76.307 Z26.275 I0.397 J0.
X-77.101 Z26.213 I-0.397 J0.
X-76.307 Z26.151 I0.397 J0.
X-77.101 Z26.088 I-0.397 J0.
X-76.307 Z26.026 I0.397 J0.
X-77.101 Z25.964 I-0.397 J0.
X-76.307 Z25.901 I0.397 J0.
X-77.101 Z25.839 I-0.397 J0.
X-76.307 Z25.777 I0.397 J0.
X-77.101 Z25.714 I-0.397 J0.
X-76.307 Z25.652 I0.397 J0.
X-77.101 Z25.589 I-0.397 J0.
X-76.307 Z25.527 I0.397 J0.
X-77.101 Z25.465 I-0.397 J0.
X-76.307 Z25.402 I0.397 J0.
X-77.101 Z25.34 I-0.397 J0.
X-76.307 Z25.278 I0.397 J0.
X-77.101 Z25.215 I-0.397 J0.
X-76.307 Z25.153 I0.397 J0.
X-77.101 Z25.091 I-0.397 J0.
X-76.307 Z25.028 I0.397 J0.
X-77.101 Z24.966 I-0.397 J0.
X-76.307 Z24.904 I0.397 J0.
X-77.101 Z24.841 I-0.397 J0.
X-76.307 Z24.779 I0.397 J0.
X-77.101 Z24.717 I-0.397 J0.
X-76.307 Z24.654 I0.397 J0.
X-77.101 Z24.592 I-0.397 J0.
X-76.307 Z24.53 I0.397 J0.
X-77.101 Z24.467 I-0.397 J0.
X-76.307 Z24.405 I0.397 J0.
X-77.101 Z24.343 I-0.397 J0.
X-76.307 Z24.28 I0.397 J0.
X-77.101 Z24.218 I-0.397 J0.
X-76.307 Z24.155 I0.397 J0.
X-77.101 Z24.093 I-0.397 J0.
X-76.307 Z24.031 I0.397 J0.
X-77.101 Z23.968 I-0.397 J0.
X-76.307 Z23.906 I0.397 J0.
X-77.101 Z23.844 I-0.397 J0.
X-76.307 Z23.781 I0.397 J0.
X-77.101 Z23.719 I-0.397 J0.
X-76.307 Z23.657 I0.397 J0.
X-77.101 Z23.594 I-0.397 J0.
X-76.307 Z23.532 I0.397 J0.
X-77.101 Z23.47 I-0.397 J0.
X-76.307 Z23.407 I0.397 J0.
X-77.101 Z23.345 I-0.397 J0.
X-76.307 Z23.283 I0.397 J0.
X-77.101 Z23.22 I-0.397 J0.
X-76.307 Z23.158 I0.397 J0.
X-77.101 Z23.096 I-0.397 J0.
X-76.307 Z23.033 I0.397 J0.
X-77.101 Z22.971 I-0.397 J0.
X-76.307 Z22.909 I0.397 J0.
X-77.101 Z22.846 I-0.397 J0.
X-76.307 Z22.784 I0.397 J0.
X-77.101 Z22.722 I-0.397 J0.
X-76.307 Z22.659 I0.397 J0.
X-77.101 Z22.597 I-0.397 J0.
X-76.307 Z22.534 I0.397 J0.
X-77.101 Z22.472 I-0.397 J0.
X-76.307 Z22.41 I0.397 J0.
X-77.101 Z22.347 I-0.397 J0.
X-76.307 Z22.285 I0.397 J0.
X-77.101 Z22.223 I-0.397 J0.
X-76.307 Z22.16 I0.397 J0.
X-77.101 Z22.098 I-0.397 J0.
X-76.307 Z22.036 I0.397 J0.
X-77.101 Z21.973 I-0.397 J0.
X-76.307 Z21.911 I0.397 J0.
X-77.101 Z21.849 I-0.397 J0.
X-76.307 Z21.786 I0.397 J0.
X-77.101 Z21.724 I-0.397 J0.
X-76.307 Z21.662 I0.397 J0.
X-77.101 Z21.599 I-0.397 J0.
X-76.307 Z21.537 I0.397 J0.
X-77.101 Z21.475 I-0.397 J0.
X-76.307 Z21.412 I0.397 J0.
X-77.101 Z21.35 I-0.397 J0.
X-76.307 Z21.288 I0.397 J0.
X-77.101 Z21.225 I-0.397 J0.
X-76.307 Z21.163 I0.397 J0.
X-77.101 Z21.1 I-0.397 J0.
X-76.307 Z21.038 I0.397 J0.
X-77.101 Z20.976 I-0.397 J0.
X-76.307 Z20.913 I0.397 J0.
X-77.101 Z20.851 I-0.397 J0.
X-76.307 Z20.789 I0.397 J0.
X-76.718 Y104.989 Z20.757 I-0.397 J0.
X-77.1 Y104.565 Z20.725 I0.014 J-0.397
X-76.308 Y104.621 I0.396 J0.028
X-77.1 Y104.565 I-0.396 J-0.028
X-76.888 Y104.381 I0.198 J0.014
G1 X-76.571 Y104.403
G0 Z31.4
X-76.823 Y135.759
Z27.765
G1 Z26.4 F800.
X-76.505
G3 X-76.307 Y135.957 I0. J0.198
X-77.101 Z26.338 I-0.397 J0.
X-76.307 Z26.275 I0.397 J0.
X-77.101 Z26.213 I-0.397 J0.
X-76.307 Z26.151 I0.397 J0.
X-77.101 Z26.088 I-0.397 J0.
X-76.307 Z26.026 I0.397 J0.
X-77.101 Z25.964 I-0.397 J0.
X-76.307 Z25.901 I0.397 J0.
X-77.101 Z25.839 I-0.397 J0.
X-76.307 Z25.777 I0.397 J0.
X-77.101 Z25.714 I-0.397 J0.
X-76.307 Z25.652 I0.397 J0.
X-77.101 Z25.589 I-0.397 J0.
X-76.307 Z25.527 I0.397 J0.
X-77.101 Z25.465 I-0.397 J0.
X-76.307 Z25.402 I0.397 J0.
X-77.101 Z25.34 I-0.397 J0.
X-76.307 Z25.278 I0.397 J0.
X-77.101 Z25.215 I-0.397 J0.
X-76.307 Z25.153 I0.397 J0.
X-77.101 Z25.091 I-0.397 J0.
X-76.307 Z25.028 I0.397 J0.
X-77.101 Z24.966 I-0.397 J0.
X-76.307 Z24.904 I0.397 J0.
X-77.101 Z24.841 I-0.397 J0.
X-76.307 Z24.779 I0.397 J0.
X-77.101 Z24.717 I-0.397 J0.
X-76.307 Z24.654 I0.397 J0.
X-77.101 Z24.592 I-0.397 J0.
X-76.307 Z24.53 I0.397 J0.
X-77.101 Z24.467 I-0.397 J0.
X-76.307 Z24.405 I0.397 J0.
X-77.101 Z24.343 I-0.397 J0.
X-76.307 Z24.28 I0.397 J0.
X-77.101 Z24.218 I-0.397 J0.
X-76.307 Z24.155 I0.397 J0.
X-77.101 Z24.093 I-0.397 J0.
X-76.307 Z24.031 I0.397 J0.
X-77.101 Z23.968 I-0.397 J0.
X-76.307 Z23.906 I0.397 J0.
X-77.101 Z23.844 I-0.397 J0.
X-76.307 Z23.781 I0.397 J0.
X-77.101 Z23.719 I-0.397 J0.
X-76.307 Z23.657 I0.397 J0.
X-77.101 Z23.594 I-0.397 J0.
X-76.307 Z23.532 I0.397 J0.
X-77.101 Z23.47 I-0.397 J0.
X-76.307 Z23.407 I0.397 J0.
X-77.101 Z23.345 I-0.397 J0.
X-76.307 Z23.283 I0.397 J0.
X-77.101 Z23.22 I-0.397 J0.
X-76.307 Z23.158 I0.397 J0.
X-77.101 Z23.096 I-0.397 J0.
X-76.307 Z23.033 I0.397 J0.
X-77.101 Z22.971 I-0.397 J0.
X-76.307 Z22.909 I0.397 J0.
X-77.101 Z22.846 I-0.397 J0.
X-76.307 Z22.784 I0.397 J0.
X-77.101 Z22.722 I-0.397 J0.
X-76.307 Z22.659 I0.397 J0.
X-77.101 Z22.597 I-0.397 J0.
X-76.307 Z22.534 I0.397 J0.
X-77.101 Z22.472 I-0.397 J0.
X-76.307 Z22.41 I0.397 J0.
X-77.101 Z22.347 I-0.397 J0.
X-76.307 Z22.285 I0.397 J0.
X-77.101 Z22.223 I-0.397 J0.
X-76.307 Z22.16 I0.397 J0.
X-77.101 Z22.098 I-0.397 J0.
X-76.307 Z22.036 I0.397 J0.
X-77.101 Z21.973 I-0.397 J0.
X-76.307 Z21.911 I0.397 J0.
X-77.101 Z21.849 I-0.397 J0.
X-76.307 Z21.786 I0.397 J0.
X-77.101 Z21.724 I-0.397 J0.
X-76.307 Z21.662 I0.397 J0.
X-77.101 Z21.599 I-0.397 J0.
X-76.307 Z21.537 I0.397 J0.
X-77.101 Z21.475 I-0.397 J0.
X-76.307 Z21.412 I0.397 J0.
X-77.101 Z21.35 I-0.397 J0.
X-76.307 Z21.288 I0.397 J0.
X-77.101 Z21.225 I-0.397 J0.
X-76.307 Z21.163 I0.397 J0.
X-77.101 Z21.1 I-0.397 J0.
X-76.307 Z21.038 I0.397 J0.
X-77.101 Z20.976 I-0.397 J0.
X-76.307 Z20.913 I0.397 J0.
X-77.101 Z20.851 I-0.397 J0.
X-76.307 Z20.789 I0.397 J0.
X-76.718 Y136.354 Z20.757 I-0.397 J0.
X-77.1 Y135.929 Z20.725 I0.014 J-0.397
X-76.308 Y135.985 I0.396 J0.028
X-77.1 Y135.929 I-0.396 J-0.028
X-76.888 Y135.745 I0.198 J0.014
G1 X-76.571 Y135.768
G0 Z41.4
M5
G0 Z15
G0 X0 Y0

M9
M30
