(T1  D=6.35 CR=0. - ZMIN=-7.35 - FLAT END MILL)
G90 G94 G91.1 G40 G49 G17
G21
G0 Z15

(BORE3)
M5
T1 M6
S16000 M3
G54
G0 X-40.322 Y62.227
G43 Z15. H1
Z1.222
G1 Z-0.143 F800.
G19 G2 Y61.592 Z-0.778 J-0.635 K0.
G1 Y61.275
G17 G2 X-40.958 Y60.64 I-0.635 J0.
Y70.865 Z-0.923 I0. J5.113
Y60.64 Z-1.067 I0. J-5.113
Y70.865 Z-1.212 I0. J5.113
Y60.64 Z-1.357 I0. J-5.113
Y70.865 Z-1.501 I0. J5.113
Y60.64 Z-1.646 I0. J-5.113
Y70.865 Z-1.791 I0. J5.113
Y60.64 Z-1.935 I0. J-5.113
Y70.865 Z-2.08 I0. J5.113
Y60.64 Z-2.225 I0. J-5.113
Y70.865 Z-2.369 I0. J5.113
Y60.64 Z-2.514 I0. J-5.113
Y70.865 Z-2.659 I0. J5.113
Y60.64 Z-2.803 I0. J-5.113
Y70.865 Z-2.948 I0. J5.113
Y60.64 Z-3.093 I0. J-5.113
Y70.865 Z-3.237 I0. J5.113
Y60.64 Z-3.382 I0. J-5.113
Y70.865 Z-3.527 I0. J5.113
Y60.64 Z-3.671 I0. J-5.113
Y70.865 Z-3.816 I0. J5.113
Y60.64 Z-3.96 I0. J-5.113
Y70.865 Z-4.105 I0. J5.113
Y60.64 Z-4.25 I0. J-5.113
Y70.865 Z-4.394 I0. J5.113
Y60.64 Z-4.539 I0. J-5.113
Y70.865 Z-4.684 I0. J5.113
Y60.64 Z-4.828 I0. J-5.113
Y70.865 Z-4.973 I0. J5.113
Y60.64 Z-5.118 I0. J-5.113
Y70.865 Z-5.262 I0. J5.113
Y60.64 Z-5.407 I0. J-5.113
Y70.865 Z-5.552 I0. J5.113
Y60.64 Z-5.696 I0. J-5.113
Y70.865 Z-5.841 I0. J5.112
Y60.64 Z-5.986 I0. J-5.112
Y70.865 Z-6.13 I0. J5.112
Y60.64 Z-6.275 I0. J-5.112
Y70.865 Z-6.42 I0. J5.112
Y60.64 Z-6.564 I0. J-5.112
Y70.865 Z-6.709 I0. J5.112
Y60.64 Z-6.854 I0. J-5.112
Y70.865 Z-6.998 I0. J5.112
Y60.64 Z-7.143 I0. J-5.112
Y70.865 Z-7.288 I0. J5.112
X-35.965 Y66.852 Z-7.35 I0. J-5.112
X-45.95 Y64.653 I-4.993 J-1.099
X-35.965 Y66.852 I4.993 J1.099
X-36.448 Y66.095 I-0.62 J-0.137
G1 X-36.758 Y66.027
X-36.855 Y66.005 Z-7.342
X-36.95 Y65.984 Z-7.319
X-37.04 Y65.965 Z-7.281
X-37.123 Y65.946 Z-7.229
X-37.197 Y65.93 Z-7.164
X-37.26 Y65.916 Z-7.088
X-37.311 Y65.905 Z-7.003
X-37.348 Y65.897 Z-6.911
X-37.371 Y65.892 Z-6.814
X-37.378 Y65.89 Z-6.715
G0 Z5.
X-40.322 Y56.227
Z1.222
G1 Z-0.143 F800.
G19 G2 Y55.592 Z-0.778 J-0.635 K0.
G1 Y55.275
G17 G2 X-40.958 Y54.64 I-0.635 J0.
Y76.865 Z-1.027 I0. J11.113
Y54.64 Z-1.277 I0. J-11.113
Y76.865 Z-1.526 I0. J11.113
Y54.64 Z-1.776 I0. J-11.113
Y76.865 Z-2.025 I0. J11.113
Y54.64 Z-2.274 I0. J-11.113
Y76.865 Z-2.524 I0. J11.113
Y54.64 Z-2.773 I0. J-11.113
Y76.865 Z-3.023 I0. J11.113
Y54.64 Z-3.272 I0. J-11.113
Y76.865 Z-3.521 I0. J11.113
Y54.64 Z-3.771 I0. J-11.113
Y76.865 Z-4.02 I0. J11.113
Y54.64 Z-4.269 I0. J-11.113
Y76.865 Z-4.519 I0. J11.113
Y54.64 Z-4.768 I0. J-11.113
Y76.865 Z-5.018 I0. J11.113
Y54.64 Z-5.267 I0. J-11.113
Y76.865 Z-5.516 I0. J11.113
Y54.64 Z-5.766 I0. J-11.113
Y76.865 Z-6.015 I0. J11.113
Y54.64 Z-6.265 I0. J-11.113
Y76.865 Z-6.514 I0. J11.113
Y54.64 Z-6.763 I0. J-11.113
Y76.865 Z-7.013 I0. J11.113
Y54.64 Z-7.262 I0. J-11.112
X-50.896 Y60.782 Z-7.35 I0. J11.112
X-31.019 Y70.723 I9.939 J4.971
X-50.896 Y60.782 I-9.939 J-4.971
X-50.612 Y61.634 I0.568 J0.284
G1 X-50.328 Y61.776
X-50.24 Y61.82 Z-7.342
X-50.153 Y61.863 Z-7.319
X-50.071 Y61.905 Z-7.281
X-49.995 Y61.943 Z-7.229
X-49.927 Y61.976 Z-7.164
X-49.869 Y62.005 Z-7.088
X-49.822 Y62.029 Z-7.003
X-49.788 Y62.046 Z-6.911
X-49.767 Y62.056 Z-6.814
X-49.76 Y62.06 Z-6.715
G0 Z5.
X-75.375 Y94.377
Z3.
G1 Z1.635 F800.
G19 G2 Y93.742 Z1. J-0.635 K0.
G1 Y93.425
G17 G2 X-76.01 Y92.79 I-0.635 J0.
Y99.84 Z0.883 I0. J3.525
Y92.79 Z0.766 I0. J-3.525
Y99.84 Z0.649 I0. J3.525
Y92.79 Z0.532 I0. J-3.525
Y99.84 Z0.415 I0. J3.525
Y92.79 Z0.298 I0. J-3.525
Y99.84 Z0.181 I0. J3.525
Y92.79 Z0.064 I0. J-3.525
Y99.84 Z-0.053 I0. J3.525
Y92.79 Z-0.169 I0. J-3.525
Y99.84 Z-0.286 I0. J3.525
Y92.79 Z-0.403 I0. J-3.525
Y99.84 Z-0.52 I0. J3.525
Y92.79 Z-0.637 I0. J-3.525
Y99.84 Z-0.754 I0. J3.525
Y92.79 Z-0.871 I0. J-3.525
Y99.84 Z-0.988 I0. J3.525
Y92.79 Z-1.105 I0. J-3.525
Y99.84 Z-1.222 I0. J3.525
Y92.79 Z-1.339 I0. J-3.525
Y99.84 Z-1.456 I0. J3.525
Y92.79 Z-1.573 I0. J-3.525
Y99.84 Z-1.69 I0. J3.525
Y92.79 Z-1.807 I0. J-3.525
Y99.84 Z-1.924 I0. J3.525
Y92.79 Z-2.041 I0. J-3.525
Y99.84 Z-2.158 I0. J3.525
Y92.79 Z-2.275 I0. J-3.525
Y99.84 Z-2.392 I0. J3.525
Y92.79 Z-2.508 I0. J-3.525
Y99.84 Z-2.625 I0. J3.525
Y92.79 Z-2.742 I0. J-3.525
Y99.84 Z-2.859 I0. J3.525
Y92.79 Z-2.976 I0. J-3.525
Y99.84 Z-3.093 I0. J3.525
Y92.79 Z-3.21 I0. J-3.525
Y99.84 Z-3.327 I0. J3.525
Y92.79 Z-3.444 I0. J-3.525
Y99.84 Z-3.561 I0. J3.525
Y92.79 Z-3.678 I0. J-3.525
Y99.84 Z-3.795 I0. J3.525
Y92.79 Z-3.912 I0. J-3.525
Y99.84 Z-4.029 I0. J3.525
Y92.79 Z-4.146 I0. J-3.525
Y99.84 Z-4.263 I0. J3.525
Y92.79 Z-4.38 I0. J-3.525
Y99.84 Z-4.497 I0. J3.525
Y92.79 Z-4.614 I0. J-3.525
Y99.84 Z-4.73 I0. J3.525
Y92.79 Z-4.847 I0. J-3.525
Y99.84 Z-4.964 I0. J3.525
Y92.79 Z-5.081 I0. J-3.525
Y99.84 Z-5.198 I0. J3.525
Y92.79 Z-5.315 I0. J-3.525
Y99.84 Z-5.432 I0. J3.525
Y92.79 Z-5.549 I0. J-3.525
Y99.84 Z-5.666 I0. J3.525
Y92.79 Z-5.783 I0. J-3.525
Y99.84 Z-5.9 I0. J3.525
Y92.79 Z-6.017 I0. J-3.525
Y99.84 Z-6.134 I0. J3.525
Y92.79 Z-6.251 I0. J-3.525
Y99.84 Z-6.368 I0. J3.525
Y92.79 Z-6.485 I0. J-3.525
Y99.84 Z-6.602 I0. J3.525
Y92.79 Z-6.719 I0. J-3.525
Y99.84 Z-6.836 I0. J3.525
Y92.79 Z-6.953 I0. J-3.525
Y99.84 Z-7.069 I0. J3.525
Y92.79 Z-7.186 I0. J-3.525
Y99.84 Z-7.303 I0. J3.525
X-72.662 Y97.418 Z-7.35 I0. J-3.525
X-79.358 Y95.212 I-3.348 J-1.103
X-72.662 Y97.418 I3.348 J1.103
X-73.066 Y96.616 I-0.603 J-0.199
G1 X-73.368 Y96.517
X-73.462 Y96.486 Z-7.342
X-73.554 Y96.455 Z-7.319
X-73.642 Y96.427 Z-7.281
X-73.722 Y96.4 Z-7.229
X-73.794 Y96.376 Z-7.164
X-73.856 Y96.356 Z-7.088
X-73.905 Y96.34 Z-7.003
X-73.941 Y96.328 Z-6.911
X-73.963 Y96.321 Z-6.814
X-73.971 Y96.318 Z-6.715
G0 Z5.
X-75.375 Y88.377
Z3.
G1 Z1.635 F800.
G19 G2 Y87.742 Z1. J-0.635 K0.
G1 Y87.425
G17 G2 X-76.01 Y86.79 I-0.635 J0.
Y105.84 Z0.778 I0. J9.525
Y86.79 Z0.557 I0. J-9.525
Y105.84 Z0.335 I0. J9.525
Y86.79 Z0.113 I0. J-9.525
Y105.84 Z-0.108 I0. J9.525
Y86.79 Z-0.33 I0. J-9.525
Y105.84 Z-0.552 I0. J9.525
Y86.79 Z-0.773 I0. J-9.525
Y105.84 Z-0.995 I0. J9.525
Y86.79 Z-1.217 I0. J-9.525
Y105.84 Z-1.438 I0. J9.525
Y86.79 Z-1.66 I0. J-9.525
Y105.84 Z-1.882 I0. J9.525
Y86.79 Z-2.104 I0. J-9.525
Y105.84 Z-2.325 I0. J9.525
Y86.79 Z-2.547 I0. J-9.525
Y105.84 Z-2.769 I0. J9.525
Y86.79 Z-2.99 I0. J-9.525
Y105.84 Z-3.212 I0. J9.525
Y86.79 Z-3.434 I0. J-9.525
Y105.84 Z-3.655 I0. J9.525
Y86.79 Z-3.877 I0. J-9.525
Y105.84 Z-4.099 I0. J9.525
Y86.79 Z-4.32 I0. J-9.525
Y105.84 Z-4.542 I0. J9.525
Y86.79 Z-4.764 I0. J-9.525
Y105.84 Z-4.985 I0. J9.525
Y86.79 Z-5.207 I0. J-9.525
Y105.84 Z-5.429 I0. J9.525
Y86.79 Z-5.65 I0. J-9.525
Y105.84 Z-5.872 I0. J9.525
Y86.79 Z-6.094 I0. J-9.525
Y105.84 Z-6.315 I0. J9.525
Y86.79 Z-6.537 I0. J-9.525
Y105.84 Z-6.759 I0. J9.525
Y86.79 Z-6.98 I0. J-9.525
Y105.84 Z-7.202 I0. J9.525
X-67.766 Y91.543 Z-7.35 I0. J-9.525
X-84.253 Y101.087 I-8.244 J4.772
X-67.766 Y91.543 I8.244 J-4.772
X-68.634 Y91.312 I-0.55 J0.318
G1 X-68.909 Y91.471
X-68.995 Y91.521 Z-7.342
X-69.079 Y91.569 Z-7.319
X-69.158 Y91.615 Z-7.281
X-69.232 Y91.658 Z-7.229
X-69.297 Y91.696 Z-7.164
X-69.353 Y91.728 Z-7.088
X-69.398 Y91.754 Z-7.003
X-69.431 Y91.773 Z-6.911
X-69.452 Y91.785 Z-6.814
X-69.458 Y91.789 Z-6.715
G0 Z5.
X-40.322 Y116.202
Z1.222
G1 Z-0.143 F800.
G19 G2 Y115.567 Z-0.778 J-0.635 K0.
G1 Y115.25
G17 G2 X-40.958 Y114.615 I-0.635 J0.
Y118.49 Z-0.867 I0. J1.938
Y114.615 Z-0.956 I0. J-1.938
Y118.49 Z-1.046 I0. J1.938
Y114.615 Z-1.135 I0. J-1.938
Y118.49 Z-1.224 I0. J1.938
Y114.615 Z-1.313 I0. J-1.938
Y118.49 Z-1.403 I0. J1.938
Y114.615 Z-1.492 I0. J-1.938
Y118.49 Z-1.581 I0. J1.938
Y114.615 Z-1.67 I0. J-1.938
Y118.49 Z-1.76 I0. J1.938
Y114.615 Z-1.849 I0. J-1.938
Y118.49 Z-1.938 I0. J1.938
Y114.615 Z-2.027 I0. J-1.938
Y118.49 Z-2.117 I0. J1.938
Y114.615 Z-2.206 I0. J-1.938
Y118.49 Z-2.295 I0. J1.938
Y114.615 Z-2.384 I0. J-1.938
Y118.49 Z-2.474 I0. J1.938
Y114.615 Z-2.563 I0. J-1.938
Y118.49 Z-2.652 I0. J1.938
Y114.615 Z-2.741 I0. J-1.938
Y118.49 Z-2.83 I0. J1.938
Y114.615 Z-2.92 I0. J-1.938
Y118.49 Z-3.009 I0. J1.938
Y114.615 Z-3.098 I0. J-1.938
Y118.49 Z-3.187 I0. J1.938
Y114.615 Z-3.277 I0. J-1.938
Y118.49 Z-3.366 I0. J1.938
Y114.615 Z-3.455 I0. J-1.938
Y118.49 Z-3.544 I0. J1.938
Y114.615 Z-3.634 I0. J-1.938
Y118.49 Z-3.723 I0. J1.938
Y114.615 Z-3.812 I0. J-1.938
Y118.49 Z-3.901 I0. J1.938
Y114.615 Z-3.991 I0. J-1.938
Y118.49 Z-4.08 I0. J1.938
Y114.615 Z-4.169 I0. J-1.938
Y118.49 Z-4.258 I0. J1.938
Y114.615 Z-4.348 I0. J-1.938
Y118.49 Z-4.437 I0. J1.938
Y114.615 Z-4.526 I0. J-1.938
Y118.49 Z-4.615 I0. J1.938
Y114.615 Z-4.705 I0. J-1.938
Y118.49 Z-4.794 I0. J1.938
Y114.615 Z-4.883 I0. J-1.938
Y118.49 Z-4.972 I0. J1.938
Y114.615 Z-5.061 I0. J-1.938
Y118.49 Z-5.151 I0. J1.938
Y114.615 Z-5.24 I0. J-1.938
Y118.49 Z-5.329 I0. J1.938
Y114.615 Z-5.418 I0. J-1.938
Y118.49 Z-5.508 I0. J1.938
Y114.615 Z-5.597 I0. J-1.938
Y118.49 Z-5.686 I0. J1.938
Y114.615 Z-5.775 I0. J-1.938
Y118.49 Z-5.865 I0. J1.938
Y114.615 Z-5.954 I0. J-1.938
Y118.49 Z-6.043 I0. J1.938
Y114.615 Z-6.132 I0. J-1.938
Y118.49 Z-6.222 I0. J1.938
Y114.615 Z-6.311 I0. J-1.938
Y118.49 Z-6.4 I0. J1.938
Y114.615 Z-6.489 I0. J-1.938
Y118.49 Z-6.579 I0. J1.938
Y114.615 Z-6.668 I0. J-1.938
Y118.49 Z-6.757 I0. J1.938
Y114.615 Z-6.846 I0. J-1.938
Y118.49 Z-6.935 I0. J1.938
Y114.615 Z-7.025 I0. J-1.938
Y118.49 Z-7.114 I0. J1.938
Y114.615 Z-7.203 I0. J-1.938
Y118.49 Z-7.292 I0. J1.938
X-39.217 Y115.7 Z-7.35 I0. J-1.938
X-42.698 Y117.404 I-1.74 J0.852
X-39.217 Y115.7 I1.74 J-0.852
X-40.067 Y115.409 I-0.57 J0.279
G1 X-40.352 Y115.549
X-40.441 Y115.593 Z-7.342
X-40.528 Y115.635 Z-7.319
X-40.611 Y115.676 Z-7.281
X-40.687 Y115.713 Z-7.229
X-40.755 Y115.746 Z-7.164
X-40.813 Y115.775 Z-7.088
X-40.86 Y115.798 Z-7.003
X-40.894 Y115.814 Z-6.911
X-40.915 Y115.825 Z-6.814
X-40.922 Y115.828 Z-6.715
G0 Z5.
X-40.322 Y110.202
Z1.222
G1 Z-0.143 F800.
G19 G2 Y109.567 Z-0.778 J-0.635 K0.
G1 Y109.25
G17 G2 X-40.958 Y108.615 I-0.635 J0.
Y124.49 Z-0.972 I0. J7.938
Y108.615 Z-1.166 I0. J-7.937
Y124.49 Z-1.36 I0. J7.937
Y108.615 Z-1.554 I0. J-7.937
Y124.49 Z-1.748 I0. J7.937
Y108.615 Z-1.942 I0. J-7.937
Y124.49 Z-2.136 I0. J7.937
Y108.615 Z-2.33 I0. J-7.937
Y124.49 Z-2.524 I0. J7.937
Y108.615 Z-2.718 I0. J-7.937
Y124.49 Z-2.912 I0. J7.937
Y108.615 Z-3.106 I0. J-7.937
Y124.49 Z-3.3 I0. J7.937
Y108.615 Z-3.494 I0. J-7.937
Y124.49 Z-3.688 I0. J7.937
Y108.615 Z-3.882 I0. J-7.937
Y124.49 Z-4.075 I0. J7.937
Y108.615 Z-4.269 I0. J-7.937
Y124.49 Z-4.463 I0. J7.937
Y108.615 Z-4.657 I0. J-7.937
Y124.49 Z-4.851 I0. J7.937
Y108.615 Z-5.045 I0. J-7.937
Y124.49 Z-5.239 I0. J7.937
Y108.615 Z-5.433 I0. J-7.937
Y124.49 Z-5.627 I0. J7.937
Y108.615 Z-5.821 I0. J-7.937
Y124.49 Z-6.015 I0. J7.937
Y108.615 Z-6.209 I0. J-7.937
Y124.49 Z-6.403 I0. J7.937
Y108.615 Z-6.597 I0. J-7.937
Y124.49 Z-6.791 I0. J7.937
Y108.615 Z-6.985 I0. J-7.937
Y124.49 Z-7.179 I0. J7.937
X-38.073 Y109.157 Z-7.35 I0. J-7.937
X-43.842 Y123.947 I-2.884 J7.395
X-38.073 Y109.157 I2.884 J-7.395
X-38.896 Y109.518 I-0.231 J0.592
G1 X-39.011 Y109.814
X-39.047 Y109.907 Z-7.342
X-39.082 Y109.997 Z-7.319
X-39.116 Y110.083 Z-7.281
X-39.147 Y110.162 Z-7.229
X-39.174 Y110.232 Z-7.164
X-39.198 Y110.293 Z-7.088
X-39.217 Y110.341 Z-7.003
X-39.231 Y110.377 Z-6.911
X-39.239 Y110.398 Z-6.814
X-39.242 Y110.406 Z-6.715
G0 Z5.
X-40.322 Y155.09
Z3.
G1 Z1.635 F800.
G19 G2 Y154.455 Z1. J-0.635 K0.
G1 Y154.137
G17 G2 X-40.958 Y153.502 I-0.635 J0.
Y160.552 Z0.883 I0. J3.525
Y153.502 Z0.766 I0. J-3.525
Y160.552 Z0.649 I0. J3.525
Y153.502 Z0.532 I0. J-3.525
Y160.552 Z0.415 I0. J3.525
Y153.502 Z0.298 I0. J-3.525
Y160.552 Z0.181 I0. J3.525
Y153.502 Z0.064 I0. J-3.525
Y160.552 Z-0.053 I0. J3.525
Y153.502 Z-0.169 I0. J-3.525
Y160.552 Z-0.286 I0. J3.525
Y153.502 Z-0.403 I0. J-3.525
Y160.552 Z-0.52 I0. J3.525
Y153.502 Z-0.637 I0. J-3.525
Y160.552 Z-0.754 I0. J3.525
Y153.502 Z-0.871 I0. J-3.525
Y160.552 Z-0.988 I0. J3.525
Y153.502 Z-1.105 I0. J-3.525
Y160.552 Z-1.222 I0. J3.525
Y153.502 Z-1.339 I0. J-3.525
Y160.552 Z-1.456 I0. J3.525
Y153.502 Z-1.573 I0. J-3.525
Y160.552 Z-1.69 I0. J3.525
Y153.502 Z-1.807 I0. J-3.525
Y160.552 Z-1.924 I0. J3.525
Y153.502 Z-2.041 I0. J-3.525
Y160.552 Z-2.158 I0. J3.525
Y153.502 Z-2.275 I0. J-3.525
Y160.552 Z-2.392 I0. J3.525
Y153.502 Z-2.508 I0. J-3.525
Y160.552 Z-2.625 I0. J3.525
Y153.502 Z-2.742 I0. J-3.525
Y160.552 Z-2.859 I0. J3.525
Y153.502 Z-2.976 I0. J-3.525
Y160.552 Z-3.093 I0. J3.525
Y153.502 Z-3.21 I0. J-3.525
Y160.552 Z-3.327 I0. J3.525
Y153.502 Z-3.444 I0. J-3.525
Y160.552 Z-3.561 I0. J3.525
Y153.502 Z-3.678 I0. J-3.525
Y160.552 Z-3.795 I0. J3.525
Y153.502 Z-3.912 I0. J-3.525
Y160.552 Z-4.029 I0. J3.525
Y153.502 Z-4.146 I0. J-3.525
Y160.552 Z-4.263 I0. J3.525
Y153.502 Z-4.38 I0. J-3.525
Y160.552 Z-4.497 I0. J3.525
Y153.502 Z-4.614 I0. J-3.525
Y160.552 Z-4.73 I0. J3.525
Y153.502 Z-4.847 I0. J-3.525
Y160.552 Z-4.964 I0. J3.525
Y153.502 Z-5.081 I0. J-3.525
Y160.552 Z-5.198 I0. J3.525
Y153.502 Z-5.315 I0. J-3.525
Y160.552 Z-5.432 I0. J3.525
Y153.502 Z-5.549 I0. J-3.525
Y160.552 Z-5.666 I0. J3.525
Y153.502 Z-5.783 I0. J-3.525
Y160.552 Z-5.9 I0. J3.525
Y153.502 Z-6.017 I0. J-3.525
Y160.552 Z-6.134 I0. J3.525
Y153.502 Z-6.251 I0. J-3.525
Y160.552 Z-6.368 I0. J3.525
Y153.502 Z-6.485 I0. J-3.525
Y160.552 Z-6.602 I0. J3.525
Y153.502 Z-6.719 I0. J-3.525
Y160.552 Z-6.836 I0. J3.525
Y153.502 Z-6.953 I0. J-3.525
Y160.552 Z-7.069 I0. J3.525
Y153.502 Z-7.186 I0. J-3.525
Y160.552 Z-7.303 I0. J3.525
X-37.61 Y158.13 Z-7.35 I0. J-3.525
X-44.305 Y155.924 I-3.348 J-1.103
X-37.61 Y158.13 I3.348 J1.103
X-38.014 Y157.329 I-0.603 J-0.199
G1 X-38.315 Y157.229
X-38.41 Y157.198 Z-7.342
X-38.502 Y157.168 Z-7.319
X-38.589 Y157.139 Z-7.281
X-38.67 Y157.112 Z-7.229
X-38.742 Y157.089 Z-7.164
X-38.803 Y157.068 Z-7.088
X-38.853 Y157.052 Z-7.003
X-38.889 Y157.04 Z-6.911
X-38.911 Y157.033 Z-6.814
X-38.919 Y157.03 Z-6.715
G0 Z5.
X-40.322 Y149.09
Z3.
G1 Z1.635 F800.
G19 G2 Y148.455 Z1. J-0.635 K0.
G1 Y148.137
G17 G2 X-40.958 Y147.502 I-0.635 J0.
Y166.552 Z0.778 I0. J9.525
Y147.502 Z0.557 I0. J-9.525
Y166.552 Z0.335 I0. J9.525
Y147.502 Z0.113 I0. J-9.525
Y166.552 Z-0.108 I0. J9.525
Y147.502 Z-0.33 I0. J-9.525
Y166.552 Z-0.552 I0. J9.525
Y147.502 Z-0.773 I0. J-9.525
Y166.552 Z-0.995 I0. J9.525
Y147.502 Z-1.217 I0. J-9.525
Y166.552 Z-1.438 I0. J9.525
Y147.502 Z-1.66 I0. J-9.525
Y166.552 Z-1.882 I0. J9.525
Y147.502 Z-2.104 I0. J-9.525
Y166.552 Z-2.325 I0. J9.525
Y147.502 Z-2.547 I0. J-9.525
Y166.552 Z-2.769 I0. J9.525
Y147.502 Z-2.99 I0. J-9.525
Y166.552 Z-3.212 I0. J9.525
Y147.502 Z-3.434 I0. J-9.525
Y166.552 Z-3.655 I0. J9.525
Y147.502 Z-3.877 I0. J-9.525
Y166.552 Z-4.099 I0. J9.525
Y147.502 Z-4.32 I0. J-9.525
Y166.552 Z-4.542 I0. J9.525
Y147.502 Z-4.764 I0. J-9.525
Y166.552 Z-4.985 I0. J9.525
Y147.502 Z-5.207 I0. J-9.525
Y166.552 Z-5.429 I0. J9.525
Y147.502 Z-5.65 I0. J-9.525
Y166.552 Z-5.872 I0. J9.525
Y147.502 Z-6.094 I0. J-9.525
Y166.552 Z-6.315 I0. J9.525
Y147.502 Z-6.537 I0. J-9.525
Y166.552 Z-6.759 I0. J9.525
Y147.502 Z-6.98 I0. J-9.525
Y166.552 Z-7.202 I0. J9.525
X-32.714 Y152.256 Z-7.35 I0. J-9.525
X-49.201 Y161.799 I-8.244 J4.772
X-32.714 Y152.256 I8.244 J-4.772
X-33.582 Y152.024 I-0.55 J0.318
G1 X-33.856 Y152.183
X-33.942 Y152.233 Z-7.342
X-34.026 Y152.281 Z-7.319
X-34.106 Y152.328 Z-7.281
X-34.179 Y152.37 Z-7.229
X-34.245 Y152.408 Z-7.164
X-34.301 Y152.44 Z-7.088
X-34.346 Y152.467 Z-7.003
X-34.379 Y152.486 Z-6.911
X-34.399 Y152.497 Z-6.814
X-34.406 Y152.501 Z-6.715
G0 Z5.
X41.592 Y155.09
Z3.
G1 Z1.635 F800.
G19 G2 Y154.455 Z1. J-0.635 K0.
G1 Y154.137
G17 G2 X40.958 Y153.502 I-0.635 J0.
Y160.552 Z0.883 I0. J3.525
Y153.502 Z0.766 I0. J-3.525
Y160.552 Z0.649 I0. J3.525
Y153.502 Z0.532 I0. J-3.525
Y160.552 Z0.415 I0. J3.525
Y153.502 Z0.298 I0. J-3.525
Y160.552 Z0.181 I0. J3.525
Y153.502 Z0.064 I0. J-3.525
Y160.552 Z-0.053 I0. J3.525
Y153.502 Z-0.169 I0. J-3.525
Y160.552 Z-0.286 I0. J3.525
Y153.502 Z-0.403 I0. J-3.525
Y160.552 Z-0.52 I0. J3.525
Y153.502 Z-0.637 I0. J-3.525
Y160.552 Z-0.754 I0. J3.525
Y153.502 Z-0.871 I0. J-3.525
Y160.552 Z-0.988 I0. J3.525
Y153.502 Z-1.105 I0. J-3.525
Y160.552 Z-1.222 I0. J3.525
Y153.502 Z-1.339 I0. J-3.525
Y160.552 Z-1.456 I0. J3.525
Y153.502 Z-1.573 I0. J-3.525
Y160.552 Z-1.69 I0. J3.525
Y153.502 Z-1.807 I0. J-3.525
Y160.552 Z-1.924 I0. J3.525
Y153.502 Z-2.041 I0. J-3.525
Y160.552 Z-2.158 I0. J3.525
Y153.502 Z-2.275 I0. J-3.525
Y160.552 Z-2.392 I0. J3.525
Y153.502 Z-2.508 I0. J-3.525
Y160.552 Z-2.625 I0. J3.525
Y153.502 Z-2.742 I0. J-3.525
Y160.552 Z-2.859 I0. J3.525
Y153.502 Z-2.976 I0. J-3.525
Y160.552 Z-3.093 I0. J3.525
Y153.502 Z-3.21 I0. J-3.525
Y160.552 Z-3.327 I0. J3.525
Y153.502 Z-3.444 I0. J-3.525
Y160.552 Z-3.561 I0. J3.525
Y153.502 Z-3.678 I0. J-3.525
Y160.552 Z-3.795 I0. J3.525
Y153.502 Z-3.912 I0. J-3.525
Y160.552 Z-4.029 I0. J3.525
Y153.502 Z-4.146 I0. J-3.525
Y160.552 Z-4.263 I0. J3.525
Y153.502 Z-4.38 I0. J-3.525
Y160.552 Z-4.497 I0. J3.525
Y153.502 Z-4.614 I0. J-3.525
Y160.552 Z-4.73 I0. J3.525
Y153.502 Z-4.847 I0. J-3.525
Y160.552 Z-4.964 I0. J3.525
Y153.502 Z-5.081 I0. J-3.525
Y160.552 Z-5.198 I0. J3.525
Y153.502 Z-5.315 I0. J-3.525
Y160.552 Z-5.432 I0. J3.525
Y153.502 Z-5.549 I0. J-3.525
Y160.552 Z-5.666 I0. J3.525
Y153.502 Z-5.783 I0. J-3.525
Y160.552 Z-5.9 I0. J3.525
Y153.502 Z-6.017 I0. J-3.525
Y160.552 Z-6.134 I0. J3.525
Y153.502 Z-6.251 I0. J-3.525
Y160.552 Z-6.368 I0. J3.525
Y153.502 Z-6.485 I0. J-3.525
Y160.552 Z-6.602 I0. J3.525
Y153.502 Z-6.719 I0. J-3.525
Y160.552 Z-6.836 I0. J3.525
Y153.502 Z-6.953 I0. J-3.525
Y160.552 Z-7.069 I0. J3.525
Y153.502 Z-7.186 I0. J-3.525
Y160.552 Z-7.303 I0. J3.525
X44.305 Y158.13 Z-7.35 I0. J-3.525
X37.61 Y155.924 I-3.348 J-1.103
X44.305 Y158.13 I3.348 J1.103
X43.901 Y157.329 I-0.603 J-0.199
G1 X43.6 Y157.229
X43.505 Y157.198 Z-7.342
X43.413 Y157.168 Z-7.319
X43.326 Y157.139 Z-7.281
X43.245 Y157.112 Z-7.229
X43.173 Y157.089 Z-7.164
X43.112 Y157.068 Z-7.088
X43.062 Y157.052 Z-7.003
X43.026 Y157.04 Z-6.911
X43.004 Y157.033 Z-6.814
X42.996 Y157.03 Z-6.715
G0 Z5.
X41.592 Y149.09
Z3.
G1 Z1.635 F800.
G19 G2 Y148.455 Z1. J-0.635 K0.
G1 Y148.137
G17 G2 X40.958 Y147.502 I-0.635 J0.
Y166.552 Z0.778 I0. J9.525
Y147.502 Z0.557 I0. J-9.525
Y166.552 Z0.335 I0. J9.525
Y147.502 Z0.113 I0. J-9.525
Y166.552 Z-0.108 I0. J9.525
Y147.502 Z-0.33 I0. J-9.525
Y166.552 Z-0.552 I0. J9.525
Y147.502 Z-0.773 I0. J-9.525
Y166.552 Z-0.995 I0. J9.525
Y147.502 Z-1.217 I0. J-9.525
Y166.552 Z-1.438 I0. J9.525
Y147.502 Z-1.66 I0. J-9.525
Y166.552 Z-1.882 I0. J9.525
Y147.502 Z-2.104 I0. J-9.525
Y166.552 Z-2.325 I0. J9.525
Y147.502 Z-2.547 I0. J-9.525
Y166.552 Z-2.769 I0. J9.525
Y147.502 Z-2.99 I0. J-9.525
Y166.552 Z-3.212 I0. J9.525
Y147.502 Z-3.434 I0. J-9.525
Y166.552 Z-3.655 I0. J9.525
Y147.502 Z-3.877 I0. J-9.525
Y166.552 Z-4.099 I0. J9.525
Y147.502 Z-4.32 I0. J-9.525
Y166.552 Z-4.542 I0. J9.525
Y147.502 Z-4.764 I0. J-9.525
Y166.552 Z-4.985 I0. J9.525
Y147.502 Z-5.207 I0. J-9.525
Y166.552 Z-5.429 I0. J9.525
Y147.502 Z-5.65 I0. J-9.525
Y166.552 Z-5.872 I0. J9.525
Y147.502 Z-6.094 I0. J-9.525
Y166.552 Z-6.315 I0. J9.525
Y147.502 Z-6.537 I0. J-9.525
Y166.552 Z-6.759 I0. J9.525
Y147.502 Z-6.98 I0. J-9.525
Y166.552 Z-7.202 I0. J9.525
X49.201 Y152.256 Z-7.35 I0. J-9.525
X32.714 Y161.799 I-8.244 J4.772
X49.201 Y152.256 I8.244 J-4.772
X48.333 Y152.024 I-0.55 J0.318
G1 X48.059 Y152.183
X47.973 Y152.233 Z-7.342
X47.889 Y152.281 Z-7.319
X47.809 Y152.328 Z-7.281
X47.736 Y152.37 Z-7.229
X47.67 Y152.408 Z-7.164
X47.614 Y152.44 Z-7.088
X47.569 Y152.467 Z-7.003
X47.536 Y152.486 Z-6.911
X47.516 Y152.497 Z-6.814
X47.509 Y152.501 Z-6.715
G0 Z5.
X41.592 Y116.202
Z1.222
G1 Z-0.143 F800.
G19 G2 Y115.567 Z-0.778 J-0.635 K0.
G1 Y115.25
G17 G2 X40.958 Y114.615 I-0.635 J0.
Y118.49 Z-0.867 I0. J1.938
Y114.615 Z-0.956 I0. J-1.937
Y118.49 Z-1.046 I0. J1.937
Y114.615 Z-1.135 I0. J-1.937
Y118.49 Z-1.224 I0. J1.937
Y114.615 Z-1.313 I0. J-1.937
Y118.49 Z-1.403 I0. J1.937
Y114.615 Z-1.492 I0. J-1.937
Y118.49 Z-1.581 I0. J1.937
Y114.615 Z-1.67 I0. J-1.937
Y118.49 Z-1.76 I0. J1.937
Y114.615 Z-1.849 I0. J-1.937
Y118.49 Z-1.938 I0. J1.937
Y114.615 Z-2.027 I0. J-1.937
Y118.49 Z-2.117 I0. J1.937
Y114.615 Z-2.206 I0. J-1.937
Y118.49 Z-2.295 I0. J1.937
Y114.615 Z-2.384 I0. J-1.937
Y118.49 Z-2.474 I0. J1.937
Y114.615 Z-2.563 I0. J-1.937
Y118.49 Z-2.652 I0. J1.937
Y114.615 Z-2.741 I0. J-1.937
Y118.49 Z-2.83 I0. J1.937
Y114.615 Z-2.92 I0. J-1.937
Y118.49 Z-3.009 I0. J1.937
Y114.615 Z-3.098 I0. J-1.937
Y118.49 Z-3.187 I0. J1.937
Y114.615 Z-3.277 I0. J-1.937
Y118.49 Z-3.366 I0. J1.937
Y114.615 Z-3.455 I0. J-1.937
Y118.49 Z-3.544 I0. J1.937
Y114.615 Z-3.634 I0. J-1.937
Y118.49 Z-3.723 I0. J1.937
Y114.615 Z-3.812 I0. J-1.937
Y118.49 Z-3.901 I0. J1.937
Y114.615 Z-3.991 I0. J-1.937
Y118.49 Z-4.08 I0. J1.937
Y114.615 Z-4.169 I0. J-1.937
Y118.49 Z-4.258 I0. J1.937
Y114.615 Z-4.348 I0. J-1.937
Y118.49 Z-4.437 I0. J1.937
Y114.615 Z-4.526 I0. J-1.937
Y118.49 Z-4.615 I0. J1.937
Y114.615 Z-4.705 I0. J-1.937
Y118.49 Z-4.794 I0. J1.937
Y114.615 Z-4.883 I0. J-1.937
Y118.49 Z-4.972 I0. J1.937
Y114.615 Z-5.061 I0. J-1.937
Y118.49 Z-5.151 I0. J1.937
Y114.615 Z-5.24 I0. J-1.937
Y118.49 Z-5.329 I0. J1.937
Y114.615 Z-5.418 I0. J-1.937
Y118.49 Z-5.508 I0. J1.937
Y114.615 Z-5.597 I0. J-1.937
Y118.49 Z-5.686 I0. J1.937
Y114.615 Z-5.775 I0. J-1.937
Y118.49 Z-5.865 I0. J1.937
Y114.615 Z-5.954 I0. J-1.937
Y118.49 Z-6.043 I0. J1.937
Y114.615 Z-6.132 I0. J-1.937
Y118.49 Z-6.222 I0. J1.937
Y114.615 Z-6.311 I0. J-1.937
Y118.49 Z-6.4 I0. J1.937
Y114.615 Z-6.489 I0. J-1.937
Y118.49 Z-6.579 I0. J1.937
Y114.615 Z-6.668 I0. J-1.937
Y118.49 Z-6.757 I0. J1.937
Y114.615 Z-6.846 I0. J-1.937
Y118.49 Z-6.935 I0. J1.937
Y114.615 Z-7.025 I0. J-1.937
Y118.49 Z-7.114 I0. J1.937
Y114.615 Z-7.203 I0. J-1.937
Y118.49 Z-7.292 I0. J1.937
X42.698 Y115.7 Z-7.35 I0. J-1.937
X39.217 Y117.404 I-1.74 J0.852
X42.698 Y115.7 I1.74 J-0.852
X41.848 Y115.409 I-0.57 J0.279
G1 X41.563 Y115.549
X41.474 Y115.593 Z-7.342
X41.387 Y115.635 Z-7.319
X41.304 Y115.676 Z-7.281
X41.228 Y115.713 Z-7.229
X41.16 Y115.746 Z-7.164
X41.102 Y115.775 Z-7.088
X41.055 Y115.798 Z-7.003
X41.021 Y115.814 Z-6.911
X41. Y115.825 Z-6.814
X40.993 Y115.828 Z-6.715
G0 Z5.
X41.592 Y110.202
Z1.222
G1 Z-0.143 F800.
G19 G2 Y109.567 Z-0.778 J-0.635 K0.
G1 Y109.25
G17 G2 X40.958 Y108.615 I-0.635 J0.
Y124.49 Z-0.972 I0. J7.938
Y108.615 Z-1.166 I0. J-7.937
Y124.49 Z-1.36 I0. J7.937
Y108.615 Z-1.554 I0. J-7.937
Y124.49 Z-1.748 I0. J7.937
Y108.615 Z-1.942 I0. J-7.937
Y124.49 Z-2.136 I0. J7.937
Y108.615 Z-2.33 I0. J-7.937
Y124.49 Z-2.524 I0. J7.937
Y108.615 Z-2.718 I0. J-7.937
Y124.49 Z-2.912 I0. J7.937
Y108.615 Z-3.106 I0. J-7.937
Y124.49 Z-3.3 I0. J7.937
Y108.615 Z-3.494 I0. J-7.937
Y124.49 Z-3.688 I0. J7.937
Y108.615 Z-3.882 I0. J-7.937
Y124.49 Z-4.075 I0. J7.937
Y108.615 Z-4.269 I0. J-7.937
Y124.49 Z-4.463 I0. J7.937
Y108.615 Z-4.657 I0. J-7.937
Y124.49 Z-4.851 I0. J7.937
Y108.615 Z-5.045 I0. J-7.937
Y124.49 Z-5.239 I0. J7.937
Y108.615 Z-5.433 I0. J-7.937
Y124.49 Z-5.627 I0. J7.937
Y108.615 Z-5.821 I0. J-7.937
Y124.49 Z-6.015 I0. J7.937
Y108.615 Z-6.209 I0. J-7.937
Y124.49 Z-6.403 I0. J7.937
Y108.615 Z-6.597 I0. J-7.937
Y124.49 Z-6.791 I0. J7.937
Y108.615 Z-6.985 I0. J-7.937
Y124.49 Z-7.179 I0. J7.937
X43.842 Y109.157 Z-7.35 I0. J-7.937
X38.073 Y123.947 I-2.884 J7.395
X43.842 Y109.157 I2.884 J-7.395
X43.019 Y109.518 I-0.231 J0.592
G1 X42.904 Y109.814
X42.868 Y109.907 Z-7.342
X42.833 Y109.997 Z-7.319
X42.799 Y110.083 Z-7.281
X42.768 Y110.162 Z-7.229
X42.741 Y110.232 Z-7.164
X42.717 Y110.293 Z-7.088
X42.698 Y110.341 Z-7.003
X42.684 Y110.377 Z-6.911
X42.676 Y110.398 Z-6.814
X42.673 Y110.406 Z-6.715
G0 Z5.
X76.645 Y94.377
Z3.
G1 Z1.635 F800.
G19 G2 Y93.742 Z1. J-0.635 K0.
G1 Y93.425
G17 G2 X76.01 Y92.79 I-0.635 J0.
Y99.84 Z0.883 I0. J3.525
Y92.79 Z0.766 I0. J-3.525
Y99.84 Z0.649 I0. J3.525
Y92.79 Z0.532 I0. J-3.525
Y99.84 Z0.415 I0. J3.525
Y92.79 Z0.298 I0. J-3.525
Y99.84 Z0.181 I0. J3.525
Y92.79 Z0.064 I0. J-3.525
Y99.84 Z-0.053 I0. J3.525
Y92.79 Z-0.169 I0. J-3.525
Y99.84 Z-0.286 I0. J3.525
Y92.79 Z-0.403 I0. J-3.525
Y99.84 Z-0.52 I0. J3.525
Y92.79 Z-0.637 I0. J-3.525
Y99.84 Z-0.754 I0. J3.525
Y92.79 Z-0.871 I0. J-3.525
Y99.84 Z-0.988 I0. J3.525
Y92.79 Z-1.105 I0. J-3.525
Y99.84 Z-1.222 I0. J3.525
Y92.79 Z-1.339 I0. J-3.525
Y99.84 Z-1.456 I0. J3.525
Y92.79 Z-1.573 I0. J-3.525
Y99.84 Z-1.69 I0. J3.525
Y92.79 Z-1.807 I0. J-3.525
Y99.84 Z-1.924 I0. J3.525
Y92.79 Z-2.041 I0. J-3.525
Y99.84 Z-2.158 I0. J3.525
Y92.79 Z-2.275 I0. J-3.525
Y99.84 Z-2.392 I0. J3.525
Y92.79 Z-2.508 I0. J-3.525
Y99.84 Z-2.625 I0. J3.525
Y92.79 Z-2.742 I0. J-3.525
Y99.84 Z-2.859 I0. J3.525
Y92.79 Z-2.976 I0. J-3.525
Y99.84 Z-3.093 I0. J3.525
Y92.79 Z-3.21 I0. J-3.525
Y99.84 Z-3.327 I0. J3.525
Y92.79 Z-3.444 I0. J-3.525
Y99.84 Z-3.561 I0. J3.525
Y92.79 Z-3.678 I0. J-3.525
Y99.84 Z-3.795 I0. J3.525
Y92.79 Z-3.912 I0. J-3.525
Y99.84 Z-4.029 I0. J3.525
Y92.79 Z-4.146 I0. J-3.525
Y99.84 Z-4.263 I0. J3.525
Y92.79 Z-4.38 I0. J-3.525
Y99.84 Z-4.497 I0. J3.525
Y92.79 Z-4.614 I0. J-3.525
Y99.84 Z-4.73 I0. J3.525
Y92.79 Z-4.847 I0. J-3.525
Y99.84 Z-4.964 I0. J3.525
Y92.79 Z-5.081 I0. J-3.525
Y99.84 Z-5.198 I0. J3.525
Y92.79 Z-5.315 I0. J-3.525
Y99.84 Z-5.432 I0. J3.525
Y92.79 Z-5.549 I0. J-3.525
Y99.84 Z-5.666 I0. J3.525
Y92.79 Z-5.783 I0. J-3.525
Y99.84 Z-5.9 I0. J3.525
Y92.79 Z-6.017 I0. J-3.525
Y99.84 Z-6.134 I0. J3.525
Y92.79 Z-6.251 I0. J-3.525
Y99.84 Z-6.368 I0. J3.525
Y92.79 Z-6.485 I0. J-3.525
Y99.84 Z-6.602 I0. J3.525
Y92.79 Z-6.719 I0. J-3.525
Y99.84 Z-6.836 I0. J3.525
Y92.79 Z-6.953 I0. J-3.525
Y99.84 Z-7.069 I0. J3.525
Y92.79 Z-7.186 I0. J-3.525
Y99.84 Z-7.303 I0. J3.525
X79.358 Y97.418 Z-7.35 I0. J-3.525
X72.662 Y95.212 I-3.348 J-1.103
X79.358 Y97.418 I3.348 J1.103
X78.953 Y96.616 I-0.603 J-0.199
G1 X78.652 Y96.517
X78.557 Y96.486 Z-7.342
X78.465 Y96.455 Z-7.319
X78.378 Y96.427 Z-7.281
X78.297 Y96.4 Z-7.229
X78.225 Y96.376 Z-7.164
X78.164 Y96.356 Z-7.088
X78.114 Y96.34 Z-7.003
X78.078 Y96.328 Z-6.911
X78.056 Y96.321 Z-6.814
X78.049 Y96.318 Z-6.715
G0 Z5.
X76.645 Y88.377
Z3.
G1 Z1.635 F800.
G19 G2 Y87.742 Z1. J-0.635 K0.
G1 Y87.425
G17 G2 X76.01 Y86.79 I-0.635 J0.
Y105.84 Z0.778 I0. J9.525
Y86.79 Z0.557 I0. J-9.525
Y105.84 Z0.335 I0. J9.525
Y86.79 Z0.113 I0. J-9.525
Y105.84 Z-0.108 I0. J9.525
Y86.79 Z-0.33 I0. J-9.525
Y105.84 Z-0.552 I0. J9.525
Y86.79 Z-0.773 I0. J-9.525
Y105.84 Z-0.995 I0. J9.525
Y86.79 Z-1.217 I0. J-9.525
Y105.84 Z-1.438 I0. J9.525
Y86.79 Z-1.66 I0. J-9.525
Y105.84 Z-1.882 I0. J9.525
Y86.79 Z-2.104 I0. J-9.525
Y105.84 Z-2.325 I0. J9.525
Y86.79 Z-2.547 I0. J-9.525
Y105.84 Z-2.769 I0. J9.525
Y86.79 Z-2.99 I0. J-9.525
Y105.84 Z-3.212 I0. J9.525
Y86.79 Z-3.434 I0. J-9.525
Y105.84 Z-3.655 I0. J9.525
Y86.79 Z-3.877 I0. J-9.525
Y105.84 Z-4.099 I0. J9.525
Y86.79 Z-4.32 I0. J-9.525
Y105.84 Z-4.542 I0. J9.525
Y86.79 Z-4.764 I0. J-9.525
Y105.84 Z-4.985 I0. J9.525
Y86.79 Z-5.207 I0. J-9.525
Y105.84 Z-5.429 I0. J9.525
Y86.79 Z-5.65 I0. J-9.525
Y105.84 Z-5.872 I0. J9.525
Y86.79 Z-6.094 I0. J-9.525
Y105.84 Z-6.315 I0. J9.525
Y86.79 Z-6.537 I0. J-9.525
Y105.84 Z-6.759 I0. J9.525
Y86.79 Z-6.98 I0. J-9.525
Y105.84 Z-7.202 I0. J9.525
X84.253 Y91.543 Z-7.35 I0. J-9.525
X67.766 Y101.087 I-8.244 J4.772
X84.253 Y91.543 I8.244 J-4.772
X83.386 Y91.312 I-0.55 J0.318
G1 X83.111 Y91.471
X83.025 Y91.521 Z-7.342
X82.941 Y91.569 Z-7.319
X82.861 Y91.615 Z-7.281
X82.788 Y91.658 Z-7.229
X82.722 Y91.696 Z-7.164
X82.666 Y91.728 Z-7.088
X82.621 Y91.754 Z-7.003
X82.588 Y91.773 Z-6.911
X82.568 Y91.785 Z-6.814
X82.561 Y91.789 Z-6.715
G0 Z5.
X41.592 Y62.227
Z1.222
G1 Z-0.143 F800.
G19 G2 Y61.592 Z-0.778 J-0.635 K0.
G1 Y61.275
G17 G2 X40.958 Y60.64 I-0.635 J0.
Y70.865 Z-0.923 I0. J5.113
Y60.64 Z-1.067 I0. J-5.113
Y70.865 Z-1.212 I0. J5.113
Y60.64 Z-1.357 I0. J-5.113
Y70.865 Z-1.501 I0. J5.113
Y60.64 Z-1.646 I0. J-5.113
Y70.865 Z-1.791 I0. J5.113
Y60.64 Z-1.935 I0. J-5.113
Y70.865 Z-2.08 I0. J5.113
Y60.64 Z-2.225 I0. J-5.113
Y70.865 Z-2.369 I0. J5.113
Y60.64 Z-2.514 I0. J-5.113
Y70.865 Z-2.659 I0. J5.113
Y60.64 Z-2.803 I0. J-5.113
Y70.865 Z-2.948 I0. J5.113
Y60.64 Z-3.093 I0. J-5.113
Y70.865 Z-3.237 I0. J5.113
Y60.64 Z-3.382 I0. J-5.113
Y70.865 Z-3.527 I0. J5.113
Y60.64 Z-3.671 I0. J-5.113
Y70.865 Z-3.816 I0. J5.113
Y60.64 Z-3.96 I0. J-5.113
Y70.865 Z-4.105 I0. J5.113
Y60.64 Z-4.25 I0. J-5.113
Y70.865 Z-4.394 I0. J5.113
Y60.64 Z-4.539 I0. J-5.113
Y70.865 Z-4.684 I0. J5.113
Y60.64 Z-4.828 I0. J-5.113
Y70.865 Z-4.973 I0. J5.113
Y60.64 Z-5.118 I0. J-5.113
Y70.865 Z-5.262 I0. J5.113
Y60.64 Z-5.407 I0. J-5.113
Y70.865 Z-5.552 I0. J5.113
Y60.64 Z-5.696 I0. J-5.113
Y70.865 Z-5.841 I0. J5.112
Y60.64 Z-5.986 I0. J-5.112
Y70.865 Z-6.13 I0. J5.112
Y60.64 Z-6.275 I0. J-5.112
Y70.865 Z-6.42 I0. J5.112
Y60.64 Z-6.564 I0. J-5.112
Y70.865 Z-6.709 I0. J5.112
Y60.64 Z-6.854 I0. J-5.112
Y70.865 Z-6.998 I0. J5.112
Y60.64 Z-7.143 I0. J-5.112
Y70.865 Z-7.288 I0. J5.112
X45.95 Y66.852 Z-7.35 I0. J-5.112
X35.965 Y64.653 I-4.993 J-1.099
X45.95 Y66.852 I4.993 J1.099
X45.467 Y66.095 I-0.62 J-0.137
G1 X45.157 Y66.027
X45.06 Y66.005 Z-7.342
X44.965 Y65.984 Z-7.319
X44.875 Y65.965 Z-7.281
X44.792 Y65.946 Z-7.229
X44.718 Y65.93 Z-7.164
X44.655 Y65.916 Z-7.088
X44.604 Y65.905 Z-7.003
X44.567 Y65.897 Z-6.911
X44.544 Y65.892 Z-6.814
X44.537 Y65.89 Z-6.715
G0 Z5.
X41.592 Y56.227
Z1.222
G1 Z-0.143 F800.
G19 G2 Y55.592 Z-0.778 J-0.635 K0.
G1 Y55.275
G17 G2 X40.958 Y54.64 I-0.635 J0.
Y76.865 Z-1.027 I0. J11.113
Y54.64 Z-1.277 I0. J-11.113
Y76.865 Z-1.526 I0. J11.113
Y54.64 Z-1.776 I0. J-11.113
Y76.865 Z-2.025 I0. J11.113
Y54.64 Z-2.274 I0. J-11.113
Y76.865 Z-2.524 I0. J11.113
Y54.64 Z-2.773 I0. J-11.113
Y76.865 Z-3.023 I0. J11.113
Y54.64 Z-3.272 I0. J-11.113
Y76.865 Z-3.521 I0. J11.113
Y54.64 Z-3.771 I0. J-11.113
Y76.865 Z-4.02 I0. J11.113
Y54.64 Z-4.269 I0. J-11.113
Y76.865 Z-4.519 I0. J11.113
Y54.64 Z-4.768 I0. J-11.113
Y76.865 Z-5.018 I0. J11.113
Y54.64 Z-5.267 I0. J-11.113
Y76.865 Z-5.516 I0. J11.113
Y54.64 Z-5.766 I0. J-11.113
Y76.865 Z-6.015 I0. J11.113
Y54.64 Z-6.265 I0. J-11.113
Y76.865 Z-6.514 I0. J11.113
Y54.64 Z-6.763 I0. J-11.113
Y76.865 Z-7.013 I0. J11.113
Y54.64 Z-7.262 I0. J-11.113
X31.019 Y60.782 Z-7.35 I0. J11.113
X50.896 Y70.723 I9.939 J4.971
X31.019 Y60.782 I-9.939 J-4.971
X31.303 Y61.634 I0.568 J0.284
G1 X31.587 Y61.776
X31.675 Y61.82 Z-7.342
X31.762 Y61.863 Z-7.319
X31.844 Y61.905 Z-7.281
X31.92 Y61.943 Z-7.229
X31.988 Y61.976 Z-7.164
X32.046 Y62.005 Z-7.088
X32.093 Y62.029 Z-7.003
X32.127 Y62.046 Z-6.911
X32.148 Y62.056 Z-6.814
X32.155 Y62.06 Z-6.715
G0 Z15.

(BORE4)
G0 X-40.322 Y54.64
Z15.
Z3.
G1 Z1.635 F800.
G19 G2 Y54.005 Z1. J-0.635 K0.
G1 Y53.687
G17 G2 X-40.958 Y53.052 I-0.635 J0.
Y78.452 Z0.723 I0. J12.7
Y53.052 Z0.446 I0. J-12.7
Y78.452 Z0.169 I0. J12.7
Y53.052 Z-0.108 I0. J-12.7
Y78.452 Z-0.385 I0. J12.7
Y53.052 Z-0.663 I0. J-12.7
Y78.452 Z-0.94 I0. J12.7
Y53.052 Z-1.217 I0. J-12.7
Y78.452 Z-1.494 I0. J12.7
X-28.268 Y65.248 Z-1.636 I0. J-12.7
X-41.966 Y53.092 Z-1.778 I-12.69 J0.504
X-39.949 Y78.412 I1.008 J12.66
X-41.966 Y53.092 I-1.008 J-12.66
X-42.548 Y53.776 I0.05 J0.633
G1 X-42.523 Y54.092
X-42.515 Y54.191 Z-1.77
X-42.507 Y54.288 Z-1.747
X-42.5 Y54.38 Z-1.709
X-42.493 Y54.464 Z-1.657
X-42.487 Y54.54 Z-1.592
X-42.482 Y54.604 Z-1.516
X-42.478 Y54.656 Z-1.431
X-42.475 Y54.694 Z-1.339
X-42.473 Y54.718 Z-1.242
Y54.725 Z-1.143
G0 Z5.
X-40.322 Y108.996
Z3.
G1 Z1.635 F800.
G19 G2 Y108.361 Z1. J-0.635 K0.
G1 Y108.043
G17 G2 X-40.958 Y107.408 I-0.635 J0.
Y125.696 Z0.785 I0. J9.144
Y107.408 Z0.57 I0. J-9.144
Y125.696 Z0.355 I0. J9.144
Y107.408 Z0.14 I0. J-9.144
Y125.696 Z-0.075 I0. J9.144
Y107.408 Z-0.29 I0. J-9.144
Y125.696 Z-0.505 I0. J9.144
Y107.408 Z-0.72 I0. J-9.144
Y125.696 Z-0.935 I0. J9.144
Y107.408 Z-1.15 I0. J-9.144
Y125.696 Z-1.365 I0. J9.144
Y107.408 Z-1.58 I0. J-9.144
X-43.254 Y125.403 Z-1.778 I0. J9.144
X-38.661 Y107.701 I2.297 J-8.851
X-43.254 Y125.403 I-2.297 J8.851
X-42.48 Y124.948 I0.159 J-0.615
G1 X-42.4 Y124.641
X-42.375 Y124.545 Z-1.77
X-42.351 Y124.451 Z-1.747
X-42.328 Y124.362 Z-1.709
X-42.306 Y124.279 Z-1.657
X-42.287 Y124.206 Z-1.592
X-42.271 Y124.144 Z-1.516
X-42.258 Y124.093 Z-1.431
X-42.248 Y124.056 Z-1.339
X-42.243 Y124.034 Z-1.242
X-42.241 Y124.026 Z-1.143
G0 Z5.
X41.592 Y108.996
Z3.
G1 Z1.635 F800.
G19 G2 Y108.361 Z1. J-0.635 K0.
G1 Y108.043
G17 G2 X40.958 Y107.408 I-0.635 J0.
Y125.696 Z0.785 I0. J9.144
Y107.408 Z0.57 I0. J-9.144
Y125.696 Z0.355 I0. J9.144
Y107.408 Z0.14 I0. J-9.144
Y125.696 Z-0.075 I0. J9.144
Y107.408 Z-0.29 I0. J-9.144
Y125.696 Z-0.505 I0. J9.144
Y107.408 Z-0.72 I0. J-9.144
Y125.696 Z-0.935 I0. J9.144
Y107.408 Z-1.15 I0. J-9.144
Y125.696 Z-1.365 I0. J9.144
Y107.408 Z-1.58 I0. J-9.144
X38.661 Y125.403 Z-1.778 I0. J9.144
X43.254 Y107.701 I2.297 J-8.851
X38.661 Y125.403 I-2.297 J8.851
X39.435 Y124.948 I0.159 J-0.615
G1 X39.515 Y124.641
X39.54 Y124.545 Z-1.77
X39.564 Y124.451 Z-1.747
X39.587 Y124.362 Z-1.709
X39.609 Y124.279 Z-1.657
X39.628 Y124.206 Z-1.592
X39.644 Y124.144 Z-1.516
X39.657 Y124.093 Z-1.431
X39.667 Y124.056 Z-1.339
X39.672 Y124.034 Z-1.242
X39.674 Y124.026 Z-1.143
G0 Z5.
X41.592 Y54.64
Z3.
G1 Z1.635 F800.
G19 G2 Y54.005 Z1. J-0.635 K0.
G1 Y53.687
G17 G2 X40.958 Y53.052 I-0.635 J0.
Y78.452 Z0.723 I0. J12.7
Y53.052 Z0.446 I0. J-12.7
Y78.452 Z0.169 I0. J12.7
Y53.052 Z-0.108 I0. J-12.7
Y78.452 Z-0.385 I0. J12.7
Y53.052 Z-0.663 I0. J-12.7
Y78.452 Z-0.94 I0. J12.7
Y53.052 Z-1.217 I0. J-12.7
Y78.452 Z-1.494 I0. J12.7
X53.647 Y65.248 Z-1.636 I0. J-12.7
X39.949 Y53.092 Z-1.778 I-12.69 J0.504
X41.966 Y78.412 I1.008 J12.66
X39.949 Y53.092 I-1.008 J-12.66
X39.367 Y53.776 I0.05 J0.633
G1 X39.392 Y54.092
X39.4 Y54.191 Z-1.77
X39.408 Y54.288 Z-1.747
X39.415 Y54.38 Z-1.709
X39.422 Y54.464 Z-1.657
X39.428 Y54.54 Z-1.592
X39.433 Y54.604 Z-1.516
X39.437 Y54.656 Z-1.431
X39.44 Y54.694 Z-1.339
X39.442 Y54.718 Z-1.242
Y54.725 Z-1.143
G0 Z15.

(2D CONTOUR1)
G0 X-101.889 Y70.108
Z15.
Z5.
G1 Z3.135 F800.
X-101.883 Y70.114 Z3.036
X-101.867 Y70.13 Z2.939
X-101.84 Y70.157 Z2.847
X-101.803 Y70.194 Z2.762
X-101.757 Y70.24 Z2.686
X-101.704 Y70.293 Z2.621
X-101.643 Y70.353 Z2.569
X-101.578 Y70.419 Z2.531
X-101.51 Y70.487 Z2.508
X-101.44 Y70.557 Z2.5
X-100.991 Y71.006 F1600.
G2 X-100.093 I0.449 J-0.449
G1 X-81.802 Y52.716 Z2.387 F800.
G2 X-77.152 Y41.491 Z2.333 I-11.225 J-11.225
G1 Y31.75 Z2.29
G3 X-54.928 Y9.525 Z2.138 I22.225 J0.
G1 X-26.987 Z2.016
G3 X-4.762 Y31.75 Z1.864 I0. J22.225
G1 Y180.506 Z1.215
G3 X-26.987 Y202.731 Z1.062 I-22.225 J0.
G1 X-54.928 Z0.94
G3 X-77.152 Y180.506 Z0.788 I0. J-22.225
G1 Y151.139 Z0.66
G2 X-81.802 Y139.914 Z0.605 I-15.875 J0.
G1 X-100.705 Y121.011 Z0.489
G3 Y71.619 Z0.249 I24.696 J-24.696
G1 X-81.802 Y52.716 Z0.133
G2 X-77.152 Y41.491 Z0.078 I-11.225 J-11.225
G1 Y31.75 Z0.036
G3 X-54.928 Y9.525 Z-0.116 I22.225 J0.
G1 X-26.987 Z-0.238
G3 X-25.462 Y9.577 Z-0.245 I0. J22.225
X-4.762 Y31.75 I-1.526 J22.173 F1600.
G1 Y180.506
G3 X-26.987 Y202.731 I-22.225 J0.
G1 X-54.928
G3 X-77.152 Y180.506 I0. J-22.225
G1 Y151.139
G2 X-81.802 Y139.914 I-15.875 J0.
G1 X-100.705 Y121.011
G3 Y71.619 I24.696 J-24.696
G1 X-81.802 Y52.716
G2 X-77.152 Y41.491 I-11.225 J-11.225
G1 Y31.75
G3 X-54.928 Y9.525 I22.225 J0.
G1 X-26.987
G3 X-25.462 Y9.577 I0. J22.225
X-4.762 Y31.75 Z-0.391 I-1.526 J22.173 F800.
G1 Y54.516 Z-0.49
Y180.506 F1600.
G3 X-26.987 Y202.731 I-22.225 J0.
G1 X-54.928
G3 X-77.152 Y180.506 I0. J-22.225
G1 Y151.139
G2 X-81.802 Y139.914 I-15.875 J0.
G1 X-100.705 Y121.011
G3 Y71.619 I24.696 J-24.696
G1 X-81.802 Y52.716
G2 X-77.152 Y41.491 I-11.225 J-11.225
G1 Y31.75
G3 X-54.928 Y9.525 I22.225 J0.
G1 X-26.987
G3 X-4.762 Y31.75 I0. J22.225
G1 Y54.516
Y110.665 Z-0.735 F800.
Y180.506 F1600.
G3 X-26.987 Y202.731 I-22.225 J0.
G1 X-54.928
G3 X-77.152 Y180.506 I0. J-22.225
G1 Y151.139
G2 X-81.802 Y139.914 I-15.875 J0.
G1 X-100.705 Y121.011
G3 Y71.619 I24.696 J-24.696
G1 X-81.802 Y52.716
G2 X-77.152 Y41.491 I-11.225 J-11.225
G1 Y31.75
G3 X-54.928 Y9.525 I22.225 J0.
G1 X-26.987
G3 X-4.762 Y31.75 I0. J22.225
G1 Y110.665
Y166.815 Z-0.98 F800.
Y180.506 F1600.
G3 X-26.987 Y202.731 I-22.225 J0.
G1 X-54.928
G3 X-77.152 Y180.506 I0. J-22.225
G1 Y151.139
G2 X-81.802 Y139.914 I-15.875 J0.
G1 X-100.705 Y121.011
G3 Y71.619 I24.696 J-24.696
G1 X-81.802 Y52.716
G2 X-77.152 Y41.491 I-11.225 J-11.225
G1 Y31.75
G3 X-54.928 Y9.525 I22.225 J0.
G1 X-26.987
G3 X-4.762 Y31.75 I0. J22.225
G1 Y110.665
Y166.815
Y180.506 Z-1.04 F800.
G3 X-26.987 Y202.731 Z-1.192 I-22.225 J0.
G1 X-34.535 Z-1.225
X-54.928 F1600.
G3 X-77.152 Y180.506 I0. J-22.225
G1 Y151.139
G2 X-81.802 Y139.914 I-15.875 J0.
G1 X-100.705 Y121.011
G3 Y71.619 I24.696 J-24.696
G1 X-81.802 Y52.716
G2 X-77.152 Y41.491 I-11.225 J-11.225
G1 Y31.75
G3 X-54.928 Y9.525 I22.225 J0.
G1 X-26.987
G3 X-4.762 Y31.75 I0. J22.225
G1 Y166.815
Y180.506
G3 X-26.987 Y202.731 I-22.225 J0.
G1 X-34.535
X-54.928 Z-1.314 F800.
G3 X-77.152 Y180.506 Z-1.466 I0. J-22.225
G1 Y179.66 Z-1.47
Y151.139 F1600.
G2 X-81.802 Y139.914 I-15.875 J0.
G1 X-100.705 Y121.011
G3 Y71.619 I24.696 J-24.696
G1 X-81.802 Y52.716
G2 X-77.152 Y41.491 I-11.225 J-11.225
G1 Y31.75
G3 X-54.928 Y9.525 I22.225 J0.
G1 X-26.987
G3 X-4.762 Y31.75 I0. J22.225
G1 Y180.506
G3 X-26.987 Y202.731 I-22.225 J0.
G1 X-54.928
G3 X-77.152 Y180.506 I0. J-22.225
G1 Y179.66
Y151.139 Z-1.594 F800.
G2 X-81.802 Y139.914 Z-1.649 I-15.875 J0.
G1 X-92.522 Y129.194 Z-1.715
X-100.705 Y121.011 F1600.
G3 Y71.619 I24.696 J-24.696
G1 X-81.802 Y52.716
G2 X-77.152 Y41.491 I-11.225 J-11.225
G1 Y31.75
G3 X-54.928 Y9.525 I22.225 J0.
G1 X-26.987
G3 X-4.762 Y31.75 I0. J22.225
G1 Y180.506
G3 X-26.987 Y202.731 I-22.225 J0.
G1 X-54.928
G3 X-77.152 Y180.506 I0. J-22.225
G1 Y151.139
G2 X-81.802 Y139.914 I-15.875 J0.
G1 X-92.522 Y129.194
X-100.705 Y121.011 Z-1.765 F800.
G3 X-106.81 Y79.849 Z-1.96 I24.696 J-24.696
X-100.705 Y71.619 I30.8 J16.466 F1600.
G1 X-81.802 Y52.716
G2 X-77.152 Y41.491 I-11.225 J-11.225
G1 Y31.75
G3 X-54.928 Y9.525 I22.225 J0.
G1 X-26.987
G3 X-4.762 Y31.75 I0. J22.225
G1 Y180.506
G3 X-26.987 Y202.731 I-22.225 J0.
G1 X-54.928
G3 X-77.152 Y180.506 I0. J-22.225
G1 Y151.139
G2 X-81.802 Y139.914 I-15.875 J0.
G1 X-92.522 Y129.194
X-100.705 Y121.011
G3 X-106.81 Y79.849 I24.696 J-24.696
X-100.705 Y71.619 Z-2.005 I30.8 J16.466 F800.
G1 X-81.802 Y52.716 Z-2.122
G2 X-77.152 Y41.491 Z-2.176 I-11.225 J-11.225
G1 Y34.826 Z-2.205
Y31.75 F1600.
G3 X-54.928 Y9.525 I22.225 J0.
G1 X-26.987
G3 X-4.762 Y31.75 I0. J22.225
G1 Y180.506
G3 X-26.987 Y202.731 I-22.225 J0.
G1 X-54.928
G3 X-77.152 Y180.506 I0. J-22.225
G1 Y151.139
G2 X-81.802 Y139.914 I-15.875 J0.
G1 X-100.705 Y121.011
G3 Y71.619 I24.696 J-24.696
G1 X-81.802 Y52.716
G2 X-77.152 Y41.491 I-11.225 J-11.225
G1 Y34.826
Y31.75 Z-2.218 F800.
G3 X-54.928 Y9.525 Z-2.371 I22.225 J0.
G1 X-36.765 Z-2.45
X-26.987 F1600.
G3 X-4.762 Y31.75 I0. J22.225
G1 Y180.506
G3 X-26.987 Y202.731 I-22.225 J0.
G1 X-54.928
G3 X-77.152 Y180.506 I0. J-22.225
G1 Y151.139
G2 X-81.802 Y139.914 I-15.875 J0.
G1 X-100.705 Y121.011
G3 Y71.619 I24.696 J-24.696
G1 X-81.802 Y52.716
G2 X-77.152 Y41.491 I-11.225 J-11.225
G1 Y34.826
Y31.75
G3 X-54.928 Y9.525 I22.225 J0.
G1 X-36.765
X-26.987 Z-2.493 F800.
G3 X-4.762 Y31.75 Z-2.645 I0. J22.225
G1 Y43.211 Z-2.695
Y180.506 F1600.
G3 X-26.987 Y202.731 I-22.225 J0.
G1 X-54.928
G3 X-77.152 Y180.506 I0. J-22.225
G1 Y151.139
G2 X-81.802 Y139.914 I-15.875 J0.
G1 X-100.705 Y121.011
G3 Y71.619 I24.696 J-24.696
G1 X-81.802 Y52.716
G2 X-77.152 Y41.491 I-11.225 J-11.225
G1 Y31.75
G3 X-54.928 Y9.525 I22.225 J0.
G1 X-36.765
X-26.987
G3 X-4.762 Y31.75 I0. J22.225
G1 Y43.211
Y99.36 Z-2.94 F800.
Y180.506 F1600.
G3 X-26.987 Y202.731 I-22.225 J0.
G1 X-54.928
G3 X-77.152 Y180.506 I0. J-22.225
G1 Y151.139
G2 X-81.802 Y139.914 I-15.875 J0.
G1 X-100.705 Y121.011
G3 Y71.619 I24.696 J-24.696
G1 X-81.802 Y52.716
G2 X-77.152 Y41.491 I-11.225 J-11.225
G1 Y31.75
G3 X-54.928 Y9.525 I22.225 J0.
G1 X-26.987
G3 X-4.762 Y31.75 I0. J22.225
G1 Y99.36
Y155.51 Z-3.185 F800.
Y180.506 F1600.
G3 X-26.987 Y202.731 I-22.225 J0.
G1 X-54.928
G3 X-77.152 Y180.506 I0. J-22.225
G1 Y151.139
G2 X-81.802 Y139.914 I-15.875 J0.
G1 X-100.705 Y121.011
G3 Y71.619 I24.696 J-24.696
G1 X-81.802 Y52.716
G2 X-77.152 Y41.491 I-11.225 J-11.225
G1 Y31.75
G3 X-54.928 Y9.525 I22.225 J0.
G1 X-26.987
G3 X-4.762 Y31.75 I0. J22.225
G1 Y99.36
Y155.51
Y180.506 Z-3.294 F800.
G3 X-23.248 Y202.414 Z-3.43 I-22.225 J0.
X-26.987 Y202.731 I-3.74 J-21.908 F1600.
G1 X-54.928
G3 X-77.152 Y180.506 I0. J-22.225
G1 Y151.139
G2 X-81.802 Y139.914 I-15.875 J0.
G1 X-100.705 Y121.011
G3 Y71.619 I24.696 J-24.696
G1 X-81.802 Y52.716
G2 X-77.152 Y41.491 I-11.225 J-11.225
G1 Y31.75
G3 X-54.928 Y9.525 I22.225 J0.
G1 X-26.987
G3 X-4.762 Y31.75 I0. J22.225
G1 Y155.51
Y180.506
G3 X-23.248 Y202.414 I-22.225 J0.
X-26.987 Y202.731 Z-3.446 I-3.74 J-21.908 F800.
G1 X-54.928 Z-3.568
G3 X-74.737 Y190.583 Z-3.675 I0. J-22.225
X-77.152 Y180.506 I19.809 J-10.077 F1600.
G1 Y151.139
G2 X-81.802 Y139.914 I-15.875 J0.
G1 X-100.705 Y121.011
G3 Y71.619 I24.696 J-24.696
G1 X-81.802 Y52.716
G2 X-77.152 Y41.491 I-11.225 J-11.225
G1 Y31.75
G3 X-54.928 Y9.525 I22.225 J0.
G1 X-26.987
G3 X-4.762 Y31.75 I0. J22.225
G1 Y180.506
G3 X-26.987 Y202.731 I-22.225 J0.
G1 X-54.928
G3 X-74.737 Y190.583 I0. J-22.225
X-77.152 Y180.506 Z-3.721 I19.809 J-10.077 F800.
G1 Y151.139 Z-3.849
G2 X-81.802 Y139.914 Z-3.903 I-15.875 J0.
G1 X-84.529 Y137.188 Z-3.92
X-100.705 Y121.011 F1600.
G3 Y71.619 I24.696 J-24.696
G1 X-81.802 Y52.716
G2 X-77.152 Y41.491 I-11.225 J-11.225
G1 Y31.75
G3 X-54.928 Y9.525 I22.225 J0.
G1 X-26.987
G3 X-4.762 Y31.75 I0. J22.225
G1 Y180.506
G3 X-26.987 Y202.731 I-22.225 J0.
G1 X-54.928
G3 X-77.152 Y180.506 I0. J-22.225
G1 Y151.139
G2 X-81.802 Y139.914 I-15.875 J0.
G1 X-84.529 Y137.188
X-100.705 Y121.011 Z-4.02 F800.
G3 X-110.448 Y90.501 Z-4.165 I24.696 J-24.696
X-100.705 Y71.619 I34.438 J5.815 F1600.
G1 X-81.802 Y52.716
G2 X-77.152 Y41.491 I-11.225 J-11.225
G1 Y31.75
G3 X-54.928 Y9.525 I22.225 J0.
G1 X-26.987
G3 X-4.762 Y31.75 I0. J22.225
G1 Y180.506
G3 X-26.987 Y202.731 I-22.225 J0.
G1 X-54.928
G3 X-77.152 Y180.506 I0. J-22.225
G1 Y151.139
G2 X-81.802 Y139.914 I-15.875 J0.
G1 X-100.705 Y121.011
G3 X-110.448 Y90.501 I24.696 J-24.696
X-100.705 Y71.619 Z-4.259 I34.438 J5.815 F800.
G1 X-81.802 Y52.716 Z-4.376
G2 X-77.826 Y46.065 Z-4.41 I-11.225 J-11.225
X-77.152 Y41.491 I-15.202 J-4.575 F1600.
G1 Y31.75
G3 X-54.928 Y9.525 I22.225 J0.
G1 X-26.987
G3 X-4.762 Y31.75 I0. J22.225
G1 Y180.506
G3 X-26.987 Y202.731 I-22.225 J0.
G1 X-54.928
G3 X-77.152 Y180.506 I0. J-22.225
G1 Y151.139
G2 X-81.802 Y139.914 I-15.875 J0.
G1 X-100.705 Y121.011
G3 Y71.619 I24.696 J-24.696
G1 X-81.802 Y52.716
G2 X-77.826 Y46.065 I-11.225 J-11.225
X-77.152 Y41.491 Z-4.43 I-15.202 J-4.575 F800.
G1 Y31.75 Z-4.473
G3 X-54.928 Y9.525 Z-4.625 I22.225 J0.
G1 X-48.07 Z-4.655
X-26.987 F1600.
G3 X-4.762 Y31.75 I0. J22.225
G1 Y180.506
G3 X-26.987 Y202.731 I-22.225 J0.
G1 X-54.928
G3 X-77.152 Y180.506 I0. J-22.225
G1 Y151.139
G2 X-81.802 Y139.914 I-15.875 J0.
G1 X-100.705 Y121.011
G3 Y71.619 I24.696 J-24.696
G1 X-81.802 Y52.716
G2 X-77.152 Y41.491 I-11.225 J-11.225
G1 Y31.75
G3 X-54.928 Y9.525 I22.225 J0.
G1 X-48.07
X-26.987 Z-4.747 F800.
G3 X-4.762 Y31.75 Z-4.899 I0. J22.225
G1 Y31.906 Z-4.9
Y180.506 F1600.
G3 X-26.987 Y202.731 I-22.225 J0.
G1 X-54.928
G3 X-77.152 Y180.506 I0. J-22.225
G1 Y151.139
G2 X-81.802 Y139.914 I-15.875 J0.
G1 X-100.705 Y121.011
G3 Y71.619 I24.696 J-24.696
G1 X-81.802 Y52.716
G2 X-77.152 Y41.491 I-11.225 J-11.225
G1 Y31.75
G3 X-54.928 Y9.525 I22.225 J0.
G1 X-26.987
G3 X-4.762 Y31.75 I0. J22.225
G1 Y31.906
Y88.055 Z-5.145 F800.
Y180.506 F1600.
G3 X-26.987 Y202.731 I-22.225 J0.
G1 X-54.928
G3 X-77.152 Y180.506 I0. J-22.225
G1 Y151.139
G2 X-81.802 Y139.914 I-15.875 J0.
G1 X-100.705 Y121.011
G3 Y71.619 I24.696 J-24.696
G1 X-81.802 Y52.716
G2 X-77.152 Y41.491 I-11.225 J-11.225
G1 Y31.75
G3 X-54.928 Y9.525 I22.225 J0.
G1 X-26.987
G3 X-4.762 Y31.75 I0. J22.225
G1 Y88.055
Y144.205 Z-5.39 F800.
Y180.506 F1600.
G3 X-26.987 Y202.731 I-22.225 J0.
G1 X-54.928
G3 X-77.152 Y180.506 I0. J-22.225
G1 Y151.139
G2 X-81.802 Y139.914 I-15.875 J0.
G1 X-100.705 Y121.011
G3 Y71.619 I24.696 J-24.696
G1 X-81.802 Y52.716
G2 X-77.152 Y41.491 I-11.225 J-11.225
G1 Y31.75
G3 X-54.928 Y9.525 I22.225 J0.
G1 X-26.987
G3 X-4.762 Y31.75 I0. J22.225
G1 Y88.055
Y144.205
Y180.506 Z-5.548 F800.
G3 X-13.052 Y197.819 Z-5.635 I-22.225 J0.
X-26.987 Y202.731 I-13.936 J-17.313 F1600.
G1 X-54.928
G3 X-77.152 Y180.506 I0. J-22.225
G1 Y151.139
G2 X-81.802 Y139.914 I-15.875 J0.
G1 X-100.705 Y121.011
G3 Y71.619 I24.696 J-24.696
G1 X-81.802 Y52.716
G2 X-77.152 Y41.491 I-11.225 J-11.225
G1 Y31.75
G3 X-54.928 Y9.525 I22.225 J0.
G1 X-26.987
G3 X-4.762 Y31.75 I0. J22.225
G1 Y144.205
Y180.506
G3 X-13.052 Y197.819 I-22.225 J0.
X-26.987 Y202.731 Z-5.701 I-13.936 J-17.313 F800.
G1 X-54.928 Z-5.823
G3 X-67.321 Y198.955 Z-5.88 I0. J-22.225
X-77.152 Y180.506 I12.394 J-18.449 F1600.
G1 Y151.139
G2 X-81.802 Y139.914 I-15.875 J0.
G1 X-100.705 Y121.011
G3 Y71.619 I24.696 J-24.696
G1 X-81.802 Y52.716
G2 X-77.152 Y41.491 I-11.225 J-11.225
G1 Y31.75
G3 X-54.928 Y9.525 I22.225 J0.
G1 X-26.987
G3 X-4.762 Y31.75 I0. J22.225
G1 Y180.506
G3 X-26.987 Y202.731 I-22.225 J0.
G1 X-54.928
G3 X-67.321 Y198.955 I0. J-22.225
X-77.152 Y180.506 Z-5.975 I12.394 J-18.449 F800.
G1 Y151.139 Z-6.103
G2 X-77.939 Y146.204 Z-6.125 I-15.875 J0.
X-81.802 Y139.914 I-15.088 J4.936 F1600.
G1 X-100.705 Y121.011
G3 Y71.619 I24.696 J-24.696
G1 X-81.802 Y52.716
G2 X-77.152 Y41.491 I-11.225 J-11.225
G1 Y31.75
G3 X-54.928 Y9.525 I22.225 J0.
G1 X-26.987
G3 X-4.762 Y31.75 I0. J22.225
G1 Y180.506
G3 X-26.987 Y202.731 I-22.225 J0.
G1 X-54.928
G3 X-77.152 Y180.506 I0. J-22.225
G1 Y151.139
G2 X-77.939 Y146.204 I-15.875 J0.
X-81.802 Y139.914 Z-6.158 I-15.088 J4.936 F800.
G1 X-100.705 Y121.011 Z-6.274
G3 X-110.509 Y101.756 Z-6.37 I24.696 J-24.696
X-100.705 Y71.619 I34.499 J-5.441 F1600.
G1 X-81.802 Y52.716
G2 X-77.152 Y41.491 I-11.225 J-11.225
G1 Y31.75
G3 X-54.928 Y9.525 I22.225 J0.
G1 X-26.987
G3 X-4.762 Y31.75 I0. J22.225
G1 Y180.506
G3 X-26.987 Y202.731 I-22.225 J0.
G1 X-54.928
G3 X-77.152 Y180.506 I0. J-22.225
G1 Y151.139
G2 X-81.802 Y139.914 I-15.875 J0.
G1 X-100.705 Y121.011
G3 X-110.509 Y101.756 I24.696 J-24.696
X-100.705 Y71.619 Z-6.514 I34.499 J-5.441 F800.
G1 X-84.261 Y55.175 Z-6.615
X-81.802 Y52.716 F1600.
G2 X-77.152 Y41.491 I-11.225 J-11.225
G1 Y31.75
G3 X-54.928 Y9.525 I22.225 J0.
G1 X-26.987
G3 X-4.762 Y31.75 I0. J22.225
G1 Y180.506
G3 X-26.987 Y202.731 I-22.225 J0.
G1 X-54.928
G3 X-77.152 Y180.506 I0. J-22.225
G1 Y151.139
G2 X-81.802 Y139.914 I-15.875 J0.
G1 X-100.705 Y121.011
G3 Y71.619 I24.696 J-24.696
G1 X-84.261 Y55.175
X-81.802 Y52.716 Z-6.63 F800.
G2 X-77.152 Y41.491 Z-6.685 I-11.225 J-11.225
G1 Y31.75 Z-6.727
G3 X-59.345 Y9.968 Z-6.86 I22.225 J0.
X-54.928 Y9.525 I4.418 J21.782 F1600.
G1 X-26.987
G3 X-4.762 Y31.75 I0. J22.225
G1 Y180.506
G3 X-26.987 Y202.731 I-22.225 J0.
G1 X-54.928
G3 X-77.152 Y180.506 I0. J-22.225
G1 Y151.139
G2 X-81.802 Y139.914 I-15.875 J0.
G1 X-100.705 Y121.011
G3 Y71.619 I24.696 J-24.696
G1 X-84.261 Y55.175
X-81.802 Y52.716
G2 X-77.152 Y41.491 I-11.225 J-11.225
G1 Y31.75
G3 X-59.345 Y9.968 I22.225 J0.
X-54.928 Y9.525 Z-6.879 I4.418 J21.782 F800.
G1 X-26.987 Z-7.001
G3 X-7.501 Y21.063 Z-7.105 I0. J22.225
X-4.762 Y31.75 I-19.487 J10.687 F1600.
G1 Y180.506
G3 X-26.987 Y202.731 I-22.225 J0.
G1 X-54.928
G3 X-77.152 Y180.506 I0. J-22.225
G1 Y151.139
G2 X-81.802 Y139.914 I-15.875 J0.
G1 X-100.705 Y121.011
G3 Y71.619 I24.696 J-24.696
G1 X-81.802 Y52.716
G2 X-77.152 Y41.491 I-11.225 J-11.225
G1 Y31.75
G3 X-54.928 Y9.525 I22.225 J0.
G1 X-26.987
G3 X-7.501 Y21.063 I0. J22.225
X-4.762 Y31.75 Z-7.154 I-19.487 J10.687 F800.
G1 Y76.751 Z-7.35
Y180.506 F1600.
G3 X-26.987 Y202.731 I-22.225 J0.
G1 X-54.928
G3 X-77.152 Y180.506 I0. J-22.225
G1 Y151.139
G2 X-81.802 Y139.914 I-15.875 J0.
G1 X-100.705 Y121.011
G3 Y71.619 I24.696 J-24.696
G1 X-81.802 Y52.716
G2 X-77.152 Y41.491 I-11.225 J-11.225
G1 Y31.75
G3 X-54.928 Y9.525 I22.225 J0.
G1 X-26.987
G3 X-4.762 Y31.75 I0. J22.225
G1 Y76.751
G2 X-4.128 Y77.386 I0.635 J0.
G1 X-3.493
G18 G2 X-2.858 Z-6.715 I0. K0.635
G1 Z3.135
X2.858 Y111.454
G2 X3.493 Z2.5 I0.635 K0. F800.
G1 X4.128 F1600.
G17 G2 X4.762 Y110.819 I0. J-0.635
G1 Y31.75 Z2.155 F800.
G3 X26.987 Y9.525 Z2.003 I22.225 J0.
G1 X54.928 Z1.881
G3 X77.152 Y31.75 Z1.728 I0. J22.225
G1 Y41.491 Z1.686
G2 X81.802 Y52.716 Z1.632 I15.875 J0.
G1 X100.705 Y71.619 Z1.515
G3 Y121.011 Z1.275 I-24.696 J24.696
G1 X81.802 Y139.914 Z1.159
G2 X77.152 Y151.139 Z1.104 I11.225 J11.225
G1 Y180.506 Z0.976
G3 X54.928 Y202.731 Z0.824 I-22.225 J0.
G1 X26.987 Z0.702
G3 X4.762 Y180.506 Z0.55 I0. J-22.225
G1 Y31.75 Z-0.099
G3 X25.462 Y9.577 Z-0.245 I22.225 J0.
X26.987 Y9.525 I1.526 J22.173 F1600.
G1 X54.928
G3 X77.152 Y31.75 I0. J22.225
G1 Y41.491
G2 X81.802 Y52.716 I15.875 J0.
G1 X100.705 Y71.619
G3 Y121.011 I-24.696 J24.696
G1 X81.802 Y139.914
G2 X77.152 Y151.139 I11.225 J11.225
G1 Y180.506
G3 X54.928 Y202.731 I-22.225 J0.
G1 X26.987
G3 X4.762 Y180.506 I0. J-22.225
G1 Y31.75
G3 X25.462 Y9.577 I22.225 J0.
X26.987 Y9.525 Z-0.252 I1.526 J22.173 F800.
G1 X54.928 Z-0.374
G3 X75.647 Y23.708 Z-0.49 I0. J22.225
X77.152 Y31.75 I-20.719 J8.042 F1600.
G1 Y41.491
G2 X81.802 Y52.716 I15.875 J0.
G1 X100.705 Y71.619
G3 Y121.011 I-24.696 J24.696
G1 X81.802 Y139.914
G2 X77.152 Y151.139 I11.225 J11.225
G1 Y180.506
G3 X54.928 Y202.731 I-22.225 J0.
G1 X26.987
G3 X4.762 Y180.506 I0. J-22.225
G1 Y31.75
G3 X26.987 Y9.525 I22.225 J0.
G1 X54.928
G3 X75.647 Y23.708 I0. J22.225
X77.152 Y31.75 Z-0.526 I-20.719 J8.042 F800.
G1 Y41.491 Z-0.568
G2 X81.802 Y52.716 Z-0.623 I15.875 J0.
G1 X99.983 Y70.897 Z-0.735
X100.705 Y71.619 F1600.
G3 Y121.011 I-24.696 J24.696
G1 X81.802 Y139.914
G2 X77.152 Y151.139 I11.225 J11.225
G1 Y180.506
G3 X54.928 Y202.731 I-22.225 J0.
G1 X26.987
G3 X4.762 Y180.506 I0. J-22.225
G1 Y31.75
G3 X26.987 Y9.525 I22.225 J0.
G1 X54.928
G3 X77.152 Y31.75 I0. J22.225
G1 Y41.491
G2 X81.802 Y52.716 I15.875 J0.
G1 X99.983 Y70.897
X100.705 Y71.619 Z-0.739 F800.
G3 Y121.011 Z-0.979 I-24.696 J24.696
G1 X100.516 Y121.2 Z-0.98
X81.802 Y139.914 F1600.
G2 X77.152 Y151.139 I11.225 J11.225
G1 Y180.506
G3 X54.928 Y202.731 I-22.225 J0.
G1 X26.987
G3 X4.762 Y180.506 I0. J-22.225
G1 Y31.75
G3 X26.987 Y9.525 I22.225 J0.
G1 X54.928
G3 X77.152 Y31.75 I0. J22.225
G1 Y41.491
G2 X81.802 Y52.716 I15.875 J0.
G1 X99.983 Y70.897
X100.705 Y71.619
G3 Y121.011 I-24.696 J24.696
G1 X100.516 Y121.2
X81.802 Y139.914 Z-1.095 F800.
G2 X77.152 Y151.139 Z-1.15 I11.225 J11.225
G1 Y168.355 Z-1.225
Y180.506 F1600.
G3 X54.928 Y202.731 I-22.225 J0.
G1 X26.987
G3 X4.762 Y180.506 I0. J-22.225
G1 Y31.75
G3 X26.987 Y9.525 I22.225 J0.
G1 X54.928
G3 X77.152 Y31.75 I0. J22.225
G1 Y41.491
G2 X81.802 Y52.716 I15.875 J0.
G1 X100.705 Y71.619
G3 Y121.011 I-24.696 J24.696
G1 X81.802 Y139.914
G2 X77.152 Y151.139 I11.225 J11.225
G1 Y168.355
Y180.506 Z-1.278 F800.
G3 X54.928 Y202.731 Z-1.43 I-22.225 J0.
G1 X45.839 Z-1.47
X26.987 F1600.
G3 X4.762 Y180.506 I0. J-22.225
G1 Y31.75
G3 X26.987 Y9.525 I22.225 J0.
G1 X54.928
G3 X77.152 Y31.75 I0. J22.225
G1 Y41.491
G2 X81.802 Y52.716 I15.875 J0.
G1 X100.705 Y71.619
G3 Y121.011 I-24.696 J24.696
G1 X81.802 Y139.914
G2 X77.152 Y151.139 I11.225 J11.225
G1 Y168.355
Y180.506
G3 X54.928 Y202.731 I-22.225 J0.
G1 X45.839
X26.987 Z-1.552 F800.
G3 X4.762 Y180.506 Z-1.705 I0. J-22.225
G1 Y178.119 Z-1.715
Y31.75 F1600.
G3 X26.987 Y9.525 I22.225 J0.
G1 X54.928
G3 X77.152 Y31.75 I0. J22.225
G1 Y41.491
G2 X81.802 Y52.716 I15.875 J0.
G1 X100.705 Y71.619
G3 Y121.011 I-24.696 J24.696
G1 X81.802 Y139.914
G2 X77.152 Y151.139 I11.225 J11.225
G1 Y180.506
G3 X54.928 Y202.731 I-22.225 J0.
G1 X26.987
G3 X4.762 Y180.506 I0. J-22.225
G1 Y178.119
Y121.97 Z-1.96 F800.
Y31.75 F1600.
G3 X26.987 Y9.525 I22.225 J0.
G1 X54.928
G3 X77.152 Y31.75 I0. J22.225
G1 Y41.491
G2 X81.802 Y52.716 I15.875 J0.
G1 X100.705 Y71.619
G3 Y121.011 I-24.696 J24.696
G1 X81.802 Y139.914
G2 X77.152 Y151.139 I11.225 J11.225
G1 Y180.506
G3 X54.928 Y202.731 I-22.225 J0.
G1 X26.987
G3 X4.762 Y180.506 I0. J-22.225
G1 Y121.97
Y65.82 Z-2.205 F800.
Y31.75 F1600.
G3 X26.987 Y9.525 I22.225 J0.
G1 X54.928
G3 X77.152 Y31.75 I0. J22.225
G1 Y41.491
G2 X81.802 Y52.716 I15.875 J0.
G1 X100.705 Y71.619
G3 Y121.011 I-24.696 J24.696
G1 X81.802 Y139.914
G2 X77.152 Y151.139 I11.225 J11.225
G1 Y180.506
G3 X54.928 Y202.731 I-22.225 J0.
G1 X26.987
G3 X4.762 Y180.506 I0. J-22.225
G1 Y121.97
Y65.82
Y31.75 Z-2.354 F800.
G3 X14.857 Y13.128 Z-2.45 I22.225 J0.
X26.987 Y9.525 I12.131 J18.622 F1600.
G1 X54.928
G3 X77.152 Y31.75 I0. J22.225
G1 Y41.491
G2 X81.802 Y52.716 I15.875 J0.
G1 X100.705 Y71.619
G3 Y121.011 I-24.696 J24.696
G1 X81.802 Y139.914
G2 X77.152 Y151.139 I11.225 J11.225
G1 Y180.506
G3 X54.928 Y202.731 I-22.225 J0.
G1 X26.987
G3 X4.762 Y180.506 I0. J-22.225
G1 Y65.82
Y31.75
G3 X14.857 Y13.128 I22.225 J0.
X26.987 Y9.525 Z-2.506 I12.131 J18.622 F800.
G1 X54.928 Z-2.628
G3 X69.107 Y14.636 Z-2.695 I0. J22.225
X77.152 Y31.75 I-14.18 J17.114 F1600.
G1 Y41.491
G2 X81.802 Y52.716 I15.875 J0.
G1 X100.705 Y71.619
G3 Y121.011 I-24.696 J24.696
G1 X81.802 Y139.914
G2 X77.152 Y151.139 I11.225 J11.225
G1 Y180.506
G3 X54.928 Y202.731 I-22.225 J0.
G1 X26.987
G3 X4.762 Y180.506 I0. J-22.225
G1 Y31.75
G3 X26.987 Y9.525 I22.225 J0.
G1 X54.928
G3 X69.107 Y14.636 I0. J22.225
X77.152 Y31.75 Z-2.78 I-14.18 J17.114 F800.
G1 Y41.491 Z-2.823
G2 X81.802 Y52.716 Z-2.877 I15.875 J0.
G1 X91.99 Y62.904 Z-2.94
X100.705 Y71.619 F1600.
G3 Y121.011 I-24.696 J24.696
G1 X81.802 Y139.914
G2 X77.152 Y151.139 I11.225 J11.225
G1 Y180.506
G3 X54.928 Y202.731 I-22.225 J0.
G1 X26.987
G3 X4.762 Y180.506 I0. J-22.225
G1 Y31.75
G3 X26.987 Y9.525 I22.225 J0.
G1 X54.928
G3 X77.152 Y31.75 I0. J22.225
G1 Y41.491
G2 X81.802 Y52.716 I15.875 J0.
G1 X91.99 Y62.904
X100.705 Y71.619 Z-2.994 F800.
G3 X107.158 Y112.113 Z-3.185 I-24.696 J24.696
X100.705 Y121.011 I-31.148 J-15.798 F1600.
G1 X81.802 Y139.914
G2 X77.152 Y151.139 I11.225 J11.225
G1 Y180.506
G3 X54.928 Y202.731 I-22.225 J0.
G1 X26.987
G3 X4.762 Y180.506 I0. J-22.225
G1 Y31.75
G3 X26.987 Y9.525 I22.225 J0.
G1 X54.928
G3 X77.152 Y31.75 I0. J22.225
G1 Y41.491
G2 X81.802 Y52.716 I15.875 J0.
G1 X91.99 Y62.904
X100.705 Y71.619
G3 X107.158 Y112.113 I-24.696 J24.696
X100.705 Y121.011 Z-3.233 I-31.148 J-15.798 F800.
G1 X81.802 Y139.914 Z-3.35
G2 X77.152 Y151.139 Z-3.404 I11.225 J11.225
G1 Y157.051 Z-3.43
Y180.506 F1600.
G3 X54.928 Y202.731 I-22.225 J0.
G1 X26.987
G3 X4.762 Y180.506 I0. J-22.225
G1 Y31.75
G3 X26.987 Y9.525 I22.225 J0.
G1 X54.928
G3 X77.152 Y31.75 I0. J22.225
G1 Y41.491
G2 X81.802 Y52.716 I15.875 J0.
G1 X100.705 Y71.619
G3 Y121.011 I-24.696 J24.696
G1 X81.802 Y139.914
G2 X77.152 Y151.139 I11.225 J11.225
G1 Y157.051
Y180.506 Z-3.532 F800.
G3 X57.141 Y202.621 Z-3.675 I-22.225 J0.
X54.928 Y202.731 I-2.213 J-22.115 F1600.
G1 X26.987
G3 X4.762 Y180.506 I0. J-22.225
G1 Y31.75
G3 X26.987 Y9.525 I22.225 J0.
G1 X54.928
G3 X77.152 Y31.75 I0. J22.225
G1 Y41.491
G2 X81.802 Y52.716 I15.875 J0.
G1 X100.705 Y71.619
G3 Y121.011 I-24.696 J24.696
G1 X81.802 Y139.914
G2 X77.152 Y151.139 I11.225 J11.225
G1 Y180.506
G3 X57.141 Y202.621 I-22.225 J0.
X54.928 Y202.731 Z-3.685 I-2.213 J-22.115 F800.
G1 X26.987 Z-3.807
G3 X6.528 Y189.187 Z-3.92 I0. J-22.225
X4.762 Y180.506 I20.46 J-8.681 F1600.
G1 Y31.75
G3 X26.987 Y9.525 I22.225 J0.
G1 X54.928
G3 X77.152 Y31.75 I0. J22.225
G1 Y41.491
G2 X81.802 Y52.716 I15.875 J0.
G1 X100.705 Y71.619
G3 Y121.011 I-24.696 J24.696
G1 X81.802 Y139.914
G2 X77.152 Y151.139 I11.225 J11.225
G1 Y180.506
G3 X54.928 Y202.731 I-22.225 J0.
G1 X26.987
G3 X6.528 Y189.187 I0. J-22.225
X4.762 Y180.506 Z-3.959 I20.46 J-8.681 F800.
G1 Y133.275 Z-4.165
Y31.75 F1600.
G3 X26.987 Y9.525 I22.225 J0.
G1 X54.928
G3 X77.152 Y31.75 I0. J22.225
G1 Y41.491
G2 X81.802 Y52.716 I15.875 J0.
G1 X100.705 Y71.619
G3 Y121.011 I-24.696 J24.696
G1 X81.802 Y139.914
G2 X77.152 Y151.139 I11.225 J11.225
G1 Y180.506
G3 X54.928 Y202.731 I-22.225 J0.
G1 X26.987
G3 X4.762 Y180.506 I0. J-22.225
G1 Y133.275
Y77.125 Z-4.41 F800.
Y31.75 F1600.
G3 X26.987 Y9.525 I22.225 J0.
G1 X54.928
G3 X77.152 Y31.75 I0. J22.225
G1 Y41.491
G2 X81.802 Y52.716 I15.875 J0.
G1 X100.705 Y71.619
G3 Y121.011 I-24.696 J24.696
G1 X81.802 Y139.914
G2 X77.152 Y151.139 I11.225 J11.225
G1 Y180.506
G3 X54.928 Y202.731 I-22.225 J0.
G1 X26.987
G3 X4.762 Y180.506 I0. J-22.225
G1 Y77.125
Y31.75 Z-4.608 F800.
G3 X7.323 Y21.393 Z-4.655 I22.225 J0.
X26.987 Y9.525 I19.664 J10.357 F1600.
G1 X54.928
G3 X77.152 Y31.75 I0. J22.225
G1 Y41.491
G2 X81.802 Y52.716 I15.875 J0.
G1 X100.705 Y71.619
G3 Y121.011 I-24.696 J24.696
G1 X81.802 Y139.914
G2 X77.152 Y151.139 I11.225 J11.225
G1 Y180.506
G3 X54.928 Y202.731 I-22.225 J0.
G1 X26.987
G3 X4.762 Y180.506 I0. J-22.225
G1 Y77.125
Y31.75
G3 X7.323 Y21.393 I22.225 J0.
X26.987 Y9.525 Z-4.76 I19.664 J10.357 F800.
G1 X54.928 Z-4.882
G3 X58.978 Y9.897 Z-4.9 I0. J22.225
X77.152 Y31.75 I-4.05 J21.853 F1600.
G1 Y41.491
G2 X81.802 Y52.716 I15.875 J0.
G1 X100.705 Y71.619
G3 Y121.011 I-24.696 J24.696
G1 X81.802 Y139.914
G2 X77.152 Y151.139 I11.225 J11.225
G1 Y180.506
G3 X54.928 Y202.731 I-22.225 J0.
G1 X26.987
G3 X4.762 Y180.506 I0. J-22.225
G1 Y31.75
G3 X26.987 Y9.525 I22.225 J0.
G1 X54.928
G3 X58.978 Y9.897 I0. J22.225
X77.152 Y31.75 Z-5.035 I-4.05 J21.853 F800.
G1 Y41.491 Z-5.077
G2 X81.802 Y52.716 Z-5.131 I15.875 J0.
G1 X83.996 Y54.91 Z-5.145
X100.705 Y71.619 F1600.
G3 Y121.011 I-24.696 J24.696
G1 X81.802 Y139.914
G2 X77.152 Y151.139 I11.225 J11.225
G1 Y180.506
G3 X54.928 Y202.731 I-22.225 J0.
G1 X26.987
G3 X4.762 Y180.506 I0. J-22.225
G1 Y31.75
G3 X26.987 Y9.525 I22.225 J0.
G1 X54.928
G3 X77.152 Y31.75 I0. J22.225
G1 Y41.491
G2 X81.802 Y52.716 I15.875 J0.
G1 X83.996 Y54.91
X100.705 Y71.619 Z-5.248 F800.
G3 X110.565 Y101.386 Z-5.39 I-24.696 J24.696
X100.705 Y121.011 I-34.555 J-5.071 F1600.
G1 X81.802 Y139.914
G2 X77.152 Y151.139 I11.225 J11.225
G1 Y180.506
G3 X54.928 Y202.731 I-22.225 J0.
G1 X26.987
G3 X4.762 Y180.506 I0. J-22.225
G1 Y31.75
G3 X26.987 Y9.525 I22.225 J0.
G1 X54.928
G3 X77.152 Y31.75 I0. J22.225
G1 Y41.491
G2 X81.802 Y52.716 I15.875 J0.
G1 X100.705 Y71.619
G3 X110.565 Y101.386 I-24.696 J24.696
X100.705 Y121.011 Z-5.487 I-34.555 J-5.071 F800.
G1 X81.802 Y139.914 Z-5.604
G2 X78.06 Y145.849 Z-5.635 I11.225 J11.225
X77.152 Y151.139 I14.967 J5.29 F1600.
G1 Y180.506
G3 X54.928 Y202.731 I-22.225 J0.
G1 X26.987
G3 X4.762 Y180.506 I0. J-22.225
G1 Y31.75
G3 X26.987 Y9.525 I22.225 J0.
G1 X54.928
G3 X77.152 Y31.75 I0. J22.225
G1 Y41.491
G2 X81.802 Y52.716 I15.875 J0.
G1 X100.705 Y71.619
G3 Y121.011 I-24.696 J24.696
G1 X81.802 Y139.914
G2 X78.06 Y145.849 I11.225 J11.225
X77.152 Y151.139 Z-5.659 I14.967 J5.29 F800.
G1 Y180.506 Z-5.787
G3 X67.63 Y198.743 Z-5.88 I-22.225 J0.
X54.928 Y202.731 I-12.703 J-18.237 F1600.
G1 X26.987
G3 X4.762 Y180.506 I0. J-22.225
G1 Y31.75
G3 X26.987 Y9.525 I22.225 J0.
G1 X54.928
G3 X77.152 Y31.75 I0. J22.225
G1 Y41.491
G2 X81.802 Y52.716 I15.875 J0.
G1 X100.705 Y71.619
G3 Y121.011 I-24.696 J24.696
G1 X81.802 Y139.914
G2 X77.152 Y151.139 I11.225 J11.225
G1 Y180.506
G3 X67.63 Y198.743 I-22.225 J0.
X54.928 Y202.731 Z-5.939 I-12.703 J-18.237 F800.
G1 X26.987 Z-6.061
G3 X13.346 Y198.052 Z-6.125 I0. J-22.225
X4.762 Y180.506 I13.642 J-17.546 F1600.
G1 Y31.75
G3 X26.987 Y9.525 I22.225 J0.
G1 X54.928
G3 X77.152 Y31.75 I0. J22.225
G1 Y41.491
G2 X81.802 Y52.716 I15.875 J0.
G1 X100.705 Y71.619
G3 Y121.011 I-24.696 J24.696
G1 X81.802 Y139.914
G2 X77.152 Y151.139 I11.225 J11.225
G1 Y180.506
G3 X54.928 Y202.731 I-22.225 J0.
G1 X26.987
G3 X13.346 Y198.052 I0. J-22.225
X4.762 Y180.506 Z-6.213 I13.642 J-17.546 F800.
G1 Y144.58 Z-6.37
Y31.75 F1600.
G3 X26.987 Y9.525 I22.225 J0.
G1 X54.928
G3 X77.152 Y31.75 I0. J22.225
G1 Y41.491
G2 X81.802 Y52.716 I15.875 J0.
G1 X100.705 Y71.619
G3 Y121.011 I-24.696 J24.696
G1 X81.802 Y139.914
G2 X77.152 Y151.139 I11.225 J11.225
G1 Y180.506
G3 X54.928 Y202.731 I-22.225 J0.
G1 X26.987
G3 X4.762 Y180.506 I0. J-22.225
G1 Y144.58
Y88.43 Z-6.615 F800.
Y31.75 F1600.
G3 X26.987 Y9.525 I22.225 J0.
G1 X54.928
G3 X77.152 Y31.75 I0. J22.225
G1 Y41.491
G2 X81.802 Y52.716 I15.875 J0.
G1 X100.705 Y71.619
G3 Y121.011 I-24.696 J24.696
G1 X81.802 Y139.914
G2 X77.152 Y151.139 I11.225 J11.225
G1 Y180.506
G3 X54.928 Y202.731 I-22.225 J0.
G1 X26.987
G3 X4.762 Y180.506 I0. J-22.225
G1 Y88.43
Y32.281 Z-6.86 F800.
Y31.75 F1600.
G3 X26.987 Y9.525 I22.225 J0.
G1 X54.928
G3 X77.152 Y31.75 I0. J22.225
G1 Y41.491
G2 X81.802 Y52.716 I15.875 J0.
G1 X100.705 Y71.619
G3 Y121.011 I-24.696 J24.696
G1 X81.802 Y139.914
G2 X77.152 Y151.139 I11.225 J11.225
G1 Y180.506
G3 X54.928 Y202.731 I-22.225 J0.
G1 X26.987
G3 X4.762 Y180.506 I0. J-22.225
G1 Y88.43
Y32.281
Y31.75 Z-6.862 F800.
G3 X26.987 Y9.525 Z-7.015 I22.225 J0.
G1 X47.696 Z-7.105
X54.928 F1600.
G3 X77.152 Y31.75 I0. J22.225
G1 Y41.491
G2 X81.802 Y52.716 I15.875 J0.
G1 X100.705 Y71.619
G3 Y121.011 I-24.696 J24.696
G1 X81.802 Y139.914
G2 X77.152 Y151.139 I11.225 J11.225
G1 Y180.506
G3 X54.928 Y202.731 I-22.225 J0.
G1 X26.987
G3 X4.762 Y180.506 I0. J-22.225
G1 Y32.281
Y31.75
G3 X26.987 Y9.525 I22.225 J0.
G1 X47.696
X54.928 Z-7.137 F800.
G3 X77.152 Y31.75 Z-7.289 I0. J22.225
G1 Y41.491 Z-7.331
G2 X77.722 Y45.705 Z-7.35 I15.875 J0.
X81.802 Y52.716 I15.305 J-4.215 F1600.
G1 X100.705 Y71.619
G3 Y121.011 I-24.696 J24.696
G1 X81.802 Y139.914
G2 X77.152 Y151.139 I11.225 J11.225
G1 Y180.506
G3 X54.928 Y202.731 I-22.225 J0.
G1 X26.987
G3 X4.762 Y180.506 I0. J-22.225
G1 Y31.75
G3 X26.987 Y9.525 I22.225 J0.
G1 X47.696
X54.928
G3 X77.152 Y31.75 I0. J22.225
G1 Y41.491
G2 X77.722 Y45.705 I15.875 J0.
X78.503 Y46.149 I0.612 J-0.169
G1 X79.115 Y45.98
X79.211 Y45.954 Z-7.342
X79.304 Y45.928 Z-7.319
X79.393 Y45.904 Z-7.281
X79.475 Y45.881 Z-7.229
X79.548 Y45.861 Z-7.164
X79.611 Y45.844 Z-7.088
X79.661 Y45.83 Z-7.003
X79.698 Y45.82 Z-6.911
X79.72 Y45.814 Z-6.814
X79.727 Y45.812 Z-6.715
G0 Z15.
M5
G0 Z15
G0 X0 Y0

M30
