(1001)
(T1  D=6.35 CR=0. - ZMIN=20.725 - FLAT END MILL)
G90 G94 G91.1 G40 G49 G17
G21
(4TH HOLE )
G0 Z15

(BORE8)
M5
T1 M6
S16000 M3
G54
M8
G0 X120.473 Y-90.983
G43 Z81.4 H1
Z27.765
G1 Z26.4 F800.
Y-91.301
G2 X120.275 Y-91.499 I-0.198 J0.
Y-90.705 Z26.338 I0. J0.397
Y-91.499 Z26.275 I0. J-0.397
Y-90.705 Z26.213 I0. J0.397
Y-91.499 Z26.151 I0. J-0.397
Y-90.705 Z26.088 I0. J0.397
Y-91.499 Z26.026 I0. J-0.397
Y-90.705 Z25.964 I0. J0.397
Y-91.499 Z25.901 I0. J-0.397
Y-90.705 Z25.839 I0. J0.397
Y-91.499 Z25.777 I0. J-0.397
Y-90.705 Z25.714 I0. J0.397
Y-91.499 Z25.652 I0. J-0.397
Y-90.705 Z25.589 I0. J0.397
Y-91.499 Z25.527 I0. J-0.397
Y-90.705 Z25.465 I0. J0.397
Y-91.499 Z25.402 I0. J-0.397
Y-90.705 Z25.34 I0. J0.397
Y-91.499 Z25.278 I0. J-0.397
Y-90.705 Z25.215 I0. J0.397
Y-91.499 Z25.153 I0. J-0.397
Y-90.705 Z25.091 I0. J0.397
Y-91.499 Z25.028 I0. J-0.397
Y-90.705 Z24.966 I0. J0.397
Y-91.499 Z24.904 I0. J-0.397
Y-90.705 Z24.841 I0. J0.397
Y-91.499 Z24.779 I0. J-0.397
Y-90.705 Z24.717 I0. J0.397
Y-91.499 Z24.654 I0. J-0.397
Y-90.705 Z24.592 I0. J0.397
Y-91.499 Z24.53 I0. J-0.397
Y-90.705 Z24.467 I0. J0.397
Y-91.499 Z24.405 I0. J-0.397
Y-90.705 Z24.343 I0. J0.397
Y-91.499 Z24.28 I0. J-0.397
Y-90.705 Z24.218 I0. J0.397
Y-91.499 Z24.155 I0. J-0.397
Y-90.705 Z24.093 I0. J0.397
Y-91.499 Z24.031 I0. J-0.397
Y-90.705 Z23.968 I0. J0.397
Y-91.499 Z23.906 I0. J-0.397
Y-90.705 Z23.844 I0. J0.397
Y-91.499 Z23.781 I0. J-0.397
Y-90.705 Z23.719 I0. J0.397
Y-91.499 Z23.657 I0. J-0.397
Y-90.705 Z23.594 I0. J0.397
Y-91.499 Z23.532 I0. J-0.397
Y-90.705 Z23.47 I0. J0.397
Y-91.499 Z23.407 I0. J-0.397
Y-90.705 Z23.345 I0. J0.397
Y-91.499 Z23.283 I0. J-0.397
Y-90.705 Z23.22 I0. J0.397
Y-91.499 Z23.158 I0. J-0.397
Y-90.705 Z23.096 I0. J0.397
Y-91.499 Z23.033 I0. J-0.397
Y-90.705 Z22.971 I0. J0.397
Y-91.499 Z22.909 I0. J-0.397
Y-90.705 Z22.846 I0. J0.397
Y-91.499 Z22.784 I0. J-0.397
Y-90.705 Z22.722 I0. J0.397
Y-91.499 Z22.659 I0. J-0.397
Y-90.705 Z22.597 I0. J0.397
Y-91.499 Z22.534 I0. J-0.397
Y-90.705 Z22.472 I0. J0.397
Y-91.499 Z22.41 I0. J-0.397
Y-90.705 Z22.347 I0. J0.397
Y-91.499 Z22.285 I0. J-0.397
Y-90.705 Z22.223 I0. J0.397
Y-91.499 Z22.16 I0. J-0.397
Y-90.705 Z22.098 I0. J0.397
Y-91.499 Z22.036 I0. J-0.397
Y-90.705 Z21.973 I0. J0.397
Y-91.499 Z21.911 I0. J-0.397
Y-90.705 Z21.849 I0. J0.397
Y-91.499 Z21.786 I0. J-0.397
Y-90.705 Z21.724 I0. J0.397
Y-91.499 Z21.662 I0. J-0.397
Y-90.705 Z21.599 I0. J0.397
Y-91.499 Z21.537 I0. J-0.397
Y-90.705 Z21.475 I0. J0.397
Y-91.499 Z21.412 I0. J-0.397
Y-90.705 Z21.35 I0. J0.397
Y-91.499 Z21.288 I0. J-0.397
Y-90.705 Z21.225 I0. J0.397
Y-91.499 Z21.163 I0. J-0.397
Y-90.705 Z21.1 I0. J0.397
Y-91.499 Z21.038 I0. J-0.397
Y-90.705 Z20.976 I0. J0.397
Y-91.499 Z20.913 I0. J-0.397
Y-90.705 Z20.851 I0. J0.397
Y-91.499 Z20.789 I0. J-0.397
X119.878 Y-91.088 Z20.757 I0. J0.397
X120.303 Y-90.706 Z20.725 I0.397 J-0.014
X120.247 Y-91.498 I-0.028 J-0.396
X120.303 Y-90.706 I0.028 J0.396
X120.487 Y-90.918 I-0.014 J-0.198
G1 X120.465 Y-91.235
G0 Z71.4
X120.91 Y-79.719
Z28.4
G1 Z27.035 F800.
G19 G2 Y-80.354 Z26.4 J-0.635 K0.
G1 Y-80.671
G17 G2 X120.275 Y-81.306 I-0.635 J0.
Y-74.956 Z26.289 I0. J3.175
Y-81.306 Z26.178 I0. J-3.175
Y-74.956 Z26.067 I0. J3.175
Y-81.306 Z25.957 I0. J-3.175
Y-74.956 Z25.846 I0. J3.175
Y-81.306 Z25.735 I0. J-3.175
Y-74.956 Z25.624 I0. J3.175
Y-81.306 Z25.513 I0. J-3.175
Y-74.956 Z25.402 I0. J3.175
Y-81.306 Z25.292 I0. J-3.175
Y-74.956 Z25.181 I0. J3.175
Y-81.306 Z25.07 I0. J-3.175
Y-74.956 Z24.959 I0. J3.175
Y-81.306 Z24.848 I0. J-3.175
Y-74.956 Z24.737 I0. J3.175
Y-81.306 Z24.627 I0. J-3.175
Y-74.956 Z24.516 I0. J3.175
Y-81.306 Z24.405 I0. J-3.175
Y-74.956 Z24.294 I0. J3.175
Y-81.306 Z24.183 I0. J-3.175
Y-74.956 Z24.072 I0. J3.175
Y-81.306 Z23.962 I0. J-3.175
Y-74.956 Z23.851 I0. J3.175
Y-81.306 Z23.74 I0. J-3.175
Y-74.956 Z23.629 I0. J3.175
Y-81.306 Z23.518 I0. J-3.175
Y-74.956 Z23.407 I0. J3.175
Y-81.306 Z23.296 I0. J-3.175
Y-74.956 Z23.186 I0. J3.175
Y-81.306 Z23.075 I0. J-3.175
Y-74.956 Z22.964 I0. J3.175
Y-81.306 Z22.853 I0. J-3.175
Y-74.956 Z22.742 I0. J3.175
Y-81.306 Z22.631 I0. J-3.175
Y-74.956 Z22.521 I0. J3.175
Y-81.306 Z22.41 I0. J-3.175
Y-74.956 Z22.299 I0. J3.175
Y-81.306 Z22.188 I0. J-3.175
Y-74.956 Z22.077 I0. J3.175
Y-81.306 Z21.966 I0. J-3.175
Y-74.956 Z21.856 I0. J3.175
Y-81.306 Z21.745 I0. J-3.175
Y-74.956 Z21.634 I0. J3.175
Y-81.306 Z21.523 I0. J-3.175
Y-74.956 Z21.412 I0. J3.175
Y-81.306 Z21.301 I0. J-3.175
Y-74.956 Z21.191 I0. J3.175
Y-81.306 Z21.08 I0. J-3.175
Y-74.956 Z20.969 I0. J3.175
Y-81.306 Z20.858 I0. J-3.175
Y-74.956 Z20.747 I0. J3.175
X122.142 Y-75.563 Z20.725 I0. J-3.175
X118.408 Y-80.699 I-1.867 J-2.568
X122.142 Y-75.563 I1.867 J2.568
X122.282 Y-76.45 I-0.373 J-0.514
G1 X122.095 Y-76.707
X122.037 Y-76.787 Z20.733
X121.98 Y-76.866 Z20.756
X121.926 Y-76.94 Z20.794
X121.876 Y-77.009 Z20.846
X121.831 Y-77.07 Z20.911
X121.793 Y-77.122 Z20.987
X121.763 Y-77.165 Z21.072
X121.74 Y-77.195 Z21.164
X121.727 Y-77.214 Z21.261
X121.722 Y-77.221 Z21.36
G0 Z71.4
X120.91 Y-18.606
Z28.4
G1 Z27.035 F800.
G19 G2 Y-19.241 Z26.4 J-0.635 K0.
G1 Y-19.559
G17 G2 X120.275 Y-20.194 I-0.635 J0.
Y-13.844 Z26.289 I0. J3.175
Y-20.194 Z26.178 I0. J-3.175
Y-13.844 Z26.067 I0. J3.175
Y-20.194 Z25.957 I0. J-3.175
Y-13.844 Z25.846 I0. J3.175
Y-20.194 Z25.735 I0. J-3.175
Y-13.844 Z25.624 I0. J3.175
Y-20.194 Z25.513 I0. J-3.175
Y-13.844 Z25.402 I0. J3.175
Y-20.194 Z25.292 I0. J-3.175
Y-13.844 Z25.181 I0. J3.175
Y-20.194 Z25.07 I0. J-3.175
Y-13.844 Z24.959 I0. J3.175
Y-20.194 Z24.848 I0. J-3.175
Y-13.844 Z24.737 I0. J3.175
Y-20.194 Z24.627 I0. J-3.175
Y-13.844 Z24.516 I0. J3.175
Y-20.194 Z24.405 I0. J-3.175
Y-13.844 Z24.294 I0. J3.175
Y-20.194 Z24.183 I0. J-3.175
Y-13.844 Z24.072 I0. J3.175
Y-20.194 Z23.962 I0. J-3.175
Y-13.844 Z23.851 I0. J3.175
Y-20.194 Z23.74 I0. J-3.175
Y-13.844 Z23.629 I0. J3.175
Y-20.194 Z23.518 I0. J-3.175
Y-13.844 Z23.407 I0. J3.175
Y-20.194 Z23.296 I0. J-3.175
Y-13.844 Z23.186 I0. J3.175
Y-20.194 Z23.075 I0. J-3.175
Y-13.844 Z22.964 I0. J3.175
Y-20.194 Z22.853 I0. J-3.175
Y-13.844 Z22.742 I0. J3.175
Y-20.194 Z22.631 I0. J-3.175
Y-13.844 Z22.521 I0. J3.175
Y-20.194 Z22.41 I0. J-3.175
Y-13.844 Z22.299 I0. J3.175
Y-20.194 Z22.188 I0. J-3.175
Y-13.844 Z22.077 I0. J3.175
Y-20.194 Z21.966 I0. J-3.175
Y-13.844 Z21.856 I0. J3.175
Y-20.194 Z21.745 I0. J-3.175
Y-13.844 Z21.634 I0. J3.175
Y-20.194 Z21.523 I0. J-3.175
Y-13.844 Z21.412 I0. J3.175
Y-20.194 Z21.301 I0. J-3.175
Y-13.844 Z21.191 I0. J3.175
Y-20.194 Z21.08 I0. J-3.175
Y-13.844 Z20.969 I0. J3.175
Y-20.194 Z20.858 I0. J-3.175
Y-13.844 Z20.747 I0. J3.175
X122.142 Y-14.451 Z20.725 I0. J-3.175
X118.408 Y-19.587 I-1.867 J-2.568
X122.142 Y-14.451 I1.867 J2.568
X122.282 Y-15.338 I-0.373 J-0.514
G1 X122.095 Y-15.594
X122.037 Y-15.675 Z20.733
X121.98 Y-15.753 Z20.756
X121.926 Y-15.828 Z20.794
X121.876 Y-15.896 Z20.846
X121.831 Y-15.958 Z20.911
X121.793 Y-16.01 Z20.987
X121.763 Y-16.052 Z21.072
X121.74 Y-16.083 Z21.164
X121.727 Y-16.102 Z21.261
X121.722 Y-16.108 Z21.36
G0 Z81.4

(BORE9)
G0 X120.91 Y-49.162
Z81.4
Z28.4
G1 Z27.035 F800.
G19 G2 Y-49.798 Z26.4 J-0.635 K0.
G1 Y-50.115
G17 G2 X120.275 Y-50.75 I-0.635 J0.
Y-44.4 Z26.289 I0. J3.175
Y-50.75 Z26.178 I0. J-3.175
Y-44.4 Z26.067 I0. J3.175
Y-50.75 Z25.957 I0. J-3.175
Y-44.4 Z25.846 I0. J3.175
Y-50.75 Z25.735 I0. J-3.175
Y-44.4 Z25.624 I0. J3.175
Y-50.75 Z25.513 I0. J-3.175
Y-44.4 Z25.402 I0. J3.175
Y-50.75 Z25.292 I0. J-3.175
Y-44.4 Z25.181 I0. J3.175
Y-50.75 Z25.07 I0. J-3.175
Y-44.4 Z24.959 I0. J3.175
Y-50.75 Z24.848 I0. J-3.175
Y-44.4 Z24.737 I0. J3.175
Y-50.75 Z24.627 I0. J-3.175
Y-44.4 Z24.516 I0. J3.175
Y-50.75 Z24.405 I0. J-3.175
Y-44.4 Z24.294 I0. J3.175
Y-50.75 Z24.183 I0. J-3.175
Y-44.4 Z24.072 I0. J3.175
Y-50.75 Z23.962 I0. J-3.175
Y-44.4 Z23.851 I0. J3.175
Y-50.75 Z23.74 I0. J-3.175
Y-44.4 Z23.629 I0. J3.175
Y-50.75 Z23.518 I0. J-3.175
Y-44.4 Z23.407 I0. J3.175
Y-50.75 Z23.296 I0. J-3.175
Y-44.4 Z23.186 I0. J3.175
Y-50.75 Z23.075 I0. J-3.175
Y-44.4 Z22.964 I0. J3.175
Y-50.75 Z22.853 I0. J-3.175
Y-44.4 Z22.742 I0. J3.175
Y-50.75 Z22.631 I0. J-3.175
Y-44.4 Z22.521 I0. J3.175
Y-50.75 Z22.41 I0. J-3.175
Y-44.4 Z22.299 I0. J3.175
Y-50.75 Z22.188 I0. J-3.175
Y-44.4 Z22.077 I0. J3.175
Y-50.75 Z21.966 I0. J-3.175
Y-44.4 Z21.856 I0. J3.175
Y-50.75 Z21.745 I0. J-3.175
Y-44.4 Z21.634 I0. J3.175
Y-50.75 Z21.523 I0. J-3.175
Y-44.4 Z21.412 I0. J3.175
Y-50.75 Z21.301 I0. J-3.175
Y-44.4 Z21.191 I0. J3.175
Y-50.75 Z21.08 I0. J-3.175
Y-44.4 Z20.969 I0. J3.175
Y-50.75 Z20.858 I0. J-3.175
Y-44.4 Z20.747 I0. J3.175
X122.142 Y-45.007 Z20.725 I0. J-3.175
X118.408 Y-50.143 I-1.867 J-2.568
X122.142 Y-45.007 I1.867 J2.568
X122.282 Y-45.894 I-0.373 J-0.514
G1 X122.095 Y-46.151
X122.037 Y-46.231 Z20.733
X121.98 Y-46.309 Z20.756
X121.926 Y-46.384 Z20.794
X121.876 Y-46.453 Z20.846
X121.831 Y-46.514 Z20.911
X121.793 Y-46.566 Z20.987
X121.763 Y-46.608 Z21.072
X121.74 Y-46.639 Z21.164
X121.727 Y-46.658 Z21.261
X121.722 Y-46.664 Z21.36
G0 Z71.4
X120.91 Y-52.338
Z28.4
G1 Z27.035 F800.
G19 G2 Y-52.972 Z26.4 J-0.635 K0.
G1 Y-53.29
G17 G2 X120.275 Y-53.925 I-0.635 J0.
Y-41.225 Z26.234 I0. J6.35
Y-53.925 Z26.067 I0. J-6.35
Y-41.225 Z25.901 I0. J6.35
Y-53.925 Z25.735 I0. J-6.35
Y-41.225 Z25.569 I0. J6.35
Y-53.925 Z25.402 I0. J-6.35
Y-41.225 Z25.236 I0. J6.35
Y-53.925 Z25.07 I0. J-6.35
Y-41.225 Z24.904 I0. J6.35
Y-53.925 Z24.737 I0. J-6.35
Y-41.225 Z24.571 I0. J6.35
Y-53.925 Z24.405 I0. J-6.35
Y-41.225 Z24.239 I0. J6.35
Y-53.925 Z24.072 I0. J-6.35
Y-41.225 Z23.906 I0. J6.35
Y-53.925 Z23.74 I0. J-6.35
Y-41.225 Z23.574 I0. J6.35
Y-53.925 Z23.407 I0. J-6.35
Y-41.225 Z23.241 I0. J6.35
Y-53.925 Z23.075 I0. J-6.35
Y-41.225 Z22.909 I0. J6.35
Y-53.925 Z22.742 I0. J-6.35
Y-41.225 Z22.576 I0. J6.35
Y-53.925 Z22.41 I0. J-6.35
Y-41.225 Z22.244 I0. J6.35
Y-53.925 Z22.077 I0. J-6.35
Y-41.225 Z21.911 I0. J6.35
Y-53.925 Z21.745 I0. J-6.35
Y-41.225 Z21.578 I0. J6.35
Y-53.925 Z21.412 I0. J-6.35
Y-41.225 Z21.246 I0. J6.35
Y-53.925 Z21.08 I0. J-6.35
Y-41.225 Z20.913 I0. J6.35
Y-53.925 Z20.747 I0. J-6.35
X117.691 Y-53.376 Z20.725 I0. J6.35
X122.859 Y-41.774 I2.584 J5.801
X117.691 Y-53.376 I-2.584 J-5.801
X117.37 Y-52.537 I0.258 J0.58
G1 X117.499 Y-52.247
X117.539 Y-52.156 Z20.733
X117.579 Y-52.068 Z20.756
X117.616 Y-51.984 Z20.794
X117.651 Y-51.906 Z20.846
X117.681 Y-51.837 Z20.911
X117.708 Y-51.778 Z20.987
X117.729 Y-51.73 Z21.072
X117.744 Y-51.695 Z21.164
X117.754 Y-51.674 Z21.261
X117.757 Y-51.667 Z21.36
G0 Z81.4

(BORE12)
G0 X120.91 Y-4.319
Z81.4
Z28.4
G1 Z27.035 F800.
G19 G2 Y-4.954 Z26.4 J-0.635 K0.
G1 Y-5.271
G17 G2 X120.275 Y-5.906 I-0.635 J0.
Y12.356 Z26.185 I0. J9.131
Y-5.906 Z25.97 I0. J-9.131
Y12.356 Z25.756 I0. J9.131
Y-5.906 Z25.541 I0. J-9.131
Y12.356 Z25.326 I0. J9.131
Y-5.906 Z25.111 I0. J-9.131
Y12.356 Z24.896 I0. J9.131
Y-5.906 Z24.682 I0. J-9.131
Y12.356 Z24.467 I0. J9.131
Y-5.906 Z24.252 I0. J-9.131
Y12.356 Z24.037 I0. J9.131
X129.383 Y2.57 Z23.925 I0. J-9.131
X118.969 Y-5.812 Z23.813 I-9.108 J0.655
X121.581 Y12.262 I1.306 J9.037
X118.969 Y-5.812 I-1.306 J-9.037
X118.431 Y-5.093 I0.091 J0.628
G1 X118.477 Y-4.779
X118.491 Y-4.681 Z23.82
X118.505 Y-4.585 Z23.844
X118.518 Y-4.494 Z23.882
X118.53 Y-4.409 Z23.934
X118.541 Y-4.335 Z23.998
X118.55 Y-4.27 Z24.074
X118.558 Y-4.219 Z24.159
X118.563 Y-4.181 Z24.251
X118.566 Y-4.158 Z24.348
X118.568 Y-4.15 Z24.448
G0 Z81.4

(BORE11)
G0 X120.91 Y0.05
Z81.4
Z28.4
G1 Z27.035 F800.
G19 G2 Y-0.585 Z26.4 J-0.635 K0.
G1 Y-0.902
G17 G2 X120.275 Y-1.538 I-0.635 J0.
Y7.987 Z26.261 I0. J4.762
Y-1.537 Z26.123 I0. J-4.762
Y7.987 Z25.984 I0. J4.762
Y-1.537 Z25.846 I0. J-4.762
Y7.987 Z25.707 I0. J4.762
Y-1.537 Z25.569 I0. J-4.762
Y7.987 Z25.43 I0. J4.762
Y-1.537 Z25.292 I0. J-4.762
Y7.987 Z25.153 I0. J4.762
Y-1.537 Z25.015 I0. J-4.762
Y7.987 Z24.876 I0. J4.762
Y-1.537 Z24.737 I0. J-4.762
Y7.987 Z24.599 I0. J4.762
Y-1.537 Z24.46 I0. J-4.762
Y7.987 Z24.322 I0. J4.762
Y-1.537 Z24.183 I0. J-4.762
Y7.987 Z24.045 I0. J4.762
Y-1.537 Z23.906 I0. J-4.762
Y7.987 Z23.768 I0. J4.762
Y-1.537 Z23.629 I0. J-4.762
Y7.987 Z23.49 I0. J4.762
Y-1.537 Z23.352 I0. J-4.762
Y7.987 Z23.213 I0. J4.762
Y-1.537 Z23.075 I0. J-4.762
Y7.987 Z22.936 I0. J4.762
Y-1.537 Z22.798 I0. J-4.762
Y7.987 Z22.659 I0. J4.762
Y-1.537 Z22.521 I0. J-4.762
Y7.987 Z22.382 I0. J4.762
Y-1.537 Z22.244 I0. J-4.762
Y7.987 Z22.105 I0. J4.762
Y-1.537 Z21.966 I0. J-4.762
Y7.987 Z21.828 I0. J4.762
Y-1.537 Z21.689 I0. J-4.762
Y7.987 Z21.551 I0. J4.762
Y-1.537 Z21.412 I0. J-4.762
Y7.987 Z21.274 I0. J4.762
X124.527 Y5.37 Z21.225 I0. J-4.762
X116.023 Y1.08 I-4.252 J-2.145
X124.527 Y5.37 I4.252 J2.145
X124.246 Y4.517 I-0.567 J-0.286
G1 X123.963 Y4.374
X123.874 Y4.33 Z21.233
X123.787 Y4.286 Z21.256
X123.705 Y4.245 Z21.294
X123.629 Y4.206 Z21.346
X123.562 Y4.172 Z21.411
X123.504 Y4.143 Z21.487
X123.457 Y4.12 Z21.572
X123.423 Y4.102 Z21.664
X123.403 Y4.092 Z21.761
X123.396 Y4.088 Z21.86
G0 Z71.4
X120.91 Y-3.125
Z28.4
G1 Z27.035 F800.
G19 G2 Y-3.76 Z26.4 J-0.635 K0.
G1 Y-4.077
G17 G2 X120.275 Y-4.713 I-0.635 J0.
Y11.163 Z26.206 I0. J7.938
Y-4.713 Z26.012 I0. J-7.938
Y11.163 Z25.818 I0. J7.938
Y-4.713 Z25.624 I0. J-7.938
Y11.163 Z25.43 I0. J7.938
Y-4.713 Z25.236 I0. J-7.938
Y11.163 Z25.042 I0. J7.938
Y-4.713 Z24.848 I0. J-7.938
Y11.163 Z24.654 I0. J7.938
Y-4.713 Z24.46 I0. J-7.938
Y11.163 Z24.266 I0. J7.938
Y-4.713 Z24.072 I0. J-7.938
Y11.163 Z23.878 I0. J7.938
Y-4.713 Z23.684 I0. J-7.938
Y11.163 Z23.49 I0. J7.938
Y-4.713 Z23.296 I0. J-7.938
Y11.163 Z23.103 I0. J7.938
Y-4.713 Z22.909 I0. J-7.938
Y11.163 Z22.715 I0. J7.938
Y-4.713 Z22.521 I0. J-7.938
Y11.163 Z22.327 I0. J7.938
Y-4.713 Z22.133 I0. J-7.938
Y11.163 Z21.939 I0. J7.938
Y-4.713 Z21.745 I0. J-7.938
Y11.163 Z21.551 I0. J7.938
Y-4.713 Z21.357 I0. J-7.938
X113.566 Y7.467 Z21.225 I0. J7.938
X126.984 Y-1.017 I6.709 J-4.242
X113.566 Y7.467 I-6.709 J4.242
X114.442 Y7.664 I0.537 J-0.339
G1 X114.71 Y7.495
X114.794 Y7.441 Z21.233
X114.876 Y7.39 Z21.256
X114.954 Y7.34 Z21.294
X115.026 Y7.295 Z21.346
X115.09 Y7.255 Z21.411
X115.145 Y7.22 Z21.487
X115.189 Y7.192 Z21.572
X115.221 Y7.172 Z21.664
X115.241 Y7.159 Z21.761
X115.247 Y7.155 Z21.86
G0 Z81.4

(BORE13)
G0 X104.394 Y76.823
Z81.4
Z27.765
G1 Z26.4 F800.
Y76.505
G3 X104.593 Y76.307 I0.198 J0.
Y77.101 Z26.338 I0. J0.397
Y76.307 Z26.275 I0. J-0.397
Y77.101 Z26.213 I0. J0.397
Y76.307 Z26.151 I0. J-0.397
Y77.101 Z26.088 I0. J0.397
Y76.307 Z26.026 I0. J-0.397
Y77.101 Z25.964 I0. J0.397
Y76.307 Z25.901 I0. J-0.397
Y77.101 Z25.839 I0. J0.397
Y76.307 Z25.777 I0. J-0.397
Y77.101 Z25.714 I0. J0.397
Y76.307 Z25.652 I0. J-0.397
Y77.101 Z25.589 I0. J0.397
Y76.307 Z25.527 I0. J-0.397
Y77.101 Z25.465 I0. J0.397
Y76.307 Z25.402 I0. J-0.397
Y77.101 Z25.34 I0. J0.397
Y76.307 Z25.278 I0. J-0.397
Y77.101 Z25.215 I0. J0.397
Y76.307 Z25.153 I0. J-0.397
Y77.101 Z25.091 I0. J0.397
Y76.307 Z25.028 I0. J-0.397
Y77.101 Z24.966 I0. J0.397
Y76.307 Z24.904 I0. J-0.397
Y77.101 Z24.841 I0. J0.397
Y76.307 Z24.779 I0. J-0.397
Y77.101 Z24.717 I0. J0.397
Y76.307 Z24.654 I0. J-0.397
Y77.101 Z24.592 I0. J0.397
Y76.307 Z24.53 I0. J-0.397
Y77.101 Z24.467 I0. J0.397
Y76.307 Z24.405 I0. J-0.397
Y77.101 Z24.343 I0. J0.397
Y76.307 Z24.28 I0. J-0.397
Y77.101 Z24.218 I0. J0.397
Y76.307 Z24.155 I0. J-0.397
Y77.101 Z24.093 I0. J0.397
Y76.307 Z24.031 I0. J-0.397
Y77.101 Z23.968 I0. J0.397
Y76.307 Z23.906 I0. J-0.397
Y77.101 Z23.844 I0. J0.397
Y76.307 Z23.781 I0. J-0.397
Y77.101 Z23.719 I0. J0.397
Y76.307 Z23.657 I0. J-0.397
Y77.101 Z23.594 I0. J0.397
Y76.307 Z23.532 I0. J-0.397
Y77.101 Z23.47 I0. J0.397
Y76.307 Z23.407 I0. J-0.397
Y77.101 Z23.345 I0. J0.397
Y76.307 Z23.283 I0. J-0.397
Y77.101 Z23.22 I0. J0.397
Y76.307 Z23.158 I0. J-0.397
Y77.101 Z23.096 I0. J0.397
Y76.307 Z23.033 I0. J-0.397
Y77.101 Z22.971 I0. J0.397
Y76.307 Z22.909 I0. J-0.397
Y77.101 Z22.846 I0. J0.397
Y76.307 Z22.784 I0. J-0.397
Y77.101 Z22.722 I0. J0.397
Y76.307 Z22.659 I0. J-0.397
Y77.101 Z22.597 I0. J0.397
Y76.307 Z22.534 I0. J-0.397
Y77.101 Z22.472 I0. J0.397
Y76.307 Z22.41 I0. J-0.397
Y77.101 Z22.347 I0. J0.397
Y76.307 Z22.285 I0. J-0.397
Y77.101 Z22.223 I0. J0.397
Y76.307 Z22.16 I0. J-0.397
Y77.101 Z22.098 I0. J0.397
Y76.307 Z22.036 I0. J-0.397
Y77.101 Z21.973 I0. J0.397
Y76.307 Z21.911 I0. J-0.397
Y77.101 Z21.849 I0. J0.397
Y76.307 Z21.786 I0. J-0.397
Y77.101 Z21.724 I0. J0.397
Y76.307 Z21.662 I0. J-0.397
Y77.101 Z21.599 I0. J0.397
Y76.307 Z21.537 I0. J-0.397
Y77.101 Z21.475 I0. J0.397
Y76.307 Z21.412 I0. J-0.397
Y77.101 Z21.35 I0. J0.397
Y76.307 Z21.288 I0. J-0.397
Y77.101 Z21.225 I0. J0.397
Y76.307 Z21.163 I0. J-0.397
Y77.101 Z21.1 I0. J0.397
Y76.307 Z21.038 I0. J-0.397
Y77.101 Z20.976 I0. J0.397
Y76.307 Z20.913 I0. J-0.397
Y77.101 Z20.851 I0. J0.397
Y76.307 Z20.789 I0. J-0.397
X104.989 Y76.718 Z20.757 I0. J0.397
X104.565 Y77.1 Z20.725 I-0.397 J-0.014
X104.621 Y76.308 I0.028 J-0.396
X104.565 Y77.1 I-0.028 J0.396
X104.381 Y76.888 I0.014 J-0.198
G1 X104.403 Y76.571
G0 Z71.4
X135.759 Y76.823
Z27.765
G1 Z26.4 F800.
Y76.505
G3 X135.957 Y76.307 I0.198 J0.
Y77.101 Z26.338 I0. J0.397
Y76.307 Z26.275 I0. J-0.397
Y77.101 Z26.213 I0. J0.397
Y76.307 Z26.151 I0. J-0.397
Y77.101 Z26.088 I0. J0.397
Y76.307 Z26.026 I0. J-0.397
Y77.101 Z25.964 I0. J0.397
Y76.307 Z25.901 I0. J-0.397
Y77.101 Z25.839 I0. J0.397
Y76.307 Z25.777 I0. J-0.397
Y77.101 Z25.714 I0. J0.397
Y76.307 Z25.652 I0. J-0.397
Y77.101 Z25.589 I0. J0.397
Y76.307 Z25.527 I0. J-0.397
Y77.101 Z25.465 I0. J0.397
Y76.307 Z25.402 I0. J-0.397
Y77.101 Z25.34 I0. J0.397
Y76.307 Z25.278 I0. J-0.397
Y77.101 Z25.215 I0. J0.397
Y76.307 Z25.153 I0. J-0.397
Y77.101 Z25.091 I0. J0.397
Y76.307 Z25.028 I0. J-0.397
Y77.101 Z24.966 I0. J0.397
Y76.307 Z24.904 I0. J-0.397
Y77.101 Z24.841 I0. J0.397
Y76.307 Z24.779 I0. J-0.397
Y77.101 Z24.717 I0. J0.397
Y76.307 Z24.654 I0. J-0.397
Y77.101 Z24.592 I0. J0.397
Y76.307 Z24.53 I0. J-0.397
Y77.101 Z24.467 I0. J0.397
Y76.307 Z24.405 I0. J-0.397
Y77.101 Z24.343 I0. J0.397
Y76.307 Z24.28 I0. J-0.397
Y77.101 Z24.218 I0. J0.397
Y76.307 Z24.155 I0. J-0.397
Y77.101 Z24.093 I0. J0.397
Y76.307 Z24.031 I0. J-0.397
Y77.101 Z23.968 I0. J0.397
Y76.307 Z23.906 I0. J-0.397
Y77.101 Z23.844 I0. J0.397
Y76.307 Z23.781 I0. J-0.397
Y77.101 Z23.719 I0. J0.397
Y76.307 Z23.657 I0. J-0.397
Y77.101 Z23.594 I0. J0.397
Y76.307 Z23.532 I0. J-0.397
Y77.101 Z23.47 I0. J0.397
Y76.307 Z23.407 I0. J-0.397
Y77.101 Z23.345 I0. J0.397
Y76.307 Z23.283 I0. J-0.397
Y77.101 Z23.22 I0. J0.397
Y76.307 Z23.158 I0. J-0.397
Y77.101 Z23.096 I0. J0.397
Y76.307 Z23.033 I0. J-0.397
Y77.101 Z22.971 I0. J0.397
Y76.307 Z22.909 I0. J-0.397
Y77.101 Z22.846 I0. J0.397
Y76.307 Z22.784 I0. J-0.397
Y77.101 Z22.722 I0. J0.397
Y76.307 Z22.659 I0. J-0.397
Y77.101 Z22.597 I0. J0.397
Y76.307 Z22.534 I0. J-0.397
Y77.101 Z22.472 I0. J0.397
Y76.307 Z22.41 I0. J-0.397
Y77.101 Z22.347 I0. J0.397
Y76.307 Z22.285 I0. J-0.397
Y77.101 Z22.223 I0. J0.397
Y76.307 Z22.16 I0. J-0.397
Y77.101 Z22.098 I0. J0.397
Y76.307 Z22.036 I0. J-0.397
Y77.101 Z21.973 I0. J0.397
Y76.307 Z21.911 I0. J-0.397
Y77.101 Z21.849 I0. J0.397
Y76.307 Z21.786 I0. J-0.397
Y77.101 Z21.724 I0. J0.397
Y76.307 Z21.662 I0. J-0.397
Y77.101 Z21.599 I0. J0.397
Y76.307 Z21.537 I0. J-0.397
Y77.101 Z21.475 I0. J0.397
Y76.307 Z21.412 I0. J-0.397
Y77.101 Z21.35 I0. J0.397
Y76.307 Z21.288 I0. J-0.397
Y77.101 Z21.225 I0. J0.397
Y76.307 Z21.163 I0. J-0.397
Y77.101 Z21.1 I0. J0.397
Y76.307 Z21.038 I0. J-0.397
Y77.101 Z20.976 I0. J0.397
Y76.307 Z20.913 I0. J-0.397
Y77.101 Z20.851 I0. J0.397
Y76.307 Z20.789 I0. J-0.397
X136.354 Y76.718 Z20.757 I0. J0.397
X135.929 Y77.1 Z20.725 I-0.397 J-0.014
X135.985 Y76.308 I0.028 J-0.396
X135.929 Y77.1 I-0.028 J0.396
X135.745 Y76.888 I0.014 J-0.198
G1 X135.768 Y76.571
G0 Z81.4
M5
G0 Z15
G0 X0 Y0

M9
M30
