(1001)
(T1  D=6.35 CR=0. - ZMIN=-1.5 - FLAT END MILL)
G90 G94 G91.1 G40 G49 G17
G21
(2ND HOLE )
G0 Z15

(2D CONTOUR2)
M5
T1 M6
S16000 M3
G54
M8
G0 X-108.255 Y-123.46
G43 Z42.4 H1
Z31.4
G1 Z29.535 F800.
G18 G2 X-107.62 Z28.9 I0.635 K0.
G1 X-106.985 F1600.
G17 G3 X-106.35 Y-122.825 I0. J0.635
G1 Y-94.875 Z27.924 F800.
Y-145.675 Z26.15
Y-94.875 F1600.
Y-145.675 Z25.9 F800.
Y-94.875 F1600.
Y-145.675 Z25.65 F800.
Y-94.875 F1600.
Y-145.675 Z25.4 F800.
Y-94.875 F1600.
Y-145.675 Z25.15 F800.
Y-94.875 F1600.
Y-145.675 Z24.9 F800.
Y-94.875 F1600.
Y-145.675 Z24.65 F800.
Y-94.875 F1600.
Y-145.675 Z24.4 F800.
Y-94.875 F1600.
Y-145.675 Z24.15 F800.
Y-94.875 F1600.
Y-145.675 Z23.9 F800.
Y-94.875 F1600.
Y-145.675 Z23.65 F800.
Y-94.875 F1600.
Y-145.675 Z23.4 F800.
Y-94.875 F1600.
Y-145.675 Z23.15 F800.
Y-94.875 F1600.
Y-145.675 Z22.9 F800.
Y-94.875 F1600.
Y-145.675 Z22.65 F800.
Y-94.875 F1600.
Y-145.675 Z22.4 F800.
Y-94.875 F1600.
Y-145.675 Z22.15 F800.
Y-94.875 F1600.
Y-145.675 Z21.9 F800.
Y-94.875 F1600.
Y-145.675 Z21.65 F800.
Y-94.875 F1600.
Y-145.675 Z21.4 F800.
Y-94.875 F1600.
Y-145.675 Z21.15 F800.
Y-94.875 F1600.
Y-145.675 Z20.9 F800.
Y-94.875 F1600.
Y-145.675 Z20.65 F800.
Y-94.875 F1600.
Y-145.675 Z20.4 F800.
Y-94.875 F1600.
Y-145.675 Z20.15 F800.
Y-94.875 F1600.
Y-145.675 Z19.9 F800.
Y-94.875 F1600.
Y-145.675 Z19.65 F800.
Y-94.875 F1600.
Y-145.675 Z19.4 F800.
Y-94.875 F1600.
Y-145.675 Z19.15 F800.
Y-94.875 F1600.
Y-145.675 Z18.9 F800.
Y-94.875 F1600.
Y-145.675 Z18.65 F800.
Y-94.875 F1600.
Y-145.675 Z18.4 F800.
Y-94.875 F1600.
Y-145.675 Z18.15 F800.
Y-94.875 F1600.
Y-145.675 Z17.9 F800.
Y-94.875 F1600.
Y-145.675 Z17.65 F800.
Y-94.875 F1600.
Y-145.675 Z17.4 F800.
Y-94.875 F1600.
Y-145.675 Z17.15 F800.
Y-94.875 F1600.
Y-145.675 Z16.9 F800.
Y-94.875 F1600.
Y-145.675 Z16.65 F800.
Y-94.875 F1600.
Y-145.675 Z16.4 F800.
Y-94.875 F1600.
Y-145.675 Z16.15 F800.
Y-94.875 F1600.
Y-145.675 Z15.9 F800.
Y-94.875 F1600.
Y-145.675 Z15.65 F800.
Y-94.875 F1600.
Y-145.675 Z15.4 F800.
Y-94.875 F1600.
Y-145.675 Z15.15 F800.
Y-94.875 F1600.
Y-145.675 Z14.9 F800.
Y-94.875 F1600.
Y-145.675 Z14.65 F800.
Y-94.875 F1600.
Y-145.675 Z14.4 F800.
Y-94.875 F1600.
Y-145.675 Z14.15 F800.
Y-94.875 F1600.
Y-145.675 Z13.9 F800.
Y-94.875 F1600.
Y-145.675 Z13.65 F800.
Y-94.875 F1600.
Y-145.675 Z13.4 F800.
Y-94.875 F1600.
Y-145.675 Z13.15 F800.
Y-94.875 F1600.
Y-145.675 Z12.9 F800.
Y-94.875 F1600.
Y-145.675 Z12.65 F800.
Y-94.875 F1600.
Y-145.675 Z12.4 F800.
Y-94.875 F1600.
Y-145.675 Z12.15 F800.
Y-94.875 F1600.
Y-145.675 Z11.9 F800.
Y-94.875 F1600.
Y-145.675 Z11.65 F800.
Y-94.875 F1600.
Y-145.675 Z11.4 F800.
Y-94.875 F1600.
Y-145.675 Z11.15 F800.
Y-94.875 F1600.
Y-145.675 Z10.9 F800.
Y-94.875 F1600.
Y-145.675 Z10.65 F800.
Y-94.875 F1600.
Y-145.675 Z10.4 F800.
Y-94.875 F1600.
Y-145.675 Z10.15 F800.
Y-94.875 F1600.
Y-145.675 Z9.9 F800.
Y-94.875 F1600.
Y-145.675 Z9.65 F800.
Y-94.875 F1600.
Y-145.675 Z9.4 F800.
Y-94.875 F1600.
Y-145.675 Z9.15 F800.
Y-94.875 F1600.
Y-145.675 Z8.9 F800.
Y-94.875 F1600.
Y-145.675 Z8.65 F800.
Y-94.875 F1600.
Y-145.675 Z8.4 F800.
Y-94.875 F1600.
Y-145.675 Z8.15 F800.
Y-94.875 F1600.
Y-145.675 Z7.9 F800.
Y-94.875 F1600.
Y-145.675 Z7.65 F800.
Y-94.875 F1600.
Y-145.675 Z7.4 F800.
Y-94.875 F1600.
Y-145.675 Z7.15 F800.
Y-94.875 F1600.
Y-145.675 Z6.9 F800.
Y-94.875 F1600.
Y-145.675 Z6.65 F800.
Y-94.875 F1600.
Y-145.675 Z6.4 F800.
Y-94.875 F1600.
Y-145.675 Z6.15 F800.
Y-94.875 F1600.
Y-145.675 Z5.9 F800.
Y-94.875 F1600.
Y-145.675 Z5.65 F800.
Y-94.875 F1600.
Y-145.675 Z5.4 F800.
Y-94.875 F1600.
Y-145.675 Z5.15 F800.
Y-94.875 F1600.
Y-145.675 Z4.9 F800.
Y-94.875 F1600.
Y-145.675 Z4.65 F800.
Y-94.875 F1600.
Y-145.675 Z4.4 F800.
Y-94.875 F1600.
Y-145.675 Z4.15 F800.
Y-94.875 F1600.
Y-145.675 Z3.9 F800.
Y-94.875 F1600.
Y-145.675 Z3.65 F800.
Y-94.875 F1600.
Y-145.675 Z3.4 F800.
Y-94.875 F1600.
Y-145.675 Z3.15 F800.
Y-94.875 F1600.
Y-145.675 Z2.9 F800.
Y-94.875 F1600.
Y-145.675 Z2.65 F800.
Y-94.875 F1600.
Y-145.675 Z2.4 F800.
Y-94.875 F1600.
Y-145.675 Z2.15 F800.
Y-94.875 F1600.
Y-145.675 Z1.9 F800.
Y-94.875 F1600.
Y-145.675 Z1.65 F800.
Y-94.875 F1600.
Y-145.675 Z1.4 F800.
Y-94.875 F1600.
Y-145.675 Z1.15 F800.
Y-94.875 F1600.
Y-145.675 Z0.9 F800.
Y-94.875 F1600.
Y-145.675 Z0.65 F800.
Y-94.875 F1600.
Y-145.675 Z0.4 F800.
Y-94.875 F1600.
Y-145.675 Z0.15 F800.
Y-94.875 F1600.
Y-145.675 Z-0.1 F800.
Y-94.875 F1600.
Y-145.675 Z-0.35 F800.
Y-94.875 F1600.
Y-145.675 Z-0.6 F800.
Y-94.875 F1600.
Y-145.675 Z-0.85 F800.
Y-94.875 F1600.
Y-145.675 Z-1.1 F800.
Y-94.875 F1600.
Y-145.675 Z-1.35 F800.
Y-94.875 F1600.
Y-145.675 Z-1.5 F800.
Y-94.875 F1600.
G3 X-106.985 Y-94.24 I-0.635 J0.
G1 X-107.62
G18 G3 X-108.255 Z-0.865 I0. K0.635
G0 Z42.4
G17

(BORE5)
S5000 M3
G0 X-3.315 Y-120.478
Z41.4
Z27.765
G1 Z26.4 F1000.
X-3.632
G2 X-3.836 Y-120.275 I0. J0.203
X-3.023 Z26.337 I0.406 J0.
X-3.836 Z26.275 I-0.406 J0.
X-3.023 Z26.212 I0.406 J0.
X-3.836 Z26.15 I-0.406 J0.
X-3.023 Z26.087 I0.406 J0.
X-3.836 Z26.025 I-0.406 J0.
X-3.023 Z25.962 I0.406 J0.
X-3.836 Z25.9 I-0.406 J0.
X-3.023 Z25.837 I0.406 J0.
X-3.836 Z25.775 I-0.406 J0.
X-3.023 Z25.712 I0.406 J0.
X-3.836 Z25.65 I-0.406 J0.
X-3.023 Z25.587 I0.406 J0.
X-3.836 Z25.525 I-0.406 J0.
X-3.023 Z25.462 I0.406 J0.
X-3.836 Z25.4 I-0.406 J0.
X-3.023 Z25.337 I0.406 J0.
X-3.836 Z25.275 I-0.406 J0.
X-3.023 Z25.212 I0.406 J0.
X-3.836 Z25.15 I-0.406 J0.
X-3.023 Z25.087 I0.406 J0.
X-3.836 Z25.025 I-0.406 J0.
X-3.023 Z24.962 I0.406 J0.
X-3.836 Z24.9 I-0.406 J0.
X-3.023 Z24.837 I0.406 J0.
X-3.836 Z24.775 I-0.406 J0.
X-3.023 Z24.712 I0.406 J0.
X-3.836 Z24.65 I-0.406 J0.
X-3.023 Z24.587 I0.406 J0.
X-3.836 Z24.525 I-0.406 J0.
X-3.023 Z24.462 I0.406 J0.
X-3.836 Z24.4 I-0.406 J0.
X-3.023 Z24.337 I0.406 J0.
X-3.836 Z24.275 I-0.406 J0.
X-3.023 Z24.212 I0.406 J0.
X-3.836 Z24.15 I-0.406 J0.
X-3.023 Z24.087 I0.406 J0.
X-3.836 Z24.024 I-0.406 J0.
X-3.023 Z23.962 I0.406 J0.
X-3.836 Z23.899 I-0.406 J0.
X-3.023 Z23.837 I0.406 J0.
X-3.836 Z23.774 I-0.406 J0.
X-3.023 Z23.712 I0.406 J0.
X-3.836 Z23.649 I-0.406 J0.
X-3.023 Z23.587 I0.406 J0.
X-3.836 Z23.524 I-0.406 J0.
X-3.023 Z23.462 I0.406 J0.
X-3.836 Z23.399 I-0.406 J0.
X-3.023 Z23.337 I0.406 J0.
X-3.836 Z23.274 I-0.406 J0.
X-3.023 Z23.212 I0.406 J0.
X-3.836 Z23.149 I-0.406 J0.
X-3.023 Z23.087 I0.406 J0.
X-3.836 Z23.024 I-0.406 J0.
X-3.023 Z22.962 I0.406 J0.
X-3.836 Z22.899 I-0.406 J0.
X-3.023 Z22.837 I0.406 J0.
X-3.836 Z22.774 I-0.406 J0.
X-3.023 Z22.712 I0.406 J0.
X-3.836 Z22.649 I-0.406 J0.
X-3.023 Z22.587 I0.406 J0.
X-3.836 Z22.524 I-0.406 J0.
X-3.023 Z22.462 I0.406 J0.
X-3.836 Z22.399 I-0.406 J0.
X-3.023 Z22.337 I0.406 J0.
X-3.836 Z22.274 I-0.406 J0.
X-3.023 Z22.212 I0.406 J0.
X-3.836 Z22.149 I-0.406 J0.
X-3.023 Z22.087 I0.406 J0.
X-3.836 Z22.024 I-0.406 J0.
X-3.023 Z21.962 I0.406 J0.
X-3.836 Z21.899 I-0.406 J0.
X-3.023 Z21.837 I0.406 J0.
X-3.836 Z21.774 I-0.406 J0.
X-3.023 Z21.711 I0.406 J0.
X-3.836 Z21.649 I-0.406 J0.
X-3.023 Z21.586 I0.406 J0.
X-3.836 Z21.524 I-0.406 J0.
X-3.023 Z21.461 I0.406 J0.
X-3.836 Z21.399 I-0.406 J0.
X-3.023 Z21.336 I0.406 J0.
X-3.836 Z21.274 I-0.406 J0.
X-3.023 Z21.211 I0.406 J0.
X-3.836 Z21.149 I-0.406 J0.
X-3.023 Z21.086 I0.406 J0.
X-3.836 Z21.024 I-0.406 J0.
X-3.023 Z20.961 I0.406 J0.
X-3.836 Z20.899 I-0.406 J0.
X-3.023 Z20.836 I0.406 J0.
X-3.836 Z20.774 I-0.406 J0.
X-3.116 Y-120.016 Z20.725 I0.406 J0.
X-3.743 Y-120.534 I-0.313 J-0.259
X-3.116 Y-120.016 I0.313 J0.259
X-3.143 Y-120.302 I-0.157 J-0.129
G1 X-3.388 Y-120.504
G0 Z31.4
X57.798 Y-120.478
Z27.765
G1 Z26.4 F1000.
X57.48
G2 X57.277 Y-120.275 I0. J0.203
X58.09 Z26.337 I0.406 J0.
X57.277 Z26.275 I-0.406 J0.
X58.09 Z26.212 I0.406 J0.
X57.277 Z26.15 I-0.406 J0.
X58.09 Z26.087 I0.406 J0.
X57.277 Z26.025 I-0.406 J0.
X58.09 Z25.962 I0.406 J0.
X57.277 Z25.9 I-0.406 J0.
X58.09 Z25.837 I0.406 J0.
X57.277 Z25.775 I-0.406 J0.
X58.09 Z25.712 I0.406 J0.
X57.277 Z25.65 I-0.406 J0.
X58.09 Z25.587 I0.406 J0.
X57.277 Z25.525 I-0.406 J0.
X58.09 Z25.462 I0.406 J0.
X57.277 Z25.4 I-0.406 J0.
X58.09 Z25.337 I0.406 J0.
X57.277 Z25.275 I-0.406 J0.
X58.09 Z25.212 I0.406 J0.
X57.277 Z25.15 I-0.406 J0.
X58.09 Z25.087 I0.406 J0.
X57.277 Z25.025 I-0.406 J0.
X58.09 Z24.962 I0.406 J0.
X57.277 Z24.9 I-0.406 J0.
X58.09 Z24.837 I0.406 J0.
X57.277 Z24.775 I-0.406 J0.
X58.09 Z24.712 I0.406 J0.
X57.277 Z24.65 I-0.406 J0.
X58.09 Z24.587 I0.406 J0.
X57.277 Z24.525 I-0.406 J0.
X58.09 Z24.462 I0.406 J0.
X57.277 Z24.4 I-0.406 J0.
X58.09 Z24.337 I0.406 J0.
X57.277 Z24.275 I-0.406 J0.
X58.09 Z24.212 I0.406 J0.
X57.277 Z24.15 I-0.406 J0.
X58.09 Z24.087 I0.406 J0.
X57.277 Z24.024 I-0.406 J0.
X58.09 Z23.962 I0.406 J0.
X57.277 Z23.899 I-0.406 J0.
X58.09 Z23.837 I0.406 J0.
X57.277 Z23.774 I-0.406 J0.
X58.09 Z23.712 I0.406 J0.
X57.277 Z23.649 I-0.406 J0.
X58.09 Z23.587 I0.406 J0.
X57.277 Z23.524 I-0.406 J0.
X58.09 Z23.462 I0.406 J0.
X57.277 Z23.399 I-0.406 J0.
X58.09 Z23.337 I0.406 J0.
X57.277 Z23.274 I-0.406 J0.
X58.09 Z23.212 I0.406 J0.
X57.277 Z23.149 I-0.406 J0.
X58.09 Z23.087 I0.406 J0.
X57.277 Z23.024 I-0.406 J0.
X58.09 Z22.962 I0.406 J0.
X57.277 Z22.899 I-0.406 J0.
X58.09 Z22.837 I0.406 J0.
X57.277 Z22.774 I-0.406 J0.
X58.09 Z22.712 I0.406 J0.
X57.277 Z22.649 I-0.406 J0.
X58.09 Z22.587 I0.406 J0.
X57.277 Z22.524 I-0.406 J0.
X58.09 Z22.462 I0.406 J0.
X57.277 Z22.399 I-0.406 J0.
X58.09 Z22.337 I0.406 J0.
X57.277 Z22.274 I-0.406 J0.
X58.09 Z22.212 I0.406 J0.
X57.277 Z22.149 I-0.406 J0.
X58.09 Z22.087 I0.406 J0.
X57.277 Z22.024 I-0.406 J0.
X58.09 Z21.962 I0.406 J0.
X57.277 Z21.899 I-0.406 J0.
X58.09 Z21.837 I0.406 J0.
X57.277 Z21.774 I-0.406 J0.
X58.09 Z21.711 I0.406 J0.
X57.277 Z21.649 I-0.406 J0.
X58.09 Z21.586 I0.406 J0.
X57.277 Z21.524 I-0.406 J0.
X58.09 Z21.461 I0.406 J0.
X57.277 Z21.399 I-0.406 J0.
X58.09 Z21.336 I0.406 J0.
X57.277 Z21.274 I-0.406 J0.
X58.09 Z21.211 I0.406 J0.
X57.277 Z21.149 I-0.406 J0.
X58.09 Z21.086 I0.406 J0.
X57.277 Z21.024 I-0.406 J0.
X58.09 Z20.961 I0.406 J0.
X57.277 Z20.899 I-0.406 J0.
X58.09 Z20.836 I0.406 J0.
X57.277 Z20.774 I-0.406 J0.
X57.997 Y-120.016 Z20.725 I0.406 J0.
X57.37 Y-120.534 I-0.313 J-0.259
X57.997 Y-120.016 I0.313 J0.259
X57.969 Y-120.302 I-0.157 J-0.129
G1 X57.724 Y-120.504
G0 Z41.4

(BORE6)
S16000 M3
G0 X25.539 Y-120.91
Z41.4
Z28.4
G1 Z27.035 F800.
G18 G3 X24.904 Z26.4 I-0.635 K0.
G1 X24.587
G17 G2 X23.952 Y-120.275 I0. J0.635
X30.302 Z26.289 I3.175 J0.
X23.952 Z26.178 I-3.175 J0.
X30.302 Z26.067 I3.175 J0.
X23.952 Z25.957 I-3.175 J0.
X30.302 Z25.846 I3.175 J0.
X23.952 Z25.735 I-3.175 J0.
X30.302 Z25.624 I3.175 J0.
X23.952 Z25.513 I-3.175 J0.
X30.302 Z25.402 I3.175 J0.
X23.952 Z25.292 I-3.175 J0.
X30.302 Z25.181 I3.175 J0.
X23.952 Z25.07 I-3.175 J0.
X30.302 Z24.959 I3.175 J0.
X23.952 Z24.848 I-3.175 J0.
X30.302 Z24.737 I3.175 J0.
X23.952 Z24.627 I-3.175 J0.
X30.302 Z24.516 I3.175 J0.
X23.952 Z24.405 I-3.175 J0.
X30.302 Z24.294 I3.175 J0.
X23.952 Z24.183 I-3.175 J0.
X30.302 Z24.072 I3.175 J0.
X23.952 Z23.962 I-3.175 J0.
X30.302 Z23.851 I3.175 J0.
X23.952 Z23.74 I-3.175 J0.
X30.302 Z23.629 I3.175 J0.
X23.952 Z23.518 I-3.175 J0.
X30.302 Z23.407 I3.175 J0.
X23.952 Z23.296 I-3.175 J0.
X30.302 Z23.186 I3.175 J0.
X23.952 Z23.075 I-3.175 J0.
X30.302 Z22.964 I3.175 J0.
X23.952 Z22.853 I-3.175 J0.
X30.302 Z22.742 I3.175 J0.
X23.952 Z22.631 I-3.175 J0.
X30.302 Z22.521 I3.175 J0.
X23.952 Z22.41 I-3.175 J0.
X30.302 Z22.299 I3.175 J0.
X23.952 Z22.188 I-3.175 J0.
X30.302 Z22.077 I3.175 J0.
X23.952 Z21.966 I-3.175 J0.
X30.302 Z21.856 I3.175 J0.
X23.952 Z21.745 I-3.175 J0.
X30.302 Z21.634 I3.175 J0.
X23.952 Z21.523 I-3.175 J0.
X30.302 Z21.412 I3.175 J0.
X23.952 Z21.301 I-3.175 J0.
X30.302 Z21.191 I3.175 J0.
X23.952 Z21.08 I-3.175 J0.
X30.302 Z20.969 I3.175 J0.
X23.952 Z20.858 I-3.175 J0.
X30.302 Z20.747 I3.175 J0.
X29.695 Y-122.142 Z20.725 I-3.175 J0.
X24.559 Y-118.408 I-2.568 J1.867
X29.695 Y-122.142 I2.568 J-1.867
X28.808 Y-122.282 I-0.514 J0.373
G1 X28.551 Y-122.095
X28.471 Y-122.037 Z20.733
X28.393 Y-121.98 Z20.756
X28.318 Y-121.926 Z20.794
X28.249 Y-121.876 Z20.846
X28.188 Y-121.831 Z20.911
X28.136 Y-121.793 Z20.987
X28.094 Y-121.763 Z21.072
X28.063 Y-121.74 Z21.164
X28.044 Y-121.727 Z21.261
X28.038 Y-121.722 Z21.36
G0 Z31.4
X22.365 Y-120.91
Z28.4
G1 Z27.035 F800.
G18 G3 X21.729 Z26.4 I-0.635 K0.
G1 X21.412
G17 G2 X20.777 Y-120.275 I0. J0.635
X33.477 Z26.234 I6.35 J0.
X20.777 Z26.067 I-6.35 J0.
X33.477 Z25.901 I6.35 J0.
X20.777 Z25.735 I-6.35 J0.
X33.477 Z25.569 I6.35 J0.
X20.777 Z25.402 I-6.35 J0.
X33.477 Z25.236 I6.35 J0.
X20.777 Z25.07 I-6.35 J0.
X33.477 Z24.904 I6.35 J0.
X20.777 Z24.737 I-6.35 J0.
X33.477 Z24.571 I6.35 J0.
X20.777 Z24.405 I-6.35 J0.
X33.477 Z24.239 I6.35 J0.
X20.777 Z24.072 I-6.35 J0.
X33.477 Z23.906 I6.35 J0.
X20.777 Z23.74 I-6.35 J0.
X33.477 Z23.574 I6.35 J0.
X20.777 Z23.407 I-6.35 J0.
X33.477 Z23.241 I6.35 J0.
X20.777 Z23.075 I-6.35 J0.
X33.477 Z22.909 I6.35 J0.
X20.777 Z22.742 I-6.35 J0.
X33.477 Z22.576 I6.35 J0.
X20.777 Z22.41 I-6.35 J0.
X33.477 Z22.244 I6.35 J0.
X20.777 Z22.077 I-6.35 J0.
X33.477 Z21.911 I6.35 J0.
X20.777 Z21.745 I-6.35 J0.
X33.477 Z21.578 I6.35 J0.
X20.777 Z21.412 I-6.35 J0.
X33.477 Z21.246 I6.35 J0.
X20.777 Z21.08 I-6.35 J0.
X33.477 Z20.913 I6.35 J0.
X20.777 Z20.747 I-6.35 J0.
X21.326 Y-117.691 Z20.725 I6.35 J0.
X32.928 Y-122.859 I5.801 J-2.584
X21.326 Y-117.691 I-5.801 J2.584
X22.165 Y-117.37 I0.58 J-0.258
G1 X22.455 Y-117.499
X22.546 Y-117.539 Z20.733
X22.634 Y-117.579 Z20.756
X22.718 Y-117.616 Z20.794
X22.796 Y-117.651 Z20.846
X22.865 Y-117.681 Z20.911
X22.924 Y-117.708 Z20.987
X22.972 Y-117.729 Z21.072
X23.007 Y-117.744 Z21.164
X23.028 Y-117.754 Z21.261
X23.035 Y-117.757 Z21.36
G0 Z41.4
M5
G0 Z15
G0 X0 Y0

M9
M30
