(1001)
(T1  D=6.35 CR=0. - ZMIN=-1.5 - FLAT END MILL)
G90 G94 G91.1 G40 G49 G17
G21
(2ND HOLE )
G0 Z15

(2D CONTOUR2)
M5
T1 M6
S16000 M3
G54
M8
G0 X108.255 Y123.46
G43 Z42.4 H1
Z31.4
G1 Z29.535 F800.
G18 G3 X107.62 Z28.9 I-0.635 K0.
G1 X106.985 F1600.
G17 G3 X106.35 Y122.825 I0. J-0.635
G1 Y94.875 Z27.924 F800.
Y145.675 Z26.15
Y94.875 F1600.
Y145.675 Z25.9 F800.
Y94.875 F1600.
Y145.675 Z25.65 F800.
Y94.875 F1600.
Y145.675 Z25.4 F800.
Y94.875 F1600.
Y145.675 Z25.15 F800.
Y94.875 F1600.
Y145.675 Z24.9 F800.
Y94.875 F1600.
Y145.675 Z24.65 F800.
Y94.875 F1600.
Y145.675 Z24.4 F800.
Y94.875 F1600.
Y145.675 Z24.15 F800.
Y94.875 F1600.
Y145.675 Z23.9 F800.
Y94.875 F1600.
Y145.675 Z23.65 F800.
Y94.875 F1600.
Y145.675 Z23.4 F800.
Y94.875 F1600.
Y145.675 Z23.15 F800.
Y94.875 F1600.
Y145.675 Z22.9 F800.
Y94.875 F1600.
Y145.675 Z22.65 F800.
Y94.875 F1600.
Y145.675 Z22.4 F800.
Y94.875 F1600.
Y145.675 Z22.15 F800.
Y94.875 F1600.
Y145.675 Z21.9 F800.
Y94.875 F1600.
Y145.675 Z21.65 F800.
Y94.875 F1600.
Y145.675 Z21.4 F800.
Y94.875 F1600.
Y145.675 Z21.15 F800.
Y94.875 F1600.
Y145.675 Z20.9 F800.
Y94.875 F1600.
Y145.675 Z20.65 F800.
Y94.875 F1600.
Y145.675 Z20.4 F800.
Y94.875 F1600.
Y145.675 Z20.15 F800.
Y94.875 F1600.
Y145.675 Z19.9 F800.
Y94.875 F1600.
Y145.675 Z19.65 F800.
Y94.875 F1600.
Y145.675 Z19.4 F800.
Y94.875 F1600.
Y145.675 Z19.15 F800.
Y94.875 F1600.
Y145.675 Z18.9 F800.
Y94.875 F1600.
Y145.675 Z18.65 F800.
Y94.875 F1600.
Y145.675 Z18.4 F800.
Y94.875 F1600.
Y145.675 Z18.15 F800.
Y94.875 F1600.
Y145.675 Z17.9 F800.
Y94.875 F1600.
Y145.675 Z17.65 F800.
Y94.875 F1600.
Y145.675 Z17.4 F800.
Y94.875 F1600.
Y145.675 Z17.15 F800.
Y94.875 F1600.
Y145.675 Z16.9 F800.
Y94.875 F1600.
Y145.675 Z16.65 F800.
Y94.875 F1600.
Y145.675 Z16.4 F800.
Y94.875 F1600.
Y145.675 Z16.15 F800.
Y94.875 F1600.
Y145.675 Z15.9 F800.
Y94.875 F1600.
Y145.675 Z15.65 F800.
Y94.875 F1600.
Y145.675 Z15.4 F800.
Y94.875 F1600.
Y145.675 Z15.15 F800.
Y94.875 F1600.
Y145.675 Z14.9 F800.
Y94.875 F1600.
Y145.675 Z14.65 F800.
Y94.875 F1600.
Y145.675 Z14.4 F800.
Y94.875 F1600.
Y145.675 Z14.15 F800.
Y94.875 F1600.
Y145.675 Z13.9 F800.
Y94.875 F1600.
Y145.675 Z13.65 F800.
Y94.875 F1600.
Y145.675 Z13.4 F800.
Y94.875 F1600.
Y145.675 Z13.15 F800.
Y94.875 F1600.
Y145.675 Z12.9 F800.
Y94.875 F1600.
Y145.675 Z12.65 F800.
Y94.875 F1600.
Y145.675 Z12.4 F800.
Y94.875 F1600.
Y145.675 Z12.15 F800.
Y94.875 F1600.
Y145.675 Z11.9 F800.
Y94.875 F1600.
Y145.675 Z11.65 F800.
Y94.875 F1600.
Y145.675 Z11.4 F800.
Y94.875 F1600.
Y145.675 Z11.15 F800.
Y94.875 F1600.
Y145.675 Z10.9 F800.
Y94.875 F1600.
Y145.675 Z10.65 F800.
Y94.875 F1600.
Y145.675 Z10.4 F800.
Y94.875 F1600.
Y145.675 Z10.15 F800.
Y94.875 F1600.
Y145.675 Z9.9 F800.
Y94.875 F1600.
Y145.675 Z9.65 F800.
Y94.875 F1600.
Y145.675 Z9.4 F800.
Y94.875 F1600.
Y145.675 Z9.15 F800.
Y94.875 F1600.
Y145.675 Z8.9 F800.
Y94.875 F1600.
Y145.675 Z8.65 F800.
Y94.875 F1600.
Y145.675 Z8.4 F800.
Y94.875 F1600.
Y145.675 Z8.15 F800.
Y94.875 F1600.
Y145.675 Z7.9 F800.
Y94.875 F1600.
Y145.675 Z7.65 F800.
Y94.875 F1600.
Y145.675 Z7.4 F800.
Y94.875 F1600.
Y145.675 Z7.15 F800.
Y94.875 F1600.
Y145.675 Z6.9 F800.
Y94.875 F1600.
Y145.675 Z6.65 F800.
Y94.875 F1600.
Y145.675 Z6.4 F800.
Y94.875 F1600.
Y145.675 Z6.15 F800.
Y94.875 F1600.
Y145.675 Z5.9 F800.
Y94.875 F1600.
Y145.675 Z5.65 F800.
Y94.875 F1600.
Y145.675 Z5.4 F800.
Y94.875 F1600.
Y145.675 Z5.15 F800.
Y94.875 F1600.
Y145.675 Z4.9 F800.
Y94.875 F1600.
Y145.675 Z4.65 F800.
Y94.875 F1600.
Y145.675 Z4.4 F800.
Y94.875 F1600.
Y145.675 Z4.15 F800.
Y94.875 F1600.
Y145.675 Z3.9 F800.
Y94.875 F1600.
Y145.675 Z3.65 F800.
Y94.875 F1600.
Y145.675 Z3.4 F800.
Y94.875 F1600.
Y145.675 Z3.15 F800.
Y94.875 F1600.
Y145.675 Z2.9 F800.
Y94.875 F1600.
Y145.675 Z2.65 F800.
Y94.875 F1600.
Y145.675 Z2.4 F800.
Y94.875 F1600.
Y145.675 Z2.15 F800.
Y94.875 F1600.
Y145.675 Z1.9 F800.
Y94.875 F1600.
Y145.675 Z1.65 F800.
Y94.875 F1600.
Y145.675 Z1.4 F800.
Y94.875 F1600.
Y145.675 Z1.15 F800.
Y94.875 F1600.
Y145.675 Z0.9 F800.
Y94.875 F1600.
Y145.675 Z0.65 F800.
Y94.875 F1600.
Y145.675 Z0.4 F800.
Y94.875 F1600.
Y145.675 Z0.15 F800.
Y94.875 F1600.
Y145.675 Z-0.1 F800.
Y94.875 F1600.
Y145.675 Z-0.35 F800.
Y94.875 F1600.
Y145.675 Z-0.6 F800.
Y94.875 F1600.
Y145.675 Z-0.85 F800.
Y94.875 F1600.
Y145.675 Z-1.1 F800.
Y94.875 F1600.
Y145.675 Z-1.35 F800.
Y94.875 F1600.
Y145.675 Z-1.5 F800.
Y94.875 F1600.
G3 X106.985 Y94.24 I0.635 J0.
G1 X107.62
G18 G2 X108.255 Z-0.865 I0. K0.635
G0 Z42.4
G17

(BORE5)
S5000 M3
G0 X3.315 Y120.478
Z41.4
Z27.765
G1 Z26.4 F1000.
X3.632
G2 X3.836 Y120.275 I0. J-0.203
X3.023 Z26.337 I-0.406 J0.
X3.836 Z26.275 I0.406 J0.
X3.023 Z26.212 I-0.406 J0.
X3.836 Z26.15 I0.406 J0.
X3.023 Z26.087 I-0.406 J0.
X3.836 Z26.025 I0.406 J0.
X3.023 Z25.962 I-0.406 J0.
X3.836 Z25.9 I0.406 J0.
X3.023 Z25.837 I-0.406 J0.
X3.836 Z25.775 I0.406 J0.
X3.023 Z25.712 I-0.406 J0.
X3.836 Z25.65 I0.406 J0.
X3.023 Z25.587 I-0.406 J0.
X3.836 Z25.525 I0.406 J0.
X3.023 Z25.462 I-0.406 J0.
X3.836 Z25.4 I0.406 J0.
X3.023 Z25.337 I-0.406 J0.
X3.836 Z25.275 I0.406 J0.
X3.023 Z25.212 I-0.406 J0.
X3.836 Z25.15 I0.406 J0.
X3.023 Z25.087 I-0.406 J0.
X3.836 Z25.025 I0.406 J0.
X3.023 Z24.962 I-0.406 J0.
X3.836 Z24.9 I0.406 J0.
X3.023 Z24.837 I-0.406 J0.
X3.836 Z24.775 I0.406 J0.
X3.023 Z24.712 I-0.406 J0.
X3.836 Z24.65 I0.406 J0.
X3.023 Z24.587 I-0.406 J0.
X3.836 Z24.525 I0.406 J0.
X3.023 Z24.462 I-0.406 J0.
X3.836 Z24.4 I0.406 J0.
X3.023 Z24.337 I-0.406 J0.
X3.836 Z24.275 I0.406 J0.
X3.023 Z24.212 I-0.406 J0.
X3.836 Z24.15 I0.406 J0.
X3.023 Z24.087 I-0.406 J0.
X3.836 Z24.024 I0.406 J0.
X3.023 Z23.962 I-0.406 J0.
X3.836 Z23.899 I0.406 J0.
X3.023 Z23.837 I-0.406 J0.
X3.836 Z23.774 I0.406 J0.
X3.023 Z23.712 I-0.406 J0.
X3.836 Z23.649 I0.406 J0.
X3.023 Z23.587 I-0.406 J0.
X3.836 Z23.524 I0.406 J0.
X3.023 Z23.462 I-0.406 J0.
X3.836 Z23.399 I0.406 J0.
X3.023 Z23.337 I-0.406 J0.
X3.836 Z23.274 I0.406 J0.
X3.023 Z23.212 I-0.406 J0.
X3.836 Z23.149 I0.406 J0.
X3.023 Z23.087 I-0.406 J0.
X3.836 Z23.024 I0.406 J0.
X3.023 Z22.962 I-0.406 J0.
X3.836 Z22.899 I0.406 J0.
X3.023 Z22.837 I-0.406 J0.
X3.836 Z22.774 I0.406 J0.
X3.023 Z22.712 I-0.406 J0.
X3.836 Z22.649 I0.406 J0.
X3.023 Z22.587 I-0.406 J0.
X3.836 Z22.524 I0.406 J0.
X3.023 Z22.462 I-0.406 J0.
X3.836 Z22.399 I0.406 J0.
X3.023 Z22.337 I-0.406 J0.
X3.836 Z22.274 I0.406 J0.
X3.023 Z22.212 I-0.406 J0.
X3.836 Z22.149 I0.406 J0.
X3.023 Z22.087 I-0.406 J0.
X3.836 Z22.024 I0.406 J0.
X3.023 Z21.962 I-0.406 J0.
X3.836 Z21.899 I0.406 J0.
X3.023 Z21.837 I-0.406 J0.
X3.836 Z21.774 I0.406 J0.
X3.023 Z21.711 I-0.406 J0.
X3.836 Z21.649 I0.406 J0.
X3.023 Z21.586 I-0.406 J0.
X3.836 Z21.524 I0.406 J0.
X3.023 Z21.461 I-0.406 J0.
X3.836 Z21.399 I0.406 J0.
X3.023 Z21.336 I-0.406 J0.
X3.836 Z21.274 I0.406 J0.
X3.023 Z21.211 I-0.406 J0.
X3.836 Z21.149 I0.406 J0.
X3.023 Z21.086 I-0.406 J0.
X3.836 Z21.024 I0.406 J0.
X3.023 Z20.961 I-0.406 J0.
X3.836 Z20.899 I0.406 J0.
X3.023 Z20.836 I-0.406 J0.
X3.836 Z20.774 I0.406 J0.
X3.116 Y120.016 Z20.725 I-0.406 J0.
X3.743 Y120.534 I0.313 J0.259
X3.116 Y120.016 I-0.313 J-0.259
X3.143 Y120.302 I0.157 J0.129
G1 X3.388 Y120.504
G0 Z31.4
X-57.798 Y120.478
Z27.765
G1 Z26.4 F1000.
X-57.48
G2 X-57.277 Y120.275 I0. J-0.203
X-58.09 Z26.337 I-0.406 J0.
X-57.277 Z26.275 I0.406 J0.
X-58.09 Z26.212 I-0.406 J0.
X-57.277 Z26.15 I0.406 J0.
X-58.09 Z26.087 I-0.406 J0.
X-57.277 Z26.025 I0.406 J0.
X-58.09 Z25.962 I-0.406 J0.
X-57.277 Z25.9 I0.406 J0.
X-58.09 Z25.837 I-0.406 J0.
X-57.277 Z25.775 I0.406 J0.
X-58.09 Z25.712 I-0.406 J0.
X-57.277 Z25.65 I0.406 J0.
X-58.09 Z25.587 I-0.406 J0.
X-57.277 Z25.525 I0.406 J0.
X-58.09 Z25.462 I-0.406 J0.
X-57.277 Z25.4 I0.406 J0.
X-58.09 Z25.337 I-0.406 J0.
X-57.277 Z25.275 I0.406 J0.
X-58.09 Z25.212 I-0.406 J0.
X-57.277 Z25.15 I0.406 J0.
X-58.09 Z25.087 I-0.406 J0.
X-57.277 Z25.025 I0.406 J0.
X-58.09 Z24.962 I-0.406 J0.
X-57.277 Z24.9 I0.406 J0.
X-58.09 Z24.837 I-0.406 J0.
X-57.277 Z24.775 I0.406 J0.
X-58.09 Z24.712 I-0.406 J0.
X-57.277 Z24.65 I0.406 J0.
X-58.09 Z24.587 I-0.406 J0.
X-57.277 Z24.525 I0.406 J0.
X-58.09 Z24.462 I-0.406 J0.
X-57.277 Z24.4 I0.406 J0.
X-58.09 Z24.337 I-0.406 J0.
X-57.277 Z24.275 I0.406 J0.
X-58.09 Z24.212 I-0.406 J0.
X-57.277 Z24.15 I0.406 J0.
X-58.09 Z24.087 I-0.406 J0.
X-57.277 Z24.024 I0.406 J0.
X-58.09 Z23.962 I-0.406 J0.
X-57.277 Z23.899 I0.406 J0.
X-58.09 Z23.837 I-0.406 J0.
X-57.277 Z23.774 I0.406 J0.
X-58.09 Z23.712 I-0.406 J0.
X-57.277 Z23.649 I0.406 J0.
X-58.09 Z23.587 I-0.406 J0.
X-57.277 Z23.524 I0.406 J0.
X-58.09 Z23.462 I-0.406 J0.
X-57.277 Z23.399 I0.406 J0.
X-58.09 Z23.337 I-0.406 J0.
X-57.277 Z23.274 I0.406 J0.
X-58.09 Z23.212 I-0.406 J0.
X-57.277 Z23.149 I0.406 J0.
X-58.09 Z23.087 I-0.406 J0.
X-57.277 Z23.024 I0.406 J0.
X-58.09 Z22.962 I-0.406 J0.
X-57.277 Z22.899 I0.406 J0.
X-58.09 Z22.837 I-0.406 J0.
X-57.277 Z22.774 I0.406 J0.
X-58.09 Z22.712 I-0.406 J0.
X-57.277 Z22.649 I0.406 J0.
X-58.09 Z22.587 I-0.406 J0.
X-57.277 Z22.524 I0.406 J0.
X-58.09 Z22.462 I-0.406 J0.
X-57.277 Z22.399 I0.406 J0.
X-58.09 Z22.337 I-0.406 J0.
X-57.277 Z22.274 I0.406 J0.
X-58.09 Z22.212 I-0.406 J0.
X-57.277 Z22.149 I0.406 J0.
X-58.09 Z22.087 I-0.406 J0.
X-57.277 Z22.024 I0.406 J0.
X-58.09 Z21.962 I-0.406 J0.
X-57.277 Z21.899 I0.406 J0.
X-58.09 Z21.837 I-0.406 J0.
X-57.277 Z21.774 I0.406 J0.
X-58.09 Z21.711 I-0.406 J0.
X-57.277 Z21.649 I0.406 J0.
X-58.09 Z21.586 I-0.406 J0.
X-57.277 Z21.524 I0.406 J0.
X-58.09 Z21.461 I-0.406 J0.
X-57.277 Z21.399 I0.406 J0.
X-58.09 Z21.336 I-0.406 J0.
X-57.277 Z21.274 I0.406 J0.
X-58.09 Z21.211 I-0.406 J0.
X-57.277 Z21.149 I0.406 J0.
X-58.09 Z21.086 I-0.406 J0.
X-57.277 Z21.024 I0.406 J0.
X-58.09 Z20.961 I-0.406 J0.
X-57.277 Z20.899 I0.406 J0.
X-58.09 Z20.836 I-0.406 J0.
X-57.277 Z20.774 I0.406 J0.
X-57.997 Y120.016 Z20.725 I-0.406 J0.
X-57.37 Y120.534 I0.313 J0.259
X-57.997 Y120.016 I-0.313 J-0.259
X-57.969 Y120.302 I0.157 J0.129
G1 X-57.724 Y120.504
G0 Z41.4

(BORE6)
S16000 M3
G0 X-25.539 Y120.91
Z41.4
Z28.4
G1 Z27.035 F800.
G18 G2 X-24.904 Z26.4 I0.635 K0.
G1 X-24.587
G17 G2 X-23.952 Y120.275 I0. J-0.635
X-30.302 Z26.289 I-3.175 J0.
X-23.952 Z26.178 I3.175 J0.
X-30.302 Z26.067 I-3.175 J0.
X-23.952 Z25.957 I3.175 J0.
X-30.302 Z25.846 I-3.175 J0.
X-23.952 Z25.735 I3.175 J0.
X-30.302 Z25.624 I-3.175 J0.
X-23.952 Z25.513 I3.175 J0.
X-30.302 Z25.402 I-3.175 J0.
X-23.952 Z25.292 I3.175 J0.
X-30.302 Z25.181 I-3.175 J0.
X-23.952 Z25.07 I3.175 J0.
X-30.302 Z24.959 I-3.175 J0.
X-23.952 Z24.848 I3.175 J0.
X-30.302 Z24.737 I-3.175 J0.
X-23.952 Z24.627 I3.175 J0.
X-30.302 Z24.516 I-3.175 J0.
X-23.952 Z24.405 I3.175 J0.
X-30.302 Z24.294 I-3.175 J0.
X-23.952 Z24.183 I3.175 J0.
X-30.302 Z24.072 I-3.175 J0.
X-23.952 Z23.962 I3.175 J0.
X-30.302 Z23.851 I-3.175 J0.
X-23.952 Z23.74 I3.175 J0.
X-30.302 Z23.629 I-3.175 J0.
X-23.952 Z23.518 I3.175 J0.
X-30.302 Z23.407 I-3.175 J0.
X-23.952 Z23.296 I3.175 J0.
X-30.302 Z23.186 I-3.175 J0.
X-23.952 Z23.075 I3.175 J0.
X-30.302 Z22.964 I-3.175 J0.
X-23.952 Z22.853 I3.175 J0.
X-30.302 Z22.742 I-3.175 J0.
X-23.952 Z22.631 I3.175 J0.
X-30.302 Z22.521 I-3.175 J0.
X-23.952 Z22.41 I3.175 J0.
X-30.302 Z22.299 I-3.175 J0.
X-23.952 Z22.188 I3.175 J0.
X-30.302 Z22.077 I-3.175 J0.
X-23.952 Z21.966 I3.175 J0.
X-30.302 Z21.856 I-3.175 J0.
X-23.952 Z21.745 I3.175 J0.
X-30.302 Z21.634 I-3.175 J0.
X-23.952 Z21.523 I3.175 J0.
X-30.302 Z21.412 I-3.175 J0.
X-23.952 Z21.301 I3.175 J0.
X-30.302 Z21.191 I-3.175 J0.
X-23.952 Z21.08 I3.175 J0.
X-30.302 Z20.969 I-3.175 J0.
X-23.952 Z20.858 I3.175 J0.
X-30.302 Z20.747 I-3.175 J0.
X-29.695 Y122.142 Z20.725 I3.175 J0.
X-24.559 Y118.408 I2.568 J-1.867
X-29.695 Y122.142 I-2.568 J1.867
X-28.808 Y122.282 I0.514 J-0.373
G1 X-28.551 Y122.095
X-28.471 Y122.037 Z20.733
X-28.393 Y121.98 Z20.756
X-28.318 Y121.926 Z20.794
X-28.249 Y121.876 Z20.846
X-28.188 Y121.831 Z20.911
X-28.136 Y121.793 Z20.987
X-28.094 Y121.763 Z21.072
X-28.063 Y121.74 Z21.164
X-28.044 Y121.727 Z21.261
X-28.038 Y121.722 Z21.36
G0 Z31.4
X-22.365 Y120.91
Z28.4
G1 Z27.035 F800.
G18 G2 X-21.729 Z26.4 I0.635 K0.
G1 X-21.412
G17 G2 X-20.777 Y120.275 I0. J-0.635
X-33.477 Z26.234 I-6.35 J0.
X-20.777 Z26.067 I6.35 J0.
X-33.477 Z25.901 I-6.35 J0.
X-20.777 Z25.735 I6.35 J0.
X-33.477 Z25.569 I-6.35 J0.
X-20.777 Z25.402 I6.35 J0.
X-33.477 Z25.236 I-6.35 J0.
X-20.777 Z25.07 I6.35 J0.
X-33.477 Z24.904 I-6.35 J0.
X-20.777 Z24.737 I6.35 J0.
X-33.477 Z24.571 I-6.35 J0.
X-20.777 Z24.405 I6.35 J0.
X-33.477 Z24.239 I-6.35 J0.
X-20.777 Z24.072 I6.35 J0.
X-33.477 Z23.906 I-6.35 J0.
X-20.777 Z23.74 I6.35 J0.
X-33.477 Z23.574 I-6.35 J0.
X-20.777 Z23.407 I6.35 J0.
X-33.477 Z23.241 I-6.35 J0.
X-20.777 Z23.075 I6.35 J0.
X-33.477 Z22.909 I-6.35 J0.
X-20.777 Z22.742 I6.35 J0.
X-33.477 Z22.576 I-6.35 J0.
X-20.777 Z22.41 I6.35 J0.
X-33.477 Z22.244 I-6.35 J0.
X-20.777 Z22.077 I6.35 J0.
X-33.477 Z21.911 I-6.35 J0.
X-20.777 Z21.745 I6.35 J0.
X-33.477 Z21.578 I-6.35 J0.
X-20.777 Z21.412 I6.35 J0.
X-33.477 Z21.246 I-6.35 J0.
X-20.777 Z21.08 I6.35 J0.
X-33.477 Z20.913 I-6.35 J0.
X-20.777 Z20.747 I6.35 J0.
X-21.326 Y117.691 Z20.725 I-6.35 J0.
X-32.928 Y122.859 I-5.801 J2.584
X-21.326 Y117.691 I5.801 J-2.584
X-22.165 Y117.37 I-0.58 J0.258
G1 X-22.455 Y117.499
X-22.546 Y117.539 Z20.733
X-22.634 Y117.579 Z20.756
X-22.718 Y117.616 Z20.794
X-22.796 Y117.651 Z20.846
X-22.865 Y117.681 Z20.911
X-22.924 Y117.708 Z20.987
X-22.972 Y117.729 Z21.072
X-23.007 Y117.744 Z21.164
X-23.028 Y117.754 Z21.261
X-23.035 Y117.757 Z21.36
G0 Z41.4
M5
G0 Z15
G0 X0 Y0

M9
M30
