(X8 LOWER ARM V2 CONTOUR)
(T3  D=0.118 CR=0. - ZMIN=-0.55 - FLAT END MILL)
G90 G94 G91.1 G40 G49 G17
G20

(2D CONTOUR3)
M5
T3 M6
S15000 M3
G54
M8
G0 X6.1034 Y9.13
G43 Z0.6 H3
Z0.2
G1 Z0.1394 F20.
Z-0.0882
X6.1037 Y9.1301 Z-0.0908 F40.
X6.1045 Y9.1305 Z-0.0933
X6.1058 Y9.131 Z-0.0956
X6.1076 Y9.1316 Z-0.0974
X6.1096 Y9.1324 Z-0.0988
X6.112 Y9.1333 Z-0.0997
X6.1144 Y9.1342 Z-0.1
X6.1255 Y9.1384
G3 X6.1323 Y9.1537 I-0.0042 J0.011
X4.5778 Y11.292 I-4.7185 J-1.796
G2 X4.3971 Y12.9567 I0.742 J0.9227
X6.0618 Y13.1373 I0.9226 J-0.742
X5.5857 Y1.2255 I-4.648 J-5.7796
X1.4404 Y-0.059 I-4.1719 J6.1321
X1.4319 Y2.309 I-0.0042 J1.184
G3 X6.1323 Y9.1537 I-0.0181 J5.0487
X6.1171 Y9.1605 I-0.011 J-0.0042
G1 X6.106 Y9.1563
X6.1036 Y9.1554 Z-0.0997
X6.1013 Y9.1545 Z-0.0988
X6.0992 Y9.1537 Z-0.0974
X6.0974 Y9.153 Z-0.0956
X6.0961 Y9.1525 Z-0.0933
X6.0953 Y9.1522 Z-0.0908
X6.095 Y9.1521 Z-0.0882
G0 Z0.2
X6.1034 Y9.13
G1 Z0.0394 F20.
Z-0.1882
X6.1037 Y9.1301 Z-0.1908 F40.
X6.1045 Y9.1305 Z-0.1933
X6.1058 Y9.131 Z-0.1956
X6.1076 Y9.1316 Z-0.1974
X6.1096 Y9.1324 Z-0.1988
X6.112 Y9.1333 Z-0.1997
X6.1144 Y9.1342 Z-0.2
X6.1255 Y9.1384
G3 X6.1323 Y9.1537 I-0.0042 J0.011
X4.5778 Y11.292 I-4.7185 J-1.796
G2 X4.3971 Y12.9567 I0.742 J0.9227
X6.0618 Y13.1373 I0.9226 J-0.742
X5.5857 Y1.2255 I-4.648 J-5.7796
X1.4404 Y-0.059 I-4.1719 J6.1321
X1.4319 Y2.309 I-0.0042 J1.184
G3 X6.1323 Y9.1537 I-0.0181 J5.0487
X6.1171 Y9.1605 I-0.011 J-0.0042
G1 X6.106 Y9.1563
X6.1036 Y9.1554 Z-0.1997
X6.1013 Y9.1545 Z-0.1988
X6.0992 Y9.1537 Z-0.1974
X6.0974 Y9.153 Z-0.1956
X6.0961 Y9.1525 Z-0.1933
X6.0953 Y9.1522 Z-0.1908
X6.095 Y9.1521 Z-0.1882
G0 Z0.2
X6.1034 Y9.13
G1 Z-0.0606 F20.
Z-0.2882
X6.1037 Y9.1301 Z-0.2908 F40.
X6.1045 Y9.1305 Z-0.2933
X6.1058 Y9.131 Z-0.2956
X6.1076 Y9.1316 Z-0.2974
X6.1096 Y9.1324 Z-0.2988
X6.112 Y9.1333 Z-0.2997
X6.1144 Y9.1342 Z-0.3
X6.1255 Y9.1384
G3 X6.1323 Y9.1537 I-0.0042 J0.011
X4.5778 Y11.292 I-4.7185 J-1.796
G2 X4.3971 Y12.9567 I0.742 J0.9227
X6.0618 Y13.1373 I0.9226 J-0.742
X5.5857 Y1.2255 I-4.648 J-5.7796
X1.4404 Y-0.059 I-4.1719 J6.1321
X1.4319 Y2.309 I-0.0042 J1.184
G3 X6.1323 Y9.1537 I-0.0181 J5.0487
X6.1171 Y9.1605 I-0.011 J-0.0042
G1 X6.106 Y9.1563
X6.1036 Y9.1554 Z-0.2997
X6.1013 Y9.1545 Z-0.2988
X6.0992 Y9.1537 Z-0.2974
X6.0974 Y9.153 Z-0.2956
X6.0961 Y9.1525 Z-0.2933
X6.0953 Y9.1522 Z-0.2908
X6.095 Y9.1521 Z-0.2882
G0 Z0.2
X6.1034 Y9.13
G1 Z-0.1606 F20.
Z-0.3882
X6.1037 Y9.1301 Z-0.3908 F40.
X6.1045 Y9.1305 Z-0.3933
X6.1058 Y9.131 Z-0.3956
X6.1076 Y9.1316 Z-0.3974
X6.1096 Y9.1324 Z-0.3988
X6.112 Y9.1333 Z-0.3997
X6.1144 Y9.1342 Z-0.4
X6.1255 Y9.1384
G3 X6.1323 Y9.1537 I-0.0042 J0.011
X4.5778 Y11.292 I-4.7185 J-1.796
G2 X4.3971 Y12.9567 I0.742 J0.9227
X6.0618 Y13.1373 I0.9226 J-0.742
X5.5857 Y1.2255 I-4.648 J-5.7796
X1.4404 Y-0.059 I-4.1719 J6.1321
X1.4319 Y2.309 I-0.0042 J1.184
G3 X6.1323 Y9.1537 I-0.0181 J5.0487
X6.1171 Y9.1605 I-0.011 J-0.0042
G1 X6.106 Y9.1563
X6.1036 Y9.1554 Z-0.3997
X6.1013 Y9.1545 Z-0.3988
X6.0992 Y9.1537 Z-0.3974
X6.0974 Y9.153 Z-0.3956
X6.0961 Y9.1525 Z-0.3933
X6.0953 Y9.1522 Z-0.3908
X6.095 Y9.1521 Z-0.3882
G0 Z0.2
X6.1034 Y9.13
G1 Z-0.2606 F20.
Z-0.4882
X6.1037 Y9.1301 Z-0.4908 F40.
X6.1045 Y9.1305 Z-0.4933
X6.1058 Y9.131 Z-0.4956
X6.1076 Y9.1316 Z-0.4974
X6.1096 Y9.1324 Z-0.4988
X6.112 Y9.1333 Z-0.4997
X6.1144 Y9.1342 Z-0.5
X6.1255 Y9.1384
G3 X6.1323 Y9.1537 I-0.0042 J0.011
X4.5778 Y11.292 I-4.7185 J-1.796
G2 X4.3971 Y12.9567 I0.742 J0.9227
X6.0618 Y13.1373 I0.9226 J-0.742
X5.5857 Y1.2255 I-4.648 J-5.7796
X1.4404 Y-0.059 I-4.1719 J6.1321
X1.4319 Y2.309 I-0.0042 J1.184
G3 X6.1323 Y9.1537 I-0.0181 J5.0487
X6.1171 Y9.1605 I-0.011 J-0.0042
G1 X6.106 Y9.1563
X6.1036 Y9.1554 Z-0.4997
X6.1013 Y9.1545 Z-0.4988
X6.0992 Y9.1537 Z-0.4974
X6.0974 Y9.153 Z-0.4956
X6.0961 Y9.1525 Z-0.4933
X6.0953 Y9.1522 Z-0.4908
X6.095 Y9.1521 Z-0.4882
G0 Z0.2
X6.1034 Y9.13
G1 Z-0.3606 F20.
Z-0.5382
X6.1037 Y9.1301 Z-0.5408 F40.
X6.1045 Y9.1305 Z-0.5433
X6.1058 Y9.131 Z-0.5456
X6.1076 Y9.1316 Z-0.5474
X6.1096 Y9.1324 Z-0.5488
X6.112 Y9.1333 Z-0.5497
X6.1144 Y9.1342 Z-0.55
X6.1255 Y9.1384
G3 X6.1323 Y9.1537 I-0.0042 J0.011
X4.5778 Y11.292 I-4.7185 J-1.796
G2 X4.3971 Y12.9567 I0.742 J0.9227
X6.0618 Y13.1373 I0.9226 J-0.742
X5.5857 Y1.2255 I-4.648 J-5.7796
X1.4404 Y-0.059 I-4.1719 J6.1321
X1.4319 Y2.309 I-0.0042 J1.184
G3 X6.1323 Y9.1537 I-0.0181 J5.0487
X6.1171 Y9.1605 I-0.011 J-0.0042
G1 X6.106 Y9.1563
X6.1036 Y9.1554 Z-0.5497
X6.1013 Y9.1545 Z-0.5488
X6.0992 Y9.1537 Z-0.5474
X6.0974 Y9.153 Z-0.5456
X6.0961 Y9.1525 Z-0.5433
X6.0953 Y9.1522 Z-0.5408
X6.095 Y9.1521 Z-0.5382
G0 Z0.2
X2.6708 Y7.8458
G1 Z0.1394 F20.
Z-0.0882
X2.6706 Y7.8457 Z-0.0908 F40.
X2.6697 Y7.8454 Z-0.0933
X2.6684 Y7.8448 Z-0.0956
X2.6667 Y7.8442 Z-0.0974
X2.6646 Y7.8434 Z-0.0988
X2.6623 Y7.8425 Z-0.0997
X2.6598 Y7.8416 Z-0.1
X2.6488 Y7.8373
G3 X2.642 Y7.8221 I0.0042 J-0.011
X3.8629 Y5.9817 I4.7157 J1.8031
G2 X2.2237 Y4.2727 I-0.8196 J-0.8545
X7.9776 Y17.016 I5.134 J5.3525
X7.7797 Y14.6563 I-0.0989 J-1.1799
G3 X2.642 Y7.8221 I-0.422 J-5.031
X2.6572 Y7.8153 I0.011 J0.0042
G1 X2.6682 Y7.8195
X2.6707 Y7.8204 Z-0.0997
X2.673 Y7.8213 Z-0.0988
X2.6751 Y7.8221 Z-0.0974
X2.6769 Y7.8228 Z-0.0956
X2.6782 Y7.8233 Z-0.0933
X2.679 Y7.8236 Z-0.0908
X2.6793 Y7.8237 Z-0.0882
G0 Z0.2
X2.6708 Y7.8458
G1 Z0.0394 F20.
Z-0.1882
X2.6706 Y7.8457 Z-0.1908 F40.
X2.6697 Y7.8454 Z-0.1933
X2.6684 Y7.8448 Z-0.1956
X2.6667 Y7.8442 Z-0.1974
X2.6646 Y7.8434 Z-0.1988
X2.6623 Y7.8425 Z-0.1997
X2.6598 Y7.8416 Z-0.2
X2.6488 Y7.8373
G3 X2.642 Y7.8221 I0.0042 J-0.011
X3.8629 Y5.9817 I4.7157 J1.8031
G2 X2.2237 Y4.2727 I-0.8196 J-0.8545
X7.9776 Y17.016 I5.134 J5.3525
X7.7797 Y14.6563 I-0.0989 J-1.1799
G3 X2.642 Y7.8221 I-0.422 J-5.031
X2.6572 Y7.8153 I0.011 J0.0042
G1 X2.6682 Y7.8195
X2.6707 Y7.8204 Z-0.1997
X2.673 Y7.8213 Z-0.1988
X2.6751 Y7.8221 Z-0.1974
X2.6769 Y7.8228 Z-0.1956
X2.6782 Y7.8233 Z-0.1933
X2.679 Y7.8236 Z-0.1908
X2.6793 Y7.8237 Z-0.1882
G0 Z0.2
X2.6708 Y7.8458
G1 Z-0.0606 F20.
Z-0.2882
X2.6706 Y7.8457 Z-0.2908 F40.
X2.6697 Y7.8454 Z-0.2933
X2.6684 Y7.8448 Z-0.2956
X2.6667 Y7.8442 Z-0.2974
X2.6646 Y7.8434 Z-0.2988
X2.6623 Y7.8425 Z-0.2997
X2.6598 Y7.8416 Z-0.3
X2.6488 Y7.8373
G3 X2.642 Y7.8221 I0.0042 J-0.011
X3.8629 Y5.9817 I4.7157 J1.8031
G2 X2.2237 Y4.2727 I-0.8196 J-0.8545
X7.9776 Y17.016 I5.134 J5.3525
X7.7797 Y14.6563 I-0.0989 J-1.1799
G3 X2.642 Y7.8221 I-0.422 J-5.031
X2.6572 Y7.8153 I0.011 J0.0042
G1 X2.6682 Y7.8195
X2.6707 Y7.8204 Z-0.2997
X2.673 Y7.8213 Z-0.2988
X2.6751 Y7.8221 Z-0.2974
X2.6769 Y7.8228 Z-0.2956
X2.6782 Y7.8233 Z-0.2933
X2.679 Y7.8236 Z-0.2908
X2.6793 Y7.8237 Z-0.2882
G0 Z0.2
X2.6708 Y7.8458
G1 Z-0.1606 F20.
Z-0.3882
X2.6706 Y7.8457 Z-0.3908 F40.
X2.6697 Y7.8454 Z-0.3933
X2.6684 Y7.8448 Z-0.3956
X2.6667 Y7.8442 Z-0.3974
X2.6646 Y7.8434 Z-0.3988
X2.6623 Y7.8425 Z-0.3997
X2.6598 Y7.8416 Z-0.4
X2.6488 Y7.8373
G3 X2.642 Y7.8221 I0.0042 J-0.011
X3.8629 Y5.9817 I4.7157 J1.8031
G2 X2.2237 Y4.2727 I-0.8196 J-0.8545
X7.9776 Y17.016 I5.134 J5.3525
X7.7797 Y14.6563 I-0.0989 J-1.1799
G3 X2.642 Y7.8221 I-0.422 J-5.031
X2.6572 Y7.8153 I0.011 J0.0042
G1 X2.6682 Y7.8195
X2.6707 Y7.8204 Z-0.3997
X2.673 Y7.8213 Z-0.3988
X2.6751 Y7.8221 Z-0.3974
X2.6769 Y7.8228 Z-0.3956
X2.6782 Y7.8233 Z-0.3933
X2.679 Y7.8236 Z-0.3908
X2.6793 Y7.8237 Z-0.3882
G0 Z0.2
X2.6708 Y7.8458
G1 Z-0.2606 F20.
Z-0.4882
X2.6706 Y7.8457 Z-0.4908 F40.
X2.6697 Y7.8454 Z-0.4933
X2.6684 Y7.8448 Z-0.4956
X2.6667 Y7.8442 Z-0.4974
X2.6646 Y7.8434 Z-0.4988
X2.6623 Y7.8425 Z-0.4997
X2.6598 Y7.8416 Z-0.5
X2.6488 Y7.8373
G3 X2.642 Y7.8221 I0.0042 J-0.011
X3.8629 Y5.9817 I4.7157 J1.8031
G2 X2.2237 Y4.2727 I-0.8196 J-0.8545
X7.9776 Y17.016 I5.134 J5.3525
X7.7797 Y14.6563 I-0.0989 J-1.1799
G3 X2.642 Y7.8221 I-0.422 J-5.031
X2.6572 Y7.8153 I0.011 J0.0042
G1 X2.6682 Y7.8195
X2.6707 Y7.8204 Z-0.4997
X2.673 Y7.8213 Z-0.4988
X2.6751 Y7.8221 Z-0.4974
X2.6769 Y7.8228 Z-0.4956
X2.6782 Y7.8233 Z-0.4933
X2.679 Y7.8236 Z-0.4908
X2.6793 Y7.8237 Z-0.4882
G0 Z0.2
X2.6708 Y7.8458
G1 Z-0.3606 F20.
Z-0.5382
X2.6706 Y7.8457 Z-0.5408 F40.
X2.6697 Y7.8454 Z-0.5433
X2.6684 Y7.8448 Z-0.5456
X2.6667 Y7.8442 Z-0.5474
X2.6646 Y7.8434 Z-0.5488
X2.6623 Y7.8425 Z-0.5497
X2.6598 Y7.8416 Z-0.55
X2.6488 Y7.8373
G3 X2.642 Y7.8221 I0.0042 J-0.011
X3.8629 Y5.9817 I4.7157 J1.8031
G2 X2.2237 Y4.2727 I-0.8196 J-0.8545
X7.9776 Y17.016 I5.134 J5.3525
X7.7797 Y14.6563 I-0.0989 J-1.1799
G3 X2.642 Y7.8221 I-0.422 J-5.031
X2.6572 Y7.8153 I0.011 J0.0042
G1 X2.6682 Y7.8195
X2.6707 Y7.8204 Z-0.5497
X2.673 Y7.8213 Z-0.5488
X2.6751 Y7.8221 Z-0.5474
X2.6769 Y7.8228 Z-0.5456
X2.6782 Y7.8233 Z-0.5433
X2.679 Y7.8236 Z-0.5408
X2.6793 Y7.8237 Z-0.5382
G0 Z0.6

M9
M30
