;FLAVOR:Marlin
;TIME:1372
;Filament used: 0.29311m
;Layer height: 0.2
;MINX:69.166
;MINY:91.575
;MINZ:0.12
;MAXX:128.426
;MAXY:128.424
;MAXZ:10.12
;Generated with Cura_SteamEngine 4.3.0
M140 S50
M105
M190 S50
M104 S200
M105
M109 S200
M82 ;absolute extrusion mode
M201 X500.00 Y500.00 Z100.00 E5000.00 ;Setup machine max acceleration
M203 X500.00 Y500.00 Z10.00 E50.00 ;Setup machine max feedrate
M204 P500.00 R1000.00 T500.00 ;Setup Print/Retract/Travel acceleration
M205 X8.00 Y8.00 Z0.40 E5.00 ;Setup Jerk
M220 S100 ;Reset Feedrate
M221 S100 ;Reset Flowrate

G28 ;Home

G92 E0 ;Reset Extruder
G1 Z2.0 F3000 ;Move Z Axis up
G1 X10.1 Y20 Z0.28 F5000.0 ;Move to start position
G1 X10.1 Y200.0 Z0.28 F1500.0 E15 ;Draw the first line
G1 X10.4 Y200.0 Z0.28 F5000.0 ;Move to side a little
G1 X10.4 Y20 Z0.28 F1500.0 E30 ;Draw the second line
G92 E0 ;Reset Extruder
G1 Z2.0 F3000 ;Move Z Axis up

G92 E0
G92 E0
G1 F2700 E-5
;LAYER_COUNT:51
;LAYER:0
M107
G0 F6000 X75.491 Y96.847 Z0.12
;TYPE:SKIRT
G1 F2700 E0
G1 F1200 X75.846 Y96.571 E0.00449
G1 X76.367 Y96.191 E0.01092
G1 X76.626 Y96.014 E0.01405
G1 X77.064 Y95.73 E0.01926
G1 X77.361 Y95.548 E0.02274
G1 X77.984 Y95.195 E0.02988
G1 X78.382 Y94.987 E0.03436
G1 X78.965 Y94.705 E0.04082
G1 X79.31 Y94.551 E0.04459
G1 X79.764 Y94.361 E0.0495
G1 X80.04 Y94.253 E0.05246
G1 X80.704 Y94.018 E0.05949
G1 X81.141 Y93.88 E0.06406
G1 X81.777 Y93.701 E0.07065
G1 X82.132 Y93.613 E0.0743
G1 X82.721 Y93.485 E0.08032
G1 X83.046 Y93.424 E0.08362
G1 X83.73 Y93.319 E0.09052
G1 X84.229 Y93.259 E0.09554
G1 X84.966 Y93.197 E0.10292
G1 X85.454 Y93.173 E0.10779
G1 X86.168 Y93.162 E0.11492
G1 X86.75 Y93.173 E0.12073
G1 X86.977 Y93.18 E0.12299
G1 X88.5 Y93.242 E0.1382
G1 X91.024 Y93.274 E0.16339
G1 X93.58 Y93.233 E0.18889
G1 X96.116 Y93.122 E0.21422
G1 X98.605 Y92.941 E0.23912
G1 X101.157 Y92.683 E0.26472
G1 X103.658 Y92.36 E0.28988
G1 X106.186 Y91.959 E0.31542
G1 X106.488 Y91.904 E0.31848
G1 X106.702 Y91.867 E0.32065
G1 X107.058 Y91.81 E0.32425
G1 X107.386 Y91.763 E0.32755
G1 X107.91 Y91.696 E0.33282
G1 X108.58 Y91.632 E0.33954
G1 X109.102 Y91.599 E0.34476
G1 X109.653 Y91.579 E0.35026
G1 X110.033 Y91.575 E0.35405
G1 X110.765 Y91.592 E0.36136
G1 X111.373 Y91.628 E0.36744
G1 X112.043 Y91.69 E0.37415
G1 X112.511 Y91.748 E0.37886
G1 X113.148 Y91.847 E0.38529
G1 X113.619 Y91.935 E0.39007
G1 X114.262 Y92.076 E0.39664
G1 X114.757 Y92.201 E0.40173
G1 X115.351 Y92.369 E0.40789
G1 X115.797 Y92.51 E0.41256
G1 X116.459 Y92.744 E0.41956
G1 X116.924 Y92.926 E0.42455
G1 X117.489 Y93.167 E0.43068
G1 X117.945 Y93.377 E0.43568
G1 X118.565 Y93.687 E0.4426
G1 X119.005 Y93.926 E0.4476
G1 X119.417 Y94.163 E0.45234
G1 X119.717 Y94.344 E0.45584
G1 X120.396 Y94.79 E0.46394
G1 X120.977 Y95.205 E0.47107
G1 X121.482 Y95.589 E0.4774
G1 X121.766 Y95.819 E0.48104
G1 X122.255 Y96.241 E0.48749
G1 X122.641 Y96.595 E0.49271
G1 X123.136 Y97.079 E0.49962
G1 X123.501 Y97.461 E0.50489
G1 X123.936 Y97.946 E0.51139
G1 X124.232 Y98.297 E0.51598
G1 X124.635 Y98.807 E0.52246
G1 X124.906 Y99.172 E0.527
G1 X125.27 Y99.694 E0.53335
G1 X125.591 Y100.186 E0.53921
G1 X125.879 Y100.654 E0.54469
G1 X126.049 Y100.947 E0.54807
G1 X126.409 Y101.622 E0.55571
G1 X126.699 Y102.218 E0.56232
G1 X126.967 Y102.817 E0.56887
G1 X127.125 Y103.201 E0.57301
G1 X127.353 Y103.808 E0.57948
G1 X127.519 Y104.295 E0.58461
G1 X127.707 Y104.907 E0.591
G1 X127.829 Y105.352 E0.59561
G1 X127.98 Y105.977 E0.60202
G1 X128.088 Y106.493 E0.60728
G1 X128.205 Y107.153 E0.61397
G1 X128.269 Y107.599 E0.61847
G1 X128.341 Y108.241 E0.62491
G1 X128.384 Y108.771 E0.63022
G1 X128.416 Y109.397 E0.63647
G1 X128.426 Y109.868 E0.64117
G1 X128.418 Y110.547 E0.64795
G1 X128.396 Y111.053 E0.653
G1 X128.346 Y111.718 E0.65966
G1 X128.292 Y112.221 E0.6647
G1 X128.204 Y112.86 E0.67114
G1 X128.127 Y113.313 E0.67573
G1 X127.994 Y113.966 E0.68237
G1 X127.866 Y114.508 E0.68793
G1 X127.695 Y115.143 E0.69449
G1 X127.57 Y115.555 E0.69879
G1 X127.363 Y116.169 E0.70525
G1 X127.184 Y116.65 E0.71038
G1 X126.949 Y117.227 E0.71659
G1 X126.761 Y117.653 E0.72124
G1 X126.463 Y118.274 E0.72811
G1 X126.192 Y118.793 E0.73395
G1 X125.917 Y119.286 E0.73959
G1 X125.757 Y119.556 E0.74272
G1 X125.365 Y120.168 E0.74997
G1 X124.995 Y120.704 E0.75647
G1 X124.6 Y121.239 E0.7631
G1 X124.306 Y121.612 E0.76784
G1 X123.884 Y122.115 E0.77439
G1 X123.594 Y122.439 E0.77873
G1 X123.185 Y122.871 E0.78467
G1 X122.817 Y123.238 E0.78985
G1 X122.282 Y123.735 E0.79714
G1 X121.89 Y124.075 E0.80232
G1 X121.414 Y124.464 E0.80845
G1 X121.084 Y124.718 E0.81261
G1 X120.544 Y125.107 E0.81925
G1 X120.033 Y125.451 E0.82539
G1 X119.571 Y125.745 E0.83086
G1 X119.311 Y125.901 E0.83388
G1 X118.661 Y126.26 E0.84129
G1 X118.062 Y126.564 E0.848
G1 X117.446 Y126.852 E0.85478
G1 X117.054 Y127.02 E0.85904
G1 X116.458 Y127.254 E0.86542
G1 X115.961 Y127.432 E0.87069
G1 X115.338 Y127.634 E0.87723
G1 X114.892 Y127.763 E0.88186
G1 X114.309 Y127.913 E0.88787
G1 X113.866 Y128.014 E0.8924
G1 X113.224 Y128.14 E0.89893
G1 X112.734 Y128.22 E0.90388
G1 X112.032 Y128.31 E0.91094
G1 X111.451 Y128.365 E0.91677
G1 X110.815 Y128.406 E0.92313
G1 X110.4 Y128.42 E0.92727
G1 X109.822 Y128.424 E0.93304
G1 X109.401 Y128.415 E0.93724
G1 X108.677 Y128.374 E0.94447
G1 X108.015 Y128.314 E0.95111
G1 X107.35 Y128.232 E0.95779
G1 X106.308 Y128.07 E0.96832
G1 X106.129 Y128.041 E0.97012
G1 X104.982 Y127.842 E0.98174
G1 X102.461 Y127.478 E1.00716
G1 X99.945 Y127.188 E1.03243
G1 X97.435 Y126.968 E1.05757
G1 X94.905 Y126.821 E1.08285
G1 X92.38 Y126.744 E1.10806
G1 X89.806 Y126.738 E1.13374
G1 X87.972 Y126.779 E1.15205
G1 X86.339 Y126.832 E1.16835
G1 X85.814 Y126.836 E1.17359
G1 X85.531 Y126.831 E1.17641
G1 X84.874 Y126.799 E1.18298
G1 X84.476 Y126.767 E1.18696
G1 X83.775 Y126.687 E1.194
G1 X83.25 Y126.609 E1.1993
G1 X82.604 Y126.492 E1.20585
G1 X82.407 Y126.45 E1.20786
G1 X81.912 Y126.332 E1.21294
G1 X81.462 Y126.213 E1.21758
G1 X80.773 Y126.006 E1.22476
G1 X80.431 Y125.89 E1.22836
G1 X79.95 Y125.713 E1.23348
G1 X79.656 Y125.597 E1.23663
G1 X78.993 Y125.309 E1.24384
G1 X78.546 Y125.096 E1.24878
G1 X77.956 Y124.791 E1.25541
G1 X77.656 Y124.624 E1.25884
G1 X77.204 Y124.358 E1.26407
G1 X76.954 Y124.202 E1.26701
G1 X76.408 Y123.837 E1.27356
G1 X76.033 Y123.569 E1.27816
G1 X75.49 Y123.154 E1.28498
G1 X75.188 Y122.907 E1.28887
G1 X74.707 Y122.488 E1.29524
G1 X74.441 Y122.242 E1.29885
G1 X74.047 Y121.858 E1.30434
G1 X73.826 Y121.631 E1.30751
G1 X73.38 Y121.143 E1.3141
G1 X73.072 Y120.784 E1.31882
G1 X72.634 Y120.237 E1.32581
G1 X72.423 Y119.955 E1.32933
G1 X72.123 Y119.533 E1.33449
G1 X71.939 Y119.26 E1.33778
G1 X71.599 Y118.722 E1.34413
G1 X71.381 Y118.352 E1.34841
G1 X71.031 Y117.707 E1.35574
G1 X70.859 Y117.362 E1.35958
G1 X70.609 Y116.823 E1.36551
G1 X70.459 Y116.474 E1.3693
G1 X70.239 Y115.919 E1.37526
G1 X70.128 Y115.614 E1.3785
G1 X69.948 Y115.075 E1.38417
G1 X69.828 Y114.68 E1.38829
G1 X69.657 Y114.043 E1.39487
G1 X69.579 Y113.713 E1.39825
G1 X69.438 Y113.011 E1.4054
G1 X69.355 Y112.509 E1.41047
G1 X69.272 Y111.899 E1.41662
G1 X69.24 Y111.596 E1.41966
G1 X69.193 Y110.979 E1.42583
G1 X69.176 Y110.612 E1.4295
G1 X69.166 Y109.989 E1.43571
G1 X69.172 Y109.529 E1.4403
G1 X69.201 Y108.869 E1.4469
G1 X69.224 Y108.567 E1.44992
G1 X69.269 Y108.108 E1.45452
G1 X69.302 Y107.834 E1.45727
G1 X69.416 Y107.109 E1.4646
G1 X69.523 Y106.552 E1.47026
G1 X69.666 Y105.912 E1.4768
G1 X69.732 Y105.656 E1.47944
G1 X69.879 Y105.142 E1.48477
G1 X69.981 Y104.816 E1.48818
G1 X70.175 Y104.253 E1.49412
G1 X70.315 Y103.881 E1.49809
G1 X70.602 Y103.193 E1.50553
G1 X70.813 Y102.734 E1.51057
G1 X71.108 Y102.142 E1.51717
G1 X71.234 Y101.908 E1.51982
G1 X71.492 Y101.455 E1.52502
G1 X71.689 Y101.129 E1.52882
G1 X72.048 Y100.576 E1.5354
G1 X72.272 Y100.253 E1.53932
G1 X72.645 Y99.749 E1.54558
G1 X72.891 Y99.436 E1.54955
G1 X73.331 Y98.912 E1.55638
G1 X73.593 Y98.62 E1.56029
G1 X73.967 Y98.223 E1.56573
G1 X74.198 Y97.991 E1.569
G1 X74.663 Y97.552 E1.57538
G1 X74.96 Y97.288 E1.57935
G1 X75.491 Y96.847 E1.58623
G0 F6000 X75.614 Y97.004
G1 F1200 X75.969 Y96.728 E1.59072
G1 X76.479 Y96.356 E1.59702
G1 X76.738 Y96.179 E1.60015
G1 X77.168 Y95.901 E1.60526
G1 X77.465 Y95.719 E1.60873
G1 X78.076 Y95.372 E1.61574
G1 X78.474 Y95.164 E1.62023
G1 X79.047 Y94.887 E1.62658
G1 X79.392 Y94.733 E1.63035
G1 X79.837 Y94.547 E1.63516
G1 X80.113 Y94.439 E1.63812
G1 X80.764 Y94.209 E1.64501
G1 X81.201 Y94.071 E1.64958
G1 X81.825 Y93.896 E1.65604
G1 X82.18 Y93.808 E1.65969
G1 X82.758 Y93.682 E1.6656
G1 X83.083 Y93.621 E1.6689
G1 X83.753 Y93.518 E1.67566
G1 X84.252 Y93.458 E1.68067
G1 X84.976 Y93.396 E1.68793
G1 X85.464 Y93.372 E1.6928
G1 X86.165 Y93.362 E1.6998
G1 X86.747 Y93.373 E1.7056
G1 X86.969 Y93.379 E1.70782
G1 X88.525 Y93.442 E1.72336
G1 X91.024 Y93.474 E1.7483
G1 X93.591 Y93.433 E1.77391
G1 X96.105 Y93.323 E1.79902
G1 X98.641 Y93.138 E1.82439
G1 X101.169 Y92.883 E1.84975
G1 X103.677 Y92.559 E1.87498
G1 X106.213 Y92.156 E1.9006
G1 X106.524 Y92.1 E1.90375
G1 X106.734 Y92.065 E1.90588
G1 X107.09 Y92.008 E1.90947
G1 X107.412 Y91.961 E1.91272
G1 X107.936 Y91.894 E1.91799
G1 X108.592 Y91.832 E1.92457
G1 X109.114 Y91.799 E1.92979
G1 X109.656 Y91.779 E1.9352
G1 X110.036 Y91.775 E1.93899
G1 X110.753 Y91.792 E1.94615
G1 X111.361 Y91.828 E1.95222
G1 X112.019 Y91.888 E1.95882
G1 X112.487 Y91.946 E1.96352
G1 X113.112 Y92.043 E1.96983
G1 X113.583 Y92.131 E1.97461
G1 X114.213 Y92.269 E1.98105
G1 X114.708 Y92.394 E1.98614
G1 X115.291 Y92.56 E1.99219
G1 X115.737 Y92.701 E1.99686
G1 X116.386 Y92.931 E2.00373
G1 X116.851 Y93.113 E2.00871
G1 X117.405 Y93.348 E2.01472
G1 X117.861 Y93.558 E2.01973
G1 X118.469 Y93.863 E2.02651
G1 X118.909 Y94.102 E2.03151
G1 X119.314 Y94.334 E2.03617
G1 X119.614 Y94.515 E2.03966
G1 X120.28 Y94.953 E2.04762
G1 X120.861 Y95.368 E2.05474
G1 X121.356 Y95.745 E2.06095
G1 X121.64 Y95.975 E2.0646
G1 X122.12 Y96.388 E2.07091
G1 X122.506 Y96.742 E2.07614
G1 X122.991 Y97.217 E2.08291
G1 X123.356 Y97.599 E2.08819
G1 X123.783 Y98.075 E2.09457
G1 X124.079 Y98.426 E2.09915
G1 X124.475 Y98.926 E2.10551
G1 X124.746 Y99.291 E2.11005
G1 X125.102 Y99.803 E2.11627
G1 X125.423 Y100.295 E2.12213
G1 X125.706 Y100.754 E2.12751
G1 X125.876 Y101.047 E2.13089
G1 X126.229 Y101.709 E2.13838
G1 X126.519 Y102.305 E2.14499
G1 X126.782 Y102.893 E2.15142
G1 X126.94 Y103.277 E2.15556
G1 X127.164 Y103.873 E2.16191
G1 X127.33 Y104.36 E2.16705
G1 X127.514 Y104.96 E2.17331
G1 X127.636 Y105.405 E2.17791
G1 X127.785 Y106.018 E2.18421
G1 X127.893 Y106.534 E2.18947
G1 X128.007 Y107.181 E2.19602
G1 X128.071 Y107.627 E2.20052
G1 X128.141 Y108.257 E2.20685
G1 X128.184 Y108.787 E2.21215
G1 X128.216 Y109.401 E2.21829
G1 X128.226 Y109.872 E2.22299
G1 X128.218 Y110.538 E2.22963
G1 X128.196 Y111.044 E2.23469
G1 X128.147 Y111.696 E2.24121
G1 X128.093 Y112.199 E2.24626
G1 X128.006 Y112.826 E2.25257
G1 X127.929 Y113.279 E2.25716
G1 X127.799 Y113.92 E2.26369
G1 X127.671 Y114.462 E2.26924
G1 X127.503 Y115.085 E2.27568
G1 X127.378 Y115.497 E2.27998
G1 X127.175 Y116.099 E2.28632
G1 X126.996 Y116.58 E2.29144
G1 X126.766 Y117.147 E2.29754
G1 X126.578 Y117.573 E2.30219
G1 X126.285 Y118.181 E2.30892
G1 X126.014 Y118.7 E2.31476
G1 X125.745 Y119.184 E2.32029
G1 X125.585 Y119.454 E2.32342
G1 X125.201 Y120.054 E2.33053
G1 X124.831 Y120.59 E2.33703
G1 X124.443 Y121.115 E2.34354
G1 X124.149 Y121.488 E2.34828
G1 X123.735 Y121.981 E2.3547
G1 X123.445 Y122.305 E2.35904
G1 X123.043 Y122.729 E2.36487
G1 X122.675 Y123.096 E2.37006
G1 X122.151 Y123.584 E2.3772
G1 X121.759 Y123.924 E2.38238
G1 X121.292 Y124.305 E2.38839
G1 X120.962 Y124.559 E2.39255
G1 X120.432 Y124.941 E2.39907
G1 X119.921 Y125.285 E2.40522
G1 X119.468 Y125.573 E2.41057
G1 X119.208 Y125.729 E2.4136
G1 X118.57 Y126.082 E2.42087
G1 X117.971 Y126.386 E2.42758
G1 X117.367 Y126.668 E2.43423
G1 X116.975 Y126.836 E2.43848
G1 X116.391 Y127.066 E2.44474
G1 X115.894 Y127.244 E2.45001
G1 X115.283 Y127.441 E2.45642
G1 X114.837 Y127.57 E2.46105
G1 X114.265 Y127.718 E2.46695
G1 X113.822 Y127.819 E2.47148
G1 X113.192 Y127.942 E2.47788
G1 X112.702 Y128.022 E2.48284
G1 X112.013 Y128.111 E2.48977
G1 X111.432 Y128.166 E2.49559
G1 X110.808 Y128.206 E2.50183
G1 X110.393 Y128.22 E2.50598
G1 X109.826 Y128.224 E2.51163
G1 X109.405 Y128.215 E2.51584
G1 X108.695 Y128.175 E2.52293
G1 X108.033 Y128.115 E2.52956
G1 X107.381 Y128.035 E2.53612
G1 X106.339 Y127.873 E2.54664
G1 X106.163 Y127.844 E2.54842
G1 X105.006 Y127.644 E2.56014
G1 X102.48 Y127.278 E2.5856
G1 X99.986 Y126.991 E2.61065
G1 X97.429 Y126.767 E2.63626
G1 X94.921 Y126.621 E2.66133
G1 X92.387 Y126.544 E2.68663
G1 X89.801 Y126.538 E2.71243
G1 X88.029 Y126.578 E2.73012
G1 X86.333 Y126.633 E2.74705
G1 X85.817 Y126.636 E2.7522
G1 X85.534 Y126.631 E2.75502
G1 X84.891 Y126.6 E2.76144
G1 X84.493 Y126.568 E2.76543
G1 X83.804 Y126.489 E2.77235
G1 X83.279 Y126.411 E2.77764
G1 X82.645 Y126.297 E2.78407
G1 X82.448 Y126.255 E2.78608
G1 X81.963 Y126.139 E2.79106
G1 X81.513 Y126.02 E2.7957
G1 X80.838 Y125.816 E2.80274
G1 X80.496 Y125.7 E2.80634
G1 X80.024 Y125.527 E2.81136
G1 X79.73 Y125.411 E2.81451
G1 X79.079 Y125.128 E2.82159
G1 X78.632 Y124.915 E2.82653
G1 X78.053 Y124.617 E2.83303
G1 X77.753 Y124.45 E2.83646
G1 X77.31 Y124.188 E2.84159
G1 X77.06 Y124.032 E2.84453
G1 X76.524 Y123.674 E2.85097
G1 X76.149 Y123.406 E2.85556
G1 X75.617 Y122.999 E2.86225
G1 X75.315 Y122.752 E2.86614
G1 X74.843 Y122.341 E2.87239
G1 X74.577 Y122.095 E2.876
G1 X74.19 Y121.718 E2.88139
G1 X73.969 Y121.491 E2.88455
G1 X73.532 Y121.013 E2.89102
G1 X73.224 Y120.654 E2.89574
G1 X72.794 Y120.118 E2.90259
G1 X72.583 Y119.836 E2.90611
G1 X72.289 Y119.422 E2.91117
G1 X72.105 Y119.149 E2.91446
G1 X71.772 Y118.621 E2.92069
G1 X71.554 Y118.251 E2.92497
G1 X71.21 Y117.618 E2.93216
G1 X71.038 Y117.273 E2.93601
G1 X70.793 Y116.744 E2.94182
G1 X70.643 Y116.395 E2.94561
G1 X70.427 Y115.851 E2.95145
G1 X70.316 Y115.546 E2.95469
G1 X70.14 Y115.017 E2.96026
G1 X70.02 Y114.622 E2.96437
G1 X69.851 Y113.997 E2.97083
G1 X69.773 Y113.667 E2.97422
G1 X69.635 Y112.978 E2.98123
G1 X69.552 Y112.476 E2.98631
G1 X69.471 Y111.878 E2.99233
G1 X69.439 Y111.575 E2.99537
G1 X69.393 Y110.97 E3.00142
G1 X69.376 Y110.603 E3.00509
G1 X69.366 Y109.992 E3.01119
G1 X69.372 Y109.532 E3.01578
G1 X69.401 Y108.884 E3.02225
G1 X69.424 Y108.582 E3.02527
G1 X69.468 Y108.132 E3.02978
G1 X69.501 Y107.858 E3.03254
G1 X69.612 Y107.147 E3.03972
G1 X69.719 Y106.59 E3.04538
G1 X69.86 Y105.962 E3.0518
G1 X69.926 Y105.706 E3.05444
G1 X70.07 Y105.201 E3.05968
G1 X70.172 Y104.875 E3.06308
G1 X70.362 Y104.323 E3.06891
G1 X70.502 Y103.951 E3.07287
G1 X70.783 Y103.277 E3.08016
G1 X70.994 Y102.818 E3.0852
G1 X71.284 Y102.237 E3.09168
G1 X71.41 Y102.003 E3.09433
G1 X71.664 Y101.559 E3.09944
G1 X71.861 Y101.233 E3.10324
G1 X72.212 Y100.69 E3.10969
G1 X72.436 Y100.367 E3.11361
G1 X72.802 Y99.872 E3.11975
G1 X73.048 Y99.559 E3.12373
G1 X73.48 Y99.045 E3.13043
G1 X73.742 Y98.753 E3.13434
G1 X74.109 Y98.365 E3.13967
G1 X74.34 Y98.133 E3.14294
G1 X74.796 Y97.702 E3.1492
G1 X75.093 Y97.438 E3.15316
G1 X75.614 Y97.004 E3.15993
G0 F6000 X75.737 Y97.162
G1 F1200 X76.092 Y96.886 E3.16441
G1 X76.592 Y96.521 E3.17059
G1 X76.851 Y96.344 E3.17372
G1 X77.273 Y96.071 E3.17874
G1 X77.57 Y95.889 E3.18221
G1 X78.169 Y95.55 E3.18908
G1 X78.567 Y95.342 E3.19356
G1 X79.128 Y95.07 E3.19978
G1 X79.473 Y94.916 E3.20355
G1 X79.91 Y94.733 E3.20828
G1 X80.186 Y94.625 E3.21124
G1 X80.825 Y94.4 E3.218
G1 X81.262 Y94.262 E3.22257
G1 X81.873 Y94.09 E3.2289
G1 X82.228 Y94.002 E3.23255
G1 X82.795 Y93.878 E3.23834
G1 X83.12 Y93.817 E3.24164
G1 X83.777 Y93.716 E3.24827
G1 X84.276 Y93.656 E3.25329
G1 X84.986 Y93.596 E3.2604
G1 X85.474 Y93.572 E3.26527
G1 X86.161 Y93.562 E3.27213
G1 X86.743 Y93.573 E3.27794
G1 X86.961 Y93.579 E3.28011
G1 X88.514 Y93.642 E3.29562
G1 X91.025 Y93.674 E3.32068
G1 X93.603 Y93.633 E3.34641
G1 X96.129 Y93.522 E3.37163
G1 X98.638 Y93.34 E3.39674
G1 X101.177 Y93.083 E3.4222
G1 X103.734 Y92.753 E3.44792
G1 X106.232 Y92.356 E3.47316
G1 X106.559 Y92.297 E3.47648
G1 X106.765 Y92.262 E3.47856
G1 X107.121 Y92.205 E3.48216
G1 X107.437 Y92.16 E3.48535
G1 X107.961 Y92.093 E3.49062
G1 X108.605 Y92.031 E3.49707
