;FLAVOR:Marlin
;TIME:369
;Filament used: 0.0699691m
;Layer height: 0.2
;MINX:68.847
;MINY:92.845
;MINZ:0.12
;MAXX:103.156
;MAXY:127.155
;MAXZ:3.12
;Generated with Cura_SteamEngine 4.3.0
M140 S50
M105
M190 S50
M104 S200
M105
M109 S200
M82 ;absolute extrusion mode
M201 X500.00 Y500.00 Z100.00 E5000.00 ;Setup machine max acceleration
M203 X500.00 Y500.00 Z10.00 E50.00 ;Setup machine max feedrate
M204 P500.00 R1000.00 T500.00 ;Setup Print/Retract/Travel acceleration
M205 X8.00 Y8.00 Z0.40 E5.00 ;Setup Jerk
M220 S100 ;Reset Feedrate
M221 S100 ;Reset Flowrate

G28 ;Home

G92 E0 ;Reset Extruder
G1 Z2.0 F3000 ;Move Z Axis up
G1 X10.1 Y20 Z0.28 F5000.0 ;Move to start position
G1 X10.1 Y200.0 Z0.28 F1500.0 E15 ;Draw the first line
G1 X10.4 Y200.0 Z0.28 F5000.0 ;Move to side a little
G1 X10.4 Y20 Z0.28 F1500.0 E30 ;Draw the second line
G92 E0 ;Reset Extruder
G1 Z2.0 F3000 ;Move Z Axis up

G92 E0
G92 E0
G1 F2700 E-5
;LAYER_COUNT:16
;LAYER:0
M107
G0 F6000 X75.276 Y96.612 Z0.12
;TYPE:SKIRT
G1 F2700 E0
G1 F1200 X75.651 Y96.32 E0.00474
G1 X76.116 Y95.979 E0.0105
G1 X76.348 Y95.818 E0.01331
G1 X76.951 Y95.429 E0.02047
G1 X77.425 Y95.146 E0.02598
G1 X77.905 Y94.876 E0.03148
G1 X78.119 Y94.763 E0.03389
G1 X78.721 Y94.469 E0.04058
G1 X79.211 Y94.249 E0.04594
G1 X79.8 Y94.006 E0.05229
G1 X80.099 Y93.893 E0.05548
G1 X80.592 Y93.721 E0.06069
G1 X80.918 Y93.616 E0.06411
G1 X81.605 Y93.42 E0.07124
G1 X82.108 Y93.295 E0.07641
G1 X82.732 Y93.16 E0.08278
G1 X83.035 Y93.104 E0.08586
G1 X83.632 Y93.011 E0.09188
G1 X84.093 Y92.953 E0.09652
G1 X84.703 Y92.894 E0.10264
G1 X85.017 Y92.873 E0.10578
G1 X85.567 Y92.851 E0.11127
G1 X85.984 Y92.845 E0.11543
G1 X86.725 Y92.861 E0.12282
G1 X87.169 Y92.886 E0.12726
G1 X87.803 Y92.941 E0.13361
G1 X88.229 Y92.991 E0.13789
G1 X88.833 Y93.079 E0.14398
G1 X89.161 Y93.137 E0.14731
G1 X89.67 Y93.24 E0.15249
G1 X89.981 Y93.311 E0.15567
G1 X90.672 Y93.494 E0.1628
G1 X91.2 Y93.653 E0.1683
G1 X91.824 Y93.863 E0.17487
G1 X92.134 Y93.978 E0.17817
G1 X92.744 Y94.226 E0.18474
G1 X93.183 Y94.421 E0.18954
G1 X93.723 Y94.679 E0.19551
G1 X93.968 Y94.805 E0.19826
G1 X94.444 Y95.066 E0.20367
G1 X94.8 Y95.273 E0.20778
G1 X95.419 Y95.662 E0.21508
G1 X95.858 Y95.96 E0.22037
G1 X96.361 Y96.324 E0.22657
G1 X96.534 Y96.457 E0.22874
G1 X96.995 Y96.833 E0.23468
G1 X97.419 Y97.199 E0.24027
G1 X97.9 Y97.641 E0.24679
G1 X98.083 Y97.82 E0.24934
G1 X98.439 Y98.185 E0.25443
G1 X98.721 Y98.489 E0.25857
G1 X99.228 Y99.078 E0.26632
G1 X99.561 Y99.495 E0.27165
G1 X99.917 Y99.968 E0.27755
G1 X100.086 Y100.206 E0.28047
G1 X100.413 Y100.695 E0.28634
G1 X100.613 Y101.013 E0.29008
G1 X100.904 Y101.504 E0.29578
G1 X101.089 Y101.837 E0.29958
G1 X101.426 Y102.499 E0.30699
G1 X101.661 Y103.003 E0.31254
G1 X101.917 Y103.598 E0.319
G1 X102.02 Y103.86 E0.32181
G1 X102.182 Y104.303 E0.32652
G1 X102.285 Y104.604 E0.32969
G1 X102.504 Y105.324 E0.3372
G1 X102.661 Y105.919 E0.34334
G1 X102.887 Y107.007 E0.35443
G1 X103.009 Y107.803 E0.36247
G1 X103.108 Y108.719 E0.37166
G1 X103.129 Y109.045 E0.37492
G1 X103.149 Y109.515 E0.37961
G1 X103.156 Y109.874 E0.3832
G1 X103.148 Y110.532 E0.38976
G1 X103.131 Y110.926 E0.3937
G1 X103.097 Y111.43 E0.39874
G1 X103.069 Y111.736 E0.4018
G1 X102.975 Y112.474 E0.40923
G1 X102.879 Y113.061 E0.41516
G1 X102.644 Y114.139 E0.42617
G1 X102.428 Y114.928 E0.43433
G1 X102.156 Y115.779 E0.44325
G1 X102.067 Y116.021 E0.44582
G1 X101.87 Y116.518 E0.45115
G1 X101.707 Y116.9 E0.4553
G1 X101.455 Y117.446 E0.4613
G1 X101.262 Y117.835 E0.46563
G1 X100.988 Y118.351 E0.47146
G1 X100.841 Y118.61 E0.47443
G1 X100.525 Y119.13 E0.4805
G1 X100.296 Y119.484 E0.48471
G1 X99.97 Y119.959 E0.49046
G1 X99.759 Y120.249 E0.49404
G1 X99.28 Y120.859 E0.50178
G1 X98.897 Y121.311 E0.50769
G1 X98.383 Y121.874 E0.51529
G1 X98.132 Y122.13 E0.51887
G1 X97.819 Y122.437 E0.52325
G1 X97.625 Y122.619 E0.5259
G1 X97.136 Y123.05 E0.53241
G1 X96.753 Y123.367 E0.53737
G1 X96.307 Y123.716 E0.54302
G1 X96.095 Y123.873 E0.54565
G1 X95.506 Y124.279 E0.55279
G1 X94.995 Y124.606 E0.55884
G1 X94.346 Y124.989 E0.56636
G1 X94.044 Y125.153 E0.56979
G1 X93.605 Y125.379 E0.57472
G1 X93.33 Y125.512 E0.57776
G1 X92.775 Y125.76 E0.58383
G1 X92.35 Y125.936 E0.58842
G1 X91.734 Y126.169 E0.59499
G1 X91.401 Y126.283 E0.5985
G1 X90.798 Y126.469 E0.6048
G1 X90.382 Y126.584 E0.60911
G1 X89.974 Y126.688 E0.61331
G1 X89.713 Y126.749 E0.61598
G1 X88.963 Y126.896 E0.62361
G1 X88.457 Y126.976 E0.62872
G1 X87.8 Y127.059 E0.63533
G1 X87.417 Y127.095 E0.63916
G1 X86.881 Y127.131 E0.64452
G1 X86.529 Y127.146 E0.64804
G1 X85.913 Y127.155 E0.65419
G1 X85.54 Y127.149 E0.65791
G1 X84.85 Y127.115 E0.6648
G1 X84.326 Y127.072 E0.67005
G1 X83.633 Y126.992 E0.67701
G1 X83.285 Y126.94 E0.68052
G1 X82.712 Y126.838 E0.68633
G1 X82.383 Y126.77 E0.68968
G1 X81.77 Y126.624 E0.69597
G1 X81.285 Y126.493 E0.70098
G1 X80.765 Y126.338 E0.70639
G1 X80.523 Y126.259 E0.70893
G1 X79.831 Y126.006 E0.71629
G1 X79.336 Y125.805 E0.72162
G1 X78.759 Y125.55 E0.72791
G1 X78.42 Y125.388 E0.73166
G1 X77.999 Y125.175 E0.73637
G1 X77.78 Y125.058 E0.73885
G1 X77.111 Y124.668 E0.74657
G1 X76.544 Y124.309 E0.75327
G1 X75.924 Y123.885 E0.76076
G1 X75.71 Y123.727 E0.76342
G1 X75.295 Y123.404 E0.76867
G1 X74.986 Y123.151 E0.77265
G1 X74.505 Y122.732 E0.77902
G1 X74.195 Y122.445 E0.78323
G1 X73.776 Y122.035 E0.78908
G1 X73.52 Y121.77 E0.79276
G1 X73.08 Y121.286 E0.79928
G1 X72.832 Y120.995 E0.8031
G1 X72.448 Y120.516 E0.80922
G1 X72.197 Y120.184 E0.81338
G1 X71.841 Y119.683 E0.81951
G1 X71.634 Y119.373 E0.82323
G1 X71.292 Y118.825 E0.82967
G1 X71.076 Y118.454 E0.83396
G1 X70.853 Y118.05 E0.83856
G1 X70.726 Y117.808 E0.84129
G1 X70.38 Y117.083 E0.8493
G1 X70.131 Y116.505 E0.85558
G1 X69.901 Y115.924 E0.86182
G1 X69.825 Y115.714 E0.86405
G1 X69.632 Y115.13 E0.87019
G1 X69.496 Y114.672 E0.87495
G1 X69.331 Y114.044 E0.88143
G1 X69.25 Y113.693 E0.88503
G1 X69.136 Y113.129 E0.89077
G1 X69.066 Y112.726 E0.89485
G1 X68.984 Y112.165 E0.90051
G1 X68.943 Y111.819 E0.90398
G1 X68.881 Y111.071 E0.91147
G1 X68.857 Y110.555 E0.91663
G1 X68.847 Y109.919 E0.92297
G1 X68.852 Y109.565 E0.9265
G1 X68.879 Y108.951 E0.93264
G1 X68.906 Y108.58 E0.93635
G1 X68.951 Y108.108 E0.94108
G1 X68.989 Y107.787 E0.94431
G1 X69.097 Y107.078 E0.95146
G1 X69.187 Y106.6 E0.95631
G1 X69.335 Y105.934 E0.96312
G1 X69.443 Y105.513 E0.96746
G1 X69.629 Y104.874 E0.9741
G1 X69.737 Y104.542 E0.97758
G1 X69.917 Y104.034 E0.98296
G1 X70.035 Y103.726 E0.98625
G1 X70.303 Y103.09 E0.99314
G1 X70.554 Y102.545 E0.99913
G1 X70.867 Y101.921 E1.00609
G1 X70.985 Y101.704 E1.00856
G1 X71.264 Y101.221 E1.01412
G1 X71.505 Y100.829 E1.01871
G1 X71.832 Y100.33 E1.02467
G1 X72.022 Y100.057 E1.02798
G1 X72.352 Y99.609 E1.03354
G1 X72.59 Y99.303 E1.0374
G1 X73.065 Y98.734 E1.0448
G1 X73.399 Y98.362 E1.04979
G1 X73.821 Y97.919 E1.05589
G1 X74.042 Y97.7 E1.059
G1 X74.462 Y97.306 E1.06474
G1 X74.756 Y97.045 E1.06867
G1 X75.276 Y96.612 E1.07542
G0 F6000 X75.399 Y96.77
G1 F1200 X75.774 Y96.478 E1.08016
G1 X76.23 Y96.143 E1.08581
G1 X76.462 Y95.982 E1.08862
G1 X77.054 Y95.6 E1.09565
G1 X77.528 Y95.317 E1.10116
G1 X77.999 Y95.053 E1.10655
G1 X78.213 Y94.94 E1.10897
G1 X78.803 Y94.652 E1.11552
G1 X79.293 Y94.432 E1.12088
G1 X79.871 Y94.193 E1.12712
G1 X80.17 Y94.08 E1.13031
G1 X80.653 Y93.911 E1.13541
G1 X80.979 Y93.806 E1.13883
G1 X81.653 Y93.614 E1.14582
G1 X82.156 Y93.489 E1.15099
G1 X82.768 Y93.357 E1.15724
G1 X83.071 Y93.301 E1.16032
G1 X83.657 Y93.21 E1.16623
G1 X84.118 Y93.152 E1.17087
G1 X84.717 Y93.094 E1.17687
G1 X85.031 Y93.073 E1.18001
G1 X85.57 Y93.051 E1.1854
G1 X85.987 Y93.045 E1.18956
G1 X86.714 Y93.06 E1.19681
G1 X87.158 Y93.085 E1.20125
G1 X87.78 Y93.139 E1.20748
G1 X88.206 Y93.189 E1.21176
G1 X88.799 Y93.276 E1.21774
G1 X89.127 Y93.334 E1.22106
G1 X89.625 Y93.435 E1.22613
G1 X89.936 Y93.506 E1.22932
G1 X90.614 Y93.685 E1.23631
G1 X91.142 Y93.844 E1.24182
G1 X91.754 Y94.05 E1.24826
G1 X92.064 Y94.165 E1.25156
G1 X92.663 Y94.409 E1.25801
G1 X93.102 Y94.604 E1.2628
G1 X93.632 Y94.857 E1.26866
G1 X93.877 Y94.983 E1.27141
G1 X94.343 Y95.239 E1.27672
G1 X94.699 Y95.446 E1.28083
G1 X95.307 Y95.828 E1.28799
G1 X95.746 Y96.126 E1.29329
G1 X96.239 Y96.482 E1.29935
G1 X96.412 Y96.615 E1.30153
G1 X96.864 Y96.984 E1.30735
G1 X97.288 Y97.35 E1.31294
G1 X97.76 Y97.784 E1.31934
G1 X97.943 Y97.963 E1.3219
G1 X98.292 Y98.321 E1.32688
G1 X98.574 Y98.625 E1.33102
G1 X99.072 Y99.203 E1.33863
G1 X99.405 Y99.62 E1.34396
G1 X99.754 Y100.084 E1.34975
G1 X99.923 Y100.322 E1.35266
G1 X100.244 Y100.801 E1.35842
G1 X100.444 Y101.119 E1.36217
G1 X100.729 Y101.601 E1.36775
G1 X100.914 Y101.934 E1.37155
G1 X101.245 Y102.583 E1.37882
G1 X101.48 Y103.087 E1.38437
G1 X101.731 Y103.672 E1.39072
G1 X101.834 Y103.934 E1.39353
G1 X101.993 Y104.367 E1.39814
G1 X102.096 Y104.668 E1.40131
G1 X102.31 Y105.375 E1.40868
G1 X102.467 Y105.97 E1.41482
G1 X102.689 Y107.038 E1.42571
G1 X102.811 Y107.834 E1.43374
G1 X102.909 Y108.732 E1.44275
G1 X102.93 Y109.058 E1.44601
G1 X102.949 Y109.519 E1.45062
G1 X102.956 Y109.878 E1.4542
G1 X102.948 Y110.523 E1.46064
G1 X102.931 Y110.917 E1.46457
G1 X102.898 Y111.412 E1.46952
G1 X102.87 Y111.718 E1.47259
G1 X102.778 Y112.441 E1.47986
G1 X102.682 Y113.028 E1.4858
G1 X102.451 Y114.086 E1.4966
G1 X102.235 Y114.875 E1.50476
G1 X101.968 Y115.71 E1.51351
G1 X101.879 Y115.952 E1.51608
G1 X101.686 Y116.439 E1.52131
G1 X101.523 Y116.821 E1.52545
G1 X101.276 Y117.357 E1.53134
G1 X101.083 Y117.746 E1.53568
G1 X100.814 Y118.252 E1.54139
G1 X100.667 Y118.511 E1.54437
G1 X100.357 Y119.021 E1.55032
G1 X100.128 Y119.375 E1.55453
G1 X99.809 Y119.841 E1.56016
G1 X99.598 Y120.131 E1.56374
G1 X99.127 Y120.73 E1.57134
G1 X98.744 Y121.182 E1.57726
G1 X98.241 Y121.734 E1.58471
G1 X97.99 Y121.99 E1.58828
G1 X97.682 Y122.291 E1.59258
G1 X97.488 Y122.473 E1.59524
G1 X97.008 Y122.896 E1.60162
G1 X96.625 Y123.213 E1.60658
G1 X96.188 Y123.555 E1.61212
G1 X95.976 Y123.712 E1.61475
G1 X95.398 Y124.111 E1.62176
G1 X94.887 Y124.438 E1.62781
G1 X94.25 Y124.813 E1.63519
G1 X93.948 Y124.977 E1.63862
G1 X93.518 Y125.198 E1.64344
G1 X93.243 Y125.331 E1.64649
G1 X92.699 Y125.575 E1.65244
G1 X92.274 Y125.751 E1.65703
G1 X91.669 Y125.98 E1.66348
G1 X91.336 Y126.094 E1.66699
G1 X90.744 Y126.277 E1.67318
G1 X90.328 Y126.392 E1.67748
G1 X89.928 Y126.494 E1.6816
G1 X89.667 Y126.555 E1.68428
G1 X88.931 Y126.699 E1.69176
G1 X88.425 Y126.779 E1.69687
G1 X87.781 Y126.86 E1.70335
G1 X87.398 Y126.896 E1.70719
G1 X86.873 Y126.932 E1.71244
G1 X86.521 Y126.947 E1.71595
G1 X85.916 Y126.955 E1.72199
G1 X85.543 Y126.949 E1.72571
G1 X84.867 Y126.915 E1.73247
G1 X84.343 Y126.872 E1.73771
G1 X83.663 Y126.794 E1.74454
G1 X83.315 Y126.742 E1.74805
G1 X82.752 Y126.642 E1.75376
G1 X82.423 Y126.574 E1.75711
G1 X81.822 Y126.431 E1.76327
G1 X81.337 Y126.3 E1.76829
G1 X80.827 Y126.147 E1.7736
G1 X80.585 Y126.068 E1.77614
G1 X79.906 Y125.82 E1.78335
G1 X79.411 Y125.619 E1.78868
G1 X78.845 Y125.369 E1.79486
G1 X78.506 Y125.207 E1.79861
G1 X78.093 Y124.999 E1.80322
G1 X77.874 Y124.882 E1.8057
G1 X77.218 Y124.499 E1.81328
G1 X76.651 Y124.14 E1.81997
G1 X76.043 Y123.724 E1.82732
G1 X75.829 Y123.566 E1.82998
G1 X75.422 Y123.249 E1.83513
G1 X75.113 Y122.996 E1.83911
G1 X74.641 Y122.585 E1.84536
G1 X74.331 Y122.298 E1.84957
G1 X73.92 Y121.896 E1.85531
G1 X73.664 Y121.631 E1.85898
G1 X73.233 Y121.156 E1.86538
G1 X72.985 Y120.865 E1.8692
G1 X72.608 Y120.396 E1.8752
G1 X72.357 Y120.064 E1.87936
G1 X72.007 Y119.572 E1.88538
G1 X71.8 Y119.262 E1.8891
G1 X71.465 Y118.724 E1.89542
G1 X71.249 Y118.353 E1.89971
G1 X71.03 Y117.957 E1.90422
G1 X70.903 Y117.715 E1.90695
G1 X70.563 Y117.004 E1.91481
G1 X70.314 Y116.426 E1.92109
G1 X70.089 Y115.856 E1.92721
G1 X70.013 Y115.646 E1.92944
G1 X69.824 Y115.073 E1.93546
G1 X69.688 Y114.615 E1.94022
G1 X69.526 Y113.999 E1.94658
G1 X69.445 Y113.648 E1.95017
G1 X69.333 Y113.095 E1.9558
G1 X69.263 Y112.692 E1.95988
G1 X69.183 Y112.141 E1.96544
G1 X69.142 Y111.795 E1.96892
G1 X69.081 Y111.062 E1.97626
G1 X69.057 Y110.546 E1.98141
G1 X69.047 Y109.922 E1.98764
G1 X69.052 Y109.568 E1.99117
G1 X69.078 Y108.965 E1.99719
G1 X69.105 Y108.594 E2.0009
G1 X69.149 Y108.131 E2.00554
G1 X69.187 Y107.81 E2.00877
G1 X69.294 Y107.115 E2.01579
G1 X69.384 Y106.637 E2.02064
G1 X69.529 Y105.984 E2.02731
G1 X69.637 Y105.563 E2.03165
G1 X69.819 Y104.936 E2.03816
G1 X69.927 Y104.604 E2.04165
G1 X70.104 Y104.105 E2.04693
G1 X70.222 Y103.797 E2.05022
G1 X70.485 Y103.173 E2.05698
G1 X70.736 Y102.628 E2.06297
G1 X71.042 Y102.017 E2.06978
G1 X71.16 Y101.8 E2.07225
G1 X71.435 Y101.326 E2.07772
G1 X71.676 Y100.934 E2.08231
G1 X71.996 Y100.444 E2.08815
G1 X72.186 Y100.171 E2.09147
G1 X72.51 Y99.731 E2.09692
G1 X72.748 Y99.425 E2.10079
G1 X73.214 Y98.868 E2.10803
G1 X73.548 Y98.496 E2.11302
G1 X73.962 Y98.061 E2.11901
G1 X74.183 Y97.842 E2.12212
G1 X74.595 Y97.455 E2.12776
G1 X74.889 Y97.194 E2.13168
G1 X75.399 Y96.77 E2.1383
G0 F6000 X75.522 Y96.928
G1 F1200 X75.897 Y96.636 E2.14304
G1 X76.344 Y96.307 E2.14858
G1 X76.576 Y96.146 E2.1514
G1 X77.156 Y95.772 E2.15828
G1 X77.63 Y95.489 E2.16379
G1 X78.092 Y95.23 E2.16908
G1 X78.306 Y95.117 E2.17149
G1 X78.885 Y94.834 E2.17792
G1 X79.375 Y94.614 E2.18328
G1 X79.941 Y94.38 E2.18939
G1 X80.24 Y94.267 E2.19258
G1 X80.715 Y94.101 E2.1976
G1 X81.041 Y93.996 E2.20102
G1 X81.701 Y93.808 E2.20787
G1 X82.204 Y93.683 E2.21304
G1 X82.804 Y93.553 E2.21916
G1 X83.107 Y93.497 E2.22224
G1 X83.682 Y93.408 E2.22805
G1 X84.143 Y93.35 E2.23268
G1 X84.73 Y93.294 E2.23856
G1 X85.044 Y93.273 E2.2417
G1 X85.573 Y93.251 E2.24699
G1 X85.99 Y93.245 E2.25115
G1 X86.703 Y93.26 E2.25827
G1 X87.147 Y93.285 E2.2627
G1 X87.756 Y93.338 E2.2688
G1 X88.182 Y93.388 E2.27308
G1 X88.764 Y93.473 E2.27895
G1 X89.092 Y93.531 E2.28227
G1 X89.581 Y93.63 E2.28725
G1 X89.892 Y93.701 E2.29044
G1 X90.556 Y93.877 E2.29729
G1 X91.084 Y94.036 E2.30279
G1 X91.685 Y94.238 E2.30912
G1 X91.995 Y94.353 E2.31242
G1 X92.582 Y94.592 E2.31874
G1 X93.021 Y94.787 E2.32353
G1 X93.54 Y95.035 E2.32927
G1 X93.785 Y95.161 E2.33202
G1 X94.243 Y95.412 E2.33723
G1 X94.599 Y95.619 E2.34134
G1 X95.195 Y95.993 E2.34836
G1 X95.634 Y96.291 E2.35366
G1 X96.117 Y96.641 E2.35961
G1 X96.29 Y96.774 E2.36179
G1 X96.734 Y97.135 E2.3675
G1 X97.158 Y97.501 E2.37309
G1 X97.62 Y97.927 E2.37936
G1 X97.803 Y98.106 E2.38191
G1 X98.146 Y98.457 E2.38681
G1 X98.428 Y98.761 E2.39094
G1 X98.915 Y99.328 E2.3984
G1 X99.248 Y99.745 E2.40373
G1 X99.591 Y100.199 E2.40941
G1 X99.76 Y100.437 E2.41232
G1 X100.075 Y100.908 E2.41797
G1 X100.275 Y101.226 E2.42172
G1 X100.554 Y101.698 E2.42719
G1 X100.739 Y102.031 E2.43099
G1 X101.064 Y102.668 E2.43813
G1 X101.299 Y103.172 E2.44368
G1 X101.545 Y103.745 E2.4499
G1 X101.648 Y104.007 E2.45271
G1 X101.804 Y104.432 E2.45722
G1 X101.907 Y104.733 E2.4604
G1 X102.117 Y105.426 E2.46762
G1 X102.274 Y106.021 E2.47376
G1 X102.491 Y107.068 E2.48443
G1 X102.613 Y107.864 E2.49247
G1 X102.709 Y108.745 E2.50131
G1 X102.73 Y109.071 E2.50457
G1 X102.749 Y109.523 E2.50908
G1 X102.756 Y109.882 E2.51267
G1 X102.749 Y110.514 E2.51897
G1 X102.732 Y110.908 E2.52291
G1 X102.699 Y111.393 E2.52776
G1 X102.671 Y111.699 E2.53083
G1 X102.581 Y112.409 E2.53797
G1 X102.485 Y112.996 E2.5439
G1 X102.259 Y114.033 E2.55449
G1 X102.043 Y114.822 E2.56265
G1 X101.78 Y115.641 E2.57124
G1 X101.691 Y115.883 E2.57381
G1 X101.502 Y116.361 E2.57894
G1 X101.339 Y116.743 E2.58308
G1 X101.097 Y117.268 E2.58885
G1 X100.904 Y117.657 E2.59318
G1 X100.64 Y118.153 E2.59879
G1 X100.493 Y118.412 E2.60176
G1 X100.189 Y118.913 E2.60761
G1 X99.96 Y119.267 E2.61182
G1 X99.647 Y119.723 E2.61734
G1 X99.436 Y120.013 E2.62091
G1 X98.975 Y120.6 E2.62836
G1 X98.592 Y121.052 E2.63427
G1 X98.098 Y121.594 E2.64159
G1 X97.847 Y121.85 E2.64517
G1 X97.545 Y122.145 E2.64938
G1 X97.351 Y122.327 E2.65203
G1 X96.881 Y122.742 E2.65829
G1 X96.498 Y123.059 E2.66325
G1 X96.069 Y123.395 E2.66869
G1 X95.857 Y123.552 E2.67132
G1 X95.29 Y123.942 E2.67819
G1 X94.779 Y124.269 E2.68424
G1 X94.155 Y124.638 E2.69147
G1 X93.853 Y124.802 E2.6949
G1 X93.43 Y125.018 E2.69964
G1 X93.155 Y125.151 E2.70269
G1 X92.622 Y125.39 E2.70852
G1 X92.197 Y125.566 E2.71311
