;FLAVOR:Marlin
;TIME:5397
;Filament used: 1.40375m
;Layer height: 0.2
;MINX:67.08
;MINY:65.08
;MINZ:0.2
;MAXX:151.33
;MAXY:143.334
;MAXZ:16.8
;Generated with Cura_SteamEngine 4.4.1
M140 S60
M105
M190 S60
M104 S210
M105
M109 S210
M82 ;absolute extrusion mode
M201 X500.00 Y500.00 Z100.00 E5000.00 ;Setup machine max acceleration
M203 X500.00 Y500.00 Z10.00 E50.00 ;Setup machine max feedrate
M204 P500.00 R1000.00 T500.00 ;Setup Print/Retract/Travel acceleration
M205 X8.00 Y8.00 Z0.40 E5.00 ;Setup Jerk
M220 S100 ;Reset Feedrate
M221 S100 ;Reset Flowrate

G28 ;Home

G92 E0 ;Reset Extruder
G1 Z2.0 F3000 ;Move Z Axis up
G1 X10.1 Y20 Z0.28 F5000.0 ;Move to start position
G1 X10.1 Y200.0 Z0.28 F1500.0 E15 ;Draw the first line
G1 X10.4 Y200.0 Z0.28 F5000.0 ;Move to side a little
G1 X10.4 Y20 Z0.28 F1500.0 E30 ;Draw the second line
G92 E0 ;Reset Extruder
G1 Z2.0 F3000 ;Move Z Axis up

G92 E0
G92 E0
G1 F1500 E-6.5
;LAYER_COUNT:84
;LAYER:0
M107
G0 F6000 X95.117 Y72.318 Z0.2
;TYPE:SKIRT
G1 F1500 E0
G1 F1200 X95.562 Y71.766 E0.02358
G1 X95.787 Y71.505 E0.03504
G1 X96.278 Y70.972 E0.05915
G1 X96.709 Y70.534 E0.07959
G1 X97.195 Y70.069 E0.10196
G1 X97.542 Y69.757 E0.11748
G1 X98.089 Y69.297 E0.14125
G1 X98.49 Y68.981 E0.15823
G1 X99.019 Y68.589 E0.18013
G1 X99.416 Y68.313 E0.19621
G1 X100.046 Y67.907 E0.22114
G1 X100.462 Y67.658 E0.23726
G1 X101.058 Y67.325 E0.25997
G1 X101.582 Y67.054 E0.27959
G1 X102.195 Y66.761 E0.30219
G1 X102.569 Y66.596 E0.31579
G1 X103.231 Y66.329 E0.33953
G1 X103.726 Y66.148 E0.35706
G1 X104.392 Y65.928 E0.38039
G1 X104.904 Y65.777 E0.39814
G1 X105.547 Y65.609 E0.42024
G1 X106.029 Y65.498 E0.4367
G1 X106.761 Y65.355 E0.4615
G1 X107.23 Y65.28 E0.4773
G1 X107.913 Y65.193 E0.5002
G1 X108.443 Y65.142 E0.51791
G1 X109.132 Y65.097 E0.54087
G1 X109.614 Y65.081 E0.55691
G1 X110.301 Y65.08 E0.57976
G1 X110.814 Y65.095 E0.59683
G1 X111.516 Y65.138 E0.62023
G1 X112.008 Y65.184 E0.63666
G1 X112.725 Y65.275 E0.6607
G1 X113.249 Y65.359 E0.67835
G1 X113.922 Y65.488 E0.70114
G1 X114.411 Y65.598 E0.71781
G1 X115.063 Y65.766 E0.74021
G1 X115.504 Y65.894 E0.75548
G1 X116.189 Y66.117 E0.77944
G1 X116.688 Y66.298 E0.79709
G1 X117.33 Y66.554 E0.82008
G1 X118.809 Y67.198 E0.87374
G1 X121.204 Y68.202 E0.96011
G1 X123.585 Y69.124 E1.04503
G1 X125.886 Y69.935 E1.12618
G1 X128.328 Y70.723 E1.21152
G1 X130.741 Y71.426 E1.29512
G1 X133.134 Y72.05 E1.37737
G1 X136.916 Y72.897 E1.50628
G1 X137.539 Y73.023 E1.52742
G1 X138.389 Y73.231 E1.55652
G1 X139.125 Y73.442 E1.58199
G1 X140.429 Y73.906 E1.62802
G1 X141.11 Y74.198 E1.65267
G1 X141.95 Y74.601 E1.68365
G1 X142.509 Y74.899 E1.70472
G1 X143.317 Y75.375 E1.73591
G1 X143.758 Y75.677 E1.75369
G1 X144.478 Y76.195 E1.78319
G1 X145.348 Y76.89 E1.82023
G1 X145.646 Y77.154 E1.83347
G1 X146.481 Y77.977 E1.87246
G1 X147.11 Y78.667 E1.90352
G1 X147.712 Y79.387 E1.93473
G1 X148.064 Y79.873 E1.95469
G1 X148.56 Y80.599 E1.98394
G1 X149.171 Y81.604 E2.02306
G1 X149.37 Y81.975 E2.03706
G1 X149.847 Y82.986 E2.07424
G1 X150.139 Y83.695 E2.09974
G1 X150.47 Y84.612 E2.13217
G1 X150.661 Y85.225 E2.15352
G1 X150.902 Y86.131 E2.1847
G1 X150.994 Y86.597 E2.2005
G1 X151.139 Y87.424 E2.22843
G1 X151.261 Y88.354 E2.25963
G1 X151.296 Y88.906 E2.27802
G1 X151.33 Y89.801 E2.30781
G1 X151.326 Y90.739 E2.33901
G1 X151.275 Y91.397 E2.36096
G1 X151.191 Y92.177 E2.38705
G1 X151.06 Y93.056 E2.41661
G1 X150.953 Y93.618 E2.43564
G1 X150.801 Y94.299 E2.45885
G1 X150.737 Y94.548 E2.4674
G1 X150.646 Y94.879 E2.47882
G1 X150.017 Y97.044 E2.5538
G1 X149.386 Y99.471 E2.63721
G1 X148.809 Y101.975 E2.72267
G1 X148.328 Y104.387 E2.80448
G1 X147.896 Y106.911 E2.88965
G1 X147.547 Y109.362 E2.97199
G1 X147.263 Y111.873 E3.05604
G1 X147.048 Y114.407 E3.14062
G1 X146.924 Y116.489 E3.20999
G1 X146.908 Y116.822 E3.22108
G1 X146.885 Y117.191 E3.23338
G1 X146.838 Y117.768 E3.25263
G1 X146.753 Y118.5 E3.27714
G1 X146.665 Y119.089 E3.29695
G1 X146.529 Y119.828 E3.32194
G1 X146.426 Y120.296 E3.33788
G1 X146.251 Y120.983 E3.36146
G1 X146.1 Y121.506 E3.37956
G1 X145.88 Y122.186 E3.40334
G1 X145.712 Y122.652 E3.41981
G1 X145.426 Y123.366 E3.44539
G1 X145.187 Y123.907 E3.46506
G1 X144.875 Y124.555 E3.48899
G1 X144.641 Y125.003 E3.5058
G1 X144.28 Y125.641 E3.53018
G1 X144.023 Y126.062 E3.54658
G1 X143.601 Y126.702 E3.57208
G1 X143.255 Y127.189 E3.59195
G1 X142.832 Y127.746 E3.61521
G1 X142.532 Y128.116 E3.63106
G1 X142.029 Y128.694 E3.65654
G1 X141.664 Y129.085 E3.67433
G1 X141.172 Y129.58 E3.69754
G1 X140.765 Y129.964 E3.71615
G1 X140.196 Y130.465 E3.74137
G1 X139.805 Y130.786 E3.7582
G1 X139.217 Y131.236 E3.78282
G1 X138.773 Y131.553 E3.80097
G1 X138.177 Y131.95 E3.82479
G1 X137.777 Y132.198 E3.84044
G1 X137.144 Y132.562 E3.86473
G1 X136.606 Y132.848 E3.88499
G1 X135.93 Y133.178 E3.91001
G1 X135.489 Y133.375 E3.92608
G1 X134.795 Y133.657 E3.95099
G1 X134.275 Y133.848 E3.96942
G1 X133.741 Y134.029 E3.98817
G1 X131.212 Y134.814 E4.07624
G1 X128.802 Y135.637 E4.16095
G1 X126.463 Y136.509 E4.24397
G1 X124.107 Y137.465 E4.32854
G1 X121.832 Y138.466 E4.41121
G1 X119.564 Y139.539 E4.49466
G1 X116.307 Y141.219 E4.61655
G1 X116.155 Y141.297 E4.62223
G1 X115.494 Y141.625 E4.64677
G1 X114.816 Y141.933 E4.67154
G1 X114.29 Y142.151 E4.69048
G1 X113.409 Y142.473 E4.72168
G1 X112.952 Y142.607 E4.73751
G1 X112.228 Y142.803 E4.76246
G1 X111.315 Y143.009 E4.79359
G1 X110.719 Y143.117 E4.81374
G1 X109.349 Y143.277 E4.85961
G1 X108.494 Y143.323 E4.88809
G1 X107.556 Y143.334 E4.91929
G1 X106.974 Y143.3 E4.93868
G1 X106.219 Y143.236 E4.96388
G1 X105.265 Y143.113 E4.99588
G1 X104.649 Y143.006 E5.01667
G1 X103.635 Y142.78 E5.05123
G1 X103.232 Y142.67 E5.06512
G1 X102.117 Y142.3 E5.10419
G1 X101.397 Y142.018 E5.12991
G1 X100.594 Y141.666 E5.15907
G1 X100.064 Y141.408 E5.17868
G1 X99.239 Y140.962 E5.20987
G1 X98.812 Y140.694 E5.22664
G1 X98.077 Y140.208 E5.25595
G1 X97.414 Y139.733 E5.28307
G1 X97.158 Y139.535 E5.29384
G1 X96.897 Y139.326 E5.30496
G1 X95.238 Y137.96 E5.37643
G1 X93.251 Y136.416 E5.46013
G1 X91.215 Y134.926 E5.54404
G1 X89.135 Y133.49 E5.62811
G1 X87.021 Y132.117 E5.71195
G1 X84.868 Y130.805 E5.79581
G1 X82.696 Y129.564 E5.87901
G1 X80.483 Y128.381 E5.96247
G1 X78.091 Y127.189 E6.05136
G1 X77.593 Y126.95 E6.06973
G1 X76.928 Y126.603 E6.09468
G1 X76.408 Y126.308 E6.11456
G1 X75.771 Y125.917 E6.13942
G1 X75.361 Y125.646 E6.15577
G1 X74.789 Y125.241 E6.17908
G1 X74.374 Y124.927 E6.19639
G1 X73.807 Y124.468 E6.22065
G1 X73.402 Y124.117 E6.23848
G1 X72.849 Y123.603 E6.26359
G1 X72.472 Y123.228 E6.28128
G1 X71.952 Y122.674 E6.30655
G1 X71.587 Y122.257 E6.32498
G1 X71.135 Y121.706 E6.34868
G1 X70.839 Y121.32 E6.36486
G1 X70.409 Y120.719 E6.38944
G1 X70.099 Y120.253 E6.40806
G1 X69.714 Y119.629 E6.43244
G1 X69.455 Y119.177 E6.44977
G1 X69.109 Y118.523 E6.47438
G1 X68.888 Y118.069 E6.49117
G1 X68.591 Y117.405 E6.51537
G1 X68.373 Y116.87 E6.53458
G1 X68.118 Y116.178 E6.55911
G1 X67.956 Y115.689 E6.57624
G1 X67.757 Y115.018 E6.59952
G1 X67.626 Y114.518 E6.61671
G1 X67.455 Y113.757 E6.64265
G1 X67.362 Y113.261 E6.65944
G1 X67.253 Y112.548 E6.68343
G1 X67.183 Y111.966 E6.70293
G1 X67.12 Y111.241 E6.72713
G1 X67.095 Y110.775 E6.74265
G1 X67.08 Y110.017 E6.76787
G1 X67.089 Y109.43 E6.78739
G1 X67.123 Y108.72 E6.81104
G1 X67.161 Y108.246 E6.82685
G1 X67.247 Y107.5 E6.85183
G1 X67.335 Y106.911 E6.87164
G1 X67.472 Y106.169 E6.89673
G1 X67.576 Y105.697 E6.91281
G1 X67.751 Y105.01 E6.93639
G1 X67.901 Y104.491 E6.95435
G1 X68.12 Y103.814 E6.97802
G1 X68.288 Y103.348 E6.9945
G1 X68.574 Y102.634 E7.02008
G1 X68.813 Y102.093 E7.03975
G1 X69.125 Y101.445 E7.06367
G1 X69.359 Y100.997 E7.08048
G1 X69.72 Y100.359 E7.10486
G1 X69.977 Y99.938 E7.12127
G1 X70.399 Y99.298 E7.14677
G1 X70.745 Y98.811 E7.16664
G1 X71.168 Y98.254 E7.1899
G1 X71.468 Y97.884 E7.20574
G1 X71.971 Y97.306 E7.23123
G1 X72.336 Y96.915 E7.24902
G1 X72.828 Y96.42 E7.27223
G1 X73.235 Y96.036 E7.29084
G1 X73.806 Y95.534 E7.31613
G1 X74.726 Y94.779 E7.35571
G1 X74.893 Y94.645 E7.36283
G1 X75.867 Y93.877 E7.40409
G1 X77.824 Y92.241 E7.48893
G1 X79.706 Y90.574 E7.57255
G1 X81.55 Y88.848 E7.65655
G1 X83.316 Y87.096 E7.73929
G1 X85.07 Y85.257 E7.82382
G1 X86.747 Y83.395 E7.90716
G1 X88.388 Y81.465 E7.99142
G1 X89.952 Y79.519 E8.07446
G1 X91.495 Y77.481 E8.15948
G1 X92.94 Y75.456 E8.24222
G1 X94.019 Y73.864 E8.30619
G1 X94.336 Y73.386 E8.32526
G1 X94.728 Y72.833 E8.34781
G1 X95.117 Y72.318 E8.36927
G0 F6000 X95.436 Y72.559
G1 F1200 X95.865 Y72.027 E8.392
G1 X96.09 Y71.766 E8.40347
G1 X96.564 Y71.252 E8.42672
G1 X96.995 Y70.814 E8.44716
G1 X97.463 Y70.367 E8.46868
G1 X97.81 Y70.055 E8.48421
G1 X98.336 Y69.611 E8.5071
G1 X98.737 Y69.295 E8.52408
G1 X99.247 Y68.918 E8.54517
G1 X99.644 Y68.642 E8.56126
G1 X100.251 Y68.25 E8.58529
G1 X100.667 Y68.001 E8.60141
G1 X101.242 Y67.681 E8.6233
G1 X101.766 Y67.41 E8.64292
G1 X102.356 Y67.127 E8.66469
G1 X102.73 Y66.962 E8.67828
G1 X103.369 Y66.705 E8.70119
G1 X103.864 Y66.524 E8.71872
G1 X104.506 Y66.312 E8.74121
G1 X105.018 Y66.161 E8.75896
G1 X105.637 Y65.998 E8.78025
G1 X106.119 Y65.887 E8.7967
G1 X106.824 Y65.75 E8.82059
G1 X107.293 Y65.675 E8.83639
G1 X107.952 Y65.591 E8.85848
G1 X108.482 Y65.54 E8.87619
G1 X109.145 Y65.497 E8.89829
G1 X109.627 Y65.481 E8.91433
G1 X110.289 Y65.48 E8.93635
G1 X110.802 Y65.495 E8.95342
G1 X111.479 Y65.536 E8.97598
G1 X111.971 Y65.582 E8.99241
G1 X112.662 Y65.67 E9.01558
G1 X113.186 Y65.754 E9.03323
G1 X113.834 Y65.878 E9.05517
G1 X114.323 Y65.988 E9.07184
G1 X114.952 Y66.15 E9.09345
G1 X115.393 Y66.278 E9.10872
G1 X116.052 Y66.493 E9.13178
G1 X116.551 Y66.674 E9.14943
G1 X117.17 Y66.921 E9.1716
G1 X118.619 Y67.552 E9.22416
G1 X121.054 Y68.572 E9.31197
G1 X123.444 Y69.498 E9.39722
G1 X125.779 Y70.321 E9.47957
G1 X128.198 Y71.101 E9.5641
G1 X130.633 Y71.811 E9.64846
G1 X133.029 Y72.436 E9.73082
G1 X136.847 Y73.291 E9.86095
G1 X137.46 Y73.415 E9.88175
G1 X138.279 Y73.615 E9.90979
G1 X139.015 Y73.826 E9.93526
G1 X140.271 Y74.274 E9.97961
G1 X140.952 Y74.566 E10.00426
G1 X141.761 Y74.954 E10.0341
G1 X142.32 Y75.252 E10.05517
G1 X143.113 Y75.72 E10.08579
G1 X143.524 Y76.001 E10.10235
G1 X144.244 Y76.519 E10.13185
G1 X145.083 Y77.19 E10.16759
G1 X145.381 Y77.454 E10.18083
G1 X146.186 Y78.247 E10.21841
G1 X146.815 Y78.937 E10.24947
G1 X147.405 Y79.644 E10.28009
G1 X147.733 Y80.098 E10.29872
G1 X148.229 Y80.824 E10.32797
G1 X148.818 Y81.794 E10.36571
G1 X149.017 Y82.165 E10.37971
G1 X149.477 Y83.138 E10.41551
G1 X149.769 Y83.847 E10.44101
G1 X150.088 Y84.731 E10.47227
G1 X150.279 Y85.344 E10.49363
G1 X150.6 Y86.666 E10.53887
G1 X150.745 Y87.493 E10.5668
G1 X150.864 Y88.406 E10.59742
G1 X150.896 Y88.922 E10.61462
G1 X150.93 Y89.817 E10.64441
G1 X150.925 Y90.737 E10.67501
G1 X150.877 Y91.354 E10.69559
G1 X150.793 Y92.134 E10.72168
G1 X150.667 Y92.982 E10.7502
G1 X150.56 Y93.544 E10.76922
G1 X150.413 Y94.2 E10.79158
G1 X150.349 Y94.449 E10.80014
G1 X150.262 Y94.767 E10.8111
G1 X149.634 Y96.928 E10.88595
G1 X148.993 Y99.394 E10.97069
G1 X148.422 Y101.872 E11.05527
G1 X147.928 Y104.348 E11.13925
G1 X147.503 Y106.832 E11.22307
G1 X147.148 Y109.327 E11.30689
G1 X146.864 Y111.83 E11.39067
G1 X146.647 Y114.389 E11.47609
G1 X146.531 Y116.342 E11.54116
G1 X146.509 Y116.803 E11.55651
G1 X146.486 Y117.159 E11.56838
G1 X146.439 Y117.736 E11.58763
G1 X146.358 Y118.441 E11.61123
G1 X146.27 Y119.03 E11.63104
G1 X146.138 Y119.742 E11.65513
G1 X146.035 Y120.21 E11.67106
G1 X145.867 Y120.872 E11.69378
G1 X145.716 Y121.395 E11.71189
G1 X145.504 Y122.05 E11.73478
G1 X145.336 Y122.516 E11.75126
G1 X145.06 Y123.204 E11.77592
G1 X144.821 Y123.745 E11.79559
G1 X144.521 Y124.369 E11.81862
G1 X144.287 Y124.817 E11.83543
G1 X143.938 Y125.433 E11.85897
G1 X143.681 Y125.854 E11.87538
G1 X143.275 Y126.47 E11.89992
G1 X142.929 Y126.957 E11.91979
G1 X142.522 Y127.494 E11.9422
G1 X142.222 Y127.864 E11.95804
G1 X141.737 Y128.421 E11.98261
G1 X141.372 Y128.812 E12.0004
G1 X140.897 Y129.289 E12.02279
G1 X140.49 Y129.673 E12.0414
G1 X139.942 Y130.156 E12.06569
G1 X139.551 Y130.477 E12.08252
G1 X138.984 Y130.911 E12.10627
G1 X138.54 Y131.228 E12.12441
G1 X137.967 Y131.61 E12.14732
G1 X137.567 Y131.858 E12.16297
G1 X136.957 Y132.209 E12.18638
G1 X136.419 Y132.495 E12.20664
G1 X135.766 Y132.813 E12.2308
G1 X135.325 Y133.01 E12.24687
G1 X134.657 Y133.282 E12.27085
G1 X134.137 Y133.473 E12.28928
G1 X133.622 Y133.647 E12.30736
G1 X131.079 Y134.436 E12.39592
G1 X128.67 Y135.259 E12.48059
G1 X126.322 Y136.135 E12.56394
G1 X123.961 Y137.092 E12.64867
G1 X121.665 Y138.102 E12.7321
G1 X119.4 Y139.175 E12.81546
G1 X116.124 Y140.864 E12.93805
G1 X115.977 Y140.938 E12.94352
G1 X115.316 Y141.266 E12.96807
G1 X114.662 Y141.563 E12.99196
G1 X114.136 Y141.781 E13.0109
G1 X112.848 Y142.221 E13.05616
G1 X112.124 Y142.417 E13.08111
G1 X111.244 Y142.615 E13.11111
G1 X110.648 Y142.723 E13.13126
G1 X109.327 Y142.878 E13.1755
G1 X108.472 Y142.924 E13.20398
G1 X107.552 Y142.933 E13.23458
G1 X107.008 Y142.901 E13.2527
G1 X106.253 Y142.837 E13.2779
G1 X105.334 Y142.719 E13.30872
G1 X104.718 Y142.612 E13.32951
G1 X103.741 Y142.394 E13.36281
G1 X103.338 Y142.284 E13.3767
G1 X102.263 Y141.928 E13.41437
G1 X101.543 Y141.646 E13.44009
G1 X100.77 Y141.307 E13.46816
G1 X100.24 Y141.049 E13.48776
G1 X99.43 Y140.61 E13.51841
G1 X99.033 Y140.36 E13.53401
G1 X98.298 Y139.874 E13.56332
G1 X97.659 Y139.417 E13.58945
G1 X97.403 Y139.219 E13.60021
G1 X97.151 Y139.018 E13.61093
G1 X95.47 Y137.634 E13.68336
G1 X93.47 Y136.08 E13.7676
G1 X91.45 Y134.601 E13.85086
G1 X89.358 Y133.157 E13.93541
G1 X87.241 Y131.783 E14.01935
G1 X85.079 Y130.466 E14.10355
G1 X82.904 Y129.223 E14.18687
G1 X80.658 Y128.022 E14.27159
G1 X78.279 Y126.836 E14.36
G1 X77.767 Y126.59 E14.37889
G1 X77.126 Y126.255 E14.40295
G1 X76.606 Y125.96 E14.42283
G1 X75.991 Y125.583 E14.44682
G1 X75.581 Y125.312 E14.46317
G1 X75.03 Y124.922 E14.48562
G1 X74.615 Y124.608 E14.50293
G1 X74.069 Y124.165 E14.52632
G1 X73.664 Y123.814 E14.54414
G1 X73.131 Y123.319 E14.56834
G1 X72.754 Y122.944 E14.58602
G1 X72.253 Y122.411 E14.61035
G1 X71.888 Y121.994 E14.62878
G1 X71.452 Y121.462 E14.65166
G1 X71.156 Y121.076 E14.66784
G1 X70.742 Y120.497 E14.69151
G1 X70.432 Y120.031 E14.71013
G1 X70.061 Y119.43 E14.73362
G1 X69.802 Y118.978 E14.75095
G1 X69.468 Y118.347 E14.77469
G1 X69.247 Y117.893 E14.79149
G1 X68.962 Y117.254 E14.81476
G1 X68.744 Y116.719 E14.83397
G1 X68.498 Y116.052 E14.85762
G1 X68.336 Y115.563 E14.87475
G1 X68.144 Y114.917 E14.89717
G1 X68.013 Y114.417 E14.91436
G1 X67.849 Y113.683 E14.93937
G1 X67.756 Y113.187 E14.95616
G1 X67.65 Y112.5 E14.97928
G1 X67.58 Y111.918 E14.99877
G1 X67.519 Y111.22 E15.02208
G1 X67.494 Y110.754 E15.0376
G1 X67.48 Y110.023 E15.06192
G1 X67.489 Y109.436 E15.08144
G1 X67.522 Y108.752 E15.10422
G1 X67.56 Y108.278 E15.12004
G1 X67.642 Y107.559 E15.14411
G1 X67.73 Y106.97 E15.16391
G1 X67.862 Y106.255 E15.1881
G1 X67.966 Y105.783 E15.20417
G1 X68.135 Y105.121 E15.2269
G1 X68.285 Y104.602 E15.24486
G1 X68.496 Y103.95 E15.26766
G1 X68.664 Y103.484 E15.28413
G1 X68.94 Y102.796 E15.30879
G1 X69.179 Y102.255 E15.32846
G1 X69.479 Y101.631 E15.35149
G1 X69.713 Y101.183 E15.3683
G1 X70.062 Y100.567 E15.39185
G1 X70.319 Y100.146 E15.40825
G1 X70.725 Y99.53 E15.43279
G1 X71.071 Y99.043 E15.45266
G1 X71.478 Y98.506 E15.47507
G1 X71.778 Y98.136 E15.49091
G1 X72.263 Y97.579 E15.51548
G1 X72.628 Y97.188 E15.53327
G1 X73.103 Y96.711 E15.55566
G1 X73.51 Y96.327 E15.57427
G1 X74.06 Y95.843 E15.59864
G1 X74.98 Y95.088 E15.63822
G1 X75.14 Y94.959 E15.64506
G1 X76.143 Y94.168 E15.68754
G1 X78.082 Y92.547 E15.7716
G1 X79.961 Y90.883 E15.85508
G1 X81.839 Y89.125 E15.94064
G1 X83.605 Y87.373 E16.02338
G1 X85.358 Y85.535 E16.10786
G1 X87.048 Y83.659 E16.19184
G1 X88.686 Y81.733 E16.27593
G1 X90.271 Y79.761 E16.36008
G1 X91.807 Y77.732 E16.44472
G1 X93.29 Y75.654 E16.52963
G1 X94.382 Y74.042 E16.59439
G1 X94.67 Y73.607 E16.61174
G1 X95.047 Y73.074 E16.63346
G1 X95.436 Y72.559 E16.65492
G0 F6000 X95.755 Y72.8
G1 F1200 X96.168 Y72.288 E16.6768
G1 X96.393 Y72.027 E16.68826
G1 X96.849 Y71.533 E16.71062
G1 X97.28 Y71.095 E16.73106
G1 X97.73 Y70.664 E16.75179
