(8X10 FACING)
(T8  D=1. CR=0. - ZMIN=0. - FACE MILL)
G90 G94 G91.1 G40 G49 G17
G20

(FACE1)
G0 X0. Y0. Z0.6
M5
T8 M6
S15000 M3
G4 P5.
G54
M8
G0 X8.65 Y0.1742
G43 Z0.6 H8
Z0.2
G1 Z0.1 F13.3
G18 G3 X8.55 Z0. I-0.1 K0. F40.
G1 X8.5004
X-0.5004
G17 G2 Y0.8414 I0. J0.3336
G1 X8.5004
G3 Y1.5086 I0. J0.3336
G1 X-0.5004
G2 Y2.1758 I0. J0.3336
G1 X8.5004
G3 Y2.843 I0. J0.3336
G1 X-0.5004
G2 Y3.5101 I0. J0.3336
G1 X8.5004
G3 Y4.1773 I0. J0.3336
G1 X-0.5004
G2 Y4.8445 I0. J0.3336
G1 X8.5004
G3 Y5.5117 I0. J0.3336
G1 X-0.5004
G2 Y6.1789 I0. J0.3336
G1 X8.5004
G3 Y6.8461 I0. J0.3336
G1 X-0.5004
G2 Y7.5133 I0. J0.3336
G1 X8.5004
G3 Y8.1805 I0. J0.3336
G1 X-0.5004
G2 Y8.8477 I0. J0.3336
G1 X8.5004
G3 Y9.5149 I0. J0.3336
G1 X-0.5004
G2 Y10.182 I0. J0.3336
G1 X8.5004
G3 Y10.8492 I0. J0.3336
G1 X-0.5004
G2 Y11.5164 I0. J0.3336
G1 X8.5004
G3 Y12.1836 I0. J0.3336
G1 X-0.5004
G2 Y12.8508 I0. J0.3336
G1 X8.5004
G3 Y13.518 I0. J0.3336
G1 X-0.5004
G18 G3 X-0.6004 Z0.1 I0. K0.1
G0 Z0.6
G17

M9
M30
