(X4 DRIVE RAIL TOP HOLES)
(T3  D=0.118 CR=0. - ZMIN=-0.22 - FLAT END MILL)
G90 G94 G91.1 G40 G49 G17
G20

(2D POCKET7)
M5
T3 M6
S15000 M3
g4 p5
G54
M8
G0 X0.495 Y1.0572
G43 Z0.6 H3
Z0.2
G1 Z0.1118 F30.
X0.4951 Y1.0564 Z0.1075 F20.
X0.4954 Y1.0553 Z0.1057
X0.496 Y1.0544 Z0.1039
X0.4969 Y1.0535 Z0.1029
X0.4979 Y1.0528 Z0.102
X0.4991 Y1.0524 Z0.1011
X0.5007 Z0.1007
X0.5021 Y1.0528 Z0.1004
X0.5034 Y1.0537 Z0.1
G3 X0.4966 Y1.0611 Z0.0995 I-0.0034 J0.0037
X0.5034 Y1.0537 Z0.0989 I0.0034 J-0.0037
X0.4966 Y1.0611 Z0.0984 I-0.0034 J0.0037
X0.5034 Y1.0537 Z0.0978 I0.0034 J-0.0037
X0.4966 Y1.0611 Z0.0973 I-0.0034 J0.0037
X0.5034 Y1.0537 Z0.0967 I0.0034 J-0.0037
X0.4966 Y1.0611 Z0.0962 I-0.0034 J0.0037
X0.5034 Y1.0537 Z0.0956 I0.0034 J-0.0037
X0.4966 Y1.0611 Z0.0951 I-0.0034 J0.0037
X0.5034 Y1.0537 Z0.0945 I0.0034 J-0.0037
X0.4966 Y1.0611 Z0.094 I-0.0034 J0.0037
X0.5034 Y1.0537 Z0.0934 I0.0034 J-0.0037
X0.4966 Y1.0611 Z0.0929 I-0.0034 J0.0037
X0.5034 Y1.0537 Z0.0923 I0.0034 J-0.0037
X0.4966 Y1.0611 Z0.0918 I-0.0034 J0.0037
X0.5034 Y1.0537 Z0.0912 I0.0034 J-0.0037
X0.4966 Y1.0611 Z0.0907 I-0.0034 J0.0037
X0.5034 Y1.0537 Z0.0901 I0.0034 J-0.0037
X0.4966 Y1.0611 Z0.0896 I-0.0034 J0.0037
X0.5034 Y1.0537 Z0.089 I0.0034 J-0.0037
X0.4966 Y1.0611 Z0.0885 I-0.0034 J0.0037
X0.5034 Y1.0537 Z0.0879 I0.0034 J-0.0037
X0.4966 Y1.0611 Z0.0874 I-0.0034 J0.0037
X0.5034 Y1.0537 Z0.0868 I0.0034 J-0.0037
X0.4966 Y1.0611 Z0.0863 I-0.0034 J0.0037
X0.5034 Y1.0537 Z0.0857 I0.0034 J-0.0037
X0.4966 Y1.0611 Z0.0852 I-0.0034 J0.0037
X0.5034 Y1.0537 Z0.0846 I0.0034 J-0.0037
X0.4966 Y1.0611 Z0.0841 I-0.0034 J0.0037
X0.5034 Y1.0537 Z0.0835 I0.0034 J-0.0037
X0.4966 Y1.0611 Z0.083 I-0.0034 J0.0037
X0.5034 Y1.0537 Z0.0824 I0.0034 J-0.0037
X0.4966 Y1.0611 Z0.0819 I-0.0034 J0.0037
X0.5034 Y1.0537 Z0.0813 I0.0034 J-0.0037
X0.4966 Y1.0611 Z0.0808 I-0.0034 J0.0037
X0.5034 Y1.0537 Z0.0803 I0.0034 J-0.0037
X0.4966 Y1.0611 Z0.0797 I-0.0034 J0.0037
X0.5034 Y1.0537 Z0.0792 I0.0034 J-0.0037
X0.4966 Y1.0611 Z0.0786 I-0.0034 J0.0037
X0.5034 Y1.0537 Z0.0781 I0.0034 J-0.0037
X0.4966 Y1.0611 Z0.0775 I-0.0034 J0.0037
X0.5034 Y1.0537 Z0.077 I0.0034 J-0.0037
X0.4966 Y1.0611 Z0.0764 I-0.0034 J0.0037
X0.5034 Y1.0537 Z0.0759 I0.0034 J-0.0037
X0.4966 Y1.0611 Z0.0753 I-0.0034 J0.0037
X0.5034 Y1.0537 Z0.0748 I0.0034 J-0.0037
X0.4966 Y1.0611 Z0.0742 I-0.0034 J0.0037
X0.5034 Y1.0537 Z0.0737 I0.0034 J-0.0037
X0.4966 Y1.0611 Z0.0731 I-0.0034 J0.0037
X0.5034 Y1.0537 Z0.0726 I0.0034 J-0.0037
X0.4966 Y1.0611 Z0.072 I-0.0034 J0.0037
X0.5034 Y1.0537 Z0.0715 I0.0034 J-0.0037
X0.4966 Y1.0611 Z0.0709 I-0.0034 J0.0037
X0.5034 Y1.0537 Z0.0704 I0.0034 J-0.0037
X0.4966 Y1.0611 Z0.0698 I-0.0034 J0.0037
X0.5034 Y1.0537 Z0.0693 I0.0034 J-0.0037
X0.4966 Y1.0611 Z0.0687 I-0.0034 J0.0037
X0.5034 Y1.0537 Z0.0682 I0.0034 J-0.0037
X0.4966 Y1.0611 Z0.0676 I-0.0034 J0.0037
X0.5034 Y1.0537 Z0.0671 I0.0034 J-0.0037
X0.4966 Y1.0611 Z0.0665 I-0.0034 J0.0037
X0.5034 Y1.0537 Z0.066 I0.0034 J-0.0037
X0.4966 Y1.0611 Z0.0654 I-0.0034 J0.0037
X0.5034 Y1.0537 Z0.0649 I0.0034 J-0.0037
X0.4966 Y1.0611 Z0.0643 I-0.0034 J0.0037
X0.5034 Y1.0537 Z0.0638 I0.0034 J-0.0037
X0.4966 Y1.0611 Z0.0632 I-0.0034 J0.0037
X0.5034 Y1.0537 Z0.0627 I0.0034 J-0.0037
X0.4966 Y1.0611 Z0.0622 I-0.0034 J0.0037
X0.5034 Y1.0537 Z0.0616 I0.0034 J-0.0037
X0.4966 Y1.0611 Z0.0611 I-0.0034 J0.0037
X0.5034 Y1.0537 Z0.0605 I0.0034 J-0.0037
X0.4966 Y1.0611 Z0.06 I-0.0034 J0.0037
X0.5034 Y1.0537 Z0.0594 I0.0034 J-0.0037
X0.4966 Y1.0611 Z0.0589 I-0.0034 J0.0037
X0.5034 Y1.0537 Z0.0583 I0.0034 J-0.0037
X0.4966 Y1.0611 Z0.0578 I-0.0034 J0.0037
X0.5034 Y1.0537 Z0.0572 I0.0034 J-0.0037
X0.4966 Y1.0611 Z0.0567 I-0.0034 J0.0037
X0.5034 Y1.0537 Z0.0561 I0.0034 J-0.0037
X0.4966 Y1.0611 Z0.0556 I-0.0034 J0.0037
X0.5034 Y1.0537 Z0.055 I0.0034 J-0.0037
X0.4966 Y1.0611 Z0.0545 I-0.0034 J0.0037
X0.5034 Y1.0537 Z0.0539 I0.0034 J-0.0037
X0.4966 Y1.0611 Z0.0534 I-0.0034 J0.0037
X0.5034 Y1.0537 Z0.0528 I0.0034 J-0.0037
X0.4966 Y1.0611 Z0.0523 I-0.0034 J0.0037
X0.5034 Y1.0537 Z0.0517 I0.0034 J-0.0037
X0.4966 Y1.0611 Z0.0512 I-0.0034 J0.0037
X0.5034 Y1.0537 Z0.0506 I0.0034 J-0.0037
X0.4966 Y1.0611 Z0.0501 I-0.0034 J0.0037
X0.5034 Y1.0537 Z0.0495 I0.0034 J-0.0037
X0.4966 Y1.0611 Z0.049 I-0.0034 J0.0037
X0.5034 Y1.0537 Z0.0484 I0.0034 J-0.0037
X0.4966 Y1.0611 Z0.0479 I-0.0034 J0.0037
X0.5034 Y1.0537 Z0.0473 I0.0034 J-0.0037
X0.4966 Y1.0611 Z0.0468 I-0.0034 J0.0037
X0.5034 Y1.0537 Z0.0462 I0.0034 J-0.0037
X0.4966 Y1.0611 Z0.0457 I-0.0034 J0.0037
X0.5034 Y1.0537 Z0.0451 I0.0034 J-0.0037
X0.4966 Y1.0611 Z0.0446 I-0.0034 J0.0037
X0.5034 Y1.0537 Z0.044 I0.0034 J-0.0037
X0.4966 Y1.0611 Z0.0435 I-0.0034 J0.0037
X0.5034 Y1.0537 Z0.043 I0.0034 J-0.0037
X0.4966 Y1.0611 Z0.0424 I-0.0034 J0.0037
X0.5034 Y1.0537 Z0.0419 I0.0034 J-0.0037
X0.4966 Y1.0611 Z0.0413 I-0.0034 J0.0037
X0.5034 Y1.0537 Z0.0408 I0.0034 J-0.0037
X0.4966 Y1.0611 Z0.0402 I-0.0034 J0.0037
X0.5034 Y1.0537 Z0.0397 I0.0034 J-0.0037
X0.4966 Y1.0611 Z0.0391 I-0.0034 J0.0037
X0.5034 Y1.0537 Z0.0386 I0.0034 J-0.0037
X0.4966 Y1.0611 Z0.038 I-0.0034 J0.0037
X0.5034 Y1.0537 Z0.0375 I0.0034 J-0.0037
X0.4966 Y1.0611 Z0.0369 I-0.0034 J0.0037
X0.5034 Y1.0537 Z0.0364 I0.0034 J-0.0037
X0.4966 Y1.0611 Z0.0358 I-0.0034 J0.0037
X0.5034 Y1.0537 Z0.0353 I0.0034 J-0.0037
X0.4966 Y1.0611 Z0.0347 I-0.0034 J0.0037
X0.5034 Y1.0537 Z0.0342 I0.0034 J-0.0037
X0.4966 Y1.0611 Z0.0336 I-0.0034 J0.0037
X0.5034 Y1.0537 Z0.0331 I0.0034 J-0.0037
X0.4966 Y1.0611 Z0.0325 I-0.0034 J0.0037
X0.5034 Y1.0537 Z0.032 I0.0034 J-0.0037
X0.4966 Y1.0611 Z0.0314 I-0.0034 J0.0037
X0.5034 Y1.0537 Z0.0309 I0.0034 J-0.0037
X0.4966 Y1.0611 Z0.0303 I-0.0034 J0.0037
X0.5034 Y1.0537 Z0.0298 I0.0034 J-0.0037
X0.4966 Y1.0611 Z0.0292 I-0.0034 J0.0037
X0.5034 Y1.0537 Z0.0287 I0.0034 J-0.0037
X0.4966 Y1.0611 Z0.0281 I-0.0034 J0.0037
X0.5034 Y1.0537 Z0.0276 I0.0034 J-0.0037
X0.4966 Y1.0611 Z0.027 I-0.0034 J0.0037
X0.5034 Y1.0537 Z0.0265 I0.0034 J-0.0037
X0.4966 Y1.0611 Z0.0259 I-0.0034 J0.0037
X0.5034 Y1.0537 Z0.0254 I0.0034 J-0.0037
X0.4966 Y1.0611 Z0.0249 I-0.0034 J0.0037
X0.5034 Y1.0537 Z0.0243 I0.0034 J-0.0037
X0.4966 Y1.0611 Z0.0238 I-0.0034 J0.0037
X0.5034 Y1.0537 Z0.0232 I0.0034 J-0.0037
X0.4966 Y1.0611 Z0.0227 I-0.0034 J0.0037
X0.5034 Y1.0537 Z0.0221 I0.0034 J-0.0037
X0.4966 Y1.0611 Z0.0216 I-0.0034 J0.0037
X0.5034 Y1.0537 Z0.021 I0.0034 J-0.0037
X0.4966 Y1.0611 Z0.0205 I-0.0034 J0.0037
X0.5034 Y1.0537 Z0.0199 I0.0034 J-0.0037
X0.4966 Y1.0611 Z0.0194 I-0.0034 J0.0037
X0.5034 Y1.0537 Z0.0188 I0.0034 J-0.0037
X0.4966 Y1.0611 Z0.0183 I-0.0034 J0.0037
X0.5034 Y1.0537 Z0.0177 I0.0034 J-0.0037
X0.4966 Y1.0611 Z0.0172 I-0.0034 J0.0037
X0.5034 Y1.0537 Z0.0166 I0.0034 J-0.0037
X0.4966 Y1.0611 Z0.0161 I-0.0034 J0.0037
X0.5034 Y1.0537 Z0.0155 I0.0034 J-0.0037
X0.4966 Y1.0611 Z0.015 I-0.0034 J0.0037
X0.5034 Y1.0537 Z0.0144 I0.0034 J-0.0037
X0.4966 Y1.0611 Z0.0139 I-0.0034 J0.0037
X0.5034 Y1.0537 Z0.0133 I0.0034 J-0.0037
X0.4966 Y1.0611 Z0.0128 I-0.0034 J0.0037
X0.5034 Y1.0537 Z0.0122 I0.0034 J-0.0037
X0.4966 Y1.0611 Z0.0117 I-0.0034 J0.0037
X0.5034 Y1.0537 Z0.0111 I0.0034 J-0.0037
X0.4966 Y1.0611 Z0.0106 I-0.0034 J0.0037
X0.5034 Y1.0537 Z0.01 I0.0034 J-0.0037
X0.4966 Y1.0611 Z0.0095 I-0.0034 J0.0037
X0.5034 Y1.0537 Z0.0089 I0.0034 J-0.0037
X0.4966 Y1.0611 Z0.0084 I-0.0034 J0.0037
X0.5034 Y1.0537 Z0.0078 I0.0034 J-0.0037
X0.4966 Y1.0611 Z0.0073 I-0.0034 J0.0037
X0.5034 Y1.0537 Z0.0067 I0.0034 J-0.0037
X0.4966 Y1.0611 Z0.0062 I-0.0034 J0.0037
X0.5034 Y1.0537 Z0.0057 I0.0034 J-0.0037
X0.4966 Y1.0611 Z0.0051 I-0.0034 J0.0037
X0.5034 Y1.0537 Z0.0046 I0.0034 J-0.0037
X0.4966 Y1.0611 Z0.004 I-0.0034 J0.0037
X0.5034 Y1.0537 Z0.0035 I0.0034 J-0.0037
X0.4966 Y1.0611 Z0.0029 I-0.0034 J0.0037
X0.5034 Y1.0537 Z0.0024 I0.0034 J-0.0037
X0.4966 Y1.0611 Z0.0018 I-0.0034 J0.0037
X0.5034 Y1.0537 Z0.0013 I0.0034 J-0.0037
X0.4966 Y1.0611 Z0.0007 I-0.0034 J0.0037
X0.5034 Y1.0537 Z0.0002 I0.0034 J-0.0037
X0.4966 Y1.0611 Z-0.0004 I-0.0034 J0.0037
X0.5034 Y1.0537 Z-0.0009 I0.0034 J-0.0037
X0.4966 Y1.0611 Z-0.0015 I-0.0034 J0.0037
X0.5034 Y1.0537 Z-0.002 I0.0034 J-0.0037
X0.4966 Y1.0611 Z-0.0026 I-0.0034 J0.0037
X0.5034 Y1.0537 Z-0.0031 I0.0034 J-0.0037
X0.4966 Y1.0611 Z-0.0037 I-0.0034 J0.0037
X0.5034 Y1.0537 Z-0.0042 I0.0034 J-0.0037
X0.4966 Y1.0611 Z-0.0048 I-0.0034 J0.0037
X0.5034 Y1.0537 Z-0.0053 I0.0034 J-0.0037
X0.4966 Y1.0611 Z-0.0059 I-0.0034 J0.0037
X0.5034 Y1.0537 Z-0.0064 I0.0034 J-0.0037
X0.4966 Y1.0611 Z-0.007 I-0.0034 J0.0037
X0.5034 Y1.0537 Z-0.0075 I0.0034 J-0.0037
X0.4966 Y1.0611 Z-0.0081 I-0.0034 J0.0037
X0.5034 Y1.0537 Z-0.0086 I0.0034 J-0.0037
X0.4966 Y1.0611 Z-0.0092 I-0.0034 J0.0037
X0.5034 Y1.0537 Z-0.0097 I0.0034 J-0.0037
X0.4966 Y1.0611 Z-0.0103 I-0.0034 J0.0037
X0.5034 Y1.0537 Z-0.0108 I0.0034 J-0.0037
X0.4966 Y1.0611 Z-0.0114 I-0.0034 J0.0037
X0.5034 Y1.0537 Z-0.0119 I0.0034 J-0.0037
X0.4966 Y1.0611 Z-0.0124 I-0.0034 J0.0037
X0.5034 Y1.0537 Z-0.013 I0.0034 J-0.0037
X0.4966 Y1.0611 Z-0.0135 I-0.0034 J0.0037
X0.5034 Y1.0537 Z-0.0141 I0.0034 J-0.0037
X0.4966 Y1.0611 Z-0.0146 I-0.0034 J0.0037
X0.5034 Y1.0537 Z-0.0152 I0.0034 J-0.0037
X0.4966 Y1.0611 Z-0.0157 I-0.0034 J0.0037
X0.5034 Y1.0537 Z-0.0163 I0.0034 J-0.0037
X0.4966 Y1.0611 Z-0.0168 I-0.0034 J0.0037
X0.5034 Y1.0537 Z-0.0174 I0.0034 J-0.0037
X0.4966 Y1.0611 Z-0.0179 I-0.0034 J0.0037
X0.5034 Y1.0537 Z-0.0185 I0.0034 J-0.0037
X0.4966 Y1.0611 Z-0.019 I-0.0034 J0.0037
X0.5034 Y1.0537 Z-0.0196 I0.0034 J-0.0037
X0.5 Y1.0624 Z-0.02 I-0.0034 J0.0037
X0.4776 Y1.04 I0. J-0.0224 F30.
X0.5 Y1.0176 I0.0224 J0.
X0.5224 Y1.04 I0. J0.0224
X0.5 Y1.0624 I-0.0224 J0.
G2 X0.47 Y1.0782 I0. J0.0362
G3 X0.4361 Y1.077 I-0.0166 J-0.0113
X0.4262 Y1.04 I0.0639 J-0.037
X0.5738 I0.0738 J0.
X0.4361 Y1.077 I-0.0738 J0.
G1 X0.4355 Y1.0753
X0.4354 Y1.0734
X0.4358 Y1.0717
X0.4368 Y1.0701
X0.4383 Y1.069
X0.44 Y1.0683
X0.4694 Y1.0618
X0.4971 Y1.0517
G3 X0.505 Y1.058 I0.002 J0.0055
X0.495 Y1.0567 Z-0.0205 I-0.005 J-0.0006 F20.
X0.505 Y1.058 Z-0.0211 I0.005 J0.0006
X0.495 Y1.0567 Z-0.0216 I-0.005 J-0.0006
X0.505 Y1.058 Z-0.0222 I0.005 J0.0006
X0.495 Y1.0567 Z-0.0227 I-0.005 J-0.0006
X0.505 Y1.058 Z-0.0233 I0.005 J0.0006
X0.495 Y1.0567 Z-0.0238 I-0.005 J-0.0006
X0.505 Y1.058 Z-0.0244 I0.005 J0.0006
X0.495 Y1.0567 Z-0.0249 I-0.005 J-0.0006
X0.505 Y1.058 Z-0.0255 I0.005 J0.0006
X0.495 Y1.0567 Z-0.026 I-0.005 J-0.0006
X0.505 Y1.058 Z-0.0266 I0.005 J0.0006
X0.495 Y1.0567 Z-0.0271 I-0.005 J-0.0006
X0.505 Y1.058 Z-0.0277 I0.005 J0.0006
X0.495 Y1.0567 Z-0.0282 I-0.005 J-0.0006
X0.505 Y1.058 Z-0.0288 I0.005 J0.0006
X0.495 Y1.0567 Z-0.0293 I-0.005 J-0.0006
X0.505 Y1.058 Z-0.0299 I0.005 J0.0006
X0.495 Y1.0567 Z-0.0304 I-0.005 J-0.0006
X0.505 Y1.058 Z-0.031 I0.005 J0.0006
X0.495 Y1.0567 Z-0.0315 I-0.005 J-0.0006
X0.505 Y1.058 Z-0.0321 I0.005 J0.0006
X0.495 Y1.0567 Z-0.0326 I-0.005 J-0.0006
X0.505 Y1.058 Z-0.0332 I0.005 J0.0006
X0.495 Y1.0567 Z-0.0337 I-0.005 J-0.0006
X0.505 Y1.058 Z-0.0343 I0.005 J0.0006
X0.495 Y1.0567 Z-0.0348 I-0.005 J-0.0006
X0.505 Y1.058 Z-0.0354 I0.005 J0.0006
X0.495 Y1.0567 Z-0.0359 I-0.005 J-0.0006
X0.505 Y1.058 Z-0.0365 I0.005 J0.0006
X0.495 Y1.0567 Z-0.037 I-0.005 J-0.0006
X0.505 Y1.058 Z-0.0376 I0.005 J0.0006
X0.495 Y1.0567 Z-0.0381 I-0.005 J-0.0006
X0.505 Y1.058 Z-0.0387 I0.005 J0.0006
X0.495 Y1.0567 Z-0.0392 I-0.005 J-0.0006
X0.505 Y1.058 Z-0.0397 I0.005 J0.0006
X0.5 Y1.0624 Z-0.04 I-0.005 J-0.0006
X0.4776 Y1.04 I0. J-0.0224 F30.
X0.5 Y1.0176 I0.0224 J0.
X0.5224 Y1.04 I0. J0.0224
X0.5 Y1.0624 I-0.0224 J0.
G2 X0.47 Y1.0782 I0. J0.0362
G3 X0.4361 Y1.077 I-0.0166 J-0.0113
X0.4262 Y1.04 I0.0639 J-0.037
X0.5738 I0.0738 J0.
X0.4361 Y1.077 I-0.0738 J0.
G1 X0.4355 Y1.0753
X0.4354 Y1.0734
X0.4358 Y1.0717
X0.4368 Y1.0701
X0.4383 Y1.069
X0.44 Y1.0683
X0.4694 Y1.0618
X0.4971 Y1.0517
G3 X0.505 Y1.058 I0.002 J0.0055
X0.495 Y1.0567 Z-0.0405 I-0.005 J-0.0006 F20.
X0.505 Y1.058 Z-0.0411 I0.005 J0.0006
X0.495 Y1.0567 Z-0.0416 I-0.005 J-0.0006
X0.505 Y1.058 Z-0.0422 I0.005 J0.0006
X0.495 Y1.0567 Z-0.0427 I-0.005 J-0.0006
X0.505 Y1.058 Z-0.0433 I0.005 J0.0006
X0.495 Y1.0567 Z-0.0438 I-0.005 J-0.0006
X0.505 Y1.058 Z-0.0444 I0.005 J0.0006
X0.495 Y1.0567 Z-0.0449 I-0.005 J-0.0006
X0.505 Y1.058 Z-0.0455 I0.005 J0.0006
X0.495 Y1.0567 Z-0.046 I-0.005 J-0.0006
X0.505 Y1.058 Z-0.0466 I0.005 J0.0006
X0.495 Y1.0567 Z-0.0471 I-0.005 J-0.0006
X0.505 Y1.058 Z-0.0477 I0.005 J0.0006
X0.495 Y1.0567 Z-0.0482 I-0.005 J-0.0006
X0.505 Y1.058 Z-0.0488 I0.005 J0.0006
X0.495 Y1.0567 Z-0.0493 I-0.005 J-0.0006
X0.505 Y1.058 Z-0.0499 I0.005 J0.0006
X0.495 Y1.0567 Z-0.0504 I-0.005 J-0.0006
X0.505 Y1.058 Z-0.051 I0.005 J0.0006
X0.495 Y1.0567 Z-0.0515 I-0.005 J-0.0006
X0.505 Y1.058 Z-0.0521 I0.005 J0.0006
X0.495 Y1.0567 Z-0.0526 I-0.005 J-0.0006
X0.505 Y1.058 Z-0.0532 I0.005 J0.0006
X0.495 Y1.0567 Z-0.0537 I-0.005 J-0.0006
X0.505 Y1.058 Z-0.0543 I0.005 J0.0006
X0.495 Y1.0567 Z-0.0548 I-0.005 J-0.0006
X0.505 Y1.058 Z-0.0554 I0.005 J0.0006
X0.495 Y1.0567 Z-0.0559 I-0.005 J-0.0006
X0.505 Y1.058 Z-0.0565 I0.005 J0.0006
X0.495 Y1.0567 Z-0.057 I-0.005 J-0.0006
X0.505 Y1.058 Z-0.0576 I0.005 J0.0006
X0.495 Y1.0567 Z-0.0581 I-0.005 J-0.0006
X0.505 Y1.058 Z-0.0587 I0.005 J0.0006
X0.495 Y1.0567 Z-0.0592 I-0.005 J-0.0006
X0.505 Y1.058 Z-0.0597 I0.005 J0.0006
X0.5 Y1.0624 Z-0.06 I-0.005 J-0.0006
X0.4776 Y1.04 I0. J-0.0224 F30.
X0.5 Y1.0176 I0.0224 J0.
X0.5224 Y1.04 I0. J0.0224
X0.5 Y1.0624 I-0.0224 J0.
G2 X0.47 Y1.0782 I0. J0.0362
G3 X0.4361 Y1.077 I-0.0166 J-0.0113
X0.4262 Y1.04 I0.0639 J-0.037
X0.5738 I0.0738 J0.
X0.4361 Y1.077 I-0.0738 J0.
G1 X0.4355 Y1.0753
X0.4354 Y1.0734
X0.4358 Y1.0717
X0.4368 Y1.0701
X0.4383 Y1.069
X0.44 Y1.0683
X0.4694 Y1.0618
X0.4971 Y1.0517
G3 X0.505 Y1.058 I0.002 J0.0055
X0.495 Y1.0567 Z-0.0605 I-0.005 J-0.0006 F20.
X0.505 Y1.058 Z-0.0611 I0.005 J0.0006
X0.495 Y1.0567 Z-0.0616 I-0.005 J-0.0006
X0.505 Y1.058 Z-0.0622 I0.005 J0.0006
X0.495 Y1.0567 Z-0.0627 I-0.005 J-0.0006
X0.505 Y1.058 Z-0.0633 I0.005 J0.0006
X0.495 Y1.0567 Z-0.0638 I-0.005 J-0.0006
X0.505 Y1.058 Z-0.0644 I0.005 J0.0006
X0.495 Y1.0567 Z-0.0649 I-0.005 J-0.0006
X0.505 Y1.058 Z-0.0655 I0.005 J0.0006
X0.495 Y1.0567 Z-0.066 I-0.005 J-0.0006
X0.505 Y1.058 Z-0.0666 I0.005 J0.0006
X0.495 Y1.0567 Z-0.0671 I-0.005 J-0.0006
X0.505 Y1.058 Z-0.0677 I0.005 J0.0006
X0.495 Y1.0567 Z-0.0682 I-0.005 J-0.0006
X0.505 Y1.058 Z-0.0688 I0.005 J0.0006
X0.495 Y1.0567 Z-0.0693 I-0.005 J-0.0006
X0.505 Y1.058 Z-0.0699 I0.005 J0.0006
X0.495 Y1.0567 Z-0.0704 I-0.005 J-0.0006
X0.505 Y1.058 Z-0.071 I0.005 J0.0006
X0.495 Y1.0567 Z-0.0715 I-0.005 J-0.0006
X0.505 Y1.058 Z-0.0721 I0.005 J0.0006
X0.495 Y1.0567 Z-0.0726 I-0.005 J-0.0006
X0.505 Y1.058 Z-0.0732 I0.005 J0.0006
X0.495 Y1.0567 Z-0.0737 I-0.005 J-0.0006
X0.505 Y1.058 Z-0.0743 I0.005 J0.0006
X0.495 Y1.0567 Z-0.0748 I-0.005 J-0.0006
X0.505 Y1.058 Z-0.0754 I0.005 J0.0006
X0.495 Y1.0567 Z-0.0759 I-0.005 J-0.0006
X0.505 Y1.058 Z-0.0765 I0.005 J0.0006
X0.495 Y1.0567 Z-0.077 I-0.005 J-0.0006
X0.505 Y1.058 Z-0.0776 I0.005 J0.0006
X0.495 Y1.0567 Z-0.0781 I-0.005 J-0.0006
X0.505 Y1.058 Z-0.0787 I0.005 J0.0006
X0.495 Y1.0567 Z-0.0792 I-0.005 J-0.0006
X0.505 Y1.058 Z-0.0797 I0.005 J0.0006
X0.5 Y1.0624 Z-0.08 I-0.005 J-0.0006
X0.4776 Y1.04 I0. J-0.0224 F30.
X0.5 Y1.0176 I0.0224 J0.
X0.5224 Y1.04 I0. J0.0224
X0.5 Y1.0624 I-0.0224 J0.
G2 X0.47 Y1.0782 I0. J0.0362
G3 X0.4361 Y1.077 I-0.0166 J-0.0113
X0.4262 Y1.04 I0.0639 J-0.037
X0.5738 I0.0738 J0.
X0.4361 Y1.077 I-0.0738 J0.
G1 X0.4355 Y1.0753
X0.4354 Y1.0734
X0.4358 Y1.0717
X0.4368 Y1.0701
X0.4383 Y1.069
X0.44 Y1.0683
X0.4694 Y1.0618
X0.4971 Y1.0517
G3 X0.505 Y1.058 I0.002 J0.0055
X0.495 Y1.0567 Z-0.0805 I-0.005 J-0.0006 F20.
X0.505 Y1.058 Z-0.0811 I0.005 J0.0006
X0.495 Y1.0567 Z-0.0816 I-0.005 J-0.0006
X0.505 Y1.058 Z-0.0822 I0.005 J0.0006
X0.495 Y1.0567 Z-0.0827 I-0.005 J-0.0006
X0.505 Y1.058 Z-0.0833 I0.005 J0.0006
X0.495 Y1.0567 Z-0.0838 I-0.005 J-0.0006
X0.505 Y1.058 Z-0.0844 I0.005 J0.0006
X0.495 Y1.0567 Z-0.0849 I-0.005 J-0.0006
X0.505 Y1.058 Z-0.0855 I0.005 J0.0006
X0.495 Y1.0567 Z-0.086 I-0.005 J-0.0006
X0.505 Y1.058 Z-0.0866 I0.005 J0.0006
X0.495 Y1.0567 Z-0.0871 I-0.005 J-0.0006
X0.505 Y1.058 Z-0.0877 I0.005 J0.0006
X0.495 Y1.0567 Z-0.0882 I-0.005 J-0.0006
X0.505 Y1.058 Z-0.0888 I0.005 J0.0006
X0.495 Y1.0567 Z-0.0893 I-0.005 J-0.0006
X0.505 Y1.058 Z-0.0899 I0.005 J0.0006
X0.495 Y1.0567 Z-0.0904 I-0.005 J-0.0006
X0.505 Y1.058 Z-0.091 I0.005 J0.0006
X0.495 Y1.0567 Z-0.0915 I-0.005 J-0.0006
X0.505 Y1.058 Z-0.0921 I0.005 J0.0006
X0.495 Y1.0567 Z-0.0926 I-0.005 J-0.0006
X0.505 Y1.058 Z-0.0932 I0.005 J0.0006
X0.495 Y1.0567 Z-0.0937 I-0.005 J-0.0006
X0.505 Y1.058 Z-0.0943 I0.005 J0.0006
X0.495 Y1.0567 Z-0.0948 I-0.005 J-0.0006
X0.505 Y1.058 Z-0.0954 I0.005 J0.0006
X0.495 Y1.0567 Z-0.0959 I-0.005 J-0.0006
X0.505 Y1.058 Z-0.0965 I0.005 J0.0006
X0.495 Y1.0567 Z-0.097 I-0.005 J-0.0006
X0.505 Y1.058 Z-0.0976 I0.005 J0.0006
X0.495 Y1.0567 Z-0.0981 I-0.005 J-0.0006
X0.505 Y1.058 Z-0.0987 I0.005 J0.0006
X0.495 Y1.0567 Z-0.0992 I-0.005 J-0.0006
X0.505 Y1.058 Z-0.0997 I0.005 J0.0006
X0.5 Y1.0624 Z-0.1 I-0.005 J-0.0006
X0.4776 Y1.04 I0. J-0.0224 F30.
X0.5 Y1.0176 I0.0224 J0.
X0.5224 Y1.04 I0. J0.0224
X0.5 Y1.0624 I-0.0224 J0.
G2 X0.47 Y1.0782 I0. J0.0362
G3 X0.4361 Y1.077 I-0.0166 J-0.0113
X0.4262 Y1.04 I0.0639 J-0.037
X0.5738 I0.0738 J0.
X0.4361 Y1.077 I-0.0738 J0.
G1 X0.4355 Y1.0753
X0.4354 Y1.0734
X0.4358 Y1.0717
X0.4368 Y1.0701
X0.4383 Y1.069
X0.44 Y1.0683
X0.4694 Y1.0618
X0.4971 Y1.0517
G3 X0.505 Y1.058 I0.002 J0.0055
X0.495 Y1.0567 Z-0.1005 I-0.005 J-0.0006 F20.
X0.505 Y1.058 Z-0.1011 I0.005 J0.0006
X0.495 Y1.0567 Z-0.1016 I-0.005 J-0.0006
X0.505 Y1.058 Z-0.1022 I0.005 J0.0006
X0.495 Y1.0567 Z-0.1027 I-0.005 J-0.0006
X0.505 Y1.058 Z-0.1033 I0.005 J0.0006
X0.495 Y1.0567 Z-0.1038 I-0.005 J-0.0006
X0.505 Y1.058 Z-0.1044 I0.005 J0.0006
X0.495 Y1.0567 Z-0.1049 I-0.005 J-0.0006
X0.505 Y1.058 Z-0.1055 I0.005 J0.0006
X0.495 Y1.0567 Z-0.106 I-0.005 J-0.0006
X0.505 Y1.058 Z-0.1066 I0.005 J0.0006
X0.495 Y1.0567 Z-0.1071 I-0.005 J-0.0006
X0.505 Y1.058 Z-0.1077 I0.005 J0.0006
X0.495 Y1.0567 Z-0.1082 I-0.005 J-0.0006
X0.505 Y1.058 Z-0.1088 I0.005 J0.0006
X0.495 Y1.0567 Z-0.1093 I-0.005 J-0.0006
X0.505 Y1.058 Z-0.1099 I0.005 J0.0006
X0.495 Y1.0567 Z-0.1104 I-0.005 J-0.0006
X0.505 Y1.058 Z-0.111 I0.005 J0.0006
X0.495 Y1.0567 Z-0.1115 I-0.005 J-0.0006
X0.505 Y1.058 Z-0.1121 I0.005 J0.0006
X0.495 Y1.0567 Z-0.1126 I-0.005 J-0.0006
X0.505 Y1.058 Z-0.1132 I0.005 J0.0006
X0.495 Y1.0567 Z-0.1137 I-0.005 J-0.0006
X0.505 Y1.058 Z-0.1143 I0.005 J0.0006
X0.495 Y1.0567 Z-0.1148 I-0.005 J-0.0006
X0.505 Y1.058 Z-0.1154 I0.005 J0.0006
X0.495 Y1.0567 Z-0.1159 I-0.005 J-0.0006
X0.505 Y1.058 Z-0.1165 I0.005 J0.0006
X0.495 Y1.0567 Z-0.117 I-0.005 J-0.0006
X0.505 Y1.058 Z-0.1176 I0.005 J0.0006
X0.495 Y1.0567 Z-0.1181 I-0.005 J-0.0006
X0.505 Y1.058 Z-0.1187 I0.005 J0.0006
X0.495 Y1.0567 Z-0.1192 I-0.005 J-0.0006
X0.505 Y1.058 Z-0.1197 I0.005 J0.0006
X0.5 Y1.0624 Z-0.12 I-0.005 J-0.0006
X0.4776 Y1.04 I0. J-0.0224 F30.
X0.5 Y1.0176 I0.0224 J0.
X0.5224 Y1.04 I0. J0.0224
X0.5 Y1.0624 I-0.0224 J0.
G2 X0.47 Y1.0782 I0. J0.0362
G3 X0.4361 Y1.077 I-0.0166 J-0.0113
X0.4262 Y1.04 I0.0639 J-0.037
X0.5738 I0.0738 J0.
X0.4361 Y1.077 I-0.0738 J0.
G1 X0.4355 Y1.0753
X0.4354 Y1.0734
X0.4358 Y1.0717
X0.4368 Y1.0701
X0.4383 Y1.069
X0.44 Y1.0683
X0.4694 Y1.0618
X0.4971 Y1.0517
G3 X0.505 Y1.058 I0.002 J0.0055
X0.495 Y1.0567 Z-0.1205 I-0.005 J-0.0006 F20.
X0.505 Y1.058 Z-0.1211 I0.005 J0.0006
X0.495 Y1.0567 Z-0.1216 I-0.005 J-0.0006
X0.505 Y1.058 Z-0.1222 I0.005 J0.0006
X0.495 Y1.0567 Z-0.1227 I-0.005 J-0.0006
X0.505 Y1.058 Z-0.1233 I0.005 J0.0006
X0.495 Y1.0567 Z-0.1238 I-0.005 J-0.0006
X0.505 Y1.058 Z-0.1244 I0.005 J0.0006
X0.495 Y1.0567 Z-0.1249 I-0.005 J-0.0006
X0.505 Y1.058 Z-0.1255 I0.005 J0.0006
X0.495 Y1.0567 Z-0.126 I-0.005 J-0.0006
X0.505 Y1.058 Z-0.1266 I0.005 J0.0006
X0.495 Y1.0567 Z-0.1271 I-0.005 J-0.0006
X0.505 Y1.058 Z-0.1277 I0.005 J0.0006
X0.495 Y1.0567 Z-0.1282 I-0.005 J-0.0006
X0.505 Y1.058 Z-0.1288 I0.005 J0.0006
X0.495 Y1.0567 Z-0.1293 I-0.005 J-0.0006
X0.505 Y1.058 Z-0.1299 I0.005 J0.0006
X0.495 Y1.0567 Z-0.1304 I-0.005 J-0.0006
X0.505 Y1.058 Z-0.131 I0.005 J0.0006
X0.495 Y1.0567 Z-0.1315 I-0.005 J-0.0006
X0.505 Y1.058 Z-0.1321 I0.005 J0.0006
X0.495 Y1.0567 Z-0.1326 I-0.005 J-0.0006
X0.505 Y1.058 Z-0.1332 I0.005 J0.0006
X0.495 Y1.0567 Z-0.1337 I-0.005 J-0.0006
X0.505 Y1.058 Z-0.1343 I0.005 J0.0006
X0.495 Y1.0567 Z-0.1348 I-0.005 J-0.0006
X0.505 Y1.058 Z-0.1354 I0.005 J0.0006
X0.495 Y1.0567 Z-0.1359 I-0.005 J-0.0006
X0.505 Y1.058 Z-0.1365 I0.005 J0.0006
X0.495 Y1.0567 Z-0.137 I-0.005 J-0.0006
X0.505 Y1.058 Z-0.1376 I0.005 J0.0006
X0.495 Y1.0567 Z-0.1381 I-0.005 J-0.0006
X0.505 Y1.058 Z-0.1387 I0.005 J0.0006
X0.495 Y1.0567 Z-0.1392 I-0.005 J-0.0006
X0.505 Y1.058 Z-0.1397 I0.005 J0.0006
X0.5 Y1.0624 Z-0.14 I-0.005 J-0.0006
X0.4776 Y1.04 I0. J-0.0224 F30.
X0.5 Y1.0176 I0.0224 J0.
X0.5224 Y1.04 I0. J0.0224
X0.5 Y1.0624 I-0.0224 J0.
G2 X0.47 Y1.0782 I0. J0.0362
G3 X0.4361 Y1.077 I-0.0166 J-0.0113
X0.4262 Y1.04 I0.0639 J-0.037
X0.5738 I0.0738 J0.
X0.4361 Y1.077 I-0.0738 J0.
G1 X0.4355 Y1.0753
X0.4354 Y1.0734
X0.4358 Y1.0717
X0.4368 Y1.0701
X0.4383 Y1.069
X0.44 Y1.0683
X0.4694 Y1.0618
X0.4971 Y1.0517
G3 X0.505 Y1.058 I0.002 J0.0055
X0.495 Y1.0567 Z-0.1405 I-0.005 J-0.0006 F20.
X0.505 Y1.058 Z-0.1411 I0.005 J0.0006
X0.495 Y1.0567 Z-0.1416 I-0.005 J-0.0006
X0.505 Y1.058 Z-0.1422 I0.005 J0.0006
X0.495 Y1.0567 Z-0.1427 I-0.005 J-0.0006
X0.505 Y1.058 Z-0.1433 I0.005 J0.0006
X0.495 Y1.0567 Z-0.1438 I-0.005 J-0.0006
X0.505 Y1.058 Z-0.1444 I0.005 J0.0006
X0.495 Y1.0567 Z-0.1449 I-0.005 J-0.0006
X0.505 Y1.058 Z-0.1455 I0.005 J0.0006
X0.495 Y1.0567 Z-0.146 I-0.005 J-0.0006
X0.505 Y1.058 Z-0.1466 I0.005 J0.0006
X0.495 Y1.0567 Z-0.1471 I-0.005 J-0.0006
X0.505 Y1.058 Z-0.1477 I0.005 J0.0006
X0.495 Y1.0567 Z-0.1482 I-0.005 J-0.0006
X0.505 Y1.058 Z-0.1488 I0.005 J0.0006
X0.495 Y1.0567 Z-0.1493 I-0.005 J-0.0006
X0.505 Y1.058 Z-0.1499 I0.005 J0.0006
X0.495 Y1.0567 Z-0.1504 I-0.005 J-0.0006
X0.505 Y1.058 Z-0.151 I0.005 J0.0006
X0.495 Y1.0567 Z-0.1515 I-0.005 J-0.0006
X0.505 Y1.058 Z-0.1521 I0.005 J0.0006
X0.495 Y1.0567 Z-0.1526 I-0.005 J-0.0006
X0.505 Y1.058 Z-0.1532 I0.005 J0.0006
X0.495 Y1.0567 Z-0.1537 I-0.005 J-0.0006
X0.505 Y1.058 Z-0.1543 I0.005 J0.0006
X0.495 Y1.0567 Z-0.1548 I-0.005 J-0.0006
X0.505 Y1.058 Z-0.1554 I0.005 J0.0006
X0.495 Y1.0567 Z-0.1559 I-0.005 J-0.0006
X0.505 Y1.058 Z-0.1565 I0.005 J0.0006
X0.495 Y1.0567 Z-0.157 I-0.005 J-0.0006
X0.505 Y1.058 Z-0.1576 I0.005 J0.0006
X0.495 Y1.0567 Z-0.1581 I-0.005 J-0.0006
X0.505 Y1.058 Z-0.1587 I0.005 J0.0006
X0.495 Y1.0567 Z-0.1592 I-0.005 J-0.0006
X0.505 Y1.058 Z-0.1597 I0.005 J0.0006
X0.5 Y1.0624 Z-0.16 I-0.005 J-0.0006
X0.4776 Y1.04 I0. J-0.0224 F30.
X0.5 Y1.0176 I0.0224 J0.
X0.5224 Y1.04 I0. J0.0224
X0.5 Y1.0624 I-0.0224 J0.
G2 X0.47 Y1.0782 I0. J0.0362
G3 X0.4361 Y1.077 I-0.0166 J-0.0113
X0.4262 Y1.04 I0.0639 J-0.037
X0.5738 I0.0738 J0.
X0.4361 Y1.077 I-0.0738 J0.
G1 X0.4355 Y1.0753
X0.4354 Y1.0734
X0.4358 Y1.0717
X0.4368 Y1.0701
X0.4383 Y1.069
X0.44 Y1.0683
X0.4694 Y1.0618
X0.4971 Y1.0517
G3 X0.505 Y1.058 I0.002 J0.0055
X0.495 Y1.0567 Z-0.1605 I-0.005 J-0.0006 F20.
X0.505 Y1.058 Z-0.1611 I0.005 J0.0006
X0.495 Y1.0567 Z-0.1616 I-0.005 J-0.0006
X0.505 Y1.058 Z-0.1622 I0.005 J0.0006
X0.495 Y1.0567 Z-0.1627 I-0.005 J-0.0006
X0.505 Y1.058 Z-0.1633 I0.005 J0.0006
X0.495 Y1.0567 Z-0.1638 I-0.005 J-0.0006
X0.505 Y1.058 Z-0.1644 I0.005 J0.0006
X0.495 Y1.0567 Z-0.1649 I-0.005 J-0.0006
X0.505 Y1.058 Z-0.1655 I0.005 J0.0006
X0.495 Y1.0567 Z-0.166 I-0.005 J-0.0006
X0.505 Y1.058 Z-0.1666 I0.005 J0.0006
X0.495 Y1.0567 Z-0.1671 I-0.005 J-0.0006
X0.505 Y1.058 Z-0.1677 I0.005 J0.0006
X0.495 Y1.0567 Z-0.1682 I-0.005 J-0.0006
X0.505 Y1.058 Z-0.1688 I0.005 J0.0006
X0.495 Y1.0567 Z-0.1693 I-0.005 J-0.0006
X0.505 Y1.058 Z-0.1699 I0.005 J0.0006
X0.495 Y1.0567 Z-0.1704 I-0.005 J-0.0006
X0.505 Y1.058 Z-0.171 I0.005 J0.0006
X0.495 Y1.0567 Z-0.1715 I-0.005 J-0.0006
X0.505 Y1.058 Z-0.1721 I0.005 J0.0006
X0.495 Y1.0567 Z-0.1726 I-0.005 J-0.0006
X0.505 Y1.058 Z-0.1732 I0.005 J0.0006
X0.495 Y1.0567 Z-0.1737 I-0.005 J-0.0006
X0.505 Y1.058 Z-0.1743 I0.005 J0.0006
X0.495 Y1.0567 Z-0.1748 I-0.005 J-0.0006
X0.505 Y1.058 Z-0.1754 I0.005 J0.0006
X0.495 Y1.0567 Z-0.1759 I-0.005 J-0.0006
X0.505 Y1.058 Z-0.1765 I0.005 J0.0006
X0.495 Y1.0567 Z-0.177 I-0.005 J-0.0006
X0.505 Y1.058 Z-0.1776 I0.005 J0.0006
X0.495 Y1.0567 Z-0.1781 I-0.005 J-0.0006
X0.505 Y1.058 Z-0.1787 I0.005 J0.0006
X0.495 Y1.0567 Z-0.1792 I-0.005 J-0.0006
X0.505 Y1.058 Z-0.1797 I0.005 J0.0006
X0.5 Y1.0624 Z-0.18 I-0.005 J-0.0006
X0.4776 Y1.04 I0. J-0.0224 F30.
X0.5 Y1.0176 I0.0224 J0.
X0.5224 Y1.04 I0. J0.0224
X0.5 Y1.0624 I-0.0224 J0.
G2 X0.47 Y1.0782 I0. J0.0362
G3 X0.4361 Y1.077 I-0.0166 J-0.0113
X0.4262 Y1.04 I0.0639 J-0.037
X0.5738 I0.0738 J0.
X0.4361 Y1.077 I-0.0738 J0.
G1 X0.4355 Y1.0753
X0.4354 Y1.0734
X0.4358 Y1.0717
X0.4368 Y1.0701
X0.4383 Y1.069
X0.44 Y1.0683
X0.4694 Y1.0618
X0.4971 Y1.0517
G3 X0.505 Y1.058 I0.002 J0.0055
X0.495 Y1.0567 Z-0.1805 I-0.005 J-0.0006 F20.
X0.505 Y1.058 Z-0.1811 I0.005 J0.0006
X0.495 Y1.0567 Z-0.1816 I-0.005 J-0.0006
X0.505 Y1.058 Z-0.1822 I0.005 J0.0006
X0.495 Y1.0567 Z-0.1827 I-0.005 J-0.0006
X0.505 Y1.058 Z-0.1833 I0.005 J0.0006
X0.495 Y1.0567 Z-0.1838 I-0.005 J-0.0006
X0.505 Y1.058 Z-0.1844 I0.005 J0.0006
X0.495 Y1.0567 Z-0.1849 I-0.005 J-0.0006
X0.505 Y1.058 Z-0.1855 I0.005 J0.0006
X0.495 Y1.0567 Z-0.186 I-0.005 J-0.0006
X0.505 Y1.058 Z-0.1866 I0.005 J0.0006
X0.495 Y1.0567 Z-0.1871 I-0.005 J-0.0006
X0.505 Y1.058 Z-0.1877 I0.005 J0.0006
X0.495 Y1.0567 Z-0.1882 I-0.005 J-0.0006
X0.505 Y1.058 Z-0.1888 I0.005 J0.0006
X0.495 Y1.0567 Z-0.1893 I-0.005 J-0.0006
X0.505 Y1.058 Z-0.1899 I0.005 J0.0006
X0.495 Y1.0567 Z-0.1904 I-0.005 J-0.0006
X0.505 Y1.058 Z-0.191 I0.005 J0.0006
X0.495 Y1.0567 Z-0.1915 I-0.005 J-0.0006
X0.505 Y1.058 Z-0.1921 I0.005 J0.0006
X0.495 Y1.0567 Z-0.1926 I-0.005 J-0.0006
X0.505 Y1.058 Z-0.1932 I0.005 J0.0006
X0.495 Y1.0567 Z-0.1937 I-0.005 J-0.0006
X0.505 Y1.058 Z-0.1943 I0.005 J0.0006
X0.495 Y1.0567 Z-0.1948 I-0.005 J-0.0006
X0.505 Y1.058 Z-0.1954 I0.005 J0.0006
X0.495 Y1.0567 Z-0.1959 I-0.005 J-0.0006
X0.505 Y1.058 Z-0.1965 I0.005 J0.0006
X0.495 Y1.0567 Z-0.197 I-0.005 J-0.0006
X0.505 Y1.058 Z-0.1976 I0.005 J0.0006
X0.495 Y1.0567 Z-0.1981 I-0.005 J-0.0006
X0.505 Y1.058 Z-0.1987 I0.005 J0.0006
X0.495 Y1.0567 Z-0.1992 I-0.005 J-0.0006
X0.505 Y1.058 Z-0.1997 I0.005 J0.0006
X0.5 Y1.0624 Z-0.2 I-0.005 J-0.0006
X0.4776 Y1.04 I0. J-0.0224 F30.
X0.5 Y1.0176 I0.0224 J0.
X0.5224 Y1.04 I0. J0.0224
X0.5 Y1.0624 I-0.0224 J0.
G2 X0.47 Y1.0782 I0. J0.0362
G3 X0.4361 Y1.077 I-0.0166 J-0.0113
X0.4262 Y1.04 I0.0639 J-0.037
X0.5738 I0.0738 J0.
X0.4361 Y1.077 I-0.0738 J0.
G1 X0.4355 Y1.0753
X0.4354 Y1.0734
X0.4358 Y1.0717
X0.4368 Y1.0701
X0.4383 Y1.069
X0.44 Y1.0683
X0.4694 Y1.0618
X0.4971 Y1.0517
G3 X0.505 Y1.058 I0.002 J0.0055
X0.495 Y1.0567 Z-0.2005 I-0.005 J-0.0006 F20.
X0.505 Y1.058 Z-0.2011 I0.005 J0.0006
X0.495 Y1.0567 Z-0.2016 I-0.005 J-0.0006
X0.505 Y1.058 Z-0.2022 I0.005 J0.0006
X0.495 Y1.0567 Z-0.2027 I-0.005 J-0.0006
X0.505 Y1.058 Z-0.2033 I0.005 J0.0006
X0.495 Y1.0567 Z-0.2038 I-0.005 J-0.0006
X0.505 Y1.058 Z-0.2044 I0.005 J0.0006
X0.495 Y1.0567 Z-0.2049 I-0.005 J-0.0006
X0.505 Y1.058 Z-0.2055 I0.005 J0.0006
X0.495 Y1.0567 Z-0.206 I-0.005 J-0.0006
X0.505 Y1.058 Z-0.2066 I0.005 J0.0006
X0.495 Y1.0567 Z-0.2071 I-0.005 J-0.0006
X0.505 Y1.058 Z-0.2077 I0.005 J0.0006
X0.495 Y1.0567 Z-0.2082 I-0.005 J-0.0006
X0.505 Y1.058 Z-0.2088 I0.005 J0.0006
X0.495 Y1.0567 Z-0.2093 I-0.005 J-0.0006
X0.505 Y1.058 Z-0.2099 I0.005 J0.0006
X0.495 Y1.0567 Z-0.2104 I-0.005 J-0.0006
X0.505 Y1.058 Z-0.211 I0.005 J0.0006
X0.495 Y1.0567 Z-0.2115 I-0.005 J-0.0006
X0.505 Y1.058 Z-0.2121 I0.005 J0.0006
X0.495 Y1.0567 Z-0.2126 I-0.005 J-0.0006
X0.505 Y1.058 Z-0.2132 I0.005 J0.0006
X0.495 Y1.0567 Z-0.2137 I-0.005 J-0.0006
X0.505 Y1.058 Z-0.2143 I0.005 J0.0006
X0.495 Y1.0567 Z-0.2148 I-0.005 J-0.0006
X0.505 Y1.058 Z-0.2154 I0.005 J0.0006
X0.495 Y1.0567 Z-0.2159 I-0.005 J-0.0006
X0.505 Y1.058 Z-0.2165 I0.005 J0.0006
X0.495 Y1.0567 Z-0.217 I-0.005 J-0.0006
X0.505 Y1.058 Z-0.2176 I0.005 J0.0006
X0.495 Y1.0567 Z-0.2181 I-0.005 J-0.0006
X0.505 Y1.058 Z-0.2187 I0.005 J0.0006
X0.495 Y1.0567 Z-0.2192 I-0.005 J-0.0006
X0.505 Y1.058 Z-0.2197 I0.005 J0.0006
X0.5 Y1.0624 Z-0.22 I-0.005 J-0.0006
X0.4776 Y1.04 I0. J-0.0224 F30.
X0.5 Y1.0176 I0.0224 J0.
X0.5224 Y1.04 I0. J0.0224
X0.5 Y1.0624 I-0.0224 J0.
G2 X0.47 Y1.0782 I0. J0.0362
G3 X0.4361 Y1.077 I-0.0166 J-0.0113
X0.4262 Y1.04 I0.0639 J-0.037
X0.5738 I0.0738 J0.
X0.4361 Y1.077 I-0.0738 J0.
G1 X0.4352 Y1.075 Z-0.2196
X0.4347 Y1.0728 Z-0.2191
X0.4345 Y1.0709 Z-0.2178
X0.4347 Y1.069 Z-0.2165
X0.4355 Y1.0665 Z-0.2127
X0.4358 Y1.0657 Z-0.2082
G0 Z0.2
X0.495 Y0.5572
G1 Z0.1118 F30.
X0.4951 Y0.5564 Z0.1075 F20.
X0.4954 Y0.5553 Z0.1057
X0.496 Y0.5544 Z0.1039
X0.4969 Y0.5535 Z0.1029
X0.4979 Y0.5528 Z0.102
X0.4991 Y0.5524 Z0.1011
X0.5007 Z0.1007
X0.5021 Y0.5528 Z0.1004
X0.5034 Y0.5537 Z0.1
G3 X0.4966 Y0.5611 Z0.0995 I-0.0034 J0.0037
X0.5034 Y0.5537 Z0.0989 I0.0034 J-0.0037
X0.4966 Y0.5611 Z0.0984 I-0.0034 J0.0037
X0.5034 Y0.5537 Z0.0978 I0.0034 J-0.0037
X0.4966 Y0.5611 Z0.0973 I-0.0034 J0.0037
X0.5034 Y0.5537 Z0.0967 I0.0034 J-0.0037
X0.4966 Y0.5611 Z0.0962 I-0.0034 J0.0037
X0.5034 Y0.5537 Z0.0956 I0.0034 J-0.0037
X0.4966 Y0.5611 Z0.0951 I-0.0034 J0.0037
X0.5034 Y0.5537 Z0.0945 I0.0034 J-0.0037
X0.4966 Y0.5611 Z0.094 I-0.0034 J0.0037
X0.5034 Y0.5537 Z0.0934 I0.0034 J-0.0037
X0.4966 Y0.5611 Z0.0929 I-0.0034 J0.0037
X0.5034 Y0.5537 Z0.0923 I0.0034 J-0.0037
X0.4966 Y0.5611 Z0.0918 I-0.0034 J0.0037
X0.5034 Y0.5537 Z0.0912 I0.0034 J-0.0037
X0.4966 Y0.5611 Z0.0907 I-0.0034 J0.0037
X0.5034 Y0.5537 Z0.0901 I0.0034 J-0.0037
X0.4966 Y0.5611 Z0.0896 I-0.0034 J0.0037
X0.5034 Y0.5537 Z0.089 I0.0034 J-0.0037
X0.4966 Y0.5611 Z0.0885 I-0.0034 J0.0037
X0.5034 Y0.5537 Z0.0879 I0.0034 J-0.0037
X0.4966 Y0.5611 Z0.0874 I-0.0034 J0.0037
X0.5034 Y0.5537 Z0.0868 I0.0034 J-0.0037
X0.4966 Y0.5611 Z0.0863 I-0.0034 J0.0037
X0.5034 Y0.5537 Z0.0857 I0.0034 J-0.0037
X0.4966 Y0.5611 Z0.0852 I-0.0034 J0.0037
X0.5034 Y0.5537 Z0.0846 I0.0034 J-0.0037
X0.4966 Y0.5611 Z0.0841 I-0.0034 J0.0037
X0.5034 Y0.5537 Z0.0835 I0.0034 J-0.0037
X0.4966 Y0.5611 Z0.083 I-0.0034 J0.0037
X0.5034 Y0.5537 Z0.0824 I0.0034 J-0.0037
X0.4966 Y0.5611 Z0.0819 I-0.0034 J0.0037
X0.5034 Y0.5537 Z0.0813 I0.0034 J-0.0037
X0.4966 Y0.5611 Z0.0808 I-0.0034 J0.0037
X0.5034 Y0.5537 Z0.0803 I0.0034 J-0.0037
X0.4966 Y0.5611 Z0.0797 I-0.0034 J0.0037
X0.5034 Y0.5537 Z0.0792 I0.0034 J-0.0037
X0.4966 Y0.5611 Z0.0786 I-0.0034 J0.0037
X0.5034 Y0.5537 Z0.0781 I0.0034 J-0.0037
X0.4966 Y0.5611 Z0.0775 I-0.0034 J0.0037
X0.5034 Y0.5537 Z0.077 I0.0034 J-0.0037
X0.4966 Y0.5611 Z0.0764 I-0.0034 J0.0037
X0.5034 Y0.5537 Z0.0759 I0.0034 J-0.0037
X0.4966 Y0.5611 Z0.0753 I-0.0034 J0.0037
X0.5034 Y0.5537 Z0.0748 I0.0034 J-0.0037
X0.4966 Y0.5611 Z0.0742 I-0.0034 J0.0037
X0.5034 Y0.5537 Z0.0737 I0.0034 J-0.0037
X0.4966 Y0.5611 Z0.0731 I-0.0034 J0.0037
X0.5034 Y0.5537 Z0.0726 I0.0034 J-0.0037
X0.4966 Y0.5611 Z0.072 I-0.0034 J0.0037
X0.5034 Y0.5537 Z0.0715 I0.0034 J-0.0037
X0.4966 Y0.5611 Z0.0709 I-0.0034 J0.0037
X0.5034 Y0.5537 Z0.0704 I0.0034 J-0.0037
X0.4966 Y0.5611 Z0.0698 I-0.0034 J0.0037
X0.5034 Y0.5537 Z0.0693 I0.0034 J-0.0037
X0.4966 Y0.5611 Z0.0687 I-0.0034 J0.0037
X0.5034 Y0.5537 Z0.0682 I0.0034 J-0.0037
X0.4966 Y0.5611 Z0.0676 I-0.0034 J0.0037
X0.5034 Y0.5537 Z0.0671 I0.0034 J-0.0037
X0.4966 Y0.5611 Z0.0665 I-0.0034 J0.0037
X0.5034 Y0.5537 Z0.066 I0.0034 J-0.0037
X0.4966 Y0.5611 Z0.0654 I-0.0034 J0.0037
X0.5034 Y0.5537 Z0.0649 I0.0034 J-0.0037
X0.4966 Y0.5611 Z0.0643 I-0.0034 J0.0037
X0.5034 Y0.5537 Z0.0638 I0.0034 J-0.0037
X0.4966 Y0.5611 Z0.0632 I-0.0034 J0.0037
X0.5034 Y0.5537 Z0.0627 I0.0034 J-0.0037
X0.4966 Y0.5611 Z0.0622 I-0.0034 J0.0037
X0.5034 Y0.5537 Z0.0616 I0.0034 J-0.0037
X0.4966 Y0.5611 Z0.0611 I-0.0034 J0.0037
X0.5034 Y0.5537 Z0.0605 I0.0034 J-0.0037
X0.4966 Y0.5611 Z0.06 I-0.0034 J0.0037
X0.5034 Y0.5537 Z0.0594 I0.0034 J-0.0037
X0.4966 Y0.5611 Z0.0589 I-0.0034 J0.0037
X0.5034 Y0.5537 Z0.0583 I0.0034 J-0.0037
X0.4966 Y0.5611 Z0.0578 I-0.0034 J0.0037
X0.5034 Y0.5537 Z0.0572 I0.0034 J-0.0037
X0.4966 Y0.5611 Z0.0567 I-0.0034 J0.0037
X0.5034 Y0.5537 Z0.0561 I0.0034 J-0.0037
X0.4966 Y0.5611 Z0.0556 I-0.0034 J0.0037
X0.5034 Y0.5537 Z0.055 I0.0034 J-0.0037
X0.4966 Y0.5611 Z0.0545 I-0.0034 J0.0037
X0.5034 Y0.5537 Z0.0539 I0.0034 J-0.0037
X0.4966 Y0.5611 Z0.0534 I-0.0034 J0.0037
X0.5034 Y0.5537 Z0.0528 I0.0034 J-0.0037
X0.4966 Y0.5611 Z0.0523 I-0.0034 J0.0037
X0.5034 Y0.5537 Z0.0517 I0.0034 J-0.0037
X0.4966 Y0.5611 Z0.0512 I-0.0034 J0.0037
X0.5034 Y0.5537 Z0.0506 I0.0034 J-0.0037
X0.4966 Y0.5611 Z0.0501 I-0.0034 J0.0037
X0.5034 Y0.5537 Z0.0495 I0.0034 J-0.0037
X0.4966 Y0.5611 Z0.049 I-0.0034 J0.0037
X0.5034 Y0.5537 Z0.0484 I0.0034 J-0.0037
X0.4966 Y0.5611 Z0.0479 I-0.0034 J0.0037
X0.5034 Y0.5537 Z0.0473 I0.0034 J-0.0037
X0.4966 Y0.5611 Z0.0468 I-0.0034 J0.0037
X0.5034 Y0.5537 Z0.0462 I0.0034 J-0.0037
X0.4966 Y0.5611 Z0.0457 I-0.0034 J0.0037
X0.5034 Y0.5537 Z0.0451 I0.0034 J-0.0037
X0.4966 Y0.5611 Z0.0446 I-0.0034 J0.0037
X0.5034 Y0.5537 Z0.044 I0.0034 J-0.0037
X0.4966 Y0.5611 Z0.0435 I-0.0034 J0.0037
X0.5034 Y0.5537 Z0.043 I0.0034 J-0.0037
X0.4966 Y0.5611 Z0.0424 I-0.0034 J0.0037
X0.5034 Y0.5537 Z0.0419 I0.0034 J-0.0037
X0.4966 Y0.5611 Z0.0413 I-0.0034 J0.0037
X0.5034 Y0.5537 Z0.0408 I0.0034 J-0.0037
X0.4966 Y0.5611 Z0.0402 I-0.0034 J0.0037
X0.5034 Y0.5537 Z0.0397 I0.0034 J-0.0037
X0.4966 Y0.5611 Z0.0391 I-0.0034 J0.0037
X0.5034 Y0.5537 Z0.0386 I0.0034 J-0.0037
X0.4966 Y0.5611 Z0.038 I-0.0034 J0.0037
X0.5034 Y0.5537 Z0.0375 I0.0034 J-0.0037
X0.4966 Y0.5611 Z0.0369 I-0.0034 J0.0037
X0.5034 Y0.5537 Z0.0364 I0.0034 J-0.0037
X0.4966 Y0.5611 Z0.0358 I-0.0034 J0.0037
X0.5034 Y0.5537 Z0.0353 I0.0034 J-0.0037
X0.4966 Y0.5611 Z0.0347 I-0.0034 J0.0037
X0.5034 Y0.5537 Z0.0342 I0.0034 J-0.0037
X0.4966 Y0.5611 Z0.0336 I-0.0034 J0.0037
X0.5034 Y0.5537 Z0.0331 I0.0034 J-0.0037
X0.4966 Y0.5611 Z0.0325 I-0.0034 J0.0037
X0.5034 Y0.5537 Z0.032 I0.0034 J-0.0037
X0.4966 Y0.5611 Z0.0314 I-0.0034 J0.0037
X0.5034 Y0.5537 Z0.0309 I0.0034 J-0.0037
X0.4966 Y0.5611 Z0.0303 I-0.0034 J0.0037
X0.5034 Y0.5537 Z0.0298 I0.0034 J-0.0037
X0.4966 Y0.5611 Z0.0292 I-0.0034 J0.0037
X0.5034 Y0.5537 Z0.0287 I0.0034 J-0.0037
X0.4966 Y0.5611 Z0.0281 I-0.0034 J0.0037
X0.5034 Y0.5537 Z0.0276 I0.0034 J-0.0037
X0.4966 Y0.5611 Z0.027 I-0.0034 J0.0037
X0.5034 Y0.5537 Z0.0265 I0.0034 J-0.0037
X0.4966 Y0.5611 Z0.0259 I-0.0034 J0.0037
X0.5034 Y0.5537 Z0.0254 I0.0034 J-0.0037
X0.4966 Y0.5611 Z0.0249 I-0.0034 J0.0037
X0.5034 Y0.5537 Z0.0243 I0.0034 J-0.0037
X0.4966 Y0.5611 Z0.0238 I-0.0034 J0.0037
X0.5034 Y0.5537 Z0.0232 I0.0034 J-0.0037
X0.4966 Y0.5611 Z0.0227 I-0.0034 J0.0037
X0.5034 Y0.5537 Z0.0221 I0.0034 J-0.0037
X0.4966 Y0.5611 Z0.0216 I-0.0034 J0.0037
X0.5034 Y0.5537 Z0.021 I0.0034 J-0.0037
X0.4966 Y0.5611 Z0.0205 I-0.0034 J0.0037
X0.5034 Y0.5537 Z0.0199 I0.0034 J-0.0037
X0.4966 Y0.5611 Z0.0194 I-0.0034 J0.0037
X0.5034 Y0.5537 Z0.0188 I0.0034 J-0.0037
X0.4966 Y0.5611 Z0.0183 I-0.0034 J0.0037
X0.5034 Y0.5537 Z0.0177 I0.0034 J-0.0037
X0.4966 Y0.5611 Z0.0172 I-0.0034 J0.0037
X0.5034 Y0.5537 Z0.0166 I0.0034 J-0.0037
X0.4966 Y0.5611 Z0.0161 I-0.0034 J0.0037
X0.5034 Y0.5537 Z0.0155 I0.0034 J-0.0037
X0.4966 Y0.5611 Z0.015 I-0.0034 J0.0037
X0.5034 Y0.5537 Z0.0144 I0.0034 J-0.0037
X0.4966 Y0.5611 Z0.0139 I-0.0034 J0.0037
X0.5034 Y0.5537 Z0.0133 I0.0034 J-0.0037
X0.4966 Y0.5611 Z0.0128 I-0.0034 J0.0037
X0.5034 Y0.5537 Z0.0122 I0.0034 J-0.0037
X0.4966 Y0.5611 Z0.0117 I-0.0034 J0.0037
X0.5034 Y0.5537 Z0.0111 I0.0034 J-0.0037
X0.4966 Y0.5611 Z0.0106 I-0.0034 J0.0037
X0.5034 Y0.5537 Z0.01 I0.0034 J-0.0037
X0.4966 Y0.5611 Z0.0095 I-0.0034 J0.0037
X0.5034 Y0.5537 Z0.0089 I0.0034 J-0.0037
X0.4966 Y0.5611 Z0.0084 I-0.0034 J0.0037
X0.5034 Y0.5537 Z0.0078 I0.0034 J-0.0037
X0.4966 Y0.5611 Z0.0073 I-0.0034 J0.0037
X0.5034 Y0.5537 Z0.0067 I0.0034 J-0.0037
X0.4966 Y0.5611 Z0.0062 I-0.0034 J0.0037
X0.5034 Y0.5537 Z0.0057 I0.0034 J-0.0037
X0.4966 Y0.5611 Z0.0051 I-0.0034 J0.0037
X0.5034 Y0.5537 Z0.0046 I0.0034 J-0.0037
X0.4966 Y0.5611 Z0.004 I-0.0034 J0.0037
X0.5034 Y0.5537 Z0.0035 I0.0034 J-0.0037
X0.4966 Y0.5611 Z0.0029 I-0.0034 J0.0037
X0.5034 Y0.5537 Z0.0024 I0.0034 J-0.0037
X0.4966 Y0.5611 Z0.0018 I-0.0034 J0.0037
X0.5034 Y0.5537 Z0.0013 I0.0034 J-0.0037
X0.4966 Y0.5611 Z0.0007 I-0.0034 J0.0037
X0.5034 Y0.5537 Z0.0002 I0.0034 J-0.0037
X0.4966 Y0.5611 Z-0.0004 I-0.0034 J0.0037
X0.5034 Y0.5537 Z-0.0009 I0.0034 J-0.0037
X0.4966 Y0.5611 Z-0.0015 I-0.0034 J0.0037
X0.5034 Y0.5537 Z-0.002 I0.0034 J-0.0037
X0.4966 Y0.5611 Z-0.0026 I-0.0034 J0.0037
X0.5034 Y0.5537 Z-0.0031 I0.0034 J-0.0037
X0.4966 Y0.5611 Z-0.0037 I-0.0034 J0.0037
X0.5034 Y0.5537 Z-0.0042 I0.0034 J-0.0037
X0.4966 Y0.5611 Z-0.0048 I-0.0034 J0.0037
X0.5034 Y0.5537 Z-0.0053 I0.0034 J-0.0037
X0.4966 Y0.5611 Z-0.0059 I-0.0034 J0.0037
X0.5034 Y0.5537 Z-0.0064 I0.0034 J-0.0037
X0.4966 Y0.5611 Z-0.007 I-0.0034 J0.0037
X0.5034 Y0.5537 Z-0.0075 I0.0034 J-0.0037
X0.4966 Y0.5611 Z-0.0081 I-0.0034 J0.0037
X0.5034 Y0.5537 Z-0.0086 I0.0034 J-0.0037
X0.4966 Y0.5611 Z-0.0092 I-0.0034 J0.0037
X0.5034 Y0.5537 Z-0.0097 I0.0034 J-0.0037
X0.4966 Y0.5611 Z-0.0103 I-0.0034 J0.0037
X0.5034 Y0.5537 Z-0.0108 I0.0034 J-0.0037
X0.4966 Y0.5611 Z-0.0114 I-0.0034 J0.0037
X0.5034 Y0.5537 Z-0.0119 I0.0034 J-0.0037
X0.4966 Y0.5611 Z-0.0124 I-0.0034 J0.0037
X0.5034 Y0.5537 Z-0.013 I0.0034 J-0.0037
X0.4966 Y0.5611 Z-0.0135 I-0.0034 J0.0037
X0.5034 Y0.5537 Z-0.0141 I0.0034 J-0.0037
X0.4966 Y0.5611 Z-0.0146 I-0.0034 J0.0037
X0.5034 Y0.5537 Z-0.0152 I0.0034 J-0.0037
X0.4966 Y0.5611 Z-0.0157 I-0.0034 J0.0037
X0.5034 Y0.5537 Z-0.0163 I0.0034 J-0.0037
X0.4966 Y0.5611 Z-0.0168 I-0.0034 J0.0037
X0.5034 Y0.5537 Z-0.0174 I0.0034 J-0.0037
X0.4966 Y0.5611 Z-0.0179 I-0.0034 J0.0037
X0.5034 Y0.5537 Z-0.0185 I0.0034 J-0.0037
X0.4966 Y0.5611 Z-0.019 I-0.0034 J0.0037
X0.5034 Y0.5537 Z-0.0196 I0.0034 J-0.0037
X0.5 Y0.5624 Z-0.02 I-0.0034 J0.0037
X0.4776 Y0.54 I0. J-0.0224 F30.
X0.5 Y0.5176 I0.0224 J0.
Y0.5624 I0. J0.0224
G2 X0.47 Y0.5782 I0. J0.0362
G3 X0.4361 Y0.577 I-0.0166 J-0.0113
X0.4262 Y0.54 I0.0639 J-0.037
X0.5738 I0.0738 J0.
X0.4361 Y0.577 I-0.0738 J0.
G1 X0.4355 Y0.5753
X0.4354 Y0.5735
X0.4358 Y0.5717
X0.4368 Y0.5701
X0.4383 Y0.569
X0.44 Y0.5683
X0.4694 Y0.5618
X0.4971 Y0.5517
G3 X0.505 Y0.558 I0.002 J0.0055
X0.495 Y0.5567 Z-0.0205 I-0.005 J-0.0006 F20.
X0.505 Y0.558 Z-0.0211 I0.005 J0.0006
X0.495 Y0.5567 Z-0.0216 I-0.005 J-0.0006
X0.505 Y0.558 Z-0.0222 I0.005 J0.0006
X0.495 Y0.5567 Z-0.0227 I-0.005 J-0.0006
X0.505 Y0.558 Z-0.0233 I0.005 J0.0006
X0.495 Y0.5567 Z-0.0238 I-0.005 J-0.0006
X0.505 Y0.558 Z-0.0244 I0.005 J0.0006
X0.495 Y0.5567 Z-0.0249 I-0.005 J-0.0006
X0.505 Y0.558 Z-0.0255 I0.005 J0.0006
X0.495 Y0.5567 Z-0.026 I-0.005 J-0.0006
X0.505 Y0.558 Z-0.0266 I0.005 J0.0006
X0.495 Y0.5567 Z-0.0271 I-0.005 J-0.0006
X0.505 Y0.558 Z-0.0277 I0.005 J0.0006
X0.495 Y0.5567 Z-0.0282 I-0.005 J-0.0006
X0.505 Y0.558 Z-0.0288 I0.005 J0.0006
X0.495 Y0.5567 Z-0.0293 I-0.005 J-0.0006
X0.505 Y0.558 Z-0.0299 I0.005 J0.0006
X0.495 Y0.5567 Z-0.0304 I-0.005 J-0.0006
X0.505 Y0.558 Z-0.031 I0.005 J0.0006
X0.495 Y0.5567 Z-0.0315 I-0.005 J-0.0006
X0.505 Y0.558 Z-0.0321 I0.005 J0.0006
X0.495 Y0.5567 Z-0.0326 I-0.005 J-0.0006
X0.505 Y0.558 Z-0.0332 I0.005 J0.0006
X0.495 Y0.5567 Z-0.0337 I-0.005 J-0.0006
X0.505 Y0.558 Z-0.0343 I0.005 J0.0006
X0.495 Y0.5567 Z-0.0348 I-0.005 J-0.0006
X0.505 Y0.558 Z-0.0354 I0.005 J0.0006
X0.495 Y0.5567 Z-0.0359 I-0.005 J-0.0006
X0.505 Y0.558 Z-0.0365 I0.005 J0.0006
X0.495 Y0.5567 Z-0.037 I-0.005 J-0.0006
X0.505 Y0.558 Z-0.0376 I0.005 J0.0006
X0.495 Y0.5567 Z-0.0381 I-0.005 J-0.0006
X0.505 Y0.558 Z-0.0387 I0.005 J0.0006
X0.495 Y0.5567 Z-0.0392 I-0.005 J-0.0006
X0.505 Y0.558 Z-0.0397 I0.005 J0.0006
X0.5 Y0.5624 Z-0.04 I-0.005 J-0.0006
X0.4776 Y0.54 I0. J-0.0224 F30.
X0.5 Y0.5176 I0.0224 J0.
Y0.5624 I0. J0.0224
G2 X0.47 Y0.5782 I0. J0.0362
G3 X0.4361 Y0.577 I-0.0166 J-0.0113
X0.4262 Y0.54 I0.0639 J-0.037
X0.5738 I0.0738 J0.
X0.4361 Y0.577 I-0.0738 J0.
G1 X0.4355 Y0.5753
X0.4354 Y0.5735
X0.4358 Y0.5717
X0.4368 Y0.5701
X0.4383 Y0.569
X0.44 Y0.5683
X0.4694 Y0.5618
X0.4971 Y0.5517
G3 X0.505 Y0.558 I0.002 J0.0055
X0.495 Y0.5567 Z-0.0405 I-0.005 J-0.0006 F20.
X0.505 Y0.558 Z-0.0411 I0.005 J0.0006
X0.495 Y0.5567 Z-0.0416 I-0.005 J-0.0006
X0.505 Y0.558 Z-0.0422 I0.005 J0.0006
X0.495 Y0.5567 Z-0.0427 I-0.005 J-0.0006
X0.505 Y0.558 Z-0.0433 I0.005 J0.0006
X0.495 Y0.5567 Z-0.0438 I-0.005 J-0.0006
X0.505 Y0.558 Z-0.0444 I0.005 J0.0006
X0.495 Y0.5567 Z-0.0449 I-0.005 J-0.0006
X0.505 Y0.558 Z-0.0455 I0.005 J0.0006
X0.495 Y0.5567 Z-0.046 I-0.005 J-0.0006
X0.505 Y0.558 Z-0.0466 I0.005 J0.0006
X0.495 Y0.5567 Z-0.0471 I-0.005 J-0.0006
X0.505 Y0.558 Z-0.0477 I0.005 J0.0006
X0.495 Y0.5567 Z-0.0482 I-0.005 J-0.0006
X0.505 Y0.558 Z-0.0488 I0.005 J0.0006
X0.495 Y0.5567 Z-0.0493 I-0.005 J-0.0006
X0.505 Y0.558 Z-0.0499 I0.005 J0.0006
X0.495 Y0.5567 Z-0.0504 I-0.005 J-0.0006
X0.505 Y0.558 Z-0.051 I0.005 J0.0006
X0.495 Y0.5567 Z-0.0515 I-0.005 J-0.0006
X0.505 Y0.558 Z-0.0521 I0.005 J0.0006
X0.495 Y0.5567 Z-0.0526 I-0.005 J-0.0006
X0.505 Y0.558 Z-0.0532 I0.005 J0.0006
X0.495 Y0.5567 Z-0.0537 I-0.005 J-0.0006
X0.505 Y0.558 Z-0.0543 I0.005 J0.0006
X0.495 Y0.5567 Z-0.0548 I-0.005 J-0.0006
X0.505 Y0.558 Z-0.0554 I0.005 J0.0006
X0.495 Y0.5567 Z-0.0559 I-0.005 J-0.0006
X0.505 Y0.558 Z-0.0565 I0.005 J0.0006
X0.495 Y0.5567 Z-0.057 I-0.005 J-0.0006
X0.505 Y0.558 Z-0.0576 I0.005 J0.0006
X0.495 Y0.5567 Z-0.0581 I-0.005 J-0.0006
X0.505 Y0.558 Z-0.0587 I0.005 J0.0006
X0.495 Y0.5567 Z-0.0592 I-0.005 J-0.0006
X0.505 Y0.558 Z-0.0597 I0.005 J0.0006
X0.5 Y0.5624 Z-0.06 I-0.005 J-0.0006
X0.4776 Y0.54 I0. J-0.0224 F30.
X0.5 Y0.5176 I0.0224 J0.
Y0.5624 I0. J0.0224
G2 X0.47 Y0.5782 I0. J0.0362
G3 X0.4361 Y0.577 I-0.0166 J-0.0113
X0.4262 Y0.54 I0.0639 J-0.037
X0.5738 I0.0738 J0.
X0.4361 Y0.577 I-0.0738 J0.
G1 X0.4355 Y0.5753
X0.4354 Y0.5735
X0.4358 Y0.5717
X0.4368 Y0.5701
X0.4383 Y0.569
X0.44 Y0.5683
X0.4694 Y0.5618
X0.4971 Y0.5517
G3 X0.505 Y0.558 I0.002 J0.0055
X0.495 Y0.5567 Z-0.0605 I-0.005 J-0.0006 F20.
X0.505 Y0.558 Z-0.0611 I0.005 J0.0006
X0.495 Y0.5567 Z-0.0616 I-0.005 J-0.0006
X0.505 Y0.558 Z-0.0622 I0.005 J0.0006
X0.495 Y0.5567 Z-0.0627 I-0.005 J-0.0006
X0.505 Y0.558 Z-0.0633 I0.005 J0.0006
X0.495 Y0.5567 Z-0.0638 I-0.005 J-0.0006
X0.505 Y0.558 Z-0.0644 I0.005 J0.0006
X0.495 Y0.5567 Z-0.0649 I-0.005 J-0.0006
X0.505 Y0.558 Z-0.0655 I0.005 J0.0006
X0.495 Y0.5567 Z-0.066 I-0.005 J-0.0006
X0.505 Y0.558 Z-0.0666 I0.005 J0.0006
X0.495 Y0.5567 Z-0.0671 I-0.005 J-0.0006
X0.505 Y0.558 Z-0.0677 I0.005 J0.0006
X0.495 Y0.5567 Z-0.0682 I-0.005 J-0.0006
X0.505 Y0.558 Z-0.0688 I0.005 J0.0006
X0.495 Y0.5567 Z-0.0693 I-0.005 J-0.0006
X0.505 Y0.558 Z-0.0699 I0.005 J0.0006
X0.495 Y0.5567 Z-0.0704 I-0.005 J-0.0006
X0.505 Y0.558 Z-0.071 I0.005 J0.0006
X0.495 Y0.5567 Z-0.0715 I-0.005 J-0.0006
X0.505 Y0.558 Z-0.0721 I0.005 J0.0006
X0.495 Y0.5567 Z-0.0726 I-0.005 J-0.0006
X0.505 Y0.558 Z-0.0732 I0.005 J0.0006
X0.495 Y0.5567 Z-0.0737 I-0.005 J-0.0006
X0.505 Y0.558 Z-0.0743 I0.005 J0.0006
X0.495 Y0.5567 Z-0.0748 I-0.005 J-0.0006
X0.505 Y0.558 Z-0.0754 I0.005 J0.0006
X0.495 Y0.5567 Z-0.0759 I-0.005 J-0.0006
X0.505 Y0.558 Z-0.0765 I0.005 J0.0006
X0.495 Y0.5567 Z-0.077 I-0.005 J-0.0006
X0.505 Y0.558 Z-0.0776 I0.005 J0.0006
X0.495 Y0.5567 Z-0.0781 I-0.005 J-0.0006
X0.505 Y0.558 Z-0.0787 I0.005 J0.0006
X0.495 Y0.5567 Z-0.0792 I-0.005 J-0.0006
X0.505 Y0.558 Z-0.0797 I0.005 J0.0006
X0.5 Y0.5624 Z-0.08 I-0.005 J-0.0006
X0.4776 Y0.54 I0. J-0.0224 F30.
X0.5 Y0.5176 I0.0224 J0.
Y0.5624 I0. J0.0224
G2 X0.47 Y0.5782 I0. J0.0362
G3 X0.4361 Y0.577 I-0.0166 J-0.0113
X0.4262 Y0.54 I0.0639 J-0.037
X0.5738 I0.0738 J0.
X0.4361 Y0.577 I-0.0738 J0.
G1 X0.4355 Y0.5753
X0.4354 Y0.5735
X0.4358 Y0.5717
X0.4368 Y0.5701
X0.4383 Y0.569
X0.44 Y0.5683
X0.4694 Y0.5618
X0.4971 Y0.5517
G3 X0.505 Y0.558 I0.002 J0.0055
X0.495 Y0.5567 Z-0.0805 I-0.005 J-0.0006 F20.
X0.505 Y0.558 Z-0.0811 I0.005 J0.0006
X0.495 Y0.5567 Z-0.0816 I-0.005 J-0.0006
X0.505 Y0.558 Z-0.0822 I0.005 J0.0006
X0.495 Y0.5567 Z-0.0827 I-0.005 J-0.0006
X0.505 Y0.558 Z-0.0833 I0.005 J0.0006
X0.495 Y0.5567 Z-0.0838 I-0.005 J-0.0006
X0.505 Y0.558 Z-0.0844 I0.005 J0.0006
X0.495 Y0.5567 Z-0.0849 I-0.005 J-0.0006
X0.505 Y0.558 Z-0.0855 I0.005 J0.0006
X0.495 Y0.5567 Z-0.086 I-0.005 J-0.0006
X0.505 Y0.558 Z-0.0866 I0.005 J0.0006
X0.495 Y0.5567 Z-0.0871 I-0.005 J-0.0006
X0.505 Y0.558 Z-0.0877 I0.005 J0.0006
X0.495 Y0.5567 Z-0.0882 I-0.005 J-0.0006
X0.505 Y0.558 Z-0.0888 I0.005 J0.0006
X0.495 Y0.5567 Z-0.0893 I-0.005 J-0.0006
X0.505 Y0.558 Z-0.0899 I0.005 J0.0006
X0.495 Y0.5567 Z-0.0904 I-0.005 J-0.0006
X0.505 Y0.558 Z-0.091 I0.005 J0.0006
X0.495 Y0.5567 Z-0.0915 I-0.005 J-0.0006
X0.505 Y0.558 Z-0.0921 I0.005 J0.0006
X0.495 Y0.5567 Z-0.0926 I-0.005 J-0.0006
X0.505 Y0.558 Z-0.0932 I0.005 J0.0006
X0.495 Y0.5567 Z-0.0937 I-0.005 J-0.0006
X0.505 Y0.558 Z-0.0943 I0.005 J0.0006
X0.495 Y0.5567 Z-0.0948 I-0.005 J-0.0006
X0.505 Y0.558 Z-0.0954 I0.005 J0.0006
X0.495 Y0.5567 Z-0.0959 I-0.005 J-0.0006
X0.505 Y0.558 Z-0.0965 I0.005 J0.0006
X0.495 Y0.5567 Z-0.097 I-0.005 J-0.0006
X0.505 Y0.558 Z-0.0976 I0.005 J0.0006
X0.495 Y0.5567 Z-0.0981 I-0.005 J-0.0006
X0.505 Y0.558 Z-0.0987 I0.005 J0.0006
X0.495 Y0.5567 Z-0.0992 I-0.005 J-0.0006
X0.505 Y0.558 Z-0.0997 I0.005 J0.0006
X0.5 Y0.5624 Z-0.1 I-0.005 J-0.0006
X0.4776 Y0.54 I0. J-0.0224 F30.
X0.5 Y0.5176 I0.0224 J0.
Y0.5624 I0. J0.0224
G2 X0.47 Y0.5782 I0. J0.0362
G3 X0.4361 Y0.577 I-0.0166 J-0.0113
X0.4262 Y0.54 I0.0639 J-0.037
X0.5738 I0.0738 J0.
X0.4361 Y0.577 I-0.0738 J0.
G1 X0.4355 Y0.5753
X0.4354 Y0.5735
X0.4358 Y0.5717
X0.4368 Y0.5701
X0.4383 Y0.569
X0.44 Y0.5683
X0.4694 Y0.5618
X0.4971 Y0.5517
G3 X0.505 Y0.558 I0.002 J0.0055
X0.495 Y0.5567 Z-0.1005 I-0.005 J-0.0006 F20.
X0.505 Y0.558 Z-0.1011 I0.005 J0.0006
X0.495 Y0.5567 Z-0.1016 I-0.005 J-0.0006
X0.505 Y0.558 Z-0.1022 I0.005 J0.0006
X0.495 Y0.5567 Z-0.1027 I-0.005 J-0.0006
X0.505 Y0.558 Z-0.1033 I0.005 J0.0006
X0.495 Y0.5567 Z-0.1038 I-0.005 J-0.0006
X0.505 Y0.558 Z-0.1044 I0.005 J0.0006
X0.495 Y0.5567 Z-0.1049 I-0.005 J-0.0006
X0.505 Y0.558 Z-0.1055 I0.005 J0.0006
X0.495 Y0.5567 Z-0.106 I-0.005 J-0.0006
X0.505 Y0.558 Z-0.1066 I0.005 J0.0006
X0.495 Y0.5567 Z-0.1071 I-0.005 J-0.0006
X0.505 Y0.558 Z-0.1077 I0.005 J0.0006
X0.495 Y0.5567 Z-0.1082 I-0.005 J-0.0006
X0.505 Y0.558 Z-0.1088 I0.005 J0.0006
X0.495 Y0.5567 Z-0.1093 I-0.005 J-0.0006
X0.505 Y0.558 Z-0.1099 I0.005 J0.0006
X0.495 Y0.5567 Z-0.1104 I-0.005 J-0.0006
X0.505 Y0.558 Z-0.111 I0.005 J0.0006
X0.495 Y0.5567 Z-0.1115 I-0.005 J-0.0006
X0.505 Y0.558 Z-0.1121 I0.005 J0.0006
X0.495 Y0.5567 Z-0.1126 I-0.005 J-0.0006
X0.505 Y0.558 Z-0.1132 I0.005 J0.0006
X0.495 Y0.5567 Z-0.1137 I-0.005 J-0.0006
X0.505 Y0.558 Z-0.1143 I0.005 J0.0006
X0.495 Y0.5567 Z-0.1148 I-0.005 J-0.0006
X0.505 Y0.558 Z-0.1154 I0.005 J0.0006
X0.495 Y0.5567 Z-0.1159 I-0.005 J-0.0006
X0.505 Y0.558 Z-0.1165 I0.005 J0.0006
X0.495 Y0.5567 Z-0.117 I-0.005 J-0.0006
X0.505 Y0.558 Z-0.1176 I0.005 J0.0006
X0.495 Y0.5567 Z-0.1181 I-0.005 J-0.0006
X0.505 Y0.558 Z-0.1187 I0.005 J0.0006
X0.495 Y0.5567 Z-0.1192 I-0.005 J-0.0006
X0.505 Y0.558 Z-0.1197 I0.005 J0.0006
X0.5 Y0.5624 Z-0.12 I-0.005 J-0.0006
X0.4776 Y0.54 I0. J-0.0224 F30.
X0.5 Y0.5176 I0.0224 J0.
Y0.5624 I0. J0.0224
G2 X0.47 Y0.5782 I0. J0.0362
G3 X0.4361 Y0.577 I-0.0166 J-0.0113
X0.4262 Y0.54 I0.0639 J-0.037
X0.5738 I0.0738 J0.
X0.4361 Y0.577 I-0.0738 J0.
G1 X0.4355 Y0.5753
X0.4354 Y0.5735
X0.4358 Y0.5717
X0.4368 Y0.5701
X0.4383 Y0.569
X0.44 Y0.5683
X0.4694 Y0.5618
X0.4971 Y0.5517
G3 X0.505 Y0.558 I0.002 J0.0055
X0.495 Y0.5567 Z-0.1205 I-0.005 J-0.0006 F20.
X0.505 Y0.558 Z-0.1211 I0.005 J0.0006
X0.495 Y0.5567 Z-0.1216 I-0.005 J-0.0006
X0.505 Y0.558 Z-0.1222 I0.005 J0.0006
X0.495 Y0.5567 Z-0.1227 I-0.005 J-0.0006
X0.505 Y0.558 Z-0.1233 I0.005 J0.0006
X0.495 Y0.5567 Z-0.1238 I-0.005 J-0.0006
X0.505 Y0.558 Z-0.1244 I0.005 J0.0006
X0.495 Y0.5567 Z-0.1249 I-0.005 J-0.0006
X0.505 Y0.558 Z-0.1255 I0.005 J0.0006
X0.495 Y0.5567 Z-0.126 I-0.005 J-0.0006
X0.505 Y0.558 Z-0.1266 I0.005 J0.0006
X0.495 Y0.5567 Z-0.1271 I-0.005 J-0.0006
X0.505 Y0.558 Z-0.1277 I0.005 J0.0006
X0.495 Y0.5567 Z-0.1282 I-0.005 J-0.0006
X0.505 Y0.558 Z-0.1288 I0.005 J0.0006
X0.495 Y0.5567 Z-0.1293 I-0.005 J-0.0006
X0.505 Y0.558 Z-0.1299 I0.005 J0.0006
X0.495 Y0.5567 Z-0.1304 I-0.005 J-0.0006
X0.505 Y0.558 Z-0.131 I0.005 J0.0006
X0.495 Y0.5567 Z-0.1315 I-0.005 J-0.0006
X0.505 Y0.558 Z-0.1321 I0.005 J0.0006
X0.495 Y0.5567 Z-0.1326 I-0.005 J-0.0006
X0.505 Y0.558 Z-0.1332 I0.005 J0.0006
X0.495 Y0.5567 Z-0.1337 I-0.005 J-0.0006
X0.505 Y0.558 Z-0.1343 I0.005 J0.0006
X0.495 Y0.5567 Z-0.1348 I-0.005 J-0.0006
X0.505 Y0.558 Z-0.1354 I0.005 J0.0006
X0.495 Y0.5567 Z-0.1359 I-0.005 J-0.0006
X0.505 Y0.558 Z-0.1365 I0.005 J0.0006
X0.495 Y0.5567 Z-0.137 I-0.005 J-0.0006
X0.505 Y0.558 Z-0.1376 I0.005 J0.0006
X0.495 Y0.5567 Z-0.1381 I-0.005 J-0.0006
X0.505 Y0.558 Z-0.1387 I0.005 J0.0006
X0.495 Y0.5567 Z-0.1392 I-0.005 J-0.0006
X0.505 Y0.558 Z-0.1397 I0.005 J0.0006
X0.5 Y0.5624 Z-0.14 I-0.005 J-0.0006
X0.4776 Y0.54 I0. J-0.0224 F30.
X0.5 Y0.5176 I0.0224 J0.
Y0.5624 I0. J0.0224
G2 X0.47 Y0.5782 I0. J0.0362
G3 X0.4361 Y0.577 I-0.0166 J-0.0113
X0.4262 Y0.54 I0.0639 J-0.037
X0.5738 I0.0738 J0.
X0.4361 Y0.577 I-0.0738 J0.
G1 X0.4355 Y0.5753
X0.4354 Y0.5735
X0.4358 Y0.5717
X0.4368 Y0.5701
X0.4383 Y0.569
X0.44 Y0.5683
X0.4694 Y0.5618
X0.4971 Y0.5517
G3 X0.505 Y0.558 I0.002 J0.0055
X0.495 Y0.5567 Z-0.1405 I-0.005 J-0.0006 F20.
X0.505 Y0.558 Z-0.1411 I0.005 J0.0006
X0.495 Y0.5567 Z-0.1416 I-0.005 J-0.0006
X0.505 Y0.558 Z-0.1422 I0.005 J0.0006
X0.495 Y0.5567 Z-0.1427 I-0.005 J-0.0006
X0.505 Y0.558 Z-0.1433 I0.005 J0.0006
X0.495 Y0.5567 Z-0.1438 I-0.005 J-0.0006
X0.505 Y0.558 Z-0.1444 I0.005 J0.0006
X0.495 Y0.5567 Z-0.1449 I-0.005 J-0.0006
X0.505 Y0.558 Z-0.1455 I0.005 J0.0006
X0.495 Y0.5567 Z-0.146 I-0.005 J-0.0006
X0.505 Y0.558 Z-0.1466 I0.005 J0.0006
X0.495 Y0.5567 Z-0.1471 I-0.005 J-0.0006
X0.505 Y0.558 Z-0.1477 I0.005 J0.0006
X0.495 Y0.5567 Z-0.1482 I-0.005 J-0.0006
X0.505 Y0.558 Z-0.1488 I0.005 J0.0006
X0.495 Y0.5567 Z-0.1493 I-0.005 J-0.0006
X0.505 Y0.558 Z-0.1499 I0.005 J0.0006
X0.495 Y0.5567 Z-0.1504 I-0.005 J-0.0006
X0.505 Y0.558 Z-0.151 I0.005 J0.0006
X0.495 Y0.5567 Z-0.1515 I-0.005 J-0.0006
X0.505 Y0.558 Z-0.1521 I0.005 J0.0006
X0.495 Y0.5567 Z-0.1526 I-0.005 J-0.0006
X0.505 Y0.558 Z-0.1532 I0.005 J0.0006
X0.495 Y0.5567 Z-0.1537 I-0.005 J-0.0006
X0.505 Y0.558 Z-0.1543 I0.005 J0.0006
X0.495 Y0.5567 Z-0.1548 I-0.005 J-0.0006
X0.505 Y0.558 Z-0.1554 I0.005 J0.0006
X0.495 Y0.5567 Z-0.1559 I-0.005 J-0.0006
X0.505 Y0.558 Z-0.1565 I0.005 J0.0006
X0.495 Y0.5567 Z-0.157 I-0.005 J-0.0006
X0.505 Y0.558 Z-0.1576 I0.005 J0.0006
X0.495 Y0.5567 Z-0.1581 I-0.005 J-0.0006
X0.505 Y0.558 Z-0.1587 I0.005 J0.0006
X0.495 Y0.5567 Z-0.1592 I-0.005 J-0.0006
X0.505 Y0.558 Z-0.1597 I0.005 J0.0006
X0.5 Y0.5624 Z-0.16 I-0.005 J-0.0006
X0.4776 Y0.54 I0. J-0.0224 F30.
X0.5 Y0.5176 I0.0224 J0.
Y0.5624 I0. J0.0224
G2 X0.47 Y0.5782 I0. J0.0362
G3 X0.4361 Y0.577 I-0.0166 J-0.0113
X0.4262 Y0.54 I0.0639 J-0.037
X0.5738 I0.0738 J0.
X0.4361 Y0.577 I-0.0738 J0.
G1 X0.4355 Y0.5753
X0.4354 Y0.5735
X0.4358 Y0.5717
X0.4368 Y0.5701
X0.4383 Y0.569
X0.44 Y0.5683
X0.4694 Y0.5618
X0.4971 Y0.5517
G3 X0.505 Y0.558 I0.002 J0.0055
X0.495 Y0.5567 Z-0.1605 I-0.005 J-0.0006 F20.
X0.505 Y0.558 Z-0.1611 I0.005 J0.0006
X0.495 Y0.5567 Z-0.1616 I-0.005 J-0.0006
X0.505 Y0.558 Z-0.1622 I0.005 J0.0006
X0.495 Y0.5567 Z-0.1627 I-0.005 J-0.0006
X0.505 Y0.558 Z-0.1633 I0.005 J0.0006
X0.495 Y0.5567 Z-0.1638 I-0.005 J-0.0006
X0.505 Y0.558 Z-0.1644 I0.005 J0.0006
X0.495 Y0.5567 Z-0.1649 I-0.005 J-0.0006
X0.505 Y0.558 Z-0.1655 I0.005 J0.0006
X0.495 Y0.5567 Z-0.166 I-0.005 J-0.0006
X0.505 Y0.558 Z-0.1666 I0.005 J0.0006
X0.495 Y0.5567 Z-0.1671 I-0.005 J-0.0006
X0.505 Y0.558 Z-0.1677 I0.005 J0.0006
X0.495 Y0.5567 Z-0.1682 I-0.005 J-0.0006
X0.505 Y0.558 Z-0.1688 I0.005 J0.0006
X0.495 Y0.5567 Z-0.1693 I-0.005 J-0.0006
X0.505 Y0.558 Z-0.1699 I0.005 J0.0006
X0.495 Y0.5567 Z-0.1704 I-0.005 J-0.0006
X0.505 Y0.558 Z-0.171 I0.005 J0.0006
X0.495 Y0.5567 Z-0.1715 I-0.005 J-0.0006
X0.505 Y0.558 Z-0.1721 I0.005 J0.0006
X0.495 Y0.5567 Z-0.1726 I-0.005 J-0.0006
X0.505 Y0.558 Z-0.1732 I0.005 J0.0006
X0.495 Y0.5567 Z-0.1737 I-0.005 J-0.0006
X0.505 Y0.558 Z-0.1743 I0.005 J0.0006
X0.495 Y0.5567 Z-0.1748 I-0.005 J-0.0006
X0.505 Y0.558 Z-0.1754 I0.005 J0.0006
X0.495 Y0.5567 Z-0.1759 I-0.005 J-0.0006
X0.505 Y0.558 Z-0.1765 I0.005 J0.0006
X0.495 Y0.5567 Z-0.177 I-0.005 J-0.0006
X0.505 Y0.558 Z-0.1776 I0.005 J0.0006
X0.495 Y0.5567 Z-0.1781 I-0.005 J-0.0006
X0.505 Y0.558 Z-0.1787 I0.005 J0.0006
X0.495 Y0.5567 Z-0.1792 I-0.005 J-0.0006
X0.505 Y0.558 Z-0.1797 I0.005 J0.0006
X0.5 Y0.5624 Z-0.18 I-0.005 J-0.0006
X0.4776 Y0.54 I0. J-0.0224 F30.
X0.5 Y0.5176 I0.0224 J0.
Y0.5624 I0. J0.0224
G2 X0.47 Y0.5782 I0. J0.0362
G3 X0.4361 Y0.577 I-0.0166 J-0.0113
X0.4262 Y0.54 I0.0639 J-0.037
X0.5738 I0.0738 J0.
X0.4361 Y0.577 I-0.0738 J0.
G1 X0.4355 Y0.5753
X0.4354 Y0.5735
X0.4358 Y0.5717
X0.4368 Y0.5701
X0.4383 Y0.569
X0.44 Y0.5683
X0.4694 Y0.5618
X0.4971 Y0.5517
G3 X0.505 Y0.558 I0.002 J0.0055
X0.495 Y0.5567 Z-0.1805 I-0.005 J-0.0006 F20.
X0.505 Y0.558 Z-0.1811 I0.005 J0.0006
X0.495 Y0.5567 Z-0.1816 I-0.005 J-0.0006
X0.505 Y0.558 Z-0.1822 I0.005 J0.0006
X0.495 Y0.5567 Z-0.1827 I-0.005 J-0.0006
X0.505 Y0.558 Z-0.1833 I0.005 J0.0006
X0.495 Y0.5567 Z-0.1838 I-0.005 J-0.0006
X0.505 Y0.558 Z-0.1844 I0.005 J0.0006
X0.495 Y0.5567 Z-0.1849 I-0.005 J-0.0006
X0.505 Y0.558 Z-0.1855 I0.005 J0.0006
X0.495 Y0.5567 Z-0.186 I-0.005 J-0.0006
X0.505 Y0.558 Z-0.1866 I0.005 J0.0006
X0.495 Y0.5567 Z-0.1871 I-0.005 J-0.0006
X0.505 Y0.558 Z-0.1877 I0.005 J0.0006
X0.495 Y0.5567 Z-0.1882 I-0.005 J-0.0006
X0.505 Y0.558 Z-0.1888 I0.005 J0.0006
X0.495 Y0.5567 Z-0.1893 I-0.005 J-0.0006
X0.505 Y0.558 Z-0.1899 I0.005 J0.0006
X0.495 Y0.5567 Z-0.1904 I-0.005 J-0.0006
X0.505 Y0.558 Z-0.191 I0.005 J0.0006
X0.495 Y0.5567 Z-0.1915 I-0.005 J-0.0006
X0.505 Y0.558 Z-0.1921 I0.005 J0.0006
X0.495 Y0.5567 Z-0.1926 I-0.005 J-0.0006
X0.505 Y0.558 Z-0.1932 I0.005 J0.0006
X0.495 Y0.5567 Z-0.1937 I-0.005 J-0.0006
X0.505 Y0.558 Z-0.1943 I0.005 J0.0006
X0.495 Y0.5567 Z-0.1948 I-0.005 J-0.0006
X0.505 Y0.558 Z-0.1954 I0.005 J0.0006
X0.495 Y0.5567 Z-0.1959 I-0.005 J-0.0006
X0.505 Y0.558 Z-0.1965 I0.005 J0.0006
X0.495 Y0.5567 Z-0.197 I-0.005 J-0.0006
X0.505 Y0.558 Z-0.1976 I0.005 J0.0006
X0.495 Y0.5567 Z-0.1981 I-0.005 J-0.0006
X0.505 Y0.558 Z-0.1987 I0.005 J0.0006
X0.495 Y0.5567 Z-0.1992 I-0.005 J-0.0006
X0.505 Y0.558 Z-0.1997 I0.005 J0.0006
X0.5 Y0.5624 Z-0.2 I-0.005 J-0.0006
X0.4776 Y0.54 I0. J-0.0224 F30.
X0.5 Y0.5176 I0.0224 J0.
Y0.5624 I0. J0.0224
G2 X0.47 Y0.5782 I0. J0.0362
G3 X0.4361 Y0.577 I-0.0166 J-0.0113
X0.4262 Y0.54 I0.0639 J-0.037
X0.5738 I0.0738 J0.
X0.4361 Y0.577 I-0.0738 J0.
G1 X0.4355 Y0.5753
X0.4354 Y0.5735
X0.4358 Y0.5717
X0.4368 Y0.5701
X0.4383 Y0.569
X0.44 Y0.5683
X0.4694 Y0.5618
X0.4971 Y0.5517
G3 X0.505 Y0.558 I0.002 J0.0055
X0.495 Y0.5567 Z-0.2005 I-0.005 J-0.0006 F20.
X0.505 Y0.558 Z-0.2011 I0.005 J0.0006
X0.495 Y0.5567 Z-0.2016 I-0.005 J-0.0006
X0.505 Y0.558 Z-0.2022 I0.005 J0.0006
X0.495 Y0.5567 Z-0.2027 I-0.005 J-0.0006
X0.505 Y0.558 Z-0.2033 I0.005 J0.0006
X0.495 Y0.5567 Z-0.2038 I-0.005 J-0.0006
X0.505 Y0.558 Z-0.2044 I0.005 J0.0006
X0.495 Y0.5567 Z-0.2049 I-0.005 J-0.0006
X0.505 Y0.558 Z-0.2055 I0.005 J0.0006
X0.495 Y0.5567 Z-0.206 I-0.005 J-0.0006
X0.505 Y0.558 Z-0.2066 I0.005 J0.0006
X0.495 Y0.5567 Z-0.2071 I-0.005 J-0.0006
X0.505 Y0.558 Z-0.2077 I0.005 J0.0006
X0.495 Y0.5567 Z-0.2082 I-0.005 J-0.0006
X0.505 Y0.558 Z-0.2088 I0.005 J0.0006
X0.495 Y0.5567 Z-0.2093 I-0.005 J-0.0006
X0.505 Y0.558 Z-0.2099 I0.005 J0.0006
X0.495 Y0.5567 Z-0.2104 I-0.005 J-0.0006
X0.505 Y0.558 Z-0.211 I0.005 J0.0006
X0.495 Y0.5567 Z-0.2115 I-0.005 J-0.0006
X0.505 Y0.558 Z-0.2121 I0.005 J0.0006
X0.495 Y0.5567 Z-0.2126 I-0.005 J-0.0006
X0.505 Y0.558 Z-0.2132 I0.005 J0.0006
X0.495 Y0.5567 Z-0.2137 I-0.005 J-0.0006
X0.505 Y0.558 Z-0.2143 I0.005 J0.0006
X0.495 Y0.5567 Z-0.2148 I-0.005 J-0.0006
X0.505 Y0.558 Z-0.2154 I0.005 J0.0006
X0.495 Y0.5567 Z-0.2159 I-0.005 J-0.0006
X0.505 Y0.558 Z-0.2165 I0.005 J0.0006
X0.495 Y0.5567 Z-0.217 I-0.005 J-0.0006
X0.505 Y0.558 Z-0.2176 I0.005 J0.0006
X0.495 Y0.5567 Z-0.2181 I-0.005 J-0.0006
X0.505 Y0.558 Z-0.2187 I0.005 J0.0006
X0.495 Y0.5567 Z-0.2192 I-0.005 J-0.0006
X0.505 Y0.558 Z-0.2197 I0.005 J0.0006
X0.5 Y0.5624 Z-0.22 I-0.005 J-0.0006
X0.4776 Y0.54 I0. J-0.0224 F30.
X0.5 Y0.5176 I0.0224 J0.
Y0.5624 I0. J0.0224
G2 X0.47 Y0.5782 I0. J0.0362
G3 X0.4361 Y0.577 I-0.0166 J-0.0113
X0.4262 Y0.54 I0.0639 J-0.037
X0.5738 I0.0738 J0.
X0.4361 Y0.577 I-0.0738 J0.
G1 X0.4352 Y0.575 Z-0.2196
X0.4347 Y0.5728 Z-0.2191
X0.4345 Y0.5709 Z-0.2178
X0.4347 Y0.569 Z-0.2165
X0.4355 Y0.5665 Z-0.2127
X0.4358 Y0.5657 Z-0.2082
G0 Z0.6

M9
M30
