(X4 GEARBOX LOWER RIGHT POCKET RUN 2.9)
(T3  D=0.118 CR=0. - ZMIN=-0.27 - FLAT END MILL)
G90 G94 G91.1 G40 G49 G17
G20

(2D POCKET9)
M5
T3 M6
S15000 M3
G54
M8
G0 X3.3285 Y2.5539
G43 Z0.64 H3
Z0.24
G1 Z0.1518 F30.
X3.3297 Y2.5529 Z0.146 F20.
X3.333 Y2.5505 Z0.1417
X3.3379 Y2.5475 Z0.14
G3 X3.3916 Y2.6459 Z0.1339 I0.0268 J0.0492
X3.3379 Y2.5475 Z0.1277 I-0.0268 J-0.0492
X3.3916 Y2.6459 Z0.1216 I0.0268 J0.0492
X3.3379 Y2.5475 Z0.1154 I-0.0268 J-0.0492
X3.3916 Y2.6459 Z0.1093 I0.0268 J0.0492
X3.3379 Y2.5475 Z0.1031 I-0.0268 J-0.0492
X3.3916 Y2.6459 Z0.097 I0.0268 J0.0492
X3.3379 Y2.5475 Z0.0908 I-0.0268 J-0.0492
X3.3916 Y2.6459 Z0.0847 I0.0268 J0.0492
X3.3379 Y2.5475 Z0.0785 I-0.0268 J-0.0492
X3.3916 Y2.6459 Z0.0724 I0.0268 J0.0492
X3.3379 Y2.5475 Z0.0662 I-0.0268 J-0.0492
X3.3916 Y2.6459 Z0.0601 I0.0268 J0.0492
X3.3379 Y2.5475 Z0.0539 I-0.0268 J-0.0492
X3.3916 Y2.6459 Z0.0478 I0.0268 J0.0492
X3.3379 Y2.5475 Z0.0416 I-0.0268 J-0.0492
X3.3916 Y2.6459 Z0.0355 I0.0268 J0.0492
X3.3379 Y2.5475 Z0.0293 I-0.0268 J-0.0492
X3.3916 Y2.6459 Z0.0232 I0.0268 J0.0492
X3.3379 Y2.5475 Z0.017 I-0.0268 J-0.0492
X3.3931 Y2.5484 Z0.015 I0.0268 J0.0492
G1 X3.4083 Y2.5573 F30.
G3 X3.4112 Y2.5733 I-0.0055 J0.0093
G2 X3.3934 Y2.5963 I0.9372 J0.7474
G3 X3.3751 Y2.5992 I-0.0107 J-0.0081
G2 X3.3423 Y2.5775 I-0.6713 J0.9785
G3 X3.3319 Y2.5585 I0.0121 J-0.019
G1 Y2.5252
G3 X3.343 Y2.5188 I0.0073 J0.
G1 X3.3931 Y2.5484
G2 X3.4412 Y2.5457 I0.022 J-0.0374
G3 X3.4893 Y2.543 I0.0261 J0.0347
G1 X3.4908 Y2.5438
G3 X3.4932 Y2.5593 I-0.0051 J0.0087
G2 X3.405 Y2.6717 I0.7542 J0.6826
G3 X3.388 Y2.6745 I-0.0098 J-0.0066
G2 X3.2924 Y2.6094 I-0.6601 J0.8663
G3 X3.2785 Y2.5847 I0.015 J-0.0247
G1 Y2.4476
G3 X3.3032 Y2.4335 I0.0164 J0.
G1 X3.4893 Y2.543
G2 X3.5467 Y2.5512 I0.0387 J-0.0657
G3 X3.5761 Y2.6012 I0.0074 J0.0293
G2 X3.4262 Y2.809 I0.6939 J0.6584
G3 X3.4115 Y2.8114 I-0.0083 J-0.0044
G2 X3.2031 Y2.6611 I-0.6717 J0.7121
G3 X3.1892 Y2.638 I0.0124 J-0.0232
G1 Y2.3969
G3 X3.203 Y2.3742 I0.0255 J0.
G2 X3.2782 Y2.3312 I-0.4707 J-0.9103
G3 X3.3048 Y2.3308 I0.0136 J0.0216
G1 X3.6373 Y2.5265
G3 X3.6387 Y2.5409 I-0.0045 J0.0077
G2 X3.5761 Y2.6012 I0.6312 J0.7187
X3.5635 Y2.6805 I0.0514 J0.0488
G3 X3.5568 Y2.7606 I-0.072 J0.0343
G2 X3.451 Y2.9663 I0.7043 J0.4923
G3 X3.4387 Y2.9684 I-0.0067 J-0.0024
G2 X3.1165 Y2.7144 I-0.6975 J0.5535
G3 X3.1028 Y2.6928 I0.01 J-0.0216
G1 Y2.3411
G3 X3.1165 Y2.32 I0.0232 J0.
G2 X3.2753 Y2.2291 I-0.3753 J-0.8405
G3 X3.3005 Y2.228 I0.0134 J0.0189
G1 X3.7458 Y2.49
G3 X3.7654 Y2.5183 I-0.0209 J0.0354
G1 X3.7679 Y2.5321
G3 X3.7581 Y2.5562 I-0.0241 J0.0042
G2 X3.5568 Y2.7606 I0.503 J0.6966
X3.5563 Y2.8348 I0.0537 J0.0375
G3 X3.5614 Y2.9089 I-0.0612 J0.0414
G2 X3.4988 Y3.0883 I0.7016 J0.3454
G3 X3.4811 Y3.1052 I-0.0215 J-0.0047
G1 X3.4557 Y3.1097
G3 X3.4337 Y3.0998 I-0.0037 J-0.0211
G2 X3.0368 Y2.7668 I-0.6949 J0.4251
G3 X3.0232 Y2.7468 I0.0078 J-0.0199
G1 Y2.2863
G3 X3.0367 Y2.2667 I0.0209 J0.
G2 X3.2699 Y2.1334 I-0.2999 J-0.795
G3 X3.2937 Y2.1316 I0.0131 J0.0163
G1 X3.8178 Y2.44
G3 X3.8374 Y2.4683 I-0.0209 J0.0354
G1 X3.8555 Y2.5706
G3 X3.8456 Y2.593 I-0.0216 J0.0038
G2 X3.5614 Y2.9089 I0.4174 J0.6613
X3.5757 Y3.003 I0.0747 J0.0368
G3 X3.6003 Y3.095 I-0.0721 J0.0686
G2 X3.5844 Y3.189 I0.6648 J0.1609
G1 X3.3864 Y3.224
G2 X2.9227 Y2.8349 I-0.6477 J0.301
G1 Y2.1974
G2 X3.268 Y2. I-0.184 J-0.7224
G1 X3.9037 Y2.374
G2 X3.9314 Y2.3821 I0.0299 J-0.0508
X3.9293 Y2.4109 I0.056 J0.0185
G1 X3.9695 Y2.639
G2 X3.6003 Y3.095 I0.2956 J0.6168
G3 X3.4934 Y3.1014 Z0.0105 I-0.0545 J-0.0132 F20.
G1 X3.3122 Y2.6163 Z-0.0057
G3 X3.3931 Y2.5484 Z-0.01 I0.0525 J-0.0196
G1 X3.4083 Y2.5573 F30.
G3 X3.4112 Y2.5733 I-0.0055 J0.0093
G2 X3.3934 Y2.5963 I0.9372 J0.7474
G3 X3.3751 Y2.5992 I-0.0107 J-0.0081
G2 X3.3423 Y2.5775 I-0.6713 J0.9785
G3 X3.3319 Y2.5585 I0.0121 J-0.019
G1 Y2.5252
G3 X3.343 Y2.5188 I0.0073 J0.
G1 X3.3931 Y2.5484
G2 X3.4412 Y2.5457 I0.022 J-0.0374
G3 X3.4893 Y2.543 I0.0261 J0.0347
G1 X3.4908 Y2.5438
G3 X3.4932 Y2.5593 I-0.0051 J0.0087
G2 X3.405 Y2.6717 I0.7542 J0.6826
G3 X3.388 Y2.6745 I-0.0098 J-0.0066
G2 X3.2924 Y2.6094 I-0.6601 J0.8663
G3 X3.2785 Y2.5847 I0.015 J-0.0247
G1 Y2.4476
G3 X3.3032 Y2.4335 I0.0164 J0.
G1 X3.4893 Y2.543
G2 X3.5467 Y2.5512 I0.0387 J-0.0657
G3 X3.5761 Y2.6012 I0.0074 J0.0293
G2 X3.4262 Y2.809 I0.6939 J0.6584
G3 X3.4115 Y2.8114 I-0.0083 J-0.0044
G2 X3.2031 Y2.6611 I-0.6717 J0.7121
G3 X3.1892 Y2.638 I0.0124 J-0.0232
G1 Y2.3969
G3 X3.203 Y2.3742 I0.0255 J0.
G2 X3.2782 Y2.3312 I-0.4707 J-0.9103
G3 X3.3048 Y2.3308 I0.0136 J0.0216
G1 X3.6373 Y2.5265
G3 X3.6387 Y2.5409 I-0.0045 J0.0077
G2 X3.5761 Y2.6012 I0.6312 J0.7187
X3.5635 Y2.6805 I0.0514 J0.0488
G3 X3.5568 Y2.7606 I-0.072 J0.0343
G2 X3.451 Y2.9663 I0.7043 J0.4923
G3 X3.4387 Y2.9684 I-0.0067 J-0.0024
G2 X3.1165 Y2.7144 I-0.6975 J0.5535
G3 X3.1028 Y2.6928 I0.01 J-0.0216
G1 Y2.3411
G3 X3.1165 Y2.32 I0.0232 J0.
G2 X3.2753 Y2.2291 I-0.3753 J-0.8405
G3 X3.3005 Y2.228 I0.0134 J0.0189
G1 X3.7458 Y2.49
G3 X3.7654 Y2.5183 I-0.0209 J0.0354
G1 X3.7679 Y2.5321
G3 X3.7581 Y2.5562 I-0.0241 J0.0042
G2 X3.5568 Y2.7606 I0.503 J0.6966
X3.5563 Y2.8348 I0.0537 J0.0375
G3 X3.5614 Y2.9089 I-0.0612 J0.0414
G2 X3.4988 Y3.0883 I0.7016 J0.3454
G3 X3.4811 Y3.1052 I-0.0215 J-0.0047
G1 X3.4557 Y3.1097
G3 X3.4337 Y3.0998 I-0.0037 J-0.0211
G2 X3.0368 Y2.7668 I-0.6949 J0.4251
G3 X3.0232 Y2.7468 I0.0078 J-0.0199
G1 Y2.2863
G3 X3.0367 Y2.2667 I0.0209 J0.
G2 X3.2699 Y2.1334 I-0.2999 J-0.795
G3 X3.2937 Y2.1316 I0.0131 J0.0163
G1 X3.8178 Y2.44
G3 X3.8374 Y2.4683 I-0.0209 J0.0354
G1 X3.8555 Y2.5706
G3 X3.8456 Y2.593 I-0.0216 J0.0038
G2 X3.5614 Y2.9089 I0.4174 J0.6613
X3.5757 Y3.003 I0.0747 J0.0368
G3 X3.6003 Y3.095 I-0.0721 J0.0686
G2 X3.5844 Y3.189 I0.6648 J0.1609
G1 X3.3864 Y3.224
G2 X2.9227 Y2.8349 I-0.6477 J0.301
G1 Y2.1974
G2 X3.268 Y2. I-0.184 J-0.7224
G1 X3.9037 Y2.374
G2 X3.9314 Y2.3821 I0.0299 J-0.0508
X3.9293 Y2.4109 I0.056 J0.0185
G1 X3.9695 Y2.639
G2 X3.6003 Y3.095 I0.2956 J0.6168
G3 X3.4934 Y3.1014 Z-0.0145 I-0.0545 J-0.0132 F20.
G1 X3.3122 Y2.6163 Z-0.0307
G3 X3.3931 Y2.5484 Z-0.035 I0.0525 J-0.0196
G1 X3.4083 Y2.5573 F30.
G3 X3.4112 Y2.5733 I-0.0055 J0.0093
G2 X3.3934 Y2.5963 I0.9372 J0.7474
G3 X3.3751 Y2.5992 I-0.0107 J-0.0081
G2 X3.3423 Y2.5775 I-0.6713 J0.9785
G3 X3.3319 Y2.5585 I0.0121 J-0.019
G1 Y2.5252
G3 X3.343 Y2.5188 I0.0073 J0.
G1 X3.3931 Y2.5484
G2 X3.4412 Y2.5457 I0.022 J-0.0374
G3 X3.4893 Y2.543 I0.0261 J0.0347
G1 X3.4908 Y2.5438
G3 X3.4932 Y2.5593 I-0.0051 J0.0087
G2 X3.405 Y2.6717 I0.7542 J0.6826
G3 X3.388 Y2.6745 I-0.0098 J-0.0066
G2 X3.2924 Y2.6094 I-0.6601 J0.8663
G3 X3.2785 Y2.5847 I0.015 J-0.0247
G1 Y2.4476
G3 X3.3032 Y2.4335 I0.0164 J0.
G1 X3.4893 Y2.543
G2 X3.5467 Y2.5512 I0.0387 J-0.0657
G3 X3.5761 Y2.6012 I0.0074 J0.0293
G2 X3.4262 Y2.809 I0.6939 J0.6584
G3 X3.4115 Y2.8114 I-0.0083 J-0.0044
G2 X3.2031 Y2.6611 I-0.6717 J0.7121
G3 X3.1892 Y2.638 I0.0124 J-0.0232
G1 Y2.3969
G3 X3.203 Y2.3742 I0.0255 J0.
G2 X3.2782 Y2.3312 I-0.4707 J-0.9103
G3 X3.3048 Y2.3308 I0.0136 J0.0216
G1 X3.6373 Y2.5265
G3 X3.6387 Y2.5409 I-0.0045 J0.0077
G2 X3.5761 Y2.6012 I0.6312 J0.7187
X3.5635 Y2.6805 I0.0514 J0.0488
G3 X3.5568 Y2.7606 I-0.072 J0.0343
G2 X3.451 Y2.9663 I0.7043 J0.4923
G3 X3.4387 Y2.9684 I-0.0067 J-0.0024
G2 X3.1165 Y2.7144 I-0.6975 J0.5535
G3 X3.1028 Y2.6928 I0.01 J-0.0216
G1 Y2.3411
G3 X3.1165 Y2.32 I0.0232 J0.
G2 X3.2753 Y2.2291 I-0.3753 J-0.8405
G3 X3.3005 Y2.228 I0.0134 J0.0189
G1 X3.7458 Y2.49
G3 X3.7654 Y2.5183 I-0.0209 J0.0354
G1 X3.7679 Y2.5321
G3 X3.7581 Y2.5562 I-0.0241 J0.0042
G2 X3.5568 Y2.7606 I0.503 J0.6966
X3.5563 Y2.8348 I0.0537 J0.0375
G3 X3.5614 Y2.9089 I-0.0612 J0.0414
G2 X3.4988 Y3.0883 I0.7016 J0.3454
G3 X3.4811 Y3.1052 I-0.0215 J-0.0047
G1 X3.4557 Y3.1097
G3 X3.4337 Y3.0998 I-0.0037 J-0.0211
G2 X3.0368 Y2.7668 I-0.6949 J0.4251
G3 X3.0232 Y2.7468 I0.0078 J-0.0199
G1 Y2.2863
G3 X3.0367 Y2.2667 I0.0209 J0.
G2 X3.2699 Y2.1334 I-0.2999 J-0.795
G3 X3.2937 Y2.1316 I0.0131 J0.0163
G1 X3.8178 Y2.44
G3 X3.8374 Y2.4683 I-0.0209 J0.0354
G1 X3.8555 Y2.5706
G3 X3.8456 Y2.593 I-0.0216 J0.0038
G2 X3.5614 Y2.9089 I0.4174 J0.6613
X3.5757 Y3.003 I0.0747 J0.0368
G3 X3.6003 Y3.095 I-0.0721 J0.0686
G2 X3.5844 Y3.189 I0.6648 J0.1609
G1 X3.3864 Y3.224
G2 X2.9227 Y2.8349 I-0.6477 J0.301
G1 Y2.1974
G2 X3.268 Y2. I-0.184 J-0.7224
G1 X3.9037 Y2.374
G2 X3.9314 Y2.3821 I0.0299 J-0.0508
X3.9293 Y2.4109 I0.056 J0.0185
G1 X3.9695 Y2.639
G2 X3.6003 Y3.095 I0.2956 J0.6168
G3 X3.4934 Y3.1014 Z-0.0395 I-0.0545 J-0.0132 F20.
G1 X3.3122 Y2.6163 Z-0.0557
G3 X3.3931 Y2.5484 Z-0.06 I0.0525 J-0.0196
G1 X3.4083 Y2.5573 F30.
G3 X3.4112 Y2.5733 I-0.0055 J0.0093
G2 X3.3934 Y2.5963 I0.9372 J0.7474
G3 X3.3751 Y2.5992 I-0.0107 J-0.0081
G2 X3.3423 Y2.5775 I-0.6713 J0.9785
G3 X3.3319 Y2.5585 I0.0121 J-0.019
G1 Y2.5252
G3 X3.343 Y2.5188 I0.0073 J0.
G1 X3.3931 Y2.5484
G2 X3.4412 Y2.5457 I0.022 J-0.0374
G3 X3.4893 Y2.543 I0.0261 J0.0347
G1 X3.4908 Y2.5438
G3 X3.4932 Y2.5593 I-0.0051 J0.0087
G2 X3.405 Y2.6717 I0.7542 J0.6826
G3 X3.388 Y2.6745 I-0.0098 J-0.0066
G2 X3.2924 Y2.6094 I-0.6601 J0.8663
G3 X3.2785 Y2.5847 I0.015 J-0.0247
G1 Y2.4476
G3 X3.3032 Y2.4335 I0.0164 J0.
G1 X3.4893 Y2.543
G2 X3.5467 Y2.5512 I0.0387 J-0.0657
G3 X3.5761 Y2.6012 I0.0074 J0.0293
G2 X3.4262 Y2.809 I0.6939 J0.6584
G3 X3.4115 Y2.8114 I-0.0083 J-0.0044
G2 X3.2031 Y2.6611 I-0.6717 J0.7121
G3 X3.1892 Y2.638 I0.0124 J-0.0232
G1 Y2.3969
G3 X3.203 Y2.3742 I0.0255 J0.
G2 X3.2782 Y2.3312 I-0.4707 J-0.9103
G3 X3.3048 Y2.3308 I0.0136 J0.0216
G1 X3.6373 Y2.5265
G3 X3.6387 Y2.5409 I-0.0045 J0.0077
G2 X3.5761 Y2.6012 I0.6312 J0.7187
X3.5635 Y2.6805 I0.0514 J0.0488
G3 X3.5568 Y2.7606 I-0.072 J0.0343
G2 X3.451 Y2.9663 I0.7043 J0.4923
G3 X3.4387 Y2.9684 I-0.0067 J-0.0024
G2 X3.1165 Y2.7144 I-0.6975 J0.5535
G3 X3.1028 Y2.6928 I0.01 J-0.0216
G1 Y2.3411
G3 X3.1165 Y2.32 I0.0232 J0.
G2 X3.2753 Y2.2291 I-0.3753 J-0.8405
G3 X3.3005 Y2.228 I0.0134 J0.0189
G1 X3.7458 Y2.49
G3 X3.7654 Y2.5183 I-0.0209 J0.0354
G1 X3.7679 Y2.5321
G3 X3.7581 Y2.5562 I-0.0241 J0.0042
G2 X3.5568 Y2.7606 I0.503 J0.6966
X3.5563 Y2.8348 I0.0537 J0.0375
G3 X3.5614 Y2.9089 I-0.0612 J0.0414
G2 X3.4988 Y3.0883 I0.7016 J0.3454
G3 X3.4811 Y3.1052 I-0.0215 J-0.0047
G1 X3.4557 Y3.1097
G3 X3.4337 Y3.0998 I-0.0037 J-0.0211
G2 X3.0368 Y2.7668 I-0.6949 J0.4251
G3 X3.0232 Y2.7468 I0.0078 J-0.0199
G1 Y2.2863
G3 X3.0367 Y2.2667 I0.0209 J0.
G2 X3.2699 Y2.1334 I-0.2999 J-0.795
G3 X3.2937 Y2.1316 I0.0131 J0.0163
G1 X3.8178 Y2.44
G3 X3.8374 Y2.4683 I-0.0209 J0.0354
G1 X3.8555 Y2.5706
G3 X3.8456 Y2.593 I-0.0216 J0.0038
G2 X3.5614 Y2.9089 I0.4174 J0.6613
X3.5757 Y3.003 I0.0747 J0.0368
G3 X3.6003 Y3.095 I-0.0721 J0.0686
G2 X3.5844 Y3.189 I0.6648 J0.1609
G1 X3.3864 Y3.224
G2 X2.9227 Y2.8349 I-0.6477 J0.301
G1 Y2.1974
G2 X3.268 Y2. I-0.184 J-0.7224
G1 X3.9037 Y2.374
G2 X3.9314 Y2.3821 I0.0299 J-0.0508
X3.9293 Y2.4109 I0.056 J0.0185
G1 X3.9695 Y2.639
G2 X3.6003 Y3.095 I0.2956 J0.6168
G3 X3.4934 Y3.1014 Z-0.0645 I-0.0545 J-0.0132 F20.
G1 X3.3122 Y2.6163 Z-0.0807
G3 X3.3931 Y2.5484 Z-0.085 I0.0525 J-0.0196
G1 X3.4083 Y2.5573 F30.
G3 X3.4112 Y2.5733 I-0.0055 J0.0093
G2 X3.3934 Y2.5963 I0.9372 J0.7474
G3 X3.3751 Y2.5992 I-0.0107 J-0.0081
G2 X3.3423 Y2.5775 I-0.6713 J0.9785
G3 X3.3319 Y2.5585 I0.0121 J-0.019
G1 Y2.5252
G3 X3.343 Y2.5188 I0.0073 J0.
G1 X3.3931 Y2.5484
G2 X3.4412 Y2.5457 I0.022 J-0.0374
G3 X3.4893 Y2.543 I0.0261 J0.0347
G1 X3.4908 Y2.5438
G3 X3.4932 Y2.5593 I-0.0051 J0.0087
G2 X3.405 Y2.6717 I0.7542 J0.6826
G3 X3.388 Y2.6745 I-0.0098 J-0.0066
G2 X3.2924 Y2.6094 I-0.6601 J0.8663
G3 X3.2785 Y2.5847 I0.015 J-0.0247
G1 Y2.4476
G3 X3.3032 Y2.4335 I0.0164 J0.
G1 X3.4893 Y2.543
G2 X3.5467 Y2.5512 I0.0387 J-0.0657
G3 X3.5761 Y2.6012 I0.0074 J0.0293
G2 X3.4262 Y2.809 I0.6939 J0.6584
G3 X3.4115 Y2.8114 I-0.0083 J-0.0044
G2 X3.2031 Y2.6611 I-0.6717 J0.7121
G3 X3.1892 Y2.638 I0.0124 J-0.0232
G1 Y2.3969
G3 X3.203 Y2.3742 I0.0255 J0.
G2 X3.2782 Y2.3312 I-0.4707 J-0.9103
G3 X3.3048 Y2.3308 I0.0136 J0.0216
G1 X3.6373 Y2.5265
G3 X3.6387 Y2.5409 I-0.0045 J0.0077
G2 X3.5761 Y2.6012 I0.6312 J0.7187
X3.5635 Y2.6805 I0.0514 J0.0488
G3 X3.5568 Y2.7606 I-0.072 J0.0343
G2 X3.451 Y2.9663 I0.7043 J0.4923
G3 X3.4387 Y2.9684 I-0.0067 J-0.0024
G2 X3.1165 Y2.7144 I-0.6975 J0.5535
G3 X3.1028 Y2.6928 I0.01 J-0.0216
G1 Y2.3411
G3 X3.1165 Y2.32 I0.0232 J0.
G2 X3.2753 Y2.2291 I-0.3753 J-0.8405
G3 X3.3005 Y2.228 I0.0134 J0.0189
G1 X3.7458 Y2.49
G3 X3.7654 Y2.5183 I-0.0209 J0.0354
G1 X3.7679 Y2.5321
G3 X3.7581 Y2.5562 I-0.0241 J0.0042
G2 X3.5568 Y2.7606 I0.503 J0.6966
X3.5563 Y2.8348 I0.0537 J0.0375
G3 X3.5614 Y2.9089 I-0.0612 J0.0414
G2 X3.4988 Y3.0883 I0.7016 J0.3454
G3 X3.4811 Y3.1052 I-0.0215 J-0.0047
G1 X3.4557 Y3.1097
G3 X3.4337 Y3.0998 I-0.0037 J-0.0211
G2 X3.0368 Y2.7668 I-0.6949 J0.4251
G3 X3.0232 Y2.7468 I0.0078 J-0.0199
G1 Y2.2863
G3 X3.0367 Y2.2667 I0.0209 J0.
G2 X3.2699 Y2.1334 I-0.2999 J-0.795
G3 X3.2937 Y2.1316 I0.0131 J0.0163
G1 X3.8178 Y2.44
G3 X3.8374 Y2.4683 I-0.0209 J0.0354
G1 X3.8555 Y2.5706
G3 X3.8456 Y2.593 I-0.0216 J0.0038
G2 X3.5614 Y2.9089 I0.4174 J0.6613
X3.5757 Y3.003 I0.0747 J0.0368
G3 X3.6003 Y3.095 I-0.0721 J0.0686
G2 X3.5844 Y3.189 I0.6648 J0.1609
G1 X3.3864 Y3.224
G2 X2.9227 Y2.8349 I-0.6477 J0.301
G1 Y2.1974
G2 X3.268 Y2. I-0.184 J-0.7224
G1 X3.9037 Y2.374
G2 X3.9314 Y2.3821 I0.0299 J-0.0508
X3.9293 Y2.4109 I0.056 J0.0185
G1 X3.9695 Y2.639
G2 X3.6003 Y3.095 I0.2956 J0.6168
G3 X3.4934 Y3.1014 Z-0.0895 I-0.0545 J-0.0132 F20.
G1 X3.3122 Y2.6163 Z-0.1057
G3 X3.3931 Y2.5484 Z-0.11 I0.0525 J-0.0196
G1 X3.4083 Y2.5573 F30.
G3 X3.4112 Y2.5733 I-0.0055 J0.0093
G2 X3.3934 Y2.5963 I0.9372 J0.7474
G3 X3.3751 Y2.5992 I-0.0107 J-0.0081
G2 X3.3423 Y2.5775 I-0.6713 J0.9785
G3 X3.3319 Y2.5585 I0.0121 J-0.019
G1 Y2.5252
G3 X3.343 Y2.5188 I0.0073 J0.
G1 X3.3931 Y2.5484
G2 X3.4412 Y2.5457 I0.022 J-0.0374
G3 X3.4893 Y2.543 I0.0261 J0.0347
G1 X3.4908 Y2.5438
G3 X3.4932 Y2.5593 I-0.0051 J0.0087
G2 X3.405 Y2.6717 I0.7542 J0.6826
G3 X3.388 Y2.6745 I-0.0098 J-0.0066
G2 X3.2924 Y2.6094 I-0.6601 J0.8663
G3 X3.2785 Y2.5847 I0.015 J-0.0247
G1 Y2.4476
G3 X3.3032 Y2.4335 I0.0164 J0.
G1 X3.4893 Y2.543
G2 X3.5467 Y2.5512 I0.0387 J-0.0657
G3 X3.5761 Y2.6012 I0.0074 J0.0293
G2 X3.4262 Y2.809 I0.6939 J0.6584
G3 X3.4115 Y2.8114 I-0.0083 J-0.0044
G2 X3.2031 Y2.6611 I-0.6717 J0.7121
G3 X3.1892 Y2.638 I0.0124 J-0.0232
G1 Y2.3969
G3 X3.203 Y2.3742 I0.0255 J0.
G2 X3.2782 Y2.3312 I-0.4707 J-0.9103
G3 X3.3048 Y2.3308 I0.0136 J0.0216
G1 X3.6373 Y2.5265
G3 X3.6387 Y2.5409 I-0.0045 J0.0077
G2 X3.5761 Y2.6012 I0.6312 J0.7187
X3.5635 Y2.6805 I0.0514 J0.0488
G3 X3.5568 Y2.7606 I-0.072 J0.0343
G2 X3.451 Y2.9663 I0.7043 J0.4923
G3 X3.4387 Y2.9684 I-0.0067 J-0.0024
G2 X3.1165 Y2.7144 I-0.6975 J0.5535
G3 X3.1028 Y2.6928 I0.01 J-0.0216
G1 Y2.3411
G3 X3.1165 Y2.32 I0.0232 J0.
G2 X3.2753 Y2.2291 I-0.3753 J-0.8405
G3 X3.3005 Y2.228 I0.0134 J0.0189
G1 X3.7458 Y2.49
G3 X3.7654 Y2.5183 I-0.0209 J0.0354
G1 X3.7679 Y2.5321
G3 X3.7581 Y2.5562 I-0.0241 J0.0042
G2 X3.5568 Y2.7606 I0.503 J0.6966
X3.5563 Y2.8348 I0.0537 J0.0375
G3 X3.5614 Y2.9089 I-0.0612 J0.0414
G2 X3.4988 Y3.0883 I0.7016 J0.3454
G3 X3.4811 Y3.1052 I-0.0215 J-0.0047
G1 X3.4557 Y3.1097
G3 X3.4337 Y3.0998 I-0.0037 J-0.0211
G2 X3.0368 Y2.7668 I-0.6949 J0.4251
G3 X3.0232 Y2.7468 I0.0078 J-0.0199
G1 Y2.2863
G3 X3.0367 Y2.2667 I0.0209 J0.
G2 X3.2699 Y2.1334 I-0.2999 J-0.795
G3 X3.2937 Y2.1316 I0.0131 J0.0163
G1 X3.8178 Y2.44
G3 X3.8374 Y2.4683 I-0.0209 J0.0354
G1 X3.8555 Y2.5706
G3 X3.8456 Y2.593 I-0.0216 J0.0038
G2 X3.5614 Y2.9089 I0.4174 J0.6613
X3.5757 Y3.003 I0.0747 J0.0368
G3 X3.6003 Y3.095 I-0.0721 J0.0686
G2 X3.5844 Y3.189 I0.6648 J0.1609
G1 X3.3864 Y3.224
G2 X2.9227 Y2.8349 I-0.6477 J0.301
G1 Y2.1974
G2 X3.268 Y2. I-0.184 J-0.7224
G1 X3.9037 Y2.374
G2 X3.9314 Y2.3821 I0.0299 J-0.0508
X3.9293 Y2.4109 I0.056 J0.0185
G1 X3.9695 Y2.639
G2 X3.6003 Y3.095 I0.2956 J0.6168
G3 X3.4934 Y3.1014 Z-0.1145 I-0.0545 J-0.0132 F20.
G1 X3.3122 Y2.6163 Z-0.1307
G3 X3.3931 Y2.5484 Z-0.135 I0.0525 J-0.0196
G1 X3.4083 Y2.5573 F30.
G3 X3.4112 Y2.5733 I-0.0055 J0.0093
G2 X3.3934 Y2.5963 I0.9372 J0.7474
G3 X3.3751 Y2.5992 I-0.0107 J-0.0081
G2 X3.3423 Y2.5775 I-0.6713 J0.9785
G3 X3.3319 Y2.5585 I0.0121 J-0.019
G1 Y2.5252
G3 X3.343 Y2.5188 I0.0073 J0.
G1 X3.3931 Y2.5484
G2 X3.4412 Y2.5457 I0.022 J-0.0374
G3 X3.4893 Y2.543 I0.0261 J0.0347
G1 X3.4908 Y2.5438
G3 X3.4932 Y2.5593 I-0.0051 J0.0087
G2 X3.405 Y2.6717 I0.7542 J0.6826
G3 X3.388 Y2.6745 I-0.0098 J-0.0066
G2 X3.2924 Y2.6094 I-0.6601 J0.8663
G3 X3.2785 Y2.5847 I0.015 J-0.0247
G1 Y2.4476
G3 X3.3032 Y2.4335 I0.0164 J0.
G1 X3.4893 Y2.543
G2 X3.5467 Y2.5512 I0.0387 J-0.0657
G3 X3.5761 Y2.6012 I0.0074 J0.0293
G2 X3.4262 Y2.809 I0.6939 J0.6584
G3 X3.4115 Y2.8114 I-0.0083 J-0.0044
G2 X3.2031 Y2.6611 I-0.6717 J0.7121
G3 X3.1892 Y2.638 I0.0124 J-0.0232
G1 Y2.3969
G3 X3.203 Y2.3742 I0.0255 J0.
G2 X3.2782 Y2.3312 I-0.4707 J-0.9103
G3 X3.3048 Y2.3308 I0.0136 J0.0216
G1 X3.6373 Y2.5265
G3 X3.6387 Y2.5409 I-0.0045 J0.0077
G2 X3.5761 Y2.6012 I0.6312 J0.7187
X3.5635 Y2.6805 I0.0514 J0.0488
G3 X3.5568 Y2.7606 I-0.072 J0.0343
G2 X3.451 Y2.9663 I0.7043 J0.4923
G3 X3.4387 Y2.9684 I-0.0067 J-0.0024
G2 X3.1165 Y2.7144 I-0.6975 J0.5535
G3 X3.1028 Y2.6928 I0.01 J-0.0216
G1 Y2.3411
G3 X3.1165 Y2.32 I0.0232 J0.
G2 X3.2753 Y2.2291 I-0.3753 J-0.8405
G3 X3.3005 Y2.228 I0.0134 J0.0189
G1 X3.7458 Y2.49
G3 X3.7654 Y2.5183 I-0.0209 J0.0354
G1 X3.7679 Y2.5321
G3 X3.7581 Y2.5562 I-0.0241 J0.0042
G2 X3.5568 Y2.7606 I0.503 J0.6966
X3.5563 Y2.8348 I0.0537 J0.0375
G3 X3.5614 Y2.9089 I-0.0612 J0.0414
G2 X3.4988 Y3.0883 I0.7016 J0.3454
G3 X3.4811 Y3.1052 I-0.0215 J-0.0047
G1 X3.4557 Y3.1097
G3 X3.4337 Y3.0998 I-0.0037 J-0.0211
G2 X3.0368 Y2.7668 I-0.6949 J0.4251
G3 X3.0232 Y2.7468 I0.0078 J-0.0199
G1 Y2.2863
G3 X3.0367 Y2.2667 I0.0209 J0.
G2 X3.2699 Y2.1334 I-0.2999 J-0.795
G3 X3.2937 Y2.1316 I0.0131 J0.0163
G1 X3.8178 Y2.44
G3 X3.8374 Y2.4683 I-0.0209 J0.0354
G1 X3.8555 Y2.5706
G3 X3.8456 Y2.593 I-0.0216 J0.0038
G2 X3.5614 Y2.9089 I0.4174 J0.6613
X3.5757 Y3.003 I0.0747 J0.0368
G3 X3.6003 Y3.095 I-0.0721 J0.0686
G2 X3.5844 Y3.189 I0.6648 J0.1609
G1 X3.3864 Y3.224
G2 X2.9227 Y2.8349 I-0.6477 J0.301
G1 Y2.1974
G2 X3.268 Y2. I-0.184 J-0.7224
G1 X3.9037 Y2.374
G2 X3.9314 Y2.3821 I0.0299 J-0.0508
X3.9293 Y2.4109 I0.056 J0.0185
G1 X3.9695 Y2.639
G2 X3.6003 Y3.095 I0.2956 J0.6168
G3 X3.4934 Y3.1014 Z-0.1395 I-0.0545 J-0.0132 F20.
G1 X3.3122 Y2.6163 Z-0.1557
G3 X3.3931 Y2.5484 Z-0.16 I0.0525 J-0.0196
G1 X3.4083 Y2.5573 F30.
G3 X3.4112 Y2.5733 I-0.0055 J0.0093
G2 X3.3934 Y2.5963 I0.9372 J0.7474
G3 X3.3751 Y2.5992 I-0.0107 J-0.0081
G2 X3.3423 Y2.5775 I-0.6713 J0.9785
G3 X3.3319 Y2.5585 I0.0121 J-0.019
G1 Y2.5252
G3 X3.343 Y2.5188 I0.0073 J0.
G1 X3.3931 Y2.5484
G2 X3.4412 Y2.5457 I0.022 J-0.0374
G3 X3.4893 Y2.543 I0.0261 J0.0347
G1 X3.4908 Y2.5438
G3 X3.4932 Y2.5593 I-0.0051 J0.0087
G2 X3.405 Y2.6717 I0.7542 J0.6826
G3 X3.388 Y2.6745 I-0.0098 J-0.0066
G2 X3.2924 Y2.6094 I-0.6601 J0.8663
G3 X3.2785 Y2.5847 I0.015 J-0.0247
G1 Y2.4476
G3 X3.3032 Y2.4335 I0.0164 J0.
G1 X3.4893 Y2.543
G2 X3.5467 Y2.5512 I0.0387 J-0.0657
G3 X3.5761 Y2.6012 I0.0074 J0.0293
G2 X3.4262 Y2.809 I0.6939 J0.6584
G3 X3.4115 Y2.8114 I-0.0083 J-0.0044
G2 X3.2031 Y2.6611 I-0.6717 J0.7121
G3 X3.1892 Y2.638 I0.0124 J-0.0232
G1 Y2.3969
G3 X3.203 Y2.3742 I0.0255 J0.
G2 X3.2782 Y2.3312 I-0.4707 J-0.9103
G3 X3.3048 Y2.3308 I0.0136 J0.0216
G1 X3.6373 Y2.5265
G3 X3.6387 Y2.5409 I-0.0045 J0.0077
G2 X3.5761 Y2.6012 I0.6312 J0.7187
X3.5635 Y2.6805 I0.0514 J0.0488
G3 X3.5568 Y2.7606 I-0.072 J0.0343
G2 X3.451 Y2.9663 I0.7043 J0.4923
G3 X3.4387 Y2.9684 I-0.0067 J-0.0024
G2 X3.1165 Y2.7144 I-0.6975 J0.5535
G3 X3.1028 Y2.6928 I0.01 J-0.0216
G1 Y2.3411
G3 X3.1165 Y2.32 I0.0232 J0.
G2 X3.2753 Y2.2291 I-0.3753 J-0.8405
G3 X3.3005 Y2.228 I0.0134 J0.0189
G1 X3.7458 Y2.49
G3 X3.7654 Y2.5183 I-0.0209 J0.0354
G1 X3.7679 Y2.5321
G3 X3.7581 Y2.5562 I-0.0241 J0.0042
G2 X3.5568 Y2.7606 I0.503 J0.6966
X3.5563 Y2.8348 I0.0537 J0.0375
G3 X3.5614 Y2.9089 I-0.0612 J0.0414
G2 X3.4988 Y3.0883 I0.7016 J0.3454
G3 X3.4811 Y3.1052 I-0.0215 J-0.0047
G1 X3.4557 Y3.1097
G3 X3.4337 Y3.0998 I-0.0037 J-0.0211
G2 X3.0368 Y2.7668 I-0.6949 J0.4251
G3 X3.0232 Y2.7468 I0.0078 J-0.0199
G1 Y2.2863
G3 X3.0367 Y2.2667 I0.0209 J0.
G2 X3.2699 Y2.1334 I-0.2999 J-0.795
G3 X3.2937 Y2.1316 I0.0131 J0.0163
G1 X3.8178 Y2.44
G3 X3.8374 Y2.4683 I-0.0209 J0.0354
G1 X3.8555 Y2.5706
G3 X3.8456 Y2.593 I-0.0216 J0.0038
G2 X3.5614 Y2.9089 I0.4174 J0.6613
X3.5757 Y3.003 I0.0747 J0.0368
G3 X3.6003 Y3.095 I-0.0721 J0.0686
G2 X3.5844 Y3.189 I0.6648 J0.1609
G1 X3.3864 Y3.224
G2 X2.9227 Y2.8349 I-0.6477 J0.301
G1 Y2.1974
G2 X3.268 Y2. I-0.184 J-0.7224
G1 X3.9037 Y2.374
G2 X3.9314 Y2.3821 I0.0299 J-0.0508
X3.9293 Y2.4109 I0.056 J0.0185
G1 X3.9695 Y2.639
G2 X3.6003 Y3.095 I0.2956 J0.6168
G3 X3.4934 Y3.1014 Z-0.1645 I-0.0545 J-0.0132 F20.
G1 X3.3122 Y2.6163 Z-0.1807
G3 X3.3931 Y2.5484 Z-0.185 I0.0525 J-0.0196
G1 X3.4083 Y2.5573 F30.
G3 X3.4112 Y2.5733 I-0.0055 J0.0093
G2 X3.3934 Y2.5963 I0.9372 J0.7474
G3 X3.3751 Y2.5992 I-0.0107 J-0.0081
G2 X3.3423 Y2.5775 I-0.6713 J0.9785
G3 X3.3319 Y2.5585 I0.0121 J-0.019
G1 Y2.5252
G3 X3.343 Y2.5188 I0.0073 J0.
G1 X3.3931 Y2.5484
G2 X3.4412 Y2.5457 I0.022 J-0.0374
G3 X3.4893 Y2.543 I0.0261 J0.0347
G1 X3.4908 Y2.5438
G3 X3.4932 Y2.5593 I-0.0051 J0.0087
G2 X3.405 Y2.6717 I0.7542 J0.6826
G3 X3.388 Y2.6745 I-0.0098 J-0.0066
G2 X3.2924 Y2.6094 I-0.6601 J0.8663
G3 X3.2785 Y2.5847 I0.015 J-0.0247
G1 Y2.4476
G3 X3.3032 Y2.4335 I0.0164 J0.
G1 X3.4893 Y2.543
G2 X3.5467 Y2.5512 I0.0387 J-0.0657
G3 X3.5761 Y2.6012 I0.0074 J0.0293
G2 X3.4262 Y2.809 I0.6939 J0.6584
G3 X3.4115 Y2.8114 I-0.0083 J-0.0044
G2 X3.2031 Y2.6611 I-0.6717 J0.7121
G3 X3.1892 Y2.638 I0.0124 J-0.0232
G1 Y2.3969
G3 X3.203 Y2.3742 I0.0255 J0.
G2 X3.2782 Y2.3312 I-0.4707 J-0.9103
G3 X3.3048 Y2.3308 I0.0136 J0.0216
G1 X3.6373 Y2.5265
G3 X3.6387 Y2.5409 I-0.0045 J0.0077
G2 X3.5761 Y2.6012 I0.6312 J0.7187
X3.5635 Y2.6805 I0.0514 J0.0488
G3 X3.5568 Y2.7606 I-0.072 J0.0343
G2 X3.451 Y2.9663 I0.7043 J0.4923
G3 X3.4387 Y2.9684 I-0.0067 J-0.0024
G2 X3.1165 Y2.7144 I-0.6975 J0.5535
G3 X3.1028 Y2.6928 I0.01 J-0.0216
G1 Y2.3411
G3 X3.1165 Y2.32 I0.0232 J0.
G2 X3.2753 Y2.2291 I-0.3753 J-0.8405
G3 X3.3005 Y2.228 I0.0134 J0.0189
G1 X3.7458 Y2.49
G3 X3.7654 Y2.5183 I-0.0209 J0.0354
G1 X3.7679 Y2.5321
G3 X3.7581 Y2.5562 I-0.0241 J0.0042
G2 X3.5568 Y2.7606 I0.503 J0.6966
X3.5563 Y2.8348 I0.0537 J0.0375
G3 X3.5614 Y2.9089 I-0.0612 J0.0414
G2 X3.4988 Y3.0883 I0.7016 J0.3454
G3 X3.4811 Y3.1052 I-0.0215 J-0.0047
G1 X3.4557 Y3.1097
G3 X3.4337 Y3.0998 I-0.0037 J-0.0211
G2 X3.0368 Y2.7668 I-0.6949 J0.4251
G3 X3.0232 Y2.7468 I0.0078 J-0.0199
G1 Y2.2863
G3 X3.0367 Y2.2667 I0.0209 J0.
G2 X3.2699 Y2.1334 I-0.2999 J-0.795
G3 X3.2937 Y2.1316 I0.0131 J0.0163
G1 X3.8178 Y2.44
G3 X3.8374 Y2.4683 I-0.0209 J0.0354
G1 X3.8555 Y2.5706
G3 X3.8456 Y2.593 I-0.0216 J0.0038
G2 X3.5614 Y2.9089 I0.4174 J0.6613
X3.5757 Y3.003 I0.0747 J0.0368
G3 X3.6003 Y3.095 I-0.0721 J0.0686
G2 X3.5844 Y3.189 I0.6648 J0.1609
G1 X3.3864 Y3.224
G2 X2.9227 Y2.8349 I-0.6477 J0.301
G1 Y2.1974
G2 X3.268 Y2. I-0.184 J-0.7224
G1 X3.9037 Y2.374
G2 X3.9314 Y2.3821 I0.0299 J-0.0508
X3.9293 Y2.4109 I0.056 J0.0185
G1 X3.9695 Y2.639
G2 X3.6003 Y3.095 I0.2956 J0.6168
G3 X3.4934 Y3.1014 Z-0.1895 I-0.0545 J-0.0132 F20.
G1 X3.3122 Y2.6163 Z-0.2057
G3 X3.3931 Y2.5484 Z-0.21 I0.0525 J-0.0196
G1 X3.4083 Y2.5573 F30.
G3 X3.4112 Y2.5733 I-0.0055 J0.0093
G2 X3.3934 Y2.5963 I0.9372 J0.7474
G3 X3.3751 Y2.5992 I-0.0107 J-0.0081
G2 X3.3423 Y2.5775 I-0.6713 J0.9785
G3 X3.3319 Y2.5585 I0.0121 J-0.019
G1 Y2.5252
G3 X3.343 Y2.5188 I0.0073 J0.
G1 X3.3931 Y2.5484
G2 X3.4412 Y2.5457 I0.022 J-0.0374
G3 X3.4893 Y2.543 I0.0261 J0.0347
G1 X3.4908 Y2.5438
G3 X3.4932 Y2.5593 I-0.0051 J0.0087
G2 X3.405 Y2.6717 I0.7542 J0.6826
G3 X3.388 Y2.6745 I-0.0098 J-0.0066
G2 X3.2924 Y2.6094 I-0.6601 J0.8663
G3 X3.2785 Y2.5847 I0.015 J-0.0247
G1 Y2.4476
G3 X3.3032 Y2.4335 I0.0164 J0.
G1 X3.4893 Y2.543
G2 X3.5467 Y2.5512 I0.0387 J-0.0657
G3 X3.5761 Y2.6012 I0.0074 J0.0293
G2 X3.4262 Y2.809 I0.6939 J0.6584
G3 X3.4115 Y2.8114 I-0.0083 J-0.0044
G2 X3.2031 Y2.6611 I-0.6717 J0.7121
G3 X3.1892 Y2.638 I0.0124 J-0.0232
G1 Y2.3969
G3 X3.203 Y2.3742 I0.0255 J0.
G2 X3.2782 Y2.3312 I-0.4707 J-0.9103
G3 X3.3048 Y2.3308 I0.0136 J0.0216
G1 X3.6373 Y2.5265
G3 X3.6387 Y2.5409 I-0.0045 J0.0077
G2 X3.5761 Y2.6012 I0.6312 J0.7187
X3.5635 Y2.6805 I0.0514 J0.0488
G3 X3.5568 Y2.7606 I-0.072 J0.0343
G2 X3.451 Y2.9663 I0.7043 J0.4923
G3 X3.4387 Y2.9684 I-0.0067 J-0.0024
G2 X3.1165 Y2.7144 I-0.6975 J0.5535
G3 X3.1028 Y2.6928 I0.01 J-0.0216
G1 Y2.3411
G3 X3.1165 Y2.32 I0.0232 J0.
G2 X3.2753 Y2.2291 I-0.3753 J-0.8405
G3 X3.3005 Y2.228 I0.0134 J0.0189
G1 X3.7458 Y2.49
G3 X3.7654 Y2.5183 I-0.0209 J0.0354
G1 X3.7679 Y2.5321
G3 X3.7581 Y2.5562 I-0.0241 J0.0042
G2 X3.5568 Y2.7606 I0.503 J0.6966
X3.5563 Y2.8348 I0.0537 J0.0375
G3 X3.5614 Y2.9089 I-0.0612 J0.0414
G2 X3.4988 Y3.0883 I0.7016 J0.3454
G3 X3.4811 Y3.1052 I-0.0215 J-0.0047
G1 X3.4557 Y3.1097
G3 X3.4337 Y3.0998 I-0.0037 J-0.0211
G2 X3.0368 Y2.7668 I-0.6949 J0.4251
G3 X3.0232 Y2.7468 I0.0078 J-0.0199
G1 Y2.2863
G3 X3.0367 Y2.2667 I0.0209 J0.
G2 X3.2699 Y2.1334 I-0.2999 J-0.795
G3 X3.2937 Y2.1316 I0.0131 J0.0163
G1 X3.8178 Y2.44
G3 X3.8374 Y2.4683 I-0.0209 J0.0354
G1 X3.8555 Y2.5706
G3 X3.8456 Y2.593 I-0.0216 J0.0038
G2 X3.5614 Y2.9089 I0.4174 J0.6613
X3.5757 Y3.003 I0.0747 J0.0368
G3 X3.6003 Y3.095 I-0.0721 J0.0686
G2 X3.5844 Y3.189 I0.6648 J0.1609
G1 X3.3864 Y3.224
G2 X2.9227 Y2.8349 I-0.6477 J0.301
G1 Y2.1974
G2 X3.268 Y2. I-0.184 J-0.7224
G1 X3.9037 Y2.374
G2 X3.9314 Y2.3821 I0.0299 J-0.0508
X3.9293 Y2.4109 I0.056 J0.0185
G1 X3.9695 Y2.639
G2 X3.6003 Y3.095 I0.2956 J0.6168
G3 X3.4934 Y3.1014 Z-0.2145 I-0.0545 J-0.0132 F20.
G1 X3.3122 Y2.6163 Z-0.2307
G3 X3.3931 Y2.5484 Z-0.235 I0.0525 J-0.0196
G1 X3.4083 Y2.5573 F30.
G3 X3.4112 Y2.5733 I-0.0055 J0.0093
G2 X3.3934 Y2.5963 I0.9372 J0.7474
G3 X3.3751 Y2.5992 I-0.0107 J-0.0081
G2 X3.3423 Y2.5775 I-0.6713 J0.9785
G3 X3.3319 Y2.5585 I0.0121 J-0.019
G1 Y2.5252
G3 X3.343 Y2.5188 I0.0073 J0.
G1 X3.3931 Y2.5484
G2 X3.4412 Y2.5457 I0.022 J-0.0374
G3 X3.4893 Y2.543 I0.0261 J0.0347
G1 X3.4908 Y2.5438
G3 X3.4932 Y2.5593 I-0.0051 J0.0087
G2 X3.405 Y2.6717 I0.7542 J0.6826
G3 X3.388 Y2.6745 I-0.0098 J-0.0066
G2 X3.2924 Y2.6094 I-0.6601 J0.8663
G3 X3.2785 Y2.5847 I0.015 J-0.0247
G1 Y2.4476
G3 X3.3032 Y2.4335 I0.0164 J0.
G1 X3.4893 Y2.543
G2 X3.5467 Y2.5512 I0.0387 J-0.0657
G3 X3.5761 Y2.6012 I0.0074 J0.0293
G2 X3.4262 Y2.809 I0.6939 J0.6584
G3 X3.4115 Y2.8114 I-0.0083 J-0.0044
G2 X3.2031 Y2.6611 I-0.6717 J0.7121
G3 X3.1892 Y2.638 I0.0124 J-0.0232
G1 Y2.3969
G3 X3.203 Y2.3742 I0.0255 J0.
G2 X3.2782 Y2.3312 I-0.4707 J-0.9103
G3 X3.3048 Y2.3308 I0.0136 J0.0216
G1 X3.6373 Y2.5265
G3 X3.6387 Y2.5409 I-0.0045 J0.0077
G2 X3.5761 Y2.6012 I0.6312 J0.7187
X3.5635 Y2.6805 I0.0514 J0.0488
G3 X3.5568 Y2.7606 I-0.072 J0.0343
G2 X3.451 Y2.9663 I0.7043 J0.4923
G3 X3.4387 Y2.9684 I-0.0067 J-0.0024
G2 X3.1165 Y2.7144 I-0.6975 J0.5535
G3 X3.1028 Y2.6928 I0.01 J-0.0216
G1 Y2.3411
G3 X3.1165 Y2.32 I0.0232 J0.
G2 X3.2753 Y2.2291 I-0.3753 J-0.8405
G3 X3.3005 Y2.228 I0.0134 J0.0189
G1 X3.7458 Y2.49
G3 X3.7654 Y2.5183 I-0.0209 J0.0354
G1 X3.7679 Y2.5321
G3 X3.7581 Y2.5562 I-0.0241 J0.0042
G2 X3.5568 Y2.7606 I0.503 J0.6966
X3.5563 Y2.8348 I0.0537 J0.0375
G3 X3.5614 Y2.9089 I-0.0612 J0.0414
G2 X3.4988 Y3.0883 I0.7016 J0.3454
G3 X3.4811 Y3.1052 I-0.0215 J-0.0047
G1 X3.4557 Y3.1097
G3 X3.4337 Y3.0998 I-0.0037 J-0.0211
G2 X3.0368 Y2.7668 I-0.6949 J0.4251
G3 X3.0232 Y2.7468 I0.0078 J-0.0199
G1 Y2.2863
G3 X3.0367 Y2.2667 I0.0209 J0.
G2 X3.2699 Y2.1334 I-0.2999 J-0.795
G3 X3.2937 Y2.1316 I0.0131 J0.0163
G1 X3.8178 Y2.44
G3 X3.8374 Y2.4683 I-0.0209 J0.0354
G1 X3.8555 Y2.5706
G3 X3.8456 Y2.593 I-0.0216 J0.0038
G2 X3.5614 Y2.9089 I0.4174 J0.6613
X3.5757 Y3.003 I0.0747 J0.0368
G3 X3.6003 Y3.095 I-0.0721 J0.0686
G2 X3.5844 Y3.189 I0.6648 J0.1609
G1 X3.3864 Y3.224
G2 X2.9227 Y2.8349 I-0.6477 J0.301
G1 Y2.1974
G2 X3.268 Y2. I-0.184 J-0.7224
G1 X3.9037 Y2.374
G2 X3.9314 Y2.3821 I0.0299 J-0.0508
X3.9293 Y2.4109 I0.056 J0.0185
G1 X3.9695 Y2.639
G2 X3.6003 Y3.095 I0.2956 J0.6168
G3 X3.4934 Y3.1014 Z-0.2395 I-0.0545 J-0.0132 F20.
G1 X3.3122 Y2.6163 Z-0.2557
G3 X3.3931 Y2.5484 Z-0.26 I0.0525 J-0.0196
G1 X3.4083 Y2.5573 F30.
G3 X3.4112 Y2.5733 I-0.0055 J0.0093
G2 X3.3934 Y2.5963 I0.9372 J0.7474
G3 X3.3751 Y2.5992 I-0.0107 J-0.0081
G2 X3.3423 Y2.5775 I-0.6713 J0.9785
G3 X3.3319 Y2.5585 I0.0121 J-0.019
G1 Y2.5252
G3 X3.343 Y2.5188 I0.0073 J0.
G1 X3.3931 Y2.5484
G2 X3.4412 Y2.5457 I0.022 J-0.0374
G3 X3.4893 Y2.543 I0.0261 J0.0347
G1 X3.4908 Y2.5438
G3 X3.4932 Y2.5593 I-0.0051 J0.0087
G2 X3.405 Y2.6717 I0.7542 J0.6826
G3 X3.388 Y2.6745 I-0.0098 J-0.0066
G2 X3.2924 Y2.6094 I-0.6601 J0.8663
G3 X3.2785 Y2.5847 I0.015 J-0.0247
G1 Y2.4476
G3 X3.3032 Y2.4335 I0.0164 J0.
G1 X3.4893 Y2.543
G2 X3.5467 Y2.5512 I0.0387 J-0.0657
G3 X3.5761 Y2.6012 I0.0074 J0.0293
G2 X3.4262 Y2.809 I0.6939 J0.6584
G3 X3.4115 Y2.8114 I-0.0083 J-0.0044
G2 X3.2031 Y2.6611 I-0.6717 J0.7121
G3 X3.1892 Y2.638 I0.0124 J-0.0232
G1 Y2.3969
G3 X3.203 Y2.3742 I0.0255 J0.
G2 X3.2782 Y2.3312 I-0.4707 J-0.9103
G3 X3.3048 Y2.3308 I0.0136 J0.0216
G1 X3.6373 Y2.5265
G3 X3.6387 Y2.5409 I-0.0045 J0.0077
G2 X3.5761 Y2.6012 I0.6312 J0.7187
X3.5635 Y2.6805 I0.0514 J0.0488
G3 X3.5568 Y2.7606 I-0.072 J0.0343
G2 X3.451 Y2.9663 I0.7043 J0.4923
G3 X3.4387 Y2.9684 I-0.0067 J-0.0024
G2 X3.1165 Y2.7144 I-0.6975 J0.5535
G3 X3.1028 Y2.6928 I0.01 J-0.0216
G1 Y2.3411
G3 X3.1165 Y2.32 I0.0232 J0.
G2 X3.2753 Y2.2291 I-0.3753 J-0.8405
G3 X3.3005 Y2.228 I0.0134 J0.0189
G1 X3.7458 Y2.49
G3 X3.7654 Y2.5183 I-0.0209 J0.0354
G1 X3.7679 Y2.5321
G3 X3.7581 Y2.5562 I-0.0241 J0.0042
G2 X3.5568 Y2.7606 I0.503 J0.6966
X3.5563 Y2.8348 I0.0537 J0.0375
G3 X3.5614 Y2.9089 I-0.0612 J0.0414
G2 X3.4988 Y3.0883 I0.7016 J0.3454
G3 X3.4811 Y3.1052 I-0.0215 J-0.0047
G1 X3.4557 Y3.1097
G3 X3.4337 Y3.0998 I-0.0037 J-0.0211
G2 X3.0368 Y2.7668 I-0.6949 J0.4251
G3 X3.0232 Y2.7468 I0.0078 J-0.0199
G1 Y2.2863
G3 X3.0367 Y2.2667 I0.0209 J0.
G2 X3.2699 Y2.1334 I-0.2999 J-0.795
G3 X3.2937 Y2.1316 I0.0131 J0.0163
G1 X3.8178 Y2.44
G3 X3.8374 Y2.4683 I-0.0209 J0.0354
G1 X3.8555 Y2.5706
G3 X3.8456 Y2.593 I-0.0216 J0.0038
G2 X3.5614 Y2.9089 I0.4174 J0.6613
X3.5757 Y3.003 I0.0747 J0.0368
G3 X3.6003 Y3.095 I-0.0721 J0.0686
G2 X3.5844 Y3.189 I0.6648 J0.1609
G1 X3.3864 Y3.224
G2 X2.9227 Y2.8349 I-0.6477 J0.301
G1 Y2.1974
G2 X3.268 Y2. I-0.184 J-0.7224
G1 X3.9037 Y2.374
G2 X3.9314 Y2.3821 I0.0299 J-0.0508
X3.9293 Y2.4109 I0.056 J0.0185
G1 X3.9695 Y2.639
G2 X3.6003 Y3.095 I0.2956 J0.6168
G3 X3.4934 Y3.1014 Z-0.2618 I-0.0545 J-0.0132 F20.
G1 X3.3122 Y2.6163 Z-0.2683
G3 X3.3931 Y2.5484 Z-0.27 I0.0525 J-0.0196
G1 X3.4083 Y2.5573 F30.
G3 X3.4112 Y2.5733 I-0.0055 J0.0093
G2 X3.3934 Y2.5963 I0.9372 J0.7474
G3 X3.3751 Y2.5992 I-0.0107 J-0.0081
G2 X3.3423 Y2.5775 I-0.6713 J0.9785
G3 X3.3319 Y2.5585 I0.0121 J-0.019
G1 Y2.5252
G3 X3.343 Y2.5188 I0.0073 J0.
G1 X3.3931 Y2.5484
G2 X3.4412 Y2.5457 I0.022 J-0.0374
G3 X3.4893 Y2.543 I0.0261 J0.0347
G1 X3.4908 Y2.5438
G3 X3.4932 Y2.5593 I-0.0051 J0.0087
G2 X3.405 Y2.6717 I0.7542 J0.6826
G3 X3.388 Y2.6745 I-0.0098 J-0.0066
G2 X3.2924 Y2.6094 I-0.6601 J0.8663
G3 X3.2785 Y2.5847 I0.015 J-0.0247
G1 Y2.4476
G3 X3.3032 Y2.4335 I0.0164 J0.
G1 X3.4893 Y2.543
G2 X3.5467 Y2.5512 I0.0387 J-0.0657
G3 X3.5761 Y2.6012 I0.0074 J0.0293
G2 X3.4262 Y2.809 I0.6939 J0.6584
G3 X3.4115 Y2.8114 I-0.0083 J-0.0044
G2 X3.2031 Y2.6611 I-0.6717 J0.7121
G3 X3.1892 Y2.638 I0.0124 J-0.0232
G1 Y2.3969
G3 X3.203 Y2.3742 I0.0255 J0.
G2 X3.2782 Y2.3312 I-0.4707 J-0.9103
G3 X3.3048 Y2.3308 I0.0136 J0.0216
G1 X3.6373 Y2.5265
G3 X3.6387 Y2.5409 I-0.0045 J0.0077
G2 X3.5761 Y2.6012 I0.6312 J0.7187
X3.5635 Y2.6805 I0.0514 J0.0488
G3 X3.5568 Y2.7606 I-0.072 J0.0343
G2 X3.451 Y2.9663 I0.7043 J0.4923
G3 X3.4387 Y2.9684 I-0.0067 J-0.0024
G2 X3.1165 Y2.7144 I-0.6975 J0.5535
G3 X3.1028 Y2.6928 I0.01 J-0.0216
G1 Y2.3411
G3 X3.1165 Y2.32 I0.0232 J0.
G2 X3.2753 Y2.2291 I-0.3753 J-0.8405
G3 X3.3005 Y2.228 I0.0134 J0.0189
G1 X3.7458 Y2.49
G3 X3.7654 Y2.5183 I-0.0209 J0.0354
G1 X3.7679 Y2.5321
G3 X3.7581 Y2.5562 I-0.0241 J0.0042
G2 X3.5568 Y2.7606 I0.503 J0.6966
X3.5563 Y2.8348 I0.0537 J0.0375
G3 X3.5614 Y2.9089 I-0.0612 J0.0414
G2 X3.4988 Y3.0883 I0.7016 J0.3454
G3 X3.4811 Y3.1052 I-0.0215 J-0.0047
G1 X3.4557 Y3.1097
G3 X3.4337 Y3.0998 I-0.0037 J-0.0211
G2 X3.0368 Y2.7668 I-0.6949 J0.4251
G3 X3.0232 Y2.7468 I0.0078 J-0.0199
G1 Y2.2863
G3 X3.0367 Y2.2667 I0.0209 J0.
G2 X3.2699 Y2.1334 I-0.2999 J-0.795
G3 X3.2937 Y2.1316 I0.0131 J0.0163
G1 X3.8178 Y2.44
G3 X3.8374 Y2.4683 I-0.0209 J0.0354
G1 X3.8555 Y2.5706
G3 X3.8456 Y2.593 I-0.0216 J0.0038
G2 X3.5614 Y2.9089 I0.4174 J0.6613
X3.5757 Y3.003 I0.0747 J0.0368
G3 X3.6003 Y3.095 I-0.0721 J0.0686
G2 X3.5844 Y3.189 I0.6648 J0.1609
G1 X3.3864 Y3.224
G2 X2.9227 Y2.8349 I-0.6477 J0.301
G1 Y2.1974
G2 X3.268 Y2. I-0.184 J-0.7224
G1 X3.9037 Y2.374
G2 X3.9314 Y2.3821 I0.0299 J-0.0508
X3.9293 Y2.4109 I0.056 J0.0185
G1 X3.9695 Y2.639
G2 X3.6003 Y3.095 I0.2956 J0.6168
G1 X3.5996 Y3.0971 Z-0.2696
X3.5985 Y3.0991 Z-0.2691
X3.5972 Y3.1005 Z-0.2678
X3.5958 Y3.1018 Z-0.2665
X3.5936 Y3.103 Z-0.2627
X3.5927 Y3.1034 Z-0.2582
G0 Z0.24
X4.0873 Y2.2181
G1 Z0.1518 F30.
X4.0888 Y2.2187 Z0.146 F20.
X4.0926 Y2.2203 Z0.1417
X4.0976 Y2.223 Z0.14
G3 X4.04 Y2.3191 Z0.1339 I-0.0288 J0.0481
X4.0976 Y2.223 Z0.1277 I0.0288 J-0.0481
X4.04 Y2.3191 Z0.1216 I-0.0288 J0.0481
X4.0976 Y2.223 Z0.1154 I0.0288 J-0.0481
X4.04 Y2.3191 Z0.1093 I-0.0288 J0.0481
X4.0976 Y2.223 Z0.1031 I0.0288 J-0.0481
X4.04 Y2.3191 Z0.097 I-0.0288 J0.0481
X4.0976 Y2.223 Z0.0908 I0.0288 J-0.0481
X4.04 Y2.3191 Z0.0847 I-0.0288 J0.0481
X4.0976 Y2.223 Z0.0785 I0.0288 J-0.0481
X4.04 Y2.3191 Z0.0724 I-0.0288 J0.0481
X4.0976 Y2.223 Z0.0662 I0.0288 J-0.0481
X4.04 Y2.3191 Z0.0601 I-0.0288 J0.0481
X4.0976 Y2.223 Z0.0539 I0.0288 J-0.0481
X4.04 Y2.3191 Z0.0478 I-0.0288 J0.0481
X4.0976 Y2.223 Z0.0416 I0.0288 J-0.0481
X4.04 Y2.3191 Z0.0355 I-0.0288 J0.0481
X4.0976 Y2.223 Z0.0293 I0.0288 J-0.0481
X4.04 Y2.3191 Z0.0232 I-0.0288 J0.0481
X4.0976 Y2.223 Z0.017 I0.0288 J-0.0481
X4.1249 Y2.271 Z0.015 I-0.0288 J0.0481
X4.0581 I-0.0334 J0. F30.
X4.1249 I0.0334 J0.
G2 X4.1478 Y2.3142 I0.0522 J0.
G3 X4.1464 Y2.3631 I-0.0162 J0.024
X4.0244 Y2.3547 I-0.0549 J-0.0921
G2 X3.9897 Y2.3417 I-0.0369 J0.046
Y2.3047 I-0.056 J-0.0185
G3 X4.1933 Y2.2374 I0.1018 J-0.0336
X4.1464 Y2.3631 I-0.1018 J0.0336
G1 X4.145 Y2.3638
X4.1434 Y2.364
X4.1418 Y2.3637
X4.1403 Y2.3631
X4.1391 Y2.3621
X4.1381 Y2.3607
X4.107 Y2.2991
X4.1064 Y2.2978
X4.1061 Y2.2963
X4.1062 Y2.2949
X4.1121 Y2.2598
G3 X4.1237 Y2.2596 I0.0058 J0.001
X4.014 Y2.2825 Z0.0089 I-0.0549 J0.0115 F20.
X4.1237 Y2.2596 Z0.0027 I0.0549 J-0.0115
X4.014 Y2.2825 Z-0.0034 I-0.0549 J0.0115
X4.0631 Y2.2153 Z-0.0067 I0.0549 J-0.0115
X4.1249 Y2.271 Z-0.01 I0.0058 J0.0558
X4.0581 I-0.0334 J0. F30.
X4.1249 I0.0334 J0.
G2 X4.1478 Y2.3142 I0.0522 J0.
G3 X4.1464 Y2.3631 I-0.0162 J0.024
X4.0244 Y2.3547 I-0.0549 J-0.0921
G2 X3.9897 Y2.3417 I-0.0369 J0.046
Y2.3047 I-0.056 J-0.0185
G3 X4.1933 Y2.2374 I0.1018 J-0.0336
X4.1464 Y2.3631 I-0.1018 J0.0336
G1 X4.145 Y2.3638
X4.1434 Y2.364
X4.1418 Y2.3637
X4.1403 Y2.3631
X4.1391 Y2.3621
X4.1381 Y2.3607
X4.107 Y2.2991
X4.1064 Y2.2978
X4.1061 Y2.2963
X4.1062 Y2.2949
X4.1121 Y2.2598
G3 X4.1237 Y2.2596 I0.0058 J0.001
X4.014 Y2.2825 Z-0.0161 I-0.0549 J0.0115 F20.
X4.1237 Y2.2596 Z-0.0223 I0.0549 J-0.0115
X4.014 Y2.2825 Z-0.0284 I-0.0549 J0.0115
X4.0631 Y2.2153 Z-0.0317 I0.0549 J-0.0115
X4.1249 Y2.271 Z-0.035 I0.0058 J0.0558
X4.0581 I-0.0334 J0. F30.
X4.1249 I0.0334 J0.
G2 X4.1478 Y2.3142 I0.0522 J0.
G3 X4.1464 Y2.3631 I-0.0162 J0.024
X4.0244 Y2.3547 I-0.0549 J-0.0921
G2 X3.9897 Y2.3417 I-0.0369 J0.046
Y2.3047 I-0.056 J-0.0185
G3 X4.1933 Y2.2374 I0.1018 J-0.0336
X4.1464 Y2.3631 I-0.1018 J0.0336
G1 X4.145 Y2.3638
X4.1434 Y2.364
X4.1418 Y2.3637
X4.1403 Y2.3631
X4.1391 Y2.3621
X4.1381 Y2.3607
X4.107 Y2.2991
X4.1064 Y2.2978
X4.1061 Y2.2963
X4.1062 Y2.2949
X4.1121 Y2.2598
G3 X4.1237 Y2.2596 I0.0058 J0.001
X4.014 Y2.2825 Z-0.0411 I-0.0549 J0.0115 F20.
X4.1237 Y2.2596 Z-0.0473 I0.0549 J-0.0115
X4.014 Y2.2825 Z-0.0534 I-0.0549 J0.0115
X4.0631 Y2.2153 Z-0.0567 I0.0549 J-0.0115
X4.1249 Y2.271 Z-0.06 I0.0058 J0.0558
X4.0581 I-0.0334 J0. F30.
X4.1249 I0.0334 J0.
G2 X4.1478 Y2.3142 I0.0522 J0.
G3 X4.1464 Y2.3631 I-0.0162 J0.024
X4.0244 Y2.3547 I-0.0549 J-0.0921
G2 X3.9897 Y2.3417 I-0.0369 J0.046
Y2.3047 I-0.056 J-0.0185
G3 X4.1933 Y2.2374 I0.1018 J-0.0336
X4.1464 Y2.3631 I-0.1018 J0.0336
G1 X4.145 Y2.3638
X4.1434 Y2.364
X4.1418 Y2.3637
X4.1403 Y2.3631
X4.1391 Y2.3621
X4.1381 Y2.3607
X4.107 Y2.2991
X4.1064 Y2.2978
X4.1061 Y2.2963
X4.1062 Y2.2949
X4.1121 Y2.2598
G3 X4.1237 Y2.2596 I0.0058 J0.001
X4.014 Y2.2825 Z-0.0661 I-0.0549 J0.0115 F20.
X4.1237 Y2.2596 Z-0.0723 I0.0549 J-0.0115
X4.014 Y2.2825 Z-0.0784 I-0.0549 J0.0115
X4.0631 Y2.2153 Z-0.0817 I0.0549 J-0.0115
X4.1249 Y2.271 Z-0.085 I0.0058 J0.0558
X4.0581 I-0.0334 J0. F30.
X4.1249 I0.0334 J0.
G2 X4.1478 Y2.3142 I0.0522 J0.
G3 X4.1464 Y2.3631 I-0.0162 J0.024
X4.0244 Y2.3547 I-0.0549 J-0.0921
G2 X3.9897 Y2.3417 I-0.0369 J0.046
Y2.3047 I-0.056 J-0.0185
G3 X4.1933 Y2.2374 I0.1018 J-0.0336
X4.1464 Y2.3631 I-0.1018 J0.0336
G1 X4.145 Y2.3638
X4.1434 Y2.364
X4.1418 Y2.3637
X4.1403 Y2.3631
X4.1391 Y2.3621
X4.1381 Y2.3607
X4.107 Y2.2991
X4.1064 Y2.2978
X4.1061 Y2.2963
X4.1062 Y2.2949
X4.1121 Y2.2598
G3 X4.1237 Y2.2596 I0.0058 J0.001
X4.014 Y2.2825 Z-0.0911 I-0.0549 J0.0115 F20.
X4.1237 Y2.2596 Z-0.0973 I0.0549 J-0.0115
X4.014 Y2.2825 Z-0.1034 I-0.0549 J0.0115
X4.0631 Y2.2153 Z-0.1067 I0.0549 J-0.0115
X4.1249 Y2.271 Z-0.11 I0.0058 J0.0558
X4.0581 I-0.0334 J0. F30.
X4.1249 I0.0334 J0.
G2 X4.1478 Y2.3142 I0.0522 J0.
G3 X4.1464 Y2.3631 I-0.0162 J0.024
X4.0244 Y2.3547 I-0.0549 J-0.0921
G2 X3.9897 Y2.3417 I-0.0369 J0.046
Y2.3047 I-0.056 J-0.0185
G3 X4.1933 Y2.2374 I0.1018 J-0.0336
X4.1464 Y2.3631 I-0.1018 J0.0336
G1 X4.145 Y2.3638
X4.1434 Y2.364
X4.1418 Y2.3637
X4.1403 Y2.3631
X4.1391 Y2.3621
X4.1381 Y2.3607
X4.107 Y2.2991
X4.1064 Y2.2978
X4.1061 Y2.2963
X4.1062 Y2.2949
X4.1121 Y2.2598
G3 X4.1237 Y2.2596 I0.0058 J0.001
X4.014 Y2.2825 Z-0.1161 I-0.0549 J0.0115 F20.
X4.1237 Y2.2596 Z-0.1223 I0.0549 J-0.0115
X4.014 Y2.2825 Z-0.1284 I-0.0549 J0.0115
X4.0631 Y2.2153 Z-0.1317 I0.0549 J-0.0115
X4.1249 Y2.271 Z-0.135 I0.0058 J0.0558
X4.0581 I-0.0334 J0. F30.
X4.1249 I0.0334 J0.
G2 X4.1478 Y2.3142 I0.0522 J0.
G3 X4.1464 Y2.3631 I-0.0162 J0.024
X4.0244 Y2.3547 I-0.0549 J-0.0921
G2 X3.9897 Y2.3417 I-0.0369 J0.046
Y2.3047 I-0.056 J-0.0185
G3 X4.1933 Y2.2374 I0.1018 J-0.0336
X4.1464 Y2.3631 I-0.1018 J0.0336
G1 X4.145 Y2.3638
X4.1434 Y2.364
X4.1418 Y2.3637
X4.1403 Y2.3631
X4.1391 Y2.3621
X4.1381 Y2.3607
X4.107 Y2.2991
X4.1064 Y2.2978
X4.1061 Y2.2963
X4.1062 Y2.2949
X4.1121 Y2.2598
G3 X4.1237 Y2.2596 I0.0058 J0.001
X4.014 Y2.2825 Z-0.1411 I-0.0549 J0.0115 F20.
X4.1237 Y2.2596 Z-0.1473 I0.0549 J-0.0115
X4.014 Y2.2825 Z-0.1534 I-0.0549 J0.0115
X4.0631 Y2.2153 Z-0.1567 I0.0549 J-0.0115
X4.1249 Y2.271 Z-0.16 I0.0058 J0.0558
X4.0581 I-0.0334 J0. F30.
X4.1249 I0.0334 J0.
G2 X4.1478 Y2.3142 I0.0522 J0.
G3 X4.1464 Y2.3631 I-0.0162 J0.024
X4.0244 Y2.3547 I-0.0549 J-0.0921
G2 X3.9897 Y2.3417 I-0.0369 J0.046
Y2.3047 I-0.056 J-0.0185
G3 X4.1933 Y2.2374 I0.1018 J-0.0336
X4.1464 Y2.3631 I-0.1018 J0.0336
G1 X4.145 Y2.3638
X4.1434 Y2.364
X4.1418 Y2.3637
X4.1403 Y2.3631
X4.1391 Y2.3621
X4.1381 Y2.3607
X4.107 Y2.2991
X4.1064 Y2.2978
X4.1061 Y2.2963
X4.1062 Y2.2949
X4.1121 Y2.2598
G3 X4.1237 Y2.2596 I0.0058 J0.001
X4.014 Y2.2825 Z-0.1661 I-0.0549 J0.0115 F20.
X4.1237 Y2.2596 Z-0.1723 I0.0549 J-0.0115
X4.014 Y2.2825 Z-0.1784 I-0.0549 J0.0115
X4.0631 Y2.2153 Z-0.1817 I0.0549 J-0.0115
X4.1249 Y2.271 Z-0.185 I0.0058 J0.0558
X4.0581 I-0.0334 J0. F30.
X4.1249 I0.0334 J0.
G2 X4.1478 Y2.3142 I0.0522 J0.
G3 X4.1464 Y2.3631 I-0.0162 J0.024
X4.0244 Y2.3547 I-0.0549 J-0.0921
G2 X3.9897 Y2.3417 I-0.0369 J0.046
Y2.3047 I-0.056 J-0.0185
G3 X4.1933 Y2.2374 I0.1018 J-0.0336
X4.1464 Y2.3631 I-0.1018 J0.0336
G1 X4.145 Y2.3638
X4.1434 Y2.364
X4.1418 Y2.3637
X4.1403 Y2.3631
X4.1391 Y2.3621
X4.1381 Y2.3607
X4.107 Y2.2991
X4.1064 Y2.2978
X4.1061 Y2.2963
X4.1062 Y2.2949
X4.1121 Y2.2598
G3 X4.1237 Y2.2596 I0.0058 J0.001
X4.014 Y2.2825 Z-0.1911 I-0.0549 J0.0115 F20.
X4.1237 Y2.2596 Z-0.1973 I0.0549 J-0.0115
X4.014 Y2.2825 Z-0.2034 I-0.0549 J0.0115
X4.0631 Y2.2153 Z-0.2067 I0.0549 J-0.0115
X4.1249 Y2.271 Z-0.21 I0.0058 J0.0558
X4.0581 I-0.0334 J0. F30.
X4.1249 I0.0334 J0.
G2 X4.1478 Y2.3142 I0.0522 J0.
G3 X4.1464 Y2.3631 I-0.0162 J0.024
X4.0244 Y2.3547 I-0.0549 J-0.0921
G2 X3.9897 Y2.3417 I-0.0369 J0.046
Y2.3047 I-0.056 J-0.0185
G3 X4.1933 Y2.2374 I0.1018 J-0.0336
X4.1464 Y2.3631 I-0.1018 J0.0336
G1 X4.145 Y2.3638
X4.1434 Y2.364
X4.1418 Y2.3637
X4.1403 Y2.3631
X4.1391 Y2.3621
X4.1381 Y2.3607
X4.107 Y2.2991
X4.1064 Y2.2978
X4.1061 Y2.2963
X4.1062 Y2.2949
X4.1121 Y2.2598
G3 X4.1237 Y2.2596 I0.0058 J0.001
X4.014 Y2.2825 Z-0.2161 I-0.0549 J0.0115 F20.
X4.1237 Y2.2596 Z-0.2223 I0.0549 J-0.0115
X4.014 Y2.2825 Z-0.2284 I-0.0549 J0.0115
X4.0631 Y2.2153 Z-0.2317 I0.0549 J-0.0115
X4.1249 Y2.271 Z-0.235 I0.0058 J0.0558
X4.0581 I-0.0334 J0. F30.
X4.1249 I0.0334 J0.
G2 X4.1478 Y2.3142 I0.0522 J0.
G3 X4.1464 Y2.3631 I-0.0162 J0.024
X4.0244 Y2.3547 I-0.0549 J-0.0921
G2 X3.9897 Y2.3417 I-0.0369 J0.046
Y2.3047 I-0.056 J-0.0185
G3 X4.1933 Y2.2374 I0.1018 J-0.0336
X4.1464 Y2.3631 I-0.1018 J0.0336
G1 X4.145 Y2.3638
X4.1434 Y2.364
X4.1418 Y2.3637
X4.1403 Y2.3631
X4.1391 Y2.3621
X4.1381 Y2.3607
X4.107 Y2.2991
X4.1064 Y2.2978
X4.1061 Y2.2963
X4.1062 Y2.2949
X4.1121 Y2.2598
G3 X4.1237 Y2.2596 I0.0058 J0.001
X4.014 Y2.2825 Z-0.2411 I-0.0549 J0.0115 F20.
X4.1237 Y2.2596 Z-0.2473 I0.0549 J-0.0115
X4.014 Y2.2825 Z-0.2534 I-0.0549 J0.0115
X4.0631 Y2.2153 Z-0.2567 I0.0549 J-0.0115
X4.1249 Y2.271 Z-0.26 I0.0058 J0.0558
X4.0581 I-0.0334 J0. F30.
X4.1249 I0.0334 J0.
G2 X4.1478 Y2.3142 I0.0522 J0.
G3 X4.1464 Y2.3631 I-0.0162 J0.024
X4.0244 Y2.3547 I-0.0549 J-0.0921
G2 X3.9897 Y2.3417 I-0.0369 J0.046
Y2.3047 I-0.056 J-0.0185
G3 X4.1933 Y2.2374 I0.1018 J-0.0336
X4.1464 Y2.3631 I-0.1018 J0.0336
X4.0802 Y2.3567 Z-0.262 I-0.0287 J-0.0481 F20.
G1 X4.0314 Y2.3127 Z-0.2638
G3 X4.1063 Y2.2294 Z-0.2687 I0.0375 J-0.0417
X4.1249 Y2.271 Z-0.27 I-0.0375 J0.0417
X4.0581 I-0.0334 J0. F30.
X4.1249 I0.0334 J0.
G2 X4.1478 Y2.3142 I0.0522 J0.
G3 X4.1464 Y2.3631 I-0.0162 J0.024
X4.0244 Y2.3547 I-0.0549 J-0.0921
G2 X3.9897 Y2.3417 I-0.0369 J0.046
Y2.3047 I-0.056 J-0.0185
G3 X4.1933 Y2.2374 I0.1018 J-0.0336
X4.1464 Y2.3631 I-0.1018 J0.0336
G1 X4.1444 Y2.3641 Z-0.2696
X4.1422 Y2.3647 Z-0.2691
X4.1403 Y2.3648 Z-0.2678
X4.1384 Y2.3646 Z-0.2665
X4.1359 Y2.3639 Z-0.2627
X4.1351 Y2.3636 Z-0.2582
G0 Z0.64

M9
M30
