(X4 GEARBOX DS POCKETS RUN 2.5)
(T3  D=0.118 CR=0. - ZMIN=-0.3 - FLAT END MILL)
G90 G94 G91.1 G40 G49 G17
G20

(LARGE POCKETS)
M5
T3 M6
S15000 M3
G54
M8
G0 X2.175 Y2.5718
G43 Z0.6 H3
Z0.2
G1 Z0.1118 F40.
X2.1754 Y2.5733 Z0.106 F20.
X2.1762 Y2.5774 Z0.1017
X2.1768 Y2.5831 Z0.1
G3 X2.0648 Y2.589 Z0.0939 I-0.056 J0.003
X2.1768 Y2.5831 Z0.0877 I0.056 J-0.003
X2.0648 Y2.589 Z0.0816 I-0.056 J0.003
X2.1768 Y2.5831 Z0.0754 I0.056 J-0.003
X2.0648 Y2.589 Z0.0693 I-0.056 J0.003
X2.1768 Y2.5831 Z0.0631 I0.056 J-0.003
X2.0648 Y2.589 Z0.057 I-0.056 J0.003
X2.1768 Y2.5831 Z0.0508 I0.056 J-0.003
X2.0648 Y2.589 Z0.0447 I-0.056 J0.003
X2.1768 Y2.5831 Z0.0385 I0.056 J-0.003
X2.0648 Y2.589 Z0.0324 I-0.056 J0.003
X2.1768 Y2.5831 Z0.0262 I0.056 J-0.003
X2.0648 Y2.589 Z0.0201 I-0.056 J0.003
X2.1768 Y2.5831 Z0.0139 I0.056 J-0.003
X2.0648 Y2.589 Z0.0078 I-0.056 J0.003
X2.1768 Y2.5831 Z0.0016 I0.056 J-0.003
X2.0648 Y2.589 Z-0.0045 I-0.056 J0.003
X2.1768 Y2.5831 Z-0.0107 I0.056 J-0.003
X2.0648 Y2.589 Z-0.0168 I-0.056 J0.003
X2.1768 Y2.5831 Z-0.023 I0.056 J-0.003
X2.1521 Y2.6325 Z-0.025 I-0.056 J0.003
G2 X2.1423 Y2.6392 I0.5782 J0.8595 F40.
G3 X2.124 Y2.6363 I-0.0076 J-0.011
G2 X2.1062 Y2.6133 I-0.9377 J0.711
G3 X2.1091 Y2.5973 I0.0084 J-0.0067
G1 X2.1744 Y2.5588
G3 X2.1855 Y2.5652 I0.0037 J0.0063
G1 Y2.5985
G3 X2.175 Y2.6175 I-0.0226 J0.
G2 X2.1521 Y2.6325 I0.5553 J0.8745
X2.1318 Y2.6695 I0.0256 J0.0381
G3 X2.0915 Y2.6821 I-0.0223 J-0.0006
G2 X2.0242 Y2.5993 I-0.8205 J0.599
G3 X2.0265 Y2.5838 I0.0075 J-0.0067
G1 X2.2111 Y2.4752
G3 X2.239 Y2.4912 I0.0094 J0.0159
G1 Y2.6247
G3 X2.225 Y2.6494 I-0.0289 J0.
G2 X2.1294 Y2.7145 I0.5368 J0.8907
G3 X2.1124 Y2.7118 I-0.0072 J-0.0094
G2 X2.0915 Y2.6821 I-0.8413 J0.5693
X2.0131 Y2.6545 I-0.0593 J0.0433
G3 X1.9328 Y2.6325 I-0.0214 J-0.0793
G2 X1.8787 Y2.581 I-0.6866 J0.6681
G3 X1.88 Y2.5665 I0.0059 J-0.0067
G1 X2.2102 Y2.3722
G3 X2.2367 Y2.3726 I0.0129 J0.022
G2 X2.3144 Y2.417 I0.5721 J-0.9102
G3 X2.3282 Y2.4397 I-0.0117 J0.0226
G1 Y2.678
G3 X2.3144 Y2.7011 I-0.0263 J0.
G2 X2.1059 Y2.8514 I0.4755 J0.8795
G3 X2.0912 Y2.849 I-0.0064 J-0.0068
G2 X1.9328 Y2.6325 I-0.8449 J0.4516
X1.8541 Y2.6168 I-0.0507 J0.0494
G3 X1.7743 Y2.6073 I-0.0317 J-0.0733
G2 X1.7593 Y2.5962 I-0.5157 J0.6838
G3 X1.7495 Y2.5721 I0.0143 J-0.0198
G1 X1.7519 Y2.5587
G3 X1.7585 Y2.5426 I0.0397 J0.007
G1 X1.7592 Y2.5417
G3 X1.7719 Y2.5298 I0.0332 J0.0229
G1 X2.2145 Y2.2694
G3 X2.2397 Y2.2705 I0.0117 J0.0199
G2 X2.4009 Y2.3627 I0.5298 J-0.7394
G3 X2.4147 Y2.3838 I-0.0094 J0.0211
G1 Y2.7329
G3 X2.4009 Y2.7544 I-0.0238 J0.
G2 X2.0787 Y3.0084 I0.3711 J0.802
G3 X2.0664 Y3.0064 I-0.0056 J-0.0044
G2 X1.7743 Y2.6073 I-0.8077 J0.2847
X1.7172 Y2.6108 I-0.0265 J0.0352
G3 X1.6666 Y2.584 I-0.0209 J-0.0216
G1 X1.6744 Y2.5395
G3 X1.6908 Y2.5005 I0.0943 J0.0166
G1 X1.6961 Y2.4929
G3 X1.7269 Y2.464 I0.0794 J0.0536
G1 X2.2214 Y2.173
G3 X2.2452 Y2.1747 I0.0106 J0.018
G2 X2.4806 Y2.3094 I0.5274 J-0.6492
G3 X2.4943 Y2.329 I-0.0073 J0.0196
G1 Y2.7868
G3 X2.4806 Y2.8068 I-0.0214 J0.
G2 X2.0838 Y3.1398 I0.2954 J0.7551
G3 X2.0617 Y3.1497 I-0.0183 J-0.0112
G1 X2.0362 Y3.1453
G3 X2.0186 Y3.1283 I0.0038 J-0.0216
G2 X1.8948 Y2.8459 I-0.7713 J0.1697
X1.6718 Y2.633 I-0.6426 J0.4499
G3 X1.6619 Y2.6106 I0.0118 J-0.0185
G1 X1.6666 Y2.584
G2 X1.6349 Y2.5088 I-0.074 J-0.013
G3 X1.6178 Y2.429 I0.0332 J-0.0488
G2 X1.6312 Y2.4037 I-0.1919 J-0.118
G1 X2.2472 Y2.0413
G2 X2.5947 Y2.24 I0.5315 J-0.5263
G1 Y2.8749
G2 X2.131 Y3.264 I0.184 J0.6901
G1 X1.933 Y3.229
G2 X1.5479 Y2.679 I-0.6807 J0.0668
G1 X1.5845 Y2.4709
G2 X1.6178 Y2.429 I-0.1586 J-0.1599
G1 X1.6189 Y2.4277
X1.6204 Y2.4267
X1.6221 Y2.4263
X1.6239
X1.6256 Y2.4269
X1.7156 Y2.4744
X2.1432 Y2.6144
X2.1594 Y2.6193
X2.1607 Y2.62
X2.1616 Y2.6211
X2.1619 Y2.6225
X2.1617 Y2.6239
X2.1609 Y2.6252
G3 X2.0806 Y2.5469 Z-0.0311 I-0.0401 J-0.0391 F20.
X2.1609 Y2.6252 Z-0.0373 I0.0401 J0.0391
X2.0806 Y2.5469 Z-0.0434 I-0.0401 J-0.0391
X2.1638 Y2.5501 Z-0.0467 I0.0401 J0.0391
X2.1521 Y2.6325 Z-0.05 I-0.043 J0.0359
G2 X2.1423 Y2.6392 I0.5782 J0.8595 F40.
G3 X2.124 Y2.6363 I-0.0076 J-0.011
G2 X2.1062 Y2.6133 I-0.9377 J0.711
G3 X2.1091 Y2.5973 I0.0084 J-0.0067
G1 X2.1744 Y2.5588
G3 X2.1855 Y2.5652 I0.0037 J0.0063
G1 Y2.5985
G3 X2.175 Y2.6175 I-0.0226 J0.
G2 X2.1521 Y2.6325 I0.5553 J0.8745
X2.1318 Y2.6695 I0.0256 J0.0381
G3 X2.0915 Y2.6821 I-0.0223 J-0.0006
G2 X2.0242 Y2.5993 I-0.8205 J0.599
G3 X2.0265 Y2.5838 I0.0075 J-0.0067
G1 X2.2111 Y2.4752
G3 X2.239 Y2.4912 I0.0094 J0.0159
G1 Y2.6247
G3 X2.225 Y2.6494 I-0.0289 J0.
G2 X2.1294 Y2.7145 I0.5368 J0.8907
G3 X2.1124 Y2.7118 I-0.0072 J-0.0094
G2 X2.0915 Y2.6821 I-0.8413 J0.5693
X2.0131 Y2.6545 I-0.0593 J0.0433
G3 X1.9328 Y2.6325 I-0.0214 J-0.0793
G2 X1.8787 Y2.581 I-0.6866 J0.6681
G3 X1.88 Y2.5665 I0.0059 J-0.0067
G1 X2.2102 Y2.3722
G3 X2.2367 Y2.3726 I0.0129 J0.022
G2 X2.3144 Y2.417 I0.5721 J-0.9102
G3 X2.3282 Y2.4397 I-0.0117 J0.0226
G1 Y2.678
G3 X2.3144 Y2.7011 I-0.0263 J0.
G2 X2.1059 Y2.8514 I0.4755 J0.8795
G3 X2.0912 Y2.849 I-0.0064 J-0.0068
G2 X1.9328 Y2.6325 I-0.8449 J0.4516
X1.8541 Y2.6168 I-0.0507 J0.0494
G3 X1.7743 Y2.6073 I-0.0317 J-0.0733
G2 X1.7593 Y2.5962 I-0.5157 J0.6838
G3 X1.7495 Y2.5721 I0.0143 J-0.0198
G1 X1.7519 Y2.5587
G3 X1.7585 Y2.5426 I0.0397 J0.007
G1 X1.7592 Y2.5417
G3 X1.7719 Y2.5298 I0.0332 J0.0229
G1 X2.2145 Y2.2694
G3 X2.2397 Y2.2705 I0.0117 J0.0199
G2 X2.4009 Y2.3627 I0.5298 J-0.7394
G3 X2.4147 Y2.3838 I-0.0094 J0.0211
G1 Y2.7329
G3 X2.4009 Y2.7544 I-0.0238 J0.
G2 X2.0787 Y3.0084 I0.3711 J0.802
G3 X2.0664 Y3.0064 I-0.0056 J-0.0044
G2 X1.7743 Y2.6073 I-0.8077 J0.2847
X1.7172 Y2.6108 I-0.0265 J0.0352
G3 X1.6666 Y2.584 I-0.0209 J-0.0216
G1 X1.6744 Y2.5395
G3 X1.6908 Y2.5005 I0.0943 J0.0166
G1 X1.6961 Y2.4929
G3 X1.7269 Y2.464 I0.0794 J0.0536
G1 X2.2214 Y2.173
G3 X2.2452 Y2.1747 I0.0106 J0.018
G2 X2.4806 Y2.3094 I0.5274 J-0.6492
G3 X2.4943 Y2.329 I-0.0073 J0.0196
G1 Y2.7868
G3 X2.4806 Y2.8068 I-0.0214 J0.
G2 X2.0838 Y3.1398 I0.2954 J0.7551
G3 X2.0617 Y3.1497 I-0.0183 J-0.0112
G1 X2.0362 Y3.1453
G3 X2.0186 Y3.1283 I0.0038 J-0.0216
G2 X1.8948 Y2.8459 I-0.7713 J0.1697
X1.6718 Y2.633 I-0.6426 J0.4499
G3 X1.6619 Y2.6106 I0.0118 J-0.0185
G1 X1.6666 Y2.584
G2 X1.6349 Y2.5088 I-0.074 J-0.013
G3 X1.6178 Y2.429 I0.0332 J-0.0488
G2 X1.6312 Y2.4037 I-0.1919 J-0.118
G1 X2.2472 Y2.0413
G2 X2.5947 Y2.24 I0.5315 J-0.5263
G1 Y2.8749
G2 X2.131 Y3.264 I0.184 J0.6901
G1 X1.933 Y3.229
G2 X1.5479 Y2.679 I-0.6807 J0.0668
G1 X1.5845 Y2.4709
G2 X1.6178 Y2.429 I-0.1586 J-0.1599
G1 X1.6189 Y2.4277
X1.6204 Y2.4267
X1.6221 Y2.4263
X1.6239
X1.6256 Y2.4269
X1.7156 Y2.4744
X2.1432 Y2.6144
X2.1594 Y2.6193
X2.1607 Y2.62
X2.1616 Y2.6211
X2.1619 Y2.6225
X2.1617 Y2.6239
X2.1609 Y2.6252
G3 X2.0806 Y2.5469 Z-0.0561 I-0.0401 J-0.0391 F20.
X2.1609 Y2.6252 Z-0.0623 I0.0401 J0.0391
X2.0806 Y2.5469 Z-0.0684 I-0.0401 J-0.0391
X2.1638 Y2.5501 Z-0.0717 I0.0401 J0.0391
X2.1521 Y2.6325 Z-0.075 I-0.043 J0.0359
G2 X2.1423 Y2.6392 I0.5782 J0.8595 F40.
G3 X2.124 Y2.6363 I-0.0076 J-0.011
G2 X2.1062 Y2.6133 I-0.9377 J0.711
G3 X2.1091 Y2.5973 I0.0084 J-0.0067
G1 X2.1744 Y2.5588
G3 X2.1855 Y2.5652 I0.0037 J0.0063
G1 Y2.5985
G3 X2.175 Y2.6175 I-0.0226 J0.
G2 X2.1521 Y2.6325 I0.5553 J0.8745
X2.1318 Y2.6695 I0.0256 J0.0381
G3 X2.0915 Y2.6821 I-0.0223 J-0.0006
G2 X2.0242 Y2.5993 I-0.8205 J0.599
G3 X2.0265 Y2.5838 I0.0075 J-0.0067
G1 X2.2111 Y2.4752
G3 X2.239 Y2.4912 I0.0094 J0.0159
G1 Y2.6247
G3 X2.225 Y2.6494 I-0.0289 J0.
G2 X2.1294 Y2.7145 I0.5368 J0.8907
G3 X2.1124 Y2.7118 I-0.0072 J-0.0094
G2 X2.0915 Y2.6821 I-0.8413 J0.5693
X2.0131 Y2.6545 I-0.0593 J0.0433
G3 X1.9328 Y2.6325 I-0.0214 J-0.0793
G2 X1.8787 Y2.581 I-0.6866 J0.6681
G3 X1.88 Y2.5665 I0.0059 J-0.0067
G1 X2.2102 Y2.3722
G3 X2.2367 Y2.3726 I0.0129 J0.022
G2 X2.3144 Y2.417 I0.5721 J-0.9102
G3 X2.3282 Y2.4397 I-0.0117 J0.0226
G1 Y2.678
G3 X2.3144 Y2.7011 I-0.0263 J0.
G2 X2.1059 Y2.8514 I0.4755 J0.8795
G3 X2.0912 Y2.849 I-0.0064 J-0.0068
G2 X1.9328 Y2.6325 I-0.8449 J0.4516
X1.8541 Y2.6168 I-0.0507 J0.0494
G3 X1.7743 Y2.6073 I-0.0317 J-0.0733
G2 X1.7593 Y2.5962 I-0.5157 J0.6838
G3 X1.7495 Y2.5721 I0.0143 J-0.0198
G1 X1.7519 Y2.5587
G3 X1.7585 Y2.5426 I0.0397 J0.007
G1 X1.7592 Y2.5417
G3 X1.7719 Y2.5298 I0.0332 J0.0229
G1 X2.2145 Y2.2694
G3 X2.2397 Y2.2705 I0.0117 J0.0199
G2 X2.4009 Y2.3627 I0.5298 J-0.7394
G3 X2.4147 Y2.3838 I-0.0094 J0.0211
G1 Y2.7329
G3 X2.4009 Y2.7544 I-0.0238 J0.
G2 X2.0787 Y3.0084 I0.3711 J0.802
G3 X2.0664 Y3.0064 I-0.0056 J-0.0044
G2 X1.7743 Y2.6073 I-0.8077 J0.2847
X1.7172 Y2.6108 I-0.0265 J0.0352
G3 X1.6666 Y2.584 I-0.0209 J-0.0216
G1 X1.6744 Y2.5395
G3 X1.6908 Y2.5005 I0.0943 J0.0166
G1 X1.6961 Y2.4929
G3 X1.7269 Y2.464 I0.0794 J0.0536
G1 X2.2214 Y2.173
G3 X2.2452 Y2.1747 I0.0106 J0.018
G2 X2.4806 Y2.3094 I0.5274 J-0.6492
G3 X2.4943 Y2.329 I-0.0073 J0.0196
G1 Y2.7868
G3 X2.4806 Y2.8068 I-0.0214 J0.
G2 X2.0838 Y3.1398 I0.2954 J0.7551
G3 X2.0617 Y3.1497 I-0.0183 J-0.0112
G1 X2.0362 Y3.1453
G3 X2.0186 Y3.1283 I0.0038 J-0.0216
G2 X1.8948 Y2.8459 I-0.7713 J0.1697
X1.6718 Y2.633 I-0.6426 J0.4499
G3 X1.6619 Y2.6106 I0.0118 J-0.0185
G1 X1.6666 Y2.584
G2 X1.6349 Y2.5088 I-0.074 J-0.013
G3 X1.6178 Y2.429 I0.0332 J-0.0488
G2 X1.6312 Y2.4037 I-0.1919 J-0.118
G1 X2.2472 Y2.0413
G2 X2.5947 Y2.24 I0.5315 J-0.5263
G1 Y2.8749
G2 X2.131 Y3.264 I0.184 J0.6901
G1 X1.933 Y3.229
G2 X1.5479 Y2.679 I-0.6807 J0.0668
G1 X1.5845 Y2.4709
G2 X1.6178 Y2.429 I-0.1586 J-0.1599
G1 X1.6189 Y2.4277
X1.6204 Y2.4267
X1.6221 Y2.4263
X1.6239
X1.6256 Y2.4269
X1.7156 Y2.4744
X2.1432 Y2.6144
X2.1594 Y2.6193
X2.1607 Y2.62
X2.1616 Y2.6211
X2.1619 Y2.6225
X2.1617 Y2.6239
X2.1609 Y2.6252
G3 X2.0806 Y2.5469 Z-0.0811 I-0.0401 J-0.0391 F20.
X2.1609 Y2.6252 Z-0.0873 I0.0401 J0.0391
X2.0806 Y2.5469 Z-0.0934 I-0.0401 J-0.0391
X2.1638 Y2.5501 Z-0.0967 I0.0401 J0.0391
X2.1521 Y2.6325 Z-0.1 I-0.043 J0.0359
G2 X2.1423 Y2.6392 I0.5782 J0.8595 F40.
G3 X2.124 Y2.6363 I-0.0076 J-0.011
G2 X2.1062 Y2.6133 I-0.9377 J0.711
G3 X2.1091 Y2.5973 I0.0084 J-0.0067
G1 X2.1744 Y2.5588
G3 X2.1855 Y2.5652 I0.0037 J0.0063
G1 Y2.5985
G3 X2.175 Y2.6175 I-0.0226 J0.
G2 X2.1521 Y2.6325 I0.5553 J0.8745
X2.1318 Y2.6695 I0.0256 J0.0381
G3 X2.0915 Y2.6821 I-0.0223 J-0.0006
G2 X2.0242 Y2.5993 I-0.8205 J0.599
G3 X2.0265 Y2.5838 I0.0075 J-0.0067
G1 X2.2111 Y2.4752
G3 X2.239 Y2.4912 I0.0094 J0.0159
G1 Y2.6247
G3 X2.225 Y2.6494 I-0.0289 J0.
G2 X2.1294 Y2.7145 I0.5368 J0.8907
G3 X2.1124 Y2.7118 I-0.0072 J-0.0094
G2 X2.0915 Y2.6821 I-0.8413 J0.5693
X2.0131 Y2.6545 I-0.0593 J0.0433
G3 X1.9328 Y2.6325 I-0.0214 J-0.0793
G2 X1.8787 Y2.581 I-0.6866 J0.6681
G3 X1.88 Y2.5665 I0.0059 J-0.0067
G1 X2.2102 Y2.3722
G3 X2.2367 Y2.3726 I0.0129 J0.022
G2 X2.3144 Y2.417 I0.5721 J-0.9102
G3 X2.3282 Y2.4397 I-0.0117 J0.0226
G1 Y2.678
G3 X2.3144 Y2.7011 I-0.0263 J0.
G2 X2.1059 Y2.8514 I0.4755 J0.8795
G3 X2.0912 Y2.849 I-0.0064 J-0.0068
G2 X1.9328 Y2.6325 I-0.8449 J0.4516
X1.8541 Y2.6168 I-0.0507 J0.0494
G3 X1.7743 Y2.6073 I-0.0317 J-0.0733
G2 X1.7593 Y2.5962 I-0.5157 J0.6838
G3 X1.7495 Y2.5721 I0.0143 J-0.0198
G1 X1.7519 Y2.5587
G3 X1.7585 Y2.5426 I0.0397 J0.007
G1 X1.7592 Y2.5417
G3 X1.7719 Y2.5298 I0.0332 J0.0229
G1 X2.2145 Y2.2694
G3 X2.2397 Y2.2705 I0.0117 J0.0199
G2 X2.4009 Y2.3627 I0.5298 J-0.7394
G3 X2.4147 Y2.3838 I-0.0094 J0.0211
G1 Y2.7329
G3 X2.4009 Y2.7544 I-0.0238 J0.
G2 X2.0787 Y3.0084 I0.3711 J0.802
G3 X2.0664 Y3.0064 I-0.0056 J-0.0044
G2 X1.7743 Y2.6073 I-0.8077 J0.2847
X1.7172 Y2.6108 I-0.0265 J0.0352
G3 X1.6666 Y2.584 I-0.0209 J-0.0216
G1 X1.6744 Y2.5395
G3 X1.6908 Y2.5005 I0.0943 J0.0166
G1 X1.6961 Y2.4929
G3 X1.7269 Y2.464 I0.0794 J0.0536
G1 X2.2214 Y2.173
G3 X2.2452 Y2.1747 I0.0106 J0.018
G2 X2.4806 Y2.3094 I0.5274 J-0.6492
G3 X2.4943 Y2.329 I-0.0073 J0.0196
G1 Y2.7868
G3 X2.4806 Y2.8068 I-0.0214 J0.
G2 X2.0838 Y3.1398 I0.2954 J0.7551
G3 X2.0617 Y3.1497 I-0.0183 J-0.0112
G1 X2.0362 Y3.1453
G3 X2.0186 Y3.1283 I0.0038 J-0.0216
G2 X1.8948 Y2.8459 I-0.7713 J0.1697
X1.6718 Y2.633 I-0.6426 J0.4499
G3 X1.6619 Y2.6106 I0.0118 J-0.0185
G1 X1.6666 Y2.584
G2 X1.6349 Y2.5088 I-0.074 J-0.013
G3 X1.6178 Y2.429 I0.0332 J-0.0488
G2 X1.6312 Y2.4037 I-0.1919 J-0.118
G1 X2.2472 Y2.0413
G2 X2.5947 Y2.24 I0.5315 J-0.5263
G1 Y2.8749
G2 X2.131 Y3.264 I0.184 J0.6901
G1 X1.933 Y3.229
G2 X1.5479 Y2.679 I-0.6807 J0.0668
G1 X1.5845 Y2.4709
G2 X1.6178 Y2.429 I-0.1586 J-0.1599
G1 X1.6189 Y2.4277
X1.6204 Y2.4267
X1.6221 Y2.4263
X1.6239
X1.6256 Y2.4269
X1.7156 Y2.4744
X2.1432 Y2.6144
X2.1594 Y2.6193
X2.1607 Y2.62
X2.1616 Y2.6211
X2.1619 Y2.6225
X2.1617 Y2.6239
X2.1609 Y2.6252
G3 X2.0806 Y2.5469 Z-0.1061 I-0.0401 J-0.0391 F20.
X2.1609 Y2.6252 Z-0.1123 I0.0401 J0.0391
X2.0806 Y2.5469 Z-0.1184 I-0.0401 J-0.0391
X2.1638 Y2.5501 Z-0.1217 I0.0401 J0.0391
X2.1521 Y2.6325 Z-0.125 I-0.043 J0.0359
G2 X2.1423 Y2.6392 I0.5782 J0.8595 F40.
G3 X2.124 Y2.6363 I-0.0076 J-0.011
G2 X2.1062 Y2.6133 I-0.9377 J0.711
G3 X2.1091 Y2.5973 I0.0084 J-0.0067
G1 X2.1744 Y2.5588
G3 X2.1855 Y2.5652 I0.0037 J0.0063
G1 Y2.5985
G3 X2.175 Y2.6175 I-0.0226 J0.
G2 X2.1521 Y2.6325 I0.5553 J0.8745
X2.1318 Y2.6695 I0.0256 J0.0381
G3 X2.0915 Y2.6821 I-0.0223 J-0.0006
G2 X2.0242 Y2.5993 I-0.8205 J0.599
G3 X2.0265 Y2.5838 I0.0075 J-0.0067
G1 X2.2111 Y2.4752
G3 X2.239 Y2.4912 I0.0094 J0.0159
G1 Y2.6247
G3 X2.225 Y2.6494 I-0.0289 J0.
G2 X2.1294 Y2.7145 I0.5368 J0.8907
G3 X2.1124 Y2.7118 I-0.0072 J-0.0094
G2 X2.0915 Y2.6821 I-0.8413 J0.5693
X2.0131 Y2.6545 I-0.0593 J0.0433
G3 X1.9328 Y2.6325 I-0.0214 J-0.0793
G2 X1.8787 Y2.581 I-0.6866 J0.6681
G3 X1.88 Y2.5665 I0.0059 J-0.0067
G1 X2.2102 Y2.3722
G3 X2.2367 Y2.3726 I0.0129 J0.022
G2 X2.3144 Y2.417 I0.5721 J-0.9102
G3 X2.3282 Y2.4397 I-0.0117 J0.0226
G1 Y2.678
G3 X2.3144 Y2.7011 I-0.0263 J0.
G2 X2.1059 Y2.8514 I0.4755 J0.8795
G3 X2.0912 Y2.849 I-0.0064 J-0.0068
G2 X1.9328 Y2.6325 I-0.8449 J0.4516
X1.8541 Y2.6168 I-0.0507 J0.0494
G3 X1.7743 Y2.6073 I-0.0317 J-0.0733
G2 X1.7593 Y2.5962 I-0.5157 J0.6838
G3 X1.7495 Y2.5721 I0.0143 J-0.0198
G1 X1.7519 Y2.5587
G3 X1.7585 Y2.5426 I0.0397 J0.007
G1 X1.7592 Y2.5417
G3 X1.7719 Y2.5298 I0.0332 J0.0229
G1 X2.2145 Y2.2694
G3 X2.2397 Y2.2705 I0.0117 J0.0199
G2 X2.4009 Y2.3627 I0.5298 J-0.7394
G3 X2.4147 Y2.3838 I-0.0094 J0.0211
G1 Y2.7329
G3 X2.4009 Y2.7544 I-0.0238 J0.
G2 X2.0787 Y3.0084 I0.3711 J0.802
G3 X2.0664 Y3.0064 I-0.0056 J-0.0044
G2 X1.7743 Y2.6073 I-0.8077 J0.2847
X1.7172 Y2.6108 I-0.0265 J0.0352
G3 X1.6666 Y2.584 I-0.0209 J-0.0216
G1 X1.6744 Y2.5395
G3 X1.6908 Y2.5005 I0.0943 J0.0166
G1 X1.6961 Y2.4929
G3 X1.7269 Y2.464 I0.0794 J0.0536
G1 X2.2214 Y2.173
G3 X2.2452 Y2.1747 I0.0106 J0.018
G2 X2.4806 Y2.3094 I0.5274 J-0.6492
G3 X2.4943 Y2.329 I-0.0073 J0.0196
G1 Y2.7868
G3 X2.4806 Y2.8068 I-0.0214 J0.
G2 X2.0838 Y3.1398 I0.2954 J0.7551
G3 X2.0617 Y3.1497 I-0.0183 J-0.0112
G1 X2.0362 Y3.1453
G3 X2.0186 Y3.1283 I0.0038 J-0.0216
G2 X1.8948 Y2.8459 I-0.7713 J0.1697
X1.6718 Y2.633 I-0.6426 J0.4499
G3 X1.6619 Y2.6106 I0.0118 J-0.0185
G1 X1.6666 Y2.584
G2 X1.6349 Y2.5088 I-0.074 J-0.013
G3 X1.6178 Y2.429 I0.0332 J-0.0488
G2 X1.6312 Y2.4037 I-0.1919 J-0.118
G1 X2.2472 Y2.0413
G2 X2.5947 Y2.24 I0.5315 J-0.5263
G1 Y2.8749
G2 X2.131 Y3.264 I0.184 J0.6901
G1 X1.933 Y3.229
G2 X1.5479 Y2.679 I-0.6807 J0.0668
G1 X1.5845 Y2.4709
G2 X1.6178 Y2.429 I-0.1586 J-0.1599
G1 X1.6189 Y2.4277
X1.6204 Y2.4267
X1.6221 Y2.4263
X1.6239
X1.6256 Y2.4269
X1.7156 Y2.4744
X2.1432 Y2.6144
X2.1594 Y2.6193
X2.1607 Y2.62
X2.1616 Y2.6211
X2.1619 Y2.6225
X2.1617 Y2.6239
X2.1609 Y2.6252
G3 X2.0806 Y2.5469 Z-0.1311 I-0.0401 J-0.0391 F20.
X2.1609 Y2.6252 Z-0.1373 I0.0401 J0.0391
X2.0806 Y2.5469 Z-0.1434 I-0.0401 J-0.0391
X2.1638 Y2.5501 Z-0.1467 I0.0401 J0.0391
X2.1521 Y2.6325 Z-0.15 I-0.043 J0.0359
G2 X2.1423 Y2.6392 I0.5782 J0.8595 F40.
G3 X2.124 Y2.6363 I-0.0076 J-0.011
G2 X2.1062 Y2.6133 I-0.9377 J0.711
G3 X2.1091 Y2.5973 I0.0084 J-0.0067
G1 X2.1744 Y2.5588
G3 X2.1855 Y2.5652 I0.0037 J0.0063
G1 Y2.5985
G3 X2.175 Y2.6175 I-0.0226 J0.
G2 X2.1521 Y2.6325 I0.5553 J0.8745
X2.1318 Y2.6695 I0.0256 J0.0381
G3 X2.0915 Y2.6821 I-0.0223 J-0.0006
G2 X2.0242 Y2.5993 I-0.8205 J0.599
G3 X2.0265 Y2.5838 I0.0075 J-0.0067
G1 X2.2111 Y2.4752
G3 X2.239 Y2.4912 I0.0094 J0.0159
G1 Y2.6247
G3 X2.225 Y2.6494 I-0.0289 J0.
G2 X2.1294 Y2.7145 I0.5368 J0.8907
G3 X2.1124 Y2.7118 I-0.0072 J-0.0094
G2 X2.0915 Y2.6821 I-0.8413 J0.5693
X2.0131 Y2.6545 I-0.0593 J0.0433
G3 X1.9328 Y2.6325 I-0.0214 J-0.0793
G2 X1.8787 Y2.581 I-0.6866 J0.6681
G3 X1.88 Y2.5665 I0.0059 J-0.0067
G1 X2.2102 Y2.3722
G3 X2.2367 Y2.3726 I0.0129 J0.022
G2 X2.3144 Y2.417 I0.5721 J-0.9102
G3 X2.3282 Y2.4397 I-0.0117 J0.0226
G1 Y2.678
G3 X2.3144 Y2.7011 I-0.0263 J0.
G2 X2.1059 Y2.8514 I0.4755 J0.8795
G3 X2.0912 Y2.849 I-0.0064 J-0.0068
G2 X1.9328 Y2.6325 I-0.8449 J0.4516
X1.8541 Y2.6168 I-0.0507 J0.0494
G3 X1.7743 Y2.6073 I-0.0317 J-0.0733
G2 X1.7593 Y2.5962 I-0.5157 J0.6838
G3 X1.7495 Y2.5721 I0.0143 J-0.0198
G1 X1.7519 Y2.5587
G3 X1.7585 Y2.5426 I0.0397 J0.007
G1 X1.7592 Y2.5417
G3 X1.7719 Y2.5298 I0.0332 J0.0229
G1 X2.2145 Y2.2694
G3 X2.2397 Y2.2705 I0.0117 J0.0199
G2 X2.4009 Y2.3627 I0.5298 J-0.7394
G3 X2.4147 Y2.3838 I-0.0094 J0.0211
G1 Y2.7329
G3 X2.4009 Y2.7544 I-0.0238 J0.
G2 X2.0787 Y3.0084 I0.3711 J0.802
G3 X2.0664 Y3.0064 I-0.0056 J-0.0044
G2 X1.7743 Y2.6073 I-0.8077 J0.2847
X1.7172 Y2.6108 I-0.0265 J0.0352
G3 X1.6666 Y2.584 I-0.0209 J-0.0216
G1 X1.6744 Y2.5395
G3 X1.6908 Y2.5005 I0.0943 J0.0166
G1 X1.6961 Y2.4929
G3 X1.7269 Y2.464 I0.0794 J0.0536
G1 X2.2214 Y2.173
G3 X2.2452 Y2.1747 I0.0106 J0.018
G2 X2.4806 Y2.3094 I0.5274 J-0.6492
G3 X2.4943 Y2.329 I-0.0073 J0.0196
G1 Y2.7868
G3 X2.4806 Y2.8068 I-0.0214 J0.
G2 X2.0838 Y3.1398 I0.2954 J0.7551
G3 X2.0617 Y3.1497 I-0.0183 J-0.0112
G1 X2.0362 Y3.1453
G3 X2.0186 Y3.1283 I0.0038 J-0.0216
G2 X1.8948 Y2.8459 I-0.7713 J0.1697
X1.6718 Y2.633 I-0.6426 J0.4499
G3 X1.6619 Y2.6106 I0.0118 J-0.0185
G1 X1.6666 Y2.584
G2 X1.6349 Y2.5088 I-0.074 J-0.013
G3 X1.6178 Y2.429 I0.0332 J-0.0488
G2 X1.6312 Y2.4037 I-0.1919 J-0.118
G1 X2.2472 Y2.0413
G2 X2.5947 Y2.24 I0.5315 J-0.5263
G1 Y2.8749
G2 X2.131 Y3.264 I0.184 J0.6901
G1 X1.933 Y3.229
G2 X1.5479 Y2.679 I-0.6807 J0.0668
G1 X1.5845 Y2.4709
G2 X1.6178 Y2.429 I-0.1586 J-0.1599
G1 X1.6189 Y2.4277
X1.6204 Y2.4267
X1.6221 Y2.4263
X1.6239
X1.6256 Y2.4269
X1.7156 Y2.4744
X2.1432 Y2.6144
X2.1594 Y2.6193
X2.1607 Y2.62
X2.1616 Y2.6211
X2.1619 Y2.6225
X2.1617 Y2.6239
X2.1609 Y2.6252
G3 X2.0806 Y2.5469 Z-0.1561 I-0.0401 J-0.0391 F20.
X2.1609 Y2.6252 Z-0.1623 I0.0401 J0.0391
X2.0806 Y2.5469 Z-0.1684 I-0.0401 J-0.0391
X2.1638 Y2.5501 Z-0.1717 I0.0401 J0.0391
X2.1521 Y2.6325 Z-0.175 I-0.043 J0.0359
G2 X2.1423 Y2.6392 I0.5782 J0.8595 F40.
G3 X2.124 Y2.6363 I-0.0076 J-0.011
G2 X2.1062 Y2.6133 I-0.9377 J0.711
G3 X2.1091 Y2.5973 I0.0084 J-0.0067
G1 X2.1744 Y2.5588
G3 X2.1855 Y2.5652 I0.0037 J0.0063
G1 Y2.5985
G3 X2.175 Y2.6175 I-0.0226 J0.
G2 X2.1521 Y2.6325 I0.5553 J0.8745
X2.1318 Y2.6695 I0.0256 J0.0381
G3 X2.0915 Y2.6821 I-0.0223 J-0.0006
G2 X2.0242 Y2.5993 I-0.8205 J0.599
G3 X2.0265 Y2.5838 I0.0075 J-0.0067
G1 X2.2111 Y2.4752
G3 X2.239 Y2.4912 I0.0094 J0.0159
G1 Y2.6247
G3 X2.225 Y2.6494 I-0.0289 J0.
G2 X2.1294 Y2.7145 I0.5368 J0.8907
G3 X2.1124 Y2.7118 I-0.0072 J-0.0094
G2 X2.0915 Y2.6821 I-0.8413 J0.5693
X2.0131 Y2.6545 I-0.0593 J0.0433
G3 X1.9328 Y2.6325 I-0.0214 J-0.0793
G2 X1.8787 Y2.581 I-0.6866 J0.6681
G3 X1.88 Y2.5665 I0.0059 J-0.0067
G1 X2.2102 Y2.3722
G3 X2.2367 Y2.3726 I0.0129 J0.022
G2 X2.3144 Y2.417 I0.5721 J-0.9102
G3 X2.3282 Y2.4397 I-0.0117 J0.0226
G1 Y2.678
G3 X2.3144 Y2.7011 I-0.0263 J0.
G2 X2.1059 Y2.8514 I0.4755 J0.8795
G3 X2.0912 Y2.849 I-0.0064 J-0.0068
G2 X1.9328 Y2.6325 I-0.8449 J0.4516
X1.8541 Y2.6168 I-0.0507 J0.0494
G3 X1.7743 Y2.6073 I-0.0317 J-0.0733
G2 X1.7593 Y2.5962 I-0.5157 J0.6838
G3 X1.7495 Y2.5721 I0.0143 J-0.0198
G1 X1.7519 Y2.5587
G3 X1.7585 Y2.5426 I0.0397 J0.007
G1 X1.7592 Y2.5417
G3 X1.7719 Y2.5298 I0.0332 J0.0229
G1 X2.2145 Y2.2694
G3 X2.2397 Y2.2705 I0.0117 J0.0199
G2 X2.4009 Y2.3627 I0.5298 J-0.7394
G3 X2.4147 Y2.3838 I-0.0094 J0.0211
G1 Y2.7329
G3 X2.4009 Y2.7544 I-0.0238 J0.
G2 X2.0787 Y3.0084 I0.3711 J0.802
G3 X2.0664 Y3.0064 I-0.0056 J-0.0044
G2 X1.7743 Y2.6073 I-0.8077 J0.2847
X1.7172 Y2.6108 I-0.0265 J0.0352
G3 X1.6666 Y2.584 I-0.0209 J-0.0216
G1 X1.6744 Y2.5395
G3 X1.6908 Y2.5005 I0.0943 J0.0166
G1 X1.6961 Y2.4929
G3 X1.7269 Y2.464 I0.0794 J0.0536
G1 X2.2214 Y2.173
G3 X2.2452 Y2.1747 I0.0106 J0.018
G2 X2.4806 Y2.3094 I0.5274 J-0.6492
G3 X2.4943 Y2.329 I-0.0073 J0.0196
G1 Y2.7868
G3 X2.4806 Y2.8068 I-0.0214 J0.
G2 X2.0838 Y3.1398 I0.2954 J0.7551
G3 X2.0617 Y3.1497 I-0.0183 J-0.0112
G1 X2.0362 Y3.1453
G3 X2.0186 Y3.1283 I0.0038 J-0.0216
G2 X1.8948 Y2.8459 I-0.7713 J0.1697
X1.6718 Y2.633 I-0.6426 J0.4499
G3 X1.6619 Y2.6106 I0.0118 J-0.0185
G1 X1.6666 Y2.584
G2 X1.6349 Y2.5088 I-0.074 J-0.013
G3 X1.6178 Y2.429 I0.0332 J-0.0488
G2 X1.6312 Y2.4037 I-0.1919 J-0.118
G1 X2.2472 Y2.0413
G2 X2.5947 Y2.24 I0.5315 J-0.5263
G1 Y2.8749
G2 X2.131 Y3.264 I0.184 J0.6901
G1 X1.933 Y3.229
G2 X1.5479 Y2.679 I-0.6807 J0.0668
G1 X1.5845 Y2.4709
G2 X1.6178 Y2.429 I-0.1586 J-0.1599
G1 X1.6189 Y2.4277
X1.6204 Y2.4267
X1.6221 Y2.4263
X1.6239
X1.6256 Y2.4269
X1.7156 Y2.4744
X2.1432 Y2.6144
X2.1594 Y2.6193
X2.1607 Y2.62
X2.1616 Y2.6211
X2.1619 Y2.6225
X2.1617 Y2.6239
X2.1609 Y2.6252
G3 X2.0806 Y2.5469 Z-0.1811 I-0.0401 J-0.0391 F20.
X2.1609 Y2.6252 Z-0.1873 I0.0401 J0.0391
X2.0806 Y2.5469 Z-0.1934 I-0.0401 J-0.0391
X2.1638 Y2.5501 Z-0.1967 I0.0401 J0.0391
X2.1521 Y2.6325 Z-0.2 I-0.043 J0.0359
G2 X2.1423 Y2.6392 I0.5782 J0.8595 F40.
G3 X2.124 Y2.6363 I-0.0076 J-0.011
G2 X2.1062 Y2.6133 I-0.9377 J0.711
G3 X2.1091 Y2.5973 I0.0084 J-0.0067
G1 X2.1744 Y2.5588
G3 X2.1855 Y2.5652 I0.0037 J0.0063
G1 Y2.5985
G3 X2.175 Y2.6175 I-0.0226 J0.
G2 X2.1521 Y2.6325 I0.5553 J0.8745
X2.1318 Y2.6695 I0.0256 J0.0381
G3 X2.0915 Y2.6821 I-0.0223 J-0.0006
G2 X2.0242 Y2.5993 I-0.8205 J0.599
G3 X2.0265 Y2.5838 I0.0075 J-0.0067
G1 X2.2111 Y2.4752
G3 X2.239 Y2.4912 I0.0094 J0.0159
G1 Y2.6247
G3 X2.225 Y2.6494 I-0.0289 J0.
G2 X2.1294 Y2.7145 I0.5368 J0.8907
G3 X2.1124 Y2.7118 I-0.0072 J-0.0094
G2 X2.0915 Y2.6821 I-0.8413 J0.5693
X2.0131 Y2.6545 I-0.0593 J0.0433
G3 X1.9328 Y2.6325 I-0.0214 J-0.0793
G2 X1.8787 Y2.581 I-0.6866 J0.6681
G3 X1.88 Y2.5665 I0.0059 J-0.0067
G1 X2.2102 Y2.3722
G3 X2.2367 Y2.3726 I0.0129 J0.022
G2 X2.3144 Y2.417 I0.5721 J-0.9102
G3 X2.3282 Y2.4397 I-0.0117 J0.0226
G1 Y2.678
G3 X2.3144 Y2.7011 I-0.0263 J0.
G2 X2.1059 Y2.8514 I0.4755 J0.8795
G3 X2.0912 Y2.849 I-0.0064 J-0.0068
G2 X1.9328 Y2.6325 I-0.8449 J0.4516
X1.8541 Y2.6168 I-0.0507 J0.0494
G3 X1.7743 Y2.6073 I-0.0317 J-0.0733
G2 X1.7593 Y2.5962 I-0.5157 J0.6838
G3 X1.7495 Y2.5721 I0.0143 J-0.0198
G1 X1.7519 Y2.5587
G3 X1.7585 Y2.5426 I0.0397 J0.007
G1 X1.7592 Y2.5417
G3 X1.7719 Y2.5298 I0.0332 J0.0229
G1 X2.2145 Y2.2694
G3 X2.2397 Y2.2705 I0.0117 J0.0199
G2 X2.4009 Y2.3627 I0.5298 J-0.7394
G3 X2.4147 Y2.3838 I-0.0094 J0.0211
G1 Y2.7329
G3 X2.4009 Y2.7544 I-0.0238 J0.
G2 X2.0787 Y3.0084 I0.3711 J0.802
G3 X2.0664 Y3.0064 I-0.0056 J-0.0044
G2 X1.7743 Y2.6073 I-0.8077 J0.2847
X1.7172 Y2.6108 I-0.0265 J0.0352
G3 X1.6666 Y2.584 I-0.0209 J-0.0216
G1 X1.6744 Y2.5395
G3 X1.6908 Y2.5005 I0.0943 J0.0166
G1 X1.6961 Y2.4929
G3 X1.7269 Y2.464 I0.0794 J0.0536
G1 X2.2214 Y2.173
G3 X2.2452 Y2.1747 I0.0106 J0.018
G2 X2.4806 Y2.3094 I0.5274 J-0.6492
G3 X2.4943 Y2.329 I-0.0073 J0.0196
G1 Y2.7868
G3 X2.4806 Y2.8068 I-0.0214 J0.
G2 X2.0838 Y3.1398 I0.2954 J0.7551
G3 X2.0617 Y3.1497 I-0.0183 J-0.0112
G1 X2.0362 Y3.1453
G3 X2.0186 Y3.1283 I0.0038 J-0.0216
G2 X1.8948 Y2.8459 I-0.7713 J0.1697
X1.6718 Y2.633 I-0.6426 J0.4499
G3 X1.6619 Y2.6106 I0.0118 J-0.0185
G1 X1.6666 Y2.584
G2 X1.6349 Y2.5088 I-0.074 J-0.013
G3 X1.6178 Y2.429 I0.0332 J-0.0488
G2 X1.6312 Y2.4037 I-0.1919 J-0.118
G1 X2.2472 Y2.0413
G2 X2.5947 Y2.24 I0.5315 J-0.5263
G1 Y2.8749
G2 X2.131 Y3.264 I0.184 J0.6901
G1 X1.933 Y3.229
G2 X1.5479 Y2.679 I-0.6807 J0.0668
G1 X1.5845 Y2.4709
G2 X1.6178 Y2.429 I-0.1586 J-0.1599
G1 X1.6189 Y2.4277
X1.6204 Y2.4267
X1.6221 Y2.4263
X1.6239
X1.6256 Y2.4269
X1.7156 Y2.4744
X2.1432 Y2.6144
X2.1594 Y2.6193
X2.1607 Y2.62
X2.1616 Y2.6211
X2.1619 Y2.6225
X2.1617 Y2.6239
X2.1609 Y2.6252
G3 X2.0806 Y2.5469 Z-0.2061 I-0.0401 J-0.0391 F20.
X2.1609 Y2.6252 Z-0.2123 I0.0401 J0.0391
X2.0806 Y2.5469 Z-0.2184 I-0.0401 J-0.0391
X2.1638 Y2.5501 Z-0.2217 I0.0401 J0.0391
X2.1521 Y2.6325 Z-0.225 I-0.043 J0.0359
G2 X2.1423 Y2.6392 I0.5782 J0.8595 F40.
G3 X2.124 Y2.6363 I-0.0076 J-0.011
G2 X2.1062 Y2.6133 I-0.9377 J0.711
G3 X2.1091 Y2.5973 I0.0084 J-0.0067
G1 X2.1744 Y2.5588
G3 X2.1855 Y2.5652 I0.0037 J0.0063
G1 Y2.5985
G3 X2.175 Y2.6175 I-0.0226 J0.
G2 X2.1521 Y2.6325 I0.5553 J0.8745
X2.1318 Y2.6695 I0.0256 J0.0381
G3 X2.0915 Y2.6821 I-0.0223 J-0.0006
G2 X2.0242 Y2.5993 I-0.8205 J0.599
G3 X2.0265 Y2.5838 I0.0075 J-0.0067
G1 X2.2111 Y2.4752
G3 X2.239 Y2.4912 I0.0094 J0.0159
G1 Y2.6247
G3 X2.225 Y2.6494 I-0.0289 J0.
G2 X2.1294 Y2.7145 I0.5368 J0.8907
G3 X2.1124 Y2.7118 I-0.0072 J-0.0094
G2 X2.0915 Y2.6821 I-0.8413 J0.5693
X2.0131 Y2.6545 I-0.0593 J0.0433
G3 X1.9328 Y2.6325 I-0.0214 J-0.0793
G2 X1.8787 Y2.581 I-0.6866 J0.6681
G3 X1.88 Y2.5665 I0.0059 J-0.0067
G1 X2.2102 Y2.3722
G3 X2.2367 Y2.3726 I0.0129 J0.022
G2 X2.3144 Y2.417 I0.5721 J-0.9102
G3 X2.3282 Y2.4397 I-0.0117 J0.0226
G1 Y2.678
G3 X2.3144 Y2.7011 I-0.0263 J0.
G2 X2.1059 Y2.8514 I0.4755 J0.8795
G3 X2.0912 Y2.849 I-0.0064 J-0.0068
G2 X1.9328 Y2.6325 I-0.8449 J0.4516
X1.8541 Y2.6168 I-0.0507 J0.0494
G3 X1.7743 Y2.6073 I-0.0317 J-0.0733
G2 X1.7593 Y2.5962 I-0.5157 J0.6838
G3 X1.7495 Y2.5721 I0.0143 J-0.0198
G1 X1.7519 Y2.5587
G3 X1.7585 Y2.5426 I0.0397 J0.007
G1 X1.7592 Y2.5417
G3 X1.7719 Y2.5298 I0.0332 J0.0229
G1 X2.2145 Y2.2694
G3 X2.2397 Y2.2705 I0.0117 J0.0199
G2 X2.4009 Y2.3627 I0.5298 J-0.7394
G3 X2.4147 Y2.3838 I-0.0094 J0.0211
G1 Y2.7329
G3 X2.4009 Y2.7544 I-0.0238 J0.
G2 X2.0787 Y3.0084 I0.3711 J0.802
G3 X2.0664 Y3.0064 I-0.0056 J-0.0044
G2 X1.7743 Y2.6073 I-0.8077 J0.2847
X1.7172 Y2.6108 I-0.0265 J0.0352
G3 X1.6666 Y2.584 I-0.0209 J-0.0216
G1 X1.6744 Y2.5395
G3 X1.6908 Y2.5005 I0.0943 J0.0166
G1 X1.6961 Y2.4929
G3 X1.7269 Y2.464 I0.0794 J0.0536
G1 X2.2214 Y2.173
G3 X2.2452 Y2.1747 I0.0106 J0.018
G2 X2.4806 Y2.3094 I0.5274 J-0.6492
G3 X2.4943 Y2.329 I-0.0073 J0.0196
G1 Y2.7868
G3 X2.4806 Y2.8068 I-0.0214 J0.
G2 X2.0838 Y3.1398 I0.2954 J0.7551
G3 X2.0617 Y3.1497 I-0.0183 J-0.0112
G1 X2.0362 Y3.1453
G3 X2.0186 Y3.1283 I0.0038 J-0.0216
G2 X1.8948 Y2.8459 I-0.7713 J0.1697
X1.6718 Y2.633 I-0.6426 J0.4499
G3 X1.6619 Y2.6106 I0.0118 J-0.0185
G1 X1.6666 Y2.584
G2 X1.6349 Y2.5088 I-0.074 J-0.013
G3 X1.6178 Y2.429 I0.0332 J-0.0488
G2 X1.6312 Y2.4037 I-0.1919 J-0.118
G1 X2.2472 Y2.0413
G2 X2.5947 Y2.24 I0.5315 J-0.5263
G1 Y2.8749
G2 X2.131 Y3.264 I0.184 J0.6901
G1 X1.933 Y3.229
G2 X1.5479 Y2.679 I-0.6807 J0.0668
G1 X1.5845 Y2.4709
G2 X1.6178 Y2.429 I-0.1586 J-0.1599
G1 X1.6189 Y2.4277
X1.6204 Y2.4267
X1.6221 Y2.4263
X1.6239
X1.6256 Y2.4269
X1.7156 Y2.4744
X2.1432 Y2.6144
X2.1594 Y2.6193
X2.1607 Y2.62
X2.1616 Y2.6211
X2.1619 Y2.6225
X2.1617 Y2.6239
X2.1609 Y2.6252
G3 X2.0806 Y2.5469 Z-0.2311 I-0.0401 J-0.0391 F20.
X2.1609 Y2.6252 Z-0.2373 I0.0401 J0.0391
X2.0806 Y2.5469 Z-0.2434 I-0.0401 J-0.0391
X2.1638 Y2.5501 Z-0.2467 I0.0401 J0.0391
X2.1521 Y2.6325 Z-0.25 I-0.043 J0.0359
G2 X2.1423 Y2.6392 I0.5782 J0.8595 F40.
G3 X2.124 Y2.6363 I-0.0076 J-0.011
G2 X2.1062 Y2.6133 I-0.9377 J0.711
G3 X2.1091 Y2.5973 I0.0084 J-0.0067
G1 X2.1744 Y2.5588
G3 X2.1855 Y2.5652 I0.0037 J0.0063
G1 Y2.5985
G3 X2.175 Y2.6175 I-0.0226 J0.
G2 X2.1521 Y2.6325 I0.5553 J0.8745
X2.1318 Y2.6695 I0.0256 J0.0381
G3 X2.0915 Y2.6821 I-0.0223 J-0.0006
G2 X2.0242 Y2.5993 I-0.8205 J0.599
G3 X2.0265 Y2.5838 I0.0075 J-0.0067
G1 X2.2111 Y2.4752
G3 X2.239 Y2.4912 I0.0094 J0.0159
G1 Y2.6247
G3 X2.225 Y2.6494 I-0.0289 J0.
G2 X2.1294 Y2.7145 I0.5368 J0.8907
G3 X2.1124 Y2.7118 I-0.0072 J-0.0094
G2 X2.0915 Y2.6821 I-0.8413 J0.5693
X2.0131 Y2.6545 I-0.0593 J0.0433
G3 X1.9328 Y2.6325 I-0.0214 J-0.0793
G2 X1.8787 Y2.581 I-0.6866 J0.6681
G3 X1.88 Y2.5665 I0.0059 J-0.0067
G1 X2.2102 Y2.3722
G3 X2.2367 Y2.3726 I0.0129 J0.022
G2 X2.3144 Y2.417 I0.5721 J-0.9102
G3 X2.3282 Y2.4397 I-0.0117 J0.0226
G1 Y2.678
G3 X2.3144 Y2.7011 I-0.0263 J0.
G2 X2.1059 Y2.8514 I0.4755 J0.8795
G3 X2.0912 Y2.849 I-0.0064 J-0.0068
G2 X1.9328 Y2.6325 I-0.8449 J0.4516
X1.8541 Y2.6168 I-0.0507 J0.0494
G3 X1.7743 Y2.6073 I-0.0317 J-0.0733
G2 X1.7593 Y2.5962 I-0.5157 J0.6838
G3 X1.7495 Y2.5721 I0.0143 J-0.0198
G1 X1.7519 Y2.5587
G3 X1.7585 Y2.5426 I0.0397 J0.007
G1 X1.7592 Y2.5417
G3 X1.7719 Y2.5298 I0.0332 J0.0229
G1 X2.2145 Y2.2694
G3 X2.2397 Y2.2705 I0.0117 J0.0199
G2 X2.4009 Y2.3627 I0.5298 J-0.7394
G3 X2.4147 Y2.3838 I-0.0094 J0.0211
G1 Y2.7329
G3 X2.4009 Y2.7544 I-0.0238 J0.
G2 X2.0787 Y3.0084 I0.3711 J0.802
G3 X2.0664 Y3.0064 I-0.0056 J-0.0044
G2 X1.7743 Y2.6073 I-0.8077 J0.2847
X1.7172 Y2.6108 I-0.0265 J0.0352
G3 X1.6666 Y2.584 I-0.0209 J-0.0216
G1 X1.6744 Y2.5395
G3 X1.6908 Y2.5005 I0.0943 J0.0166
G1 X1.6961 Y2.4929
G3 X1.7269 Y2.464 I0.0794 J0.0536
G1 X2.2214 Y2.173
G3 X2.2452 Y2.1747 I0.0106 J0.018
G2 X2.4806 Y2.3094 I0.5274 J-0.6492
G3 X2.4943 Y2.329 I-0.0073 J0.0196
G1 Y2.7868
G3 X2.4806 Y2.8068 I-0.0214 J0.
G2 X2.0838 Y3.1398 I0.2954 J0.7551
G3 X2.0617 Y3.1497 I-0.0183 J-0.0112
G1 X2.0362 Y3.1453
G3 X2.0186 Y3.1283 I0.0038 J-0.0216
G2 X1.8948 Y2.8459 I-0.7713 J0.1697
X1.6718 Y2.633 I-0.6426 J0.4499
G3 X1.6619 Y2.6106 I0.0118 J-0.0185
G1 X1.6666 Y2.584
G2 X1.6349 Y2.5088 I-0.074 J-0.013
G3 X1.6178 Y2.429 I0.0332 J-0.0488
G2 X1.6312 Y2.4037 I-0.1919 J-0.118
G1 X2.2472 Y2.0413
G2 X2.5947 Y2.24 I0.5315 J-0.5263
G1 Y2.8749
G2 X2.131 Y3.264 I0.184 J0.6901
G1 X1.933 Y3.229
G2 X1.5479 Y2.679 I-0.6807 J0.0668
G1 X1.5845 Y2.4709
G2 X1.6178 Y2.429 I-0.1586 J-0.1599
G1 X1.6189 Y2.4277
X1.6204 Y2.4267
X1.6221 Y2.4263
X1.6239
X1.6256 Y2.4269
X1.7156 Y2.4744
X2.1432 Y2.6144
X2.1594 Y2.6193
X2.1607 Y2.62
X2.1616 Y2.6211
X2.1619 Y2.6225
X2.1617 Y2.6239
X2.1609 Y2.6252
G3 X2.0806 Y2.5469 Z-0.2561 I-0.0401 J-0.0391 F20.
X2.1609 Y2.6252 Z-0.2623 I0.0401 J0.0391
X2.0806 Y2.5469 Z-0.2684 I-0.0401 J-0.0391
X2.1638 Y2.5501 Z-0.2717 I0.0401 J0.0391
X2.1521 Y2.6325 Z-0.275 I-0.043 J0.0359
G2 X2.1423 Y2.6392 I0.5782 J0.8595 F40.
G3 X2.124 Y2.6363 I-0.0076 J-0.011
G2 X2.1062 Y2.6133 I-0.9377 J0.711
G3 X2.1091 Y2.5973 I0.0084 J-0.0067
G1 X2.1744 Y2.5588
G3 X2.1855 Y2.5652 I0.0037 J0.0063
G1 Y2.5985
G3 X2.175 Y2.6175 I-0.0226 J0.
G2 X2.1521 Y2.6325 I0.5553 J0.8745
X2.1318 Y2.6695 I0.0256 J0.0381
G3 X2.0915 Y2.6821 I-0.0223 J-0.0006
G2 X2.0242 Y2.5993 I-0.8205 J0.599
G3 X2.0265 Y2.5838 I0.0075 J-0.0067
G1 X2.2111 Y2.4752
G3 X2.239 Y2.4912 I0.0094 J0.0159
G1 Y2.6247
G3 X2.225 Y2.6494 I-0.0289 J0.
G2 X2.1294 Y2.7145 I0.5368 J0.8907
G3 X2.1124 Y2.7118 I-0.0072 J-0.0094
G2 X2.0915 Y2.6821 I-0.8413 J0.5693
X2.0131 Y2.6545 I-0.0593 J0.0433
G3 X1.9328 Y2.6325 I-0.0214 J-0.0793
G2 X1.8787 Y2.581 I-0.6866 J0.6681
G3 X1.88 Y2.5665 I0.0059 J-0.0067
G1 X2.2102 Y2.3722
G3 X2.2367 Y2.3726 I0.0129 J0.022
G2 X2.3144 Y2.417 I0.5721 J-0.9102
G3 X2.3282 Y2.4397 I-0.0117 J0.0226
G1 Y2.678
G3 X2.3144 Y2.7011 I-0.0263 J0.
G2 X2.1059 Y2.8514 I0.4755 J0.8795
G3 X2.0912 Y2.849 I-0.0064 J-0.0068
G2 X1.9328 Y2.6325 I-0.8449 J0.4516
X1.8541 Y2.6168 I-0.0507 J0.0494
G3 X1.7743 Y2.6073 I-0.0317 J-0.0733
G2 X1.7593 Y2.5962 I-0.5157 J0.6838
G3 X1.7495 Y2.5721 I0.0143 J-0.0198
G1 X1.7519 Y2.5587
G3 X1.7585 Y2.5426 I0.0397 J0.007
G1 X1.7592 Y2.5417
G3 X1.7719 Y2.5298 I0.0332 J0.0229
G1 X2.2145 Y2.2694
G3 X2.2397 Y2.2705 I0.0117 J0.0199
G2 X2.4009 Y2.3627 I0.5298 J-0.7394
G3 X2.4147 Y2.3838 I-0.0094 J0.0211
G1 Y2.7329
G3 X2.4009 Y2.7544 I-0.0238 J0.
G2 X2.0787 Y3.0084 I0.3711 J0.802
G3 X2.0664 Y3.0064 I-0.0056 J-0.0044
G2 X1.7743 Y2.6073 I-0.8077 J0.2847
X1.7172 Y2.6108 I-0.0265 J0.0352
G3 X1.6666 Y2.584 I-0.0209 J-0.0216
G1 X1.6744 Y2.5395
G3 X1.6908 Y2.5005 I0.0943 J0.0166
G1 X1.6961 Y2.4929
G3 X1.7269 Y2.464 I0.0794 J0.0536
G1 X2.2214 Y2.173
G3 X2.2452 Y2.1747 I0.0106 J0.018
G2 X2.4806 Y2.3094 I0.5274 J-0.6492
G3 X2.4943 Y2.329 I-0.0073 J0.0196
G1 Y2.7868
G3 X2.4806 Y2.8068 I-0.0214 J0.
G2 X2.0838 Y3.1398 I0.2954 J0.7551
G3 X2.0617 Y3.1497 I-0.0183 J-0.0112
G1 X2.0362 Y3.1453
G3 X2.0186 Y3.1283 I0.0038 J-0.0216
G2 X1.8948 Y2.8459 I-0.7713 J0.1697
X1.6718 Y2.633 I-0.6426 J0.4499
G3 X1.6619 Y2.6106 I0.0118 J-0.0185
G1 X1.6666 Y2.584
G2 X1.6349 Y2.5088 I-0.074 J-0.013
G3 X1.6178 Y2.429 I0.0332 J-0.0488
G2 X1.6312 Y2.4037 I-0.1919 J-0.118
G1 X2.2472 Y2.0413
G2 X2.5947 Y2.24 I0.5315 J-0.5263
G1 Y2.8749
G2 X2.131 Y3.264 I0.184 J0.6901
G1 X1.933 Y3.229
G2 X1.5479 Y2.679 I-0.6807 J0.0668
G1 X1.5845 Y2.4709
G2 X1.6178 Y2.429 I-0.1586 J-0.1599
G1 X1.6189 Y2.4277
X1.6204 Y2.4267
X1.6221 Y2.4263
X1.6239
X1.6256 Y2.4269
X1.7156 Y2.4744
X2.1432 Y2.6144
X2.1594 Y2.6193
X2.1607 Y2.62
X2.1616 Y2.6211
X2.1619 Y2.6225
X2.1617 Y2.6239
X2.1609 Y2.6252
G3 X2.0806 Y2.5469 Z-0.2811 I-0.0401 J-0.0391 F20.
X2.1609 Y2.6252 Z-0.2873 I0.0401 J0.0391
X2.0806 Y2.5469 Z-0.2934 I-0.0401 J-0.0391
X2.1638 Y2.5501 Z-0.2967 I0.0401 J0.0391
X2.1521 Y2.6325 Z-0.3 I-0.043 J0.0359
G2 X2.1423 Y2.6392 I0.5782 J0.8595 F40.
G3 X2.124 Y2.6363 I-0.0076 J-0.011
G2 X2.1062 Y2.6133 I-0.9377 J0.711
G3 X2.1091 Y2.5973 I0.0084 J-0.0067
G1 X2.1744 Y2.5588
G3 X2.1855 Y2.5652 I0.0037 J0.0063
G1 Y2.5985
G3 X2.175 Y2.6175 I-0.0226 J0.
G2 X2.1521 Y2.6325 I0.5553 J0.8745
X2.1318 Y2.6695 I0.0256 J0.0381
G3 X2.0915 Y2.6821 I-0.0223 J-0.0006
G2 X2.0242 Y2.5993 I-0.8205 J0.599
G3 X2.0265 Y2.5838 I0.0075 J-0.0067
G1 X2.2111 Y2.4752
G3 X2.239 Y2.4912 I0.0094 J0.0159
G1 Y2.6247
G3 X2.225 Y2.6494 I-0.0289 J0.
G2 X2.1294 Y2.7145 I0.5368 J0.8907
G3 X2.1124 Y2.7118 I-0.0072 J-0.0094
G2 X2.0915 Y2.6821 I-0.8413 J0.5693
X2.0131 Y2.6545 I-0.0593 J0.0433
G3 X1.9328 Y2.6325 I-0.0214 J-0.0793
G2 X1.8787 Y2.581 I-0.6866 J0.6681
G3 X1.88 Y2.5665 I0.0059 J-0.0067
G1 X2.2102 Y2.3722
G3 X2.2367 Y2.3726 I0.0129 J0.022
G2 X2.3144 Y2.417 I0.5721 J-0.9102
G3 X2.3282 Y2.4397 I-0.0117 J0.0226
G1 Y2.678
G3 X2.3144 Y2.7011 I-0.0263 J0.
G2 X2.1059 Y2.8514 I0.4755 J0.8795
G3 X2.0912 Y2.849 I-0.0064 J-0.0068
G2 X1.9328 Y2.6325 I-0.8449 J0.4516
X1.8541 Y2.6168 I-0.0507 J0.0494
G3 X1.7743 Y2.6073 I-0.0317 J-0.0733
G2 X1.7593 Y2.5962 I-0.5157 J0.6838
G3 X1.7495 Y2.5721 I0.0143 J-0.0198
G1 X1.7519 Y2.5587
G3 X1.7585 Y2.5426 I0.0397 J0.007
G1 X1.7592 Y2.5417
G3 X1.7719 Y2.5298 I0.0332 J0.0229
G1 X2.2145 Y2.2694
G3 X2.2397 Y2.2705 I0.0117 J0.0199
G2 X2.4009 Y2.3627 I0.5298 J-0.7394
G3 X2.4147 Y2.3838 I-0.0094 J0.0211
G1 Y2.7329
G3 X2.4009 Y2.7544 I-0.0238 J0.
G2 X2.0787 Y3.0084 I0.3711 J0.802
G3 X2.0664 Y3.0064 I-0.0056 J-0.0044
G2 X1.7743 Y2.6073 I-0.8077 J0.2847
X1.7172 Y2.6108 I-0.0265 J0.0352
G3 X1.6666 Y2.584 I-0.0209 J-0.0216
G1 X1.6744 Y2.5395
G3 X1.6908 Y2.5005 I0.0943 J0.0166
G1 X1.6961 Y2.4929
G3 X1.7269 Y2.464 I0.0794 J0.0536
G1 X2.2214 Y2.173
G3 X2.2452 Y2.1747 I0.0106 J0.018
G2 X2.4806 Y2.3094 I0.5274 J-0.6492
G3 X2.4943 Y2.329 I-0.0073 J0.0196
G1 Y2.7868
G3 X2.4806 Y2.8068 I-0.0214 J0.
G2 X2.0838 Y3.1398 I0.2954 J0.7551
G3 X2.0617 Y3.1497 I-0.0183 J-0.0112
G1 X2.0362 Y3.1453
G3 X2.0186 Y3.1283 I0.0038 J-0.0216
G2 X1.8948 Y2.8459 I-0.7713 J0.1697
X1.6718 Y2.633 I-0.6426 J0.4499
G3 X1.6619 Y2.6106 I0.0118 J-0.0185
G1 X1.6666 Y2.584
G2 X1.6349 Y2.5088 I-0.074 J-0.013
G3 X1.6178 Y2.429 I0.0332 J-0.0488
G2 X1.6312 Y2.4037 I-0.1919 J-0.118
G1 X2.2472 Y2.0413
G2 X2.5947 Y2.24 I0.5315 J-0.5263
G1 Y2.8749
G2 X2.131 Y3.264 I0.184 J0.6901
G1 X1.933 Y3.229
G2 X1.5479 Y2.679 I-0.6807 J0.0668
G1 X1.5845 Y2.4709
G2 X1.6178 Y2.429 I-0.1586 J-0.1599
G1 X1.6191 Y2.4272 Z-0.2996
X1.6208 Y2.4257 Z-0.2991
X1.6224 Y2.4247 Z-0.2978
X1.6242 Y2.424 Z-0.2965
X1.6267 Y2.4235 Z-0.2927
X1.6276 Y2.4234 Z-0.2882
G0 Z0.2
X3.4702 Y2.6309
G1 Z0.1118 F40.
X3.469 Y2.6318 Z0.106 F20.
X3.4655 Y2.6341 Z0.1017
X3.4604 Y2.6368 Z0.1
G3 X3.4128 Y2.5353 Z0.0939 I-0.0238 J-0.0507
X3.4604 Y2.6368 Z0.0877 I0.0238 J0.0507
X3.4128 Y2.5353 Z0.0816 I-0.0238 J-0.0507
X3.4604 Y2.6368 Z0.0754 I0.0238 J0.0507
X3.4128 Y2.5353 Z0.0693 I-0.0238 J-0.0507
X3.4604 Y2.6368 Z0.0631 I0.0238 J0.0507
X3.4128 Y2.5353 Z0.057 I-0.0238 J-0.0507
X3.4604 Y2.6368 Z0.0508 I0.0238 J0.0507
X3.4128 Y2.5353 Z0.0447 I-0.0238 J-0.0507
X3.4604 Y2.6368 Z0.0385 I0.0238 J0.0507
X3.4128 Y2.5353 Z0.0324 I-0.0238 J-0.0507
X3.4604 Y2.6368 Z0.0262 I0.0238 J0.0507
X3.4128 Y2.5353 Z0.0201 I-0.0238 J-0.0507
X3.4604 Y2.6368 Z0.0139 I0.0238 J0.0507
X3.4128 Y2.5353 Z0.0078 I-0.0238 J-0.0507
X3.4604 Y2.6368 Z0.0016 I0.0238 J0.0507
X3.4128 Y2.5353 Z-0.0045 I-0.0238 J-0.0507
X3.4604 Y2.6368 Z-0.0107 I0.0238 J0.0507
X3.4128 Y2.5353 Z-0.0168 I-0.0238 J-0.0507
X3.4604 Y2.6368 Z-0.023 I0.0238 J0.0507
X3.4053 Y2.6325 Z-0.025 I-0.0238 J-0.0507
G2 X3.3824 Y2.6175 I-0.5611 J0.8336 F40.
G3 X3.3719 Y2.5985 I0.0121 J-0.0191
G1 Y2.5651
G3 X3.383 Y2.5588 I0.0073 J0.
G1 X3.4483 Y2.5973
G3 X3.4512 Y2.6133 I-0.0055 J0.0093
G2 X3.4334 Y2.6363 I0.8304 J0.6645
G3 X3.4151 Y2.6392 I-0.0107 J-0.0081
G2 X3.4053 Y2.6325 I-0.5709 J0.8269
X3.361 Y2.6395 I-0.0184 J0.0274
G3 X3.3184 Y2.6252 I-0.0187 J-0.0147
G1 Y2.6247
Y2.4912
G3 X3.3463 Y2.4752 I0.0185 J0.
G1 X3.5309 Y2.5838
G3 X3.5332 Y2.5993 I-0.0051 J0.0087
G2 X3.445 Y2.7118 I0.7849 J0.7068
G3 X3.428 Y2.7145 I-0.0098 J-0.0066
G2 X3.3324 Y2.6494 I-0.6569 J0.8616
G3 X3.3184 Y2.6252 I0.0149 J-0.0248
G2 X3.2735 Y2.5594 I-0.0728 J0.0014
G3 X3.2292 Y2.4931 I0.0275 J-0.0663
G1 Y2.4397
G3 X3.243 Y2.417 I0.0255 J0.
G2 X3.3207 Y2.3726 I-0.4944 J-0.9547
G3 X3.3472 Y2.3722 I0.0136 J0.0216
G1 X3.6774 Y2.5665
G3 X3.6788 Y2.5809 I-0.0045 J0.0077
G2 X3.4662 Y2.849 I0.6281 J0.7163
G3 X3.4515 Y2.8514 I-0.0083 J-0.0044
G2 X3.243 Y2.7011 I-0.6776 J0.7202
G3 X3.2292 Y2.678 I0.0125 J-0.0231
G1 Y2.4931
G2 X3.1799 Y2.4333 I-0.0609 J0.
G3 X3.1705 Y2.3563 I0.0077 J-0.04
G2 X3.3177 Y2.2705 I-0.3826 J-0.8252
G3 X3.3429 Y2.2694 I0.0135 J0.0188
G1 X3.7855 Y2.5298
G3 X3.7982 Y2.5417 I-0.0204 J0.0347
G1 X3.7989 Y2.5426
G3 X3.8055 Y2.5586 I-0.0331 J0.0231
G1 X3.8079 Y2.5721
G3 X3.7981 Y2.5962 I-0.0241 J0.0042
G2 X3.491 Y3.0064 I0.5022 J0.696
G3 X3.4787 Y3.0084 I-0.0067 J-0.0024
G2 X3.1565 Y2.7544 I-0.6963 J0.5519
G3 X3.1427 Y2.7329 I0.01 J-0.0216
G1 Y2.3838
G3 X3.1565 Y2.3627 I0.0231 J0.
G2 X3.1705 Y2.3563 I-0.3686 J-0.8316
X3.2082 Y2.2926 I-0.0275 J-0.0593
G3 X3.2413 Y2.2264 I0.073 J-0.0049
G2 X3.3122 Y2.1747 I-0.4565 J-0.7009
G3 X3.336 Y2.173 I0.0132 J0.0162
G1 X3.8305 Y2.4639
G3 X3.8613 Y2.4929 I-0.0486 J0.0826
G1 X3.8666 Y2.5005
G3 X3.883 Y2.5395 I-0.078 J0.0556
G1 X3.8955 Y2.6106
G3 X3.8856 Y2.633 I-0.0216 J0.0038
G2 X3.6626 Y2.8459 I0.4232 J0.6667
X3.5388 Y3.1283 I0.6426 J0.4499
G3 X3.5212 Y3.1453 I-0.0214 J-0.0047
G1 X3.4957 Y3.1497
G3 X3.4736 Y3.1398 I-0.0037 J-0.0211
G2 X3.0768 Y2.8068 I-0.6923 J0.422
G3 X3.0631 Y2.7868 I0.0078 J-0.02
G1 Y2.329
G3 X3.0768 Y2.3094 I0.0209 J0.
G2 X3.2413 Y2.2264 I-0.292 J-0.7838
X3.277 Y2.1387 I-0.0453 J-0.0696
G3 X3.3037 Y2.0478 I0.0953 J-0.0213
G1 X3.3103 Y2.0413
X3.9262 Y2.4037
G2 X3.9729 Y2.4709 I0.2053 J-0.0927
G1 X4.0095 Y2.679
G2 X3.6244 Y3.229 I0.2956 J0.6168
G1 X3.4264 Y3.264
G2 X2.9627 Y2.8749 I-0.6477 J0.301
G1 Y2.24
G2 X3.3037 Y2.0478 I-0.184 J-0.725
G1 X3.3048 Y2.0471
X3.3061 Y2.0469
X3.3073 Y2.0473
X3.3083 Y2.0481
X3.3088 Y2.0493
X3.3118 Y2.063
X3.4179 Y2.6141
X3.4212 Y2.6334
Y2.6349
X3.4207 Y2.6362
X3.4197 Y2.6373
X3.4184 Y2.638
X3.4169 Y2.6383
X3.4155 Y2.638
G3 X3.4577 Y2.5341 Z-0.0311 I0.0211 J-0.0519 F20.
X3.4155 Y2.638 Z-0.0373 I-0.0211 J0.0519
X3.4577 Y2.5341 Z-0.0434 I0.0211 J-0.0519
X3.4861 Y2.6124 Z-0.0467 I-0.0211 J0.0519
X3.4053 Y2.6325 Z-0.05 I-0.0495 J-0.0263
G2 X3.3824 Y2.6175 I-0.5611 J0.8336 F40.
G3 X3.3719 Y2.5985 I0.0121 J-0.0191
G1 Y2.5651
G3 X3.383 Y2.5588 I0.0073 J0.
G1 X3.4483 Y2.5973
G3 X3.4512 Y2.6133 I-0.0055 J0.0093
G2 X3.4334 Y2.6363 I0.8304 J0.6645
G3 X3.4151 Y2.6392 I-0.0107 J-0.0081
G2 X3.4053 Y2.6325 I-0.5709 J0.8269
X3.361 Y2.6395 I-0.0184 J0.0274
G3 X3.3184 Y2.6252 I-0.0187 J-0.0147
G1 Y2.6247
Y2.4912
G3 X3.3463 Y2.4752 I0.0185 J0.
G1 X3.5309 Y2.5838
G3 X3.5332 Y2.5993 I-0.0051 J0.0087
G2 X3.445 Y2.7118 I0.7849 J0.7068
G3 X3.428 Y2.7145 I-0.0098 J-0.0066
G2 X3.3324 Y2.6494 I-0.6569 J0.8616
G3 X3.3184 Y2.6252 I0.0149 J-0.0248
G2 X3.2735 Y2.5594 I-0.0728 J0.0014
G3 X3.2292 Y2.4931 I0.0275 J-0.0663
G1 Y2.4397
G3 X3.243 Y2.417 I0.0255 J0.
G2 X3.3207 Y2.3726 I-0.4944 J-0.9547
G3 X3.3472 Y2.3722 I0.0136 J0.0216
G1 X3.6774 Y2.5665
G3 X3.6788 Y2.5809 I-0.0045 J0.0077
G2 X3.4662 Y2.849 I0.6281 J0.7163
G3 X3.4515 Y2.8514 I-0.0083 J-0.0044
G2 X3.243 Y2.7011 I-0.6776 J0.7202
G3 X3.2292 Y2.678 I0.0125 J-0.0231
G1 Y2.4931
G2 X3.1799 Y2.4333 I-0.0609 J0.
G3 X3.1705 Y2.3563 I0.0077 J-0.04
G2 X3.3177 Y2.2705 I-0.3826 J-0.8252
G3 X3.3429 Y2.2694 I0.0135 J0.0188
G1 X3.7855 Y2.5298
G3 X3.7982 Y2.5417 I-0.0204 J0.0347
G1 X3.7989 Y2.5426
G3 X3.8055 Y2.5586 I-0.0331 J0.0231
G1 X3.8079 Y2.5721
G3 X3.7981 Y2.5962 I-0.0241 J0.0042
G2 X3.491 Y3.0064 I0.5022 J0.696
G3 X3.4787 Y3.0084 I-0.0067 J-0.0024
G2 X3.1565 Y2.7544 I-0.6963 J0.5519
G3 X3.1427 Y2.7329 I0.01 J-0.0216
G1 Y2.3838
G3 X3.1565 Y2.3627 I0.0231 J0.
G2 X3.1705 Y2.3563 I-0.3686 J-0.8316
X3.2082 Y2.2926 I-0.0275 J-0.0593
G3 X3.2413 Y2.2264 I0.073 J-0.0049
G2 X3.3122 Y2.1747 I-0.4565 J-0.7009
G3 X3.336 Y2.173 I0.0132 J0.0162
G1 X3.8305 Y2.4639
G3 X3.8613 Y2.4929 I-0.0486 J0.0826
G1 X3.8666 Y2.5005
G3 X3.883 Y2.5395 I-0.078 J0.0556
G1 X3.8955 Y2.6106
G3 X3.8856 Y2.633 I-0.0216 J0.0038
G2 X3.6626 Y2.8459 I0.4232 J0.6667
X3.5388 Y3.1283 I0.6426 J0.4499
G3 X3.5212 Y3.1453 I-0.0214 J-0.0047
G1 X3.4957 Y3.1497
G3 X3.4736 Y3.1398 I-0.0037 J-0.0211
G2 X3.0768 Y2.8068 I-0.6923 J0.422
G3 X3.0631 Y2.7868 I0.0078 J-0.02
G1 Y2.329
G3 X3.0768 Y2.3094 I0.0209 J0.
G2 X3.2413 Y2.2264 I-0.292 J-0.7838
X3.277 Y2.1387 I-0.0453 J-0.0696
G3 X3.3037 Y2.0478 I0.0953 J-0.0213
G1 X3.3103 Y2.0413
X3.9262 Y2.4037
G2 X3.9729 Y2.4709 I0.2053 J-0.0927
G1 X4.0095 Y2.679
G2 X3.6244 Y3.229 I0.2956 J0.6168
G1 X3.4264 Y3.264
G2 X2.9627 Y2.8749 I-0.6477 J0.301
G1 Y2.24
G2 X3.3037 Y2.0478 I-0.184 J-0.725
G1 X3.3048 Y2.0471
X3.3061 Y2.0469
X3.3073 Y2.0473
X3.3083 Y2.0481
X3.3088 Y2.0493
X3.3118 Y2.063
X3.4179 Y2.6141
X3.4212 Y2.6334
Y2.6349
X3.4207 Y2.6362
X3.4197 Y2.6373
X3.4184 Y2.638
X3.4169 Y2.6383
X3.4155 Y2.638
G3 X3.4577 Y2.5341 Z-0.0561 I0.0211 J-0.0519 F20.
X3.4155 Y2.638 Z-0.0623 I-0.0211 J0.0519
X3.4577 Y2.5341 Z-0.0684 I0.0211 J-0.0519
X3.4861 Y2.6124 Z-0.0717 I-0.0211 J0.0519
X3.4053 Y2.6325 Z-0.075 I-0.0495 J-0.0263
G2 X3.3824 Y2.6175 I-0.5611 J0.8336 F40.
G3 X3.3719 Y2.5985 I0.0121 J-0.0191
G1 Y2.5651
G3 X3.383 Y2.5588 I0.0073 J0.
G1 X3.4483 Y2.5973
G3 X3.4512 Y2.6133 I-0.0055 J0.0093
G2 X3.4334 Y2.6363 I0.8304 J0.6645
G3 X3.4151 Y2.6392 I-0.0107 J-0.0081
G2 X3.4053 Y2.6325 I-0.5709 J0.8269
X3.361 Y2.6395 I-0.0184 J0.0274
G3 X3.3184 Y2.6252 I-0.0187 J-0.0147
G1 Y2.6247
Y2.4912
G3 X3.3463 Y2.4752 I0.0185 J0.
G1 X3.5309 Y2.5838
G3 X3.5332 Y2.5993 I-0.0051 J0.0087
G2 X3.445 Y2.7118 I0.7849 J0.7068
G3 X3.428 Y2.7145 I-0.0098 J-0.0066
G2 X3.3324 Y2.6494 I-0.6569 J0.8616
G3 X3.3184 Y2.6252 I0.0149 J-0.0248
G2 X3.2735 Y2.5594 I-0.0728 J0.0014
G3 X3.2292 Y2.4931 I0.0275 J-0.0663
G1 Y2.4397
G3 X3.243 Y2.417 I0.0255 J0.
G2 X3.3207 Y2.3726 I-0.4944 J-0.9547
G3 X3.3472 Y2.3722 I0.0136 J0.0216
G1 X3.6774 Y2.5665
G3 X3.6788 Y2.5809 I-0.0045 J0.0077
G2 X3.4662 Y2.849 I0.6281 J0.7163
G3 X3.4515 Y2.8514 I-0.0083 J-0.0044
G2 X3.243 Y2.7011 I-0.6776 J0.7202
G3 X3.2292 Y2.678 I0.0125 J-0.0231
G1 Y2.4931
G2 X3.1799 Y2.4333 I-0.0609 J0.
G3 X3.1705 Y2.3563 I0.0077 J-0.04
G2 X3.3177 Y2.2705 I-0.3826 J-0.8252
G3 X3.3429 Y2.2694 I0.0135 J0.0188
G1 X3.7855 Y2.5298
G3 X3.7982 Y2.5417 I-0.0204 J0.0347
G1 X3.7989 Y2.5426
G3 X3.8055 Y2.5586 I-0.0331 J0.0231
G1 X3.8079 Y2.5721
G3 X3.7981 Y2.5962 I-0.0241 J0.0042
G2 X3.491 Y3.0064 I0.5022 J0.696
G3 X3.4787 Y3.0084 I-0.0067 J-0.0024
G2 X3.1565 Y2.7544 I-0.6963 J0.5519
G3 X3.1427 Y2.7329 I0.01 J-0.0216
G1 Y2.3838
G3 X3.1565 Y2.3627 I0.0231 J0.
G2 X3.1705 Y2.3563 I-0.3686 J-0.8316
X3.2082 Y2.2926 I-0.0275 J-0.0593
G3 X3.2413 Y2.2264 I0.073 J-0.0049
G2 X3.3122 Y2.1747 I-0.4565 J-0.7009
G3 X3.336 Y2.173 I0.0132 J0.0162
G1 X3.8305 Y2.4639
G3 X3.8613 Y2.4929 I-0.0486 J0.0826
G1 X3.8666 Y2.5005
G3 X3.883 Y2.5395 I-0.078 J0.0556
G1 X3.8955 Y2.6106
G3 X3.8856 Y2.633 I-0.0216 J0.0038
G2 X3.6626 Y2.8459 I0.4232 J0.6667
X3.5388 Y3.1283 I0.6426 J0.4499
G3 X3.5212 Y3.1453 I-0.0214 J-0.0047
G1 X3.4957 Y3.1497
G3 X3.4736 Y3.1398 I-0.0037 J-0.0211
G2 X3.0768 Y2.8068 I-0.6923 J0.422
G3 X3.0631 Y2.7868 I0.0078 J-0.02
G1 Y2.329
G3 X3.0768 Y2.3094 I0.0209 J0.
G2 X3.2413 Y2.2264 I-0.292 J-0.7838
X3.277 Y2.1387 I-0.0453 J-0.0696
G3 X3.3037 Y2.0478 I0.0953 J-0.0213
G1 X3.3103 Y2.0413
X3.9262 Y2.4037
G2 X3.9729 Y2.4709 I0.2053 J-0.0927
G1 X4.0095 Y2.679
G2 X3.6244 Y3.229 I0.2956 J0.6168
G1 X3.4264 Y3.264
G2 X2.9627 Y2.8749 I-0.6477 J0.301
G1 Y2.24
G2 X3.3037 Y2.0478 I-0.184 J-0.725
G1 X3.3048 Y2.0471
X3.3061 Y2.0469
X3.3073 Y2.0473
X3.3083 Y2.0481
X3.3088 Y2.0493
X3.3118 Y2.063
X3.4179 Y2.6141
X3.4212 Y2.6334
Y2.6349
X3.4207 Y2.6362
X3.4197 Y2.6373
X3.4184 Y2.638
X3.4169 Y2.6383
X3.4155 Y2.638
G3 X3.4577 Y2.5341 Z-0.0811 I0.0211 J-0.0519 F20.
X3.4155 Y2.638 Z-0.0873 I-0.0211 J0.0519
X3.4577 Y2.5341 Z-0.0934 I0.0211 J-0.0519
X3.4861 Y2.6124 Z-0.0967 I-0.0211 J0.0519
X3.4053 Y2.6325 Z-0.1 I-0.0495 J-0.0263
G2 X3.3824 Y2.6175 I-0.5611 J0.8336 F40.
G3 X3.3719 Y2.5985 I0.0121 J-0.0191
G1 Y2.5651
G3 X3.383 Y2.5588 I0.0073 J0.
G1 X3.4483 Y2.5973
G3 X3.4512 Y2.6133 I-0.0055 J0.0093
G2 X3.4334 Y2.6363 I0.8304 J0.6645
G3 X3.4151 Y2.6392 I-0.0107 J-0.0081
G2 X3.4053 Y2.6325 I-0.5709 J0.8269
X3.361 Y2.6395 I-0.0184 J0.0274
G3 X3.3184 Y2.6252 I-0.0187 J-0.0147
G1 Y2.6247
Y2.4912
G3 X3.3463 Y2.4752 I0.0185 J0.
G1 X3.5309 Y2.5838
G3 X3.5332 Y2.5993 I-0.0051 J0.0087
G2 X3.445 Y2.7118 I0.7849 J0.7068
G3 X3.428 Y2.7145 I-0.0098 J-0.0066
G2 X3.3324 Y2.6494 I-0.6569 J0.8616
G3 X3.3184 Y2.6252 I0.0149 J-0.0248
G2 X3.2735 Y2.5594 I-0.0728 J0.0014
G3 X3.2292 Y2.4931 I0.0275 J-0.0663
G1 Y2.4397
G3 X3.243 Y2.417 I0.0255 J0.
G2 X3.3207 Y2.3726 I-0.4944 J-0.9547
G3 X3.3472 Y2.3722 I0.0136 J0.0216
G1 X3.6774 Y2.5665
G3 X3.6788 Y2.5809 I-0.0045 J0.0077
G2 X3.4662 Y2.849 I0.6281 J0.7163
G3 X3.4515 Y2.8514 I-0.0083 J-0.0044
G2 X3.243 Y2.7011 I-0.6776 J0.7202
G3 X3.2292 Y2.678 I0.0125 J-0.0231
G1 Y2.4931
G2 X3.1799 Y2.4333 I-0.0609 J0.
G3 X3.1705 Y2.3563 I0.0077 J-0.04
G2 X3.3177 Y2.2705 I-0.3826 J-0.8252
G3 X3.3429 Y2.2694 I0.0135 J0.0188
G1 X3.7855 Y2.5298
G3 X3.7982 Y2.5417 I-0.0204 J0.0347
G1 X3.7989 Y2.5426
G3 X3.8055 Y2.5586 I-0.0331 J0.0231
G1 X3.8079 Y2.5721
G3 X3.7981 Y2.5962 I-0.0241 J0.0042
G2 X3.491 Y3.0064 I0.5022 J0.696
G3 X3.4787 Y3.0084 I-0.0067 J-0.0024
G2 X3.1565 Y2.7544 I-0.6963 J0.5519
G3 X3.1427 Y2.7329 I0.01 J-0.0216
G1 Y2.3838
G3 X3.1565 Y2.3627 I0.0231 J0.
G2 X3.1705 Y2.3563 I-0.3686 J-0.8316
X3.2082 Y2.2926 I-0.0275 J-0.0593
G3 X3.2413 Y2.2264 I0.073 J-0.0049
G2 X3.3122 Y2.1747 I-0.4565 J-0.7009
G3 X3.336 Y2.173 I0.0132 J0.0162
G1 X3.8305 Y2.4639
G3 X3.8613 Y2.4929 I-0.0486 J0.0826
G1 X3.8666 Y2.5005
G3 X3.883 Y2.5395 I-0.078 J0.0556
G1 X3.8955 Y2.6106
G3 X3.8856 Y2.633 I-0.0216 J0.0038
G2 X3.6626 Y2.8459 I0.4232 J0.6667
X3.5388 Y3.1283 I0.6426 J0.4499
G3 X3.5212 Y3.1453 I-0.0214 J-0.0047
G1 X3.4957 Y3.1497
G3 X3.4736 Y3.1398 I-0.0037 J-0.0211
G2 X3.0768 Y2.8068 I-0.6923 J0.422
G3 X3.0631 Y2.7868 I0.0078 J-0.02
G1 Y2.329
G3 X3.0768 Y2.3094 I0.0209 J0.
G2 X3.2413 Y2.2264 I-0.292 J-0.7838
X3.277 Y2.1387 I-0.0453 J-0.0696
G3 X3.3037 Y2.0478 I0.0953 J-0.0213
G1 X3.3103 Y2.0413
X3.9262 Y2.4037
G2 X3.9729 Y2.4709 I0.2053 J-0.0927
G1 X4.0095 Y2.679
G2 X3.6244 Y3.229 I0.2956 J0.6168
G1 X3.4264 Y3.264
G2 X2.9627 Y2.8749 I-0.6477 J0.301
G1 Y2.24
G2 X3.3037 Y2.0478 I-0.184 J-0.725
G1 X3.3048 Y2.0471
X3.3061 Y2.0469
X3.3073 Y2.0473
X3.3083 Y2.0481
X3.3088 Y2.0493
X3.3118 Y2.063
X3.4179 Y2.6141
X3.4212 Y2.6334
Y2.6349
X3.4207 Y2.6362
X3.4197 Y2.6373
X3.4184 Y2.638
X3.4169 Y2.6383
X3.4155 Y2.638
G3 X3.4577 Y2.5341 Z-0.1061 I0.0211 J-0.0519 F20.
X3.4155 Y2.638 Z-0.1123 I-0.0211 J0.0519
X3.4577 Y2.5341 Z-0.1184 I0.0211 J-0.0519
X3.4861 Y2.6124 Z-0.1217 I-0.0211 J0.0519
X3.4053 Y2.6325 Z-0.125 I-0.0495 J-0.0263
G2 X3.3824 Y2.6175 I-0.5611 J0.8336 F40.
G3 X3.3719 Y2.5985 I0.0121 J-0.0191
G1 Y2.5651
G3 X3.383 Y2.5588 I0.0073 J0.
G1 X3.4483 Y2.5973
G3 X3.4512 Y2.6133 I-0.0055 J0.0093
G2 X3.4334 Y2.6363 I0.8304 J0.6645
G3 X3.4151 Y2.6392 I-0.0107 J-0.0081
G2 X3.4053 Y2.6325 I-0.5709 J0.8269
X3.361 Y2.6395 I-0.0184 J0.0274
G3 X3.3184 Y2.6252 I-0.0187 J-0.0147
G1 Y2.6247
Y2.4912
G3 X3.3463 Y2.4752 I0.0185 J0.
G1 X3.5309 Y2.5838
G3 X3.5332 Y2.5993 I-0.0051 J0.0087
G2 X3.445 Y2.7118 I0.7849 J0.7068
G3 X3.428 Y2.7145 I-0.0098 J-0.0066
G2 X3.3324 Y2.6494 I-0.6569 J0.8616
G3 X3.3184 Y2.6252 I0.0149 J-0.0248
G2 X3.2735 Y2.5594 I-0.0728 J0.0014
G3 X3.2292 Y2.4931 I0.0275 J-0.0663
G1 Y2.4397
G3 X3.243 Y2.417 I0.0255 J0.
G2 X3.3207 Y2.3726 I-0.4944 J-0.9547
G3 X3.3472 Y2.3722 I0.0136 J0.0216
G1 X3.6774 Y2.5665
G3 X3.6788 Y2.5809 I-0.0045 J0.0077
G2 X3.4662 Y2.849 I0.6281 J0.7163
G3 X3.4515 Y2.8514 I-0.0083 J-0.0044
G2 X3.243 Y2.7011 I-0.6776 J0.7202
G3 X3.2292 Y2.678 I0.0125 J-0.0231
G1 Y2.4931
G2 X3.1799 Y2.4333 I-0.0609 J0.
G3 X3.1705 Y2.3563 I0.0077 J-0.04
G2 X3.3177 Y2.2705 I-0.3826 J-0.8252
G3 X3.3429 Y2.2694 I0.0135 J0.0188
G1 X3.7855 Y2.5298
G3 X3.7982 Y2.5417 I-0.0204 J0.0347
G1 X3.7989 Y2.5426
G3 X3.8055 Y2.5586 I-0.0331 J0.0231
G1 X3.8079 Y2.5721
G3 X3.7981 Y2.5962 I-0.0241 J0.0042
G2 X3.491 Y3.0064 I0.5022 J0.696
G3 X3.4787 Y3.0084 I-0.0067 J-0.0024
G2 X3.1565 Y2.7544 I-0.6963 J0.5519
G3 X3.1427 Y2.7329 I0.01 J-0.0216
G1 Y2.3838
G3 X3.1565 Y2.3627 I0.0231 J0.
G2 X3.1705 Y2.3563 I-0.3686 J-0.8316
X3.2082 Y2.2926 I-0.0275 J-0.0593
G3 X3.2413 Y2.2264 I0.073 J-0.0049
G2 X3.3122 Y2.1747 I-0.4565 J-0.7009
G3 X3.336 Y2.173 I0.0132 J0.0162
G1 X3.8305 Y2.4639
G3 X3.8613 Y2.4929 I-0.0486 J0.0826
G1 X3.8666 Y2.5005
G3 X3.883 Y2.5395 I-0.078 J0.0556
G1 X3.8955 Y2.6106
G3 X3.8856 Y2.633 I-0.0216 J0.0038
G2 X3.6626 Y2.8459 I0.4232 J0.6667
X3.5388 Y3.1283 I0.6426 J0.4499
G3 X3.5212 Y3.1453 I-0.0214 J-0.0047
G1 X3.4957 Y3.1497
G3 X3.4736 Y3.1398 I-0.0037 J-0.0211
G2 X3.0768 Y2.8068 I-0.6923 J0.422
G3 X3.0631 Y2.7868 I0.0078 J-0.02
G1 Y2.329
G3 X3.0768 Y2.3094 I0.0209 J0.
G2 X3.2413 Y2.2264 I-0.292 J-0.7838
X3.277 Y2.1387 I-0.0453 J-0.0696
G3 X3.3037 Y2.0478 I0.0953 J-0.0213
G1 X3.3103 Y2.0413
X3.9262 Y2.4037
G2 X3.9729 Y2.4709 I0.2053 J-0.0927
G1 X4.0095 Y2.679
G2 X3.6244 Y3.229 I0.2956 J0.6168
G1 X3.4264 Y3.264
G2 X2.9627 Y2.8749 I-0.6477 J0.301
G1 Y2.24
G2 X3.3037 Y2.0478 I-0.184 J-0.725
G1 X3.3048 Y2.0471
X3.3061 Y2.0469
X3.3073 Y2.0473
X3.3083 Y2.0481
X3.3088 Y2.0493
X3.3118 Y2.063
X3.4179 Y2.6141
X3.4212 Y2.6334
Y2.6349
X3.4207 Y2.6362
X3.4197 Y2.6373
X3.4184 Y2.638
X3.4169 Y2.6383
X3.4155 Y2.638
G3 X3.4577 Y2.5341 Z-0.1311 I0.0211 J-0.0519 F20.
X3.4155 Y2.638 Z-0.1373 I-0.0211 J0.0519
X3.4577 Y2.5341 Z-0.1434 I0.0211 J-0.0519
X3.4861 Y2.6124 Z-0.1467 I-0.0211 J0.0519
X3.4053 Y2.6325 Z-0.15 I-0.0495 J-0.0263
G2 X3.3824 Y2.6175 I-0.5611 J0.8336 F40.
G3 X3.3719 Y2.5985 I0.0121 J-0.0191
G1 Y2.5651
G3 X3.383 Y2.5588 I0.0073 J0.
G1 X3.4483 Y2.5973
G3 X3.4512 Y2.6133 I-0.0055 J0.0093
G2 X3.4334 Y2.6363 I0.8304 J0.6645
G3 X3.4151 Y2.6392 I-0.0107 J-0.0081
G2 X3.4053 Y2.6325 I-0.5709 J0.8269
X3.361 Y2.6395 I-0.0184 J0.0274
G3 X3.3184 Y2.6252 I-0.0187 J-0.0147
G1 Y2.6247
Y2.4912
G3 X3.3463 Y2.4752 I0.0185 J0.
G1 X3.5309 Y2.5838
G3 X3.5332 Y2.5993 I-0.0051 J0.0087
G2 X3.445 Y2.7118 I0.7849 J0.7068
G3 X3.428 Y2.7145 I-0.0098 J-0.0066
G2 X3.3324 Y2.6494 I-0.6569 J0.8616
G3 X3.3184 Y2.6252 I0.0149 J-0.0248
G2 X3.2735 Y2.5594 I-0.0728 J0.0014
G3 X3.2292 Y2.4931 I0.0275 J-0.0663
G1 Y2.4397
G3 X3.243 Y2.417 I0.0255 J0.
G2 X3.3207 Y2.3726 I-0.4944 J-0.9547
G3 X3.3472 Y2.3722 I0.0136 J0.0216
G1 X3.6774 Y2.5665
G3 X3.6788 Y2.5809 I-0.0045 J0.0077
G2 X3.4662 Y2.849 I0.6281 J0.7163
G3 X3.4515 Y2.8514 I-0.0083 J-0.0044
G2 X3.243 Y2.7011 I-0.6776 J0.7202
G3 X3.2292 Y2.678 I0.0125 J-0.0231
G1 Y2.4931
G2 X3.1799 Y2.4333 I-0.0609 J0.
G3 X3.1705 Y2.3563 I0.0077 J-0.04
G2 X3.3177 Y2.2705 I-0.3826 J-0.8252
G3 X3.3429 Y2.2694 I0.0135 J0.0188
G1 X3.7855 Y2.5298
G3 X3.7982 Y2.5417 I-0.0204 J0.0347
G1 X3.7989 Y2.5426
G3 X3.8055 Y2.5586 I-0.0331 J0.0231
G1 X3.8079 Y2.5721
G3 X3.7981 Y2.5962 I-0.0241 J0.0042
G2 X3.491 Y3.0064 I0.5022 J0.696
G3 X3.4787 Y3.0084 I-0.0067 J-0.0024
G2 X3.1565 Y2.7544 I-0.6963 J0.5519
G3 X3.1427 Y2.7329 I0.01 J-0.0216
G1 Y2.3838
G3 X3.1565 Y2.3627 I0.0231 J0.
G2 X3.1705 Y2.3563 I-0.3686 J-0.8316
X3.2082 Y2.2926 I-0.0275 J-0.0593
G3 X3.2413 Y2.2264 I0.073 J-0.0049
G2 X3.3122 Y2.1747 I-0.4565 J-0.7009
G3 X3.336 Y2.173 I0.0132 J0.0162
G1 X3.8305 Y2.4639
G3 X3.8613 Y2.4929 I-0.0486 J0.0826
G1 X3.8666 Y2.5005
G3 X3.883 Y2.5395 I-0.078 J0.0556
G1 X3.8955 Y2.6106
G3 X3.8856 Y2.633 I-0.0216 J0.0038
G2 X3.6626 Y2.8459 I0.4232 J0.6667
X3.5388 Y3.1283 I0.6426 J0.4499
G3 X3.5212 Y3.1453 I-0.0214 J-0.0047
G1 X3.4957 Y3.1497
G3 X3.4736 Y3.1398 I-0.0037 J-0.0211
G2 X3.0768 Y2.8068 I-0.6923 J0.422
G3 X3.0631 Y2.7868 I0.0078 J-0.02
G1 Y2.329
G3 X3.0768 Y2.3094 I0.0209 J0.
G2 X3.2413 Y2.2264 I-0.292 J-0.7838
X3.277 Y2.1387 I-0.0453 J-0.0696
G3 X3.3037 Y2.0478 I0.0953 J-0.0213
G1 X3.3103 Y2.0413
X3.9262 Y2.4037
G2 X3.9729 Y2.4709 I0.2053 J-0.0927
G1 X4.0095 Y2.679
G2 X3.6244 Y3.229 I0.2956 J0.6168
G1 X3.4264 Y3.264
G2 X2.9627 Y2.8749 I-0.6477 J0.301
G1 Y2.24
G2 X3.3037 Y2.0478 I-0.184 J-0.725
G1 X3.3048 Y2.0471
X3.3061 Y2.0469
X3.3073 Y2.0473
X3.3083 Y2.0481
X3.3088 Y2.0493
X3.3118 Y2.063
X3.4179 Y2.6141
X3.4212 Y2.6334
Y2.6349
X3.4207 Y2.6362
X3.4197 Y2.6373
X3.4184 Y2.638
X3.4169 Y2.6383
X3.4155 Y2.638
G3 X3.4577 Y2.5341 Z-0.1561 I0.0211 J-0.0519 F20.
X3.4155 Y2.638 Z-0.1623 I-0.0211 J0.0519
X3.4577 Y2.5341 Z-0.1684 I0.0211 J-0.0519
X3.4861 Y2.6124 Z-0.1717 I-0.0211 J0.0519
X3.4053 Y2.6325 Z-0.175 I-0.0495 J-0.0263
G2 X3.3824 Y2.6175 I-0.5611 J0.8336 F40.
G3 X3.3719 Y2.5985 I0.0121 J-0.0191
G1 Y2.5651
G3 X3.383 Y2.5588 I0.0073 J0.
G1 X3.4483 Y2.5973
G3 X3.4512 Y2.6133 I-0.0055 J0.0093
G2 X3.4334 Y2.6363 I0.8304 J0.6645
G3 X3.4151 Y2.6392 I-0.0107 J-0.0081
G2 X3.4053 Y2.6325 I-0.5709 J0.8269
X3.361 Y2.6395 I-0.0184 J0.0274
G3 X3.3184 Y2.6252 I-0.0187 J-0.0147
G1 Y2.6247
Y2.4912
G3 X3.3463 Y2.4752 I0.0185 J0.
G1 X3.5309 Y2.5838
G3 X3.5332 Y2.5993 I-0.0051 J0.0087
G2 X3.445 Y2.7118 I0.7849 J0.7068
G3 X3.428 Y2.7145 I-0.0098 J-0.0066
G2 X3.3324 Y2.6494 I-0.6569 J0.8616
G3 X3.3184 Y2.6252 I0.0149 J-0.0248
G2 X3.2735 Y2.5594 I-0.0728 J0.0014
G3 X3.2292 Y2.4931 I0.0275 J-0.0663
G1 Y2.4397
G3 X3.243 Y2.417 I0.0255 J0.
G2 X3.3207 Y2.3726 I-0.4944 J-0.9547
G3 X3.3472 Y2.3722 I0.0136 J0.0216
G1 X3.6774 Y2.5665
G3 X3.6788 Y2.5809 I-0.0045 J0.0077
G2 X3.4662 Y2.849 I0.6281 J0.7163
G3 X3.4515 Y2.8514 I-0.0083 J-0.0044
G2 X3.243 Y2.7011 I-0.6776 J0.7202
G3 X3.2292 Y2.678 I0.0125 J-0.0231
G1 Y2.4931
G2 X3.1799 Y2.4333 I-0.0609 J0.
G3 X3.1705 Y2.3563 I0.0077 J-0.04
G2 X3.3177 Y2.2705 I-0.3826 J-0.8252
G3 X3.3429 Y2.2694 I0.0135 J0.0188
G1 X3.7855 Y2.5298
G3 X3.7982 Y2.5417 I-0.0204 J0.0347
G1 X3.7989 Y2.5426
G3 X3.8055 Y2.5586 I-0.0331 J0.0231
G1 X3.8079 Y2.5721
G3 X3.7981 Y2.5962 I-0.0241 J0.0042
G2 X3.491 Y3.0064 I0.5022 J0.696
G3 X3.4787 Y3.0084 I-0.0067 J-0.0024
G2 X3.1565 Y2.7544 I-0.6963 J0.5519
G3 X3.1427 Y2.7329 I0.01 J-0.0216
G1 Y2.3838
G3 X3.1565 Y2.3627 I0.0231 J0.
G2 X3.1705 Y2.3563 I-0.3686 J-0.8316
X3.2082 Y2.2926 I-0.0275 J-0.0593
G3 X3.2413 Y2.2264 I0.073 J-0.0049
G2 X3.3122 Y2.1747 I-0.4565 J-0.7009
G3 X3.336 Y2.173 I0.0132 J0.0162
G1 X3.8305 Y2.4639
G3 X3.8613 Y2.4929 I-0.0486 J0.0826
G1 X3.8666 Y2.5005
G3 X3.883 Y2.5395 I-0.078 J0.0556
G1 X3.8955 Y2.6106
G3 X3.8856 Y2.633 I-0.0216 J0.0038
G2 X3.6626 Y2.8459 I0.4232 J0.6667
X3.5388 Y3.1283 I0.6426 J0.4499
G3 X3.5212 Y3.1453 I-0.0214 J-0.0047
G1 X3.4957 Y3.1497
G3 X3.4736 Y3.1398 I-0.0037 J-0.0211
G2 X3.0768 Y2.8068 I-0.6923 J0.422
G3 X3.0631 Y2.7868 I0.0078 J-0.02
G1 Y2.329
G3 X3.0768 Y2.3094 I0.0209 J0.
G2 X3.2413 Y2.2264 I-0.292 J-0.7838
X3.277 Y2.1387 I-0.0453 J-0.0696
G3 X3.3037 Y2.0478 I0.0953 J-0.0213
G1 X3.3103 Y2.0413
X3.9262 Y2.4037
G2 X3.9729 Y2.4709 I0.2053 J-0.0927
G1 X4.0095 Y2.679
G2 X3.6244 Y3.229 I0.2956 J0.6168
G1 X3.4264 Y3.264
G2 X2.9627 Y2.8749 I-0.6477 J0.301
G1 Y2.24
G2 X3.3037 Y2.0478 I-0.184 J-0.725
G1 X3.3048 Y2.0471
X3.3061 Y2.0469
X3.3073 Y2.0473
X3.3083 Y2.0481
X3.3088 Y2.0493
X3.3118 Y2.063
X3.4179 Y2.6141
X3.4212 Y2.6334
Y2.6349
X3.4207 Y2.6362
X3.4197 Y2.6373
X3.4184 Y2.638
X3.4169 Y2.6383
X3.4155 Y2.638
G3 X3.4577 Y2.5341 Z-0.1811 I0.0211 J-0.0519 F20.
X3.4155 Y2.638 Z-0.1873 I-0.0211 J0.0519
X3.4577 Y2.5341 Z-0.1934 I0.0211 J-0.0519
X3.4861 Y2.6124 Z-0.1967 I-0.0211 J0.0519
X3.4053 Y2.6325 Z-0.2 I-0.0495 J-0.0263
G2 X3.3824 Y2.6175 I-0.5611 J0.8336 F40.
G3 X3.3719 Y2.5985 I0.0121 J-0.0191
G1 Y2.5651
G3 X3.383 Y2.5588 I0.0073 J0.
G1 X3.4483 Y2.5973
G3 X3.4512 Y2.6133 I-0.0055 J0.0093
G2 X3.4334 Y2.6363 I0.8304 J0.6645
G3 X3.4151 Y2.6392 I-0.0107 J-0.0081
G2 X3.4053 Y2.6325 I-0.5709 J0.8269
X3.361 Y2.6395 I-0.0184 J0.0274
G3 X3.3184 Y2.6252 I-0.0187 J-0.0147
G1 Y2.6247
Y2.4912
G3 X3.3463 Y2.4752 I0.0185 J0.
G1 X3.5309 Y2.5838
G3 X3.5332 Y2.5993 I-0.0051 J0.0087
G2 X3.445 Y2.7118 I0.7849 J0.7068
G3 X3.428 Y2.7145 I-0.0098 J-0.0066
G2 X3.3324 Y2.6494 I-0.6569 J0.8616
G3 X3.3184 Y2.6252 I0.0149 J-0.0248
G2 X3.2735 Y2.5594 I-0.0728 J0.0014
G3 X3.2292 Y2.4931 I0.0275 J-0.0663
G1 Y2.4397
G3 X3.243 Y2.417 I0.0255 J0.
G2 X3.3207 Y2.3726 I-0.4944 J-0.9547
G3 X3.3472 Y2.3722 I0.0136 J0.0216
G1 X3.6774 Y2.5665
G3 X3.6788 Y2.5809 I-0.0045 J0.0077
G2 X3.4662 Y2.849 I0.6281 J0.7163
G3 X3.4515 Y2.8514 I-0.0083 J-0.0044
G2 X3.243 Y2.7011 I-0.6776 J0.7202
G3 X3.2292 Y2.678 I0.0125 J-0.0231
G1 Y2.4931
G2 X3.1799 Y2.4333 I-0.0609 J0.
G3 X3.1705 Y2.3563 I0.0077 J-0.04
G2 X3.3177 Y2.2705 I-0.3826 J-0.8252
G3 X3.3429 Y2.2694 I0.0135 J0.0188
G1 X3.7855 Y2.5298
G3 X3.7982 Y2.5417 I-0.0204 J0.0347
G1 X3.7989 Y2.5426
G3 X3.8055 Y2.5586 I-0.0331 J0.0231
G1 X3.8079 Y2.5721
G3 X3.7981 Y2.5962 I-0.0241 J0.0042
G2 X3.491 Y3.0064 I0.5022 J0.696
G3 X3.4787 Y3.0084 I-0.0067 J-0.0024
G2 X3.1565 Y2.7544 I-0.6963 J0.5519
G3 X3.1427 Y2.7329 I0.01 J-0.0216
G1 Y2.3838
G3 X3.1565 Y2.3627 I0.0231 J0.
G2 X3.1705 Y2.3563 I-0.3686 J-0.8316
X3.2082 Y2.2926 I-0.0275 J-0.0593
G3 X3.2413 Y2.2264 I0.073 J-0.0049
G2 X3.3122 Y2.1747 I-0.4565 J-0.7009
G3 X3.336 Y2.173 I0.0132 J0.0162
G1 X3.8305 Y2.4639
G3 X3.8613 Y2.4929 I-0.0486 J0.0826
G1 X3.8666 Y2.5005
G3 X3.883 Y2.5395 I-0.078 J0.0556
G1 X3.8955 Y2.6106
G3 X3.8856 Y2.633 I-0.0216 J0.0038
G2 X3.6626 Y2.8459 I0.4232 J0.6667
X3.5388 Y3.1283 I0.6426 J0.4499
G3 X3.5212 Y3.1453 I-0.0214 J-0.0047
G1 X3.4957 Y3.1497
G3 X3.4736 Y3.1398 I-0.0037 J-0.0211
G2 X3.0768 Y2.8068 I-0.6923 J0.422
G3 X3.0631 Y2.7868 I0.0078 J-0.02
G1 Y2.329
G3 X3.0768 Y2.3094 I0.0209 J0.
G2 X3.2413 Y2.2264 I-0.292 J-0.7838
X3.277 Y2.1387 I-0.0453 J-0.0696
G3 X3.3037 Y2.0478 I0.0953 J-0.0213
G1 X3.3103 Y2.0413
X3.9262 Y2.4037
G2 X3.9729 Y2.4709 I0.2053 J-0.0927
G1 X4.0095 Y2.679
G2 X3.6244 Y3.229 I0.2956 J0.6168
G1 X3.4264 Y3.264
G2 X2.9627 Y2.8749 I-0.6477 J0.301
G1 Y2.24
G2 X3.3037 Y2.0478 I-0.184 J-0.725
G1 X3.3048 Y2.0471
X3.3061 Y2.0469
X3.3073 Y2.0473
X3.3083 Y2.0481
X3.3088 Y2.0493
X3.3118 Y2.063
X3.4179 Y2.6141
X3.4212 Y2.6334
Y2.6349
X3.4207 Y2.6362
X3.4197 Y2.6373
X3.4184 Y2.638
X3.4169 Y2.6383
X3.4155 Y2.638
G3 X3.4577 Y2.5341 Z-0.2061 I0.0211 J-0.0519 F20.
X3.4155 Y2.638 Z-0.2123 I-0.0211 J0.0519
X3.4577 Y2.5341 Z-0.2184 I0.0211 J-0.0519
X3.4861 Y2.6124 Z-0.2217 I-0.0211 J0.0519
X3.4053 Y2.6325 Z-0.225 I-0.0495 J-0.0263
G2 X3.3824 Y2.6175 I-0.5611 J0.8336 F40.
G3 X3.3719 Y2.5985 I0.0121 J-0.0191
G1 Y2.5651
G3 X3.383 Y2.5588 I0.0073 J0.
G1 X3.4483 Y2.5973
G3 X3.4512 Y2.6133 I-0.0055 J0.0093
G2 X3.4334 Y2.6363 I0.8304 J0.6645
G3 X3.4151 Y2.6392 I-0.0107 J-0.0081
G2 X3.4053 Y2.6325 I-0.5709 J0.8269
X3.361 Y2.6395 I-0.0184 J0.0274
G3 X3.3184 Y2.6252 I-0.0187 J-0.0147
G1 Y2.6247
Y2.4912
G3 X3.3463 Y2.4752 I0.0185 J0.
G1 X3.5309 Y2.5838
G3 X3.5332 Y2.5993 I-0.0051 J0.0087
G2 X3.445 Y2.7118 I0.7849 J0.7068
G3 X3.428 Y2.7145 I-0.0098 J-0.0066
G2 X3.3324 Y2.6494 I-0.6569 J0.8616
G3 X3.3184 Y2.6252 I0.0149 J-0.0248
G2 X3.2735 Y2.5594 I-0.0728 J0.0014
G3 X3.2292 Y2.4931 I0.0275 J-0.0663
G1 Y2.4397
G3 X3.243 Y2.417 I0.0255 J0.
G2 X3.3207 Y2.3726 I-0.4944 J-0.9547
G3 X3.3472 Y2.3722 I0.0136 J0.0216
G1 X3.6774 Y2.5665
G3 X3.6788 Y2.5809 I-0.0045 J0.0077
G2 X3.4662 Y2.849 I0.6281 J0.7163
G3 X3.4515 Y2.8514 I-0.0083 J-0.0044
G2 X3.243 Y2.7011 I-0.6776 J0.7202
G3 X3.2292 Y2.678 I0.0125 J-0.0231
G1 Y2.4931
G2 X3.1799 Y2.4333 I-0.0609 J0.
G3 X3.1705 Y2.3563 I0.0077 J-0.04
G2 X3.3177 Y2.2705 I-0.3826 J-0.8252
G3 X3.3429 Y2.2694 I0.0135 J0.0188
G1 X3.7855 Y2.5298
G3 X3.7982 Y2.5417 I-0.0204 J0.0347
G1 X3.7989 Y2.5426
G3 X3.8055 Y2.5586 I-0.0331 J0.0231
G1 X3.8079 Y2.5721
G3 X3.7981 Y2.5962 I-0.0241 J0.0042
G2 X3.491 Y3.0064 I0.5022 J0.696
G3 X3.4787 Y3.0084 I-0.0067 J-0.0024
G2 X3.1565 Y2.7544 I-0.6963 J0.5519
G3 X3.1427 Y2.7329 I0.01 J-0.0216
G1 Y2.3838
G3 X3.1565 Y2.3627 I0.0231 J0.
G2 X3.1705 Y2.3563 I-0.3686 J-0.8316
X3.2082 Y2.2926 I-0.0275 J-0.0593
G3 X3.2413 Y2.2264 I0.073 J-0.0049
G2 X3.3122 Y2.1747 I-0.4565 J-0.7009
G3 X3.336 Y2.173 I0.0132 J0.0162
G1 X3.8305 Y2.4639
G3 X3.8613 Y2.4929 I-0.0486 J0.0826
G1 X3.8666 Y2.5005
G3 X3.883 Y2.5395 I-0.078 J0.0556
G1 X3.8955 Y2.6106
G3 X3.8856 Y2.633 I-0.0216 J0.0038
G2 X3.6626 Y2.8459 I0.4232 J0.6667
X3.5388 Y3.1283 I0.6426 J0.4499
G3 X3.5212 Y3.1453 I-0.0214 J-0.0047
G1 X3.4957 Y3.1497
G3 X3.4736 Y3.1398 I-0.0037 J-0.0211
G2 X3.0768 Y2.8068 I-0.6923 J0.422
G3 X3.0631 Y2.7868 I0.0078 J-0.02
G1 Y2.329
G3 X3.0768 Y2.3094 I0.0209 J0.
G2 X3.2413 Y2.2264 I-0.292 J-0.7838
X3.277 Y2.1387 I-0.0453 J-0.0696
G3 X3.3037 Y2.0478 I0.0953 J-0.0213
G1 X3.3103 Y2.0413
X3.9262 Y2.4037
G2 X3.9729 Y2.4709 I0.2053 J-0.0927
G1 X4.0095 Y2.679
G2 X3.6244 Y3.229 I0.2956 J0.6168
G1 X3.4264 Y3.264
G2 X2.9627 Y2.8749 I-0.6477 J0.301
G1 Y2.24
G2 X3.3037 Y2.0478 I-0.184 J-0.725
G1 X3.3048 Y2.0471
X3.3061 Y2.0469
X3.3073 Y2.0473
X3.3083 Y2.0481
X3.3088 Y2.0493
X3.3118 Y2.063
X3.4179 Y2.6141
X3.4212 Y2.6334
Y2.6349
X3.4207 Y2.6362
X3.4197 Y2.6373
X3.4184 Y2.638
X3.4169 Y2.6383
X3.4155 Y2.638
G3 X3.4577 Y2.5341 Z-0.2311 I0.0211 J-0.0519 F20.
X3.4155 Y2.638 Z-0.2373 I-0.0211 J0.0519
X3.4577 Y2.5341 Z-0.2434 I0.0211 J-0.0519
X3.4861 Y2.6124 Z-0.2467 I-0.0211 J0.0519
X3.4053 Y2.6325 Z-0.25 I-0.0495 J-0.0263
G2 X3.3824 Y2.6175 I-0.5611 J0.8336 F40.
G3 X3.3719 Y2.5985 I0.0121 J-0.0191
G1 Y2.5651
G3 X3.383 Y2.5588 I0.0073 J0.
G1 X3.4483 Y2.5973
G3 X3.4512 Y2.6133 I-0.0055 J0.0093
G2 X3.4334 Y2.6363 I0.8304 J0.6645
G3 X3.4151 Y2.6392 I-0.0107 J-0.0081
G2 X3.4053 Y2.6325 I-0.5709 J0.8269
X3.361 Y2.6395 I-0.0184 J0.0274
G3 X3.3184 Y2.6252 I-0.0187 J-0.0147
G1 Y2.6247
Y2.4912
G3 X3.3463 Y2.4752 I0.0185 J0.
G1 X3.5309 Y2.5838
G3 X3.5332 Y2.5993 I-0.0051 J0.0087
G2 X3.445 Y2.7118 I0.7849 J0.7068
G3 X3.428 Y2.7145 I-0.0098 J-0.0066
G2 X3.3324 Y2.6494 I-0.6569 J0.8616
G3 X3.3184 Y2.6252 I0.0149 J-0.0248
G2 X3.2735 Y2.5594 I-0.0728 J0.0014
G3 X3.2292 Y2.4931 I0.0275 J-0.0663
G1 Y2.4397
G3 X3.243 Y2.417 I0.0255 J0.
G2 X3.3207 Y2.3726 I-0.4944 J-0.9547
G3 X3.3472 Y2.3722 I0.0136 J0.0216
G1 X3.6774 Y2.5665
G3 X3.6788 Y2.5809 I-0.0045 J0.0077
G2 X3.4662 Y2.849 I0.6281 J0.7163
G3 X3.4515 Y2.8514 I-0.0083 J-0.0044
G2 X3.243 Y2.7011 I-0.6776 J0.7202
G3 X3.2292 Y2.678 I0.0125 J-0.0231
G1 Y2.4931
G2 X3.1799 Y2.4333 I-0.0609 J0.
G3 X3.1705 Y2.3563 I0.0077 J-0.04
G2 X3.3177 Y2.2705 I-0.3826 J-0.8252
G3 X3.3429 Y2.2694 I0.0135 J0.0188
G1 X3.7855 Y2.5298
G3 X3.7982 Y2.5417 I-0.0204 J0.0347
G1 X3.7989 Y2.5426
G3 X3.8055 Y2.5586 I-0.0331 J0.0231
G1 X3.8079 Y2.5721
G3 X3.7981 Y2.5962 I-0.0241 J0.0042
G2 X3.491 Y3.0064 I0.5022 J0.696
G3 X3.4787 Y3.0084 I-0.0067 J-0.0024
G2 X3.1565 Y2.7544 I-0.6963 J0.5519
G3 X3.1427 Y2.7329 I0.01 J-0.0216
G1 Y2.3838
G3 X3.1565 Y2.3627 I0.0231 J0.
G2 X3.1705 Y2.3563 I-0.3686 J-0.8316
X3.2082 Y2.2926 I-0.0275 J-0.0593
G3 X3.2413 Y2.2264 I0.073 J-0.0049
G2 X3.3122 Y2.1747 I-0.4565 J-0.7009
G3 X3.336 Y2.173 I0.0132 J0.0162
G1 X3.8305 Y2.4639
G3 X3.8613 Y2.4929 I-0.0486 J0.0826
G1 X3.8666 Y2.5005
G3 X3.883 Y2.5395 I-0.078 J0.0556
G1 X3.8955 Y2.6106
G3 X3.8856 Y2.633 I-0.0216 J0.0038
G2 X3.6626 Y2.8459 I0.4232 J0.6667
X3.5388 Y3.1283 I0.6426 J0.4499
G3 X3.5212 Y3.1453 I-0.0214 J-0.0047
G1 X3.4957 Y3.1497
G3 X3.4736 Y3.1398 I-0.0037 J-0.0211
G2 X3.0768 Y2.8068 I-0.6923 J0.422
G3 X3.0631 Y2.7868 I0.0078 J-0.02
G1 Y2.329
G3 X3.0768 Y2.3094 I0.0209 J0.
G2 X3.2413 Y2.2264 I-0.292 J-0.7838
X3.277 Y2.1387 I-0.0453 J-0.0696
G3 X3.3037 Y2.0478 I0.0953 J-0.0213
G1 X3.3103 Y2.0413
X3.9262 Y2.4037
G2 X3.9729 Y2.4709 I0.2053 J-0.0927
G1 X4.0095 Y2.679
G2 X3.6244 Y3.229 I0.2956 J0.6168
G1 X3.4264 Y3.264
G2 X2.9627 Y2.8749 I-0.6477 J0.301
G1 Y2.24
G2 X3.3037 Y2.0478 I-0.184 J-0.725
G1 X3.3048 Y2.0471
X3.3061 Y2.0469
X3.3073 Y2.0473
X3.3083 Y2.0481
X3.3088 Y2.0493
X3.3118 Y2.063
X3.4179 Y2.6141
X3.4212 Y2.6334
Y2.6349
X3.4207 Y2.6362
X3.4197 Y2.6373
X3.4184 Y2.638
X3.4169 Y2.6383
X3.4155 Y2.638
G3 X3.4577 Y2.5341 Z-0.2561 I0.0211 J-0.0519 F20.
X3.4155 Y2.638 Z-0.2623 I-0.0211 J0.0519
X3.4577 Y2.5341 Z-0.2684 I0.0211 J-0.0519
X3.4861 Y2.6124 Z-0.2717 I-0.0211 J0.0519
X3.4053 Y2.6325 Z-0.275 I-0.0495 J-0.0263
G2 X3.3824 Y2.6175 I-0.5611 J0.8336 F40.
G3 X3.3719 Y2.5985 I0.0121 J-0.0191
G1 Y2.5651
G3 X3.383 Y2.5588 I0.0073 J0.
G1 X3.4483 Y2.5973
G3 X3.4512 Y2.6133 I-0.0055 J0.0093
G2 X3.4334 Y2.6363 I0.8304 J0.6645
G3 X3.4151 Y2.6392 I-0.0107 J-0.0081
G2 X3.4053 Y2.6325 I-0.5709 J0.8269
X3.361 Y2.6395 I-0.0184 J0.0274
G3 X3.3184 Y2.6252 I-0.0187 J-0.0147
G1 Y2.6247
Y2.4912
G3 X3.3463 Y2.4752 I0.0185 J0.
G1 X3.5309 Y2.5838
G3 X3.5332 Y2.5993 I-0.0051 J0.0087
G2 X3.445 Y2.7118 I0.7849 J0.7068
G3 X3.428 Y2.7145 I-0.0098 J-0.0066
G2 X3.3324 Y2.6494 I-0.6569 J0.8616
G3 X3.3184 Y2.6252 I0.0149 J-0.0248
G2 X3.2735 Y2.5594 I-0.0728 J0.0014
G3 X3.2292 Y2.4931 I0.0275 J-0.0663
G1 Y2.4397
G3 X3.243 Y2.417 I0.0255 J0.
G2 X3.3207 Y2.3726 I-0.4944 J-0.9547
G3 X3.3472 Y2.3722 I0.0136 J0.0216
G1 X3.6774 Y2.5665
G3 X3.6788 Y2.5809 I-0.0045 J0.0077
G2 X3.4662 Y2.849 I0.6281 J0.7163
G3 X3.4515 Y2.8514 I-0.0083 J-0.0044
G2 X3.243 Y2.7011 I-0.6776 J0.7202
G3 X3.2292 Y2.678 I0.0125 J-0.0231
G1 Y2.4931
G2 X3.1799 Y2.4333 I-0.0609 J0.
G3 X3.1705 Y2.3563 I0.0077 J-0.04
G2 X3.3177 Y2.2705 I-0.3826 J-0.8252
G3 X3.3429 Y2.2694 I0.0135 J0.0188
G1 X3.7855 Y2.5298
G3 X3.7982 Y2.5417 I-0.0204 J0.0347
G1 X3.7989 Y2.5426
G3 X3.8055 Y2.5586 I-0.0331 J0.0231
G1 X3.8079 Y2.5721
G3 X3.7981 Y2.5962 I-0.0241 J0.0042
G2 X3.491 Y3.0064 I0.5022 J0.696
G3 X3.4787 Y3.0084 I-0.0067 J-0.0024
G2 X3.1565 Y2.7544 I-0.6963 J0.5519
G3 X3.1427 Y2.7329 I0.01 J-0.0216
G1 Y2.3838
G3 X3.1565 Y2.3627 I0.0231 J0.
G2 X3.1705 Y2.3563 I-0.3686 J-0.8316
X3.2082 Y2.2926 I-0.0275 J-0.0593
G3 X3.2413 Y2.2264 I0.073 J-0.0049
G2 X3.3122 Y2.1747 I-0.4565 J-0.7009
G3 X3.336 Y2.173 I0.0132 J0.0162
G1 X3.8305 Y2.4639
G3 X3.8613 Y2.4929 I-0.0486 J0.0826
G1 X3.8666 Y2.5005
G3 X3.883 Y2.5395 I-0.078 J0.0556
G1 X3.8955 Y2.6106
G3 X3.8856 Y2.633 I-0.0216 J0.0038
G2 X3.6626 Y2.8459 I0.4232 J0.6667
X3.5388 Y3.1283 I0.6426 J0.4499
G3 X3.5212 Y3.1453 I-0.0214 J-0.0047
G1 X3.4957 Y3.1497
G3 X3.4736 Y3.1398 I-0.0037 J-0.0211
G2 X3.0768 Y2.8068 I-0.6923 J0.422
G3 X3.0631 Y2.7868 I0.0078 J-0.02
G1 Y2.329
G3 X3.0768 Y2.3094 I0.0209 J0.
G2 X3.2413 Y2.2264 I-0.292 J-0.7838
X3.277 Y2.1387 I-0.0453 J-0.0696
G3 X3.3037 Y2.0478 I0.0953 J-0.0213
G1 X3.3103 Y2.0413
X3.9262 Y2.4037
G2 X3.9729 Y2.4709 I0.2053 J-0.0927
G1 X4.0095 Y2.679
G2 X3.6244 Y3.229 I0.2956 J0.6168
G1 X3.4264 Y3.264
G2 X2.9627 Y2.8749 I-0.6477 J0.301
G1 Y2.24
G2 X3.3037 Y2.0478 I-0.184 J-0.725
G1 X3.3048 Y2.0471
X3.3061 Y2.0469
X3.3073 Y2.0473
X3.3083 Y2.0481
X3.3088 Y2.0493
X3.3118 Y2.063
X3.4179 Y2.6141
X3.4212 Y2.6334
Y2.6349
X3.4207 Y2.6362
X3.4197 Y2.6373
X3.4184 Y2.638
X3.4169 Y2.6383
X3.4155 Y2.638
G3 X3.4577 Y2.5341 Z-0.2811 I0.0211 J-0.0519 F20.
X3.4155 Y2.638 Z-0.2873 I-0.0211 J0.0519
X3.4577 Y2.5341 Z-0.2934 I0.0211 J-0.0519
X3.4861 Y2.6124 Z-0.2967 I-0.0211 J0.0519
X3.4053 Y2.6325 Z-0.3 I-0.0495 J-0.0263
G2 X3.3824 Y2.6175 I-0.5611 J0.8336 F40.
G3 X3.3719 Y2.5985 I0.0121 J-0.0191
G1 Y2.5651
G3 X3.383 Y2.5588 I0.0073 J0.
G1 X3.4483 Y2.5973
G3 X3.4512 Y2.6133 I-0.0055 J0.0093
G2 X3.4334 Y2.6363 I0.8304 J0.6645
G3 X3.4151 Y2.6392 I-0.0107 J-0.0081
G2 X3.4053 Y2.6325 I-0.5709 J0.8269
X3.361 Y2.6395 I-0.0184 J0.0274
G3 X3.3184 Y2.6252 I-0.0187 J-0.0147
G1 Y2.6247
Y2.4912
G3 X3.3463 Y2.4752 I0.0185 J0.
G1 X3.5309 Y2.5838
G3 X3.5332 Y2.5993 I-0.0051 J0.0087
G2 X3.445 Y2.7118 I0.7849 J0.7068
G3 X3.428 Y2.7145 I-0.0098 J-0.0066
G2 X3.3324 Y2.6494 I-0.6569 J0.8616
G3 X3.3184 Y2.6252 I0.0149 J-0.0248
G2 X3.2735 Y2.5594 I-0.0728 J0.0014
G3 X3.2292 Y2.4931 I0.0275 J-0.0663
G1 Y2.4397
G3 X3.243 Y2.417 I0.0255 J0.
G2 X3.3207 Y2.3726 I-0.4944 J-0.9547
G3 X3.3472 Y2.3722 I0.0136 J0.0216
G1 X3.6774 Y2.5665
G3 X3.6788 Y2.5809 I-0.0045 J0.0077
G2 X3.4662 Y2.849 I0.6281 J0.7163
G3 X3.4515 Y2.8514 I-0.0083 J-0.0044
G2 X3.243 Y2.7011 I-0.6776 J0.7202
G3 X3.2292 Y2.678 I0.0125 J-0.0231
G1 Y2.4931
G2 X3.1799 Y2.4333 I-0.0609 J0.
G3 X3.1705 Y2.3563 I0.0077 J-0.04
G2 X3.3177 Y2.2705 I-0.3826 J-0.8252
G3 X3.3429 Y2.2694 I0.0135 J0.0188
G1 X3.7855 Y2.5298
G3 X3.7982 Y2.5417 I-0.0204 J0.0347
G1 X3.7989 Y2.5426
G3 X3.8055 Y2.5586 I-0.0331 J0.0231
G1 X3.8079 Y2.5721
G3 X3.7981 Y2.5962 I-0.0241 J0.0042
G2 X3.491 Y3.0064 I0.5022 J0.696
G3 X3.4787 Y3.0084 I-0.0067 J-0.0024
G2 X3.1565 Y2.7544 I-0.6963 J0.5519
G3 X3.1427 Y2.7329 I0.01 J-0.0216
G1 Y2.3838
G3 X3.1565 Y2.3627 I0.0231 J0.
G2 X3.1705 Y2.3563 I-0.3686 J-0.8316
X3.2082 Y2.2926 I-0.0275 J-0.0593
G3 X3.2413 Y2.2264 I0.073 J-0.0049
G2 X3.3122 Y2.1747 I-0.4565 J-0.7009
G3 X3.336 Y2.173 I0.0132 J0.0162
G1 X3.8305 Y2.4639
G3 X3.8613 Y2.4929 I-0.0486 J0.0826
G1 X3.8666 Y2.5005
G3 X3.883 Y2.5395 I-0.078 J0.0556
G1 X3.8955 Y2.6106
G3 X3.8856 Y2.633 I-0.0216 J0.0038
G2 X3.6626 Y2.8459 I0.4232 J0.6667
X3.5388 Y3.1283 I0.6426 J0.4499
G3 X3.5212 Y3.1453 I-0.0214 J-0.0047
G1 X3.4957 Y3.1497
G3 X3.4736 Y3.1398 I-0.0037 J-0.0211
G2 X3.0768 Y2.8068 I-0.6923 J0.422
G3 X3.0631 Y2.7868 I0.0078 J-0.02
G1 Y2.329
G3 X3.0768 Y2.3094 I0.0209 J0.
G2 X3.2413 Y2.2264 I-0.292 J-0.7838
X3.277 Y2.1387 I-0.0453 J-0.0696
G3 X3.3037 Y2.0478 I0.0953 J-0.0213
G1 X3.3103 Y2.0413
X3.9262 Y2.4037
G2 X3.9729 Y2.4709 I0.2053 J-0.0927
G1 X4.0095 Y2.679
G2 X3.6244 Y3.229 I0.2956 J0.6168
G1 X3.4264 Y3.264
G2 X2.9627 Y2.8749 I-0.6477 J0.301
G1 Y2.24
G2 X3.3037 Y2.0478 I-0.184 J-0.725
G1 X3.3074 Y2.0442 Z-0.2988
X3.3103 Y2.0413 Z-0.2956
X3.3115 Y2.042 Z-0.2934
X3.3122 Y2.0424 Z-0.2908
X3.3125 Y2.0426 Z-0.2882
G0 Z0.2
X3.7163 Y4.1784
G1 Z0.1118 F40.
X3.717 Y4.1797 Z0.106 F20.
X3.7189 Y4.1834 Z0.1017
X3.7211 Y4.1887 Z0.1
G3 X3.6151 Y4.2254 Z0.0939 I-0.053 J0.0183
X3.7211 Y4.1887 Z0.0877 I0.053 J-0.0183
X3.6151 Y4.2254 Z0.0816 I-0.053 J0.0183
X3.7211 Y4.1887 Z0.0754 I0.053 J-0.0183
X3.6151 Y4.2254 Z0.0693 I-0.053 J0.0183
X3.7211 Y4.1887 Z0.0631 I0.053 J-0.0183
X3.6151 Y4.2254 Z0.057 I-0.053 J0.0183
X3.7211 Y4.1887 Z0.0508 I0.053 J-0.0183
X3.6151 Y4.2254 Z0.0447 I-0.053 J0.0183
X3.7211 Y4.1887 Z0.0385 I0.053 J-0.0183
X3.6151 Y4.2254 Z0.0324 I-0.053 J0.0183
X3.7211 Y4.1887 Z0.0262 I0.053 J-0.0183
X3.6151 Y4.2254 Z0.0201 I-0.053 J0.0183
X3.7211 Y4.1887 Z0.0139 I0.053 J-0.0183
X3.6151 Y4.2254 Z0.0078 I-0.053 J0.0183
X3.7211 Y4.1887 Z0.0016 I0.053 J-0.0183
X3.6151 Y4.2254 Z-0.0045 I-0.053 J0.0183
X3.7211 Y4.1887 Z-0.0107 I0.053 J-0.0183
X3.6151 Y4.2254 Z-0.0168 I-0.053 J0.0183
X3.7211 Y4.1887 Z-0.023 I0.053 J-0.0183
X3.711 Y4.2431 Z-0.025 I-0.053 J0.0183
G1 X3.6083 Y4.3655 F40.
X3.607 Y4.3666
X3.6054 Y4.3672
X3.6037
X3.602 Y4.3667
X3.6007 Y4.3656
X3.5998 Y4.3643
X3.5993 Y4.3629
Y4.3613
X3.5998 Y4.3598
X3.6007 Y4.3586
G2 X3.7029 Y4.2367 I-0.8127 J-0.7857
G1 X3.704 Y4.2356
X3.7054 Y4.2349
X3.7069 Y4.2346
X3.7084 Y4.2348
X3.7098 Y4.2354
X3.7111 Y4.2365
X3.712 Y4.2381
X3.7123 Y4.2398
X3.712 Y4.2415
X3.7111 Y4.243
X3.711 Y4.2431
G2 X3.7025 Y4.3201 I0.0535 J0.0449
G3 X3.694 Y4.3971 I-0.062 J0.0321
G1 X3.6415 Y4.4597
G3 X3.6202 Y4.4729 I-0.0309 J-0.0259
G2 X3.6009 Y4.478 I0.1445 J0.5889
G3 X3.5775 Y4.4706 I-0.006 J-0.0215
G2 X3.4835 Y4.3689 I-0.8248 J0.6685
G3 X3.4837 Y4.352 I0.0079 J-0.0083
G2 X3.6762 Y4.1226 I-0.7128 J-0.7936
G3 X3.6928 Y4.1195 I0.0097 J0.0061
G2 X3.8092 Y4.1944 I0.6063 J-0.8142
G3 X3.8206 Y4.2162 I-0.0108 J0.0195
G2 X3.8189 Y4.2361 I0.5763 J0.0578
G3 X3.8096 Y4.2593 I-0.0402 J-0.0027
G1 X3.694 Y4.3971
G2 X3.6922 Y4.4771 I0.049 J0.0411
G3 X3.6706 Y4.5542 I-0.0397 J0.0304
X3.6605 Y4.5572 I-0.0238 J-0.0614
G2 X3.5659 Y4.5861 I0.1216 J0.5688
G3 X3.5457 Y4.5801 I-0.0063 J-0.0157
G2 X3.3385 Y4.3659 I-0.7686 J0.5365
G3 X3.3386 Y4.3514 I0.0054 J-0.0072
G2 X3.6504 Y3.9799 I-0.5622 J-0.7883
G3 X3.6647 Y3.9772 I0.0081 J0.0039
G2 X3.9115 Y4.1441 I0.6393 J-0.6795
G3 X3.9209 Y4.1629 I-0.0071 J0.0153
G2 X3.909 Y4.2611 I0.547 J0.1164
G3 X3.8936 Y4.3011 I-0.0658 J-0.0024
G1 X3.6972 Y4.5352
G3 X3.6706 Y4.5542 I-0.0505 J-0.0424
G2 X3.6223 Y4.614 I0.0279 J0.0719
G3 X3.5759 Y4.6753 I-0.0805 J-0.0127
G2 X3.5329 Y4.6978 I0.2038 J0.4425
G3 X3.5158 Y4.6933 I-0.0063 J-0.0106
G2 X3.3682 Y4.5037 I-0.7456 J0.4283
X3.1733 Y4.363 I-0.5895 J0.6113
G3 X3.1734 Y4.351 I0.0031 J-0.006
G2 X3.6213 Y3.8172 I-0.3954 J-0.7866
G3 X3.6331 Y3.815 I0.0065 J0.0019
G2 X4.0179 Y4.095 I0.6689 J-0.5147
G3 X4.0252 Y4.111 I-0.0042 J0.0116
G2 X3.9947 Y4.2927 I0.4458 J0.1683
G3 X3.9817 Y4.3298 I-0.0556 J0.0013
G1 X3.7407 Y4.6169
G3 X3.7065 Y4.6362 I-0.0426 J-0.0358
G2 X3.5759 Y4.6753 I0.0732 J0.4817
X3.5387 Y4.7398 I0.027 J0.0586
G3 X3.5112 Y4.8091 I-0.0818 J0.0076
G2 X3.5026 Y4.8168 I0.2657 J0.3018
G3 X3.4888 Y4.8139 I-0.0059 J-0.0063
G2 X3.0637 Y4.3982 I-0.7106 J0.3016
G3 X3.05 Y4.3782 I0.0079 J-0.02
G1 Y4.3339
G3 X3.0636 Y4.3143 I0.021 J0.
G2 X3.566 Y3.7155 I-0.2858 J-0.75
G3 X3.5831 Y3.6987 I0.0207 J0.004
G1 X3.6267 Y3.691
G3 X3.6487 Y3.7009 I0.0037 J0.0212
G2 X4.1319 Y4.0475 I0.6552 J-0.4034
G3 X4.1372 Y4.0606 I-0.0019 J0.0084
G2 X4.0743 Y4.319 I0.342 J0.2202
G3 X4.0636 Y4.3533 I-0.0461 J0.0045
G1 X3.7781 Y4.6935
G3 X3.7462 Y4.71 I-0.0355 J-0.0298
G2 X3.5112 Y4.8091 I0.0307 J0.4009
X3.4983 Y4.8744 I0.0362 J0.0411
G3 X3.4631 Y4.931 I-0.0352 J0.0173
G1 X3.4375
G2 X2.9627 Y4.4562 I-0.6588 J0.184
G1 Y4.2552
G2 X3.4903 Y3.6264 I-0.184 J-0.6902
G1 X3.6883 Y3.5914
G2 X4.2383 Y3.9766 I0.6168 J-0.2956
G1 X4.2523 Y4.056
G2 X4.1703 Y4.362 I0.2265 J0.2247
G1 X3.8053 Y4.7971
G2 X3.5181 Y4.931 I-0.0265 J0.3179
G1 X3.4631
G3 X3.4331 Y4.8798 Z-0.0271 I0. J-0.0344 F20.
G1 X3.7674 Y4.282 Z-0.047
G2 X3.711 Y4.2431 Z-0.05 I-0.03 J-0.0168
G1 X3.6083 Y4.3655 F40.
X3.607 Y4.3666
X3.6054 Y4.3672
X3.6037
X3.602 Y4.3667
X3.6007 Y4.3656
X3.5998 Y4.3643
X3.5993 Y4.3629
Y4.3613
X3.5998 Y4.3598
X3.6007 Y4.3586
G2 X3.7029 Y4.2367 I-0.8127 J-0.7857
G1 X3.704 Y4.2356
X3.7054 Y4.2349
X3.7069 Y4.2346
X3.7084 Y4.2348
X3.7098 Y4.2354
X3.7111 Y4.2365
X3.712 Y4.2381
X3.7123 Y4.2398
X3.712 Y4.2415
X3.7111 Y4.243
X3.711 Y4.2431
G2 X3.7025 Y4.3201 I0.0535 J0.0449
G3 X3.694 Y4.3971 I-0.062 J0.0321
G1 X3.6415 Y4.4597
G3 X3.6202 Y4.4729 I-0.0309 J-0.0259
G2 X3.6009 Y4.478 I0.1445 J0.5889
G3 X3.5775 Y4.4706 I-0.006 J-0.0215
G2 X3.4835 Y4.3689 I-0.8248 J0.6685
G3 X3.4837 Y4.352 I0.0079 J-0.0083
G2 X3.6762 Y4.1226 I-0.7128 J-0.7936
G3 X3.6928 Y4.1195 I0.0097 J0.0061
G2 X3.8092 Y4.1944 I0.6063 J-0.8142
G3 X3.8206 Y4.2162 I-0.0108 J0.0195
G2 X3.8189 Y4.2361 I0.5763 J0.0578
G3 X3.8096 Y4.2593 I-0.0402 J-0.0027
G1 X3.694 Y4.3971
G2 X3.6922 Y4.4771 I0.049 J0.0411
G3 X3.6706 Y4.5542 I-0.0397 J0.0304
X3.6605 Y4.5572 I-0.0238 J-0.0614
G2 X3.5659 Y4.5861 I0.1216 J0.5688
G3 X3.5457 Y4.5801 I-0.0063 J-0.0157
G2 X3.3385 Y4.3659 I-0.7686 J0.5365
G3 X3.3386 Y4.3514 I0.0054 J-0.0072
G2 X3.6504 Y3.9799 I-0.5622 J-0.7883
G3 X3.6647 Y3.9772 I0.0081 J0.0039
G2 X3.9115 Y4.1441 I0.6393 J-0.6795
G3 X3.9209 Y4.1629 I-0.0071 J0.0153
G2 X3.909 Y4.2611 I0.547 J0.1164
G3 X3.8936 Y4.3011 I-0.0658 J-0.0024
G1 X3.6972 Y4.5352
G3 X3.6706 Y4.5542 I-0.0505 J-0.0424
G2 X3.6223 Y4.614 I0.0279 J0.0719
G3 X3.5759 Y4.6753 I-0.0805 J-0.0127
G2 X3.5329 Y4.6978 I0.2038 J0.4425
G3 X3.5158 Y4.6933 I-0.0063 J-0.0106
G2 X3.3682 Y4.5037 I-0.7456 J0.4283
X3.1733 Y4.363 I-0.5895 J0.6113
G3 X3.1734 Y4.351 I0.0031 J-0.006
G2 X3.6213 Y3.8172 I-0.3954 J-0.7866
G3 X3.6331 Y3.815 I0.0065 J0.0019
G2 X4.0179 Y4.095 I0.6689 J-0.5147
G3 X4.0252 Y4.111 I-0.0042 J0.0116
G2 X3.9947 Y4.2927 I0.4458 J0.1683
G3 X3.9817 Y4.3298 I-0.0556 J0.0013
G1 X3.7407 Y4.6169
G3 X3.7065 Y4.6362 I-0.0426 J-0.0358
G2 X3.5759 Y4.6753 I0.0732 J0.4817
X3.5387 Y4.7398 I0.027 J0.0586
G3 X3.5112 Y4.8091 I-0.0818 J0.0076
G2 X3.5026 Y4.8168 I0.2657 J0.3018
G3 X3.4888 Y4.8139 I-0.0059 J-0.0063
G2 X3.0637 Y4.3982 I-0.7106 J0.3016
G3 X3.05 Y4.3782 I0.0079 J-0.02
G1 Y4.3339
G3 X3.0636 Y4.3143 I0.021 J0.
G2 X3.566 Y3.7155 I-0.2858 J-0.75
G3 X3.5831 Y3.6987 I0.0207 J0.004
G1 X3.6267 Y3.691
G3 X3.6487 Y3.7009 I0.0037 J0.0212
G2 X4.1319 Y4.0475 I0.6552 J-0.4034
G3 X4.1372 Y4.0606 I-0.0019 J0.0084
G2 X4.0743 Y4.319 I0.342 J0.2202
G3 X4.0636 Y4.3533 I-0.0461 J0.0045
G1 X3.7781 Y4.6935
G3 X3.7462 Y4.71 I-0.0355 J-0.0298
G2 X3.5112 Y4.8091 I0.0307 J0.4009
X3.4983 Y4.8744 I0.0362 J0.0411
G3 X3.4631 Y4.931 I-0.0352 J0.0173
G1 X3.4375
G2 X2.9627 Y4.4562 I-0.6588 J0.184
G1 Y4.2552
G2 X3.4903 Y3.6264 I-0.184 J-0.6902
G1 X3.6883 Y3.5914
G2 X4.2383 Y3.9766 I0.6168 J-0.2956
G1 X4.2523 Y4.056
G2 X4.1703 Y4.362 I0.2265 J0.2247
G1 X3.8053 Y4.7971
G2 X3.5181 Y4.931 I-0.0265 J0.3179
G1 X3.4631
G3 X3.4331 Y4.8798 Z-0.0521 I0. J-0.0344 F20.
G1 X3.7674 Y4.282 Z-0.072
G2 X3.711 Y4.2431 Z-0.075 I-0.03 J-0.0168
G1 X3.6083 Y4.3655 F40.
X3.607 Y4.3666
X3.6054 Y4.3672
X3.6037
X3.602 Y4.3667
X3.6007 Y4.3656
X3.5998 Y4.3643
X3.5993 Y4.3629
Y4.3613
X3.5998 Y4.3598
X3.6007 Y4.3586
G2 X3.7029 Y4.2367 I-0.8127 J-0.7857
G1 X3.704 Y4.2356
X3.7054 Y4.2349
X3.7069 Y4.2346
X3.7084 Y4.2348
X3.7098 Y4.2354
X3.7111 Y4.2365
X3.712 Y4.2381
X3.7123 Y4.2398
X3.712 Y4.2415
X3.7111 Y4.243
X3.711 Y4.2431
G2 X3.7025 Y4.3201 I0.0535 J0.0449
G3 X3.694 Y4.3971 I-0.062 J0.0321
G1 X3.6415 Y4.4597
G3 X3.6202 Y4.4729 I-0.0309 J-0.0259
G2 X3.6009 Y4.478 I0.1445 J0.5889
G3 X3.5775 Y4.4706 I-0.006 J-0.0215
G2 X3.4835 Y4.3689 I-0.8248 J0.6685
G3 X3.4837 Y4.352 I0.0079 J-0.0083
G2 X3.6762 Y4.1226 I-0.7128 J-0.7936
G3 X3.6928 Y4.1195 I0.0097 J0.0061
G2 X3.8092 Y4.1944 I0.6063 J-0.8142
G3 X3.8206 Y4.2162 I-0.0108 J0.0195
G2 X3.8189 Y4.2361 I0.5763 J0.0578
G3 X3.8096 Y4.2593 I-0.0402 J-0.0027
G1 X3.694 Y4.3971
G2 X3.6922 Y4.4771 I0.049 J0.0411
G3 X3.6706 Y4.5542 I-0.0397 J0.0304
X3.6605 Y4.5572 I-0.0238 J-0.0614
G2 X3.5659 Y4.5861 I0.1216 J0.5688
G3 X3.5457 Y4.5801 I-0.0063 J-0.0157
G2 X3.3385 Y4.3659 I-0.7686 J0.5365
G3 X3.3386 Y4.3514 I0.0054 J-0.0072
G2 X3.6504 Y3.9799 I-0.5622 J-0.7883
G3 X3.6647 Y3.9772 I0.0081 J0.0039
G2 X3.9115 Y4.1441 I0.6393 J-0.6795
G3 X3.9209 Y4.1629 I-0.0071 J0.0153
G2 X3.909 Y4.2611 I0.547 J0.1164
G3 X3.8936 Y4.3011 I-0.0658 J-0.0024
G1 X3.6972 Y4.5352
G3 X3.6706 Y4.5542 I-0.0505 J-0.0424
G2 X3.6223 Y4.614 I0.0279 J0.0719
G3 X3.5759 Y4.6753 I-0.0805 J-0.0127
G2 X3.5329 Y4.6978 I0.2038 J0.4425
G3 X3.5158 Y4.6933 I-0.0063 J-0.0106
G2 X3.3682 Y4.5037 I-0.7456 J0.4283
X3.1733 Y4.363 I-0.5895 J0.6113
G3 X3.1734 Y4.351 I0.0031 J-0.006
G2 X3.6213 Y3.8172 I-0.3954 J-0.7866
G3 X3.6331 Y3.815 I0.0065 J0.0019
G2 X4.0179 Y4.095 I0.6689 J-0.5147
G3 X4.0252 Y4.111 I-0.0042 J0.0116
G2 X3.9947 Y4.2927 I0.4458 J0.1683
G3 X3.9817 Y4.3298 I-0.0556 J0.0013
G1 X3.7407 Y4.6169
G3 X3.7065 Y4.6362 I-0.0426 J-0.0358
G2 X3.5759 Y4.6753 I0.0732 J0.4817
X3.5387 Y4.7398 I0.027 J0.0586
G3 X3.5112 Y4.8091 I-0.0818 J0.0076
G2 X3.5026 Y4.8168 I0.2657 J0.3018
G3 X3.4888 Y4.8139 I-0.0059 J-0.0063
G2 X3.0637 Y4.3982 I-0.7106 J0.3016
G3 X3.05 Y4.3782 I0.0079 J-0.02
G1 Y4.3339
G3 X3.0636 Y4.3143 I0.021 J0.
G2 X3.566 Y3.7155 I-0.2858 J-0.75
G3 X3.5831 Y3.6987 I0.0207 J0.004
G1 X3.6267 Y3.691
G3 X3.6487 Y3.7009 I0.0037 J0.0212
G2 X4.1319 Y4.0475 I0.6552 J-0.4034
G3 X4.1372 Y4.0606 I-0.0019 J0.0084
G2 X4.0743 Y4.319 I0.342 J0.2202
G3 X4.0636 Y4.3533 I-0.0461 J0.0045
G1 X3.7781 Y4.6935
G3 X3.7462 Y4.71 I-0.0355 J-0.0298
G2 X3.5112 Y4.8091 I0.0307 J0.4009
X3.4983 Y4.8744 I0.0362 J0.0411
G3 X3.4631 Y4.931 I-0.0352 J0.0173
G1 X3.4375
G2 X2.9627 Y4.4562 I-0.6588 J0.184
G1 Y4.2552
G2 X3.4903 Y3.6264 I-0.184 J-0.6902
G1 X3.6883 Y3.5914
G2 X4.2383 Y3.9766 I0.6168 J-0.2956
G1 X4.2523 Y4.056
G2 X4.1703 Y4.362 I0.2265 J0.2247
G1 X3.8053 Y4.7971
G2 X3.5181 Y4.931 I-0.0265 J0.3179
G1 X3.4631
G3 X3.4331 Y4.8798 Z-0.0771 I0. J-0.0344 F20.
G1 X3.7674 Y4.282 Z-0.097
G2 X3.711 Y4.2431 Z-0.1 I-0.03 J-0.0168
G1 X3.6083 Y4.3655 F40.
X3.607 Y4.3666
X3.6054 Y4.3672
X3.6037
X3.602 Y4.3667
X3.6007 Y4.3656
X3.5998 Y4.3643
X3.5993 Y4.3629
Y4.3613
X3.5998 Y4.3598
X3.6007 Y4.3586
G2 X3.7029 Y4.2367 I-0.8127 J-0.7857
G1 X3.704 Y4.2356
X3.7054 Y4.2349
X3.7069 Y4.2346
X3.7084 Y4.2348
X3.7098 Y4.2354
X3.7111 Y4.2365
X3.712 Y4.2381
X3.7123 Y4.2398
X3.712 Y4.2415
X3.7111 Y4.243
X3.711 Y4.2431
G2 X3.7025 Y4.3201 I0.0535 J0.0449
G3 X3.694 Y4.3971 I-0.062 J0.0321
G1 X3.6415 Y4.4597
G3 X3.6202 Y4.4729 I-0.0309 J-0.0259
G2 X3.6009 Y4.478 I0.1445 J0.5889
G3 X3.5775 Y4.4706 I-0.006 J-0.0215
G2 X3.4835 Y4.3689 I-0.8248 J0.6685
G3 X3.4837 Y4.352 I0.0079 J-0.0083
G2 X3.6762 Y4.1226 I-0.7128 J-0.7936
G3 X3.6928 Y4.1195 I0.0097 J0.0061
G2 X3.8092 Y4.1944 I0.6063 J-0.8142
G3 X3.8206 Y4.2162 I-0.0108 J0.0195
G2 X3.8189 Y4.2361 I0.5763 J0.0578
G3 X3.8096 Y4.2593 I-0.0402 J-0.0027
G1 X3.694 Y4.3971
G2 X3.6922 Y4.4771 I0.049 J0.0411
G3 X3.6706 Y4.5542 I-0.0397 J0.0304
X3.6605 Y4.5572 I-0.0238 J-0.0614
G2 X3.5659 Y4.5861 I0.1216 J0.5688
G3 X3.5457 Y4.5801 I-0.0063 J-0.0157
G2 X3.3385 Y4.3659 I-0.7686 J0.5365
G3 X3.3386 Y4.3514 I0.0054 J-0.0072
G2 X3.6504 Y3.9799 I-0.5622 J-0.7883
G3 X3.6647 Y3.9772 I0.0081 J0.0039
G2 X3.9115 Y4.1441 I0.6393 J-0.6795
G3 X3.9209 Y4.1629 I-0.0071 J0.0153
G2 X3.909 Y4.2611 I0.547 J0.1164
G3 X3.8936 Y4.3011 I-0.0658 J-0.0024
G1 X3.6972 Y4.5352
G3 X3.6706 Y4.5542 I-0.0505 J-0.0424
G2 X3.6223 Y4.614 I0.0279 J0.0719
G3 X3.5759 Y4.6753 I-0.0805 J-0.0127
G2 X3.5329 Y4.6978 I0.2038 J0.4425
G3 X3.5158 Y4.6933 I-0.0063 J-0.0106
G2 X3.3682 Y4.5037 I-0.7456 J0.4283
X3.1733 Y4.363 I-0.5895 J0.6113
G3 X3.1734 Y4.351 I0.0031 J-0.006
G2 X3.6213 Y3.8172 I-0.3954 J-0.7866
G3 X3.6331 Y3.815 I0.0065 J0.0019
G2 X4.0179 Y4.095 I0.6689 J-0.5147
G3 X4.0252 Y4.111 I-0.0042 J0.0116
G2 X3.9947 Y4.2927 I0.4458 J0.1683
G3 X3.9817 Y4.3298 I-0.0556 J0.0013
G1 X3.7407 Y4.6169
G3 X3.7065 Y4.6362 I-0.0426 J-0.0358
G2 X3.5759 Y4.6753 I0.0732 J0.4817
X3.5387 Y4.7398 I0.027 J0.0586
G3 X3.5112 Y4.8091 I-0.0818 J0.0076
G2 X3.5026 Y4.8168 I0.2657 J0.3018
G3 X3.4888 Y4.8139 I-0.0059 J-0.0063
G2 X3.0637 Y4.3982 I-0.7106 J0.3016
G3 X3.05 Y4.3782 I0.0079 J-0.02
G1 Y4.3339
G3 X3.0636 Y4.3143 I0.021 J0.
G2 X3.566 Y3.7155 I-0.2858 J-0.75
G3 X3.5831 Y3.6987 I0.0207 J0.004
G1 X3.6267 Y3.691
G3 X3.6487 Y3.7009 I0.0037 J0.0212
G2 X4.1319 Y4.0475 I0.6552 J-0.4034
G3 X4.1372 Y4.0606 I-0.0019 J0.0084
G2 X4.0743 Y4.319 I0.342 J0.2202
G3 X4.0636 Y4.3533 I-0.0461 J0.0045
G1 X3.7781 Y4.6935
G3 X3.7462 Y4.71 I-0.0355 J-0.0298
G2 X3.5112 Y4.8091 I0.0307 J0.4009
X3.4983 Y4.8744 I0.0362 J0.0411
G3 X3.4631 Y4.931 I-0.0352 J0.0173
G1 X3.4375
G2 X2.9627 Y4.4562 I-0.6588 J0.184
G1 Y4.2552
G2 X3.4903 Y3.6264 I-0.184 J-0.6902
G1 X3.6883 Y3.5914
G2 X4.2383 Y3.9766 I0.6168 J-0.2956
G1 X4.2523 Y4.056
G2 X4.1703 Y4.362 I0.2265 J0.2247
G1 X3.8053 Y4.7971
G2 X3.5181 Y4.931 I-0.0265 J0.3179
G1 X3.4631
G3 X3.4331 Y4.8798 Z-0.1021 I0. J-0.0344 F20.
G1 X3.7674 Y4.282 Z-0.122
G2 X3.711 Y4.2431 Z-0.125 I-0.03 J-0.0168
G1 X3.6083 Y4.3655 F40.
X3.607 Y4.3666
X3.6054 Y4.3672
X3.6037
X3.602 Y4.3667
X3.6007 Y4.3656
X3.5998 Y4.3643
X3.5993 Y4.3629
Y4.3613
X3.5998 Y4.3598
X3.6007 Y4.3586
G2 X3.7029 Y4.2367 I-0.8127 J-0.7857
G1 X3.704 Y4.2356
X3.7054 Y4.2349
X3.7069 Y4.2346
X3.7084 Y4.2348
X3.7098 Y4.2354
X3.7111 Y4.2365
X3.712 Y4.2381
X3.7123 Y4.2398
X3.712 Y4.2415
X3.7111 Y4.243
X3.711 Y4.2431
G2 X3.7025 Y4.3201 I0.0535 J0.0449
G3 X3.694 Y4.3971 I-0.062 J0.0321
G1 X3.6415 Y4.4597
G3 X3.6202 Y4.4729 I-0.0309 J-0.0259
G2 X3.6009 Y4.478 I0.1445 J0.5889
G3 X3.5775 Y4.4706 I-0.006 J-0.0215
G2 X3.4835 Y4.3689 I-0.8248 J0.6685
G3 X3.4837 Y4.352 I0.0079 J-0.0083
G2 X3.6762 Y4.1226 I-0.7128 J-0.7936
G3 X3.6928 Y4.1195 I0.0097 J0.0061
G2 X3.8092 Y4.1944 I0.6063 J-0.8142
G3 X3.8206 Y4.2162 I-0.0108 J0.0195
G2 X3.8189 Y4.2361 I0.5763 J0.0578
G3 X3.8096 Y4.2593 I-0.0402 J-0.0027
G1 X3.694 Y4.3971
G2 X3.6922 Y4.4771 I0.049 J0.0411
G3 X3.6706 Y4.5542 I-0.0397 J0.0304
X3.6605 Y4.5572 I-0.0238 J-0.0614
G2 X3.5659 Y4.5861 I0.1216 J0.5688
G3 X3.5457 Y4.5801 I-0.0063 J-0.0157
G2 X3.3385 Y4.3659 I-0.7686 J0.5365
G3 X3.3386 Y4.3514 I0.0054 J-0.0072
G2 X3.6504 Y3.9799 I-0.5622 J-0.7883
G3 X3.6647 Y3.9772 I0.0081 J0.0039
G2 X3.9115 Y4.1441 I0.6393 J-0.6795
G3 X3.9209 Y4.1629 I-0.0071 J0.0153
G2 X3.909 Y4.2611 I0.547 J0.1164
G3 X3.8936 Y4.3011 I-0.0658 J-0.0024
G1 X3.6972 Y4.5352
G3 X3.6706 Y4.5542 I-0.0505 J-0.0424
G2 X3.6223 Y4.614 I0.0279 J0.0719
G3 X3.5759 Y4.6753 I-0.0805 J-0.0127
G2 X3.5329 Y4.6978 I0.2038 J0.4425
G3 X3.5158 Y4.6933 I-0.0063 J-0.0106
G2 X3.3682 Y4.5037 I-0.7456 J0.4283
X3.1733 Y4.363 I-0.5895 J0.6113
G3 X3.1734 Y4.351 I0.0031 J-0.006
G2 X3.6213 Y3.8172 I-0.3954 J-0.7866
G3 X3.6331 Y3.815 I0.0065 J0.0019
G2 X4.0179 Y4.095 I0.6689 J-0.5147
G3 X4.0252 Y4.111 I-0.0042 J0.0116
G2 X3.9947 Y4.2927 I0.4458 J0.1683
G3 X3.9817 Y4.3298 I-0.0556 J0.0013
G1 X3.7407 Y4.6169
G3 X3.7065 Y4.6362 I-0.0426 J-0.0358
G2 X3.5759 Y4.6753 I0.0732 J0.4817
X3.5387 Y4.7398 I0.027 J0.0586
G3 X3.5112 Y4.8091 I-0.0818 J0.0076
G2 X3.5026 Y4.8168 I0.2657 J0.3018
G3 X3.4888 Y4.8139 I-0.0059 J-0.0063
G2 X3.0637 Y4.3982 I-0.7106 J0.3016
G3 X3.05 Y4.3782 I0.0079 J-0.02
G1 Y4.3339
G3 X3.0636 Y4.3143 I0.021 J0.
G2 X3.566 Y3.7155 I-0.2858 J-0.75
G3 X3.5831 Y3.6987 I0.0207 J0.004
G1 X3.6267 Y3.691
G3 X3.6487 Y3.7009 I0.0037 J0.0212
G2 X4.1319 Y4.0475 I0.6552 J-0.4034
G3 X4.1372 Y4.0606 I-0.0019 J0.0084
G2 X4.0743 Y4.319 I0.342 J0.2202
G3 X4.0636 Y4.3533 I-0.0461 J0.0045
G1 X3.7781 Y4.6935
G3 X3.7462 Y4.71 I-0.0355 J-0.0298
G2 X3.5112 Y4.8091 I0.0307 J0.4009
X3.4983 Y4.8744 I0.0362 J0.0411
G3 X3.4631 Y4.931 I-0.0352 J0.0173
G1 X3.4375
G2 X2.9627 Y4.4562 I-0.6588 J0.184
G1 Y4.2552
G2 X3.4903 Y3.6264 I-0.184 J-0.6902
G1 X3.6883 Y3.5914
G2 X4.2383 Y3.9766 I0.6168 J-0.2956
G1 X4.2523 Y4.056
G2 X4.1703 Y4.362 I0.2265 J0.2247
G1 X3.8053 Y4.7971
G2 X3.5181 Y4.931 I-0.0265 J0.3179
G1 X3.4631
G3 X3.4331 Y4.8798 Z-0.1271 I0. J-0.0344 F20.
G1 X3.7674 Y4.282 Z-0.147
G2 X3.711 Y4.2431 Z-0.15 I-0.03 J-0.0168
G1 X3.6083 Y4.3655 F40.
X3.607 Y4.3666
X3.6054 Y4.3672
X3.6037
X3.602 Y4.3667
X3.6007 Y4.3656
X3.5998 Y4.3643
X3.5993 Y4.3629
Y4.3613
X3.5998 Y4.3598
X3.6007 Y4.3586
G2 X3.7029 Y4.2367 I-0.8127 J-0.7857
G1 X3.704 Y4.2356
X3.7054 Y4.2349
X3.7069 Y4.2346
X3.7084 Y4.2348
X3.7098 Y4.2354
X3.7111 Y4.2365
X3.712 Y4.2381
X3.7123 Y4.2398
X3.712 Y4.2415
X3.7111 Y4.243
X3.711 Y4.2431
G2 X3.7025 Y4.3201 I0.0535 J0.0449
G3 X3.694 Y4.3971 I-0.062 J0.0321
G1 X3.6415 Y4.4597
G3 X3.6202 Y4.4729 I-0.0309 J-0.0259
G2 X3.6009 Y4.478 I0.1445 J0.5889
G3 X3.5775 Y4.4706 I-0.006 J-0.0215
G2 X3.4835 Y4.3689 I-0.8248 J0.6685
G3 X3.4837 Y4.352 I0.0079 J-0.0083
G2 X3.6762 Y4.1226 I-0.7128 J-0.7936
G3 X3.6928 Y4.1195 I0.0097 J0.0061
G2 X3.8092 Y4.1944 I0.6063 J-0.8142
G3 X3.8206 Y4.2162 I-0.0108 J0.0195
G2 X3.8189 Y4.2361 I0.5763 J0.0578
G3 X3.8096 Y4.2593 I-0.0402 J-0.0027
G1 X3.694 Y4.3971
G2 X3.6922 Y4.4771 I0.049 J0.0411
G3 X3.6706 Y4.5542 I-0.0397 J0.0304
X3.6605 Y4.5572 I-0.0238 J-0.0614
G2 X3.5659 Y4.5861 I0.1216 J0.5688
G3 X3.5457 Y4.5801 I-0.0063 J-0.0157
G2 X3.3385 Y4.3659 I-0.7686 J0.5365
G3 X3.3386 Y4.3514 I0.0054 J-0.0072
G2 X3.6504 Y3.9799 I-0.5622 J-0.7883
G3 X3.6647 Y3.9772 I0.0081 J0.0039
G2 X3.9115 Y4.1441 I0.6393 J-0.6795
G3 X3.9209 Y4.1629 I-0.0071 J0.0153
G2 X3.909 Y4.2611 I0.547 J0.1164
G3 X3.8936 Y4.3011 I-0.0658 J-0.0024
G1 X3.6972 Y4.5352
G3 X3.6706 Y4.5542 I-0.0505 J-0.0424
G2 X3.6223 Y4.614 I0.0279 J0.0719
G3 X3.5759 Y4.6753 I-0.0805 J-0.0127
G2 X3.5329 Y4.6978 I0.2038 J0.4425
G3 X3.5158 Y4.6933 I-0.0063 J-0.0106
G2 X3.3682 Y4.5037 I-0.7456 J0.4283
X3.1733 Y4.363 I-0.5895 J0.6113
G3 X3.1734 Y4.351 I0.0031 J-0.006
G2 X3.6213 Y3.8172 I-0.3954 J-0.7866
G3 X3.6331 Y3.815 I0.0065 J0.0019
G2 X4.0179 Y4.095 I0.6689 J-0.5147
G3 X4.0252 Y4.111 I-0.0042 J0.0116
G2 X3.9947 Y4.2927 I0.4458 J0.1683
G3 X3.9817 Y4.3298 I-0.0556 J0.0013
G1 X3.7407 Y4.6169
G3 X3.7065 Y4.6362 I-0.0426 J-0.0358
G2 X3.5759 Y4.6753 I0.0732 J0.4817
X3.5387 Y4.7398 I0.027 J0.0586
G3 X3.5112 Y4.8091 I-0.0818 J0.0076
G2 X3.5026 Y4.8168 I0.2657 J0.3018
G3 X3.4888 Y4.8139 I-0.0059 J-0.0063
G2 X3.0637 Y4.3982 I-0.7106 J0.3016
G3 X3.05 Y4.3782 I0.0079 J-0.02
G1 Y4.3339
G3 X3.0636 Y4.3143 I0.021 J0.
G2 X3.566 Y3.7155 I-0.2858 J-0.75
G3 X3.5831 Y3.6987 I0.0207 J0.004
G1 X3.6267 Y3.691
G3 X3.6487 Y3.7009 I0.0037 J0.0212
G2 X4.1319 Y4.0475 I0.6552 J-0.4034
G3 X4.1372 Y4.0606 I-0.0019 J0.0084
G2 X4.0743 Y4.319 I0.342 J0.2202
G3 X4.0636 Y4.3533 I-0.0461 J0.0045
G1 X3.7781 Y4.6935
G3 X3.7462 Y4.71 I-0.0355 J-0.0298
G2 X3.5112 Y4.8091 I0.0307 J0.4009
X3.4983 Y4.8744 I0.0362 J0.0411
G3 X3.4631 Y4.931 I-0.0352 J0.0173
G1 X3.4375
G2 X2.9627 Y4.4562 I-0.6588 J0.184
G1 Y4.2552
G2 X3.4903 Y3.6264 I-0.184 J-0.6902
G1 X3.6883 Y3.5914
G2 X4.2383 Y3.9766 I0.6168 J-0.2956
G1 X4.2523 Y4.056
G2 X4.1703 Y4.362 I0.2265 J0.2247
G1 X3.8053 Y4.7971
G2 X3.5181 Y4.931 I-0.0265 J0.3179
G1 X3.4631
G3 X3.4331 Y4.8798 Z-0.1521 I0. J-0.0344 F20.
G1 X3.7674 Y4.282 Z-0.172
G2 X3.711 Y4.2431 Z-0.175 I-0.03 J-0.0168
G1 X3.6083 Y4.3655 F40.
X3.607 Y4.3666
X3.6054 Y4.3672
X3.6037
X3.602 Y4.3667
X3.6007 Y4.3656
X3.5998 Y4.3643
X3.5993 Y4.3629
Y4.3613
X3.5998 Y4.3598
X3.6007 Y4.3586
G2 X3.7029 Y4.2367 I-0.8127 J-0.7857
G1 X3.704 Y4.2356
X3.7054 Y4.2349
X3.7069 Y4.2346
X3.7084 Y4.2348
X3.7098 Y4.2354
X3.7111 Y4.2365
X3.712 Y4.2381
X3.7123 Y4.2398
X3.712 Y4.2415
X3.7111 Y4.243
X3.711 Y4.2431
G2 X3.7025 Y4.3201 I0.0535 J0.0449
G3 X3.694 Y4.3971 I-0.062 J0.0321
G1 X3.6415 Y4.4597
G3 X3.6202 Y4.4729 I-0.0309 J-0.0259
G2 X3.6009 Y4.478 I0.1445 J0.5889
G3 X3.5775 Y4.4706 I-0.006 J-0.0215
G2 X3.4835 Y4.3689 I-0.8248 J0.6685
G3 X3.4837 Y4.352 I0.0079 J-0.0083
G2 X3.6762 Y4.1226 I-0.7128 J-0.7936
G3 X3.6928 Y4.1195 I0.0097 J0.0061
G2 X3.8092 Y4.1944 I0.6063 J-0.8142
G3 X3.8206 Y4.2162 I-0.0108 J0.0195
G2 X3.8189 Y4.2361 I0.5763 J0.0578
G3 X3.8096 Y4.2593 I-0.0402 J-0.0027
G1 X3.694 Y4.3971
G2 X3.6922 Y4.4771 I0.049 J0.0411
G3 X3.6706 Y4.5542 I-0.0397 J0.0304
X3.6605 Y4.5572 I-0.0238 J-0.0614
G2 X3.5659 Y4.5861 I0.1216 J0.5688
G3 X3.5457 Y4.5801 I-0.0063 J-0.0157
G2 X3.3385 Y4.3659 I-0.7686 J0.5365
G3 X3.3386 Y4.3514 I0.0054 J-0.0072
G2 X3.6504 Y3.9799 I-0.5622 J-0.7883
G3 X3.6647 Y3.9772 I0.0081 J0.0039
G2 X3.9115 Y4.1441 I0.6393 J-0.6795
G3 X3.9209 Y4.1629 I-0.0071 J0.0153
G2 X3.909 Y4.2611 I0.547 J0.1164
G3 X3.8936 Y4.3011 I-0.0658 J-0.0024
G1 X3.6972 Y4.5352
G3 X3.6706 Y4.5542 I-0.0505 J-0.0424
G2 X3.6223 Y4.614 I0.0279 J0.0719
G3 X3.5759 Y4.6753 I-0.0805 J-0.0127
G2 X3.5329 Y4.6978 I0.2038 J0.4425
G3 X3.5158 Y4.6933 I-0.0063 J-0.0106
G2 X3.3682 Y4.5037 I-0.7456 J0.4283
X3.1733 Y4.363 I-0.5895 J0.6113
G3 X3.1734 Y4.351 I0.0031 J-0.006
G2 X3.6213 Y3.8172 I-0.3954 J-0.7866
G3 X3.6331 Y3.815 I0.0065 J0.0019
G2 X4.0179 Y4.095 I0.6689 J-0.5147
G3 X4.0252 Y4.111 I-0.0042 J0.0116
G2 X3.9947 Y4.2927 I0.4458 J0.1683
G3 X3.9817 Y4.3298 I-0.0556 J0.0013
G1 X3.7407 Y4.6169
G3 X3.7065 Y4.6362 I-0.0426 J-0.0358
G2 X3.5759 Y4.6753 I0.0732 J0.4817
X3.5387 Y4.7398 I0.027 J0.0586
G3 X3.5112 Y4.8091 I-0.0818 J0.0076
G2 X3.5026 Y4.8168 I0.2657 J0.3018
G3 X3.4888 Y4.8139 I-0.0059 J-0.0063
G2 X3.0637 Y4.3982 I-0.7106 J0.3016
G3 X3.05 Y4.3782 I0.0079 J-0.02
G1 Y4.3339
G3 X3.0636 Y4.3143 I0.021 J0.
G2 X3.566 Y3.7155 I-0.2858 J-0.75
G3 X3.5831 Y3.6987 I0.0207 J0.004
G1 X3.6267 Y3.691
G3 X3.6487 Y3.7009 I0.0037 J0.0212
G2 X4.1319 Y4.0475 I0.6552 J-0.4034
G3 X4.1372 Y4.0606 I-0.0019 J0.0084
G2 X4.0743 Y4.319 I0.342 J0.2202
G3 X4.0636 Y4.3533 I-0.0461 J0.0045
G1 X3.7781 Y4.6935
G3 X3.7462 Y4.71 I-0.0355 J-0.0298
G2 X3.5112 Y4.8091 I0.0307 J0.4009
X3.4983 Y4.8744 I0.0362 J0.0411
G3 X3.4631 Y4.931 I-0.0352 J0.0173
G1 X3.4375
G2 X2.9627 Y4.4562 I-0.6588 J0.184
G1 Y4.2552
G2 X3.4903 Y3.6264 I-0.184 J-0.6902
G1 X3.6883 Y3.5914
G2 X4.2383 Y3.9766 I0.6168 J-0.2956
G1 X4.2523 Y4.056
G2 X4.1703 Y4.362 I0.2265 J0.2247
G1 X3.8053 Y4.7971
G2 X3.5181 Y4.931 I-0.0265 J0.3179
G1 X3.4631
G3 X3.4331 Y4.8798 Z-0.1771 I0. J-0.0344 F20.
G1 X3.7674 Y4.282 Z-0.197
G2 X3.711 Y4.2431 Z-0.2 I-0.03 J-0.0168
G1 X3.6083 Y4.3655 F40.
X3.607 Y4.3666
X3.6054 Y4.3672
X3.6037
X3.602 Y4.3667
X3.6007 Y4.3656
X3.5998 Y4.3643
X3.5993 Y4.3629
Y4.3613
X3.5998 Y4.3598
X3.6007 Y4.3586
G2 X3.7029 Y4.2367 I-0.8127 J-0.7857
G1 X3.704 Y4.2356
X3.7054 Y4.2349
X3.7069 Y4.2346
X3.7084 Y4.2348
X3.7098 Y4.2354
X3.7111 Y4.2365
X3.712 Y4.2381
X3.7123 Y4.2398
X3.712 Y4.2415
X3.7111 Y4.243
X3.711 Y4.2431
G2 X3.7025 Y4.3201 I0.0535 J0.0449
G3 X3.694 Y4.3971 I-0.062 J0.0321
G1 X3.6415 Y4.4597
G3 X3.6202 Y4.4729 I-0.0309 J-0.0259
G2 X3.6009 Y4.478 I0.1445 J0.5889
G3 X3.5775 Y4.4706 I-0.006 J-0.0215
G2 X3.4835 Y4.3689 I-0.8248 J0.6685
G3 X3.4837 Y4.352 I0.0079 J-0.0083
G2 X3.6762 Y4.1226 I-0.7128 J-0.7936
G3 X3.6928 Y4.1195 I0.0097 J0.0061
G2 X3.8092 Y4.1944 I0.6063 J-0.8142
G3 X3.8206 Y4.2162 I-0.0108 J0.0195
G2 X3.8189 Y4.2361 I0.5763 J0.0578
G3 X3.8096 Y4.2593 I-0.0402 J-0.0027
G1 X3.694 Y4.3971
G2 X3.6922 Y4.4771 I0.049 J0.0411
G3 X3.6706 Y4.5542 I-0.0397 J0.0304
X3.6605 Y4.5572 I-0.0238 J-0.0614
G2 X3.5659 Y4.5861 I0.1216 J0.5688
G3 X3.5457 Y4.5801 I-0.0063 J-0.0157
G2 X3.3385 Y4.3659 I-0.7686 J0.5365
G3 X3.3386 Y4.3514 I0.0054 J-0.0072
G2 X3.6504 Y3.9799 I-0.5622 J-0.7883
G3 X3.6647 Y3.9772 I0.0081 J0.0039
G2 X3.9115 Y4.1441 I0.6393 J-0.6795
G3 X3.9209 Y4.1629 I-0.0071 J0.0153
G2 X3.909 Y4.2611 I0.547 J0.1164
G3 X3.8936 Y4.3011 I-0.0658 J-0.0024
G1 X3.6972 Y4.5352
G3 X3.6706 Y4.5542 I-0.0505 J-0.0424
G2 X3.6223 Y4.614 I0.0279 J0.0719
G3 X3.5759 Y4.6753 I-0.0805 J-0.0127
G2 X3.5329 Y4.6978 I0.2038 J0.4425
G3 X3.5158 Y4.6933 I-0.0063 J-0.0106
G2 X3.3682 Y4.5037 I-0.7456 J0.4283
X3.1733 Y4.363 I-0.5895 J0.6113
G3 X3.1734 Y4.351 I0.0031 J-0.006
G2 X3.6213 Y3.8172 I-0.3954 J-0.7866
G3 X3.6331 Y3.815 I0.0065 J0.0019
G2 X4.0179 Y4.095 I0.6689 J-0.5147
G3 X4.0252 Y4.111 I-0.0042 J0.0116
G2 X3.9947 Y4.2927 I0.4458 J0.1683
G3 X3.9817 Y4.3298 I-0.0556 J0.0013
G1 X3.7407 Y4.6169
G3 X3.7065 Y4.6362 I-0.0426 J-0.0358
G2 X3.5759 Y4.6753 I0.0732 J0.4817
X3.5387 Y4.7398 I0.027 J0.0586
G3 X3.5112 Y4.8091 I-0.0818 J0.0076
G2 X3.5026 Y4.8168 I0.2657 J0.3018
G3 X3.4888 Y4.8139 I-0.0059 J-0.0063
G2 X3.0637 Y4.3982 I-0.7106 J0.3016
G3 X3.05 Y4.3782 I0.0079 J-0.02
G1 Y4.3339
G3 X3.0636 Y4.3143 I0.021 J0.
G2 X3.566 Y3.7155 I-0.2858 J-0.75
G3 X3.5831 Y3.6987 I0.0207 J0.004
G1 X3.6267 Y3.691
G3 X3.6487 Y3.7009 I0.0037 J0.0212
G2 X4.1319 Y4.0475 I0.6552 J-0.4034
G3 X4.1372 Y4.0606 I-0.0019 J0.0084
G2 X4.0743 Y4.319 I0.342 J0.2202
G3 X4.0636 Y4.3533 I-0.0461 J0.0045
G1 X3.7781 Y4.6935
G3 X3.7462 Y4.71 I-0.0355 J-0.0298
G2 X3.5112 Y4.8091 I0.0307 J0.4009
X3.4983 Y4.8744 I0.0362 J0.0411
G3 X3.4631 Y4.931 I-0.0352 J0.0173
G1 X3.4375
G2 X2.9627 Y4.4562 I-0.6588 J0.184
G1 Y4.2552
G2 X3.4903 Y3.6264 I-0.184 J-0.6902
G1 X3.6883 Y3.5914
G2 X4.2383 Y3.9766 I0.6168 J-0.2956
G1 X4.2523 Y4.056
G2 X4.1703 Y4.362 I0.2265 J0.2247
G1 X3.8053 Y4.7971
G2 X3.5181 Y4.931 I-0.0265 J0.3179
G1 X3.4631
G3 X3.4331 Y4.8798 Z-0.2021 I0. J-0.0344 F20.
G1 X3.7674 Y4.282 Z-0.222
G2 X3.711 Y4.2431 Z-0.225 I-0.03 J-0.0168
G1 X3.6083 Y4.3655 F40.
X3.607 Y4.3666
X3.6054 Y4.3672
X3.6037
X3.602 Y4.3667
X3.6007 Y4.3656
X3.5998 Y4.3643
X3.5993 Y4.3629
Y4.3613
X3.5998 Y4.3598
X3.6007 Y4.3586
G2 X3.7029 Y4.2367 I-0.8127 J-0.7857
G1 X3.704 Y4.2356
X3.7054 Y4.2349
X3.7069 Y4.2346
X3.7084 Y4.2348
X3.7098 Y4.2354
X3.7111 Y4.2365
X3.712 Y4.2381
X3.7123 Y4.2398
X3.712 Y4.2415
X3.7111 Y4.243
X3.711 Y4.2431
G2 X3.7025 Y4.3201 I0.0535 J0.0449
G3 X3.694 Y4.3971 I-0.062 J0.0321
G1 X3.6415 Y4.4597
G3 X3.6202 Y4.4729 I-0.0309 J-0.0259
G2 X3.6009 Y4.478 I0.1445 J0.5889
G3 X3.5775 Y4.4706 I-0.006 J-0.0215
G2 X3.4835 Y4.3689 I-0.8248 J0.6685
G3 X3.4837 Y4.352 I0.0079 J-0.0083
G2 X3.6762 Y4.1226 I-0.7128 J-0.7936
G3 X3.6928 Y4.1195 I0.0097 J0.0061
G2 X3.8092 Y4.1944 I0.6063 J-0.8142
G3 X3.8206 Y4.2162 I-0.0108 J0.0195
G2 X3.8189 Y4.2361 I0.5763 J0.0578
G3 X3.8096 Y4.2593 I-0.0402 J-0.0027
G1 X3.694 Y4.3971
G2 X3.6922 Y4.4771 I0.049 J0.0411
G3 X3.6706 Y4.5542 I-0.0397 J0.0304
X3.6605 Y4.5572 I-0.0238 J-0.0614
G2 X3.5659 Y4.5861 I0.1216 J0.5688
G3 X3.5457 Y4.5801 I-0.0063 J-0.0157
G2 X3.3385 Y4.3659 I-0.7686 J0.5365
G3 X3.3386 Y4.3514 I0.0054 J-0.0072
G2 X3.6504 Y3.9799 I-0.5622 J-0.7883
G3 X3.6647 Y3.9772 I0.0081 J0.0039
G2 X3.9115 Y4.1441 I0.6393 J-0.6795
G3 X3.9209 Y4.1629 I-0.0071 J0.0153
G2 X3.909 Y4.2611 I0.547 J0.1164
G3 X3.8936 Y4.3011 I-0.0658 J-0.0024
G1 X3.6972 Y4.5352
G3 X3.6706 Y4.5542 I-0.0505 J-0.0424
G2 X3.6223 Y4.614 I0.0279 J0.0719
G3 X3.5759 Y4.6753 I-0.0805 J-0.0127
G2 X3.5329 Y4.6978 I0.2038 J0.4425
G3 X3.5158 Y4.6933 I-0.0063 J-0.0106
G2 X3.3682 Y4.5037 I-0.7456 J0.4283
X3.1733 Y4.363 I-0.5895 J0.6113
G3 X3.1734 Y4.351 I0.0031 J-0.006
G2 X3.6213 Y3.8172 I-0.3954 J-0.7866
G3 X3.6331 Y3.815 I0.0065 J0.0019
G2 X4.0179 Y4.095 I0.6689 J-0.5147
G3 X4.0252 Y4.111 I-0.0042 J0.0116
G2 X3.9947 Y4.2927 I0.4458 J0.1683
G3 X3.9817 Y4.3298 I-0.0556 J0.0013
G1 X3.7407 Y4.6169
G3 X3.7065 Y4.6362 I-0.0426 J-0.0358
G2 X3.5759 Y4.6753 I0.0732 J0.4817
X3.5387 Y4.7398 I0.027 J0.0586
G3 X3.5112 Y4.8091 I-0.0818 J0.0076
G2 X3.5026 Y4.8168 I0.2657 J0.3018
G3 X3.4888 Y4.8139 I-0.0059 J-0.0063
G2 X3.0637 Y4.3982 I-0.7106 J0.3016
G3 X3.05 Y4.3782 I0.0079 J-0.02
G1 Y4.3339
G3 X3.0636 Y4.3143 I0.021 J0.
G2 X3.566 Y3.7155 I-0.2858 J-0.75
G3 X3.5831 Y3.6987 I0.0207 J0.004
G1 X3.6267 Y3.691
G3 X3.6487 Y3.7009 I0.0037 J0.0212
G2 X4.1319 Y4.0475 I0.6552 J-0.4034
G3 X4.1372 Y4.0606 I-0.0019 J0.0084
G2 X4.0743 Y4.319 I0.342 J0.2202
G3 X4.0636 Y4.3533 I-0.0461 J0.0045
G1 X3.7781 Y4.6935
G3 X3.7462 Y4.71 I-0.0355 J-0.0298
G2 X3.5112 Y4.8091 I0.0307 J0.4009
X3.4983 Y4.8744 I0.0362 J0.0411
G3 X3.4631 Y4.931 I-0.0352 J0.0173
G1 X3.4375
G2 X2.9627 Y4.4562 I-0.6588 J0.184
G1 Y4.2552
G2 X3.4903 Y3.6264 I-0.184 J-0.6902
G1 X3.6883 Y3.5914
G2 X4.2383 Y3.9766 I0.6168 J-0.2956
G1 X4.2523 Y4.056
G2 X4.1703 Y4.362 I0.2265 J0.2247
G1 X3.8053 Y4.7971
G2 X3.5181 Y4.931 I-0.0265 J0.3179
G1 X3.4631
G3 X3.4331 Y4.8798 Z-0.2271 I0. J-0.0344 F20.
G1 X3.7674 Y4.282 Z-0.247
G2 X3.711 Y4.2431 Z-0.25 I-0.03 J-0.0168
G1 X3.6083 Y4.3655 F40.
X3.607 Y4.3666
X3.6054 Y4.3672
X3.6037
X3.602 Y4.3667
X3.6007 Y4.3656
X3.5998 Y4.3643
X3.5993 Y4.3629
Y4.3613
X3.5998 Y4.3598
X3.6007 Y4.3586
G2 X3.7029 Y4.2367 I-0.8127 J-0.7857
G1 X3.704 Y4.2356
X3.7054 Y4.2349
X3.7069 Y4.2346
X3.7084 Y4.2348
X3.7098 Y4.2354
X3.7111 Y4.2365
X3.712 Y4.2381
X3.7123 Y4.2398
X3.712 Y4.2415
X3.7111 Y4.243
X3.711 Y4.2431
G2 X3.7025 Y4.3201 I0.0535 J0.0449
G3 X3.694 Y4.3971 I-0.062 J0.0321
G1 X3.6415 Y4.4597
G3 X3.6202 Y4.4729 I-0.0309 J-0.0259
G2 X3.6009 Y4.478 I0.1445 J0.5889
G3 X3.5775 Y4.4706 I-0.006 J-0.0215
G2 X3.4835 Y4.3689 I-0.8248 J0.6685
G3 X3.4837 Y4.352 I0.0079 J-0.0083
G2 X3.6762 Y4.1226 I-0.7128 J-0.7936
G3 X3.6928 Y4.1195 I0.0097 J0.0061
G2 X3.8092 Y4.1944 I0.6063 J-0.8142
G3 X3.8206 Y4.2162 I-0.0108 J0.0195
G2 X3.8189 Y4.2361 I0.5763 J0.0578
G3 X3.8096 Y4.2593 I-0.0402 J-0.0027
G1 X3.694 Y4.3971
G2 X3.6922 Y4.4771 I0.049 J0.0411
G3 X3.6706 Y4.5542 I-0.0397 J0.0304
X3.6605 Y4.5572 I-0.0238 J-0.0614
G2 X3.5659 Y4.5861 I0.1216 J0.5688
G3 X3.5457 Y4.5801 I-0.0063 J-0.0157
G2 X3.3385 Y4.3659 I-0.7686 J0.5365
G3 X3.3386 Y4.3514 I0.0054 J-0.0072
G2 X3.6504 Y3.9799 I-0.5622 J-0.7883
G3 X3.6647 Y3.9772 I0.0081 J0.0039
G2 X3.9115 Y4.1441 I0.6393 J-0.6795
G3 X3.9209 Y4.1629 I-0.0071 J0.0153
G2 X3.909 Y4.2611 I0.547 J0.1164
G3 X3.8936 Y4.3011 I-0.0658 J-0.0024
G1 X3.6972 Y4.5352
G3 X3.6706 Y4.5542 I-0.0505 J-0.0424
G2 X3.6223 Y4.614 I0.0279 J0.0719
G3 X3.5759 Y4.6753 I-0.0805 J-0.0127
G2 X3.5329 Y4.6978 I0.2038 J0.4425
G3 X3.5158 Y4.6933 I-0.0063 J-0.0106
G2 X3.3682 Y4.5037 I-0.7456 J0.4283
X3.1733 Y4.363 I-0.5895 J0.6113
G3 X3.1734 Y4.351 I0.0031 J-0.006
G2 X3.6213 Y3.8172 I-0.3954 J-0.7866
G3 X3.6331 Y3.815 I0.0065 J0.0019
G2 X4.0179 Y4.095 I0.6689 J-0.5147
G3 X4.0252 Y4.111 I-0.0042 J0.0116
G2 X3.9947 Y4.2927 I0.4458 J0.1683
G3 X3.9817 Y4.3298 I-0.0556 J0.0013
G1 X3.7407 Y4.6169
G3 X3.7065 Y4.6362 I-0.0426 J-0.0358
G2 X3.5759 Y4.6753 I0.0732 J0.4817
X3.5387 Y4.7398 I0.027 J0.0586
G3 X3.5112 Y4.8091 I-0.0818 J0.0076
G2 X3.5026 Y4.8168 I0.2657 J0.3018
G3 X3.4888 Y4.8139 I-0.0059 J-0.0063
G2 X3.0637 Y4.3982 I-0.7106 J0.3016
