(X4 GEARBOX DS BEARING HOLE 2 RUN 19)
(T3  D=0.118 CR=0. - ZMIN=-0.0625 - FLAT END MILL)
G90 G94 G91.1 G40 G49 G17
G20

(2D POCKET5)
M5
T3 M6
S15000 M3
g4 p5
G54
M8
G0 X3.1251 Y3.5793
G43 Z0.64 H3
Z0.24
G1 Z0.1518 F30.
X3.1236 Y3.5797 Z0.146 F20.
X3.1195 Y3.5804 Z0.1417
X3.1138 Y3.581 Z0.14
G3 X3.1085 Y3.469 Z0.1339 I-0.0027 J-0.056
X3.1138 Y3.581 Z0.1277 I0.0027 J0.056
X3.1085 Y3.469 Z0.1216 I-0.0027 J-0.056
X3.1138 Y3.581 Z0.1154 I0.0027 J0.056
X3.1085 Y3.469 Z0.1093 I-0.0027 J-0.056
X3.1138 Y3.581 Z0.1031 I0.0027 J0.056
X3.1085 Y3.469 Z0.097 I-0.0027 J-0.056
X3.1138 Y3.581 Z0.0908 I0.0027 J0.056
X3.1085 Y3.469 Z0.0847 I-0.0027 J-0.056
X3.1138 Y3.581 Z0.0785 I0.0027 J0.056
X3.1085 Y3.469 Z0.0724 I-0.0027 J-0.056
X3.1138 Y3.581 Z0.0662 I0.0027 J0.056
X3.1085 Y3.469 Z0.0601 I-0.0027 J-0.056
X3.1138 Y3.581 Z0.0539 I0.0027 J0.056
X3.1085 Y3.469 Z0.0478 I-0.0027 J-0.056
X3.1138 Y3.581 Z0.0416 I0.0027 J0.056
X3.1085 Y3.469 Z0.0355 I-0.0027 J-0.056
X3.1138 Y3.581 Z0.0293 I0.0027 J0.056
X3.1085 Y3.469 Z0.0232 I-0.0027 J-0.056
X3.1672 Y3.525 Z0.02 I0.0027 J0.056
X2.3102 I-0.4285 J0. F40.
X3.1672 I0.4285 J0.
X2.8381 Y3.9418 Z0. I-0.4285 J0. F20.
X2.6393 Y3.1082 I-0.0994 J-0.4168 F40.
X2.8381 Y3.9418 I0.0994 J0.4168
X2.3564 Y3.7185 Z-0.02 I-0.0994 J-0.4168 F20.
X3.121 Y3.3315 I0.3823 J-0.1935 F40.
X2.3564 Y3.7185 I-0.3823 J0.1935
X2.4618 Y3.198 Z-0.04 I0.3823 J-0.1935 F20.
X3.0156 Y3.852 I0.2769 J0.327 F40.
X2.4618 Y3.198 I-0.2769 J-0.327
X2.7598 Y3.097 Z-0.0512 I0.2769 J0.327 F20.
X2.7176 Y3.953 I-0.0211 J0.428 F40.
X2.7598 Y3.097 I0.0211 J-0.428
X3.0464 Y3.2268 Z-0.0625 I-0.0211 J0.428 F20.
X2.431 Y3.8232 I-0.3077 J0.2982 F40.
X3.0464 Y3.2268 I0.3077 J-0.2982
X3.0495 Y3.237 I-0.0085 J0.0082
G1 X3.0394 Y3.2951
X3.039 Y3.2977 Z-0.0622
X3.0385 Y3.3002 Z-0.0613
X3.0381 Y3.3024 Z-0.0599
X3.0378 Y3.3042 Z-0.0581
X3.0376 Y3.3056 Z-0.0558
X3.0374 Y3.3065 Z-0.0533
Y3.3068 Z-0.0507
G0 Z0.64
X2.8007 Y3.4707
Z0.24
G1 Z0.1518 F30.
X2.8022 Y3.4703 Z0.146 F20.
X2.8063 Y3.4696 Z0.1417
X2.812 Y3.469 Z0.14
G3 X2.8173 Y3.581 Z0.1339 I0.0027 J0.056
X2.812 Y3.469 Z0.1277 I-0.0027 J-0.056
X2.8173 Y3.581 Z0.1216 I0.0027 J0.056
X2.812 Y3.469 Z0.1154 I-0.0027 J-0.056
X2.8173 Y3.581 Z0.1093 I0.0027 J0.056
X2.812 Y3.469 Z0.1031 I-0.0027 J-0.056
X2.8173 Y3.581 Z0.097 I0.0027 J0.056
X2.812 Y3.469 Z0.0908 I-0.0027 J-0.056
X2.8173 Y3.581 Z0.0847 I0.0027 J0.056
X2.812 Y3.469 Z0.0785 I-0.0027 J-0.056
X2.8173 Y3.581 Z0.0724 I0.0027 J0.056
X2.812 Y3.469 Z0.0662 I-0.0027 J-0.056
X2.8173 Y3.581 Z0.0601 I0.0027 J0.056
X2.812 Y3.469 Z0.0539 I-0.0027 J-0.056
X2.8173 Y3.581 Z0.0478 I0.0027 J0.056
X2.812 Y3.469 Z0.0416 I-0.0027 J-0.056
X2.8173 Y3.581 Z0.0355 I0.0027 J0.056
X2.812 Y3.469 Z0.0293 I-0.0027 J-0.056
X2.8173 Y3.581 Z0.0232 I0.0027 J0.056
X2.7586 Y3.525 Z0.02 I-0.0027 J-0.056
X2.8309 I0.0362 J0. F40.
X2.6465 I-0.0922 J0.
X2.943 I0.1482 J0.
X2.5344 I-0.2043 J0.
X3.0551 I0.2604 J0.
X2.4223 I-0.3164 J0.
X3.1672 I0.3725 J0.
X2.3102 I-0.4285 J0.
X3.1672 I0.4285 J0.
G1 X3.1669 Y3.5267
X3.1662 Y3.5283
X3.165 Y3.5296
X3.1635 Y3.5305
X3.1618 Y3.5309
X2.8923 Y3.5546
X2.8906 Y3.5547
X2.8889 Y3.5543
X2.8874 Y3.5534
X2.8862 Y3.5522
X2.845 Y3.4926
G3 X2.854 Y3.4851 I0.0049 J-0.0034
X2.7753 Y3.5649 Z0.0139 I-0.0393 J0.0399 F20.
X2.854 Y3.4851 Z0.0077 I0.0393 J-0.0399
X2.7753 Y3.5649 Z0.0016 I-0.0393 J0.0399
X2.7586 Y3.525 Z0. I0.0393 J-0.0399
X2.8309 I0.0362 J0. F40.
X2.6465 I-0.0922 J0.
X2.943 I0.1482 J0.
X2.5344 I-0.2043 J0.
X3.0551 I0.2604 J0.
X2.4223 I-0.3164 J0.
X3.1672 I0.3725 J0.
X2.3102 I-0.4285 J0.
X3.1672 I0.4285 J0.
G1 X3.1669 Y3.5267
X3.1662 Y3.5283
X3.165 Y3.5296
X3.1635 Y3.5305
X3.1618 Y3.5309
X2.8923 Y3.5546
X2.8906 Y3.5547
X2.8889 Y3.5543
X2.8874 Y3.5534
X2.8862 Y3.5522
X2.845 Y3.4926
G3 X2.854 Y3.4851 I0.0049 J-0.0034
X2.7753 Y3.5649 Z-0.0061 I-0.0393 J0.0399 F20.
X2.854 Y3.4851 Z-0.0123 I0.0393 J-0.0399
X2.7753 Y3.5649 Z-0.0184 I-0.0393 J0.0399
X2.7586 Y3.525 Z-0.02 I0.0393 J-0.0399
X2.8309 I0.0362 J0. F40.
X2.6465 I-0.0922 J0.
X2.943 I0.1482 J0.
X2.5344 I-0.2043 J0.
X3.0551 I0.2604 J0.
X2.4223 I-0.3164 J0.
X3.1672 I0.3725 J0.
X2.3102 I-0.4285 J0.
X3.1672 I0.4285 J0.
G1 X3.1669 Y3.5267
X3.1662 Y3.5283
X3.165 Y3.5296
X3.1635 Y3.5305
X3.1618 Y3.5309
X2.8923 Y3.5546
X2.8906 Y3.5547
X2.8889 Y3.5543
X2.8874 Y3.5534
X2.8862 Y3.5522
X2.845 Y3.4926
G3 X2.854 Y3.4851 I0.0049 J-0.0034
X2.7753 Y3.5649 Z-0.0261 I-0.0393 J0.0399 F20.
X2.854 Y3.4851 Z-0.0323 I0.0393 J-0.0399
X2.7753 Y3.5649 Z-0.0384 I-0.0393 J0.0399
X2.7586 Y3.525 Z-0.04 I0.0393 J-0.0399
X2.8309 I0.0362 J0. F40.
X2.6465 I-0.0922 J0.
X2.943 I0.1482 J0.
X2.5344 I-0.2043 J0.
X3.0551 I0.2604 J0.
X2.4223 I-0.3164 J0.
X3.1672 I0.3725 J0.
X2.3102 I-0.4285 J0.
X3.1672 I0.4285 J0.
G1 X3.1669 Y3.5268
X3.1661 Y3.5284
X3.1649 Y3.5297
X3.1633 Y3.5306
X3.1615 Y3.5309
X2.9595 Y3.5373
X2.7705 Y3.5052
X2.7687 Y3.5046
X2.7672 Y3.5035
X2.7662 Y3.5019
X2.7657 Y3.5001
X2.7658 Y3.4982
X2.7664 Y3.4964
G3 X2.8629 Y3.5536 Z-0.0461 I0.0482 J0.0286 F20.
X2.7586 Y3.525 Z-0.0512 I-0.0482 J-0.0286
X2.8309 I0.0362 J0. F40.
X2.6465 I-0.0922 J0.
X2.943 I0.1482 J0.
X2.5344 I-0.2043 J0.
X3.0551 I0.2604 J0.
X2.4223 I-0.3164 J0.
X3.1672 I0.3725 J0.
X2.3102 I-0.4285 J0.
X3.1672 I0.4285 J0.
G1 X3.1669 Y3.5268
X3.1661 Y3.5284
X3.1649 Y3.5297
X3.1633 Y3.5306
X3.1615 Y3.5309
X2.9595 Y3.5373
X2.7705 Y3.5052
X2.7687 Y3.5046
X2.7672 Y3.5035
X2.7662 Y3.5019
X2.7657 Y3.5001
X2.7658 Y3.4982
X2.7664 Y3.4964
G3 X2.8629 Y3.5536 Z-0.0574 I0.0482 J0.0286 F20.
X2.7586 Y3.525 Z-0.0625 I-0.0482 J-0.0286
X2.8309 I0.0362 J0. F40.
X2.6465 I-0.0922 J0.
X2.943 I0.1482 J0.
X2.5344 I-0.2043 J0.
X3.0551 I0.2604 J0.
X2.4223 I-0.3164 J0.
X3.1672 I0.3725 J0.
X2.3102 I-0.4285 J0.
X3.1672 I0.4285 J0.
G1 X3.167 Y3.5272 Z-0.0621
X3.1663 Y3.5294 Z-0.0616
X3.1655 Y3.5311 Z-0.0603
X3.1644 Y3.5327 Z-0.059
X3.1625 Y3.5344 Z-0.0552
X3.1618 Y3.5349 Z-0.0507
G0 Z0.64

M9
M30
