(X4 GEARBOX DS BEARING HOLE 2 RUN 19)
(T3  D=0.118 CR=0. - ZMIN=-0.48 - FLAT END MILL)
G90 G94 G91.1 G40 G49 G17
G20

(2D POCKET4)
M5
T3 M6
S15000 M3
G54
M8
G0 X2.7403 Y3.5793
G43 Z0.64 H3
Z0.24
G1 Z0.1518 F40.
X2.7388 Y3.5797 Z0.146 F20.
X2.7347 Y3.5804 Z0.1417
X2.729 Y3.581 Z0.14
G3 X2.7237 Y3.469 Z0.1339 I-0.0027 J-0.056
X2.729 Y3.581 Z0.1277 I0.0027 J0.056
X2.7237 Y3.469 Z0.1216 I-0.0027 J-0.056
X2.729 Y3.581 Z0.1154 I0.0027 J0.056
X2.7237 Y3.469 Z0.1093 I-0.0027 J-0.056
X2.729 Y3.581 Z0.1031 I0.0027 J0.056
X2.7237 Y3.469 Z0.097 I-0.0027 J-0.056
X2.729 Y3.581 Z0.0908 I0.0027 J0.056
X2.7237 Y3.469 Z0.0847 I-0.0027 J-0.056
X2.729 Y3.581 Z0.0785 I0.0027 J0.056
X2.7237 Y3.469 Z0.0724 I-0.0027 J-0.056
X2.729 Y3.581 Z0.0662 I0.0027 J0.056
X2.7237 Y3.469 Z0.0601 I-0.0027 J-0.056
X2.729 Y3.581 Z0.0539 I0.0027 J0.056
X2.7237 Y3.469 Z0.0478 I-0.0027 J-0.056
X2.729 Y3.581 Z0.0416 I0.0027 J0.056
X2.7237 Y3.469 Z0.0355 I-0.0027 J-0.056
X2.729 Y3.581 Z0.0293 I0.0027 J0.056
X2.7237 Y3.469 Z0.0232 I-0.0027 J-0.056
X2.7824 Y3.525 Z0.02 I0.0027 J0.056
X2.695 I-0.0437 J0. F40.
X2.8945 I0.0998 J0.
X2.5829 I-0.1558 J0.
X3.0066 I0.2118 J0.
X2.4708 I-0.2679 J0.
X3.1187 I0.324 J0.
X2.3587 I-0.38 J0.
X3.1187 I0.38 J0.
G1 X3.1185 Y3.5266
X3.1178 Y3.5282
X3.1167 Y3.5294
X3.1153 Y3.5303
X3.1137 Y3.5308
X3.1121 Y3.5309
X2.8853 Y3.503
X2.8838 Y3.5029
X2.8823 Y3.5032
X2.693 Y3.5663
X2.6914 Y3.5666
X2.6898 Y3.5665
X2.6883 Y3.5659
X2.687 Y3.5649
G3 X2.7657 Y3.4851 Z0.0139 I0.0393 J-0.0399 F20.
X2.687 Y3.5649 Z0.0077 I-0.0393 J0.0399
X2.7657 Y3.4851 Z0.0016 I0.0393 J-0.0399
X2.7824 Y3.525 Z0. I-0.0393 J0.0399
X2.695 I-0.0437 J0. F40.
X2.8945 I0.0998 J0.
X2.5829 I-0.1558 J0.
X3.0066 I0.2118 J0.
X2.4708 I-0.2679 J0.
X3.1187 I0.324 J0.
X2.3587 I-0.38 J0.
X3.1187 I0.38 J0.
G1 X3.1185 Y3.5266
X3.1178 Y3.5282
X3.1167 Y3.5294
X3.1153 Y3.5303
X3.1137 Y3.5308
X3.1121 Y3.5309
X2.8853 Y3.503
X2.8838 Y3.5029
X2.8823 Y3.5032
X2.693 Y3.5663
X2.6914 Y3.5666
X2.6898 Y3.5665
X2.6883 Y3.5659
X2.687 Y3.5649
G3 X2.7657 Y3.4851 Z-0.0061 I0.0393 J-0.0399 F20.
X2.687 Y3.5649 Z-0.0123 I-0.0393 J0.0399
X2.7657 Y3.4851 Z-0.0184 I0.0393 J-0.0399
X2.7824 Y3.525 Z-0.02 I-0.0393 J0.0399
X2.695 I-0.0437 J0. F40.
X2.8945 I0.0998 J0.
X2.5829 I-0.1558 J0.
X3.0066 I0.2118 J0.
X2.4708 I-0.2679 J0.
X3.1187 I0.324 J0.
X2.3587 I-0.38 J0.
X3.1187 I0.38 J0.
G1 X3.1185 Y3.5266
X3.1178 Y3.5282
X3.1167 Y3.5294
X3.1153 Y3.5303
X3.1137 Y3.5308
X3.1121 Y3.5309
X2.8853 Y3.503
X2.8838 Y3.5029
X2.8823 Y3.5032
X2.693 Y3.5663
X2.6914 Y3.5666
X2.6898 Y3.5665
X2.6883 Y3.5659
X2.687 Y3.5649
G3 X2.7657 Y3.4851 Z-0.0261 I0.0393 J-0.0399 F20.
X2.687 Y3.5649 Z-0.0323 I-0.0393 J0.0399
X2.7657 Y3.4851 Z-0.0384 I0.0393 J-0.0399
X2.7824 Y3.525 Z-0.04 I-0.0393 J0.0399
X2.695 I-0.0437 J0. F40.
X2.8945 I0.0998 J0.
X2.5829 I-0.1558 J0.
X3.0066 I0.2118 J0.
X2.4708 I-0.2679 J0.
X3.1187 I0.324 J0.
X2.3587 I-0.38 J0.
X3.1187 I0.38 J0.
G1 X3.1185 Y3.5266
X3.1178 Y3.5282
X3.1167 Y3.5294
X3.1153 Y3.5303
X3.1137 Y3.5308
X3.1121 Y3.5309
X2.8853 Y3.503
X2.8838 Y3.5029
X2.8823 Y3.5032
X2.693 Y3.5663
X2.6914 Y3.5666
X2.6898 Y3.5665
X2.6883 Y3.5659
X2.687 Y3.5649
G3 X2.7657 Y3.4851 Z-0.0461 I0.0393 J-0.0399 F20.
X2.687 Y3.5649 Z-0.0523 I-0.0393 J0.0399
X2.7657 Y3.4851 Z-0.0584 I0.0393 J-0.0399
X2.7824 Y3.525 Z-0.06 I-0.0393 J0.0399
X2.695 I-0.0437 J0. F40.
X2.8945 I0.0998 J0.
X2.5829 I-0.1558 J0.
X3.0066 I0.2118 J0.
X2.4708 I-0.2679 J0.
X3.1187 I0.324 J0.
X2.3587 I-0.38 J0.
X3.1187 I0.38 J0.
G1 X3.1185 Y3.5266
X3.1178 Y3.5282
X3.1167 Y3.5294
X3.1153 Y3.5303
X3.1137 Y3.5308
X3.1121 Y3.5309
X2.8853 Y3.503
X2.8838 Y3.5029
X2.8823 Y3.5032
X2.693 Y3.5663
X2.6914 Y3.5666
X2.6898 Y3.5665
X2.6883 Y3.5659
X2.687 Y3.5649
G3 X2.7657 Y3.4851 Z-0.0661 I0.0393 J-0.0399 F20.
X2.687 Y3.5649 Z-0.0723 I-0.0393 J0.0399
X2.7657 Y3.4851 Z-0.0784 I0.0393 J-0.0399
X2.7824 Y3.525 Z-0.08 I-0.0393 J0.0399
X2.695 I-0.0437 J0. F40.
X2.8945 I0.0998 J0.
X2.5829 I-0.1558 J0.
X3.0066 I0.2118 J0.
X2.4708 I-0.2679 J0.
X3.1187 I0.324 J0.
X2.3587 I-0.38 J0.
X3.1187 I0.38 J0.
G1 X3.1185 Y3.5266
X3.1178 Y3.5282
X3.1167 Y3.5294
X3.1153 Y3.5303
X3.1137 Y3.5308
X3.1121 Y3.5309
X2.8853 Y3.503
X2.8838 Y3.5029
X2.8823 Y3.5032
X2.693 Y3.5663
X2.6914 Y3.5666
X2.6898 Y3.5665
X2.6883 Y3.5659
X2.687 Y3.5649
G3 X2.7657 Y3.4851 Z-0.0861 I0.0393 J-0.0399 F20.
X2.687 Y3.5649 Z-0.0923 I-0.0393 J0.0399
X2.7657 Y3.4851 Z-0.0984 I0.0393 J-0.0399
X2.7824 Y3.525 Z-0.1 I-0.0393 J0.0399
X2.695 I-0.0437 J0. F40.
X2.8945 I0.0998 J0.
X2.5829 I-0.1558 J0.
X3.0066 I0.2118 J0.
X2.4708 I-0.2679 J0.
X3.1187 I0.324 J0.
X2.3587 I-0.38 J0.
X3.1187 I0.38 J0.
G1 X3.1185 Y3.5266
X3.1178 Y3.5282
X3.1167 Y3.5294
X3.1153 Y3.5303
X3.1137 Y3.5308
X3.1121 Y3.5309
X2.8853 Y3.503
X2.8838 Y3.5029
X2.8823 Y3.5032
X2.693 Y3.5663
X2.6914 Y3.5666
X2.6898 Y3.5665
X2.6883 Y3.5659
X2.687 Y3.5649
G3 X2.7657 Y3.4851 Z-0.1061 I0.0393 J-0.0399 F20.
X2.687 Y3.5649 Z-0.1123 I-0.0393 J0.0399
X2.7657 Y3.4851 Z-0.1184 I0.0393 J-0.0399
X2.7824 Y3.525 Z-0.12 I-0.0393 J0.0399
X2.695 I-0.0437 J0. F40.
X2.8945 I0.0998 J0.
X2.5829 I-0.1558 J0.
X3.0066 I0.2118 J0.
X2.4708 I-0.2679 J0.
X3.1187 I0.324 J0.
X2.3587 I-0.38 J0.
X3.1187 I0.38 J0.
G1 X3.1185 Y3.5266
X3.1178 Y3.5282
X3.1167 Y3.5294
X3.1153 Y3.5303
X3.1137 Y3.5308
X3.1121 Y3.5309
X2.8853 Y3.503
X2.8838 Y3.5029
X2.8823 Y3.5032
X2.693 Y3.5663
X2.6914 Y3.5666
X2.6898 Y3.5665
X2.6883 Y3.5659
X2.687 Y3.5649
G3 X2.7657 Y3.4851 Z-0.1261 I0.0393 J-0.0399 F20.
X2.687 Y3.5649 Z-0.1323 I-0.0393 J0.0399
X2.7657 Y3.4851 Z-0.1384 I0.0393 J-0.0399
X2.7824 Y3.525 Z-0.14 I-0.0393 J0.0399
X2.695 I-0.0437 J0. F40.
X2.8945 I0.0998 J0.
X2.5829 I-0.1558 J0.
X3.0066 I0.2118 J0.
X2.4708 I-0.2679 J0.
X3.1187 I0.324 J0.
X2.3587 I-0.38 J0.
X3.1187 I0.38 J0.
G1 X3.1185 Y3.5266
X3.1178 Y3.5282
X3.1167 Y3.5294
X3.1153 Y3.5303
X3.1137 Y3.5308
X3.1121 Y3.5309
X2.8853 Y3.503
X2.8838 Y3.5029
X2.8823 Y3.5032
X2.693 Y3.5663
X2.6914 Y3.5666
X2.6898 Y3.5665
X2.6883 Y3.5659
X2.687 Y3.5649
G3 X2.7657 Y3.4851 Z-0.1461 I0.0393 J-0.0399 F20.
X2.687 Y3.5649 Z-0.1523 I-0.0393 J0.0399
X2.7657 Y3.4851 Z-0.1584 I0.0393 J-0.0399
X2.7824 Y3.525 Z-0.16 I-0.0393 J0.0399
X2.695 I-0.0437 J0. F40.
X2.8945 I0.0998 J0.
X2.5829 I-0.1558 J0.
X3.0066 I0.2118 J0.
X2.4708 I-0.2679 J0.
X3.1187 I0.324 J0.
X2.3587 I-0.38 J0.
X3.1187 I0.38 J0.
G1 X3.1185 Y3.5266
X3.1178 Y3.5282
X3.1167 Y3.5294
X3.1153 Y3.5303
X3.1137 Y3.5308
X3.1121 Y3.5309
X2.8853 Y3.503
X2.8838 Y3.5029
X2.8823 Y3.5032
X2.693 Y3.5663
X2.6914 Y3.5666
X2.6898 Y3.5665
X2.6883 Y3.5659
X2.687 Y3.5649
G3 X2.7657 Y3.4851 Z-0.1661 I0.0393 J-0.0399 F20.
X2.687 Y3.5649 Z-0.1723 I-0.0393 J0.0399
X2.7657 Y3.4851 Z-0.1784 I0.0393 J-0.0399
X2.7824 Y3.525 Z-0.18 I-0.0393 J0.0399
X2.695 I-0.0437 J0. F40.
X2.8945 I0.0998 J0.
X2.5829 I-0.1558 J0.
X3.0066 I0.2118 J0.
X2.4708 I-0.2679 J0.
X3.1187 I0.324 J0.
X2.3587 I-0.38 J0.
X3.1187 I0.38 J0.
G1 X3.1185 Y3.5266
X3.1178 Y3.5282
X3.1167 Y3.5294
X3.1153 Y3.5303
X3.1137 Y3.5308
X3.1121 Y3.5309
X2.8853 Y3.503
X2.8838 Y3.5029
X2.8823 Y3.5032
X2.693 Y3.5663
X2.6914 Y3.5666
X2.6898 Y3.5665
X2.6883 Y3.5659
X2.687 Y3.5649
G3 X2.7657 Y3.4851 Z-0.1861 I0.0393 J-0.0399 F20.
X2.687 Y3.5649 Z-0.1923 I-0.0393 J0.0399
X2.7657 Y3.4851 Z-0.1984 I0.0393 J-0.0399
X2.7824 Y3.525 Z-0.2 I-0.0393 J0.0399
X2.695 I-0.0437 J0. F40.
X2.8945 I0.0998 J0.
X2.5829 I-0.1558 J0.
X3.0066 I0.2118 J0.
X2.4708 I-0.2679 J0.
X3.1187 I0.324 J0.
X2.3587 I-0.38 J0.
X3.1187 I0.38 J0.
G1 X3.1185 Y3.5266
X3.1178 Y3.5282
X3.1167 Y3.5294
X3.1153 Y3.5303
X3.1137 Y3.5308
X3.1121 Y3.5309
X2.8853 Y3.503
X2.8838 Y3.5029
X2.8823 Y3.5032
X2.693 Y3.5663
X2.6914 Y3.5666
X2.6898 Y3.5665
X2.6883 Y3.5659
X2.687 Y3.5649
G3 X2.7657 Y3.4851 Z-0.2061 I0.0393 J-0.0399 F20.
X2.687 Y3.5649 Z-0.2123 I-0.0393 J0.0399
X2.7657 Y3.4851 Z-0.2184 I0.0393 J-0.0399
X2.7824 Y3.525 Z-0.22 I-0.0393 J0.0399
X2.695 I-0.0437 J0. F40.
X2.8945 I0.0998 J0.
X2.5829 I-0.1558 J0.
X3.0066 I0.2118 J0.
X2.4708 I-0.2679 J0.
X3.1187 I0.324 J0.
X2.3587 I-0.38 J0.
X3.1187 I0.38 J0.
G1 X3.1185 Y3.5266
X3.1178 Y3.5282
X3.1167 Y3.5294
X3.1153 Y3.5303
X3.1137 Y3.5308
X3.1121 Y3.5309
X2.8853 Y3.503
X2.8838 Y3.5029
X2.8823 Y3.5032
X2.693 Y3.5663
X2.6914 Y3.5666
X2.6898 Y3.5665
X2.6883 Y3.5659
X2.687 Y3.5649
G3 X2.7657 Y3.4851 Z-0.2261 I0.0393 J-0.0399 F20.
X2.687 Y3.5649 Z-0.2323 I-0.0393 J0.0399
X2.7657 Y3.4851 Z-0.2384 I0.0393 J-0.0399
X2.7824 Y3.525 Z-0.24 I-0.0393 J0.0399
X2.695 I-0.0437 J0. F40.
X2.8945 I0.0998 J0.
X2.5829 I-0.1558 J0.
X3.0066 I0.2118 J0.
X2.4708 I-0.2679 J0.
X3.1187 I0.324 J0.
X2.3587 I-0.38 J0.
X3.1187 I0.38 J0.
G1 X3.1185 Y3.5266
X3.1178 Y3.5282
X3.1167 Y3.5294
X3.1153 Y3.5303
X3.1137 Y3.5308
X3.1121 Y3.5309
X2.8853 Y3.503
X2.8838 Y3.5029
X2.8823 Y3.5032
X2.693 Y3.5663
X2.6914 Y3.5666
X2.6898 Y3.5665
X2.6883 Y3.5659
X2.687 Y3.5649
G3 X2.7657 Y3.4851 Z-0.2461 I0.0393 J-0.0399 F20.
X2.687 Y3.5649 Z-0.2523 I-0.0393 J0.0399
X2.7657 Y3.4851 Z-0.2584 I0.0393 J-0.0399
X2.7824 Y3.525 Z-0.26 I-0.0393 J0.0399
X2.695 I-0.0437 J0. F40.
X2.8945 I0.0998 J0.
X2.5829 I-0.1558 J0.
X3.0066 I0.2118 J0.
X2.4708 I-0.2679 J0.
X3.1187 I0.324 J0.
X2.3587 I-0.38 J0.
X3.1187 I0.38 J0.
G1 X3.1185 Y3.5266
X3.1178 Y3.5282
X3.1167 Y3.5294
X3.1153 Y3.5303
X3.1137 Y3.5308
X3.1121 Y3.5309
X2.8853 Y3.503
X2.8838 Y3.5029
X2.8823 Y3.5032
X2.693 Y3.5663
X2.6914 Y3.5666
X2.6898 Y3.5665
X2.6883 Y3.5659
X2.687 Y3.5649
G3 X2.7657 Y3.4851 Z-0.2661 I0.0393 J-0.0399 F20.
X2.687 Y3.5649 Z-0.2723 I-0.0393 J0.0399
X2.7657 Y3.4851 Z-0.2784 I0.0393 J-0.0399
X2.7824 Y3.525 Z-0.28 I-0.0393 J0.0399
X2.695 I-0.0437 J0. F40.
X2.8945 I0.0998 J0.
X2.5829 I-0.1558 J0.
X3.0066 I0.2118 J0.
X2.4708 I-0.2679 J0.
X3.1187 I0.324 J0.
X2.3587 I-0.38 J0.
X3.1187 I0.38 J0.
X3.0346 Y3.5735 Z-0.2834 I-0.056 J0. F20.
G1 X2.8665 Y3.4765 Z-0.2891
G2 X2.7824 Y3.525 Z-0.2925 I-0.028 J0.0485
G3 X2.695 I-0.0437 J0. F40.
X2.8945 I0.0998 J0.
X2.5829 I-0.1558 J0.
X3.0066 I0.2118 J0.
X2.4708 I-0.2679 J0.
X3.1187 I0.324 J0.
X2.3587 I-0.38 J0.
X3.1187 I0.38 J0.
G1 X3.1185 Y3.5272 Z-0.2921
X3.1178 Y3.5294 Z-0.2916
X3.117 Y3.5311 Z-0.2903
X3.1159 Y3.5327 Z-0.289
X3.114 Y3.5344 Z-0.2852
X3.1133 Y3.5349 Z-0.2807
G0 Z0.64
X2.7378 Y3.5793
Z0.24
G1 Z0.1518 F40.
X2.7363 Y3.5797 Z0.146 F20.
X2.7322 Y3.5804 Z0.1417
X2.7265 Y3.581 Z0.14
G3 X2.7212 Y3.469 Z0.1339 I-0.0027 J-0.056
X2.7265 Y3.581 Z0.1277 I0.0027 J0.056
X2.7212 Y3.469 Z0.1216 I-0.0027 J-0.056
X2.7265 Y3.581 Z0.1154 I0.0027 J0.056
X2.7212 Y3.469 Z0.1093 I-0.0027 J-0.056
X2.7265 Y3.581 Z0.1031 I0.0027 J0.056
X2.7212 Y3.469 Z0.097 I-0.0027 J-0.056
X2.7265 Y3.581 Z0.0908 I0.0027 J0.056
X2.7212 Y3.469 Z0.0847 I-0.0027 J-0.056
X2.7265 Y3.581 Z0.0785 I0.0027 J0.056
X2.7212 Y3.469 Z0.0724 I-0.0027 J-0.056
X2.7265 Y3.581 Z0.0662 I0.0027 J0.056
X2.7212 Y3.469 Z0.0601 I-0.0027 J-0.056
X2.7265 Y3.581 Z0.0539 I0.0027 J0.056
X2.7212 Y3.469 Z0.0478 I-0.0027 J-0.056
X2.7265 Y3.581 Z0.0416 I0.0027 J0.056
X2.7212 Y3.469 Z0.0355 I-0.0027 J-0.056
X2.7265 Y3.581 Z0.0293 I0.0027 J0.056
X2.7212 Y3.469 Z0.0232 I-0.0027 J-0.056
X2.7799 Y3.525 Z0.02 I0.0027 J0.056
X2.6975 I-0.0412 J0. F40.
X2.892 I0.0973 J0.
X2.5854 I-0.1533 J0.
X3.0041 I0.2093 J0.
X2.4733 I-0.2654 J0.
X3.1162 I0.3215 J0.
X2.3612 I-0.3775 J0.
X3.1162 I0.3775 J0.
G1 X3.116 Y3.5266
X3.1153 Y3.5282
X3.1142 Y3.5294
X3.1128 Y3.5303
X3.1112 Y3.5308
X3.1096 Y3.5309
X2.8828 Y3.503
X2.8813 Y3.5029
X2.8798 Y3.5032
X2.6905 Y3.5663
X2.6889 Y3.5666
X2.6873 Y3.5665
X2.6858 Y3.5659
X2.6845 Y3.5649
G3 X2.7632 Y3.4851 Z0.0139 I0.0393 J-0.0399 F20.
X2.6845 Y3.5649 Z0.0077 I-0.0393 J0.0399
X2.7632 Y3.4851 Z0.0016 I0.0393 J-0.0399
X2.7799 Y3.525 Z0. I-0.0393 J0.0399
X2.6975 I-0.0412 J0. F40.
X2.892 I0.0973 J0.
X2.5854 I-0.1533 J0.
X3.0041 I0.2093 J0.
X2.4733 I-0.2654 J0.
X3.1162 I0.3215 J0.
X2.3612 I-0.3775 J0.
X3.1162 I0.3775 J0.
G1 X3.116 Y3.5266
X3.1153 Y3.5282
X3.1142 Y3.5294
X3.1128 Y3.5303
X3.1112 Y3.5308
X3.1096 Y3.5309
X2.8828 Y3.503
X2.8813 Y3.5029
X2.8798 Y3.5032
X2.6905 Y3.5663
X2.6889 Y3.5666
X2.6873 Y3.5665
X2.6858 Y3.5659
X2.6845 Y3.5649
G3 X2.7632 Y3.4851 Z-0.0061 I0.0393 J-0.0399 F20.
X2.6845 Y3.5649 Z-0.0123 I-0.0393 J0.0399
X2.7632 Y3.4851 Z-0.0184 I0.0393 J-0.0399
X2.7799 Y3.525 Z-0.02 I-0.0393 J0.0399
X2.6975 I-0.0412 J0. F40.
X2.892 I0.0973 J0.
X2.5854 I-0.1533 J0.
X3.0041 I0.2093 J0.
X2.4733 I-0.2654 J0.
X3.1162 I0.3215 J0.
X2.3612 I-0.3775 J0.
X3.1162 I0.3775 J0.
G1 X3.116 Y3.5266
X3.1153 Y3.5282
X3.1142 Y3.5294
X3.1128 Y3.5303
X3.1112 Y3.5308
X3.1096 Y3.5309
X2.8828 Y3.503
X2.8813 Y3.5029
X2.8798 Y3.5032
X2.6905 Y3.5663
X2.6889 Y3.5666
X2.6873 Y3.5665
X2.6858 Y3.5659
X2.6845 Y3.5649
G3 X2.7632 Y3.4851 Z-0.0261 I0.0393 J-0.0399 F20.
X2.6845 Y3.5649 Z-0.0323 I-0.0393 J0.0399
X2.7632 Y3.4851 Z-0.0384 I0.0393 J-0.0399
X2.7799 Y3.525 Z-0.04 I-0.0393 J0.0399
X2.6975 I-0.0412 J0. F40.
X2.892 I0.0973 J0.
X2.5854 I-0.1533 J0.
X3.0041 I0.2093 J0.
X2.4733 I-0.2654 J0.
X3.1162 I0.3215 J0.
X2.3612 I-0.3775 J0.
X3.1162 I0.3775 J0.
G1 X3.116 Y3.5266
X3.1153 Y3.5282
X3.1142 Y3.5294
X3.1128 Y3.5303
X3.1112 Y3.5308
X3.1096 Y3.5309
X2.8828 Y3.503
X2.8813 Y3.5029
X2.8798 Y3.5032
X2.6905 Y3.5663
X2.6889 Y3.5666
X2.6873 Y3.5665
X2.6858 Y3.5659
X2.6845 Y3.5649
G3 X2.7632 Y3.4851 Z-0.0461 I0.0393 J-0.0399 F20.
X2.6845 Y3.5649 Z-0.0523 I-0.0393 J0.0399
X2.7632 Y3.4851 Z-0.0584 I0.0393 J-0.0399
X2.7799 Y3.525 Z-0.06 I-0.0393 J0.0399
X2.6975 I-0.0412 J0. F40.
X2.892 I0.0973 J0.
X2.5854 I-0.1533 J0.
X3.0041 I0.2093 J0.
X2.4733 I-0.2654 J0.
X3.1162 I0.3215 J0.
X2.3612 I-0.3775 J0.
X3.1162 I0.3775 J0.
G1 X3.116 Y3.5266
X3.1153 Y3.5282
X3.1142 Y3.5294
X3.1128 Y3.5303
X3.1112 Y3.5308
X3.1096 Y3.5309
X2.8828 Y3.503
X2.8813 Y3.5029
X2.8798 Y3.5032
X2.6905 Y3.5663
X2.6889 Y3.5666
X2.6873 Y3.5665
X2.6858 Y3.5659
X2.6845 Y3.5649
G3 X2.7632 Y3.4851 Z-0.0661 I0.0393 J-0.0399 F20.
X2.6845 Y3.5649 Z-0.0723 I-0.0393 J0.0399
X2.7632 Y3.4851 Z-0.0784 I0.0393 J-0.0399
X2.7799 Y3.525 Z-0.08 I-0.0393 J0.0399
X2.6975 I-0.0412 J0. F40.
X2.892 I0.0973 J0.
X2.5854 I-0.1533 J0.
X3.0041 I0.2093 J0.
X2.4733 I-0.2654 J0.
X3.1162 I0.3215 J0.
X2.3612 I-0.3775 J0.
X3.1162 I0.3775 J0.
G1 X3.116 Y3.5266
X3.1153 Y3.5282
X3.1142 Y3.5294
X3.1128 Y3.5303
X3.1112 Y3.5308
X3.1096 Y3.5309
X2.8828 Y3.503
X2.8813 Y3.5029
X2.8798 Y3.5032
X2.6905 Y3.5663
X2.6889 Y3.5666
X2.6873 Y3.5665
X2.6858 Y3.5659
X2.6845 Y3.5649
G3 X2.7632 Y3.4851 Z-0.0861 I0.0393 J-0.0399 F20.
X2.6845 Y3.5649 Z-0.0923 I-0.0393 J0.0399
X2.7632 Y3.4851 Z-0.0984 I0.0393 J-0.0399
X2.7799 Y3.525 Z-0.1 I-0.0393 J0.0399
X2.6975 I-0.0412 J0. F40.
X2.892 I0.0973 J0.
X2.5854 I-0.1533 J0.
X3.0041 I0.2093 J0.
X2.4733 I-0.2654 J0.
X3.1162 I0.3215 J0.
X2.3612 I-0.3775 J0.
X3.1162 I0.3775 J0.
G1 X3.116 Y3.5266
X3.1153 Y3.5282
X3.1142 Y3.5294
X3.1128 Y3.5303
X3.1112 Y3.5308
X3.1096 Y3.5309
X2.8828 Y3.503
X2.8813 Y3.5029
X2.8798 Y3.5032
X2.6905 Y3.5663
X2.6889 Y3.5666
X2.6873 Y3.5665
X2.6858 Y3.5659
X2.6845 Y3.5649
G3 X2.7632 Y3.4851 Z-0.1061 I0.0393 J-0.0399 F20.
X2.6845 Y3.5649 Z-0.1123 I-0.0393 J0.0399
X2.7632 Y3.4851 Z-0.1184 I0.0393 J-0.0399
X2.7799 Y3.525 Z-0.12 I-0.0393 J0.0399
X2.6975 I-0.0412 J0. F40.
X2.892 I0.0973 J0.
X2.5854 I-0.1533 J0.
X3.0041 I0.2093 J0.
X2.4733 I-0.2654 J0.
X3.1162 I0.3215 J0.
X2.3612 I-0.3775 J0.
X3.1162 I0.3775 J0.
G1 X3.116 Y3.5266
X3.1153 Y3.5282
X3.1142 Y3.5294
X3.1128 Y3.5303
X3.1112 Y3.5308
X3.1096 Y3.5309
X2.8828 Y3.503
X2.8813 Y3.5029
X2.8798 Y3.5032
X2.6905 Y3.5663
X2.6889 Y3.5666
X2.6873 Y3.5665
X2.6858 Y3.5659
X2.6845 Y3.5649
G3 X2.7632 Y3.4851 Z-0.1261 I0.0393 J-0.0399 F20.
X2.6845 Y3.5649 Z-0.1323 I-0.0393 J0.0399
X2.7632 Y3.4851 Z-0.1384 I0.0393 J-0.0399
X2.7799 Y3.525 Z-0.14 I-0.0393 J0.0399
X2.6975 I-0.0412 J0. F40.
X2.892 I0.0973 J0.
X2.5854 I-0.1533 J0.
X3.0041 I0.2093 J0.
X2.4733 I-0.2654 J0.
X3.1162 I0.3215 J0.
X2.3612 I-0.3775 J0.
X3.1162 I0.3775 J0.
G1 X3.116 Y3.5266
X3.1153 Y3.5282
X3.1142 Y3.5294
X3.1128 Y3.5303
X3.1112 Y3.5308
X3.1096 Y3.5309
X2.8828 Y3.503
X2.8813 Y3.5029
X2.8798 Y3.5032
X2.6905 Y3.5663
X2.6889 Y3.5666
X2.6873 Y3.5665
X2.6858 Y3.5659
X2.6845 Y3.5649
G3 X2.7632 Y3.4851 Z-0.1461 I0.0393 J-0.0399 F20.
X2.6845 Y3.5649 Z-0.1523 I-0.0393 J0.0399
X2.7632 Y3.4851 Z-0.1584 I0.0393 J-0.0399
X2.7799 Y3.525 Z-0.16 I-0.0393 J0.0399
X2.6975 I-0.0412 J0. F40.
X2.892 I0.0973 J0.
X2.5854 I-0.1533 J0.
X3.0041 I0.2093 J0.
X2.4733 I-0.2654 J0.
X3.1162 I0.3215 J0.
X2.3612 I-0.3775 J0.
X3.1162 I0.3775 J0.
G1 X3.116 Y3.5266
X3.1153 Y3.5282
X3.1142 Y3.5294
X3.1128 Y3.5303
X3.1112 Y3.5308
X3.1096 Y3.5309
X2.8828 Y3.503
X2.8813 Y3.5029
X2.8798 Y3.5032
X2.6905 Y3.5663
X2.6889 Y3.5666
X2.6873 Y3.5665
X2.6858 Y3.5659
X2.6845 Y3.5649
G3 X2.7632 Y3.4851 Z-0.1661 I0.0393 J-0.0399 F20.
X2.6845 Y3.5649 Z-0.1723 I-0.0393 J0.0399
X2.7632 Y3.4851 Z-0.1784 I0.0393 J-0.0399
X2.7799 Y3.525 Z-0.18 I-0.0393 J0.0399
X2.6975 I-0.0412 J0. F40.
X2.892 I0.0973 J0.
X2.5854 I-0.1533 J0.
X3.0041 I0.2093 J0.
X2.4733 I-0.2654 J0.
X3.1162 I0.3215 J0.
X2.3612 I-0.3775 J0.
X3.1162 I0.3775 J0.
G1 X3.116 Y3.5266
X3.1153 Y3.5282
X3.1142 Y3.5294
X3.1128 Y3.5303
X3.1112 Y3.5308
X3.1096 Y3.5309
X2.8828 Y3.503
X2.8813 Y3.5029
X2.8798 Y3.5032
X2.6905 Y3.5663
X2.6889 Y3.5666
X2.6873 Y3.5665
X2.6858 Y3.5659
X2.6845 Y3.5649
G3 X2.7632 Y3.4851 Z-0.1861 I0.0393 J-0.0399 F20.
X2.6845 Y3.5649 Z-0.1923 I-0.0393 J0.0399
X2.7632 Y3.4851 Z-0.1984 I0.0393 J-0.0399
X2.7799 Y3.525 Z-0.2 I-0.0393 J0.0399
X2.6975 I-0.0412 J0. F40.
X2.892 I0.0973 J0.
X2.5854 I-0.1533 J0.
X3.0041 I0.2093 J0.
X2.4733 I-0.2654 J0.
X3.1162 I0.3215 J0.
X2.3612 I-0.3775 J0.
X3.1162 I0.3775 J0.
G1 X3.116 Y3.5266
X3.1153 Y3.5282
X3.1142 Y3.5294
X3.1128 Y3.5303
X3.1112 Y3.5308
X3.1096 Y3.5309
X2.8828 Y3.503
X2.8813 Y3.5029
X2.8798 Y3.5032
X2.6905 Y3.5663
X2.6889 Y3.5666
X2.6873 Y3.5665
X2.6858 Y3.5659
X2.6845 Y3.5649
G3 X2.7632 Y3.4851 Z-0.2061 I0.0393 J-0.0399 F20.
X2.6845 Y3.5649 Z-0.2123 I-0.0393 J0.0399
X2.7632 Y3.4851 Z-0.2184 I0.0393 J-0.0399
X2.7799 Y3.525 Z-0.22 I-0.0393 J0.0399
X2.6975 I-0.0412 J0. F40.
X2.892 I0.0973 J0.
X2.5854 I-0.1533 J0.
X3.0041 I0.2093 J0.
X2.4733 I-0.2654 J0.
X3.1162 I0.3215 J0.
X2.3612 I-0.3775 J0.
X3.1162 I0.3775 J0.
G1 X3.116 Y3.5266
X3.1153 Y3.5282
X3.1142 Y3.5294
X3.1128 Y3.5303
X3.1112 Y3.5308
X3.1096 Y3.5309
X2.8828 Y3.503
X2.8813 Y3.5029
X2.8798 Y3.5032
X2.6905 Y3.5663
X2.6889 Y3.5666
X2.6873 Y3.5665
X2.6858 Y3.5659
X2.6845 Y3.5649
G3 X2.7632 Y3.4851 Z-0.2261 I0.0393 J-0.0399 F20.
X2.6845 Y3.5649 Z-0.2323 I-0.0393 J0.0399
X2.7632 Y3.4851 Z-0.2384 I0.0393 J-0.0399
X2.7799 Y3.525 Z-0.24 I-0.0393 J0.0399
X2.6975 I-0.0412 J0. F40.
X2.892 I0.0973 J0.
X2.5854 I-0.1533 J0.
X3.0041 I0.2093 J0.
X2.4733 I-0.2654 J0.
X3.1162 I0.3215 J0.
X2.3612 I-0.3775 J0.
X3.1162 I0.3775 J0.
G1 X3.116 Y3.5266
X3.1153 Y3.5282
X3.1142 Y3.5294
X3.1128 Y3.5303
X3.1112 Y3.5308
X3.1096 Y3.5309
X2.8828 Y3.503
X2.8813 Y3.5029
X2.8798 Y3.5032
X2.6905 Y3.5663
X2.6889 Y3.5666
X2.6873 Y3.5665
X2.6858 Y3.5659
X2.6845 Y3.5649
G3 X2.7632 Y3.4851 Z-0.2461 I0.0393 J-0.0399 F20.
X2.6845 Y3.5649 Z-0.2523 I-0.0393 J0.0399
X2.7632 Y3.4851 Z-0.2584 I0.0393 J-0.0399
X2.7799 Y3.525 Z-0.26 I-0.0393 J0.0399
X2.6975 I-0.0412 J0. F40.
X2.892 I0.0973 J0.
X2.5854 I-0.1533 J0.
X3.0041 I0.2093 J0.
X2.4733 I-0.2654 J0.
X3.1162 I0.3215 J0.
X2.3612 I-0.3775 J0.
X3.1162 I0.3775 J0.
G1 X3.116 Y3.5266
X3.1153 Y3.5282
X3.1142 Y3.5294
X3.1128 Y3.5303
X3.1112 Y3.5308
X3.1096 Y3.5309
X2.8828 Y3.503
X2.8813 Y3.5029
X2.8798 Y3.5032
X2.6905 Y3.5663
X2.6889 Y3.5666
X2.6873 Y3.5665
X2.6858 Y3.5659
X2.6845 Y3.5649
G3 X2.7632 Y3.4851 Z-0.2661 I0.0393 J-0.0399 F20.
X2.6845 Y3.5649 Z-0.2723 I-0.0393 J0.0399
X2.7632 Y3.4851 Z-0.2784 I0.0393 J-0.0399
X2.7799 Y3.525 Z-0.28 I-0.0393 J0.0399
X2.6975 I-0.0412 J0. F40.
X2.892 I0.0973 J0.
X2.5854 I-0.1533 J0.
X3.0041 I0.2093 J0.
X2.4733 I-0.2654 J0.
X3.1162 I0.3215 J0.
X2.3612 I-0.3775 J0.
X3.1162 I0.3775 J0.
G1 X3.116 Y3.5266
X3.1153 Y3.5282
X3.1142 Y3.5294
X3.1128 Y3.5303
X3.1112 Y3.5308
X3.1096 Y3.5309
X2.8828 Y3.503
X2.8813 Y3.5029
X2.8798 Y3.5032
X2.6905 Y3.5663
X2.6889 Y3.5666
X2.6873 Y3.5665
X2.6858 Y3.5659
X2.6845 Y3.5649
G3 X2.7632 Y3.4851 Z-0.2861 I0.0393 J-0.0399 F20.
X2.6845 Y3.5649 Z-0.2923 I-0.0393 J0.0399
X2.7632 Y3.4851 Z-0.2984 I0.0393 J-0.0399
X2.7799 Y3.525 Z-0.3 I-0.0393 J0.0399
X2.6975 I-0.0412 J0. F40.
X2.892 I0.0973 J0.
X2.5854 I-0.1533 J0.
X3.0041 I0.2093 J0.
X2.4733 I-0.2654 J0.
X3.1162 I0.3215 J0.
X2.3612 I-0.3775 J0.
X3.1162 I0.3775 J0.
G1 X3.116 Y3.5266
X3.1153 Y3.5282
X3.1142 Y3.5294
X3.1128 Y3.5303
X3.1112 Y3.5308
X3.1096 Y3.5309
X2.8828 Y3.503
X2.8813 Y3.5029
X2.8798 Y3.5032
X2.6905 Y3.5663
X2.6889 Y3.5666
X2.6873 Y3.5665
X2.6858 Y3.5659
X2.6845 Y3.5649
G3 X2.7632 Y3.4851 Z-0.3061 I0.0393 J-0.0399 F20.
X2.6845 Y3.5649 Z-0.3123 I-0.0393 J0.0399
X2.7632 Y3.4851 Z-0.3184 I0.0393 J-0.0399
X2.7799 Y3.525 Z-0.32 I-0.0393 J0.0399
X2.6975 I-0.0412 J0. F40.
X2.892 I0.0973 J0.
X2.5854 I-0.1533 J0.
X3.0041 I0.2093 J0.
X2.4733 I-0.2654 J0.
X3.1162 I0.3215 J0.
X2.3612 I-0.3775 J0.
X3.1162 I0.3775 J0.
G1 X3.116 Y3.5266
X3.1153 Y3.5282
X3.1142 Y3.5294
X3.1128 Y3.5303
X3.1112 Y3.5308
X3.1096 Y3.5309
X2.8828 Y3.503
X2.8813 Y3.5029
X2.8798 Y3.5032
X2.6905 Y3.5663
X2.6889 Y3.5666
X2.6873 Y3.5665
X2.6858 Y3.5659
X2.6845 Y3.5649
G3 X2.7632 Y3.4851 Z-0.3261 I0.0393 J-0.0399 F20.
X2.6845 Y3.5649 Z-0.3323 I-0.0393 J0.0399
X2.7632 Y3.4851 Z-0.3384 I0.0393 J-0.0399
X2.7799 Y3.525 Z-0.34 I-0.0393 J0.0399
X2.6975 I-0.0412 J0. F40.
X2.892 I0.0973 J0.
X2.5854 I-0.1533 J0.
X3.0041 I0.2093 J0.
X2.4733 I-0.2654 J0.
X3.1162 I0.3215 J0.
X2.3612 I-0.3775 J0.
X3.1162 I0.3775 J0.
G1 X3.116 Y3.5266
X3.1153 Y3.5282
X3.1142 Y3.5294
X3.1128 Y3.5303
X3.1112 Y3.5308
X3.1096 Y3.5309
X2.8828 Y3.503
X2.8813 Y3.5029
X2.8798 Y3.5032
X2.6905 Y3.5663
X2.6889 Y3.5666
X2.6873 Y3.5665
X2.6858 Y3.5659
X2.6845 Y3.5649
G3 X2.7632 Y3.4851 Z-0.3461 I0.0393 J-0.0399 F20.
X2.6845 Y3.5649 Z-0.3523 I-0.0393 J0.0399
X2.7632 Y3.4851 Z-0.3584 I0.0393 J-0.0399
X2.7799 Y3.525 Z-0.36 I-0.0393 J0.0399
X2.6975 I-0.0412 J0. F40.
X2.892 I0.0973 J0.
X2.5854 I-0.1533 J0.
X3.0041 I0.2093 J0.
X2.4733 I-0.2654 J0.
X3.1162 I0.3215 J0.
X2.3612 I-0.3775 J0.
X3.1162 I0.3775 J0.
G1 X3.116 Y3.5266
X3.1153 Y3.5282
X3.1142 Y3.5294
X3.1128 Y3.5303
X3.1112 Y3.5308
X3.1096 Y3.5309
X2.8828 Y3.503
X2.8813 Y3.5029
X2.8798 Y3.5032
X2.6905 Y3.5663
X2.6889 Y3.5666
X2.6873 Y3.5665
X2.6858 Y3.5659
X2.6845 Y3.5649
G3 X2.7632 Y3.4851 Z-0.3661 I0.0393 J-0.0399 F20.
X2.6845 Y3.5649 Z-0.3723 I-0.0393 J0.0399
X2.7632 Y3.4851 Z-0.3784 I0.0393 J-0.0399
X2.7799 Y3.525 Z-0.38 I-0.0393 J0.0399
X2.6975 I-0.0412 J0. F40.
X2.892 I0.0973 J0.
X2.5854 I-0.1533 J0.
X3.0041 I0.2093 J0.
X2.4733 I-0.2654 J0.
X3.1162 I0.3215 J0.
X2.3612 I-0.3775 J0.
X3.1162 I0.3775 J0.
G1 X3.116 Y3.5266
X3.1153 Y3.5282
X3.1142 Y3.5294
X3.1128 Y3.5303
X3.1112 Y3.5308
X3.1096 Y3.5309
X2.8828 Y3.503
X2.8813 Y3.5029
X2.8798 Y3.5032
X2.6905 Y3.5663
X2.6889 Y3.5666
X2.6873 Y3.5665
X2.6858 Y3.5659
X2.6845 Y3.5649
G3 X2.7632 Y3.4851 Z-0.3861 I0.0393 J-0.0399 F20.
X2.6845 Y3.5649 Z-0.3923 I-0.0393 J0.0399
X2.7632 Y3.4851 Z-0.3984 I0.0393 J-0.0399
X2.7799 Y3.525 Z-0.4 I-0.0393 J0.0399
X2.6975 I-0.0412 J0. F40.
X2.892 I0.0973 J0.
X2.5854 I-0.1533 J0.
X3.0041 I0.2093 J0.
X2.4733 I-0.2654 J0.
X3.1162 I0.3215 J0.
X2.3612 I-0.3775 J0.
X3.1162 I0.3775 J0.
G1 X3.116 Y3.5266
X3.1153 Y3.5282
X3.1142 Y3.5294
X3.1128 Y3.5303
X3.1112 Y3.5308
X3.1096 Y3.5309
X2.8828 Y3.503
X2.8813 Y3.5029
X2.8798 Y3.5032
X2.6905 Y3.5663
X2.6889 Y3.5666
X2.6873 Y3.5665
X2.6858 Y3.5659
X2.6845 Y3.5649
G3 X2.7632 Y3.4851 Z-0.4061 I0.0393 J-0.0399 F20.
X2.6845 Y3.5649 Z-0.4123 I-0.0393 J0.0399
X2.7632 Y3.4851 Z-0.4184 I0.0393 J-0.0399
X2.7799 Y3.525 Z-0.42 I-0.0393 J0.0399
X2.6975 I-0.0412 J0. F40.
X2.892 I0.0973 J0.
X2.5854 I-0.1533 J0.
X3.0041 I0.2093 J0.
X2.4733 I-0.2654 J0.
X3.1162 I0.3215 J0.
X2.3612 I-0.3775 J0.
X3.1162 I0.3775 J0.
G1 X3.116 Y3.5266
X3.1153 Y3.5282
X3.1142 Y3.5294
X3.1128 Y3.5303
X3.1112 Y3.5308
X3.1096 Y3.5309
X2.8828 Y3.503
X2.8813 Y3.5029
X2.8798 Y3.5032
X2.6905 Y3.5663
X2.6889 Y3.5666
X2.6873 Y3.5665
X2.6858 Y3.5659
X2.6845 Y3.5649
G3 X2.7632 Y3.4851 Z-0.4261 I0.0393 J-0.0399 F20.
X2.6845 Y3.5649 Z-0.4323 I-0.0393 J0.0399
X2.7632 Y3.4851 Z-0.4384 I0.0393 J-0.0399
X2.7799 Y3.525 Z-0.44 I-0.0393 J0.0399
X2.6975 I-0.0412 J0. F40.
X2.892 I0.0973 J0.
X2.5854 I-0.1533 J0.
X3.0041 I0.2093 J0.
X2.4733 I-0.2654 J0.
X3.1162 I0.3215 J0.
X2.3612 I-0.3775 J0.
X3.1162 I0.3775 J0.
G1 X3.116 Y3.5266
X3.1153 Y3.5282
X3.1142 Y3.5294
X3.1128 Y3.5303
X3.1112 Y3.5308
X3.1096 Y3.5309
X2.8828 Y3.503
X2.8813 Y3.5029
X2.8798 Y3.5032
X2.6905 Y3.5663
X2.6889 Y3.5666
X2.6873 Y3.5665
X2.6858 Y3.5659
X2.6845 Y3.5649
G3 X2.7632 Y3.4851 Z-0.4461 I0.0393 J-0.0399 F20.
X2.6845 Y3.5649 Z-0.4523 I-0.0393 J0.0399
X2.7632 Y3.4851 Z-0.4584 I0.0393 J-0.0399
X2.7799 Y3.525 Z-0.46 I-0.0393 J0.0399
X2.6975 I-0.0412 J0. F40.
X2.892 I0.0973 J0.
X2.5854 I-0.1533 J0.
X3.0041 I0.2093 J0.
X2.4733 I-0.2654 J0.
X3.1162 I0.3215 J0.
X2.3612 I-0.3775 J0.
X3.1162 I0.3775 J0.
G1 X3.116 Y3.5266
X3.1153 Y3.5282
X3.1142 Y3.5294
X3.1128 Y3.5303
X3.1112 Y3.5308
X3.1096 Y3.5309
X2.8828 Y3.503
X2.8813 Y3.5029
X2.8798 Y3.5032
X2.6905 Y3.5663
X2.6889 Y3.5666
X2.6873 Y3.5665
X2.6858 Y3.5659
X2.6845 Y3.5649
G3 X2.7632 Y3.4851 Z-0.4661 I0.0393 J-0.0399 F20.
X2.6845 Y3.5649 Z-0.4723 I-0.0393 J0.0399
X2.7632 Y3.4851 Z-0.4784 I0.0393 J-0.0399
X2.7799 Y3.525 Z-0.48 I-0.0393 J0.0399
X2.6975 I-0.0412 J0. F40.
X2.892 I0.0973 J0.
X2.5854 I-0.1533 J0.
X3.0041 I0.2093 J0.
X2.4733 I-0.2654 J0.
X3.1162 I0.3215 J0.
X2.3612 I-0.3775 J0.
X3.1162 I0.3775 J0.
G1 X3.116 Y3.5272 Z-0.4796
X3.1153 Y3.5294 Z-0.4791
X3.1145 Y3.5311 Z-0.4778
X3.1134 Y3.5327 Z-0.4765
X3.1115 Y3.5344 Z-0.4727
X3.1108 Y3.5349 Z-0.4682
G0 Z0.64

M9
M30
