(X4 GEARBOX HOLES RUN3)
(T3  D=0.118 CR=0. - ZMIN=-0.3125 - FLAT END MILL)
G90 G94 G91.1 G40 G49 G17
G20

(2D POCKET4)
M5
T3 M6
S15000 M3
g4 p5
g0 z.5
G54
M8
G0 X1.3789 Y2.3012
G43 Z0.64 H3
Z0.24
G1 Z0.1518 F40.
X1.3791 Y2.3015 Z0.1487 F20.
X1.3793 Y2.3027 Z0.1465
X1.3792 Y2.3038 Z0.1443
X1.3788 Y2.305 Z0.1433
X1.3782 Y2.3061 Z0.1423
X1.3772 Y2.307 Z0.1412
X1.3758 Y2.3077 Z0.1408
X1.3742 Y2.308 Z0.1404
X1.3726 Y2.3077 Z0.14
G3 X1.3759 Y2.2983 Z0.1395 I0.0016 J-0.0047
X1.3726 Y2.3077 Z0.1389 I-0.0016 J0.0047
X1.3759 Y2.2983 Z0.1384 I0.0016 J-0.0047
X1.3726 Y2.3077 Z0.1378 I-0.0016 J0.0047
X1.3759 Y2.2983 Z0.1373 I0.0016 J-0.0047
X1.3726 Y2.3077 Z0.1367 I-0.0016 J0.0047
X1.3759 Y2.2983 Z0.1362 I0.0016 J-0.0047
X1.3726 Y2.3077 Z0.1356 I-0.0016 J0.0047
X1.3759 Y2.2983 Z0.1351 I0.0016 J-0.0047
X1.3726 Y2.3077 Z0.1345 I-0.0016 J0.0047
X1.3759 Y2.2983 Z0.134 I0.0016 J-0.0047
X1.3726 Y2.3077 Z0.1334 I-0.0016 J0.0047
X1.3759 Y2.2983 Z0.1329 I0.0016 J-0.0047
X1.3726 Y2.3077 Z0.1323 I-0.0016 J0.0047
X1.3759 Y2.2983 Z0.1318 I0.0016 J-0.0047
X1.3726 Y2.3077 Z0.1312 I-0.0016 J0.0047
X1.3759 Y2.2983 Z0.1307 I0.0016 J-0.0047
X1.3726 Y2.3077 Z0.1301 I-0.0016 J0.0047
X1.3759 Y2.2983 Z0.1296 I0.0016 J-0.0047
X1.3726 Y2.3077 Z0.129 I-0.0016 J0.0047
X1.3759 Y2.2983 Z0.1285 I0.0016 J-0.0047
X1.3726 Y2.3077 Z0.1279 I-0.0016 J0.0047
X1.3759 Y2.2983 Z0.1274 I0.0016 J-0.0047
X1.3726 Y2.3077 Z0.1268 I-0.0016 J0.0047
X1.3759 Y2.2983 Z0.1263 I0.0016 J-0.0047
X1.3726 Y2.3077 Z0.1257 I-0.0016 J0.0047
X1.3759 Y2.2983 Z0.1252 I0.0016 J-0.0047
X1.3726 Y2.3077 Z0.1246 I-0.0016 J0.0047
X1.3759 Y2.2983 Z0.1241 I0.0016 J-0.0047
X1.3726 Y2.3077 Z0.1235 I-0.0016 J0.0047
X1.3759 Y2.2983 Z0.123 I0.0016 J-0.0047
X1.3726 Y2.3077 Z0.1224 I-0.0016 J0.0047
X1.3759 Y2.2983 Z0.1219 I0.0016 J-0.0047
X1.3726 Y2.3077 Z0.1213 I-0.0016 J0.0047
X1.3759 Y2.2983 Z0.1208 I0.0016 J-0.0047
X1.3726 Y2.3077 Z0.1203 I-0.0016 J0.0047
X1.3759 Y2.2983 Z0.1197 I0.0016 J-0.0047
X1.3726 Y2.3077 Z0.1192 I-0.0016 J0.0047
X1.3759 Y2.2983 Z0.1186 I0.0016 J-0.0047
X1.3726 Y2.3077 Z0.1181 I-0.0016 J0.0047
X1.3759 Y2.2983 Z0.1175 I0.0016 J-0.0047
X1.3726 Y2.3077 Z0.117 I-0.0016 J0.0047
X1.3759 Y2.2983 Z0.1164 I0.0016 J-0.0047
X1.3726 Y2.3077 Z0.1159 I-0.0016 J0.0047
X1.3759 Y2.2983 Z0.1153 I0.0016 J-0.0047
X1.3726 Y2.3077 Z0.1148 I-0.0016 J0.0047
X1.3759 Y2.2983 Z0.1142 I0.0016 J-0.0047
X1.3726 Y2.3077 Z0.1137 I-0.0016 J0.0047
X1.3759 Y2.2983 Z0.1131 I0.0016 J-0.0047
X1.3726 Y2.3077 Z0.1126 I-0.0016 J0.0047
X1.3759 Y2.2983 Z0.112 I0.0016 J-0.0047
X1.3726 Y2.3077 Z0.1115 I-0.0016 J0.0047
X1.3759 Y2.2983 Z0.1109 I0.0016 J-0.0047
X1.3726 Y2.3077 Z0.1104 I-0.0016 J0.0047
X1.3759 Y2.2983 Z0.1098 I0.0016 J-0.0047
X1.3726 Y2.3077 Z0.1093 I-0.0016 J0.0047
X1.3759 Y2.2983 Z0.1087 I0.0016 J-0.0047
X1.3726 Y2.3077 Z0.1082 I-0.0016 J0.0047
X1.3759 Y2.2983 Z0.1076 I0.0016 J-0.0047
X1.3726 Y2.3077 Z0.1071 I-0.0016 J0.0047
X1.3759 Y2.2983 Z0.1065 I0.0016 J-0.0047
X1.3726 Y2.3077 Z0.106 I-0.0016 J0.0047
X1.3759 Y2.2983 Z0.1054 I0.0016 J-0.0047
X1.3726 Y2.3077 Z0.1049 I-0.0016 J0.0047
X1.3759 Y2.2983 Z0.1043 I0.0016 J-0.0047
X1.3726 Y2.3077 Z0.1038 I-0.0016 J0.0047
X1.3759 Y2.2983 Z0.1032 I0.0016 J-0.0047
X1.3726 Y2.3077 Z0.1027 I-0.0016 J0.0047
X1.3759 Y2.2983 Z0.1022 I0.0016 J-0.0047
X1.3726 Y2.3077 Z0.1016 I-0.0016 J0.0047
X1.3759 Y2.2983 Z0.1011 I0.0016 J-0.0047
X1.3726 Y2.3077 Z0.1005 I-0.0016 J0.0047
X1.3759 Y2.2983 Z0.1 I0.0016 J-0.0047
X1.3726 Y2.3077 Z0.0994 I-0.0016 J0.0047
X1.3759 Y2.2983 Z0.0989 I0.0016 J-0.0047
X1.3726 Y2.3077 Z0.0983 I-0.0016 J0.0047
X1.3759 Y2.2983 Z0.0978 I0.0016 J-0.0047
X1.3726 Y2.3077 Z0.0972 I-0.0016 J0.0047
X1.3759 Y2.2983 Z0.0967 I0.0016 J-0.0047
X1.3726 Y2.3077 Z0.0961 I-0.0016 J0.0047
X1.3759 Y2.2983 Z0.0956 I0.0016 J-0.0047
X1.3726 Y2.3077 Z0.095 I-0.0016 J0.0047
X1.3759 Y2.2983 Z0.0945 I0.0016 J-0.0047
X1.3726 Y2.3077 Z0.0939 I-0.0016 J0.0047
X1.3759 Y2.2983 Z0.0934 I0.0016 J-0.0047
X1.3726 Y2.3077 Z0.0928 I-0.0016 J0.0047
X1.3759 Y2.2983 Z0.0923 I0.0016 J-0.0047
X1.3726 Y2.3077 Z0.0917 I-0.0016 J0.0047
X1.3759 Y2.2983 Z0.0912 I0.0016 J-0.0047
X1.3726 Y2.3077 Z0.0906 I-0.0016 J0.0047
X1.3759 Y2.2983 Z0.0901 I0.0016 J-0.0047
X1.3726 Y2.3077 Z0.0895 I-0.0016 J0.0047
X1.3759 Y2.2983 Z0.089 I0.0016 J-0.0047
X1.3726 Y2.3077 Z0.0884 I-0.0016 J0.0047
X1.3759 Y2.2983 Z0.0879 I0.0016 J-0.0047
X1.3726 Y2.3077 Z0.0873 I-0.0016 J0.0047
X1.3759 Y2.2983 Z0.0868 I0.0016 J-0.0047
X1.3726 Y2.3077 Z0.0862 I-0.0016 J0.0047
X1.3759 Y2.2983 Z0.0857 I0.0016 J-0.0047
X1.3726 Y2.3077 Z0.0851 I-0.0016 J0.0047
X1.3759 Y2.2983 Z0.0846 I0.0016 J-0.0047
X1.3726 Y2.3077 Z0.084 I-0.0016 J0.0047
X1.3759 Y2.2983 Z0.0835 I0.0016 J-0.0047
X1.3726 Y2.3077 Z0.083 I-0.0016 J0.0047
X1.3759 Y2.2983 Z0.0824 I0.0016 J-0.0047
X1.3726 Y2.3077 Z0.0819 I-0.0016 J0.0047
X1.3759 Y2.2983 Z0.0813 I0.0016 J-0.0047
X1.3726 Y2.3077 Z0.0808 I-0.0016 J0.0047
X1.3759 Y2.2983 Z0.0802 I0.0016 J-0.0047
X1.3726 Y2.3077 Z0.0797 I-0.0016 J0.0047
X1.3759 Y2.2983 Z0.0791 I0.0016 J-0.0047
X1.3726 Y2.3077 Z0.0786 I-0.0016 J0.0047
X1.3759 Y2.2983 Z0.078 I0.0016 J-0.0047
X1.3726 Y2.3077 Z0.0775 I-0.0016 J0.0047
X1.3759 Y2.2983 Z0.0769 I0.0016 J-0.0047
X1.3726 Y2.3077 Z0.0764 I-0.0016 J0.0047
X1.3759 Y2.2983 Z0.0758 I0.0016 J-0.0047
X1.3726 Y2.3077 Z0.0753 I-0.0016 J0.0047
X1.3759 Y2.2983 Z0.0747 I0.0016 J-0.0047
X1.3726 Y2.3077 Z0.0742 I-0.0016 J0.0047
X1.3759 Y2.2983 Z0.0736 I0.0016 J-0.0047
X1.3726 Y2.3077 Z0.0731 I-0.0016 J0.0047
X1.3759 Y2.2983 Z0.0725 I0.0016 J-0.0047
X1.3726 Y2.3077 Z0.072 I-0.0016 J0.0047
X1.3759 Y2.2983 Z0.0714 I0.0016 J-0.0047
X1.3726 Y2.3077 Z0.0709 I-0.0016 J0.0047
X1.3759 Y2.2983 Z0.0703 I0.0016 J-0.0047
X1.3726 Y2.3077 Z0.0698 I-0.0016 J0.0047
X1.3759 Y2.2983 Z0.0692 I0.0016 J-0.0047
X1.3726 Y2.3077 Z0.0687 I-0.0016 J0.0047
X1.3759 Y2.2983 Z0.0681 I0.0016 J-0.0047
X1.3726 Y2.3077 Z0.0676 I-0.0016 J0.0047
X1.3759 Y2.2983 Z0.067 I0.0016 J-0.0047
X1.3726 Y2.3077 Z0.0665 I-0.0016 J0.0047
X1.3759 Y2.2983 Z0.0659 I0.0016 J-0.0047
X1.3726 Y2.3077 Z0.0654 I-0.0016 J0.0047
X1.3759 Y2.2983 Z0.0649 I0.0016 J-0.0047
X1.3726 Y2.3077 Z0.0643 I-0.0016 J0.0047
X1.3759 Y2.2983 Z0.0638 I0.0016 J-0.0047
X1.3726 Y2.3077 Z0.0632 I-0.0016 J0.0047
X1.3759 Y2.2983 Z0.0627 I0.0016 J-0.0047
X1.3726 Y2.3077 Z0.0621 I-0.0016 J0.0047
X1.3759 Y2.2983 Z0.0616 I0.0016 J-0.0047
X1.3726 Y2.3077 Z0.061 I-0.0016 J0.0047
X1.3759 Y2.2983 Z0.0605 I0.0016 J-0.0047
X1.3726 Y2.3077 Z0.0599 I-0.0016 J0.0047
X1.3759 Y2.2983 Z0.0594 I0.0016 J-0.0047
X1.3726 Y2.3077 Z0.0588 I-0.0016 J0.0047
X1.3759 Y2.2983 Z0.0583 I0.0016 J-0.0047
X1.3726 Y2.3077 Z0.0577 I-0.0016 J0.0047
X1.3759 Y2.2983 Z0.0572 I0.0016 J-0.0047
X1.3726 Y2.3077 Z0.0566 I-0.0016 J0.0047
X1.3759 Y2.2983 Z0.0561 I0.0016 J-0.0047
X1.3726 Y2.3077 Z0.0555 I-0.0016 J0.0047
X1.3759 Y2.2983 Z0.055 I0.0016 J-0.0047
X1.3726 Y2.3077 Z0.0544 I-0.0016 J0.0047
X1.3759 Y2.2983 Z0.0539 I0.0016 J-0.0047
X1.3726 Y2.3077 Z0.0533 I-0.0016 J0.0047
X1.3759 Y2.2983 Z0.0528 I0.0016 J-0.0047
X1.3726 Y2.3077 Z0.0522 I-0.0016 J0.0047
X1.3759 Y2.2983 Z0.0517 I0.0016 J-0.0047
X1.3726 Y2.3077 Z0.0511 I-0.0016 J0.0047
X1.3759 Y2.2983 Z0.0506 I0.0016 J-0.0047
X1.3726 Y2.3077 Z0.05 I-0.0016 J0.0047
X1.3759 Y2.2983 Z0.0495 I0.0016 J-0.0047
X1.3726 Y2.3077 Z0.0489 I-0.0016 J0.0047
X1.3759 Y2.2983 Z0.0484 I0.0016 J-0.0047
X1.3726 Y2.3077 Z0.0478 I-0.0016 J0.0047
X1.3759 Y2.2983 Z0.0473 I0.0016 J-0.0047
X1.3726 Y2.3077 Z0.0467 I-0.0016 J0.0047
X1.3759 Y2.2983 Z0.0462 I0.0016 J-0.0047
X1.3726 Y2.3077 Z0.0457 I-0.0016 J0.0047
X1.3759 Y2.2983 Z0.0451 I0.0016 J-0.0047
X1.3726 Y2.3077 Z0.0446 I-0.0016 J0.0047
X1.3759 Y2.2983 Z0.044 I0.0016 J-0.0047
X1.3726 Y2.3077 Z0.0435 I-0.0016 J0.0047
X1.3759 Y2.2983 Z0.0429 I0.0016 J-0.0047
X1.3726 Y2.3077 Z0.0424 I-0.0016 J0.0047
X1.3759 Y2.2983 Z0.0418 I0.0016 J-0.0047
X1.3726 Y2.3077 Z0.0413 I-0.0016 J0.0047
X1.3759 Y2.2983 Z0.0407 I0.0016 J-0.0047
X1.3726 Y2.3077 Z0.0402 I-0.0016 J0.0047
X1.3759 Y2.2983 Z0.0396 I0.0016 J-0.0047
X1.3726 Y2.3077 Z0.0391 I-0.0016 J0.0047
X1.3759 Y2.2983 Z0.0385 I0.0016 J-0.0047
X1.3726 Y2.3077 Z0.038 I-0.0016 J0.0047
X1.3759 Y2.2983 Z0.0374 I0.0016 J-0.0047
X1.3726 Y2.3077 Z0.0369 I-0.0016 J0.0047
X1.3759 Y2.2983 Z0.0363 I0.0016 J-0.0047
X1.3726 Y2.3077 Z0.0358 I-0.0016 J0.0047
X1.3759 Y2.2983 Z0.0352 I0.0016 J-0.0047
X1.3726 Y2.3077 Z0.0347 I-0.0016 J0.0047
X1.3759 Y2.2983 Z0.0341 I0.0016 J-0.0047
X1.3726 Y2.3077 Z0.0336 I-0.0016 J0.0047
X1.3759 Y2.2983 Z0.033 I0.0016 J-0.0047
X1.3726 Y2.3077 Z0.0325 I-0.0016 J0.0047
X1.3759 Y2.2983 Z0.0319 I0.0016 J-0.0047
X1.3726 Y2.3077 Z0.0314 I-0.0016 J0.0047
X1.3759 Y2.2983 Z0.0308 I0.0016 J-0.0047
X1.3726 Y2.3077 Z0.0303 I-0.0016 J0.0047
X1.3759 Y2.2983 Z0.0297 I0.0016 J-0.0047
X1.3726 Y2.3077 Z0.0292 I-0.0016 J0.0047
X1.3759 Y2.2983 Z0.0286 I0.0016 J-0.0047
X1.3726 Y2.3077 Z0.0281 I-0.0016 J0.0047
X1.3759 Y2.2983 Z0.0276 I0.0016 J-0.0047
X1.3726 Y2.3077 Z0.027 I-0.0016 J0.0047
X1.3759 Y2.2983 Z0.0265 I0.0016 J-0.0047
X1.3726 Y2.3077 Z0.0259 I-0.0016 J0.0047
X1.3759 Y2.2983 Z0.0254 I0.0016 J-0.0047
X1.3726 Y2.3077 Z0.0248 I-0.0016 J0.0047
X1.3759 Y2.2983 Z0.0243 I0.0016 J-0.0047
X1.3726 Y2.3077 Z0.0237 I-0.0016 J0.0047
X1.3759 Y2.2983 Z0.0232 I0.0016 J-0.0047
X1.3726 Y2.3077 Z0.0226 I-0.0016 J0.0047
X1.3759 Y2.2983 Z0.0221 I0.0016 J-0.0047
X1.3726 Y2.3077 Z0.0215 I-0.0016 J0.0047
X1.3759 Y2.2983 Z0.021 I0.0016 J-0.0047
X1.379 Y2.3047 Z0.0207 I-0.0016 J0.0047
X1.3726 Y2.3077 Z0.0204 I-0.0047 J-0.0017
X1.3992 Y2.2344 I0.0133 J-0.0366 F40.
X1.3726 Y2.3077 I-0.0133 J0.0366
X1.3992 Y2.2344 Z0.0161 I0.0133 J-0.0366 F20.
X1.3726 Y2.3077 Z0.0119 I-0.0133 J0.0366
X1.3992 Y2.2344 Z0.0076 I0.0133 J-0.0366
X1.3726 Y2.3077 Z0.0033 I-0.0133 J0.0366
X1.3535 Y2.2493 Z0.0008 I0.0133 J-0.0366
X1.4183 Y2.2928 I0.0324 J0.0217 F40.
X1.3535 Y2.2493 I-0.0324 J-0.0217
X1.4183 Y2.2928 Z-0.0034 I0.0324 J0.0217 F20.
X1.3535 Y2.2493 Z-0.0077 I-0.0324 J-0.0217
X1.4183 Y2.2928 Z-0.012 I0.0324 J0.0217
X1.3535 Y2.2493 Z-0.0163 I-0.0324 J-0.0217
X1.4148 Y2.2448 Z-0.0187 I0.0324 J0.0217
X1.357 Y2.2973 I-0.0289 J0.0262 F40.
X1.4148 Y2.2448 I0.0289 J-0.0262
X1.357 Y2.2973 Z-0.023 I-0.0289 J0.0262 F20.
X1.4148 Y2.2448 Z-0.0273 I0.0289 J-0.0262
X1.357 Y2.2973 Z-0.0316 I-0.0289 J0.0262
X1.4148 Y2.2448 Z-0.0359 I0.0289 J-0.0262
X1.4045 Y2.3053 Z-0.0383 I-0.0289 J0.0262
X1.3673 Y2.2367 I-0.0186 J-0.0343 F40.
X1.4045 Y2.3053 I0.0186 J0.0343
X1.3673 Y2.2367 Z-0.0426 I-0.0186 J-0.0343 F20.
X1.4045 Y2.3053 Z-0.0469 I0.0186 J0.0343
X1.3673 Y2.2367 Z-0.0512 I-0.0186 J-0.0343
X1.4045 Y2.3053 Z-0.0554 I0.0186 J0.0343
X1.3481 Y2.2808 Z-0.0579 I-0.0186 J-0.0343
X1.4236 Y2.2612 I0.0377 J-0.0098 F40.
X1.3481 Y2.2808 I-0.0377 J0.0098
X1.4236 Y2.2612 Z-0.0622 I0.0377 J-0.0098 F20.
X1.3481 Y2.2808 Z-0.0665 I-0.0377 J0.0098
X1.4236 Y2.2612 Z-0.0708 I0.0377 J-0.0098
X1.3481 Y2.2808 Z-0.075 I-0.0377 J0.0098
X1.3854 Y2.232 Z-0.0775 I0.0377 J-0.0098
X1.3864 Y2.31 I0.0005 J0.039 F40.
X1.3854 Y2.232 I-0.0005 J-0.039
X1.3864 Y2.31 Z-0.0818 I0.0005 J0.039 F20.
X1.3854 Y2.232 Z-0.0861 I-0.0005 J-0.039
X1.3864 Y2.31 Z-0.0903 I0.0005 J0.039
X1.3854 Y2.232 Z-0.0946 I-0.0005 J-0.039
X1.4239 Y2.2799 Z-0.0971 I0.0005 J0.039
X1.3479 Y2.2622 I-0.038 J-0.0089 F40.
X1.4239 Y2.2799 I0.038 J0.0089
X1.3479 Y2.2622 Z-0.1014 I-0.038 J-0.0089 F20.
X1.4239 Y2.2799 Z-0.1056 I0.038 J0.0089
X1.3479 Y2.2622 Z-0.1099 I-0.038 J-0.0089
X1.4239 Y2.2799 Z-0.1142 I0.038 J0.0089
X1.3682 Y2.3058 Z-0.1167 I-0.038 J-0.0089
X1.4036 Y2.2363 I0.0177 J-0.0347 F40.
X1.3682 Y2.3058 I-0.0177 J0.0347
X1.4036 Y2.2363 Z-0.1209 I0.0177 J-0.0347 F20.
X1.3682 Y2.3058 Z-0.1252 I-0.0177 J0.0347
X1.4036 Y2.2363 Z-0.1295 I0.0177 J-0.0347
X1.3682 Y2.3058 Z-0.1338 I-0.0177 J0.0347
X1.3564 Y2.2455 Z-0.1363 I0.0177 J-0.0347
X1.4154 Y2.2966 I0.0295 J0.0255 F40.
X1.3564 Y2.2455 I-0.0295 J-0.0255
X1.4154 Y2.2966 Z-0.1405 I0.0295 J0.0255 F20.
X1.3564 Y2.2455 Z-0.1448 I-0.0295 J-0.0255
X1.4154 Y2.2966 Z-0.1491 I0.0295 J0.0255
X1.3564 Y2.2455 Z-0.1534 I-0.0295 J-0.0255
X1.4178 Y2.2485 Z-0.1558 I0.0295 J0.0255
X1.354 Y2.2935 I-0.0319 J0.0225 F40.
X1.4178 Y2.2485 I0.0319 J-0.0225
X1.354 Y2.2935 Z-0.1601 I-0.0319 J0.0225 F20.
X1.4178 Y2.2485 Z-0.1644 I0.0319 J-0.0225
X1.354 Y2.2935 Z-0.1687 I-0.0319 J0.0225
X1.4178 Y2.2485 Z-0.1729 I0.0319 J-0.0225
X1.4001 Y2.3074 Z-0.1754 I-0.0319 J0.0225
X1.3717 Y2.2347 I-0.0142 J-0.0363 F40.
X1.4001 Y2.3074 I0.0142 J0.0363
X1.3717 Y2.2347 Z-0.1797 I-0.0142 J-0.0363 F20.
X1.4001 Y2.3074 Z-0.184 I0.0142 J0.0363
X1.3717 Y2.2347 Z-0.1883 I-0.0142 J-0.0363
X1.4001 Y2.3074 Z-0.1925 I0.0142 J0.0363
X1.3472 Y2.2761 Z-0.195 I-0.0142 J-0.0363
X1.4246 Y2.2659 I0.0387 J-0.0051 F40.
X1.3472 Y2.2761 I-0.0387 J0.0051
X1.4246 Y2.2659 Z-0.1993 I0.0387 J-0.0051 F20.
X1.3472 Y2.2761 Z-0.2036 I-0.0387 J0.0051
X1.4246 Y2.2659 Z-0.2078 I0.0387 J-0.0051
X1.3472 Y2.2761 Z-0.2121 I-0.0387 J0.0051
X1.3902 Y2.2323 Z-0.2146 I0.0387 J-0.0051
X1.3816 Y2.3098 I-0.0043 J0.0388 F40.
X1.3902 Y2.2323 I0.0043 J-0.0388
X1.3816 Y2.3098 Z-0.2189 I-0.0043 J0.0388 F20.
X1.3902 Y2.2323 Z-0.2231 I0.0043 J-0.0388
X1.3816 Y2.3098 Z-0.2274 I-0.0043 J0.0388
X1.3902 Y2.2323 Z-0.2317 I0.0043 J-0.0388
X1.4225 Y2.2845 Z-0.2342 I-0.0043 J0.0388
X1.3493 Y2.2576 I-0.0366 J-0.0135 F40.
X1.4225 Y2.2845 I0.0366 J0.0135
X1.3493 Y2.2576 Z-0.2384 I-0.0366 J-0.0135 F20.
X1.4225 Y2.2845 Z-0.2427 I0.0366 J0.0135
X1.3493 Y2.2576 Z-0.247 I-0.0366 J-0.0135
X1.4225 Y2.2845 Z-0.2513 I0.0366 J0.0135
X1.364 Y2.3033 Z-0.2538 I-0.0366 J-0.0135
X1.4077 Y2.2387 I0.0219 J-0.0323 F40.
X1.364 Y2.3033 I-0.0219 J0.0323
X1.4077 Y2.2387 Z-0.258 I0.0219 J-0.0323 F20.
X1.364 Y2.3033 Z-0.2623 I-0.0219 J0.0323
X1.4077 Y2.2387 Z-0.2666 I0.0219 J-0.0323
X1.364 Y2.3033 Z-0.2709 I-0.0219 J0.0323
X1.3598 Y2.2421 Z-0.2733 I0.0219 J-0.0323
X1.412 Y2.3 I0.0261 J0.029 F40.
X1.3598 Y2.2421 I-0.0261 J-0.029
X1.412 Y2.3 Z-0.2776 I0.0261 J0.029 F20.
X1.3598 Y2.2421 Z-0.2819 I-0.0261 J-0.029
X1.412 Y2.3 Z-0.2862 I0.0261 J0.029
X1.3598 Y2.2421 Z-0.2904 I-0.0261 J-0.029
X1.4203 Y2.2526 Z-0.2929 I0.0261 J0.029
X1.3515 Y2.2895 I-0.0344 J0.0184 F40.
X1.4203 Y2.2526 I0.0344 J-0.0184
X1.3515 Y2.2895 Z-0.2972 I-0.0344 J0.0184 F20.
X1.4203 Y2.2526 Z-0.3015 I0.0344 J-0.0184
X1.3515 Y2.2895 Z-0.3058 I-0.0344 J0.0184
X1.4203 Y2.2526 Z-0.31 I0.0344 J-0.0184
X1.3956 Y2.3088 Z-0.3125 I-0.0344 J0.0184
X1.3762 Y2.2333 I-0.0097 J-0.0378 F40.
X1.3956 Y2.3088 I0.0097 J0.0378
G1 X1.3933 Y2.3092 Z-0.3121
X1.3911 Y2.3091 Z-0.3116
X1.3892 Y2.3087 Z-0.3103
X1.3874 Y2.308 Z-0.309
X1.3853 Y2.3066 Z-0.3052
X1.3846 Y2.306 Z-0.3007
G0 Z0.24
X1.2555 Y4.7707
G1 Z0.1518 F40.
X1.2558 Y4.771 Z0.1487 F20.
X1.2563 Y4.7719 Z0.1465
X1.2567 Y4.773 Z0.1443
X1.2568 Y4.7743 Z0.1433
X1.2565 Y4.7756 Z0.1423
X1.2559 Y4.7768 Z0.1412
X1.2548 Y4.7779 Z0.1408
X1.2534 Y4.7787 Z0.1404
X1.2519 Y4.779 Z0.14
G3 X1.2517 Y4.769 Z0.1395 I-0.0001 J-0.005
X1.2519 Y4.779 Z0.1389 I0.0001 J0.005
X1.2517 Y4.769 Z0.1384 I-0.0001 J-0.005
X1.2519 Y4.779 Z0.1378 I0.0001 J0.005
X1.2517 Y4.769 Z0.1373 I-0.0001 J-0.005
X1.2519 Y4.779 Z0.1367 I0.0001 J0.005
X1.2517 Y4.769 Z0.1362 I-0.0001 J-0.005
X1.2519 Y4.779 Z0.1356 I0.0001 J0.005
X1.2517 Y4.769 Z0.1351 I-0.0001 J-0.005
X1.2519 Y4.779 Z0.1345 I0.0001 J0.005
X1.2517 Y4.769 Z0.134 I-0.0001 J-0.005
X1.2519 Y4.779 Z0.1334 I0.0001 J0.005
X1.2517 Y4.769 Z0.1329 I-0.0001 J-0.005
X1.2519 Y4.779 Z0.1323 I0.0001 J0.005
X1.2517 Y4.769 Z0.1318 I-0.0001 J-0.005
X1.2519 Y4.779 Z0.1312 I0.0001 J0.005
X1.2517 Y4.769 Z0.1307 I-0.0001 J-0.005
X1.2519 Y4.779 Z0.1301 I0.0001 J0.005
X1.2517 Y4.769 Z0.1296 I-0.0001 J-0.005
X1.2519 Y4.779 Z0.129 I0.0001 J0.005
X1.2517 Y4.769 Z0.1285 I-0.0001 J-0.005
X1.2519 Y4.779 Z0.1279 I0.0001 J0.005
X1.2517 Y4.769 Z0.1274 I-0.0001 J-0.005
X1.2519 Y4.779 Z0.1268 I0.0001 J0.005
X1.2517 Y4.769 Z0.1263 I-0.0001 J-0.005
X1.2519 Y4.779 Z0.1257 I0.0001 J0.005
X1.2517 Y4.769 Z0.1252 I-0.0001 J-0.005
X1.2519 Y4.779 Z0.1246 I0.0001 J0.005
X1.2517 Y4.769 Z0.1241 I-0.0001 J-0.005
X1.2519 Y4.779 Z0.1235 I0.0001 J0.005
X1.2517 Y4.769 Z0.123 I-0.0001 J-0.005
X1.2519 Y4.779 Z0.1224 I0.0001 J0.005
X1.2517 Y4.769 Z0.1219 I-0.0001 J-0.005
X1.2519 Y4.779 Z0.1213 I0.0001 J0.005
X1.2517 Y4.769 Z0.1208 I-0.0001 J-0.005
X1.2519 Y4.779 Z0.1203 I0.0001 J0.005
X1.2517 Y4.769 Z0.1197 I-0.0001 J-0.005
X1.2519 Y4.779 Z0.1192 I0.0001 J0.005
X1.2517 Y4.769 Z0.1186 I-0.0001 J-0.005
X1.2519 Y4.779 Z0.1181 I0.0001 J0.005
X1.2517 Y4.769 Z0.1175 I-0.0001 J-0.005
X1.2519 Y4.779 Z0.117 I0.0001 J0.005
X1.2517 Y4.769 Z0.1164 I-0.0001 J-0.005
X1.2519 Y4.779 Z0.1159 I0.0001 J0.005
X1.2517 Y4.769 Z0.1153 I-0.0001 J-0.005
X1.2519 Y4.779 Z0.1148 I0.0001 J0.005
X1.2517 Y4.769 Z0.1142 I-0.0001 J-0.005
X1.2519 Y4.779 Z0.1137 I0.0001 J0.005
X1.2517 Y4.769 Z0.1131 I-0.0001 J-0.005
X1.2519 Y4.779 Z0.1126 I0.0001 J0.005
X1.2517 Y4.769 Z0.112 I-0.0001 J-0.005
X1.2519 Y4.779 Z0.1115 I0.0001 J0.005
X1.2517 Y4.769 Z0.1109 I-0.0001 J-0.005
X1.2519 Y4.779 Z0.1104 I0.0001 J0.005
X1.2517 Y4.769 Z0.1098 I-0.0001 J-0.005
X1.2519 Y4.779 Z0.1093 I0.0001 J0.005
X1.2517 Y4.769 Z0.1087 I-0.0001 J-0.005
X1.2519 Y4.779 Z0.1082 I0.0001 J0.005
X1.2517 Y4.769 Z0.1076 I-0.0001 J-0.005
X1.2519 Y4.779 Z0.1071 I0.0001 J0.005
X1.2517 Y4.769 Z0.1065 I-0.0001 J-0.005
X1.2519 Y4.779 Z0.106 I0.0001 J0.005
X1.2517 Y4.769 Z0.1054 I-0.0001 J-0.005
X1.2519 Y4.779 Z0.1049 I0.0001 J0.005
X1.2517 Y4.769 Z0.1043 I-0.0001 J-0.005
X1.2519 Y4.779 Z0.1038 I0.0001 J0.005
X1.2517 Y4.769 Z0.1032 I-0.0001 J-0.005
X1.2519 Y4.779 Z0.1027 I0.0001 J0.005
X1.2517 Y4.769 Z0.1022 I-0.0001 J-0.005
X1.2519 Y4.779 Z0.1016 I0.0001 J0.005
X1.2517 Y4.769 Z0.1011 I-0.0001 J-0.005
X1.2519 Y4.779 Z0.1005 I0.0001 J0.005
X1.2517 Y4.769 Z0.1 I-0.0001 J-0.005
X1.2519 Y4.779 Z0.0994 I0.0001 J0.005
X1.2517 Y4.769 Z0.0989 I-0.0001 J-0.005
X1.2519 Y4.779 Z0.0983 I0.0001 J0.005
X1.2517 Y4.769 Z0.0978 I-0.0001 J-0.005
X1.2519 Y4.779 Z0.0972 I0.0001 J0.005
X1.2517 Y4.769 Z0.0967 I-0.0001 J-0.005
X1.2519 Y4.779 Z0.0961 I0.0001 J0.005
X1.2517 Y4.769 Z0.0956 I-0.0001 J-0.005
X1.2519 Y4.779 Z0.095 I0.0001 J0.005
X1.2517 Y4.769 Z0.0945 I-0.0001 J-0.005
X1.2519 Y4.779 Z0.0939 I0.0001 J0.005
X1.2517 Y4.769 Z0.0934 I-0.0001 J-0.005
X1.2519 Y4.779 Z0.0928 I0.0001 J0.005
X1.2517 Y4.769 Z0.0923 I-0.0001 J-0.005
X1.2519 Y4.779 Z0.0917 I0.0001 J0.005
X1.2517 Y4.769 Z0.0912 I-0.0001 J-0.005
X1.2519 Y4.779 Z0.0906 I0.0001 J0.005
X1.2517 Y4.769 Z0.0901 I-0.0001 J-0.005
X1.2519 Y4.779 Z0.0895 I0.0001 J0.005
X1.2517 Y4.769 Z0.089 I-0.0001 J-0.005
X1.2519 Y4.779 Z0.0884 I0.0001 J0.005
X1.2517 Y4.769 Z0.0879 I-0.0001 J-0.005
X1.2519 Y4.779 Z0.0873 I0.0001 J0.005
X1.2517 Y4.769 Z0.0868 I-0.0001 J-0.005
X1.2519 Y4.779 Z0.0862 I0.0001 J0.005
X1.2517 Y4.769 Z0.0857 I-0.0001 J-0.005
X1.2519 Y4.779 Z0.0851 I0.0001 J0.005
X1.2517 Y4.769 Z0.0846 I-0.0001 J-0.005
X1.2519 Y4.779 Z0.084 I0.0001 J0.005
X1.2517 Y4.769 Z0.0835 I-0.0001 J-0.005
X1.2519 Y4.779 Z0.083 I0.0001 J0.005
X1.2517 Y4.769 Z0.0824 I-0.0001 J-0.005
X1.2519 Y4.779 Z0.0819 I0.0001 J0.005
X1.2517 Y4.769 Z0.0813 I-0.0001 J-0.005
X1.2519 Y4.779 Z0.0808 I0.0001 J0.005
X1.2517 Y4.769 Z0.0802 I-0.0001 J-0.005
X1.2519 Y4.779 Z0.0797 I0.0001 J0.005
X1.2517 Y4.769 Z0.0791 I-0.0001 J-0.005
X1.2519 Y4.779 Z0.0786 I0.0001 J0.005
X1.2517 Y4.769 Z0.078 I-0.0001 J-0.005
X1.2519 Y4.779 Z0.0775 I0.0001 J0.005
X1.2517 Y4.769 Z0.0769 I-0.0001 J-0.005
X1.2519 Y4.779 Z0.0764 I0.0001 J0.005
X1.2517 Y4.769 Z0.0758 I-0.0001 J-0.005
X1.2519 Y4.779 Z0.0753 I0.0001 J0.005
X1.2517 Y4.769 Z0.0747 I-0.0001 J-0.005
X1.2519 Y4.779 Z0.0742 I0.0001 J0.005
X1.2517 Y4.769 Z0.0736 I-0.0001 J-0.005
X1.2519 Y4.779 Z0.0731 I0.0001 J0.005
X1.2517 Y4.769 Z0.0725 I-0.0001 J-0.005
X1.2519 Y4.779 Z0.072 I0.0001 J0.005
X1.2517 Y4.769 Z0.0714 I-0.0001 J-0.005
X1.2519 Y4.779 Z0.0709 I0.0001 J0.005
X1.2517 Y4.769 Z0.0703 I-0.0001 J-0.005
X1.2519 Y4.779 Z0.0698 I0.0001 J0.005
X1.2517 Y4.769 Z0.0692 I-0.0001 J-0.005
X1.2519 Y4.779 Z0.0687 I0.0001 J0.005
X1.2517 Y4.769 Z0.0681 I-0.0001 J-0.005
X1.2519 Y4.779 Z0.0676 I0.0001 J0.005
X1.2517 Y4.769 Z0.067 I-0.0001 J-0.005
X1.2519 Y4.779 Z0.0665 I0.0001 J0.005
X1.2517 Y4.769 Z0.0659 I-0.0001 J-0.005
X1.2519 Y4.779 Z0.0654 I0.0001 J0.005
X1.2517 Y4.769 Z0.0649 I-0.0001 J-0.005
X1.2519 Y4.779 Z0.0643 I0.0001 J0.005
X1.2517 Y4.769 Z0.0638 I-0.0001 J-0.005
X1.2519 Y4.779 Z0.0632 I0.0001 J0.005
X1.2517 Y4.769 Z0.0627 I-0.0001 J-0.005
X1.2519 Y4.779 Z0.0621 I0.0001 J0.005
X1.2517 Y4.769 Z0.0616 I-0.0001 J-0.005
X1.2519 Y4.779 Z0.061 I0.0001 J0.005
X1.2517 Y4.769 Z0.0605 I-0.0001 J-0.005
X1.2519 Y4.779 Z0.0599 I0.0001 J0.005
X1.2517 Y4.769 Z0.0594 I-0.0001 J-0.005
X1.2519 Y4.779 Z0.0588 I0.0001 J0.005
X1.2517 Y4.769 Z0.0583 I-0.0001 J-0.005
X1.2519 Y4.779 Z0.0577 I0.0001 J0.005
X1.2517 Y4.769 Z0.0572 I-0.0001 J-0.005
X1.2519 Y4.779 Z0.0566 I0.0001 J0.005
X1.2517 Y4.769 Z0.0561 I-0.0001 J-0.005
X1.2519 Y4.779 Z0.0555 I0.0001 J0.005
X1.2517 Y4.769 Z0.055 I-0.0001 J-0.005
X1.2519 Y4.779 Z0.0544 I0.0001 J0.005
X1.2517 Y4.769 Z0.0539 I-0.0001 J-0.005
X1.2519 Y4.779 Z0.0533 I0.0001 J0.005
X1.2517 Y4.769 Z0.0528 I-0.0001 J-0.005
X1.2519 Y4.779 Z0.0522 I0.0001 J0.005
X1.2517 Y4.769 Z0.0517 I-0.0001 J-0.005
X1.2519 Y4.779 Z0.0511 I0.0001 J0.005
X1.2517 Y4.769 Z0.0506 I-0.0001 J-0.005
X1.2519 Y4.779 Z0.05 I0.0001 J0.005
X1.2517 Y4.769 Z0.0495 I-0.0001 J-0.005
X1.2519 Y4.779 Z0.0489 I0.0001 J0.005
X1.2517 Y4.769 Z0.0484 I-0.0001 J-0.005
X1.2519 Y4.779 Z0.0478 I0.0001 J0.005
X1.2517 Y4.769 Z0.0473 I-0.0001 J-0.005
X1.2519 Y4.779 Z0.0467 I0.0001 J0.005
X1.2517 Y4.769 Z0.0462 I-0.0001 J-0.005
X1.2519 Y4.779 Z0.0457 I0.0001 J0.005
X1.2517 Y4.769 Z0.0451 I-0.0001 J-0.005
X1.2519 Y4.779 Z0.0446 I0.0001 J0.005
X1.2517 Y4.769 Z0.044 I-0.0001 J-0.005
X1.2519 Y4.779 Z0.0435 I0.0001 J0.005
X1.2517 Y4.769 Z0.0429 I-0.0001 J-0.005
X1.2519 Y4.779 Z0.0424 I0.0001 J0.005
X1.2517 Y4.769 Z0.0418 I-0.0001 J-0.005
X1.2519 Y4.779 Z0.0413 I0.0001 J0.005
X1.2517 Y4.769 Z0.0407 I-0.0001 J-0.005
X1.2519 Y4.779 Z0.0402 I0.0001 J0.005
X1.2517 Y4.769 Z0.0396 I-0.0001 J-0.005
X1.2519 Y4.779 Z0.0391 I0.0001 J0.005
X1.2517 Y4.769 Z0.0385 I-0.0001 J-0.005
X1.2519 Y4.779 Z0.038 I0.0001 J0.005
X1.2517 Y4.769 Z0.0374 I-0.0001 J-0.005
X1.2519 Y4.779 Z0.0369 I0.0001 J0.005
X1.2517 Y4.769 Z0.0363 I-0.0001 J-0.005
X1.2519 Y4.779 Z0.0358 I0.0001 J0.005
X1.2517 Y4.769 Z0.0352 I-0.0001 J-0.005
X1.2519 Y4.779 Z0.0347 I0.0001 J0.005
X1.2517 Y4.769 Z0.0341 I-0.0001 J-0.005
X1.2519 Y4.779 Z0.0336 I0.0001 J0.005
X1.2517 Y4.769 Z0.033 I-0.0001 J-0.005
X1.2519 Y4.779 Z0.0325 I0.0001 J0.005
X1.2517 Y4.769 Z0.0319 I-0.0001 J-0.005
X1.2519 Y4.779 Z0.0314 I0.0001 J0.005
X1.2517 Y4.769 Z0.0308 I-0.0001 J-0.005
X1.2519 Y4.779 Z0.0303 I0.0001 J0.005
X1.2517 Y4.769 Z0.0297 I-0.0001 J-0.005
X1.2519 Y4.779 Z0.0292 I0.0001 J0.005
X1.2517 Y4.769 Z0.0286 I-0.0001 J-0.005
X1.2519 Y4.779 Z0.0281 I0.0001 J0.005
X1.2517 Y4.769 Z0.0276 I-0.0001 J-0.005
X1.2519 Y4.779 Z0.027 I0.0001 J0.005
X1.2517 Y4.769 Z0.0265 I-0.0001 J-0.005
X1.2519 Y4.779 Z0.0259 I0.0001 J0.005
X1.2517 Y4.769 Z0.0254 I-0.0001 J-0.005
X1.2519 Y4.779 Z0.0248 I0.0001 J0.005
X1.2517 Y4.769 Z0.0243 I-0.0001 J-0.005
X1.2519 Y4.779 Z0.0237 I0.0001 J0.005
X1.2517 Y4.769 Z0.0232 I-0.0001 J-0.005
X1.2519 Y4.779 Z0.0226 I0.0001 J0.005
X1.2517 Y4.769 Z0.0221 I-0.0001 J-0.005
X1.2519 Y4.779 Z0.0215 I0.0001 J0.005
X1.2517 Y4.769 Z0.021 I-0.0001 J-0.005
X1.2568 Y4.7739 Z0.0207 I0.0001 J0.005
X1.2518 Y4.779 Z0.0204 I-0.005 J0.
X1.2294 Y4.7566 I0. J-0.0224 F40.
X1.2518 Y4.7343 I0.0224 J0.
X1.2741 Y4.7566 I0. J0.0224
X1.2518 Y4.779 I-0.0224 J0.
G2 X1.2218 Y4.7948 I0. J0.0362
G3 X1.1879 Y4.7936 I-0.0166 J-0.0113
X1.178 Y4.7566 I0.0639 J-0.037
X1.3256 I0.0738 J0.
X1.2518 Y4.8304 I-0.0738 J0.
X1.1879 Y4.7936 I0. J-0.0738
G1 X1.1873 Y4.792
X1.1871 Y4.7902
X1.1875 Y4.7885
X1.1884 Y4.787
X1.1897 Y4.7858
X1.1912 Y4.785
X1.2434 Y4.7686
X1.2519 Y4.7676
G3 X1.2531 Y4.7793 I0.0006 J0.0059
X1.2477 Y4.7769 I-0.0006 J-0.0059
X1.2558 Y4.771 Z0.0199 I0.004 J-0.003 F20.
X1.2477 Y4.7769 Z0.0193 I-0.004 J0.003
X1.2558 Y4.771 Z0.0188 I0.004 J-0.003
X1.2477 Y4.7769 Z0.0182 I-0.004 J0.003
X1.2558 Y4.771 Z0.0177 I0.004 J-0.003
X1.2477 Y4.7769 Z0.0171 I-0.004 J0.003
X1.2558 Y4.771 Z0.0166 I0.004 J-0.003
X1.2477 Y4.7769 Z0.016 I-0.004 J0.003
X1.2558 Y4.771 Z0.0155 I0.004 J-0.003
X1.2477 Y4.7769 Z0.0149 I-0.004 J0.003
X1.2558 Y4.771 Z0.0144 I0.004 J-0.003
X1.2477 Y4.7769 Z0.0138 I-0.004 J0.003
X1.2558 Y4.771 Z0.0133 I0.004 J-0.003
X1.2477 Y4.7769 Z0.0127 I-0.004 J0.003
X1.2558 Y4.771 Z0.0122 I0.004 J-0.003
X1.2477 Y4.7769 Z0.0116 I-0.004 J0.003
X1.2558 Y4.771 Z0.0111 I0.004 J-0.003
X1.2477 Y4.7769 Z0.0105 I-0.004 J0.003
X1.2558 Y4.771 Z0.01 I0.004 J-0.003
X1.2477 Y4.7769 Z0.0094 I-0.004 J0.003
X1.2558 Y4.771 Z0.0089 I0.004 J-0.003
X1.2477 Y4.7769 Z0.0083 I-0.004 J0.003
X1.2558 Y4.771 Z0.0078 I0.004 J-0.003
X1.2477 Y4.7769 Z0.0073 I-0.004 J0.003
X1.2558 Y4.771 Z0.0067 I0.004 J-0.003
X1.2477 Y4.7769 Z0.0062 I-0.004 J0.003
X1.2558 Y4.771 Z0.0056 I0.004 J-0.003
X1.2477 Y4.7769 Z0.0051 I-0.004 J0.003
X1.2558 Y4.771 Z0.0045 I0.004 J-0.003
X1.2477 Y4.7769 Z0.004 I-0.004 J0.003
X1.2558 Y4.771 Z0.0034 I0.004 J-0.003
X1.2477 Y4.7769 Z0.0029 I-0.004 J0.003
X1.2558 Y4.771 Z0.0023 I0.004 J-0.003
X1.2477 Y4.7769 Z0.0018 I-0.004 J0.003
X1.2558 Y4.771 Z0.0012 I0.004 J-0.003
X1.2518 Y4.779 Z0.0008 I-0.004 J0.003
X1.2294 Y4.7566 I0. J-0.0224 F40.
X1.2518 Y4.7343 I0.0224 J0.
X1.2741 Y4.7566 I0. J0.0224
X1.2518 Y4.779 I-0.0224 J0.
G2 X1.2218 Y4.7948 I0. J0.0362
G3 X1.1879 Y4.7936 I-0.0166 J-0.0113
X1.178 Y4.7566 I0.0639 J-0.037
X1.3256 I0.0738 J0.
X1.2518 Y4.8304 I-0.0738 J0.
X1.1879 Y4.7936 I0. J-0.0738
G1 X1.1873 Y4.792
X1.1871 Y4.7902
X1.1875 Y4.7885
X1.1884 Y4.787
X1.1897 Y4.7858
X1.1912 Y4.785
X1.2434 Y4.7686
X1.2519 Y4.7676
G3 X1.2531 Y4.7793 I0.0006 J0.0059
X1.2477 Y4.7769 I-0.0006 J-0.0059
X1.2558 Y4.771 Z0.0003 I0.004 J-0.003 F20.
X1.2477 Y4.7769 Z-0.0003 I-0.004 J0.003
X1.2558 Y4.771 Z-0.0008 I0.004 J-0.003
X1.2477 Y4.7769 Z-0.0014 I-0.004 J0.003
X1.2558 Y4.771 Z-0.0019 I0.004 J-0.003
X1.2477 Y4.7769 Z-0.0025 I-0.004 J0.003
X1.2558 Y4.771 Z-0.003 I0.004 J-0.003
X1.2477 Y4.7769 Z-0.0036 I-0.004 J0.003
X1.2558 Y4.771 Z-0.0041 I0.004 J-0.003
X1.2477 Y4.7769 Z-0.0047 I-0.004 J0.003
X1.2558 Y4.771 Z-0.0052 I0.004 J-0.003
X1.2477 Y4.7769 Z-0.0057 I-0.004 J0.003
X1.2558 Y4.771 Z-0.0063 I0.004 J-0.003
X1.2477 Y4.7769 Z-0.0068 I-0.004 J0.003
X1.2558 Y4.771 Z-0.0074 I0.004 J-0.003
X1.2477 Y4.7769 Z-0.0079 I-0.004 J0.003
X1.2558 Y4.771 Z-0.0085 I0.004 J-0.003
X1.2477 Y4.7769 Z-0.009 I-0.004 J0.003
X1.2558 Y4.771 Z-0.0096 I0.004 J-0.003
X1.2477 Y4.7769 Z-0.0101 I-0.004 J0.003
X1.2558 Y4.771 Z-0.0107 I0.004 J-0.003
X1.2477 Y4.7769 Z-0.0112 I-0.004 J0.003
X1.2558 Y4.771 Z-0.0118 I0.004 J-0.003
X1.2477 Y4.7769 Z-0.0123 I-0.004 J0.003
X1.2558 Y4.771 Z-0.0129 I0.004 J-0.003
X1.2477 Y4.7769 Z-0.0134 I-0.004 J0.003
X1.2558 Y4.771 Z-0.014 I0.004 J-0.003
X1.2477 Y4.7769 Z-0.0145 I-0.004 J0.003
X1.2558 Y4.771 Z-0.0151 I0.004 J-0.003
X1.2477 Y4.7769 Z-0.0156 I-0.004 J0.003
X1.2558 Y4.771 Z-0.0162 I0.004 J-0.003
X1.2477 Y4.7769 Z-0.0167 I-0.004 J0.003
X1.2558 Y4.771 Z-0.0173 I0.004 J-0.003
X1.2477 Y4.7769 Z-0.0178 I-0.004 J0.003
X1.2558 Y4.771 Z-0.0184 I0.004 J-0.003
X1.2518 Y4.779 Z-0.0187 I-0.004 J0.003
X1.2294 Y4.7566 I0. J-0.0224 F40.
X1.2518 Y4.7343 I0.0224 J0.
X1.2741 Y4.7566 I0. J0.0224
X1.2518 Y4.779 I-0.0224 J0.
G2 X1.2218 Y4.7948 I0. J0.0362
G3 X1.1879 Y4.7936 I-0.0166 J-0.0113
X1.178 Y4.7566 I0.0639 J-0.037
X1.3256 I0.0738 J0.
X1.2518 Y4.8304 I-0.0738 J0.
X1.1879 Y4.7936 I0. J-0.0738
G1 X1.1873 Y4.792
X1.1871 Y4.7902
X1.1875 Y4.7885
X1.1884 Y4.787
X1.1897 Y4.7858
X1.1912 Y4.785
X1.2434 Y4.7686
X1.2519 Y4.7676
G3 X1.2531 Y4.7793 I0.0006 J0.0059
X1.2477 Y4.7769 I-0.0006 J-0.0059
X1.2558 Y4.771 Z-0.0193 I0.004 J-0.003 F20.
X1.2477 Y4.7769 Z-0.0198 I-0.004 J0.003
X1.2558 Y4.771 Z-0.0204 I0.004 J-0.003
X1.2477 Y4.7769 Z-0.0209 I-0.004 J0.003
X1.2558 Y4.771 Z-0.0215 I0.004 J-0.003
X1.2477 Y4.7769 Z-0.022 I-0.004 J0.003
X1.2558 Y4.771 Z-0.0226 I0.004 J-0.003
X1.2477 Y4.7769 Z-0.0231 I-0.004 J0.003
X1.2558 Y4.771 Z-0.0237 I0.004 J-0.003
X1.2477 Y4.7769 Z-0.0242 I-0.004 J0.003
X1.2558 Y4.771 Z-0.0248 I0.004 J-0.003
X1.2477 Y4.7769 Z-0.0253 I-0.004 J0.003
X1.2558 Y4.771 Z-0.0259 I0.004 J-0.003
X1.2477 Y4.7769 Z-0.0264 I-0.004 J0.003
X1.2558 Y4.771 Z-0.027 I0.004 J-0.003
X1.2477 Y4.7769 Z-0.0275 I-0.004 J0.003
X1.2558 Y4.771 Z-0.0281 I0.004 J-0.003
X1.2477 Y4.7769 Z-0.0286 I-0.004 J0.003
X1.2558 Y4.771 Z-0.0292 I0.004 J-0.003
X1.2477 Y4.7769 Z-0.0297 I-0.004 J0.003
X1.2558 Y4.771 Z-0.0303 I0.004 J-0.003
X1.2477 Y4.7769 Z-0.0308 I-0.004 J0.003
X1.2558 Y4.771 Z-0.0314 I0.004 J-0.003
X1.2477 Y4.7769 Z-0.0319 I-0.004 J0.003
X1.2558 Y4.771 Z-0.0325 I0.004 J-0.003
X1.2477 Y4.7769 Z-0.033 I-0.004 J0.003
X1.2558 Y4.771 Z-0.0336 I0.004 J-0.003
X1.2477 Y4.7769 Z-0.0341 I-0.004 J0.003
X1.2558 Y4.771 Z-0.0347 I0.004 J-0.003
X1.2477 Y4.7769 Z-0.0352 I-0.004 J0.003
X1.2558 Y4.771 Z-0.0358 I0.004 J-0.003
X1.2477 Y4.7769 Z-0.0363 I-0.004 J0.003
X1.2558 Y4.771 Z-0.0369 I0.004 J-0.003
X1.2477 Y4.7769 Z-0.0374 I-0.004 J0.003
X1.2558 Y4.771 Z-0.0379 I0.004 J-0.003
X1.2518 Y4.779 Z-0.0383 I-0.004 J0.003
X1.2294 Y4.7566 I0. J-0.0224 F40.
X1.2518 Y4.7343 I0.0224 J0.
X1.2741 Y4.7566 I0. J0.0224
X1.2518 Y4.779 I-0.0224 J0.
G2 X1.2218 Y4.7948 I0. J0.0362
G3 X1.1879 Y4.7936 I-0.0166 J-0.0113
X1.178 Y4.7566 I0.0639 J-0.037
X1.3256 I0.0738 J0.
X1.2518 Y4.8304 I-0.0738 J0.
X1.1879 Y4.7936 I0. J-0.0738
G1 X1.1873 Y4.792
X1.1871 Y4.7902
X1.1875 Y4.7885
X1.1884 Y4.787
X1.1897 Y4.7858
X1.1912 Y4.785
X1.2434 Y4.7686
X1.2519 Y4.7676
G3 X1.2531 Y4.7793 I0.0006 J0.0059
X1.2477 Y4.7769 I-0.0006 J-0.0059
X1.2558 Y4.771 Z-0.0389 I0.004 J-0.003 F20.
X1.2477 Y4.7769 Z-0.0394 I-0.004 J0.003
X1.2558 Y4.771 Z-0.04 I0.004 J-0.003
X1.2477 Y4.7769 Z-0.0405 I-0.004 J0.003
X1.2558 Y4.771 Z-0.0411 I0.004 J-0.003
X1.2477 Y4.7769 Z-0.0416 I-0.004 J0.003
X1.2558 Y4.771 Z-0.0422 I0.004 J-0.003
X1.2477 Y4.7769 Z-0.0427 I-0.004 J0.003
X1.2558 Y4.771 Z-0.0433 I0.004 J-0.003
X1.2477 Y4.7769 Z-0.0438 I-0.004 J0.003
X1.2558 Y4.771 Z-0.0444 I0.004 J-0.003
X1.2477 Y4.7769 Z-0.0449 I-0.004 J0.003
X1.2558 Y4.771 Z-0.0455 I0.004 J-0.003
X1.2477 Y4.7769 Z-0.046 I-0.004 J0.003
X1.2558 Y4.771 Z-0.0466 I0.004 J-0.003
X1.2477 Y4.7769 Z-0.0471 I-0.004 J0.003
X1.2558 Y4.771 Z-0.0477 I0.004 J-0.003
X1.2477 Y4.7769 Z-0.0482 I-0.004 J0.003
X1.2558 Y4.771 Z-0.0488 I0.004 J-0.003
X1.2477 Y4.7769 Z-0.0493 I-0.004 J0.003
X1.2558 Y4.771 Z-0.0499 I0.004 J-0.003
X1.2477 Y4.7769 Z-0.0504 I-0.004 J0.003
X1.2558 Y4.771 Z-0.0509 I0.004 J-0.003
X1.2477 Y4.7769 Z-0.0515 I-0.004 J0.003
X1.2558 Y4.771 Z-0.052 I0.004 J-0.003
X1.2477 Y4.7769 Z-0.0526 I-0.004 J0.003
X1.2558 Y4.771 Z-0.0531 I0.004 J-0.003
X1.2477 Y4.7769 Z-0.0537 I-0.004 J0.003
X1.2558 Y4.771 Z-0.0542 I0.004 J-0.003
X1.2477 Y4.7769 Z-0.0548 I-0.004 J0.003
X1.2558 Y4.771 Z-0.0553 I0.004 J-0.003
X1.2477 Y4.7769 Z-0.0559 I-0.004 J0.003
X1.2558 Y4.771 Z-0.0564 I0.004 J-0.003
X1.2477 Y4.7769 Z-0.057 I-0.004 J0.003
X1.2558 Y4.771 Z-0.0575 I0.004 J-0.003
X1.2518 Y4.779 Z-0.0579 I-0.004 J0.003
X1.2294 Y4.7566 I0. J-0.0224 F40.
X1.2518 Y4.7343 I0.0224 J0.
X1.2741 Y4.7566 I0. J0.0224
X1.2518 Y4.779 I-0.0224 J0.
G2 X1.2218 Y4.7948 I0. J0.0362
G3 X1.1879 Y4.7936 I-0.0166 J-0.0113
X1.178 Y4.7566 I0.0639 J-0.037
X1.3256 I0.0738 J0.
X1.2518 Y4.8304 I-0.0738 J0.
X1.1879 Y4.7936 I0. J-0.0738
G1 X1.1873 Y4.792
X1.1871 Y4.7902
X1.1875 Y4.7885
X1.1884 Y4.787
X1.1897 Y4.7858
X1.1912 Y4.785
X1.2434 Y4.7686
X1.2519 Y4.7676
G3 X1.2531 Y4.7793 I0.0006 J0.0059
X1.2477 Y4.7769 I-0.0006 J-0.0059
X1.2558 Y4.771 Z-0.0585 I0.004 J-0.003 F20.
X1.2477 Y4.7769 Z-0.059 I-0.004 J0.003
X1.2558 Y4.771 Z-0.0596 I0.004 J-0.003
X1.2477 Y4.7769 Z-0.0601 I-0.004 J0.003
X1.2558 Y4.771 Z-0.0607 I0.004 J-0.003
X1.2477 Y4.7769 Z-0.0612 I-0.004 J0.003
X1.2558 Y4.771 Z-0.0618 I0.004 J-0.003
X1.2477 Y4.7769 Z-0.0623 I-0.004 J0.003
X1.2558 Y4.771 Z-0.0629 I0.004 J-0.003
X1.2477 Y4.7769 Z-0.0634 I-0.004 J0.003
X1.2558 Y4.771 Z-0.064 I0.004 J-0.003
X1.2477 Y4.7769 Z-0.0645 I-0.004 J0.003
X1.2558 Y4.771 Z-0.065 I0.004 J-0.003
X1.2477 Y4.7769 Z-0.0656 I-0.004 J0.003
X1.2558 Y4.771 Z-0.0661 I0.004 J-0.003
X1.2477 Y4.7769 Z-0.0667 I-0.004 J0.003
X1.2558 Y4.771 Z-0.0672 I0.004 J-0.003
X1.2477 Y4.7769 Z-0.0678 I-0.004 J0.003
X1.2558 Y4.771 Z-0.0683 I0.004 J-0.003
X1.2477 Y4.7769 Z-0.0689 I-0.004 J0.003
X1.2558 Y4.771 Z-0.0694 I0.004 J-0.003
X1.2477 Y4.7769 Z-0.07 I-0.004 J0.003
X1.2558 Y4.771 Z-0.0705 I0.004 J-0.003
X1.2477 Y4.7769 Z-0.0711 I-0.004 J0.003
X1.2558 Y4.771 Z-0.0716 I0.004 J-0.003
X1.2477 Y4.7769 Z-0.0722 I-0.004 J0.003
X1.2558 Y4.771 Z-0.0727 I0.004 J-0.003
X1.2477 Y4.7769 Z-0.0733 I-0.004 J0.003
X1.2558 Y4.771 Z-0.0738 I0.004 J-0.003
X1.2477 Y4.7769 Z-0.0744 I-0.004 J0.003
X1.2558 Y4.771 Z-0.0749 I0.004 J-0.003
X1.2477 Y4.7769 Z-0.0755 I-0.004 J0.003
X1.2558 Y4.771 Z-0.076 I0.004 J-0.003
X1.2477 Y4.7769 Z-0.0766 I-0.004 J0.003
X1.2558 Y4.771 Z-0.0771 I0.004 J-0.003
X1.2518 Y4.779 Z-0.0775 I-0.004 J0.003
X1.2294 Y4.7566 I0. J-0.0224 F40.
X1.2518 Y4.7343 I0.0224 J0.
X1.2741 Y4.7566 I0. J0.0224
X1.2518 Y4.779 I-0.0224 J0.
G2 X1.2218 Y4.7948 I0. J0.0362
G3 X1.1879 Y4.7936 I-0.0166 J-0.0113
X1.178 Y4.7566 I0.0639 J-0.037
X1.3256 I0.0738 J0.
X1.2518 Y4.8304 I-0.0738 J0.
X1.1879 Y4.7936 I0. J-0.0738
G1 X1.1873 Y4.792
X1.1871 Y4.7902
X1.1875 Y4.7885
X1.1884 Y4.787
X1.1897 Y4.7858
X1.1912 Y4.785
X1.2434 Y4.7686
X1.2519 Y4.7676
G3 X1.2531 Y4.7793 I0.0006 J0.0059
X1.2477 Y4.7769 I-0.0006 J-0.0059
X1.2558 Y4.771 Z-0.078 I0.004 J-0.003 F20.
X1.2477 Y4.7769 Z-0.0786 I-0.004 J0.003
X1.2558 Y4.771 Z-0.0791 I0.004 J-0.003
X1.2477 Y4.7769 Z-0.0797 I-0.004 J0.003
X1.2558 Y4.771 Z-0.0802 I0.004 J-0.003
X1.2477 Y4.7769 Z-0.0808 I-0.004 J0.003
X1.2558 Y4.771 Z-0.0813 I0.004 J-0.003
X1.2477 Y4.7769 Z-0.0819 I-0.004 J0.003
X1.2558 Y4.771 Z-0.0824 I0.004 J-0.003
X1.2477 Y4.7769 Z-0.083 I-0.004 J0.003
X1.2558 Y4.771 Z-0.0835 I0.004 J-0.003
X1.2477 Y4.7769 Z-0.0841 I-0.004 J0.003
X1.2558 Y4.771 Z-0.0846 I0.004 J-0.003
X1.2477 Y4.7769 Z-0.0852 I-0.004 J0.003
X1.2558 Y4.771 Z-0.0857 I0.004 J-0.003
X1.2477 Y4.7769 Z-0.0863 I-0.004 J0.003
X1.2558 Y4.771 Z-0.0868 I0.004 J-0.003
X1.2477 Y4.7769 Z-0.0874 I-0.004 J0.003
X1.2558 Y4.771 Z-0.0879 I0.004 J-0.003
X1.2477 Y4.7769 Z-0.0885 I-0.004 J0.003
X1.2558 Y4.771 Z-0.089 I0.004 J-0.003
X1.2477 Y4.7769 Z-0.0896 I-0.004 J0.003
X1.2558 Y4.771 Z-0.0901 I0.004 J-0.003
X1.2477 Y4.7769 Z-0.0907 I-0.004 J0.003
X1.2558 Y4.771 Z-0.0912 I0.004 J-0.003
X1.2477 Y4.7769 Z-0.0918 I-0.004 J0.003
X1.2558 Y4.771 Z-0.0923 I0.004 J-0.003
X1.2477 Y4.7769 Z-0.0929 I-0.004 J0.003
X1.2558 Y4.771 Z-0.0934 I0.004 J-0.003
X1.2477 Y4.7769 Z-0.094 I-0.004 J0.003
X1.2558 Y4.771 Z-0.0945 I0.004 J-0.003
X1.2477 Y4.7769 Z-0.0951 I-0.004 J0.003
X1.2558 Y4.771 Z-0.0956 I0.004 J-0.003
X1.2477 Y4.7769 Z-0.0962 I-0.004 J0.003
X1.2558 Y4.771 Z-0.0967 I0.004 J-0.003
X1.2518 Y4.779 Z-0.0971 I-0.004 J0.003
X1.2294 Y4.7566 I0. J-0.0224 F40.
X1.2518 Y4.7343 I0.0224 J0.
X1.2741 Y4.7566 I0. J0.0224
X1.2518 Y4.779 I-0.0224 J0.
G2 X1.2218 Y4.7948 I0. J0.0362
G3 X1.1879 Y4.7936 I-0.0166 J-0.0113
X1.178 Y4.7566 I0.0639 J-0.037
X1.3256 I0.0738 J0.
X1.2518 Y4.8304 I-0.0738 J0.
X1.1879 Y4.7936 I0. J-0.0738
G1 X1.1873 Y4.792
X1.1871 Y4.7902
X1.1875 Y4.7885
X1.1884 Y4.787
X1.1897 Y4.7858
X1.1912 Y4.785
X1.2434 Y4.7686
X1.2519 Y4.7676
G3 X1.2531 Y4.7793 I0.0006 J0.0059
X1.2477 Y4.7769 I-0.0006 J-0.0059
X1.2558 Y4.771 Z-0.0976 I0.004 J-0.003 F20.
X1.2477 Y4.7769 Z-0.0982 I-0.004 J0.003
X1.2558 Y4.771 Z-0.0987 I0.004 J-0.003
X1.2477 Y4.7769 Z-0.0993 I-0.004 J0.003
X1.2558 Y4.771 Z-0.0998 I0.004 J-0.003
X1.2477 Y4.7769 Z-0.1004 I-0.004 J0.003
X1.2558 Y4.771 Z-0.1009 I0.004 J-0.003
X1.2477 Y4.7769 Z-0.1015 I-0.004 J0.003
X1.2558 Y4.771 Z-0.102 I0.004 J-0.003
X1.2477 Y4.7769 Z-0.1026 I-0.004 J0.003
X1.2558 Y4.771 Z-0.1031 I0.004 J-0.003
X1.2477 Y4.7769 Z-0.1037 I-0.004 J0.003
X1.2558 Y4.771 Z-0.1042 I0.004 J-0.003
X1.2477 Y4.7769 Z-0.1048 I-0.004 J0.003
X1.2558 Y4.771 Z-0.1053 I0.004 J-0.003
X1.2477 Y4.7769 Z-0.1059 I-0.004 J0.003
X1.2558 Y4.771 Z-0.1064 I0.004 J-0.003
X1.2477 Y4.7769 Z-0.107 I-0.004 J0.003
X1.2558 Y4.771 Z-0.1075 I0.004 J-0.003
X1.2477 Y4.7769 Z-0.1081 I-0.004 J0.003
X1.2558 Y4.771 Z-0.1086 I0.004 J-0.003
X1.2477 Y4.7769 Z-0.1092 I-0.004 J0.003
X1.2558 Y4.771 Z-0.1097 I0.004 J-0.003
X1.2477 Y4.7769 Z-0.1102 I-0.004 J0.003
X1.2558 Y4.771 Z-0.1108 I0.004 J-0.003
X1.2477 Y4.7769 Z-0.1113 I-0.004 J0.003
X1.2558 Y4.771 Z-0.1119 I0.004 J-0.003
X1.2477 Y4.7769 Z-0.1124 I-0.004 J0.003
X1.2558 Y4.771 Z-0.113 I0.004 J-0.003
X1.2477 Y4.7769 Z-0.1135 I-0.004 J0.003
X1.2558 Y4.771 Z-0.1141 I0.004 J-0.003
X1.2477 Y4.7769 Z-0.1146 I-0.004 J0.003
X1.2558 Y4.771 Z-0.1152 I0.004 J-0.003
X1.2477 Y4.7769 Z-0.1157 I-0.004 J0.003
X1.2558 Y4.771 Z-0.1163 I0.004 J-0.003
X1.2518 Y4.779 Z-0.1167 I-0.004 J0.003
X1.2294 Y4.7566 I0. J-0.0224 F40.
X1.2518 Y4.7343 I0.0224 J0.
X1.2741 Y4.7566 I0. J0.0224
X1.2518 Y4.779 I-0.0224 J0.
G2 X1.2218 Y4.7948 I0. J0.0362
G3 X1.1879 Y4.7936 I-0.0166 J-0.0113
X1.178 Y4.7566 I0.0639 J-0.037
X1.3256 I0.0738 J0.
X1.2518 Y4.8304 I-0.0738 J0.
X1.1879 Y4.7936 I0. J-0.0738
G1 X1.1873 Y4.792
X1.1871 Y4.7902
X1.1875 Y4.7885
X1.1884 Y4.787
X1.1897 Y4.7858
X1.1912 Y4.785
X1.2434 Y4.7686
X1.2519 Y4.7676
G3 X1.2531 Y4.7793 I0.0006 J0.0059
X1.2477 Y4.7769 I-0.0006 J-0.0059
X1.2558 Y4.771 Z-0.1172 I0.004 J-0.003 F20.
X1.2477 Y4.7769 Z-0.1178 I-0.004 J0.003
X1.2558 Y4.771 Z-0.1183 I0.004 J-0.003
X1.2477 Y4.7769 Z-0.1189 I-0.004 J0.003
X1.2558 Y4.771 Z-0.1194 I0.004 J-0.003
X1.2477 Y4.7769 Z-0.12 I-0.004 J0.003
X1.2558 Y4.771 Z-0.1205 I0.004 J-0.003
X1.2477 Y4.7769 Z-0.1211 I-0.004 J0.003
X1.2558 Y4.771 Z-0.1216 I0.004 J-0.003
X1.2477 Y4.7769 Z-0.1222 I-0.004 J0.003
X1.2558 Y4.771 Z-0.1227 I0.004 J-0.003
X1.2477 Y4.7769 Z-0.1232 I-0.004 J0.003
X1.2558 Y4.771 Z-0.1238 I0.004 J-0.003
X1.2477 Y4.7769 Z-0.1243 I-0.004 J0.003
X1.2558 Y4.771 Z-0.1249 I0.004 J-0.003
X1.2477 Y4.7769 Z-0.1254 I-0.004 J0.003
X1.2558 Y4.771 Z-0.126 I0.004 J-0.003
X1.2477 Y4.7769 Z-0.1265 I-0.004 J0.003
X1.2558 Y4.771 Z-0.1271 I0.004 J-0.003
X1.2477 Y4.7769 Z-0.1276 I-0.004 J0.003
X1.2558 Y4.771 Z-0.1282 I0.004 J-0.003
X1.2477 Y4.7769 Z-0.1287 I-0.004 J0.003
X1.2558 Y4.771 Z-0.1293 I0.004 J-0.003
X1.2477 Y4.7769 Z-0.1298 I-0.004 J0.003
X1.2558 Y4.771 Z-0.1304 I0.004 J-0.003
X1.2477 Y4.7769 Z-0.1309 I-0.004 J0.003
X1.2558 Y4.771 Z-0.1315 I0.004 J-0.003
X1.2477 Y4.7769 Z-0.132 I-0.004 J0.003
X1.2558 Y4.771 Z-0.1326 I0.004 J-0.003
X1.2477 Y4.7769 Z-0.1331 I-0.004 J0.003
X1.2558 Y4.771 Z-0.1337 I0.004 J-0.003
X1.2477 Y4.7769 Z-0.1342 I-0.004 J0.003
X1.2558 Y4.771 Z-0.1348 I0.004 J-0.003
X1.2477 Y4.7769 Z-0.1353 I-0.004 J0.003
X1.2558 Y4.771 Z-0.1359 I0.004 J-0.003
X1.2518 Y4.779 Z-0.1363 I-0.004 J0.003
X1.2294 Y4.7566 I0. J-0.0224 F40.
X1.2518 Y4.7343 I0.0224 J0.
X1.2741 Y4.7566 I0. J0.0224
X1.2518 Y4.779 I-0.0224 J0.
G2 X1.2218 Y4.7948 I0. J0.0362
G3 X1.1879 Y4.7936 I-0.0166 J-0.0113
X1.178 Y4.7566 I0.0639 J-0.037
X1.3256 I0.0738 J0.
X1.2518 Y4.8304 I-0.0738 J0.
X1.1879 Y4.7936 I0. J-0.0738
G1 X1.1873 Y4.792
X1.1871 Y4.7902
X1.1875 Y4.7885
X1.1884 Y4.787
X1.1897 Y4.7858
X1.1912 Y4.785
X1.2434 Y4.7686
X1.2519 Y4.7676
G3 X1.2531 Y4.7793 I0.0006 J0.0059
X1.2477 Y4.7769 I-0.0006 J-0.0059
X1.2558 Y4.771 Z-0.1368 I0.004 J-0.003 F20.
X1.2477 Y4.7769 Z-0.1373 I-0.004 J0.003
X1.2558 Y4.771 Z-0.1379 I0.004 J-0.003
X1.2477 Y4.7769 Z-0.1384 I-0.004 J0.003
X1.2558 Y4.771 Z-0.139 I0.004 J-0.003
X1.2477 Y4.7769 Z-0.1395 I-0.004 J0.003
X1.2558 Y4.771 Z-0.1401 I0.004 J-0.003
X1.2477 Y4.7769 Z-0.1406 I-0.004 J0.003
X1.2558 Y4.771 Z-0.1412 I0.004 J-0.003
X1.2477 Y4.7769 Z-0.1417 I-0.004 J0.003
X1.2558 Y4.771 Z-0.1423 I0.004 J-0.003
X1.2477 Y4.7769 Z-0.1428 I-0.004 J0.003
X1.2558 Y4.771 Z-0.1434 I0.004 J-0.003
X1.2477 Y4.7769 Z-0.1439 I-0.004 J0.003
X1.2558 Y4.771 Z-0.1445 I0.004 J-0.003
X1.2477 Y4.7769 Z-0.145 I-0.004 J0.003
X1.2558 Y4.771 Z-0.1456 I0.004 J-0.003
X1.2477 Y4.7769 Z-0.1461 I-0.004 J0.003
X1.2558 Y4.771 Z-0.1467 I0.004 J-0.003
X1.2477 Y4.7769 Z-0.1472 I-0.004 J0.003
X1.2558 Y4.771 Z-0.1478 I0.004 J-0.003
X1.2477 Y4.7769 Z-0.1483 I-0.004 J0.003
X1.2558 Y4.771 Z-0.1489 I0.004 J-0.003
X1.2477 Y4.7769 Z-0.1494 I-0.004 J0.003
X1.2558 Y4.771 Z-0.15 I0.004 J-0.003
X1.2477 Y4.7769 Z-0.1505 I-0.004 J0.003
X1.2558 Y4.771 Z-0.1511 I0.004 J-0.003
X1.2477 Y4.7769 Z-0.1516 I-0.004 J0.003
X1.2558 Y4.771 Z-0.1522 I0.004 J-0.003
X1.2477 Y4.7769 Z-0.1527 I-0.004 J0.003
X1.2558 Y4.771 Z-0.1533 I0.004 J-0.003
X1.2477 Y4.7769 Z-0.1538 I-0.004 J0.003
X1.2558 Y4.771 Z-0.1544 I0.004 J-0.003
X1.2477 Y4.7769 Z-0.1549 I-0.004 J0.003
X1.2558 Y4.771 Z-0.1554 I0.004 J-0.003
X1.2518 Y4.779 Z-0.1558 I-0.004 J0.003
X1.2294 Y4.7566 I0. J-0.0224 F40.
X1.2518 Y4.7343 I0.0224 J0.
X1.2741 Y4.7566 I0. J0.0224
X1.2518 Y4.779 I-0.0224 J0.
G2 X1.2218 Y4.7948 I0. J0.0362
G3 X1.1879 Y4.7936 I-0.0166 J-0.0113
X1.178 Y4.7566 I0.0639 J-0.037
X1.3256 I0.0738 J0.
X1.2518 Y4.8304 I-0.0738 J0.
X1.1879 Y4.7936 I0. J-0.0738
G1 X1.1873 Y4.792
X1.1871 Y4.7902
X1.1875 Y4.7885
X1.1884 Y4.787
X1.1897 Y4.7858
X1.1912 Y4.785
X1.2434 Y4.7686
X1.2519 Y4.7676
G3 X1.2531 Y4.7793 I0.0006 J0.0059
X1.2477 Y4.7769 I-0.0006 J-0.0059
X1.2558 Y4.771 Z-0.1564 I0.004 J-0.003 F20.
X1.2477 Y4.7769 Z-0.1569 I-0.004 J0.003
X1.2558 Y4.771 Z-0.1575 I0.004 J-0.003
X1.2477 Y4.7769 Z-0.158 I-0.004 J0.003
X1.2558 Y4.771 Z-0.1586 I0.004 J-0.003
X1.2477 Y4.7769 Z-0.1591 I-0.004 J0.003
X1.2558 Y4.771 Z-0.1597 I0.004 J-0.003
X1.2477 Y4.7769 Z-0.1602 I-0.004 J0.003
X1.2558 Y4.771 Z-0.1608 I0.004 J-0.003
X1.2477 Y4.7769 Z-0.1613 I-0.004 J0.003
X1.2558 Y4.771 Z-0.1619 I0.004 J-0.003
X1.2477 Y4.7769 Z-0.1624 I-0.004 J0.003
X1.2558 Y4.771 Z-0.163 I0.004 J-0.003
X1.2477 Y4.7769 Z-0.1635 I-0.004 J0.003
X1.2558 Y4.771 Z-0.1641 I0.004 J-0.003
X1.2477 Y4.7769 Z-0.1646 I-0.004 J0.003
X1.2558 Y4.771 Z-0.1652 I0.004 J-0.003
X1.2477 Y4.7769 Z-0.1657 I-0.004 J0.003
X1.2558 Y4.771 Z-0.1663 I0.004 J-0.003
X1.2477 Y4.7769 Z-0.1668 I-0.004 J0.003
X1.2558 Y4.771 Z-0.1674 I0.004 J-0.003
X1.2477 Y4.7769 Z-0.1679 I-0.004 J0.003
X1.2558 Y4.771 Z-0.1684 I0.004 J-0.003
X1.2477 Y4.7769 Z-0.169 I-0.004 J0.003
X1.2558 Y4.771 Z-0.1695 I0.004 J-0.003
X1.2477 Y4.7769 Z-0.1701 I-0.004 J0.003
X1.2558 Y4.771 Z-0.1706 I0.004 J-0.003
X1.2477 Y4.7769 Z-0.1712 I-0.004 J0.003
X1.2558 Y4.771 Z-0.1717 I0.004 J-0.003
X1.2477 Y4.7769 Z-0.1723 I-0.004 J0.003
X1.2558 Y4.771 Z-0.1728 I0.004 J-0.003
X1.2477 Y4.7769 Z-0.1734 I-0.004 J0.003
X1.2558 Y4.771 Z-0.1739 I0.004 J-0.003
X1.2477 Y4.7769 Z-0.1745 I-0.004 J0.003
X1.2558 Y4.771 Z-0.175 I0.004 J-0.003
X1.2518 Y4.779 Z-0.1754 I-0.004 J0.003
X1.2294 Y4.7566 I0. J-0.0224 F40.
X1.2518 Y4.7343 I0.0224 J0.
X1.2741 Y4.7566 I0. J0.0224
X1.2518 Y4.779 I-0.0224 J0.
G2 X1.2218 Y4.7948 I0. J0.0362
G3 X1.1879 Y4.7936 I-0.0166 J-0.0113
X1.178 Y4.7566 I0.0639 J-0.037
X1.3256 I0.0738 J0.
X1.2518 Y4.8304 I-0.0738 J0.
X1.1879 Y4.7936 I0. J-0.0738
G1 X1.1873 Y4.792
X1.1871 Y4.7902
X1.1875 Y4.7885
X1.1884 Y4.787
X1.1897 Y4.7858
X1.1912 Y4.785
X1.2434 Y4.7686
X1.2519 Y4.7676
G3 X1.2531 Y4.7793 I0.0006 J0.0059
X1.2477 Y4.7769 I-0.0006 J-0.0059
X1.2558 Y4.771 Z-0.176 I0.004 J-0.003 F20.
X1.2477 Y4.7769 Z-0.1765 I-0.004 J0.003
X1.2558 Y4.771 Z-0.1771 I0.004 J-0.003
X1.2477 Y4.7769 Z-0.1776 I-0.004 J0.003
X1.2558 Y4.771 Z-0.1782 I0.004 J-0.003
X1.2477 Y4.7769 Z-0.1787 I-0.004 J0.003
X1.2558 Y4.771 Z-0.1793 I0.004 J-0.003
X1.2477 Y4.7769 Z-0.1798 I-0.004 J0.003
X1.2558 Y4.771 Z-0.1804 I0.004 J-0.003
X1.2477 Y4.7769 Z-0.1809 I-0.004 J0.003
X1.2558 Y4.771 Z-0.1815 I0.004 J-0.003
X1.2477 Y4.7769 Z-0.182 I-0.004 J0.003
X1.2558 Y4.771 Z-0.1825 I0.004 J-0.003
X1.2477 Y4.7769 Z-0.1831 I-0.004 J0.003
X1.2558 Y4.771 Z-0.1836 I0.004 J-0.003
X1.2477 Y4.7769 Z-0.1842 I-0.004 J0.003
X1.2558 Y4.771 Z-0.1847 I0.004 J-0.003
X1.2477 Y4.7769 Z-0.1853 I-0.004 J0.003
X1.2558 Y4.771 Z-0.1858 I0.004 J-0.003
X1.2477 Y4.7769 Z-0.1864 I-0.004 J0.003
X1.2558 Y4.771 Z-0.1869 I0.004 J-0.003
X1.2477 Y4.7769 Z-0.1875 I-0.004 J0.003
X1.2558 Y4.771 Z-0.188 I0.004 J-0.003
X1.2477 Y4.7769 Z-0.1886 I-0.004 J0.003
X1.2558 Y4.771 Z-0.1891 I0.004 J-0.003
X1.2477 Y4.7769 Z-0.1897 I-0.004 J0.003
X1.2558 Y4.771 Z-0.1902 I0.004 J-0.003
X1.2477 Y4.7769 Z-0.1908 I-0.004 J0.003
X1.2558 Y4.771 Z-0.1913 I0.004 J-0.003
X1.2477 Y4.7769 Z-0.1919 I-0.004 J0.003
X1.2558 Y4.771 Z-0.1924 I0.004 J-0.003
X1.2477 Y4.7769 Z-0.193 I-0.004 J0.003
X1.2558 Y4.771 Z-0.1935 I0.004 J-0.003
X1.2477 Y4.7769 Z-0.1941 I-0.004 J0.003
X1.2558 Y4.771 Z-0.1946 I0.004 J-0.003
X1.2518 Y4.779 Z-0.195 I-0.004 J0.003
X1.2294 Y4.7566 I0. J-0.0224 F40.
X1.2518 Y4.7343 I0.0224 J0.
X1.2741 Y4.7566 I0. J0.0224
X1.2518 Y4.779 I-0.0224 J0.
G2 X1.2218 Y4.7948 I0. J0.0362
G3 X1.1879 Y4.7936 I-0.0166 J-0.0113
X1.178 Y4.7566 I0.0639 J-0.037
X1.3256 I0.0738 J0.
X1.2518 Y4.8304 I-0.0738 J0.
X1.1879 Y4.7936 I0. J-0.0738
G1 X1.1873 Y4.792
X1.1871 Y4.7902
X1.1875 Y4.7885
X1.1884 Y4.787
X1.1897 Y4.7858
X1.1912 Y4.785
X1.2434 Y4.7686
X1.2519 Y4.7676
G3 X1.2531 Y4.7793 I0.0006 J0.0059
X1.2477 Y4.7769 I-0.0006 J-0.0059
X1.2558 Y4.771 Z-0.1955 I0.004 J-0.003 F20.
X1.2477 Y4.7769 Z-0.1961 I-0.004 J0.003
X1.2558 Y4.771 Z-0.1966 I0.004 J-0.003
X1.2477 Y4.7769 Z-0.1972 I-0.004 J0.003
X1.2558 Y4.771 Z-0.1977 I0.004 J-0.003
X1.2477 Y4.7769 Z-0.1983 I-0.004 J0.003
X1.2558 Y4.771 Z-0.1988 I0.004 J-0.003
X1.2477 Y4.7769 Z-0.1994 I-0.004 J0.003
X1.2558 Y4.771 Z-0.1999 I0.004 J-0.003
X1.2477 Y4.7769 Z-0.2005 I-0.004 J0.003
X1.2558 Y4.771 Z-0.201 I0.004 J-0.003
X1.2477 Y4.7769 Z-0.2016 I-0.004 J0.003
X1.2558 Y4.771 Z-0.2021 I0.004 J-0.003
X1.2477 Y4.7769 Z-0.2027 I-0.004 J0.003
X1.2558 Y4.771 Z-0.2032 I0.004 J-0.003
X1.2477 Y4.7769 Z-0.2038 I-0.004 J0.003
X1.2558 Y4.771 Z-0.2043 I0.004 J-0.003
X1.2477 Y4.7769 Z-0.2049 I-0.004 J0.003
X1.2558 Y4.771 Z-0.2054 I0.004 J-0.003
X1.2477 Y4.7769 Z-0.206 I-0.004 J0.003
X1.2558 Y4.771 Z-0.2065 I0.004 J-0.003
X1.2477 Y4.7769 Z-0.2071 I-0.004 J0.003
X1.2558 Y4.771 Z-0.2076 I0.004 J-0.003
X1.2477 Y4.7769 Z-0.2082 I-0.004 J0.003
X1.2558 Y4.771 Z-0.2087 I0.004 J-0.003
X1.2477 Y4.7769 Z-0.2093 I-0.004 J0.003
X1.2558 Y4.771 Z-0.2098 I0.004 J-0.003
X1.2477 Y4.7769 Z-0.2104 I-0.004 J0.003
X1.2558 Y4.771 Z-0.2109 I0.004 J-0.003
X1.2477 Y4.7769 Z-0.2115 I-0.004 J0.003
X1.2558 Y4.771 Z-0.212 I0.004 J-0.003
X1.2477 Y4.7769 Z-0.2126 I-0.004 J0.003
X1.2558 Y4.771 Z-0.2131 I0.004 J-0.003
X1.2477 Y4.7769 Z-0.2137 I-0.004 J0.003
X1.2558 Y4.771 Z-0.2142 I0.004 J-0.003
X1.2518 Y4.779 Z-0.2146 I-0.004 J0.003
X1.2294 Y4.7566 I0. J-0.0224 F40.
X1.2518 Y4.7343 I0.0224 J0.
X1.2741 Y4.7566 I0. J0.0224
X1.2518 Y4.779 I-0.0224 J0.
G2 X1.2218 Y4.7948 I0. J0.0362
G3 X1.1879 Y4.7936 I-0.0166 J-0.0113
X1.178 Y4.7566 I0.0639 J-0.037
X1.3256 I0.0738 J0.
X1.2518 Y4.8304 I-0.0738 J0.
X1.1879 Y4.7936 I0. J-0.0738
G1 X1.1873 Y4.792
X1.1871 Y4.7902
X1.1875 Y4.7885
X1.1884 Y4.787
X1.1897 Y4.7858
X1.1912 Y4.785
X1.2434 Y4.7686
X1.2519 Y4.7676
G3 X1.2531 Y4.7793 I0.0006 J0.0059
X1.2477 Y4.7769 I-0.0006 J-0.0059
X1.2558 Y4.771 Z-0.2151 I0.004 J-0.003 F20.
X1.2477 Y4.7769 Z-0.2157 I-0.004 J0.003
X1.2558 Y4.771 Z-0.2162 I0.004 J-0.003
X1.2477 Y4.7769 Z-0.2168 I-0.004 J0.003
X1.2558 Y4.771 Z-0.2173 I0.004 J-0.003
X1.2477 Y4.7769 Z-0.2179 I-0.004 J0.003
X1.2558 Y4.771 Z-0.2184 I0.004 J-0.003
X1.2477 Y4.7769 Z-0.219 I-0.004 J0.003
X1.2558 Y4.771 Z-0.2195 I0.004 J-0.003
X1.2477 Y4.7769 Z-0.2201 I-0.004 J0.003
X1.2558 Y4.771 Z-0.2206 I0.004 J-0.003
X1.2477 Y4.7769 Z-0.2212 I-0.004 J0.003
X1.2558 Y4.771 Z-0.2217 I0.004 J-0.003
X1.2477 Y4.7769 Z-0.2223 I-0.004 J0.003
X1.2558 Y4.771 Z-0.2228 I0.004 J-0.003
X1.2477 Y4.7769 Z-0.2234 I-0.004 J0.003
X1.2558 Y4.771 Z-0.2239 I0.004 J-0.003
X1.2477 Y4.7769 Z-0.2245 I-0.004 J0.003
X1.2558 Y4.771 Z-0.225 I0.004 J-0.003
X1.2477 Y4.7769 Z-0.2256 I-0.004 J0.003
X1.2558 Y4.771 Z-0.2261 I0.004 J-0.003
X1.2477 Y4.7769 Z-0.2267 I-0.004 J0.003
X1.2558 Y4.771 Z-0.2272 I0.004 J-0.003
X1.2477 Y4.7769 Z-0.2277 I-0.004 J0.003
X1.2558 Y4.771 Z-0.2283 I0.004 J-0.003
X1.2477 Y4.7769 Z-0.2288 I-0.004 J0.003
X1.2558 Y4.771 Z-0.2294 I0.004 J-0.003
X1.2477 Y4.7769 Z-0.2299 I-0.004 J0.003
X1.2558 Y4.771 Z-0.2305 I0.004 J-0.003
X1.2477 Y4.7769 Z-0.231 I-0.004 J0.003
X1.2558 Y4.771 Z-0.2316 I0.004 J-0.003
X1.2477 Y4.7769 Z-0.2321 I-0.004 J0.003
X1.2558 Y4.771 Z-0.2327 I0.004 J-0.003
X1.2477 Y4.7769 Z-0.2332 I-0.004 J0.003
X1.2558 Y4.771 Z-0.2338 I0.004 J-0.003
X1.2518 Y4.779 Z-0.2342 I-0.004 J0.003
X1.2294 Y4.7566 I0. J-0.0224 F40.
X1.2518 Y4.7343 I0.0224 J0.
X1.2741 Y4.7566 I0. J0.0224
X1.2518 Y4.779 I-0.0224 J0.
G2 X1.2218 Y4.7948 I0. J0.0362
G3 X1.1879 Y4.7936 I-0.0166 J-0.0113
X1.178 Y4.7566 I0.0639 J-0.037
X1.3256 I0.0738 J0.
X1.2518 Y4.8304 I-0.0738 J0.
X1.1879 Y4.7936 I0. J-0.0738
G1 X1.1873 Y4.792
X1.1871 Y4.7902
X1.1875 Y4.7885
X1.1884 Y4.787
X1.1897 Y4.7858
X1.1912 Y4.785
X1.2434 Y4.7686
X1.2519 Y4.7676
G3 X1.2531 Y4.7793 I0.0006 J0.0059
X1.2477 Y4.7769 I-0.0006 J-0.0059
X1.2558 Y4.771 Z-0.2347 I0.004 J-0.003 F20.
X1.2477 Y4.7769 Z-0.2353 I-0.004 J0.003
X1.2558 Y4.771 Z-0.2358 I0.004 J-0.003
X1.2477 Y4.7769 Z-0.2364 I-0.004 J0.003
X1.2558 Y4.771 Z-0.2369 I0.004 J-0.003
X1.2477 Y4.7769 Z-0.2375 I-0.004 J0.003
X1.2558 Y4.771 Z-0.238 I0.004 J-0.003
X1.2477 Y4.7769 Z-0.2386 I-0.004 J0.003
X1.2558 Y4.771 Z-0.2391 I0.004 J-0.003
X1.2477 Y4.7769 Z-0.2397 I-0.004 J0.003
X1.2558 Y4.771 Z-0.2402 I0.004 J-0.003
X1.2477 Y4.7769 Z-0.2407 I-0.004 J0.003
X1.2558 Y4.771 Z-0.2413 I0.004 J-0.003
X1.2477 Y4.7769 Z-0.2418 I-0.004 J0.003
X1.2558 Y4.771 Z-0.2424 I0.004 J-0.003
X1.2477 Y4.7769 Z-0.2429 I-0.004 J0.003
X1.2558 Y4.771 Z-0.2435 I0.004 J-0.003
X1.2477 Y4.7769 Z-0.244 I-0.004 J0.003
X1.2558 Y4.771 Z-0.2446 I0.004 J-0.003
X1.2477 Y4.7769 Z-0.2451 I-0.004 J0.003
X1.2558 Y4.771 Z-0.2457 I0.004 J-0.003
X1.2477 Y4.7769 Z-0.2462 I-0.004 J0.003
X1.2558 Y4.771 Z-0.2468 I0.004 J-0.003
X1.2477 Y4.7769 Z-0.2473 I-0.004 J0.003
X1.2558 Y4.771 Z-0.2479 I0.004 J-0.003
X1.2477 Y4.7769 Z-0.2484 I-0.004 J0.003
X1.2558 Y4.771 Z-0.249 I0.004 J-0.003
X1.2477 Y4.7769 Z-0.2495 I-0.004 J0.003
X1.2558 Y4.771 Z-0.2501 I0.004 J-0.003
X1.2477 Y4.7769 Z-0.2506 I-0.004 J0.003
X1.2558 Y4.771 Z-0.2512 I0.004 J-0.003
X1.2477 Y4.7769 Z-0.2517 I-0.004 J0.003
X1.2558 Y4.771 Z-0.2523 I0.004 J-0.003
X1.2477 Y4.7769 Z-0.2528 I-0.004 J0.003
X1.2558 Y4.771 Z-0.2534 I0.004 J-0.003
X1.2518 Y4.779 Z-0.2538 I-0.004 J0.003
X1.2294 Y4.7566 I0. J-0.0224 F40.
X1.2518 Y4.7343 I0.0224 J0.
X1.2741 Y4.7566 I0. J0.0224
X1.2518 Y4.779 I-0.0224 J0.
G2 X1.2218 Y4.7948 I0. J0.0362
G3 X1.1879 Y4.7936 I-0.0166 J-0.0113
X1.178 Y4.7566 I0.0639 J-0.037
X1.3256 I0.0738 J0.
X1.2518 Y4.8304 I-0.0738 J0.
X1.1879 Y4.7936 I0. J-0.0738
G1 X1.1873 Y4.792
X1.1871 Y4.7902
X1.1875 Y4.7885
X1.1884 Y4.787
X1.1897 Y4.7858
X1.1912 Y4.785
X1.2434 Y4.7686
X1.2519 Y4.7676
G3 X1.2531 Y4.7793 I0.0006 J0.0059
X1.2477 Y4.7769 I-0.0006 J-0.0059
X1.2558 Y4.771 Z-0.2543 I0.004 J-0.003 F20.
X1.2477 Y4.7769 Z-0.2548 I-0.004 J0.003
X1.2558 Y4.771 Z-0.2554 I0.004 J-0.003
X1.2477 Y4.7769 Z-0.2559 I-0.004 J0.003
X1.2558 Y4.771 Z-0.2565 I0.004 J-0.003
X1.2477 Y4.7769 Z-0.257 I-0.004 J0.003
X1.2558 Y4.771 Z-0.2576 I0.004 J-0.003
X1.2477 Y4.7769 Z-0.2581 I-0.004 J0.003
X1.2558 Y4.771 Z-0.2587 I0.004 J-0.003
X1.2477 Y4.7769 Z-0.2592 I-0.004 J0.003
X1.2558 Y4.771 Z-0.2598 I0.004 J-0.003
X1.2477 Y4.7769 Z-0.2603 I-0.004 J0.003
X1.2558 Y4.771 Z-0.2609 I0.004 J-0.003
X1.2477 Y4.7769 Z-0.2614 I-0.004 J0.003
X1.2558 Y4.771 Z-0.262 I0.004 J-0.003
X1.2477 Y4.7769 Z-0.2625 I-0.004 J0.003
X1.2558 Y4.771 Z-0.2631 I0.004 J-0.003
X1.2477 Y4.7769 Z-0.2636 I-0.004 J0.003
X1.2558 Y4.771 Z-0.2642 I0.004 J-0.003
X1.2477 Y4.7769 Z-0.2647 I-0.004 J0.003
X1.2558 Y4.771 Z-0.2653 I0.004 J-0.003
X1.2477 Y4.7769 Z-0.2658 I-0.004 J0.003
X1.2558 Y4.771 Z-0.2664 I0.004 J-0.003
X1.2477 Y4.7769 Z-0.2669 I-0.004 J0.003
X1.2558 Y4.771 Z-0.2675 I0.004 J-0.003
X1.2477 Y4.7769 Z-0.268 I-0.004 J0.003
X1.2558 Y4.771 Z-0.2686 I0.004 J-0.003
X1.2477 Y4.7769 Z-0.2691 I-0.004 J0.003
X1.2558 Y4.771 Z-0.2697 I0.004 J-0.003
X1.2477 Y4.7769 Z-0.2702 I-0.004 J0.003
X1.2558 Y4.771 Z-0.2708 I0.004 J-0.003
X1.2477 Y4.7769 Z-0.2713 I-0.004 J0.003
X1.2558 Y4.771 Z-0.2719 I0.004 J-0.003
X1.2477 Y4.7769 Z-0.2724 I-0.004 J0.003
X1.2558 Y4.771 Z-0.2729 I0.004 J-0.003
X1.2518 Y4.779 Z-0.2733 I-0.004 J0.003
X1.2294 Y4.7566 I0. J-0.0224 F40.
X1.2518 Y4.7343 I0.0224 J0.
X1.2741 Y4.7566 I0. J0.0224
X1.2518 Y4.779 I-0.0224 J0.
G2 X1.2218 Y4.7948 I0. J0.0362
G3 X1.1879 Y4.7936 I-0.0166 J-0.0113
X1.178 Y4.7566 I0.0639 J-0.037
X1.3256 I0.0738 J0.
X1.2518 Y4.8304 I-0.0738 J0.
X1.1879 Y4.7936 I0. J-0.0738
G1 X1.1873 Y4.792
X1.1871 Y4.7902
X1.1875 Y4.7885
X1.1884 Y4.787
X1.1897 Y4.7858
X1.1912 Y4.785
X1.2434 Y4.7686
X1.2519 Y4.7676
G3 X1.2531 Y4.7793 I0.0006 J0.0059
X1.2477 Y4.7769 I-0.0006 J-0.0059
X1.2558 Y4.771 Z-0.2739 I0.004 J-0.003 F20.
X1.2477 Y4.7769 Z-0.2744 I-0.004 J0.003
X1.2558 Y4.771 Z-0.275 I0.004 J-0.003
X1.2477 Y4.7769 Z-0.2755 I-0.004 J0.003
X1.2558 Y4.771 Z-0.2761 I0.004 J-0.003
X1.2477 Y4.7769 Z-0.2766 I-0.004 J0.003
X1.2558 Y4.771 Z-0.2772 I0.004 J-0.003
X1.2477 Y4.7769 Z-0.2777 I-0.004 J0.003
X1.2558 Y4.771 Z-0.2783 I0.004 J-0.003
X1.2477 Y4.7769 Z-0.2788 I-0.004 J0.003
X1.2558 Y4.771 Z-0.2794 I0.004 J-0.003
X1.2477 Y4.7769 Z-0.2799 I-0.004 J0.003
X1.2558 Y4.771 Z-0.2805 I0.004 J-0.003
X1.2477 Y4.7769 Z-0.281 I-0.004 J0.003
X1.2558 Y4.771 Z-0.2816 I0.004 J-0.003
X1.2477 Y4.7769 Z-0.2821 I-0.004 J0.003
X1.2558 Y4.771 Z-0.2827 I0.004 J-0.003
X1.2477 Y4.7769 Z-0.2832 I-0.004 J0.003
X1.2558 Y4.771 Z-0.2838 I0.004 J-0.003
X1.2477 Y4.7769 Z-0.2843 I-0.004 J0.003
X1.2558 Y4.771 Z-0.2849 I0.004 J-0.003
X1.2477 Y4.7769 Z-0.2854 I-0.004 J0.003
X1.2558 Y4.771 Z-0.2859 I0.004 J-0.003
X1.2477 Y4.7769 Z-0.2865 I-0.004 J0.003
X1.2558 Y4.771 Z-0.287 I0.004 J-0.003
X1.2477 Y4.7769 Z-0.2876 I-0.004 J0.003
X1.2558 Y4.771 Z-0.2881 I0.004 J-0.003
X1.2477 Y4.7769 Z-0.2887 I-0.004 J0.003
X1.2558 Y4.771 Z-0.2892 I0.004 J-0.003
X1.2477 Y4.7769 Z-0.2898 I-0.004 J0.003
X1.2558 Y4.771 Z-0.2903 I0.004 J-0.003
X1.2477 Y4.7769 Z-0.2909 I-0.004 J0.003
X1.2558 Y4.771 Z-0.2914 I0.004 J-0.003
X1.2477 Y4.7769 Z-0.292 I-0.004 J0.003
X1.2558 Y4.771 Z-0.2925 I0.004 J-0.003
X1.2518 Y4.779 Z-0.2929 I-0.004 J0.003
X1.2294 Y4.7566 I0. J-0.0224 F40.
X1.2518 Y4.7343 I0.0224 J0.
X1.2741 Y4.7566 I0. J0.0224
X1.2518 Y4.779 I-0.0224 J0.
G2 X1.2218 Y4.7948 I0. J0.0362
G3 X1.1879 Y4.7936 I-0.0166 J-0.0113
X1.178 Y4.7566 I0.0639 J-0.037
X1.3256 I0.0738 J0.
X1.2518 Y4.8304 I-0.0738 J0.
X1.1879 Y4.7936 I0. J-0.0738
G1 X1.1873 Y4.792
X1.1871 Y4.7902
X1.1875 Y4.7885
X1.1884 Y4.787
X1.1897 Y4.7858
X1.1912 Y4.785
X1.2434 Y4.7686
X1.2519 Y4.7676
G3 X1.2531 Y4.7793 I0.0006 J0.0059
X1.2477 Y4.7769 I-0.0006 J-0.0059
X1.2558 Y4.771 Z-0.2935 I0.004 J-0.003 F20.
X1.2477 Y4.7769 Z-0.294 I-0.004 J0.003
X1.2558 Y4.771 Z-0.2946 I0.004 J-0.003
X1.2477 Y4.7769 Z-0.2951 I-0.004 J0.003
X1.2558 Y4.771 Z-0.2957 I0.004 J-0.003
X1.2477 Y4.7769 Z-0.2962 I-0.004 J0.003
X1.2558 Y4.771 Z-0.2968 I0.004 J-0.003
X1.2477 Y4.7769 Z-0.2973 I-0.004 J0.003
X1.2558 Y4.771 Z-0.2979 I0.004 J-0.003
X1.2477 Y4.7769 Z-0.2984 I-0.004 J0.003
X1.2558 Y4.771 Z-0.299 I0.004 J-0.003
X1.2477 Y4.7769 Z-0.2995 I-0.004 J0.003
X1.2558 Y4.771 Z-0.3 I0.004 J-0.003
X1.2477 Y4.7769 Z-0.3006 I-0.004 J0.003
X1.2558 Y4.771 Z-0.3011 I0.004 J-0.003
X1.2477 Y4.7769 Z-0.3017 I-0.004 J0.003
X1.2558 Y4.771 Z-0.3022 I0.004 J-0.003
X1.2477 Y4.7769 Z-0.3028 I-0.004 J0.003
X1.2558 Y4.771 Z-0.3033 I0.004 J-0.003
X1.2477 Y4.7769 Z-0.3039 I-0.004 J0.003
X1.2558 Y4.771 Z-0.3044 I0.004 J-0.003
X1.2477 Y4.7769 Z-0.305 I-0.004 J0.003
X1.2558 Y4.771 Z-0.3055 I0.004 J-0.003
X1.2477 Y4.7769 Z-0.3061 I-0.004 J0.003
X1.2558 Y4.771 Z-0.3066 I0.004 J-0.003
X1.2477 Y4.7769 Z-0.3072 I-0.004 J0.003
X1.2558 Y4.771 Z-0.3077 I0.004 J-0.003
X1.2477 Y4.7769 Z-0.3083 I-0.004 J0.003
X1.2558 Y4.771 Z-0.3088 I0.004 J-0.003
X1.2477 Y4.7769 Z-0.3094 I-0.004 J0.003
X1.2558 Y4.771 Z-0.3099 I0.004 J-0.003
X1.2477 Y4.7769 Z-0.3105 I-0.004 J0.003
X1.2558 Y4.771 Z-0.311 I0.004 J-0.003
X1.2477 Y4.7769 Z-0.3116 I-0.004 J0.003
X1.2558 Y4.771 Z-0.3121 I0.004 J-0.003
X1.2518 Y4.779 Z-0.3125 I-0.004 J0.003
X1.2294 Y4.7566 I0. J-0.0224 F40.
X1.2518 Y4.7343 I0.0224 J0.
X1.2741 Y4.7566 I0. J0.0224
X1.2518 Y4.779 I-0.0224 J0.
G2 X1.2218 Y4.7948 I0. J0.0362
G3 X1.1879 Y4.7936 I-0.0166 J-0.0113
X1.178 Y4.7566 I0.0639 J-0.037
X1.3256 I0.0738 J0.
X1.2518 Y4.8304 I-0.0738 J0.
X1.1879 Y4.7936 I0. J-0.0738
G1 X1.187 Y4.7916 Z-0.3121
X1.1864 Y4.7894 Z-0.3116
X1.1863 Y4.7875 Z-0.3103
X1.1865 Y4.7856 Z-0.309
X1.1872 Y4.7831 Z-0.3052
X1.1876 Y4.7823 Z-0.3007
G0 Z0.24
X4.2722 Y4.7604
G1 Z0.1518 F40.
X4.2719 Y4.7606 Z0.1487 F20.
X4.271 Y4.7612 Z0.1465
X4.2699 Y4.7615 Z0.1443
X4.2686 Y4.7616 Z0.1433
X4.2673 Y4.7613 Z0.1423
X4.2662 Y4.7608 Z0.1412
X4.265 Y4.7597 Z0.1408
X4.2642 Y4.7583 Z0.1404
X4.2639 Y4.7567 Z0.14
G3 X4.2739 Y4.7565 Z0.1395 I0.005 J-0.0001
X4.2639 Y4.7567 Z0.1389 I-0.005 J0.0001
X4.2739 Y4.7565 Z0.1384 I0.005 J-0.0001
X4.2639 Y4.7567 Z0.1378 I-0.005 J0.0001
X4.2739 Y4.7565 Z0.1373 I0.005 J-0.0001
X4.2639 Y4.7567 Z0.1367 I-0.005 J0.0001
X4.2739 Y4.7565 Z0.1362 I0.005 J-0.0001
X4.2639 Y4.7567 Z0.1356 I-0.005 J0.0001
X4.2739 Y4.7565 Z0.1351 I0.005 J-0.0001
X4.2639 Y4.7567 Z0.1345 I-0.005 J0.0001
X4.2739 Y4.7565 Z0.134 I0.005 J-0.0001
X4.2639 Y4.7567 Z0.1334 I-0.005 J0.0001
X4.2739 Y4.7565 Z0.1329 I0.005 J-0.0001
X4.2639 Y4.7567 Z0.1323 I-0.005 J0.0001
X4.2739 Y4.7565 Z0.1318 I0.005 J-0.0001
X4.2639 Y4.7567 Z0.1312 I-0.005 J0.0001
X4.2739 Y4.7565 Z0.1307 I0.005 J-0.0001
X4.2639 Y4.7567 Z0.1301 I-0.005 J0.0001
X4.2739 Y4.7565 Z0.1296 I0.005 J-0.0001
X4.2639 Y4.7567 Z0.129 I-0.005 J0.0001
X4.2739 Y4.7565 Z0.1285 I0.005 J-0.0001
X4.2639 Y4.7567 Z0.1279 I-0.005 J0.0001
X4.2739 Y4.7565 Z0.1274 I0.005 J-0.0001
X4.2639 Y4.7567 Z0.1268 I-0.005 J0.0001
X4.2739 Y4.7565 Z0.1263 I0.005 J-0.0001
X4.2639 Y4.7567 Z0.1257 I-0.005 J0.0001
X4.2739 Y4.7565 Z0.1252 I0.005 J-0.0001
X4.2639 Y4.7567 Z0.1246 I-0.005 J0.0001
X4.2739 Y4.7565 Z0.1241 I0.005 J-0.0001
X4.2639 Y4.7567 Z0.1235 I-0.005 J0.0001
X4.2739 Y4.7565 Z0.123 I0.005 J-0.0001
X4.2639 Y4.7567 Z0.1224 I-0.005 J0.0001
X4.2739 Y4.7565 Z0.1219 I0.005 J-0.0001
X4.2639 Y4.7567 Z0.1213 I-0.005 J0.0001
X4.2739 Y4.7565 Z0.1208 I0.005 J-0.0001
X4.2639 Y4.7567 Z0.1203 I-0.005 J0.0001
X4.2739 Y4.7565 Z0.1197 I0.005 J-0.0001
X4.2639 Y4.7567 Z0.1192 I-0.005 J0.0001
X4.2739 Y4.7565 Z0.1186 I0.005 J-0.0001
X4.2639 Y4.7567 Z0.1181 I-0.005 J0.0001
X4.2739 Y4.7565 Z0.1175 I0.005 J-0.0001
X4.2639 Y4.7567 Z0.117 I-0.005 J0.0001
X4.2739 Y4.7565 Z0.1164 I0.005 J-0.0001
X4.2639 Y4.7567 Z0.1159 I-0.005 J0.0001
X4.2739 Y4.7565 Z0.1153 I0.005 J-0.0001
X4.2639 Y4.7567 Z0.1148 I-0.005 J0.0001
X4.2739 Y4.7565 Z0.1142 I0.005 J-0.0001
X4.2639 Y4.7567 Z0.1137 I-0.005 J0.0001
X4.2739 Y4.7565 Z0.1131 I0.005 J-0.0001
X4.2639 Y4.7567 Z0.1126 I-0.005 J0.0001
X4.2739 Y4.7565 Z0.112 I0.005 J-0.0001
X4.2639 Y4.7567 Z0.1115 I-0.005 J0.0001
X4.2739 Y4.7565 Z0.1109 I0.005 J-0.0001
X4.2639 Y4.7567 Z0.1104 I-0.005 J0.0001
X4.2739 Y4.7565 Z0.1098 I0.005 J-0.0001
X4.2639 Y4.7567 Z0.1093 I-0.005 J0.0001
X4.2739 Y4.7565 Z0.1087 I0.005 J-0.0001
X4.2639 Y4.7567 Z0.1082 I-0.005 J0.0001
X4.2739 Y4.7565 Z0.1076 I0.005 J-0.0001
X4.2639 Y4.7567 Z0.1071 I-0.005 J0.0001
X4.2739 Y4.7565 Z0.1065 I0.005 J-0.0001
X4.2639 Y4.7567 Z0.106 I-0.005 J0.0001
X4.2739 Y4.7565 Z0.1054 I0.005 J-0.0001
X4.2639 Y4.7567 Z0.1049 I-0.005 J0.0001
X4.2739 Y4.7565 Z0.1043 I0.005 J-0.0001
X4.2639 Y4.7567 Z0.1038 I-0.005 J0.0001
X4.2739 Y4.7565 Z0.1032 I0.005 J-0.0001
X4.2639 Y4.7567 Z0.1027 I-0.005 J0.0001
X4.2739 Y4.7565 Z0.1022 I0.005 J-0.0001
X4.2639 Y4.7567 Z0.1016 I-0.005 J0.0001
X4.2739 Y4.7565 Z0.1011 I0.005 J-0.0001
X4.2639 Y4.7567 Z0.1005 I-0.005 J0.0001
X4.2739 Y4.7565 Z0.1 I0.005 J-0.0001
X4.2639 Y4.7567 Z0.0994 I-0.005 J0.0001
X4.2739 Y4.7565 Z0.0989 I0.005 J-0.0001
X4.2639 Y4.7567 Z0.0983 I-0.005 J0.0001
X4.2739 Y4.7565 Z0.0978 I0.005 J-0.0001
X4.2639 Y4.7567 Z0.0972 I-0.005 J0.0001
X4.2739 Y4.7565 Z0.0967 I0.005 J-0.0001
X4.2639 Y4.7567 Z0.0961 I-0.005 J0.0001
X4.2739 Y4.7565 Z0.0956 I0.005 J-0.0001
X4.2639 Y4.7567 Z0.095 I-0.005 J0.0001
X4.2739 Y4.7565 Z0.0945 I0.005 J-0.0001
X4.2639 Y4.7567 Z0.0939 I-0.005 J0.0001
X4.2739 Y4.7565 Z0.0934 I0.005 J-0.0001
X4.2639 Y4.7567 Z0.0928 I-0.005 J0.0001
X4.2739 Y4.7565 Z0.0923 I0.005 J-0.0001
X4.2639 Y4.7567 Z0.0917 I-0.005 J0.0001
X4.2739 Y4.7565 Z0.0912 I0.005 J-0.0001
X4.2639 Y4.7567 Z0.0906 I-0.005 J0.0001
X4.2739 Y4.7565 Z0.0901 I0.005 J-0.0001
X4.2639 Y4.7567 Z0.0895 I-0.005 J0.0001
X4.2739 Y4.7565 Z0.089 I0.005 J-0.0001
X4.2639 Y4.7567 Z0.0884 I-0.005 J0.0001
X4.2739 Y4.7565 Z0.0879 I0.005 J-0.0001
X4.2639 Y4.7567 Z0.0873 I-0.005 J0.0001
X4.2739 Y4.7565 Z0.0868 I0.005 J-0.0001
X4.2639 Y4.7567 Z0.0862 I-0.005 J0.0001
X4.2739 Y4.7565 Z0.0857 I0.005 J-0.0001
X4.2639 Y4.7567 Z0.0851 I-0.005 J0.0001
X4.2739 Y4.7565 Z0.0846 I0.005 J-0.0001
X4.2639 Y4.7567 Z0.084 I-0.005 J0.0001
X4.2739 Y4.7565 Z0.0835 I0.005 J-0.0001
X4.2639 Y4.7567 Z0.083 I-0.005 J0.0001
X4.2739 Y4.7565 Z0.0824 I0.005 J-0.0001
X4.2639 Y4.7567 Z0.0819 I-0.005 J0.0001
X4.2739 Y4.7565 Z0.0813 I0.005 J-0.0001
X4.2639 Y4.7567 Z0.0808 I-0.005 J0.0001
X4.2739 Y4.7565 Z0.0802 I0.005 J-0.0001
X4.2639 Y4.7567 Z0.0797 I-0.005 J0.0001
X4.2739 Y4.7565 Z0.0791 I0.005 J-0.0001
X4.2639 Y4.7567 Z0.0786 I-0.005 J0.0001
X4.2739 Y4.7565 Z0.078 I0.005 J-0.0001
X4.2639 Y4.7567 Z0.0775 I-0.005 J0.0001
X4.2739 Y4.7565 Z0.0769 I0.005 J-0.0001
X4.2639 Y4.7567 Z0.0764 I-0.005 J0.0001
X4.2739 Y4.7565 Z0.0758 I0.005 J-0.0001
X4.2639 Y4.7567 Z0.0753 I-0.005 J0.0001
X4.2739 Y4.7565 Z0.0747 I0.005 J-0.0001
X4.2639 Y4.7567 Z0.0742 I-0.005 J0.0001
X4.2739 Y4.7565 Z0.0736 I0.005 J-0.0001
X4.2639 Y4.7567 Z0.0731 I-0.005 J0.0001
X4.2739 Y4.7565 Z0.0725 I0.005 J-0.0001
X4.2639 Y4.7567 Z0.072 I-0.005 J0.0001
X4.2739 Y4.7565 Z0.0714 I0.005 J-0.0001
X4.2639 Y4.7567 Z0.0709 I-0.005 J0.0001
X4.2739 Y4.7565 Z0.0703 I0.005 J-0.0001
X4.2639 Y4.7567 Z0.0698 I-0.005 J0.0001
X4.2739 Y4.7565 Z0.0692 I0.005 J-0.0001
X4.2639 Y4.7567 Z0.0687 I-0.005 J0.0001
X4.2739 Y4.7565 Z0.0681 I0.005 J-0.0001
X4.2639 Y4.7567 Z0.0676 I-0.005 J0.0001
X4.2739 Y4.7565 Z0.067 I0.005 J-0.0001
X4.2639 Y4.7567 Z0.0665 I-0.005 J0.0001
X4.2739 Y4.7565 Z0.0659 I0.005 J-0.0001
X4.2639 Y4.7567 Z0.0654 I-0.005 J0.0001
X4.2739 Y4.7565 Z0.0649 I0.005 J-0.0001
X4.2639 Y4.7567 Z0.0643 I-0.005 J0.0001
X4.2739 Y4.7565 Z0.0638 I0.005 J-0.0001
X4.2639 Y4.7567 Z0.0632 I-0.005 J0.0001
X4.2739 Y4.7565 Z0.0627 I0.005 J-0.0001
X4.2639 Y4.7567 Z0.0621 I-0.005 J0.0001
X4.2739 Y4.7565 Z0.0616 I0.005 J-0.0001
X4.2639 Y4.7567 Z0.061 I-0.005 J0.0001
X4.2739 Y4.7565 Z0.0605 I0.005 J-0.0001
X4.2639 Y4.7567 Z0.0599 I-0.005 J0.0001
X4.2739 Y4.7565 Z0.0594 I0.005 J-0.0001
X4.2639 Y4.7567 Z0.0588 I-0.005 J0.0001
X4.2739 Y4.7565 Z0.0583 I0.005 J-0.0001
X4.2639 Y4.7567 Z0.0577 I-0.005 J0.0001
X4.2739 Y4.7565 Z0.0572 I0.005 J-0.0001
X4.2639 Y4.7567 Z0.0566 I-0.005 J0.0001
X4.2739 Y4.7565 Z0.0561 I0.005 J-0.0001
X4.2639 Y4.7567 Z0.0555 I-0.005 J0.0001
X4.2739 Y4.7565 Z0.055 I0.005 J-0.0001
X4.2639 Y4.7567 Z0.0544 I-0.005 J0.0001
X4.2739 Y4.7565 Z0.0539 I0.005 J-0.0001
X4.2639 Y4.7567 Z0.0533 I-0.005 J0.0001
X4.2739 Y4.7565 Z0.0528 I0.005 J-0.0001
X4.2639 Y4.7567 Z0.0522 I-0.005 J0.0001
X4.2739 Y4.7565 Z0.0517 I0.005 J-0.0001
X4.2639 Y4.7567 Z0.0511 I-0.005 J0.0001
X4.2739 Y4.7565 Z0.0506 I0.005 J-0.0001
X4.2639 Y4.7567 Z0.05 I-0.005 J0.0001
X4.2739 Y4.7565 Z0.0495 I0.005 J-0.0001
X4.2639 Y4.7567 Z0.0489 I-0.005 J0.0001
X4.2739 Y4.7565 Z0.0484 I0.005 J-0.0001
X4.2639 Y4.7567 Z0.0478 I-0.005 J0.0001
X4.2739 Y4.7565 Z0.0473 I0.005 J-0.0001
X4.2639 Y4.7567 Z0.0467 I-0.005 J0.0001
X4.2739 Y4.7565 Z0.0462 I0.005 J-0.0001
X4.2639 Y4.7567 Z0.0457 I-0.005 J0.0001
X4.2739 Y4.7565 Z0.0451 I0.005 J-0.0001
X4.2639 Y4.7567 Z0.0446 I-0.005 J0.0001
X4.2739 Y4.7565 Z0.044 I0.005 J-0.0001
X4.2639 Y4.7567 Z0.0435 I-0.005 J0.0001
X4.2739 Y4.7565 Z0.0429 I0.005 J-0.0001
X4.2639 Y4.7567 Z0.0424 I-0.005 J0.0001
X4.2739 Y4.7565 Z0.0418 I0.005 J-0.0001
X4.2639 Y4.7567 Z0.0413 I-0.005 J0.0001
X4.2739 Y4.7565 Z0.0407 I0.005 J-0.0001
X4.2639 Y4.7567 Z0.0402 I-0.005 J0.0001
X4.2739 Y4.7565 Z0.0396 I0.005 J-0.0001
X4.2639 Y4.7567 Z0.0391 I-0.005 J0.0001
X4.2739 Y4.7565 Z0.0385 I0.005 J-0.0001
X4.2639 Y4.7567 Z0.038 I-0.005 J0.0001
X4.2739 Y4.7565 Z0.0374 I0.005 J-0.0001
X4.2639 Y4.7567 Z0.0369 I-0.005 J0.0001
X4.2739 Y4.7565 Z0.0363 I0.005 J-0.0001
X4.2639 Y4.7567 Z0.0358 I-0.005 J0.0001
X4.2739 Y4.7565 Z0.0352 I0.005 J-0.0001
X4.2639 Y4.7567 Z0.0347 I-0.005 J0.0001
X4.2739 Y4.7565 Z0.0341 I0.005 J-0.0001
X4.2639 Y4.7567 Z0.0336 I-0.005 J0.0001
X4.2739 Y4.7565 Z0.033 I0.005 J-0.0001
X4.2639 Y4.7567 Z0.0325 I-0.005 J0.0001
X4.2739 Y4.7565 Z0.0319 I0.005 J-0.0001
X4.2639 Y4.7567 Z0.0314 I-0.005 J0.0001
X4.2739 Y4.7565 Z0.0308 I0.005 J-0.0001
X4.2639 Y4.7567 Z0.0303 I-0.005 J0.0001
X4.2739 Y4.7565 Z0.0297 I0.005 J-0.0001
X4.2639 Y4.7567 Z0.0292 I-0.005 J0.0001
X4.2739 Y4.7565 Z0.0286 I0.005 J-0.0001
X4.2639 Y4.7567 Z0.0281 I-0.005 J0.0001
X4.2739 Y4.7565 Z0.0276 I0.005 J-0.0001
X4.2639 Y4.7567 Z0.027 I-0.005 J0.0001
X4.2739 Y4.7565 Z0.0265 I0.005 J-0.0001
X4.2639 Y4.7567 Z0.0259 I-0.005 J0.0001
X4.2739 Y4.7565 Z0.0254 I0.005 J-0.0001
X4.2639 Y4.7567 Z0.0248 I-0.005 J0.0001
X4.2739 Y4.7565 Z0.0243 I0.005 J-0.0001
X4.2639 Y4.7567 Z0.0237 I-0.005 J0.0001
X4.2739 Y4.7565 Z0.0232 I0.005 J-0.0001
X4.2639 Y4.7567 Z0.0226 I-0.005 J0.0001
X4.2739 Y4.7565 Z0.0221 I0.005 J-0.0001
X4.2639 Y4.7567 Z0.0215 I-0.005 J0.0001
X4.2739 Y4.7565 Z0.021 I0.005 J-0.0001
X4.269 Y4.7616 Z0.0207 I-0.005 J0.0001
X4.2639 Y4.7566 Z0.0204 I0. J-0.005
X4.2994 I0.0177 J0. F40.
X4.1518 I-0.0738 J0.
X4.2994 I0.0738 J0.
G1 X4.2992 Y4.7579
X4.2984 Y4.7589
X4.2973 Y4.7596
X4.296 Y4.7597
X4.2808 Y4.7584
X4.2678 Y4.7582
X4.2665 Y4.758
X4.2655 Y4.7572
X4.2648 Y4.7561
X4.2647 Y4.7548
X4.2651 Y4.7535
X4.266 Y4.7526
G3 X4.2719 Y4.7606 Z0.0199 I0.003 J0.004 F20.
X4.266 Y4.7526 Z0.0193 I-0.003 J-0.004
X4.2719 Y4.7606 Z0.0188 I0.003 J0.004
X4.266 Y4.7526 Z0.0182 I-0.003 J-0.004
X4.2719 Y4.7606 Z0.0177 I0.003 J0.004
X4.266 Y4.7526 Z0.0171 I-0.003 J-0.004
X4.2719 Y4.7606 Z0.0166 I0.003 J0.004
X4.266 Y4.7526 Z0.016 I-0.003 J-0.004
X4.2719 Y4.7606 Z0.0155 I0.003 J0.004
X4.266 Y4.7526 Z0.0149 I-0.003 J-0.004
X4.2719 Y4.7606 Z0.0144 I0.003 J0.004
X4.266 Y4.7526 Z0.0138 I-0.003 J-0.004
X4.2719 Y4.7606 Z0.0133 I0.003 J0.004
X4.266 Y4.7526 Z0.0127 I-0.003 J-0.004
X4.2719 Y4.7606 Z0.0122 I0.003 J0.004
X4.266 Y4.7526 Z0.0116 I-0.003 J-0.004
X4.2719 Y4.7606 Z0.0111 I0.003 J0.004
X4.266 Y4.7526 Z0.0105 I-0.003 J-0.004
X4.2719 Y4.7606 Z0.01 I0.003 J0.004
X4.266 Y4.7526 Z0.0094 I-0.003 J-0.004
X4.2719 Y4.7606 Z0.0089 I0.003 J0.004
X4.266 Y4.7526 Z0.0083 I-0.003 J-0.004
X4.2719 Y4.7606 Z0.0078 I0.003 J0.004
X4.266 Y4.7526 Z0.0073 I-0.003 J-0.004
X4.2719 Y4.7606 Z0.0067 I0.003 J0.004
X4.266 Y4.7526 Z0.0062 I-0.003 J-0.004
X4.2719 Y4.7606 Z0.0056 I0.003 J0.004
X4.266 Y4.7526 Z0.0051 I-0.003 J-0.004
X4.2719 Y4.7606 Z0.0045 I0.003 J0.004
X4.266 Y4.7526 Z0.004 I-0.003 J-0.004
X4.2719 Y4.7606 Z0.0034 I0.003 J0.004
X4.266 Y4.7526 Z0.0029 I-0.003 J-0.004
X4.2719 Y4.7606 Z0.0023 I0.003 J0.004
X4.266 Y4.7526 Z0.0018 I-0.003 J-0.004
X4.2719 Y4.7606 Z0.0012 I0.003 J0.004
X4.2639 Y4.7566 Z0.0008 I-0.003 J-0.004
X4.2994 I0.0177 J0. F40.
X4.1518 I-0.0738 J0.
X4.2994 I0.0738 J0.
G1 X4.2992 Y4.7579
X4.2984 Y4.7589
X4.2973 Y4.7596
X4.296 Y4.7597
X4.2808 Y4.7584
X4.2678 Y4.7582
X4.2665 Y4.758
X4.2655 Y4.7572
X4.2648 Y4.7561
X4.2647 Y4.7548
X4.2651 Y4.7535
X4.266 Y4.7526
G3 X4.2719 Y4.7606 Z0.0003 I0.003 J0.004 F20.
X4.266 Y4.7526 Z-0.0003 I-0.003 J-0.004
X4.2719 Y4.7606 Z-0.0008 I0.003 J0.004
X4.266 Y4.7526 Z-0.0014 I-0.003 J-0.004
X4.2719 Y4.7606 Z-0.0019 I0.003 J0.004
X4.266 Y4.7526 Z-0.0025 I-0.003 J-0.004
X4.2719 Y4.7606 Z-0.003 I0.003 J0.004
X4.266 Y4.7526 Z-0.0036 I-0.003 J-0.004
X4.2719 Y4.7606 Z-0.0041 I0.003 J0.004
X4.266 Y4.7526 Z-0.0047 I-0.003 J-0.004
X4.2719 Y4.7606 Z-0.0052 I0.003 J0.004
X4.266 Y4.7526 Z-0.0057 I-0.003 J-0.004
X4.2719 Y4.7606 Z-0.0063 I0.003 J0.004
X4.266 Y4.7526 Z-0.0068 I-0.003 J-0.004
X4.2719 Y4.7606 Z-0.0074 I0.003 J0.004
X4.266 Y4.7526 Z-0.0079 I-0.003 J-0.004
X4.2719 Y4.7606 Z-0.0085 I0.003 J0.004
X4.266 Y4.7526 Z-0.009 I-0.003 J-0.004
X4.2719 Y4.7606 Z-0.0096 I0.003 J0.004
X4.266 Y4.7526 Z-0.0101 I-0.003 J-0.004
X4.2719 Y4.7606 Z-0.0107 I0.003 J0.004
X4.266 Y4.7526 Z-0.0112 I-0.003 J-0.004
X4.2719 Y4.7606 Z-0.0118 I0.003 J0.004
X4.266 Y4.7526 Z-0.0123 I-0.003 J-0.004
X4.2719 Y4.7606 Z-0.0129 I0.003 J0.004
X4.266 Y4.7526 Z-0.0134 I-0.003 J-0.004
X4.2719 Y4.7606 Z-0.014 I0.003 J0.004
X4.266 Y4.7526 Z-0.0145 I-0.003 J-0.004
X4.2719 Y4.7606 Z-0.0151 I0.003 J0.004
X4.266 Y4.7526 Z-0.0156 I-0.003 J-0.004
X4.2719 Y4.7606 Z-0.0162 I0.003 J0.004
X4.266 Y4.7526 Z-0.0167 I-0.003 J-0.004
X4.2719 Y4.7606 Z-0.0173 I0.003 J0.004
X4.266 Y4.7526 Z-0.0178 I-0.003 J-0.004
X4.2719 Y4.7606 Z-0.0184 I0.003 J0.004
X4.2639 Y4.7566 Z-0.0187 I-0.003 J-0.004
X4.2994 I0.0177 J0. F40.
X4.1518 I-0.0738 J0.
X4.2994 I0.0738 J0.
G1 X4.2992 Y4.7579
X4.2984 Y4.7589
X4.2973 Y4.7596
X4.296 Y4.7597
X4.2808 Y4.7584
X4.2678 Y4.7582
X4.2665 Y4.758
X4.2655 Y4.7572
X4.2648 Y4.7561
X4.2647 Y4.7548
X4.2651 Y4.7535
X4.266 Y4.7526
G3 X4.2719 Y4.7606 Z-0.0193 I0.003 J0.004 F20.
X4.266 Y4.7526 Z-0.0198 I-0.003 J-0.004
X4.2719 Y4.7606 Z-0.0204 I0.003 J0.004
X4.266 Y4.7526 Z-0.0209 I-0.003 J-0.004
X4.2719 Y4.7606 Z-0.0215 I0.003 J0.004
X4.266 Y4.7526 Z-0.022 I-0.003 J-0.004
X4.2719 Y4.7606 Z-0.0226 I0.003 J0.004
X4.266 Y4.7526 Z-0.0231 I-0.003 J-0.004
X4.2719 Y4.7606 Z-0.0237 I0.003 J0.004
X4.266 Y4.7526 Z-0.0242 I-0.003 J-0.004
X4.2719 Y4.7606 Z-0.0248 I0.003 J0.004
X4.266 Y4.7526 Z-0.0253 I-0.003 J-0.004
X4.2719 Y4.7606 Z-0.0259 I0.003 J0.004
X4.266 Y4.7526 Z-0.0264 I-0.003 J-0.004
X4.2719 Y4.7606 Z-0.027 I0.003 J0.004
X4.266 Y4.7526 Z-0.0275 I-0.003 J-0.004
X4.2719 Y4.7606 Z-0.0281 I0.003 J0.004
X4.266 Y4.7526 Z-0.0286 I-0.003 J-0.004
X4.2719 Y4.7606 Z-0.0292 I0.003 J0.004
X4.266 Y4.7526 Z-0.0297 I-0.003 J-0.004
X4.2719 Y4.7606 Z-0.0303 I0.003 J0.004
X4.266 Y4.7526 Z-0.0308 I-0.003 J-0.004
X4.2719 Y4.7606 Z-0.0314 I0.003 J0.004
X4.266 Y4.7526 Z-0.0319 I-0.003 J-0.004
X4.2719 Y4.7606 Z-0.0325 I0.003 J0.004
X4.266 Y4.7526 Z-0.033 I-0.003 J-0.004
X4.2719 Y4.7606 Z-0.0336 I0.003 J0.004
X4.266 Y4.7526 Z-0.0341 I-0.003 J-0.004
X4.2719 Y4.7606 Z-0.0347 I0.003 J0.004
X4.266 Y4.7526 Z-0.0352 I-0.003 J-0.004
X4.2719 Y4.7606 Z-0.0358 I0.003 J0.004
X4.266 Y4.7526 Z-0.0363 I-0.003 J-0.004
X4.2719 Y4.7606 Z-0.0369 I0.003 J0.004
X4.266 Y4.7526 Z-0.0374 I-0.003 J-0.004
X4.2719 Y4.7606 Z-0.0379 I0.003 J0.004
X4.2639 Y4.7566 Z-0.0383 I-0.003 J-0.004
X4.2994 I0.0177 J0. F40.
X4.1518 I-0.0738 J0.
X4.2994 I0.0738 J0.
G1 X4.2992 Y4.7579
X4.2984 Y4.7589
X4.2973 Y4.7596
X4.296 Y4.7597
X4.2808 Y4.7584
X4.2678 Y4.7582
X4.2665 Y4.758
X4.2655 Y4.7572
X4.2648 Y4.7561
X4.2647 Y4.7548
X4.2651 Y4.7535
X4.266 Y4.7526
G3 X4.2719 Y4.7606 Z-0.0389 I0.003 J0.004 F20.
X4.266 Y4.7526 Z-0.0394 I-0.003 J-0.004
X4.2719 Y4.7606 Z-0.04 I0.003 J0.004
X4.266 Y4.7526 Z-0.0405 I-0.003 J-0.004
X4.2719 Y4.7606 Z-0.0411 I0.003 J0.004
X4.266 Y4.7526 Z-0.0416 I-0.003 J-0.004
X4.2719 Y4.7606 Z-0.0422 I0.003 J0.004
X4.266 Y4.7526 Z-0.0427 I-0.003 J-0.004
X4.2719 Y4.7606 Z-0.0433 I0.003 J0.004
X4.266 Y4.7526 Z-0.0438 I-0.003 J-0.004
X4.2719 Y4.7606 Z-0.0444 I0.003 J0.004
X4.266 Y4.7526 Z-0.0449 I-0.003 J-0.004
X4.2719 Y4.7606 Z-0.0455 I0.003 J0.004
X4.266 Y4.7526 Z-0.046 I-0.003 J-0.004
X4.2719 Y4.7606 Z-0.0466 I0.003 J0.004
X4.266 Y4.7526 Z-0.0471 I-0.003 J-0.004
X4.2719 Y4.7606 Z-0.0477 I0.003 J0.004
X4.266 Y4.7526 Z-0.0482 I-0.003 J-0.004
X4.2719 Y4.7606 Z-0.0488 I0.003 J0.004
X4.266 Y4.7526 Z-0.0493 I-0.003 J-0.004
X4.2719 Y4.7606 Z-0.0499 I0.003 J0.004
X4.266 Y4.7526 Z-0.0504 I-0.003 J-0.004
X4.2719 Y4.7606 Z-0.0509 I0.003 J0.004
X4.266 Y4.7526 Z-0.0515 I-0.003 J-0.004
X4.2719 Y4.7606 Z-0.052 I0.003 J0.004
X4.266 Y4.7526 Z-0.0526 I-0.003 J-0.004
X4.2719 Y4.7606 Z-0.0531 I0.003 J0.004
X4.266 Y4.7526 Z-0.0537 I-0.003 J-0.004
X4.2719 Y4.7606 Z-0.0542 I0.003 J0.004
X4.266 Y4.7526 Z-0.0548 I-0.003 J-0.004
X4.2719 Y4.7606 Z-0.0553 I0.003 J0.004
X4.266 Y4.7526 Z-0.0559 I-0.003 J-0.004
X4.2719 Y4.7606 Z-0.0564 I0.003 J0.004
X4.266 Y4.7526 Z-0.057 I-0.003 J-0.004
X4.2719 Y4.7606 Z-0.0575 I0.003 J0.004
X4.2639 Y4.7566 Z-0.0579 I-0.003 J-0.004
X4.2994 I0.0177 J0. F40.
X4.1518 I-0.0738 J0.
X4.2994 I0.0738 J0.
G1 X4.2992 Y4.7579
X4.2984 Y4.7589
X4.2973 Y4.7596
X4.296 Y4.7597
X4.2808 Y4.7584
X4.2678 Y4.7582
X4.2665 Y4.758
X4.2655 Y4.7572
X4.2648 Y4.7561
X4.2647 Y4.7548
X4.2651 Y4.7535
X4.266 Y4.7526
G3 X4.2719 Y4.7606 Z-0.0585 I0.003 J0.004 F20.
X4.266 Y4.7526 Z-0.059 I-0.003 J-0.004
X4.2719 Y4.7606 Z-0.0596 I0.003 J0.004
X4.266 Y4.7526 Z-0.0601 I-0.003 J-0.004
X4.2719 Y4.7606 Z-0.0607 I0.003 J0.004
X4.266 Y4.7526 Z-0.0612 I-0.003 J-0.004
X4.2719 Y4.7606 Z-0.0618 I0.003 J0.004
X4.266 Y4.7526 Z-0.0623 I-0.003 J-0.004
X4.2719 Y4.7606 Z-0.0629 I0.003 J0.004
X4.266 Y4.7526 Z-0.0634 I-0.003 J-0.004
X4.2719 Y4.7606 Z-0.064 I0.003 J0.004
X4.266 Y4.7526 Z-0.0645 I-0.003 J-0.004
X4.2719 Y4.7606 Z-0.065 I0.003 J0.004
X4.266 Y4.7526 Z-0.0656 I-0.003 J-0.004
X4.2719 Y4.7606 Z-0.0661 I0.003 J0.004
X4.266 Y4.7526 Z-0.0667 I-0.003 J-0.004
X4.2719 Y4.7606 Z-0.0672 I0.003 J0.004
X4.266 Y4.7526 Z-0.0678 I-0.003 J-0.004
X4.2719 Y4.7606 Z-0.0683 I0.003 J0.004
X4.266 Y4.7526 Z-0.0689 I-0.003 J-0.004
X4.2719 Y4.7606 Z-0.0694 I0.003 J0.004
X4.266 Y4.7526 Z-0.07 I-0.003 J-0.004
X4.2719 Y4.7606 Z-0.0705 I0.003 J0.004
X4.266 Y4.7526 Z-0.0711 I-0.003 J-0.004
X4.2719 Y4.7606 Z-0.0716 I0.003 J0.004
X4.266 Y4.7526 Z-0.0722 I-0.003 J-0.004
X4.2719 Y4.7606 Z-0.0727 I0.003 J0.004
X4.266 Y4.7526 Z-0.0733 I-0.003 J-0.004
X4.2719 Y4.7606 Z-0.0738 I0.003 J0.004
X4.266 Y4.7526 Z-0.0744 I-0.003 J-0.004
X4.2719 Y4.7606 Z-0.0749 I0.003 J0.004
X4.266 Y4.7526 Z-0.0755 I-0.003 J-0.004
X4.2719 Y4.7606 Z-0.076 I0.003 J0.004
X4.266 Y4.7526 Z-0.0766 I-0.003 J-0.004
X4.2719 Y4.7606 Z-0.0771 I0.003 J0.004
X4.2639 Y4.7566 Z-0.0775 I-0.003 J-0.004
X4.2994 I0.0177 J0. F40.
X4.1518 I-0.0738 J0.
X4.2994 I0.0738 J0.
G1 X4.2992 Y4.7579
X4.2984 Y4.7589
X4.2973 Y4.7596
X4.296 Y4.7597
X4.2808 Y4.7584
X4.2678 Y4.7582
X4.2665 Y4.758
X4.2655 Y4.7572
X4.2648 Y4.7561
X4.2647 Y4.7548
X4.2651 Y4.7535
X4.266 Y4.7526
G3 X4.2719 Y4.7606 Z-0.078 I0.003 J0.004 F20.
X4.266 Y4.7526 Z-0.0786 I-0.003 J-0.004
X4.2719 Y4.7606 Z-0.0791 I0.003 J0.004
X4.266 Y4.7526 Z-0.0797 I-0.003 J-0.004
X4.2719 Y4.7606 Z-0.0802 I0.003 J0.004
X4.266 Y4.7526 Z-0.0808 I-0.003 J-0.004
X4.2719 Y4.7606 Z-0.0813 I0.003 J0.004
X4.266 Y4.7526 Z-0.0819 I-0.003 J-0.004
X4.2719 Y4.7606 Z-0.0824 I0.003 J0.004
X4.266 Y4.7526 Z-0.083 I-0.003 J-0.004
X4.2719 Y4.7606 Z-0.0835 I0.003 J0.004
X4.266 Y4.7526 Z-0.0841 I-0.003 J-0.004
X4.2719 Y4.7606 Z-0.0846 I0.003 J0.004
X4.266 Y4.7526 Z-0.0852 I-0.003 J-0.004
X4.2719 Y4.7606 Z-0.0857 I0.003 J0.004
X4.266 Y4.7526 Z-0.0863 I-0.003 J-0.004
X4.2719 Y4.7606 Z-0.0868 I0.003 J0.004
X4.266 Y4.7526 Z-0.0874 I-0.003 J-0.004
X4.2719 Y4.7606 Z-0.0879 I0.003 J0.004
X4.266 Y4.7526 Z-0.0885 I-0.003 J-0.004
X4.2719 Y4.7606 Z-0.089 I0.003 J0.004
X4.266 Y4.7526 Z-0.0896 I-0.003 J-0.004
X4.2719 Y4.7606 Z-0.0901 I0.003 J0.004
X4.266 Y4.7526 Z-0.0907 I-0.003 J-0.004
X4.2719 Y4.7606 Z-0.0912 I0.003 J0.004
X4.266 Y4.7526 Z-0.0918 I-0.003 J-0.004
X4.2719 Y4.7606 Z-0.0923 I0.003 J0.004
X4.266 Y4.7526 Z-0.0929 I-0.003 J-0.004
X4.2719 Y4.7606 Z-0.0934 I0.003 J0.004
X4.266 Y4.7526 Z-0.094 I-0.003 J-0.004
X4.2719 Y4.7606 Z-0.0945 I0.003 J0.004
X4.266 Y4.7526 Z-0.0951 I-0.003 J-0.004
X4.2719 Y4.7606 Z-0.0956 I0.003 J0.004
X4.266 Y4.7526 Z-0.0962 I-0.003 J-0.004
X4.2719 Y4.7606 Z-0.0967 I0.003 J0.004
X4.2639 Y4.7566 Z-0.0971 I-0.003 J-0.004
X4.2994 I0.0177 J0. F40.
X4.1518 I-0.0738 J0.
X4.2994 I0.0738 J0.
G1 X4.2992 Y4.7579
X4.2984 Y4.7589
X4.2973 Y4.7596
X4.296 Y4.7597
X4.2808 Y4.7584
X4.2678 Y4.7582
X4.2665 Y4.758
X4.2655 Y4.7572
X4.2648 Y4.7561
X4.2647 Y4.7548
X4.2651 Y4.7535
X4.266 Y4.7526
G3 X4.2719 Y4.7606 Z-0.0976 I0.003 J0.004 F20.
X4.266 Y4.7526 Z-0.0982 I-0.003 J-0.004
X4.2719 Y4.7606 Z-0.0987 I0.003 J0.004
X4.266 Y4.7526 Z-0.0993 I-0.003 J-0.004
X4.2719 Y4.7606 Z-0.0998 I0.003 J0.004
X4.266 Y4.7526 Z-0.1004 I-0.003 J-0.004
X4.2719 Y4.7606 Z-0.1009 I0.003 J0.004
X4.266 Y4.7526 Z-0.1015 I-0.003 J-0.004
X4.2719 Y4.7606 Z-0.102 I0.003 J0.004
X4.266 Y4.7526 Z-0.1026 I-0.003 J-0.004
X4.2719 Y4.7606 Z-0.1031 I0.003 J0.004
X4.266 Y4.7526 Z-0.1037 I-0.003 J-0.004
X4.2719 Y4.7606 Z-0.1042 I0.003 J0.004
X4.266 Y4.7526 Z-0.1048 I-0.003 J-0.004
X4.2719 Y4.7606 Z-0.1053 I0.003 J0.004
X4.266 Y4.7526 Z-0.1059 I-0.003 J-0.004
X4.2719 Y4.7606 Z-0.1064 I0.003 J0.004
X4.266 Y4.7526 Z-0.107 I-0.003 J-0.004
X4.2719 Y4.7606 Z-0.1075 I0.003 J0.004
X4.266 Y4.7526 Z-0.1081 I-0.003 J-0.004
X4.2719 Y4.7606 Z-0.1086 I0.003 J0.004
X4.266 Y4.7526 Z-0.1092 I-0.003 J-0.004
X4.2719 Y4.7606 Z-0.1097 I0.003 J0.004
X4.266 Y4.7526 Z-0.1102 I-0.003 J-0.004
X4.2719 Y4.7606 Z-0.1108 I0.003 J0.004
X4.266 Y4.7526 Z-0.1113 I-0.003 J-0.004
X4.2719 Y4.7606 Z-0.1119 I0.003 J0.004
X4.266 Y4.7526 Z-0.1124 I-0.003 J-0.004
X4.2719 Y4.7606 Z-0.113 I0.003 J0.004
X4.266 Y4.7526 Z-0.1135 I-0.003 J-0.004
X4.2719 Y4.7606 Z-0.1141 I0.003 J0.004
X4.266 Y4.7526 Z-0.1146 I-0.003 J-0.004
X4.2719 Y4.7606 Z-0.1152 I0.003 J0.004
X4.266 Y4.7526 Z-0.1157 I-0.003 J-0.004
X4.2719 Y4.7606 Z-0.1163 I0.003 J0.004
X4.2639 Y4.7566 Z-0.1167 I-0.003 J-0.004
X4.2994 I0.0177 J0. F40.
X4.1518 I-0.0738 J0.
X4.2994 I0.0738 J0.
G1 X4.2992 Y4.7579
X4.2984 Y4.7589
X4.2973 Y4.7596
X4.296 Y4.7597
X4.2808 Y4.7584
X4.2678 Y4.7582
X4.2665 Y4.758
X4.2655 Y4.7572
X4.2648 Y4.7561
X4.2647 Y4.7548
X4.2651 Y4.7535
X4.266 Y4.7526
G3 X4.2719 Y4.7606 Z-0.1172 I0.003 J0.004 F20.
X4.266 Y4.7526 Z-0.1178 I-0.003 J-0.004
X4.2719 Y4.7606 Z-0.1183 I0.003 J0.004
X4.266 Y4.7526 Z-0.1189 I-0.003 J-0.004
X4.2719 Y4.7606 Z-0.1194 I0.003 J0.004
X4.266 Y4.7526 Z-0.12 I-0.003 J-0.004
X4.2719 Y4.7606 Z-0.1205 I0.003 J0.004
X4.266 Y4.7526 Z-0.1211 I-0.003 J-0.004
X4.2719 Y4.7606 Z-0.1216 I0.003 J0.004
X4.266 Y4.7526 Z-0.1222 I-0.003 J-0.004
X4.2719 Y4.7606 Z-0.1227 I0.003 J0.004
X4.266 Y4.7526 Z-0.1232 I-0.003 J-0.004
X4.2719 Y4.7606 Z-0.1238 I0.003 J0.004
X4.266 Y4.7526 Z-0.1243 I-0.003 J-0.004
X4.2719 Y4.7606 Z-0.1249 I0.003 J0.004
X4.266 Y4.7526 Z-0.1254 I-0.003 J-0.004
X4.2719 Y4.7606 Z-0.126 I0.003 J0.004
X4.266 Y4.7526 Z-0.1265 I-0.003 J-0.004
X4.2719 Y4.7606 Z-0.1271 I0.003 J0.004
X4.266 Y4.7526 Z-0.1276 I-0.003 J-0.004
X4.2719 Y4.7606 Z-0.1282 I0.003 J0.004
X4.266 Y4.7526 Z-0.1287 I-0.003 J-0.004
X4.2719 Y4.7606 Z-0.1293 I0.003 J0.004
X4.266 Y4.7526 Z-0.1298 I-0.003 J-0.004
X4.2719 Y4.7606 Z-0.1304 I0.003 J0.004
X4.266 Y4.7526 Z-0.1309 I-0.003 J-0.004
X4.2719 Y4.7606 Z-0.1315 I0.003 J0.004
X4.266 Y4.7526 Z-0.132 I-0.003 J-0.004
X4.2719 Y4.7606 Z-0.1326 I0.003 J0.004
X4.266 Y4.7526 Z-0.1331 I-0.003 J-0.004
X4.2719 Y4.7606 Z-0.1337 I0.003 J0.004
X4.266 Y4.7526 Z-0.1342 I-0.003 J-0.004
X4.2719 Y4.7606 Z-0.1348 I0.003 J0.004
X4.266 Y4.7526 Z-0.1353 I-0.003 J-0.004
X4.2719 Y4.7606 Z-0.1359 I0.003 J0.004
X4.2639 Y4.7566 Z-0.1363 I-0.003 J-0.004
X4.2994 I0.0177 J0. F40.
X4.1518 I-0.0738 J0.
X4.2994 I0.0738 J0.
G1 X4.2992 Y4.7579
X4.2984 Y4.7589
X4.2973 Y4.7596
X4.296 Y4.7597
X4.2808 Y4.7584
X4.2678 Y4.7582
X4.2665 Y4.758
X4.2655 Y4.7572
X4.2648 Y4.7561
X4.2647 Y4.7548
X4.2651 Y4.7535
X4.266 Y4.7526
G3 X4.2719 Y4.7606 Z-0.1368 I0.003 J0.004 F20.
X4.266 Y4.7526 Z-0.1373 I-0.003 J-0.004
X4.2719 Y4.7606 Z-0.1379 I0.003 J0.004
X4.266 Y4.7526 Z-0.1384 I-0.003 J-0.004
X4.2719 Y4.7606 Z-0.139 I0.003 J0.004
X4.266 Y4.7526 Z-0.1395 I-0.003 J-0.004
X4.2719 Y4.7606 Z-0.1401 I0.003 J0.004
X4.266 Y4.7526 Z-0.1406 I-0.003 J-0.004
X4.2719 Y4.7606 Z-0.1412 I0.003 J0.004
X4.266 Y4.7526 Z-0.1417 I-0.003 J-0.004
X4.2719 Y4.7606 Z-0.1423 I0.003 J0.004
X4.266 Y4.7526 Z-0.1428 I-0.003 J-0.004
X4.2719 Y4.7606 Z-0.1434 I0.003 J0.004
X4.266 Y4.7526 Z-0.1439 I-0.003 J-0.004
X4.2719 Y4.7606 Z-0.1445 I0.003 J0.004
X4.266 Y4.7526 Z-0.145 I-0.003 J-0.004
X4.2719 Y4.7606 Z-0.1456 I0.003 J0.004
X4.266 Y4.7526 Z-0.1461 I-0.003 J-0.004
X4.2719 Y4.7606 Z-0.1467 I0.003 J0.004
X4.266 Y4.7526 Z-0.1472 I-0.003 J-0.004
X4.2719 Y4.7606 Z-0.1478 I0.003 J0.004
X4.266 Y4.7526 Z-0.1483 I-0.003 J-0.004
X4.2719 Y4.7606 Z-0.1489 I0.003 J0.004
X4.266 Y4.7526 Z-0.1494 I-0.003 J-0.004
X4.2719 Y4.7606 Z-0.15 I0.003 J0.004
X4.266 Y4.7526 Z-0.1505 I-0.003 J-0.004
X4.2719 Y4.7606 Z-0.1511 I0.003 J0.004
X4.266 Y4.7526 Z-0.1516 I-0.003 J-0.004
X4.2719 Y4.7606 Z-0.1522 I0.003 J0.004
X4.266 Y4.7526 Z-0.1527 I-0.003 J-0.004
X4.2719 Y4.7606 Z-0.1533 I0.003 J0.004
X4.266 Y4.7526 Z-0.1538 I-0.003 J-0.004
X4.2719 Y4.7606 Z-0.1544 I0.003 J0.004
X4.266 Y4.7526 Z-0.1549 I-0.003 J-0.004
X4.2719 Y4.7606 Z-0.1554 I0.003 J0.004
X4.2639 Y4.7566 Z-0.1558 I-0.003 J-0.004
X4.2994 I0.0177 J0. F40.
X4.1518 I-0.0738 J0.
X4.2994 I0.0738 J0.
G1 X4.2992 Y4.7579
X4.2984 Y4.7589
X4.2973 Y4.7596
X4.296 Y4.7597
X4.2808 Y4.7584
X4.2678 Y4.7582
X4.2665 Y4.758
X4.2655 Y4.7572
X4.2648 Y4.7561
X4.2647 Y4.7548
X4.2651 Y4.7535
X4.266 Y4.7526
G3 X4.2719 Y4.7606 Z-0.1564 I0.003 J0.004 F20.
X4.266 Y4.7526 Z-0.1569 I-0.003 J-0.004
X4.2719 Y4.7606 Z-0.1575 I0.003 J0.004
X4.266 Y4.7526 Z-0.158 I-0.003 J-0.004
X4.2719 Y4.7606 Z-0.1586 I0.003 J0.004
X4.266 Y4.7526 Z-0.1591 I-0.003 J-0.004
X4.2719 Y4.7606 Z-0.1597 I0.003 J0.004
X4.266 Y4.7526 Z-0.1602 I-0.003 J-0.004
X4.2719 Y4.7606 Z-0.1608 I0.003 J0.004
X4.266 Y4.7526 Z-0.1613 I-0.003 J-0.004
X4.2719 Y4.7606 Z-0.1619 I0.003 J0.004
X4.266 Y4.7526 Z-0.1624 I-0.003 J-0.004
X4.2719 Y4.7606 Z-0.163 I0.003 J0.004
X4.266 Y4.7526 Z-0.1635 I-0.003 J-0.004
X4.2719 Y4.7606 Z-0.1641 I0.003 J0.004
X4.266 Y4.7526 Z-0.1646 I-0.003 J-0.004
X4.2719 Y4.7606 Z-0.1652 I0.003 J0.004
X4.266 Y4.7526 Z-0.1657 I-0.003 J-0.004
X4.2719 Y4.7606 Z-0.1663 I0.003 J0.004
X4.266 Y4.7526 Z-0.1668 I-0.003 J-0.004
X4.2719 Y4.7606 Z-0.1674 I0.003 J0.004
X4.266 Y4.7526 Z-0.1679 I-0.003 J-0.004
X4.2719 Y4.7606 Z-0.1684 I0.003 J0.004
X4.266 Y4.7526 Z-0.169 I-0.003 J-0.004
X4.2719 Y4.7606 Z-0.1695 I0.003 J0.004
X4.266 Y4.7526 Z-0.1701 I-0.003 J-0.004
X4.2719 Y4.7606 Z-0.1706 I0.003 J0.004
X4.266 Y4.7526 Z-0.1712 I-0.003 J-0.004
X4.2719 Y4.7606 Z-0.1717 I0.003 J0.004
X4.266 Y4.7526 Z-0.1723 I-0.003 J-0.004
X4.2719 Y4.7606 Z-0.1728 I0.003 J0.004
X4.266 Y4.7526 Z-0.1734 I-0.003 J-0.004
X4.2719 Y4.7606 Z-0.1739 I0.003 J0.004
X4.266 Y4.7526 Z-0.1745 I-0.003 J-0.004
X4.2719 Y4.7606 Z-0.175 I0.003 J0.004
X4.2639 Y4.7566 Z-0.1754 I-0.003 J-0.004
X4.2994 I0.0177 J0. F40.
X4.1518 I-0.0738 J0.
X4.2994 I0.0738 J0.
G1 X4.2992 Y4.7579
X4.2984 Y4.7589
X4.2973 Y4.7596
X4.296 Y4.7597
X4.2808 Y4.7584
X4.2678 Y4.7582
X4.2665 Y4.758
X4.2655 Y4.7572
X4.2648 Y4.7561
X4.2647 Y4.7548
X4.2651 Y4.7535
X4.266 Y4.7526
G3 X4.2719 Y4.7606 Z-0.176 I0.003 J0.004 F20.
X4.266 Y4.7526 Z-0.1765 I-0.003 J-0.004
X4.2719 Y4.7606 Z-0.1771 I0.003 J0.004
X4.266 Y4.7526 Z-0.1776 I-0.003 J-0.004
X4.2719 Y4.7606 Z-0.1782 I0.003 J0.004
X4.266 Y4.7526 Z-0.1787 I-0.003 J-0.004
X4.2719 Y4.7606 Z-0.1793 I0.003 J0.004
X4.266 Y4.7526 Z-0.1798 I-0.003 J-0.004
X4.2719 Y4.7606 Z-0.1804 I0.003 J0.004
X4.266 Y4.7526 Z-0.1809 I-0.003 J-0.004
X4.2719 Y4.7606 Z-0.1815 I0.003 J0.004
X4.266 Y4.7526 Z-0.182 I-0.003 J-0.004
X4.2719 Y4.7606 Z-0.1825 I0.003 J0.004
X4.266 Y4.7526 Z-0.1831 I-0.003 J-0.004
X4.2719 Y4.7606 Z-0.1836 I0.003 J0.004
X4.266 Y4.7526 Z-0.1842 I-0.003 J-0.004
X4.2719 Y4.7606 Z-0.1847 I0.003 J0.004
X4.266 Y4.7526 Z-0.1853 I-0.003 J-0.004
X4.2719 Y4.7606 Z-0.1858 I0.003 J0.004
X4.266 Y4.7526 Z-0.1864 I-0.003 J-0.004
X4.2719 Y4.7606 Z-0.1869 I0.003 J0.004
X4.266 Y4.7526 Z-0.1875 I-0.003 J-0.004
X4.2719 Y4.7606 Z-0.188 I0.003 J0.004
X4.266 Y4.7526 Z-0.1886 I-0.003 J-0.004
X4.2719 Y4.7606 Z-0.1891 I0.003 J0.004
X4.266 Y4.7526 Z-0.1897 I-0.003 J-0.004
X4.2719 Y4.7606 Z-0.1902 I0.003 J0.004
X4.266 Y4.7526 Z-0.1908 I-0.003 J-0.004
X4.2719 Y4.7606 Z-0.1913 I0.003 J0.004
X4.266 Y4.7526 Z-0.1919 I-0.003 J-0.004
X4.2719 Y4.7606 Z-0.1924 I0.003 J0.004
X4.266 Y4.7526 Z-0.193 I-0.003 J-0.004
X4.2719 Y4.7606 Z-0.1935 I0.003 J0.004
X4.266 Y4.7526 Z-0.1941 I-0.003 J-0.004
X4.2719 Y4.7606 Z-0.1946 I0.003 J0.004
X4.2639 Y4.7566 Z-0.195 I-0.003 J-0.004
X4.2994 I0.0177 J0. F40.
X4.1518 I-0.0738 J0.
X4.2994 I0.0738 J0.
G1 X4.2992 Y4.7579
X4.2984 Y4.7589
X4.2973 Y4.7596
X4.296 Y4.7597
X4.2808 Y4.7584
X4.2678 Y4.7582
X4.2665 Y4.758
X4.2655 Y4.7572
X4.2648 Y4.7561
X4.2647 Y4.7548
X4.2651 Y4.7535
X4.266 Y4.7526
G3 X4.2719 Y4.7606 Z-0.1955 I0.003 J0.004 F20.
X4.266 Y4.7526 Z-0.1961 I-0.003 J-0.004
X4.2719 Y4.7606 Z-0.1966 I0.003 J0.004
X4.266 Y4.7526 Z-0.1972 I-0.003 J-0.004
X4.2719 Y4.7606 Z-0.1977 I0.003 J0.004
X4.266 Y4.7526 Z-0.1983 I-0.003 J-0.004
X4.2719 Y4.7606 Z-0.1988 I0.003 J0.004
X4.266 Y4.7526 Z-0.1994 I-0.003 J-0.004
X4.2719 Y4.7606 Z-0.1999 I0.003 J0.004
X4.266 Y4.7526 Z-0.2005 I-0.003 J-0.004
X4.2719 Y4.7606 Z-0.201 I0.003 J0.004
X4.266 Y4.7526 Z-0.2016 I-0.003 J-0.004
X4.2719 Y4.7606 Z-0.2021 I0.003 J0.004
X4.266 Y4.7526 Z-0.2027 I-0.003 J-0.004
X4.2719 Y4.7606 Z-0.2032 I0.003 J0.004
X4.266 Y4.7526 Z-0.2038 I-0.003 J-0.004
X4.2719 Y4.7606 Z-0.2043 I0.003 J0.004
X4.266 Y4.7526 Z-0.2049 I-0.003 J-0.004
X4.2719 Y4.7606 Z-0.2054 I0.003 J0.004
X4.266 Y4.7526 Z-0.206 I-0.003 J-0.004
X4.2719 Y4.7606 Z-0.2065 I0.003 J0.004
X4.266 Y4.7526 Z-0.2071 I-0.003 J-0.004
X4.2719 Y4.7606 Z-0.2076 I0.003 J0.004
X4.266 Y4.7526 Z-0.2082 I-0.003 J-0.004
X4.2719 Y4.7606 Z-0.2087 I0.003 J0.004
X4.266 Y4.7526 Z-0.2093 I-0.003 J-0.004
X4.2719 Y4.7606 Z-0.2098 I0.003 J0.004
X4.266 Y4.7526 Z-0.2104 I-0.003 J-0.004
X4.2719 Y4.7606 Z-0.2109 I0.003 J0.004
X4.266 Y4.7526 Z-0.2115 I-0.003 J-0.004
X4.2719 Y4.7606 Z-0.212 I0.003 J0.004
X4.266 Y4.7526 Z-0.2126 I-0.003 J-0.004
X4.2719 Y4.7606 Z-0.2131 I0.003 J0.004
X4.266 Y4.7526 Z-0.2137 I-0.003 J-0.004
X4.2719 Y4.7606 Z-0.2142 I0.003 J0.004
X4.2639 Y4.7566 Z-0.2146 I-0.003 J-0.004
X4.2994 I0.0177 J0. F40.
X4.1518 I-0.0738 J0.
X4.2994 I0.0738 J0.
G1 X4.2992 Y4.7579
X4.2984 Y4.7589
X4.2973 Y4.7596
X4.296 Y4.7597
X4.2808 Y4.7584
X4.2678 Y4.7582
X4.2665 Y4.758
X4.2655 Y4.7572
X4.2648 Y4.7561
X4.2647 Y4.7548
X4.2651 Y4.7535
X4.266 Y4.7526
G3 X4.2719 Y4.7606 Z-0.2151 I0.003 J0.004 F20.
X4.266 Y4.7526 Z-0.2157 I-0.003 J-0.004
X4.2719 Y4.7606 Z-0.2162 I0.003 J0.004
X4.266 Y4.7526 Z-0.2168 I-0.003 J-0.004
X4.2719 Y4.7606 Z-0.2173 I0.003 J0.004
X4.266 Y4.7526 Z-0.2179 I-0.003 J-0.004
X4.2719 Y4.7606 Z-0.2184 I0.003 J0.004
X4.266 Y4.7526 Z-0.219 I-0.003 J-0.004
X4.2719 Y4.7606 Z-0.2195 I0.003 J0.004
X4.266 Y4.7526 Z-0.2201 I-0.003 J-0.004
X4.2719 Y4.7606 Z-0.2206 I0.003 J0.004
X4.266 Y4.7526 Z-0.2212 I-0.003 J-0.004
X4.2719 Y4.7606 Z-0.2217 I0.003 J0.004
X4.266 Y4.7526 Z-0.2223 I-0.003 J-0.004
X4.2719 Y4.7606 Z-0.2228 I0.003 J0.004
X4.266 Y4.7526 Z-0.2234 I-0.003 J-0.004
X4.2719 Y4.7606 Z-0.2239 I0.003 J0.004
X4.266 Y4.7526 Z-0.2245 I-0.003 J-0.004
X4.2719 Y4.7606 Z-0.225 I0.003 J0.004
X4.266 Y4.7526 Z-0.2256 I-0.003 J-0.004
X4.2719 Y4.7606 Z-0.2261 I0.003 J0.004
X4.266 Y4.7526 Z-0.2267 I-0.003 J-0.004
X4.2719 Y4.7606 Z-0.2272 I0.003 J0.004
X4.266 Y4.7526 Z-0.2277 I-0.003 J-0.004
X4.2719 Y4.7606 Z-0.2283 I0.003 J0.004
X4.266 Y4.7526 Z-0.2288 I-0.003 J-0.004
X4.2719 Y4.7606 Z-0.2294 I0.003 J0.004
X4.266 Y4.7526 Z-0.2299 I-0.003 J-0.004
X4.2719 Y4.7606 Z-0.2305 I0.003 J0.004
X4.266 Y4.7526 Z-0.231 I-0.003 J-0.004
X4.2719 Y4.7606 Z-0.2316 I0.003 J0.004
X4.266 Y4.7526 Z-0.2321 I-0.003 J-0.004
X4.2719 Y4.7606 Z-0.2327 I0.003 J0.004
X4.266 Y4.7526 Z-0.2332 I-0.003 J-0.004
X4.2719 Y4.7606 Z-0.2338 I0.003 J0.004
X4.2639 Y4.7566 Z-0.2342 I-0.003 J-0.004
X4.2994 I0.0177 J0. F40.
X4.1518 I-0.0738 J0.
X4.2994 I0.0738 J0.
G1 X4.2992 Y4.7579
X4.2984 Y4.7589
X4.2973 Y4.7596
X4.296 Y4.7597
X4.2808 Y4.7584
X4.2678 Y4.7582
X4.2665 Y4.758
X4.2655 Y4.7572
X4.2648 Y4.7561
X4.2647 Y4.7548
X4.2651 Y4.7535
X4.266 Y4.7526
G3 X4.2719 Y4.7606 Z-0.2347 I0.003 J0.004 F20.
X4.266 Y4.7526 Z-0.2353 I-0.003 J-0.004
X4.2719 Y4.7606 Z-0.2358 I0.003 J0.004
X4.266 Y4.7526 Z-0.2364 I-0.003 J-0.004
X4.2719 Y4.7606 Z-0.2369 I0.003 J0.004
X4.266 Y4.7526 Z-0.2375 I-0.003 J-0.004
X4.2719 Y4.7606 Z-0.238 I0.003 J0.004
X4.266 Y4.7526 Z-0.2386 I-0.003 J-0.004
X4.2719 Y4.7606 Z-0.2391 I0.003 J0.004
X4.266 Y4.7526 Z-0.2397 I-0.003 J-0.004
X4.2719 Y4.7606 Z-0.2402 I0.003 J0.004
X4.266 Y4.7526 Z-0.2407 I-0.003 J-0.004
X4.2719 Y4.7606 Z-0.2413 I0.003 J0.004
X4.266 Y4.7526 Z-0.2418 I-0.003 J-0.004
X4.2719 Y4.7606 Z-0.2424 I0.003 J0.004
X4.266 Y4.7526 Z-0.2429 I-0.003 J-0.004
X4.2719 Y4.7606 Z-0.2435 I0.003 J0.004
X4.266 Y4.7526 Z-0.244 I-0.003 J-0.004
X4.2719 Y4.7606 Z-0.2446 I0.003 J0.004
X4.266 Y4.7526 Z-0.2451 I-0.003 J-0.004
X4.2719 Y4.7606 Z-0.2457 I0.003 J0.004
X4.266 Y4.7526 Z-0.2462 I-0.003 J-0.004
X4.2719 Y4.7606 Z-0.2468 I0.003 J0.004
X4.266 Y4.7526 Z-0.2473 I-0.003 J-0.004
X4.2719 Y4.7606 Z-0.2479 I0.003 J0.004
X4.266 Y4.7526 Z-0.2484 I-0.003 J-0.004
X4.2719 Y4.7606 Z-0.249 I0.003 J0.004
X4.266 Y4.7526 Z-0.2495 I-0.003 J-0.004
X4.2719 Y4.7606 Z-0.2501 I0.003 J0.004
X4.266 Y4.7526 Z-0.2506 I-0.003 J-0.004
X4.2719 Y4.7606 Z-0.2512 I0.003 J0.004
X4.266 Y4.7526 Z-0.2517 I-0.003 J-0.004
X4.2719 Y4.7606 Z-0.2523 I0.003 J0.004
X4.266 Y4.7526 Z-0.2528 I-0.003 J-0.004
X4.2719 Y4.7606 Z-0.2534 I0.003 J0.004
X4.2639 Y4.7566 Z-0.2538 I-0.003 J-0.004
X4.2994 I0.0177 J0. F40.
X4.1518 I-0.0738 J0.
X4.2994 I0.0738 J0.
G1 X4.2992 Y4.7579
X4.2984 Y4.7589
X4.2973 Y4.7596
X4.296 Y4.7597
X4.2808 Y4.7584
X4.2678 Y4.7582
X4.2665 Y4.758
X4.2655 Y4.7572
X4.2648 Y4.7561
X4.2647 Y4.7548
X4.2651 Y4.7535
X4.266 Y4.7526
G3 X4.2719 Y4.7606 Z-0.2543 I0.003 J0.004 F20.
X4.266 Y4.7526 Z-0.2548 I-0.003 J-0.004
X4.2719 Y4.7606 Z-0.2554 I0.003 J0.004
X4.266 Y4.7526 Z-0.2559 I-0.003 J-0.004
X4.2719 Y4.7606 Z-0.2565 I0.003 J0.004
X4.266 Y4.7526 Z-0.257 I-0.003 J-0.004
X4.2719 Y4.7606 Z-0.2576 I0.003 J0.004
X4.266 Y4.7526 Z-0.2581 I-0.003 J-0.004
X4.2719 Y4.7606 Z-0.2587 I0.003 J0.004
X4.266 Y4.7526 Z-0.2592 I-0.003 J-0.004
X4.2719 Y4.7606 Z-0.2598 I0.003 J0.004
X4.266 Y4.7526 Z-0.2603 I-0.003 J-0.004
X4.2719 Y4.7606 Z-0.2609 I0.003 J0.004
X4.266 Y4.7526 Z-0.2614 I-0.003 J-0.004
X4.2719 Y4.7606 Z-0.262 I0.003 J0.004
X4.266 Y4.7526 Z-0.2625 I-0.003 J-0.004
X4.2719 Y4.7606 Z-0.2631 I0.003 J0.004
X4.266 Y4.7526 Z-0.2636 I-0.003 J-0.004
X4.2719 Y4.7606 Z-0.2642 I0.003 J0.004
X4.266 Y4.7526 Z-0.2647 I-0.003 J-0.004
X4.2719 Y4.7606 Z-0.2653 I0.003 J0.004
X4.266 Y4.7526 Z-0.2658 I-0.003 J-0.004
X4.2719 Y4.7606 Z-0.2664 I0.003 J0.004
X4.266 Y4.7526 Z-0.2669 I-0.003 J-0.004
X4.2719 Y4.7606 Z-0.2675 I0.003 J0.004
X4.266 Y4.7526 Z-0.268 I-0.003 J-0.004
X4.2719 Y4.7606 Z-0.2686 I0.003 J0.004
X4.266 Y4.7526 Z-0.2691 I-0.003 J-0.004
X4.2719 Y4.7606 Z-0.2697 I0.003 J0.004
X4.266 Y4.7526 Z-0.2702 I-0.003 J-0.004
X4.2719 Y4.7606 Z-0.2708 I0.003 J0.004
X4.266 Y4.7526 Z-0.2713 I-0.003 J-0.004
X4.2719 Y4.7606 Z-0.2719 I0.003 J0.004
X4.266 Y4.7526 Z-0.2724 I-0.003 J-0.004
X4.2719 Y4.7606 Z-0.2729 I0.003 J0.004
X4.2639 Y4.7566 Z-0.2733 I-0.003 J-0.004
X4.2994 I0.0177 J0. F40.
X4.1518 I-0.0738 J0.
X4.2994 I0.0738 J0.
G1 X4.2992 Y4.7579
X4.2984 Y4.7589
X4.2973 Y4.7596
X4.296 Y4.7597
X4.2808 Y4.7584
X4.2678 Y4.7582
X4.2665 Y4.758
X4.2655 Y4.7572
X4.2648 Y4.7561
X4.2647 Y4.7548
X4.2651 Y4.7535
X4.266 Y4.7526
G3 X4.2719 Y4.7606 Z-0.2739 I0.003 J0.004 F20.
X4.266 Y4.7526 Z-0.2744 I-0.003 J-0.004
X4.2719 Y4.7606 Z-0.275 I0.003 J0.004
X4.266 Y4.7526 Z-0.2755 I-0.003 J-0.004
X4.2719 Y4.7606 Z-0.2761 I0.003 J0.004
X4.266 Y4.7526 Z-0.2766 I-0.003 J-0.004
X4.2719 Y4.7606 Z-0.2772 I0.003 J0.004
X4.266 Y4.7526 Z-0.2777 I-0.003 J-0.004
X4.2719 Y4.7606 Z-0.2783 I0.003 J0.004
X4.266 Y4.7526 Z-0.2788 I-0.003 J-0.004
X4.2719 Y4.7606 Z-0.2794 I0.003 J0.004
X4.266 Y4.7526 Z-0.2799 I-0.003 J-0.004
X4.2719 Y4.7606 Z-0.2805 I0.003 J0.004
X4.266 Y4.7526 Z-0.281 I-0.003 J-0.004
X4.2719 Y4.7606 Z-0.2816 I0.003 J0.004
X4.266 Y4.7526 Z-0.2821 I-0.003 J-0.004
X4.2719 Y4.7606 Z-0.2827 I0.003 J0.004
X4.266 Y4.7526 Z-0.2832 I-0.003 J-0.004
X4.2719 Y4.7606 Z-0.2838 I0.003 J0.004
X4.266 Y4.7526 Z-0.2843 I-0.003 J-0.004
X4.2719 Y4.7606 Z-0.2849 I0.003 J0.004
X4.266 Y4.7526 Z-0.2854 I-0.003 J-0.004
X4.2719 Y4.7606 Z-0.2859 I0.003 J0.004
X4.266 Y4.7526 Z-0.2865 I-0.003 J-0.004
X4.2719 Y4.7606 Z-0.287 I0.003 J0.004
X4.266 Y4.7526 Z-0.2876 I-0.003 J-0.004
X4.2719 Y4.7606 Z-0.2881 I0.003 J0.004
X4.266 Y4.7526 Z-0.2887 I-0.003 J-0.004
X4.2719 Y4.7606 Z-0.2892 I0.003 J0.004
X4.266 Y4.7526 Z-0.2898 I-0.003 J-0.004
X4.2719 Y4.7606 Z-0.2903 I0.003 J0.004
X4.266 Y4.7526 Z-0.2909 I-0.003 J-0.004
X4.2719 Y4.7606 Z-0.2914 I0.003 J0.004
X4.266 Y4.7526 Z-0.292 I-0.003 J-0.004
X4.2719 Y4.7606 Z-0.2925 I0.003 J0.004
X4.2639 Y4.7566 Z-0.2929 I-0.003 J-0.004
X4.2994 I0.0177 J0. F40.
X4.1518 I-0.0738 J0.
X4.2994 I0.0738 J0.
G1 X4.2992 Y4.7579
X4.2984 Y4.7589
X4.2973 Y4.7596
X4.296 Y4.7597
X4.2808 Y4.7584
X4.2678 Y4.7582
X4.2665 Y4.758
X4.2655 Y4.7572
X4.2648 Y4.7561
X4.2647 Y4.7548
X4.2651 Y4.7535
X4.266 Y4.7526
G3 X4.2719 Y4.7606 Z-0.2935 I0.003 J0.004 F20.
X4.266 Y4.7526 Z-0.294 I-0.003 J-0.004
X4.2719 Y4.7606 Z-0.2946 I0.003 J0.004
X4.266 Y4.7526 Z-0.2951 I-0.003 J-0.004
X4.2719 Y4.7606 Z-0.2957 I0.003 J0.004
X4.266 Y4.7526 Z-0.2962 I-0.003 J-0.004
X4.2719 Y4.7606 Z-0.2968 I0.003 J0.004
X4.266 Y4.7526 Z-0.2973 I-0.003 J-0.004
X4.2719 Y4.7606 Z-0.2979 I0.003 J0.004
X4.266 Y4.7526 Z-0.2984 I-0.003 J-0.004
X4.2719 Y4.7606 Z-0.299 I0.003 J0.004
X4.266 Y4.7526 Z-0.2995 I-0.003 J-0.004
X4.2719 Y4.7606 Z-0.3 I0.003 J0.004
X4.266 Y4.7526 Z-0.3006 I-0.003 J-0.004
X4.2719 Y4.7606 Z-0.3011 I0.003 J0.004
X4.266 Y4.7526 Z-0.3017 I-0.003 J-0.004
X4.2719 Y4.7606 Z-0.3022 I0.003 J0.004
X4.266 Y4.7526 Z-0.3028 I-0.003 J-0.004
X4.2719 Y4.7606 Z-0.3033 I0.003 J0.004
X4.266 Y4.7526 Z-0.3039 I-0.003 J-0.004
X4.2719 Y4.7606 Z-0.3044 I0.003 J0.004
X4.266 Y4.7526 Z-0.305 I-0.003 J-0.004
X4.2719 Y4.7606 Z-0.3055 I0.003 J0.004
X4.266 Y4.7526 Z-0.3061 I-0.003 J-0.004
X4.2719 Y4.7606 Z-0.3066 I0.003 J0.004
X4.266 Y4.7526 Z-0.3072 I-0.003 J-0.004
X4.2719 Y4.7606 Z-0.3077 I0.003 J0.004
X4.266 Y4.7526 Z-0.3083 I-0.003 J-0.004
X4.2719 Y4.7606 Z-0.3088 I0.003 J0.004
X4.266 Y4.7526 Z-0.3094 I-0.003 J-0.004
X4.2719 Y4.7606 Z-0.3099 I0.003 J0.004
X4.266 Y4.7526 Z-0.3105 I-0.003 J-0.004
X4.2719 Y4.7606 Z-0.311 I0.003 J0.004
X4.266 Y4.7526 Z-0.3116 I-0.003 J-0.004
X4.2719 Y4.7606 Z-0.3121 I0.003 J0.004
X4.2639 Y4.7566 Z-0.3125 I-0.003 J-0.004
X4.2994 I0.0177 J0. F40.
X4.1518 I-0.0738 J0.
X4.2994 I0.0738 J0.
G1 X4.2992 Y4.7589 Z-0.3121
X4.2986 Y4.761 Z-0.3116
X4.2977 Y4.7627 Z-0.3103
X4.2966 Y4.7643 Z-0.309
X4.2947 Y4.766 Z-0.3052
X4.294 Y4.7665 Z-0.3007
G0 Z0.24
X4.1222 Y2.2673
G1 Z0.1518 F40.
X4.1225 Y2.267 Z0.1487 F20.
X4.1235 Y2.2665 Z0.1465
X4.1245 Y2.2661 Z0.1443
X4.1258 Z0.1433
X4.1271 Y2.2663 Z0.1423
X4.1283 Y2.2669 Z0.1412
X4.1294 Y2.268 Z0.1408
X4.1302 Y2.2694 Z0.1404
X4.1305 Y2.271 Z0.14
G3 X4.1205 Y2.2711 Z0.1395 I-0.005 J0.0001
X4.1305 Y2.271 Z0.1389 I0.005 J-0.0001
X4.1205 Y2.2711 Z0.1384 I-0.005 J0.0001
X4.1305 Y2.271 Z0.1378 I0.005 J-0.0001
X4.1205 Y2.2711 Z0.1373 I-0.005 J0.0001
X4.1305 Y2.271 Z0.1367 I0.005 J-0.0001
X4.1205 Y2.2711 Z0.1362 I-0.005 J0.0001
X4.1305 Y2.271 Z0.1356 I0.005 J-0.0001
X4.1205 Y2.2711 Z0.1351 I-0.005 J0.0001
X4.1305 Y2.271 Z0.1345 I0.005 J-0.0001
X4.1205 Y2.2711 Z0.134 I-0.005 J0.0001
X4.1305 Y2.271 Z0.1334 I0.005 J-0.0001
X4.1205 Y2.2711 Z0.1329 I-0.005 J0.0001
X4.1305 Y2.271 Z0.1323 I0.005 J-0.0001
X4.1205 Y2.2711 Z0.1318 I-0.005 J0.0001
X4.1305 Y2.271 Z0.1312 I0.005 J-0.0001
X4.1205 Y2.2711 Z0.1307 I-0.005 J0.0001
X4.1305 Y2.271 Z0.1301 I0.005 J-0.0001
X4.1205 Y2.2711 Z0.1296 I-0.005 J0.0001
X4.1305 Y2.271 Z0.129 I0.005 J-0.0001
X4.1205 Y2.2711 Z0.1285 I-0.005 J0.0001
X4.1305 Y2.271 Z0.1279 I0.005 J-0.0001
X4.1205 Y2.2711 Z0.1274 I-0.005 J0.0001
X4.1305 Y2.271 Z0.1268 I0.005 J-0.0001
X4.1205 Y2.2711 Z0.1263 I-0.005 J0.0001
X4.1305 Y2.271 Z0.1257 I0.005 J-0.0001
X4.1205 Y2.2711 Z0.1252 I-0.005 J0.0001
X4.1305 Y2.271 Z0.1246 I0.005 J-0.0001
X4.1205 Y2.2711 Z0.1241 I-0.005 J0.0001
X4.1305 Y2.271 Z0.1235 I0.005 J-0.0001
X4.1205 Y2.2711 Z0.123 I-0.005 J0.0001
X4.1305 Y2.271 Z0.1224 I0.005 J-0.0001
X4.1205 Y2.2711 Z0.1219 I-0.005 J0.0001
X4.1305 Y2.271 Z0.1213 I0.005 J-0.0001
X4.1205 Y2.2711 Z0.1208 I-0.005 J0.0001
X4.1305 Y2.271 Z0.1203 I0.005 J-0.0001
X4.1205 Y2.2711 Z0.1197 I-0.005 J0.0001
X4.1305 Y2.271 Z0.1192 I0.005 J-0.0001
X4.1205 Y2.2711 Z0.1186 I-0.005 J0.0001
X4.1305 Y2.271 Z0.1181 I0.005 J-0.0001
X4.1205 Y2.2711 Z0.1175 I-0.005 J0.0001
X4.1305 Y2.271 Z0.117 I0.005 J-0.0001
X4.1205 Y2.2711 Z0.1164 I-0.005 J0.0001
X4.1305 Y2.271 Z0.1159 I0.005 J-0.0001
X4.1205 Y2.2711 Z0.1153 I-0.005 J0.0001
X4.1305 Y2.271 Z0.1148 I0.005 J-0.0001
X4.1205 Y2.2711 Z0.1142 I-0.005 J0.0001
X4.1305 Y2.271 Z0.1137 I0.005 J-0.0001
X4.1205 Y2.2711 Z0.1131 I-0.005 J0.0001
X4.1305 Y2.271 Z0.1126 I0.005 J-0.0001
X4.1205 Y2.2711 Z0.112 I-0.005 J0.0001
X4.1305 Y2.271 Z0.1115 I0.005 J-0.0001
X4.1205 Y2.2711 Z0.1109 I-0.005 J0.0001
X4.1305 Y2.271 Z0.1104 I0.005 J-0.0001
X4.1205 Y2.2711 Z0.1098 I-0.005 J0.0001
X4.1305 Y2.271 Z0.1093 I0.005 J-0.0001
X4.1205 Y2.2711 Z0.1087 I-0.005 J0.0001
X4.1305 Y2.271 Z0.1082 I0.005 J-0.0001
X4.1205 Y2.2711 Z0.1076 I-0.005 J0.0001
X4.1305 Y2.271 Z0.1071 I0.005 J-0.0001
X4.1205 Y2.2711 Z0.1065 I-0.005 J0.0001
X4.1305 Y2.271 Z0.106 I0.005 J-0.0001
X4.1205 Y2.2711 Z0.1054 I-0.005 J0.0001
X4.1305 Y2.271 Z0.1049 I0.005 J-0.0001
X4.1205 Y2.2711 Z0.1043 I-0.005 J0.0001
X4.1305 Y2.271 Z0.1038 I0.005 J-0.0001
X4.1205 Y2.2711 Z0.1032 I-0.005 J0.0001
X4.1305 Y2.271 Z0.1027 I0.005 J-0.0001
X4.1205 Y2.2711 Z0.1022 I-0.005 J0.0001
X4.1305 Y2.271 Z0.1016 I0.005 J-0.0001
X4.1205 Y2.2711 Z0.1011 I-0.005 J0.0001
X4.1305 Y2.271 Z0.1005 I0.005 J-0.0001
X4.1205 Y2.2711 Z0.1 I-0.005 J0.0001
X4.1305 Y2.271 Z0.0994 I0.005 J-0.0001
X4.1205 Y2.2711 Z0.0989 I-0.005 J0.0001
X4.1305 Y2.271 Z0.0983 I0.005 J-0.0001
X4.1205 Y2.2711 Z0.0978 I-0.005 J0.0001
X4.1305 Y2.271 Z0.0972 I0.005 J-0.0001
X4.1205 Y2.2711 Z0.0967 I-0.005 J0.0001
X4.1305 Y2.271 Z0.0961 I0.005 J-0.0001
X4.1205 Y2.2711 Z0.0956 I-0.005 J0.0001
X4.1305 Y2.271 Z0.095 I0.005 J-0.0001
X4.1205 Y2.2711 Z0.0945 I-0.005 J0.0001
X4.1305 Y2.271 Z0.0939 I0.005 J-0.0001
X4.1205 Y2.2711 Z0.0934 I-0.005 J0.0001
X4.1305 Y2.271 Z0.0928 I0.005 J-0.0001
X4.1205 Y2.2711 Z0.0923 I-0.005 J0.0001
X4.1305 Y2.271 Z0.0917 I0.005 J-0.0001
X4.1205 Y2.2711 Z0.0912 I-0.005 J0.0001
X4.1305 Y2.271 Z0.0906 I0.005 J-0.0001
X4.1205 Y2.2711 Z0.0901 I-0.005 J0.0001
X4.1305 Y2.271 Z0.0895 I0.005 J-0.0001
X4.1205 Y2.2711 Z0.089 I-0.005 J0.0001
X4.1305 Y2.271 Z0.0884 I0.005 J-0.0001
X4.1205 Y2.2711 Z0.0879 I-0.005 J0.0001
X4.1305 Y2.271 Z0.0873 I0.005 J-0.0001
X4.1205 Y2.2711 Z0.0868 I-0.005 J0.0001
X4.1305 Y2.271 Z0.0862 I0.005 J-0.0001
X4.1205 Y2.2711 Z0.0857 I-0.005 J0.0001
X4.1305 Y2.271 Z0.0851 I0.005 J-0.0001
X4.1205 Y2.2711 Z0.0846 I-0.005 J0.0001
X4.1305 Y2.271 Z0.084 I0.005 J-0.0001
X4.1205 Y2.2711 Z0.0835 I-0.005 J0.0001
X4.1305 Y2.271 Z0.083 I0.005 J-0.0001
X4.1205 Y2.2711 Z0.0824 I-0.005 J0.0001
X4.1305 Y2.271 Z0.0819 I0.005 J-0.0001
X4.1205 Y2.2711 Z0.0813 I-0.005 J0.0001
X4.1305 Y2.271 Z0.0808 I0.005 J-0.0001
X4.1205 Y2.2711 Z0.0802 I-0.005 J0.0001
X4.1305 Y2.271 Z0.0797 I0.005 J-0.0001
X4.1205 Y2.2711 Z0.0791 I-0.005 J0.0001
X4.1305 Y2.271 Z0.0786 I0.005 J-0.0001
X4.1205 Y2.2711 Z0.078 I-0.005 J0.0001
X4.1305 Y2.271 Z0.0775 I0.005 J-0.0001
X4.1205 Y2.2711 Z0.0769 I-0.005 J0.0001
X4.1305 Y2.271 Z0.0764 I0.005 J-0.0001
X4.1205 Y2.2711 Z0.0758 I-0.005 J0.0001
X4.1305 Y2.271 Z0.0753 I0.005 J-0.0001
X4.1205 Y2.2711 Z0.0747 I-0.005 J0.0001
X4.1305 Y2.271 Z0.0742 I0.005 J-0.0001
X4.1205 Y2.2711 Z0.0736 I-0.005 J0.0001
X4.1305 Y2.271 Z0.0731 I0.005 J-0.0001
X4.1205 Y2.2711 Z0.0725 I-0.005 J0.0001
X4.1305 Y2.271 Z0.072 I0.005 J-0.0001
X4.1205 Y2.2711 Z0.0714 I-0.005 J0.0001
X4.1305 Y2.271 Z0.0709 I0.005 J-0.0001
X4.1205 Y2.2711 Z0.0703 I-0.005 J0.0001
X4.1305 Y2.271 Z0.0698 I0.005 J-0.0001
X4.1205 Y2.2711 Z0.0692 I-0.005 J0.0001
X4.1305 Y2.271 Z0.0687 I0.005 J-0.0001
X4.1205 Y2.2711 Z0.0681 I-0.005 J0.0001
X4.1305 Y2.271 Z0.0676 I0.005 J-0.0001
X4.1205 Y2.2711 Z0.067 I-0.005 J0.0001
X4.1305 Y2.271 Z0.0665 I0.005 J-0.0001
X4.1205 Y2.2711 Z0.0659 I-0.005 J0.0001
X4.1305 Y2.271 Z0.0654 I0.005 J-0.0001
X4.1205 Y2.2711 Z0.0649 I-0.005 J0.0001
X4.1305 Y2.271 Z0.0643 I0.005 J-0.0001
X4.1205 Y2.2711 Z0.0638 I-0.005 J0.0001
X4.1305 Y2.271 Z0.0632 I0.005 J-0.0001
X4.1205 Y2.2711 Z0.0627 I-0.005 J0.0001
X4.1305 Y2.271 Z0.0621 I0.005 J-0.0001
X4.1205 Y2.2711 Z0.0616 I-0.005 J0.0001
X4.1305 Y2.271 Z0.061 I0.005 J-0.0001
X4.1205 Y2.2711 Z0.0605 I-0.005 J0.0001
X4.1305 Y2.271 Z0.0599 I0.005 J-0.0001
X4.1205 Y2.2711 Z0.0594 I-0.005 J0.0001
