(X4 GEARBOX LOWER LEFT POCKET RUN 2.8)
(T3  D=0.118 CR=0. - ZMIN=-0.27 - FLAT END MILL)
G90 G94 G91.1 G40 G49 G17
G20

(2D POCKET8)
M5
T3 M6
S15000 M3
G54
M8
G0 X2.1389 Y2.6057
G43 Z0.64 H3
Z0.24
G1 Z0.1518 F30.
X2.1375 Y2.6062 Z0.146 F20.
X2.1335 Y2.6072 Z0.1417
X2.1278 Y2.6082 Z0.14
G3 X2.1145 Y2.4969 Z0.1339 I-0.0067 J-0.0557
X2.1278 Y2.6082 Z0.1277 I0.0067 J0.0557
X2.1145 Y2.4969 Z0.1216 I-0.0067 J-0.0557
X2.1278 Y2.6082 Z0.1154 I0.0067 J0.0557
X2.1145 Y2.4969 Z0.1093 I-0.0067 J-0.0557
X2.1278 Y2.6082 Z0.1031 I0.0067 J0.0557
X2.1145 Y2.4969 Z0.097 I-0.0067 J-0.0557
X2.1278 Y2.6082 Z0.0908 I0.0067 J0.0557
X2.1145 Y2.4969 Z0.0847 I-0.0067 J-0.0557
X2.1278 Y2.6082 Z0.0785 I0.0067 J0.0557
X2.1145 Y2.4969 Z0.0724 I-0.0067 J-0.0557
X2.1278 Y2.6082 Z0.0662 I0.0067 J0.0557
X2.1145 Y2.4969 Z0.0601 I-0.0067 J-0.0557
X2.1278 Y2.6082 Z0.0539 I0.0067 J0.0557
X2.1145 Y2.4969 Z0.0478 I-0.0067 J-0.0557
X2.1278 Y2.6082 Z0.0416 I0.0067 J0.0557
X2.1145 Y2.4969 Z0.0355 I-0.0067 J-0.0557
X2.1278 Y2.6082 Z0.0293 I0.0067 J0.0557
X2.1145 Y2.4969 Z0.0232 I-0.0067 J-0.0557
X2.1278 Y2.6082 Z0.017 I0.0067 J0.0557
X2.0768 Y2.5869 Z0.015 I-0.0067 J-0.0557
G2 X2.0662 Y2.5733 I-0.8593 J0.665 F30.
G3 X2.0691 Y2.5573 I0.0084 J-0.0067
G1 X2.1344 Y2.5188
G3 X2.1455 Y2.5252 I0.0037 J0.0063
G1 Y2.5585
G3 X2.1351 Y2.5775 I-0.0226 J0.
G2 X2.1023 Y2.5992 I0.6371 J0.9981
G3 X2.084 Y2.5963 I-0.0076 J-0.011
G2 X2.0768 Y2.5869 I-0.8665 J0.6556
X2.0337 Y2.5691 I-0.037 J0.0286
G3 X2.0186 Y2.525 I-0.0031 J-0.0236
G1 X2.1742 Y2.4335
G3 X2.1989 Y2.4476 I0.0083 J0.0141
G1 Y2.5847
G3 X2.185 Y2.6094 I-0.0289 J0.
G2 X2.0894 Y2.6745 I0.565 J0.9322
G3 X2.0724 Y2.6717 I-0.0072 J-0.0094
G2 X1.9842 Y2.5593 I-0.8571 J0.5817
G3 X1.9866 Y2.5438 I0.0075 J-0.0068
G1 X2.0186 Y2.525
G2 X2.0536 Y2.4526 I-0.0368 J-0.0625
G3 X2.0887 Y2.3802 I0.0718 J-0.0099
G1 X2.1726 Y2.3308
G3 X2.1992 Y2.3312 I0.0129 J0.022
G2 X2.2744 Y2.3742 I0.5458 J-0.8672
G3 X2.2882 Y2.3969 I-0.0117 J0.0227
G1 Y2.638
G3 X2.2743 Y2.6611 I-0.0263 J0.
G2 X2.0659 Y2.8114 I0.4625 J0.8613
G3 X2.0512 Y2.809 I-0.0064 J-0.0068
G2 X1.8387 Y2.5409 I-0.8429 J0.4501
G3 X1.8401 Y2.5265 I0.0059 J-0.0067
G1 X2.0887 Y2.3802
G2 X2.1226 Y2.3101 I-0.0356 J-0.0605
G3 X2.1566 Y2.24 I0.0696 J-0.0096
G1 X2.1769 Y2.228
G3 X2.2021 Y2.2291 I0.0117 J0.02
G2 X2.3609 Y2.32 I0.5341 J-0.7497
G3 X2.3746 Y2.3411 I-0.0094 J0.0211
G1 Y2.6929
G3 X2.3609 Y2.7144 I-0.0238 J0.
G2 X2.0387 Y2.9684 I0.3759 J0.8081
G3 X2.0264 Y2.9664 I-0.0056 J-0.0044
G2 X1.7193 Y2.5562 I-0.8148 J0.29
G3 X1.7095 Y2.5321 I0.0143 J-0.0198
G1 X1.712 Y2.5183
G3 X1.7316 Y2.49 I0.0405 J0.0071
G1 X2.1566 Y2.24
G2 X2.1734 Y2.1818 I-0.0223 J-0.0379
G3 X2.2198 Y2.1431 I0.0275 J-0.0142
G2 X2.4407 Y2.2667 I0.5207 J-0.6714
G3 X2.4542 Y2.2863 I-0.0074 J0.0196
G1 Y2.7468
G3 X2.4406 Y2.7668 I-0.0214 J0.
G2 X2.0437 Y3.0998 I0.298 J0.7582
G3 X2.0217 Y3.1097 I-0.0183 J-0.0112
G1 X1.9963 Y3.1052
G3 X1.9786 Y3.0883 I0.0038 J-0.0216
G2 X1.6318 Y2.593 I-0.7641 J0.166
G3 X1.6219 Y2.5706 I0.0117 J-0.0186
G1 X1.64 Y2.4683
G3 X1.6596 Y2.44 I0.0405 J0.0071
G1 X2.1837 Y2.1316
G3 X2.2075 Y2.1334 I0.0106 J0.0181
G2 X2.2198 Y2.1431 I0.5331 J-0.6616
X2.3144 Y2.1481 I0.0508 J-0.0656
G3 X2.4089 Y2.1436 I0.0514 J0.083
G2 X2.5547 Y2.1974 I0.3298 J-0.6686
G1 Y2.8349
G2 X2.091 Y3.224 I0.184 J0.6901
G1 X1.893 Y3.189
G2 X1.5079 Y2.639 I-0.6807 J0.0668
G1 X1.5481 Y2.4109
G2 X1.546 Y2.3821 I-0.0581 J-0.0102
X1.5737 Y2.374 I-0.0022 J-0.059
G1 X2.2094 Y2.
G2 X2.4089 Y2.1436 I0.5293 J-0.525
G1 X2.4103 Y2.1445
X2.4113 Y2.1458
X2.412 Y2.1474
X2.4122 Y2.149
X2.4119 Y2.1507
X2.4112 Y2.1522
X2.2513 Y2.3898
X2.0968 Y2.5808
X2.0896 Y2.5943
X2.0887 Y2.5953
X2.0874 Y2.5959
X2.086
X2.0848 Y2.5952
G3 X2.1575 Y2.5099 Z0.0089 I0.0364 J-0.0427 F20.
X2.0848 Y2.5952 Z0.0027 I-0.0364 J0.0427
X2.1575 Y2.5099 Z-0.0034 I0.0364 J-0.0427
X2.1599 Y2.5931 Z-0.0067 I-0.0364 J0.0427
X2.0768 Y2.5869 Z-0.01 I-0.0387 J-0.0406
G2 X2.0662 Y2.5733 I-0.8593 J0.665 F30.
G3 X2.0691 Y2.5573 I0.0084 J-0.0067
G1 X2.1344 Y2.5188
G3 X2.1455 Y2.5252 I0.0037 J0.0063
G1 Y2.5585
G3 X2.1351 Y2.5775 I-0.0226 J0.
G2 X2.1023 Y2.5992 I0.6371 J0.9981
G3 X2.084 Y2.5963 I-0.0076 J-0.011
G2 X2.0768 Y2.5869 I-0.8665 J0.6556
X2.0337 Y2.5691 I-0.037 J0.0286
G3 X2.0186 Y2.525 I-0.0031 J-0.0236
G1 X2.1742 Y2.4335
G3 X2.1989 Y2.4476 I0.0083 J0.0141
G1 Y2.5847
G3 X2.185 Y2.6094 I-0.0289 J0.
G2 X2.0894 Y2.6745 I0.565 J0.9322
G3 X2.0724 Y2.6717 I-0.0072 J-0.0094
G2 X1.9842 Y2.5593 I-0.8571 J0.5817
G3 X1.9866 Y2.5438 I0.0075 J-0.0068
G1 X2.0186 Y2.525
G2 X2.0536 Y2.4526 I-0.0368 J-0.0625
G3 X2.0887 Y2.3802 I0.0718 J-0.0099
G1 X2.1726 Y2.3308
G3 X2.1992 Y2.3312 I0.0129 J0.022
G2 X2.2744 Y2.3742 I0.5458 J-0.8672
G3 X2.2882 Y2.3969 I-0.0117 J0.0227
G1 Y2.638
G3 X2.2743 Y2.6611 I-0.0263 J0.
G2 X2.0659 Y2.8114 I0.4625 J0.8613
G3 X2.0512 Y2.809 I-0.0064 J-0.0068
G2 X1.8387 Y2.5409 I-0.8429 J0.4501
G3 X1.8401 Y2.5265 I0.0059 J-0.0067
G1 X2.0887 Y2.3802
G2 X2.1226 Y2.3101 I-0.0356 J-0.0605
G3 X2.1566 Y2.24 I0.0696 J-0.0096
G1 X2.1769 Y2.228
G3 X2.2021 Y2.2291 I0.0117 J0.02
G2 X2.3609 Y2.32 I0.5341 J-0.7497
G3 X2.3746 Y2.3411 I-0.0094 J0.0211
G1 Y2.6929
G3 X2.3609 Y2.7144 I-0.0238 J0.
G2 X2.0387 Y2.9684 I0.3759 J0.8081
G3 X2.0264 Y2.9664 I-0.0056 J-0.0044
G2 X1.7193 Y2.5562 I-0.8148 J0.29
G3 X1.7095 Y2.5321 I0.0143 J-0.0198
G1 X1.712 Y2.5183
G3 X1.7316 Y2.49 I0.0405 J0.0071
G1 X2.1566 Y2.24
G2 X2.1734 Y2.1818 I-0.0223 J-0.0379
G3 X2.2198 Y2.1431 I0.0275 J-0.0142
G2 X2.4407 Y2.2667 I0.5207 J-0.6714
G3 X2.4542 Y2.2863 I-0.0074 J0.0196
G1 Y2.7468
G3 X2.4406 Y2.7668 I-0.0214 J0.
G2 X2.0437 Y3.0998 I0.298 J0.7582
G3 X2.0217 Y3.1097 I-0.0183 J-0.0112
G1 X1.9963 Y3.1052
G3 X1.9786 Y3.0883 I0.0038 J-0.0216
G2 X1.6318 Y2.593 I-0.7641 J0.166
G3 X1.6219 Y2.5706 I0.0117 J-0.0186
G1 X1.64 Y2.4683
G3 X1.6596 Y2.44 I0.0405 J0.0071
G1 X2.1837 Y2.1316
G3 X2.2075 Y2.1334 I0.0106 J0.0181
G2 X2.2198 Y2.1431 I0.5331 J-0.6616
X2.3144 Y2.1481 I0.0508 J-0.0656
G3 X2.4089 Y2.1436 I0.0514 J0.083
G2 X2.5547 Y2.1974 I0.3298 J-0.6686
G1 Y2.8349
G2 X2.091 Y3.224 I0.184 J0.6901
G1 X1.893 Y3.189
G2 X1.5079 Y2.639 I-0.6807 J0.0668
G1 X1.5481 Y2.4109
G2 X1.546 Y2.3821 I-0.0581 J-0.0102
X1.5737 Y2.374 I-0.0022 J-0.059
G1 X2.2094 Y2.
G2 X2.4089 Y2.1436 I0.5293 J-0.525
G1 X2.4103 Y2.1445
X2.4113 Y2.1458
X2.412 Y2.1474
X2.4122 Y2.149
X2.4119 Y2.1507
X2.4112 Y2.1522
X2.2513 Y2.3898
X2.0968 Y2.5808
X2.0896 Y2.5943
X2.0887 Y2.5953
X2.0874 Y2.5959
X2.086
X2.0848 Y2.5952
G3 X2.1575 Y2.5099 Z-0.0161 I0.0364 J-0.0427 F20.
X2.0848 Y2.5952 Z-0.0223 I-0.0364 J0.0427
X2.1575 Y2.5099 Z-0.0284 I0.0364 J-0.0427
X2.1599 Y2.5931 Z-0.0317 I-0.0364 J0.0427
X2.0768 Y2.5869 Z-0.035 I-0.0387 J-0.0406
G2 X2.0662 Y2.5733 I-0.8593 J0.665 F30.
G3 X2.0691 Y2.5573 I0.0084 J-0.0067
G1 X2.1344 Y2.5188
G3 X2.1455 Y2.5252 I0.0037 J0.0063
G1 Y2.5585
G3 X2.1351 Y2.5775 I-0.0226 J0.
G2 X2.1023 Y2.5992 I0.6371 J0.9981
G3 X2.084 Y2.5963 I-0.0076 J-0.011
G2 X2.0768 Y2.5869 I-0.8665 J0.6556
X2.0337 Y2.5691 I-0.037 J0.0286
G3 X2.0186 Y2.525 I-0.0031 J-0.0236
G1 X2.1742 Y2.4335
G3 X2.1989 Y2.4476 I0.0083 J0.0141
G1 Y2.5847
G3 X2.185 Y2.6094 I-0.0289 J0.
G2 X2.0894 Y2.6745 I0.565 J0.9322
G3 X2.0724 Y2.6717 I-0.0072 J-0.0094
G2 X1.9842 Y2.5593 I-0.8571 J0.5817
G3 X1.9866 Y2.5438 I0.0075 J-0.0068
G1 X2.0186 Y2.525
G2 X2.0536 Y2.4526 I-0.0368 J-0.0625
G3 X2.0887 Y2.3802 I0.0718 J-0.0099
G1 X2.1726 Y2.3308
G3 X2.1992 Y2.3312 I0.0129 J0.022
G2 X2.2744 Y2.3742 I0.5458 J-0.8672
G3 X2.2882 Y2.3969 I-0.0117 J0.0227
G1 Y2.638
G3 X2.2743 Y2.6611 I-0.0263 J0.
G2 X2.0659 Y2.8114 I0.4625 J0.8613
G3 X2.0512 Y2.809 I-0.0064 J-0.0068
G2 X1.8387 Y2.5409 I-0.8429 J0.4501
G3 X1.8401 Y2.5265 I0.0059 J-0.0067
G1 X2.0887 Y2.3802
G2 X2.1226 Y2.3101 I-0.0356 J-0.0605
G3 X2.1566 Y2.24 I0.0696 J-0.0096
G1 X2.1769 Y2.228
G3 X2.2021 Y2.2291 I0.0117 J0.02
G2 X2.3609 Y2.32 I0.5341 J-0.7497
G3 X2.3746 Y2.3411 I-0.0094 J0.0211
G1 Y2.6929
G3 X2.3609 Y2.7144 I-0.0238 J0.
G2 X2.0387 Y2.9684 I0.3759 J0.8081
G3 X2.0264 Y2.9664 I-0.0056 J-0.0044
G2 X1.7193 Y2.5562 I-0.8148 J0.29
G3 X1.7095 Y2.5321 I0.0143 J-0.0198
G1 X1.712 Y2.5183
G3 X1.7316 Y2.49 I0.0405 J0.0071
G1 X2.1566 Y2.24
G2 X2.1734 Y2.1818 I-0.0223 J-0.0379
G3 X2.2198 Y2.1431 I0.0275 J-0.0142
G2 X2.4407 Y2.2667 I0.5207 J-0.6714
G3 X2.4542 Y2.2863 I-0.0074 J0.0196
G1 Y2.7468
G3 X2.4406 Y2.7668 I-0.0214 J0.
G2 X2.0437 Y3.0998 I0.298 J0.7582
G3 X2.0217 Y3.1097 I-0.0183 J-0.0112
G1 X1.9963 Y3.1052
G3 X1.9786 Y3.0883 I0.0038 J-0.0216
G2 X1.6318 Y2.593 I-0.7641 J0.166
G3 X1.6219 Y2.5706 I0.0117 J-0.0186
G1 X1.64 Y2.4683
G3 X1.6596 Y2.44 I0.0405 J0.0071
G1 X2.1837 Y2.1316
G3 X2.2075 Y2.1334 I0.0106 J0.0181
G2 X2.2198 Y2.1431 I0.5331 J-0.6616
X2.3144 Y2.1481 I0.0508 J-0.0656
G3 X2.4089 Y2.1436 I0.0514 J0.083
G2 X2.5547 Y2.1974 I0.3298 J-0.6686
G1 Y2.8349
G2 X2.091 Y3.224 I0.184 J0.6901
G1 X1.893 Y3.189
G2 X1.5079 Y2.639 I-0.6807 J0.0668
G1 X1.5481 Y2.4109
G2 X1.546 Y2.3821 I-0.0581 J-0.0102
X1.5737 Y2.374 I-0.0022 J-0.059
G1 X2.2094 Y2.
G2 X2.4089 Y2.1436 I0.5293 J-0.525
G1 X2.4103 Y2.1445
X2.4113 Y2.1458
X2.412 Y2.1474
X2.4122 Y2.149
X2.4119 Y2.1507
X2.4112 Y2.1522
X2.2513 Y2.3898
X2.0968 Y2.5808
X2.0896 Y2.5943
X2.0887 Y2.5953
X2.0874 Y2.5959
X2.086
X2.0848 Y2.5952
G3 X2.1575 Y2.5099 Z-0.0411 I0.0364 J-0.0427 F20.
X2.0848 Y2.5952 Z-0.0473 I-0.0364 J0.0427
X2.1575 Y2.5099 Z-0.0534 I0.0364 J-0.0427
X2.1599 Y2.5931 Z-0.0567 I-0.0364 J0.0427
X2.0768 Y2.5869 Z-0.06 I-0.0387 J-0.0406
G2 X2.0662 Y2.5733 I-0.8593 J0.665 F30.
G3 X2.0691 Y2.5573 I0.0084 J-0.0067
G1 X2.1344 Y2.5188
G3 X2.1455 Y2.5252 I0.0037 J0.0063
G1 Y2.5585
G3 X2.1351 Y2.5775 I-0.0226 J0.
G2 X2.1023 Y2.5992 I0.6371 J0.9981
G3 X2.084 Y2.5963 I-0.0076 J-0.011
G2 X2.0768 Y2.5869 I-0.8665 J0.6556
X2.0337 Y2.5691 I-0.037 J0.0286
G3 X2.0186 Y2.525 I-0.0031 J-0.0236
G1 X2.1742 Y2.4335
G3 X2.1989 Y2.4476 I0.0083 J0.0141
G1 Y2.5847
G3 X2.185 Y2.6094 I-0.0289 J0.
G2 X2.0894 Y2.6745 I0.565 J0.9322
G3 X2.0724 Y2.6717 I-0.0072 J-0.0094
G2 X1.9842 Y2.5593 I-0.8571 J0.5817
G3 X1.9866 Y2.5438 I0.0075 J-0.0068
G1 X2.0186 Y2.525
G2 X2.0536 Y2.4526 I-0.0368 J-0.0625
G3 X2.0887 Y2.3802 I0.0718 J-0.0099
G1 X2.1726 Y2.3308
G3 X2.1992 Y2.3312 I0.0129 J0.022
G2 X2.2744 Y2.3742 I0.5458 J-0.8672
G3 X2.2882 Y2.3969 I-0.0117 J0.0227
G1 Y2.638
G3 X2.2743 Y2.6611 I-0.0263 J0.
G2 X2.0659 Y2.8114 I0.4625 J0.8613
G3 X2.0512 Y2.809 I-0.0064 J-0.0068
G2 X1.8387 Y2.5409 I-0.8429 J0.4501
G3 X1.8401 Y2.5265 I0.0059 J-0.0067
G1 X2.0887 Y2.3802
G2 X2.1226 Y2.3101 I-0.0356 J-0.0605
G3 X2.1566 Y2.24 I0.0696 J-0.0096
G1 X2.1769 Y2.228
G3 X2.2021 Y2.2291 I0.0117 J0.02
G2 X2.3609 Y2.32 I0.5341 J-0.7497
G3 X2.3746 Y2.3411 I-0.0094 J0.0211
G1 Y2.6929
G3 X2.3609 Y2.7144 I-0.0238 J0.
G2 X2.0387 Y2.9684 I0.3759 J0.8081
G3 X2.0264 Y2.9664 I-0.0056 J-0.0044
G2 X1.7193 Y2.5562 I-0.8148 J0.29
G3 X1.7095 Y2.5321 I0.0143 J-0.0198
G1 X1.712 Y2.5183
G3 X1.7316 Y2.49 I0.0405 J0.0071
G1 X2.1566 Y2.24
G2 X2.1734 Y2.1818 I-0.0223 J-0.0379
G3 X2.2198 Y2.1431 I0.0275 J-0.0142
G2 X2.4407 Y2.2667 I0.5207 J-0.6714
G3 X2.4542 Y2.2863 I-0.0074 J0.0196
G1 Y2.7468
G3 X2.4406 Y2.7668 I-0.0214 J0.
G2 X2.0437 Y3.0998 I0.298 J0.7582
G3 X2.0217 Y3.1097 I-0.0183 J-0.0112
G1 X1.9963 Y3.1052
G3 X1.9786 Y3.0883 I0.0038 J-0.0216
G2 X1.6318 Y2.593 I-0.7641 J0.166
G3 X1.6219 Y2.5706 I0.0117 J-0.0186
G1 X1.64 Y2.4683
G3 X1.6596 Y2.44 I0.0405 J0.0071
G1 X2.1837 Y2.1316
G3 X2.2075 Y2.1334 I0.0106 J0.0181
G2 X2.2198 Y2.1431 I0.5331 J-0.6616
X2.3144 Y2.1481 I0.0508 J-0.0656
G3 X2.4089 Y2.1436 I0.0514 J0.083
G2 X2.5547 Y2.1974 I0.3298 J-0.6686
G1 Y2.8349
G2 X2.091 Y3.224 I0.184 J0.6901
G1 X1.893 Y3.189
G2 X1.5079 Y2.639 I-0.6807 J0.0668
G1 X1.5481 Y2.4109
G2 X1.546 Y2.3821 I-0.0581 J-0.0102
X1.5737 Y2.374 I-0.0022 J-0.059
G1 X2.2094 Y2.
G2 X2.4089 Y2.1436 I0.5293 J-0.525
G1 X2.4103 Y2.1445
X2.4113 Y2.1458
X2.412 Y2.1474
X2.4122 Y2.149
X2.4119 Y2.1507
X2.4112 Y2.1522
X2.2513 Y2.3898
X2.0968 Y2.5808
X2.0896 Y2.5943
X2.0887 Y2.5953
X2.0874 Y2.5959
X2.086
X2.0848 Y2.5952
G3 X2.1575 Y2.5099 Z-0.0661 I0.0364 J-0.0427 F20.
X2.0848 Y2.5952 Z-0.0723 I-0.0364 J0.0427
X2.1575 Y2.5099 Z-0.0784 I0.0364 J-0.0427
X2.1599 Y2.5931 Z-0.0817 I-0.0364 J0.0427
X2.0768 Y2.5869 Z-0.085 I-0.0387 J-0.0406
G2 X2.0662 Y2.5733 I-0.8593 J0.665 F30.
G3 X2.0691 Y2.5573 I0.0084 J-0.0067
G1 X2.1344 Y2.5188
G3 X2.1455 Y2.5252 I0.0037 J0.0063
G1 Y2.5585
G3 X2.1351 Y2.5775 I-0.0226 J0.
G2 X2.1023 Y2.5992 I0.6371 J0.9981
G3 X2.084 Y2.5963 I-0.0076 J-0.011
G2 X2.0768 Y2.5869 I-0.8665 J0.6556
X2.0337 Y2.5691 I-0.037 J0.0286
G3 X2.0186 Y2.525 I-0.0031 J-0.0236
G1 X2.1742 Y2.4335
G3 X2.1989 Y2.4476 I0.0083 J0.0141
G1 Y2.5847
G3 X2.185 Y2.6094 I-0.0289 J0.
G2 X2.0894 Y2.6745 I0.565 J0.9322
G3 X2.0724 Y2.6717 I-0.0072 J-0.0094
G2 X1.9842 Y2.5593 I-0.8571 J0.5817
G3 X1.9866 Y2.5438 I0.0075 J-0.0068
G1 X2.0186 Y2.525
G2 X2.0536 Y2.4526 I-0.0368 J-0.0625
G3 X2.0887 Y2.3802 I0.0718 J-0.0099
G1 X2.1726 Y2.3308
G3 X2.1992 Y2.3312 I0.0129 J0.022
G2 X2.2744 Y2.3742 I0.5458 J-0.8672
G3 X2.2882 Y2.3969 I-0.0117 J0.0227
G1 Y2.638
G3 X2.2743 Y2.6611 I-0.0263 J0.
G2 X2.0659 Y2.8114 I0.4625 J0.8613
G3 X2.0512 Y2.809 I-0.0064 J-0.0068
G2 X1.8387 Y2.5409 I-0.8429 J0.4501
G3 X1.8401 Y2.5265 I0.0059 J-0.0067
G1 X2.0887 Y2.3802
G2 X2.1226 Y2.3101 I-0.0356 J-0.0605
G3 X2.1566 Y2.24 I0.0696 J-0.0096
G1 X2.1769 Y2.228
G3 X2.2021 Y2.2291 I0.0117 J0.02
G2 X2.3609 Y2.32 I0.5341 J-0.7497
G3 X2.3746 Y2.3411 I-0.0094 J0.0211
G1 Y2.6929
G3 X2.3609 Y2.7144 I-0.0238 J0.
G2 X2.0387 Y2.9684 I0.3759 J0.8081
G3 X2.0264 Y2.9664 I-0.0056 J-0.0044
G2 X1.7193 Y2.5562 I-0.8148 J0.29
G3 X1.7095 Y2.5321 I0.0143 J-0.0198
G1 X1.712 Y2.5183
G3 X1.7316 Y2.49 I0.0405 J0.0071
G1 X2.1566 Y2.24
G2 X2.1734 Y2.1818 I-0.0223 J-0.0379
G3 X2.2198 Y2.1431 I0.0275 J-0.0142
G2 X2.4407 Y2.2667 I0.5207 J-0.6714
G3 X2.4542 Y2.2863 I-0.0074 J0.0196
G1 Y2.7468
G3 X2.4406 Y2.7668 I-0.0214 J0.
G2 X2.0437 Y3.0998 I0.298 J0.7582
G3 X2.0217 Y3.1097 I-0.0183 J-0.0112
G1 X1.9963 Y3.1052
G3 X1.9786 Y3.0883 I0.0038 J-0.0216
G2 X1.6318 Y2.593 I-0.7641 J0.166
G3 X1.6219 Y2.5706 I0.0117 J-0.0186
G1 X1.64 Y2.4683
G3 X1.6596 Y2.44 I0.0405 J0.0071
G1 X2.1837 Y2.1316
G3 X2.2075 Y2.1334 I0.0106 J0.0181
G2 X2.2198 Y2.1431 I0.5331 J-0.6616
X2.3144 Y2.1481 I0.0508 J-0.0656
G3 X2.4089 Y2.1436 I0.0514 J0.083
G2 X2.5547 Y2.1974 I0.3298 J-0.6686
G1 Y2.8349
G2 X2.091 Y3.224 I0.184 J0.6901
G1 X1.893 Y3.189
G2 X1.5079 Y2.639 I-0.6807 J0.0668
G1 X1.5481 Y2.4109
G2 X1.546 Y2.3821 I-0.0581 J-0.0102
X1.5737 Y2.374 I-0.0022 J-0.059
G1 X2.2094 Y2.
G2 X2.4089 Y2.1436 I0.5293 J-0.525
G1 X2.4103 Y2.1445
X2.4113 Y2.1458
X2.412 Y2.1474
X2.4122 Y2.149
X2.4119 Y2.1507
X2.4112 Y2.1522
X2.2513 Y2.3898
X2.0968 Y2.5808
X2.0896 Y2.5943
X2.0887 Y2.5953
X2.0874 Y2.5959
X2.086
X2.0848 Y2.5952
G3 X2.1575 Y2.5099 Z-0.0911 I0.0364 J-0.0427 F20.
X2.0848 Y2.5952 Z-0.0973 I-0.0364 J0.0427
X2.1575 Y2.5099 Z-0.1034 I0.0364 J-0.0427
X2.1599 Y2.5931 Z-0.1067 I-0.0364 J0.0427
X2.0768 Y2.5869 Z-0.11 I-0.0387 J-0.0406
G2 X2.0662 Y2.5733 I-0.8593 J0.665 F30.
G3 X2.0691 Y2.5573 I0.0084 J-0.0067
G1 X2.1344 Y2.5188
G3 X2.1455 Y2.5252 I0.0037 J0.0063
G1 Y2.5585
G3 X2.1351 Y2.5775 I-0.0226 J0.
G2 X2.1023 Y2.5992 I0.6371 J0.9981
G3 X2.084 Y2.5963 I-0.0076 J-0.011
G2 X2.0768 Y2.5869 I-0.8665 J0.6556
X2.0337 Y2.5691 I-0.037 J0.0286
G3 X2.0186 Y2.525 I-0.0031 J-0.0236
G1 X2.1742 Y2.4335
G3 X2.1989 Y2.4476 I0.0083 J0.0141
G1 Y2.5847
G3 X2.185 Y2.6094 I-0.0289 J0.
G2 X2.0894 Y2.6745 I0.565 J0.9322
G3 X2.0724 Y2.6717 I-0.0072 J-0.0094
G2 X1.9842 Y2.5593 I-0.8571 J0.5817
G3 X1.9866 Y2.5438 I0.0075 J-0.0068
G1 X2.0186 Y2.525
G2 X2.0536 Y2.4526 I-0.0368 J-0.0625
G3 X2.0887 Y2.3802 I0.0718 J-0.0099
G1 X2.1726 Y2.3308
G3 X2.1992 Y2.3312 I0.0129 J0.022
G2 X2.2744 Y2.3742 I0.5458 J-0.8672
G3 X2.2882 Y2.3969 I-0.0117 J0.0227
G1 Y2.638
G3 X2.2743 Y2.6611 I-0.0263 J0.
G2 X2.0659 Y2.8114 I0.4625 J0.8613
G3 X2.0512 Y2.809 I-0.0064 J-0.0068
G2 X1.8387 Y2.5409 I-0.8429 J0.4501
G3 X1.8401 Y2.5265 I0.0059 J-0.0067
G1 X2.0887 Y2.3802
G2 X2.1226 Y2.3101 I-0.0356 J-0.0605
G3 X2.1566 Y2.24 I0.0696 J-0.0096
G1 X2.1769 Y2.228
G3 X2.2021 Y2.2291 I0.0117 J0.02
G2 X2.3609 Y2.32 I0.5341 J-0.7497
G3 X2.3746 Y2.3411 I-0.0094 J0.0211
G1 Y2.6929
G3 X2.3609 Y2.7144 I-0.0238 J0.
G2 X2.0387 Y2.9684 I0.3759 J0.8081
G3 X2.0264 Y2.9664 I-0.0056 J-0.0044
G2 X1.7193 Y2.5562 I-0.8148 J0.29
G3 X1.7095 Y2.5321 I0.0143 J-0.0198
G1 X1.712 Y2.5183
G3 X1.7316 Y2.49 I0.0405 J0.0071
G1 X2.1566 Y2.24
G2 X2.1734 Y2.1818 I-0.0223 J-0.0379
G3 X2.2198 Y2.1431 I0.0275 J-0.0142
G2 X2.4407 Y2.2667 I0.5207 J-0.6714
G3 X2.4542 Y2.2863 I-0.0074 J0.0196
G1 Y2.7468
G3 X2.4406 Y2.7668 I-0.0214 J0.
G2 X2.0437 Y3.0998 I0.298 J0.7582
G3 X2.0217 Y3.1097 I-0.0183 J-0.0112
G1 X1.9963 Y3.1052
G3 X1.9786 Y3.0883 I0.0038 J-0.0216
G2 X1.6318 Y2.593 I-0.7641 J0.166
G3 X1.6219 Y2.5706 I0.0117 J-0.0186
G1 X1.64 Y2.4683
G3 X1.6596 Y2.44 I0.0405 J0.0071
G1 X2.1837 Y2.1316
G3 X2.2075 Y2.1334 I0.0106 J0.0181
G2 X2.2198 Y2.1431 I0.5331 J-0.6616
X2.3144 Y2.1481 I0.0508 J-0.0656
G3 X2.4089 Y2.1436 I0.0514 J0.083
G2 X2.5547 Y2.1974 I0.3298 J-0.6686
G1 Y2.8349
G2 X2.091 Y3.224 I0.184 J0.6901
G1 X1.893 Y3.189
G2 X1.5079 Y2.639 I-0.6807 J0.0668
G1 X1.5481 Y2.4109
G2 X1.546 Y2.3821 I-0.0581 J-0.0102
X1.5737 Y2.374 I-0.0022 J-0.059
G1 X2.2094 Y2.
G2 X2.4089 Y2.1436 I0.5293 J-0.525
G1 X2.4103 Y2.1445
X2.4113 Y2.1458
X2.412 Y2.1474
X2.4122 Y2.149
X2.4119 Y2.1507
X2.4112 Y2.1522
X2.2513 Y2.3898
X2.0968 Y2.5808
X2.0896 Y2.5943
X2.0887 Y2.5953
X2.0874 Y2.5959
X2.086
X2.0848 Y2.5952
G3 X2.1575 Y2.5099 Z-0.1161 I0.0364 J-0.0427 F20.
X2.0848 Y2.5952 Z-0.1223 I-0.0364 J0.0427
X2.1575 Y2.5099 Z-0.1284 I0.0364 J-0.0427
X2.1599 Y2.5931 Z-0.1317 I-0.0364 J0.0427
X2.0768 Y2.5869 Z-0.135 I-0.0387 J-0.0406
G2 X2.0662 Y2.5733 I-0.8593 J0.665 F30.
G3 X2.0691 Y2.5573 I0.0084 J-0.0067
G1 X2.1344 Y2.5188
G3 X2.1455 Y2.5252 I0.0037 J0.0063
G1 Y2.5585
G3 X2.1351 Y2.5775 I-0.0226 J0.
G2 X2.1023 Y2.5992 I0.6371 J0.9981
G3 X2.084 Y2.5963 I-0.0076 J-0.011
G2 X2.0768 Y2.5869 I-0.8665 J0.6556
X2.0337 Y2.5691 I-0.037 J0.0286
G3 X2.0186 Y2.525 I-0.0031 J-0.0236
G1 X2.1742 Y2.4335
G3 X2.1989 Y2.4476 I0.0083 J0.0141
G1 Y2.5847
G3 X2.185 Y2.6094 I-0.0289 J0.
G2 X2.0894 Y2.6745 I0.565 J0.9322
G3 X2.0724 Y2.6717 I-0.0072 J-0.0094
G2 X1.9842 Y2.5593 I-0.8571 J0.5817
G3 X1.9866 Y2.5438 I0.0075 J-0.0068
G1 X2.0186 Y2.525
G2 X2.0536 Y2.4526 I-0.0368 J-0.0625
G3 X2.0887 Y2.3802 I0.0718 J-0.0099
G1 X2.1726 Y2.3308
G3 X2.1992 Y2.3312 I0.0129 J0.022
G2 X2.2744 Y2.3742 I0.5458 J-0.8672
G3 X2.2882 Y2.3969 I-0.0117 J0.0227
G1 Y2.638
G3 X2.2743 Y2.6611 I-0.0263 J0.
G2 X2.0659 Y2.8114 I0.4625 J0.8613
G3 X2.0512 Y2.809 I-0.0064 J-0.0068
G2 X1.8387 Y2.5409 I-0.8429 J0.4501
G3 X1.8401 Y2.5265 I0.0059 J-0.0067
G1 X2.0887 Y2.3802
G2 X2.1226 Y2.3101 I-0.0356 J-0.0605
G3 X2.1566 Y2.24 I0.0696 J-0.0096
G1 X2.1769 Y2.228
G3 X2.2021 Y2.2291 I0.0117 J0.02
G2 X2.3609 Y2.32 I0.5341 J-0.7497
G3 X2.3746 Y2.3411 I-0.0094 J0.0211
G1 Y2.6929
G3 X2.3609 Y2.7144 I-0.0238 J0.
G2 X2.0387 Y2.9684 I0.3759 J0.8081
G3 X2.0264 Y2.9664 I-0.0056 J-0.0044
G2 X1.7193 Y2.5562 I-0.8148 J0.29
G3 X1.7095 Y2.5321 I0.0143 J-0.0198
G1 X1.712 Y2.5183
G3 X1.7316 Y2.49 I0.0405 J0.0071
G1 X2.1566 Y2.24
G2 X2.1734 Y2.1818 I-0.0223 J-0.0379
G3 X2.2198 Y2.1431 I0.0275 J-0.0142
G2 X2.4407 Y2.2667 I0.5207 J-0.6714
G3 X2.4542 Y2.2863 I-0.0074 J0.0196
G1 Y2.7468
G3 X2.4406 Y2.7668 I-0.0214 J0.
G2 X2.0437 Y3.0998 I0.298 J0.7582
G3 X2.0217 Y3.1097 I-0.0183 J-0.0112
G1 X1.9963 Y3.1052
G3 X1.9786 Y3.0883 I0.0038 J-0.0216
G2 X1.6318 Y2.593 I-0.7641 J0.166
G3 X1.6219 Y2.5706 I0.0117 J-0.0186
G1 X1.64 Y2.4683
G3 X1.6596 Y2.44 I0.0405 J0.0071
G1 X2.1837 Y2.1316
G3 X2.2075 Y2.1334 I0.0106 J0.0181
G2 X2.2198 Y2.1431 I0.5331 J-0.6616
X2.3144 Y2.1481 I0.0508 J-0.0656
G3 X2.4089 Y2.1436 I0.0514 J0.083
G2 X2.5547 Y2.1974 I0.3298 J-0.6686
G1 Y2.8349
G2 X2.091 Y3.224 I0.184 J0.6901
G1 X1.893 Y3.189
G2 X1.5079 Y2.639 I-0.6807 J0.0668
G1 X1.5481 Y2.4109
G2 X1.546 Y2.3821 I-0.0581 J-0.0102
X1.5737 Y2.374 I-0.0022 J-0.059
G1 X2.2094 Y2.
G2 X2.4089 Y2.1436 I0.5293 J-0.525
G1 X2.4103 Y2.1445
X2.4113 Y2.1458
X2.412 Y2.1474
X2.4122 Y2.149
X2.4119 Y2.1507
X2.4112 Y2.1522
X2.2513 Y2.3898
X2.0968 Y2.5808
X2.0896 Y2.5943
X2.0887 Y2.5953
X2.0874 Y2.5959
X2.086
X2.0848 Y2.5952
G3 X2.1575 Y2.5099 Z-0.1411 I0.0364 J-0.0427 F20.
X2.0848 Y2.5952 Z-0.1473 I-0.0364 J0.0427
X2.1575 Y2.5099 Z-0.1534 I0.0364 J-0.0427
X2.1599 Y2.5931 Z-0.1567 I-0.0364 J0.0427
X2.0768 Y2.5869 Z-0.16 I-0.0387 J-0.0406
G2 X2.0662 Y2.5733 I-0.8593 J0.665 F30.
G3 X2.0691 Y2.5573 I0.0084 J-0.0067
G1 X2.1344 Y2.5188
G3 X2.1455 Y2.5252 I0.0037 J0.0063
G1 Y2.5585
G3 X2.1351 Y2.5775 I-0.0226 J0.
G2 X2.1023 Y2.5992 I0.6371 J0.9981
G3 X2.084 Y2.5963 I-0.0076 J-0.011
G2 X2.0768 Y2.5869 I-0.8665 J0.6556
X2.0337 Y2.5691 I-0.037 J0.0286
G3 X2.0186 Y2.525 I-0.0031 J-0.0236
G1 X2.1742 Y2.4335
G3 X2.1989 Y2.4476 I0.0083 J0.0141
G1 Y2.5847
G3 X2.185 Y2.6094 I-0.0289 J0.
G2 X2.0894 Y2.6745 I0.565 J0.9322
G3 X2.0724 Y2.6717 I-0.0072 J-0.0094
G2 X1.9842 Y2.5593 I-0.8571 J0.5817
G3 X1.9866 Y2.5438 I0.0075 J-0.0068
G1 X2.0186 Y2.525
G2 X2.0536 Y2.4526 I-0.0368 J-0.0625
G3 X2.0887 Y2.3802 I0.0718 J-0.0099
G1 X2.1726 Y2.3308
G3 X2.1992 Y2.3312 I0.0129 J0.022
G2 X2.2744 Y2.3742 I0.5458 J-0.8672
G3 X2.2882 Y2.3969 I-0.0117 J0.0227
G1 Y2.638
G3 X2.2743 Y2.6611 I-0.0263 J0.
G2 X2.0659 Y2.8114 I0.4625 J0.8613
G3 X2.0512 Y2.809 I-0.0064 J-0.0068
G2 X1.8387 Y2.5409 I-0.8429 J0.4501
G3 X1.8401 Y2.5265 I0.0059 J-0.0067
G1 X2.0887 Y2.3802
G2 X2.1226 Y2.3101 I-0.0356 J-0.0605
G3 X2.1566 Y2.24 I0.0696 J-0.0096
G1 X2.1769 Y2.228
G3 X2.2021 Y2.2291 I0.0117 J0.02
G2 X2.3609 Y2.32 I0.5341 J-0.7497
G3 X2.3746 Y2.3411 I-0.0094 J0.0211
G1 Y2.6929
G3 X2.3609 Y2.7144 I-0.0238 J0.
G2 X2.0387 Y2.9684 I0.3759 J0.8081
G3 X2.0264 Y2.9664 I-0.0056 J-0.0044
G2 X1.7193 Y2.5562 I-0.8148 J0.29
G3 X1.7095 Y2.5321 I0.0143 J-0.0198
G1 X1.712 Y2.5183
G3 X1.7316 Y2.49 I0.0405 J0.0071
G1 X2.1566 Y2.24
G2 X2.1734 Y2.1818 I-0.0223 J-0.0379
G3 X2.2198 Y2.1431 I0.0275 J-0.0142
G2 X2.4407 Y2.2667 I0.5207 J-0.6714
G3 X2.4542 Y2.2863 I-0.0074 J0.0196
G1 Y2.7468
G3 X2.4406 Y2.7668 I-0.0214 J0.
G2 X2.0437 Y3.0998 I0.298 J0.7582
G3 X2.0217 Y3.1097 I-0.0183 J-0.0112
G1 X1.9963 Y3.1052
G3 X1.9786 Y3.0883 I0.0038 J-0.0216
G2 X1.6318 Y2.593 I-0.7641 J0.166
G3 X1.6219 Y2.5706 I0.0117 J-0.0186
G1 X1.64 Y2.4683
G3 X1.6596 Y2.44 I0.0405 J0.0071
G1 X2.1837 Y2.1316
G3 X2.2075 Y2.1334 I0.0106 J0.0181
G2 X2.2198 Y2.1431 I0.5331 J-0.6616
X2.3144 Y2.1481 I0.0508 J-0.0656
G3 X2.4089 Y2.1436 I0.0514 J0.083
G2 X2.5547 Y2.1974 I0.3298 J-0.6686
G1 Y2.8349
G2 X2.091 Y3.224 I0.184 J0.6901
G1 X1.893 Y3.189
G2 X1.5079 Y2.639 I-0.6807 J0.0668
G1 X1.5481 Y2.4109
G2 X1.546 Y2.3821 I-0.0581 J-0.0102
X1.5737 Y2.374 I-0.0022 J-0.059
G1 X2.2094 Y2.
G2 X2.4089 Y2.1436 I0.5293 J-0.525
G1 X2.4103 Y2.1445
X2.4113 Y2.1458
X2.412 Y2.1474
X2.4122 Y2.149
X2.4119 Y2.1507
X2.4112 Y2.1522
X2.2513 Y2.3898
X2.0968 Y2.5808
X2.0896 Y2.5943
X2.0887 Y2.5953
X2.0874 Y2.5959
X2.086
X2.0848 Y2.5952
G3 X2.1575 Y2.5099 Z-0.1661 I0.0364 J-0.0427 F20.
X2.0848 Y2.5952 Z-0.1723 I-0.0364 J0.0427
X2.1575 Y2.5099 Z-0.1784 I0.0364 J-0.0427
X2.1599 Y2.5931 Z-0.1817 I-0.0364 J0.0427
X2.0768 Y2.5869 Z-0.185 I-0.0387 J-0.0406
G2 X2.0662 Y2.5733 I-0.8593 J0.665 F30.
G3 X2.0691 Y2.5573 I0.0084 J-0.0067
G1 X2.1344 Y2.5188
G3 X2.1455 Y2.5252 I0.0037 J0.0063
G1 Y2.5585
G3 X2.1351 Y2.5775 I-0.0226 J0.
G2 X2.1023 Y2.5992 I0.6371 J0.9981
G3 X2.084 Y2.5963 I-0.0076 J-0.011
G2 X2.0768 Y2.5869 I-0.8665 J0.6556
X2.0337 Y2.5691 I-0.037 J0.0286
G3 X2.0186 Y2.525 I-0.0031 J-0.0236
G1 X2.1742 Y2.4335
G3 X2.1989 Y2.4476 I0.0083 J0.0141
G1 Y2.5847
G3 X2.185 Y2.6094 I-0.0289 J0.
G2 X2.0894 Y2.6745 I0.565 J0.9322
G3 X2.0724 Y2.6717 I-0.0072 J-0.0094
G2 X1.9842 Y2.5593 I-0.8571 J0.5817
G3 X1.9866 Y2.5438 I0.0075 J-0.0068
G1 X2.0186 Y2.525
G2 X2.0536 Y2.4526 I-0.0368 J-0.0625
G3 X2.0887 Y2.3802 I0.0718 J-0.0099
G1 X2.1726 Y2.3308
G3 X2.1992 Y2.3312 I0.0129 J0.022
G2 X2.2744 Y2.3742 I0.5458 J-0.8672
G3 X2.2882 Y2.3969 I-0.0117 J0.0227
G1 Y2.638
G3 X2.2743 Y2.6611 I-0.0263 J0.
G2 X2.0659 Y2.8114 I0.4625 J0.8613
G3 X2.0512 Y2.809 I-0.0064 J-0.0068
G2 X1.8387 Y2.5409 I-0.8429 J0.4501
G3 X1.8401 Y2.5265 I0.0059 J-0.0067
G1 X2.0887 Y2.3802
G2 X2.1226 Y2.3101 I-0.0356 J-0.0605
G3 X2.1566 Y2.24 I0.0696 J-0.0096
G1 X2.1769 Y2.228
G3 X2.2021 Y2.2291 I0.0117 J0.02
G2 X2.3609 Y2.32 I0.5341 J-0.7497
G3 X2.3746 Y2.3411 I-0.0094 J0.0211
G1 Y2.6929
G3 X2.3609 Y2.7144 I-0.0238 J0.
G2 X2.0387 Y2.9684 I0.3759 J0.8081
G3 X2.0264 Y2.9664 I-0.0056 J-0.0044
G2 X1.7193 Y2.5562 I-0.8148 J0.29
G3 X1.7095 Y2.5321 I0.0143 J-0.0198
G1 X1.712 Y2.5183
G3 X1.7316 Y2.49 I0.0405 J0.0071
G1 X2.1566 Y2.24
G2 X2.1734 Y2.1818 I-0.0223 J-0.0379
G3 X2.2198 Y2.1431 I0.0275 J-0.0142
G2 X2.4407 Y2.2667 I0.5207 J-0.6714
G3 X2.4542 Y2.2863 I-0.0074 J0.0196
G1 Y2.7468
G3 X2.4406 Y2.7668 I-0.0214 J0.
G2 X2.0437 Y3.0998 I0.298 J0.7582
G3 X2.0217 Y3.1097 I-0.0183 J-0.0112
G1 X1.9963 Y3.1052
G3 X1.9786 Y3.0883 I0.0038 J-0.0216
G2 X1.6318 Y2.593 I-0.7641 J0.166
G3 X1.6219 Y2.5706 I0.0117 J-0.0186
G1 X1.64 Y2.4683
G3 X1.6596 Y2.44 I0.0405 J0.0071
G1 X2.1837 Y2.1316
G3 X2.2075 Y2.1334 I0.0106 J0.0181
G2 X2.2198 Y2.1431 I0.5331 J-0.6616
X2.3144 Y2.1481 I0.0508 J-0.0656
G3 X2.4089 Y2.1436 I0.0514 J0.083
G2 X2.5547 Y2.1974 I0.3298 J-0.6686
G1 Y2.8349
G2 X2.091 Y3.224 I0.184 J0.6901
G1 X1.893 Y3.189
G2 X1.5079 Y2.639 I-0.6807 J0.0668
G1 X1.5481 Y2.4109
G2 X1.546 Y2.3821 I-0.0581 J-0.0102
X1.5737 Y2.374 I-0.0022 J-0.059
G1 X2.2094 Y2.
G2 X2.4089 Y2.1436 I0.5293 J-0.525
G1 X2.4103 Y2.1445
X2.4113 Y2.1458
X2.412 Y2.1474
X2.4122 Y2.149
X2.4119 Y2.1507
X2.4112 Y2.1522
X2.2513 Y2.3898
X2.0968 Y2.5808
X2.0896 Y2.5943
X2.0887 Y2.5953
X2.0874 Y2.5959
X2.086
X2.0848 Y2.5952
G3 X2.1575 Y2.5099 Z-0.1911 I0.0364 J-0.0427 F20.
X2.0848 Y2.5952 Z-0.1973 I-0.0364 J0.0427
X2.1575 Y2.5099 Z-0.2034 I0.0364 J-0.0427
X2.1599 Y2.5931 Z-0.2067 I-0.0364 J0.0427
X2.0768 Y2.5869 Z-0.21 I-0.0387 J-0.0406
G2 X2.0662 Y2.5733 I-0.8593 J0.665 F30.
G3 X2.0691 Y2.5573 I0.0084 J-0.0067
G1 X2.1344 Y2.5188
G3 X2.1455 Y2.5252 I0.0037 J0.0063
G1 Y2.5585
G3 X2.1351 Y2.5775 I-0.0226 J0.
G2 X2.1023 Y2.5992 I0.6371 J0.9981
G3 X2.084 Y2.5963 I-0.0076 J-0.011
G2 X2.0768 Y2.5869 I-0.8665 J0.6556
X2.0337 Y2.5691 I-0.037 J0.0286
G3 X2.0186 Y2.525 I-0.0031 J-0.0236
G1 X2.1742 Y2.4335
G3 X2.1989 Y2.4476 I0.0083 J0.0141
G1 Y2.5847
G3 X2.185 Y2.6094 I-0.0289 J0.
G2 X2.0894 Y2.6745 I0.565 J0.9322
G3 X2.0724 Y2.6717 I-0.0072 J-0.0094
G2 X1.9842 Y2.5593 I-0.8571 J0.5817
G3 X1.9866 Y2.5438 I0.0075 J-0.0068
G1 X2.0186 Y2.525
G2 X2.0536 Y2.4526 I-0.0368 J-0.0625
G3 X2.0887 Y2.3802 I0.0718 J-0.0099
G1 X2.1726 Y2.3308
G3 X2.1992 Y2.3312 I0.0129 J0.022
G2 X2.2744 Y2.3742 I0.5458 J-0.8672
G3 X2.2882 Y2.3969 I-0.0117 J0.0227
G1 Y2.638
G3 X2.2743 Y2.6611 I-0.0263 J0.
G2 X2.0659 Y2.8114 I0.4625 J0.8613
G3 X2.0512 Y2.809 I-0.0064 J-0.0068
G2 X1.8387 Y2.5409 I-0.8429 J0.4501
G3 X1.8401 Y2.5265 I0.0059 J-0.0067
G1 X2.0887 Y2.3802
G2 X2.1226 Y2.3101 I-0.0356 J-0.0605
G3 X2.1566 Y2.24 I0.0696 J-0.0096
G1 X2.1769 Y2.228
G3 X2.2021 Y2.2291 I0.0117 J0.02
G2 X2.3609 Y2.32 I0.5341 J-0.7497
G3 X2.3746 Y2.3411 I-0.0094 J0.0211
G1 Y2.6929
G3 X2.3609 Y2.7144 I-0.0238 J0.
G2 X2.0387 Y2.9684 I0.3759 J0.8081
G3 X2.0264 Y2.9664 I-0.0056 J-0.0044
G2 X1.7193 Y2.5562 I-0.8148 J0.29
G3 X1.7095 Y2.5321 I0.0143 J-0.0198
G1 X1.712 Y2.5183
G3 X1.7316 Y2.49 I0.0405 J0.0071
G1 X2.1566 Y2.24
G2 X2.1734 Y2.1818 I-0.0223 J-0.0379
G3 X2.2198 Y2.1431 I0.0275 J-0.0142
G2 X2.4407 Y2.2667 I0.5207 J-0.6714
G3 X2.4542 Y2.2863 I-0.0074 J0.0196
G1 Y2.7468
G3 X2.4406 Y2.7668 I-0.0214 J0.
G2 X2.0437 Y3.0998 I0.298 J0.7582
G3 X2.0217 Y3.1097 I-0.0183 J-0.0112
G1 X1.9963 Y3.1052
G3 X1.9786 Y3.0883 I0.0038 J-0.0216
G2 X1.6318 Y2.593 I-0.7641 J0.166
G3 X1.6219 Y2.5706 I0.0117 J-0.0186
G1 X1.64 Y2.4683
G3 X1.6596 Y2.44 I0.0405 J0.0071
G1 X2.1837 Y2.1316
G3 X2.2075 Y2.1334 I0.0106 J0.0181
G2 X2.2198 Y2.1431 I0.5331 J-0.6616
X2.3144 Y2.1481 I0.0508 J-0.0656
G3 X2.4089 Y2.1436 I0.0514 J0.083
G2 X2.5547 Y2.1974 I0.3298 J-0.6686
G1 Y2.8349
G2 X2.091 Y3.224 I0.184 J0.6901
G1 X1.893 Y3.189
G2 X1.5079 Y2.639 I-0.6807 J0.0668
G1 X1.5481 Y2.4109
G2 X1.546 Y2.3821 I-0.0581 J-0.0102
X1.5737 Y2.374 I-0.0022 J-0.059
G1 X2.2094 Y2.
G2 X2.4089 Y2.1436 I0.5293 J-0.525
G1 X2.4103 Y2.1445
X2.4113 Y2.1458
X2.412 Y2.1474
X2.4122 Y2.149
X2.4119 Y2.1507
X2.4112 Y2.1522
X2.2513 Y2.3898
X2.0968 Y2.5808
X2.0896 Y2.5943
X2.0887 Y2.5953
X2.0874 Y2.5959
X2.086
X2.0848 Y2.5952
G3 X2.1575 Y2.5099 Z-0.2161 I0.0364 J-0.0427 F20.
X2.0848 Y2.5952 Z-0.2223 I-0.0364 J0.0427
X2.1575 Y2.5099 Z-0.2284 I0.0364 J-0.0427
X2.1599 Y2.5931 Z-0.2317 I-0.0364 J0.0427
X2.0768 Y2.5869 Z-0.235 I-0.0387 J-0.0406
G2 X2.0662 Y2.5733 I-0.8593 J0.665 F30.
G3 X2.0691 Y2.5573 I0.0084 J-0.0067
G1 X2.1344 Y2.5188
G3 X2.1455 Y2.5252 I0.0037 J0.0063
G1 Y2.5585
G3 X2.1351 Y2.5775 I-0.0226 J0.
G2 X2.1023 Y2.5992 I0.6371 J0.9981
G3 X2.084 Y2.5963 I-0.0076 J-0.011
G2 X2.0768 Y2.5869 I-0.8665 J0.6556
X2.0337 Y2.5691 I-0.037 J0.0286
G3 X2.0186 Y2.525 I-0.0031 J-0.0236
G1 X2.1742 Y2.4335
G3 X2.1989 Y2.4476 I0.0083 J0.0141
G1 Y2.5847
G3 X2.185 Y2.6094 I-0.0289 J0.
G2 X2.0894 Y2.6745 I0.565 J0.9322
G3 X2.0724 Y2.6717 I-0.0072 J-0.0094
G2 X1.9842 Y2.5593 I-0.8571 J0.5817
G3 X1.9866 Y2.5438 I0.0075 J-0.0068
G1 X2.0186 Y2.525
G2 X2.0536 Y2.4526 I-0.0368 J-0.0625
G3 X2.0887 Y2.3802 I0.0718 J-0.0099
G1 X2.1726 Y2.3308
G3 X2.1992 Y2.3312 I0.0129 J0.022
G2 X2.2744 Y2.3742 I0.5458 J-0.8672
G3 X2.2882 Y2.3969 I-0.0117 J0.0227
G1 Y2.638
G3 X2.2743 Y2.6611 I-0.0263 J0.
G2 X2.0659 Y2.8114 I0.4625 J0.8613
G3 X2.0512 Y2.809 I-0.0064 J-0.0068
G2 X1.8387 Y2.5409 I-0.8429 J0.4501
G3 X1.8401 Y2.5265 I0.0059 J-0.0067
G1 X2.0887 Y2.3802
G2 X2.1226 Y2.3101 I-0.0356 J-0.0605
G3 X2.1566 Y2.24 I0.0696 J-0.0096
G1 X2.1769 Y2.228
G3 X2.2021 Y2.2291 I0.0117 J0.02
G2 X2.3609 Y2.32 I0.5341 J-0.7497
G3 X2.3746 Y2.3411 I-0.0094 J0.0211
G1 Y2.6929
G3 X2.3609 Y2.7144 I-0.0238 J0.
G2 X2.0387 Y2.9684 I0.3759 J0.8081
G3 X2.0264 Y2.9664 I-0.0056 J-0.0044
G2 X1.7193 Y2.5562 I-0.8148 J0.29
G3 X1.7095 Y2.5321 I0.0143 J-0.0198
G1 X1.712 Y2.5183
G3 X1.7316 Y2.49 I0.0405 J0.0071
G1 X2.1566 Y2.24
G2 X2.1734 Y2.1818 I-0.0223 J-0.0379
G3 X2.2198 Y2.1431 I0.0275 J-0.0142
G2 X2.4407 Y2.2667 I0.5207 J-0.6714
G3 X2.4542 Y2.2863 I-0.0074 J0.0196
G1 Y2.7468
G3 X2.4406 Y2.7668 I-0.0214 J0.
G2 X2.0437 Y3.0998 I0.298 J0.7582
G3 X2.0217 Y3.1097 I-0.0183 J-0.0112
G1 X1.9963 Y3.1052
G3 X1.9786 Y3.0883 I0.0038 J-0.0216
G2 X1.6318 Y2.593 I-0.7641 J0.166
G3 X1.6219 Y2.5706 I0.0117 J-0.0186
G1 X1.64 Y2.4683
G3 X1.6596 Y2.44 I0.0405 J0.0071
G1 X2.1837 Y2.1316
G3 X2.2075 Y2.1334 I0.0106 J0.0181
G2 X2.2198 Y2.1431 I0.5331 J-0.6616
X2.3144 Y2.1481 I0.0508 J-0.0656
G3 X2.4089 Y2.1436 I0.0514 J0.083
G2 X2.5547 Y2.1974 I0.3298 J-0.6686
G1 Y2.8349
G2 X2.091 Y3.224 I0.184 J0.6901
G1 X1.893 Y3.189
G2 X1.5079 Y2.639 I-0.6807 J0.0668
G1 X1.5481 Y2.4109
G2 X1.546 Y2.3821 I-0.0581 J-0.0102
X1.5737 Y2.374 I-0.0022 J-0.059
G1 X2.2094 Y2.
G2 X2.4089 Y2.1436 I0.5293 J-0.525
G1 X2.4103 Y2.1445
X2.4113 Y2.1458
X2.412 Y2.1474
X2.4122 Y2.149
X2.4119 Y2.1507
X2.4112 Y2.1522
X2.2513 Y2.3898
X2.0968 Y2.5808
X2.0896 Y2.5943
X2.0887 Y2.5953
X2.0874 Y2.5959
X2.086
X2.0848 Y2.5952
G3 X2.1575 Y2.5099 Z-0.2411 I0.0364 J-0.0427 F20.
X2.0848 Y2.5952 Z-0.2473 I-0.0364 J0.0427
X2.1575 Y2.5099 Z-0.2534 I0.0364 J-0.0427
X2.1599 Y2.5931 Z-0.2567 I-0.0364 J0.0427
X2.0768 Y2.5869 Z-0.26 I-0.0387 J-0.0406
G2 X2.0662 Y2.5733 I-0.8593 J0.665 F30.
G3 X2.0691 Y2.5573 I0.0084 J-0.0067
G1 X2.1344 Y2.5188
G3 X2.1455 Y2.5252 I0.0037 J0.0063
G1 Y2.5585
G3 X2.1351 Y2.5775 I-0.0226 J0.
G2 X2.1023 Y2.5992 I0.6371 J0.9981
G3 X2.084 Y2.5963 I-0.0076 J-0.011
G2 X2.0768 Y2.5869 I-0.8665 J0.6556
X2.0337 Y2.5691 I-0.037 J0.0286
G3 X2.0186 Y2.525 I-0.0031 J-0.0236
G1 X2.1742 Y2.4335
G3 X2.1989 Y2.4476 I0.0083 J0.0141
G1 Y2.5847
G3 X2.185 Y2.6094 I-0.0289 J0.
G2 X2.0894 Y2.6745 I0.565 J0.9322
G3 X2.0724 Y2.6717 I-0.0072 J-0.0094
G2 X1.9842 Y2.5593 I-0.8571 J0.5817
G3 X1.9866 Y2.5438 I0.0075 J-0.0068
G1 X2.0186 Y2.525
G2 X2.0536 Y2.4526 I-0.0368 J-0.0625
G3 X2.0887 Y2.3802 I0.0718 J-0.0099
G1 X2.1726 Y2.3308
G3 X2.1992 Y2.3312 I0.0129 J0.022
G2 X2.2744 Y2.3742 I0.5458 J-0.8672
G3 X2.2882 Y2.3969 I-0.0117 J0.0227
G1 Y2.638
G3 X2.2743 Y2.6611 I-0.0263 J0.
G2 X2.0659 Y2.8114 I0.4625 J0.8613
G3 X2.0512 Y2.809 I-0.0064 J-0.0068
G2 X1.8387 Y2.5409 I-0.8429 J0.4501
G3 X1.8401 Y2.5265 I0.0059 J-0.0067
G1 X2.0887 Y2.3802
G2 X2.1226 Y2.3101 I-0.0356 J-0.0605
G3 X2.1566 Y2.24 I0.0696 J-0.0096
G1 X2.1769 Y2.228
G3 X2.2021 Y2.2291 I0.0117 J0.02
G2 X2.3609 Y2.32 I0.5341 J-0.7497
G3 X2.3746 Y2.3411 I-0.0094 J0.0211
G1 Y2.6929
G3 X2.3609 Y2.7144 I-0.0238 J0.
G2 X2.0387 Y2.9684 I0.3759 J0.8081
G3 X2.0264 Y2.9664 I-0.0056 J-0.0044
G2 X1.7193 Y2.5562 I-0.8148 J0.29
G3 X1.7095 Y2.5321 I0.0143 J-0.0198
G1 X1.712 Y2.5183
G3 X1.7316 Y2.49 I0.0405 J0.0071
G1 X2.1566 Y2.24
G2 X2.1734 Y2.1818 I-0.0223 J-0.0379
G3 X2.2198 Y2.1431 I0.0275 J-0.0142
G2 X2.4407 Y2.2667 I0.5207 J-0.6714
G3 X2.4542 Y2.2863 I-0.0074 J0.0196
G1 Y2.7468
G3 X2.4406 Y2.7668 I-0.0214 J0.
G2 X2.0437 Y3.0998 I0.298 J0.7582
G3 X2.0217 Y3.1097 I-0.0183 J-0.0112
G1 X1.9963 Y3.1052
G3 X1.9786 Y3.0883 I0.0038 J-0.0216
G2 X1.6318 Y2.593 I-0.7641 J0.166
G3 X1.6219 Y2.5706 I0.0117 J-0.0186
G1 X1.64 Y2.4683
G3 X1.6596 Y2.44 I0.0405 J0.0071
G1 X2.1837 Y2.1316
G3 X2.2075 Y2.1334 I0.0106 J0.0181
G2 X2.2198 Y2.1431 I0.5331 J-0.6616
X2.3144 Y2.1481 I0.0508 J-0.0656
G3 X2.4089 Y2.1436 I0.0514 J0.083
G2 X2.5547 Y2.1974 I0.3298 J-0.6686
G1 Y2.8349
G2 X2.091 Y3.224 I0.184 J0.6901
G1 X1.893 Y3.189
G2 X1.5079 Y2.639 I-0.6807 J0.0668
G1 X1.5481 Y2.4109
G2 X1.546 Y2.3821 I-0.0581 J-0.0102
X1.5737 Y2.374 I-0.0022 J-0.059
G1 X2.2094 Y2.
G2 X2.4089 Y2.1436 I0.5293 J-0.525
G3 X2.4293 Y2.227 Z-0.2615 I-0.0248 J0.0503 F20.
G1 X2.1664 Y2.5857 Z-0.2684
G3 X2.0768 Y2.5869 Z-0.27 I-0.0452 J-0.0331
G2 X2.0662 Y2.5733 I-0.8593 J0.665 F30.
G3 X2.0691 Y2.5573 I0.0084 J-0.0067
G1 X2.1344 Y2.5188
G3 X2.1455 Y2.5252 I0.0037 J0.0063
G1 Y2.5585
G3 X2.1351 Y2.5775 I-0.0226 J0.
G2 X2.1023 Y2.5992 I0.6371 J0.9981
G3 X2.084 Y2.5963 I-0.0076 J-0.011
G2 X2.0768 Y2.5869 I-0.8665 J0.6556
X2.0337 Y2.5691 I-0.037 J0.0286
G3 X2.0186 Y2.525 I-0.0031 J-0.0236
G1 X2.1742 Y2.4335
G3 X2.1989 Y2.4476 I0.0083 J0.0141
G1 Y2.5847
G3 X2.185 Y2.6094 I-0.0289 J0.
G2 X2.0894 Y2.6745 I0.565 J0.9322
G3 X2.0724 Y2.6717 I-0.0072 J-0.0094
G2 X1.9842 Y2.5593 I-0.8571 J0.5817
G3 X1.9866 Y2.5438 I0.0075 J-0.0068
G1 X2.0186 Y2.525
G2 X2.0536 Y2.4526 I-0.0368 J-0.0625
G3 X2.0887 Y2.3802 I0.0718 J-0.0099
G1 X2.1726 Y2.3308
G3 X2.1992 Y2.3312 I0.0129 J0.022
G2 X2.2744 Y2.3742 I0.5458 J-0.8672
G3 X2.2882 Y2.3969 I-0.0117 J0.0227
G1 Y2.638
G3 X2.2743 Y2.6611 I-0.0263 J0.
G2 X2.0659 Y2.8114 I0.4625 J0.8613
G3 X2.0512 Y2.809 I-0.0064 J-0.0068
G2 X1.8387 Y2.5409 I-0.8429 J0.4501
G3 X1.8401 Y2.5265 I0.0059 J-0.0067
G1 X2.0887 Y2.3802
G2 X2.1226 Y2.3101 I-0.0356 J-0.0605
G3 X2.1566 Y2.24 I0.0696 J-0.0096
G1 X2.1769 Y2.228
G3 X2.2021 Y2.2291 I0.0117 J0.02
G2 X2.3609 Y2.32 I0.5341 J-0.7497
G3 X2.3746 Y2.3411 I-0.0094 J0.0211
G1 Y2.6929
G3 X2.3609 Y2.7144 I-0.0238 J0.
G2 X2.0387 Y2.9684 I0.3759 J0.8081
G3 X2.0264 Y2.9664 I-0.0056 J-0.0044
G2 X1.7193 Y2.5562 I-0.8148 J0.29
G3 X1.7095 Y2.5321 I0.0143 J-0.0198
G1 X1.712 Y2.5183
G3 X1.7316 Y2.49 I0.0405 J0.0071
G1 X2.1566 Y2.24
G2 X2.1734 Y2.1818 I-0.0223 J-0.0379
G3 X2.2198 Y2.1431 I0.0275 J-0.0142
G2 X2.4407 Y2.2667 I0.5207 J-0.6714
G3 X2.4542 Y2.2863 I-0.0074 J0.0196
G1 Y2.7468
G3 X2.4406 Y2.7668 I-0.0214 J0.
G2 X2.0437 Y3.0998 I0.298 J0.7582
G3 X2.0217 Y3.1097 I-0.0183 J-0.0112
G1 X1.9963 Y3.1052
G3 X1.9786 Y3.0883 I0.0038 J-0.0216
G2 X1.6318 Y2.593 I-0.7641 J0.166
G3 X1.6219 Y2.5706 I0.0117 J-0.0186
G1 X1.64 Y2.4683
G3 X1.6596 Y2.44 I0.0405 J0.0071
G1 X2.1837 Y2.1316
G3 X2.2075 Y2.1334 I0.0106 J0.0181
G2 X2.2198 Y2.1431 I0.5331 J-0.6616
X2.3144 Y2.1481 I0.0508 J-0.0656
G3 X2.4089 Y2.1436 I0.0514 J0.083
G2 X2.5547 Y2.1974 I0.3298 J-0.6686
G1 Y2.8349
G2 X2.091 Y3.224 I0.184 J0.6901
G1 X1.893 Y3.189
G2 X1.5079 Y2.639 I-0.6807 J0.0668
G1 X1.5481 Y2.4109
G2 X1.546 Y2.3821 I-0.0581 J-0.0102
X1.5737 Y2.374 I-0.0022 J-0.059
G1 X2.2094 Y2.
G2 X2.4089 Y2.1436 I0.5293 J-0.525
G1 X2.4108 Y2.1448 Z-0.2696
X2.4125 Y2.1463 Z-0.2691
X2.4136 Y2.1478 Z-0.2678
X2.4145 Y2.1495 Z-0.2665
X2.4153 Y2.152 Z-0.2627
X2.4154 Y2.1528 Z-0.2582
G0 Z0.24
X1.3817 Y2.2181
G1 Z0.1518 F30.
X1.3832 Y2.2186 Z0.146 F20.
X1.387 Y2.2203 Z0.1417
X1.392 Y2.2229 Z0.14
G3 X1.3344 Y2.3191 Z0.1339 I-0.0288 J0.0481
X1.392 Y2.2229 Z0.1277 I0.0288 J-0.0481
X1.3344 Y2.3191 Z0.1216 I-0.0288 J0.0481
X1.392 Y2.2229 Z0.1154 I0.0288 J-0.0481
X1.3344 Y2.3191 Z0.1093 I-0.0288 J0.0481
X1.392 Y2.2229 Z0.1031 I0.0288 J-0.0481
X1.3344 Y2.3191 Z0.097 I-0.0288 J0.0481
X1.392 Y2.2229 Z0.0908 I0.0288 J-0.0481
X1.3344 Y2.3191 Z0.0847 I-0.0288 J0.0481
X1.392 Y2.2229 Z0.0785 I0.0288 J-0.0481
X1.3344 Y2.3191 Z0.0724 I-0.0288 J0.0481
X1.392 Y2.2229 Z0.0662 I0.0288 J-0.0481
X1.3344 Y2.3191 Z0.0601 I-0.0288 J0.0481
X1.392 Y2.2229 Z0.0539 I0.0288 J-0.0481
X1.3344 Y2.3191 Z0.0478 I-0.0288 J0.0481
X1.392 Y2.2229 Z0.0416 I0.0288 J-0.0481
X1.3344 Y2.3191 Z0.0355 I-0.0288 J0.0481
X1.392 Y2.2229 Z0.0293 I0.0288 J-0.0481
X1.3344 Y2.3191 Z0.0232 I-0.0288 J0.0481
X1.392 Y2.2229 Z0.017 I0.0288 J-0.0481
X1.4193 Y2.271 Z0.015 I-0.0288 J0.0481
X1.3525 I-0.0334 J0. F30.
X1.4193 I0.0334 J0.
G2 X1.4454 Y2.3094 I0.0413 J0.
G3 X1.4521 Y2.3554 I-0.0098 J0.0249
X1.3197 Y2.1867 I-0.0662 J-0.0844
X1.4877 Y2.3047 I0.0662 J0.0844
G2 X1.4878 Y2.3417 I0.056 J0.0185
X1.453 Y2.3547 I0.0022 J0.059
G1 X1.4521 Y2.3554
G3 X1.4392 Y2.3496 I-0.0049 J-0.0063
G1 X1.4339 Y2.2575
G2 X1.4249 Y2.25 I-0.008 J0.0005
X1.4181 Y2.2596 I0.0011 J0.0079
G3 X1.3084 Y2.2825 Z0.0089 I-0.0549 J0.0115 F20.
X1.4181 Y2.2596 Z0.0027 I0.0549 J-0.0115
X1.3084 Y2.2825 Z-0.0034 I-0.0549 J0.0115
X1.3575 Y2.2153 Z-0.0067 I0.0549 J-0.0115
X1.4193 Y2.271 Z-0.01 I0.0058 J0.0558
X1.3525 I-0.0334 J0. F30.
X1.4193 I0.0334 J0.
G2 X1.4454 Y2.3094 I0.0413 J0.
G3 X1.4521 Y2.3554 I-0.0098 J0.0249
X1.3197 Y2.1867 I-0.0662 J-0.0844
X1.4877 Y2.3047 I0.0662 J0.0844
G2 X1.4878 Y2.3417 I0.056 J0.0185
X1.453 Y2.3547 I0.0022 J0.059
G1 X1.4521 Y2.3554
G3 X1.4392 Y2.3496 I-0.0049 J-0.0063
G1 X1.4339 Y2.2575
G2 X1.4249 Y2.25 I-0.008 J0.0005
X1.4181 Y2.2596 I0.0011 J0.0079
G3 X1.3084 Y2.2825 Z-0.0161 I-0.0549 J0.0115 F20.
X1.4181 Y2.2596 Z-0.0223 I0.0549 J-0.0115
X1.3084 Y2.2825 Z-0.0284 I-0.0549 J0.0115
X1.3575 Y2.2153 Z-0.0317 I0.0549 J-0.0115
X1.4193 Y2.271 Z-0.035 I0.0058 J0.0558
X1.3525 I-0.0334 J0. F30.
X1.4193 I0.0334 J0.
G2 X1.4454 Y2.3094 I0.0413 J0.
G3 X1.4521 Y2.3554 I-0.0098 J0.0249
X1.3197 Y2.1867 I-0.0662 J-0.0844
X1.4877 Y2.3047 I0.0662 J0.0844
G2 X1.4878 Y2.3417 I0.056 J0.0185
X1.453 Y2.3547 I0.0022 J0.059
G1 X1.4521 Y2.3554
G3 X1.4392 Y2.3496 I-0.0049 J-0.0063
G1 X1.4339 Y2.2575
G2 X1.4249 Y2.25 I-0.008 J0.0005
X1.4181 Y2.2596 I0.0011 J0.0079
G3 X1.3084 Y2.2825 Z-0.0411 I-0.0549 J0.0115 F20.
X1.4181 Y2.2596 Z-0.0473 I0.0549 J-0.0115
X1.3084 Y2.2825 Z-0.0534 I-0.0549 J0.0115
X1.3575 Y2.2153 Z-0.0567 I0.0549 J-0.0115
X1.4193 Y2.271 Z-0.06 I0.0058 J0.0558
X1.3525 I-0.0334 J0. F30.
X1.4193 I0.0334 J0.
G2 X1.4454 Y2.3094 I0.0413 J0.
G3 X1.4521 Y2.3554 I-0.0098 J0.0249
X1.3197 Y2.1867 I-0.0662 J-0.0844
X1.4877 Y2.3047 I0.0662 J0.0844
G2 X1.4878 Y2.3417 I0.056 J0.0185
X1.453 Y2.3547 I0.0022 J0.059
G1 X1.4521 Y2.3554
G3 X1.4392 Y2.3496 I-0.0049 J-0.0063
G1 X1.4339 Y2.2575
G2 X1.4249 Y2.25 I-0.008 J0.0005
X1.4181 Y2.2596 I0.0011 J0.0079
G3 X1.3084 Y2.2825 Z-0.0661 I-0.0549 J0.0115 F20.
X1.4181 Y2.2596 Z-0.0723 I0.0549 J-0.0115
X1.3084 Y2.2825 Z-0.0784 I-0.0549 J0.0115
X1.3575 Y2.2153 Z-0.0817 I0.0549 J-0.0115
X1.4193 Y2.271 Z-0.085 I0.0058 J0.0558
X1.3525 I-0.0334 J0. F30.
X1.4193 I0.0334 J0.
G2 X1.4454 Y2.3094 I0.0413 J0.
G3 X1.4521 Y2.3554 I-0.0098 J0.0249
X1.3197 Y2.1867 I-0.0662 J-0.0844
X1.4877 Y2.3047 I0.0662 J0.0844
G2 X1.4878 Y2.3417 I0.056 J0.0185
X1.453 Y2.3547 I0.0022 J0.059
G1 X1.4521 Y2.3554
G3 X1.4392 Y2.3496 I-0.0049 J-0.0063
G1 X1.4339 Y2.2575
G2 X1.4249 Y2.25 I-0.008 J0.0005
X1.4181 Y2.2596 I0.0011 J0.0079
G3 X1.3084 Y2.2825 Z-0.0911 I-0.0549 J0.0115 F20.
X1.4181 Y2.2596 Z-0.0973 I0.0549 J-0.0115
X1.3084 Y2.2825 Z-0.1034 I-0.0549 J0.0115
X1.3575 Y2.2153 Z-0.1067 I0.0549 J-0.0115
X1.4193 Y2.271 Z-0.11 I0.0058 J0.0558
X1.3525 I-0.0334 J0. F30.
X1.4193 I0.0334 J0.
G2 X1.4454 Y2.3094 I0.0413 J0.
G3 X1.4521 Y2.3554 I-0.0098 J0.0249
X1.3197 Y2.1867 I-0.0662 J-0.0844
X1.4877 Y2.3047 I0.0662 J0.0844
G2 X1.4878 Y2.3417 I0.056 J0.0185
X1.453 Y2.3547 I0.0022 J0.059
G1 X1.4521 Y2.3554
G3 X1.4392 Y2.3496 I-0.0049 J-0.0063
G1 X1.4339 Y2.2575
G2 X1.4249 Y2.25 I-0.008 J0.0005
X1.4181 Y2.2596 I0.0011 J0.0079
G3 X1.3084 Y2.2825 Z-0.1161 I-0.0549 J0.0115 F20.
X1.4181 Y2.2596 Z-0.1223 I0.0549 J-0.0115
X1.3084 Y2.2825 Z-0.1284 I-0.0549 J0.0115
X1.3575 Y2.2153 Z-0.1317 I0.0549 J-0.0115
X1.4193 Y2.271 Z-0.135 I0.0058 J0.0558
X1.3525 I-0.0334 J0. F30.
X1.4193 I0.0334 J0.
G2 X1.4454 Y2.3094 I0.0413 J0.
G3 X1.4521 Y2.3554 I-0.0098 J0.0249
X1.3197 Y2.1867 I-0.0662 J-0.0844
X1.4877 Y2.3047 I0.0662 J0.0844
G2 X1.4878 Y2.3417 I0.056 J0.0185
X1.453 Y2.3547 I0.0022 J0.059
G1 X1.4521 Y2.3554
G3 X1.4392 Y2.3496 I-0.0049 J-0.0063
G1 X1.4339 Y2.2575
G2 X1.4249 Y2.25 I-0.008 J0.0005
X1.4181 Y2.2596 I0.0011 J0.0079
G3 X1.3084 Y2.2825 Z-0.1411 I-0.0549 J0.0115 F20.
X1.4181 Y2.2596 Z-0.1473 I0.0549 J-0.0115
X1.3084 Y2.2825 Z-0.1534 I-0.0549 J0.0115
X1.3575 Y2.2153 Z-0.1567 I0.0549 J-0.0115
X1.4193 Y2.271 Z-0.16 I0.0058 J0.0558
X1.3525 I-0.0334 J0. F30.
X1.4193 I0.0334 J0.
G2 X1.4454 Y2.3094 I0.0413 J0.
G3 X1.4521 Y2.3554 I-0.0098 J0.0249
X1.3197 Y2.1867 I-0.0662 J-0.0844
X1.4877 Y2.3047 I0.0662 J0.0844
G2 X1.4878 Y2.3417 I0.056 J0.0185
X1.453 Y2.3547 I0.0022 J0.059
G1 X1.4521 Y2.3554
G3 X1.4392 Y2.3496 I-0.0049 J-0.0063
G1 X1.4339 Y2.2575
G2 X1.4249 Y2.25 I-0.008 J0.0005
X1.4181 Y2.2596 I0.0011 J0.0079
G3 X1.3084 Y2.2825 Z-0.1661 I-0.0549 J0.0115 F20.
X1.4181 Y2.2596 Z-0.1723 I0.0549 J-0.0115
X1.3084 Y2.2825 Z-0.1784 I-0.0549 J0.0115
X1.3575 Y2.2153 Z-0.1817 I0.0549 J-0.0115
X1.4193 Y2.271 Z-0.185 I0.0058 J0.0558
X1.3525 I-0.0334 J0. F30.
X1.4193 I0.0334 J0.
G2 X1.4454 Y2.3094 I0.0413 J0.
G3 X1.4521 Y2.3554 I-0.0098 J0.0249
X1.3197 Y2.1867 I-0.0662 J-0.0844
X1.4877 Y2.3047 I0.0662 J0.0844
G2 X1.4878 Y2.3417 I0.056 J0.0185
X1.453 Y2.3547 I0.0022 J0.059
G1 X1.4521 Y2.3554
G3 X1.4392 Y2.3496 I-0.0049 J-0.0063
G1 X1.4339 Y2.2575
G2 X1.4249 Y2.25 I-0.008 J0.0005
X1.4181 Y2.2596 I0.0011 J0.0079
G3 X1.3084 Y2.2825 Z-0.1911 I-0.0549 J0.0115 F20.
X1.4181 Y2.2596 Z-0.1973 I0.0549 J-0.0115
X1.3084 Y2.2825 Z-0.2034 I-0.0549 J0.0115
X1.3575 Y2.2153 Z-0.2067 I0.0549 J-0.0115
X1.4193 Y2.271 Z-0.21 I0.0058 J0.0558
X1.3525 I-0.0334 J0. F30.
X1.4193 I0.0334 J0.
G2 X1.4454 Y2.3094 I0.0413 J0.
G3 X1.4521 Y2.3554 I-0.0098 J0.0249
X1.3197 Y2.1867 I-0.0662 J-0.0844
X1.4877 Y2.3047 I0.0662 J0.0844
G2 X1.4878 Y2.3417 I0.056 J0.0185
X1.453 Y2.3547 I0.0022 J0.059
G1 X1.4521 Y2.3554
G3 X1.4392 Y2.3496 I-0.0049 J-0.0063
G1 X1.4339 Y2.2575
G2 X1.4249 Y2.25 I-0.008 J0.0005
X1.4181 Y2.2596 I0.0011 J0.0079
G3 X1.3084 Y2.2825 Z-0.2161 I-0.0549 J0.0115 F20.
X1.4181 Y2.2596 Z-0.2223 I0.0549 J-0.0115
X1.3084 Y2.2825 Z-0.2284 I-0.0549 J0.0115
X1.3575 Y2.2153 Z-0.2317 I0.0549 J-0.0115
X1.4193 Y2.271 Z-0.235 I0.0058 J0.0558
X1.3525 I-0.0334 J0. F30.
X1.4193 I0.0334 J0.
G2 X1.4454 Y2.3094 I0.0413 J0.
G3 X1.4521 Y2.3554 I-0.0098 J0.0249
X1.3197 Y2.1867 I-0.0662 J-0.0844
X1.4877 Y2.3047 I0.0662 J0.0844
G2 X1.4878 Y2.3417 I0.056 J0.0185
X1.453 Y2.3547 I0.0022 J0.059
G1 X1.4521 Y2.3554
G3 X1.4392 Y2.3496 I-0.0049 J-0.0063
G1 X1.4339 Y2.2575
G2 X1.4249 Y2.25 I-0.008 J0.0005
X1.4181 Y2.2596 I0.0011 J0.0079
G3 X1.3084 Y2.2825 Z-0.2411 I-0.0549 J0.0115 F20.
X1.4181 Y2.2596 Z-0.2473 I0.0549 J-0.0115
X1.3084 Y2.2825 Z-0.2534 I-0.0549 J0.0115
X1.3575 Y2.2153 Z-0.2567 I0.0549 J-0.0115
X1.4193 Y2.271 Z-0.26 I0.0058 J0.0558
X1.3525 I-0.0334 J0. F30.
X1.4193 I0.0334 J0.
G2 X1.4454 Y2.3094 I0.0413 J0.
G3 X1.4521 Y2.3554 I-0.0098 J0.0249
X1.3197 Y2.1867 I-0.0662 J-0.0844
X1.4877 Y2.3047 I0.0662 J0.0844
G2 X1.4878 Y2.3417 I0.056 J0.0185
X1.453 Y2.3547 I0.0022 J0.059
G1 X1.4521 Y2.3554
G3 X1.3841 Y2.3563 Z-0.262 I-0.0346 J-0.0441 F20.
G1 X1.3298 Y2.316 Z-0.2638
G3 X1.3966 Y2.226 Z-0.2686 I0.0334 J-0.045
X1.4193 Y2.271 Z-0.27 I-0.0334 J0.045
X1.3525 I-0.0334 J0. F30.
X1.4193 I0.0334 J0.
G2 X1.4454 Y2.3094 I0.0413 J0.
G3 X1.4521 Y2.3554 I-0.0098 J0.0249
X1.3197 Y2.1867 I-0.0662 J-0.0844
X1.4877 Y2.3047 I0.0662 J0.0844
G2 X1.4878 Y2.3417 I0.056 J0.0185
X1.453 Y2.3547 I0.0022 J0.059
G1 X1.4521 Y2.3554
X1.4502 Y2.3566 Z-0.2696
X1.4481 Y2.3575 Z-0.2691
X1.4462 Y2.3578 Z-0.2678
X1.4443 Y2.3579 Z-0.2665
X1.4418 Y2.3575 Z-0.2627
X1.4409 Y2.3573 Z-0.2582
G0 Z0.64

M9
M30
