(X4 GEARBOX CENTER BEARING HOLE RUN 10)
(T3  D=0.118 CR=0. - ZMIN=-0.26 - FLAT END MILL)
G90 G94 G91.1 G40 G49 G17
G20

(2D POCKET11)
M5
T3 M6
S15000 M3
G54
M8
G0 X2.6791 Y3.5588
G43 Z0.64 H3
Z0.24
G1 Z0.1518 F30.
X2.6782 Y3.5576 Z0.146 F20.
X2.676 Y3.5541 Z0.1417
X2.6732 Y3.5491 Z0.14
G3 X2.7745 Y3.5009 Z0.1339 I0.0506 J-0.0241
X2.6732 Y3.5491 Z0.1277 I-0.0506 J0.0241
X2.7745 Y3.5009 Z0.1216 I0.0506 J-0.0241
X2.6732 Y3.5491 Z0.1154 I-0.0506 J0.0241
X2.7745 Y3.5009 Z0.1093 I0.0506 J-0.0241
X2.6732 Y3.5491 Z0.1031 I-0.0506 J0.0241
X2.7745 Y3.5009 Z0.097 I0.0506 J-0.0241
X2.6732 Y3.5491 Z0.0908 I-0.0506 J0.0241
X2.7745 Y3.5009 Z0.0847 I0.0506 J-0.0241
X2.6732 Y3.5491 Z0.0785 I-0.0506 J0.0241
X2.7745 Y3.5009 Z0.0724 I0.0506 J-0.0241
X2.6732 Y3.5491 Z0.0662 I-0.0506 J0.0241
X2.7745 Y3.5009 Z0.0601 I0.0506 J-0.0241
X2.6732 Y3.5491 Z0.0539 I-0.0506 J0.0241
X2.7745 Y3.5009 Z0.0478 I0.0506 J-0.0241
X2.6732 Y3.5491 Z0.0416 I-0.0506 J0.0241
X2.7745 Y3.5009 Z0.0355 I0.0506 J-0.0241
X2.6732 Y3.5491 Z0.0293 I-0.0506 J0.0241
X2.7745 Y3.5009 Z0.0232 I0.0506 J-0.0241
X2.6732 Y3.5491 Z0.017 I-0.0506 J0.0241
X2.7745 Y3.5009 Z0.0109 I0.0506 J-0.0241
X2.7799 Y3.525 Z0.01 I-0.0506 J0.0241
X2.6975 I-0.0412 J0. F30.
X2.892 I0.0973 J0.
X2.5854 I-0.1533 J0.
X3.0041 I0.2093 J0.
X2.4733 I-0.2654 J0.
X3.1162 I0.3215 J0.
X2.3612 I-0.3775 J0.
X3.1162 I0.3775 J0.
G1 X3.1159 Y3.5268
X3.1151 Y3.5284
X3.1138 Y3.5297
X3.1122 Y3.5306
X3.1104 Y3.5309
X2.8899 Y3.5357
X2.6766 Y3.5122
X2.6749 Y3.5118
X2.6734 Y3.5108
X2.6722 Y3.5094
X2.6716 Y3.5077
X2.6714 Y3.5059
X2.6718 Y3.5042
G3 X2.7759 Y3.5458 Z0.0039 I0.052 J0.0208 F20.
X2.6718 Y3.5042 Z-0.0023 I-0.052 J-0.0208
X2.7759 Y3.5458 Z-0.0084 I0.052 J0.0208
X2.6718 Y3.5042 Z-0.0146 I-0.052 J-0.0208
X2.7799 Y3.525 Z-0.02 I0.052 J0.0208
X2.6975 I-0.0412 J0. F30.
X2.892 I0.0973 J0.
X2.5854 I-0.1533 J0.
X3.0041 I0.2093 J0.
X2.4733 I-0.2654 J0.
X3.1162 I0.3215 J0.
X2.3612 I-0.3775 J0.
X3.1162 I0.3775 J0.
G1 X3.1159 Y3.5268
X3.1151 Y3.5284
X3.1138 Y3.5297
X3.1122 Y3.5306
X3.1104 Y3.5309
X2.8899 Y3.5357
X2.6766 Y3.5122
X2.6749 Y3.5118
X2.6734 Y3.5108
X2.6722 Y3.5094
X2.6716 Y3.5077
X2.6714 Y3.5059
X2.6718 Y3.5042
G3 X2.7759 Y3.5458 Z-0.0261 I0.052 J0.0208 F20.
X2.6718 Y3.5042 Z-0.0323 I-0.052 J-0.0208
X2.7759 Y3.5458 Z-0.0384 I0.052 J0.0208
X2.6718 Y3.5042 Z-0.0446 I-0.052 J-0.0208
X2.7799 Y3.525 Z-0.05 I0.052 J0.0208
X2.6975 I-0.0412 J0. F30.
X2.892 I0.0973 J0.
X2.5854 I-0.1533 J0.
X3.0041 I0.2093 J0.
X2.4733 I-0.2654 J0.
X3.1162 I0.3215 J0.
X2.3612 I-0.3775 J0.
X3.1162 I0.3775 J0.
G1 X3.1159 Y3.5268
X3.1151 Y3.5284
X3.1138 Y3.5297
X3.1122 Y3.5306
X3.1104 Y3.5309
X2.8899 Y3.5357
X2.6766 Y3.5122
X2.6749 Y3.5118
X2.6734 Y3.5108
X2.6722 Y3.5094
X2.6716 Y3.5077
X2.6714 Y3.5059
X2.6718 Y3.5042
G3 X2.7759 Y3.5458 Z-0.0561 I0.052 J0.0208 F20.
X2.6718 Y3.5042 Z-0.0623 I-0.052 J-0.0208
X2.7759 Y3.5458 Z-0.0684 I0.052 J0.0208
X2.6718 Y3.5042 Z-0.0746 I-0.052 J-0.0208
X2.7799 Y3.525 Z-0.08 I0.052 J0.0208
X2.6975 I-0.0412 J0. F30.
X2.892 I0.0973 J0.
X2.5854 I-0.1533 J0.
X3.0041 I0.2093 J0.
X2.4733 I-0.2654 J0.
X3.1162 I0.3215 J0.
X2.3612 I-0.3775 J0.
X3.1162 I0.3775 J0.
G1 X3.1159 Y3.5268
X3.1151 Y3.5284
X3.1138 Y3.5297
X3.1122 Y3.5306
X3.1104 Y3.5309
X2.8899 Y3.5357
X2.6766 Y3.5122
X2.6749 Y3.5118
X2.6734 Y3.5108
X2.6722 Y3.5094
X2.6716 Y3.5077
X2.6714 Y3.5059
X2.6718 Y3.5042
G3 X2.7759 Y3.5458 Z-0.0861 I0.052 J0.0208 F20.
X2.6718 Y3.5042 Z-0.0923 I-0.052 J-0.0208
X2.7759 Y3.5458 Z-0.0984 I0.052 J0.0208
X2.6718 Y3.5042 Z-0.1046 I-0.052 J-0.0208
X2.7799 Y3.525 Z-0.11 I0.052 J0.0208
X2.6975 I-0.0412 J0. F30.
X2.892 I0.0973 J0.
X2.5854 I-0.1533 J0.
X3.0041 I0.2093 J0.
X2.4733 I-0.2654 J0.
X3.1162 I0.3215 J0.
X2.3612 I-0.3775 J0.
X3.1162 I0.3775 J0.
G1 X3.1159 Y3.5268
X3.1151 Y3.5284
X3.1138 Y3.5297
X3.1122 Y3.5306
X3.1104 Y3.5309
X2.8899 Y3.5357
X2.6766 Y3.5122
X2.6749 Y3.5118
X2.6734 Y3.5108
X2.6722 Y3.5094
X2.6716 Y3.5077
X2.6714 Y3.5059
X2.6718 Y3.5042
G3 X2.7759 Y3.5458 Z-0.1161 I0.052 J0.0208 F20.
X2.6718 Y3.5042 Z-0.1223 I-0.052 J-0.0208
X2.7759 Y3.5458 Z-0.1284 I0.052 J0.0208
X2.6718 Y3.5042 Z-0.1346 I-0.052 J-0.0208
X2.7799 Y3.525 Z-0.14 I0.052 J0.0208
X2.6975 I-0.0412 J0. F30.
X2.892 I0.0973 J0.
X2.5854 I-0.1533 J0.
X3.0041 I0.2093 J0.
X2.4733 I-0.2654 J0.
X3.1162 I0.3215 J0.
X2.3612 I-0.3775 J0.
X3.1162 I0.3775 J0.
G1 X3.1159 Y3.5268
X3.1151 Y3.5284
X3.1138 Y3.5297
X3.1122 Y3.5306
X3.1104 Y3.5309
X2.8899 Y3.5357
X2.6766 Y3.5122
X2.6749 Y3.5118
X2.6734 Y3.5108
X2.6722 Y3.5094
X2.6716 Y3.5077
X2.6714 Y3.5059
X2.6718 Y3.5042
G3 X2.7759 Y3.5458 Z-0.1461 I0.052 J0.0208 F20.
X2.6718 Y3.5042 Z-0.1523 I-0.052 J-0.0208
X2.7759 Y3.5458 Z-0.1584 I0.052 J0.0208
X2.6718 Y3.5042 Z-0.1646 I-0.052 J-0.0208
X2.7799 Y3.525 Z-0.17 I0.052 J0.0208
X2.6975 I-0.0412 J0. F30.
X2.892 I0.0973 J0.
X2.5854 I-0.1533 J0.
X3.0041 I0.2093 J0.
X2.4733 I-0.2654 J0.
X3.1162 I0.3215 J0.
X2.3612 I-0.3775 J0.
X3.1162 I0.3775 J0.
G1 X3.1159 Y3.5268
X3.1151 Y3.5284
X3.1138 Y3.5297
X3.1122 Y3.5306
X3.1104 Y3.5309
X2.8899 Y3.5357
X2.6766 Y3.5122
X2.6749 Y3.5118
X2.6734 Y3.5108
X2.6722 Y3.5094
X2.6716 Y3.5077
X2.6714 Y3.5059
X2.6718 Y3.5042
G3 X2.7759 Y3.5458 Z-0.1761 I0.052 J0.0208 F20.
X2.6718 Y3.5042 Z-0.1823 I-0.052 J-0.0208
X2.7759 Y3.5458 Z-0.1884 I0.052 J0.0208
X2.6718 Y3.5042 Z-0.1946 I-0.052 J-0.0208
X2.7799 Y3.525 Z-0.2 I0.052 J0.0208
X2.6975 I-0.0412 J0. F30.
X2.892 I0.0973 J0.
X2.5854 I-0.1533 J0.
X3.0041 I0.2093 J0.
X2.4733 I-0.2654 J0.
X3.1162 I0.3215 J0.
X2.3612 I-0.3775 J0.
X3.1162 I0.3775 J0.
G1 X3.1159 Y3.5268
X3.1151 Y3.5284
X3.1138 Y3.5297
X3.1122 Y3.5306
X3.1104 Y3.5309
X2.8899 Y3.5357
X2.6766 Y3.5122
X2.6749 Y3.5118
X2.6734 Y3.5108
X2.6722 Y3.5094
X2.6716 Y3.5077
X2.6714 Y3.5059
X2.6718 Y3.5042
G3 X2.7759 Y3.5458 Z-0.2061 I0.052 J0.0208 F20.
X2.6718 Y3.5042 Z-0.2123 I-0.052 J-0.0208
X2.7759 Y3.5458 Z-0.2184 I0.052 J0.0208
X2.6718 Y3.5042 Z-0.2246 I-0.052 J-0.0208
X2.7799 Y3.525 Z-0.23 I0.052 J0.0208
X2.6975 I-0.0412 J0. F30.
X2.892 I0.0973 J0.
X2.5854 I-0.1533 J0.
X3.0041 I0.2093 J0.
X2.4733 I-0.2654 J0.
X3.1162 I0.3215 J0.
X2.3612 I-0.3775 J0.
X3.1162 I0.3775 J0.
G1 X3.1159 Y3.5268
X3.1151 Y3.5284
X3.1138 Y3.5297
X3.1122 Y3.5306
X3.1104 Y3.5309
X2.8899 Y3.5357
X2.6766 Y3.5122
X2.6749 Y3.5118
X2.6734 Y3.5108
X2.6722 Y3.5094
X2.6716 Y3.5077
X2.6714 Y3.5059
X2.6718 Y3.5042
G3 X2.7759 Y3.5458 Z-0.2361 I0.052 J0.0208 F20.
X2.6718 Y3.5042 Z-0.2423 I-0.052 J-0.0208
X2.7759 Y3.5458 Z-0.2484 I0.052 J0.0208
X2.6718 Y3.5042 Z-0.2546 I-0.052 J-0.0208
X2.7799 Y3.525 Z-0.26 I0.052 J0.0208
X2.6975 I-0.0412 J0. F30.
X2.892 I0.0973 J0.
X2.5854 I-0.1533 J0.
X3.0041 I0.2093 J0.
X2.4733 I-0.2654 J0.
X3.1162 I0.3215 J0.
X2.3612 I-0.3775 J0.
X3.1162 I0.3775 J0.
G1 X3.116 Y3.5272 Z-0.2596
X3.1153 Y3.5294 Z-0.2591
X3.1145 Y3.5311 Z-0.2578
X3.1134 Y3.5327 Z-0.2565
X3.1115 Y3.5344 Z-0.2527
X3.1108 Y3.5349 Z-0.2482
G0 Z0.64

M9
M30
