(X4 GEARBOX COUNTERBORES RUN2)
(T3  D=0.118 CR=0. - ZMIN=-0.0625 - FLAT END MILL)
G90 G94 G91.1 G40 G49 G17
G20

(2D POCKET3)
M5
T3 M6
S15000 M3
g4 p5
g0 z.5
G54
M8
G0 X4.2826 Y4.7176
G43 Z0.64 H3
Z0.24
G1 Z0.0944 F40.
Z0.0372
X4.2829 Y4.7177 Z0.0345
X4.2837 Y4.7181 Z0.032
X4.285 Y4.7186 Z0.0298
X4.2867 Y4.7193 Z0.0279
X4.2888 Y4.7202 Z0.0265
X4.2911 Y4.7211 Z0.0257
X4.2935 Y4.7221 Z0.0254
G3 X4.3165 Y4.7566 I-0.0143 J0.0345
X4.1347 I-0.0909 J0.
X4.3165 I0.0909 J0.
G2 X4.3549 Y4.8254 I0.0809 J0.
G3 X4.3625 Y4.9038 I-0.0261 J0.0421
X4.0887 Y4.6094 I-0.1369 J-0.1472
X4.3625 Y4.9038 I0.1369 J0.1472
X4.2763 Y4.8917 Z0.022 I-0.0382 J-0.041 F20.
G1 X4.2125 Y4.7855 Z0.0177
G3 X4.3085 Y4.7277 Z0.0117 I0.048 J-0.0289
X4.3165 Y4.7566 Z0.0107 I-0.048 J0.0289
X4.1347 I-0.0909 J0. F40.
X4.3165 I0.0909 J0.
G2 X4.3549 Y4.8254 I0.0809 J0.
G3 X4.3625 Y4.9038 I-0.0261 J0.0421
X4.0887 Y4.6094 I-0.1369 J-0.1472
X4.3625 Y4.9038 I0.1369 J0.1472
X4.2763 Y4.8917 Z0.0073 I-0.0382 J-0.041 F20.
G1 X4.2125 Y4.7855 Z0.0031
G3 X4.3085 Y4.7277 Z-0.0029 I0.048 J-0.0289
X4.3165 Y4.7566 Z-0.0039 I-0.048 J0.0289
X4.1347 I-0.0909 J0. F40.
X4.3165 I0.0909 J0.
G2 X4.3549 Y4.8254 I0.0809 J0.
G3 X4.3625 Y4.9038 I-0.0261 J0.0421
X4.0887 Y4.6094 I-0.1369 J-0.1472
X4.3625 Y4.9038 I0.1369 J0.1472
X4.2763 Y4.8917 Z-0.0073 I-0.0382 J-0.041 F20.
G1 X4.2125 Y4.7855 Z-0.0115
G3 X4.3085 Y4.7277 Z-0.0175 I0.048 J-0.0289
X4.3165 Y4.7566 Z-0.0186 I-0.048 J0.0289
X4.1347 I-0.0909 J0. F40.
X4.3165 I0.0909 J0.
G2 X4.3549 Y4.8254 I0.0809 J0.
G3 X4.3625 Y4.9038 I-0.0261 J0.0421
X4.0887 Y4.6094 I-0.1369 J-0.1472
X4.3625 Y4.9038 I0.1369 J0.1472
X4.2763 Y4.8917 Z-0.022 I-0.0382 J-0.041 F20.
G1 X4.2125 Y4.7855 Z-0.0262
G3 X4.3085 Y4.7277 Z-0.0322 I0.048 J-0.0289
X4.3165 Y4.7566 Z-0.0332 I-0.048 J0.0289
X4.1347 I-0.0909 J0. F40.
X4.3165 I0.0909 J0.
G2 X4.3549 Y4.8254 I0.0809 J0.
G3 X4.3625 Y4.9038 I-0.0261 J0.0421
X4.0887 Y4.6094 I-0.1369 J-0.1472
X4.3625 Y4.9038 I0.1369 J0.1472
X4.2763 Y4.8917 Z-0.0366 I-0.0382 J-0.041 F20.
G1 X4.2125 Y4.7855 Z-0.0408
G3 X4.3085 Y4.7277 Z-0.0468 I0.048 J-0.0289
X4.3165 Y4.7566 Z-0.0479 I-0.048 J0.0289
X4.1347 I-0.0909 J0. F40.
X4.3165 I0.0909 J0.
G2 X4.3549 Y4.8254 I0.0809 J0.
G3 X4.3625 Y4.9038 I-0.0261 J0.0421
X4.0887 Y4.6094 I-0.1369 J-0.1472
X4.3625 Y4.9038 I0.1369 J0.1472
X4.2763 Y4.8917 Z-0.0513 I-0.0382 J-0.041 F20.
G1 X4.2125 Y4.7855 Z-0.0555
G3 X4.3085 Y4.7277 Z-0.0615 I0.048 J-0.0289
X4.3165 Y4.7566 Z-0.0625 I-0.048 J0.0289
X4.1347 I-0.0909 J0. F40.
X4.3165 I0.0909 J0.
G2 X4.3549 Y4.8254 I0.0809 J0.
G3 X4.3625 Y4.9038 I-0.0261 J0.0421
X4.0887 Y4.6094 I-0.1369 J-0.1472
X4.3625 Y4.9038 I0.1369 J0.1472
G1 X4.3607 Y4.9052 Z-0.0621
X4.3587 Y4.9062 Z-0.0616
X4.3569 Y4.9067 Z-0.0603
X4.355 Y4.9069 Z-0.059
X4.3524 Y4.9068 Z-0.0552
X4.3515 Y4.9066 Z-0.0507
G0 Z0.64
X1.309 Y4.718
Z0.24
G1 Z0.0944 F40.
Z0.0372
X1.3093 Y4.7181 Z0.0345
X1.3101 Y4.7184 Z0.032
X1.3114 Y4.719 Z0.0298
X1.3131 Y4.7197 Z0.0279
X1.3152 Y4.7205 Z0.0265
X1.3175 Y4.7215 Z0.0257
X1.3199 Y4.7225 Z0.0254
G3 X1.3427 Y4.7566 I-0.0141 J0.0341
X1.1609 I-0.0909 J0.
X1.3427 I0.0909 J0.
G2 X1.381 Y4.8254 I0.0809 J0.
G3 X1.3887 Y4.9038 I-0.0261 J0.0421
X1.1149 Y4.6094 I-0.1369 J-0.1472
X1.3887 Y4.9038 I0.1369 J0.1472
G1 X1.3871 Y4.9048
X1.3854 Y4.9053
X1.3835
X1.3818 Y4.9046
X1.3803 Y4.9035
X1.3047 Y4.823
X1.3035 Y4.8217
X1.3028 Y4.8201
X1.3026 Y4.8184
X1.3037 Y4.7665
G3 X1.3151 Y4.7646 I0.0059 J0.0001
G1 X1.3159 Y4.7668 Z0.0251
X1.3167 Y4.7688 Z0.0245
X1.3174 Y4.7708 Z0.0234
X1.318 Y4.7724 Z0.0219
X1.3185 Y4.7738 Z0.0201
X1.3189 Y4.7748 Z0.018
X1.3193 Y4.7758 Z0.016
X1.3198 Y4.7772 Z0.0142
X1.3204 Y4.7789 Z0.0127
X1.3211 Y4.7808 Z0.0116
X1.3219 Y4.7829 Z0.0109
X1.3227 Y4.7851 Z0.0107
G3 X1.3137 Y4.8232 I-0.033 J0.0123
X1.1899 Y4.6901 I-0.0619 J-0.0666
X1.3137 Y4.8232 I0.0619 J0.0666
G2 X1.2894 Y4.8981 I0.0551 J0.0593
G3 X1.2372 Y4.9571 I-0.0486 J0.0096
X1.2663 Y4.5561 I0.0146 J-0.2005
X1.2372 Y4.9571 I-0.0146 J0.2005
X1.1854 Y4.9062 Z0.0084 I0.0041 J-0.0559 F20.
G1 X1.175 Y4.7895 Z0.005
G3 X1.2867 Y4.7795 Z-0.0002 I0.0558 J-0.005
X1.1972 Y4.8293 Z-0.0039 I-0.0558 J0.005
X1.3063 Y4.6839 I0.0545 J-0.0727 F40.
X1.1972 Y4.8293 I-0.0545 J0.0727
G2 X1.1192 Y4.8187 I-0.0486 J0.0647
G3 X1.0519 Y4.7778 I-0.018 J-0.0461
X1.4517 Y4.7354 I0.1999 J-0.0212
X1.0519 Y4.7778 I-0.1999 J0.0212
X1.1133 Y4.7161 Z-0.0073 I0.0557 J-0.0059 F20.
G1 X1.2366 Y4.7287 Z-0.0115
G3 X1.2252 Y4.8403 Z-0.0175 I-0.0057 J0.0558
X1.1972 Y4.8293 Z-0.0186 I0.0057 J-0.0558
X1.3063 Y4.6839 I0.0545 J-0.0727 F40.
X1.1972 Y4.8293 I-0.0545 J0.0727
G2 X1.1192 Y4.8187 I-0.0486 J0.0647
G3 X1.0519 Y4.7778 I-0.018 J-0.0461
X1.4517 Y4.7354 I0.1999 J-0.0212
X1.0519 Y4.7778 I-0.1999 J0.0212
X1.1133 Y4.7161 Z-0.022 I0.0557 J-0.0059 F20.
G1 X1.2366 Y4.7287 Z-0.0262
G3 X1.2252 Y4.8403 Z-0.0322 I-0.0057 J0.0558
X1.1972 Y4.8293 Z-0.0332 I0.0057 J-0.0558
X1.3063 Y4.6839 I0.0545 J-0.0727 F40.
X1.1972 Y4.8293 I-0.0545 J0.0727
G2 X1.1192 Y4.8187 I-0.0486 J0.0647
G3 X1.0519 Y4.7778 I-0.018 J-0.0461
X1.4517 Y4.7354 I0.1999 J-0.0212
X1.0519 Y4.7778 I-0.1999 J0.0212
X1.1133 Y4.7161 Z-0.0366 I0.0557 J-0.0059 F20.
G1 X1.2366 Y4.7287 Z-0.0408
G3 X1.2252 Y4.8403 Z-0.0468 I-0.0057 J0.0558
X1.1972 Y4.8293 Z-0.0479 I0.0057 J-0.0558
X1.3063 Y4.6839 I0.0545 J-0.0727 F40.
X1.1972 Y4.8293 I-0.0545 J0.0727
G2 X1.1192 Y4.8187 I-0.0486 J0.0647
G3 X1.0519 Y4.7778 I-0.018 J-0.0461
X1.4517 Y4.7354 I0.1999 J-0.0212
X1.0519 Y4.7778 I-0.1999 J0.0212
X1.1133 Y4.7161 Z-0.0513 I0.0557 J-0.0059 F20.
G1 X1.2366 Y4.7287 Z-0.0555
G3 X1.2252 Y4.8403 Z-0.0615 I-0.0057 J0.0558
X1.1972 Y4.8293 Z-0.0625 I0.0057 J-0.0558
X1.3063 Y4.6839 I0.0545 J-0.0727 F40.
X1.1972 Y4.8293 I-0.0545 J0.0727
G2 X1.1192 Y4.8187 I-0.0486 J0.0647
G3 X1.0519 Y4.7778 I-0.018 J-0.0461
X1.4517 Y4.7354 I0.1999 J-0.0212
X1.0519 Y4.7778 I-0.1999 J0.0212
G1 Y4.7756 Z-0.0621
X1.0523 Y4.7733 Z-0.0616
X1.053 Y4.7715 Z-0.0603
X1.0539 Y4.7699 Z-0.059
X1.0556 Y4.768 Z-0.0552
X1.0562 Y4.7674 Z-0.0507
G0 Z0.64
X1.3466 Y2.2978
Z0.24
G1 Z0.1518 F40.
X1.3459 Y2.2979 Z0.1479 F20.
X1.3435 Z0.1439
X1.3397 Y2.2977 Z0.1411
X1.3352 Y2.2972 Z0.14
G3 X1.3525 Y2.1865 Z0.1339 I0.0086 J-0.0554
X1.3352 Y2.2972 Z0.1277 I-0.0086 J0.0554
X1.3525 Y2.1865 Z0.1216 I0.0086 J-0.0554
X1.3352 Y2.2972 Z0.1154 I-0.0086 J0.0554
X1.3525 Y2.1865 Z0.1093 I0.0086 J-0.0554
X1.3352 Y2.2972 Z0.1031 I-0.0086 J0.0554
X1.3525 Y2.1865 Z0.097 I0.0086 J-0.0554
X1.3352 Y2.2972 Z0.0908 I-0.0086 J0.0554
X1.3525 Y2.1865 Z0.0847 I0.0086 J-0.0554
X1.3352 Y2.2972 Z0.0785 I-0.0086 J0.0554
X1.3525 Y2.1865 Z0.0724 I0.0086 J-0.0554
X1.3352 Y2.2972 Z0.0662 I-0.0086 J0.0554
X1.3525 Y2.1865 Z0.0601 I0.0086 J-0.0554
X1.3352 Y2.2972 Z0.0539 I-0.0086 J0.0554
X1.3525 Y2.1865 Z0.0478 I0.0086 J-0.0554
X1.3352 Y2.2972 Z0.0416 I-0.0086 J0.0554
X1.3525 Y2.1865 Z0.0355 I0.0086 J-0.0554
X1.3352 Y2.2972 Z0.0293 I-0.0086 J0.0554
X1.2978 Y2.2099 Z0.0254 I0.0086 J-0.0554
X1.4877 Y2.3047 I0.0881 J0.0612 F40.
G1 X1.4778 Y2.3348
X1.453 Y2.3547
G3 X1.2978 Y2.2099 I-0.0671 J-0.0836
X1.4877 Y2.3047 Z0.0147 I0.0881 J0.0612 F20.
G1 X1.4778 Y2.3348 Z0.0136
X1.453 Y2.3547 Z0.0125
G3 X1.4085 Y2.3759 Z0.0107 I-0.0671 J-0.0836
X1.3633 Y2.1662 I-0.0226 J-0.1048 F40.
X1.4877 Y2.3047 I0.0226 J0.1048
G1 X1.4778 Y2.3348
X1.453 Y2.3547
G3 X1.4085 Y2.3759 I-0.0671 J-0.0836
X1.3633 Y2.1662 Z-0.0011 I-0.0226 J-0.1048 F20.
X1.4425 Y2.1799 Z-0.0039 I0.0226 J0.1048
X1.4877 Y2.3047 I-0.0566 J0.0911 F40.
G1 X1.4778 Y2.3348
X1.453 Y2.3547
G3 X1.3188 Y2.1874 I-0.0671 J-0.0836
X1.4425 Y2.1799 I0.0671 J0.0836
X1.4877 Y2.3047 Z-0.0089 I-0.0566 J0.0911 F20.
G1 X1.4778 Y2.3348 Z-0.01
X1.453 Y2.3547 Z-0.0111
G3 X1.2823 Y2.299 Z-0.0186 I-0.0671 J-0.0836
X1.4895 Y2.2431 I0.1036 J-0.0279 F40.
X1.4877 Y2.3047 I-0.1036 J0.0279
G1 X1.4778 Y2.3348
X1.453 Y2.3547
G3 X1.2823 Y2.299 I-0.0671 J-0.0836
X1.4895 Y2.2431 Z-0.0303 I0.1036 J-0.0279 F20.
X1.4877 Y2.3047 Z-0.0325 I-0.1036 J0.0279
G1 X1.4815 Y2.3236 Z-0.0332
X1.4778 Y2.3348 F40.
X1.453 Y2.3547
G3 X1.3188 Y2.1874 I-0.0671 J-0.0836
X1.4877 Y2.3047 I0.0671 J0.0836
G1 X1.4815 Y2.3236
X1.4778 Y2.3348 Z-0.0336 F20.
X1.453 Y2.3547 Z-0.0347
G3 X1.3188 Y2.1874 Z-0.0465 I-0.0671 J-0.0836
X1.3527 Y2.169 Z-0.0479 I0.0671 J0.0836
X1.4877 Y2.3047 I0.0332 J0.102 F40.
G1 X1.4815 Y2.3236
X1.4778 Y2.3348
X1.453 Y2.3547
G3 X1.3188 Y2.1874 I-0.0671 J-0.0836
X1.3527 Y2.169 I0.0671 J0.0836
X1.4877 Y2.3047 Z-0.0561 I0.0332 J0.102 F20.
G1 X1.4778 Y2.3348 Z-0.0572
X1.453 Y2.3547 Z-0.0583
G3 X1.3405 Y2.3682 Z-0.0625 I-0.0671 J-0.0836
X1.4313 Y2.1739 I0.0454 J-0.0972 F40.
X1.4877 Y2.3047 I-0.0454 J0.0972
G1 X1.4778 Y2.3348
X1.453 Y2.3547
G3 X1.3405 Y2.3682 I-0.0671 J-0.0836
G1 X1.3385 Y2.367 Z-0.0621
X1.3368 Y2.3656 Z-0.0616
X1.3357 Y2.3641 Z-0.0603
X1.3347 Y2.3624 Z-0.059
X1.3339 Y2.36 Z-0.0552
X1.3338 Y2.3591 Z-0.0507
G0 Z0.64
X4.0802 Y2.2248
Z0.24
G1 Z0.1518 F40.
X4.0804 Y2.2242 Z0.1479 F20.
X4.0812 Y2.2219 Z0.1439
X4.0826 Y2.2185 Z0.1411
X4.0847 Y2.2144 Z0.14
G3 X4.1824 Y2.2693 Z0.1339 I0.0489 J0.0275
X4.0847 Y2.2144 Z0.1277 I-0.0489 J-0.0275
X4.1824 Y2.2693 Z0.1216 I0.0489 J0.0275
X4.0847 Y2.2144 Z0.1154 I-0.0489 J-0.0275
X4.1824 Y2.2693 Z0.1093 I0.0489 J0.0275
X4.0847 Y2.2144 Z0.1031 I-0.0489 J-0.0275
X4.1824 Y2.2693 Z0.097 I0.0489 J0.0275
X4.0847 Y2.2144 Z0.0908 I-0.0489 J-0.0275
X4.1824 Y2.2693 Z0.0847 I0.0489 J0.0275
X4.0847 Y2.2144 Z0.0785 I-0.0489 J-0.0275
X4.1824 Y2.2693 Z0.0724 I0.0489 J0.0275
X4.0847 Y2.2144 Z0.0662 I-0.0489 J-0.0275
X4.1824 Y2.2693 Z0.0601 I0.0489 J0.0275
X4.0847 Y2.2144 Z0.0539 I-0.0489 J-0.0275
X4.1824 Y2.2693 Z0.0478 I0.0489 J0.0275
X4.0847 Y2.2144 Z0.0416 I-0.0489 J-0.0275
X4.1824 Y2.2693 Z0.0355 I0.0489 J0.0275
X4.0847 Y2.2144 Z0.0293 I-0.0489 J-0.0275
X4.1796 Y2.2099 Z0.0254 I0.0489 J0.0275
X4.0244 Y2.3547 I-0.0881 J0.0611 F40.
G1 X3.9996 Y2.3348
X3.9897 Y2.3047
G3 X4.1796 Y2.2099 I0.1018 J-0.0337
X4.0244 Y2.3547 Z0.0147 I-0.0881 J0.0611 F20.
G1 X3.9996 Y2.3348 Z0.0136
X3.9897 Y2.3047 Z0.0125
G3 X3.9854 Y2.2555 Z0.0107 I0.1018 J-0.0337
X4.1976 Y2.2866 I0.1061 J0.0155 F40.
X4.0244 Y2.3547 I-0.1061 J-0.0155
G1 X3.9996 Y2.3348
X3.9897 Y2.3047
G3 X3.9854 Y2.2555 I0.1018 J-0.0337
X4.1976 Y2.2866 Z-0.0011 I0.1061 J0.0155 F20.
X4.157 Y2.356 Z-0.0039 I-0.1061 J-0.0155
X4.0244 Y2.3547 I-0.0655 J-0.0849 F40.
G1 X3.9996 Y2.3348
X3.9897 Y2.3047
G3 X4.1933 Y2.2374 I0.1018 J-0.0337
X4.157 Y2.356 I-0.1018 J0.0337
X4.0244 Y2.3547 Z-0.0089 I-0.0655 J-0.0849 F20.
G1 X3.9996 Y2.3348 Z-0.01
X3.9897 Y2.3047 Z-0.0111
G3 X4.1017 Y2.1643 Z-0.0186 I0.1018 J-0.0337
X4.0813 Y2.3778 I-0.0102 J0.1068 F40.
X4.0244 Y2.3547 I0.0102 J-0.1068
G1 X3.9996 Y2.3348
X3.9897 Y2.3047
G3 X4.1017 Y2.1643 I0.1018 J-0.0337
X4.0813 Y2.3778 Z-0.0303 I-0.0102 J0.1068 F20.
X4.0244 Y2.3547 Z-0.0325 I0.0102 J-0.1068
G1 X4.0087 Y2.3421 Z-0.0332
X3.9996 Y2.3348 F40.
X3.9897 Y2.3047
G3 X4.1933 Y2.2374 I0.1018 J-0.0337
X4.0244 Y2.3547 I-0.1018 J0.0337
G1 X4.0087 Y2.3421
X3.9996 Y2.3348 Z-0.0336 F20.
X3.9897 Y2.3047 Z-0.0347
G3 X4.1933 Y2.2374 Z-0.0465 I0.1018 J-0.0337
X4.1986 Y2.2758 Z-0.0479 I-0.1018 J0.0337
X4.0244 Y2.3547 I-0.1071 J-0.0048 F40.
G1 X4.0087 Y2.3421
X3.9996 Y2.3348
X3.9897 Y2.3047
G3 X4.1933 Y2.2374 I0.1018 J-0.0337
X4.1986 Y2.2758 I-0.1018 J0.0337
X4.0244 Y2.3547 Z-0.0561 I-0.1071 J-0.0048 F20.
G1 X3.9996 Y2.3348 Z-0.0572
X3.9897 Y2.3047 Z-0.0583
G3 X4.0165 Y2.1944 Z-0.0625 I0.1018 J-0.0337
X4.1665 Y2.3477 I0.075 J0.0767 F40.
X4.0244 Y2.3547 I-0.075 J-0.0767
G1 X3.9996 Y2.3348
X3.9897 Y2.3047
G3 X4.0165 Y2.1944 I0.1018 J-0.0337
G1 X4.0183 Y2.193 Z-0.0621
X4.0203 Y2.1919 Z-0.0616
X4.0221 Y2.1913 Z-0.0603
X4.024 Y2.191 Z-0.059
X4.0265 Y2.1911 Z-0.0552
X4.0274 Y2.1913 Z-0.0507
G0 Z0.64

M9
M30
