(X4 CLIMBER BRACKET HOLES)
(T3  D=0.118 CR=0. - ZMIN=-0.27 - FLAT END MILL)
G90 G94 G91.1 G40 G49 G17
G20

(2D POCKET1)
M5
T3 M6
S15000 M3
g4 p5
G54
M8
G0 X1.505 Y2.0567
G43 Z0.6 H3
Z0.2
G1 Z0.1118 F40.
X1.5049 Y2.0574 Z0.1075 F20.
X1.5046 Y2.0585 Z0.1057
X1.504 Y2.0595 Z0.1039
X1.5031 Y2.0604 Z0.1029
X1.5021 Y2.0611 Z0.102
X1.5009 Y2.0614 Z0.1011
X1.4993 Y2.0615 Z0.1007
X1.4979 Y2.061 Z0.1004
X1.4966 Y2.0602 Z0.1
G3 X1.5034 Y2.0528 Z0.0995 I0.0034 J-0.0037
X1.4966 Y2.0602 Z0.0989 I-0.0034 J0.0037
X1.5034 Y2.0528 Z0.0984 I0.0034 J-0.0037
X1.4966 Y2.0602 Z0.0978 I-0.0034 J0.0037
X1.5034 Y2.0528 Z0.0973 I0.0034 J-0.0037
X1.4966 Y2.0602 Z0.0967 I-0.0034 J0.0037
X1.5034 Y2.0528 Z0.0962 I0.0034 J-0.0037
X1.4966 Y2.0602 Z0.0956 I-0.0034 J0.0037
X1.5034 Y2.0528 Z0.0951 I0.0034 J-0.0037
X1.4966 Y2.0602 Z0.0945 I-0.0034 J0.0037
X1.5034 Y2.0528 Z0.094 I0.0034 J-0.0037
X1.4966 Y2.0602 Z0.0934 I-0.0034 J0.0037
X1.5034 Y2.0528 Z0.0929 I0.0034 J-0.0037
X1.4966 Y2.0602 Z0.0923 I-0.0034 J0.0037
X1.5034 Y2.0528 Z0.0918 I0.0034 J-0.0037
X1.4966 Y2.0602 Z0.0912 I-0.0034 J0.0037
X1.5034 Y2.0528 Z0.0907 I0.0034 J-0.0037
X1.4966 Y2.0602 Z0.0901 I-0.0034 J0.0037
X1.5034 Y2.0528 Z0.0896 I0.0034 J-0.0037
X1.4966 Y2.0602 Z0.089 I-0.0034 J0.0037
X1.5034 Y2.0528 Z0.0885 I0.0034 J-0.0037
X1.4966 Y2.0602 Z0.0879 I-0.0034 J0.0037
X1.5034 Y2.0528 Z0.0874 I0.0034 J-0.0037
X1.4966 Y2.0602 Z0.0868 I-0.0034 J0.0037
X1.5034 Y2.0528 Z0.0863 I0.0034 J-0.0037
X1.4966 Y2.0602 Z0.0857 I-0.0034 J0.0037
X1.5034 Y2.0528 Z0.0852 I0.0034 J-0.0037
X1.4966 Y2.0602 Z0.0846 I-0.0034 J0.0037
X1.5034 Y2.0528 Z0.0841 I0.0034 J-0.0037
X1.4966 Y2.0602 Z0.0835 I-0.0034 J0.0037
X1.5034 Y2.0528 Z0.083 I0.0034 J-0.0037
X1.4966 Y2.0602 Z0.0824 I-0.0034 J0.0037
X1.5034 Y2.0528 Z0.0819 I0.0034 J-0.0037
X1.4966 Y2.0602 Z0.0813 I-0.0034 J0.0037
X1.5034 Y2.0528 Z0.0808 I0.0034 J-0.0037
X1.4966 Y2.0602 Z0.0803 I-0.0034 J0.0037
X1.5034 Y2.0528 Z0.0797 I0.0034 J-0.0037
X1.4966 Y2.0602 Z0.0792 I-0.0034 J0.0037
X1.5034 Y2.0528 Z0.0786 I0.0034 J-0.0037
X1.4966 Y2.0602 Z0.0781 I-0.0034 J0.0037
X1.5034 Y2.0528 Z0.0775 I0.0034 J-0.0037
X1.4966 Y2.0602 Z0.077 I-0.0034 J0.0037
X1.5034 Y2.0528 Z0.0764 I0.0034 J-0.0037
X1.4966 Y2.0602 Z0.0759 I-0.0034 J0.0037
X1.5034 Y2.0528 Z0.0753 I0.0034 J-0.0037
X1.4966 Y2.0602 Z0.0748 I-0.0034 J0.0037
X1.5034 Y2.0528 Z0.0742 I0.0034 J-0.0037
X1.4966 Y2.0602 Z0.0737 I-0.0034 J0.0037
X1.5034 Y2.0528 Z0.0731 I0.0034 J-0.0037
X1.4966 Y2.0602 Z0.0726 I-0.0034 J0.0037
X1.5034 Y2.0528 Z0.072 I0.0034 J-0.0037
X1.4966 Y2.0602 Z0.0715 I-0.0034 J0.0037
X1.5034 Y2.0528 Z0.0709 I0.0034 J-0.0037
X1.4966 Y2.0602 Z0.0704 I-0.0034 J0.0037
X1.5034 Y2.0528 Z0.0698 I0.0034 J-0.0037
X1.4966 Y2.0602 Z0.0693 I-0.0034 J0.0037
X1.5034 Y2.0528 Z0.0687 I0.0034 J-0.0037
X1.4966 Y2.0602 Z0.0682 I-0.0034 J0.0037
X1.5034 Y2.0528 Z0.0676 I0.0034 J-0.0037
X1.4966 Y2.0602 Z0.0671 I-0.0034 J0.0037
X1.5034 Y2.0528 Z0.0665 I0.0034 J-0.0037
X1.4966 Y2.0602 Z0.066 I-0.0034 J0.0037
X1.5034 Y2.0528 Z0.0654 I0.0034 J-0.0037
X1.4966 Y2.0602 Z0.0649 I-0.0034 J0.0037
X1.5034 Y2.0528 Z0.0643 I0.0034 J-0.0037
X1.4966 Y2.0602 Z0.0638 I-0.0034 J0.0037
X1.5034 Y2.0528 Z0.0632 I0.0034 J-0.0037
X1.4966 Y2.0602 Z0.0627 I-0.0034 J0.0037
X1.5034 Y2.0528 Z0.0622 I0.0034 J-0.0037
X1.4966 Y2.0602 Z0.0616 I-0.0034 J0.0037
X1.5034 Y2.0528 Z0.0611 I0.0034 J-0.0037
X1.4966 Y2.0602 Z0.0605 I-0.0034 J0.0037
X1.5034 Y2.0528 Z0.06 I0.0034 J-0.0037
X1.4966 Y2.0602 Z0.0594 I-0.0034 J0.0037
X1.5034 Y2.0528 Z0.0589 I0.0034 J-0.0037
X1.4966 Y2.0602 Z0.0583 I-0.0034 J0.0037
X1.5034 Y2.0528 Z0.0578 I0.0034 J-0.0037
X1.4966 Y2.0602 Z0.0572 I-0.0034 J0.0037
X1.5034 Y2.0528 Z0.0567 I0.0034 J-0.0037
X1.4966 Y2.0602 Z0.0561 I-0.0034 J0.0037
X1.5034 Y2.0528 Z0.0556 I0.0034 J-0.0037
X1.4966 Y2.0602 Z0.055 I-0.0034 J0.0037
X1.5034 Y2.0528 Z0.0545 I0.0034 J-0.0037
X1.4966 Y2.0602 Z0.0539 I-0.0034 J0.0037
X1.5034 Y2.0528 Z0.0534 I0.0034 J-0.0037
X1.4966 Y2.0602 Z0.0528 I-0.0034 J0.0037
X1.5034 Y2.0528 Z0.0523 I0.0034 J-0.0037
X1.4966 Y2.0602 Z0.0517 I-0.0034 J0.0037
X1.5034 Y2.0528 Z0.0512 I0.0034 J-0.0037
X1.4966 Y2.0602 Z0.0506 I-0.0034 J0.0037
X1.5034 Y2.0528 Z0.0501 I0.0034 J-0.0037
X1.4966 Y2.0602 Z0.0495 I-0.0034 J0.0037
X1.5034 Y2.0528 Z0.049 I0.0034 J-0.0037
X1.4966 Y2.0602 Z0.0484 I-0.0034 J0.0037
X1.5034 Y2.0528 Z0.0479 I0.0034 J-0.0037
X1.4966 Y2.0602 Z0.0473 I-0.0034 J0.0037
X1.5034 Y2.0528 Z0.0468 I0.0034 J-0.0037
X1.4966 Y2.0602 Z0.0462 I-0.0034 J0.0037
X1.5034 Y2.0528 Z0.0457 I0.0034 J-0.0037
X1.4966 Y2.0602 Z0.0451 I-0.0034 J0.0037
X1.5034 Y2.0528 Z0.0446 I0.0034 J-0.0037
X1.4966 Y2.0602 Z0.044 I-0.0034 J0.0037
X1.5034 Y2.0528 Z0.0435 I0.0034 J-0.0037
X1.4966 Y2.0602 Z0.043 I-0.0034 J0.0037
X1.5034 Y2.0528 Z0.0424 I0.0034 J-0.0037
X1.4966 Y2.0602 Z0.0419 I-0.0034 J0.0037
X1.5034 Y2.0528 Z0.0413 I0.0034 J-0.0037
X1.4966 Y2.0602 Z0.0408 I-0.0034 J0.0037
X1.5034 Y2.0528 Z0.0402 I0.0034 J-0.0037
X1.4966 Y2.0602 Z0.0397 I-0.0034 J0.0037
X1.5034 Y2.0528 Z0.0391 I0.0034 J-0.0037
X1.4966 Y2.0602 Z0.0386 I-0.0034 J0.0037
X1.5034 Y2.0528 Z0.038 I0.0034 J-0.0037
X1.4966 Y2.0602 Z0.0375 I-0.0034 J0.0037
X1.5034 Y2.0528 Z0.0369 I0.0034 J-0.0037
X1.4966 Y2.0602 Z0.0364 I-0.0034 J0.0037
X1.5034 Y2.0528 Z0.0358 I0.0034 J-0.0037
X1.4966 Y2.0602 Z0.0353 I-0.0034 J0.0037
X1.5034 Y2.0528 Z0.0347 I0.0034 J-0.0037
X1.4966 Y2.0602 Z0.0342 I-0.0034 J0.0037
X1.5034 Y2.0528 Z0.0336 I0.0034 J-0.0037
X1.4966 Y2.0602 Z0.0331 I-0.0034 J0.0037
X1.5034 Y2.0528 Z0.0325 I0.0034 J-0.0037
X1.4966 Y2.0602 Z0.032 I-0.0034 J0.0037
X1.5034 Y2.0528 Z0.0314 I0.0034 J-0.0037
X1.4966 Y2.0602 Z0.0309 I-0.0034 J0.0037
X1.5034 Y2.0528 Z0.0303 I0.0034 J-0.0037
X1.4966 Y2.0602 Z0.0298 I-0.0034 J0.0037
X1.5034 Y2.0528 Z0.0292 I0.0034 J-0.0037
X1.4966 Y2.0602 Z0.0287 I-0.0034 J0.0037
X1.5034 Y2.0528 Z0.0281 I0.0034 J-0.0037
X1.4966 Y2.0602 Z0.0276 I-0.0034 J0.0037
X1.5034 Y2.0528 Z0.027 I0.0034 J-0.0037
X1.4966 Y2.0602 Z0.0265 I-0.0034 J0.0037
X1.5034 Y2.0528 Z0.0259 I0.0034 J-0.0037
X1.4966 Y2.0602 Z0.0254 I-0.0034 J0.0037
X1.5034 Y2.0528 Z0.0249 I0.0034 J-0.0037
X1.4966 Y2.0602 Z0.0243 I-0.0034 J0.0037
X1.5034 Y2.0528 Z0.0238 I0.0034 J-0.0037
X1.4966 Y2.0602 Z0.0232 I-0.0034 J0.0037
X1.5034 Y2.0528 Z0.0227 I0.0034 J-0.0037
X1.4966 Y2.0602 Z0.0221 I-0.0034 J0.0037
X1.5034 Y2.0528 Z0.0216 I0.0034 J-0.0037
X1.4966 Y2.0602 Z0.021 I-0.0034 J0.0037
X1.5034 Y2.0528 Z0.0205 I0.0034 J-0.0037
X1.4966 Y2.0602 Z0.0199 I-0.0034 J0.0037
X1.5034 Y2.0528 Z0.0194 I0.0034 J-0.0037
X1.4966 Y2.0602 Z0.0188 I-0.0034 J0.0037
X1.5034 Y2.0528 Z0.0183 I0.0034 J-0.0037
X1.4966 Y2.0602 Z0.0177 I-0.0034 J0.0037
X1.5034 Y2.0528 Z0.0172 I0.0034 J-0.0037
X1.4966 Y2.0602 Z0.0166 I-0.0034 J0.0037
X1.5034 Y2.0528 Z0.0161 I0.0034 J-0.0037
X1.4966 Y2.0602 Z0.0155 I-0.0034 J0.0037
X1.5034 Y2.0528 Z0.015 I0.0034 J-0.0037
X1.4966 Y2.0602 Z0.0144 I-0.0034 J0.0037
X1.5034 Y2.0528 Z0.0139 I0.0034 J-0.0037
X1.4966 Y2.0602 Z0.0133 I-0.0034 J0.0037
X1.5034 Y2.0528 Z0.0128 I0.0034 J-0.0037
X1.4966 Y2.0602 Z0.0122 I-0.0034 J0.0037
X1.5034 Y2.0528 Z0.0117 I0.0034 J-0.0037
X1.4966 Y2.0602 Z0.0111 I-0.0034 J0.0037
X1.5034 Y2.0528 Z0.0106 I0.0034 J-0.0037
X1.4966 Y2.0602 Z0.01 I-0.0034 J0.0037
X1.5034 Y2.0528 Z0.0095 I0.0034 J-0.0037
X1.4966 Y2.0602 Z0.0089 I-0.0034 J0.0037
X1.5034 Y2.0528 Z0.0084 I0.0034 J-0.0037
X1.4966 Y2.0602 Z0.0078 I-0.0034 J0.0037
X1.5034 Y2.0528 Z0.0073 I0.0034 J-0.0037
X1.4966 Y2.0602 Z0.0067 I-0.0034 J0.0037
X1.5034 Y2.0528 Z0.0062 I0.0034 J-0.0037
X1.4966 Y2.0602 Z0.0057 I-0.0034 J0.0037
X1.5034 Y2.0528 Z0.0051 I0.0034 J-0.0037
X1.4966 Y2.0602 Z0.0046 I-0.0034 J0.0037
X1.5034 Y2.0528 Z0.004 I0.0034 J-0.0037
X1.4966 Y2.0602 Z0.0035 I-0.0034 J0.0037
X1.5034 Y2.0528 Z0.0029 I0.0034 J-0.0037
X1.4966 Y2.0602 Z0.0024 I-0.0034 J0.0037
X1.5034 Y2.0528 Z0.0018 I0.0034 J-0.0037
X1.4966 Y2.0602 Z0.0013 I-0.0034 J0.0037
X1.5034 Y2.0528 Z0.0007 I0.0034 J-0.0037
X1.4966 Y2.0602 Z0.0002 I-0.0034 J0.0037
X1.5034 Y2.0528 Z-0.0004 I0.0034 J-0.0037
X1.4966 Y2.0602 Z-0.0009 I-0.0034 J0.0037
X1.5034 Y2.0528 Z-0.0015 I0.0034 J-0.0037
X1.4966 Y2.0602 Z-0.002 I-0.0034 J0.0037
X1.5034 Y2.0528 Z-0.0026 I0.0034 J-0.0037
X1.4966 Y2.0602 Z-0.0031 I-0.0034 J0.0037
X1.5034 Y2.0528 Z-0.0037 I0.0034 J-0.0037
X1.4966 Y2.0602 Z-0.0042 I-0.0034 J0.0037
X1.5034 Y2.0528 Z-0.0048 I0.0034 J-0.0037
X1.4966 Y2.0602 Z-0.0053 I-0.0034 J0.0037
X1.5034 Y2.0528 Z-0.0059 I0.0034 J-0.0037
X1.4966 Y2.0602 Z-0.0064 I-0.0034 J0.0037
X1.5034 Y2.0528 Z-0.007 I0.0034 J-0.0037
X1.4966 Y2.0602 Z-0.0075 I-0.0034 J0.0037
X1.5034 Y2.0528 Z-0.0081 I0.0034 J-0.0037
X1.4966 Y2.0602 Z-0.0086 I-0.0034 J0.0037
X1.5034 Y2.0528 Z-0.0092 I0.0034 J-0.0037
X1.4966 Y2.0602 Z-0.0097 I-0.0034 J0.0037
X1.5034 Y2.0528 Z-0.0103 I0.0034 J-0.0037
X1.4966 Y2.0602 Z-0.0108 I-0.0034 J0.0037
X1.5034 Y2.0528 Z-0.0114 I0.0034 J-0.0037
X1.4966 Y2.0602 Z-0.0119 I-0.0034 J0.0037
X1.5034 Y2.0528 Z-0.0124 I0.0034 J-0.0037
X1.4966 Y2.0602 Z-0.013 I-0.0034 J0.0037
X1.5034 Y2.0528 Z-0.0135 I0.0034 J-0.0037
X1.4966 Y2.0602 Z-0.0141 I-0.0034 J0.0037
X1.5034 Y2.0528 Z-0.0146 I0.0034 J-0.0037
X1.4966 Y2.0602 Z-0.0152 I-0.0034 J0.0037
X1.5034 Y2.0528 Z-0.0157 I0.0034 J-0.0037
X1.4966 Y2.0602 Z-0.0163 I-0.0034 J0.0037
X1.5034 Y2.0528 Z-0.0168 I0.0034 J-0.0037
X1.4966 Y2.0602 Z-0.0174 I-0.0034 J0.0037
X1.5034 Y2.0528 Z-0.0179 I0.0034 J-0.0037
X1.4966 Y2.0602 Z-0.0185 I-0.0034 J0.0037
X1.5034 Y2.0528 Z-0.019 I0.0034 J-0.0037
X1.4966 Y2.0602 Z-0.0196 I-0.0034 J0.0037
X1.5 Y2.0515 Z-0.02 I0.0034 J-0.0037
Y2.0695 I0. J0.009 F40.
Y2.0515 I0. J-0.009
Y2.0695 Z-0.021 I0. J0.009 F20.
Y2.0515 Z-0.022 I0. J-0.009
Y2.0695 Z-0.023 I0. J0.009
Y2.0515 Z-0.0239 I0. J-0.009
Y2.0695 Z-0.0249 I0. J0.009
Y2.0515 Z-0.0259 I0. J-0.009
Y2.0695 Z-0.0269 I0. J0.009
Y2.0515 Z-0.0279 I0. J-0.009
Y2.0695 Z-0.0289 I0. J0.009
Y2.0515 Z-0.0299 I0. J-0.009
Y2.0695 Z-0.0309 I0. J0.009
Y2.0515 Z-0.0318 I0. J-0.009
Y2.0695 Z-0.0328 I0. J0.009
Y2.0515 Z-0.0338 I0. J-0.009
Y2.0695 Z-0.0348 I0. J0.009
Y2.0515 Z-0.0358 I0. J-0.009
Y2.0695 Z-0.0368 I0. J0.009
Y2.0515 Z-0.0378 I0. J-0.009
Y2.0695 Z-0.0388 I0. J0.009
Y2.0515 Z-0.0397 I0. J-0.009
X1.5065 Y2.0543 Z-0.04 I0. J0.009
X1.4935 Y2.0667 I-0.0065 J0.0062 F40.
X1.5065 Y2.0543 I0.0065 J-0.0062
X1.4935 Y2.0667 Z-0.041 I-0.0065 J0.0062 F20.
X1.5065 Y2.0543 Z-0.042 I0.0065 J-0.0062
X1.4935 Y2.0667 Z-0.043 I-0.0065 J0.0062
X1.5065 Y2.0543 Z-0.0439 I0.0065 J-0.0062
X1.4935 Y2.0667 Z-0.0449 I-0.0065 J0.0062
X1.5065 Y2.0543 Z-0.0459 I0.0065 J-0.0062
X1.4935 Y2.0667 Z-0.0469 I-0.0065 J0.0062
X1.5065 Y2.0543 Z-0.0479 I0.0065 J-0.0062
X1.4935 Y2.0667 Z-0.0489 I-0.0065 J0.0062
X1.5065 Y2.0543 Z-0.0499 I0.0065 J-0.0062
X1.4935 Y2.0667 Z-0.0509 I-0.0065 J0.0062
X1.5065 Y2.0543 Z-0.0518 I0.0065 J-0.0062
X1.4935 Y2.0667 Z-0.0528 I-0.0065 J0.0062
X1.5065 Y2.0543 Z-0.0538 I0.0065 J-0.0062
X1.4935 Y2.0667 Z-0.0548 I-0.0065 J0.0062
X1.5065 Y2.0543 Z-0.0558 I0.0065 J-0.0062
X1.4935 Y2.0667 Z-0.0568 I-0.0065 J0.0062
X1.5065 Y2.0543 Z-0.0578 I0.0065 J-0.0062
X1.4935 Y2.0667 Z-0.0588 I-0.0065 J0.0062
X1.5065 Y2.0543 Z-0.0597 I0.0065 J-0.0062
X1.509 Y2.0608 Z-0.06 I-0.0065 J0.0062
X1.491 Y2.0602 I-0.009 J-0.0003 F40.
X1.509 Y2.0608 I0.009 J0.0003
X1.491 Y2.0602 Z-0.061 I-0.009 J-0.0003 F20.
X1.509 Y2.0608 Z-0.062 I0.009 J0.0003
X1.491 Y2.0602 Z-0.063 I-0.009 J-0.0003
X1.509 Y2.0608 Z-0.0639 I0.009 J0.0003
X1.491 Y2.0602 Z-0.0649 I-0.009 J-0.0003
X1.509 Y2.0608 Z-0.0659 I0.009 J0.0003
X1.491 Y2.0602 Z-0.0669 I-0.009 J-0.0003
X1.509 Y2.0608 Z-0.0679 I0.009 J0.0003
X1.491 Y2.0602 Z-0.0689 I-0.009 J-0.0003
X1.509 Y2.0608 Z-0.0699 I0.009 J0.0003
X1.491 Y2.0602 Z-0.0709 I-0.009 J-0.0003
X1.509 Y2.0608 Z-0.0718 I0.009 J0.0003
X1.491 Y2.0602 Z-0.0728 I-0.009 J-0.0003
X1.509 Y2.0608 Z-0.0738 I0.009 J0.0003
X1.491 Y2.0602 Z-0.0748 I-0.009 J-0.0003
X1.509 Y2.0608 Z-0.0758 I0.009 J0.0003
X1.491 Y2.0602 Z-0.0768 I-0.009 J-0.0003
X1.509 Y2.0608 Z-0.0778 I0.009 J0.0003
X1.491 Y2.0602 Z-0.0788 I-0.009 J-0.0003
X1.509 Y2.0608 Z-0.0797 I0.009 J0.0003
X1.506 Y2.0672 Z-0.08 I-0.009 J-0.0003
X1.494 Y2.0538 I-0.006 J-0.0067 F40.
X1.506 Y2.0672 I0.006 J0.0067
X1.494 Y2.0538 Z-0.081 I-0.006 J-0.0067 F20.
X1.506 Y2.0672 Z-0.082 I0.006 J0.0067
X1.494 Y2.0538 Z-0.083 I-0.006 J-0.0067
X1.506 Y2.0672 Z-0.0839 I0.006 J0.0067
X1.494 Y2.0538 Z-0.0849 I-0.006 J-0.0067
X1.506 Y2.0672 Z-0.0859 I0.006 J0.0067
X1.494 Y2.0538 Z-0.0869 I-0.006 J-0.0067
X1.506 Y2.0672 Z-0.0879 I0.006 J0.0067
X1.494 Y2.0538 Z-0.0889 I-0.006 J-0.0067
X1.506 Y2.0672 Z-0.0899 I0.006 J0.0067
X1.494 Y2.0538 Z-0.0909 I-0.006 J-0.0067
X1.506 Y2.0672 Z-0.0918 I0.006 J0.0067
X1.494 Y2.0538 Z-0.0928 I-0.006 J-0.0067
X1.506 Y2.0672 Z-0.0938 I0.006 J0.0067
X1.494 Y2.0538 Z-0.0948 I-0.006 J-0.0067
X1.506 Y2.0672 Z-0.0958 I0.006 J0.0067
X1.494 Y2.0538 Z-0.0968 I-0.006 J-0.0067
X1.506 Y2.0672 Z-0.0978 I0.006 J0.0067
X1.494 Y2.0538 Z-0.0988 I-0.006 J-0.0067
X1.506 Y2.0672 Z-0.0997 I0.006 J0.0067
X1.4993 Y2.0695 Z-0.1 I-0.006 J-0.0067
X1.5007 Y2.0515 I0.0007 J-0.009 F40.
X1.4993 Y2.0695 I-0.0007 J0.009
X1.5007 Y2.0515 Z-0.101 I0.0007 J-0.009 F20.
X1.4993 Y2.0695 Z-0.102 I-0.0007 J0.009
X1.5007 Y2.0515 Z-0.103 I0.0007 J-0.009
X1.4993 Y2.0695 Z-0.1039 I-0.0007 J0.009
X1.5007 Y2.0515 Z-0.1049 I0.0007 J-0.009
X1.4993 Y2.0695 Z-0.1059 I-0.0007 J0.009
X1.5007 Y2.0515 Z-0.1069 I0.0007 J-0.009
X1.4993 Y2.0695 Z-0.1079 I-0.0007 J0.009
X1.5007 Y2.0515 Z-0.1089 I0.0007 J-0.009
X1.4993 Y2.0695 Z-0.1099 I-0.0007 J0.009
X1.5007 Y2.0515 Z-0.1109 I0.0007 J-0.009
X1.4993 Y2.0695 Z-0.1118 I-0.0007 J0.009
X1.5007 Y2.0515 Z-0.1128 I0.0007 J-0.009
X1.4993 Y2.0695 Z-0.1138 I-0.0007 J0.009
X1.5007 Y2.0515 Z-0.1148 I0.0007 J-0.009
X1.4993 Y2.0695 Z-0.1158 I-0.0007 J0.009
X1.5007 Y2.0515 Z-0.1168 I0.0007 J-0.009
X1.4993 Y2.0695 Z-0.1178 I-0.0007 J0.009
X1.5007 Y2.0515 Z-0.1188 I0.0007 J-0.009
X1.4993 Y2.0695 Z-0.1197 I-0.0007 J0.009
X1.4931 Y2.0662 Z-0.12 I0.0007 J-0.009
X1.5069 Y2.0548 I0.0069 J-0.0057 F40.
X1.4931 Y2.0662 I-0.0069 J0.0057
X1.5069 Y2.0548 Z-0.121 I0.0069 J-0.0057 F20.
X1.4931 Y2.0662 Z-0.122 I-0.0069 J0.0057
X1.5069 Y2.0548 Z-0.123 I0.0069 J-0.0057
X1.4931 Y2.0662 Z-0.1239 I-0.0069 J0.0057
X1.5069 Y2.0548 Z-0.1249 I0.0069 J-0.0057
X1.4931 Y2.0662 Z-0.1259 I-0.0069 J0.0057
X1.5069 Y2.0548 Z-0.1269 I0.0069 J-0.0057
X1.4931 Y2.0662 Z-0.1279 I-0.0069 J0.0057
X1.5069 Y2.0548 Z-0.1289 I0.0069 J-0.0057
X1.4931 Y2.0662 Z-0.1299 I-0.0069 J0.0057
X1.5069 Y2.0548 Z-0.1309 I0.0069 J-0.0057
X1.4931 Y2.0662 Z-0.1318 I-0.0069 J0.0057
X1.5069 Y2.0548 Z-0.1328 I0.0069 J-0.0057
X1.4931 Y2.0662 Z-0.1338 I-0.0069 J0.0057
X1.5069 Y2.0548 Z-0.1348 I0.0069 J-0.0057
X1.4931 Y2.0662 Z-0.1358 I-0.0069 J0.0057
X1.5069 Y2.0548 Z-0.1368 I0.0069 J-0.0057
X1.4931 Y2.0662 Z-0.1378 I-0.0069 J0.0057
X1.5069 Y2.0548 Z-0.1388 I0.0069 J-0.0057
X1.4931 Y2.0662 Z-0.1397 I-0.0069 J0.0057
X1.4911 Y2.0595 Z-0.14 I0.0069 J-0.0057
X1.5089 Y2.0615 I0.0089 J0.001 F40.
X1.4911 Y2.0595 I-0.0089 J-0.001
X1.5089 Y2.0615 Z-0.141 I0.0089 J0.001 F20.
X1.4911 Y2.0595 Z-0.142 I-0.0089 J-0.001
X1.5089 Y2.0615 Z-0.143 I0.0089 J0.001
X1.4911 Y2.0595 Z-0.1439 I-0.0089 J-0.001
X1.5089 Y2.0615 Z-0.1449 I0.0089 J0.001
X1.4911 Y2.0595 Z-0.1459 I-0.0089 J-0.001
X1.5089 Y2.0615 Z-0.1469 I0.0089 J0.001
X1.4911 Y2.0595 Z-0.1479 I-0.0089 J-0.001
X1.5089 Y2.0615 Z-0.1489 I0.0089 J0.001
X1.4911 Y2.0595 Z-0.1499 I-0.0089 J-0.001
X1.5089 Y2.0615 Z-0.1509 I0.0089 J0.001
X1.4911 Y2.0595 Z-0.1518 I-0.0089 J-0.001
X1.5089 Y2.0615 Z-0.1528 I0.0089 J0.001
X1.4911 Y2.0595 Z-0.1538 I-0.0089 J-0.001
X1.5089 Y2.0615 Z-0.1548 I0.0089 J0.001
X1.4911 Y2.0595 Z-0.1558 I-0.0089 J-0.001
X1.5089 Y2.0615 Z-0.1568 I0.0089 J0.001
X1.4911 Y2.0595 Z-0.1578 I-0.0089 J-0.001
X1.5089 Y2.0615 Z-0.1588 I0.0089 J0.001
X1.4911 Y2.0595 Z-0.1597 I-0.0089 J-0.001
X1.4945 Y2.0534 Z-0.16 I0.0089 J0.001
X1.5055 Y2.0676 I0.0055 J0.0071 F40.
X1.4945 Y2.0534 I-0.0055 J-0.0071
X1.5055 Y2.0676 Z-0.161 I0.0055 J0.0071 F20.
X1.4945 Y2.0534 Z-0.162 I-0.0055 J-0.0071
X1.5055 Y2.0676 Z-0.163 I0.0055 J0.0071
X1.4945 Y2.0534 Z-0.1639 I-0.0055 J-0.0071
X1.5055 Y2.0676 Z-0.1649 I0.0055 J0.0071
X1.4945 Y2.0534 Z-0.1659 I-0.0055 J-0.0071
X1.5055 Y2.0676 Z-0.1669 I0.0055 J0.0071
X1.4945 Y2.0534 Z-0.1679 I-0.0055 J-0.0071
X1.5055 Y2.0676 Z-0.1689 I0.0055 J0.0071
X1.4945 Y2.0534 Z-0.1699 I-0.0055 J-0.0071
X1.5055 Y2.0676 Z-0.1709 I0.0055 J0.0071
X1.4945 Y2.0534 Z-0.1718 I-0.0055 J-0.0071
X1.5055 Y2.0676 Z-0.1728 I0.0055 J0.0071
X1.4945 Y2.0534 Z-0.1738 I-0.0055 J-0.0071
X1.5055 Y2.0676 Z-0.1748 I0.0055 J0.0071
X1.4945 Y2.0534 Z-0.1758 I-0.0055 J-0.0071
X1.5055 Y2.0676 Z-0.1768 I0.0055 J0.0071
X1.4945 Y2.0534 Z-0.1778 I-0.0055 J-0.0071
X1.5055 Y2.0676 Z-0.1788 I0.0055 J0.0071
X1.4945 Y2.0534 Z-0.1797 I-0.0055 J-0.0071
X1.5014 Y2.0516 Z-0.18 I0.0055 J0.0071
X1.4986 Y2.0694 I-0.0014 J0.0089 F40.
X1.5014 Y2.0516 I0.0014 J-0.0089
X1.4986 Y2.0694 Z-0.181 I-0.0014 J0.0089 F20.
X1.5014 Y2.0516 Z-0.182 I0.0014 J-0.0089
X1.4986 Y2.0694 Z-0.183 I-0.0014 J0.0089
X1.5014 Y2.0516 Z-0.1839 I0.0014 J-0.0089
X1.4986 Y2.0694 Z-0.1849 I-0.0014 J0.0089
X1.5014 Y2.0516 Z-0.1859 I0.0014 J-0.0089
X1.4986 Y2.0694 Z-0.1869 I-0.0014 J0.0089
X1.5014 Y2.0516 Z-0.1879 I0.0014 J-0.0089
X1.4986 Y2.0694 Z-0.1889 I-0.0014 J0.0089
X1.5014 Y2.0516 Z-0.1899 I0.0014 J-0.0089
X1.4986 Y2.0694 Z-0.1909 I-0.0014 J0.0089
X1.5014 Y2.0516 Z-0.1918 I0.0014 J-0.0089
X1.4986 Y2.0694 Z-0.1928 I-0.0014 J0.0089
X1.5014 Y2.0516 Z-0.1938 I0.0014 J-0.0089
X1.4986 Y2.0694 Z-0.1948 I-0.0014 J0.0089
X1.5014 Y2.0516 Z-0.1958 I0.0014 J-0.0089
X1.4986 Y2.0694 Z-0.1968 I-0.0014 J0.0089
X1.5014 Y2.0516 Z-0.1978 I0.0014 J-0.0089
X1.4986 Y2.0694 Z-0.1988 I-0.0014 J0.0089
X1.5014 Y2.0516 Z-0.1997 I0.0014 J-0.0089
X1.5073 Y2.0553 Z-0.2 I-0.0014 J0.0089
X1.4927 Y2.0657 I-0.0073 J0.0052 F40.
X1.5073 Y2.0553 I0.0073 J-0.0052
X1.4927 Y2.0657 Z-0.201 I-0.0073 J0.0052 F20.
X1.5073 Y2.0553 Z-0.202 I0.0073 J-0.0052
X1.4927 Y2.0657 Z-0.203 I-0.0073 J0.0052
X1.5073 Y2.0553 Z-0.2039 I0.0073 J-0.0052
X1.4927 Y2.0657 Z-0.2049 I-0.0073 J0.0052
X1.5073 Y2.0553 Z-0.2059 I0.0073 J-0.0052
X1.4927 Y2.0657 Z-0.2069 I-0.0073 J0.0052
X1.5073 Y2.0553 Z-0.2079 I0.0073 J-0.0052
X1.4927 Y2.0657 Z-0.2089 I-0.0073 J0.0052
X1.5073 Y2.0553 Z-0.2099 I0.0073 J-0.0052
X1.4927 Y2.0657 Z-0.2109 I-0.0073 J0.0052
X1.5073 Y2.0553 Z-0.2118 I0.0073 J-0.0052
X1.4927 Y2.0657 Z-0.2128 I-0.0073 J0.0052
X1.5073 Y2.0553 Z-0.2138 I0.0073 J-0.0052
X1.4927 Y2.0657 Z-0.2148 I-0.0073 J0.0052
X1.5073 Y2.0553 Z-0.2158 I0.0073 J-0.0052
X1.4927 Y2.0657 Z-0.2168 I-0.0073 J0.0052
X1.5073 Y2.0553 Z-0.2178 I0.0073 J-0.0052
X1.4927 Y2.0657 Z-0.2188 I-0.0073 J0.0052
X1.5073 Y2.0553 Z-0.2197 I0.0073 J-0.0052
X1.5088 Y2.0622 Z-0.22 I-0.0073 J0.0052
X1.4912 Y2.0588 I-0.0088 J-0.0017 F40.
X1.5088 Y2.0622 I0.0088 J0.0017
X1.4912 Y2.0588 Z-0.221 I-0.0088 J-0.0017 F20.
X1.5088 Y2.0622 Z-0.222 I0.0088 J0.0017
X1.4912 Y2.0588 Z-0.223 I-0.0088 J-0.0017
X1.5088 Y2.0622 Z-0.2239 I0.0088 J0.0017
X1.4912 Y2.0588 Z-0.2249 I-0.0088 J-0.0017
X1.5088 Y2.0622 Z-0.2259 I0.0088 J0.0017
X1.4912 Y2.0588 Z-0.2269 I-0.0088 J-0.0017
X1.5088 Y2.0622 Z-0.2279 I0.0088 J0.0017
X1.4912 Y2.0588 Z-0.2289 I-0.0088 J-0.0017
X1.5088 Y2.0622 Z-0.2299 I0.0088 J0.0017
X1.4912 Y2.0588 Z-0.2309 I-0.0088 J-0.0017
X1.5088 Y2.0622 Z-0.2318 I0.0088 J0.0017
X1.4912 Y2.0588 Z-0.2328 I-0.0088 J-0.0017
X1.5088 Y2.0622 Z-0.2338 I0.0088 J0.0017
X1.4912 Y2.0588 Z-0.2348 I-0.0088 J-0.0017
X1.5088 Y2.0622 Z-0.2358 I0.0088 J0.0017
X1.4912 Y2.0588 Z-0.2368 I-0.0088 J-0.0017
X1.5088 Y2.0622 Z-0.2378 I0.0088 J0.0017
X1.4912 Y2.0588 Z-0.2388 I-0.0088 J-0.0017
X1.5088 Y2.0622 Z-0.2397 I0.0088 J0.0017
X1.5049 Y2.068 Z-0.24 I-0.0088 J-0.0017
X1.4951 Y2.053 I-0.0049 J-0.0075 F40.
X1.5049 Y2.068 I0.0049 J0.0075
X1.4951 Y2.053 Z-0.241 I-0.0049 J-0.0075 F20.
X1.5049 Y2.068 Z-0.242 I0.0049 J0.0075
X1.4951 Y2.053 Z-0.243 I-0.0049 J-0.0075
X1.5049 Y2.068 Z-0.2439 I0.0049 J0.0075
X1.4951 Y2.053 Z-0.2449 I-0.0049 J-0.0075
X1.5049 Y2.068 Z-0.2459 I0.0049 J0.0075
X1.4951 Y2.053 Z-0.2469 I-0.0049 J-0.0075
X1.5049 Y2.068 Z-0.2479 I0.0049 J0.0075
X1.4951 Y2.053 Z-0.2489 I-0.0049 J-0.0075
X1.5049 Y2.068 Z-0.2499 I0.0049 J0.0075
X1.4951 Y2.053 Z-0.2509 I-0.0049 J-0.0075
X1.5049 Y2.068 Z-0.2518 I0.0049 J0.0075
X1.4951 Y2.053 Z-0.2528 I-0.0049 J-0.0075
X1.5049 Y2.068 Z-0.2538 I0.0049 J0.0075
X1.4951 Y2.053 Z-0.2548 I-0.0049 J-0.0075
X1.5049 Y2.068 Z-0.2558 I0.0049 J0.0075
X1.4951 Y2.053 Z-0.2568 I-0.0049 J-0.0075
X1.5049 Y2.068 Z-0.2578 I0.0049 J0.0075
X1.4951 Y2.053 Z-0.2588 I-0.0049 J-0.0075
X1.5049 Y2.068 Z-0.2597 I0.0049 J0.0075
X1.498 Y2.0693 Z-0.26 I-0.0049 J-0.0075
X1.502 Y2.0517 I0.002 J-0.0088 F40.
X1.498 Y2.0693 I-0.002 J0.0088
X1.502 Y2.0517 Z-0.261 I0.002 J-0.0088 F20.
X1.498 Y2.0693 Z-0.262 I-0.002 J0.0088
X1.502 Y2.0517 Z-0.263 I0.002 J-0.0088
X1.498 Y2.0693 Z-0.2639 I-0.002 J0.0088
X1.502 Y2.0517 Z-0.2649 I0.002 J-0.0088
X1.498 Y2.0693 Z-0.2659 I-0.002 J0.0088
X1.502 Y2.0517 Z-0.2669 I0.002 J-0.0088
X1.498 Y2.0693 Z-0.2679 I-0.002 J0.0088
X1.502 Y2.0517 Z-0.2689 I0.002 J-0.0088
X1.498 Y2.0693 Z-0.2699 I-0.002 J0.0088
X1.4947 Y2.0678 Z-0.27 I0.002 J-0.0088
X1.5053 Y2.0532 I0.0053 J-0.0073 F40.
X1.4947 Y2.0678 I-0.0053 J0.0073
G1 X1.493 Y2.0662 Z-0.2695
X1.4918 Y2.0643 Z-0.2691
X1.4912 Y2.0624 Z-0.2677
X1.491 Y2.0605 Z-0.2664
X1.4911 Y2.0593 Z-0.2645
X1.4913 Y2.0581 Z-0.2626
X1.4916 Y2.0573 Z-0.2582
G0 Z0.2
X1.4962 Y2.5555
G1 Z0.1118 F40.
X1.4969 Y2.5556 Z0.1075 F20.
X1.498 Y2.5559 Z0.1057
X1.499 Y2.5565 Z0.1039
X1.4999 Y2.5574 Z0.1029
X1.5006 Y2.5584 Z0.102
X1.5009 Y2.5596 Z0.1011
X1.501 Y2.5612 Z0.1007
X1.5005 Y2.5626 Z0.1004
X1.4997 Y2.5639 Z0.1
G3 X1.4923 Y2.5571 Z0.0995 I-0.0037 J-0.0034
X1.4997 Y2.5639 Z0.0989 I0.0037 J0.0034
X1.4923 Y2.5571 Z0.0984 I-0.0037 J-0.0034
X1.4997 Y2.5639 Z0.0978 I0.0037 J0.0034
X1.4923 Y2.5571 Z0.0973 I-0.0037 J-0.0034
X1.4997 Y2.5639 Z0.0967 I0.0037 J0.0034
X1.4923 Y2.5571 Z0.0962 I-0.0037 J-0.0034
X1.4997 Y2.5639 Z0.0956 I0.0037 J0.0034
X1.4923 Y2.5571 Z0.0951 I-0.0037 J-0.0034
X1.4997 Y2.5639 Z0.0945 I0.0037 J0.0034
X1.4923 Y2.5571 Z0.094 I-0.0037 J-0.0034
X1.4997 Y2.5639 Z0.0934 I0.0037 J0.0034
X1.4923 Y2.5571 Z0.0929 I-0.0037 J-0.0034
X1.4997 Y2.5639 Z0.0923 I0.0037 J0.0034
X1.4923 Y2.5571 Z0.0918 I-0.0037 J-0.0034
X1.4997 Y2.5639 Z0.0912 I0.0037 J0.0034
X1.4923 Y2.5571 Z0.0907 I-0.0037 J-0.0034
X1.4997 Y2.5639 Z0.0901 I0.0037 J0.0034
X1.4923 Y2.5571 Z0.0896 I-0.0037 J-0.0034
X1.4997 Y2.5639 Z0.089 I0.0037 J0.0034
X1.4923 Y2.5571 Z0.0885 I-0.0037 J-0.0034
X1.4997 Y2.5639 Z0.0879 I0.0037 J0.0034
X1.4923 Y2.5571 Z0.0874 I-0.0037 J-0.0034
X1.4997 Y2.5639 Z0.0868 I0.0037 J0.0034
X1.4923 Y2.5571 Z0.0863 I-0.0037 J-0.0034
X1.4997 Y2.5639 Z0.0857 I0.0037 J0.0034
X1.4923 Y2.5571 Z0.0852 I-0.0037 J-0.0034
X1.4997 Y2.5639 Z0.0846 I0.0037 J0.0034
X1.4923 Y2.5571 Z0.0841 I-0.0037 J-0.0034
X1.4997 Y2.5639 Z0.0835 I0.0037 J0.0034
X1.4923 Y2.5571 Z0.083 I-0.0037 J-0.0034
X1.4997 Y2.5639 Z0.0824 I0.0037 J0.0034
X1.4923 Y2.5571 Z0.0819 I-0.0037 J-0.0034
X1.4997 Y2.5639 Z0.0813 I0.0037 J0.0034
X1.4923 Y2.5571 Z0.0808 I-0.0037 J-0.0034
X1.4997 Y2.5639 Z0.0803 I0.0037 J0.0034
X1.4923 Y2.5571 Z0.0797 I-0.0037 J-0.0034
X1.4997 Y2.5639 Z0.0792 I0.0037 J0.0034
X1.4923 Y2.5571 Z0.0786 I-0.0037 J-0.0034
X1.4997 Y2.5639 Z0.0781 I0.0037 J0.0034
X1.4923 Y2.5571 Z0.0775 I-0.0037 J-0.0034
X1.4997 Y2.5639 Z0.077 I0.0037 J0.0034
X1.4923 Y2.5571 Z0.0764 I-0.0037 J-0.0034
X1.4997 Y2.5639 Z0.0759 I0.0037 J0.0034
X1.4923 Y2.5571 Z0.0753 I-0.0037 J-0.0034
X1.4997 Y2.5639 Z0.0748 I0.0037 J0.0034
X1.4923 Y2.5571 Z0.0742 I-0.0037 J-0.0034
X1.4997 Y2.5639 Z0.0737 I0.0037 J0.0034
X1.4923 Y2.5571 Z0.0731 I-0.0037 J-0.0034
X1.4997 Y2.5639 Z0.0726 I0.0037 J0.0034
X1.4923 Y2.5571 Z0.072 I-0.0037 J-0.0034
X1.4997 Y2.5639 Z0.0715 I0.0037 J0.0034
X1.4923 Y2.5571 Z0.0709 I-0.0037 J-0.0034
X1.4997 Y2.5639 Z0.0704 I0.0037 J0.0034
X1.4923 Y2.5571 Z0.0698 I-0.0037 J-0.0034
X1.4997 Y2.5639 Z0.0693 I0.0037 J0.0034
X1.4923 Y2.5571 Z0.0687 I-0.0037 J-0.0034
X1.4997 Y2.5639 Z0.0682 I0.0037 J0.0034
X1.4923 Y2.5571 Z0.0676 I-0.0037 J-0.0034
X1.4997 Y2.5639 Z0.0671 I0.0037 J0.0034
X1.4923 Y2.5571 Z0.0665 I-0.0037 J-0.0034
X1.4997 Y2.5639 Z0.066 I0.0037 J0.0034
X1.4923 Y2.5571 Z0.0654 I-0.0037 J-0.0034
X1.4997 Y2.5639 Z0.0649 I0.0037 J0.0034
X1.4923 Y2.5571 Z0.0643 I-0.0037 J-0.0034
X1.4997 Y2.5639 Z0.0638 I0.0037 J0.0034
X1.4923 Y2.5571 Z0.0632 I-0.0037 J-0.0034
X1.4997 Y2.5639 Z0.0627 I0.0037 J0.0034
X1.4923 Y2.5571 Z0.0622 I-0.0037 J-0.0034
X1.4997 Y2.5639 Z0.0616 I0.0037 J0.0034
X1.4923 Y2.5571 Z0.0611 I-0.0037 J-0.0034
X1.4997 Y2.5639 Z0.0605 I0.0037 J0.0034
X1.4923 Y2.5571 Z0.06 I-0.0037 J-0.0034
X1.4997 Y2.5639 Z0.0594 I0.0037 J0.0034
X1.4923 Y2.5571 Z0.0589 I-0.0037 J-0.0034
X1.4997 Y2.5639 Z0.0583 I0.0037 J0.0034
X1.4923 Y2.5571 Z0.0578 I-0.0037 J-0.0034
X1.4997 Y2.5639 Z0.0572 I0.0037 J0.0034
X1.4923 Y2.5571 Z0.0567 I-0.0037 J-0.0034
X1.4997 Y2.5639 Z0.0561 I0.0037 J0.0034
X1.4923 Y2.5571 Z0.0556 I-0.0037 J-0.0034
X1.4997 Y2.5639 Z0.055 I0.0037 J0.0034
X1.4923 Y2.5571 Z0.0545 I-0.0037 J-0.0034
X1.4997 Y2.5639 Z0.0539 I0.0037 J0.0034
X1.4923 Y2.5571 Z0.0534 I-0.0037 J-0.0034
X1.4997 Y2.5639 Z0.0528 I0.0037 J0.0034
X1.4923 Y2.5571 Z0.0523 I-0.0037 J-0.0034
X1.4997 Y2.5639 Z0.0517 I0.0037 J0.0034
X1.4923 Y2.5571 Z0.0512 I-0.0037 J-0.0034
X1.4997 Y2.5639 Z0.0506 I0.0037 J0.0034
X1.4923 Y2.5571 Z0.0501 I-0.0037 J-0.0034
X1.4997 Y2.5639 Z0.0495 I0.0037 J0.0034
X1.4923 Y2.5571 Z0.049 I-0.0037 J-0.0034
X1.4997 Y2.5639 Z0.0484 I0.0037 J0.0034
X1.4923 Y2.5571 Z0.0479 I-0.0037 J-0.0034
X1.4997 Y2.5639 Z0.0473 I0.0037 J0.0034
X1.4923 Y2.5571 Z0.0468 I-0.0037 J-0.0034
X1.4997 Y2.5639 Z0.0462 I0.0037 J0.0034
X1.4923 Y2.5571 Z0.0457 I-0.0037 J-0.0034
X1.4997 Y2.5639 Z0.0451 I0.0037 J0.0034
X1.4923 Y2.5571 Z0.0446 I-0.0037 J-0.0034
X1.4997 Y2.5639 Z0.044 I0.0037 J0.0034
X1.4923 Y2.5571 Z0.0435 I-0.0037 J-0.0034
X1.4997 Y2.5639 Z0.043 I0.0037 J0.0034
X1.4923 Y2.5571 Z0.0424 I-0.0037 J-0.0034
X1.4997 Y2.5639 Z0.0419 I0.0037 J0.0034
X1.4923 Y2.5571 Z0.0413 I-0.0037 J-0.0034
X1.4997 Y2.5639 Z0.0408 I0.0037 J0.0034
X1.4923 Y2.5571 Z0.0402 I-0.0037 J-0.0034
X1.4997 Y2.5639 Z0.0397 I0.0037 J0.0034
X1.4923 Y2.5571 Z0.0391 I-0.0037 J-0.0034
X1.4997 Y2.5639 Z0.0386 I0.0037 J0.0034
X1.4923 Y2.5571 Z0.038 I-0.0037 J-0.0034
X1.4997 Y2.5639 Z0.0375 I0.0037 J0.0034
X1.4923 Y2.5571 Z0.0369 I-0.0037 J-0.0034
X1.4997 Y2.5639 Z0.0364 I0.0037 J0.0034
X1.4923 Y2.5571 Z0.0358 I-0.0037 J-0.0034
X1.4997 Y2.5639 Z0.0353 I0.0037 J0.0034
X1.4923 Y2.5571 Z0.0347 I-0.0037 J-0.0034
X1.4997 Y2.5639 Z0.0342 I0.0037 J0.0034
X1.4923 Y2.5571 Z0.0336 I-0.0037 J-0.0034
X1.4997 Y2.5639 Z0.0331 I0.0037 J0.0034
X1.4923 Y2.5571 Z0.0325 I-0.0037 J-0.0034
X1.4997 Y2.5639 Z0.032 I0.0037 J0.0034
X1.4923 Y2.5571 Z0.0314 I-0.0037 J-0.0034
X1.4997 Y2.5639 Z0.0309 I0.0037 J0.0034
X1.4923 Y2.5571 Z0.0303 I-0.0037 J-0.0034
X1.4997 Y2.5639 Z0.0298 I0.0037 J0.0034
X1.4923 Y2.5571 Z0.0292 I-0.0037 J-0.0034
X1.4997 Y2.5639 Z0.0287 I0.0037 J0.0034
X1.4923 Y2.5571 Z0.0281 I-0.0037 J-0.0034
X1.4997 Y2.5639 Z0.0276 I0.0037 J0.0034
X1.4923 Y2.5571 Z0.027 I-0.0037 J-0.0034
X1.4997 Y2.5639 Z0.0265 I0.0037 J0.0034
X1.4923 Y2.5571 Z0.0259 I-0.0037 J-0.0034
X1.4997 Y2.5639 Z0.0254 I0.0037 J0.0034
X1.4923 Y2.5571 Z0.0249 I-0.0037 J-0.0034
X1.4997 Y2.5639 Z0.0243 I0.0037 J0.0034
X1.4923 Y2.5571 Z0.0238 I-0.0037 J-0.0034
X1.4997 Y2.5639 Z0.0232 I0.0037 J0.0034
X1.4923 Y2.5571 Z0.0227 I-0.0037 J-0.0034
X1.4997 Y2.5639 Z0.0221 I0.0037 J0.0034
X1.4923 Y2.5571 Z0.0216 I-0.0037 J-0.0034
X1.4997 Y2.5639 Z0.021 I0.0037 J0.0034
X1.4923 Y2.5571 Z0.0205 I-0.0037 J-0.0034
X1.4997 Y2.5639 Z0.0199 I0.0037 J0.0034
X1.4923 Y2.5571 Z0.0194 I-0.0037 J-0.0034
X1.4997 Y2.5639 Z0.0188 I0.0037 J0.0034
X1.4923 Y2.5571 Z0.0183 I-0.0037 J-0.0034
X1.4997 Y2.5639 Z0.0177 I0.0037 J0.0034
X1.4923 Y2.5571 Z0.0172 I-0.0037 J-0.0034
X1.4997 Y2.5639 Z0.0166 I0.0037 J0.0034
X1.4923 Y2.5571 Z0.0161 I-0.0037 J-0.0034
X1.4997 Y2.5639 Z0.0155 I0.0037 J0.0034
X1.4923 Y2.5571 Z0.015 I-0.0037 J-0.0034
X1.4997 Y2.5639 Z0.0144 I0.0037 J0.0034
X1.4923 Y2.5571 Z0.0139 I-0.0037 J-0.0034
X1.4997 Y2.5639 Z0.0133 I0.0037 J0.0034
X1.4923 Y2.5571 Z0.0128 I-0.0037 J-0.0034
X1.4997 Y2.5639 Z0.0122 I0.0037 J0.0034
X1.4923 Y2.5571 Z0.0117 I-0.0037 J-0.0034
X1.4997 Y2.5639 Z0.0111 I0.0037 J0.0034
X1.4923 Y2.5571 Z0.0106 I-0.0037 J-0.0034
X1.4997 Y2.5639 Z0.01 I0.0037 J0.0034
X1.4923 Y2.5571 Z0.0095 I-0.0037 J-0.0034
X1.4997 Y2.5639 Z0.0089 I0.0037 J0.0034
X1.4923 Y2.5571 Z0.0084 I-0.0037 J-0.0034
X1.4997 Y2.5639 Z0.0078 I0.0037 J0.0034
X1.4923 Y2.5571 Z0.0073 I-0.0037 J-0.0034
X1.4997 Y2.5639 Z0.0067 I0.0037 J0.0034
X1.4923 Y2.5571 Z0.0062 I-0.0037 J-0.0034
X1.4997 Y2.5639 Z0.0057 I0.0037 J0.0034
X1.4923 Y2.5571 Z0.0051 I-0.0037 J-0.0034
X1.4997 Y2.5639 Z0.0046 I0.0037 J0.0034
X1.4923 Y2.5571 Z0.004 I-0.0037 J-0.0034
X1.4997 Y2.5639 Z0.0035 I0.0037 J0.0034
X1.4923 Y2.5571 Z0.0029 I-0.0037 J-0.0034
X1.4997 Y2.5639 Z0.0024 I0.0037 J0.0034
X1.4923 Y2.5571 Z0.0018 I-0.0037 J-0.0034
X1.4997 Y2.5639 Z0.0013 I0.0037 J0.0034
X1.4923 Y2.5571 Z0.0007 I-0.0037 J-0.0034
X1.4997 Y2.5639 Z0.0002 I0.0037 J0.0034
X1.4923 Y2.5571 Z-0.0004 I-0.0037 J-0.0034
X1.4997 Y2.5639 Z-0.0009 I0.0037 J0.0034
X1.4923 Y2.5571 Z-0.0015 I-0.0037 J-0.0034
X1.4997 Y2.5639 Z-0.002 I0.0037 J0.0034
X1.4923 Y2.5571 Z-0.0026 I-0.0037 J-0.0034
X1.4997 Y2.5639 Z-0.0031 I0.0037 J0.0034
X1.4923 Y2.5571 Z-0.0037 I-0.0037 J-0.0034
X1.4997 Y2.5639 Z-0.0042 I0.0037 J0.0034
X1.4923 Y2.5571 Z-0.0048 I-0.0037 J-0.0034
X1.4997 Y2.5639 Z-0.0053 I0.0037 J0.0034
X1.4923 Y2.5571 Z-0.0059 I-0.0037 J-0.0034
X1.4997 Y2.5639 Z-0.0064 I0.0037 J0.0034
X1.4923 Y2.5571 Z-0.007 I-0.0037 J-0.0034
X1.4997 Y2.5639 Z-0.0075 I0.0037 J0.0034
X1.4923 Y2.5571 Z-0.0081 I-0.0037 J-0.0034
X1.4997 Y2.5639 Z-0.0086 I0.0037 J0.0034
X1.4923 Y2.5571 Z-0.0092 I-0.0037 J-0.0034
X1.4997 Y2.5639 Z-0.0097 I0.0037 J0.0034
X1.4923 Y2.5571 Z-0.0103 I-0.0037 J-0.0034
X1.4997 Y2.5639 Z-0.0108 I0.0037 J0.0034
X1.4923 Y2.5571 Z-0.0114 I-0.0037 J-0.0034
X1.4997 Y2.5639 Z-0.0119 I0.0037 J0.0034
X1.4923 Y2.5571 Z-0.0124 I-0.0037 J-0.0034
X1.4997 Y2.5639 Z-0.013 I0.0037 J0.0034
X1.4923 Y2.5571 Z-0.0135 I-0.0037 J-0.0034
X1.4997 Y2.5639 Z-0.0141 I0.0037 J0.0034
X1.4923 Y2.5571 Z-0.0146 I-0.0037 J-0.0034
X1.4997 Y2.5639 Z-0.0152 I0.0037 J0.0034
X1.4923 Y2.5571 Z-0.0157 I-0.0037 J-0.0034
X1.4997 Y2.5639 Z-0.0163 I0.0037 J0.0034
X1.4923 Y2.5571 Z-0.0168 I-0.0037 J-0.0034
X1.4997 Y2.5639 Z-0.0174 I0.0037 J0.0034
X1.4923 Y2.5571 Z-0.0179 I-0.0037 J-0.0034
X1.4997 Y2.5639 Z-0.0185 I0.0037 J0.0034
X1.4923 Y2.5571 Z-0.019 I-0.0037 J-0.0034
X1.4997 Y2.5639 Z-0.0196 I0.0037 J0.0034
X1.491 Y2.5605 Z-0.02 I-0.0037 J-0.0034
X1.509 I0.009 J0. F40.
X1.491 I-0.009 J0.
X1.509 Z-0.021 I0.009 J0. F20.
X1.491 Z-0.022 I-0.009 J0.
X1.509 Z-0.023 I0.009 J0.
X1.491 Z-0.0239 I-0.009 J0.
X1.509 Z-0.0249 I0.009 J0.
X1.491 Z-0.0259 I-0.009 J0.
X1.509 Z-0.0269 I0.009 J0.
X1.491 Z-0.0279 I-0.009 J0.
X1.509 Z-0.0289 I0.009 J0.
X1.491 Z-0.0299 I-0.009 J0.
X1.509 Z-0.0309 I0.009 J0.
X1.491 Z-0.0318 I-0.009 J0.
X1.509 Z-0.0328 I0.009 J0.
X1.491 Z-0.0338 I-0.009 J0.
X1.509 Z-0.0348 I0.009 J0.
X1.491 Z-0.0358 I-0.009 J0.
X1.509 Z-0.0368 I0.009 J0.
X1.491 Z-0.0378 I-0.009 J0.
X1.509 Z-0.0388 I0.009 J0.
X1.491 Z-0.0397 I-0.009 J0.
X1.4938 Y2.554 Z-0.04 I0.009 J0.
X1.5062 Y2.567 I0.0062 J0.0065 F40.
X1.4938 Y2.554 I-0.0062 J-0.0065
X1.5062 Y2.567 Z-0.041 I0.0062 J0.0065 F20.
X1.4938 Y2.554 Z-0.042 I-0.0062 J-0.0065
X1.5062 Y2.567 Z-0.043 I0.0062 J0.0065
X1.4938 Y2.554 Z-0.0439 I-0.0062 J-0.0065
X1.5062 Y2.567 Z-0.0449 I0.0062 J0.0065
X1.4938 Y2.554 Z-0.0459 I-0.0062 J-0.0065
X1.5062 Y2.567 Z-0.0469 I0.0062 J0.0065
X1.4938 Y2.554 Z-0.0479 I-0.0062 J-0.0065
X1.5062 Y2.567 Z-0.0489 I0.0062 J0.0065
X1.4938 Y2.554 Z-0.0499 I-0.0062 J-0.0065
X1.5062 Y2.567 Z-0.0509 I0.0062 J0.0065
X1.4938 Y2.554 Z-0.0518 I-0.0062 J-0.0065
X1.5062 Y2.567 Z-0.0528 I0.0062 J0.0065
X1.4938 Y2.554 Z-0.0538 I-0.0062 J-0.0065
X1.5062 Y2.567 Z-0.0548 I0.0062 J0.0065
X1.4938 Y2.554 Z-0.0558 I-0.0062 J-0.0065
X1.5062 Y2.567 Z-0.0568 I0.0062 J0.0065
X1.4938 Y2.554 Z-0.0578 I-0.0062 J-0.0065
X1.5062 Y2.567 Z-0.0588 I0.0062 J0.0065
X1.4938 Y2.554 Z-0.0597 I-0.0062 J-0.0065
X1.5003 Y2.5515 Z-0.06 I0.0062 J0.0065
X1.4997 Y2.5695 I-0.0003 J0.009 F40.
X1.5003 Y2.5515 I0.0003 J-0.009
X1.4997 Y2.5695 Z-0.061 I-0.0003 J0.009 F20.
X1.5003 Y2.5515 Z-0.062 I0.0003 J-0.009
X1.4997 Y2.5695 Z-0.063 I-0.0003 J0.009
X1.5003 Y2.5515 Z-0.0639 I0.0003 J-0.009
X1.4997 Y2.5695 Z-0.0649 I-0.0003 J0.009
X1.5003 Y2.5515 Z-0.0659 I0.0003 J-0.009
X1.4997 Y2.5695 Z-0.0669 I-0.0003 J0.009
X1.5003 Y2.5515 Z-0.0679 I0.0003 J-0.009
X1.4997 Y2.5695 Z-0.0689 I-0.0003 J0.009
X1.5003 Y2.5515 Z-0.0699 I0.0003 J-0.009
X1.4997 Y2.5695 Z-0.0709 I-0.0003 J0.009
X1.5003 Y2.5515 Z-0.0718 I0.0003 J-0.009
X1.4997 Y2.5695 Z-0.0728 I-0.0003 J0.009
X1.5003 Y2.5515 Z-0.0738 I0.0003 J-0.009
X1.4997 Y2.5695 Z-0.0748 I-0.0003 J0.009
X1.5003 Y2.5515 Z-0.0758 I0.0003 J-0.009
X1.4997 Y2.5695 Z-0.0768 I-0.0003 J0.009
X1.5003 Y2.5515 Z-0.0778 I0.0003 J-0.009
X1.4997 Y2.5695 Z-0.0788 I-0.0003 J0.009
X1.5003 Y2.5515 Z-0.0797 I0.0003 J-0.009
X1.5067 Y2.5545 Z-0.08 I-0.0003 J0.009
X1.4933 Y2.5665 I-0.0067 J0.006 F40.
X1.5067 Y2.5545 I0.0067 J-0.006
X1.4933 Y2.5665 Z-0.081 I-0.0067 J0.006 F20.
X1.5067 Y2.5545 Z-0.082 I0.0067 J-0.006
X1.4933 Y2.5665 Z-0.083 I-0.0067 J0.006
X1.5067 Y2.5545 Z-0.0839 I0.0067 J-0.006
X1.4933 Y2.5665 Z-0.0849 I-0.0067 J0.006
X1.5067 Y2.5545 Z-0.0859 I0.0067 J-0.006
X1.4933 Y2.5665 Z-0.0869 I-0.0067 J0.006
X1.5067 Y2.5545 Z-0.0879 I0.0067 J-0.006
X1.4933 Y2.5665 Z-0.0889 I-0.0067 J0.006
X1.5067 Y2.5545 Z-0.0899 I0.0067 J-0.006
X1.4933 Y2.5665 Z-0.0909 I-0.0067 J0.006
X1.5067 Y2.5545 Z-0.0918 I0.0067 J-0.006
X1.4933 Y2.5665 Z-0.0928 I-0.0067 J0.006
X1.5067 Y2.5545 Z-0.0938 I0.0067 J-0.006
X1.4933 Y2.5665 Z-0.0948 I-0.0067 J0.006
X1.5067 Y2.5545 Z-0.0958 I0.0067 J-0.006
X1.4933 Y2.5665 Z-0.0968 I-0.0067 J0.006
X1.5067 Y2.5545 Z-0.0978 I0.0067 J-0.006
X1.4933 Y2.5665 Z-0.0988 I-0.0067 J0.006
X1.5067 Y2.5545 Z-0.0997 I0.0067 J-0.006
X1.509 Y2.5612 Z-0.1 I-0.0067 J0.006
X1.491 Y2.5598 I-0.009 J-0.0007 F40.
X1.509 Y2.5612 I0.009 J0.0007
X1.491 Y2.5598 Z-0.101 I-0.009 J-0.0007 F20.
X1.509 Y2.5612 Z-0.102 I0.009 J0.0007
X1.491 Y2.5598 Z-0.103 I-0.009 J-0.0007
X1.509 Y2.5612 Z-0.1039 I0.009 J0.0007
X1.491 Y2.5598 Z-0.1049 I-0.009 J-0.0007
X1.509 Y2.5612 Z-0.1059 I0.009 J0.0007
X1.491 Y2.5598 Z-0.1069 I-0.009 J-0.0007
X1.509 Y2.5612 Z-0.1079 I0.009 J0.0007
X1.491 Y2.5598 Z-0.1089 I-0.009 J-0.0007
X1.509 Y2.5612 Z-0.1099 I0.009 J0.0007
X1.491 Y2.5598 Z-0.1109 I-0.009 J-0.0007
X1.509 Y2.5612 Z-0.1118 I0.009 J0.0007
X1.491 Y2.5598 Z-0.1128 I-0.009 J-0.0007
X1.509 Y2.5612 Z-0.1138 I0.009 J0.0007
X1.491 Y2.5598 Z-0.1148 I-0.009 J-0.0007
X1.509 Y2.5612 Z-0.1158 I0.009 J0.0007
X1.491 Y2.5598 Z-0.1168 I-0.009 J-0.0007
X1.509 Y2.5612 Z-0.1178 I0.009 J0.0007
X1.491 Y2.5598 Z-0.1188 I-0.009 J-0.0007
X1.509 Y2.5612 Z-0.1197 I0.009 J0.0007
X1.5057 Y2.5674 Z-0.12 I-0.009 J-0.0007
X1.4943 Y2.5536 I-0.0057 J-0.0069 F40.
X1.5057 Y2.5674 I0.0057 J0.0069
X1.4943 Y2.5536 Z-0.121 I-0.0057 J-0.0069 F20.
X1.5057 Y2.5674 Z-0.122 I0.0057 J0.0069
X1.4943 Y2.5536 Z-0.123 I-0.0057 J-0.0069
X1.5057 Y2.5674 Z-0.1239 I0.0057 J0.0069
X1.4943 Y2.5536 Z-0.1249 I-0.0057 J-0.0069
X1.5057 Y2.5674 Z-0.1259 I0.0057 J0.0069
X1.4943 Y2.5536 Z-0.1269 I-0.0057 J-0.0069
X1.5057 Y2.5674 Z-0.1279 I0.0057 J0.0069
X1.4943 Y2.5536 Z-0.1289 I-0.0057 J-0.0069
X1.5057 Y2.5674 Z-0.1299 I0.0057 J0.0069
X1.4943 Y2.5536 Z-0.1309 I-0.0057 J-0.0069
X1.5057 Y2.5674 Z-0.1318 I0.0057 J0.0069
X1.4943 Y2.5536 Z-0.1328 I-0.0057 J-0.0069
X1.5057 Y2.5674 Z-0.1338 I0.0057 J0.0069
X1.4943 Y2.5536 Z-0.1348 I-0.0057 J-0.0069
X1.5057 Y2.5674 Z-0.1358 I0.0057 J0.0069
X1.4943 Y2.5536 Z-0.1368 I-0.0057 J-0.0069
X1.5057 Y2.5674 Z-0.1378 I0.0057 J0.0069
X1.4943 Y2.5536 Z-0.1388 I-0.0057 J-0.0069
X1.5057 Y2.5674 Z-0.1397 I0.0057 J0.0069
X1.499 Y2.5694 Z-0.14 I-0.0057 J-0.0069
X1.501 Y2.5516 I0.001 J-0.0089 F40.
X1.499 Y2.5694 I-0.001 J0.0089
X1.501 Y2.5516 Z-0.141 I0.001 J-0.0089 F20.
X1.499 Y2.5694 Z-0.142 I-0.001 J0.0089
X1.501 Y2.5516 Z-0.143 I0.001 J-0.0089
X1.499 Y2.5694 Z-0.1439 I-0.001 J0.0089
X1.501 Y2.5516 Z-0.1449 I0.001 J-0.0089
X1.499 Y2.5694 Z-0.1459 I-0.001 J0.0089
X1.501 Y2.5516 Z-0.1469 I0.001 J-0.0089
X1.499 Y2.5694 Z-0.1479 I-0.001 J0.0089
X1.501 Y2.5516 Z-0.1489 I0.001 J-0.0089
X1.499 Y2.5694 Z-0.1499 I-0.001 J0.0089
X1.501 Y2.5516 Z-0.1509 I0.001 J-0.0089
X1.499 Y2.5694 Z-0.1518 I-0.001 J0.0089
X1.501 Y2.5516 Z-0.1528 I0.001 J-0.0089
X1.499 Y2.5694 Z-0.1538 I-0.001 J0.0089
X1.501 Y2.5516 Z-0.1548 I0.001 J-0.0089
X1.499 Y2.5694 Z-0.1558 I-0.001 J0.0089
X1.501 Y2.5516 Z-0.1568 I0.001 J-0.0089
X1.499 Y2.5694 Z-0.1578 I-0.001 J0.0089
X1.501 Y2.5516 Z-0.1588 I0.001 J-0.0089
X1.499 Y2.5694 Z-0.1597 I-0.001 J0.0089
X1.4929 Y2.566 Z-0.16 I0.001 J-0.0089
X1.5071 Y2.555 I0.0071 J-0.0055 F40.
X1.4929 Y2.566 I-0.0071 J0.0055
X1.5071 Y2.555 Z-0.161 I0.0071 J-0.0055 F20.
X1.4929 Y2.566 Z-0.162 I-0.0071 J0.0055
X1.5071 Y2.555 Z-0.163 I0.0071 J-0.0055
X1.4929 Y2.566 Z-0.1639 I-0.0071 J0.0055
X1.5071 Y2.555 Z-0.1649 I0.0071 J-0.0055
X1.4929 Y2.566 Z-0.1659 I-0.0071 J0.0055
X1.5071 Y2.555 Z-0.1669 I0.0071 J-0.0055
X1.4929 Y2.566 Z-0.1679 I-0.0071 J0.0055
X1.5071 Y2.555 Z-0.1689 I0.0071 J-0.0055
X1.4929 Y2.566 Z-0.1699 I-0.0071 J0.0055
X1.5071 Y2.555 Z-0.1709 I0.0071 J-0.0055
X1.4929 Y2.566 Z-0.1718 I-0.0071 J0.0055
X1.5071 Y2.555 Z-0.1728 I0.0071 J-0.0055
X1.4929 Y2.566 Z-0.1738 I-0.0071 J0.0055
X1.5071 Y2.555 Z-0.1748 I0.0071 J-0.0055
X1.4929 Y2.566 Z-0.1758 I-0.0071 J0.0055
X1.5071 Y2.555 Z-0.1768 I0.0071 J-0.0055
X1.4929 Y2.566 Z-0.1778 I-0.0071 J0.0055
X1.5071 Y2.555 Z-0.1788 I0.0071 J-0.0055
X1.4929 Y2.566 Z-0.1797 I-0.0071 J0.0055
X1.4911 Y2.5591 Z-0.18 I0.0071 J-0.0055
X1.5089 Y2.5619 I0.0089 J0.0014 F40.
X1.4911 Y2.5591 I-0.0089 J-0.0014
X1.5089 Y2.5619 Z-0.181 I0.0089 J0.0014 F20.
X1.4911 Y2.5591 Z-0.182 I-0.0089 J-0.0014
X1.5089 Y2.5619 Z-0.183 I0.0089 J0.0014
X1.4911 Y2.5591 Z-0.1839 I-0.0089 J-0.0014
X1.5089 Y2.5619 Z-0.1849 I0.0089 J0.0014
X1.4911 Y2.5591 Z-0.1859 I-0.0089 J-0.0014
X1.5089 Y2.5619 Z-0.1869 I0.0089 J0.0014
X1.4911 Y2.5591 Z-0.1879 I-0.0089 J-0.0014
X1.5089 Y2.5619 Z-0.1889 I0.0089 J0.0014
X1.4911 Y2.5591 Z-0.1899 I-0.0089 J-0.0014
X1.5089 Y2.5619 Z-0.1909 I0.0089 J0.0014
X1.4911 Y2.5591 Z-0.1918 I-0.0089 J-0.0014
X1.5089 Y2.5619 Z-0.1928 I0.0089 J0.0014
X1.4911 Y2.5591 Z-0.1938 I-0.0089 J-0.0014
X1.5089 Y2.5619 Z-0.1948 I0.0089 J0.0014
X1.4911 Y2.5591 Z-0.1958 I-0.0089 J-0.0014
X1.5089 Y2.5619 Z-0.1968 I0.0089 J0.0014
X1.4911 Y2.5591 Z-0.1978 I-0.0089 J-0.0014
X1.5089 Y2.5619 Z-0.1988 I0.0089 J0.0014
X1.4911 Y2.5591 Z-0.1997 I-0.0089 J-0.0014
X1.4948 Y2.5532 Z-0.2 I0.0089 J0.0014
X1.5052 Y2.5678 I0.0052 J0.0073 F40.
X1.4948 Y2.5532 I-0.0052 J-0.0073
X1.5052 Y2.5678 Z-0.201 I0.0052 J0.0073 F20.
X1.4948 Y2.5532 Z-0.202 I-0.0052 J-0.0073
X1.5052 Y2.5678 Z-0.203 I0.0052 J0.0073
X1.4948 Y2.5532 Z-0.2039 I-0.0052 J-0.0073
X1.5052 Y2.5678 Z-0.2049 I0.0052 J0.0073
X1.4948 Y2.5532 Z-0.2059 I-0.0052 J-0.0073
X1.5052 Y2.5678 Z-0.2069 I0.0052 J0.0073
X1.4948 Y2.5532 Z-0.2079 I-0.0052 J-0.0073
X1.5052 Y2.5678 Z-0.2089 I0.0052 J0.0073
X1.4948 Y2.5532 Z-0.2099 I-0.0052 J-0.0073
X1.5052 Y2.5678 Z-0.2109 I0.0052 J0.0073
X1.4948 Y2.5532 Z-0.2118 I-0.0052 J-0.0073
X1.5052 Y2.5678 Z-0.2128 I0.0052 J0.0073
X1.4948 Y2.5532 Z-0.2138 I-0.0052 J-0.0073
X1.5052 Y2.5678 Z-0.2148 I0.0052 J0.0073
X1.4948 Y2.5532 Z-0.2158 I-0.0052 J-0.0073
X1.5052 Y2.5678 Z-0.2168 I0.0052 J0.0073
X1.4948 Y2.5532 Z-0.2178 I-0.0052 J-0.0073
X1.5052 Y2.5678 Z-0.2188 I0.0052 J0.0073
X1.4948 Y2.5532 Z-0.2197 I-0.0052 J-0.0073
X1.5017 Y2.5517 Z-0.22 I0.0052 J0.0073
X1.4983 Y2.5693 I-0.0017 J0.0088 F40.
X1.5017 Y2.5517 I0.0017 J-0.0088
X1.4983 Y2.5693 Z-0.221 I-0.0017 J0.0088 F20.
X1.5017 Y2.5517 Z-0.222 I0.0017 J-0.0088
X1.4983 Y2.5693 Z-0.223 I-0.0017 J0.0088
X1.5017 Y2.5517 Z-0.2239 I0.0017 J-0.0088
X1.4983 Y2.5693 Z-0.2249 I-0.0017 J0.0088
X1.5017 Y2.5517 Z-0.2259 I0.0017 J-0.0088
X1.4983 Y2.5693 Z-0.2269 I-0.0017 J0.0088
X1.5017 Y2.5517 Z-0.2279 I0.0017 J-0.0088
X1.4983 Y2.5693 Z-0.2289 I-0.0017 J0.0088
X1.5017 Y2.5517 Z-0.2299 I0.0017 J-0.0088
X1.4983 Y2.5693 Z-0.2309 I-0.0017 J0.0088
X1.5017 Y2.5517 Z-0.2318 I0.0017 J-0.0088
X1.4983 Y2.5693 Z-0.2328 I-0.0017 J0.0088
X1.5017 Y2.5517 Z-0.2338 I0.0017 J-0.0088
X1.4983 Y2.5693 Z-0.2348 I-0.0017 J0.0088
X1.5017 Y2.5517 Z-0.2358 I0.0017 J-0.0088
X1.4983 Y2.5693 Z-0.2368 I-0.0017 J0.0088
X1.5017 Y2.5517 Z-0.2378 I0.0017 J-0.0088
X1.4983 Y2.5693 Z-0.2388 I-0.0017 J0.0088
X1.5017 Y2.5517 Z-0.2397 I0.0017 J-0.0088
X1.5075 Y2.5556 Z-0.24 I-0.0017 J0.0088
X1.4925 Y2.5654 I-0.0075 J0.0049 F40.
X1.5075 Y2.5556 I0.0075 J-0.0049
X1.4925 Y2.5654 Z-0.241 I-0.0075 J0.0049 F20.
X1.5075 Y2.5556 Z-0.242 I0.0075 J-0.0049
X1.4925 Y2.5654 Z-0.243 I-0.0075 J0.0049
X1.5075 Y2.5556 Z-0.2439 I0.0075 J-0.0049
X1.4925 Y2.5654 Z-0.2449 I-0.0075 J0.0049
X1.5075 Y2.5556 Z-0.2459 I0.0075 J-0.0049
X1.4925 Y2.5654 Z-0.2469 I-0.0075 J0.0049
X1.5075 Y2.5556 Z-0.2479 I0.0075 J-0.0049
X1.4925 Y2.5654 Z-0.2489 I-0.0075 J0.0049
X1.5075 Y2.5556 Z-0.2499 I0.0075 J-0.0049
X1.4925 Y2.5654 Z-0.2509 I-0.0075 J0.0049
X1.5075 Y2.5556 Z-0.2518 I0.0075 J-0.0049
X1.4925 Y2.5654 Z-0.2528 I-0.0075 J0.0049
X1.5075 Y2.5556 Z-0.2538 I0.0075 J-0.0049
X1.4925 Y2.5654 Z-0.2548 I-0.0075 J0.0049
X1.5075 Y2.5556 Z-0.2558 I0.0075 J-0.0049
X1.4925 Y2.5654 Z-0.2568 I-0.0075 J0.0049
X1.5075 Y2.5556 Z-0.2578 I0.0075 J-0.0049
X1.4925 Y2.5654 Z-0.2588 I-0.0075 J0.0049
X1.5075 Y2.5556 Z-0.2597 I0.0075 J-0.0049
X1.5088 Y2.5625 Z-0.26 I-0.0075 J0.0049
X1.4912 Y2.5585 I-0.0088 J-0.002 F40.
X1.5088 Y2.5625 I0.0088 J0.002
X1.4912 Y2.5585 Z-0.261 I-0.0088 J-0.002 F20.
X1.5088 Y2.5625 Z-0.262 I0.0088 J0.002
X1.4912 Y2.5585 Z-0.263 I-0.0088 J-0.002
X1.5088 Y2.5625 Z-0.2639 I0.0088 J0.002
X1.4912 Y2.5585 Z-0.2649 I-0.0088 J-0.002
X1.5088 Y2.5625 Z-0.2659 I0.0088 J0.002
X1.4912 Y2.5585 Z-0.2669 I-0.0088 J-0.002
X1.5088 Y2.5625 Z-0.2679 I0.0088 J0.002
X1.4912 Y2.5585 Z-0.2689 I-0.0088 J-0.002
X1.5088 Y2.5625 Z-0.2699 I0.0088 J0.002
X1.5073 Y2.5658 Z-0.27 I-0.0088 J-0.002
X1.4927 Y2.5552 I-0.0073 J-0.0053 F40.
X1.5073 Y2.5658 I0.0073 J0.0053
G1 X1.5057 Y2.5675 Z-0.2695
X1.5038 Y2.5687 Z-0.2691
X1.5019 Y2.5693 Z-0.2677
X1.5 Y2.5695 Z-0.2664
X1.4988 Y2.5694 Z-0.2645
X1.4976 Y2.5692 Z-0.2626
X1.4968 Y2.5689 Z-0.2582
G0 Z0.2
X0.5038 Y2.5655
G1 Z0.1118 F40.
X0.5031 Y2.5654 Z0.1075 F20.
X0.502 Y2.5651 Z0.1057
X0.501 Y2.5645 Z0.1039
X0.5001 Y2.5636 Z0.1029
X0.4994 Y2.5626 Z0.102
X0.4991 Y2.5614 Z0.1011
X0.499 Y2.5598 Z0.1007
X0.4995 Y2.5584 Z0.1004
X0.5003 Y2.5571 Z0.1
G3 X0.5077 Y2.5639 Z0.0995 I0.0037 J0.0034
X0.5003 Y2.5571 Z0.0989 I-0.0037 J-0.0034
X0.5077 Y2.5639 Z0.0984 I0.0037 J0.0034
X0.5003 Y2.5571 Z0.0978 I-0.0037 J-0.0034
X0.5077 Y2.5639 Z0.0973 I0.0037 J0.0034
X0.5003 Y2.5571 Z0.0967 I-0.0037 J-0.0034
X0.5077 Y2.5639 Z0.0962 I0.0037 J0.0034
X0.5003 Y2.5571 Z0.0956 I-0.0037 J-0.0034
X0.5077 Y2.5639 Z0.0951 I0.0037 J0.0034
X0.5003 Y2.5571 Z0.0945 I-0.0037 J-0.0034
X0.5077 Y2.5639 Z0.094 I0.0037 J0.0034
X0.5003 Y2.5571 Z0.0934 I-0.0037 J-0.0034
X0.5077 Y2.5639 Z0.0929 I0.0037 J0.0034
X0.5003 Y2.5571 Z0.0923 I-0.0037 J-0.0034
X0.5077 Y2.5639 Z0.0918 I0.0037 J0.0034
X0.5003 Y2.5571 Z0.0912 I-0.0037 J-0.0034
X0.5077 Y2.5639 Z0.0907 I0.0037 J0.0034
X0.5003 Y2.5571 Z0.0901 I-0.0037 J-0.0034
X0.5077 Y2.5639 Z0.0896 I0.0037 J0.0034
X0.5003 Y2.5571 Z0.089 I-0.0037 J-0.0034
X0.5077 Y2.5639 Z0.0885 I0.0037 J0.0034
X0.5003 Y2.5571 Z0.0879 I-0.0037 J-0.0034
X0.5077 Y2.5639 Z0.0874 I0.0037 J0.0034
X0.5003 Y2.5571 Z0.0868 I-0.0037 J-0.0034
X0.5077 Y2.5639 Z0.0863 I0.0037 J0.0034
X0.5003 Y2.5571 Z0.0857 I-0.0037 J-0.0034
X0.5077 Y2.5639 Z0.0852 I0.0037 J0.0034
X0.5003 Y2.5571 Z0.0846 I-0.0037 J-0.0034
X0.5077 Y2.5639 Z0.0841 I0.0037 J0.0034
X0.5003 Y2.5571 Z0.0835 I-0.0037 J-0.0034
X0.5077 Y2.5639 Z0.083 I0.0037 J0.0034
X0.5003 Y2.5571 Z0.0824 I-0.0037 J-0.0034
X0.5077 Y2.5639 Z0.0819 I0.0037 J0.0034
X0.5003 Y2.5571 Z0.0813 I-0.0037 J-0.0034
X0.5077 Y2.5639 Z0.0808 I0.0037 J0.0034
X0.5003 Y2.5571 Z0.0803 I-0.0037 J-0.0034
X0.5077 Y2.5639 Z0.0797 I0.0037 J0.0034
X0.5003 Y2.5571 Z0.0792 I-0.0037 J-0.0034
X0.5077 Y2.5639 Z0.0786 I0.0037 J0.0034
X0.5003 Y2.5571 Z0.0781 I-0.0037 J-0.0034
X0.5077 Y2.5639 Z0.0775 I0.0037 J0.0034
X0.5003 Y2.5571 Z0.077 I-0.0037 J-0.0034
X0.5077 Y2.5639 Z0.0764 I0.0037 J0.0034
X0.5003 Y2.5571 Z0.0759 I-0.0037 J-0.0034
X0.5077 Y2.5639 Z0.0753 I0.0037 J0.0034
X0.5003 Y2.5571 Z0.0748 I-0.0037 J-0.0034
X0.5077 Y2.5639 Z0.0742 I0.0037 J0.0034
X0.5003 Y2.5571 Z0.0737 I-0.0037 J-0.0034
X0.5077 Y2.5639 Z0.0731 I0.0037 J0.0034
X0.5003 Y2.5571 Z0.0726 I-0.0037 J-0.0034
X0.5077 Y2.5639 Z0.072 I0.0037 J0.0034
X0.5003 Y2.5571 Z0.0715 I-0.0037 J-0.0034
X0.5077 Y2.5639 Z0.0709 I0.0037 J0.0034
X0.5003 Y2.5571 Z0.0704 I-0.0037 J-0.0034
X0.5077 Y2.5639 Z0.0698 I0.0037 J0.0034
X0.5003 Y2.5571 Z0.0693 I-0.0037 J-0.0034
X0.5077 Y2.5639 Z0.0687 I0.0037 J0.0034
X0.5003 Y2.5571 Z0.0682 I-0.0037 J-0.0034
X0.5077 Y2.5639 Z0.0676 I0.0037 J0.0034
X0.5003 Y2.5571 Z0.0671 I-0.0037 J-0.0034
X0.5077 Y2.5639 Z0.0665 I0.0037 J0.0034
X0.5003 Y2.5571 Z0.066 I-0.0037 J-0.0034
X0.5077 Y2.5639 Z0.0654 I0.0037 J0.0034
X0.5003 Y2.5571 Z0.0649 I-0.0037 J-0.0034
X0.5077 Y2.5639 Z0.0643 I0.0037 J0.0034
X0.5003 Y2.5571 Z0.0638 I-0.0037 J-0.0034
X0.5077 Y2.5639 Z0.0632 I0.0037 J0.0034
X0.5003 Y2.5571 Z0.0627 I-0.0037 J-0.0034
X0.5077 Y2.5639 Z0.0622 I0.0037 J0.0034
X0.5003 Y2.5571 Z0.0616 I-0.0037 J-0.0034
X0.5077 Y2.5639 Z0.0611 I0.0037 J0.0034
X0.5003 Y2.5571 Z0.0605 I-0.0037 J-0.0034
X0.5077 Y2.5639 Z0.06 I0.0037 J0.0034
X0.5003 Y2.5571 Z0.0594 I-0.0037 J-0.0034
X0.5077 Y2.5639 Z0.0589 I0.0037 J0.0034
X0.5003 Y2.5571 Z0.0583 I-0.0037 J-0.0034
X0.5077 Y2.5639 Z0.0578 I0.0037 J0.0034
X0.5003 Y2.5571 Z0.0572 I-0.0037 J-0.0034
X0.5077 Y2.5639 Z0.0567 I0.0037 J0.0034
X0.5003 Y2.5571 Z0.0561 I-0.0037 J-0.0034
X0.5077 Y2.5639 Z0.0556 I0.0037 J0.0034
X0.5003 Y2.5571 Z0.055 I-0.0037 J-0.0034
X0.5077 Y2.5639 Z0.0545 I0.0037 J0.0034
X0.5003 Y2.5571 Z0.0539 I-0.0037 J-0.0034
X0.5077 Y2.5639 Z0.0534 I0.0037 J0.0034
X0.5003 Y2.5571 Z0.0528 I-0.0037 J-0.0034
X0.5077 Y2.5639 Z0.0523 I0.0037 J0.0034
X0.5003 Y2.5571 Z0.0517 I-0.0037 J-0.0034
X0.5077 Y2.5639 Z0.0512 I0.0037 J0.0034
X0.5003 Y2.5571 Z0.0506 I-0.0037 J-0.0034
X0.5077 Y2.5639 Z0.0501 I0.0037 J0.0034
X0.5003 Y2.5571 Z0.0495 I-0.0037 J-0.0034
X0.5077 Y2.5639 Z0.049 I0.0037 J0.0034
X0.5003 Y2.5571 Z0.0484 I-0.0037 J-0.0034
X0.5077 Y2.5639 Z0.0479 I0.0037 J0.0034
X0.5003 Y2.5571 Z0.0473 I-0.0037 J-0.0034
X0.5077 Y2.5639 Z0.0468 I0.0037 J0.0034
X0.5003 Y2.5571 Z0.0462 I-0.0037 J-0.0034
X0.5077 Y2.5639 Z0.0457 I0.0037 J0.0034
X0.5003 Y2.5571 Z0.0451 I-0.0037 J-0.0034
X0.5077 Y2.5639 Z0.0446 I0.0037 J0.0034
X0.5003 Y2.5571 Z0.044 I-0.0037 J-0.0034
X0.5077 Y2.5639 Z0.0435 I0.0037 J0.0034
X0.5003 Y2.5571 Z0.043 I-0.0037 J-0.0034
X0.5077 Y2.5639 Z0.0424 I0.0037 J0.0034
X0.5003 Y2.5571 Z0.0419 I-0.0037 J-0.0034
X0.5077 Y2.5639 Z0.0413 I0.0037 J0.0034
X0.5003 Y2.5571 Z0.0408 I-0.0037 J-0.0034
X0.5077 Y2.5639 Z0.0402 I0.0037 J0.0034
X0.5003 Y2.5571 Z0.0397 I-0.0037 J-0.0034
X0.5077 Y2.5639 Z0.0391 I0.0037 J0.0034
X0.5003 Y2.5571 Z0.0386 I-0.0037 J-0.0034
X0.5077 Y2.5639 Z0.038 I0.0037 J0.0034
X0.5003 Y2.5571 Z0.0375 I-0.0037 J-0.0034
X0.5077 Y2.5639 Z0.0369 I0.0037 J0.0034
X0.5003 Y2.5571 Z0.0364 I-0.0037 J-0.0034
X0.5077 Y2.5639 Z0.0358 I0.0037 J0.0034
X0.5003 Y2.5571 Z0.0353 I-0.0037 J-0.0034
X0.5077 Y2.5639 Z0.0347 I0.0037 J0.0034
X0.5003 Y2.5571 Z0.0342 I-0.0037 J-0.0034
X0.5077 Y2.5639 Z0.0336 I0.0037 J0.0034
X0.5003 Y2.5571 Z0.0331 I-0.0037 J-0.0034
X0.5077 Y2.5639 Z0.0325 I0.0037 J0.0034
X0.5003 Y2.5571 Z0.032 I-0.0037 J-0.0034
X0.5077 Y2.5639 Z0.0314 I0.0037 J0.0034
X0.5003 Y2.5571 Z0.0309 I-0.0037 J-0.0034
X0.5077 Y2.5639 Z0.0303 I0.0037 J0.0034
X0.5003 Y2.5571 Z0.0298 I-0.0037 J-0.0034
X0.5077 Y2.5639 Z0.0292 I0.0037 J0.0034
X0.5003 Y2.5571 Z0.0287 I-0.0037 J-0.0034
X0.5077 Y2.5639 Z0.0281 I0.0037 J0.0034
X0.5003 Y2.5571 Z0.0276 I-0.0037 J-0.0034
X0.5077 Y2.5639 Z0.027 I0.0037 J0.0034
X0.5003 Y2.5571 Z0.0265 I-0.0037 J-0.0034
X0.5077 Y2.5639 Z0.0259 I0.0037 J0.0034
X0.5003 Y2.5571 Z0.0254 I-0.0037 J-0.0034
X0.5077 Y2.5639 Z0.0249 I0.0037 J0.0034
X0.5003 Y2.5571 Z0.0243 I-0.0037 J-0.0034
X0.5077 Y2.5639 Z0.0238 I0.0037 J0.0034
X0.5003 Y2.5571 Z0.0232 I-0.0037 J-0.0034
X0.5077 Y2.5639 Z0.0227 I0.0037 J0.0034
X0.5003 Y2.5571 Z0.0221 I-0.0037 J-0.0034
X0.5077 Y2.5639 Z0.0216 I0.0037 J0.0034
X0.5003 Y2.5571 Z0.021 I-0.0037 J-0.0034
X0.5077 Y2.5639 Z0.0205 I0.0037 J0.0034
X0.5003 Y2.5571 Z0.0199 I-0.0037 J-0.0034
X0.5077 Y2.5639 Z0.0194 I0.0037 J0.0034
X0.5003 Y2.5571 Z0.0188 I-0.0037 J-0.0034
X0.5077 Y2.5639 Z0.0183 I0.0037 J0.0034
X0.5003 Y2.5571 Z0.0177 I-0.0037 J-0.0034
X0.5077 Y2.5639 Z0.0172 I0.0037 J0.0034
X0.5003 Y2.5571 Z0.0166 I-0.0037 J-0.0034
X0.5077 Y2.5639 Z0.0161 I0.0037 J0.0034
X0.5003 Y2.5571 Z0.0155 I-0.0037 J-0.0034
X0.5077 Y2.5639 Z0.015 I0.0037 J0.0034
X0.5003 Y2.5571 Z0.0144 I-0.0037 J-0.0034
X0.5077 Y2.5639 Z0.0139 I0.0037 J0.0034
X0.5003 Y2.5571 Z0.0133 I-0.0037 J-0.0034
X0.5077 Y2.5639 Z0.0128 I0.0037 J0.0034
X0.5003 Y2.5571 Z0.0122 I-0.0037 J-0.0034
X0.5077 Y2.5639 Z0.0117 I0.0037 J0.0034
X0.5003 Y2.5571 Z0.0111 I-0.0037 J-0.0034
X0.5077 Y2.5639 Z0.0106 I0.0037 J0.0034
X0.5003 Y2.5571 Z0.01 I-0.0037 J-0.0034
X0.5077 Y2.5639 Z0.0095 I0.0037 J0.0034
X0.5003 Y2.5571 Z0.0089 I-0.0037 J-0.0034
X0.5077 Y2.5639 Z0.0084 I0.0037 J0.0034
X0.5003 Y2.5571 Z0.0078 I-0.0037 J-0.0034
X0.5077 Y2.5639 Z0.0073 I0.0037 J0.0034
X0.5003 Y2.5571 Z0.0067 I-0.0037 J-0.0034
X0.5077 Y2.5639 Z0.0062 I0.0037 J0.0034
X0.5003 Y2.5571 Z0.0057 I-0.0037 J-0.0034
X0.5077 Y2.5639 Z0.0051 I0.0037 J0.0034
X0.5003 Y2.5571 Z0.0046 I-0.0037 J-0.0034
X0.5077 Y2.5639 Z0.004 I0.0037 J0.0034
X0.5003 Y2.5571 Z0.0035 I-0.0037 J-0.0034
X0.5077 Y2.5639 Z0.0029 I0.0037 J0.0034
X0.5003 Y2.5571 Z0.0024 I-0.0037 J-0.0034
X0.5077 Y2.5639 Z0.0018 I0.0037 J0.0034
X0.5003 Y2.5571 Z0.0013 I-0.0037 J-0.0034
X0.5077 Y2.5639 Z0.0007 I0.0037 J0.0034
X0.5003 Y2.5571 Z0.0002 I-0.0037 J-0.0034
X0.5077 Y2.5639 Z-0.0004 I0.0037 J0.0034
X0.5003 Y2.5571 Z-0.0009 I-0.0037 J-0.0034
X0.5077 Y2.5639 Z-0.0015 I0.0037 J0.0034
X0.5003 Y2.5571 Z-0.002 I-0.0037 J-0.0034
X0.5077 Y2.5639 Z-0.0026 I0.0037 J0.0034
X0.5003 Y2.5571 Z-0.0031 I-0.0037 J-0.0034
X0.5077 Y2.5639 Z-0.0037 I0.0037 J0.0034
X0.5003 Y2.5571 Z-0.0042 I-0.0037 J-0.0034
X0.5077 Y2.5639 Z-0.0048 I0.0037 J0.0034
X0.5003 Y2.5571 Z-0.0053 I-0.0037 J-0.0034
X0.5077 Y2.5639 Z-0.0059 I0.0037 J0.0034
X0.5003 Y2.5571 Z-0.0064 I-0.0037 J-0.0034
X0.5077 Y2.5639 Z-0.007 I0.0037 J0.0034
X0.5003 Y2.5571 Z-0.0075 I-0.0037 J-0.0034
X0.5077 Y2.5639 Z-0.0081 I0.0037 J0.0034
X0.5003 Y2.5571 Z-0.0086 I-0.0037 J-0.0034
X0.5077 Y2.5639 Z-0.0092 I0.0037 J0.0034
X0.5003 Y2.5571 Z-0.0097 I-0.0037 J-0.0034
X0.5077 Y2.5639 Z-0.0103 I0.0037 J0.0034
X0.5003 Y2.5571 Z-0.0108 I-0.0037 J-0.0034
X0.5077 Y2.5639 Z-0.0114 I0.0037 J0.0034
X0.5003 Y2.5571 Z-0.0119 I-0.0037 J-0.0034
X0.5077 Y2.5639 Z-0.0124 I0.0037 J0.0034
X0.5003 Y2.5571 Z-0.013 I-0.0037 J-0.0034
X0.5077 Y2.5639 Z-0.0135 I0.0037 J0.0034
X0.5003 Y2.5571 Z-0.0141 I-0.0037 J-0.0034
X0.5077 Y2.5639 Z-0.0146 I0.0037 J0.0034
X0.5003 Y2.5571 Z-0.0152 I-0.0037 J-0.0034
X0.5077 Y2.5639 Z-0.0157 I0.0037 J0.0034
X0.5003 Y2.5571 Z-0.0163 I-0.0037 J-0.0034
X0.5077 Y2.5639 Z-0.0168 I0.0037 J0.0034
X0.5003 Y2.5571 Z-0.0174 I-0.0037 J-0.0034
X0.5077 Y2.5639 Z-0.0179 I0.0037 J0.0034
X0.5003 Y2.5571 Z-0.0185 I-0.0037 J-0.0034
X0.5077 Y2.5639 Z-0.019 I0.0037 J0.0034
X0.5003 Y2.5571 Z-0.0196 I-0.0037 J-0.0034
X0.509 Y2.5605 Z-0.02 I0.0037 J0.0034
X0.491 I-0.009 J0. F40.
X0.509 I0.009 J0.
X0.491 Z-0.021 I-0.009 J0. F20.
X0.509 Z-0.022 I0.009 J0.
X0.491 Z-0.023 I-0.009 J0.
X0.509 Z-0.0239 I0.009 J0.
X0.491 Z-0.0249 I-0.009 J0.
X0.509 Z-0.0259 I0.009 J0.
X0.491 Z-0.0269 I-0.009 J0.
X0.509 Z-0.0279 I0.009 J0.
X0.491 Z-0.0289 I-0.009 J0.
X0.509 Z-0.0299 I0.009 J0.
X0.491 Z-0.0309 I-0.009 J0.
X0.509 Z-0.0318 I0.009 J0.
X0.491 Z-0.0328 I-0.009 J0.
X0.509 Z-0.0338 I0.009 J0.
X0.491 Z-0.0348 I-0.009 J0.
X0.509 Z-0.0358 I0.009 J0.
X0.491 Z-0.0368 I-0.009 J0.
X0.509 Z-0.0378 I0.009 J0.
X0.491 Z-0.0388 I-0.009 J0.
X0.509 Z-0.0397 I0.009 J0.
X0.5062 Y2.567 Z-0.04 I-0.009 J0.
X0.4938 Y2.554 I-0.0062 J-0.0065 F40.
X0.5062 Y2.567 I0.0062 J0.0065
X0.4938 Y2.554 Z-0.041 I-0.0062 J-0.0065 F20.
X0.5062 Y2.567 Z-0.042 I0.0062 J0.0065
X0.4938 Y2.554 Z-0.043 I-0.0062 J-0.0065
X0.5062 Y2.567 Z-0.0439 I0.0062 J0.0065
X0.4938 Y2.554 Z-0.0449 I-0.0062 J-0.0065
X0.5062 Y2.567 Z-0.0459 I0.0062 J0.0065
X0.4938 Y2.554 Z-0.0469 I-0.0062 J-0.0065
X0.5062 Y2.567 Z-0.0479 I0.0062 J0.0065
X0.4938 Y2.554 Z-0.0489 I-0.0062 J-0.0065
X0.5062 Y2.567 Z-0.0499 I0.0062 J0.0065
X0.4938 Y2.554 Z-0.0509 I-0.0062 J-0.0065
X0.5062 Y2.567 Z-0.0518 I0.0062 J0.0065
X0.4938 Y2.554 Z-0.0528 I-0.0062 J-0.0065
X0.5062 Y2.567 Z-0.0538 I0.0062 J0.0065
X0.4938 Y2.554 Z-0.0548 I-0.0062 J-0.0065
X0.5062 Y2.567 Z-0.0558 I0.0062 J0.0065
X0.4938 Y2.554 Z-0.0568 I-0.0062 J-0.0065
X0.5062 Y2.567 Z-0.0578 I0.0062 J0.0065
X0.4938 Y2.554 Z-0.0588 I-0.0062 J-0.0065
X0.5062 Y2.567 Z-0.0597 I0.0062 J0.0065
X0.4997 Y2.5695 Z-0.06 I-0.0062 J-0.0065
X0.5003 Y2.5515 I0.0003 J-0.009 F40.
X0.4997 Y2.5695 I-0.0003 J0.009
X0.5003 Y2.5515 Z-0.061 I0.0003 J-0.009 F20.
X0.4997 Y2.5695 Z-0.062 I-0.0003 J0.009
X0.5003 Y2.5515 Z-0.063 I0.0003 J-0.009
X0.4997 Y2.5695 Z-0.0639 I-0.0003 J0.009
X0.5003 Y2.5515 Z-0.0649 I0.0003 J-0.009
X0.4997 Y2.5695 Z-0.0659 I-0.0003 J0.009
X0.5003 Y2.5515 Z-0.0669 I0.0003 J-0.009
X0.4997 Y2.5695 Z-0.0679 I-0.0003 J0.009
X0.5003 Y2.5515 Z-0.0689 I0.0003 J-0.009
X0.4997 Y2.5695 Z-0.0699 I-0.0003 J0.009
X0.5003 Y2.5515 Z-0.0709 I0.0003 J-0.009
X0.4997 Y2.5695 Z-0.0718 I-0.0003 J0.009
X0.5003 Y2.5515 Z-0.0728 I0.0003 J-0.009
X0.4997 Y2.5695 Z-0.0738 I-0.0003 J0.009
X0.5003 Y2.5515 Z-0.0748 I0.0003 J-0.009
X0.4997 Y2.5695 Z-0.0758 I-0.0003 J0.009
X0.5003 Y2.5515 Z-0.0768 I0.0003 J-0.009
X0.4997 Y2.5695 Z-0.0778 I-0.0003 J0.009
X0.5003 Y2.5515 Z-0.0788 I0.0003 J-0.009
X0.4997 Y2.5695 Z-0.0797 I-0.0003 J0.009
X0.4933 Y2.5665 Z-0.08 I0.0003 J-0.009
X0.5067 Y2.5545 I0.0067 J-0.006 F40.
X0.4933 Y2.5665 I-0.0067 J0.006
X0.5067 Y2.5545 Z-0.081 I0.0067 J-0.006 F20.
X0.4933 Y2.5665 Z-0.082 I-0.0067 J0.006
X0.5067 Y2.5545 Z-0.083 I0.0067 J-0.006
X0.4933 Y2.5665 Z-0.0839 I-0.0067 J0.006
X0.5067 Y2.5545 Z-0.0849 I0.0067 J-0.006
X0.4933 Y2.5665 Z-0.0859 I-0.0067 J0.006
X0.5067 Y2.5545 Z-0.0869 I0.0067 J-0.006
X0.4933 Y2.5665 Z-0.0879 I-0.0067 J0.006
X0.5067 Y2.5545 Z-0.0889 I0.0067 J-0.006
X0.4933 Y2.5665 Z-0.0899 I-0.0067 J0.006
X0.5067 Y2.5545 Z-0.0909 I0.0067 J-0.006
X0.4933 Y2.5665 Z-0.0918 I-0.0067 J0.006
X0.5067 Y2.5545 Z-0.0928 I0.0067 J-0.006
X0.4933 Y2.5665 Z-0.0938 I-0.0067 J0.006
X0.5067 Y2.5545 Z-0.0948 I0.0067 J-0.006
X0.4933 Y2.5665 Z-0.0958 I-0.0067 J0.006
X0.5067 Y2.5545 Z-0.0968 I0.0067 J-0.006
X0.4933 Y2.5665 Z-0.0978 I-0.0067 J0.006
X0.5067 Y2.5545 Z-0.0988 I0.0067 J-0.006
X0.4933 Y2.5665 Z-0.0997 I-0.0067 J0.006
X0.491 Y2.5598 Z-0.1 I0.0067 J-0.006
X0.509 Y2.5612 I0.009 J0.0007 F40.
X0.491 Y2.5598 I-0.009 J-0.0007
X0.509 Y2.5612 Z-0.101 I0.009 J0.0007 F20.
X0.491 Y2.5598 Z-0.102 I-0.009 J-0.0007
X0.509 Y2.5612 Z-0.103 I0.009 J0.0007
X0.491 Y2.5598 Z-0.1039 I-0.009 J-0.0007
X0.509 Y2.5612 Z-0.1049 I0.009 J0.0007
X0.491 Y2.5598 Z-0.1059 I-0.009 J-0.0007
X0.509 Y2.5612 Z-0.1069 I0.009 J0.0007
X0.491 Y2.5598 Z-0.1079 I-0.009 J-0.0007
X0.509 Y2.5612 Z-0.1089 I0.009 J0.0007
X0.491 Y2.5598 Z-0.1099 I-0.009 J-0.0007
X0.509 Y2.5612 Z-0.1109 I0.009 J0.0007
X0.491 Y2.5598 Z-0.1118 I-0.009 J-0.0007
X0.509 Y2.5612 Z-0.1128 I0.009 J0.0007
X0.491 Y2.5598 Z-0.1138 I-0.009 J-0.0007
X0.509 Y2.5612 Z-0.1148 I0.009 J0.0007
X0.491 Y2.5598 Z-0.1158 I-0.009 J-0.0007
X0.509 Y2.5612 Z-0.1168 I0.009 J0.0007
X0.491 Y2.5598 Z-0.1178 I-0.009 J-0.0007
X0.509 Y2.5612 Z-0.1188 I0.009 J0.0007
X0.491 Y2.5598 Z-0.1197 I-0.009 J-0.0007
X0.4943 Y2.5536 Z-0.12 I0.009 J0.0007
X0.5057 Y2.5674 I0.0057 J0.0069 F40.
X0.4943 Y2.5536 I-0.0057 J-0.0069
X0.5057 Y2.5674 Z-0.121 I0.0057 J0.0069 F20.
X0.4943 Y2.5536 Z-0.122 I-0.0057 J-0.0069
X0.5057 Y2.5674 Z-0.123 I0.0057 J0.0069
X0.4943 Y2.5536 Z-0.1239 I-0.0057 J-0.0069
X0.5057 Y2.5674 Z-0.1249 I0.0057 J0.0069
X0.4943 Y2.5536 Z-0.1259 I-0.0057 J-0.0069
X0.5057 Y2.5674 Z-0.1269 I0.0057 J0.0069
X0.4943 Y2.5536 Z-0.1279 I-0.0057 J-0.0069
X0.5057 Y2.5674 Z-0.1289 I0.0057 J0.0069
X0.4943 Y2.5536 Z-0.1299 I-0.0057 J-0.0069
X0.5057 Y2.5674 Z-0.1309 I0.0057 J0.0069
X0.4943 Y2.5536 Z-0.1318 I-0.0057 J-0.0069
X0.5057 Y2.5674 Z-0.1328 I0.0057 J0.0069
X0.4943 Y2.5536 Z-0.1338 I-0.0057 J-0.0069
X0.5057 Y2.5674 Z-0.1348 I0.0057 J0.0069
X0.4943 Y2.5536 Z-0.1358 I-0.0057 J-0.0069
X0.5057 Y2.5674 Z-0.1368 I0.0057 J0.0069
X0.4943 Y2.5536 Z-0.1378 I-0.0057 J-0.0069
X0.5057 Y2.5674 Z-0.1388 I0.0057 J0.0069
X0.4943 Y2.5536 Z-0.1397 I-0.0057 J-0.0069
X0.501 Y2.5516 Z-0.14 I0.0057 J0.0069
X0.499 Y2.5694 I-0.001 J0.0089 F40.
X0.501 Y2.5516 I0.001 J-0.0089
X0.499 Y2.5694 Z-0.141 I-0.001 J0.0089 F20.
X0.501 Y2.5516 Z-0.142 I0.001 J-0.0089
X0.499 Y2.5694 Z-0.143 I-0.001 J0.0089
X0.501 Y2.5516 Z-0.1439 I0.001 J-0.0089
X0.499 Y2.5694 Z-0.1449 I-0.001 J0.0089
X0.501 Y2.5516 Z-0.1459 I0.001 J-0.0089
X0.499 Y2.5694 Z-0.1469 I-0.001 J0.0089
X0.501 Y2.5516 Z-0.1479 I0.001 J-0.0089
X0.499 Y2.5694 Z-0.1489 I-0.001 J0.0089
X0.501 Y2.5516 Z-0.1499 I0.001 J-0.0089
X0.499 Y2.5694 Z-0.1509 I-0.001 J0.0089
X0.501 Y2.5516 Z-0.1518 I0.001 J-0.0089
X0.499 Y2.5694 Z-0.1528 I-0.001 J0.0089
X0.501 Y2.5516 Z-0.1538 I0.001 J-0.0089
X0.499 Y2.5694 Z-0.1548 I-0.001 J0.0089
X0.501 Y2.5516 Z-0.1558 I0.001 J-0.0089
X0.499 Y2.5694 Z-0.1568 I-0.001 J0.0089
X0.501 Y2.5516 Z-0.1578 I0.001 J-0.0089
X0.499 Y2.5694 Z-0.1588 I-0.001 J0.0089
X0.501 Y2.5516 Z-0.1597 I0.001 J-0.0089
X0.5071 Y2.555 Z-0.16 I-0.001 J0.0089
X0.4929 Y2.566 I-0.0071 J0.0055 F40.
X0.5071 Y2.555 I0.0071 J-0.0055
X0.4929 Y2.566 Z-0.161 I-0.0071 J0.0055 F20.
X0.5071 Y2.555 Z-0.162 I0.0071 J-0.0055
X0.4929 Y2.566 Z-0.163 I-0.0071 J0.0055
X0.5071 Y2.555 Z-0.1639 I0.0071 J-0.0055
X0.4929 Y2.566 Z-0.1649 I-0.0071 J0.0055
X0.5071 Y2.555 Z-0.1659 I0.0071 J-0.0055
X0.4929 Y2.566 Z-0.1669 I-0.0071 J0.0055
X0.5071 Y2.555 Z-0.1679 I0.0071 J-0.0055
X0.4929 Y2.566 Z-0.1689 I-0.0071 J0.0055
X0.5071 Y2.555 Z-0.1699 I0.0071 J-0.0055
X0.4929 Y2.566 Z-0.1709 I-0.0071 J0.0055
X0.5071 Y2.555 Z-0.1718 I0.0071 J-0.0055
X0.4929 Y2.566 Z-0.1728 I-0.0071 J0.0055
X0.5071 Y2.555 Z-0.1738 I0.0071 J-0.0055
X0.4929 Y2.566 Z-0.1748 I-0.0071 J0.0055
X0.5071 Y2.555 Z-0.1758 I0.0071 J-0.0055
X0.4929 Y2.566 Z-0.1768 I-0.0071 J0.0055
X0.5071 Y2.555 Z-0.1778 I0.0071 J-0.0055
X0.4929 Y2.566 Z-0.1788 I-0.0071 J0.0055
X0.5071 Y2.555 Z-0.1797 I0.0071 J-0.0055
X0.5089 Y2.5619 Z-0.18 I-0.0071 J0.0055
X0.4911 Y2.5591 I-0.0089 J-0.0014 F40.
X0.5089 Y2.5619 I0.0089 J0.0014
X0.4911 Y2.5591 Z-0.181 I-0.0089 J-0.0014 F20.
X0.5089 Y2.5619 Z-0.182 I0.0089 J0.0014
X0.4911 Y2.5591 Z-0.183 I-0.0089 J-0.0014
X0.5089 Y2.5619 Z-0.1839 I0.0089 J0.0014
X0.4911 Y2.5591 Z-0.1849 I-0.0089 J-0.0014
X0.5089 Y2.5619 Z-0.1859 I0.0089 J0.0014
X0.4911 Y2.5591 Z-0.1869 I-0.0089 J-0.0014
X0.5089 Y2.5619 Z-0.1879 I0.0089 J0.0014
X0.4911 Y2.5591 Z-0.1889 I-0.0089 J-0.0014
X0.5089 Y2.5619 Z-0.1899 I0.0089 J0.0014
X0.4911 Y2.5591 Z-0.1909 I-0.0089 J-0.0014
X0.5089 Y2.5619 Z-0.1918 I0.0089 J0.0014
X0.4911 Y2.5591 Z-0.1928 I-0.0089 J-0.0014
X0.5089 Y2.5619 Z-0.1938 I0.0089 J0.0014
X0.4911 Y2.5591 Z-0.1948 I-0.0089 J-0.0014
X0.5089 Y2.5619 Z-0.1958 I0.0089 J0.0014
X0.4911 Y2.5591 Z-0.1968 I-0.0089 J-0.0014
X0.5089 Y2.5619 Z-0.1978 I0.0089 J0.0014
X0.4911 Y2.5591 Z-0.1988 I-0.0089 J-0.0014
X0.5089 Y2.5619 Z-0.1997 I0.0089 J0.0014
X0.5052 Y2.5678 Z-0.2 I-0.0089 J-0.0014
X0.4948 Y2.5532 I-0.0052 J-0.0073 F40.
X0.5052 Y2.5678 I0.0052 J0.0073
X0.4948 Y2.5532 Z-0.201 I-0.0052 J-0.0073 F20.
X0.5052 Y2.5678 Z-0.202 I0.0052 J0.0073
X0.4948 Y2.5532 Z-0.203 I-0.0052 J-0.0073
X0.5052 Y2.5678 Z-0.2039 I0.0052 J0.0073
X0.4948 Y2.5532 Z-0.2049 I-0.0052 J-0.0073
X0.5052 Y2.5678 Z-0.2059 I0.0052 J0.0073
X0.4948 Y2.5532 Z-0.2069 I-0.0052 J-0.0073
X0.5052 Y2.5678 Z-0.2079 I0.0052 J0.0073
X0.4948 Y2.5532 Z-0.2089 I-0.0052 J-0.0073
X0.5052 Y2.5678 Z-0.2099 I0.0052 J0.0073
X0.4948 Y2.5532 Z-0.2109 I-0.0052 J-0.0073
X0.5052 Y2.5678 Z-0.2118 I0.0052 J0.0073
X0.4948 Y2.5532 Z-0.2128 I-0.0052 J-0.0073
X0.5052 Y2.5678 Z-0.2138 I0.0052 J0.0073
X0.4948 Y2.5532 Z-0.2148 I-0.0052 J-0.0073
X0.5052 Y2.5678 Z-0.2158 I0.0052 J0.0073
X0.4948 Y2.5532 Z-0.2168 I-0.0052 J-0.0073
X0.5052 Y2.5678 Z-0.2178 I0.0052 J0.0073
X0.4948 Y2.5532 Z-0.2188 I-0.0052 J-0.0073
X0.5052 Y2.5678 Z-0.2197 I0.0052 J0.0073
X0.4983 Y2.5693 Z-0.22 I-0.0052 J-0.0073
X0.5017 Y2.5517 I0.0017 J-0.0088 F40.
X0.4983 Y2.5693 I-0.0017 J0.0088
X0.5017 Y2.5517 Z-0.221 I0.0017 J-0.0088 F20.
X0.4983 Y2.5693 Z-0.222 I-0.0017 J0.0088
X0.5017 Y2.5517 Z-0.223 I0.0017 J-0.0088
X0.4983 Y2.5693 Z-0.2239 I-0.0017 J0.0088
X0.5017 Y2.5517 Z-0.2249 I0.0017 J-0.0088
X0.4983 Y2.5693 Z-0.2259 I-0.0017 J0.0088
X0.5017 Y2.5517 Z-0.2269 I0.0017 J-0.0088
X0.4983 Y2.5693 Z-0.2279 I-0.0017 J0.0088
X0.5017 Y2.5517 Z-0.2289 I0.0017 J-0.0088
X0.4983 Y2.5693 Z-0.2299 I-0.0017 J0.0088
X0.5017 Y2.5517 Z-0.2309 I0.0017 J-0.0088
X0.4983 Y2.5693 Z-0.2318 I-0.0017 J0.0088
X0.5017 Y2.5517 Z-0.2328 I0.0017 J-0.0088
X0.4983 Y2.5693 Z-0.2338 I-0.0017 J0.0088
X0.5017 Y2.5517 Z-0.2348 I0.0017 J-0.0088
X0.4983 Y2.5693 Z-0.2358 I-0.0017 J0.0088
X0.5017 Y2.5517 Z-0.2368 I0.0017 J-0.0088
X0.4983 Y2.5693 Z-0.2378 I-0.0017 J0.0088
X0.5017 Y2.5517 Z-0.2388 I0.0017 J-0.0088
X0.4983 Y2.5693 Z-0.2397 I-0.0017 J0.0088
X0.4925 Y2.5654 Z-0.24 I0.0017 J-0.0088
X0.5075 Y2.5556 I0.0075 J-0.0049 F40.
X0.4925 Y2.5654 I-0.0075 J0.0049
X0.5075 Y2.5556 Z-0.241 I0.0075 J-0.0049 F20.
X0.4925 Y2.5654 Z-0.242 I-0.0075 J0.0049
X0.5075 Y2.5556 Z-0.243 I0.0075 J-0.0049
X0.4925 Y2.5654 Z-0.2439 I-0.0075 J0.0049
X0.5075 Y2.5556 Z-0.2449 I0.0075 J-0.0049
X0.4925 Y2.5654 Z-0.2459 I-0.0075 J0.0049
X0.5075 Y2.5556 Z-0.2469 I0.0075 J-0.0049
X0.4925 Y2.5654 Z-0.2479 I-0.0075 J0.0049
X0.5075 Y2.5556 Z-0.2489 I0.0075 J-0.0049
X0.4925 Y2.5654 Z-0.2499 I-0.0075 J0.0049
X0.5075 Y2.5556 Z-0.2509 I0.0075 J-0.0049
X0.4925 Y2.5654 Z-0.2518 I-0.0075 J0.0049
X0.5075 Y2.5556 Z-0.2528 I0.0075 J-0.0049
X0.4925 Y2.5654 Z-0.2538 I-0.0075 J0.0049
X0.5075 Y2.5556 Z-0.2548 I0.0075 J-0.0049
X0.4925 Y2.5654 Z-0.2558 I-0.0075 J0.0049
X0.5075 Y2.5556 Z-0.2568 I0.0075 J-0.0049
X0.4925 Y2.5654 Z-0.2578 I-0.0075 J0.0049
X0.5075 Y2.5556 Z-0.2588 I0.0075 J-0.0049
X0.4925 Y2.5654 Z-0.2597 I-0.0075 J0.0049
X0.4912 Y2.5585 Z-0.26 I0.0075 J-0.0049
X0.5088 Y2.5625 I0.0088 J0.002 F40.
X0.4912 Y2.5585 I-0.0088 J-0.002
X0.5088 Y2.5625 Z-0.261 I0.0088 J0.002 F20.
X0.4912 Y2.5585 Z-0.262 I-0.0088 J-0.002
X0.5088 Y2.5625 Z-0.263 I0.0088 J0.002
X0.4912 Y2.5585 Z-0.2639 I-0.0088 J-0.002
X0.5088 Y2.5625 Z-0.2649 I0.0088 J0.002
X0.4912 Y2.5585 Z-0.2659 I-0.0088 J-0.002
X0.5088 Y2.5625 Z-0.2669 I0.0088 J0.002
X0.4912 Y2.5585 Z-0.2679 I-0.0088 J-0.002
X0.5088 Y2.5625 Z-0.2689 I0.0088 J0.002
X0.4912 Y2.5585 Z-0.2699 I-0.0088 J-0.002
X0.4927 Y2.5552 Z-0.27 I0.0088 J0.002
X0.5073 Y2.5658 I0.0073 J0.0053 F40.
X0.4927 Y2.5552 I-0.0073 J-0.0053
G1 X0.4943 Y2.5535 Z-0.2695
X0.4962 Y2.5523 Z-0.2691
X0.4981 Y2.5517 Z-0.2677
X0.5 Y2.5515 Z-0.2664
X0.5012 Y2.5516 Z-0.2645
X0.5024 Y2.5518 Z-0.2626
X0.5032 Y2.5521 Z-0.2582
G0 Z0.2
X0.495 Y2.0643
G1 Z0.1118 F40.
X0.4951 Y2.0636 Z0.1075 F20.
X0.4954 Y2.0625 Z0.1057
X0.496 Y2.0615 Z0.1039
X0.4969 Y2.0606 Z0.1029
X0.4979 Y2.0599 Z0.102
X0.4991 Y2.0596 Z0.1011
X0.5007 Y2.0595 Z0.1007
X0.5021 Y2.06 Z0.1004
X0.5034 Y2.0608 Z0.1
G3 X0.4966 Y2.0682 Z0.0995 I-0.0034 J0.0037
X0.5034 Y2.0608 Z0.0989 I0.0034 J-0.0037
X0.4966 Y2.0682 Z0.0984 I-0.0034 J0.0037
X0.5034 Y2.0608 Z0.0978 I0.0034 J-0.0037
X0.4966 Y2.0682 Z0.0973 I-0.0034 J0.0037
X0.5034 Y2.0608 Z0.0967 I0.0034 J-0.0037
X0.4966 Y2.0682 Z0.0962 I-0.0034 J0.0037
X0.5034 Y2.0608 Z0.0956 I0.0034 J-0.0037
X0.4966 Y2.0682 Z0.0951 I-0.0034 J0.0037
X0.5034 Y2.0608 Z0.0945 I0.0034 J-0.0037
X0.4966 Y2.0682 Z0.094 I-0.0034 J0.0037
X0.5034 Y2.0608 Z0.0934 I0.0034 J-0.0037
X0.4966 Y2.0682 Z0.0929 I-0.0034 J0.0037
X0.5034 Y2.0608 Z0.0923 I0.0034 J-0.0037
X0.4966 Y2.0682 Z0.0918 I-0.0034 J0.0037
X0.5034 Y2.0608 Z0.0912 I0.0034 J-0.0037
X0.4966 Y2.0682 Z0.0907 I-0.0034 J0.0037
X0.5034 Y2.0608 Z0.0901 I0.0034 J-0.0037
X0.4966 Y2.0682 Z0.0896 I-0.0034 J0.0037
X0.5034 Y2.0608 Z0.089 I0.0034 J-0.0037
X0.4966 Y2.0682 Z0.0885 I-0.0034 J0.0037
X0.5034 Y2.0608 Z0.0879 I0.0034 J-0.0037
X0.4966 Y2.0682 Z0.0874 I-0.0034 J0.0037
X0.5034 Y2.0608 Z0.0868 I0.0034 J-0.0037
X0.4966 Y2.0682 Z0.0863 I-0.0034 J0.0037
X0.5034 Y2.0608 Z0.0857 I0.0034 J-0.0037
X0.4966 Y2.0682 Z0.0852 I-0.0034 J0.0037
X0.5034 Y2.0608 Z0.0846 I0.0034 J-0.0037
X0.4966 Y2.0682 Z0.0841 I-0.0034 J0.0037
X0.5034 Y2.0608 Z0.0835 I0.0034 J-0.0037
X0.4966 Y2.0682 Z0.083 I-0.0034 J0.0037
X0.5034 Y2.0608 Z0.0824 I0.0034 J-0.0037
X0.4966 Y2.0682 Z0.0819 I-0.0034 J0.0037
X0.5034 Y2.0608 Z0.0813 I0.0034 J-0.0037
X0.4966 Y2.0682 Z0.0808 I-0.0034 J0.0037
X0.5034 Y2.0608 Z0.0803 I0.0034 J-0.0037
X0.4966 Y2.0682 Z0.0797 I-0.0034 J0.0037
X0.5034 Y2.0608 Z0.0792 I0.0034 J-0.0037
X0.4966 Y2.0682 Z0.0786 I-0.0034 J0.0037
X0.5034 Y2.0608 Z0.0781 I0.0034 J-0.0037
X0.4966 Y2.0682 Z0.0775 I-0.0034 J0.0037
X0.5034 Y2.0608 Z0.077 I0.0034 J-0.0037
X0.4966 Y2.0682 Z0.0764 I-0.0034 J0.0037
X0.5034 Y2.0608 Z0.0759 I0.0034 J-0.0037
X0.4966 Y2.0682 Z0.0753 I-0.0034 J0.0037
X0.5034 Y2.0608 Z0.0748 I0.0034 J-0.0037
X0.4966 Y2.0682 Z0.0742 I-0.0034 J0.0037
X0.5034 Y2.0608 Z0.0737 I0.0034 J-0.0037
X0.4966 Y2.0682 Z0.0731 I-0.0034 J0.0037
X0.5034 Y2.0608 Z0.0726 I0.0034 J-0.0037
X0.4966 Y2.0682 Z0.072 I-0.0034 J0.0037
X0.5034 Y2.0608 Z0.0715 I0.0034 J-0.0037
X0.4966 Y2.0682 Z0.0709 I-0.0034 J0.0037
X0.5034 Y2.0608 Z0.0704 I0.0034 J-0.0037
X0.4966 Y2.0682 Z0.0698 I-0.0034 J0.0037
X0.5034 Y2.0608 Z0.0693 I0.0034 J-0.0037
X0.4966 Y2.0682 Z0.0687 I-0.0034 J0.0037
X0.5034 Y2.0608 Z0.0682 I0.0034 J-0.0037
X0.4966 Y2.0682 Z0.0676 I-0.0034 J0.0037
X0.5034 Y2.0608 Z0.0671 I0.0034 J-0.0037
X0.4966 Y2.0682 Z0.0665 I-0.0034 J0.0037
X0.5034 Y2.0608 Z0.066 I0.0034 J-0.0037
X0.4966 Y2.0682 Z0.0654 I-0.0034 J0.0037
X0.5034 Y2.0608 Z0.0649 I0.0034 J-0.0037
X0.4966 Y2.0682 Z0.0643 I-0.0034 J0.0037
X0.5034 Y2.0608 Z0.0638 I0.0034 J-0.0037
X0.4966 Y2.0682 Z0.0632 I-0.0034 J0.0037
X0.5034 Y2.0608 Z0.0627 I0.0034 J-0.0037
X0.4966 Y2.0682 Z0.0622 I-0.0034 J0.0037
X0.5034 Y2.0608 Z0.0616 I0.0034 J-0.0037
X0.4966 Y2.0682 Z0.0611 I-0.0034 J0.0037
X0.5034 Y2.0608 Z0.0605 I0.0034 J-0.0037
X0.4966 Y2.0682 Z0.06 I-0.0034 J0.0037
X0.5034 Y2.0608 Z0.0594 I0.0034 J-0.0037
X0.4966 Y2.0682 Z0.0589 I-0.0034 J0.0037
X0.5034 Y2.0608 Z0.0583 I0.0034 J-0.0037
X0.4966 Y2.0682 Z0.0578 I-0.0034 J0.0037
X0.5034 Y2.0608 Z0.0572 I0.0034 J-0.0037
X0.4966 Y2.0682 Z0.0567 I-0.0034 J0.0037
X0.5034 Y2.0608 Z0.0561 I0.0034 J-0.0037
X0.4966 Y2.0682 Z0.0556 I-0.0034 J0.0037
X0.5034 Y2.0608 Z0.055 I0.0034 J-0.0037
X0.4966 Y2.0682 Z0.0545 I-0.0034 J0.0037
X0.5034 Y2.0608 Z0.0539 I0.0034 J-0.0037
X0.4966 Y2.0682 Z0.0534 I-0.0034 J0.0037
X0.5034 Y2.0608 Z0.0528 I0.0034 J-0.0037
X0.4966 Y2.0682 Z0.0523 I-0.0034 J0.0037
X0.5034 Y2.0608 Z0.0517 I0.0034 J-0.0037
X0.4966 Y2.0682 Z0.0512 I-0.0034 J0.0037
X0.5034 Y2.0608 Z0.0506 I0.0034 J-0.0037
X0.4966 Y2.0682 Z0.0501 I-0.0034 J0.0037
X0.5034 Y2.0608 Z0.0495 I0.0034 J-0.0037
X0.4966 Y2.0682 Z0.049 I-0.0034 J0.0037
X0.5034 Y2.0608 Z0.0484 I0.0034 J-0.0037
X0.4966 Y2.0682 Z0.0479 I-0.0034 J0.0037
X0.5034 Y2.0608 Z0.0473 I0.0034 J-0.0037
X0.4966 Y2.0682 Z0.0468 I-0.0034 J0.0037
X0.5034 Y2.0608 Z0.0462 I0.0034 J-0.0037
X0.4966 Y2.0682 Z0.0457 I-0.0034 J0.0037
X0.5034 Y2.0608 Z0.0451 I0.0034 J-0.0037
X0.4966 Y2.0682 Z0.0446 I-0.0034 J0.0037
X0.5034 Y2.0608 Z0.044 I0.0034 J-0.0037
X0.4966 Y2.0682 Z0.0435 I-0.0034 J0.0037
X0.5034 Y2.0608 Z0.043 I0.0034 J-0.0037
X0.4966 Y2.0682 Z0.0424 I-0.0034 J0.0037
X0.5034 Y2.0608 Z0.0419 I0.0034 J-0.0037
X0.4966 Y2.0682 Z0.0413 I-0.0034 J0.0037
X0.5034 Y2.0608 Z0.0408 I0.0034 J-0.0037
X0.4966 Y2.0682 Z0.0402 I-0.0034 J0.0037
X0.5034 Y2.0608 Z0.0397 I0.0034 J-0.0037
X0.4966 Y2.0682 Z0.0391 I-0.0034 J0.0037
X0.5034 Y2.0608 Z0.0386 I0.0034 J-0.0037
X0.4966 Y2.0682 Z0.038 I-0.0034 J0.0037
X0.5034 Y2.0608 Z0.0375 I0.0034 J-0.0037
X0.4966 Y2.0682 Z0.0369 I-0.0034 J0.0037
X0.5034 Y2.0608 Z0.0364 I0.0034 J-0.0037
X0.4966 Y2.0682 Z0.0358 I-0.0034 J0.0037
X0.5034 Y2.0608 Z0.0353 I0.0034 J-0.0037
X0.4966 Y2.0682 Z0.0347 I-0.0034 J0.0037
X0.5034 Y2.0608 Z0.0342 I0.0034 J-0.0037
X0.4966 Y2.0682 Z0.0336 I-0.0034 J0.0037
X0.5034 Y2.0608 Z0.0331 I0.0034 J-0.0037
X0.4966 Y2.0682 Z0.0325 I-0.0034 J0.0037
X0.5034 Y2.0608 Z0.032 I0.0034 J-0.0037
X0.4966 Y2.0682 Z0.0314 I-0.0034 J0.0037
X0.5034 Y2.0608 Z0.0309 I0.0034 J-0.0037
X0.4966 Y2.0682 Z0.0303 I-0.0034 J0.0037
X0.5034 Y2.0608 Z0.0298 I0.0034 J-0.0037
X0.4966 Y2.0682 Z0.0292 I-0.0034 J0.0037
X0.5034 Y2.0608 Z0.0287 I0.0034 J-0.0037
X0.4966 Y2.0682 Z0.0281 I-0.0034 J0.0037
X0.5034 Y2.0608 Z0.0276 I0.0034 J-0.0037
X0.4966 Y2.0682 Z0.027 I-0.0034 J0.0037
X0.5034 Y2.0608 Z0.0265 I0.0034 J-0.0037
X0.4966 Y2.0682 Z0.0259 I-0.0034 J0.0037
X0.5034 Y2.0608 Z0.0254 I0.0034 J-0.0037
X0.4966 Y2.0682 Z0.0249 I-0.0034 J0.0037
X0.5034 Y2.0608 Z0.0243 I0.0034 J-0.0037
X0.4966 Y2.0682 Z0.0238 I-0.0034 J0.0037
X0.5034 Y2.0608 Z0.0232 I0.0034 J-0.0037
X0.4966 Y2.0682 Z0.0227 I-0.0034 J0.0037
X0.5034 Y2.0608 Z0.0221 I0.0034 J-0.0037
X0.4966 Y2.0682 Z0.0216 I-0.0034 J0.0037
X0.5034 Y2.0608 Z0.021 I0.0034 J-0.0037
X0.4966 Y2.0682 Z0.0205 I-0.0034 J0.0037
X0.5034 Y2.0608 Z0.0199 I0.0034 J-0.0037
X0.4966 Y2.0682 Z0.0194 I-0.0034 J0.0037
X0.5034 Y2.0608 Z0.0188 I0.0034 J-0.0037
X0.4966 Y2.0682 Z0.0183 I-0.0034 J0.0037
X0.5034 Y2.0608 Z0.0177 I0.0034 J-0.0037
X0.4966 Y2.0682 Z0.0172 I-0.0034 J0.0037
X0.5034 Y2.0608 Z0.0166 I0.0034 J-0.0037
X0.4966 Y2.0682 Z0.0161 I-0.0034 J0.0037
X0.5034 Y2.0608 Z0.0155 I0.0034 J-0.0037
X0.4966 Y2.0682 Z0.015 I-0.0034 J0.0037
X0.5034 Y2.0608 Z0.0144 I0.0034 J-0.0037
X0.4966 Y2.0682 Z0.0139 I-0.0034 J0.0037
X0.5034 Y2.0608 Z0.0133 I0.0034 J-0.0037
X0.4966 Y2.0682 Z0.0128 I-0.0034 J0.0037
X0.5034 Y2.0608 Z0.0122 I0.0034 J-0.0037
X0.4966 Y2.0682 Z0.0117 I-0.0034 J0.0037
X0.5034 Y2.0608 Z0.0111 I0.0034 J-0.0037
X0.4966 Y2.0682 Z0.0106 I-0.0034 J0.0037
X0.5034 Y2.0608 Z0.01 I0.0034 J-0.0037
X0.4966 Y2.0682 Z0.0095 I-0.0034 J0.0037
X0.5034 Y2.0608 Z0.0089 I0.0034 J-0.0037
X0.4966 Y2.0682 Z0.0084 I-0.0034 J0.0037
X0.5034 Y2.0608 Z0.0078 I0.0034 J-0.0037
X0.4966 Y2.0682 Z0.0073 I-0.0034 J0.0037
X0.5034 Y2.0608 Z0.0067 I0.0034 J-0.0037
X0.4966 Y2.0682 Z0.0062 I-0.0034 J0.0037
X0.5034 Y2.0608 Z0.0057 I0.0034 J-0.0037
X0.4966 Y2.0682 Z0.0051 I-0.0034 J0.0037
X0.5034 Y2.0608 Z0.0046 I0.0034 J-0.0037
X0.4966 Y2.0682 Z0.004 I-0.0034 J0.0037
X0.5034 Y2.0608 Z0.0035 I0.0034 J-0.0037
X0.4966 Y2.0682 Z0.0029 I-0.0034 J0.0037
X0.5034 Y2.0608 Z0.0024 I0.0034 J-0.0037
X0.4966 Y2.0682 Z0.0018 I-0.0034 J0.0037
X0.5034 Y2.0608 Z0.0013 I0.0034 J-0.0037
X0.4966 Y2.0682 Z0.0007 I-0.0034 J0.0037
X0.5034 Y2.0608 Z0.0002 I0.0034 J-0.0037
X0.4966 Y2.0682 Z-0.0004 I-0.0034 J0.0037
X0.5034 Y2.0608 Z-0.0009 I0.0034 J-0.0037
X0.4966 Y2.0682 Z-0.0015 I-0.0034 J0.0037
X0.5034 Y2.0608 Z-0.002 I0.0034 J-0.0037
X0.4966 Y2.0682 Z-0.0026 I-0.0034 J0.0037
X0.5034 Y2.0608 Z-0.0031 I0.0034 J-0.0037
X0.4966 Y2.0682 Z-0.0037 I-0.0034 J0.0037
X0.5034 Y2.0608 Z-0.0042 I0.0034 J-0.0037
X0.4966 Y2.0682 Z-0.0048 I-0.0034 J0.0037
X0.5034 Y2.0608 Z-0.0053 I0.0034 J-0.0037
X0.4966 Y2.0682 Z-0.0059 I-0.0034 J0.0037
X0.5034 Y2.0608 Z-0.0064 I0.0034 J-0.0037
X0.4966 Y2.0682 Z-0.007 I-0.0034 J0.0037
X0.5034 Y2.0608 Z-0.0075 I0.0034 J-0.0037
X0.4966 Y2.0682 Z-0.0081 I-0.0034 J0.0037
X0.5034 Y2.0608 Z-0.0086 I0.0034 J-0.0037
X0.4966 Y2.0682 Z-0.0092 I-0.0034 J0.0037
X0.5034 Y2.0608 Z-0.0097 I0.0034 J-0.0037
X0.4966 Y2.0682 Z-0.0103 I-0.0034 J0.0037
X0.5034 Y2.0608 Z-0.0108 I0.0034 J-0.0037
X0.4966 Y2.0682 Z-0.0114 I-0.0034 J0.0037
X0.5034 Y2.0608 Z-0.0119 I0.0034 J-0.0037
X0.4966 Y2.0682 Z-0.0124 I-0.0034 J0.0037
X0.5034 Y2.0608 Z-0.013 I0.0034 J-0.0037
X0.4966 Y2.0682 Z-0.0135 I-0.0034 J0.0037
X0.5034 Y2.0608 Z-0.0141 I0.0034 J-0.0037
X0.4966 Y2.0682 Z-0.0146 I-0.0034 J0.0037
X0.5034 Y2.0608 Z-0.0152 I0.0034 J-0.0037
X0.4966 Y2.0682 Z-0.0157 I-0.0034 J0.0037
X0.5034 Y2.0608 Z-0.0163 I0.0034 J-0.0037
X0.4966 Y2.0682 Z-0.0168 I-0.0034 J0.0037
X0.5034 Y2.0608 Z-0.0174 I0.0034 J-0.0037
X0.4966 Y2.0682 Z-0.0179 I-0.0034 J0.0037
X0.5034 Y2.0608 Z-0.0185 I0.0034 J-0.0037
X0.4966 Y2.0682 Z-0.019 I-0.0034 J0.0037
X0.5034 Y2.0608 Z-0.0196 I0.0034 J-0.0037
X0.5 Y2.0695 Z-0.02 I-0.0034 J0.0037
Y2.0515 I0. J-0.009 F40.
Y2.0695 I0. J0.009
Y2.0515 Z-0.021 I0. J-0.009 F20.
Y2.0695 Z-0.022 I0. J0.009
Y2.0515 Z-0.023 I0. J-0.009
Y2.0695 Z-0.0239 I0. J0.009
Y2.0515 Z-0.0249 I0. J-0.009
Y2.0695 Z-0.0259 I0. J0.009
Y2.0515 Z-0.0269 I0. J-0.009
Y2.0695 Z-0.0279 I0. J0.009
Y2.0515 Z-0.0289 I0. J-0.009
Y2.0695 Z-0.0299 I0. J0.009
Y2.0515 Z-0.0309 I0. J-0.009
Y2.0695 Z-0.0318 I0. J0.009
Y2.0515 Z-0.0328 I0. J-0.009
Y2.0695 Z-0.0338 I0. J0.009
Y2.0515 Z-0.0348 I0. J-0.009
Y2.0695 Z-0.0358 I0. J0.009
Y2.0515 Z-0.0368 I0. J-0.009
Y2.0695 Z-0.0378 I0. J0.009
Y2.0515 Z-0.0388 I0. J-0.009
Y2.0695 Z-0.0397 I0. J0.009
X0.4935 Y2.0667 Z-0.04 I0. J-0.009
X0.5065 Y2.0543 I0.0065 J-0.0062 F40.
X0.4935 Y2.0667 I-0.0065 J0.0062
X0.5065 Y2.0543 Z-0.041 I0.0065 J-0.0062 F20.
X0.4935 Y2.0667 Z-0.042 I-0.0065 J0.0062
X0.5065 Y2.0543 Z-0.043 I0.0065 J-0.0062
X0.4935 Y2.0667 Z-0.0439 I-0.0065 J0.0062
X0.5065 Y2.0543 Z-0.0449 I0.0065 J-0.0062
X0.4935 Y2.0667 Z-0.0459 I-0.0065 J0.0062
X0.5065 Y2.0543 Z-0.0469 I0.0065 J-0.0062
X0.4935 Y2.0667 Z-0.0479 I-0.0065 J0.0062
X0.5065 Y2.0543 Z-0.0489 I0.0065 J-0.0062
X0.4935 Y2.0667 Z-0.0499 I-0.0065 J0.0062
X0.5065 Y2.0543 Z-0.0509 I0.0065 J-0.0062
X0.4935 Y2.0667 Z-0.0518 I-0.0065 J0.0062
X0.5065 Y2.0543 Z-0.0528 I0.0065 J-0.0062
X0.4935 Y2.0667 Z-0.0538 I-0.0065 J0.0062
X0.5065 Y2.0543 Z-0.0548 I0.0065 J-0.0062
X0.4935 Y2.0667 Z-0.0558 I-0.0065 J0.0062
X0.5065 Y2.0543 Z-0.0568 I0.0065 J-0.0062
X0.4935 Y2.0667 Z-0.0578 I-0.0065 J0.0062
X0.5065 Y2.0543 Z-0.0588 I0.0065 J-0.0062
X0.4935 Y2.0667 Z-0.0597 I-0.0065 J0.0062
X0.491 Y2.0602 Z-0.06 I0.0065 J-0.0062
X0.509 Y2.0608 I0.009 J0.0003 F40.
X0.491 Y2.0602 I-0.009 J-0.0003
X0.509 Y2.0608 Z-0.061 I0.009 J0.0003 F20.
X0.491 Y2.0602 Z-0.062 I-0.009 J-0.0003
X0.509 Y2.0608 Z-0.063 I0.009 J0.0003
X0.491 Y2.0602 Z-0.0639 I-0.009 J-0.0003
X0.509 Y2.0608 Z-0.0649 I0.009 J0.0003
X0.491 Y2.0602 Z-0.0659 I-0.009 J-0.0003
X0.509 Y2.0608 Z-0.0669 I0.009 J0.0003
X0.491 Y2.0602 Z-0.0679 I-0.009 J-0.0003
X0.509 Y2.0608 Z-0.0689 I0.009 J0.0003
X0.491 Y2.0602 Z-0.0699 I-0.009 J-0.0003
X0.509 Y2.0608 Z-0.0709 I0.009 J0.0003
X0.491 Y2.0602 Z-0.0718 I-0.009 J-0.0003
X0.509 Y2.0608 Z-0.0728 I0.009 J0.0003
X0.491 Y2.0602 Z-0.0738 I-0.009 J-0.0003
X0.509 Y2.0608 Z-0.0748 I0.009 J0.0003
X0.491 Y2.0602 Z-0.0758 I-0.009 J-0.0003
X0.509 Y2.0608 Z-0.0768 I0.009 J0.0003
X0.491 Y2.0602 Z-0.0778 I-0.009 J-0.0003
X0.509 Y2.0608 Z-0.0788 I0.009 J0.0003
X0.491 Y2.0602 Z-0.0797 I-0.009 J-0.0003
X0.494 Y2.0538 Z-0.08 I0.009 J0.0003
X0.506 Y2.0672 I0.006 J0.0067 F40.
X0.494 Y2.0538 I-0.006 J-0.0067
X0.506 Y2.0672 Z-0.081 I0.006 J0.0067 F20.
X0.494 Y2.0538 Z-0.082 I-0.006 J-0.0067
X0.506 Y2.0672 Z-0.083 I0.006 J0.0067
X0.494 Y2.0538 Z-0.0839 I-0.006 J-0.0067
X0.506 Y2.0672 Z-0.0849 I0.006 J0.0067
X0.494 Y2.0538 Z-0.0859 I-0.006 J-0.0067
X0.506 Y2.0672 Z-0.0869 I0.006 J0.0067
X0.494 Y2.0538 Z-0.0879 I-0.006 J-0.0067
X0.506 Y2.0672 Z-0.0889 I0.006 J0.0067
X0.494 Y2.0538 Z-0.0899 I-0.006 J-0.0067
X0.506 Y2.0672 Z-0.0909 I0.006 J0.0067
X0.494 Y2.0538 Z-0.0918 I-0.006 J-0.0067
X0.506 Y2.0672 Z-0.0928 I0.006 J0.0067
X0.494 Y2.0538 Z-0.0938 I-0.006 J-0.0067
X0.506 Y2.0672 Z-0.0948 I0.006 J0.0067
X0.494 Y2.0538 Z-0.0958 I-0.006 J-0.0067
X0.506 Y2.0672 Z-0.0968 I0.006 J0.0067
X0.494 Y2.0538 Z-0.0978 I-0.006 J-0.0067
X0.506 Y2.0672 Z-0.0988 I0.006 J0.0067
X0.494 Y2.0538 Z-0.0997 I-0.006 J-0.0067
X0.5007 Y2.0515 Z-0.1 I0.006 J0.0067
X0.4993 Y2.0695 I-0.0007 J0.009 F40.
X0.5007 Y2.0515 I0.0007 J-0.009
X0.4993 Y2.0695 Z-0.101 I-0.0007 J0.009 F20.
X0.5007 Y2.0515 Z-0.102 I0.0007 J-0.009
X0.4993 Y2.0695 Z-0.103 I-0.0007 J0.009
X0.5007 Y2.0515 Z-0.1039 I0.0007 J-0.009
X0.4993 Y2.0695 Z-0.1049 I-0.0007 J0.009
X0.5007 Y2.0515 Z-0.1059 I0.0007 J-0.009
X0.4993 Y2.0695 Z-0.1069 I-0.0007 J0.009
X0.5007 Y2.0515 Z-0.1079 I0.0007 J-0.009
X0.4993 Y2.0695 Z-0.1089 I-0.0007 J0.009
X0.5007 Y2.0515 Z-0.1099 I0.0007 J-0.009
X0.4993 Y2.0695 Z-0.1109 I-0.0007 J0.009
X0.5007 Y2.0515 Z-0.1118 I0.0007 J-0.009
X0.4993 Y2.0695 Z-0.1128 I-0.0007 J0.009
X0.5007 Y2.0515 Z-0.1138 I0.0007 J-0.009
X0.4993 Y2.0695 Z-0.1148 I-0.0007 J0.009
X0.5007 Y2.0515 Z-0.1158 I0.0007 J-0.009
X0.4993 Y2.0695 Z-0.1168 I-0.0007 J0.009
X0.5007 Y2.0515 Z-0.1178 I0.0007 J-0.009
X0.4993 Y2.0695 Z-0.1188 I-0.0007 J0.009
X0.5007 Y2.0515 Z-0.1197 I0.0007 J-0.009
X0.5069 Y2.0548 Z-0.12 I-0.0007 J0.009
X0.4931 Y2.0662 I-0.0069 J0.0057 F40.
X0.5069 Y2.0548 I0.0069 J-0.0057
X0.4931 Y2.0662 Z-0.121 I-0.0069 J0.0057 F20.
X0.5069 Y2.0548 Z-0.122 I0.0069 J-0.0057
X0.4931 Y2.0662 Z-0.123 I-0.0069 J0.0057
X0.5069 Y2.0548 Z-0.1239 I0.0069 J-0.0057
X0.4931 Y2.0662 Z-0.1249 I-0.0069 J0.0057
X0.5069 Y2.0548 Z-0.1259 I0.0069 J-0.0057
X0.4931 Y2.0662 Z-0.1269 I-0.0069 J0.0057
X0.5069 Y2.0548 Z-0.1279 I0.0069 J-0.0057
X0.4931 Y2.0662 Z-0.1289 I-0.0069 J0.0057
X0.5069 Y2.0548 Z-0.1299 I0.0069 J-0.0057
X0.4931 Y2.0662 Z-0.1309 I-0.0069 J0.0057
X0.5069 Y2.0548 Z-0.1318 I0.0069 J-0.0057
X0.4931 Y2.0662 Z-0.1328 I-0.0069 J0.0057
X0.5069 Y2.0548 Z-0.1338 I0.0069 J-0.0057
X0.4931 Y2.0662 Z-0.1348 I-0.0069 J0.0057
X0.5069 Y2.0548 Z-0.1358 I0.0069 J-0.0057
X0.4931 Y2.0662 Z-0.1368 I-0.0069 J0.0057
X0.5069 Y2.0548 Z-0.1378 I0.0069 J-0.0057
X0.4931 Y2.0662 Z-0.1388 I-0.0069 J0.0057
X0.5069 Y2.0548 Z-0.1397 I0.0069 J-0.0057
X0.5089 Y2.0615 Z-0.14 I-0.0069 J0.0057
X0.4911 Y2.0595 I-0.0089 J-0.001 F40.
X0.5089 Y2.0615 I0.0089 J0.001
X0.4911 Y2.0595 Z-0.141 I-0.0089 J-0.001 F20.
X0.5089 Y2.0615 Z-0.142 I0.0089 J0.001
X0.4911 Y2.0595 Z-0.143 I-0.0089 J-0.001
X0.5089 Y2.0615 Z-0.1439 I0.0089 J0.001
X0.4911 Y2.0595 Z-0.1449 I-0.0089 J-0.001
X0.5089 Y2.0615 Z-0.1459 I0.0089 J0.001
X0.4911 Y2.0595 Z-0.1469 I-0.0089 J-0.001
X0.5089 Y2.0615 Z-0.1479 I0.0089 J0.001
X0.4911 Y2.0595 Z-0.1489 I-0.0089 J-0.001
X0.5089 Y2.0615 Z-0.1499 I0.0089 J0.001
X0.4911 Y2.0595 Z-0.1509 I-0.0089 J-0.001
X0.5089 Y2.0615 Z-0.1518 I0.0089 J0.001
X0.4911 Y2.0595 Z-0.1528 I-0.0089 J-0.001
X0.5089 Y2.0615 Z-0.1538 I0.0089 J0.001
X0.4911 Y2.0595 Z-0.1548 I-0.0089 J-0.001
X0.5089 Y2.0615 Z-0.1558 I0.0089 J0.001
X0.4911 Y2.0595 Z-0.1568 I-0.0089 J-0.001
X0.5089 Y2.0615 Z-0.1578 I0.0089 J0.001
X0.4911 Y2.0595 Z-0.1588 I-0.0089 J-0.001
X0.5089 Y2.0615 Z-0.1597 I0.0089 J0.001
X0.5055 Y2.0676 Z-0.16 I-0.0089 J-0.001
X0.4945 Y2.0534 I-0.0055 J-0.0071 F40.
X0.5055 Y2.0676 I0.0055 J0.0071
X0.4945 Y2.0534 Z-0.161 I-0.0055 J-0.0071 F20.
X0.5055 Y2.0676 Z-0.162 I0.0055 J0.0071
X0.4945 Y2.0534 Z-0.163 I-0.0055 J-0.0071
X0.5055 Y2.0676 Z-0.1639 I0.0055 J0.0071
X0.4945 Y2.0534 Z-0.1649 I-0.0055 J-0.0071
X0.5055 Y2.0676 Z-0.1659 I0.0055 J0.0071
X0.4945 Y2.0534 Z-0.1669 I-0.0055 J-0.0071
X0.5055 Y2.0676 Z-0.1679 I0.0055 J0.0071
X0.4945 Y2.0534 Z-0.1689 I-0.0055 J-0.0071
X0.5055 Y2.0676 Z-0.1699 I0.0055 J0.0071
X0.4945 Y2.0534 Z-0.1709 I-0.0055 J-0.0071
X0.5055 Y2.0676 Z-0.1718 I0.0055 J0.0071
X0.4945 Y2.0534 Z-0.1728 I-0.0055 J-0.0071
X0.5055 Y2.0676 Z-0.1738 I0.0055 J0.0071
X0.4945 Y2.0534 Z-0.1748 I-0.0055 J-0.0071
X0.5055 Y2.0676 Z-0.1758 I0.0055 J0.0071
X0.4945 Y2.0534 Z-0.1768 I-0.0055 J-0.0071
X0.5055 Y2.0676 Z-0.1778 I0.0055 J0.0071
X0.4945 Y2.0534 Z-0.1788 I-0.0055 J-0.0071
X0.5055 Y2.0676 Z-0.1797 I0.0055 J0.0071
X0.4986 Y2.0694 Z-0.18 I-0.0055 J-0.0071
X0.5014 Y2.0516 I0.0014 J-0.0089 F40.
X0.4986 Y2.0694 I-0.0014 J0.0089
X0.5014 Y2.0516 Z-0.181 I0.0014 J-0.0089 F20.
X0.4986 Y2.0694 Z-0.182 I-0.0014 J0.0089
X0.5014 Y2.0516 Z-0.183 I0.0014 J-0.0089
X0.4986 Y2.0694 Z-0.1839 I-0.0014 J0.0089
X0.5014 Y2.0516 Z-0.1849 I0.0014 J-0.0089
X0.4986 Y2.0694 Z-0.1859 I-0.0014 J0.0089
X0.5014 Y2.0516 Z-0.1869 I0.0014 J-0.0089
X0.4986 Y2.0694 Z-0.1879 I-0.0014 J0.0089
X0.5014 Y2.0516 Z-0.1889 I0.0014 J-0.0089
X0.4986 Y2.0694 Z-0.1899 I-0.0014 J0.0089
X0.5014 Y2.0516 Z-0.1909 I0.0014 J-0.0089
X0.4986 Y2.0694 Z-0.1918 I-0.0014 J0.0089
X0.5014 Y2.0516 Z-0.1928 I0.0014 J-0.0089
X0.4986 Y2.0694 Z-0.1938 I-0.0014 J0.0089
X0.5014 Y2.0516 Z-0.1948 I0.0014 J-0.0089
X0.4986 Y2.0694 Z-0.1958 I-0.0014 J0.0089
X0.5014 Y2.0516 Z-0.1968 I0.0014 J-0.0089
X0.4986 Y2.0694 Z-0.1978 I-0.0014 J0.0089
X0.5014 Y2.0516 Z-0.1988 I0.0014 J-0.0089
X0.4986 Y2.0694 Z-0.1997 I-0.0014 J0.0089
X0.4927 Y2.0657 Z-0.2 I0.0014 J-0.0089
X0.5073 Y2.0553 I0.0073 J-0.0052 F40.
X0.4927 Y2.0657 I-0.0073 J0.0052
X0.5073 Y2.0553 Z-0.201 I0.0073 J-0.0052 F20.
X0.4927 Y2.0657 Z-0.202 I-0.0073 J0.0052
X0.5073 Y2.0553 Z-0.203 I0.0073 J-0.0052
X0.4927 Y2.0657 Z-0.2039 I-0.0073 J0.0052
X0.5073 Y2.0553 Z-0.2049 I0.0073 J-0.0052
X0.4927 Y2.0657 Z-0.2059 I-0.0073 J0.0052
X0.5073 Y2.0553 Z-0.2069 I0.0073 J-0.0052
X0.4927 Y2.0657 Z-0.2079 I-0.0073 J0.0052
X0.5073 Y2.0553 Z-0.2089 I0.0073 J-0.0052
X0.4927 Y2.0657 Z-0.2099 I-0.0073 J0.0052
X0.5073 Y2.0553 Z-0.2109 I0.0073 J-0.0052
X0.4927 Y2.0657 Z-0.2118 I-0.0073 J0.0052
X0.5073 Y2.0553 Z-0.2128 I0.0073 J-0.0052
X0.4927 Y2.0657 Z-0.2138 I-0.0073 J0.0052
X0.5073 Y2.0553 Z-0.2148 I0.0073 J-0.0052
X0.4927 Y2.0657 Z-0.2158 I-0.0073 J0.0052
X0.5073 Y2.0553 Z-0.2168 I0.0073 J-0.0052
X0.4927 Y2.0657 Z-0.2178 I-0.0073 J0.0052
X0.5073 Y2.0553 Z-0.2188 I0.0073 J-0.0052
X0.4927 Y2.0657 Z-0.2197 I-0.0073 J0.0052
X0.4912 Y2.0588 Z-0.22 I0.0073 J-0.0052
X0.5088 Y2.0622 I0.0088 J0.0017 F40.
X0.4912 Y2.0588 I-0.0088 J-0.0017
X0.5088 Y2.0622 Z-0.221 I0.0088 J0.0017 F20.
X0.4912 Y2.0588 Z-0.222 I-0.0088 J-0.0017
X0.5088 Y2.0622 Z-0.223 I0.0088 J0.0017
X0.4912 Y2.0588 Z-0.2239 I-0.0088 J-0.0017
X0.5088 Y2.0622 Z-0.2249 I0.0088 J0.0017
X0.4912 Y2.0588 Z-0.2259 I-0.0088 J-0.0017
X0.5088 Y2.0622 Z-0.2269 I0.0088 J0.0017
X0.4912 Y2.0588 Z-0.2279 I-0.0088 J-0.0017
X0.5088 Y2.0622 Z-0.2289 I0.0088 J0.0017
X0.4912 Y2.0588 Z-0.2299 I-0.0088 J-0.0017
X0.5088 Y2.0622 Z-0.2309 I0.0088 J0.0017
X0.4912 Y2.0588 Z-0.2318 I-0.0088 J-0.0017
X0.5088 Y2.0622 Z-0.2328 I0.0088 J0.0017
X0.4912 Y2.0588 Z-0.2338 I-0.0088 J-0.0017
X0.5088 Y2.0622 Z-0.2348 I0.0088 J0.0017
X0.4912 Y2.0588 Z-0.2358 I-0.0088 J-0.0017
X0.5088 Y2.0622 Z-0.2368 I0.0088 J0.0017
X0.4912 Y2.0588 Z-0.2378 I-0.0088 J-0.0017
X0.5088 Y2.0622 Z-0.2388 I0.0088 J0.0017
X0.4912 Y2.0588 Z-0.2397 I-0.0088 J-0.0017
X0.4951 Y2.053 Z-0.24 I0.0088 J0.0017
X0.5049 Y2.068 I0.0049 J0.0075 F40.
X0.4951 Y2.053 I-0.0049 J-0.0075
X0.5049 Y2.068 Z-0.241 I0.0049 J0.0075 F20.
X0.4951 Y2.053 Z-0.242 I-0.0049 J-0.0075
X0.5049 Y2.068 Z-0.243 I0.0049 J0.0075
X0.4951 Y2.053 Z-0.2439 I-0.0049 J-0.0075
X0.5049 Y2.068 Z-0.2449 I0.0049 J0.0075
X0.4951 Y2.053 Z-0.2459 I-0.0049 J-0.0075
X0.5049 Y2.068 Z-0.2469 I0.0049 J0.0075
X0.4951 Y2.053 Z-0.2479 I-0.0049 J-0.0075
X0.5049 Y2.068 Z-0.2489 I0.0049 J0.0075
X0.4951 Y2.053 Z-0.2499 I-0.0049 J-0.0075
X0.5049 Y2.068 Z-0.2509 I0.0049 J0.0075
X0.4951 Y2.053 Z-0.2518 I-0.0049 J-0.0075
X0.5049 Y2.068 Z-0.2528 I0.0049 J0.0075
X0.4951 Y2.053 Z-0.2538 I-0.0049 J-0.0075
X0.5049 Y2.068 Z-0.2548 I0.0049 J0.0075
X0.4951 Y2.053 Z-0.2558 I-0.0049 J-0.0075
X0.5049 Y2.068 Z-0.2568 I0.0049 J0.0075
X0.4951 Y2.053 Z-0.2578 I-0.0049 J-0.0075
X0.5049 Y2.068 Z-0.2588 I0.0049 J0.0075
X0.4951 Y2.053 Z-0.2597 I-0.0049 J-0.0075
X0.502 Y2.0517 Z-0.26 I0.0049 J0.0075
X0.498 Y2.0693 I-0.002 J0.0088 F40.
X0.502 Y2.0517 I0.002 J-0.0088
X0.498 Y2.0693 Z-0.261 I-0.002 J0.0088 F20.
X0.502 Y2.0517 Z-0.262 I0.002 J-0.0088
X0.498 Y2.0693 Z-0.263 I-0.002 J0.0088
X0.502 Y2.0517 Z-0.2639 I0.002 J-0.0088
X0.498 Y2.0693 Z-0.2649 I-0.002 J0.0088
X0.502 Y2.0517 Z-0.2659 I0.002 J-0.0088
X0.498 Y2.0693 Z-0.2669 I-0.002 J0.0088
X0.502 Y2.0517 Z-0.2679 I0.002 J-0.0088
X0.498 Y2.0693 Z-0.2689 I-0.002 J0.0088
X0.502 Y2.0517 Z-0.2699 I0.002 J-0.0088
X0.5053 Y2.0532 Z-0.27 I-0.002 J0.0088
X0.4947 Y2.0678 I-0.0053 J0.0073 F40.
X0.5053 Y2.0532 I0.0053 J-0.0073
G1 X0.507 Y2.0548 Z-0.2695
X0.5082 Y2.0567 Z-0.2691
X0.5088 Y2.0586 Z-0.2677
X0.509 Y2.0605 Z-0.2664
X0.5089 Y2.0617 Z-0.2645
X0.5087 Y2.0629 Z-0.2626
X0.5084 Y2.0637 Z-0.2582
G0 Z0.6

M9
M30
