(X4 CLIMBER BRACKET COUNTERBORE)
(T1  D=0.25 CR=0. - ZMIN=-0.0635 - FLAT END MILL)
G90 G94 G91.1 G40 G49 G17
G20

(2D POCKET3)
M5
T1 M6
S15000 M3
G54
M8
G0 X0.8968 Y1.7881
G43 Z0.6 H1
Z0.2
G1 Z0.0394 F60.
Z-0.0385
Y1.7878 Z-0.0424
X0.8971 Y1.7869 Z-0.0462
X0.8974 Y1.7854 Z-0.0498
X0.8979 Y1.7834 Z-0.0532
X0.8985 Y1.781 Z-0.0562
X0.8992 Y1.7781 Z-0.0587
X0.9 Y1.7748 Z-0.0608
X0.9008 Y1.7713 Z-0.0623
X0.9017 Y1.7676 Z-0.0632
X0.9026 Y1.7638 Z-0.0635
G3 X1. Y1.687 I0.0974 J0.0234
G2 Y0.313 I0. J-0.687
G1 X0.9967
G2 X0.313 Y1. I0.0033 J0.687
X1. Y1.687 I0.687 J0.
G3 X1.0147 Y1.6918 I0. J0.025
G1 X1.1103 Y1.7612
X1.1135 Y1.7635 Z-0.0632
X1.1165 Y1.7658 Z-0.0623
X1.1195 Y1.7679 Z-0.0608
X1.1222 Y1.7699 Z-0.0587
X1.1246 Y1.7716 Z-0.0562
X1.1267 Y1.7731 Z-0.0532
X1.1283 Y1.7743 Z-0.0498
X1.1295 Y1.7752 Z-0.0462
X1.1303 Y1.7757 Z-0.0424
X1.1305 Y1.7759 Z-0.0385
G0 Z0.6

M9
M30
