(X4 CLIMBER BRACKET POCKET)
(T1  D=0.25 CR=0. - ZMIN=-0.27 - FLAT END MILL)
G90 G94 G91.1 G40 G49 G17
G20

(2D POCKET2)
M5
T1 M6
S15000 M3
g4 p5
G54
M8
G0 X1.0997 Y0.8959
G43 Z0.6 H1
Z0.2
G1 Z0.125 F60.
X1.1007 Y0.8953 Z0.1174 F13.3
X1.1037 Y0.8938 Z0.1106
X1.1085 Y0.8915 Z0.1051
X1.1147 Y0.8889 Z0.1014
X1.1219 Y0.8865 Z0.1
G3 X1.1916 Y1.1135 Z0.087 I0.0349 J0.1135
X1.1219 Y0.8865 Z0.0739 I-0.0349 J-0.1135
X1.1916 Y1.1135 Z0.0609 I0.0349 J0.1135
X1.1219 Y0.8865 Z0.0479 I-0.0349 J-0.1135
X1.1916 Y1.1135 Z0.0349 I0.0349 J0.1135
X1.1219 Y0.8865 Z0.0218 I-0.0349 J-0.1135
X1.1916 Y1.1135 Z0.0088 I0.0349 J0.1135
X1.1219 Y0.8865 Z-0.0042 I-0.0349 J-0.1135
X1.1916 Y1.1135 Z-0.0172 I0.0349 J0.1135
X1.038 Y1. Z-0.025 I-0.0349 J-0.1135
X1.1995 I0.0808 J0. F60.
X0.8005 I-0.1995 J0.
X1.437 I0.3182 J0.
X0.563 I-0.437 J0.
X1.437 I0.437 J0.
X1.4235 Y1.0125 I-0.0125 J0.
G1 X1.2378 Y0.9976
X1.0531 Y0.9857
G3 X1.0418 Y0.9701 I0.0008 J-0.0125
X1.2717 Y1.0299 Z-0.038 I0.1149 J0.0299 F13.3
X1.038 Y1. Z-0.05 I-0.1149 J-0.0299
X1.1995 I0.0808 J0. F60.
X0.8005 I-0.1995 J0.
X1.437 I0.3182 J0.
X0.563 I-0.437 J0.
X1.437 I0.437 J0.
X1.4235 Y1.0125 I-0.0125 J0.
G1 X1.2378 Y0.9976
X1.0531 Y0.9857
G3 X1.0418 Y0.9701 I0.0008 J-0.0125
X1.2717 Y1.0299 Z-0.063 I0.1149 J0.0299 F13.3
X1.038 Y1. Z-0.075 I-0.1149 J-0.0299
X1.1995 I0.0808 J0. F60.
X0.8005 I-0.1995 J0.
X1.437 I0.3182 J0.
X0.563 I-0.437 J0.
X1.437 I0.437 J0.
X1.4235 Y1.0125 I-0.0125 J0.
G1 X1.2378 Y0.9976
X1.0531 Y0.9857
G3 X1.0418 Y0.9701 I0.0008 J-0.0125
X1.2717 Y1.0299 Z-0.088 I0.1149 J0.0299 F13.3
X1.038 Y1. Z-0.1 I-0.1149 J-0.0299
X1.1995 I0.0808 J0. F60.
X0.8005 I-0.1995 J0.
X1.437 I0.3182 J0.
X0.563 I-0.437 J0.
X1.437 I0.437 J0.
X1.4235 Y1.0125 I-0.0125 J0.
G1 X1.2378 Y0.9976
X1.0531 Y0.9857
G3 X1.0418 Y0.9701 I0.0008 J-0.0125
X1.2717 Y1.0299 Z-0.113 I0.1149 J0.0299 F13.3
X1.038 Y1. Z-0.125 I-0.1149 J-0.0299
X1.1995 I0.0808 J0. F60.
X0.8005 I-0.1995 J0.
X1.437 I0.3182 J0.
X0.563 I-0.437 J0.
X1.437 I0.437 J0.
X1.4235 Y1.0125 I-0.0125 J0.
G1 X1.2378 Y0.9976
X1.0531 Y0.9857
G3 X1.0418 Y0.9701 I0.0008 J-0.0125
X1.2717 Y1.0299 Z-0.138 I0.1149 J0.0299 F13.3
X1.038 Y1. Z-0.15 I-0.1149 J-0.0299
X1.1995 I0.0808 J0. F60.
X0.8005 I-0.1995 J0.
X1.437 I0.3182 J0.
X0.563 I-0.437 J0.
X1.437 I0.437 J0.
X1.4235 Y1.0125 I-0.0125 J0.
G1 X1.2378 Y0.9976
X1.0531 Y0.9857
G3 X1.0418 Y0.9701 I0.0008 J-0.0125
X1.2717 Y1.0299 Z-0.163 I0.1149 J0.0299 F13.3
X1.038 Y1. Z-0.175 I-0.1149 J-0.0299
X1.1995 I0.0808 J0. F60.
X0.8005 I-0.1995 J0.
X1.437 I0.3182 J0.
X0.563 I-0.437 J0.
X1.437 I0.437 J0.
X1.4235 Y1.0125 I-0.0125 J0.
G1 X1.2378 Y0.9976
X1.0531 Y0.9857
G3 X1.0418 Y0.9701 I0.0008 J-0.0125
X1.2717 Y1.0299 Z-0.188 I0.1149 J0.0299 F13.3
X1.038 Y1. Z-0.2 I-0.1149 J-0.0299
X1.1995 I0.0808 J0. F60.
X0.8005 I-0.1995 J0.
X1.437 I0.3182 J0.
X0.563 I-0.437 J0.
X1.437 I0.437 J0.
X1.4235 Y1.0125 I-0.0125 J0.
G1 X1.2378 Y0.9976
X1.0531 Y0.9857
G3 X1.0418 Y0.9701 I0.0008 J-0.0125
X1.2717 Y1.0299 Z-0.213 I0.1149 J0.0299 F13.3
X1.038 Y1. Z-0.225 I-0.1149 J-0.0299
X1.1995 I0.0808 J0. F60.
X0.8005 I-0.1995 J0.
X1.437 I0.3182 J0.
X0.563 I-0.437 J0.
X1.437 I0.437 J0.
X1.4235 Y1.0125 I-0.0125 J0.
G1 X1.2378 Y0.9976
X1.0531 Y0.9857
G3 X1.0418 Y0.9701 I0.0008 J-0.0125
X1.2717 Y1.0299 Z-0.238 I0.1149 J0.0299 F13.3
X1.038 Y1. Z-0.25 I-0.1149 J-0.0299
X1.1995 I0.0808 J0. F60.
X0.8005 I-0.1995 J0.
X1.437 I0.3182 J0.
X0.563 I-0.437 J0.
X1.437 I0.437 J0.
X1.4201 Y1.0117 I-0.0125 J0.
G1 X1.1406 Y0.9061
G3 X1.1436 Y0.882 I0.0044 J-0.0117
X1.1699 Y1.118 Z-0.263 I0.0131 J0.118 F13.3
X1.038 Y1. Z-0.27 I-0.0131 J-0.118
X1.1995 I0.0808 J0. F60.
X0.8005 I-0.1995 J0.
X1.437 I0.3182 J0.
X0.563 I-0.437 J0.
X1.437 I0.437 J0.
G1 X1.4367 Y1.0038 Z-0.2694
X1.4358 Y1.0076 Z-0.2688
X1.4345 Y1.0108 Z-0.267
X1.4328 Y1.0139 Z-0.2652
X1.4311 Y1.0161 Z-0.2625
X1.4293 Y1.0181 Z-0.2597
X1.4265 Y1.0204 Z-0.2527
X1.4255 Y1.021 Z-0.245
G0 Z0.6

M9
M30
