(2ND FEEDER MOTOR MOUNT HOLES)
(T1  D=6.35 CR=0. - ZMIN=-5.175 - FLAT END MILL)
G90 G94 G91.1 G40 G49 G17
G21
G0 Z15

(BORE1 2)
M5
T1 M6
S15000 M3
G54
M8
G0 X72.963 Y192.881
G43 Z15. H1
Z3.865
G1 Z2.5 F1600.
X73.064 Y192.983
X73.103 Y192.975
X73.136 Y192.953
X73.158 Y192.92
X73.166 Y192.881
G2 X72.76 Z2.441 I-0.203 J0.
X73.166 Z2.382 I0.203 J0.
X72.76 Z2.323 I-0.203 J0.
X73.166 Z2.264 I0.203 J0.
X72.76 Z2.205 I-0.203 J0.
X73.166 Z2.146 I0.203 J0.
X72.76 Z2.087 I-0.203 J0.
X73.166 Z2.028 I0.203 J0.
X72.76 Z1.969 I-0.203 J0.
X73.166 Z1.91 I0.203 J0.
X72.76 Z1.851 I-0.203 J0.
X73.166 Z1.792 I0.203 J0.
X72.76 Z1.733 I-0.203 J0.
X73.166 Z1.674 I0.203 J0.
X72.76 Z1.615 I-0.203 J0.
X73.166 Z1.557 I0.203 J0.
X72.76 Z1.498 I-0.203 J0.
X73.166 Z1.439 I0.203 J0.
X72.76 Z1.38 I-0.203 J0.
X73.166 Z1.321 I0.203 J0.
X72.76 Z1.262 I-0.203 J0.
X73.166 Z1.203 I0.203 J0.
X72.76 Z1.144 I-0.203 J0.
X73.166 Z1.085 I0.203 J0.
X72.76 Z1.026 I-0.203 J0.
X73.166 Z0.967 I0.203 J0.
X72.76 Z0.908 I-0.203 J0.
X73.166 Z0.849 I0.203 J0.
X72.76 Z0.79 I-0.203 J0.
X73.166 Z0.731 I0.203 J0.
X72.76 Z0.672 I-0.203 J0.
X73.166 Z0.613 I0.203 J0.
X72.76 Z0.554 I-0.203 J0.
X73.166 Z0.495 I0.203 J0.
X72.76 Z0.436 I-0.203 J0.
X73.166 Z0.377 I0.203 J0.
X72.76 Z0.318 I-0.203 J0.
X73.166 Z0.259 I0.203 J0.
X72.76 Z0.2 I-0.203 J0.
X73.166 Z0.141 I0.203 J0.
X72.76 Z0.082 I-0.203 J0.
X73.166 Z0.023 I0.203 J0.
X72.76 Z-0.036 I-0.203 J0.
X73.166 Z-0.095 I0.203 J0.
X72.76 Z-0.154 I-0.203 J0.
X73.166 Z-0.212 I0.203 J0.
X72.76 Z-0.271 I-0.203 J0.
X73.166 Z-0.33 I0.203 J0.
X72.76 Z-0.389 I-0.203 J0.
X73.166 Z-0.448 I0.203 J0.
X72.76 Z-0.507 I-0.203 J0.
X73.166 Z-0.566 I0.203 J0.
X72.76 Z-0.625 I-0.203 J0.
X73.166 Z-0.684 I0.203 J0.
X72.76 Z-0.743 I-0.203 J0.
X73.166 Z-0.802 I0.203 J0.
X72.76 Z-0.861 I-0.203 J0.
X73.166 Z-0.92 I0.203 J0.
X72.76 Z-0.979 I-0.203 J0.
X73.166 Z-1.038 I0.203 J0.
X72.76 Z-1.097 I-0.203 J0.
X73.166 Z-1.156 I0.203 J0.
X72.76 Z-1.215 I-0.203 J0.
X73.166 Z-1.274 I0.203 J0.
X72.76 Z-1.333 I-0.203 J0.
X73.166 Z-1.392 I0.203 J0.
X72.76 Z-1.451 I-0.203 J0.
X73.166 Z-1.51 I0.203 J0.
X72.76 Z-1.569 I-0.203 J0.
X73.166 Z-1.628 I0.203 J0.
X72.76 Z-1.687 I-0.203 J0.
X73.166 Z-1.746 I0.203 J0.
X72.76 Z-1.805 I-0.203 J0.
X73.166 Z-1.864 I0.203 J0.
X72.76 Z-1.923 I-0.203 J0.
X73.166 Z-1.981 I0.203 J0.
X72.76 Z-2.04 I-0.203 J0.
X73.166 Z-2.099 I0.203 J0.
X72.76 Z-2.158 I-0.203 J0.
X73.166 Z-2.217 I0.203 J0.
X72.76 Z-2.276 I-0.203 J0.
X73.166 Z-2.335 I0.203 J0.
X72.76 Z-2.394 I-0.203 J0.
X73.166 Z-2.453 I0.203 J0.
X72.76 Z-2.512 I-0.203 J0.
X73.166 Z-2.571 I0.203 J0.
X72.76 Z-2.63 I-0.203 J0.
X73.166 Z-2.689 I0.203 J0.
X72.76 Z-2.748 I-0.203 J0.
X73.166 Z-2.807 I0.203 J0.
X72.76 Z-2.866 I-0.203 J0.
X73.166 Z-2.925 I0.203 J0.
X72.76 Z-2.984 I-0.203 J0.
X73.166 Z-3.043 I0.203 J0.
X72.76 Z-3.102 I-0.203 J0.
X73.166 Z-3.161 I0.203 J0.
X72.76 Z-3.22 I-0.203 J0.
X73.166 Z-3.279 I0.203 J0.
X72.76 Z-3.338 I-0.203 J0.
X73.166 Z-3.397 I0.203 J0.
X72.76 Z-3.456 I-0.203 J0.
X73.166 Z-3.515 I0.203 J0.
X72.76 Z-3.574 I-0.203 J0.
X73.166 Z-3.633 I0.203 J0.
X72.76 Z-3.692 I-0.203 J0.
X73.166 Z-3.75 I0.203 J0.
X72.76 Z-3.809 I-0.203 J0.
X73.166 Z-3.868 I0.203 J0.
X72.76 Z-3.927 I-0.203 J0.
X73.166 Z-3.986 I0.203 J0.
X72.76 Z-4.045 I-0.203 J0.
X73.166 Z-4.104 I0.203 J0.
X72.76 Z-4.163 I-0.203 J0.
X73.166 Z-4.222 I0.203 J0.
X72.76 Z-4.281 I-0.203 J0.
X73.166 Z-4.34 I0.203 J0.
X72.76 Z-4.399 I-0.203 J0.
X73.166 Z-4.458 I0.203 J0.
X72.76 Z-4.517 I-0.203 J0.
X73.166 Z-4.576 I0.203 J0.
X72.76 Z-4.635 I-0.203 J0.
X73.166 Z-4.694 I0.203 J0.
X72.76 Z-4.753 I-0.203 J0.
X73.166 Z-4.812 I0.203 J0.
X72.76 Z-4.871 I-0.203 J0.
X73.166 Z-4.93 I0.203 J0.
X72.76 Z-4.989 I-0.203 J0.
X73.166 Z-5.048 I0.203 J0.
X72.76 Z-5.107 I-0.203 J0.
X73.166 Z-5.166 I0.203 J0.
X73.141 Y192.784 Z-5.175 I-0.203 J0.
X72.784 Y192.978 I-0.179 J0.097
X73.141 Y192.784 I0.179 J-0.097
G1 X73.116 Y192.754
X73.081 Y192.735
X73.042 Y192.732
X73.004 Y192.743
X72.963 Y192.881
G0 Z5.
Y180.181
Z3.865
G1 Z2.5 F1600.
X73.064 Y180.283
X73.103 Y180.275
X73.136 Y180.253
X73.158 Y180.22
X73.166 Y180.181
G2 X72.76 Z2.441 I-0.203 J0.
X73.166 Z2.382 I0.203 J0.
X72.76 Z2.323 I-0.203 J0.
X73.166 Z2.264 I0.203 J0.
X72.76 Z2.205 I-0.203 J0.
X73.166 Z2.146 I0.203 J0.
X72.76 Z2.087 I-0.203 J0.
X73.166 Z2.028 I0.203 J0.
X72.76 Z1.969 I-0.203 J0.
X73.166 Z1.91 I0.203 J0.
X72.76 Z1.851 I-0.203 J0.
X73.166 Z1.792 I0.203 J0.
X72.76 Z1.733 I-0.203 J0.
X73.166 Z1.674 I0.203 J0.
X72.76 Z1.615 I-0.203 J0.
X73.166 Z1.557 I0.203 J0.
X72.76 Z1.498 I-0.203 J0.
X73.166 Z1.439 I0.203 J0.
X72.76 Z1.38 I-0.203 J0.
X73.166 Z1.321 I0.203 J0.
X72.76 Z1.262 I-0.203 J0.
X73.166 Z1.203 I0.203 J0.
X72.76 Z1.144 I-0.203 J0.
X73.166 Z1.085 I0.203 J0.
X72.76 Z1.026 I-0.203 J0.
X73.166 Z0.967 I0.203 J0.
X72.76 Z0.908 I-0.203 J0.
X73.166 Z0.849 I0.203 J0.
X72.76 Z0.79 I-0.203 J0.
X73.166 Z0.731 I0.203 J0.
X72.76 Z0.672 I-0.203 J0.
X73.166 Z0.613 I0.203 J0.
X72.76 Z0.554 I-0.203 J0.
X73.166 Z0.495 I0.203 J0.
X72.76 Z0.436 I-0.203 J0.
X73.166 Z0.377 I0.203 J0.
X72.76 Z0.318 I-0.203 J0.
X73.166 Z0.259 I0.203 J0.
X72.76 Z0.2 I-0.203 J0.
X73.166 Z0.141 I0.203 J0.
X72.76 Z0.082 I-0.203 J0.
X73.166 Z0.023 I0.203 J0.
X72.76 Z-0.036 I-0.203 J0.
X73.166 Z-0.095 I0.203 J0.
X72.76 Z-0.154 I-0.203 J0.
X73.166 Z-0.212 I0.203 J0.
X72.76 Z-0.271 I-0.203 J0.
X73.166 Z-0.33 I0.203 J0.
X72.76 Z-0.389 I-0.203 J0.
X73.166 Z-0.448 I0.203 J0.
X72.76 Z-0.507 I-0.203 J0.
X73.166 Z-0.566 I0.203 J0.
X72.76 Z-0.625 I-0.203 J0.
X73.166 Z-0.684 I0.203 J0.
X72.76 Z-0.743 I-0.203 J0.
X73.166 Z-0.802 I0.203 J0.
X72.76 Z-0.861 I-0.203 J0.
X73.166 Z-0.92 I0.203 J0.
X72.76 Z-0.979 I-0.203 J0.
X73.166 Z-1.038 I0.203 J0.
X72.76 Z-1.097 I-0.203 J0.
X73.166 Z-1.156 I0.203 J0.
X72.76 Z-1.215 I-0.203 J0.
X73.166 Z-1.274 I0.203 J0.
X72.76 Z-1.333 I-0.203 J0.
X73.166 Z-1.392 I0.203 J0.
X72.76 Z-1.451 I-0.203 J0.
X73.166 Z-1.51 I0.203 J0.
X72.76 Z-1.569 I-0.203 J0.
X73.166 Z-1.628 I0.203 J0.
X72.76 Z-1.687 I-0.203 J0.
X73.166 Z-1.746 I0.203 J0.
X72.76 Z-1.805 I-0.203 J0.
X73.166 Z-1.864 I0.203 J0.
X72.76 Z-1.923 I-0.203 J0.
X73.166 Z-1.981 I0.203 J0.
X72.76 Z-2.04 I-0.203 J0.
X73.166 Z-2.099 I0.203 J0.
X72.76 Z-2.158 I-0.203 J0.
X73.166 Z-2.217 I0.203 J0.
X72.76 Z-2.276 I-0.203 J0.
X73.166 Z-2.335 I0.203 J0.
X72.76 Z-2.394 I-0.203 J0.
X73.166 Z-2.453 I0.203 J0.
X72.76 Z-2.512 I-0.203 J0.
X73.166 Z-2.571 I0.203 J0.
X72.76 Z-2.63 I-0.203 J0.
X73.166 Z-2.689 I0.203 J0.
X72.76 Z-2.748 I-0.203 J0.
X73.166 Z-2.807 I0.203 J0.
X72.76 Z-2.866 I-0.203 J0.
X73.166 Z-2.925 I0.203 J0.
X72.76 Z-2.984 I-0.203 J0.
X73.166 Z-3.043 I0.203 J0.
X72.76 Z-3.102 I-0.203 J0.
X73.166 Z-3.161 I0.203 J0.
X72.76 Z-3.22 I-0.203 J0.
X73.166 Z-3.279 I0.203 J0.
X72.76 Z-3.338 I-0.203 J0.
X73.166 Z-3.397 I0.203 J0.
X72.76 Z-3.456 I-0.203 J0.
X73.166 Z-3.515 I0.203 J0.
X72.76 Z-3.574 I-0.203 J0.
X73.166 Z-3.633 I0.203 J0.
X72.76 Z-3.692 I-0.203 J0.
X73.166 Z-3.75 I0.203 J0.
X72.76 Z-3.809 I-0.203 J0.
X73.166 Z-3.868 I0.203 J0.
X72.76 Z-3.927 I-0.203 J0.
X73.166 Z-3.986 I0.203 J0.
X72.76 Z-4.045 I-0.203 J0.
X73.166 Z-4.104 I0.203 J0.
X72.76 Z-4.163 I-0.203 J0.
X73.166 Z-4.222 I0.203 J0.
X72.76 Z-4.281 I-0.203 J0.
X73.166 Z-4.34 I0.203 J0.
X72.76 Z-4.399 I-0.203 J0.
X73.166 Z-4.458 I0.203 J0.
X72.76 Z-4.517 I-0.203 J0.
X73.166 Z-4.576 I0.203 J0.
X72.76 Z-4.635 I-0.203 J0.
X73.166 Z-4.694 I0.203 J0.
X72.76 Z-4.753 I-0.203 J0.
X73.166 Z-4.812 I0.203 J0.
X72.76 Z-4.871 I-0.203 J0.
X73.166 Z-4.93 I0.203 J0.
X72.76 Z-4.989 I-0.203 J0.
X73.166 Z-5.048 I0.203 J0.
X72.76 Z-5.107 I-0.203 J0.
X73.166 Z-5.166 I0.203 J0.
X73.141 Y180.084 Z-5.175 I-0.203 J0.
X72.784 Y180.278 I-0.179 J0.097
X73.141 Y180.084 I0.179 J-0.097
G1 X73.116 Y180.054
X73.081 Y180.035
X73.042 Y180.032
X73.004 Y180.044
X72.963 Y180.181
G0 Z5.
Y48.419
Z3.865
G1 Z2.5 F1600.
X73.064 Y48.52
X73.103 Y48.513
X73.136 Y48.491
X73.158 Y48.458
X73.166 Y48.419
G2 X72.76 Z2.441 I-0.203 J0.
X73.166 Z2.382 I0.203 J0.
X72.76 Z2.323 I-0.203 J0.
X73.166 Z2.264 I0.203 J0.
X72.76 Z2.205 I-0.203 J0.
X73.166 Z2.146 I0.203 J0.
X72.76 Z2.087 I-0.203 J0.
X73.166 Z2.028 I0.203 J0.
X72.76 Z1.969 I-0.203 J0.
X73.166 Z1.91 I0.203 J0.
X72.76 Z1.851 I-0.203 J0.
X73.166 Z1.792 I0.203 J0.
X72.76 Z1.733 I-0.203 J0.
X73.166 Z1.674 I0.203 J0.
X72.76 Z1.615 I-0.203 J0.
X73.166 Z1.557 I0.203 J0.
X72.76 Z1.498 I-0.203 J0.
X73.166 Z1.439 I0.203 J0.
X72.76 Z1.38 I-0.203 J0.
X73.166 Z1.321 I0.203 J0.
X72.76 Z1.262 I-0.203 J0.
X73.166 Z1.203 I0.203 J0.
X72.76 Z1.144 I-0.203 J0.
X73.166 Z1.085 I0.203 J0.
X72.76 Z1.026 I-0.203 J0.
X73.166 Z0.967 I0.203 J0.
X72.76 Z0.908 I-0.203 J0.
X73.166 Z0.849 I0.203 J0.
X72.76 Z0.79 I-0.203 J0.
X73.166 Z0.731 I0.203 J0.
X72.76 Z0.672 I-0.203 J0.
X73.166 Z0.613 I0.203 J0.
X72.76 Z0.554 I-0.203 J0.
X73.166 Z0.495 I0.203 J0.
X72.76 Z0.436 I-0.203 J0.
X73.166 Z0.377 I0.203 J0.
X72.76 Z0.318 I-0.203 J0.
X73.166 Z0.259 I0.203 J0.
X72.76 Z0.2 I-0.203 J0.
X73.166 Z0.141 I0.203 J0.
X72.76 Z0.082 I-0.203 J0.
X73.166 Z0.023 I0.203 J0.
X72.76 Z-0.036 I-0.203 J0.
X73.166 Z-0.095 I0.203 J0.
X72.76 Z-0.154 I-0.203 J0.
X73.166 Z-0.212 I0.203 J0.
X72.76 Z-0.271 I-0.203 J0.
X73.166 Z-0.33 I0.203 J0.
X72.76 Z-0.389 I-0.203 J0.
X73.166 Z-0.448 I0.203 J0.
X72.76 Z-0.507 I-0.203 J0.
X73.166 Z-0.566 I0.203 J0.
X72.76 Z-0.625 I-0.203 J0.
X73.166 Z-0.684 I0.203 J0.
X72.76 Z-0.743 I-0.203 J0.
X73.166 Z-0.802 I0.203 J0.
X72.76 Z-0.861 I-0.203 J0.
X73.166 Z-0.92 I0.203 J0.
X72.76 Z-0.979 I-0.203 J0.
X73.166 Z-1.038 I0.203 J0.
X72.76 Z-1.097 I-0.203 J0.
X73.166 Z-1.156 I0.203 J0.
X72.76 Z-1.215 I-0.203 J0.
X73.166 Z-1.274 I0.203 J0.
X72.76 Z-1.333 I-0.203 J0.
X73.166 Z-1.392 I0.203 J0.
X72.76 Z-1.451 I-0.203 J0.
X73.166 Z-1.51 I0.203 J0.
X72.76 Z-1.569 I-0.203 J0.
X73.166 Z-1.628 I0.203 J0.
X72.76 Z-1.687 I-0.203 J0.
X73.166 Z-1.746 I0.203 J0.
X72.76 Z-1.805 I-0.203 J0.
X73.166 Z-1.864 I0.203 J0.
X72.76 Z-1.923 I-0.203 J0.
X73.166 Z-1.981 I0.203 J0.
X72.76 Z-2.04 I-0.203 J0.
X73.166 Z-2.099 I0.203 J0.
X72.76 Z-2.158 I-0.203 J0.
X73.166 Z-2.217 I0.203 J0.
X72.76 Z-2.276 I-0.203 J0.
X73.166 Z-2.335 I0.203 J0.
X72.76 Z-2.394 I-0.203 J0.
X73.166 Z-2.453 I0.203 J0.
X72.76 Z-2.512 I-0.203 J0.
X73.166 Z-2.571 I0.203 J0.
X72.76 Z-2.63 I-0.203 J0.
X73.166 Z-2.689 I0.203 J0.
X72.76 Z-2.748 I-0.203 J0.
X73.166 Z-2.807 I0.203 J0.
X72.76 Z-2.866 I-0.203 J0.
X73.166 Z-2.925 I0.203 J0.
X72.76 Z-2.984 I-0.203 J0.
X73.166 Z-3.043 I0.203 J0.
X72.76 Z-3.102 I-0.203 J0.
X73.166 Z-3.161 I0.203 J0.
X72.76 Z-3.22 I-0.203 J0.
X73.166 Z-3.279 I0.203 J0.
X72.76 Z-3.338 I-0.203 J0.
X73.166 Z-3.397 I0.203 J0.
X72.76 Z-3.456 I-0.203 J0.
X73.166 Z-3.515 I0.203 J0.
X72.76 Z-3.574 I-0.203 J0.
X73.166 Z-3.633 I0.203 J0.
X72.76 Z-3.692 I-0.203 J0.
X73.166 Z-3.75 I0.203 J0.
X72.76 Z-3.809 I-0.203 J0.
X73.166 Z-3.868 I0.203 J0.
X72.76 Z-3.927 I-0.203 J0.
X73.166 Z-3.986 I0.203 J0.
X72.76 Z-4.045 I-0.203 J0.
X73.166 Z-4.104 I0.203 J0.
X72.76 Z-4.163 I-0.203 J0.
X73.166 Z-4.222 I0.203 J0.
X72.76 Z-4.281 I-0.203 J0.
X73.166 Z-4.34 I0.203 J0.
X72.76 Z-4.399 I-0.203 J0.
X73.166 Z-4.458 I0.203 J0.
X72.76 Z-4.517 I-0.203 J0.
X73.166 Z-4.576 I0.203 J0.
X72.76 Z-4.635 I-0.203 J0.
X73.166 Z-4.694 I0.203 J0.
X72.76 Z-4.753 I-0.203 J0.
X73.166 Z-4.812 I0.203 J0.
X72.76 Z-4.871 I-0.203 J0.
X73.166 Z-4.93 I0.203 J0.
X72.76 Z-4.989 I-0.203 J0.
X73.166 Z-5.048 I0.203 J0.
X72.76 Z-5.107 I-0.203 J0.
X73.166 Z-5.166 I0.203 J0.
X73.141 Y48.322 Z-5.175 I-0.203 J0.
X72.784 Y48.516 I-0.179 J0.097
X73.141 Y48.322 I0.179 J-0.097
G1 X73.116 Y48.291
X73.081 Y48.273
X73.042 Y48.269
X73.004 Y48.281
X72.963 Y48.419
G0 Z5.
Y29.369
Z3.865
G1 Z2.5 F1600.
X73.064 Y29.47
X73.103 Y29.463
X73.136 Y29.441
X73.158 Y29.408
X73.166 Y29.369
G2 X72.76 Z2.441 I-0.203 J0.
X73.166 Z2.382 I0.203 J0.
X72.76 Z2.323 I-0.203 J0.
X73.166 Z2.264 I0.203 J0.
X72.76 Z2.205 I-0.203 J0.
X73.166 Z2.146 I0.203 J0.
X72.76 Z2.087 I-0.203 J0.
X73.166 Z2.028 I0.203 J0.
X72.76 Z1.969 I-0.203 J0.
X73.166 Z1.91 I0.203 J0.
X72.76 Z1.851 I-0.203 J0.
X73.166 Z1.792 I0.203 J0.
X72.76 Z1.733 I-0.203 J0.
X73.166 Z1.674 I0.203 J0.
X72.76 Z1.615 I-0.203 J0.
X73.166 Z1.557 I0.203 J0.
X72.76 Z1.498 I-0.203 J0.
X73.166 Z1.439 I0.203 J0.
X72.76 Z1.38 I-0.203 J0.
X73.166 Z1.321 I0.203 J0.
X72.76 Z1.262 I-0.203 J0.
X73.166 Z1.203 I0.203 J0.
X72.76 Z1.144 I-0.203 J0.
X73.166 Z1.085 I0.203 J0.
X72.76 Z1.026 I-0.203 J0.
X73.166 Z0.967 I0.203 J0.
X72.76 Z0.908 I-0.203 J0.
X73.166 Z0.849 I0.203 J0.
X72.76 Z0.79 I-0.203 J0.
X73.166 Z0.731 I0.203 J0.
X72.76 Z0.672 I-0.203 J0.
X73.166 Z0.613 I0.203 J0.
X72.76 Z0.554 I-0.203 J0.
X73.166 Z0.495 I0.203 J0.
X72.76 Z0.436 I-0.203 J0.
X73.166 Z0.377 I0.203 J0.
X72.76 Z0.318 I-0.203 J0.
X73.166 Z0.259 I0.203 J0.
X72.76 Z0.2 I-0.203 J0.
X73.166 Z0.141 I0.203 J0.
X72.76 Z0.082 I-0.203 J0.
X73.166 Z0.023 I0.203 J0.
X72.76 Z-0.036 I-0.203 J0.
X73.166 Z-0.095 I0.203 J0.
X72.76 Z-0.154 I-0.203 J0.
X73.166 Z-0.212 I0.203 J0.
X72.76 Z-0.271 I-0.203 J0.
X73.166 Z-0.33 I0.203 J0.
X72.76 Z-0.389 I-0.203 J0.
X73.166 Z-0.448 I0.203 J0.
X72.76 Z-0.507 I-0.203 J0.
X73.166 Z-0.566 I0.203 J0.
X72.76 Z-0.625 I-0.203 J0.
X73.166 Z-0.684 I0.203 J0.
X72.76 Z-0.743 I-0.203 J0.
X73.166 Z-0.802 I0.203 J0.
X72.76 Z-0.861 I-0.203 J0.
X73.166 Z-0.92 I0.203 J0.
X72.76 Z-0.979 I-0.203 J0.
X73.166 Z-1.038 I0.203 J0.
X72.76 Z-1.097 I-0.203 J0.
X73.166 Z-1.156 I0.203 J0.
X72.76 Z-1.215 I-0.203 J0.
X73.166 Z-1.274 I0.203 J0.
X72.76 Z-1.333 I-0.203 J0.
X73.166 Z-1.392 I0.203 J0.
X72.76 Z-1.451 I-0.203 J0.
X73.166 Z-1.51 I0.203 J0.
X72.76 Z-1.569 I-0.203 J0.
X73.166 Z-1.628 I0.203 J0.
X72.76 Z-1.687 I-0.203 J0.
X73.166 Z-1.746 I0.203 J0.
X72.76 Z-1.805 I-0.203 J0.
X73.166 Z-1.864 I0.203 J0.
X72.76 Z-1.923 I-0.203 J0.
X73.166 Z-1.981 I0.203 J0.
X72.76 Z-2.04 I-0.203 J0.
X73.166 Z-2.099 I0.203 J0.
X72.76 Z-2.158 I-0.203 J0.
X73.166 Z-2.217 I0.203 J0.
X72.76 Z-2.276 I-0.203 J0.
X73.166 Z-2.335 I0.203 J0.
X72.76 Z-2.394 I-0.203 J0.
X73.166 Z-2.453 I0.203 J0.
X72.76 Z-2.512 I-0.203 J0.
X73.166 Z-2.571 I0.203 J0.
X72.76 Z-2.63 I-0.203 J0.
X73.166 Z-2.689 I0.203 J0.
X72.76 Z-2.748 I-0.203 J0.
X73.166 Z-2.807 I0.203 J0.
X72.76 Z-2.866 I-0.203 J0.
X73.166 Z-2.925 I0.203 J0.
X72.76 Z-2.984 I-0.203 J0.
X73.166 Z-3.043 I0.203 J0.
X72.76 Z-3.102 I-0.203 J0.
X73.166 Z-3.161 I0.203 J0.
X72.76 Z-3.22 I-0.203 J0.
X73.166 Z-3.279 I0.203 J0.
X72.76 Z-3.338 I-0.203 J0.
X73.166 Z-3.397 I0.203 J0.
X72.76 Z-3.456 I-0.203 J0.
X73.166 Z-3.515 I0.203 J0.
X72.76 Z-3.574 I-0.203 J0.
X73.166 Z-3.633 I0.203 J0.
X72.76 Z-3.692 I-0.203 J0.
X73.166 Z-3.75 I0.203 J0.
X72.76 Z-3.809 I-0.203 J0.
X73.166 Z-3.868 I0.203 J0.
X72.76 Z-3.927 I-0.203 J0.
X73.166 Z-3.986 I0.203 J0.
X72.76 Z-4.045 I-0.203 J0.
X73.166 Z-4.104 I0.203 J0.
X72.76 Z-4.163 I-0.203 J0.
X73.166 Z-4.222 I0.203 J0.
X72.76 Z-4.281 I-0.203 J0.
X73.166 Z-4.34 I0.203 J0.
X72.76 Z-4.399 I-0.203 J0.
X73.166 Z-4.458 I0.203 J0.
X72.76 Z-4.517 I-0.203 J0.
X73.166 Z-4.576 I0.203 J0.
X72.76 Z-4.635 I-0.203 J0.
X73.166 Z-4.694 I0.203 J0.
X72.76 Z-4.753 I-0.203 J0.
X73.166 Z-4.812 I0.203 J0.
X72.76 Z-4.871 I-0.203 J0.
X73.166 Z-4.93 I0.203 J0.
X72.76 Z-4.989 I-0.203 J0.
X73.166 Z-5.048 I0.203 J0.
X72.76 Z-5.107 I-0.203 J0.
X73.166 Z-5.166 I0.203 J0.
X73.141 Y29.272 Z-5.175 I-0.203 J0.
X72.784 Y29.466 I-0.179 J0.097
X73.141 Y29.272 I0.179 J-0.097
G1 X73.116 Y29.241
X73.081 Y29.223
X73.042 Y29.219
X73.004 Y29.231
X72.963 Y29.369
G0 Z15.

(BORE1 3)
G0 X57.151 Y155.416
Z15.
Z4.5
G1 Z3.135 F1600.
G18 G2 X57.786 Z2.5 I0.635 K0.
G1 X58.104
G17 G2 X58.739 Y154.781 I0. J-0.635
X55.437 Z2.416 I-1.651 J0.
X58.739 Z2.332 I1.651 J0.
X55.437 Z2.247 I-1.651 J0.
X58.739 Z2.163 I1.651 J0.
X55.437 Z2.079 I-1.651 J0.
X58.739 Z1.995 I1.651 J0.
X55.437 Z1.91 I-1.651 J0.
X58.739 Z1.826 I1.651 J0.
X55.437 Z1.742 I-1.651 J0.
X58.739 Z1.658 I1.651 J0.
X55.437 Z1.573 I-1.651 J0.
X58.739 Z1.489 I1.651 J0.
X55.437 Z1.405 I-1.651 J0.
X58.739 Z1.321 I1.651 J0.
X55.437 Z1.236 I-1.651 J0.
X58.739 Z1.152 I1.651 J0.
X55.437 Z1.068 I-1.651 J0.
X58.739 Z0.984 I1.651 J0.
X55.437 Z0.899 I-1.651 J0.
X58.739 Z0.815 I1.651 J0.
X55.437 Z0.731 I-1.651 J0.
X58.739 Z0.647 I1.651 J0.
X55.437 Z0.563 I-1.651 J0.
X58.739 Z0.478 I1.651 J0.
X55.437 Z0.394 I-1.651 J0.
X58.739 Z0.31 I1.651 J0.
X55.437 Z0.226 I-1.651 J0.
X58.739 Z0.141 I1.651 J0.
X55.437 Z0.057 I-1.651 J0.
X58.739 Z-0.027 I1.651 J0.
X55.437 Z-0.111 I-1.651 J0.
X58.739 Z-0.196 I1.651 J0.
X55.437 Z-0.28 I-1.651 J0.
X58.739 Z-0.364 I1.651 J0.
X55.437 Z-0.448 I-1.651 J0.
X58.739 Z-0.533 I1.651 J0.
X55.437 Z-0.617 I-1.651 J0.
X58.739 Z-0.701 I1.651 J0.
X55.437 Z-0.785 I-1.651 J0.
X58.739 Z-0.87 I1.651 J0.
X55.437 Z-0.954 I-1.651 J0.
X58.739 Z-1.038 I1.651 J0.
X55.437 Z-1.122 I-1.651 J0.
X58.739 Z-1.206 I1.651 J0.
X55.437 Z-1.291 I-1.651 J0.
X58.739 Z-1.375 I1.651 J0.
X55.437 Z-1.459 I-1.651 J0.
X58.739 Z-1.543 I1.651 J0.
X55.437 Z-1.628 I-1.651 J0.
X58.739 Z-1.712 I1.651 J0.
X55.437 Z-1.796 I-1.651 J0.
X58.739 Z-1.88 I1.651 J0.
X55.437 Z-1.965 I-1.651 J0.
X58.739 Z-2.049 I1.651 J0.
X55.437 Z-2.133 I-1.651 J0.
X58.739 Z-2.217 I1.651 J0.
X55.437 Z-2.302 I-1.651 J0.
X58.739 Z-2.386 I1.651 J0.
X55.437 Z-2.47 I-1.651 J0.
X58.739 Z-2.554 I1.651 J0.
X55.437 Z-2.639 I-1.651 J0.
X58.739 Z-2.723 I1.651 J0.
X55.437 Z-2.807 I-1.651 J0.
X58.739 Z-2.891 I1.651 J0.
X55.437 Z-2.975 I-1.651 J0.
X58.739 Z-3.06 I1.651 J0.
X55.437 Z-3.144 I-1.651 J0.
X58.739 Z-3.228 I1.651 J0.
X55.437 Z-3.312 I-1.651 J0.
X58.739 Z-3.397 I1.651 J0.
X55.437 Z-3.481 I-1.651 J0.
X58.739 Z-3.565 I1.651 J0.
X55.437 Z-3.649 I-1.651 J0.
X58.739 Z-3.734 I1.651 J0.
X55.437 Z-3.818 I-1.651 J0.
X58.739 Z-3.902 I1.651 J0.
X55.437 Z-3.986 I-1.651 J0.
X58.739 Z-4.071 I1.651 J0.
X55.437 Z-4.155 I-1.651 J0.
X58.739 Z-4.239 I1.651 J0.
X55.437 Z-4.323 I-1.651 J0.
X58.739 Z-4.408 I1.651 J0.
X55.437 Z-4.492 I-1.651 J0.
X58.739 Z-4.576 I1.651 J0.
X55.437 Z-4.66 I-1.651 J0.
X58.739 Z-4.744 I1.651 J0.
X55.437 Z-4.829 I-1.651 J0.
X58.739 Z-4.913 I1.651 J0.
X55.437 Z-4.997 I-1.651 J0.
X58.739 Z-5.081 I1.651 J0.
X55.437 Z-5.166 I-1.651 J0.
X55.536 Y155.344 Z-5.175 I1.651 J0.
X58.64 Y154.218 I1.552 J-0.563
X55.536 Y155.344 I-1.552 J0.563
X56.349 Y155.725 I0.597 J-0.217
G1 X56.648 Y155.616
X56.741 Y155.582 Z-5.167
X56.832 Y155.549 Z-5.144
X56.919 Y155.518 Z-5.106
X56.999 Y155.489 Z-5.054
X57.07 Y155.463 Z-4.989
X57.131 Y155.441 Z-4.913
X57.18 Y155.423 Z-4.828
X57.215 Y155.41 Z-4.736
X57.237 Y155.403 Z-4.639
X57.245 Y155.4 Z-4.54
G0 Z5.
X60.326 Y155.416
Z4.5
G1 Z3.135 F1600.
G18 G2 X60.961 Z2.5 I0.635 K0.
G1 X61.279
G17 G2 X61.914 Y154.781 I0. J-0.635
X52.262 Z2.36 I-4.826 J0.
X61.914 Z2.221 I4.826 J0.
X52.262 Z2.081 I-4.826 J0.
X61.914 Z1.941 I4.826 J0.
X52.262 Z1.802 I-4.826 J0.
X61.914 Z1.662 I4.826 J0.
X52.262 Z1.522 I-4.826 J0.
X61.914 Z1.383 I4.826 J0.
X52.262 Z1.243 I-4.826 J0.
X61.914 Z1.103 I4.826 J0.
X52.262 Z0.964 I-4.826 J0.
X61.914 Z0.824 I4.826 J0.
X52.262 Z0.684 I-4.826 J0.
X61.914 Z0.545 I4.826 J0.
X52.262 Z0.405 I-4.826 J0.
X61.914 Z0.265 I4.826 J0.
X52.262 Z0.126 I-4.826 J0.
X61.914 Z-0.014 I4.826 J0.
X52.262 Z-0.154 I-4.826 J0.
X61.914 Z-0.293 I4.826 J0.
X52.262 Z-0.433 I-4.826 J0.
X61.914 Z-0.572 I4.826 J0.
X52.262 Z-0.712 I-4.826 J0.
X61.914 Z-0.852 I4.826 J0.
X52.262 Z-0.991 I-4.826 J0.
X61.914 Z-1.131 I4.826 J0.
X52.262 Z-1.271 I-4.826 J0.
X61.914 Z-1.41 I4.826 J0.
X52.262 Z-1.55 I-4.826 J0.
X61.914 Z-1.69 I4.826 J0.
X52.262 Z-1.829 I-4.826 J0.
X61.914 Z-1.969 I4.826 J0.
X52.262 Z-2.109 I-4.826 J0.
X61.914 Z-2.248 I4.826 J0.
X52.262 Z-2.388 I-4.826 J0.
X61.914 Z-2.528 I4.826 J0.
X52.262 Z-2.667 I-4.826 J0.
X61.914 Z-2.807 I4.826 J0.
X52.262 Z-2.947 I-4.826 J0.
X61.914 Z-3.086 I4.826 J0.
X52.262 Z-3.226 I-4.826 J0.
X61.914 Z-3.366 I4.826 J0.
X52.262 Z-3.505 I-4.826 J0.
X61.914 Z-3.645 I4.826 J0.
X52.262 Z-3.785 I-4.826 J0.
X61.914 Z-3.924 I4.826 J0.
X52.262 Z-4.064 I-4.826 J0.
X61.914 Z-4.204 I4.826 J0.
X52.262 Z-4.343 I-4.826 J0.
X61.914 Z-4.483 I4.826 J0.
X52.262 Z-4.623 I-4.826 J0.
X61.914 Z-4.762 I4.826 J0.
X52.262 Z-4.902 I-4.826 J0.
X61.914 Z-5.042 I4.826 J0.
X52.309 Y154.112 Z-5.175 I-4.826 J0.
X61.867 Y155.451 I4.779 J0.67
X52.309 Y154.112 I-4.779 J-0.67
X52.849 Y154.829 I0.629 J0.088
G1 X53.164 Y154.873
X53.262 Y154.886 Z-5.167
X53.358 Y154.9 Z-5.144
X53.449 Y154.913 Z-5.106
X53.533 Y154.924 Z-5.054
X53.608 Y154.935 Z-4.989
X53.672 Y154.944 Z-4.913
X53.724 Y154.951 Z-4.828
X53.762 Y154.956 Z-4.736
X53.785 Y154.96 Z-4.639
X53.793 Y154.961 Z-4.54
G0 Z5.
X63.501 Y155.416
Z4.5
G1 Z3.135 F1600.
G18 G2 X64.136 Z2.5 I0.635 K0.
G1 X64.454
G17 G2 X65.089 Y154.781 I0. J-0.635
X49.087 Z2.305 I-8.001 J0.
X65.089 Z2.11 I8.001 J0.
X49.087 Z1.915 I-8.001 J0.
X65.089 Z1.72 I8.001 J0.
X49.087 Z1.525 I-8.001 J0.
X65.089 Z1.33 I8.001 J0.
X49.087 Z1.134 I-8.001 J0.
X65.089 Z0.939 I8.001 J0.
X49.087 Z0.744 I-8.001 J0.
X65.089 Z0.549 I8.001 J0.
X49.087 Z0.354 I-8.001 J0.
X65.089 Z0.159 I8.001 J0.
X49.087 Z-0.036 I-8.001 J0.
X65.089 Z-0.231 I8.001 J0.
X49.087 Z-0.426 I-8.001 J0.
X65.089 Z-0.621 I8.001 J0.
X49.087 Z-0.816 I-8.001 J0.
X65.089 Z-1.011 I8.001 J0.
X49.087 Z-1.206 I-8.001 J0.
X65.089 Z-1.402 I8.001 J0.
X49.087 Z-1.597 I-8.001 J0.
X65.089 Z-1.792 I8.001 J0.
X49.087 Z-1.987 I-8.001 J0.
X65.089 Z-2.182 I8.001 J0.
X49.087 Z-2.377 I-8.001 J0.
X65.089 Z-2.572 I8.001 J0.
X49.087 Z-2.767 I-8.001 J0.
X65.089 Z-2.962 I8.001 J0.
X49.087 Z-3.157 I-8.001 J0.
X65.089 Z-3.352 I8.001 J0.
X49.087 Z-3.547 I-8.001 J0.
X65.089 Z-3.742 I8.001 J0.
X49.087 Z-3.938 I-8.001 J0.
X65.089 Z-4.133 I8.001 J0.
X49.087 Z-4.328 I-8.001 J0.
X65.089 Z-4.523 I8.001 J0.
X49.087 Z-4.718 I-8.001 J0.
X65.089 Z-4.913 I8.001 J0.
X49.087 Z-5.108 I-8.001 J0.
X53.306 Y161.832 Z-5.175 I8.001 J0.
X60.87 Y147.731 I3.782 J-7.051
X53.306 Y161.832 I-3.782 J7.051
X54.165 Y161.572 I0.3 J-0.56
G1 X54.316 Y161.293
X54.362 Y161.205 Z-5.167
X54.408 Y161.12 Z-5.144
X54.452 Y161.039 Z-5.106
X54.492 Y160.964 Z-5.054
X54.528 Y160.897 Z-4.989
X54.558 Y160.84 Z-4.913
X54.583 Y160.794 Z-4.828
X54.601 Y160.761 Z-4.736
X54.612 Y160.74 Z-4.639
X54.616 Y160.733 Z-4.54
G0 Z5.
X66.676 Y155.416
Z4.5
G1 Z3.135 F1600.
G18 G2 X67.311 Z2.5 I0.635 K0.
G1 X67.629
G17 G2 X68.264 Y154.781 I0. J-0.635
X45.912 Z2.25 I-11.176 J0.
X68.264 Z1.999 I11.176 J0.
X45.912 Z1.749 I-11.176 J0.
X68.264 Z1.498 I11.176 J0.
X45.912 Z1.248 I-11.176 J0.
X68.264 Z0.997 I11.176 J0.
X45.912 Z0.747 I-11.176 J0.
X68.264 Z0.496 I11.176 J0.
X45.912 Z0.246 I-11.176 J0.
X68.264 Z-0.005 I11.176 J0.
X45.912 Z-0.255 I-11.176 J0.
X68.264 Z-0.506 I11.176 J0.
X45.912 Z-0.756 I-11.176 J0.
X68.264 Z-1.007 I11.176 J0.
X45.912 Z-1.257 I-11.176 J0.
X68.264 Z-1.508 I11.176 J0.
X45.912 Z-1.758 I-11.176 J0.
X68.264 Z-2.009 I11.176 J0.
X45.912 Z-2.259 I-11.176 J0.
X68.264 Z-2.51 I11.176 J0.
X45.912 Z-2.76 I-11.176 J0.
X68.264 Z-3.011 I11.176 J0.
X45.912 Z-3.261 I-11.176 J0.
X68.264 Z-3.512 I11.176 J0.
X45.912 Z-3.762 I-11.176 J0.
X68.264 Z-4.013 I11.176 J0.
X45.912 Z-4.263 I-11.176 J0.
X68.264 Z-4.514 I11.176 J0.
X45.912 Z-4.764 I-11.176 J0.
X68.264 Z-5.015 I11.176 J0.
X52.361 Y144.654 Z-5.175 I-11.176 J0.
X61.815 Y164.908 I4.727 J10.127
X52.361 Y144.654 I-4.727 J-10.127
X52.054 Y145.498 I0.269 J0.575
G1 X52.188 Y145.786
X52.23 Y145.876 Z-5.167
X52.271 Y145.964 Z-5.144
X52.31 Y146.047 Z-5.106
X52.346 Y146.124 Z-5.054
X52.378 Y146.193 Z-4.989
X52.406 Y146.251 Z-4.913
X52.428 Y146.299 Z-4.828
X52.444 Y146.333 Z-4.736
X52.454 Y146.354 Z-4.639
X52.457 Y146.361 Z-4.54
G0 Z15.
M5
G0 Z15
G0 X0 Y0

M9
M30
