(HOOD RIBS SLOT AND HOLES )
(T1  D=6.35 CR=0. - ZMIN=-5.175 - FLAT END MILL)
G90 G94 G91.1 G40 G49 G17
G21
G0 Z15

(BORE1)
M5
T1 M6
S15000 M3
G54
M8
G0 X95.97 Y38.138
G43 Z15. H1
Z4.5
G1 Z3.135 F1600.
G18 G2 X96.605 Z2.5 I0.635 K0.
G1 X96.923
G17 G2 X97.558 Y37.503 I0. J-0.635
X94.383 Z2.417 I-1.588 J0.
X97.558 Z2.334 I1.588 J0.
X94.383 Z2.251 I-1.588 J0.
X97.558 Z2.167 I1.588 J0.
X94.383 Z2.084 I-1.588 J0.
X97.558 Z2.001 I1.588 J0.
X94.383 Z1.918 I-1.588 J0.
X97.558 Z1.835 I1.588 J0.
X94.383 Z1.752 I-1.588 J0.
X97.558 Z1.669 I1.588 J0.
X94.383 Z1.586 I-1.588 J0.
X97.558 Z1.502 I1.588 J0.
X94.383 Z1.419 I-1.588 J0.
X97.558 Z1.336 I1.588 J0.
X94.383 Z1.253 I-1.588 J0.
X97.558 Z1.17 I1.588 J0.
X94.383 Z1.087 I-1.588 J0.
X97.558 Z1.004 I1.588 J0.
X94.383 Z0.921 I-1.588 J0.
X97.558 Z0.837 I1.588 J0.
X94.383 Z0.754 I-1.588 J0.
X97.558 Z0.671 I1.588 J0.
X94.383 Z0.588 I-1.588 J0.
X97.558 Z0.505 I1.588 J0.
X94.383 Z0.422 I-1.588 J0.
X97.558 Z0.339 I1.588 J0.
X94.383 Z0.255 I-1.588 J0.
X97.558 Z0.172 I1.588 J0.
X94.383 Z0.089 I-1.588 J0.
X97.558 Z0.006 I1.588 J0.
X94.383 Z-0.077 I-1.588 J0.
X97.558 Z-0.16 I1.588 J0.
X94.383 Z-0.243 I-1.588 J0.
X97.558 Z-0.326 I1.588 J0.
X94.383 Z-0.41 I-1.588 J0.
X97.558 Z-0.493 I1.588 J0.
X94.383 Z-0.576 I-1.588 J0.
X97.558 Z-0.659 I1.588 J0.
X94.383 Z-0.742 I-1.588 J0.
X97.558 Z-0.825 I1.588 J0.
X94.383 Z-0.908 I-1.588 J0.
X97.558 Z-0.991 I1.588 J0.
X94.383 Z-1.075 I-1.588 J0.
X97.558 Z-1.158 I1.588 J0.
X94.383 Z-1.241 I-1.588 J0.
X97.558 Z-1.324 I1.588 J0.
X94.383 Z-1.407 I-1.588 J0.
X97.558 Z-1.49 I1.588 J0.
X94.383 Z-1.573 I-1.588 J0.
X97.558 Z-1.656 I1.588 J0.
X94.383 Z-1.74 I-1.588 J0.
X97.558 Z-1.823 I1.588 J0.
X94.383 Z-1.906 I-1.588 J0.
X97.558 Z-1.989 I1.588 J0.
X94.383 Z-2.072 I-1.588 J0.
X97.558 Z-2.155 I1.588 J0.
X94.383 Z-2.238 I-1.588 J0.
X97.558 Z-2.322 I1.588 J0.
X94.383 Z-2.405 I-1.588 J0.
X97.558 Z-2.488 I1.588 J0.
X94.383 Z-2.571 I-1.587 J0.
X97.558 Z-2.654 I1.587 J0.
X94.383 Z-2.737 I-1.587 J0.
X97.558 Z-2.82 I1.587 J0.
X94.383 Z-2.903 I-1.587 J0.
X97.558 Z-2.987 I1.587 J0.
X94.383 Z-3.07 I-1.587 J0.
X97.558 Z-3.153 I1.587 J0.
X94.383 Z-3.236 I-1.587 J0.
X97.558 Z-3.319 I1.587 J0.
X94.383 Z-3.402 I-1.587 J0.
X97.558 Z-3.485 I1.587 J0.
X94.383 Z-3.568 I-1.587 J0.
X97.558 Z-3.652 I1.587 J0.
X94.383 Z-3.735 I-1.587 J0.
X97.558 Z-3.818 I1.587 J0.
X94.383 Z-3.901 I-1.587 J0.
X97.558 Z-3.984 I1.587 J0.
X94.383 Z-4.067 I-1.587 J0.
X97.558 Z-4.15 I1.587 J0.
X94.383 Z-4.234 I-1.587 J0.
X97.558 Z-4.317 I1.587 J0.
X94.383 Z-4.4 I-1.587 J0.
X97.558 Z-4.483 I1.587 J0.
X94.383 Z-4.566 I-1.587 J0.
X97.558 Z-4.649 I1.587 J0.
X94.383 Z-4.732 I-1.587 J0.
X97.558 Z-4.815 I1.587 J0.
X94.383 Z-4.899 I-1.587 J0.
X97.558 Z-4.982 I1.587 J0.
X94.383 Z-5.065 I-1.587 J0.
X97.558 Z-5.148 I1.587 J0.
X96.798 Y36.148 Z-5.175 I-1.587 J0.
X95.143 Y38.858 I-0.827 J1.355
X96.798 Y36.148 I0.827 J-1.355
X95.925 Y36.359 I-0.331 J0.542
G1 X95.759 Y36.63
X95.708 Y36.715 Z-5.167
X95.657 Y36.798 Z-5.144
X95.609 Y36.876 Z-5.106
X95.565 Y36.949 Z-5.054
X95.525 Y37.014 Z-4.989
X95.492 Y37.069 Z-4.913
X95.464 Y37.113 Z-4.828
X95.445 Y37.146 Z-4.736
X95.433 Y37.166 Z-4.639
X95.428 Y37.172 Z-4.54
G0 Z5.
X197.57 Y38.138
Z4.5
G1 Z3.135 F1600.
G18 G2 X198.205 Z2.5 I0.635 K0.
G1 X198.523
G17 G2 X199.158 Y37.503 I0. J-0.635
X195.983 Z2.417 I-1.587 J0.
X199.158 Z2.334 I1.587 J0.
X195.983 Z2.251 I-1.587 J0.
X199.158 Z2.167 I1.587 J0.
X195.983 Z2.084 I-1.587 J0.
X199.158 Z2.001 I1.587 J0.
X195.983 Z1.918 I-1.587 J0.
X199.158 Z1.835 I1.587 J0.
X195.983 Z1.752 I-1.587 J0.
X199.158 Z1.669 I1.587 J0.
X195.983 Z1.586 I-1.587 J0.
X199.158 Z1.502 I1.587 J0.
X195.983 Z1.419 I-1.587 J0.
X199.158 Z1.336 I1.587 J0.
X195.983 Z1.253 I-1.587 J0.
X199.158 Z1.17 I1.587 J0.
X195.983 Z1.087 I-1.587 J0.
X199.158 Z1.004 I1.587 J0.
X195.983 Z0.921 I-1.587 J0.
X199.158 Z0.837 I1.587 J0.
X195.983 Z0.754 I-1.587 J0.
X199.158 Z0.671 I1.587 J0.
X195.983 Z0.588 I-1.587 J0.
X199.158 Z0.505 I1.587 J0.
X195.983 Z0.422 I-1.587 J0.
X199.158 Z0.339 I1.587 J0.
X195.983 Z0.255 I-1.587 J0.
X199.158 Z0.172 I1.587 J0.
X195.983 Z0.089 I-1.587 J0.
X199.158 Z0.006 I1.587 J0.
X195.983 Z-0.077 I-1.587 J0.
X199.158 Z-0.16 I1.587 J0.
X195.983 Z-0.243 I-1.587 J0.
X199.158 Z-0.326 I1.587 J0.
X195.983 Z-0.41 I-1.587 J0.
X199.158 Z-0.493 I1.587 J0.
X195.983 Z-0.576 I-1.587 J0.
X199.158 Z-0.659 I1.587 J0.
X195.983 Z-0.742 I-1.587 J0.
X199.158 Z-0.825 I1.587 J0.
X195.983 Z-0.908 I-1.587 J0.
X199.158 Z-0.991 I1.587 J0.
X195.983 Z-1.075 I-1.587 J0.
X199.158 Z-1.158 I1.587 J0.
X195.983 Z-1.241 I-1.587 J0.
X199.158 Z-1.324 I1.587 J0.
X195.983 Z-1.407 I-1.587 J0.
X199.158 Z-1.49 I1.587 J0.
X195.983 Z-1.573 I-1.587 J0.
X199.158 Z-1.656 I1.587 J0.
X195.983 Z-1.74 I-1.587 J0.
X199.158 Z-1.823 I1.587 J0.
X195.983 Z-1.906 I-1.587 J0.
X199.158 Z-1.989 I1.587 J0.
X195.983 Z-2.072 I-1.587 J0.
X199.158 Z-2.155 I1.587 J0.
X195.983 Z-2.238 I-1.587 J0.
X199.158 Z-2.322 I1.587 J0.
X195.983 Z-2.405 I-1.587 J0.
X199.158 Z-2.488 I1.587 J0.
X195.983 Z-2.571 I-1.587 J0.
X199.158 Z-2.654 I1.587 J0.
X195.983 Z-2.737 I-1.587 J0.
X199.158 Z-2.82 I1.587 J0.
X195.983 Z-2.903 I-1.587 J0.
X199.158 Z-2.987 I1.587 J0.
X195.983 Z-3.07 I-1.587 J0.
X199.158 Z-3.153 I1.587 J0.
X195.983 Z-3.236 I-1.587 J0.
X199.158 Z-3.319 I1.587 J0.
X195.983 Z-3.402 I-1.587 J0.
X199.158 Z-3.485 I1.587 J0.
X195.983 Z-3.568 I-1.587 J0.
X199.158 Z-3.652 I1.587 J0.
X195.983 Z-3.735 I-1.587 J0.
X199.158 Z-3.818 I1.587 J0.
X195.983 Z-3.901 I-1.587 J0.
X199.158 Z-3.984 I1.587 J0.
X195.983 Z-4.067 I-1.587 J0.
X199.158 Z-4.15 I1.587 J0.
X195.983 Z-4.234 I-1.587 J0.
X199.158 Z-4.317 I1.587 J0.
X195.983 Z-4.4 I-1.587 J0.
X199.158 Z-4.483 I1.587 J0.
X195.983 Z-4.566 I-1.587 J0.
X199.158 Z-4.649 I1.587 J0.
X195.983 Z-4.732 I-1.587 J0.
X199.158 Z-4.815 I1.587 J0.
X195.983 Z-4.899 I-1.587 J0.
X199.158 Z-4.982 I1.587 J0.
X195.983 Z-5.065 I-1.587 J0.
X199.158 Z-5.148 I1.587 J0.
X198.398 Y36.148 Z-5.175 I-1.587 J0.
X196.743 Y38.858 I-0.827 J1.355
X198.398 Y36.148 I0.827 J-1.355
X197.525 Y36.359 I-0.331 J0.542
G1 X197.359 Y36.63
X197.308 Y36.715 Z-5.167
X197.257 Y36.798 Z-5.144
X197.209 Y36.876 Z-5.106
X197.165 Y36.949 Z-5.054
X197.125 Y37.014 Z-4.989
X197.092 Y37.069 Z-4.913
X197.064 Y37.113 Z-4.828
X197.045 Y37.146 Z-4.736
X197.033 Y37.166 Z-4.639
X197.028 Y37.172 Z-4.54
G0 Z15.

(2D POCKET1)
G0 Z16.
X76.022 Y67.679
Z6.
G1 Z4.135 F1600.
X76.005 Y67.703 Z3.943
X75.955 Y67.773 Z3.769
X75.876 Y67.882 Z3.629
X75.776 Y68.021 Z3.536
X75.664 Y68.176 Z3.5
G3 X30.343 Y112.954 Z1.265 I-156.582 J-113.158
G2 X32.617 Y116.207 Z1.092 I1.905 J1.09
X40.476 Y110.374 Z0.75 I-113.535 J-161.188
X89.827 Y53.598 I-121.394 J-155.356
X86.39 Y51.614 I-1.719 J-0.992
G3 X30.343 Y112.954 I-167.308 J-96.596
G2 X32.617 Y116.207 I1.905 J1.09
X40.476 Y110.374 I-113.535 J-161.188
X46.035 Y105.865 Z0.5 I-121.394 J-155.356
X89.827 Y53.598 I-126.954 J-150.846
X86.39 Y51.614 I-1.719 J-0.992
G3 X30.343 Y112.954 I-167.308 J-96.596
G2 X32.617 Y116.207 I1.905 J1.09
X46.035 Y105.865 I-113.535 J-161.188
X51.428 Y101.157 Z0.25 I-126.954 J-150.846
X89.827 Y53.598 I-132.346 J-146.138
X86.39 Y51.614 I-1.719 J-0.992
G3 X30.343 Y112.954 I-167.308 J-96.596
G2 X32.617 Y116.207 I1.905 J1.09
X51.428 Y101.157 I-113.535 J-161.188
X56.646 Y96.256 Z0. I-132.346 J-146.138
X89.827 Y53.598 I-137.564 J-141.237
X86.39 Y51.614 I-1.719 J-0.992
G3 X30.343 Y112.954 I-167.308 J-96.596
G2 X32.617 Y116.207 I1.905 J1.09
X56.646 Y96.256 I-113.535 J-161.188
X61.683 Y91.169 Z-0.25 I-137.564 J-141.237
X89.827 Y53.598 I-142.601 J-136.15
X86.39 Y51.614 I-1.719 J-0.992
G3 X30.343 Y112.954 I-167.308 J-96.596
G2 X32.617 Y116.207 I1.905 J1.09
X61.683 Y91.169 I-113.535 J-161.188
X66.531 Y85.902 Z-0.5 I-142.601 J-136.15
X89.827 Y53.598 I-147.449 J-130.884
X86.39 Y51.614 I-1.719 J-0.992
G3 X30.343 Y112.954 I-167.308 J-96.596
G2 X32.617 Y116.207 I1.905 J1.09
X66.531 Y85.902 I-113.535 J-161.188
X71.186 Y80.463 Z-0.75 I-147.449 J-130.884
X89.827 Y53.598 I-152.104 J-125.444
X86.39 Y51.614 I-1.719 J-0.992
G3 X30.343 Y112.954 I-167.308 J-96.596
G2 X32.617 Y116.207 I1.905 J1.09
X71.186 Y80.463 I-113.535 J-161.188
X75.639 Y74.859 Z-1. I-152.104 J-125.444
X89.827 Y53.598 I-156.557 J-119.84
X86.39 Y51.614 I-1.719 J-0.992
G3 X30.343 Y112.954 I-167.308 J-96.596
G2 X32.617 Y116.207 I1.905 J1.09
X75.639 Y74.859 I-113.535 J-161.188
X79.887 Y69.096 Z-1.25 I-156.557 J-119.84
X89.827 Y53.598 I-160.805 J-114.077
X86.39 Y51.614 I-1.719 J-0.992
G3 X30.343 Y112.954 I-167.308 J-96.596
G2 X32.617 Y116.207 I1.905 J1.09
X79.887 Y69.096 I-113.535 J-161.188
X83.922 Y63.183 Z-1.5 I-160.805 J-114.077
X89.827 Y53.598 I-164.84 J-108.164
X86.39 Y51.614 I-1.719 J-0.992
G3 X30.343 Y112.954 I-167.308 J-96.596
G2 X32.617 Y116.207 I1.905 J1.09
X83.922 Y63.183 I-113.535 J-161.188
X87.74 Y57.128 Z-1.75 I-164.84 J-108.164
X89.827 Y53.598 I-168.658 J-102.109
X86.39 Y51.614 I-1.719 J-0.992
G3 X30.343 Y112.954 I-167.308 J-96.596
G2 X32.617 Y116.207 I1.905 J1.09
X87.74 Y57.128 I-113.535 J-161.188
X89.827 Y53.598 Z-1.893 I-168.658 J-102.109
X89.15 Y50.917 Z-2. I-1.719 J-0.992
X86.39 Y51.614 I-1.042 J1.689
G3 X30.343 Y112.954 I-167.308 J-96.596
G2 X32.617 Y116.207 I1.905 J1.09
X89.827 Y53.598 I-113.535 J-161.188
X89.15 Y50.917 I-1.719 J-0.992
X86.39 Y51.614 Z-2.111 I-1.042 J1.689
G3 X84.362 Y55.043 Z-2.25 I-167.308 J-96.596
X30.343 Y112.954 I-165.28 J-100.025
G2 X32.617 Y116.207 I1.905 J1.09
X89.827 Y53.598 I-113.535 J-161.188
X86.39 Y51.614 I-1.719 J-0.992
G3 X84.362 Y55.043 I-167.308 J-96.596
X80.543 Y61.098 Z-2.5 I-165.28 J-100.025
X30.343 Y112.954 I-161.461 J-106.08
G2 X32.617 Y116.207 I1.905 J1.09
X89.827 Y53.598 I-113.535 J-161.188
X86.39 Y51.614 I-1.719 J-0.992
G3 X80.543 Y61.098 I-167.308 J-96.596
X76.502 Y67.007 Z-2.75 I-161.461 J-106.08
X30.343 Y112.954 I-157.42 J-111.989
G2 X32.617 Y116.207 I1.905 J1.09
X89.827 Y53.598 I-113.535 J-161.188
X86.39 Y51.614 I-1.719 J-0.992
G3 X76.502 Y67.007 I-167.308 J-96.596
X72.245 Y72.762 Z-3. I-157.42 J-111.989
X30.343 Y112.954 I-153.163 J-117.744
G2 X32.617 Y116.207 I1.905 J1.09
X89.827 Y53.598 I-113.535 J-161.188
X86.39 Y51.614 I-1.719 J-0.992
G3 X72.245 Y72.762 I-167.308 J-96.596
X67.778 Y78.356 Z-3.25 I-153.163 J-117.744
X30.343 Y112.954 I-148.695 J-123.338
G2 X32.617 Y116.207 I1.905 J1.09
X89.827 Y53.598 I-113.535 J-161.188
X86.39 Y51.614 I-1.719 J-0.992
G3 X67.778 Y78.356 I-167.308 J-96.596
X63.106 Y83.78 Z-3.5 I-148.695 J-123.338
X30.343 Y112.954 I-144.024 J-128.762
G2 X32.617 Y116.207 I1.905 J1.09
X89.827 Y53.598 I-113.535 J-161.188
X86.39 Y51.614 I-1.719 J-0.992
G3 X63.106 Y83.78 I-167.308 J-96.596
X58.237 Y89.028 Z-3.75 I-144.024 J-128.762
X30.343 Y112.954 I-139.154 J-134.01
G2 X32.617 Y116.207 I1.905 J1.09
X89.827 Y53.598 I-113.535 J-161.188
X86.39 Y51.614 I-1.719 J-0.992
G3 X58.237 Y89.028 I-167.308 J-96.596
X53.176 Y94.091 Z-4. I-139.154 J-134.01
X30.343 Y112.954 I-134.094 J-139.073
G2 X32.617 Y116.207 I1.905 J1.09
X89.827 Y53.598 I-113.535 J-161.188
X86.39 Y51.614 I-1.719 J-0.992
G3 X53.176 Y94.091 I-167.308 J-96.596
X47.932 Y98.964 Z-4.25 I-134.094 J-139.073
X30.343 Y112.954 I-128.85 J-143.946
G2 X32.617 Y116.207 I1.905 J1.09
X89.827 Y53.598 I-113.535 J-161.188
X86.39 Y51.614 I-1.719 J-0.992
G3 X47.932 Y98.964 I-167.308 J-96.596
X42.51 Y103.639 Z-4.5 I-128.85 J-143.946
X30.343 Y112.954 I-123.428 J-148.621
G2 X32.617 Y116.207 I1.905 J1.09
X89.827 Y53.598 I-113.535 J-161.188
X86.39 Y51.614 I-1.719 J-0.992
G3 X42.51 Y103.639 I-167.308 J-96.596
X38.614 Y106.79 Z-4.675 I-123.428 J-148.621
X30.343 Y112.954 I-119.532 J-151.772
G2 X32.617 Y116.207 I1.905 J1.09
X89.827 Y53.598 I-113.535 J-161.188
X86.39 Y51.614 I-1.719 J-0.992
G3 X38.614 Y106.79 I-167.308 J-96.596
G1 X38.542 Y106.856 Z-4.659
X38.481 Y106.933 Z-4.644
X38.437 Y107.01 Z-4.599
X38.403 Y107.092 Z-4.554
X38.385 Y107.159 Z-4.483
X38.375 Y107.229 Z-4.413
X38.373 Y107.319 Z-4.236
X38.375 Y107.35 Z-4.04
G0 Z6.
X178.351 Y66.656
G1 Z4.135 F1600.
X178.334 Y66.68 Z3.943
X178.284 Y66.751 Z3.769
X178.206 Y66.861 Z3.629
X178.107 Y67. Z3.536
X177.996 Y67.156 Z3.5
G3 X131.943 Y112.954 Z1.221 I-157.314 J-112.137
G2 X134.217 Y116.207 Z1.048 I1.905 J1.09
X135.097 Y115.584 Z1.01 I-113.513 J-161.204
X141.084 Y111.145 Z0.75 I-114.416 J-160.564
X191.426 Y53.598 I-120.403 J-156.125
X190.7 Y50.888 I-1.718 J-0.992
X187.99 Y51.614 I-0.992 J1.718
G3 X131.943 Y112.954 I-167.307 J-96.596
G2 X134.217 Y116.207 I1.905 J1.09
X135.097 Y115.584 I-113.513 J-161.204
X141.084 Y111.145 I-114.416 J-160.564
X146.672 Y106.671 Z0.5 I-120.403 J-156.125
X191.426 Y53.598 I-125.991 J-151.651
X190.7 Y50.888 I-1.718 J-0.992
X187.99 Y51.614 I-0.992 J1.718
G3 X131.943 Y112.954 I-167.307 J-96.596
G2 X134.217 Y116.207 I1.905 J1.09
X135.097 Y115.584 I-113.513 J-161.204
X146.672 Y106.671 I-114.416 J-160.564
X152.094 Y101.997 Z0.25 I-125.991 J-151.651
X191.426 Y53.598 I-131.414 J-146.977
X190.7 Y50.888 I-1.718 J-0.992
X187.99 Y51.614 I-0.992 J1.718
G3 X131.943 Y112.954 I-167.307 J-96.596
G2 X134.217 Y116.207 I1.905 J1.09
X135.097 Y115.584 I-113.513 J-161.204
X152.094 Y101.997 I-114.416 J-160.564
X157.343 Y97.129 Z0. I-131.414 J-146.977
X191.426 Y53.598 I-136.663 J-142.11
X190.7 Y50.888 I-1.718 J-0.992
X187.99 Y51.614 I-0.992 J1.718
G3 X131.943 Y112.954 I-167.307 J-96.596
G2 X134.217 Y116.207 I1.905 J1.09
X135.097 Y115.584 I-113.513 J-161.204
X157.343 Y97.129 I-114.416 J-160.564
X162.412 Y92.074 Z-0.25 I-136.663 J-142.11
X191.426 Y53.598 I-141.732 J-137.055
X190.7 Y50.888 I-1.718 J-0.992
X187.99 Y51.614 I-0.992 J1.718
G3 X131.943 Y112.954 I-167.307 J-96.596
G2 X134.217 Y116.207 I1.905 J1.09
X135.097 Y115.584 I-113.513 J-161.204
X162.412 Y92.074 I-114.416 J-160.564
X167.294 Y86.839 Z-0.5 I-141.732 J-137.055
X191.426 Y53.598 I-146.614 J-131.819
X190.7 Y50.888 I-1.718 J-0.992
X187.99 Y51.614 I-0.992 J1.718
G3 X131.943 Y112.954 I-167.307 J-96.596
G2 X134.217 Y116.207 I1.905 J1.09
X135.097 Y115.584 I-113.513 J-161.204
X167.294 Y86.839 I-114.416 J-160.564
X171.983 Y81.429 Z-0.75 I-146.614 J-131.819
X191.426 Y53.598 I-151.302 J-126.41
X190.7 Y50.888 I-1.718 J-0.992
X187.99 Y51.614 I-0.992 J1.718
G3 X131.943 Y112.954 I-167.307 J-96.596
G2 X134.217 Y116.207 I1.905 J1.09
X135.097 Y115.584 I-113.513 J-161.204
X171.983 Y81.429 I-114.416 J-160.564
X176.473 Y75.853 Z-1. I-151.302 J-126.41
X191.426 Y53.598 I-155.792 J-120.833
X190.7 Y50.888 I-1.718 J-0.992
X187.99 Y51.614 I-0.992 J1.718
G3 X131.943 Y112.954 I-167.307 J-96.596
G2 X134.217 Y116.207 I1.905 J1.09
X135.097 Y115.584 I-113.513 J-161.204
X176.473 Y75.853 I-114.416 J-160.564
X180.757 Y70.118 Z-1.25 I-155.792 J-120.833
X191.426 Y53.598 I-160.076 J-115.098
X190.7 Y50.888 I-1.718 J-0.992
X187.99 Y51.614 I-0.992 J1.718
G3 X131.943 Y112.954 I-167.307 J-96.596
G2 X134.217 Y116.207 I1.905 J1.09
X135.097 Y115.584 I-113.513 J-161.204
X180.757 Y70.118 I-114.416 J-160.564
X184.829 Y64.231 Z-1.5 I-160.076 J-115.098
X191.426 Y53.598 I-164.149 J-109.211
X190.7 Y50.888 I-1.718 J-0.992
X187.99 Y51.614 I-0.992 J1.718
G3 X131.943 Y112.954 I-167.307 J-96.596
G2 X134.217 Y116.207 I1.905 J1.09
X135.097 Y115.584 I-113.513 J-161.204
X184.829 Y64.231 I-114.416 J-160.564
X188.686 Y58.2 Z-1.75 I-164.149 J-109.211
X191.426 Y53.598 I-168.005 J-103.18
X190.7 Y50.888 I-1.718 J-0.992
X187.99 Y51.614 I-0.992 J1.718
G3 X131.943 Y112.954 I-167.307 J-96.596
G2 X134.217 Y116.207 I1.905 J1.09
X135.097 Y115.584 I-113.513 J-161.204
X188.686 Y58.2 I-114.416 J-160.564
X191.426 Y53.598 Z-1.937 I-168.005 J-103.18
X191.547 Y51.861 Z-2. I-1.718 J-0.992
X187.99 Y51.614 I-1.839 J0.746
G3 X131.943 Y112.954 I-167.307 J-96.596
G2 X134.217 Y116.207 I1.905 J1.09
X135.097 Y115.584 I-113.513 J-161.204
X191.426 Y53.598 I-114.416 J-160.564
X191.547 Y51.861 I-1.718 J-0.992
X187.99 Y51.614 Z-2.155 I-1.839 J0.746
G3 X186.609 Y53.967 Z-2.25 I-167.307 J-96.596
X131.943 Y112.954 I-165.926 J-98.949
G2 X134.217 Y116.207 I1.905 J1.09
X135.097 Y115.584 I-113.513 J-161.204
X191.426 Y53.598 I-114.416 J-160.564
X190.7 Y50.888 I-1.718 J-0.992
X187.99 Y51.614 I-0.992 J1.718
G3 X186.609 Y53.967 I-167.307 J-96.596
X182.829 Y60.047 Z-2.5 I-165.926 J-98.949
X131.943 Y112.954 I-162.146 J-105.029
G2 X134.217 Y116.207 I1.905 J1.09
X135.097 Y115.584 I-113.513 J-161.204
X191.426 Y53.598 I-114.416 J-160.564
X190.7 Y50.888 I-1.718 J-0.992
X187.99 Y51.614 I-0.992 J1.718
G3 X182.829 Y60.047 I-167.307 J-96.596
X178.826 Y65.982 Z-2.75 I-162.146 J-105.029
X131.943 Y112.954 I-158.144 J-110.964
G2 X134.217 Y116.207 I1.905 J1.09
X135.097 Y115.584 I-113.513 J-161.204
X191.426 Y53.598 I-114.416 J-160.564
X190.7 Y50.888 I-1.718 J-0.992
X187.99 Y51.614 I-0.992 J1.718
G3 X178.826 Y65.982 I-167.307 J-96.596
X174.607 Y71.765 Z-3. I-158.144 J-110.964
X131.943 Y112.954 I-153.924 J-116.747
G2 X134.217 Y116.207 I1.905 J1.09
X135.097 Y115.584 I-113.513 J-161.204
X191.426 Y53.598 I-114.416 J-160.564
X190.7 Y50.888 I-1.718 J-0.992
X187.99 Y51.614 I-0.992 J1.718
G3 X174.607 Y71.765 I-167.307 J-96.596
X170.176 Y77.387 Z-3.25 I-153.924 J-116.747
X131.943 Y112.954 I-149.493 J-122.369
G2 X134.217 Y116.207 I1.905 J1.09
X135.097 Y115.584 I-113.513 J-161.204
X191.426 Y53.598 I-114.416 J-160.564
X190.7 Y50.888 I-1.718 J-0.992
X187.99 Y51.614 I-0.992 J1.718
G3 X170.176 Y77.387 I-167.307 J-96.596
X165.539 Y82.842 Z-3.5 I-149.493 J-122.369
X131.943 Y112.954 I-144.857 J-127.824
G2 X134.217 Y116.207 I1.905 J1.09
X135.097 Y115.584 I-113.513 J-161.204
X191.426 Y53.598 I-114.416 J-160.564
X190.7 Y50.888 I-1.718 J-0.992
X187.99 Y51.614 I-0.992 J1.718
G3 X165.539 Y82.842 I-167.307 J-96.596
X160.704 Y88.121 Z-3.75 I-144.857 J-127.824
X131.943 Y112.954 I-140.022 J-133.103
G2 X134.217 Y116.207 I1.905 J1.09
X135.097 Y115.584 I-113.513 J-161.204
X191.426 Y53.598 I-114.416 J-160.564
X190.7 Y50.888 I-1.718 J-0.992
X187.99 Y51.614 I-0.992 J1.718
G3 X160.704 Y88.121 I-167.307 J-96.596
X155.677 Y93.217 Z-4. I-140.022 J-133.103
X131.943 Y112.954 I-134.995 J-138.199
G2 X134.217 Y116.207 I1.905 J1.09
X135.097 Y115.584 I-113.513 J-161.204
X191.426 Y53.598 I-114.416 J-160.564
X190.7 Y50.888 I-1.718 J-0.992
X187.99 Y51.614 I-0.992 J1.718
G3 X155.677 Y93.217 I-167.307 J-96.596
X150.464 Y98.124 Z-4.25 I-134.995 J-138.199
X131.943 Y112.954 I-129.782 J-143.105
G2 X134.217 Y116.207 I1.905 J1.09
X135.097 Y115.584 I-113.513 J-161.204
X191.426 Y53.598 I-114.416 J-160.564
X190.7 Y50.888 I-1.718 J-0.992
X187.99 Y51.614 I-0.992 J1.718
G3 X150.464 Y98.124 I-167.307 J-96.596
X145.073 Y102.834 Z-4.5 I-129.782 J-143.105
X131.943 Y112.954 I-124.391 J-147.815
G2 X134.217 Y116.207 I1.905 J1.09
X135.097 Y115.584 I-113.513 J-161.204
X191.426 Y53.598 I-114.416 J-160.564
X190.7 Y50.888 I-1.718 J-0.992
X187.99 Y51.614 I-0.992 J1.718
G3 X145.073 Y102.834 I-167.307 J-96.596
X141.197 Y106.01 Z-4.675 I-124.391 J-147.815
X131.943 Y112.954 I-120.515 J-150.992
G2 X134.217 Y116.207 I1.905 J1.09
X135.097 Y115.584 I-113.513 J-161.204
X191.426 Y53.598 I-114.416 J-160.564
X190.7 Y50.888 I-1.718 J-0.992
X187.99 Y51.614 I-0.992 J1.718
G3 X141.197 Y106.01 I-167.307 J-96.596
G1 X141.126 Y106.077 Z-4.659
X141.065 Y106.154 Z-4.644
X141.021 Y106.231 Z-4.599
X140.989 Y106.313 Z-4.554
X140.971 Y106.381 Z-4.483
X140.961 Y106.451 Z-4.413
X140.96 Y106.541 Z-4.236
X140.962 Y106.572 Z-4.04
G0 Z16.
M5
G0 Z15
G0 X0 Y0

M9
M30
