(1001)
(T1  D=3.175 CR=0. - ZMIN=-4.016 - FLAT END MILL)
G90 G94 G91.1 G40 G49 G17
G21
G0 Z15

(2D CONTOUR3)
M5
T1 M6
S15000 M3
G54
M8
G0 X92.685 Y61.931
G43 Z15. H1
Z5.
G1 Z3.817 F1600.
X92.681 Y61.938 Z3.747
X92.671 Y61.959 Z3.68
X92.653 Y61.993 Z3.62
X92.631 Y62.038 Z3.569
X92.603 Y62.091 Z3.531
X92.573 Y62.151 Z3.508
X92.54 Y62.214 Z3.5
X92.396 Y62.497
G2 X92.534 Y62.924 I0.283 J0.145
X98.401 Y65.791 Z3.386 I81.941 J-160.274
G3 X85.581 Y93.286 Z2.554 I-6.411 J13.748
X2.159 Y23.28 Z0.631 I88.895 J-190.636
G1 X2.158 Y23.278
G3 X17.677 Y-0.255 Z0. I12.439 J-8.681
X27.036 Y5.915 I-3.08 J14.853
G2 X98.401 Y65.791 I147.439 J-103.266
G3 X85.581 Y93.286 I-6.411 J13.748
X2.159 Y23.28 I88.895 J-190.636
G1 X2.158 Y23.278
G3 X17.677 Y-0.255 I12.439 J-8.681
X27.036 Y5.915 Z-0.2 I-3.08 J14.853
G2 X57.781 Y39.706 Z-1. I147.439 J-103.266
X98.401 Y65.791 I116.695 J-137.057
G3 X85.581 Y93.286 I-6.411 J13.748
X2.159 Y23.28 I88.895 J-190.636
G1 X2.158 Y23.278
G3 X27.036 Y5.915 I12.439 J-8.681
G2 X57.781 Y39.706 I147.439 J-103.266
X98.401 Y65.791 Z-1.845 I116.695 J-137.057
G3 X104.925 Y71.613 Z-2. I-6.411 J13.748
X85.581 Y93.286 I-12.934 J7.925
X2.159 Y23.28 I88.895 J-190.636
G1 X2.158 Y23.278
G3 X27.036 Y5.915 I12.439 J-8.681
G2 X98.401 Y65.791 I147.439 J-103.266
G3 X104.925 Y71.613 I-6.411 J13.748
X85.581 Y93.286 Z-2.677 I-12.934 J7.925
X69.174 Y84.738 Z-3. I88.895 J-190.636
X2.159 Y23.28 I105.301 J-182.088
G1 X2.158 Y23.278
G3 X27.036 Y5.915 I12.439 J-8.681
G2 X98.401 Y65.791 I147.439 J-103.266
G3 X85.581 Y93.286 I-6.411 J13.748
X69.174 Y84.738 I88.895 J-190.636
X45.066 Y68.474 Z-3.508 I105.301 J-182.088
X2.159 Y23.28 I129.409 J-165.825
G1 X2.158 Y23.278
G3 X27.036 Y5.915 I12.439 J-8.681
G2 X98.401 Y65.791 I147.439 J-103.266
G3 X85.581 Y93.286 I-6.411 J13.748
X45.066 Y68.474 I88.895 J-190.636
X23.433 Y49.042 Z-4.016 I129.409 J-165.825
X2.159 Y23.28 I151.042 J-146.392
G1 X2.158 Y23.278
G3 X27.036 Y5.915 I12.439 J-8.681
G2 X98.401 Y65.791 I147.439 J-103.266
G3 X85.581 Y93.286 I-6.411 J13.748
X23.433 Y49.042 I88.895 J-190.636
G0 Z15.
M5
G0 Z15
G0 X0 Y0

M9
M30
