(MIDDLE SUPPORT HOLES )
(T1  D=3.175 CR=0. - ZMIN=-3.588 - FLAT END MILL)
G90 G94 G91.1 G40 G49 G17
G21
G0 Z5

(BORE1 2)
M5
T1 M6
S15000 M3
G54
M8
G0 X12.422 Y6.548
G43 Z15. H1
Z4.5
G1 Z2.818 F800.
G18 G2 X12.74 Z2.5 I0.318 K0.
G1 X12.898
G17 G2 X13.097 Y6.35 I0. J-0.198
X12.303 Z2.465 I-0.397 J0.
X13.097 Z2.431 I0.397 J0.
X12.303 Z2.396 I-0.397 J0.
X13.097 Z2.361 I0.397 J0.
X12.303 Z2.327 I-0.397 J0.
X13.097 Z2.292 I0.397 J0.
X12.303 Z2.258 I-0.397 J0.
X13.097 Z2.223 I0.397 J0.
X12.303 Z2.188 I-0.397 J0.
X13.097 Z2.154 I0.397 J0.
X12.303 Z2.119 I-0.397 J0.
X13.097 Z2.084 I0.397 J0.
X12.303 Z2.05 I-0.397 J0.
X13.097 Z2.015 I0.397 J0.
X12.303 Z1.98 I-0.397 J0.
X13.097 Z1.946 I0.397 J0.
X12.303 Z1.911 I-0.397 J0.
X13.097 Z1.877 I0.397 J0.
X12.303 Z1.842 I-0.397 J0.
X13.097 Z1.807 I0.397 J0.
X12.303 Z1.773 I-0.397 J0.
X13.097 Z1.738 I0.397 J0.
X12.303 Z1.703 I-0.397 J0.
X13.097 Z1.669 I0.397 J0.
X12.303 Z1.634 I-0.397 J0.
X13.097 Z1.599 I0.397 J0.
X12.303 Z1.565 I-0.397 J0.
X13.097 Z1.53 I0.397 J0.
X12.303 Z1.496 I-0.397 J0.
X13.097 Z1.461 I0.397 J0.
X12.303 Z1.426 I-0.397 J0.
X13.097 Z1.392 I0.397 J0.
X12.303 Z1.357 I-0.397 J0.
X13.097 Z1.322 I0.397 J0.
X12.303 Z1.288 I-0.397 J0.
X13.097 Z1.253 I0.397 J0.
X12.303 Z1.218 I-0.397 J0.
X13.097 Z1.184 I0.397 J0.
X12.303 Z1.149 I-0.397 J0.
X13.097 Z1.115 I0.397 J0.
X12.303 Z1.08 I-0.397 J0.
X13.097 Z1.045 I0.397 J0.
X12.303 Z1.011 I-0.397 J0.
X13.097 Z0.976 I0.397 J0.
X12.303 Z0.941 I-0.397 J0.
X13.097 Z0.907 I0.397 J0.
X12.303 Z0.872 I-0.397 J0.
X13.097 Z0.837 I0.397 J0.
X12.303 Z0.803 I-0.397 J0.
X13.097 Z0.768 I0.397 J0.
X12.303 Z0.733 I-0.397 J0.
X13.097 Z0.699 I0.397 J0.
X12.303 Z0.664 I-0.397 J0.
X13.097 Z0.63 I0.397 J0.
X12.303 Z0.595 I-0.397 J0.
X13.097 Z0.56 I0.397 J0.
X12.303 Z0.526 I-0.397 J0.
X13.097 Z0.491 I0.397 J0.
X12.303 Z0.456 I-0.397 J0.
X13.097 Z0.422 I0.397 J0.
X12.303 Z0.387 I-0.397 J0.
X13.097 Z0.352 I0.397 J0.
X12.303 Z0.318 I-0.397 J0.
X13.097 Z0.283 I0.397 J0.
X12.303 Z0.249 I-0.397 J0.
X13.097 Z0.214 I0.397 J0.
X12.303 Z0.179 I-0.397 J0.
X13.097 Z0.145 I0.397 J0.
X12.303 Z0.11 I-0.397 J0.
X13.097 Z0.075 I0.397 J0.
X12.303 Z0.041 I-0.397 J0.
X13.097 Z0.006 I0.397 J0.
X12.303 Z-0.029 I-0.397 J0.
X13.097 Z-0.063 I0.397 J0.
X12.303 Z-0.098 I-0.397 J0.
X13.097 Z-0.132 I0.397 J0.
X12.303 Z-0.167 I-0.397 J0.
X13.097 Z-0.202 I0.397 J0.
X12.303 Z-0.236 I-0.397 J0.
X13.097 Z-0.271 I0.397 J0.
X12.303 Z-0.306 I-0.397 J0.
X13.097 Z-0.34 I0.397 J0.
X12.303 Z-0.375 I-0.397 J0.
X13.097 Z-0.41 I0.397 J0.
X12.303 Z-0.444 I-0.397 J0.
X13.097 Z-0.479 I0.397 J0.
X12.303 Z-0.513 I-0.397 J0.
X13.097 Z-0.548 I0.397 J0.
X12.303 Z-0.583 I-0.397 J0.
X13.097 Z-0.617 I0.397 J0.
X12.303 Z-0.652 I-0.397 J0.
X13.097 Z-0.687 I0.397 J0.
X12.303 Z-0.721 I-0.397 J0.
X13.097 Z-0.756 I0.397 J0.
X12.303 Z-0.791 I-0.397 J0.
X13.097 Z-0.825 I0.397 J0.
X12.303 Z-0.86 I-0.397 J0.
X13.097 Z-0.894 I0.397 J0.
X12.303 Z-0.929 I-0.397 J0.
X13.097 Z-0.964 I0.397 J0.
X12.303 Z-0.998 I-0.397 J0.
X13.097 Z-1.033 I0.397 J0.
X12.303 Z-1.068 I-0.397 J0.
X13.097 Z-1.102 I0.397 J0.
X12.303 Z-1.137 I-0.397 J0.
X13.097 Z-1.172 I0.397 J0.
X12.303 Z-1.206 I-0.397 J0.
X13.097 Z-1.241 I0.397 J0.
X12.303 Z-1.275 I-0.397 J0.
X13.097 Z-1.31 I0.397 J0.
X12.303 Z-1.345 I-0.397 J0.
X13.097 Z-1.379 I0.397 J0.
X12.303 Z-1.414 I-0.397 J0.
X13.097 Z-1.449 I0.397 J0.
X12.303 Z-1.483 I-0.397 J0.
X13.097 Z-1.518 I0.397 J0.
X12.303 Z-1.553 I-0.397 J0.
X13.097 Z-1.587 I0.397 J0.
X12.303 Z-1.622 I-0.397 J0.
X13.097 Z-1.656 I0.397 J0.
X12.303 Z-1.691 I-0.397 J0.
X13.097 Z-1.726 I0.397 J0.
X12.303 Z-1.76 I-0.397 J0.
X13.097 Z-1.795 I0.397 J0.
X12.303 Z-1.83 I-0.397 J0.
X13.097 Z-1.864 I0.397 J0.
X12.303 Z-1.899 I-0.397 J0.
X13.097 Z-1.934 I0.397 J0.
X12.303 Z-1.968 I-0.397 J0.
X13.097 Z-2.003 I0.397 J0.
X12.303 Z-2.037 I-0.397 J0.
X13.097 Z-2.072 I0.397 J0.
X12.303 Z-2.107 I-0.397 J0.
X13.097 Z-2.141 I0.397 J0.
X12.303 Z-2.176 I-0.397 J0.
X13.097 Z-2.211 I0.397 J0.
X12.303 Z-2.245 I-0.397 J0.
X13.097 Z-2.28 I0.397 J0.
X12.303 Z-2.315 I-0.397 J0.
X13.097 Z-2.349 I0.397 J0.
X12.303 Z-2.384 I-0.397 J0.
X13.097 Z-2.419 I0.397 J0.
X12.303 Z-2.453 I-0.397 J0.
X13.097 Z-2.488 I0.397 J0.
X12.303 Z-2.522 I-0.397 J0.
X13.097 Z-2.557 I0.397 J0.
X12.303 Z-2.592 I-0.397 J0.
X13.097 Z-2.626 I0.397 J0.
X12.303 Z-2.661 I-0.397 J0.
X13.097 Z-2.696 I0.397 J0.
X12.303 Z-2.73 I-0.397 J0.
X13.097 Z-2.765 I0.397 J0.
X12.303 Z-2.8 I-0.397 J0.
X13.097 Z-2.834 I0.397 J0.
X12.303 Z-2.869 I-0.397 J0.
X13.097 Z-2.903 I0.397 J0.
X12.303 Z-2.938 I-0.397 J0.
X13.097 Z-2.973 I0.397 J0.
X12.303 Z-3.007 I-0.397 J0.
X13.097 Z-3.042 I0.397 J0.
X12.303 Z-3.077 I-0.397 J0.
X13.097 Z-3.111 I0.397 J0.
X12.303 Z-3.146 I-0.397 J0.
X13.097 Z-3.181 I0.397 J0.
X12.303 Z-3.215 I-0.397 J0.
X13.097 Z-3.25 I0.397 J0.
X12.303 Z-3.284 I-0.397 J0.
X13.097 Z-3.319 I0.397 J0.
X12.303 Z-3.354 I-0.397 J0.
X13.097 Z-3.388 I0.397 J0.
X12.303 Z-3.423 I-0.397 J0.
X13.097 Z-3.458 I0.397 J0.
X12.303 Z-3.492 I-0.397 J0.
X13.097 Z-3.527 I0.397 J0.
X12.303 Z-3.562 I-0.397 J0.
X12.98 Y6.631 Z-3.588 I0.397 J0.
X12.42 Y6.069 I-0.28 J-0.281
X12.98 Y6.631 I0.28 J0.281
X12.981 Y6.351 I-0.14 J-0.141
G1 X12.869 Y6.238
X12.819 Y6.188 Z-3.58
X12.771 Y6.14 Z-3.556
X12.729 Y6.098 Z-3.518
X12.693 Y6.062 Z-3.468
X12.667 Y6.035 Z-3.408
X12.65 Y6.019 Z-3.341
X12.645 Y6.013 Z-3.27
G0 Z5.
X12.422 Y31.948
Z4.5
G1 Z2.818 F800.
G18 G2 X12.74 Z2.5 I0.318 K0.
G1 X12.898
G17 G2 X13.097 Y31.75 I0. J-0.198
X12.303 Z2.465 I-0.397 J0.
X13.097 Z2.431 I0.397 J0.
X12.303 Z2.396 I-0.397 J0.
X13.097 Z2.361 I0.397 J0.
X12.303 Z2.327 I-0.397 J0.
X13.097 Z2.292 I0.397 J0.
X12.303 Z2.258 I-0.397 J0.
X13.097 Z2.223 I0.397 J0.
X12.303 Z2.188 I-0.397 J0.
X13.097 Z2.154 I0.397 J0.
X12.303 Z2.119 I-0.397 J0.
X13.097 Z2.084 I0.397 J0.
X12.303 Z2.05 I-0.397 J0.
X13.097 Z2.015 I0.397 J0.
X12.303 Z1.98 I-0.397 J0.
X13.097 Z1.946 I0.397 J0.
X12.303 Z1.911 I-0.397 J0.
X13.097 Z1.877 I0.397 J0.
X12.303 Z1.842 I-0.397 J0.
X13.097 Z1.807 I0.397 J0.
X12.303 Z1.773 I-0.397 J0.
X13.097 Z1.738 I0.397 J0.
X12.303 Z1.703 I-0.397 J0.
X13.097 Z1.669 I0.397 J0.
X12.303 Z1.634 I-0.397 J0.
X13.097 Z1.599 I0.397 J0.
X12.303 Z1.565 I-0.397 J0.
X13.097 Z1.53 I0.397 J0.
X12.303 Z1.496 I-0.397 J0.
X13.097 Z1.461 I0.397 J0.
X12.303 Z1.426 I-0.397 J0.
X13.097 Z1.392 I0.397 J0.
X12.303 Z1.357 I-0.397 J0.
X13.097 Z1.322 I0.397 J0.
X12.303 Z1.288 I-0.397 J0.
X13.097 Z1.253 I0.397 J0.
X12.303 Z1.218 I-0.397 J0.
X13.097 Z1.184 I0.397 J0.
X12.303 Z1.149 I-0.397 J0.
X13.097 Z1.115 I0.397 J0.
X12.303 Z1.08 I-0.397 J0.
X13.097 Z1.045 I0.397 J0.
X12.303 Z1.011 I-0.397 J0.
X13.097 Z0.976 I0.397 J0.
X12.303 Z0.941 I-0.397 J0.
X13.097 Z0.907 I0.397 J0.
X12.303 Z0.872 I-0.397 J0.
X13.097 Z0.837 I0.397 J0.
X12.303 Z0.803 I-0.397 J0.
X13.097 Z0.768 I0.397 J0.
X12.303 Z0.733 I-0.397 J0.
X13.097 Z0.699 I0.397 J0.
X12.303 Z0.664 I-0.397 J0.
X13.097 Z0.63 I0.397 J0.
X12.303 Z0.595 I-0.397 J0.
X13.097 Z0.56 I0.397 J0.
X12.303 Z0.526 I-0.397 J0.
X13.097 Z0.491 I0.397 J0.
X12.303 Z0.456 I-0.397 J0.
X13.097 Z0.422 I0.397 J0.
X12.303 Z0.387 I-0.397 J0.
X13.097 Z0.352 I0.397 J0.
X12.303 Z0.318 I-0.397 J0.
X13.097 Z0.283 I0.397 J0.
X12.303 Z0.249 I-0.397 J0.
X13.097 Z0.214 I0.397 J0.
X12.303 Z0.179 I-0.397 J0.
X13.097 Z0.145 I0.397 J0.
X12.303 Z0.11 I-0.397 J0.
X13.097 Z0.075 I0.397 J0.
X12.303 Z0.041 I-0.397 J0.
X13.097 Z0.006 I0.397 J0.
X12.303 Z-0.029 I-0.397 J0.
X13.097 Z-0.063 I0.397 J0.
X12.303 Z-0.098 I-0.397 J0.
X13.097 Z-0.132 I0.397 J0.
X12.303 Z-0.167 I-0.397 J0.
X13.097 Z-0.202 I0.397 J0.
X12.303 Z-0.236 I-0.397 J0.
X13.097 Z-0.271 I0.397 J0.
X12.303 Z-0.306 I-0.397 J0.
X13.097 Z-0.34 I0.397 J0.
X12.303 Z-0.375 I-0.397 J0.
X13.097 Z-0.41 I0.397 J0.
X12.303 Z-0.444 I-0.397 J0.
X13.097 Z-0.479 I0.397 J0.
X12.303 Z-0.513 I-0.397 J0.
X13.097 Z-0.548 I0.397 J0.
X12.303 Z-0.583 I-0.397 J0.
X13.097 Z-0.617 I0.397 J0.
X12.303 Z-0.652 I-0.397 J0.
X13.097 Z-0.687 I0.397 J0.
X12.303 Z-0.721 I-0.397 J0.
X13.097 Z-0.756 I0.397 J0.
X12.303 Z-0.791 I-0.397 J0.
X13.097 Z-0.825 I0.397 J0.
X12.303 Z-0.86 I-0.397 J0.
X13.097 Z-0.894 I0.397 J0.
X12.303 Z-0.929 I-0.397 J0.
X13.097 Z-0.964 I0.397 J0.
X12.303 Z-0.998 I-0.397 J0.
X13.097 Z-1.033 I0.397 J0.
X12.303 Z-1.068 I-0.397 J0.
X13.097 Z-1.102 I0.397 J0.
X12.303 Z-1.137 I-0.397 J0.
X13.097 Z-1.172 I0.397 J0.
X12.303 Z-1.206 I-0.397 J0.
X13.097 Z-1.241 I0.397 J0.
X12.303 Z-1.275 I-0.397 J0.
X13.097 Z-1.31 I0.397 J0.
X12.303 Z-1.345 I-0.397 J0.
X13.097 Z-1.379 I0.397 J0.
X12.303 Z-1.414 I-0.397 J0.
X13.097 Z-1.449 I0.397 J0.
X12.303 Z-1.483 I-0.397 J0.
X13.097 Z-1.518 I0.397 J0.
X12.303 Z-1.553 I-0.397 J0.
X13.097 Z-1.587 I0.397 J0.
X12.303 Z-1.622 I-0.397 J0.
X13.097 Z-1.656 I0.397 J0.
X12.303 Z-1.691 I-0.397 J0.
X13.097 Z-1.726 I0.397 J0.
X12.303 Z-1.76 I-0.397 J0.
X13.097 Z-1.795 I0.397 J0.
X12.303 Z-1.83 I-0.397 J0.
X13.097 Z-1.864 I0.397 J0.
X12.303 Z-1.899 I-0.397 J0.
X13.097 Z-1.934 I0.397 J0.
X12.303 Z-1.968 I-0.397 J0.
X13.097 Z-2.003 I0.397 J0.
X12.303 Z-2.037 I-0.397 J0.
X13.097 Z-2.072 I0.397 J0.
X12.303 Z-2.107 I-0.397 J0.
X13.097 Z-2.141 I0.397 J0.
X12.303 Z-2.176 I-0.397 J0.
X13.097 Z-2.211 I0.397 J0.
X12.303 Z-2.245 I-0.397 J0.
X13.097 Z-2.28 I0.397 J0.
X12.303 Z-2.315 I-0.397 J0.
X13.097 Z-2.349 I0.397 J0.
X12.303 Z-2.384 I-0.397 J0.
X13.097 Z-2.419 I0.397 J0.
X12.303 Z-2.453 I-0.397 J0.
X13.097 Z-2.488 I0.397 J0.
X12.303 Z-2.522 I-0.397 J0.
X13.097 Z-2.557 I0.397 J0.
X12.303 Z-2.592 I-0.397 J0.
X13.097 Z-2.626 I0.397 J0.
X12.303 Z-2.661 I-0.397 J0.
X13.097 Z-2.696 I0.397 J0.
X12.303 Z-2.73 I-0.397 J0.
X13.097 Z-2.765 I0.397 J0.
X12.303 Z-2.8 I-0.397 J0.
X13.097 Z-2.834 I0.397 J0.
X12.303 Z-2.869 I-0.397 J0.
X13.097 Z-2.903 I0.397 J0.
X12.303 Z-2.938 I-0.397 J0.
X13.097 Z-2.973 I0.397 J0.
X12.303 Z-3.007 I-0.397 J0.
X13.097 Z-3.042 I0.397 J0.
X12.303 Z-3.077 I-0.397 J0.
X13.097 Z-3.111 I0.397 J0.
X12.303 Z-3.146 I-0.397 J0.
X13.097 Z-3.181 I0.397 J0.
X12.303 Z-3.215 I-0.397 J0.
X13.097 Z-3.25 I0.397 J0.
X12.303 Z-3.284 I-0.397 J0.
X13.097 Z-3.319 I0.397 J0.
X12.303 Z-3.354 I-0.397 J0.
X13.097 Z-3.388 I0.397 J0.
X12.303 Z-3.423 I-0.397 J0.
X13.097 Z-3.458 I0.397 J0.
X12.303 Z-3.492 I-0.397 J0.
X13.097 Z-3.527 I0.397 J0.
X12.303 Z-3.562 I-0.397 J0.
X12.98 Y32.031 Z-3.588 I0.397 J0.
X12.42 Y31.469 I-0.28 J-0.281
X12.98 Y32.031 I0.28 J0.281
X12.981 Y31.751 I-0.14 J-0.141
G1 X12.869 Y31.638
X12.819 Y31.588 Z-3.58
X12.771 Y31.54 Z-3.556
X12.729 Y31.498 Z-3.518
X12.693 Y31.462 Z-3.468
X12.667 Y31.435 Z-3.408
X12.65 Y31.419 Z-3.341
X12.645 Y31.413 Z-3.27
G0 Z5.
X13.844 Y162.242
Z4.5
G1 Z2.818 F800.
G18 G2 X14.161 Z2.5 I0.318 K0.
G1 X14.32
G17 G2 X14.637 Y161.925 I0. J-0.317
X12.813 Z2.456 I-0.912 J0.
X14.637 Z2.413 I0.912 J0.
X12.813 Z2.369 I-0.912 J0.
X14.637 Z2.325 I0.912 J0.
X12.813 Z2.282 I-0.912 J0.
X14.637 Z2.238 I0.912 J0.
X12.813 Z2.195 I-0.912 J0.
X14.637 Z2.151 I0.912 J0.
X12.813 Z2.107 I-0.912 J0.
X14.637 Z2.064 I0.912 J0.
X12.813 Z2.02 I-0.912 J0.
X14.637 Z1.976 I0.912 J0.
X12.813 Z1.933 I-0.912 J0.
X14.637 Z1.889 I0.912 J0.
X12.813 Z1.845 I-0.912 J0.
X14.637 Z1.802 I0.912 J0.
X12.813 Z1.758 I-0.912 J0.
X14.637 Z1.715 I0.912 J0.
X12.813 Z1.671 I-0.912 J0.
X14.637 Z1.627 I0.912 J0.
X12.813 Z1.584 I-0.912 J0.
X14.637 Z1.54 I0.912 J0.
X12.813 Z1.496 I-0.912 J0.
X14.637 Z1.453 I0.912 J0.
X12.813 Z1.409 I-0.912 J0.
X14.637 Z1.365 I0.912 J0.
X12.813 Z1.322 I-0.912 J0.
X14.637 Z1.278 I0.912 J0.
X12.813 Z1.235 I-0.912 J0.
X14.637 Z1.191 I0.912 J0.
X12.813 Z1.147 I-0.912 J0.
X14.637 Z1.104 I0.912 J0.
X12.813 Z1.06 I-0.912 J0.
X14.637 Z1.016 I0.912 J0.
X12.813 Z0.973 I-0.912 J0.
X14.637 Z0.929 I0.912 J0.
X12.813 Z0.885 I-0.912 J0.
X14.637 Z0.842 I0.912 J0.
X12.813 Z0.798 I-0.912 J0.
X14.637 Z0.754 I0.912 J0.
X12.813 Z0.711 I-0.912 J0.
X14.637 Z0.667 I0.912 J0.
X12.813 Z0.624 I-0.912 J0.
X14.637 Z0.58 I0.912 J0.
X12.813 Z0.536 I-0.912 J0.
X14.637 Z0.493 I0.912 J0.
X12.813 Z0.449 I-0.912 J0.
X14.637 Z0.405 I0.912 J0.
X12.813 Z0.362 I-0.912 J0.
X14.637 Z0.318 I0.912 J0.
X12.813 Z0.274 I-0.912 J0.
X14.637 Z0.231 I0.912 J0.
X12.813 Z0.187 I-0.912 J0.
X14.637 Z0.144 I0.912 J0.
X12.813 Z0.1 I-0.912 J0.
X14.637 Z0.056 I0.912 J0.
X12.813 Z0.013 I-0.912 J0.
X14.637 Z-0.031 I0.912 J0.
X12.813 Z-0.075 I-0.912 J0.
X14.637 Z-0.118 I0.912 J0.
X12.813 Z-0.162 I-0.912 J0.
X14.637 Z-0.206 I0.912 J0.
X12.813 Z-0.249 I-0.912 J0.
X14.637 Z-0.293 I0.912 J0.
X12.813 Z-0.336 I-0.912 J0.
X14.637 Z-0.38 I0.912 J0.
X12.813 Z-0.424 I-0.912 J0.
X14.637 Z-0.467 I0.912 J0.
X12.813 Z-0.511 I-0.912 J0.
X14.637 Z-0.555 I0.912 J0.
X12.813 Z-0.598 I-0.912 J0.
X14.637 Z-0.642 I0.912 J0.
X12.813 Z-0.686 I-0.912 J0.
X14.637 Z-0.729 I0.912 J0.
X12.813 Z-0.773 I-0.912 J0.
X14.637 Z-0.816 I0.912 J0.
X12.813 Z-0.86 I-0.912 J0.
X14.637 Z-0.904 I0.912 J0.
X12.813 Z-0.947 I-0.912 J0.
X14.637 Z-0.991 I0.912 J0.
X12.813 Z-1.035 I-0.912 J0.
X14.637 Z-1.078 I0.912 J0.
X12.813 Z-1.122 I-0.912 J0.
X14.637 Z-1.166 I0.912 J0.
X12.813 Z-1.209 I-0.912 J0.
X14.637 Z-1.253 I0.912 J0.
X12.813 Z-1.296 I-0.912 J0.
X14.637 Z-1.34 I0.912 J0.
X12.813 Z-1.384 I-0.912 J0.
X14.637 Z-1.427 I0.912 J0.
X12.813 Z-1.471 I-0.912 J0.
X14.637 Z-1.515 I0.912 J0.
X12.813 Z-1.558 I-0.912 J0.
X14.637 Z-1.602 I0.912 J0.
X12.813 Z-1.646 I-0.912 J0.
X14.637 Z-1.689 I0.912 J0.
X12.813 Z-1.733 I-0.912 J0.
X14.637 Z-1.776 I0.912 J0.
X12.813 Z-1.82 I-0.912 J0.
X14.637 Z-1.864 I0.912 J0.
X12.813 Z-1.907 I-0.912 J0.
X14.637 Z-1.951 I0.912 J0.
X12.813 Z-1.995 I-0.912 J0.
X14.637 Z-2.038 I0.912 J0.
X12.813 Z-2.082 I-0.912 J0.
X14.637 Z-2.126 I0.912 J0.
X12.813 Z-2.169 I-0.912 J0.
X14.637 Z-2.213 I0.912 J0.
X12.813 Z-2.257 I-0.912 J0.
X14.637 Z-2.3 I0.912 J0.
X12.813 Z-2.344 I-0.912 J0.
X14.637 Z-2.387 I0.912 J0.
X12.813 Z-2.431 I-0.912 J0.
X14.637 Z-2.475 I0.912 J0.
X12.813 Z-2.518 I-0.912 J0.
X14.637 Z-2.562 I0.912 J0.
X12.813 Z-2.606 I-0.912 J0.
X14.637 Z-2.649 I0.912 J0.
X12.813 Z-2.693 I-0.912 J0.
X14.637 Z-2.737 I0.912 J0.
X12.813 Z-2.78 I-0.912 J0.
X14.637 Z-2.824 I0.912 J0.
X12.813 Z-2.867 I-0.912 J0.
X14.637 Z-2.911 I0.912 J0.
X12.813 Z-2.955 I-0.912 J0.
X14.637 Z-2.998 I0.912 J0.
X12.813 Z-3.042 I-0.912 J0.
X14.637 Z-3.086 I0.912 J0.
X12.813 Z-3.129 I-0.912 J0.
X14.637 Z-3.173 I0.912 J0.
X12.813 Z-3.217 I-0.912 J0.
X14.637 Z-3.26 I0.912 J0.
X12.813 Z-3.304 I-0.912 J0.
X14.637 Z-3.347 I0.912 J0.
X12.813 Z-3.391 I-0.912 J0.
X14.637 Z-3.435 I0.912 J0.
X12.813 Z-3.478 I-0.912 J0.
X14.637 Z-3.522 I0.912 J0.
X12.813 Z-3.566 I-0.912 J0.
X13.728 Y162.837 Z-3.588 I0.912 J0.
X13.722 Y161.013 I-0.003 J-0.912
X13.728 Y162.837 I0.003 J0.912
X14.044 Y162.519 I-0.001 J-0.317
G1 Y162.36
Y162.29 Z-3.58
X14.043 Y162.222 Z-3.556
Y162.162 Z-3.518
Y162.112 Z-3.468
Y162.074 Z-3.408
Y162.051 Z-3.341
Y162.043 Z-3.27
G0 Z15.
M5
G0 Z5
G0 X0 Y0

M9
M30
