(1001)
(T1  D=6.35 CR=0. - ZMIN=-4.175 - FLAT END MILL)
G90 G94 G91.1 G40 G49 G17
G21
G0 Z15

(2D CONTOUR1)
M5
T1 M6
S15000 M3
G54
M8
G0 X21.907 Y295.153
G43 Z16. H1
Z6.
G1 Z4.135 F1600.
G19 G2 Y294.518 Z3.5 J-0.635 K0.
G1 Y293.883
G17 G2 X21.272 Y293.248 I-0.635 J0.
G1 X6.385 Z3.24
G3 X3.21 Y290.073 Z3.153 I0. J-3.175
G1 Y152.4 Z0.75
Y79.023
G3 X118.391 Y31.314 I67.471 J0.
G1 X169.872 Y82.795
G3 X170.769 Y84.586 I-2.245 J2.245
G1 X194.877 Y251.451
G3 X193.556 Y254.506 I-3.142 J0.454
X70.681 Y293.248 I-122.874 J-175.483
G1 X6.385
G3 X3.21 Y290.073 I0. J-3.175
G1 Y152.4
Y138.077 Z0.5
Y79.023
G3 X118.391 Y31.314 I67.471 J0.
G1 X169.872 Y82.795
G3 X170.769 Y84.586 I-2.245 J2.245
G1 X194.877 Y251.451
G3 X193.556 Y254.506 I-3.142 J0.454
X70.681 Y293.248 I-122.874 J-175.483
G1 X6.385
G3 X3.21 Y290.073 I0. J-3.175
G1 Y152.4
Y138.077
Y123.755 Z0.25
Y79.023
G3 X118.391 Y31.314 I67.471 J0.
G1 X169.872 Y82.795
G3 X170.769 Y84.586 I-2.245 J2.245
G1 X194.877 Y251.451
G3 X193.556 Y254.506 I-3.142 J0.454
X70.681 Y293.248 I-122.874 J-175.483
G1 X6.385
G3 X3.21 Y290.073 I0. J-3.175
G1 Y138.077
Y123.755
Y109.432 Z0.
Y79.023
G3 X118.391 Y31.314 I67.471 J0.
G1 X169.872 Y82.795
G3 X170.769 Y84.586 I-2.245 J2.245
G1 X194.877 Y251.451
G3 X193.556 Y254.506 I-3.142 J0.454
X70.681 Y293.248 I-122.874 J-175.483
G1 X6.385
G3 X3.21 Y290.073 I0. J-3.175
G1 Y123.755
Y109.432
Y95.11 Z-0.25
Y79.023
G3 X118.391 Y31.314 I67.471 J0.
G1 X169.872 Y82.795
G3 X170.769 Y84.586 I-2.245 J2.245
G1 X194.877 Y251.451
G3 X193.556 Y254.506 I-3.142 J0.454
X70.681 Y293.248 I-122.874 J-175.483
G1 X6.385
G3 X3.21 Y290.073 I0. J-3.175
G1 Y109.432
Y95.11
Y80.787 Z-0.5
Y79.023
G3 X118.391 Y31.314 I67.471 J0.
G1 X169.872 Y82.795
G3 X170.769 Y84.586 I-2.245 J2.245
G1 X194.877 Y251.451
G3 X193.556 Y254.506 I-3.142 J0.454
X70.681 Y293.248 I-122.874 J-175.483
G1 X6.385
G3 X3.21 Y290.073 I0. J-3.175
G1 Y95.11
Y80.787
Y79.023 Z-0.531
G3 X4.376 Y66.537 Z-0.75 I67.471 J0.
X118.391 Y31.314 I66.306 J12.486
G1 X169.872 Y82.795
G3 X170.769 Y84.586 I-2.245 J2.245
G1 X194.877 Y251.451
G3 X193.556 Y254.506 I-3.142 J0.454
X70.681 Y293.248 I-122.874 J-175.483
G1 X6.385
G3 X3.21 Y290.073 I0. J-3.175
G1 Y80.787
Y79.023
G3 X4.376 Y66.537 I67.471 J0.
X8.494 Y52.848 Z-1. I66.306 J12.486
X118.391 Y31.314 I62.187 J26.175
G1 X169.872 Y82.795
G3 X170.769 Y84.586 I-2.245 J2.245
G1 X194.877 Y251.451
G3 X193.556 Y254.506 I-3.142 J0.454
X70.681 Y293.248 I-122.874 J-175.483
G1 X6.385
G3 X3.21 Y290.073 I0. J-3.175
G1 Y79.023
G3 X8.494 Y52.848 I67.471 J0.
X15.405 Y40.333 Z-1.25 I62.187 J26.175
X118.391 Y31.314 I55.276 J38.69
G1 X169.872 Y82.795
G3 X170.769 Y84.586 I-2.245 J2.245
G1 X194.877 Y251.451
G3 X193.556 Y254.506 I-3.142 J0.454
X70.681 Y293.248 I-122.874 J-175.483
G1 X6.385
G3 X3.21 Y290.073 I0. J-3.175
G1 Y79.023
G3 X15.405 Y40.333 I67.471 J0.
X24.797 Y29.556 Z-1.5 I55.276 J38.69
X118.391 Y31.314 I45.884 J49.467
G1 X169.872 Y82.795
G3 X170.769 Y84.586 I-2.245 J2.245
G1 X194.877 Y251.451
G3 X193.556 Y254.506 I-3.142 J0.454
X70.681 Y293.248 I-122.874 J-175.483
G1 X6.385
G3 X3.21 Y290.073 I0. J-3.175
G1 Y79.023
G3 X24.797 Y29.556 I67.471 J0.
X36.249 Y20.999 Z-1.75 I45.884 J49.467
X118.391 Y31.314 I34.433 J58.024
G1 X169.872 Y82.795
G3 X170.769 Y84.586 I-2.245 J2.245
G1 X194.877 Y251.451
G3 X193.556 Y254.506 I-3.142 J0.454
X70.681 Y293.248 I-122.874 J-175.483
G1 X6.385
G3 X3.21 Y290.073 I0. J-3.175
G1 Y79.023
G3 X36.249 Y20.999 I67.471 J0.
X49.247 Y15.047 Z-2. I34.433 J58.024
X118.391 Y31.314 I21.435 J63.976
G1 X169.872 Y82.795
G3 X170.769 Y84.586 I-2.245 J2.245
G1 X194.877 Y251.451
G3 X193.556 Y254.506 I-3.142 J0.454
X70.681 Y293.248 I-122.874 J-175.483
G1 X6.385
G3 X3.21 Y290.073 I0. J-3.175
G1 Y79.023
G3 X49.247 Y15.047 I67.471 J0.
X63.207 Y11.967 Z-2.25 I21.435 J63.976
X118.391 Y31.314 I7.475 J67.056
G1 X169.872 Y82.795
G3 X170.769 Y84.586 I-2.245 J2.245
G1 X194.877 Y251.451
G3 X193.556 Y254.506 I-3.142 J0.454
X70.681 Y293.248 I-122.874 J-175.483
G1 X6.385
G3 X3.21 Y290.073 I0. J-3.175
G1 Y79.023
G3 X63.207 Y11.967 I67.471 J0.
X77.502 Y11.897 Z-2.5 I7.475 J67.056
X118.391 Y31.314 I-6.82 J67.126
G1 X169.872 Y82.795
G3 X170.769 Y84.586 I-2.245 J2.245
G1 X194.877 Y251.451
G3 X193.556 Y254.506 I-3.142 J0.454
X70.681 Y293.248 I-122.874 J-175.483
G1 X6.385
G3 X3.21 Y290.073 I0. J-3.175
G1 Y79.023
G3 X77.502 Y11.897 I67.471 J0.
X91.491 Y14.841 Z-2.75 I-6.82 J67.126
X118.391 Y31.314 I-20.81 J64.182
G1 X169.872 Y82.795
G3 X170.769 Y84.586 I-2.245 J2.245
G1 X194.877 Y251.451
G3 X193.556 Y254.506 I-3.142 J0.454
X70.681 Y293.248 I-122.874 J-175.483
G1 X6.385
G3 X3.21 Y290.073 I0. J-3.175
G1 Y79.023
G3 X91.491 Y14.841 I67.471 J0.
X104.546 Y20.666 Z-3. I-20.81 J64.182
X118.391 Y31.314 I-33.865 J58.357
G1 X169.872 Y82.795
G3 X170.769 Y84.586 I-2.245 J2.245
G1 X194.877 Y251.451
G3 X193.556 Y254.506 I-3.142 J0.454
X70.681 Y293.248 I-122.874 J-175.483
G1 X6.385
G3 X3.21 Y290.073 I0. J-3.175
G1 Y79.023
G3 X104.546 Y20.666 I67.471 J0.
X116.081 Y29.111 Z-3.25 I-33.865 J58.357
X118.391 Y31.314 I-45.4 J49.913
G1 X169.872 Y82.795
G3 X170.769 Y84.586 I-2.245 J2.245
G1 X194.877 Y251.451
G3 X193.556 Y254.506 I-3.142 J0.454
X70.681 Y293.248 I-122.874 J-175.483
G1 X6.385
G3 X3.21 Y290.073 I0. J-3.175
G1 Y79.023
G3 X116.081 Y29.111 I67.471 J0.
X118.391 Y31.314 Z-3.306 I-45.4 J49.913
G1 X126.261 Y39.184 Z-3.5
X169.872 Y82.795
G3 X170.769 Y84.586 I-2.245 J2.245
G1 X194.877 Y251.451
G3 X193.556 Y254.506 I-3.142 J0.454
X70.681 Y293.248 I-122.874 J-175.483
G1 X6.385
G3 X3.21 Y290.073 I0. J-3.175
G1 Y79.023
G3 X118.391 Y31.314 I67.471 J0.
G1 X126.261 Y39.184
X136.389 Y49.311 Z-3.75
X169.872 Y82.795
G3 X170.769 Y84.586 I-2.245 J2.245
G1 X194.877 Y251.451
G3 X193.556 Y254.506 I-3.142 J0.454
X70.681 Y293.248 I-122.874 J-175.483
G1 X6.385
G3 X3.21 Y290.073 I0. J-3.175
G1 Y79.023
G3 X118.391 Y31.314 I67.471 J0.
G1 X136.389 Y49.311
X146.516 Y59.439 Z-4.
X169.872 Y82.795
G3 X170.769 Y84.586 I-2.245 J2.245
G1 X194.877 Y251.451
G3 X193.556 Y254.506 I-3.142 J0.454
X70.681 Y293.248 I-122.874 J-175.483
G1 X6.385
G3 X3.21 Y290.073 I0. J-3.175
G1 Y79.023
G3 X118.391 Y31.314 I67.471 J0.
G1 X136.389 Y49.311
X146.516 Y59.439
X153.606 Y66.528 Z-4.175
X169.872 Y82.795
G3 X170.769 Y84.586 I-2.245 J2.245
G1 X194.877 Y251.451
G3 X193.556 Y254.506 I-3.142 J0.454
X70.681 Y293.248 I-122.874 J-175.483
G1 X6.385
G3 X3.21 Y290.073 I0. J-3.175
G1 Y79.023
G3 X118.391 Y31.314 I67.471 J0.
G1 X146.516 Y59.439
X153.606 Y66.528
G2 X154.504 I0.449 J-0.449
G1 X154.953 Y66.079
X155.023 Y66.009 Z-4.167
X155.091 Y65.94 Z-4.144
X155.156 Y65.875 Z-4.106
X155.216 Y65.815 Z-4.054
X155.27 Y65.762 Z-3.989
X155.316 Y65.716 Z-3.913
X155.353 Y65.679 Z-3.828
X155.38 Y65.652 Z-3.736
X155.396 Y65.636 Z-3.639
X155.402 Y65.63 Z-3.54
G0 Z16.
M5
G0 Z15
G0 X0 Y0

M9
M30
