(SHOOTER POCKETS )
(T1  D=3.175 CR=0. - ZMIN=-5.675 - FLAT END MILL)
G90 G94 G91.1 G40 G49 G17
G21
G0 Z15

(2D POCKET1)
M5
T1 M6
S15000 M3
G54
M8
G0 X137.053 Y137.747
G43 Z16. H1
Z6.
G1 Z3.817 F1600.
X137.061 Y137.769 Z3.697
X137.087 Y137.831 Z3.595
X137.13 Y137.923 Z3.526
X137.189 Y138.027 Z3.5
G2 X139.749 Y136.431 Z3.417 I1.28 J-0.798
X137.189 Y138.027 Z3.335 I-1.28 J0.798
X139.749 Y136.431 Z3.252 I1.28 J-0.798
X137.189 Y138.027 Z3.169 I-1.28 J0.798
X139.749 Y136.431 Z3.086 I1.28 J-0.798
X137.189 Y138.027 Z3.004 I-1.28 J0.798
X139.749 Y136.431 Z2.921 I1.28 J-0.798
X137.189 Y138.027 Z2.838 I-1.28 J0.798
X139.749 Y136.431 Z2.756 I1.28 J-0.798
X137.189 Y138.027 Z2.673 I-1.28 J0.798
X139.749 Y136.431 Z2.59 I1.28 J-0.798
X137.189 Y138.027 Z2.508 I-1.28 J0.798
X139.749 Y136.431 Z2.425 I1.28 J-0.798
X137.189 Y138.027 Z2.342 I-1.28 J0.798
X139.749 Y136.431 Z2.259 I1.28 J-0.798
X137.189 Y138.027 Z2.177 I-1.28 J0.798
X139.749 Y136.431 Z2.094 I1.28 J-0.798
X137.189 Y138.027 Z2.011 I-1.28 J0.798
X139.749 Y136.431 Z1.929 I1.28 J-0.798
X137.189 Y138.027 Z1.846 I-1.28 J0.798
X139.749 Y136.431 Z1.763 I1.28 J-0.798
X137.189 Y138.027 Z1.681 I-1.28 J0.798
X139.749 Y136.431 Z1.598 I1.28 J-0.798
X137.189 Y138.027 Z1.515 I-1.28 J0.798
X139.749 Y136.431 Z1.432 I1.28 J-0.798
X137.189 Y138.027 Z1.35 I-1.28 J0.798
X139.749 Y136.431 Z1.267 I1.28 J-0.798
X137.189 Y138.027 Z1.184 I-1.28 J0.798
X139.749 Y136.431 Z1.102 I1.28 J-0.798
X137.189 Y138.027 Z1.019 I-1.28 J0.798
X139.749 Y136.431 Z0.936 I1.28 J-0.798
X137.189 Y138.027 Z0.854 I-1.28 J0.798
X139.749 Y136.431 Z0.771 I1.28 J-0.798
X137.189 Y138.027 Z0.688 I-1.28 J0.798
X139.749 Y136.431 Z0.605 I1.28 J-0.798
X137.189 Y138.027 Z0.523 I-1.28 J0.798
X139.749 Y136.431 Z0.44 I1.28 J-0.798
X137.189 Y138.027 Z0.357 I-1.28 J0.798
X139.749 Y136.431 Z0.275 I1.28 J-0.798
X137.189 Y138.027 Z0.192 I-1.28 J0.798
X139.749 Y136.431 Z0.109 I1.28 J-0.798
X137.189 Y138.027 Z0.027 I-1.28 J0.798
X138.464 Y138.737 Z0. I1.28 J-0.798
X138.736 Y138.466 I0. J-0.271
G1 Y138.465
G2 X138.464 Y138.194 I-0.271 J0.
X138.192 Y138.465 I0. J0.271
X138.464 Y138.737 I0.271 J0.
G3 X139.941 Y139.463 I0. J1.864
G2 X141.544 Y139.091 I0.717 J-0.552
X138.464 Y135.323 I-3.08 J-0.626
X135.321 Y138.466 I0. J3.143
X138.464 Y141.608 I3.143 J0.
X141.544 Y139.091 I0. J-3.143
G3 X142.964 Y137.468 I2.135 J0.434
G2 X143.718 Y135.447 I-0.46 J-1.323
X138.464 Y132.407 I-5.254 J3.018
X132.405 Y138.466 I0. J6.059
X138.464 Y144.524 I6.059 J0.
X144.523 Y138.465 I0. J-6.059
X143.718 Y135.447 I-6.059 J0.
G3 X143.762 Y133.094 I1.984 J-1.14
G2 X143.23 Y130.802 I-1.409 J-0.881
X138.464 Y129.441 I-4.766 J7.664
X129.439 Y138.465 I0. J9.025
G1 Y138.466
G2 X138.464 Y147.49 I9.025 J0.
X147.49 Y138.465 I0. J-9.025
X143.23 Y130.802 I-9.025 J0.
X142.944 Y130.885 I-0.106 J0.17
G1 X139.046 Y139.038
G3 X138.673 Y138.894 I-0.18 J-0.086
G2 X135.782 Y138.036 Z-0.083 I-1.446 J-0.429
X138.673 Y138.894 Z-0.165 I1.446 J0.429
X135.782 Y138.036 Z-0.248 I-1.446 J-0.429
X138.673 Y138.894 Z-0.331 I1.446 J0.429
X135.782 Y138.036 Z-0.414 I-1.446 J-0.429
X138.673 Y138.894 Z-0.496 I1.446 J0.429
X135.782 Y138.036 Z-0.579 I-1.446 J-0.429
X138.673 Y138.894 Z-0.662 I1.446 J0.429
X135.782 Y138.036 Z-0.744 I-1.446 J-0.429
X138.673 Y138.894 Z-0.827 I1.446 J0.429
X135.782 Y138.036 Z-0.91 I-1.446 J-0.429
X137.011 Y139.958 Z-0.955 I1.446 J0.429
X138.736 Y138.466 Z-1. I0.217 J-1.492
G1 Y138.465
G2 X138.464 Y138.194 I-0.271 J0.
X138.192 Y138.465 I0. J0.271
X138.464 Y138.737 I0.271 J0.
X138.736 Y138.466 I0. J-0.271
G3 X139.462 Y136.989 I1.865 J0.
G2 X139.09 Y135.386 I-0.552 J-0.716
X138.464 Y135.323 I-0.625 J3.08
X135.321 Y138.466 I0. J3.143
X138.464 Y141.608 I3.143 J0.
X141.607 Y138.465 I0. J-3.143
X139.09 Y135.386 I-3.143 J0.
G3 X137.466 Y133.967 I0.433 J-2.135
G2 X135.445 Y133.212 I-1.323 J0.46
X132.405 Y138.466 I3.019 J5.254
X138.464 Y144.524 I6.059 J0.
X144.523 Y138.465 I0. J-6.059
X138.464 Y132.407 I-6.059 J0.
X135.445 Y133.212 I0. J6.059
G3 X133.092 Y133.169 I-1.14 J-1.984
G2 X130.799 Y133.7 I-0.881 J1.409
X138.464 Y147.49 I7.665 J4.765
X147.49 Y138.465 I0. J-9.025
X138.464 Y129.441 I-9.025 J0.
X130.799 Y133.7 I0. J9.025
X130.859 Y133.973 I0.17 J0.106
G1 X137.983 Y138.649
X138.008 Y138.663
X138.035 Y138.673
G2 X138.903 Y135.784 Z-1.083 I0.434 J-1.444
X138.035 Y138.673 Z-1.165 I-0.434 J1.444
X138.903 Y135.784 Z-1.248 I0.434 J-1.444
X138.035 Y138.673 Z-1.331 I-0.434 J1.444
X138.903 Y135.784 Z-1.414 I0.434 J-1.444
X138.035 Y138.673 Z-1.496 I-0.434 J1.444
X138.903 Y135.784 Z-1.579 I0.434 J-1.444
X138.035 Y138.673 Z-1.662 I-0.434 J1.444
X138.903 Y135.784 Z-1.744 I0.434 J-1.444
X138.035 Y138.673 Z-1.827 I-0.434 J1.444
X138.903 Y135.784 Z-1.91 I0.434 J-1.444
X136.977 Y137.006 Z-1.955 I-0.434 J1.444
X138.464 Y138.737 Z-2. I1.492 J0.222
X138.736 Y138.466 I0. J-0.271
G1 Y138.465
G2 X138.464 Y138.194 I-0.271 J0.
X138.192 Y138.465 I0. J0.271
X138.464 Y138.737 I0.271 J0.
G3 X139.941 Y139.463 I0. J1.864
G2 X141.544 Y139.091 I0.717 J-0.552
X138.464 Y135.323 I-3.08 J-0.626
X135.321 Y138.466 I0. J3.143
X138.464 Y141.608 I3.143 J0.
X141.544 Y139.091 I0. J-3.143
G3 X142.964 Y137.468 I2.135 J0.434
G2 X143.718 Y135.447 I-0.46 J-1.323
X138.464 Y132.407 I-5.254 J3.018
X132.405 Y138.466 I0. J6.059
X138.464 Y144.524 I6.059 J0.
X144.523 Y138.465 I0. J-6.059
X143.718 Y135.447 I-6.059 J0.
G3 X143.762 Y133.094 I1.984 J-1.14
G2 X143.23 Y130.802 I-1.409 J-0.881
X138.464 Y129.441 I-4.766 J7.664
X129.439 Y138.465 I0. J9.025
G1 Y138.466
G2 X138.464 Y147.49 I9.025 J0.
X147.49 Y138.465 I0. J-9.025
X143.23 Y130.802 I-9.025 J0.
X142.944 Y130.885 I-0.106 J0.17
G1 X139.046 Y139.038
G3 X138.673 Y138.894 I-0.18 J-0.086
G2 X135.782 Y138.036 Z-2.083 I-1.446 J-0.429
X138.673 Y138.894 Z-2.165 I1.446 J0.429
X135.782 Y138.036 Z-2.248 I-1.446 J-0.429
X138.673 Y138.894 Z-2.331 I1.446 J0.429
X135.782 Y138.036 Z-2.414 I-1.446 J-0.429
X138.673 Y138.894 Z-2.496 I1.446 J0.429
X135.782 Y138.036 Z-2.579 I-1.446 J-0.429
X138.673 Y138.894 Z-2.662 I1.446 J0.429
X135.782 Y138.036 Z-2.744 I-1.446 J-0.429
X138.673 Y138.894 Z-2.827 I1.446 J0.429
X135.782 Y138.036 Z-2.91 I-1.446 J-0.429
X137.011 Y139.958 Z-2.955 I1.446 J0.429
X138.736 Y138.466 Z-3. I0.217 J-1.492
G1 Y138.465
G2 X138.464 Y138.194 I-0.271 J0.
X138.192 Y138.465 I0. J0.271
X138.464 Y138.737 I0.271 J0.
X138.736 Y138.466 I0. J-0.271
G3 X139.462 Y136.989 I1.865 J0.
G2 X139.09 Y135.386 I-0.552 J-0.716
X138.464 Y135.323 I-0.625 J3.08
X135.321 Y138.466 I0. J3.143
X138.464 Y141.608 I3.143 J0.
X141.607 Y138.465 I0. J-3.143
X139.09 Y135.386 I-3.143 J0.
G3 X137.466 Y133.967 I0.433 J-2.135
G2 X135.445 Y133.212 I-1.323 J0.46
X132.405 Y138.466 I3.019 J5.254
X138.464 Y144.524 I6.059 J0.
X144.523 Y138.465 I0. J-6.059
X138.464 Y132.407 I-6.059 J0.
X135.445 Y133.212 I0. J6.059
G3 X133.092 Y133.169 I-1.14 J-1.984
G2 X130.799 Y133.7 I-0.881 J1.409
X138.464 Y147.49 I7.665 J4.765
X147.49 Y138.465 I0. J-9.025
X138.464 Y129.441 I-9.025 J0.
X130.799 Y133.7 I0. J9.025
X130.859 Y133.973 I0.17 J0.106
G1 X137.983 Y138.649
X138.008 Y138.663
X138.035 Y138.673
G2 X138.903 Y135.784 Z-3.083 I0.434 J-1.444
X138.035 Y138.673 Z-3.165 I-0.434 J1.444
X138.903 Y135.784 Z-3.248 I0.434 J-1.444
X138.035 Y138.673 Z-3.331 I-0.434 J1.444
X138.903 Y135.784 Z-3.414 I0.434 J-1.444
X138.035 Y138.673 Z-3.496 I-0.434 J1.444
X138.903 Y135.784 Z-3.579 I0.434 J-1.444
X138.035 Y138.673 Z-3.662 I-0.434 J1.444
X138.903 Y135.784 Z-3.744 I0.434 J-1.444
X138.035 Y138.673 Z-3.827 I-0.434 J1.444
X138.903 Y135.784 Z-3.91 I0.434 J-1.444
X136.977 Y137.006 Z-3.955 I-0.434 J1.444
X138.464 Y138.737 Z-4. I1.492 J0.222
X138.736 Y138.466 I0. J-0.271
G1 Y138.465
G2 X138.464 Y138.194 I-0.271 J0.
X138.192 Y138.465 I0. J0.271
X138.464 Y138.737 I0.271 J0.
G3 X139.941 Y139.463 I0. J1.864
G2 X141.544 Y139.091 I0.717 J-0.552
X138.464 Y135.323 I-3.08 J-0.626
X135.321 Y138.466 I0. J3.143
X138.464 Y141.608 I3.143 J0.
X141.544 Y139.091 I0. J-3.143
G3 X142.964 Y137.468 I2.135 J0.434
G2 X143.718 Y135.447 I-0.46 J-1.323
X138.464 Y132.407 I-5.254 J3.018
X132.405 Y138.466 I0. J6.059
X138.464 Y144.524 I6.059 J0.
X144.523 Y138.465 I0. J-6.059
X143.718 Y135.447 I-6.059 J0.
G3 X143.762 Y133.094 I1.984 J-1.14
G2 X143.23 Y130.802 I-1.409 J-0.881
X138.464 Y129.441 I-4.766 J7.664
X129.439 Y138.465 I0. J9.025
G1 Y138.466
G2 X138.464 Y147.49 I9.025 J0.
X147.49 Y138.465 I0. J-9.025
X143.23 Y130.802 I-9.025 J0.
X142.944 Y130.885 I-0.106 J0.17
G1 X139.046 Y139.038
G3 X138.673 Y138.894 I-0.18 J-0.086
G2 X135.782 Y138.036 Z-4.083 I-1.446 J-0.429
X138.673 Y138.894 Z-4.165 I1.446 J0.429
X135.782 Y138.036 Z-4.248 I-1.446 J-0.429
X138.673 Y138.894 Z-4.331 I1.446 J0.429
X135.782 Y138.036 Z-4.414 I-1.446 J-0.429
X138.673 Y138.894 Z-4.496 I1.446 J0.429
X135.782 Y138.036 Z-4.579 I-1.446 J-0.429
X138.673 Y138.894 Z-4.662 I1.446 J0.429
X135.782 Y138.036 Z-4.744 I-1.446 J-0.429
X138.673 Y138.894 Z-4.827 I1.446 J0.429
X135.782 Y138.036 Z-4.91 I-1.446 J-0.429
X137.011 Y139.958 Z-4.955 I1.446 J0.429
X138.736 Y138.466 Z-5. I0.217 J-1.492
G1 Y138.465
G2 X138.464 Y138.194 I-0.271 J0.
X138.192 Y138.465 I0. J0.271
X138.464 Y138.737 I0.271 J0.
X138.736 Y138.466 I0. J-0.271
G3 X139.462 Y136.989 I1.865 J0.
G2 X139.09 Y135.386 I-0.552 J-0.716
X138.464 Y135.323 I-0.625 J3.08
X135.321 Y138.466 I0. J3.143
X138.464 Y141.608 I3.143 J0.
X141.607 Y138.465 I0. J-3.143
X139.09 Y135.386 I-3.143 J0.
G3 X137.466 Y133.967 I0.433 J-2.135
G2 X135.445 Y133.212 I-1.323 J0.46
X132.405 Y138.466 I3.019 J5.254
X138.464 Y144.524 I6.059 J0.
X144.523 Y138.465 I0. J-6.059
X138.464 Y132.407 I-6.059 J0.
X135.445 Y133.212 I0. J6.059
G3 X133.092 Y133.169 I-1.14 J-1.984
G2 X130.799 Y133.7 I-0.881 J1.409
X138.464 Y147.49 I7.665 J4.765
X147.49 Y138.465 I0. J-9.025
X138.464 Y129.441 I-9.025 J0.
X130.799 Y133.7 I0. J9.025
X130.858 Y133.973 I0.17 J0.106
G1 X137.729 Y138.543
G2 X139.209 Y135.914 Z-5.083 I0.74 J-1.314
X137.729 Y138.543 Z-5.165 I-0.74 J1.314
X139.209 Y135.914 Z-5.248 I0.74 J-1.314
X137.729 Y138.543 Z-5.331 I-0.74 J1.314
X139.209 Y135.914 Z-5.414 I0.74 J-1.314
X137.729 Y138.543 Z-5.496 I-0.74 J1.314
X139.209 Y135.914 Z-5.579 I0.74 J-1.314
X137.729 Y138.543 Z-5.662 I-0.74 J1.314
X138.464 Y138.737 Z-5.675 I0.74 J-1.314
X138.736 Y138.466 I0. J-0.271
G1 Y138.465
G2 X138.464 Y138.194 I-0.271 J0.
X138.192 Y138.465 I0. J0.271
X138.464 Y138.737 I0.271 J0.
G3 X139.941 Y139.463 I0. J1.864
G2 X141.544 Y139.091 I0.717 J-0.552
X138.464 Y135.323 I-3.08 J-0.626
X135.321 Y138.466 I0. J3.143
X138.464 Y141.608 I3.143 J0.
X141.544 Y139.091 I0. J-3.143
G3 X142.964 Y137.468 I2.135 J0.434
G2 X143.718 Y135.447 I-0.46 J-1.323
X138.464 Y132.407 I-5.254 J3.018
X132.405 Y138.466 I0. J6.059
X138.464 Y144.524 I6.059 J0.
X144.523 Y138.465 I0. J-6.059
X143.718 Y135.447 I-6.059 J0.
G3 X143.762 Y133.094 I1.984 J-1.14
G2 X143.23 Y130.802 I-1.409 J-0.881
X138.464 Y129.441 I-4.766 J7.664
X129.439 Y138.465 I0. J9.025
G1 Y138.466
G2 X138.464 Y147.49 I9.025 J0.
X147.49 Y138.465 I0. J-9.025
X143.23 Y130.802 I-9.025 J0.
G1 X143.176 Y130.775 Z-5.663
X143.118 Y130.758 Z-5.651
X143.066 Y130.754 Z-5.616
X143.015 Y130.757 Z-5.582
X142.949 Y130.775 Z-5.479
X142.926 Y130.784 Z-5.358
G0 Z6.
X65.835 Y68.037
G1 Z3.817 F1600.
X65.857 Y68.029 Z3.697
X65.92 Y68.003 Z3.595
X66.011 Y67.96 Z3.526
X66.115 Y67.9 Z3.5
G2 X64.509 Y65.346 Z3.417 I-0.803 J-1.277
X66.115 Y67.9 Z3.335 I0.803 J1.277
X64.509 Y65.346 Z3.252 I-0.803 J-1.277
X66.115 Y67.9 Z3.169 I0.803 J1.277
X64.509 Y65.346 Z3.086 I-0.803 J-1.277
X66.115 Y67.9 Z3.004 I0.803 J1.277
X64.509 Y65.346 Z2.921 I-0.803 J-1.277
X66.115 Y67.9 Z2.838 I0.803 J1.277
X64.509 Y65.346 Z2.756 I-0.803 J-1.277
X66.115 Y67.9 Z2.673 I0.803 J1.277
X64.509 Y65.346 Z2.59 I-0.803 J-1.277
X66.115 Y67.9 Z2.508 I0.803 J1.277
X64.509 Y65.346 Z2.425 I-0.803 J-1.277
X66.115 Y67.9 Z2.342 I0.803 J1.277
X64.509 Y65.346 Z2.259 I-0.803 J-1.277
X66.115 Y67.9 Z2.177 I0.803 J1.277
X64.509 Y65.346 Z2.094 I-0.803 J-1.277
X66.115 Y67.9 Z2.011 I0.803 J1.277
X64.509 Y65.346 Z1.929 I-0.803 J-1.277
X66.115 Y67.9 Z1.846 I0.803 J1.277
X64.509 Y65.346 Z1.763 I-0.803 J-1.277
X66.115 Y67.9 Z1.681 I0.803 J1.277
X64.509 Y65.346 Z1.598 I-0.803 J-1.277
X66.115 Y67.9 Z1.515 I0.803 J1.277
X64.509 Y65.346 Z1.432 I-0.803 J-1.277
X66.115 Y67.9 Z1.35 I0.803 J1.277
X64.509 Y65.346 Z1.267 I-0.803 J-1.277
X66.115 Y67.9 Z1.184 I0.803 J1.277
X64.509 Y65.346 Z1.102 I-0.803 J-1.277
X66.115 Y67.9 Z1.019 I0.803 J1.277
X64.509 Y65.346 Z0.936 I-0.803 J-1.277
X66.115 Y67.9 Z0.854 I0.803 J1.277
X64.509 Y65.346 Z0.771 I-0.803 J-1.277
X66.115 Y67.9 Z0.688 I0.803 J1.277
X64.509 Y65.346 Z0.605 I-0.803 J-1.277
X66.115 Y67.9 Z0.523 I0.803 J1.277
X64.509 Y65.346 Z0.44 I-0.803 J-1.277
X66.115 Y67.9 Z0.357 I0.803 J1.277
X64.509 Y65.346 Z0.275 I-0.803 J-1.277
X66.115 Y67.9 Z0.192 I0.803 J1.277
X64.509 Y65.346 Z0.109 I-0.803 J-1.277
X66.115 Y67.9 Z0.027 I0.803 J1.277
X66.82 Y66.623 Z0. I-0.803 J-1.277
X66.423 I-0.199 J0.
X69.836 I1.707 J0.
X63.407 I-3.215 J0.
X72.853 I4.723 J0.
X60.39 I-6.231 J0.
X75.869 I7.739 J0.
X57.374 I-9.247 J0.
X78.885 I10.755 J0.
X54.358 I-12.264 J0.
X78.885 I12.264 J0.
G1 X78.878 Y66.575
X78.856 Y66.532
X78.823 Y66.497
X78.78 Y66.474
X78.733 Y66.464
X66.971 Y65.988
X66.93 Y65.989
X66.89 Y66.
X66.855 Y66.021
X66.827 Y66.051
X66.807 Y66.086
X66.458 Y66.947
G2 X66.553 Y67.157 I0.147 J0.06
X66.758 Y67.052 I0.052 J-0.15
X63.866 Y66.194 Z-0.083 I-1.446 J-0.429
X66.758 Y67.052 Z-0.165 I1.446 J0.429
X63.866 Y66.194 Z-0.248 I-1.446 J-0.429
X66.758 Y67.052 Z-0.331 I1.446 J0.429
X63.866 Y66.194 Z-0.414 I-1.446 J-0.429
X66.758 Y67.052 Z-0.496 I1.446 J0.429
X63.866 Y66.194 Z-0.579 I-1.446 J-0.429
X66.758 Y67.052 Z-0.662 I1.446 J0.429
X63.866 Y66.194 Z-0.744 I-1.446 J-0.429
X66.758 Y67.052 Z-0.827 I1.446 J0.429
X63.866 Y66.194 Z-0.91 I-1.446 J-0.429
X65.095 Y68.116 Z-0.955 I1.446 J0.429
X66.82 Y66.623 Z-1. I0.217 J-1.492
X66.423 I-0.199 J0.
X69.836 I1.707 J0.
X63.407 I-3.215 J0.
X72.853 I4.723 J0.
X60.39 I-6.231 J0.
X75.869 I7.739 J0.
X57.374 I-9.247 J0.
X78.885 I10.755 J0.
X54.358 I-12.264 J0.
X78.885 I12.264 J0.
G1 X78.878 Y66.575
X78.856 Y66.532
X78.823 Y66.497
X78.78 Y66.474
X78.733 Y66.464
X66.971 Y65.988
X66.93 Y65.989
X66.89 Y66.
X66.855 Y66.021
X66.827 Y66.051
X66.807 Y66.086
X66.458 Y66.947
G2 X66.553 Y67.157 I0.147 J0.06
X66.758 Y67.052 I0.052 J-0.15
X63.866 Y66.194 Z-1.083 I-1.446 J-0.429
X66.758 Y67.052 Z-1.165 I1.446 J0.429
X63.866 Y66.194 Z-1.248 I-1.446 J-0.429
X66.758 Y67.052 Z-1.331 I1.446 J0.429
X63.866 Y66.194 Z-1.414 I-1.446 J-0.429
X66.758 Y67.052 Z-1.496 I1.446 J0.429
X63.866 Y66.194 Z-1.579 I-1.446 J-0.429
X66.758 Y67.052 Z-1.662 I1.446 J0.429
X63.866 Y66.194 Z-1.744 I-1.446 J-0.429
X66.758 Y67.052 Z-1.827 I1.446 J0.429
X63.866 Y66.194 Z-1.91 I-1.446 J-0.429
X65.095 Y68.116 Z-1.955 I1.446 J0.429
X66.82 Y66.623 Z-2. I0.217 J-1.492
X66.423 I-0.199 J0.
X69.836 I1.707 J0.
X63.407 I-3.215 J0.
X72.853 I4.723 J0.
X60.39 I-6.231 J0.
X75.869 I7.739 J0.
X57.374 I-9.247 J0.
X78.885 I10.755 J0.
X54.358 I-12.264 J0.
X78.885 I12.264 J0.
G1 X78.878 Y66.575
X78.856 Y66.532
X78.823 Y66.497
X78.78 Y66.474
X78.733 Y66.464
X66.971 Y65.988
X66.93 Y65.989
X66.89 Y66.
X66.855 Y66.021
X66.827 Y66.051
X66.807 Y66.086
X66.458 Y66.947
G2 X66.553 Y67.157 I0.147 J0.06
X66.758 Y67.052 I0.052 J-0.15
X63.866 Y66.194 Z-2.083 I-1.446 J-0.429
X66.758 Y67.052 Z-2.165 I1.446 J0.429
X63.866 Y66.194 Z-2.248 I-1.446 J-0.429
X66.758 Y67.052 Z-2.331 I1.446 J0.429
X63.866 Y66.194 Z-2.414 I-1.446 J-0.429
X66.758 Y67.052 Z-2.496 I1.446 J0.429
X63.866 Y66.194 Z-2.579 I-1.446 J-0.429
X66.758 Y67.052 Z-2.662 I1.446 J0.429
X63.866 Y66.194 Z-2.744 I-1.446 J-0.429
X66.758 Y67.052 Z-2.827 I1.446 J0.429
X63.866 Y66.194 Z-2.91 I-1.446 J-0.429
X65.095 Y68.116 Z-2.955 I1.446 J0.429
X66.82 Y66.623 Z-3. I0.217 J-1.492
X66.423 I-0.199 J0.
X69.836 I1.707 J0.
X63.407 I-3.215 J0.
X72.853 I4.723 J0.
X60.39 I-6.231 J0.
X75.869 I7.739 J0.
X57.374 I-9.247 J0.
X78.885 I10.755 J0.
X54.358 I-12.264 J0.
X78.885 I12.264 J0.
G1 X78.878 Y66.575
X78.856 Y66.532
X78.823 Y66.497
X78.78 Y66.474
X78.733 Y66.464
X66.971 Y65.988
X66.93 Y65.989
X66.89 Y66.
X66.855 Y66.021
X66.827 Y66.051
X66.807 Y66.086
X66.458 Y66.947
G2 X66.553 Y67.157 I0.147 J0.06
X66.758 Y67.052 I0.052 J-0.15
X63.866 Y66.194 Z-3.083 I-1.446 J-0.429
X66.758 Y67.052 Z-3.165 I1.446 J0.429
X63.866 Y66.194 Z-3.248 I-1.446 J-0.429
X66.758 Y67.052 Z-3.331 I1.446 J0.429
X63.866 Y66.194 Z-3.414 I-1.446 J-0.429
X66.758 Y67.052 Z-3.496 I1.446 J0.429
X63.866 Y66.194 Z-3.579 I-1.446 J-0.429
X66.758 Y67.052 Z-3.662 I1.446 J0.429
X63.866 Y66.194 Z-3.744 I-1.446 J-0.429
X66.758 Y67.052 Z-3.827 I1.446 J0.429
X63.866 Y66.194 Z-3.91 I-1.446 J-0.429
X65.095 Y68.116 Z-3.955 I1.446 J0.429
X66.82 Y66.623 Z-4. I0.217 J-1.492
X66.423 I-0.199 J0.
X69.836 I1.707 J0.
X63.407 I-3.215 J0.
X72.853 I4.723 J0.
X60.39 I-6.231 J0.
X75.869 I7.739 J0.
X57.374 I-9.247 J0.
X78.885 I10.755 J0.
X54.358 I-12.264 J0.
X78.885 I12.264 J0.
G1 X78.878 Y66.575
X78.856 Y66.532
X78.823 Y66.497
X78.78 Y66.474
X78.733 Y66.464
X66.971 Y65.988
X66.93 Y65.989
X66.89 Y66.
X66.855 Y66.021
X66.827 Y66.051
X66.807 Y66.086
X66.458 Y66.947
G2 X66.553 Y67.157 I0.147 J0.06
X66.758 Y67.052 I0.052 J-0.15
X63.866 Y66.194 Z-4.083 I-1.446 J-0.429
X66.758 Y67.052 Z-4.165 I1.446 J0.429
X63.866 Y66.194 Z-4.248 I-1.446 J-0.429
X66.758 Y67.052 Z-4.331 I1.446 J0.429
X63.866 Y66.194 Z-4.414 I-1.446 J-0.429
X66.758 Y67.052 Z-4.496 I1.446 J0.429
X63.866 Y66.194 Z-4.579 I-1.446 J-0.429
X66.758 Y67.052 Z-4.662 I1.446 J0.429
X63.866 Y66.194 Z-4.744 I-1.446 J-0.429
X66.758 Y67.052 Z-4.827 I1.446 J0.429
X63.866 Y66.194 Z-4.91 I-1.446 J-0.429
X65.095 Y68.116 Z-4.955 I1.446 J0.429
X66.82 Y66.623 Z-5. I0.217 J-1.492
X66.423 I-0.199 J0.
X69.836 I1.707 J0.
X63.407 I-3.215 J0.
X72.853 I4.723 J0.
X60.39 I-6.231 J0.
X75.869 I7.739 J0.
X57.374 I-9.247 J0.
X78.885 I10.755 J0.
X54.358 I-12.264 J0.
X78.885 I12.264 J0.
G1 X78.878 Y66.576
X78.858 Y66.534
X78.825 Y66.499
X78.785 Y66.475
X78.739 Y66.465
X67.274 Y65.565
X67.233 Y65.562
X67.193 Y65.571
X67.156 Y65.59
X67.125 Y65.617
X67.102 Y65.652
X66.347 Y67.211
G2 X66.629 Y67.358 I0.143 J0.069
X63.995 Y65.888 Z-5.083 I-1.317 J-0.735
X66.629 Y67.358 Z-5.165 I1.317 J0.735
X63.995 Y65.888 Z-5.248 I-1.317 J-0.735
X66.629 Y67.358 Z-5.331 I1.317 J0.735
X63.995 Y65.888 Z-5.414 I-1.317 J-0.735
X66.629 Y67.358 Z-5.496 I1.317 J0.735
X63.995 Y65.888 Z-5.579 I-1.317 J-0.735
X66.629 Y67.358 Z-5.662 I1.317 J0.735
X66.82 Y66.623 Z-5.675 I-1.317 J-0.735
X66.423 I-0.199 J0.
X69.836 I1.707 J0.
X63.407 I-3.215 J0.
X72.853 I4.723 J0.
X60.39 I-6.231 J0.
X75.869 I7.739 J0.
X57.374 I-9.247 J0.
X78.885 I10.755 J0.
X54.358 I-12.264 J0.
X78.885 I12.264 J0.
G1 X78.879 Y66.563 Z-5.663
X78.862 Y66.505 Z-5.651
X78.839 Y66.459 Z-5.616
X78.809 Y66.417 Z-5.582
X78.759 Y66.37 Z-5.479
X78.739 Y66.356 Z-5.358
G0 Z6.
X162.801 Y234.806
G1 Z3.817 F1600.
X162.809 Y234.828 Z3.697
X162.834 Y234.891 Z3.595
X162.877 Y234.982 Z3.526
X162.936 Y235.087 Z3.5
G2 X165.5 Y233.498 Z3.417 I1.282 J-0.794
X162.936 Y235.087 Z3.335 I-1.282 J0.794
X165.5 Y233.498 Z3.252 I1.282 J-0.794
X162.936 Y235.087 Z3.169 I-1.282 J0.794
X165.5 Y233.498 Z3.086 I1.282 J-0.794
X162.936 Y235.087 Z3.004 I-1.282 J0.794
X165.5 Y233.498 Z2.921 I1.282 J-0.794
X162.936 Y235.087 Z2.838 I-1.282 J0.794
X165.5 Y233.498 Z2.756 I1.282 J-0.794
X162.936 Y235.087 Z2.673 I-1.282 J0.794
X165.5 Y233.498 Z2.59 I1.282 J-0.794
X162.936 Y235.087 Z2.508 I-1.282 J0.794
X165.5 Y233.498 Z2.425 I1.282 J-0.794
X162.936 Y235.087 Z2.342 I-1.282 J0.794
X165.5 Y233.498 Z2.259 I1.282 J-0.794
X162.936 Y235.087 Z2.177 I-1.282 J0.794
X165.5 Y233.498 Z2.094 I1.282 J-0.794
X162.936 Y235.087 Z2.011 I-1.282 J0.794
X165.5 Y233.498 Z1.929 I1.282 J-0.794
X162.936 Y235.087 Z1.846 I-1.282 J0.794
X165.5 Y233.498 Z1.763 I1.282 J-0.794
X162.936 Y235.087 Z1.681 I-1.282 J0.794
X165.5 Y233.498 Z1.598 I1.282 J-0.794
X162.936 Y235.087 Z1.515 I-1.282 J0.794
X165.5 Y233.498 Z1.432 I1.282 J-0.794
X162.936 Y235.087 Z1.35 I-1.282 J0.794
X165.5 Y233.498 Z1.267 I1.282 J-0.794
X162.936 Y235.087 Z1.184 I-1.282 J0.794
X165.5 Y233.498 Z1.102 I1.282 J-0.794
X162.936 Y235.087 Z1.019 I-1.282 J0.794
X165.5 Y233.498 Z0.936 I1.282 J-0.794
X162.936 Y235.087 Z0.854 I-1.282 J0.794
X165.5 Y233.498 Z0.771 I1.282 J-0.794
X162.936 Y235.087 Z0.688 I-1.282 J0.794
X165.5 Y233.498 Z0.605 I1.282 J-0.794
X162.936 Y235.087 Z0.523 I-1.282 J0.794
X165.5 Y233.498 Z0.44 I1.282 J-0.794
X162.936 Y235.087 Z0.357 I-1.282 J0.794
X165.5 Y233.498 Z0.275 I1.282 J-0.794
X162.936 Y235.087 Z0.192 I-1.282 J0.794
X165.5 Y233.498 Z0.109 I1.282 J-0.794
X162.936 Y235.087 Z0.027 I-1.282 J0.794
X164.209 Y235.8 Z0. I1.282 J-0.794
G1 X164.21
X164.256 Y235.793
X164.298 Y235.771
X164.331 Y235.738
X164.353 Y235.696
X164.36 Y235.65
X164.353 Y235.603
X164.331 Y235.561
X164.298 Y235.528
X164.256 Y235.506
X164.21 Y235.499
X164.209
X164.208
X164.162 Y235.506
X164.12 Y235.528
X164.087 Y235.561
X164.065 Y235.603
X164.058 Y235.649
Y235.65
X164.065 Y235.696
X164.087 Y235.738
X164.12 Y235.771
X164.162 Y235.793
X164.208 Y235.8
X164.209
G3 X165.675 Y236.513 I0. J1.865
G2 X167.249 Y236.092 I0.697 J-0.548
X164.209 Y232.577 I-3.04 J-0.443
G1 X164.208
G2 X161.137 Y235.65 I0. J3.072
X164.209 Y238.721 I3.072 J0.
G1 X164.21
G2 X167.249 Y236.092 I0. J-3.072
X167.015 Y235.867 I-0.198 J-0.029
G1 X164.526 Y236.332
G3 X164.298 Y236.078 I-0.037 J-0.197
G2 X161.406 Y235.22 Z-0.083 I-1.446 J-0.429
X164.298 Y236.078 Z-0.165 I1.446 J0.429
X161.406 Y235.22 Z-0.248 I-1.446 J-0.429
X164.298 Y236.078 Z-0.331 I1.446 J0.429
X161.406 Y235.22 Z-0.414 I-1.446 J-0.429
X164.298 Y236.078 Z-0.496 I1.446 J0.429
X161.406 Y235.22 Z-0.579 I-1.446 J-0.429
X164.298 Y236.078 Z-0.662 I1.446 J0.429
X161.406 Y235.22 Z-0.744 I-1.446 J-0.429
X164.298 Y236.078 Z-0.827 I1.446 J0.429
X161.406 Y235.22 Z-0.91 I-1.446 J-0.429
X162.635 Y237.142 Z-0.955 I1.446 J0.429
X164.36 Y235.65 Z-1. I0.217 J-1.492
G1 X164.353 Y235.603
X164.331 Y235.561
X164.298 Y235.528
X164.256 Y235.506
X164.21 Y235.499
X164.209
X164.208
X164.162 Y235.506
X164.12 Y235.528
X164.087 Y235.561
X164.065 Y235.603
X164.058 Y235.649
Y235.65
X164.065 Y235.696
X164.087 Y235.738
X164.12 Y235.771
X164.162 Y235.793
X164.208 Y235.8
X164.209
X164.21
X164.256 Y235.793
X164.298 Y235.771
X164.331 Y235.738
X164.353 Y235.696
X164.36 Y235.65
G3 X165.072 Y234.184 I1.865 J0.
G2 X164.652 Y232.61 I-0.548 J-0.697
X164.209 Y232.577 I-0.442 J3.04
G1 X164.208
G2 X161.137 Y235.65 I0. J3.072
X164.209 Y238.721 I3.072 J0.
G1 X164.21
G2 X167.281 Y235.65 I0. J-3.072
G1 Y235.649
G2 X164.652 Y232.61 I-3.072 J0.
X164.426 Y232.776 I-0.029 J0.198
G1 X163.909 Y235.99
G2 X164.298 Y236.078 I0.197 J0.032
X161.406 Y235.22 Z-1.083 I-1.446 J-0.429
X164.298 Y236.078 Z-1.165 I1.446 J0.429
X161.406 Y235.22 Z-1.248 I-1.446 J-0.429
X164.298 Y236.078 Z-1.331 I1.446 J0.429
X161.406 Y235.22 Z-1.414 I-1.446 J-0.429
X164.298 Y236.078 Z-1.496 I1.446 J0.429
X161.406 Y235.22 Z-1.579 I-1.446 J-0.429
X164.298 Y236.078 Z-1.662 I1.446 J0.429
X161.406 Y235.22 Z-1.744 I-1.446 J-0.429
X164.298 Y236.078 Z-1.827 I1.446 J0.429
X161.406 Y235.22 Z-1.91 I-1.446 J-0.429
X162.635 Y237.142 Z-1.955 I1.446 J0.429
X164.36 Y235.65 Z-2. I0.217 J-1.492
G1 X164.353 Y235.603
X164.331 Y235.561
X164.298 Y235.528
X164.256 Y235.506
X164.21 Y235.499
X164.209
X164.208
X164.162 Y235.506
X164.12 Y235.528
X164.087 Y235.561
X164.065 Y235.603
X164.058 Y235.649
Y235.65
X164.065 Y235.696
X164.087 Y235.738
X164.12 Y235.771
X164.162 Y235.793
X164.208 Y235.8
X164.209
X164.21
X164.256 Y235.793
X164.298 Y235.771
X164.331 Y235.738
X164.353 Y235.696
X164.36 Y235.65
G3 X165.072 Y234.184 I1.865 J0.
G2 X164.652 Y232.61 I-0.548 J-0.697
X164.209 Y232.577 I-0.442 J3.04
G1 X164.208
G2 X161.137 Y235.65 I0. J3.072
X164.209 Y238.721 I3.072 J0.
G1 X164.21
G2 X167.281 Y235.65 I0. J-3.072
G1 Y235.649
G2 X164.652 Y232.61 I-3.072 J0.
X164.426 Y232.776 I-0.029 J0.198
G1 X163.909 Y235.99
G2 X164.298 Y236.078 I0.197 J0.032
X161.406 Y235.22 Z-2.083 I-1.446 J-0.429
X164.298 Y236.078 Z-2.165 I1.446 J0.429
X161.406 Y235.22 Z-2.248 I-1.446 J-0.429
X164.298 Y236.078 Z-2.331 I1.446 J0.429
X161.406 Y235.22 Z-2.414 I-1.446 J-0.429
X164.298 Y236.078 Z-2.496 I1.446 J0.429
X161.406 Y235.22 Z-2.579 I-1.446 J-0.429
X164.298 Y236.078 Z-2.662 I1.446 J0.429
X161.406 Y235.22 Z-2.744 I-1.446 J-0.429
X164.298 Y236.078 Z-2.827 I1.446 J0.429
X161.406 Y235.22 Z-2.91 I-1.446 J-0.429
X162.635 Y237.142 Z-2.955 I1.446 J0.429
X164.36 Y235.65 Z-3. I0.217 J-1.492
G1 X164.353 Y235.603
X164.331 Y235.561
X164.298 Y235.528
X164.256 Y235.506
X164.21 Y235.499
X164.209
X164.208
X164.162 Y235.506
X164.12 Y235.528
X164.087 Y235.561
X164.065 Y235.603
X164.058 Y235.649
Y235.65
X164.065 Y235.696
X164.087 Y235.738
X164.12 Y235.771
X164.162 Y235.793
X164.208 Y235.8
X164.209
X164.21
X164.256 Y235.793
X164.298 Y235.771
X164.331 Y235.738
X164.353 Y235.696
X164.36 Y235.65
G3 X165.072 Y234.184 I1.865 J0.
G2 X164.652 Y232.61 I-0.548 J-0.697
X164.209 Y232.577 I-0.442 J3.04
G1 X164.208
G2 X161.137 Y235.65 I0. J3.072
X164.209 Y238.721 I3.072 J0.
G1 X164.21
G2 X167.281 Y235.65 I0. J-3.072
G1 Y235.649
G2 X164.652 Y232.61 I-3.072 J0.
X164.426 Y232.776 I-0.029 J0.198
G1 X163.909 Y235.99
G2 X164.298 Y236.078 I0.197 J0.032
X161.406 Y235.22 Z-3.083 I-1.446 J-0.429
X164.298 Y236.078 Z-3.165 I1.446 J0.429
X161.406 Y235.22 Z-3.248 I-1.446 J-0.429
X164.298 Y236.078 Z-3.331 I1.446 J0.429
X161.406 Y235.22 Z-3.414 I-1.446 J-0.429
X164.298 Y236.078 Z-3.496 I1.446 J0.429
X161.406 Y235.22 Z-3.579 I-1.446 J-0.429
X164.298 Y236.078 Z-3.662 I1.446 J0.429
X161.406 Y235.22 Z-3.744 I-1.446 J-0.429
X164.298 Y236.078 Z-3.827 I1.446 J0.429
X161.406 Y235.22 Z-3.91 I-1.446 J-0.429
X162.635 Y237.142 Z-3.955 I1.446 J0.429
X164.36 Y235.65 Z-4. I0.217 J-1.492
G1 X164.353 Y235.603
X164.331 Y235.561
X164.298 Y235.528
X164.256 Y235.506
X164.21 Y235.499
X164.209
X164.208
X164.162 Y235.506
X164.12 Y235.528
X164.087 Y235.561
X164.065 Y235.603
X164.058 Y235.649
Y235.65
X164.065 Y235.696
X164.087 Y235.738
X164.12 Y235.771
X164.162 Y235.793
X164.208 Y235.8
X164.209
X164.21
X164.256 Y235.793
X164.298 Y235.771
X164.331 Y235.738
X164.353 Y235.696
X164.36 Y235.65
G3 X165.072 Y234.184 I1.865 J0.
G2 X164.652 Y232.61 I-0.548 J-0.697
X164.209 Y232.577 I-0.442 J3.04
G1 X164.208
G2 X161.137 Y235.65 I0. J3.072
X164.209 Y238.721 I3.072 J0.
G1 X164.21
G2 X167.281 Y235.65 I0. J-3.072
G1 Y235.649
G2 X164.652 Y232.61 I-3.072 J0.
X164.426 Y232.776 I-0.029 J0.198
G1 X163.909 Y235.99
G2 X164.298 Y236.078 I0.197 J0.032
X161.406 Y235.22 Z-4.083 I-1.446 J-0.429
X164.298 Y236.078 Z-4.165 I1.446 J0.429
X161.406 Y235.22 Z-4.248 I-1.446 J-0.429
X164.298 Y236.078 Z-4.331 I1.446 J0.429
X161.406 Y235.22 Z-4.414 I-1.446 J-0.429
X164.298 Y236.078 Z-4.496 I1.446 J0.429
X161.406 Y235.22 Z-4.579 I-1.446 J-0.429
X164.298 Y236.078 Z-4.662 I1.446 J0.429
X161.406 Y235.22 Z-4.744 I-1.446 J-0.429
X164.298 Y236.078 Z-4.827 I1.446 J0.429
X161.406 Y235.22 Z-4.91 I-1.446 J-0.429
X162.635 Y237.142 Z-4.955 I1.446 J0.429
X164.36 Y235.65 Z-5. I0.217 J-1.492
G1 X164.353 Y235.603
X164.331 Y235.561
X164.298 Y235.528
X164.256 Y235.506
X164.21 Y235.499
X164.209
X164.208
X164.162 Y235.506
X164.12 Y235.528
X164.087 Y235.561
X164.065 Y235.603
X164.058 Y235.649
Y235.65
X164.065 Y235.696
X164.087 Y235.738
X164.12 Y235.771
X164.162 Y235.793
X164.208 Y235.8
X164.209
X164.21
X164.256 Y235.793
X164.298 Y235.771
X164.331 Y235.738
X164.353 Y235.696
X164.36 Y235.65
G3 X165.072 Y234.184 I1.865 J0.
G2 X164.652 Y232.61 I-0.548 J-0.697
X164.209 Y232.577 I-0.442 J3.04
G1 X164.208
G2 X161.137 Y235.65 I0. J3.072
X164.209 Y238.721 I3.072 J0.
G1 X164.21
G2 X167.281 Y235.65 I0. J-3.072
G1 Y235.649
G2 X164.652 Y232.61 I-3.072 J0.
X164.426 Y232.772 I-0.029 J0.198
G1 X163.798 Y236.251
G2 X164.169 Y236.384 I0.197 J0.036
X161.535 Y234.915 Z-5.083 I-1.317 J-0.735
X164.169 Y236.384 Z-5.165 I1.317 J0.735
X161.535 Y234.915 Z-5.248 I-1.317 J-0.735
X164.169 Y236.384 Z-5.331 I1.317 J0.735
X161.535 Y234.915 Z-5.414 I-1.317 J-0.735
X164.169 Y236.384 Z-5.496 I1.317 J0.735
X161.535 Y234.915 Z-5.579 I-1.317 J-0.735
X164.169 Y236.384 Z-5.662 I1.317 J0.735
X164.36 Y235.65 Z-5.675 I-1.317 J-0.735
G1 X164.353 Y235.603
X164.331 Y235.561
X164.298 Y235.528
X164.256 Y235.506
X164.21 Y235.499
X164.209
X164.208
X164.162 Y235.506
X164.12 Y235.528
X164.087 Y235.561
X164.065 Y235.603
X164.058 Y235.649
Y235.65
X164.065 Y235.696
X164.087 Y235.738
X164.12 Y235.771
X164.162 Y235.793
X164.208 Y235.8
X164.209
X164.21
X164.256 Y235.793
X164.298 Y235.771
X164.331 Y235.738
X164.353 Y235.696
X164.36 Y235.65
G3 X165.072 Y234.184 I1.865 J0.
G2 X164.652 Y232.61 I-0.548 J-0.697
X164.209 Y232.577 I-0.442 J3.04
G1 X164.208
G2 X161.137 Y235.65 I0. J3.072
X164.209 Y238.721 I3.072 J0.
G1 X164.21
G2 X167.281 Y235.65 I0. J-3.072
G1 Y235.649
G2 X164.652 Y232.61 I-3.072 J0.
G1 X164.591 Y232.607 Z-5.663
X164.531 Y232.615 Z-5.651
X164.482 Y232.631 Z-5.616
X164.437 Y232.655 Z-5.582
X164.383 Y232.698 Z-5.479
X164.366 Y232.715 Z-5.358
G0 Z6.
X147.19 Y243.48
G1 Z3.817 F1600.
X147.207 Y243.496 Z3.697
X147.256 Y243.542 Z3.595
X147.334 Y243.606 Z3.526
X147.432 Y243.676 Z3.5
G2 X149.075 Y241.146 Z3.417 I0.822 J-1.265
X147.432 Y243.676 Z3.335 I-0.822 J1.265
X149.075 Y241.146 Z3.252 I0.822 J-1.265
X147.432 Y243.676 Z3.169 I-0.822 J1.265
X149.075 Y241.146 Z3.086 I0.822 J-1.265
X147.432 Y243.676 Z3.004 I-0.822 J1.265
X149.075 Y241.146 Z2.921 I0.822 J-1.265
X147.432 Y243.676 Z2.838 I-0.822 J1.265
X149.075 Y241.146 Z2.756 I0.822 J-1.265
X147.432 Y243.676 Z2.673 I-0.822 J1.265
X149.075 Y241.146 Z2.59 I0.822 J-1.265
X147.432 Y243.676 Z2.508 I-0.822 J1.265
X149.075 Y241.146 Z2.425 I0.822 J-1.265
X147.432 Y243.676 Z2.342 I-0.822 J1.265
X149.075 Y241.146 Z2.259 I0.822 J-1.265
X147.432 Y243.676 Z2.177 I-0.822 J1.265
X149.075 Y241.146 Z2.094 I0.822 J-1.265
X147.432 Y243.676 Z2.011 I-0.822 J1.265
X149.075 Y241.146 Z1.929 I0.822 J-1.265
X147.432 Y243.676 Z1.846 I-0.822 J1.265
X149.075 Y241.146 Z1.763 I0.822 J-1.265
X147.432 Y243.676 Z1.681 I-0.822 J1.265
X149.075 Y241.146 Z1.598 I0.822 J-1.265
X147.432 Y243.676 Z1.515 I-0.822 J1.265
X149.075 Y241.146 Z1.432 I0.822 J-1.265
X147.432 Y243.676 Z1.35 I-0.822 J1.265
X149.075 Y241.146 Z1.267 I0.822 J-1.265
X147.432 Y243.676 Z1.184 I-0.822 J1.265
X149.075 Y241.146 Z1.102 I0.822 J-1.265
X147.432 Y243.676 Z1.019 I-0.822 J1.265
X149.075 Y241.146 Z0.936 I0.822 J-1.265
X147.432 Y243.676 Z0.854 I-0.822 J1.265
X149.075 Y241.146 Z0.771 I0.822 J-1.265
X147.432 Y243.676 Z0.688 I-0.822 J1.265
X149.075 Y241.146 Z0.605 I0.822 J-1.265
X147.432 Y243.676 Z0.523 I-0.822 J1.265
X149.075 Y241.146 Z0.44 I0.822 J-1.265
X147.432 Y243.676 Z0.357 I-0.822 J1.265
X149.075 Y241.146 Z0.275 I0.822 J-1.265
X147.432 Y243.676 Z0.192 I-0.822 J1.265
X149.075 Y241.146 Z0.109 I0.822 J-1.265
X147.432 Y243.676 Z0.027 I-0.822 J1.265
X148.887 Y243.78 Z0. I0.822 J-1.265
X149.17 Y243.648 I-45.002 J-97.264
X149.043 Y243.376 I-0.064 J-0.136
X147.16 Y244.266 I64.649 J139.134
G3 X145.269 Y245.136 I-26.172 J-54.381
G1 X138.187 Y248.091
X130.995 Y250.765
X124.299 Y252.971
X116.926 Y255.095
X109.474 Y256.928
X102.57 Y258.352
X95.002 Y259.618
X88.009 Y260.517
X80.367 Y261.208
X72.704 Y261.598
G3 X69.564 Y261.648 I-3.131 J-98.243
G1 X66.621
G2 Y261.949 I0. J0.151
X143.592 Y246.095 I-0.019 J-194.861
G1 X146.062 Y245.038
G2 X148.887 Y243.78 I-42.176 J-98.522
G3 X150.65 Y243.916 I0.76 J1.643
G2 X152.124 Y242.938 I0.531 J-0.798
X147.808 Y240.728 I-3.018 J0.574
G3 X66.621 Y258.727 I-81.186 J-174.105
G2 X63.549 Y261.798 I0. J3.072
G1 Y261.799
G2 X66.621 Y264.871 I3.072 J0.
X150.404 Y246.296 I-0.001 J-198.247
X152.124 Y242.938 I-1.298 J-2.784
G1 X152.109 Y242.896
X152.083 Y242.859
X152.048 Y242.831
X152.006 Y242.814
X151.962 Y242.809
X149.56 Y242.895
X149.518 Y242.891
X149.477 Y242.899
X149.439 Y242.917
X148.362 Y243.613
G2 X148.471 Y243.903 I0.086 J0.133
X148.036 Y240.919 Z-0.083 I-0.218 J-1.492
X148.471 Y243.903 Z-0.165 I0.218 J1.492
X148.036 Y240.919 Z-0.248 I-0.218 J-1.492
X148.471 Y243.903 Z-0.331 I0.218 J1.492
X148.036 Y240.919 Z-0.414 I-0.218 J-1.492
X148.471 Y243.903 Z-0.496 I0.218 J1.492
X148.036 Y240.919 Z-0.579 I-0.218 J-1.492
X148.471 Y243.903 Z-0.662 I0.218 J1.492
X148.036 Y240.919 Z-0.744 I-0.218 J-1.492
X148.471 Y243.903 Z-0.827 I0.218 J1.492
X148.036 Y240.919 Z-0.91 I-0.218 J-1.492
X146.808 Y242.841 Z-0.955 I0.218 J1.492
X148.887 Y243.78 Z-1. I1.446 J-0.43
X149.17 Y243.648 I-45.002 J-97.264
X149.043 Y243.376 I-0.064 J-0.136
X147.16 Y244.266 I64.649 J139.134
G3 X145.269 Y245.136 I-26.172 J-54.381
G1 X138.187 Y248.091
X130.995 Y250.765
X124.299 Y252.971
X116.926 Y255.095
X109.474 Y256.928
X102.57 Y258.352
X95.002 Y259.618
X88.009 Y260.517
X80.367 Y261.208
X72.704 Y261.598
G3 X69.564 Y261.648 I-3.131 J-98.243
G1 X66.621
G2 Y261.949 I0. J0.151
X143.592 Y246.095 I-0.019 J-194.861
G1 X146.062 Y245.038
G2 X148.887 Y243.78 I-42.176 J-98.522
G3 X150.65 Y243.916 I0.76 J1.643
G2 X152.124 Y242.938 I0.531 J-0.798
X147.808 Y240.728 I-3.018 J0.574
G3 X66.621 Y258.727 I-81.186 J-174.105
G2 X63.549 Y261.798 I0. J3.072
G1 Y261.799
G2 X66.621 Y264.871 I3.072 J0.
X150.404 Y246.296 I-0.001 J-198.247
X152.124 Y242.938 I-1.298 J-2.784
G1 X152.109 Y242.896
X152.083 Y242.859
X152.048 Y242.831
X152.006 Y242.814
X151.962 Y242.809
X149.56 Y242.895
X149.518 Y242.891
X149.477 Y242.899
X149.439 Y242.917
X148.362 Y243.613
G2 X148.471 Y243.903 I0.086 J0.133
X148.036 Y240.919 Z-1.083 I-0.218 J-1.492
X148.471 Y243.903 Z-1.165 I0.218 J1.492
X148.036 Y240.919 Z-1.248 I-0.218 J-1.492
X148.471 Y243.903 Z-1.331 I0.218 J1.492
X148.036 Y240.919 Z-1.414 I-0.218 J-1.492
X148.471 Y243.903 Z-1.496 I0.218 J1.492
X148.036 Y240.919 Z-1.579 I-0.218 J-1.492
X148.471 Y243.903 Z-1.662 I0.218 J1.492
X148.036 Y240.919 Z-1.744 I-0.218 J-1.492
X148.471 Y243.903 Z-1.827 I0.218 J1.492
X148.036 Y240.919 Z-1.91 I-0.218 J-1.492
X146.808 Y242.841 Z-1.955 I0.218 J1.492
X148.887 Y243.78 Z-2. I1.446 J-0.43
X149.17 Y243.648 I-45.002 J-97.264
X149.043 Y243.376 I-0.064 J-0.136
X147.16 Y244.266 I64.649 J139.134
G3 X145.269 Y245.136 I-26.172 J-54.381
G1 X138.187 Y248.091
X130.995 Y250.765
X124.299 Y252.971
X116.926 Y255.095
X109.474 Y256.928
X102.57 Y258.352
X95.002 Y259.618
X88.009 Y260.517
X80.367 Y261.208
X72.704 Y261.598
G3 X69.564 Y261.648 I-3.131 J-98.243
G1 X66.621
G2 Y261.949 I0. J0.151
X143.592 Y246.095 I-0.019 J-194.861
G1 X146.062 Y245.038
G2 X148.887 Y243.78 I-42.176 J-98.522
G3 X150.65 Y243.916 I0.76 J1.643
G2 X152.124 Y242.938 I0.531 J-0.798
X147.808 Y240.728 I-3.018 J0.574
G3 X66.621 Y258.727 I-81.186 J-174.105
G2 X63.549 Y261.798 I0. J3.072
G1 Y261.799
G2 X66.621 Y264.871 I3.072 J0.
X150.404 Y246.296 I-0.001 J-198.247
X152.124 Y242.938 I-1.298 J-2.784
G1 X152.109 Y242.896
X152.083 Y242.859
X152.048 Y242.831
X152.006 Y242.814
X151.962 Y242.809
X149.56 Y242.895
X149.518 Y242.891
X149.477 Y242.899
X149.439 Y242.917
X148.362 Y243.613
G2 X148.471 Y243.903 I0.086 J0.133
X148.036 Y240.919 Z-2.083 I-0.218 J-1.492
X148.471 Y243.903 Z-2.165 I0.218 J1.492
X148.036 Y240.919 Z-2.248 I-0.218 J-1.492
X148.471 Y243.903 Z-2.331 I0.218 J1.492
X148.036 Y240.919 Z-2.414 I-0.218 J-1.492
X148.471 Y243.903 Z-2.496 I0.218 J1.492
X148.036 Y240.919 Z-2.579 I-0.218 J-1.492
X148.471 Y243.903 Z-2.662 I0.218 J1.492
X148.036 Y240.919 Z-2.744 I-0.218 J-1.492
X148.471 Y243.903 Z-2.827 I0.218 J1.492
X148.036 Y240.919 Z-2.91 I-0.218 J-1.492
X146.808 Y242.841 Z-2.955 I0.218 J1.492
X148.887 Y243.78 Z-3. I1.446 J-0.43
X149.17 Y243.648 I-45.002 J-97.264
X149.043 Y243.376 I-0.064 J-0.136
X147.16 Y244.266 I64.649 J139.134
G3 X145.269 Y245.136 I-26.172 J-54.381
G1 X138.187 Y248.091
X130.995 Y250.765
X124.299 Y252.971
X116.926 Y255.095
X109.474 Y256.928
X102.57 Y258.352
X95.002 Y259.618
X88.009 Y260.517
X80.367 Y261.208
X72.704 Y261.598
G3 X69.564 Y261.648 I-3.131 J-98.243
G1 X66.621
G2 Y261.949 I0. J0.151
X143.592 Y246.095 I-0.019 J-194.861
G1 X146.062 Y245.038
G2 X148.887 Y243.78 I-42.176 J-98.522
G3 X150.65 Y243.916 I0.76 J1.643
G2 X152.124 Y242.938 I0.531 J-0.798
X147.808 Y240.728 I-3.018 J0.574
G3 X66.621 Y258.727 I-81.186 J-174.105
G2 X63.549 Y261.798 I0. J3.072
G1 Y261.799
G2 X66.621 Y264.871 I3.072 J0.
X150.404 Y246.296 I-0.001 J-198.247
X152.124 Y242.938 I-1.298 J-2.784
G1 X152.109 Y242.896
X152.083 Y242.859
X152.048 Y242.831
X152.006 Y242.814
X151.962 Y242.809
X149.56 Y242.895
X149.518 Y242.891
X149.477 Y242.899
X149.439 Y242.917
X148.362 Y243.613
G2 X148.471 Y243.903 I0.086 J0.133
X148.036 Y240.919 Z-3.083 I-0.218 J-1.492
X148.471 Y243.903 Z-3.165 I0.218 J1.492
X148.036 Y240.919 Z-3.248 I-0.218 J-1.492
X148.471 Y243.903 Z-3.331 I0.218 J1.492
X148.036 Y240.919 Z-3.414 I-0.218 J-1.492
X148.471 Y243.903 Z-3.496 I0.218 J1.492
X148.036 Y240.919 Z-3.579 I-0.218 J-1.492
X148.471 Y243.903 Z-3.662 I0.218 J1.492
X148.036 Y240.919 Z-3.744 I-0.218 J-1.492
X148.471 Y243.903 Z-3.827 I0.218 J1.492
X148.036 Y240.919 Z-3.91 I-0.218 J-1.492
X146.808 Y242.841 Z-3.955 I0.218 J1.492
X148.887 Y243.78 Z-4. I1.446 J-0.43
X149.17 Y243.648 I-45.002 J-97.264
X149.043 Y243.376 I-0.064 J-0.136
X147.16 Y244.266 I64.649 J139.134
G3 X145.269 Y245.136 I-26.172 J-54.381
G1 X138.187 Y248.091
X130.995 Y250.765
X124.299 Y252.971
X116.926 Y255.095
X109.474 Y256.928
X102.57 Y258.352
X95.002 Y259.618
X88.009 Y260.517
X80.367 Y261.208
X72.704 Y261.598
G3 X69.564 Y261.648 I-3.131 J-98.243
G1 X66.621
G2 Y261.949 I0. J0.151
X143.592 Y246.095 I-0.019 J-194.861
G1 X146.062 Y245.038
G2 X148.887 Y243.78 I-42.176 J-98.522
G3 X150.65 Y243.916 I0.76 J1.643
G2 X152.124 Y242.938 I0.531 J-0.798
X147.808 Y240.728 I-3.018 J0.574
G3 X66.621 Y258.727 I-81.186 J-174.105
G2 X63.549 Y261.798 I0. J3.072
G1 Y261.799
G2 X66.621 Y264.871 I3.072 J0.
X150.404 Y246.296 I-0.001 J-198.247
X152.124 Y242.938 I-1.298 J-2.784
G1 X152.109 Y242.896
X152.083 Y242.859
X152.048 Y242.831
X152.006 Y242.814
X151.962 Y242.809
X149.56 Y242.895
X149.518 Y242.891
X149.477 Y242.899
X149.439 Y242.917
X148.362 Y243.613
G2 X148.471 Y243.903 I0.086 J0.133
X148.036 Y240.919 Z-4.083 I-0.218 J-1.492
X148.471 Y243.903 Z-4.165 I0.218 J1.492
X148.036 Y240.919 Z-4.248 I-0.218 J-1.492
X148.471 Y243.903 Z-4.331 I0.218 J1.492
X148.036 Y240.919 Z-4.414 I-0.218 J-1.492
X148.471 Y243.903 Z-4.496 I0.218 J1.492
X148.036 Y240.919 Z-4.579 I-0.218 J-1.492
X148.471 Y243.903 Z-4.662 I0.218 J1.492
X148.036 Y240.919 Z-4.744 I-0.218 J-1.492
X148.471 Y243.903 Z-4.827 I0.218 J1.492
X148.036 Y240.919 Z-4.91 I-0.218 J-1.492
X146.808 Y242.841 Z-4.955 I0.218 J1.492
X148.887 Y243.78 Z-5. I1.446 J-0.43
X149.17 Y243.648 I-45.002 J-97.264
X149.043 Y243.376 I-0.064 J-0.136
X147.16 Y244.266 I64.649 J139.134
G3 X145.269 Y245.136 I-26.172 J-54.381
G1 X138.187 Y248.091
X130.995 Y250.765
X124.299 Y252.971
X116.926 Y255.095
X109.474 Y256.928
X102.57 Y258.352
X95.002 Y259.618
X88.009 Y260.517
X80.367 Y261.208
X72.704 Y261.598
G3 X69.564 Y261.648 I-3.131 J-98.243
G1 X66.621
G2 Y261.949 I0. J0.151
X143.592 Y246.095 I-0.019 J-194.861
G1 X146.062 Y245.038
G2 X148.887 Y243.78 I-42.176 J-98.522
G3 X150.65 Y243.916 I0.76 J1.643
G2 X152.124 Y242.938 I0.531 J-0.798
X147.808 Y240.728 I-3.018 J0.574
G3 X66.621 Y258.727 I-81.186 J-174.105
G2 X63.549 Y261.798 I0. J3.072
G1 Y261.799
G2 X66.621 Y264.871 I3.072 J0.
X150.404 Y246.296 I-0.001 J-198.247
X152.124 Y242.938 I-1.298 J-2.784
G1 X152.109 Y242.896
X152.083 Y242.859
X152.048 Y242.831
X152.007 Y242.814
X151.962 Y242.809
X149.531 Y242.89
X149.494 Y242.886
X149.456 Y242.891
X149.421 Y242.904
X148.078 Y243.616
G2 X148.14 Y243.915 I0.074 J0.14
X148.367 Y240.907 Z-5.083 I0.114 J-1.504
X148.14 Y243.915 Z-5.165 I-0.114 J1.504
X148.367 Y240.907 Z-5.248 I0.114 J-1.504
X148.14 Y243.915 Z-5.331 I-0.114 J1.504
X148.367 Y240.907 Z-5.414 I0.114 J-1.504
X148.14 Y243.915 Z-5.496 I-0.114 J1.504
X148.367 Y240.907 Z-5.579 I0.114 J-1.504
X148.14 Y243.915 Z-5.662 I-0.114 J1.504
X148.887 Y243.78 Z-5.675 I0.114 J-1.504
X149.17 Y243.648 I-45.002 J-97.264
X149.043 Y243.376 I-0.064 J-0.136
X147.16 Y244.266 I64.649 J139.134
G3 X145.269 Y245.136 I-26.172 J-54.381
G1 X138.187 Y248.091
X130.995 Y250.765
X124.299 Y252.971
X116.926 Y255.095
X109.474 Y256.928
X102.57 Y258.352
X95.002 Y259.618
X88.009 Y260.517
X80.367 Y261.208
X72.704 Y261.598
G3 X69.564 Y261.648 I-3.131 J-98.243
G1 X66.621
G2 Y261.949 I0. J0.151
X143.592 Y246.095 I-0.019 J-194.861
G1 X146.062 Y245.038
G2 X148.887 Y243.78 I-42.176 J-98.522
G3 X150.65 Y243.916 I0.76 J1.643
G2 X152.124 Y242.938 I0.531 J-0.798
X147.808 Y240.728 I-3.018 J0.574
G3 X66.621 Y258.727 I-81.186 J-174.105
G2 X63.549 Y261.798 I0. J3.072
G1 Y261.799
G2 X66.621 Y264.871 I3.072 J0.
X150.404 Y246.296 I-0.001 J-198.247
X152.124 Y242.938 I-1.298 J-2.784
G1 X152.107 Y242.88 Z-5.663
X152.079 Y242.826 Z-5.651
X152.048 Y242.785 Z-5.616
X152.01 Y242.75 Z-5.582
X151.952 Y242.713 Z-5.479
X151.93 Y242.703 Z-5.358
G0 Z16.
M5
G0 Z15
G0 X0 Y0

M9
M30
