(TURRET T-GUESSET HOLES)
(T1  D=3.175 CR=0. - ZMIN=-5.175 - FLAT END MILL)
G90 G94 G91.1 G40 G49 G17
G21
G0 Z15

(BORE1 2)
M5
T1 M6
S15000 M3
G54
M8
G0 X143.202 Y12.898
G43 Z15. H1
Z4.5
G1 Z2.818 F800.
G18 G2 X143.52 Z2.5 I0.317 K0.
G1 X143.678
G17 G2 X143.877 Y12.7 I0. J-0.198
X143.083 Z2.465 I-0.397 J0.
X143.877 Z2.431 I0.397 J0.
X143.083 Z2.396 I-0.397 J0.
X143.877 Z2.361 I0.397 J0.
X143.083 Z2.327 I-0.397 J0.
X143.877 Z2.292 I0.397 J0.
X143.083 Z2.258 I-0.397 J0.
X143.877 Z2.223 I0.397 J0.
X143.083 Z2.188 I-0.397 J0.
X143.877 Z2.154 I0.397 J0.
X143.083 Z2.119 I-0.397 J0.
X143.877 Z2.084 I0.397 J0.
X143.083 Z2.05 I-0.397 J0.
X143.877 Z2.015 I0.397 J0.
X143.083 Z1.98 I-0.397 J0.
X143.877 Z1.946 I0.397 J0.
X143.083 Z1.911 I-0.397 J0.
X143.877 Z1.877 I0.397 J0.
X143.083 Z1.842 I-0.397 J0.
X143.877 Z1.807 I0.397 J0.
X143.083 Z1.773 I-0.397 J0.
X143.877 Z1.738 I0.397 J0.
X143.083 Z1.703 I-0.397 J0.
X143.877 Z1.669 I0.397 J0.
X143.083 Z1.634 I-0.397 J0.
X143.877 Z1.599 I0.397 J0.
X143.083 Z1.565 I-0.397 J0.
X143.877 Z1.53 I0.397 J0.
X143.083 Z1.496 I-0.397 J0.
X143.877 Z1.461 I0.397 J0.
X143.083 Z1.426 I-0.397 J0.
X143.877 Z1.392 I0.397 J0.
X143.083 Z1.357 I-0.397 J0.
X143.877 Z1.322 I0.397 J0.
X143.083 Z1.288 I-0.397 J0.
X143.877 Z1.253 I0.397 J0.
X143.083 Z1.218 I-0.397 J0.
X143.877 Z1.184 I0.397 J0.
X143.083 Z1.149 I-0.397 J0.
X143.877 Z1.115 I0.397 J0.
X143.083 Z1.08 I-0.397 J0.
X143.877 Z1.045 I0.397 J0.
X143.083 Z1.011 I-0.397 J0.
X143.877 Z0.976 I0.397 J0.
X143.083 Z0.941 I-0.397 J0.
X143.877 Z0.907 I0.397 J0.
X143.083 Z0.872 I-0.397 J0.
X143.877 Z0.837 I0.397 J0.
X143.083 Z0.803 I-0.397 J0.
X143.877 Z0.768 I0.397 J0.
X143.083 Z0.733 I-0.397 J0.
X143.877 Z0.699 I0.397 J0.
X143.083 Z0.664 I-0.397 J0.
X143.877 Z0.63 I0.397 J0.
X143.083 Z0.595 I-0.397 J0.
X143.877 Z0.56 I0.397 J0.
X143.083 Z0.526 I-0.397 J0.
X143.877 Z0.491 I0.397 J0.
X143.083 Z0.456 I-0.397 J0.
X143.877 Z0.422 I0.397 J0.
X143.083 Z0.387 I-0.397 J0.
X143.877 Z0.352 I0.397 J0.
X143.083 Z0.318 I-0.397 J0.
X143.877 Z0.283 I0.397 J0.
X143.083 Z0.249 I-0.397 J0.
X143.877 Z0.214 I0.397 J0.
X143.083 Z0.179 I-0.397 J0.
X143.877 Z0.145 I0.397 J0.
X143.083 Z0.11 I-0.397 J0.
X143.877 Z0.075 I0.397 J0.
X143.083 Z0.041 I-0.397 J0.
X143.877 Z0.006 I0.397 J0.
X143.083 Z-0.029 I-0.397 J0.
X143.877 Z-0.063 I0.397 J0.
X143.083 Z-0.098 I-0.397 J0.
X143.877 Z-0.132 I0.397 J0.
X143.083 Z-0.167 I-0.397 J0.
X143.877 Z-0.202 I0.397 J0.
X143.083 Z-0.236 I-0.397 J0.
X143.877 Z-0.271 I0.397 J0.
X143.083 Z-0.306 I-0.397 J0.
X143.877 Z-0.34 I0.397 J0.
X143.083 Z-0.375 I-0.397 J0.
X143.877 Z-0.41 I0.397 J0.
X143.083 Z-0.444 I-0.397 J0.
X143.877 Z-0.479 I0.397 J0.
X143.083 Z-0.513 I-0.397 J0.
X143.877 Z-0.548 I0.397 J0.
X143.083 Z-0.583 I-0.397 J0.
X143.877 Z-0.617 I0.397 J0.
X143.083 Z-0.652 I-0.397 J0.
X143.877 Z-0.687 I0.397 J0.
X143.083 Z-0.721 I-0.397 J0.
X143.877 Z-0.756 I0.397 J0.
X143.083 Z-0.791 I-0.397 J0.
X143.877 Z-0.825 I0.397 J0.
X143.083 Z-0.86 I-0.397 J0.
X143.877 Z-0.894 I0.397 J0.
X143.083 Z-0.929 I-0.397 J0.
X143.877 Z-0.964 I0.397 J0.
X143.083 Z-0.998 I-0.397 J0.
X143.877 Z-1.033 I0.397 J0.
X143.083 Z-1.068 I-0.397 J0.
X143.877 Z-1.102 I0.397 J0.
X143.083 Z-1.137 I-0.397 J0.
X143.877 Z-1.172 I0.397 J0.
X143.083 Z-1.206 I-0.397 J0.
X143.877 Z-1.241 I0.397 J0.
X143.083 Z-1.275 I-0.397 J0.
X143.877 Z-1.31 I0.397 J0.
X143.083 Z-1.345 I-0.397 J0.
X143.877 Z-1.379 I0.397 J0.
X143.083 Z-1.414 I-0.397 J0.
X143.877 Z-1.449 I0.397 J0.
X143.083 Z-1.483 I-0.397 J0.
X143.877 Z-1.518 I0.397 J0.
X143.083 Z-1.553 I-0.397 J0.
X143.877 Z-1.587 I0.397 J0.
X143.083 Z-1.622 I-0.397 J0.
X143.877 Z-1.656 I0.397 J0.
X143.083 Z-1.691 I-0.397 J0.
X143.877 Z-1.726 I0.397 J0.
X143.083 Z-1.76 I-0.397 J0.
X143.877 Z-1.795 I0.397 J0.
X143.083 Z-1.83 I-0.397 J0.
X143.877 Z-1.864 I0.397 J0.
X143.083 Z-1.899 I-0.397 J0.
X143.877 Z-1.934 I0.397 J0.
X143.083 Z-1.968 I-0.397 J0.
X143.877 Z-2.003 I0.397 J0.
X143.083 Z-2.037 I-0.397 J0.
X143.877 Z-2.072 I0.397 J0.
X143.083 Z-2.107 I-0.397 J0.
X143.877 Z-2.141 I0.397 J0.
X143.083 Z-2.176 I-0.397 J0.
X143.877 Z-2.211 I0.397 J0.
X143.083 Z-2.245 I-0.397 J0.
X143.877 Z-2.28 I0.397 J0.
X143.083 Z-2.315 I-0.397 J0.
X143.877 Z-2.349 I0.397 J0.
X143.083 Z-2.384 I-0.397 J0.
X143.877 Z-2.419 I0.397 J0.
X143.083 Z-2.453 I-0.397 J0.
X143.877 Z-2.488 I0.397 J0.
X143.083 Z-2.522 I-0.397 J0.
X143.877 Z-2.557 I0.397 J0.
X143.083 Z-2.592 I-0.397 J0.
X143.877 Z-2.626 I0.397 J0.
X143.083 Z-2.661 I-0.397 J0.
X143.877 Z-2.696 I0.397 J0.
X143.083 Z-2.73 I-0.397 J0.
X143.877 Z-2.765 I0.397 J0.
X143.083 Z-2.8 I-0.397 J0.
X143.877 Z-2.834 I0.397 J0.
X143.083 Z-2.869 I-0.397 J0.
X143.877 Z-2.903 I0.397 J0.
X143.083 Z-2.938 I-0.397 J0.
X143.877 Z-2.973 I0.397 J0.
X143.083 Z-3.007 I-0.397 J0.
X143.877 Z-3.042 I0.397 J0.
X143.083 Z-3.077 I-0.397 J0.
X143.877 Z-3.111 I0.397 J0.
X143.083 Z-3.146 I-0.397 J0.
X143.877 Z-3.181 I0.397 J0.
X143.083 Z-3.215 I-0.397 J0.
X143.877 Z-3.25 I0.397 J0.
X143.083 Z-3.284 I-0.397 J0.
X143.877 Z-3.319 I0.397 J0.
X143.083 Z-3.354 I-0.397 J0.
X143.877 Z-3.388 I0.397 J0.
X143.083 Z-3.423 I-0.397 J0.
X143.877 Z-3.458 I0.397 J0.
X143.083 Z-3.492 I-0.397 J0.
X143.877 Z-3.527 I0.397 J0.
X143.083 Z-3.562 I-0.397 J0.
X143.877 Z-3.596 I0.397 J0.
X143.083 Z-3.631 I-0.397 J0.
X143.877 Z-3.665 I0.397 J0.
X143.083 Z-3.7 I-0.397 J0.
X143.877 Z-3.735 I0.397 J0.
X143.083 Z-3.769 I-0.397 J0.
X143.877 Z-3.804 I0.397 J0.
X143.083 Z-3.839 I-0.397 J0.
X143.877 Z-3.873 I0.397 J0.
X143.083 Z-3.908 I-0.397 J0.
X143.877 Z-3.943 I0.397 J0.
X143.083 Z-3.977 I-0.397 J0.
X143.877 Z-4.012 I0.397 J0.
X143.083 Z-4.046 I-0.397 J0.
X143.877 Z-4.081 I0.397 J0.
X143.083 Z-4.116 I-0.397 J0.
X143.877 Z-4.15 I0.397 J0.
X143.083 Z-4.185 I-0.397 J0.
X143.877 Z-4.22 I0.397 J0.
X143.083 Z-4.254 I-0.397 J0.
X143.877 Z-4.289 I0.397 J0.
X143.083 Z-4.324 I-0.397 J0.
X143.877 Z-4.358 I0.397 J0.
X143.083 Z-4.393 I-0.397 J0.
X143.877 Z-4.427 I0.397 J0.
X143.083 Z-4.462 I-0.397 J0.
X143.877 Z-4.497 I0.397 J0.
X143.083 Z-4.531 I-0.397 J0.
X143.877 Z-4.566 I0.397 J0.
X143.083 Z-4.601 I-0.397 J0.
X143.877 Z-4.635 I0.397 J0.
X143.083 Z-4.67 I-0.397 J0.
X143.877 Z-4.705 I0.397 J0.
X143.083 Z-4.739 I-0.397 J0.
X143.877 Z-4.774 I0.397 J0.
X143.083 Z-4.808 I-0.397 J0.
X143.877 Z-4.843 I0.397 J0.
X143.083 Z-4.878 I-0.397 J0.
X143.877 Z-4.912 I0.397 J0.
X143.083 Z-4.947 I-0.397 J0.
X143.877 Z-4.982 I0.397 J0.
X143.083 Z-5.016 I-0.397 J0.
X143.877 Z-5.051 I0.397 J0.
X143.083 Z-5.086 I-0.397 J0.
X143.877 Z-5.12 I0.397 J0.
X143.083 Z-5.155 I-0.397 J0.
X143.58 Y13.084 Z-5.175 I0.397 J0.
X143.38 Y12.316 I-0.1 J-0.384
X143.58 Y13.084 I0.1 J0.384
X143.722 Y12.842 I-0.05 J-0.192
G1 X143.682 Y12.688
X143.664 Y12.62 Z-5.167
X143.647 Y12.555 Z-5.144
X143.632 Y12.497 Z-5.106
X143.619 Y12.448 Z-5.055
X143.61 Y12.411 Z-4.995
X143.604 Y12.389 Z-4.928
X143.602 Y12.381 Z-4.858
G0 Z5.
X143.202 Y38.298
Z4.5
G1 Z2.818 F800.
G18 G2 X143.52 Z2.5 I0.317 K0.
G1 X143.678
G17 G2 X143.877 Y38.1 I0. J-0.198
X143.083 Z2.465 I-0.397 J0.
X143.877 Z2.431 I0.397 J0.
X143.083 Z2.396 I-0.397 J0.
X143.877 Z2.361 I0.397 J0.
X143.083 Z2.327 I-0.397 J0.
X143.877 Z2.292 I0.397 J0.
X143.083 Z2.258 I-0.397 J0.
X143.877 Z2.223 I0.397 J0.
X143.083 Z2.188 I-0.397 J0.
X143.877 Z2.154 I0.397 J0.
X143.083 Z2.119 I-0.397 J0.
X143.877 Z2.084 I0.397 J0.
X143.083 Z2.05 I-0.397 J0.
X143.877 Z2.015 I0.397 J0.
X143.083 Z1.98 I-0.397 J0.
X143.877 Z1.946 I0.397 J0.
X143.083 Z1.911 I-0.397 J0.
X143.877 Z1.877 I0.397 J0.
X143.083 Z1.842 I-0.397 J0.
X143.877 Z1.807 I0.397 J0.
X143.083 Z1.773 I-0.397 J0.
X143.877 Z1.738 I0.397 J0.
X143.083 Z1.703 I-0.397 J0.
X143.877 Z1.669 I0.397 J0.
X143.083 Z1.634 I-0.397 J0.
X143.877 Z1.599 I0.397 J0.
X143.083 Z1.565 I-0.397 J0.
X143.877 Z1.53 I0.397 J0.
X143.083 Z1.496 I-0.397 J0.
X143.877 Z1.461 I0.397 J0.
X143.083 Z1.426 I-0.397 J0.
X143.877 Z1.392 I0.397 J0.
X143.083 Z1.357 I-0.397 J0.
X143.877 Z1.322 I0.397 J0.
X143.083 Z1.288 I-0.397 J0.
X143.877 Z1.253 I0.397 J0.
X143.083 Z1.218 I-0.397 J0.
X143.877 Z1.184 I0.397 J0.
X143.083 Z1.149 I-0.397 J0.
X143.877 Z1.115 I0.397 J0.
X143.083 Z1.08 I-0.397 J0.
X143.877 Z1.045 I0.397 J0.
X143.083 Z1.011 I-0.397 J0.
X143.877 Z0.976 I0.397 J0.
X143.083 Z0.941 I-0.397 J0.
X143.877 Z0.907 I0.397 J0.
X143.083 Z0.872 I-0.397 J0.
X143.877 Z0.837 I0.397 J0.
X143.083 Z0.803 I-0.397 J0.
X143.877 Z0.768 I0.397 J0.
X143.083 Z0.733 I-0.397 J0.
X143.877 Z0.699 I0.397 J0.
X143.083 Z0.664 I-0.397 J0.
X143.877 Z0.63 I0.397 J0.
X143.083 Z0.595 I-0.397 J0.
X143.877 Z0.56 I0.397 J0.
X143.083 Z0.526 I-0.397 J0.
X143.877 Z0.491 I0.397 J0.
X143.083 Z0.456 I-0.397 J0.
X143.877 Z0.422 I0.397 J0.
X143.083 Z0.387 I-0.397 J0.
X143.877 Z0.352 I0.397 J0.
X143.083 Z0.318 I-0.397 J0.
X143.877 Z0.283 I0.397 J0.
X143.083 Z0.249 I-0.397 J0.
X143.877 Z0.214 I0.397 J0.
X143.083 Z0.179 I-0.397 J0.
X143.877 Z0.145 I0.397 J0.
X143.083 Z0.11 I-0.397 J0.
X143.877 Z0.075 I0.397 J0.
X143.083 Z0.041 I-0.397 J0.
X143.877 Z0.006 I0.397 J0.
X143.083 Z-0.029 I-0.397 J0.
X143.877 Z-0.063 I0.397 J0.
X143.083 Z-0.098 I-0.397 J0.
X143.877 Z-0.132 I0.397 J0.
X143.083 Z-0.167 I-0.397 J0.
X143.877 Z-0.202 I0.397 J0.
X143.083 Z-0.236 I-0.397 J0.
X143.877 Z-0.271 I0.397 J0.
X143.083 Z-0.306 I-0.397 J0.
X143.877 Z-0.34 I0.397 J0.
X143.083 Z-0.375 I-0.397 J0.
X143.877 Z-0.41 I0.397 J0.
X143.083 Z-0.444 I-0.397 J0.
X143.877 Z-0.479 I0.397 J0.
X143.083 Z-0.513 I-0.397 J0.
X143.877 Z-0.548 I0.397 J0.
X143.083 Z-0.583 I-0.397 J0.
X143.877 Z-0.617 I0.397 J0.
X143.083 Z-0.652 I-0.397 J0.
X143.877 Z-0.687 I0.397 J0.
X143.083 Z-0.721 I-0.397 J0.
X143.877 Z-0.756 I0.397 J0.
X143.083 Z-0.791 I-0.397 J0.
X143.877 Z-0.825 I0.397 J0.
X143.083 Z-0.86 I-0.397 J0.
X143.877 Z-0.894 I0.397 J0.
X143.083 Z-0.929 I-0.397 J0.
X143.877 Z-0.964 I0.397 J0.
X143.083 Z-0.998 I-0.397 J0.
X143.877 Z-1.033 I0.397 J0.
X143.083 Z-1.068 I-0.397 J0.
X143.877 Z-1.102 I0.397 J0.
X143.083 Z-1.137 I-0.397 J0.
X143.877 Z-1.172 I0.397 J0.
X143.083 Z-1.206 I-0.397 J0.
X143.877 Z-1.241 I0.397 J0.
X143.083 Z-1.275 I-0.397 J0.
X143.877 Z-1.31 I0.397 J0.
X143.083 Z-1.345 I-0.397 J0.
X143.877 Z-1.379 I0.397 J0.
X143.083 Z-1.414 I-0.397 J0.
X143.877 Z-1.449 I0.397 J0.
X143.083 Z-1.483 I-0.397 J0.
X143.877 Z-1.518 I0.397 J0.
X143.083 Z-1.553 I-0.397 J0.
X143.877 Z-1.587 I0.397 J0.
X143.083 Z-1.622 I-0.397 J0.
X143.877 Z-1.656 I0.397 J0.
X143.083 Z-1.691 I-0.397 J0.
X143.877 Z-1.726 I0.397 J0.
X143.083 Z-1.76 I-0.397 J0.
X143.877 Z-1.795 I0.397 J0.
X143.083 Z-1.83 I-0.397 J0.
X143.877 Z-1.864 I0.397 J0.
X143.083 Z-1.899 I-0.397 J0.
X143.877 Z-1.934 I0.397 J0.
X143.083 Z-1.968 I-0.397 J0.
X143.877 Z-2.003 I0.397 J0.
X143.083 Z-2.037 I-0.397 J0.
X143.877 Z-2.072 I0.397 J0.
X143.083 Z-2.107 I-0.397 J0.
X143.877 Z-2.141 I0.397 J0.
X143.083 Z-2.176 I-0.397 J0.
X143.877 Z-2.211 I0.397 J0.
X143.083 Z-2.245 I-0.397 J0.
X143.877 Z-2.28 I0.397 J0.
X143.083 Z-2.315 I-0.397 J0.
X143.877 Z-2.349 I0.397 J0.
X143.083 Z-2.384 I-0.397 J0.
X143.877 Z-2.419 I0.397 J0.
X143.083 Z-2.453 I-0.397 J0.
X143.877 Z-2.488 I0.397 J0.
X143.083 Z-2.522 I-0.397 J0.
X143.877 Z-2.557 I0.397 J0.
X143.083 Z-2.592 I-0.397 J0.
X143.877 Z-2.626 I0.397 J0.
X143.083 Z-2.661 I-0.397 J0.
X143.877 Z-2.696 I0.397 J0.
X143.083 Z-2.73 I-0.397 J0.
X143.877 Z-2.765 I0.397 J0.
X143.083 Z-2.8 I-0.397 J0.
X143.877 Z-2.834 I0.397 J0.
X143.083 Z-2.869 I-0.397 J0.
X143.877 Z-2.903 I0.397 J0.
X143.083 Z-2.938 I-0.397 J0.
X143.877 Z-2.973 I0.397 J0.
X143.083 Z-3.007 I-0.397 J0.
X143.877 Z-3.042 I0.397 J0.
X143.083 Z-3.077 I-0.397 J0.
X143.877 Z-3.111 I0.397 J0.
X143.083 Z-3.146 I-0.397 J0.
X143.877 Z-3.181 I0.397 J0.
X143.083 Z-3.215 I-0.397 J0.
X143.877 Z-3.25 I0.397 J0.
X143.083 Z-3.284 I-0.397 J0.
X143.877 Z-3.319 I0.397 J0.
X143.083 Z-3.354 I-0.397 J0.
X143.877 Z-3.388 I0.397 J0.
X143.083 Z-3.423 I-0.397 J0.
X143.877 Z-3.458 I0.397 J0.
X143.083 Z-3.492 I-0.397 J0.
X143.877 Z-3.527 I0.397 J0.
X143.083 Z-3.562 I-0.397 J0.
X143.877 Z-3.596 I0.397 J0.
X143.083 Z-3.631 I-0.397 J0.
X143.877 Z-3.665 I0.397 J0.
X143.083 Z-3.7 I-0.397 J0.
X143.877 Z-3.735 I0.397 J0.
X143.083 Z-3.769 I-0.397 J0.
X143.877 Z-3.804 I0.397 J0.
X143.083 Z-3.839 I-0.397 J0.
X143.877 Z-3.873 I0.397 J0.
X143.083 Z-3.908 I-0.397 J0.
X143.877 Z-3.943 I0.397 J0.
X143.083 Z-3.977 I-0.397 J0.
X143.877 Z-4.012 I0.397 J0.
X143.083 Z-4.046 I-0.397 J0.
X143.877 Z-4.081 I0.397 J0.
X143.083 Z-4.116 I-0.397 J0.
X143.877 Z-4.15 I0.397 J0.
X143.083 Z-4.185 I-0.397 J0.
X143.877 Z-4.22 I0.397 J0.
X143.083 Z-4.254 I-0.397 J0.
X143.877 Z-4.289 I0.397 J0.
X143.083 Z-4.324 I-0.397 J0.
X143.877 Z-4.358 I0.397 J0.
X143.083 Z-4.393 I-0.397 J0.
X143.877 Z-4.427 I0.397 J0.
X143.083 Z-4.462 I-0.397 J0.
X143.877 Z-4.497 I0.397 J0.
X143.083 Z-4.531 I-0.397 J0.
X143.877 Z-4.566 I0.397 J0.
X143.083 Z-4.601 I-0.397 J0.
X143.877 Z-4.635 I0.397 J0.
X143.083 Z-4.67 I-0.397 J0.
X143.877 Z-4.705 I0.397 J0.
X143.083 Z-4.739 I-0.397 J0.
X143.877 Z-4.774 I0.397 J0.
X143.083 Z-4.808 I-0.397 J0.
X143.877 Z-4.843 I0.397 J0.
X143.083 Z-4.878 I-0.397 J0.
X143.877 Z-4.912 I0.397 J0.
X143.083 Z-4.947 I-0.397 J0.
X143.877 Z-4.982 I0.397 J0.
X143.083 Z-5.016 I-0.397 J0.
X143.877 Z-5.051 I0.397 J0.
X143.083 Z-5.086 I-0.397 J0.
X143.877 Z-5.12 I0.397 J0.
X143.083 Z-5.155 I-0.397 J0.
X143.58 Y38.484 Z-5.175 I0.397 J0.
X143.38 Y37.716 I-0.1 J-0.384
X143.58 Y38.484 I0.1 J0.384
X143.722 Y38.242 I-0.05 J-0.192
G1 X143.682 Y38.088
X143.664 Y38.02 Z-5.167
X143.647 Y37.955 Z-5.144
X143.632 Y37.897 Z-5.106
X143.619 Y37.848 Z-5.055
X143.61 Y37.811 Z-4.995
X143.604 Y37.789 Z-4.928
X143.602 Y37.781 Z-4.858
G0 Z5.
X143.202 Y57.348
Z4.5
G1 Z2.818 F800.
G18 G2 X143.52 Z2.5 I0.317 K0.
G1 X143.678
G17 G2 X143.877 Y57.15 I0. J-0.198
X143.083 Z2.465 I-0.397 J0.
X143.877 Z2.431 I0.397 J0.
X143.083 Z2.396 I-0.397 J0.
X143.877 Z2.361 I0.397 J0.
X143.083 Z2.327 I-0.397 J0.
X143.877 Z2.292 I0.397 J0.
X143.083 Z2.258 I-0.397 J0.
X143.877 Z2.223 I0.397 J0.
X143.083 Z2.188 I-0.397 J0.
X143.877 Z2.154 I0.397 J0.
X143.083 Z2.119 I-0.397 J0.
X143.877 Z2.084 I0.397 J0.
X143.083 Z2.05 I-0.397 J0.
X143.877 Z2.015 I0.397 J0.
X143.083 Z1.98 I-0.397 J0.
X143.877 Z1.946 I0.397 J0.
X143.083 Z1.911 I-0.397 J0.
X143.877 Z1.877 I0.397 J0.
X143.083 Z1.842 I-0.397 J0.
X143.877 Z1.807 I0.397 J0.
X143.083 Z1.773 I-0.397 J0.
X143.877 Z1.738 I0.397 J0.
X143.083 Z1.703 I-0.397 J0.
X143.877 Z1.669 I0.397 J0.
X143.083 Z1.634 I-0.397 J0.
X143.877 Z1.599 I0.397 J0.
X143.083 Z1.565 I-0.397 J0.
X143.877 Z1.53 I0.397 J0.
X143.083 Z1.496 I-0.397 J0.
X143.877 Z1.461 I0.397 J0.
X143.083 Z1.426 I-0.397 J0.
X143.877 Z1.392 I0.397 J0.
X143.083 Z1.357 I-0.397 J0.
X143.877 Z1.322 I0.397 J0.
X143.083 Z1.288 I-0.397 J0.
X143.877 Z1.253 I0.397 J0.
X143.083 Z1.218 I-0.397 J0.
X143.877 Z1.184 I0.397 J0.
X143.083 Z1.149 I-0.397 J0.
X143.877 Z1.115 I0.397 J0.
X143.083 Z1.08 I-0.397 J0.
X143.877 Z1.045 I0.397 J0.
X143.083 Z1.011 I-0.397 J0.
X143.877 Z0.976 I0.397 J0.
X143.083 Z0.941 I-0.397 J0.
X143.877 Z0.907 I0.397 J0.
X143.083 Z0.872 I-0.397 J0.
X143.877 Z0.837 I0.397 J0.
X143.083 Z0.803 I-0.397 J0.
X143.877 Z0.768 I0.397 J0.
X143.083 Z0.733 I-0.397 J0.
X143.877 Z0.699 I0.397 J0.
X143.083 Z0.664 I-0.397 J0.
X143.877 Z0.63 I0.397 J0.
X143.083 Z0.595 I-0.397 J0.
X143.877 Z0.56 I0.397 J0.
X143.083 Z0.526 I-0.397 J0.
X143.877 Z0.491 I0.397 J0.
X143.083 Z0.456 I-0.397 J0.
X143.877 Z0.422 I0.397 J0.
X143.083 Z0.387 I-0.397 J0.
X143.877 Z0.352 I0.397 J0.
X143.083 Z0.318 I-0.397 J0.
X143.877 Z0.283 I0.397 J0.
X143.083 Z0.249 I-0.397 J0.
X143.877 Z0.214 I0.397 J0.
X143.083 Z0.179 I-0.397 J0.
X143.877 Z0.145 I0.397 J0.
X143.083 Z0.11 I-0.397 J0.
X143.877 Z0.075 I0.397 J0.
X143.083 Z0.041 I-0.397 J0.
X143.877 Z0.006 I0.397 J0.
X143.083 Z-0.029 I-0.397 J0.
X143.877 Z-0.063 I0.397 J0.
X143.083 Z-0.098 I-0.397 J0.
X143.877 Z-0.132 I0.397 J0.
X143.083 Z-0.167 I-0.397 J0.
X143.877 Z-0.202 I0.397 J0.
X143.083 Z-0.236 I-0.397 J0.
X143.877 Z-0.271 I0.397 J0.
X143.083 Z-0.306 I-0.397 J0.
X143.877 Z-0.34 I0.397 J0.
X143.083 Z-0.375 I-0.397 J0.
X143.877 Z-0.41 I0.397 J0.
X143.083 Z-0.444 I-0.397 J0.
X143.877 Z-0.479 I0.397 J0.
X143.083 Z-0.513 I-0.397 J0.
X143.877 Z-0.548 I0.397 J0.
X143.083 Z-0.583 I-0.397 J0.
X143.877 Z-0.617 I0.397 J0.
X143.083 Z-0.652 I-0.397 J0.
X143.877 Z-0.687 I0.397 J0.
X143.083 Z-0.721 I-0.397 J0.
X143.877 Z-0.756 I0.397 J0.
X143.083 Z-0.791 I-0.397 J0.
X143.877 Z-0.825 I0.397 J0.
X143.083 Z-0.86 I-0.397 J0.
X143.877 Z-0.894 I0.397 J0.
X143.083 Z-0.929 I-0.397 J0.
X143.877 Z-0.964 I0.397 J0.
X143.083 Z-0.998 I-0.397 J0.
X143.877 Z-1.033 I0.397 J0.
X143.083 Z-1.068 I-0.397 J0.
X143.877 Z-1.102 I0.397 J0.
X143.083 Z-1.137 I-0.397 J0.
X143.877 Z-1.172 I0.397 J0.
X143.083 Z-1.206 I-0.397 J0.
X143.877 Z-1.241 I0.397 J0.
X143.083 Z-1.275 I-0.397 J0.
X143.877 Z-1.31 I0.397 J0.
X143.083 Z-1.345 I-0.397 J0.
X143.877 Z-1.379 I0.397 J0.
X143.083 Z-1.414 I-0.397 J0.
X143.877 Z-1.449 I0.397 J0.
X143.083 Z-1.483 I-0.397 J0.
X143.877 Z-1.518 I0.397 J0.
X143.083 Z-1.553 I-0.397 J0.
X143.877 Z-1.587 I0.397 J0.
X143.083 Z-1.622 I-0.397 J0.
X143.877 Z-1.656 I0.397 J0.
X143.083 Z-1.691 I-0.397 J0.
X143.877 Z-1.726 I0.397 J0.
X143.083 Z-1.76 I-0.397 J0.
X143.877 Z-1.795 I0.397 J0.
X143.083 Z-1.83 I-0.397 J0.
X143.877 Z-1.864 I0.397 J0.
X143.083 Z-1.899 I-0.397 J0.
X143.877 Z-1.934 I0.397 J0.
X143.083 Z-1.968 I-0.397 J0.
X143.877 Z-2.003 I0.397 J0.
X143.083 Z-2.037 I-0.397 J0.
X143.877 Z-2.072 I0.397 J0.
X143.083 Z-2.107 I-0.397 J0.
X143.877 Z-2.141 I0.397 J0.
X143.083 Z-2.176 I-0.397 J0.
X143.877 Z-2.211 I0.397 J0.
X143.083 Z-2.245 I-0.397 J0.
X143.877 Z-2.28 I0.397 J0.
X143.083 Z-2.315 I-0.397 J0.
X143.877 Z-2.349 I0.397 J0.
X143.083 Z-2.384 I-0.397 J0.
X143.877 Z-2.419 I0.397 J0.
X143.083 Z-2.453 I-0.397 J0.
X143.877 Z-2.488 I0.397 J0.
X143.083 Z-2.522 I-0.397 J0.
X143.877 Z-2.557 I0.397 J0.
X143.083 Z-2.592 I-0.397 J0.
X143.877 Z-2.626 I0.397 J0.
X143.083 Z-2.661 I-0.397 J0.
X143.877 Z-2.696 I0.397 J0.
X143.083 Z-2.73 I-0.397 J0.
X143.877 Z-2.765 I0.397 J0.
X143.083 Z-2.8 I-0.397 J0.
X143.877 Z-2.834 I0.397 J0.
X143.083 Z-2.869 I-0.397 J0.
X143.877 Z-2.903 I0.397 J0.
X143.083 Z-2.938 I-0.397 J0.
X143.877 Z-2.973 I0.397 J0.
X143.083 Z-3.007 I-0.397 J0.
X143.877 Z-3.042 I0.397 J0.
X143.083 Z-3.077 I-0.397 J0.
X143.877 Z-3.111 I0.397 J0.
X143.083 Z-3.146 I-0.397 J0.
X143.877 Z-3.181 I0.397 J0.
X143.083 Z-3.215 I-0.397 J0.
X143.877 Z-3.25 I0.397 J0.
X143.083 Z-3.284 I-0.397 J0.
X143.877 Z-3.319 I0.397 J0.
X143.083 Z-3.354 I-0.397 J0.
X143.877 Z-3.388 I0.397 J0.
X143.083 Z-3.423 I-0.397 J0.
X143.877 Z-3.458 I0.397 J0.
X143.083 Z-3.492 I-0.397 J0.
X143.877 Z-3.527 I0.397 J0.
X143.083 Z-3.562 I-0.397 J0.
X143.877 Z-3.596 I0.397 J0.
X143.083 Z-3.631 I-0.397 J0.
X143.877 Z-3.665 I0.397 J0.
X143.083 Z-3.7 I-0.397 J0.
X143.877 Z-3.735 I0.397 J0.
X143.083 Z-3.769 I-0.397 J0.
X143.877 Z-3.804 I0.397 J0.
X143.083 Z-3.839 I-0.397 J0.
X143.877 Z-3.873 I0.397 J0.
X143.083 Z-3.908 I-0.397 J0.
X143.877 Z-3.943 I0.397 J0.
X143.083 Z-3.977 I-0.397 J0.
X143.877 Z-4.012 I0.397 J0.
X143.083 Z-4.046 I-0.397 J0.
X143.877 Z-4.081 I0.397 J0.
X143.083 Z-4.116 I-0.397 J0.
X143.877 Z-4.15 I0.397 J0.
X143.083 Z-4.185 I-0.397 J0.
X143.877 Z-4.22 I0.397 J0.
X143.083 Z-4.254 I-0.397 J0.
X143.877 Z-4.289 I0.397 J0.
X143.083 Z-4.324 I-0.397 J0.
X143.877 Z-4.358 I0.397 J0.
X143.083 Z-4.393 I-0.397 J0.
X143.877 Z-4.427 I0.397 J0.
X143.083 Z-4.462 I-0.397 J0.
X143.877 Z-4.497 I0.397 J0.
X143.083 Z-4.531 I-0.397 J0.
X143.877 Z-4.566 I0.397 J0.
X143.083 Z-4.601 I-0.397 J0.
X143.877 Z-4.635 I0.397 J0.
X143.083 Z-4.67 I-0.397 J0.
X143.877 Z-4.705 I0.397 J0.
X143.083 Z-4.739 I-0.397 J0.
X143.877 Z-4.774 I0.397 J0.
X143.083 Z-4.808 I-0.397 J0.
X143.877 Z-4.843 I0.397 J0.
X143.083 Z-4.878 I-0.397 J0.
X143.877 Z-4.912 I0.397 J0.
X143.083 Z-4.947 I-0.397 J0.
X143.877 Z-4.982 I0.397 J0.
X143.083 Z-5.016 I-0.397 J0.
X143.877 Z-5.051 I0.397 J0.
X143.083 Z-5.086 I-0.397 J0.
X143.877 Z-5.12 I0.397 J0.
X143.083 Z-5.155 I-0.397 J0.
X143.58 Y57.534 Z-5.175 I0.397 J0.
X143.38 Y56.766 I-0.1 J-0.384
X143.58 Y57.534 I0.1 J0.384
X143.722 Y57.292 I-0.05 J-0.192
G1 X143.682 Y57.138
X143.664 Y57.07 Z-5.167
X143.647 Y57.005 Z-5.144
X143.632 Y56.947 Z-5.106
X143.619 Y56.898 Z-5.055
X143.61 Y56.861 Z-4.995
X143.604 Y56.839 Z-4.928
X143.602 Y56.831 Z-4.858
G0 Z5.
X168.602 Y57.348
Z4.5
G1 Z2.818 F800.
G18 G2 X168.92 Z2.5 I0.318 K0.
G1 X169.078
G17 G2 X169.277 Y57.15 I0. J-0.198
X168.483 Z2.465 I-0.397 J0.
X169.277 Z2.431 I0.397 J0.
X168.483 Z2.396 I-0.397 J0.
X169.277 Z2.361 I0.397 J0.
X168.483 Z2.327 I-0.397 J0.
X169.277 Z2.292 I0.397 J0.
X168.483 Z2.258 I-0.397 J0.
X169.277 Z2.223 I0.397 J0.
X168.483 Z2.188 I-0.397 J0.
X169.277 Z2.154 I0.397 J0.
X168.483 Z2.119 I-0.397 J0.
X169.277 Z2.084 I0.397 J0.
X168.483 Z2.05 I-0.397 J0.
X169.277 Z2.015 I0.397 J0.
X168.483 Z1.98 I-0.397 J0.
X169.277 Z1.946 I0.397 J0.
X168.483 Z1.911 I-0.397 J0.
X169.277 Z1.877 I0.397 J0.
X168.483 Z1.842 I-0.397 J0.
X169.277 Z1.807 I0.397 J0.
X168.483 Z1.773 I-0.397 J0.
X169.277 Z1.738 I0.397 J0.
X168.483 Z1.703 I-0.397 J0.
X169.277 Z1.669 I0.397 J0.
X168.483 Z1.634 I-0.397 J0.
X169.277 Z1.599 I0.397 J0.
X168.483 Z1.565 I-0.397 J0.
X169.277 Z1.53 I0.397 J0.
X168.483 Z1.496 I-0.397 J0.
X169.277 Z1.461 I0.397 J0.
X168.483 Z1.426 I-0.397 J0.
X169.277 Z1.392 I0.397 J0.
X168.483 Z1.357 I-0.397 J0.
X169.277 Z1.322 I0.397 J0.
X168.483 Z1.288 I-0.397 J0.
X169.277 Z1.253 I0.397 J0.
X168.483 Z1.218 I-0.397 J0.
X169.277 Z1.184 I0.397 J0.
X168.483 Z1.149 I-0.397 J0.
X169.277 Z1.115 I0.397 J0.
X168.483 Z1.08 I-0.397 J0.
X169.277 Z1.045 I0.397 J0.
X168.483 Z1.011 I-0.397 J0.
X169.277 Z0.976 I0.397 J0.
X168.483 Z0.941 I-0.397 J0.
X169.277 Z0.907 I0.397 J0.
X168.483 Z0.872 I-0.397 J0.
X169.277 Z0.837 I0.397 J0.
X168.483 Z0.803 I-0.397 J0.
X169.277 Z0.768 I0.397 J0.
X168.483 Z0.733 I-0.397 J0.
X169.277 Z0.699 I0.397 J0.
X168.483 Z0.664 I-0.397 J0.
X169.277 Z0.63 I0.397 J0.
X168.483 Z0.595 I-0.397 J0.
X169.277 Z0.56 I0.397 J0.
X168.483 Z0.526 I-0.397 J0.
X169.277 Z0.491 I0.397 J0.
X168.483 Z0.456 I-0.397 J0.
X169.277 Z0.422 I0.397 J0.
X168.483 Z0.387 I-0.397 J0.
X169.277 Z0.352 I0.397 J0.
X168.483 Z0.318 I-0.397 J0.
X169.277 Z0.283 I0.397 J0.
X168.483 Z0.249 I-0.397 J0.
X169.277 Z0.214 I0.397 J0.
X168.483 Z0.179 I-0.397 J0.
X169.277 Z0.145 I0.397 J0.
X168.483 Z0.11 I-0.397 J0.
X169.277 Z0.075 I0.397 J0.
X168.483 Z0.041 I-0.397 J0.
X169.277 Z0.006 I0.397 J0.
X168.483 Z-0.029 I-0.397 J0.
X169.277 Z-0.063 I0.397 J0.
X168.483 Z-0.098 I-0.397 J0.
X169.277 Z-0.132 I0.397 J0.
X168.483 Z-0.167 I-0.397 J0.
X169.277 Z-0.202 I0.397 J0.
X168.483 Z-0.236 I-0.397 J0.
X169.277 Z-0.271 I0.397 J0.
X168.483 Z-0.306 I-0.397 J0.
X169.277 Z-0.34 I0.397 J0.
X168.483 Z-0.375 I-0.397 J0.
X169.277 Z-0.41 I0.397 J0.
X168.483 Z-0.444 I-0.397 J0.
X169.277 Z-0.479 I0.397 J0.
X168.483 Z-0.513 I-0.397 J0.
X169.277 Z-0.548 I0.397 J0.
X168.483 Z-0.583 I-0.397 J0.
X169.277 Z-0.617 I0.397 J0.
X168.483 Z-0.652 I-0.397 J0.
X169.277 Z-0.687 I0.397 J0.
X168.483 Z-0.721 I-0.397 J0.
X169.277 Z-0.756 I0.397 J0.
X168.483 Z-0.791 I-0.397 J0.
X169.277 Z-0.825 I0.397 J0.
X168.483 Z-0.86 I-0.397 J0.
X169.277 Z-0.894 I0.397 J0.
X168.483 Z-0.929 I-0.397 J0.
X169.277 Z-0.964 I0.397 J0.
X168.483 Z-0.998 I-0.397 J0.
X169.277 Z-1.033 I0.397 J0.
X168.483 Z-1.068 I-0.397 J0.
X169.277 Z-1.102 I0.397 J0.
X168.483 Z-1.137 I-0.397 J0.
X169.277 Z-1.172 I0.397 J0.
X168.483 Z-1.206 I-0.397 J0.
X169.277 Z-1.241 I0.397 J0.
X168.483 Z-1.275 I-0.397 J0.
X169.277 Z-1.31 I0.397 J0.
X168.483 Z-1.345 I-0.397 J0.
X169.277 Z-1.379 I0.397 J0.
X168.483 Z-1.414 I-0.397 J0.
X169.277 Z-1.449 I0.397 J0.
X168.483 Z-1.483 I-0.397 J0.
X169.277 Z-1.518 I0.397 J0.
X168.483 Z-1.553 I-0.397 J0.
X169.277 Z-1.587 I0.397 J0.
X168.483 Z-1.622 I-0.397 J0.
X169.277 Z-1.656 I0.397 J0.
X168.483 Z-1.691 I-0.397 J0.
X169.277 Z-1.726 I0.397 J0.
X168.483 Z-1.76 I-0.397 J0.
X169.277 Z-1.795 I0.397 J0.
X168.483 Z-1.83 I-0.397 J0.
X169.277 Z-1.864 I0.397 J0.
X168.483 Z-1.899 I-0.397 J0.
X169.277 Z-1.934 I0.397 J0.
X168.483 Z-1.968 I-0.397 J0.
X169.277 Z-2.003 I0.397 J0.
X168.483 Z-2.037 I-0.397 J0.
X169.277 Z-2.072 I0.397 J0.
X168.483 Z-2.107 I-0.397 J0.
X169.277 Z-2.141 I0.397 J0.
X168.483 Z-2.176 I-0.397 J0.
X169.277 Z-2.211 I0.397 J0.
X168.483 Z-2.245 I-0.397 J0.
X169.277 Z-2.28 I0.397 J0.
X168.483 Z-2.315 I-0.397 J0.
X169.277 Z-2.349 I0.397 J0.
X168.483 Z-2.384 I-0.397 J0.
X169.277 Z-2.419 I0.397 J0.
X168.483 Z-2.453 I-0.397 J0.
X169.277 Z-2.488 I0.397 J0.
X168.483 Z-2.522 I-0.397 J0.
X169.277 Z-2.557 I0.397 J0.
X168.483 Z-2.592 I-0.397 J0.
X169.277 Z-2.626 I0.397 J0.
X168.483 Z-2.661 I-0.397 J0.
X169.277 Z-2.696 I0.397 J0.
X168.483 Z-2.73 I-0.397 J0.
X169.277 Z-2.765 I0.397 J0.
X168.483 Z-2.8 I-0.397 J0.
X169.277 Z-2.834 I0.397 J0.
X168.483 Z-2.869 I-0.397 J0.
X169.277 Z-2.903 I0.397 J0.
X168.483 Z-2.938 I-0.397 J0.
X169.277 Z-2.973 I0.397 J0.
X168.483 Z-3.007 I-0.397 J0.
X169.277 Z-3.042 I0.397 J0.
X168.483 Z-3.077 I-0.397 J0.
X169.277 Z-3.111 I0.397 J0.
X168.483 Z-3.146 I-0.397 J0.
X169.277 Z-3.181 I0.397 J0.
X168.483 Z-3.215 I-0.397 J0.
X169.277 Z-3.25 I0.397 J0.
X168.483 Z-3.284 I-0.397 J0.
X169.277 Z-3.319 I0.397 J0.
X168.483 Z-3.354 I-0.397 J0.
X169.277 Z-3.388 I0.397 J0.
X168.483 Z-3.423 I-0.397 J0.
X169.277 Z-3.458 I0.397 J0.
X168.483 Z-3.492 I-0.397 J0.
X169.277 Z-3.527 I0.397 J0.
X168.483 Z-3.562 I-0.397 J0.
X169.277 Z-3.596 I0.397 J0.
X168.483 Z-3.631 I-0.397 J0.
X169.277 Z-3.665 I0.397 J0.
X168.483 Z-3.7 I-0.397 J0.
X169.277 Z-3.735 I0.397 J0.
X168.483 Z-3.769 I-0.397 J0.
X169.277 Z-3.804 I0.397 J0.
X168.483 Z-3.839 I-0.397 J0.
X169.277 Z-3.873 I0.397 J0.
X168.483 Z-3.908 I-0.397 J0.
X169.277 Z-3.943 I0.397 J0.
X168.483 Z-3.977 I-0.397 J0.
X169.277 Z-4.012 I0.397 J0.
X168.483 Z-4.046 I-0.397 J0.
X169.277 Z-4.081 I0.397 J0.
X168.483 Z-4.116 I-0.397 J0.
X169.277 Z-4.15 I0.397 J0.
X168.483 Z-4.185 I-0.397 J0.
X169.277 Z-4.22 I0.397 J0.
X168.483 Z-4.254 I-0.397 J0.
X169.277 Z-4.289 I0.397 J0.
X168.483 Z-4.324 I-0.397 J0.
X169.277 Z-4.358 I0.397 J0.
X168.483 Z-4.393 I-0.397 J0.
X169.277 Z-4.427 I0.397 J0.
X168.483 Z-4.462 I-0.397 J0.
X169.277 Z-4.497 I0.397 J0.
X168.483 Z-4.531 I-0.397 J0.
X169.277 Z-4.566 I0.397 J0.
X168.483 Z-4.601 I-0.397 J0.
X169.277 Z-4.635 I0.397 J0.
X168.483 Z-4.67 I-0.397 J0.
X169.277 Z-4.705 I0.397 J0.
X168.483 Z-4.739 I-0.397 J0.
X169.277 Z-4.774 I0.397 J0.
X168.483 Z-4.808 I-0.397 J0.
X169.277 Z-4.843 I0.397 J0.
X168.483 Z-4.878 I-0.397 J0.
X169.277 Z-4.912 I0.397 J0.
X168.483 Z-4.947 I-0.397 J0.
X169.277 Z-4.982 I0.397 J0.
X168.483 Z-5.016 I-0.397 J0.
X169.277 Z-5.051 I0.397 J0.
X168.483 Z-5.086 I-0.397 J0.
X169.277 Z-5.12 I0.397 J0.
X168.483 Z-5.155 I-0.397 J0.
X168.98 Y57.534 Z-5.175 I0.397 J0.
X168.78 Y56.766 I-0.1 J-0.384
X168.98 Y57.534 I0.1 J0.384
X169.122 Y57.292 I-0.05 J-0.192
G1 X169.082 Y57.138
X169.064 Y57.07 Z-5.167
X169.047 Y57.005 Z-5.144
X169.032 Y56.947 Z-5.106
X169.019 Y56.898 Z-5.055
X169.01 Y56.861 Z-4.995
X169.004 Y56.839 Z-4.928
X169.002 Y56.831 Z-4.858
G0 Z5.
X117.802 Y57.348
Z4.5
G1 Z2.818 F800.
G18 G2 X118.12 Z2.5 I0.318 K0.
G1 X118.278
G17 G2 X118.477 Y57.15 I0. J-0.198
X117.683 Z2.465 I-0.397 J0.
X118.477 Z2.431 I0.397 J0.
X117.683 Z2.396 I-0.397 J0.
X118.477 Z2.361 I0.397 J0.
X117.683 Z2.327 I-0.397 J0.
X118.477 Z2.292 I0.397 J0.
X117.683 Z2.258 I-0.397 J0.
X118.477 Z2.223 I0.397 J0.
X117.683 Z2.188 I-0.397 J0.
X118.477 Z2.154 I0.397 J0.
X117.683 Z2.119 I-0.397 J0.
X118.477 Z2.084 I0.397 J0.
X117.683 Z2.05 I-0.397 J0.
X118.477 Z2.015 I0.397 J0.
X117.683 Z1.98 I-0.397 J0.
X118.477 Z1.946 I0.397 J0.
X117.683 Z1.911 I-0.397 J0.
X118.477 Z1.877 I0.397 J0.
X117.683 Z1.842 I-0.397 J0.
X118.477 Z1.807 I0.397 J0.
X117.683 Z1.773 I-0.397 J0.
X118.477 Z1.738 I0.397 J0.
X117.683 Z1.703 I-0.397 J0.
X118.477 Z1.669 I0.397 J0.
X117.683 Z1.634 I-0.397 J0.
X118.477 Z1.599 I0.397 J0.
X117.683 Z1.565 I-0.397 J0.
X118.477 Z1.53 I0.397 J0.
X117.683 Z1.496 I-0.397 J0.
X118.477 Z1.461 I0.397 J0.
X117.683 Z1.426 I-0.397 J0.
X118.477 Z1.392 I0.397 J0.
X117.683 Z1.357 I-0.397 J0.
X118.477 Z1.322 I0.397 J0.
X117.683 Z1.288 I-0.397 J0.
X118.477 Z1.253 I0.397 J0.
X117.683 Z1.218 I-0.397 J0.
X118.477 Z1.184 I0.397 J0.
X117.683 Z1.149 I-0.397 J0.
X118.477 Z1.115 I0.397 J0.
X117.683 Z1.08 I-0.397 J0.
X118.477 Z1.045 I0.397 J0.
X117.683 Z1.011 I-0.397 J0.
X118.477 Z0.976 I0.397 J0.
X117.683 Z0.941 I-0.397 J0.
X118.477 Z0.907 I0.397 J0.
X117.683 Z0.872 I-0.397 J0.
X118.477 Z0.837 I0.397 J0.
X117.683 Z0.803 I-0.397 J0.
X118.477 Z0.768 I0.397 J0.
X117.683 Z0.733 I-0.397 J0.
X118.477 Z0.699 I0.397 J0.
X117.683 Z0.664 I-0.397 J0.
X118.477 Z0.63 I0.397 J0.
X117.683 Z0.595 I-0.397 J0.
X118.477 Z0.56 I0.397 J0.
X117.683 Z0.526 I-0.397 J0.
X118.477 Z0.491 I0.397 J0.
X117.683 Z0.456 I-0.397 J0.
X118.477 Z0.422 I0.397 J0.
X117.683 Z0.387 I-0.397 J0.
X118.477 Z0.352 I0.397 J0.
X117.683 Z0.318 I-0.397 J0.
X118.477 Z0.283 I0.397 J0.
X117.683 Z0.249 I-0.397 J0.
X118.477 Z0.214 I0.397 J0.
X117.683 Z0.179 I-0.397 J0.
X118.477 Z0.145 I0.397 J0.
X117.683 Z0.11 I-0.397 J0.
X118.477 Z0.075 I0.397 J0.
X117.683 Z0.041 I-0.397 J0.
X118.477 Z0.006 I0.397 J0.
X117.683 Z-0.029 I-0.397 J0.
X118.477 Z-0.063 I0.397 J0.
X117.683 Z-0.098 I-0.397 J0.
X118.477 Z-0.132 I0.397 J0.
X117.683 Z-0.167 I-0.397 J0.
X118.477 Z-0.202 I0.397 J0.
X117.683 Z-0.236 I-0.397 J0.
X118.477 Z-0.271 I0.397 J0.
X117.683 Z-0.306 I-0.397 J0.
X118.477 Z-0.34 I0.397 J0.
X117.683 Z-0.375 I-0.397 J0.
X118.477 Z-0.41 I0.397 J0.
X117.683 Z-0.444 I-0.397 J0.
X118.477 Z-0.479 I0.397 J0.
X117.683 Z-0.513 I-0.397 J0.
X118.477 Z-0.548 I0.397 J0.
X117.683 Z-0.583 I-0.397 J0.
X118.477 Z-0.617 I0.397 J0.
X117.683 Z-0.652 I-0.397 J0.
X118.477 Z-0.687 I0.397 J0.
X117.683 Z-0.721 I-0.397 J0.
X118.477 Z-0.756 I0.397 J0.
X117.683 Z-0.791 I-0.397 J0.
X118.477 Z-0.825 I0.397 J0.
X117.683 Z-0.86 I-0.397 J0.
X118.477 Z-0.894 I0.397 J0.
X117.683 Z-0.929 I-0.397 J0.
X118.477 Z-0.964 I0.397 J0.
X117.683 Z-0.998 I-0.397 J0.
X118.477 Z-1.033 I0.397 J0.
X117.683 Z-1.068 I-0.397 J0.
X118.477 Z-1.102 I0.397 J0.
X117.683 Z-1.137 I-0.397 J0.
X118.477 Z-1.172 I0.397 J0.
X117.683 Z-1.206 I-0.397 J0.
X118.477 Z-1.241 I0.397 J0.
X117.683 Z-1.275 I-0.397 J0.
X118.477 Z-1.31 I0.397 J0.
X117.683 Z-1.345 I-0.397 J0.
X118.477 Z-1.379 I0.397 J0.
X117.683 Z-1.414 I-0.397 J0.
X118.477 Z-1.449 I0.397 J0.
X117.683 Z-1.483 I-0.397 J0.
X118.477 Z-1.518 I0.397 J0.
X117.683 Z-1.553 I-0.397 J0.
X118.477 Z-1.587 I0.397 J0.
X117.683 Z-1.622 I-0.397 J0.
X118.477 Z-1.656 I0.397 J0.
X117.683 Z-1.691 I-0.397 J0.
X118.477 Z-1.726 I0.397 J0.
X117.683 Z-1.76 I-0.397 J0.
X118.477 Z-1.795 I0.397 J0.
X117.683 Z-1.83 I-0.397 J0.
X118.477 Z-1.864 I0.397 J0.
X117.683 Z-1.899 I-0.397 J0.
X118.477 Z-1.934 I0.397 J0.
X117.683 Z-1.968 I-0.397 J0.
X118.477 Z-2.003 I0.397 J0.
X117.683 Z-2.037 I-0.397 J0.
X118.477 Z-2.072 I0.397 J0.
X117.683 Z-2.107 I-0.397 J0.
X118.477 Z-2.141 I0.397 J0.
X117.683 Z-2.176 I-0.397 J0.
X118.477 Z-2.211 I0.397 J0.
X117.683 Z-2.245 I-0.397 J0.
X118.477 Z-2.28 I0.397 J0.
X117.683 Z-2.315 I-0.397 J0.
X118.477 Z-2.349 I0.397 J0.
X117.683 Z-2.384 I-0.397 J0.
X118.477 Z-2.419 I0.397 J0.
X117.683 Z-2.453 I-0.397 J0.
X118.477 Z-2.488 I0.397 J0.
X117.683 Z-2.522 I-0.397 J0.
X118.477 Z-2.557 I0.397 J0.
X117.683 Z-2.592 I-0.397 J0.
X118.477 Z-2.626 I0.397 J0.
X117.683 Z-2.661 I-0.397 J0.
X118.477 Z-2.696 I0.397 J0.
X117.683 Z-2.73 I-0.397 J0.
X118.477 Z-2.765 I0.397 J0.
X117.683 Z-2.8 I-0.397 J0.
X118.477 Z-2.834 I0.397 J0.
X117.683 Z-2.869 I-0.397 J0.
X118.477 Z-2.903 I0.397 J0.
X117.683 Z-2.938 I-0.397 J0.
X118.477 Z-2.973 I0.397 J0.
X117.683 Z-3.007 I-0.397 J0.
X118.477 Z-3.042 I0.397 J0.
X117.683 Z-3.077 I-0.397 J0.
X118.477 Z-3.111 I0.397 J0.
X117.683 Z-3.146 I-0.397 J0.
X118.477 Z-3.181 I0.397 J0.
X117.683 Z-3.215 I-0.397 J0.
X118.477 Z-3.25 I0.397 J0.
X117.683 Z-3.284 I-0.397 J0.
X118.477 Z-3.319 I0.397 J0.
X117.683 Z-3.354 I-0.397 J0.
X118.477 Z-3.388 I0.397 J0.
X117.683 Z-3.423 I-0.397 J0.
X118.477 Z-3.458 I0.397 J0.
X117.683 Z-3.492 I-0.397 J0.
X118.477 Z-3.527 I0.397 J0.
X117.683 Z-3.562 I-0.397 J0.
X118.477 Z-3.596 I0.397 J0.
X117.683 Z-3.631 I-0.397 J0.
X118.477 Z-3.665 I0.397 J0.
X117.683 Z-3.7 I-0.397 J0.
X118.477 Z-3.735 I0.397 J0.
X117.683 Z-3.769 I-0.397 J0.
X118.477 Z-3.804 I0.397 J0.
X117.683 Z-3.839 I-0.397 J0.
X118.477 Z-3.873 I0.397 J0.
X117.683 Z-3.908 I-0.397 J0.
X118.477 Z-3.943 I0.397 J0.
X117.683 Z-3.977 I-0.397 J0.
X118.477 Z-4.012 I0.397 J0.
X117.683 Z-4.046 I-0.397 J0.
X118.477 Z-4.081 I0.397 J0.
X117.683 Z-4.116 I-0.397 J0.
X118.477 Z-4.15 I0.397 J0.
X117.683 Z-4.185 I-0.397 J0.
X118.477 Z-4.22 I0.397 J0.
X117.683 Z-4.254 I-0.397 J0.
X118.477 Z-4.289 I0.397 J0.
X117.683 Z-4.324 I-0.397 J0.
X118.477 Z-4.358 I0.397 J0.
X117.683 Z-4.393 I-0.397 J0.
X118.477 Z-4.427 I0.397 J0.
X117.683 Z-4.462 I-0.397 J0.
X118.477 Z-4.497 I0.397 J0.
X117.683 Z-4.531 I-0.397 J0.
X118.477 Z-4.566 I0.397 J0.
X117.683 Z-4.601 I-0.397 J0.
X118.477 Z-4.635 I0.397 J0.
X117.683 Z-4.67 I-0.397 J0.
X118.477 Z-4.705 I0.397 J0.
X117.683 Z-4.739 I-0.397 J0.
X118.477 Z-4.774 I0.397 J0.
X117.683 Z-4.808 I-0.397 J0.
X118.477 Z-4.843 I0.397 J0.
X117.683 Z-4.878 I-0.397 J0.
X118.477 Z-4.912 I0.397 J0.
X117.683 Z-4.947 I-0.397 J0.
X118.477 Z-4.982 I0.397 J0.
X117.683 Z-5.016 I-0.397 J0.
X118.477 Z-5.051 I0.397 J0.
X117.683 Z-5.086 I-0.397 J0.
X118.477 Z-5.12 I0.397 J0.
X117.683 Z-5.155 I-0.397 J0.
X118.18 Y57.534 Z-5.175 I0.397 J0.
X117.98 Y56.766 I-0.1 J-0.384
X118.18 Y57.534 I0.1 J0.384
X118.322 Y57.292 I-0.05 J-0.192
G1 X118.282 Y57.138
X118.264 Y57.07 Z-5.167
X118.247 Y57.005 Z-5.144
X118.232 Y56.947 Z-5.106
X118.219 Y56.898 Z-5.055
X118.21 Y56.861 Z-4.995
X118.204 Y56.839 Z-4.928
X118.202 Y56.831 Z-4.858
G0 Z5.
X72.082 Y57.348
Z4.5
G1 Z2.818 F800.
G18 G2 X72.4 Z2.5 I0.318 K0.
G1 X72.558
G17 G2 X72.757 Y57.15 I0. J-0.198
X71.963 Z2.465 I-0.397 J0.
X72.757 Z2.431 I0.397 J0.
X71.963 Z2.396 I-0.397 J0.
X72.757 Z2.361 I0.397 J0.
X71.963 Z2.327 I-0.397 J0.
X72.757 Z2.292 I0.397 J0.
X71.963 Z2.258 I-0.397 J0.
X72.757 Z2.223 I0.397 J0.
X71.963 Z2.188 I-0.397 J0.
X72.757 Z2.154 I0.397 J0.
X71.963 Z2.119 I-0.397 J0.
X72.757 Z2.084 I0.397 J0.
X71.963 Z2.05 I-0.397 J0.
X72.757 Z2.015 I0.397 J0.
X71.963 Z1.98 I-0.397 J0.
X72.757 Z1.946 I0.397 J0.
X71.963 Z1.911 I-0.397 J0.
X72.757 Z1.877 I0.397 J0.
X71.963 Z1.842 I-0.397 J0.
X72.757 Z1.807 I0.397 J0.
X71.963 Z1.773 I-0.397 J0.
X72.757 Z1.738 I0.397 J0.
X71.963 Z1.703 I-0.397 J0.
X72.757 Z1.669 I0.397 J0.
X71.963 Z1.634 I-0.397 J0.
X72.757 Z1.599 I0.397 J0.
X71.963 Z1.565 I-0.397 J0.
X72.757 Z1.53 I0.397 J0.
X71.963 Z1.496 I-0.397 J0.
X72.757 Z1.461 I0.397 J0.
X71.963 Z1.426 I-0.397 J0.
X72.757 Z1.392 I0.397 J0.
X71.963 Z1.357 I-0.397 J0.
X72.757 Z1.322 I0.397 J0.
X71.963 Z1.288 I-0.397 J0.
X72.757 Z1.253 I0.397 J0.
X71.963 Z1.218 I-0.397 J0.
X72.757 Z1.184 I0.397 J0.
X71.963 Z1.149 I-0.397 J0.
X72.757 Z1.115 I0.397 J0.
X71.963 Z1.08 I-0.397 J0.
X72.757 Z1.045 I0.397 J0.
X71.963 Z1.011 I-0.397 J0.
X72.757 Z0.976 I0.397 J0.
X71.963 Z0.941 I-0.397 J0.
X72.757 Z0.907 I0.397 J0.
X71.963 Z0.872 I-0.397 J0.
X72.757 Z0.837 I0.397 J0.
X71.963 Z0.803 I-0.397 J0.
X72.757 Z0.768 I0.397 J0.
X71.963 Z0.733 I-0.397 J0.
X72.757 Z0.699 I0.397 J0.
X71.963 Z0.664 I-0.397 J0.
X72.757 Z0.63 I0.397 J0.
X71.963 Z0.595 I-0.397 J0.
X72.757 Z0.56 I0.397 J0.
X71.963 Z0.526 I-0.397 J0.
X72.757 Z0.491 I0.397 J0.
X71.963 Z0.456 I-0.397 J0.
X72.757 Z0.422 I0.397 J0.
X71.963 Z0.387 I-0.397 J0.
X72.757 Z0.352 I0.397 J0.
X71.963 Z0.318 I-0.397 J0.
X72.757 Z0.283 I0.397 J0.
X71.963 Z0.249 I-0.397 J0.
X72.757 Z0.214 I0.397 J0.
X71.963 Z0.179 I-0.397 J0.
X72.757 Z0.145 I0.397 J0.
X71.963 Z0.11 I-0.397 J0.
X72.757 Z0.075 I0.397 J0.
X71.963 Z0.041 I-0.397 J0.
X72.757 Z0.006 I0.397 J0.
X71.963 Z-0.029 I-0.397 J0.
X72.757 Z-0.063 I0.397 J0.
X71.963 Z-0.098 I-0.397 J0.
X72.757 Z-0.132 I0.397 J0.
X71.963 Z-0.167 I-0.397 J0.
X72.757 Z-0.202 I0.397 J0.
X71.963 Z-0.236 I-0.397 J0.
X72.757 Z-0.271 I0.397 J0.
X71.963 Z-0.306 I-0.397 J0.
X72.757 Z-0.34 I0.397 J0.
X71.963 Z-0.375 I-0.397 J0.
X72.757 Z-0.41 I0.397 J0.
X71.963 Z-0.444 I-0.397 J0.
X72.757 Z-0.479 I0.397 J0.
X71.963 Z-0.513 I-0.397 J0.
X72.757 Z-0.548 I0.397 J0.
X71.963 Z-0.583 I-0.397 J0.
X72.757 Z-0.617 I0.397 J0.
X71.963 Z-0.652 I-0.397 J0.
X72.757 Z-0.687 I0.397 J0.
X71.963 Z-0.721 I-0.397 J0.
X72.757 Z-0.756 I0.397 J0.
X71.963 Z-0.791 I-0.397 J0.
X72.757 Z-0.825 I0.397 J0.
X71.963 Z-0.86 I-0.397 J0.
X72.757 Z-0.894 I0.397 J0.
X71.963 Z-0.929 I-0.397 J0.
X72.757 Z-0.964 I0.397 J0.
X71.963 Z-0.998 I-0.397 J0.
X72.757 Z-1.033 I0.397 J0.
X71.963 Z-1.068 I-0.397 J0.
X72.757 Z-1.102 I0.397 J0.
X71.963 Z-1.137 I-0.397 J0.
X72.757 Z-1.172 I0.397 J0.
X71.963 Z-1.206 I-0.397 J0.
X72.757 Z-1.241 I0.397 J0.
X71.963 Z-1.275 I-0.397 J0.
X72.757 Z-1.31 I0.397 J0.
X71.963 Z-1.345 I-0.397 J0.
X72.757 Z-1.379 I0.397 J0.
X71.963 Z-1.414 I-0.397 J0.
X72.757 Z-1.449 I0.397 J0.
X71.963 Z-1.483 I-0.397 J0.
X72.757 Z-1.518 I0.397 J0.
X71.963 Z-1.553 I-0.397 J0.
X72.757 Z-1.587 I0.397 J0.
X71.963 Z-1.622 I-0.397 J0.
X72.757 Z-1.656 I0.397 J0.
X71.963 Z-1.691 I-0.397 J0.
X72.757 Z-1.726 I0.397 J0.
X71.963 Z-1.76 I-0.397 J0.
X72.757 Z-1.795 I0.397 J0.
X71.963 Z-1.83 I-0.397 J0.
X72.757 Z-1.864 I0.397 J0.
X71.963 Z-1.899 I-0.397 J0.
X72.757 Z-1.934 I0.397 J0.
X71.963 Z-1.968 I-0.397 J0.
X72.757 Z-2.003 I0.397 J0.
X71.963 Z-2.037 I-0.397 J0.
X72.757 Z-2.072 I0.397 J0.
X71.963 Z-2.107 I-0.397 J0.
X72.757 Z-2.141 I0.397 J0.
X71.963 Z-2.176 I-0.397 J0.
X72.757 Z-2.211 I0.397 J0.
X71.963 Z-2.245 I-0.397 J0.
X72.757 Z-2.28 I0.397 J0.
X71.963 Z-2.315 I-0.397 J0.
X72.757 Z-2.349 I0.397 J0.
X71.963 Z-2.384 I-0.397 J0.
X72.757 Z-2.419 I0.397 J0.
X71.963 Z-2.453 I-0.397 J0.
X72.757 Z-2.488 I0.397 J0.
X71.963 Z-2.522 I-0.397 J0.
X72.757 Z-2.557 I0.397 J0.
X71.963 Z-2.592 I-0.397 J0.
X72.757 Z-2.626 I0.397 J0.
X71.963 Z-2.661 I-0.397 J0.
X72.757 Z-2.696 I0.397 J0.
X71.963 Z-2.73 I-0.397 J0.
X72.757 Z-2.765 I0.397 J0.
X71.963 Z-2.8 I-0.397 J0.
X72.757 Z-2.834 I0.397 J0.
X71.963 Z-2.869 I-0.397 J0.
X72.757 Z-2.903 I0.397 J0.
X71.963 Z-2.938 I-0.397 J0.
X72.757 Z-2.973 I0.397 J0.
X71.963 Z-3.007 I-0.397 J0.
X72.757 Z-3.042 I0.397 J0.
X71.963 Z-3.077 I-0.397 J0.
X72.757 Z-3.111 I0.397 J0.
X71.963 Z-3.146 I-0.397 J0.
X72.757 Z-3.181 I0.397 J0.
X71.963 Z-3.215 I-0.397 J0.
X72.757 Z-3.25 I0.397 J0.
X71.963 Z-3.284 I-0.397 J0.
X72.757 Z-3.319 I0.397 J0.
X71.963 Z-3.354 I-0.397 J0.
X72.757 Z-3.388 I0.397 J0.
X71.963 Z-3.423 I-0.397 J0.
X72.757 Z-3.458 I0.397 J0.
X71.963 Z-3.492 I-0.397 J0.
X72.757 Z-3.527 I0.397 J0.
X71.963 Z-3.562 I-0.397 J0.
X72.757 Z-3.596 I0.397 J0.
X71.963 Z-3.631 I-0.397 J0.
X72.757 Z-3.665 I0.397 J0.
X71.963 Z-3.7 I-0.397 J0.
X72.757 Z-3.735 I0.397 J0.
X71.963 Z-3.769 I-0.397 J0.
X72.757 Z-3.804 I0.397 J0.
X71.963 Z-3.839 I-0.397 J0.
X72.757 Z-3.873 I0.397 J0.
X71.963 Z-3.908 I-0.397 J0.
X72.757 Z-3.943 I0.397 J0.
X71.963 Z-3.977 I-0.397 J0.
X72.757 Z-4.012 I0.397 J0.
X71.963 Z-4.046 I-0.397 J0.
X72.757 Z-4.081 I0.397 J0.
X71.963 Z-4.116 I-0.397 J0.
X72.757 Z-4.15 I0.397 J0.
X71.963 Z-4.185 I-0.397 J0.
X72.757 Z-4.22 I0.397 J0.
X71.963 Z-4.254 I-0.397 J0.
X72.757 Z-4.289 I0.397 J0.
X71.963 Z-4.324 I-0.397 J0.
X72.757 Z-4.358 I0.397 J0.
X71.963 Z-4.393 I-0.397 J0.
X72.757 Z-4.427 I0.397 J0.
X71.963 Z-4.462 I-0.397 J0.
X72.757 Z-4.497 I0.397 J0.
X71.963 Z-4.531 I-0.397 J0.
X72.757 Z-4.566 I0.397 J0.
X71.963 Z-4.601 I-0.397 J0.
X72.757 Z-4.635 I0.397 J0.
X71.963 Z-4.67 I-0.397 J0.
X72.757 Z-4.705 I0.397 J0.
X71.963 Z-4.739 I-0.397 J0.
X72.757 Z-4.774 I0.397 J0.
X71.963 Z-4.808 I-0.397 J0.
X72.757 Z-4.843 I0.397 J0.
X71.963 Z-4.878 I-0.397 J0.
X72.757 Z-4.912 I0.397 J0.
X71.963 Z-4.947 I-0.397 J0.
X72.757 Z-4.982 I0.397 J0.
X71.963 Z-5.016 I-0.397 J0.
X72.757 Z-5.051 I0.397 J0.
X71.963 Z-5.086 I-0.397 J0.
X72.757 Z-5.12 I0.397 J0.
X71.963 Z-5.155 I-0.397 J0.
X72.46 Y57.534 Z-5.175 I0.397 J0.
X72.26 Y56.766 I-0.1 J-0.384
X72.46 Y57.534 I0.1 J0.384
X72.602 Y57.292 I-0.05 J-0.192
G1 X72.562 Y57.138
X72.544 Y57.07 Z-5.167
X72.527 Y57.005 Z-5.144
X72.512 Y56.947 Z-5.106
X72.499 Y56.898 Z-5.055
X72.49 Y56.861 Z-4.995
X72.484 Y56.839 Z-4.928
X72.482 Y56.831 Z-4.858
G0 Z5.
X21.282 Y57.348
Z4.5
G1 Z2.818 F800.
G18 G2 X21.6 Z2.5 I0.317 K0.
G1 X21.758
G17 G2 X21.957 Y57.15 I0. J-0.198
X21.163 Z2.465 I-0.397 J0.
X21.957 Z2.431 I0.397 J0.
X21.163 Z2.396 I-0.397 J0.
X21.957 Z2.361 I0.397 J0.
X21.163 Z2.327 I-0.397 J0.
X21.957 Z2.292 I0.397 J0.
X21.163 Z2.258 I-0.397 J0.
X21.957 Z2.223 I0.397 J0.
X21.163 Z2.188 I-0.397 J0.
X21.957 Z2.154 I0.397 J0.
X21.163 Z2.119 I-0.397 J0.
X21.957 Z2.084 I0.397 J0.
X21.163 Z2.05 I-0.397 J0.
X21.957 Z2.015 I0.397 J0.
X21.163 Z1.98 I-0.397 J0.
X21.957 Z1.946 I0.397 J0.
X21.163 Z1.911 I-0.397 J0.
X21.957 Z1.877 I0.397 J0.
X21.163 Z1.842 I-0.397 J0.
X21.957 Z1.807 I0.397 J0.
X21.163 Z1.773 I-0.397 J0.
X21.957 Z1.738 I0.397 J0.
X21.163 Z1.703 I-0.397 J0.
X21.957 Z1.669 I0.397 J0.
X21.163 Z1.634 I-0.397 J0.
X21.957 Z1.599 I0.397 J0.
X21.163 Z1.565 I-0.397 J0.
X21.957 Z1.53 I0.397 J0.
X21.163 Z1.496 I-0.397 J0.
X21.957 Z1.461 I0.397 J0.
X21.163 Z1.426 I-0.397 J0.
X21.957 Z1.392 I0.397 J0.
X21.163 Z1.357 I-0.397 J0.
X21.957 Z1.322 I0.397 J0.
X21.163 Z1.288 I-0.397 J0.
X21.957 Z1.253 I0.397 J0.
X21.163 Z1.218 I-0.397 J0.
X21.957 Z1.184 I0.397 J0.
X21.163 Z1.149 I-0.397 J0.
X21.957 Z1.115 I0.397 J0.
X21.163 Z1.08 I-0.397 J0.
X21.957 Z1.045 I0.397 J0.
X21.163 Z1.011 I-0.397 J0.
X21.957 Z0.976 I0.397 J0.
X21.163 Z0.941 I-0.397 J0.
X21.957 Z0.907 I0.397 J0.
X21.163 Z0.872 I-0.397 J0.
X21.957 Z0.837 I0.397 J0.
X21.163 Z0.803 I-0.397 J0.
X21.957 Z0.768 I0.397 J0.
X21.163 Z0.733 I-0.397 J0.
X21.957 Z0.699 I0.397 J0.
X21.163 Z0.664 I-0.397 J0.
X21.957 Z0.63 I0.397 J0.
X21.163 Z0.595 I-0.397 J0.
X21.957 Z0.56 I0.397 J0.
X21.163 Z0.526 I-0.397 J0.
X21.957 Z0.491 I0.397 J0.
X21.163 Z0.456 I-0.397 J0.
X21.957 Z0.422 I0.397 J0.
X21.163 Z0.387 I-0.397 J0.
X21.957 Z0.352 I0.397 J0.
X21.163 Z0.318 I-0.397 J0.
X21.957 Z0.283 I0.397 J0.
X21.163 Z0.249 I-0.397 J0.
X21.957 Z0.214 I0.397 J0.
X21.163 Z0.179 I-0.397 J0.
X21.957 Z0.145 I0.397 J0.
X21.163 Z0.11 I-0.397 J0.
X21.957 Z0.075 I0.397 J0.
X21.163 Z0.041 I-0.397 J0.
X21.957 Z0.006 I0.397 J0.
X21.163 Z-0.029 I-0.397 J0.
X21.957 Z-0.063 I0.397 J0.
X21.163 Z-0.098 I-0.397 J0.
X21.957 Z-0.132 I0.397 J0.
X21.163 Z-0.167 I-0.397 J0.
X21.957 Z-0.202 I0.397 J0.
X21.163 Z-0.236 I-0.397 J0.
X21.957 Z-0.271 I0.397 J0.
X21.163 Z-0.306 I-0.397 J0.
X21.957 Z-0.34 I0.397 J0.
X21.163 Z-0.375 I-0.397 J0.
X21.957 Z-0.41 I0.397 J0.
X21.163 Z-0.444 I-0.397 J0.
X21.957 Z-0.479 I0.397 J0.
X21.163 Z-0.513 I-0.397 J0.
X21.957 Z-0.548 I0.397 J0.
X21.163 Z-0.583 I-0.397 J0.
X21.957 Z-0.617 I0.397 J0.
X21.163 Z-0.652 I-0.397 J0.
X21.957 Z-0.687 I0.397 J0.
X21.163 Z-0.721 I-0.397 J0.
X21.957 Z-0.756 I0.397 J0.
X21.163 Z-0.791 I-0.397 J0.
X21.957 Z-0.825 I0.397 J0.
X21.163 Z-0.86 I-0.397 J0.
X21.957 Z-0.894 I0.397 J0.
X21.163 Z-0.929 I-0.397 J0.
X21.957 Z-0.964 I0.397 J0.
X21.163 Z-0.998 I-0.397 J0.
X21.957 Z-1.033 I0.397 J0.
X21.163 Z-1.068 I-0.397 J0.
X21.957 Z-1.102 I0.397 J0.
X21.163 Z-1.137 I-0.397 J0.
X21.957 Z-1.172 I0.397 J0.
X21.163 Z-1.206 I-0.397 J0.
X21.957 Z-1.241 I0.397 J0.
X21.163 Z-1.275 I-0.397 J0.
X21.957 Z-1.31 I0.397 J0.
X21.163 Z-1.345 I-0.397 J0.
X21.957 Z-1.379 I0.397 J0.
X21.163 Z-1.414 I-0.397 J0.
X21.957 Z-1.449 I0.397 J0.
X21.163 Z-1.483 I-0.397 J0.
X21.957 Z-1.518 I0.397 J0.
X21.163 Z-1.553 I-0.397 J0.
X21.957 Z-1.587 I0.397 J0.
X21.163 Z-1.622 I-0.397 J0.
X21.957 Z-1.656 I0.397 J0.
X21.163 Z-1.691 I-0.397 J0.
X21.957 Z-1.726 I0.397 J0.
X21.163 Z-1.76 I-0.397 J0.
X21.957 Z-1.795 I0.397 J0.
X21.163 Z-1.83 I-0.397 J0.
X21.957 Z-1.864 I0.397 J0.
X21.163 Z-1.899 I-0.397 J0.
X21.957 Z-1.934 I0.397 J0.
X21.163 Z-1.968 I-0.397 J0.
X21.957 Z-2.003 I0.397 J0.
X21.163 Z-2.037 I-0.397 J0.
X21.957 Z-2.072 I0.397 J0.
X21.163 Z-2.107 I-0.397 J0.
X21.957 Z-2.141 I0.397 J0.
X21.163 Z-2.176 I-0.397 J0.
X21.957 Z-2.211 I0.397 J0.
X21.163 Z-2.245 I-0.397 J0.
X21.957 Z-2.28 I0.397 J0.
X21.163 Z-2.315 I-0.397 J0.
X21.957 Z-2.349 I0.397 J0.
X21.163 Z-2.384 I-0.397 J0.
X21.957 Z-2.419 I0.397 J0.
X21.163 Z-2.453 I-0.397 J0.
X21.957 Z-2.488 I0.397 J0.
X21.163 Z-2.522 I-0.397 J0.
X21.957 Z-2.557 I0.397 J0.
X21.163 Z-2.592 I-0.397 J0.
X21.957 Z-2.626 I0.397 J0.
X21.163 Z-2.661 I-0.397 J0.
X21.957 Z-2.696 I0.397 J0.
X21.163 Z-2.73 I-0.397 J0.
X21.957 Z-2.765 I0.397 J0.
X21.163 Z-2.8 I-0.397 J0.
X21.957 Z-2.834 I0.397 J0.
X21.163 Z-2.869 I-0.397 J0.
X21.957 Z-2.903 I0.397 J0.
X21.163 Z-2.938 I-0.397 J0.
X21.957 Z-2.973 I0.397 J0.
X21.163 Z-3.007 I-0.397 J0.
X21.957 Z-3.042 I0.397 J0.
X21.163 Z-3.077 I-0.397 J0.
X21.957 Z-3.111 I0.397 J0.
X21.163 Z-3.146 I-0.397 J0.
X21.957 Z-3.181 I0.397 J0.
X21.163 Z-3.215 I-0.397 J0.
X21.957 Z-3.25 I0.397 J0.
X21.163 Z-3.284 I-0.397 J0.
X21.957 Z-3.319 I0.397 J0.
X21.163 Z-3.354 I-0.397 J0.
X21.957 Z-3.388 I0.397 J0.
X21.163 Z-3.423 I-0.397 J0.
X21.957 Z-3.458 I0.397 J0.
X21.163 Z-3.492 I-0.397 J0.
X21.957 Z-3.527 I0.397 J0.
X21.163 Z-3.562 I-0.397 J0.
X21.957 Z-3.596 I0.397 J0.
X21.163 Z-3.631 I-0.397 J0.
X21.957 Z-3.665 I0.397 J0.
X21.163 Z-3.7 I-0.397 J0.
X21.957 Z-3.735 I0.397 J0.
X21.163 Z-3.769 I-0.397 J0.
X21.957 Z-3.804 I0.397 J0.
X21.163 Z-3.839 I-0.397 J0.
X21.957 Z-3.873 I0.397 J0.
X21.163 Z-3.908 I-0.397 J0.
X21.957 Z-3.943 I0.397 J0.
X21.163 Z-3.977 I-0.397 J0.
X21.957 Z-4.012 I0.397 J0.
X21.163 Z-4.046 I-0.397 J0.
X21.957 Z-4.081 I0.397 J0.
X21.163 Z-4.116 I-0.397 J0.
X21.957 Z-4.15 I0.397 J0.
X21.163 Z-4.185 I-0.397 J0.
X21.957 Z-4.22 I0.397 J0.
X21.163 Z-4.254 I-0.397 J0.
X21.957 Z-4.289 I0.397 J0.
X21.163 Z-4.324 I-0.397 J0.
X21.957 Z-4.358 I0.397 J0.
X21.163 Z-4.393 I-0.397 J0.
X21.957 Z-4.427 I0.397 J0.
X21.163 Z-4.462 I-0.397 J0.
X21.957 Z-4.497 I0.397 J0.
X21.163 Z-4.531 I-0.397 J0.
X21.957 Z-4.566 I0.397 J0.
X21.163 Z-4.601 I-0.397 J0.
X21.957 Z-4.635 I0.397 J0.
X21.163 Z-4.67 I-0.397 J0.
X21.957 Z-4.705 I0.397 J0.
X21.163 Z-4.739 I-0.397 J0.
X21.957 Z-4.774 I0.397 J0.
X21.163 Z-4.808 I-0.397 J0.
X21.957 Z-4.843 I0.397 J0.
X21.163 Z-4.878 I-0.397 J0.
X21.957 Z-4.912 I0.397 J0.
X21.163 Z-4.947 I-0.397 J0.
X21.957 Z-4.982 I0.397 J0.
X21.163 Z-5.016 I-0.397 J0.
X21.957 Z-5.051 I0.397 J0.
X21.163 Z-5.086 I-0.397 J0.
X21.957 Z-5.12 I0.397 J0.
X21.163 Z-5.155 I-0.397 J0.
X21.66 Y57.534 Z-5.175 I0.397 J0.
X21.46 Y56.766 I-0.1 J-0.384
X21.66 Y57.534 I0.1 J0.384
X21.802 Y57.292 I-0.05 J-0.192
G1 X21.762 Y57.138
X21.744 Y57.07 Z-5.167
X21.727 Y57.005 Z-5.144
X21.712 Y56.947 Z-5.106
X21.699 Y56.898 Z-5.055
X21.69 Y56.861 Z-4.995
X21.684 Y56.839 Z-4.928
X21.682 Y56.831 Z-4.858
G0 Z5.
X46.682 Y57.348
Z4.5
G1 Z2.818 F800.
G18 G2 X47. Z2.5 I0.318 K0.
G1 X47.158
G17 G2 X47.357 Y57.15 I0. J-0.198
X46.563 Z2.465 I-0.397 J0.
X47.357 Z2.431 I0.397 J0.
X46.563 Z2.396 I-0.397 J0.
X47.357 Z2.361 I0.397 J0.
X46.563 Z2.327 I-0.397 J0.
X47.357 Z2.292 I0.397 J0.
X46.563 Z2.258 I-0.397 J0.
X47.357 Z2.223 I0.397 J0.
X46.563 Z2.188 I-0.397 J0.
X47.357 Z2.154 I0.397 J0.
X46.563 Z2.119 I-0.397 J0.
X47.357 Z2.084 I0.397 J0.
X46.563 Z2.05 I-0.397 J0.
X47.357 Z2.015 I0.397 J0.
X46.563 Z1.98 I-0.397 J0.
X47.357 Z1.946 I0.397 J0.
X46.563 Z1.911 I-0.397 J0.
X47.357 Z1.877 I0.397 J0.
X46.563 Z1.842 I-0.397 J0.
X47.357 Z1.807 I0.397 J0.
X46.563 Z1.773 I-0.397 J0.
X47.357 Z1.738 I0.397 J0.
X46.563 Z1.703 I-0.397 J0.
X47.357 Z1.669 I0.397 J0.
X46.563 Z1.634 I-0.397 J0.
X47.357 Z1.599 I0.397 J0.
X46.563 Z1.565 I-0.397 J0.
X47.357 Z1.53 I0.397 J0.
X46.563 Z1.496 I-0.397 J0.
X47.357 Z1.461 I0.397 J0.
X46.563 Z1.426 I-0.397 J0.
X47.357 Z1.392 I0.397 J0.
X46.563 Z1.357 I-0.397 J0.
X47.357 Z1.322 I0.397 J0.
X46.563 Z1.288 I-0.397 J0.
X47.357 Z1.253 I0.397 J0.
X46.563 Z1.218 I-0.397 J0.
X47.357 Z1.184 I0.397 J0.
X46.563 Z1.149 I-0.397 J0.
X47.357 Z1.115 I0.397 J0.
X46.563 Z1.08 I-0.397 J0.
X47.357 Z1.045 I0.397 J0.
X46.563 Z1.011 I-0.397 J0.
X47.357 Z0.976 I0.397 J0.
X46.563 Z0.941 I-0.397 J0.
X47.357 Z0.907 I0.397 J0.
X46.563 Z0.872 I-0.397 J0.
X47.357 Z0.837 I0.397 J0.
X46.563 Z0.803 I-0.397 J0.
X47.357 Z0.768 I0.397 J0.
X46.563 Z0.733 I-0.397 J0.
X47.357 Z0.699 I0.397 J0.
X46.563 Z0.664 I-0.397 J0.
X47.357 Z0.63 I0.397 J0.
X46.563 Z0.595 I-0.397 J0.
X47.357 Z0.56 I0.397 J0.
X46.563 Z0.526 I-0.397 J0.
X47.357 Z0.491 I0.397 J0.
X46.563 Z0.456 I-0.397 J0.
X47.357 Z0.422 I0.397 J0.
X46.563 Z0.387 I-0.397 J0.
X47.357 Z0.352 I0.397 J0.
X46.563 Z0.318 I-0.397 J0.
X47.357 Z0.283 I0.397 J0.
X46.563 Z0.249 I-0.397 J0.
X47.357 Z0.214 I0.397 J0.
X46.563 Z0.179 I-0.397 J0.
X47.357 Z0.145 I0.397 J0.
X46.563 Z0.11 I-0.397 J0.
X47.357 Z0.075 I0.397 J0.
X46.563 Z0.041 I-0.397 J0.
X47.357 Z0.006 I0.397 J0.
X46.563 Z-0.029 I-0.397 J0.
X47.357 Z-0.063 I0.397 J0.
X46.563 Z-0.098 I-0.397 J0.
X47.357 Z-0.132 I0.397 J0.
X46.563 Z-0.167 I-0.397 J0.
X47.357 Z-0.202 I0.397 J0.
X46.563 Z-0.236 I-0.397 J0.
X47.357 Z-0.271 I0.397 J0.
X46.563 Z-0.306 I-0.397 J0.
X47.357 Z-0.34 I0.397 J0.
X46.563 Z-0.375 I-0.397 J0.
X47.357 Z-0.41 I0.397 J0.
X46.563 Z-0.444 I-0.397 J0.
X47.357 Z-0.479 I0.397 J0.
X46.563 Z-0.513 I-0.397 J0.
X47.357 Z-0.548 I0.397 J0.
X46.563 Z-0.583 I-0.397 J0.
X47.357 Z-0.617 I0.397 J0.
X46.563 Z-0.652 I-0.397 J0.
X47.357 Z-0.687 I0.397 J0.
X46.563 Z-0.721 I-0.397 J0.
X47.357 Z-0.756 I0.397 J0.
X46.563 Z-0.791 I-0.397 J0.
X47.357 Z-0.825 I0.397 J0.
X46.563 Z-0.86 I-0.397 J0.
X47.357 Z-0.894 I0.397 J0.
X46.563 Z-0.929 I-0.397 J0.
X47.357 Z-0.964 I0.397 J0.
X46.563 Z-0.998 I-0.397 J0.
X47.357 Z-1.033 I0.397 J0.
X46.563 Z-1.068 I-0.397 J0.
X47.357 Z-1.102 I0.397 J0.
X46.563 Z-1.137 I-0.397 J0.
X47.357 Z-1.172 I0.397 J0.
X46.563 Z-1.206 I-0.397 J0.
X47.357 Z-1.241 I0.397 J0.
X46.563 Z-1.275 I-0.397 J0.
X47.357 Z-1.31 I0.397 J0.
X46.563 Z-1.345 I-0.397 J0.
X47.357 Z-1.379 I0.397 J0.
X46.563 Z-1.414 I-0.397 J0.
X47.357 Z-1.449 I0.397 J0.
X46.563 Z-1.483 I-0.397 J0.
X47.357 Z-1.518 I0.397 J0.
X46.563 Z-1.553 I-0.397 J0.
X47.357 Z-1.587 I0.397 J0.
X46.563 Z-1.622 I-0.397 J0.
X47.357 Z-1.656 I0.397 J0.
X46.563 Z-1.691 I-0.397 J0.
X47.357 Z-1.726 I0.397 J0.
X46.563 Z-1.76 I-0.397 J0.
X47.357 Z-1.795 I0.397 J0.
X46.563 Z-1.83 I-0.397 J0.
X47.357 Z-1.864 I0.397 J0.
X46.563 Z-1.899 I-0.397 J0.
X47.357 Z-1.934 I0.397 J0.
X46.563 Z-1.968 I-0.397 J0.
X47.357 Z-2.003 I0.397 J0.
X46.563 Z-2.037 I-0.397 J0.
X47.357 Z-2.072 I0.397 J0.
X46.563 Z-2.107 I-0.397 J0.
X47.357 Z-2.141 I0.397 J0.
X46.563 Z-2.176 I-0.397 J0.
X47.357 Z-2.211 I0.397 J0.
X46.563 Z-2.245 I-0.397 J0.
X47.357 Z-2.28 I0.397 J0.
X46.563 Z-2.315 I-0.397 J0.
X47.357 Z-2.349 I0.397 J0.
X46.563 Z-2.384 I-0.397 J0.
X47.357 Z-2.419 I0.397 J0.
X46.563 Z-2.453 I-0.397 J0.
X47.357 Z-2.488 I0.397 J0.
X46.563 Z-2.522 I-0.397 J0.
X47.357 Z-2.557 I0.397 J0.
X46.563 Z-2.592 I-0.397 J0.
X47.357 Z-2.626 I0.397 J0.
X46.563 Z-2.661 I-0.397 J0.
X47.357 Z-2.696 I0.397 J0.
X46.563 Z-2.73 I-0.397 J0.
X47.357 Z-2.765 I0.397 J0.
X46.563 Z-2.8 I-0.397 J0.
X47.357 Z-2.834 I0.397 J0.
X46.563 Z-2.869 I-0.397 J0.
X47.357 Z-2.903 I0.397 J0.
X46.563 Z-2.938 I-0.397 J0.
X47.357 Z-2.973 I0.397 J0.
X46.563 Z-3.007 I-0.397 J0.
X47.357 Z-3.042 I0.397 J0.
X46.563 Z-3.077 I-0.397 J0.
X47.357 Z-3.111 I0.397 J0.
X46.563 Z-3.146 I-0.397 J0.
X47.357 Z-3.181 I0.397 J0.
X46.563 Z-3.215 I-0.397 J0.
X47.357 Z-3.25 I0.397 J0.
X46.563 Z-3.284 I-0.397 J0.
X47.357 Z-3.319 I0.397 J0.
X46.563 Z-3.354 I-0.397 J0.
X47.357 Z-3.388 I0.397 J0.
X46.563 Z-3.423 I-0.397 J0.
X47.357 Z-3.458 I0.397 J0.
X46.563 Z-3.492 I-0.397 J0.
X47.357 Z-3.527 I0.397 J0.
X46.563 Z-3.562 I-0.397 J0.
X47.357 Z-3.596 I0.397 J0.
X46.563 Z-3.631 I-0.397 J0.
X47.357 Z-3.665 I0.397 J0.
X46.563 Z-3.7 I-0.397 J0.
X47.357 Z-3.735 I0.397 J0.
X46.563 Z-3.769 I-0.397 J0.
X47.357 Z-3.804 I0.397 J0.
X46.563 Z-3.839 I-0.397 J0.
X47.357 Z-3.873 I0.397 J0.
X46.563 Z-3.908 I-0.397 J0.
X47.357 Z-3.943 I0.397 J0.
X46.563 Z-3.977 I-0.397 J0.
X47.357 Z-4.012 I0.397 J0.
X46.563 Z-4.046 I-0.397 J0.
X47.357 Z-4.081 I0.397 J0.
X46.563 Z-4.116 I-0.397 J0.
X47.357 Z-4.15 I0.397 J0.
X46.563 Z-4.185 I-0.397 J0.
X47.357 Z-4.22 I0.397 J0.
X46.563 Z-4.254 I-0.397 J0.
X47.357 Z-4.289 I0.397 J0.
X46.563 Z-4.324 I-0.397 J0.
X47.357 Z-4.358 I0.397 J0.
X46.563 Z-4.393 I-0.397 J0.
X47.357 Z-4.427 I0.397 J0.
X46.563 Z-4.462 I-0.397 J0.
X47.357 Z-4.497 I0.397 J0.
X46.563 Z-4.531 I-0.397 J0.
X47.357 Z-4.566 I0.397 J0.
X46.563 Z-4.601 I-0.397 J0.
X47.357 Z-4.635 I0.397 J0.
X46.563 Z-4.67 I-0.397 J0.
X47.357 Z-4.705 I0.397 J0.
X46.563 Z-4.739 I-0.397 J0.
X47.357 Z-4.774 I0.397 J0.
X46.563 Z-4.808 I-0.397 J0.
X47.357 Z-4.843 I0.397 J0.
X46.563 Z-4.878 I-0.397 J0.
X47.357 Z-4.912 I0.397 J0.
X46.563 Z-4.947 I-0.397 J0.
X47.357 Z-4.982 I0.397 J0.
X46.563 Z-5.016 I-0.397 J0.
X47.357 Z-5.051 I0.397 J0.
X46.563 Z-5.086 I-0.397 J0.
X47.357 Z-5.12 I0.397 J0.
X46.563 Z-5.155 I-0.397 J0.
X47.06 Y57.534 Z-5.175 I0.397 J0.
X46.86 Y56.766 I-0.1 J-0.384
X47.06 Y57.534 I0.1 J0.384
X47.202 Y57.292 I-0.05 J-0.192
G1 X47.162 Y57.138
X47.144 Y57.07 Z-5.167
X47.127 Y57.005 Z-5.144
X47.112 Y56.947 Z-5.106
X47.099 Y56.898 Z-5.055
X47.09 Y56.861 Z-4.995
X47.084 Y56.839 Z-4.928
X47.082 Y56.831 Z-4.858
G0 Z5.
X46.682 Y38.298
Z4.5
G1 Z2.818 F800.
G18 G2 X47. Z2.5 I0.318 K0.
G1 X47.158
G17 G2 X47.357 Y38.1 I0. J-0.198
X46.563 Z2.465 I-0.397 J0.
X47.357 Z2.431 I0.397 J0.
X46.563 Z2.396 I-0.397 J0.
X47.357 Z2.361 I0.397 J0.
X46.563 Z2.327 I-0.397 J0.
X47.357 Z2.292 I0.397 J0.
X46.563 Z2.258 I-0.397 J0.
X47.357 Z2.223 I0.397 J0.
X46.563 Z2.188 I-0.397 J0.
X47.357 Z2.154 I0.397 J0.
X46.563 Z2.119 I-0.397 J0.
X47.357 Z2.084 I0.397 J0.
X46.563 Z2.05 I-0.397 J0.
X47.357 Z2.015 I0.397 J0.
X46.563 Z1.98 I-0.397 J0.
X47.357 Z1.946 I0.397 J0.
X46.563 Z1.911 I-0.397 J0.
X47.357 Z1.877 I0.397 J0.
X46.563 Z1.842 I-0.397 J0.
X47.357 Z1.807 I0.397 J0.
X46.563 Z1.773 I-0.397 J0.
X47.357 Z1.738 I0.397 J0.
X46.563 Z1.703 I-0.397 J0.
X47.357 Z1.669 I0.397 J0.
X46.563 Z1.634 I-0.397 J0.
X47.357 Z1.599 I0.397 J0.
X46.563 Z1.565 I-0.397 J0.
X47.357 Z1.53 I0.397 J0.
X46.563 Z1.496 I-0.397 J0.
X47.357 Z1.461 I0.397 J0.
X46.563 Z1.426 I-0.397 J0.
X47.357 Z1.392 I0.397 J0.
X46.563 Z1.357 I-0.397 J0.
X47.357 Z1.322 I0.397 J0.
X46.563 Z1.288 I-0.397 J0.
X47.357 Z1.253 I0.397 J0.
X46.563 Z1.218 I-0.397 J0.
X47.357 Z1.184 I0.397 J0.
X46.563 Z1.149 I-0.397 J0.
X47.357 Z1.115 I0.397 J0.
X46.563 Z1.08 I-0.397 J0.
X47.357 Z1.045 I0.397 J0.
X46.563 Z1.011 I-0.397 J0.
X47.357 Z0.976 I0.397 J0.
X46.563 Z0.941 I-0.397 J0.
X47.357 Z0.907 I0.397 J0.
X46.563 Z0.872 I-0.397 J0.
X47.357 Z0.837 I0.397 J0.
X46.563 Z0.803 I-0.397 J0.
X47.357 Z0.768 I0.397 J0.
X46.563 Z0.733 I-0.397 J0.
X47.357 Z0.699 I0.397 J0.
X46.563 Z0.664 I-0.397 J0.
X47.357 Z0.63 I0.397 J0.
X46.563 Z0.595 I-0.397 J0.
X47.357 Z0.56 I0.397 J0.
X46.563 Z0.526 I-0.397 J0.
X47.357 Z0.491 I0.397 J0.
X46.563 Z0.456 I-0.397 J0.
X47.357 Z0.422 I0.397 J0.
X46.563 Z0.387 I-0.397 J0.
X47.357 Z0.352 I0.397 J0.
X46.563 Z0.318 I-0.397 J0.
X47.357 Z0.283 I0.397 J0.
X46.563 Z0.249 I-0.397 J0.
X47.357 Z0.214 I0.397 J0.
X46.563 Z0.179 I-0.397 J0.
X47.357 Z0.145 I0.397 J0.
X46.563 Z0.11 I-0.397 J0.
X47.357 Z0.075 I0.397 J0.
X46.563 Z0.041 I-0.397 J0.
X47.357 Z0.006 I0.397 J0.
X46.563 Z-0.029 I-0.397 J0.
X47.357 Z-0.063 I0.397 J0.
X46.563 Z-0.098 I-0.397 J0.
X47.357 Z-0.132 I0.397 J0.
X46.563 Z-0.167 I-0.397 J0.
X47.357 Z-0.202 I0.397 J0.
X46.563 Z-0.236 I-0.397 J0.
X47.357 Z-0.271 I0.397 J0.
X46.563 Z-0.306 I-0.397 J0.
X47.357 Z-0.34 I0.397 J0.
X46.563 Z-0.375 I-0.397 J0.
X47.357 Z-0.41 I0.397 J0.
X46.563 Z-0.444 I-0.397 J0.
X47.357 Z-0.479 I0.397 J0.
X46.563 Z-0.513 I-0.397 J0.
X47.357 Z-0.548 I0.397 J0.
X46.563 Z-0.583 I-0.397 J0.
X47.357 Z-0.617 I0.397 J0.
X46.563 Z-0.652 I-0.397 J0.
X47.357 Z-0.687 I0.397 J0.
X46.563 Z-0.721 I-0.397 J0.
X47.357 Z-0.756 I0.397 J0.
X46.563 Z-0.791 I-0.397 J0.
X47.357 Z-0.825 I0.397 J0.
X46.563 Z-0.86 I-0.397 J0.
X47.357 Z-0.894 I0.397 J0.
X46.563 Z-0.929 I-0.397 J0.
X47.357 Z-0.964 I0.397 J0.
X46.563 Z-0.998 I-0.397 J0.
X47.357 Z-1.033 I0.397 J0.
X46.563 Z-1.068 I-0.397 J0.
X47.357 Z-1.102 I0.397 J0.
X46.563 Z-1.137 I-0.397 J0.
X47.357 Z-1.172 I0.397 J0.
X46.563 Z-1.206 I-0.397 J0.
X47.357 Z-1.241 I0.397 J0.
X46.563 Z-1.275 I-0.397 J0.
X47.357 Z-1.31 I0.397 J0.
X46.563 Z-1.345 I-0.397 J0.
X47.357 Z-1.379 I0.397 J0.
X46.563 Z-1.414 I-0.397 J0.
X47.357 Z-1.449 I0.397 J0.
X46.563 Z-1.483 I-0.397 J0.
X47.357 Z-1.518 I0.397 J0.
X46.563 Z-1.553 I-0.397 J0.
X47.357 Z-1.587 I0.397 J0.
X46.563 Z-1.622 I-0.397 J0.
X47.357 Z-1.656 I0.397 J0.
X46.563 Z-1.691 I-0.397 J0.
X47.357 Z-1.726 I0.397 J0.
X46.563 Z-1.76 I-0.397 J0.
X47.357 Z-1.795 I0.397 J0.
X46.563 Z-1.83 I-0.397 J0.
X47.357 Z-1.864 I0.397 J0.
X46.563 Z-1.899 I-0.397 J0.
X47.357 Z-1.934 I0.397 J0.
X46.563 Z-1.968 I-0.397 J0.
X47.357 Z-2.003 I0.397 J0.
X46.563 Z-2.037 I-0.397 J0.
X47.357 Z-2.072 I0.397 J0.
X46.563 Z-2.107 I-0.397 J0.
X47.357 Z-2.141 I0.397 J0.
X46.563 Z-2.176 I-0.397 J0.
X47.357 Z-2.211 I0.397 J0.
X46.563 Z-2.245 I-0.397 J0.
X47.357 Z-2.28 I0.397 J0.
X46.563 Z-2.315 I-0.397 J0.
X47.357 Z-2.349 I0.397 J0.
X46.563 Z-2.384 I-0.397 J0.
X47.357 Z-2.419 I0.397 J0.
X46.563 Z-2.453 I-0.397 J0.
X47.357 Z-2.488 I0.397 J0.
X46.563 Z-2.522 I-0.397 J0.
X47.357 Z-2.557 I0.397 J0.
X46.563 Z-2.592 I-0.397 J0.
X47.357 Z-2.626 I0.397 J0.
X46.563 Z-2.661 I-0.397 J0.
X47.357 Z-2.696 I0.397 J0.
X46.563 Z-2.73 I-0.397 J0.
X47.357 Z-2.765 I0.397 J0.
X46.563 Z-2.8 I-0.397 J0.
X47.357 Z-2.834 I0.397 J0.
X46.563 Z-2.869 I-0.397 J0.
X47.357 Z-2.903 I0.397 J0.
X46.563 Z-2.938 I-0.397 J0.
X47.357 Z-2.973 I0.397 J0.
X46.563 Z-3.007 I-0.397 J0.
X47.357 Z-3.042 I0.397 J0.
X46.563 Z-3.077 I-0.397 J0.
X47.357 Z-3.111 I0.397 J0.
X46.563 Z-3.146 I-0.397 J0.
X47.357 Z-3.181 I0.397 J0.
X46.563 Z-3.215 I-0.397 J0.
X47.357 Z-3.25 I0.397 J0.
X46.563 Z-3.284 I-0.397 J0.
X47.357 Z-3.319 I0.397 J0.
X46.563 Z-3.354 I-0.397 J0.
X47.357 Z-3.388 I0.397 J0.
X46.563 Z-3.423 I-0.397 J0.
X47.357 Z-3.458 I0.397 J0.
X46.563 Z-3.492 I-0.397 J0.
X47.357 Z-3.527 I0.397 J0.
X46.563 Z-3.562 I-0.397 J0.
X47.357 Z-3.596 I0.397 J0.
X46.563 Z-3.631 I-0.397 J0.
X47.357 Z-3.665 I0.397 J0.
X46.563 Z-3.7 I-0.397 J0.
X47.357 Z-3.735 I0.397 J0.
X46.563 Z-3.769 I-0.397 J0.
X47.357 Z-3.804 I0.397 J0.
X46.563 Z-3.839 I-0.397 J0.
X47.357 Z-3.873 I0.397 J0.
X46.563 Z-3.908 I-0.397 J0.
X47.357 Z-3.943 I0.397 J0.
X46.563 Z-3.977 I-0.397 J0.
X47.357 Z-4.012 I0.397 J0.
X46.563 Z-4.046 I-0.397 J0.
X47.357 Z-4.081 I0.397 J0.
X46.563 Z-4.116 I-0.397 J0.
X47.357 Z-4.15 I0.397 J0.
X46.563 Z-4.185 I-0.397 J0.
X47.357 Z-4.22 I0.397 J0.
X46.563 Z-4.254 I-0.397 J0.
X47.357 Z-4.289 I0.397 J0.
X46.563 Z-4.324 I-0.397 J0.
X47.357 Z-4.358 I0.397 J0.
X46.563 Z-4.393 I-0.397 J0.
X47.357 Z-4.427 I0.397 J0.
X46.563 Z-4.462 I-0.397 J0.
X47.357 Z-4.497 I0.397 J0.
X46.563 Z-4.531 I-0.397 J0.
X47.357 Z-4.566 I0.397 J0.
X46.563 Z-4.601 I-0.397 J0.
X47.357 Z-4.635 I0.397 J0.
X46.563 Z-4.67 I-0.397 J0.
X47.357 Z-4.705 I0.397 J0.
X46.563 Z-4.739 I-0.397 J0.
X47.357 Z-4.774 I0.397 J0.
X46.563 Z-4.808 I-0.397 J0.
X47.357 Z-4.843 I0.397 J0.
X46.563 Z-4.878 I-0.397 J0.
X47.357 Z-4.912 I0.397 J0.
X46.563 Z-4.947 I-0.397 J0.
X47.357 Z-4.982 I0.397 J0.
X46.563 Z-5.016 I-0.397 J0.
X47.357 Z-5.051 I0.397 J0.
X46.563 Z-5.086 I-0.397 J0.
X47.357 Z-5.12 I0.397 J0.
X46.563 Z-5.155 I-0.397 J0.
X47.06 Y38.484 Z-5.175 I0.397 J0.
X46.86 Y37.716 I-0.1 J-0.384
X47.06 Y38.484 I0.1 J0.384
X47.202 Y38.242 I-0.05 J-0.192
G1 X47.162 Y38.088
X47.144 Y38.02 Z-5.167
X47.127 Y37.955 Z-5.144
X47.112 Y37.897 Z-5.106
X47.099 Y37.848 Z-5.055
X47.09 Y37.811 Z-4.995
X47.084 Y37.789 Z-4.928
X47.082 Y37.781 Z-4.858
G0 Z5.
X46.682 Y12.898
Z4.5
G1 Z2.818 F800.
G18 G2 X47. Z2.5 I0.318 K0.
G1 X47.158
G17 G2 X47.357 Y12.7 I0. J-0.198
X46.563 Z2.465 I-0.397 J0.
X47.357 Z2.431 I0.397 J0.
X46.563 Z2.396 I-0.397 J0.
X47.357 Z2.361 I0.397 J0.
X46.563 Z2.327 I-0.397 J0.
X47.357 Z2.292 I0.397 J0.
X46.563 Z2.258 I-0.397 J0.
X47.357 Z2.223 I0.397 J0.
X46.563 Z2.188 I-0.397 J0.
X47.357 Z2.154 I0.397 J0.
X46.563 Z2.119 I-0.397 J0.
X47.357 Z2.084 I0.397 J0.
X46.563 Z2.05 I-0.397 J0.
X47.357 Z2.015 I0.397 J0.
X46.563 Z1.98 I-0.397 J0.
X47.357 Z1.946 I0.397 J0.
X46.563 Z1.911 I-0.397 J0.
X47.357 Z1.877 I0.397 J0.
X46.563 Z1.842 I-0.397 J0.
X47.357 Z1.807 I0.397 J0.
X46.563 Z1.773 I-0.397 J0.
X47.357 Z1.738 I0.397 J0.
X46.563 Z1.703 I-0.397 J0.
X47.357 Z1.669 I0.397 J0.
X46.563 Z1.634 I-0.397 J0.
X47.357 Z1.599 I0.397 J0.
X46.563 Z1.565 I-0.397 J0.
X47.357 Z1.53 I0.397 J0.
X46.563 Z1.496 I-0.397 J0.
X47.357 Z1.461 I0.397 J0.
X46.563 Z1.426 I-0.397 J0.
X47.357 Z1.392 I0.397 J0.
X46.563 Z1.357 I-0.397 J0.
X47.357 Z1.322 I0.397 J0.
X46.563 Z1.288 I-0.397 J0.
X47.357 Z1.253 I0.397 J0.
X46.563 Z1.218 I-0.397 J0.
X47.357 Z1.184 I0.397 J0.
X46.563 Z1.149 I-0.397 J0.
X47.357 Z1.115 I0.397 J0.
X46.563 Z1.08 I-0.397 J0.
X47.357 Z1.045 I0.397 J0.
X46.563 Z1.011 I-0.397 J0.
X47.357 Z0.976 I0.397 J0.
X46.563 Z0.941 I-0.397 J0.
X47.357 Z0.907 I0.397 J0.
X46.563 Z0.872 I-0.397 J0.
X47.357 Z0.837 I0.397 J0.
X46.563 Z0.803 I-0.397 J0.
X47.357 Z0.768 I0.397 J0.
X46.563 Z0.733 I-0.397 J0.
X47.357 Z0.699 I0.397 J0.
X46.563 Z0.664 I-0.397 J0.
X47.357 Z0.63 I0.397 J0.
X46.563 Z0.595 I-0.397 J0.
X47.357 Z0.56 I0.397 J0.
X46.563 Z0.526 I-0.397 J0.
X47.357 Z0.491 I0.397 J0.
X46.563 Z0.456 I-0.397 J0.
X47.357 Z0.422 I0.397 J0.
X46.563 Z0.387 I-0.397 J0.
X47.357 Z0.352 I0.397 J0.
X46.563 Z0.318 I-0.397 J0.
X47.357 Z0.283 I0.397 J0.
X46.563 Z0.249 I-0.397 J0.
X47.357 Z0.214 I0.397 J0.
X46.563 Z0.179 I-0.397 J0.
X47.357 Z0.145 I0.397 J0.
X46.563 Z0.11 I-0.397 J0.
X47.357 Z0.075 I0.397 J0.
X46.563 Z0.041 I-0.397 J0.
X47.357 Z0.006 I0.397 J0.
X46.563 Z-0.029 I-0.397 J0.
X47.357 Z-0.063 I0.397 J0.
X46.563 Z-0.098 I-0.397 J0.
X47.357 Z-0.132 I0.397 J0.
X46.563 Z-0.167 I-0.397 J0.
X47.357 Z-0.202 I0.397 J0.
X46.563 Z-0.236 I-0.397 J0.
X47.357 Z-0.271 I0.397 J0.
X46.563 Z-0.306 I-0.397 J0.
X47.357 Z-0.34 I0.397 J0.
X46.563 Z-0.375 I-0.397 J0.
X47.357 Z-0.41 I0.397 J0.
X46.563 Z-0.444 I-0.397 J0.
X47.357 Z-0.479 I0.397 J0.
X46.563 Z-0.513 I-0.397 J0.
X47.357 Z-0.548 I0.397 J0.
X46.563 Z-0.583 I-0.397 J0.
X47.357 Z-0.617 I0.397 J0.
X46.563 Z-0.652 I-0.397 J0.
X47.357 Z-0.687 I0.397 J0.
X46.563 Z-0.721 I-0.397 J0.
X47.357 Z-0.756 I0.397 J0.
X46.563 Z-0.791 I-0.397 J0.
X47.357 Z-0.825 I0.397 J0.
X46.563 Z-0.86 I-0.397 J0.
X47.357 Z-0.894 I0.397 J0.
X46.563 Z-0.929 I-0.397 J0.
X47.357 Z-0.964 I0.397 J0.
X46.563 Z-0.998 I-0.397 J0.
X47.357 Z-1.033 I0.397 J0.
X46.563 Z-1.068 I-0.397 J0.
X47.357 Z-1.102 I0.397 J0.
X46.563 Z-1.137 I-0.397 J0.
X47.357 Z-1.172 I0.397 J0.
X46.563 Z-1.206 I-0.397 J0.
X47.357 Z-1.241 I0.397 J0.
X46.563 Z-1.275 I-0.397 J0.
X47.357 Z-1.31 I0.397 J0.
X46.563 Z-1.345 I-0.397 J0.
X47.357 Z-1.379 I0.397 J0.
X46.563 Z-1.414 I-0.397 J0.
X47.357 Z-1.449 I0.397 J0.
X46.563 Z-1.483 I-0.397 J0.
X47.357 Z-1.518 I0.397 J0.
X46.563 Z-1.553 I-0.397 J0.
X47.357 Z-1.587 I0.397 J0.
X46.563 Z-1.622 I-0.397 J0.
X47.357 Z-1.656 I0.397 J0.
X46.563 Z-1.691 I-0.397 J0.
X47.357 Z-1.726 I0.397 J0.
X46.563 Z-1.76 I-0.397 J0.
X47.357 Z-1.795 I0.397 J0.
X46.563 Z-1.83 I-0.397 J0.
X47.357 Z-1.864 I0.397 J0.
X46.563 Z-1.899 I-0.397 J0.
X47.357 Z-1.934 I0.397 J0.
X46.563 Z-1.968 I-0.397 J0.
X47.357 Z-2.003 I0.397 J0.
X46.563 Z-2.037 I-0.397 J0.
X47.357 Z-2.072 I0.397 J0.
X46.563 Z-2.107 I-0.397 J0.
X47.357 Z-2.141 I0.397 J0.
X46.563 Z-2.176 I-0.397 J0.
X47.357 Z-2.211 I0.397 J0.
X46.563 Z-2.245 I-0.397 J0.
X47.357 Z-2.28 I0.397 J0.
X46.563 Z-2.315 I-0.397 J0.
X47.357 Z-2.349 I0.397 J0.
X46.563 Z-2.384 I-0.397 J0.
X47.357 Z-2.419 I0.397 J0.
X46.563 Z-2.453 I-0.397 J0.
X47.357 Z-2.488 I0.397 J0.
X46.563 Z-2.522 I-0.397 J0.
X47.357 Z-2.557 I0.397 J0.
X46.563 Z-2.592 I-0.397 J0.
X47.357 Z-2.626 I0.397 J0.
X46.563 Z-2.661 I-0.397 J0.
X47.357 Z-2.696 I0.397 J0.
X46.563 Z-2.73 I-0.397 J0.
X47.357 Z-2.765 I0.397 J0.
X46.563 Z-2.8 I-0.397 J0.
X47.357 Z-2.834 I0.397 J0.
X46.563 Z-2.869 I-0.397 J0.
X47.357 Z-2.903 I0.397 J0.
X46.563 Z-2.938 I-0.397 J0.
X47.357 Z-2.973 I0.397 J0.
X46.563 Z-3.007 I-0.397 J0.
X47.357 Z-3.042 I0.397 J0.
X46.563 Z-3.077 I-0.397 J0.
X47.357 Z-3.111 I0.397 J0.
X46.563 Z-3.146 I-0.397 J0.
X47.357 Z-3.181 I0.397 J0.
X46.563 Z-3.215 I-0.397 J0.
X47.357 Z-3.25 I0.397 J0.
X46.563 Z-3.284 I-0.397 J0.
X47.357 Z-3.319 I0.397 J0.
X46.563 Z-3.354 I-0.397 J0.
X47.357 Z-3.388 I0.397 J0.
X46.563 Z-3.423 I-0.397 J0.
X47.357 Z-3.458 I0.397 J0.
X46.563 Z-3.492 I-0.397 J0.
X47.357 Z-3.527 I0.397 J0.
X46.563 Z-3.562 I-0.397 J0.
X47.357 Z-3.596 I0.397 J0.
X46.563 Z-3.631 I-0.397 J0.
X47.357 Z-3.665 I0.397 J0.
X46.563 Z-3.7 I-0.397 J0.
X47.357 Z-3.735 I0.397 J0.
X46.563 Z-3.769 I-0.397 J0.
X47.357 Z-3.804 I0.397 J0.
X46.563 Z-3.839 I-0.397 J0.
X47.357 Z-3.873 I0.397 J0.
X46.563 Z-3.908 I-0.397 J0.
X47.357 Z-3.943 I0.397 J0.
X46.563 Z-3.977 I-0.397 J0.
X47.357 Z-4.012 I0.397 J0.
X46.563 Z-4.046 I-0.397 J0.
X47.357 Z-4.081 I0.397 J0.
X46.563 Z-4.116 I-0.397 J0.
X47.357 Z-4.15 I0.397 J0.
X46.563 Z-4.185 I-0.397 J0.
X47.357 Z-4.22 I0.397 J0.
X46.563 Z-4.254 I-0.397 J0.
X47.357 Z-4.289 I0.397 J0.
X46.563 Z-4.324 I-0.397 J0.
X47.357 Z-4.358 I0.397 J0.
X46.563 Z-4.393 I-0.397 J0.
X47.357 Z-4.427 I0.397 J0.
X46.563 Z-4.462 I-0.397 J0.
X47.357 Z-4.497 I0.397 J0.
X46.563 Z-4.531 I-0.397 J0.
X47.357 Z-4.566 I0.397 J0.
X46.563 Z-4.601 I-0.397 J0.
X47.357 Z-4.635 I0.397 J0.
X46.563 Z-4.67 I-0.397 J0.
X47.357 Z-4.705 I0.397 J0.
X46.563 Z-4.739 I-0.397 J0.
X47.357 Z-4.774 I0.397 J0.
X46.563 Z-4.808 I-0.397 J0.
X47.357 Z-4.843 I0.397 J0.
X46.563 Z-4.878 I-0.397 J0.
X47.357 Z-4.912 I0.397 J0.
X46.563 Z-4.947 I-0.397 J0.
X47.357 Z-4.982 I0.397 J0.
X46.563 Z-5.016 I-0.397 J0.
X47.357 Z-5.051 I0.397 J0.
X46.563 Z-5.086 I-0.397 J0.
X47.357 Z-5.12 I0.397 J0.
X46.563 Z-5.155 I-0.397 J0.
X47.06 Y13.084 Z-5.175 I0.397 J0.
X46.86 Y12.316 I-0.1 J-0.384
X47.06 Y13.084 I0.1 J0.384
X47.202 Y12.842 I-0.05 J-0.192
G1 X47.162 Y12.688
X47.144 Y12.62 Z-5.167
X47.127 Y12.555 Z-5.144
X47.112 Y12.497 Z-5.106
X47.099 Y12.448 Z-5.055
X47.09 Y12.411 Z-4.995
X47.084 Y12.389 Z-4.928
X47.082 Y12.381 Z-4.858
G0 Z15.
M5
G0 Z15
G0 X0 Y0

M9
M30
