(X8 LOWER ARM COMPLETE)
(T3  D=0.118 CR=0. - ZMIN=-0.44 - FLAT END MILL)
G90 G94 G91.1 G40 G49 G17
G20

(2D POCKET2)
M5
T3 M6
S15000 M3
G54
M8
G0 X1.2149 Y7.6845
G43 Z0.6 H3
Z0.2
G1 Z0.1118 F40.
X1.2164 Y7.6842 Z0.106 F20.
X1.2178 Y7.6844 Z0.1045
X1.219 Y7.685 Z0.1031
X1.2201 Y7.6859 Z0.1017
X1.2209 Y7.687 Z0.1013
X1.2213 Y7.6884 Z0.1009
X1.2214 Y7.6898 Z0.1004
X1.221 Y7.6912 Z0.1
G3 X1.2118 Y7.6873 Z0.0995 I-0.0046 J-0.0019
X1.221 Y7.6912 Z0.0989 I0.0046 J0.0019
X1.2118 Y7.6873 Z0.0984 I-0.0046 J-0.0019
X1.221 Y7.6912 Z0.0978 I0.0046 J0.0019
X1.2118 Y7.6873 Z0.0973 I-0.0046 J-0.0019
X1.221 Y7.6912 Z0.0967 I0.0046 J0.0019
X1.2118 Y7.6873 Z0.0962 I-0.0046 J-0.0019
X1.221 Y7.6912 Z0.0956 I0.0046 J0.0019
X1.2118 Y7.6873 Z0.0951 I-0.0046 J-0.0019
X1.221 Y7.6912 Z0.0945 I0.0046 J0.0019
X1.2118 Y7.6873 Z0.094 I-0.0046 J-0.0019
X1.221 Y7.6912 Z0.0934 I0.0046 J0.0019
X1.2118 Y7.6873 Z0.0929 I-0.0046 J-0.0019
X1.221 Y7.6912 Z0.0923 I0.0046 J0.0019
X1.2118 Y7.6873 Z0.0918 I-0.0046 J-0.0019
X1.221 Y7.6912 Z0.0912 I0.0046 J0.0019
X1.2118 Y7.6873 Z0.0907 I-0.0046 J-0.0019
X1.221 Y7.6912 Z0.0901 I0.0046 J0.0019
X1.2118 Y7.6873 Z0.0896 I-0.0046 J-0.0019
X1.221 Y7.6912 Z0.089 I0.0046 J0.0019
X1.2118 Y7.6873 Z0.0885 I-0.0046 J-0.0019
X1.221 Y7.6912 Z0.0879 I0.0046 J0.0019
X1.2118 Y7.6873 Z0.0874 I-0.0046 J-0.0019
X1.221 Y7.6912 Z0.0868 I0.0046 J0.0019
X1.2118 Y7.6873 Z0.0863 I-0.0046 J-0.0019
X1.221 Y7.6912 Z0.0857 I0.0046 J0.0019
X1.2118 Y7.6873 Z0.0852 I-0.0046 J-0.0019
X1.221 Y7.6912 Z0.0846 I0.0046 J0.0019
X1.2118 Y7.6873 Z0.0841 I-0.0046 J-0.0019
X1.221 Y7.6912 Z0.0835 I0.0046 J0.0019
X1.2118 Y7.6873 Z0.083 I-0.0046 J-0.0019
X1.221 Y7.6912 Z0.0824 I0.0046 J0.0019
X1.2118 Y7.6873 Z0.0819 I-0.0046 J-0.0019
X1.221 Y7.6912 Z0.0813 I0.0046 J0.0019
X1.2118 Y7.6873 Z0.0808 I-0.0046 J-0.0019
X1.221 Y7.6912 Z0.0803 I0.0046 J0.0019
X1.2118 Y7.6873 Z0.0797 I-0.0046 J-0.0019
X1.221 Y7.6912 Z0.0792 I0.0046 J0.0019
X1.2118 Y7.6873 Z0.0786 I-0.0046 J-0.0019
X1.221 Y7.6912 Z0.0781 I0.0046 J0.0019
X1.2118 Y7.6873 Z0.0775 I-0.0046 J-0.0019
X1.221 Y7.6912 Z0.077 I0.0046 J0.0019
X1.2118 Y7.6873 Z0.0764 I-0.0046 J-0.0019
X1.221 Y7.6912 Z0.0759 I0.0046 J0.0019
X1.2118 Y7.6873 Z0.0753 I-0.0046 J-0.0019
X1.221 Y7.6912 Z0.0748 I0.0046 J0.0019
X1.2118 Y7.6873 Z0.0742 I-0.0046 J-0.0019
X1.221 Y7.6912 Z0.0737 I0.0046 J0.0019
X1.2118 Y7.6873 Z0.0731 I-0.0046 J-0.0019
X1.221 Y7.6912 Z0.0726 I0.0046 J0.0019
X1.2118 Y7.6873 Z0.072 I-0.0046 J-0.0019
X1.221 Y7.6912 Z0.0715 I0.0046 J0.0019
X1.2118 Y7.6873 Z0.0709 I-0.0046 J-0.0019
X1.221 Y7.6912 Z0.0704 I0.0046 J0.0019
X1.2118 Y7.6873 Z0.0698 I-0.0046 J-0.0019
X1.221 Y7.6912 Z0.0693 I0.0046 J0.0019
X1.2118 Y7.6873 Z0.0687 I-0.0046 J-0.0019
X1.221 Y7.6912 Z0.0682 I0.0046 J0.0019
X1.2118 Y7.6873 Z0.0676 I-0.0046 J-0.0019
X1.221 Y7.6912 Z0.0671 I0.0046 J0.0019
X1.2118 Y7.6873 Z0.0665 I-0.0046 J-0.0019
X1.221 Y7.6912 Z0.066 I0.0046 J0.0019
X1.2118 Y7.6873 Z0.0654 I-0.0046 J-0.0019
X1.221 Y7.6912 Z0.0649 I0.0046 J0.0019
X1.2118 Y7.6873 Z0.0643 I-0.0046 J-0.0019
X1.221 Y7.6912 Z0.0638 I0.0046 J0.0019
X1.2118 Y7.6873 Z0.0632 I-0.0046 J-0.0019
X1.221 Y7.6912 Z0.0627 I0.0046 J0.0019
X1.2118 Y7.6873 Z0.0622 I-0.0046 J-0.0019
X1.221 Y7.6912 Z0.0616 I0.0046 J0.0019
X1.2118 Y7.6873 Z0.0611 I-0.0046 J-0.0019
X1.221 Y7.6912 Z0.0605 I0.0046 J0.0019
X1.2118 Y7.6873 Z0.06 I-0.0046 J-0.0019
X1.221 Y7.6912 Z0.0594 I0.0046 J0.0019
X1.2118 Y7.6873 Z0.0589 I-0.0046 J-0.0019
X1.221 Y7.6912 Z0.0583 I0.0046 J0.0019
X1.2118 Y7.6873 Z0.0578 I-0.0046 J-0.0019
X1.221 Y7.6912 Z0.0572 I0.0046 J0.0019
X1.2118 Y7.6873 Z0.0567 I-0.0046 J-0.0019
X1.221 Y7.6912 Z0.0561 I0.0046 J0.0019
X1.2118 Y7.6873 Z0.0556 I-0.0046 J-0.0019
X1.221 Y7.6912 Z0.055 I0.0046 J0.0019
X1.2118 Y7.6873 Z0.0545 I-0.0046 J-0.0019
X1.221 Y7.6912 Z0.0539 I0.0046 J0.0019
X1.2118 Y7.6873 Z0.0534 I-0.0046 J-0.0019
X1.221 Y7.6912 Z0.0528 I0.0046 J0.0019
X1.2118 Y7.6873 Z0.0523 I-0.0046 J-0.0019
X1.221 Y7.6912 Z0.0517 I0.0046 J0.0019
X1.2118 Y7.6873 Z0.0512 I-0.0046 J-0.0019
X1.221 Y7.6912 Z0.0506 I0.0046 J0.0019
X1.2118 Y7.6873 Z0.0501 I-0.0046 J-0.0019
X1.221 Y7.6912 Z0.0495 I0.0046 J0.0019
X1.2118 Y7.6873 Z0.049 I-0.0046 J-0.0019
X1.221 Y7.6912 Z0.0484 I0.0046 J0.0019
X1.2118 Y7.6873 Z0.0479 I-0.0046 J-0.0019
X1.221 Y7.6912 Z0.0473 I0.0046 J0.0019
X1.2118 Y7.6873 Z0.0468 I-0.0046 J-0.0019
X1.221 Y7.6912 Z0.0462 I0.0046 J0.0019
X1.2118 Y7.6873 Z0.0457 I-0.0046 J-0.0019
X1.221 Y7.6912 Z0.0451 I0.0046 J0.0019
X1.2118 Y7.6873 Z0.0446 I-0.0046 J-0.0019
X1.221 Y7.6912 Z0.044 I0.0046 J0.0019
X1.2118 Y7.6873 Z0.0435 I-0.0046 J-0.0019
X1.221 Y7.6912 Z0.043 I0.0046 J0.0019
X1.2118 Y7.6873 Z0.0424 I-0.0046 J-0.0019
X1.221 Y7.6912 Z0.0419 I0.0046 J0.0019
X1.2118 Y7.6873 Z0.0413 I-0.0046 J-0.0019
X1.221 Y7.6912 Z0.0408 I0.0046 J0.0019
X1.2118 Y7.6873 Z0.0402 I-0.0046 J-0.0019
X1.221 Y7.6912 Z0.0397 I0.0046 J0.0019
X1.2118 Y7.6873 Z0.0391 I-0.0046 J-0.0019
X1.221 Y7.6912 Z0.0386 I0.0046 J0.0019
X1.2118 Y7.6873 Z0.038 I-0.0046 J-0.0019
X1.221 Y7.6912 Z0.0375 I0.0046 J0.0019
X1.2118 Y7.6873 Z0.0369 I-0.0046 J-0.0019
X1.221 Y7.6912 Z0.0364 I0.0046 J0.0019
X1.2118 Y7.6873 Z0.0358 I-0.0046 J-0.0019
X1.221 Y7.6912 Z0.0353 I0.0046 J0.0019
X1.2118 Y7.6873 Z0.0347 I-0.0046 J-0.0019
X1.221 Y7.6912 Z0.0342 I0.0046 J0.0019
X1.2118 Y7.6873 Z0.0336 I-0.0046 J-0.0019
X1.221 Y7.6912 Z0.0331 I0.0046 J0.0019
X1.2118 Y7.6873 Z0.0325 I-0.0046 J-0.0019
X1.221 Y7.6912 Z0.032 I0.0046 J0.0019
X1.2118 Y7.6873 Z0.0314 I-0.0046 J-0.0019
X1.221 Y7.6912 Z0.0309 I0.0046 J0.0019
X1.2118 Y7.6873 Z0.0303 I-0.0046 J-0.0019
X1.221 Y7.6912 Z0.0298 I0.0046 J0.0019
X1.2118 Y7.6873 Z0.0292 I-0.0046 J-0.0019
X1.221 Y7.6912 Z0.0287 I0.0046 J0.0019
X1.2118 Y7.6873 Z0.0281 I-0.0046 J-0.0019
X1.221 Y7.6912 Z0.0276 I0.0046 J0.0019
X1.2118 Y7.6873 Z0.027 I-0.0046 J-0.0019
X1.221 Y7.6912 Z0.0265 I0.0046 J0.0019
X1.2118 Y7.6873 Z0.0259 I-0.0046 J-0.0019
X1.221 Y7.6912 Z0.0254 I0.0046 J0.0019
X1.2118 Y7.6873 Z0.0249 I-0.0046 J-0.0019
X1.221 Y7.6912 Z0.0243 I0.0046 J0.0019
X1.2118 Y7.6873 Z0.0238 I-0.0046 J-0.0019
X1.221 Y7.6912 Z0.0232 I0.0046 J0.0019
X1.2118 Y7.6873 Z0.0227 I-0.0046 J-0.0019
X1.221 Y7.6912 Z0.0221 I0.0046 J0.0019
X1.2118 Y7.6873 Z0.0216 I-0.0046 J-0.0019
X1.221 Y7.6912 Z0.021 I0.0046 J0.0019
X1.2118 Y7.6873 Z0.0205 I-0.0046 J-0.0019
X1.221 Y7.6912 Z0.0199 I0.0046 J0.0019
X1.2118 Y7.6873 Z0.0194 I-0.0046 J-0.0019
X1.221 Y7.6912 Z0.0188 I0.0046 J0.0019
X1.2118 Y7.6873 Z0.0183 I-0.0046 J-0.0019
X1.221 Y7.6912 Z0.0177 I0.0046 J0.0019
X1.2118 Y7.6873 Z0.0172 I-0.0046 J-0.0019
X1.221 Y7.6912 Z0.0166 I0.0046 J0.0019
X1.2118 Y7.6873 Z0.0161 I-0.0046 J-0.0019
X1.221 Y7.6912 Z0.0155 I0.0046 J0.0019
X1.2118 Y7.6873 Z0.015 I-0.0046 J-0.0019
X1.221 Y7.6912 Z0.0144 I0.0046 J0.0019
X1.2118 Y7.6873 Z0.0139 I-0.0046 J-0.0019
X1.221 Y7.6912 Z0.0133 I0.0046 J0.0019
X1.2118 Y7.6873 Z0.0128 I-0.0046 J-0.0019
X1.221 Y7.6912 Z0.0122 I0.0046 J0.0019
X1.2118 Y7.6873 Z0.0117 I-0.0046 J-0.0019
X1.221 Y7.6912 Z0.0111 I0.0046 J0.0019
X1.2118 Y7.6873 Z0.0106 I-0.0046 J-0.0019
X1.221 Y7.6912 Z0.01 I0.0046 J0.0019
X1.2118 Y7.6873 Z0.0095 I-0.0046 J-0.0019
X1.221 Y7.6912 Z0.0089 I0.0046 J0.0019
X1.2118 Y7.6873 Z0.0084 I-0.0046 J-0.0019
X1.221 Y7.6912 Z0.0078 I0.0046 J0.0019
X1.2118 Y7.6873 Z0.0073 I-0.0046 J-0.0019
X1.221 Y7.6912 Z0.0067 I0.0046 J0.0019
X1.2118 Y7.6873 Z0.0062 I-0.0046 J-0.0019
X1.221 Y7.6912 Z0.0057 I0.0046 J0.0019
X1.2118 Y7.6873 Z0.0051 I-0.0046 J-0.0019
X1.221 Y7.6912 Z0.0046 I0.0046 J0.0019
X1.2118 Y7.6873 Z0.004 I-0.0046 J-0.0019
X1.221 Y7.6912 Z0.0035 I0.0046 J0.0019
X1.2118 Y7.6873 Z0.0029 I-0.0046 J-0.0019
X1.221 Y7.6912 Z0.0024 I0.0046 J0.0019
X1.2118 Y7.6873 Z0.0018 I-0.0046 J-0.0019
X1.221 Y7.6912 Z0.0013 I0.0046 J0.0019
X1.2118 Y7.6873 Z0.0007 I-0.0046 J-0.0019
X1.221 Y7.6912 Z0.0002 I0.0046 J0.0019
X1.2118 Y7.6873 Z-0.0004 I-0.0046 J-0.0019
X1.221 Y7.6912 Z-0.0009 I0.0046 J0.0019
X1.2118 Y7.6873 Z-0.0015 I-0.0046 J-0.0019
X1.221 Y7.6912 Z-0.002 I0.0046 J0.0019
X1.2118 Y7.6873 Z-0.0026 I-0.0046 J-0.0019
X1.221 Y7.6912 Z-0.0031 I0.0046 J0.0019
X1.2118 Y7.6873 Z-0.0037 I-0.0046 J-0.0019
X1.221 Y7.6912 Z-0.0042 I0.0046 J0.0019
X1.2118 Y7.6873 Z-0.0048 I-0.0046 J-0.0019
X1.221 Y7.6912 Z-0.0053 I0.0046 J0.0019
X1.2118 Y7.6873 Z-0.0059 I-0.0046 J-0.0019
X1.221 Y7.6912 Z-0.0064 I0.0046 J0.0019
X1.2118 Y7.6873 Z-0.007 I-0.0046 J-0.0019
X1.221 Y7.6912 Z-0.0075 I0.0046 J0.0019
X1.2118 Y7.6873 Z-0.0081 I-0.0046 J-0.0019
X1.221 Y7.6912 Z-0.0086 I0.0046 J0.0019
X1.2118 Y7.6873 Z-0.0092 I-0.0046 J-0.0019
X1.221 Y7.6912 Z-0.0097 I0.0046 J0.0019
X1.2118 Y7.6873 Z-0.0103 I-0.0046 J-0.0019
X1.221 Y7.6912 Z-0.0108 I0.0046 J0.0019
X1.2118 Y7.6873 Z-0.0114 I-0.0046 J-0.0019
X1.221 Y7.6912 Z-0.0119 I0.0046 J0.0019
X1.2118 Y7.6873 Z-0.0124 I-0.0046 J-0.0019
X1.221 Y7.6912 Z-0.013 I0.0046 J0.0019
X1.2118 Y7.6873 Z-0.0135 I-0.0046 J-0.0019
X1.221 Y7.6912 Z-0.0141 I0.0046 J0.0019
X1.2118 Y7.6873 Z-0.0146 I-0.0046 J-0.0019
X1.221 Y7.6912 Z-0.0152 I0.0046 J0.0019
X1.2118 Y7.6873 Z-0.0157 I-0.0046 J-0.0019
X1.221 Y7.6912 Z-0.0163 I0.0046 J0.0019
X1.2118 Y7.6873 Z-0.0168 I-0.0046 J-0.0019
X1.221 Y7.6912 Z-0.0174 I0.0046 J0.0019
X1.2118 Y7.6873 Z-0.0179 I-0.0046 J-0.0019
X1.221 Y7.6912 Z-0.0185 I0.0046 J0.0019
X1.2118 Y7.6873 Z-0.019 I-0.0046 J-0.0019
X1.221 Y7.6912 Z-0.0196 I0.0046 J0.0019
X1.2118 Y7.6873 Z-0.0201 I-0.0046 J-0.0019
X1.221 Y7.6912 Z-0.0207 I0.0046 J0.0019
X1.2118 Y7.6873 Z-0.0212 I-0.0046 J-0.0019
X1.221 Y7.6912 Z-0.0218 I0.0046 J0.0019
X1.2118 Y7.6873 Z-0.0223 I-0.0046 J-0.0019
X1.221 Y7.6912 Z-0.0229 I0.0046 J0.0019
X1.2118 Y7.6873 Z-0.0234 I-0.0046 J-0.0019
X1.221 Y7.6912 Z-0.024 I0.0046 J0.0019
X1.2118 Y7.6873 Z-0.0245 I-0.0046 J-0.0019
X1.221 Y7.6912 Z-0.0251 I0.0046 J0.0019
X1.2118 Y7.6873 Z-0.0256 I-0.0046 J-0.0019
X1.221 Y7.6912 Z-0.0262 I0.0046 J0.0019
X1.2118 Y7.6873 Z-0.0267 I-0.0046 J-0.0019
X1.221 Y7.6912 Z-0.0273 I0.0046 J0.0019
X1.2118 Y7.6873 Z-0.0278 I-0.0046 J-0.0019
X1.221 Y7.6912 Z-0.0284 I0.0046 J0.0019
X1.2118 Y7.6873 Z-0.0289 I-0.0046 J-0.0019
X1.221 Y7.6912 Z-0.0295 I0.0046 J0.0019
X1.2118 Y7.6873 Z-0.03 I-0.0046 J-0.0019
X1.221 Y7.6912 Z-0.0306 I0.0046 J0.0019
X1.2118 Y7.6873 Z-0.0311 I-0.0046 J-0.0019
X1.221 Y7.6912 Z-0.0316 I0.0046 J0.0019
X1.2118 Y7.6873 Z-0.0322 I-0.0046 J-0.0019
X1.221 Y7.6912 Z-0.0327 I0.0046 J0.0019
X1.2118 Y7.6873 Z-0.0333 I-0.0046 J-0.0019
X1.221 Y7.6912 Z-0.0338 I0.0046 J0.0019
X1.2118 Y7.6873 Z-0.0344 I-0.0046 J-0.0019
X1.221 Y7.6912 Z-0.0349 I0.0046 J0.0019
X1.2118 Y7.6873 Z-0.0355 I-0.0046 J-0.0019
X1.221 Y7.6912 Z-0.036 I0.0046 J0.0019
X1.2118 Y7.6873 Z-0.0366 I-0.0046 J-0.0019
X1.221 Y7.6912 Z-0.0371 I0.0046 J0.0019
X1.2118 Y7.6873 Z-0.0377 I-0.0046 J-0.0019
X1.221 Y7.6912 Z-0.0382 I0.0046 J0.0019
X1.2118 Y7.6873 Z-0.0388 I-0.0046 J-0.0019
X1.221 Y7.6912 Z-0.0393 I0.0046 J0.0019
X1.2118 Y7.6873 Z-0.0399 I-0.0046 J-0.0019
X1.221 Y7.6912 Z-0.0404 I0.0046 J0.0019
X1.2118 Y7.6873 Z-0.041 I-0.0046 J-0.0019
X1.221 Y7.6912 Z-0.0415 I0.0046 J0.0019
X1.2118 Y7.6873 Z-0.0421 I-0.0046 J-0.0019
X1.221 Y7.6912 Z-0.0426 I0.0046 J0.0019
X1.2118 Y7.6873 Z-0.0432 I-0.0046 J-0.0019
X1.221 Y7.6912 Z-0.0437 I0.0046 J0.0019
X1.2118 Y7.6873 Z-0.0443 I-0.0046 J-0.0019
X1.221 Y7.6912 Z-0.0448 I0.0046 J0.0019
X1.2118 Y7.6873 Z-0.0454 I-0.0046 J-0.0019
X1.221 Y7.6912 Z-0.0459 I0.0046 J0.0019
X1.2118 Y7.6873 Z-0.0465 I-0.0046 J-0.0019
X1.221 Y7.6912 Z-0.047 I0.0046 J0.0019
X1.2118 Y7.6873 Z-0.0476 I-0.0046 J-0.0019
X1.221 Y7.6912 Z-0.0481 I0.0046 J0.0019
X1.2118 Y7.6873 Z-0.0487 I-0.0046 J-0.0019
X1.221 Y7.6912 Z-0.0492 I0.0046 J0.0019
X1.2118 Y7.6873 Z-0.0497 I-0.0046 J-0.0019
X1.221 Y7.6912 Z-0.0503 I0.0046 J0.0019
X1.2118 Y7.6873 Z-0.0508 I-0.0046 J-0.0019
X1.221 Y7.6912 Z-0.0514 I0.0046 J0.0019
X1.2118 Y7.6873 Z-0.0519 I-0.0046 J-0.0019
X1.221 Y7.6912 Z-0.0525 I0.0046 J0.0019
X1.2118 Y7.6873 Z-0.053 I-0.0046 J-0.0019
X1.221 Y7.6912 Z-0.0536 I0.0046 J0.0019
X1.2118 Y7.6873 Z-0.0541 I-0.0046 J-0.0019
X1.221 Y7.6912 Z-0.0547 I0.0046 J0.0019
X1.2118 Y7.6873 Z-0.0552 I-0.0046 J-0.0019
X1.221 Y7.6912 Z-0.0558 I0.0046 J0.0019
X1.2118 Y7.6873 Z-0.0563 I-0.0046 J-0.0019
X1.221 Y7.6912 Z-0.0569 I0.0046 J0.0019
X1.2118 Y7.6873 Z-0.0574 I-0.0046 J-0.0019
X1.221 Y7.6912 Z-0.058 I0.0046 J0.0019
X1.2118 Y7.6873 Z-0.0585 I-0.0046 J-0.0019
X1.221 Y7.6912 Z-0.0591 I0.0046 J0.0019
X1.2118 Y7.6873 Z-0.0596 I-0.0046 J-0.0019
X1.221 Y7.6912 Z-0.0602 I0.0046 J0.0019
X1.2118 Y7.6873 Z-0.0607 I-0.0046 J-0.0019
X1.221 Y7.6912 Z-0.0613 I0.0046 J0.0019
X1.2118 Y7.6873 Z-0.0618 I-0.0046 J-0.0019
X1.221 Y7.6912 Z-0.0624 I0.0046 J0.0019
X1.2118 Y7.6873 Z-0.0629 I-0.0046 J-0.0019
X1.221 Y7.6912 Z-0.0635 I0.0046 J0.0019
X1.2118 Y7.6873 Z-0.064 I-0.0046 J-0.0019
X1.221 Y7.6912 Z-0.0646 I0.0046 J0.0019
X1.2118 Y7.6873 Z-0.0651 I-0.0046 J-0.0019
X1.221 Y7.6912 Z-0.0657 I0.0046 J0.0019
X1.2118 Y7.6873 Z-0.0662 I-0.0046 J-0.0019
X1.221 Y7.6912 Z-0.0668 I0.0046 J0.0019
X1.2118 Y7.6873 Z-0.0673 I-0.0046 J-0.0019
X1.221 Y7.6912 Z-0.0679 I0.0046 J0.0019
X1.2118 Y7.6873 Z-0.0684 I-0.0046 J-0.0019
X1.221 Y7.6912 Z-0.0689 I0.0046 J0.0019
X1.2118 Y7.6873 Z-0.0695 I-0.0046 J-0.0019
X1.221 Y7.6912 Z-0.07 I0.0046 J0.0019
X1.2118 Y7.6873 Z-0.0706 I-0.0046 J-0.0019
X1.221 Y7.6912 Z-0.0711 I0.0046 J0.0019
X1.2118 Y7.6873 Z-0.0717 I-0.0046 J-0.0019
X1.221 Y7.6912 Z-0.0722 I0.0046 J0.0019
X1.2118 Y7.6873 Z-0.0728 I-0.0046 J-0.0019
X1.221 Y7.6912 Z-0.0733 I0.0046 J0.0019
X1.2118 Y7.6873 Z-0.0739 I-0.0046 J-0.0019
X1.221 Y7.6912 Z-0.0744 I0.0046 J0.0019
X1.2118 Y7.6873 Z-0.075 I-0.0046 J-0.0019
X1.221 Y7.6912 Z-0.0755 I0.0046 J0.0019
X1.2118 Y7.6873 Z-0.0761 I-0.0046 J-0.0019
X1.221 Y7.6912 Z-0.0766 I0.0046 J0.0019
X1.2118 Y7.6873 Z-0.0772 I-0.0046 J-0.0019
X1.221 Y7.6912 Z-0.0777 I0.0046 J0.0019
X1.2118 Y7.6873 Z-0.0783 I-0.0046 J-0.0019
X1.221 Y7.6912 Z-0.0788 I0.0046 J0.0019
X1.2118 Y7.6873 Z-0.0794 I-0.0046 J-0.0019
X1.221 Y7.6912 Z-0.0799 I0.0046 J0.0019
X1.2118 Y7.6873 Z-0.0805 I-0.0046 J-0.0019
X1.221 Y7.6912 Z-0.081 I0.0046 J0.0019
X1.2118 Y7.6873 Z-0.0816 I-0.0046 J-0.0019
X1.221 Y7.6912 Z-0.0821 I0.0046 J0.0019
X1.2118 Y7.6873 Z-0.0827 I-0.0046 J-0.0019
X1.221 Y7.6912 Z-0.0832 I0.0046 J0.0019
X1.2118 Y7.6873 Z-0.0838 I-0.0046 J-0.0019
X1.221 Y7.6912 Z-0.0843 I0.0046 J0.0019
X1.2118 Y7.6873 Z-0.0849 I-0.0046 J-0.0019
X1.221 Y7.6912 Z-0.0854 I0.0046 J0.0019
X1.2118 Y7.6873 Z-0.086 I-0.0046 J-0.0019
X1.221 Y7.6912 Z-0.0865 I0.0046 J0.0019
X1.2118 Y7.6873 Z-0.0871 I-0.0046 J-0.0019
X1.221 Y7.6912 Z-0.0876 I0.0046 J0.0019
X1.2118 Y7.6873 Z-0.0881 I-0.0046 J-0.0019
X1.221 Y7.6912 Z-0.0887 I0.0046 J0.0019
X1.2118 Y7.6873 Z-0.0892 I-0.0046 J-0.0019
X1.221 Y7.6912 Z-0.0898 I0.0046 J0.0019
X1.2118 Y7.6873 Z-0.0903 I-0.0046 J-0.0019
X1.221 Y7.6912 Z-0.0909 I0.0046 J0.0019
X1.2118 Y7.6873 Z-0.0914 I-0.0046 J-0.0019
X1.221 Y7.6912 Z-0.092 I0.0046 J0.0019
X1.2118 Y7.6873 Z-0.0925 I-0.0046 J-0.0019
X1.221 Y7.6912 Z-0.0931 I0.0046 J0.0019
X1.2118 Y7.6873 Z-0.0936 I-0.0046 J-0.0019
X1.221 Y7.6912 Z-0.0942 I0.0046 J0.0019
X1.2118 Y7.6873 Z-0.0947 I-0.0046 J-0.0019
X1.221 Y7.6912 Z-0.0953 I0.0046 J0.0019
X1.2118 Y7.6873 Z-0.0958 I-0.0046 J-0.0019
X1.221 Y7.6912 Z-0.0964 I0.0046 J0.0019
X1.2118 Y7.6873 Z-0.0969 I-0.0046 J-0.0019
X1.221 Y7.6912 Z-0.0975 I0.0046 J0.0019
X1.2118 Y7.6873 Z-0.098 I-0.0046 J-0.0019
X1.221 Y7.6912 Z-0.0986 I0.0046 J0.0019
X1.2118 Y7.6873 Z-0.0991 I-0.0046 J-0.0019
X1.221 Y7.6912 Z-0.0997 I0.0046 J0.0019
X1.2118 Y7.6873 Z-0.1002 I-0.0046 J-0.0019
X1.221 Y7.6912 Z-0.1008 I0.0046 J0.0019
X1.2118 Y7.6873 Z-0.1013 I-0.0046 J-0.0019
X1.221 Y7.6912 Z-0.1019 I0.0046 J0.0019
X1.2118 Y7.6873 Z-0.1024 I-0.0046 J-0.0019
X1.221 Y7.6912 Z-0.103 I0.0046 J0.0019
X1.2118 Y7.6873 Z-0.1035 I-0.0046 J-0.0019
X1.221 Y7.6912 Z-0.1041 I0.0046 J0.0019
X1.2118 Y7.6873 Z-0.1046 I-0.0046 J-0.0019
X1.221 Y7.6912 Z-0.1052 I0.0046 J0.0019
X1.2118 Y7.6873 Z-0.1057 I-0.0046 J-0.0019
X1.221 Y7.6912 Z-0.1062 I0.0046 J0.0019
X1.2118 Y7.6873 Z-0.1068 I-0.0046 J-0.0019
X1.221 Y7.6912 Z-0.1073 I0.0046 J0.0019
X1.2118 Y7.6873 Z-0.1079 I-0.0046 J-0.0019
X1.221 Y7.6912 Z-0.1084 I0.0046 J0.0019
X1.2118 Y7.6873 Z-0.109 I-0.0046 J-0.0019
X1.221 Y7.6912 Z-0.1095 I0.0046 J0.0019
X1.2118 Y7.6873 Z-0.1101 I-0.0046 J-0.0019
X1.221 Y7.6912 Z-0.1106 I0.0046 J0.0019
X1.2118 Y7.6873 Z-0.1112 I-0.0046 J-0.0019
X1.221 Y7.6912 Z-0.1117 I0.0046 J0.0019
X1.2118 Y7.6873 Z-0.1123 I-0.0046 J-0.0019
X1.221 Y7.6912 Z-0.1128 I0.0046 J0.0019
X1.2118 Y7.6873 Z-0.1134 I-0.0046 J-0.0019
X1.221 Y7.6912 Z-0.1139 I0.0046 J0.0019
X1.2118 Y7.6873 Z-0.1145 I-0.0046 J-0.0019
X1.221 Y7.6912 Z-0.115 I0.0046 J0.0019
X1.2118 Y7.6873 Z-0.1156 I-0.0046 J-0.0019
X1.221 Y7.6912 Z-0.1161 I0.0046 J0.0019
X1.2118 Y7.6873 Z-0.1167 I-0.0046 J-0.0019
X1.221 Y7.6912 Z-0.1172 I0.0046 J0.0019
X1.2118 Y7.6873 Z-0.1178 I-0.0046 J-0.0019
X1.221 Y7.6912 Z-0.1183 I0.0046 J0.0019
X1.2118 Y7.6873 Z-0.1189 I-0.0046 J-0.0019
X1.221 Y7.6912 Z-0.1194 I0.0046 J0.0019
X1.2118 Y7.6873 Z-0.12 I-0.0046 J-0.0019
X1.221 Y7.6912 Z-0.1205 I0.0046 J0.0019
X1.2118 Y7.6873 Z-0.1211 I-0.0046 J-0.0019
X1.221 Y7.6912 Z-0.1216 I0.0046 J0.0019
X1.2118 Y7.6873 Z-0.1222 I-0.0046 J-0.0019
X1.221 Y7.6912 Z-0.1227 I0.0046 J0.0019
X1.2118 Y7.6873 Z-0.1233 I-0.0046 J-0.0019
X1.221 Y7.6912 Z-0.1238 I0.0046 J0.0019
X1.2118 Y7.6873 Z-0.1244 I-0.0046 J-0.0019
X1.221 Y7.6912 Z-0.1249 I0.0046 J0.0019
X1.2118 Y7.6873 Z-0.1254 I-0.0046 J-0.0019
X1.221 Y7.6912 Z-0.126 I0.0046 J0.0019
X1.2118 Y7.6873 Z-0.1265 I-0.0046 J-0.0019
X1.221 Y7.6912 Z-0.1271 I0.0046 J0.0019
X1.2118 Y7.6873 Z-0.1276 I-0.0046 J-0.0019
X1.221 Y7.6912 Z-0.1282 I0.0046 J0.0019
X1.2118 Y7.6873 Z-0.1287 I-0.0046 J-0.0019
X1.221 Y7.6912 Z-0.1293 I0.0046 J0.0019
X1.2118 Y7.6873 Z-0.1298 I-0.0046 J-0.0019
X1.221 Y7.6912 Z-0.1304 I0.0046 J0.0019
X1.2118 Y7.6873 Z-0.1309 I-0.0046 J-0.0019
X1.221 Y7.6912 Z-0.1315 I0.0046 J0.0019
X1.2118 Y7.6873 Z-0.132 I-0.0046 J-0.0019
X1.221 Y7.6912 Z-0.1326 I0.0046 J0.0019
X1.2118 Y7.6873 Z-0.1331 I-0.0046 J-0.0019
X1.221 Y7.6912 Z-0.1337 I0.0046 J0.0019
X1.2118 Y7.6873 Z-0.1342 I-0.0046 J-0.0019
X1.221 Y7.6912 Z-0.1348 I0.0046 J0.0019
X1.2118 Y7.6873 Z-0.1353 I-0.0046 J-0.0019
X1.221 Y7.6912 Z-0.1359 I0.0046 J0.0019
X1.2118 Y7.6873 Z-0.1364 I-0.0046 J-0.0019
X1.221 Y7.6912 Z-0.137 I0.0046 J0.0019
X1.2118 Y7.6873 Z-0.1375 I-0.0046 J-0.0019
X1.221 Y7.6912 Z-0.1381 I0.0046 J0.0019
X1.2118 Y7.6873 Z-0.1386 I-0.0046 J-0.0019
X1.221 Y7.6912 Z-0.1392 I0.0046 J0.0019
X1.2118 Y7.6873 Z-0.1397 I-0.0046 J-0.0019
X1.221 Y7.6912 Z-0.1403 I0.0046 J0.0019
X1.2118 Y7.6873 Z-0.1408 I-0.0046 J-0.0019
X1.221 Y7.6912 Z-0.1414 I0.0046 J0.0019
X1.2118 Y7.6873 Z-0.1419 I-0.0046 J-0.0019
X1.221 Y7.6912 Z-0.1425 I0.0046 J0.0019
X1.2118 Y7.6873 Z-0.143 I-0.0046 J-0.0019
X1.221 Y7.6912 Z-0.1435 I0.0046 J0.0019
X1.2118 Y7.6873 Z-0.1441 I-0.0046 J-0.0019
X1.221 Y7.6912 Z-0.1446 I0.0046 J0.0019
X1.2118 Y7.6873 Z-0.1452 I-0.0046 J-0.0019
X1.221 Y7.6912 Z-0.1457 I0.0046 J0.0019
X1.2118 Y7.6873 Z-0.1463 I-0.0046 J-0.0019
X1.221 Y7.6912 Z-0.1468 I0.0046 J0.0019
X1.2118 Y7.6873 Z-0.1474 I-0.0046 J-0.0019
X1.221 Y7.6912 Z-0.1479 I0.0046 J0.0019
X1.2118 Y7.6873 Z-0.1485 I-0.0046 J-0.0019
X1.221 Y7.6912 Z-0.149 I0.0046 J0.0019
X1.2118 Y7.6873 Z-0.1496 I-0.0046 J-0.0019
X1.221 Y7.6912 Z-0.1501 I0.0046 J0.0019
X1.2118 Y7.6873 Z-0.1507 I-0.0046 J-0.0019
X1.221 Y7.6912 Z-0.1512 I0.0046 J0.0019
X1.2118 Y7.6873 Z-0.1518 I-0.0046 J-0.0019
X1.221 Y7.6912 Z-0.1523 I0.0046 J0.0019
X1.2118 Y7.6873 Z-0.1529 I-0.0046 J-0.0019
X1.221 Y7.6912 Z-0.1534 I0.0046 J0.0019
X1.2118 Y7.6873 Z-0.154 I-0.0046 J-0.0019
X1.221 Y7.6912 Z-0.1545 I0.0046 J0.0019
X1.2118 Y7.6873 Z-0.1551 I-0.0046 J-0.0019
X1.221 Y7.6912 Z-0.1556 I0.0046 J0.0019
X1.2118 Y7.6873 Z-0.1562 I-0.0046 J-0.0019
X1.221 Y7.6912 Z-0.1567 I0.0046 J0.0019
X1.2118 Y7.6873 Z-0.1573 I-0.0046 J-0.0019
X1.221 Y7.6912 Z-0.1578 I0.0046 J0.0019
X1.2118 Y7.6873 Z-0.1584 I-0.0046 J-0.0019
X1.221 Y7.6912 Z-0.1589 I0.0046 J0.0019
X1.2118 Y7.6873 Z-0.1595 I-0.0046 J-0.0019
X1.221 Y7.6912 Z-0.16 I0.0046 J0.0019
X1.2118 Y7.6873 Z-0.1606 I-0.0046 J-0.0019
X1.221 Y7.6912 Z-0.1611 I0.0046 J0.0019
X1.2118 Y7.6873 Z-0.1617 I-0.0046 J-0.0019
X1.221 Y7.6912 Z-0.1622 I0.0046 J0.0019
X1.2118 Y7.6873 Z-0.1627 I-0.0046 J-0.0019
X1.221 Y7.6912 Z-0.1633 I0.0046 J0.0019
X1.2118 Y7.6873 Z-0.1638 I-0.0046 J-0.0019
X1.221 Y7.6912 Z-0.1644 I0.0046 J0.0019
X1.2118 Y7.6873 Z-0.1649 I-0.0046 J-0.0019
X1.221 Y7.6912 Z-0.1655 I0.0046 J0.0019
X1.2118 Y7.6873 Z-0.166 I-0.0046 J-0.0019
X1.221 Y7.6912 Z-0.1666 I0.0046 J0.0019
X1.2118 Y7.6873 Z-0.1671 I-0.0046 J-0.0019
X1.221 Y7.6912 Z-0.1677 I0.0046 J0.0019
X1.2118 Y7.6873 Z-0.1682 I-0.0046 J-0.0019
X1.221 Y7.6912 Z-0.1688 I0.0046 J0.0019
X1.2118 Y7.6873 Z-0.1693 I-0.0046 J-0.0019
X1.221 Y7.6912 Z-0.1699 I0.0046 J0.0019
X1.2118 Y7.6873 Z-0.1704 I-0.0046 J-0.0019
X1.221 Y7.6912 Z-0.171 I0.0046 J0.0019
X1.2118 Y7.6873 Z-0.1715 I-0.0046 J-0.0019
X1.221 Y7.6912 Z-0.1721 I0.0046 J0.0019
X1.2118 Y7.6873 Z-0.1726 I-0.0046 J-0.0019
X1.221 Y7.6912 Z-0.1732 I0.0046 J0.0019
X1.2118 Y7.6873 Z-0.1737 I-0.0046 J-0.0019
X1.221 Y7.6912 Z-0.1743 I0.0046 J0.0019
X1.2118 Y7.6873 Z-0.1748 I-0.0046 J-0.0019
X1.221 Y7.6912 Z-0.1754 I0.0046 J0.0019
X1.2118 Y7.6873 Z-0.1759 I-0.0046 J-0.0019
X1.221 Y7.6912 Z-0.1765 I0.0046 J0.0019
X1.2118 Y7.6873 Z-0.177 I-0.0046 J-0.0019
X1.221 Y7.6912 Z-0.1776 I0.0046 J0.0019
X1.2118 Y7.6873 Z-0.1781 I-0.0046 J-0.0019
X1.221 Y7.6912 Z-0.1787 I0.0046 J0.0019
X1.2118 Y7.6873 Z-0.1792 I-0.0046 J-0.0019
X1.221 Y7.6912 Z-0.1798 I0.0046 J0.0019
X1.2118 Y7.6873 Z-0.1803 I-0.0046 J-0.0019
X1.221 Y7.6912 Z-0.1808 I0.0046 J0.0019
X1.2118 Y7.6873 Z-0.1814 I-0.0046 J-0.0019
X1.221 Y7.6912 Z-0.1819 I0.0046 J0.0019
X1.2118 Y7.6873 Z-0.1825 I-0.0046 J-0.0019
X1.221 Y7.6912 Z-0.183 I0.0046 J0.0019
X1.2118 Y7.6873 Z-0.1836 I-0.0046 J-0.0019
X1.221 Y7.6912 Z-0.1841 I0.0046 J0.0019
X1.2118 Y7.6873 Z-0.1847 I-0.0046 J-0.0019
X1.221 Y7.6912 Z-0.1852 I0.0046 J0.0019
X1.2118 Y7.6873 Z-0.1858 I-0.0046 J-0.0019
X1.221 Y7.6912 Z-0.1863 I0.0046 J0.0019
X1.2118 Y7.6873 Z-0.1869 I-0.0046 J-0.0019
X1.221 Y7.6912 Z-0.1874 I0.0046 J0.0019
X1.2118 Y7.6873 Z-0.188 I-0.0046 J-0.0019
X1.221 Y7.6912 Z-0.1885 I0.0046 J0.0019
X1.2118 Y7.6873 Z-0.1891 I-0.0046 J-0.0019
X1.221 Y7.6912 Z-0.1896 I0.0046 J0.0019
X1.2118 Y7.6873 Z-0.1902 I-0.0046 J-0.0019
X1.221 Y7.6912 Z-0.1907 I0.0046 J0.0019
X1.2118 Y7.6873 Z-0.1913 I-0.0046 J-0.0019
X1.221 Y7.6912 Z-0.1918 I0.0046 J0.0019
X1.2118 Y7.6873 Z-0.1924 I-0.0046 J-0.0019
X1.221 Y7.6912 Z-0.1929 I0.0046 J0.0019
X1.2118 Y7.6873 Z-0.1935 I-0.0046 J-0.0019
X1.221 Y7.6912 Z-0.194 I0.0046 J0.0019
X1.2118 Y7.6873 Z-0.1946 I-0.0046 J-0.0019
X1.221 Y7.6912 Z-0.1951 I0.0046 J0.0019
X1.2118 Y7.6873 Z-0.1957 I-0.0046 J-0.0019
X1.221 Y7.6912 Z-0.1962 I0.0046 J0.0019
X1.2118 Y7.6873 Z-0.1968 I-0.0046 J-0.0019
X1.221 Y7.6912 Z-0.1973 I0.0046 J0.0019
X1.2118 Y7.6873 Z-0.1979 I-0.0046 J-0.0019
X1.221 Y7.6912 Z-0.1984 I0.0046 J0.0019
X1.2118 Y7.6873 Z-0.199 I-0.0046 J-0.0019
X1.221 Y7.6912 Z-0.1995 I0.0046 J0.0019
X1.2118 Y7.6873 Z-0.2 I-0.0046 J-0.0019
X1.221 Y7.6912 Z-0.2006 I0.0046 J0.0019
X1.2118 Y7.6873 Z-0.2011 I-0.0046 J-0.0019
X1.221 Y7.6912 Z-0.2017 I0.0046 J0.0019
X1.2118 Y7.6873 Z-0.2022 I-0.0046 J-0.0019
X1.221 Y7.6912 Z-0.2028 I0.0046 J0.0019
X1.2118 Y7.6873 Z-0.2033 I-0.0046 J-0.0019
X1.221 Y7.6912 Z-0.2039 I0.0046 J0.0019
X1.2118 Y7.6873 Z-0.2044 I-0.0046 J-0.0019
X1.221 Y7.6912 Z-0.205 I0.0046 J0.0019
X1.2118 Y7.6873 Z-0.2055 I-0.0046 J-0.0019
X1.221 Y7.6912 Z-0.2061 I0.0046 J0.0019
X1.2118 Y7.6873 Z-0.2066 I-0.0046 J-0.0019
X1.221 Y7.6912 Z-0.2072 I0.0046 J0.0019
X1.2118 Y7.6873 Z-0.2077 I-0.0046 J-0.0019
X1.221 Y7.6912 Z-0.2083 I0.0046 J0.0019
X1.2118 Y7.6873 Z-0.2088 I-0.0046 J-0.0019
X1.221 Y7.6912 Z-0.2094 I0.0046 J0.0019
X1.2118 Y7.6873 Z-0.2099 I-0.0046 J-0.0019
X1.221 Y7.6912 Z-0.2105 I0.0046 J0.0019
X1.2118 Y7.6873 Z-0.211 I-0.0046 J-0.0019
X1.221 Y7.6912 Z-0.2116 I0.0046 J0.0019
X1.2118 Y7.6873 Z-0.2121 I-0.0046 J-0.0019
X1.221 Y7.6912 Z-0.2127 I0.0046 J0.0019
X1.2118 Y7.6873 Z-0.2132 I-0.0046 J-0.0019
X1.221 Y7.6912 Z-0.2138 I0.0046 J0.0019
X1.2118 Y7.6873 Z-0.2143 I-0.0046 J-0.0019
X1.221 Y7.6912 Z-0.2149 I0.0046 J0.0019
X1.2118 Y7.6873 Z-0.2154 I-0.0046 J-0.0019
X1.221 Y7.6912 Z-0.216 I0.0046 J0.0019
X1.2118 Y7.6873 Z-0.2165 I-0.0046 J-0.0019
X1.221 Y7.6912 Z-0.2171 I0.0046 J0.0019
X1.2118 Y7.6873 Z-0.2176 I-0.0046 J-0.0019
X1.221 Y7.6912 Z-0.2181 I0.0046 J0.0019
X1.2118 Y7.6873 Z-0.2187 I-0.0046 J-0.0019
X1.221 Y7.6912 Z-0.2192 I0.0046 J0.0019
X1.2118 Y7.6873 Z-0.2198 I-0.0046 J-0.0019
X1.2164 Y7.6842 Z-0.22 I0.0046 J0.0019
Y7.7362 I0. J0.026 F40.
Y7.6842 I0. J-0.026
Y7.7362 Z-0.2229 I0. J0.026 F20.
Y7.6842 Z-0.2257 I0. J-0.026
Y7.7362 Z-0.2286 I0. J0.026
Y7.6842 Z-0.2314 I0. J-0.026
Y7.7362 Z-0.2343 I0. J0.026
Y7.6842 Z-0.2371 I0. J-0.026
Y7.7362 Z-0.24 I0. J0.026
Y7.6842 Z-0.2428 I0. J-0.026
Y7.7362 Z-0.2457 I0. J0.026
Y7.6842 Z-0.2485 I0. J-0.026
Y7.7362 Z-0.2514 I0. J0.026
Y7.6842 Z-0.2542 I0. J-0.026
Y7.7362 Z-0.2571 I0. J0.026
Y7.6842 Z-0.2599 I0. J-0.026
Y7.7362 Z-0.2628 I0. J0.026
Y7.6842 Z-0.2656 I0. J-0.026
Y7.7362 Z-0.2685 I0. J0.026
Y7.6842 Z-0.2713 I0. J-0.026
Y7.7362 Z-0.2742 I0. J0.026
Y7.6842 Z-0.277 I0. J-0.026
Y7.7362 Z-0.2799 I0. J0.026
Y7.6842 Z-0.2828 I0. J-0.026
Y7.7362 Z-0.2856 I0. J0.026
Y7.6842 Z-0.2885 I0. J-0.026
Y7.7362 Z-0.2913 I0. J0.026
Y7.6842 Z-0.2942 I0. J-0.026
Y7.7362 Z-0.297 I0. J0.026
Y7.6842 Z-0.2999 I0. J-0.026
Y7.7362 Z-0.3027 I0. J0.026
Y7.6842 Z-0.3056 I0. J-0.026
Y7.7362 Z-0.3084 I0. J0.026
Y7.6842 Z-0.3113 I0. J-0.026
Y7.7362 Z-0.3141 I0. J0.026
Y7.6842 Z-0.317 I0. J-0.026
Y7.7362 Z-0.3198 I0. J0.026
Y7.6842 Z-0.3227 I0. J-0.026
Y7.7362 Z-0.3255 I0. J0.026
Y7.6842 Z-0.3284 I0. J-0.026
Y7.7362 Z-0.3312 I0. J0.026
Y7.6842 Z-0.3341 I0. J-0.026
Y7.7362 Z-0.3369 I0. J0.026
Y7.6842 Z-0.3398 I0. J-0.026
Y7.7362 Z-0.3427 I0. J0.026
Y7.6842 Z-0.3455 I0. J-0.026
Y7.7362 Z-0.3484 I0. J0.026
Y7.6842 Z-0.3512 I0. J-0.026
Y7.7362 Z-0.3541 I0. J0.026
Y7.6842 Z-0.3569 I0. J-0.026
Y7.7362 Z-0.3598 I0. J0.026
Y7.6842 Z-0.3626 I0. J-0.026
Y7.7362 Z-0.3655 I0. J0.026
Y7.6842 Z-0.3683 I0. J-0.026
Y7.7362 Z-0.3712 I0. J0.026
Y7.6842 Z-0.374 I0. J-0.026
Y7.7362 Z-0.3769 I0. J0.026
Y7.6842 Z-0.3797 I0. J-0.026
Y7.7362 Z-0.3826 I0. J0.026
Y7.6842 Z-0.3854 I0. J-0.026
Y7.7362 Z-0.3883 I0. J0.026
Y7.6842 Z-0.3911 I0. J-0.026
Y7.7362 Z-0.394 I0. J0.026
Y7.6842 Z-0.3968 I0. J-0.026
Y7.7362 Z-0.3997 I0. J0.026
Y7.6842 Z-0.4026 I0. J-0.026
Y7.7362 Z-0.4054 I0. J0.026
Y7.6842 Z-0.4083 I0. J-0.026
Y7.7362 Z-0.4111 I0. J0.026
Y7.6842 Z-0.414 I0. J-0.026
Y7.7362 Z-0.4168 I0. J0.026
Y7.6842 Z-0.4197 I0. J-0.026
Y7.7362 Z-0.4225 I0. J0.026
Y7.6842 Z-0.4254 I0. J-0.026
Y7.7362 Z-0.4282 I0. J0.026
Y7.6842 Z-0.4311 I0. J-0.026
Y7.7362 Z-0.4339 I0. J0.026
Y7.6842 Z-0.4368 I0. J-0.026
Y7.7362 Z-0.4396 I0. J0.026
X1.2062 Y7.7341 Z-0.44 I0. J-0.026
X1.2266 Y7.6863 I0.0102 J-0.0239 F40.
X1.2062 Y7.7341 I-0.0102 J0.0239
G1 X1.2042 Y7.7331 Z-0.4396
X1.2025 Y7.7316 Z-0.4391
X1.2012 Y7.7302 Z-0.4378
X1.2002 Y7.7285 Z-0.4365
X1.1994 Y7.7261 Z-0.4327
X1.1992 Y7.7252 Z-0.4282
G0 Z0.2
X0.7639 Y7.5314
G1 Z0.1118 F40.
X0.7624 Y7.5316 Z0.106 F20.
X0.761 Y7.5314 Z0.1045
X0.7598 Y7.5309 Z0.1031
X0.7587 Y7.53 Z0.1017
X0.7579 Y7.5288 Z0.1013
X0.7575 Y7.5275 Z0.1009
X0.7574 Y7.5261 Z0.1004
X0.7578 Y7.5247 Z0.1
G3 X0.767 Y7.5286 Z0.0995 I0.0046 J0.0019
X0.7578 Y7.5247 Z0.0989 I-0.0046 J-0.0019
X0.767 Y7.5286 Z0.0984 I0.0046 J0.0019
X0.7578 Y7.5247 Z0.0978 I-0.0046 J-0.0019
X0.767 Y7.5286 Z0.0973 I0.0046 J0.0019
X0.7578 Y7.5247 Z0.0967 I-0.0046 J-0.0019
X0.767 Y7.5286 Z0.0962 I0.0046 J0.0019
X0.7578 Y7.5247 Z0.0956 I-0.0046 J-0.0019
X0.767 Y7.5286 Z0.0951 I0.0046 J0.0019
X0.7578 Y7.5247 Z0.0945 I-0.0046 J-0.0019
X0.767 Y7.5286 Z0.094 I0.0046 J0.0019
X0.7578 Y7.5247 Z0.0934 I-0.0046 J-0.0019
X0.767 Y7.5286 Z0.0929 I0.0046 J0.0019
X0.7578 Y7.5247 Z0.0923 I-0.0046 J-0.0019
X0.767 Y7.5286 Z0.0918 I0.0046 J0.0019
X0.7578 Y7.5247 Z0.0912 I-0.0046 J-0.0019
X0.767 Y7.5286 Z0.0907 I0.0046 J0.0019
X0.7578 Y7.5247 Z0.0901 I-0.0046 J-0.0019
X0.767 Y7.5286 Z0.0896 I0.0046 J0.0019
X0.7578 Y7.5247 Z0.089 I-0.0046 J-0.0019
X0.767 Y7.5286 Z0.0885 I0.0046 J0.0019
X0.7578 Y7.5247 Z0.0879 I-0.0046 J-0.0019
X0.767 Y7.5286 Z0.0874 I0.0046 J0.0019
X0.7578 Y7.5247 Z0.0868 I-0.0046 J-0.0019
X0.767 Y7.5286 Z0.0863 I0.0046 J0.0019
X0.7578 Y7.5247 Z0.0857 I-0.0046 J-0.0019
X0.767 Y7.5286 Z0.0852 I0.0046 J0.0019
X0.7578 Y7.5247 Z0.0846 I-0.0046 J-0.0019
X0.767 Y7.5286 Z0.0841 I0.0046 J0.0019
X0.7578 Y7.5247 Z0.0835 I-0.0046 J-0.0019
X0.767 Y7.5286 Z0.083 I0.0046 J0.0019
X0.7578 Y7.5247 Z0.0824 I-0.0046 J-0.0019
X0.767 Y7.5286 Z0.0819 I0.0046 J0.0019
X0.7578 Y7.5247 Z0.0813 I-0.0046 J-0.0019
X0.767 Y7.5286 Z0.0808 I0.0046 J0.0019
X0.7578 Y7.5247 Z0.0803 I-0.0046 J-0.0019
X0.767 Y7.5286 Z0.0797 I0.0046 J0.0019
X0.7578 Y7.5247 Z0.0792 I-0.0046 J-0.0019
X0.767 Y7.5286 Z0.0786 I0.0046 J0.0019
X0.7578 Y7.5247 Z0.0781 I-0.0046 J-0.0019
X0.767 Y7.5286 Z0.0775 I0.0046 J0.0019
X0.7578 Y7.5247 Z0.077 I-0.0046 J-0.0019
X0.767 Y7.5286 Z0.0764 I0.0046 J0.0019
X0.7578 Y7.5247 Z0.0759 I-0.0046 J-0.0019
X0.767 Y7.5286 Z0.0753 I0.0046 J0.0019
X0.7578 Y7.5247 Z0.0748 I-0.0046 J-0.0019
X0.767 Y7.5286 Z0.0742 I0.0046 J0.0019
X0.7578 Y7.5247 Z0.0737 I-0.0046 J-0.0019
X0.767 Y7.5286 Z0.0731 I0.0046 J0.0019
X0.7578 Y7.5247 Z0.0726 I-0.0046 J-0.0019
X0.767 Y7.5286 Z0.072 I0.0046 J0.0019
X0.7578 Y7.5247 Z0.0715 I-0.0046 J-0.0019
X0.767 Y7.5286 Z0.0709 I0.0046 J0.0019
X0.7578 Y7.5247 Z0.0704 I-0.0046 J-0.0019
X0.767 Y7.5286 Z0.0698 I0.0046 J0.0019
X0.7578 Y7.5247 Z0.0693 I-0.0046 J-0.0019
X0.767 Y7.5286 Z0.0687 I0.0046 J0.0019
X0.7578 Y7.5247 Z0.0682 I-0.0046 J-0.0019
X0.767 Y7.5286 Z0.0676 I0.0046 J0.0019
X0.7578 Y7.5247 Z0.0671 I-0.0046 J-0.0019
X0.767 Y7.5286 Z0.0665 I0.0046 J0.0019
X0.7578 Y7.5247 Z0.066 I-0.0046 J-0.0019
X0.767 Y7.5286 Z0.0654 I0.0046 J0.0019
X0.7578 Y7.5247 Z0.0649 I-0.0046 J-0.0019
X0.767 Y7.5286 Z0.0643 I0.0046 J0.0019
X0.7578 Y7.5247 Z0.0638 I-0.0046 J-0.0019
X0.767 Y7.5286 Z0.0632 I0.0046 J0.0019
X0.7578 Y7.5247 Z0.0627 I-0.0046 J-0.0019
X0.767 Y7.5286 Z0.0622 I0.0046 J0.0019
X0.7578 Y7.5247 Z0.0616 I-0.0046 J-0.0019
X0.767 Y7.5286 Z0.0611 I0.0046 J0.0019
X0.7578 Y7.5247 Z0.0605 I-0.0046 J-0.0019
X0.767 Y7.5286 Z0.06 I0.0046 J0.0019
X0.7578 Y7.5247 Z0.0594 I-0.0046 J-0.0019
X0.767 Y7.5286 Z0.0589 I0.0046 J0.0019
X0.7578 Y7.5247 Z0.0583 I-0.0046 J-0.0019
X0.767 Y7.5286 Z0.0578 I0.0046 J0.0019
X0.7578 Y7.5247 Z0.0572 I-0.0046 J-0.0019
X0.767 Y7.5286 Z0.0567 I0.0046 J0.0019
X0.7578 Y7.5247 Z0.0561 I-0.0046 J-0.0019
X0.767 Y7.5286 Z0.0556 I0.0046 J0.0019
X0.7578 Y7.5247 Z0.055 I-0.0046 J-0.0019
X0.767 Y7.5286 Z0.0545 I0.0046 J0.0019
X0.7578 Y7.5247 Z0.0539 I-0.0046 J-0.0019
X0.767 Y7.5286 Z0.0534 I0.0046 J0.0019
X0.7578 Y7.5247 Z0.0528 I-0.0046 J-0.0019
X0.767 Y7.5286 Z0.0523 I0.0046 J0.0019
X0.7578 Y7.5247 Z0.0517 I-0.0046 J-0.0019
X0.767 Y7.5286 Z0.0512 I0.0046 J0.0019
X0.7578 Y7.5247 Z0.0506 I-0.0046 J-0.0019
X0.767 Y7.5286 Z0.0501 I0.0046 J0.0019
X0.7578 Y7.5247 Z0.0495 I-0.0046 J-0.0019
X0.767 Y7.5286 Z0.049 I0.0046 J0.0019
X0.7578 Y7.5247 Z0.0484 I-0.0046 J-0.0019
X0.767 Y7.5286 Z0.0479 I0.0046 J0.0019
X0.7578 Y7.5247 Z0.0473 I-0.0046 J-0.0019
X0.767 Y7.5286 Z0.0468 I0.0046 J0.0019
X0.7578 Y7.5247 Z0.0462 I-0.0046 J-0.0019
X0.767 Y7.5286 Z0.0457 I0.0046 J0.0019
X0.7578 Y7.5247 Z0.0451 I-0.0046 J-0.0019
X0.767 Y7.5286 Z0.0446 I0.0046 J0.0019
X0.7578 Y7.5247 Z0.044 I-0.0046 J-0.0019
X0.767 Y7.5286 Z0.0435 I0.0046 J0.0019
X0.7578 Y7.5247 Z0.043 I-0.0046 J-0.0019
X0.767 Y7.5286 Z0.0424 I0.0046 J0.0019
X0.7578 Y7.5247 Z0.0419 I-0.0046 J-0.0019
X0.767 Y7.5286 Z0.0413 I0.0046 J0.0019
X0.7578 Y7.5247 Z0.0408 I-0.0046 J-0.0019
X0.767 Y7.5286 Z0.0402 I0.0046 J0.0019
X0.7578 Y7.5247 Z0.0397 I-0.0046 J-0.0019
X0.767 Y7.5286 Z0.0391 I0.0046 J0.0019
X0.7578 Y7.5247 Z0.0386 I-0.0046 J-0.0019
X0.767 Y7.5286 Z0.038 I0.0046 J0.0019
X0.7578 Y7.5247 Z0.0375 I-0.0046 J-0.0019
X0.767 Y7.5286 Z0.0369 I0.0046 J0.0019
X0.7578 Y7.5247 Z0.0364 I-0.0046 J-0.0019
X0.767 Y7.5286 Z0.0358 I0.0046 J0.0019
X0.7578 Y7.5247 Z0.0353 I-0.0046 J-0.0019
X0.767 Y7.5286 Z0.0347 I0.0046 J0.0019
X0.7578 Y7.5247 Z0.0342 I-0.0046 J-0.0019
X0.767 Y7.5286 Z0.0336 I0.0046 J0.0019
X0.7578 Y7.5247 Z0.0331 I-0.0046 J-0.0019
X0.767 Y7.5286 Z0.0325 I0.0046 J0.0019
X0.7578 Y7.5247 Z0.032 I-0.0046 J-0.0019
X0.767 Y7.5286 Z0.0314 I0.0046 J0.0019
X0.7578 Y7.5247 Z0.0309 I-0.0046 J-0.0019
X0.767 Y7.5286 Z0.0303 I0.0046 J0.0019
X0.7578 Y7.5247 Z0.0298 I-0.0046 J-0.0019
X0.767 Y7.5286 Z0.0292 I0.0046 J0.0019
X0.7578 Y7.5247 Z0.0287 I-0.0046 J-0.0019
X0.767 Y7.5286 Z0.0281 I0.0046 J0.0019
X0.7578 Y7.5247 Z0.0276 I-0.0046 J-0.0019
X0.767 Y7.5286 Z0.027 I0.0046 J0.0019
X0.7578 Y7.5247 Z0.0265 I-0.0046 J-0.0019
X0.767 Y7.5286 Z0.0259 I0.0046 J0.0019
X0.7578 Y7.5247 Z0.0254 I-0.0046 J-0.0019
X0.767 Y7.5286 Z0.0249 I0.0046 J0.0019
X0.7578 Y7.5247 Z0.0243 I-0.0046 J-0.0019
X0.767 Y7.5286 Z0.0238 I0.0046 J0.0019
X0.7578 Y7.5247 Z0.0232 I-0.0046 J-0.0019
X0.767 Y7.5286 Z0.0227 I0.0046 J0.0019
X0.7578 Y7.5247 Z0.0221 I-0.0046 J-0.0019
X0.767 Y7.5286 Z0.0216 I0.0046 J0.0019
X0.7578 Y7.5247 Z0.021 I-0.0046 J-0.0019
X0.767 Y7.5286 Z0.0205 I0.0046 J0.0019
X0.7578 Y7.5247 Z0.0199 I-0.0046 J-0.0019
X0.767 Y7.5286 Z0.0194 I0.0046 J0.0019
X0.7578 Y7.5247 Z0.0188 I-0.0046 J-0.0019
X0.767 Y7.5286 Z0.0183 I0.0046 J0.0019
X0.7578 Y7.5247 Z0.0177 I-0.0046 J-0.0019
X0.767 Y7.5286 Z0.0172 I0.0046 J0.0019
X0.7578 Y7.5247 Z0.0166 I-0.0046 J-0.0019
X0.767 Y7.5286 Z0.0161 I0.0046 J0.0019
X0.7578 Y7.5247 Z0.0155 I-0.0046 J-0.0019
X0.767 Y7.5286 Z0.015 I0.0046 J0.0019
X0.7578 Y7.5247 Z0.0144 I-0.0046 J-0.0019
X0.767 Y7.5286 Z0.0139 I0.0046 J0.0019
X0.7578 Y7.5247 Z0.0133 I-0.0046 J-0.0019
X0.767 Y7.5286 Z0.0128 I0.0046 J0.0019
X0.7578 Y7.5247 Z0.0122 I-0.0046 J-0.0019
X0.767 Y7.5286 Z0.0117 I0.0046 J0.0019
X0.7578 Y7.5247 Z0.0111 I-0.0046 J-0.0019
X0.767 Y7.5286 Z0.0106 I0.0046 J0.0019
X0.7578 Y7.5247 Z0.01 I-0.0046 J-0.0019
X0.767 Y7.5286 Z0.0095 I0.0046 J0.0019
X0.7578 Y7.5247 Z0.0089 I-0.0046 J-0.0019
X0.767 Y7.5286 Z0.0084 I0.0046 J0.0019
X0.7578 Y7.5247 Z0.0078 I-0.0046 J-0.0019
X0.767 Y7.5286 Z0.0073 I0.0046 J0.0019
X0.7578 Y7.5247 Z0.0067 I-0.0046 J-0.0019
X0.767 Y7.5286 Z0.0062 I0.0046 J0.0019
X0.7578 Y7.5247 Z0.0057 I-0.0046 J-0.0019
X0.767 Y7.5286 Z0.0051 I0.0046 J0.0019
X0.7578 Y7.5247 Z0.0046 I-0.0046 J-0.0019
X0.767 Y7.5286 Z0.004 I0.0046 J0.0019
X0.7578 Y7.5247 Z0.0035 I-0.0046 J-0.0019
X0.767 Y7.5286 Z0.0029 I0.0046 J0.0019
X0.7578 Y7.5247 Z0.0024 I-0.0046 J-0.0019
X0.767 Y7.5286 Z0.0018 I0.0046 J0.0019
X0.7578 Y7.5247 Z0.0013 I-0.0046 J-0.0019
X0.767 Y7.5286 Z0.0007 I0.0046 J0.0019
X0.7578 Y7.5247 Z0.0002 I-0.0046 J-0.0019
X0.767 Y7.5286 Z-0.0004 I0.0046 J0.0019
X0.7578 Y7.5247 Z-0.0009 I-0.0046 J-0.0019
X0.767 Y7.5286 Z-0.0015 I0.0046 J0.0019
X0.7578 Y7.5247 Z-0.002 I-0.0046 J-0.0019
X0.767 Y7.5286 Z-0.0026 I0.0046 J0.0019
X0.7578 Y7.5247 Z-0.0031 I-0.0046 J-0.0019
X0.767 Y7.5286 Z-0.0037 I0.0046 J0.0019
X0.7578 Y7.5247 Z-0.0042 I-0.0046 J-0.0019
X0.767 Y7.5286 Z-0.0048 I0.0046 J0.0019
X0.7578 Y7.5247 Z-0.0053 I-0.0046 J-0.0019
X0.767 Y7.5286 Z-0.0059 I0.0046 J0.0019
X0.7578 Y7.5247 Z-0.0064 I-0.0046 J-0.0019
X0.767 Y7.5286 Z-0.007 I0.0046 J0.0019
X0.7578 Y7.5247 Z-0.0075 I-0.0046 J-0.0019
X0.767 Y7.5286 Z-0.0081 I0.0046 J0.0019
X0.7578 Y7.5247 Z-0.0086 I-0.0046 J-0.0019
X0.767 Y7.5286 Z-0.0092 I0.0046 J0.0019
X0.7578 Y7.5247 Z-0.0097 I-0.0046 J-0.0019
X0.767 Y7.5286 Z-0.0103 I0.0046 J0.0019
X0.7578 Y7.5247 Z-0.0108 I-0.0046 J-0.0019
X0.767 Y7.5286 Z-0.0114 I0.0046 J0.0019
X0.7578 Y7.5247 Z-0.0119 I-0.0046 J-0.0019
X0.767 Y7.5286 Z-0.0124 I0.0046 J0.0019
X0.7578 Y7.5247 Z-0.013 I-0.0046 J-0.0019
X0.767 Y7.5286 Z-0.0135 I0.0046 J0.0019
X0.7578 Y7.5247 Z-0.0141 I-0.0046 J-0.0019
X0.767 Y7.5286 Z-0.0146 I0.0046 J0.0019
X0.7578 Y7.5247 Z-0.0152 I-0.0046 J-0.0019
X0.767 Y7.5286 Z-0.0157 I0.0046 J0.0019
X0.7578 Y7.5247 Z-0.0163 I-0.0046 J-0.0019
X0.767 Y7.5286 Z-0.0168 I0.0046 J0.0019
X0.7578 Y7.5247 Z-0.0174 I-0.0046 J-0.0019
X0.767 Y7.5286 Z-0.0179 I0.0046 J0.0019
X0.7578 Y7.5247 Z-0.0185 I-0.0046 J-0.0019
X0.767 Y7.5286 Z-0.019 I0.0046 J0.0019
X0.7578 Y7.5247 Z-0.0196 I-0.0046 J-0.0019
X0.767 Y7.5286 Z-0.0201 I0.0046 J0.0019
X0.7578 Y7.5247 Z-0.0207 I-0.0046 J-0.0019
X0.767 Y7.5286 Z-0.0212 I0.0046 J0.0019
X0.7578 Y7.5247 Z-0.0218 I-0.0046 J-0.0019
X0.767 Y7.5286 Z-0.0223 I0.0046 J0.0019
X0.7578 Y7.5247 Z-0.0229 I-0.0046 J-0.0019
X0.767 Y7.5286 Z-0.0234 I0.0046 J0.0019
X0.7578 Y7.5247 Z-0.024 I-0.0046 J-0.0019
X0.767 Y7.5286 Z-0.0245 I0.0046 J0.0019
X0.7578 Y7.5247 Z-0.0251 I-0.0046 J-0.0019
X0.767 Y7.5286 Z-0.0256 I0.0046 J0.0019
X0.7578 Y7.5247 Z-0.0262 I-0.0046 J-0.0019
X0.767 Y7.5286 Z-0.0267 I0.0046 J0.0019
X0.7578 Y7.5247 Z-0.0273 I-0.0046 J-0.0019
X0.767 Y7.5286 Z-0.0278 I0.0046 J0.0019
X0.7578 Y7.5247 Z-0.0284 I-0.0046 J-0.0019
X0.767 Y7.5286 Z-0.0289 I0.0046 J0.0019
X0.7578 Y7.5247 Z-0.0295 I-0.0046 J-0.0019
X0.767 Y7.5286 Z-0.03 I0.0046 J0.0019
X0.7578 Y7.5247 Z-0.0306 I-0.0046 J-0.0019
X0.767 Y7.5286 Z-0.0311 I0.0046 J0.0019
X0.7578 Y7.5247 Z-0.0316 I-0.0046 J-0.0019
X0.767 Y7.5286 Z-0.0322 I0.0046 J0.0019
X0.7578 Y7.5247 Z-0.0327 I-0.0046 J-0.0019
X0.767 Y7.5286 Z-0.0333 I0.0046 J0.0019
X0.7578 Y7.5247 Z-0.0338 I-0.0046 J-0.0019
X0.767 Y7.5286 Z-0.0344 I0.0046 J0.0019
X0.7578 Y7.5247 Z-0.0349 I-0.0046 J-0.0019
X0.767 Y7.5286 Z-0.0355 I0.0046 J0.0019
X0.7578 Y7.5247 Z-0.036 I-0.0046 J-0.0019
X0.767 Y7.5286 Z-0.0366 I0.0046 J0.0019
X0.7578 Y7.5247 Z-0.0371 I-0.0046 J-0.0019
X0.767 Y7.5286 Z-0.0377 I0.0046 J0.0019
X0.7578 Y7.5247 Z-0.0382 I-0.0046 J-0.0019
X0.767 Y7.5286 Z-0.0388 I0.0046 J0.0019
X0.7578 Y7.5247 Z-0.0393 I-0.0046 J-0.0019
X0.767 Y7.5286 Z-0.0399 I0.0046 J0.0019
X0.7578 Y7.5247 Z-0.0404 I-0.0046 J-0.0019
X0.767 Y7.5286 Z-0.041 I0.0046 J0.0019
X0.7578 Y7.5247 Z-0.0415 I-0.0046 J-0.0019
X0.767 Y7.5286 Z-0.0421 I0.0046 J0.0019
X0.7578 Y7.5247 Z-0.0426 I-0.0046 J-0.0019
X0.767 Y7.5286 Z-0.0432 I0.0046 J0.0019
X0.7578 Y7.5247 Z-0.0437 I-0.0046 J-0.0019
X0.767 Y7.5286 Z-0.0443 I0.0046 J0.0019
X0.7578 Y7.5247 Z-0.0448 I-0.0046 J-0.0019
X0.767 Y7.5286 Z-0.0454 I0.0046 J0.0019
X0.7578 Y7.5247 Z-0.0459 I-0.0046 J-0.0019
X0.767 Y7.5286 Z-0.0465 I0.0046 J0.0019
X0.7578 Y7.5247 Z-0.047 I-0.0046 J-0.0019
X0.767 Y7.5286 Z-0.0476 I0.0046 J0.0019
X0.7578 Y7.5247 Z-0.0481 I-0.0046 J-0.0019
X0.767 Y7.5286 Z-0.0487 I0.0046 J0.0019
X0.7578 Y7.5247 Z-0.0492 I-0.0046 J-0.0019
X0.767 Y7.5286 Z-0.0497 I0.0046 J0.0019
X0.7578 Y7.5247 Z-0.0503 I-0.0046 J-0.0019
X0.767 Y7.5286 Z-0.0508 I0.0046 J0.0019
X0.7578 Y7.5247 Z-0.0514 I-0.0046 J-0.0019
X0.767 Y7.5286 Z-0.0519 I0.0046 J0.0019
X0.7578 Y7.5247 Z-0.0525 I-0.0046 J-0.0019
X0.767 Y7.5286 Z-0.053 I0.0046 J0.0019
X0.7578 Y7.5247 Z-0.0536 I-0.0046 J-0.0019
X0.767 Y7.5286 Z-0.0541 I0.0046 J0.0019
X0.7578 Y7.5247 Z-0.0547 I-0.0046 J-0.0019
X0.767 Y7.5286 Z-0.0552 I0.0046 J0.0019
X0.7578 Y7.5247 Z-0.0558 I-0.0046 J-0.0019
X0.767 Y7.5286 Z-0.0563 I0.0046 J0.0019
X0.7578 Y7.5247 Z-0.0569 I-0.0046 J-0.0019
X0.767 Y7.5286 Z-0.0574 I0.0046 J0.0019
X0.7578 Y7.5247 Z-0.058 I-0.0046 J-0.0019
X0.767 Y7.5286 Z-0.0585 I0.0046 J0.0019
X0.7578 Y7.5247 Z-0.0591 I-0.0046 J-0.0019
X0.767 Y7.5286 Z-0.0596 I0.0046 J0.0019
X0.7578 Y7.5247 Z-0.0602 I-0.0046 J-0.0019
X0.767 Y7.5286 Z-0.0607 I0.0046 J0.0019
X0.7578 Y7.5247 Z-0.0613 I-0.0046 J-0.0019
X0.767 Y7.5286 Z-0.0618 I0.0046 J0.0019
X0.7578 Y7.5247 Z-0.0624 I-0.0046 J-0.0019
X0.767 Y7.5286 Z-0.0629 I0.0046 J0.0019
X0.7578 Y7.5247 Z-0.0635 I-0.0046 J-0.0019
X0.767 Y7.5286 Z-0.064 I0.0046 J0.0019
X0.7578 Y7.5247 Z-0.0646 I-0.0046 J-0.0019
X0.767 Y7.5286 Z-0.0651 I0.0046 J0.0019
X0.7578 Y7.5247 Z-0.0657 I-0.0046 J-0.0019
X0.767 Y7.5286 Z-0.0662 I0.0046 J0.0019
X0.7578 Y7.5247 Z-0.0668 I-0.0046 J-0.0019
X0.767 Y7.5286 Z-0.0673 I0.0046 J0.0019
X0.7578 Y7.5247 Z-0.0679 I-0.0046 J-0.0019
X0.767 Y7.5286 Z-0.0684 I0.0046 J0.0019
X0.7578 Y7.5247 Z-0.0689 I-0.0046 J-0.0019
X0.767 Y7.5286 Z-0.0695 I0.0046 J0.0019
X0.7578 Y7.5247 Z-0.07 I-0.0046 J-0.0019
X0.767 Y7.5286 Z-0.0706 I0.0046 J0.0019
X0.7578 Y7.5247 Z-0.0711 I-0.0046 J-0.0019
X0.767 Y7.5286 Z-0.0717 I0.0046 J0.0019
X0.7578 Y7.5247 Z-0.0722 I-0.0046 J-0.0019
X0.767 Y7.5286 Z-0.0728 I0.0046 J0.0019
X0.7578 Y7.5247 Z-0.0733 I-0.0046 J-0.0019
X0.767 Y7.5286 Z-0.0739 I0.0046 J0.0019
X0.7578 Y7.5247 Z-0.0744 I-0.0046 J-0.0019
X0.767 Y7.5286 Z-0.075 I0.0046 J0.0019
X0.7578 Y7.5247 Z-0.0755 I-0.0046 J-0.0019
X0.767 Y7.5286 Z-0.0761 I0.0046 J0.0019
X0.7578 Y7.5247 Z-0.0766 I-0.0046 J-0.0019
X0.767 Y7.5286 Z-0.0772 I0.0046 J0.0019
X0.7578 Y7.5247 Z-0.0777 I-0.0046 J-0.0019
X0.767 Y7.5286 Z-0.0783 I0.0046 J0.0019
X0.7578 Y7.5247 Z-0.0788 I-0.0046 J-0.0019
X0.767 Y7.5286 Z-0.0794 I0.0046 J0.0019
X0.7578 Y7.5247 Z-0.0799 I-0.0046 J-0.0019
X0.767 Y7.5286 Z-0.0805 I0.0046 J0.0019
X0.7578 Y7.5247 Z-0.081 I-0.0046 J-0.0019
X0.767 Y7.5286 Z-0.0816 I0.0046 J0.0019
X0.7578 Y7.5247 Z-0.0821 I-0.0046 J-0.0019
X0.767 Y7.5286 Z-0.0827 I0.0046 J0.0019
X0.7578 Y7.5247 Z-0.0832 I-0.0046 J-0.0019
X0.767 Y7.5286 Z-0.0838 I0.0046 J0.0019
X0.7578 Y7.5247 Z-0.0843 I-0.0046 J-0.0019
X0.767 Y7.5286 Z-0.0849 I0.0046 J0.0019
X0.7578 Y7.5247 Z-0.0854 I-0.0046 J-0.0019
X0.767 Y7.5286 Z-0.086 I0.0046 J0.0019
X0.7578 Y7.5247 Z-0.0865 I-0.0046 J-0.0019
X0.767 Y7.5286 Z-0.0871 I0.0046 J0.0019
X0.7578 Y7.5247 Z-0.0876 I-0.0046 J-0.0019
X0.767 Y7.5286 Z-0.0881 I0.0046 J0.0019
X0.7578 Y7.5247 Z-0.0887 I-0.0046 J-0.0019
X0.767 Y7.5286 Z-0.0892 I0.0046 J0.0019
X0.7578 Y7.5247 Z-0.0898 I-0.0046 J-0.0019
X0.767 Y7.5286 Z-0.0903 I0.0046 J0.0019
X0.7578 Y7.5247 Z-0.0909 I-0.0046 J-0.0019
X0.767 Y7.5286 Z-0.0914 I0.0046 J0.0019
X0.7578 Y7.5247 Z-0.092 I-0.0046 J-0.0019
X0.767 Y7.5286 Z-0.0925 I0.0046 J0.0019
X0.7578 Y7.5247 Z-0.0931 I-0.0046 J-0.0019
X0.767 Y7.5286 Z-0.0936 I0.0046 J0.0019
X0.7578 Y7.5247 Z-0.0942 I-0.0046 J-0.0019
X0.767 Y7.5286 Z-0.0947 I0.0046 J0.0019
X0.7578 Y7.5247 Z-0.0953 I-0.0046 J-0.0019
X0.767 Y7.5286 Z-0.0958 I0.0046 J0.0019
X0.7578 Y7.5247 Z-0.0964 I-0.0046 J-0.0019
X0.767 Y7.5286 Z-0.0969 I0.0046 J0.0019
X0.7578 Y7.5247 Z-0.0975 I-0.0046 J-0.0019
X0.767 Y7.5286 Z-0.098 I0.0046 J0.0019
X0.7578 Y7.5247 Z-0.0986 I-0.0046 J-0.0019
X0.767 Y7.5286 Z-0.0991 I0.0046 J0.0019
X0.7578 Y7.5247 Z-0.0997 I-0.0046 J-0.0019
X0.767 Y7.5286 Z-0.1002 I0.0046 J0.0019
X0.7578 Y7.5247 Z-0.1008 I-0.0046 J-0.0019
X0.767 Y7.5286 Z-0.1013 I0.0046 J0.0019
X0.7578 Y7.5247 Z-0.1019 I-0.0046 J-0.0019
X0.767 Y7.5286 Z-0.1024 I0.0046 J0.0019
X0.7578 Y7.5247 Z-0.103 I-0.0046 J-0.0019
X0.767 Y7.5286 Z-0.1035 I0.0046 J0.0019
X0.7578 Y7.5247 Z-0.1041 I-0.0046 J-0.0019
X0.767 Y7.5286 Z-0.1046 I0.0046 J0.0019
X0.7578 Y7.5247 Z-0.1052 I-0.0046 J-0.0019
X0.767 Y7.5286 Z-0.1057 I0.0046 J0.0019
X0.7578 Y7.5247 Z-0.1062 I-0.0046 J-0.0019
X0.767 Y7.5286 Z-0.1068 I0.0046 J0.0019
X0.7578 Y7.5247 Z-0.1073 I-0.0046 J-0.0019
X0.767 Y7.5286 Z-0.1079 I0.0046 J0.0019
X0.7578 Y7.5247 Z-0.1084 I-0.0046 J-0.0019
X0.767 Y7.5286 Z-0.109 I0.0046 J0.0019
X0.7578 Y7.5247 Z-0.1095 I-0.0046 J-0.0019
X0.767 Y7.5286 Z-0.1101 I0.0046 J0.0019
X0.7578 Y7.5247 Z-0.1106 I-0.0046 J-0.0019
X0.767 Y7.5286 Z-0.1112 I0.0046 J0.0019
X0.7578 Y7.5247 Z-0.1117 I-0.0046 J-0.0019
X0.767 Y7.5286 Z-0.1123 I0.0046 J0.0019
X0.7578 Y7.5247 Z-0.1128 I-0.0046 J-0.0019
X0.767 Y7.5286 Z-0.1134 I0.0046 J0.0019
X0.7578 Y7.5247 Z-0.1139 I-0.0046 J-0.0019
X0.767 Y7.5286 Z-0.1145 I0.0046 J0.0019
X0.7578 Y7.5247 Z-0.115 I-0.0046 J-0.0019
X0.767 Y7.5286 Z-0.1156 I0.0046 J0.0019
X0.7578 Y7.5247 Z-0.1161 I-0.0046 J-0.0019
X0.767 Y7.5286 Z-0.1167 I0.0046 J0.0019
X0.7578 Y7.5247 Z-0.1172 I-0.0046 J-0.0019
X0.767 Y7.5286 Z-0.1178 I0.0046 J0.0019
X0.7578 Y7.5247 Z-0.1183 I-0.0046 J-0.0019
X0.767 Y7.5286 Z-0.1189 I0.0046 J0.0019
X0.7578 Y7.5247 Z-0.1194 I-0.0046 J-0.0019
X0.767 Y7.5286 Z-0.12 I0.0046 J0.0019
X0.7578 Y7.5247 Z-0.1205 I-0.0046 J-0.0019
X0.767 Y7.5286 Z-0.1211 I0.0046 J0.0019
X0.7578 Y7.5247 Z-0.1216 I-0.0046 J-0.0019
X0.767 Y7.5286 Z-0.1222 I0.0046 J0.0019
X0.7578 Y7.5247 Z-0.1227 I-0.0046 J-0.0019
X0.767 Y7.5286 Z-0.1233 I0.0046 J0.0019
X0.7578 Y7.5247 Z-0.1238 I-0.0046 J-0.0019
X0.767 Y7.5286 Z-0.1244 I0.0046 J0.0019
X0.7578 Y7.5247 Z-0.1249 I-0.0046 J-0.0019
X0.767 Y7.5286 Z-0.1254 I0.0046 J0.0019
X0.7578 Y7.5247 Z-0.126 I-0.0046 J-0.0019
X0.767 Y7.5286 Z-0.1265 I0.0046 J0.0019
X0.7578 Y7.5247 Z-0.1271 I-0.0046 J-0.0019
X0.767 Y7.5286 Z-0.1276 I0.0046 J0.0019
X0.7578 Y7.5247 Z-0.1282 I-0.0046 J-0.0019
X0.767 Y7.5286 Z-0.1287 I0.0046 J0.0019
X0.7578 Y7.5247 Z-0.1293 I-0.0046 J-0.0019
X0.767 Y7.5286 Z-0.1298 I0.0046 J0.0019
X0.7578 Y7.5247 Z-0.1304 I-0.0046 J-0.0019
X0.767 Y7.5286 Z-0.1309 I0.0046 J0.0019
X0.7578 Y7.5247 Z-0.1315 I-0.0046 J-0.0019
X0.767 Y7.5286 Z-0.132 I0.0046 J0.0019
X0.7578 Y7.5247 Z-0.1326 I-0.0046 J-0.0019
X0.767 Y7.5286 Z-0.1331 I0.0046 J0.0019
X0.7578 Y7.5247 Z-0.1337 I-0.0046 J-0.0019
X0.767 Y7.5286 Z-0.1342 I0.0046 J0.0019
X0.7578 Y7.5247 Z-0.1348 I-0.0046 J-0.0019
X0.767 Y7.5286 Z-0.1353 I0.0046 J0.0019
X0.7578 Y7.5247 Z-0.1359 I-0.0046 J-0.0019
X0.767 Y7.5286 Z-0.1364 I0.0046 J0.0019
X0.7578 Y7.5247 Z-0.137 I-0.0046 J-0.0019
X0.767 Y7.5286 Z-0.1375 I0.0046 J0.0019
X0.7578 Y7.5247 Z-0.1381 I-0.0046 J-0.0019
X0.767 Y7.5286 Z-0.1386 I0.0046 J0.0019
X0.7578 Y7.5247 Z-0.1392 I-0.0046 J-0.0019
X0.767 Y7.5286 Z-0.1397 I0.0046 J0.0019
X0.7578 Y7.5247 Z-0.1403 I-0.0046 J-0.0019
X0.767 Y7.5286 Z-0.1408 I0.0046 J0.0019
X0.7578 Y7.5247 Z-0.1414 I-0.0046 J-0.0019
X0.767 Y7.5286 Z-0.1419 I0.0046 J0.0019
X0.7578 Y7.5247 Z-0.1425 I-0.0046 J-0.0019
X0.767 Y7.5286 Z-0.143 I0.0046 J0.0019
X0.7578 Y7.5247 Z-0.1435 I-0.0046 J-0.0019
X0.767 Y7.5286 Z-0.1441 I0.0046 J0.0019
X0.7578 Y7.5247 Z-0.1446 I-0.0046 J-0.0019
X0.767 Y7.5286 Z-0.1452 I0.0046 J0.0019
X0.7578 Y7.5247 Z-0.1457 I-0.0046 J-0.0019
X0.767 Y7.5286 Z-0.1463 I0.0046 J0.0019
X0.7578 Y7.5247 Z-0.1468 I-0.0046 J-0.0019
X0.767 Y7.5286 Z-0.1474 I0.0046 J0.0019
X0.7578 Y7.5247 Z-0.1479 I-0.0046 J-0.0019
X0.767 Y7.5286 Z-0.1485 I0.0046 J0.0019
X0.7578 Y7.5247 Z-0.149 I-0.0046 J-0.0019
X0.767 Y7.5286 Z-0.1496 I0.0046 J0.0019
X0.7578 Y7.5247 Z-0.1501 I-0.0046 J-0.0019
X0.767 Y7.5286 Z-0.1507 I0.0046 J0.0019
X0.7578 Y7.5247 Z-0.1512 I-0.0046 J-0.0019
X0.767 Y7.5286 Z-0.1518 I0.0046 J0.0019
X0.7578 Y7.5247 Z-0.1523 I-0.0046 J-0.0019
X0.767 Y7.5286 Z-0.1529 I0.0046 J0.0019
X0.7578 Y7.5247 Z-0.1534 I-0.0046 J-0.0019
X0.767 Y7.5286 Z-0.154 I0.0046 J0.0019
X0.7578 Y7.5247 Z-0.1545 I-0.0046 J-0.0019
X0.767 Y7.5286 Z-0.1551 I0.0046 J0.0019
X0.7578 Y7.5247 Z-0.1556 I-0.0046 J-0.0019
X0.767 Y7.5286 Z-0.1562 I0.0046 J0.0019
X0.7578 Y7.5247 Z-0.1567 I-0.0046 J-0.0019
X0.767 Y7.5286 Z-0.1573 I0.0046 J0.0019
X0.7578 Y7.5247 Z-0.1578 I-0.0046 J-0.0019
X0.767 Y7.5286 Z-0.1584 I0.0046 J0.0019
X0.7578 Y7.5247 Z-0.1589 I-0.0046 J-0.0019
X0.767 Y7.5286 Z-0.1595 I0.0046 J0.0019
X0.7578 Y7.5247 Z-0.16 I-0.0046 J-0.0019
X0.767 Y7.5286 Z-0.1606 I0.0046 J0.0019
X0.7578 Y7.5247 Z-0.1611 I-0.0046 J-0.0019
X0.767 Y7.5286 Z-0.1617 I0.0046 J0.0019
X0.7578 Y7.5247 Z-0.1622 I-0.0046 J-0.0019
X0.767 Y7.5286 Z-0.1627 I0.0046 J0.0019
X0.7578 Y7.5247 Z-0.1633 I-0.0046 J-0.0019
X0.767 Y7.5286 Z-0.1638 I0.0046 J0.0019
X0.7578 Y7.5247 Z-0.1644 I-0.0046 J-0.0019
X0.767 Y7.5286 Z-0.1649 I0.0046 J0.0019
X0.7578 Y7.5247 Z-0.1655 I-0.0046 J-0.0019
X0.767 Y7.5286 Z-0.166 I0.0046 J0.0019
X0.7578 Y7.5247 Z-0.1666 I-0.0046 J-0.0019
X0.767 Y7.5286 Z-0.1671 I0.0046 J0.0019
X0.7578 Y7.5247 Z-0.1677 I-0.0046 J-0.0019
X0.767 Y7.5286 Z-0.1682 I0.0046 J0.0019
X0.7578 Y7.5247 Z-0.1688 I-0.0046 J-0.0019
X0.767 Y7.5286 Z-0.1693 I0.0046 J0.0019
X0.7578 Y7.5247 Z-0.1699 I-0.0046 J-0.0019
X0.767 Y7.5286 Z-0.1704 I0.0046 J0.0019
X0.7578 Y7.5247 Z-0.171 I-0.0046 J-0.0019
X0.767 Y7.5286 Z-0.1715 I0.0046 J0.0019
X0.7578 Y7.5247 Z-0.1721 I-0.0046 J-0.0019
X0.767 Y7.5286 Z-0.1726 I0.0046 J0.0019
X0.7578 Y7.5247 Z-0.1732 I-0.0046 J-0.0019
X0.767 Y7.5286 Z-0.1737 I0.0046 J0.0019
X0.7578 Y7.5247 Z-0.1743 I-0.0046 J-0.0019
X0.767 Y7.5286 Z-0.1748 I0.0046 J0.0019
X0.7578 Y7.5247 Z-0.1754 I-0.0046 J-0.0019
X0.767 Y7.5286 Z-0.1759 I0.0046 J0.0019
X0.7578 Y7.5247 Z-0.1765 I-0.0046 J-0.0019
X0.767 Y7.5286 Z-0.177 I0.0046 J0.0019
X0.7578 Y7.5247 Z-0.1776 I-0.0046 J-0.0019
X0.767 Y7.5286 Z-0.1781 I0.0046 J0.0019
X0.7578 Y7.5247 Z-0.1787 I-0.0046 J-0.0019
X0.767 Y7.5286 Z-0.1792 I0.0046 J0.0019
X0.7578 Y7.5247 Z-0.1798 I-0.0046 J-0.0019
X0.767 Y7.5286 Z-0.1803 I0.0046 J0.0019
X0.7578 Y7.5247 Z-0.1808 I-0.0046 J-0.0019
X0.767 Y7.5286 Z-0.1814 I0.0046 J0.0019
X0.7578 Y7.5247 Z-0.1819 I-0.0046 J-0.0019
X0.767 Y7.5286 Z-0.1825 I0.0046 J0.0019
X0.7578 Y7.5247 Z-0.183 I-0.0046 J-0.0019
X0.767 Y7.5286 Z-0.1836 I0.0046 J0.0019
X0.7578 Y7.5247 Z-0.1841 I-0.0046 J-0.0019
X0.767 Y7.5286 Z-0.1847 I0.0046 J0.0019
X0.7578 Y7.5247 Z-0.1852 I-0.0046 J-0.0019
X0.767 Y7.5286 Z-0.1858 I0.0046 J0.0019
X0.7578 Y7.5247 Z-0.1863 I-0.0046 J-0.0019
X0.767 Y7.5286 Z-0.1869 I0.0046 J0.0019
X0.7578 Y7.5247 Z-0.1874 I-0.0046 J-0.0019
X0.767 Y7.5286 Z-0.188 I0.0046 J0.0019
X0.7578 Y7.5247 Z-0.1885 I-0.0046 J-0.0019
X0.767 Y7.5286 Z-0.1891 I0.0046 J0.0019
X0.7578 Y7.5247 Z-0.1896 I-0.0046 J-0.0019
X0.767 Y7.5286 Z-0.1902 I0.0046 J0.0019
X0.7578 Y7.5247 Z-0.1907 I-0.0046 J-0.0019
X0.767 Y7.5286 Z-0.1913 I0.0046 J0.0019
X0.7578 Y7.5247 Z-0.1918 I-0.0046 J-0.0019
X0.767 Y7.5286 Z-0.1924 I0.0046 J0.0019
X0.7578 Y7.5247 Z-0.1929 I-0.0046 J-0.0019
X0.767 Y7.5286 Z-0.1935 I0.0046 J0.0019
X0.7578 Y7.5247 Z-0.194 I-0.0046 J-0.0019
X0.767 Y7.5286 Z-0.1946 I0.0046 J0.0019
X0.7578 Y7.5247 Z-0.1951 I-0.0046 J-0.0019
X0.767 Y7.5286 Z-0.1957 I0.0046 J0.0019
X0.7578 Y7.5247 Z-0.1962 I-0.0046 J-0.0019
X0.767 Y7.5286 Z-0.1968 I0.0046 J0.0019
X0.7578 Y7.5247 Z-0.1973 I-0.0046 J-0.0019
X0.767 Y7.5286 Z-0.1979 I0.0046 J0.0019
X0.7578 Y7.5247 Z-0.1984 I-0.0046 J-0.0019
X0.767 Y7.5286 Z-0.199 I0.0046 J0.0019
X0.7578 Y7.5247 Z-0.1995 I-0.0046 J-0.0019
X0.767 Y7.5286 Z-0.2 I0.0046 J0.0019
X0.7578 Y7.5247 Z-0.2006 I-0.0046 J-0.0019
X0.767 Y7.5286 Z-0.2011 I0.0046 J0.0019
X0.7578 Y7.5247 Z-0.2017 I-0.0046 J-0.0019
X0.767 Y7.5286 Z-0.2022 I0.0046 J0.0019
X0.7578 Y7.5247 Z-0.2028 I-0.0046 J-0.0019
X0.767 Y7.5286 Z-0.2033 I0.0046 J0.0019
X0.7578 Y7.5247 Z-0.2039 I-0.0046 J-0.0019
X0.767 Y7.5286 Z-0.2044 I0.0046 J0.0019
X0.7578 Y7.5247 Z-0.205 I-0.0046 J-0.0019
X0.767 Y7.5286 Z-0.2055 I0.0046 J0.0019
X0.7578 Y7.5247 Z-0.2061 I-0.0046 J-0.0019
X0.767 Y7.5286 Z-0.2066 I0.0046 J0.0019
X0.7578 Y7.5247 Z-0.2072 I-0.0046 J-0.0019
X0.767 Y7.5286 Z-0.2077 I0.0046 J0.0019
X0.7578 Y7.5247 Z-0.2083 I-0.0046 J-0.0019
X0.767 Y7.5286 Z-0.2088 I0.0046 J0.0019
X0.7578 Y7.5247 Z-0.2094 I-0.0046 J-0.0019
X0.767 Y7.5286 Z-0.2099 I0.0046 J0.0019
X0.7578 Y7.5247 Z-0.2105 I-0.0046 J-0.0019
X0.767 Y7.5286 Z-0.211 I0.0046 J0.0019
X0.7578 Y7.5247 Z-0.2116 I-0.0046 J-0.0019
X0.767 Y7.5286 Z-0.2121 I0.0046 J0.0019
X0.7578 Y7.5247 Z-0.2127 I-0.0046 J-0.0019
X0.767 Y7.5286 Z-0.2132 I0.0046 J0.0019
X0.7578 Y7.5247 Z-0.2138 I-0.0046 J-0.0019
X0.767 Y7.5286 Z-0.2143 I0.0046 J0.0019
X0.7578 Y7.5247 Z-0.2149 I-0.0046 J-0.0019
X0.767 Y7.5286 Z-0.2154 I0.0046 J0.0019
X0.7578 Y7.5247 Z-0.216 I-0.0046 J-0.0019
X0.767 Y7.5286 Z-0.2165 I0.0046 J0.0019
X0.7578 Y7.5247 Z-0.2171 I-0.0046 J-0.0019
X0.767 Y7.5286 Z-0.2176 I0.0046 J0.0019
X0.7578 Y7.5247 Z-0.2181 I-0.0046 J-0.0019
X0.767 Y7.5286 Z-0.2187 I0.0046 J0.0019
X0.7578 Y7.5247 Z-0.2192 I-0.0046 J-0.0019
X0.767 Y7.5286 Z-0.2198 I0.0046 J0.0019
X0.7624 Y7.5316 Z-0.22 I-0.0046 J-0.0019
Y7.4796 I0. J-0.026 F40.
Y7.5316 I0. J0.026
Y7.4796 Z-0.2229 I0. J-0.026 F20.
Y7.5316 Z-0.2257 I0. J0.026
Y7.4796 Z-0.2286 I0. J-0.026
Y7.5316 Z-0.2314 I0. J0.026
Y7.4796 Z-0.2343 I0. J-0.026
Y7.5316 Z-0.2371 I0. J0.026
Y7.4796 Z-0.24 I0. J-0.026
Y7.5316 Z-0.2428 I0. J0.026
Y7.4796 Z-0.2457 I0. J-0.026
Y7.5316 Z-0.2485 I0. J0.026
Y7.4796 Z-0.2514 I0. J-0.026
Y7.5316 Z-0.2542 I0. J0.026
Y7.4796 Z-0.2571 I0. J-0.026
Y7.5316 Z-0.2599 I0. J0.026
Y7.4796 Z-0.2628 I0. J-0.026
Y7.5316 Z-0.2656 I0. J0.026
Y7.4796 Z-0.2685 I0. J-0.026
Y7.5316 Z-0.2713 I0. J0.026
Y7.4796 Z-0.2742 I0. J-0.026
Y7.5316 Z-0.277 I0. J0.026
Y7.4796 Z-0.2799 I0. J-0.026
Y7.5316 Z-0.2828 I0. J0.026
Y7.4796 Z-0.2856 I0. J-0.026
Y7.5316 Z-0.2885 I0. J0.026
Y7.4796 Z-0.2913 I0. J-0.026
Y7.5316 Z-0.2942 I0. J0.026
Y7.4796 Z-0.297 I0. J-0.026
Y7.5316 Z-0.2999 I0. J0.026
Y7.4796 Z-0.3027 I0. J-0.026
Y7.5316 Z-0.3056 I0. J0.026
Y7.4796 Z-0.3084 I0. J-0.026
Y7.5316 Z-0.3113 I0. J0.026
Y7.4796 Z-0.3141 I0. J-0.026
Y7.5316 Z-0.317 I0. J0.026
Y7.4796 Z-0.3198 I0. J-0.026
Y7.5316 Z-0.3227 I0. J0.026
Y7.4796 Z-0.3255 I0. J-0.026
Y7.5316 Z-0.3284 I0. J0.026
Y7.4796 Z-0.3312 I0. J-0.026
Y7.5316 Z-0.3341 I0. J0.026
Y7.4796 Z-0.3369 I0. J-0.026
Y7.5316 Z-0.3398 I0. J0.026
Y7.4796 Z-0.3427 I0. J-0.026
Y7.5316 Z-0.3455 I0. J0.026
Y7.4796 Z-0.3484 I0. J-0.026
Y7.5316 Z-0.3512 I0. J0.026
Y7.4796 Z-0.3541 I0. J-0.026
Y7.5316 Z-0.3569 I0. J0.026
Y7.4796 Z-0.3598 I0. J-0.026
Y7.5316 Z-0.3626 I0. J0.026
Y7.4796 Z-0.3655 I0. J-0.026
Y7.5316 Z-0.3683 I0. J0.026
Y7.4796 Z-0.3712 I0. J-0.026
Y7.5316 Z-0.374 I0. J0.026
Y7.4796 Z-0.3769 I0. J-0.026
Y7.5316 Z-0.3797 I0. J0.026
Y7.4796 Z-0.3826 I0. J-0.026
Y7.5316 Z-0.3854 I0. J0.026
Y7.4796 Z-0.3883 I0. J-0.026
Y7.5316 Z-0.3911 I0. J0.026
Y7.4796 Z-0.394 I0. J-0.026
Y7.5316 Z-0.3968 I0. J0.026
Y7.4796 Z-0.3997 I0. J-0.026
Y7.5316 Z-0.4026 I0. J0.026
Y7.4796 Z-0.4054 I0. J-0.026
Y7.5316 Z-0.4083 I0. J0.026
Y7.4796 Z-0.4111 I0. J-0.026
Y7.5316 Z-0.414 I0. J0.026
Y7.4796 Z-0.4168 I0. J-0.026
Y7.5316 Z-0.4197 I0. J0.026
Y7.4796 Z-0.4225 I0. J-0.026
Y7.5316 Z-0.4254 I0. J0.026
Y7.4796 Z-0.4282 I0. J-0.026
Y7.5316 Z-0.4311 I0. J0.026
Y7.4796 Z-0.4339 I0. J-0.026
Y7.5316 Z-0.4368 I0. J0.026
Y7.4796 Z-0.4396 I0. J-0.026
X0.7726 Y7.4817 Z-0.44 I0. J0.026
X0.7522 Y7.5295 I-0.0102 J0.0239 F40.
X0.7726 Y7.4817 I0.0102 J-0.0239
G1 X0.7746 Y7.4828 Z-0.4396
X0.7763 Y7.4842 Z-0.4391
X0.7776 Y7.4857 Z-0.4378
X0.7785 Y7.4873 Z-0.4365
X0.7794 Y7.4897 Z-0.4327
X0.7796 Y7.4906 Z-0.4282
G0 Z0.2
X0.9797 Y8.2167
G1 Z0.1118 F40.
X0.9794 Y8.2152 Z0.106 F20.
X0.9796 Y8.2138 Z0.1045
X0.9802 Y8.2125 Z0.1031
X0.9811 Y8.2115 Z0.1017
X0.9822 Y8.2107 Z0.1013
X0.9836 Y8.2102 Z0.1009
X0.985 Z0.1004
X0.9864 Y8.2106 Z0.1
G3 X0.9825 Y8.2198 Z0.0995 I-0.0019 J0.0046
X0.9864 Y8.2106 Z0.0989 I0.0019 J-0.0046
X0.9825 Y8.2198 Z0.0984 I-0.0019 J0.0046
X0.9864 Y8.2106 Z0.0978 I0.0019 J-0.0046
X0.9825 Y8.2198 Z0.0973 I-0.0019 J0.0046
X0.9864 Y8.2106 Z0.0967 I0.0019 J-0.0046
X0.9825 Y8.2198 Z0.0962 I-0.0019 J0.0046
X0.9864 Y8.2106 Z0.0956 I0.0019 J-0.0046
X0.9825 Y8.2198 Z0.0951 I-0.0019 J0.0046
X0.9864 Y8.2106 Z0.0945 I0.0019 J-0.0046
X0.9825 Y8.2198 Z0.094 I-0.0019 J0.0046
X0.9864 Y8.2106 Z0.0934 I0.0019 J-0.0046
X0.9825 Y8.2198 Z0.0929 I-0.0019 J0.0046
X0.9864 Y8.2106 Z0.0923 I0.0019 J-0.0046
X0.9825 Y8.2198 Z0.0918 I-0.0019 J0.0046
X0.9864 Y8.2106 Z0.0912 I0.0019 J-0.0046
X0.9825 Y8.2198 Z0.0907 I-0.0019 J0.0046
X0.9864 Y8.2106 Z0.0901 I0.0019 J-0.0046
X0.9825 Y8.2198 Z0.0896 I-0.0019 J0.0046
X0.9864 Y8.2106 Z0.089 I0.0019 J-0.0046
X0.9825 Y8.2198 Z0.0885 I-0.0019 J0.0046
X0.9864 Y8.2106 Z0.0879 I0.0019 J-0.0046
X0.9825 Y8.2198 Z0.0874 I-0.0019 J0.0046
X0.9864 Y8.2106 Z0.0868 I0.0019 J-0.0046
X0.9825 Y8.2198 Z0.0863 I-0.0019 J0.0046
X0.9864 Y8.2106 Z0.0857 I0.0019 J-0.0046
X0.9825 Y8.2198 Z0.0852 I-0.0019 J0.0046
X0.9864 Y8.2106 Z0.0846 I0.0019 J-0.0046
X0.9825 Y8.2198 Z0.0841 I-0.0019 J0.0046
X0.9864 Y8.2106 Z0.0835 I0.0019 J-0.0046
X0.9825 Y8.2198 Z0.083 I-0.0019 J0.0046
X0.9864 Y8.2106 Z0.0824 I0.0019 J-0.0046
X0.9825 Y8.2198 Z0.0819 I-0.0019 J0.0046
X0.9864 Y8.2106 Z0.0813 I0.0019 J-0.0046
X0.9825 Y8.2198 Z0.0808 I-0.0019 J0.0046
X0.9864 Y8.2106 Z0.0803 I0.0019 J-0.0046
X0.9825 Y8.2198 Z0.0797 I-0.0019 J0.0046
X0.9864 Y8.2106 Z0.0792 I0.0019 J-0.0046
X0.9825 Y8.2198 Z0.0786 I-0.0019 J0.0046
X0.9864 Y8.2106 Z0.0781 I0.0019 J-0.0046
X0.9825 Y8.2198 Z0.0775 I-0.0019 J0.0046
X0.9864 Y8.2106 Z0.077 I0.0019 J-0.0046
X0.9825 Y8.2198 Z0.0764 I-0.0019 J0.0046
X0.9864 Y8.2106 Z0.0759 I0.0019 J-0.0046
X0.9825 Y8.2198 Z0.0753 I-0.0019 J0.0046
X0.9864 Y8.2106 Z0.0748 I0.0019 J-0.0046
X0.9825 Y8.2198 Z0.0742 I-0.0019 J0.0046
X0.9864 Y8.2106 Z0.0737 I0.0019 J-0.0046
X0.9825 Y8.2198 Z0.0731 I-0.0019 J0.0046
X0.9864 Y8.2106 Z0.0726 I0.0019 J-0.0046
X0.9825 Y8.2198 Z0.072 I-0.0019 J0.0046
X0.9864 Y8.2106 Z0.0715 I0.0019 J-0.0046
X0.9825 Y8.2198 Z0.0709 I-0.0019 J0.0046
X0.9864 Y8.2106 Z0.0704 I0.0019 J-0.0046
X0.9825 Y8.2198 Z0.0698 I-0.0019 J0.0046
X0.9864 Y8.2106 Z0.0693 I0.0019 J-0.0046
X0.9825 Y8.2198 Z0.0687 I-0.0019 J0.0046
X0.9864 Y8.2106 Z0.0682 I0.0019 J-0.0046
X0.9825 Y8.2198 Z0.0676 I-0.0019 J0.0046
X0.9864 Y8.2106 Z0.0671 I0.0019 J-0.0046
X0.9825 Y8.2198 Z0.0665 I-0.0019 J0.0046
X0.9864 Y8.2106 Z0.066 I0.0019 J-0.0046
X0.9825 Y8.2198 Z0.0654 I-0.0019 J0.0046
X0.9864 Y8.2106 Z0.0649 I0.0019 J-0.0046
X0.9825 Y8.2198 Z0.0643 I-0.0019 J0.0046
X0.9864 Y8.2106 Z0.0638 I0.0019 J-0.0046
X0.9825 Y8.2198 Z0.0632 I-0.0019 J0.0046
X0.9864 Y8.2106 Z0.0627 I0.0019 J-0.0046
X0.9825 Y8.2198 Z0.0622 I-0.0019 J0.0046
X0.9864 Y8.2106 Z0.0616 I0.0019 J-0.0046
X0.9825 Y8.2198 Z0.0611 I-0.0019 J0.0046
X0.9864 Y8.2106 Z0.0605 I0.0019 J-0.0046
X0.9825 Y8.2198 Z0.06 I-0.0019 J0.0046
X0.9864 Y8.2106 Z0.0594 I0.0019 J-0.0046
X0.9825 Y8.2198 Z0.0589 I-0.0019 J0.0046
X0.9864 Y8.2106 Z0.0583 I0.0019 J-0.0046
X0.9825 Y8.2198 Z0.0578 I-0.0019 J0.0046
X0.9864 Y8.2106 Z0.0572 I0.0019 J-0.0046
X0.9825 Y8.2198 Z0.0567 I-0.0019 J0.0046
X0.9864 Y8.2106 Z0.0561 I0.0019 J-0.0046
X0.9825 Y8.2198 Z0.0556 I-0.0019 J0.0046
X0.9864 Y8.2106 Z0.055 I0.0019 J-0.0046
X0.9825 Y8.2198 Z0.0545 I-0.0019 J0.0046
X0.9864 Y8.2106 Z0.0539 I0.0019 J-0.0046
X0.9825 Y8.2198 Z0.0534 I-0.0019 J0.0046
X0.9864 Y8.2106 Z0.0528 I0.0019 J-0.0046
X0.9825 Y8.2198 Z0.0523 I-0.0019 J0.0046
X0.9864 Y8.2106 Z0.0517 I0.0019 J-0.0046
X0.9825 Y8.2198 Z0.0512 I-0.0019 J0.0046
X0.9864 Y8.2106 Z0.0506 I0.0019 J-0.0046
X0.9825 Y8.2198 Z0.0501 I-0.0019 J0.0046
X0.9864 Y8.2106 Z0.0495 I0.0019 J-0.0046
X0.9825 Y8.2198 Z0.049 I-0.0019 J0.0046
X0.9864 Y8.2106 Z0.0484 I0.0019 J-0.0046
X0.9825 Y8.2198 Z0.0479 I-0.0019 J0.0046
X0.9864 Y8.2106 Z0.0473 I0.0019 J-0.0046
X0.9825 Y8.2198 Z0.0468 I-0.0019 J0.0046
X0.9864 Y8.2106 Z0.0462 I0.0019 J-0.0046
X0.9825 Y8.2198 Z0.0457 I-0.0019 J0.0046
X0.9864 Y8.2106 Z0.0451 I0.0019 J-0.0046
X0.9825 Y8.2198 Z0.0446 I-0.0019 J0.0046
X0.9864 Y8.2106 Z0.044 I0.0019 J-0.0046
X0.9825 Y8.2198 Z0.0435 I-0.0019 J0.0046
X0.9864 Y8.2106 Z0.043 I0.0019 J-0.0046
X0.9825 Y8.2198 Z0.0424 I-0.0019 J0.0046
X0.9864 Y8.2106 Z0.0419 I0.0019 J-0.0046
X0.9825 Y8.2198 Z0.0413 I-0.0019 J0.0046
X0.9864 Y8.2106 Z0.0408 I0.0019 J-0.0046
X0.9825 Y8.2198 Z0.0402 I-0.0019 J0.0046
X0.9864 Y8.2106 Z0.0397 I0.0019 J-0.0046
X0.9825 Y8.2198 Z0.0391 I-0.0019 J0.0046
X0.9864 Y8.2106 Z0.0386 I0.0019 J-0.0046
X0.9825 Y8.2198 Z0.038 I-0.0019 J0.0046
X0.9864 Y8.2106 Z0.0375 I0.0019 J-0.0046
X0.9825 Y8.2198 Z0.0369 I-0.0019 J0.0046
X0.9864 Y8.2106 Z0.0364 I0.0019 J-0.0046
X0.9825 Y8.2198 Z0.0358 I-0.0019 J0.0046
X0.9864 Y8.2106 Z0.0353 I0.0019 J-0.0046
X0.9825 Y8.2198 Z0.0347 I-0.0019 J0.0046
X0.9864 Y8.2106 Z0.0342 I0.0019 J-0.0046
X0.9825 Y8.2198 Z0.0336 I-0.0019 J0.0046
X0.9864 Y8.2106 Z0.0331 I0.0019 J-0.0046
X0.9825 Y8.2198 Z0.0325 I-0.0019 J0.0046
X0.9864 Y8.2106 Z0.032 I0.0019 J-0.0046
X0.9825 Y8.2198 Z0.0314 I-0.0019 J0.0046
X0.9864 Y8.2106 Z0.0309 I0.0019 J-0.0046
X0.9825 Y8.2198 Z0.0303 I-0.0019 J0.0046
X0.9864 Y8.2106 Z0.0298 I0.0019 J-0.0046
X0.9825 Y8.2198 Z0.0292 I-0.0019 J0.0046
X0.9864 Y8.2106 Z0.0287 I0.0019 J-0.0046
X0.9825 Y8.2198 Z0.0281 I-0.0019 J0.0046
X0.9864 Y8.2106 Z0.0276 I0.0019 J-0.0046
X0.9825 Y8.2198 Z0.027 I-0.0019 J0.0046
X0.9864 Y8.2106 Z0.0265 I0.0019 J-0.0046
X0.9825 Y8.2198 Z0.0259 I-0.0019 J0.0046
X0.9864 Y8.2106 Z0.0254 I0.0019 J-0.0046
X0.9825 Y8.2198 Z0.0249 I-0.0019 J0.0046
X0.9864 Y8.2106 Z0.0243 I0.0019 J-0.0046
X0.9825 Y8.2198 Z0.0238 I-0.0019 J0.0046
X0.9864 Y8.2106 Z0.0232 I0.0019 J-0.0046
X0.9825 Y8.2198 Z0.0227 I-0.0019 J0.0046
X0.9864 Y8.2106 Z0.0221 I0.0019 J-0.0046
X0.9825 Y8.2198 Z0.0216 I-0.0019 J0.0046
X0.9864 Y8.2106 Z0.021 I0.0019 J-0.0046
X0.9825 Y8.2198 Z0.0205 I-0.0019 J0.0046
X0.9864 Y8.2106 Z0.0199 I0.0019 J-0.0046
X0.9825 Y8.2198 Z0.0194 I-0.0019 J0.0046
X0.9864 Y8.2106 Z0.0188 I0.0019 J-0.0046
X0.9825 Y8.2198 Z0.0183 I-0.0019 J0.0046
X0.9864 Y8.2106 Z0.0177 I0.0019 J-0.0046
X0.9825 Y8.2198 Z0.0172 I-0.0019 J0.0046
X0.9864 Y8.2106 Z0.0166 I0.0019 J-0.0046
X0.9825 Y8.2198 Z0.0161 I-0.0019 J0.0046
X0.9864 Y8.2106 Z0.0155 I0.0019 J-0.0046
X0.9825 Y8.2198 Z0.015 I-0.0019 J0.0046
X0.9864 Y8.2106 Z0.0144 I0.0019 J-0.0046
X0.9825 Y8.2198 Z0.0139 I-0.0019 J0.0046
X0.9864 Y8.2106 Z0.0133 I0.0019 J-0.0046
X0.9825 Y8.2198 Z0.0128 I-0.0019 J0.0046
X0.9864 Y8.2106 Z0.0122 I0.0019 J-0.0046
X0.9825 Y8.2198 Z0.0117 I-0.0019 J0.0046
X0.9864 Y8.2106 Z0.0111 I0.0019 J-0.0046
X0.9825 Y8.2198 Z0.0106 I-0.0019 J0.0046
X0.9864 Y8.2106 Z0.01 I0.0019 J-0.0046
X0.9825 Y8.2198 Z0.0095 I-0.0019 J0.0046
X0.9864 Y8.2106 Z0.0089 I0.0019 J-0.0046
X0.9825 Y8.2198 Z0.0084 I-0.0019 J0.0046
X0.9864 Y8.2106 Z0.0078 I0.0019 J-0.0046
X0.9825 Y8.2198 Z0.0073 I-0.0019 J0.0046
X0.9864 Y8.2106 Z0.0067 I0.0019 J-0.0046
X0.9825 Y8.2198 Z0.0062 I-0.0019 J0.0046
X0.9864 Y8.2106 Z0.0057 I0.0019 J-0.0046
X0.9825 Y8.2198 Z0.0051 I-0.0019 J0.0046
X0.9864 Y8.2106 Z0.0046 I0.0019 J-0.0046
X0.9825 Y8.2198 Z0.004 I-0.0019 J0.0046
X0.9864 Y8.2106 Z0.0035 I0.0019 J-0.0046
X0.9825 Y8.2198 Z0.0029 I-0.0019 J0.0046
X0.9864 Y8.2106 Z0.0024 I0.0019 J-0.0046
X0.9825 Y8.2198 Z0.0018 I-0.0019 J0.0046
X0.9864 Y8.2106 Z0.0013 I0.0019 J-0.0046
X0.9825 Y8.2198 Z0.0007 I-0.0019 J0.0046
X0.9864 Y8.2106 Z0.0002 I0.0019 J-0.0046
X0.9825 Y8.2198 Z-0.0004 I-0.0019 J0.0046
X0.9864 Y8.2106 Z-0.0009 I0.0019 J-0.0046
X0.9825 Y8.2198 Z-0.0015 I-0.0019 J0.0046
X0.9864 Y8.2106 Z-0.002 I0.0019 J-0.0046
X0.9825 Y8.2198 Z-0.0026 I-0.0019 J0.0046
X0.9864 Y8.2106 Z-0.0031 I0.0019 J-0.0046
X0.9825 Y8.2198 Z-0.0037 I-0.0019 J0.0046
X0.9864 Y8.2106 Z-0.0042 I0.0019 J-0.0046
X0.9825 Y8.2198 Z-0.0048 I-0.0019 J0.0046
X0.9864 Y8.2106 Z-0.0053 I0.0019 J-0.0046
X0.9825 Y8.2198 Z-0.0059 I-0.0019 J0.0046
X0.9864 Y8.2106 Z-0.0064 I0.0019 J-0.0046
X0.9825 Y8.2198 Z-0.007 I-0.0019 J0.0046
X0.9864 Y8.2106 Z-0.0075 I0.0019 J-0.0046
X0.9825 Y8.2198 Z-0.0081 I-0.0019 J0.0046
X0.9864 Y8.2106 Z-0.0086 I0.0019 J-0.0046
X0.9825 Y8.2198 Z-0.0092 I-0.0019 J0.0046
X0.9864 Y8.2106 Z-0.0097 I0.0019 J-0.0046
X0.9825 Y8.2198 Z-0.0103 I-0.0019 J0.0046
X0.9864 Y8.2106 Z-0.0108 I0.0019 J-0.0046
X0.9825 Y8.2198 Z-0.0114 I-0.0019 J0.0046
X0.9864 Y8.2106 Z-0.0119 I0.0019 J-0.0046
X0.9825 Y8.2198 Z-0.0124 I-0.0019 J0.0046
X0.9864 Y8.2106 Z-0.013 I0.0019 J-0.0046
X0.9825 Y8.2198 Z-0.0135 I-0.0019 J0.0046
X0.9864 Y8.2106 Z-0.0141 I0.0019 J-0.0046
X0.9825 Y8.2198 Z-0.0146 I-0.0019 J0.0046
X0.9864 Y8.2106 Z-0.0152 I0.0019 J-0.0046
X0.9825 Y8.2198 Z-0.0157 I-0.0019 J0.0046
X0.9864 Y8.2106 Z-0.0163 I0.0019 J-0.0046
X0.9825 Y8.2198 Z-0.0168 I-0.0019 J0.0046
X0.9864 Y8.2106 Z-0.0174 I0.0019 J-0.0046
X0.9825 Y8.2198 Z-0.0179 I-0.0019 J0.0046
X0.9864 Y8.2106 Z-0.0185 I0.0019 J-0.0046
X0.9825 Y8.2198 Z-0.019 I-0.0019 J0.0046
X0.9864 Y8.2106 Z-0.0196 I0.0019 J-0.0046
X0.9825 Y8.2198 Z-0.0201 I-0.0019 J0.0046
X0.9864 Y8.2106 Z-0.0207 I0.0019 J-0.0046
X0.9825 Y8.2198 Z-0.0212 I-0.0019 J0.0046
X0.9864 Y8.2106 Z-0.0218 I0.0019 J-0.0046
X0.9825 Y8.2198 Z-0.0223 I-0.0019 J0.0046
X0.9864 Y8.2106 Z-0.0229 I0.0019 J-0.0046
X0.9825 Y8.2198 Z-0.0234 I-0.0019 J0.0046
X0.9864 Y8.2106 Z-0.024 I0.0019 J-0.0046
X0.9825 Y8.2198 Z-0.0245 I-0.0019 J0.0046
X0.9864 Y8.2106 Z-0.0251 I0.0019 J-0.0046
X0.9825 Y8.2198 Z-0.0256 I-0.0019 J0.0046
X0.9864 Y8.2106 Z-0.0262 I0.0019 J-0.0046
X0.9825 Y8.2198 Z-0.0267 I-0.0019 J0.0046
X0.9864 Y8.2106 Z-0.0273 I0.0019 J-0.0046
X0.9825 Y8.2198 Z-0.0278 I-0.0019 J0.0046
X0.9864 Y8.2106 Z-0.0284 I0.0019 J-0.0046
X0.9825 Y8.2198 Z-0.0289 I-0.0019 J0.0046
X0.9864 Y8.2106 Z-0.0295 I0.0019 J-0.0046
X0.9825 Y8.2198 Z-0.03 I-0.0019 J0.0046
X0.9864 Y8.2106 Z-0.0306 I0.0019 J-0.0046
X0.9825 Y8.2198 Z-0.0311 I-0.0019 J0.0046
X0.9864 Y8.2106 Z-0.0316 I0.0019 J-0.0046
X0.9825 Y8.2198 Z-0.0322 I-0.0019 J0.0046
X0.9864 Y8.2106 Z-0.0327 I0.0019 J-0.0046
X0.9825 Y8.2198 Z-0.0333 I-0.0019 J0.0046
X0.9864 Y8.2106 Z-0.0338 I0.0019 J-0.0046
X0.9825 Y8.2198 Z-0.0344 I-0.0019 J0.0046
X0.9864 Y8.2106 Z-0.0349 I0.0019 J-0.0046
X0.9825 Y8.2198 Z-0.0355 I-0.0019 J0.0046
X0.9864 Y8.2106 Z-0.036 I0.0019 J-0.0046
X0.9825 Y8.2198 Z-0.0366 I-0.0019 J0.0046
X0.9864 Y8.2106 Z-0.0371 I0.0019 J-0.0046
X0.9825 Y8.2198 Z-0.0377 I-0.0019 J0.0046
X0.9864 Y8.2106 Z-0.0382 I0.0019 J-0.0046
X0.9825 Y8.2198 Z-0.0388 I-0.0019 J0.0046
X0.9864 Y8.2106 Z-0.0393 I0.0019 J-0.0046
X0.9825 Y8.2198 Z-0.0399 I-0.0019 J0.0046
X0.9864 Y8.2106 Z-0.0404 I0.0019 J-0.0046
X0.9825 Y8.2198 Z-0.041 I-0.0019 J0.0046
X0.9864 Y8.2106 Z-0.0415 I0.0019 J-0.0046
X0.9825 Y8.2198 Z-0.0421 I-0.0019 J0.0046
X0.9864 Y8.2106 Z-0.0426 I0.0019 J-0.0046
X0.9825 Y8.2198 Z-0.0432 I-0.0019 J0.0046
X0.9864 Y8.2106 Z-0.0437 I0.0019 J-0.0046
X0.9825 Y8.2198 Z-0.0443 I-0.0019 J0.0046
X0.9864 Y8.2106 Z-0.0448 I0.0019 J-0.0046
X0.9825 Y8.2198 Z-0.0454 I-0.0019 J0.0046
X0.9864 Y8.2106 Z-0.0459 I0.0019 J-0.0046
X0.9825 Y8.2198 Z-0.0465 I-0.0019 J0.0046
X0.9864 Y8.2106 Z-0.047 I0.0019 J-0.0046
X0.9825 Y8.2198 Z-0.0476 I-0.0019 J0.0046
X0.9864 Y8.2106 Z-0.0481 I0.0019 J-0.0046
X0.9825 Y8.2198 Z-0.0487 I-0.0019 J0.0046
X0.9864 Y8.2106 Z-0.0492 I0.0019 J-0.0046
X0.9825 Y8.2198 Z-0.0497 I-0.0019 J0.0046
X0.9864 Y8.2106 Z-0.0503 I0.0019 J-0.0046
X0.9825 Y8.2198 Z-0.0508 I-0.0019 J0.0046
X0.9864 Y8.2106 Z-0.0514 I0.0019 J-0.0046
X0.9825 Y8.2198 Z-0.0519 I-0.0019 J0.0046
X0.9864 Y8.2106 Z-0.0525 I0.0019 J-0.0046
X0.9825 Y8.2198 Z-0.053 I-0.0019 J0.0046
X0.9864 Y8.2106 Z-0.0536 I0.0019 J-0.0046
X0.9825 Y8.2198 Z-0.0541 I-0.0019 J0.0046
X0.9864 Y8.2106 Z-0.0547 I0.0019 J-0.0046
X0.9825 Y8.2198 Z-0.0552 I-0.0019 J0.0046
X0.9864 Y8.2106 Z-0.0558 I0.0019 J-0.0046
X0.9825 Y8.2198 Z-0.0563 I-0.0019 J0.0046
X0.9864 Y8.2106 Z-0.0569 I0.0019 J-0.0046
X0.9825 Y8.2198 Z-0.0574 I-0.0019 J0.0046
X0.9864 Y8.2106 Z-0.058 I0.0019 J-0.0046
X0.9825 Y8.2198 Z-0.0585 I-0.0019 J0.0046
X0.9864 Y8.2106 Z-0.0591 I0.0019 J-0.0046
X0.9825 Y8.2198 Z-0.0596 I-0.0019 J0.0046
X0.9864 Y8.2106 Z-0.0602 I0.0019 J-0.0046
X0.9825 Y8.2198 Z-0.0607 I-0.0019 J0.0046
X0.9864 Y8.2106 Z-0.0613 I0.0019 J-0.0046
X0.9825 Y8.2198 Z-0.0618 I-0.0019 J0.0046
X0.9864 Y8.2106 Z-0.0624 I0.0019 J-0.0046
X0.9825 Y8.2198 Z-0.0629 I-0.0019 J0.0046
X0.9864 Y8.2106 Z-0.0635 I0.0019 J-0.0046
X0.9825 Y8.2198 Z-0.064 I-0.0019 J0.0046
X0.9864 Y8.2106 Z-0.0646 I0.0019 J-0.0046
X0.9825 Y8.2198 Z-0.0651 I-0.0019 J0.0046
X0.9864 Y8.2106 Z-0.0657 I0.0019 J-0.0046
X0.9825 Y8.2198 Z-0.0662 I-0.0019 J0.0046
X0.9864 Y8.2106 Z-0.0668 I0.0019 J-0.0046
X0.9825 Y8.2198 Z-0.0673 I-0.0019 J0.0046
X0.9864 Y8.2106 Z-0.0679 I0.0019 J-0.0046
X0.9825 Y8.2198 Z-0.0684 I-0.0019 J0.0046
X0.9864 Y8.2106 Z-0.0689 I0.0019 J-0.0046
X0.9825 Y8.2198 Z-0.0695 I-0.0019 J0.0046
X0.9864 Y8.2106 Z-0.07 I0.0019 J-0.0046
X0.9825 Y8.2198 Z-0.0706 I-0.0019 J0.0046
X0.9864 Y8.2106 Z-0.0711 I0.0019 J-0.0046
X0.9825 Y8.2198 Z-0.0717 I-0.0019 J0.0046
X0.9864 Y8.2106 Z-0.0722 I0.0019 J-0.0046
X0.9825 Y8.2198 Z-0.0728 I-0.0019 J0.0046
X0.9864 Y8.2106 Z-0.0733 I0.0019 J-0.0046
X0.9825 Y8.2198 Z-0.0739 I-0.0019 J0.0046
X0.9864 Y8.2106 Z-0.0744 I0.0019 J-0.0046
X0.9825 Y8.2198 Z-0.075 I-0.0019 J0.0046
X0.9864 Y8.2106 Z-0.0755 I0.0019 J-0.0046
X0.9825 Y8.2198 Z-0.0761 I-0.0019 J0.0046
X0.9864 Y8.2106 Z-0.0766 I0.0019 J-0.0046
X0.9825 Y8.2198 Z-0.0772 I-0.0019 J0.0046
X0.9864 Y8.2106 Z-0.0777 I0.0019 J-0.0046
X0.9825 Y8.2198 Z-0.0783 I-0.0019 J0.0046
X0.9864 Y8.2106 Z-0.0788 I0.0019 J-0.0046
X0.9825 Y8.2198 Z-0.0794 I-0.0019 J0.0046
X0.9864 Y8.2106 Z-0.0799 I0.0019 J-0.0046
X0.9825 Y8.2198 Z-0.0805 I-0.0019 J0.0046
X0.9864 Y8.2106 Z-0.081 I0.0019 J-0.0046
X0.9825 Y8.2198 Z-0.0816 I-0.0019 J0.0046
X0.9864 Y8.2106 Z-0.0821 I0.0019 J-0.0046
X0.9825 Y8.2198 Z-0.0827 I-0.0019 J0.0046
X0.9864 Y8.2106 Z-0.0832 I0.0019 J-0.0046
X0.9825 Y8.2198 Z-0.0838 I-0.0019 J0.0046
X0.9864 Y8.2106 Z-0.0843 I0.0019 J-0.0046
X0.9825 Y8.2198 Z-0.0849 I-0.0019 J0.0046
X0.9864 Y8.2106 Z-0.0854 I0.0019 J-0.0046
X0.9825 Y8.2198 Z-0.086 I-0.0019 J0.0046
X0.9864 Y8.2106 Z-0.0865 I0.0019 J-0.0046
X0.9825 Y8.2198 Z-0.0871 I-0.0019 J0.0046
X0.9864 Y8.2106 Z-0.0876 I0.0019 J-0.0046
X0.9825 Y8.2198 Z-0.0881 I-0.0019 J0.0046
X0.9864 Y8.2106 Z-0.0887 I0.0019 J-0.0046
X0.9825 Y8.2198 Z-0.0892 I-0.0019 J0.0046
X0.9864 Y8.2106 Z-0.0898 I0.0019 J-0.0046
X0.9825 Y8.2198 Z-0.0903 I-0.0019 J0.0046
X0.9864 Y8.2106 Z-0.0909 I0.0019 J-0.0046
X0.9825 Y8.2198 Z-0.0914 I-0.0019 J0.0046
X0.9864 Y8.2106 Z-0.092 I0.0019 J-0.0046
X0.9825 Y8.2198 Z-0.0925 I-0.0019 J0.0046
X0.9864 Y8.2106 Z-0.0931 I0.0019 J-0.0046
X0.9825 Y8.2198 Z-0.0936 I-0.0019 J0.0046
X0.9864 Y8.2106 Z-0.0942 I0.0019 J-0.0046
X0.9825 Y8.2198 Z-0.0947 I-0.0019 J0.0046
X0.9864 Y8.2106 Z-0.0953 I0.0019 J-0.0046
X0.9825 Y8.2198 Z-0.0958 I-0.0019 J0.0046
X0.9864 Y8.2106 Z-0.0964 I0.0019 J-0.0046
X0.9825 Y8.2198 Z-0.0969 I-0.0019 J0.0046
X0.9864 Y8.2106 Z-0.0975 I0.0019 J-0.0046
X0.9825 Y8.2198 Z-0.098 I-0.0019 J0.0046
X0.9864 Y8.2106 Z-0.0986 I0.0019 J-0.0046
X0.9825 Y8.2198 Z-0.0991 I-0.0019 J0.0046
X0.9864 Y8.2106 Z-0.0997 I0.0019 J-0.0046
X0.9825 Y8.2198 Z-0.1002 I-0.0019 J0.0046
X0.9864 Y8.2106 Z-0.1008 I0.0019 J-0.0046
X0.9825 Y8.2198 Z-0.1013 I-0.0019 J0.0046
X0.9864 Y8.2106 Z-0.1019 I0.0019 J-0.0046
X0.9825 Y8.2198 Z-0.1024 I-0.0019 J0.0046
X0.9864 Y8.2106 Z-0.103 I0.0019 J-0.0046
X0.9825 Y8.2198 Z-0.1035 I-0.0019 J0.0046
X0.9864 Y8.2106 Z-0.1041 I0.0019 J-0.0046
X0.9825 Y8.2198 Z-0.1046 I-0.0019 J0.0046
X0.9864 Y8.2106 Z-0.1052 I0.0019 J-0.0046
X0.9825 Y8.2198 Z-0.1057 I-0.0019 J0.0046
X0.9864 Y8.2106 Z-0.1062 I0.0019 J-0.0046
X0.9825 Y8.2198 Z-0.1068 I-0.0019 J0.0046
X0.9864 Y8.2106 Z-0.1073 I0.0019 J-0.0046
X0.9825 Y8.2198 Z-0.1079 I-0.0019 J0.0046
X0.9864 Y8.2106 Z-0.1084 I0.0019 J-0.0046
X0.9825 Y8.2198 Z-0.109 I-0.0019 J0.0046
X0.9864 Y8.2106 Z-0.1095 I0.0019 J-0.0046
X0.9825 Y8.2198 Z-0.1101 I-0.0019 J0.0046
X0.9864 Y8.2106 Z-0.1106 I0.0019 J-0.0046
X0.9825 Y8.2198 Z-0.1112 I-0.0019 J0.0046
X0.9864 Y8.2106 Z-0.1117 I0.0019 J-0.0046
X0.9825 Y8.2198 Z-0.1123 I-0.0019 J0.0046
X0.9864 Y8.2106 Z-0.1128 I0.0019 J-0.0046
X0.9825 Y8.2198 Z-0.1134 I-0.0019 J0.0046
X0.9864 Y8.2106 Z-0.1139 I0.0019 J-0.0046
X0.9825 Y8.2198 Z-0.1145 I-0.0019 J0.0046
X0.9864 Y8.2106 Z-0.115 I0.0019 J-0.0046
X0.9825 Y8.2198 Z-0.1156 I-0.0019 J0.0046
X0.9864 Y8.2106 Z-0.1161 I0.0019 J-0.0046
X0.9825 Y8.2198 Z-0.1167 I-0.0019 J0.0046
X0.9864 Y8.2106 Z-0.1172 I0.0019 J-0.0046
X0.9825 Y8.2198 Z-0.1178 I-0.0019 J0.0046
X0.9864 Y8.2106 Z-0.1183 I0.0019 J-0.0046
X0.9825 Y8.2198 Z-0.1189 I-0.0019 J0.0046
X0.9864 Y8.2106 Z-0.1194 I0.0019 J-0.0046
X0.9825 Y8.2198 Z-0.12 I-0.0019 J0.0046
X0.9864 Y8.2106 Z-0.1205 I0.0019 J-0.0046
X0.9825 Y8.2198 Z-0.1211 I-0.0019 J0.0046
X0.9864 Y8.2106 Z-0.1216 I0.0019 J-0.0046
X0.9825 Y8.2198 Z-0.1222 I-0.0019 J0.0046
X0.9864 Y8.2106 Z-0.1227 I0.0019 J-0.0046
X0.9825 Y8.2198 Z-0.1233 I-0.0019 J0.0046
X0.9864 Y8.2106 Z-0.1238 I0.0019 J-0.0046
X0.9825 Y8.2198 Z-0.1244 I-0.0019 J0.0046
X0.9864 Y8.2106 Z-0.1249 I0.0019 J-0.0046
X0.9825 Y8.2198 Z-0.1254 I-0.0019 J0.0046
X0.9864 Y8.2106 Z-0.126 I0.0019 J-0.0046
X0.9825 Y8.2198 Z-0.1265 I-0.0019 J0.0046
X0.9864 Y8.2106 Z-0.1271 I0.0019 J-0.0046
X0.9825 Y8.2198 Z-0.1276 I-0.0019 J0.0046
X0.9864 Y8.2106 Z-0.1282 I0.0019 J-0.0046
X0.9825 Y8.2198 Z-0.1287 I-0.0019 J0.0046
X0.9864 Y8.2106 Z-0.1293 I0.0019 J-0.0046
X0.9825 Y8.2198 Z-0.1298 I-0.0019 J0.0046
X0.9864 Y8.2106 Z-0.1304 I0.0019 J-0.0046
X0.9825 Y8.2198 Z-0.1309 I-0.0019 J0.0046
X0.9864 Y8.2106 Z-0.1315 I0.0019 J-0.0046
X0.9825 Y8.2198 Z-0.132 I-0.0019 J0.0046
X0.9864 Y8.2106 Z-0.1326 I0.0019 J-0.0046
X0.9825 Y8.2198 Z-0.1331 I-0.0019 J0.0046
X0.9864 Y8.2106 Z-0.1337 I0.0019 J-0.0046
X0.9825 Y8.2198 Z-0.1342 I-0.0019 J0.0046
X0.9864 Y8.2106 Z-0.1348 I0.0019 J-0.0046
X0.9825 Y8.2198 Z-0.1353 I-0.0019 J0.0046
X0.9864 Y8.2106 Z-0.1359 I0.0019 J-0.0046
X0.9825 Y8.2198 Z-0.1364 I-0.0019 J0.0046
X0.9864 Y8.2106 Z-0.137 I0.0019 J-0.0046
X0.9825 Y8.2198 Z-0.1375 I-0.0019 J0.0046
X0.9864 Y8.2106 Z-0.1381 I0.0019 J-0.0046
X0.9825 Y8.2198 Z-0.1386 I-0.0019 J0.0046
X0.9864 Y8.2106 Z-0.1392 I0.0019 J-0.0046
X0.9825 Y8.2198 Z-0.1397 I-0.0019 J0.0046
X0.9864 Y8.2106 Z-0.1403 I0.0019 J-0.0046
X0.9825 Y8.2198 Z-0.1408 I-0.0019 J0.0046
X0.9864 Y8.2106 Z-0.1414 I0.0019 J-0.0046
X0.9825 Y8.2198 Z-0.1419 I-0.0019 J0.0046
X0.9864 Y8.2106 Z-0.1425 I0.0019 J-0.0046
X0.9825 Y8.2198 Z-0.143 I-0.0019 J0.0046
X0.9864 Y8.2106 Z-0.1435 I0.0019 J-0.0046
X0.9825 Y8.2198 Z-0.1441 I-0.0019 J0.0046
X0.9864 Y8.2106 Z-0.1446 I0.0019 J-0.0046
X0.9825 Y8.2198 Z-0.1452 I-0.0019 J0.0046
X0.9864 Y8.2106 Z-0.1457 I0.0019 J-0.0046
X0.9825 Y8.2198 Z-0.1463 I-0.0019 J0.0046
X0.9864 Y8.2106 Z-0.1468 I0.0019 J-0.0046
X0.9825 Y8.2198 Z-0.1474 I-0.0019 J0.0046
X0.9864 Y8.2106 Z-0.1479 I0.0019 J-0.0046
X0.9825 Y8.2198 Z-0.1485 I-0.0019 J0.0046
X0.9864 Y8.2106 Z-0.149 I0.0019 J-0.0046
X0.9825 Y8.2198 Z-0.1496 I-0.0019 J0.0046
X0.9864 Y8.2106 Z-0.1501 I0.0019 J-0.0046
X0.9825 Y8.2198 Z-0.1507 I-0.0019 J0.0046
X0.9864 Y8.2106 Z-0.1512 I0.0019 J-0.0046
X0.9825 Y8.2198 Z-0.1518 I-0.0019 J0.0046
X0.9864 Y8.2106 Z-0.1523 I0.0019 J-0.0046
X0.9825 Y8.2198 Z-0.1529 I-0.0019 J0.0046
X0.9864 Y8.2106 Z-0.1534 I0.0019 J-0.0046
X0.9825 Y8.2198 Z-0.154 I-0.0019 J0.0046
X0.9864 Y8.2106 Z-0.1545 I0.0019 J-0.0046
X0.9825 Y8.2198 Z-0.1551 I-0.0019 J0.0046
X0.9864 Y8.2106 Z-0.1556 I0.0019 J-0.0046
X0.9825 Y8.2198 Z-0.1562 I-0.0019 J0.0046
X0.9864 Y8.2106 Z-0.1567 I0.0019 J-0.0046
X0.9825 Y8.2198 Z-0.1573 I-0.0019 J0.0046
X0.9864 Y8.2106 Z-0.1578 I0.0019 J-0.0046
X0.9825 Y8.2198 Z-0.1584 I-0.0019 J0.0046
X0.9864 Y8.2106 Z-0.1589 I0.0019 J-0.0046
X0.9825 Y8.2198 Z-0.1595 I-0.0019 J0.0046
X0.9864 Y8.2106 Z-0.16 I0.0019 J-0.0046
X0.9825 Y8.2198 Z-0.1606 I-0.0019 J0.0046
X0.9864 Y8.2106 Z-0.1611 I0.0019 J-0.0046
X0.9825 Y8.2198 Z-0.1617 I-0.0019 J0.0046
X0.9864 Y8.2106 Z-0.1622 I0.0019 J-0.0046
X0.9825 Y8.2198 Z-0.1627 I-0.0019 J0.0046
X0.9864 Y8.2106 Z-0.1633 I0.0019 J-0.0046
X0.9825 Y8.2198 Z-0.1638 I-0.0019 J0.0046
X0.9864 Y8.2106 Z-0.1644 I0.0019 J-0.0046
X0.9825 Y8.2198 Z-0.1649 I-0.0019 J0.0046
X0.9864 Y8.2106 Z-0.1655 I0.0019 J-0.0046
X0.9825 Y8.2198 Z-0.166 I-0.0019 J0.0046
X0.9864 Y8.2106 Z-0.1666 I0.0019 J-0.0046
X0.9825 Y8.2198 Z-0.1671 I-0.0019 J0.0046
X0.9864 Y8.2106 Z-0.1677 I0.0019 J-0.0046
X0.9825 Y8.2198 Z-0.1682 I-0.0019 J0.0046
X0.9864 Y8.2106 Z-0.1688 I0.0019 J-0.0046
X0.9825 Y8.2198 Z-0.1693 I-0.0019 J0.0046
X0.9864 Y8.2106 Z-0.1699 I0.0019 J-0.0046
X0.9825 Y8.2198 Z-0.1704 I-0.0019 J0.0046
X0.9864 Y8.2106 Z-0.171 I0.0019 J-0.0046
X0.9825 Y8.2198 Z-0.1715 I-0.0019 J0.0046
X0.9864 Y8.2106 Z-0.1721 I0.0019 J-0.0046
X0.9825 Y8.2198 Z-0.1726 I-0.0019 J0.0046
X0.9864 Y8.2106 Z-0.1732 I0.0019 J-0.0046
X0.9825 Y8.2198 Z-0.1737 I-0.0019 J0.0046
X0.9864 Y8.2106 Z-0.1743 I0.0019 J-0.0046
X0.9825 Y8.2198 Z-0.1748 I-0.0019 J0.0046
X0.9864 Y8.2106 Z-0.1754 I0.0019 J-0.0046
X0.9825 Y8.2198 Z-0.1759 I-0.0019 J0.0046
X0.9864 Y8.2106 Z-0.1765 I0.0019 J-0.0046
X0.9825 Y8.2198 Z-0.177 I-0.0019 J0.0046
X0.9864 Y8.2106 Z-0.1776 I0.0019 J-0.0046
X0.9825 Y8.2198 Z-0.1781 I-0.0019 J0.0046
X0.9864 Y8.2106 Z-0.1787 I0.0019 J-0.0046
X0.9825 Y8.2198 Z-0.1792 I-0.0019 J0.0046
X0.9864 Y8.2106 Z-0.1798 I0.0019 J-0.0046
X0.9825 Y8.2198 Z-0.1803 I-0.0019 J0.0046
X0.9864 Y8.2106 Z-0.1808 I0.0019 J-0.0046
X0.9825 Y8.2198 Z-0.1814 I-0.0019 J0.0046
X0.9864 Y8.2106 Z-0.1819 I0.0019 J-0.0046
X0.9825 Y8.2198 Z-0.1825 I-0.0019 J0.0046
X0.9864 Y8.2106 Z-0.183 I0.0019 J-0.0046
X0.9825 Y8.2198 Z-0.1836 I-0.0019 J0.0046
X0.9864 Y8.2106 Z-0.1841 I0.0019 J-0.0046
X0.9825 Y8.2198 Z-0.1847 I-0.0019 J0.0046
X0.9864 Y8.2106 Z-0.1852 I0.0019 J-0.0046
X0.9825 Y8.2198 Z-0.1858 I-0.0019 J0.0046
X0.9864 Y8.2106 Z-0.1863 I0.0019 J-0.0046
X0.9825 Y8.2198 Z-0.1869 I-0.0019 J0.0046
X0.9864 Y8.2106 Z-0.1874 I0.0019 J-0.0046
X0.9825 Y8.2198 Z-0.188 I-0.0019 J0.0046
X0.9864 Y8.2106 Z-0.1885 I0.0019 J-0.0046
X0.9825 Y8.2198 Z-0.1891 I-0.0019 J0.0046
X0.9864 Y8.2106 Z-0.1896 I0.0019 J-0.0046
X0.9825 Y8.2198 Z-0.1902 I-0.0019 J0.0046
X0.9864 Y8.2106 Z-0.1907 I0.0019 J-0.0046
X0.9825 Y8.2198 Z-0.1913 I-0.0019 J0.0046
X0.9864 Y8.2106 Z-0.1918 I0.0019 J-0.0046
X0.9825 Y8.2198 Z-0.1924 I-0.0019 J0.0046
X0.9864 Y8.2106 Z-0.1929 I0.0019 J-0.0046
X0.9825 Y8.2198 Z-0.1935 I-0.0019 J0.0046
X0.9864 Y8.2106 Z-0.194 I0.0019 J-0.0046
X0.9825 Y8.2198 Z-0.1946 I-0.0019 J0.0046
X0.9864 Y8.2106 Z-0.1951 I0.0019 J-0.0046
X0.9825 Y8.2198 Z-0.1957 I-0.0019 J0.0046
X0.9864 Y8.2106 Z-0.1962 I0.0019 J-0.0046
X0.9825 Y8.2198 Z-0.1968 I-0.0019 J0.0046
X0.9864 Y8.2106 Z-0.1973 I0.0019 J-0.0046
X0.9825 Y8.2198 Z-0.1979 I-0.0019 J0.0046
X0.9864 Y8.2106 Z-0.1984 I0.0019 J-0.0046
X0.9825 Y8.2198 Z-0.199 I-0.0019 J0.0046
X0.9864 Y8.2106 Z-0.1995 I0.0019 J-0.0046
X0.9825 Y8.2198 Z-0.2 I-0.0019 J0.0046
X0.9864 Y8.2106 Z-0.2006 I0.0019 J-0.0046
X0.9825 Y8.2198 Z-0.2011 I-0.0019 J0.0046
X0.9864 Y8.2106 Z-0.2017 I0.0019 J-0.0046
X0.9825 Y8.2198 Z-0.2022 I-0.0019 J0.0046
X0.9864 Y8.2106 Z-0.2028 I0.0019 J-0.0046
X0.9825 Y8.2198 Z-0.2033 I-0.0019 J0.0046
X0.9864 Y8.2106 Z-0.2039 I0.0019 J-0.0046
X0.9825 Y8.2198 Z-0.2044 I-0.0019 J0.0046
X0.9864 Y8.2106 Z-0.205 I0.0019 J-0.0046
X0.9825 Y8.2198 Z-0.2055 I-0.0019 J0.0046
X0.9864 Y8.2106 Z-0.2061 I0.0019 J-0.0046
X0.9825 Y8.2198 Z-0.2066 I-0.0019 J0.0046
X0.9864 Y8.2106 Z-0.2072 I0.0019 J-0.0046
X0.9825 Y8.2198 Z-0.2077 I-0.0019 J0.0046
X0.9864 Y8.2106 Z-0.2083 I0.0019 J-0.0046
X0.9825 Y8.2198 Z-0.2088 I-0.0019 J0.0046
X0.9864 Y8.2106 Z-0.2094 I0.0019 J-0.0046
X0.9825 Y8.2198 Z-0.2099 I-0.0019 J0.0046
X0.9864 Y8.2106 Z-0.2105 I0.0019 J-0.0046
X0.9825 Y8.2198 Z-0.211 I-0.0019 J0.0046
X0.9864 Y8.2106 Z-0.2116 I0.0019 J-0.0046
X0.9825 Y8.2198 Z-0.2121 I-0.0019 J0.0046
X0.9864 Y8.2106 Z-0.2127 I0.0019 J-0.0046
X0.9825 Y8.2198 Z-0.2132 I-0.0019 J0.0046
X0.9864 Y8.2106 Z-0.2138 I0.0019 J-0.0046
X0.9825 Y8.2198 Z-0.2143 I-0.0019 J0.0046
X0.9864 Y8.2106 Z-0.2149 I0.0019 J-0.0046
X0.9825 Y8.2198 Z-0.2154 I-0.0019 J0.0046
X0.9864 Y8.2106 Z-0.216 I0.0019 J-0.0046
X0.9825 Y8.2198 Z-0.2165 I-0.0019 J0.0046
X0.9864 Y8.2106 Z-0.2171 I0.0019 J-0.0046
X0.9825 Y8.2198 Z-0.2176 I-0.0019 J0.0046
X0.9864 Y8.2106 Z-0.2181 I0.0019 J-0.0046
X0.9825 Y8.2198 Z-0.2187 I-0.0019 J0.0046
X0.9864 Y8.2106 Z-0.2192 I0.0019 J-0.0046
X0.9825 Y8.2198 Z-0.2198 I-0.0019 J0.0046
X0.9794 Y8.2152 Z-0.22 I0.0019 J-0.0046
X1.0314 I0.026 J0. F40.
X0.9794 I-0.026 J0.
X1.0314 Z-0.2229 I0.026 J0. F20.
X0.9794 Z-0.2257 I-0.026 J0.
X1.0314 Z-0.2286 I0.026 J0.
X0.9794 Z-0.2314 I-0.026 J0.
X1.0314 Z-0.2343 I0.026 J0.
X0.9794 Z-0.2371 I-0.026 J0.
X1.0314 Z-0.24 I0.026 J0.
X0.9794 Z-0.2428 I-0.026 J0.
X1.0314 Z-0.2457 I0.026 J0.
X0.9794 Z-0.2485 I-0.026 J0.
X1.0314 Z-0.2514 I0.026 J0.
X0.9794 Z-0.2542 I-0.026 J0.
X1.0314 Z-0.2571 I0.026 J0.
X0.9794 Z-0.2599 I-0.026 J0.
X1.0314 Z-0.2628 I0.026 J0.
X0.9794 Z-0.2656 I-0.026 J0.
X1.0314 Z-0.2685 I0.026 J0.
X0.9794 Z-0.2713 I-0.026 J0.
X1.0314 Z-0.2742 I0.026 J0.
X0.9794 Z-0.277 I-0.026 J0.
X1.0314 Z-0.2799 I0.026 J0.
X0.9794 Z-0.2828 I-0.026 J0.
X1.0314 Z-0.2856 I0.026 J0.
X0.9794 Z-0.2885 I-0.026 J0.
X1.0314 Z-0.2913 I0.026 J0.
X0.9794 Z-0.2942 I-0.026 J0.
X1.0314 Z-0.297 I0.026 J0.
X0.9794 Z-0.2999 I-0.026 J0.
X1.0314 Z-0.3027 I0.026 J0.
X0.9794 Z-0.3056 I-0.026 J0.
X1.0314 Z-0.3084 I0.026 J0.
X0.9794 Z-0.3113 I-0.026 J0.
X1.0314 Z-0.3141 I0.026 J0.
X0.9794 Z-0.317 I-0.026 J0.
X1.0314 Z-0.3198 I0.026 J0.
X0.9794 Z-0.3227 I-0.026 J0.
X1.0314 Z-0.3255 I0.026 J0.
X0.9794 Z-0.3284 I-0.026 J0.
X1.0314 Z-0.3312 I0.026 J0.
X0.9794 Z-0.3341 I-0.026 J0.
X1.0314 Z-0.3369 I0.026 J0.
X0.9794 Z-0.3398 I-0.026 J0.
X1.0314 Z-0.3427 I0.026 J0.
X0.9794 Z-0.3455 I-0.026 J0.
X1.0314 Z-0.3484 I0.026 J0.
X0.9794 Z-0.3512 I-0.026 J0.
X1.0314 Z-0.3541 I0.026 J0.
X0.9794 Z-0.3569 I-0.026 J0.
X1.0314 Z-0.3598 I0.026 J0.
X0.9794 Z-0.3626 I-0.026 J0.
X1.0314 Z-0.3655 I0.026 J0.
X0.9794 Z-0.3683 I-0.026 J0.
X1.0314 Z-0.3712 I0.026 J0.
X0.9794 Z-0.374 I-0.026 J0.
X1.0314 Z-0.3769 I0.026 J0.
X0.9794 Z-0.3797 I-0.026 J0.
X1.0314 Z-0.3826 I0.026 J0.
X0.9794 Z-0.3854 I-0.026 J0.
X1.0314 Z-0.3883 I0.026 J0.
X0.9794 Z-0.3911 I-0.026 J0.
X1.0314 Z-0.394 I0.026 J0.
X0.9794 Z-0.3968 I-0.026 J0.
X1.0314 Z-0.3997 I0.026 J0.
X0.9794 Z-0.4026 I-0.026 J0.
X1.0314 Z-0.4054 I0.026 J0.
X0.9794 Z-0.4083 I-0.026 J0.
X1.0314 Z-0.4111 I0.026 J0.
X0.9794 Z-0.414 I-0.026 J0.
X1.0314 Z-0.4168 I0.026 J0.
X0.9794 Z-0.4197 I-0.026 J0.
X1.0314 Z-0.4225 I0.026 J0.
X0.9794 Z-0.4254 I-0.026 J0.
X1.0314 Z-0.4282 I0.026 J0.
X0.9794 Z-0.4311 I-0.026 J0.
X1.0314 Z-0.4339 I0.026 J0.
X0.9794 Z-0.4368 I-0.026 J0.
X1.0314 Z-0.4396 I0.026 J0.
X1.0294 Y8.2254 Z-0.44 I-0.026 J0.
X0.9815 Y8.2049 I-0.0239 J-0.0102 F40.
X1.0294 Y8.2254 I0.0239 J0.0102
G1 X1.0283 Y8.2274 Z-0.4396
X1.0268 Y8.2291 Z-0.4391
X1.0254 Y8.2303 Z-0.4378
X1.0237 Y8.2313 Z-0.4365
X1.0213 Y8.2322 Z-0.4327
X1.0205 Y8.2324 Z-0.4282
G0 Z0.2
X3.0638 Y1.1265
G1 Z0.1118 F40.
X3.0636 Y1.125 Z0.106 F20.
X3.0638 Y1.1236 Z0.1045
X3.0643 Y1.1224 Z0.1031
X3.0652 Y1.1213 Z0.1017
X3.0664 Y1.1205 Z0.1013
X3.0677 Y1.1201 Z0.1009
X3.0692 Y1.12 Z0.1004
X3.0705 Y1.1204 Z0.1
G3 X3.0667 Y1.1296 Z0.0995 I-0.0019 J0.0046
X3.0705 Y1.1204 Z0.0989 I0.0019 J-0.0046
X3.0667 Y1.1296 Z0.0984 I-0.0019 J0.0046
X3.0705 Y1.1204 Z0.0978 I0.0019 J-0.0046
X3.0667 Y1.1296 Z0.0973 I-0.0019 J0.0046
X3.0705 Y1.1204 Z0.0967 I0.0019 J-0.0046
X3.0667 Y1.1296 Z0.0962 I-0.0019 J0.0046
X3.0705 Y1.1204 Z0.0956 I0.0019 J-0.0046
X3.0667 Y1.1296 Z0.0951 I-0.0019 J0.0046
X3.0705 Y1.1204 Z0.0945 I0.0019 J-0.0046
X3.0667 Y1.1296 Z0.094 I-0.0019 J0.0046
X3.0705 Y1.1204 Z0.0934 I0.0019 J-0.0046
X3.0667 Y1.1296 Z0.0929 I-0.0019 J0.0046
X3.0705 Y1.1204 Z0.0923 I0.0019 J-0.0046
X3.0667 Y1.1296 Z0.0918 I-0.0019 J0.0046
X3.0705 Y1.1204 Z0.0912 I0.0019 J-0.0046
X3.0667 Y1.1296 Z0.0907 I-0.0019 J0.0046
X3.0705 Y1.1204 Z0.0901 I0.0019 J-0.0046
X3.0667 Y1.1296 Z0.0896 I-0.0019 J0.0046
X3.0705 Y1.1204 Z0.089 I0.0019 J-0.0046
X3.0667 Y1.1296 Z0.0885 I-0.0019 J0.0046
X3.0705 Y1.1204 Z0.0879 I0.0019 J-0.0046
X3.0667 Y1.1296 Z0.0874 I-0.0019 J0.0046
X3.0705 Y1.1204 Z0.0868 I0.0019 J-0.0046
X3.0667 Y1.1296 Z0.0863 I-0.0019 J0.0046
X3.0705 Y1.1204 Z0.0857 I0.0019 J-0.0046
X3.0667 Y1.1296 Z0.0852 I-0.0019 J0.0046
X3.0705 Y1.1204 Z0.0846 I0.0019 J-0.0046
X3.0667 Y1.1296 Z0.0841 I-0.0019 J0.0046
X3.0705 Y1.1204 Z0.0835 I0.0019 J-0.0046
X3.0667 Y1.1296 Z0.083 I-0.0019 J0.0046
X3.0705 Y1.1204 Z0.0824 I0.0019 J-0.0046
X3.0667 Y1.1296 Z0.0819 I-0.0019 J0.0046
X3.0705 Y1.1204 Z0.0813 I0.0019 J-0.0046
X3.0667 Y1.1296 Z0.0808 I-0.0019 J0.0046
X3.0705 Y1.1204 Z0.0803 I0.0019 J-0.0046
X3.0667 Y1.1296 Z0.0797 I-0.0019 J0.0046
X3.0705 Y1.1204 Z0.0792 I0.0019 J-0.0046
X3.0667 Y1.1296 Z0.0786 I-0.0019 J0.0046
X3.0705 Y1.1204 Z0.0781 I0.0019 J-0.0046
X3.0667 Y1.1296 Z0.0775 I-0.0019 J0.0046
X3.0705 Y1.1204 Z0.077 I0.0019 J-0.0046
X3.0667 Y1.1296 Z0.0764 I-0.0019 J0.0046
X3.0705 Y1.1204 Z0.0759 I0.0019 J-0.0046
X3.0667 Y1.1296 Z0.0753 I-0.0019 J0.0046
X3.0705 Y1.1204 Z0.0748 I0.0019 J-0.0046
X3.0667 Y1.1296 Z0.0742 I-0.0019 J0.0046
X3.0705 Y1.1204 Z0.0737 I0.0019 J-0.0046
X3.0667 Y1.1296 Z0.0731 I-0.0019 J0.0046
X3.0705 Y1.1204 Z0.0726 I0.0019 J-0.0046
X3.0667 Y1.1296 Z0.072 I-0.0019 J0.0046
X3.0705 Y1.1204 Z0.0715 I0.0019 J-0.0046
X3.0667 Y1.1296 Z0.0709 I-0.0019 J0.0046
X3.0705 Y1.1204 Z0.0704 I0.0019 J-0.0046
X3.0667 Y1.1296 Z0.0698 I-0.0019 J0.0046
X3.0705 Y1.1204 Z0.0693 I0.0019 J-0.0046
X3.0667 Y1.1296 Z0.0687 I-0.0019 J0.0046
X3.0705 Y1.1204 Z0.0682 I0.0019 J-0.0046
X3.0667 Y1.1296 Z0.0676 I-0.0019 J0.0046
X3.0705 Y1.1204 Z0.0671 I0.0019 J-0.0046
X3.0667 Y1.1296 Z0.0665 I-0.0019 J0.0046
X3.0705 Y1.1204 Z0.066 I0.0019 J-0.0046
X3.0667 Y1.1296 Z0.0654 I-0.0019 J0.0046
X3.0705 Y1.1204 Z0.0649 I0.0019 J-0.0046
X3.0667 Y1.1296 Z0.0643 I-0.0019 J0.0046
X3.0705 Y1.1204 Z0.0638 I0.0019 J-0.0046
X3.0667 Y1.1296 Z0.0632 I-0.0019 J0.0046
X3.0705 Y1.1204 Z0.0627 I0.0019 J-0.0046
X3.0667 Y1.1296 Z0.0622 I-0.0019 J0.0046
X3.0705 Y1.1204 Z0.0616 I0.0019 J-0.0046
X3.0667 Y1.1296 Z0.0611 I-0.0019 J0.0046
X3.0705 Y1.1204 Z0.0605 I0.0019 J-0.0046
X3.0667 Y1.1296 Z0.06 I-0.0019 J0.0046
X3.0705 Y1.1204 Z0.0594 I0.0019 J-0.0046
X3.0667 Y1.1296 Z0.0589 I-0.0019 J0.0046
X3.0705 Y1.1204 Z0.0583 I0.0019 J-0.0046
X3.0667 Y1.1296 Z0.0578 I-0.0019 J0.0046
X3.0705 Y1.1204 Z0.0572 I0.0019 J-0.0046
X3.0667 Y1.1296 Z0.0567 I-0.0019 J0.0046
X3.0705 Y1.1204 Z0.0561 I0.0019 J-0.0046
X3.0667 Y1.1296 Z0.0556 I-0.0019 J0.0046
X3.0705 Y1.1204 Z0.055 I0.0019 J-0.0046
X3.0667 Y1.1296 Z0.0545 I-0.0019 J0.0046
X3.0705 Y1.1204 Z0.0539 I0.0019 J-0.0046
X3.0667 Y1.1296 Z0.0534 I-0.0019 J0.0046
X3.0705 Y1.1204 Z0.0528 I0.0019 J-0.0046
X3.0667 Y1.1296 Z0.0523 I-0.0019 J0.0046
X3.0705 Y1.1204 Z0.0517 I0.0019 J-0.0046
X3.0667 Y1.1296 Z0.0512 I-0.0019 J0.0046
X3.0705 Y1.1204 Z0.0506 I0.0019 J-0.0046
X3.0667 Y1.1296 Z0.0501 I-0.0019 J0.0046
X3.0705 Y1.1204 Z0.0495 I0.0019 J-0.0046
X3.0667 Y1.1296 Z0.049 I-0.0019 J0.0046
X3.0705 Y1.1204 Z0.0484 I0.0019 J-0.0046
X3.0667 Y1.1296 Z0.0479 I-0.0019 J0.0046
X3.0705 Y1.1204 Z0.0473 I0.0019 J-0.0046
X3.0667 Y1.1296 Z0.0468 I-0.0019 J0.0046
X3.0705 Y1.1204 Z0.0462 I0.0019 J-0.0046
X3.0667 Y1.1296 Z0.0457 I-0.0019 J0.0046
X3.0705 Y1.1204 Z0.0451 I0.0019 J-0.0046
X3.0667 Y1.1296 Z0.0446 I-0.0019 J0.0046
X3.0705 Y1.1204 Z0.044 I0.0019 J-0.0046
X3.0667 Y1.1296 Z0.0435 I-0.0019 J0.0046
X3.0705 Y1.1204 Z0.043 I0.0019 J-0.0046
X3.0667 Y1.1296 Z0.0424 I-0.0019 J0.0046
X3.0705 Y1.1204 Z0.0419 I0.0019 J-0.0046
X3.0667 Y1.1296 Z0.0413 I-0.0019 J0.0046
X3.0705 Y1.1204 Z0.0408 I0.0019 J-0.0046
X3.0667 Y1.1296 Z0.0402 I-0.0019 J0.0046
X3.0705 Y1.1204 Z0.0397 I0.0019 J-0.0046
X3.0667 Y1.1296 Z0.0391 I-0.0019 J0.0046
X3.0705 Y1.1204 Z0.0386 I0.0019 J-0.0046
X3.0667 Y1.1296 Z0.038 I-0.0019 J0.0046
X3.0705 Y1.1204 Z0.0375 I0.0019 J-0.0046
X3.0667 Y1.1296 Z0.0369 I-0.0019 J0.0046
X3.0705 Y1.1204 Z0.0364 I0.0019 J-0.0046
X3.0667 Y1.1296 Z0.0358 I-0.0019 J0.0046
X3.0705 Y1.1204 Z0.0353 I0.0019 J-0.0046
X3.0667 Y1.1296 Z0.0347 I-0.0019 J0.0046
X3.0705 Y1.1204 Z0.0342 I0.0019 J-0.0046
X3.0667 Y1.1296 Z0.0336 I-0.0019 J0.0046
X3.0705 Y1.1204 Z0.0331 I0.0019 J-0.0046
X3.0667 Y1.1296 Z0.0325 I-0.0019 J0.0046
X3.0705 Y1.1204 Z0.032 I0.0019 J-0.0046
X3.0667 Y1.1296 Z0.0314 I-0.0019 J0.0046
X3.0705 Y1.1204 Z0.0309 I0.0019 J-0.0046
X3.0667 Y1.1296 Z0.0303 I-0.0019 J0.0046
X3.0705 Y1.1204 Z0.0298 I0.0019 J-0.0046
X3.0667 Y1.1296 Z0.0292 I-0.0019 J0.0046
X3.0705 Y1.1204 Z0.0287 I0.0019 J-0.0046
X3.0667 Y1.1296 Z0.0281 I-0.0019 J0.0046
X3.0705 Y1.1204 Z0.0276 I0.0019 J-0.0046
X3.0667 Y1.1296 Z0.027 I-0.0019 J0.0046
X3.0705 Y1.1204 Z0.0265 I0.0019 J-0.0046
X3.0667 Y1.1296 Z0.0259 I-0.0019 J0.0046
X3.0705 Y1.1204 Z0.0254 I0.0019 J-0.0046
X3.0667 Y1.1296 Z0.0249 I-0.0019 J0.0046
X3.0705 Y1.1204 Z0.0243 I0.0019 J-0.0046
X3.0667 Y1.1296 Z0.0238 I-0.0019 J0.0046
X3.0705 Y1.1204 Z0.0232 I0.0019 J-0.0046
X3.0667 Y1.1296 Z0.0227 I-0.0019 J0.0046
X3.0705 Y1.1204 Z0.0221 I0.0019 J-0.0046
X3.0667 Y1.1296 Z0.0216 I-0.0019 J0.0046
X3.0705 Y1.1204 Z0.021 I0.0019 J-0.0046
X3.0667 Y1.1296 Z0.0205 I-0.0019 J0.0046
X3.0705 Y1.1204 Z0.0199 I0.0019 J-0.0046
X3.0667 Y1.1296 Z0.0194 I-0.0019 J0.0046
X3.0705 Y1.1204 Z0.0188 I0.0019 J-0.0046
X3.0667 Y1.1296 Z0.0183 I-0.0019 J0.0046
X3.0705 Y1.1204 Z0.0177 I0.0019 J-0.0046
X3.0667 Y1.1296 Z0.0172 I-0.0019 J0.0046
X3.0705 Y1.1204 Z0.0166 I0.0019 J-0.0046
X3.0667 Y1.1296 Z0.0161 I-0.0019 J0.0046
X3.0705 Y1.1204 Z0.0155 I0.0019 J-0.0046
X3.0667 Y1.1296 Z0.015 I-0.0019 J0.0046
X3.0705 Y1.1204 Z0.0144 I0.0019 J-0.0046
X3.0667 Y1.1296 Z0.0139 I-0.0019 J0.0046
X3.0705 Y1.1204 Z0.0133 I0.0019 J-0.0046
X3.0667 Y1.1296 Z0.0128 I-0.0019 J0.0046
X3.0705 Y1.1204 Z0.0122 I0.0019 J-0.0046
X3.0667 Y1.1296 Z0.0117 I-0.0019 J0.0046
X3.0705 Y1.1204 Z0.0111 I0.0019 J-0.0046
X3.0667 Y1.1296 Z0.0106 I-0.0019 J0.0046
X3.0705 Y1.1204 Z0.01 I0.0019 J-0.0046
X3.0667 Y1.1296 Z0.0095 I-0.0019 J0.0046
X3.0705 Y1.1204 Z0.0089 I0.0019 J-0.0046
X3.0667 Y1.1296 Z0.0084 I-0.0019 J0.0046
X3.0705 Y1.1204 Z0.0078 I0.0019 J-0.0046
X3.0667 Y1.1296 Z0.0073 I-0.0019 J0.0046
X3.0705 Y1.1204 Z0.0067 I0.0019 J-0.0046
X3.0667 Y1.1296 Z0.0062 I-0.0019 J0.0046
X3.0705 Y1.1204 Z0.0057 I0.0019 J-0.0046
X3.0667 Y1.1296 Z0.0051 I-0.0019 J0.0046
X3.0705 Y1.1204 Z0.0046 I0.0019 J-0.0046
X3.0667 Y1.1296 Z0.004 I-0.0019 J0.0046
X3.0705 Y1.1204 Z0.0035 I0.0019 J-0.0046
X3.0667 Y1.1296 Z0.0029 I-0.0019 J0.0046
X3.0705 Y1.1204 Z0.0024 I0.0019 J-0.0046
X3.0667 Y1.1296 Z0.0018 I-0.0019 J0.0046
X3.0705 Y1.1204 Z0.0013 I0.0019 J-0.0046
X3.0667 Y1.1296 Z0.0007 I-0.0019 J0.0046
X3.0705 Y1.1204 Z0.0002 I0.0019 J-0.0046
X3.0667 Y1.1296 Z-0.0004 I-0.0019 J0.0046
X3.0705 Y1.1204 Z-0.0009 I0.0019 J-0.0046
X3.0667 Y1.1296 Z-0.0015 I-0.0019 J0.0046
X3.0705 Y1.1204 Z-0.002 I0.0019 J-0.0046
X3.0667 Y1.1296 Z-0.0026 I-0.0019 J0.0046
X3.0705 Y1.1204 Z-0.0031 I0.0019 J-0.0046
X3.0667 Y1.1296 Z-0.0037 I-0.0019 J0.0046
X3.0705 Y1.1204 Z-0.0042 I0.0019 J-0.0046
X3.0667 Y1.1296 Z-0.0048 I-0.0019 J0.0046
X3.0705 Y1.1204 Z-0.0053 I0.0019 J-0.0046
X3.0667 Y1.1296 Z-0.0059 I-0.0019 J0.0046
X3.0705 Y1.1204 Z-0.0064 I0.0019 J-0.0046
X3.0667 Y1.1296 Z-0.007 I-0.0019 J0.0046
X3.0705 Y1.1204 Z-0.0075 I0.0019 J-0.0046
X3.0667 Y1.1296 Z-0.0081 I-0.0019 J0.0046
X3.0705 Y1.1204 Z-0.0086 I0.0019 J-0.0046
X3.0667 Y1.1296 Z-0.0092 I-0.0019 J0.0046
X3.0705 Y1.1204 Z-0.0097 I0.0019 J-0.0046
X3.0667 Y1.1296 Z-0.0103 I-0.0019 J0.0046
X3.0705 Y1.1204 Z-0.0108 I0.0019 J-0.0046
X3.0667 Y1.1296 Z-0.0114 I-0.0019 J0.0046
X3.0705 Y1.1204 Z-0.0119 I0.0019 J-0.0046
X3.0667 Y1.1296 Z-0.0124 I-0.0019 J0.0046
X3.0705 Y1.1204 Z-0.013 I0.0019 J-0.0046
X3.0667 Y1.1296 Z-0.0135 I-0.0019 J0.0046
X3.0705 Y1.1204 Z-0.0141 I0.0019 J-0.0046
X3.0667 Y1.1296 Z-0.0146 I-0.0019 J0.0046
X3.0705 Y1.1204 Z-0.0152 I0.0019 J-0.0046
X3.0667 Y1.1296 Z-0.0157 I-0.0019 J0.0046
X3.0705 Y1.1204 Z-0.0163 I0.0019 J-0.0046
X3.0667 Y1.1296 Z-0.0168 I-0.0019 J0.0046
X3.0705 Y1.1204 Z-0.0174 I0.0019 J-0.0046
X3.0667 Y1.1296 Z-0.0179 I-0.0019 J0.0046
X3.0705 Y1.1204 Z-0.0185 I0.0019 J-0.0046
X3.0667 Y1.1296 Z-0.019 I-0.0019 J0.0046
X3.0705 Y1.1204 Z-0.0196 I0.0019 J-0.0046
X3.0667 Y1.1296 Z-0.0201 I-0.0019 J0.0046
X3.0705 Y1.1204 Z-0.0207 I0.0019 J-0.0046
X3.0667 Y1.1296 Z-0.0212 I-0.0019 J0.0046
X3.0705 Y1.1204 Z-0.0218 I0.0019 J-0.0046
X3.0667 Y1.1296 Z-0.0223 I-0.0019 J0.0046
X3.0705 Y1.1204 Z-0.0229 I0.0019 J-0.0046
X3.0667 Y1.1296 Z-0.0234 I-0.0019 J0.0046
X3.0705 Y1.1204 Z-0.024 I0.0019 J-0.0046
X3.0667 Y1.1296 Z-0.0245 I-0.0019 J0.0046
X3.0705 Y1.1204 Z-0.0251 I0.0019 J-0.0046
X3.0667 Y1.1296 Z-0.0256 I-0.0019 J0.0046
X3.0705 Y1.1204 Z-0.0262 I0.0019 J-0.0046
X3.0667 Y1.1296 Z-0.0267 I-0.0019 J0.0046
X3.0705 Y1.1204 Z-0.0273 I0.0019 J-0.0046
X3.0667 Y1.1296 Z-0.0278 I-0.0019 J0.0046
X3.0705 Y1.1204 Z-0.0284 I0.0019 J-0.0046
X3.0667 Y1.1296 Z-0.0289 I-0.0019 J0.0046
X3.0705 Y1.1204 Z-0.0295 I0.0019 J-0.0046
X3.0667 Y1.1296 Z-0.03 I-0.0019 J0.0046
X3.0705 Y1.1204 Z-0.0306 I0.0019 J-0.0046
X3.0667 Y1.1296 Z-0.0311 I-0.0019 J0.0046
X3.0705 Y1.1204 Z-0.0316 I0.0019 J-0.0046
X3.0667 Y1.1296 Z-0.0322 I-0.0019 J0.0046
X3.0705 Y1.1204 Z-0.0327 I0.0019 J-0.0046
X3.0667 Y1.1296 Z-0.0333 I-0.0019 J0.0046
X3.0705 Y1.1204 Z-0.0338 I0.0019 J-0.0046
X3.0667 Y1.1296 Z-0.0344 I-0.0019 J0.0046
X3.0705 Y1.1204 Z-0.0349 I0.0019 J-0.0046
X3.0667 Y1.1296 Z-0.0355 I-0.0019 J0.0046
X3.0705 Y1.1204 Z-0.036 I0.0019 J-0.0046
X3.0667 Y1.1296 Z-0.0366 I-0.0019 J0.0046
X3.0705 Y1.1204 Z-0.0371 I0.0019 J-0.0046
X3.0667 Y1.1296 Z-0.0377 I-0.0019 J0.0046
X3.0705 Y1.1204 Z-0.0382 I0.0019 J-0.0046
X3.0667 Y1.1296 Z-0.0388 I-0.0019 J0.0046
X3.0705 Y1.1204 Z-0.0393 I0.0019 J-0.0046
X3.0667 Y1.1296 Z-0.0399 I-0.0019 J0.0046
X3.0705 Y1.1204 Z-0.0404 I0.0019 J-0.0046
X3.0667 Y1.1296 Z-0.041 I-0.0019 J0.0046
X3.0705 Y1.1204 Z-0.0415 I0.0019 J-0.0046
X3.0667 Y1.1296 Z-0.0421 I-0.0019 J0.0046
X3.0705 Y1.1204 Z-0.0426 I0.0019 J-0.0046
X3.0667 Y1.1296 Z-0.0432 I-0.0019 J0.0046
X3.0705 Y1.1204 Z-0.0437 I0.0019 J-0.0046
X3.0667 Y1.1296 Z-0.0443 I-0.0019 J0.0046
X3.0705 Y1.1204 Z-0.0448 I0.0019 J-0.0046
X3.0667 Y1.1296 Z-0.0454 I-0.0019 J0.0046
X3.0705 Y1.1204 Z-0.0459 I0.0019 J-0.0046
X3.0667 Y1.1296 Z-0.0465 I-0.0019 J0.0046
X3.0705 Y1.1204 Z-0.047 I0.0019 J-0.0046
X3.0667 Y1.1296 Z-0.0476 I-0.0019 J0.0046
X3.0705 Y1.1204 Z-0.0481 I0.0019 J-0.0046
X3.0667 Y1.1296 Z-0.0487 I-0.0019 J0.0046
X3.0705 Y1.1204 Z-0.0492 I0.0019 J-0.0046
X3.0667 Y1.1296 Z-0.0497 I-0.0019 J0.0046
X3.0705 Y1.1204 Z-0.0503 I0.0019 J-0.0046
X3.0667 Y1.1296 Z-0.0508 I-0.0019 J0.0046
X3.0705 Y1.1204 Z-0.0514 I0.0019 J-0.0046
X3.0667 Y1.1296 Z-0.0519 I-0.0019 J0.0046
X3.0705 Y1.1204 Z-0.0525 I0.0019 J-0.0046
X3.0667 Y1.1296 Z-0.053 I-0.0019 J0.0046
X3.0705 Y1.1204 Z-0.0536 I0.0019 J-0.0046
X3.0667 Y1.1296 Z-0.0541 I-0.0019 J0.0046
X3.0705 Y1.1204 Z-0.0547 I0.0019 J-0.0046
X3.0667 Y1.1296 Z-0.0552 I-0.0019 J0.0046
X3.0705 Y1.1204 Z-0.0558 I0.0019 J-0.0046
X3.0667 Y1.1296 Z-0.0563 I-0.0019 J0.0046
X3.0705 Y1.1204 Z-0.0569 I0.0019 J-0.0046
X3.0667 Y1.1296 Z-0.0574 I-0.0019 J0.0046
X3.0705 Y1.1204 Z-0.058 I0.0019 J-0.0046
X3.0667 Y1.1296 Z-0.0585 I-0.0019 J0.0046
X3.0705 Y1.1204 Z-0.0591 I0.0019 J-0.0046
X3.0667 Y1.1296 Z-0.0596 I-0.0019 J0.0046
X3.0705 Y1.1204 Z-0.0602 I0.0019 J-0.0046
X3.0667 Y1.1296 Z-0.0607 I-0.0019 J0.0046
X3.0705 Y1.1204 Z-0.0613 I0.0019 J-0.0046
X3.0667 Y1.1296 Z-0.0618 I-0.0019 J0.0046
X3.0705 Y1.1204 Z-0.0624 I0.0019 J-0.0046
X3.0667 Y1.1296 Z-0.0629 I-0.0019 J0.0046
X3.0705 Y1.1204 Z-0.0635 I0.0019 J-0.0046
X3.0667 Y1.1296 Z-0.064 I-0.0019 J0.0046
X3.0705 Y1.1204 Z-0.0646 I0.0019 J-0.0046
X3.0667 Y1.1296 Z-0.0651 I-0.0019 J0.0046
X3.0705 Y1.1204 Z-0.0657 I0.0019 J-0.0046
X3.0667 Y1.1296 Z-0.0662 I-0.0019 J0.0046
X3.0705 Y1.1204 Z-0.0668 I0.0019 J-0.0046
X3.0667 Y1.1296 Z-0.0673 I-0.0019 J0.0046
X3.0705 Y1.1204 Z-0.0679 I0.0019 J-0.0046
X3.0667 Y1.1296 Z-0.0684 I-0.0019 J0.0046
X3.0705 Y1.1204 Z-0.0689 I0.0019 J-0.0046
X3.0667 Y1.1296 Z-0.0695 I-0.0019 J0.0046
X3.0705 Y1.1204 Z-0.07 I0.0019 J-0.0046
X3.0667 Y1.1296 Z-0.0706 I-0.0019 J0.0046
X3.0705 Y1.1204 Z-0.0711 I0.0019 J-0.0046
X3.0667 Y1.1296 Z-0.0717 I-0.0019 J0.0046
X3.0705 Y1.1204 Z-0.0722 I0.0019 J-0.0046
X3.0667 Y1.1296 Z-0.0728 I-0.0019 J0.0046
X3.0705 Y1.1204 Z-0.0733 I0.0019 J-0.0046
X3.0667 Y1.1296 Z-0.0739 I-0.0019 J0.0046
X3.0705 Y1.1204 Z-0.0744 I0.0019 J-0.0046
X3.0667 Y1.1296 Z-0.075 I-0.0019 J0.0046
X3.0705 Y1.1204 Z-0.0755 I0.0019 J-0.0046
X3.0667 Y1.1296 Z-0.0761 I-0.0019 J0.0046
X3.0705 Y1.1204 Z-0.0766 I0.0019 J-0.0046
X3.0667 Y1.1296 Z-0.0772 I-0.0019 J0.0046
X3.0705 Y1.1204 Z-0.0777 I0.0019 J-0.0046
X3.0667 Y1.1296 Z-0.0783 I-0.0019 J0.0046
X3.0705 Y1.1204 Z-0.0788 I0.0019 J-0.0046
X3.0667 Y1.1296 Z-0.0794 I-0.0019 J0.0046
X3.0705 Y1.1204 Z-0.0799 I0.0019 J-0.0046
X3.0667 Y1.1296 Z-0.0805 I-0.0019 J0.0046
X3.0705 Y1.1204 Z-0.081 I0.0019 J-0.0046
X3.0667 Y1.1296 Z-0.0816 I-0.0019 J0.0046
X3.0705 Y1.1204 Z-0.0821 I0.0019 J-0.0046
X3.0667 Y1.1296 Z-0.0827 I-0.0019 J0.0046
X3.0705 Y1.1204 Z-0.0832 I0.0019 J-0.0046
X3.0667 Y1.1296 Z-0.0838 I-0.0019 J0.0046
X3.0705 Y1.1204 Z-0.0843 I0.0019 J-0.0046
X3.0667 Y1.1296 Z-0.0849 I-0.0019 J0.0046
X3.0705 Y1.1204 Z-0.0854 I0.0019 J-0.0046
X3.0667 Y1.1296 Z-0.086 I-0.0019 J0.0046
X3.0705 Y1.1204 Z-0.0865 I0.0019 J-0.0046
X3.0667 Y1.1296 Z-0.0871 I-0.0019 J0.0046
X3.0705 Y1.1204 Z-0.0876 I0.0019 J-0.0046
X3.0667 Y1.1296 Z-0.0881 I-0.0019 J0.0046
X3.0705 Y1.1204 Z-0.0887 I0.0019 J-0.0046
X3.0667 Y1.1296 Z-0.0892 I-0.0019 J0.0046
X3.0705 Y1.1204 Z-0.0898 I0.0019 J-0.0046
X3.0667 Y1.1296 Z-0.0903 I-0.0019 J0.0046
X3.0705 Y1.1204 Z-0.0909 I0.0019 J-0.0046
X3.0667 Y1.1296 Z-0.0914 I-0.0019 J0.0046
X3.0705 Y1.1204 Z-0.092 I0.0019 J-0.0046
X3.0667 Y1.1296 Z-0.0925 I-0.0019 J0.0046
X3.0705 Y1.1204 Z-0.0931 I0.0019 J-0.0046
X3.0667 Y1.1296 Z-0.0936 I-0.0019 J0.0046
X3.0705 Y1.1204 Z-0.0942 I0.0019 J-0.0046
X3.0667 Y1.1296 Z-0.0947 I-0.0019 J0.0046
X3.0705 Y1.1204 Z-0.0953 I0.0019 J-0.0046
X3.0667 Y1.1296 Z-0.0958 I-0.0019 J0.0046
X3.0705 Y1.1204 Z-0.0964 I0.0019 J-0.0046
X3.0667 Y1.1296 Z-0.0969 I-0.0019 J0.0046
X3.0705 Y1.1204 Z-0.0975 I0.0019 J-0.0046
X3.0667 Y1.1296 Z-0.098 I-0.0019 J0.0046
X3.0705 Y1.1204 Z-0.0986 I0.0019 J-0.0046
X3.0667 Y1.1296 Z-0.0991 I-0.0019 J0.0046
X3.0705 Y1.1204 Z-0.0997 I0.0019 J-0.0046
X3.0667 Y1.1296 Z-0.1002 I-0.0019 J0.0046
X3.0705 Y1.1204 Z-0.1008 I0.0019 J-0.0046
X3.0667 Y1.1296 Z-0.1013 I-0.0019 J0.0046
X3.0705 Y1.1204 Z-0.1019 I0.0019 J-0.0046
X3.0667 Y1.1296 Z-0.1024 I-0.0019 J0.0046
X3.0705 Y1.1204 Z-0.103 I0.0019 J-0.0046
X3.0667 Y1.1296 Z-0.1035 I-0.0019 J0.0046
X3.0705 Y1.1204 Z-0.1041 I0.0019 J-0.0046
X3.0667 Y1.1296 Z-0.1046 I-0.0019 J0.0046
X3.0705 Y1.1204 Z-0.1052 I0.0019 J-0.0046
X3.0667 Y1.1296 Z-0.1057 I-0.0019 J0.0046
X3.0705 Y1.1204 Z-0.1062 I0.0019 J-0.0046
X3.0667 Y1.1296 Z-0.1068 I-0.0019 J0.0046
X3.0705 Y1.1204 Z-0.1073 I0.0019 J-0.0046
X3.0667 Y1.1296 Z-0.1079 I-0.0019 J0.0046
X3.0705 Y1.1204 Z-0.1084 I0.0019 J-0.0046
X3.0667 Y1.1296 Z-0.109 I-0.0019 J0.0046
X3.0705 Y1.1204 Z-0.1095 I0.0019 J-0.0046
X3.0667 Y1.1296 Z-0.1101 I-0.0019 J0.0046
X3.0705 Y1.1204 Z-0.1106 I0.0019 J-0.0046
X3.0667 Y1.1296 Z-0.1112 I-0.0019 J0.0046
X3.0705 Y1.1204 Z-0.1117 I0.0019 J-0.0046
X3.0667 Y1.1296 Z-0.1123 I-0.0019 J0.0046
X3.0705 Y1.1204 Z-0.1128 I0.0019 J-0.0046
X3.0667 Y1.1296 Z-0.1134 I-0.0019 J0.0046
X3.0705 Y1.1204 Z-0.1139 I0.0019 J-0.0046
X3.0667 Y1.1296 Z-0.1145 I-0.0019 J0.0046
X3.0705 Y1.1204 Z-0.115 I0.0019 J-0.0046
X3.0667 Y1.1296 Z-0.1156 I-0.0019 J0.0046
X3.0705 Y1.1204 Z-0.1161 I0.0019 J-0.0046
X3.0667 Y1.1296 Z-0.1167 I-0.0019 J0.0046
X3.0705 Y1.1204 Z-0.1172 I0.0019 J-0.0046
X3.0667 Y1.1296 Z-0.1178 I-0.0019 J0.0046
X3.0705 Y1.1204 Z-0.1183 I0.0019 J-0.0046
X3.0667 Y1.1296 Z-0.1189 I-0.0019 J0.0046
X3.0705 Y1.1204 Z-0.1194 I0.0019 J-0.0046
X3.0667 Y1.1296 Z-0.12 I-0.0019 J0.0046
X3.0705 Y1.1204 Z-0.1205 I0.0019 J-0.0046
X3.0667 Y1.1296 Z-0.1211 I-0.0019 J0.0046
X3.0705 Y1.1204 Z-0.1216 I0.0019 J-0.0046
X3.0667 Y1.1296 Z-0.1222 I-0.0019 J0.0046
X3.0705 Y1.1204 Z-0.1227 I0.0019 J-0.0046
X3.0667 Y1.1296 Z-0.1233 I-0.0019 J0.0046
X3.0705 Y1.1204 Z-0.1238 I0.0019 J-0.0046
X3.0667 Y1.1296 Z-0.1244 I-0.0019 J0.0046
X3.0705 Y1.1204 Z-0.1249 I0.0019 J-0.0046
X3.0667 Y1.1296 Z-0.1254 I-0.0019 J0.0046
X3.0705 Y1.1204 Z-0.126 I0.0019 J-0.0046
X3.0667 Y1.1296 Z-0.1265 I-0.0019 J0.0046
X3.0705 Y1.1204 Z-0.1271 I0.0019 J-0.0046
X3.0667 Y1.1296 Z-0.1276 I-0.0019 J0.0046
X3.0705 Y1.1204 Z-0.1282 I0.0019 J-0.0046
X3.0667 Y1.1296 Z-0.1287 I-0.0019 J0.0046
X3.0705 Y1.1204 Z-0.1293 I0.0019 J-0.0046
X3.0667 Y1.1296 Z-0.1298 I-0.0019 J0.0046
X3.0705 Y1.1204 Z-0.1304 I0.0019 J-0.0046
X3.0667 Y1.1296 Z-0.1309 I-0.0019 J0.0046
X3.0705 Y1.1204 Z-0.1315 I0.0019 J-0.0046
X3.0667 Y1.1296 Z-0.132 I-0.0019 J0.0046
X3.0705 Y1.1204 Z-0.1326 I0.0019 J-0.0046
X3.0667 Y1.1296 Z-0.1331 I-0.0019 J0.0046
X3.0705 Y1.1204 Z-0.1337 I0.0019 J-0.0046
X3.0667 Y1.1296 Z-0.1342 I-0.0019 J0.0046
X3.0705 Y1.1204 Z-0.1348 I0.0019 J-0.0046
X3.0667 Y1.1296 Z-0.1353 I-0.0019 J0.0046
X3.0705 Y1.1204 Z-0.1359 I0.0019 J-0.0046
X3.0667 Y1.1296 Z-0.1364 I-0.0019 J0.0046
X3.0705 Y1.1204 Z-0.137 I0.0019 J-0.0046
X3.0667 Y1.1296 Z-0.1375 I-0.0019 J0.0046
X3.0705 Y1.1204 Z-0.1381 I0.0019 J-0.0046
X3.0667 Y1.1296 Z-0.1386 I-0.0019 J0.0046
X3.0705 Y1.1204 Z-0.1392 I0.0019 J-0.0046
X3.0667 Y1.1296 Z-0.1397 I-0.0019 J0.0046
X3.0705 Y1.1204 Z-0.1403 I0.0019 J-0.0046
X3.0667 Y1.1296 Z-0.1408 I-0.0019 J0.0046
X3.0705 Y1.1204 Z-0.1414 I0.0019 J-0.0046
X3.0667 Y1.1296 Z-0.1419 I-0.0019 J0.0046
X3.0705 Y1.1204 Z-0.1425 I0.0019 J-0.0046
X3.0667 Y1.1296 Z-0.143 I-0.0019 J0.0046
X3.0705 Y1.1204 Z-0.1435 I0.0019 J-0.0046
X3.0667 Y1.1296 Z-0.1441 I-0.0019 J0.0046
X3.0705 Y1.1204 Z-0.1446 I0.0019 J-0.0046
X3.0667 Y1.1296 Z-0.1452 I-0.0019 J0.0046
X3.0705 Y1.1204 Z-0.1457 I0.0019 J-0.0046
X3.0667 Y1.1296 Z-0.1463 I-0.0019 J0.0046
X3.0705 Y1.1204 Z-0.1468 I0.0019 J-0.0046
X3.0667 Y1.1296 Z-0.1474 I-0.0019 J0.0046
X3.0705 Y1.1204 Z-0.1479 I0.0019 J-0.0046
X3.0667 Y1.1296 Z-0.1485 I-0.0019 J0.0046
X3.0705 Y1.1204 Z-0.149 I0.0019 J-0.0046
X3.0667 Y1.1296 Z-0.1496 I-0.0019 J0.0046
X3.0705 Y1.1204 Z-0.1501 I0.0019 J-0.0046
X3.0667 Y1.1296 Z-0.1507 I-0.0019 J0.0046
X3.0705 Y1.1204 Z-0.1512 I0.0019 J-0.0046
X3.0667 Y1.1296 Z-0.1518 I-0.0019 J0.0046
X3.0705 Y1.1204 Z-0.1523 I0.0019 J-0.0046
X3.0667 Y1.1296 Z-0.1529 I-0.0019 J0.0046
X3.0705 Y1.1204 Z-0.1534 I0.0019 J-0.0046
