(X8 SPOOL SHAFT BEARING BLOCK COMPLETE)
(T3  D=0.118 CR=0. - ZMIN=-1.04 - FLAT END MILL)
G90 G94 G91.1 G40 G49 G17
G20

(2D POCKET1)
M5
T3 M6
S15000 M3
G54
M8
G0 X1.1385 Y0.7656
G43 Z0.6 H3
Z0.2
G1 Z0.1118 F40.
X1.1393 Y0.7661 Z0.1072 F30.
X1.1415 Y0.7674 Z0.1034
X1.1447 Y0.7697 Z0.1008
X1.1478 Y0.7721 Z0.1
G3 X1.0743 Y0.8569 Z0.0939 I-0.0367 J0.0424
X1.1478 Y0.7721 Z0.0877 I0.0367 J-0.0424
X1.0743 Y0.8569 Z0.0816 I-0.0367 J0.0424
X1.1478 Y0.7721 Z0.0754 I0.0367 J-0.0424
X1.0743 Y0.8569 Z0.0693 I-0.0367 J0.0424
X1.1478 Y0.7721 Z0.0631 I0.0367 J-0.0424
X1.0743 Y0.8569 Z0.057 I-0.0367 J0.0424
X1.1478 Y0.7721 Z0.0508 I0.0367 J-0.0424
X1.0743 Y0.8569 Z0.0447 I-0.0367 J0.0424
X1.1478 Y0.7721 Z0.0385 I0.0367 J-0.0424
X1.0743 Y0.8569 Z0.0324 I-0.0367 J0.0424
X1.1478 Y0.7721 Z0.0262 I0.0367 J-0.0424
X1.0743 Y0.8569 Z0.0201 I-0.0367 J0.0424
X1.1478 Y0.7721 Z0.0139 I0.0367 J-0.0424
X1.0743 Y0.8569 Z0.0078 I-0.0367 J0.0424
X1.1478 Y0.7721 Z0.0016 I0.0367 J-0.0424
X1.0743 Y0.8569 Z-0.0045 I-0.0367 J0.0424
X1.1478 Y0.7721 Z-0.0107 I0.0367 J-0.0424
X1.0743 Y0.8569 Z-0.0168 I-0.0367 J0.0424
X1.1478 Y0.7721 Z-0.023 I0.0367 J-0.0424
X1.0743 Y0.8569 Z-0.0291 I-0.0367 J0.0424
X1.1478 Y0.7721 Z-0.0353 I0.0367 J-0.0424
X1.0743 Y0.8569 Z-0.0414 I-0.0367 J0.0424
X1.1478 Y0.7721 Z-0.0476 I0.0367 J-0.0424
X1.0743 Y0.8569 Z-0.0537 I-0.0367 J0.0424
X1.1478 Y0.7721 Z-0.0599 I0.0367 J-0.0424
X1.0743 Y0.8569 Z-0.066 I-0.0367 J0.0424
X1.1478 Y0.7721 Z-0.0722 I0.0367 J-0.0424
X1.0743 Y0.8569 Z-0.0783 I-0.0367 J0.0424
X1.055 Y0.8145 Z-0.08 I0.0367 J-0.0424
G1 X1.0552 Y0.8139 F40.
X1.0557 Y0.8135
X1.0564
X1.0569 Y0.8139
X1.0571 Y0.8145
G3 X0.9429 I-0.0571 J0.
X1.1692 I0.1132 J0.
X0.8308 I-0.1692 J0.
X1.2813 I0.2252 J0.
X0.7187 I-0.2813 J0.
X1.3934 I0.3373 J0.
X0.6066 I-0.3934 J0.
X1.5055 I0.4494 J0.
X0.4945 I-0.5055 J0.
X1.5055 I0.5055 J0.
G1 X1.5052 Y0.8163
X1.5044 Y0.818
X1.503 Y0.8193
X1.5014 Y0.8201
X1.4995 Y0.8204
X1.1671 Y0.8163
X1.1635 Y0.8183
G3 X1.1589 Y0.8075 I-0.0023 J-0.0054
X1.1671 Y0.8127 I0.0023 J0.0054
X1.055 Y0.8163 Z-0.0861 I-0.056 J0.0018 F30.
X1.1671 Y0.8127 Z-0.0923 I0.056 J-0.0018
X1.055 Y0.8163 Z-0.0984 I-0.056 J0.0018
X1.1671 Y0.8127 Z-0.1046 I0.056 J-0.0018
X1.055 Y0.8163 Z-0.1107 I-0.056 J0.0018
X1.1671 Y0.8127 Z-0.1169 I0.056 J-0.0018
X1.055 Y0.8163 Z-0.123 I-0.056 J0.0018
X1.1671 Y0.8127 Z-0.1292 I0.056 J-0.0018
X1.055 Y0.8163 Z-0.1353 I-0.056 J0.0018
X1.1671 Y0.8127 Z-0.1415 I0.056 J-0.0018
X1.055 Y0.8163 Z-0.1476 I-0.056 J0.0018
X1.1671 Y0.8127 Z-0.1538 I0.056 J-0.0018
X1.1119 Y0.8705 Z-0.1569 I-0.056 J0.0018
X1.055 Y0.8145 Z-0.16 I-0.0009 J-0.056
G1 X1.0552 Y0.8139 F40.
X1.0557 Y0.8135
X1.0564
X1.0569 Y0.8139
X1.0571 Y0.8145
G3 X0.9429 I-0.0571 J0.
X1.1692 I0.1132 J0.
X0.8308 I-0.1692 J0.
X1.2813 I0.2252 J0.
X0.7187 I-0.2813 J0.
X1.3934 I0.3373 J0.
X0.6066 I-0.3934 J0.
X1.5055 I0.4494 J0.
X0.4945 I-0.5055 J0.
X1.5055 I0.5055 J0.
G1 X1.5052 Y0.8163
X1.5044 Y0.818
X1.503 Y0.8193
X1.5014 Y0.8201
X1.4995 Y0.8204
X1.1671 Y0.8163
X1.1635 Y0.8183
G3 X1.1589 Y0.8075 I-0.0023 J-0.0054
X1.1671 Y0.8127 I0.0023 J0.0054
X1.055 Y0.8163 Z-0.1661 I-0.056 J0.0018 F30.
X1.1671 Y0.8127 Z-0.1723 I0.056 J-0.0018
X1.055 Y0.8163 Z-0.1784 I-0.056 J0.0018
X1.1671 Y0.8127 Z-0.1846 I0.056 J-0.0018
X1.055 Y0.8163 Z-0.1907 I-0.056 J0.0018
X1.1671 Y0.8127 Z-0.1969 I0.056 J-0.0018
X1.055 Y0.8163 Z-0.203 I-0.056 J0.0018
X1.1671 Y0.8127 Z-0.2092 I0.056 J-0.0018
X1.055 Y0.8163 Z-0.2153 I-0.056 J0.0018
X1.1671 Y0.8127 Z-0.2215 I0.056 J-0.0018
X1.055 Y0.8163 Z-0.2276 I-0.056 J0.0018
X1.1671 Y0.8127 Z-0.2338 I0.056 J-0.0018
X1.1119 Y0.8705 Z-0.2369 I-0.056 J0.0018
X1.055 Y0.8145 Z-0.24 I-0.0009 J-0.056
G1 X1.0552 Y0.8139 F40.
X1.0557 Y0.8135
X1.0564
X1.0569 Y0.8139
X1.0571 Y0.8145
G3 X0.9429 I-0.0571 J0.
X1.1692 I0.1132 J0.
X0.8308 I-0.1692 J0.
X1.2813 I0.2252 J0.
X0.7187 I-0.2813 J0.
X1.3934 I0.3373 J0.
X0.6066 I-0.3934 J0.
X1.5055 I0.4494 J0.
X0.4945 I-0.5055 J0.
X1.5055 I0.5055 J0.
G1 X1.5052 Y0.8163
X1.5044 Y0.818
X1.503 Y0.8193
X1.5014 Y0.8201
X1.4995 Y0.8204
X1.1671 Y0.8163
X1.1635 Y0.8183
G3 X1.1589 Y0.8075 I-0.0023 J-0.0054
X1.1671 Y0.8127 I0.0023 J0.0054
X1.055 Y0.8163 Z-0.2461 I-0.056 J0.0018 F30.
X1.1671 Y0.8127 Z-0.2523 I0.056 J-0.0018
X1.055 Y0.8163 Z-0.2584 I-0.056 J0.0018
X1.1671 Y0.8127 Z-0.2646 I0.056 J-0.0018
X1.055 Y0.8163 Z-0.2707 I-0.056 J0.0018
X1.1671 Y0.8127 Z-0.2769 I0.056 J-0.0018
X1.055 Y0.8163 Z-0.283 I-0.056 J0.0018
X1.1671 Y0.8127 Z-0.2892 I0.056 J-0.0018
X1.055 Y0.8163 Z-0.2953 I-0.056 J0.0018
X1.1671 Y0.8127 Z-0.3015 I0.056 J-0.0018
X1.055 Y0.8163 Z-0.3076 I-0.056 J0.0018
X1.1671 Y0.8127 Z-0.3138 I0.056 J-0.0018
X1.1119 Y0.8705 Z-0.3169 I-0.056 J0.0018
X1.055 Y0.8145 Z-0.32 I-0.0009 J-0.056
G1 X1.0552 Y0.8139 F40.
X1.0557 Y0.8135
X1.0564
X1.0569 Y0.8139
X1.0571 Y0.8145
G3 X0.9429 I-0.0571 J0.
X1.1692 I0.1132 J0.
X0.8308 I-0.1692 J0.
X1.2813 I0.2252 J0.
X0.7187 I-0.2813 J0.
X1.3934 I0.3373 J0.
X0.6066 I-0.3934 J0.
X1.5055 I0.4494 J0.
X0.4945 I-0.5055 J0.
X1.5055 I0.5055 J0.
G1 X1.5052 Y0.8163
X1.5044 Y0.818
X1.503 Y0.8193
X1.5014 Y0.8201
X1.4995 Y0.8204
X1.1671 Y0.8163
X1.1635 Y0.8183
G3 X1.1589 Y0.8075 I-0.0023 J-0.0054
X1.1671 Y0.8127 I0.0023 J0.0054
X1.055 Y0.8163 Z-0.3261 I-0.056 J0.0018 F30.
X1.1671 Y0.8127 Z-0.3323 I0.056 J-0.0018
X1.055 Y0.8163 Z-0.3384 I-0.056 J0.0018
X1.1671 Y0.8127 Z-0.3446 I0.056 J-0.0018
X1.055 Y0.8163 Z-0.3507 I-0.056 J0.0018
X1.1671 Y0.8127 Z-0.3569 I0.056 J-0.0018
X1.055 Y0.8163 Z-0.363 I-0.056 J0.0018
X1.1671 Y0.8127 Z-0.3692 I0.056 J-0.0018
X1.055 Y0.8163 Z-0.3753 I-0.056 J0.0018
X1.1671 Y0.8127 Z-0.3815 I0.056 J-0.0018
X1.055 Y0.8163 Z-0.3876 I-0.056 J0.0018
X1.1671 Y0.8127 Z-0.3938 I0.056 J-0.0018
X1.1119 Y0.8705 Z-0.3969 I-0.056 J0.0018
X1.055 Y0.8145 Z-0.4 I-0.0009 J-0.056
G1 X1.0552 Y0.8139 F40.
X1.0557 Y0.8135
X1.0564
X1.0569 Y0.8139
X1.0571 Y0.8145
G3 X0.9429 I-0.0571 J0.
X1.1692 I0.1132 J0.
X0.8308 I-0.1692 J0.
X1.2813 I0.2252 J0.
X0.7187 I-0.2813 J0.
X1.3934 I0.3373 J0.
X0.6066 I-0.3934 J0.
X1.5055 I0.4494 J0.
X0.4945 I-0.5055 J0.
X1.5055 I0.5055 J0.
G1 X1.5052 Y0.8163
X1.5044 Y0.818
X1.503 Y0.8193
X1.5014 Y0.8201
X1.4995 Y0.8204
X1.1671 Y0.8163
X1.1635 Y0.8183
G3 X1.1589 Y0.8075 I-0.0023 J-0.0054
X1.1671 Y0.8127 I0.0023 J0.0054
X1.055 Y0.8163 Z-0.4061 I-0.056 J0.0018 F30.
X1.1671 Y0.8127 Z-0.4123 I0.056 J-0.0018
X1.055 Y0.8163 Z-0.4184 I-0.056 J0.0018
X1.1671 Y0.8127 Z-0.4246 I0.056 J-0.0018
X1.055 Y0.8163 Z-0.4307 I-0.056 J0.0018
X1.1671 Y0.8127 Z-0.4369 I0.056 J-0.0018
X1.055 Y0.8163 Z-0.443 I-0.056 J0.0018
X1.1671 Y0.8127 Z-0.4492 I0.056 J-0.0018
X1.055 Y0.8163 Z-0.4553 I-0.056 J0.0018
X1.1671 Y0.8127 Z-0.4615 I0.056 J-0.0018
X1.055 Y0.8163 Z-0.4676 I-0.056 J0.0018
X1.1671 Y0.8127 Z-0.4738 I0.056 J-0.0018
X1.1119 Y0.8705 Z-0.4769 I-0.056 J0.0018
X1.055 Y0.8145 Z-0.48 I-0.0009 J-0.056
G1 X1.0552 Y0.8139 F40.
X1.0557 Y0.8135
X1.0564
X1.0569 Y0.8139
X1.0571 Y0.8145
G3 X0.9429 I-0.0571 J0.
X1.1692 I0.1132 J0.
X0.8308 I-0.1692 J0.
X1.2813 I0.2252 J0.
X0.7187 I-0.2813 J0.
X1.3934 I0.3373 J0.
X0.6066 I-0.3934 J0.
X1.5055 I0.4494 J0.
X0.4945 I-0.5055 J0.
X1.5055 I0.5055 J0.
G1 X1.5052 Y0.8163
X1.5044 Y0.818
X1.503 Y0.8193
X1.5014 Y0.8201
X1.4995 Y0.8204
X1.1671 Y0.8163
X1.1635 Y0.8183
G3 X1.1589 Y0.8075 I-0.0023 J-0.0054
X1.1671 Y0.8127 I0.0023 J0.0054
X1.055 Y0.8163 Z-0.4861 I-0.056 J0.0018 F30.
X1.1671 Y0.8127 Z-0.4923 I0.056 J-0.0018
X1.055 Y0.8163 Z-0.4984 I-0.056 J0.0018
X1.1671 Y0.8127 Z-0.5046 I0.056 J-0.0018
X1.055 Y0.8163 Z-0.5107 I-0.056 J0.0018
X1.1671 Y0.8127 Z-0.5169 I0.056 J-0.0018
X1.055 Y0.8163 Z-0.523 I-0.056 J0.0018
X1.1671 Y0.8127 Z-0.5292 I0.056 J-0.0018
X1.055 Y0.8163 Z-0.5353 I-0.056 J0.0018
X1.1671 Y0.8127 Z-0.5415 I0.056 J-0.0018
X1.055 Y0.8163 Z-0.5476 I-0.056 J0.0018
X1.1671 Y0.8127 Z-0.5538 I0.056 J-0.0018
X1.1119 Y0.8705 Z-0.5569 I-0.056 J0.0018
X1.055 Y0.8145 Z-0.56 I-0.0009 J-0.056
G1 X1.0552 Y0.8139 F40.
X1.0557 Y0.8135
X1.0564
X1.0569 Y0.8139
X1.0571 Y0.8145
G3 X0.9429 I-0.0571 J0.
X1.1692 I0.1132 J0.
X0.8308 I-0.1692 J0.
X1.2813 I0.2252 J0.
X0.7187 I-0.2813 J0.
X1.3934 I0.3373 J0.
X0.6066 I-0.3934 J0.
X1.5055 I0.4494 J0.
X0.4945 I-0.5055 J0.
X1.5055 I0.5055 J0.
G1 X1.5052 Y0.8163
X1.5044 Y0.818
X1.503 Y0.8193
X1.5014 Y0.8201
X1.4995 Y0.8204
X1.1671 Y0.8163
X1.1635 Y0.8183
G3 X1.1589 Y0.8075 I-0.0023 J-0.0054
X1.1671 Y0.8127 I0.0023 J0.0054
X1.055 Y0.8163 Z-0.5661 I-0.056 J0.0018 F30.
X1.1671 Y0.8127 Z-0.5723 I0.056 J-0.0018
X1.055 Y0.8163 Z-0.5784 I-0.056 J0.0018
X1.1671 Y0.8127 Z-0.5846 I0.056 J-0.0018
X1.055 Y0.8163 Z-0.5907 I-0.056 J0.0018
X1.1671 Y0.8127 Z-0.5969 I0.056 J-0.0018
X1.055 Y0.8163 Z-0.603 I-0.056 J0.0018
X1.1671 Y0.8127 Z-0.6092 I0.056 J-0.0018
X1.055 Y0.8163 Z-0.6153 I-0.056 J0.0018
X1.1671 Y0.8127 Z-0.6215 I0.056 J-0.0018
X1.055 Y0.8163 Z-0.6276 I-0.056 J0.0018
X1.1671 Y0.8127 Z-0.6338 I0.056 J-0.0018
X1.1119 Y0.8705 Z-0.6369 I-0.056 J0.0018
X1.055 Y0.8145 Z-0.64 I-0.0009 J-0.056
G1 X1.0552 Y0.8139 F40.
X1.0557 Y0.8135
X1.0564
X1.0569 Y0.8139
X1.0571 Y0.8145
G3 X0.9429 I-0.0571 J0.
X1.1692 I0.1132 J0.
X0.8308 I-0.1692 J0.
X1.2813 I0.2252 J0.
X0.7187 I-0.2813 J0.
X1.3934 I0.3373 J0.
X0.6066 I-0.3934 J0.
X1.5055 I0.4494 J0.
X0.4945 I-0.5055 J0.
X1.5055 I0.5055 J0.
G1 X1.5052 Y0.8163
X1.5044 Y0.818
X1.503 Y0.8193
X1.5014 Y0.8201
X1.4995 Y0.8204
X1.1671 Y0.8163
X1.1635 Y0.8183
G3 X1.1589 Y0.8075 I-0.0023 J-0.0054
X1.1671 Y0.8127 I0.0023 J0.0054
X1.055 Y0.8163 Z-0.6461 I-0.056 J0.0018 F30.
X1.1671 Y0.8127 Z-0.6523 I0.056 J-0.0018
X1.055 Y0.8163 Z-0.6584 I-0.056 J0.0018
X1.1671 Y0.8127 Z-0.6646 I0.056 J-0.0018
X1.055 Y0.8163 Z-0.6707 I-0.056 J0.0018
X1.1671 Y0.8127 Z-0.6769 I0.056 J-0.0018
X1.055 Y0.8163 Z-0.683 I-0.056 J0.0018
X1.1671 Y0.8127 Z-0.6892 I0.056 J-0.0018
X1.055 Y0.8163 Z-0.6953 I-0.056 J0.0018
X1.1671 Y0.8127 Z-0.7015 I0.056 J-0.0018
X1.055 Y0.8163 Z-0.7076 I-0.056 J0.0018
X1.1671 Y0.8127 Z-0.7138 I0.056 J-0.0018
X1.1119 Y0.8705 Z-0.7169 I-0.056 J0.0018
X1.055 Y0.8145 Z-0.72 I-0.0009 J-0.056
G1 X1.0552 Y0.8139 F40.
X1.0557 Y0.8135
X1.0564
X1.0569 Y0.8139
X1.0571 Y0.8145
G3 X0.9429 I-0.0571 J0.
X1.1692 I0.1132 J0.
X0.8308 I-0.1692 J0.
X1.2813 I0.2252 J0.
X0.7187 I-0.2813 J0.
X1.3934 I0.3373 J0.
X0.6066 I-0.3934 J0.
X1.5055 I0.4494 J0.
X0.4945 I-0.5055 J0.
X1.5055 I0.5055 J0.
G1 X1.5052 Y0.8163
X1.5044 Y0.818
X1.503 Y0.8193
X1.5014 Y0.8201
X1.4995 Y0.8204
X1.1671 Y0.8163
X1.1635 Y0.8183
G3 X1.1589 Y0.8075 I-0.0023 J-0.0054
X1.1671 Y0.8127 I0.0023 J0.0054
X1.055 Y0.8163 Z-0.7261 I-0.056 J0.0018 F30.
X1.1671 Y0.8127 Z-0.7323 I0.056 J-0.0018
X1.055 Y0.8163 Z-0.7384 I-0.056 J0.0018
X1.1671 Y0.8127 Z-0.7446 I0.056 J-0.0018
X1.055 Y0.8163 Z-0.7507 I-0.056 J0.0018
X1.1671 Y0.8127 Z-0.7569 I0.056 J-0.0018
X1.055 Y0.8163 Z-0.763 I-0.056 J0.0018
X1.1671 Y0.8127 Z-0.7692 I0.056 J-0.0018
X1.055 Y0.8163 Z-0.7753 I-0.056 J0.0018
X1.1671 Y0.8127 Z-0.7815 I0.056 J-0.0018
X1.055 Y0.8163 Z-0.7876 I-0.056 J0.0018
X1.1671 Y0.8127 Z-0.7938 I0.056 J-0.0018
X1.1119 Y0.8705 Z-0.7969 I-0.056 J0.0018
X1.055 Y0.8145 Z-0.8 I-0.0009 J-0.056
G1 X1.0552 Y0.8139 F40.
X1.0557 Y0.8135
X1.0564
X1.0569 Y0.8139
X1.0571 Y0.8145
G3 X0.9429 I-0.0571 J0.
X1.1692 I0.1132 J0.
X0.8308 I-0.1692 J0.
X1.2813 I0.2252 J0.
X0.7187 I-0.2813 J0.
X1.3934 I0.3373 J0.
X0.6066 I-0.3934 J0.
X1.5055 I0.4494 J0.
X0.4945 I-0.5055 J0.
X1.5055 I0.5055 J0.
G1 X1.5052 Y0.8163
X1.5044 Y0.818
X1.503 Y0.8193
X1.5014 Y0.8201
X1.4995 Y0.8204
X1.1671 Y0.8163
X1.1635 Y0.8183
G3 X1.1589 Y0.8075 I-0.0023 J-0.0054
X1.1671 Y0.8127 I0.0023 J0.0054
X1.055 Y0.8163 Z-0.8061 I-0.056 J0.0018 F30.
X1.1671 Y0.8127 Z-0.8123 I0.056 J-0.0018
X1.055 Y0.8163 Z-0.8184 I-0.056 J0.0018
X1.1671 Y0.8127 Z-0.8246 I0.056 J-0.0018
X1.055 Y0.8163 Z-0.8307 I-0.056 J0.0018
X1.1671 Y0.8127 Z-0.8369 I0.056 J-0.0018
X1.055 Y0.8163 Z-0.843 I-0.056 J0.0018
X1.1671 Y0.8127 Z-0.8492 I0.056 J-0.0018
X1.055 Y0.8163 Z-0.8553 I-0.056 J0.0018
X1.1671 Y0.8127 Z-0.8615 I0.056 J-0.0018
X1.055 Y0.8163 Z-0.8676 I-0.056 J0.0018
X1.1671 Y0.8127 Z-0.8738 I0.056 J-0.0018
X1.1119 Y0.8705 Z-0.8769 I-0.056 J0.0018
X1.055 Y0.8145 Z-0.88 I-0.0009 J-0.056
G1 X1.0552 Y0.8139 F40.
X1.0557 Y0.8135
X1.0564
X1.0569 Y0.8139
X1.0571 Y0.8145
G3 X0.9429 I-0.0571 J0.
X1.1692 I0.1132 J0.
X0.8308 I-0.1692 J0.
X1.2813 I0.2252 J0.
X0.7187 I-0.2813 J0.
X1.3934 I0.3373 J0.
X0.6066 I-0.3934 J0.
X1.5055 I0.4494 J0.
X0.4945 I-0.5055 J0.
X1.5055 I0.5055 J0.
G1 X1.5052 Y0.8163
X1.5044 Y0.818
X1.503 Y0.8193
X1.5014 Y0.8201
X1.4995 Y0.8204
X1.1671 Y0.8163
X1.1635 Y0.8183
G3 X1.1589 Y0.8075 I-0.0023 J-0.0054
X1.1671 Y0.8127 I0.0023 J0.0054
X1.055 Y0.8163 Z-0.8861 I-0.056 J0.0018 F30.
X1.1671 Y0.8127 Z-0.8923 I0.056 J-0.0018
X1.055 Y0.8163 Z-0.8984 I-0.056 J0.0018
X1.1671 Y0.8127 Z-0.9046 I0.056 J-0.0018
X1.055 Y0.8163 Z-0.9107 I-0.056 J0.0018
X1.1671 Y0.8127 Z-0.9169 I0.056 J-0.0018
X1.055 Y0.8163 Z-0.923 I-0.056 J0.0018
X1.1671 Y0.8127 Z-0.9292 I0.056 J-0.0018
X1.055 Y0.8163 Z-0.9353 I-0.056 J0.0018
X1.1671 Y0.8127 Z-0.9415 I0.056 J-0.0018
X1.055 Y0.8163 Z-0.9476 I-0.056 J0.0018
X1.1671 Y0.8127 Z-0.9538 I0.056 J-0.0018
X1.1119 Y0.8705 Z-0.9569 I-0.056 J0.0018
X1.055 Y0.8145 Z-0.96 I-0.0009 J-0.056
G1 X1.0552 Y0.8139 F40.
X1.0557 Y0.8135
X1.0564
X1.0569 Y0.8139
X1.0571 Y0.8145
G3 X0.9429 I-0.0571 J0.
X1.1692 I0.1132 J0.
X0.8308 I-0.1692 J0.
X1.2813 I0.2252 J0.
X0.7187 I-0.2813 J0.
X1.3934 I0.3373 J0.
X0.6066 I-0.3934 J0.
X1.5055 I0.4494 J0.
X0.4945 I-0.5055 J0.
X1.5055 I0.5055 J0.
G1 X1.5052 Y0.8163
X1.5044 Y0.818
X1.503 Y0.8193
X1.5014 Y0.8201
X1.4995 Y0.8204
X1.1671 Y0.8163
X1.1635 Y0.8183
G3 X1.1589 Y0.8075 I-0.0023 J-0.0054
X1.1671 Y0.8127 I0.0023 J0.0054
X1.055 Y0.8163 Z-0.9661 I-0.056 J0.0018 F30.
X1.1671 Y0.8127 Z-0.9723 I0.056 J-0.0018
X1.055 Y0.8163 Z-0.9784 I-0.056 J0.0018
X1.1671 Y0.8127 Z-0.9846 I0.056 J-0.0018
X1.055 Y0.8163 Z-0.9907 I-0.056 J0.0018
X1.1671 Y0.8127 Z-0.9969 I0.056 J-0.0018
X1.055 Y0.8163 Z-1.003 I-0.056 J0.0018
X1.1671 Y0.8127 Z-1.0092 I0.056 J-0.0018
X1.055 Y0.8163 Z-1.0153 I-0.056 J0.0018
X1.1671 Y0.8127 Z-1.0215 I0.056 J-0.0018
X1.055 Y0.8163 Z-1.0276 I-0.056 J0.0018
X1.1671 Y0.8127 Z-1.0338 I0.056 J-0.0018
X1.1119 Y0.8705 Z-1.0369 I-0.056 J0.0018
X1.055 Y0.8145 Z-1.04 I-0.0009 J-0.056
G1 X1.0552 Y0.8139 F40.
X1.0557 Y0.8135
X1.0564
X1.0569 Y0.8139
X1.0571 Y0.8145
G3 X0.9429 I-0.0571 J0.
X1.1692 I0.1132 J0.
X0.8308 I-0.1692 J0.
X1.2813 I0.2252 J0.
X0.7187 I-0.2813 J0.
X1.3934 I0.3373 J0.
X0.6066 I-0.3934 J0.
X1.5055 I0.4494 J0.
X0.4945 I-0.5055 J0.
X1.5055 I0.5055 J0.
G1 X1.5053 Y0.8167 Z-1.0396
X1.5046 Y0.8189 Z-1.0391
X1.5038 Y0.8206 Z-1.0378
X1.5027 Y0.8222 Z-1.0365
X1.5008 Y0.8239 Z-1.0327
X1.5001 Y0.8244 Z-1.0282
G0 Z0.2
X3.3385 Y0.7656
G1 Z0.1118 F40.
X3.3393 Y0.7661 Z0.1072 F30.
X3.3415 Y0.7674 Z0.1034
X3.3447 Y0.7697 Z0.1008
X3.3478 Y0.7721 Z0.1
G3 X3.2743 Y0.8569 Z0.0939 I-0.0367 J0.0424
X3.3478 Y0.7721 Z0.0877 I0.0367 J-0.0424
X3.2743 Y0.8569 Z0.0816 I-0.0367 J0.0424
X3.3478 Y0.7721 Z0.0754 I0.0367 J-0.0424
X3.2743 Y0.8569 Z0.0693 I-0.0367 J0.0424
X3.3478 Y0.7721 Z0.0631 I0.0367 J-0.0424
X3.2743 Y0.8569 Z0.057 I-0.0367 J0.0424
X3.3478 Y0.7721 Z0.0508 I0.0367 J-0.0424
X3.2743 Y0.8569 Z0.0447 I-0.0367 J0.0424
X3.3478 Y0.7721 Z0.0385 I0.0367 J-0.0424
X3.2743 Y0.8569 Z0.0324 I-0.0367 J0.0424
X3.3478 Y0.7721 Z0.0262 I0.0367 J-0.0424
X3.2743 Y0.8569 Z0.0201 I-0.0367 J0.0424
X3.3478 Y0.7721 Z0.0139 I0.0367 J-0.0424
X3.2743 Y0.8569 Z0.0078 I-0.0367 J0.0424
X3.3478 Y0.7721 Z0.0016 I0.0367 J-0.0424
X3.2743 Y0.8569 Z-0.0045 I-0.0367 J0.0424
X3.3478 Y0.7721 Z-0.0107 I0.0367 J-0.0424
X3.2743 Y0.8569 Z-0.0168 I-0.0367 J0.0424
X3.3478 Y0.7721 Z-0.023 I0.0367 J-0.0424
X3.2743 Y0.8569 Z-0.0291 I-0.0367 J0.0424
X3.3478 Y0.7721 Z-0.0353 I0.0367 J-0.0424
X3.2743 Y0.8569 Z-0.0414 I-0.0367 J0.0424
X3.3478 Y0.7721 Z-0.0476 I0.0367 J-0.0424
X3.2743 Y0.8569 Z-0.0537 I-0.0367 J0.0424
X3.3478 Y0.7721 Z-0.0599 I0.0367 J-0.0424
X3.2743 Y0.8569 Z-0.066 I-0.0367 J0.0424
X3.3478 Y0.7721 Z-0.0722 I0.0367 J-0.0424
X3.2743 Y0.8569 Z-0.0783 I-0.0367 J0.0424
X3.255 Y0.8145 Z-0.08 I0.0367 J-0.0424
G1 X3.2552 Y0.8139 F40.
X3.2557 Y0.8135
X3.2564
X3.2569 Y0.8139
X3.2571 Y0.8145
G3 X3.1429 I-0.0571 J0.
X3.3692 I0.1131 J0.
X3.0308 I-0.1692 J0.
X3.4813 I0.2252 J0.
X2.9187 I-0.2813 J0.
X3.5934 I0.3373 J0.
X2.8066 I-0.3934 J0.
X3.7055 I0.4494 J0.
X2.6945 I-0.5055 J0.
X3.7055 I0.5055 J0.
G1 X3.7052 Y0.8163
X3.7044 Y0.818
X3.703 Y0.8193
X3.7014 Y0.8201
X3.6995 Y0.8204
X3.3671 Y0.8163
X3.3635 Y0.8183
G3 X3.3589 Y0.8075 I-0.0023 J-0.0054
X3.3671 Y0.8127 I0.0023 J0.0054
X3.255 Y0.8163 Z-0.0861 I-0.056 J0.0018 F30.
X3.3671 Y0.8127 Z-0.0923 I0.056 J-0.0018
X3.255 Y0.8163 Z-0.0984 I-0.056 J0.0018
X3.3671 Y0.8127 Z-0.1046 I0.056 J-0.0018
X3.255 Y0.8163 Z-0.1107 I-0.056 J0.0018
X3.3671 Y0.8127 Z-0.1169 I0.056 J-0.0018
X3.255 Y0.8163 Z-0.123 I-0.056 J0.0018
X3.3671 Y0.8127 Z-0.1292 I0.056 J-0.0018
X3.255 Y0.8163 Z-0.1353 I-0.056 J0.0018
X3.3671 Y0.8127 Z-0.1415 I0.056 J-0.0018
X3.255 Y0.8163 Z-0.1476 I-0.056 J0.0018
X3.3671 Y0.8127 Z-0.1538 I0.056 J-0.0018
X3.3119 Y0.8705 Z-0.1569 I-0.056 J0.0018
X3.255 Y0.8145 Z-0.16 I-0.0009 J-0.056
G1 X3.2552 Y0.8139 F40.
X3.2557 Y0.8135
X3.2564
X3.2569 Y0.8139
X3.2571 Y0.8145
G3 X3.1429 I-0.0571 J0.
X3.3692 I0.1131 J0.
X3.0308 I-0.1692 J0.
X3.4813 I0.2252 J0.
X2.9187 I-0.2813 J0.
X3.5934 I0.3373 J0.
X2.8066 I-0.3934 J0.
X3.7055 I0.4494 J0.
X2.6945 I-0.5055 J0.
X3.7055 I0.5055 J0.
G1 X3.7052 Y0.8163
X3.7044 Y0.818
X3.703 Y0.8193
X3.7014 Y0.8201
X3.6995 Y0.8204
X3.3671 Y0.8163
X3.3635 Y0.8183
G3 X3.3589 Y0.8075 I-0.0023 J-0.0054
X3.3671 Y0.8127 I0.0023 J0.0054
X3.255 Y0.8163 Z-0.1661 I-0.056 J0.0018 F30.
X3.3671 Y0.8127 Z-0.1723 I0.056 J-0.0018
X3.255 Y0.8163 Z-0.1784 I-0.056 J0.0018
X3.3671 Y0.8127 Z-0.1846 I0.056 J-0.0018
X3.255 Y0.8163 Z-0.1907 I-0.056 J0.0018
X3.3671 Y0.8127 Z-0.1969 I0.056 J-0.0018
X3.255 Y0.8163 Z-0.203 I-0.056 J0.0018
X3.3671 Y0.8127 Z-0.2092 I0.056 J-0.0018
X3.255 Y0.8163 Z-0.2153 I-0.056 J0.0018
X3.3671 Y0.8127 Z-0.2215 I0.056 J-0.0018
X3.255 Y0.8163 Z-0.2276 I-0.056 J0.0018
X3.3671 Y0.8127 Z-0.2338 I0.056 J-0.0018
X3.3119 Y0.8705 Z-0.2369 I-0.056 J0.0018
X3.255 Y0.8145 Z-0.24 I-0.0009 J-0.056
G1 X3.2552 Y0.8139 F40.
X3.2557 Y0.8135
X3.2564
X3.2569 Y0.8139
X3.2571 Y0.8145
G3 X3.1429 I-0.0571 J0.
X3.3692 I0.1131 J0.
X3.0308 I-0.1692 J0.
X3.4813 I0.2252 J0.
X2.9187 I-0.2813 J0.
X3.5934 I0.3373 J0.
X2.8066 I-0.3934 J0.
X3.7055 I0.4494 J0.
X2.6945 I-0.5055 J0.
X3.7055 I0.5055 J0.
G1 X3.7052 Y0.8163
X3.7044 Y0.818
X3.703 Y0.8193
X3.7014 Y0.8201
X3.6995 Y0.8204
X3.3671 Y0.8163
X3.3635 Y0.8183
G3 X3.3589 Y0.8075 I-0.0023 J-0.0054
X3.3671 Y0.8127 I0.0023 J0.0054
X3.255 Y0.8163 Z-0.2461 I-0.056 J0.0018 F30.
X3.3671 Y0.8127 Z-0.2523 I0.056 J-0.0018
X3.255 Y0.8163 Z-0.2584 I-0.056 J0.0018
X3.3671 Y0.8127 Z-0.2646 I0.056 J-0.0018
X3.255 Y0.8163 Z-0.2707 I-0.056 J0.0018
X3.3671 Y0.8127 Z-0.2769 I0.056 J-0.0018
X3.255 Y0.8163 Z-0.283 I-0.056 J0.0018
X3.3671 Y0.8127 Z-0.2892 I0.056 J-0.0018
X3.255 Y0.8163 Z-0.2953 I-0.056 J0.0018
X3.3671 Y0.8127 Z-0.3015 I0.056 J-0.0018
X3.255 Y0.8163 Z-0.3076 I-0.056 J0.0018
X3.3671 Y0.8127 Z-0.3138 I0.056 J-0.0018
X3.3119 Y0.8705 Z-0.3169 I-0.056 J0.0018
X3.255 Y0.8145 Z-0.32 I-0.0009 J-0.056
G1 X3.2552 Y0.8139 F40.
X3.2557 Y0.8135
X3.2564
X3.2569 Y0.8139
X3.2571 Y0.8145
G3 X3.1429 I-0.0571 J0.
X3.3692 I0.1131 J0.
X3.0308 I-0.1692 J0.
X3.4813 I0.2252 J0.
X2.9187 I-0.2813 J0.
X3.5934 I0.3373 J0.
X2.8066 I-0.3934 J0.
X3.7055 I0.4494 J0.
X2.6945 I-0.5055 J0.
X3.7055 I0.5055 J0.
G1 X3.7052 Y0.8163
X3.7044 Y0.818
X3.703 Y0.8193
X3.7014 Y0.8201
X3.6995 Y0.8204
X3.3671 Y0.8163
X3.3635 Y0.8183
G3 X3.3589 Y0.8075 I-0.0023 J-0.0054
X3.3671 Y0.8127 I0.0023 J0.0054
X3.255 Y0.8163 Z-0.3261 I-0.056 J0.0018 F30.
X3.3671 Y0.8127 Z-0.3323 I0.056 J-0.0018
X3.255 Y0.8163 Z-0.3384 I-0.056 J0.0018
X3.3671 Y0.8127 Z-0.3446 I0.056 J-0.0018
X3.255 Y0.8163 Z-0.3507 I-0.056 J0.0018
X3.3671 Y0.8127 Z-0.3569 I0.056 J-0.0018
X3.255 Y0.8163 Z-0.363 I-0.056 J0.0018
X3.3671 Y0.8127 Z-0.3692 I0.056 J-0.0018
X3.255 Y0.8163 Z-0.3753 I-0.056 J0.0018
X3.3671 Y0.8127 Z-0.3815 I0.056 J-0.0018
X3.255 Y0.8163 Z-0.3876 I-0.056 J0.0018
X3.3671 Y0.8127 Z-0.3938 I0.056 J-0.0018
X3.3119 Y0.8705 Z-0.3969 I-0.056 J0.0018
X3.255 Y0.8145 Z-0.4 I-0.0009 J-0.056
G1 X3.2552 Y0.8139 F40.
X3.2557 Y0.8135
X3.2564
X3.2569 Y0.8139
X3.2571 Y0.8145
G3 X3.1429 I-0.0571 J0.
X3.3692 I0.1131 J0.
X3.0308 I-0.1692 J0.
X3.4813 I0.2252 J0.
X2.9187 I-0.2813 J0.
X3.5934 I0.3373 J0.
X2.8066 I-0.3934 J0.
X3.7055 I0.4494 J0.
X2.6945 I-0.5055 J0.
X3.7055 I0.5055 J0.
G1 X3.7052 Y0.8163
X3.7044 Y0.818
X3.703 Y0.8193
X3.7014 Y0.8201
X3.6995 Y0.8204
X3.3671 Y0.8163
X3.3635 Y0.8183
G3 X3.3589 Y0.8075 I-0.0023 J-0.0054
X3.3671 Y0.8127 I0.0023 J0.0054
X3.255 Y0.8163 Z-0.4061 I-0.056 J0.0018 F30.
X3.3671 Y0.8127 Z-0.4123 I0.056 J-0.0018
X3.255 Y0.8163 Z-0.4184 I-0.056 J0.0018
X3.3671 Y0.8127 Z-0.4246 I0.056 J-0.0018
X3.255 Y0.8163 Z-0.4307 I-0.056 J0.0018
X3.3671 Y0.8127 Z-0.4369 I0.056 J-0.0018
X3.255 Y0.8163 Z-0.443 I-0.056 J0.0018
X3.3671 Y0.8127 Z-0.4492 I0.056 J-0.0018
X3.255 Y0.8163 Z-0.4553 I-0.056 J0.0018
X3.3671 Y0.8127 Z-0.4615 I0.056 J-0.0018
X3.255 Y0.8163 Z-0.4676 I-0.056 J0.0018
X3.3671 Y0.8127 Z-0.4738 I0.056 J-0.0018
X3.3119 Y0.8705 Z-0.4769 I-0.056 J0.0018
X3.255 Y0.8145 Z-0.48 I-0.0009 J-0.056
G1 X3.2552 Y0.8139 F40.
X3.2557 Y0.8135
X3.2564
X3.2569 Y0.8139
X3.2571 Y0.8145
G3 X3.1429 I-0.0571 J0.
X3.3692 I0.1131 J0.
X3.0308 I-0.1692 J0.
X3.4813 I0.2252 J0.
X2.9187 I-0.2813 J0.
X3.5934 I0.3373 J0.
X2.8066 I-0.3934 J0.
X3.7055 I0.4494 J0.
X2.6945 I-0.5055 J0.
X3.7055 I0.5055 J0.
G1 X3.7052 Y0.8163
X3.7044 Y0.818
X3.703 Y0.8193
X3.7014 Y0.8201
X3.6995 Y0.8204
X3.3671 Y0.8163
X3.3635 Y0.8183
G3 X3.3589 Y0.8075 I-0.0023 J-0.0054
X3.3671 Y0.8127 I0.0023 J0.0054
X3.255 Y0.8163 Z-0.4861 I-0.056 J0.0018 F30.
X3.3671 Y0.8127 Z-0.4923 I0.056 J-0.0018
X3.255 Y0.8163 Z-0.4984 I-0.056 J0.0018
X3.3671 Y0.8127 Z-0.5046 I0.056 J-0.0018
X3.255 Y0.8163 Z-0.5107 I-0.056 J0.0018
X3.3671 Y0.8127 Z-0.5169 I0.056 J-0.0018
X3.255 Y0.8163 Z-0.523 I-0.056 J0.0018
X3.3671 Y0.8127 Z-0.5292 I0.056 J-0.0018
X3.255 Y0.8163 Z-0.5353 I-0.056 J0.0018
X3.3671 Y0.8127 Z-0.5415 I0.056 J-0.0018
X3.255 Y0.8163 Z-0.5476 I-0.056 J0.0018
X3.3671 Y0.8127 Z-0.5538 I0.056 J-0.0018
X3.3119 Y0.8705 Z-0.5569 I-0.056 J0.0018
X3.255 Y0.8145 Z-0.56 I-0.0009 J-0.056
G1 X3.2552 Y0.8139 F40.
X3.2557 Y0.8135
X3.2564
X3.2569 Y0.8139
X3.2571 Y0.8145
G3 X3.1429 I-0.0571 J0.
X3.3692 I0.1131 J0.
X3.0308 I-0.1692 J0.
X3.4813 I0.2252 J0.
X2.9187 I-0.2813 J0.
X3.5934 I0.3373 J0.
X2.8066 I-0.3934 J0.
X3.7055 I0.4494 J0.
X2.6945 I-0.5055 J0.
X3.7055 I0.5055 J0.
G1 X3.7052 Y0.8163
X3.7044 Y0.818
X3.703 Y0.8193
X3.7014 Y0.8201
X3.6995 Y0.8204
X3.3671 Y0.8163
X3.3635 Y0.8183
G3 X3.3589 Y0.8075 I-0.0023 J-0.0054
X3.3671 Y0.8127 I0.0023 J0.0054
X3.255 Y0.8163 Z-0.5661 I-0.056 J0.0018 F30.
X3.3671 Y0.8127 Z-0.5723 I0.056 J-0.0018
X3.255 Y0.8163 Z-0.5784 I-0.056 J0.0018
X3.3671 Y0.8127 Z-0.5846 I0.056 J-0.0018
X3.255 Y0.8163 Z-0.5907 I-0.056 J0.0018
X3.3671 Y0.8127 Z-0.5969 I0.056 J-0.0018
X3.255 Y0.8163 Z-0.603 I-0.056 J0.0018
X3.3671 Y0.8127 Z-0.6092 I0.056 J-0.0018
X3.255 Y0.8163 Z-0.6153 I-0.056 J0.0018
X3.3671 Y0.8127 Z-0.6215 I0.056 J-0.0018
X3.255 Y0.8163 Z-0.6276 I-0.056 J0.0018
X3.3671 Y0.8127 Z-0.6338 I0.056 J-0.0018
X3.3119 Y0.8705 Z-0.6369 I-0.056 J0.0018
X3.255 Y0.8145 Z-0.64 I-0.0009 J-0.056
G1 X3.2552 Y0.8139 F40.
X3.2557 Y0.8135
X3.2564
X3.2569 Y0.8139
X3.2571 Y0.8145
G3 X3.1429 I-0.0571 J0.
X3.3692 I0.1131 J0.
X3.0308 I-0.1692 J0.
X3.4813 I0.2252 J0.
X2.9187 I-0.2813 J0.
X3.5934 I0.3373 J0.
X2.8066 I-0.3934 J0.
X3.7055 I0.4494 J0.
X2.6945 I-0.5055 J0.
X3.7055 I0.5055 J0.
G1 X3.7052 Y0.8163
X3.7044 Y0.818
X3.703 Y0.8193
X3.7014 Y0.8201
X3.6995 Y0.8204
X3.3671 Y0.8163
X3.3635 Y0.8183
G3 X3.3589 Y0.8075 I-0.0023 J-0.0054
X3.3671 Y0.8127 I0.0023 J0.0054
X3.255 Y0.8163 Z-0.6461 I-0.056 J0.0018 F30.
X3.3671 Y0.8127 Z-0.6523 I0.056 J-0.0018
X3.255 Y0.8163 Z-0.6584 I-0.056 J0.0018
X3.3671 Y0.8127 Z-0.6646 I0.056 J-0.0018
X3.255 Y0.8163 Z-0.6707 I-0.056 J0.0018
X3.3671 Y0.8127 Z-0.6769 I0.056 J-0.0018
X3.255 Y0.8163 Z-0.683 I-0.056 J0.0018
X3.3671 Y0.8127 Z-0.6892 I0.056 J-0.0018
X3.255 Y0.8163 Z-0.6953 I-0.056 J0.0018
X3.3671 Y0.8127 Z-0.7015 I0.056 J-0.0018
X3.255 Y0.8163 Z-0.7076 I-0.056 J0.0018
X3.3671 Y0.8127 Z-0.7138 I0.056 J-0.0018
X3.3119 Y0.8705 Z-0.7169 I-0.056 J0.0018
X3.255 Y0.8145 Z-0.72 I-0.0009 J-0.056
G1 X3.2552 Y0.8139 F40.
X3.2557 Y0.8135
X3.2564
X3.2569 Y0.8139
X3.2571 Y0.8145
G3 X3.1429 I-0.0571 J0.
X3.3692 I0.1131 J0.
X3.0308 I-0.1692 J0.
X3.4813 I0.2252 J0.
X2.9187 I-0.2813 J0.
X3.5934 I0.3373 J0.
X2.8066 I-0.3934 J0.
X3.7055 I0.4494 J0.
X2.6945 I-0.5055 J0.
X3.7055 I0.5055 J0.
G1 X3.7052 Y0.8163
X3.7044 Y0.818
X3.703 Y0.8193
X3.7014 Y0.8201
X3.6995 Y0.8204
X3.3671 Y0.8163
X3.3635 Y0.8183
G3 X3.3589 Y0.8075 I-0.0023 J-0.0054
X3.3671 Y0.8127 I0.0023 J0.0054
X3.255 Y0.8163 Z-0.7261 I-0.056 J0.0018 F30.
X3.3671 Y0.8127 Z-0.7323 I0.056 J-0.0018
X3.255 Y0.8163 Z-0.7384 I-0.056 J0.0018
X3.3671 Y0.8127 Z-0.7446 I0.056 J-0.0018
X3.255 Y0.8163 Z-0.7507 I-0.056 J0.0018
X3.3671 Y0.8127 Z-0.7569 I0.056 J-0.0018
X3.255 Y0.8163 Z-0.763 I-0.056 J0.0018
X3.3671 Y0.8127 Z-0.7692 I0.056 J-0.0018
X3.255 Y0.8163 Z-0.7753 I-0.056 J0.0018
X3.3671 Y0.8127 Z-0.7815 I0.056 J-0.0018
X3.255 Y0.8163 Z-0.7876 I-0.056 J0.0018
X3.3671 Y0.8127 Z-0.7938 I0.056 J-0.0018
X3.3119 Y0.8705 Z-0.7969 I-0.056 J0.0018
X3.255 Y0.8145 Z-0.8 I-0.0009 J-0.056
G1 X3.2552 Y0.8139 F40.
X3.2557 Y0.8135
X3.2564
X3.2569 Y0.8139
X3.2571 Y0.8145
G3 X3.1429 I-0.0571 J0.
X3.3692 I0.1131 J0.
X3.0308 I-0.1692 J0.
X3.4813 I0.2252 J0.
X2.9187 I-0.2813 J0.
X3.5934 I0.3373 J0.
X2.8066 I-0.3934 J0.
X3.7055 I0.4494 J0.
X2.6945 I-0.5055 J0.
X3.7055 I0.5055 J0.
G1 X3.7052 Y0.8163
X3.7044 Y0.818
X3.703 Y0.8193
X3.7014 Y0.8201
X3.6995 Y0.8204
X3.3671 Y0.8163
X3.3635 Y0.8183
G3 X3.3589 Y0.8075 I-0.0023 J-0.0054
X3.3671 Y0.8127 I0.0023 J0.0054
X3.255 Y0.8163 Z-0.8061 I-0.056 J0.0018 F30.
X3.3671 Y0.8127 Z-0.8123 I0.056 J-0.0018
X3.255 Y0.8163 Z-0.8184 I-0.056 J0.0018
X3.3671 Y0.8127 Z-0.8246 I0.056 J-0.0018
X3.255 Y0.8163 Z-0.8307 I-0.056 J0.0018
X3.3671 Y0.8127 Z-0.8369 I0.056 J-0.0018
X3.255 Y0.8163 Z-0.843 I-0.056 J0.0018
X3.3671 Y0.8127 Z-0.8492 I0.056 J-0.0018
X3.255 Y0.8163 Z-0.8553 I-0.056 J0.0018
X3.3671 Y0.8127 Z-0.8615 I0.056 J-0.0018
X3.255 Y0.8163 Z-0.8676 I-0.056 J0.0018
X3.3671 Y0.8127 Z-0.8738 I0.056 J-0.0018
X3.3119 Y0.8705 Z-0.8769 I-0.056 J0.0018
X3.255 Y0.8145 Z-0.88 I-0.0009 J-0.056
G1 X3.2552 Y0.8139 F40.
X3.2557 Y0.8135
X3.2564
X3.2569 Y0.8139
X3.2571 Y0.8145
G3 X3.1429 I-0.0571 J0.
X3.3692 I0.1131 J0.
X3.0308 I-0.1692 J0.
X3.4813 I0.2252 J0.
X2.9187 I-0.2813 J0.
X3.5934 I0.3373 J0.
X2.8066 I-0.3934 J0.
X3.7055 I0.4494 J0.
X2.6945 I-0.5055 J0.
X3.7055 I0.5055 J0.
G1 X3.7052 Y0.8163
X3.7044 Y0.818
X3.703 Y0.8193
X3.7014 Y0.8201
X3.6995 Y0.8204
X3.3671 Y0.8163
X3.3635 Y0.8183
G3 X3.3589 Y0.8075 I-0.0023 J-0.0054
X3.3671 Y0.8127 I0.0023 J0.0054
X3.255 Y0.8163 Z-0.8861 I-0.056 J0.0018 F30.
X3.3671 Y0.8127 Z-0.8923 I0.056 J-0.0018
X3.255 Y0.8163 Z-0.8984 I-0.056 J0.0018
X3.3671 Y0.8127 Z-0.9046 I0.056 J-0.0018
X3.255 Y0.8163 Z-0.9107 I-0.056 J0.0018
X3.3671 Y0.8127 Z-0.9169 I0.056 J-0.0018
X3.255 Y0.8163 Z-0.923 I-0.056 J0.0018
X3.3671 Y0.8127 Z-0.9292 I0.056 J-0.0018
X3.255 Y0.8163 Z-0.9353 I-0.056 J0.0018
X3.3671 Y0.8127 Z-0.9415 I0.056 J-0.0018
X3.255 Y0.8163 Z-0.9476 I-0.056 J0.0018
X3.3671 Y0.8127 Z-0.9538 I0.056 J-0.0018
X3.3119 Y0.8705 Z-0.9569 I-0.056 J0.0018
X3.255 Y0.8145 Z-0.96 I-0.0009 J-0.056
G1 X3.2552 Y0.8139 F40.
X3.2557 Y0.8135
X3.2564
X3.2569 Y0.8139
X3.2571 Y0.8145
G3 X3.1429 I-0.0571 J0.
X3.3692 I0.1131 J0.
X3.0308 I-0.1692 J0.
X3.4813 I0.2252 J0.
X2.9187 I-0.2813 J0.
X3.5934 I0.3373 J0.
X2.8066 I-0.3934 J0.
X3.7055 I0.4494 J0.
X2.6945 I-0.5055 J0.
X3.7055 I0.5055 J0.
G1 X3.7052 Y0.8163
X3.7044 Y0.818
X3.703 Y0.8193
X3.7014 Y0.8201
X3.6995 Y0.8204
X3.3671 Y0.8163
X3.3635 Y0.8183
G3 X3.3589 Y0.8075 I-0.0023 J-0.0054
X3.3671 Y0.8127 I0.0023 J0.0054
X3.255 Y0.8163 Z-0.9661 I-0.056 J0.0018 F30.
X3.3671 Y0.8127 Z-0.9723 I0.056 J-0.0018
X3.255 Y0.8163 Z-0.9784 I-0.056 J0.0018
X3.3671 Y0.8127 Z-0.9846 I0.056 J-0.0018
X3.255 Y0.8163 Z-0.9907 I-0.056 J0.0018
X3.3671 Y0.8127 Z-0.9969 I0.056 J-0.0018
X3.255 Y0.8163 Z-1.003 I-0.056 J0.0018
X3.3671 Y0.8127 Z-1.0092 I0.056 J-0.0018
X3.255 Y0.8163 Z-1.0153 I-0.056 J0.0018
X3.3671 Y0.8127 Z-1.0215 I0.056 J-0.0018
X3.255 Y0.8163 Z-1.0276 I-0.056 J0.0018
X3.3671 Y0.8127 Z-1.0338 I0.056 J-0.0018
X3.3119 Y0.8705 Z-1.0369 I-0.056 J0.0018
X3.255 Y0.8145 Z-1.04 I-0.0009 J-0.056
G1 X3.2552 Y0.8139 F40.
X3.2557 Y0.8135
X3.2564
X3.2569 Y0.8139
X3.2571 Y0.8145
G3 X3.1429 I-0.0571 J0.
X3.3692 I0.1131 J0.
X3.0308 I-0.1692 J0.
X3.4813 I0.2252 J0.
X2.9187 I-0.2813 J0.
X3.5934 I0.3373 J0.
X2.8066 I-0.3934 J0.
X3.7055 I0.4494 J0.
X2.6945 I-0.5055 J0.
X3.7055 I0.5055 J0.
G1 X3.7053 Y0.8167 Z-1.0396
X3.7046 Y0.8189 Z-1.0391
X3.7038 Y0.8206 Z-1.0378
X3.7027 Y0.8222 Z-1.0365
X3.7008 Y0.8239 Z-1.0327
X3.7001 Y0.8244 Z-1.0282
G0 Z0.6

(2D CONTOUR1)
G0 X2.1056 Y1.2382
Z0.6
Z0.2
G1 Z0.1194 F20.
Z-0.0682
G18 G2 X2.1174 Z-0.08 I0.0118 K0. F40.
G1 X2.1292
G17 G3 X2.141 Y1.25 I0. J0.0118
G2 X2.7 Y1.809 I0.559 J0.
G1 X3.7
G2 X4.259 Y1.25 I0. J-0.559
G1 Y0.
G2 X4.2 Y-0.059 I-0.059 J0.
G1 X2.2
G2 X2.141 Y0. I0. J0.059
G1 Y1.25
G3 X2.1292 Y1.2618 I-0.0118 J0.
G1 X2.1174
G18 G3 X2.1056 Z-0.0682 I0. K0.0118
G0 Z0.2
X2.0944 Y1.264
G1 Z0.1194 F20.
Z-0.0682
X2.0941 Z-0.0708 F40.
X2.0932 Z-0.0733
X2.0918 Z-0.0756
X2.0899 Z-0.0774
X2.0877 Z-0.0788
X2.0852 Z-0.0797
X2.0826 Z-0.08
X2.0708 Y1.2639
G17 G3 X2.059 Y1.2521 I0. J-0.0118
G1 Y1.25
Y0.
G2 X2. Y-0.059 I-0.059 J0.
G1 X0.
G2 X-0.059 Y0. I0. J0.059
G1 Y1.25
G2 X0.5 Y1.809 I0.559 J0.
G1 X1.5
G2 X2.059 Y1.2521 I0. J-0.559
G3 X2.0708 Y1.2403 I0.0118 J0.
G1 X2.0826 Y1.2404
X2.0853 Z-0.0797
X2.0878 Z-0.0788
X2.09 Z-0.0774
X2.0919 Z-0.0756
X2.0933 Z-0.0733
X2.0941 Z-0.0708
X2.0944 Z-0.0682
G0 Z0.2
Y1.2618
G1 Z0.0394 F20.
Z-0.1482
G18 G3 X2.0826 Z-0.16 I-0.0118 K0. F40.
G1 X2.0708
G17 G3 X2.059 Y1.25 I0. J-0.0118
G1 Y0.
G2 X2. Y-0.059 I-0.059 J0.
G1 X0.
G2 X-0.059 Y0. I0. J0.059
G1 Y1.25
G2 X0.5 Y1.809 I0.559 J0.
G1 X1.5
G2 X2.059 Y1.25 I0. J-0.559
G3 X2.0708 Y1.2382 I0.0118 J0.
G1 X2.0826
G18 G2 X2.0944 Z-0.1482 I0. K0.0118
G0 Z0.2
X2.1056
G1 Z0.0394 F20.
Z-0.1482
G2 X2.1174 Z-0.16 I0.0118 K0. F40.
G1 X2.1292
G17 G3 X2.141 Y1.25 I0. J0.0118
G2 X2.7 Y1.809 I0.559 J0.
G1 X3.7
G2 X4.259 Y1.25 I0. J-0.559
G1 Y0.
G2 X4.2 Y-0.059 I-0.059 J0.
G1 X2.2
G2 X2.141 Y0. I0. J0.059
G1 Y1.25
G3 X2.1292 Y1.2618 I-0.0118 J0.
G1 X2.1174
G18 G3 X2.1056 Z-0.1482 I0. K0.0118
G0 Z0.2
Y1.2382
G1 Z-0.0406 F20.
Z-0.2282
G2 X2.1174 Z-0.24 I0.0118 K0. F40.
G1 X2.1292
G17 G3 X2.141 Y1.25 I0. J0.0118
G2 X2.7 Y1.809 I0.559 J0.
G1 X3.7
G2 X4.259 Y1.25 I0. J-0.559
G1 Y0.
G2 X4.2 Y-0.059 I-0.059 J0.
G1 X2.2
G2 X2.141 Y0. I0. J0.059
G1 Y1.25
G3 X2.1292 Y1.2618 I-0.0118 J0.
G1 X2.1174
G18 G3 X2.1056 Z-0.2282 I0. K0.0118
G0 Z0.2
X2.0944 Y1.264
G1 Z-0.0406 F20.
Z-0.2282
X2.0941 Z-0.2308 F40.
X2.0932 Z-0.2333
X2.0918 Z-0.2356
X2.0899 Z-0.2374
X2.0877 Z-0.2388
X2.0852 Z-0.2397
X2.0826 Z-0.24
X2.0708 Y1.2639
G17 G3 X2.059 Y1.2521 I0. J-0.0118
G1 Y1.25
Y0.
G2 X2. Y-0.059 I-0.059 J0.
G1 X0.
G2 X-0.059 Y0. I0. J0.059
G1 Y1.25
G2 X0.5 Y1.809 I0.559 J0.
G1 X1.5
G2 X2.059 Y1.2521 I0. J-0.559
G3 X2.0708 Y1.2403 I0.0118 J0.
G1 X2.0826 Y1.2404
X2.0853 Z-0.2397
X2.0878 Z-0.2388
X2.09 Z-0.2374
X2.0919 Z-0.2356
X2.0933 Z-0.2333
X2.0941 Z-0.2308
X2.0944 Z-0.2282
G0 Z0.2
Y1.2618
G1 Z-0.1206 F20.
Z-0.3082
G18 G3 X2.0826 Z-0.32 I-0.0118 K0. F40.
G1 X2.0708
G17 G3 X2.059 Y1.25 I0. J-0.0118
G1 Y0.
G2 X2. Y-0.059 I-0.059 J0.
G1 X0.
G2 X-0.059 Y0. I0. J0.059
G1 Y1.25
G2 X0.5 Y1.809 I0.559 J0.
G1 X1.5
G2 X2.059 Y1.25 I0. J-0.559
G3 X2.0708 Y1.2382 I0.0118 J0.
G1 X2.0826
G18 G2 X2.0944 Z-0.3082 I0. K0.0118
G0 Z0.2
X2.1056
G1 Z-0.1206 F20.
Z-0.3082
G2 X2.1174 Z-0.32 I0.0118 K0. F40.
G1 X2.1292
G17 G3 X2.141 Y1.25 I0. J0.0118
G2 X2.7 Y1.809 I0.559 J0.
G1 X3.7
G2 X4.259 Y1.25 I0. J-0.559
G1 Y0.
G2 X4.2 Y-0.059 I-0.059 J0.
G1 X2.2
G2 X2.141 Y0. I0. J0.059
G1 Y1.25
G3 X2.1292 Y1.2618 I-0.0118 J0.
G1 X2.1174
G18 G3 X2.1056 Z-0.3082 I0. K0.0118
G0 Z0.2
Y1.2382
G1 Z-0.2006 F20.
Z-0.3882
G2 X2.1174 Z-0.4 I0.0118 K0. F40.
G1 X2.1292
G17 G3 X2.141 Y1.25 I0. J0.0118
G2 X2.7 Y1.809 I0.559 J0.
G1 X3.7
G2 X4.259 Y1.25 I0. J-0.559
G1 Y0.
G2 X4.2 Y-0.059 I-0.059 J0.
G1 X2.2
G2 X2.141 Y0. I0. J0.059
G1 Y1.25
G3 X2.1292 Y1.2618 I-0.0118 J0.
G1 X2.1174
G18 G3 X2.1056 Z-0.3882 I0. K0.0118
G0 Z0.2
X2.0944 Y1.264
G1 Z-0.2006 F20.
Z-0.3882
X2.0941 Z-0.3908 F40.
X2.0932 Z-0.3933
X2.0918 Z-0.3956
X2.0899 Z-0.3974
X2.0877 Z-0.3988
X2.0852 Z-0.3997
X2.0826 Z-0.4
X2.0708 Y1.2639
G17 G3 X2.059 Y1.2521 I0. J-0.0118
G1 Y1.25
Y0.
G2 X2. Y-0.059 I-0.059 J0.
G1 X0.
G2 X-0.059 Y0. I0. J0.059
G1 Y1.25
G2 X0.5 Y1.809 I0.559 J0.
G1 X1.5
G2 X2.059 Y1.2521 I0. J-0.559
G3 X2.0708 Y1.2403 I0.0118 J0.
G1 X2.0826 Y1.2404
X2.0853 Z-0.3997
X2.0878 Z-0.3988
X2.09 Z-0.3974
X2.0919 Z-0.3956
X2.0933 Z-0.3933
X2.0941 Z-0.3908
X2.0944 Z-0.3882
G0 Z0.2
Y1.2618
G1 Z-0.2806 F20.
Z-0.4682
G18 G3 X2.0826 Z-0.48 I-0.0118 K0. F40.
G1 X2.0708
G17 G3 X2.059 Y1.25 I0. J-0.0118
G1 Y0.
G2 X2. Y-0.059 I-0.059 J0.
G1 X0.
G2 X-0.059 Y0. I0. J0.059
G1 Y1.25
G2 X0.5 Y1.809 I0.559 J0.
G1 X1.5
G2 X2.059 Y1.25 I0. J-0.559
G3 X2.0708 Y1.2382 I0.0118 J0.
G1 X2.0826
G18 G2 X2.0944 Z-0.4682 I0. K0.0118
G0 Z0.2
X2.1056
G1 Z-0.2806 F20.
Z-0.4682
G2 X2.1174 Z-0.48 I0.0118 K0. F40.
G1 X2.1292
G17 G3 X2.141 Y1.25 I0. J0.0118
G2 X2.7 Y1.809 I0.559 J0.
G1 X3.7
G2 X4.259 Y1.25 I0. J-0.559
G1 Y0.
G2 X4.2 Y-0.059 I-0.059 J0.
G1 X2.2
G2 X2.141 Y0. I0. J0.059
G1 Y1.25
G3 X2.1292 Y1.2618 I-0.0118 J0.
G1 X2.1174
G18 G3 X2.1056 Z-0.4682 I0. K0.0118
G0 Z0.2
Y1.2382
G1 Z-0.3606 F20.
Z-0.5482
G2 X2.1174 Z-0.56 I0.0118 K0. F40.
G1 X2.1292
G17 G3 X2.141 Y1.25 I0. J0.0118
G2 X2.7 Y1.809 I0.559 J0.
G1 X3.7
G2 X4.259 Y1.25 I0. J-0.559
G1 Y0.
G2 X4.2 Y-0.059 I-0.059 J0.
G1 X2.2
G2 X2.141 Y0. I0. J0.059
G1 Y1.25
G3 X2.1292 Y1.2618 I-0.0118 J0.
G1 X2.1174
G18 G3 X2.1056 Z-0.5482 I0. K0.0118
G0 Z0.2
X2.0944 Y1.264
G1 Z-0.3606 F20.
Z-0.5482
X2.0941 Z-0.5508 F40.
X2.0932 Z-0.5533
X2.0918 Z-0.5556
X2.0899 Z-0.5574
X2.0877 Z-0.5588
X2.0852 Z-0.5597
X2.0826 Z-0.56
X2.0708 Y1.2639
G17 G3 X2.059 Y1.2521 I0. J-0.0118
G1 Y1.25
Y0.
G2 X2. Y-0.059 I-0.059 J0.
G1 X0.
G2 X-0.059 Y0. I0. J0.059
G1 Y1.25
G2 X0.5 Y1.809 I0.559 J0.
G1 X1.5
G2 X2.059 Y1.2521 I0. J-0.559
G3 X2.0708 Y1.2403 I0.0118 J0.
G1 X2.0826 Y1.2404
X2.0853 Z-0.5597
X2.0878 Z-0.5588
X2.09 Z-0.5574
X2.0919 Z-0.5556
X2.0933 Z-0.5533
X2.0941 Z-0.5508
X2.0944 Z-0.5482
G0 Z0.2
Y1.2618
G1 Z-0.4406 F20.
Z-0.6282
G18 G3 X2.0826 Z-0.64 I-0.0118 K0. F40.
G1 X2.0708
G17 G3 X2.059 Y1.25 I0. J-0.0118
G1 Y0.
G2 X2. Y-0.059 I-0.059 J0.
G1 X0.
G2 X-0.059 Y0. I0. J0.059
G1 Y1.25
G2 X0.5 Y1.809 I0.559 J0.
G1 X1.5
G2 X2.059 Y1.25 I0. J-0.559
G3 X2.0708 Y1.2382 I0.0118 J0.
G1 X2.0826
G18 G2 X2.0944 Z-0.6282 I0. K0.0118
G0 Z0.2
X2.1056
G1 Z-0.4406 F20.
Z-0.6282
G2 X2.1174 Z-0.64 I0.0118 K0. F40.
G1 X2.1292
G17 G3 X2.141 Y1.25 I0. J0.0118
G2 X2.7 Y1.809 I0.559 J0.
G1 X3.7
G2 X4.259 Y1.25 I0. J-0.559
G1 Y0.
G2 X4.2 Y-0.059 I-0.059 J0.
G1 X2.2
G2 X2.141 Y0. I0. J0.059
G1 Y1.25
G3 X2.1292 Y1.2618 I-0.0118 J0.
G1 X2.1174
G18 G3 X2.1056 Z-0.6282 I0. K0.0118
G0 Z0.2
Y1.2382
G1 Z-0.5206 F20.
Z-0.7082
G2 X2.1174 Z-0.72 I0.0118 K0. F40.
G1 X2.1292
G17 G3 X2.141 Y1.25 I0. J0.0118
G2 X2.7 Y1.809 I0.559 J0.
G1 X3.7
G2 X4.259 Y1.25 I0. J-0.559
G1 Y0.
G2 X4.2 Y-0.059 I-0.059 J0.
G1 X2.2
G2 X2.141 Y0. I0. J0.059
G1 Y1.25
G3 X2.1292 Y1.2618 I-0.0118 J0.
G1 X2.1174
G18 G3 X2.1056 Z-0.7082 I0. K0.0118
G0 Z0.2
X2.0944 Y1.264
G1 Z-0.5206 F20.
Z-0.7082
X2.0941 Z-0.7108 F40.
X2.0932 Z-0.7133
X2.0918 Z-0.7156
X2.0899 Z-0.7174
X2.0877 Z-0.7188
X2.0852 Z-0.7197
X2.0826 Z-0.72
X2.0708 Y1.2639
G17 G3 X2.059 Y1.2521 I0. J-0.0118
G1 Y1.25
Y0.
G2 X2. Y-0.059 I-0.059 J0.
G1 X0.
G2 X-0.059 Y0. I0. J0.059
G1 Y1.25
G2 X0.5 Y1.809 I0.559 J0.
G1 X1.5
G2 X2.059 Y1.2521 I0. J-0.559
G3 X2.0708 Y1.2403 I0.0118 J0.
G1 X2.0826 Y1.2404
X2.0853 Z-0.7197
X2.0878 Z-0.7188
X2.09 Z-0.7174
X2.0919 Z-0.7156
X2.0933 Z-0.7133
X2.0941 Z-0.7108
X2.0944 Z-0.7082
G0 Z0.2
Y1.2618
G1 Z-0.6006 F20.
Z-0.7882
G18 G3 X2.0826 Z-0.8 I-0.0118 K0. F40.
G1 X2.0708
G17 G3 X2.059 Y1.25 I0. J-0.0118
G1 Y0.
G2 X2. Y-0.059 I-0.059 J0.
G1 X0.
G2 X-0.059 Y0. I0. J0.059
G1 Y1.25
G2 X0.5 Y1.809 I0.559 J0.
G1 X1.5
G2 X2.059 Y1.25 I0. J-0.559
G3 X2.0708 Y1.2382 I0.0118 J0.
G1 X2.0826
G18 G2 X2.0944 Z-0.7882 I0. K0.0118
G0 Z0.2
X2.1056
G1 Z-0.6006 F20.
Z-0.7882
G2 X2.1174 Z-0.8 I0.0118 K0. F40.
G1 X2.1292
G17 G3 X2.141 Y1.25 I0. J0.0118
G2 X2.7 Y1.809 I0.559 J0.
G1 X3.7
G2 X4.259 Y1.25 I0. J-0.559
G1 Y0.
G2 X4.2 Y-0.059 I-0.059 J0.
G1 X2.2
G2 X2.141 Y0. I0. J0.059
G1 Y1.25
G3 X2.1292 Y1.2618 I-0.0118 J0.
G1 X2.1174
G18 G3 X2.1056 Z-0.7882 I0. K0.0118
G0 Z0.2
Y1.2382
G1 Z-0.6806 F20.
Z-0.8682
G2 X2.1174 Z-0.88 I0.0118 K0. F40.
G1 X2.1292
G17 G3 X2.141 Y1.25 I0. J0.0118
G2 X2.7 Y1.809 I0.559 J0.
G1 X3.7
G2 X4.259 Y1.25 I0. J-0.559
G1 Y0.
G2 X4.2 Y-0.059 I-0.059 J0.
G1 X2.2
G2 X2.141 Y0. I0. J0.059
G1 Y1.25
G3 X2.1292 Y1.2618 I-0.0118 J0.
G1 X2.1174
G18 G3 X2.1056 Z-0.8682 I0. K0.0118
G0 Z0.2
X2.0944 Y1.264
G1 Z-0.6806 F20.
Z-0.8682
X2.0941 Z-0.8708 F40.
X2.0932 Z-0.8733
X2.0918 Z-0.8756
X2.0899 Z-0.8774
X2.0877 Z-0.8788
X2.0852 Z-0.8797
X2.0826 Z-0.88
X2.0708 Y1.2639
G17 G3 X2.059 Y1.2521 I0. J-0.0118
G1 Y1.25
Y0.
G2 X2. Y-0.059 I-0.059 J0.
G1 X0.
G2 X-0.059 Y0. I0. J0.059
G1 Y1.25
G2 X0.5 Y1.809 I0.559 J0.
G1 X1.5
G2 X2.059 Y1.2521 I0. J-0.559
G3 X2.0708 Y1.2403 I0.0118 J0.
G1 X2.0826 Y1.2404
X2.0853 Z-0.8797
X2.0878 Z-0.8788
X2.09 Z-0.8774
X2.0919 Z-0.8756
X2.0933 Z-0.8733
X2.0941 Z-0.8708
X2.0944 Z-0.8682
G0 Z0.2
Y1.2618
G1 Z-0.7606 F20.
Z-0.9482
G18 G3 X2.0826 Z-0.96 I-0.0118 K0. F40.
G1 X2.0708
G17 G3 X2.059 Y1.25 I0. J-0.0118
G1 Y0.
G2 X2. Y-0.059 I-0.059 J0.
G1 X0.
G2 X-0.059 Y0. I0. J0.059
G1 Y1.25
G2 X0.5 Y1.809 I0.559 J0.
G1 X1.5
G2 X2.059 Y1.25 I0. J-0.559
G3 X2.0708 Y1.2382 I0.0118 J0.
G1 X2.0826
G18 G2 X2.0944 Z-0.9482 I0. K0.0118
G0 Z0.2
X2.1056
G1 Z-0.7606 F20.
Z-0.9482
G2 X2.1174 Z-0.96 I0.0118 K0. F40.
G1 X2.1292
G17 G3 X2.141 Y1.25 I0. J0.0118
G2 X2.7 Y1.809 I0.559 J0.
G1 X3.7
G2 X4.259 Y1.25 I0. J-0.559
G1 Y0.
G2 X4.2 Y-0.059 I-0.059 J0.
G1 X2.2
G2 X2.141 Y0. I0. J0.059
G1 Y1.25
G3 X2.1292 Y1.2618 I-0.0118 J0.
G1 X2.1174
G18 G3 X2.1056 Z-0.9482 I0. K0.0118
G0 Z0.2
Y1.2382
G1 Z-0.8406 F20.
Z-0.9782
G2 X2.1174 Z-0.99 I0.0118 K0. F40.
G1 X2.1292
G17 G3 X2.141 Y1.25 I0. J0.0118
G2 X2.7 Y1.809 I0.559 J0.
G1 X3.7
G2 X4.259 Y1.25 I0. J-0.559
G1 Y0.
G2 X4.2 Y-0.059 I-0.059 J0.
G1 X2.2
G2 X2.141 Y0. I0. J0.059
G1 Y1.25
G3 X2.1292 Y1.2618 I-0.0118 J0.
G1 X2.1174
G18 G3 X2.1056 Z-0.9782 I0. K0.0118
G0 Z0.2
X2.0944 Y1.264
G1 Z-0.8406 F20.
Z-0.9782
X2.0941 Z-0.9808 F40.
X2.0932 Z-0.9833
X2.0918 Z-0.9856
X2.0899 Z-0.9874
X2.0877 Z-0.9888
X2.0852 Z-0.9897
X2.0826 Z-0.99
X2.0708 Y1.2639
G17 G3 X2.059 Y1.2521 I0. J-0.0118
G1 Y1.25
Y0.
G2 X2. Y-0.059 I-0.059 J0.
G1 X0.
G2 X-0.059 Y0. I0. J0.059
G1 Y1.25
G2 X0.5 Y1.809 I0.559 J0.
G1 X1.5
G2 X2.059 Y1.2521 I0. J-0.559
G3 X2.0708 Y1.2403 I0.0118 J0.
G1 X2.0826 Y1.2404
X2.0853 Z-0.9897
X2.0878 Z-0.9888
X2.09 Z-0.9874
X2.0919 Z-0.9856
X2.0933 Z-0.9833
X2.0941 Z-0.9808
X2.0944 Z-0.9782
G0 Z0.6

M9
M30
