(X4 GEARBOX HOLES RUN 5.0)
(T1  D=0.25 CR=0. - ZMIN=-0.29 - FLAT END MILL)
G90 G94 G91.1 G40 G49 G17
G20

(2D ADAPTIVE1)
M5
T1 M6
S15000 M3
g4 p5
G54
M8
G0 X1.3263 Y2.9307
G43 Z0.6 H1
Z0.2
Z0.102
G3 X1.0982 Y2.9968 Z0.089 I-0.1141 J0.033 F20.
X1.3263 Y2.9307 Z0.0759 I0.1141 J-0.033
X1.0982 Y2.9968 Z0.0629 I-0.1141 J0.033
X1.3263 Y2.9307 Z0.0499 I0.1141 J-0.033
X1.0982 Y2.9968 Z0.0369 I-0.1141 J0.033
X1.3263 Y2.9307 Z0.0238 I0.1141 J-0.033
X1.0982 Y2.9968 Z0.0108 I-0.1141 J0.033
X1.3263 Y2.9307 Z-0.0022 I0.1141 J-0.033
X1.0982 Y2.9968 Z-0.0152 I-0.1141 J0.033
X1.3263 Y2.9307 Z-0.0283 I0.1141 J-0.033
X1.0982 Y2.9968 Z-0.0413 I-0.1141 J0.033
X1.3263 Y2.9307 Z-0.0543 I0.1141 J-0.033
X1.0982 Y2.9968 Z-0.0674 I-0.1141 J0.033
X1.3263 Y2.9307 Z-0.0804 I0.1141 J-0.033
X1.0982 Y2.9968 Z-0.0934 I-0.1141 J0.033
X1.3263 Y2.9307 Z-0.1064 I0.1141 J-0.033
X1.0982 Y2.9968 Z-0.1195 I-0.1141 J0.033
X1.3263 Y2.9307 Z-0.1325 I0.1141 J-0.033
X1.0982 Y2.9968 Z-0.1455 I-0.1141 J0.033
X1.3263 Y2.9307 Z-0.1586 I0.1141 J-0.033
X1.0982 Y2.9968 Z-0.1716 I-0.1141 J0.033
X1.3263 Y2.9307 Z-0.1846 I0.1141 J-0.033
X1.0982 Y2.9968 Z-0.1976 I-0.1141 J0.033
X1.3263 Y2.9307 Z-0.2107 I0.1141 J-0.033
X1.0982 Y2.9968 Z-0.2237 I-0.1141 J0.033
X1.3263 Y2.9307 Z-0.2367 I0.1141 J-0.033
X1.0982 Y2.9968 Z-0.2497 I-0.1141 J0.033
X1.3263 Y2.9307 Z-0.2628 I0.1141 J-0.033
X1.0982 Y2.9968 Z-0.2758 I-0.1141 J0.033
X1.1956 Y2.8462 Z-0.2829 I0.1141 J-0.033
X1.331 Y2.9637 Z-0.29 I0.0167 J0.1176
X1.0935 I-0.1187 J0.
X1.331 I0.1187 J0.
G1 X1.3316 Y2.9999 F30.
X1.332 Y3.0044
Y3.0104
X1.3314 Y3.0164
X1.3302 Y3.0223
X1.3286 Y3.028
X1.3265 Y3.0337
X1.3241 Y3.0392
X1.3213 Y3.0445
X1.3183 Y3.0496
X1.3149 Y3.0546
X1.3112 Y3.0593
X1.3073 Y3.0639
X1.3032 Y3.0682
X1.2988 Y3.0724
X1.2943 Y3.0763
X1.2895 Y3.0799
X1.2846 Y3.0834
X1.2795 Y3.0866
X1.2743 Y3.0895
X1.2689 Y3.0922
X1.2635 Y3.0947
X1.2579 Y3.0969
X1.2522 Y3.0989
X1.2465 Y3.1006
X1.2406 Y3.102
X1.2348 Y3.1032
X1.2288 Y3.1041
X1.2229 Y3.1047
X1.2169 Y3.1051
X1.2109 Y3.1053
X1.2049 Y3.1051
X1.1989 Y3.1048
X1.1929 Y3.1041
X1.187 Y3.1032
X1.1811 Y3.102
X1.1753 Y3.1006
X1.1695 Y3.099
X1.1638 Y3.0971
X1.1582 Y3.0949
X1.1527 Y3.0925
X1.1473 Y3.0899
X1.142 Y3.0871
X1.1369 Y3.084
X1.1318 Y3.0807
X1.127 Y3.0772
X1.1222 Y3.0735
X1.1177 Y3.0696
X1.1133 Y3.0656
X1.1091 Y3.0613
X1.105 Y3.0568
X1.1012 Y3.0522
X1.0975 Y3.0475
X1.0941 Y3.0425
X1.0908 Y3.0375
X1.0878 Y3.0322
X1.085 Y3.0269
X1.0825 Y3.0215
X1.0801 Y3.0159
X1.078 Y3.0103
X1.0762 Y3.0045
X1.0746 Y2.9987
X1.0732 Y2.9929
X1.0721 Y2.987
X1.0712 Y2.981
X1.0706 Y2.975
X1.0703 Y2.969
X1.0702 Y2.963
X1.0703 Y2.9569
X1.0708 Y2.9509
X1.0714 Y2.9449
X1.0723 Y2.939
X1.0735 Y2.9331
X1.0749 Y2.9272
X1.0766 Y2.9214
X1.0785 Y2.9157
X1.0807 Y2.9101
X1.0831 Y2.9046
X1.0857 Y2.8991
X1.0886 Y2.8938
X1.0916 Y2.8886
X1.0949 Y2.8836
X1.0984 Y2.8787
X1.1021 Y2.8739
X1.106 Y2.8693
X1.1101 Y2.8649
X1.1144 Y2.8607
X1.1189 Y2.8566
X1.1235 Y2.8528
X1.1283 Y2.8491
X1.1332 Y2.8456
X1.1383 Y2.8424
X1.1435 Y2.8394
X1.1489 Y2.8366
X1.1543 Y2.834
X1.1599 Y2.8316
X1.1655 Y2.8295
X1.1713 Y2.8277
X1.1771 Y2.8261
X1.1829 Y2.8247
X1.1889 Y2.8236
X1.1948 Y2.8227
X1.2008 Y2.8221
X1.2068 Y2.8217
X1.2129 Y2.8216
X1.2189 Y2.8218
X1.2249 Y2.8222
X1.2309 Y2.8229
X1.2369 Y2.8238
X1.2428 Y2.8249
X1.2486 Y2.8264
X1.2544 Y2.828
X1.2601 Y2.8299
X1.2658 Y2.8321
X1.2713 Y2.8345
X1.2767 Y2.8371
X1.282 Y2.84
X1.2872 Y2.843
X1.2923 Y2.8463
X1.2972 Y2.8498
X1.302 Y2.8535
X1.3065 Y2.8574
X1.311 Y2.8615
X1.3152 Y2.8658
X1.3193 Y2.8703
X1.3231 Y2.8749
X1.3268 Y2.8797
X1.3303 Y2.8846
X1.3335 Y2.8897
X1.3366 Y2.8949
X1.3394 Y2.9002
X1.3419 Y2.9057
X1.3444 Y2.9115
X1.3471 Y2.9187
X1.35 Y2.9276
X1.3534 Y2.9396
X1.3557 Y2.9496
X1.3573 Y2.9583
X1.3585 Y2.966
X1.3592 Y2.9732
X1.3596 Y2.9801
X1.3597 Y2.9867
X1.3596 Y2.9929
X1.3592 Y2.999
X1.3585 Y3.0051
X1.3576 Y3.011
X1.3565 Y3.0169
X1.355 Y3.0227
X1.3534 Y3.0285
X1.3514 Y3.0342
X1.3493 Y3.0398
X1.3469 Y3.0453
X1.3442 Y3.0507
X1.3413 Y3.0559
X1.3382 Y3.0611
X1.3349 Y3.066
X1.3314 Y3.0709
X1.3276 Y3.0757
X1.3236 Y3.0803
X1.3194 Y3.0847
X1.315 Y3.089
X1.3104 Y3.0931
X1.3055 Y3.0971
X1.3005 Y3.1008
X1.2953 Y3.1044
X1.2898 Y3.1078
X1.2842 Y3.111
X1.2785 Y3.114
X1.2725 Y3.1167
X1.2665 Y3.1192
X1.2603 Y3.1214
X1.2539 Y3.1234
X1.2475 Y3.1251
X1.241 Y3.1266
X1.2344 Y3.1278
X1.2277 Y3.1287
X1.221 Y3.1293
X1.2142 Y3.1296
X1.2074 Y3.1297
X1.2006 Y3.1294
X1.1937 Y3.1289
X1.1869 Y3.1281
X1.1801 Y3.127
X1.1734 Y3.1255
X1.1667 Y3.1239
X1.16 Y3.1219
X1.1534 Y3.1196
X1.147 Y3.1171
X1.1406 Y3.1142
X1.1343 Y3.1111
X1.1282 Y3.1078
X1.1222 Y3.1041
X1.1164 Y3.1003
X1.1107 Y3.0961
X1.1052 Y3.0918
X1.0999 Y3.0872
X1.0948 Y3.0823
X1.0899 Y3.0773
X1.0852 Y3.072
X1.0807 Y3.0666
X1.0765 Y3.0609
X1.0725 Y3.0551
X1.0687 Y3.0491
X1.0652 Y3.043
X1.062 Y3.0367
X1.059 Y3.0303
X1.0564 Y3.0238
X1.0539 Y3.0171
X1.0518 Y3.0104
X1.05 Y3.0035
X1.0484 Y2.9966
X1.0472 Y2.9897
X1.0462 Y2.9827
X1.0456 Y2.9756
X1.0452 Y2.9685
Y2.9615
X1.0454 Y2.9544
X1.0459 Y2.9473
X1.0468 Y2.9403
X1.0479 Y2.9333
X1.0494 Y2.9263
X1.0511 Y2.9195
X1.0531 Y2.9127
X1.0554 Y2.906
X1.058 Y2.8994
X1.0609 Y2.8929
X1.064 Y2.8865
X1.0674 Y2.8803
X1.0711 Y2.8743
X1.075 Y2.8684
X1.0792 Y2.8626
X1.0836 Y2.8571
X1.0882 Y2.8517
X1.0931 Y2.8465
X1.0982 Y2.8416
X1.1034 Y2.8369
X1.1089 Y2.8324
X1.1146 Y2.8281
X1.1204 Y2.8241
X1.1264 Y2.8203
X1.1326 Y2.8168
X1.1389 Y2.8135
X1.1453 Y2.8106
X1.1519 Y2.8079
X1.1585 Y2.8054
X1.1653 Y2.8033
X1.1722 Y2.8015
X1.1791 Y2.7999
X1.186 Y2.7986
X1.1931 Y2.7977
X1.2001 Y2.797
X1.2072 Y2.7967
X1.2143 Y2.7966
X1.2214 Y2.7968
X1.2285 Y2.7974
X1.2355 Y2.7982
X1.2425 Y2.7993
X1.2495 Y2.8008
X1.2563 Y2.8025
X1.2631 Y2.8045
X1.2698 Y2.8068
X1.2764 Y2.8094
X1.2829 Y2.8123
X1.2893 Y2.8154
X1.2955 Y2.8188
X1.3016 Y2.8224
X1.3075 Y2.8264
X1.3132 Y2.8305
X1.3188 Y2.8349
X1.3242 Y2.8396
X1.3293 Y2.8444
X1.3343 Y2.8495
X1.339 Y2.8548
X1.3437 Y2.8604
X1.3483 Y2.8666
X1.3529 Y2.8732
X1.3573 Y2.8803
X1.3617 Y2.8879
X1.3658 Y2.8959
X1.3696 Y2.904
X1.373 Y2.9122
X1.376 Y2.9204
X1.3786 Y2.9287
X1.3808 Y2.9369
X1.3826 Y2.945
X1.3841 Y2.953
X1.3852 Y2.9609
X1.3859 Y2.9687
X1.3863 Y2.9764
X1.3864 Y2.984
X1.3861 Y2.9916
X1.3856 Y2.999
X1.3847 Y3.0063
X1.3836 Y3.0136
X1.3821 Y3.0207
X1.3803 Y3.0277
X1.3783 Y3.0347
X1.376 Y3.0415
X1.3733 Y3.0482
X1.3704 Y3.0548
X1.3673 Y3.0613
X1.3638 Y3.0676
X1.3601 Y3.0738
X1.3561 Y3.0798
X1.3518 Y3.0857
X1.3473 Y3.0914
X1.3425 Y3.097
X1.3375 Y3.1023
X1.3323 Y3.1075
X1.3268 Y3.1124
X1.321 Y3.1171
X1.3151 Y3.1216
X1.3089 Y3.1259
X1.3026 Y3.1299
X1.296 Y3.1336
X1.2893 Y3.1371
X1.2824 Y3.1403
X1.2753 Y3.1433
X1.2681 Y3.1459
X1.2608 Y3.1482
X1.2533 Y3.1502
X1.2458 Y3.152
X1.2381 Y3.1534
X1.2304 Y3.1544
X1.2226 Y3.1552
X1.2148 Y3.1556
X1.2069 Y3.1557
X1.199 Y3.1554
X1.1911 Y3.1548
X1.1832 Y3.1539
X1.1753 Y3.1527
X1.1675 Y3.1511
X1.1598 Y3.1491
X1.1521 Y3.1469
X1.1445 Y3.1443
X1.137 Y3.1414
X1.1296 Y3.1381
X1.1224 Y3.1346
X1.1153 Y3.1307
X1.1083 Y3.1266
X1.1016 Y3.1221
X1.095 Y3.1173
X1.0886 Y3.1123
X1.0825 Y3.107
X1.0765 Y3.1015
X1.0708 Y3.0956
X1.0654 Y3.0896
X1.0602 Y3.0833
X1.0553 Y3.0768
X1.0506 Y3.0701
X1.0463 Y3.0632
X1.0422 Y3.0561
X1.0384 Y3.0488
X1.035 Y3.0414
X1.0318 Y3.0339
X1.029 Y3.0262
X1.0265 Y3.0184
X1.0244 Y3.0105
X1.0225 Y3.0025
X1.0211 Y2.9944
X1.0199 Y2.9863
X1.0191 Y2.9782
X1.0187 Y2.97
X1.0186 Y2.9618
X1.0189 Y2.9536
X1.0195 Y2.9454
X1.0204 Y2.9372
X1.0217 Y2.9291
X1.0233 Y2.9211
X1.0253 Y2.9131
X1.0276 Y2.9052
X1.0302 Y2.8975
X1.0332 Y2.8898
X1.0365 Y2.8823
X1.0401 Y2.8749
X1.044 Y2.8677
X1.0483 Y2.8606
X1.0528 Y2.8538
X1.0576 Y2.8471
X1.0627 Y2.8407
X1.068 Y2.8344
X1.0736 Y2.8284
X1.0795 Y2.8227
X1.0856 Y2.8172
X1.0919 Y2.8119
X1.0985 Y2.8069
X1.1052 Y2.8023
X1.1122 Y2.7979
X1.1193 Y2.7938
X1.1266 Y2.79
X1.134 Y2.7865
X1.1416 Y2.7833
X1.1493 Y2.7805
X1.1572 Y2.778
X1.1651 Y2.7758
X1.1731 Y2.774
X1.1812 Y2.7725
X1.1893 Y2.7714
X1.1975 Y2.7706
X1.2057 Y2.7701
X1.2139 Y2.77
X1.2221 Y2.7702
X1.2303 Y2.7708
X1.2385 Y2.7718
X1.2466 Y2.7731
X1.2547 Y2.7747
X1.2626 Y2.7767
X1.2705 Y2.779
X1.2783 Y2.7816
X1.286 Y2.7846
X1.2935 Y2.7879
X1.3009 Y2.7915
X1.3081 Y2.7954
X1.3152 Y2.7996
X1.3221 Y2.8041
X1.3288 Y2.809
X1.3355 Y2.8142
X1.342 Y2.8198
X1.3483 Y2.8257
X1.3546 Y2.8321
X1.3607 Y2.8388
X1.3665 Y2.8458
X1.3721 Y2.8532
X1.3774 Y2.8609
X1.3825 Y2.8688
X1.3872 Y2.8769
X1.3915 Y2.8853
X1.3955 Y2.8938
X1.3991 Y2.9024
X1.4023 Y2.9112
X1.4051 Y2.92
X1.4076 Y2.9288
X1.4096 Y2.9377
X1.4112 Y2.9465
X1.4125 Y2.9554
X1.4134 Y2.9642
X1.4139 Y2.973
X1.414 Y2.9818
X1.4137 Y2.9905
X1.4131 Y2.9992
X1.4121 Y3.0077
X1.4108 Y3.0162
X1.4091 Y3.0246
X1.4071 Y3.0329
X1.4047 Y3.0411
X1.402 Y3.0492
X1.3989 Y3.0571
X1.3955 Y3.0649
X1.3918 Y3.0725
X1.3878 Y3.08
X1.3834 Y3.0873
X1.3788 Y3.0944
X1.3738 Y3.1013
X1.3685 Y3.108
X1.363 Y3.1145
X1.3571 Y3.1208
X1.351 Y3.1268
X1.3446 Y3.1326
X1.338 Y3.1381
X1.3311 Y3.1434
X1.324 Y3.1483
X1.3166 Y3.153
X1.3091 Y3.1573
X1.3013 Y3.1614
X1.2934 Y3.1651
X1.2853 Y3.1685
X1.277 Y3.1716
X1.2685 Y3.1743
X1.26 Y3.1767
X1.2513 Y3.1787
X1.2425 Y3.1803
X1.2336 Y3.1816
X1.2247 Y3.1825
X1.2157 Y3.183
X1.2067 Y3.1831
X1.1977 Y3.1829
X1.1886 Y3.1822
X1.1796 Y3.1812
X1.1706 Y3.1798
X1.1617 Y3.178
X1.1528 Y3.1758
X1.144 Y3.1733
X1.1353 Y3.1703
X1.1267 Y3.167
X1.1183 Y3.1634
X1.11 Y3.1594
X1.1019 Y3.155
X1.0939 Y3.1502
X1.0862 Y3.1452
X1.0786 Y3.1398
X1.0713 Y3.1341
X1.0643 Y3.128
X1.0575 Y3.1217
X1.0509 Y3.1151
X1.0447 Y3.1082
X1.0387 Y3.101
X1.0331 Y3.0936
X1.0277 Y3.086
X1.0227 Y3.0781
X1.018 Y3.07
X1.0137 Y3.0617
X1.0097 Y3.0533
X1.0061 Y3.0447
X1.0029 Y3.0359
X1. Y3.027
X0.9975 Y3.0179
X0.9954 Y3.0088
X0.9936 Y2.9996
X0.9923 Y2.9903
X0.9914 Y2.981
X0.9908 Y2.9716
X0.9907 Y2.9622
X0.9909 Y2.9529
X0.9916 Y2.9435
X0.9926 Y2.9342
X0.9941 Y2.9249
X0.9959 Y2.9157
X0.9981 Y2.9066
X1.0007 Y2.8975
X1.0037 Y2.8886
X1.0071 Y2.8799
X1.0108 Y2.8712
X1.0149 Y2.8628
X1.0194 Y2.8545
X1.0242 Y2.8464
X1.0293 Y2.8386
X1.0348 Y2.8309
X1.0406 Y2.8235
X1.0467 Y2.8164
X1.0531 Y2.8095
X1.0597 Y2.8029
X1.0667 Y2.7965
X1.0739 Y2.7905
X1.0814 Y2.7848
X1.0891 Y2.7794
X1.097 Y2.7744
X1.1052 Y2.7696
X1.1135 Y2.7653
X1.122 Y2.7613
X1.1307 Y2.7576
X1.1395 Y2.7543
X1.1484 Y2.7514
X1.1575 Y2.7489
X1.1666 Y2.7468
X1.1759 Y2.745
X1.1852 Y2.7437
X1.1945 Y2.7428
X1.2039 Y2.7422
X1.2133 Y2.742
X1.2227 Y2.7423
X1.2321 Y2.7429
X1.2415 Y2.744
X1.2508 Y2.7454
X1.26 Y2.7472
X1.2691 Y2.7495
X1.2782 Y2.7521
X1.2871 Y2.755
X1.2959 Y2.7584
X1.3046 Y2.7622
X1.3131 Y2.7663
X1.3216 Y2.7708
X1.3298 Y2.7757
X1.338 Y2.781
X1.346 Y2.7867
X1.3538 Y2.7928
X1.3614 Y2.7993
X1.3688 Y2.8062
X1.3759 Y2.8134
X1.3828 Y2.8209
X1.3894 Y2.8288
X1.3957 Y2.837
X1.4016 Y2.8455
X1.4072 Y2.8542
X1.4124 Y2.8632
X1.4172 Y2.8724
X1.4217 Y2.8817
X1.4257 Y2.8912
X1.4293 Y2.9009
X1.4324 Y2.9106
X1.4352 Y2.9205
X1.4375 Y2.9304
X1.4394 Y2.9403
X1.4408 Y2.9503
X1.4419 Y2.9603
X1.4424 Y2.9703
X1.4426 Y2.9803
X1.4424 Y2.9902
X1.4417 Y3.0001
X1.4406 Y3.0099
X1.4391 Y3.0197
X1.4372 Y3.0293
X1.4349 Y3.0388
X1.4322 Y3.0483
X1.4291 Y3.0575
X1.4256 Y3.0667
X1.4218 Y3.0756
X1.4175 Y3.0844
X1.4129 Y3.093
X1.4079 Y3.1014
X1.4026 Y3.1096
X1.3969 Y3.1176
X1.3909 Y3.1253
X1.3846 Y3.1328
X1.3779 Y3.14
X1.3709 Y3.1469
X1.3636 Y3.1536
X1.3561 Y3.1599
X1.3482 Y3.1659
X1.3401 Y3.1716
X1.3318 Y3.177
X1.3232 Y3.182
X1.3143 Y3.1867
X1.3053 Y3.1909
X1.2961 Y3.1949
X1.2866 Y3.1984
X1.2771 Y3.2015
X1.2673 Y3.2042
X1.2575 Y3.2065
X1.2475 Y3.2084
X1.2375 Y3.2099
X1.2273 Y3.2109
X1.2172 Y3.2116
X1.2069 Y3.2117
X1.1967 Y3.2115
X1.1864 Y3.2108
X1.1762 Y3.2097
X1.166 Y3.2081
X1.1559 Y3.2062
X1.1458 Y3.2037
X1.1359 Y3.2009
X1.126 Y3.1976
X1.1163 Y3.1939
X1.1067 Y3.1898
X1.0973 Y3.1853
X1.0881 Y3.1804
X1.0791 Y3.175
X1.0704 Y3.1693
X1.0618 Y3.1633
X1.0535 Y3.1568
X1.0455 Y3.1501
X1.0378 Y3.1429
X1.0304 Y3.1355
X1.0233 Y3.1277
X1.0165 Y3.1196
X1.0101 Y3.1113
X1.004 Y3.1027
X0.9983 Y3.0938
X0.993 Y3.0847
X0.9881 Y3.0753
X0.9835 Y3.0658
X0.9794 Y3.056
X0.9757 Y3.0461
X0.9724 Y3.0361
X0.9695 Y3.0259
X0.9671 Y3.0156
X0.9651 Y3.0052
X0.9636 Y2.9947
X0.9625 Y2.9841
X0.9618 Y2.9735
X0.9616 Y2.9629
X0.9619 Y2.9523
X0.9626 Y2.9417
X0.9637 Y2.9312
X0.9653 Y2.9207
X0.9673 Y2.9103
X0.9698 Y2.8999
X0.9727 Y2.8897
X0.9761 Y2.8796
X0.9798 Y2.8697
X0.984 Y2.8599
X0.9886 Y2.8504
X0.9936 Y2.841
X0.999 Y2.8318
X1.0048 Y2.8229
X1.011 Y2.8142
X1.0175 Y2.8058
X1.0243 Y2.7977
X1.0315 Y2.7899
X1.0391 Y2.7824
X1.0469 Y2.7752
X1.0551 Y2.7684
X1.0635 Y2.7619
X1.0722 Y2.7557
X1.0811 Y2.75
X1.0903 Y2.7446
X1.0997 Y2.7396
X1.1093 Y2.7351
X1.1191 Y2.7309
X1.129 Y2.7272
X1.1391 Y2.7239
X1.1494 Y2.721
X1.1597 Y2.7185
X1.1702 Y2.7165
X1.1807 Y2.7149
X1.1913 Y2.7138
X1.2019 Y2.7132
X1.2125 Y2.713
X1.2232 Y2.7132
X1.2338 Y2.7139
X1.2444 Y2.715
X1.2549 Y2.7166
X1.2654 Y2.7186
X1.2758 Y2.7211
X1.2861 Y2.724
X1.2963 Y2.7274
X1.3064 Y2.7312
X1.3163 Y2.7355
X1.3261 Y2.7402
X1.3358 Y2.7453
X1.3453 Y2.7509
X1.3546 Y2.7569
X1.3637 Y2.7634
X1.3726 Y2.7702
X1.3812 Y2.7775
X1.3895 Y2.7852
X1.3975 Y2.7932
X1.4052 Y2.8016
X1.4126 Y2.8103
X1.4196 Y2.8194
X1.4262 Y2.8288
X1.4324 Y2.8384
X1.4382 Y2.8483
X1.4436 Y2.8585
X1.4485 Y2.8688
X1.453 Y2.8793
X1.4571 Y2.89
X1.4606 Y2.9009
X1.4637 Y2.9118
X1.4664 Y2.9229
X1.4685 Y2.934
X1.4702 Y2.9452
X1.4714 Y2.9564
X1.4721 Y2.9677
X1.4723 Y2.9789
X1.4721 Y2.9901
X1.4714 Y3.0012
X1.4702 Y3.0123
X1.4685 Y3.0233
X1.4664 Y3.0342
X1.4639 Y3.045
X1.4608 Y3.0557
X1.4574 Y3.0662
X1.4535 Y3.0766
X1.4491 Y3.0868
X1.4444 Y3.0968
X1.4392 Y3.1065
X1.4336 Y3.1161
X1.4276 Y3.1254
X1.4212 Y3.1344
X1.4144 Y3.1432
X1.4072 Y3.1517
X1.3997 Y3.1599
X1.3918 Y3.1678
X1.3836 Y3.1753
X1.3751 Y3.1825
X1.3663 Y3.1893
X1.3571 Y3.1958
X1.3477 Y3.2019
X1.338 Y3.2076
X1.3281 Y3.2128
X1.3179 Y3.2177
X1.3076 Y3.2221
X1.297 Y3.2261
X1.2862 Y3.2297
X1.2753 Y3.2328
X1.2642 Y3.2354
X1.253 Y3.2376
X1.2417 Y3.2393
X1.2304 Y3.2405
X1.2189 Y3.2413
X1.2074 Y3.2415
X1.1959 Y3.2413
X1.1844 Y3.2406
X1.1729 Y3.2393
X1.1615 Y3.2376
X1.1501 Y3.2355
X1.1388 Y3.2328
X1.1277 Y3.2296
X1.1166 Y3.226
X1.1057 Y3.2219
X1.095 Y3.2173
X1.0913 Y3.2156
X1.0881 Y3.2139
X1.0804 Y3.21
X1.0799 Y3.2098
X1.0659 Y3.2017
X1.0561 Y3.1956
X1.0505 Y3.1917
X1.0489 Y3.1906
X1.0473 Y3.1893
G3 X1.0767 Y3.149 I0.0161 J-0.0191
G1 X1.1037 Y3.1659
G3 X1.0799 Y3.2098 I-0.0133 J0.0212
G1 X1.0635 Y3.2014
X1.0614 Y3.2002
X1.0594 Y3.1988
X1.0388 Y3.1826
X1.0349 Y3.1796
X1.0332 Y3.1782
X1.0219 Y3.1684
X1.0135 Y3.1605
X1.0103 Y3.1572
X1.009 Y3.1557
X1.0076 Y3.1542
G3 X1.0443 Y3.1203 I0.0195 J-0.0156
G1 X1.0651 Y3.1398
G3 X1.0332 Y3.1782 I-0.0171 J0.0182
G1 X1.0213 Y3.1689
X1.0177 Y3.1658
X1.0132 Y3.1607
X0.9991 Y3.1442
X0.9977 Y3.1426
X0.9946 Y3.139
X0.9852 Y3.1268
X0.9786 Y3.1176
X0.977 Y3.115
X0.9759 Y3.1132
X0.9749 Y3.1115
G3 X1.0174 Y3.0854 I0.0222 J-0.0115
G1 X1.0333 Y3.1074
G3 X0.9946 Y3.139 I-0.0203 J0.0146
G1 X0.985 Y3.1278
X0.9813 Y3.1227
X0.9656 Y3.0949
X0.9648 Y3.0936
X0.9642 Y3.0924
X0.9577 Y3.0793
X0.9529 Y3.0687
X0.9522 Y3.0669
X0.9515 Y3.065
X0.9509 Y3.0631
G3 X0.9976 Y3.0457 I0.024 J-0.0069
G1 X1.0083 Y3.069
G3 X0.9642 Y3.0924 I-0.0227 J0.0104
G1 X0.9563 Y3.0785
X0.9532 Y3.0702
X0.9452 Y3.0456
X0.9437 Y3.0411
X0.9433 Y3.0399
X0.9399 Y3.0276
X0.9383 Y3.0203
X0.9376 Y3.0169
X0.937 Y3.0136
X0.9365 Y3.0102
G3 X0.9858 Y3.0025 I0.0249 J-0.0021
G1 X0.9912 Y3.0257
G3 X0.9433 Y3.0399 I-0.0244 J0.0056
G1 X0.9398 Y3.0291
X0.9385 Y3.025
X0.9378 Y3.0209
X0.9349 Y2.9962
X0.9339 Y2.988
X0.9337 Y2.9867
X0.9327 Y2.9728
X0.9325 Y2.9656
Y2.9622
X0.9326 Y2.9588
X0.9328 Y2.9554
G3 X0.9826 Y2.9574 I0.0248 J0.0028
G1 X0.9834 Y2.982
G3 X0.9337 Y2.9867 I-0.025 J0.0008
G1 X0.9319 Y2.9716
X0.932 Y2.9662
X0.9341 Y2.9387
X0.9344 Y2.9342
X0.9346 Y2.9321
X0.9363 Y2.9181
X0.9376 Y2.9109
X0.9382 Y2.9075
X0.9389 Y2.9042
X0.9398 Y2.9009
G3 X0.9883 Y2.9126 I0.0238 J0.0076
G1 X0.9842 Y2.9373
G3 X0.9346 Y2.9321 I-0.0247 J-0.0041
G1 X0.9353 Y2.9222
X0.9362 Y2.914
X0.9402 Y2.8996
X0.9453 Y2.8811
X0.946 Y2.8786
X0.9465 Y2.8769
X0.9504 Y2.8653
X0.9528 Y2.859
X0.9541 Y2.8558
X0.9555 Y2.8527
X0.957 Y2.8496
G3 X1.0022 Y2.8706 I0.0219 J0.0121
G1 X0.9942 Y2.8917
G3 X0.9465 Y2.8769 I-0.0234 J-0.0089
G1 X0.9499 Y2.8647
X0.9514 Y2.8606
X0.9577 Y2.8482
X0.9648 Y2.8341
X0.966 Y2.8318
X0.9673 Y2.8293
X0.9751 Y2.8156
X0.9789 Y2.8095
X0.9808 Y2.8066
X0.9828 Y2.8039
X0.9848 Y2.8011
G3 X1.0252 Y2.8304 I0.0191 J0.0161
G1 X1.0112 Y2.853
G3 X0.9673 Y2.8293 I-0.0213 J-0.0132
G1 X0.9743 Y2.8154
X0.9769 Y2.8112
X0.993 Y2.7907
X0.9977 Y2.7847
X0.9995 Y2.7825
X1.0082 Y2.7725
X1.0129 Y2.7675
X1.0153 Y2.765
X1.0177 Y2.7627
X1.0203 Y2.7604
G3 X1.0541 Y2.7971 I0.0156 J0.0195
G1 X1.0379 Y2.8143
G3 X0.9995 Y2.7825 I-0.0182 J-0.0171
G1 X1.0059 Y2.7742
X1.0093 Y2.7701
X1.0141 Y2.7657
X1.0329 Y2.7496
X1.0388 Y2.7445
X1.0399 Y2.7436
X1.0493 Y2.7363
X1.0545 Y2.7326
X1.0573 Y2.7307
X1.0602 Y2.7289
X1.0631 Y2.7272
G3 X1.0891 Y2.7698 I0.0115 J0.0222
G1 X1.0713 Y2.7824
G3 X1.0399 Y2.7436 I-0.0145 J-0.0204
G1 X1.047 Y2.7375
X1.0526 Y2.7331
X1.0552 Y2.7316
X1.0799 Y2.7177
X1.0817 Y2.7167
X1.0837 Y2.7156
X1.0973 Y2.7088
X1.1037 Y2.7059
X1.1069 Y2.7046
X1.11 Y2.7034
X1.1133 Y2.7022
G3 X1.1305 Y2.749 I0.0069 J0.024
G1 X1.107 Y2.7597
G3 X1.0837 Y2.7156 I-0.0103 J-0.0228
G1 X1.0963 Y2.7085
X1.1004 Y2.7065
X1.1046 Y2.7051
X1.1292 Y2.697
X1.1337 Y2.6956
X1.1358 Y2.6949
X1.1489 Y2.6913
X1.1556 Y2.6898
X1.159 Y2.6891
X1.1623 Y2.6885
X1.1657 Y2.688
G3 X1.1735 Y2.7373 I0.0021 J0.0249
G1 X1.15 Y2.7427
G3 X1.1358 Y2.6949 I-0.0056 J-0.0244
G1 X1.1498 Y2.6903
X1.1539 Y2.6895
X1.1867 Y2.6855
X1.1892 Y2.6852
X1.191 Y2.685
X1.2032 Y2.6841
X1.2095 Y2.6839
X1.213
X1.2164 Y2.684
X1.2198 Y2.6842
G3 X1.2177 Y2.734 I-0.0028 J0.0248
G1 X1.1955 Y2.7347
G3 X1.191 Y2.685 I-0.0007 J-0.025
G1 X1.2032 Y2.6835
X1.2073 Y2.6833
X1.2114 Y2.6835
X1.2361 Y2.6854
X1.2443 Y2.6861
X1.2456 Y2.6862
X1.258 Y2.6877
X1.2642 Y2.6888
X1.2676 Y2.6894
X1.2709 Y2.6902
X1.2742 Y2.691
G3 X1.2625 Y2.7395 I-0.0076 J0.0238
G1 X1.2405 Y2.7358
G3 X1.2456 Y2.6862 I0.0042 J-0.0247
G1 X1.2525 Y2.6867
X1.2607 Y2.6874
X1.2689 Y2.6896
X1.2936 Y2.6965
X1.2981 Y2.6977
X1.2992 Y2.698
X1.3118 Y2.7022
X1.3165 Y2.704
X1.3197 Y2.7053
X1.3228 Y2.7067
X1.3258 Y2.7082
G3 X1.3049 Y2.7534 I-0.0121 J0.0219
G1 X1.2845 Y2.7457
G3 X1.2992 Y2.698 I0.0089 J-0.0234
G1 X1.31 Y2.7011
X1.3141 Y2.7024
X1.3183 Y2.7043
X1.3426 Y2.7167
X1.3594 Y2.7252
X1.3635 Y2.7275
X1.3676 Y2.7306
X1.4022 Y2.7578
X1.4055 Y2.7604
X1.4087 Y2.7637
X1.4388 Y2.7989
X1.4415 Y2.8022
X1.4446 Y2.8071
X1.4677 Y2.8482
X1.4697 Y2.8524
X1.4845 Y2.8976
X1.4858 Y2.9017
X1.4866 Y2.9058
X1.4925 Y2.9551
X1.4927 Y2.9592
X1.4892 Y3.0045
X1.4885 Y3.0127
X1.4863 Y3.0209
X1.4744 Y3.0633
X1.4731 Y3.0668
X1.4714 Y3.0702
X1.4498 Y3.1129
X1.445 Y3.1196
X1.4169 Y3.1554
X1.4145 Y3.158
X1.4116 Y3.1607
X1.3758 Y3.1914
X1.373 Y3.1936
X1.3676 Y3.1968
X1.3295 Y3.2182
X1.3265 Y3.2199
X1.3183 Y3.2229
X1.2772 Y3.2364
X1.273 Y3.2376
X1.2689 Y3.2382
X1.2278 Y3.2432
X1.2196 Y3.2441
X1.2114 Y3.2438
X1.1703 Y3.2406
X1.1621 Y3.2397
X1.1374 Y3.2328
X1.1128 Y3.2259
X1.1087 Y3.2243
X1.0913 Y3.2156
X1.0888 Y3.214
X1.0865 Y3.2121
X1.0847 Y3.2097 Z-0.2898
X1.0829 Y3.2074 Z-0.2893
X1.0812 Y3.2051 Z-0.2884
X1.0802 Y3.2021 Z-0.2869
X1.0794 Y3.1993 Z-0.285
X1.0786 Y3.1967 Z-0.2827
X1.0785 Y3.1951 Z-0.2809
X1.0784 Y3.1937 Z-0.2789
X1.0786 Y3.1918 Z-0.2757
X1.0787 Y3.1905 Z-0.2723
Y3.1897 Z-0.2687
X1.0788 Y3.1894 Z-0.265
G0 Z0.2
X2.5137 Y4.9873
Z0.102
G3 X2.2856 Y5.0534 Z0.089 I-0.1141 J0.033 F20.
X2.5137 Y4.9873 Z0.0759 I0.1141 J-0.033
X2.2856 Y5.0534 Z0.0629 I-0.1141 J0.033
X2.5137 Y4.9873 Z0.0499 I0.1141 J-0.033
X2.2856 Y5.0534 Z0.0369 I-0.1141 J0.033
X2.5137 Y4.9873 Z0.0238 I0.1141 J-0.033
X2.2856 Y5.0534 Z0.0108 I-0.1141 J0.033
X2.5137 Y4.9873 Z-0.0022 I0.1141 J-0.033
X2.2856 Y5.0534 Z-0.0152 I-0.1141 J0.033
X2.5137 Y4.9873 Z-0.0283 I0.1141 J-0.033
X2.2856 Y5.0534 Z-0.0413 I-0.1141 J0.033
X2.5137 Y4.9873 Z-0.0543 I0.1141 J-0.033
X2.2856 Y5.0534 Z-0.0674 I-0.1141 J0.033
X2.5137 Y4.9873 Z-0.0804 I0.1141 J-0.033
X2.2856 Y5.0534 Z-0.0934 I-0.1141 J0.033
X2.5137 Y4.9873 Z-0.1064 I0.1141 J-0.033
X2.2856 Y5.0534 Z-0.1195 I-0.1141 J0.033
X2.5137 Y4.9873 Z-0.1325 I0.1141 J-0.033
X2.2856 Y5.0534 Z-0.1455 I-0.1141 J0.033
X2.5137 Y4.9873 Z-0.1586 I0.1141 J-0.033
X2.2856 Y5.0534 Z-0.1716 I-0.1141 J0.033
X2.5137 Y4.9873 Z-0.1846 I0.1141 J-0.033
X2.2856 Y5.0534 Z-0.1976 I-0.1141 J0.033
X2.5137 Y4.9873 Z-0.2107 I0.1141 J-0.033
X2.2856 Y5.0534 Z-0.2237 I-0.1141 J0.033
X2.5137 Y4.9873 Z-0.2367 I0.1141 J-0.033
X2.2856 Y5.0534 Z-0.2497 I-0.1141 J0.033
X2.5137 Y4.9873 Z-0.2628 I0.1141 J-0.033
X2.2856 Y5.0534 Z-0.2758 I-0.1141 J0.033
X2.3829 Y4.9028 Z-0.2829 I0.1141 J-0.033
X2.5184 Y5.0203 Z-0.29 I0.0167 J0.1176
X2.2809 I-0.1187 J0.
X2.5184 I0.1187 J0.
G1 X2.519 Y5.0565 F30.
X2.5194 Y5.061
Y5.067
X2.5187 Y5.073
X2.5176 Y5.0789
X2.5159 Y5.0846
X2.5139 Y5.0903
X2.5115 Y5.0958
X2.5087 Y5.1011
X2.5056 Y5.1062
X2.5022 Y5.1112
X2.4986 Y5.116
X2.4947 Y5.1205
X2.4905 Y5.1249
X2.4862 Y5.129
X2.4816 Y5.1329
X2.4769 Y5.1365
X2.472 Y5.14
X2.4669 Y5.1432
X2.4617 Y5.1461
X2.4563 Y5.1489
X2.4508 Y5.1513
X2.4453 Y5.1535
X2.4396 Y5.1555
X2.4338 Y5.1572
X2.428 Y5.1586
X2.4221 Y5.1598
X2.4162 Y5.1607
X2.4102 Y5.1613
X2.4042 Y5.1617
X2.3982 Y5.1619
X2.3922 Y5.1617
X2.3863 Y5.1614
X2.3803 Y5.1607
X2.3744 Y5.1598
X2.3685 Y5.1586
X2.3626 Y5.1572
X2.3569 Y5.1556
X2.3512 Y5.1537
X2.3456 Y5.1515
X2.3401 Y5.1491
X2.3347 Y5.1465
X2.3294 Y5.1437
X2.3242 Y5.1406
X2.3192 Y5.1373
X2.3143 Y5.1338
X2.3096 Y5.1301
X2.305 Y5.1263
X2.3006 Y5.1222
X2.2964 Y5.1179
X2.2924 Y5.1134
X2.2885 Y5.1088
X2.2849 Y5.1041
X2.2814 Y5.0991
X2.2782 Y5.0941
X2.2752 Y5.0888
X2.2724 Y5.0835
X2.2698 Y5.0781
X2.2675 Y5.0725
X2.2654 Y5.0669
X2.2635 Y5.0612
X2.2619 Y5.0553
X2.2606 Y5.0495
X2.2595 Y5.0436
X2.2586 Y5.0376
X2.258 Y5.0316
X2.2576 Y5.0256
X2.2575 Y5.0196
X2.2577 Y5.0135
X2.2581 Y5.0075
X2.2588 Y5.0015
X2.2597 Y4.9956
X2.2609 Y4.9897
X2.2623 Y4.9838
X2.264 Y4.978
X2.2659 Y4.9723
X2.268 Y4.9667
X2.2704 Y4.9612
X2.2731 Y4.9557
X2.2759 Y4.9504
X2.279 Y4.9452
X2.2823 Y4.9402
X2.2858 Y4.9353
X2.2895 Y4.9305
X2.2934 Y4.9259
X2.2975 Y4.9215
X2.3018 Y4.9173
X2.3062 Y4.9132
X2.3109 Y4.9094
X2.3157 Y4.9057
X2.3206 Y4.9022
X2.3257 Y4.899
X2.3309 Y4.896
X2.3362 Y4.8932
X2.3417 Y4.8906
X2.3472 Y4.8882
X2.3529 Y4.8861
X2.3586 Y4.8843
X2.3644 Y4.8827
X2.3703 Y4.8813
X2.3762 Y4.8802
X2.3822 Y4.8793
X2.3882 Y4.8787
X2.3942 Y4.8783
X2.4002 Y4.8782
X2.4063 Y4.8784
X2.4123 Y4.8788
X2.4183 Y4.8795
X2.4242 Y4.8804
X2.4301 Y4.8816
X2.436 Y4.883
X2.4418 Y4.8846
X2.4475 Y4.8865
X2.4531 Y4.8887
X2.4587 Y4.8911
X2.4641 Y4.8937
X2.4694 Y4.8966
X2.4746 Y4.8996
X2.4797 Y4.9029
X2.4846 Y4.9064
X2.4893 Y4.9101
X2.4939 Y4.914
X2.4983 Y4.9181
X2.5026 Y4.9224
X2.5066 Y4.9269
X2.5105 Y4.9315
X2.5142 Y4.9363
X2.5176 Y4.9412
X2.5209 Y4.9463
X2.5239 Y4.9515
X2.5267 Y4.9568
X2.5293 Y4.9623
X2.5318 Y4.9681
X2.5344 Y4.9753
X2.5374 Y4.9842
X2.5407 Y4.9962
X2.5431 Y5.0062
X2.5447 Y5.0149
X2.5458 Y5.0226
X2.5466 Y5.0298
X2.547 Y5.0367
X2.5471 Y5.0433
X2.547 Y5.0495
X2.5466 Y5.0556
X2.5459 Y5.0617
X2.545 Y5.0676
X2.5438 Y5.0735
X2.5424 Y5.0793
X2.5407 Y5.0851
X2.5388 Y5.0908
X2.5366 Y5.0964
X2.5342 Y5.1019
X2.5316 Y5.1073
X2.5287 Y5.1125
X2.5256 Y5.1177
X2.5223 Y5.1227
X2.5187 Y5.1275
X2.5149 Y5.1323
X2.511 Y5.1369
X2.5068 Y5.1413
X2.5023 Y5.1456
X2.4977 Y5.1497
X2.4929 Y5.1537
X2.4879 Y5.1574
X2.4826 Y5.161
X2.4772 Y5.1644
X2.4716 Y5.1676
X2.4658 Y5.1706
X2.4599 Y5.1733
X2.4538 Y5.1758
X2.4476 Y5.178
X2.4413 Y5.18
X2.4349 Y5.1817
X2.4284 Y5.1832
X2.4218 Y5.1844
X2.4151 Y5.1853
X2.4083 Y5.1859
X2.4016 Y5.1862
X2.3948 Y5.1863
X2.3879 Y5.186
X2.3811 Y5.1855
X2.3743 Y5.1847
X2.3675 Y5.1836
X2.3607 Y5.1822
X2.354 Y5.1805
X2.3474 Y5.1785
X2.3408 Y5.1762
X2.3343 Y5.1737
X2.3279 Y5.1708
X2.3217 Y5.1677
X2.3156 Y5.1644
X2.3096 Y5.1607
X2.3037 Y5.1569
X2.2981 Y5.1527
X2.2926 Y5.1484
X2.2873 Y5.1438
X2.2821 Y5.1389
X2.2772 Y5.1339
X2.2725 Y5.1286
X2.2681 Y5.1232
X2.2638 Y5.1175
X2.2598 Y5.1117
X2.2561 Y5.1057
X2.2526 Y5.0996
X2.2494 Y5.0933
X2.2464 Y5.0869
X2.2437 Y5.0804
X2.2413 Y5.0737
X2.2392 Y5.067
X2.2373 Y5.0601
X2.2358 Y5.0532
X2.2346 Y5.0463
X2.2336 Y5.0393
X2.2329 Y5.0322
X2.2326 Y5.0251
X2.2325 Y5.0181
X2.2328 Y5.011
X2.2333 Y5.0039
X2.2342 Y4.9969
X2.2353 Y4.9899
X2.2367 Y4.9829
X2.2385 Y4.9761
X2.2405 Y4.9693
X2.2428 Y4.9626
X2.2454 Y4.956
X2.2482 Y4.9495
X2.2514 Y4.9431
X2.2548 Y4.9369
X2.2584 Y4.9309
X2.2624 Y4.925
X2.2665 Y4.9192
X2.2709 Y4.9137
X2.2756 Y4.9083
X2.2804 Y4.9031
X2.2855 Y4.8982
X2.2908 Y4.8935
X2.2963 Y4.889
X2.3019 Y4.8847
X2.3078 Y4.8807
X2.3138 Y4.8769
X2.3199 Y4.8734
X2.3263 Y4.8701
X2.3327 Y4.8672
X2.3392 Y4.8645
X2.3459 Y4.8621
X2.3527 Y4.8599
X2.3595 Y4.8581
X2.3664 Y4.8565
X2.3734 Y4.8553
X2.3804 Y4.8543
X2.3875 Y4.8536
X2.3946 Y4.8533
X2.4017 Y4.8532
X2.4088 Y4.8534
X2.4158 Y4.854
X2.4229 Y4.8548
X2.4299 Y4.8559
X2.4368 Y4.8574
X2.4437 Y4.8591
X2.4505 Y4.8611
X2.4572 Y4.8634
X2.4638 Y4.866
X2.4703 Y4.8689
X2.4767 Y4.872
X2.4829 Y4.8754
X2.489 Y4.8791
X2.4949 Y4.883
X2.5006 Y4.8871
X2.5062 Y4.8915
X2.5115 Y4.8962
X2.5167 Y4.901
X2.5217 Y4.9061
X2.5264 Y4.9114
X2.5311 Y4.917
X2.5357 Y4.9232
X2.5402 Y4.9298
X2.5447 Y4.9369
X2.5491 Y4.9445
X2.5532 Y4.9525
X2.5569 Y4.9606
X2.5603 Y4.9688
X2.5633 Y4.9771
X2.5659 Y4.9853
X2.5682 Y4.9935
X2.57 Y5.0016
X2.5714 Y5.0096
X2.5725 Y5.0175
X2.5733 Y5.0253
X2.5737 Y5.033
X2.5738 Y5.0406
X2.5735 Y5.0482
X2.573 Y5.0556
X2.5721 Y5.0629
X2.5709 Y5.0702
X2.5695 Y5.0773
X2.5677 Y5.0843
X2.5657 Y5.0913
X2.5633 Y5.0981
X2.5607 Y5.1048
X2.5578 Y5.1114
X2.5546 Y5.1179
X2.5512 Y5.1242
X2.5475 Y5.1304
X2.5435 Y5.1364
X2.5392 Y5.1423
X2.5347 Y5.148
X2.5299 Y5.1536
X2.5249 Y5.1589
X2.5196 Y5.1641
X2.5141 Y5.169
X2.5084 Y5.1737
X2.5024 Y5.1782
X2.4963 Y5.1825
X2.4899 Y5.1865
X2.4834 Y5.1902
X2.4766 Y5.1937
X2.4698 Y5.1969
X2.4627 Y5.1999
X2.4555 Y5.2025
X2.4482 Y5.2048
X2.4407 Y5.2068
X2.4331 Y5.2086
X2.4255 Y5.21
X2.4178 Y5.211
X2.41 Y5.2118
X2.4021 Y5.2122
X2.3943 Y5.2123
X2.3864 Y5.212
X2.3785 Y5.2114
X2.3706 Y5.2105
X2.3627 Y5.2093
X2.3549 Y5.2077
X2.3471 Y5.2057
X2.3394 Y5.2035
X2.3319 Y5.2009
X2.3244 Y5.198
X2.317 Y5.1947
X2.3097 Y5.1912
X2.3026 Y5.1873
X2.2957 Y5.1832
X2.2889 Y5.1787
X2.2824 Y5.174
X2.276 Y5.1689
X2.2698 Y5.1636
X2.2639 Y5.1581
X2.2582 Y5.1522
X2.2527 Y5.1462
X2.2476 Y5.1399
X2.2426 Y5.1334
X2.238 Y5.1267
X2.2336 Y5.1198
X2.2296 Y5.1127
X2.2258 Y5.1054
X2.2223 Y5.098
X2.2192 Y5.0905
X2.2164 Y5.0828
X2.2139 Y5.075
X2.2117 Y5.0671
X2.2099 Y5.0591
X2.2084 Y5.051
X2.2073 Y5.0429
X2.2065 Y5.0348
X2.2061 Y5.0266
X2.206 Y5.0184
X2.2062 Y5.0102
X2.2068 Y5.002
X2.2078 Y4.9938
X2.2091 Y4.9857
X2.2107 Y4.9777
X2.2127 Y4.9697
X2.215 Y4.9618
X2.2176 Y4.9541
X2.2206 Y4.9464
X2.2239 Y4.9389
X2.2275 Y4.9315
X2.2314 Y4.9243
X2.2356 Y4.9172
X2.2401 Y4.9104
X2.2449 Y4.9037
X2.25 Y4.8973
X2.2554 Y4.891
X2.261 Y4.885
X2.2669 Y4.8793
X2.273 Y4.8738
X2.2793 Y4.8685
X2.2858 Y4.8635
X2.2926 Y4.8589
X2.2995 Y4.8545
X2.3067 Y4.8504
X2.3139 Y4.8466
X2.3214 Y4.8431
X2.329 Y4.8399
X2.3367 Y4.8371
X2.3445 Y4.8346
X2.3524 Y4.8324
X2.3605 Y4.8306
X2.3685 Y4.8291
X2.3767 Y4.828
X2.3849 Y4.8272
X2.3931 Y4.8267
X2.4013 Y4.8266
X2.4095 Y4.8269
X2.4177 Y4.8274
X2.4259 Y4.8284
X2.434 Y4.8297
X2.442 Y4.8313
X2.45 Y4.8333
X2.4579 Y4.8356
X2.4657 Y4.8382
X2.4733 Y4.8412
X2.4809 Y4.8445
X2.4883 Y4.8481
X2.4955 Y4.852
X2.5026 Y4.8562
X2.5094 Y4.8607
X2.5162 Y4.8656
X2.5228 Y4.8708
X2.5293 Y4.8764
X2.5357 Y4.8823
X2.542 Y4.8887
X2.548 Y4.8954
X2.5539 Y4.9024
X2.5595 Y4.9098
X2.5648 Y4.9175
X2.5698 Y4.9254
X2.5745 Y4.9335
X2.5789 Y4.9419
X2.5829 Y4.9504
X2.5865 Y4.959
X2.5897 Y4.9678
X2.5925 Y4.9766
X2.5949 Y4.9854
X2.597 Y4.9943
X2.5986 Y5.0031
X2.5999 Y5.012
X2.6007 Y5.0208
X2.6012 Y5.0296
X2.6014 Y5.0384
X2.6011 Y5.0471
X2.6005 Y5.0558
X2.5995 Y5.0643
X2.5982 Y5.0728
X2.5965 Y5.0812
X2.5944 Y5.0895
X2.5921 Y5.0977
X2.5893 Y5.1058
X2.5863 Y5.1137
X2.5829 Y5.1215
X2.5792 Y5.1291
X2.5751 Y5.1366
X2.5708 Y5.1439
X2.5661 Y5.151
X2.5611 Y5.1579
X2.5559 Y5.1646
X2.5503 Y5.1711
X2.5445 Y5.1774
X2.5384 Y5.1834
X2.532 Y5.1892
X2.5254 Y5.1947
X2.5185 Y5.2
X2.5113 Y5.2049
X2.504 Y5.2096
X2.4964 Y5.2139
X2.4887 Y5.218
X2.4807 Y5.2217
X2.4726 Y5.2251
X2.4643 Y5.2282
X2.4559 Y5.2309
X2.4473 Y5.2333
X2.4387 Y5.2353
X2.4299 Y5.2369
X2.421 Y5.2382
X2.4121 Y5.2391
X2.4031 Y5.2396
X2.3941 Y5.2397
X2.385 Y5.2395
X2.376 Y5.2388
X2.367 Y5.2378
X2.358 Y5.2364
X2.349 Y5.2346
X2.3401 Y5.2324
X2.3313 Y5.2299
X2.3227 Y5.2269
X2.3141 Y5.2236
X2.3056 Y5.22
X2.2973 Y5.216
X2.2892 Y5.2116
X2.2813 Y5.2068
X2.2735 Y5.2018
X2.266 Y5.1964
X2.2587 Y5.1907
X2.2516 Y5.1846
X2.2448 Y5.1783
X2.2383 Y5.1717
X2.2321 Y5.1648
X2.2261 Y5.1576
X2.2204 Y5.1502
X2.2151 Y5.1426
X2.2101 Y5.1347
X2.2054 Y5.1266
X2.2011 Y5.1183
X2.1971 Y5.1099
X2.1935 Y5.1013
X2.1902 Y5.0925
X2.1873 Y5.0836
X2.1848 Y5.0745
X2.1827 Y5.0654
X2.181 Y5.0562
X2.1797 Y5.0469
X2.1787 Y5.0376
X2.1782 Y5.0282
X2.178 Y5.0189
X2.1783 Y5.0095
X2.1789 Y5.0001
X2.18 Y4.9908
X2.1814 Y4.9815
X2.1833 Y4.9723
X2.1855 Y4.9632
X2.1881 Y4.9541
X2.1911 Y4.9452
X2.1945 Y4.9365
X2.1982 Y4.9279
X2.2023 Y4.9194
X2.2067 Y4.9111
X2.2115 Y4.903
X2.2167 Y4.8952
X2.2221 Y4.8875
X2.2279 Y4.8801
X2.234 Y4.873
X2.2404 Y4.8661
X2.2471 Y4.8595
X2.2541 Y4.8531
X2.2613 Y4.8471
X2.2688 Y4.8414
X2.2765 Y4.836
X2.2844 Y4.831
X2.2925 Y4.8262
X2.3008 Y4.8219
X2.3094 Y4.8179
X2.318 Y4.8142
X2.3268 Y4.8109
X2.3358 Y4.808
X2.3448 Y4.8055
X2.354 Y4.8034
X2.3632 Y4.8017
X2.3725 Y4.8003
X2.3819 Y4.7994
X2.3913 Y4.7988
X2.4007 Y4.7986
X2.4101 Y4.7989
X2.4195 Y4.7995
X2.4288 Y4.8006
X2.4381 Y4.802
X2.4473 Y4.8038
X2.4565 Y4.8061
X2.4655 Y4.8087
X2.4745 Y4.8117
X2.4833 Y4.815
X2.4919 Y4.8188
X2.5005 Y4.8229
X2.5089 Y4.8274
X2.5172 Y4.8323
X2.5253 Y4.8376
X2.5333 Y4.8433
X2.5411 Y4.8494
X2.5487 Y4.8559
X2.5561 Y4.8628
X2.5633 Y4.87
X2.5702 Y4.8775
X2.5768 Y4.8854
X2.583 Y4.8936
X2.589 Y4.9021
X2.5946 Y4.9108
X2.5998 Y4.9198
X2.6046 Y4.929
X2.609 Y4.9383
X2.613 Y4.9478
X2.6166 Y4.9575
X2.6198 Y4.9672
X2.6225 Y4.9771
X2.6249 Y4.987
X2.6267 Y4.9969
X2.6282 Y5.0069
X2.6292 Y5.0169
X2.6298 Y5.0269
X2.63 Y5.0369
X2.6297 Y5.0468
X2.6291 Y5.0567
X2.628 Y5.0665
X2.6265 Y5.0763
X2.6246 Y5.0859
X2.6223 Y5.0954
X2.6196 Y5.1049
X2.6165 Y5.1141
X2.613 Y5.1233
X2.6091 Y5.1322
X2.6049 Y5.141
X2.6003 Y5.1496
X2.5953 Y5.158
X2.59 Y5.1662
X2.5843 Y5.1742
X2.5783 Y5.1819
X2.5719 Y5.1894
X2.5653 Y5.1966
X2.5583 Y5.2035
X2.551 Y5.2102
X2.5434 Y5.2165
X2.5356 Y5.2225
X2.5275 Y5.2282
X2.5191 Y5.2336
X2.5105 Y5.2386
X2.5017 Y5.2433
X2.4927 Y5.2475
X2.4834 Y5.2515
X2.474 Y5.255
X2.4644 Y5.2581
X2.4547 Y5.2608
X2.4449 Y5.2631
X2.4349 Y5.265
X2.4248 Y5.2665
X2.4147 Y5.2675
X2.4045 Y5.2682
X2.3943 Y5.2684
X2.384 Y5.2681
X2.3738 Y5.2674
X2.3636 Y5.2663
X2.3534 Y5.2647
X2.3432 Y5.2628
X2.3332 Y5.2603
X2.3232 Y5.2575
X2.3134 Y5.2542
X2.3037 Y5.2505
X2.2941 Y5.2464
X2.2847 Y5.2419
X2.2755 Y5.237
X2.2665 Y5.2316
X2.2577 Y5.2259
X2.2492 Y5.2199
X2.2409 Y5.2134
X2.2329 Y5.2067
X2.2252 Y5.1995
X2.2178 Y5.1921
X2.2107 Y5.1843
X2.2039 Y5.1762
X2.1975 Y5.1679
X2.1914 Y5.1593
X2.1857 Y5.1504
X2.1804 Y5.1413
X2.1754 Y5.1319
X2.1709 Y5.1224
X2.1668 Y5.1126
X2.1631 Y5.1027
X2.1598 Y5.0927
X2.1569 Y5.0825
X2.1545 Y5.0722
X2.1525 Y5.0618
X2.1509 Y5.0513
X2.1498 Y5.0407
X2.1492 Y5.0301
X2.149 Y5.0195
X2.1492 Y5.0089
X2.1499 Y4.9983
X2.1511 Y4.9878
X2.1527 Y4.9773
X2.1547 Y4.9669
X2.1572 Y4.9565
X2.1601 Y4.9463
X2.1634 Y4.9362
X2.1672 Y4.9263
X2.1714 Y4.9165
X2.176 Y4.907
X2.181 Y4.8976
X2.1864 Y4.8884
X2.1922 Y4.8795
X2.1983 Y4.8708
X2.2048 Y4.8624
X2.2117 Y4.8543
X2.2189 Y4.8465
X2.2264 Y4.839
X2.2343 Y4.8318
X2.2424 Y4.825
X2.2508 Y4.8185
X2.2595 Y4.8123
X2.2685 Y4.8066
X2.2777 Y4.8012
X2.2871 Y4.7962
X2.2967 Y4.7917
X2.3065 Y4.7875
X2.3164 Y4.7838
X2.3265 Y4.7805
X2.3368 Y4.7776
X2.3471 Y4.7751
X2.3576 Y4.7731
X2.3681 Y4.7715
X2.3787 Y4.7704
X2.3893 Y4.7698
X2.3999 Y4.7696
X2.4105 Y4.7698
X2.4212 Y4.7705
X2.4317 Y4.7716
X2.4423 Y4.7732
X2.4527 Y4.7752
X2.4631 Y4.7777
X2.4734 Y4.7806
X2.4836 Y4.784
X2.4937 Y4.7878
X2.5037 Y4.7921
X2.5135 Y4.7968
X2.5232 Y4.802
X2.5327 Y4.8075
X2.542 Y4.8136
X2.5511 Y4.82
X2.5599 Y4.8268
X2.5685 Y4.8341
X2.5769 Y4.8418
X2.5849 Y4.8498
X2.5926 Y4.8582
X2.5999 Y4.8669
X2.6069 Y4.876
X2.6136 Y4.8854
X2.6198 Y4.895
X2.6256 Y4.9049
X2.631 Y4.9151
X2.6359 Y4.9254
X2.6404 Y4.9359
X2.6444 Y4.9466
X2.648 Y4.9575
X2.6511 Y4.9684
X2.6537 Y4.9795
X2.6559 Y4.9906
X2.6576 Y5.0018
X2.6587 Y5.013
X2.6595 Y5.0243
X2.6597 Y5.0355
X2.6595 Y5.0467
X2.6587 Y5.0578
X2.6576 Y5.0689
X2.6559 Y5.0799
X2.6538 Y5.0908
X2.6512 Y5.1016
X2.6482 Y5.1123
X2.6447 Y5.1228
X2.6408 Y5.1332
X2.6365 Y5.1434
X2.6317 Y5.1534
X2.6265 Y5.1631
X2.6209 Y5.1727
X2.6149 Y5.182
X2.6085 Y5.191
X2.6017 Y5.1998
X2.5946 Y5.2083
X2.5871 Y5.2165
X2.5792 Y5.2244
X2.571 Y5.2319
X2.5625 Y5.2391
X2.5536 Y5.2459
X2.5445 Y5.2524
X2.5351 Y5.2585
X2.5254 Y5.2642
X2.5155 Y5.2694
X2.5053 Y5.2743
X2.4949 Y5.2787
X2.4843 Y5.2827
X2.4736 Y5.2863
X2.4627 Y5.2894
X2.4516 Y5.292
X2.4404 Y5.2942
X2.4291 Y5.2959
X2.4177 Y5.2971
X2.4063 Y5.2979
X2.3948 Y5.2981
X2.3833 Y5.2979
X2.3718 Y5.2972
X2.3603 Y5.296
X2.3489 Y5.2942
X2.3375 Y5.2921
X2.3262 Y5.2894
X2.315 Y5.2862
X2.304 Y5.2826
X2.2931 Y5.2785
X2.2823 Y5.2739
X2.2792 Y5.2724
X2.2717 Y5.2686
X2.2657 Y5.2656
X2.2645 Y5.2649
X2.2537 Y5.2588
X2.2438 Y5.2526
X2.2393 Y5.2495
X2.2377 Y5.2483
X2.2361 Y5.247
G3 X2.2656 Y5.2068 I0.0161 J-0.0191
G1 X2.2883 Y5.2211
G3 X2.2645 Y5.2649 I-0.0133 J0.0212
G1 X2.2552 Y5.2603
X2.2496 Y5.2573
X2.247 Y5.2556
X2.2283 Y5.2409
X2.2224 Y5.2362
X2.2199 Y5.2343
X2.2093 Y5.2251
X2.2009 Y5.2172
X2.1981 Y5.2143
X2.1968 Y5.2128
X2.1954 Y5.2113
G3 X2.2321 Y5.1774 I0.0195 J-0.0156
G1 X2.2517 Y5.1959
G3 X2.2199 Y5.2343 I-0.0171 J0.0182
G1 X2.2074 Y5.2245
X2.2059 Y5.2232
X2.1997 Y5.2162
X2.1856 Y5.1998
X2.1813 Y5.1947
X2.1804 Y5.1938
X2.1727 Y5.1837
X2.168 Y5.1771
X2.1661 Y5.1743
X2.1643 Y5.1715
X2.1626 Y5.1686
G3 X2.2051 Y5.1426 I0.0222 J-0.0115
G1 X2.2192 Y5.1623
G3 X2.1804 Y5.1938 I-0.0204 J0.0145
G1 X2.1715 Y5.1833
X2.1699 Y5.1813
X2.1686 Y5.1792
X2.1524 Y5.1505
X2.1512 Y5.1483
X2.1503 Y5.1468
X2.1451 Y5.1364
X2.142 Y5.1295
X2.1407 Y5.1263
X2.1395 Y5.1232
X2.1383 Y5.1199
G3 X2.1852 Y5.1028 I0.024 J-0.0069
G1 X2.1945 Y5.1236
G3 X2.1503 Y5.1468 I-0.0228 J0.0102
G1 X2.1477 Y5.1422
X2.1432 Y5.134
X2.1402 Y5.1255
X2.1322 Y5.1011
X2.132 Y5.1004
X2.1312 Y5.0981
X2.1273 Y5.0838
X2.1256 Y5.0762
X2.1249 Y5.0728
X2.1243 Y5.0695
X2.1238 Y5.0661
G3 X2.1731 Y5.0583 I0.0249 J-0.0021
G1 X2.179 Y5.0838
G3 X2.1312 Y5.0981 I-0.0243 J0.0057
G1 X2.1268 Y5.0847
X2.1257 Y5.0806
X2.1251 Y5.0765
X2.1221 Y5.0518
X2.1211 Y5.0436
X2.1209 Y5.0422
X2.1201 Y5.0296
X2.1199 Y5.0226
X2.1198 Y5.0192
X2.1199 Y5.0158
X2.1201 Y5.0124
G3 X2.1699 Y5.0144 I0.0248 J0.0028
G1 X2.1706 Y5.0376
G3 X2.1209 Y5.0422 I-0.025 J0.0007
G1 X2.1201 Y5.0353
X2.1192 Y5.0271
X2.1196 Y5.0189
X2.1215 Y4.9942
X2.1228 Y4.9778
X2.1237 Y4.9699
X2.132 Y4.9404
X2.133 Y4.9367
X2.1381 Y4.9214
X2.1408 Y4.9143
X2.1421 Y4.9112
X2.1435 Y4.9081
X2.1449 Y4.905
G3 X2.1902 Y4.9258 I0.0219 J0.0121
G1 X2.1807 Y4.9513
G3 X2.133 Y4.9367 I-0.0234 J-0.0088
G1 X2.1376 Y4.9202
X2.1402 Y4.9144
X2.1539 Y4.8873
X2.1554 Y4.8844
X2.1561 Y4.8831
X2.1621 Y4.8726
X2.1655 Y4.8671
X2.1674 Y4.8642
X2.1693 Y4.8615
X2.1714 Y4.8587
G3 X2.2117 Y4.8881 I0.0191 J0.0161
G1 X2.1999 Y4.9069
G3 X2.1561 Y4.8831 I-0.0212 J-0.0133
G1 X2.1623 Y4.8709
X2.1648 Y4.8671
X2.1812 Y4.8462
X2.1813 Y4.8461
X2.1848 Y4.8417
X2.1959 Y4.8288
X2.2037 Y4.8207
X2.2051 Y4.8193
X2.2066 Y4.8179
X2.2082 Y4.8166
G3 X2.2421 Y4.8531 I0.0156 J0.0195
G1 X2.2233 Y4.8734
G3 X2.1848 Y4.8417 I-0.0184 J-0.017
G1 X2.1941 Y4.8298
X2.1977 Y4.8256
X2.2059 Y4.8185
X2.2215 Y4.8051
X2.2224 Y4.8044
X2.2248 Y4.8022
X2.2371 Y4.7928
X2.243 Y4.7886
X2.2458 Y4.7866
X2.2487 Y4.7848
X2.2517 Y4.7831
G3 X2.2777 Y4.8256 I0.0115 J0.0222
G1 X2.2564 Y4.8409
G3 X2.2248 Y4.8022 I-0.0146 J-0.0203
G1 X2.2311 Y4.7969
X2.2388 Y4.7905
X2.2417 Y4.7887
X2.2635 Y4.7764
X2.2709 Y4.7722
X2.2717 Y4.7718
X2.2845 Y4.7654
X2.2908 Y4.7626
X2.2939 Y4.7613
X2.2971 Y4.7601
X2.3003 Y4.7589
G3 X2.3176 Y4.8057 I0.0069 J0.024
G1 X2.295 Y4.8159
G3 X2.2717 Y4.7718 I-0.0103 J-0.0228
G1 X2.2799 Y4.7672
X2.2857 Y4.764
X2.2881 Y4.763
X2.321 Y4.7522
X2.3235 Y4.7514
X2.3252 Y4.7508
X2.3359 Y4.7479
X2.3421 Y4.7465
X2.3454 Y4.7458
X2.3488 Y4.7452
X2.3521 Y4.7447
G3 X2.3598 Y4.794 I0.0021 J0.0249
G1 X2.3393 Y4.7987
G3 X2.3252 Y4.7508 I-0.0055 J-0.0244
G1 X2.3351 Y4.7476
X2.3374 Y4.7468
X2.3456 Y4.7455
X2.3703 Y4.7425
X2.3867 Y4.7406
X2.395 Y4.7399
X2.4114 Y4.7411
X2.4278 Y4.7424
X2.4303 Y4.7426
X2.4457 Y4.7445
X2.4527 Y4.7457
X2.456 Y4.7463
X2.4594 Y4.7471
X2.4627 Y4.7479
G3 X2.451 Y4.7964 I-0.0076 J0.0238
G1 X2.4253 Y4.7922
G3 X2.4303 Y4.7426 I0.004 J-0.0247
G1 X2.4443 Y4.7436
X2.4484 Y4.7441
X2.4525 Y4.7451
X2.4772 Y4.752
X2.4854 Y4.7543
X2.487 Y4.7547
X2.4991 Y4.7588
X2.5038 Y4.7606
X2.5069 Y4.7618
X2.51 Y4.7632
X2.5131 Y4.7647
G3 X2.4921 Y4.81 I-0.0121 J0.0219
G1 X2.4722 Y4.8024
G3 X2.487 Y4.7547 I0.0089 J-0.0234
G1 X2.4936 Y4.7566
X2.5018 Y4.7591
X2.5117 Y4.764
X2.5347 Y4.7757
X2.5442 Y4.7805
X2.5511 Y4.7843
X2.5593 Y4.7906
X2.5922 Y4.8164
X2.5971 Y4.8216
X2.6253 Y4.8545
X2.6288 Y4.8586
X2.6314 Y4.8627
X2.6545 Y4.9038
X2.6566 Y4.9078
X2.658 Y4.912
X2.6715 Y4.9531
X2.6738 Y4.9613
X2.6798 Y5.0107
X2.6801 Y5.0148
X2.6798 Y5.0189
X2.6767 Y5.06
X2.676 Y5.0682
X2.6744 Y5.0747
X2.6624 Y5.1176
X2.6612 Y5.1217
X2.6593 Y5.1258
X2.6384 Y5.1669
X2.6363 Y5.1709
X2.6331 Y5.1751
X2.6042 Y5.212
X2.6025 Y5.214
X2.6004 Y5.216
X2.5618 Y5.2491
X2.5593 Y5.2509
X2.5183 Y5.274
X2.5141 Y5.2763
X2.51 Y5.2781
X2.4689 Y5.2915
X2.4607 Y5.2941
X2.4525 Y5.2952
X2.4114 Y5.3002
X2.4073 Y5.3007
X2.4032
X2.3539 Y5.2969
X2.3498 Y5.2963
X2.3456 Y5.2952
X2.3046 Y5.2837
X2.2986 Y5.282
X2.2963 Y5.2811
X2.2792 Y5.2724
X2.2767 Y5.2708
X2.2744 Y5.269
X2.2726 Y5.2666 Z-0.2898
X2.2708 Y5.2643 Z-0.2893
X2.2691 Y5.262 Z-0.2884
X2.2681 Y5.2589 Z-0.2869
X2.2672 Y5.2561 Z-0.285
X2.2665 Y5.2536 Z-0.2827
X2.2664 Y5.252 Z-0.2809
X2.2663 Y5.2505 Z-0.2789
X2.2664 Y5.2487 Z-0.2757
X2.2665 Y5.2474 Z-0.2723
X2.2666 Y5.2466 Z-0.2687
Y5.2463 Z-0.265
G0 Z0.2
X4.3328 Y3.4608
Z0.102
G3 X4.1047 Y3.5269 Z0.089 I-0.1141 J0.033 F20.
X4.3328 Y3.4608 Z0.0759 I0.1141 J-0.033
X4.1047 Y3.5269 Z0.0629 I-0.1141 J0.033
X4.3328 Y3.4608 Z0.0499 I0.1141 J-0.033
X4.1047 Y3.5269 Z0.0369 I-0.1141 J0.033
X4.3328 Y3.4608 Z0.0238 I0.1141 J-0.033
X4.1047 Y3.5269 Z0.0108 I-0.1141 J0.033
X4.3328 Y3.4608 Z-0.0022 I0.1141 J-0.033
X4.1047 Y3.5269 Z-0.0152 I-0.1141 J0.033
X4.3328 Y3.4608 Z-0.0283 I0.1141 J-0.033
X4.1047 Y3.5269 Z-0.0413 I-0.1141 J0.033
X4.3328 Y3.4608 Z-0.0543 I0.1141 J-0.033
X4.1047 Y3.5269 Z-0.0674 I-0.1141 J0.033
X4.3328 Y3.4608 Z-0.0804 I0.1141 J-0.033
X4.1047 Y3.5269 Z-0.0934 I-0.1141 J0.033
X4.3328 Y3.4608 Z-0.1064 I0.1141 J-0.033
X4.1047 Y3.5269 Z-0.1195 I-0.1141 J0.033
X4.3328 Y3.4608 Z-0.1325 I0.1141 J-0.033
X4.1047 Y3.5269 Z-0.1455 I-0.1141 J0.033
X4.3328 Y3.4608 Z-0.1586 I0.1141 J-0.033
X4.1047 Y3.5269 Z-0.1716 I-0.1141 J0.033
X4.3328 Y3.4608 Z-0.1846 I0.1141 J-0.033
X4.1047 Y3.5269 Z-0.1976 I-0.1141 J0.033
X4.3328 Y3.4608 Z-0.2107 I0.1141 J-0.033
X4.1047 Y3.5269 Z-0.2237 I-0.1141 J0.033
X4.3328 Y3.4608 Z-0.2367 I0.1141 J-0.033
X4.1047 Y3.5269 Z-0.2497 I-0.1141 J0.033
X4.3328 Y3.4608 Z-0.2628 I0.1141 J-0.033
X4.1047 Y3.5269 Z-0.2758 I-0.1141 J0.033
X4.2021 Y3.3763 Z-0.2829 I0.1141 J-0.033
X4.3375 Y3.4938 Z-0.29 I0.0167 J0.1176
X4.1 I-0.1188 J0.
X4.3375 I0.1188 J0.
G1 X4.3381 Y3.53 F30.
X4.3385 Y3.5345
Y3.5405
X4.3379 Y3.5465
X4.3367 Y3.5524
X4.3351 Y3.5582
X4.333 Y3.5638
X4.3306 Y3.5693
X4.3278 Y3.5746
X4.3248 Y3.5798
X4.3214 Y3.5847
X4.3177 Y3.5895
X4.3138 Y3.594
X4.3097 Y3.5984
X4.3053 Y3.6025
X4.3008 Y3.6064
X4.296 Y3.6101
X4.2911 Y3.6135
X4.286 Y3.6167
X4.2808 Y3.6197
X4.2754 Y3.6224
X4.27 Y3.6248
X4.2644 Y3.627
X4.2587 Y3.629
X4.253 Y3.6307
X4.2471 Y3.6321
X4.2413 Y3.6333
X4.2353 Y3.6342
X4.2294 Y3.6349
X4.2234 Y3.6353
X4.2174 Y3.6354
X4.2114 Y3.6353
X4.2054 Y3.6349
X4.1994 Y3.6342
X4.1935 Y3.6333
X4.1876 Y3.6322
X4.1818 Y3.6307
X4.176 Y3.6291
X4.1703 Y3.6272
X4.1647 Y3.625
X4.1592 Y3.6227
X4.1538 Y3.62
X4.1485 Y3.6172
X4.1434 Y3.6141
X4.1383 Y3.6108
X4.1335 Y3.6074
X4.1287 Y3.6037
X4.1242 Y3.5998
X4.1198 Y3.5957
X4.1156 Y3.5914
X4.1115 Y3.587
X4.1077 Y3.5823
X4.104 Y3.5776
X4.1006 Y3.5726
X4.0973 Y3.5676
X4.0943 Y3.5624
X4.0915 Y3.557
X4.089 Y3.5516
X4.0866 Y3.546
X4.0845 Y3.5404
X4.0827 Y3.5347
X4.0811 Y3.5289
X4.0797 Y3.523
X4.0786 Y3.5171
X4.0777 Y3.5111
X4.0771 Y3.5051
X4.0768 Y3.4991
X4.0767 Y3.4931
X4.0768 Y3.4871
X4.0773 Y3.4811
X4.0779 Y3.4751
X4.0788 Y3.4691
X4.08 Y3.4632
X4.0814 Y3.4573
X4.0831 Y3.4516
X4.085 Y3.4458
X4.0872 Y3.4402
X4.0896 Y3.4347
X4.0922 Y3.4293
X4.0951 Y3.4239
X4.0981 Y3.4188
X4.1014 Y3.4137
X4.1049 Y3.4088
X4.1086 Y3.4041
X4.1125 Y3.3995
X4.1166 Y3.395
X4.1209 Y3.3908
X4.1254 Y3.3867
X4.13 Y3.3829
X4.1348 Y3.3792
X4.1397 Y3.3758
X4.1448 Y3.3725
X4.15 Y3.3695
X4.1554 Y3.3667
X4.1608 Y3.3641
X4.1664 Y3.3618
X4.172 Y3.3597
X4.1778 Y3.3578
X4.1836 Y3.3562
X4.1894 Y3.3548
X4.1954 Y3.3537
X4.2013 Y3.3528
X4.2073 Y3.3522
X4.2133 Y3.3519
X4.2194 Y3.3518
X4.2254 Y3.3519
X4.2314 Y3.3523
X4.2374 Y3.353
X4.2434 Y3.3539
X4.2493 Y3.3551
X4.2551 Y3.3565
X4.2609 Y3.3582
X4.2666 Y3.3601
X4.2723 Y3.3622
X4.2778 Y3.3646
X4.2832 Y3.3672
X4.2885 Y3.3701
X4.2937 Y3.3731
X4.2988 Y3.3764
X4.3037 Y3.3799
X4.3085 Y3.3836
X4.313 Y3.3875
X4.3175 Y3.3916
X4.3217 Y3.3959
X4.3258 Y3.4004
X4.3296 Y3.405
X4.3333 Y3.4098
X4.3368 Y3.4147
X4.34 Y3.4198
X4.3431 Y3.425
X4.3459 Y3.4303
X4.3485 Y3.4358
X4.3509 Y3.4416
X4.3536 Y3.4488
X4.3565 Y3.4577
X4.3599 Y3.4697
X4.3622 Y3.4797
X4.3639 Y3.4884
X4.365 Y3.4962
X4.3657 Y3.5033
X4.3661 Y3.5102
X4.3663 Y3.5168
X4.3661 Y3.5231
X4.3657 Y3.5291
X4.365 Y3.5352
X4.3641 Y3.5411
X4.363 Y3.547
X4.3615 Y3.5529
X4.3599 Y3.5586
X4.358 Y3.5643
X4.3558 Y3.5699
X4.3534 Y3.5754
X4.3507 Y3.5808
X4.3478 Y3.586
X4.3447 Y3.5912
X4.3414 Y3.5962
X4.3379 Y3.601
X4.3341 Y3.6058
X4.3301 Y3.6104
X4.3259 Y3.6148
X4.3215 Y3.6191
X4.3169 Y3.6232
X4.312 Y3.6272
X4.307 Y3.6309
X4.3018 Y3.6345
X4.2963 Y3.6379
X4.2907 Y3.6411
X4.285 Y3.6441
X4.279 Y3.6468
X4.273 Y3.6493
X4.2668 Y3.6515
X4.2604 Y3.6535
X4.254 Y3.6552
X4.2475 Y3.6567
X4.2409 Y3.6579
X4.2342 Y3.6588
X4.2275 Y3.6594
X4.2207 Y3.6597
X4.2139 Y3.6598
X4.2071 Y3.6595
X4.2002 Y3.659
X4.1934 Y3.6582
X4.1866 Y3.6571
X4.1799 Y3.6557
X4.1732 Y3.654
X4.1665 Y3.652
X4.1599 Y3.6497
X4.1535 Y3.6472
X4.1471 Y3.6443
X4.1408 Y3.6413
X4.1347 Y3.6379
X4.1287 Y3.6343
X4.1229 Y3.6304
X4.1172 Y3.6263
X4.1117 Y3.6219
X4.1064 Y3.6173
X4.1013 Y3.6124
X4.0964 Y3.6074
X4.0917 Y3.6021
X4.0872 Y3.5967
X4.083 Y3.5911
X4.079 Y3.5852
X4.0752 Y3.5793
X4.0717 Y3.5731
X4.0685 Y3.5668
X4.0655 Y3.5604
X4.0629 Y3.5539
X4.0604 Y3.5472
X4.0583 Y3.5405
X4.0565 Y3.5337
X4.0549 Y3.5268
X4.0537 Y3.5198
X4.0527 Y3.5128
X4.0521 Y3.5057
X4.0517 Y3.4987
Y3.4916
X4.0519 Y3.4845
X4.0524 Y3.4774
X4.0533 Y3.4704
X4.0544 Y3.4634
X4.0559 Y3.4565
X4.0576 Y3.4496
X4.0596 Y3.4428
X4.0619 Y3.4361
X4.0645 Y3.4295
X4.0674 Y3.423
X4.0705 Y3.4167
X4.0739 Y3.4104
X4.0776 Y3.4044
X4.0815 Y3.3985
X4.0857 Y3.3927
X4.0901 Y3.3872
X4.0947 Y3.3818
X4.0996 Y3.3767
X4.1047 Y3.3717
X4.1099 Y3.367
X4.1154 Y3.3625
X4.1211 Y3.3582
X4.1269 Y3.3542
X4.1329 Y3.3504
X4.1391 Y3.3469
X4.1454 Y3.3437
X4.1518 Y3.3407
X4.1584 Y3.338
X4.165 Y3.3356
X4.1718 Y3.3334
X4.1787 Y3.3316
X4.1856 Y3.33
X4.1925 Y3.3288
X4.1996 Y3.3278
X4.2066 Y3.3271
X4.2137 Y3.3268
X4.2208 Y3.3267
X4.2279 Y3.3269
X4.235 Y3.3275
X4.242 Y3.3283
X4.249 Y3.3295
X4.256 Y3.3309
X4.2628 Y3.3326
X4.2696 Y3.3346
X4.2763 Y3.3369
X4.2829 Y3.3395
X4.2894 Y3.3424
X4.2958 Y3.3455
X4.302 Y3.3489
X4.3081 Y3.3526
X4.314 Y3.3565
X4.3197 Y3.3606
X4.3253 Y3.3651
X4.3307 Y3.3697
X4.3358 Y3.3745
X4.3408 Y3.3796
X4.3455 Y3.3849
X4.3502 Y3.3906
X4.3548 Y3.3967
X4.3594 Y3.4033
X4.3638 Y3.4104
X4.3682 Y3.418
X4.3723 Y3.426
X4.3761 Y3.4341
X4.3795 Y3.4423
X4.3825 Y3.4506
X4.3851 Y3.4588
X4.3873 Y3.467
X4.3891 Y3.4751
X4.3906 Y3.4831
X4.3917 Y3.491
X4.3924 Y3.4988
X4.3928 Y3.5065
X4.3929 Y3.5141
X4.3927 Y3.5217
X4.3921 Y3.5291
X4.3912 Y3.5365
X4.3901 Y3.5437
X4.3886 Y3.5508
X4.3868 Y3.5579
X4.3848 Y3.5648
X4.3825 Y3.5716
X4.3798 Y3.5783
X4.3769 Y3.5849
X4.3738 Y3.5914
X4.3703 Y3.5977
X4.3666 Y3.6039
X4.3626 Y3.6099
X4.3583 Y3.6158
X4.3538 Y3.6215
X4.349 Y3.6271
X4.344 Y3.6324
X4.3388 Y3.6376
X4.3333 Y3.6425
X4.3275 Y3.6472
X4.3216 Y3.6517
X4.3154 Y3.656
X4.3091 Y3.66
X4.3025 Y3.6638
X4.2958 Y3.6672
X4.2889 Y3.6705
X4.2818 Y3.6734
X4.2746 Y3.676
X4.2673 Y3.6783
X4.2598 Y3.6804
X4.2523 Y3.6821
X4.2446 Y3.6835
X4.2369 Y3.6845
X4.2291 Y3.6853
X4.2213 Y3.6857
X4.2134 Y3.6858
X4.2055 Y3.6856
X4.1976 Y3.685
X4.1897 Y3.684
X4.1819 Y3.6828
X4.174 Y3.6812
X4.1663 Y3.6793
X4.1586 Y3.677
X4.151 Y3.6744
X4.1435 Y3.6715
X4.1361 Y3.6683
X4.1289 Y3.6647
X4.1218 Y3.6608
X4.1148 Y3.6567
X4.1081 Y3.6522
X4.1015 Y3.6475
X4.0951 Y3.6424
X4.089 Y3.6371
X4.083 Y3.6316
X4.0773 Y3.6258
X4.0719 Y3.6197
X4.0667 Y3.6134
X4.0618 Y3.6069
X4.0571 Y3.6002
X4.0528 Y3.5933
X4.0487 Y3.5862
X4.0449 Y3.579
X4.0415 Y3.5715
X4.0383 Y3.564
X4.0355 Y3.5563
X4.033 Y3.5485
X4.0309 Y3.5406
X4.0291 Y3.5326
X4.0276 Y3.5246
X4.0264 Y3.5164
X4.0256 Y3.5083
X4.0252 Y3.5001
X4.0251 Y3.4919
X4.0254 Y3.4837
X4.026 Y3.4755
X4.0269 Y3.4673
X4.0282 Y3.4592
X4.0298 Y3.4512
X4.0318 Y3.4432
X4.0341 Y3.4353
X4.0368 Y3.4276
X4.0397 Y3.4199
X4.043 Y3.4124
X4.0466 Y3.405
X4.0505 Y3.3978
X4.0548 Y3.3907
X4.0593 Y3.3839
X4.0641 Y3.3772
X4.0692 Y3.3708
X4.0745 Y3.3645
X4.0801 Y3.3585
X4.086 Y3.3528
X4.0921 Y3.3473
X4.0984 Y3.342
X4.105 Y3.3371
X4.1117 Y3.3324
X4.1187 Y3.328
X4.1258 Y3.3239
X4.1331 Y3.3201
X4.1405 Y3.3166
X4.1481 Y3.3135
X4.1558 Y3.3106
X4.1637 Y3.3081
X4.1716 Y3.306
X4.1796 Y3.3041
X4.1877 Y3.3026
X4.1958 Y3.3015
X4.204 Y3.3007
X4.2122 Y3.3002
X4.2204 Y3.3001
X4.2286 Y3.3004
X4.2368 Y3.301
X4.245 Y3.3019
X4.2531 Y3.3032
X4.2612 Y3.3048
X4.2691 Y3.3068
X4.277 Y3.3091
X4.2848 Y3.3117
X4.2925 Y3.3147
X4.3 Y3.318
X4.3074 Y3.3216
X4.3146 Y3.3255
X4.3217 Y3.3297
X4.3286 Y3.3342
X4.3353 Y3.3391
X4.342 Y3.3443
X4.3485 Y3.3499
X4.3548 Y3.3558
X4.3611 Y3.3622
X4.3672 Y3.3689
X4.373 Y3.376
X4.3786 Y3.3833
X4.3839 Y3.391
X4.389 Y3.3989
X4.3937 Y3.4071
X4.398 Y3.4154
X4.402 Y3.4239
X4.4056 Y3.4325
X4.4088 Y3.4413
X4.4116 Y3.4501
X4.4141 Y3.4589
X4.4161 Y3.4678
X4.4177 Y3.4766
X4.419 Y3.4855
X4.4199 Y3.4943
X4.4204 Y3.5032
X4.4205 Y3.5119
X4.4202 Y3.5206
X4.4196 Y3.5293
X4.4186 Y3.5379
X4.4173 Y3.5463
X4.4156 Y3.5547
X4.4136 Y3.563
X4.4112 Y3.5712
X4.4085 Y3.5793
X4.4054 Y3.5872
X4.402 Y3.595
X4.3983 Y3.6026
X4.3943 Y3.6101
X4.3899 Y3.6174
X4.3853 Y3.6245
X4.3803 Y3.6314
X4.375 Y3.6381
X4.3695 Y3.6446
X4.3636 Y3.6509
X4.3575 Y3.6569
X4.3511 Y3.6627
X4.3445 Y3.6682
X4.3376 Y3.6735
X4.3305 Y3.6784
X4.3231 Y3.6831
X4.3156 Y3.6875
X4.3078 Y3.6915
X4.2999 Y3.6952
X4.2918 Y3.6986
X4.2835 Y3.7017
X4.275 Y3.7044
X4.2665 Y3.7068
X4.2578 Y3.7088
X4.249 Y3.7104
X4.2402 Y3.7117
X4.2312 Y3.7126
X4.2222 Y3.7131
X4.2132 Y3.7132
X4.2042 Y3.713
X4.1951 Y3.7123
X4.1861 Y3.7113
X4.1771 Y3.7099
X4.1682 Y3.7081
X4.1593 Y3.7059
X4.1505 Y3.7034
X4.1418 Y3.7005
X4.1332 Y3.6972
X4.1248 Y3.6935
X4.1165 Y3.6895
X4.1084 Y3.6851
X4.1004 Y3.6804
X4.0927 Y3.6753
X4.0851 Y3.6699
X4.0778 Y3.6642
X4.0708 Y3.6582
X4.064 Y3.6518
X4.0574 Y3.6452
X4.0512 Y3.6383
X4.0452 Y3.6312
X4.0396 Y3.6237
X4.0342 Y3.6161
X4.0292 Y3.6082
X4.0245 Y3.6001
X4.0202 Y3.5919
X4.0162 Y3.5834
X4.0126 Y3.5748
X4.0094 Y3.566
X4.0065 Y3.5571
X4.004 Y3.5481
X4.0019 Y3.5389
X4.0001 Y3.5297
X3.9988 Y3.5204
X3.9979 Y3.5111
X3.9973 Y3.5017
X3.9972 Y3.4924
X3.9974 Y3.483
X3.9981 Y3.4736
X3.9991 Y3.4643
X4.0006 Y3.455
X4.0024 Y3.4458
X4.0046 Y3.4367
X4.0072 Y3.4277
X4.0102 Y3.4188
X4.0136 Y3.41
X4.0173 Y3.4014
X4.0214 Y3.3929
X4.0259 Y3.3846
X4.0307 Y3.3766
X4.0358 Y3.3687
X4.0413 Y3.361
X4.0471 Y3.3536
X4.0532 Y3.3465
X4.0596 Y3.3396
X4.0662 Y3.333
X4.0732 Y3.3267
X4.0804 Y3.3206
X4.0879 Y3.3149
X4.0956 Y3.3095
X4.1035 Y3.3045
X4.1117 Y3.2998
X4.12 Y3.2954
X4.1285 Y3.2914
X4.1372 Y3.2877
X4.146 Y3.2845
X4.1549 Y3.2816
X4.164 Y3.279
X4.1731 Y3.2769
X4.1824 Y3.2752
X4.1917 Y3.2738
X4.201 Y3.2729
X4.2104 Y3.2723
X4.2198 Y3.2722
X4.2292 Y3.2724
X4.2386 Y3.2731
X4.248 Y3.2741
X4.2573 Y3.2755
X4.2665 Y3.2774
X4.2756 Y3.2796
X4.2847 Y3.2822
X4.2936 Y3.2852
X4.3024 Y3.2885
X4.3111 Y3.2923
X4.3196 Y3.2964
X4.3281 Y3.3009
X4.3363 Y3.3059
X4.3445 Y3.3112
X4.3525 Y3.3169
X4.3603 Y3.323
X4.3679 Y3.3294
X4.3753 Y3.3363
X4.3824 Y3.3435
X4.3893 Y3.351
X4.3959 Y3.3589
X4.4022 Y3.3671
X4.4081 Y3.3756
X4.4137 Y3.3843
X4.4189 Y3.3933
X4.4237 Y3.4025
X4.4282 Y3.4118
X4.4322 Y3.4213
X4.4358 Y3.431
X4.4389 Y3.4407
X4.4417 Y3.4506
X4.444 Y3.4605
X4.4459 Y3.4704
X4.4473 Y3.4804
X4.4484 Y3.4904
X4.449 Y3.5004
X4.4491 Y3.5104
X4.4489 Y3.5203
X4.4482 Y3.5302
X4.4471 Y3.54
X4.4456 Y3.5498
X4.4437 Y3.5594
X4.4414 Y3.569
X4.4387 Y3.5784
X4.4356 Y3.5877
X4.4321 Y3.5968
X4.4283 Y3.6058
X4.424 Y3.6145
X4.4194 Y3.6232
X4.4144 Y3.6316
X4.4091 Y3.6398
X4.4034 Y3.6477
X4.3974 Y3.6554
X4.3911 Y3.6629
X4.3844 Y3.6701
X4.3774 Y3.6771
X4.3702 Y3.6837
X4.3626 Y3.69
X4.3547 Y3.6961
X4.3466 Y3.7018
X4.3383 Y3.7071
X4.3297 Y3.7121
X4.3208 Y3.7168
X4.3118 Y3.7211
X4.3026 Y3.725
X4.2931 Y3.7285
X4.2836 Y3.7316
X4.2739 Y3.7343
X4.264 Y3.7366
X4.254 Y3.7385
X4.244 Y3.74
X4.2338 Y3.7411
X4.2237 Y3.7417
X4.2134 Y3.7419
X4.2032 Y3.7416
X4.1929 Y3.7409
X4.1827 Y3.7398
X4.1725 Y3.7383
X4.1624 Y3.7363
X4.1523 Y3.7339
X4.1424 Y3.731
X4.1325 Y3.7277
X4.1228 Y3.724
X4.1132 Y3.7199
X4.1038 Y3.7154
X4.0946 Y3.7105
X4.0856 Y3.7052
X4.0769 Y3.6995
X4.0683 Y3.6934
X4.06 Y3.687
X4.052 Y3.6802
X4.0443 Y3.6731
X4.0369 Y3.6656
X4.0298 Y3.6578
X4.023 Y3.6498
X4.0166 Y3.6414
X4.0105 Y3.6328
X4.0048 Y3.6239
X3.9995 Y3.6148
X3.9946 Y3.6054
X3.99 Y3.5959
X3.9859 Y3.5862
X3.9822 Y3.5763
X3.9789 Y3.5662
X3.976 Y3.556
X3.9736 Y3.5457
X3.9716 Y3.5353
X3.9701 Y3.5248
X3.969 Y3.5142
X3.9683 Y3.5037
X3.9681 Y3.4931
X3.9684 Y3.4824
X3.9691 Y3.4719
X3.9702 Y3.4613
X3.9718 Y3.4508
X3.9738 Y3.4404
X3.9763 Y3.4301
X3.9792 Y3.4198
X3.9826 Y3.4098
X3.9863 Y3.3998
X3.9905 Y3.3901
X3.9951 Y3.3805
X4.0001 Y3.3711
X4.0055 Y3.3619
X4.0113 Y3.353
X4.0175 Y3.3444
X4.024 Y3.336
X4.0308 Y3.3278
X4.038 Y3.32
X4.0456 Y3.3125
X4.0534 Y3.3053
X4.0616 Y3.2985
X4.07 Y3.292
X4.0787 Y3.2859
X4.0876 Y3.2801
X4.0968 Y3.2747
X4.1062 Y3.2698
X4.1158 Y3.2652
X4.1256 Y3.261
X4.1355 Y3.2573
X4.1457 Y3.254
X4.1559 Y3.2511
X4.1662 Y3.2486
X4.1767 Y3.2466
X4.1872 Y3.2451
X4.1978 Y3.2439
X4.2084 Y3.2433
X4.219 Y3.2431
X4.2297 Y3.2433
X4.2403 Y3.244
X4.2509 Y3.2451
X4.2614 Y3.2467
X4.2719 Y3.2488
X4.2823 Y3.2512
X4.2926 Y3.2542
X4.3028 Y3.2575
X4.3129 Y3.2614
X4.3228 Y3.2656
X4.3326 Y3.2703
X4.3423 Y3.2755
X4.3518 Y3.2811
X4.3611 Y3.2871
X4.3702 Y3.2935
X4.3791 Y3.3004
X4.3877 Y3.3076
X4.396 Y3.3153
X4.404 Y3.3233
X4.4117 Y3.3317
X4.4191 Y3.3404
X4.4261 Y3.3495
X4.4327 Y3.3589
X4.4389 Y3.3685
X4.4447 Y3.3784
X4.4501 Y3.3886
X4.455 Y3.3989
X4.4595 Y3.4095
X4.4636 Y3.4202
X4.4671 Y3.431
X4.4702 Y3.442
X4.4729 Y3.453
X4.475 Y3.4642
X4.4767 Y3.4753
X4.4779 Y3.4865
X4.4786 Y3.4978
X4.4788 Y3.509
X4.4786 Y3.5202
X4.4779 Y3.5313
X4.4767 Y3.5424
X4.475 Y3.5534
X4.4729 Y3.5644
X4.4704 Y3.5752
X4.4673 Y3.5858
X4.4639 Y3.5963
X4.46 Y3.6067
X4.4556 Y3.6169
X4.4509 Y3.6269
X4.4457 Y3.6366
X4.4401 Y3.6462
X4.4341 Y3.6555
X4.4277 Y3.6646
X4.4209 Y3.6733
X4.4137 Y3.6818
X4.4062 Y3.69
X4.3984 Y3.6979
X4.3901 Y3.7054
X4.3816 Y3.7126
X4.3728 Y3.7194
X4.3636 Y3.7259
X4.3542 Y3.732
X4.3445 Y3.7377
X4.3346 Y3.743
X4.3244 Y3.7478
X4.3141 Y3.7523
X4.3035 Y3.7563
X4.2927 Y3.7598
X4.2818 Y3.7629
X4.2707 Y3.7656
X4.2595 Y3.7677
X4.2482 Y3.7694
X4.2369 Y3.7707
X4.2254 Y3.7714
X4.2139 Y3.7716
X4.2024 Y3.7714
X4.1909 Y3.7707
X4.1794 Y3.7695
X4.168 Y3.7678
X4.1566 Y3.7656
X4.1454 Y3.7629
X4.1342 Y3.7597
X4.1231 Y3.7561
X4.1122 Y3.752
X4.1015 Y3.7474
X4.098 Y3.7457
X4.0881 Y3.7407
X4.0856 Y3.7395
X4.0839 Y3.7386
X4.0727 Y3.7322
X4.0639 Y3.7267
X4.0611 Y3.7248
X4.0583 Y3.7229
X4.0556 Y3.7208
G3 X4.085 Y3.6805 I0.0161 J-0.0191
G1 X4.1077 Y3.6947
G3 X4.0839 Y3.7386 I-0.0133 J0.0212
G1 X4.0717 Y3.7324
X4.0682 Y3.7305
X4.0648 Y3.728
X4.047 Y3.7141
X4.0306 Y3.7012
X4.0235 Y3.6951
X4.0059 Y3.6747
X4.0023 Y3.6705
X3.9916 Y3.6566
X3.985 Y3.6474
X3.983 Y3.6442
X3.982 Y3.6425
X3.981 Y3.6408
G3 X4.0234 Y3.6146 I0.0222 J-0.0115
G1 X4.041 Y3.6389
G3 X4.0023 Y3.6705 I-0.0203 J0.0146
G1 X3.9952 Y3.6622
X3.9895 Y3.6554
X3.9885 Y3.654
X3.9838 Y3.6458
X3.9745 Y3.6294
X3.973 Y3.6267
X3.9713 Y3.6236
X3.9641 Y3.6092
X3.9595 Y3.5989
X3.9585 Y3.5964
X3.9579 Y3.5945
X3.9572 Y3.5926
G3 X4.004 Y3.5752 I0.024 J-0.0069
G1 X4.0154 Y3.6002
G3 X3.9713 Y3.6236 I-0.0227 J0.0104
G1 X3.9628 Y3.6084
X3.9612 Y3.6047
X3.9531 Y3.58
X3.9504 Y3.5718
X3.9498 Y3.5699
X3.9465 Y3.5577
X3.9448 Y3.5505
X3.9441 Y3.5472
X3.9435 Y3.5438
X3.9431 Y3.5404
G3 X3.9923 Y3.5327 I0.0249 J-0.0021
G1 X3.9976 Y3.5557
G3 X3.9498 Y3.5699 I-0.0244 J0.0056
G1 X3.9477 Y3.5636
X3.9451 Y3.5554
X3.9439 Y3.5471
X3.9409 Y3.5225
X3.9402 Y3.5163
X3.94 Y3.5152
X3.9392 Y3.5031
X3.939 Y3.4964
Y3.493
Y3.4896
X3.9392 Y3.4862
G3 X3.9891 Y3.4883 I0.0248 J0.0028
G1 X3.9897 Y3.5106
G3 X3.94 Y3.5152 I-0.025 J0.0007
G1 X3.9384 Y3.5019
Y3.4978
X3.9409 Y3.4649
X3.9411 Y3.4624
X3.9412 Y3.4607
X3.9428 Y3.4484
X3.9439 Y3.4417
X3.9445 Y3.4383
X3.9453 Y3.435
X3.9461 Y3.4317
G3 X3.9946 Y3.4434 I0.0238 J0.0076
G1 X3.9908 Y3.4659
G3 X3.9412 Y3.4607 I-0.0247 J-0.0042
G1 X3.9421 Y3.4485
X3.9427 Y3.4444
X3.9438 Y3.4402
X3.9507 Y3.4156
X3.9519 Y3.4111
X3.9525 Y3.409
X3.9572 Y3.395
X3.9597 Y3.3884
X3.961 Y3.3852
X3.9624 Y3.3821
X3.9639 Y3.379
G3 X4.0091 Y3.3999 I0.0219 J0.0121
G1 X4.0002 Y3.4237
G3 X3.9525 Y3.409 I-0.0234 J-0.0088
G1 X3.9566 Y3.3943
X3.9579 Y3.3909
X3.9648 Y3.3771
X3.9703 Y3.3662
X3.973 Y3.3609
X3.9745 Y3.358
X3.9815 Y3.3458
X3.985 Y3.3402
X3.9869 Y3.3373
X3.9889 Y3.3345
X3.9909 Y3.3318
G3 X4.0312 Y3.3612 I0.0191 J0.0161
G1 X4.0184 Y3.3818
G3 X3.9745 Y3.358 I-0.0212 J-0.0132
G1 X3.9813 Y3.3447
X3.9833 Y3.3416
X4.0026 Y3.3169
X4.0059 Y3.3127
X4.0069 Y3.3115
X4.0145 Y3.3027
X4.019 Y3.298
X4.0214 Y3.2955
X4.0238 Y3.2932
X4.0264 Y3.2909
G3 X4.0601 Y3.3276 I0.0156 J0.0195
G1 X4.0452 Y3.3434
G3 X4.0069 Y3.3115 I-0.0182 J-0.0172
G1 X4.0141 Y3.3022
X4.0156 Y3.3005
X4.0224 Y3.2944
X4.0388 Y3.2803
X4.044 Y3.2758
X4.0457 Y3.2744
X4.056 Y3.2664
X4.0613 Y3.2626
X4.0642 Y3.2607
X4.067 Y3.2588
X4.07 Y3.2571
G3 X4.096 Y3.2997 I0.0115 J0.0222
G1 X4.0771 Y3.3131
G3 X4.0457 Y3.2744 I-0.0145 J-0.0204
G1 X4.0552 Y3.2662
X4.0593 Y3.2631
X4.0881 Y3.2469
X4.0903 Y3.2457
X4.0918 Y3.2449
X4.1035 Y3.239
X4.1096 Y3.2363
X4.1127 Y3.235
X4.1159 Y3.2337
X4.1191 Y3.2326
G3 X4.1363 Y3.2794 I0.0069 J0.024
G1 X4.115 Y3.289
G3 X4.0918 Y3.2449 I-0.0103 J-0.0228
G1 X4.1045 Y3.2377
X4.1128 Y3.2347
X4.1374 Y3.2266
X4.1379 Y3.2265
X4.1421 Y3.2251
X4.1555 Y3.2214
X4.1622 Y3.2199
X4.1655 Y3.2192
X4.1689 Y3.2186
X4.1722 Y3.2181
G3 X4.18 Y3.2674 I0.0021 J0.0249
G1 X4.1564 Y3.2729
G3 X4.1421 Y3.2251 I-0.0056 J-0.0244
G1 X4.1539 Y3.2212
X4.158 Y3.22
X4.1621 Y3.2194
X4.1867 Y3.2164
X4.195 Y3.2154
X4.1963 Y3.2152
X4.21 Y3.2143
X4.2166 Y3.2141
X4.22
X4.2234 Y3.2142
X4.2268 Y3.2144
G3 X4.2248 Y3.2642 I-0.0028 J0.0248
G1 X4.201 Y3.2649
G3 X4.1963 Y3.2152 I-0.0008 J-0.025
G1 X4.2114 Y3.2135
X4.2196 Y3.2138
X4.2443 Y3.2157
X4.2607 Y3.217
X4.2689 Y3.2179
X4.2703 Y3.2182
X4.2997 Y3.2265
X4.3018 Y3.2271
X4.3189 Y3.2328
X4.3245 Y3.2349
X4.3277 Y3.2362
X4.3308 Y3.2376
X4.3339 Y3.2391
G3 X4.3131 Y3.2844 I-0.0121 J0.0219
G1 X4.2872 Y3.2748
G3 X4.3018 Y3.2271 I0.0087 J-0.0234
G1 X4.3182 Y3.2317
X4.3217 Y3.233
X4.3265 Y3.2353
X4.3511 Y3.2478
X4.3547 Y3.2496
X4.3563 Y3.2505
X4.3695 Y3.258
X4.3736 Y3.2606
X4.3764 Y3.2626
X4.3791 Y3.2646
G3 X4.3498 Y3.305 I-0.0161 J0.0191
G1 X4.3327 Y3.2944
G3 X4.3563 Y3.2505 I0.0132 J-0.0213
G1 X4.3676 Y3.2562
X4.37 Y3.2576
X4.3723 Y3.2594
X4.4004 Y3.2814
X4.4087 Y3.2879
X4.4137 Y3.2922
X4.4208 Y3.3005
X4.442 Y3.3251
X4.4488 Y3.3334
X4.4498 Y3.3349
X4.4744 Y3.3786
X4.4763 Y3.3827
X4.4909 Y3.4273
X4.4924 Y3.432
X4.4936 Y3.4402
X4.4991 Y3.4854
X4.4992 Y3.4896
X4.4954 Y3.5389
X4.495 Y3.543
X4.4939 Y3.5471
X4.4824 Y3.5882
X4.4798 Y3.5965
X4.4744 Y3.6073
X4.458 Y3.6397
X4.4545 Y3.6458
X4.4415 Y3.6624
X4.4251 Y3.6834
X4.4223 Y3.6869
X4.4169 Y3.6919
X4.384 Y3.7201
X4.3799 Y3.7235
X4.3758 Y3.726
X4.3347 Y3.7491
X4.3306 Y3.7511
X4.3258 Y3.7527
X4.2813 Y3.7673
X4.2772 Y3.7681
X4.2278 Y3.7741
X4.2237 Y3.7743
X4.2196 Y3.774
X4.1785 Y3.7709
X4.1703 Y3.7702
X4.1661 Y3.7691
X4.121 Y3.7565
X4.1169 Y3.7552
X4.1128 Y3.7532
X4.098 Y3.7457
G3 X4.0854 Y3.7196 I0.0121 J-0.0219
G1 X4.0861 Y3.7158 Z-0.2897
X4.0867 Y3.712 Z-0.2888
X4.0873 Y3.7084 Z-0.2873
X4.0879 Y3.7051 Z-0.2852
X4.0884 Y3.7022 Z-0.2827
X4.0888 Y3.6997 Z-0.2797
X4.0892 Y3.6977 Z-0.2763
X4.0894 Y3.6962 Z-0.2727
X4.0896 Y3.6953 Z-0.2689
Y3.695 Z-0.265
G0 Z0.6
g0 x0 y0

M9
M30
