(X4 GEARBOX HOLES RUN 5.0)
(T1  D=0.25 CR=0. - ZMIN=-0.29 - FLAT END MILL)
G90 G94 G91.1 G40 G49 G17
G20

(2D ADAPTIVE1)
M5
T1 M6
S15000 M3
g4 p5
G54
M8
G0 X1.3263 Y2.9307
G43 Z0.6 H1
Z0.2
Z0.102
G3 X1.0982 Y2.9968 Z0.089 I-0.1141 J0.033 F20.
X1.3263 Y2.9307 Z0.0759 I0.1141 J-0.033
X1.0982 Y2.9968 Z0.0629 I-0.1141 J0.033
X1.3263 Y2.9307 Z0.0499 I0.1141 J-0.033
X1.0982 Y2.9968 Z0.0369 I-0.1141 J0.033
X1.3263 Y2.9307 Z0.0238 I0.1141 J-0.033
X1.0982 Y2.9968 Z0.0108 I-0.1141 J0.033
X1.3263 Y2.9307 Z-0.0022 I0.1141 J-0.033
X1.0982 Y2.9968 Z-0.0152 I-0.1141 J0.033
X1.3263 Y2.9307 Z-0.0283 I0.1141 J-0.033
X1.0982 Y2.9968 Z-0.0413 I-0.1141 J0.033
X1.3263 Y2.9307 Z-0.0543 I0.1141 J-0.033
X1.0982 Y2.9968 Z-0.0674 I-0.1141 J0.033
X1.3263 Y2.9307 Z-0.0804 I0.1141 J-0.033
X1.0982 Y2.9968 Z-0.0934 I-0.1141 J0.033
X1.3263 Y2.9307 Z-0.1064 I0.1141 J-0.033
X1.0982 Y2.9968 Z-0.1195 I-0.1141 J0.033
X1.3263 Y2.9307 Z-0.1325 I0.1141 J-0.033
X1.0982 Y2.9968 Z-0.1455 I-0.1141 J0.033
X1.3263 Y2.9307 Z-0.1586 I0.1141 J-0.033
X1.0982 Y2.9968 Z-0.1716 I-0.1141 J0.033
X1.3263 Y2.9307 Z-0.1846 I0.1141 J-0.033
X1.0982 Y2.9968 Z-0.1976 I-0.1141 J0.033
X1.3263 Y2.9307 Z-0.2107 I0.1141 J-0.033
X1.0982 Y2.9968 Z-0.2237 I-0.1141 J0.033
X1.3263 Y2.9307 Z-0.2367 I0.1141 J-0.033
X1.0982 Y2.9968 Z-0.2497 I-0.1141 J0.033
X1.3263 Y2.9307 Z-0.2628 I0.1141 J-0.033
X1.0982 Y2.9968 Z-0.2758 I-0.1141 J0.033
X1.1956 Y2.8462 Z-0.2829 I0.1141 J-0.033
X1.331 Y2.9637 Z-0.29 I0.0167 J0.1176
X1.0935 I-0.1187 J0.
X1.331 I0.1187 J0.
G1 X1.3316 Y2.9996 F30.
X1.3315 Y3.0056
X1.3308 Y3.0116
X1.3295 Y3.0174
X1.3278 Y3.0232
X1.3256 Y3.0288
X1.3232 Y3.0342
X1.3203 Y3.0395
X1.3172 Y3.0446
X1.3138 Y3.0496
X1.3101 Y3.0543
X1.3062 Y3.0588
X1.302 Y3.0632
X1.2976 Y3.0673
X1.293 Y3.0711
X1.2883 Y3.0748
X1.2833 Y3.0782
X1.2783 Y3.0814
X1.273 Y3.0843
X1.2676 Y3.087
X1.2622 Y3.0894
X1.2566 Y3.0916
X1.2509 Y3.0935
X1.2451 Y3.0951
X1.2393 Y3.0965
X1.2334 Y3.0976
X1.2274 Y3.0985
X1.2215 Y3.099
X1.2155 Y3.0993
X1.2095 Y3.0994
X1.2035 Y3.0992
X1.1975 Y3.0987
X1.1915 Y3.0979
X1.1856 Y3.0969
X1.1798 Y3.0956
X1.174 Y3.094
X1.1682 Y3.0922
X1.1626 Y3.0901
X1.1571 Y3.0878
X1.1516 Y3.0853
X1.1463 Y3.0825
X1.1411 Y3.0795
X1.1361 Y3.0762
X1.1312 Y3.0728
X1.1265 Y3.0691
X1.1219 Y3.0652
X1.1175 Y3.0611
X1.1133 Y3.0568
X1.1093 Y3.0524
X1.1055 Y3.0477
X1.1019 Y3.0429
X1.0985 Y3.038
X1.0953 Y3.0329
X1.0924 Y3.0277
X1.0897 Y3.0223
X1.0872 Y3.0168
X1.085 Y3.0113
X1.083 Y3.0056
X1.0813 Y2.9999
X1.0798 Y2.994
X1.0786 Y2.9882
X1.0776 Y2.9822
X1.077 Y2.9763
X1.0765 Y2.9703
X1.0764 Y2.9643
X1.0765 Y2.9583
X1.0769 Y2.9523
X1.0775 Y2.9463
X1.0784 Y2.9404
X1.0796 Y2.9345
X1.081 Y2.9287
X1.0826 Y2.9229
X1.0846 Y2.9172
X1.0868 Y2.9117
X1.0892 Y2.9062
X1.0918 Y2.9008
X1.0947 Y2.8955
X1.0979 Y2.8904
X1.1012 Y2.8854
X1.1048 Y2.8806
X1.1085 Y2.8759
X1.1125 Y2.8714
X1.1167 Y2.8671
X1.121 Y2.863
X1.1256 Y2.8591
X1.1303 Y2.8554
X1.1352 Y2.8518
X1.1402 Y2.8485
X1.1453 Y2.8455
X1.1506 Y2.8426
X1.156 Y2.84
X1.1615 Y2.8377
X1.1671 Y2.8356
X1.1728 Y2.8337
X1.1786 Y2.8321
X1.1845 Y2.8307
X1.1904 Y2.8296
X1.1963 Y2.8288
X1.2023 Y2.8282
X1.2083 Y2.8279
X1.2143
X1.2203 Y2.8281
X1.2262 Y2.8286
X1.2322 Y2.8293
X1.2381 Y2.8303
X1.244 Y2.8316
X1.2498 Y2.8331
X1.2555 Y2.8349
X1.2612 Y2.8369
X1.2667 Y2.8392
X1.2721 Y2.8418
X1.2775 Y2.8445
X1.2827 Y2.8475
X1.2877 Y2.8507
X1.2926 Y2.8542
X1.2974 Y2.8578
X1.302 Y2.8617
X1.3064 Y2.8658
X1.3106 Y2.87
X1.3147 Y2.8744
X1.3185 Y2.879
X1.3222 Y2.8838
X1.3256 Y2.8888
X1.3288 Y2.8938
X1.3318 Y2.899
X1.3345 Y2.9044
X1.337 Y2.9098
X1.3393 Y2.9154
X1.3413 Y2.921
X1.3433 Y2.9275
X1.3455 Y2.9355
X1.3476 Y2.9446
X1.3492 Y2.9529
X1.3503 Y2.9597
X1.3511 Y2.9659
X1.3516 Y2.9719
X1.3519 Y2.9779
X1.352 Y2.9839
X1.3518 Y2.9899
X1.3514 Y2.9959
X1.3507 Y3.0018
X1.3497 Y3.0078
X1.3484 Y3.0136
X1.3469 Y3.0194
X1.3451 Y3.0251
X1.343 Y3.0308
X1.3407 Y3.0363
X1.3381 Y3.0417
X1.3353 Y3.047
X1.3322 Y3.0522
X1.3289 Y3.0572
X1.3253 Y3.062
X1.3216 Y3.0667
X1.3176 Y3.0712
X1.3135 Y3.0755
X1.3091 Y3.0797
X1.3046 Y3.0836
X1.2999 Y3.0874
X1.2951 Y3.0909
X1.2901 Y3.0943
X1.285 Y3.0974
X1.2797 Y3.1003
X1.2744 Y3.103
X1.2689 Y3.1054
X1.2633 Y3.1076
X1.2577 Y3.1097
X1.2519 Y3.1114
X1.2461 Y3.113
X1.2403 Y3.1142
X1.2344 Y3.1153
X1.2284 Y3.1161
X1.2224 Y3.1167
X1.2164 Y3.117
X1.2104 Y3.1171
X1.2044 Y3.117
X1.1985 Y3.1166
X1.1925 Y3.116
X1.1866 Y3.1151
X1.1807 Y3.114
X1.1748 Y3.1127
X1.169 Y3.1112
X1.1633 Y3.1094
X1.1576 Y3.1074
X1.152 Y3.1052
X1.1466 Y3.1027
X1.1412 Y3.1001
X1.1359 Y3.0972
X1.1308 Y3.0941
X1.1257 Y3.0909
X1.1208 Y3.0874
X1.1161 Y3.0837
X1.1115 Y3.0799
X1.107 Y3.0759
X1.1027 Y3.0717
X1.0986 Y3.0674
X1.0946 Y3.0629
X1.0908 Y3.0582
X1.0872 Y3.0534
X1.0838 Y3.0484
X1.0806 Y3.0434
X1.0776 Y3.0382
X1.0748 Y3.0329
X1.0722 Y3.0275
X1.0698 Y3.022
X1.0677 Y3.0164
X1.0657 Y3.0107
X1.064 Y3.0049
X1.0625 Y2.9991
X1.0612 Y2.9933
X1.0602 Y2.9874
X1.0594 Y2.9814
X1.0588 Y2.9754
X1.0585 Y2.9694
X1.0584 Y2.9634
X1.0585 Y2.9574
X1.0589 Y2.9515
X1.0595 Y2.9455
X1.0603 Y2.9395
X1.0613 Y2.9336
X1.0626 Y2.9278
X1.0641 Y2.922
X1.0659 Y2.9162
X1.0679 Y2.9106
X1.07 Y2.905
X1.0724 Y2.8995
X1.075 Y2.8941
X1.0779 Y2.8888
X1.0809 Y2.8836
X1.0841 Y2.8785
X1.0875 Y2.8736
X1.0911 Y2.8688
X1.0949 Y2.8642
X1.0989 Y2.8597
X1.103 Y2.8553
X1.1074 Y2.8511
X1.1118 Y2.8471
X1.1164 Y2.8433
X1.1212 Y2.8397
X1.1261 Y2.8362
X1.1312 Y2.833
X1.1363 Y2.8299
X1.1416 Y2.827
X1.147 Y2.8244
X1.1524 Y2.8219
X1.158 Y2.8197
X1.1637 Y2.8177
X1.1694 Y2.8159
X1.1752 Y2.8144
X1.1811 Y2.813
X1.1869 Y2.8119
X1.1929 Y2.8111
X1.1989 Y2.8104
X1.2048 Y2.81
X1.2108 Y2.8098
X1.2168 Y2.8099
X1.2228 Y2.8102
X1.2288 Y2.8107
X1.2348 Y2.8115
X1.2407 Y2.8125
X1.2465 Y2.8137
X1.2524 Y2.8152
X1.2581 Y2.8168
X1.2638 Y2.8187
X1.2694 Y2.8209
X1.275 Y2.8232
X1.2804 Y2.8257
X1.2857 Y2.8285
X1.2909 Y2.8315
X1.296 Y2.8346
X1.301 Y2.838
X1.3058 Y2.8416
X1.3105 Y2.8453
X1.3151 Y2.8492
X1.3195 Y2.8533
X1.3237 Y2.8576
X1.3277 Y2.862
X1.3316 Y2.8666
X1.3353 Y2.8713
X1.3388 Y2.8762
X1.3421 Y2.8812
X1.3453 Y2.8864
X1.3486 Y2.8921
X1.3517 Y2.8981
X1.3546 Y2.9044
X1.3574 Y2.9108
X1.3599 Y2.9172
X1.3622 Y2.9238
X1.3642 Y2.9303
X1.3659 Y2.9367
X1.3674 Y2.9431
X1.3686 Y2.9494
X1.3695 Y2.9556
X1.3703 Y2.9618
X1.3708 Y2.9679
X1.3711 Y2.9739
Y2.9799
X1.371 Y2.9859
X1.3706 Y2.9918
X1.37 Y2.9978
X1.3692 Y3.0038
X1.3681 Y3.0097
X1.3669 Y3.0155
X1.3654 Y3.0213
X1.3636 Y3.0271
X1.3617 Y3.0327
X1.3595 Y3.0383
X1.3571 Y3.0438
X1.3545 Y3.0492
X1.3516 Y3.0545
X1.3486 Y3.0597
X1.3454 Y3.0648
X1.342 Y3.0697
X1.3384 Y3.0745
X1.3346 Y3.0791
X1.3306 Y3.0836
X1.3265 Y3.088
X1.3221 Y3.0922
X1.3177 Y3.0962
X1.3131 Y3.1
X1.3083 Y3.1037
X1.3034 Y3.1072
X1.2984 Y3.1105
X1.2933 Y3.1136
X1.288 Y3.1165
X1.2827 Y3.1192
X1.2772 Y3.1217
X1.2717 Y3.124
X1.2661 Y3.1261
X1.2604 Y3.128
X1.2547 Y3.1297
X1.2488 Y3.1312
X1.243 Y3.1325
X1.2371 Y3.1335
X1.2311 Y3.1344
X1.2252 Y3.135
X1.2192 Y3.1354
X1.2131 Y3.1356
X1.2071
X1.201 Y3.1354
X1.195 Y3.135
X1.1889 Y3.1343
X1.183 Y3.1334
X1.177 Y3.1323
X1.1711 Y3.131
X1.1652 Y3.1295
X1.1593 Y3.1277
X1.1535 Y3.1258
X1.1478 Y3.1236
X1.1421 Y3.1212
X1.1365 Y3.1187
X1.1311 Y3.1159
X1.1257 Y3.1129
X1.1205 Y3.1098
X1.1154 Y3.1065
X1.1103 Y3.103
X1.1054 Y3.0993
X1.1007 Y3.0954
X1.096 Y3.0913
X1.0915 Y3.0871
X1.0871 Y3.0826
X1.083 Y3.0781
X1.0789 Y3.0734
X1.0751 Y3.0686
X1.0715 Y3.0636
X1.068 Y3.0586
X1.0647 Y3.0534
X1.0616 Y3.0481
X1.0587 Y3.0426
X1.0559 Y3.0371
X1.0534 Y3.0314
X1.0511 Y3.0257
X1.0489 Y3.0198
X1.047 Y3.0139
X1.0453 Y3.008
X1.0439 Y3.002
X1.0426 Y2.996
X1.0415 Y2.9899
X1.0407 Y2.9838
X1.0401 Y2.9776
X1.0397 Y2.9715
X1.0396 Y2.9653
Y2.9591
X1.0399 Y2.9529
X1.0404 Y2.9467
X1.0411 Y2.9405
X1.0421 Y2.9344
X1.0432 Y2.9283
X1.0446 Y2.9223
X1.0462 Y2.9163
X1.048 Y2.9104
X1.05 Y2.9046
X1.0522 Y2.8988
X1.0546 Y2.8931
X1.0573 Y2.8875
X1.0601 Y2.882
X1.0631 Y2.8766
X1.0664 Y2.8713
X1.0698 Y2.8661
X1.0734 Y2.861
X1.0771 Y2.8561
X1.0811 Y2.8514
X1.0852 Y2.8468
X1.0894 Y2.8423
X1.0938 Y2.838
X1.0984 Y2.8338
X1.1032 Y2.8298
X1.108 Y2.826
X1.1131 Y2.8223
X1.1182 Y2.8189
X1.1235 Y2.8156
X1.1288 Y2.8125
X1.1343 Y2.8096
X1.1399 Y2.8069
X1.1455 Y2.8044
X1.1513 Y2.8021
X1.1571 Y2.8001
X1.163 Y2.7982
X1.1689 Y2.7965
X1.175 Y2.7951
X1.181 Y2.7938
X1.1872 Y2.7928
X1.1933 Y2.792
X1.1995 Y2.7915
X1.2057 Y2.7911
X1.2119 Y2.791
X1.2181 Y2.7911
X1.2242 Y2.7914
X1.2304 Y2.792
X1.2365 Y2.7927
X1.2426 Y2.7937
X1.2487 Y2.7949
X1.2547 Y2.7963
X1.2607 Y2.7979
X1.2667 Y2.7998
X1.2725 Y2.8019
X1.2783 Y2.8041
X1.284 Y2.8066
X1.2895 Y2.8093
X1.295 Y2.8121
X1.3004 Y2.8152
X1.3056 Y2.8184
X1.3108 Y2.8218
X1.3158 Y2.8255
X1.3207 Y2.8293
X1.3255 Y2.8333
X1.3301 Y2.8375
X1.3347 Y2.8419
X1.3392 Y2.8466
X1.3436 Y2.8515
X1.3479 Y2.8566
X1.3521 Y2.862
X1.3561 Y2.8676
X1.3599 Y2.8734
X1.3636 Y2.8794
X1.3671 Y2.8855
X1.3704 Y2.8918
X1.3734 Y2.8982
X1.3762 Y2.9047
X1.3788 Y2.9113
X1.3811 Y2.918
X1.3832 Y2.9246
X1.385 Y2.9313
X1.3866 Y2.938
X1.3879 Y2.9447
X1.3889 Y2.9514
X1.3897 Y2.9581
X1.3903 Y2.9647
X1.3906 Y2.9713
X1.3907 Y2.9778
X1.3906 Y2.9843
X1.3902 Y2.9908
X1.3896 Y2.9972
X1.3888 Y3.0036
X1.3877 Y3.0099
X1.3864 Y3.0161
X1.3849 Y3.0223
X1.3832 Y3.0284
X1.3813 Y3.0344
X1.3792 Y3.0403
X1.3769 Y3.0461
X1.3744 Y3.0518
X1.3716 Y3.0574
X1.3687 Y3.0629
X1.3655 Y3.0684
X1.3622 Y3.0737
X1.3587 Y3.0789
X1.3549 Y3.084
X1.351 Y3.089
X1.3469 Y3.0938
X1.3426 Y3.0985
X1.3382 Y3.1031
X1.3336 Y3.1074
X1.3288 Y3.1117
X1.3238 Y3.1157
X1.3187 Y3.1196
X1.3135 Y3.1234
X1.3081 Y3.1269
X1.3026 Y3.1302
X1.2969 Y3.1334
X1.2911 Y3.1364
X1.2852 Y3.1391
X1.2792 Y3.1417
X1.2731 Y3.144
X1.2669 Y3.1461
X1.2606 Y3.148
X1.2542 Y3.1497
X1.2477 Y3.1512
X1.2412 Y3.1524
X1.2346 Y3.1534
X1.228 Y3.1542
X1.2213 Y3.1547
X1.2147 Y3.155
X1.208
X1.2013 Y3.1548
X1.1945 Y3.1544
X1.1878 Y3.1537
X1.1812 Y3.1528
X1.1745 Y3.1517
X1.1679 Y3.1503
X1.1613 Y3.1486
X1.1548 Y3.1467
X1.1483 Y3.1446
X1.142 Y3.1423
X1.1357 Y3.1397
X1.1295 Y3.1369
X1.1233 Y3.1339
X1.1173 Y3.1307
X1.1115 Y3.1272
X1.1057 Y3.1235
X1.1 Y3.1197
X1.0945 Y3.1156
X1.0892 Y3.1113
X1.084 Y3.1068
X1.079 Y3.1022
X1.0741 Y3.0974
X1.0694 Y3.0924
X1.0649 Y3.0872
X1.0606 Y3.0819
X1.0565 Y3.0764
X1.0525 Y3.0708
X1.0488 Y3.065
X1.0453 Y3.0591
X1.042 Y3.0531
X1.0389 Y3.0469
X1.036 Y3.0407
X1.0334 Y3.0343
X1.0309 Y3.0279
X1.0288 Y3.0214
X1.0268 Y3.0148
X1.0251 Y3.0081
X1.0236 Y3.0014
X1.0224 Y2.9946
X1.0214 Y2.9878
X1.0207 Y2.9809
X1.0202 Y2.974
X1.0199 Y2.9671
Y2.9603
X1.0202 Y2.9534
X1.0207 Y2.9465
X1.0214 Y2.9397
X1.0224 Y2.9328
X1.0236 Y2.9261
X1.0251 Y2.9193
X1.0268 Y2.9127
X1.0287 Y2.906
X1.0309 Y2.8995
X1.0333 Y2.893
X1.036 Y2.8867
X1.0389 Y2.8804
X1.042 Y2.8742
X1.0453 Y2.8682
X1.0488 Y2.8623
X1.0525 Y2.8565
X1.0565 Y2.8508
X1.0606 Y2.8453
X1.065 Y2.84
X1.0695 Y2.8348
X1.0742 Y2.8297
X1.0791 Y2.8249
X1.0842 Y2.8202
X1.0894 Y2.8157
X1.0948 Y2.8114
X1.1003 Y2.8073
X1.106 Y2.8033
X1.1118 Y2.7996
X1.1178 Y2.7961
X1.1238 Y2.7929
X1.13 Y2.7898
X1.1363 Y2.787
X1.1427 Y2.7844
X1.1492 Y2.782
X1.1557 Y2.7798
X1.1624 Y2.7779
X1.169 Y2.7763
X1.1758 Y2.7748
X1.1826 Y2.7736
X1.1894 Y2.7727
X1.1963 Y2.772
X1.2031 Y2.7716
X1.21 Y2.7714
X1.2169
X1.2238 Y2.7717
X1.2307 Y2.7722
X1.2376 Y2.773
X1.2444 Y2.774
X1.2512 Y2.7753
X1.2579 Y2.7768
X1.2646 Y2.7786
X1.2712 Y2.7806
X1.2777 Y2.7828
X1.2841 Y2.7853
X1.2905 Y2.788
X1.2967 Y2.7909
X1.3029 Y2.794
X1.3089 Y2.7974
X1.3149 Y2.801
X1.3208 Y2.8048
X1.3265 Y2.8089
X1.3322 Y2.8132
X1.3377 Y2.8178
X1.3431 Y2.8226
X1.3484 Y2.8276
X1.3536 Y2.8328
X1.3586 Y2.8383
X1.3634 Y2.844
X1.368 Y2.8499
X1.3725 Y2.856
X1.3767 Y2.8622
X1.3808 Y2.8686
X1.3846 Y2.8752
X1.3881 Y2.8819
X1.3915 Y2.8888
X1.3945 Y2.8957
X1.3974 Y2.9027
X1.3999 Y2.9098
X1.4022 Y2.917
X1.4042 Y2.9242
X1.406 Y2.9314
X1.4075 Y2.9387
X1.4087 Y2.946
X1.4096 Y2.9533
X1.4103 Y2.9606
X1.4108 Y2.9679
X1.4109 Y2.9751
X1.4108 Y2.9824
X1.4105 Y2.9896
X1.4099 Y2.9968
X1.409 Y3.0039
X1.4079 Y3.0109
X1.4065 Y3.0179
X1.4049 Y3.0248
X1.4031 Y3.0316
X1.401 Y3.0384
X1.3987 Y3.0451
X1.3961 Y3.0517
X1.3933 Y3.0581
X1.3903 Y3.0645
X1.387 Y3.0708
X1.3836 Y3.0769
X1.3799 Y3.0829
X1.3759 Y3.0888
X1.3718 Y3.0946
X1.3675 Y3.1002
X1.363 Y3.1056
X1.3582 Y3.1109
X1.3533 Y3.116
X1.3482 Y3.121
X1.3429 Y3.1258
X1.3374 Y3.1303
X1.3318 Y3.1347
X1.3259 Y3.1389
X1.32 Y3.1429
X1.3139 Y3.1467
X1.3076 Y3.1503
X1.3012 Y3.1536
X1.2947 Y3.1568
X1.288 Y3.1597
X1.2812 Y3.1623
X1.2743 Y3.1647
X1.2674 Y3.1669
X1.2603 Y3.1689
X1.2532 Y3.1705
X1.246 Y3.172
X1.2387 Y3.1731
X1.2314 Y3.174
X1.224 Y3.1747
X1.2166 Y3.1751
X1.2092 Y3.1752
X1.2018 Y3.175
X1.1944 Y3.1746
X1.187 Y3.174
X1.1796 Y3.173
X1.1722 Y3.1718
X1.1649 Y3.1703
X1.1576 Y3.1686
X1.1504 Y3.1666
X1.1432 Y3.1643
X1.1362 Y3.1618
X1.1292 Y3.159
X1.1223 Y3.156
X1.1155 Y3.1527
X1.1089 Y3.1492
X1.1023 Y3.1454
X1.0959 Y3.1414
X1.0896 Y3.1372
X1.0835 Y3.1328
X1.0776 Y3.1281
X1.0718 Y3.1232
X1.0662 Y3.1181
X1.0608 Y3.1129
X1.0555 Y3.1074
X1.0505 Y3.1017
X1.0457 Y3.0959
X1.041 Y3.0898
X1.0366 Y3.0837
X1.0325 Y3.0773
X1.0285 Y3.0708
X1.0248 Y3.0642
X1.0213 Y3.0574
X1.0181 Y3.0506
X1.0151 Y3.0436
X1.0124 Y3.0365
X1.0099 Y3.0293
X1.0076 Y3.022
X1.0057 Y3.0146
X1.004 Y3.0072
X1.0026 Y2.9997
X1.0014 Y2.9922
X1.0005 Y2.9846
X0.9999 Y2.9771
X0.9996 Y2.9694
X0.9995 Y2.9618
X0.9997 Y2.9542
X1.0002 Y2.9466
X1.0009 Y2.939
X1.0019 Y2.9315
X1.0032 Y2.924
X1.0048 Y2.9165
X1.0066 Y2.9091
X1.0087 Y2.9018
X1.011 Y2.8945
X1.0136 Y2.8873
X1.0165 Y2.8803
X1.0196 Y2.8733
X1.023 Y2.8665
X1.0266 Y2.8597
X1.0304 Y2.8532
X1.0345 Y2.8467
X1.0388 Y2.8404
X1.0433 Y2.8343
X1.0481 Y2.8283
X1.053 Y2.8225
X1.0582 Y2.8169
X1.0636 Y2.8115
X1.0691 Y2.8062
X1.0749 Y2.8012
X1.0808 Y2.7964
X1.0868 Y2.7918
X1.0931 Y2.7874
X1.0995 Y2.7832
X1.106 Y2.7793
X1.1127 Y2.7756
X1.1195 Y2.7722
X1.1264 Y2.769
X1.1335 Y2.766
X1.1406 Y2.7633
X1.1478 Y2.7609
X1.1551 Y2.7587
X1.1625 Y2.7568
X1.17 Y2.7551
X1.1775 Y2.7538
X1.185 Y2.7526
X1.1926 Y2.7518
X1.2002 Y2.7512
X1.2079 Y2.7509
X1.2155
X1.2231 Y2.7512
X1.2307 Y2.7517
X1.2383 Y2.7525
X1.2459 Y2.7536
X1.2534 Y2.7549
X1.2608 Y2.7565
X1.2682 Y2.7584
X1.2756 Y2.7605
X1.2828 Y2.7629
X1.29 Y2.7656
X1.2971 Y2.7685
X1.3041 Y2.7717
X1.3111 Y2.7752
X1.3179 Y2.7789
X1.3246 Y2.7829
X1.3312 Y2.7871
X1.3377 Y2.7916
X1.344 Y2.7964
X1.3502 Y2.8014
X1.3563 Y2.8066
X1.3622 Y2.8121
X1.3679 Y2.8178
X1.3734 Y2.8238
X1.3788 Y2.83
X1.3839 Y2.8363
X1.3888 Y2.8429
X1.3935 Y2.8496
X1.3979 Y2.8566
X1.4021 Y2.8637
X1.406 Y2.8709
X1.4097 Y2.8783
X1.4131 Y2.8858
X1.4162 Y2.8933
X1.4191 Y2.901
X1.4216 Y2.9088
X1.4239 Y2.9166
X1.4259 Y2.9245
X1.4276 Y2.9325
X1.429 Y2.9405
X1.4301 Y2.9485
X1.431 Y2.9565
X1.4315 Y2.9645
X1.4318 Y2.9725
X1.4317 Y2.9804
X1.4314 Y2.9884
X1.4308 Y2.9963
X1.43 Y3.0042
X1.4288 Y3.012
X1.4274 Y3.0198
X1.4256 Y3.0275
X1.4237 Y3.0351
X1.4214 Y3.0426
X1.4189 Y3.05
X1.4161 Y3.0574
X1.4131 Y3.0646
X1.4098 Y3.0717
X1.4062 Y3.0787
X1.4024 Y3.0856
X1.3984 Y3.0923
X1.3941 Y3.0989
X1.3896 Y3.1053
X1.3848 Y3.1115
X1.3799 Y3.1176
X1.3747 Y3.1235
X1.3693 Y3.1293
X1.3636 Y3.1348
X1.3578 Y3.1401
X1.3518 Y3.1453
X1.3456 Y3.1502
X1.3392 Y3.1549
X1.3327 Y3.1594
X1.3259 Y3.1636
X1.3191 Y3.1676
X1.312 Y3.1714
X1.3048 Y3.1749
X1.2975 Y3.1782
X1.2901 Y3.1812
X1.2825 Y3.1839
X1.2749 Y3.1864
X1.2671 Y3.1886
X1.2593 Y3.1905
X1.2514 Y3.1921
X1.2434 Y3.1935
X1.2353 Y3.1946
X1.2273 Y3.1954
X1.2191 Y3.1959
X1.211 Y3.1961
X1.2028 Y3.196
X1.1947 Y3.1956
X1.1865 Y3.1949
X1.1784 Y3.194
X1.1703 Y3.1927
X1.1622 Y3.1912
X1.1542 Y3.1893
X1.1462 Y3.1872
X1.1384 Y3.1848
X1.1306 Y3.1821
X1.1229 Y3.1791
X1.1153 Y3.1758
X1.1078 Y3.1723
X1.1004 Y3.1685
X1.0932 Y3.1644
X1.0861 Y3.1601
X1.0792 Y3.1556
X1.0725 Y3.1507
X1.0659 Y3.1457
X1.0595 Y3.1404
X1.0533 Y3.1348
X1.0472 Y3.1291
X1.0414 Y3.1231
X1.0359 Y3.1169
X1.0305 Y3.1106
X1.0253 Y3.104
X1.0204 Y3.0972
X1.0158 Y3.0903
X1.0114 Y3.0832
X1.0072 Y3.076
X1.0033 Y3.0686
X0.9997 Y3.0611
X0.9964 Y3.0534
X0.9933 Y3.0457
X0.9905 Y3.0378
X0.988 Y3.0298
X0.9857 Y3.0217
X0.9838 Y3.0136
X0.9822 Y3.0054
X0.9808 Y2.9971
X0.9798 Y2.9888
X0.979 Y2.9805
X0.9785 Y2.9721
X0.9784 Y2.9638
X0.9785 Y2.9554
X0.979 Y2.947
X0.9797 Y2.9387
X0.9808 Y2.9304
X0.9821 Y2.9221
X0.9837 Y2.9139
X0.9857 Y2.9057
X0.9879 Y2.8977
X0.9904 Y2.8897
X0.9932 Y2.8818
X0.9963 Y2.874
X0.9996 Y2.8663
X1.0032 Y2.8587
X1.0071 Y2.8513
X1.0113 Y2.844
X1.0157 Y2.8369
X1.0204 Y2.8299
X1.0253 Y2.8231
X1.0304 Y2.8165
X1.0358 Y2.8101
X1.0415 Y2.8039
X1.0473 Y2.7979
X1.0533 Y2.7921
X1.0596 Y2.7865
X1.066 Y2.7811
X1.0727 Y2.776
X1.0795 Y2.7711
X1.0865 Y2.7665
X1.0936 Y2.7621
X1.1009 Y2.758
X1.1084 Y2.7541
X1.116 Y2.7505
X1.1237 Y2.7472
X1.1315 Y2.7442
X1.1394 Y2.7414
X1.1474 Y2.739
X1.1555 Y2.7368
X1.1637 Y2.7349
X1.1719 Y2.7333
X1.1802 Y2.732
X1.1885 Y2.731
X1.1969 Y2.7303
X1.2053 Y2.7299
X1.2136 Y2.7298
X1.222 Y2.73
X1.2304 Y2.7305
X1.2388 Y2.7313
X1.2471 Y2.7324
X1.2554 Y2.7338
X1.2636 Y2.7355
X1.2718 Y2.7375
X1.2799 Y2.7398
X1.288 Y2.7424
X1.2959 Y2.7452
X1.3038 Y2.7484
X1.3116 Y2.7519
X1.3193 Y2.7556
X1.3269 Y2.7597
X1.3343 Y2.764
X1.3417 Y2.7686
X1.3488 Y2.7735
X1.3559 Y2.7786
X1.3627 Y2.7841
X1.3694 Y2.7898
X1.3759 Y2.7957
X1.3822 Y2.8019
X1.3883 Y2.8083
X1.3942 Y2.815
X1.3998 Y2.8219
X1.4052 Y2.8289
X1.4103 Y2.8362
X1.4152 Y2.8437
X1.4198 Y2.8514
X1.4242 Y2.8592
X1.4282 Y2.8671
X1.432 Y2.8752
X1.4355 Y2.8834
X1.4386 Y2.8917
X1.4415 Y2.9002
X1.4441 Y2.9087
X1.4463 Y2.9172
X1.4482 Y2.9259
X1.4499 Y2.9346
X1.4512 Y2.9433
X1.4522 Y2.952
X1.4528 Y2.9608
X1.4532 Y2.9695
Y2.9783
X1.453 Y2.987
X1.4524 Y2.9957
X1.4515 Y3.0044
X1.4503 Y3.013
X1.4488 Y3.0215
X1.447 Y3.03
X1.4449 Y3.0384
X1.4425 Y3.0467
X1.4398 Y3.0549
X1.4368 Y3.063
X1.4335 Y3.071
X1.43 Y3.0789
X1.4261 Y3.0866
X1.422 Y3.0942
X1.4176 Y3.1017
X1.413 Y3.1089
X1.4081 Y3.116
X1.4029 Y3.123
X1.3975 Y3.1297
X1.3919 Y3.1363
X1.386 Y3.1426
X1.3799 Y3.1488
X1.3735 Y3.1547
X1.367 Y3.1604
X1.3602 Y3.1659
X1.3532 Y3.1711
X1.3461 Y3.1761
X1.3387 Y3.1808
X1.3312 Y3.1853
X1.3235 Y3.1895
X1.3157 Y3.1934
X1.3077 Y3.197
X1.2996 Y3.2004
X1.2914 Y3.2035
X1.283 Y3.2063
X1.2745 Y3.2088
X1.266 Y3.2109
X1.2573 Y3.2128
X1.2486 Y3.2144
X1.2398 Y3.2157
X1.231 Y3.2166
X1.2221 Y3.2172
X1.2132 Y3.2175
X1.2042
X1.1953 Y3.2172
X1.1864 Y3.2165
X1.1775 Y3.2156
X1.1686 Y3.2143
X1.1598 Y3.2127
X1.151 Y3.2107
X1.1423 Y3.2085
X1.1337 Y3.2059
X1.1251 Y3.2031
X1.1167 Y3.1999
X1.1083 Y3.1964
X1.1001 Y3.1926
X1.0921 Y3.1885
X1.0841 Y3.1842
X1.0764 Y3.1795
X1.0687 Y3.1746
X1.0613 Y3.1694
X1.0541 Y3.1639
X1.047 Y3.1582
X1.0402 Y3.1522
X1.0336 Y3.146
X1.0272 Y3.1395
X1.021 Y3.1328
X1.0151 Y3.1259
X1.0094 Y3.1188
X1.004 Y3.1115
X0.9988 Y3.104
X0.9939 Y3.0963
X0.9893 Y3.0884
X0.985 Y3.0804
X0.981 Y3.0722
X0.9772 Y3.0639
X0.9738 Y3.0554
X0.9706 Y3.0468
X0.9678 Y3.0381
X0.9653 Y3.0294
X0.9631 Y3.0205
X0.9612 Y3.0115
X0.9597 Y3.0025
X0.9584 Y2.9935
X0.9575 Y2.9844
X0.9569 Y2.9752
X0.9567 Y2.9661
Y2.9569
X0.9572 Y2.9478
X0.9579 Y2.9387
X0.9589 Y2.9296
X0.9603 Y2.9205
X0.962 Y2.9115
X0.964 Y2.9026
X0.9664 Y2.8938
X0.969 Y2.885
X0.972 Y2.8763
X0.9753 Y2.8678
X0.9789 Y2.8594
X0.9828 Y2.8511
X0.987 Y2.8429
X0.9914 Y2.8349
X0.9962 Y2.8271
X1.0012 Y2.8194
X1.0065 Y2.812
X1.0121 Y2.8047
X1.0179 Y2.7976
X1.024 Y2.7908
X1.0303 Y2.7841
X1.0369 Y2.7777
X1.0436 Y2.7716
X1.0506 Y2.7656
X1.0578 Y2.76
X1.0652 Y2.7546
X1.0728 Y2.7494
X1.0806 Y2.7446
X1.0885 Y2.74
X1.0966 Y2.7357
X1.1049 Y2.7317
X1.1133 Y2.728
X1.1218 Y2.7246
X1.1304 Y2.7215
X1.1391 Y2.7187
X1.148 Y2.7163
X1.1569 Y2.7141
X1.1659 Y2.7123
X1.1749 Y2.7108
X1.184 Y2.7096
X1.1931 Y2.7088
X1.2023 Y2.7083
X1.2114 Y2.7081
X1.2206 Y2.7082
X1.2298 Y2.7087
X1.2389 Y2.7095
X1.2481 Y2.7106
X1.2572 Y2.712
X1.2662 Y2.7138
X1.2752 Y2.7159
X1.2842 Y2.7183
X1.293 Y2.7211
X1.3018 Y2.7242
X1.3105 Y2.7276
X1.319 Y2.7313
X1.3275 Y2.7353
X1.3358 Y2.7397
X1.344 Y2.7443
X1.3521 Y2.7493
X1.3599 Y2.7545
X1.3677 Y2.7601
X1.3752 Y2.7659
X1.3825 Y2.772
X1.3896 Y2.7784
X1.3965 Y2.7851
X1.4032 Y2.792
X1.4096 Y2.7992
X1.4158 Y2.8066
X1.4217 Y2.8142
X1.4274 Y2.822
X1.4327 Y2.8301
X1.4378 Y2.8383
X1.4426 Y2.8467
X1.4471 Y2.8553
X1.4512 Y2.864
X1.4551 Y2.8729
X1.4586 Y2.8819
X1.4618 Y2.891
X1.4646 Y2.9002
X1.4672 Y2.9095
X1.4694 Y2.9189
X1.4712 Y2.9283
X1.4727 Y2.9377
X1.4739 Y2.9473
X1.4747 Y2.9568
X1.4752 Y2.9663
X1.4753 Y2.9759
X1.4751 Y2.9854
X1.4746 Y2.9949
X1.4737 Y3.0043
X1.4725 Y3.0137
X1.4709 Y3.0231
X1.469 Y3.0324
X1.4668 Y3.0416
X1.4643 Y3.0507
X1.4614 Y3.0597
X1.4582 Y3.0686
X1.4547 Y3.0774
X1.4509 Y3.086
X1.4468 Y3.0945
X1.4424 Y3.1028
X1.4376 Y3.111
X1.4326 Y3.119
X1.4273 Y3.1269
X1.4218 Y3.1345
X1.4159 Y3.1419
X1.4098 Y3.1491
X1.4034 Y3.1561
X1.3968 Y3.1629
X1.3899 Y3.1695
X1.3828 Y3.1757
X1.3755 Y3.1818
X1.368 Y3.1876
X1.3602 Y3.1931
X1.3522 Y3.1983
X1.3441 Y3.2033
X1.3357 Y3.2079
X1.3272 Y3.2123
X1.3186 Y3.2163
X1.3098 Y3.2201
X1.3008 Y3.2235
X1.2917 Y3.2266
X1.2825 Y3.2294
X1.2732 Y3.2319
X1.2638 Y3.234
X1.2543 Y3.2358
X1.2448 Y3.2373
X1.2351 Y3.2384
X1.2255 Y3.2392
X1.2158 Y3.2396
X1.2061 Y3.2397
X1.1964 Y3.2394
X1.1866 Y3.2388
X1.177 Y3.2378
X1.1673 Y3.2365
X1.1577 Y3.2348
X1.1481 Y3.2328
X1.1386 Y3.2305
X1.1292 Y3.2278
X1.1199 Y3.2247
X1.1107 Y3.2214
X1.1016 Y3.2177
X1.0926 Y3.2136
X1.0838 Y3.2093
X1.0751 Y3.2046
X1.0666 Y3.1996
X1.0583 Y3.1944
X1.0502 Y3.1888
X1.0423 Y3.1829
X1.0345 Y3.1768
X1.0271 Y3.1703
X1.0198 Y3.1636
X1.0128 Y3.1567
X1.006 Y3.1495
X0.9995 Y3.142
X0.9932 Y3.1343
X0.9873 Y3.1264
X0.9816 Y3.1183
X0.9762 Y3.11
X0.9711 Y3.1015
X0.9663 Y3.0928
X0.9619 Y3.0839
X0.9577 Y3.0749
X0.9539 Y3.0658
X0.9504 Y3.0565
X0.9472 Y3.047
X0.9444 Y3.0375
X0.9419 Y3.0279
X0.9398 Y3.0182
X0.938 Y3.0084
X0.9366 Y2.9986
X0.9355 Y2.9887
X0.9348 Y2.9788
X0.9344 Y2.9688
Y2.9589
X0.9347 Y2.9489
X0.9354 Y2.939
X0.9365 Y2.9291
X0.9379 Y2.9193
X0.9397 Y2.9095
X0.9418 Y2.8998
X0.9442 Y2.8901
X0.9471 Y2.8806
X0.9502 Y2.8711
X0.9537 Y2.8618
X0.9575 Y2.8526
X0.9616 Y2.8435
X0.9661 Y2.8346
X0.9709 Y2.8259
X0.976 Y2.8173
X0.9814 Y2.809
X0.9871 Y2.8008
X0.993 Y2.7928
X0.9993 Y2.7851
X1.0058 Y2.7776
X1.0126 Y2.7703
X1.0197 Y2.7632
X1.027 Y2.7565
X1.0346 Y2.75
X1.0423 Y2.7437
X1.0503 Y2.7378
X1.0585 Y2.7321
X1.0669 Y2.7268
X1.0755 Y2.7217
X1.0843 Y2.717
X1.0932 Y2.7125
X1.1023 Y2.7084
X1.1115 Y2.7047
X1.1208 Y2.7012
X1.1303 Y2.6981
X1.1399 Y2.6953
X1.1496 Y2.6929
X1.1593 Y2.6908
X1.1691 Y2.6891
X1.179 Y2.6877
X1.1889 Y2.6867
X1.1989 Y2.6861
X1.2089 Y2.6858
X1.2188
X1.2288 Y2.6862
X1.2388 Y2.687
X1.2488 Y2.6881
X1.2587 Y2.6896
X1.2686 Y2.6915
X1.2784 Y2.6937
X1.2881 Y2.6962
X1.2978 Y2.6991
X1.3074 Y2.7024
X1.3169 Y2.706
X1.3262 Y2.71
X1.3355 Y2.7143
X1.3446 Y2.7189
X1.3535 Y2.7239
X1.3623 Y2.7292
X1.3709 Y2.7348
X1.3793 Y2.7407
X1.3875 Y2.747
X1.3955 Y2.7535
X1.4033 Y2.7604
X1.4108 Y2.7675
X1.4181 Y2.7749
X1.4215 Y2.7787
X1.4222 Y2.7795
X1.4251 Y2.7829
X1.4288 Y2.7872
X1.4304 Y2.7891
X1.4408 Y2.8024
X1.4429 Y2.8054
X1.4451 Y2.8086
X1.4472 Y2.8119
X1.4492 Y2.8152
G3 X1.4067 Y2.8413 I-0.0222 J0.0115
G1 X1.3918 Y2.8207
G3 X1.4304 Y2.7891 I0.0203 J-0.0146
G1 X1.4388 Y2.7989
X1.4415 Y2.8022
X1.4446 Y2.8071
X1.4631 Y2.84
X1.4677 Y2.8482
X1.4697 Y2.8524
X1.4845 Y2.8976
X1.4858 Y2.9017
X1.4866 Y2.9058
X1.4925 Y2.9551
X1.4927 Y2.9592
X1.4892 Y3.0045
X1.4885 Y3.0127
X1.4863 Y3.0209
X1.4744 Y3.0633
X1.4731 Y3.0668
X1.4714 Y3.0702
X1.4498 Y3.1129
X1.445 Y3.1196
X1.4169 Y3.1554
X1.4145 Y3.158
X1.4116 Y3.1607
X1.3758 Y3.1914
X1.373 Y3.1936
X1.3676 Y3.1968
X1.3295 Y3.2182
X1.3265 Y3.2199
X1.3183 Y3.2229
X1.2772 Y3.2364
X1.273 Y3.2376
X1.2689 Y3.2382
X1.2278 Y3.2432
X1.2196 Y3.2441
X1.2114 Y3.2438
X1.1703 Y3.2406
X1.1621 Y3.2397
X1.1374 Y3.2328
X1.1128 Y3.2259
X1.1087 Y3.2243
X1.0635 Y3.2014
X1.0614 Y3.2002
X1.0594 Y3.1988
X1.0213 Y3.1689
X1.0177 Y3.1658
X1.0132 Y3.1607
X0.985 Y3.1278
X0.9813 Y3.1227
X0.9563 Y3.0785
X0.9532 Y3.0702
X0.9398 Y3.0291
X0.9385 Y3.025
X0.9378 Y3.0209
X0.9319 Y2.9716
X0.932 Y2.9662
X0.9353 Y2.9222
X0.9362 Y2.914
X0.9402 Y2.8996
X0.9499 Y2.8647
X0.9514 Y2.8606
X0.9577 Y2.8482
X0.9743 Y2.8154
X0.9769 Y2.8112
X1.0059 Y2.7742
X1.0093 Y2.7701
X1.0141 Y2.7657
X1.047 Y2.7375
X1.0526 Y2.7331
X1.0552 Y2.7316
X1.0963 Y2.7085
X1.1004 Y2.7065
X1.1046 Y2.7051
X1.1498 Y2.6903
X1.1539 Y2.6895
X1.2032 Y2.6835
X1.2073 Y2.6833
X1.2114 Y2.6835
X1.2525 Y2.6867
X1.2607 Y2.6874
X1.2689 Y2.6896
X1.31 Y2.7011
X1.3141 Y2.7024
X1.3183 Y2.7043
X1.3594 Y2.7252
X1.3635 Y2.7275
X1.3676 Y2.7306
X1.4022 Y2.7578
X1.4055 Y2.7604
X1.4087 Y2.7637
X1.4222 Y2.7795
X1.4239 Y2.7819
X1.4253 Y2.7845
X1.4261 Y2.7874 Z-0.2898
X1.4268 Y2.7903 Z-0.2893
X1.4276 Y2.793 Z-0.2884
X1.4277 Y2.7951 Z-0.2875
X1.4271 Y2.7983 Z-0.2855
X1.4266 Y2.8013 Z-0.2831
X1.4261 Y2.8038 Z-0.2803
X1.4253 Y2.8054 Z-0.2776
X1.4247 Y2.8067 Z-0.2746
X1.4242 Y2.8077 Z-0.2715
X1.4239 Y2.8083 Z-0.2683
X1.4238 Y2.8084 Z-0.265
G0 Z0.2
X2.5137 Y4.9873
Z0.102
G3 X2.2856 Y5.0534 Z0.089 I-0.1141 J0.033 F20.
X2.5137 Y4.9873 Z0.0759 I0.1141 J-0.033
X2.2856 Y5.0534 Z0.0629 I-0.1141 J0.033
X2.5137 Y4.9873 Z0.0499 I0.1141 J-0.033
X2.2856 Y5.0534 Z0.0369 I-0.1141 J0.033
X2.5137 Y4.9873 Z0.0238 I0.1141 J-0.033
X2.2856 Y5.0534 Z0.0108 I-0.1141 J0.033
X2.5137 Y4.9873 Z-0.0022 I0.1141 J-0.033
X2.2856 Y5.0534 Z-0.0152 I-0.1141 J0.033
X2.5137 Y4.9873 Z-0.0283 I0.1141 J-0.033
X2.2856 Y5.0534 Z-0.0413 I-0.1141 J0.033
X2.5137 Y4.9873 Z-0.0543 I0.1141 J-0.033
X2.2856 Y5.0534 Z-0.0674 I-0.1141 J0.033
X2.5137 Y4.9873 Z-0.0804 I0.1141 J-0.033
X2.2856 Y5.0534 Z-0.0934 I-0.1141 J0.033
X2.5137 Y4.9873 Z-0.1064 I0.1141 J-0.033
X2.2856 Y5.0534 Z-0.1195 I-0.1141 J0.033
X2.5137 Y4.9873 Z-0.1325 I0.1141 J-0.033
X2.2856 Y5.0534 Z-0.1455 I-0.1141 J0.033
X2.5137 Y4.9873 Z-0.1586 I0.1141 J-0.033
X2.2856 Y5.0534 Z-0.1716 I-0.1141 J0.033
X2.5137 Y4.9873 Z-0.1846 I0.1141 J-0.033
X2.2856 Y5.0534 Z-0.1976 I-0.1141 J0.033
X2.5137 Y4.9873 Z-0.2107 I0.1141 J-0.033
X2.2856 Y5.0534 Z-0.2237 I-0.1141 J0.033
X2.5137 Y4.9873 Z-0.2367 I0.1141 J-0.033
X2.2856 Y5.0534 Z-0.2497 I-0.1141 J0.033
X2.5137 Y4.9873 Z-0.2628 I0.1141 J-0.033
X2.2856 Y5.0534 Z-0.2758 I-0.1141 J0.033
X2.3829 Y4.9028 Z-0.2829 I0.1141 J-0.033
X2.5184 Y5.0203 Z-0.29 I0.0167 J0.1176
X2.2809 I-0.1187 J0.
X2.5184 I0.1187 J0.
G1 X2.519 Y5.0562 F30.
X2.5189 Y5.0622
X2.5181 Y5.0682
X2.5169 Y5.074
X2.5151 Y5.0798
X2.513 Y5.0854
X2.5105 Y5.0908
X2.5077 Y5.0961
X2.5046 Y5.1012
X2.5011 Y5.1062
X2.4975 Y5.1109
X2.4935 Y5.1154
X2.4894 Y5.1198
X2.485 Y5.1239
X2.4804 Y5.1277
X2.4756 Y5.1314
X2.4707 Y5.1348
X2.4656 Y5.138
X2.4604 Y5.1409
X2.455 Y5.1436
X2.4495 Y5.146
X2.4439 Y5.1482
X2.4382 Y5.1501
X2.4325 Y5.1517
X2.4266 Y5.1531
X2.4207 Y5.1542
X2.4148 Y5.1551
X2.4088 Y5.1556
X2.4028 Y5.1559
X2.3968 Y5.156
X2.3908 Y5.1558
X2.3849 Y5.1553
X2.3789 Y5.1545
X2.373 Y5.1535
X2.3671 Y5.1522
X2.3613 Y5.1506
X2.3556 Y5.1488
X2.35 Y5.1467
X2.3444 Y5.1444
X2.339 Y5.1419
X2.3337 Y5.1391
X2.3285 Y5.1361
X2.3235 Y5.1328
X2.3186 Y5.1294
X2.3138 Y5.1257
X2.3093 Y5.1218
X2.3049 Y5.1177
X2.3007 Y5.1134
X2.2966 Y5.109
X2.2928 Y5.1043
X2.2892 Y5.0995
X2.2858 Y5.0946
X2.2827 Y5.0895
X2.2797 Y5.0843
X2.277 Y5.0789
X2.2746 Y5.0734
X2.2723 Y5.0679
X2.2704 Y5.0622
X2.2686 Y5.0565
X2.2672 Y5.0506
X2.266 Y5.0448
X2.265 Y5.0388
X2.2643 Y5.0329
X2.2639 Y5.0269
X2.2637 Y5.0209
X2.2639 Y5.0149
X2.2642 Y5.0089
X2.2649 Y5.0029
X2.2658 Y4.997
X2.2669 Y4.9911
X2.2683 Y4.9853
X2.27 Y4.9795
X2.2719 Y4.9738
X2.2741 Y4.9683
X2.2765 Y4.9628
X2.2792 Y4.9574
X2.2821 Y4.9521
X2.2852 Y4.947
X2.2886 Y4.942
X2.2921 Y4.9372
X2.2959 Y4.9325
X2.2999 Y4.928
X2.3041 Y4.9237
X2.3084 Y4.9196
X2.3129 Y4.9157
X2.3177 Y4.912
X2.3225 Y4.9084
X2.3275 Y4.9052
X2.3327 Y4.9021
X2.338 Y4.8992
X2.3434 Y4.8966
X2.3489 Y4.8943
X2.3545 Y4.8922
X2.3602 Y4.8903
X2.366 Y4.8887
X2.3718 Y4.8873
X2.3777 Y4.8862
X2.3837 Y4.8854
X2.3896 Y4.8848
X2.3956 Y4.8845
X2.4016
X2.4076 Y4.8847
X2.4136 Y4.8852
X2.4196 Y4.8859
X2.4255 Y4.8869
X2.4313 Y4.8882
X2.4371 Y4.8897
X2.4429 Y4.8915
X2.4485 Y4.8935
X2.4541 Y4.8958
X2.4595 Y4.8984
X2.4648 Y4.9011
X2.47 Y4.9041
X2.4751 Y4.9073
X2.48 Y4.9108
X2.4848 Y4.9144
X2.4894 Y4.9183
X2.4938 Y4.9224
X2.498 Y4.9266
X2.5021 Y4.931
X2.5059 Y4.9357
X2.5095 Y4.9404
X2.513 Y4.9454
X2.5162 Y4.9504
X2.5191 Y4.9556
X2.5219 Y4.961
X2.5244 Y4.9664
X2.5266 Y4.972
X2.5286 Y4.9776
X2.5306 Y4.9841
X2.5328 Y4.9921
X2.535 Y5.0012
X2.5366 Y5.0095
X2.5377 Y5.0163
X2.5385 Y5.0225
X2.539 Y5.0285
X2.5393 Y5.0345
Y5.0405
X2.5392 Y5.0465
X2.5387 Y5.0525
X2.538 Y5.0584
X2.537 Y5.0644
X2.5358 Y5.0702
X2.5342 Y5.076
X2.5324 Y5.0817
X2.5304 Y5.0874
X2.5281 Y5.0929
X2.5255 Y5.0983
X2.5226 Y5.1036
X2.5195 Y5.1088
X2.5162 Y5.1138
X2.5127 Y5.1186
X2.5089 Y5.1233
X2.505 Y5.1278
X2.5008 Y5.1321
X2.4965 Y5.1363
X2.492 Y5.1402
X2.4873 Y5.144
X2.4824 Y5.1475
X2.4775 Y5.1509
X2.4723 Y5.154
X2.4671 Y5.1569
X2.4617 Y5.1596
X2.4562 Y5.162
X2.4507 Y5.1643
X2.445 Y5.1663
X2.4393 Y5.168
X2.4335 Y5.1696
X2.4276 Y5.1708
X2.4217 Y5.1719
X2.4158 Y5.1727
X2.4098 Y5.1733
X2.4038 Y5.1736
X2.3978 Y5.1737
X2.3918 Y5.1736
X2.3858 Y5.1732
X2.3799 Y5.1726
X2.3739 Y5.1717
X2.368 Y5.1706
X2.3622 Y5.1693
X2.3564 Y5.1678
X2.3506 Y5.166
X2.345 Y5.164
X2.3394 Y5.1618
X2.3339 Y5.1593
X2.3286 Y5.1567
X2.3233 Y5.1538
X2.3181 Y5.1507
X2.3131 Y5.1475
X2.3082 Y5.144
X2.3034 Y5.1403
X2.2988 Y5.1365
X2.2944 Y5.1325
X2.2901 Y5.1283
X2.2859 Y5.124
X2.282 Y5.1195
X2.2782 Y5.1148
X2.2746 Y5.11
X2.2712 Y5.105
X2.268 Y5.1
X2.265 Y5.0948
X2.2622 Y5.0895
X2.2596 Y5.0841
X2.2572 Y5.0786
X2.255 Y5.073
X2.2531 Y5.0673
X2.2514 Y5.0615
X2.2499 Y5.0557
X2.2486 Y5.0499
X2.2476 Y5.044
X2.2468 Y5.038
X2.2462 Y5.032
X2.2458 Y5.026
X2.2457 Y5.02
X2.2459 Y5.0141
X2.2462 Y5.0081
X2.2468 Y5.0021
X2.2477 Y4.9961
X2.2487 Y4.9902
X2.25 Y4.9844
X2.2515 Y4.9786
X2.2533 Y4.9728
X2.2552 Y4.9672
X2.2574 Y4.9616
X2.2598 Y4.9561
X2.2624 Y4.9507
X2.2652 Y4.9454
X2.2683 Y4.9402
X2.2715 Y4.9351
X2.2749 Y4.9302
X2.2785 Y4.9254
X2.2823 Y4.9208
X2.2863 Y4.9163
X2.2904 Y4.9119
X2.2947 Y4.9077
X2.2992 Y4.9037
X2.3038 Y4.8999
X2.3086 Y4.8963
X2.3135 Y4.8928
X2.3185 Y4.8896
X2.3237 Y4.8865
X2.329 Y4.8836
X2.3343 Y4.881
X2.3398 Y4.8785
X2.3454 Y4.8763
X2.351 Y4.8743
X2.3568 Y4.8725
X2.3626 Y4.871
X2.3684 Y4.8696
X2.3743 Y4.8685
X2.3803 Y4.8677
X2.3862 Y4.867
X2.3922 Y4.8666
X2.3982 Y4.8664
X2.4042 Y4.8665
X2.4102 Y4.8668
X2.4162 Y4.8673
X2.4221 Y4.8681
X2.428 Y4.8691
X2.4339 Y4.8703
X2.4397 Y4.8718
X2.4455 Y4.8734
X2.4512 Y4.8753
X2.4568 Y4.8775
X2.4623 Y4.8798
X2.4678 Y4.8823
X2.4731 Y4.8851
X2.4783 Y4.8881
X2.4834 Y4.8912
X2.4884 Y4.8946
X2.4932 Y4.8982
X2.4979 Y4.9019
X2.5024 Y4.9058
X2.5068 Y4.9099
X2.511 Y4.9142
X2.5151 Y4.9186
X2.519 Y4.9232
X2.5227 Y4.9279
X2.5262 Y4.9328
X2.5295 Y4.9378
X2.5327 Y4.943
X2.5359 Y4.9487
X2.539 Y4.9547
X2.542 Y4.961
X2.5447 Y4.9674
X2.5472 Y4.9738
X2.5495 Y4.9804
X2.5515 Y4.9869
X2.5532 Y4.9933
X2.5547 Y4.9997
X2.5559 Y5.006
X2.5569 Y5.0122
X2.5576 Y5.0184
X2.5582 Y5.0245
X2.5584 Y5.0305
X2.5585 Y5.0365
X2.5584 Y5.0425
X2.558 Y5.0484
X2.5574 Y5.0544
X2.5566 Y5.0604
X2.5555 Y5.0663
X2.5542 Y5.0721
X2.5527 Y5.0779
X2.551 Y5.0837
X2.549 Y5.0893
X2.5468 Y5.0949
X2.5444 Y5.1004
X2.5418 Y5.1058
X2.539 Y5.1111
X2.536 Y5.1163
X2.5328 Y5.1214
X2.5293 Y5.1263
X2.5257 Y5.1311
X2.5219 Y5.1357
X2.518 Y5.1402
X2.5138 Y5.1446
X2.5095 Y5.1488
X2.5051 Y5.1528
X2.5004 Y5.1566
X2.4957 Y5.1603
X2.4908 Y5.1638
X2.4858 Y5.1671
X2.4807 Y5.1702
X2.4754 Y5.1731
X2.4701 Y5.1758
X2.4646 Y5.1783
X2.4591 Y5.1806
X2.4535 Y5.1827
X2.4478 Y5.1846
X2.442 Y5.1863
X2.4362 Y5.1878
X2.4303 Y5.1891
X2.4244 Y5.1901
X2.4185 Y5.191
X2.4125 Y5.1916
X2.4065 Y5.192
X2.4005 Y5.1922
X2.3944
X2.3884 Y5.192
X2.3823 Y5.1916
X2.3763 Y5.1909
X2.3703 Y5.19
X2.3644 Y5.1889
X2.3585 Y5.1876
X2.3526 Y5.1861
X2.3467 Y5.1843
X2.3409 Y5.1824
X2.3352 Y5.1802
X2.3295 Y5.1778
X2.3239 Y5.1753
X2.3184 Y5.1725
X2.3131 Y5.1695
X2.3078 Y5.1664
X2.3027 Y5.1631
X2.2977 Y5.1596
X2.2928 Y5.1559
X2.288 Y5.152
X2.2834 Y5.1479
X2.2789 Y5.1437
X2.2745 Y5.1392
X2.2703 Y5.1347
X2.2663 Y5.13
X2.2625 Y5.1252
X2.2588 Y5.1203
X2.2554 Y5.1152
X2.2521 Y5.11
X2.249 Y5.1047
X2.246 Y5.0992
X2.2433 Y5.0937
X2.2408 Y5.088
X2.2384 Y5.0823
X2.2363 Y5.0764
X2.2344 Y5.0705
X2.2327 Y5.0646
X2.2312 Y5.0586
X2.23 Y5.0526
X2.2289 Y5.0465
X2.2281 Y5.0404
X2.2275 Y5.0342
X2.2271 Y5.0281
X2.2269 Y5.0219
X2.227 Y5.0157
X2.2273 Y5.0095
X2.2278 Y5.0033
X2.2285 Y4.9971
X2.2294 Y4.991
X2.2306 Y4.9849
X2.232 Y4.9789
X2.2335 Y4.9729
X2.2353 Y4.967
X2.2373 Y4.9612
X2.2396 Y4.9554
X2.242 Y4.9497
X2.2446 Y4.9441
X2.2475 Y4.9386
X2.2505 Y4.9332
X2.2537 Y4.9279
X2.2572 Y4.9227
X2.2607 Y4.9176
X2.2645 Y4.9127
X2.2684 Y4.908
X2.2725 Y4.9034
X2.2768 Y4.8989
X2.2812 Y4.8946
X2.2858 Y4.8904
X2.2905 Y4.8864
X2.2954 Y4.8826
X2.3004 Y4.8789
X2.3056 Y4.8755
X2.3108 Y4.8722
X2.3162 Y4.8691
X2.3217 Y4.8662
X2.3272 Y4.8635
X2.3329 Y4.861
X2.3386 Y4.8587
X2.3444 Y4.8567
X2.3503 Y4.8548
X2.3563 Y4.8531
X2.3623 Y4.8517
X2.3684 Y4.8505
X2.3745 Y4.8494
X2.3807 Y4.8486
X2.3869 Y4.8481
X2.3931 Y4.8477
X2.3993 Y4.8476
X2.4054 Y4.8477
X2.4116 Y4.848
X2.4177 Y4.8486
X2.4239 Y4.8493
X2.43 Y4.8503
X2.4361 Y4.8515
X2.4421 Y4.8529
X2.4481 Y4.8546
X2.454 Y4.8564
X2.4599 Y4.8585
X2.4657 Y4.8607
X2.4713 Y4.8632
X2.4769 Y4.8659
X2.4824 Y4.8687
X2.4877 Y4.8718
X2.493 Y4.875
X2.4981 Y4.8784
X2.5032 Y4.8821
X2.5081 Y4.8859
X2.5128 Y4.8899
X2.5175 Y4.8941
X2.5221 Y4.8985
X2.5266 Y4.9032
X2.531 Y4.9081
X2.5353 Y4.9132
X2.5394 Y4.9186
X2.5434 Y4.9242
X2.5473 Y4.93
X2.551 Y4.936
X2.5545 Y4.9421
X2.5577 Y4.9484
X2.5608 Y4.9548
X2.5636 Y4.9613
X2.5662 Y4.9679
X2.5685 Y4.9746
X2.5706 Y4.9812
X2.5724 Y4.9879
X2.5739 Y4.9946
X2.5752 Y5.0013
X2.5763 Y5.008
X2.5771 Y5.0147
X2.5777 Y5.0213
X2.578 Y5.0279
X2.5781 Y5.0344
X2.5779 Y5.041
X2.5776 Y5.0474
X2.577 Y5.0538
X2.5761 Y5.0602
X2.5751 Y5.0665
X2.5738 Y5.0727
X2.5723 Y5.0789
X2.5706 Y5.085
X2.5687 Y5.091
X2.5666 Y5.0969
X2.5642 Y5.1027
X2.5617 Y5.1084
X2.559 Y5.114
X2.5561 Y5.1195
X2.5529 Y5.125
X2.5496 Y5.1303
X2.546 Y5.1355
X2.5423 Y5.1406
X2.5384 Y5.1456
X2.5343 Y5.1504
X2.53 Y5.1551
X2.5256 Y5.1597
X2.5209 Y5.164
X2.5162 Y5.1683
X2.5112 Y5.1723
X2.5061 Y5.1762
X2.5009 Y5.18
X2.4955 Y5.1835
X2.4899 Y5.1868
X2.4843 Y5.19
X2.4785 Y5.193
X2.4726 Y5.1957
X2.4666 Y5.1983
X2.4604 Y5.2006
X2.4542 Y5.2027
X2.4479 Y5.2047
X2.4415 Y5.2063
X2.4351 Y5.2078
X2.4286 Y5.209
X2.422 Y5.21
X2.4154 Y5.2108
X2.4087 Y5.2113
X2.402 Y5.2116
X2.3953
X2.3886 Y5.2114
X2.3819 Y5.211
X2.3752 Y5.2103
X2.3685 Y5.2094
X2.3619 Y5.2083
X2.3552 Y5.2069
X2.3487 Y5.2052
X2.3421 Y5.2033
X2.3357 Y5.2012
X2.3293 Y5.1989
X2.323 Y5.1963
X2.3168 Y5.1935
X2.3107 Y5.1905
X2.3047 Y5.1873
X2.2988 Y5.1838
X2.293 Y5.1801
X2.2874 Y5.1763
X2.2819 Y5.1722
X2.2766 Y5.1679
X2.2714 Y5.1635
X2.2663 Y5.1588
X2.2615 Y5.154
X2.2568 Y5.149
X2.2523 Y5.1438
X2.248 Y5.1385
X2.2438 Y5.133
X2.2399 Y5.1274
X2.2362 Y5.1216
X2.2326 Y5.1157
X2.2293 Y5.1097
X2.2262 Y5.1035
X2.2234 Y5.0973
X2.2207 Y5.0909
X2.2183 Y5.0845
X2.2161 Y5.078
X2.2142 Y5.0714
X2.2125 Y5.0647
X2.211 Y5.058
X2.2098 Y5.0512
X2.2088 Y5.0444
X2.208 Y5.0375
X2.2075 Y5.0306
X2.2073 Y5.0237
Y5.0169
X2.2075 Y5.01
X2.208 Y5.0031
X2.2088 Y4.9963
X2.2097 Y4.9894
X2.211 Y4.9827
X2.2124 Y4.9759
X2.2142 Y4.9693
X2.2161 Y4.9626
X2.2183 Y4.9561
X2.2207 Y4.9496
X2.2234 Y4.9433
X2.2262 Y4.937
X2.2293 Y4.9308
X2.2326 Y4.9248
X2.2362 Y4.9189
X2.2399 Y4.9131
X2.2439 Y4.9074
X2.248 Y4.9019
X2.2523 Y4.8966
X2.2569 Y4.8914
X2.2616 Y4.8863
X2.2665 Y4.8815
X2.2715 Y4.8768
X2.2768 Y4.8723
X2.2822 Y4.868
X2.2877 Y4.8639
X2.2934 Y4.8599
X2.2992 Y4.8562
X2.3051 Y4.8528
X2.3112 Y4.8495
X2.3174 Y4.8464
X2.3237 Y4.8436
X2.33 Y4.841
X2.3365 Y4.8386
X2.3431 Y4.8364
X2.3497 Y4.8345
X2.3564 Y4.8329
X2.3632 Y4.8314
X2.3699 Y4.8302
X2.3768 Y4.8293
X2.3836 Y4.8286
X2.3905 Y4.8282
X2.3974 Y4.828
X2.4043
X2.4112 Y4.8283
X2.4181 Y4.8288
X2.4249 Y4.8296
X2.4318 Y4.8306
X2.4385 Y4.8319
X2.4453 Y4.8334
X2.4519 Y4.8352
X2.4585 Y4.8372
X2.465 Y4.8394
X2.4715 Y4.8419
X2.4778 Y4.8446
X2.4841 Y4.8475
X2.4902 Y4.8506
X2.4963 Y4.854
X2.5023 Y4.8576
X2.5081 Y4.8614
X2.5139 Y4.8655
X2.5195 Y4.8698
X2.5251 Y4.8744
X2.5305 Y4.8792
X2.5358 Y4.8842
X2.5409 Y4.8894
X2.5459 Y4.8949
X2.5507 Y4.9006
X2.5554 Y4.9065
X2.5599 Y4.9126
X2.5641 Y4.9188
X2.5681 Y4.9252
X2.5719 Y4.9318
X2.5755 Y4.9385
X2.5788 Y4.9454
X2.5819 Y4.9523
X2.5847 Y4.9593
X2.5873 Y4.9664
X2.5896 Y4.9736
X2.5916 Y4.9808
X2.5933 Y4.988
X2.5948 Y4.9953
X2.5961 Y5.0026
X2.597 Y5.0099
X2.5977 Y5.0172
X2.5981 Y5.0245
X2.5983 Y5.0317
X2.5982 Y5.039
X2.5979 Y5.0462
X2.5972 Y5.0534
X2.5964 Y5.0605
X2.5953 Y5.0675
X2.5939 Y5.0745
X2.5923 Y5.0814
X2.5905 Y5.0882
X2.5884 Y5.095
X2.586 Y5.1017
X2.5835 Y5.1083
X2.5807 Y5.1147
X2.5777 Y5.1211
X2.5744 Y5.1274
X2.5709 Y5.1335
X2.5672 Y5.1395
X2.5633 Y5.1454
X2.5592 Y5.1512
X2.5549 Y5.1568
X2.5503 Y5.1622
X2.5456 Y5.1675
X2.5407 Y5.1726
X2.5355 Y5.1776
X2.5302 Y5.1824
X2.5248 Y5.1869
X2.5191 Y5.1913
X2.5133 Y5.1955
X2.5073 Y5.1995
X2.5012 Y5.2033
X2.495 Y5.2069
X2.4886 Y5.2102
X2.482 Y5.2134
X2.4754 Y5.2163
X2.4686 Y5.2189
X2.4617 Y5.2213
X2.4547 Y5.2235
X2.4477 Y5.2255
X2.4405 Y5.2271
X2.4333 Y5.2286
X2.4261 Y5.2297
X2.4188 Y5.2306
X2.4114 Y5.2313
X2.404 Y5.2317
X2.3966 Y5.2318
X2.3892 Y5.2316
X2.3818 Y5.2312
X2.3743 Y5.2306
X2.3669 Y5.2296
X2.3596 Y5.2284
X2.3523 Y5.2269
X2.345 Y5.2252
X2.3378 Y5.2232
X2.3306 Y5.2209
X2.3235 Y5.2184
X2.3165 Y5.2156
X2.3097 Y5.2126
X2.3029 Y5.2093
X2.2962 Y5.2058
X2.2897 Y5.202
X2.2833 Y5.198
X2.277 Y5.1938
X2.2709 Y5.1894
X2.265 Y5.1847
X2.2592 Y5.1798
X2.2536 Y5.1747
X2.2481 Y5.1695
X2.2429 Y5.164
X2.2379 Y5.1583
X2.233 Y5.1525
X2.2284 Y5.1464
X2.224 Y5.1403
X2.2198 Y5.1339
X2.2159 Y5.1274
X2.2122 Y5.1208
X2.2087 Y5.114
X2.2054 Y5.1072
X2.2025 Y5.1002
X2.1997 Y5.0931
X2.1972 Y5.0859
X2.195 Y5.0786
X2.1931 Y5.0712
X2.1914 Y5.0638
X2.1899 Y5.0563
X2.1888 Y5.0488
X2.1879 Y5.0413
X2.1873 Y5.0337
X2.1869 Y5.0261
X2.1868 Y5.0184
X2.187 Y5.0108
X2.1875 Y5.0032
X2.1883 Y4.9956
X2.1893 Y4.9881
X2.1906 Y4.9806
X2.1921 Y4.9731
X2.194 Y4.9657
X2.196 Y4.9584
X2.1984 Y4.9511
X2.201 Y4.9439
X2.2039 Y4.9369
X2.207 Y4.9299
X2.2103 Y4.9231
X2.2139 Y4.9163
X2.2178 Y4.9098
X2.2219 Y4.9033
X2.2262 Y4.897
X2.2307 Y4.8909
X2.2355 Y4.8849
X2.2404 Y4.8791
X2.2456 Y4.8735
X2.2509 Y4.8681
X2.2565 Y4.8628
X2.2622 Y4.8578
X2.2681 Y4.853
X2.2742 Y4.8484
X2.2805 Y4.844
X2.2869 Y4.8398
X2.2934 Y4.8359
X2.3001 Y4.8322
X2.3069 Y4.8288
X2.3138 Y4.8256
X2.3208 Y4.8226
X2.328 Y4.8199
X2.3352 Y4.8175
X2.3425 Y4.8153
X2.3499 Y4.8134
X2.3573 Y4.8117
X2.3648 Y4.8104
X2.3724 Y4.8093
X2.38 Y4.8084
X2.3876 Y4.8078
X2.3952 Y4.8075
X2.4028
X2.4105 Y4.8078
X2.4181 Y4.8083
X2.4257 Y4.8091
X2.4332 Y4.8102
X2.4407 Y4.8115
X2.4482 Y4.8131
X2.4556 Y4.815
X2.4629 Y4.8171
X2.4702 Y4.8195
X2.4774 Y4.8222
X2.4845 Y4.8251
X2.4915 Y4.8283
X2.4984 Y4.8318
X2.5053 Y4.8355
X2.512 Y4.8395
X2.5186 Y4.8437
X2.5251 Y4.8482
X2.5314 Y4.853
X2.5376 Y4.858
X2.5437 Y4.8632
X2.5495 Y4.8687
X2.5553 Y4.8744
X2.5608 Y4.8804
X2.5661 Y4.8866
X2.5712 Y4.8929
X2.5762 Y4.8995
X2.5808 Y4.9063
X2.5853 Y4.9132
X2.5895 Y4.9203
X2.5934 Y4.9275
X2.5971 Y4.9349
X2.6005 Y4.9424
X2.6036 Y4.9499
X2.6064 Y4.9576
X2.609 Y4.9654
X2.6113 Y4.9732
X2.6133 Y4.9811
X2.615 Y4.9891
X2.6164 Y4.9971
X2.6175 Y5.0051
X2.6183 Y5.0131
X2.6189 Y5.0211
X2.6191 Y5.0291
Y5.0371
X2.6188 Y5.045
X2.6182 Y5.0529
X2.6173 Y5.0608
X2.6162 Y5.0686
X2.6147 Y5.0764
X2.613 Y5.0841
X2.611 Y5.0917
X2.6088 Y5.0992
X2.6063 Y5.1066
X2.6035 Y5.114
X2.6004 Y5.1212
X2.5971 Y5.1283
X2.5936 Y5.1353
X2.5898 Y5.1422
X2.5857 Y5.1489
X2.5815 Y5.1555
X2.5769 Y5.1619
X2.5722 Y5.1681
X2.5672 Y5.1742
X2.562 Y5.1801
X2.5566 Y5.1859
X2.551 Y5.1914
X2.5452 Y5.1967
X2.5392 Y5.2019
X2.533 Y5.2068
X2.5266 Y5.2115
X2.52 Y5.216
X2.5133 Y5.2202
X2.5064 Y5.2242
X2.4994 Y5.228
X2.4922 Y5.2315
X2.4849 Y5.2348
X2.4775 Y5.2378
X2.4699 Y5.2405
X2.4623 Y5.243
X2.4545 Y5.2452
X2.4467 Y5.2471
X2.4387 Y5.2487
X2.4308 Y5.2501
X2.4227 Y5.2512
X2.4146 Y5.252
X2.4065 Y5.2525
X2.3984 Y5.2527
X2.3902 Y5.2526
X2.382 Y5.2522
X2.3739 Y5.2515
X2.3657 Y5.2506
X2.3576 Y5.2493
X2.3496 Y5.2478
X2.3416 Y5.2459
X2.3336 Y5.2438
X2.3257 Y5.2414
X2.3179 Y5.2387
X2.3102 Y5.2357
X2.3026 Y5.2324
X2.2952 Y5.2289
X2.2878 Y5.2251
X2.2806 Y5.2211
X2.2735 Y5.2167
X2.2666 Y5.2122
X2.2598 Y5.2073
X2.2532 Y5.2023
X2.2468 Y5.197
X2.2406 Y5.1914
X2.2346 Y5.1857
X2.2288 Y5.1797
X2.2232 Y5.1735
X2.2178 Y5.1672
X2.2127 Y5.1606
X2.2078 Y5.1538
X2.2032 Y5.1469
X2.1987 Y5.1398
X2.1946 Y5.1326
X2.1907 Y5.1252
X2.1871 Y5.1177
X2.1837 Y5.11
X2.1806 Y5.1023
X2.1778 Y5.0944
X2.1753 Y5.0864
X2.1731 Y5.0783
X2.1712 Y5.0702
X2.1695 Y5.062
X2.1682 Y5.0537
X2.1671 Y5.0454
X2.1664 Y5.0371
X2.1659 Y5.0287
X2.1657 Y5.0204
X2.1659 Y5.012
X2.1663 Y5.0036
X2.1671 Y4.9953
X2.1681 Y4.987
X2.1695 Y4.9787
X2.1711 Y4.9705
X2.173 Y4.9623
X2.1752 Y4.9543
X2.1778 Y4.9463
X2.1805 Y4.9384
X2.1836 Y4.9306
X2.187 Y4.9229
X2.1906 Y4.9153
X2.1945 Y4.9079
X2.1987 Y4.9006
X2.2031 Y4.8935
X2.2077 Y4.8865
X2.2127 Y4.8798
X2.2178 Y4.8731
X2.2232 Y4.8667
X2.2288 Y4.8605
X2.2347 Y4.8545
X2.2407 Y4.8487
X2.247 Y4.8431
X2.2534 Y4.8377
X2.26 Y4.8326
X2.2669 Y4.8277
X2.2739 Y4.8231
X2.281 Y4.8187
X2.2883 Y4.8146
X2.2958 Y4.8107
X2.3033 Y4.8071
X2.311 Y4.8038
X2.3188 Y4.8008
X2.3268 Y4.798
X2.3348 Y4.7956
X2.3429 Y4.7934
X2.3511 Y4.7915
X2.3593 Y4.7899
X2.3676 Y4.7886
X2.3759 Y4.7876
X2.3843 Y4.7869
X2.3926 Y4.7865
X2.401 Y4.7864
X2.4094 Y4.7866
X2.4178 Y4.7871
X2.4261 Y4.7879
X2.4344 Y4.789
X2.4427 Y4.7904
X2.451 Y4.7921
X2.4592 Y4.7941
X2.4673 Y4.7964
X2.4753 Y4.799
X2.4833 Y4.8018
X2.4912 Y4.805
X2.499 Y4.8085
X2.5067 Y4.8122
X2.5142 Y4.8163
X2.5217 Y4.8206
X2.529 Y4.8252
X2.5362 Y4.8301
X2.5432 Y4.8352
X2.5501 Y4.8407
X2.5568 Y4.8464
X2.5633 Y4.8523
X2.5696 Y4.8585
X2.5757 Y4.8649
X2.5815 Y4.8716
X2.5872 Y4.8785
X2.5926 Y4.8856
X2.5977 Y4.8928
X2.6026 Y4.9003
X2.6072 Y4.908
X2.6115 Y4.9158
X2.6156 Y4.9237
X2.6194 Y4.9318
X2.6228 Y4.94
X2.626 Y4.9483
X2.6289 Y4.9568
X2.6314 Y4.9653
X2.6337 Y4.9738
X2.6356 Y4.9825
X2.6372 Y4.9912
X2.6385 Y4.9999
X2.6395 Y5.0086
X2.6402 Y5.0174
X2.6406 Y5.0261
Y5.0349
X2.6403 Y5.0436
X2.6398 Y5.0523
X2.6389 Y5.061
X2.6377 Y5.0696
X2.6362 Y5.0781
X2.6344 Y5.0866
X2.6323 Y5.095
X2.6299 Y5.1033
X2.6272 Y5.1115
X2.6242 Y5.1196
X2.6209 Y5.1276
X2.6173 Y5.1355
X2.6135 Y5.1432
X2.6094 Y5.1508
X2.605 Y5.1583
X2.6004 Y5.1655
X2.5955 Y5.1726
X2.5903 Y5.1796
X2.5849 Y5.1863
X2.5792 Y5.1929
X2.5733 Y5.1992
X2.5672 Y5.2054
X2.5609 Y5.2113
X2.5543 Y5.217
X2.5476 Y5.2225
X2.5406 Y5.2277
X2.5334 Y5.2327
X2.5261 Y5.2374
X2.5186 Y5.2419
X2.5109 Y5.2461
X2.5031 Y5.25
X2.4951 Y5.2537
X2.487 Y5.257
X2.4787 Y5.2601
X2.4704 Y5.2629
X2.4619 Y5.2654
X2.4533 Y5.2676
X2.4447 Y5.2694
X2.4359 Y5.271
X2.4272 Y5.2723
X2.4183 Y5.2732
X2.4094 Y5.2738
X2.4005 Y5.2741
X2.3916
X2.3827 Y5.2738
X2.3738 Y5.2731
X2.3648 Y5.2722
X2.356 Y5.2709
X2.3471 Y5.2693
X2.3384 Y5.2673
X2.3297 Y5.2651
X2.321 Y5.2625
X2.3125 Y5.2597
X2.304 Y5.2565
X2.2957 Y5.253
X2.2875 Y5.2492
X2.2794 Y5.2451
X2.2715 Y5.2408
X2.2637 Y5.2361
X2.2561 Y5.2312
X2.2487 Y5.226
X2.2414 Y5.2205
X2.2344 Y5.2148
X2.2276 Y5.2088
X2.2209 Y5.2026
X2.2145 Y5.1961
X2.2084 Y5.1894
X2.2024 Y5.1825
X2.1968 Y5.1754
X2.1913 Y5.1681
X2.1862 Y5.1606
X2.1813 Y5.1529
X2.1767 Y5.145
X2.1724 Y5.137
X2.1683 Y5.1288
X2.1646 Y5.1205
X2.1611 Y5.112
X2.158 Y5.1034
X2.1552 Y5.0947
X2.1527 Y5.086
X2.1505 Y5.0771
X2.1486 Y5.0681
X2.147 Y5.0591
X2.1458 Y5.0501
X2.1449 Y5.041
X2.1443 Y5.0318
X2.144 Y5.0227
X2.1441 Y5.0135
X2.1445 Y5.0044
X2.1452 Y4.9953
X2.1463 Y4.9862
X2.1477 Y4.9771
X2.1494 Y4.9681
X2.1514 Y4.9592
X2.1538 Y4.9504
X2.1564 Y4.9416
X2.1594 Y4.9329
X2.1627 Y4.9244
X2.1663 Y4.916
X2.1701 Y4.9077
X2.1743 Y4.8995
X2.1788 Y4.8915
X2.1836 Y4.8837
X2.1886 Y4.876
X2.1939 Y4.8686
X2.1995 Y4.8613
X2.2053 Y4.8542
X2.2114 Y4.8474
X2.2177 Y4.8407
X2.2242 Y4.8343
X2.231 Y4.8282
X2.238 Y4.8222
X2.2452 Y4.8166
X2.2526 Y4.8112
X2.2602 Y4.806
X2.268 Y4.8012
X2.2759 Y4.7966
X2.284 Y4.7923
X2.2922 Y4.7883
X2.3006 Y4.7846
X2.3091 Y4.7812
X2.3178 Y4.7781
X2.3265 Y4.7753
X2.3353 Y4.7729
X2.3442 Y4.7707
X2.3532 Y4.7689
X2.3623 Y4.7674
X2.3714 Y4.7662
X2.3805 Y4.7654
X2.3896 Y4.7649
X2.3988 Y4.7647
X2.408 Y4.7648
X2.4172 Y4.7653
X2.4263 Y4.7661
X2.4354 Y4.7672
X2.4445 Y4.7686
X2.4536 Y4.7704
X2.4626 Y4.7725
X2.4715 Y4.7749
X2.4804 Y4.7777
X2.4892 Y4.7808
X2.4978 Y4.7842
X2.5064 Y4.7879
X2.5149 Y4.7919
X2.5232 Y4.7963
X2.5314 Y4.8009
X2.5394 Y4.8059
X2.5473 Y4.8111
X2.555 Y4.8167
X2.5626 Y4.8225
X2.5699 Y4.8286
X2.577 Y4.835
X2.5839 Y4.8417
X2.5906 Y4.8486
X2.597 Y4.8558
X2.6032 Y4.8632
X2.6091 Y4.8708
X2.6147 Y4.8786
X2.6201 Y4.8867
X2.6252 Y4.8949
X2.63 Y4.9033
X2.6344 Y4.9119
X2.6386 Y4.9206
X2.6424 Y4.9295
X2.646 Y4.9385
X2.6491 Y4.9476
X2.652 Y4.9568
X2.6545 Y4.9661
X2.6567 Y4.9755
X2.6586 Y4.9849
X2.6601 Y4.9944
X2.6612 Y5.0039
X2.6621 Y5.0134
X2.6626 Y5.0229
X2.6627 Y5.0325
X2.6625 Y5.042
X2.6619 Y5.0515
X2.6611 Y5.0609
X2.6598 Y5.0703
X2.6583 Y5.0797
X2.6564 Y5.089
X2.6542 Y5.0982
X2.6516 Y5.1073
X2.6488 Y5.1163
X2.6456 Y5.1252
X2.6421 Y5.134
X2.6383 Y5.1426
X2.6341 Y5.1511
X2.6297 Y5.1594
X2.625 Y5.1676
X2.62 Y5.1756
X2.6147 Y5.1835
X2.6091 Y5.1911
X2.6033 Y5.1985
X2.5972 Y5.2057
X2.5908 Y5.2127
X2.5842 Y5.2195
X2.5773 Y5.2261
X2.5702 Y5.2323
X2.5629 Y5.2384
X2.5553 Y5.2442
X2.5476 Y5.2497
X2.5396 Y5.2549
X2.5314 Y5.2599
X2.5231 Y5.2645
X2.5146 Y5.2689
X2.5059 Y5.2729
X2.4971 Y5.2767
X2.4882 Y5.2801
X2.4791 Y5.2832
X2.4699 Y5.286
X2.4606 Y5.2885
X2.4512 Y5.2906
X2.4417 Y5.2924
X2.4321 Y5.2939
X2.4225 Y5.295
X2.4128 Y5.2958
X2.4032 Y5.2962
X2.3934 Y5.2963
X2.3837 Y5.296
X2.374 Y5.2954
X2.3643 Y5.2944
X2.3547 Y5.2931
X2.345 Y5.2914
X2.3355 Y5.2894
X2.326 Y5.2871
X2.3166 Y5.2844
X2.3072 Y5.2813
X2.298 Y5.278
X2.2889 Y5.2743
X2.28 Y5.2702
X2.2712 Y5.2659
X2.2625 Y5.2612
X2.254 Y5.2562
X2.2457 Y5.251
X2.2376 Y5.2454
X2.2296 Y5.2395
X2.2219 Y5.2334
X2.2144 Y5.2269
X2.2072 Y5.2202
X2.2001 Y5.2133
X2.1934 Y5.2061
X2.1868 Y5.1986
X2.1806 Y5.1909
X2.1746 Y5.183
X2.169 Y5.1749
X2.1636 Y5.1666
X2.1585 Y5.1581
X2.1537 Y5.1494
X2.1492 Y5.1405
X2.1451 Y5.1315
X2.1413 Y5.1224
X2.1378 Y5.1131
X2.1346 Y5.1037
X2.1318 Y5.0941
X2.1293 Y5.0845
X2.1272 Y5.0748
X2.1254 Y5.065
X2.1239 Y5.0552
X2.1229 Y5.0453
X2.1221 Y5.0354
X2.1218 Y5.0254
Y5.0155
X2.1221 Y5.0056
X2.1228 Y4.9956
X2.1239 Y4.9857
X2.1253 Y4.9759
X2.127 Y4.9661
X2.1292 Y4.9564
X2.1316 Y4.9467
X2.1344 Y4.9372
X2.1376 Y4.9277
X2.141 Y4.9184
X2.1449 Y4.9092
X2.149 Y4.9001
X2.1535 Y4.8912
X2.1582 Y4.8825
X2.1633 Y4.8739
X2.1687 Y4.8656
X2.1744 Y4.8574
X2.1804 Y4.8494
X2.1867 Y4.8417
X2.1932 Y4.8342
X2.2 Y4.8269
X2.2071 Y4.8198
X2.2144 Y4.8131
X2.2219 Y4.8066
X2.2297 Y4.8003
X2.2377 Y4.7944
X2.2459 Y4.7887
X2.2543 Y4.7834
X2.2629 Y4.7783
X2.2716 Y4.7736
X2.2806 Y4.7691
X2.2896 Y4.765
X2.2989 Y4.7613
X2.3082 Y4.7578
X2.3177 Y4.7547
X2.3272 Y4.7519
X2.3369 Y4.7495
X2.3467 Y4.7474
X2.3565 Y4.7457
X2.3664 Y4.7443
X2.3763 Y4.7433
X2.3862 Y4.7427
X2.3962 Y4.7424
X2.4062
X2.4162 Y4.7428
X2.4262 Y4.7436
X2.4361 Y4.7447
X2.4461 Y4.7462
X2.4559 Y4.7481
X2.4657 Y4.7503
X2.4755 Y4.7528
X2.4852 Y4.7557
X2.4948 Y4.759
X2.5042 Y4.7626
X2.5136 Y4.7666
X2.5228 Y4.7709
X2.5319 Y4.7755
X2.5409 Y4.7805
X2.5496 Y4.7858
X2.5582 Y4.7914
X2.5667 Y4.7973
X2.5749 Y4.8036
X2.5829 Y4.8101
X2.5906 Y4.817
X2.5982 Y4.8241
X2.6055 Y4.8315
X2.6092 Y4.8356
X2.6099 Y4.8365
X2.6169 Y4.8446
X2.6183 Y4.8462
X2.6194 Y4.8476
X2.6279 Y4.8585
X2.6298 Y4.8612
X2.632 Y4.8644
X2.6341 Y4.8676
X2.6361 Y4.871
G3 X2.5935 Y4.897 I-0.0222 J0.0115
G1 X2.5807 Y4.879
G3 X2.6194 Y4.8476 I0.0203 J-0.0145
G1 X2.6253 Y4.8545
X2.6288 Y4.8586
X2.6314 Y4.8627
X2.6498 Y4.8953
X2.6545 Y4.9038
X2.6566 Y4.9078
X2.658 Y4.912
X2.6715 Y4.9531
X2.6738 Y4.9613
X2.6798 Y5.0107
X2.6801 Y5.0148
X2.6798 Y5.0189
X2.6767 Y5.06
X2.676 Y5.0682
X2.6744 Y5.0747
X2.6624 Y5.1176
X2.6612 Y5.1217
X2.6593 Y5.1258
X2.6384 Y5.1669
X2.6363 Y5.1709
X2.6331 Y5.1751
X2.6042 Y5.212
X2.6025 Y5.214
X2.6004 Y5.216
X2.5618 Y5.2491
X2.5593 Y5.2509
X2.5183 Y5.274
X2.5141 Y5.2763
X2.51 Y5.2781
X2.4689 Y5.2915
X2.4607 Y5.2941
X2.4525 Y5.2952
X2.4114 Y5.3002
X2.4073 Y5.3007
X2.4032
X2.3539 Y5.2969
X2.3498 Y5.2963
X2.3456 Y5.2952
X2.3046 Y5.2837
X2.2986 Y5.282
X2.2963 Y5.2811
X2.2552 Y5.2603
X2.2496 Y5.2573
X2.247 Y5.2556
X2.2074 Y5.2245
X2.2059 Y5.2232
X2.1997 Y5.2162
X2.1715 Y5.1833
X2.1699 Y5.1813
X2.1686 Y5.1792
X2.1477 Y5.1422
X2.1432 Y5.134
X2.1402 Y5.1255
X2.1268 Y5.0847
X2.1257 Y5.0806
X2.1251 Y5.0765
X2.1201 Y5.0353
X2.1192 Y5.0271
X2.1196 Y5.0189
X2.1228 Y4.9778
X2.1237 Y4.9699
X2.1353 Y4.9285
X2.1376 Y4.9202
X2.1402 Y4.9144
X2.1581 Y4.8791
X2.1623 Y4.8709
X2.1648 Y4.8671
X2.1941 Y4.8298
X2.1977 Y4.8256
X2.2059 Y4.8185
X2.2311 Y4.7969
X2.2388 Y4.7905
X2.2417 Y4.7887
X2.2799 Y4.7672
X2.2857 Y4.764
X2.2881 Y4.763
X2.3351 Y4.7476
X2.3374 Y4.7468
X2.3456 Y4.7455
X2.3867 Y4.7406
X2.395 Y4.7399
X2.4114 Y4.7411
X2.4443 Y4.7436
X2.4484 Y4.7441
X2.4525 Y4.7451
X2.4936 Y4.7566
X2.5018 Y4.7591
X2.5117 Y4.764
X2.5442 Y4.7805
X2.5511 Y4.7843
X2.5593 Y4.7906
X2.5922 Y4.8164
X2.5971 Y4.8216
X2.6099 Y4.8365
X2.6116 Y4.8389
X2.613 Y4.8415
X2.6138 Y4.8444 Z-0.2898
X2.6145 Y4.8472 Z-0.2893
X2.6153 Y4.85 Z-0.2884
X2.6154 Y4.8521 Z-0.2875
X2.6148 Y4.8553 Z-0.2855
X2.6143 Y4.8582 Z-0.2831
X2.6138 Y4.8607 Z-0.2803
X2.613 Y4.8624 Z-0.2776
X2.6124 Y4.8637 Z-0.2746
X2.6119 Y4.8646 Z-0.2715
X2.6116 Y4.8652 Z-0.2683
X2.6115 Y4.8654 Z-0.265
G0 Z0.2
X4.3328 Y3.4608
Z0.102
G3 X4.1047 Y3.5269 Z0.089 I-0.1141 J0.033 F20.
X4.3328 Y3.4608 Z0.0759 I0.1141 J-0.033
X4.1047 Y3.5269 Z0.0629 I-0.1141 J0.033
X4.3328 Y3.4608 Z0.0499 I0.1141 J-0.033
X4.1047 Y3.5269 Z0.0369 I-0.1141 J0.033
X4.3328 Y3.4608 Z0.0238 I0.1141 J-0.033
X4.1047 Y3.5269 Z0.0108 I-0.1141 J0.033
X4.3328 Y3.4608 Z-0.0022 I0.1141 J-0.033
X4.1047 Y3.5269 Z-0.0152 I-0.1141 J0.033
X4.3328 Y3.4608 Z-0.0283 I0.1141 J-0.033
X4.1047 Y3.5269 Z-0.0413 I-0.1141 J0.033
X4.3328 Y3.4608 Z-0.0543 I0.1141 J-0.033
X4.1047 Y3.5269 Z-0.0674 I-0.1141 J0.033
X4.3328 Y3.4608 Z-0.0804 I0.1141 J-0.033
X4.1047 Y3.5269 Z-0.0934 I-0.1141 J0.033
X4.3328 Y3.4608 Z-0.1064 I0.1141 J-0.033
X4.1047 Y3.5269 Z-0.1195 I-0.1141 J0.033
X4.3328 Y3.4608 Z-0.1325 I0.1141 J-0.033
X4.1047 Y3.5269 Z-0.1455 I-0.1141 J0.033
X4.3328 Y3.4608 Z-0.1586 I0.1141 J-0.033
X4.1047 Y3.5269 Z-0.1716 I-0.1141 J0.033
X4.3328 Y3.4608 Z-0.1846 I0.1141 J-0.033
X4.1047 Y3.5269 Z-0.1976 I-0.1141 J0.033
X4.3328 Y3.4608 Z-0.2107 I0.1141 J-0.033
X4.1047 Y3.5269 Z-0.2237 I-0.1141 J0.033
X4.3328 Y3.4608 Z-0.2367 I0.1141 J-0.033
X4.1047 Y3.5269 Z-0.2497 I-0.1141 J0.033
X4.3328 Y3.4608 Z-0.2628 I0.1141 J-0.033
X4.1047 Y3.5269 Z-0.2758 I-0.1141 J0.033
X4.2021 Y3.3763 Z-0.2829 I0.1141 J-0.033
X4.3375 Y3.4938 Z-0.29 I0.0167 J0.1176
X4.1 I-0.1188 J0.
X4.3375 I0.1188 J0.
G1 X4.3381 Y3.5297 F30.
X4.338 Y3.5357
X4.3373 Y3.5417
X4.336 Y3.5475
X4.3343 Y3.5533
X4.3322 Y3.5589
X4.3297 Y3.5644
X4.3268 Y3.5696
X4.3237 Y3.5748
X4.3203 Y3.5797
X4.3166 Y3.5844
X4.3127 Y3.589
X4.3085 Y3.5933
X4.3041 Y3.5974
X4.2995 Y3.6013
X4.2948 Y3.6049
X4.2898 Y3.6083
X4.2848 Y3.6115
X4.2795 Y3.6144
X4.2741 Y3.6171
X4.2687 Y3.6195
X4.2631 Y3.6217
X4.2574 Y3.6236
X4.2516 Y3.6252
X4.2458 Y3.6266
X4.2399 Y3.6277
X4.2339 Y3.6286
X4.228 Y3.6292
X4.222 Y3.6295
X4.216
X4.21 Y3.6293
X4.204 Y3.6288
X4.198 Y3.628
X4.1921 Y3.627
X4.1863 Y3.6257
X4.1805 Y3.6241
X4.1748 Y3.6223
X4.1691 Y3.6203
X4.1636 Y3.618
X4.1581 Y3.6154
X4.1528 Y3.6126
X4.1477 Y3.6096
X4.1426 Y3.6063
X4.1377 Y3.6029
X4.133 Y3.5992
X4.1284 Y3.5953
X4.124 Y3.5912
X4.1198 Y3.5869
X4.1158 Y3.5825
X4.112 Y3.5779
X4.1084 Y3.5731
X4.105 Y3.5681
X4.1018 Y3.563
X4.0989 Y3.5578
X4.0962 Y3.5524
X4.0937 Y3.547
X4.0915 Y3.5414
X4.0895 Y3.5357
X4.0878 Y3.53
X4.0863 Y3.5242
X4.0851 Y3.5183
X4.0841 Y3.5124
X4.0835 Y3.5064
X4.083 Y3.5004
X4.0829 Y3.4944
X4.083 Y3.4884
X4.0834 Y3.4824
X4.084 Y3.4765
X4.0849 Y3.4705
X4.0861 Y3.4646
X4.0875 Y3.4588
X4.0892 Y3.453
X4.0911 Y3.4474
X4.0933 Y3.4418
X4.0957 Y3.4363
X4.0983 Y3.4309
X4.1012 Y3.4256
X4.1044 Y3.4205
X4.1077 Y3.4155
X4.1113 Y3.4107
X4.115 Y3.4061
X4.119 Y3.4016
X4.1232 Y3.3973
X4.1276 Y3.3931
X4.1321 Y3.3892
X4.1368 Y3.3855
X4.1417 Y3.382
X4.1467 Y3.3787
X4.1518 Y3.3756
X4.1571 Y3.3728
X4.1625 Y3.3702
X4.168 Y3.3678
X4.1736 Y3.3657
X4.1793 Y3.3638
X4.1851 Y3.3622
X4.191 Y3.3608
X4.1969 Y3.3597
X4.2028 Y3.3589
X4.2088 Y3.3583
X4.2148 Y3.358
X4.2208
X4.2268 Y3.3582
X4.2328 Y3.3587
X4.2387 Y3.3594
X4.2446 Y3.3604
X4.2505 Y3.3617
X4.2563 Y3.3632
X4.262 Y3.365
X4.2677 Y3.3671
X4.2732 Y3.3693
X4.2786 Y3.3719
X4.284 Y3.3746
X4.2892 Y3.3776
X4.2942 Y3.3809
X4.2992 Y3.3843
X4.3039 Y3.3879
X4.3085 Y3.3918
X4.3129 Y3.3959
X4.3172 Y3.4001
X4.3212 Y3.4046
X4.325 Y3.4092
X4.3287 Y3.4139
X4.3321 Y3.4189
X4.3353 Y3.4239
X4.3383 Y3.4292
X4.341 Y3.4345
X4.3435 Y3.44
X4.3458 Y3.4455
X4.3478 Y3.4512
X4.3498 Y3.4576
X4.352 Y3.4657
X4.3541 Y3.4747
X4.3557 Y3.483
X4.3568 Y3.4899
X4.3576 Y3.496
X4.3581 Y3.502
X4.3584 Y3.508
X4.3585 Y3.514
X4.3583 Y3.52
X4.3579 Y3.526
X4.3572 Y3.532
X4.3562 Y3.5379
X4.3549 Y3.5437
X4.3534 Y3.5495
X4.3516 Y3.5553
X4.3495 Y3.5609
X4.3472 Y3.5664
X4.3446 Y3.5718
X4.3418 Y3.5771
X4.3387 Y3.5823
X4.3354 Y3.5873
X4.3318 Y3.5921
X4.3281 Y3.5968
X4.3241 Y3.6013
X4.32 Y3.6056
X4.3156 Y3.6098
X4.3111 Y3.6137
X4.3064 Y3.6175
X4.3016 Y3.621
X4.2966 Y3.6244
X4.2915 Y3.6275
X4.2862 Y3.6304
X4.2809 Y3.6331
X4.2754 Y3.6355
X4.2698 Y3.6378
X4.2642 Y3.6398
X4.2584 Y3.6415
X4.2526 Y3.6431
X4.2468 Y3.6444
X4.2409 Y3.6454
X4.2349 Y3.6462
X4.2289 Y3.6468
X4.2229 Y3.6471
X4.217 Y3.6472
X4.211 Y3.6471
X4.205 Y3.6467
X4.199 Y3.6461
X4.1931 Y3.6453
X4.1872 Y3.6442
X4.1813 Y3.6428
X4.1755 Y3.6413
X4.1698 Y3.6395
X4.1641 Y3.6375
X4.1586 Y3.6353
X4.1531 Y3.6328
X4.1477 Y3.6302
X4.1424 Y3.6273
X4.1373 Y3.6243
X4.1322 Y3.621
X4.1273 Y3.6175
X4.1226 Y3.6139
X4.118 Y3.61
X4.1135 Y3.606
X4.1092 Y3.6018
X4.1051 Y3.5975
X4.1011 Y3.593
X4.0973 Y3.5883
X4.0937 Y3.5835
X4.0903 Y3.5786
X4.0871 Y3.5735
X4.0841 Y3.5683
X4.0813 Y3.563
X4.0787 Y3.5576
X4.0763 Y3.5521
X4.0742 Y3.5465
X4.0722 Y3.5408
X4.0705 Y3.5351
X4.069 Y3.5292
X4.0677 Y3.5234
X4.0667 Y3.5175
X4.0659 Y3.5115
X4.0653 Y3.5056
X4.065 Y3.4996
X4.0649 Y3.4936
X4.065 Y3.4876
X4.0654 Y3.4816
X4.066 Y3.4756
X4.0668 Y3.4697
X4.0678 Y3.4638
X4.0691 Y3.4579
X4.0706 Y3.4521
X4.0724 Y3.4464
X4.0744 Y3.4407
X4.0765 Y3.4351
X4.0789 Y3.4296
X4.0815 Y3.4242
X4.0844 Y3.4189
X4.0874 Y3.4137
X4.0906 Y3.4086
X4.094 Y3.4037
X4.0976 Y3.3989
X4.1014 Y3.3943
X4.1054 Y3.3898
X4.1095 Y3.3854
X4.1139 Y3.3813
X4.1183 Y3.3773
X4.1229 Y3.3734
X4.1277 Y3.3698
X4.1326 Y3.3663
X4.1377 Y3.3631
X4.1428 Y3.36
X4.1481 Y3.3572
X4.1535 Y3.3545
X4.159 Y3.3521
X4.1645 Y3.3498
X4.1702 Y3.3478
X4.1759 Y3.346
X4.1817 Y3.3445
X4.1876 Y3.3432
X4.1935 Y3.3421
X4.1994 Y3.3412
X4.2054 Y3.3405
X4.2113 Y3.3401
X4.2173 Y3.34
X4.2233
X4.2293 Y3.3403
X4.2353 Y3.3409
X4.2413 Y3.3416
X4.2472 Y3.3426
X4.253 Y3.3438
X4.2589 Y3.3453
X4.2646 Y3.347
X4.2703 Y3.3489
X4.2759 Y3.351
X4.2815 Y3.3533
X4.2869 Y3.3559
X4.2922 Y3.3586
X4.2974 Y3.3616
X4.3025 Y3.3648
X4.3075 Y3.3681
X4.3123 Y3.3717
X4.317 Y3.3754
X4.3216 Y3.3793
X4.326 Y3.3834
X4.3302 Y3.3877
X4.3342 Y3.3921
X4.3381 Y3.3967
X4.3418 Y3.4014
X4.3453 Y3.4063
X4.3486 Y3.4113
X4.3518 Y3.4165
X4.3551 Y3.4222
X4.3582 Y3.4282
X4.3611 Y3.4345
X4.3639 Y3.4409
X4.3664 Y3.4474
X4.3687 Y3.4539
X4.3707 Y3.4604
X4.3724 Y3.4668
X4.3739 Y3.4732
X4.3751 Y3.4795
X4.376 Y3.4857
X4.3768 Y3.4919
X4.3773 Y3.498
X4.3776 Y3.504
Y3.51
X4.3775 Y3.516
X4.3771 Y3.522
X4.3765 Y3.5279
X4.3757 Y3.5339
X4.3746 Y3.5398
X4.3734 Y3.5456
X4.3719 Y3.5514
X4.3701 Y3.5572
X4.3682 Y3.5629
X4.366 Y3.5685
X4.3636 Y3.574
X4.361 Y3.5794
X4.3581 Y3.5847
X4.3551 Y3.5898
X4.3519 Y3.5949
X4.3485 Y3.5998
X4.3449 Y3.6046
X4.3411 Y3.6093
X4.3371 Y3.6138
X4.333 Y3.6181
X4.3286 Y3.6223
X4.3242 Y3.6263
X4.3196 Y3.6301
X4.3148 Y3.6338
X4.3099 Y3.6373
X4.3049 Y3.6406
X4.2998 Y3.6437
X4.2946 Y3.6466
X4.2892 Y3.6493
X4.2838 Y3.6518
X4.2782 Y3.6541
X4.2726 Y3.6562
X4.2669 Y3.6581
X4.2612 Y3.6598
X4.2553 Y3.6613
X4.2495 Y3.6626
X4.2436 Y3.6637
X4.2376 Y3.6645
X4.2317 Y3.6651
X4.2257 Y3.6656
X4.2196 Y3.6658
X4.2136 Y3.6657
X4.2075 Y3.6655
X4.2015 Y3.6651
X4.1954 Y3.6644
X4.1895 Y3.6635
X4.1835 Y3.6624
X4.1776 Y3.6611
X4.1717 Y3.6596
X4.1658 Y3.6579
X4.16 Y3.6559
X4.1543 Y3.6537
X4.1486 Y3.6514
X4.143 Y3.6488
X4.1376 Y3.646
X4.1322 Y3.6431
X4.127 Y3.6399
X4.1219 Y3.6366
X4.1168 Y3.6331
X4.1119 Y3.6294
X4.1072 Y3.6255
X4.1025 Y3.6214
X4.098 Y3.6172
X4.0937 Y3.6128
X4.0895 Y3.6082
X4.0854 Y3.6035
X4.0816 Y3.5987
X4.078 Y3.5938
X4.0745 Y3.5887
X4.0712 Y3.5835
X4.0681 Y3.5782
X4.0652 Y3.5727
X4.0624 Y3.5672
X4.0599 Y3.5615
X4.0576 Y3.5558
X4.0554 Y3.55
X4.0535 Y3.5441
X4.0518 Y3.5381
X4.0504 Y3.5321
X4.0491 Y3.5261
X4.048 Y3.52
X4.0472 Y3.5139
X4.0466 Y3.5078
X4.0462 Y3.5016
X4.0461 Y3.4954
Y3.4892
X4.0464 Y3.483
X4.0469 Y3.4768
X4.0476 Y3.4706
X4.0486 Y3.4645
X4.0497 Y3.4584
X4.0511 Y3.4524
X4.0527 Y3.4464
X4.0545 Y3.4405
X4.0565 Y3.4347
X4.0587 Y3.429
X4.0611 Y3.4233
X4.0638 Y3.4177
X4.0666 Y3.4121
X4.0696 Y3.4067
X4.0729 Y3.4014
X4.0763 Y3.3962
X4.0799 Y3.3912
X4.0836 Y3.3863
X4.0876 Y3.3815
X4.0917 Y3.3769
X4.0959 Y3.3724
X4.1003 Y3.3681
X4.1049 Y3.3639
X4.1097 Y3.3599
X4.1145 Y3.3561
X4.1196 Y3.3525
X4.1247 Y3.349
X4.13 Y3.3457
X4.1353 Y3.3426
X4.1408 Y3.3397
X4.1464 Y3.337
X4.152 Y3.3345
X4.1578 Y3.3322
X4.1636 Y3.3302
X4.1695 Y3.3283
X4.1754 Y3.3266
X4.1815 Y3.3252
X4.1876 Y3.324
X4.1937 Y3.323
X4.1998 Y3.3222
X4.206 Y3.3216
X4.2122 Y3.3212
X4.2184 Y3.3211
X4.2246 Y3.3212
X4.2307 Y3.3215
X4.2369 Y3.3221
X4.243 Y3.3228
X4.2491 Y3.3238
X4.2552 Y3.325
X4.2612 Y3.3264
X4.2672 Y3.3281
X4.2732 Y3.3299
X4.279 Y3.332
X4.2848 Y3.3342
X4.2905 Y3.3367
X4.296 Y3.3394
X4.3015 Y3.3422
X4.3069 Y3.3453
X4.3121 Y3.3485
X4.3173 Y3.352
X4.3223 Y3.3556
X4.3272 Y3.3594
X4.332 Y3.3634
X4.3366 Y3.3676
X4.3412 Y3.372
X4.3457 Y3.3767
X4.3501 Y3.3816
X4.3544 Y3.3868
X4.3586 Y3.3921
X4.3626 Y3.3977
X4.3664 Y3.4035
X4.3701 Y3.4095
X4.3736 Y3.4156
X4.3769 Y3.4219
X4.3799 Y3.4283
X4.3827 Y3.4348
X4.3853 Y3.4414
X4.3876 Y3.4481
X4.3897 Y3.4548
X4.3915 Y3.4615
X4.3931 Y3.4682
X4.3944 Y3.4748
X4.3954 Y3.4815
X4.3962 Y3.4882
X4.3968 Y3.4948
X4.3971 Y3.5014
X4.3972 Y3.508
X4.3971 Y3.5145
X4.3967 Y3.5209
X4.3961 Y3.5273
X4.3953 Y3.5337
X4.3942 Y3.54
X4.3929 Y3.5462
X4.3915 Y3.5524
X4.3897 Y3.5585
X4.3878 Y3.5645
X4.3857 Y3.5704
X4.3834 Y3.5762
X4.3809 Y3.5819
X4.3781 Y3.5875
X4.3752 Y3.5931
X4.3721 Y3.5985
X4.3687 Y3.6038
X4.3652 Y3.609
X4.3614 Y3.6141
X4.3575 Y3.6191
X4.3534 Y3.6239
X4.3491 Y3.6286
X4.3447 Y3.6332
X4.3401 Y3.6376
X4.3353 Y3.6418
X4.3303 Y3.6459
X4.3252 Y3.6498
X4.32 Y3.6535
X4.3146 Y3.657
X4.3091 Y3.6604
X4.3034 Y3.6635
X4.2976 Y3.6665
X4.2917 Y3.6692
X4.2857 Y3.6718
X4.2796 Y3.6741
X4.2734 Y3.6763
X4.2671 Y3.6782
X4.2607 Y3.6799
X4.2542 Y3.6813
X4.2477 Y3.6825
X4.2411 Y3.6835
X4.2345 Y3.6843
X4.2278 Y3.6848
X4.2212 Y3.6851
X4.2145 Y3.6852
X4.2078 Y3.685
X4.2011 Y3.6845
X4.1943 Y3.6838
X4.1877 Y3.6829
X4.181 Y3.6818
X4.1744 Y3.6804
X4.1678 Y3.6787
X4.1613 Y3.6769
X4.1548 Y3.6748
X4.1485 Y3.6724
X4.1422 Y3.6698
X4.136 Y3.6671
X4.1298 Y3.664
X4.1238 Y3.6608
X4.118 Y3.6573
X4.1122 Y3.6537
X4.1065 Y3.6498
X4.101 Y3.6457
X4.0957 Y3.6414
X4.0905 Y3.637
X4.0855 Y3.6323
X4.0806 Y3.6275
X4.0759 Y3.6225
X4.0714 Y3.6173
X4.0671 Y3.612
X4.063 Y3.6065
X4.059 Y3.6009
X4.0553 Y3.5951
X4.0518 Y3.5892
X4.0485 Y3.5832
X4.0454 Y3.577
X4.0425 Y3.5708
X4.0399 Y3.5644
X4.0374 Y3.558
X4.0353 Y3.5515
X4.0333 Y3.5449
X4.0316 Y3.5382
X4.0301 Y3.5315
X4.0289 Y3.5247
X4.0279 Y3.5179
X4.0272 Y3.511
X4.0267 Y3.5042
X4.0264 Y3.4973
Y3.4904
X4.0267 Y3.4835
X4.0272 Y3.4766
X4.0279 Y3.4698
X4.0289 Y3.463
X4.0301 Y3.4562
X4.0316 Y3.4494
X4.0333 Y3.4428
X4.0352 Y3.4362
X4.0374 Y3.4296
X4.0398 Y3.4231
X4.0425 Y3.4168
X4.0454 Y3.4105
X4.0485 Y3.4043
X4.0518 Y3.3983
X4.0553 Y3.3924
X4.059 Y3.3866
X4.063 Y3.381
X4.0671 Y3.3754
X4.0715 Y3.3701
X4.076 Y3.3649
X4.0807 Y3.3598
X4.0856 Y3.355
X4.0907 Y3.3503
X4.0959 Y3.3458
X4.1013 Y3.3415
X4.1068 Y3.3374
X4.1125 Y3.3335
X4.1183 Y3.3298
X4.1243 Y3.3263
X4.1303 Y3.323
X4.1365 Y3.3199
X4.1428 Y3.3171
X4.1492 Y3.3145
X4.1557 Y3.3121
X4.1622 Y3.31
X4.1689 Y3.308
X4.1755 Y3.3064
X4.1823 Y3.3049
X4.1891 Y3.3038
X4.1959 Y3.3028
X4.2028 Y3.3021
X4.2096 Y3.3017
X4.2165 Y3.3015
X4.2234
X4.2303 Y3.3018
X4.2372 Y3.3023
X4.2441 Y3.3031
X4.2509 Y3.3042
X4.2577 Y3.3054
X4.2644 Y3.3069
X4.2711 Y3.3087
X4.2777 Y3.3107
X4.2842 Y3.3129
X4.2906 Y3.3154
X4.297 Y3.3181
X4.3032 Y3.321
X4.3094 Y3.3241
X4.3154 Y3.3275
X4.3214 Y3.3311
X4.3273 Y3.335
X4.333 Y3.339
X4.3387 Y3.3433
X4.3442 Y3.3479
X4.3496 Y3.3527
X4.3549 Y3.3577
X4.3601 Y3.3629
X4.3651 Y3.3684
X4.3699 Y3.3741
X4.3745 Y3.38
X4.379 Y3.3861
X4.3832 Y3.3923
X4.3873 Y3.3988
X4.3911 Y3.4053
X4.3946 Y3.412
X4.398 Y3.4189
X4.401 Y3.4258
X4.4039 Y3.4328
X4.4064 Y3.4399
X4.4087 Y3.4471
X4.4107 Y3.4543
X4.4125 Y3.4615
X4.414 Y3.4688
X4.4152 Y3.4761
X4.4162 Y3.4834
X4.4168 Y3.4907
X4.4173 Y3.498
X4.4174 Y3.5053
X4.4173 Y3.5125
X4.417 Y3.5197
X4.4164 Y3.5269
X4.4155 Y3.534
X4.4144 Y3.541
X4.413 Y3.548
X4.4114 Y3.5549
X4.4096 Y3.5618
X4.4075 Y3.5685
X4.4052 Y3.5752
X4.4026 Y3.5818
X4.3998 Y3.5883
X4.3968 Y3.5946
X4.3935 Y3.6009
X4.3901 Y3.607
X4.3864 Y3.6131
X4.3824 Y3.6189
X4.3783 Y3.6247
X4.374 Y3.6303
X4.3695 Y3.6357
X4.3647 Y3.641
X4.3598 Y3.6461
X4.3547 Y3.6511
X4.3494 Y3.6559
X4.3439 Y3.6605
X4.3383 Y3.6649
X4.3324 Y3.669
X4.3265 Y3.673
X4.3204 Y3.6768
X4.3141 Y3.6804
X4.3077 Y3.6838
X4.3012 Y3.6869
X4.2945 Y3.6898
X4.2877 Y3.6924
X4.2809 Y3.6949
X4.2739 Y3.697
X4.2668 Y3.699
X4.2597 Y3.7007
X4.2525 Y3.7021
X4.2452 Y3.7032
X4.2379 Y3.7042
X4.2305 Y3.7048
X4.2231 Y3.7052
X4.2157 Y3.7053
X4.2083 Y3.7052
X4.2009 Y3.7048
X4.1935 Y3.7041
X4.1861 Y3.7031
X4.1787 Y3.7019
X4.1714 Y3.7004
X4.1641 Y3.6987
X4.1569 Y3.6967
X4.1497 Y3.6944
X4.1427 Y3.6919
X4.1357 Y3.6891
X4.1288 Y3.6861
X4.122 Y3.6828
X4.1154 Y3.6793
X4.1088 Y3.6756
X4.1024 Y3.6716
X4.0962 Y3.6673
X4.09 Y3.6629
X4.0841 Y3.6582
X4.0783 Y3.6533
X4.0727 Y3.6483
X4.0673 Y3.643
X4.062 Y3.6375
X4.057 Y3.6318
X4.0522 Y3.626
X4.0476 Y3.62
X4.0431 Y3.6138
X4.039 Y3.6074
X4.035 Y3.6009
X4.0313 Y3.5943
X4.0278 Y3.5876
X4.0246 Y3.5807
X4.0216 Y3.5737
X4.0189 Y3.5666
X4.0164 Y3.5594
X4.0142 Y3.5521
X4.0122 Y3.5448
X4.0105 Y3.5373
X4.0091 Y3.5299
X4.0079 Y3.5223
X4.007 Y3.5148
X4.0064 Y3.5072
X4.0061 Y3.4996
X4.006 Y3.4919
X4.0062 Y3.4843
X4.0067 Y3.4767
X4.0074 Y3.4691
X4.0084 Y3.4616
X4.0097 Y3.4541
X4.0113 Y3.4466
X4.0131 Y3.4392
X4.0152 Y3.4319
X4.0175 Y3.4246
X4.0201 Y3.4175
X4.023 Y3.4104
X4.0261 Y3.4034
X4.0295 Y3.3966
X4.0331 Y3.3899
X4.0369 Y3.3833
X4.041 Y3.3768
X4.0453 Y3.3705
X4.0498 Y3.3644
X4.0546 Y3.3584
X4.0595 Y3.3526
X4.0647 Y3.347
X4.0701 Y3.3416
X4.0756 Y3.3364
X4.0814 Y3.3313
X4.0873 Y3.3265
X4.0933 Y3.3219
X4.0996 Y3.3175
X4.106 Y3.3134
X4.1125 Y3.3094
X4.1192 Y3.3057
X4.126 Y3.3023
X4.1329 Y3.2991
X4.14 Y3.2961
X4.1471 Y3.2934
X4.1543 Y3.291
X4.1617 Y3.2888
X4.169 Y3.2869
X4.1765 Y3.2853
X4.184 Y3.2839
X4.1915 Y3.2828
X4.1991 Y3.2819
X4.2067 Y3.2814
X4.2144 Y3.2811
X4.222 Y3.281
X4.2296 Y3.2813
X4.2372 Y3.2818
X4.2448 Y3.2826
X4.2524 Y3.2837
X4.2599 Y3.285
X4.2673 Y3.2866
X4.2747 Y3.2885
X4.2821 Y3.2907
X4.2893 Y3.2931
X4.2965 Y3.2957
X4.3036 Y3.2987
X4.3106 Y3.3019
X4.3176 Y3.3053
X4.3244 Y3.309
X4.3311 Y3.313
X4.3377 Y3.3173
X4.3442 Y3.3218
X4.3505 Y3.3265
X4.3567 Y3.3315
X4.3628 Y3.3368
X4.3687 Y3.3422
X4.3744 Y3.348
X4.3799 Y3.3539
X4.3853 Y3.3601
X4.3904 Y3.3664
X4.3953 Y3.373
X4.4 Y3.3798
X4.4044 Y3.3867
X4.4086 Y3.3938
X4.4125 Y3.401
X4.4162 Y3.4084
X4.4196 Y3.4159
X4.4227 Y3.4235
X4.4256 Y3.4312
X4.4281 Y3.4389
X4.4304 Y3.4468
X4.4324 Y3.4547
X4.4341 Y3.4626
X4.4355 Y3.4706
X4.4366 Y3.4786
X4.4375 Y3.4866
X4.438 Y3.4946
X4.4383 Y3.5026
Y3.5106
X4.4379 Y3.5185
X4.4373 Y3.5264
X4.4365 Y3.5343
X4.4353 Y3.5421
X4.4339 Y3.5499
X4.4321 Y3.5576
X4.4302 Y3.5652
X4.4279 Y3.5727
X4.4254 Y3.5802
X4.4226 Y3.5875
X4.4196 Y3.5947
X4.4163 Y3.6018
X4.4127 Y3.6088
X4.4089 Y3.6157
X4.4049 Y3.6224
X4.4006 Y3.629
X4.3961 Y3.6354
X4.3913 Y3.6417
X4.3864 Y3.6477
X4.3812 Y3.6536
X4.3758 Y3.6594
X4.3701 Y3.6649
X4.3643 Y3.6702
X4.3583 Y3.6754
X4.3521 Y3.6803
X4.3457 Y3.685
X4.3392 Y3.6895
X4.3324 Y3.6937
X4.3256 Y3.6977
X4.3185 Y3.7015
X4.3113 Y3.705
X4.304 Y3.7083
X4.2966 Y3.7113
X4.2891 Y3.714
X4.2814 Y3.7165
X4.2736 Y3.7187
X4.2658 Y3.7206
X4.2579 Y3.7223
X4.2499 Y3.7236
X4.2419 Y3.7247
X4.2338 Y3.7255
X4.2256 Y3.726
X4.2175 Y3.7262
X4.2093 Y3.7261
X4.2012 Y3.7257
X4.193 Y3.725
X4.1849 Y3.7241
X4.1768 Y3.7228
X4.1687 Y3.7213
X4.1607 Y3.7194
X4.1527 Y3.7173
X4.1449 Y3.7149
X4.1371 Y3.7122
X4.1294 Y3.7092
X4.1218 Y3.706
X4.1143 Y3.7024
X4.1069 Y3.6986
X4.0997 Y3.6946
X4.0926 Y3.6902
X4.0857 Y3.6857
X4.079 Y3.6808
X4.0724 Y3.6758
X4.066 Y3.6705
X4.0598 Y3.6649
X4.0537 Y3.6592
X4.0479 Y3.6532
X4.0424 Y3.6471
X4.037 Y3.6407
X4.0318 Y3.6341
X4.0269 Y3.6274
X4.0223 Y3.6204
X4.0179 Y3.6134
X4.0137 Y3.6061
X4.0098 Y3.5987
X4.0062 Y3.5912
X4.0029 Y3.5835
X3.9998 Y3.5758
X3.997 Y3.5679
X3.9945 Y3.5599
X3.9922 Y3.5519
X3.9903 Y3.5437
X3.9887 Y3.5355
X3.9873 Y3.5273
X3.9863 Y3.519
X3.9855 Y3.5106
X3.985 Y3.5023
X3.9849 Y3.4939
X3.985 Y3.4855
X3.9855 Y3.4771
X3.9862 Y3.4688
X3.9873 Y3.4605
X3.9886 Y3.4522
X3.9902 Y3.444
X3.9922 Y3.4359
X3.9944 Y3.4278
X3.9969 Y3.4198
X3.9997 Y3.4119
X4.0028 Y3.4041
X4.0061 Y3.3964
X4.0097 Y3.3888
X4.0136 Y3.3814
X4.0178 Y3.3741
X4.0222 Y3.367
X4.0269 Y3.3601
X4.0318 Y3.3533
X4.037 Y3.3467
X4.0423 Y3.3402
X4.048 Y3.334
X4.0538 Y3.328
X4.0598 Y3.3222
X4.0661 Y3.3166
X4.0725 Y3.3112
X4.0792 Y3.3061
X4.086 Y3.3012
X4.093 Y3.2966
X4.1001 Y3.2922
X4.1074 Y3.2881
X4.1149 Y3.2842
X4.1225 Y3.2807
X4.1302 Y3.2773
X4.138 Y3.2743
X4.1459 Y3.2716
X4.1539 Y3.2691
X4.162 Y3.2669
X4.1702 Y3.265
X4.1784 Y3.2634
X4.1867 Y3.2621
X4.195 Y3.2611
X4.2034 Y3.2604
X4.2118 Y3.26
X4.2202 Y3.2599
X4.2285 Y3.2601
X4.2369 Y3.2606
X4.2453 Y3.2614
X4.2536 Y3.2625
X4.2619 Y3.2639
X4.2701 Y3.2656
X4.2783 Y3.2676
X4.2864 Y3.2699
X4.2945 Y3.2725
X4.3024 Y3.2754
X4.3103 Y3.2785
X4.3181 Y3.282
X4.3258 Y3.2857
X4.3334 Y3.2898
X4.3408 Y3.2941
X4.3482 Y3.2987
X4.3553 Y3.3036
X4.3624 Y3.3088
X4.3692 Y3.3142
X4.3759 Y3.3199
X4.3824 Y3.3258
X4.3887 Y3.332
X4.3948 Y3.3384
X4.4007 Y3.3451
X4.4063 Y3.352
X4.4117 Y3.3591
X4.4168 Y3.3664
X4.4217 Y3.3738
X4.4263 Y3.3815
X4.4307 Y3.3893
X4.4347 Y3.3972
X4.4385 Y3.4053
X4.442 Y3.4135
X4.4451 Y3.4219
X4.448 Y3.4303
X4.4506 Y3.4388
X4.4528 Y3.4474
X4.4547 Y3.456
X4.4564 Y3.4647
X4.4577 Y3.4734
X4.4587 Y3.4821
X4.4593 Y3.4909
X4.4597 Y3.4997
Y3.5084
X4.4595 Y3.5171
X4.4589 Y3.5258
X4.458 Y3.5345
X4.4568 Y3.5431
X4.4553 Y3.5516
X4.4535 Y3.5601
X4.4514 Y3.5685
X4.449 Y3.5768
X4.4463 Y3.5851
X4.4433 Y3.5932
X4.44 Y3.6011
X4.4365 Y3.609
X4.4326 Y3.6167
X4.4285 Y3.6243
X4.4241 Y3.6318
X4.4195 Y3.6391
X4.4146 Y3.6462
X4.4094 Y3.6531
X4.404 Y3.6598
X4.3984 Y3.6664
X4.3925 Y3.6727
X4.3864 Y3.6789
X4.38 Y3.6848
X4.3735 Y3.6905
X4.3667 Y3.696
X4.3597 Y3.7012
X4.3526 Y3.7062
X4.3452 Y3.7109
X4.3377 Y3.7154
X4.3301 Y3.7196
X4.3222 Y3.7235
X4.3142 Y3.7272
X4.3061 Y3.7305
X4.2979 Y3.7336
X4.2895 Y3.7364
X4.281 Y3.7389
X4.2725 Y3.7411
X4.2638 Y3.7429
X4.2551 Y3.7445
X4.2463 Y3.7458
X4.2375 Y3.7467
X4.2286 Y3.7473
X4.2197 Y3.7476
X4.2107
X4.2018 Y3.7473
X4.1929 Y3.7467
X4.184 Y3.7457
X4.1751 Y3.7444
X4.1663 Y3.7428
X4.1575 Y3.7408
X4.1488 Y3.7386
X4.1402 Y3.736
X4.1316 Y3.7332
X4.1232 Y3.73
X4.1148 Y3.7265
X4.1066 Y3.7227
X4.0986 Y3.7187
X4.0906 Y3.7143
X4.0829 Y3.7096
X4.0753 Y3.7047
X4.0678 Y3.6995
X4.0606 Y3.694
X4.0535 Y3.6883
X4.0467 Y3.6823
X4.0401 Y3.6761
X4.0337 Y3.6697
X4.0275 Y3.663
X4.0216 Y3.6561
X4.0159 Y3.6489
X4.0105 Y3.6416
X4.0053 Y3.6341
X4.0004 Y3.6264
X3.9958 Y3.6185
X3.9915 Y3.6105
X3.9875 Y3.6023
X3.9837 Y3.594
X3.9803 Y3.5855
X3.9771 Y3.5769
X3.9743 Y3.5683
X3.9718 Y3.5595
X3.9696 Y3.5506
X3.9677 Y3.5417
X3.9662 Y3.5327
X3.9649 Y3.5236
X3.964 Y3.5145
X3.9634 Y3.5054
X3.9632 Y3.4962
X3.9633 Y3.4871
X3.9637 Y3.4779
X3.9644 Y3.4688
X3.9654 Y3.4597
X3.9668 Y3.4507
X3.9685 Y3.4417
X3.9705 Y3.4327
X3.9729 Y3.4239
X3.9756 Y3.4151
X3.9785 Y3.4065
X3.9818 Y3.3979
X3.9854 Y3.3895
X3.9893 Y3.3812
X3.9935 Y3.373
X3.9979 Y3.365
X4.0027 Y3.3572
X4.0077 Y3.3496
X4.013 Y3.3421
X4.0186 Y3.3348
X4.0244 Y3.3277
X4.0305 Y3.3209
X4.0368 Y3.3142
X4.0434 Y3.3078
X4.0501 Y3.3017
X4.0571 Y3.2958
X4.0643 Y3.2901
X4.0717 Y3.2847
X4.0793 Y3.2796
X4.0871 Y3.2747
X4.095 Y3.2701
X4.1031 Y3.2658
X4.1114 Y3.2618
X4.1198 Y3.2581
X4.1283 Y3.2547
X4.1369 Y3.2516
X4.1456 Y3.2489
X4.1545 Y3.2464
X4.1634 Y3.2443
X4.1724 Y3.2424
X4.1814 Y3.2409
X4.1905 Y3.2397
X4.1996 Y3.2389
X4.2088 Y3.2384
X4.2179 Y3.2382
X4.2271 Y3.2383
X4.2363 Y3.2388
X4.2454 Y3.2396
X4.2546 Y3.2407
X4.2637 Y3.2421
X4.2727 Y3.2439
X4.2817 Y3.246
X4.2907 Y3.2485
X4.2995 Y3.2512
X4.3083 Y3.2543
X4.317 Y3.2577
X4.3255 Y3.2614
X4.334 Y3.2654
X4.3423 Y3.2698
X4.3505 Y3.2744
X4.3586 Y3.2794
X4.3665 Y3.2846
X4.3742 Y3.2902
X4.3817 Y3.296
X4.389 Y3.3022
X4.3961 Y3.3086
X4.403 Y3.3152
X4.4097 Y3.3221
X4.4161 Y3.3293
X4.4223 Y3.3367
X4.4282 Y3.3443
X4.4339 Y3.3522
X4.4392 Y3.3602
X4.4443 Y3.3684
X4.4491 Y3.3768
X4.4536 Y3.3854
X4.4577 Y3.3942
X4.4616 Y3.403
X4.4651 Y3.412
X4.4683 Y3.4211
X4.4711 Y3.4303
X4.4737 Y3.4396
X4.4759 Y3.449
X4.4777 Y3.4584
X4.4792 Y3.4679
X4.4804 Y3.4774
X4.4812 Y3.4869
X4.4817 Y3.4964
X4.4818 Y3.506
X4.4816 Y3.5155
X4.4811 Y3.525
X4.4802 Y3.5345
X4.479 Y3.5439
X4.4774 Y3.5532
X4.4755 Y3.5625
X4.4733 Y3.5717
X4.4708 Y3.5808
X4.4679 Y3.5898
X4.4647 Y3.5987
X4.4612 Y3.6075
X4.4574 Y3.6161
X4.4533 Y3.6246
X4.4489 Y3.633
X4.4441 Y3.6411
X4.4391 Y3.6492
X4.4338 Y3.657
X4.4283 Y3.6646
X4.4224 Y3.672
X4.4163 Y3.6793
X4.4099 Y3.6863
X4.4033 Y3.693
X4.3964 Y3.6996
X4.3893 Y3.7059
X4.382 Y3.7119
X4.3745 Y3.7177
X4.3667 Y3.7232
X4.3587 Y3.7284
X4.3506 Y3.7334
X4.3423 Y3.738
X4.3337 Y3.7424
X4.3251 Y3.7465
X4.3163 Y3.7502
X4.3073 Y3.7536
X4.2982 Y3.7568
X4.289 Y3.7596
X4.2797 Y3.762
X4.2703 Y3.7642
X4.2608 Y3.7659
X4.2513 Y3.7674
X4.2416 Y3.7685
X4.232 Y3.7693
X4.2223 Y3.7697
X4.2126 Y3.7698
X4.2029 Y3.7695
X4.1931 Y3.7689
X4.1835 Y3.7679
X4.1738 Y3.7666
X4.1642 Y3.7649
X4.1546 Y3.7629
X4.1451 Y3.7606
X4.1357 Y3.7579
X4.1264 Y3.7549
X4.1172 Y3.7515
X4.1081 Y3.7478
X4.0991 Y3.7438
X4.0903 Y3.7394
X4.0816 Y3.7347
X4.0731 Y3.7298
X4.0648 Y3.7245
X4.0567 Y3.7189
X4.0488 Y3.713
X4.041 Y3.7069
X4.0336 Y3.7004
X4.0263 Y3.6937
X4.0193 Y3.6868
X4.0125 Y3.6796
X4.006 Y3.6721
X3.9997 Y3.6644
X3.9938 Y3.6565
X3.9881 Y3.6484
X3.9827 Y3.6401
X3.9776 Y3.6316
X3.9728 Y3.6229
X3.9684 Y3.6141
X3.9642 Y3.605
X3.9604 Y3.5959
X3.9569 Y3.5866
X3.9537 Y3.5772
X3.9509 Y3.5676
X3.9484 Y3.558
X3.9463 Y3.5483
X3.9445 Y3.5385
X3.9431 Y3.5287
X3.942 Y3.5188
X3.9413 Y3.5089
X3.9409 Y3.499
Y3.489
X3.9412 Y3.4791
X3.9419 Y3.4691
X3.943 Y3.4592
X3.9444 Y3.4494
X3.9462 Y3.4396
X3.9483 Y3.4299
X3.9507 Y3.4202
X3.9536 Y3.4107
X3.9567 Y3.4012
X3.9602 Y3.3919
X3.964 Y3.3827
X3.9681 Y3.3736
X3.9726 Y3.3647
X3.9774 Y3.356
X3.9825 Y3.3474
X3.9879 Y3.3391
X3.9936 Y3.3309
X3.9995 Y3.3229
X4.0058 Y3.3152
X4.0123 Y3.3077
X4.0191 Y3.3004
X4.0262 Y3.2934
X4.0335 Y3.2866
X4.0411 Y3.2801
X4.0488 Y3.2739
X4.0568 Y3.2679
X4.065 Y3.2622
X4.0734 Y3.2569
X4.082 Y3.2518
X4.0908 Y3.2471
X4.0997 Y3.2427
X4.1088 Y3.2385
X4.118 Y3.2348
X4.1273 Y3.2313
X4.1368 Y3.2282
X4.1464 Y3.2254
X4.1561 Y3.223
X4.1658 Y3.221
X4.1756 Y3.2192
X4.1855 Y3.2179
X4.1954 Y3.2168
X4.2054 Y3.2162
X4.2154 Y3.2159
X4.2253
X4.2353 Y3.2163
X4.2453 Y3.2171
X4.2553 Y3.2182
X4.2652 Y3.2197
X4.2751 Y3.2216
X4.2849 Y3.2238
X4.2946 Y3.2263
X4.3043 Y3.2292
X4.3139 Y3.2325
X4.3234 Y3.2361
X4.3327 Y3.2401
X4.342 Y3.2444
X4.3511 Y3.249
X4.36 Y3.254
X4.3688 Y3.2593
X4.3774 Y3.2649
X4.3858 Y3.2709
X4.394 Y3.2771
X4.402 Y3.2837
X4.4098 Y3.2905
X4.4173 Y3.2977
X4.4246 Y3.3051
X4.4279 Y3.3087
X4.4286 Y3.3095
X4.4333 Y3.315
X4.4349 Y3.3169
X4.4369 Y3.3192
X4.4473 Y3.3326
X4.4495 Y3.3356
X4.4517 Y3.3388
X4.4537 Y3.3421
X4.4557 Y3.3454
G3 X4.4132 Y3.3715 I-0.0222 J0.0115
G1 X4.3983 Y3.3508
G3 X4.4369 Y3.3192 I0.0203 J-0.0146
G1 X4.442 Y3.3251
X4.4488 Y3.3334
X4.4498 Y3.3349
X4.4674 Y3.3662
X4.4744 Y3.3786
X4.4763 Y3.3827
X4.4909 Y3.4273
X4.4924 Y3.432
X4.4936 Y3.4402
X4.4991 Y3.4854
X4.4992 Y3.4896
X4.4954 Y3.5389
X4.495 Y3.543
X4.4939 Y3.5471
X4.4824 Y3.5882
X4.4798 Y3.5965
X4.4744 Y3.6073
X4.458 Y3.6397
X4.4545 Y3.6458
X4.4415 Y3.6624
X4.4251 Y3.6834
X4.4223 Y3.6869
X4.4169 Y3.6919
X4.384 Y3.7201
X4.3799 Y3.7235
X4.3758 Y3.726
X4.3347 Y3.7491
X4.3306 Y3.7511
X4.3258 Y3.7527
X4.2813 Y3.7673
X4.2772 Y3.7681
X4.2278 Y3.7741
X4.2237 Y3.7743
X4.2196 Y3.774
X4.1785 Y3.7709
X4.1703 Y3.7702
X4.1661 Y3.7691
X4.121 Y3.7565
X4.1169 Y3.7552
X4.1128 Y3.7532
X4.0717 Y3.7324
X4.0682 Y3.7305
X4.0648 Y3.728
X4.0306 Y3.7012
X4.0235 Y3.6951
X3.9952 Y3.6622
X3.9895 Y3.6554
X3.9885 Y3.654
X3.9838 Y3.6458
X3.9648 Y3.6121
X3.9628 Y3.6084
X3.9612 Y3.6047
X3.9477 Y3.5636
X3.9451 Y3.5554
X3.9439 Y3.5471
X3.9384 Y3.5019
Y3.4978
X3.9421 Y3.4485
X3.9427 Y3.4444
X3.9438 Y3.4402
X3.9566 Y3.3943
X3.9579 Y3.3909
X3.9648 Y3.3771
X3.9813 Y3.3447
X3.9833 Y3.3416
X4.0141 Y3.3022
X4.0156 Y3.3005
X4.0224 Y3.2944
X4.0552 Y3.2662
X4.0593 Y3.2631
X4.0963 Y3.2423
X4.1045 Y3.2377
X4.1128 Y3.2347
X4.1539 Y3.2212
X4.158 Y3.22
X4.1621 Y3.2194
X4.2032 Y3.2144
X4.2114 Y3.2135
X4.2196 Y3.2138
X4.2607 Y3.217
X4.2689 Y3.2179
X4.2703 Y3.2182
X4.3182 Y3.2317
X4.3217 Y3.233
X4.3265 Y3.2353
X4.3676 Y3.2562
X4.37 Y3.2576
X4.3723 Y3.2594
X4.4087 Y3.2879
X4.4137 Y3.2922
X4.4208 Y3.3005
X4.4286 Y3.3095
G3 X4.4302 Y3.3385 I-0.0195 J0.0156
G1 X4.4281 Y3.3418 Z-0.2897
X4.4261 Y3.345 Z-0.2888
X4.4242 Y3.3481 Z-0.2873
X4.4224 Y3.3509 Z-0.2852
X4.4208 Y3.3534 Z-0.2827
X4.4194 Y3.3556 Z-0.2797
X4.4183 Y3.3573 Z-0.2763
X4.4175 Y3.3586 Z-0.2727
X4.417 Y3.3593 Z-0.2689
X4.4169 Y3.3596 Z-0.265
G0 Z0.6
g0 x0 y0

M9
M30
