(X4 GEARBOX HOLES RUN3.0)
(T3  D=0.118 CR=0. - ZMIN=-0.29 - FLAT END MILL)
G90 G94 G91.1 G40 G49 G17
G20

(2D POCKET3)
M5
T3 M6
S15000 M3
g4 p5
G54
M8
G0 X3.9275 Y4.9922
G43 Z0.6 H3
Z0.2
G1 Z0.1118 F40.
X3.926 Y4.9926 Z0.106 F20.
X3.922 Y4.9933 Z0.1017
X3.9163 Y4.9939 Z0.1
G3 X3.9109 Y4.8819 Z0.0939 I-0.0027 J-0.056
X3.9163 Y4.9939 Z0.0877 I0.0027 J0.056
X3.9109 Y4.8819 Z0.0816 I-0.0027 J-0.056
X3.9163 Y4.9939 Z0.0754 I0.0027 J0.056
X3.9109 Y4.8819 Z0.0693 I-0.0027 J-0.056
X3.9163 Y4.9939 Z0.0631 I0.0027 J0.056
X3.9109 Y4.8819 Z0.057 I-0.0027 J-0.056
X3.9163 Y4.9939 Z0.0508 I0.0027 J0.056
X3.9109 Y4.8819 Z0.0447 I-0.0027 J-0.056
X3.9163 Y4.9939 Z0.0385 I0.0027 J0.056
X3.9109 Y4.8819 Z0.0324 I-0.0027 J-0.056
X3.9163 Y4.9939 Z0.0262 I0.0027 J0.056
X3.9109 Y4.8819 Z0.0201 I-0.0027 J-0.056
X3.9163 Y4.9939 Z0.0139 I0.0027 J0.056
X3.9109 Y4.8819 Z0.0078 I-0.0027 J-0.056
X3.9163 Y4.9939 Z0.0016 I0.0027 J0.056
X3.9109 Y4.8819 Z-0.0045 I-0.0027 J-0.056
X3.9163 Y4.9939 Z-0.0107 I0.0027 J0.056
X3.9109 Y4.8819 Z-0.0168 I-0.0027 J-0.056
X3.9696 Y4.9379 Z-0.02 I0.0027 J0.056
X3.9342 I-0.0177 J0.
X3.9697 I0.0178 J0. F40.
X3.8221 I-0.0738 J0.
X3.9697 I0.0738 J0.
G1 X3.9695 Y4.9398
X3.9688 Y4.9415
X3.9678 Y4.9431
X3.9664 Y4.9444
X3.9648 Y4.9453
X3.883 Y4.9795
X3.8812 Y4.98
X3.8793 Y4.9801
X3.8775 Y4.9798
X3.8758 Y4.979
X3.8743 Y4.9779
G3 X3.9529 Y4.898 Z-0.0261 I0.0393 J-0.0399 F20.
X3.8743 Y4.9779 Z-0.0323 I-0.0393 J0.0399
X3.9529 Y4.898 Z-0.0384 I0.0393 J-0.0399
X3.9696 Y4.9379 Z-0.04 I-0.0393 J0.0399
X3.9342 I-0.0177 J0.
X3.9697 I0.0178 J0. F40.
X3.8221 I-0.0738 J0.
X3.9697 I0.0738 J0.
G1 X3.9695 Y4.9398
X3.9688 Y4.9415
X3.9678 Y4.9431
X3.9664 Y4.9444
X3.9648 Y4.9453
X3.883 Y4.9795
X3.8812 Y4.98
X3.8793 Y4.9801
X3.8775 Y4.9798
X3.8758 Y4.979
X3.8743 Y4.9779
G3 X3.9529 Y4.898 Z-0.0461 I0.0393 J-0.0399 F20.
X3.8743 Y4.9779 Z-0.0523 I-0.0393 J0.0399
X3.9529 Y4.898 Z-0.0584 I0.0393 J-0.0399
X3.9696 Y4.9379 Z-0.06 I-0.0393 J0.0399
X3.9342 I-0.0177 J0.
X3.9697 I0.0178 J0. F40.
X3.8221 I-0.0738 J0.
X3.9697 I0.0738 J0.
G1 X3.9695 Y4.9398
X3.9688 Y4.9415
X3.9678 Y4.9431
X3.9664 Y4.9444
X3.9648 Y4.9453
X3.883 Y4.9795
X3.8812 Y4.98
X3.8793 Y4.9801
X3.8775 Y4.9798
X3.8758 Y4.979
X3.8743 Y4.9779
G3 X3.9529 Y4.898 Z-0.0661 I0.0393 J-0.0399 F20.
X3.8743 Y4.9779 Z-0.0723 I-0.0393 J0.0399
X3.9529 Y4.898 Z-0.0784 I0.0393 J-0.0399
X3.9696 Y4.9379 Z-0.08 I-0.0393 J0.0399
X3.9342 I-0.0177 J0.
X3.9697 I0.0178 J0. F40.
X3.8221 I-0.0738 J0.
X3.9697 I0.0738 J0.
G1 X3.9695 Y4.9398
X3.9688 Y4.9415
X3.9678 Y4.9431
X3.9664 Y4.9444
X3.9648 Y4.9453
X3.883 Y4.9795
X3.8812 Y4.98
X3.8793 Y4.9801
X3.8775 Y4.9798
X3.8758 Y4.979
X3.8743 Y4.9779
G3 X3.9529 Y4.898 Z-0.0861 I0.0393 J-0.0399 F20.
X3.8743 Y4.9779 Z-0.0923 I-0.0393 J0.0399
X3.9529 Y4.898 Z-0.0984 I0.0393 J-0.0399
X3.9696 Y4.9379 Z-0.1 I-0.0393 J0.0399
X3.9342 I-0.0177 J0.
X3.9697 I0.0178 J0. F40.
X3.8221 I-0.0738 J0.
X3.9697 I0.0738 J0.
G1 X3.9695 Y4.9398
X3.9688 Y4.9415
X3.9678 Y4.9431
X3.9664 Y4.9444
X3.9648 Y4.9453
X3.883 Y4.9795
X3.8812 Y4.98
X3.8793 Y4.9801
X3.8775 Y4.9798
X3.8758 Y4.979
X3.8743 Y4.9779
G3 X3.9529 Y4.898 Z-0.1061 I0.0393 J-0.0399 F20.
X3.8743 Y4.9779 Z-0.1123 I-0.0393 J0.0399
X3.9529 Y4.898 Z-0.1184 I0.0393 J-0.0399
X3.9696 Y4.9379 Z-0.12 I-0.0393 J0.0399
X3.9342 I-0.0177 J0.
X3.9697 I0.0178 J0. F40.
X3.8221 I-0.0738 J0.
X3.9697 I0.0738 J0.
G1 X3.9695 Y4.9398
X3.9688 Y4.9415
X3.9678 Y4.9431
X3.9664 Y4.9444
X3.9648 Y4.9453
X3.883 Y4.9795
X3.8812 Y4.98
X3.8793 Y4.9801
X3.8775 Y4.9798
X3.8758 Y4.979
X3.8743 Y4.9779
G3 X3.9529 Y4.898 Z-0.1261 I0.0393 J-0.0399 F20.
X3.8743 Y4.9779 Z-0.1323 I-0.0393 J0.0399
X3.9529 Y4.898 Z-0.1384 I0.0393 J-0.0399
X3.9696 Y4.9379 Z-0.14 I-0.0393 J0.0399
X3.9342 I-0.0177 J0.
X3.9697 I0.0178 J0. F40.
X3.8221 I-0.0738 J0.
X3.9697 I0.0738 J0.
G1 X3.9695 Y4.9398
X3.9688 Y4.9415
X3.9678 Y4.9431
X3.9664 Y4.9444
X3.9648 Y4.9453
X3.883 Y4.9795
X3.8812 Y4.98
X3.8793 Y4.9801
X3.8775 Y4.9798
X3.8758 Y4.979
X3.8743 Y4.9779
G3 X3.9529 Y4.898 Z-0.1461 I0.0393 J-0.0399 F20.
X3.8743 Y4.9779 Z-0.1523 I-0.0393 J0.0399
X3.9529 Y4.898 Z-0.1584 I0.0393 J-0.0399
X3.9696 Y4.9379 Z-0.16 I-0.0393 J0.0399
X3.9342 I-0.0177 J0.
X3.9697 I0.0178 J0. F40.
X3.8221 I-0.0738 J0.
X3.9697 I0.0738 J0.
G1 X3.9695 Y4.9398
X3.9688 Y4.9415
X3.9678 Y4.9431
X3.9664 Y4.9444
X3.9648 Y4.9453
X3.883 Y4.9795
X3.8812 Y4.98
X3.8793 Y4.9801
X3.8775 Y4.9798
X3.8758 Y4.979
X3.8743 Y4.9779
G3 X3.9529 Y4.898 Z-0.1661 I0.0393 J-0.0399 F20.
X3.8743 Y4.9779 Z-0.1723 I-0.0393 J0.0399
X3.9529 Y4.898 Z-0.1784 I0.0393 J-0.0399
X3.9696 Y4.9379 Z-0.18 I-0.0393 J0.0399
X3.9342 I-0.0177 J0.
X3.9697 I0.0178 J0. F40.
X3.8221 I-0.0738 J0.
X3.9697 I0.0738 J0.
G1 X3.9695 Y4.9398
X3.9688 Y4.9415
X3.9678 Y4.9431
X3.9664 Y4.9444
X3.9648 Y4.9453
X3.883 Y4.9795
X3.8812 Y4.98
X3.8793 Y4.9801
X3.8775 Y4.9798
X3.8758 Y4.979
X3.8743 Y4.9779
G3 X3.9529 Y4.898 Z-0.1861 I0.0393 J-0.0399 F20.
X3.8743 Y4.9779 Z-0.1923 I-0.0393 J0.0399
X3.9529 Y4.898 Z-0.1984 I0.0393 J-0.0399
X3.9696 Y4.9379 Z-0.2 I-0.0393 J0.0399
X3.9342 I-0.0177 J0.
X3.9697 I0.0178 J0. F40.
X3.8221 I-0.0738 J0.
X3.9697 I0.0738 J0.
G1 X3.9695 Y4.9398
X3.9688 Y4.9415
X3.9678 Y4.9431
X3.9664 Y4.9444
X3.9648 Y4.9453
X3.883 Y4.9795
X3.8812 Y4.98
X3.8793 Y4.9801
X3.8775 Y4.9798
X3.8758 Y4.979
X3.8743 Y4.9779
G3 X3.9529 Y4.898 Z-0.2061 I0.0393 J-0.0399 F20.
X3.8743 Y4.9779 Z-0.2123 I-0.0393 J0.0399
X3.9529 Y4.898 Z-0.2184 I0.0393 J-0.0399
X3.9696 Y4.9379 Z-0.22 I-0.0393 J0.0399
X3.9342 I-0.0177 J0.
X3.9697 I0.0178 J0. F40.
X3.8221 I-0.0738 J0.
X3.9697 I0.0738 J0.
G1 X3.9695 Y4.9398
X3.9688 Y4.9415
X3.9678 Y4.9431
X3.9664 Y4.9444
X3.9648 Y4.9453
X3.883 Y4.9795
X3.8812 Y4.98
X3.8793 Y4.9801
X3.8775 Y4.9798
X3.8758 Y4.979
X3.8743 Y4.9779
G3 X3.9529 Y4.898 Z-0.2261 I0.0393 J-0.0399 F20.
X3.8743 Y4.9779 Z-0.2323 I-0.0393 J0.0399
X3.9529 Y4.898 Z-0.2384 I0.0393 J-0.0399
X3.9696 Y4.9379 Z-0.24 I-0.0393 J0.0399
X3.9342 I-0.0177 J0.
X3.9697 I0.0178 J0. F40.
X3.8221 I-0.0738 J0.
X3.9697 I0.0738 J0.
G1 X3.9695 Y4.9398
X3.9688 Y4.9415
X3.9678 Y4.9431
X3.9664 Y4.9444
X3.9648 Y4.9453
X3.883 Y4.9795
X3.8812 Y4.98
X3.8793 Y4.9801
X3.8775 Y4.9798
X3.8758 Y4.979
X3.8743 Y4.9779
G3 X3.9529 Y4.898 Z-0.2461 I0.0393 J-0.0399 F20.
X3.8743 Y4.9779 Z-0.2523 I-0.0393 J0.0399
X3.9529 Y4.898 Z-0.2584 I0.0393 J-0.0399
X3.9696 Y4.9379 Z-0.26 I-0.0393 J0.0399
X3.9342 I-0.0177 J0.
X3.9697 I0.0178 J0. F40.
X3.8221 I-0.0738 J0.
X3.9697 I0.0738 J0.
G1 X3.9695 Y4.9398
X3.9688 Y4.9415
X3.9678 Y4.9431
X3.9664 Y4.9444
X3.9648 Y4.9453
X3.883 Y4.9795
X3.8812 Y4.98
X3.8793 Y4.9801
X3.8775 Y4.9798
X3.8758 Y4.979
X3.8743 Y4.9779
G3 X3.9529 Y4.898 Z-0.2661 I0.0393 J-0.0399 F20.
X3.8743 Y4.9779 Z-0.2723 I-0.0393 J0.0399
X3.9529 Y4.898 Z-0.2784 I0.0393 J-0.0399
X3.9696 Y4.9379 Z-0.28 I-0.0393 J0.0399
X3.9342 I-0.0177 J0.
X3.9697 I0.0178 J0. F40.
X3.8221 I-0.0738 J0.
X3.9697 I0.0738 J0.
G1 X3.9696 Y4.9395
X3.9691 Y4.941
X3.9684 Y4.9423
X3.9388 Y4.9867
X3.9378 Y4.9879
X3.9366 Y4.9889
X3.9353 Y4.9896
G3 X3.8919 Y4.8862 Z-0.2861 I-0.0217 J-0.0517 F20.
X3.9696 Y4.9379 Z-0.29 I0.0217 J0.0517
X3.9342 I-0.0177 J0.
X3.9697 I0.0178 J0. F40.
X3.8221 I-0.0738 J0.
X3.9697 I0.0738 J0.
G1 X3.9695 Y4.9401 Z-0.2896
X3.9689 Y4.9423 Z-0.2891
X3.968 Y4.944 Z-0.2878
X3.9669 Y4.9456 Z-0.2865
X3.965 Y4.9473 Z-0.2827
X3.9643 Y4.9478 Z-0.2782
G0 Z0.2
X4.4302 Y2.4992
G1 Z0.1118 F40.
X4.4305 Y2.5007 Z0.106 F20.
X4.4312 Y2.5048 Z0.1017
X4.4314 Y2.5077 Z0.1009
Y2.5105 Z0.1
G3 X4.3534 Y2.5075 Z0.0957 I-0.039 J-0.0015
X4.4314 Y2.5105 Z0.0914 I0.039 J0.0015
X4.3534 Y2.5075 Z0.0872 I-0.039 J-0.0015
X4.4314 Y2.5105 Z0.0829 I0.039 J0.0015
X4.3534 Y2.5075 Z0.0786 I-0.039 J-0.0015
X4.4314 Y2.5105 Z0.0743 I0.039 J0.0015
X4.3534 Y2.5075 Z0.07 I-0.039 J-0.0015
X4.4314 Y2.5105 Z0.0658 I0.039 J0.0015
X4.3534 Y2.5075 Z0.0615 I-0.039 J-0.0015
X4.4314 Y2.5105 Z0.0572 I0.039 J0.0015
X4.3534 Y2.5075 Z0.0529 I-0.039 J-0.0015
X4.4314 Y2.5105 Z0.0487 I0.039 J0.0015
X4.3534 Y2.5075 Z0.0444 I-0.039 J-0.0015
X4.4314 Y2.5105 Z0.0401 I0.039 J0.0015
X4.3534 Y2.5075 Z0.0358 I-0.039 J-0.0015
X4.4314 Y2.5105 Z0.0315 I0.039 J0.0015
X4.3534 Y2.5075 Z0.0273 I-0.039 J-0.0015
X4.4314 Y2.5105 Z0.023 I0.039 J0.0015
X4.3534 Y2.5075 Z0.0187 I-0.039 J-0.0015
X4.4314 Y2.5105 Z0.0144 I0.039 J0.0015
X4.3534 Y2.5075 Z0.0101 I-0.039 J-0.0015
X4.4314 Y2.5105 Z0.0059 I0.039 J0.0015
X4.3534 Y2.5075 Z0.0016 I-0.039 J-0.0015
X4.4314 Y2.5105 Z-0.0027 I0.039 J0.0015
X4.3534 Y2.5075 Z-0.007 I-0.039 J-0.0015
X4.4314 Y2.5105 Z-0.0113 I0.039 J0.0015
X4.3534 Y2.5075 Z-0.0155 I-0.039 J-0.0015
X4.3966 Y2.4702 Z-0.0178 I0.039 J0.0015
X4.4308 Y2.5158 Z-0.02 I-0.0041 J0.0388
X4.354 Y2.5022 I-0.0384 J-0.0068 F40.
X4.4308 Y2.5158 I0.0384 J0.0068
X4.354 Y2.5022 Z-0.0243 I-0.0384 J-0.0068 F20.
X4.4308 Y2.5158 Z-0.0286 I0.0384 J0.0068
X4.354 Y2.5022 Z-0.0328 I-0.0384 J-0.0068
X4.4308 Y2.5158 Z-0.0371 I0.0384 J0.0068
X4.3667 Y2.5383 Z-0.04 I-0.0384 J-0.0068
X4.4182 Y2.4797 I0.0258 J-0.0293 F40.
X4.3667 Y2.5383 I-0.0258 J0.0293
X4.4182 Y2.4797 Z-0.0443 I0.0258 J-0.0293 F20.
X4.3667 Y2.5383 Z-0.0486 I-0.0258 J0.0293
X4.4182 Y2.4797 Z-0.0528 I0.0258 J-0.0293
X4.3667 Y2.5383 Z-0.0571 I-0.0258 J0.0293
X4.3808 Y2.4718 Z-0.06 I0.0258 J-0.0293
X4.4041 Y2.5463 I0.0117 J0.0372 F40.
X4.3808 Y2.4718 I-0.0117 J-0.0372
X4.4041 Y2.5463 Z-0.0643 I0.0117 J0.0372 F20.
X4.3808 Y2.4718 Z-0.0686 I-0.0117 J-0.0372
X4.4041 Y2.5463 Z-0.0728 I0.0117 J0.0372
X4.3808 Y2.4718 Z-0.0771 I-0.0117 J-0.0372
X4.4303 Y2.5184 Z-0.08 I0.0117 J0.0372
X4.3546 Y2.4996 I-0.0379 J-0.0094 F40.
X4.4303 Y2.5184 I0.0379 J0.0094
X4.3546 Y2.4996 Z-0.0843 I-0.0379 J-0.0094 F20.
X4.4303 Y2.5184 Z-0.0886 I0.0379 J0.0094
X4.3546 Y2.4996 Z-0.0928 I-0.0379 J-0.0094
X4.4303 Y2.5184 Z-0.0971 I0.0379 J0.0094
X4.3647 Y2.5365 Z-0.1 I-0.0379 J-0.0094
X4.4201 Y2.4816 I0.0277 J-0.0275 F40.
X4.3647 Y2.5365 I-0.0277 J0.0275
X4.4201 Y2.4816 Z-0.1043 I0.0277 J-0.0275 F20.
X4.3647 Y2.5365 Z-0.1086 I-0.0277 J0.0275
X4.4201 Y2.4816 Z-0.1128 I0.0277 J-0.0275
X4.3647 Y2.5365 Z-0.1171 I-0.0277 J0.0275
X4.3833 Y2.4711 Z-0.12 I0.0277 J-0.0275
X4.4015 Y2.547 I0.0091 J0.0379 F40.
X4.3833 Y2.4711 I-0.0091 J-0.0379
X4.4015 Y2.547 Z-0.1243 I0.0091 J0.0379 F20.
X4.3833 Y2.4711 Z-0.1286 I-0.0091 J-0.0379
X4.4015 Y2.547 Z-0.1328 I0.0091 J0.0379
X4.3833 Y2.4711 Z-0.1371 I-0.0091 J-0.0379
X4.4296 Y2.521 Z-0.14 I0.0091 J0.0379
X4.3553 Y2.4971 I-0.0371 J-0.012 F40.
X4.4296 Y2.521 I0.0371 J0.012
X4.3553 Y2.4971 Z-0.1443 I-0.0371 J-0.012 F20.
X4.4296 Y2.521 Z-0.1486 I0.0371 J0.012
X4.3553 Y2.4971 Z-0.1528 I-0.0371 J-0.012
X4.4296 Y2.521 Z-0.1571 I0.0371 J0.012
X4.3629 Y2.5345 Z-0.16 I-0.0371 J-0.012
X4.4219 Y2.4835 I0.0295 J-0.0255 F40.
X4.3629 Y2.5345 I-0.0295 J0.0255
X4.4219 Y2.4835 Z-0.1643 I0.0295 J-0.0255 F20.
X4.3629 Y2.5345 Z-0.1686 I-0.0295 J0.0255
X4.4219 Y2.4835 Z-0.1728 I0.0295 J-0.0255
X4.3629 Y2.5345 Z-0.1771 I-0.0295 J0.0255
X4.386 Y2.4706 Z-0.18 I0.0295 J-0.0255
X4.3989 Y2.5475 I0.0065 J0.0385 F40.
X4.386 Y2.4706 I-0.0065 J-0.0385
X4.3989 Y2.5475 Z-0.1843 I0.0065 J0.0385 F20.
X4.386 Y2.4706 Z-0.1886 I-0.0065 J-0.0385
X4.3989 Y2.5475 Z-0.1928 I0.0065 J0.0385
X4.386 Y2.4706 Z-0.1971 I-0.0065 J-0.0385
X4.4287 Y2.5235 Z-0.2 I0.0065 J0.0385
X4.3562 Y2.4946 I-0.0362 J-0.0145 F40.
X4.4287 Y2.5235 I0.0362 J0.0145
X4.3562 Y2.4946 Z-0.2043 I-0.0362 J-0.0145 F20.
X4.4287 Y2.5235 Z-0.2086 I0.0362 J0.0145
X4.3562 Y2.4946 Z-0.2128 I-0.0362 J-0.0145
X4.4287 Y2.5235 Z-0.2171 I0.0362 J0.0145
X4.3612 Y2.5325 Z-0.22 I-0.0362 J-0.0145
X4.4236 Y2.4856 I0.0312 J-0.0234 F40.
X4.3612 Y2.5325 I-0.0312 J0.0234
X4.4236 Y2.4856 Z-0.2243 I0.0312 J-0.0234 F20.
X4.3612 Y2.5325 Z-0.2286 I-0.0312 J0.0234
X4.4236 Y2.4856 Z-0.2328 I0.0312 J-0.0234
X4.3612 Y2.5325 Z-0.2371 I-0.0312 J0.0234
X4.3886 Y2.4702 Z-0.24 I0.0312 J-0.0234
X4.3963 Y2.5478 I0.0038 J0.0388 F40.
X4.3886 Y2.4702 I-0.0038 J-0.0388
X4.3963 Y2.5478 Z-0.2443 I0.0038 J0.0388 F20.
X4.3886 Y2.4702 Z-0.2486 I-0.0038 J-0.0388
X4.3963 Y2.5478 Z-0.2528 I0.0038 J0.0388
X4.3886 Y2.4702 Z-0.2571 I-0.0038 J-0.0388
X4.4276 Y2.5259 Z-0.26 I0.0038 J0.0388
X4.3573 Y2.4921 I-0.0352 J-0.0169 F40.
X4.4276 Y2.5259 I0.0352 J0.0169
X4.3573 Y2.4921 Z-0.2643 I-0.0352 J-0.0169 F20.
X4.4276 Y2.5259 Z-0.2686 I0.0352 J0.0169
X4.3573 Y2.4921 Z-0.2728 I-0.0352 J-0.0169
X4.4276 Y2.5259 Z-0.2771 I0.0352 J0.0169
X4.3597 Y2.5303 Z-0.28 I-0.0352 J-0.0169
X4.4251 Y2.4878 I0.0327 J-0.0213 F40.
X4.3597 Y2.5303 I-0.0327 J0.0213
X4.4251 Y2.4878 Z-0.2843 I0.0327 J-0.0213 F20.
X4.3597 Y2.5303 Z-0.2886 I-0.0327 J0.0213
X4.3579 Y2.4909 Z-0.29 I0.0327 J-0.0213
X4.427 Y2.5271 I0.0346 J0.0181 F40.
X4.3579 Y2.4909 I-0.0346 J-0.0181
G1 X4.3591 Y2.4891 Z-0.2896
X4.3607 Y2.4874 Z-0.2891
X4.3622 Y2.4863 Z-0.2878
X4.3639 Y2.4855 Z-0.2865
X4.3664 Y2.4848 Z-0.2827
X4.3673 Y2.4847 Z-0.2782
G0 Z0.2
X1.3826 Y2.0178
G1 Z0.1118 F40.
X1.3811 Y2.0176 Z0.106 F20.
X1.377 Y2.0169 Z0.1017
X1.3743 Y2.0161 Z0.1009
X1.3716 Y2.0152 Z0.1
G3 X1.4002 Y1.9426 Z0.0957 I0.0143 J-0.0363
X1.3716 Y2.0152 Z0.0914 I-0.0143 J0.0363
X1.4002 Y1.9426 Z0.0872 I0.0143 J-0.0363
X1.3716 Y2.0152 Z0.0829 I-0.0143 J0.0363
X1.4002 Y1.9426 Z0.0786 I0.0143 J-0.0363
X1.3716 Y2.0152 Z0.0743 I-0.0143 J0.0363
X1.4002 Y1.9426 Z0.0701 I0.0143 J-0.0363
X1.3716 Y2.0152 Z0.0658 I-0.0143 J0.0363
X1.4002 Y1.9426 Z0.0615 I0.0143 J-0.0363
X1.3716 Y2.0152 Z0.0572 I-0.0143 J0.0363
X1.4002 Y1.9426 Z0.0529 I0.0143 J-0.0363
X1.3716 Y2.0152 Z0.0487 I-0.0143 J0.0363
X1.4002 Y1.9426 Z0.0444 I0.0143 J-0.0363
X1.3716 Y2.0152 Z0.0401 I-0.0143 J0.0363
X1.4002 Y1.9426 Z0.0358 I0.0143 J-0.0363
X1.3716 Y2.0152 Z0.0315 I-0.0143 J0.0363
X1.4002 Y1.9426 Z0.0273 I0.0143 J-0.0363
X1.3716 Y2.0152 Z0.023 I-0.0143 J0.0363
X1.4002 Y1.9426 Z0.0187 I0.0143 J-0.0363
X1.3716 Y2.0152 Z0.0144 I-0.0143 J0.0363
X1.4002 Y1.9426 Z0.0102 I0.0143 J-0.0363
X1.3716 Y2.0152 Z0.0059 I-0.0143 J0.0363
X1.4002 Y1.9426 Z0.0016 I0.0143 J-0.0363
X1.3716 Y2.0152 Z-0.0027 I-0.0143 J0.0363
X1.4002 Y1.9426 Z-0.007 I0.0143 J-0.0363
X1.3716 Y2.0152 Z-0.0112 I-0.0143 J0.0363
X1.4002 Y1.9426 Z-0.0155 I0.0143 J-0.0363
X1.421 Y1.9959 Z-0.0178 I-0.0143 J0.0363
X1.3664 Y2.0127 Z-0.02 I-0.0351 J-0.017
X1.4054 Y1.9451 I0.0195 J-0.0338 F40.
X1.3664 Y2.0127 I-0.0195 J0.0338
X1.4054 Y1.9451 Z-0.0243 I0.0195 J-0.0338 F20.
X1.3664 Y2.0127 Z-0.0286 I-0.0195 J0.0338
X1.4054 Y1.9451 Z-0.0328 I0.0195 J-0.0338
X1.3664 Y2.0127 Z-0.0371 I-0.0195 J0.0338
X1.3672 Y1.9447 Z-0.04 I0.0195 J-0.0338
X1.4046 Y2.0132 I0.0187 J0.0342 F40.
X1.3672 Y1.9447 I-0.0187 J-0.0342
X1.4046 Y2.0132 Z-0.0443 I0.0187 J0.0342 F20.
X1.3672 Y1.9447 Z-0.0486 I-0.0187 J-0.0342
X1.4046 Y2.0132 Z-0.0528 I0.0187 J0.0342
X1.3672 Y1.9447 Z-0.0571 I-0.0187 J-0.0342
X1.4248 Y1.9808 Z-0.06 I0.0187 J0.0342
X1.3469 Y1.977 I-0.039 J-0.0019 F40.
X1.4248 Y1.9808 I0.039 J0.0019
X1.3469 Y1.977 Z-0.0643 I-0.039 J-0.0019 F20.
X1.4249 Y1.9808 Z-0.0686 I0.039 J0.0019
X1.3469 Y1.977 Z-0.0728 I-0.039 J-0.0019
X1.4249 Y1.9808 Z-0.0771 I0.039 J0.0019
X1.364 Y2.0112 Z-0.08 I-0.039 J-0.0019
X1.4078 Y1.9467 I0.0219 J-0.0322 F40.
X1.364 Y2.0112 I-0.0219 J0.0322
X1.4078 Y1.9467 Z-0.0843 I0.0219 J-0.0322 F20.
X1.364 Y2.0112 Z-0.0886 I-0.0219 J0.0322
X1.4078 Y1.9467 Z-0.0928 I0.0219 J-0.0322
X1.364 Y2.0112 Z-0.0971 I-0.0219 J0.0322
X1.3698 Y1.9434 Z-0.1 I0.0219 J-0.0322
X1.402 Y2.0144 I0.0161 J0.0355 F40.
X1.3698 Y1.9434 I-0.0161 J-0.0355
X1.402 Y2.0144 Z-0.1043 I0.0161 J0.0355 F20.
X1.3698 Y1.9434 Z-0.1086 I-0.0161 J-0.0355
X1.402 Y2.0144 Z-0.1128 I0.0161 J0.0355
X1.3698 Y1.9434 Z-0.1171 I-0.0161 J-0.0355
X1.4246 Y1.9837 Z-0.12 I0.0161 J0.0355
X1.3472 Y1.9741 I-0.0387 J-0.0048 F40.
X1.4246 Y1.9837 I0.0387 J0.0048
X1.3472 Y1.9741 Z-0.1243 I-0.0387 J-0.0048 F20.
X1.4246 Y1.9837 Z-0.1286 I0.0387 J0.0048
X1.3472 Y1.9741 Z-0.1328 I-0.0387 J-0.0048
X1.4246 Y1.9837 Z-0.1371 I0.0387 J0.0048
X1.3616 Y2.0095 Z-0.14 I-0.0387 J-0.0048
X1.4102 Y1.9484 I0.0243 J-0.0305 F40.
X1.3616 Y2.0095 I-0.0243 J0.0305
X1.4102 Y1.9484 Z-0.1443 I0.0243 J-0.0305 F20.
X1.3616 Y2.0095 Z-0.1486 I-0.0243 J0.0305
X1.4102 Y1.9484 Z-0.1528 I0.0243 J-0.0305
X1.3616 Y2.0095 Z-0.1571 I-0.0243 J0.0305
X1.3725 Y1.9423 Z-0.16 I0.0243 J-0.0305
X1.3993 Y2.0155 I0.0134 J0.0366 F40.
X1.3725 Y1.9423 I-0.0134 J-0.0366
X1.3993 Y2.0155 Z-0.1643 I0.0134 J0.0366 F20.
X1.3725 Y1.9423 Z-0.1686 I-0.0134 J-0.0366
X1.3993 Y2.0155 Z-0.1728 I0.0134 J0.0366
X1.3725 Y1.9423 Z-0.1771 I-0.0134 J-0.0366
X1.4241 Y1.9866 Z-0.18 I0.0134 J0.0366
X1.3477 Y1.9713 I-0.0382 J-0.0076 F40.
X1.4241 Y1.9866 I0.0382 J0.0076
X1.3477 Y1.9713 Z-0.1843 I-0.0382 J-0.0076 F20.
X1.4241 Y1.9866 Z-0.1886 I0.0382 J0.0076
X1.3477 Y1.9713 Z-0.1928 I-0.0382 J-0.0076
X1.4241 Y1.9866 Z-0.1971 I0.0382 J0.0076
X1.3595 Y2.0076 Z-0.2 I-0.0382 J-0.0076
X1.4123 Y1.9503 I0.0264 J-0.0287 F40.
X1.3595 Y2.0076 I-0.0264 J0.0287
X1.4123 Y1.9503 Z-0.2043 I0.0264 J-0.0287 F20.
X1.3595 Y2.0076 Z-0.2086 I-0.0264 J0.0287
X1.4123 Y1.9503 Z-0.2128 I0.0264 J-0.0287
X1.3595 Y2.0076 Z-0.2171 I-0.0264 J0.0287
X1.3752 Y1.9414 Z-0.22 I0.0264 J-0.0287
X1.3966 Y2.0164 I0.0107 J0.0375 F40.
X1.3752 Y1.9414 I-0.0107 J-0.0375
X1.3966 Y2.0164 Z-0.2243 I0.0107 J0.0375 F20.
X1.3752 Y1.9414 Z-0.2286 I-0.0107 J-0.0375
X1.3966 Y2.0164 Z-0.2328 I0.0107 J0.0375
X1.3752 Y1.9414 Z-0.2371 I-0.0107 J-0.0375
X1.4235 Y1.9894 Z-0.24 I0.0107 J0.0375
X1.3483 Y1.9685 I-0.0376 J-0.0104 F40.
X1.4235 Y1.9894 I0.0376 J0.0104
X1.3483 Y1.9685 Z-0.2443 I-0.0376 J-0.0104 F20.
X1.4235 Y1.9894 Z-0.2486 I0.0376 J0.0104
X1.3483 Y1.9685 Z-0.2528 I-0.0376 J-0.0104
X1.4235 Y1.9894 Z-0.2571 I0.0376 J0.0104
X1.3574 Y2.0055 Z-0.26 I-0.0376 J-0.0104
X1.4144 Y1.9523 I0.0285 J-0.0266 F40.
X1.3574 Y2.0055 I-0.0285 J0.0266
X1.4144 Y1.9523 Z-0.2643 I0.0285 J-0.0266 F20.
X1.3574 Y2.0055 Z-0.2686 I-0.0285 J0.0266
X1.4144 Y1.9523 Z-0.2728 I0.0285 J-0.0266
X1.3574 Y2.0055 Z-0.2771 I-0.0285 J0.0266
X1.378 Y1.9407 Z-0.28 I0.0285 J-0.0266
X1.3938 Y2.0171 I0.0079 J0.0382 F40.
X1.378 Y1.9407 I-0.0079 J-0.0382
X1.3938 Y2.0171 Z-0.2843 I0.0079 J0.0382 F20.
X1.378 Y1.9407 Z-0.2886 I-0.0079 J-0.0382
X1.4154 Y1.9534 Z-0.29 I0.0079 J0.0382
X1.3564 Y2.0045 I-0.0295 J0.0256 F40.
X1.4154 Y1.9534 I0.0295 J-0.0256
G1 X1.4167 Y1.9552 Z-0.2896
X1.4176 Y1.9572 Z-0.2891
X1.4181 Y1.9591 Z-0.2878
X1.4182 Y1.961 Z-0.2865
X1.418 Y1.9635 Z-0.2827
X1.4178 Y1.9644 Z-0.2782
G0 Z0.2
X1.0533 Y4.4854
G1 Z0.1118 F40.
X1.0519 Y4.4858 Z0.106 F20.
X1.0478 Y4.4865 Z0.1017
X1.0421 Y4.4871 Z0.1
G3 X1.0368 Y4.3751 Z0.0939 I-0.0027 J-0.056
X1.0421 Y4.4871 Z0.0877 I0.0027 J0.056
X1.0368 Y4.3751 Z0.0816 I-0.0027 J-0.056
X1.0421 Y4.4871 Z0.0754 I0.0027 J0.056
X1.0368 Y4.3751 Z0.0693 I-0.0027 J-0.056
X1.0421 Y4.4871 Z0.0631 I0.0027 J0.056
X1.0368 Y4.3751 Z0.057 I-0.0027 J-0.056
X1.0421 Y4.4871 Z0.0508 I0.0027 J0.056
X1.0368 Y4.3751 Z0.0447 I-0.0027 J-0.056
X1.0421 Y4.4871 Z0.0385 I0.0027 J0.056
X1.0368 Y4.3751 Z0.0324 I-0.0027 J-0.056
X1.0421 Y4.4871 Z0.0262 I0.0027 J0.056
X1.0368 Y4.3751 Z0.0201 I-0.0027 J-0.056
X1.0421 Y4.4871 Z0.0139 I0.0027 J0.056
X1.0368 Y4.3751 Z0.0078 I-0.0027 J-0.056
X1.0421 Y4.4871 Z0.0016 I0.0027 J0.056
X1.0368 Y4.3751 Z-0.0045 I-0.0027 J-0.056
X1.0421 Y4.4871 Z-0.0107 I0.0027 J0.056
X1.0368 Y4.3751 Z-0.0168 I-0.0027 J-0.056
X1.0955 Y4.4311 Z-0.02 I0.0027 J0.056
X1.06 I-0.0177 J0.
X1.0956 I0.0178 J0. F40.
X0.9479 I-0.0738 J0.
X1.0956 I0.0738 J0.
G1 X1.0953 Y4.433
X1.0947 Y4.4347
X1.0937 Y4.4363
X1.0923 Y4.4376
X1.0906 Y4.4385
X1.0088 Y4.4727
X1.007 Y4.4732
X1.0051 Y4.4733
X1.0033 Y4.473
X1.0016 Y4.4722
X1.0001 Y4.471
G3 X1.0787 Y4.3912 Z-0.0261 I0.0393 J-0.0399 F20.
X1.0001 Y4.471 Z-0.0323 I-0.0393 J0.0399
X1.0787 Y4.3912 Z-0.0384 I0.0393 J-0.0399
X1.0955 Y4.4311 Z-0.04 I-0.0393 J0.0399
X1.06 I-0.0177 J0.
X1.0956 I0.0178 J0. F40.
X0.9479 I-0.0738 J0.
X1.0956 I0.0738 J0.
G1 X1.0953 Y4.433
X1.0947 Y4.4347
X1.0937 Y4.4363
X1.0923 Y4.4376
X1.0906 Y4.4385
X1.0088 Y4.4727
X1.007 Y4.4732
X1.0051 Y4.4733
X1.0033 Y4.473
X1.0016 Y4.4722
X1.0001 Y4.471
G3 X1.0787 Y4.3912 Z-0.0461 I0.0393 J-0.0399 F20.
X1.0001 Y4.471 Z-0.0523 I-0.0393 J0.0399
X1.0787 Y4.3912 Z-0.0584 I0.0393 J-0.0399
X1.0955 Y4.4311 Z-0.06 I-0.0393 J0.0399
X1.06 I-0.0177 J0.
X1.0956 I0.0178 J0. F40.
X0.9479 I-0.0738 J0.
X1.0956 I0.0738 J0.
G1 X1.0953 Y4.433
X1.0947 Y4.4347
X1.0937 Y4.4363
X1.0923 Y4.4376
X1.0906 Y4.4385
X1.0088 Y4.4727
X1.007 Y4.4732
X1.0051 Y4.4733
X1.0033 Y4.473
X1.0016 Y4.4722
X1.0001 Y4.471
G3 X1.0787 Y4.3912 Z-0.0661 I0.0393 J-0.0399 F20.
X1.0001 Y4.471 Z-0.0723 I-0.0393 J0.0399
X1.0787 Y4.3912 Z-0.0784 I0.0393 J-0.0399
X1.0955 Y4.4311 Z-0.08 I-0.0393 J0.0399
X1.06 I-0.0177 J0.
X1.0956 I0.0178 J0. F40.
X0.9479 I-0.0738 J0.
X1.0956 I0.0738 J0.
G1 X1.0953 Y4.433
X1.0947 Y4.4347
X1.0937 Y4.4363
X1.0923 Y4.4376
X1.0906 Y4.4385
X1.0088 Y4.4727
X1.007 Y4.4732
X1.0051 Y4.4733
X1.0033 Y4.473
X1.0016 Y4.4722
X1.0001 Y4.471
G3 X1.0787 Y4.3912 Z-0.0861 I0.0393 J-0.0399 F20.
X1.0001 Y4.471 Z-0.0923 I-0.0393 J0.0399
X1.0787 Y4.3912 Z-0.0984 I0.0393 J-0.0399
X1.0955 Y4.4311 Z-0.1 I-0.0393 J0.0399
X1.06 I-0.0177 J0.
X1.0956 I0.0178 J0. F40.
X0.9479 I-0.0738 J0.
X1.0956 I0.0738 J0.
G1 X1.0953 Y4.433
X1.0947 Y4.4347
X1.0937 Y4.4363
X1.0923 Y4.4376
X1.0906 Y4.4385
X1.0088 Y4.4727
X1.007 Y4.4732
X1.0051 Y4.4733
X1.0033 Y4.473
X1.0016 Y4.4722
X1.0001 Y4.471
G3 X1.0787 Y4.3912 Z-0.1061 I0.0393 J-0.0399 F20.
X1.0001 Y4.471 Z-0.1123 I-0.0393 J0.0399
X1.0787 Y4.3912 Z-0.1184 I0.0393 J-0.0399
X1.0955 Y4.4311 Z-0.12 I-0.0393 J0.0399
X1.06 I-0.0177 J0.
X1.0956 I0.0178 J0. F40.
X0.9479 I-0.0738 J0.
X1.0956 I0.0738 J0.
G1 X1.0953 Y4.433
X1.0947 Y4.4347
X1.0937 Y4.4363
X1.0923 Y4.4376
X1.0906 Y4.4385
X1.0088 Y4.4727
X1.007 Y4.4732
X1.0051 Y4.4733
X1.0033 Y4.473
X1.0016 Y4.4722
X1.0001 Y4.471
G3 X1.0787 Y4.3912 Z-0.1261 I0.0393 J-0.0399 F20.
X1.0001 Y4.471 Z-0.1323 I-0.0393 J0.0399
X1.0787 Y4.3912 Z-0.1384 I0.0393 J-0.0399
X1.0955 Y4.4311 Z-0.14 I-0.0393 J0.0399
X1.06 I-0.0177 J0.
X1.0956 I0.0178 J0. F40.
X0.9479 I-0.0738 J0.
X1.0956 I0.0738 J0.
G1 X1.0953 Y4.433
X1.0947 Y4.4347
X1.0937 Y4.4363
X1.0923 Y4.4376
X1.0906 Y4.4385
X1.0088 Y4.4727
X1.007 Y4.4732
X1.0051 Y4.4733
X1.0033 Y4.473
X1.0016 Y4.4722
X1.0001 Y4.471
G3 X1.0787 Y4.3912 Z-0.1461 I0.0393 J-0.0399 F20.
X1.0001 Y4.471 Z-0.1523 I-0.0393 J0.0399
X1.0787 Y4.3912 Z-0.1584 I0.0393 J-0.0399
X1.0955 Y4.4311 Z-0.16 I-0.0393 J0.0399
X1.06 I-0.0177 J0.
X1.0956 I0.0178 J0. F40.
X0.9479 I-0.0738 J0.
X1.0956 I0.0738 J0.
G1 X1.0953 Y4.433
X1.0947 Y4.4347
X1.0937 Y4.4363
X1.0923 Y4.4376
X1.0906 Y4.4385
X1.0088 Y4.4727
X1.007 Y4.4732
X1.0051 Y4.4733
X1.0033 Y4.473
X1.0016 Y4.4722
X1.0001 Y4.471
G3 X1.0787 Y4.3912 Z-0.1661 I0.0393 J-0.0399 F20.
X1.0001 Y4.471 Z-0.1723 I-0.0393 J0.0399
X1.0787 Y4.3912 Z-0.1784 I0.0393 J-0.0399
X1.0955 Y4.4311 Z-0.18 I-0.0393 J0.0399
X1.06 I-0.0177 J0.
X1.0956 I0.0178 J0. F40.
X0.9479 I-0.0738 J0.
X1.0956 I0.0738 J0.
G1 X1.0953 Y4.433
X1.0947 Y4.4347
X1.0937 Y4.4363
X1.0923 Y4.4376
X1.0906 Y4.4385
X1.0088 Y4.4727
X1.007 Y4.4732
X1.0051 Y4.4733
X1.0033 Y4.473
X1.0016 Y4.4722
X1.0001 Y4.471
G3 X1.0787 Y4.3912 Z-0.1861 I0.0393 J-0.0399 F20.
X1.0001 Y4.471 Z-0.1923 I-0.0393 J0.0399
X1.0787 Y4.3912 Z-0.1984 I0.0393 J-0.0399
X1.0955 Y4.4311 Z-0.2 I-0.0393 J0.0399
X1.06 I-0.0177 J0.
X1.0956 I0.0178 J0. F40.
X0.9479 I-0.0738 J0.
X1.0956 I0.0738 J0.
G1 X1.0953 Y4.433
X1.0947 Y4.4347
X1.0937 Y4.4363
X1.0923 Y4.4376
X1.0906 Y4.4385
X1.0088 Y4.4727
X1.007 Y4.4732
X1.0051 Y4.4733
X1.0033 Y4.473
X1.0016 Y4.4722
X1.0001 Y4.471
G3 X1.0787 Y4.3912 Z-0.2061 I0.0393 J-0.0399 F20.
X1.0001 Y4.471 Z-0.2123 I-0.0393 J0.0399
X1.0787 Y4.3912 Z-0.2184 I0.0393 J-0.0399
X1.0955 Y4.4311 Z-0.22 I-0.0393 J0.0399
X1.06 I-0.0177 J0.
X1.0956 I0.0178 J0. F40.
X0.9479 I-0.0738 J0.
X1.0956 I0.0738 J0.
G1 X1.0953 Y4.433
X1.0947 Y4.4347
X1.0937 Y4.4363
X1.0923 Y4.4376
X1.0906 Y4.4385
X1.0088 Y4.4727
X1.007 Y4.4732
X1.0051 Y4.4733
X1.0033 Y4.473
X1.0016 Y4.4722
X1.0001 Y4.471
G3 X1.0787 Y4.3912 Z-0.2261 I0.0393 J-0.0399 F20.
X1.0001 Y4.471 Z-0.2323 I-0.0393 J0.0399
X1.0787 Y4.3912 Z-0.2384 I0.0393 J-0.0399
X1.0955 Y4.4311 Z-0.24 I-0.0393 J0.0399
X1.06 I-0.0177 J0.
X1.0956 I0.0178 J0. F40.
X0.9479 I-0.0738 J0.
X1.0956 I0.0738 J0.
G1 X1.0953 Y4.433
X1.0947 Y4.4347
X1.0937 Y4.4363
X1.0923 Y4.4376
X1.0906 Y4.4385
X1.0088 Y4.4727
X1.007 Y4.4732
X1.0051 Y4.4733
X1.0033 Y4.473
X1.0016 Y4.4722
X1.0001 Y4.471
G3 X1.0787 Y4.3912 Z-0.2461 I0.0393 J-0.0399 F20.
X1.0001 Y4.471 Z-0.2523 I-0.0393 J0.0399
X1.0787 Y4.3912 Z-0.2584 I0.0393 J-0.0399
X1.0955 Y4.4311 Z-0.26 I-0.0393 J0.0399
X1.06 I-0.0177 J0.
X1.0956 I0.0178 J0. F40.
X0.9479 I-0.0738 J0.
X1.0956 I0.0738 J0.
G1 X1.0953 Y4.433
X1.0947 Y4.4347
X1.0937 Y4.4363
X1.0923 Y4.4376
X1.0906 Y4.4385
X1.0088 Y4.4727
X1.007 Y4.4732
X1.0051 Y4.4733
X1.0033 Y4.473
X1.0016 Y4.4722
X1.0001 Y4.471
G3 X1.0787 Y4.3912 Z-0.2661 I0.0393 J-0.0399 F20.
X1.0001 Y4.471 Z-0.2723 I-0.0393 J0.0399
X1.0787 Y4.3912 Z-0.2784 I0.0393 J-0.0399
X1.0955 Y4.4311 Z-0.28 I-0.0393 J0.0399
X1.06 I-0.0177 J0.
X1.0956 I0.0178 J0. F40.
X0.9479 I-0.0738 J0.
X1.0956 I0.0738 J0.
G1 X1.0954 Y4.4327
X1.095 Y4.4342
X1.0942 Y4.4355
X1.0647 Y4.4799
X1.0637 Y4.4811
X1.0625 Y4.4821
X1.0611 Y4.4828
G3 X1.0178 Y4.3794 Z-0.2861 I-0.0217 J-0.0517 F20.
X1.0955 Y4.4311 Z-0.29 I0.0217 J0.0517
X1.06 I-0.0177 J0.
X1.0956 I0.0178 J0. F40.
X0.9479 I-0.0738 J0.
X1.0956 I0.0738 J0.
G1 X1.0953 Y4.4333 Z-0.2896
X1.0947 Y4.4355 Z-0.2891
X1.0938 Y4.4372 Z-0.2878
X1.0927 Y4.4388 Z-0.2865
X1.0909 Y4.4405 Z-0.2827
X1.0901 Y4.441 Z-0.2782
G0 Z0.6
g0 x0 y0

M9
M30
