(X4 GEARBOX ARCHES RUN 12.0)
(T3  D=0.118 CR=0. - ZMIN=-0.29 - FLAT END MILL)
G90 G94 G91.1 G40 G49 G17
G20

(2D POCKET6)
M5
T3 M6
S15000 M3
g4 p5
G54
M8
G0 X2.8857 Y5.6044
G43 Z0.6 H3
Z0.2
G1 Z0.1118 F40.
X2.8855 Y5.6057 Z0.1063 F20.
X2.8851 Y5.6068 Z0.1049
X2.8843 Y5.6078 Z0.1035
X2.8834 Y5.6086 Z0.1021
X2.8818 Y5.6093 Z0.1014
X2.88 Z0.1008
X2.8784 Y5.6088 Z0.1001
X2.8775 Y5.6082 Z0.1
G3 X2.884 Y5.6006 Z0.0995 I0.0032 J-0.0038
X2.8775 Y5.6082 Z0.0989 I-0.0032 J0.0038
X2.884 Y5.6006 Z0.0984 I0.0032 J-0.0038
X2.8775 Y5.6082 Z0.0978 I-0.0032 J0.0038
X2.884 Y5.6006 Z0.0973 I0.0032 J-0.0038
X2.8775 Y5.6082 Z0.0967 I-0.0032 J0.0038
X2.884 Y5.6006 Z0.0962 I0.0032 J-0.0038
X2.8775 Y5.6082 Z0.0956 I-0.0032 J0.0038
X2.884 Y5.6006 Z0.0951 I0.0032 J-0.0038
X2.8775 Y5.6082 Z0.0945 I-0.0032 J0.0038
X2.884 Y5.6006 Z0.094 I0.0032 J-0.0038
X2.8775 Y5.6082 Z0.0934 I-0.0032 J0.0038
X2.884 Y5.6006 Z0.0929 I0.0032 J-0.0038
X2.8775 Y5.6082 Z0.0923 I-0.0032 J0.0038
X2.884 Y5.6006 Z0.0918 I0.0032 J-0.0038
X2.8775 Y5.6082 Z0.0912 I-0.0032 J0.0038
X2.884 Y5.6006 Z0.0907 I0.0032 J-0.0038
X2.8775 Y5.6082 Z0.0901 I-0.0032 J0.0038
X2.884 Y5.6006 Z0.0896 I0.0032 J-0.0038
X2.8775 Y5.6082 Z0.089 I-0.0032 J0.0038
X2.884 Y5.6006 Z0.0885 I0.0032 J-0.0038
X2.8775 Y5.6082 Z0.0879 I-0.0032 J0.0038
X2.884 Y5.6006 Z0.0874 I0.0032 J-0.0038
X2.8775 Y5.6082 Z0.0868 I-0.0032 J0.0038
X2.884 Y5.6006 Z0.0863 I0.0032 J-0.0038
X2.8775 Y5.6082 Z0.0857 I-0.0032 J0.0038
X2.884 Y5.6006 Z0.0852 I0.0032 J-0.0038
X2.8775 Y5.6082 Z0.0846 I-0.0032 J0.0038
X2.884 Y5.6006 Z0.0841 I0.0032 J-0.0038
X2.8775 Y5.6082 Z0.0835 I-0.0032 J0.0038
X2.884 Y5.6006 Z0.083 I0.0032 J-0.0038
X2.8775 Y5.6082 Z0.0824 I-0.0032 J0.0038
X2.884 Y5.6006 Z0.0819 I0.0032 J-0.0038
X2.8775 Y5.6082 Z0.0813 I-0.0032 J0.0038
X2.884 Y5.6006 Z0.0808 I0.0032 J-0.0038
X2.8775 Y5.6082 Z0.0803 I-0.0032 J0.0038
X2.884 Y5.6006 Z0.0797 I0.0032 J-0.0038
X2.8775 Y5.6082 Z0.0792 I-0.0032 J0.0038
X2.884 Y5.6006 Z0.0786 I0.0032 J-0.0038
X2.8775 Y5.6082 Z0.0781 I-0.0032 J0.0038
X2.884 Y5.6006 Z0.0775 I0.0032 J-0.0038
X2.8775 Y5.6082 Z0.077 I-0.0032 J0.0038
X2.884 Y5.6006 Z0.0764 I0.0032 J-0.0038
X2.8775 Y5.6082 Z0.0759 I-0.0032 J0.0038
X2.884 Y5.6006 Z0.0753 I0.0032 J-0.0038
X2.8775 Y5.6082 Z0.0748 I-0.0032 J0.0038
X2.884 Y5.6006 Z0.0742 I0.0032 J-0.0038
X2.8775 Y5.6082 Z0.0737 I-0.0032 J0.0038
X2.884 Y5.6006 Z0.0731 I0.0032 J-0.0038
X2.8775 Y5.6082 Z0.0726 I-0.0032 J0.0038
X2.884 Y5.6006 Z0.072 I0.0032 J-0.0038
X2.8775 Y5.6082 Z0.0715 I-0.0032 J0.0038
X2.884 Y5.6006 Z0.0709 I0.0032 J-0.0038
X2.8775 Y5.6082 Z0.0704 I-0.0032 J0.0038
X2.884 Y5.6006 Z0.0698 I0.0032 J-0.0038
X2.8775 Y5.6082 Z0.0693 I-0.0032 J0.0038
X2.884 Y5.6006 Z0.0687 I0.0032 J-0.0038
X2.8775 Y5.6082 Z0.0682 I-0.0032 J0.0038
X2.884 Y5.6006 Z0.0676 I0.0032 J-0.0038
X2.8775 Y5.6082 Z0.0671 I-0.0032 J0.0038
X2.884 Y5.6006 Z0.0665 I0.0032 J-0.0038
X2.8775 Y5.6082 Z0.066 I-0.0032 J0.0038
X2.884 Y5.6006 Z0.0654 I0.0032 J-0.0038
X2.8775 Y5.6082 Z0.0649 I-0.0032 J0.0038
X2.884 Y5.6006 Z0.0643 I0.0032 J-0.0038
X2.8775 Y5.6082 Z0.0638 I-0.0032 J0.0038
X2.884 Y5.6006 Z0.0632 I0.0032 J-0.0038
X2.8775 Y5.6082 Z0.0627 I-0.0032 J0.0038
X2.884 Y5.6006 Z0.0622 I0.0032 J-0.0038
X2.8775 Y5.6082 Z0.0616 I-0.0032 J0.0038
X2.884 Y5.6006 Z0.0611 I0.0032 J-0.0038
X2.8775 Y5.6082 Z0.0605 I-0.0032 J0.0038
X2.884 Y5.6006 Z0.06 I0.0032 J-0.0038
X2.8775 Y5.6082 Z0.0594 I-0.0032 J0.0038
X2.884 Y5.6006 Z0.0589 I0.0032 J-0.0038
X2.8775 Y5.6082 Z0.0583 I-0.0032 J0.0038
X2.884 Y5.6006 Z0.0578 I0.0032 J-0.0038
X2.8775 Y5.6082 Z0.0572 I-0.0032 J0.0038
X2.884 Y5.6006 Z0.0567 I0.0032 J-0.0038
X2.8775 Y5.6082 Z0.0561 I-0.0032 J0.0038
X2.884 Y5.6006 Z0.0556 I0.0032 J-0.0038
X2.8775 Y5.6082 Z0.055 I-0.0032 J0.0038
X2.884 Y5.6006 Z0.0545 I0.0032 J-0.0038
X2.8775 Y5.6082 Z0.0539 I-0.0032 J0.0038
X2.884 Y5.6006 Z0.0534 I0.0032 J-0.0038
X2.8775 Y5.6082 Z0.0528 I-0.0032 J0.0038
X2.884 Y5.6006 Z0.0523 I0.0032 J-0.0038
X2.8775 Y5.6082 Z0.0517 I-0.0032 J0.0038
X2.884 Y5.6006 Z0.0512 I0.0032 J-0.0038
X2.8775 Y5.6082 Z0.0506 I-0.0032 J0.0038
X2.884 Y5.6006 Z0.0501 I0.0032 J-0.0038
X2.8775 Y5.6082 Z0.0495 I-0.0032 J0.0038
X2.884 Y5.6006 Z0.049 I0.0032 J-0.0038
X2.8775 Y5.6082 Z0.0484 I-0.0032 J0.0038
X2.884 Y5.6006 Z0.0479 I0.0032 J-0.0038
X2.8775 Y5.6082 Z0.0473 I-0.0032 J0.0038
X2.884 Y5.6006 Z0.0468 I0.0032 J-0.0038
X2.8775 Y5.6082 Z0.0462 I-0.0032 J0.0038
X2.884 Y5.6006 Z0.0457 I0.0032 J-0.0038
X2.8775 Y5.6082 Z0.0451 I-0.0032 J0.0038
X2.884 Y5.6006 Z0.0446 I0.0032 J-0.0038
X2.8775 Y5.6082 Z0.044 I-0.0032 J0.0038
X2.884 Y5.6006 Z0.0435 I0.0032 J-0.0038
X2.8775 Y5.6082 Z0.043 I-0.0032 J0.0038
X2.884 Y5.6006 Z0.0424 I0.0032 J-0.0038
X2.8775 Y5.6082 Z0.0419 I-0.0032 J0.0038
X2.884 Y5.6006 Z0.0413 I0.0032 J-0.0038
X2.8775 Y5.6082 Z0.0408 I-0.0032 J0.0038
X2.884 Y5.6006 Z0.0402 I0.0032 J-0.0038
X2.8775 Y5.6082 Z0.0397 I-0.0032 J0.0038
X2.884 Y5.6006 Z0.0391 I0.0032 J-0.0038
X2.8775 Y5.6082 Z0.0386 I-0.0032 J0.0038
X2.884 Y5.6006 Z0.038 I0.0032 J-0.0038
X2.8775 Y5.6082 Z0.0375 I-0.0032 J0.0038
X2.884 Y5.6006 Z0.0369 I0.0032 J-0.0038
X2.8775 Y5.6082 Z0.0364 I-0.0032 J0.0038
X2.884 Y5.6006 Z0.0358 I0.0032 J-0.0038
X2.8775 Y5.6082 Z0.0353 I-0.0032 J0.0038
X2.884 Y5.6006 Z0.0347 I0.0032 J-0.0038
X2.8775 Y5.6082 Z0.0342 I-0.0032 J0.0038
X2.884 Y5.6006 Z0.0336 I0.0032 J-0.0038
X2.8775 Y5.6082 Z0.0331 I-0.0032 J0.0038
X2.884 Y5.6006 Z0.0325 I0.0032 J-0.0038
X2.8775 Y5.6082 Z0.032 I-0.0032 J0.0038
X2.884 Y5.6006 Z0.0314 I0.0032 J-0.0038
X2.8775 Y5.6082 Z0.0309 I-0.0032 J0.0038
X2.884 Y5.6006 Z0.0303 I0.0032 J-0.0038
X2.8775 Y5.6082 Z0.0298 I-0.0032 J0.0038
X2.884 Y5.6006 Z0.0292 I0.0032 J-0.0038
X2.8775 Y5.6082 Z0.0287 I-0.0032 J0.0038
X2.884 Y5.6006 Z0.0281 I0.0032 J-0.0038
X2.8775 Y5.6082 Z0.0276 I-0.0032 J0.0038
X2.884 Y5.6006 Z0.027 I0.0032 J-0.0038
X2.8775 Y5.6082 Z0.0265 I-0.0032 J0.0038
X2.884 Y5.6006 Z0.0259 I0.0032 J-0.0038
X2.8775 Y5.6082 Z0.0254 I-0.0032 J0.0038
X2.884 Y5.6006 Z0.0249 I0.0032 J-0.0038
X2.8775 Y5.6082 Z0.0243 I-0.0032 J0.0038
X2.884 Y5.6006 Z0.0238 I0.0032 J-0.0038
X2.8775 Y5.6082 Z0.0232 I-0.0032 J0.0038
X2.884 Y5.6006 Z0.0227 I0.0032 J-0.0038
X2.8775 Y5.6082 Z0.0221 I-0.0032 J0.0038
X2.884 Y5.6006 Z0.0216 I0.0032 J-0.0038
X2.8775 Y5.6082 Z0.021 I-0.0032 J0.0038
X2.884 Y5.6006 Z0.0205 I0.0032 J-0.0038
X2.8775 Y5.6082 Z0.0199 I-0.0032 J0.0038
X2.884 Y5.6006 Z0.0194 I0.0032 J-0.0038
X2.8775 Y5.6082 Z0.0188 I-0.0032 J0.0038
X2.884 Y5.6006 Z0.0183 I0.0032 J-0.0038
X2.8775 Y5.6082 Z0.0177 I-0.0032 J0.0038
X2.884 Y5.6006 Z0.0172 I0.0032 J-0.0038
X2.8775 Y5.6082 Z0.0166 I-0.0032 J0.0038
X2.884 Y5.6006 Z0.0161 I0.0032 J-0.0038
X2.8775 Y5.6082 Z0.0155 I-0.0032 J0.0038
X2.884 Y5.6006 Z0.015 I0.0032 J-0.0038
X2.8775 Y5.6082 Z0.0144 I-0.0032 J0.0038
X2.884 Y5.6006 Z0.0139 I0.0032 J-0.0038
X2.8775 Y5.6082 Z0.0133 I-0.0032 J0.0038
X2.884 Y5.6006 Z0.0128 I0.0032 J-0.0038
X2.8775 Y5.6082 Z0.0122 I-0.0032 J0.0038
X2.884 Y5.6006 Z0.0117 I0.0032 J-0.0038
X2.8775 Y5.6082 Z0.0111 I-0.0032 J0.0038
X2.884 Y5.6006 Z0.0106 I0.0032 J-0.0038
X2.8775 Y5.6082 Z0.01 I-0.0032 J0.0038
X2.884 Y5.6006 Z0.0095 I0.0032 J-0.0038
X2.8775 Y5.6082 Z0.0089 I-0.0032 J0.0038
X2.884 Y5.6006 Z0.0084 I0.0032 J-0.0038
X2.8775 Y5.6082 Z0.0078 I-0.0032 J0.0038
X2.884 Y5.6006 Z0.0073 I0.0032 J-0.0038
X2.8775 Y5.6082 Z0.0067 I-0.0032 J0.0038
X2.884 Y5.6006 Z0.0062 I0.0032 J-0.0038
X2.8775 Y5.6082 Z0.0057 I-0.0032 J0.0038
X2.884 Y5.6006 Z0.0051 I0.0032 J-0.0038
X2.8775 Y5.6082 Z0.0046 I-0.0032 J0.0038
X2.884 Y5.6006 Z0.004 I0.0032 J-0.0038
X2.8775 Y5.6082 Z0.0035 I-0.0032 J0.0038
X2.884 Y5.6006 Z0.0029 I0.0032 J-0.0038
X2.8775 Y5.6082 Z0.0024 I-0.0032 J0.0038
X2.884 Y5.6006 Z0.0018 I0.0032 J-0.0038
X2.8775 Y5.6082 Z0.0013 I-0.0032 J0.0038
X2.884 Y5.6006 Z0.0007 I0.0032 J-0.0038
X2.8775 Y5.6082 Z0.0002 I-0.0032 J0.0038
X2.884 Y5.6006 Z-0.0004 I0.0032 J-0.0038
X2.8775 Y5.6082 Z-0.0009 I-0.0032 J0.0038
X2.884 Y5.6006 Z-0.0015 I0.0032 J-0.0038
X2.8775 Y5.6082 Z-0.002 I-0.0032 J0.0038
X2.884 Y5.6006 Z-0.0026 I0.0032 J-0.0038
X2.8775 Y5.6082 Z-0.0031 I-0.0032 J0.0038
X2.884 Y5.6006 Z-0.0037 I0.0032 J-0.0038
X2.8775 Y5.6082 Z-0.0042 I-0.0032 J0.0038
X2.884 Y5.6006 Z-0.0048 I0.0032 J-0.0038
X2.8775 Y5.6082 Z-0.0053 I-0.0032 J0.0038
X2.884 Y5.6006 Z-0.0059 I0.0032 J-0.0038
X2.8775 Y5.6082 Z-0.0064 I-0.0032 J0.0038
X2.884 Y5.6006 Z-0.007 I0.0032 J-0.0038
X2.8775 Y5.6082 Z-0.0075 I-0.0032 J0.0038
X2.884 Y5.6006 Z-0.0081 I0.0032 J-0.0038
X2.8775 Y5.6082 Z-0.0086 I-0.0032 J0.0038
X2.884 Y5.6006 Z-0.0092 I0.0032 J-0.0038
X2.8775 Y5.6082 Z-0.0097 I-0.0032 J0.0038
X2.884 Y5.6006 Z-0.0103 I0.0032 J-0.0038
X2.8775 Y5.6082 Z-0.0108 I-0.0032 J0.0038
X2.884 Y5.6006 Z-0.0114 I0.0032 J-0.0038
X2.8775 Y5.6082 Z-0.0119 I-0.0032 J0.0038
X2.884 Y5.6006 Z-0.0124 I0.0032 J-0.0038
X2.8775 Y5.6082 Z-0.013 I-0.0032 J0.0038
X2.884 Y5.6006 Z-0.0135 I0.0032 J-0.0038
X2.8775 Y5.6082 Z-0.0141 I-0.0032 J0.0038
X2.884 Y5.6006 Z-0.0146 I0.0032 J-0.0038
X2.8775 Y5.6082 Z-0.0152 I-0.0032 J0.0038
X2.884 Y5.6006 Z-0.0157 I0.0032 J-0.0038
X2.8775 Y5.6082 Z-0.0163 I-0.0032 J0.0038
X2.884 Y5.6006 Z-0.0168 I0.0032 J-0.0038
X2.8775 Y5.6082 Z-0.0174 I-0.0032 J0.0038
X2.884 Y5.6006 Z-0.0179 I0.0032 J-0.0038
X2.8775 Y5.6082 Z-0.0185 I-0.0032 J0.0038
X2.884 Y5.6006 Z-0.019 I0.0032 J-0.0038
X2.8775 Y5.6082 Z-0.0196 I-0.0032 J0.0038
X2.884 Y5.6006 Z-0.0201 I0.0032 J-0.0038
X2.8775 Y5.6082 Z-0.0207 I-0.0032 J0.0038
X2.884 Y5.6006 Z-0.0212 I0.0032 J-0.0038
X2.8775 Y5.6082 Z-0.0218 I-0.0032 J0.0038
X2.884 Y5.6006 Z-0.0223 I0.0032 J-0.0038
X2.8775 Y5.6082 Z-0.0229 I-0.0032 J0.0038
X2.884 Y5.6006 Z-0.0234 I0.0032 J-0.0038
X2.8775 Y5.6082 Z-0.024 I-0.0032 J0.0038
X2.884 Y5.6006 Z-0.0245 I0.0032 J-0.0038
X2.8775 Y5.6082 Z-0.0251 I-0.0032 J0.0038
X2.884 Y5.6006 Z-0.0256 I0.0032 J-0.0038
X2.8775 Y5.6082 Z-0.0262 I-0.0032 J0.0038
X2.884 Y5.6006 Z-0.0267 I0.0032 J-0.0038
X2.8775 Y5.6082 Z-0.0273 I-0.0032 J0.0038
X2.884 Y5.6006 Z-0.0278 I0.0032 J-0.0038
X2.8775 Y5.6082 Z-0.0284 I-0.0032 J0.0038
X2.884 Y5.6006 Z-0.0289 I0.0032 J-0.0038
X2.8775 Y5.6082 Z-0.0295 I-0.0032 J0.0038
X2.884 Y5.6006 Z-0.03 I0.0032 J-0.0038
X2.8775 Y5.6082 Z-0.0306 I-0.0032 J0.0038
X2.884 Y5.6006 Z-0.0311 I0.0032 J-0.0038
X2.8775 Y5.6082 Z-0.0316 I-0.0032 J0.0038
X2.884 Y5.6006 Z-0.0322 I0.0032 J-0.0038
X2.8775 Y5.6082 Z-0.0327 I-0.0032 J0.0038
X2.884 Y5.6006 Z-0.0333 I0.0032 J-0.0038
X2.8775 Y5.6082 Z-0.0338 I-0.0032 J0.0038
X2.884 Y5.6006 Z-0.0344 I0.0032 J-0.0038
X2.8775 Y5.6082 Z-0.0349 I-0.0032 J0.0038
X2.884 Y5.6006 Z-0.0355 I0.0032 J-0.0038
X2.8775 Y5.6082 Z-0.036 I-0.0032 J0.0038
X2.884 Y5.6006 Z-0.0366 I0.0032 J-0.0038
X2.8775 Y5.6082 Z-0.0371 I-0.0032 J0.0038
X2.884 Y5.6006 Z-0.0377 I0.0032 J-0.0038
X2.8775 Y5.6082 Z-0.0382 I-0.0032 J0.0038
X2.884 Y5.6006 Z-0.0388 I0.0032 J-0.0038
X2.8775 Y5.6082 Z-0.0393 I-0.0032 J0.0038
X2.884 Y5.6006 Z-0.0399 I0.0032 J-0.0038
X2.8856 Y5.6036 Z-0.04 I-0.0032 J0.0038
X2.8779 Y5.6235 I-0.0209 J0.0033 F40.
X2.2508 Y5.7756 I-0.4769 J-0.5974
X1.8247 Y5.5322 I0.1492 J-0.7559
X1.7476 Y5.4294 I0.5973 J-0.5286
X1.741 Y5.4115 I0.0387 J-0.0243
X1.7492 Y5.3942 I0.0172 J-0.0024
X1.7783 Y5.4022 I0.0108 J0.0177
G2 X1.7939 Y5.4281 I0.2448 J-0.1294
X2.6334 Y5.7121 I0.6069 J-0.4112
X2.8437 Y5.6 I-0.2374 J-0.6986
X2.8552 Y5.591 I-0.416 J-0.5435
G3 X2.8828 Y5.5958 I0.0117 J0.0146
G1 X2.8841 Y5.5983
X2.885 Y5.6009
X2.8856 Y5.6036
G2 X2.9039 Y5.6286 I0.0333 J-0.0052
G3 X2.9071 Y5.6593 I-0.0082 J0.0164
X1.7031 Y5.4454 I-0.5075 J-0.639
X1.8158 Y5.3767 I0.0563 J-0.0344
G2 X2.8264 Y5.5549 I0.5838 J-0.3564
G3 X2.9087 Y5.658 I0.0412 J0.0516
G1 X2.9071 Y5.6593
G3 X2.8976 Y5.6552 I-0.0037 J-0.0046
G1 X2.895 Y5.6249
X2.8947 Y5.6232
X2.8939 Y5.6216
X2.8927 Y5.6203
X2.878 Y5.6092
X2.877 Y5.6081
X2.8762 Y5.6068
X2.8758 Y5.6054
X2.8757 Y5.6039
G3 X2.8857 Y5.6048 Z-0.0405 I0.005 J0.0005 F20.
X2.8757 Y5.6039 Z-0.0411 I-0.005 J-0.0005
X2.8857 Y5.6048 Z-0.0416 I0.005 J0.0005
X2.8757 Y5.6039 Z-0.0422 I-0.005 J-0.0005
X2.8857 Y5.6048 Z-0.0427 I0.005 J0.0005
X2.8757 Y5.6039 Z-0.0433 I-0.005 J-0.0005
X2.8857 Y5.6048 Z-0.0438 I0.005 J0.0005
X2.8757 Y5.6039 Z-0.0444 I-0.005 J-0.0005
X2.8857 Y5.6048 Z-0.0449 I0.005 J0.0005
X2.8757 Y5.6039 Z-0.0455 I-0.005 J-0.0005
X2.8857 Y5.6048 Z-0.046 I0.005 J0.0005
X2.8757 Y5.6039 Z-0.0466 I-0.005 J-0.0005
X2.8857 Y5.6048 Z-0.0471 I0.005 J0.0005
X2.8757 Y5.6039 Z-0.0477 I-0.005 J-0.0005
X2.8857 Y5.6048 Z-0.0482 I0.005 J0.0005
X2.8757 Y5.6039 Z-0.0488 I-0.005 J-0.0005
X2.8857 Y5.6048 Z-0.0493 I0.005 J0.0005
X2.8757 Y5.6039 Z-0.0499 I-0.005 J-0.0005
X2.8857 Y5.6048 Z-0.0504 I0.005 J0.0005
X2.8757 Y5.6039 Z-0.051 I-0.005 J-0.0005
X2.8857 Y5.6048 Z-0.0515 I0.005 J0.0005
X2.8757 Y5.6039 Z-0.0521 I-0.005 J-0.0005
X2.8857 Y5.6048 Z-0.0526 I0.005 J0.0005
X2.8757 Y5.6039 Z-0.0532 I-0.005 J-0.0005
X2.8857 Y5.6048 Z-0.0537 I0.005 J0.0005
X2.8757 Y5.6039 Z-0.0543 I-0.005 J-0.0005
X2.8857 Y5.6048 Z-0.0548 I0.005 J0.0005
X2.8757 Y5.6039 Z-0.0554 I-0.005 J-0.0005
X2.8857 Y5.6048 Z-0.0559 I0.005 J0.0005
X2.8757 Y5.6039 Z-0.0565 I-0.005 J-0.0005
X2.8857 Y5.6048 Z-0.057 I0.005 J0.0005
X2.8757 Y5.6039 Z-0.0576 I-0.005 J-0.0005
X2.8857 Y5.6048 Z-0.0581 I0.005 J0.0005
X2.8757 Y5.6039 Z-0.0587 I-0.005 J-0.0005
X2.8857 Y5.6048 Z-0.0592 I0.005 J0.0005
X2.8757 Y5.6039 Z-0.0597 I-0.005 J-0.0005
X2.8857 Y5.6048 Z-0.0603 I0.005 J0.0005
X2.8757 Y5.6039 Z-0.0608 I-0.005 J-0.0005
X2.8857 Y5.6048 Z-0.0614 I0.005 J0.0005
X2.8757 Y5.6039 Z-0.0619 I-0.005 J-0.0005
X2.8857 Y5.6048 Z-0.0625 I0.005 J0.0005
X2.8757 Y5.6039 Z-0.063 I-0.005 J-0.0005
X2.8857 Y5.6048 Z-0.0636 I0.005 J0.0005
X2.8757 Y5.6039 Z-0.0641 I-0.005 J-0.0005
X2.8857 Y5.6048 Z-0.0647 I0.005 J0.0005
X2.8757 Y5.6039 Z-0.0652 I-0.005 J-0.0005
X2.8857 Y5.6048 Z-0.0658 I0.005 J0.0005
X2.8757 Y5.6039 Z-0.0663 I-0.005 J-0.0005
X2.8857 Y5.6048 Z-0.0669 I0.005 J0.0005
X2.8757 Y5.6039 Z-0.0674 I-0.005 J-0.0005
X2.8857 Y5.6048 Z-0.068 I0.005 J0.0005
X2.8757 Y5.6039 Z-0.0685 I-0.005 J-0.0005
X2.8857 Y5.6048 Z-0.0691 I0.005 J0.0005
X2.8757 Y5.6039 Z-0.0696 I-0.005 J-0.0005
X2.8857 Y5.6048 Z-0.0702 I0.005 J0.0005
X2.8757 Y5.6039 Z-0.0707 I-0.005 J-0.0005
X2.8857 Y5.6048 Z-0.0713 I0.005 J0.0005
X2.8757 Y5.6039 Z-0.0718 I-0.005 J-0.0005
X2.8857 Y5.6048 Z-0.0724 I0.005 J0.0005
X2.8757 Y5.6039 Z-0.0729 I-0.005 J-0.0005
X2.8857 Y5.6048 Z-0.0735 I0.005 J0.0005
X2.8757 Y5.6039 Z-0.074 I-0.005 J-0.0005
X2.8857 Y5.6048 Z-0.0746 I0.005 J0.0005
X2.8757 Y5.6039 Z-0.0751 I-0.005 J-0.0005
X2.8857 Y5.6048 Z-0.0757 I0.005 J0.0005
X2.8757 Y5.6039 Z-0.0762 I-0.005 J-0.0005
X2.8857 Y5.6048 Z-0.0768 I0.005 J0.0005
X2.8757 Y5.6039 Z-0.0773 I-0.005 J-0.0005
X2.8857 Y5.6048 Z-0.0778 I0.005 J0.0005
X2.8757 Y5.6039 Z-0.0784 I-0.005 J-0.0005
X2.8857 Y5.6048 Z-0.0789 I0.005 J0.0005
X2.8757 Y5.6039 Z-0.0795 I-0.005 J-0.0005
X2.8856 Y5.6036 Z-0.08 I0.005 J0.0005
X2.8779 Y5.6235 I-0.0209 J0.0033 F40.
X2.2508 Y5.7756 I-0.4769 J-0.5974
X1.8247 Y5.5322 I0.1492 J-0.7559
X1.7476 Y5.4294 I0.5973 J-0.5286
X1.741 Y5.4115 I0.0387 J-0.0243
X1.7492 Y5.3942 I0.0172 J-0.0024
X1.7783 Y5.4022 I0.0108 J0.0177
G2 X1.7939 Y5.4281 I0.2448 J-0.1294
X2.6334 Y5.7121 I0.6069 J-0.4112
X2.8437 Y5.6 I-0.2374 J-0.6986
X2.8552 Y5.591 I-0.416 J-0.5435
G3 X2.8828 Y5.5958 I0.0117 J0.0146
G1 X2.8841 Y5.5983
X2.885 Y5.6009
X2.8856 Y5.6036
G2 X2.9039 Y5.6286 I0.0333 J-0.0052
G3 X2.9071 Y5.6593 I-0.0082 J0.0164
X1.7031 Y5.4454 I-0.5075 J-0.639
X1.8158 Y5.3767 I0.0563 J-0.0344
G2 X2.8264 Y5.5549 I0.5838 J-0.3564
G3 X2.9087 Y5.658 I0.0412 J0.0516
G1 X2.9071 Y5.6593
G3 X2.8976 Y5.6552 I-0.0037 J-0.0046
G1 X2.895 Y5.6249
X2.8947 Y5.6232
X2.8939 Y5.6216
X2.8927 Y5.6203
X2.878 Y5.6092
X2.877 Y5.6081
X2.8762 Y5.6068
X2.8758 Y5.6054
X2.8757 Y5.6039
G3 X2.8857 Y5.6048 Z-0.0805 I0.005 J0.0005 F20.
X2.8757 Y5.6039 Z-0.0811 I-0.005 J-0.0005
X2.8857 Y5.6048 Z-0.0816 I0.005 J0.0005
X2.8757 Y5.6039 Z-0.0822 I-0.005 J-0.0005
X2.8857 Y5.6048 Z-0.0827 I0.005 J0.0005
X2.8757 Y5.6039 Z-0.0833 I-0.005 J-0.0005
X2.8857 Y5.6048 Z-0.0838 I0.005 J0.0005
X2.8757 Y5.6039 Z-0.0844 I-0.005 J-0.0005
X2.8857 Y5.6048 Z-0.0849 I0.005 J0.0005
X2.8757 Y5.6039 Z-0.0855 I-0.005 J-0.0005
X2.8857 Y5.6048 Z-0.086 I0.005 J0.0005
X2.8757 Y5.6039 Z-0.0866 I-0.005 J-0.0005
X2.8857 Y5.6048 Z-0.0871 I0.005 J0.0005
X2.8757 Y5.6039 Z-0.0877 I-0.005 J-0.0005
X2.8857 Y5.6048 Z-0.0882 I0.005 J0.0005
X2.8757 Y5.6039 Z-0.0888 I-0.005 J-0.0005
X2.8857 Y5.6048 Z-0.0893 I0.005 J0.0005
X2.8757 Y5.6039 Z-0.0899 I-0.005 J-0.0005
X2.8857 Y5.6048 Z-0.0904 I0.005 J0.0005
X2.8757 Y5.6039 Z-0.091 I-0.005 J-0.0005
X2.8857 Y5.6048 Z-0.0915 I0.005 J0.0005
X2.8757 Y5.6039 Z-0.0921 I-0.005 J-0.0005
X2.8857 Y5.6048 Z-0.0926 I0.005 J0.0005
X2.8757 Y5.6039 Z-0.0932 I-0.005 J-0.0005
X2.8857 Y5.6048 Z-0.0937 I0.005 J0.0005
X2.8757 Y5.6039 Z-0.0943 I-0.005 J-0.0005
X2.8857 Y5.6048 Z-0.0948 I0.005 J0.0005
X2.8757 Y5.6039 Z-0.0954 I-0.005 J-0.0005
X2.8857 Y5.6048 Z-0.0959 I0.005 J0.0005
X2.8757 Y5.6039 Z-0.0965 I-0.005 J-0.0005
X2.8857 Y5.6048 Z-0.097 I0.005 J0.0005
X2.8757 Y5.6039 Z-0.0976 I-0.005 J-0.0005
X2.8857 Y5.6048 Z-0.0981 I0.005 J0.0005
X2.8757 Y5.6039 Z-0.0987 I-0.005 J-0.0005
X2.8857 Y5.6048 Z-0.0992 I0.005 J0.0005
X2.8757 Y5.6039 Z-0.0997 I-0.005 J-0.0005
X2.8857 Y5.6048 Z-0.1003 I0.005 J0.0005
X2.8757 Y5.6039 Z-0.1008 I-0.005 J-0.0005
X2.8857 Y5.6048 Z-0.1014 I0.005 J0.0005
X2.8757 Y5.6039 Z-0.1019 I-0.005 J-0.0005
X2.8857 Y5.6048 Z-0.1025 I0.005 J0.0005
X2.8757 Y5.6039 Z-0.103 I-0.005 J-0.0005
X2.8857 Y5.6048 Z-0.1036 I0.005 J0.0005
X2.8757 Y5.6039 Z-0.1041 I-0.005 J-0.0005
X2.8857 Y5.6048 Z-0.1047 I0.005 J0.0005
X2.8757 Y5.6039 Z-0.1052 I-0.005 J-0.0005
X2.8857 Y5.6048 Z-0.1058 I0.005 J0.0005
X2.8757 Y5.6039 Z-0.1063 I-0.005 J-0.0005
X2.8857 Y5.6048 Z-0.1069 I0.005 J0.0005
X2.8757 Y5.6039 Z-0.1074 I-0.005 J-0.0005
X2.8857 Y5.6048 Z-0.108 I0.005 J0.0005
X2.8757 Y5.6039 Z-0.1085 I-0.005 J-0.0005
X2.8857 Y5.6048 Z-0.1091 I0.005 J0.0005
X2.8757 Y5.6039 Z-0.1096 I-0.005 J-0.0005
X2.8857 Y5.6048 Z-0.1102 I0.005 J0.0005
X2.8757 Y5.6039 Z-0.1107 I-0.005 J-0.0005
X2.8857 Y5.6048 Z-0.1113 I0.005 J0.0005
X2.8757 Y5.6039 Z-0.1118 I-0.005 J-0.0005
X2.8857 Y5.6048 Z-0.1124 I0.005 J0.0005
X2.8757 Y5.6039 Z-0.1129 I-0.005 J-0.0005
X2.8857 Y5.6048 Z-0.1135 I0.005 J0.0005
X2.8757 Y5.6039 Z-0.114 I-0.005 J-0.0005
X2.8857 Y5.6048 Z-0.1146 I0.005 J0.0005
X2.8757 Y5.6039 Z-0.1151 I-0.005 J-0.0005
X2.8857 Y5.6048 Z-0.1157 I0.005 J0.0005
X2.8757 Y5.6039 Z-0.1162 I-0.005 J-0.0005
X2.8857 Y5.6048 Z-0.1168 I0.005 J0.0005
X2.8757 Y5.6039 Z-0.1173 I-0.005 J-0.0005
X2.8857 Y5.6048 Z-0.1178 I0.005 J0.0005
X2.8757 Y5.6039 Z-0.1184 I-0.005 J-0.0005
X2.8857 Y5.6048 Z-0.1189 I0.005 J0.0005
X2.8757 Y5.6039 Z-0.1195 I-0.005 J-0.0005
X2.8856 Y5.6036 Z-0.12 I0.005 J0.0005
X2.8779 Y5.6235 I-0.0209 J0.0033 F40.
X2.2508 Y5.7756 I-0.4769 J-0.5974
X1.8247 Y5.5322 I0.1492 J-0.7559
X1.7476 Y5.4294 I0.5973 J-0.5286
X1.741 Y5.4115 I0.0387 J-0.0243
X1.7492 Y5.3942 I0.0172 J-0.0024
X1.7783 Y5.4022 I0.0108 J0.0177
G2 X1.7939 Y5.4281 I0.2448 J-0.1294
X2.6334 Y5.7121 I0.6069 J-0.4112
X2.8437 Y5.6 I-0.2374 J-0.6986
X2.8552 Y5.591 I-0.416 J-0.5435
G3 X2.8828 Y5.5958 I0.0117 J0.0146
G1 X2.8841 Y5.5983
X2.885 Y5.6009
X2.8856 Y5.6036
G2 X2.9039 Y5.6286 I0.0333 J-0.0052
G3 X2.9071 Y5.6593 I-0.0082 J0.0164
X1.7031 Y5.4454 I-0.5075 J-0.639
X1.8158 Y5.3767 I0.0563 J-0.0344
G2 X2.8264 Y5.5549 I0.5838 J-0.3564
G3 X2.9087 Y5.658 I0.0412 J0.0516
G1 X2.9071 Y5.6593
G3 X2.8976 Y5.6552 I-0.0037 J-0.0046
G1 X2.895 Y5.6249
X2.8947 Y5.6232
X2.8939 Y5.6216
X2.8927 Y5.6203
X2.878 Y5.6092
X2.877 Y5.6081
X2.8762 Y5.6068
X2.8758 Y5.6054
X2.8757 Y5.6039
G3 X2.8857 Y5.6048 Z-0.1205 I0.005 J0.0005 F20.
X2.8757 Y5.6039 Z-0.1211 I-0.005 J-0.0005
X2.8857 Y5.6048 Z-0.1216 I0.005 J0.0005
X2.8757 Y5.6039 Z-0.1222 I-0.005 J-0.0005
X2.8857 Y5.6048 Z-0.1227 I0.005 J0.0005
X2.8757 Y5.6039 Z-0.1233 I-0.005 J-0.0005
X2.8857 Y5.6048 Z-0.1238 I0.005 J0.0005
X2.8757 Y5.6039 Z-0.1244 I-0.005 J-0.0005
X2.8857 Y5.6048 Z-0.1249 I0.005 J0.0005
X2.8757 Y5.6039 Z-0.1255 I-0.005 J-0.0005
X2.8857 Y5.6048 Z-0.126 I0.005 J0.0005
X2.8757 Y5.6039 Z-0.1266 I-0.005 J-0.0005
X2.8857 Y5.6048 Z-0.1271 I0.005 J0.0005
X2.8757 Y5.6039 Z-0.1277 I-0.005 J-0.0005
X2.8857 Y5.6048 Z-0.1282 I0.005 J0.0005
X2.8757 Y5.6039 Z-0.1288 I-0.005 J-0.0005
X2.8857 Y5.6048 Z-0.1293 I0.005 J0.0005
X2.8757 Y5.6039 Z-0.1299 I-0.005 J-0.0005
X2.8857 Y5.6048 Z-0.1304 I0.005 J0.0005
X2.8757 Y5.6039 Z-0.131 I-0.005 J-0.0005
X2.8857 Y5.6048 Z-0.1315 I0.005 J0.0005
X2.8757 Y5.6039 Z-0.1321 I-0.005 J-0.0005
X2.8857 Y5.6048 Z-0.1326 I0.005 J0.0005
X2.8757 Y5.6039 Z-0.1332 I-0.005 J-0.0005
X2.8857 Y5.6048 Z-0.1337 I0.005 J0.0005
X2.8757 Y5.6039 Z-0.1343 I-0.005 J-0.0005
X2.8857 Y5.6048 Z-0.1348 I0.005 J0.0005
X2.8757 Y5.6039 Z-0.1354 I-0.005 J-0.0005
X2.8857 Y5.6048 Z-0.1359 I0.005 J0.0005
X2.8757 Y5.6039 Z-0.1365 I-0.005 J-0.0005
X2.8857 Y5.6048 Z-0.137 I0.005 J0.0005
X2.8757 Y5.6039 Z-0.1376 I-0.005 J-0.0005
X2.8857 Y5.6048 Z-0.1381 I0.005 J0.0005
X2.8757 Y5.6039 Z-0.1387 I-0.005 J-0.0005
X2.8857 Y5.6048 Z-0.1392 I0.005 J0.0005
X2.8757 Y5.6039 Z-0.1397 I-0.005 J-0.0005
X2.8857 Y5.6048 Z-0.1403 I0.005 J0.0005
X2.8757 Y5.6039 Z-0.1408 I-0.005 J-0.0005
X2.8857 Y5.6048 Z-0.1414 I0.005 J0.0005
X2.8757 Y5.6039 Z-0.1419 I-0.005 J-0.0005
X2.8857 Y5.6048 Z-0.1425 I0.005 J0.0005
X2.8757 Y5.6039 Z-0.143 I-0.005 J-0.0005
X2.8857 Y5.6048 Z-0.1436 I0.005 J0.0005
X2.8757 Y5.6039 Z-0.1441 I-0.005 J-0.0005
X2.8857 Y5.6048 Z-0.1447 I0.005 J0.0005
X2.8757 Y5.6039 Z-0.1452 I-0.005 J-0.0005
X2.8857 Y5.6048 Z-0.1458 I0.005 J0.0005
X2.8757 Y5.6039 Z-0.1463 I-0.005 J-0.0005
X2.8857 Y5.6048 Z-0.1469 I0.005 J0.0005
X2.8757 Y5.6039 Z-0.1474 I-0.005 J-0.0005
X2.8857 Y5.6048 Z-0.148 I0.005 J0.0005
X2.8757 Y5.6039 Z-0.1485 I-0.005 J-0.0005
X2.8857 Y5.6048 Z-0.1491 I0.005 J0.0005
X2.8757 Y5.6039 Z-0.1496 I-0.005 J-0.0005
X2.8857 Y5.6048 Z-0.1502 I0.005 J0.0005
X2.8757 Y5.6039 Z-0.1507 I-0.005 J-0.0005
X2.8857 Y5.6048 Z-0.1513 I0.005 J0.0005
X2.8757 Y5.6039 Z-0.1518 I-0.005 J-0.0005
X2.8857 Y5.6048 Z-0.1524 I0.005 J0.0005
X2.8757 Y5.6039 Z-0.1529 I-0.005 J-0.0005
X2.8857 Y5.6048 Z-0.1535 I0.005 J0.0005
X2.8757 Y5.6039 Z-0.154 I-0.005 J-0.0005
X2.8857 Y5.6048 Z-0.1546 I0.005 J0.0005
X2.8757 Y5.6039 Z-0.1551 I-0.005 J-0.0005
X2.8857 Y5.6048 Z-0.1557 I0.005 J0.0005
X2.8757 Y5.6039 Z-0.1562 I-0.005 J-0.0005
X2.8857 Y5.6048 Z-0.1568 I0.005 J0.0005
X2.8757 Y5.6039 Z-0.1573 I-0.005 J-0.0005
X2.8857 Y5.6048 Z-0.1578 I0.005 J0.0005
X2.8757 Y5.6039 Z-0.1584 I-0.005 J-0.0005
X2.8857 Y5.6048 Z-0.1589 I0.005 J0.0005
X2.8757 Y5.6039 Z-0.1595 I-0.005 J-0.0005
X2.8856 Y5.6036 Z-0.16 I0.005 J0.0005
X2.8779 Y5.6235 I-0.0209 J0.0033 F40.
X2.2508 Y5.7756 I-0.4769 J-0.5974
X1.8247 Y5.5322 I0.1492 J-0.7559
X1.7476 Y5.4294 I0.5973 J-0.5286
X1.741 Y5.4115 I0.0387 J-0.0243
X1.7492 Y5.3942 I0.0172 J-0.0024
X1.7783 Y5.4022 I0.0108 J0.0177
G2 X1.7939 Y5.4281 I0.2448 J-0.1294
X2.6334 Y5.7121 I0.6069 J-0.4112
X2.8437 Y5.6 I-0.2374 J-0.6986
X2.8552 Y5.591 I-0.416 J-0.5435
G3 X2.8828 Y5.5958 I0.0117 J0.0146
G1 X2.8841 Y5.5983
X2.885 Y5.6009
X2.8856 Y5.6036
G2 X2.9039 Y5.6286 I0.0333 J-0.0052
G3 X2.9071 Y5.6593 I-0.0082 J0.0164
X1.7031 Y5.4454 I-0.5075 J-0.639
X1.8158 Y5.3767 I0.0563 J-0.0344
G2 X2.8264 Y5.5549 I0.5838 J-0.3564
G3 X2.9087 Y5.658 I0.0412 J0.0516
G1 X2.9071 Y5.6593
G3 X2.8976 Y5.6552 I-0.0037 J-0.0046
G1 X2.895 Y5.6249
X2.8947 Y5.6232
X2.8939 Y5.6216
X2.8927 Y5.6203
X2.878 Y5.6092
X2.877 Y5.6081
X2.8762 Y5.6068
X2.8758 Y5.6054
X2.8757 Y5.6039
G3 X2.8857 Y5.6048 Z-0.1605 I0.005 J0.0005 F20.
X2.8757 Y5.6039 Z-0.1611 I-0.005 J-0.0005
X2.8857 Y5.6048 Z-0.1616 I0.005 J0.0005
X2.8757 Y5.6039 Z-0.1622 I-0.005 J-0.0005
X2.8857 Y5.6048 Z-0.1627 I0.005 J0.0005
X2.8757 Y5.6039 Z-0.1633 I-0.005 J-0.0005
X2.8857 Y5.6048 Z-0.1638 I0.005 J0.0005
X2.8757 Y5.6039 Z-0.1644 I-0.005 J-0.0005
X2.8857 Y5.6048 Z-0.1649 I0.005 J0.0005
X2.8757 Y5.6039 Z-0.1655 I-0.005 J-0.0005
X2.8857 Y5.6048 Z-0.166 I0.005 J0.0005
X2.8757 Y5.6039 Z-0.1666 I-0.005 J-0.0005
X2.8857 Y5.6048 Z-0.1671 I0.005 J0.0005
X2.8757 Y5.6039 Z-0.1677 I-0.005 J-0.0005
X2.8857 Y5.6048 Z-0.1682 I0.005 J0.0005
X2.8757 Y5.6039 Z-0.1688 I-0.005 J-0.0005
X2.8857 Y5.6048 Z-0.1693 I0.005 J0.0005
X2.8757 Y5.6039 Z-0.1699 I-0.005 J-0.0005
X2.8857 Y5.6048 Z-0.1704 I0.005 J0.0005
X2.8757 Y5.6039 Z-0.171 I-0.005 J-0.0005
X2.8857 Y5.6048 Z-0.1715 I0.005 J0.0005
X2.8757 Y5.6039 Z-0.1721 I-0.005 J-0.0005
X2.8857 Y5.6048 Z-0.1726 I0.005 J0.0005
X2.8757 Y5.6039 Z-0.1732 I-0.005 J-0.0005
X2.8857 Y5.6048 Z-0.1737 I0.005 J0.0005
X2.8757 Y5.6039 Z-0.1743 I-0.005 J-0.0005
X2.8857 Y5.6048 Z-0.1748 I0.005 J0.0005
X2.8757 Y5.6039 Z-0.1754 I-0.005 J-0.0005
X2.8857 Y5.6048 Z-0.1759 I0.005 J0.0005
X2.8757 Y5.6039 Z-0.1765 I-0.005 J-0.0005
X2.8857 Y5.6048 Z-0.177 I0.005 J0.0005
X2.8757 Y5.6039 Z-0.1776 I-0.005 J-0.0005
X2.8857 Y5.6048 Z-0.1781 I0.005 J0.0005
X2.8757 Y5.6039 Z-0.1787 I-0.005 J-0.0005
X2.8857 Y5.6048 Z-0.1792 I0.005 J0.0005
X2.8757 Y5.6039 Z-0.1797 I-0.005 J-0.0005
X2.8857 Y5.6048 Z-0.1803 I0.005 J0.0005
X2.8757 Y5.6039 Z-0.1808 I-0.005 J-0.0005
X2.8857 Y5.6048 Z-0.1814 I0.005 J0.0005
X2.8757 Y5.6039 Z-0.1819 I-0.005 J-0.0005
X2.8857 Y5.6048 Z-0.1825 I0.005 J0.0005
X2.8757 Y5.6039 Z-0.183 I-0.005 J-0.0005
X2.8857 Y5.6048 Z-0.1836 I0.005 J0.0005
X2.8757 Y5.6039 Z-0.1841 I-0.005 J-0.0005
X2.8857 Y5.6048 Z-0.1847 I0.005 J0.0005
X2.8757 Y5.6039 Z-0.1852 I-0.005 J-0.0005
X2.8857 Y5.6048 Z-0.1858 I0.005 J0.0005
X2.8757 Y5.6039 Z-0.1863 I-0.005 J-0.0005
X2.8857 Y5.6048 Z-0.1869 I0.005 J0.0005
X2.8757 Y5.6039 Z-0.1874 I-0.005 J-0.0005
X2.8857 Y5.6048 Z-0.188 I0.005 J0.0005
X2.8757 Y5.6039 Z-0.1885 I-0.005 J-0.0005
X2.8857 Y5.6048 Z-0.1891 I0.005 J0.0005
X2.8757 Y5.6039 Z-0.1896 I-0.005 J-0.0005
X2.8857 Y5.6048 Z-0.1902 I0.005 J0.0005
X2.8757 Y5.6039 Z-0.1907 I-0.005 J-0.0005
X2.8857 Y5.6048 Z-0.1913 I0.005 J0.0005
X2.8757 Y5.6039 Z-0.1918 I-0.005 J-0.0005
X2.8857 Y5.6048 Z-0.1924 I0.005 J0.0005
X2.8757 Y5.6039 Z-0.1929 I-0.005 J-0.0005
X2.8857 Y5.6048 Z-0.1935 I0.005 J0.0005
X2.8757 Y5.6039 Z-0.194 I-0.005 J-0.0005
X2.8857 Y5.6048 Z-0.1946 I0.005 J0.0005
X2.8757 Y5.6039 Z-0.1951 I-0.005 J-0.0005
X2.8857 Y5.6048 Z-0.1957 I0.005 J0.0005
X2.8757 Y5.6039 Z-0.1962 I-0.005 J-0.0005
X2.8857 Y5.6048 Z-0.1968 I0.005 J0.0005
X2.8757 Y5.6039 Z-0.1973 I-0.005 J-0.0005
X2.8857 Y5.6048 Z-0.1978 I0.005 J0.0005
X2.8757 Y5.6039 Z-0.1984 I-0.005 J-0.0005
X2.8857 Y5.6048 Z-0.1989 I0.005 J0.0005
X2.8757 Y5.6039 Z-0.1995 I-0.005 J-0.0005
X2.8856 Y5.6036 Z-0.2 I0.005 J0.0005
X2.8779 Y5.6235 I-0.0209 J0.0033 F40.
X2.2508 Y5.7756 I-0.4769 J-0.5974
X1.8247 Y5.5322 I0.1492 J-0.7559
X1.7476 Y5.4294 I0.5973 J-0.5286
X1.741 Y5.4115 I0.0387 J-0.0243
X1.7492 Y5.3942 I0.0172 J-0.0024
X1.7783 Y5.4022 I0.0108 J0.0177
G2 X1.7939 Y5.4281 I0.2448 J-0.1294
X2.6334 Y5.7121 I0.6069 J-0.4112
X2.8437 Y5.6 I-0.2374 J-0.6986
X2.8552 Y5.591 I-0.416 J-0.5435
G3 X2.8828 Y5.5958 I0.0117 J0.0146
G1 X2.8841 Y5.5983
X2.885 Y5.6009
X2.8856 Y5.6036
G2 X2.9039 Y5.6286 I0.0333 J-0.0052
G3 X2.9071 Y5.6593 I-0.0082 J0.0164
X1.7031 Y5.4454 I-0.5075 J-0.639
X1.8158 Y5.3767 I0.0563 J-0.0344
G2 X2.8264 Y5.5549 I0.5838 J-0.3564
G3 X2.9087 Y5.658 I0.0412 J0.0516
G1 X2.9071 Y5.6593
G3 X2.8976 Y5.6552 I-0.0037 J-0.0046
G1 X2.895 Y5.6249
X2.8947 Y5.6232
X2.8939 Y5.6216
X2.8927 Y5.6203
X2.878 Y5.6092
X2.877 Y5.6081
X2.8762 Y5.6068
X2.8758 Y5.6054
X2.8757 Y5.6039
G3 X2.8857 Y5.6048 Z-0.2005 I0.005 J0.0005 F20.
X2.8757 Y5.6039 Z-0.2011 I-0.005 J-0.0005
X2.8857 Y5.6048 Z-0.2016 I0.005 J0.0005
X2.8757 Y5.6039 Z-0.2022 I-0.005 J-0.0005
X2.8857 Y5.6048 Z-0.2027 I0.005 J0.0005
X2.8757 Y5.6039 Z-0.2033 I-0.005 J-0.0005
X2.8857 Y5.6048 Z-0.2038 I0.005 J0.0005
X2.8757 Y5.6039 Z-0.2044 I-0.005 J-0.0005
X2.8857 Y5.6048 Z-0.2049 I0.005 J0.0005
X2.8757 Y5.6039 Z-0.2055 I-0.005 J-0.0005
X2.8857 Y5.6048 Z-0.206 I0.005 J0.0005
X2.8757 Y5.6039 Z-0.2066 I-0.005 J-0.0005
X2.8857 Y5.6048 Z-0.2071 I0.005 J0.0005
X2.8757 Y5.6039 Z-0.2077 I-0.005 J-0.0005
X2.8857 Y5.6048 Z-0.2082 I0.005 J0.0005
X2.8757 Y5.6039 Z-0.2088 I-0.005 J-0.0005
X2.8857 Y5.6048 Z-0.2093 I0.005 J0.0005
X2.8757 Y5.6039 Z-0.2099 I-0.005 J-0.0005
X2.8857 Y5.6048 Z-0.2104 I0.005 J0.0005
X2.8757 Y5.6039 Z-0.211 I-0.005 J-0.0005
X2.8857 Y5.6048 Z-0.2115 I0.005 J0.0005
X2.8757 Y5.6039 Z-0.2121 I-0.005 J-0.0005
X2.8857 Y5.6048 Z-0.2126 I0.005 J0.0005
X2.8757 Y5.6039 Z-0.2132 I-0.005 J-0.0005
X2.8857 Y5.6048 Z-0.2137 I0.005 J0.0005
X2.8757 Y5.6039 Z-0.2143 I-0.005 J-0.0005
X2.8857 Y5.6048 Z-0.2148 I0.005 J0.0005
X2.8757 Y5.6039 Z-0.2154 I-0.005 J-0.0005
X2.8857 Y5.6048 Z-0.2159 I0.005 J0.0005
X2.8757 Y5.6039 Z-0.2165 I-0.005 J-0.0005
X2.8857 Y5.6048 Z-0.217 I0.005 J0.0005
X2.8757 Y5.6039 Z-0.2176 I-0.005 J-0.0005
X2.8857 Y5.6048 Z-0.2181 I0.005 J0.0005
X2.8757 Y5.6039 Z-0.2187 I-0.005 J-0.0005
X2.8857 Y5.6048 Z-0.2192 I0.005 J0.0005
X2.8757 Y5.6039 Z-0.2197 I-0.005 J-0.0005
X2.8857 Y5.6048 Z-0.2203 I0.005 J0.0005
X2.8757 Y5.6039 Z-0.2208 I-0.005 J-0.0005
X2.8857 Y5.6048 Z-0.2214 I0.005 J0.0005
X2.8757 Y5.6039 Z-0.2219 I-0.005 J-0.0005
X2.8857 Y5.6048 Z-0.2225 I0.005 J0.0005
X2.8757 Y5.6039 Z-0.223 I-0.005 J-0.0005
X2.8857 Y5.6048 Z-0.2236 I0.005 J0.0005
X2.8757 Y5.6039 Z-0.2241 I-0.005 J-0.0005
X2.8857 Y5.6048 Z-0.2247 I0.005 J0.0005
X2.8757 Y5.6039 Z-0.2252 I-0.005 J-0.0005
X2.8857 Y5.6048 Z-0.2258 I0.005 J0.0005
X2.8757 Y5.6039 Z-0.2263 I-0.005 J-0.0005
X2.8857 Y5.6048 Z-0.2269 I0.005 J0.0005
X2.8757 Y5.6039 Z-0.2274 I-0.005 J-0.0005
X2.8857 Y5.6048 Z-0.228 I0.005 J0.0005
X2.8757 Y5.6039 Z-0.2285 I-0.005 J-0.0005
X2.8857 Y5.6048 Z-0.2291 I0.005 J0.0005
X2.8757 Y5.6039 Z-0.2296 I-0.005 J-0.0005
X2.8857 Y5.6048 Z-0.2302 I0.005 J0.0005
X2.8757 Y5.6039 Z-0.2307 I-0.005 J-0.0005
X2.8857 Y5.6048 Z-0.2313 I0.005 J0.0005
X2.8757 Y5.6039 Z-0.2318 I-0.005 J-0.0005
X2.8857 Y5.6048 Z-0.2324 I0.005 J0.0005
X2.8757 Y5.6039 Z-0.2329 I-0.005 J-0.0005
X2.8857 Y5.6048 Z-0.2335 I0.005 J0.0005
X2.8757 Y5.6039 Z-0.234 I-0.005 J-0.0005
X2.8857 Y5.6048 Z-0.2346 I0.005 J0.0005
X2.8757 Y5.6039 Z-0.2351 I-0.005 J-0.0005
X2.8857 Y5.6048 Z-0.2357 I0.005 J0.0005
X2.8757 Y5.6039 Z-0.2362 I-0.005 J-0.0005
X2.8857 Y5.6048 Z-0.2368 I0.005 J0.0005
X2.8757 Y5.6039 Z-0.2373 I-0.005 J-0.0005
X2.8857 Y5.6048 Z-0.2378 I0.005 J0.0005
X2.8757 Y5.6039 Z-0.2384 I-0.005 J-0.0005
X2.8857 Y5.6048 Z-0.2389 I0.005 J0.0005
X2.8757 Y5.6039 Z-0.2395 I-0.005 J-0.0005
X2.8856 Y5.6036 Z-0.24 I0.005 J0.0005
X2.8779 Y5.6235 I-0.0209 J0.0033 F40.
X2.2508 Y5.7756 I-0.4769 J-0.5974
X1.8247 Y5.5322 I0.1492 J-0.7559
X1.7476 Y5.4294 I0.5973 J-0.5286
X1.741 Y5.4115 I0.0387 J-0.0243
X1.7492 Y5.3942 I0.0172 J-0.0024
X1.7783 Y5.4022 I0.0108 J0.0177
G2 X1.7939 Y5.4281 I0.2448 J-0.1294
X2.6334 Y5.7121 I0.6069 J-0.4112
X2.8437 Y5.6 I-0.2374 J-0.6986
X2.8552 Y5.591 I-0.416 J-0.5435
G3 X2.8828 Y5.5958 I0.0117 J0.0146
G1 X2.8841 Y5.5983
X2.885 Y5.6009
X2.8856 Y5.6036
G2 X2.9039 Y5.6286 I0.0333 J-0.0052
G3 X2.9071 Y5.6593 I-0.0082 J0.0164
X1.7031 Y5.4454 I-0.5075 J-0.639
X1.8158 Y5.3767 I0.0563 J-0.0344
G2 X2.8264 Y5.5549 I0.5838 J-0.3564
G3 X2.9087 Y5.658 I0.0412 J0.0516
G1 X2.9071 Y5.6593
X2.9055 Y5.6602
X2.9037 Y5.6606
X2.9019 Y5.6604
X2.9002 Y5.6596
X2.8988 Y5.6583
X2.8979 Y5.6567
X2.8805 Y5.6098
X2.8768 Y5.6082
G3 X2.8839 Y5.5989 I0.0036 J-0.0047
X2.8826 Y5.609 I-0.0036 J0.0047
X2.8788 Y5.5998 Z-0.2405 I-0.0019 J-0.0046 F20.
X2.8826 Y5.609 Z-0.2411 I0.0019 J0.0046
X2.8788 Y5.5998 Z-0.2416 I-0.0019 J-0.0046
X2.8826 Y5.609 Z-0.2422 I0.0019 J0.0046
X2.8788 Y5.5998 Z-0.2427 I-0.0019 J-0.0046
X2.8826 Y5.609 Z-0.2433 I0.0019 J0.0046
X2.8788 Y5.5998 Z-0.2438 I-0.0019 J-0.0046
X2.8826 Y5.609 Z-0.2444 I0.0019 J0.0046
X2.8788 Y5.5998 Z-0.2449 I-0.0019 J-0.0046
X2.8826 Y5.609 Z-0.2455 I0.0019 J0.0046
X2.8788 Y5.5998 Z-0.246 I-0.0019 J-0.0046
X2.8826 Y5.609 Z-0.2466 I0.0019 J0.0046
X2.8788 Y5.5998 Z-0.2471 I-0.0019 J-0.0046
X2.8826 Y5.609 Z-0.2477 I0.0019 J0.0046
X2.8788 Y5.5998 Z-0.2482 I-0.0019 J-0.0046
X2.8826 Y5.609 Z-0.2488 I0.0019 J0.0046
X2.8788 Y5.5998 Z-0.2493 I-0.0019 J-0.0046
X2.8826 Y5.609 Z-0.2499 I0.0019 J0.0046
X2.8788 Y5.5998 Z-0.2504 I-0.0019 J-0.0046
X2.8826 Y5.609 Z-0.251 I0.0019 J0.0046
X2.8788 Y5.5998 Z-0.2515 I-0.0019 J-0.0046
X2.8826 Y5.609 Z-0.2521 I0.0019 J0.0046
X2.8788 Y5.5998 Z-0.2526 I-0.0019 J-0.0046
X2.8826 Y5.609 Z-0.2532 I0.0019 J0.0046
X2.8788 Y5.5998 Z-0.2537 I-0.0019 J-0.0046
X2.8826 Y5.609 Z-0.2543 I0.0019 J0.0046
X2.8788 Y5.5998 Z-0.2548 I-0.0019 J-0.0046
X2.8826 Y5.609 Z-0.2554 I0.0019 J0.0046
X2.8788 Y5.5998 Z-0.2559 I-0.0019 J-0.0046
X2.8826 Y5.609 Z-0.2565 I0.0019 J0.0046
X2.8788 Y5.5998 Z-0.257 I-0.0019 J-0.0046
X2.8826 Y5.609 Z-0.2576 I0.0019 J0.0046
X2.8788 Y5.5998 Z-0.2581 I-0.0019 J-0.0046
X2.8826 Y5.609 Z-0.2587 I0.0019 J0.0046
X2.8788 Y5.5998 Z-0.2592 I-0.0019 J-0.0046
X2.8826 Y5.609 Z-0.2597 I0.0019 J0.0046
X2.8788 Y5.5998 Z-0.2603 I-0.0019 J-0.0046
X2.8826 Y5.609 Z-0.2608 I0.0019 J0.0046
X2.8788 Y5.5998 Z-0.2614 I-0.0019 J-0.0046
X2.8826 Y5.609 Z-0.2619 I0.0019 J0.0046
X2.8788 Y5.5998 Z-0.2625 I-0.0019 J-0.0046
X2.8826 Y5.609 Z-0.263 I0.0019 J0.0046
X2.8788 Y5.5998 Z-0.2636 I-0.0019 J-0.0046
X2.8826 Y5.609 Z-0.2641 I0.0019 J0.0046
X2.8788 Y5.5998 Z-0.2647 I-0.0019 J-0.0046
X2.8856 Y5.6036 Z-0.265 I0.0019 J0.0046
X2.8779 Y5.6235 I-0.0209 J0.0033 F40.
X2.2508 Y5.7756 I-0.4769 J-0.5974
X1.8247 Y5.5322 I0.1492 J-0.7559
X1.7476 Y5.4294 I0.5973 J-0.5286
X1.741 Y5.4115 I0.0387 J-0.0243
X1.7492 Y5.3942 I0.0172 J-0.0024
X1.7783 Y5.4022 I0.0108 J0.0177
G2 X1.7939 Y5.4281 I0.2448 J-0.1294
X2.6334 Y5.7121 I0.6069 J-0.4112
X2.8437 Y5.6 I-0.2374 J-0.6986
X2.8552 Y5.591 I-0.416 J-0.5435
G3 X2.8828 Y5.5958 I0.0117 J0.0146
G1 X2.8841 Y5.5983
X2.885 Y5.6009
X2.8856 Y5.6036
G2 X2.9039 Y5.6286 I0.0333 J-0.0052
G3 X2.9071 Y5.6593 I-0.0082 J0.0164
X1.7031 Y5.4454 I-0.5075 J-0.639
X1.8158 Y5.3767 I0.0563 J-0.0344
G2 X2.8264 Y5.5549 I0.5838 J-0.3564
G3 X2.9087 Y5.658 I0.0412 J0.0516
G1 X2.9071 Y5.6593
X2.9055 Y5.6602
X2.9037 Y5.6606
X2.9019 Y5.6604
X2.9002 Y5.6596
X2.8988 Y5.6583
X2.8979 Y5.6567
X2.8805 Y5.6098
X2.8768 Y5.6082
G3 X2.8839 Y5.5989 I0.0036 J-0.0047
X2.8826 Y5.609 I-0.0036 J0.0047
X2.8788 Y5.5998 Z-0.2655 I-0.0019 J-0.0046 F20.
X2.8826 Y5.609 Z-0.2661 I0.0019 J0.0046
X2.8788 Y5.5998 Z-0.2666 I-0.0019 J-0.0046
X2.8826 Y5.609 Z-0.2672 I0.0019 J0.0046
X2.8788 Y5.5998 Z-0.2677 I-0.0019 J-0.0046
X2.8826 Y5.609 Z-0.2683 I0.0019 J0.0046
X2.8788 Y5.5998 Z-0.2688 I-0.0019 J-0.0046
X2.8826 Y5.609 Z-0.2694 I0.0019 J0.0046
X2.8788 Y5.5998 Z-0.2699 I-0.0019 J-0.0046
X2.8826 Y5.609 Z-0.2705 I0.0019 J0.0046
X2.8788 Y5.5998 Z-0.271 I-0.0019 J-0.0046
X2.8826 Y5.609 Z-0.2716 I0.0019 J0.0046
X2.8788 Y5.5998 Z-0.2721 I-0.0019 J-0.0046
X2.8826 Y5.609 Z-0.2727 I0.0019 J0.0046
X2.8788 Y5.5998 Z-0.2732 I-0.0019 J-0.0046
X2.8826 Y5.609 Z-0.2738 I0.0019 J0.0046
X2.8788 Y5.5998 Z-0.2743 I-0.0019 J-0.0046
X2.8826 Y5.609 Z-0.2749 I0.0019 J0.0046
X2.8788 Y5.5998 Z-0.2754 I-0.0019 J-0.0046
X2.8826 Y5.609 Z-0.276 I0.0019 J0.0046
X2.8788 Y5.5998 Z-0.2765 I-0.0019 J-0.0046
X2.8826 Y5.609 Z-0.2771 I0.0019 J0.0046
X2.8788 Y5.5998 Z-0.2776 I-0.0019 J-0.0046
X2.8826 Y5.609 Z-0.2782 I0.0019 J0.0046
X2.8788 Y5.5998 Z-0.2787 I-0.0019 J-0.0046
X2.8826 Y5.609 Z-0.2793 I0.0019 J0.0046
X2.8788 Y5.5998 Z-0.2798 I-0.0019 J-0.0046
X2.8826 Y5.609 Z-0.2804 I0.0019 J0.0046
X2.8788 Y5.5998 Z-0.2809 I-0.0019 J-0.0046
X2.8826 Y5.609 Z-0.2815 I0.0019 J0.0046
X2.8788 Y5.5998 Z-0.282 I-0.0019 J-0.0046
X2.8826 Y5.609 Z-0.2826 I0.0019 J0.0046
X2.8788 Y5.5998 Z-0.2831 I-0.0019 J-0.0046
X2.8826 Y5.609 Z-0.2837 I0.0019 J0.0046
X2.8788 Y5.5998 Z-0.2842 I-0.0019 J-0.0046
X2.8826 Y5.609 Z-0.2847 I0.0019 J0.0046
X2.8788 Y5.5998 Z-0.2853 I-0.0019 J-0.0046
X2.8826 Y5.609 Z-0.2858 I0.0019 J0.0046
X2.8788 Y5.5998 Z-0.2864 I-0.0019 J-0.0046
X2.8826 Y5.609 Z-0.2869 I0.0019 J0.0046
X2.8788 Y5.5998 Z-0.2875 I-0.0019 J-0.0046
X2.8826 Y5.609 Z-0.288 I0.0019 J0.0046
X2.8788 Y5.5998 Z-0.2886 I-0.0019 J-0.0046
X2.8826 Y5.609 Z-0.2891 I0.0019 J0.0046
X2.8788 Y5.5998 Z-0.2897 I-0.0019 J-0.0046
X2.8856 Y5.6036 Z-0.29 I0.0019 J0.0046
X2.8779 Y5.6235 I-0.0209 J0.0033 F40.
X2.2508 Y5.7756 I-0.4769 J-0.5974
X1.8247 Y5.5322 I0.1492 J-0.7559
X1.7476 Y5.4294 I0.5973 J-0.5286
X1.741 Y5.4115 I0.0387 J-0.0243
X1.7492 Y5.3942 I0.0172 J-0.0024
X1.7783 Y5.4022 I0.0108 J0.0177
G2 X1.7939 Y5.4281 I0.2448 J-0.1294
X2.6334 Y5.7121 I0.6069 J-0.4112
X2.8437 Y5.6 I-0.2374 J-0.6986
X2.8552 Y5.591 I-0.416 J-0.5435
G3 X2.8828 Y5.5958 I0.0117 J0.0146
G1 X2.8841 Y5.5983
X2.885 Y5.6009
X2.8856 Y5.6036
G2 X2.9039 Y5.6286 I0.0333 J-0.0052
G3 X2.9071 Y5.6593 I-0.0082 J0.0164
X1.7031 Y5.4454 I-0.5075 J-0.639
X1.8158 Y5.3767 I0.0563 J-0.0344
G2 X2.8264 Y5.5549 I0.5838 J-0.3564
G3 X2.9087 Y5.658 I0.0412 J0.0516
G1 X2.9071 Y5.6593
X2.9052 Y5.6605 Z-0.2896
X2.9031 Y5.6614 Z-0.2891
X2.9013 Y5.6618 Z-0.2878
X2.8994 Z-0.2865
X2.8968 Y5.6615 Z-0.2827
X2.896 Y5.6612 Z-0.2782
G0 Z0.2
X4.6069 Y4.1118
G1 Z0.1118 F40.
X4.6082 Y4.1115 Z0.1063 F20.
X4.6094 Y4.1116 Z0.1049
X4.6106 Y4.1119 Z0.1035
X4.6117 Y4.1126 Z0.1021
X4.6128 Y4.1138 Z0.1014
X4.6135 Y4.1154 Z0.1008
X4.6136 Y4.1172 Z0.1001
X4.6133 Y4.1182 Z0.1
G3 X4.6039 Y4.1148 Z0.0995 I-0.0047 J-0.0017
X4.6133 Y4.1182 Z0.0989 I0.0047 J0.0017
X4.6039 Y4.1148 Z0.0984 I-0.0047 J-0.0017
X4.6133 Y4.1182 Z0.0978 I0.0047 J0.0017
X4.6039 Y4.1148 Z0.0973 I-0.0047 J-0.0017
X4.6133 Y4.1182 Z0.0967 I0.0047 J0.0017
X4.6039 Y4.1148 Z0.0962 I-0.0047 J-0.0017
X4.6133 Y4.1182 Z0.0956 I0.0047 J0.0017
X4.6039 Y4.1148 Z0.0951 I-0.0047 J-0.0017
X4.6133 Y4.1182 Z0.0945 I0.0047 J0.0017
X4.6039 Y4.1148 Z0.094 I-0.0047 J-0.0017
X4.6133 Y4.1182 Z0.0934 I0.0047 J0.0017
X4.6039 Y4.1148 Z0.0929 I-0.0047 J-0.0017
X4.6133 Y4.1182 Z0.0923 I0.0047 J0.0017
X4.6039 Y4.1148 Z0.0918 I-0.0047 J-0.0017
X4.6133 Y4.1182 Z0.0912 I0.0047 J0.0017
X4.6039 Y4.1148 Z0.0907 I-0.0047 J-0.0017
X4.6133 Y4.1182 Z0.0901 I0.0047 J0.0017
X4.6039 Y4.1148 Z0.0896 I-0.0047 J-0.0017
X4.6133 Y4.1182 Z0.089 I0.0047 J0.0017
X4.6039 Y4.1148 Z0.0885 I-0.0047 J-0.0017
X4.6133 Y4.1182 Z0.0879 I0.0047 J0.0017
X4.6039 Y4.1148 Z0.0874 I-0.0047 J-0.0017
X4.6133 Y4.1182 Z0.0868 I0.0047 J0.0017
X4.6039 Y4.1148 Z0.0863 I-0.0047 J-0.0017
X4.6133 Y4.1182 Z0.0857 I0.0047 J0.0017
X4.6039 Y4.1148 Z0.0852 I-0.0047 J-0.0017
X4.6133 Y4.1182 Z0.0846 I0.0047 J0.0017
X4.6039 Y4.1148 Z0.0841 I-0.0047 J-0.0017
X4.6133 Y4.1182 Z0.0835 I0.0047 J0.0017
X4.6039 Y4.1148 Z0.083 I-0.0047 J-0.0017
X4.6133 Y4.1182 Z0.0824 I0.0047 J0.0017
X4.6039 Y4.1148 Z0.0819 I-0.0047 J-0.0017
X4.6133 Y4.1182 Z0.0813 I0.0047 J0.0017
X4.6039 Y4.1148 Z0.0808 I-0.0047 J-0.0017
X4.6133 Y4.1182 Z0.0803 I0.0047 J0.0017
X4.6039 Y4.1148 Z0.0797 I-0.0047 J-0.0017
X4.6133 Y4.1182 Z0.0792 I0.0047 J0.0017
X4.6039 Y4.1148 Z0.0786 I-0.0047 J-0.0017
X4.6133 Y4.1182 Z0.0781 I0.0047 J0.0017
X4.6039 Y4.1148 Z0.0775 I-0.0047 J-0.0017
X4.6133 Y4.1182 Z0.077 I0.0047 J0.0017
X4.6039 Y4.1148 Z0.0764 I-0.0047 J-0.0017
X4.6133 Y4.1182 Z0.0759 I0.0047 J0.0017
X4.6039 Y4.1148 Z0.0753 I-0.0047 J-0.0017
X4.6133 Y4.1182 Z0.0748 I0.0047 J0.0017
X4.6039 Y4.1148 Z0.0742 I-0.0047 J-0.0017
X4.6133 Y4.1182 Z0.0737 I0.0047 J0.0017
X4.6039 Y4.1148 Z0.0731 I-0.0047 J-0.0017
X4.6133 Y4.1182 Z0.0726 I0.0047 J0.0017
X4.6039 Y4.1148 Z0.072 I-0.0047 J-0.0017
X4.6133 Y4.1182 Z0.0715 I0.0047 J0.0017
X4.6039 Y4.1148 Z0.0709 I-0.0047 J-0.0017
X4.6133 Y4.1182 Z0.0704 I0.0047 J0.0017
X4.6039 Y4.1148 Z0.0698 I-0.0047 J-0.0017
X4.6133 Y4.1182 Z0.0693 I0.0047 J0.0017
X4.6039 Y4.1148 Z0.0687 I-0.0047 J-0.0017
X4.6133 Y4.1182 Z0.0682 I0.0047 J0.0017
X4.6039 Y4.1148 Z0.0676 I-0.0047 J-0.0017
X4.6133 Y4.1182 Z0.0671 I0.0047 J0.0017
X4.6039 Y4.1148 Z0.0665 I-0.0047 J-0.0017
X4.6133 Y4.1182 Z0.066 I0.0047 J0.0017
X4.6039 Y4.1148 Z0.0654 I-0.0047 J-0.0017
X4.6133 Y4.1182 Z0.0649 I0.0047 J0.0017
X4.6039 Y4.1148 Z0.0643 I-0.0047 J-0.0017
X4.6133 Y4.1182 Z0.0638 I0.0047 J0.0017
X4.6039 Y4.1148 Z0.0632 I-0.0047 J-0.0017
X4.6133 Y4.1182 Z0.0627 I0.0047 J0.0017
X4.6039 Y4.1148 Z0.0622 I-0.0047 J-0.0017
X4.6133 Y4.1182 Z0.0616 I0.0047 J0.0017
X4.6039 Y4.1148 Z0.0611 I-0.0047 J-0.0017
X4.6133 Y4.1182 Z0.0605 I0.0047 J0.0017
X4.6039 Y4.1148 Z0.06 I-0.0047 J-0.0017
X4.6133 Y4.1182 Z0.0594 I0.0047 J0.0017
X4.6039 Y4.1148 Z0.0589 I-0.0047 J-0.0017
X4.6133 Y4.1182 Z0.0583 I0.0047 J0.0017
X4.6039 Y4.1148 Z0.0578 I-0.0047 J-0.0017
X4.6133 Y4.1182 Z0.0572 I0.0047 J0.0017
X4.6039 Y4.1148 Z0.0567 I-0.0047 J-0.0017
X4.6133 Y4.1182 Z0.0561 I0.0047 J0.0017
X4.6039 Y4.1148 Z0.0556 I-0.0047 J-0.0017
X4.6133 Y4.1182 Z0.055 I0.0047 J0.0017
X4.6039 Y4.1148 Z0.0545 I-0.0047 J-0.0017
X4.6133 Y4.1182 Z0.0539 I0.0047 J0.0017
X4.6039 Y4.1148 Z0.0534 I-0.0047 J-0.0017
X4.6133 Y4.1182 Z0.0528 I0.0047 J0.0017
X4.6039 Y4.1148 Z0.0523 I-0.0047 J-0.0017
X4.6133 Y4.1182 Z0.0517 I0.0047 J0.0017
X4.6039 Y4.1148 Z0.0512 I-0.0047 J-0.0017
X4.6133 Y4.1182 Z0.0506 I0.0047 J0.0017
X4.6039 Y4.1148 Z0.0501 I-0.0047 J-0.0017
X4.6133 Y4.1182 Z0.0495 I0.0047 J0.0017
X4.6039 Y4.1148 Z0.049 I-0.0047 J-0.0017
X4.6133 Y4.1182 Z0.0484 I0.0047 J0.0017
X4.6039 Y4.1148 Z0.0479 I-0.0047 J-0.0017
X4.6133 Y4.1182 Z0.0473 I0.0047 J0.0017
X4.6039 Y4.1148 Z0.0468 I-0.0047 J-0.0017
X4.6133 Y4.1182 Z0.0462 I0.0047 J0.0017
X4.6039 Y4.1148 Z0.0457 I-0.0047 J-0.0017
X4.6133 Y4.1182 Z0.0451 I0.0047 J0.0017
X4.6039 Y4.1148 Z0.0446 I-0.0047 J-0.0017
X4.6133 Y4.1182 Z0.044 I0.0047 J0.0017
X4.6039 Y4.1148 Z0.0435 I-0.0047 J-0.0017
X4.6133 Y4.1182 Z0.043 I0.0047 J0.0017
X4.6039 Y4.1148 Z0.0424 I-0.0047 J-0.0017
X4.6133 Y4.1182 Z0.0419 I0.0047 J0.0017
X4.6039 Y4.1148 Z0.0413 I-0.0047 J-0.0017
X4.6133 Y4.1182 Z0.0408 I0.0047 J0.0017
X4.6039 Y4.1148 Z0.0402 I-0.0047 J-0.0017
X4.6133 Y4.1182 Z0.0397 I0.0047 J0.0017
X4.6039 Y4.1148 Z0.0391 I-0.0047 J-0.0017
X4.6133 Y4.1182 Z0.0386 I0.0047 J0.0017
X4.6039 Y4.1148 Z0.038 I-0.0047 J-0.0017
X4.6133 Y4.1182 Z0.0375 I0.0047 J0.0017
X4.6039 Y4.1148 Z0.0369 I-0.0047 J-0.0017
X4.6133 Y4.1182 Z0.0364 I0.0047 J0.0017
X4.6039 Y4.1148 Z0.0358 I-0.0047 J-0.0017
X4.6133 Y4.1182 Z0.0353 I0.0047 J0.0017
X4.6039 Y4.1148 Z0.0347 I-0.0047 J-0.0017
X4.6133 Y4.1182 Z0.0342 I0.0047 J0.0017
X4.6039 Y4.1148 Z0.0336 I-0.0047 J-0.0017
X4.6133 Y4.1182 Z0.0331 I0.0047 J0.0017
X4.6039 Y4.1148 Z0.0325 I-0.0047 J-0.0017
X4.6133 Y4.1182 Z0.032 I0.0047 J0.0017
X4.6039 Y4.1148 Z0.0314 I-0.0047 J-0.0017
X4.6133 Y4.1182 Z0.0309 I0.0047 J0.0017
X4.6039 Y4.1148 Z0.0303 I-0.0047 J-0.0017
X4.6133 Y4.1182 Z0.0298 I0.0047 J0.0017
X4.6039 Y4.1148 Z0.0292 I-0.0047 J-0.0017
X4.6133 Y4.1182 Z0.0287 I0.0047 J0.0017
X4.6039 Y4.1148 Z0.0281 I-0.0047 J-0.0017
X4.6133 Y4.1182 Z0.0276 I0.0047 J0.0017
X4.6039 Y4.1148 Z0.027 I-0.0047 J-0.0017
X4.6133 Y4.1182 Z0.0265 I0.0047 J0.0017
X4.6039 Y4.1148 Z0.0259 I-0.0047 J-0.0017
X4.6133 Y4.1182 Z0.0254 I0.0047 J0.0017
X4.6039 Y4.1148 Z0.0249 I-0.0047 J-0.0017
X4.6133 Y4.1182 Z0.0243 I0.0047 J0.0017
X4.6039 Y4.1148 Z0.0238 I-0.0047 J-0.0017
X4.6133 Y4.1182 Z0.0232 I0.0047 J0.0017
X4.6039 Y4.1148 Z0.0227 I-0.0047 J-0.0017
X4.6133 Y4.1182 Z0.0221 I0.0047 J0.0017
X4.6039 Y4.1148 Z0.0216 I-0.0047 J-0.0017
X4.6133 Y4.1182 Z0.021 I0.0047 J0.0017
X4.6039 Y4.1148 Z0.0205 I-0.0047 J-0.0017
X4.6133 Y4.1182 Z0.0199 I0.0047 J0.0017
X4.6039 Y4.1148 Z0.0194 I-0.0047 J-0.0017
X4.6133 Y4.1182 Z0.0188 I0.0047 J0.0017
X4.6039 Y4.1148 Z0.0183 I-0.0047 J-0.0017
X4.6133 Y4.1182 Z0.0177 I0.0047 J0.0017
X4.6039 Y4.1148 Z0.0172 I-0.0047 J-0.0017
X4.6133 Y4.1182 Z0.0166 I0.0047 J0.0017
X4.6039 Y4.1148 Z0.0161 I-0.0047 J-0.0017
X4.6133 Y4.1182 Z0.0155 I0.0047 J0.0017
X4.6039 Y4.1148 Z0.015 I-0.0047 J-0.0017
X4.6133 Y4.1182 Z0.0144 I0.0047 J0.0017
X4.6039 Y4.1148 Z0.0139 I-0.0047 J-0.0017
X4.6133 Y4.1182 Z0.0133 I0.0047 J0.0017
X4.6039 Y4.1148 Z0.0128 I-0.0047 J-0.0017
X4.6133 Y4.1182 Z0.0122 I0.0047 J0.0017
X4.6039 Y4.1148 Z0.0117 I-0.0047 J-0.0017
X4.6133 Y4.1182 Z0.0111 I0.0047 J0.0017
X4.6039 Y4.1148 Z0.0106 I-0.0047 J-0.0017
X4.6133 Y4.1182 Z0.01 I0.0047 J0.0017
X4.6039 Y4.1148 Z0.0095 I-0.0047 J-0.0017
X4.6133 Y4.1182 Z0.0089 I0.0047 J0.0017
X4.6039 Y4.1148 Z0.0084 I-0.0047 J-0.0017
X4.6133 Y4.1182 Z0.0078 I0.0047 J0.0017
X4.6039 Y4.1148 Z0.0073 I-0.0047 J-0.0017
X4.6133 Y4.1182 Z0.0067 I0.0047 J0.0017
X4.6039 Y4.1148 Z0.0062 I-0.0047 J-0.0017
X4.6133 Y4.1182 Z0.0057 I0.0047 J0.0017
X4.6039 Y4.1148 Z0.0051 I-0.0047 J-0.0017
X4.6133 Y4.1182 Z0.0046 I0.0047 J0.0017
X4.6039 Y4.1148 Z0.004 I-0.0047 J-0.0017
X4.6133 Y4.1182 Z0.0035 I0.0047 J0.0017
X4.6039 Y4.1148 Z0.0029 I-0.0047 J-0.0017
X4.6133 Y4.1182 Z0.0024 I0.0047 J0.0017
X4.6039 Y4.1148 Z0.0018 I-0.0047 J-0.0017
X4.6133 Y4.1182 Z0.0013 I0.0047 J0.0017
X4.6039 Y4.1148 Z0.0007 I-0.0047 J-0.0017
X4.6133 Y4.1182 Z0.0002 I0.0047 J0.0017
X4.6039 Y4.1148 Z-0.0004 I-0.0047 J-0.0017
X4.6133 Y4.1182 Z-0.0009 I0.0047 J0.0017
X4.6039 Y4.1148 Z-0.0015 I-0.0047 J-0.0017
X4.6133 Y4.1182 Z-0.002 I0.0047 J0.0017
X4.6039 Y4.1148 Z-0.0026 I-0.0047 J-0.0017
X4.6133 Y4.1182 Z-0.0031 I0.0047 J0.0017
X4.6039 Y4.1148 Z-0.0037 I-0.0047 J-0.0017
X4.6133 Y4.1182 Z-0.0042 I0.0047 J0.0017
X4.6039 Y4.1148 Z-0.0048 I-0.0047 J-0.0017
X4.6133 Y4.1182 Z-0.0053 I0.0047 J0.0017
X4.6039 Y4.1148 Z-0.0059 I-0.0047 J-0.0017
X4.6133 Y4.1182 Z-0.0064 I0.0047 J0.0017
X4.6039 Y4.1148 Z-0.007 I-0.0047 J-0.0017
X4.6133 Y4.1182 Z-0.0075 I0.0047 J0.0017
X4.6039 Y4.1148 Z-0.0081 I-0.0047 J-0.0017
X4.6133 Y4.1182 Z-0.0086 I0.0047 J0.0017
X4.6039 Y4.1148 Z-0.0092 I-0.0047 J-0.0017
X4.6133 Y4.1182 Z-0.0097 I0.0047 J0.0017
X4.6039 Y4.1148 Z-0.0103 I-0.0047 J-0.0017
X4.6133 Y4.1182 Z-0.0108 I0.0047 J0.0017
X4.6039 Y4.1148 Z-0.0114 I-0.0047 J-0.0017
X4.6133 Y4.1182 Z-0.0119 I0.0047 J0.0017
X4.6039 Y4.1148 Z-0.0124 I-0.0047 J-0.0017
X4.6133 Y4.1182 Z-0.013 I0.0047 J0.0017
X4.6039 Y4.1148 Z-0.0135 I-0.0047 J-0.0017
X4.6133 Y4.1182 Z-0.0141 I0.0047 J0.0017
X4.6039 Y4.1148 Z-0.0146 I-0.0047 J-0.0017
X4.6133 Y4.1182 Z-0.0152 I0.0047 J0.0017
X4.6039 Y4.1148 Z-0.0157 I-0.0047 J-0.0017
X4.6133 Y4.1182 Z-0.0163 I0.0047 J0.0017
X4.6039 Y4.1148 Z-0.0168 I-0.0047 J-0.0017
X4.6133 Y4.1182 Z-0.0174 I0.0047 J0.0017
X4.6039 Y4.1148 Z-0.0179 I-0.0047 J-0.0017
X4.6133 Y4.1182 Z-0.0185 I0.0047 J0.0017
X4.6039 Y4.1148 Z-0.019 I-0.0047 J-0.0017
X4.6133 Y4.1182 Z-0.0196 I0.0047 J0.0017
X4.6039 Y4.1148 Z-0.0201 I-0.0047 J-0.0017
X4.6133 Y4.1182 Z-0.0207 I0.0047 J0.0017
X4.6039 Y4.1148 Z-0.0212 I-0.0047 J-0.0017
X4.6133 Y4.1182 Z-0.0218 I0.0047 J0.0017
X4.6039 Y4.1148 Z-0.0223 I-0.0047 J-0.0017
X4.6133 Y4.1182 Z-0.0229 I0.0047 J0.0017
X4.6039 Y4.1148 Z-0.0234 I-0.0047 J-0.0017
X4.6133 Y4.1182 Z-0.024 I0.0047 J0.0017
X4.6039 Y4.1148 Z-0.0245 I-0.0047 J-0.0017
X4.6133 Y4.1182 Z-0.0251 I0.0047 J0.0017
X4.6039 Y4.1148 Z-0.0256 I-0.0047 J-0.0017
X4.6133 Y4.1182 Z-0.0262 I0.0047 J0.0017
X4.6039 Y4.1148 Z-0.0267 I-0.0047 J-0.0017
X4.6133 Y4.1182 Z-0.0273 I0.0047 J0.0017
X4.6039 Y4.1148 Z-0.0278 I-0.0047 J-0.0017
X4.6133 Y4.1182 Z-0.0284 I0.0047 J0.0017
X4.6039 Y4.1148 Z-0.0289 I-0.0047 J-0.0017
X4.6133 Y4.1182 Z-0.0295 I0.0047 J0.0017
X4.6039 Y4.1148 Z-0.03 I-0.0047 J-0.0017
X4.6133 Y4.1182 Z-0.0306 I0.0047 J0.0017
X4.6039 Y4.1148 Z-0.0311 I-0.0047 J-0.0017
X4.6133 Y4.1182 Z-0.0316 I0.0047 J0.0017
X4.6039 Y4.1148 Z-0.0322 I-0.0047 J-0.0017
X4.6133 Y4.1182 Z-0.0327 I0.0047 J0.0017
X4.6039 Y4.1148 Z-0.0333 I-0.0047 J-0.0017
X4.6133 Y4.1182 Z-0.0338 I0.0047 J0.0017
X4.6039 Y4.1148 Z-0.0344 I-0.0047 J-0.0017
X4.6133 Y4.1182 Z-0.0349 I0.0047 J0.0017
X4.6039 Y4.1148 Z-0.0355 I-0.0047 J-0.0017
X4.6133 Y4.1182 Z-0.036 I0.0047 J0.0017
X4.6039 Y4.1148 Z-0.0366 I-0.0047 J-0.0017
X4.6133 Y4.1182 Z-0.0371 I0.0047 J0.0017
X4.6039 Y4.1148 Z-0.0377 I-0.0047 J-0.0017
X4.6133 Y4.1182 Z-0.0382 I0.0047 J0.0017
X4.6039 Y4.1148 Z-0.0388 I-0.0047 J-0.0017
X4.6133 Y4.1182 Z-0.0393 I0.0047 J0.0017
X4.6039 Y4.1148 Z-0.0399 I-0.0047 J-0.0017
X4.6062 Y4.1121 Z-0.04 I0.0047 J0.0017
G2 X4.6267 Y4.0995 I-0.1347 J-0.2416 F40.
X4.7473 Y2.99 I-0.4106 J-0.6059
X4.6898 Y2.9359 I-0.5029 J0.4766
X4.6267 Y2.8882 I-0.4955 J0.5904
X4.6008 Y2.8726 I-0.1553 J0.2292
G3 X4.5928 Y2.8435 I0.0097 J-0.0184
X4.6234 Y2.8374 I0.0181 J0.011
G2 X4.6489 Y2.8555 I0.4715 J-0.64
G3 X4.776 Y4.0249 I-0.4328 J0.6387
X4.7154 Y4.082 I-0.5315 J-0.5036
X4.6489 Y4.1322 I-0.5211 J-0.6206
G2 X4.6234 Y4.1503 I0.4464 J0.6587
G3 X4.5928 Y4.1442 I-0.0126 J-0.0171
X4.6008 Y4.1151 I0.0177 J-0.0108
G1 X4.6062 Y4.1121
G2 X4.6246 Y4.0731 I-0.018 J-0.0324
G3 X4.64 Y4.0328 I0.041 J-0.0075
G2 X4.5752 Y2.9101 I-0.4212 J-0.5389
G3 X4.644 Y2.7974 I0.0344 J-0.0563
Y4.1903 I-0.4252 J0.6964
X4.5752 Y4.0776 I-0.0344 J-0.0563
G2 X4.64 Y4.0328 I-0.3565 J-0.5838
G1 X4.6414 Y4.032
X4.643 Y4.0316
X4.6447
X4.6463 Y4.0322
X4.6476 Y4.0331
X4.6487 Y4.0344
X4.684 Y4.0934
G3 X4.6742 Y4.1 I-0.0049 J0.0033
X4.6786 Y4.0908 I0.0049 J-0.0033
G1 X4.6896 Y4.0903
G3 X4.6937 Y4.0994 Z-0.0405 I0.002 J0.0046 F20.
X4.6896 Y4.0903 Z-0.0411 I-0.002 J-0.0046
X4.6937 Y4.0994 Z-0.0416 I0.002 J0.0046
X4.6896 Y4.0903 Z-0.0422 I-0.002 J-0.0046
X4.6937 Y4.0994 Z-0.0427 I0.002 J0.0046
X4.6896 Y4.0903 Z-0.0433 I-0.002 J-0.0046
X4.6937 Y4.0994 Z-0.0438 I0.002 J0.0046
X4.6896 Y4.0903 Z-0.0444 I-0.002 J-0.0046
X4.6937 Y4.0994 Z-0.0449 I0.002 J0.0046
X4.6896 Y4.0903 Z-0.0455 I-0.002 J-0.0046
X4.6937 Y4.0994 Z-0.046 I0.002 J0.0046
X4.6896 Y4.0903 Z-0.0466 I-0.002 J-0.0046
X4.6937 Y4.0994 Z-0.0471 I0.002 J0.0046
X4.6896 Y4.0903 Z-0.0477 I-0.002 J-0.0046
X4.6937 Y4.0994 Z-0.0482 I0.002 J0.0046
X4.6896 Y4.0903 Z-0.0488 I-0.002 J-0.0046
X4.6937 Y4.0994 Z-0.0493 I0.002 J0.0046
X4.6896 Y4.0903 Z-0.0499 I-0.002 J-0.0046
X4.6937 Y4.0994 Z-0.0504 I0.002 J0.0046
X4.6896 Y4.0903 Z-0.051 I-0.002 J-0.0046
X4.6937 Y4.0994 Z-0.0515 I0.002 J0.0046
X4.6896 Y4.0903 Z-0.0521 I-0.002 J-0.0046
X4.6937 Y4.0994 Z-0.0526 I0.002 J0.0046
X4.6896 Y4.0903 Z-0.0532 I-0.002 J-0.0046
X4.6937 Y4.0994 Z-0.0537 I0.002 J0.0046
X4.6896 Y4.0903 Z-0.0543 I-0.002 J-0.0046
X4.6937 Y4.0994 Z-0.0548 I0.002 J0.0046
X4.6896 Y4.0903 Z-0.0554 I-0.002 J-0.0046
X4.6937 Y4.0994 Z-0.0559 I0.002 J0.0046
X4.6896 Y4.0903 Z-0.0565 I-0.002 J-0.0046
X4.6937 Y4.0994 Z-0.057 I0.002 J0.0046
X4.6896 Y4.0903 Z-0.0576 I-0.002 J-0.0046
X4.6937 Y4.0994 Z-0.0581 I0.002 J0.0046
X4.6896 Y4.0903 Z-0.0587 I-0.002 J-0.0046
X4.6937 Y4.0994 Z-0.0592 I0.002 J0.0046
X4.6896 Y4.0903 Z-0.0597 I-0.002 J-0.0046
X4.6937 Y4.0994 Z-0.0603 I0.002 J0.0046
X4.6896 Y4.0903 Z-0.0608 I-0.002 J-0.0046
X4.6937 Y4.0994 Z-0.0614 I0.002 J0.0046
X4.6896 Y4.0903 Z-0.0619 I-0.002 J-0.0046
X4.6937 Y4.0994 Z-0.0625 I0.002 J0.0046
X4.6896 Y4.0903 Z-0.063 I-0.002 J-0.0046
X4.6937 Y4.0994 Z-0.0636 I0.002 J0.0046
X4.6896 Y4.0903 Z-0.0641 I-0.002 J-0.0046
X4.6937 Y4.0994 Z-0.0647 I0.002 J0.0046
X4.6896 Y4.0903 Z-0.0652 I-0.002 J-0.0046
X4.6937 Y4.0994 Z-0.0658 I0.002 J0.0046
X4.6896 Y4.0903 Z-0.0663 I-0.002 J-0.0046
X4.6937 Y4.0994 Z-0.0669 I0.002 J0.0046
X4.6896 Y4.0903 Z-0.0674 I-0.002 J-0.0046
X4.6937 Y4.0994 Z-0.068 I0.002 J0.0046
X4.6896 Y4.0903 Z-0.0685 I-0.002 J-0.0046
X4.6937 Y4.0994 Z-0.0691 I0.002 J0.0046
X4.6896 Y4.0903 Z-0.0696 I-0.002 J-0.0046
X4.6937 Y4.0994 Z-0.0702 I0.002 J0.0046
X4.6896 Y4.0903 Z-0.0707 I-0.002 J-0.0046
X4.6937 Y4.0994 Z-0.0713 I0.002 J0.0046
X4.6896 Y4.0903 Z-0.0718 I-0.002 J-0.0046
X4.6937 Y4.0994 Z-0.0724 I0.002 J0.0046
X4.6896 Y4.0903 Z-0.0729 I-0.002 J-0.0046
X4.6937 Y4.0994 Z-0.0735 I0.002 J0.0046
X4.6896 Y4.0903 Z-0.074 I-0.002 J-0.0046
X4.6937 Y4.0994 Z-0.0746 I0.002 J0.0046
X4.6896 Y4.0903 Z-0.0751 I-0.002 J-0.0046
X4.6937 Y4.0994 Z-0.0757 I0.002 J0.0046
X4.6896 Y4.0903 Z-0.0762 I-0.002 J-0.0046
X4.6937 Y4.0994 Z-0.0768 I0.002 J0.0046
X4.6896 Y4.0903 Z-0.0773 I-0.002 J-0.0046
X4.6937 Y4.0994 Z-0.0778 I0.002 J0.0046
X4.6896 Y4.0903 Z-0.0784 I-0.002 J-0.0046
X4.6937 Y4.0994 Z-0.0789 I0.002 J0.0046
X4.6896 Y4.0903 Z-0.0795 I-0.002 J-0.0046
X4.6948 Y4.0988 Z-0.08 I0.002 J0.0046
X4.6489 Y4.1322 I-0.5005 J-0.6374 F40.
G2 X4.6234 Y4.1503 I0.4464 J0.6587
G3 X4.5928 Y4.1442 I-0.0126 J-0.0171
X4.6008 Y4.1151 I0.0177 J-0.0108
G2 X4.6267 Y4.0995 I-0.1293 J-0.2446
X4.7473 Y2.99 I-0.4106 J-0.6059
X4.6898 Y2.9359 I-0.5029 J0.4766
X4.6267 Y2.8882 I-0.4955 J0.5904
X4.6008 Y2.8726 I-0.1553 J0.2292
G3 X4.5928 Y2.8435 I0.0097 J-0.0184
X4.6234 Y2.8374 I0.0181 J0.011
G2 X4.6489 Y2.8555 I0.4715 J-0.64
G3 X4.776 Y4.0249 I-0.4328 J0.6387
X4.7154 Y4.082 I-0.5315 J-0.5036
X4.6948 Y4.0988 I-0.5211 J-0.6206
G2 X4.6817 Y4.1375 I0.023 J0.0293
G3 X4.667 Y4.1757 I-0.0339 J0.0089
X4.644 Y4.1903 I-0.4483 J-0.6818
X4.5752 Y4.0776 I-0.0344 J-0.0563
G2 Y2.9101 I-0.3565 J-0.5838
G3 X4.644 Y2.7974 I0.0344 J-0.0563
X4.667 Y4.1757 I-0.4252 J0.6964
G1 X4.6655 Y4.1764
X4.6639 Y4.1767
X4.6622 Y4.1764
X4.6607 Y4.1758
X4.6594 Y4.1747
X4.6585 Y4.1733
X4.6287 Y4.1113
G3 X4.6391 Y4.1057 I0.0052 J-0.0028
X4.6338 Y4.1144 I-0.0052 J0.0028
G1 X4.6226 Y4.1139
G3 X4.6195 Y4.1044 Z-0.0805 I-0.0015 J-0.0048 F20.
X4.6226 Y4.1139 Z-0.0811 I0.0015 J0.0048
X4.6195 Y4.1044 Z-0.0816 I-0.0015 J-0.0048
X4.6226 Y4.1139 Z-0.0822 I0.0015 J0.0048
X4.6195 Y4.1044 Z-0.0827 I-0.0015 J-0.0048
X4.6226 Y4.1139 Z-0.0833 I0.0015 J0.0048
X4.6195 Y4.1044 Z-0.0838 I-0.0015 J-0.0048
X4.6226 Y4.1139 Z-0.0844 I0.0015 J0.0048
X4.6195 Y4.1044 Z-0.0849 I-0.0015 J-0.0048
X4.6226 Y4.1139 Z-0.0855 I0.0015 J0.0048
X4.6195 Y4.1044 Z-0.086 I-0.0015 J-0.0048
X4.6226 Y4.1139 Z-0.0866 I0.0015 J0.0048
X4.6195 Y4.1044 Z-0.0871 I-0.0015 J-0.0048
X4.6226 Y4.1139 Z-0.0877 I0.0015 J0.0048
X4.6195 Y4.1044 Z-0.0882 I-0.0015 J-0.0048
X4.6226 Y4.1139 Z-0.0888 I0.0015 J0.0048
X4.6195 Y4.1044 Z-0.0893 I-0.0015 J-0.0048
X4.6226 Y4.1139 Z-0.0899 I0.0015 J0.0048
X4.6195 Y4.1044 Z-0.0904 I-0.0015 J-0.0048
X4.6226 Y4.1139 Z-0.091 I0.0015 J0.0048
X4.6195 Y4.1044 Z-0.0915 I-0.0015 J-0.0048
X4.6226 Y4.1139 Z-0.0921 I0.0015 J0.0048
X4.6195 Y4.1044 Z-0.0926 I-0.0015 J-0.0048
X4.6226 Y4.1139 Z-0.0932 I0.0015 J0.0048
X4.6195 Y4.1044 Z-0.0937 I-0.0015 J-0.0048
X4.6226 Y4.1139 Z-0.0943 I0.0015 J0.0048
X4.6195 Y4.1044 Z-0.0948 I-0.0015 J-0.0048
X4.6226 Y4.1139 Z-0.0954 I0.0015 J0.0048
X4.6195 Y4.1044 Z-0.0959 I-0.0015 J-0.0048
X4.6226 Y4.1139 Z-0.0965 I0.0015 J0.0048
X4.6195 Y4.1044 Z-0.097 I-0.0015 J-0.0048
X4.6226 Y4.1139 Z-0.0976 I0.0015 J0.0048
X4.6195 Y4.1044 Z-0.0981 I-0.0015 J-0.0048
X4.6226 Y4.1139 Z-0.0987 I0.0015 J0.0048
X4.6195 Y4.1044 Z-0.0992 I-0.0015 J-0.0048
X4.6226 Y4.1139 Z-0.0997 I0.0015 J0.0048
X4.6195 Y4.1044 Z-0.1003 I-0.0015 J-0.0048
X4.6226 Y4.1139 Z-0.1008 I0.0015 J0.0048
X4.6195 Y4.1044 Z-0.1014 I-0.0015 J-0.0048
X4.6226 Y4.1139 Z-0.1019 I0.0015 J0.0048
X4.6195 Y4.1044 Z-0.1025 I-0.0015 J-0.0048
X4.6226 Y4.1139 Z-0.103 I0.0015 J0.0048
X4.6195 Y4.1044 Z-0.1036 I-0.0015 J-0.0048
X4.6226 Y4.1139 Z-0.1041 I0.0015 J0.0048
X4.6195 Y4.1044 Z-0.1047 I-0.0015 J-0.0048
X4.6226 Y4.1139 Z-0.1052 I0.0015 J0.0048
X4.6195 Y4.1044 Z-0.1058 I-0.0015 J-0.0048
X4.6226 Y4.1139 Z-0.1063 I0.0015 J0.0048
X4.6195 Y4.1044 Z-0.1069 I-0.0015 J-0.0048
X4.6226 Y4.1139 Z-0.1074 I0.0015 J0.0048
X4.6195 Y4.1044 Z-0.108 I-0.0015 J-0.0048
X4.6226 Y4.1139 Z-0.1085 I0.0015 J0.0048
X4.6195 Y4.1044 Z-0.1091 I-0.0015 J-0.0048
X4.6226 Y4.1139 Z-0.1096 I0.0015 J0.0048
X4.6195 Y4.1044 Z-0.1102 I-0.0015 J-0.0048
X4.6226 Y4.1139 Z-0.1107 I0.0015 J0.0048
X4.6195 Y4.1044 Z-0.1113 I-0.0015 J-0.0048
X4.6226 Y4.1139 Z-0.1118 I0.0015 J0.0048
X4.6195 Y4.1044 Z-0.1124 I-0.0015 J-0.0048
X4.6226 Y4.1139 Z-0.1129 I0.0015 J0.0048
X4.6195 Y4.1044 Z-0.1135 I-0.0015 J-0.0048
X4.6226 Y4.1139 Z-0.114 I0.0015 J0.0048
X4.6195 Y4.1044 Z-0.1146 I-0.0015 J-0.0048
X4.6226 Y4.1139 Z-0.1151 I0.0015 J0.0048
X4.6195 Y4.1044 Z-0.1157 I-0.0015 J-0.0048
X4.6226 Y4.1139 Z-0.1162 I0.0015 J0.0048
X4.6195 Y4.1044 Z-0.1168 I-0.0015 J-0.0048
X4.6226 Y4.1139 Z-0.1173 I0.0015 J0.0048
X4.6195 Y4.1044 Z-0.1178 I-0.0015 J-0.0048
X4.6226 Y4.1139 Z-0.1184 I0.0015 J0.0048
X4.6195 Y4.1044 Z-0.1189 I-0.0015 J-0.0048
X4.6226 Y4.1139 Z-0.1195 I0.0015 J0.0048
X4.6184 Y4.1049 Z-0.12 I-0.0015 J-0.0048
G2 X4.6267 Y4.0995 I-0.1469 J-0.2344 F40.
X4.7473 Y2.99 I-0.4106 J-0.6059
X4.6898 Y2.9359 I-0.5029 J0.4766
X4.6267 Y2.8882 I-0.4955 J0.5904
X4.6008 Y2.8726 I-0.1553 J0.2292
G3 X4.5928 Y2.8435 I0.0097 J-0.0184
X4.6234 Y2.8374 I0.0181 J0.011
G2 X4.6489 Y2.8555 I0.4715 J-0.64
G3 X4.776 Y4.0249 I-0.4328 J0.6387
X4.7154 Y4.082 I-0.5315 J-0.5036
X4.6489 Y4.1322 I-0.5211 J-0.6206
G2 X4.6234 Y4.1503 I0.4464 J0.6587
G3 X4.5928 Y4.1442 I-0.0126 J-0.0171
X4.6008 Y4.1151 I0.0177 J-0.0108
G2 X4.6184 Y4.1049 I-0.1293 J-0.2446
X4.6353 Y4.0654 I-0.02 J-0.0319
G3 X4.6498 Y4.025 I0.0405 J-0.0083
G2 X4.5752 Y2.9101 I-0.431 J-0.5311
G3 X4.644 Y2.7974 I0.0344 J-0.0563
Y4.1903 I-0.4252 J0.6964
X4.5752 Y4.0776 I-0.0344 J-0.0563
G2 X4.6498 Y4.025 I-0.3565 J-0.5838
G1 X4.6512 Y4.0241
X4.6528 Y4.0237
X4.6544 Y4.0238
X4.656 Y4.0242
X4.6574 Y4.0251
X4.6585 Y4.0264
X4.6955 Y4.0843
G3 X4.6859 Y4.0913 I-0.0048 J0.0035
X4.6899 Y4.0819 I0.0048 J-0.0035
G1 X4.7017 Y4.0806
G3 X4.7059 Y4.0897 Z-0.1205 I0.0021 J0.0045 F20.
X4.7017 Y4.0806 Z-0.1211 I-0.0021 J-0.0045
X4.7059 Y4.0897 Z-0.1216 I0.0021 J0.0045
X4.7017 Y4.0806 Z-0.1222 I-0.0021 J-0.0045
X4.7059 Y4.0897 Z-0.1227 I0.0021 J0.0045
X4.7017 Y4.0806 Z-0.1233 I-0.0021 J-0.0045
X4.7059 Y4.0897 Z-0.1238 I0.0021 J0.0045
X4.7017 Y4.0806 Z-0.1244 I-0.0021 J-0.0045
X4.7059 Y4.0897 Z-0.1249 I0.0021 J0.0045
X4.7017 Y4.0806 Z-0.1255 I-0.0021 J-0.0045
X4.7059 Y4.0897 Z-0.126 I0.0021 J0.0045
X4.7017 Y4.0806 Z-0.1266 I-0.0021 J-0.0045
X4.7059 Y4.0897 Z-0.1271 I0.0021 J0.0045
X4.7017 Y4.0806 Z-0.1277 I-0.0021 J-0.0045
X4.7059 Y4.0897 Z-0.1282 I0.0021 J0.0045
X4.7017 Y4.0806 Z-0.1288 I-0.0021 J-0.0045
X4.7059 Y4.0897 Z-0.1293 I0.0021 J0.0045
X4.7017 Y4.0806 Z-0.1299 I-0.0021 J-0.0045
X4.7059 Y4.0897 Z-0.1304 I0.0021 J0.0045
X4.7017 Y4.0806 Z-0.131 I-0.0021 J-0.0045
X4.7059 Y4.0897 Z-0.1315 I0.0021 J0.0045
X4.7017 Y4.0806 Z-0.1321 I-0.0021 J-0.0045
X4.7059 Y4.0897 Z-0.1326 I0.0021 J0.0045
X4.7017 Y4.0806 Z-0.1332 I-0.0021 J-0.0045
X4.7059 Y4.0897 Z-0.1337 I0.0021 J0.0045
X4.7017 Y4.0806 Z-0.1343 I-0.0021 J-0.0045
X4.7059 Y4.0897 Z-0.1348 I0.0021 J0.0045
X4.7017 Y4.0806 Z-0.1354 I-0.0021 J-0.0045
X4.7059 Y4.0897 Z-0.1359 I0.0021 J0.0045
X4.7017 Y4.0806 Z-0.1365 I-0.0021 J-0.0045
X4.7059 Y4.0897 Z-0.137 I0.0021 J0.0045
X4.7017 Y4.0806 Z-0.1376 I-0.0021 J-0.0045
X4.7059 Y4.0897 Z-0.1381 I0.0021 J0.0045
X4.7017 Y4.0806 Z-0.1387 I-0.0021 J-0.0045
X4.7059 Y4.0897 Z-0.1392 I0.0021 J0.0045
X4.7017 Y4.0806 Z-0.1397 I-0.0021 J-0.0045
X4.7059 Y4.0897 Z-0.1403 I0.0021 J0.0045
X4.7017 Y4.0806 Z-0.1408 I-0.0021 J-0.0045
X4.7059 Y4.0897 Z-0.1414 I0.0021 J0.0045
X4.7017 Y4.0806 Z-0.1419 I-0.0021 J-0.0045
X4.7059 Y4.0897 Z-0.1425 I0.0021 J0.0045
X4.7017 Y4.0806 Z-0.143 I-0.0021 J-0.0045
X4.7059 Y4.0897 Z-0.1436 I0.0021 J0.0045
X4.7017 Y4.0806 Z-0.1441 I-0.0021 J-0.0045
X4.7059 Y4.0897 Z-0.1447 I0.0021 J0.0045
X4.7017 Y4.0806 Z-0.1452 I-0.0021 J-0.0045
X4.7059 Y4.0897 Z-0.1458 I0.0021 J0.0045
X4.7017 Y4.0806 Z-0.1463 I-0.0021 J-0.0045
X4.7059 Y4.0897 Z-0.1469 I0.0021 J0.0045
X4.7017 Y4.0806 Z-0.1474 I-0.0021 J-0.0045
X4.7059 Y4.0897 Z-0.148 I0.0021 J0.0045
X4.7017 Y4.0806 Z-0.1485 I-0.0021 J-0.0045
X4.7059 Y4.0897 Z-0.1491 I0.0021 J0.0045
X4.7017 Y4.0806 Z-0.1496 I-0.0021 J-0.0045
X4.7059 Y4.0897 Z-0.1502 I0.0021 J0.0045
X4.7017 Y4.0806 Z-0.1507 I-0.0021 J-0.0045
X4.7059 Y4.0897 Z-0.1513 I0.0021 J0.0045
X4.7017 Y4.0806 Z-0.1518 I-0.0021 J-0.0045
X4.7059 Y4.0897 Z-0.1524 I0.0021 J0.0045
X4.7017 Y4.0806 Z-0.1529 I-0.0021 J-0.0045
X4.7059 Y4.0897 Z-0.1535 I0.0021 J0.0045
X4.7017 Y4.0806 Z-0.154 I-0.0021 J-0.0045
X4.7059 Y4.0897 Z-0.1546 I0.0021 J0.0045
X4.7017 Y4.0806 Z-0.1551 I-0.0021 J-0.0045
X4.7059 Y4.0897 Z-0.1557 I0.0021 J0.0045
X4.7017 Y4.0806 Z-0.1562 I-0.0021 J-0.0045
X4.7059 Y4.0897 Z-0.1568 I0.0021 J0.0045
X4.7017 Y4.0806 Z-0.1573 I-0.0021 J-0.0045
X4.7059 Y4.0897 Z-0.1578 I0.0021 J0.0045
X4.7017 Y4.0806 Z-0.1584 I-0.0021 J-0.0045
X4.7059 Y4.0897 Z-0.1589 I0.0021 J0.0045
X4.7017 Y4.0806 Z-0.1595 I-0.0021 J-0.0045
X4.7069 Y4.089 Z-0.16 I0.0021 J0.0045
X4.6489 Y4.1322 I-0.5127 J-0.6276 F40.
G2 X4.6234 Y4.1503 I0.4464 J0.6587
G3 X4.5928 Y4.1442 I-0.0126 J-0.0171
X4.6008 Y4.1151 I0.0177 J-0.0108
G2 X4.6267 Y4.0995 I-0.1293 J-0.2446
X4.7473 Y2.99 I-0.4106 J-0.6059
X4.6898 Y2.9359 I-0.5029 J0.4766
X4.6267 Y2.8882 I-0.4955 J0.5904
X4.6008 Y2.8726 I-0.1553 J0.2292
G3 X4.5928 Y2.8435 I0.0097 J-0.0184
X4.6234 Y2.8374 I0.0181 J0.011
G2 X4.6489 Y2.8555 I0.4715 J-0.64
G3 X4.776 Y4.0249 I-0.4328 J0.6387
X4.7154 Y4.082 I-0.5315 J-0.5036
X4.7069 Y4.089 I-0.5211 J-0.6206
G2 X4.6947 Y4.128 I0.0236 J0.0289
G3 X4.6808 Y4.1665 I-0.0338 J0.0095
X4.644 Y4.1903 I-0.462 J-0.6726
X4.5752 Y4.0776 I-0.0344 J-0.0563
G2 Y2.9101 I-0.3565 J-0.5838
G3 X4.644 Y2.7974 I0.0344 J-0.0563
X4.6808 Y4.1665 I-0.4252 J0.6964
G1 X4.6793 Y4.1671
X4.6777 Y4.1673
X4.6762 Y4.1669
X4.6749 Y4.166
X4.6739 Y4.1648
X4.663 Y4.1444
X4.6466 Y4.1286
X4.6457 Y4.1273
X4.6452 Y4.1258
Y4.1242
X4.6458 Y4.1228
X4.6469 Y4.1216
X4.6482 Y4.1208
G3 X4.6517 Y4.1302 Z-0.1605 I0.0017 J0.0047 F20.
X4.6482 Y4.1208 Z-0.1611 I-0.0017 J-0.0047
X4.6517 Y4.1302 Z-0.1616 I0.0017 J0.0047
X4.6482 Y4.1208 Z-0.1622 I-0.0017 J-0.0047
X4.6517 Y4.1302 Z-0.1627 I0.0017 J0.0047
X4.6482 Y4.1208 Z-0.1633 I-0.0017 J-0.0047
X4.6517 Y4.1302 Z-0.1638 I0.0017 J0.0047
X4.6482 Y4.1208 Z-0.1644 I-0.0017 J-0.0047
X4.6517 Y4.1302 Z-0.1649 I0.0017 J0.0047
X4.6482 Y4.1208 Z-0.1655 I-0.0017 J-0.0047
X4.6517 Y4.1302 Z-0.166 I0.0017 J0.0047
X4.6482 Y4.1208 Z-0.1666 I-0.0017 J-0.0047
X4.6517 Y4.1302 Z-0.1671 I0.0017 J0.0047
X4.6482 Y4.1208 Z-0.1677 I-0.0017 J-0.0047
X4.6517 Y4.1302 Z-0.1682 I0.0017 J0.0047
X4.6482 Y4.1208 Z-0.1688 I-0.0017 J-0.0047
X4.6517 Y4.1302 Z-0.1693 I0.0017 J0.0047
X4.6482 Y4.1208 Z-0.1699 I-0.0017 J-0.0047
X4.6517 Y4.1302 Z-0.1704 I0.0017 J0.0047
X4.6482 Y4.1208 Z-0.171 I-0.0017 J-0.0047
X4.6517 Y4.1302 Z-0.1715 I0.0017 J0.0047
X4.6482 Y4.1208 Z-0.1721 I-0.0017 J-0.0047
X4.6517 Y4.1302 Z-0.1726 I0.0017 J0.0047
X4.6482 Y4.1208 Z-0.1732 I-0.0017 J-0.0047
X4.6517 Y4.1302 Z-0.1737 I0.0017 J0.0047
X4.6482 Y4.1208 Z-0.1743 I-0.0017 J-0.0047
X4.6517 Y4.1302 Z-0.1748 I0.0017 J0.0047
X4.6482 Y4.1208 Z-0.1754 I-0.0017 J-0.0047
X4.6517 Y4.1302 Z-0.1759 I0.0017 J0.0047
X4.6482 Y4.1208 Z-0.1765 I-0.0017 J-0.0047
X4.6517 Y4.1302 Z-0.177 I0.0017 J0.0047
X4.6482 Y4.1208 Z-0.1776 I-0.0017 J-0.0047
X4.6517 Y4.1302 Z-0.1781 I0.0017 J0.0047
X4.6482 Y4.1208 Z-0.1787 I-0.0017 J-0.0047
X4.6517 Y4.1302 Z-0.1792 I0.0017 J0.0047
X4.6482 Y4.1208 Z-0.1797 I-0.0017 J-0.0047
X4.6517 Y4.1302 Z-0.1803 I0.0017 J0.0047
X4.6482 Y4.1208 Z-0.1808 I-0.0017 J-0.0047
X4.6517 Y4.1302 Z-0.1814 I0.0017 J0.0047
X4.6482 Y4.1208 Z-0.1819 I-0.0017 J-0.0047
X4.6517 Y4.1302 Z-0.1825 I0.0017 J0.0047
X4.6482 Y4.1208 Z-0.183 I-0.0017 J-0.0047
X4.6517 Y4.1302 Z-0.1836 I0.0017 J0.0047
X4.6482 Y4.1208 Z-0.1841 I-0.0017 J-0.0047
X4.6517 Y4.1302 Z-0.1847 I0.0017 J0.0047
X4.6482 Y4.1208 Z-0.1852 I-0.0017 J-0.0047
X4.6517 Y4.1302 Z-0.1858 I0.0017 J0.0047
X4.6482 Y4.1208 Z-0.1863 I-0.0017 J-0.0047
X4.6517 Y4.1302 Z-0.1869 I0.0017 J0.0047
X4.6482 Y4.1208 Z-0.1874 I-0.0017 J-0.0047
X4.6517 Y4.1302 Z-0.188 I0.0017 J0.0047
X4.6482 Y4.1208 Z-0.1885 I-0.0017 J-0.0047
X4.6517 Y4.1302 Z-0.1891 I0.0017 J0.0047
X4.6482 Y4.1208 Z-0.1896 I-0.0017 J-0.0047
X4.6517 Y4.1302 Z-0.1902 I0.0017 J0.0047
X4.6482 Y4.1208 Z-0.1907 I-0.0017 J-0.0047
X4.6517 Y4.1302 Z-0.1913 I0.0017 J0.0047
X4.6482 Y4.1208 Z-0.1918 I-0.0017 J-0.0047
X4.6517 Y4.1302 Z-0.1924 I0.0017 J0.0047
X4.6482 Y4.1208 Z-0.1929 I-0.0017 J-0.0047
X4.6517 Y4.1302 Z-0.1935 I0.0017 J0.0047
X4.6482 Y4.1208 Z-0.194 I-0.0017 J-0.0047
X4.6517 Y4.1302 Z-0.1946 I0.0017 J0.0047
X4.6482 Y4.1208 Z-0.1951 I-0.0017 J-0.0047
X4.6517 Y4.1302 Z-0.1957 I0.0017 J0.0047
X4.6482 Y4.1208 Z-0.1962 I-0.0017 J-0.0047
X4.6517 Y4.1302 Z-0.1968 I0.0017 J0.0047
X4.6482 Y4.1208 Z-0.1973 I-0.0017 J-0.0047
X4.6517 Y4.1302 Z-0.1978 I0.0017 J0.0047
X4.6482 Y4.1208 Z-0.1984 I-0.0017 J-0.0047
X4.6517 Y4.1302 Z-0.1989 I0.0017 J0.0047
X4.6482 Y4.1208 Z-0.1995 I-0.0017 J-0.0047
X4.6528 Y4.1296 Z-0.2 I0.0017 J0.0047
G1 X4.6489 Y4.1322 F40.
G2 X4.6234 Y4.1503 I0.4464 J0.6587
G3 X4.5928 Y4.1442 I-0.0126 J-0.0171
X4.6008 Y4.1151 I0.0177 J-0.0108
G2 X4.6267 Y4.0995 I-0.1293 J-0.2446
X4.7473 Y2.99 I-0.4106 J-0.6059
X4.6898 Y2.9359 I-0.5029 J0.4766
X4.6267 Y2.8882 I-0.4955 J0.5904
X4.6008 Y2.8726 I-0.1553 J0.2292
G3 X4.5928 Y2.8435 I0.0097 J-0.0184
X4.6234 Y2.8374 I0.0181 J0.011
G2 X4.6489 Y2.8555 I0.4715 J-0.64
G3 X4.776 Y4.0249 I-0.4328 J0.6387
X4.7154 Y4.082 I-0.5315 J-0.5036
X4.6528 Y4.1296 I-0.5211 J-0.6206
G2 X4.6396 Y4.1666 I0.019 J0.0276
G3 X4.618 Y4.1994 I-0.0248 J0.0072
X4.5752 Y4.0776 I-0.0084 J-0.0655
G2 Y2.9101 I-0.3565 J-0.5838
G3 X4.644 Y2.7974 I0.0344 J-0.0563
Y4.1903 I-0.4252 J0.6964
X4.618 Y4.1994 I-0.0344 J-0.0563
G1 X4.6161 Y4.1993
X4.6143 Y4.1986
X4.6129 Y4.1974
X4.6119 Y4.1958
X4.6114 Y4.1939
X4.6064 Y4.1221
X4.6036 Y4.119
G3 X4.6132 Y4.1122 I0.0048 J-0.0034
X4.6099 Y4.1213 I-0.0048 J0.0034
X4.6073 Y4.1117 Z-0.2005 I-0.0013 J-0.0048 F20.
X4.6099 Y4.1213 Z-0.2011 I0.0013 J0.0048
X4.6073 Y4.1117 Z-0.2016 I-0.0013 J-0.0048
X4.6099 Y4.1213 Z-0.2022 I0.0013 J0.0048
X4.6073 Y4.1117 Z-0.2027 I-0.0013 J-0.0048
X4.6099 Y4.1213 Z-0.2033 I0.0013 J0.0048
X4.6073 Y4.1117 Z-0.2038 I-0.0013 J-0.0048
X4.6099 Y4.1213 Z-0.2044 I0.0013 J0.0048
X4.6073 Y4.1117 Z-0.2049 I-0.0013 J-0.0048
X4.6099 Y4.1213 Z-0.2055 I0.0013 J0.0048
X4.6073 Y4.1117 Z-0.206 I-0.0013 J-0.0048
X4.6099 Y4.1213 Z-0.2066 I0.0013 J0.0048
X4.6073 Y4.1117 Z-0.2071 I-0.0013 J-0.0048
X4.6099 Y4.1213 Z-0.2077 I0.0013 J0.0048
X4.6073 Y4.1117 Z-0.2082 I-0.0013 J-0.0048
X4.6099 Y4.1213 Z-0.2088 I0.0013 J0.0048
X4.6073 Y4.1117 Z-0.2093 I-0.0013 J-0.0048
X4.6099 Y4.1213 Z-0.2099 I0.0013 J0.0048
X4.6073 Y4.1117 Z-0.2104 I-0.0013 J-0.0048
X4.6099 Y4.1213 Z-0.211 I0.0013 J0.0048
X4.6073 Y4.1117 Z-0.2115 I-0.0013 J-0.0048
X4.6099 Y4.1213 Z-0.2121 I0.0013 J0.0048
X4.6073 Y4.1117 Z-0.2126 I-0.0013 J-0.0048
X4.6099 Y4.1213 Z-0.2132 I0.0013 J0.0048
X4.6073 Y4.1117 Z-0.2137 I-0.0013 J-0.0048
X4.6099 Y4.1213 Z-0.2143 I0.0013 J0.0048
X4.6073 Y4.1117 Z-0.2148 I-0.0013 J-0.0048
X4.6099 Y4.1213 Z-0.2154 I0.0013 J0.0048
X4.6073 Y4.1117 Z-0.2159 I-0.0013 J-0.0048
X4.6099 Y4.1213 Z-0.2165 I0.0013 J0.0048
X4.6073 Y4.1117 Z-0.217 I-0.0013 J-0.0048
X4.6099 Y4.1213 Z-0.2176 I0.0013 J0.0048
X4.6073 Y4.1117 Z-0.2181 I-0.0013 J-0.0048
X4.6099 Y4.1213 Z-0.2187 I0.0013 J0.0048
X4.6073 Y4.1117 Z-0.2192 I-0.0013 J-0.0048
X4.6099 Y4.1213 Z-0.2197 I0.0013 J0.0048
X4.6073 Y4.1117 Z-0.2203 I-0.0013 J-0.0048
X4.6099 Y4.1213 Z-0.2208 I0.0013 J0.0048
X4.6073 Y4.1117 Z-0.2214 I-0.0013 J-0.0048
X4.6099 Y4.1213 Z-0.2219 I0.0013 J0.0048
X4.6073 Y4.1117 Z-0.2225 I-0.0013 J-0.0048
X4.6099 Y4.1213 Z-0.223 I0.0013 J0.0048
X4.6073 Y4.1117 Z-0.2236 I-0.0013 J-0.0048
X4.6099 Y4.1213 Z-0.2241 I0.0013 J0.0048
X4.6073 Y4.1117 Z-0.2247 I-0.0013 J-0.0048
X4.6099 Y4.1213 Z-0.2252 I0.0013 J0.0048
X4.6073 Y4.1117 Z-0.2258 I-0.0013 J-0.0048
X4.6099 Y4.1213 Z-0.2263 I0.0013 J0.0048
X4.6073 Y4.1117 Z-0.2269 I-0.0013 J-0.0048
X4.6099 Y4.1213 Z-0.2274 I0.0013 J0.0048
X4.6073 Y4.1117 Z-0.228 I-0.0013 J-0.0048
X4.6099 Y4.1213 Z-0.2285 I0.0013 J0.0048
X4.6073 Y4.1117 Z-0.2291 I-0.0013 J-0.0048
X4.6099 Y4.1213 Z-0.2296 I0.0013 J0.0048
X4.6073 Y4.1117 Z-0.2302 I-0.0013 J-0.0048
X4.6099 Y4.1213 Z-0.2307 I0.0013 J0.0048
X4.6073 Y4.1117 Z-0.2313 I-0.0013 J-0.0048
X4.6099 Y4.1213 Z-0.2318 I0.0013 J0.0048
X4.6073 Y4.1117 Z-0.2324 I-0.0013 J-0.0048
X4.6099 Y4.1213 Z-0.2329 I0.0013 J0.0048
X4.6073 Y4.1117 Z-0.2335 I-0.0013 J-0.0048
X4.6099 Y4.1213 Z-0.234 I0.0013 J0.0048
X4.6073 Y4.1117 Z-0.2346 I-0.0013 J-0.0048
X4.6099 Y4.1213 Z-0.2351 I0.0013 J0.0048
X4.6073 Y4.1117 Z-0.2357 I-0.0013 J-0.0048
X4.6099 Y4.1213 Z-0.2362 I0.0013 J0.0048
X4.6073 Y4.1117 Z-0.2368 I-0.0013 J-0.0048
X4.6099 Y4.1213 Z-0.2373 I0.0013 J0.0048
X4.6073 Y4.1117 Z-0.2378 I-0.0013 J-0.0048
X4.6099 Y4.1213 Z-0.2384 I0.0013 J0.0048
X4.6073 Y4.1117 Z-0.2389 I-0.0013 J-0.0048
X4.6099 Y4.1213 Z-0.2395 I0.0013 J0.0048
X4.6062 Y4.1121 Z-0.24 I-0.0013 J-0.0048
G2 X4.6267 Y4.0995 I-0.1347 J-0.2416 F40.
X4.7473 Y2.99 I-0.4106 J-0.6059
X4.6898 Y2.9359 I-0.5029 J0.4766
X4.6267 Y2.8882 I-0.4955 J0.5904
X4.6008 Y2.8726 I-0.1553 J0.2292
G3 X4.5928 Y2.8435 I0.0097 J-0.0184
X4.6234 Y2.8374 I0.0181 J0.011
G2 X4.6489 Y2.8555 I0.4715 J-0.64
G3 X4.776 Y4.0249 I-0.4328 J0.6387
X4.7154 Y4.082 I-0.5315 J-0.5036
X4.6489 Y4.1322 I-0.5211 J-0.6206
G2 X4.6234 Y4.1503 I0.4464 J0.6587
G3 X4.5928 Y4.1442 I-0.0126 J-0.0171
X4.6008 Y4.1151 I0.0177 J-0.0108
G1 X4.6062 Y4.1121
G2 X4.6246 Y4.0731 I-0.018 J-0.0324
G3 X4.64 Y4.0328 I0.041 J-0.0075
G2 X4.5752 Y2.9101 I-0.4212 J-0.5389
G3 X4.644 Y2.7974 I0.0344 J-0.0563
Y4.1903 I-0.4252 J0.6964
X4.5752 Y4.0776 I-0.0344 J-0.0563
G2 X4.64 Y4.0328 I-0.3565 J-0.5838
G1 X4.6415 Y4.032
X4.6431 Y4.0316
X4.6448 Y4.0317
X4.6464 Y4.0322
X4.6478 Y4.0333
X4.6809 Y4.0658
X4.6824 Y4.0668
X4.6834 Y4.0681
X4.6973 Y4.0911
G3 X4.6886 Y4.0988 I-0.0051 J0.003
X4.6948 Y4.0909 Z-0.2405 I0.0031 J-0.0039 F20.
X4.6886 Y4.0988 Z-0.2411 I-0.0031 J0.0039
X4.6948 Y4.0909 Z-0.2416 I0.0031 J-0.0039
X4.6886 Y4.0988 Z-0.2422 I-0.0031 J0.0039
X4.6948 Y4.0909 Z-0.2427 I0.0031 J-0.0039
X4.6886 Y4.0988 Z-0.2433 I-0.0031 J0.0039
X4.6948 Y4.0909 Z-0.2438 I0.0031 J-0.0039
X4.6886 Y4.0988 Z-0.2444 I-0.0031 J0.0039
X4.6948 Y4.0909 Z-0.2449 I0.0031 J-0.0039
X4.6886 Y4.0988 Z-0.2455 I-0.0031 J0.0039
X4.6948 Y4.0909 Z-0.246 I0.0031 J-0.0039
X4.6886 Y4.0988 Z-0.2466 I-0.0031 J0.0039
X4.6948 Y4.0909 Z-0.2471 I0.0031 J-0.0039
X4.6886 Y4.0988 Z-0.2477 I-0.0031 J0.0039
X4.6948 Y4.0909 Z-0.2482 I0.0031 J-0.0039
X4.6886 Y4.0988 Z-0.2488 I-0.0031 J0.0039
X4.6948 Y4.0909 Z-0.2493 I0.0031 J-0.0039
X4.6886 Y4.0988 Z-0.2499 I-0.0031 J0.0039
X4.6948 Y4.0909 Z-0.2504 I0.0031 J-0.0039
X4.6886 Y4.0988 Z-0.251 I-0.0031 J0.0039
X4.6948 Y4.0909 Z-0.2515 I0.0031 J-0.0039
X4.6886 Y4.0988 Z-0.2521 I-0.0031 J0.0039
X4.6948 Y4.0909 Z-0.2526 I0.0031 J-0.0039
X4.6886 Y4.0988 Z-0.2532 I-0.0031 J0.0039
X4.6948 Y4.0909 Z-0.2537 I0.0031 J-0.0039
X4.6886 Y4.0988 Z-0.2543 I-0.0031 J0.0039
X4.6948 Y4.0909 Z-0.2548 I0.0031 J-0.0039
X4.6886 Y4.0988 Z-0.2554 I-0.0031 J0.0039
X4.6948 Y4.0909 Z-0.2559 I0.0031 J-0.0039
X4.6886 Y4.0988 Z-0.2565 I-0.0031 J0.0039
X4.6948 Y4.0909 Z-0.257 I0.0031 J-0.0039
X4.6886 Y4.0988 Z-0.2576 I-0.0031 J0.0039
X4.6948 Y4.0909 Z-0.2581 I0.0031 J-0.0039
X4.6886 Y4.0988 Z-0.2587 I-0.0031 J0.0039
X4.6948 Y4.0909 Z-0.2592 I0.0031 J-0.0039
X4.6886 Y4.0988 Z-0.2597 I-0.0031 J0.0039
X4.6948 Y4.0909 Z-0.2603 I0.0031 J-0.0039
X4.6886 Y4.0988 Z-0.2608 I-0.0031 J0.0039
X4.6948 Y4.0909 Z-0.2614 I0.0031 J-0.0039
X4.6886 Y4.0988 Z-0.2619 I-0.0031 J0.0039
X4.6948 Y4.0909 Z-0.2625 I0.0031 J-0.0039
X4.6886 Y4.0988 Z-0.263 I-0.0031 J0.0039
X4.6948 Y4.0909 Z-0.2636 I0.0031 J-0.0039
X4.6886 Y4.0988 Z-0.2641 I-0.0031 J0.0039
X4.6948 Y4.0909 Z-0.2647 I0.0031 J-0.0039
Y4.0988 Z-0.265 I-0.0031 J0.0039
X4.6489 Y4.1322 I-0.5005 J-0.6374 F40.
G2 X4.6234 Y4.1503 I0.4464 J0.6587
G3 X4.5928 Y4.1442 I-0.0126 J-0.0171
X4.6008 Y4.1151 I0.0177 J-0.0108
G2 X4.6267 Y4.0995 I-0.1293 J-0.2446
X4.7473 Y2.99 I-0.4106 J-0.6059
X4.6898 Y2.9359 I-0.5029 J0.4766
X4.6267 Y2.8882 I-0.4955 J0.5904
X4.6008 Y2.8726 I-0.1553 J0.2292
G3 X4.5928 Y2.8435 I0.0097 J-0.0184
X4.6234 Y2.8374 I0.0181 J0.011
G2 X4.6489 Y2.8555 I0.4715 J-0.64
G3 X4.776 Y4.0249 I-0.4328 J0.6387
X4.7154 Y4.082 I-0.5315 J-0.5036
X4.6948 Y4.0988 I-0.5211 J-0.6206
G2 X4.6817 Y4.1375 I0.023 J0.0293
G3 X4.667 Y4.1757 I-0.0339 J0.0089
X4.644 Y4.1903 I-0.4483 J-0.6818
X4.5752 Y4.0776 I-0.0344 J-0.0563
G2 Y2.9101 I-0.3565 J-0.5838
G3 X4.644 Y2.7974 I0.0344 J-0.0563
X4.667 Y4.1757 I-0.4252 J0.6964
G1 X4.6655 Y4.1764
X4.6638 Y4.1767
X4.6621 Y4.1764
X4.6606 Y4.1757
X4.6593 Y4.1746
X4.6289 Y4.139
X4.6275 Y4.1379
X4.6266 Y4.1365
X4.6151 Y4.1123
G3 X4.6246 Y4.1056 I0.0053 J-0.0025
X4.6176 Y4.1127 Z-0.2655 I-0.0035 J0.0036 F20.
X4.6246 Y4.1056 Z-0.2661 I0.0035 J-0.0036
X4.6176 Y4.1127 Z-0.2666 I-0.0035 J0.0036
X4.6246 Y4.1056 Z-0.2672 I0.0035 J-0.0036
X4.6176 Y4.1127 Z-0.2677 I-0.0035 J0.0036
X4.6246 Y4.1056 Z-0.2683 I0.0035 J-0.0036
X4.6176 Y4.1127 Z-0.2688 I-0.0035 J0.0036
X4.6246 Y4.1056 Z-0.2694 I0.0035 J-0.0036
X4.6176 Y4.1127 Z-0.2699 I-0.0035 J0.0036
X4.6246 Y4.1056 Z-0.2705 I0.0035 J-0.0036
X4.6176 Y4.1127 Z-0.271 I-0.0035 J0.0036
X4.6246 Y4.1056 Z-0.2716 I0.0035 J-0.0036
X4.6176 Y4.1127 Z-0.2721 I-0.0035 J0.0036
X4.6246 Y4.1056 Z-0.2727 I0.0035 J-0.0036
X4.6176 Y4.1127 Z-0.2732 I-0.0035 J0.0036
X4.6246 Y4.1056 Z-0.2738 I0.0035 J-0.0036
X4.6176 Y4.1127 Z-0.2743 I-0.0035 J0.0036
X4.6246 Y4.1056 Z-0.2749 I0.0035 J-0.0036
X4.6176 Y4.1127 Z-0.2754 I-0.0035 J0.0036
X4.6246 Y4.1056 Z-0.276 I0.0035 J-0.0036
X4.6176 Y4.1127 Z-0.2765 I-0.0035 J0.0036
X4.6246 Y4.1056 Z-0.2771 I0.0035 J-0.0036
X4.6176 Y4.1127 Z-0.2776 I-0.0035 J0.0036
X4.6246 Y4.1056 Z-0.2782 I0.0035 J-0.0036
X4.6176 Y4.1127 Z-0.2787 I-0.0035 J0.0036
X4.6246 Y4.1056 Z-0.2793 I0.0035 J-0.0036
X4.6176 Y4.1127 Z-0.2798 I-0.0035 J0.0036
X4.6246 Y4.1056 Z-0.2804 I0.0035 J-0.0036
X4.6176 Y4.1127 Z-0.2809 I-0.0035 J0.0036
X4.6246 Y4.1056 Z-0.2815 I0.0035 J-0.0036
X4.6176 Y4.1127 Z-0.282 I-0.0035 J0.0036
X4.6246 Y4.1056 Z-0.2826 I0.0035 J-0.0036
X4.6176 Y4.1127 Z-0.2831 I-0.0035 J0.0036
X4.6246 Y4.1056 Z-0.2837 I0.0035 J-0.0036
X4.6176 Y4.1127 Z-0.2842 I-0.0035 J0.0036
X4.6246 Y4.1056 Z-0.2847 I0.0035 J-0.0036
X4.6176 Y4.1127 Z-0.2853 I-0.0035 J0.0036
X4.6246 Y4.1056 Z-0.2858 I0.0035 J-0.0036
X4.6176 Y4.1127 Z-0.2864 I-0.0035 J0.0036
X4.6246 Y4.1056 Z-0.2869 I0.0035 J-0.0036
X4.6176 Y4.1127 Z-0.2875 I-0.0035 J0.0036
X4.6246 Y4.1056 Z-0.288 I0.0035 J-0.0036
X4.6176 Y4.1127 Z-0.2886 I-0.0035 J0.0036
X4.6246 Y4.1056 Z-0.2891 I0.0035 J-0.0036
X4.6176 Y4.1127 Z-0.2897 I-0.0035 J0.0036
X4.6184 Y4.1049 Z-0.29 I0.0035 J-0.0036
G2 X4.6267 Y4.0995 I-0.1469 J-0.2344 F40.
X4.7473 Y2.99 I-0.4106 J-0.6059
X4.6898 Y2.9359 I-0.5029 J0.4766
X4.6267 Y2.8882 I-0.4955 J0.5904
X4.6008 Y2.8726 I-0.1553 J0.2292
G3 X4.5928 Y2.8435 I0.0097 J-0.0184
X4.6234 Y2.8374 I0.0181 J0.011
G2 X4.6489 Y2.8555 I0.4715 J-0.64
G3 X4.776 Y4.0249 I-0.4328 J0.6387
X4.7154 Y4.082 I-0.5315 J-0.5036
X4.6489 Y4.1322 I-0.5211 J-0.6206
G2 X4.6234 Y4.1503 I0.4464 J0.6587
G3 X4.5928 Y4.1442 I-0.0126 J-0.0171
X4.6008 Y4.1151 I0.0177 J-0.0108
G2 X4.6184 Y4.1049 I-0.1293 J-0.2446
X4.6353 Y4.0654 I-0.02 J-0.0319
G3 X4.6498 Y4.025 I0.0405 J-0.0083
G2 X4.5752 Y2.9101 I-0.431 J-0.5311
G3 X4.644 Y2.7974 I0.0344 J-0.0563
Y4.1903 I-0.4252 J0.6964
X4.5752 Y4.0776 I-0.0344 J-0.0563
G2 X4.6498 Y4.025 I-0.3565 J-0.5838
G1 X4.6516 Y4.0238 Z-0.2896
X4.6537 Y4.0229 Z-0.2891
X4.6556 Y4.0225 Z-0.2878
X4.6575 Y4.0224 Z-0.2865
X4.66 Y4.0227 Z-0.2827
X4.6609 Y4.023 Z-0.2782
G0 Z0.2
X0.5712 Y3.3166
G1 Z0.1118 F40.
X0.5713 Y3.318 Z0.1063 F20.
X0.5711 Y3.3192 Z0.1049
X0.5706 Y3.3203 Z0.1035
X0.5698 Y3.3213 Z0.1021
X0.5684 Y3.3223 Z0.1014
X0.5667 Y3.3227 Z0.1008
X0.565 Y3.3226 Z0.1001
X0.564 Y3.3222 Z0.1
G3 X0.5686 Y3.3133 Z0.0995 I0.0023 J-0.0044
X0.564 Y3.3222 Z0.0989 I-0.0023 J0.0044
X0.5686 Y3.3133 Z0.0984 I0.0023 J-0.0044
X0.564 Y3.3222 Z0.0978 I-0.0023 J0.0044
X0.5686 Y3.3133 Z0.0973 I0.0023 J-0.0044
X0.564 Y3.3222 Z0.0967 I-0.0023 J0.0044
X0.5686 Y3.3133 Z0.0962 I0.0023 J-0.0044
X0.564 Y3.3222 Z0.0956 I-0.0023 J0.0044
X0.5686 Y3.3133 Z0.0951 I0.0023 J-0.0044
X0.564 Y3.3222 Z0.0945 I-0.0023 J0.0044
X0.5686 Y3.3133 Z0.094 I0.0023 J-0.0044
X0.564 Y3.3222 Z0.0934 I-0.0023 J0.0044
X0.5686 Y3.3133 Z0.0929 I0.0023 J-0.0044
X0.564 Y3.3222 Z0.0923 I-0.0023 J0.0044
X0.5686 Y3.3133 Z0.0918 I0.0023 J-0.0044
X0.564 Y3.3222 Z0.0912 I-0.0023 J0.0044
X0.5686 Y3.3133 Z0.0907 I0.0023 J-0.0044
X0.564 Y3.3222 Z0.0901 I-0.0023 J0.0044
X0.5686 Y3.3133 Z0.0896 I0.0023 J-0.0044
X0.564 Y3.3222 Z0.089 I-0.0023 J0.0044
X0.5686 Y3.3133 Z0.0885 I0.0023 J-0.0044
X0.564 Y3.3222 Z0.0879 I-0.0023 J0.0044
X0.5686 Y3.3133 Z0.0874 I0.0023 J-0.0044
X0.564 Y3.3222 Z0.0868 I-0.0023 J0.0044
X0.5686 Y3.3133 Z0.0863 I0.0023 J-0.0044
X0.564 Y3.3222 Z0.0857 I-0.0023 J0.0044
X0.5686 Y3.3133 Z0.0852 I0.0023 J-0.0044
X0.564 Y3.3222 Z0.0846 I-0.0023 J0.0044
X0.5686 Y3.3133 Z0.0841 I0.0023 J-0.0044
X0.564 Y3.3222 Z0.0835 I-0.0023 J0.0044
X0.5686 Y3.3133 Z0.083 I0.0023 J-0.0044
X0.564 Y3.3222 Z0.0824 I-0.0023 J0.0044
X0.5686 Y3.3133 Z0.0819 I0.0023 J-0.0044
X0.564 Y3.3222 Z0.0813 I-0.0023 J0.0044
X0.5686 Y3.3133 Z0.0808 I0.0023 J-0.0044
X0.564 Y3.3222 Z0.0803 I-0.0023 J0.0044
X0.5686 Y3.3133 Z0.0797 I0.0023 J-0.0044
X0.564 Y3.3222 Z0.0792 I-0.0023 J0.0044
X0.5686 Y3.3133 Z0.0786 I0.0023 J-0.0044
X0.564 Y3.3222 Z0.0781 I-0.0023 J0.0044
X0.5686 Y3.3133 Z0.0775 I0.0023 J-0.0044
X0.564 Y3.3222 Z0.077 I-0.0023 J0.0044
X0.5686 Y3.3133 Z0.0764 I0.0023 J-0.0044
X0.564 Y3.3222 Z0.0759 I-0.0023 J0.0044
X0.5686 Y3.3133 Z0.0753 I0.0023 J-0.0044
X0.564 Y3.3222 Z0.0748 I-0.0023 J0.0044
X0.5686 Y3.3133 Z0.0742 I0.0023 J-0.0044
X0.564 Y3.3222 Z0.0737 I-0.0023 J0.0044
X0.5686 Y3.3133 Z0.0731 I0.0023 J-0.0044
X0.564 Y3.3222 Z0.0726 I-0.0023 J0.0044
X0.5686 Y3.3133 Z0.072 I0.0023 J-0.0044
X0.564 Y3.3222 Z0.0715 I-0.0023 J0.0044
X0.5686 Y3.3133 Z0.0709 I0.0023 J-0.0044
X0.564 Y3.3222 Z0.0704 I-0.0023 J0.0044
X0.5686 Y3.3133 Z0.0698 I0.0023 J-0.0044
X0.564 Y3.3222 Z0.0693 I-0.0023 J0.0044
X0.5686 Y3.3133 Z0.0687 I0.0023 J-0.0044
X0.564 Y3.3222 Z0.0682 I-0.0023 J0.0044
X0.5686 Y3.3133 Z0.0676 I0.0023 J-0.0044
X0.564 Y3.3222 Z0.0671 I-0.0023 J0.0044
X0.5686 Y3.3133 Z0.0665 I0.0023 J-0.0044
X0.564 Y3.3222 Z0.066 I-0.0023 J0.0044
X0.5686 Y3.3133 Z0.0654 I0.0023 J-0.0044
X0.564 Y3.3222 Z0.0649 I-0.0023 J0.0044
X0.5686 Y3.3133 Z0.0643 I0.0023 J-0.0044
X0.564 Y3.3222 Z0.0638 I-0.0023 J0.0044
X0.5686 Y3.3133 Z0.0632 I0.0023 J-0.0044
X0.564 Y3.3222 Z0.0627 I-0.0023 J0.0044
X0.5686 Y3.3133 Z0.0622 I0.0023 J-0.0044
X0.564 Y3.3222 Z0.0616 I-0.0023 J0.0044
X0.5686 Y3.3133 Z0.0611 I0.0023 J-0.0044
X0.564 Y3.3222 Z0.0605 I-0.0023 J0.0044
X0.5686 Y3.3133 Z0.06 I0.0023 J-0.0044
X0.564 Y3.3222 Z0.0594 I-0.0023 J0.0044
X0.5686 Y3.3133 Z0.0589 I0.0023 J-0.0044
X0.564 Y3.3222 Z0.0583 I-0.0023 J0.0044
X0.5686 Y3.3133 Z0.0578 I0.0023 J-0.0044
X0.564 Y3.3222 Z0.0572 I-0.0023 J0.0044
X0.5686 Y3.3133 Z0.0567 I0.0023 J-0.0044
X0.564 Y3.3222 Z0.0561 I-0.0023 J0.0044
X0.5686 Y3.3133 Z0.0556 I0.0023 J-0.0044
X0.564 Y3.3222 Z0.055 I-0.0023 J0.0044
X0.5686 Y3.3133 Z0.0545 I0.0023 J-0.0044
X0.564 Y3.3222 Z0.0539 I-0.0023 J0.0044
X0.5686 Y3.3133 Z0.0534 I0.0023 J-0.0044
X0.564 Y3.3222 Z0.0528 I-0.0023 J0.0044
X0.5686 Y3.3133 Z0.0523 I0.0023 J-0.0044
X0.564 Y3.3222 Z0.0517 I-0.0023 J0.0044
X0.5686 Y3.3133 Z0.0512 I0.0023 J-0.0044
X0.564 Y3.3222 Z0.0506 I-0.0023 J0.0044
X0.5686 Y3.3133 Z0.0501 I0.0023 J-0.0044
X0.564 Y3.3222 Z0.0495 I-0.0023 J0.0044
X0.5686 Y3.3133 Z0.049 I0.0023 J-0.0044
X0.564 Y3.3222 Z0.0484 I-0.0023 J0.0044
X0.5686 Y3.3133 Z0.0479 I0.0023 J-0.0044
X0.564 Y3.3222 Z0.0473 I-0.0023 J0.0044
X0.5686 Y3.3133 Z0.0468 I0.0023 J-0.0044
X0.564 Y3.3222 Z0.0462 I-0.0023 J0.0044
X0.5686 Y3.3133 Z0.0457 I0.0023 J-0.0044
X0.564 Y3.3222 Z0.0451 I-0.0023 J0.0044
X0.5686 Y3.3133 Z0.0446 I0.0023 J-0.0044
X0.564 Y3.3222 Z0.044 I-0.0023 J0.0044
X0.5686 Y3.3133 Z0.0435 I0.0023 J-0.0044
X0.564 Y3.3222 Z0.043 I-0.0023 J0.0044
X0.5686 Y3.3133 Z0.0424 I0.0023 J-0.0044
X0.564 Y3.3222 Z0.0419 I-0.0023 J0.0044
X0.5686 Y3.3133 Z0.0413 I0.0023 J-0.0044
X0.564 Y3.3222 Z0.0408 I-0.0023 J0.0044
X0.5686 Y3.3133 Z0.0402 I0.0023 J-0.0044
X0.564 Y3.3222 Z0.0397 I-0.0023 J0.0044
X0.5686 Y3.3133 Z0.0391 I0.0023 J-0.0044
X0.564 Y3.3222 Z0.0386 I-0.0023 J0.0044
X0.5686 Y3.3133 Z0.038 I0.0023 J-0.0044
X0.564 Y3.3222 Z0.0375 I-0.0023 J0.0044
X0.5686 Y3.3133 Z0.0369 I0.0023 J-0.0044
X0.564 Y3.3222 Z0.0364 I-0.0023 J0.0044
X0.5686 Y3.3133 Z0.0358 I0.0023 J-0.0044
X0.564 Y3.3222 Z0.0353 I-0.0023 J0.0044
X0.5686 Y3.3133 Z0.0347 I0.0023 J-0.0044
X0.564 Y3.3222 Z0.0342 I-0.0023 J0.0044
X0.5686 Y3.3133 Z0.0336 I0.0023 J-0.0044
X0.564 Y3.3222 Z0.0331 I-0.0023 J0.0044
X0.5686 Y3.3133 Z0.0325 I0.0023 J-0.0044
X0.564 Y3.3222 Z0.032 I-0.0023 J0.0044
X0.5686 Y3.3133 Z0.0314 I0.0023 J-0.0044
X0.564 Y3.3222 Z0.0309 I-0.0023 J0.0044
X0.5686 Y3.3133 Z0.0303 I0.0023 J-0.0044
X0.564 Y3.3222 Z0.0298 I-0.0023 J0.0044
X0.5686 Y3.3133 Z0.0292 I0.0023 J-0.0044
X0.564 Y3.3222 Z0.0287 I-0.0023 J0.0044
X0.5686 Y3.3133 Z0.0281 I0.0023 J-0.0044
X0.564 Y3.3222 Z0.0276 I-0.0023 J0.0044
X0.5686 Y3.3133 Z0.027 I0.0023 J-0.0044
X0.564 Y3.3222 Z0.0265 I-0.0023 J0.0044
X0.5686 Y3.3133 Z0.0259 I0.0023 J-0.0044
X0.564 Y3.3222 Z0.0254 I-0.0023 J0.0044
X0.5686 Y3.3133 Z0.0249 I0.0023 J-0.0044
X0.564 Y3.3222 Z0.0243 I-0.0023 J0.0044
X0.5686 Y3.3133 Z0.0238 I0.0023 J-0.0044
X0.564 Y3.3222 Z0.0232 I-0.0023 J0.0044
X0.5686 Y3.3133 Z0.0227 I0.0023 J-0.0044
X0.564 Y3.3222 Z0.0221 I-0.0023 J0.0044
X0.5686 Y3.3133 Z0.0216 I0.0023 J-0.0044
X0.564 Y3.3222 Z0.021 I-0.0023 J0.0044
X0.5686 Y3.3133 Z0.0205 I0.0023 J-0.0044
X0.564 Y3.3222 Z0.0199 I-0.0023 J0.0044
X0.5686 Y3.3133 Z0.0194 I0.0023 J-0.0044
X0.564 Y3.3222 Z0.0188 I-0.0023 J0.0044
X0.5686 Y3.3133 Z0.0183 I0.0023 J-0.0044
X0.564 Y3.3222 Z0.0177 I-0.0023 J0.0044
X0.5686 Y3.3133 Z0.0172 I0.0023 J-0.0044
X0.564 Y3.3222 Z0.0166 I-0.0023 J0.0044
X0.5686 Y3.3133 Z0.0161 I0.0023 J-0.0044
X0.564 Y3.3222 Z0.0155 I-0.0023 J0.0044
X0.5686 Y3.3133 Z0.015 I0.0023 J-0.0044
X0.564 Y3.3222 Z0.0144 I-0.0023 J0.0044
X0.5686 Y3.3133 Z0.0139 I0.0023 J-0.0044
X0.564 Y3.3222 Z0.0133 I-0.0023 J0.0044
X0.5686 Y3.3133 Z0.0128 I0.0023 J-0.0044
X0.564 Y3.3222 Z0.0122 I-0.0023 J0.0044
X0.5686 Y3.3133 Z0.0117 I0.0023 J-0.0044
X0.564 Y3.3222 Z0.0111 I-0.0023 J0.0044
X0.5686 Y3.3133 Z0.0106 I0.0023 J-0.0044
X0.564 Y3.3222 Z0.01 I-0.0023 J0.0044
X0.5686 Y3.3133 Z0.0095 I0.0023 J-0.0044
X0.564 Y3.3222 Z0.0089 I-0.0023 J0.0044
X0.5686 Y3.3133 Z0.0084 I0.0023 J-0.0044
X0.564 Y3.3222 Z0.0078 I-0.0023 J0.0044
X0.5686 Y3.3133 Z0.0073 I0.0023 J-0.0044
X0.564 Y3.3222 Z0.0067 I-0.0023 J0.0044
X0.5686 Y3.3133 Z0.0062 I0.0023 J-0.0044
X0.564 Y3.3222 Z0.0057 I-0.0023 J0.0044
X0.5686 Y3.3133 Z0.0051 I0.0023 J-0.0044
X0.564 Y3.3222 Z0.0046 I-0.0023 J0.0044
X0.5686 Y3.3133 Z0.004 I0.0023 J-0.0044
X0.564 Y3.3222 Z0.0035 I-0.0023 J0.0044
X0.5686 Y3.3133 Z0.0029 I0.0023 J-0.0044
X0.564 Y3.3222 Z0.0024 I-0.0023 J0.0044
X0.5686 Y3.3133 Z0.0018 I0.0023 J-0.0044
X0.564 Y3.3222 Z0.0013 I-0.0023 J0.0044
X0.5686 Y3.3133 Z0.0007 I0.0023 J-0.0044
X0.564 Y3.3222 Z0.0002 I-0.0023 J0.0044
X0.5686 Y3.3133 Z-0.0004 I0.0023 J-0.0044
X0.564 Y3.3222 Z-0.0009 I-0.0023 J0.0044
X0.5686 Y3.3133 Z-0.0015 I0.0023 J-0.0044
X0.564 Y3.3222 Z-0.002 I-0.0023 J0.0044
X0.5686 Y3.3133 Z-0.0026 I0.0023 J-0.0044
X0.564 Y3.3222 Z-0.0031 I-0.0023 J0.0044
X0.5686 Y3.3133 Z-0.0037 I0.0023 J-0.0044
X0.564 Y3.3222 Z-0.0042 I-0.0023 J0.0044
X0.5686 Y3.3133 Z-0.0048 I0.0023 J-0.0044
X0.564 Y3.3222 Z-0.0053 I-0.0023 J0.0044
X0.5686 Y3.3133 Z-0.0059 I0.0023 J-0.0044
X0.564 Y3.3222 Z-0.0064 I-0.0023 J0.0044
X0.5686 Y3.3133 Z-0.007 I0.0023 J-0.0044
X0.564 Y3.3222 Z-0.0075 I-0.0023 J0.0044
X0.5686 Y3.3133 Z-0.0081 I0.0023 J-0.0044
X0.564 Y3.3222 Z-0.0086 I-0.0023 J0.0044
X0.5686 Y3.3133 Z-0.0092 I0.0023 J-0.0044
X0.564 Y3.3222 Z-0.0097 I-0.0023 J0.0044
X0.5686 Y3.3133 Z-0.0103 I0.0023 J-0.0044
X0.564 Y3.3222 Z-0.0108 I-0.0023 J0.0044
X0.5686 Y3.3133 Z-0.0114 I0.0023 J-0.0044
X0.564 Y3.3222 Z-0.0119 I-0.0023 J0.0044
X0.5686 Y3.3133 Z-0.0124 I0.0023 J-0.0044
X0.564 Y3.3222 Z-0.013 I-0.0023 J0.0044
X0.5686 Y3.3133 Z-0.0135 I0.0023 J-0.0044
X0.564 Y3.3222 Z-0.0141 I-0.0023 J0.0044
X0.5686 Y3.3133 Z-0.0146 I0.0023 J-0.0044
X0.564 Y3.3222 Z-0.0152 I-0.0023 J0.0044
X0.5686 Y3.3133 Z-0.0157 I0.0023 J-0.0044
X0.564 Y3.3222 Z-0.0163 I-0.0023 J0.0044
X0.5686 Y3.3133 Z-0.0168 I0.0023 J-0.0044
X0.564 Y3.3222 Z-0.0174 I-0.0023 J0.0044
X0.5686 Y3.3133 Z-0.0179 I0.0023 J-0.0044
X0.564 Y3.3222 Z-0.0185 I-0.0023 J0.0044
X0.5686 Y3.3133 Z-0.019 I0.0023 J-0.0044
X0.564 Y3.3222 Z-0.0196 I-0.0023 J0.0044
X0.5686 Y3.3133 Z-0.0201 I0.0023 J-0.0044
X0.564 Y3.3222 Z-0.0207 I-0.0023 J0.0044
X0.5686 Y3.3133 Z-0.0212 I0.0023 J-0.0044
X0.564 Y3.3222 Z-0.0218 I-0.0023 J0.0044
X0.5686 Y3.3133 Z-0.0223 I0.0023 J-0.0044
X0.564 Y3.3222 Z-0.0229 I-0.0023 J0.0044
X0.5686 Y3.3133 Z-0.0234 I0.0023 J-0.0044
X0.564 Y3.3222 Z-0.024 I-0.0023 J0.0044
X0.5686 Y3.3133 Z-0.0245 I0.0023 J-0.0044
X0.564 Y3.3222 Z-0.0251 I-0.0023 J0.0044
X0.5686 Y3.3133 Z-0.0256 I0.0023 J-0.0044
X0.564 Y3.3222 Z-0.0262 I-0.0023 J0.0044
X0.5686 Y3.3133 Z-0.0267 I0.0023 J-0.0044
X0.564 Y3.3222 Z-0.0273 I-0.0023 J0.0044
X0.5686 Y3.3133 Z-0.0278 I0.0023 J-0.0044
X0.564 Y3.3222 Z-0.0284 I-0.0023 J0.0044
X0.5686 Y3.3133 Z-0.0289 I0.0023 J-0.0044
X0.564 Y3.3222 Z-0.0295 I-0.0023 J0.0044
X0.5686 Y3.3133 Z-0.03 I0.0023 J-0.0044
X0.564 Y3.3222 Z-0.0306 I-0.0023 J0.0044
X0.5686 Y3.3133 Z-0.0311 I0.0023 J-0.0044
X0.564 Y3.3222 Z-0.0316 I-0.0023 J0.0044
X0.5686 Y3.3133 Z-0.0322 I0.0023 J-0.0044
X0.564 Y3.3222 Z-0.0327 I-0.0023 J0.0044
X0.5686 Y3.3133 Z-0.0333 I0.0023 J-0.0044
X0.564 Y3.3222 Z-0.0338 I-0.0023 J0.0044
X0.5686 Y3.3133 Z-0.0344 I0.0023 J-0.0044
X0.564 Y3.3222 Z-0.0349 I-0.0023 J0.0044
X0.5686 Y3.3133 Z-0.0355 I0.0023 J-0.0044
X0.564 Y3.3222 Z-0.036 I-0.0023 J0.0044
X0.5686 Y3.3133 Z-0.0366 I0.0023 J-0.0044
X0.564 Y3.3222 Z-0.0371 I-0.0023 J0.0044
X0.5686 Y3.3133 Z-0.0377 I0.0023 J-0.0044
X0.564 Y3.3222 Z-0.0382 I-0.0023 J0.0044
X0.5686 Y3.3133 Z-0.0388 I0.0023 J-0.0044
X0.564 Y3.3222 Z-0.0393 I-0.0023 J0.0044
X0.5686 Y3.3133 Z-0.0399 I0.0023 J-0.0044
X0.571 Y3.3159 Z-0.04 I-0.0023 J0.0044
G1 X0.5715 Y3.3174 F40.
G3 X0.5632 Y3.3401 I-0.0171 J0.0066
X0.5337 Y3.33 I-0.0101 J-0.0186
G2 X0.5206 Y3.3017 I-0.741 J0.3248
G3 X0.5085 Y2.6519 I0.6969 J-0.338
X0.8399 Y2.29 I0.7036 J0.3116
X0.9171 Y2.2528 I0.3882 J0.7066
X0.9314 Y2.247 I0.2879 J0.6928
X0.957 Y2.2582 I0.0072 J0.0184
X0.9444 Y2.2853 I-0.0192 J0.0075
G2 X0.9165 Y2.2961 I0.1046 J0.3123
X0.4895 Y3.0682 I0.2928 J0.666
X0.5616 Y3.2953 I0.7346 J-0.1082
G3 X0.571 Y3.3159 I-0.2133 J0.1089
G2 X0.5944 Y3.336 I0.0309 J-0.0122
G3 X0.6042 Y3.3653 I-0.0041 J0.0176
X0.4958 Y3.3543 I-0.0504 J-0.0426
X0.9145 Y2.204 I0.7164 J-0.3906
X1.0001 Y2.2414 I0.0241 J0.0615
X0.9627 Y2.3269 I-0.0615 J0.0241
G2 X0.6117 Y3.2911 I0.2496 J0.6368
G3 X0.6042 Y3.3653 I-0.058 J0.0316
X0.594 Y3.3633 I-0.0045 J-0.0038
G1 X0.5849 Y3.3345
X0.5842 Y3.3328
X0.5831 Y3.3314
X0.5816 Y3.3305
X0.5648 Y3.323
X0.5635 Y3.3222
X0.5625 Y3.3212
X0.5617 Y3.3199
X0.5614 Y3.3184
G3 X0.5713 Y3.3171 Z-0.0405 I0.005 J-0.0007 F20.
X0.5614 Y3.3184 Z-0.0411 I-0.005 J0.0007
X0.5713 Y3.3171 Z-0.0416 I0.005 J-0.0007
X0.5614 Y3.3184 Z-0.0422 I-0.005 J0.0007
X0.5713 Y3.3171 Z-0.0427 I0.005 J-0.0007
X0.5614 Y3.3184 Z-0.0433 I-0.005 J0.0007
X0.5713 Y3.3171 Z-0.0438 I0.005 J-0.0007
X0.5614 Y3.3184 Z-0.0444 I-0.005 J0.0007
X0.5713 Y3.3171 Z-0.0449 I0.005 J-0.0007
X0.5614 Y3.3184 Z-0.0455 I-0.005 J0.0007
X0.5713 Y3.3171 Z-0.046 I0.005 J-0.0007
X0.5614 Y3.3184 Z-0.0466 I-0.005 J0.0007
X0.5713 Y3.3171 Z-0.0471 I0.005 J-0.0007
X0.5614 Y3.3184 Z-0.0477 I-0.005 J0.0007
X0.5713 Y3.3171 Z-0.0482 I0.005 J-0.0007
X0.5614 Y3.3184 Z-0.0488 I-0.005 J0.0007
X0.5713 Y3.3171 Z-0.0493 I0.005 J-0.0007
X0.5614 Y3.3184 Z-0.0499 I-0.005 J0.0007
X0.5713 Y3.3171 Z-0.0504 I0.005 J-0.0007
X0.5614 Y3.3184 Z-0.051 I-0.005 J0.0007
X0.5713 Y3.3171 Z-0.0515 I0.005 J-0.0007
X0.5614 Y3.3184 Z-0.0521 I-0.005 J0.0007
X0.5713 Y3.3171 Z-0.0526 I0.005 J-0.0007
X0.5614 Y3.3184 Z-0.0532 I-0.005 J0.0007
X0.5713 Y3.3171 Z-0.0537 I0.005 J-0.0007
X0.5614 Y3.3184 Z-0.0543 I-0.005 J0.0007
X0.5713 Y3.3171 Z-0.0548 I0.005 J-0.0007
X0.5614 Y3.3184 Z-0.0554 I-0.005 J0.0007
X0.5713 Y3.3171 Z-0.0559 I0.005 J-0.0007
X0.5614 Y3.3184 Z-0.0565 I-0.005 J0.0007
X0.5713 Y3.3171 Z-0.057 I0.005 J-0.0007
X0.5614 Y3.3184 Z-0.0576 I-0.005 J0.0007
X0.5713 Y3.3171 Z-0.0581 I0.005 J-0.0007
X0.5614 Y3.3184 Z-0.0587 I-0.005 J0.0007
X0.5713 Y3.3171 Z-0.0592 I0.005 J-0.0007
X0.5614 Y3.3184 Z-0.0597 I-0.005 J0.0007
X0.5713 Y3.3171 Z-0.0603 I0.005 J-0.0007
X0.5614 Y3.3184 Z-0.0608 I-0.005 J0.0007
X0.5713 Y3.3171 Z-0.0614 I0.005 J-0.0007
X0.5614 Y3.3184 Z-0.0619 I-0.005 J0.0007
X0.5713 Y3.3171 Z-0.0625 I0.005 J-0.0007
X0.5614 Y3.3184 Z-0.063 I-0.005 J0.0007
X0.5713 Y3.3171 Z-0.0636 I0.005 J-0.0007
X0.5614 Y3.3184 Z-0.0641 I-0.005 J0.0007
X0.5713 Y3.3171 Z-0.0647 I0.005 J-0.0007
X0.5614 Y3.3184 Z-0.0652 I-0.005 J0.0007
X0.5713 Y3.3171 Z-0.0658 I0.005 J-0.0007
X0.5614 Y3.3184 Z-0.0663 I-0.005 J0.0007
X0.5713 Y3.3171 Z-0.0669 I0.005 J-0.0007
X0.5614 Y3.3184 Z-0.0674 I-0.005 J0.0007
X0.5713 Y3.3171 Z-0.068 I0.005 J-0.0007
X0.5614 Y3.3184 Z-0.0685 I-0.005 J0.0007
X0.5713 Y3.3171 Z-0.0691 I0.005 J-0.0007
X0.5614 Y3.3184 Z-0.0696 I-0.005 J0.0007
X0.5713 Y3.3171 Z-0.0702 I0.005 J-0.0007
X0.5614 Y3.3184 Z-0.0707 I-0.005 J0.0007
X0.5713 Y3.3171 Z-0.0713 I0.005 J-0.0007
X0.5614 Y3.3184 Z-0.0718 I-0.005 J0.0007
X0.5713 Y3.3171 Z-0.0724 I0.005 J-0.0007
X0.5614 Y3.3184 Z-0.0729 I-0.005 J0.0007
X0.5713 Y3.3171 Z-0.0735 I0.005 J-0.0007
X0.5614 Y3.3184 Z-0.074 I-0.005 J0.0007
X0.5713 Y3.3171 Z-0.0746 I0.005 J-0.0007
X0.5614 Y3.3184 Z-0.0751 I-0.005 J0.0007
X0.5713 Y3.3171 Z-0.0757 I0.005 J-0.0007
X0.5614 Y3.3184 Z-0.0762 I-0.005 J0.0007
X0.5713 Y3.3171 Z-0.0768 I0.005 J-0.0007
X0.5614 Y3.3184 Z-0.0773 I-0.005 J0.0007
X0.5713 Y3.3171 Z-0.0778 I0.005 J-0.0007
X0.5614 Y3.3184 Z-0.0784 I-0.005 J0.0007
X0.5713 Y3.3171 Z-0.0789 I0.005 J-0.0007
X0.5614 Y3.3184 Z-0.0795 I-0.005 J0.0007
X0.571 Y3.3159 Z-0.08 I0.005 J-0.0007
G1 X0.5715 Y3.3174 F40.
G3 X0.5632 Y3.3401 I-0.0171 J0.0066
X0.5337 Y3.33 I-0.0101 J-0.0186
G2 X0.5206 Y3.3017 I-0.741 J0.3248
G3 X0.5085 Y2.6519 I0.6969 J-0.338
X0.8399 Y2.29 I0.7036 J0.3116
X0.9171 Y2.2528 I0.3882 J0.7066
X0.9314 Y2.247 I0.2879 J0.6928
X0.957 Y2.2582 I0.0072 J0.0184
X0.9444 Y2.2853 I-0.0192 J0.0075
G2 X0.9165 Y2.2961 I0.1046 J0.3123
X0.4895 Y3.0682 I0.2928 J0.666
X0.5616 Y3.2953 I0.7346 J-0.1082
G3 X0.571 Y3.3159 I-0.2133 J0.1089
G2 X0.5944 Y3.336 I0.0309 J-0.0122
G3 X0.6042 Y3.3653 I-0.0041 J0.0176
X0.4958 Y3.3543 I-0.0504 J-0.0426
X0.9145 Y2.204 I0.7164 J-0.3906
X1.0001 Y2.2414 I0.0241 J0.0615
X0.9627 Y2.3269 I-0.0615 J0.0241
G2 X0.6117 Y3.2911 I0.2496 J0.6368
G3 X0.6042 Y3.3653 I-0.058 J0.0316
X0.594 Y3.3633 I-0.0045 J-0.0038
G1 X0.5849 Y3.3345
X0.5842 Y3.3328
X0.5831 Y3.3314
X0.5816 Y3.3305
X0.5648 Y3.323
X0.5635 Y3.3222
X0.5625 Y3.3212
X0.5617 Y3.3199
X0.5614 Y3.3184
G3 X0.5713 Y3.3171 Z-0.0805 I0.005 J-0.0007 F20.
X0.5614 Y3.3184 Z-0.0811 I-0.005 J0.0007
X0.5713 Y3.3171 Z-0.0816 I0.005 J-0.0007
X0.5614 Y3.3184 Z-0.0822 I-0.005 J0.0007
X0.5713 Y3.3171 Z-0.0827 I0.005 J-0.0007
X0.5614 Y3.3184 Z-0.0833 I-0.005 J0.0007
X0.5713 Y3.3171 Z-0.0838 I0.005 J-0.0007
X0.5614 Y3.3184 Z-0.0844 I-0.005 J0.0007
X0.5713 Y3.3171 Z-0.0849 I0.005 J-0.0007
X0.5614 Y3.3184 Z-0.0855 I-0.005 J0.0007
X0.5713 Y3.3171 Z-0.086 I0.005 J-0.0007
X0.5614 Y3.3184 Z-0.0866 I-0.005 J0.0007
X0.5713 Y3.3171 Z-0.0871 I0.005 J-0.0007
X0.5614 Y3.3184 Z-0.0877 I-0.005 J0.0007
X0.5713 Y3.3171 Z-0.0882 I0.005 J-0.0007
X0.5614 Y3.3184 Z-0.0888 I-0.005 J0.0007
X0.5713 Y3.3171 Z-0.0893 I0.005 J-0.0007
X0.5614 Y3.3184 Z-0.0899 I-0.005 J0.0007
X0.5713 Y3.3171 Z-0.0904 I0.005 J-0.0007
X0.5614 Y3.3184 Z-0.091 I-0.005 J0.0007
X0.5713 Y3.3171 Z-0.0915 I0.005 J-0.0007
X0.5614 Y3.3184 Z-0.0921 I-0.005 J0.0007
X0.5713 Y3.3171 Z-0.0926 I0.005 J-0.0007
X0.5614 Y3.3184 Z-0.0932 I-0.005 J0.0007
X0.5713 Y3.3171 Z-0.0937 I0.005 J-0.0007
X0.5614 Y3.3184 Z-0.0943 I-0.005 J0.0007
X0.5713 Y3.3171 Z-0.0948 I0.005 J-0.0007
X0.5614 Y3.3184 Z-0.0954 I-0.005 J0.0007
X0.5713 Y3.3171 Z-0.0959 I0.005 J-0.0007
X0.5614 Y3.3184 Z-0.0965 I-0.005 J0.0007
X0.5713 Y3.3171 Z-0.097 I0.005 J-0.0007
X0.5614 Y3.3184 Z-0.0976 I-0.005 J0.0007
X0.5713 Y3.3171 Z-0.0981 I0.005 J-0.0007
X0.5614 Y3.3184 Z-0.0987 I-0.005 J0.0007
X0.5713 Y3.3171 Z-0.0992 I0.005 J-0.0007
X0.5614 Y3.3184 Z-0.0997 I-0.005 J0.0007
X0.5713 Y3.3171 Z-0.1003 I0.005 J-0.0007
X0.5614 Y3.3184 Z-0.1008 I-0.005 J0.0007
X0.5713 Y3.3171 Z-0.1014 I0.005 J-0.0007
X0.5614 Y3.3184 Z-0.1019 I-0.005 J0.0007
X0.5713 Y3.3171 Z-0.1025 I0.005 J-0.0007
X0.5614 Y3.3184 Z-0.103 I-0.005 J0.0007
X0.5713 Y3.3171 Z-0.1036 I0.005 J-0.0007
X0.5614 Y3.3184 Z-0.1041 I-0.005 J0.0007
X0.5713 Y3.3171 Z-0.1047 I0.005 J-0.0007
X0.5614 Y3.3184 Z-0.1052 I-0.005 J0.0007
X0.5713 Y3.3171 Z-0.1058 I0.005 J-0.0007
X0.5614 Y3.3184 Z-0.1063 I-0.005 J0.0007
X0.5713 Y3.3171 Z-0.1069 I0.005 J-0.0007
X0.5614 Y3.3184 Z-0.1074 I-0.005 J0.0007
X0.5713 Y3.3171 Z-0.108 I0.005 J-0.0007
X0.5614 Y3.3184 Z-0.1085 I-0.005 J0.0007
X0.5713 Y3.3171 Z-0.1091 I0.005 J-0.0007
X0.5614 Y3.3184 Z-0.1096 I-0.005 J0.0007
X0.5713 Y3.3171 Z-0.1102 I0.005 J-0.0007
X0.5614 Y3.3184 Z-0.1107 I-0.005 J0.0007
X0.5713 Y3.3171 Z-0.1113 I0.005 J-0.0007
X0.5614 Y3.3184 Z-0.1118 I-0.005 J0.0007
X0.5713 Y3.3171 Z-0.1124 I0.005 J-0.0007
X0.5614 Y3.3184 Z-0.1129 I-0.005 J0.0007
X0.5713 Y3.3171 Z-0.1135 I0.005 J-0.0007
X0.5614 Y3.3184 Z-0.114 I-0.005 J0.0007
X0.5713 Y3.3171 Z-0.1146 I0.005 J-0.0007
X0.5614 Y3.3184 Z-0.1151 I-0.005 J0.0007
X0.5713 Y3.3171 Z-0.1157 I0.005 J-0.0007
X0.5614 Y3.3184 Z-0.1162 I-0.005 J0.0007
X0.5713 Y3.3171 Z-0.1168 I0.005 J-0.0007
X0.5614 Y3.3184 Z-0.1173 I-0.005 J0.0007
X0.5713 Y3.3171 Z-0.1178 I0.005 J-0.0007
X0.5614 Y3.3184 Z-0.1184 I-0.005 J0.0007
X0.5713 Y3.3171 Z-0.1189 I0.005 J-0.0007
X0.5614 Y3.3184 Z-0.1195 I-0.005 J0.0007
X0.571 Y3.3159 Z-0.12 I0.005 J-0.0007
G1 X0.5715 Y3.3174 F40.
G3 X0.5632 Y3.3401 I-0.0171 J0.0066
X0.5337 Y3.33 I-0.0101 J-0.0186
G2 X0.5206 Y3.3017 I-0.741 J0.3248
G3 X0.5085 Y2.6519 I0.6969 J-0.338
X0.8399 Y2.29 I0.7036 J0.3116
X0.9171 Y2.2528 I0.3882 J0.7066
X0.9314 Y2.247 I0.2879 J0.6928
X0.957 Y2.2582 I0.0072 J0.0184
X0.9444 Y2.2853 I-0.0192 J0.0075
G2 X0.9165 Y2.2961 I0.1046 J0.3123
X0.4895 Y3.0682 I0.2928 J0.666
X0.5616 Y3.2953 I0.7346 J-0.1082
G3 X0.571 Y3.3159 I-0.2133 J0.1089
G2 X0.5944 Y3.336 I0.0309 J-0.0122
G3 X0.6042 Y3.3653 I-0.0041 J0.0176
X0.4958 Y3.3543 I-0.0504 J-0.0426
X0.9145 Y2.204 I0.7164 J-0.3906
X1.0001 Y2.2414 I0.0241 J0.0615
X0.9627 Y2.3269 I-0.0615 J0.0241
G2 X0.6117 Y3.2911 I0.2496 J0.6368
G3 X0.6042 Y3.3653 I-0.058 J0.0316
X0.594 Y3.3633 I-0.0045 J-0.0038
G1 X0.5849 Y3.3345
X0.5842 Y3.3328
X0.5831 Y3.3314
X0.5816 Y3.3305
X0.5648 Y3.323
X0.5635 Y3.3222
X0.5625 Y3.3212
X0.5617 Y3.3199
X0.5614 Y3.3184
G3 X0.5713 Y3.3171 Z-0.1205 I0.005 J-0.0007 F20.
X0.5614 Y3.3184 Z-0.1211 I-0.005 J0.0007
X0.5713 Y3.3171 Z-0.1216 I0.005 J-0.0007
X0.5614 Y3.3184 Z-0.1222 I-0.005 J0.0007
X0.5713 Y3.3171 Z-0.1227 I0.005 J-0.0007
X0.5614 Y3.3184 Z-0.1233 I-0.005 J0.0007
X0.5713 Y3.3171 Z-0.1238 I0.005 J-0.0007
X0.5614 Y3.3184 Z-0.1244 I-0.005 J0.0007
X0.5713 Y3.3171 Z-0.1249 I0.005 J-0.0007
X0.5614 Y3.3184 Z-0.1255 I-0.005 J0.0007
X0.5713 Y3.3171 Z-0.126 I0.005 J-0.0007
X0.5614 Y3.3184 Z-0.1266 I-0.005 J0.0007
X0.5713 Y3.3171 Z-0.1271 I0.005 J-0.0007
X0.5614 Y3.3184 Z-0.1277 I-0.005 J0.0007
X0.5713 Y3.3171 Z-0.1282 I0.005 J-0.0007
X0.5614 Y3.3184 Z-0.1288 I-0.005 J0.0007
X0.5713 Y3.3171 Z-0.1293 I0.005 J-0.0007
X0.5614 Y3.3184 Z-0.1299 I-0.005 J0.0007
X0.5713 Y3.3171 Z-0.1304 I0.005 J-0.0007
X0.5614 Y3.3184 Z-0.131 I-0.005 J0.0007
X0.5713 Y3.3171 Z-0.1315 I0.005 J-0.0007
X0.5614 Y3.3184 Z-0.1321 I-0.005 J0.0007
X0.5713 Y3.3171 Z-0.1326 I0.005 J-0.0007
X0.5614 Y3.3184 Z-0.1332 I-0.005 J0.0007
X0.5713 Y3.3171 Z-0.1337 I0.005 J-0.0007
X0.5614 Y3.3184 Z-0.1343 I-0.005 J0.0007
X0.5713 Y3.3171 Z-0.1348 I0.005 J-0.0007
X0.5614 Y3.3184 Z-0.1354 I-0.005 J0.0007
X0.5713 Y3.3171 Z-0.1359 I0.005 J-0.0007
X0.5614 Y3.3184 Z-0.1365 I-0.005 J0.0007
X0.5713 Y3.3171 Z-0.137 I0.005 J-0.0007
X0.5614 Y3.3184 Z-0.1376 I-0.005 J0.0007
X0.5713 Y3.3171 Z-0.1381 I0.005 J-0.0007
X0.5614 Y3.3184 Z-0.1387 I-0.005 J0.0007
X0.5713 Y3.3171 Z-0.1392 I0.005 J-0.0007
X0.5614 Y3.3184 Z-0.1397 I-0.005 J0.0007
X0.5713 Y3.3171 Z-0.1403 I0.005 J-0.0007
X0.5614 Y3.3184 Z-0.1408 I-0.005 J0.0007
X0.5713 Y3.3171 Z-0.1414 I0.005 J-0.0007
X0.5614 Y3.3184 Z-0.1419 I-0.005 J0.0007
X0.5713 Y3.3171 Z-0.1425 I0.005 J-0.0007
X0.5614 Y3.3184 Z-0.143 I-0.005 J0.0007
X0.5713 Y3.3171 Z-0.1436 I0.005 J-0.0007
X0.5614 Y3.3184 Z-0.1441 I-0.005 J0.0007
X0.5713 Y3.3171 Z-0.1447 I0.005 J-0.0007
X0.5614 Y3.3184 Z-0.1452 I-0.005 J0.0007
X0.5713 Y3.3171 Z-0.1458 I0.005 J-0.0007
X0.5614 Y3.3184 Z-0.1463 I-0.005 J0.0007
X0.5713 Y3.3171 Z-0.1469 I0.005 J-0.0007
X0.5614 Y3.3184 Z-0.1474 I-0.005 J0.0007
X0.5713 Y3.3171 Z-0.148 I0.005 J-0.0007
X0.5614 Y3.3184 Z-0.1485 I-0.005 J0.0007
X0.5713 Y3.3171 Z-0.1491 I0.005 J-0.0007
X0.5614 Y3.3184 Z-0.1496 I-0.005 J0.0007
X0.5713 Y3.3171 Z-0.1502 I0.005 J-0.0007
X0.5614 Y3.3184 Z-0.1507 I-0.005 J0.0007
X0.5713 Y3.3171 Z-0.1513 I0.005 J-0.0007
X0.5614 Y3.3184 Z-0.1518 I-0.005 J0.0007
X0.5713 Y3.3171 Z-0.1524 I0.005 J-0.0007
X0.5614 Y3.3184 Z-0.1529 I-0.005 J0.0007
X0.5713 Y3.3171 Z-0.1535 I0.005 J-0.0007
X0.5614 Y3.3184 Z-0.154 I-0.005 J0.0007
X0.5713 Y3.3171 Z-0.1546 I0.005 J-0.0007
X0.5614 Y3.3184 Z-0.1551 I-0.005 J0.0007
X0.5713 Y3.3171 Z-0.1557 I0.005 J-0.0007
X0.5614 Y3.3184 Z-0.1562 I-0.005 J0.0007
X0.5713 Y3.3171 Z-0.1568 I0.005 J-0.0007
X0.5614 Y3.3184 Z-0.1573 I-0.005 J0.0007
X0.5713 Y3.3171 Z-0.1578 I0.005 J-0.0007
X0.5614 Y3.3184 Z-0.1584 I-0.005 J0.0007
X0.5713 Y3.3171 Z-0.1589 I0.005 J-0.0007
X0.5614 Y3.3184 Z-0.1595 I-0.005 J0.0007
X0.571 Y3.3159 Z-0.16 I0.005 J-0.0007
G1 X0.5715 Y3.3174 F40.
G3 X0.5632 Y3.3401 I-0.0171 J0.0066
X0.5337 Y3.33 I-0.0101 J-0.0186
G2 X0.5206 Y3.3017 I-0.741 J0.3248
G3 X0.5085 Y2.6519 I0.6969 J-0.338
X0.8399 Y2.29 I0.7036 J0.3116
X0.9171 Y2.2528 I0.3882 J0.7066
X0.9314 Y2.247 I0.2879 J0.6928
X0.957 Y2.2582 I0.0072 J0.0184
X0.9444 Y2.2853 I-0.0192 J0.0075
G2 X0.9165 Y2.2961 I0.1046 J0.3123
X0.4895 Y3.0682 I0.2928 J0.666
X0.5616 Y3.2953 I0.7346 J-0.1082
G3 X0.571 Y3.3159 I-0.2133 J0.1089
G2 X0.5944 Y3.336 I0.0309 J-0.0122
G3 X0.6042 Y3.3653 I-0.0041 J0.0176
X0.4958 Y3.3543 I-0.0504 J-0.0426
X0.9145 Y2.204 I0.7164 J-0.3906
X1.0001 Y2.2414 I0.0241 J0.0615
X0.9627 Y2.3269 I-0.0615 J0.0241
G2 X0.6117 Y3.2911 I0.2496 J0.6368
G3 X0.6042 Y3.3653 I-0.058 J0.0316
X0.594 Y3.3633 I-0.0045 J-0.0038
G1 X0.5849 Y3.3345
X0.5842 Y3.3328
X0.5831 Y3.3314
X0.5816 Y3.3305
X0.5648 Y3.323
X0.5635 Y3.3222
X0.5625 Y3.3212
X0.5617 Y3.3199
X0.5614 Y3.3184
G3 X0.5713 Y3.3171 Z-0.1605 I0.005 J-0.0007 F20.
X0.5614 Y3.3184 Z-0.1611 I-0.005 J0.0007
X0.5713 Y3.3171 Z-0.1616 I0.005 J-0.0007
X0.5614 Y3.3184 Z-0.1622 I-0.005 J0.0007
X0.5713 Y3.3171 Z-0.1627 I0.005 J-0.0007
X0.5614 Y3.3184 Z-0.1633 I-0.005 J0.0007
X0.5713 Y3.3171 Z-0.1638 I0.005 J-0.0007
X0.5614 Y3.3184 Z-0.1644 I-0.005 J0.0007
X0.5713 Y3.3171 Z-0.1649 I0.005 J-0.0007
X0.5614 Y3.3184 Z-0.1655 I-0.005 J0.0007
X0.5713 Y3.3171 Z-0.166 I0.005 J-0.0007
X0.5614 Y3.3184 Z-0.1666 I-0.005 J0.0007
X0.5713 Y3.3171 Z-0.1671 I0.005 J-0.0007
X0.5614 Y3.3184 Z-0.1677 I-0.005 J0.0007
X0.5713 Y3.3171 Z-0.1682 I0.005 J-0.0007
X0.5614 Y3.3184 Z-0.1688 I-0.005 J0.0007
X0.5713 Y3.3171 Z-0.1693 I0.005 J-0.0007
X0.5614 Y3.3184 Z-0.1699 I-0.005 J0.0007
X0.5713 Y3.3171 Z-0.1704 I0.005 J-0.0007
X0.5614 Y3.3184 Z-0.171 I-0.005 J0.0007
X0.5713 Y3.3171 Z-0.1715 I0.005 J-0.0007
X0.5614 Y3.3184 Z-0.1721 I-0.005 J0.0007
X0.5713 Y3.3171 Z-0.1726 I0.005 J-0.0007
X0.5614 Y3.3184 Z-0.1732 I-0.005 J0.0007
X0.5713 Y3.3171 Z-0.1737 I0.005 J-0.0007
X0.5614 Y3.3184 Z-0.1743 I-0.005 J0.0007
X0.5713 Y3.3171 Z-0.1748 I0.005 J-0.0007
X0.5614 Y3.3184 Z-0.1754 I-0.005 J0.0007
X0.5713 Y3.3171 Z-0.1759 I0.005 J-0.0007
X0.5614 Y3.3184 Z-0.1765 I-0.005 J0.0007
X0.5713 Y3.3171 Z-0.177 I0.005 J-0.0007
X0.5614 Y3.3184 Z-0.1776 I-0.005 J0.0007
X0.5713 Y3.3171 Z-0.1781 I0.005 J-0.0007
X0.5614 Y3.3184 Z-0.1787 I-0.005 J0.0007
X0.5713 Y3.3171 Z-0.1792 I0.005 J-0.0007
X0.5614 Y3.3184 Z-0.1797 I-0.005 J0.0007
X0.5713 Y3.3171 Z-0.1803 I0.005 J-0.0007
X0.5614 Y3.3184 Z-0.1808 I-0.005 J0.0007
X0.5713 Y3.3171 Z-0.1814 I0.005 J-0.0007
X0.5614 Y3.3184 Z-0.1819 I-0.005 J0.0007
X0.5713 Y3.3171 Z-0.1825 I0.005 J-0.0007
X0.5614 Y3.3184 Z-0.183 I-0.005 J0.0007
X0.5713 Y3.3171 Z-0.1836 I0.005 J-0.0007
X0.5614 Y3.3184 Z-0.1841 I-0.005 J0.0007
X0.5713 Y3.3171 Z-0.1847 I0.005 J-0.0007
X0.5614 Y3.3184 Z-0.1852 I-0.005 J0.0007
X0.5713 Y3.3171 Z-0.1858 I0.005 J-0.0007
X0.5614 Y3.3184 Z-0.1863 I-0.005 J0.0007
X0.5713 Y3.3171 Z-0.1869 I0.005 J-0.0007
X0.5614 Y3.3184 Z-0.1874 I-0.005 J0.0007
X0.5713 Y3.3171 Z-0.188 I0.005 J-0.0007
X0.5614 Y3.3184 Z-0.1885 I-0.005 J0.0007
X0.5713 Y3.3171 Z-0.1891 I0.005 J-0.0007
X0.5614 Y3.3184 Z-0.1896 I-0.005 J0.0007
X0.5713 Y3.3171 Z-0.1902 I0.005 J-0.0007
X0.5614 Y3.3184 Z-0.1907 I-0.005 J0.0007
X0.5713 Y3.3171 Z-0.1913 I0.005 J-0.0007
X0.5614 Y3.3184 Z-0.1918 I-0.005 J0.0007
X0.5713 Y3.3171 Z-0.1924 I0.005 J-0.0007
X0.5614 Y3.3184 Z-0.1929 I-0.005 J0.0007
X0.5713 Y3.3171 Z-0.1935 I0.005 J-0.0007
X0.5614 Y3.3184 Z-0.194 I-0.005 J0.0007
X0.5713 Y3.3171 Z-0.1946 I0.005 J-0.0007
X0.5614 Y3.3184 Z-0.1951 I-0.005 J0.0007
X0.5713 Y3.3171 Z-0.1957 I0.005 J-0.0007
X0.5614 Y3.3184 Z-0.1962 I-0.005 J0.0007
X0.5713 Y3.3171 Z-0.1968 I0.005 J-0.0007
X0.5614 Y3.3184 Z-0.1973 I-0.005 J0.0007
X0.5713 Y3.3171 Z-0.1978 I0.005 J-0.0007
X0.5614 Y3.3184 Z-0.1984 I-0.005 J0.0007
X0.5713 Y3.3171 Z-0.1989 I0.005 J-0.0007
X0.5614 Y3.3184 Z-0.1995 I-0.005 J0.0007
X0.571 Y3.3159 Z-0.2 I0.005 J-0.0007
