(X4 GEARBOX ARCHES RUN 12.0)
(T3  D=0.118 CR=0. - ZMIN=-0.29 - FLAT END MILL)
G90 G94 G91.1 G40 G49 G17
G20

(2D POCKET6)
M5
T3 M6
S15000 M3
g4 p5
G54
M8
G0 X2.8863 Y5.6116
G43 Z0.6 H3
Z0.2
G1 Z0.1118 F40.
X2.8862 Y5.6131 Z0.106 F20.
X2.8859 Y5.6172 Z0.1017
X2.8855 Y5.6201 Z0.1009
X2.8849 Y5.6229 Z0.1
G3 X2.7876 Y5.5998 Z0.0945 I-0.0487 J-0.0115
X2.8849 Y5.6229 Z0.089 I0.0487 J0.0115
X2.7876 Y5.5998 Z0.0835 I-0.0487 J-0.0115
X2.8849 Y5.6229 Z0.0781 I0.0487 J0.0115
X2.7876 Y5.5998 Z0.0726 I-0.0487 J-0.0115
X2.8849 Y5.6229 Z0.0671 I0.0487 J0.0115
X2.7876 Y5.5998 Z0.0616 I-0.0487 J-0.0115
X2.8849 Y5.6229 Z0.0561 I0.0487 J0.0115
X2.7876 Y5.5998 Z0.0506 I-0.0487 J-0.0115
X2.8849 Y5.6229 Z0.0451 I0.0487 J0.0115
X2.7876 Y5.5998 Z0.0397 I-0.0487 J-0.0115
X2.8849 Y5.6229 Z0.0342 I0.0487 J0.0115
X2.7876 Y5.5998 Z0.0287 I-0.0487 J-0.0115
X2.8849 Y5.6229 Z0.0232 I0.0487 J0.0115
X2.7876 Y5.5998 Z0.0177 I-0.0487 J-0.0115
X2.8849 Y5.6229 Z0.0122 I0.0487 J0.0115
X2.7876 Y5.5998 Z0.0067 I-0.0487 J-0.0115
X2.8849 Y5.6229 Z0.0013 I0.0487 J0.0115
X2.7876 Y5.5998 Z-0.0042 I-0.0487 J-0.0115
X2.8849 Y5.6229 Z-0.0097 I0.0487 J0.0115
X2.7876 Y5.5998 Z-0.0152 I-0.0487 J-0.0115
X2.8856 Y5.6036 Z-0.02 I0.0487 J0.0115
X2.8779 Y5.6235 I-0.0209 J0.0033 F40.
X2.2508 Y5.7756 I-0.4769 J-0.5974
X1.8247 Y5.5322 I0.1492 J-0.7559
X1.7476 Y5.4294 I0.5973 J-0.5286
X1.741 Y5.4115 I0.0387 J-0.0243
X1.7492 Y5.3942 I0.0172 J-0.0024
X1.7783 Y5.4022 I0.0108 J0.0177
G2 X1.7939 Y5.4281 I0.2448 J-0.1294
X2.6334 Y5.7121 I0.6069 J-0.4112
X2.8437 Y5.6 I-0.2374 J-0.6986
X2.8552 Y5.591 I-0.416 J-0.5435
G3 X2.8828 Y5.5958 I0.0117 J0.0146
G1 X2.8841 Y5.5983
X2.885 Y5.6009
X2.8856 Y5.6036
G2 X2.9039 Y5.6286 I0.0333 J-0.0052
G3 X2.9071 Y5.6593 I-0.0082 J0.0164
X1.7031 Y5.4454 I-0.5075 J-0.639
X1.8158 Y5.3767 I0.0563 J-0.0344
G2 X2.8264 Y5.5549 I0.5838 J-0.3564
G3 X2.9087 Y5.658 I0.0412 J0.0516
G1 X2.9071 Y5.6593
X2.9054 Y5.6603
X2.9035 Y5.6609
X2.9015 Y5.661
X2.8995 Y5.6606
X2.8723 Y5.6512
X2.8704 Y5.6508
X2.8686
X2.8667 Y5.6513
X2.8651 Y5.6522
G3 X2.8074 Y5.5705 Z-0.0255 I-0.0288 J-0.0409 F20.
X2.8651 Y5.6522 Z-0.031 I0.0288 J0.0409
X2.8074 Y5.5705 Z-0.0365 I-0.0288 J-0.0409
X2.8856 Y5.6036 Z-0.04 I0.0288 J0.0409
X2.8779 Y5.6235 I-0.0209 J0.0033 F40.
X2.2508 Y5.7756 I-0.4769 J-0.5974
X1.8247 Y5.5322 I0.1492 J-0.7559
X1.7476 Y5.4294 I0.5973 J-0.5286
X1.741 Y5.4115 I0.0387 J-0.0243
X1.7492 Y5.3942 I0.0172 J-0.0024
X1.7783 Y5.4022 I0.0108 J0.0177
G2 X1.7939 Y5.4281 I0.2448 J-0.1294
X2.6334 Y5.7121 I0.6069 J-0.4112
X2.8437 Y5.6 I-0.2374 J-0.6986
X2.8552 Y5.591 I-0.416 J-0.5435
G3 X2.8828 Y5.5958 I0.0117 J0.0146
G1 X2.8841 Y5.5983
X2.885 Y5.6009
X2.8856 Y5.6036
G2 X2.9039 Y5.6286 I0.0333 J-0.0052
G3 X2.9071 Y5.6593 I-0.0082 J0.0164
X1.7031 Y5.4454 I-0.5075 J-0.639
X1.8158 Y5.3767 I0.0563 J-0.0344
G2 X2.8264 Y5.5549 I0.5838 J-0.3564
G3 X2.9087 Y5.658 I0.0412 J0.0516
G1 X2.9071 Y5.6593
X2.9054 Y5.6603
X2.9035 Y5.6609
X2.9015 Y5.661
X2.8995 Y5.6606
X2.8723 Y5.6512
X2.8704 Y5.6508
X2.8686
X2.8667 Y5.6513
X2.8651 Y5.6522
G3 X2.8074 Y5.5705 Z-0.0455 I-0.0288 J-0.0409 F20.
X2.8651 Y5.6522 Z-0.051 I0.0288 J0.0409
X2.8074 Y5.5705 Z-0.0565 I-0.0288 J-0.0409
X2.8856 Y5.6036 Z-0.06 I0.0288 J0.0409
X2.8779 Y5.6235 I-0.0209 J0.0033 F40.
X2.2508 Y5.7756 I-0.4769 J-0.5974
X1.8247 Y5.5322 I0.1492 J-0.7559
X1.7476 Y5.4294 I0.5973 J-0.5286
X1.741 Y5.4115 I0.0387 J-0.0243
X1.7492 Y5.3942 I0.0172 J-0.0024
X1.7783 Y5.4022 I0.0108 J0.0177
G2 X1.7939 Y5.4281 I0.2448 J-0.1294
X2.6334 Y5.7121 I0.6069 J-0.4112
X2.8437 Y5.6 I-0.2374 J-0.6986
X2.8552 Y5.591 I-0.416 J-0.5435
G3 X2.8828 Y5.5958 I0.0117 J0.0146
G1 X2.8841 Y5.5983
X2.885 Y5.6009
X2.8856 Y5.6036
G2 X2.9039 Y5.6286 I0.0333 J-0.0052
G3 X2.9071 Y5.6593 I-0.0082 J0.0164
X1.7031 Y5.4454 I-0.5075 J-0.639
X1.8158 Y5.3767 I0.0563 J-0.0344
G2 X2.8264 Y5.5549 I0.5838 J-0.3564
G3 X2.9087 Y5.658 I0.0412 J0.0516
G1 X2.9071 Y5.6593
X2.9054 Y5.6603
X2.9035 Y5.6609
X2.9015 Y5.661
X2.8995 Y5.6606
X2.8723 Y5.6512
X2.8704 Y5.6508
X2.8686
X2.8667 Y5.6513
X2.8651 Y5.6522
G3 X2.8074 Y5.5705 Z-0.0655 I-0.0288 J-0.0409 F20.
X2.8651 Y5.6522 Z-0.071 I0.0288 J0.0409
X2.8074 Y5.5705 Z-0.0765 I-0.0288 J-0.0409
X2.8856 Y5.6036 Z-0.08 I0.0288 J0.0409
X2.8779 Y5.6235 I-0.0209 J0.0033 F40.
X2.2508 Y5.7756 I-0.4769 J-0.5974
X1.8247 Y5.5322 I0.1492 J-0.7559
X1.7476 Y5.4294 I0.5973 J-0.5286
X1.741 Y5.4115 I0.0387 J-0.0243
X1.7492 Y5.3942 I0.0172 J-0.0024
X1.7783 Y5.4022 I0.0108 J0.0177
G2 X1.7939 Y5.4281 I0.2448 J-0.1294
X2.6334 Y5.7121 I0.6069 J-0.4112
X2.8437 Y5.6 I-0.2374 J-0.6986
X2.8552 Y5.591 I-0.416 J-0.5435
G3 X2.8828 Y5.5958 I0.0117 J0.0146
G1 X2.8841 Y5.5983
X2.885 Y5.6009
X2.8856 Y5.6036
G2 X2.9039 Y5.6286 I0.0333 J-0.0052
G3 X2.9071 Y5.6593 I-0.0082 J0.0164
X1.7031 Y5.4454 I-0.5075 J-0.639
X1.8158 Y5.3767 I0.0563 J-0.0344
G2 X2.8264 Y5.5549 I0.5838 J-0.3564
G3 X2.9087 Y5.658 I0.0412 J0.0516
G1 X2.9071 Y5.6593
X2.9054 Y5.6603
X2.9035 Y5.6609
X2.9015 Y5.661
X2.8995 Y5.6606
X2.8723 Y5.6512
X2.8704 Y5.6508
X2.8686
X2.8667 Y5.6513
X2.8651 Y5.6522
G3 X2.8074 Y5.5705 Z-0.0855 I-0.0288 J-0.0409 F20.
X2.8651 Y5.6522 Z-0.091 I0.0288 J0.0409
X2.8074 Y5.5705 Z-0.0965 I-0.0288 J-0.0409
X2.8856 Y5.6036 Z-0.1 I0.0288 J0.0409
X2.8779 Y5.6235 I-0.0209 J0.0033 F40.
X2.2508 Y5.7756 I-0.4769 J-0.5974
X1.8247 Y5.5322 I0.1492 J-0.7559
X1.7476 Y5.4294 I0.5973 J-0.5286
X1.741 Y5.4115 I0.0387 J-0.0243
X1.7492 Y5.3942 I0.0172 J-0.0024
X1.7783 Y5.4022 I0.0108 J0.0177
G2 X1.7939 Y5.4281 I0.2448 J-0.1294
X2.6334 Y5.7121 I0.6069 J-0.4112
X2.8437 Y5.6 I-0.2374 J-0.6986
X2.8552 Y5.591 I-0.416 J-0.5435
G3 X2.8828 Y5.5958 I0.0117 J0.0146
G1 X2.8841 Y5.5983
X2.885 Y5.6009
X2.8856 Y5.6036
G2 X2.9039 Y5.6286 I0.0333 J-0.0052
G3 X2.9071 Y5.6593 I-0.0082 J0.0164
X1.7031 Y5.4454 I-0.5075 J-0.639
X1.8158 Y5.3767 I0.0563 J-0.0344
G2 X2.8264 Y5.5549 I0.5838 J-0.3564
G3 X2.9087 Y5.658 I0.0412 J0.0516
G1 X2.9071 Y5.6593
X2.9054 Y5.6603
X2.9035 Y5.6609
X2.9015 Y5.661
X2.8995 Y5.6606
X2.8723 Y5.6512
X2.8704 Y5.6508
X2.8686
X2.8667 Y5.6513
X2.8651 Y5.6522
G3 X2.8074 Y5.5705 Z-0.1055 I-0.0288 J-0.0409 F20.
X2.8651 Y5.6522 Z-0.111 I0.0288 J0.0409
X2.8074 Y5.5705 Z-0.1165 I-0.0288 J-0.0409
X2.8856 Y5.6036 Z-0.12 I0.0288 J0.0409
X2.8779 Y5.6235 I-0.0209 J0.0033 F40.
X2.2508 Y5.7756 I-0.4769 J-0.5974
X1.8247 Y5.5322 I0.1492 J-0.7559
X1.7476 Y5.4294 I0.5973 J-0.5286
X1.741 Y5.4115 I0.0387 J-0.0243
X1.7492 Y5.3942 I0.0172 J-0.0024
X1.7783 Y5.4022 I0.0108 J0.0177
G2 X1.7939 Y5.4281 I0.2448 J-0.1294
X2.6334 Y5.7121 I0.6069 J-0.4112
X2.8437 Y5.6 I-0.2374 J-0.6986
X2.8552 Y5.591 I-0.416 J-0.5435
G3 X2.8828 Y5.5958 I0.0117 J0.0146
G1 X2.8841 Y5.5983
X2.885 Y5.6009
X2.8856 Y5.6036
G2 X2.9039 Y5.6286 I0.0333 J-0.0052
G3 X2.9071 Y5.6593 I-0.0082 J0.0164
X1.7031 Y5.4454 I-0.5075 J-0.639
X1.8158 Y5.3767 I0.0563 J-0.0344
G2 X2.8264 Y5.5549 I0.5838 J-0.3564
G3 X2.9087 Y5.658 I0.0412 J0.0516
G1 X2.9071 Y5.6593
X2.9054 Y5.6603
X2.9035 Y5.6609
X2.9015 Y5.661
X2.8995 Y5.6606
X2.8723 Y5.6512
X2.8704 Y5.6508
X2.8686
X2.8667 Y5.6513
X2.8651 Y5.6522
G3 X2.8074 Y5.5705 Z-0.1255 I-0.0288 J-0.0409 F20.
X2.8651 Y5.6522 Z-0.131 I0.0288 J0.0409
X2.8074 Y5.5705 Z-0.1365 I-0.0288 J-0.0409
X2.8856 Y5.6036 Z-0.14 I0.0288 J0.0409
X2.8779 Y5.6235 I-0.0209 J0.0033 F40.
X2.2508 Y5.7756 I-0.4769 J-0.5974
X1.8247 Y5.5322 I0.1492 J-0.7559
X1.7476 Y5.4294 I0.5973 J-0.5286
X1.741 Y5.4115 I0.0387 J-0.0243
X1.7492 Y5.3942 I0.0172 J-0.0024
X1.7783 Y5.4022 I0.0108 J0.0177
G2 X1.7939 Y5.4281 I0.2448 J-0.1294
X2.6334 Y5.7121 I0.6069 J-0.4112
X2.8437 Y5.6 I-0.2374 J-0.6986
X2.8552 Y5.591 I-0.416 J-0.5435
G3 X2.8828 Y5.5958 I0.0117 J0.0146
G1 X2.8841 Y5.5983
X2.885 Y5.6009
X2.8856 Y5.6036
G2 X2.9039 Y5.6286 I0.0333 J-0.0052
G3 X2.9071 Y5.6593 I-0.0082 J0.0164
X1.7031 Y5.4454 I-0.5075 J-0.639
X1.8158 Y5.3767 I0.0563 J-0.0344
G2 X2.8264 Y5.5549 I0.5838 J-0.3564
G3 X2.9087 Y5.658 I0.0412 J0.0516
G1 X2.9071 Y5.6593
X2.9054 Y5.6603
X2.9035 Y5.6609
X2.9015 Y5.661
X2.8995 Y5.6606
X2.8723 Y5.6512
X2.8704 Y5.6508
X2.8686
X2.8667 Y5.6513
X2.8651 Y5.6522
G3 X2.8074 Y5.5705 Z-0.1455 I-0.0288 J-0.0409 F20.
X2.8651 Y5.6522 Z-0.151 I0.0288 J0.0409
X2.8074 Y5.5705 Z-0.1565 I-0.0288 J-0.0409
X2.8856 Y5.6036 Z-0.16 I0.0288 J0.0409
X2.8779 Y5.6235 I-0.0209 J0.0033 F40.
X2.2508 Y5.7756 I-0.4769 J-0.5974
X1.8247 Y5.5322 I0.1492 J-0.7559
X1.7476 Y5.4294 I0.5973 J-0.5286
X1.741 Y5.4115 I0.0387 J-0.0243
X1.7492 Y5.3942 I0.0172 J-0.0024
X1.7783 Y5.4022 I0.0108 J0.0177
G2 X1.7939 Y5.4281 I0.2448 J-0.1294
X2.6334 Y5.7121 I0.6069 J-0.4112
X2.8437 Y5.6 I-0.2374 J-0.6986
X2.8552 Y5.591 I-0.416 J-0.5435
G3 X2.8828 Y5.5958 I0.0117 J0.0146
G1 X2.8841 Y5.5983
X2.885 Y5.6009
X2.8856 Y5.6036
G2 X2.9039 Y5.6286 I0.0333 J-0.0052
G3 X2.9071 Y5.6593 I-0.0082 J0.0164
X1.7031 Y5.4454 I-0.5075 J-0.639
X1.8158 Y5.3767 I0.0563 J-0.0344
G2 X2.8264 Y5.5549 I0.5838 J-0.3564
G3 X2.9087 Y5.658 I0.0412 J0.0516
G1 X2.9071 Y5.6593
X2.9054 Y5.6603
X2.9035 Y5.6609
X2.9015 Y5.661
X2.8995 Y5.6606
X2.8723 Y5.6512
X2.8704 Y5.6508
X2.8686
X2.8667 Y5.6513
X2.8651 Y5.6522
G3 X2.8074 Y5.5705 Z-0.1655 I-0.0288 J-0.0409 F20.
X2.8651 Y5.6522 Z-0.171 I0.0288 J0.0409
X2.8074 Y5.5705 Z-0.1765 I-0.0288 J-0.0409
X2.8856 Y5.6036 Z-0.18 I0.0288 J0.0409
X2.8779 Y5.6235 I-0.0209 J0.0033 F40.
X2.2508 Y5.7756 I-0.4769 J-0.5974
X1.8247 Y5.5322 I0.1492 J-0.7559
X1.7476 Y5.4294 I0.5973 J-0.5286
X1.741 Y5.4115 I0.0387 J-0.0243
X1.7492 Y5.3942 I0.0172 J-0.0024
X1.7783 Y5.4022 I0.0108 J0.0177
G2 X1.7939 Y5.4281 I0.2448 J-0.1294
X2.6334 Y5.7121 I0.6069 J-0.4112
X2.8437 Y5.6 I-0.2374 J-0.6986
X2.8552 Y5.591 I-0.416 J-0.5435
G3 X2.8828 Y5.5958 I0.0117 J0.0146
G1 X2.8841 Y5.5983
X2.885 Y5.6009
X2.8856 Y5.6036
G2 X2.9039 Y5.6286 I0.0333 J-0.0052
G3 X2.9071 Y5.6593 I-0.0082 J0.0164
X1.7031 Y5.4454 I-0.5075 J-0.639
X1.8158 Y5.3767 I0.0563 J-0.0344
G2 X2.8264 Y5.5549 I0.5838 J-0.3564
G3 X2.9087 Y5.658 I0.0412 J0.0516
G1 X2.9071 Y5.6593
X2.9054 Y5.6603
X2.9035 Y5.6609
X2.9015 Y5.661
X2.8995 Y5.6606
X2.8723 Y5.6512
X2.8704 Y5.6508
X2.8686
X2.8667 Y5.6513
X2.8651 Y5.6522
G3 X2.8074 Y5.5705 Z-0.1855 I-0.0288 J-0.0409 F20.
X2.8651 Y5.6522 Z-0.191 I0.0288 J0.0409
X2.8074 Y5.5705 Z-0.1965 I-0.0288 J-0.0409
X2.8856 Y5.6036 Z-0.2 I0.0288 J0.0409
X2.8779 Y5.6235 I-0.0209 J0.0033 F40.
X2.2508 Y5.7756 I-0.4769 J-0.5974
X1.8247 Y5.5322 I0.1492 J-0.7559
X1.7476 Y5.4294 I0.5973 J-0.5286
X1.741 Y5.4115 I0.0387 J-0.0243
X1.7492 Y5.3942 I0.0172 J-0.0024
X1.7783 Y5.4022 I0.0108 J0.0177
G2 X1.7939 Y5.4281 I0.2448 J-0.1294
X2.6334 Y5.7121 I0.6069 J-0.4112
X2.8437 Y5.6 I-0.2374 J-0.6986
X2.8552 Y5.591 I-0.416 J-0.5435
G3 X2.8828 Y5.5958 I0.0117 J0.0146
G1 X2.8841 Y5.5983
X2.885 Y5.6009
X2.8856 Y5.6036
G2 X2.9039 Y5.6286 I0.0333 J-0.0052
G3 X2.9071 Y5.6593 I-0.0082 J0.0164
X1.7031 Y5.4454 I-0.5075 J-0.639
X1.8158 Y5.3767 I0.0563 J-0.0344
G2 X2.8264 Y5.5549 I0.5838 J-0.3564
G3 X2.9087 Y5.658 I0.0412 J0.0516
G1 X2.9071 Y5.6593
X2.9054 Y5.6603
X2.9035 Y5.6609
X2.9015 Y5.661
X2.8995 Y5.6606
X2.8723 Y5.6512
X2.8704 Y5.6508
X2.8686
X2.8667 Y5.6513
X2.8651 Y5.6522
G3 X2.8074 Y5.5705 Z-0.2055 I-0.0288 J-0.0409 F20.
X2.8651 Y5.6522 Z-0.211 I0.0288 J0.0409
X2.8074 Y5.5705 Z-0.2165 I-0.0288 J-0.0409
X2.8856 Y5.6036 Z-0.22 I0.0288 J0.0409
X2.8779 Y5.6235 I-0.0209 J0.0033 F40.
X2.2508 Y5.7756 I-0.4769 J-0.5974
X1.8247 Y5.5322 I0.1492 J-0.7559
X1.7476 Y5.4294 I0.5973 J-0.5286
X1.741 Y5.4115 I0.0387 J-0.0243
X1.7492 Y5.3942 I0.0172 J-0.0024
X1.7783 Y5.4022 I0.0108 J0.0177
G2 X1.7939 Y5.4281 I0.2448 J-0.1294
X2.6334 Y5.7121 I0.6069 J-0.4112
X2.8437 Y5.6 I-0.2374 J-0.6986
X2.8552 Y5.591 I-0.416 J-0.5435
G3 X2.8828 Y5.5958 I0.0117 J0.0146
G1 X2.8841 Y5.5983
X2.885 Y5.6009
X2.8856 Y5.6036
G2 X2.9039 Y5.6286 I0.0333 J-0.0052
G3 X2.9071 Y5.6593 I-0.0082 J0.0164
X1.7031 Y5.4454 I-0.5075 J-0.639
X1.8158 Y5.3767 I0.0563 J-0.0344
G2 X2.8264 Y5.5549 I0.5838 J-0.3564
G3 X2.9087 Y5.658 I0.0412 J0.0516
G1 X2.9071 Y5.6593
X2.9054 Y5.6603
X2.9035 Y5.6609
X2.9015 Y5.661
X2.8995 Y5.6606
X2.8723 Y5.6512
X2.8704 Y5.6508
X2.8686
X2.8667 Y5.6513
X2.8651 Y5.6522
G3 X2.8074 Y5.5705 Z-0.2255 I-0.0288 J-0.0409 F20.
X2.8651 Y5.6522 Z-0.231 I0.0288 J0.0409
X2.8074 Y5.5705 Z-0.2365 I-0.0288 J-0.0409
X2.8856 Y5.6036 Z-0.24 I0.0288 J0.0409
X2.8779 Y5.6235 I-0.0209 J0.0033 F40.
X2.2508 Y5.7756 I-0.4769 J-0.5974
X1.8247 Y5.5322 I0.1492 J-0.7559
X1.7476 Y5.4294 I0.5973 J-0.5286
X1.741 Y5.4115 I0.0387 J-0.0243
X1.7492 Y5.3942 I0.0172 J-0.0024
X1.7783 Y5.4022 I0.0108 J0.0177
G2 X1.7939 Y5.4281 I0.2448 J-0.1294
X2.6334 Y5.7121 I0.6069 J-0.4112
X2.8437 Y5.6 I-0.2374 J-0.6986
X2.8552 Y5.591 I-0.416 J-0.5435
G3 X2.8828 Y5.5958 I0.0117 J0.0146
G1 X2.8841 Y5.5983
X2.885 Y5.6009
X2.8856 Y5.6036
G2 X2.9039 Y5.6286 I0.0333 J-0.0052
G3 X2.9071 Y5.6593 I-0.0082 J0.0164
X1.7031 Y5.4454 I-0.5075 J-0.639
X1.8158 Y5.3767 I0.0563 J-0.0344
G2 X2.8264 Y5.5549 I0.5838 J-0.3564
G3 X2.9087 Y5.658 I0.0412 J0.0516
G1 X2.9071 Y5.6593
X2.9054 Y5.6603
X2.9035 Y5.6609
X2.9015 Y5.661
X2.8995 Y5.6606
X2.8723 Y5.6512
X2.8704 Y5.6508
X2.8686
X2.8667 Y5.6513
X2.8651 Y5.6522
G3 X2.8074 Y5.5705 Z-0.2455 I-0.0288 J-0.0409 F20.
X2.8651 Y5.6522 Z-0.251 I0.0288 J0.0409
X2.8074 Y5.5705 Z-0.2565 I-0.0288 J-0.0409
X2.8856 Y5.6036 Z-0.26 I0.0288 J0.0409
X2.8779 Y5.6235 I-0.0209 J0.0033 F40.
X2.2508 Y5.7756 I-0.4769 J-0.5974
X1.8247 Y5.5322 I0.1492 J-0.7559
X1.7476 Y5.4294 I0.5973 J-0.5286
X1.741 Y5.4115 I0.0387 J-0.0243
X1.7492 Y5.3942 I0.0172 J-0.0024
X1.7783 Y5.4022 I0.0108 J0.0177
G2 X1.7939 Y5.4281 I0.2448 J-0.1294
X2.6334 Y5.7121 I0.6069 J-0.4112
X2.8437 Y5.6 I-0.2374 J-0.6986
X2.8552 Y5.591 I-0.416 J-0.5435
G3 X2.8828 Y5.5958 I0.0117 J0.0146
G1 X2.8841 Y5.5983
X2.885 Y5.6009
X2.8856 Y5.6036
G2 X2.9039 Y5.6286 I0.0333 J-0.0052
G3 X2.9071 Y5.6593 I-0.0082 J0.0164
X1.7031 Y5.4454 I-0.5075 J-0.639
X1.8158 Y5.3767 I0.0563 J-0.0344
G2 X2.8264 Y5.5549 I0.5838 J-0.3564
G3 X2.9087 Y5.658 I0.0412 J0.0516
G1 X2.9071 Y5.6593
X2.9054 Y5.6603
X2.9035 Y5.6609
X2.9015 Y5.661
X2.8995 Y5.6606
X2.8723 Y5.6512
X2.8704 Y5.6508
X2.8686
X2.8667 Y5.6513
X2.8651 Y5.6522
G3 X2.8074 Y5.5705 Z-0.2655 I-0.0288 J-0.0409 F20.
X2.8651 Y5.6522 Z-0.271 I0.0288 J0.0409
X2.8074 Y5.5705 Z-0.2765 I-0.0288 J-0.0409
X2.8856 Y5.6036 Z-0.28 I0.0288 J0.0409
X2.8779 Y5.6235 I-0.0209 J0.0033 F40.
X2.2508 Y5.7756 I-0.4769 J-0.5974
X1.8247 Y5.5322 I0.1492 J-0.7559
X1.7476 Y5.4294 I0.5973 J-0.5286
X1.741 Y5.4115 I0.0387 J-0.0243
X1.7492 Y5.3942 I0.0172 J-0.0024
X1.7783 Y5.4022 I0.0108 J0.0177
G2 X1.7939 Y5.4281 I0.2448 J-0.1294
X2.6334 Y5.7121 I0.6069 J-0.4112
X2.8437 Y5.6 I-0.2374 J-0.6986
X2.8552 Y5.591 I-0.416 J-0.5435
G3 X2.8828 Y5.5958 I0.0117 J0.0146
G1 X2.8841 Y5.5983
X2.885 Y5.6009
X2.8856 Y5.6036
G2 X2.9039 Y5.6286 I0.0333 J-0.0052
G3 X2.9071 Y5.6593 I-0.0082 J0.0164
X1.7031 Y5.4454 I-0.5075 J-0.639
X1.8158 Y5.3767 I0.0563 J-0.0344
G2 X2.8264 Y5.5549 I0.5838 J-0.3564
G3 X2.9087 Y5.658 I0.0412 J0.0516
G1 X2.9071 Y5.6593
G3 X2.8943 Y5.6514 I-0.005 J-0.0063
G1 X2.8975 Y5.6355
G2 X2.8823 Y5.6308 I-0.0078 J-0.0016
G3 X2.7902 Y5.5918 Z-0.2855 I-0.046 J-0.0195 F20.
X2.8856 Y5.6036 Z-0.29 I0.046 J0.0195
X2.8779 Y5.6235 I-0.0209 J0.0033 F40.
X2.2508 Y5.7756 I-0.4769 J-0.5974
X1.8247 Y5.5322 I0.1492 J-0.7559
X1.7476 Y5.4294 I0.5973 J-0.5286
X1.741 Y5.4115 I0.0387 J-0.0243
X1.7492 Y5.3942 I0.0172 J-0.0024
X1.7783 Y5.4022 I0.0108 J0.0177
G2 X1.7939 Y5.4281 I0.2448 J-0.1294
X2.6334 Y5.7121 I0.6069 J-0.4112
X2.8437 Y5.6 I-0.2374 J-0.6986
X2.8552 Y5.591 I-0.416 J-0.5435
G3 X2.8828 Y5.5958 I0.0117 J0.0146
G1 X2.8841 Y5.5983
X2.885 Y5.6009
X2.8856 Y5.6036
G2 X2.9039 Y5.6286 I0.0333 J-0.0052
G3 X2.9071 Y5.6593 I-0.0082 J0.0164
X1.7031 Y5.4454 I-0.5075 J-0.639
X1.8158 Y5.3767 I0.0563 J-0.0344
G2 X2.8264 Y5.5549 I0.5838 J-0.3564
G3 X2.9087 Y5.658 I0.0412 J0.0516
G1 X2.9071 Y5.6593
X2.9052 Y5.6605 Z-0.2896
X2.9031 Y5.6614 Z-0.2891
X2.9013 Y5.6618 Z-0.2878
X2.8994 Z-0.2865
X2.8968 Y5.6615 Z-0.2827
X2.896 Y5.6612 Z-0.2782
G0 Z0.2
X4.6404 Y4.1899
G1 Z0.1118 F40.
X4.6389 Y4.1904 Z0.106 F20.
X4.635 Y4.1915 Z0.1017
X4.6322 Y4.1921 Z0.1009
X4.6293 Y4.1925 Z0.1
G3 X4.6173 Y4.0933 Z0.0945 I-0.006 J-0.0496
X4.6293 Y4.1925 Z0.089 I0.006 J0.0496
X4.6173 Y4.0933 Z0.0835 I-0.006 J-0.0496
X4.6293 Y4.1925 Z0.0781 I0.006 J0.0496
X4.6173 Y4.0933 Z0.0726 I-0.006 J-0.0496
X4.6293 Y4.1925 Z0.0671 I0.006 J0.0496
X4.6173 Y4.0933 Z0.0616 I-0.006 J-0.0496
X4.6293 Y4.1925 Z0.0561 I0.006 J0.0496
X4.6173 Y4.0933 Z0.0506 I-0.006 J-0.0496
X4.6293 Y4.1925 Z0.0451 I0.006 J0.0496
X4.6173 Y4.0933 Z0.0397 I-0.006 J-0.0496
X4.6293 Y4.1925 Z0.0342 I0.006 J0.0496
X4.6173 Y4.0933 Z0.0287 I-0.006 J-0.0496
X4.6293 Y4.1925 Z0.0232 I0.006 J0.0496
X4.6173 Y4.0933 Z0.0177 I-0.006 J-0.0496
X4.6293 Y4.1925 Z0.0122 I0.006 J0.0496
X4.6173 Y4.0933 Z0.0067 I-0.006 J-0.0496
X4.6293 Y4.1925 Z0.0013 I0.006 J0.0496
X4.6173 Y4.0933 Z-0.0042 I-0.006 J-0.0496
X4.6293 Y4.1925 Z-0.0097 I0.006 J0.0496
X4.6173 Y4.0933 Z-0.0152 I-0.006 J-0.0496
X4.6477 Y4.1866 Z-0.02 I0.006 J0.0496
X4.6062 Y4.1121 I-0.0207 J-0.0372
G2 X4.6267 Y4.0995 I-0.1347 J-0.2416 F40.
X4.7473 Y2.99 I-0.4106 J-0.6059
X4.6898 Y2.9359 I-0.5029 J0.4766
X4.6267 Y2.8882 I-0.4955 J0.5904
X4.6008 Y2.8726 I-0.1553 J0.2292
G3 X4.5928 Y2.8435 I0.0097 J-0.0184
X4.6234 Y2.8374 I0.0181 J0.011
G2 X4.6489 Y2.8555 I0.4715 J-0.64
G3 X4.776 Y4.0249 I-0.4328 J0.6387
X4.7154 Y4.082 I-0.5315 J-0.5036
X4.6489 Y4.1322 I-0.5211 J-0.6206
G2 X4.6234 Y4.1503 I0.4464 J0.6587
G3 X4.5928 Y4.1442 I-0.0126 J-0.0171
X4.6008 Y4.1151 I0.0177 J-0.0108
G1 X4.6062 Y4.1121
G2 X4.6246 Y4.0731 I-0.018 J-0.0324
G3 X4.64 Y4.0328 I0.041 J-0.0075
G2 X4.5752 Y2.9101 I-0.4212 J-0.5389
G3 X4.644 Y2.7974 I0.0344 J-0.0563
Y4.1903 I-0.4252 J0.6964
X4.5752 Y4.0776 I-0.0344 J-0.0563
G2 X4.64 Y4.0328 I-0.3565 J-0.5838
G1 X4.6418 Y4.0317
X4.6439 Y4.0312
X4.6904 Y4.0255
X4.6919
X4.6934 Y4.0257
X4.6948 Y4.0262
G3 X4.6516 Y4.1165 Z-0.0255 I-0.0216 J0.0451 F20.
X4.6948 Y4.0262 Z-0.031 I0.0216 J-0.0451
X4.6516 Y4.1165 Z-0.0365 I-0.0216 J0.0451
X4.6423 Y4.032 Z-0.04 I0.0216 J-0.0451
X4.6948 Y4.0988 I0.0262 J0.0334
X4.6489 Y4.1322 I-0.5005 J-0.6374 F40.
G2 X4.6234 Y4.1503 I0.4464 J0.6587
G3 X4.5928 Y4.1442 I-0.0126 J-0.0171
X4.6008 Y4.1151 I0.0177 J-0.0108
G2 X4.6267 Y4.0995 I-0.1293 J-0.2446
X4.7473 Y2.99 I-0.4106 J-0.6059
X4.6898 Y2.9359 I-0.5029 J0.4766
X4.6267 Y2.8882 I-0.4955 J0.5904
X4.6008 Y2.8726 I-0.1553 J0.2292
G3 X4.5928 Y2.8435 I0.0097 J-0.0184
X4.6234 Y2.8374 I0.0181 J0.011
G2 X4.6489 Y2.8555 I0.4715 J-0.64
G3 X4.776 Y4.0249 I-0.4328 J0.6387
X4.7154 Y4.082 I-0.5315 J-0.5036
X4.6948 Y4.0988 I-0.5211 J-0.6206
G2 X4.6817 Y4.1375 I0.023 J0.0293
G3 X4.667 Y4.1757 I-0.0339 J0.0089
X4.644 Y4.1903 I-0.4483 J-0.6818
X4.5752 Y4.0776 I-0.0344 J-0.0563
G2 Y2.9101 I-0.3565 J-0.5838
G3 X4.644 Y2.7974 I0.0344 J-0.0563
X4.667 Y4.1757 I-0.4252 J0.6964
G1 X4.665 Y4.1766
X4.6629 Y4.177
X4.6151 Y4.1783
X4.6136 Y4.1782
X4.6121 Y4.1778
X4.6107 Y4.1771
G3 X4.6632 Y4.092 Z-0.0455 I0.0262 J-0.0426 F20.
X4.6107 Y4.1771 Z-0.051 I-0.0262 J0.0426
X4.6632 Y4.092 Z-0.0565 I0.0262 J-0.0426
X4.6635 Y4.1769 Z-0.06 I-0.0262 J0.0426
X4.605 Y4.1635 I-0.0225 J-0.036
X4.6184 Y4.1049 I0.036 J-0.0225
G2 X4.6267 Y4.0995 I-0.1469 J-0.2344 F40.
X4.7473 Y2.99 I-0.4106 J-0.6059
X4.6898 Y2.9359 I-0.5029 J0.4766
X4.6267 Y2.8882 I-0.4955 J0.5904
X4.6008 Y2.8726 I-0.1553 J0.2292
G3 X4.5928 Y2.8435 I0.0097 J-0.0184
X4.6234 Y2.8374 I0.0181 J0.011
G2 X4.6489 Y2.8555 I0.4715 J-0.64
G3 X4.776 Y4.0249 I-0.4328 J0.6387
X4.7154 Y4.082 I-0.5315 J-0.5036
X4.6489 Y4.1322 I-0.5211 J-0.6206
G2 X4.6234 Y4.1503 I0.4464 J0.6587
G3 X4.5928 Y4.1442 I-0.0126 J-0.0171
X4.6008 Y4.1151 I0.0177 J-0.0108
G2 X4.6184 Y4.1049 I-0.1293 J-0.2446
X4.6353 Y4.0654 I-0.02 J-0.0319
G3 X4.6498 Y4.025 I0.0405 J-0.0083
G2 X4.5752 Y2.9101 I-0.431 J-0.5311
G3 X4.644 Y2.7974 I0.0344 J-0.0563
Y4.1903 I-0.4252 J0.6964
X4.5752 Y4.0776 I-0.0344 J-0.0563
G2 X4.6498 Y4.025 I-0.3565 J-0.5838
G1 X4.6516 Y4.0239
X4.6536 Y4.0233
X4.701 Y4.0159
X4.7026 Y4.0158
X4.7041 Y4.016
X4.7056 Y4.0165
G3 X4.6642 Y4.1075 Z-0.0655 I-0.0207 J0.0455 F20.
X4.7056 Y4.0165 Z-0.071 I0.0207 J-0.0455
X4.6642 Y4.1075 Z-0.0765 I-0.0207 J0.0455
X4.6533 Y4.0233 Z-0.08 I0.0207 J-0.0455
X4.713 Y4.0293 I0.0268 J0.0329
X4.7069 Y4.089 I-0.0329 J0.0268
X4.6489 Y4.1322 I-0.5127 J-0.6276 F40.
G2 X4.6234 Y4.1503 I0.4464 J0.6587
G3 X4.5928 Y4.1442 I-0.0126 J-0.0171
X4.6008 Y4.1151 I0.0177 J-0.0108
G2 X4.6267 Y4.0995 I-0.1293 J-0.2446
X4.7473 Y2.99 I-0.4106 J-0.6059
X4.6898 Y2.9359 I-0.5029 J0.4766
X4.6267 Y2.8882 I-0.4955 J0.5904
X4.6008 Y2.8726 I-0.1553 J0.2292
G3 X4.5928 Y2.8435 I0.0097 J-0.0184
X4.6234 Y2.8374 I0.0181 J0.011
G2 X4.6489 Y2.8555 I0.4715 J-0.64
G3 X4.776 Y4.0249 I-0.4328 J0.6387
X4.7154 Y4.082 I-0.5315 J-0.5036
X4.7069 Y4.089 I-0.5211 J-0.6206
G2 X4.6947 Y4.128 I0.0236 J0.0289
G3 X4.6808 Y4.1665 I-0.0338 J0.0095
X4.644 Y4.1903 I-0.462 J-0.6726
X4.5752 Y4.0776 I-0.0344 J-0.0563
G2 Y2.9101 I-0.3565 J-0.5838
G3 X4.644 Y2.7974 I0.0344 J-0.0563
X4.6808 Y4.1665 I-0.4252 J0.6964
G1 X4.6792 Y4.1672
X4.6774 Y4.1675
X4.6756 Y4.1672
X4.674 Y4.1664
X4.6728 Y4.1652
X4.6719 Y4.1636
X4.653 Y4.1126
X4.6487 Y4.0628
G3 X4.6575 Y4.0572 I0.0059 J-0.0005
X4.6086 Y4.1444 Z-0.0855 I-0.0244 J0.0436 F20.
X4.6575 Y4.0572 Z-0.091 I0.0244 J-0.0436
X4.6086 Y4.1444 Z-0.0965 I-0.0244 J0.0436
X4.6048 Y4.0596 Z-0.1 I0.0244 J-0.0436
X4.6528 Y4.1296 I0.024 J0.035
G1 X4.6489 Y4.1322 F40.
G2 X4.6234 Y4.1503 I0.4464 J0.6587
G3 X4.5928 Y4.1442 I-0.0126 J-0.0171
X4.6008 Y4.1151 I0.0177 J-0.0108
G2 X4.6267 Y4.0995 I-0.1293 J-0.2446
X4.7473 Y2.99 I-0.4106 J-0.6059
X4.6898 Y2.9359 I-0.5029 J0.4766
X4.6267 Y2.8882 I-0.4955 J0.5904
X4.6008 Y2.8726 I-0.1553 J0.2292
G3 X4.5928 Y2.8435 I0.0097 J-0.0184
X4.6234 Y2.8374 I0.0181 J0.011
G2 X4.6489 Y2.8555 I0.4715 J-0.64
G3 X4.776 Y4.0249 I-0.4328 J0.6387
X4.7154 Y4.082 I-0.5315 J-0.5036
X4.6528 Y4.1296 I-0.5211 J-0.6206
G2 X4.6396 Y4.1666 I0.019 J0.0276
G3 X4.618 Y4.1994 I-0.0248 J0.0072
X4.5752 Y4.0776 I-0.0084 J-0.0655
G2 Y2.9101 I-0.3565 J-0.5838
G3 X4.644 Y2.7974 I0.0344 J-0.0563
Y4.1903 I-0.4252 J0.6964
X4.618 Y4.1994 I-0.0344 J-0.0563
G1 X4.6162
X4.6145 Y4.1989
X4.6129 Y4.198
X4.5949 Y4.1841
G3 X4.6517 Y4.1017 Z-0.1055 I0.0284 J-0.0412 F20.
X4.5949 Y4.1841 Z-0.111 I-0.0284 J0.0412
X4.6517 Y4.1017 Z-0.1165 I0.0284 J-0.0412
X4.6477 Y4.1866 Z-0.12 I-0.0284 J0.0412
X4.6062 Y4.1121 I-0.0207 J-0.0372
G2 X4.6267 Y4.0995 I-0.1347 J-0.2416 F40.
X4.7473 Y2.99 I-0.4106 J-0.6059
X4.6898 Y2.9359 I-0.5029 J0.4766
X4.6267 Y2.8882 I-0.4955 J0.5904
X4.6008 Y2.8726 I-0.1553 J0.2292
G3 X4.5928 Y2.8435 I0.0097 J-0.0184
X4.6234 Y2.8374 I0.0181 J0.011
G2 X4.6489 Y2.8555 I0.4715 J-0.64
G3 X4.776 Y4.0249 I-0.4328 J0.6387
X4.7154 Y4.082 I-0.5315 J-0.5036
X4.6489 Y4.1322 I-0.5211 J-0.6206
G2 X4.6234 Y4.1503 I0.4464 J0.6587
G3 X4.5928 Y4.1442 I-0.0126 J-0.0171
X4.6008 Y4.1151 I0.0177 J-0.0108
G1 X4.6062 Y4.1121
G2 X4.6246 Y4.0731 I-0.018 J-0.0324
G3 X4.64 Y4.0328 I0.041 J-0.0075
G2 X4.5752 Y2.9101 I-0.4212 J-0.5389
G3 X4.644 Y2.7974 I0.0344 J-0.0563
Y4.1903 I-0.4252 J0.6964
X4.5752 Y4.0776 I-0.0344 J-0.0563
G2 X4.64 Y4.0328 I-0.3565 J-0.5838
G1 X4.6418 Y4.0317
X4.6439 Y4.0312
X4.6904 Y4.0255
X4.6919
X4.6934 Y4.0257
X4.6948 Y4.0262
G3 X4.6516 Y4.1165 Z-0.1255 I-0.0216 J0.0451 F20.
X4.6948 Y4.0262 Z-0.131 I0.0216 J-0.0451
X4.6516 Y4.1165 Z-0.1365 I-0.0216 J0.0451
X4.6423 Y4.032 Z-0.14 I0.0216 J-0.0451
X4.6948 Y4.0988 I0.0262 J0.0334
X4.6489 Y4.1322 I-0.5005 J-0.6374 F40.
G2 X4.6234 Y4.1503 I0.4464 J0.6587
G3 X4.5928 Y4.1442 I-0.0126 J-0.0171
X4.6008 Y4.1151 I0.0177 J-0.0108
G2 X4.6267 Y4.0995 I-0.1293 J-0.2446
X4.7473 Y2.99 I-0.4106 J-0.6059
X4.6898 Y2.9359 I-0.5029 J0.4766
X4.6267 Y2.8882 I-0.4955 J0.5904
X4.6008 Y2.8726 I-0.1553 J0.2292
G3 X4.5928 Y2.8435 I0.0097 J-0.0184
X4.6234 Y2.8374 I0.0181 J0.011
G2 X4.6489 Y2.8555 I0.4715 J-0.64
G3 X4.776 Y4.0249 I-0.4328 J0.6387
X4.7154 Y4.082 I-0.5315 J-0.5036
X4.6948 Y4.0988 I-0.5211 J-0.6206
G2 X4.6817 Y4.1375 I0.023 J0.0293
G3 X4.667 Y4.1757 I-0.0339 J0.0089
X4.644 Y4.1903 I-0.4483 J-0.6818
X4.5752 Y4.0776 I-0.0344 J-0.0563
G2 Y2.9101 I-0.3565 J-0.5838
G3 X4.644 Y2.7974 I0.0344 J-0.0563
X4.667 Y4.1757 I-0.4252 J0.6964
G1 X4.665 Y4.1766
X4.6629 Y4.177
X4.6151 Y4.1783
X4.6136 Y4.1782
X4.6121 Y4.1778
X4.6107 Y4.1771
G3 X4.6632 Y4.092 Z-0.1455 I0.0262 J-0.0426 F20.
X4.6107 Y4.1771 Z-0.151 I-0.0262 J0.0426
X4.6632 Y4.092 Z-0.1565 I0.0262 J-0.0426
X4.6635 Y4.1769 Z-0.16 I-0.0262 J0.0426
X4.605 Y4.1635 I-0.0225 J-0.036
X4.6184 Y4.1049 I0.036 J-0.0225
G2 X4.6267 Y4.0995 I-0.1469 J-0.2344 F40.
X4.7473 Y2.99 I-0.4106 J-0.6059
X4.6898 Y2.9359 I-0.5029 J0.4766
X4.6267 Y2.8882 I-0.4955 J0.5904
X4.6008 Y2.8726 I-0.1553 J0.2292
G3 X4.5928 Y2.8435 I0.0097 J-0.0184
X4.6234 Y2.8374 I0.0181 J0.011
G2 X4.6489 Y2.8555 I0.4715 J-0.64
G3 X4.776 Y4.0249 I-0.4328 J0.6387
X4.7154 Y4.082 I-0.5315 J-0.5036
X4.6489 Y4.1322 I-0.5211 J-0.6206
G2 X4.6234 Y4.1503 I0.4464 J0.6587
G3 X4.5928 Y4.1442 I-0.0126 J-0.0171
X4.6008 Y4.1151 I0.0177 J-0.0108
G2 X4.6184 Y4.1049 I-0.1293 J-0.2446
X4.6353 Y4.0654 I-0.02 J-0.0319
G3 X4.6498 Y4.025 I0.0405 J-0.0083
G2 X4.5752 Y2.9101 I-0.431 J-0.5311
G3 X4.644 Y2.7974 I0.0344 J-0.0563
Y4.1903 I-0.4252 J0.6964
X4.5752 Y4.0776 I-0.0344 J-0.0563
G2 X4.6498 Y4.025 I-0.3565 J-0.5838
G1 X4.6516 Y4.0239
X4.6536 Y4.0233
X4.701 Y4.0159
X4.7026 Y4.0158
X4.7041 Y4.016
X4.7056 Y4.0165
G3 X4.6642 Y4.1075 Z-0.1655 I-0.0207 J0.0455 F20.
X4.7056 Y4.0165 Z-0.171 I0.0207 J-0.0455
X4.6642 Y4.1075 Z-0.1765 I-0.0207 J0.0455
X4.6533 Y4.0233 Z-0.18 I0.0207 J-0.0455
X4.713 Y4.0293 I0.0268 J0.0329
X4.7069 Y4.089 I-0.0329 J0.0268
X4.6489 Y4.1322 I-0.5127 J-0.6276 F40.
G2 X4.6234 Y4.1503 I0.4464 J0.6587
G3 X4.5928 Y4.1442 I-0.0126 J-0.0171
X4.6008 Y4.1151 I0.0177 J-0.0108
G2 X4.6267 Y4.0995 I-0.1293 J-0.2446
X4.7473 Y2.99 I-0.4106 J-0.6059
X4.6898 Y2.9359 I-0.5029 J0.4766
X4.6267 Y2.8882 I-0.4955 J0.5904
X4.6008 Y2.8726 I-0.1553 J0.2292
G3 X4.5928 Y2.8435 I0.0097 J-0.0184
X4.6234 Y2.8374 I0.0181 J0.011
G2 X4.6489 Y2.8555 I0.4715 J-0.64
G3 X4.776 Y4.0249 I-0.4328 J0.6387
X4.7154 Y4.082 I-0.5315 J-0.5036
X4.7069 Y4.089 I-0.5211 J-0.6206
G2 X4.6947 Y4.128 I0.0236 J0.0289
G3 X4.6808 Y4.1665 I-0.0338 J0.0095
X4.644 Y4.1903 I-0.462 J-0.6726
X4.5752 Y4.0776 I-0.0344 J-0.0563
G2 Y2.9101 I-0.3565 J-0.5838
G3 X4.644 Y2.7974 I0.0344 J-0.0563
X4.6808 Y4.1665 I-0.4252 J0.6964
G1 X4.6792 Y4.1672
X4.6774 Y4.1675
X4.6756 Y4.1672
X4.674 Y4.1664
X4.6728 Y4.1652
X4.6719 Y4.1636
X4.653 Y4.1126
X4.6487 Y4.0628
G3 X4.6575 Y4.0572 I0.0059 J-0.0005
X4.6086 Y4.1444 Z-0.1855 I-0.0244 J0.0436 F20.
X4.6575 Y4.0572 Z-0.191 I0.0244 J-0.0436
X4.6086 Y4.1444 Z-0.1965 I-0.0244 J0.0436
X4.6048 Y4.0596 Z-0.2 I0.0244 J-0.0436
X4.6528 Y4.1296 I0.024 J0.035
G1 X4.6489 Y4.1322 F40.
G2 X4.6234 Y4.1503 I0.4464 J0.6587
G3 X4.5928 Y4.1442 I-0.0126 J-0.0171
X4.6008 Y4.1151 I0.0177 J-0.0108
G2 X4.6267 Y4.0995 I-0.1293 J-0.2446
X4.7473 Y2.99 I-0.4106 J-0.6059
X4.6898 Y2.9359 I-0.5029 J0.4766
X4.6267 Y2.8882 I-0.4955 J0.5904
X4.6008 Y2.8726 I-0.1553 J0.2292
G3 X4.5928 Y2.8435 I0.0097 J-0.0184
X4.6234 Y2.8374 I0.0181 J0.011
G2 X4.6489 Y2.8555 I0.4715 J-0.64
G3 X4.776 Y4.0249 I-0.4328 J0.6387
X4.7154 Y4.082 I-0.5315 J-0.5036
X4.6528 Y4.1296 I-0.5211 J-0.6206
G2 X4.6396 Y4.1666 I0.019 J0.0276
G3 X4.618 Y4.1994 I-0.0248 J0.0072
X4.5752 Y4.0776 I-0.0084 J-0.0655
G2 Y2.9101 I-0.3565 J-0.5838
G3 X4.644 Y2.7974 I0.0344 J-0.0563
Y4.1903 I-0.4252 J0.6964
X4.618 Y4.1994 I-0.0344 J-0.0563
G1 X4.6162
X4.6145 Y4.1989
X4.6129 Y4.198
X4.5949 Y4.1841
G3 X4.6517 Y4.1017 Z-0.2055 I0.0284 J-0.0412 F20.
X4.5949 Y4.1841 Z-0.211 I-0.0284 J0.0412
X4.6517 Y4.1017 Z-0.2165 I0.0284 J-0.0412
X4.6477 Y4.1866 Z-0.22 I-0.0284 J0.0412
X4.6062 Y4.1121 I-0.0207 J-0.0372
G2 X4.6267 Y4.0995 I-0.1347 J-0.2416 F40.
X4.7473 Y2.99 I-0.4106 J-0.6059
X4.6898 Y2.9359 I-0.5029 J0.4766
X4.6267 Y2.8882 I-0.4955 J0.5904
X4.6008 Y2.8726 I-0.1553 J0.2292
G3 X4.5928 Y2.8435 I0.0097 J-0.0184
X4.6234 Y2.8374 I0.0181 J0.011
G2 X4.6489 Y2.8555 I0.4715 J-0.64
G3 X4.776 Y4.0249 I-0.4328 J0.6387
X4.7154 Y4.082 I-0.5315 J-0.5036
X4.6489 Y4.1322 I-0.5211 J-0.6206
G2 X4.6234 Y4.1503 I0.4464 J0.6587
G3 X4.5928 Y4.1442 I-0.0126 J-0.0171
X4.6008 Y4.1151 I0.0177 J-0.0108
G1 X4.6062 Y4.1121
G2 X4.6246 Y4.0731 I-0.018 J-0.0324
G3 X4.64 Y4.0328 I0.041 J-0.0075
G2 X4.5752 Y2.9101 I-0.4212 J-0.5389
G3 X4.644 Y2.7974 I0.0344 J-0.0563
Y4.1903 I-0.4252 J0.6964
X4.5752 Y4.0776 I-0.0344 J-0.0563
G2 X4.64 Y4.0328 I-0.3565 J-0.5838
G1 X4.6418 Y4.0317
X4.6439 Y4.0312
X4.6904 Y4.0255
X4.6919
X4.6934 Y4.0257
X4.6948 Y4.0262
G3 X4.6516 Y4.1165 Z-0.2255 I-0.0216 J0.0451 F20.
X4.6948 Y4.0262 Z-0.231 I0.0216 J-0.0451
X4.6516 Y4.1165 Z-0.2365 I-0.0216 J0.0451
X4.6423 Y4.032 Z-0.24 I0.0216 J-0.0451
X4.6948 Y4.0988 I0.0262 J0.0334
X4.6489 Y4.1322 I-0.5005 J-0.6374 F40.
G2 X4.6234 Y4.1503 I0.4464 J0.6587
G3 X4.5928 Y4.1442 I-0.0126 J-0.0171
X4.6008 Y4.1151 I0.0177 J-0.0108
G2 X4.6267 Y4.0995 I-0.1293 J-0.2446
X4.7473 Y2.99 I-0.4106 J-0.6059
X4.6898 Y2.9359 I-0.5029 J0.4766
X4.6267 Y2.8882 I-0.4955 J0.5904
X4.6008 Y2.8726 I-0.1553 J0.2292
G3 X4.5928 Y2.8435 I0.0097 J-0.0184
X4.6234 Y2.8374 I0.0181 J0.011
G2 X4.6489 Y2.8555 I0.4715 J-0.64
G3 X4.776 Y4.0249 I-0.4328 J0.6387
X4.7154 Y4.082 I-0.5315 J-0.5036
X4.6948 Y4.0988 I-0.5211 J-0.6206
G2 X4.6817 Y4.1375 I0.023 J0.0293
G3 X4.667 Y4.1757 I-0.0339 J0.0089
X4.644 Y4.1903 I-0.4483 J-0.6818
X4.5752 Y4.0776 I-0.0344 J-0.0563
G2 Y2.9101 I-0.3565 J-0.5838
G3 X4.644 Y2.7974 I0.0344 J-0.0563
X4.667 Y4.1757 I-0.4252 J0.6964
G1 X4.665 Y4.1766
X4.6629 Y4.177
X4.6151 Y4.1783
X4.6136 Y4.1782
X4.6121 Y4.1778
X4.6107 Y4.1771
G3 X4.6632 Y4.092 Z-0.2455 I0.0262 J-0.0426 F20.
X4.6107 Y4.1771 Z-0.251 I-0.0262 J0.0426
X4.6632 Y4.092 Z-0.2565 I0.0262 J-0.0426
X4.6635 Y4.1769 Z-0.26 I-0.0262 J0.0426
X4.605 Y4.1635 I-0.0225 J-0.036
X4.6184 Y4.1049 I0.036 J-0.0225
G2 X4.6267 Y4.0995 I-0.1469 J-0.2344 F40.
X4.7473 Y2.99 I-0.4106 J-0.6059
X4.6898 Y2.9359 I-0.5029 J0.4766
X4.6267 Y2.8882 I-0.4955 J0.5904
X4.6008 Y2.8726 I-0.1553 J0.2292
G3 X4.5928 Y2.8435 I0.0097 J-0.0184
X4.6234 Y2.8374 I0.0181 J0.011
G2 X4.6489 Y2.8555 I0.4715 J-0.64
G3 X4.776 Y4.0249 I-0.4328 J0.6387
X4.7154 Y4.082 I-0.5315 J-0.5036
X4.6489 Y4.1322 I-0.5211 J-0.6206
G2 X4.6234 Y4.1503 I0.4464 J0.6587
G3 X4.5928 Y4.1442 I-0.0126 J-0.0171
X4.6008 Y4.1151 I0.0177 J-0.0108
G2 X4.6184 Y4.1049 I-0.1293 J-0.2446
X4.6353 Y4.0654 I-0.02 J-0.0319
G3 X4.6498 Y4.025 I0.0405 J-0.0083
G2 X4.5752 Y2.9101 I-0.431 J-0.5311
G3 X4.644 Y2.7974 I0.0344 J-0.0563
Y4.1903 I-0.4252 J0.6964
X4.5752 Y4.0776 I-0.0344 J-0.0563
G2 X4.6498 Y4.025 I-0.3565 J-0.5838
G1 X4.6516 Y4.0239
X4.6536 Y4.0233
X4.701 Y4.0159
X4.7026 Y4.0158
X4.7041 Y4.016
X4.7056 Y4.0165
G3 X4.6642 Y4.1075 Z-0.2655 I-0.0207 J0.0455 F20.
X4.7056 Y4.0165 Z-0.271 I0.0207 J-0.0455
X4.6642 Y4.1075 Z-0.2765 I-0.0207 J0.0455
X4.6533 Y4.0233 Z-0.28 I0.0207 J-0.0455
X4.713 Y4.0293 I0.0268 J0.0329
X4.7069 Y4.089 I-0.0329 J0.0268
X4.6489 Y4.1322 I-0.5127 J-0.6276 F40.
G2 X4.6234 Y4.1503 I0.4464 J0.6587
G3 X4.5928 Y4.1442 I-0.0126 J-0.0171
X4.6008 Y4.1151 I0.0177 J-0.0108
G2 X4.6267 Y4.0995 I-0.1293 J-0.2446
X4.7473 Y2.99 I-0.4106 J-0.6059
X4.6898 Y2.9359 I-0.5029 J0.4766
X4.6267 Y2.8882 I-0.4955 J0.5904
X4.6008 Y2.8726 I-0.1553 J0.2292
G3 X4.5928 Y2.8435 I0.0097 J-0.0184
X4.6234 Y2.8374 I0.0181 J0.011
G2 X4.6489 Y2.8555 I0.4715 J-0.64
G3 X4.776 Y4.0249 I-0.4328 J0.6387
X4.7154 Y4.082 I-0.5315 J-0.5036
X4.7069 Y4.089 I-0.5211 J-0.6206
G2 X4.6947 Y4.128 I0.0236 J0.0289
G3 X4.6808 Y4.1665 I-0.0338 J0.0095
X4.644 Y4.1903 I-0.462 J-0.6726
X4.5752 Y4.0776 I-0.0344 J-0.0563
G2 Y2.9101 I-0.3565 J-0.5838
G3 X4.644 Y2.7974 I0.0344 J-0.0563
X4.6808 Y4.1665 I-0.4252 J0.6964
X4.6223 Y4.157 Z-0.2821 I-0.0243 J-0.0353 F20.
G1 X4.5944 Y4.1201 Z-0.2835
G3 X4.6627 Y4.0683 Z-0.2878 I0.0342 J-0.0259
X4.6528 Y4.1296 Z-0.29 I-0.0342 J0.0259
G1 X4.6489 Y4.1322 F40.
G2 X4.6234 Y4.1503 I0.4464 J0.6587
G3 X4.5928 Y4.1442 I-0.0126 J-0.0171
X4.6008 Y4.1151 I0.0177 J-0.0108
G2 X4.6267 Y4.0995 I-0.1293 J-0.2446
X4.7473 Y2.99 I-0.4106 J-0.6059
X4.6898 Y2.9359 I-0.5029 J0.4766
X4.6267 Y2.8882 I-0.4955 J0.5904
X4.6008 Y2.8726 I-0.1553 J0.2292
G3 X4.5928 Y2.8435 I0.0097 J-0.0184
X4.6234 Y2.8374 I0.0181 J0.011
G2 X4.6489 Y2.8555 I0.4715 J-0.64
G3 X4.776 Y4.0249 I-0.4328 J0.6387
X4.7154 Y4.082 I-0.5315 J-0.5036
X4.6528 Y4.1296 I-0.5211 J-0.6206
G2 X4.6396 Y4.1666 I0.019 J0.0276
G3 X4.618 Y4.1994 I-0.0248 J0.0072
X4.5752 Y4.0776 I-0.0084 J-0.0655
G2 Y2.9101 I-0.3565 J-0.5838
G3 X4.644 Y2.7974 I0.0344 J-0.0563
Y4.1903 I-0.4252 J0.6964
X4.618 Y4.1994 I-0.0344 J-0.0563
G1 X4.6158 Y4.1995 Z-0.2896
X4.6136 Y4.1991 Z-0.2891
X4.6118 Y4.1985 Z-0.2878
X4.6101 Y4.1976 Z-0.2865
X4.6081 Y4.1959 Z-0.2827
X4.6075 Y4.1953 Z-0.2782
G0 Z0.2
X0.4903 Y3.3393
G1 Z0.1118 F40.
X0.49 Y3.3378 Z0.106 F20.
X0.4894 Y3.3337 Z0.1017
X0.4892 Y3.3309 Z0.1009
X0.4891 Y3.328 Z0.1
G3 X0.5891 Y3.3291 Z0.0945 I0.05 J0.0005
X0.4891 Y3.328 Z0.089 I-0.05 J-0.0005
X0.5891 Y3.3291 Z0.0835 I0.05 J0.0005
X0.4891 Y3.328 Z0.0781 I-0.05 J-0.0005
X0.5891 Y3.3291 Z0.0726 I0.05 J0.0005
X0.4891 Y3.328 Z0.0671 I-0.05 J-0.0005
X0.5891 Y3.3291 Z0.0616 I0.05 J0.0005
X0.4891 Y3.328 Z0.0561 I-0.05 J-0.0005
X0.5891 Y3.3291 Z0.0506 I0.05 J0.0005
X0.4891 Y3.328 Z0.0451 I-0.05 J-0.0005
X0.5891 Y3.3291 Z0.0397 I0.05 J0.0005
X0.4891 Y3.328 Z0.0342 I-0.05 J-0.0005
X0.5891 Y3.3291 Z0.0287 I0.05 J0.0005
X0.4891 Y3.328 Z0.0232 I-0.05 J-0.0005
X0.5891 Y3.3291 Z0.0177 I0.05 J0.0005
X0.4891 Y3.328 Z0.0122 I-0.05 J-0.0005
X0.5891 Y3.3291 Z0.0067 I0.05 J0.0005
X0.4891 Y3.328 Z0.0013 I-0.05 J-0.0005
X0.5891 Y3.3291 Z-0.0042 I0.05 J0.0005
X0.4891 Y3.328 Z-0.0097 I-0.05 J-0.0005
X0.5891 Y3.3291 Z-0.0152 I0.05 J0.0005
X0.4926 Y3.347 Z-0.02 I-0.05 J-0.0005
X0.571 Y3.3159 I0.0392 J-0.0155
G1 X0.5715 Y3.3174 F40.
G3 X0.5632 Y3.3401 I-0.0171 J0.0066
X0.5337 Y3.33 I-0.0101 J-0.0186
G2 X0.5206 Y3.3017 I-0.741 J0.3248
G3 X0.5085 Y2.6519 I0.6969 J-0.338
X0.8399 Y2.29 I0.7036 J0.3116
X0.9171 Y2.2528 I0.3882 J0.7066
X0.9314 Y2.247 I0.2879 J0.6928
X0.957 Y2.2582 I0.0072 J0.0184
X0.9444 Y2.2853 I-0.0192 J0.0075
G2 X0.9165 Y2.2961 I0.1046 J0.3123
X0.4895 Y3.0682 I0.2928 J0.666
X0.5616 Y3.2953 I0.7346 J-0.1082
G3 X0.571 Y3.3159 I-0.2133 J0.1089
G2 X0.5944 Y3.336 I0.0309 J-0.0122
G3 X0.6042 Y3.3653 I-0.0041 J0.0176
X0.4958 Y3.3543 I-0.0504 J-0.0426
X0.9145 Y2.204 I0.7164 J-0.3906
X1.0001 Y2.2414 I0.0241 J0.0615
X0.9627 Y2.3269 I-0.0615 J0.0241
G2 X0.6117 Y3.2911 I0.2496 J0.6368
G3 X0.6042 Y3.3653 I-0.058 J0.0316
G1 X0.6028 Y3.3665
X0.6011 Y3.3673
X0.5993 Y3.3674
X0.5975 Y3.367
X0.5959 Y3.3661
X0.5527 Y3.3306
X0.5036 Y3.3042
X0.5022 Y3.3031
X0.5011 Y3.3017
X0.5006 Y3.3
X0.5005 Y3.2982
X0.501 Y3.2965
X0.502 Y3.295
G3 X0.5762 Y3.362 Z-0.0255 I0.0371 J0.0335 F20.
X0.502 Y3.295 Z-0.031 I-0.0371 J-0.0335
X0.5762 Y3.362 Z-0.0365 I0.0371 J0.0335
X0.4926 Y3.347 Z-0.04 I-0.0371 J-0.0335
X0.571 Y3.3159 I0.0392 J-0.0155
G1 X0.5715 Y3.3174 F40.
G3 X0.5632 Y3.3401 I-0.0171 J0.0066
X0.5337 Y3.33 I-0.0101 J-0.0186
G2 X0.5206 Y3.3017 I-0.741 J0.3248
G3 X0.5085 Y2.6519 I0.6969 J-0.338
X0.8399 Y2.29 I0.7036 J0.3116
X0.9171 Y2.2528 I0.3882 J0.7066
X0.9314 Y2.247 I0.2879 J0.6928
X0.957 Y2.2582 I0.0072 J0.0184
X0.9444 Y2.2853 I-0.0192 J0.0075
G2 X0.9165 Y2.2961 I0.1046 J0.3123
X0.4895 Y3.0682 I0.2928 J0.666
X0.5616 Y3.2953 I0.7346 J-0.1082
G3 X0.571 Y3.3159 I-0.2133 J0.1089
G2 X0.5944 Y3.336 I0.0309 J-0.0122
G3 X0.6042 Y3.3653 I-0.0041 J0.0176
X0.4958 Y3.3543 I-0.0504 J-0.0426
X0.9145 Y2.204 I0.7164 J-0.3906
X1.0001 Y2.2414 I0.0241 J0.0615
X0.9627 Y2.3269 I-0.0615 J0.0241
G2 X0.6117 Y3.2911 I0.2496 J0.6368
G3 X0.6042 Y3.3653 I-0.058 J0.0316
G1 X0.6028 Y3.3665
X0.6011 Y3.3673
X0.5993 Y3.3674
X0.5975 Y3.367
X0.5959 Y3.3661
X0.5527 Y3.3306
X0.5036 Y3.3042
X0.5022 Y3.3031
X0.5011 Y3.3017
X0.5006 Y3.3
X0.5005 Y3.2982
X0.501 Y3.2965
X0.502 Y3.295
G3 X0.5762 Y3.362 Z-0.0455 I0.0371 J0.0335 F20.
X0.502 Y3.295 Z-0.051 I-0.0371 J-0.0335
X0.5762 Y3.362 Z-0.0565 I0.0371 J0.0335
X0.4926 Y3.347 Z-0.06 I-0.0371 J-0.0335
X0.571 Y3.3159 I0.0392 J-0.0155
G1 X0.5715 Y3.3174 F40.
G3 X0.5632 Y3.3401 I-0.0171 J0.0066
X0.5337 Y3.33 I-0.0101 J-0.0186
G2 X0.5206 Y3.3017 I-0.741 J0.3248
G3 X0.5085 Y2.6519 I0.6969 J-0.338
X0.8399 Y2.29 I0.7036 J0.3116
X0.9171 Y2.2528 I0.3882 J0.7066
X0.9314 Y2.247 I0.2879 J0.6928
X0.957 Y2.2582 I0.0072 J0.0184
X0.9444 Y2.2853 I-0.0192 J0.0075
G2 X0.9165 Y2.2961 I0.1046 J0.3123
X0.4895 Y3.0682 I0.2928 J0.666
X0.5616 Y3.2953 I0.7346 J-0.1082
G3 X0.571 Y3.3159 I-0.2133 J0.1089
G2 X0.5944 Y3.336 I0.0309 J-0.0122
G3 X0.6042 Y3.3653 I-0.0041 J0.0176
X0.4958 Y3.3543 I-0.0504 J-0.0426
X0.9145 Y2.204 I0.7164 J-0.3906
X1.0001 Y2.2414 I0.0241 J0.0615
X0.9627 Y2.3269 I-0.0615 J0.0241
G2 X0.6117 Y3.2911 I0.2496 J0.6368
G3 X0.6042 Y3.3653 I-0.058 J0.0316
G1 X0.6028 Y3.3665
X0.6011 Y3.3673
X0.5993 Y3.3674
X0.5975 Y3.367
X0.5959 Y3.3661
X0.5527 Y3.3306
X0.5036 Y3.3042
X0.5022 Y3.3031
X0.5011 Y3.3017
X0.5006 Y3.3
X0.5005 Y3.2982
X0.501 Y3.2965
X0.502 Y3.295
G3 X0.5762 Y3.362 Z-0.0655 I0.0371 J0.0335 F20.
X0.502 Y3.295 Z-0.071 I-0.0371 J-0.0335
X0.5762 Y3.362 Z-0.0765 I0.0371 J0.0335
X0.4926 Y3.347 Z-0.08 I-0.0371 J-0.0335
X0.571 Y3.3159 I0.0392 J-0.0155
G1 X0.5715 Y3.3174 F40.
G3 X0.5632 Y3.3401 I-0.0171 J0.0066
X0.5337 Y3.33 I-0.0101 J-0.0186
G2 X0.5206 Y3.3017 I-0.741 J0.3248
G3 X0.5085 Y2.6519 I0.6969 J-0.338
X0.8399 Y2.29 I0.7036 J0.3116
X0.9171 Y2.2528 I0.3882 J0.7066
X0.9314 Y2.247 I0.2879 J0.6928
X0.957 Y2.2582 I0.0072 J0.0184
X0.9444 Y2.2853 I-0.0192 J0.0075
G2 X0.9165 Y2.2961 I0.1046 J0.3123
X0.4895 Y3.0682 I0.2928 J0.666
X0.5616 Y3.2953 I0.7346 J-0.1082
G3 X0.571 Y3.3159 I-0.2133 J0.1089
G2 X0.5944 Y3.336 I0.0309 J-0.0122
G3 X0.6042 Y3.3653 I-0.0041 J0.0176
X0.4958 Y3.3543 I-0.0504 J-0.0426
X0.9145 Y2.204 I0.7164 J-0.3906
X1.0001 Y2.2414 I0.0241 J0.0615
X0.9627 Y2.3269 I-0.0615 J0.0241
G2 X0.6117 Y3.2911 I0.2496 J0.6368
G3 X0.6042 Y3.3653 I-0.058 J0.0316
G1 X0.6028 Y3.3665
X0.6011 Y3.3673
X0.5993 Y3.3674
X0.5975 Y3.367
X0.5959 Y3.3661
X0.5527 Y3.3306
X0.5036 Y3.3042
X0.5022 Y3.3031
X0.5011 Y3.3017
X0.5006 Y3.3
X0.5005 Y3.2982
X0.501 Y3.2965
X0.502 Y3.295
G3 X0.5762 Y3.362 Z-0.0855 I0.0371 J0.0335 F20.
X0.502 Y3.295 Z-0.091 I-0.0371 J-0.0335
X0.5762 Y3.362 Z-0.0965 I0.0371 J0.0335
X0.4926 Y3.347 Z-0.1 I-0.0371 J-0.0335
X0.571 Y3.3159 I0.0392 J-0.0155
G1 X0.5715 Y3.3174 F40.
G3 X0.5632 Y3.3401 I-0.0171 J0.0066
X0.5337 Y3.33 I-0.0101 J-0.0186
G2 X0.5206 Y3.3017 I-0.741 J0.3248
G3 X0.5085 Y2.6519 I0.6969 J-0.338
X0.8399 Y2.29 I0.7036 J0.3116
X0.9171 Y2.2528 I0.3882 J0.7066
X0.9314 Y2.247 I0.2879 J0.6928
X0.957 Y2.2582 I0.0072 J0.0184
X0.9444 Y2.2853 I-0.0192 J0.0075
G2 X0.9165 Y2.2961 I0.1046 J0.3123
X0.4895 Y3.0682 I0.2928 J0.666
X0.5616 Y3.2953 I0.7346 J-0.1082
G3 X0.571 Y3.3159 I-0.2133 J0.1089
G2 X0.5944 Y3.336 I0.0309 J-0.0122
G3 X0.6042 Y3.3653 I-0.0041 J0.0176
X0.4958 Y3.3543 I-0.0504 J-0.0426
X0.9145 Y2.204 I0.7164 J-0.3906
X1.0001 Y2.2414 I0.0241 J0.0615
X0.9627 Y2.3269 I-0.0615 J0.0241
G2 X0.6117 Y3.2911 I0.2496 J0.6368
G3 X0.6042 Y3.3653 I-0.058 J0.0316
G1 X0.6028 Y3.3665
X0.6011 Y3.3673
X0.5993 Y3.3674
X0.5975 Y3.367
X0.5959 Y3.3661
X0.5527 Y3.3306
X0.5036 Y3.3042
X0.5022 Y3.3031
X0.5011 Y3.3017
X0.5006 Y3.3
X0.5005 Y3.2982
X0.501 Y3.2965
X0.502 Y3.295
G3 X0.5762 Y3.362 Z-0.1055 I0.0371 J0.0335 F20.
X0.502 Y3.295 Z-0.111 I-0.0371 J-0.0335
X0.5762 Y3.362 Z-0.1165 I0.0371 J0.0335
X0.4926 Y3.347 Z-0.12 I-0.0371 J-0.0335
X0.571 Y3.3159 I0.0392 J-0.0155
G1 X0.5715 Y3.3174 F40.
G3 X0.5632 Y3.3401 I-0.0171 J0.0066
X0.5337 Y3.33 I-0.0101 J-0.0186
G2 X0.5206 Y3.3017 I-0.741 J0.3248
G3 X0.5085 Y2.6519 I0.6969 J-0.338
X0.8399 Y2.29 I0.7036 J0.3116
X0.9171 Y2.2528 I0.3882 J0.7066
X0.9314 Y2.247 I0.2879 J0.6928
X0.957 Y2.2582 I0.0072 J0.0184
X0.9444 Y2.2853 I-0.0192 J0.0075
G2 X0.9165 Y2.2961 I0.1046 J0.3123
X0.4895 Y3.0682 I0.2928 J0.666
X0.5616 Y3.2953 I0.7346 J-0.1082
G3 X0.571 Y3.3159 I-0.2133 J0.1089
G2 X0.5944 Y3.336 I0.0309 J-0.0122
G3 X0.6042 Y3.3653 I-0.0041 J0.0176
X0.4958 Y3.3543 I-0.0504 J-0.0426
X0.9145 Y2.204 I0.7164 J-0.3906
X1.0001 Y2.2414 I0.0241 J0.0615
X0.9627 Y2.3269 I-0.0615 J0.0241
G2 X0.6117 Y3.2911 I0.2496 J0.6368
G3 X0.6042 Y3.3653 I-0.058 J0.0316
G1 X0.6028 Y3.3665
X0.6011 Y3.3673
X0.5993 Y3.3674
X0.5975 Y3.367
X0.5959 Y3.3661
X0.5527 Y3.3306
X0.5036 Y3.3042
X0.5022 Y3.3031
X0.5011 Y3.3017
X0.5006 Y3.3
X0.5005 Y3.2982
X0.501 Y3.2965
X0.502 Y3.295
G3 X0.5762 Y3.362 Z-0.1255 I0.0371 J0.0335 F20.
X0.502 Y3.295 Z-0.131 I-0.0371 J-0.0335
X0.5762 Y3.362 Z-0.1365 I0.0371 J0.0335
X0.4926 Y3.347 Z-0.14 I-0.0371 J-0.0335
X0.571 Y3.3159 I0.0392 J-0.0155
G1 X0.5715 Y3.3174 F40.
G3 X0.5632 Y3.3401 I-0.0171 J0.0066
X0.5337 Y3.33 I-0.0101 J-0.0186
G2 X0.5206 Y3.3017 I-0.741 J0.3248
G3 X0.5085 Y2.6519 I0.6969 J-0.338
X0.8399 Y2.29 I0.7036 J0.3116
X0.9171 Y2.2528 I0.3882 J0.7066
X0.9314 Y2.247 I0.2879 J0.6928
X0.957 Y2.2582 I0.0072 J0.0184
X0.9444 Y2.2853 I-0.0192 J0.0075
G2 X0.9165 Y2.2961 I0.1046 J0.3123
X0.4895 Y3.0682 I0.2928 J0.666
X0.5616 Y3.2953 I0.7346 J-0.1082
G3 X0.571 Y3.3159 I-0.2133 J0.1089
G2 X0.5944 Y3.336 I0.0309 J-0.0122
G3 X0.6042 Y3.3653 I-0.0041 J0.0176
X0.4958 Y3.3543 I-0.0504 J-0.0426
X0.9145 Y2.204 I0.7164 J-0.3906
X1.0001 Y2.2414 I0.0241 J0.0615
X0.9627 Y2.3269 I-0.0615 J0.0241
G2 X0.6117 Y3.2911 I0.2496 J0.6368
G3 X0.6042 Y3.3653 I-0.058 J0.0316
G1 X0.6028 Y3.3665
X0.6011 Y3.3673
X0.5993 Y3.3674
X0.5975 Y3.367
X0.5959 Y3.3661
X0.5527 Y3.3306
X0.5036 Y3.3042
X0.5022 Y3.3031
X0.5011 Y3.3017
X0.5006 Y3.3
X0.5005 Y3.2982
X0.501 Y3.2965
X0.502 Y3.295
G3 X0.5762 Y3.362 Z-0.1455 I0.0371 J0.0335 F20.
X0.502 Y3.295 Z-0.151 I-0.0371 J-0.0335
X0.5762 Y3.362 Z-0.1565 I0.0371 J0.0335
X0.4926 Y3.347 Z-0.16 I-0.0371 J-0.0335
X0.571 Y3.3159 I0.0392 J-0.0155
G1 X0.5715 Y3.3174 F40.
G3 X0.5632 Y3.3401 I-0.0171 J0.0066
X0.5337 Y3.33 I-0.0101 J-0.0186
G2 X0.5206 Y3.3017 I-0.741 J0.3248
G3 X0.5085 Y2.6519 I0.6969 J-0.338
X0.8399 Y2.29 I0.7036 J0.3116
X0.9171 Y2.2528 I0.3882 J0.7066
X0.9314 Y2.247 I0.2879 J0.6928
X0.957 Y2.2582 I0.0072 J0.0184
X0.9444 Y2.2853 I-0.0192 J0.0075
G2 X0.9165 Y2.2961 I0.1046 J0.3123
X0.4895 Y3.0682 I0.2928 J0.666
X0.5616 Y3.2953 I0.7346 J-0.1082
G3 X0.571 Y3.3159 I-0.2133 J0.1089
G2 X0.5944 Y3.336 I0.0309 J-0.0122
G3 X0.6042 Y3.3653 I-0.0041 J0.0176
X0.4958 Y3.3543 I-0.0504 J-0.0426
X0.9145 Y2.204 I0.7164 J-0.3906
X1.0001 Y2.2414 I0.0241 J0.0615
X0.9627 Y2.3269 I-0.0615 J0.0241
G2 X0.6117 Y3.2911 I0.2496 J0.6368
G3 X0.6042 Y3.3653 I-0.058 J0.0316
G1 X0.6028 Y3.3665
X0.6011 Y3.3673
X0.5993 Y3.3674
X0.5975 Y3.367
X0.5959 Y3.3661
X0.5527 Y3.3306
X0.5036 Y3.3042
X0.5022 Y3.3031
X0.5011 Y3.3017
X0.5006 Y3.3
X0.5005 Y3.2982
X0.501 Y3.2965
X0.502 Y3.295
G3 X0.5762 Y3.362 Z-0.1655 I0.0371 J0.0335 F20.
X0.502 Y3.295 Z-0.171 I-0.0371 J-0.0335
X0.5762 Y3.362 Z-0.1765 I0.0371 J0.0335
X0.4926 Y3.347 Z-0.18 I-0.0371 J-0.0335
X0.571 Y3.3159 I0.0392 J-0.0155
G1 X0.5715 Y3.3174 F40.
G3 X0.5632 Y3.3401 I-0.0171 J0.0066
X0.5337 Y3.33 I-0.0101 J-0.0186
G2 X0.5206 Y3.3017 I-0.741 J0.3248
G3 X0.5085 Y2.6519 I0.6969 J-0.338
X0.8399 Y2.29 I0.7036 J0.3116
X0.9171 Y2.2528 I0.3882 J0.7066
X0.9314 Y2.247 I0.2879 J0.6928
X0.957 Y2.2582 I0.0072 J0.0184
X0.9444 Y2.2853 I-0.0192 J0.0075
G2 X0.9165 Y2.2961 I0.1046 J0.3123
X0.4895 Y3.0682 I0.2928 J0.666
X0.5616 Y3.2953 I0.7346 J-0.1082
G3 X0.571 Y3.3159 I-0.2133 J0.1089
G2 X0.5944 Y3.336 I0.0309 J-0.0122
G3 X0.6042 Y3.3653 I-0.0041 J0.0176
X0.4958 Y3.3543 I-0.0504 J-0.0426
X0.9145 Y2.204 I0.7164 J-0.3906
X1.0001 Y2.2414 I0.0241 J0.0615
X0.9627 Y2.3269 I-0.0615 J0.0241
G2 X0.6117 Y3.2911 I0.2496 J0.6368
G3 X0.6042 Y3.3653 I-0.058 J0.0316
G1 X0.6028 Y3.3665
X0.6011 Y3.3673
X0.5993 Y3.3674
X0.5975 Y3.367
X0.5959 Y3.3661
X0.5527 Y3.3306
X0.5036 Y3.3042
X0.5022 Y3.3031
X0.5011 Y3.3017
X0.5006 Y3.3
X0.5005 Y3.2982
X0.501 Y3.2965
X0.502 Y3.295
G3 X0.5762 Y3.362 Z-0.1855 I0.0371 J0.0335 F20.
X0.502 Y3.295 Z-0.191 I-0.0371 J-0.0335
X0.5762 Y3.362 Z-0.1965 I0.0371 J0.0335
X0.4926 Y3.347 Z-0.2 I-0.0371 J-0.0335
X0.571 Y3.3159 I0.0392 J-0.0155
G1 X0.5715 Y3.3174 F40.
G3 X0.5632 Y3.3401 I-0.0171 J0.0066
X0.5337 Y3.33 I-0.0101 J-0.0186
G2 X0.5206 Y3.3017 I-0.741 J0.3248
G3 X0.5085 Y2.6519 I0.6969 J-0.338
X0.8399 Y2.29 I0.7036 J0.3116
X0.9171 Y2.2528 I0.3882 J0.7066
X0.9314 Y2.247 I0.2879 J0.6928
X0.957 Y2.2582 I0.0072 J0.0184
X0.9444 Y2.2853 I-0.0192 J0.0075
G2 X0.9165 Y2.2961 I0.1046 J0.3123
X0.4895 Y3.0682 I0.2928 J0.666
X0.5616 Y3.2953 I0.7346 J-0.1082
G3 X0.571 Y3.3159 I-0.2133 J0.1089
G2 X0.5944 Y3.336 I0.0309 J-0.0122
G3 X0.6042 Y3.3653 I-0.0041 J0.0176
X0.4958 Y3.3543 I-0.0504 J-0.0426
X0.9145 Y2.204 I0.7164 J-0.3906
X1.0001 Y2.2414 I0.0241 J0.0615
X0.9627 Y2.3269 I-0.0615 J0.0241
G2 X0.6117 Y3.2911 I0.2496 J0.6368
G3 X0.6042 Y3.3653 I-0.058 J0.0316
G1 X0.6028 Y3.3665
X0.6011 Y3.3673
X0.5993 Y3.3674
X0.5975 Y3.367
X0.5959 Y3.3661
X0.5527 Y3.3306
X0.5036 Y3.3042
X0.5022 Y3.3031
X0.5011 Y3.3017
X0.5006 Y3.3
X0.5005 Y3.2982
X0.501 Y3.2965
X0.502 Y3.295
G3 X0.5762 Y3.362 Z-0.2055 I0.0371 J0.0335 F20.
X0.502 Y3.295 Z-0.211 I-0.0371 J-0.0335
X0.5762 Y3.362 Z-0.2165 I0.0371 J0.0335
X0.4926 Y3.347 Z-0.22 I-0.0371 J-0.0335
X0.571 Y3.3159 I0.0392 J-0.0155
G1 X0.5715 Y3.3174 F40.
G3 X0.5632 Y3.3401 I-0.0171 J0.0066
X0.5337 Y3.33 I-0.0101 J-0.0186
G2 X0.5206 Y3.3017 I-0.741 J0.3248
G3 X0.5085 Y2.6519 I0.6969 J-0.338
X0.8399 Y2.29 I0.7036 J0.3116
X0.9171 Y2.2528 I0.3882 J0.7066
X0.9314 Y2.247 I0.2879 J0.6928
X0.957 Y2.2582 I0.0072 J0.0184
X0.9444 Y2.2853 I-0.0192 J0.0075
G2 X0.9165 Y2.2961 I0.1046 J0.3123
X0.4895 Y3.0682 I0.2928 J0.666
X0.5616 Y3.2953 I0.7346 J-0.1082
G3 X0.571 Y3.3159 I-0.2133 J0.1089
G2 X0.5944 Y3.336 I0.0309 J-0.0122
G3 X0.6042 Y3.3653 I-0.0041 J0.0176
X0.4958 Y3.3543 I-0.0504 J-0.0426
X0.9145 Y2.204 I0.7164 J-0.3906
X1.0001 Y2.2414 I0.0241 J0.0615
X0.9627 Y2.3269 I-0.0615 J0.0241
G2 X0.6117 Y3.2911 I0.2496 J0.6368
G3 X0.6042 Y3.3653 I-0.058 J0.0316
G1 X0.6028 Y3.3665
X0.6011 Y3.3673
X0.5993 Y3.3674
X0.5975 Y3.367
X0.5959 Y3.3661
X0.5527 Y3.3306
X0.5036 Y3.3042
X0.5022 Y3.3031
X0.5011 Y3.3017
X0.5006 Y3.3
X0.5005 Y3.2982
X0.501 Y3.2965
X0.502 Y3.295
G3 X0.5762 Y3.362 Z-0.2255 I0.0371 J0.0335 F20.
X0.502 Y3.295 Z-0.231 I-0.0371 J-0.0335
X0.5762 Y3.362 Z-0.2365 I0.0371 J0.0335
X0.4926 Y3.347 Z-0.24 I-0.0371 J-0.0335
X0.571 Y3.3159 I0.0392 J-0.0155
G1 X0.5715 Y3.3174 F40.
G3 X0.5632 Y3.3401 I-0.0171 J0.0066
X0.5337 Y3.33 I-0.0101 J-0.0186
G2 X0.5206 Y3.3017 I-0.741 J0.3248
G3 X0.5085 Y2.6519 I0.6969 J-0.338
X0.8399 Y2.29 I0.7036 J0.3116
X0.9171 Y2.2528 I0.3882 J0.7066
X0.9314 Y2.247 I0.2879 J0.6928
X0.957 Y2.2582 I0.0072 J0.0184
X0.9444 Y2.2853 I-0.0192 J0.0075
G2 X0.9165 Y2.2961 I0.1046 J0.3123
X0.4895 Y3.0682 I0.2928 J0.666
X0.5616 Y3.2953 I0.7346 J-0.1082
G3 X0.571 Y3.3159 I-0.2133 J0.1089
G2 X0.5944 Y3.336 I0.0309 J-0.0122
G3 X0.6042 Y3.3653 I-0.0041 J0.0176
X0.4958 Y3.3543 I-0.0504 J-0.0426
X0.9145 Y2.204 I0.7164 J-0.3906
X1.0001 Y2.2414 I0.0241 J0.0615
X0.9627 Y2.3269 I-0.0615 J0.0241
G2 X0.6117 Y3.2911 I0.2496 J0.6368
G3 X0.6042 Y3.3653 I-0.058 J0.0316
G1 X0.6028 Y3.3665
X0.6011 Y3.3673
X0.5993 Y3.3674
X0.5975 Y3.367
X0.5959 Y3.3661
X0.5527 Y3.3306
X0.5036 Y3.3042
X0.5022 Y3.3031
X0.5011 Y3.3017
X0.5006 Y3.3
X0.5005 Y3.2982
X0.501 Y3.2965
X0.502 Y3.295
G3 X0.5762 Y3.362 Z-0.2455 I0.0371 J0.0335 F20.
X0.502 Y3.295 Z-0.251 I-0.0371 J-0.0335
X0.5762 Y3.362 Z-0.2565 I0.0371 J0.0335
X0.4926 Y3.347 Z-0.26 I-0.0371 J-0.0335
X0.571 Y3.3159 I0.0392 J-0.0155
G1 X0.5715 Y3.3174 F40.
G3 X0.5632 Y3.3401 I-0.0171 J0.0066
X0.5337 Y3.33 I-0.0101 J-0.0186
G2 X0.5206 Y3.3017 I-0.741 J0.3248
G3 X0.5085 Y2.6519 I0.6969 J-0.338
X0.8399 Y2.29 I0.7036 J0.3116
X0.9171 Y2.2528 I0.3882 J0.7066
X0.9314 Y2.247 I0.2879 J0.6928
X0.957 Y2.2582 I0.0072 J0.0184
X0.9444 Y2.2853 I-0.0192 J0.0075
G2 X0.9165 Y2.2961 I0.1046 J0.3123
X0.4895 Y3.0682 I0.2928 J0.666
X0.5616 Y3.2953 I0.7346 J-0.1082
G3 X0.571 Y3.3159 I-0.2133 J0.1089
G2 X0.5944 Y3.336 I0.0309 J-0.0122
G3 X0.6042 Y3.3653 I-0.0041 J0.0176
X0.4958 Y3.3543 I-0.0504 J-0.0426
X0.9145 Y2.204 I0.7164 J-0.3906
X1.0001 Y2.2414 I0.0241 J0.0615
X0.9627 Y2.3269 I-0.0615 J0.0241
G2 X0.6117 Y3.2911 I0.2496 J0.6368
G3 X0.6042 Y3.3653 I-0.058 J0.0316
G1 X0.6028 Y3.3665
X0.6011 Y3.3673
X0.5993 Y3.3674
X0.5975 Y3.367
X0.5959 Y3.3661
X0.5527 Y3.3306
X0.5036 Y3.3042
X0.5022 Y3.3031
X0.5011 Y3.3017
X0.5006 Y3.3
X0.5005 Y3.2982
X0.501 Y3.2965
X0.502 Y3.295
G3 X0.5762 Y3.362 Z-0.2655 I0.0371 J0.0335 F20.
X0.502 Y3.295 Z-0.271 I-0.0371 J-0.0335
X0.5762 Y3.362 Z-0.2765 I0.0371 J0.0335
X0.4926 Y3.347 Z-0.28 I-0.0371 J-0.0335
X0.571 Y3.3159 I0.0392 J-0.0155
G1 X0.5715 Y3.3174 F40.
G3 X0.5632 Y3.3401 I-0.0171 J0.0066
X0.5337 Y3.33 I-0.0101 J-0.0186
G2 X0.5206 Y3.3017 I-0.741 J0.3248
G3 X0.5085 Y2.6519 I0.6969 J-0.338
X0.8399 Y2.29 I0.7036 J0.3116
X0.9171 Y2.2528 I0.3882 J0.7066
X0.9314 Y2.247 I0.2879 J0.6928
X0.957 Y2.2582 I0.0072 J0.0184
X0.9444 Y2.2853 I-0.0192 J0.0075
G2 X0.9165 Y2.2961 I0.1046 J0.3123
X0.4895 Y3.0682 I0.2928 J0.666
X0.5616 Y3.2953 I0.7346 J-0.1082
G3 X0.571 Y3.3159 I-0.2133 J0.1089
G2 X0.5944 Y3.336 I0.0309 J-0.0122
G3 X0.6042 Y3.3653 I-0.0041 J0.0176
X0.4958 Y3.3543 I-0.0504 J-0.0426
X0.9145 Y2.204 I0.7164 J-0.3906
X1.0001 Y2.2414 I0.0241 J0.0615
X0.9627 Y2.3269 I-0.0615 J0.0241
G2 X0.6117 Y3.2911 I0.2496 J0.6368
G3 X0.6042 Y3.3653 I-0.058 J0.0316
G1 X0.6027 Y3.3667
X0.601 Y3.3676
X0.599 Y3.3681
X0.5971
X0.5951 Y3.3676
X0.4949 Y3.3285
G3 X0.4899 Y3.3196 I0.0029 J-0.0075
X0.5883 Y3.3374 Z-0.2855 I0.0492 J0.0089 F20.
X0.4926 Y3.347 Z-0.29 I-0.0492 J-0.0089
X0.571 Y3.3159 I0.0392 J-0.0155
G1 X0.5715 Y3.3174 F40.
G3 X0.5632 Y3.3401 I-0.0171 J0.0066
X0.5337 Y3.33 I-0.0101 J-0.0186
G2 X0.5206 Y3.3017 I-0.741 J0.3248
G3 X0.5085 Y2.6519 I0.6969 J-0.338
X0.8399 Y2.29 I0.7036 J0.3116
X0.9171 Y2.2528 I0.3882 J0.7066
X0.9314 Y2.247 I0.2879 J0.6928
X0.957 Y2.2582 I0.0072 J0.0184
X0.9444 Y2.2853 I-0.0192 J0.0075
G2 X0.9165 Y2.2961 I0.1046 J0.3123
X0.4895 Y3.0682 I0.2928 J0.666
X0.5616 Y3.2953 I0.7346 J-0.1082
G3 X0.571 Y3.3159 I-0.2133 J0.1089
G2 X0.5944 Y3.336 I0.0309 J-0.0122
G3 X0.6042 Y3.3653 I-0.0041 J0.0176
X0.4958 Y3.3543 I-0.0504 J-0.0426
X0.9145 Y2.204 I0.7164 J-0.3906
X1.0001 Y2.2414 I0.0241 J0.0615
X0.9627 Y2.3269 I-0.0615 J0.0241
G2 X0.6117 Y3.2911 I0.2496 J0.6368
G3 X0.6042 Y3.3653 I-0.058 J0.0316
G1 X0.6025 Y3.3669 Z-0.2896
X0.6007 Y3.3682 Z-0.2891
X0.5989 Y3.3689 Z-0.2878
X0.597 Y3.3694 Z-0.2865
X0.5945 Y3.3695 Z-0.2827
X0.5936 Y3.3694 Z-0.2782
G0 Z0.6
g0 x0 y0
M9
M30
