(BUTTON BOARD BACK HOLES)
(T3  D=0.118 CR=0. - ZMIN=-0.51 - FLAT END MILL)
G90 G94 G91.1 G40 G49 G17
G20

(2D POCKET1)
G0 X0. Y0. Z0.6
M5
T3 M6
S15000 M3
G4 P5.
G54
M8
G0 X0.6349 Y11.5336
G43 Z0.6 H3
Z0.2
G1 Z0.0002 F20.
X0.6344 Y11.5343 Z-0.0043
X0.6327 Y11.5362 Z-0.0081
X0.6311 Y11.5373 Z-0.0094
X0.6294 Y11.5381 Z-0.0107
X0.6272 Y11.5388 Z-0.0111
X0.625 Y11.539 Z-0.0116
G3 Y11.461 I0. J-0.039 F40.
Y11.539 I0. J0.039
G1 X0.6238 Y11.5387
X0.6228 Y11.538
X0.6223 Y11.5369
Y11.5357
X0.6228 Y11.5346
X0.6237 Y11.5338
X0.6312 Y11.5297
X0.6324 Y11.5294
X0.6336 Y11.5296
X0.6346 Y11.5303
X0.6352 Y11.5314
X0.6353 Y11.5326
X0.6348 Y11.5337
X0.6343 Y11.5345 Z-0.016 F20.
X0.6326 Y11.5363 Z-0.0198
X0.631 Y11.5373 Z-0.021
X0.6293 Y11.5382 Z-0.0223
X0.6272 Y11.5388 Z-0.0227
X0.625 Y11.539 Z-0.0232
G3 Y11.461 I0. J-0.039 F40.
Y11.539 I0. J0.039
G1 X0.6238 Y11.5387
X0.6228 Y11.538
X0.6223 Y11.5369
Y11.5357
X0.6228 Y11.5346
X0.6237 Y11.5338
X0.6312 Y11.5297
X0.6324 Y11.5294
X0.6336 Y11.5296
X0.6346 Y11.5303
X0.6352 Y11.5314
X0.6353 Y11.5326
X0.6348 Y11.5337
X0.6343 Y11.5345 Z-0.0276 F20.
X0.6326 Y11.5363 Z-0.0314
X0.631 Y11.5373 Z-0.0326
X0.6293 Y11.5382 Z-0.0339
X0.6272 Y11.5388 Z-0.0343
X0.625 Y11.539 Z-0.0348
G3 Y11.461 I0. J-0.039 F40.
Y11.539 I0. J0.039
G1 X0.6238 Y11.5387
X0.6228 Y11.538
X0.6223 Y11.5369
Y11.5357
X0.6228 Y11.5346
X0.6237 Y11.5338
X0.6312 Y11.5297
X0.6324 Y11.5294
X0.6336 Y11.5296
X0.6346 Y11.5303
X0.6352 Y11.5314
X0.6353 Y11.5326
X0.6348 Y11.5337
X0.6343 Y11.5345 Z-0.0392 F20.
X0.6326 Y11.5363 Z-0.043
X0.631 Y11.5373 Z-0.0442
X0.6293 Y11.5382 Z-0.0455
X0.6272 Y11.5388 Z-0.0459
X0.625 Y11.539 Z-0.0464
G3 Y11.461 I0. J-0.039 F40.
Y11.539 I0. J0.039
G1 X0.6238 Y11.5387
X0.6228 Y11.538
X0.6223 Y11.5369
Y11.5357
X0.6228 Y11.5346
X0.6237 Y11.5338
X0.6312 Y11.5297
X0.6324 Y11.5294
X0.6336 Y11.5296
X0.6346 Y11.5303
X0.6352 Y11.5314
X0.6353 Y11.5326
X0.6348 Y11.5337
X0.6343 Y11.5345 Z-0.0508 F20.
X0.6326 Y11.5363 Z-0.0546
X0.631 Y11.5373 Z-0.0558
X0.6293 Y11.5382 Z-0.0571
X0.6272 Y11.5388 Z-0.0575
X0.625 Y11.539 Z-0.058
G3 Y11.461 I0. J-0.039 F40.
Y11.539 I0. J0.039
G1 X0.6238 Y11.5387
X0.6228 Y11.538
X0.6223 Y11.5369
Y11.5357
X0.6228 Y11.5346
X0.6237 Y11.5338
X0.6312 Y11.5297
X0.6324 Y11.5294
X0.6336 Y11.5296
X0.6346 Y11.5303
X0.6352 Y11.5314
X0.6353 Y11.5326
X0.6348 Y11.5337
X0.6343 Y11.5345 Z-0.0624 F20.
X0.6326 Y11.5363 Z-0.0662
X0.631 Y11.5373 Z-0.0674
X0.6293 Y11.5382 Z-0.0687
X0.6272 Y11.5388 Z-0.0691
X0.625 Y11.539 Z-0.0695
G3 Y11.461 I0. J-0.039 F40.
Y11.539 I0. J0.039
G1 X0.6238 Y11.5387
X0.6228 Y11.538
X0.6223 Y11.5369
Y11.5357
X0.6228 Y11.5346
X0.6237 Y11.5338
X0.6312 Y11.5297
X0.6324 Y11.5294
X0.6336 Y11.5296
X0.6346 Y11.5303
X0.6352 Y11.5314
X0.6353 Y11.5326
X0.6348 Y11.5337
X0.6343 Y11.5345 Z-0.074 F20.
X0.6326 Y11.5363 Z-0.0777
X0.631 Y11.5373 Z-0.079
X0.6293 Y11.5382 Z-0.0803
X0.6272 Y11.5388 Z-0.0807
X0.625 Y11.539 Z-0.0811
G3 Y11.461 I0. J-0.039 F40.
Y11.539 I0. J0.039
G1 X0.6238 Y11.5387
X0.6228 Y11.538
X0.6223 Y11.5369
Y11.5357
X0.6228 Y11.5346
X0.6237 Y11.5338
X0.6312 Y11.5297
X0.6324 Y11.5294
X0.6336 Y11.5296
X0.6346 Y11.5303
X0.6352 Y11.5314
X0.6353 Y11.5326
X0.6348 Y11.5337
X0.6343 Y11.5345 Z-0.0856 F20.
X0.6326 Y11.5363 Z-0.0893
X0.631 Y11.5373 Z-0.0906
X0.6293 Y11.5382 Z-0.0918
X0.6272 Y11.5388 Z-0.0923
X0.625 Y11.539 Z-0.0927
G3 Y11.461 I0. J-0.039 F40.
Y11.539 I0. J0.039
G1 X0.6238 Y11.5387
X0.6228 Y11.538
X0.6223 Y11.5369
Y11.5357
X0.6228 Y11.5346
X0.6237 Y11.5338
X0.6312 Y11.5297
X0.6324 Y11.5294
X0.6336 Y11.5296
X0.6346 Y11.5303
X0.6352 Y11.5314
X0.6353 Y11.5326
X0.6348 Y11.5337
X0.6343 Y11.5345 Z-0.0972 F20.
X0.6326 Y11.5363 Z-0.1009
X0.631 Y11.5373 Z-0.1022
X0.6293 Y11.5382 Z-0.1034
X0.6272 Y11.5388 Z-0.1039
X0.625 Y11.539 Z-0.1043
G3 Y11.461 I0. J-0.039 F40.
Y11.539 I0. J0.039
G1 X0.6238 Y11.5387
X0.6228 Y11.538
X0.6223 Y11.5369
Y11.5357
X0.6228 Y11.5346
X0.6237 Y11.5338
X0.6312 Y11.5297
X0.6324 Y11.5294
X0.6336 Y11.5296
X0.6346 Y11.5303
X0.6352 Y11.5314
X0.6353 Y11.5326
X0.6348 Y11.5337
X0.6343 Y11.5345 Z-0.1088 F20.
X0.6326 Y11.5363 Z-0.1125
X0.631 Y11.5373 Z-0.1138
X0.6293 Y11.5382 Z-0.115
X0.6272 Y11.5388 Z-0.1155
X0.625 Y11.539 Z-0.1159
G3 Y11.461 I0. J-0.039 F40.
Y11.539 I0. J0.039
G1 X0.6238 Y11.5387
X0.6228 Y11.538
X0.6223 Y11.5369
Y11.5357
X0.6228 Y11.5346
X0.6237 Y11.5338
X0.6312 Y11.5297
X0.6324 Y11.5294
X0.6336 Y11.5296
X0.6346 Y11.5303
X0.6352 Y11.5314
X0.6353 Y11.5326
X0.6348 Y11.5337
X0.6343 Y11.5345 Z-0.1203 F20.
X0.6326 Y11.5363 Z-0.1241
X0.631 Y11.5373 Z-0.1254
X0.6293 Y11.5382 Z-0.1266
X0.6272 Y11.5388 Z-0.1271
X0.625 Y11.539 Z-0.1275
G3 Y11.461 I0. J-0.039 F40.
Y11.539 I0. J0.039
G1 X0.6238 Y11.5387
X0.6228 Y11.538
X0.6223 Y11.5369
Y11.5357
X0.6228 Y11.5346
X0.6237 Y11.5338
X0.6312 Y11.5297
X0.6324 Y11.5294
X0.6336 Y11.5296
X0.6346 Y11.5303
X0.6352 Y11.5314
X0.6353 Y11.5326
X0.6348 Y11.5337
X0.6343 Y11.5345 Z-0.1319 F20.
X0.6326 Y11.5363 Z-0.1357
X0.631 Y11.5373 Z-0.137
X0.6293 Y11.5382 Z-0.1382
X0.6272 Y11.5388 Z-0.1386
X0.625 Y11.539 Z-0.1391
G3 Y11.461 I0. J-0.039 F40.
Y11.539 I0. J0.039
G1 X0.6238 Y11.5387
X0.6228 Y11.538
X0.6223 Y11.5369
Y11.5357
X0.6228 Y11.5346
X0.6237 Y11.5338
X0.6312 Y11.5297
X0.6324 Y11.5294
X0.6336 Y11.5296
X0.6346 Y11.5303
X0.6352 Y11.5314
X0.6353 Y11.5326
X0.6348 Y11.5337
X0.6343 Y11.5345 Z-0.1435 F20.
X0.6326 Y11.5363 Z-0.1473
X0.631 Y11.5373 Z-0.1485
X0.6293 Y11.5382 Z-0.1498
X0.6272 Y11.5388 Z-0.1502
X0.625 Y11.539 Z-0.1507
G3 Y11.461 I0. J-0.039 F40.
Y11.539 I0. J0.039
G1 X0.6238 Y11.5387
X0.6228 Y11.538
X0.6223 Y11.5369
Y11.5357
X0.6228 Y11.5346
X0.6237 Y11.5338
X0.6312 Y11.5297
X0.6324 Y11.5294
X0.6336 Y11.5296
X0.6346 Y11.5303
X0.6352 Y11.5314
X0.6353 Y11.5326
X0.6348 Y11.5337
X0.6343 Y11.5345 Z-0.1551 F20.
X0.6326 Y11.5363 Z-0.1589
X0.631 Y11.5373 Z-0.1601
X0.6293 Y11.5382 Z-0.1614
X0.6272 Y11.5388 Z-0.1618
X0.625 Y11.539 Z-0.1623
G3 Y11.461 I0. J-0.039 F40.
Y11.539 I0. J0.039
G1 X0.6238 Y11.5387
X0.6228 Y11.538
X0.6223 Y11.5369
Y11.5357
X0.6228 Y11.5346
X0.6237 Y11.5338
X0.6312 Y11.5297
X0.6324 Y11.5294
X0.6336 Y11.5296
X0.6346 Y11.5303
X0.6352 Y11.5314
X0.6353 Y11.5326
X0.6348 Y11.5337
X0.6343 Y11.5345 Z-0.1667 F20.
X0.6326 Y11.5363 Z-0.1705
X0.631 Y11.5373 Z-0.1717
X0.6293 Y11.5382 Z-0.173
X0.6272 Y11.5388 Z-0.1734
X0.625 Y11.539 Z-0.1739
G3 Y11.461 I0. J-0.039 F40.
Y11.539 I0. J0.039
G1 X0.6238 Y11.5387
X0.6228 Y11.538
X0.6223 Y11.5369
Y11.5357
X0.6228 Y11.5346
X0.6237 Y11.5338
X0.6312 Y11.5297
X0.6324 Y11.5294
X0.6336 Y11.5296
X0.6346 Y11.5303
X0.6352 Y11.5314
X0.6353 Y11.5326
X0.6348 Y11.5337
X0.6343 Y11.5345 Z-0.1783 F20.
X0.6326 Y11.5363 Z-0.1821
X0.631 Y11.5373 Z-0.1833
X0.6293 Y11.5382 Z-0.1846
X0.6272 Y11.5388 Z-0.185
X0.625 Y11.539 Z-0.1855
G3 Y11.461 I0. J-0.039 F40.
Y11.539 I0. J0.039
G1 X0.6238 Y11.5387
X0.6228 Y11.538
X0.6223 Y11.5369
Y11.5357
X0.6228 Y11.5346
X0.6237 Y11.5338
X0.6312 Y11.5297
X0.6324 Y11.5294
X0.6336 Y11.5296
X0.6346 Y11.5303
X0.6352 Y11.5314
X0.6353 Y11.5326
X0.6348 Y11.5337
X0.6343 Y11.5345 Z-0.1899 F20.
X0.6326 Y11.5363 Z-0.1937
X0.631 Y11.5373 Z-0.1949
X0.6293 Y11.5382 Z-0.1962
X0.6272 Y11.5388 Z-0.1966
X0.625 Y11.539 Z-0.197
G3 Y11.461 I0. J-0.039 F40.
Y11.539 I0. J0.039
G1 X0.6238 Y11.5387
X0.6228 Y11.538
X0.6223 Y11.5369
Y11.5357
X0.6228 Y11.5346
X0.6237 Y11.5338
X0.6312 Y11.5297
X0.6324 Y11.5294
X0.6336 Y11.5296
X0.6346 Y11.5303
X0.6352 Y11.5314
X0.6353 Y11.5326
X0.6348 Y11.5337
X0.6343 Y11.5345 Z-0.2015 F20.
X0.6326 Y11.5363 Z-0.2052
X0.631 Y11.5373 Z-0.2065
X0.6293 Y11.5382 Z-0.2078
X0.6272 Y11.5388 Z-0.2082
X0.625 Y11.539 Z-0.2086
G3 Y11.461 I0. J-0.039 F40.
Y11.539 I0. J0.039
G1 X0.6238 Y11.5387
X0.6228 Y11.538
X0.6223 Y11.5369
Y11.5357
X0.6228 Y11.5346
X0.6237 Y11.5338
X0.6312 Y11.5297
X0.6324 Y11.5294
X0.6336 Y11.5296
X0.6346 Y11.5303
X0.6352 Y11.5314
X0.6353 Y11.5326
X0.6348 Y11.5337
X0.6343 Y11.5345 Z-0.2131 F20.
X0.6326 Y11.5363 Z-0.2168
X0.631 Y11.5373 Z-0.2181
X0.6293 Y11.5382 Z-0.2193
X0.6272 Y11.5388 Z-0.2198
X0.625 Y11.539 Z-0.2202
G3 Y11.461 I0. J-0.039 F40.
Y11.539 I0. J0.039
G1 X0.6238 Y11.5387
X0.6228 Y11.538
X0.6223 Y11.5369
Y11.5357
X0.6228 Y11.5346
X0.6237 Y11.5338
X0.6312 Y11.5297
X0.6324 Y11.5294
X0.6336 Y11.5296
X0.6346 Y11.5303
X0.6352 Y11.5314
X0.6353 Y11.5326
X0.6348 Y11.5337
X0.6343 Y11.5345 Z-0.2247 F20.
X0.6326 Y11.5363 Z-0.2284
X0.631 Y11.5373 Z-0.2297
X0.6293 Y11.5382 Z-0.2309
X0.6272 Y11.5388 Z-0.2314
X0.625 Y11.539 Z-0.2318
G3 Y11.461 I0. J-0.039 F40.
Y11.539 I0. J0.039
G1 X0.6238 Y11.5387
X0.6228 Y11.538
X0.6223 Y11.5369
Y11.5357
X0.6228 Y11.5346
X0.6237 Y11.5338
X0.6312 Y11.5297
X0.6324 Y11.5294
X0.6336 Y11.5296
X0.6346 Y11.5303
X0.6352 Y11.5314
X0.6353 Y11.5326
X0.6348 Y11.5337
X0.6343 Y11.5345 Z-0.2363 F20.
X0.6326 Y11.5363 Z-0.24
X0.631 Y11.5373 Z-0.2413
X0.6293 Y11.5382 Z-0.2425
X0.6272 Y11.5388 Z-0.243
X0.625 Y11.539 Z-0.2434
G3 Y11.461 I0. J-0.039 F40.
Y11.539 I0. J0.039
G1 X0.6238 Y11.5387
X0.6228 Y11.538
X0.6223 Y11.5369
Y11.5357
X0.6228 Y11.5346
X0.6237 Y11.5338
X0.6312 Y11.5297
X0.6324 Y11.5294
X0.6336 Y11.5296
X0.6346 Y11.5303
X0.6352 Y11.5314
X0.6353 Y11.5326
X0.6348 Y11.5337
X0.6343 Y11.5345 Z-0.2478 F20.
X0.6326 Y11.5363 Z-0.2516
X0.631 Y11.5373 Z-0.2529
X0.6293 Y11.5382 Z-0.2541
X0.6272 Y11.5388 Z-0.2546
X0.625 Y11.539 Z-0.255
G3 Y11.461 I0. J-0.039 F40.
Y11.539 I0. J0.039
G1 X0.6238 Y11.5387
X0.6228 Y11.538
X0.6223 Y11.5369
Y11.5357
X0.6228 Y11.5346
X0.6237 Y11.5338
X0.6312 Y11.5297
X0.6324 Y11.5294
X0.6336 Y11.5296
X0.6346 Y11.5303
X0.6352 Y11.5314
X0.6353 Y11.5326
X0.6348 Y11.5337
X0.6343 Y11.5345 Z-0.2594 F20.
X0.6326 Y11.5363 Z-0.2632
X0.631 Y11.5373 Z-0.2645
X0.6293 Y11.5382 Z-0.2657
X0.6272 Y11.5388 Z-0.2661
X0.625 Y11.539 Z-0.2666
G3 Y11.461 I0. J-0.039 F40.
Y11.539 I0. J0.039
G1 X0.6238 Y11.5387
X0.6228 Y11.538
X0.6223 Y11.5369
Y11.5357
X0.6228 Y11.5346
X0.6237 Y11.5338
X0.6312 Y11.5297
X0.6324 Y11.5294
X0.6336 Y11.5296
X0.6346 Y11.5303
X0.6352 Y11.5314
X0.6353 Y11.5326
X0.6348 Y11.5337
X0.6343 Y11.5345 Z-0.271 F20.
X0.6326 Y11.5363 Z-0.2748
X0.631 Y11.5373 Z-0.276
X0.6293 Y11.5382 Z-0.2773
X0.6272 Y11.5388 Z-0.2777
X0.625 Y11.539 Z-0.2782
G3 Y11.461 I0. J-0.039 F40.
Y11.539 I0. J0.039
G1 X0.6238 Y11.5387
X0.6228 Y11.538
X0.6223 Y11.5369
Y11.5357
X0.6228 Y11.5346
X0.6237 Y11.5338
X0.6312 Y11.5297
X0.6324 Y11.5294
X0.6336 Y11.5296
X0.6346 Y11.5303
X0.6352 Y11.5314
X0.6353 Y11.5326
X0.6348 Y11.5337
X0.6343 Y11.5345 Z-0.2826 F20.
X0.6326 Y11.5363 Z-0.2864
X0.631 Y11.5373 Z-0.2876
X0.6293 Y11.5382 Z-0.2889
X0.6272 Y11.5388 Z-0.2893
X0.625 Y11.539 Z-0.2898
G3 Y11.461 I0. J-0.039 F40.
Y11.539 I0. J0.039
G1 X0.6238 Y11.5387
X0.6228 Y11.538
X0.6223 Y11.5369
Y11.5357
X0.6228 Y11.5346
X0.6237 Y11.5338
X0.6312 Y11.5297
X0.6324 Y11.5294
X0.6336 Y11.5296
X0.6346 Y11.5303
X0.6352 Y11.5314
X0.6353 Y11.5326
X0.6348 Y11.5337
X0.6343 Y11.5345 Z-0.2942 F20.
X0.6326 Y11.5363 Z-0.298
X0.631 Y11.5373 Z-0.2992
X0.6293 Y11.5382 Z-0.3005
X0.6272 Y11.5388 Z-0.3009
X0.625 Y11.539 Z-0.3014
G3 Y11.461 I0. J-0.039 F40.
Y11.539 I0. J0.039
G1 X0.6238 Y11.5387
X0.6228 Y11.538
X0.6223 Y11.5369
Y11.5357
X0.6228 Y11.5346
X0.6237 Y11.5338
X0.6312 Y11.5297
X0.6324 Y11.5294
X0.6336 Y11.5296
X0.6346 Y11.5303
X0.6352 Y11.5314
X0.6353 Y11.5326
X0.6348 Y11.5337
X0.6343 Y11.5345 Z-0.3058 F20.
X0.6326 Y11.5363 Z-0.3096
X0.631 Y11.5373 Z-0.3108
X0.6293 Y11.5382 Z-0.3121
X0.6272 Y11.5388 Z-0.3125
X0.625 Y11.539 Z-0.313
G3 Y11.461 I0. J-0.039 F40.
Y11.539 I0. J0.039
G1 X0.6238 Y11.5387
X0.6228 Y11.538
X0.6223 Y11.5369
Y11.5357
X0.6228 Y11.5346
X0.6237 Y11.5338
X0.6312 Y11.5297
X0.6324 Y11.5294
X0.6336 Y11.5296
X0.6346 Y11.5303
X0.6352 Y11.5314
X0.6353 Y11.5326
X0.6348 Y11.5337
X0.6343 Y11.5345 Z-0.3174 F20.
X0.6326 Y11.5363 Z-0.3212
X0.631 Y11.5373 Z-0.3224
X0.6293 Y11.5382 Z-0.3237
X0.6272 Y11.5388 Z-0.3241
X0.625 Y11.539 Z-0.3245
G3 Y11.461 I0. J-0.039 F40.
Y11.539 I0. J0.039
G1 X0.6238 Y11.5387
X0.6228 Y11.538
X0.6223 Y11.5369
Y11.5357
X0.6228 Y11.5346
X0.6237 Y11.5338
X0.6312 Y11.5297
X0.6324 Y11.5294
X0.6336 Y11.5296
X0.6346 Y11.5303
X0.6352 Y11.5314
X0.6353 Y11.5326
X0.6348 Y11.5337
X0.6343 Y11.5345 Z-0.329 F20.
X0.6326 Y11.5363 Z-0.3327
X0.631 Y11.5373 Z-0.334
X0.6293 Y11.5382 Z-0.3353
X0.6272 Y11.5388 Z-0.3357
X0.625 Y11.539 Z-0.3361
G3 Y11.461 I0. J-0.039 F40.
Y11.539 I0. J0.039
G1 X0.6238 Y11.5387
X0.6228 Y11.538
X0.6223 Y11.5369
Y11.5357
X0.6228 Y11.5346
X0.6237 Y11.5338
X0.6312 Y11.5297
X0.6324 Y11.5294
X0.6336 Y11.5296
X0.6346 Y11.5303
X0.6352 Y11.5314
X0.6353 Y11.5326
X0.6348 Y11.5337
X0.6343 Y11.5345 Z-0.3406 F20.
X0.6326 Y11.5363 Z-0.3443
X0.631 Y11.5373 Z-0.3456
X0.6293 Y11.5382 Z-0.3468
X0.6272 Y11.5388 Z-0.3473
X0.625 Y11.539 Z-0.3477
G3 Y11.461 I0. J-0.039 F40.
Y11.539 I0. J0.039
G1 X0.6238 Y11.5387
X0.6228 Y11.538
X0.6223 Y11.5369
Y11.5357
X0.6228 Y11.5346
X0.6237 Y11.5338
X0.6312 Y11.5297
X0.6324 Y11.5294
X0.6336 Y11.5296
X0.6346 Y11.5303
X0.6352 Y11.5314
X0.6353 Y11.5326
X0.6348 Y11.5337
X0.6343 Y11.5345 Z-0.3522 F20.
X0.6326 Y11.5363 Z-0.3559
X0.631 Y11.5373 Z-0.3572
X0.6293 Y11.5382 Z-0.3584
X0.6272 Y11.5388 Z-0.3589
X0.625 Y11.539 Z-0.3593
G3 Y11.461 I0. J-0.039 F40.
Y11.539 I0. J0.039
G1 X0.6238 Y11.5387
X0.6228 Y11.538
X0.6223 Y11.5369
Y11.5357
X0.6228 Y11.5346
X0.6237 Y11.5338
X0.6312 Y11.5297
X0.6324 Y11.5294
X0.6336 Y11.5296
X0.6346 Y11.5303
X0.6352 Y11.5314
X0.6353 Y11.5326
X0.6348 Y11.5337
X0.6343 Y11.5345 Z-0.3638 F20.
X0.6326 Y11.5363 Z-0.3675
X0.631 Y11.5373 Z-0.3688
X0.6293 Y11.5382 Z-0.37
X0.6272 Y11.5388 Z-0.3705
X0.625 Y11.539 Z-0.3709
G3 Y11.461 I0. J-0.039 F40.
Y11.539 I0. J0.039
G1 X0.6238 Y11.5387
X0.6228 Y11.538
X0.6223 Y11.5369
Y11.5357
X0.6228 Y11.5346
X0.6237 Y11.5338
X0.6312 Y11.5297
X0.6324 Y11.5294
X0.6336 Y11.5296
X0.6346 Y11.5303
X0.6352 Y11.5314
X0.6353 Y11.5326
X0.6348 Y11.5337
X0.6343 Y11.5345 Z-0.3753 F20.
X0.6326 Y11.5363 Z-0.3791
X0.631 Y11.5373 Z-0.3804
X0.6293 Y11.5382 Z-0.3816
X0.6272 Y11.5388 Z-0.3821
X0.625 Y11.539 Z-0.3825
G3 Y11.461 I0. J-0.039 F40.
Y11.539 I0. J0.039
G1 X0.6238 Y11.5387
X0.6228 Y11.538
X0.6223 Y11.5369
Y11.5357
X0.6228 Y11.5346
X0.6237 Y11.5338
X0.6312 Y11.5297
X0.6324 Y11.5294
X0.6336 Y11.5296
X0.6346 Y11.5303
X0.6352 Y11.5314
X0.6353 Y11.5326
X0.6348 Y11.5337
X0.6343 Y11.5345 Z-0.3869 F20.
X0.6326 Y11.5363 Z-0.3907
X0.631 Y11.5373 Z-0.392
X0.6293 Y11.5382 Z-0.3932
X0.6272 Y11.5388 Z-0.3936
X0.625 Y11.539 Z-0.3941
G3 Y11.461 I0. J-0.039 F40.
Y11.539 I0. J0.039
G1 X0.6238 Y11.5387
X0.6228 Y11.538
X0.6223 Y11.5369
Y11.5357
X0.6228 Y11.5346
X0.6237 Y11.5338
X0.6312 Y11.5297
X0.6324 Y11.5294
X0.6336 Y11.5296
X0.6346 Y11.5303
X0.6352 Y11.5314
X0.6353 Y11.5326
X0.6348 Y11.5337
X0.6343 Y11.5345 Z-0.3985 F20.
X0.6326 Y11.5363 Z-0.4023
X0.631 Y11.5373 Z-0.4035
X0.6293 Y11.5382 Z-0.4048
X0.6272 Y11.5388 Z-0.4052
X0.625 Y11.539 Z-0.4057
G3 Y11.461 I0. J-0.039 F40.
Y11.539 I0. J0.039
G1 X0.6238 Y11.5387
X0.6228 Y11.538
X0.6223 Y11.5369
Y11.5357
X0.6228 Y11.5346
X0.6237 Y11.5338
X0.6312 Y11.5297
X0.6324 Y11.5294
X0.6336 Y11.5296
X0.6346 Y11.5303
X0.6352 Y11.5314
X0.6353 Y11.5326
X0.6348 Y11.5337
X0.6343 Y11.5345 Z-0.4101 F20.
X0.6326 Y11.5363 Z-0.4139
X0.631 Y11.5373 Z-0.4151
X0.6293 Y11.5382 Z-0.4164
X0.6272 Y11.5388 Z-0.4168
X0.625 Y11.539 Z-0.4173
G3 Y11.461 I0. J-0.039 F40.
Y11.539 I0. J0.039
G1 X0.6238 Y11.5387
X0.6228 Y11.538
X0.6223 Y11.5369
Y11.5357
X0.6228 Y11.5346
X0.6237 Y11.5338
X0.6312 Y11.5297
X0.6324 Y11.5294
X0.6336 Y11.5296
X0.6346 Y11.5303
X0.6352 Y11.5314
X0.6353 Y11.5326
X0.6348 Y11.5337
X0.6343 Y11.5345 Z-0.4217 F20.
X0.6326 Y11.5363 Z-0.4255
X0.631 Y11.5373 Z-0.4267
X0.6293 Y11.5382 Z-0.428
X0.6272 Y11.5388 Z-0.4284
X0.625 Y11.539 Z-0.4289
G3 Y11.461 I0. J-0.039 F40.
Y11.539 I0. J0.039
G1 X0.6238 Y11.5387
X0.6228 Y11.538
X0.6223 Y11.5369
Y11.5357
X0.6228 Y11.5346
X0.6237 Y11.5338
X0.6312 Y11.5297
X0.6324 Y11.5294
X0.6336 Y11.5296
X0.6346 Y11.5303
X0.6352 Y11.5314
X0.6353 Y11.5326
X0.6348 Y11.5337
X0.6343 Y11.5345 Z-0.4333 F20.
X0.6326 Y11.5363 Z-0.4371
X0.631 Y11.5373 Z-0.4383
X0.6293 Y11.5382 Z-0.4396
X0.6272 Y11.5388 Z-0.44
X0.625 Y11.539 Z-0.4405
G3 Y11.461 I0. J-0.039 F40.
Y11.539 I0. J0.039
G1 X0.6238 Y11.5387
X0.6228 Y11.538
X0.6223 Y11.5369
Y11.5357
X0.6228 Y11.5346
X0.6237 Y11.5338
X0.6312 Y11.5297
X0.6324 Y11.5294
X0.6336 Y11.5296
X0.6346 Y11.5303
X0.6352 Y11.5314
X0.6353 Y11.5326
X0.6348 Y11.5337
X0.6343 Y11.5345 Z-0.4449 F20.
X0.6326 Y11.5363 Z-0.4487
X0.631 Y11.5373 Z-0.4499
X0.6293 Y11.5382 Z-0.4512
X0.6272 Y11.5388 Z-0.4516
X0.625 Y11.539 Z-0.452
G3 Y11.461 I0. J-0.039 F40.
Y11.539 I0. J0.039
G1 X0.6238 Y11.5387
X0.6228 Y11.538
X0.6223 Y11.5369
Y11.5357
X0.6228 Y11.5346
X0.6237 Y11.5338
X0.6312 Y11.5297
X0.6324 Y11.5294
X0.6336 Y11.5296
X0.6346 Y11.5303
X0.6352 Y11.5314
X0.6353 Y11.5326
X0.6348 Y11.5337
X0.6343 Y11.5345 Z-0.4565 F20.
X0.6326 Y11.5363 Z-0.4602
X0.631 Y11.5373 Z-0.4615
X0.6293 Y11.5382 Z-0.4628
X0.6272 Y11.5388 Z-0.4632
X0.625 Y11.539 Z-0.4636
G3 Y11.461 I0. J-0.039 F40.
Y11.539 I0. J0.039
G1 X0.6238 Y11.5387
X0.6228 Y11.538
X0.6223 Y11.5369
Y11.5357
X0.6228 Y11.5346
X0.6237 Y11.5338
X0.6312 Y11.5297
X0.6324 Y11.5294
X0.6336 Y11.5296
X0.6346 Y11.5303
X0.6352 Y11.5314
X0.6353 Y11.5326
X0.6348 Y11.5337
X0.6343 Y11.5345 Z-0.4681 F20.
X0.6326 Y11.5363 Z-0.4718
X0.631 Y11.5373 Z-0.4731
X0.6293 Y11.5382 Z-0.4743
X0.6272 Y11.5388 Z-0.4748
X0.625 Y11.539 Z-0.4752
G3 Y11.461 I0. J-0.039 F40.
Y11.539 I0. J0.039
G1 X0.6238 Y11.5387
X0.6228 Y11.538
X0.6223 Y11.5369
Y11.5357
X0.6228 Y11.5346
X0.6237 Y11.5338
X0.6312 Y11.5297
X0.6324 Y11.5294
X0.6336 Y11.5296
X0.6346 Y11.5303
X0.6352 Y11.5314
X0.6353 Y11.5326
X0.6348 Y11.5337
X0.6343 Y11.5345 Z-0.4797 F20.
X0.6326 Y11.5363 Z-0.4834
X0.631 Y11.5373 Z-0.4847
X0.6293 Y11.5382 Z-0.4859
X0.6272 Y11.5388 Z-0.4864
X0.625 Y11.539 Z-0.4868
G3 Y11.461 I0. J-0.039 F40.
Y11.539 I0. J0.039
G1 X0.6238 Y11.5387
X0.6228 Y11.538
X0.6223 Y11.5369
Y11.5357
X0.6228 Y11.5346
X0.6237 Y11.5338
X0.6312 Y11.5297
X0.6324 Y11.5294
X0.6336 Y11.5296
X0.6346 Y11.5303
X0.6352 Y11.5314
X0.6353 Y11.5326
X0.6348 Y11.5337
X0.6343 Y11.5345 Z-0.4913 F20.
X0.6326 Y11.5363 Z-0.495
X0.631 Y11.5373 Z-0.4963
X0.6293 Y11.5382 Z-0.4975
X0.6272 Y11.5388 Z-0.498
X0.625 Y11.539 Z-0.4984
G3 Y11.461 I0. J-0.039 F40.
Y11.539 I0. J0.039
G1 X0.6238 Y11.5387
X0.6228 Y11.538
X0.6223 Y11.5369
Y11.5357
X0.6228 Y11.5346
X0.6237 Y11.5338
X0.6312 Y11.5297
X0.6324 Y11.5294
X0.6336 Y11.5296
X0.6346 Y11.5303
X0.6352 Y11.5314
X0.6353 Y11.5326
X0.6348 Y11.5337
X0.6343 Y11.5345 Z-0.5028 F20.
X0.6326 Y11.5363 Z-0.5066
X0.631 Y11.5373 Z-0.5079
X0.6293 Y11.5382 Z-0.5091
X0.6272 Y11.5388 Z-0.5096
X0.625 Y11.539 Z-0.51
G3 Y11.461 I0. J-0.039 F40.
Y11.539 I0. J0.039
G1 X0.6228 Y11.5388 Z-0.5096
X0.6206 Y11.5381 Z-0.5091
X0.6189 Y11.5373 Z-0.5078
X0.6173 Y11.5362 Z-0.5065
X0.6156 Y11.5343 Z-0.5027
X0.6151 Y11.5336 Z-0.4982
G0 Z0.2
X0.6349 Y7.5336
G1 Z0.0002 F20.
X0.6344 Y7.5343 Z-0.0043
X0.6327 Y7.5362 Z-0.0081
X0.6311 Y7.5373 Z-0.0094
X0.6294 Y7.5381 Z-0.0107
X0.6272 Y7.5388 Z-0.0111
X0.625 Y7.539 Z-0.0116
G3 Y7.461 I0. J-0.039 F40.
Y7.539 I0. J0.039
G1 X0.6238 Y7.5387
X0.6228 Y7.538
X0.6223 Y7.5369
Y7.5357
X0.6228 Y7.5346
X0.6237 Y7.5338
X0.6312 Y7.5297
X0.6324 Y7.5294
X0.6336 Y7.5296
X0.6346 Y7.5303
X0.6352 Y7.5314
X0.6353 Y7.5326
X0.6348 Y7.5337
X0.6343 Y7.5345 Z-0.016 F20.
X0.6326 Y7.5363 Z-0.0198
X0.631 Y7.5373 Z-0.021
X0.6293 Y7.5382 Z-0.0223
X0.6272 Y7.5388 Z-0.0227
X0.625 Y7.539 Z-0.0232
G3 Y7.461 I0. J-0.039 F40.
Y7.539 I0. J0.039
G1 X0.6238 Y7.5387
X0.6228 Y7.538
X0.6223 Y7.5369
Y7.5357
X0.6228 Y7.5346
X0.6237 Y7.5338
X0.6312 Y7.5297
X0.6324 Y7.5294
X0.6336 Y7.5296
X0.6346 Y7.5303
X0.6352 Y7.5314
X0.6353 Y7.5326
X0.6348 Y7.5337
X0.6343 Y7.5345 Z-0.0276 F20.
X0.6326 Y7.5363 Z-0.0314
X0.631 Y7.5373 Z-0.0326
X0.6293 Y7.5382 Z-0.0339
X0.6272 Y7.5388 Z-0.0343
X0.625 Y7.539 Z-0.0348
G3 Y7.461 I0. J-0.039 F40.
Y7.539 I0. J0.039
G1 X0.6238 Y7.5387
X0.6228 Y7.538
X0.6223 Y7.5369
Y7.5357
X0.6228 Y7.5346
X0.6237 Y7.5338
X0.6312 Y7.5297
X0.6324 Y7.5294
X0.6336 Y7.5296
X0.6346 Y7.5303
X0.6352 Y7.5314
X0.6353 Y7.5326
X0.6348 Y7.5337
X0.6343 Y7.5345 Z-0.0392 F20.
X0.6326 Y7.5363 Z-0.043
X0.631 Y7.5373 Z-0.0442
X0.6293 Y7.5382 Z-0.0455
X0.6272 Y7.5388 Z-0.0459
X0.625 Y7.539 Z-0.0464
G3 Y7.461 I0. J-0.039 F40.
Y7.539 I0. J0.039
G1 X0.6238 Y7.5387
X0.6228 Y7.538
X0.6223 Y7.5369
Y7.5357
X0.6228 Y7.5346
X0.6237 Y7.5338
X0.6312 Y7.5297
X0.6324 Y7.5294
X0.6336 Y7.5296
X0.6346 Y7.5303
X0.6352 Y7.5314
X0.6353 Y7.5326
X0.6348 Y7.5337
X0.6343 Y7.5345 Z-0.0508 F20.
X0.6326 Y7.5363 Z-0.0546
X0.631 Y7.5373 Z-0.0558
X0.6293 Y7.5382 Z-0.0571
X0.6272 Y7.5388 Z-0.0575
X0.625 Y7.539 Z-0.058
G3 Y7.461 I0. J-0.039 F40.
Y7.539 I0. J0.039
G1 X0.6238 Y7.5387
X0.6228 Y7.538
X0.6223 Y7.5369
Y7.5357
X0.6228 Y7.5346
X0.6237 Y7.5338
X0.6312 Y7.5297
X0.6324 Y7.5294
X0.6336 Y7.5296
X0.6346 Y7.5303
X0.6352 Y7.5314
X0.6353 Y7.5326
X0.6348 Y7.5337
X0.6343 Y7.5345 Z-0.0624 F20.
X0.6326 Y7.5363 Z-0.0662
X0.631 Y7.5373 Z-0.0674
X0.6293 Y7.5382 Z-0.0687
X0.6272 Y7.5388 Z-0.0691
X0.625 Y7.539 Z-0.0695
G3 Y7.461 I0. J-0.039 F40.
Y7.539 I0. J0.039
G1 X0.6238 Y7.5387
X0.6228 Y7.538
X0.6223 Y7.5369
Y7.5357
X0.6228 Y7.5346
X0.6237 Y7.5338
X0.6312 Y7.5297
X0.6324 Y7.5294
X0.6336 Y7.5296
X0.6346 Y7.5303
X0.6352 Y7.5314
X0.6353 Y7.5326
X0.6348 Y7.5337
X0.6343 Y7.5345 Z-0.074 F20.
X0.6326 Y7.5363 Z-0.0777
X0.631 Y7.5373 Z-0.079
X0.6293 Y7.5382 Z-0.0803
X0.6272 Y7.5388 Z-0.0807
X0.625 Y7.539 Z-0.0811
G3 Y7.461 I0. J-0.039 F40.
Y7.539 I0. J0.039
G1 X0.6238 Y7.5387
X0.6228 Y7.538
X0.6223 Y7.5369
Y7.5357
X0.6228 Y7.5346
X0.6237 Y7.5338
X0.6312 Y7.5297
X0.6324 Y7.5294
X0.6336 Y7.5296
X0.6346 Y7.5303
X0.6352 Y7.5314
X0.6353 Y7.5326
X0.6348 Y7.5337
X0.6343 Y7.5345 Z-0.0856 F20.
X0.6326 Y7.5363 Z-0.0893
X0.631 Y7.5373 Z-0.0906
X0.6293 Y7.5382 Z-0.0918
X0.6272 Y7.5388 Z-0.0923
X0.625 Y7.539 Z-0.0927
G3 Y7.461 I0. J-0.039 F40.
Y7.539 I0. J0.039
G1 X0.6238 Y7.5387
X0.6228 Y7.538
X0.6223 Y7.5369
Y7.5357
X0.6228 Y7.5346
X0.6237 Y7.5338
X0.6312 Y7.5297
X0.6324 Y7.5294
X0.6336 Y7.5296
X0.6346 Y7.5303
X0.6352 Y7.5314
X0.6353 Y7.5326
X0.6348 Y7.5337
X0.6343 Y7.5345 Z-0.0972 F20.
X0.6326 Y7.5363 Z-0.1009
X0.631 Y7.5373 Z-0.1022
X0.6293 Y7.5382 Z-0.1034
X0.6272 Y7.5388 Z-0.1039
X0.625 Y7.539 Z-0.1043
G3 Y7.461 I0. J-0.039 F40.
Y7.539 I0. J0.039
G1 X0.6238 Y7.5387
X0.6228 Y7.538
X0.6223 Y7.5369
Y7.5357
X0.6228 Y7.5346
X0.6237 Y7.5338
X0.6312 Y7.5297
X0.6324 Y7.5294
X0.6336 Y7.5296
X0.6346 Y7.5303
X0.6352 Y7.5314
X0.6353 Y7.5326
X0.6348 Y7.5337
X0.6343 Y7.5345 Z-0.1088 F20.
X0.6326 Y7.5363 Z-0.1125
X0.631 Y7.5373 Z-0.1138
X0.6293 Y7.5382 Z-0.115
X0.6272 Y7.5388 Z-0.1155
X0.625 Y7.539 Z-0.1159
G3 Y7.461 I0. J-0.039 F40.
Y7.539 I0. J0.039
G1 X0.6238 Y7.5387
X0.6228 Y7.538
X0.6223 Y7.5369
Y7.5357
X0.6228 Y7.5346
X0.6237 Y7.5338
X0.6312 Y7.5297
X0.6324 Y7.5294
X0.6336 Y7.5296
X0.6346 Y7.5303
X0.6352 Y7.5314
X0.6353 Y7.5326
X0.6348 Y7.5337
X0.6343 Y7.5345 Z-0.1203 F20.
X0.6326 Y7.5363 Z-0.1241
X0.631 Y7.5373 Z-0.1254
X0.6293 Y7.5382 Z-0.1266
X0.6272 Y7.5388 Z-0.1271
X0.625 Y7.539 Z-0.1275
G3 Y7.461 I0. J-0.039 F40.
Y7.539 I0. J0.039
G1 X0.6238 Y7.5387
X0.6228 Y7.538
X0.6223 Y7.5369
Y7.5357
X0.6228 Y7.5346
X0.6237 Y7.5338
X0.6312 Y7.5297
X0.6324 Y7.5294
X0.6336 Y7.5296
X0.6346 Y7.5303
X0.6352 Y7.5314
X0.6353 Y7.5326
X0.6348 Y7.5337
X0.6343 Y7.5345 Z-0.1319 F20.
X0.6326 Y7.5363 Z-0.1357
X0.631 Y7.5373 Z-0.137
X0.6293 Y7.5382 Z-0.1382
X0.6272 Y7.5388 Z-0.1386
X0.625 Y7.539 Z-0.1391
G3 Y7.461 I0. J-0.039 F40.
Y7.539 I0. J0.039
G1 X0.6238 Y7.5387
X0.6228 Y7.538
X0.6223 Y7.5369
Y7.5357
X0.6228 Y7.5346
X0.6237 Y7.5338
X0.6312 Y7.5297
X0.6324 Y7.5294
X0.6336 Y7.5296
X0.6346 Y7.5303
X0.6352 Y7.5314
X0.6353 Y7.5326
X0.6348 Y7.5337
X0.6343 Y7.5345 Z-0.1435 F20.
X0.6326 Y7.5363 Z-0.1473
X0.631 Y7.5373 Z-0.1485
X0.6293 Y7.5382 Z-0.1498
X0.6272 Y7.5388 Z-0.1502
X0.625 Y7.539 Z-0.1507
G3 Y7.461 I0. J-0.039 F40.
Y7.539 I0. J0.039
G1 X0.6238 Y7.5387
X0.6228 Y7.538
X0.6223 Y7.5369
Y7.5357
X0.6228 Y7.5346
X0.6237 Y7.5338
X0.6312 Y7.5297
X0.6324 Y7.5294
X0.6336 Y7.5296
X0.6346 Y7.5303
X0.6352 Y7.5314
X0.6353 Y7.5326
X0.6348 Y7.5337
X0.6343 Y7.5345 Z-0.1551 F20.
X0.6326 Y7.5363 Z-0.1589
X0.631 Y7.5373 Z-0.1601
X0.6293 Y7.5382 Z-0.1614
X0.6272 Y7.5388 Z-0.1618
X0.625 Y7.539 Z-0.1623
G3 Y7.461 I0. J-0.039 F40.
Y7.539 I0. J0.039
G1 X0.6238 Y7.5387
X0.6228 Y7.538
X0.6223 Y7.5369
Y7.5357
X0.6228 Y7.5346
X0.6237 Y7.5338
X0.6312 Y7.5297
X0.6324 Y7.5294
X0.6336 Y7.5296
X0.6346 Y7.5303
X0.6352 Y7.5314
X0.6353 Y7.5326
X0.6348 Y7.5337
X0.6343 Y7.5345 Z-0.1667 F20.
X0.6326 Y7.5363 Z-0.1705
X0.631 Y7.5373 Z-0.1717
X0.6293 Y7.5382 Z-0.173
X0.6272 Y7.5388 Z-0.1734
X0.625 Y7.539 Z-0.1739
G3 Y7.461 I0. J-0.039 F40.
Y7.539 I0. J0.039
G1 X0.6238 Y7.5387
X0.6228 Y7.538
X0.6223 Y7.5369
Y7.5357
X0.6228 Y7.5346
X0.6237 Y7.5338
X0.6312 Y7.5297
X0.6324 Y7.5294
X0.6336 Y7.5296
X0.6346 Y7.5303
X0.6352 Y7.5314
X0.6353 Y7.5326
X0.6348 Y7.5337
X0.6343 Y7.5345 Z-0.1783 F20.
X0.6326 Y7.5363 Z-0.1821
X0.631 Y7.5373 Z-0.1833
X0.6293 Y7.5382 Z-0.1846
X0.6272 Y7.5388 Z-0.185
X0.625 Y7.539 Z-0.1855
G3 Y7.461 I0. J-0.039 F40.
Y7.539 I0. J0.039
G1 X0.6238 Y7.5387
X0.6228 Y7.538
X0.6223 Y7.5369
Y7.5357
X0.6228 Y7.5346
X0.6237 Y7.5338
X0.6312 Y7.5297
X0.6324 Y7.5294
X0.6336 Y7.5296
X0.6346 Y7.5303
X0.6352 Y7.5314
X0.6353 Y7.5326
X0.6348 Y7.5337
X0.6343 Y7.5345 Z-0.1899 F20.
X0.6326 Y7.5363 Z-0.1937
X0.631 Y7.5373 Z-0.1949
X0.6293 Y7.5382 Z-0.1962
X0.6272 Y7.5388 Z-0.1966
X0.625 Y7.539 Z-0.197
G3 Y7.461 I0. J-0.039 F40.
Y7.539 I0. J0.039
G1 X0.6238 Y7.5387
X0.6228 Y7.538
X0.6223 Y7.5369
Y7.5357
X0.6228 Y7.5346
X0.6237 Y7.5338
X0.6312 Y7.5297
X0.6324 Y7.5294
X0.6336 Y7.5296
X0.6346 Y7.5303
X0.6352 Y7.5314
X0.6353 Y7.5326
X0.6348 Y7.5337
X0.6343 Y7.5345 Z-0.2015 F20.
X0.6326 Y7.5363 Z-0.2052
X0.631 Y7.5373 Z-0.2065
X0.6293 Y7.5382 Z-0.2078
X0.6272 Y7.5388 Z-0.2082
X0.625 Y7.539 Z-0.2086
G3 Y7.461 I0. J-0.039 F40.
Y7.539 I0. J0.039
G1 X0.6238 Y7.5387
X0.6228 Y7.538
X0.6223 Y7.5369
Y7.5357
X0.6228 Y7.5346
X0.6237 Y7.5338
X0.6312 Y7.5297
X0.6324 Y7.5294
X0.6336 Y7.5296
X0.6346 Y7.5303
X0.6352 Y7.5314
X0.6353 Y7.5326
X0.6348 Y7.5337
X0.6343 Y7.5345 Z-0.2131 F20.
X0.6326 Y7.5363 Z-0.2168
X0.631 Y7.5373 Z-0.2181
X0.6293 Y7.5382 Z-0.2193
X0.6272 Y7.5388 Z-0.2198
X0.625 Y7.539 Z-0.2202
G3 Y7.461 I0. J-0.039 F40.
Y7.539 I0. J0.039
G1 X0.6238 Y7.5387
X0.6228 Y7.538
X0.6223 Y7.5369
Y7.5357
X0.6228 Y7.5346
X0.6237 Y7.5338
X0.6312 Y7.5297
X0.6324 Y7.5294
X0.6336 Y7.5296
X0.6346 Y7.5303
X0.6352 Y7.5314
X0.6353 Y7.5326
X0.6348 Y7.5337
X0.6343 Y7.5345 Z-0.2247 F20.
X0.6326 Y7.5363 Z-0.2284
X0.631 Y7.5373 Z-0.2297
X0.6293 Y7.5382 Z-0.2309
X0.6272 Y7.5388 Z-0.2314
X0.625 Y7.539 Z-0.2318
G3 Y7.461 I0. J-0.039 F40.
Y7.539 I0. J0.039
G1 X0.6238 Y7.5387
X0.6228 Y7.538
X0.6223 Y7.5369
Y7.5357
X0.6228 Y7.5346
X0.6237 Y7.5338
X0.6312 Y7.5297
X0.6324 Y7.5294
X0.6336 Y7.5296
X0.6346 Y7.5303
X0.6352 Y7.5314
X0.6353 Y7.5326
X0.6348 Y7.5337
X0.6343 Y7.5345 Z-0.2363 F20.
X0.6326 Y7.5363 Z-0.24
X0.631 Y7.5373 Z-0.2413
X0.6293 Y7.5382 Z-0.2425
X0.6272 Y7.5388 Z-0.243
X0.625 Y7.539 Z-0.2434
G3 Y7.461 I0. J-0.039 F40.
Y7.539 I0. J0.039
G1 X0.6238 Y7.5387
X0.6228 Y7.538
X0.6223 Y7.5369
Y7.5357
X0.6228 Y7.5346
X0.6237 Y7.5338
X0.6312 Y7.5297
X0.6324 Y7.5294
X0.6336 Y7.5296
X0.6346 Y7.5303
X0.6352 Y7.5314
X0.6353 Y7.5326
X0.6348 Y7.5337
X0.6343 Y7.5345 Z-0.2478 F20.
X0.6326 Y7.5363 Z-0.2516
X0.631 Y7.5373 Z-0.2529
X0.6293 Y7.5382 Z-0.2541
X0.6272 Y7.5388 Z-0.2546
X0.625 Y7.539 Z-0.255
G3 Y7.461 I0. J-0.039 F40.
Y7.539 I0. J0.039
G1 X0.6238 Y7.5387
X0.6228 Y7.538
X0.6223 Y7.5369
Y7.5357
X0.6228 Y7.5346
X0.6237 Y7.5338
X0.6312 Y7.5297
X0.6324 Y7.5294
X0.6336 Y7.5296
X0.6346 Y7.5303
X0.6352 Y7.5314
X0.6353 Y7.5326
X0.6348 Y7.5337
X0.6343 Y7.5345 Z-0.2594 F20.
X0.6326 Y7.5363 Z-0.2632
X0.631 Y7.5373 Z-0.2645
X0.6293 Y7.5382 Z-0.2657
X0.6272 Y7.5388 Z-0.2661
X0.625 Y7.539 Z-0.2666
G3 Y7.461 I0. J-0.039 F40.
Y7.539 I0. J0.039
G1 X0.6238 Y7.5387
X0.6228 Y7.538
X0.6223 Y7.5369
Y7.5357
X0.6228 Y7.5346
X0.6237 Y7.5338
X0.6312 Y7.5297
X0.6324 Y7.5294
X0.6336 Y7.5296
X0.6346 Y7.5303
X0.6352 Y7.5314
X0.6353 Y7.5326
X0.6348 Y7.5337
X0.6343 Y7.5345 Z-0.271 F20.
X0.6326 Y7.5363 Z-0.2748
X0.631 Y7.5373 Z-0.276
X0.6293 Y7.5382 Z-0.2773
X0.6272 Y7.5388 Z-0.2777
X0.625 Y7.539 Z-0.2782
G3 Y7.461 I0. J-0.039 F40.
Y7.539 I0. J0.039
G1 X0.6238 Y7.5387
X0.6228 Y7.538
X0.6223 Y7.5369
Y7.5357
X0.6228 Y7.5346
X0.6237 Y7.5338
X0.6312 Y7.5297
X0.6324 Y7.5294
X0.6336 Y7.5296
X0.6346 Y7.5303
X0.6352 Y7.5314
X0.6353 Y7.5326
X0.6348 Y7.5337
X0.6343 Y7.5345 Z-0.2826 F20.
X0.6326 Y7.5363 Z-0.2864
X0.631 Y7.5373 Z-0.2876
X0.6293 Y7.5382 Z-0.2889
X0.6272 Y7.5388 Z-0.2893
X0.625 Y7.539 Z-0.2898
G3 Y7.461 I0. J-0.039 F40.
Y7.539 I0. J0.039
G1 X0.6238 Y7.5387
X0.6228 Y7.538
X0.6223 Y7.5369
Y7.5357
X0.6228 Y7.5346
X0.6237 Y7.5338
X0.6312 Y7.5297
X0.6324 Y7.5294
X0.6336 Y7.5296
X0.6346 Y7.5303
X0.6352 Y7.5314
X0.6353 Y7.5326
X0.6348 Y7.5337
X0.6343 Y7.5345 Z-0.2942 F20.
X0.6326 Y7.5363 Z-0.298
X0.631 Y7.5373 Z-0.2992
X0.6293 Y7.5382 Z-0.3005
X0.6272 Y7.5388 Z-0.3009
X0.625 Y7.539 Z-0.3014
G3 Y7.461 I0. J-0.039 F40.
Y7.539 I0. J0.039
G1 X0.6238 Y7.5387
X0.6228 Y7.538
X0.6223 Y7.5369
Y7.5357
X0.6228 Y7.5346
X0.6237 Y7.5338
X0.6312 Y7.5297
X0.6324 Y7.5294
X0.6336 Y7.5296
X0.6346 Y7.5303
X0.6352 Y7.5314
X0.6353 Y7.5326
X0.6348 Y7.5337
X0.6343 Y7.5345 Z-0.3058 F20.
X0.6326 Y7.5363 Z-0.3096
X0.631 Y7.5373 Z-0.3108
X0.6293 Y7.5382 Z-0.3121
X0.6272 Y7.5388 Z-0.3125
X0.625 Y7.539 Z-0.313
G3 Y7.461 I0. J-0.039 F40.
Y7.539 I0. J0.039
G1 X0.6238 Y7.5387
X0.6228 Y7.538
X0.6223 Y7.5369
Y7.5357
X0.6228 Y7.5346
X0.6237 Y7.5338
X0.6312 Y7.5297
X0.6324 Y7.5294
X0.6336 Y7.5296
X0.6346 Y7.5303
X0.6352 Y7.5314
X0.6353 Y7.5326
X0.6348 Y7.5337
X0.6343 Y7.5345 Z-0.3174 F20.
X0.6326 Y7.5363 Z-0.3212
X0.631 Y7.5373 Z-0.3224
X0.6293 Y7.5382 Z-0.3237
X0.6272 Y7.5388 Z-0.3241
X0.625 Y7.539 Z-0.3245
G3 Y7.461 I0. J-0.039 F40.
Y7.539 I0. J0.039
G1 X0.6238 Y7.5387
X0.6228 Y7.538
X0.6223 Y7.5369
Y7.5357
X0.6228 Y7.5346
X0.6237 Y7.5338
X0.6312 Y7.5297
X0.6324 Y7.5294
X0.6336 Y7.5296
X0.6346 Y7.5303
X0.6352 Y7.5314
X0.6353 Y7.5326
X0.6348 Y7.5337
X0.6343 Y7.5345 Z-0.329 F20.
X0.6326 Y7.5363 Z-0.3327
X0.631 Y7.5373 Z-0.334
X0.6293 Y7.5382 Z-0.3353
X0.6272 Y7.5388 Z-0.3357
X0.625 Y7.539 Z-0.3361
G3 Y7.461 I0. J-0.039 F40.
Y7.539 I0. J0.039
G1 X0.6238 Y7.5387
X0.6228 Y7.538
X0.6223 Y7.5369
Y7.5357
X0.6228 Y7.5346
X0.6237 Y7.5338
X0.6312 Y7.5297
X0.6324 Y7.5294
X0.6336 Y7.5296
X0.6346 Y7.5303
X0.6352 Y7.5314
X0.6353 Y7.5326
X0.6348 Y7.5337
X0.6343 Y7.5345 Z-0.3406 F20.
X0.6326 Y7.5363 Z-0.3443
X0.631 Y7.5373 Z-0.3456
X0.6293 Y7.5382 Z-0.3468
X0.6272 Y7.5388 Z-0.3473
X0.625 Y7.539 Z-0.3477
G3 Y7.461 I0. J-0.039 F40.
Y7.539 I0. J0.039
G1 X0.6238 Y7.5387
X0.6228 Y7.538
X0.6223 Y7.5369
Y7.5357
X0.6228 Y7.5346
X0.6237 Y7.5338
X0.6312 Y7.5297
X0.6324 Y7.5294
X0.6336 Y7.5296
X0.6346 Y7.5303
X0.6352 Y7.5314
X0.6353 Y7.5326
X0.6348 Y7.5337
X0.6343 Y7.5345 Z-0.3522 F20.
X0.6326 Y7.5363 Z-0.3559
X0.631 Y7.5373 Z-0.3572
X0.6293 Y7.5382 Z-0.3584
X0.6272 Y7.5388 Z-0.3589
X0.625 Y7.539 Z-0.3593
G3 Y7.461 I0. J-0.039 F40.
Y7.539 I0. J0.039
G1 X0.6238 Y7.5387
X0.6228 Y7.538
X0.6223 Y7.5369
Y7.5357
X0.6228 Y7.5346
X0.6237 Y7.5338
X0.6312 Y7.5297
X0.6324 Y7.5294
X0.6336 Y7.5296
X0.6346 Y7.5303
X0.6352 Y7.5314
X0.6353 Y7.5326
X0.6348 Y7.5337
X0.6343 Y7.5345 Z-0.3638 F20.
X0.6326 Y7.5363 Z-0.3675
X0.631 Y7.5373 Z-0.3688
X0.6293 Y7.5382 Z-0.37
X0.6272 Y7.5388 Z-0.3705
X0.625 Y7.539 Z-0.3709
G3 Y7.461 I0. J-0.039 F40.
Y7.539 I0. J0.039
G1 X0.6238 Y7.5387
X0.6228 Y7.538
X0.6223 Y7.5369
Y7.5357
X0.6228 Y7.5346
X0.6237 Y7.5338
X0.6312 Y7.5297
X0.6324 Y7.5294
X0.6336 Y7.5296
X0.6346 Y7.5303
X0.6352 Y7.5314
X0.6353 Y7.5326
X0.6348 Y7.5337
X0.6343 Y7.5345 Z-0.3753 F20.
X0.6326 Y7.5363 Z-0.3791
X0.631 Y7.5373 Z-0.3804
X0.6293 Y7.5382 Z-0.3816
X0.6272 Y7.5388 Z-0.3821
X0.625 Y7.539 Z-0.3825
G3 Y7.461 I0. J-0.039 F40.
Y7.539 I0. J0.039
G1 X0.6238 Y7.5387
X0.6228 Y7.538
X0.6223 Y7.5369
Y7.5357
X0.6228 Y7.5346
X0.6237 Y7.5338
X0.6312 Y7.5297
X0.6324 Y7.5294
X0.6336 Y7.5296
X0.6346 Y7.5303
X0.6352 Y7.5314
X0.6353 Y7.5326
X0.6348 Y7.5337
X0.6343 Y7.5345 Z-0.3869 F20.
X0.6326 Y7.5363 Z-0.3907
X0.631 Y7.5373 Z-0.392
X0.6293 Y7.5382 Z-0.3932
X0.6272 Y7.5388 Z-0.3936
X0.625 Y7.539 Z-0.3941
G3 Y7.461 I0. J-0.039 F40.
Y7.539 I0. J0.039
G1 X0.6238 Y7.5387
X0.6228 Y7.538
X0.6223 Y7.5369
Y7.5357
X0.6228 Y7.5346
X0.6237 Y7.5338
X0.6312 Y7.5297
X0.6324 Y7.5294
X0.6336 Y7.5296
X0.6346 Y7.5303
X0.6352 Y7.5314
X0.6353 Y7.5326
X0.6348 Y7.5337
X0.6343 Y7.5345 Z-0.3985 F20.
X0.6326 Y7.5363 Z-0.4023
X0.631 Y7.5373 Z-0.4035
X0.6293 Y7.5382 Z-0.4048
X0.6272 Y7.5388 Z-0.4052
X0.625 Y7.539 Z-0.4057
G3 Y7.461 I0. J-0.039 F40.
Y7.539 I0. J0.039
G1 X0.6238 Y7.5387
X0.6228 Y7.538
X0.6223 Y7.5369
Y7.5357
X0.6228 Y7.5346
X0.6237 Y7.5338
X0.6312 Y7.5297
X0.6324 Y7.5294
X0.6336 Y7.5296
X0.6346 Y7.5303
X0.6352 Y7.5314
X0.6353 Y7.5326
X0.6348 Y7.5337
X0.6343 Y7.5345 Z-0.4101 F20.
X0.6326 Y7.5363 Z-0.4139
X0.631 Y7.5373 Z-0.4151
X0.6293 Y7.5382 Z-0.4164
X0.6272 Y7.5388 Z-0.4168
X0.625 Y7.539 Z-0.4173
G3 Y7.461 I0. J-0.039 F40.
Y7.539 I0. J0.039
G1 X0.6238 Y7.5387
X0.6228 Y7.538
X0.6223 Y7.5369
Y7.5357
X0.6228 Y7.5346
X0.6237 Y7.5338
X0.6312 Y7.5297
X0.6324 Y7.5294
X0.6336 Y7.5296
X0.6346 Y7.5303
X0.6352 Y7.5314
X0.6353 Y7.5326
X0.6348 Y7.5337
X0.6343 Y7.5345 Z-0.4217 F20.
X0.6326 Y7.5363 Z-0.4255
X0.631 Y7.5373 Z-0.4267
X0.6293 Y7.5382 Z-0.428
X0.6272 Y7.5388 Z-0.4284
X0.625 Y7.539 Z-0.4289
G3 Y7.461 I0. J-0.039 F40.
Y7.539 I0. J0.039
G1 X0.6238 Y7.5387
X0.6228 Y7.538
X0.6223 Y7.5369
Y7.5357
X0.6228 Y7.5346
X0.6237 Y7.5338
X0.6312 Y7.5297
X0.6324 Y7.5294
X0.6336 Y7.5296
X0.6346 Y7.5303
X0.6352 Y7.5314
X0.6353 Y7.5326
X0.6348 Y7.5337
X0.6343 Y7.5345 Z-0.4333 F20.
X0.6326 Y7.5363 Z-0.4371
X0.631 Y7.5373 Z-0.4383
X0.6293 Y7.5382 Z-0.4396
X0.6272 Y7.5388 Z-0.44
X0.625 Y7.539 Z-0.4405
G3 Y7.461 I0. J-0.039 F40.
Y7.539 I0. J0.039
G1 X0.6238 Y7.5387
X0.6228 Y7.538
X0.6223 Y7.5369
Y7.5357
X0.6228 Y7.5346
X0.6237 Y7.5338
X0.6312 Y7.5297
X0.6324 Y7.5294
X0.6336 Y7.5296
X0.6346 Y7.5303
X0.6352 Y7.5314
X0.6353 Y7.5326
X0.6348 Y7.5337
X0.6343 Y7.5345 Z-0.4449 F20.
X0.6326 Y7.5363 Z-0.4487
X0.631 Y7.5373 Z-0.4499
X0.6293 Y7.5382 Z-0.4512
X0.6272 Y7.5388 Z-0.4516
X0.625 Y7.539 Z-0.452
G3 Y7.461 I0. J-0.039 F40.
Y7.539 I0. J0.039
G1 X0.6238 Y7.5387
X0.6228 Y7.538
X0.6223 Y7.5369
Y7.5357
X0.6228 Y7.5346
X0.6237 Y7.5338
X0.6312 Y7.5297
X0.6324 Y7.5294
X0.6336 Y7.5296
X0.6346 Y7.5303
X0.6352 Y7.5314
X0.6353 Y7.5326
X0.6348 Y7.5337
X0.6343 Y7.5345 Z-0.4565 F20.
X0.6326 Y7.5363 Z-0.4602
X0.631 Y7.5373 Z-0.4615
X0.6293 Y7.5382 Z-0.4628
X0.6272 Y7.5388 Z-0.4632
X0.625 Y7.539 Z-0.4636
G3 Y7.461 I0. J-0.039 F40.
Y7.539 I0. J0.039
G1 X0.6238 Y7.5387
X0.6228 Y7.538
X0.6223 Y7.5369
Y7.5357
X0.6228 Y7.5346
X0.6237 Y7.5338
X0.6312 Y7.5297
X0.6324 Y7.5294
X0.6336 Y7.5296
X0.6346 Y7.5303
X0.6352 Y7.5314
X0.6353 Y7.5326
X0.6348 Y7.5337
X0.6343 Y7.5345 Z-0.4681 F20.
X0.6326 Y7.5363 Z-0.4718
X0.631 Y7.5373 Z-0.4731
X0.6293 Y7.5382 Z-0.4743
X0.6272 Y7.5388 Z-0.4748
X0.625 Y7.539 Z-0.4752
G3 Y7.461 I0. J-0.039 F40.
Y7.539 I0. J0.039
G1 X0.6238 Y7.5387
X0.6228 Y7.538
X0.6223 Y7.5369
Y7.5357
X0.6228 Y7.5346
X0.6237 Y7.5338
X0.6312 Y7.5297
X0.6324 Y7.5294
X0.6336 Y7.5296
X0.6346 Y7.5303
X0.6352 Y7.5314
X0.6353 Y7.5326
X0.6348 Y7.5337
X0.6343 Y7.5345 Z-0.4797 F20.
X0.6326 Y7.5363 Z-0.4834
X0.631 Y7.5373 Z-0.4847
X0.6293 Y7.5382 Z-0.4859
X0.6272 Y7.5388 Z-0.4864
X0.625 Y7.539 Z-0.4868
G3 Y7.461 I0. J-0.039 F40.
Y7.539 I0. J0.039
G1 X0.6238 Y7.5387
X0.6228 Y7.538
X0.6223 Y7.5369
Y7.5357
X0.6228 Y7.5346
X0.6237 Y7.5338
X0.6312 Y7.5297
X0.6324 Y7.5294
X0.6336 Y7.5296
X0.6346 Y7.5303
X0.6352 Y7.5314
X0.6353 Y7.5326
X0.6348 Y7.5337
X0.6343 Y7.5345 Z-0.4913 F20.
X0.6326 Y7.5363 Z-0.495
X0.631 Y7.5373 Z-0.4963
X0.6293 Y7.5382 Z-0.4975
X0.6272 Y7.5388 Z-0.498
X0.625 Y7.539 Z-0.4984
G3 Y7.461 I0. J-0.039 F40.
Y7.539 I0. J0.039
G1 X0.6238 Y7.5387
X0.6228 Y7.538
X0.6223 Y7.5369
Y7.5357
X0.6228 Y7.5346
X0.6237 Y7.5338
X0.6312 Y7.5297
X0.6324 Y7.5294
X0.6336 Y7.5296
X0.6346 Y7.5303
X0.6352 Y7.5314
X0.6353 Y7.5326
X0.6348 Y7.5337
X0.6343 Y7.5345 Z-0.5028 F20.
X0.6326 Y7.5363 Z-0.5066
X0.631 Y7.5373 Z-0.5079
X0.6293 Y7.5382 Z-0.5091
X0.6272 Y7.5388 Z-0.5096
X0.625 Y7.539 Z-0.51
G3 Y7.461 I0. J-0.039 F40.
Y7.539 I0. J0.039
G1 X0.6228 Y7.5388 Z-0.5096
X0.6206 Y7.5381 Z-0.5091
X0.6189 Y7.5373 Z-0.5078
X0.6173 Y7.5362 Z-0.5065
X0.6156 Y7.5343 Z-0.5027
X0.6151 Y7.5336 Z-0.4982
G0 Z0.6

M9
M30
