(BUTTON BOARD LEFT SIDE HOLES)
(T3  D=0.118 CR=0. - ZMIN=-0.51 - FLAT END MILL)
G90 G94 G91.1 G40 G49 G17
G20

(2D POCKET1)
G0 X0. Y0. Z0.6
M5
T3 M6
S15000 M3
G4 P5.
G54
M8
G0 X8.7662 Y0.7382
G43 Z0.6 H3
Z0.2
G1 Z-0.1582 F20.
G19 G3 Y0.75 Z-0.17 J0.0118 K0.
G17 G3 X8.7338 I-0.0162 J0. F40.
X8.837 I0.0516 J0.
X8.663 I-0.087 J0.
X8.9078 I0.1224 J0.
X8.5922 I-0.1578 J0.
X8.9786 I0.1932 J0.
X8.5214 I-0.2286 J0.
X9.0494 I0.264 J0.
X8.4506 I-0.2994 J0.
X9.1202 I0.3348 J0.
X8.3798 I-0.3702 J0.
X9.191 I0.4056 J0.
X8.309 I-0.441 J0.
X9.191 I0.441 J0.
G1 X9.1908 Y0.7516
X9.1901 Y0.7531
X9.189 Y0.7544
X9.1877 Y0.7553
X9.1861 Y0.7558
X9.1845 Y0.7559
X9.1181 Y0.7489
X8.7662 Y0.7382
Z-0.3282 F20.
G19 G3 Y0.75 Z-0.34 J0.0118 K0.
G17 G3 X8.7338 I-0.0162 J0. F40.
X8.837 I0.0516 J0.
X8.663 I-0.087 J0.
X8.9078 I0.1224 J0.
X8.5922 I-0.1578 J0.
X8.9786 I0.1932 J0.
X8.5214 I-0.2286 J0.
X9.0494 I0.264 J0.
X8.4506 I-0.2994 J0.
X9.1202 I0.3348 J0.
X8.3798 I-0.3702 J0.
X9.191 I0.4056 J0.
X8.309 I-0.441 J0.
X9.191 I0.441 J0.
G1 X9.1908 Y0.7516
X9.1901 Y0.7531
X9.189 Y0.7544
X9.1877 Y0.7553
X9.1861 Y0.7558
X9.1845 Y0.7559
X9.1181 Y0.7489
X8.7662 Y0.7382
Z-0.4982 F20.
G19 G3 Y0.75 Z-0.51 J0.0118 K0.
G17 G3 X8.7338 I-0.0162 J0. F40.
X8.837 I0.0516 J0.
X8.663 I-0.087 J0.
X8.9078 I0.1224 J0.
X8.5922 I-0.1578 J0.
X8.9786 I0.1932 J0.
X8.5214 I-0.2286 J0.
X9.0494 I0.264 J0.
X8.4506 I-0.2994 J0.
X9.1202 I0.3348 J0.
X8.3798 I-0.3702 J0.
X9.191 I0.4056 J0.
X8.309 I-0.441 J0.
X9.191 I0.441 J0.
G1 X9.1908 Y0.7522 Z-0.5096
X9.1901 Y0.7544 Z-0.5091
X9.1893 Y0.7561 Z-0.5078
X9.1882 Y0.7577 Z-0.5065
X9.1863 Y0.7594 Z-0.5027
X9.1856 Y0.7599 Z-0.4982
G0 Z0.2
X9.7599 Y1.2576
G1 Z-0.1582 F20.
X9.7594 Y1.2583 Z-0.1627
X9.7577 Y1.2602 Z-0.1665
X9.7561 Y1.2613 Z-0.1678
X9.7544 Y1.2622 Z-0.1691
X9.7522 Y1.2628 Z-0.1696
X9.75 Y1.263 Z-0.17
G3 Y1.237 I0. J-0.013 F40.
Y1.263 I0. J0.013
G1 X9.7488 Y1.2627
X9.7478 Y1.262
X9.7473 Y1.2609
X9.7472 Y1.2596
X9.7477 Y1.2585
X9.7486 Y1.2577
X9.7562 Y1.2536
X9.7574 Y1.2532
X9.7586 Y1.2534
X9.7596 Y1.2541
X9.7602 Y1.2552
X9.7604 Y1.2564
X9.7599 Y1.2576
Z-0.3282 F20.
X9.7594 Y1.2583 Z-0.3327
X9.7577 Y1.2602 Z-0.3365
X9.7561 Y1.2613 Z-0.3378
X9.7544 Y1.2622 Z-0.3391
X9.7522 Y1.2628 Z-0.3396
X9.75 Y1.263 Z-0.34
G3 Y1.237 I0. J-0.013 F40.
Y1.263 I0. J0.013
G1 X9.7488 Y1.2627
X9.7478 Y1.262
X9.7473 Y1.2609
X9.7472 Y1.2596
X9.7477 Y1.2585
X9.7486 Y1.2577
X9.7562 Y1.2536
X9.7574 Y1.2532
X9.7586 Y1.2534
X9.7596 Y1.2541
X9.7602 Y1.2552
X9.7604 Y1.2564
X9.7599 Y1.2576
Z-0.4982 F20.
X9.7594 Y1.2583 Z-0.5027
X9.7577 Y1.2602 Z-0.5065
X9.7561 Y1.2613 Z-0.5078
X9.7544 Y1.2622 Z-0.5091
X9.7522 Y1.2628 Z-0.5096
X9.75 Y1.263 Z-0.51
G3 Y1.237 I0. J-0.013 F40.
Y1.263 I0. J0.013
G1 X9.7478 Y1.2628 Z-0.5096
X9.7456 Y1.2622 Z-0.5091
X9.7438 Y1.2615 Z-0.5078
X9.7422 Y1.2604 Z-0.5065
X9.7403 Y1.2587 Z-0.5027
X9.7398 Y1.258 Z-0.4982
G0 Z0.2
X9.7599 Y0.2576
G1 Z-0.1582 F20.
X9.7594 Y0.2583 Z-0.1627
X9.7577 Y0.2602 Z-0.1665
X9.7561 Y0.2613 Z-0.1678
X9.7544 Y0.2622 Z-0.1691
X9.7522 Y0.2628 Z-0.1696
X9.75 Y0.263 Z-0.17
G3 Y0.237 I0. J-0.013 F40.
Y0.263 I0. J0.013
G1 X9.7488 Y0.2627
X9.7478 Y0.262
X9.7473 Y0.2609
X9.7472 Y0.2596
X9.7477 Y0.2585
X9.7486 Y0.2577
X9.7562 Y0.2536
X9.7574 Y0.2532
X9.7586 Y0.2534
X9.7596 Y0.2541
X9.7602 Y0.2552
X9.7604 Y0.2564
X9.7599 Y0.2576
Z-0.3282 F20.
X9.7594 Y0.2583 Z-0.3327
X9.7577 Y0.2602 Z-0.3365
X9.7561 Y0.2613 Z-0.3378
X9.7544 Y0.2622 Z-0.3391
X9.7522 Y0.2628 Z-0.3396
X9.75 Y0.263 Z-0.34
G3 Y0.237 I0. J-0.013 F40.
Y0.263 I0. J0.013
G1 X9.7488 Y0.2627
X9.7478 Y0.262
X9.7473 Y0.2609
X9.7472 Y0.2596
X9.7477 Y0.2585
X9.7486 Y0.2577
X9.7562 Y0.2536
X9.7574 Y0.2532
X9.7586 Y0.2534
X9.7596 Y0.2541
X9.7602 Y0.2552
X9.7604 Y0.2564
X9.7599 Y0.2576
Z-0.4982 F20.
X9.7594 Y0.2583 Z-0.5027
X9.7577 Y0.2602 Z-0.5065
X9.7561 Y0.2613 Z-0.5078
X9.7544 Y0.2622 Z-0.5091
X9.7522 Y0.2628 Z-0.5096
X9.75 Y0.263 Z-0.51
G3 Y0.237 I0. J-0.013 F40.
Y0.263 I0. J0.013
G1 X9.7478 Y0.2628 Z-0.5096
X9.7456 Y0.2622 Z-0.5091
X9.7438 Y0.2615 Z-0.5078
X9.7422 Y0.2604 Z-0.5065
X9.7403 Y0.2587 Z-0.5027
X9.7398 Y0.258 Z-0.4982
G0 Z0.2
X0.25 Y0.263
G1 Z-0.17 F20.
G3 Y0.237 I0. J-0.013 F40.
Y0.263 I0. J0.013
G1 Z-0.34 F20.
G3 Y0.237 I0. J-0.013 F40.
Y0.263 I0. J0.013
G1 Z-0.51 F20.
G3 Y0.237 I0. J-0.013 F40.
Y0.263 I0. J0.013
G1 X0.2478 Y0.2628 Z-0.5096
X0.2456 Y0.2622 Z-0.5091
X0.2438 Y0.2614 Z-0.5078
X0.2422 Y0.2604 Z-0.5065
X0.2403 Y0.2587 Z-0.5027
X0.2398 Y0.258 Z-0.4982
G0 Z0.2
X0.2599 Y1.2576
G1 Z-0.1582 F20.
X0.2594 Y1.2583 Z-0.1627
X0.2577 Y1.2602 Z-0.1665
X0.2561 Y1.2613 Z-0.1678
X0.2544 Y1.2621 Z-0.1691
X0.2522 Y1.2628 Z-0.1696
X0.25 Y1.263 Z-0.17
G3 Y1.237 I0. J-0.013 F40.
Y1.263 I0. J0.013
G1 X0.2488 Y1.2627
X0.2478 Y1.262
X0.2473 Y1.2609
X0.2472 Y1.2596
X0.2477 Y1.2585
X0.2486 Y1.2577
X0.2562 Y1.2536
X0.2574 Y1.2532
X0.2586 Y1.2534
X0.2596 Y1.2541
X0.2602 Y1.2552
X0.2604 Y1.2564
X0.2599 Y1.2576
Z-0.3282 F20.
X0.2594 Y1.2583 Z-0.3327
X0.2577 Y1.2602 Z-0.3365
X0.2561 Y1.2613 Z-0.3378
X0.2544 Y1.2621 Z-0.3391
X0.2522 Y1.2628 Z-0.3396
X0.25 Y1.263 Z-0.34
G3 Y1.237 I0. J-0.013 F40.
Y1.263 I0. J0.013
G1 X0.2488 Y1.2627
X0.2478 Y1.262
X0.2473 Y1.2609
X0.2472 Y1.2596
X0.2477 Y1.2585
X0.2486 Y1.2577
X0.2562 Y1.2536
X0.2574 Y1.2532
X0.2586 Y1.2534
X0.2596 Y1.2541
X0.2602 Y1.2552
X0.2604 Y1.2564
X0.2599 Y1.2576
Z-0.4982 F20.
X0.2594 Y1.2583 Z-0.5027
X0.2577 Y1.2602 Z-0.5065
X0.2561 Y1.2613 Z-0.5078
X0.2544 Y1.2621 Z-0.5091
X0.2522 Y1.2628 Z-0.5096
X0.25 Y1.263 Z-0.51
G3 Y1.237 I0. J-0.013 F40.
Y1.263 I0. J0.013
G1 X0.2478 Y1.2628 Z-0.5096
X0.2456 Y1.2622 Z-0.5091
X0.2438 Y1.2614 Z-0.5078
X0.2422 Y1.2604 Z-0.5065
X0.2403 Y1.2587 Z-0.5027
X0.2398 Y1.258 Z-0.4982
G0 Z0.6

M9
M30
