(T1  D=0.25 CR=0. - ZMIN=-1.0313 - FLAT END MILL)
G90 G94 G91.1 G40 G49 G17
G20

(2D POCKET4)
G0 X0. Y0. Z0.6
M5
T1 M6
S15000 M3
G4 P5.
G54
M8
G0 X6.5053 Y14.882
G43 Z0.6 H1
Z0.2
G1 Z0.125 F10.
X6.5065 Y14.8819 Z0.1174
X6.5099 Y14.8816 Z0.1106
X6.5152 Y14.8813 Z0.1051
X6.5219 Z0.1014
X6.5294 Y14.8817 Z0.1
G3 X6.5081 Y15.1183 Z0.087 I-0.0107 J0.1183
X6.5294 Y14.8817 Z0.0739 I0.0107 J-0.1183
X6.5081 Y15.1183 Z0.0609 I-0.0107 J0.1183
X6.5294 Y14.8817 Z0.0479 I0.0107 J-0.1183
X6.5081 Y15.1183 Z0.0349 I-0.0107 J0.1183
X6.5294 Y14.8817 Z0.0218 I0.0107 J-0.1183
X6.5081 Y15.1183 Z0.0088 I-0.0107 J0.1183
X6.5294 Y14.8817 Z-0.0042 I0.0107 J-0.1183
X6.5081 Y15.1183 Z-0.0172 I-0.0107 J0.1183
X6.5294 Y14.8817 Z-0.0303 I0.0107 J-0.1183
X6.5081 Y15.1183 Z-0.0433 I-0.0107 J0.1183
X6.5294 Y14.8817 Z-0.0563 I0.0107 J-0.1183
X6.5081 Y15.1183 Z-0.0694 I-0.0107 J0.1183
X6.5294 Y14.8817 Z-0.0824 I0.0107 J-0.1183
X6.5081 Y15.1183 Z-0.0954 I-0.0107 J0.1183
X6.5294 Y14.8817 Z-0.1084 I0.0107 J-0.1183
X6.6375 Y15. Z-0.1146 I-0.0107 J0.1183
X6.4875 I-0.075 J0. F30.
X6.7875 I0.15 J0.
X6.3375 I-0.225 J0.
X6.9375 I0.3 J0.
X6.1875 I-0.375 J0.
X6.9375 I0.375 J0.
X6.9246 Y15.0125 I-0.0125 J0.
G1 X6.6671 Y15.0049
X6.6654
X6.6637 Y15.0046
X6.4308 Y14.9485
G3 X6.4237 Y14.9288 I0.0029 J-0.0122
X6.6138 Y15.0712 Z-0.1276 I0.095 J0.0712 F10.
X6.4237 Y14.9288 Z-0.1406 I-0.095 J-0.0712
X6.6138 Y15.0712 Z-0.1537 I0.095 J0.0712
X6.4237 Y14.9288 Z-0.1667 I-0.095 J-0.0712
X6.6138 Y15.0712 Z-0.1797 I0.095 J0.0712
X6.4237 Y14.9288 Z-0.1927 I-0.095 J-0.0712
X6.6138 Y15.0712 Z-0.2058 I0.095 J0.0712
X6.4237 Y14.9288 Z-0.2188 I-0.095 J-0.0712
X6.6375 Y15. Z-0.2292 I0.095 J0.0712
X6.4875 I-0.075 J0. F30.
X6.7875 I0.15 J0.
X6.3375 I-0.225 J0.
X6.9375 I0.3 J0.
X6.1875 I-0.375 J0.
X6.9375 I0.375 J0.
X6.9246 Y15.0125 I-0.0125 J0.
G1 X6.6671 Y15.0049
X6.6654
X6.6637 Y15.0046
X6.4308 Y14.9485
G3 X6.4237 Y14.9288 I0.0029 J-0.0122
X6.6138 Y15.0712 Z-0.2422 I0.095 J0.0712 F10.
X6.4237 Y14.9288 Z-0.2552 I-0.095 J-0.0712
X6.6138 Y15.0712 Z-0.2683 I0.095 J0.0712
X6.4237 Y14.9288 Z-0.2813 I-0.095 J-0.0712
X6.6138 Y15.0712 Z-0.2943 I0.095 J0.0712
X6.4237 Y14.9288 Z-0.3073 I-0.095 J-0.0712
X6.6138 Y15.0712 Z-0.3204 I0.095 J0.0712
X6.4237 Y14.9288 Z-0.3334 I-0.095 J-0.0712
X6.6375 Y15. Z-0.3438 I0.095 J0.0712
X6.4875 I-0.075 J0. F30.
X6.7875 I0.15 J0.
X6.3375 I-0.225 J0.
X6.9375 I0.3 J0.
X6.1875 I-0.375 J0.
X6.9375 I0.375 J0.
X6.9246 Y15.0125 I-0.0125 J0.
G1 X6.6671 Y15.0049
X6.6654
X6.6637 Y15.0046
X6.4308 Y14.9485
G3 X6.4237 Y14.9288 I0.0029 J-0.0122
X6.6138 Y15.0712 Z-0.3568 I0.095 J0.0712 F10.
X6.4237 Y14.9288 Z-0.3698 I-0.095 J-0.0712
X6.6138 Y15.0712 Z-0.3828 I0.095 J0.0712
X6.4237 Y14.9288 Z-0.3959 I-0.095 J-0.0712
X6.6138 Y15.0712 Z-0.4089 I0.095 J0.0712
X6.4237 Y14.9288 Z-0.4219 I-0.095 J-0.0712
X6.6138 Y15.0712 Z-0.4349 I0.095 J0.0712
X6.4237 Y14.9288 Z-0.448 I-0.095 J-0.0712
X6.6375 Y15. Z-0.4583 I0.095 J0.0712
X6.4875 I-0.075 J0. F30.
X6.7875 I0.15 J0.
X6.3375 I-0.225 J0.
X6.9375 I0.3 J0.
X6.1875 I-0.375 J0.
X6.9375 I0.375 J0.
X6.9246 Y15.0125 I-0.0125 J0.
G1 X6.6671 Y15.0049
X6.6654
X6.6637 Y15.0046
X6.4308 Y14.9485
G3 X6.4237 Y14.9288 I0.0029 J-0.0122
X6.6138 Y15.0712 Z-0.4714 I0.095 J0.0712 F10.
X6.4237 Y14.9288 Z-0.4844 I-0.095 J-0.0712
X6.6138 Y15.0712 Z-0.4974 I0.095 J0.0712
X6.4237 Y14.9288 Z-0.5104 I-0.095 J-0.0712
X6.6138 Y15.0712 Z-0.5235 I0.095 J0.0712
X6.4237 Y14.9288 Z-0.5365 I-0.095 J-0.0712
X6.6138 Y15.0712 Z-0.5495 I0.095 J0.0712
X6.4237 Y14.9288 Z-0.5626 I-0.095 J-0.0712
X6.6375 Y15. Z-0.5729 I0.095 J0.0712
X6.4875 I-0.075 J0. F30.
X6.7875 I0.15 J0.
X6.3375 I-0.225 J0.
X6.9375 I0.3 J0.
X6.1875 I-0.375 J0.
X6.9375 I0.375 J0.
X6.9246 Y15.0125 I-0.0125 J0.
G1 X6.6671 Y15.0049
X6.6654
X6.6637 Y15.0046
X6.4308 Y14.9485
G3 X6.4237 Y14.9288 I0.0029 J-0.0122
X6.6138 Y15.0712 Z-0.5859 I0.095 J0.0712 F10.
X6.4237 Y14.9288 Z-0.599 I-0.095 J-0.0712
X6.6138 Y15.0712 Z-0.612 I0.095 J0.0712
X6.4237 Y14.9288 Z-0.625 I-0.095 J-0.0712
X6.6138 Y15.0712 Z-0.6381 I0.095 J0.0712
X6.4237 Y14.9288 Z-0.6511 I-0.095 J-0.0712
X6.6138 Y15.0712 Z-0.6641 I0.095 J0.0712
X6.4237 Y14.9288 Z-0.6771 I-0.095 J-0.0712
X6.6375 Y15. Z-0.6875 I0.095 J0.0712
X6.4875 I-0.075 J0. F30.
X6.7875 I0.15 J0.
X6.3375 I-0.225 J0.
X6.9375 I0.3 J0.
X6.1875 I-0.375 J0.
X6.9375 I0.375 J0.
X6.9246 Y15.0125 I-0.0125 J0.
G1 X6.6671 Y15.0049
X6.6654
X6.6637 Y15.0046
X6.4308 Y14.9485
G3 X6.4237 Y14.9288 I0.0029 J-0.0122
X6.6138 Y15.0712 Z-0.7005 I0.095 J0.0712 F10.
X6.4237 Y14.9288 Z-0.7136 I-0.095 J-0.0712
X6.6138 Y15.0712 Z-0.7266 I0.095 J0.0712
X6.4237 Y14.9288 Z-0.7396 I-0.095 J-0.0712
X6.6138 Y15.0712 Z-0.7526 I0.095 J0.0712
X6.4237 Y14.9288 Z-0.7657 I-0.095 J-0.0712
X6.6138 Y15.0712 Z-0.7787 I0.095 J0.0712
X6.4237 Y14.9288 Z-0.7917 I-0.095 J-0.0712
X6.6375 Y15. Z-0.8021 I0.095 J0.0712
X6.4875 I-0.075 J0. F30.
X6.7875 I0.15 J0.
X6.3375 I-0.225 J0.
X6.9375 I0.3 J0.
X6.1875 I-0.375 J0.
X6.9375 I0.375 J0.
X6.9246 Y15.0125 I-0.0125 J0.
G1 X6.6671 Y15.0049
X6.6654
X6.6637 Y15.0046
X6.4308 Y14.9485
G3 X6.4237 Y14.9288 I0.0029 J-0.0122
X6.6138 Y15.0712 Z-0.8151 I0.095 J0.0712 F10.
X6.4237 Y14.9288 Z-0.8281 I-0.095 J-0.0712
X6.6138 Y15.0712 Z-0.8412 I0.095 J0.0712
X6.4237 Y14.9288 Z-0.8542 I-0.095 J-0.0712
X6.6138 Y15.0712 Z-0.8672 I0.095 J0.0712
X6.4237 Y14.9288 Z-0.8803 I-0.095 J-0.0712
X6.6138 Y15.0712 Z-0.8933 I0.095 J0.0712
X6.4237 Y14.9288 Z-0.9063 I-0.095 J-0.0712
X6.6375 Y15. Z-0.9167 I0.095 J0.0712
X6.4875 I-0.075 J0. F30.
X6.7875 I0.15 J0.
X6.3375 I-0.225 J0.
X6.9375 I0.3 J0.
X6.1875 I-0.375 J0.
X6.9375 I0.375 J0.
X6.9246 Y15.0125 I-0.0125 J0.
G1 X6.6671 Y15.0049
X6.6654
X6.6637 Y15.0046
X6.4308 Y14.9485
G3 X6.4237 Y14.9288 I0.0029 J-0.0122
X6.6138 Y15.0712 Z-0.9297 I0.095 J0.0712 F10.
X6.4237 Y14.9288 Z-0.9427 I-0.095 J-0.0712
X6.6138 Y15.0712 Z-0.9558 I0.095 J0.0712
X6.4237 Y14.9288 Z-0.9688 I-0.095 J-0.0712
X6.6138 Y15.0712 Z-0.9818 I0.095 J0.0712
X6.4237 Y14.9288 Z-0.9948 I-0.095 J-0.0712
X6.6138 Y15.0712 Z-1.0079 I0.095 J0.0712
X6.4237 Y14.9288 Z-1.0209 I-0.095 J-0.0712
X6.6375 Y15. Z-1.0313 I0.095 J0.0712
X6.4875 I-0.075 J0. F30.
X6.7875 I0.15 J0.
X6.3375 I-0.225 J0.
X6.9375 I0.3 J0.
X6.1875 I-0.375 J0.
X6.9375 I0.375 J0.
G1 X6.9372 Y15.0038 Z-1.0306
X6.9363 Y15.0076 Z-1.03
X6.935 Y15.0108 Z-1.0283
X6.9333 Y15.0139 Z-1.0265
X6.9316 Y15.0161 Z-1.0237
X6.9297 Y15.0181 Z-1.0209
X6.927 Y15.0204 Z-1.014
X6.926 Y15.021 Z-1.0063
G0 Z0.6

(2D POCKET2)
G0 X6.6922 Y14.8967
Z0.6
Z0.2
G1 Z0.125 F10.
X6.6931 Y14.8973 Z0.1178
X6.6958 Y14.8988 Z0.1113
X6.6998 Y14.9014 Z0.1058
X6.7048 Y14.905 Z0.102
X6.7083 Y14.9077 Z0.1006
X6.7119 Y14.9107 Z0.1
G3 X6.5553 Y15.0893 Z0.087 I-0.0783 J0.0893
X6.7119 Y14.9107 Z0.0739 I0.0783 J-0.0893
X6.5553 Y15.0893 Z0.0609 I-0.0783 J0.0893
X6.7119 Y14.9107 Z0.0479 I0.0783 J-0.0893
X6.5553 Y15.0893 Z0.0349 I-0.0783 J0.0893
X6.7119 Y14.9107 Z0.0218 I0.0783 J-0.0893
X6.5553 Y15.0893 Z0.0088 I-0.0783 J0.0893
X6.7119 Y14.9107 Z-0.0042 I0.0783 J-0.0893
X6.5553 Y15.0893 Z-0.0172 I-0.0783 J0.0893
X6.7119 Y14.9107 Z-0.0303 I0.0783 J-0.0893
X6.5553 Y15.0893 Z-0.0433 I-0.0783 J0.0893
X6.7119 Y14.9107 Z-0.0563 I0.0783 J-0.0893
X6.5553 Y15.0893 Z-0.0694 I-0.0783 J0.0893
X6.7119 Y14.9107 Z-0.0824 I0.0783 J-0.0893
X6.5553 Y15.0893 Z-0.0954 I-0.0783 J0.0893
X6.7119 Y14.9107 Z-0.1084 I0.0783 J-0.0893
X6.5553 Y15.0893 Z-0.1215 I-0.0783 J0.0893
X6.5148 Y15. Z-0.125 I0.0783 J-0.0893
G1 Y14.9651 F30.
G3 X6.5276 Y14.9524 I0.0128 J0.
G1 X6.5974
G3 X6.6101 Y14.9651 I0. J0.0128
G1 Y15.0349
G3 X6.5974 Y15.0476 I-0.0128 J0.
G1 X6.5276
G3 X6.5148 Y15.0349 I0. J-0.0128
G1 Y15.
G2 X6.4759 Y14.9313 I-0.0801 J0.
G3 X6.497 Y14.8552 I0.021 J-0.0351
G1 X6.6945
G3 X6.7073 Y14.868 I0. J0.0128
G1 Y15.132
G3 X6.6945 Y15.1448 I-0.0128 J0.
G1 X6.4305
G3 X6.4177 Y15.132 I0. J-0.0128
G1 Y14.868
G3 X6.4305 Y14.8552 I0.0128 J0.
G1 X6.497
G2 X6.6065 Y14.7822 I0. J-0.1186
G3 X6.716 Y14.7092 I0.1095 J0.0456
G1 X6.8405
G3 X6.8533 Y14.722 I0. J0.0128
G1 Y15.278
G3 X6.8405 Y15.2908 I-0.0128 J0.
G1 X6.2845
G3 X6.2717 Y15.278 I0. J-0.0128
G1 Y14.722
G3 X6.2845 Y14.7092 I0.0128 J0.
G1 X6.716
G2 X6.8255 Y14.6362 I0. J-0.1186
G3 X6.935 Y14.5632 I0.1095 J0.0456
G1 X6.9865
G3 X6.9993 Y14.576 I0. J0.0128
G1 Y15.424
G3 X6.9865 Y15.4368 I-0.0128 J0.
G1 X6.1385
G3 X6.1257 Y15.424 I0. J-0.0128
G1 Y14.576
G3 X6.1385 Y14.5632 I0.0128 J0.
G1 X6.935
G2 X7.0355 Y14.5085 I0. J-0.1197
G3 X7.1453 Y14.5409 I0.0501 J0.0324
G1 Y15.57
G3 X7.1325 Y15.5828 I-0.0128 J0.
G1 X5.9925
G3 X5.9797 Y15.57 I0. J-0.0128
G1 Y14.43
G3 X5.9925 Y14.4172 I0.0128 J0.
G1 X7.1325
G3 X7.1453 Y14.43 I0. J0.0128
G1 Y14.5409
G2 X7.2183 Y14.6504 I0.1186 J0.
G3 X7.2913 Y14.7599 I-0.0456 J0.1095
G1 Y15.716
G3 X7.2785 Y15.7288 I-0.0128 J0.
G1 X5.8465
G3 X5.8337 Y15.716 I0. J-0.0128
G1 Y14.284
G3 X5.8465 Y14.2712 I0.0128 J0.
G1 X7.2785
G3 X7.2913 Y14.284 I0. J0.0128
G1 Y14.7599
G2 X7.3644 Y14.8695 I0.1188 J0.
G3 X7.4375 Y14.9792 I-0.0457 J0.1097
G1 Y15.875
X5.6875
Y14.125
X7.4375
Y14.9792
G3 X7.4238 Y14.9916 I-0.0125 J0.
G1 X6.6011 Y14.9109
G3 X6.5987 Y14.8865 I0.0012 J-0.0124
X6.6685 Y15.1135 Z-0.138 I0.0349 J0.1135 F10.
X6.5987 Y14.8865 Z-0.1511 I-0.0349 J-0.1135
X6.6685 Y15.1135 Z-0.1641 I0.0349 J0.1135
X6.5987 Y14.8865 Z-0.1771 I-0.0349 J-0.1135
X6.6685 Y15.1135 Z-0.1901 I0.0349 J0.1135
X6.5987 Y14.8865 Z-0.2032 I-0.0349 J-0.1135
X6.6685 Y15.1135 Z-0.2162 I0.0349 J0.1135
X6.5987 Y14.8865 Z-0.2292 I-0.0349 J-0.1135
X6.6685 Y15.1135 Z-0.2422 I0.0349 J0.1135
X6.5148 Y15. Z-0.25 I-0.0349 J-0.1135
G1 Y14.9651 F30.
G3 X6.5276 Y14.9524 I0.0128 J0.
G1 X6.5974
G3 X6.6101 Y14.9651 I0. J0.0128
G1 Y15.0349
G3 X6.5974 Y15.0476 I-0.0128 J0.
G1 X6.5276
G3 X6.5148 Y15.0349 I0. J-0.0128
G1 Y15.
G2 X6.4759 Y14.9313 I-0.0801 J0.
G3 X6.497 Y14.8552 I0.021 J-0.0351
G1 X6.6945
G3 X6.7073 Y14.868 I0. J0.0128
G1 Y15.132
G3 X6.6945 Y15.1448 I-0.0128 J0.
G1 X6.4305
G3 X6.4177 Y15.132 I0. J-0.0128
G1 Y14.868
G3 X6.4305 Y14.8552 I0.0128 J0.
G1 X6.497
G2 X6.6065 Y14.7822 I0. J-0.1186
G3 X6.716 Y14.7092 I0.1095 J0.0456
G1 X6.8405
G3 X6.8533 Y14.722 I0. J0.0128
G1 Y15.278
G3 X6.8405 Y15.2908 I-0.0128 J0.
G1 X6.2845
G3 X6.2717 Y15.278 I0. J-0.0128
G1 Y14.722
G3 X6.2845 Y14.7092 I0.0128 J0.
G1 X6.716
G2 X6.8255 Y14.6362 I0. J-0.1186
G3 X6.935 Y14.5632 I0.1095 J0.0456
G1 X6.9865
G3 X6.9993 Y14.576 I0. J0.0128
G1 Y15.424
G3 X6.9865 Y15.4368 I-0.0128 J0.
G1 X6.1385
G3 X6.1257 Y15.424 I0. J-0.0128
G1 Y14.576
G3 X6.1385 Y14.5632 I0.0128 J0.
G1 X6.935
G2 X7.0355 Y14.5085 I0. J-0.1197
G3 X7.1453 Y14.5409 I0.0501 J0.0324
G1 Y15.57
G3 X7.1325 Y15.5828 I-0.0128 J0.
G1 X5.9925
G3 X5.9797 Y15.57 I0. J-0.0128
G1 Y14.43
G3 X5.9925 Y14.4172 I0.0128 J0.
G1 X7.1325
G3 X7.1453 Y14.43 I0. J0.0128
G1 Y14.5409
G2 X7.2183 Y14.6504 I0.1186 J0.
G3 X7.2913 Y14.7599 I-0.0456 J0.1095
G1 Y15.716
G3 X7.2785 Y15.7288 I-0.0128 J0.
G1 X5.8465
G3 X5.8337 Y15.716 I0. J-0.0128
G1 Y14.284
G3 X5.8465 Y14.2712 I0.0128 J0.
G1 X7.2785
G3 X7.2913 Y14.284 I0. J0.0128
G1 Y14.7599
G2 X7.3644 Y14.8695 I0.1188 J0.
G3 X7.4375 Y14.9792 I-0.0457 J0.1097
G1 Y15.875
X5.6875
Y14.125
X7.4375
Y14.9792
X7.4372 Y14.983 Z-0.2494
X7.4363 Y14.9868 Z-0.2488
X7.435 Y14.99 Z-0.247
X7.4333 Y14.993 Z-0.2452
X7.4316 Y14.9952 Z-0.2425
X7.4297 Y14.9972 Z-0.2397
X7.427 Y14.9995 Z-0.2327
X7.426 Y15.0002 Z-0.225
G0 Z0.6

(2D POCKET6)
G0 X10.3883 Y17.282
Z0.6
Z0.2
G1 Z0.125 F10.
X10.3879 Y17.2809 Z0.1174
X10.3866 Y17.2778 Z0.1106
X10.3849 Y17.2728 Z0.1051
X10.3832 Y17.2663 Z0.1014
X10.3825 Y17.2626 Z0.1007
X10.382 Y17.2588 Z0.1
G3 X10.5372 Y17.2412 Z0.0914 I0.0776 J-0.0088
X10.382 Y17.2588 Z0.0829 I-0.0776 J0.0088
X10.5372 Y17.2412 Z0.0743 I0.0776 J-0.0088
X10.382 Y17.2588 Z0.0657 I-0.0776 J0.0088
X10.5372 Y17.2412 Z0.0571 I0.0776 J-0.0088
X10.382 Y17.2588 Z0.0486 I-0.0776 J0.0088
X10.5372 Y17.2412 Z0.04 I0.0776 J-0.0088
X10.382 Y17.2588 Z0.0314 I-0.0776 J0.0088
X10.5372 Y17.2412 Z0.0229 I0.0776 J-0.0088
X10.382 Y17.2588 Z0.0143 I-0.0776 J0.0088
X10.5372 Y17.2412 Z0.0057 I0.0776 J-0.0088
X10.382 Y17.2588 Z-0.0029 I-0.0776 J0.0088
X10.5372 Y17.2412 Z-0.0114 I0.0776 J-0.0088
X10.382 Y17.2588 Z-0.02 I-0.0776 J0.0088
X10.5372 Y17.2412 Z-0.0286 I0.0776 J-0.0088
X10.382 Y17.2588 Z-0.0371 I-0.0776 J0.0088
X10.5372 Y17.2412 Z-0.0457 I0.0776 J-0.0088
X10.382 Y17.2588 Z-0.0543 I-0.0776 J0.0088
X10.5372 Y17.2412 Z-0.0628 I0.0776 J-0.0088
X10.382 Y17.2588 Z-0.0714 I-0.0776 J0.0088
X10.5372 Y17.2412 Z-0.08 I0.0776 J-0.0088
X10.382 Y17.2588 Z-0.0886 I-0.0776 J0.0088
X10.5372 Y17.2412 Z-0.0971 I0.0776 J-0.0088
X10.382 Y17.2588 Z-0.1057 I-0.0776 J0.0088
X10.4552 Y17.172 Z-0.1101 I0.0776 J-0.0088
X10.5377 Y17.25 Z-0.1146 I0.0044 J0.078
X10.3815 I-0.0781 J0. F30.
X10.5377 I0.0781 J0.
X10.3815 Z-0.1232 I-0.0781 J0. F10.
X10.5377 Z-0.1317 I0.0781 J0.
X10.3815 Z-0.1403 I-0.0781 J0.
X10.5377 Z-0.1489 I0.0781 J0.
X10.3815 Z-0.1574 I-0.0781 J0.
X10.5377 Z-0.166 I0.0781 J0.
X10.3815 Z-0.1746 I-0.0781 J0.
X10.5377 Z-0.1832 I0.0781 J0.
X10.3815 Z-0.1917 I-0.0781 J0.
X10.5377 Z-0.2003 I0.0781 J0.
X10.3815 Z-0.2089 I-0.0781 J0.
X10.5377 Z-0.2174 I0.0781 J0.
X10.3815 Z-0.226 I-0.0781 J0.
X10.4283 Y17.1784 Z-0.2292 I0.0781 J0.
X10.4909 Y17.3216 I0.0313 J0.0716 F30.
X10.4283 Y17.1784 I-0.0313 J-0.0716
X10.4909 Y17.3216 Z-0.2377 I0.0313 J0.0716 F10.
X10.4283 Y17.1784 Z-0.2463 I-0.0313 J-0.0716
X10.4909 Y17.3216 Z-0.2549 I0.0313 J0.0716
X10.4283 Y17.1784 Z-0.2635 I-0.0313 J-0.0716
X10.4909 Y17.3216 Z-0.272 I0.0313 J0.0716
X10.4283 Y17.1784 Z-0.2806 I-0.0313 J-0.0716
X10.4909 Y17.3216 Z-0.2892 I0.0313 J0.0716
X10.4283 Y17.1784 Z-0.2977 I-0.0313 J-0.0716
X10.4909 Y17.3216 Z-0.3063 I0.0313 J0.0716
X10.4283 Y17.1784 Z-0.3149 I-0.0313 J-0.0716
X10.4909 Y17.3216 Z-0.3234 I0.0313 J0.0716
X10.4283 Y17.1784 Z-0.332 I-0.0313 J-0.0716
X10.4909 Y17.3216 Z-0.3406 I0.0313 J0.0716
X10.4066 Y17.3073 Z-0.3438 I-0.0313 J-0.0716
X10.5127 Y17.1926 I0.0531 J-0.0574 F30.
X10.4066 Y17.3073 I-0.0531 J0.0574
X10.5127 Y17.1926 Z-0.3523 I0.0531 J-0.0574 F10.
X10.4066 Y17.3073 Z-0.3609 I-0.0531 J0.0574
X10.5127 Y17.1926 Z-0.3695 I0.0531 J-0.0574
X10.4066 Y17.3073 Z-0.378 I-0.0531 J0.0574
X10.5127 Y17.1926 Z-0.3866 I0.0531 J-0.0573
X10.4066 Y17.3073 Z-0.3952 I-0.0531 J0.0573
X10.5127 Y17.1927 Z-0.4037 I0.0531 J-0.0573
X10.4066 Y17.3073 Z-0.4123 I-0.0531 J0.0573
X10.5127 Y17.1927 Z-0.4209 I0.0531 J-0.0573
X10.4066 Y17.3073 Z-0.4295 I-0.0531 J0.0573
X10.5127 Y17.1927 Z-0.438 I0.0531 J-0.0573
X10.4066 Y17.3073 Z-0.4466 I-0.0531 J0.0573
X10.5127 Y17.1927 Z-0.4552 I0.0531 J-0.0573
X10.5334 Y17.2756 Z-0.4583 I-0.0531 J0.0573
X10.3858 Y17.2244 I-0.0738 J-0.0256 F30.
X10.5334 Y17.2756 I0.0738 J0.0256
X10.3858 Y17.2244 Z-0.4669 I-0.0738 J-0.0256 F10.
X10.5334 Y17.2756 Z-0.4755 I0.0738 J0.0256
X10.3858 Y17.2244 Z-0.484 I-0.0738 J-0.0256
X10.5334 Y17.2756 Z-0.4926 I0.0738 J0.0256
X10.3858 Y17.2244 Z-0.5012 I-0.0738 J-0.0256
X10.5334 Y17.2756 Z-0.5098 I0.0738 J0.0256
X10.3858 Y17.2244 Z-0.5183 I-0.0738 J-0.0256
X10.5334 Y17.2756 Z-0.5269 I0.0738 J0.0256
X10.3858 Y17.2244 Z-0.5355 I-0.0738 J-0.0256
X10.5334 Y17.2756 Z-0.544 I0.0738 J0.0256
X10.3858 Y17.2244 Z-0.5526 I-0.0738 J-0.0256
X10.5334 Y17.2756 Z-0.5612 I0.0738 J0.0256
X10.3858 Y17.2244 Z-0.5698 I-0.0738 J-0.0256
X10.4535 Y17.1721 Z-0.5729 I0.0738 J0.0256
X10.4657 Y17.3279 I0.0061 J0.0779 F30.
X10.4535 Y17.1721 I-0.0061 J-0.0779
X10.4657 Y17.3279 Z-0.5815 I0.0061 J0.0779 F10.
X10.4535 Y17.1721 Z-0.5901 I-0.0061 J-0.0779
X10.4657 Y17.3279 Z-0.5986 I0.0061 J0.0779
X10.4535 Y17.1721 Z-0.6072 I-0.0061 J-0.0779
X10.4657 Y17.3279 Z-0.6158 I0.0061 J0.0779
X10.4535 Y17.1721 Z-0.6243 I-0.0061 J-0.0779
X10.4657 Y17.3279 Z-0.6329 I0.0061 J0.0779
X10.4535 Y17.1721 Z-0.6415 I-0.0061 J-0.0779
X10.4657 Y17.3279 Z-0.6501 I0.0061 J0.0779
X10.4535 Y17.1721 Z-0.6586 I-0.0061 J-0.0779
X10.4657 Y17.3279 Z-0.6672 I0.0061 J0.0779
X10.4535 Y17.1721 Z-0.6758 I-0.0061 J-0.0779
X10.4657 Y17.3279 Z-0.6843 I0.0061 J0.0779
X10.3907 Y17.2868 Z-0.6875 I-0.0061 J-0.0779
X10.5285 Y17.2132 I0.0689 J-0.0368 F30.
X10.3907 Y17.2868 I-0.0689 J0.0368
X10.5285 Y17.2132 Z-0.6961 I0.0689 J-0.0368 F10.
X10.3907 Y17.2868 Z-0.7046 I-0.0689 J0.0368
X10.5285 Y17.2132 Z-0.7132 I0.0689 J-0.0368
X10.3907 Y17.2868 Z-0.7218 I-0.0689 J0.0368
X10.5285 Y17.2132 Z-0.7304 I0.0689 J-0.0368
X10.3907 Y17.2868 Z-0.7389 I-0.0689 J0.0368
X10.5285 Y17.2132 Z-0.7475 I0.0689 J-0.0368
X10.3907 Y17.2868 Z-0.7561 I-0.0689 J0.0368
X10.5285 Y17.2132 Z-0.7646 I0.0689 J-0.0368
X10.3907 Y17.2868 Z-0.7732 I-0.0689 J0.0368
X10.5285 Y17.2132 Z-0.7818 I0.0689 J-0.0368
X10.3907 Y17.2868 Z-0.7904 I-0.0689 J0.0368
X10.5285 Y17.2132 Z-0.7989 I0.0689 J-0.0368
X10.5209 Y17.2984 Z-0.8021 I-0.0689 J0.0368
X10.3983 Y17.2016 I-0.0613 J-0.0484 F30.
X10.5209 Y17.2984 I0.0613 J0.0484
X10.3983 Y17.2016 Z-0.8107 I-0.0613 J-0.0484 F10.
X10.5209 Y17.2984 Z-0.8192 I0.0613 J0.0484
X10.3983 Y17.2016 Z-0.8278 I-0.0613 J-0.0484
X10.5209 Y17.2984 Z-0.8364 I0.0613 J0.0484
X10.3983 Y17.2016 Z-0.8449 I-0.0613 J-0.0484
X10.5209 Y17.2984 Z-0.8535 I0.0613 J0.0484
X10.3983 Y17.2016 Z-0.8621 I-0.0613 J-0.0484
X10.5209 Y17.2984 Z-0.8707 I0.0613 J0.0484
X10.3983 Y17.2016 Z-0.8792 I-0.0613 J-0.0484
X10.5209 Y17.2984 Z-0.8878 I0.0613 J0.0484
X10.3983 Y17.2016 Z-0.8964 I-0.0613 J-0.0484
X10.5209 Y17.2984 Z-0.9049 I0.0613 J0.0484
X10.3983 Y17.2016 Z-0.9135 I-0.0613 J-0.0484
X10.4794 Y17.1744 Z-0.9167 I0.0613 J0.0484
X10.4398 Y17.3256 I-0.0198 J0.0756 F30.
X10.4794 Y17.1744 I0.0198 J-0.0756
X10.4398 Y17.3256 Z-0.9252 I-0.0198 J0.0756 F10.
X10.4794 Y17.1744 Z-0.9338 I0.0198 J-0.0756
X10.4398 Y17.3256 Z-0.9424 I-0.0198 J0.0756
X10.4794 Y17.1744 Z-0.951 I0.0198 J-0.0756
X10.4398 Y17.3256 Z-0.9595 I-0.0198 J0.0756
X10.4794 Y17.1744 Z-0.9681 I0.0198 J-0.0756
X10.4398 Y17.3256 Z-0.9767 I-0.0198 J0.0756
X10.4794 Y17.1744 Z-0.9852 I0.0198 J-0.0756
X10.4398 Y17.3256 Z-0.9938 I-0.0198 J0.0756
X10.4794 Y17.1744 Z-1.0024 I0.0198 J-0.0756
X10.4398 Y17.3256 Z-1.0109 I-0.0198 J0.0756
X10.4794 Y17.1744 Z-1.0195 I0.0198 J-0.0756
X10.4398 Y17.3256 Z-1.0281 I-0.0198 J0.0756
X10.3824 Y17.2621 Z-1.0313 I0.0198 J-0.0756
X10.5368 Y17.2379 I0.0772 J-0.0121 F30.
X10.3824 Y17.2621 I-0.0772 J0.0121
G1 X10.3821 Y17.2583 Z-1.0306
X10.3824 Y17.2544 Z-1.03
X10.3832 Y17.251 Z-1.0283
X10.3844 Y17.2478 Z-1.0265
X10.3857 Y17.2453 Z-1.0237
X10.3873 Y17.243 Z-1.0209
X10.3896 Y17.2404 Z-1.014
X10.3905 Y17.2395 Z-1.0063
G0 Z0.6

(2D POCKET5)
G0 X10.2994 Y17.2266
Z0.6
Z0.2
G1 Z0.125 F10.
X10.2997 Y17.2254 Z0.1174
X10.3004 Y17.2221 Z0.1106
X10.3018 Y17.217 Z0.1051
X10.3038 Y17.2106 Z0.1014
X10.3066 Y17.2036 Z0.1
G3 X10.5252 Y17.2964 Z0.087 I0.1093 J0.0464
X10.3066 Y17.2036 Z0.0739 I-0.1093 J-0.0464
X10.5252 Y17.2964 Z0.0609 I0.1093 J0.0464
X10.3066 Y17.2036 Z0.0479 I-0.1093 J-0.0464
X10.5252 Y17.2964 Z0.0349 I0.1093 J0.0464
X10.3066 Y17.2036 Z0.0218 I-0.1093 J-0.0464
X10.5252 Y17.2964 Z0.0088 I0.1093 J0.0464
X10.3066 Y17.2036 Z-0.0042 I-0.1093 J-0.0464
X10.5252 Y17.2964 Z-0.0172 I0.1093 J0.0464
X10.3066 Y17.2036 Z-0.0303 I-0.1093 J-0.0464
X10.5252 Y17.2964 Z-0.0433 I0.1093 J0.0464
X10.3066 Y17.2036 Z-0.0563 I-0.1093 J-0.0464
X10.5252 Y17.2964 Z-0.0694 I0.1093 J0.0464
X10.3066 Y17.2036 Z-0.0824 I-0.1093 J-0.0464
X10.5346 Y17.25 Z-0.0937 I0.1093 J0.0464
X10.3846 I-0.075 J0. F30.
X10.6846 I0.15 J0.
X10.2346 I-0.225 J0.
X10.8346 I0.3 J0.
X10.0846 I-0.375 J0.
X10.8346 I0.375 J0.
X10.8213 Y17.2625 I-0.0125 J0.
G1 X10.5643 Y17.2453
X10.5621 Y17.2454
X10.5599 Y17.2459
X10.3332 Y17.3233
G3 X10.319 Y17.3187 I-0.004 J-0.0118
X10.5128 Y17.1813 Z-0.1068 I0.0969 J-0.0687 F10.
X10.319 Y17.3187 Z-0.1198 I-0.0969 J0.0687
X10.5128 Y17.1813 Z-0.1328 I0.0969 J-0.0687
X10.319 Y17.3187 Z-0.1459 I-0.0969 J0.0687
X10.5128 Y17.1813 Z-0.1589 I0.0969 J-0.0687
X10.319 Y17.3187 Z-0.1719 I-0.0969 J0.0687
X10.5128 Y17.1813 Z-0.1849 I0.0969 J-0.0687
X10.5346 Y17.25 Z-0.1875 I-0.0969 J0.0687
X10.3846 I-0.075 J0. F30.
X10.6846 I0.15 J0.
X10.2346 I-0.225 J0.
X10.8346 I0.3 J0.
X10.0846 I-0.375 J0.
X10.8346 I0.375 J0.
X10.8213 Y17.2625 I-0.0125 J0.
G1 X10.5643 Y17.2453
X10.5621 Y17.2454
X10.5599 Y17.2459
X10.3332 Y17.3233
G3 X10.319 Y17.3187 I-0.004 J-0.0118
X10.5128 Y17.1813 Z-0.2005 I0.0969 J-0.0687 F10.
X10.319 Y17.3187 Z-0.2136 I-0.0969 J0.0687
X10.5128 Y17.1813 Z-0.2266 I0.0969 J-0.0687
X10.319 Y17.3187 Z-0.2396 I-0.0969 J0.0687
X10.5128 Y17.1813 Z-0.2526 I0.0969 J-0.0687
X10.319 Y17.3187 Z-0.2657 I-0.0969 J0.0687
X10.5128 Y17.1813 Z-0.2787 I0.0969 J-0.0687
X10.5346 Y17.25 Z-0.2813 I-0.0969 J0.0687
X10.3846 I-0.075 J0. F30.
X10.6846 I0.15 J0.
X10.2346 I-0.225 J0.
X10.8346 I0.3 J0.
X10.0846 I-0.375 J0.
X10.8346 I0.375 J0.
X10.8213 Y17.2625 I-0.0125 J0.
G1 X10.5643 Y17.2453
X10.5621 Y17.2454
X10.5599 Y17.2459
X10.3332 Y17.3233
G3 X10.319 Y17.3187 I-0.004 J-0.0118
X10.5128 Y17.1813 Z-0.2943 I0.0969 J-0.0687 F10.
X10.319 Y17.3187 Z-0.3073 I-0.0969 J0.0687
X10.5128 Y17.1813 Z-0.3203 I0.0969 J-0.0687
X10.319 Y17.3187 Z-0.3334 I-0.0969 J0.0687
X10.5128 Y17.1813 Z-0.3464 I0.0969 J-0.0687
X10.319 Y17.3187 Z-0.3594 I-0.0969 J0.0687
X10.5128 Y17.1813 Z-0.3724 I0.0969 J-0.0687
X10.5346 Y17.25 Z-0.375 I-0.0969 J0.0687
X10.3846 I-0.075 J0. F30.
X10.6846 I0.15 J0.
X10.2346 I-0.225 J0.
X10.8346 I0.3 J0.
X10.0846 I-0.375 J0.
X10.8346 I0.375 J0.
G1 X10.8343 Y17.2538 Z-0.3744
X10.8334 Y17.2576 Z-0.3738
X10.8321 Y17.2608 Z-0.372
X10.8304 Y17.2639 Z-0.3702
X10.8288 Y17.2661 Z-0.3675
X10.8269 Y17.2681 Z-0.3647
X10.8241 Y17.2704 Z-0.3577
X10.8231 Y17.271 Z-0.35
G0 Z0.6

(2D POCKET6)
G0 X6.4991 Y19.4543
Z0.6
Z0.2
G1 Z0.125 F10.
X6.4998 Y19.4533 Z0.1174
X6.5019 Y19.4507 Z0.1106
X6.5054 Y19.4467 Z0.1051
X6.5102 Y19.4419 Z0.1014
X6.5131 Y19.4395 Z0.1007
X6.516 Y19.4372 Z0.1
G3 X6.609 Y19.5628 Z0.0914 I0.0465 J0.0628
X6.516 Y19.4372 Z0.0829 I-0.0465 J-0.0628
X6.609 Y19.5628 Z0.0743 I0.0465 J0.0628
X6.516 Y19.4372 Z0.0657 I-0.0465 J-0.0628
X6.609 Y19.5628 Z0.0571 I0.0465 J0.0628
X6.516 Y19.4372 Z0.0486 I-0.0465 J-0.0628
X6.609 Y19.5628 Z0.04 I0.0465 J0.0628
X6.516 Y19.4372 Z0.0314 I-0.0465 J-0.0628
X6.609 Y19.5628 Z0.0229 I0.0465 J0.0628
X6.516 Y19.4372 Z0.0143 I-0.0465 J-0.0628
X6.609 Y19.5628 Z0.0057 I0.0465 J0.0628
X6.516 Y19.4372 Z-0.0029 I-0.0465 J-0.0628
X6.609 Y19.5628 Z-0.0114 I0.0465 J0.0628
X6.516 Y19.4372 Z-0.02 I-0.0465 J-0.0628
X6.609 Y19.5628 Z-0.0286 I0.0465 J0.0628
X6.516 Y19.4372 Z-0.0371 I-0.0465 J-0.0628
X6.609 Y19.5628 Z-0.0457 I0.0465 J0.0628
X6.516 Y19.4372 Z-0.0543 I-0.0465 J-0.0628
X6.609 Y19.5628 Z-0.0628 I0.0465 J0.0628
X6.516 Y19.4372 Z-0.0714 I-0.0465 J-0.0628
X6.609 Y19.5628 Z-0.08 I0.0465 J0.0628
X6.516 Y19.4372 Z-0.0886 I-0.0465 J-0.0628
X6.609 Y19.5628 Z-0.0971 I0.0465 J0.0628
X6.516 Y19.4372 Z-0.1057 I-0.0465 J-0.0628
X6.6278 Y19.4572 Z-0.1101 I0.0465 J0.0628
X6.6016 Y19.5677 Z-0.1146 I-0.0653 J0.0428
X6.5234 Y19.4323 I-0.0391 J-0.0677 F30.
X6.6016 Y19.5677 I0.0391 J0.0677
X6.5234 Y19.4323 Z-0.1232 I-0.0391 J-0.0677 F10.
X6.6016 Y19.5677 Z-0.1317 I0.0391 J0.0677
X6.5234 Y19.4323 Z-0.1403 I-0.0391 J-0.0677
X6.6016 Y19.5677 Z-0.1489 I0.0391 J0.0677
X6.5234 Y19.4323 Z-0.1574 I-0.0391 J-0.0677
X6.6016 Y19.5677 Z-0.166 I0.0391 J0.0677
X6.5234 Y19.4323 Z-0.1746 I-0.0391 J-0.0677
X6.6016 Y19.5677 Z-0.1832 I0.0391 J0.0677
X6.5234 Y19.4323 Z-0.1917 I-0.0391 J-0.0677
X6.6016 Y19.5677 Z-0.2003 I0.0391 J0.0677
X6.5234 Y19.4323 Z-0.2089 I-0.0391 J-0.0677
X6.6016 Y19.5677 Z-0.2174 I0.0391 J0.0677
X6.5234 Y19.4323 Z-0.226 I-0.0391 J-0.0677
X6.6088 Y19.4371 Z-0.2292 I0.0391 J0.0677
X6.5162 Y19.5629 I-0.0463 J0.0629 F30.
X6.6088 Y19.4371 I0.0463 J-0.0629
X6.5162 Y19.5629 Z-0.2377 I-0.0463 J0.0629 F10.
X6.6088 Y19.4371 Z-0.2463 I0.0463 J-0.0629
X6.5162 Y19.5629 Z-0.2549 I-0.0463 J0.0629
X6.6088 Y19.4371 Z-0.2635 I0.0463 J-0.0629
X6.5162 Y19.5629 Z-0.272 I-0.0463 J0.0629
X6.6088 Y19.4371 Z-0.2806 I0.0463 J-0.0629
X6.5162 Y19.5629 Z-0.2892 I-0.0463 J0.0629
X6.6088 Y19.4371 Z-0.2977 I0.0463 J-0.0629
X6.5162 Y19.5629 Z-0.3063 I-0.0463 J0.0629
X6.6088 Y19.4371 Z-0.3149 I0.0463 J-0.0629
X6.5162 Y19.5629 Z-0.3234 I-0.0463 J0.0629
X6.6088 Y19.4371 Z-0.332 I0.0463 J-0.0629
X6.5162 Y19.5629 Z-0.3406 I-0.0463 J0.0629
X6.4863 Y19.4827 Z-0.3438 I0.0463 J-0.0629
X6.6387 Y19.5173 I0.0762 J0.0173 F30.
X6.4863 Y19.4827 I-0.0762 J-0.0173
X6.6387 Y19.5173 Z-0.3523 I0.0762 J0.0173 F10.
X6.4863 Y19.4827 Z-0.3609 I-0.0762 J-0.0173
X6.6387 Y19.5173 Z-0.3695 I0.0762 J0.0173
X6.4863 Y19.4827 Z-0.378 I-0.0762 J-0.0173
X6.6387 Y19.5173 Z-0.3866 I0.0762 J0.0173
X6.4863 Y19.4827 Z-0.3952 I-0.0762 J-0.0173
X6.6387 Y19.5173 Z-0.4037 I0.0762 J0.0173
X6.4863 Y19.4827 Z-0.4123 I-0.0762 J-0.0173
X6.6387 Y19.5173 Z-0.4209 I0.0762 J0.0173
X6.4863 Y19.4827 Z-0.4295 I-0.0762 J-0.0173
X6.6387 Y19.5173 Z-0.438 I0.0762 J0.0173
X6.4863 Y19.4827 Z-0.4466 I-0.0762 J-0.0173
X6.6387 Y19.5173 Z-0.4552 I0.0762 J0.0173
X6.5772 Y19.5767 Z-0.4583 I-0.0762 J-0.0173
X6.5478 Y19.4233 I-0.0147 J-0.0767 F30.
X6.5772 Y19.5767 I0.0147 J0.0767
X6.5478 Y19.4233 Z-0.4669 I-0.0147 J-0.0767 F10.
X6.5772 Y19.5767 Z-0.4755 I0.0147 J0.0767
X6.5478 Y19.4233 Z-0.484 I-0.0147 J-0.0767
X6.5772 Y19.5767 Z-0.4926 I0.0147 J0.0767
X6.5478 Y19.4233 Z-0.5012 I-0.0147 J-0.0767
X6.5772 Y19.5767 Z-0.5098 I0.0147 J0.0767
X6.5478 Y19.4233 Z-0.5183 I-0.0147 J-0.0767
X6.5772 Y19.5767 Z-0.5269 I0.0147 J0.0767
X6.5478 Y19.4233 Z-0.5355 I-0.0147 J-0.0767
X6.5772 Y19.5767 Z-0.544 I0.0147 J0.0767
X6.5478 Y19.4233 Z-0.5526 I-0.0147 J-0.0767
X6.5772 Y19.5767 Z-0.5612 I0.0147 J0.0767
X6.5478 Y19.4233 Z-0.5698 I-0.0147 J-0.0767
X6.6269 Y19.4558 Z-0.5729 I0.0147 J0.0767
X6.4981 Y19.5442 I-0.0644 J0.0442 F30.
X6.6269 Y19.4558 I0.0644 J-0.0442
X6.4981 Y19.5442 Z-0.5815 I-0.0644 J0.0442 F10.
X6.6269 Y19.4558 Z-0.5901 I0.0644 J-0.0442
X6.4981 Y19.5442 Z-0.5986 I-0.0644 J0.0442
X6.6269 Y19.4558 Z-0.6072 I0.0644 J-0.0442
X6.4981 Y19.5442 Z-0.6158 I-0.0644 J0.0442
X6.6269 Y19.4558 Z-0.6243 I0.0644 J-0.0442
X6.4981 Y19.5442 Z-0.6329 I-0.0644 J0.0442
X6.6269 Y19.4558 Z-0.6415 I0.0644 J-0.0442
X6.4981 Y19.5442 Z-0.6501 I-0.0644 J0.0442
X6.6269 Y19.4558 Z-0.6586 I0.0644 J-0.0442
X6.4981 Y19.5442 Z-0.6672 I-0.0644 J0.0442
X6.6269 Y19.4558 Z-0.6758 I0.0644 J-0.0442
X6.4981 Y19.5442 Z-0.6843 I-0.0644 J0.0442
X6.4962 Y19.4587 Z-0.6875 I0.0644 J-0.0442
X6.6288 Y19.5413 I0.0663 J0.0413 F30.
X6.4962 Y19.4587 I-0.0663 J-0.0413
X6.6288 Y19.5413 Z-0.6961 I0.0663 J0.0413 F10.
X6.4962 Y19.4587 Z-0.7046 I-0.0663 J-0.0413
X6.6288 Y19.5413 Z-0.7132 I0.0663 J0.0413
X6.4962 Y19.4587 Z-0.7218 I-0.0663 J-0.0413
X6.6288 Y19.5413 Z-0.7304 I0.0663 J0.0413
X6.4962 Y19.4587 Z-0.7389 I-0.0663 J-0.0413
X6.6288 Y19.5413 Z-0.7475 I0.0663 J0.0413
X6.4962 Y19.4587 Z-0.7561 I-0.0663 J-0.0413
X6.6288 Y19.5413 Z-0.7646 I0.0663 J0.0413
X6.4962 Y19.4587 Z-0.7732 I-0.0663 J-0.0413
X6.6288 Y19.5413 Z-0.7818 I0.0663 J0.0413
X6.4962 Y19.4587 Z-0.7904 I-0.0663 J-0.0413
X6.6288 Y19.5413 Z-0.7989 I0.0663 J0.0413
X6.5512 Y19.5773 Z-0.8021 I-0.0663 J-0.0413
X6.5738 Y19.4227 I0.0113 J-0.0773 F30.
X6.5512 Y19.5773 I-0.0113 J0.0773
X6.5738 Y19.4227 Z-0.8107 I0.0113 J-0.0773 F10.
X6.5512 Y19.5773 Z-0.8192 I-0.0113 J0.0773
X6.5738 Y19.4227 Z-0.8278 I0.0113 J-0.0773
X6.5512 Y19.5773 Z-0.8364 I-0.0113 J0.0773
X6.5738 Y19.4227 Z-0.8449 I0.0113 J-0.0773
X6.5512 Y19.5773 Z-0.8535 I-0.0113 J0.0773
X6.5738 Y19.4227 Z-0.8621 I0.0113 J-0.0773
X6.5512 Y19.5773 Z-0.8707 I-0.0113 J0.0773
X6.5738 Y19.4227 Z-0.8792 I0.0113 J-0.0773
X6.5512 Y19.5773 Z-0.8878 I-0.0113 J0.0773
X6.5738 Y19.4227 Z-0.8964 I0.0113 J-0.0773
X6.5512 Y19.5773 Z-0.9049 I-0.0113 J0.0773
X6.5738 Y19.4227 Z-0.9135 I0.0113 J-0.0773
X6.6379 Y19.4794 Z-0.9167 I-0.0113 J0.0773
X6.4871 Y19.5206 I-0.0754 J0.0206 F30.
X6.6379 Y19.4794 I0.0754 J-0.0206
X6.4871 Y19.5206 Z-0.9252 I-0.0754 J0.0206 F10.
X6.6379 Y19.4794 Z-0.9338 I0.0754 J-0.0206
X6.4871 Y19.5206 Z-0.9424 I-0.0754 J0.0206
X6.6379 Y19.4794 Z-0.951 I0.0754 J-0.0206
X6.4871 Y19.5206 Z-0.9595 I-0.0754 J0.0206
X6.6379 Y19.4794 Z-0.9681 I0.0754 J-0.0206
X6.4871 Y19.5206 Z-0.9767 I-0.0754 J0.0206
X6.6379 Y19.4794 Z-0.9852 I0.0754 J-0.0206
X6.4871 Y19.5206 Z-0.9938 I-0.0754 J0.0206
X6.6379 Y19.4794 Z-1.0024 I0.0754 J-0.0206
X6.4871 Y19.5206 Z-1.0109 I-0.0754 J0.0206
X6.6379 Y19.4794 Z-1.0195 I0.0754 J-0.0206
X6.4871 Y19.5206 Z-1.0281 I-0.0754 J0.0206
X6.5134 Y19.4392 Z-1.0313 I0.0754 J-0.0206
X6.6116 Y19.5608 I0.0491 J0.0608 F30.
X6.5134 Y19.4392 I-0.0491 J-0.0608
G1 X6.5166 Y19.437 Z-1.0306
X6.5201 Y19.4353 Z-1.03
X6.5234 Y19.4343 Z-1.0283
X6.5268 Y19.4338 Z-1.0265
X6.5296 Y19.4337 Z-1.0237
X6.5324 Y19.4339 Z-1.0209
X6.5358 Y19.4346 Z-1.014
X6.537 Y19.4349 Z-1.0063
G0 Z0.6

(2D POCKET5)
G0 X6.5027 Y19.3496
Z0.6
Z0.2
G1 Z0.125 F10.
X6.5038 Y19.3492 Z0.1174
X6.507 Y19.3482 Z0.1106
X6.5122 Y19.3468 Z0.1051
X6.5187 Y19.3454 Z0.1014
X6.5262 Y19.3442 Z0.1
G3 X6.5551 Y19.58 Z0.087 I0.0145 J0.1179
X6.5262 Y19.3442 Z0.0739 I-0.0145 J-0.1179
X6.5551 Y19.58 Z0.0609 I0.0145 J0.1179
X6.5262 Y19.3442 Z0.0479 I-0.0145 J-0.1179
X6.5551 Y19.58 Z0.0349 I0.0145 J0.1179
X6.5262 Y19.3442 Z0.0218 I-0.0145 J-0.1179
X6.5551 Y19.58 Z0.0088 I0.0145 J0.1179
X6.5262 Y19.3442 Z-0.0042 I-0.0145 J-0.1179
X6.5551 Y19.58 Z-0.0172 I0.0145 J0.1179
X6.5262 Y19.3442 Z-0.0303 I-0.0145 J-0.1179
X6.5551 Y19.58 Z-0.0433 I0.0145 J0.1179
X6.5262 Y19.3442 Z-0.0563 I-0.0145 J-0.1179
X6.5551 Y19.58 Z-0.0694 I0.0145 J0.1179
X6.5262 Y19.3442 Z-0.0824 I-0.0145 J-0.1179
X6.6 Y19.5649 Z-0.0937 I0.0145 J0.1179
X6.525 Y19.435 I-0.0375 J-0.065 F30.
X6.675 Y19.6948 I0.075 J0.1299
X6.45 Y19.3051 I-0.1125 J-0.1949
X6.75 Y19.8248 I0.15 J0.2598
X6.375 Y19.1752 I-0.1875 J-0.3248
X6.75 Y19.8248 I0.1875 J0.3248
X6.7325 Y19.8194 I-0.0063 J-0.0108
G1 X6.619 Y19.5883
X6.6177 Y19.5864
X6.6162 Y19.5848
X6.4359 Y19.4271
G3 X6.4327 Y19.4125 I0.0082 J-0.0094
X6.6485 Y19.5117 Z-0.1068 I0.1079 J0.0496 F10.
X6.4327 Y19.4125 Z-0.1198 I-0.1079 J-0.0496
X6.6485 Y19.5117 Z-0.1328 I0.1079 J0.0496
X6.4327 Y19.4125 Z-0.1459 I-0.1079 J-0.0496
X6.6485 Y19.5117 Z-0.1589 I0.1079 J0.0496
X6.4327 Y19.4125 Z-0.1719 I-0.1079 J-0.0496
X6.6485 Y19.5117 Z-0.1849 I0.1079 J0.0496
X6.6 Y19.5649 Z-0.1875 I-0.1079 J-0.0496
X6.525 Y19.435 I-0.0375 J-0.065 F30.
X6.675 Y19.6948 I0.075 J0.1299
X6.45 Y19.3051 I-0.1125 J-0.1949
X6.75 Y19.8248 I0.15 J0.2598
X6.375 Y19.1752 I-0.1875 J-0.3248
X6.75 Y19.8248 I0.1875 J0.3248
X6.7325 Y19.8194 I-0.0063 J-0.0108
G1 X6.619 Y19.5883
X6.6177 Y19.5864
X6.6162 Y19.5848
X6.4359 Y19.4271
G3 X6.4327 Y19.4125 I0.0082 J-0.0094
X6.6485 Y19.5117 Z-0.2005 I0.1079 J0.0496 F10.
X6.4327 Y19.4125 Z-0.2136 I-0.1079 J-0.0496
X6.6485 Y19.5117 Z-0.2266 I0.1079 J0.0496
X6.4327 Y19.4125 Z-0.2396 I-0.1079 J-0.0496
X6.6485 Y19.5117 Z-0.2526 I0.1079 J0.0496
X6.4327 Y19.4125 Z-0.2657 I-0.1079 J-0.0496
X6.6485 Y19.5117 Z-0.2787 I0.1079 J0.0496
X6.6 Y19.5649 Z-0.2813 I-0.1079 J-0.0496
X6.525 Y19.435 I-0.0375 J-0.065 F30.
X6.675 Y19.6948 I0.075 J0.1299
X6.45 Y19.3051 I-0.1125 J-0.1949
X6.75 Y19.8248 I0.15 J0.2598
X6.375 Y19.1752 I-0.1875 J-0.3248
X6.75 Y19.8248 I0.1875 J0.3248
X6.7325 Y19.8194 I-0.0063 J-0.0108
G1 X6.619 Y19.5883
X6.6177 Y19.5864
X6.6162 Y19.5848
X6.4359 Y19.4271
G3 X6.4327 Y19.4125 I0.0082 J-0.0094
X6.6485 Y19.5117 Z-0.2943 I0.1079 J0.0496 F10.
X6.4327 Y19.4125 Z-0.3073 I-0.1079 J-0.0496
X6.6485 Y19.5117 Z-0.3203 I0.1079 J0.0496
X6.4327 Y19.4125 Z-0.3334 I-0.1079 J-0.0496
X6.6485 Y19.5117 Z-0.3464 I0.1079 J0.0496
X6.4327 Y19.4125 Z-0.3594 I-0.1079 J-0.0496
X6.6485 Y19.5117 Z-0.3724 I0.1079 J0.0496
X6.6 Y19.5649 Z-0.375 I-0.1079 J-0.0496
X6.525 Y19.435 I-0.0375 J-0.065 F30.
X6.675 Y19.6948 I0.075 J0.1299
X6.45 Y19.3051 I-0.1125 J-0.1949
X6.75 Y19.8248 I0.15 J0.2598
X6.375 Y19.1752 I-0.1875 J-0.3248
X6.75 Y19.8248 I0.1875 J0.3248
G1 X6.7465 Y19.8264 Z-0.3744
X6.7428 Y19.8275 Z-0.3738
X6.7394 Y19.828 Z-0.372
X6.7359 Y19.8281 Z-0.3702
X6.7331 Y19.8277 Z-0.3675
X6.7305 Y19.8271 Z-0.3647
X6.7271 Y19.8259 Z-0.3577
X6.726 Y19.8253 Z-0.35
G0 Z0.6

(2D POCKET6)
G0 X2.6733 Y17.1723
Z0.6
Z0.2
G1 Z0.125 F10.
X2.6745 Y17.1724 Z0.1174
X2.6778 Y17.1729 Z0.1106
X2.683 Y17.1739 Z0.1051
X2.6895 Y17.1757 Z0.1014
X2.6931 Y17.1769 Z0.1007
X2.6965 Y17.1783 Z0.1
G3 X2.6342 Y17.3216 Z0.0914 I-0.0312 J0.0716
X2.6965 Y17.1783 Z0.0829 I0.0312 J-0.0716
X2.6342 Y17.3216 Z0.0743 I-0.0312 J0.0716
X2.6965 Y17.1783 Z0.0657 I0.0312 J-0.0716
X2.6342 Y17.3216 Z0.0571 I-0.0312 J0.0716
X2.6965 Y17.1783 Z0.0486 I0.0312 J-0.0716
X2.6342 Y17.3216 Z0.04 I-0.0312 J0.0716
X2.6965 Y17.1783 Z0.0314 I0.0312 J-0.0716
X2.6342 Y17.3216 Z0.0229 I-0.0312 J0.0716
X2.6965 Y17.1783 Z0.0143 I0.0312 J-0.0716
X2.6342 Y17.3216 Z0.0057 I-0.0312 J0.0716
X2.6965 Y17.1783 Z-0.0029 I0.0312 J-0.0716
X2.6342 Y17.3216 Z-0.0114 I-0.0312 J0.0716
X2.6965 Y17.1783 Z-0.02 I0.0312 J-0.0716
X2.6342 Y17.3216 Z-0.0286 I-0.0312 J0.0716
X2.6965 Y17.1783 Z-0.0371 I0.0312 J-0.0716
X2.6342 Y17.3216 Z-0.0457 I-0.0312 J0.0716
X2.6965 Y17.1783 Z-0.0543 I0.0312 J-0.0716
X2.6342 Y17.3216 Z-0.0628 I-0.0312 J0.0716
X2.6965 Y17.1783 Z-0.0714 I0.0312 J-0.0716
X2.6342 Y17.3216 Z-0.08 I-0.0312 J0.0716
X2.6965 Y17.1783 Z-0.0886 I0.0312 J-0.0716
X2.6342 Y17.3216 Z-0.0971 I-0.0312 J0.0716
X2.6965 Y17.1783 Z-0.1057 I0.0312 J-0.0716
X2.7352 Y17.2852 Z-0.1101 I-0.0312 J0.0716
X2.6263 Y17.3177 Z-0.1146 I-0.0698 J-0.0352
X2.7045 Y17.1823 I0.0391 J-0.0677 F30.
X2.6263 Y17.3177 I-0.0391 J0.0677
X2.7045 Y17.1823 Z-0.1232 I0.0391 J-0.0677 F10.
X2.6263 Y17.3177 Z-0.1317 I-0.0391 J0.0677
X2.7045 Y17.1823 Z-0.1403 I0.0391 J-0.0677
X2.6263 Y17.3177 Z-0.1489 I-0.0391 J0.0677
X2.7045 Y17.1823 Z-0.1574 I0.0391 J-0.0677
X2.6263 Y17.3177 Z-0.166 I-0.0391 J0.0677
X2.7045 Y17.1823 Z-0.1746 I0.0391 J-0.0677
X2.6263 Y17.3177 Z-0.1832 I-0.0391 J0.0677
X2.7045 Y17.1823 Z-0.1917 I0.0391 J-0.0677
X2.6263 Y17.3177 Z-0.2003 I-0.0391 J0.0677
X2.7045 Y17.1823 Z-0.2089 I0.0391 J-0.0677
X2.6263 Y17.3177 Z-0.2174 I-0.0391 J0.0677
X2.7045 Y17.1823 Z-0.226 I0.0391 J-0.0677
X2.743 Y17.2587 Z-0.2292 I-0.0391 J0.0677
X2.5877 Y17.2413 I-0.0776 J-0.0087 F30.
X2.743 Y17.2587 I0.0776 J0.0087
X2.5877 Y17.2413 Z-0.2377 I-0.0776 J-0.0087 F10.
X2.743 Y17.2587 Z-0.2463 I0.0776 J0.0087
X2.5877 Y17.2413 Z-0.2549 I-0.0776 J-0.0087
X2.743 Y17.2587 Z-0.2635 I0.0776 J0.0087
X2.5877 Y17.2413 Z-0.272 I-0.0776 J-0.0087
X2.743 Y17.2587 Z-0.2806 I0.0776 J0.0087
X2.5877 Y17.2413 Z-0.2892 I-0.0776 J-0.0087
X2.743 Y17.2587 Z-0.2977 I0.0776 J0.0087
X2.5877 Y17.2413 Z-0.3063 I-0.0776 J-0.0087
X2.743 Y17.2587 Z-0.3149 I0.0776 J0.0087
X2.5877 Y17.2413 Z-0.3234 I-0.0776 J-0.0087
X2.743 Y17.2587 Z-0.332 I0.0776 J0.0087
X2.5877 Y17.2413 Z-0.3406 I-0.0776 J-0.0087
X2.6423 Y17.1754 Z-0.3438 I0.0776 J0.0087
X2.6885 Y17.3246 I0.0231 J0.0746 F30.
X2.6423 Y17.1754 I-0.0231 J-0.0746
X2.6885 Y17.3246 Z-0.3523 I0.0231 J0.0746 F10.
X2.6423 Y17.1754 Z-0.3609 I-0.0231 J-0.0746
X2.6885 Y17.3246 Z-0.3695 I0.0231 J0.0746
X2.6423 Y17.1754 Z-0.378 I-0.0231 J-0.0746
X2.6885 Y17.3246 Z-0.3866 I0.0231 J0.0746
X2.6423 Y17.1754 Z-0.3952 I-0.0231 J-0.0746
X2.6885 Y17.3246 Z-0.4037 I0.0231 J0.0746
X2.6423 Y17.1754 Z-0.4123 I-0.0231 J-0.0746
X2.6885 Y17.3246 Z-0.4209 I0.0231 J0.0746
X2.6423 Y17.1754 Z-0.4295 I-0.0231 J-0.0746
X2.6885 Y17.3246 Z-0.438 I0.0231 J0.0746
X2.6423 Y17.1754 Z-0.4466 I-0.0231 J-0.0746
X2.6885 Y17.3246 Z-0.4552 I0.0231 J0.0746
X2.6063 Y17.3011 Z-0.4583 I-0.0231 J-0.0746
X2.7245 Y17.1989 I0.0591 J-0.0511 F30.
X2.6063 Y17.3011 I-0.0591 J0.0511
X2.7245 Y17.1989 Z-0.4669 I0.0591 J-0.0511 F10.
X2.6063 Y17.3011 Z-0.4755 I-0.0591 J0.0511
X2.7245 Y17.1989 Z-0.484 I0.0591 J-0.0511
X2.6063 Y17.3011 Z-0.4926 I-0.0591 J0.0511
X2.7245 Y17.1989 Z-0.5012 I0.0591 J-0.0511
X2.6063 Y17.3011 Z-0.5098 I-0.0591 J0.0511
X2.7245 Y17.1989 Z-0.5183 I0.0591 J-0.0511
X2.6063 Y17.3011 Z-0.5269 I-0.0591 J0.0511
X2.7245 Y17.1989 Z-0.5355 I0.0591 J-0.0511
X2.6063 Y17.3011 Z-0.544 I-0.0591 J0.0511
X2.7245 Y17.1989 Z-0.5526 I0.0591 J-0.0511
X2.6063 Y17.3011 Z-0.5612 I-0.0591 J0.0511
X2.7245 Y17.1989 Z-0.5698 I0.0591 J-0.0511
X2.7359 Y17.2837 Z-0.5729 I-0.0591 J0.0511
X2.5949 Y17.2163 I-0.0705 J-0.0337 F30.
X2.7359 Y17.2837 I0.0705 J0.0337
X2.5949 Y17.2163 Z-0.5815 I-0.0705 J-0.0337 F10.
X2.7359 Y17.2837 Z-0.5901 I0.0705 J0.0337
X2.5949 Y17.2163 Z-0.5986 I-0.0705 J-0.0337
X2.7359 Y17.2837 Z-0.6072 I0.0705 J0.0337
X2.5949 Y17.2163 Z-0.6158 I-0.0705 J-0.0337
X2.7359 Y17.2837 Z-0.6243 I0.0705 J0.0337
X2.5949 Y17.2163 Z-0.6329 I-0.0705 J-0.0337
X2.7359 Y17.2837 Z-0.6415 I0.0705 J0.0337
X2.5949 Y17.2163 Z-0.6501 I-0.0705 J-0.0337
X2.7359 Y17.2837 Z-0.6586 I0.0705 J0.0337
X2.5949 Y17.2163 Z-0.6672 I-0.0705 J-0.0337
X2.7359 Y17.2837 Z-0.6758 I0.0705 J0.0337
X2.5949 Y17.2163 Z-0.6843 I-0.0705 J-0.0337
X2.668 Y17.1719 Z-0.6875 I0.0705 J0.0337
X2.6628 Y17.3281 I-0.0026 J0.0781 F30.
X2.668 Y17.1719 I0.0026 J-0.0781
X2.6628 Y17.3281 Z-0.6961 I-0.0026 J0.0781 F10.
X2.668 Y17.1719 Z-0.7046 I0.0026 J-0.0781
X2.6628 Y17.3281 Z-0.7132 I-0.0026 J0.0781
X2.668 Y17.1719 Z-0.7218 I0.0026 J-0.0781
X2.6628 Y17.3281 Z-0.7304 I-0.0026 J0.0781
X2.668 Y17.1719 Z-0.7389 I0.0026 J-0.0781
X2.6628 Y17.3281 Z-0.7475 I-0.0026 J0.0781
X2.668 Y17.1719 Z-0.7561 I0.0026 J-0.0781
X2.6628 Y17.3281 Z-0.7646 I-0.0026 J0.0781
X2.668 Y17.1719 Z-0.7732 I0.0026 J-0.0781
X2.6628 Y17.3281 Z-0.7818 I-0.0026 J0.0781
X2.668 Y17.1719 Z-0.7904 I0.0026 J-0.0781
X2.6628 Y17.3281 Z-0.7989 I-0.0026 J0.0781
X2.5928 Y17.2789 Z-0.8021 I0.0026 J-0.0781
X2.738 Y17.2211 I0.0726 J-0.0289 F30.
X2.5928 Y17.2789 I-0.0726 J0.0289
X2.738 Y17.2211 Z-0.8107 I0.0726 J-0.0289 F10.
X2.5928 Y17.2789 Z-0.8192 I-0.0726 J0.0289
X2.738 Y17.2211 Z-0.8278 I0.0726 J-0.0289
X2.5928 Y17.2789 Z-0.8364 I-0.0726 J0.0289
X2.738 Y17.2211 Z-0.8449 I0.0726 J-0.0289
X2.5928 Y17.2789 Z-0.8535 I-0.0726 J0.0289
X2.738 Y17.2211 Z-0.8621 I0.0726 J-0.0289
X2.5928 Y17.2789 Z-0.8707 I-0.0726 J0.0289
X2.738 Y17.2211 Z-0.8792 I0.0726 J-0.0289
X2.5928 Y17.2789 Z-0.8878 I-0.0726 J0.0289
X2.738 Y17.2211 Z-0.8964 I0.0726 J-0.0289
X2.5928 Y17.2789 Z-0.9049 I-0.0726 J0.0289
X2.738 Y17.2211 Z-0.9135 I0.0726 J-0.0289
X2.7209 Y17.3049 Z-0.9167 I-0.0726 J0.0289
X2.6099 Y17.195 I-0.0555 J-0.055 F30.
X2.7209 Y17.3049 I0.0555 J0.055
X2.6099 Y17.195 Z-0.9252 I-0.0555 J-0.055 F10.
X2.7209 Y17.3049 Z-0.9338 I0.0555 J0.055
X2.6099 Y17.195 Z-0.9424 I-0.0555 J-0.055
X2.7209 Y17.3049 Z-0.951 I0.0555 J0.055
X2.6099 Y17.195 Z-0.9595 I-0.0555 J-0.055
X2.7209 Y17.3049 Z-0.9681 I0.0555 J0.055
X2.6099 Y17.195 Z-0.9767 I-0.0555 J-0.055
X2.7209 Y17.3049 Z-0.9852 I0.0555 J0.055
X2.6099 Y17.195 Z-0.9938 I-0.0555 J-0.055
X2.7209 Y17.3049 Z-1.0024 I0.0555 J0.055
X2.6099 Y17.195 Z-1.0109 I-0.0555 J-0.055
X2.7209 Y17.3049 Z-1.0195 I0.0555 J0.055
X2.6099 Y17.195 Z-1.0281 I-0.0555 J-0.055
X2.6935 Y17.1771 Z-1.0313 I0.0555 J0.055
X2.6373 Y17.3229 I-0.0281 J0.0729 F30.
X2.6935 Y17.1771 I0.0281 J-0.0729
G1 X2.697 Y17.1788 Z-1.0306
X2.7002 Y17.1809 Z-1.03
X2.7027 Y17.1833 Z-1.0283
X2.7049 Y17.186 Z-1.0265
X2.7064 Y17.1883 Z-1.0237
X2.7076 Y17.1908 Z-1.0209
X2.7087 Y17.1942 Z-1.014
X2.709 Y17.1954 Z-1.0063
G0 Z0.6

(2D POCKET5)
G0 X2.7657 Y17.123
Z0.6
Z0.2
G1 Z0.125 F10.
X2.7666 Y17.1238 Z0.1174
X2.7691 Y17.1261 Z0.1106
X2.7729 Y17.1298 Z0.1051
X2.7774 Y17.1348 Z0.1014
X2.7821 Y17.1407 Z0.1
G3 X2.5924 Y17.2836 Z0.087 I-0.0948 J0.0715
X2.7821 Y17.1407 Z0.0739 I0.0948 J-0.0715
X2.5924 Y17.2836 Z0.0609 I-0.0948 J0.0715
X2.7821 Y17.1407 Z0.0479 I0.0948 J-0.0715
X2.5924 Y17.2836 Z0.0349 I-0.0948 J0.0715
X2.7821 Y17.1407 Z0.0218 I0.0948 J-0.0715
X2.5924 Y17.2836 Z0.0088 I-0.0948 J0.0715
X2.7821 Y17.1407 Z-0.0042 I0.0948 J-0.0715
X2.5924 Y17.2836 Z-0.0172 I-0.0948 J0.0715
X2.7821 Y17.1407 Z-0.0303 I0.0948 J-0.0715
X2.5924 Y17.2836 Z-0.0433 I-0.0948 J0.0715
X2.7821 Y17.1407 Z-0.0563 I0.0948 J-0.0715
X2.5924 Y17.2836 Z-0.0694 I-0.0948 J0.0715
X2.7821 Y17.1407 Z-0.0824 I0.0948 J-0.0715
X2.6279 Y17.3149 Z-0.0937 I-0.0948 J0.0715
X2.7029 Y17.185 I0.0375 J-0.065 F30.
X2.5529 Y17.4448 I-0.075 J0.1299
X2.7779 Y17.0551 I0.1125 J-0.1949
X2.4779 Y17.5748 I-0.15 J0.2598
X2.8529 Y16.9252 I0.1875 J-0.3248
X2.4779 Y17.5748 I-0.1875 J0.3248
X2.4738 Y17.557 I0.0063 J-0.0108
G1 X2.6171 Y17.3431
X2.6182 Y17.341
X2.6188 Y17.3389
X2.6652 Y17.1039
G3 X2.6763 Y17.0939 I0.0123 J0.0024
X2.6983 Y17.3303 Z-0.1068 I0.011 J0.1182 F10.
X2.6763 Y17.0939 Z-0.1198 I-0.011 J-0.1182
X2.6983 Y17.3303 Z-0.1328 I0.011 J0.1182
X2.6763 Y17.0939 Z-0.1459 I-0.011 J-0.1182
X2.6983 Y17.3303 Z-0.1589 I0.011 J0.1182
X2.6763 Y17.0939 Z-0.1719 I-0.011 J-0.1182
X2.6983 Y17.3303 Z-0.1849 I0.011 J0.1182
X2.6279 Y17.3149 Z-0.1875 I-0.011 J-0.1182
X2.7029 Y17.185 I0.0375 J-0.065 F30.
X2.5529 Y17.4448 I-0.075 J0.1299
X2.7779 Y17.0551 I0.1125 J-0.1949
X2.4779 Y17.5748 I-0.15 J0.2598
X2.8529 Y16.9252 I0.1875 J-0.3248
X2.4779 Y17.5748 I-0.1875 J0.3248
X2.4738 Y17.557 I0.0063 J-0.0108
G1 X2.6171 Y17.3431
X2.6182 Y17.341
X2.6188 Y17.3389
X2.6652 Y17.1039
G3 X2.6763 Y17.0939 I0.0123 J0.0024
X2.6983 Y17.3303 Z-0.2005 I0.011 J0.1182 F10.
X2.6763 Y17.0939 Z-0.2136 I-0.011 J-0.1182
X2.6983 Y17.3303 Z-0.2266 I0.011 J0.1182
X2.6763 Y17.0939 Z-0.2396 I-0.011 J-0.1182
X2.6983 Y17.3303 Z-0.2526 I0.011 J0.1182
X2.6763 Y17.0939 Z-0.2657 I-0.011 J-0.1182
X2.6983 Y17.3303 Z-0.2787 I0.011 J0.1182
X2.6279 Y17.3149 Z-0.2813 I-0.011 J-0.1182
X2.7029 Y17.185 I0.0375 J-0.065 F30.
X2.5529 Y17.4448 I-0.075 J0.1299
X2.7779 Y17.0551 I0.1125 J-0.1949
X2.4779 Y17.5748 I-0.15 J0.2598
X2.8529 Y16.9252 I0.1875 J-0.3248
X2.4779 Y17.5748 I-0.1875 J0.3248
X2.4738 Y17.557 I0.0063 J-0.0108
G1 X2.6171 Y17.3431
X2.6182 Y17.341
X2.6188 Y17.3389
X2.6652 Y17.1039
G3 X2.6763 Y17.0939 I0.0123 J0.0024
X2.6983 Y17.3303 Z-0.2943 I0.011 J0.1182 F10.
X2.6763 Y17.0939 Z-0.3073 I-0.011 J-0.1182
X2.6983 Y17.3303 Z-0.3203 I0.011 J0.1182
X2.6763 Y17.0939 Z-0.3334 I-0.011 J-0.1182
X2.6983 Y17.3303 Z-0.3464 I0.011 J0.1182
X2.6763 Y17.0939 Z-0.3594 I-0.011 J-0.1182
X2.6983 Y17.3303 Z-0.3724 I0.011 J0.1182
X2.6279 Y17.3149 Z-0.375 I-0.011 J-0.1182
X2.7029 Y17.185 I0.0375 J-0.065 F30.
X2.5529 Y17.4448 I-0.075 J0.1299
X2.7779 Y17.0551 I0.1125 J-0.1949
X2.4779 Y17.5748 I-0.15 J0.2598
X2.8529 Y16.9252 I0.1875 J-0.3248
X2.4779 Y17.5748 I-0.1875 J0.3248
G1 X2.4747 Y17.5726 Z-0.3744
X2.4719 Y17.5699 Z-0.3738
X2.4697 Y17.5672 Z-0.372
X2.468 Y17.5642 Z-0.3702
X2.4669 Y17.5616 Z-0.3675
X2.4661 Y17.559 Z-0.3647
X2.4655 Y17.5555 Z-0.3577
X2.4654 Y17.5543 Z-0.35
G0 Z0.6

(2D POCKET6)
G0 X2.7367 Y12.718
Z0.6
Z0.2
G1 Z0.125 F10.
X2.7371 Y12.7191 Z0.1174
X2.7384 Y12.7222 Z0.1106
X2.7401 Y12.7272 Z0.1051
X2.7418 Y12.7337 Z0.1014
X2.7425 Y12.7374 Z0.1007
X2.743 Y12.7412 Z0.1
G3 X2.5878 Y12.7588 Z0.0914 I-0.0776 J0.0088
X2.743 Y12.7412 Z0.0829 I0.0776 J-0.0088
X2.5878 Y12.7588 Z0.0743 I-0.0776 J0.0088
X2.743 Y12.7412 Z0.0657 I0.0776 J-0.0088
X2.5878 Y12.7588 Z0.0571 I-0.0776 J0.0088
X2.743 Y12.7412 Z0.0486 I0.0776 J-0.0088
X2.5878 Y12.7588 Z0.04 I-0.0776 J0.0088
X2.743 Y12.7412 Z0.0314 I0.0776 J-0.0088
X2.5878 Y12.7588 Z0.0229 I-0.0776 J0.0088
X2.743 Y12.7412 Z0.0143 I0.0776 J-0.0088
X2.5878 Y12.7588 Z0.0057 I-0.0776 J0.0088
X2.743 Y12.7412 Z-0.0029 I0.0776 J-0.0088
X2.5878 Y12.7588 Z-0.0114 I-0.0776 J0.0088
X2.743 Y12.7412 Z-0.02 I0.0776 J-0.0088
X2.5878 Y12.7588 Z-0.0286 I-0.0776 J0.0088
X2.743 Y12.7412 Z-0.0371 I0.0776 J-0.0088
X2.5878 Y12.7588 Z-0.0457 I-0.0776 J0.0088
X2.743 Y12.7412 Z-0.0543 I0.0776 J-0.0088
X2.5878 Y12.7588 Z-0.0628 I-0.0776 J0.0088
X2.743 Y12.7412 Z-0.0714 I0.0776 J-0.0088
X2.5878 Y12.7588 Z-0.08 I-0.0776 J0.0088
X2.743 Y12.7412 Z-0.0886 I0.0776 J-0.0088
X2.5878 Y12.7588 Z-0.0971 I-0.0776 J0.0088
X2.743 Y12.7412 Z-0.1057 I0.0776 J-0.0088
X2.6698 Y12.828 Z-0.1101 I-0.0776 J0.0088
X2.5873 Y12.75 Z-0.1146 I-0.0044 J-0.078
X2.7435 I0.0781 J0. F30.
X2.5873 I-0.0781 J0.
X2.7435 Z-0.1232 I0.0781 J0. F10.
X2.5873 Z-0.1317 I-0.0781 J0.
X2.7435 Z-0.1403 I0.0781 J0.
X2.5873 Z-0.1489 I-0.0781 J0.
X2.7435 Z-0.1574 I0.0781 J0.
X2.5873 Z-0.166 I-0.0781 J0.
X2.7435 Z-0.1746 I0.0781 J0.
X2.5873 Z-0.1832 I-0.0781 J0.
X2.7435 Z-0.1917 I0.0781 J0.
X2.5873 Z-0.2003 I-0.0781 J0.
X2.7435 Z-0.2089 I0.0781 J0.
X2.5873 Z-0.2174 I-0.0781 J0.
X2.7435 Z-0.226 I0.0781 J0.
X2.6967 Y12.8216 Z-0.2292 I-0.0781 J0.
X2.6341 Y12.6784 I-0.0313 J-0.0716 F30.
X2.6967 Y12.8216 I0.0313 J0.0716
X2.6341 Y12.6784 Z-0.2377 I-0.0313 J-0.0716 F10.
X2.6967 Y12.8216 Z-0.2463 I0.0313 J0.0716
X2.6341 Y12.6784 Z-0.2549 I-0.0313 J-0.0716
X2.6967 Y12.8216 Z-0.2635 I0.0313 J0.0716
X2.6341 Y12.6784 Z-0.272 I-0.0313 J-0.0716
X2.6967 Y12.8216 Z-0.2806 I0.0313 J0.0716
X2.6341 Y12.6784 Z-0.2892 I-0.0313 J-0.0716
X2.6967 Y12.8216 Z-0.2977 I0.0313 J0.0716
X2.6341 Y12.6784 Z-0.3063 I-0.0313 J-0.0716
X2.6967 Y12.8216 Z-0.3149 I0.0313 J0.0716
X2.6341 Y12.6784 Z-0.3234 I-0.0313 J-0.0716
X2.6967 Y12.8216 Z-0.332 I0.0313 J0.0716
X2.6341 Y12.6784 Z-0.3406 I-0.0313 J-0.0716
X2.7184 Y12.6927 Z-0.3438 I0.0313 J0.0716
X2.6123 Y12.8074 I-0.0531 J0.0574 F30.
X2.7184 Y12.6927 I0.0531 J-0.0574
X2.6123 Y12.8074 Z-0.3523 I-0.0531 J0.0574 F10.
X2.7184 Y12.6927 Z-0.3609 I0.0531 J-0.0574
X2.6123 Y12.8074 Z-0.3695 I-0.0531 J0.0574
X2.7184 Y12.6927 Z-0.378 I0.0531 J-0.0574
X2.6123 Y12.8074 Z-0.3866 I-0.0531 J0.0573
X2.7184 Y12.6927 Z-0.3952 I0.0531 J-0.0573
X2.6123 Y12.8073 Z-0.4037 I-0.0531 J0.0573
X2.7184 Y12.6927 Z-0.4123 I0.0531 J-0.0573
X2.6123 Y12.8073 Z-0.4209 I-0.0531 J0.0573
X2.7184 Y12.6927 Z-0.4295 I0.0531 J-0.0573
X2.6123 Y12.8073 Z-0.438 I-0.0531 J0.0573
X2.7184 Y12.6927 Z-0.4466 I0.0531 J-0.0573
X2.6123 Y12.8073 Z-0.4552 I-0.0531 J0.0573
X2.5916 Y12.7244 Z-0.4583 I0.0531 J-0.0573
X2.7392 Y12.7756 I0.0738 J0.0256 F30.
X2.5916 Y12.7244 I-0.0738 J-0.0256
X2.7392 Y12.7756 Z-0.4669 I0.0738 J0.0256 F10.
X2.5916 Y12.7244 Z-0.4755 I-0.0738 J-0.0256
X2.7392 Y12.7756 Z-0.484 I0.0738 J0.0256
X2.5916 Y12.7244 Z-0.4926 I-0.0738 J-0.0256
X2.7392 Y12.7756 Z-0.5012 I0.0738 J0.0256
X2.5916 Y12.7244 Z-0.5098 I-0.0738 J-0.0256
X2.7392 Y12.7756 Z-0.5183 I0.0738 J0.0256
X2.5916 Y12.7244 Z-0.5269 I-0.0738 J-0.0256
X2.7392 Y12.7756 Z-0.5355 I0.0738 J0.0256
X2.5916 Y12.7244 Z-0.544 I-0.0738 J-0.0256
X2.7392 Y12.7756 Z-0.5526 I0.0738 J0.0256
X2.5916 Y12.7244 Z-0.5612 I-0.0738 J-0.0256
X2.7392 Y12.7756 Z-0.5698 I0.0738 J0.0256
X2.6715 Y12.8279 Z-0.5729 I-0.0738 J-0.0256
X2.6593 Y12.6721 I-0.0061 J-0.0779 F30.
X2.6715 Y12.8279 I0.0061 J0.0779
X2.6593 Y12.6721 Z-0.5815 I-0.0061 J-0.0779 F10.
X2.6715 Y12.8279 Z-0.5901 I0.0061 J0.0779
X2.6593 Y12.6721 Z-0.5986 I-0.0061 J-0.0779
X2.6715 Y12.8279 Z-0.6072 I0.0061 J0.0779
X2.6593 Y12.6721 Z-0.6158 I-0.0061 J-0.0779
X2.6715 Y12.8279 Z-0.6243 I0.0061 J0.0779
X2.6593 Y12.6721 Z-0.6329 I-0.0061 J-0.0779
X2.6715 Y12.8279 Z-0.6415 I0.0061 J0.0779
X2.6593 Y12.6721 Z-0.6501 I-0.0061 J-0.0779
X2.6715 Y12.8279 Z-0.6586 I0.0061 J0.0779
X2.6593 Y12.6721 Z-0.6672 I-0.0061 J-0.0779
X2.6715 Y12.8279 Z-0.6758 I0.0061 J0.0779
X2.6593 Y12.6721 Z-0.6843 I-0.0061 J-0.0779
X2.7343 Y12.7132 Z-0.6875 I0.0061 J0.0779
X2.5965 Y12.7868 I-0.0689 J0.0368 F30.
X2.7343 Y12.7132 I0.0689 J-0.0368
X2.5965 Y12.7868 Z-0.6961 I-0.0689 J0.0368 F10.
X2.7343 Y12.7132 Z-0.7046 I0.0689 J-0.0368
X2.5965 Y12.7868 Z-0.7132 I-0.0689 J0.0368
X2.7343 Y12.7132 Z-0.7218 I0.0689 J-0.0368
X2.5965 Y12.7868 Z-0.7304 I-0.0689 J0.0368
X2.7343 Y12.7132 Z-0.7389 I0.0689 J-0.0368
X2.5965 Y12.7868 Z-0.7475 I-0.0689 J0.0368
X2.7343 Y12.7132 Z-0.7561 I0.0689 J-0.0368
X2.5965 Y12.7868 Z-0.7646 I-0.0689 J0.0368
X2.7343 Y12.7132 Z-0.7732 I0.0689 J-0.0368
X2.5965 Y12.7868 Z-0.7818 I-0.0689 J0.0368
X2.7343 Y12.7132 Z-0.7904 I0.0689 J-0.0368
X2.5965 Y12.7868 Z-0.7989 I-0.0689 J0.0368
X2.6041 Y12.7016 Z-0.8021 I0.0689 J-0.0368
X2.7267 Y12.7984 I0.0613 J0.0484 F30.
X2.6041 Y12.7016 I-0.0613 J-0.0484
X2.7267 Y12.7984 Z-0.8107 I0.0613 J0.0484 F10.
X2.6041 Y12.7016 Z-0.8192 I-0.0613 J-0.0484
X2.7267 Y12.7984 Z-0.8278 I0.0613 J0.0484
X2.6041 Y12.7016 Z-0.8364 I-0.0613 J-0.0484
X2.7267 Y12.7984 Z-0.8449 I0.0613 J0.0484
X2.6041 Y12.7016 Z-0.8535 I-0.0613 J-0.0484
X2.7267 Y12.7984 Z-0.8621 I0.0613 J0.0484
X2.6041 Y12.7016 Z-0.8707 I-0.0613 J-0.0484
X2.7267 Y12.7984 Z-0.8792 I0.0613 J0.0484
X2.6041 Y12.7016 Z-0.8878 I-0.0613 J-0.0484
X2.7267 Y12.7984 Z-0.8964 I0.0613 J0.0484
X2.6041 Y12.7016 Z-0.9049 I-0.0613 J-0.0484
X2.7267 Y12.7984 Z-0.9135 I0.0613 J0.0484
X2.6456 Y12.8256 Z-0.9167 I-0.0613 J-0.0484
X2.6852 Y12.6744 I0.0198 J-0.0756 F30.
X2.6456 Y12.8256 I-0.0198 J0.0756
X2.6852 Y12.6744 Z-0.9252 I0.0198 J-0.0756 F10.
X2.6456 Y12.8256 Z-0.9338 I-0.0198 J0.0756
X2.6852 Y12.6744 Z-0.9424 I0.0198 J-0.0756
X2.6456 Y12.8256 Z-0.951 I-0.0198 J0.0756
X2.6852 Y12.6744 Z-0.9595 I0.0198 J-0.0756
X2.6456 Y12.8256 Z-0.9681 I-0.0198 J0.0756
X2.6852 Y12.6744 Z-0.9767 I0.0198 J-0.0756
X2.6456 Y12.8256 Z-0.9852 I-0.0198 J0.0756
X2.6852 Y12.6744 Z-0.9938 I0.0198 J-0.0756
X2.6456 Y12.8256 Z-1.0024 I-0.0198 J0.0756
X2.6852 Y12.6744 Z-1.0109 I0.0198 J-0.0756
X2.6456 Y12.8256 Z-1.0195 I-0.0198 J0.0756
X2.6852 Y12.6744 Z-1.0281 I0.0198 J-0.0756
X2.7426 Y12.7379 Z-1.0313 I-0.0198 J0.0756
X2.5882 Y12.7621 I-0.0772 J0.0121 F30.
X2.7426 Y12.7379 I0.0772 J-0.0121
G1 X2.7429 Y12.7417 Z-1.0306
X2.7426 Y12.7456 Z-1.03
X2.7418 Y12.749 Z-1.0283
X2.7406 Y12.7522 Z-1.0265
X2.7393 Y12.7547 Z-1.0237
X2.7377 Y12.757 Z-1.0209
X2.7354 Y12.7596 Z-1.014
X2.7345 Y12.7605 Z-1.0063
G0 Z0.6

(2D POCKET5)
G0 X2.8256 Y12.7734
Z0.6
Z0.2
G1 Z0.125 F10.
X2.8253 Y12.7746 Z0.1174
X2.8246 Y12.7779 Z0.1106
X2.8232 Y12.783 Z0.1051
X2.8212 Y12.7894 Z0.1014
X2.8184 Y12.7964 Z0.1
G3 X2.5998 Y12.7036 Z0.087 I-0.1093 J-0.0464
X2.8184 Y12.7964 Z0.0739 I0.1093 J0.0464
X2.5998 Y12.7036 Z0.0609 I-0.1093 J-0.0464
X2.8184 Y12.7964 Z0.0479 I0.1093 J0.0464
X2.5998 Y12.7036 Z0.0349 I-0.1093 J-0.0464
X2.8184 Y12.7964 Z0.0218 I0.1093 J0.0464
X2.5998 Y12.7036 Z0.0088 I-0.1093 J-0.0464
X2.8184 Y12.7964 Z-0.0042 I0.1093 J0.0464
X2.5998 Y12.7036 Z-0.0172 I-0.1093 J-0.0464
X2.8184 Y12.7964 Z-0.0303 I0.1093 J0.0464
X2.5998 Y12.7036 Z-0.0433 I-0.1093 J-0.0464
X2.8184 Y12.7964 Z-0.0563 I0.1093 J0.0464
X2.5998 Y12.7036 Z-0.0694 I-0.1093 J-0.0464
X2.8184 Y12.7964 Z-0.0824 I0.1093 J0.0464
X2.5904 Y12.75 Z-0.0937 I-0.1093 J-0.0464
X2.7404 I0.075 J0. F30.
X2.4404 I-0.15 J0.
X2.8904 I0.225 J0.
X2.2904 I-0.3 J0.
X3.0404 I0.375 J0.
X2.2904 I-0.375 J0.
X2.3037 Y12.7375 I0.0125 J0.
G1 X2.5607 Y12.7547
X2.5629 Y12.7546
X2.5651 Y12.7541
X2.7918 Y12.6767
G3 X2.806 Y12.6813 I0.004 J0.0118
X2.6122 Y12.8187 Z-0.1068 I-0.0969 J0.0687 F10.
X2.806 Y12.6813 Z-0.1198 I0.0969 J-0.0687
X2.6122 Y12.8187 Z-0.1328 I-0.0969 J0.0687
X2.806 Y12.6813 Z-0.1459 I0.0969 J-0.0687
X2.6122 Y12.8187 Z-0.1589 I-0.0969 J0.0687
X2.806 Y12.6813 Z-0.1719 I0.0969 J-0.0687
X2.6122 Y12.8187 Z-0.1849 I-0.0969 J0.0687
X2.5904 Y12.75 Z-0.1875 I0.0969 J-0.0687
X2.7404 I0.075 J0. F30.
X2.4404 I-0.15 J0.
X2.8904 I0.225 J0.
X2.2904 I-0.3 J0.
X3.0404 I0.375 J0.
X2.2904 I-0.375 J0.
X2.3037 Y12.7375 I0.0125 J0.
G1 X2.5607 Y12.7547
X2.5629 Y12.7546
X2.5651 Y12.7541
X2.7918 Y12.6767
G3 X2.806 Y12.6813 I0.004 J0.0118
X2.6122 Y12.8187 Z-0.2005 I-0.0969 J0.0687 F10.
X2.806 Y12.6813 Z-0.2136 I0.0969 J-0.0687
X2.6122 Y12.8187 Z-0.2266 I-0.0969 J0.0687
X2.806 Y12.6813 Z-0.2396 I0.0969 J-0.0687
X2.6122 Y12.8187 Z-0.2526 I-0.0969 J0.0687
X2.806 Y12.6813 Z-0.2657 I0.0969 J-0.0687
X2.6122 Y12.8187 Z-0.2787 I-0.0969 J0.0687
X2.5904 Y12.75 Z-0.2813 I0.0969 J-0.0687
X2.7404 I0.075 J0. F30.
X2.4404 I-0.15 J0.
X2.8904 I0.225 J0.
X2.2904 I-0.3 J0.
X3.0404 I0.375 J0.
X2.2904 I-0.375 J0.
X2.3037 Y12.7375 I0.0125 J0.
G1 X2.5607 Y12.7547
X2.5629 Y12.7546
X2.5651 Y12.7541
X2.7918 Y12.6767
G3 X2.806 Y12.6813 I0.004 J0.0118
X2.6122 Y12.8187 Z-0.2943 I-0.0969 J0.0687 F10.
X2.806 Y12.6813 Z-0.3073 I0.0969 J-0.0687
X2.6122 Y12.8187 Z-0.3203 I-0.0969 J0.0687
X2.806 Y12.6813 Z-0.3334 I0.0969 J-0.0687
X2.6122 Y12.8187 Z-0.3464 I-0.0969 J0.0687
X2.806 Y12.6813 Z-0.3594 I0.0969 J-0.0687
X2.6122 Y12.8187 Z-0.3724 I-0.0969 J0.0687
X2.5904 Y12.75 Z-0.375 I0.0969 J-0.0687
X2.7404 I0.075 J0. F30.
X2.4404 I-0.15 J0.
X2.8904 I0.225 J0.
X2.2904 I-0.3 J0.
X3.0404 I0.375 J0.
X2.2904 I-0.375 J0.
G1 X2.2907 Y12.7462 Z-0.3744
X2.2916 Y12.7424 Z-0.3738
X2.2929 Y12.7392 Z-0.372
X2.2946 Y12.7361 Z-0.3702
X2.2962 Y12.7339 Z-0.3675
X2.2981 Y12.7319 Z-0.3647
X2.3009 Y12.7296 Z-0.3577
X2.3019 Y12.729 Z-0.35
G0 Z0.6

(2D POCKET6)
G0 X6.6259 Y10.5457
Z0.6
Z0.2
G1 Z0.125 F10.
X6.6252 Y10.5467 Z0.1174
X6.6231 Y10.5493 Z0.1106
X6.6196 Y10.5533 Z0.1051
X6.6148 Y10.5581 Z0.1014
X6.6119 Y10.5605 Z0.1007
X6.609 Y10.5628 Z0.1
G3 X6.516 Y10.4372 Z0.0914 I-0.0465 J-0.0628
X6.609 Y10.5628 Z0.0829 I0.0465 J0.0628
X6.516 Y10.4372 Z0.0743 I-0.0465 J-0.0628
X6.609 Y10.5628 Z0.0657 I0.0465 J0.0628
X6.516 Y10.4372 Z0.0571 I-0.0465 J-0.0628
X6.609 Y10.5628 Z0.0486 I0.0465 J0.0628
X6.516 Y10.4372 Z0.04 I-0.0465 J-0.0628
X6.609 Y10.5628 Z0.0314 I0.0465 J0.0628
X6.516 Y10.4372 Z0.0229 I-0.0465 J-0.0628
X6.609 Y10.5628 Z0.0143 I0.0465 J0.0628
X6.516 Y10.4372 Z0.0057 I-0.0465 J-0.0628
X6.609 Y10.5628 Z-0.0029 I0.0465 J0.0628
X6.516 Y10.4372 Z-0.0114 I-0.0465 J-0.0628
X6.609 Y10.5628 Z-0.02 I0.0465 J0.0628
X6.516 Y10.4372 Z-0.0286 I-0.0465 J-0.0628
X6.609 Y10.5628 Z-0.0371 I0.0465 J0.0628
X6.516 Y10.4372 Z-0.0457 I-0.0465 J-0.0628
X6.609 Y10.5628 Z-0.0543 I0.0465 J0.0628
X6.516 Y10.4372 Z-0.0628 I-0.0465 J-0.0628
X6.609 Y10.5628 Z-0.0714 I0.0465 J0.0628
X6.516 Y10.4372 Z-0.08 I-0.0465 J-0.0628
X6.609 Y10.5628 Z-0.0886 I0.0465 J0.0628
X6.516 Y10.4372 Z-0.0971 I-0.0465 J-0.0628
X6.609 Y10.5628 Z-0.1057 I0.0465 J0.0628
X6.4972 Y10.5428 Z-0.1101 I-0.0465 J-0.0628
X6.5234 Y10.4323 Z-0.1146 I0.0653 J-0.0428
X6.6016 Y10.5677 I0.0391 J0.0677 F30.
X6.5234 Y10.4323 I-0.0391 J-0.0677
X6.6016 Y10.5677 Z-0.1232 I0.0391 J0.0677 F10.
X6.5234 Y10.4323 Z-0.1317 I-0.0391 J-0.0677
X6.6016 Y10.5677 Z-0.1403 I0.0391 J0.0677
X6.5234 Y10.4323 Z-0.1489 I-0.0391 J-0.0677
X6.6016 Y10.5677 Z-0.1574 I0.0391 J0.0677
X6.5234 Y10.4323 Z-0.166 I-0.0391 J-0.0677
X6.6016 Y10.5677 Z-0.1746 I0.0391 J0.0677
X6.5234 Y10.4323 Z-0.1832 I-0.0391 J-0.0677
X6.6016 Y10.5677 Z-0.1917 I0.0391 J0.0677
X6.5234 Y10.4323 Z-0.2003 I-0.0391 J-0.0677
X6.6016 Y10.5677 Z-0.2089 I0.0391 J0.0677
X6.5234 Y10.4323 Z-0.2174 I-0.0391 J-0.0677
X6.6016 Y10.5677 Z-0.226 I0.0391 J0.0677
X6.5162 Y10.5629 Z-0.2292 I-0.0391 J-0.0677
X6.6088 Y10.4371 I0.0463 J-0.0629 F30.
X6.5162 Y10.5629 I-0.0463 J0.0629
X6.6088 Y10.4371 Z-0.2377 I0.0463 J-0.0629 F10.
X6.5162 Y10.5629 Z-0.2463 I-0.0463 J0.0629
X6.6088 Y10.4371 Z-0.2549 I0.0463 J-0.0629
X6.5162 Y10.5629 Z-0.2635 I-0.0463 J0.0629
X6.6088 Y10.4371 Z-0.272 I0.0463 J-0.0629
X6.5162 Y10.5629 Z-0.2806 I-0.0463 J0.0629
X6.6088 Y10.4371 Z-0.2892 I0.0463 J-0.0629
X6.5162 Y10.5629 Z-0.2977 I-0.0463 J0.0629
X6.6088 Y10.4371 Z-0.3063 I0.0463 J-0.0629
X6.5162 Y10.5629 Z-0.3149 I-0.0463 J0.0629
X6.6088 Y10.4371 Z-0.3234 I0.0463 J-0.0629
X6.5162 Y10.5629 Z-0.332 I-0.0463 J0.0629
X6.6088 Y10.4371 Z-0.3406 I0.0463 J-0.0629
X6.6387 Y10.5173 Z-0.3438 I-0.0463 J0.0629
X6.4863 Y10.4827 I-0.0762 J-0.0173 F30.
X6.6387 Y10.5173 I0.0762 J0.0173
X6.4863 Y10.4827 Z-0.3523 I-0.0762 J-0.0173 F10.
X6.6387 Y10.5173 Z-0.3609 I0.0762 J0.0173
X6.4863 Y10.4827 Z-0.3695 I-0.0762 J-0.0173
X6.6387 Y10.5173 Z-0.378 I0.0762 J0.0173
X6.4863 Y10.4827 Z-0.3866 I-0.0762 J-0.0173
X6.6387 Y10.5173 Z-0.3952 I0.0762 J0.0173
X6.4863 Y10.4827 Z-0.4037 I-0.0762 J-0.0173
X6.6387 Y10.5173 Z-0.4123 I0.0762 J0.0173
X6.4863 Y10.4827 Z-0.4209 I-0.0762 J-0.0173
X6.6387 Y10.5173 Z-0.4295 I0.0762 J0.0173
X6.4863 Y10.4827 Z-0.438 I-0.0762 J-0.0173
X6.6387 Y10.5173 Z-0.4466 I0.0762 J0.0173
X6.4863 Y10.4827 Z-0.4552 I-0.0762 J-0.0173
X6.5478 Y10.4233 Z-0.4583 I0.0762 J0.0173
X6.5772 Y10.5767 I0.0147 J0.0767 F30.
X6.5478 Y10.4233 I-0.0147 J-0.0767
X6.5772 Y10.5767 Z-0.4669 I0.0147 J0.0767 F10.
X6.5478 Y10.4233 Z-0.4755 I-0.0147 J-0.0767
X6.5772 Y10.5767 Z-0.484 I0.0147 J0.0767
X6.5478 Y10.4233 Z-0.4926 I-0.0147 J-0.0767
X6.5772 Y10.5767 Z-0.5012 I0.0147 J0.0767
X6.5478 Y10.4233 Z-0.5098 I-0.0147 J-0.0767
X6.5772 Y10.5767 Z-0.5183 I0.0147 J0.0767
X6.5478 Y10.4233 Z-0.5269 I-0.0147 J-0.0767
X6.5772 Y10.5767 Z-0.5355 I0.0147 J0.0767
X6.5478 Y10.4233 Z-0.544 I-0.0147 J-0.0767
X6.5772 Y10.5767 Z-0.5526 I0.0147 J0.0767
X6.5478 Y10.4233 Z-0.5612 I-0.0147 J-0.0767
X6.5772 Y10.5767 Z-0.5698 I0.0147 J0.0767
X6.4981 Y10.5442 Z-0.5729 I-0.0147 J-0.0767
X6.6269 Y10.4558 I0.0644 J-0.0442 F30.
X6.4981 Y10.5442 I-0.0644 J0.0442
X6.6269 Y10.4558 Z-0.5815 I0.0644 J-0.0442 F10.
X6.4981 Y10.5442 Z-0.5901 I-0.0644 J0.0442
X6.6269 Y10.4558 Z-0.5986 I0.0644 J-0.0442
X6.4981 Y10.5442 Z-0.6072 I-0.0644 J0.0442
X6.6269 Y10.4558 Z-0.6158 I0.0644 J-0.0442
X6.4981 Y10.5442 Z-0.6243 I-0.0644 J0.0442
X6.6269 Y10.4558 Z-0.6329 I0.0644 J-0.0442
X6.4981 Y10.5442 Z-0.6415 I-0.0644 J0.0442
X6.6269 Y10.4558 Z-0.6501 I0.0644 J-0.0442
X6.4981 Y10.5442 Z-0.6586 I-0.0644 J0.0442
X6.6269 Y10.4558 Z-0.6672 I0.0644 J-0.0442
X6.4981 Y10.5442 Z-0.6758 I-0.0644 J0.0442
X6.6269 Y10.4558 Z-0.6843 I0.0644 J-0.0442
X6.6288 Y10.5413 Z-0.6875 I-0.0644 J0.0442
X6.4962 Y10.4587 I-0.0663 J-0.0413 F30.
X6.6288 Y10.5413 I0.0663 J0.0413
X6.4962 Y10.4587 Z-0.6961 I-0.0663 J-0.0413 F10.
X6.6288 Y10.5413 Z-0.7046 I0.0663 J0.0413
X6.4962 Y10.4587 Z-0.7132 I-0.0663 J-0.0413
X6.6288 Y10.5413 Z-0.7218 I0.0663 J0.0413
X6.4962 Y10.4587 Z-0.7304 I-0.0663 J-0.0413
X6.6288 Y10.5413 Z-0.7389 I0.0663 J0.0413
X6.4962 Y10.4587 Z-0.7475 I-0.0663 J-0.0413
X6.6288 Y10.5413 Z-0.7561 I0.0663 J0.0413
X6.4962 Y10.4587 Z-0.7646 I-0.0663 J-0.0413
X6.6288 Y10.5413 Z-0.7732 I0.0663 J0.0413
X6.4962 Y10.4587 Z-0.7818 I-0.0663 J-0.0413
X6.6288 Y10.5413 Z-0.7904 I0.0663 J0.0413
X6.4962 Y10.4587 Z-0.7989 I-0.0663 J-0.0413
X6.5738 Y10.4227 Z-0.8021 I0.0663 J0.0413
X6.5512 Y10.5773 I-0.0113 J0.0773 F30.
X6.5738 Y10.4227 I0.0113 J-0.0773
X6.5512 Y10.5773 Z-0.8107 I-0.0113 J0.0773 F10.
X6.5738 Y10.4227 Z-0.8192 I0.0113 J-0.0773
X6.5512 Y10.5773 Z-0.8278 I-0.0113 J0.0773
X6.5738 Y10.4227 Z-0.8364 I0.0113 J-0.0773
X6.5512 Y10.5773 Z-0.8449 I-0.0113 J0.0773
X6.5738 Y10.4227 Z-0.8535 I0.0113 J-0.0773
X6.5512 Y10.5773 Z-0.8621 I-0.0113 J0.0773
X6.5738 Y10.4227 Z-0.8707 I0.0113 J-0.0773
X6.5512 Y10.5773 Z-0.8792 I-0.0113 J0.0773
X6.5738 Y10.4227 Z-0.8878 I0.0113 J-0.0773
X6.5512 Y10.5773 Z-0.8964 I-0.0113 J0.0773
X6.5738 Y10.4227 Z-0.9049 I0.0113 J-0.0773
X6.5512 Y10.5773 Z-0.9135 I-0.0113 J0.0773
X6.4871 Y10.5206 Z-0.9167 I0.0113 J-0.0773
X6.6379 Y10.4794 I0.0754 J-0.0206 F30.
X6.4871 Y10.5206 I-0.0754 J0.0206
X6.6379 Y10.4794 Z-0.9252 I0.0754 J-0.0206 F10.
X6.4871 Y10.5206 Z-0.9338 I-0.0754 J0.0206
X6.6379 Y10.4794 Z-0.9424 I0.0754 J-0.0206
X6.4871 Y10.5206 Z-0.951 I-0.0754 J0.0206
X6.6379 Y10.4794 Z-0.9595 I0.0754 J-0.0206
X6.4871 Y10.5206 Z-0.9681 I-0.0754 J0.0206
X6.6379 Y10.4794 Z-0.9767 I0.0754 J-0.0206
X6.4871 Y10.5206 Z-0.9852 I-0.0754 J0.0206
X6.6379 Y10.4794 Z-0.9938 I0.0754 J-0.0206
X6.4871 Y10.5206 Z-1.0024 I-0.0754 J0.0206
X6.6379 Y10.4794 Z-1.0109 I0.0754 J-0.0206
X6.4871 Y10.5206 Z-1.0195 I-0.0754 J0.0206
X6.6379 Y10.4794 Z-1.0281 I0.0754 J-0.0206
X6.6116 Y10.5608 Z-1.0313 I-0.0754 J0.0206
X6.5134 Y10.4392 I-0.0491 J-0.0608 F30.
X6.6116 Y10.5608 I0.0491 J0.0608
G1 X6.6084 Y10.563 Z-1.0306
X6.6049 Y10.5647 Z-1.03
X6.6016 Y10.5657 Z-1.0283
X6.5982 Y10.5662 Z-1.0265
X6.5954 Y10.5663 Z-1.0237
X6.5926 Y10.5661 Z-1.0209
X6.5892 Y10.5654 Z-1.014
X6.588 Y10.5651 Z-1.0063
G0 Z0.6

(2D POCKET5)
G0 X6.6223 Y10.6504
Z0.6
Z0.2
G1 Z0.125 F10.
X6.6212 Y10.6508 Z0.1174
X6.618 Y10.6518 Z0.1106
X6.6128 Y10.6532 Z0.1051
X6.6063 Y10.6546 Z0.1014
X6.5988 Y10.6558 Z0.1
G3 X6.5699 Y10.42 Z0.087 I-0.0145 J-0.1179
X6.5988 Y10.6558 Z0.0739 I0.0145 J0.1179
X6.5699 Y10.42 Z0.0609 I-0.0145 J-0.1179
X6.5988 Y10.6558 Z0.0479 I0.0145 J0.1179
X6.5699 Y10.42 Z0.0349 I-0.0145 J-0.1179
X6.5988 Y10.6558 Z0.0218 I0.0145 J0.1179
X6.5699 Y10.42 Z0.0088 I-0.0145 J-0.1179
X6.5988 Y10.6558 Z-0.0042 I0.0145 J0.1179
X6.5699 Y10.42 Z-0.0172 I-0.0145 J-0.1179
X6.5988 Y10.6558 Z-0.0303 I0.0145 J0.1179
X6.5699 Y10.42 Z-0.0433 I-0.0145 J-0.1179
X6.5988 Y10.6558 Z-0.0563 I0.0145 J0.1179
X6.5699 Y10.42 Z-0.0694 I-0.0145 J-0.1179
X6.5988 Y10.6558 Z-0.0824 I0.0145 J0.1179
X6.525 Y10.4351 Z-0.0937 I-0.0145 J-0.1179
X6.6 Y10.565 I0.0375 J0.065 F30.
X6.45 Y10.3052 I-0.075 J-0.1299
X6.675 Y10.6949 I0.1125 J0.1949
X6.375 Y10.1752 I-0.15 J-0.2598
X6.75 Y10.8248 I0.1875 J0.3248
X6.375 Y10.1752 I-0.1875 J-0.3248
X6.3925 Y10.1806 I0.0063 J0.0108
G1 X6.506 Y10.4117
X6.5073 Y10.4136
X6.5088 Y10.4152
X6.6891 Y10.5729
G3 X6.6923 Y10.5875 I-0.0082 J0.0094
X6.4765 Y10.4883 Z-0.1068 I-0.1079 J-0.0496 F10.
X6.6923 Y10.5875 Z-0.1198 I0.1079 J0.0496
X6.4765 Y10.4883 Z-0.1328 I-0.1079 J-0.0496
X6.6923 Y10.5875 Z-0.1459 I0.1079 J0.0496
X6.4765 Y10.4883 Z-0.1589 I-0.1079 J-0.0496
X6.6923 Y10.5875 Z-0.1719 I0.1079 J0.0496
X6.4765 Y10.4883 Z-0.1849 I-0.1079 J-0.0496
X6.525 Y10.4351 Z-0.1875 I0.1079 J0.0496
X6.6 Y10.565 I0.0375 J0.065 F30.
X6.45 Y10.3052 I-0.075 J-0.1299
X6.675 Y10.6949 I0.1125 J0.1949
X6.375 Y10.1752 I-0.15 J-0.2598
X6.75 Y10.8248 I0.1875 J0.3248
X6.375 Y10.1752 I-0.1875 J-0.3248
X6.3925 Y10.1806 I0.0063 J0.0108
G1 X6.506 Y10.4117
X6.5073 Y10.4136
X6.5088 Y10.4152
X6.6891 Y10.5729
G3 X6.6923 Y10.5875 I-0.0082 J0.0094
X6.4765 Y10.4883 Z-0.2005 I-0.1079 J-0.0496 F10.
X6.6923 Y10.5875 Z-0.2136 I0.1079 J0.0496
X6.4765 Y10.4883 Z-0.2266 I-0.1079 J-0.0496
X6.6923 Y10.5875 Z-0.2396 I0.1079 J0.0496
X6.4765 Y10.4883 Z-0.2526 I-0.1079 J-0.0496
X6.6923 Y10.5875 Z-0.2657 I0.1079 J0.0496
X6.4765 Y10.4883 Z-0.2787 I-0.1079 J-0.0496
X6.525 Y10.4351 Z-0.2813 I0.1079 J0.0496
X6.6 Y10.565 I0.0375 J0.065 F30.
X6.45 Y10.3052 I-0.075 J-0.1299
X6.675 Y10.6949 I0.1125 J0.1949
X6.375 Y10.1752 I-0.15 J-0.2598
X6.75 Y10.8248 I0.1875 J0.3248
X6.375 Y10.1752 I-0.1875 J-0.3248
X6.3925 Y10.1806 I0.0063 J0.0108
G1 X6.506 Y10.4117
X6.5073 Y10.4136
X6.5088 Y10.4152
X6.6891 Y10.5729
G3 X6.6923 Y10.5875 I-0.0082 J0.0094
X6.4765 Y10.4883 Z-0.2943 I-0.1079 J-0.0496 F10.
X6.6923 Y10.5875 Z-0.3073 I0.1079 J0.0496
X6.4765 Y10.4883 Z-0.3203 I-0.1079 J-0.0496
X6.6923 Y10.5875 Z-0.3334 I0.1079 J0.0496
X6.4765 Y10.4883 Z-0.3464 I-0.1079 J-0.0496
X6.6923 Y10.5875 Z-0.3594 I0.1079 J0.0496
X6.4765 Y10.4883 Z-0.3724 I-0.1079 J-0.0496
X6.525 Y10.4351 Z-0.375 I0.1079 J0.0496
X6.6 Y10.565 I0.0375 J0.065 F30.
X6.45 Y10.3052 I-0.075 J-0.1299
X6.675 Y10.6949 I0.1125 J0.1949
X6.375 Y10.1752 I-0.15 J-0.2598
X6.75 Y10.8248 I0.1875 J0.3248
X6.375 Y10.1752 I-0.1875 J-0.3248
G1 X6.3785 Y10.1736 Z-0.3744
X6.3822 Y10.1725 Z-0.3738
X6.3856 Y10.172 Z-0.372
X6.3891 Y10.1719 Z-0.3702
X6.3919 Y10.1723 Z-0.3675
X6.3945 Y10.1729 Z-0.3647
X6.3979 Y10.1741 Z-0.3577
X6.399 Y10.1747 Z-0.35
G0 Z0.6

(2D POCKET6)
G0 X10.4517 Y12.8277
Z0.6
Z0.2
G1 Z0.125 F10.
X10.4505 Y12.8276 Z0.1174
X10.4472 Y12.8271 Z0.1106
X10.442 Y12.8261 Z0.1051
X10.4355 Y12.8243 Z0.1014
X10.4319 Y12.8231 Z0.1007
X10.4285 Y12.8217 Z0.1
G3 X10.4908 Y12.6784 Z0.0914 I0.0312 J-0.0716
X10.4285 Y12.8217 Z0.0829 I-0.0312 J0.0716
X10.4908 Y12.6784 Z0.0743 I0.0312 J-0.0716
X10.4285 Y12.8217 Z0.0657 I-0.0312 J0.0716
X10.4908 Y12.6784 Z0.0571 I0.0312 J-0.0716
X10.4285 Y12.8217 Z0.0486 I-0.0312 J0.0716
X10.4908 Y12.6784 Z0.04 I0.0312 J-0.0716
X10.4285 Y12.8217 Z0.0314 I-0.0312 J0.0716
X10.4908 Y12.6784 Z0.0229 I0.0312 J-0.0716
X10.4285 Y12.8217 Z0.0143 I-0.0312 J0.0716
X10.4908 Y12.6784 Z0.0057 I0.0312 J-0.0716
X10.4285 Y12.8217 Z-0.0029 I-0.0312 J0.0716
X10.4908 Y12.6784 Z-0.0114 I0.0312 J-0.0716
X10.4285 Y12.8217 Z-0.02 I-0.0312 J0.0716
X10.4908 Y12.6784 Z-0.0286 I0.0312 J-0.0716
X10.4285 Y12.8217 Z-0.0371 I-0.0312 J0.0716
X10.4908 Y12.6784 Z-0.0457 I0.0312 J-0.0716
X10.4285 Y12.8217 Z-0.0543 I-0.0312 J0.0716
X10.4908 Y12.6784 Z-0.0628 I0.0312 J-0.0716
X10.4285 Y12.8217 Z-0.0714 I-0.0312 J0.0716
X10.4908 Y12.6784 Z-0.08 I0.0312 J-0.0716
X10.4285 Y12.8217 Z-0.0886 I-0.0312 J0.0716
X10.4908 Y12.6784 Z-0.0971 I0.0312 J-0.0716
X10.4285 Y12.8217 Z-0.1057 I-0.0312 J0.0716
X10.3898 Y12.7148 Z-0.1101 I0.0312 J-0.0716
X10.4987 Y12.6823 Z-0.1146 I0.0698 J0.0352
X10.4205 Y12.8177 I-0.0391 J0.0677 F30.
X10.4987 Y12.6823 I0.0391 J-0.0677
X10.4205 Y12.8177 Z-0.1232 I-0.0391 J0.0677 F10.
X10.4987 Y12.6823 Z-0.1317 I0.0391 J-0.0677
X10.4205 Y12.8177 Z-0.1403 I-0.0391 J0.0677
X10.4987 Y12.6823 Z-0.1489 I0.0391 J-0.0677
X10.4205 Y12.8177 Z-0.1574 I-0.0391 J0.0677
X10.4987 Y12.6823 Z-0.166 I0.0391 J-0.0677
X10.4205 Y12.8177 Z-0.1746 I-0.0391 J0.0677
X10.4987 Y12.6823 Z-0.1832 I0.0391 J-0.0677
X10.4205 Y12.8177 Z-0.1917 I-0.0391 J0.0677
X10.4987 Y12.6823 Z-0.2003 I0.0391 J-0.0677
X10.4205 Y12.8177 Z-0.2089 I-0.0391 J0.0677
X10.4987 Y12.6823 Z-0.2174 I0.0391 J-0.0677
X10.4205 Y12.8177 Z-0.226 I-0.0391 J0.0677
X10.382 Y12.7413 Z-0.2292 I0.0391 J-0.0677
X10.5373 Y12.7587 I0.0776 J0.0087 F30.
X10.382 Y12.7413 I-0.0776 J-0.0087
X10.5373 Y12.7587 Z-0.2377 I0.0776 J0.0087 F10.
X10.382 Y12.7413 Z-0.2463 I-0.0776 J-0.0087
X10.5373 Y12.7587 Z-0.2549 I0.0776 J0.0087
X10.382 Y12.7413 Z-0.2635 I-0.0776 J-0.0087
X10.5373 Y12.7587 Z-0.272 I0.0776 J0.0087
X10.382 Y12.7413 Z-0.2806 I-0.0776 J-0.0087
X10.5373 Y12.7587 Z-0.2892 I0.0776 J0.0087
X10.382 Y12.7413 Z-0.2977 I-0.0776 J-0.0087
X10.5373 Y12.7587 Z-0.3063 I0.0776 J0.0087
X10.382 Y12.7413 Z-0.3149 I-0.0776 J-0.0087
X10.5373 Y12.7587 Z-0.3234 I0.0776 J0.0087
X10.382 Y12.7413 Z-0.332 I-0.0776 J-0.0087
X10.5373 Y12.7587 Z-0.3406 I0.0776 J0.0087
X10.4828 Y12.8246 Z-0.3438 I-0.0776 J-0.0087
X10.4365 Y12.6754 I-0.0231 J-0.0746 F30.
X10.4828 Y12.8246 I0.0231 J0.0746
X10.4365 Y12.6754 Z-0.3523 I-0.0231 J-0.0746 F10.
X10.4828 Y12.8246 Z-0.3609 I0.0231 J0.0746
X10.4365 Y12.6754 Z-0.3695 I-0.0231 J-0.0746
X10.4828 Y12.8246 Z-0.378 I0.0231 J0.0746
X10.4365 Y12.6754 Z-0.3866 I-0.0231 J-0.0746
X10.4828 Y12.8246 Z-0.3952 I0.0231 J0.0746
X10.4365 Y12.6754 Z-0.4037 I-0.0231 J-0.0746
X10.4828 Y12.8246 Z-0.4123 I0.0231 J0.0746
X10.4365 Y12.6754 Z-0.4209 I-0.0231 J-0.0746
X10.4828 Y12.8246 Z-0.4295 I0.0231 J0.0746
X10.4365 Y12.6754 Z-0.438 I-0.0231 J-0.0746
X10.4828 Y12.8246 Z-0.4466 I0.0231 J0.0746
X10.4365 Y12.6754 Z-0.4552 I-0.0231 J-0.0746
X10.5187 Y12.6989 Z-0.4583 I0.0231 J0.0746
X10.4005 Y12.8011 I-0.0591 J0.0511 F30.
X10.5187 Y12.6989 I0.0591 J-0.0511
X10.4005 Y12.8011 Z-0.4669 I-0.0591 J0.0511 F10.
X10.5187 Y12.6989 Z-0.4755 I0.0591 J-0.0511
X10.4005 Y12.8011 Z-0.484 I-0.0591 J0.0511
X10.5187 Y12.6989 Z-0.4926 I0.0591 J-0.0511
X10.4005 Y12.8011 Z-0.5012 I-0.0591 J0.0511
X10.5187 Y12.6989 Z-0.5098 I0.0591 J-0.0511
X10.4005 Y12.8011 Z-0.5183 I-0.0591 J0.0511
X10.5187 Y12.6989 Z-0.5269 I0.0591 J-0.0511
X10.4005 Y12.8011 Z-0.5355 I-0.0591 J0.0511
X10.5187 Y12.6989 Z-0.544 I0.0591 J-0.0511
X10.4005 Y12.8011 Z-0.5526 I-0.0591 J0.0511
X10.5187 Y12.6989 Z-0.5612 I0.0591 J-0.0511
X10.4005 Y12.8011 Z-0.5698 I-0.0591 J0.0511
X10.3891 Y12.7163 Z-0.5729 I0.0591 J-0.0511
X10.5301 Y12.7837 I0.0705 J0.0337 F30.
X10.3891 Y12.7163 I-0.0705 J-0.0337
X10.5301 Y12.7837 Z-0.5815 I0.0705 J0.0337 F10.
X10.3891 Y12.7163 Z-0.5901 I-0.0705 J-0.0337
X10.5301 Y12.7837 Z-0.5986 I0.0705 J0.0337
X10.3891 Y12.7163 Z-0.6072 I-0.0705 J-0.0337
X10.5301 Y12.7837 Z-0.6158 I0.0705 J0.0337
X10.3891 Y12.7163 Z-0.6243 I-0.0705 J-0.0337
X10.5301 Y12.7837 Z-0.6329 I0.0705 J0.0337
X10.3891 Y12.7163 Z-0.6415 I-0.0705 J-0.0337
X10.5301 Y12.7837 Z-0.6501 I0.0705 J0.0337
X10.3891 Y12.7163 Z-0.6586 I-0.0705 J-0.0337
X10.5301 Y12.7837 Z-0.6672 I0.0705 J0.0337
X10.3891 Y12.7163 Z-0.6758 I-0.0705 J-0.0337
X10.5301 Y12.7837 Z-0.6843 I0.0705 J0.0337
X10.457 Y12.8281 Z-0.6875 I-0.0705 J-0.0337
X10.4622 Y12.6719 I0.0026 J-0.0781 F30.
X10.457 Y12.8281 I-0.0026 J0.0781
X10.4622 Y12.6719 Z-0.6961 I0.0026 J-0.0781 F10.
X10.457 Y12.8281 Z-0.7046 I-0.0026 J0.0781
X10.4622 Y12.6719 Z-0.7132 I0.0026 J-0.0781
X10.457 Y12.8281 Z-0.7218 I-0.0026 J0.0781
X10.4622 Y12.6719 Z-0.7304 I0.0026 J-0.0781
X10.457 Y12.8281 Z-0.7389 I-0.0026 J0.0781
X10.4622 Y12.6719 Z-0.7475 I0.0026 J-0.0781
X10.457 Y12.8281 Z-0.7561 I-0.0026 J0.0781
X10.4622 Y12.6719 Z-0.7646 I0.0026 J-0.0781
X10.457 Y12.8281 Z-0.7732 I-0.0026 J0.0781
X10.4622 Y12.6719 Z-0.7818 I0.0026 J-0.0781
X10.457 Y12.8281 Z-0.7904 I-0.0026 J0.0781
X10.4622 Y12.6719 Z-0.7989 I0.0026 J-0.0781
X10.5322 Y12.7211 Z-0.8021 I-0.0026 J0.0781
X10.387 Y12.7789 I-0.0726 J0.0289 F30.
X10.5322 Y12.7211 I0.0726 J-0.0289
X10.387 Y12.7789 Z-0.8107 I-0.0726 J0.0289 F10.
X10.5322 Y12.7211 Z-0.8192 I0.0726 J-0.0289
X10.387 Y12.7789 Z-0.8278 I-0.0726 J0.0289
X10.5322 Y12.7211 Z-0.8364 I0.0726 J-0.0289
X10.387 Y12.7789 Z-0.8449 I-0.0726 J0.0289
X10.5322 Y12.7211 Z-0.8535 I0.0726 J-0.0289
X10.387 Y12.7789 Z-0.8621 I-0.0726 J0.0289
X10.5322 Y12.7211 Z-0.8707 I0.0726 J-0.0289
X10.387 Y12.7789 Z-0.8792 I-0.0726 J0.0289
X10.5322 Y12.7211 Z-0.8878 I0.0726 J-0.0289
X10.387 Y12.7789 Z-0.8964 I-0.0726 J0.0289
X10.5322 Y12.7211 Z-0.9049 I0.0726 J-0.0289
X10.387 Y12.7789 Z-0.9135 I-0.0726 J0.0289
X10.4041 Y12.6951 Z-0.9167 I0.0726 J-0.0289
X10.5151 Y12.805 I0.0555 J0.055 F30.
X10.4041 Y12.6951 I-0.0555 J-0.055
X10.5151 Y12.805 Z-0.9252 I0.0555 J0.055 F10.
X10.4041 Y12.6951 Z-0.9338 I-0.0555 J-0.055
X10.5151 Y12.805 Z-0.9424 I0.0555 J0.055
X10.4041 Y12.6951 Z-0.951 I-0.0555 J-0.055
X10.5151 Y12.805 Z-0.9595 I0.0555 J0.055
X10.4041 Y12.6951 Z-0.9681 I-0.0555 J-0.055
X10.5151 Y12.805 Z-0.9767 I0.0555 J0.055
X10.4041 Y12.6951 Z-0.9852 I-0.0555 J-0.055
X10.5151 Y12.805 Z-0.9938 I0.0555 J0.055
X10.4041 Y12.6951 Z-1.0024 I-0.0555 J-0.055
X10.5151 Y12.805 Z-1.0109 I0.0555 J0.055
X10.4041 Y12.6951 Z-1.0195 I-0.0555 J-0.055
X10.5151 Y12.805 Z-1.0281 I0.0555 J0.055
X10.4315 Y12.8229 Z-1.0313 I-0.0555 J-0.055
X10.4877 Y12.6771 I0.0281 J-0.0729 F30.
X10.4315 Y12.8229 I-0.0281 J0.0729
G1 X10.428 Y12.8212 Z-1.0306
X10.4248 Y12.8191 Z-1.03
X10.4223 Y12.8167 Z-1.0283
X10.4201 Y12.814 Z-1.0265
X10.4186 Y12.8117 Z-1.0237
X10.4174 Y12.8092 Z-1.0209
X10.4163 Y12.8058 Z-1.014
X10.416 Y12.8046 Z-1.0063
G0 Z0.6

(2D POCKET5)
G0 X10.3593 Y12.877
Z0.6
Z0.2
G1 Z0.125 F10.
X10.3584 Y12.8762 Z0.1174
X10.3559 Y12.8739 Z0.1106
X10.3521 Y12.8702 Z0.1051
X10.3476 Y12.8652 Z0.1014
X10.3429 Y12.8593 Z0.1
G3 X10.5326 Y12.7164 Z0.087 I0.0948 J-0.0715
X10.3429 Y12.8593 Z0.0739 I-0.0948 J0.0715
X10.5326 Y12.7164 Z0.0609 I0.0948 J-0.0715
X10.3429 Y12.8593 Z0.0479 I-0.0948 J0.0715
X10.5326 Y12.7164 Z0.0349 I0.0948 J-0.0715
X10.3429 Y12.8593 Z0.0218 I-0.0948 J0.0715
X10.5326 Y12.7164 Z0.0088 I0.0948 J-0.0715
X10.3429 Y12.8593 Z-0.0042 I-0.0948 J0.0715
X10.5326 Y12.7164 Z-0.0172 I0.0948 J-0.0715
X10.3429 Y12.8593 Z-0.0303 I-0.0948 J0.0715
X10.5326 Y12.7164 Z-0.0433 I0.0948 J-0.0715
X10.3429 Y12.8593 Z-0.0563 I-0.0948 J0.0715
X10.5326 Y12.7164 Z-0.0694 I0.0948 J-0.0715
X10.3429 Y12.8593 Z-0.0824 I-0.0948 J0.0715
X10.4971 Y12.6851 Z-0.0937 I0.0948 J-0.0715
X10.4221 Y12.815 I-0.0375 J0.065 F30.
X10.5721 Y12.5552 I0.075 J-0.1299
X10.3471 Y12.9449 I-0.1125 J0.1949
X10.6471 Y12.4252 I0.15 J-0.2598
X10.2721 Y13.0748 I-0.1875 J0.3248
X10.6471 Y12.4252 I0.1875 J-0.3248
X10.6512 Y12.443 I-0.0063 J0.0108
G1 X10.5079 Y12.6569
X10.5068 Y12.659
X10.5062 Y12.6611
X10.4598 Y12.8961
G3 X10.4487 Y12.9061 I-0.0123 J-0.0024
X10.4267 Y12.6697 Z-0.1068 I-0.011 J-0.1182 F10.
X10.4487 Y12.9061 Z-0.1198 I0.011 J0.1182
X10.4267 Y12.6697 Z-0.1328 I-0.011 J-0.1182
X10.4487 Y12.9061 Z-0.1459 I0.011 J0.1182
X10.4267 Y12.6697 Z-0.1589 I-0.011 J-0.1182
X10.4487 Y12.9061 Z-0.1719 I0.011 J0.1182
X10.4267 Y12.6697 Z-0.1849 I-0.011 J-0.1182
X10.4971 Y12.6851 Z-0.1875 I0.011 J0.1182
X10.4221 Y12.815 I-0.0375 J0.065 F30.
X10.5721 Y12.5552 I0.075 J-0.1299
X10.3471 Y12.9449 I-0.1125 J0.1949
X10.6471 Y12.4252 I0.15 J-0.2598
X10.2721 Y13.0748 I-0.1875 J0.3248
X10.6471 Y12.4252 I0.1875 J-0.3248
X10.6512 Y12.443 I-0.0063 J0.0108
G1 X10.5079 Y12.6569
X10.5068 Y12.659
X10.5062 Y12.6611
X10.4598 Y12.8961
G3 X10.4487 Y12.9061 I-0.0123 J-0.0024
X10.4267 Y12.6697 Z-0.2005 I-0.011 J-0.1182 F10.
X10.4487 Y12.9061 Z-0.2136 I0.011 J0.1182
X10.4267 Y12.6697 Z-0.2266 I-0.011 J-0.1182
X10.4487 Y12.9061 Z-0.2396 I0.011 J0.1182
X10.4267 Y12.6697 Z-0.2526 I-0.011 J-0.1182
X10.4487 Y12.9061 Z-0.2657 I0.011 J0.1182
X10.4267 Y12.6697 Z-0.2787 I-0.011 J-0.1182
X10.4971 Y12.6851 Z-0.2813 I0.011 J0.1182
X10.4221 Y12.815 I-0.0375 J0.065 F30.
X10.5721 Y12.5552 I0.075 J-0.1299
X10.3471 Y12.9449 I-0.1125 J0.1949
X10.6471 Y12.4252 I0.15 J-0.2598
X10.2721 Y13.0748 I-0.1875 J0.3248
X10.6471 Y12.4252 I0.1875 J-0.3248
X10.6512 Y12.443 I-0.0063 J0.0108
G1 X10.5079 Y12.6569
X10.5068 Y12.659
X10.5062 Y12.6611
X10.4598 Y12.8961
G3 X10.4487 Y12.9061 I-0.0123 J-0.0024
X10.4267 Y12.6697 Z-0.2943 I-0.011 J-0.1182 F10.
X10.4487 Y12.9061 Z-0.3073 I0.011 J0.1182
X10.4267 Y12.6697 Z-0.3203 I-0.011 J-0.1182
X10.4487 Y12.9061 Z-0.3334 I0.011 J0.1182
X10.4267 Y12.6697 Z-0.3464 I-0.011 J-0.1182
X10.4487 Y12.9061 Z-0.3594 I0.011 J0.1182
X10.4267 Y12.6697 Z-0.3724 I-0.011 J-0.1182
X10.4971 Y12.6851 Z-0.375 I0.011 J0.1182
X10.4221 Y12.815 I-0.0375 J0.065 F30.
X10.5721 Y12.5552 I0.075 J-0.1299
X10.3471 Y12.9449 I-0.1125 J0.1949
X10.6471 Y12.4252 I0.15 J-0.2598
X10.2721 Y13.0748 I-0.1875 J0.3248
X10.6471 Y12.4252 I0.1875 J-0.3248
G1 X10.6503 Y12.4274 Z-0.3744
X10.6531 Y12.4301 Z-0.3738
X10.6553 Y12.4328 Z-0.372
X10.657 Y12.4358 Z-0.3702
X10.6581 Y12.4384 Z-0.3675
X10.6589 Y12.441 Z-0.3647
X10.6595 Y12.4445 Z-0.3577
X10.6596 Y12.4457 Z-0.35
G0 Z0.6

M9
M30
