(X8 1IN POCKET TIGHT)
(T1  D=0.25 CR=0. - ZMIN=-0.34 - FLAT END MILL)
G90 G94 G91.1 G40 G49 G17
G20

(2D POCKET1)
M5
T1 M6
S15000 M3
g4 p5
G54
M8
G0 X0.8255 Y1.821
G43 Z0.6 H1
Z0.2
G1 Z-0.175 F60.
G19 G2 Y1.796 Z-0.2 J-0.025 K0.
G1 Y1.6209
Y-0.1206
G17 G3 X0.8379 Y-0.1331 I0.0125 J0.
G1 X0.927 Y-0.1334
G3 X0.9395 Y-0.1209 I0. J0.0125
G1 Y1.6206
G3 X0.9271 Y1.6331 I-0.0125 J0.
G1 X0.7218 Y1.6334
G3 X0.7093 Y1.6209 I0. J-0.0125
G1 Y-0.1205
G3 X0.7217 Y-0.133 I0.0125 J0.
G1 X1.0432 Y-0.1334
G3 X1.0557 Y-0.1209 I0. J0.0125
G1 Y1.6205
G3 X1.0433 Y1.633 I-0.0125 J0.
G1 X0.5175 Y1.6333
G3 X0.505 Y1.6208 I0. J-0.0125
G1 Y0.
Y-0.1206
G3 X0.5175 Y-0.1331 I0.0125 J0.
G1 X1.2475 Y-0.1333
G3 X1.26 Y-0.1208 I0. J0.0125
G1 Y1.5
Y1.6206
G3 X1.2491 Y1.633 I-0.0125 J0.
G1 X0.8395 Y1.6843
G3 X0.8255 Y1.6719 I-0.0016 J-0.0124
G19 G3 Y1.6469 Z-0.225 J0. K-0.025
G1 Z-0.315
G2 Y1.6219 Z-0.34 J-0.025 K0.
G1 Y1.6209
Y-0.1206
G17 G3 X0.8379 Y-0.1331 I0.0125 J0.
G1 X0.927 Y-0.1334
G3 X0.9395 Y-0.1209 I0. J0.0125
G1 Y1.6206
G3 X0.9271 Y1.6331 I-0.0125 J0.
G1 X0.7218 Y1.6334
G3 X0.7093 Y1.6209 I0. J-0.0125
G1 Y-0.1205
G3 X0.7217 Y-0.133 I0.0125 J0.
G1 X1.0432 Y-0.1334
G3 X1.0557 Y-0.1209 I0. J0.0125
G1 Y1.6205
G3 X1.0433 Y1.633 I-0.0125 J0.
G1 X0.5175 Y1.6333
G3 X0.505 Y1.6208 I0. J-0.0125
G1 Y0.
Y-0.1206
G3 X0.5175 Y-0.1331 I0.0125 J0.
G1 X1.2475 Y-0.1333
G3 X1.26 Y-0.1208 I0. J0.0125
G1 Y1.5
Y1.6206
X1.2597 Y1.6245
X1.2401 Y1.7479
X1.2395 Y1.7518 Z-0.3397
X1.2389 Y1.7556 Z-0.3388
X1.2384 Y1.7592 Z-0.3373
X1.2378 Y1.7625 Z-0.3352
X1.2374 Y1.7654 Z-0.3327
X1.237 Y1.7679 Z-0.3297
X1.2367 Y1.7699 Z-0.3263
X1.2364 Y1.7714 Z-0.3227
X1.2363 Y1.7723 Z-0.3189
X1.2362 Y1.7726 Z-0.315
G0 Z0.6

M9
M30
