(X8 1IN POCKET TIGHT)
(T1  D=0.25 CR=0. - ZMIN=-0.34 - FLAT END MILL)
G90 G94 G91.1 G40 G49 G17
G20

(2D POCKET1)
M5
T1 M6
S15000 M3
G54
M8
G0 X0.9329 Y-0.3211
G43 Z0.6 H1
Z0.2
G1 Z-0.175 F60.
G19 G3 Y-0.2961 Z-0.2 J0.025 K0.
G1 Y-0.1206
Y1.6209
G17 G3 X0.9203 Y1.6334 I-0.0125 J0.
G1 X0.8346 Y1.6331
G3 X0.8221 Y1.6206 I0.0001 J-0.0125
G1 Y-0.1209
G3 X0.8346 Y-0.1334 I0.0125 J0.
G1 X1.0324 Y-0.1332
G3 X1.0449 Y-0.1207 I0. J0.0125
G1 X1.0439 Y1.5
X1.0441 Y1.6206
G3 X1.0316 Y1.6331 I-0.0125 J0.
G1 X0.7218 Y1.6332
G3 X0.7093 Y1.6207 I0. J-0.0125
G1 Y-0.1208
G3 X0.7218 Y-0.1333 I0.0125 J0.
G1 X1.2375 Y-0.1331
G3 X1.25 Y-0.1206 I0. J0.0125
G1 Y1.5
Y1.6206
G3 X1.2375 Y1.6331 I-0.0125 J0.
G1 X0.5175
G3 X0.505 Y1.6206 I0. J-0.0125
G1 Y0.
Y-0.1206
G3 X0.5159 Y-0.133 I0.0125 J0.
G1 X0.9188 Y-0.1839
G3 X0.9329 Y-0.1715 I0.0016 J0.0124
G19 G2 Y-0.1465 Z-0.225 J0. K-0.025
G1 Z-0.315
G3 Y-0.1215 Z-0.34 J0.025 K0.
G1 Y-0.1206
Y1.6209
G17 G3 X0.9203 Y1.6334 I-0.0125 J0.
G1 X0.8346 Y1.6331
G3 X0.8221 Y1.6206 I0.0001 J-0.0125
G1 Y-0.1209
G3 X0.8346 Y-0.1334 I0.0125 J0.
G1 X1.0324 Y-0.1332
G3 X1.0449 Y-0.1207 I0. J0.0125
G1 X1.0439 Y1.5
X1.0441 Y1.6206
G3 X1.0316 Y1.6331 I-0.0125 J0.
G1 X0.7218 Y1.6332
G3 X0.7093 Y1.6207 I0. J-0.0125
G1 Y-0.1208
G3 X0.7218 Y-0.1333 I0.0125 J0.
G1 X1.2375 Y-0.1331
G3 X1.25 Y-0.1206 I0. J0.0125
G1 Y1.5
Y1.6206
G3 X1.2375 Y1.6331 I-0.0125 J0.
G1 X0.5175
G3 X0.505 Y1.6206 I0. J-0.0125
G1 Y0.
Y-0.1206
X0.5053 Y-0.1245
X0.5249 Y-0.2479
X0.5255 Y-0.2518 Z-0.3397
X0.5261 Y-0.2556 Z-0.3388
X0.5266 Y-0.2592 Z-0.3373
X0.5272 Y-0.2625 Z-0.3352
X0.5276 Y-0.2654 Z-0.3327
X0.528 Y-0.2679 Z-0.3297
X0.5283 Y-0.2699 Z-0.3263
X0.5286 Y-0.2714 Z-0.3227
X0.5287 Y-0.2723 Z-0.3189
X0.5288 Y-0.2726 Z-0.315
G0 Z0.6

M9
M30
