(1001)
(T1  D=3.175 CR=0. - ZMIN=-8.056 - FLAT END MILL)
G90 G94 G91.1 G40 G49 G17
G21
G0 Z15

(2D CONTOUR4)
M5
T1 M6
S16000 M3
G54
M8
G0 X83.48 Y27.924
G43 Z16. H1
Z6.
G1 Z3.818 F1600.
X83.473 Y27.921 Z3.747
X83.451 Y27.912 Z3.68
X83.416 Y27.898 Z3.62
X83.37 Y27.879 Z3.569
X83.314 Y27.857 Z3.531
X83.251 Y27.832 Z3.508
X83.186 Y27.805 Z3.5
X82.891 Y27.687
G3 X82.716 Y27.273 I0.119 J-0.294
G2 X76.579 Y12.394 Z3.189 I-10.675 J-4.302
G1 X50.77 Y1.321 Z2.699
G2 X32.192 Z2.365 I-9.289 J21.65
G1 X6.384 Y12.394 Z1.875
G2 Y33.548 Z1.407 I4.538 J10.577
G1 X32.192 Y44.621 Z0.917
G2 X41.481 Y46.53 Z0.75 I9.289 J-21.65
X50.77 Y44.621 I0. J-23.559
G1 X76.579 Y33.548
G2 Y12.394 I-4.538 J-10.577
G1 X50.77 Y1.321
G2 X32.192 I-9.289 J21.65
G1 X6.384 Y12.394
G2 Y33.548 I4.538 J10.577
G1 X32.192 Y44.621
G2 X41.481 Y46.53 I9.289 J-21.65
X50.77 Y44.621 Z0.583 I0. J-23.559
G1 X55.158 Y42.738 Z0.5
X76.579 Y33.548
G2 Y12.394 I-4.538 J-10.577
G1 X50.77 Y1.321
G2 X32.192 I-9.289 J21.65
G1 X6.384 Y12.394
G2 Y33.548 I4.538 J10.577
G1 X32.192 Y44.621
G2 X50.77 I9.289 J-21.65
G1 X55.158 Y42.738
X68.32 Y37.091 Z0.25
X76.579 Y33.548
G2 Y12.394 I-4.538 J-10.577
G1 X50.77 Y1.321
G2 X32.192 I-9.289 J21.65
G1 X6.384 Y12.394
G2 Y33.548 I4.538 J10.577
G1 X32.192 Y44.621
G2 X50.77 I9.289 J-21.65
G1 X68.32 Y37.091
X76.579 Y33.548 Z0.093
G2 X80.829 Y30.402 Z0. I-4.538 J-10.577
X76.579 Y12.394 I-8.789 J-7.431
G1 X50.77 Y1.321
G2 X32.192 I-9.289 J21.65
G1 X6.384 Y12.394
G2 Y33.548 I4.538 J10.577
G1 X32.192 Y44.621
G2 X50.77 I9.289 J-21.65
G1 X68.32 Y37.091
X76.579 Y33.548
G2 X80.829 Y30.402 I-4.538 J-10.577
X81.897 Y17.029 Z-0.25 I-8.789 J-7.431
X76.579 Y12.394 I-9.857 J5.942
G1 X50.77 Y1.321
G2 X32.192 I-9.289 J21.65
G1 X6.384 Y12.394
G2 Y33.548 I4.538 J10.577
G1 X32.192 Y44.621
G2 X50.77 I9.289 J-21.65
G1 X76.579 Y33.548
G2 X81.897 Y17.029 I-4.538 J-10.577
X76.579 Y12.394 Z-0.375 I-9.857 J5.942
G1 X70.006 Y9.574 Z-0.5
X50.77 Y1.321
G2 X32.192 I-9.289 J21.65
G1 X6.384 Y12.394
G2 Y33.548 I4.538 J10.577
G1 X32.192 Y44.621
G2 X50.77 I9.289 J-21.65
G1 X76.579 Y33.548
G2 Y12.394 I-4.538 J-10.577
G1 X70.006 Y9.574
X56.844 Y3.927 Z-0.75
X50.77 Y1.321
G2 X32.192 I-9.289 J21.65
G1 X6.384 Y12.394
G2 Y33.548 I4.538 J10.577
G1 X32.192 Y44.621
G2 X50.77 I9.289 J-21.65
G1 X76.579 Y33.548
G2 Y12.394 I-4.538 J-10.577
G1 X56.844 Y3.927
X50.77 Y1.321 Z-0.865
G2 X43.314 Y-0.516 Z-1. I-9.289 J21.65
X32.192 Y1.321 I-1.833 J23.487
G1 X6.384 Y12.394
G2 Y33.548 I4.538 J10.577
G1 X32.192 Y44.621
G2 X50.77 I9.289 J-21.65
G1 X76.579 Y33.548
G2 Y12.394 I-4.538 J-10.577
G1 X56.844 Y3.927
X50.77 Y1.321
G2 X43.314 Y-0.516 I-9.289 J21.65
X32.192 Y1.321 Z-1.199 I-1.833 J23.487
G1 X29.491 Y2.48 Z-1.25
X6.384 Y12.394
G2 Y33.548 I4.538 J10.577
G1 X32.192 Y44.621
G2 X50.77 I9.289 J-21.65
G1 X76.579 Y33.548
G2 Y12.394 I-4.538 J-10.577
G1 X50.77 Y1.321
G2 X32.192 I-9.289 J21.65
G1 X29.491 Y2.48
X16.329 Y8.127 Z-1.5
X6.384 Y12.394
G2 Y33.548 I4.538 J10.577
G1 X32.192 Y44.621
G2 X50.77 I9.289 J-21.65
G1 X76.579 Y33.548
G2 Y12.394 I-4.538 J-10.577
G1 X50.77 Y1.321
G2 X32.192 I-9.289 J21.65
G1 X16.329 Y8.127
X6.384 Y12.394 Z-1.689
G2 X3.424 Y14.239 Z-1.75 I4.538 J10.577
X6.384 Y33.548 I7.498 J8.732
G1 X32.192 Y44.621
G2 X50.77 I9.289 J-21.65
G1 X76.579 Y33.548
G2 Y12.394 I-4.538 J-10.577
G1 X50.77 Y1.321
G2 X32.192 I-9.289 J21.65
G1 X16.329 Y8.127
X6.384 Y12.394
G2 X3.424 Y14.239 I4.538 J10.577
X0.247 Y27.273 Z-2. I7.498 J8.732
X6.384 Y33.548 I10.675 J-4.302
G1 X32.192 Y44.621
G2 X50.77 I9.289 J-21.65
G1 X76.579 Y33.548
G2 Y12.394 I-4.538 J-10.577
G1 X50.77 Y1.321
G2 X32.192 I-9.289 J21.65
G1 X6.384 Y12.394
G2 X0.247 Y27.273 I4.538 J10.577
X6.384 Y33.548 Z-2.157 I10.675 J-4.302
G1 X11.271 Y35.645 Z-2.25
X32.192 Y44.621
G2 X50.77 I9.289 J-21.65
G1 X76.579 Y33.548
G2 Y12.394 I-4.538 J-10.577
G1 X50.77 Y1.321
G2 X32.192 I-9.289 J21.65
G1 X6.384 Y12.394
G2 Y33.548 I4.538 J10.577
G1 X11.271 Y35.645
X24.433 Y41.292 Z-2.5
X32.192 Y44.621
G2 X50.77 I9.289 J-21.65
G1 X76.579 Y33.548
G2 Y12.394 I-4.538 J-10.577
G1 X50.77 Y1.321
G2 X32.192 I-9.289 J21.65
G1 X6.384 Y12.394
G2 Y33.548 I4.538 J10.577
G1 X24.433 Y41.292
X32.192 Y44.621 Z-2.647
G2 X37.827 Y46.244 Z-2.75 I9.289 J-21.65
X50.77 Y44.621 I3.654 J-23.273
G1 X76.579 Y33.548
G2 Y12.394 I-4.538 J-10.577
G1 X50.77 Y1.321
G2 X32.192 I-9.289 J21.65
G1 X6.384 Y12.394
G2 Y33.548 I4.538 J10.577
G1 X24.433 Y41.292
X32.192 Y44.621
G2 X37.827 Y46.244 I9.289 J-21.65
X50.77 Y44.621 Z-2.981 I3.654 J-23.273
G1 X51.786 Y44.185 Z-3.
X76.579 Y33.548
G2 Y12.394 I-4.538 J-10.577
G1 X50.77 Y1.321
G2 X32.192 I-9.289 J21.65
G1 X6.384 Y12.394
G2 Y33.548 I4.538 J10.577
G1 X32.192 Y44.621
G2 X50.77 I9.289 J-21.65
G1 X51.786 Y44.185
X64.948 Y38.538 Z-3.25
X76.579 Y33.548
G2 Y12.394 I-4.538 J-10.577
G1 X50.77 Y1.321
G2 X32.192 I-9.289 J21.65
G1 X6.384 Y12.394
G2 Y33.548 I4.538 J10.577
G1 X32.192 Y44.621
G2 X50.77 I9.289 J-21.65
G1 X64.948 Y38.538
X76.579 Y33.548 Z-3.471
G2 X78.057 Y32.782 Z-3.5 I-4.538 J-10.577
X76.579 Y12.394 I-6.017 J-9.811
G1 X50.77 Y1.321
G2 X32.192 I-9.289 J21.65
G1 X6.384 Y12.394
G2 Y33.548 I4.538 J10.577
G1 X32.192 Y44.621
G2 X50.77 I9.289 J-21.65
G1 X64.948 Y38.538
X76.579 Y33.548
G2 X78.057 Y32.782 I-4.538 J-10.577
X83.263 Y20.418 Z-3.75 I-6.017 J-9.811
X76.579 Y12.394 I-11.223 J2.553
G1 X50.77 Y1.321
G2 X32.192 I-9.289 J21.65
G1 X6.384 Y12.394
G2 Y33.548 I4.538 J10.577
G1 X32.192 Y44.621
G2 X50.77 I9.289 J-21.65
G1 X76.579 Y33.548
G2 X83.263 Y20.418 I-4.538 J-10.577
X76.579 Y12.394 Z-3.939 I-11.223 J2.553
G1 X73.378 Y11.021 Z-4.
X50.77 Y1.321
G2 X32.192 I-9.289 J21.65
G1 X6.384 Y12.394
G2 Y33.548 I4.538 J10.577
G1 X32.192 Y44.621
G2 X50.77 I9.289 J-21.65
G1 X76.579 Y33.548
G2 Y12.394 I-4.538 J-10.577
G1 X73.378 Y11.021
X60.215 Y5.374 Z-4.25
X50.77 Y1.321
G2 X32.192 I-9.289 J21.65
G1 X6.384 Y12.394
G2 Y33.548 I4.538 J10.577
G1 X32.192 Y44.621
G2 X50.77 I9.289 J-21.65
G1 X76.579 Y33.548
G2 Y12.394 I-4.538 J-10.577
G1 X60.215 Y5.374
X50.77 Y1.321 Z-4.429
G2 X46.935 Y0.052 Z-4.5 I-9.289 J21.65
X32.192 Y1.321 I-5.454 J22.919
G1 X6.384 Y12.394
G2 Y33.548 I4.538 J10.577
G1 X32.192 Y44.621
G2 X50.77 I9.289 J-21.65
G1 X76.579 Y33.548
G2 Y12.394 I-4.538 J-10.577
G1 X60.215 Y5.374
X50.77 Y1.321
G2 X46.935 Y0.052 I-9.289 J21.65
X32.867 Y1.044 Z-4.75 I-5.454 J22.919
X32.192 Y1.321 I8.614 J21.927
G1 X6.384 Y12.394
G2 Y33.548 I4.538 J10.577
G1 X32.192 Y44.621
G2 X50.77 I9.289 J-21.65
G1 X76.579 Y33.548
G2 Y12.394 I-4.538 J-10.577
G1 X50.77 Y1.321
G2 X32.867 Y1.044 I-9.289 J21.65
X32.192 Y1.321 Z-4.763 I8.614 J21.927
G1 X19.7 Y6.681 Z-5.
X6.384 Y12.394
G2 Y33.548 I4.538 J10.577
G1 X32.192 Y44.621
G2 X50.77 I9.289 J-21.65
G1 X76.579 Y33.548
G2 Y12.394 I-4.538 J-10.577
G1 X50.77 Y1.321
G2 X32.192 I-9.289 J21.65
G1 X19.7 Y6.681
X6.538 Y12.328 Z-5.25
X6.384 Y12.394
G2 Y33.548 I4.538 J10.577
G1 X32.192 Y44.621
G2 X50.77 I9.289 J-21.65
G1 X76.579 Y33.548
G2 Y12.394 I-4.538 J-10.577
G1 X50.77 Y1.321
G2 X32.192 I-9.289 J21.65
G1 X6.538 Y12.328
X6.384 Y12.394 Z-5.253
G2 X-0.564 Y23.711 Z-5.5 I4.538 J10.577
X6.384 Y33.548 I11.486 J-0.74
G1 X32.192 Y44.621
G2 X50.77 I9.289 J-21.65
G1 X76.579 Y33.548
G2 Y12.394 I-4.538 J-10.577
G1 X50.77 Y1.321
G2 X32.192 I-9.289 J21.65
G1 X6.538 Y12.328
X6.384 Y12.394
G2 X-0.564 Y23.711 I4.538 J10.577
X6.384 Y33.548 Z-5.721 I11.486 J-0.74
G1 X7.899 Y34.198 Z-5.75
X32.192 Y44.621
G2 X50.77 I9.289 J-21.65
G1 X76.579 Y33.548
G2 Y12.394 I-4.538 J-10.577
G1 X50.77 Y1.321
G2 X32.192 I-9.289 J21.65
G1 X6.384 Y12.394
G2 Y33.548 I4.538 J10.577
G1 X7.899 Y34.198
X21.061 Y39.845 Z-6.
X32.192 Y44.621
G2 X50.77 I9.289 J-21.65
G1 X76.579 Y33.548
G2 Y12.394 I-4.538 J-10.577
G1 X50.77 Y1.321
G2 X32.192 I-9.289 J21.65
G1 X6.384 Y12.394
G2 Y33.548 I4.538 J10.577
G1 X21.061 Y39.845
X32.192 Y44.621 Z-6.211
G2 X34.261 Y45.396 Z-6.25 I9.289 J-21.65
X50.77 Y44.621 I7.22 J-22.425
G1 X76.579 Y33.548
G2 Y12.394 I-4.538 J-10.577
G1 X50.77 Y1.321
G2 X32.192 I-9.289 J21.65
G1 X6.384 Y12.394
G2 Y33.548 I4.538 J10.577
G1 X21.061 Y39.845
X32.192 Y44.621
G2 X34.261 Y45.396 I9.289 J-21.65
X48.364 Y45.502 Z-6.5 I7.22 J-22.425
X50.77 Y44.621 I-6.882 J-22.531
G1 X76.579 Y33.548
G2 Y12.394 I-4.538 J-10.577
G1 X50.77 Y1.321
G2 X32.192 I-9.289 J21.65
G1 X6.384 Y12.394
G2 Y33.548 I4.538 J10.577
G1 X32.192 Y44.621
G2 X48.364 Y45.502 I9.289 J-21.65
X50.77 Y44.621 Z-6.545 I-6.882 J-22.531
G1 X61.576 Y39.985 Z-6.75
X76.579 Y33.548
G2 Y12.394 I-4.538 J-10.577
G1 X50.77 Y1.321
G2 X32.192 I-9.289 J21.65
G1 X6.384 Y12.394
G2 Y33.548 I4.538 J10.577
G1 X32.192 Y44.621
G2 X50.77 I9.289 J-21.65
G1 X61.576 Y39.985
X74.738 Y34.338 Z-7.
X76.579 Y33.548
G2 Y12.394 I-4.538 J-10.577
G1 X50.77 Y1.321
G2 X32.192 I-9.289 J21.65
G1 X6.384 Y12.394
G2 Y33.548 I4.538 J10.577
G1 X32.192 Y44.621
G2 X50.77 I9.289 J-21.65
G1 X74.738 Y34.338
X76.579 Y33.548 Z-7.035
G2 X83.498 Y24.064 Z-7.25 I-4.538 J-10.577
X76.579 Y12.394 I-11.457 J-1.093
G1 X50.77 Y1.321
G2 X32.192 I-9.289 J21.65
G1 X6.384 Y12.394
G2 Y33.548 I4.538 J10.577
G1 X32.192 Y44.621
G2 X50.77 I9.289 J-21.65
G1 X74.738 Y34.338
X76.579 Y33.548
G2 X83.498 Y24.064 I-4.538 J-10.577
X76.749 Y12.469 Z-7.5 I-11.457 J-1.093
G1 X76.579 Y12.394
X50.77 Y1.321
G2 X32.192 I-9.289 J21.65
G1 X6.384 Y12.394
G2 Y33.548 I4.538 J10.577
G1 X32.192 Y44.621
G2 X50.77 I9.289 J-21.65
G1 X76.579 Y33.548
G2 X76.749 Y12.469 I-4.538 J-10.577
G1 X76.579 Y12.394 Z-7.503
X63.587 Y6.82 Z-7.75
X50.77 Y1.321
G2 X32.192 I-9.289 J21.65
G1 X6.384 Y12.394
G2 Y33.548 I4.538 J10.577
G1 X32.192 Y44.621
G2 X50.77 I9.289 J-21.65
G1 X76.579 Y33.548
G2 Y12.394 I-4.538 J-10.577
G1 X63.587 Y6.82
X55.525 Y3.361 Z-7.903
X50.77 Y1.321
G2 X32.192 I-9.289 J21.65
G1 X6.384 Y12.394
G2 Y33.548 I4.538 J10.577
G1 X32.192 Y44.621
G2 X50.77 I9.289 J-21.65
G1 X76.579 Y33.548
G2 Y12.394 I-4.538 J-10.577
G1 X63.587 Y6.82
X55.525 Y3.361
X50.77 Y1.321 Z-7.993
G2 X47.368 Y0.16 Z-8.056 I-9.289 J21.65
X32.192 Y1.321 I-5.887 J22.811
G1 X6.384 Y12.394
G2 Y33.548 I4.538 J10.577
G1 X32.192 Y44.621
G2 X50.77 I9.289 J-21.65
G1 X76.579 Y33.548
G2 Y12.394 I-4.538 J-10.577
G1 X55.525 Y3.361
X50.77 Y1.321
G2 X47.368 Y0.16 I-9.289 J21.65
G3 X47.14 Y-0.227 I0.079 J-0.307
G1 X47.22 Y-0.534
X47.237 Y-0.603 Z-8.048
X47.254 Y-0.668 Z-8.025
X47.269 Y-0.726 Z-7.987
X47.282 Y-0.775 Z-7.937
X47.291 Y-0.811 Z-7.877
X47.297 Y-0.834 Z-7.809
X47.299 Y-0.842 Z-7.739
G0 Z16.

(2D CONTOUR4)
G0 X83.48 Y129.524
Z16.
Z6.
G1 Z3.818 F1600.
X83.473 Y129.521 Z3.747
X83.451 Y129.512 Z3.68
X83.416 Y129.498 Z3.62
X83.37 Y129.479 Z3.569
X83.314 Y129.457 Z3.531
X83.251 Y129.432 Z3.508
X83.186 Y129.405 Z3.5
X82.891 Y129.287
G3 X82.716 Y128.873 I0.119 J-0.294
G2 X76.579 Y113.994 Z3.189 I-10.675 J-4.302
G1 X50.77 Y102.921 Z2.699
G2 X32.192 Z2.365 I-9.289 J21.65
G1 X6.384 Y113.994 Z1.875
G2 Y135.148 Z1.407 I4.538 J10.577
G1 X32.192 Y146.221 Z0.917
G2 X41.481 Y148.13 Z0.75 I9.289 J-21.65
X50.77 Y146.221 I0. J-23.559
G1 X76.579 Y135.148
G2 Y113.994 I-4.538 J-10.577
G1 X50.77 Y102.921
G2 X32.192 I-9.289 J21.65
G1 X6.384 Y113.994
G2 Y135.148 I4.538 J10.577
G1 X32.192 Y146.221
G2 X41.481 Y148.13 I9.289 J-21.65
X50.77 Y146.221 Z0.583 I0. J-23.559
G1 X55.158 Y144.338 Z0.5
X76.579 Y135.148
G2 Y113.994 I-4.538 J-10.577
G1 X50.77 Y102.921
G2 X32.192 I-9.289 J21.65
G1 X6.384 Y113.994
G2 Y135.148 I4.538 J10.577
G1 X32.192 Y146.221
G2 X50.77 I9.289 J-21.65
G1 X55.158 Y144.338
X68.32 Y138.691 Z0.25
X76.579 Y135.148
G2 Y113.994 I-4.538 J-10.577
G1 X50.77 Y102.921
G2 X32.192 I-9.289 J21.65
G1 X6.384 Y113.994
G2 Y135.148 I4.538 J10.577
G1 X32.192 Y146.221
G2 X50.77 I9.289 J-21.65
G1 X68.32 Y138.691
X76.579 Y135.148 Z0.093
G2 X80.829 Y132.002 Z0. I-4.538 J-10.577
X76.579 Y113.994 I-8.789 J-7.431
G1 X50.77 Y102.921
G2 X32.192 I-9.289 J21.65
G1 X6.384 Y113.994
G2 Y135.148 I4.538 J10.577
G1 X32.192 Y146.221
G2 X50.77 I9.289 J-21.65
G1 X68.32 Y138.691
X76.579 Y135.148
G2 X80.829 Y132.002 I-4.538 J-10.577
X81.897 Y118.629 Z-0.25 I-8.789 J-7.431
X76.579 Y113.994 I-9.857 J5.942
G1 X50.77 Y102.921
G2 X32.192 I-9.289 J21.65
G1 X6.384 Y113.994
G2 Y135.148 I4.538 J10.577
G1 X32.192 Y146.221
G2 X50.77 I9.289 J-21.65
G1 X76.579 Y135.148
G2 X81.897 Y118.629 I-4.538 J-10.577
X76.579 Y113.994 Z-0.375 I-9.857 J5.942
G1 X70.006 Y111.174 Z-0.5
X50.77 Y102.921
G2 X32.192 I-9.289 J21.65
G1 X6.384 Y113.994
G2 Y135.148 I4.538 J10.577
G1 X32.192 Y146.221
G2 X50.77 I9.289 J-21.65
G1 X76.579 Y135.148
G2 Y113.994 I-4.538 J-10.577
G1 X70.006 Y111.174
X56.844 Y105.527 Z-0.75
X50.77 Y102.921
G2 X32.192 I-9.289 J21.65
G1 X6.384 Y113.994
G2 Y135.148 I4.538 J10.577
G1 X32.192 Y146.221
G2 X50.77 I9.289 J-21.65
G1 X76.579 Y135.148
G2 Y113.994 I-4.538 J-10.577
G1 X56.844 Y105.527
X50.77 Y102.921 Z-0.865
G2 X43.314 Y101.084 Z-1. I-9.289 J21.65
X32.192 Y102.921 I-1.833 J23.487
G1 X6.384 Y113.994
G2 Y135.148 I4.538 J10.577
G1 X32.192 Y146.221
G2 X50.77 I9.289 J-21.65
G1 X76.579 Y135.148
G2 Y113.994 I-4.538 J-10.577
G1 X56.844 Y105.527
X50.77 Y102.921
G2 X43.314 Y101.084 I-9.289 J21.65
X32.192 Y102.921 Z-1.199 I-1.833 J23.487
G1 X29.491 Y104.08 Z-1.25
X6.384 Y113.994
G2 Y135.148 I4.538 J10.577
G1 X32.192 Y146.221
G2 X50.77 I9.289 J-21.65
G1 X76.579 Y135.148
G2 Y113.994 I-4.538 J-10.577
G1 X50.77 Y102.921
G2 X32.192 I-9.289 J21.65
G1 X29.491 Y104.08
X16.329 Y109.727 Z-1.5
X6.384 Y113.994
G2 Y135.148 I4.538 J10.577
G1 X32.192 Y146.221
G2 X50.77 I9.289 J-21.65
G1 X76.579 Y135.148
G2 Y113.994 I-4.538 J-10.577
G1 X50.77 Y102.921
G2 X32.192 I-9.289 J21.65
G1 X16.329 Y109.727
X6.384 Y113.994 Z-1.689
G2 X3.424 Y115.839 Z-1.75 I4.538 J10.577
X6.384 Y135.148 I7.498 J8.732
G1 X32.192 Y146.221
G2 X50.77 I9.289 J-21.65
G1 X76.579 Y135.148
G2 Y113.994 I-4.538 J-10.577
G1 X50.77 Y102.921
G2 X32.192 I-9.289 J21.65
G1 X16.329 Y109.727
X6.384 Y113.994
G2 X3.424 Y115.839 I4.538 J10.577
X0.247 Y128.873 Z-2. I7.498 J8.732
X6.384 Y135.148 I10.675 J-4.302
G1 X32.192 Y146.221
G2 X50.77 I9.289 J-21.65
G1 X76.579 Y135.148
G2 Y113.994 I-4.538 J-10.577
G1 X50.77 Y102.921
G2 X32.192 I-9.289 J21.65
G1 X6.384 Y113.994
G2 X0.247 Y128.873 I4.538 J10.577
X6.384 Y135.148 Z-2.157 I10.675 J-4.302
G1 X11.271 Y137.245 Z-2.25
X32.192 Y146.221
G2 X50.77 I9.289 J-21.65
G1 X76.579 Y135.148
G2 Y113.994 I-4.538 J-10.577
G1 X50.77 Y102.921
G2 X32.192 I-9.289 J21.65
G1 X6.384 Y113.994
G2 Y135.148 I4.538 J10.577
G1 X11.271 Y137.245
X24.433 Y142.892 Z-2.5
X32.192 Y146.221
G2 X50.77 I9.289 J-21.65
G1 X76.579 Y135.148
G2 Y113.994 I-4.538 J-10.577
G1 X50.77 Y102.921
G2 X32.192 I-9.289 J21.65
G1 X6.384 Y113.994
G2 Y135.148 I4.538 J10.577
G1 X24.433 Y142.892
X32.192 Y146.221 Z-2.647
G2 X37.827 Y147.844 Z-2.75 I9.289 J-21.65
X50.77 Y146.221 I3.654 J-23.273
G1 X76.579 Y135.148
G2 Y113.994 I-4.538 J-10.577
G1 X50.77 Y102.921
G2 X32.192 I-9.289 J21.65
G1 X6.384 Y113.994
G2 Y135.148 I4.538 J10.577
G1 X24.433 Y142.892
X32.192 Y146.221
G2 X37.827 Y147.844 I9.289 J-21.65
X50.77 Y146.221 Z-2.981 I3.654 J-23.273
G1 X51.786 Y145.785 Z-3.
X76.579 Y135.148
G2 Y113.994 I-4.538 J-10.577
G1 X50.77 Y102.921
G2 X32.192 I-9.289 J21.65
G1 X6.384 Y113.994
G2 Y135.148 I4.538 J10.577
G1 X32.192 Y146.221
G2 X50.77 I9.289 J-21.65
G1 X51.786 Y145.785
X64.948 Y140.138 Z-3.25
X76.579 Y135.148
G2 Y113.994 I-4.538 J-10.577
G1 X50.77 Y102.921
G2 X32.192 I-9.289 J21.65
G1 X6.384 Y113.994
G2 Y135.148 I4.538 J10.577
G1 X32.192 Y146.221
G2 X50.77 I9.289 J-21.65
G1 X64.948 Y140.138
X76.579 Y135.148 Z-3.471
G2 X78.057 Y134.382 Z-3.5 I-4.538 J-10.577
X76.579 Y113.994 I-6.017 J-9.811
G1 X50.77 Y102.921
G2 X32.192 I-9.289 J21.65
G1 X6.384 Y113.994
G2 Y135.148 I4.538 J10.577
G1 X32.192 Y146.221
G2 X50.77 I9.289 J-21.65
G1 X64.948 Y140.138
X76.579 Y135.148
G2 X78.057 Y134.382 I-4.538 J-10.577
X83.263 Y122.018 Z-3.75 I-6.017 J-9.811
X76.579 Y113.994 I-11.223 J2.553
G1 X50.77 Y102.921
G2 X32.192 I-9.289 J21.65
G1 X6.384 Y113.994
G2 Y135.148 I4.538 J10.577
G1 X32.192 Y146.221
G2 X50.77 I9.289 J-21.65
G1 X76.579 Y135.148
G2 X83.263 Y122.018 I-4.538 J-10.577
X76.579 Y113.994 Z-3.939 I-11.223 J2.553
G1 X73.378 Y112.621 Z-4.
X50.77 Y102.921
G2 X32.192 I-9.289 J21.65
G1 X6.384 Y113.994
G2 Y135.148 I4.538 J10.577
G1 X32.192 Y146.221
G2 X50.77 I9.289 J-21.65
G1 X76.579 Y135.148
G2 Y113.994 I-4.538 J-10.577
G1 X73.378 Y112.621
X60.215 Y106.974 Z-4.25
X50.77 Y102.921
G2 X32.192 I-9.289 J21.65
G1 X6.384 Y113.994
G2 Y135.148 I4.538 J10.577
G1 X32.192 Y146.221
G2 X50.77 I9.289 J-21.65
G1 X76.579 Y135.148
G2 Y113.994 I-4.538 J-10.577
G1 X60.215 Y106.974
X50.77 Y102.921 Z-4.429
G2 X46.935 Y101.652 Z-4.5 I-9.289 J21.65
X32.192 Y102.921 I-5.454 J22.919
G1 X6.384 Y113.994
G2 Y135.148 I4.538 J10.577
G1 X32.192 Y146.221
G2 X50.77 I9.289 J-21.65
G1 X76.579 Y135.148
G2 Y113.994 I-4.538 J-10.577
G1 X60.215 Y106.974
X50.77 Y102.921
G2 X46.935 Y101.652 I-9.289 J21.65
X32.867 Y102.644 Z-4.75 I-5.454 J22.919
X32.192 Y102.921 I8.614 J21.927
G1 X6.384 Y113.994
G2 Y135.148 I4.538 J10.577
G1 X32.192 Y146.221
G2 X50.77 I9.289 J-21.65
G1 X76.579 Y135.148
G2 Y113.994 I-4.538 J-10.577
G1 X50.77 Y102.921
G2 X32.867 Y102.644 I-9.289 J21.65
X32.192 Y102.921 Z-4.763 I8.614 J21.927
G1 X19.7 Y108.281 Z-5.
X6.384 Y113.994
G2 Y135.148 I4.538 J10.577
G1 X32.192 Y146.221
G2 X50.77 I9.289 J-21.65
G1 X76.579 Y135.148
G2 Y113.994 I-4.538 J-10.577
G1 X50.77 Y102.921
G2 X32.192 I-9.289 J21.65
G1 X19.7 Y108.281
X6.538 Y113.928 Z-5.25
X6.384 Y113.994
G2 Y135.148 I4.538 J10.577
G1 X32.192 Y146.221
G2 X50.77 I9.289 J-21.65
G1 X76.579 Y135.148
G2 Y113.994 I-4.538 J-10.577
G1 X50.77 Y102.921
G2 X32.192 I-9.289 J21.65
G1 X6.538 Y113.928
X6.384 Y113.994 Z-5.253
G2 X-0.564 Y125.311 Z-5.5 I4.538 J10.577
X6.384 Y135.148 I11.486 J-0.74
G1 X32.192 Y146.221
G2 X50.77 I9.289 J-21.65
G1 X76.579 Y135.148
G2 Y113.994 I-4.538 J-10.577
G1 X50.77 Y102.921
G2 X32.192 I-9.289 J21.65
G1 X6.538 Y113.928
X6.384 Y113.994
G2 X-0.564 Y125.311 I4.538 J10.577
X6.384 Y135.148 Z-5.721 I11.486 J-0.74
G1 X7.899 Y135.798 Z-5.75
X32.192 Y146.221
G2 X50.77 I9.289 J-21.65
G1 X76.579 Y135.148
G2 Y113.994 I-4.538 J-10.577
G1 X50.77 Y102.921
G2 X32.192 I-9.289 J21.65
G1 X6.384 Y113.994
G2 Y135.148 I4.538 J10.577
G1 X7.899 Y135.798
X21.061 Y141.445 Z-6.
X32.192 Y146.221
G2 X50.77 I9.289 J-21.65
G1 X76.579 Y135.148
G2 Y113.994 I-4.538 J-10.577
G1 X50.77 Y102.921
G2 X32.192 I-9.289 J21.65
G1 X6.384 Y113.994
G2 Y135.148 I4.538 J10.577
G1 X21.061 Y141.445
X32.192 Y146.221 Z-6.211
G2 X34.261 Y146.996 Z-6.25 I9.289 J-21.65
X50.77 Y146.221 I7.22 J-22.425
G1 X76.579 Y135.148
G2 Y113.994 I-4.538 J-10.577
G1 X50.77 Y102.921
G2 X32.192 I-9.289 J21.65
G1 X6.384 Y113.994
G2 Y135.148 I4.538 J10.577
G1 X21.061 Y141.445
X32.192 Y146.221
G2 X34.261 Y146.996 I9.289 J-21.65
X48.364 Y147.102 Z-6.5 I7.22 J-22.425
X50.77 Y146.221 I-6.882 J-22.531
G1 X76.579 Y135.148
G2 Y113.994 I-4.538 J-10.577
G1 X50.77 Y102.921
G2 X32.192 I-9.289 J21.65
G1 X6.384 Y113.994
G2 Y135.148 I4.538 J10.577
G1 X32.192 Y146.221
G2 X48.364 Y147.102 I9.289 J-21.65
X50.77 Y146.221 Z-6.545 I-6.882 J-22.531
G1 X61.576 Y141.585 Z-6.75
X76.579 Y135.148
G2 Y113.994 I-4.538 J-10.577
G1 X50.77 Y102.921
G2 X32.192 I-9.289 J21.65
G1 X6.384 Y113.994
G2 Y135.148 I4.538 J10.577
G1 X32.192 Y146.221
G2 X50.77 I9.289 J-21.65
G1 X61.576 Y141.585
X74.738 Y135.938 Z-7.
X76.579 Y135.148
G2 Y113.994 I-4.538 J-10.577
G1 X50.77 Y102.921
G2 X32.192 I-9.289 J21.65
G1 X6.384 Y113.994
G2 Y135.148 I4.538 J10.577
G1 X32.192 Y146.221
G2 X50.77 I9.289 J-21.65
G1 X74.738 Y135.938
X76.579 Y135.148 Z-7.035
G2 X83.498 Y125.664 Z-7.25 I-4.538 J-10.577
X76.579 Y113.994 I-11.457 J-1.093
G1 X50.77 Y102.921
G2 X32.192 I-9.289 J21.65
G1 X6.384 Y113.994
G2 Y135.148 I4.538 J10.577
G1 X32.192 Y146.221
G2 X50.77 I9.289 J-21.65
G1 X74.738 Y135.938
X76.579 Y135.148
G2 X83.498 Y125.664 I-4.538 J-10.577
X76.749 Y114.069 Z-7.5 I-11.457 J-1.093
G1 X76.579 Y113.994
X50.77 Y102.921
G2 X32.192 I-9.289 J21.65
G1 X6.384 Y113.994
G2 Y135.148 I4.538 J10.577
G1 X32.192 Y146.221
G2 X50.77 I9.289 J-21.65
G1 X76.579 Y135.148
G2 X76.749 Y114.069 I-4.538 J-10.577
G1 X76.579 Y113.994 Z-7.503
X63.587 Y108.42 Z-7.75
X50.77 Y102.921
G2 X32.192 I-9.289 J21.65
G1 X6.384 Y113.994
G2 Y135.148 I4.538 J10.577
G1 X32.192 Y146.221
G2 X50.77 I9.289 J-21.65
G1 X76.579 Y135.148
G2 Y113.994 I-4.538 J-10.577
G1 X63.587 Y108.42
X55.525 Y104.961 Z-7.903
X50.77 Y102.921
G2 X32.192 I-9.289 J21.65
G1 X6.384 Y113.994
G2 Y135.148 I4.538 J10.577
G1 X32.192 Y146.221
G2 X50.77 I9.289 J-21.65
G1 X76.579 Y135.148
G2 Y113.994 I-4.538 J-10.577
G1 X63.587 Y108.42
X55.525 Y104.961
X50.77 Y102.921 Z-7.993
G2 X47.368 Y101.76 Z-8.056 I-9.289 J21.65
X32.192 Y102.921 I-5.887 J22.811
G1 X6.384 Y113.994
G2 Y135.148 I4.538 J10.577
G1 X32.192 Y146.221
G2 X50.77 I9.289 J-21.65
G1 X76.579 Y135.148
G2 Y113.994 I-4.538 J-10.577
G1 X55.525 Y104.961
X50.77 Y102.921
G2 X47.368 Y101.76 I-9.289 J21.65
G3 X47.14 Y101.373 I0.079 J-0.307
G1 X47.22 Y101.066
X47.237 Y100.997 Z-8.048
X47.254 Y100.932 Z-8.025
X47.269 Y100.874 Z-7.987
X47.282 Y100.825 Z-7.937
X47.291 Y100.789 Z-7.877
X47.297 Y100.766 Z-7.809
X47.299 Y100.758 Z-7.739
G0 Z16.

(2D CONTOUR4)
G0 X83.48 Y78.724
Z16.
Z6.
G1 Z3.818 F1600.
X83.473 Y78.721 Z3.747
X83.451 Y78.712 Z3.68
X83.416 Y78.698 Z3.62
X83.37 Y78.679 Z3.569
X83.314 Y78.657 Z3.531
X83.251 Y78.632 Z3.508
X83.186 Y78.605 Z3.5
X82.891 Y78.487
G3 X82.716 Y78.073 I0.119 J-0.294
G2 X76.579 Y63.194 Z3.189 I-10.675 J-4.302
G1 X50.77 Y52.121 Z2.699
G2 X32.192 Z2.365 I-9.289 J21.65
G1 X6.384 Y63.194 Z1.875
G2 Y84.348 Z1.407 I4.538 J10.577
G1 X32.192 Y95.421 Z0.917
G2 X41.481 Y97.33 Z0.75 I9.289 J-21.65
X50.77 Y95.421 I0. J-23.559
G1 X76.579 Y84.348
G2 Y63.194 I-4.538 J-10.577
G1 X50.77 Y52.121
G2 X32.192 I-9.289 J21.65
G1 X6.384 Y63.194
G2 Y84.348 I4.538 J10.577
G1 X32.192 Y95.421
G2 X41.481 Y97.33 I9.289 J-21.65
X50.77 Y95.421 Z0.583 I0. J-23.559
G1 X55.158 Y93.538 Z0.5
X76.579 Y84.348
G2 Y63.194 I-4.538 J-10.577
G1 X50.77 Y52.121
G2 X32.192 I-9.289 J21.65
G1 X6.384 Y63.194
G2 Y84.348 I4.538 J10.577
G1 X32.192 Y95.421
G2 X50.77 I9.289 J-21.65
G1 X55.158 Y93.538
X68.32 Y87.891 Z0.25
X76.579 Y84.348
G2 Y63.194 I-4.538 J-10.577
G1 X50.77 Y52.121
G2 X32.192 I-9.289 J21.65
G1 X6.384 Y63.194
G2 Y84.348 I4.538 J10.577
G1 X32.192 Y95.421
G2 X50.77 I9.289 J-21.65
G1 X68.32 Y87.891
X76.579 Y84.348 Z0.093
G2 X80.829 Y81.202 Z0. I-4.538 J-10.577
X76.579 Y63.194 I-8.789 J-7.431
G1 X50.77 Y52.121
G2 X32.192 I-9.289 J21.65
G1 X6.384 Y63.194
G2 Y84.348 I4.538 J10.577
G1 X32.192 Y95.421
G2 X50.77 I9.289 J-21.65
G1 X68.32 Y87.891
X76.579 Y84.348
G2 X80.829 Y81.202 I-4.538 J-10.577
X81.897 Y67.829 Z-0.25 I-8.789 J-7.431
X76.579 Y63.194 I-9.857 J5.942
G1 X50.77 Y52.121
G2 X32.192 I-9.289 J21.65
G1 X6.384 Y63.194
G2 Y84.348 I4.538 J10.577
G1 X32.192 Y95.421
G2 X50.77 I9.289 J-21.65
G1 X76.579 Y84.348
G2 X81.897 Y67.829 I-4.538 J-10.577
X76.579 Y63.194 Z-0.375 I-9.857 J5.942
G1 X70.006 Y60.374 Z-0.5
X50.77 Y52.121
G2 X32.192 I-9.289 J21.65
G1 X6.384 Y63.194
G2 Y84.348 I4.538 J10.577
G1 X32.192 Y95.421
G2 X50.77 I9.289 J-21.65
G1 X76.579 Y84.348
G2 Y63.194 I-4.538 J-10.577
G1 X70.006 Y60.374
X56.844 Y54.727 Z-0.75
X50.77 Y52.121
G2 X32.192 I-9.289 J21.65
G1 X6.384 Y63.194
G2 Y84.348 I4.538 J10.577
G1 X32.192 Y95.421
G2 X50.77 I9.289 J-21.65
G1 X76.579 Y84.348
G2 Y63.194 I-4.538 J-10.577
G1 X56.844 Y54.727
X50.77 Y52.121 Z-0.865
G2 X43.314 Y50.284 Z-1. I-9.289 J21.65
X32.192 Y52.121 I-1.833 J23.487
G1 X6.384 Y63.194
G2 Y84.348 I4.538 J10.577
G1 X32.192 Y95.421
G2 X50.77 I9.289 J-21.65
G1 X76.579 Y84.348
G2 Y63.194 I-4.538 J-10.577
G1 X56.844 Y54.727
X50.77 Y52.121
G2 X43.314 Y50.284 I-9.289 J21.65
X32.192 Y52.121 Z-1.199 I-1.833 J23.487
G1 X29.491 Y53.28 Z-1.25
X6.384 Y63.194
G2 Y84.348 I4.538 J10.577
G1 X32.192 Y95.421
G2 X50.77 I9.289 J-21.65
G1 X76.579 Y84.348
G2 Y63.194 I-4.538 J-10.577
G1 X50.77 Y52.121
G2 X32.192 I-9.289 J21.65
G1 X29.491 Y53.28
X16.329 Y58.927 Z-1.5
X6.384 Y63.194
G2 Y84.348 I4.538 J10.577
G1 X32.192 Y95.421
G2 X50.77 I9.289 J-21.65
G1 X76.579 Y84.348
G2 Y63.194 I-4.538 J-10.577
G1 X50.77 Y52.121
G2 X32.192 I-9.289 J21.65
G1 X16.329 Y58.927
X6.384 Y63.194 Z-1.689
G2 X3.424 Y65.039 Z-1.75 I4.538 J10.577
X6.384 Y84.348 I7.498 J8.732
G1 X32.192 Y95.421
G2 X50.77 I9.289 J-21.65
G1 X76.579 Y84.348
G2 Y63.194 I-4.538 J-10.577
G1 X50.77 Y52.121
G2 X32.192 I-9.289 J21.65
G1 X16.329 Y58.927
X6.384 Y63.194
G2 X3.424 Y65.039 I4.538 J10.577
X0.247 Y78.073 Z-2. I7.498 J8.732
X6.384 Y84.348 I10.675 J-4.302
G1 X32.192 Y95.421
G2 X50.77 I9.289 J-21.65
G1 X76.579 Y84.348
G2 Y63.194 I-4.538 J-10.577
G1 X50.77 Y52.121
G2 X32.192 I-9.289 J21.65
G1 X6.384 Y63.194
G2 X0.247 Y78.073 I4.538 J10.577
X6.384 Y84.348 Z-2.157 I10.675 J-4.302
G1 X11.271 Y86.445 Z-2.25
X32.192 Y95.421
G2 X50.77 I9.289 J-21.65
G1 X76.579 Y84.348
G2 Y63.194 I-4.538 J-10.577
G1 X50.77 Y52.121
G2 X32.192 I-9.289 J21.65
G1 X6.384 Y63.194
G2 Y84.348 I4.538 J10.577
G1 X11.271 Y86.445
X24.433 Y92.092 Z-2.5
X32.192 Y95.421
G2 X50.77 I9.289 J-21.65
G1 X76.579 Y84.348
G2 Y63.194 I-4.538 J-10.577
G1 X50.77 Y52.121
G2 X32.192 I-9.289 J21.65
G1 X6.384 Y63.194
G2 Y84.348 I4.538 J10.577
G1 X24.433 Y92.092
X32.192 Y95.421 Z-2.647
G2 X37.827 Y97.044 Z-2.75 I9.289 J-21.65
X50.77 Y95.421 I3.654 J-23.273
G1 X76.579 Y84.348
G2 Y63.194 I-4.538 J-10.577
G1 X50.77 Y52.121
G2 X32.192 I-9.289 J21.65
G1 X6.384 Y63.194
G2 Y84.348 I4.538 J10.577
G1 X24.433 Y92.092
X32.192 Y95.421
G2 X37.827 Y97.044 I9.289 J-21.65
X50.77 Y95.421 Z-2.981 I3.654 J-23.273
G1 X51.786 Y94.985 Z-3.
X76.579 Y84.348
G2 Y63.194 I-4.538 J-10.577
G1 X50.77 Y52.121
G2 X32.192 I-9.289 J21.65
G1 X6.384 Y63.194
G2 Y84.348 I4.538 J10.577
G1 X32.192 Y95.421
G2 X50.77 I9.289 J-21.65
G1 X51.786 Y94.985
X64.948 Y89.338 Z-3.25
X76.579 Y84.348
G2 Y63.194 I-4.538 J-10.577
G1 X50.77 Y52.121
G2 X32.192 I-9.289 J21.65
G1 X6.384 Y63.194
G2 Y84.348 I4.538 J10.577
G1 X32.192 Y95.421
G2 X50.77 I9.289 J-21.65
G1 X64.948 Y89.338
X76.579 Y84.348 Z-3.471
G2 X78.057 Y83.582 Z-3.5 I-4.538 J-10.577
X76.579 Y63.194 I-6.017 J-9.811
G1 X50.77 Y52.121
G2 X32.192 I-9.289 J21.65
G1 X6.384 Y63.194
G2 Y84.348 I4.538 J10.577
G1 X32.192 Y95.421
G2 X50.77 I9.289 J-21.65
G1 X64.948 Y89.338
X76.579 Y84.348
G2 X78.057 Y83.582 I-4.538 J-10.577
X83.263 Y71.218 Z-3.75 I-6.017 J-9.811
X76.579 Y63.194 I-11.223 J2.553
G1 X50.77 Y52.121
G2 X32.192 I-9.289 J21.65
G1 X6.384 Y63.194
G2 Y84.348 I4.538 J10.577
G1 X32.192 Y95.421
G2 X50.77 I9.289 J-21.65
G1 X76.579 Y84.348
G2 X83.263 Y71.218 I-4.538 J-10.577
X76.579 Y63.194 Z-3.939 I-11.223 J2.553
G1 X73.378 Y61.821 Z-4.
X50.77 Y52.121
G2 X32.192 I-9.289 J21.65
G1 X6.384 Y63.194
G2 Y84.348 I4.538 J10.577
G1 X32.192 Y95.421
G2 X50.77 I9.289 J-21.65
G1 X76.579 Y84.348
G2 Y63.194 I-4.538 J-10.577
G1 X73.378 Y61.821
X60.215 Y56.174 Z-4.25
X50.77 Y52.121
G2 X32.192 I-9.289 J21.65
G1 X6.384 Y63.194
G2 Y84.348 I4.538 J10.577
G1 X32.192 Y95.421
G2 X50.77 I9.289 J-21.65
G1 X76.579 Y84.348
G2 Y63.194 I-4.538 J-10.577
G1 X60.215 Y56.174
X50.77 Y52.121 Z-4.429
G2 X46.935 Y50.852 Z-4.5 I-9.289 J21.65
X32.192 Y52.121 I-5.454 J22.919
G1 X6.384 Y63.194
G2 Y84.348 I4.538 J10.577
G1 X32.192 Y95.421
G2 X50.77 I9.289 J-21.65
G1 X76.579 Y84.348
G2 Y63.194 I-4.538 J-10.577
G1 X60.215 Y56.174
X50.77 Y52.121
G2 X46.935 Y50.852 I-9.289 J21.65
X32.867 Y51.844 Z-4.75 I-5.454 J22.919
X32.192 Y52.121 I8.614 J21.927
G1 X6.384 Y63.194
G2 Y84.348 I4.538 J10.577
G1 X32.192 Y95.421
G2 X50.77 I9.289 J-21.65
G1 X76.579 Y84.348
G2 Y63.194 I-4.538 J-10.577
G1 X50.77 Y52.121
G2 X32.867 Y51.844 I-9.289 J21.65
X32.192 Y52.121 Z-4.763 I8.614 J21.927
G1 X19.7 Y57.481 Z-5.
X6.384 Y63.194
G2 Y84.348 I4.538 J10.577
G1 X32.192 Y95.421
G2 X50.77 I9.289 J-21.65
G1 X76.579 Y84.348
G2 Y63.194 I-4.538 J-10.577
G1 X50.77 Y52.121
G2 X32.192 I-9.289 J21.65
G1 X19.7 Y57.481
X6.538 Y63.128 Z-5.25
X6.384 Y63.194
G2 Y84.348 I4.538 J10.577
G1 X32.192 Y95.421
G2 X50.77 I9.289 J-21.65
G1 X76.579 Y84.348
G2 Y63.194 I-4.538 J-10.577
G1 X50.77 Y52.121
G2 X32.192 I-9.289 J21.65
G1 X6.538 Y63.128
X6.384 Y63.194 Z-5.253
G2 X-0.564 Y74.511 Z-5.5 I4.538 J10.577
X6.384 Y84.348 I11.486 J-0.74
G1 X32.192 Y95.421
G2 X50.77 I9.289 J-21.65
G1 X76.579 Y84.348
G2 Y63.194 I-4.538 J-10.577
G1 X50.77 Y52.121
G2 X32.192 I-9.289 J21.65
G1 X6.538 Y63.128
X6.384 Y63.194
G2 X-0.564 Y74.511 I4.538 J10.577
X6.384 Y84.348 Z-5.721 I11.486 J-0.74
G1 X7.899 Y84.998 Z-5.75
X32.192 Y95.421
G2 X50.77 I9.289 J-21.65
G1 X76.579 Y84.348
G2 Y63.194 I-4.538 J-10.577
G1 X50.77 Y52.121
G2 X32.192 I-9.289 J21.65
G1 X6.384 Y63.194
G2 Y84.348 I4.538 J10.577
G1 X7.899 Y84.998
X21.061 Y90.645 Z-6.
X32.192 Y95.421
G2 X50.77 I9.289 J-21.65
G1 X76.579 Y84.348
G2 Y63.194 I-4.538 J-10.577
G1 X50.77 Y52.121
G2 X32.192 I-9.289 J21.65
G1 X6.384 Y63.194
G2 Y84.348 I4.538 J10.577
G1 X21.061 Y90.645
X32.192 Y95.421 Z-6.211
G2 X34.261 Y96.196 Z-6.25 I9.289 J-21.65
X50.77 Y95.421 I7.22 J-22.425
G1 X76.579 Y84.348
G2 Y63.194 I-4.538 J-10.577
G1 X50.77 Y52.121
G2 X32.192 I-9.289 J21.65
G1 X6.384 Y63.194
G2 Y84.348 I4.538 J10.577
G1 X21.061 Y90.645
X32.192 Y95.421
G2 X34.261 Y96.196 I9.289 J-21.65
X48.364 Y96.302 Z-6.5 I7.22 J-22.425
X50.77 Y95.421 I-6.882 J-22.531
G1 X76.579 Y84.348
G2 Y63.194 I-4.538 J-10.577
G1 X50.77 Y52.121
G2 X32.192 I-9.289 J21.65
G1 X6.384 Y63.194
G2 Y84.348 I4.538 J10.577
G1 X32.192 Y95.421
G2 X48.364 Y96.302 I9.289 J-21.65
X50.77 Y95.421 Z-6.545 I-6.882 J-22.531
G1 X61.576 Y90.785 Z-6.75
X76.579 Y84.348
G2 Y63.194 I-4.538 J-10.577
G1 X50.77 Y52.121
G2 X32.192 I-9.289 J21.65
G1 X6.384 Y63.194
G2 Y84.348 I4.538 J10.577
G1 X32.192 Y95.421
G2 X50.77 I9.289 J-21.65
G1 X61.576 Y90.785
X74.738 Y85.138 Z-7.
X76.579 Y84.348
G2 Y63.194 I-4.538 J-10.577
G1 X50.77 Y52.121
G2 X32.192 I-9.289 J21.65
G1 X6.384 Y63.194
G2 Y84.348 I4.538 J10.577
G1 X32.192 Y95.421
G2 X50.77 I9.289 J-21.65
G1 X74.738 Y85.138
X76.579 Y84.348 Z-7.035
G2 X83.498 Y74.864 Z-7.25 I-4.538 J-10.577
X76.579 Y63.194 I-11.457 J-1.093
G1 X50.77 Y52.121
G2 X32.192 I-9.289 J21.65
G1 X6.384 Y63.194
G2 Y84.348 I4.538 J10.577
G1 X32.192 Y95.421
G2 X50.77 I9.289 J-21.65
G1 X74.738 Y85.138
X76.579 Y84.348
G2 X83.498 Y74.864 I-4.538 J-10.577
X76.749 Y63.269 Z-7.5 I-11.457 J-1.093
G1 X76.579 Y63.194
X50.77 Y52.121
G2 X32.192 I-9.289 J21.65
G1 X6.384 Y63.194
G2 Y84.348 I4.538 J10.577
G1 X32.192 Y95.421
G2 X50.77 I9.289 J-21.65
G1 X76.579 Y84.348
G2 X76.749 Y63.269 I-4.538 J-10.577
G1 X76.579 Y63.194 Z-7.503
X63.587 Y57.62 Z-7.75
X50.77 Y52.121
G2 X32.192 I-9.289 J21.65
G1 X6.384 Y63.194
G2 Y84.348 I4.538 J10.577
G1 X32.192 Y95.421
G2 X50.77 I9.289 J-21.65
G1 X76.579 Y84.348
G2 Y63.194 I-4.538 J-10.577
G1 X63.587 Y57.62
X55.525 Y54.161 Z-7.903
X50.77 Y52.121
G2 X32.192 I-9.289 J21.65
G1 X6.384 Y63.194
G2 Y84.348 I4.538 J10.577
G1 X32.192 Y95.421
G2 X50.77 I9.289 J-21.65
G1 X76.579 Y84.348
G2 Y63.194 I-4.538 J-10.577
G1 X63.587 Y57.62
X55.525 Y54.161
X50.77 Y52.121 Z-7.993
G2 X47.368 Y50.96 Z-8.056 I-9.289 J21.65
X32.192 Y52.121 I-5.887 J22.811
G1 X6.384 Y63.194
G2 Y84.348 I4.538 J10.577
G1 X32.192 Y95.421
G2 X50.77 I9.289 J-21.65
G1 X76.579 Y84.348
G2 Y63.194 I-4.538 J-10.577
G1 X55.525 Y54.161
X50.77 Y52.121
G2 X47.368 Y50.96 I-9.289 J21.65
G3 X47.14 Y50.573 I0.079 J-0.307
G1 X47.22 Y50.266
X47.237 Y50.197 Z-8.048
X47.254 Y50.132 Z-8.025
X47.269 Y50.074 Z-7.987
X47.282 Y50.025 Z-7.937
X47.291 Y49.989 Z-7.877
X47.297 Y49.966 Z-7.809
X47.299 Y49.958 Z-7.739
G0 Z16.

(2D CONTOUR4)
G0 X83.48 Y180.324
Z16.
Z6.
G1 Z3.818 F1600.
X83.473 Y180.321 Z3.747
X83.451 Y180.312 Z3.68
X83.416 Y180.298 Z3.62
X83.37 Y180.279 Z3.569
X83.314 Y180.257 Z3.531
X83.251 Y180.232 Z3.508
X83.186 Y180.205 Z3.5
X82.891 Y180.087
G3 X82.716 Y179.673 I0.119 J-0.294
G2 X76.579 Y164.794 Z3.189 I-10.675 J-4.302
G1 X50.77 Y153.721 Z2.699
G2 X32.192 Z2.365 I-9.289 J21.65
G1 X6.384 Y164.794 Z1.875
G2 Y185.948 Z1.407 I4.538 J10.577
G1 X32.192 Y197.021 Z0.917
G2 X41.481 Y198.93 Z0.75 I9.289 J-21.65
X50.77 Y197.021 I0. J-23.559
G1 X76.579 Y185.948
G2 Y164.794 I-4.538 J-10.577
G1 X50.77 Y153.721
G2 X32.192 I-9.289 J21.65
G1 X6.384 Y164.794
G2 Y185.948 I4.538 J10.577
G1 X32.192 Y197.021
G2 X41.481 Y198.93 I9.289 J-21.65
X50.77 Y197.021 Z0.583 I0. J-23.559
G1 X55.158 Y195.138 Z0.5
X76.579 Y185.948
G2 Y164.794 I-4.538 J-10.577
G1 X50.77 Y153.721
G2 X32.192 I-9.289 J21.65
G1 X6.384 Y164.794
G2 Y185.948 I4.538 J10.577
G1 X32.192 Y197.021
G2 X50.77 I9.289 J-21.65
G1 X55.158 Y195.138
X68.32 Y189.491 Z0.25
X76.579 Y185.948
G2 Y164.794 I-4.538 J-10.577
G1 X50.77 Y153.721
G2 X32.192 I-9.289 J21.65
G1 X6.384 Y164.794
G2 Y185.948 I4.538 J10.577
G1 X32.192 Y197.021
G2 X50.77 I9.289 J-21.65
G1 X68.32 Y189.491
X76.579 Y185.948 Z0.093
G2 X80.829 Y182.802 Z0. I-4.538 J-10.577
X76.579 Y164.794 I-8.789 J-7.431
G1 X50.77 Y153.721
G2 X32.192 I-9.289 J21.65
G1 X6.384 Y164.794
G2 Y185.948 I4.538 J10.577
G1 X32.192 Y197.021
G2 X50.77 I9.289 J-21.65
G1 X68.32 Y189.491
X76.579 Y185.948
G2 X80.829 Y182.802 I-4.538 J-10.577
X81.897 Y169.429 Z-0.25 I-8.789 J-7.431
X76.579 Y164.794 I-9.857 J5.942
G1 X50.77 Y153.721
G2 X32.192 I-9.289 J21.65
G1 X6.384 Y164.794
G2 Y185.948 I4.538 J10.577
G1 X32.192 Y197.021
G2 X50.77 I9.289 J-21.65
G1 X76.579 Y185.948
G2 X81.897 Y169.429 I-4.538 J-10.577
X76.579 Y164.794 Z-0.375 I-9.857 J5.942
G1 X70.006 Y161.974 Z-0.5
X50.77 Y153.721
G2 X32.192 I-9.289 J21.65
G1 X6.384 Y164.794
G2 Y185.948 I4.538 J10.577
G1 X32.192 Y197.021
G2 X50.77 I9.289 J-21.65
G1 X76.579 Y185.948
G2 Y164.794 I-4.538 J-10.577
G1 X70.006 Y161.974
X56.844 Y156.327 Z-0.75
X50.77 Y153.721
G2 X32.192 I-9.289 J21.65
G1 X6.384 Y164.794
G2 Y185.948 I4.538 J10.577
G1 X32.192 Y197.021
G2 X50.77 I9.289 J-21.65
G1 X76.579 Y185.948
G2 Y164.794 I-4.538 J-10.577
G1 X56.844 Y156.327
X50.77 Y153.721 Z-0.865
G2 X43.314 Y151.884 Z-1. I-9.289 J21.65
X32.192 Y153.721 I-1.833 J23.487
G1 X6.384 Y164.794
G2 Y185.948 I4.538 J10.577
G1 X32.192 Y197.021
G2 X50.77 I9.289 J-21.65
G1 X76.579 Y185.948
G2 Y164.794 I-4.538 J-10.577
G1 X56.844 Y156.327
X50.77 Y153.721
G2 X43.314 Y151.884 I-9.289 J21.65
X32.192 Y153.721 Z-1.199 I-1.833 J23.487
G1 X29.491 Y154.88 Z-1.25
X6.384 Y164.794
G2 Y185.948 I4.538 J10.577
G1 X32.192 Y197.021
G2 X50.77 I9.289 J-21.65
G1 X76.579 Y185.948
G2 Y164.794 I-4.538 J-10.577
G1 X50.77 Y153.721
G2 X32.192 I-9.289 J21.65
G1 X29.491 Y154.88
X16.329 Y160.527 Z-1.5
X6.384 Y164.794
G2 Y185.948 I4.538 J10.577
G1 X32.192 Y197.021
G2 X50.77 I9.289 J-21.65
G1 X76.579 Y185.948
G2 Y164.794 I-4.538 J-10.577
G1 X50.77 Y153.721
G2 X32.192 I-9.289 J21.65
G1 X16.329 Y160.527
X6.384 Y164.794 Z-1.689
G2 X3.424 Y166.639 Z-1.75 I4.538 J10.577
X6.384 Y185.948 I7.498 J8.732
G1 X32.192 Y197.021
G2 X50.77 I9.289 J-21.65
G1 X76.579 Y185.948
G2 Y164.794 I-4.538 J-10.577
G1 X50.77 Y153.721
G2 X32.192 I-9.289 J21.65
G1 X16.329 Y160.527
X6.384 Y164.794
G2 X3.424 Y166.639 I4.538 J10.577
X0.247 Y179.673 Z-2. I7.498 J8.732
X6.384 Y185.948 I10.675 J-4.302
G1 X32.192 Y197.021
G2 X50.77 I9.289 J-21.65
G1 X76.579 Y185.948
G2 Y164.794 I-4.538 J-10.577
G1 X50.77 Y153.721
G2 X32.192 I-9.289 J21.65
G1 X6.384 Y164.794
G2 X0.247 Y179.673 I4.538 J10.577
X6.384 Y185.948 Z-2.157 I10.675 J-4.302
G1 X11.271 Y188.045 Z-2.25
X32.192 Y197.021
G2 X50.77 I9.289 J-21.65
G1 X76.579 Y185.948
G2 Y164.794 I-4.538 J-10.577
G1 X50.77 Y153.721
G2 X32.192 I-9.289 J21.65
G1 X6.384 Y164.794
G2 Y185.948 I4.538 J10.577
G1 X11.271 Y188.045
X24.433 Y193.692 Z-2.5
X32.192 Y197.021
G2 X50.77 I9.289 J-21.65
G1 X76.579 Y185.948
G2 Y164.794 I-4.538 J-10.577
G1 X50.77 Y153.721
G2 X32.192 I-9.289 J21.65
G1 X6.384 Y164.794
G2 Y185.948 I4.538 J10.577
G1 X24.433 Y193.692
X32.192 Y197.021 Z-2.647
G2 X37.827 Y198.644 Z-2.75 I9.289 J-21.65
X50.77 Y197.021 I3.654 J-23.273
G1 X76.579 Y185.948
G2 Y164.794 I-4.538 J-10.577
G1 X50.77 Y153.721
G2 X32.192 I-9.289 J21.65
G1 X6.384 Y164.794
G2 Y185.948 I4.538 J10.577
G1 X24.433 Y193.692
X32.192 Y197.021
G2 X37.827 Y198.644 I9.289 J-21.65
X50.77 Y197.021 Z-2.981 I3.654 J-23.273
G1 X51.786 Y196.585 Z-3.
X76.579 Y185.948
G2 Y164.794 I-4.538 J-10.577
G1 X50.77 Y153.721
G2 X32.192 I-9.289 J21.65
G1 X6.384 Y164.794
G2 Y185.948 I4.538 J10.577
G1 X32.192 Y197.021
G2 X50.77 I9.289 J-21.65
G1 X51.786 Y196.585
X64.948 Y190.938 Z-3.25
X76.579 Y185.948
G2 Y164.794 I-4.538 J-10.577
G1 X50.77 Y153.721
G2 X32.192 I-9.289 J21.65
G1 X6.384 Y164.794
G2 Y185.948 I4.538 J10.577
G1 X32.192 Y197.021
G2 X50.77 I9.289 J-21.65
G1 X64.948 Y190.938
X76.579 Y185.948 Z-3.471
G2 X78.057 Y185.182 Z-3.5 I-4.538 J-10.577
X76.579 Y164.794 I-6.017 J-9.811
G1 X50.77 Y153.721
G2 X32.192 I-9.289 J21.65
G1 X6.384 Y164.794
G2 Y185.948 I4.538 J10.577
G1 X32.192 Y197.021
G2 X50.77 I9.289 J-21.65
G1 X64.948 Y190.938
X76.579 Y185.948
G2 X78.057 Y185.182 I-4.538 J-10.577
X83.263 Y172.818 Z-3.75 I-6.017 J-9.811
X76.579 Y164.794 I-11.223 J2.553
G1 X50.77 Y153.721
G2 X32.192 I-9.289 J21.65
G1 X6.384 Y164.794
G2 Y185.948 I4.538 J10.577
G1 X32.192 Y197.021
G2 X50.77 I9.289 J-21.65
G1 X76.579 Y185.948
G2 X83.263 Y172.818 I-4.538 J-10.577
X76.579 Y164.794 Z-3.939 I-11.223 J2.553
G1 X73.378 Y163.421 Z-4.
X50.77 Y153.721
G2 X32.192 I-9.289 J21.65
G1 X6.384 Y164.794
G2 Y185.948 I4.538 J10.577
G1 X32.192 Y197.021
G2 X50.77 I9.289 J-21.65
G1 X76.579 Y185.948
G2 Y164.794 I-4.538 J-10.577
G1 X73.378 Y163.421
X60.215 Y157.774 Z-4.25
X50.77 Y153.721
G2 X32.192 I-9.289 J21.65
G1 X6.384 Y164.794
G2 Y185.948 I4.538 J10.577
G1 X32.192 Y197.021
G2 X50.77 I9.289 J-21.65
G1 X76.579 Y185.948
G2 Y164.794 I-4.538 J-10.577
G1 X60.215 Y157.774
X50.77 Y153.721 Z-4.429
G2 X46.935 Y152.452 Z-4.5 I-9.289 J21.65
X32.192 Y153.721 I-5.454 J22.919
G1 X6.384 Y164.794
G2 Y185.948 I4.538 J10.577
G1 X32.192 Y197.021
G2 X50.77 I9.289 J-21.65
G1 X76.579 Y185.948
G2 Y164.794 I-4.538 J-10.577
G1 X60.215 Y157.774
X50.77 Y153.721
G2 X46.935 Y152.452 I-9.289 J21.65
X32.867 Y153.444 Z-4.75 I-5.454 J22.919
X32.192 Y153.721 I8.614 J21.927
G1 X6.384 Y164.794
G2 Y185.948 I4.538 J10.577
G1 X32.192 Y197.021
G2 X50.77 I9.289 J-21.65
G1 X76.579 Y185.948
G2 Y164.794 I-4.538 J-10.577
G1 X50.77 Y153.721
G2 X32.867 Y153.444 I-9.289 J21.65
X32.192 Y153.721 Z-4.763 I8.614 J21.927
G1 X19.7 Y159.081 Z-5.
X6.384 Y164.794
G2 Y185.948 I4.538 J10.577
G1 X32.192 Y197.021
G2 X50.77 I9.289 J-21.65
G1 X76.579 Y185.948
G2 Y164.794 I-4.538 J-10.577
G1 X50.77 Y153.721
G2 X32.192 I-9.289 J21.65
G1 X19.7 Y159.081
X6.538 Y164.728 Z-5.25
X6.384 Y164.794
G2 Y185.948 I4.538 J10.577
G1 X32.192 Y197.021
G2 X50.77 I9.289 J-21.65
G1 X76.579 Y185.948
G2 Y164.794 I-4.538 J-10.577
G1 X50.77 Y153.721
G2 X32.192 I-9.289 J21.65
G1 X6.538 Y164.728
X6.384 Y164.794 Z-5.253
G2 X-0.564 Y176.111 Z-5.5 I4.538 J10.577
X6.384 Y185.948 I11.486 J-0.74
G1 X32.192 Y197.021
G2 X50.77 I9.289 J-21.65
G1 X76.579 Y185.948
G2 Y164.794 I-4.538 J-10.577
G1 X50.77 Y153.721
G2 X32.192 I-9.289 J21.65
G1 X6.538 Y164.728
X6.384 Y164.794
G2 X-0.564 Y176.111 I4.538 J10.577
X6.384 Y185.948 Z-5.721 I11.486 J-0.74
G1 X7.899 Y186.598 Z-5.75
X32.192 Y197.021
G2 X50.77 I9.289 J-21.65
G1 X76.579 Y185.948
G2 Y164.794 I-4.538 J-10.577
G1 X50.77 Y153.721
G2 X32.192 I-9.289 J21.65
G1 X6.384 Y164.794
G2 Y185.948 I4.538 J10.577
G1 X7.899 Y186.598
X21.061 Y192.245 Z-6.
X32.192 Y197.021
G2 X50.77 I9.289 J-21.65
G1 X76.579 Y185.948
G2 Y164.794 I-4.538 J-10.577
G1 X50.77 Y153.721
G2 X32.192 I-9.289 J21.65
G1 X6.384 Y164.794
G2 Y185.948 I4.538 J10.577
G1 X21.061 Y192.245
X32.192 Y197.021 Z-6.211
G2 X34.261 Y197.796 Z-6.25 I9.289 J-21.65
X50.77 Y197.021 I7.22 J-22.425
G1 X76.579 Y185.948
G2 Y164.794 I-4.538 J-10.577
G1 X50.77 Y153.721
G2 X32.192 I-9.289 J21.65
G1 X6.384 Y164.794
G2 Y185.948 I4.538 J10.577
G1 X21.061 Y192.245
X32.192 Y197.021
G2 X34.261 Y197.796 I9.289 J-21.65
X48.364 Y197.902 Z-6.5 I7.22 J-22.425
X50.77 Y197.021 I-6.882 J-22.531
G1 X76.579 Y185.948
G2 Y164.794 I-4.538 J-10.577
G1 X50.77 Y153.721
G2 X32.192 I-9.289 J21.65
G1 X6.384 Y164.794
G2 Y185.948 I4.538 J10.577
G1 X32.192 Y197.021
G2 X48.364 Y197.902 I9.289 J-21.65
X50.77 Y197.021 Z-6.545 I-6.882 J-22.531
G1 X61.576 Y192.385 Z-6.75
X76.579 Y185.948
G2 Y164.794 I-4.538 J-10.577
G1 X50.77 Y153.721
G2 X32.192 I-9.289 J21.65
G1 X6.384 Y164.794
G2 Y185.948 I4.538 J10.577
G1 X32.192 Y197.021
G2 X50.77 I9.289 J-21.65
G1 X61.576 Y192.385
X74.738 Y186.738 Z-7.
X76.579 Y185.948
G2 Y164.794 I-4.538 J-10.577
G1 X50.77 Y153.721
G2 X32.192 I-9.289 J21.65
G1 X6.384 Y164.794
G2 Y185.948 I4.538 J10.577
G1 X32.192 Y197.021
G2 X50.77 I9.289 J-21.65
G1 X74.738 Y186.738
X76.579 Y185.948 Z-7.035
G2 X83.498 Y176.464 Z-7.25 I-4.538 J-10.577
X76.579 Y164.794 I-11.457 J-1.093
G1 X50.77 Y153.721
G2 X32.192 I-9.289 J21.65
G1 X6.384 Y164.794
G2 Y185.948 I4.538 J10.577
G1 X32.192 Y197.021
G2 X50.77 I9.289 J-21.65
G1 X74.738 Y186.738
X76.579 Y185.948
G2 X83.498 Y176.464 I-4.538 J-10.577
X76.749 Y164.869 Z-7.5 I-11.457 J-1.093
G1 X76.579 Y164.794
X50.77 Y153.721
G2 X32.192 I-9.289 J21.65
G1 X6.384 Y164.794
G2 Y185.948 I4.538 J10.577
G1 X32.192 Y197.021
G2 X50.77 I9.289 J-21.65
G1 X76.579 Y185.948
G2 X76.749 Y164.869 I-4.538 J-10.577
G1 X76.579 Y164.794 Z-7.503
X63.587 Y159.22 Z-7.75
X50.77 Y153.721
G2 X32.192 I-9.289 J21.65
G1 X6.384 Y164.794
G2 Y185.948 I4.538 J10.577
G1 X32.192 Y197.021
G2 X50.77 I9.289 J-21.65
G1 X76.579 Y185.948
G2 Y164.794 I-4.538 J-10.577
G1 X63.587 Y159.22
X55.525 Y155.761 Z-7.903
X50.77 Y153.721
G2 X32.192 I-9.289 J21.65
G1 X6.384 Y164.794
G2 Y185.948 I4.538 J10.577
G1 X32.192 Y197.021
G2 X50.77 I9.289 J-21.65
G1 X76.579 Y185.948
G2 Y164.794 I-4.538 J-10.577
G1 X63.587 Y159.22
X55.525 Y155.761
X50.77 Y153.721 Z-7.993
G2 X47.368 Y152.56 Z-8.056 I-9.289 J21.65
X32.192 Y153.721 I-5.887 J22.811
G1 X6.384 Y164.794
G2 Y185.948 I4.538 J10.577
G1 X32.192 Y197.021
G2 X50.77 I9.289 J-21.65
G1 X76.579 Y185.948
G2 Y164.794 I-4.538 J-10.577
G1 X55.525 Y155.761
X50.77 Y153.721
G2 X47.368 Y152.56 I-9.289 J21.65
G3 X47.14 Y152.173 I0.079 J-0.307
G1 X47.22 Y151.866
X47.237 Y151.797 Z-8.048
X47.254 Y151.732 Z-8.025
X47.269 Y151.674 Z-7.987
X47.282 Y151.625 Z-7.937
X47.291 Y151.589 Z-7.877
X47.297 Y151.566 Z-7.809
X47.299 Y151.558 Z-7.739
G0 Z16.

(2D CONTOUR4)
G0 X83.48 Y231.124
Z16.
Z6.
G1 Z3.818 F1600.
X83.473 Y231.121 Z3.747
X83.451 Y231.112 Z3.68
X83.416 Y231.098 Z3.62
X83.37 Y231.079 Z3.569
X83.314 Y231.057 Z3.531
X83.251 Y231.032 Z3.508
X83.186 Y231.005 Z3.5
X82.891 Y230.887
G3 X82.716 Y230.473 I0.119 J-0.294
G2 X76.579 Y215.594 Z3.189 I-10.675 J-4.302
G1 X50.77 Y204.521 Z2.699
G2 X32.192 Z2.365 I-9.289 J21.65
G1 X6.384 Y215.594 Z1.875
G2 Y236.748 Z1.407 I4.538 J10.577
G1 X32.192 Y247.821 Z0.917
G2 X41.481 Y249.73 Z0.75 I9.289 J-21.65
X50.77 Y247.821 I0. J-23.559
G1 X76.579 Y236.748
G2 Y215.594 I-4.538 J-10.577
G1 X50.77 Y204.521
G2 X32.192 I-9.289 J21.65
G1 X6.384 Y215.594
G2 Y236.748 I4.538 J10.577
G1 X32.192 Y247.821
G2 X41.481 Y249.73 I9.289 J-21.65
X50.77 Y247.821 Z0.583 I0. J-23.559
G1 X55.158 Y245.938 Z0.5
X76.579 Y236.748
G2 Y215.594 I-4.538 J-10.577
G1 X50.77 Y204.521
G2 X32.192 I-9.289 J21.65
G1 X6.384 Y215.594
G2 Y236.748 I4.538 J10.577
G1 X32.192 Y247.821
G2 X50.77 I9.289 J-21.65
G1 X55.158 Y245.938
X68.32 Y240.291 Z0.25
X76.579 Y236.748
G2 Y215.594 I-4.538 J-10.577
G1 X50.77 Y204.521
G2 X32.192 I-9.289 J21.65
G1 X6.384 Y215.594
G2 Y236.748 I4.538 J10.577
G1 X32.192 Y247.821
G2 X50.77 I9.289 J-21.65
G1 X68.32 Y240.291
X76.579 Y236.748 Z0.093
G2 X80.829 Y233.602 Z0. I-4.538 J-10.577
X76.579 Y215.594 I-8.789 J-7.431
G1 X50.77 Y204.521
G2 X32.192 I-9.289 J21.65
G1 X6.384 Y215.594
G2 Y236.748 I4.538 J10.577
G1 X32.192 Y247.821
G2 X50.77 I9.289 J-21.65
G1 X68.32 Y240.291
X76.579 Y236.748
G2 X80.829 Y233.602 I-4.538 J-10.577
X81.897 Y220.229 Z-0.25 I-8.789 J-7.431
X76.579 Y215.594 I-9.857 J5.942
G1 X50.77 Y204.521
G2 X32.192 I-9.289 J21.65
G1 X6.384 Y215.594
G2 Y236.748 I4.538 J10.577
G1 X32.192 Y247.821
G2 X50.77 I9.289 J-21.65
G1 X76.579 Y236.748
G2 X81.897 Y220.229 I-4.538 J-10.577
X76.579 Y215.594 Z-0.375 I-9.857 J5.942
G1 X70.006 Y212.774 Z-0.5
X50.77 Y204.521
G2 X32.192 I-9.289 J21.65
G1 X6.384 Y215.594
G2 Y236.748 I4.538 J10.577
G1 X32.192 Y247.821
G2 X50.77 I9.289 J-21.65
G1 X76.579 Y236.748
G2 Y215.594 I-4.538 J-10.577
G1 X70.006 Y212.774
X56.844 Y207.127 Z-0.75
X50.77 Y204.521
G2 X32.192 I-9.289 J21.65
G1 X6.384 Y215.594
G2 Y236.748 I4.538 J10.577
G1 X32.192 Y247.821
G2 X50.77 I9.289 J-21.65
G1 X76.579 Y236.748
G2 Y215.594 I-4.538 J-10.577
G1 X56.844 Y207.127
X50.77 Y204.521 Z-0.865
G2 X43.314 Y202.684 Z-1. I-9.289 J21.65
X32.192 Y204.521 I-1.833 J23.487
G1 X6.384 Y215.594
G2 Y236.748 I4.538 J10.577
G1 X32.192 Y247.821
G2 X50.77 I9.289 J-21.65
G1 X76.579 Y236.748
G2 Y215.594 I-4.538 J-10.577
G1 X56.844 Y207.127
X50.77 Y204.521
G2 X43.314 Y202.684 I-9.289 J21.65
X32.192 Y204.521 Z-1.199 I-1.833 J23.487
G1 X29.491 Y205.68 Z-1.25
X6.384 Y215.594
G2 Y236.748 I4.538 J10.577
G1 X32.192 Y247.821
G2 X50.77 I9.289 J-21.65
G1 X76.579 Y236.748
G2 Y215.594 I-4.538 J-10.577
G1 X50.77 Y204.521
G2 X32.192 I-9.289 J21.65
G1 X29.491 Y205.68
X16.329 Y211.327 Z-1.5
X6.384 Y215.594
G2 Y236.748 I4.538 J10.577
G1 X32.192 Y247.821
G2 X50.77 I9.289 J-21.65
G1 X76.579 Y236.748
G2 Y215.594 I-4.538 J-10.577
G1 X50.77 Y204.521
G2 X32.192 I-9.289 J21.65
G1 X16.329 Y211.327
X6.384 Y215.594 Z-1.689
G2 X3.424 Y217.439 Z-1.75 I4.538 J10.577
X6.384 Y236.748 I7.498 J8.732
G1 X32.192 Y247.821
G2 X50.77 I9.289 J-21.65
G1 X76.579 Y236.748
G2 Y215.594 I-4.538 J-10.577
G1 X50.77 Y204.521
G2 X32.192 I-9.289 J21.65
G1 X16.329 Y211.327
X6.384 Y215.594
G2 X3.424 Y217.439 I4.538 J10.577
X0.247 Y230.473 Z-2. I7.498 J8.732
X6.384 Y236.748 I10.675 J-4.302
G1 X32.192 Y247.821
G2 X50.77 I9.289 J-21.65
G1 X76.579 Y236.748
G2 Y215.594 I-4.538 J-10.577
G1 X50.77 Y204.521
G2 X32.192 I-9.289 J21.65
G1 X6.384 Y215.594
G2 X0.247 Y230.473 I4.538 J10.577
X6.384 Y236.748 Z-2.157 I10.675 J-4.302
G1 X11.271 Y238.845 Z-2.25
X32.192 Y247.821
G2 X50.77 I9.289 J-21.65
G1 X76.579 Y236.748
G2 Y215.594 I-4.538 J-10.577
G1 X50.77 Y204.521
G2 X32.192 I-9.289 J21.65
G1 X6.384 Y215.594
G2 Y236.748 I4.538 J10.577
G1 X11.271 Y238.845
X24.433 Y244.492 Z-2.5
X32.192 Y247.821
G2 X50.77 I9.289 J-21.65
G1 X76.579 Y236.748
G2 Y215.594 I-4.538 J-10.577
G1 X50.77 Y204.521
G2 X32.192 I-9.289 J21.65
G1 X6.384 Y215.594
G2 Y236.748 I4.538 J10.577
G1 X24.433 Y244.492
X32.192 Y247.821 Z-2.647
G2 X37.827 Y249.444 Z-2.75 I9.289 J-21.65
X50.77 Y247.821 I3.654 J-23.273
G1 X76.579 Y236.748
G2 Y215.594 I-4.538 J-10.577
G1 X50.77 Y204.521
G2 X32.192 I-9.289 J21.65
G1 X6.384 Y215.594
G2 Y236.748 I4.538 J10.577
G1 X24.433 Y244.492
X32.192 Y247.821
G2 X37.827 Y249.444 I9.289 J-21.65
X50.77 Y247.821 Z-2.981 I3.654 J-23.273
G1 X51.786 Y247.385 Z-3.
X76.579 Y236.748
G2 Y215.594 I-4.538 J-10.577
G1 X50.77 Y204.521
G2 X32.192 I-9.289 J21.65
G1 X6.384 Y215.594
G2 Y236.748 I4.538 J10.577
G1 X32.192 Y247.821
G2 X50.77 I9.289 J-21.65
G1 X51.786 Y247.385
X64.948 Y241.738 Z-3.25
X76.579 Y236.748
G2 Y215.594 I-4.538 J-10.577
G1 X50.77 Y204.521
G2 X32.192 I-9.289 J21.65
G1 X6.384 Y215.594
G2 Y236.748 I4.538 J10.577
G1 X32.192 Y247.821
G2 X50.77 I9.289 J-21.65
G1 X64.948 Y241.738
X76.579 Y236.748 Z-3.471
G2 X78.057 Y235.982 Z-3.5 I-4.538 J-10.577
X76.579 Y215.594 I-6.017 J-9.811
G1 X50.77 Y204.521
G2 X32.192 I-9.289 J21.65
G1 X6.384 Y215.594
G2 Y236.748 I4.538 J10.577
G1 X32.192 Y247.821
G2 X50.77 I9.289 J-21.65
G1 X64.948 Y241.738
X76.579 Y236.748
G2 X78.057 Y235.982 I-4.538 J-10.577
X83.263 Y223.618 Z-3.75 I-6.017 J-9.811
X76.579 Y215.594 I-11.223 J2.553
G1 X50.77 Y204.521
G2 X32.192 I-9.289 J21.65
G1 X6.384 Y215.594
G2 Y236.748 I4.538 J10.577
G1 X32.192 Y247.821
G2 X50.77 I9.289 J-21.65
G1 X76.579 Y236.748
G2 X83.263 Y223.618 I-4.538 J-10.577
X76.579 Y215.594 Z-3.939 I-11.223 J2.553
G1 X73.378 Y214.221 Z-4.
X50.77 Y204.521
G2 X32.192 I-9.289 J21.65
G1 X6.384 Y215.594
G2 Y236.748 I4.538 J10.577
G1 X32.192 Y247.821
G2 X50.77 I9.289 J-21.65
G1 X76.579 Y236.748
G2 Y215.594 I-4.538 J-10.577
G1 X73.378 Y214.221
X60.215 Y208.574 Z-4.25
X50.77 Y204.521
G2 X32.192 I-9.289 J21.65
G1 X6.384 Y215.594
G2 Y236.748 I4.538 J10.577
G1 X32.192 Y247.821
G2 X50.77 I9.289 J-21.65
G1 X76.579 Y236.748
G2 Y215.594 I-4.538 J-10.577
G1 X60.215 Y208.574
X50.77 Y204.521 Z-4.429
G2 X46.935 Y203.252 Z-4.5 I-9.289 J21.65
X32.192 Y204.521 I-5.454 J22.919
G1 X6.384 Y215.594
G2 Y236.748 I4.538 J10.577
G1 X32.192 Y247.821
G2 X50.77 I9.289 J-21.65
G1 X76.579 Y236.748
G2 Y215.594 I-4.538 J-10.577
G1 X60.215 Y208.574
X50.77 Y204.521
G2 X46.935 Y203.252 I-9.289 J21.65
X32.867 Y204.244 Z-4.75 I-5.454 J22.919
X32.192 Y204.521 I8.614 J21.927
G1 X6.384 Y215.594
G2 Y236.748 I4.538 J10.577
G1 X32.192 Y247.821
G2 X50.77 I9.289 J-21.65
G1 X76.579 Y236.748
G2 Y215.594 I-4.538 J-10.577
G1 X50.77 Y204.521
G2 X32.867 Y204.244 I-9.289 J21.65
X32.192 Y204.521 Z-4.763 I8.614 J21.927
G1 X19.7 Y209.881 Z-5.
X6.384 Y215.594
G2 Y236.748 I4.538 J10.577
G1 X32.192 Y247.821
G2 X50.77 I9.289 J-21.65
G1 X76.579 Y236.748
G2 Y215.594 I-4.538 J-10.577
G1 X50.77 Y204.521
G2 X32.192 I-9.289 J21.65
G1 X19.7 Y209.881
X6.538 Y215.528 Z-5.25
X6.384 Y215.594
G2 Y236.748 I4.538 J10.577
G1 X32.192 Y247.821
G2 X50.77 I9.289 J-21.65
G1 X76.579 Y236.748
G2 Y215.594 I-4.538 J-10.577
G1 X50.77 Y204.521
G2 X32.192 I-9.289 J21.65
G1 X6.538 Y215.528
X6.384 Y215.594 Z-5.253
G2 X-0.564 Y226.911 Z-5.5 I4.538 J10.577
X6.384 Y236.748 I11.486 J-0.74
G1 X32.192 Y247.821
G2 X50.77 I9.289 J-21.65
G1 X76.579 Y236.748
G2 Y215.594 I-4.538 J-10.577
G1 X50.77 Y204.521
G2 X32.192 I-9.289 J21.65
G1 X6.538 Y215.528
X6.384 Y215.594
G2 X-0.564 Y226.911 I4.538 J10.577
X6.384 Y236.748 Z-5.721 I11.486 J-0.74
G1 X7.899 Y237.398 Z-5.75
X32.192 Y247.821
G2 X50.77 I9.289 J-21.65
G1 X76.579 Y236.748
G2 Y215.594 I-4.538 J-10.577
G1 X50.77 Y204.521
G2 X32.192 I-9.289 J21.65
G1 X6.384 Y215.594
G2 Y236.748 I4.538 J10.577
G1 X7.899 Y237.398
X21.061 Y243.045 Z-6.
X32.192 Y247.821
G2 X50.77 I9.289 J-21.65
G1 X76.579 Y236.748
G2 Y215.594 I-4.538 J-10.577
G1 X50.77 Y204.521
G2 X32.192 I-9.289 J21.65
G1 X6.384 Y215.594
G2 Y236.748 I4.538 J10.577
G1 X21.061 Y243.045
X32.192 Y247.821 Z-6.211
G2 X34.261 Y248.596 Z-6.25 I9.289 J-21.65
X50.77 Y247.821 I7.22 J-22.425
G1 X76.579 Y236.748
G2 Y215.594 I-4.538 J-10.577
G1 X50.77 Y204.521
G2 X32.192 I-9.289 J21.65
G1 X6.384 Y215.594
G2 Y236.748 I4.538 J10.577
G1 X21.061 Y243.045
X32.192 Y247.821
G2 X34.261 Y248.596 I9.289 J-21.65
X48.364 Y248.702 Z-6.5 I7.22 J-22.425
X50.77 Y247.821 I-6.882 J-22.531
G1 X76.579 Y236.748
G2 Y215.594 I-4.538 J-10.577
G1 X50.77 Y204.521
G2 X32.192 I-9.289 J21.65
G1 X6.384 Y215.594
G2 Y236.748 I4.538 J10.577
G1 X32.192 Y247.821
G2 X48.364 Y248.702 I9.289 J-21.65
X50.77 Y247.821 Z-6.545 I-6.882 J-22.531
G1 X61.576 Y243.185 Z-6.75
X76.579 Y236.748
G2 Y215.594 I-4.538 J-10.577
G1 X50.77 Y204.521
G2 X32.192 I-9.289 J21.65
G1 X6.384 Y215.594
G2 Y236.748 I4.538 J10.577
G1 X32.192 Y247.821
G2 X50.77 I9.289 J-21.65
G1 X61.576 Y243.185
X74.738 Y237.538 Z-7.
X76.579 Y236.748
G2 Y215.594 I-4.538 J-10.577
G1 X50.77 Y204.521
G2 X32.192 I-9.289 J21.65
G1 X6.384 Y215.594
G2 Y236.748 I4.538 J10.577
G1 X32.192 Y247.821
G2 X50.77 I9.289 J-21.65
G1 X74.738 Y237.538
X76.579 Y236.748 Z-7.035
G2 X83.498 Y227.264 Z-7.25 I-4.538 J-10.577
X76.579 Y215.594 I-11.457 J-1.093
G1 X50.77 Y204.521
G2 X32.192 I-9.289 J21.65
G1 X6.384 Y215.594
G2 Y236.748 I4.538 J10.577
G1 X32.192 Y247.821
G2 X50.77 I9.289 J-21.65
G1 X74.738 Y237.538
X76.579 Y236.748
G2 X83.498 Y227.264 I-4.538 J-10.577
X76.749 Y215.669 Z-7.5 I-11.457 J-1.093
G1 X76.579 Y215.594
X50.77 Y204.521
G2 X32.192 I-9.289 J21.65
G1 X6.384 Y215.594
G2 Y236.748 I4.538 J10.577
G1 X32.192 Y247.821
G2 X50.77 I9.289 J-21.65
G1 X76.579 Y236.748
G2 X76.749 Y215.669 I-4.538 J-10.577
G1 X76.579 Y215.594 Z-7.503
X63.587 Y210.02 Z-7.75
X50.77 Y204.521
G2 X32.192 I-9.289 J21.65
G1 X6.384 Y215.594
G2 Y236.748 I4.538 J10.577
G1 X32.192 Y247.821
G2 X50.77 I9.289 J-21.65
G1 X76.579 Y236.748
G2 Y215.594 I-4.538 J-10.577
G1 X63.587 Y210.02
X55.525 Y206.561 Z-7.903
X50.77 Y204.521
G2 X32.192 I-9.289 J21.65
G1 X6.384 Y215.594
G2 Y236.748 I4.538 J10.577
G1 X32.192 Y247.821
G2 X50.77 I9.289 J-21.65
G1 X76.579 Y236.748
G2 Y215.594 I-4.538 J-10.577
G1 X63.587 Y210.02
X55.525 Y206.561
X50.77 Y204.521 Z-7.993
G2 X47.368 Y203.36 Z-8.056 I-9.289 J21.65
X32.192 Y204.521 I-5.887 J22.811
G1 X6.384 Y215.594
G2 Y236.748 I4.538 J10.577
G1 X32.192 Y247.821
G2 X50.77 I9.289 J-21.65
G1 X76.579 Y236.748
G2 Y215.594 I-4.538 J-10.577
G1 X55.525 Y206.561
X50.77 Y204.521
G2 X47.368 Y203.36 I-9.289 J21.65
G3 X47.14 Y202.973 I0.079 J-0.307
G1 X47.22 Y202.666
X47.237 Y202.597 Z-8.048
X47.254 Y202.532 Z-8.025
X47.269 Y202.474 Z-7.987
X47.282 Y202.425 Z-7.937
X47.291 Y202.389 Z-7.877
X47.297 Y202.366 Z-7.809
X47.299 Y202.358 Z-7.739
G0 Z16.

(2D CONTOUR4)
G0 X185.08 Y231.124
Z16.
Z6.
G1 Z3.818 F1600.
X185.073 Y231.121 Z3.747
X185.051 Y231.112 Z3.68
X185.016 Y231.098 Z3.62
X184.97 Y231.079 Z3.569
X184.914 Y231.057 Z3.531
X184.851 Y231.032 Z3.508
X184.786 Y231.005 Z3.5
X184.491 Y230.887
G3 X184.316 Y230.473 I0.119 J-0.294
G2 X178.179 Y215.594 Z3.189 I-10.675 J-4.302
G1 X152.37 Y204.521 Z2.699
G2 X133.792 Z2.365 I-9.289 J21.65
G1 X107.984 Y215.594 Z1.875
G2 Y236.748 Z1.407 I4.538 J10.577
G1 X133.792 Y247.821 Z0.917
G2 X143.081 Y249.73 Z0.75 I9.289 J-21.65
X152.37 Y247.821 I0. J-23.559
G1 X178.179 Y236.748
G2 Y215.594 I-4.538 J-10.577
G1 X152.37 Y204.521
G2 X133.792 I-9.289 J21.65
G1 X107.984 Y215.594
G2 Y236.748 I4.538 J10.577
G1 X133.792 Y247.821
G2 X143.081 Y249.73 I9.289 J-21.65
X152.37 Y247.821 Z0.583 I0. J-23.559
G1 X156.758 Y245.938 Z0.5
X178.179 Y236.748
G2 Y215.594 I-4.538 J-10.577
G1 X152.37 Y204.521
G2 X133.792 I-9.289 J21.65
G1 X107.984 Y215.594
G2 Y236.748 I4.538 J10.577
G1 X133.792 Y247.821
G2 X152.37 I9.289 J-21.65
G1 X156.758 Y245.938
X169.92 Y240.291 Z0.25
X178.179 Y236.748
G2 Y215.594 I-4.538 J-10.577
G1 X152.37 Y204.521
G2 X133.792 I-9.289 J21.65
G1 X107.984 Y215.594
G2 Y236.748 I4.538 J10.577
G1 X133.792 Y247.821
G2 X152.37 I9.289 J-21.65
G1 X169.92 Y240.291
X178.179 Y236.748 Z0.093
G2 X182.429 Y233.602 Z0. I-4.538 J-10.577
X178.179 Y215.594 I-8.789 J-7.431
G1 X152.37 Y204.521
G2 X133.792 I-9.289 J21.65
G1 X107.984 Y215.594
G2 Y236.748 I4.538 J10.577
G1 X133.792 Y247.821
G2 X152.37 I9.289 J-21.65
G1 X169.92 Y240.291
X178.179 Y236.748
G2 X182.429 Y233.602 I-4.538 J-10.577
X183.497 Y220.229 Z-0.25 I-8.789 J-7.431
X178.179 Y215.594 I-9.857 J5.942
G1 X152.37 Y204.521
G2 X133.792 I-9.289 J21.65
G1 X107.984 Y215.594
G2 Y236.748 I4.538 J10.577
G1 X133.792 Y247.821
G2 X152.37 I9.289 J-21.65
G1 X178.179 Y236.748
G2 X183.497 Y220.229 I-4.538 J-10.577
X178.179 Y215.594 Z-0.375 I-9.857 J5.942
G1 X171.606 Y212.774 Z-0.5
X152.37 Y204.521
G2 X133.792 I-9.289 J21.65
G1 X107.984 Y215.594
G2 Y236.748 I4.538 J10.577
G1 X133.792 Y247.821
G2 X152.37 I9.289 J-21.65
G1 X178.179 Y236.748
G2 Y215.594 I-4.538 J-10.577
G1 X171.606 Y212.774
X158.444 Y207.127 Z-0.75
X152.37 Y204.521
G2 X133.792 I-9.289 J21.65
G1 X107.984 Y215.594
G2 Y236.748 I4.538 J10.577
G1 X133.792 Y247.821
G2 X152.37 I9.289 J-21.65
G1 X178.179 Y236.748
G2 Y215.594 I-4.538 J-10.577
G1 X158.444 Y207.127
X152.37 Y204.521 Z-0.865
G2 X144.914 Y202.684 Z-1. I-9.289 J21.65
X133.792 Y204.521 I-1.833 J23.487
G1 X107.984 Y215.594
G2 Y236.748 I4.538 J10.577
G1 X133.792 Y247.821
G2 X152.37 I9.289 J-21.65
G1 X178.179 Y236.748
G2 Y215.594 I-4.538 J-10.577
G1 X158.444 Y207.127
X152.37 Y204.521
G2 X144.914 Y202.684 I-9.289 J21.65
X133.792 Y204.521 Z-1.199 I-1.833 J23.487
G1 X131.091 Y205.68 Z-1.25
X107.984 Y215.594
G2 Y236.748 I4.538 J10.577
G1 X133.792 Y247.821
G2 X152.37 I9.289 J-21.65
G1 X178.179 Y236.748
G2 Y215.594 I-4.538 J-10.577
G1 X152.37 Y204.521
G2 X133.792 I-9.289 J21.65
G1 X131.091 Y205.68
X117.929 Y211.327 Z-1.5
X107.984 Y215.594
G2 Y236.748 I4.538 J10.577
G1 X133.792 Y247.821
G2 X152.37 I9.289 J-21.65
G1 X178.179 Y236.748
G2 Y215.594 I-4.538 J-10.577
G1 X152.37 Y204.521
G2 X133.792 I-9.289 J21.65
G1 X117.929 Y211.327
X107.984 Y215.594 Z-1.689
G2 X105.024 Y217.439 Z-1.75 I4.538 J10.577
X107.984 Y236.748 I7.498 J8.732
G1 X133.792 Y247.821
G2 X152.37 I9.289 J-21.65
G1 X178.179 Y236.748
G2 Y215.594 I-4.538 J-10.577
G1 X152.37 Y204.521
G2 X133.792 I-9.289 J21.65
G1 X117.929 Y211.327
X107.984 Y215.594
G2 X105.024 Y217.439 I4.538 J10.577
X101.847 Y230.473 Z-2. I7.498 J8.732
X107.984 Y236.748 I10.675 J-4.302
G1 X133.792 Y247.821
G2 X152.37 I9.289 J-21.65
G1 X178.179 Y236.748
G2 Y215.594 I-4.538 J-10.577
G1 X152.37 Y204.521
G2 X133.792 I-9.289 J21.65
G1 X107.984 Y215.594
G2 X101.847 Y230.473 I4.538 J10.577
X107.984 Y236.748 Z-2.157 I10.675 J-4.302
G1 X112.871 Y238.845 Z-2.25
X133.792 Y247.821
G2 X152.37 I9.289 J-21.65
G1 X178.179 Y236.748
G2 Y215.594 I-4.538 J-10.577
G1 X152.37 Y204.521
G2 X133.792 I-9.289 J21.65
G1 X107.984 Y215.594
G2 Y236.748 I4.538 J10.577
G1 X112.871 Y238.845
X126.033 Y244.492 Z-2.5
X133.792 Y247.821
G2 X152.37 I9.289 J-21.65
G1 X178.179 Y236.748
G2 Y215.594 I-4.538 J-10.577
G1 X152.37 Y204.521
G2 X133.792 I-9.289 J21.65
G1 X107.984 Y215.594
G2 Y236.748 I4.538 J10.577
G1 X126.033 Y244.492
X133.792 Y247.821 Z-2.647
G2 X139.427 Y249.444 Z-2.75 I9.289 J-21.65
X152.37 Y247.821 I3.654 J-23.273
G1 X178.179 Y236.748
G2 Y215.594 I-4.538 J-10.577
G1 X152.37 Y204.521
G2 X133.792 I-9.289 J21.65
G1 X107.984 Y215.594
G2 Y236.748 I4.538 J10.577
G1 X126.033 Y244.492
X133.792 Y247.821
G2 X139.427 Y249.444 I9.289 J-21.65
X152.37 Y247.821 Z-2.981 I3.654 J-23.273
G1 X153.386 Y247.385 Z-3.
X178.179 Y236.748
G2 Y215.594 I-4.538 J-10.577
G1 X152.37 Y204.521
G2 X133.792 I-9.289 J21.65
G1 X107.984 Y215.594
G2 Y236.748 I4.538 J10.577
G1 X133.792 Y247.821
G2 X152.37 I9.289 J-21.65
G1 X153.386 Y247.385
X166.548 Y241.738 Z-3.25
X178.179 Y236.748
G2 Y215.594 I-4.538 J-10.577
G1 X152.37 Y204.521
G2 X133.792 I-9.289 J21.65
G1 X107.984 Y215.594
G2 Y236.748 I4.538 J10.577
G1 X133.792 Y247.821
G2 X152.37 I9.289 J-21.65
G1 X166.548 Y241.738
X178.179 Y236.748 Z-3.471
G2 X179.657 Y235.982 Z-3.5 I-4.538 J-10.577
X178.179 Y215.594 I-6.017 J-9.811
G1 X152.37 Y204.521
G2 X133.792 I-9.289 J21.65
G1 X107.984 Y215.594
G2 Y236.748 I4.538 J10.577
G1 X133.792 Y247.821
G2 X152.37 I9.289 J-21.65
G1 X166.548 Y241.738
X178.179 Y236.748
G2 X179.657 Y235.982 I-4.538 J-10.577
X184.863 Y223.618 Z-3.75 I-6.017 J-9.811
X178.179 Y215.594 I-11.223 J2.553
G1 X152.37 Y204.521
G2 X133.792 I-9.289 J21.65
G1 X107.984 Y215.594
G2 Y236.748 I4.538 J10.577
G1 X133.792 Y247.821
G2 X152.37 I9.289 J-21.65
G1 X178.179 Y236.748
G2 X184.863 Y223.618 I-4.538 J-10.577
X178.179 Y215.594 Z-3.939 I-11.223 J2.553
G1 X174.978 Y214.221 Z-4.
X152.37 Y204.521
G2 X133.792 I-9.289 J21.65
G1 X107.984 Y215.594
G2 Y236.748 I4.538 J10.577
G1 X133.792 Y247.821
G2 X152.37 I9.289 J-21.65
G1 X178.179 Y236.748
G2 Y215.594 I-4.538 J-10.577
G1 X174.978 Y214.221
X161.815 Y208.574 Z-4.25
X152.37 Y204.521
G2 X133.792 I-9.289 J21.65
G1 X107.984 Y215.594
G2 Y236.748 I4.538 J10.577
G1 X133.792 Y247.821
G2 X152.37 I9.289 J-21.65
G1 X178.179 Y236.748
G2 Y215.594 I-4.538 J-10.577
G1 X161.815 Y208.574
X152.37 Y204.521 Z-4.429
G2 X148.535 Y203.252 Z-4.5 I-9.289 J21.65
X133.792 Y204.521 I-5.454 J22.919
G1 X107.984 Y215.594
G2 Y236.748 I4.538 J10.577
G1 X133.792 Y247.821
G2 X152.37 I9.289 J-21.65
G1 X178.179 Y236.748
G2 Y215.594 I-4.538 J-10.577
G1 X161.815 Y208.574
X152.37 Y204.521
G2 X148.535 Y203.252 I-9.289 J21.65
X134.467 Y204.244 Z-4.75 I-5.454 J22.919
X133.792 Y204.521 I8.614 J21.927
G1 X107.984 Y215.594
G2 Y236.748 I4.538 J10.577
G1 X133.792 Y247.821
G2 X152.37 I9.289 J-21.65
G1 X178.179 Y236.748
G2 Y215.594 I-4.538 J-10.577
G1 X152.37 Y204.521
G2 X134.467 Y204.244 I-9.289 J21.65
X133.792 Y204.521 Z-4.763 I8.614 J21.927
G1 X121.3 Y209.881 Z-5.
X107.984 Y215.594
G2 Y236.748 I4.538 J10.577
G1 X133.792 Y247.821
G2 X152.37 I9.289 J-21.65
G1 X178.179 Y236.748
G2 Y215.594 I-4.538 J-10.577
G1 X152.37 Y204.521
G2 X133.792 I-9.289 J21.65
G1 X121.3 Y209.881
X108.138 Y215.528 Z-5.25
X107.984 Y215.594
G2 Y236.748 I4.538 J10.577
G1 X133.792 Y247.821
G2 X152.37 I9.289 J-21.65
G1 X178.179 Y236.748
G2 Y215.594 I-4.538 J-10.577
G1 X152.37 Y204.521
G2 X133.792 I-9.289 J21.65
G1 X108.138 Y215.528
X107.984 Y215.594 Z-5.253
G2 X101.036 Y226.911 Z-5.5 I4.538 J10.577
X107.984 Y236.748 I11.486 J-0.74
G1 X133.792 Y247.821
G2 X152.37 I9.289 J-21.65
G1 X178.179 Y236.748
G2 Y215.594 I-4.538 J-10.577
G1 X152.37 Y204.521
G2 X133.792 I-9.289 J21.65
G1 X108.138 Y215.528
X107.984 Y215.594
G2 X101.036 Y226.911 I4.538 J10.577
X107.984 Y236.748 Z-5.721 I11.486 J-0.74
G1 X109.499 Y237.398 Z-5.75
X133.792 Y247.821
G2 X152.37 I9.289 J-21.65
G1 X178.179 Y236.748
G2 Y215.594 I-4.538 J-10.577
G1 X152.37 Y204.521
G2 X133.792 I-9.289 J21.65
G1 X107.984 Y215.594
G2 Y236.748 I4.538 J10.577
G1 X109.499 Y237.398
X122.661 Y243.045 Z-6.
X133.792 Y247.821
G2 X152.37 I9.289 J-21.65
G1 X178.179 Y236.748
G2 Y215.594 I-4.538 J-10.577
G1 X152.37 Y204.521
G2 X133.792 I-9.289 J21.65
G1 X107.984 Y215.594
G2 Y236.748 I4.538 J10.577
G1 X122.661 Y243.045
X133.792 Y247.821 Z-6.211
G2 X135.861 Y248.596 Z-6.25 I9.289 J-21.65
X152.37 Y247.821 I7.22 J-22.425
G1 X178.179 Y236.748
G2 Y215.594 I-4.538 J-10.577
G1 X152.37 Y204.521
G2 X133.792 I-9.289 J21.65
G1 X107.984 Y215.594
G2 Y236.748 I4.538 J10.577
G1 X122.661 Y243.045
X133.792 Y247.821
G2 X135.861 Y248.596 I9.289 J-21.65
X149.964 Y248.702 Z-6.5 I7.22 J-22.425
X152.37 Y247.821 I-6.882 J-22.531
G1 X178.179 Y236.748
G2 Y215.594 I-4.538 J-10.577
G1 X152.37 Y204.521
G2 X133.792 I-9.289 J21.65
G1 X107.984 Y215.594
G2 Y236.748 I4.538 J10.577
G1 X133.792 Y247.821
G2 X149.964 Y248.702 I9.289 J-21.65
X152.37 Y247.821 Z-6.545 I-6.882 J-22.531
G1 X163.176 Y243.185 Z-6.75
X178.179 Y236.748
G2 Y215.594 I-4.538 J-10.577
G1 X152.37 Y204.521
G2 X133.792 I-9.289 J21.65
G1 X107.984 Y215.594
G2 Y236.748 I4.538 J10.577
G1 X133.792 Y247.821
G2 X152.37 I9.289 J-21.65
G1 X163.176 Y243.185
X176.338 Y237.538 Z-7.
X178.179 Y236.748
G2 Y215.594 I-4.538 J-10.577
G1 X152.37 Y204.521
G2 X133.792 I-9.289 J21.65
G1 X107.984 Y215.594
G2 Y236.748 I4.538 J10.577
G1 X133.792 Y247.821
G2 X152.37 I9.289 J-21.65
G1 X176.338 Y237.538
X178.179 Y236.748 Z-7.035
G2 X185.098 Y227.264 Z-7.25 I-4.538 J-10.577
X178.179 Y215.594 I-11.457 J-1.093
G1 X152.37 Y204.521
G2 X133.792 I-9.289 J21.65
G1 X107.984 Y215.594
G2 Y236.748 I4.538 J10.577
G1 X133.792 Y247.821
G2 X152.37 I9.289 J-21.65
G1 X176.338 Y237.538
X178.179 Y236.748
G2 X185.098 Y227.264 I-4.538 J-10.577
X178.349 Y215.669 Z-7.5 I-11.457 J-1.093
G1 X178.179 Y215.594
X152.37 Y204.521
G2 X133.792 I-9.289 J21.65
G1 X107.984 Y215.594
G2 Y236.748 I4.538 J10.577
G1 X133.792 Y247.821
G2 X152.37 I9.289 J-21.65
G1 X178.179 Y236.748
G2 X178.349 Y215.669 I-4.538 J-10.577
G1 X178.179 Y215.594 Z-7.503
X165.187 Y210.02 Z-7.75
X152.37 Y204.521
G2 X133.792 I-9.289 J21.65
G1 X107.984 Y215.594
G2 Y236.748 I4.538 J10.577
G1 X133.792 Y247.821
G2 X152.37 I9.289 J-21.65
G1 X178.179 Y236.748
G2 Y215.594 I-4.538 J-10.577
G1 X165.187 Y210.02
X157.125 Y206.561 Z-7.903
X152.37 Y204.521
G2 X133.792 I-9.289 J21.65
G1 X107.984 Y215.594
G2 Y236.748 I4.538 J10.577
G1 X133.792 Y247.821
G2 X152.37 I9.289 J-21.65
G1 X178.179 Y236.748
G2 Y215.594 I-4.538 J-10.577
G1 X165.187 Y210.02
X157.125 Y206.561
X152.37 Y204.521 Z-7.993
G2 X148.968 Y203.36 Z-8.056 I-9.289 J21.65
X133.792 Y204.521 I-5.887 J22.811
G1 X107.984 Y215.594
G2 Y236.748 I4.538 J10.577
G1 X133.792 Y247.821
G2 X152.37 I9.289 J-21.65
G1 X178.179 Y236.748
G2 Y215.594 I-4.538 J-10.577
G1 X157.125 Y206.561
X152.37 Y204.521
G2 X148.968 Y203.36 I-9.289 J21.65
G3 X148.74 Y202.973 I0.079 J-0.307
G1 X148.82 Y202.666
X148.837 Y202.597 Z-8.048
X148.854 Y202.532 Z-8.025
X148.869 Y202.474 Z-7.987
X148.882 Y202.425 Z-7.937
X148.891 Y202.389 Z-7.877
X148.897 Y202.366 Z-7.809
X148.899 Y202.358 Z-7.739
G0 Z16.

(2D CONTOUR4)
G0 X185.08 Y180.324
Z16.
Z6.
G1 Z3.818 F1600.
X185.073 Y180.321 Z3.747
X185.051 Y180.312 Z3.68
X185.016 Y180.298 Z3.62
X184.97 Y180.279 Z3.569
X184.914 Y180.257 Z3.531
X184.851 Y180.232 Z3.508
X184.786 Y180.205 Z3.5
X184.491 Y180.087
G3 X184.316 Y179.673 I0.119 J-0.294
G2 X178.179 Y164.794 Z3.189 I-10.675 J-4.302
G1 X152.37 Y153.721 Z2.699
G2 X133.792 Z2.365 I-9.289 J21.65
G1 X107.984 Y164.794 Z1.875
G2 Y185.948 Z1.407 I4.538 J10.577
G1 X133.792 Y197.021 Z0.917
G2 X143.081 Y198.93 Z0.75 I9.289 J-21.65
X152.37 Y197.021 I0. J-23.559
G1 X178.179 Y185.948
G2 Y164.794 I-4.538 J-10.577
G1 X152.37 Y153.721
G2 X133.792 I-9.289 J21.65
G1 X107.984 Y164.794
G2 Y185.948 I4.538 J10.577
G1 X133.792 Y197.021
G2 X143.081 Y198.93 I9.289 J-21.65
X152.37 Y197.021 Z0.583 I0. J-23.559
G1 X156.758 Y195.138 Z0.5
X178.179 Y185.948
G2 Y164.794 I-4.538 J-10.577
G1 X152.37 Y153.721
G2 X133.792 I-9.289 J21.65
G1 X107.984 Y164.794
G2 Y185.948 I4.538 J10.577
G1 X133.792 Y197.021
G2 X152.37 I9.289 J-21.65
G1 X156.758 Y195.138
X169.92 Y189.491 Z0.25
X178.179 Y185.948
G2 Y164.794 I-4.538 J-10.577
G1 X152.37 Y153.721
G2 X133.792 I-9.289 J21.65
G1 X107.984 Y164.794
G2 Y185.948 I4.538 J10.577
G1 X133.792 Y197.021
G2 X152.37 I9.289 J-21.65
G1 X169.92 Y189.491
X178.179 Y185.948 Z0.093
G2 X182.429 Y182.802 Z0. I-4.538 J-10.577
X178.179 Y164.794 I-8.789 J-7.431
G1 X152.37 Y153.721
G2 X133.792 I-9.289 J21.65
G1 X107.984 Y164.794
G2 Y185.948 I4.538 J10.577
G1 X133.792 Y197.021
G2 X152.37 I9.289 J-21.65
G1 X169.92 Y189.491
X178.179 Y185.948
G2 X182.429 Y182.802 I-4.538 J-10.577
X183.497 Y169.429 Z-0.25 I-8.789 J-7.431
X178.179 Y164.794 I-9.857 J5.942
G1 X152.37 Y153.721
G2 X133.792 I-9.289 J21.65
G1 X107.984 Y164.794
G2 Y185.948 I4.538 J10.577
G1 X133.792 Y197.021
G2 X152.37 I9.289 J-21.65
G1 X178.179 Y185.948
G2 X183.497 Y169.429 I-4.538 J-10.577
X178.179 Y164.794 Z-0.375 I-9.857 J5.942
G1 X171.606 Y161.974 Z-0.5
X152.37 Y153.721
G2 X133.792 I-9.289 J21.65
G1 X107.984 Y164.794
G2 Y185.948 I4.538 J10.577
G1 X133.792 Y197.021
G2 X152.37 I9.289 J-21.65
G1 X178.179 Y185.948
G2 Y164.794 I-4.538 J-10.577
G1 X171.606 Y161.974
X158.444 Y156.327 Z-0.75
X152.37 Y153.721
G2 X133.792 I-9.289 J21.65
G1 X107.984 Y164.794
G2 Y185.948 I4.538 J10.577
G1 X133.792 Y197.021
G2 X152.37 I9.289 J-21.65
G1 X178.179 Y185.948
G2 Y164.794 I-4.538 J-10.577
G1 X158.444 Y156.327
X152.37 Y153.721 Z-0.865
G2 X144.914 Y151.884 Z-1. I-9.289 J21.65
X133.792 Y153.721 I-1.833 J23.487
G1 X107.984 Y164.794
G2 Y185.948 I4.538 J10.577
G1 X133.792 Y197.021
G2 X152.37 I9.289 J-21.65
G1 X178.179 Y185.948
G2 Y164.794 I-4.538 J-10.577
G1 X158.444 Y156.327
X152.37 Y153.721
G2 X144.914 Y151.884 I-9.289 J21.65
X133.792 Y153.721 Z-1.199 I-1.833 J23.487
G1 X131.091 Y154.88 Z-1.25
X107.984 Y164.794
G2 Y185.948 I4.538 J10.577
G1 X133.792 Y197.021
G2 X152.37 I9.289 J-21.65
G1 X178.179 Y185.948
G2 Y164.794 I-4.538 J-10.577
G1 X152.37 Y153.721
G2 X133.792 I-9.289 J21.65
G1 X131.091 Y154.88
X117.929 Y160.527 Z-1.5
X107.984 Y164.794
G2 Y185.948 I4.538 J10.577
G1 X133.792 Y197.021
G2 X152.37 I9.289 J-21.65
G1 X178.179 Y185.948
G2 Y164.794 I-4.538 J-10.577
G1 X152.37 Y153.721
G2 X133.792 I-9.289 J21.65
G1 X117.929 Y160.527
X107.984 Y164.794 Z-1.689
G2 X105.024 Y166.639 Z-1.75 I4.538 J10.577
X107.984 Y185.948 I7.498 J8.732
G1 X133.792 Y197.021
G2 X152.37 I9.289 J-21.65
G1 X178.179 Y185.948
G2 Y164.794 I-4.538 J-10.577
G1 X152.37 Y153.721
G2 X133.792 I-9.289 J21.65
G1 X117.929 Y160.527
X107.984 Y164.794
G2 X105.024 Y166.639 I4.538 J10.577
X101.847 Y179.673 Z-2. I7.498 J8.732
X107.984 Y185.948 I10.675 J-4.302
G1 X133.792 Y197.021
G2 X152.37 I9.289 J-21.65
G1 X178.179 Y185.948
G2 Y164.794 I-4.538 J-10.577
G1 X152.37 Y153.721
G2 X133.792 I-9.289 J21.65
G1 X107.984 Y164.794
G2 X101.847 Y179.673 I4.538 J10.577
X107.984 Y185.948 Z-2.157 I10.675 J-4.302
G1 X112.871 Y188.045 Z-2.25
X133.792 Y197.021
G2 X152.37 I9.289 J-21.65
G1 X178.179 Y185.948
G2 Y164.794 I-4.538 J-10.577
G1 X152.37 Y153.721
G2 X133.792 I-9.289 J21.65
G1 X107.984 Y164.794
G2 Y185.948 I4.538 J10.577
G1 X112.871 Y188.045
X126.033 Y193.692 Z-2.5
X133.792 Y197.021
G2 X152.37 I9.289 J-21.65
G1 X178.179 Y185.948
G2 Y164.794 I-4.538 J-10.577
G1 X152.37 Y153.721
G2 X133.792 I-9.289 J21.65
G1 X107.984 Y164.794
G2 Y185.948 I4.538 J10.577
G1 X126.033 Y193.692
X133.792 Y197.021 Z-2.647
G2 X139.427 Y198.644 Z-2.75 I9.289 J-21.65
X152.37 Y197.021 I3.654 J-23.273
G1 X178.179 Y185.948
G2 Y164.794 I-4.538 J-10.577
G1 X152.37 Y153.721
G2 X133.792 I-9.289 J21.65
G1 X107.984 Y164.794
G2 Y185.948 I4.538 J10.577
G1 X126.033 Y193.692
X133.792 Y197.021
G2 X139.427 Y198.644 I9.289 J-21.65
X152.37 Y197.021 Z-2.981 I3.654 J-23.273
G1 X153.386 Y196.585 Z-3.
X178.179 Y185.948
G2 Y164.794 I-4.538 J-10.577
G1 X152.37 Y153.721
G2 X133.792 I-9.289 J21.65
G1 X107.984 Y164.794
G2 Y185.948 I4.538 J10.577
G1 X133.792 Y197.021
G2 X152.37 I9.289 J-21.65
G1 X153.386 Y196.585
X166.548 Y190.938 Z-3.25
X178.179 Y185.948
G2 Y164.794 I-4.538 J-10.577
G1 X152.37 Y153.721
G2 X133.792 I-9.289 J21.65
G1 X107.984 Y164.794
G2 Y185.948 I4.538 J10.577
G1 X133.792 Y197.021
G2 X152.37 I9.289 J-21.65
G1 X166.548 Y190.938
X178.179 Y185.948 Z-3.471
G2 X179.657 Y185.182 Z-3.5 I-4.538 J-10.577
X178.179 Y164.794 I-6.017 J-9.811
G1 X152.37 Y153.721
G2 X133.792 I-9.289 J21.65
G1 X107.984 Y164.794
G2 Y185.948 I4.538 J10.577
G1 X133.792 Y197.021
G2 X152.37 I9.289 J-21.65
G1 X166.548 Y190.938
X178.179 Y185.948
G2 X179.657 Y185.182 I-4.538 J-10.577
X184.863 Y172.818 Z-3.75 I-6.017 J-9.811
X178.179 Y164.794 I-11.223 J2.553
G1 X152.37 Y153.721
G2 X133.792 I-9.289 J21.65
G1 X107.984 Y164.794
G2 Y185.948 I4.538 J10.577
G1 X133.792 Y197.021
G2 X152.37 I9.289 J-21.65
G1 X178.179 Y185.948
G2 X184.863 Y172.818 I-4.538 J-10.577
X178.179 Y164.794 Z-3.939 I-11.223 J2.553
G1 X174.978 Y163.421 Z-4.
X152.37 Y153.721
G2 X133.792 I-9.289 J21.65
G1 X107.984 Y164.794
G2 Y185.948 I4.538 J10.577
G1 X133.792 Y197.021
G2 X152.37 I9.289 J-21.65
G1 X178.179 Y185.948
G2 Y164.794 I-4.538 J-10.577
G1 X174.978 Y163.421
X161.815 Y157.774 Z-4.25
X152.37 Y153.721
G2 X133.792 I-9.289 J21.65
G1 X107.984 Y164.794
G2 Y185.948 I4.538 J10.577
G1 X133.792 Y197.021
G2 X152.37 I9.289 J-21.65
G1 X178.179 Y185.948
G2 Y164.794 I-4.538 J-10.577
G1 X161.815 Y157.774
X152.37 Y153.721 Z-4.429
G2 X148.535 Y152.452 Z-4.5 I-9.289 J21.65
X133.792 Y153.721 I-5.454 J22.919
G1 X107.984 Y164.794
G2 Y185.948 I4.538 J10.577
G1 X133.792 Y197.021
G2 X152.37 I9.289 J-21.65
G1 X178.179 Y185.948
G2 Y164.794 I-4.538 J-10.577
G1 X161.815 Y157.774
X152.37 Y153.721
G2 X148.535 Y152.452 I-9.289 J21.65
X134.467 Y153.444 Z-4.75 I-5.454 J22.919
X133.792 Y153.721 I8.614 J21.927
G1 X107.984 Y164.794
G2 Y185.948 I4.538 J10.577
G1 X133.792 Y197.021
G2 X152.37 I9.289 J-21.65
G1 X178.179 Y185.948
G2 Y164.794 I-4.538 J-10.577
G1 X152.37 Y153.721
G2 X134.467 Y153.444 I-9.289 J21.65
X133.792 Y153.721 Z-4.763 I8.614 J21.927
G1 X121.3 Y159.081 Z-5.
X107.984 Y164.794
G2 Y185.948 I4.538 J10.577
G1 X133.792 Y197.021
G2 X152.37 I9.289 J-21.65
G1 X178.179 Y185.948
G2 Y164.794 I-4.538 J-10.577
G1 X152.37 Y153.721
G2 X133.792 I-9.289 J21.65
G1 X121.3 Y159.081
X108.138 Y164.728 Z-5.25
X107.984 Y164.794
G2 Y185.948 I4.538 J10.577
G1 X133.792 Y197.021
G2 X152.37 I9.289 J-21.65
G1 X178.179 Y185.948
G2 Y164.794 I-4.538 J-10.577
G1 X152.37 Y153.721
G2 X133.792 I-9.289 J21.65
G1 X108.138 Y164.728
X107.984 Y164.794 Z-5.253
G2 X101.036 Y176.111 Z-5.5 I4.538 J10.577
X107.984 Y185.948 I11.486 J-0.74
G1 X133.792 Y197.021
G2 X152.37 I9.289 J-21.65
G1 X178.179 Y185.948
G2 Y164.794 I-4.538 J-10.577
G1 X152.37 Y153.721
G2 X133.792 I-9.289 J21.65
G1 X108.138 Y164.728
X107.984 Y164.794
G2 X101.036 Y176.111 I4.538 J10.577
X107.984 Y185.948 Z-5.721 I11.486 J-0.74
G1 X109.499 Y186.598 Z-5.75
X133.792 Y197.021
G2 X152.37 I9.289 J-21.65
G1 X178.179 Y185.948
G2 Y164.794 I-4.538 J-10.577
G1 X152.37 Y153.721
G2 X133.792 I-9.289 J21.65
G1 X107.984 Y164.794
G2 Y185.948 I4.538 J10.577
G1 X109.499 Y186.598
X122.661 Y192.245 Z-6.
X133.792 Y197.021
G2 X152.37 I9.289 J-21.65
G1 X178.179 Y185.948
G2 Y164.794 I-4.538 J-10.577
G1 X152.37 Y153.721
G2 X133.792 I-9.289 J21.65
G1 X107.984 Y164.794
G2 Y185.948 I4.538 J10.577
G1 X122.661 Y192.245
X133.792 Y197.021 Z-6.211
G2 X135.861 Y197.796 Z-6.25 I9.289 J-21.65
X152.37 Y197.021 I7.22 J-22.425
G1 X178.179 Y185.948
G2 Y164.794 I-4.538 J-10.577
G1 X152.37 Y153.721
G2 X133.792 I-9.289 J21.65
G1 X107.984 Y164.794
G2 Y185.948 I4.538 J10.577
G1 X122.661 Y192.245
X133.792 Y197.021
G2 X135.861 Y197.796 I9.289 J-21.65
X149.964 Y197.902 Z-6.5 I7.22 J-22.425
X152.37 Y197.021 I-6.882 J-22.531
G1 X178.179 Y185.948
G2 Y164.794 I-4.538 J-10.577
G1 X152.37 Y153.721
G2 X133.792 I-9.289 J21.65
G1 X107.984 Y164.794
G2 Y185.948 I4.538 J10.577
G1 X133.792 Y197.021
G2 X149.964 Y197.902 I9.289 J-21.65
X152.37 Y197.021 Z-6.545 I-6.882 J-22.531
G1 X163.176 Y192.385 Z-6.75
X178.179 Y185.948
G2 Y164.794 I-4.538 J-10.577
G1 X152.37 Y153.721
G2 X133.792 I-9.289 J21.65
G1 X107.984 Y164.794
G2 Y185.948 I4.538 J10.577
G1 X133.792 Y197.021
G2 X152.37 I9.289 J-21.65
G1 X163.176 Y192.385
X176.338 Y186.738 Z-7.
X178.179 Y185.948
G2 Y164.794 I-4.538 J-10.577
G1 X152.37 Y153.721
G2 X133.792 I-9.289 J21.65
G1 X107.984 Y164.794
G2 Y185.948 I4.538 J10.577
G1 X133.792 Y197.021
G2 X152.37 I9.289 J-21.65
G1 X176.338 Y186.738
X178.179 Y185.948 Z-7.035
G2 X185.098 Y176.464 Z-7.25 I-4.538 J-10.577
X178.179 Y164.794 I-11.457 J-1.093
G1 X152.37 Y153.721
G2 X133.792 I-9.289 J21.65
G1 X107.984 Y164.794
G2 Y185.948 I4.538 J10.577
G1 X133.792 Y197.021
G2 X152.37 I9.289 J-21.65
G1 X176.338 Y186.738
X178.179 Y185.948
G2 X185.098 Y176.464 I-4.538 J-10.577
X178.349 Y164.869 Z-7.5 I-11.457 J-1.093
G1 X178.179 Y164.794
X152.37 Y153.721
G2 X133.792 I-9.289 J21.65
G1 X107.984 Y164.794
G2 Y185.948 I4.538 J10.577
G1 X133.792 Y197.021
G2 X152.37 I9.289 J-21.65
G1 X178.179 Y185.948
G2 X178.349 Y164.869 I-4.538 J-10.577
G1 X178.179 Y164.794 Z-7.503
X165.187 Y159.22 Z-7.75
X152.37 Y153.721
G2 X133.792 I-9.289 J21.65
G1 X107.984 Y164.794
G2 Y185.948 I4.538 J10.577
G1 X133.792 Y197.021
G2 X152.37 I9.289 J-21.65
G1 X178.179 Y185.948
G2 Y164.794 I-4.538 J-10.577
G1 X165.187 Y159.22
X157.125 Y155.761 Z-7.903
X152.37 Y153.721
G2 X133.792 I-9.289 J21.65
G1 X107.984 Y164.794
G2 Y185.948 I4.538 J10.577
G1 X133.792 Y197.021
G2 X152.37 I9.289 J-21.65
G1 X178.179 Y185.948
G2 Y164.794 I-4.538 J-10.577
G1 X165.187 Y159.22
X157.125 Y155.761
X152.37 Y153.721 Z-7.993
G2 X148.968 Y152.56 Z-8.056 I-9.289 J21.65
X133.792 Y153.721 I-5.887 J22.811
G1 X107.984 Y164.794
G2 Y185.948 I4.538 J10.577
G1 X133.792 Y197.021
G2 X152.37 I9.289 J-21.65
G1 X178.179 Y185.948
G2 Y164.794 I-4.538 J-10.577
G1 X157.125 Y155.761
X152.37 Y153.721
G2 X148.968 Y152.56 I-9.289 J21.65
G3 X148.74 Y152.173 I0.079 J-0.307
G1 X148.82 Y151.866
X148.837 Y151.797 Z-8.048
X148.854 Y151.732 Z-8.025
X148.869 Y151.674 Z-7.987
X148.882 Y151.625 Z-7.937
X148.891 Y151.589 Z-7.877
X148.897 Y151.566 Z-7.809
X148.899 Y151.558 Z-7.739
G0 Z16.

(2D CONTOUR4)
G0 X185.08 Y129.524
Z16.
Z6.
G1 Z3.818 F1600.
X185.073 Y129.521 Z3.747
X185.051 Y129.512 Z3.68
X185.016 Y129.498 Z3.62
X184.97 Y129.479 Z3.569
X184.914 Y129.457 Z3.531
X184.851 Y129.432 Z3.508
X184.786 Y129.405 Z3.5
X184.491 Y129.287
G3 X184.316 Y128.873 I0.119 J-0.294
G2 X178.179 Y113.994 Z3.189 I-10.675 J-4.302
G1 X152.37 Y102.921 Z2.699
G2 X133.792 Z2.365 I-9.289 J21.65
G1 X107.984 Y113.994 Z1.875
G2 Y135.148 Z1.407 I4.538 J10.577
G1 X133.792 Y146.221 Z0.917
G2 X143.081 Y148.13 Z0.75 I9.289 J-21.65
X152.37 Y146.221 I0. J-23.559
G1 X178.179 Y135.148
G2 Y113.994 I-4.538 J-10.577
G1 X152.37 Y102.921
G2 X133.792 I-9.289 J21.65
G1 X107.984 Y113.994
G2 Y135.148 I4.538 J10.577
G1 X133.792 Y146.221
G2 X143.081 Y148.13 I9.289 J-21.65
X152.37 Y146.221 Z0.583 I0. J-23.559
G1 X156.758 Y144.338 Z0.5
X178.179 Y135.148
G2 Y113.994 I-4.538 J-10.577
G1 X152.37 Y102.921
G2 X133.792 I-9.289 J21.65
G1 X107.984 Y113.994
G2 Y135.148 I4.538 J10.577
G1 X133.792 Y146.221
G2 X152.37 I9.289 J-21.65
G1 X156.758 Y144.338
X169.92 Y138.691 Z0.25
X178.179 Y135.148
G2 Y113.994 I-4.538 J-10.577
G1 X152.37 Y102.921
G2 X133.792 I-9.289 J21.65
G1 X107.984 Y113.994
G2 Y135.148 I4.538 J10.577
G1 X133.792 Y146.221
G2 X152.37 I9.289 J-21.65
G1 X169.92 Y138.691
X178.179 Y135.148 Z0.093
G2 X182.429 Y132.002 Z0. I-4.538 J-10.577
X178.179 Y113.994 I-8.789 J-7.431
G1 X152.37 Y102.921
G2 X133.792 I-9.289 J21.65
G1 X107.984 Y113.994
G2 Y135.148 I4.538 J10.577
G1 X133.792 Y146.221
G2 X152.37 I9.289 J-21.65
G1 X169.92 Y138.691
X178.179 Y135.148
G2 X182.429 Y132.002 I-4.538 J-10.577
X183.497 Y118.629 Z-0.25 I-8.789 J-7.431
X178.179 Y113.994 I-9.857 J5.942
G1 X152.37 Y102.921
G2 X133.792 I-9.289 J21.65
G1 X107.984 Y113.994
G2 Y135.148 I4.538 J10.577
G1 X133.792 Y146.221
G2 X152.37 I9.289 J-21.65
G1 X178.179 Y135.148
G2 X183.497 Y118.629 I-4.538 J-10.577
X178.179 Y113.994 Z-0.375 I-9.857 J5.942
G1 X171.606 Y111.174 Z-0.5
X152.37 Y102.921
G2 X133.792 I-9.289 J21.65
G1 X107.984 Y113.994
G2 Y135.148 I4.538 J10.577
G1 X133.792 Y146.221
G2 X152.37 I9.289 J-21.65
G1 X178.179 Y135.148
G2 Y113.994 I-4.538 J-10.577
G1 X171.606 Y111.174
X158.444 Y105.527 Z-0.75
X152.37 Y102.921
G2 X133.792 I-9.289 J21.65
G1 X107.984 Y113.994
G2 Y135.148 I4.538 J10.577
G1 X133.792 Y146.221
G2 X152.37 I9.289 J-21.65
G1 X178.179 Y135.148
G2 Y113.994 I-4.538 J-10.577
G1 X158.444 Y105.527
X152.37 Y102.921 Z-0.865
G2 X144.914 Y101.084 Z-1. I-9.289 J21.65
X133.792 Y102.921 I-1.833 J23.487
G1 X107.984 Y113.994
G2 Y135.148 I4.538 J10.577
G1 X133.792 Y146.221
G2 X152.37 I9.289 J-21.65
G1 X178.179 Y135.148
G2 Y113.994 I-4.538 J-10.577
G1 X158.444 Y105.527
X152.37 Y102.921
G2 X144.914 Y101.084 I-9.289 J21.65
X133.792 Y102.921 Z-1.199 I-1.833 J23.487
G1 X131.091 Y104.08 Z-1.25
X107.984 Y113.994
G2 Y135.148 I4.538 J10.577
G1 X133.792 Y146.221
G2 X152.37 I9.289 J-21.65
G1 X178.179 Y135.148
G2 Y113.994 I-4.538 J-10.577
G1 X152.37 Y102.921
G2 X133.792 I-9.289 J21.65
G1 X131.091 Y104.08
X117.929 Y109.727 Z-1.5
X107.984 Y113.994
G2 Y135.148 I4.538 J10.577
G1 X133.792 Y146.221
G2 X152.37 I9.289 J-21.65
G1 X178.179 Y135.148
G2 Y113.994 I-4.538 J-10.577
G1 X152.37 Y102.921
G2 X133.792 I-9.289 J21.65
G1 X117.929 Y109.727
X107.984 Y113.994 Z-1.689
G2 X105.024 Y115.839 Z-1.75 I4.538 J10.577
X107.984 Y135.148 I7.498 J8.732
G1 X133.792 Y146.221
G2 X152.37 I9.289 J-21.65
G1 X178.179 Y135.148
G2 Y113.994 I-4.538 J-10.577
G1 X152.37 Y102.921
G2 X133.792 I-9.289 J21.65
G1 X117.929 Y109.727
X107.984 Y113.994
G2 X105.024 Y115.839 I4.538 J10.577
X101.847 Y128.873 Z-2. I7.498 J8.732
X107.984 Y135.148 I10.675 J-4.302
G1 X133.792 Y146.221
G2 X152.37 I9.289 J-21.65
G1 X178.179 Y135.148
G2 Y113.994 I-4.538 J-10.577
G1 X152.37 Y102.921
G2 X133.792 I-9.289 J21.65
G1 X107.984 Y113.994
G2 X101.847 Y128.873 I4.538 J10.577
X107.984 Y135.148 Z-2.157 I10.675 J-4.302
G1 X112.871 Y137.245 Z-2.25
X133.792 Y146.221
G2 X152.37 I9.289 J-21.65
G1 X178.179 Y135.148
G2 Y113.994 I-4.538 J-10.577
G1 X152.37 Y102.921
G2 X133.792 I-9.289 J21.65
G1 X107.984 Y113.994
G2 Y135.148 I4.538 J10.577
G1 X112.871 Y137.245
X126.033 Y142.892 Z-2.5
X133.792 Y146.221
G2 X152.37 I9.289 J-21.65
G1 X178.179 Y135.148
G2 Y113.994 I-4.538 J-10.577
G1 X152.37 Y102.921
G2 X133.792 I-9.289 J21.65
G1 X107.984 Y113.994
G2 Y135.148 I4.538 J10.577
G1 X126.033 Y142.892
X133.792 Y146.221 Z-2.647
G2 X139.427 Y147.844 Z-2.75 I9.289 J-21.65
X152.37 Y146.221 I3.654 J-23.273
G1 X178.179 Y135.148
G2 Y113.994 I-4.538 J-10.577
G1 X152.37 Y102.921
G2 X133.792 I-9.289 J21.65
G1 X107.984 Y113.994
G2 Y135.148 I4.538 J10.577
G1 X126.033 Y142.892
X133.792 Y146.221
G2 X139.427 Y147.844 I9.289 J-21.65
X152.37 Y146.221 Z-2.981 I3.654 J-23.273
G1 X153.386 Y145.785 Z-3.
X178.179 Y135.148
G2 Y113.994 I-4.538 J-10.577
G1 X152.37 Y102.921
G2 X133.792 I-9.289 J21.65
G1 X107.984 Y113.994
G2 Y135.148 I4.538 J10.577
G1 X133.792 Y146.221
G2 X152.37 I9.289 J-21.65
G1 X153.386 Y145.785
X166.548 Y140.138 Z-3.25
X178.179 Y135.148
G2 Y113.994 I-4.538 J-10.577
G1 X152.37 Y102.921
G2 X133.792 I-9.289 J21.65
G1 X107.984 Y113.994
G2 Y135.148 I4.538 J10.577
G1 X133.792 Y146.221
G2 X152.37 I9.289 J-21.65
G1 X166.548 Y140.138
X178.179 Y135.148 Z-3.471
G2 X179.657 Y134.382 Z-3.5 I-4.538 J-10.577
X178.179 Y113.994 I-6.017 J-9.811
G1 X152.37 Y102.921
G2 X133.792 I-9.289 J21.65
G1 X107.984 Y113.994
G2 Y135.148 I4.538 J10.577
G1 X133.792 Y146.221
G2 X152.37 I9.289 J-21.65
G1 X166.548 Y140.138
X178.179 Y135.148
G2 X179.657 Y134.382 I-4.538 J-10.577
X184.863 Y122.018 Z-3.75 I-6.017 J-9.811
X178.179 Y113.994 I-11.223 J2.553
G1 X152.37 Y102.921
G2 X133.792 I-9.289 J21.65
G1 X107.984 Y113.994
G2 Y135.148 I4.538 J10.577
G1 X133.792 Y146.221
G2 X152.37 I9.289 J-21.65
G1 X178.179 Y135.148
G2 X184.863 Y122.018 I-4.538 J-10.577
X178.179 Y113.994 Z-3.939 I-11.223 J2.553
G1 X174.978 Y112.621 Z-4.
X152.37 Y102.921
G2 X133.792 I-9.289 J21.65
G1 X107.984 Y113.994
G2 Y135.148 I4.538 J10.577
G1 X133.792 Y146.221
G2 X152.37 I9.289 J-21.65
G1 X178.179 Y135.148
G2 Y113.994 I-4.538 J-10.577
G1 X174.978 Y112.621
X161.815 Y106.974 Z-4.25
X152.37 Y102.921
G2 X133.792 I-9.289 J21.65
G1 X107.984 Y113.994
G2 Y135.148 I4.538 J10.577
G1 X133.792 Y146.221
G2 X152.37 I9.289 J-21.65
G1 X178.179 Y135.148
G2 Y113.994 I-4.538 J-10.577
G1 X161.815 Y106.974
X152.37 Y102.921 Z-4.429
G2 X148.535 Y101.652 Z-4.5 I-9.289 J21.65
X133.792 Y102.921 I-5.454 J22.919
G1 X107.984 Y113.994
G2 Y135.148 I4.538 J10.577
G1 X133.792 Y146.221
G2 X152.37 I9.289 J-21.65
G1 X178.179 Y135.148
G2 Y113.994 I-4.538 J-10.577
G1 X161.815 Y106.974
X152.37 Y102.921
G2 X148.535 Y101.652 I-9.289 J21.65
X134.467 Y102.644 Z-4.75 I-5.454 J22.919
X133.792 Y102.921 I8.614 J21.927
G1 X107.984 Y113.994
G2 Y135.148 I4.538 J10.577
G1 X133.792 Y146.221
G2 X152.37 I9.289 J-21.65
G1 X178.179 Y135.148
G2 Y113.994 I-4.538 J-10.577
G1 X152.37 Y102.921
G2 X134.467 Y102.644 I-9.289 J21.65
X133.792 Y102.921 Z-4.763 I8.614 J21.927
G1 X121.3 Y108.281 Z-5.
X107.984 Y113.994
G2 Y135.148 I4.538 J10.577
G1 X133.792 Y146.221
G2 X152.37 I9.289 J-21.65
G1 X178.179 Y135.148
G2 Y113.994 I-4.538 J-10.577
G1 X152.37 Y102.921
G2 X133.792 I-9.289 J21.65
G1 X121.3 Y108.281
X108.138 Y113.928 Z-5.25
X107.984 Y113.994
G2 Y135.148 I4.538 J10.577
G1 X133.792 Y146.221
G2 X152.37 I9.289 J-21.65
G1 X178.179 Y135.148
G2 Y113.994 I-4.538 J-10.577
G1 X152.37 Y102.921
G2 X133.792 I-9.289 J21.65
G1 X108.138 Y113.928
X107.984 Y113.994 Z-5.253
G2 X101.036 Y125.311 Z-5.5 I4.538 J10.577
X107.984 Y135.148 I11.486 J-0.74
G1 X133.792 Y146.221
G2 X152.37 I9.289 J-21.65
G1 X178.179 Y135.148
G2 Y113.994 I-4.538 J-10.577
G1 X152.37 Y102.921
G2 X133.792 I-9.289 J21.65
G1 X108.138 Y113.928
X107.984 Y113.994
G2 X101.036 Y125.311 I4.538 J10.577
X107.984 Y135.148 Z-5.721 I11.486 J-0.74
G1 X109.499 Y135.798 Z-5.75
X133.792 Y146.221
G2 X152.37 I9.289 J-21.65
G1 X178.179 Y135.148
G2 Y113.994 I-4.538 J-10.577
G1 X152.37 Y102.921
G2 X133.792 I-9.289 J21.65
G1 X107.984 Y113.994
G2 Y135.148 I4.538 J10.577
G1 X109.499 Y135.798
X122.661 Y141.445 Z-6.
X133.792 Y146.221
G2 X152.37 I9.289 J-21.65
G1 X178.179 Y135.148
G2 Y113.994 I-4.538 J-10.577
G1 X152.37 Y102.921
G2 X133.792 I-9.289 J21.65
G1 X107.984 Y113.994
G2 Y135.148 I4.538 J10.577
G1 X122.661 Y141.445
X133.792 Y146.221 Z-6.211
G2 X135.861 Y146.996 Z-6.25 I9.289 J-21.65
X152.37 Y146.221 I7.22 J-22.425
G1 X178.179 Y135.148
G2 Y113.994 I-4.538 J-10.577
G1 X152.37 Y102.921
G2 X133.792 I-9.289 J21.65
G1 X107.984 Y113.994
G2 Y135.148 I4.538 J10.577
G1 X122.661 Y141.445
X133.792 Y146.221
G2 X135.861 Y146.996 I9.289 J-21.65
X149.964 Y147.102 Z-6.5 I7.22 J-22.425
X152.37 Y146.221 I-6.882 J-22.531
G1 X178.179 Y135.148
G2 Y113.994 I-4.538 J-10.577
G1 X152.37 Y102.921
G2 X133.792 I-9.289 J21.65
G1 X107.984 Y113.994
G2 Y135.148 I4.538 J10.577
G1 X133.792 Y146.221
G2 X149.964 Y147.102 I9.289 J-21.65
X152.37 Y146.221 Z-6.545 I-6.882 J-22.531
G1 X163.176 Y141.585 Z-6.75
X178.179 Y135.148
G2 Y113.994 I-4.538 J-10.577
G1 X152.37 Y102.921
G2 X133.792 I-9.289 J21.65
G1 X107.984 Y113.994
G2 Y135.148 I4.538 J10.577
G1 X133.792 Y146.221
G2 X152.37 I9.289 J-21.65
G1 X163.176 Y141.585
X176.338 Y135.938 Z-7.
X178.179 Y135.148
G2 Y113.994 I-4.538 J-10.577
G1 X152.37 Y102.921
G2 X133.792 I-9.289 J21.65
G1 X107.984 Y113.994
G2 Y135.148 I4.538 J10.577
G1 X133.792 Y146.221
G2 X152.37 I9.289 J-21.65
G1 X176.338 Y135.938
X178.179 Y135.148 Z-7.035
G2 X185.098 Y125.664 Z-7.25 I-4.538 J-10.577
X178.179 Y113.994 I-11.457 J-1.093
G1 X152.37 Y102.921
G2 X133.792 I-9.289 J21.65
G1 X107.984 Y113.994
G2 Y135.148 I4.538 J10.577
G1 X133.792 Y146.221
G2 X152.37 I9.289 J-21.65
G1 X176.338 Y135.938
X178.179 Y135.148
G2 X185.098 Y125.664 I-4.538 J-10.577
X178.349 Y114.069 Z-7.5 I-11.457 J-1.093
G1 X178.179 Y113.994
X152.37 Y102.921
G2 X133.792 I-9.289 J21.65
G1 X107.984 Y113.994
G2 Y135.148 I4.538 J10.577
G1 X133.792 Y146.221
G2 X152.37 I9.289 J-21.65
G1 X178.179 Y135.148
G2 X178.349 Y114.069 I-4.538 J-10.577
G1 X178.179 Y113.994 Z-7.503
X165.187 Y108.42 Z-7.75
X152.37 Y102.921
G2 X133.792 I-9.289 J21.65
G1 X107.984 Y113.994
G2 Y135.148 I4.538 J10.577
G1 X133.792 Y146.221
G2 X152.37 I9.289 J-21.65
G1 X178.179 Y135.148
G2 Y113.994 I-4.538 J-10.577
G1 X165.187 Y108.42
X157.125 Y104.961 Z-7.903
X152.37 Y102.921
G2 X133.792 I-9.289 J21.65
G1 X107.984 Y113.994
G2 Y135.148 I4.538 J10.577
G1 X133.792 Y146.221
G2 X152.37 I9.289 J-21.65
G1 X178.179 Y135.148
G2 Y113.994 I-4.538 J-10.577
G1 X165.187 Y108.42
X157.125 Y104.961
X152.37 Y102.921 Z-7.993
G2 X148.968 Y101.76 Z-8.056 I-9.289 J21.65
X133.792 Y102.921 I-5.887 J22.811
G1 X107.984 Y113.994
G2 Y135.148 I4.538 J10.577
G1 X133.792 Y146.221
G2 X152.37 I9.289 J-21.65
G1 X178.179 Y135.148
G2 Y113.994 I-4.538 J-10.577
G1 X157.125 Y104.961
X152.37 Y102.921
G2 X148.968 Y101.76 I-9.289 J21.65
G3 X148.74 Y101.373 I0.079 J-0.307
G1 X148.82 Y101.066
X148.837 Y100.997 Z-8.048
X148.854 Y100.932 Z-8.025
X148.869 Y100.874 Z-7.987
X148.882 Y100.825 Z-7.937
X148.891 Y100.789 Z-7.877
X148.897 Y100.766 Z-7.809
X148.899 Y100.758 Z-7.739
G0 Z16.

(2D CONTOUR4)
G0 X185.08 Y78.724
Z16.
Z6.
G1 Z3.818 F1600.
X185.073 Y78.721 Z3.747
X185.051 Y78.712 Z3.68
X185.016 Y78.698 Z3.62
X184.97 Y78.679 Z3.569
X184.914 Y78.657 Z3.531
X184.851 Y78.632 Z3.508
X184.786 Y78.605 Z3.5
X184.491 Y78.487
G3 X184.316 Y78.073 I0.119 J-0.294
G2 X178.179 Y63.194 Z3.189 I-10.675 J-4.302
G1 X152.37 Y52.121 Z2.699
G2 X133.792 Z2.365 I-9.289 J21.65
G1 X107.984 Y63.194 Z1.875
G2 Y84.348 Z1.407 I4.538 J10.577
G1 X133.792 Y95.421 Z0.917
G2 X143.081 Y97.33 Z0.75 I9.289 J-21.65
X152.37 Y95.421 I0. J-23.559
G1 X178.179 Y84.348
G2 Y63.194 I-4.538 J-10.577
G1 X152.37 Y52.121
G2 X133.792 I-9.289 J21.65
G1 X107.984 Y63.194
G2 Y84.348 I4.538 J10.577
G1 X133.792 Y95.421
G2 X143.081 Y97.33 I9.289 J-21.65
X152.37 Y95.421 Z0.583 I0. J-23.559
G1 X156.758 Y93.538 Z0.5
X178.179 Y84.348
G2 Y63.194 I-4.538 J-10.577
G1 X152.37 Y52.121
G2 X133.792 I-9.289 J21.65
G1 X107.984 Y63.194
G2 Y84.348 I4.538 J10.577
G1 X133.792 Y95.421
G2 X152.37 I9.289 J-21.65
G1 X156.758 Y93.538
X169.92 Y87.891 Z0.25
X178.179 Y84.348
G2 Y63.194 I-4.538 J-10.577
G1 X152.37 Y52.121
G2 X133.792 I-9.289 J21.65
G1 X107.984 Y63.194
G2 Y84.348 I4.538 J10.577
G1 X133.792 Y95.421
G2 X152.37 I9.289 J-21.65
G1 X169.92 Y87.891
X178.179 Y84.348 Z0.093
G2 X182.429 Y81.202 Z0. I-4.538 J-10.577
X178.179 Y63.194 I-8.789 J-7.431
G1 X152.37 Y52.121
G2 X133.792 I-9.289 J21.65
G1 X107.984 Y63.194
G2 Y84.348 I4.538 J10.577
G1 X133.792 Y95.421
G2 X152.37 I9.289 J-21.65
G1 X169.92 Y87.891
X178.179 Y84.348
G2 X182.429 Y81.202 I-4.538 J-10.577
X183.497 Y67.829 Z-0.25 I-8.789 J-7.431
X178.179 Y63.194 I-9.857 J5.942
G1 X152.37 Y52.121
G2 X133.792 I-9.289 J21.65
G1 X107.984 Y63.194
G2 Y84.348 I4.538 J10.577
G1 X133.792 Y95.421
G2 X152.37 I9.289 J-21.65
G1 X178.179 Y84.348
G2 X183.497 Y67.829 I-4.538 J-10.577
X178.179 Y63.194 Z-0.375 I-9.857 J5.942
G1 X171.606 Y60.374 Z-0.5
X152.37 Y52.121
G2 X133.792 I-9.289 J21.65
G1 X107.984 Y63.194
G2 Y84.348 I4.538 J10.577
G1 X133.792 Y95.421
G2 X152.37 I9.289 J-21.65
G1 X178.179 Y84.348
G2 Y63.194 I-4.538 J-10.577
G1 X171.606 Y60.374
X158.444 Y54.727 Z-0.75
X152.37 Y52.121
G2 X133.792 I-9.289 J21.65
G1 X107.984 Y63.194
G2 Y84.348 I4.538 J10.577
G1 X133.792 Y95.421
G2 X152.37 I9.289 J-21.65
G1 X178.179 Y84.348
G2 Y63.194 I-4.538 J-10.577
G1 X158.444 Y54.727
X152.37 Y52.121 Z-0.865
G2 X144.914 Y50.284 Z-1. I-9.289 J21.65
X133.792 Y52.121 I-1.833 J23.487
G1 X107.984 Y63.194
G2 Y84.348 I4.538 J10.577
G1 X133.792 Y95.421
G2 X152.37 I9.289 J-21.65
G1 X178.179 Y84.348
G2 Y63.194 I-4.538 J-10.577
G1 X158.444 Y54.727
X152.37 Y52.121
G2 X144.914 Y50.284 I-9.289 J21.65
X133.792 Y52.121 Z-1.199 I-1.833 J23.487
G1 X131.091 Y53.28 Z-1.25
X107.984 Y63.194
G2 Y84.348 I4.538 J10.577
G1 X133.792 Y95.421
G2 X152.37 I9.289 J-21.65
G1 X178.179 Y84.348
G2 Y63.194 I-4.538 J-10.577
G1 X152.37 Y52.121
G2 X133.792 I-9.289 J21.65
G1 X131.091 Y53.28
X117.929 Y58.927 Z-1.5
X107.984 Y63.194
G2 Y84.348 I4.538 J10.577
G1 X133.792 Y95.421
G2 X152.37 I9.289 J-21.65
G1 X178.179 Y84.348
G2 Y63.194 I-4.538 J-10.577
G1 X152.37 Y52.121
G2 X133.792 I-9.289 J21.65
G1 X117.929 Y58.927
X107.984 Y63.194 Z-1.689
G2 X105.024 Y65.039 Z-1.75 I4.538 J10.577
X107.984 Y84.348 I7.498 J8.732
G1 X133.792 Y95.421
G2 X152.37 I9.289 J-21.65
G1 X178.179 Y84.348
G2 Y63.194 I-4.538 J-10.577
G1 X152.37 Y52.121
G2 X133.792 I-9.289 J21.65
G1 X117.929 Y58.927
X107.984 Y63.194
G2 X105.024 Y65.039 I4.538 J10.577
X101.847 Y78.073 Z-2. I7.498 J8.732
X107.984 Y84.348 I10.675 J-4.302
G1 X133.792 Y95.421
G2 X152.37 I9.289 J-21.65
G1 X178.179 Y84.348
G2 Y63.194 I-4.538 J-10.577
G1 X152.37 Y52.121
G2 X133.792 I-9.289 J21.65
G1 X107.984 Y63.194
G2 X101.847 Y78.073 I4.538 J10.577
X107.984 Y84.348 Z-2.157 I10.675 J-4.302
G1 X112.871 Y86.445 Z-2.25
X133.792 Y95.421
G2 X152.37 I9.289 J-21.65
G1 X178.179 Y84.348
G2 Y63.194 I-4.538 J-10.577
G1 X152.37 Y52.121
G2 X133.792 I-9.289 J21.65
G1 X107.984 Y63.194
G2 Y84.348 I4.538 J10.577
G1 X112.871 Y86.445
X126.033 Y92.092 Z-2.5
X133.792 Y95.421
G2 X152.37 I9.289 J-21.65
G1 X178.179 Y84.348
G2 Y63.194 I-4.538 J-10.577
G1 X152.37 Y52.121
G2 X133.792 I-9.289 J21.65
G1 X107.984 Y63.194
G2 Y84.348 I4.538 J10.577
G1 X126.033 Y92.092
X133.792 Y95.421 Z-2.647
G2 X139.427 Y97.044 Z-2.75 I9.289 J-21.65
X152.37 Y95.421 I3.654 J-23.273
G1 X178.179 Y84.348
G2 Y63.194 I-4.538 J-10.577
G1 X152.37 Y52.121
G2 X133.792 I-9.289 J21.65
G1 X107.984 Y63.194
G2 Y84.348 I4.538 J10.577
G1 X126.033 Y92.092
X133.792 Y95.421
G2 X139.427 Y97.044 I9.289 J-21.65
X152.37 Y95.421 Z-2.981 I3.654 J-23.273
G1 X153.386 Y94.985 Z-3.
X178.179 Y84.348
G2 Y63.194 I-4.538 J-10.577
G1 X152.37 Y52.121
G2 X133.792 I-9.289 J21.65
G1 X107.984 Y63.194
G2 Y84.348 I4.538 J10.577
G1 X133.792 Y95.421
G2 X152.37 I9.289 J-21.65
G1 X153.386 Y94.985
X166.548 Y89.338 Z-3.25
X178.179 Y84.348
G2 Y63.194 I-4.538 J-10.577
G1 X152.37 Y52.121
G2 X133.792 I-9.289 J21.65
G1 X107.984 Y63.194
G2 Y84.348 I4.538 J10.577
G1 X133.792 Y95.421
G2 X152.37 I9.289 J-21.65
G1 X166.548 Y89.338
X178.179 Y84.348 Z-3.471
G2 X179.657 Y83.582 Z-3.5 I-4.538 J-10.577
X178.179 Y63.194 I-6.017 J-9.811
G1 X152.37 Y52.121
G2 X133.792 I-9.289 J21.65
G1 X107.984 Y63.194
G2 Y84.348 I4.538 J10.577
G1 X133.792 Y95.421
G2 X152.37 I9.289 J-21.65
G1 X166.548 Y89.338
X178.179 Y84.348
G2 X179.657 Y83.582 I-4.538 J-10.577
X184.863 Y71.218 Z-3.75 I-6.017 J-9.811
X178.179 Y63.194 I-11.223 J2.553
G1 X152.37 Y52.121
G2 X133.792 I-9.289 J21.65
G1 X107.984 Y63.194
G2 Y84.348 I4.538 J10.577
G1 X133.792 Y95.421
G2 X152.37 I9.289 J-21.65
G1 X178.179 Y84.348
G2 X184.863 Y71.218 I-4.538 J-10.577
X178.179 Y63.194 Z-3.939 I-11.223 J2.553
G1 X174.978 Y61.821 Z-4.
X152.37 Y52.121
G2 X133.792 I-9.289 J21.65
G1 X107.984 Y63.194
G2 Y84.348 I4.538 J10.577
G1 X133.792 Y95.421
G2 X152.37 I9.289 J-21.65
G1 X178.179 Y84.348
G2 Y63.194 I-4.538 J-10.577
G1 X174.978 Y61.821
X161.815 Y56.174 Z-4.25
X152.37 Y52.121
G2 X133.792 I-9.289 J21.65
G1 X107.984 Y63.194
G2 Y84.348 I4.538 J10.577
G1 X133.792 Y95.421
G2 X152.37 I9.289 J-21.65
G1 X178.179 Y84.348
G2 Y63.194 I-4.538 J-10.577
G1 X161.815 Y56.174
X152.37 Y52.121 Z-4.429
G2 X148.535 Y50.852 Z-4.5 I-9.289 J21.65
X133.792 Y52.121 I-5.454 J22.919
G1 X107.984 Y63.194
G2 Y84.348 I4.538 J10.577
G1 X133.792 Y95.421
G2 X152.37 I9.289 J-21.65
G1 X178.179 Y84.348
G2 Y63.194 I-4.538 J-10.577
G1 X161.815 Y56.174
X152.37 Y52.121
G2 X148.535 Y50.852 I-9.289 J21.65
X134.467 Y51.844 Z-4.75 I-5.454 J22.919
X133.792 Y52.121 I8.614 J21.927
G1 X107.984 Y63.194
G2 Y84.348 I4.538 J10.577
G1 X133.792 Y95.421
G2 X152.37 I9.289 J-21.65
G1 X178.179 Y84.348
G2 Y63.194 I-4.538 J-10.577
G1 X152.37 Y52.121
G2 X134.467 Y51.844 I-9.289 J21.65
X133.792 Y52.121 Z-4.763 I8.614 J21.927
G1 X121.3 Y57.481 Z-5.
X107.984 Y63.194
G2 Y84.348 I4.538 J10.577
G1 X133.792 Y95.421
G2 X152.37 I9.289 J-21.65
G1 X178.179 Y84.348
G2 Y63.194 I-4.538 J-10.577
G1 X152.37 Y52.121
G2 X133.792 I-9.289 J21.65
G1 X121.3 Y57.481
X108.138 Y63.128 Z-5.25
X107.984 Y63.194
G2 Y84.348 I4.538 J10.577
G1 X133.792 Y95.421
G2 X152.37 I9.289 J-21.65
G1 X178.179 Y84.348
G2 Y63.194 I-4.538 J-10.577
G1 X152.37 Y52.121
G2 X133.792 I-9.289 J21.65
G1 X108.138 Y63.128
X107.984 Y63.194 Z-5.253
G2 X101.036 Y74.511 Z-5.5 I4.538 J10.577
X107.984 Y84.348 I11.486 J-0.74
G1 X133.792 Y95.421
G2 X152.37 I9.289 J-21.65
G1 X178.179 Y84.348
G2 Y63.194 I-4.538 J-10.577
G1 X152.37 Y52.121
G2 X133.792 I-9.289 J21.65
G1 X108.138 Y63.128
X107.984 Y63.194
G2 X101.036 Y74.511 I4.538 J10.577
X107.984 Y84.348 Z-5.721 I11.486 J-0.74
G1 X109.499 Y84.998 Z-5.75
X133.792 Y95.421
G2 X152.37 I9.289 J-21.65
G1 X178.179 Y84.348
G2 Y63.194 I-4.538 J-10.577
G1 X152.37 Y52.121
G2 X133.792 I-9.289 J21.65
G1 X107.984 Y63.194
G2 Y84.348 I4.538 J10.577
G1 X109.499 Y84.998
X122.661 Y90.645 Z-6.
X133.792 Y95.421
G2 X152.37 I9.289 J-21.65
G1 X178.179 Y84.348
G2 Y63.194 I-4.538 J-10.577
G1 X152.37 Y52.121
G2 X133.792 I-9.289 J21.65
G1 X107.984 Y63.194
G2 Y84.348 I4.538 J10.577
G1 X122.661 Y90.645
X133.792 Y95.421 Z-6.211
G2 X135.861 Y96.196 Z-6.25 I9.289 J-21.65
X152.37 Y95.421 I7.22 J-22.425
G1 X178.179 Y84.348
G2 Y63.194 I-4.538 J-10.577
G1 X152.37 Y52.121
G2 X133.792 I-9.289 J21.65
G1 X107.984 Y63.194
G2 Y84.348 I4.538 J10.577
G1 X122.661 Y90.645
X133.792 Y95.421
G2 X135.861 Y96.196 I9.289 J-21.65
X149.964 Y96.302 Z-6.5 I7.22 J-22.425
X152.37 Y95.421 I-6.882 J-22.531
G1 X178.179 Y84.348
G2 Y63.194 I-4.538 J-10.577
G1 X152.37 Y52.121
G2 X133.792 I-9.289 J21.65
G1 X107.984 Y63.194
G2 Y84.348 I4.538 J10.577
G1 X133.792 Y95.421
G2 X149.964 Y96.302 I9.289 J-21.65
X152.37 Y95.421 Z-6.545 I-6.882 J-22.531
G1 X163.176 Y90.785 Z-6.75
X178.179 Y84.348
G2 Y63.194 I-4.538 J-10.577
G1 X152.37 Y52.121
G2 X133.792 I-9.289 J21.65
G1 X107.984 Y63.194
G2 Y84.348 I4.538 J10.577
G1 X133.792 Y95.421
G2 X152.37 I9.289 J-21.65
G1 X163.176 Y90.785
X176.338 Y85.138 Z-7.
X178.179 Y84.348
G2 Y63.194 I-4.538 J-10.577
G1 X152.37 Y52.121
G2 X133.792 I-9.289 J21.65
G1 X107.984 Y63.194
G2 Y84.348 I4.538 J10.577
G1 X133.792 Y95.421
G2 X152.37 I9.289 J-21.65
G1 X176.338 Y85.138
X178.179 Y84.348 Z-7.035
G2 X185.098 Y74.864 Z-7.25 I-4.538 J-10.577
X178.179 Y63.194 I-11.457 J-1.093
G1 X152.37 Y52.121
G2 X133.792 I-9.289 J21.65
G1 X107.984 Y63.194
G2 Y84.348 I4.538 J10.577
G1 X133.792 Y95.421
G2 X152.37 I9.289 J-21.65
G1 X176.338 Y85.138
X178.179 Y84.348
G2 X185.098 Y74.864 I-4.538 J-10.577
X178.349 Y63.269 Z-7.5 I-11.457 J-1.093
G1 X178.179 Y63.194
X152.37 Y52.121
G2 X133.792 I-9.289 J21.65
G1 X107.984 Y63.194
G2 Y84.348 I4.538 J10.577
G1 X133.792 Y95.421
G2 X152.37 I9.289 J-21.65
G1 X178.179 Y84.348
G2 X178.349 Y63.269 I-4.538 J-10.577
G1 X178.179 Y63.194 Z-7.503
X165.187 Y57.62 Z-7.75
X152.37 Y52.121
G2 X133.792 I-9.289 J21.65
G1 X107.984 Y63.194
G2 Y84.348 I4.538 J10.577
G1 X133.792 Y95.421
G2 X152.37 I9.289 J-21.65
G1 X178.179 Y84.348
G2 Y63.194 I-4.538 J-10.577
G1 X165.187 Y57.62
X157.125 Y54.161 Z-7.903
X152.37 Y52.121
G2 X133.792 I-9.289 J21.65
G1 X107.984 Y63.194
G2 Y84.348 I4.538 J10.577
G1 X133.792 Y95.421
G2 X152.37 I9.289 J-21.65
G1 X178.179 Y84.348
G2 Y63.194 I-4.538 J-10.577
G1 X165.187 Y57.62
X157.125 Y54.161
X152.37 Y52.121 Z-7.993
G2 X148.968 Y50.96 Z-8.056 I-9.289 J21.65
X133.792 Y52.121 I-5.887 J22.811
G1 X107.984 Y63.194
G2 Y84.348 I4.538 J10.577
G1 X133.792 Y95.421
G2 X152.37 I9.289 J-21.65
G1 X178.179 Y84.348
G2 Y63.194 I-4.538 J-10.577
G1 X157.125 Y54.161
X152.37 Y52.121
G2 X148.968 Y50.96 I-9.289 J21.65
G3 X148.74 Y50.573 I0.079 J-0.307
G1 X148.82 Y50.266
X148.837 Y50.197 Z-8.048
X148.854 Y50.132 Z-8.025
X148.869 Y50.074 Z-7.987
X148.882 Y50.025 Z-7.937
X148.891 Y49.989 Z-7.877
X148.897 Y49.966 Z-7.809
X148.899 Y49.958 Z-7.739
G0 Z16.

(2D CONTOUR4)
G0 X185.08 Y27.924
Z16.
Z6.
G1 Z3.818 F1600.
X185.073 Y27.921 Z3.747
X185.051 Y27.912 Z3.68
X185.016 Y27.898 Z3.62
X184.97 Y27.879 Z3.569
X184.914 Y27.857 Z3.531
X184.851 Y27.832 Z3.508
X184.786 Y27.805 Z3.5
X184.491 Y27.687
G3 X184.316 Y27.273 I0.119 J-0.294
G2 X178.179 Y12.394 Z3.189 I-10.675 J-4.302
G1 X152.37 Y1.321 Z2.699
G2 X133.792 Z2.365 I-9.289 J21.65
G1 X107.984 Y12.394 Z1.875
G2 Y33.548 Z1.407 I4.538 J10.577
G1 X133.792 Y44.621 Z0.917
G2 X143.081 Y46.53 Z0.75 I9.289 J-21.65
X152.37 Y44.621 I0. J-23.559
G1 X178.179 Y33.548
G2 Y12.394 I-4.538 J-10.577
G1 X152.37 Y1.321
G2 X133.792 I-9.289 J21.65
G1 X107.984 Y12.394
G2 Y33.548 I4.538 J10.577
G1 X133.792 Y44.621
G2 X143.081 Y46.53 I9.289 J-21.65
X152.37 Y44.621 Z0.583 I0. J-23.559
G1 X156.758 Y42.738 Z0.5
X178.179 Y33.548
G2 Y12.394 I-4.538 J-10.577
G1 X152.37 Y1.321
G2 X133.792 I-9.289 J21.65
G1 X107.984 Y12.394
G2 Y33.548 I4.538 J10.577
G1 X133.792 Y44.621
G2 X152.37 I9.289 J-21.65
G1 X156.758 Y42.738
X169.92 Y37.091 Z0.25
X178.179 Y33.548
G2 Y12.394 I-4.538 J-10.577
G1 X152.37 Y1.321
G2 X133.792 I-9.289 J21.65
G1 X107.984 Y12.394
G2 Y33.548 I4.538 J10.577
G1 X133.792 Y44.621
G2 X152.37 I9.289 J-21.65
G1 X169.92 Y37.091
X178.179 Y33.548 Z0.093
G2 X182.429 Y30.402 Z0. I-4.538 J-10.577
X178.179 Y12.394 I-8.789 J-7.431
G1 X152.37 Y1.321
G2 X133.792 I-9.289 J21.65
G1 X107.984 Y12.394
G2 Y33.548 I4.538 J10.577
G1 X133.792 Y44.621
G2 X152.37 I9.289 J-21.65
G1 X169.92 Y37.091
X178.179 Y33.548
G2 X182.429 Y30.402 I-4.538 J-10.577
X183.497 Y17.029 Z-0.25 I-8.789 J-7.431
X178.179 Y12.394 I-9.857 J5.942
G1 X152.37 Y1.321
G2 X133.792 I-9.289 J21.65
G1 X107.984 Y12.394
G2 Y33.548 I4.538 J10.577
G1 X133.792 Y44.621
G2 X152.37 I9.289 J-21.65
G1 X178.179 Y33.548
G2 X183.497 Y17.029 I-4.538 J-10.577
X178.179 Y12.394 Z-0.375 I-9.857 J5.942
G1 X171.606 Y9.574 Z-0.5
X152.37 Y1.321
G2 X133.792 I-9.289 J21.65
G1 X107.984 Y12.394
G2 Y33.548 I4.538 J10.577
G1 X133.792 Y44.621
G2 X152.37 I9.289 J-21.65
G1 X178.179 Y33.548
G2 Y12.394 I-4.538 J-10.577
G1 X171.606 Y9.574
X158.444 Y3.927 Z-0.75
X152.37 Y1.321
G2 X133.792 I-9.289 J21.65
G1 X107.984 Y12.394
G2 Y33.548 I4.538 J10.577
G1 X133.792 Y44.621
G2 X152.37 I9.289 J-21.65
G1 X178.179 Y33.548
G2 Y12.394 I-4.538 J-10.577
G1 X158.444 Y3.927
X152.37 Y1.321 Z-0.865
G2 X144.914 Y-0.516 Z-1. I-9.289 J21.65
X133.792 Y1.321 I-1.833 J23.487
G1 X107.984 Y12.394
G2 Y33.548 I4.538 J10.577
G1 X133.792 Y44.621
G2 X152.37 I9.289 J-21.65
G1 X178.179 Y33.548
G2 Y12.394 I-4.538 J-10.577
G1 X158.444 Y3.927
X152.37 Y1.321
G2 X144.914 Y-0.516 I-9.289 J21.65
X133.792 Y1.321 Z-1.199 I-1.833 J23.487
G1 X131.091 Y2.48 Z-1.25
X107.984 Y12.394
G2 Y33.548 I4.538 J10.577
G1 X133.792 Y44.621
G2 X152.37 I9.289 J-21.65
G1 X178.179 Y33.548
G2 Y12.394 I-4.538 J-10.577
G1 X152.37 Y1.321
G2 X133.792 I-9.289 J21.65
G1 X131.091 Y2.48
X117.929 Y8.127 Z-1.5
X107.984 Y12.394
G2 Y33.548 I4.538 J10.577
G1 X133.792 Y44.621
G2 X152.37 I9.289 J-21.65
G1 X178.179 Y33.548
G2 Y12.394 I-4.538 J-10.577
G1 X152.37 Y1.321
G2 X133.792 I-9.289 J21.65
G1 X117.929 Y8.127
X107.984 Y12.394 Z-1.689
G2 X105.024 Y14.239 Z-1.75 I4.538 J10.577
X107.984 Y33.548 I7.498 J8.732
G1 X133.792 Y44.621
G2 X152.37 I9.289 J-21.65
G1 X178.179 Y33.548
G2 Y12.394 I-4.538 J-10.577
G1 X152.37 Y1.321
G2 X133.792 I-9.289 J21.65
G1 X117.929 Y8.127
X107.984 Y12.394
G2 X105.024 Y14.239 I4.538 J10.577
X101.847 Y27.273 Z-2. I7.498 J8.732
X107.984 Y33.548 I10.675 J-4.302
G1 X133.792 Y44.621
G2 X152.37 I9.289 J-21.65
G1 X178.179 Y33.548
G2 Y12.394 I-4.538 J-10.577
G1 X152.37 Y1.321
G2 X133.792 I-9.289 J21.65
G1 X107.984 Y12.394
G2 X101.847 Y27.273 I4.538 J10.577
X107.984 Y33.548 Z-2.157 I10.675 J-4.302
G1 X112.871 Y35.645 Z-2.25
X133.792 Y44.621
G2 X152.37 I9.289 J-21.65
G1 X178.179 Y33.548
G2 Y12.394 I-4.538 J-10.577
G1 X152.37 Y1.321
G2 X133.792 I-9.289 J21.65
G1 X107.984 Y12.394
G2 Y33.548 I4.538 J10.577
G1 X112.871 Y35.645
X126.033 Y41.292 Z-2.5
X133.792 Y44.621
G2 X152.37 I9.289 J-21.65
G1 X178.179 Y33.548
G2 Y12.394 I-4.538 J-10.577
G1 X152.37 Y1.321
G2 X133.792 I-9.289 J21.65
G1 X107.984 Y12.394
G2 Y33.548 I4.538 J10.577
G1 X126.033 Y41.292
X133.792 Y44.621 Z-2.647
G2 X139.427 Y46.244 Z-2.75 I9.289 J-21.65
X152.37 Y44.621 I3.654 J-23.273
G1 X178.179 Y33.548
G2 Y12.394 I-4.538 J-10.577
G1 X152.37 Y1.321
G2 X133.792 I-9.289 J21.65
G1 X107.984 Y12.394
G2 Y33.548 I4.538 J10.577
G1 X126.033 Y41.292
X133.792 Y44.621
G2 X139.427 Y46.244 I9.289 J-21.65
